(Exported by FreeCAD)
(Post Processor: grbl_post)
(Output Time:2023-12-12 17:06:18.182242)
(Begin preamble)
G17 G90
G21
(Block-name: G54)
(Block-expand: 0)
(Block-enable: 1)
(Begin operation: G54)
(Path: G54)
G54
G0 Z5.000
(Finish operation: G54)
(Block-name: 3mm Endmill001)
(Block-expand: 0)
(Block-enable: 1)
(Begin operation: 3mm Endmill001)
(Path: 3mm Endmill001)
(3mm Endmill001)
(Begin toolchange)
( M6 T2 )
M3 S10000
(Finish operation: 3mm Endmill001)
(Block-name: Adaptive)
(Block-expand: 0)
(Block-enable: 1)
(Begin operation: Adaptive)
(Path: Adaptive)
(Adaptive)
(Helix to depth: -2.000000)
G0 Z5.000
G0 X-19.024 Y18.039 Z5.000
G0 X-19.024 Y18.039 Z3.000
G1 X-19.024 Y18.039 Z0.000 F400.000
G1 X-19.024 Y18.039 Z0.000 F400.000
G1 X-19.027 Y17.821 Z-0.019 F400.000
G1 X-18.988 Y17.606 Z-0.039 F400.000
G1 X-18.908 Y17.403 Z-0.058 F400.000
G1 X-18.789 Y17.220 Z-0.077 F400.000
G1 X-18.637 Y17.063 Z-0.097 F400.000
G1 X-18.457 Y16.939 Z-0.116 F400.000
G1 X-18.257 Y16.852 Z-0.135 F400.000
G1 X-18.043 Y16.807 Z-0.154 F400.000
G1 X-17.825 Y16.803 Z-0.174 F400.000
G1 X-17.610 Y16.843 Z-0.193 F400.000
G1 X-17.407 Y16.923 Z-0.212 F400.000
G1 X-17.223 Y17.042 Z-0.232 F400.000
G1 X-17.067 Y17.194 Z-0.251 F400.000
G1 X-16.943 Y17.374 Z-0.270 F400.000
G1 X-16.856 Y17.574 Z-0.290 F400.000
G1 X-16.810 Y17.788 Z-0.309 F400.000
G1 X-16.807 Y18.006 Z-0.328 F400.000
G1 X-16.847 Y18.221 Z-0.348 F400.000
G1 X-16.927 Y18.424 Z-0.367 F400.000
G1 X-17.046 Y18.607 Z-0.386 F400.000
G1 X-17.198 Y18.764 Z-0.405 F400.000
G1 X-17.378 Y18.888 Z-0.425 F400.000
G1 X-17.578 Y18.975 Z-0.444 F400.000
G1 X-17.792 Y19.020 Z-0.463 F400.000
G1 X-18.010 Y19.024 Z-0.483 F400.000
G1 X-18.225 Y18.984 Z-0.502 F400.000
G1 X-18.428 Y18.904 Z-0.521 F400.000
G1 X-18.611 Y18.785 Z-0.541 F400.000
G1 X-18.768 Y18.633 Z-0.560 F400.000
G1 X-18.892 Y18.453 Z-0.579 F400.000
G1 X-18.978 Y18.253 Z-0.599 F400.000
G1 X-19.024 Y18.039 Z-0.618 F400.000
G1 X-19.027 Y17.821 Z-0.637 F400.000
G1 X-18.988 Y17.606 Z-0.657 F400.000
G1 X-18.908 Y17.403 Z-0.676 F400.000
G1 X-18.789 Y17.220 Z-0.695 F400.000
G1 X-18.637 Y17.063 Z-0.714 F400.000
G1 X-18.457 Y16.939 Z-0.734 F400.000
G1 X-18.257 Y16.852 Z-0.753 F400.000
G1 X-18.043 Y16.807 Z-0.772 F400.000
G1 X-17.825 Y16.803 Z-0.792 F400.000
G1 X-17.610 Y16.843 Z-0.811 F400.000
G1 X-17.407 Y16.923 Z-0.830 F400.000
G1 X-17.223 Y17.042 Z-0.850 F400.000
G1 X-17.067 Y17.194 Z-0.869 F400.000
G1 X-16.943 Y17.374 Z-0.888 F400.000
G1 X-16.856 Y17.574 Z-0.908 F400.000
G1 X-16.810 Y17.788 Z-0.927 F400.000
G1 X-16.807 Y18.006 Z-0.946 F400.000
G1 X-16.847 Y18.221 Z-0.965 F400.000
G1 X-16.927 Y18.424 Z-0.985 F400.000
G1 X-17.046 Y18.607 Z-1.004 F400.000
G1 X-17.198 Y18.764 Z-1.023 F400.000
G1 X-17.378 Y18.888 Z-1.043 F400.000
G1 X-17.578 Y18.975 Z-1.062 F400.000
G1 X-17.792 Y19.020 Z-1.081 F400.000
G1 X-18.010 Y19.024 Z-1.101 F400.000
G1 X-18.225 Y18.984 Z-1.120 F400.000
G1 X-18.428 Y18.904 Z-1.139 F400.000
G1 X-18.611 Y18.785 Z-1.159 F400.000
G1 X-18.768 Y18.633 Z-1.178 F400.000
G1 X-18.892 Y18.453 Z-1.197 F400.000
G1 X-18.978 Y18.253 Z-1.216 F400.000
G1 X-19.024 Y18.039 Z-1.236 F400.000
G1 X-19.027 Y17.821 Z-1.255 F400.000
G1 X-18.988 Y17.606 Z-1.274 F400.000
G1 X-18.908 Y17.403 Z-1.294 F400.000
G1 X-18.789 Y17.220 Z-1.313 F400.000
G1 X-18.637 Y17.063 Z-1.332 F400.000
G1 X-18.457 Y16.939 Z-1.352 F400.000
G1 X-18.257 Y16.852 Z-1.371 F400.000
G1 X-18.043 Y16.807 Z-1.390 F400.000
G1 X-17.825 Y16.803 Z-1.410 F400.000
G1 X-17.610 Y16.843 Z-1.429 F400.000
G1 X-17.407 Y16.923 Z-1.448 F400.000
G1 X-17.223 Y17.042 Z-1.468 F400.000
G1 X-17.067 Y17.194 Z-1.487 F400.000
G1 X-16.943 Y17.374 Z-1.506 F400.000
G1 X-16.856 Y17.574 Z-1.525 F400.000
G1 X-16.810 Y17.788 Z-1.545 F400.000
G1 X-16.807 Y18.006 Z-1.564 F400.000
G1 X-16.847 Y18.221 Z-1.583 F400.000
G1 X-16.927 Y18.424 Z-1.603 F400.000
G1 X-17.046 Y18.607 Z-1.622 F400.000
G1 X-17.198 Y18.764 Z-1.641 F400.000
G1 X-17.378 Y18.888 Z-1.661 F400.000
G1 X-17.578 Y18.975 Z-1.680 F400.000
G1 X-17.792 Y19.020 Z-1.699 F400.000
G1 X-18.010 Y19.024 Z-1.719 F400.000
G1 X-18.225 Y18.984 Z-1.738 F400.000
G1 X-18.428 Y18.904 Z-1.757 F400.000
G1 X-18.611 Y18.785 Z-1.776 F400.000
G1 X-18.768 Y18.633 Z-1.796 F400.000
G1 X-18.892 Y18.453 Z-1.815 F400.000
G1 X-18.978 Y18.253 Z-1.834 F400.000
G1 X-19.024 Y18.039 Z-1.854 F400.000
G1 X-19.027 Y17.821 Z-1.873 F400.000
G1 X-18.988 Y17.606 Z-1.892 F400.000
G1 X-18.908 Y17.403 Z-1.912 F400.000
G1 X-18.789 Y17.220 Z-1.931 F400.000
G1 X-18.637 Y17.063 Z-1.950 F400.000
G1 X-18.457 Y16.939 Z-1.970 F400.000
G1 X-18.257 Y16.852 Z-1.989 F400.000
G1 X-18.043 Y16.807 Z-2.000 F500.000
G1 X-17.825 Y16.803 Z-2.000 F500.000
G1 X-17.610 Y16.843 Z-2.000 F500.000
G1 X-17.407 Y16.923 Z-2.000 F500.000
G1 X-17.223 Y17.042 Z-2.000 F500.000
G1 X-17.067 Y17.194 Z-2.000 F500.000
G1 X-16.943 Y17.374 Z-2.000 F500.000
G1 X-16.856 Y17.574 Z-2.000 F500.000
G1 X-16.810 Y17.788 Z-2.000 F500.000
G1 X-16.807 Y18.006 Z-2.000 F500.000
G1 X-16.847 Y18.221 Z-2.000 F500.000
G1 X-16.927 Y18.424 Z-2.000 F500.000
G1 X-17.046 Y18.607 Z-2.000 F500.000
G1 X-17.198 Y18.764 Z-2.000 F500.000
G1 X-17.378 Y18.888 Z-2.000 F500.000
G1 X-17.578 Y18.975 Z-2.000 F500.000
G1 X-17.792 Y19.020 Z-2.000 F500.000
G1 X-18.010 Y19.024 Z-2.000 F500.000
G1 X-18.225 Y18.984 Z-2.000 F500.000
G1 X-18.428 Y18.904 Z-2.000 F500.000
G1 X-18.611 Y18.785 Z-2.000 F500.000
G1 X-18.768 Y18.633 Z-2.000 F500.000
G1 X-18.892 Y18.453 Z-2.000 F500.000
G1 X-18.978 Y18.253 Z-2.000 F500.000
G1 X-19.024 Y18.039 Z-2.000 F500.000
G1 X-19.027 Y17.821 Z-2.000 F500.000
G1 X-18.988 Y17.606 Z-2.000 F500.000
G1 X-18.908 Y17.403 Z-2.000 F500.000
G1 X-18.789 Y17.220 Z-2.000 F500.000
G1 X-18.637 Y17.063 Z-2.000 F500.000
G1 X-18.457 Y16.939 Z-2.000 F500.000
G1 X-18.257 Y16.852 Z-2.000 F500.000
(Adaptive - depth: -2.000000)
G1 X-17.917 Y16.789 F500.000
G1 X-17.872 Y16.744 F500.000
G1 X-17.756 Y16.699 F500.000
G1 X-17.575 Y16.677 F500.000
G1 X-17.455 Y16.680 F500.000
G1 X-17.395 Y16.692 F500.000
G1 X-17.102 Y16.812 F500.000
G1 X-16.929 Y16.940 F500.000
G1 X-16.823 Y17.041 F500.000
G1 X-16.726 Y17.165 F500.000
G1 X-16.632 Y17.327 F500.000
G1 X-16.549 Y17.530 F500.000
G1 X-16.496 Y17.744 F500.000
G1 X-16.485 Y17.951 F500.000
G1 X-16.496 Y18.124 F500.000
G1 X-16.541 Y18.320 F500.000
G1 X-16.609 Y18.500 F500.000
G1 X-16.718 Y18.692 F500.000
G1 X-16.842 Y18.853 F500.000
G1 X-16.989 Y18.996 F500.000
G1 X-17.158 Y19.117 F500.000
G1 X-17.342 Y19.214 F500.000
G1 X-17.538 Y19.286 F500.000
G1 X-17.741 Y19.327 F500.000
G1 X-17.947 Y19.338 F500.000
G1 X-18.154 Y19.320 F500.000
G1 X-18.357 Y19.271 F500.000
G1 X-18.553 Y19.192 F500.000
G1 X-18.733 Y19.086 F500.000
G1 X-18.891 Y18.951 F500.000
G1 X-19.011 Y18.816 F500.000
G1 X-19.124 Y18.650 F500.000
G1 X-19.218 Y18.459 F500.000
G1 X-19.286 Y18.252 F500.000
G1 X-19.323 Y18.045 F500.000
G1 X-19.323 Y17.831 F500.000
G1 X-19.301 Y17.647 F500.000
G1 X-19.244 Y17.447 F500.000
G1 X-19.165 Y17.263 F500.000
G1 X-19.049 Y17.075 F500.000
G1 X-18.917 Y16.914 F500.000
G1 X-18.759 Y16.771 F500.000
G1 X-18.583 Y16.650 F500.000
G1 X-18.398 Y16.541 F500.000
G1 X-18.019 Y16.395 F500.000
G1 X-17.718 Y16.350 F500.000
G1 X-17.346 Y16.383 F500.000
G1 X-17.038 Y16.492 F500.000
G1 X-16.891 Y16.571 F500.000
G1 X-16.759 Y16.662 F500.000
G1 X-16.613 Y16.793 F500.000
G1 X-16.462 Y16.966 F500.000
G1 X-16.335 Y17.169 F500.000
G1 X-16.241 Y17.368 F500.000
G1 X-16.180 Y17.590 F500.000
G1 X-16.150 Y17.778 F500.000
G1 X-16.147 Y18.008 F500.000
G1 X-16.169 Y18.222 F500.000
G1 X-16.226 Y18.455 F500.000
G1 X-16.308 Y18.665 F500.000
G1 X-16.417 Y18.865 F500.000
G1 X-16.553 Y19.049 F500.000
G1 X-16.711 Y19.214 F500.000
G1 X-16.887 Y19.357 F500.000
G1 X-17.083 Y19.474 F500.000
G1 X-17.289 Y19.564 F500.000
G1 X-17.508 Y19.628 F500.000
G1 X-17.733 Y19.662 F500.000
G1 X-17.959 Y19.665 F500.000
G1 X-18.184 Y19.643 F500.000
G1 X-18.406 Y19.594 F500.000
G1 X-18.647 Y19.508 F500.000
G1 X-18.853 Y19.395 F500.000
G1 X-19.019 Y19.267 F500.000
G1 X-19.158 Y19.128 F500.000
G1 X-19.293 Y18.962 F500.000
G1 X-19.432 Y18.748 F500.000
G1 X-19.549 Y18.504 F500.000
G1 X-19.613 Y18.267 F500.000
G1 X-19.639 Y18.075 F500.000
G1 X-19.643 Y17.868 F500.000
G1 X-19.620 Y17.632 F500.000
G1 X-19.560 Y17.387 F500.000
G1 X-19.481 Y17.169 F500.000
G1 X-19.365 Y16.959 F500.000
G1 X-19.241 Y16.786 F500.000
G1 X-19.090 Y16.613 F500.000
G1 X-18.895 Y16.440 F500.000
G1 X-18.677 Y16.289 F500.000
G1 X-18.455 Y16.169 F500.000
G1 X-18.214 Y16.075 F500.000
G1 X-17.962 Y16.023 F500.000
G1 X-17.756 Y16.000 F500.000
G1 X-17.519 Y16.008 F500.000
G1 X-17.286 Y16.045 F500.000
G1 X-17.068 Y16.105 F500.000
G1 X-16.835 Y16.203 F500.000
G1 X-16.628 Y16.323 F500.000
G1 X-16.436 Y16.466 F500.000
G1 X-16.263 Y16.635 F500.000
G1 X-16.117 Y16.820 F500.000
G1 X-15.992 Y17.023 F500.000
G1 X-15.895 Y17.241 F500.000
G1 X-15.823 Y17.470 F500.000
G1 X-15.782 Y17.707 F500.000
G1 X-15.771 Y17.944 F500.000
G1 X-15.786 Y18.180 F500.000
G1 X-15.835 Y18.432 F500.000
G1 X-15.902 Y18.665 F500.000
G1 X-16.011 Y18.917 F500.000
G1 X-16.147 Y19.135 F500.000
G1 X-16.282 Y19.312 F500.000
G1 X-16.459 Y19.489 F500.000
G1 X-16.647 Y19.639 F500.000
G1 X-16.868 Y19.774 F500.000
G1 X-17.094 Y19.880 F500.000
G1 X-17.331 Y19.955 F500.000
G1 X-17.579 Y20.004 F500.000
G1 X-17.831 Y20.023 F500.000
G1 X-18.083 Y20.019 F500.000
G1 X-18.361 Y19.977 F500.000
G1 X-18.613 Y19.910 F500.000
G1 X-18.853 Y19.797 F500.000
G1 X-19.026 Y19.695 F500.000
G1 X-19.218 Y19.553 F500.000
G1 X-19.406 Y19.376 F500.000
G1 X-19.586 Y19.162 F500.000
G1 X-19.729 Y18.947 F500.000
G1 X-19.842 Y18.707 F500.000
G1 X-19.914 Y18.496 F500.000
G1 X-19.966 Y18.252 F500.000
G1 X-19.989 Y18.008 F500.000
G1 X-19.981 Y17.748 F500.000
G1 X-19.947 Y17.500 F500.000
G1 X-19.883 Y17.256 F500.000
G1 X-19.789 Y17.019 F500.000
G1 X-19.673 Y16.793 F500.000
G1 X-19.515 Y16.560 F500.000
G1 X-19.346 Y16.361 F500.000
G1 X-19.154 Y16.177 F500.000
G1 X-18.936 Y16.015 F500.000
G1 X-18.707 Y15.880 F500.000
G1 X-18.462 Y15.771 F500.000
G1 X-18.211 Y15.692 F500.000
G1 X-17.951 Y15.639 F500.000
G1 X-17.688 Y15.617 F500.000
G1 X-17.425 Y15.632 F500.000
G1 X-17.195 Y15.669 F500.000
G1 X-16.951 Y15.741 F500.000
G1 X-16.718 Y15.831 F500.000
G1 X-16.459 Y15.966 F500.000
G1 X-16.226 Y16.139 F500.000
G1 X-16.045 Y16.297 F500.000
G1 X-15.865 Y16.496 F500.000
G1 X-15.714 Y16.711 F500.000
G1 X-15.590 Y16.932 F500.000
G1 X-15.492 Y17.177 F500.000
G1 X-15.421 Y17.429 F500.000
G1 X-15.380 Y17.684 F500.000
G1 X-15.368 Y17.944 F500.000
G1 X-15.387 Y18.203 F500.000
G1 X-15.425 Y18.462 F500.000
G1 X-15.508 Y18.756 F500.000
G1 X-15.609 Y19.008 F500.000
G1 X-15.744 Y19.248 F500.000
G1 X-15.883 Y19.444 F500.000
G1 X-16.056 Y19.643 F500.000
G1 X-16.267 Y19.842 F500.000
G1 X-16.508 Y20.023 F500.000
G1 X-16.759 Y20.154 F500.000
G1 X-16.966 Y20.244 F500.000
G1 X-17.218 Y20.327 F500.000
G1 X-17.515 Y20.387 F500.000
G1 X-17.812 Y20.417 F500.000
G1 X-18.098 Y20.406 F500.000
G1 X-18.346 Y20.372 F500.000
G1 X-18.613 Y20.305 F500.000
G1 X-18.865 Y20.211 F500.000
G1 X-19.102 Y20.090 F500.000
G1 X-19.327 Y19.944 F500.000
G1 X-19.538 Y19.771 F500.000
G1 X-19.726 Y19.575 F500.000
G1 X-19.898 Y19.365 F500.000
G1 X-20.060 Y19.109 F500.000
G1 X-20.177 Y18.853 F500.000
G1 X-20.259 Y18.620 F500.000
G1 X-20.320 Y18.350 F500.000
G1 X-20.353 Y18.086 F500.000
G1 X-20.357 Y17.789 F500.000
G1 X-20.331 Y17.511 F500.000
G1 X-20.278 Y17.237 F500.000
G1 X-20.184 Y16.970 F500.000
G1 X-20.083 Y16.748 F500.000
G1 X-19.951 Y16.511 F500.000
G1 X-19.771 Y16.256 F500.000
G1 X-19.568 Y16.023 F500.000
G1 X-19.346 Y15.827 F500.000
G1 X-19.135 Y15.669 F500.000
G1 X-18.887 Y15.523 F500.000
G1 X-18.632 Y15.410 F500.000
G1 X-18.368 Y15.323 F500.000
G1 X-18.094 Y15.259 F500.000
G1 X-17.782 Y15.226 F500.000
G1 X-17.496 Y15.222 F500.000
G1 X-17.203 Y15.259 F500.000
G1 X-16.974 Y15.305 F500.000
G1 X-16.692 Y15.398 F500.000
G1 X-16.444 Y15.508 F500.000
G1 X-16.180 Y15.658 F500.000
G1 X-15.947 Y15.827 F500.000
G1 X-15.733 Y16.015 F500.000
G1 X-15.534 Y16.233 F500.000
G1 X-15.372 Y16.470 F500.000
G1 X-15.252 Y16.684 F500.000
G1 X-15.139 Y16.932 F500.000
G1 X-15.049 Y17.226 F500.000
G1 X-14.989 Y17.492 F500.000
G1 X-14.955 Y17.805 F500.000
G1 X-14.955 Y18.098 F500.000
G1 X-14.981 Y18.391 F500.000
G1 X-15.038 Y18.688 F500.000
G1 X-15.135 Y18.970 F500.000
G1 X-15.233 Y19.195 F500.000
G1 X-15.368 Y19.440 F500.000
G1 X-15.545 Y19.695 F500.000
G1 X-15.752 Y19.936 F500.000
G1 X-15.977 Y20.139 F500.000
G1 X-16.184 Y20.293 F500.000
G1 X-16.429 Y20.447 F500.000
G1 X-16.726 Y20.586 F500.000
G1 X-17.000 Y20.688 F500.000
G1 X-17.293 Y20.763 F500.000
G1 X-17.598 Y20.808 F500.000
G1 X-17.895 Y20.823 F500.000
G1 X-18.195 Y20.808 F500.000
G1 X-18.492 Y20.752 F500.000
G1 X-18.733 Y20.684 F500.000
G1 X-19.000 Y20.586 F500.000
G1 X-19.282 Y20.447 F500.000
G1 X-19.549 Y20.282 F500.000
G1 X-19.782 Y20.086 F500.000
G1 X-19.962 Y19.906 F500.000
G1 X-20.147 Y19.680 F500.000
G1 X-20.308 Y19.447 F500.000
G1 X-20.474 Y19.143 F500.000
G1 X-20.594 Y18.861 F500.000
G1 X-20.680 Y18.564 F500.000
G1 X-20.729 Y18.301 F500.000
G1 X-20.752 Y18.011 F500.000
G1 X-20.752 Y17.726 F500.000
G1 X-20.718 Y17.410 F500.000
G1 X-20.654 Y17.117 F500.000
G1 X-20.564 Y16.827 F500.000
G1 X-20.444 Y16.545 F500.000
G1 X-20.297 Y16.278 F500.000
G1 X-20.124 Y16.026 F500.000
G1 X-19.929 Y15.793 F500.000
G1 X-19.711 Y15.583 F500.000
G1 X-19.474 Y15.395 F500.000
G1 X-19.218 Y15.229 F500.000
G1 X-18.947 Y15.090 F500.000
G1 X-18.665 Y14.977 F500.000
G1 X-18.376 Y14.895 F500.000
G1 X-18.079 Y14.838 F500.000
G1 X-17.778 Y14.812 F500.000
G1 X-17.477 Y14.808 F500.000
G1 X-17.135 Y14.842 F500.000
G1 X-16.827 Y14.914 F500.000
G1 X-16.571 Y14.992 F500.000
G1 X-16.289 Y15.113 F500.000
G1 X-16.030 Y15.248 F500.000
G1 X-15.744 Y15.440 F500.000
G1 X-15.508 Y15.643 F500.000
G1 X-15.320 Y15.831 F500.000
G1 X-15.132 Y16.068 F500.000
G1 X-14.970 Y16.312 F500.000
G1 X-14.812 Y16.609 F500.000
G1 X-14.692 Y16.895 F500.000
G1 X-14.598 Y17.192 F500.000
G1 X-14.534 Y17.504 F500.000
G1 X-14.500 Y17.816 F500.000
G1 X-14.496 Y18.128 F500.000
G1 X-14.534 Y18.440 F500.000
G1 X-14.586 Y18.692 F500.000
G1 X-14.669 Y18.970 F500.000
G1 X-14.789 Y19.278 F500.000
G1 X-14.947 Y19.590 F500.000
G1 X-15.117 Y19.865 F500.000
G1 X-15.331 Y20.124 F500.000
G1 X-15.511 Y20.312 F500.000
G1 X-15.741 Y20.511 F500.000
G1 X-16.008 Y20.699 F500.000
G1 X-16.289 Y20.861 F500.000
G1 X-16.579 Y20.992 F500.000
G1 X-16.887 Y21.098 F500.000
G1 X-17.199 Y21.177 F500.000
G1 X-17.515 Y21.226 F500.000
G1 X-17.838 Y21.244 F500.000
G1 X-18.158 Y21.233 F500.000
G1 X-18.477 Y21.192 F500.000
G1 X-18.789 Y21.113 F500.000
G1 X-19.049 Y21.023 F500.000
G1 X-19.327 Y20.891 F500.000
G1 X-19.590 Y20.744 F500.000
G1 X-19.880 Y20.541 F500.000
G1 X-20.124 Y20.335 F500.000
G1 X-20.350 Y20.105 F500.000
G1 X-20.549 Y19.838 F500.000
G1 X-20.688 Y19.617 F500.000
G1 X-20.835 Y19.350 F500.000
G1 X-20.977 Y19.015 F500.000
G1 X-21.075 Y18.665 F500.000
G1 X-21.132 Y18.395 F500.000
G1 X-21.165 Y18.068 F500.000
G1 X-21.165 Y17.752 F500.000
G1 X-21.139 Y17.447 F500.000
G1 X-21.083 Y17.135 F500.000
G1 X-21.004 Y16.831 F500.000
G1 X-20.876 Y16.481 F500.000
G1 X-20.733 Y16.180 F500.000
G1 X-20.553 Y15.895 F500.000
G1 X-20.391 Y15.680 F500.000
G1 X-20.180 Y15.451 F500.000
G1 X-19.959 Y15.241 F500.000
G1 X-19.662 Y15.011 F500.000
G1 X-19.383 Y14.835 F500.000
G1 X-19.090 Y14.680 F500.000
G1 X-18.771 Y14.549 F500.000
G1 X-18.444 Y14.462 F500.000
G1 X-18.180 Y14.414 F500.000
G1 X-17.868 Y14.380 F500.000
G1 X-17.511 Y14.368 F500.000
G1 X-17.139 Y14.391 F500.000
G1 X-16.793 Y14.455 F500.000
G1 X-16.526 Y14.534 F500.000
G1 X-16.271 Y14.628 F500.000
G1 X-15.955 Y14.778 F500.000
G1 X-15.650 Y14.962 F500.000
G1 X-15.391 Y15.147 F500.000
G1 X-15.132 Y15.372 F500.000
G1 X-14.898 Y15.617 F500.000
G1 X-14.695 Y15.883 F500.000
G1 X-14.541 Y16.124 F500.000
G1 X-14.398 Y16.410 F500.000
G1 X-14.278 Y16.695 F500.000
G1 X-14.169 Y17.034 F500.000
G1 X-14.090 Y17.395 F500.000
G1 X-14.056 Y17.737 F500.000
G1 X-14.049 Y18.011 F500.000
G1 X-14.068 Y18.335 F500.000
G1 X-14.128 Y18.677 F500.000
G1 X-14.207 Y18.981 F500.000
G1 X-14.308 Y19.293 F500.000
G1 X-14.462 Y19.632 F500.000
G1 X-14.624 Y19.925 F500.000
G1 X-14.816 Y20.211 F500.000
G1 X-15.049 Y20.474 F500.000
G1 X-15.244 Y20.669 F500.000
G1 X-15.492 Y20.872 F500.000
G1 X-15.748 Y21.053 F500.000
G1 X-16.071 Y21.237 F500.000
G1 X-16.380 Y21.380 F500.000
G1 X-16.707 Y21.500 F500.000
G1 X-17.053 Y21.594 F500.000
G1 X-17.395 Y21.654 F500.000
G1 X-17.744 Y21.688 F500.000
G1 X-18.094 Y21.677 F500.000
G1 X-18.372 Y21.647 F500.000
G1 X-18.692 Y21.579 F500.000
G1 X-18.996 Y21.496 F500.000
G1 X-19.342 Y21.361 F500.000
G1 X-19.650 Y21.211 F500.000
G1 X-19.947 Y21.034 F500.000
G1 X-20.237 Y20.823 F500.000
G1 X-20.485 Y20.583 F500.000
G1 X-20.658 Y20.391 F500.000
G1 X-20.850 Y20.147 F500.000
G1 X-21.056 Y19.838 F500.000
G1 X-21.233 Y19.511 F500.000
G1 X-21.368 Y19.177 F500.000
G1 X-21.462 Y18.898 F500.000
G1 X-21.538 Y18.556 F500.000
G1 X-21.579 Y18.226 F500.000
G1 X-21.594 Y17.902 F500.000
G1 X-21.583 Y17.568 F500.000
G1 X-21.534 Y17.195 F500.000
G1 X-21.462 Y16.857 F500.000
G1 X-21.361 Y16.519 F500.000
G1 X-21.229 Y16.184 F500.000
G1 X-21.060 Y15.876 F500.000
G1 X-20.906 Y15.635 F500.000
G1 X-20.703 Y15.380 F500.000
G1 X-20.492 Y15.143 F500.000
G1 X-20.222 Y14.883 F500.000
G1 X-19.929 Y14.650 F500.000
G1 X-19.617 Y14.451 F500.000
G1 X-19.342 Y14.301 F500.000
G1 X-19.015 Y14.162 F500.000
G1 X-18.688 Y14.056 F500.000
G1 X-18.361 Y13.977 F500.000
G1 X-18.019 Y13.929 F500.000
G1 X-17.677 Y13.910 F500.000
G1 X-17.338 Y13.921 F500.000
G1 X-16.996 Y13.962 F500.000
G1 X-16.658 Y14.026 F500.000
G1 X-16.297 Y14.128 F500.000
G1 X-15.962 Y14.252 F500.000
G1 X-15.643 Y14.421 F500.000
G1 X-15.410 Y14.568 F500.000
G1 X-15.143 Y14.756 F500.000
G1 X-14.857 Y14.996 F500.000
G1 X-14.594 Y15.259 F500.000
G1 X-14.368 Y15.553 F500.000
G1 X-14.211 Y15.782 F500.000
G1 X-14.041 Y16.083 F500.000
G1 X-13.887 Y16.421 F500.000
G1 X-13.759 Y16.771 F500.000
G1 X-13.662 Y17.120 F500.000
G1 X-13.605 Y17.485 F500.000
G1 X-13.579 Y17.786 F500.000
G1 X-13.583 Y18.128 F500.000
G1 X-13.617 Y18.462 F500.000
G1 X-13.677 Y18.782 F500.000
G1 X-13.759 Y19.109 F500.000
G1 X-13.876 Y19.459 F500.000
G1 X-14.023 Y19.797 F500.000
G1 X-14.203 Y20.120 F500.000
G1 X-14.387 Y20.387 F500.000
G1 X-14.579 Y20.624 F500.000
G1 X-14.805 Y20.872 F500.000
G1 X-15.075 Y21.120 F500.000
G1 X-15.368 Y21.346 F500.000
G1 X-15.680 Y21.541 F500.000
G1 X-15.966 Y21.695 F500.000
G1 X-16.301 Y21.838 F500.000
G1 X-16.635 Y21.955 F500.000
G1 X-16.992 Y22.045 F500.000
G1 X-17.357 Y22.109 F500.000
G1 X-17.726 Y22.132 F500.000
G1 X-18.034 Y22.128 F500.000
G1 X-18.380 Y22.090 F500.000
G1 X-18.714 Y22.030 F500.000
G1 X-19.071 Y21.932 F500.000
G1 X-19.410 Y21.812 F500.000
G1 X-19.741 Y21.662 F500.000
G1 X-20.064 Y21.481 F500.000
G1 X-20.365 Y21.267 F500.000
G1 X-20.602 Y21.071 F500.000
G1 X-20.846 Y20.827 F500.000
G1 X-21.071 Y20.571 F500.000
G1 X-21.293 Y20.271 F500.000
G1 X-21.481 Y19.966 F500.000
G1 X-21.647 Y19.643 F500.000
G1 X-21.789 Y19.297 F500.000
G1 X-21.898 Y18.947 F500.000
G1 X-21.981 Y18.590 F500.000
G1 X-22.034 Y18.229 F500.000
G1 X-22.041 Y17.865 F500.000
G1 X-22.026 Y17.571 F500.000
G1 X-21.992 Y17.233 F500.000
G1 X-21.925 Y16.865 F500.000
G1 X-21.827 Y16.504 F500.000
G1 X-21.707 Y16.150 F500.000
G1 X-21.538 Y15.816 F500.000
G1 X-21.402 Y15.579 F500.000
G1 X-21.207 Y15.289 F500.000
G1 X-20.974 Y14.996 F500.000
G1 X-20.718 Y14.722 F500.000
G1 X-20.444 Y14.466 F500.000
G1 X-20.150 Y14.233 F500.000
G1 X-19.835 Y14.034 F500.000
G1 X-19.545 Y13.876 F500.000
G1 X-19.207 Y13.726 F500.000
G1 X-18.861 Y13.609 F500.000
G1 X-18.519 Y13.523 F500.000
G1 X-18.162 Y13.466 F500.000
G1 X-17.805 Y13.440 F500.000
G1 X-17.447 Y13.440 F500.000
G1 X-17.090 Y13.466 F500.000
G1 X-16.722 Y13.526 F500.000
G1 X-16.357 Y13.613 F500.000
G1 X-16.000 Y13.726 F500.000
G1 X-15.662 Y13.880 F500.000
G1 X-15.387 Y14.026 F500.000
G1 X-15.086 Y14.211 F500.000
G1 X-14.786 Y14.429 F500.000
G1 X-14.504 Y14.669 F500.000
G1 X-14.244 Y14.936 F500.000
G1 X-14.034 Y15.203 F500.000
G1 X-13.857 Y15.462 F500.000
G1 X-13.677 Y15.759 F500.000
G1 X-13.508 Y16.090 F500.000
G1 X-13.365 Y16.432 F500.000
G1 X-13.256 Y16.786 F500.000
G1 X-13.177 Y17.117 F500.000
G1 X-13.120 Y17.481 F500.000
G1 X-13.098 Y17.850 F500.000
G1 X-13.102 Y18.218 F500.000
G1 X-13.147 Y18.586 F500.000
G1 X-13.207 Y18.887 F500.000
G1 X-13.293 Y19.226 F500.000
G1 X-13.410 Y19.575 F500.000
G1 X-13.556 Y19.914 F500.000
G1 X-13.722 Y20.244 F500.000
G1 X-13.925 Y20.553 F500.000
G1 X-14.124 Y20.823 F500.000
G1 X-14.368 Y21.102 F500.000
G1 X-14.635 Y21.357 F500.000
G1 X-14.917 Y21.590 F500.000
G1 X-15.222 Y21.801 F500.000
G1 X-15.538 Y21.992 F500.000
G1 X-15.868 Y22.158 F500.000
G1 X-16.211 Y22.297 F500.000
G1 X-16.560 Y22.414 F500.000
G1 X-16.917 Y22.504 F500.000
G1 X-17.282 Y22.568 F500.000
G1 X-17.650 Y22.586 F500.000
G1 X-17.955 Y22.583 F500.000
G1 X-18.320 Y22.556 F500.000
G1 X-18.688 Y22.504 F500.000
G1 X-19.049 Y22.421 F500.000
G1 X-19.402 Y22.305 F500.000
G1 X-19.711 Y22.180 F500.000
G1 X-20.041 Y22.011 F500.000
G1 X-20.357 Y21.816 F500.000
G1 X-20.650 Y21.602 F500.000
G1 X-20.936 Y21.365 F500.000
G1 X-21.199 Y21.102 F500.000
G1 X-21.444 Y20.820 F500.000
G1 X-21.669 Y20.523 F500.000
G1 X-21.868 Y20.207 F500.000
G1 X-22.045 Y19.880 F500.000
G1 X-22.195 Y19.538 F500.000
G1 X-22.320 Y19.184 F500.000
G1 X-22.402 Y18.820 F500.000
G1 X-22.451 Y18.515 F500.000
G1 X-22.489 Y18.150 F500.000
G1 X-22.496 Y17.778 F500.000
G1 X-22.477 Y17.406 F500.000
G1 X-22.432 Y17.034 F500.000
G1 X-22.361 Y16.665 F500.000
G1 X-22.248 Y16.308 F500.000
G1 X-22.132 Y16.004 F500.000
G1 X-21.970 Y15.665 F500.000
G1 X-21.789 Y15.342 F500.000
G1 X-21.583 Y15.030 F500.000
G1 X-21.353 Y14.733 F500.000
G1 X-21.102 Y14.455 F500.000
G1 X-20.831 Y14.195 F500.000
G1 X-20.541 Y13.959 F500.000
G1 X-20.237 Y13.741 F500.000
G1 X-19.917 Y13.549 F500.000
G1 X-19.583 Y13.380 F500.000
G1 X-19.237 Y13.233 F500.000
G1 X-18.876 Y13.128 F500.000
G1 X-18.560 Y13.056 F500.000
G1 X-18.188 Y13.004 F500.000
G1 X-17.823 Y12.970 F500.000
G1 X-17.451 Y12.970 F500.000
G1 X-17.079 Y12.996 F500.000
G1 X-16.707 Y13.045 F500.000
G1 X-16.342 Y13.124 F500.000
G1 X-15.985 Y13.229 F500.000
G1 X-15.635 Y13.357 F500.000
G1 X-15.297 Y13.511 F500.000
G1 X-14.970 Y13.688 F500.000
G1 X-14.665 Y13.902 F500.000
G1 X-14.425 Y14.094 F500.000
G1 X-14.150 Y14.346 F500.000
G1 X-13.895 Y14.617 F500.000
G1 X-13.662 Y14.906 F500.000
G1 X-13.447 Y15.211 F500.000
G1 X-13.256 Y15.526 F500.000
G1 X-13.086 Y15.857 F500.000
G1 X-12.940 Y16.199 F500.000
G1 X-12.820 Y16.549 F500.000
G1 X-12.722 Y16.906 F500.000
G1 X-12.650 Y17.271 F500.000
G1 X-12.620 Y17.639 F500.000
G1 X-12.613 Y17.962 F500.000
G1 X-12.635 Y18.331 F500.000
G1 X-12.680 Y18.699 F500.000
G1 X-12.748 Y19.064 F500.000
G1 X-12.846 Y19.421 F500.000
G1 X-12.962 Y19.771 F500.000
G1 X-13.105 Y20.113 F500.000
G1 X-13.271 Y20.444 F500.000
G1 X-13.470 Y20.752 F500.000
G1 X-13.662 Y21.019 F500.000
G1 X-13.902 Y21.297 F500.000
G1 X-14.158 Y21.564 F500.000
G1 X-14.436 Y21.808 F500.000
G1 X-14.729 Y22.034 F500.000
G1 X-15.034 Y22.241 F500.000
G1 X-15.353 Y22.425 F500.000
G1 X-15.684 Y22.586 F500.000
G1 X-16.026 Y22.726 F500.000
G1 X-16.376 Y22.850 F500.000
G1 X-16.733 Y22.947 F500.000
G1 X-17.098 Y23.011 F500.000
G1 X-17.466 Y23.045 F500.000
G1 X-17.823 Y23.056 F500.000
G1 X-18.192 Y23.045 F500.000
G1 X-18.560 Y23.000 F500.000
G1 X-18.925 Y22.932 F500.000
G1 X-19.282 Y22.838 F500.000
G1 X-19.632 Y22.718 F500.000
G1 X-19.974 Y22.571 F500.000
G1 X-20.305 Y22.402 F500.000
G1 X-20.620 Y22.211 F500.000
G1 X-20.925 Y21.996 F500.000
G1 X-21.211 Y21.759 F500.000
G1 X-21.481 Y21.504 F500.000
G1 X-21.733 Y21.229 F500.000
G1 X-21.962 Y20.936 F500.000
G1 X-22.173 Y20.628 F500.000
G1 X-22.361 Y20.305 F500.000
G1 X-22.526 Y19.970 F500.000
G1 X-22.665 Y19.624 F500.000
G1 X-22.778 Y19.267 F500.000
G1 X-22.868 Y18.902 F500.000
G1 X-22.932 Y18.534 F500.000
G1 X-22.970 Y18.162 F500.000
G1 X-22.981 Y17.789 F500.000
G1 X-22.966 Y17.417 F500.000
G1 X-22.925 Y17.045 F500.000
G1 X-22.857 Y16.677 F500.000
G1 X-22.752 Y16.320 F500.000
G1 X-22.635 Y15.996 F500.000
G1 X-22.489 Y15.650 F500.000
G1 X-22.320 Y15.316 F500.000
G1 X-22.128 Y14.996 F500.000
G1 X-21.917 Y14.688 F500.000
G1 X-21.688 Y14.391 F500.000
G1 X-21.440 Y14.113 F500.000
G1 X-21.173 Y13.850 F500.000
G1 X-20.891 Y13.605 F500.000
G1 X-20.586 Y13.391 F500.000
G1 X-20.278 Y13.195 F500.000
G1 X-19.947 Y13.019 F500.000
G1 X-19.602 Y12.872 F500.000
G1 X-19.248 Y12.748 F500.000
G1 X-18.887 Y12.650 F500.000
G1 X-18.523 Y12.571 F500.000
G1 X-18.150 Y12.523 F500.000
G1 X-17.778 Y12.496 F500.000
G1 X-17.406 Y12.492 F500.000
G1 X-17.034 Y12.519 F500.000
G1 X-16.662 Y12.568 F500.000
G1 X-16.297 Y12.643 F500.000
G1 X-15.936 Y12.741 F500.000
G1 X-15.583 Y12.857 F500.000
G1 X-15.237 Y13.000 F500.000
G1 X-14.902 Y13.162 F500.000
G1 X-14.586 Y13.357 F500.000
G1 X-14.301 Y13.556 F500.000
G1 X-14.011 Y13.793 F500.000
G1 X-13.744 Y14.053 F500.000
G1 X-13.496 Y14.327 F500.000
G1 X-13.259 Y14.613 F500.000
G1 X-13.041 Y14.914 F500.000
G1 X-12.846 Y15.229 F500.000
G1 X-12.669 Y15.556 F500.000
G1 X-12.511 Y15.895 F500.000
G1 X-12.376 Y16.241 F500.000
G1 X-12.278 Y16.598 F500.000
G1 X-12.203 Y16.944 F500.000
G1 X-12.150 Y17.312 F500.000
G1 X-12.128 Y17.680 F500.000
G1 X-12.124 Y18.049 F500.000
G1 X-12.150 Y18.417 F500.000
G1 X-12.192 Y18.786 F500.000
G1 X-12.259 Y19.150 F500.000
G1 X-12.350 Y19.508 F500.000
G1 X-12.462 Y19.861 F500.000
G1 X-12.598 Y20.207 F500.000
G1 X-12.767 Y20.534 F500.000
G1 X-12.944 Y20.842 F500.000
G1 X-13.154 Y21.147 F500.000
G1 X-13.380 Y21.440 F500.000
G1 X-13.624 Y21.714 F500.000
G1 X-13.887 Y21.974 F500.000
G1 X-14.165 Y22.214 F500.000
G1 X-14.462 Y22.436 F500.000
G1 X-14.771 Y22.639 F500.000
G1 X-15.086 Y22.831 F500.000
G1 X-15.417 Y22.996 F500.000
G1 X-15.756 Y23.143 F500.000
G1 X-16.102 Y23.271 F500.000
G1 X-16.455 Y23.376 F500.000
G1 X-16.816 Y23.451 F500.000
G1 X-17.180 Y23.508 F500.000
G1 X-17.549 Y23.541 F500.000
G1 X-17.917 Y23.549 F500.000
G1 X-18.286 Y23.519 F500.000
G1 X-18.647 Y23.470 F500.000
G1 X-19.011 Y23.402 F500.000
G1 X-19.372 Y23.308 F500.000
G1 X-19.726 Y23.192 F500.000
G1 X-20.071 Y23.056 F500.000
G1 X-20.402 Y22.887 F500.000
G1 X-20.726 Y22.703 F500.000
G1 X-21.034 Y22.496 F500.000
G1 X-21.327 Y22.267 F500.000
G1 X-21.609 Y22.026 F500.000
G1 X-21.872 Y21.763 F500.000
G1 X-22.117 Y21.485 F500.000
G1 X-22.346 Y21.192 F500.000
G1 X-22.560 Y20.887 F500.000
G1 X-22.752 Y20.568 F500.000
G1 X-22.925 Y20.237 F500.000
G1 X-23.064 Y19.891 F500.000
G1 X-23.188 Y19.538 F500.000
G1 X-23.286 Y19.177 F500.000
G1 X-23.365 Y18.812 F500.000
G1 X-23.417 Y18.444 F500.000
G1 X-23.447 Y18.071 F500.000
G1 X-23.455 Y17.699 F500.000
G1 X-23.436 Y17.327 F500.000
G1 X-23.395 Y16.955 F500.000
G1 X-23.316 Y16.590 F500.000
G1 X-23.222 Y16.252 F500.000
G1 X-23.105 Y15.895 F500.000
G1 X-22.966 Y15.545 F500.000
G1 X-22.805 Y15.207 F500.000
G1 X-22.624 Y14.880 F500.000
G1 X-22.425 Y14.564 F500.000
G1 X-22.203 Y14.259 F500.000
G1 X-21.966 Y13.970 F500.000
G1 X-21.711 Y13.695 F500.000
G1 X-21.440 Y13.436 F500.000
G1 X-21.154 Y13.195 F500.000
G1 X-20.853 Y12.974 F500.000
G1 X-20.534 Y12.782 F500.000
G1 X-20.203 Y12.605 F500.000
G1 X-19.861 Y12.451 F500.000
G1 X-19.511 Y12.316 F500.000
G1 X-19.154 Y12.207 F500.000
G1 X-18.789 Y12.120 F500.000
G1 X-18.421 Y12.056 F500.000
G1 X-18.049 Y12.019 F500.000
G1 X-17.677 Y12.004 F500.000
G1 X-17.305 Y12.011 F500.000
G1 X-16.932 Y12.034 F500.000
G1 X-16.560 Y12.083 F500.000
G1 X-16.192 Y12.154 F500.000
G1 X-15.831 Y12.244 F500.000
G1 X-15.474 Y12.357 F500.000
G1 X-15.128 Y12.500 F500.000
G1 X-14.789 Y12.658 F500.000
G1 X-14.466 Y12.842 F500.000
G1 X-14.154 Y13.049 F500.000
G1 X-13.857 Y13.271 F500.000
G1 X-13.575 Y13.515 F500.000
G1 X-13.312 Y13.778 F500.000
G1 X-13.064 Y14.056 F500.000
G1 X-12.831 Y14.346 F500.000
G1 X-12.613 Y14.647 F500.000
G1 X-12.417 Y14.962 F500.000
G1 X-12.237 Y15.286 F500.000
G1 X-12.075 Y15.620 F500.000
G1 X-11.947 Y15.970 F500.000
G1 X-11.835 Y16.323 F500.000
G1 X-11.748 Y16.684 F500.000
G1 X-11.688 Y17.049 F500.000
G1 X-11.650 Y17.417 F500.000
G1 X-11.624 Y17.786 F500.000
G1 X-11.628 Y18.154 F500.000
G1 X-11.654 Y18.523 F500.000
G1 X-11.699 Y18.891 F500.000
G1 X-11.767 Y19.256 F500.000
G1 X-11.857 Y19.617 F500.000
G1 X-11.966 Y19.970 F500.000
G1 X-12.098 Y20.316 F500.000
G1 X-12.263 Y20.647 F500.000
G1 X-12.440 Y20.966 F500.000
G1 X-12.635 Y21.278 F500.000
G1 X-12.850 Y21.579 F500.000
G1 X-13.083 Y21.865 F500.000
G1 X-13.331 Y22.135 F500.000
G1 X-13.598 Y22.391 F500.000
G1 X-13.880 Y22.632 F500.000
G1 X-14.173 Y22.857 F500.000
G1 X-14.481 Y23.064 F500.000
G1 X-14.801 Y23.252 F500.000
G1 X-15.128 Y23.421 F500.000
G1 X-15.466 Y23.571 F500.000
G1 X-15.812 Y23.699 F500.000
G1 X-16.165 Y23.808 F500.000
G1 X-16.526 Y23.895 F500.000
G1 X-16.891 Y23.962 F500.000
G1 X-17.259 Y24.008 F500.000
G1 X-17.628 Y24.030 F500.000
G1 X-17.996 Y24.034 F500.000
G1 X-18.365 Y24.000 F500.000
G1 X-18.733 Y23.951 F500.000
G1 X-19.098 Y23.876 F500.000
G1 X-19.455 Y23.782 F500.000
G1 X-19.808 Y23.665 F500.000
G1 X-20.154 Y23.526 F500.000
G1 X-20.489 Y23.368 F500.000
G1 X-20.816 Y23.188 F500.000
G1 X-21.132 Y22.989 F500.000
G1 X-21.440 Y22.778 F500.000
G1 X-21.733 Y22.549 F500.000
G1 X-22.015 Y22.305 F500.000
G1 X-22.274 Y22.038 F500.000
G1 X-22.519 Y21.756 F500.000
G1 X-22.744 Y21.459 F500.000
G1 X-22.951 Y21.147 F500.000
G1 X-23.139 Y20.823 F500.000
G1 X-23.312 Y20.492 F500.000
G1 X-23.462 Y20.150 F500.000
G1 X-23.594 Y19.801 F500.000
G1 X-23.707 Y19.444 F500.000
G1 X-23.797 Y19.083 F500.000
G1 X-23.868 Y18.714 F500.000
G1 X-23.917 Y18.342 F500.000
G1 X-23.944 Y17.970 F500.000
G1 X-23.932 Y17.598 F500.000
G1 X-23.906 Y17.226 F500.000
G1 X-23.853 Y16.853 F500.000
G1 X-23.782 Y16.485 F500.000
G1 X-23.684 Y16.124 F500.000
G1 X-23.564 Y15.767 F500.000
G1 X-23.425 Y15.417 F500.000
G1 X-23.274 Y15.075 F500.000
G1 X-23.102 Y14.744 F500.000
G1 X-22.910 Y14.421 F500.000
G1 X-22.703 Y14.109 F500.000
G1 X-22.477 Y13.808 F500.000
G1 X-22.237 Y13.519 F500.000
G1 X-21.970 Y13.256 F500.000
G1 X-21.692 Y13.004 F500.000
G1 X-21.398 Y12.771 F500.000
G1 X-21.094 Y12.553 F500.000
G1 X-20.774 Y12.353 F500.000
G1 X-20.444 Y12.173 F500.000
G1 X-20.105 Y12.011 F500.000
G1 X-19.756 Y11.872 F500.000
G1 X-19.398 Y11.756 F500.000
G1 X-19.038 Y11.658 F500.000
G1 X-18.669 Y11.583 F500.000
G1 X-18.297 Y11.530 F500.000
G1 X-17.925 Y11.500 F500.000
G1 X-17.553 Y11.492 F500.000
G1 X-17.180 Y11.504 F500.000
G1 X-16.808 Y11.538 F500.000
G1 X-16.436 Y11.586 F500.000
G1 X-16.071 Y11.662 F500.000
G1 X-15.711 Y11.756 F500.000
G1 X-15.353 Y11.868 F500.000
G1 X-15.004 Y12.000 F500.000
G1 X-14.662 Y12.150 F500.000
G1 X-14.335 Y12.331 F500.000
G1 X-14.015 Y12.526 F500.000
G1 X-13.711 Y12.741 F500.000
G1 X-13.421 Y12.977 F500.000
G1 X-13.147 Y13.229 F500.000
G1 X-12.883 Y13.492 F500.000
G1 X-12.639 Y13.774 F500.000
G1 X-12.410 Y14.068 F500.000
G1 X-12.195 Y14.372 F500.000
G1 X-11.992 Y14.684 F500.000
G1 X-11.812 Y15.008 F500.000
G1 X-11.647 Y15.338 F500.000
G1 X-11.511 Y15.684 F500.000
G1 X-11.387 Y16.034 F500.000
G1 X-11.286 Y16.391 F500.000
G1 X-11.211 Y16.756 F500.000
G1 X-11.154 Y17.120 F500.000
G1 X-11.120 Y17.489 F500.000
G1 X-11.113 Y17.857 F500.000
G1 X-11.124 Y18.226 F500.000
G1 X-11.147 Y18.594 F500.000
G1 X-11.195 Y18.962 F500.000
G1 X-11.263 Y19.327 F500.000
G1 X-11.350 Y19.688 F500.000
G1 X-11.455 Y20.041 F500.000
G1 X-11.590 Y20.383 F500.000
G1 X-11.741 Y20.722 F500.000
G1 X-11.914 Y21.049 F500.000
G1 X-12.098 Y21.368 F500.000
G1 X-12.301 Y21.677 F500.000
G1 X-12.523 Y21.974 F500.000
G1 X-12.759 Y22.259 F500.000
G1 X-13.011 Y22.530 F500.000
G1 X-13.278 Y22.786 F500.000
G1 X-13.556 Y23.026 F500.000
G1 X-13.850 Y23.252 F500.000
G1 X-14.154 Y23.462 F500.000
G1 X-14.470 Y23.654 F500.000
G1 X-14.797 Y23.831 F500.000
G1 X-15.132 Y23.989 F500.000
G1 X-15.474 Y24.128 F500.000
G1 X-15.823 Y24.248 F500.000
G1 X-16.184 Y24.335 F500.000
G1 X-16.549 Y24.406 F500.000
G1 X-16.914 Y24.466 F500.000
G1 X-17.282 Y24.504 F500.000
G1 X-17.650 Y24.523 F500.000
G1 X-18.019 Y24.526 F500.000
G1 X-18.387 Y24.492 F500.000
G1 X-18.756 Y24.444 F500.000
G1 X-19.120 Y24.372 F500.000
G1 X-19.481 Y24.282 F500.000
G1 X-19.835 Y24.169 F500.000
G1 X-20.180 Y24.038 F500.000
G1 X-20.519 Y23.887 F500.000
G1 X-20.850 Y23.718 F500.000
G1 X-21.173 Y23.538 F500.000
G1 X-21.485 Y23.335 F500.000
G1 X-21.786 Y23.117 F500.000
G1 X-22.079 Y22.887 F500.000
G1 X-22.357 Y22.639 F500.000
G1 X-22.620 Y22.376 F500.000
G1 X-22.868 Y22.098 F500.000
G1 X-23.102 Y21.808 F500.000
G1 X-23.316 Y21.504 F500.000
G1 X-23.504 Y21.180 F500.000
G1 X-23.677 Y20.850 F500.000
G1 X-23.838 Y20.511 F500.000
G1 X-23.981 Y20.165 F500.000
G1 X-24.105 Y19.812 F500.000
G1 X-24.211 Y19.455 F500.000
G1 X-24.297 Y19.090 F500.000
G1 X-24.365 Y18.722 F500.000
G1 X-24.398 Y18.350 F500.000
G1 X-24.417 Y17.977 F500.000
G1 X-24.410 Y17.605 F500.000
G1 X-24.387 Y17.233 F500.000
G1 X-24.342 Y16.861 F500.000
G1 X-24.274 Y16.492 F500.000
G1 X-24.188 Y16.128 F500.000
G1 X-24.083 Y15.771 F500.000
G1 X-23.955 Y15.417 F500.000
G1 X-23.808 Y15.071 F500.000
G1 X-23.650 Y14.733 F500.000
G1 X-23.470 Y14.402 F500.000
G1 X-23.274 Y14.083 F500.000
G1 X-23.064 Y13.771 F500.000
G1 X-22.838 Y13.470 F500.000
G1 X-22.598 Y13.180 F500.000
G1 X-22.335 Y12.914 F500.000
G1 X-22.060 Y12.658 F500.000
G1 X-21.771 Y12.421 F500.000
G1 X-21.466 Y12.203 F500.000
G1 X-21.154 Y11.996 F500.000
G1 X-20.827 Y11.812 F500.000
G1 X-20.492 Y11.647 F500.000
G1 X-20.150 Y11.496 F500.000
G1 X-19.797 Y11.368 F500.000
G1 X-19.440 Y11.252 F500.000
G1 X-19.079 Y11.158 F500.000
G1 X-18.714 Y11.083 F500.000
G1 X-18.346 Y11.023 F500.000
G1 X-17.974 Y10.985 F500.000
G1 X-17.602 Y10.981 F500.000
G1 X-17.229 Y10.992 F500.000
G1 X-16.857 Y11.019 F500.000
G1 X-16.485 Y11.064 F500.000
G1 X-16.117 Y11.128 F500.000
G1 X-15.752 Y11.207 F500.000
G1 X-15.391 Y11.305 F500.000
G1 X-15.038 Y11.421 F500.000
G1 X-14.695 Y11.571 F500.000
G1 X-14.361 Y11.733 F500.000
G1 X-14.038 Y11.917 F500.000
G1 X-13.722 Y12.113 F500.000
G1 X-13.417 Y12.331 F500.000
G1 X-13.128 Y12.564 F500.000
G1 X-12.850 Y12.812 F500.000
G1 X-12.586 Y13.075 F500.000
G1 X-12.338 Y13.350 F500.000
G1 X-12.098 Y13.632 F500.000
G1 X-11.876 Y13.929 F500.000
G1 X-11.665 Y14.237 F500.000
G1 X-11.470 Y14.553 F500.000
G1 X-11.289 Y14.880 F500.000
G1 X-11.135 Y15.218 F500.000
G1 X-10.992 Y15.560 F500.000
G1 X-10.883 Y15.914 F500.000
G1 X-10.789 Y16.274 F500.000
G1 X-10.714 Y16.635 F500.000
G1 X-10.658 Y17.000 F500.000
G1 X-10.624 Y17.368 F500.000
G1 X-10.605 Y17.737 F500.000
G1 X-10.609 Y18.105 F500.000
G1 X-10.624 Y18.474 F500.000
G1 X-10.658 Y18.842 F500.000
G1 X-10.711 Y19.207 F500.000
G1 X-10.793 Y19.568 F500.000
G1 X-10.887 Y19.925 F500.000
G1 X-11.004 Y20.274 F500.000
G1 X-11.143 Y20.617 F500.000
G1 X-11.297 Y20.951 F500.000
G1 X-11.462 Y21.282 F500.000
G1 X-11.650 Y21.602 F500.000
G1 X-11.853 Y21.910 F500.000
G1 X-12.071 Y22.211 F500.000
G1 X-12.305 Y22.496 F500.000
G1 X-12.553 Y22.771 F500.000
G1 X-12.812 Y23.034 F500.000
G1 X-13.086 Y23.282 F500.000
G1 X-13.372 Y23.515 F500.000
G1 X-13.669 Y23.733 F500.000
G1 X-13.977 Y23.936 F500.000
G1 X-14.297 Y24.124 F500.000
G1 X-14.624 Y24.297 F500.000
G1 X-14.959 Y24.451 F500.000
G1 X-15.301 Y24.590 F500.000
G1 X-15.650 Y24.711 F500.000
G1 X-16.008 Y24.812 F500.000
G1 X-16.368 Y24.895 F500.000
G1 X-16.733 Y24.959 F500.000
G1 X-17.102 Y25.004 F500.000
G1 X-17.470 Y25.030 F500.000
G1 X-17.838 Y25.038 F500.000
G1 X-18.207 Y25.026 F500.000
G1 X-18.575 Y24.981 F500.000
G1 X-18.940 Y24.921 F500.000
G1 X-19.301 Y24.838 F500.000
G1 X-19.658 Y24.744 F500.000
G1 X-20.011 Y24.628 F500.000
G1 X-20.357 Y24.492 F500.000
G1 X-20.699 Y24.346 F500.000
G1 X-21.030 Y24.177 F500.000
G1 X-21.353 Y23.996 F500.000
G1 X-21.669 Y23.801 F500.000
G1 X-21.974 Y23.590 F500.000
G1 X-22.271 Y23.365 F500.000
G1 X-22.556 Y23.124 F500.000
G1 X-22.831 Y22.872 F500.000
G1 X-23.090 Y22.605 F500.000
G1 X-23.331 Y22.320 F500.000
G1 X-23.549 Y22.015 F500.000
G1 X-23.752 Y21.703 F500.000
G1 X-23.944 Y21.383 F500.000
G1 X-24.120 Y21.056 F500.000
G1 X-24.278 Y20.718 F500.000
G1 X-24.421 Y20.372 F500.000
G1 X-24.549 Y20.023 F500.000
G1 X-24.658 Y19.665 F500.000
G1 X-24.752 Y19.305 F500.000
G1 X-24.827 Y18.940 F500.000
G1 X-24.876 Y18.568 F500.000
G1 X-24.910 Y18.195 F500.000
G1 X-24.921 Y17.823 F500.000
G1 X-24.910 Y17.451 F500.000
G1 X-24.880 Y17.079 F500.000
G1 X-24.831 Y16.707 F500.000
G1 X-24.759 Y16.338 F500.000
G1 X-24.669 Y15.974 F500.000
G1 X-24.560 Y15.617 F500.000
G1 X-24.432 Y15.263 F500.000
G1 X-24.286 Y14.917 F500.000
G1 X-24.128 Y14.579 F500.000
G1 X-23.955 Y14.244 F500.000
G1 X-23.767 Y13.921 F500.000
G1 X-23.568 Y13.605 F500.000
G1 X-23.353 Y13.297 F500.000
G1 X-22.865 Y12.726 F500.000
G1 X-22.602 Y12.459 F500.000
G1 X-22.323 Y12.211 F500.000
G1 X-22.034 Y11.974 F500.000
G1 X-21.729 Y11.752 F500.000
G1 X-21.414 Y11.549 F500.000
G1 X-21.090 Y11.361 F500.000
G1 X-20.756 Y11.192 F500.000
G1 X-20.414 Y11.041 F500.000
G1 X-20.064 Y10.910 F500.000
G1 X-19.707 Y10.797 F500.000
G1 X-19.346 Y10.695 F500.000
G1 X-18.981 Y10.609 F500.000
G1 X-18.613 Y10.541 F500.000
G1 X-18.241 Y10.504 F500.000
G1 X-17.868 Y10.477 F500.000
G1 X-17.496 Y10.474 F500.000
G1 X-17.124 Y10.481 F500.000
G1 X-16.752 Y10.511 F500.000
G1 X-16.380 Y10.556 F500.000
G1 X-16.011 Y10.617 F500.000
G1 X-15.647 Y10.695 F500.000
G1 X-15.286 Y10.793 F500.000
G1 X-14.932 Y10.914 F500.000
G1 X-14.583 Y11.049 F500.000
G1 X-14.241 Y11.203 F500.000
G1 X-13.910 Y11.376 F500.000
G1 X-13.586 Y11.564 F500.000
G1 X-13.282 Y11.778 F500.000
G1 X-12.985 Y12.004 F500.000
G1 X-12.703 Y12.248 F500.000
G1 X-12.429 Y12.500 F500.000
G1 X-12.162 Y12.759 F500.000
G1 X-11.914 Y13.034 F500.000
G1 X-11.673 Y13.316 F500.000
G1 X-11.444 Y13.609 F500.000
G1 X-11.229 Y13.914 F500.000
G1 X-10.861 Y14.560 F500.000
G1 X-10.703 Y14.895 F500.000
G1 X-10.568 Y15.241 F500.000
G1 X-10.447 Y15.590 F500.000
G1 X-10.346 Y15.947 F500.000
G1 X-10.256 Y16.308 F500.000
G1 X-10.188 Y16.673 F500.000
G1 X-10.135 Y17.041 F500.000
G1 X-10.098 Y17.410 F500.000
G1 X-10.079 Y17.778 F500.000
G1 X-10.079 Y18.147 F500.000
G1 X-10.098 Y18.515 F500.000
G1 X-10.132 Y18.883 F500.000
G1 X-10.184 Y19.248 F500.000
G1 X-10.256 Y19.613 F500.000
G1 X-10.353 Y19.970 F500.000
G1 X-10.462 Y20.323 F500.000
G1 X-10.590 Y20.669 F500.000
G1 X-10.741 Y21.008 F500.000
G1 X-10.906 Y21.338 F500.000
G1 X-11.083 Y21.662 F500.000
G1 X-11.278 Y21.974 F500.000
G1 X-11.489 Y22.278 F500.000
G1 X-11.711 Y22.571 F500.000
G1 X-11.944 Y22.857 F500.000
G1 X-12.192 Y23.132 F500.000
G1 X-12.451 Y23.395 F500.000
G1 X-12.718 Y23.650 F500.000
G1 X-13.008 Y23.883 F500.000
G1 X-13.301 Y24.105 F500.000
G1 X-13.609 Y24.312 F500.000
G1 X-13.929 Y24.500 F500.000
G1 X-14.586 Y24.838 F500.000
G1 X-14.929 Y24.981 F500.000
G1 X-15.274 Y25.113 F500.000
G1 X-15.624 Y25.229 F500.000
G1 X-15.981 Y25.327 F500.000
G1 X-16.342 Y25.410 F500.000
G1 X-16.707 Y25.466 F500.000
G1 X-17.075 Y25.508 F500.000
G1 X-17.444 Y25.530 F500.000
G1 X-17.812 Y25.530 F500.000
G1 X-18.180 Y25.511 F500.000
G1 X-18.549 Y25.474 F500.000
G1 X-18.914 Y25.417 F500.000
G1 X-19.278 Y25.342 F500.000
G1 X-19.639 Y25.256 F500.000
G1 X-19.992 Y25.147 F500.000
G1 X-20.342 Y25.023 F500.000
G1 X-20.688 Y24.883 F500.000
G1 X-21.026 Y24.729 F500.000
G1 X-21.357 Y24.560 F500.000
G1 X-21.680 Y24.376 F500.000
G1 X-21.992 Y24.177 F500.000
G1 X-22.297 Y23.962 F500.000
G1 X-22.876 Y23.496 F500.000
G1 X-23.150 Y23.244 F500.000
G1 X-23.406 Y22.974 F500.000
G1 X-23.654 Y22.695 F500.000
G1 X-24.090 Y22.090 F500.000
G1 X-24.286 Y21.774 F500.000
G1 X-24.470 Y21.451 F500.000
G1 X-24.639 Y21.117 F500.000
G1 X-24.789 Y20.774 F500.000
G1 X-24.925 Y20.429 F500.000
G1 X-25.045 Y20.075 F500.000
G1 X-25.147 Y19.714 F500.000
G1 X-25.233 Y19.350 F500.000
G1 X-25.301 Y18.981 F500.000
G1 X-25.353 Y18.613 F500.000
G1 X-25.387 Y18.241 F500.000
G1 X-25.402 Y17.868 F500.000
G1 X-25.402 Y17.496 F500.000
G1 X-25.383 Y17.124 F500.000
G1 X-25.346 Y16.752 F500.000
G1 X-25.274 Y16.383 F500.000
G1 X-25.192 Y16.019 F500.000
G1 X-25.094 Y15.658 F500.000
G1 X-24.977 Y15.301 F500.000
G1 X-24.699 Y14.605 F500.000
G1 X-24.538 Y14.267 F500.000
G1 X-24.361 Y13.936 F500.000
G1 X-24.173 Y13.613 F500.000
G1 X-23.970 Y13.297 F500.000
G1 X-23.756 Y12.989 F500.000
G1 X-23.519 Y12.699 F500.000
G1 X-23.271 Y12.417 F500.000
G1 X-23.008 Y12.150 F500.000
G1 X-22.729 Y11.898 F500.000
G1 X-22.440 Y11.658 F500.000
G1 X-22.143 Y11.429 F500.000
G1 X-21.835 Y11.218 F500.000
G1 X-21.515 Y11.019 F500.000
G1 X-21.188 Y10.835 F500.000
G1 X-20.853 Y10.669 F500.000
G1 X-20.511 Y10.519 F500.000
G1 X-20.158 Y10.395 F500.000
G1 X-19.801 Y10.286 F500.000
G1 X-19.440 Y10.188 F500.000
G1 X-19.075 Y10.105 F500.000
G1 X-18.707 Y10.041 F500.000
G1 X-18.335 Y9.989 F500.000
G1 X-17.962 Y9.955 F500.000
G1 X-17.590 Y9.936 F500.000
G1 X-17.218 Y9.947 F500.000
G1 X-16.846 Y9.970 F500.000
G1 X-16.474 Y10.015 F500.000
G1 X-16.105 Y10.071 F500.000
G1 X-15.741 Y10.147 F500.000
G1 X-15.380 Y10.237 F500.000
G1 X-15.023 Y10.342 F500.000
G1 X-14.669 Y10.466 F500.000
G1 X-14.323 Y10.605 F500.000
G1 X-13.981 Y10.759 F500.000
G1 X-13.647 Y10.929 F500.000
G1 X-13.323 Y11.113 F500.000
G1 X-12.718 Y11.549 F500.000
G1 X-12.429 Y11.786 F500.000
G1 X-12.150 Y12.034 F500.000
G1 X-11.880 Y12.289 F500.000
G1 X-11.624 Y12.560 F500.000
G1 X-11.380 Y12.838 F500.000
G1 X-11.143 Y13.128 F500.000
G1 X-10.921 Y13.425 F500.000
G1 X-10.722 Y13.737 F500.000
G1 X-10.534 Y14.056 F500.000
G1 X-10.361 Y14.387 F500.000
G1 X-10.207 Y14.726 F500.000
G1 X-10.068 Y15.071 F500.000
G1 X-9.947 Y15.421 F500.000
G1 X-9.846 Y15.778 F500.000
G1 X-9.759 Y16.139 F500.000
G1 X-9.684 Y16.504 F500.000
G1 X-9.586 Y17.241 F500.000
G1 X-9.560 Y17.609 F500.000
G1 X-9.549 Y17.977 F500.000
G1 X-9.549 Y18.346 F500.000
G1 X-9.624 Y19.083 F500.000
G1 X-9.688 Y19.447 F500.000
G1 X-9.774 Y19.808 F500.000
G1 X-9.985 Y20.519 F500.000
G1 X-10.117 Y20.865 F500.000
G1 X-10.263 Y21.203 F500.000
G1 X-10.425 Y21.538 F500.000
G1 X-10.602 Y21.861 F500.000
G1 X-10.793 Y22.177 F500.000
G1 X-10.996 Y22.485 F500.000
G1 X-11.214 Y22.782 F500.000
G1 X-11.447 Y23.071 F500.000
G1 X-11.692 Y23.350 F500.000
G1 X-11.947 Y23.617 F500.000
G1 X-12.214 Y23.872 F500.000
G1 X-12.489 Y24.120 F500.000
G1 X-12.774 Y24.353 F500.000
G1 X-13.071 Y24.575 F500.000
G1 X-13.383 Y24.774 F500.000
G1 X-13.703 Y24.962 F500.000
G1 X-14.026 Y25.139 F500.000
G1 X-14.357 Y25.301 F500.000
G1 X-14.695 Y25.447 F500.000
G1 X-15.041 Y25.583 F500.000
G1 X-15.391 Y25.703 F500.000
G1 X-15.744 Y25.808 F500.000
G1 X-16.105 Y25.887 F500.000
G1 X-16.470 Y25.955 F500.000
G1 X-16.838 Y26.004 F500.000
G1 X-17.207 Y26.034 F500.000
G1 X-17.575 Y26.049 F500.000
G1 X-17.944 Y26.041 F500.000
G1 X-18.312 Y26.019 F500.000
G1 X-18.680 Y25.977 F500.000
G1 X-19.045 Y25.917 F500.000
G1 X-19.406 Y25.838 F500.000
G1 X-19.763 Y25.744 F500.000
G1 X-20.117 Y25.639 F500.000
G1 X-20.812 Y25.380 F500.000
G1 X-21.150 Y25.229 F500.000
G1 X-21.485 Y25.068 F500.000
G1 X-21.812 Y24.895 F500.000
G1 X-22.436 Y24.489 F500.000
G1 X-22.737 Y24.267 F500.000
G1 X-23.023 Y24.030 F500.000
G1 X-23.301 Y23.782 F500.000
G1 X-23.564 Y23.519 F500.000
G1 X-23.816 Y23.244 F500.000
G1 X-24.056 Y22.959 F500.000
G1 X-24.500 Y22.357 F500.000
G1 X-24.699 Y22.041 F500.000
G1 X-24.887 Y21.718 F500.000
G1 X-25.064 Y21.391 F500.000
G1 X-25.226 Y21.053 F500.000
G1 X-25.361 Y20.703 F500.000
G1 X-25.485 Y20.350 F500.000
G1 X-25.590 Y19.992 F500.000
G1 X-25.684 Y19.632 F500.000
G1 X-25.759 Y19.267 F500.000
G1 X-25.816 Y18.898 F500.000
G1 X-25.861 Y18.526 F500.000
G1 X-25.887 Y18.154 F500.000
G1 X-25.898 Y17.782 F500.000
G1 X-25.891 Y17.410 F500.000
G1 X-25.868 Y17.038 F500.000
G1 X-25.831 Y16.665 F500.000
G1 X-25.774 Y16.297 F500.000
G1 X-25.688 Y15.932 F500.000
G1 X-25.590 Y15.571 F500.000
G1 X-25.481 Y15.214 F500.000
G1 X-25.353 Y14.861 F500.000
G1 X-25.211 Y14.515 F500.000
G1 X-25.056 Y14.173 F500.000
G1 X-24.887 Y13.838 F500.000
G1 X-24.703 Y13.511 F500.000
G1 X-24.508 Y13.192 F500.000
G1 X-24.301 Y12.880 F500.000
G1 X-24.079 Y12.575 F500.000
G1 X-23.846 Y12.282 F500.000
G1 X-23.327 Y11.744 F500.000
G1 X-23.049 Y11.492 F500.000
G1 X-22.759 Y11.252 F500.000
G1 X-22.459 Y11.026 F500.000
G1 X-21.831 Y10.613 F500.000
G1 X-21.504 Y10.429 F500.000
G1 X-21.173 Y10.256 F500.000
G1 X-20.827 Y10.109 F500.000
G1 X-20.477 Y9.974 F500.000
G1 X-20.124 Y9.850 F500.000
G1 X-19.767 Y9.741 F500.000
G1 X-19.402 Y9.650 F500.000
G1 X-19.038 Y9.571 F500.000
G1 X-18.669 Y9.508 F500.000
G1 X-18.297 Y9.459 F500.000
G1 X-17.925 Y9.425 F500.000
G1 X-17.180 Y9.425 F500.000
G1 X-16.808 Y9.451 F500.000
G1 X-16.436 Y9.489 F500.000
G1 X-16.068 Y9.545 F500.000
G1 X-15.703 Y9.620 F500.000
G1 X-14.977 Y9.808 F500.000
G1 X-14.624 Y9.925 F500.000
G1 X-14.274 Y10.053 F500.000
G1 X-13.929 Y10.195 F500.000
G1 X-13.267 Y10.541 F500.000
G1 X-12.947 Y10.733 F500.000
G1 X-12.639 Y10.944 F500.000
G1 X-12.342 Y11.165 F500.000
G1 X-11.778 Y11.647 F500.000
G1 X-11.511 Y11.906 F500.000
G1 X-11.256 Y12.177 F500.000
G1 X-10.774 Y12.744 F500.000
G1 X-10.338 Y13.346 F500.000
G1 X-9.970 Y13.989 F500.000
G1 X-9.808 Y14.323 F500.000
G1 X-9.665 Y14.665 F500.000
G1 X-9.534 Y15.011 F500.000
G1 X-9.316 Y15.722 F500.000
G1 X-9.158 Y16.444 F500.000
G1 X-9.098 Y16.808 F500.000
G1 X-9.053 Y17.177 F500.000
G1 X-9.019 Y17.545 F500.000
G1 X-9.011 Y17.914 F500.000
G1 X-9.015 Y18.282 F500.000
G1 X-9.034 Y18.650 F500.000
G1 X-9.075 Y19.019 F500.000
G1 X-9.128 Y19.383 F500.000
G1 X-9.199 Y19.748 F500.000
G1 X-9.289 Y20.109 F500.000
G1 X-9.395 Y20.462 F500.000
G1 X-9.515 Y20.812 F500.000
G1 X-9.650 Y21.154 F500.000
G1 X-9.801 Y21.492 F500.000
G1 X-9.970 Y21.823 F500.000
G1 X-10.154 Y22.147 F500.000
G1 X-10.350 Y22.459 F500.000
G1 X-10.556 Y22.767 F500.000
G1 X-11.004 Y23.357 F500.000
G1 X-11.241 Y23.639 F500.000
G1 X-11.489 Y23.914 F500.000
G1 X-11.752 Y24.173 F500.000
G1 X-12.023 Y24.425 F500.000
G1 X-12.305 Y24.662 F500.000
G1 X-12.598 Y24.887 F500.000
G1 X-12.898 Y25.102 F500.000
G1 X-13.211 Y25.301 F500.000
G1 X-13.530 Y25.489 F500.000
G1 X-13.857 Y25.662 F500.000
G1 X-14.192 Y25.820 F500.000
G1 X-14.530 Y25.966 F500.000
G1 X-14.876 Y26.098 F500.000
G1 X-15.226 Y26.214 F500.000
G1 X-15.583 Y26.316 F500.000
G1 X-15.944 Y26.402 F500.000
G1 X-16.308 Y26.459 F500.000
G1 X-17.045 Y26.541 F500.000
G1 X-17.414 Y26.560 F500.000
G1 X-17.782 Y26.564 F500.000
G1 X-18.150 Y26.545 F500.000
G1 X-18.519 Y26.515 F500.000
G1 X-18.887 Y26.466 F500.000
G1 X-19.252 Y26.398 F500.000
G1 X-19.613 Y26.316 F500.000
G1 X-19.970 Y26.218 F500.000
G1 X-20.673 Y25.977 F500.000
G1 X-21.019 Y25.846 F500.000
G1 X-21.692 Y25.538 F500.000
G1 X-22.335 Y25.162 F500.000
G1 X-22.647 Y24.959 F500.000
G1 X-22.947 Y24.737 F500.000
G1 X-23.237 Y24.504 F500.000
G1 X-23.519 Y24.259 F500.000
G1 X-23.786 Y24.004 F500.000
G1 X-24.045 Y23.737 F500.000
G1 X-24.289 Y23.459 F500.000
G1 X-24.523 Y23.169 F500.000
G1 X-24.959 Y22.564 F500.000
G1 X-25.158 Y22.248 F500.000
G1 X-25.519 Y21.594 F500.000
G1 X-25.680 Y21.256 F500.000
G1 X-25.827 Y20.914 F500.000
G1 X-26.068 Y20.211 F500.000
G1 X-26.165 Y19.850 F500.000
G1 X-26.244 Y19.485 F500.000
G1 X-26.308 Y19.117 F500.000
G1 X-26.357 Y18.744 F500.000
G1 X-26.387 Y18.372 F500.000
G1 X-26.402 Y18.000 F500.000
G1 X-26.406 Y17.628 F500.000
G1 X-26.391 Y17.256 F500.000
G1 X-26.361 Y16.883 F500.000
G1 X-26.320 Y16.511 F500.000
G1 X-26.259 Y16.143 F500.000
G1 X-26.177 Y15.778 F500.000
G1 X-26.083 Y15.417 F500.000
G1 X-25.970 Y15.060 F500.000
G1 X-25.846 Y14.707 F500.000
G1 X-25.707 Y14.361 F500.000
G1 X-25.553 Y14.019 F500.000
G1 X-25.387 Y13.684 F500.000
G1 X-25.019 Y13.034 F500.000
G1 X-24.816 Y12.718 F500.000
G1 X-24.602 Y12.410 F500.000
G1 X-24.120 Y11.835 F500.000
G1 X-23.865 Y11.564 F500.000
G1 X-23.594 Y11.305 F500.000
G1 X-23.023 Y10.816 F500.000
G1 X-22.722 Y10.594 F500.000
G1 X-22.414 Y10.383 F500.000
G1 X-22.098 Y10.184 F500.000
G1 X-21.771 Y10.000 F500.000
G1 X-21.440 Y9.827 F500.000
G1 X-21.102 Y9.669 F500.000
G1 X-20.756 Y9.523 F500.000
G1 X-20.406 Y9.391 F500.000
G1 X-20.049 Y9.274 F500.000
G1 X-19.688 Y9.173 F500.000
G1 X-19.323 Y9.086 F500.000
G1 X-18.955 Y9.015 F500.000
G1 X-18.586 Y8.959 F500.000
G1 X-18.214 Y8.917 F500.000
G1 X-17.842 Y8.891 F500.000
G1 X-17.470 Y8.880 F500.000
G1 X-17.098 Y8.883 F500.000
G1 X-16.726 Y8.917 F500.000
G1 X-16.353 Y8.962 F500.000
G1 X-15.617 Y9.098 F500.000
G1 X-15.252 Y9.180 F500.000
G1 X-14.534 Y9.391 F500.000
G1 X-14.180 Y9.511 F500.000
G1 X-13.835 Y9.654 F500.000
G1 X-13.500 Y9.816 F500.000
G1 X-13.169 Y9.989 F500.000
G1 X-12.846 Y10.173 F500.000
G1 X-12.534 Y10.376 F500.000
G1 X-11.932 Y10.812 F500.000
G1 X-11.647 Y11.049 F500.000
G1 X-11.368 Y11.297 F500.000
G1 X-11.102 Y11.556 F500.000
G1 X-10.846 Y11.827 F500.000
G1 X-10.602 Y12.105 F500.000
G1 X-10.365 Y12.395 F500.000
G1 X-10.143 Y12.692 F500.000
G1 X-9.932 Y12.996 F500.000
G1 X-9.733 Y13.308 F500.000
G1 X-9.545 Y13.632 F500.000
G1 X-9.383 Y13.966 F500.000
G1 X-9.233 Y14.305 F500.000
G1 X-9.098 Y14.650 F500.000
G1 X-8.974 Y15.000 F500.000
G1 X-8.865 Y15.353 F500.000
G1 X-8.684 Y16.075 F500.000
G1 X-8.617 Y16.440 F500.000
G1 X-8.560 Y16.805 F500.000
G1 X-8.515 Y17.173 F500.000
G1 X-8.485 Y17.541 F500.000
G1 X-8.470 Y17.910 F500.000
G1 X-8.500 Y18.647 F500.000
G1 X-8.538 Y19.015 F500.000
G1 X-8.594 Y19.380 F500.000
G1 X-8.744 Y20.105 F500.000
G1 X-8.846 Y20.462 F500.000
G1 X-8.959 Y20.816 F500.000
G1 X-9.083 Y21.165 F500.000
G1 X-9.222 Y21.508 F500.000
G1 X-9.376 Y21.842 F500.000
G1 X-9.549 Y22.169 F500.000
G1 X-9.733 Y22.489 F500.000
G1 X-10.139 Y23.105 F500.000
G1 X-10.586 Y23.695 F500.000
G1 X-10.827 Y23.977 F500.000
G1 X-11.075 Y24.252 F500.000
G1 X-11.331 Y24.519 F500.000
G1 X-11.887 Y25.004 F500.000
G1 X-12.477 Y25.447 F500.000
G1 X-12.786 Y25.654 F500.000
G1 X-13.102 Y25.850 F500.000
G1 X-13.421 Y26.034 F500.000
G1 X-13.748 Y26.203 F500.000
G1 X-14.083 Y26.361 F500.000
G1 X-14.778 Y26.617 F500.000
G1 X-15.132 Y26.722 F500.000
G1 X-15.489 Y26.816 F500.000
G1 X-15.850 Y26.895 F500.000
G1 X-16.214 Y26.959 F500.000
G1 X-16.583 Y27.008 F500.000
G1 X-16.951 Y27.041 F500.000
G1 X-17.320 Y27.060 F500.000
G1 X-17.688 Y27.064 F500.000
G1 X-18.056 Y27.053 F500.000
G1 X-18.425 Y27.026 F500.000
G1 X-18.793 Y26.985 F500.000
G1 X-19.158 Y26.925 F500.000
G1 X-19.523 Y26.850 F500.000
G1 X-19.883 Y26.759 F500.000
G1 X-20.241 Y26.658 F500.000
G1 X-20.944 Y26.417 F500.000
G1 X-21.289 Y26.282 F500.000
G1 X-21.628 Y26.132 F500.000
G1 X-22.286 Y25.782 F500.000
G1 X-22.602 Y25.590 F500.000
G1 X-23.211 Y25.162 F500.000
G1 X-23.786 Y24.692 F500.000
G1 X-24.060 Y24.440 F500.000
G1 X-24.327 Y24.180 F500.000
G1 X-24.575 Y23.902 F500.000
G1 X-24.812 Y23.617 F500.000
G1 X-25.256 Y23.019 F500.000
G1 X-25.658 Y22.391 F500.000
G1 X-25.846 Y22.068 F500.000
G1 X-26.023 Y21.741 F500.000
G1 X-26.323 Y21.056 F500.000
G1 X-26.455 Y20.707 F500.000
G1 X-26.568 Y20.350 F500.000
G1 X-26.654 Y19.985 F500.000
G1 X-26.797 Y19.252 F500.000
G1 X-26.846 Y18.880 F500.000
G1 X-26.880 Y18.508 F500.000
G1 X-26.902 Y18.135 F500.000
G1 X-26.910 Y17.763 F500.000
G1 X-26.906 Y17.391 F500.000
G1 X-26.887 Y17.019 F500.000
G1 X-26.853 Y16.647 F500.000
G1 X-26.726 Y15.910 F500.000
G1 X-26.639 Y15.545 F500.000
G1 X-26.541 Y15.184 F500.000
G1 X-26.429 Y14.827 F500.000
G1 X-26.301 Y14.474 F500.000
G1 X-26.162 Y14.124 F500.000
G1 X-26.008 Y13.782 F500.000
G1 X-25.842 Y13.447 F500.000
G1 X-25.662 Y13.117 F500.000
G1 X-25.470 Y12.793 F500.000
G1 X-25.267 Y12.477 F500.000
G1 X-25.053 Y12.173 F500.000
G1 X-24.823 Y11.876 F500.000
G1 X-24.583 Y11.586 F500.000
G1 X-24.331 Y11.308 F500.000
G1 X-24.071 Y11.038 F500.000
G1 X-23.801 Y10.778 F500.000
G1 X-23.214 Y10.312 F500.000
G1 X-22.914 Y10.090 F500.000
G1 X-22.278 Y9.688 F500.000
G1 X-21.951 Y9.504 F500.000
G1 X-21.617 Y9.335 F500.000
G1 X-21.278 Y9.177 F500.000
G1 X-20.932 Y9.030 F500.000
G1 X-20.583 Y8.898 F500.000
G1 X-20.229 Y8.778 F500.000
G1 X-19.868 Y8.673 F500.000
G1 X-19.504 Y8.583 F500.000
G1 X-19.139 Y8.504 F500.000
G1 X-18.771 Y8.440 F500.000
G1 X-18.398 Y8.391 F500.000
G1 X-18.026 Y8.353 F500.000
G1 X-17.654 Y8.342 F500.000
G1 X-17.282 Y8.342 F500.000
G1 X-16.910 Y8.357 F500.000
G1 X-16.538 Y8.391 F500.000
G1 X-16.165 Y8.440 F500.000
G1 X-15.432 Y8.583 F500.000
G1 X-15.068 Y8.665 F500.000
G1 X-14.350 Y8.876 F500.000
G1 X-13.658 Y9.154 F500.000
G1 X-13.320 Y9.312 F500.000
G1 X-12.989 Y9.481 F500.000
G1 X-12.665 Y9.665 F500.000
G1 X-12.346 Y9.861 F500.000
G1 X-12.034 Y10.068 F500.000
G1 X-11.733 Y10.286 F500.000
G1 X-11.440 Y10.515 F500.000
G1 X-11.154 Y10.756 F500.000
G1 X-10.880 Y11.008 F500.000
G1 X-10.613 Y11.267 F500.000
G1 X-10.357 Y11.538 F500.000
G1 X-10.113 Y11.816 F500.000
G1 X-9.669 Y12.414 F500.000
G1 X-9.459 Y12.722 F500.000
G1 X-9.090 Y13.368 F500.000
G1 X-8.925 Y13.699 F500.000
G1 X-8.774 Y14.038 F500.000
G1 X-8.635 Y14.383 F500.000
G1 X-8.391 Y15.086 F500.000
G1 X-8.289 Y15.444 F500.000
G1 X-8.199 Y15.805 F500.000
G1 X-8.120 Y16.165 F500.000
G1 X-8.056 Y16.530 F500.000
G1 X-8.004 Y16.898 F500.000
G1 X-7.962 Y17.267 F500.000
G1 X-7.940 Y18.004 F500.000
G1 X-7.951 Y18.372 F500.000
G1 X-8.019 Y19.109 F500.000
G1 X-8.075 Y19.474 F500.000
G1 X-8.147 Y19.838 F500.000
G1 X-8.229 Y20.199 F500.000
G1 X-8.327 Y20.556 F500.000
G1 X-8.440 Y20.910 F500.000
G1 X-8.695 Y21.605 F500.000
G1 X-8.842 Y21.944 F500.000
G1 X-9.000 Y22.278 F500.000
G1 X-9.368 Y22.921 F500.000
G1 X-9.571 Y23.229 F500.000
G1 X-10.008 Y23.827 F500.000
G1 X-10.489 Y24.391 F500.000
G1 X-10.741 Y24.662 F500.000
G1 X-11.004 Y24.921 F500.000
G1 X-11.274 Y25.173 F500.000
G1 X-11.556 Y25.414 F500.000
G1 X-11.846 Y25.643 F500.000
G1 X-12.447 Y26.071 F500.000
G1 X-12.759 Y26.271 F500.000
G1 X-13.079 Y26.459 F500.000
G1 X-13.410 Y26.628 F500.000
G1 X-13.744 Y26.786 F500.000
G1 X-14.086 Y26.929 F500.000
G1 X-14.432 Y27.056 F500.000
G1 X-14.782 Y27.173 F500.000
G1 X-15.139 Y27.274 F500.000
G1 X-15.500 Y27.357 F500.000
G1 X-15.865 Y27.429 F500.000
G1 X-16.598 Y27.534 F500.000
G1 X-16.966 Y27.564 F500.000
G1 X-17.335 Y27.583 F500.000
G1 X-17.703 Y27.590 F500.000
G1 X-18.071 Y27.583 F500.000
G1 X-18.808 Y27.500 F500.000
G1 X-19.173 Y27.444 F500.000
G1 X-19.538 Y27.372 F500.000
G1 X-19.898 Y27.289 F500.000
G1 X-20.256 Y27.195 F500.000
G1 X-20.609 Y27.086 F500.000
G1 X-20.959 Y26.966 F500.000
G1 X-21.305 Y26.835 F500.000
G1 X-21.647 Y26.688 F500.000
G1 X-21.981 Y26.530 F500.000
G1 X-22.312 Y26.361 F500.000
G1 X-22.635 Y26.180 F500.000
G1 X-23.259 Y25.774 F500.000
G1 X-23.560 Y25.553 F500.000
G1 X-23.850 Y25.320 F500.000
G1 X-24.132 Y25.075 F500.000
G1 X-24.402 Y24.820 F500.000
G1 X-24.662 Y24.553 F500.000
G1 X-25.154 Y23.992 F500.000
G1 X-25.605 Y23.398 F500.000
G1 X-25.816 Y23.094 F500.000
G1 X-26.015 Y22.778 F500.000
G1 X-26.383 Y22.132 F500.000
G1 X-26.549 Y21.797 F500.000
G1 X-26.703 Y21.459 F500.000
G1 X-26.846 Y21.113 F500.000
G1 X-27.079 Y20.402 F500.000
G1 X-27.177 Y20.041 F500.000
G1 X-27.256 Y19.677 F500.000
G1 X-27.320 Y19.308 F500.000
G1 X-27.368 Y18.936 F500.000
G1 X-27.402 Y18.564 F500.000
G1 X-27.432 Y17.820 F500.000
G1 X-27.425 Y17.447 F500.000
G1 X-27.406 Y17.075 F500.000
G1 X-27.376 Y16.703 F500.000
G1 X-27.327 Y16.331 F500.000
G1 X-27.267 Y15.962 F500.000
G1 X-27.086 Y15.237 F500.000
G1 X-26.985 Y14.876 F500.000
G1 X-26.868 Y14.519 F500.000
G1 X-26.598 Y13.823 F500.000
G1 X-26.444 Y13.481 F500.000
G1 X-26.278 Y13.143 F500.000
G1 X-25.898 Y12.496 F500.000
G1 X-25.477 Y11.876 F500.000
G1 X-25.011 Y11.289 F500.000
G1 X-24.763 Y11.008 F500.000
G1 X-24.504 Y10.737 F500.000
G1 X-24.237 Y10.474 F500.000
G1 X-23.959 Y10.222 F500.000
G1 X-23.368 Y9.763 F500.000
G1 X-22.744 Y9.350 F500.000
G1 X-22.421 Y9.162 F500.000
G1 X-22.090 Y8.985 F500.000
G1 X-21.417 Y8.662 F500.000
G1 X-21.071 Y8.519 F500.000
G1 X-20.368 Y8.263 F500.000
G1 X-20.011 Y8.154 F500.000
G1 X-19.650 Y8.056 F500.000
G1 X-18.914 Y7.921 F500.000
G1 X-18.169 Y7.838 F500.000
G1 X-17.797 Y7.820 F500.000
G1 X-17.425 Y7.812 F500.000
G1 X-15.789 Y7.925 F500.000
G1 X-15.000 Y8.109 F500.000
G1 X-14.639 Y8.203 F500.000
G1 X-14.286 Y8.320 F500.000
G1 X-13.590 Y8.590 F500.000
G1 X-12.917 Y8.910 F500.000
G1 X-12.590 Y9.086 F500.000
G1 X-12.267 Y9.274 F500.000
G1 X-11.951 Y9.474 F500.000
G1 X-11.643 Y9.684 F500.000
G1 X-11.049 Y10.135 F500.000
G1 X-10.763 Y10.376 F500.000
G1 X-10.489 Y10.628 F500.000
G1 X-10.222 Y10.887 F500.000
G1 X-9.962 Y11.154 F500.000
G1 X-9.714 Y11.432 F500.000
G1 X-9.267 Y12.026 F500.000
G1 X-9.060 Y12.335 F500.000
G1 X-8.865 Y12.650 F500.000
G1 X-8.684 Y12.974 F500.000
G1 X-8.515 Y13.305 F500.000
G1 X-8.361 Y13.643 F500.000
G1 X-8.079 Y14.331 F500.000
G1 X-7.959 Y14.680 F500.000
G1 X-7.508 Y16.293 F500.000
G1 X-7.308 Y17.534 F500.000
G1 X-7.331 Y18.492 F500.000
G1 X-7.511 Y19.586 F500.000
G1 X-7.684 Y20.305 F500.000
G1 X-7.782 Y20.662 F500.000
G1 X-7.891 Y21.015 F500.000
G1 X-8.139 Y21.711 F500.000
G1 X-8.451 Y22.380 F500.000
G1 X-8.624 Y22.707 F500.000
G1 X-8.812 Y23.023 F500.000
G1 X-9.214 Y23.643 F500.000
G1 X-9.432 Y23.940 F500.000
G1 X-9.898 Y24.511 F500.000
G1 X-10.398 Y25.056 F500.000
G1 X-10.662 Y25.316 F500.000
G1 X-11.207 Y25.816 F500.000
G1 X-11.489 Y26.053 F500.000
G1 X-12.094 Y26.477 F500.000
G1 X-12.726 Y26.861 F500.000
G1 X-13.053 Y27.034 F500.000
G1 X-13.383 Y27.195 F500.000
G1 X-13.722 Y27.346 F500.000
G1 X-14.064 Y27.485 F500.000
G1 X-14.410 Y27.613 F500.000
G1 X-14.763 Y27.726 F500.000
G1 X-15.485 Y27.891 F500.000
G1 X-15.850 Y27.959 F500.000
G1 X-17.680 Y28.083 F500.000
G1 X-19.120 Y27.955 F500.000
G1 X-19.485 Y27.898 F500.000
G1 X-19.850 Y27.827 F500.000
G1 X-20.211 Y27.741 F500.000
G1 X-20.568 Y27.639 F500.000
G1 X-21.271 Y27.398 F500.000
G1 X-21.955 Y27.109 F500.000
G1 X-22.289 Y26.947 F500.000
G1 X-22.940 Y26.594 F500.000
G1 X-23.256 Y26.402 F500.000
G1 X-23.853 Y25.966 F500.000
G1 X-24.429 Y25.489 F500.000
G1 X-24.703 Y25.237 F500.000
G1 X-24.966 Y24.974 F500.000
G1 X-25.222 Y24.703 F500.000
G1 X-25.470 Y24.425 F500.000
G1 X-25.936 Y23.846 F500.000
G1 X-26.154 Y23.541 F500.000
G1 X-26.361 Y23.233 F500.000
G1 X-26.556 Y22.917 F500.000
G1 X-26.741 Y22.594 F500.000
G1 X-26.914 Y22.263 F500.000
G1 X-27.075 Y21.929 F500.000
G1 X-27.226 Y21.586 F500.000
G1 X-27.365 Y21.241 F500.000
G1 X-27.583 Y20.526 F500.000
G1 X-27.748 Y19.797 F500.000
G1 X-27.812 Y19.429 F500.000
G1 X-27.861 Y19.056 F500.000
G1 X-27.898 Y18.684 F500.000
G1 X-27.936 Y17.940 F500.000
G1 X-27.936 Y17.568 F500.000
G1 X-27.925 Y17.195 F500.000
G1 X-27.902 Y16.823 F500.000
G1 X-27.868 Y16.451 F500.000
G1 X-27.748 Y15.714 F500.000
G1 X-27.669 Y15.350 F500.000
G1 X-27.571 Y14.989 F500.000
G1 X-27.462 Y14.632 F500.000
G1 X-27.338 Y14.278 F500.000
G1 X-27.056 Y13.583 F500.000
G1 X-26.898 Y13.244 F500.000
G1 X-26.729 Y12.910 F500.000
G1 X-26.549 Y12.579 F500.000
G1 X-26.357 Y12.256 F500.000
G1 X-25.944 Y11.632 F500.000
G1 X-25.722 Y11.331 F500.000
G1 X-25.248 Y10.752 F500.000
G1 X-24.996 Y10.474 F500.000
G1 X-24.729 Y10.211 F500.000
G1 X-24.455 Y9.955 F500.000
G1 X-24.169 Y9.711 F500.000
G1 X-23.876 Y9.477 F500.000
G1 X-23.575 Y9.256 F500.000
G1 X-23.263 Y9.049 F500.000
G1 X-22.944 Y8.853 F500.000
G1 X-22.289 Y8.489 F500.000
G1 X-21.609 Y8.173 F500.000
G1 X-21.263 Y8.030 F500.000
G1 X-20.560 Y7.771 F500.000
G1 X-20.203 Y7.658 F500.000
G1 X-19.474 Y7.481 F500.000
G1 X-19.105 Y7.414 F500.000
G1 X-18.733 Y7.361 F500.000
G1 X-17.519 Y7.256 F500.000
G1 X-17.398 Y7.274 F500.000
G1 X-16.977 Y7.387 F500.000
G1 X-16.376 Y7.470 F500.000
G1 X-15.353 Y7.451 F500.000
G1 X-14.511 Y7.654 F500.000
G1 X-14.158 Y7.771 F500.000
G1 X-13.462 Y8.041 F500.000
G1 X-12.789 Y8.365 F500.000
G1 X-12.459 Y8.534 F500.000
G1 X-11.816 Y8.914 F500.000
G1 X-11.504 Y9.117 F500.000
G1 X-10.898 Y9.553 F500.000
G1 X-10.605 Y9.782 F500.000
G1 X-10.320 Y10.023 F500.000
G1 X-10.041 Y10.271 F500.000
G1 X-9.778 Y10.534 F500.000
G1 X-9.523 Y10.805 F500.000
G1 X-9.278 Y11.083 F500.000
G1 X-9.045 Y11.372 F500.000
G1 X-8.632 Y11.989 F500.000
G1 X-8.436 Y12.305 F500.000
G1 X-8.252 Y12.628 F500.000
G1 X-7.921 Y13.293 F500.000
G1 X-7.771 Y13.632 F500.000
G1 X-7.308 Y14.827 F500.000
G1 X-7.293 Y14.883 F500.000
G1 X-7.289 Y14.940 F500.000
G1 X-7.365 Y15.222 F500.000
G1 X-7.365 Y15.222 F500.000
G1 X-7.436 Y15.353 F500.000
G1 X-7.477 Y15.395 F500.000
G0 X-7.500 Y15.417
G0 X-7.838 Y15.756
G0 X-7.823 Y16.744
G0 X-7.789 Y16.823
G0 X-7.560 Y17.026
G1 X-7.538 Y17.045 F500.000
G1 X-7.342 Y17.233 F500.000
G1 X-7.286 Y17.350 F500.000
G1 X-7.286 Y17.350 F500.000
G1 X-6.951 Y18.237 F500.000
G1 X-6.925 Y18.350 F500.000
G1 X-6.902 Y18.914 F500.000
G1 X-6.910 Y19.083 F500.000
G1 X-6.955 Y19.451 F500.000
G1 X-7.086 Y20.180 F500.000
G1 X-7.173 Y20.541 F500.000
G1 X-7.271 Y20.898 F500.000
G1 X-7.380 Y21.252 F500.000
G1 X-7.504 Y21.602 F500.000
G1 X-7.639 Y21.947 F500.000
G1 X-7.786 Y22.286 F500.000
G1 X-8.139 Y22.936 F500.000
G1 X-8.323 Y23.256 F500.000
G1 X-8.519 Y23.571 F500.000
G1 X-8.936 Y24.184 F500.000
G1 X-9.387 Y24.771 F500.000
G1 X-9.895 Y25.308 F500.000
G1 X-10.154 Y25.571 F500.000
G1 X-10.421 Y25.827 F500.000
G1 X-10.974 Y26.320 F500.000
G1 X-11.568 Y26.759 F500.000
G1 X-11.872 Y26.966 F500.000
G1 X-12.508 Y27.342 F500.000
G1 X-12.835 Y27.511 F500.000
G1 X-13.504 Y27.823 F500.000
G1 X-13.846 Y27.962 F500.000
G1 X-15.489 Y28.402 F500.000
G1 X-19.211 Y28.425 F500.000
G1 X-20.620 Y28.124 F500.000
G1 X-21.071 Y27.966 F500.000
G1 X-21.425 Y27.857 F500.000
G1 X-21.774 Y27.733 F500.000
G1 X-22.117 Y27.590 F500.000
G1 X-22.789 Y27.274 F500.000
G1 X-23.117 Y27.098 F500.000
G1 X-23.744 Y26.699 F500.000
G1 X-24.045 Y26.481 F500.000
G1 X-24.617 Y26.008 F500.000
G1 X-24.895 Y25.759 F500.000
G1 X-25.425 Y25.237 F500.000
G1 X-25.677 Y24.962 F500.000
G1 X-26.158 Y24.395 F500.000
G1 X-26.387 Y24.102 F500.000
G1 X-26.816 Y23.492 F500.000
G1 X-27.188 Y22.846 F500.000
G1 X-27.523 Y22.180 F500.000
G1 X-27.673 Y21.838 F500.000
G1 X-27.812 Y21.492 F500.000
G1 X-27.932 Y21.139 F500.000
G1 X-28.041 Y20.782 F500.000
G1 X-28.383 Y18.256 F500.000
G1 X-28.350 Y16.692 F500.000
G1 X-28.177 Y15.549 F500.000
G1 X-27.880 Y14.406 F500.000
G1 X-27.771 Y14.049 F500.000
G1 X-27.647 Y13.695 F500.000
G1 X-27.508 Y13.350 F500.000
G1 X-27.350 Y13.011 F500.000
G1 X-27.004 Y12.346 F500.000
G1 X-26.820 Y12.019 F500.000
G1 X-26.414 Y11.387 F500.000
G1 X-26.199 Y11.079 F500.000
G1 X-25.974 Y10.778 F500.000
G1 X-25.474 Y10.218 F500.000
G1 X-25.211 Y9.951 F500.000
G1 X-24.940 Y9.692 F500.000
G1 X-24.658 Y9.444 F500.000
G1 X-24.071 Y8.977 F500.000
G1 X-23.767 Y8.759 F500.000
G1 X-23.455 Y8.553 F500.000
G1 X-23.135 Y8.357 F500.000
G1 X-22.808 Y8.173 F500.000
G1 X-22.477 Y8.000 F500.000
G1 X-21.797 Y7.680 F500.000
G1 X-21.455 Y7.530 F500.000
G1 X-21.105 Y7.395 F500.000
G1 X-20.395 Y7.154 F500.000
G1 X-20.034 Y7.049 F500.000
G1 X-19.297 Y6.902 F500.000
G1 X-18.508 Y6.774 F500.000
G1 X-18.447 Y6.778 F500.000
G1 X-18.387 Y6.793 F500.000
G1 X-18.387 Y6.793 F500.000
G1 X-18.278 Y6.906 F500.000
G1 X-18.248 Y6.962 F500.000
G0 X-18.233 Y6.989
G0 X-17.586 Y7.887
G0 X-7.263 Y17.865
G1 X-7.226 Y17.906 F500.000
G1 X-6.925 Y18.177 F500.000
G1 X-6.925 Y18.177 F500.000
G1 X-6.902 Y18.229 F500.000
G1 X-6.673 Y18.575 F500.000
G1 X-6.571 Y18.789 F500.000
G1 X-6.500 Y19.410 F500.000
G1 X-6.500 Y19.523 F500.000
G1 X-6.534 Y19.891 F500.000
G1 X-6.590 Y20.256 F500.000
G1 X-6.665 Y20.617 F500.000
G1 X-6.756 Y20.977 F500.000
G1 X-6.857 Y21.335 F500.000
G1 X-6.970 Y21.688 F500.000
G1 X-7.098 Y22.034 F500.000
G1 X-7.237 Y22.376 F500.000
G1 X-7.391 Y22.711 F500.000
G1 X-7.556 Y23.041 F500.000
G1 X-7.737 Y23.365 F500.000
G1 X-7.929 Y23.680 F500.000
G1 X-8.342 Y24.293 F500.000
G1 X-8.564 Y24.590 F500.000
G1 X-9.038 Y25.162 F500.000
G1 X-9.282 Y25.440 F500.000
G1 X-9.793 Y25.970 F500.000
G1 X-10.060 Y26.226 F500.000
G1 X-10.613 Y26.714 F500.000
G1 X-10.898 Y26.947 F500.000
G1 X-11.508 Y27.365 F500.000
G1 X-11.823 Y27.560 F500.000
G1 X-12.143 Y27.744 F500.000
G1 X-12.470 Y27.917 F500.000
G1 X-13.380 Y28.327 F500.000
G1 X-13.883 Y28.466 F500.000
G1 X-15.801 Y28.466 F500.000
G1 X-15.801 Y28.466 F500.000
G1 X-15.917 Y28.440 F500.000
G1 X-15.970 Y28.410 F500.000
G1 X-15.985 Y28.391 F500.000
G0 X-15.989 Y28.372
G0 X-15.940 Y28.286
G0 X-6.925 Y18.771
G1 X-6.876 Y18.718 F500.000
G1 X-6.782 Y18.635 F500.000
G1 X-6.726 Y18.620 F500.000
G1 X-6.643 Y18.639 F500.000
G1 X-6.545 Y18.714 F500.000
G1 X-6.545 Y18.714 F500.000
G1 X-6.289 Y19.041 F500.000
G1 X-6.211 Y19.199 F500.000
G1 X-6.120 Y19.650 F500.000
G1 X-6.109 Y19.820 F500.000
G1 X-6.124 Y20.188 F500.000
G1 X-6.162 Y20.556 F500.000
G1 X-6.226 Y20.921 F500.000
G1 X-6.301 Y21.282 F500.000
G1 X-6.402 Y21.639 F500.000
G1 X-6.650 Y22.335 F500.000
G1 X-6.793 Y22.677 F500.000
G1 X-6.947 Y23.011 F500.000
G1 X-7.113 Y23.342 F500.000
G1 X-7.481 Y23.981 F500.000
G1 X-7.684 Y24.289 F500.000
G1 X-8.117 Y24.887 F500.000
G1 X-8.579 Y25.462 F500.000
G1 X-8.823 Y25.741 F500.000
G1 X-9.331 Y26.278 F500.000
G1 X-9.594 Y26.538 F500.000
G1 X-9.865 Y26.789 F500.000
G1 X-10.429 Y27.271 F500.000
G1 X-11.026 Y27.703 F500.000
G1 X-11.335 Y27.906 F500.000
G1 X-12.278 Y28.414 F500.000
G1 X-12.444 Y28.462 F500.000
G1 X-13.515 Y28.466 F500.000
G1 X-13.515 Y28.466 F500.000
G1 X-13.632 Y28.440 F500.000
G1 X-13.684 Y28.410 F500.000
G1 X-13.699 Y28.391 F500.000
G0 X-13.707 Y28.368
G0 X-13.665 Y28.278
G0 X-6.632 Y19.109
G1 X-6.590 Y19.056 F500.000
G1 X-6.508 Y18.962 F500.000
G1 X-6.455 Y18.944 F500.000
G1 X-6.368 Y18.959 F500.000
G1 X-6.263 Y19.023 F500.000
G1 X-6.263 Y19.023 F500.000
G1 X-5.966 Y19.316 F500.000
G1 X-5.895 Y19.414 F500.000
G1 X-5.782 Y19.748 F500.000
G1 X-5.722 Y20.086 F500.000
G1 X-5.714 Y20.455 F500.000
G1 X-5.741 Y20.823 F500.000
G1 X-5.793 Y21.188 F500.000
G1 X-5.865 Y21.549 F500.000
G1 X-5.959 Y21.906 F500.000
G1 X-6.071 Y22.259 F500.000
G1 X-6.199 Y22.605 F500.000
G1 X-6.338 Y22.947 F500.000
G1 X-6.662 Y23.613 F500.000
G1 X-7.030 Y24.256 F500.000
G1 X-7.436 Y24.876 F500.000
G1 X-7.880 Y25.470 F500.000
G1 X-8.353 Y26.034 F500.000
G1 X-8.857 Y26.575 F500.000
G1 X-9.387 Y27.090 F500.000
G1 X-9.955 Y27.568 F500.000
G1 X-11.180 Y28.414 F500.000
G1 X-11.289 Y28.455 F500.000
G1 X-11.346 Y28.466 F500.000
G1 X-12.192 Y28.466 F500.000
G1 X-12.192 Y28.466 F500.000
G1 X-12.308 Y28.440 F500.000
G1 X-12.361 Y28.410 F500.000
G1 X-12.376 Y28.391 F500.000
G0 X-12.383 Y28.368
G0 X-12.346 Y28.274
G0 X-6.259 Y19.447
G1 X-6.222 Y19.395 F500.000
G1 X-6.147 Y19.297 F500.000
G1 X-6.094 Y19.274 F500.000
G1 X-6.011 Y19.282 F500.000
G1 X-5.902 Y19.338 F500.000
G1 X-5.902 Y19.338 F500.000
G1 X-5.628 Y19.571 F500.000
G1 X-5.515 Y19.714 F500.000
G1 X-5.365 Y20.158 F500.000
G1 X-5.342 Y20.271 F500.000
G1 X-5.312 Y20.639 F500.000
G1 X-5.316 Y21.008 F500.000
G1 X-5.353 Y21.376 F500.000
G1 X-5.406 Y21.703 F500.000
G1 X-5.489 Y22.064 F500.000
G1 X-5.590 Y22.421 F500.000
G1 X-5.711 Y22.771 F500.000
G1 X-5.846 Y23.113 F500.000
G1 X-5.992 Y23.451 F500.000
G1 X-6.154 Y23.786 F500.000
G1 X-6.511 Y24.432 F500.000
G1 X-6.906 Y25.056 F500.000
G1 X-7.117 Y25.361 F500.000
G1 X-7.564 Y25.951 F500.000
G1 X-8.045 Y26.511 F500.000
G1 X-8.297 Y26.782 F500.000
G1 X-8.556 Y27.045 F500.000
G1 X-8.823 Y27.301 F500.000
G1 X-9.098 Y27.549 F500.000
G1 X-9.380 Y27.789 F500.000
G1 X-10.222 Y28.425 F500.000
G1 X-10.331 Y28.466 F500.000
G1 X-10.895 Y28.466 F500.000
G1 X-10.895 Y28.466 F500.000
G1 X-11.011 Y28.440 F500.000
G1 X-11.064 Y28.410 F500.000
G1 X-11.079 Y28.391 F500.000
G0 X-11.086 Y28.368
G0 X-11.056 Y28.271
G0 X-5.910 Y19.726
G1 X-5.880 Y19.669 F500.000
G1 X-5.812 Y19.571 F500.000
G1 X-5.759 Y19.541 F500.000
G1 X-5.673 Y19.538 F500.000
G1 X-5.560 Y19.583 F500.000
G1 X-5.560 Y19.583 F500.000
G1 X-5.263 Y19.793 F500.000
G1 X-5.188 Y19.883 F500.000
G1 X-5.056 Y20.147 F500.000
G1 X-4.985 Y20.372 F500.000
G1 X-4.929 Y20.737 F500.000
G1 X-4.906 Y21.105 F500.000
G1 X-4.917 Y21.474 F500.000
G1 X-4.947 Y21.789 F500.000
G1 X-5.019 Y22.154 F500.000
G1 X-5.102 Y22.500 F500.000
G1 X-5.207 Y22.853 F500.000
G1 X-5.331 Y23.203 F500.000
G1 X-5.466 Y23.545 F500.000
G1 X-5.782 Y24.211 F500.000
G1 X-5.955 Y24.538 F500.000
G1 X-6.335 Y25.169 F500.000
G1 X-6.756 Y25.778 F500.000
G1 X-7.203 Y26.365 F500.000
G1 X-7.684 Y26.925 F500.000
G1 X-7.936 Y27.195 F500.000
G1 X-8.195 Y27.459 F500.000
G1 X-8.733 Y27.966 F500.000
G1 X-9.297 Y28.410 F500.000
G1 X-9.398 Y28.459 F500.000
G1 X-9.906 Y28.466 F500.000
G1 X-9.906 Y28.466 F500.000
G1 X-10.023 Y28.440 F500.000
G1 X-10.075 Y28.410 F500.000
G1 X-10.090 Y28.391 F500.000
G0 X-10.098 Y28.368
G0 X-10.071 Y28.267
G0 X-5.586 Y19.932
G1 X-5.560 Y19.880 F500.000
G1 X-5.496 Y19.778 F500.000
G1 X-5.447 Y19.741 F500.000
G1 X-5.361 Y19.726 F500.000
G1 X-5.244 Y19.752 F500.000
G1 X-5.244 Y19.752 F500.000
G1 X-5.030 Y19.865 F500.000
G1 X-4.929 Y19.932 F500.000
G1 X-4.883 Y19.974 F500.000
G1 X-4.669 Y20.331 F500.000
G1 X-4.602 Y20.496 F500.000
G1 X-4.519 Y20.857 F500.000
G1 X-4.481 Y21.226 F500.000
G1 X-4.477 Y21.530 F500.000
G1 X-4.496 Y21.808 F500.000
G1 X-4.538 Y22.147 F500.000
G1 X-4.605 Y22.511 F500.000
G1 X-4.692 Y22.872 F500.000
G1 X-4.805 Y23.226 F500.000
G1 X-4.929 Y23.575 F500.000
G1 X-5.064 Y23.917 F500.000
G1 X-5.214 Y24.256 F500.000
G1 X-5.380 Y24.586 F500.000
G1 X-5.741 Y25.229 F500.000
G1 X-6.143 Y25.850 F500.000
G1 X-6.579 Y26.444 F500.000
G1 X-6.808 Y26.733 F500.000
G1 X-7.293 Y27.293 F500.000
G1 X-7.545 Y27.564 F500.000
G1 X-8.372 Y28.350 F500.000
G1 X-8.462 Y28.417 F500.000
G1 X-8.568 Y28.466 F500.000
G1 X-9.075 Y28.466 F500.000
G1 X-9.075 Y28.466 F500.000
G1 X-9.192 Y28.440 F500.000
G1 X-9.244 Y28.410 F500.000
G1 X-9.259 Y28.391 F500.000
G0 X-9.271 Y28.368
G0 X-9.244 Y28.267
G0 X-5.241 Y20.105
G1 X-5.214 Y20.053 F500.000
G1 X-5.158 Y19.947 F500.000
G1 X-5.113 Y19.906 F500.000
G1 X-5.026 Y19.880 F500.000
G1 X-4.910 Y19.883 F500.000
G1 X-4.910 Y19.883 F500.000
G1 X-4.680 Y19.974 F500.000
G1 X-4.579 Y20.038 F500.000
G1 X-4.455 Y20.169 F500.000
G1 X-4.248 Y20.526 F500.000
G1 X-4.135 Y20.880 F500.000
G1 X-4.075 Y21.244 F500.000
G1 X-4.053 Y21.523 F500.000
G1 X-4.053 Y21.808 F500.000
G1 X-4.075 Y22.139 F500.000
G1 X-4.120 Y22.508 F500.000
G1 X-4.192 Y22.872 F500.000
G1 X-4.278 Y23.233 F500.000
G1 X-4.391 Y23.586 F500.000
G1 X-4.515 Y23.936 F500.000
G1 X-4.654 Y24.278 F500.000
G1 X-4.805 Y24.617 F500.000
G1 X-4.974 Y24.947 F500.000
G1 X-5.338 Y25.590 F500.000
G1 X-5.534 Y25.906 F500.000
G1 X-5.955 Y26.511 F500.000
G1 X-6.406 Y27.098 F500.000
G1 X-6.643 Y27.380 F500.000
G1 X-6.891 Y27.654 F500.000
G1 X-7.147 Y27.921 F500.000
G1 X-7.665 Y28.414 F500.000
G1 X-7.771 Y28.462 F500.000
G1 X-8.165 Y28.466 F500.000
G1 X-8.165 Y28.466 F500.000
G1 X-8.282 Y28.440 F500.000
G1 X-8.335 Y28.410 F500.000
G1 X-8.350 Y28.391 F500.000
G0 X-8.361 Y28.368
G0 X-8.342 Y28.263
G0 X-4.940 Y20.188
G1 X-4.917 Y20.135 F500.000
G1 X-4.865 Y20.030 F500.000
G1 X-4.820 Y19.985 F500.000
G1 X-4.737 Y19.959 F500.000
G1 X-4.620 Y19.962 F500.000
G1 X-4.620 Y19.962 F500.000
G1 X-4.380 Y20.023 F500.000
G1 X-4.271 Y20.075 F500.000
G1 X-4.094 Y20.241 F500.000
G1 X-3.951 Y20.432 F500.000
G1 X-3.891 Y20.538 F500.000
G1 X-3.756 Y20.883 F500.000
G1 X-3.669 Y21.244 F500.000
G1 X-3.628 Y21.530 F500.000
G1 X-3.609 Y21.797 F500.000
G1 X-3.613 Y22.120 F500.000
G1 X-3.643 Y22.489 F500.000
G1 X-3.692 Y22.857 F500.000
G1 X-3.763 Y23.222 F500.000
G1 X-3.861 Y23.579 F500.000
G1 X-3.970 Y23.932 F500.000
G1 X-4.094 Y24.282 F500.000
G1 X-4.233 Y24.624 F500.000
G1 X-4.549 Y25.289 F500.000
G1 X-4.729 Y25.613 F500.000
G1 X-5.117 Y26.244 F500.000
G1 X-5.320 Y26.553 F500.000
G1 X-5.756 Y27.150 F500.000
G1 X-6.222 Y27.722 F500.000
G1 X-6.831 Y28.361 F500.000
G1 X-6.925 Y28.432 F500.000
G1 X-6.977 Y28.455 F500.000
G1 X-7.034 Y28.466 F500.000
G1 X-7.541 Y28.466 F500.000
G1 X-7.541 Y28.466 F500.000
G1 X-7.658 Y28.440 F500.000
G1 X-7.711 Y28.410 F500.000
G1 X-7.729 Y28.391 F500.000
G0 X-7.737 Y28.368
G0 X-7.722 Y28.263
G0 X-4.628 Y20.263
G1 X-4.609 Y20.211 F500.000
G1 X-4.560 Y20.102 F500.000
G1 X-4.492 Y20.038 F500.000
G1 X-4.380 Y20.000 F500.000
G1 X-4.323 Y20.000 F500.000
G1 X-4.323 Y20.000 F500.000
G1 X-4.023 Y20.056 F500.000
G1 X-3.914 Y20.109 F500.000
G1 X-3.774 Y20.226 F500.000
G1 X-3.549 Y20.508 F500.000
G1 X-3.391 Y20.846 F500.000
G1 X-3.274 Y21.199 F500.000
G1 X-3.211 Y21.489 F500.000
G1 X-3.173 Y21.763 F500.000
G1 X-3.158 Y22.079 F500.000
G1 X-3.162 Y22.429 F500.000
G1 X-3.195 Y22.797 F500.000
G1 X-3.252 Y23.162 F500.000
G1 X-3.327 Y23.523 F500.000
G1 X-3.421 Y23.880 F500.000
G1 X-3.530 Y24.233 F500.000
G1 X-3.793 Y24.921 F500.000
G1 X-4.117 Y25.586 F500.000
G1 X-4.477 Y26.229 F500.000
G1 X-4.673 Y26.541 F500.000
G1 X-5.094 Y27.150 F500.000
G1 X-5.312 Y27.451 F500.000
G1 X-5.887 Y28.154 F500.000
G1 X-6.177 Y28.429 F500.000
G1 X-6.286 Y28.466 F500.000
G1 X-6.680 Y28.466 F500.000
G1 X-6.680 Y28.466 F500.000
G1 X-6.797 Y28.440 F500.000
G1 X-6.850 Y28.410 F500.000
G1 X-6.868 Y28.387 F500.000
G0 X-6.876 Y28.365
G0 X-6.865 Y28.259
G0 X-4.301 Y20.316
G1 X-4.286 Y20.263 F500.000
G1 X-4.226 Y20.124 F500.000
G1 X-4.180 Y20.075 F500.000
G1 X-4.023 Y20.015 F500.000
G1 X-4.023 Y20.015 F500.000
G1 X-3.782 Y20.030 F500.000
G1 X-3.662 Y20.060 F500.000
G1 X-3.459 Y20.199 F500.000
G1 X-3.248 Y20.410 F500.000
G1 X-3.053 Y20.726 F500.000
G1 X-2.906 Y21.068 F500.000
G1 X-2.835 Y21.297 F500.000
G1 X-2.778 Y21.526 F500.000
G1 X-2.729 Y21.835 F500.000
G1 X-2.699 Y22.199 F500.000
G1 X-2.703 Y22.568 F500.000
G1 X-2.729 Y22.921 F500.000
G1 X-2.774 Y23.289 F500.000
G1 X-2.842 Y23.654 F500.000
G1 X-2.929 Y24.015 F500.000
G1 X-3.154 Y24.718 F500.000
G1 X-3.440 Y25.398 F500.000
G1 X-3.767 Y26.060 F500.000
G1 X-3.947 Y26.383 F500.000
G1 X-4.338 Y27.011 F500.000
G1 X-4.549 Y27.316 F500.000
G1 X-4.992 Y27.906 F500.000
G1 X-5.391 Y28.357 F500.000
G1 X-5.477 Y28.429 F500.000
G1 X-5.530 Y28.455 F500.000
G1 X-5.586 Y28.466 F500.000
G1 X-5.981 Y28.466 F500.000
G1 X-5.981 Y28.466 F500.000
G1 X-6.098 Y28.440 F500.000
G1 X-6.150 Y28.410 F500.000
G1 X-6.169 Y28.387 F500.000
G0 X-6.180 Y28.365
G0 X-6.173 Y28.256
G0 X-4.049 Y20.316
G1 X-4.034 Y20.259 F500.000
G1 X-4.000 Y20.143 F500.000
G1 X-3.959 Y20.086 F500.000
G1 X-3.872 Y20.026 F500.000
G1 X-3.786 Y19.996 F500.000
G1 X-3.786 Y19.996 F500.000
G1 X-3.425 Y19.989 F500.000
G1 X-3.365 Y20.004 F500.000
G1 X-3.158 Y20.128 F500.000
G1 X-2.929 Y20.323 F500.000
G1 X-2.707 Y20.620 F500.000
G1 X-2.534 Y20.951 F500.000
G1 X-2.447 Y21.180 F500.000
G1 X-2.380 Y21.391 F500.000
G1 X-2.312 Y21.695 F500.000
G1 X-2.259 Y22.064 F500.000
G1 X-2.241 Y22.432 F500.000
G1 X-2.241 Y22.789 F500.000
G1 X-2.271 Y23.158 F500.000
G1 X-2.320 Y23.526 F500.000
G1 X-2.383 Y23.891 F500.000
G1 X-2.470 Y24.252 F500.000
G1 X-2.575 Y24.605 F500.000
G1 X-2.831 Y25.301 F500.000
G1 X-2.974 Y25.643 F500.000
G1 X-3.305 Y26.305 F500.000
G1 X-3.669 Y26.947 F500.000
G1 X-4.075 Y27.564 F500.000
G1 X-4.289 Y27.865 F500.000
G1 X-4.628 Y28.286 F500.000
G1 X-4.752 Y28.406 F500.000
G1 X-4.853 Y28.459 F500.000
G1 X-5.248 Y28.466 F500.000
G1 X-5.248 Y28.466 F500.000
G1 X-5.365 Y28.440 F500.000
G1 X-5.417 Y28.410 F500.000
G1 X-5.436 Y28.387 F500.000
G0 X-5.447 Y28.365
G0 X-5.444 Y28.256
G0 X-3.665 Y20.293
G1 X-3.650 Y20.237 F500.000
G1 X-3.602 Y20.079 F500.000
G1 X-3.538 Y20.000 F500.000
G1 X-3.432 Y19.936 F500.000
G1 X-3.432 Y19.936 F500.000
G1 X-3.252 Y19.910 F500.000
G1 X-3.132 Y19.914 F500.000
G1 X-3.071 Y19.925 F500.000
G1 X-2.853 Y20.030 F500.000
G1 X-2.658 Y20.173 F500.000
G1 X-2.406 Y20.447 F500.000
G1 X-2.207 Y20.759 F500.000
G1 X-2.098 Y20.974 F500.000
G1 X-2.008 Y21.195 F500.000
G1 X-1.921 Y21.466 F500.000
G1 X-1.842 Y21.801 F500.000
G1 X-1.786 Y22.165 F500.000
G1 X-1.763 Y22.534 F500.000
G1 X-1.759 Y22.898 F500.000
G1 X-1.778 Y23.267 F500.000
G1 X-1.827 Y23.635 F500.000
G1 X-1.891 Y24.000 F500.000
G1 X-1.974 Y24.361 F500.000
G1 X-2.071 Y24.718 F500.000
G1 X-2.180 Y25.071 F500.000
G1 X-2.308 Y25.417 F500.000
G1 X-2.451 Y25.759 F500.000
G1 X-2.763 Y26.429 F500.000
G1 X-2.932 Y26.756 F500.000
G1 X-3.305 Y27.395 F500.000
G1 X-3.504 Y27.707 F500.000
G1 X-3.857 Y28.192 F500.000
G1 X-4.105 Y28.432 F500.000
G1 X-4.158 Y28.455 F500.000
G1 X-4.214 Y28.466 F500.000
G1 X-4.609 Y28.466 F500.000
G1 X-4.609 Y28.466 F500.000
G1 X-4.726 Y28.440 F500.000
G1 X-4.778 Y28.410 F500.000
G1 X-4.797 Y28.387 F500.000
G0 X-4.808 Y28.365
G0 X-4.812 Y28.256
G0 X-3.421 Y20.233
G1 X-3.410 Y20.177 F500.000
G1 X-3.383 Y20.053 F500.000
G1 X-3.327 Y19.959 F500.000
G1 X-3.199 Y19.872 F500.000
G1 X-3.199 Y19.872 F500.000
G1 X-2.959 Y19.820 F500.000
G1 X-2.838 Y19.820 F500.000
G1 X-2.662 Y19.876 F500.000
G1 X-2.346 Y20.056 F500.000
G1 X-2.075 Y20.312 F500.000
G1 X-1.853 Y20.609 F500.000
G1 X-1.733 Y20.812 F500.000
G1 X-1.628 Y21.026 F500.000
G1 X-1.526 Y21.286 F500.000
G1 X-1.425 Y21.617 F500.000
G1 X-1.350 Y21.977 F500.000
G1 X-1.305 Y22.346 F500.000
G1 X-1.286 Y22.711 F500.000
G1 X-1.286 Y23.079 F500.000
G1 X-1.312 Y23.447 F500.000
G1 X-1.357 Y23.816 F500.000
G1 X-1.496 Y24.545 F500.000
G1 X-1.699 Y25.256 F500.000
G1 X-1.820 Y25.605 F500.000
G1 X-1.959 Y25.947 F500.000
G1 X-2.263 Y26.620 F500.000
G1 X-2.429 Y26.951 F500.000
G1 X-2.789 Y27.594 F500.000
G1 X-2.992 Y27.902 F500.000
G1 X-3.289 Y28.282 F500.000
G1 X-3.414 Y28.406 F500.000
G1 X-3.515 Y28.459 F500.000
G1 X-3.853 Y28.466 F500.000
G1 X-3.853 Y28.466 F500.000
G1 X-3.970 Y28.440 F500.000
G1 X-4.041 Y28.387 F500.000
G0 X-4.056 Y28.365
G0 X-4.064 Y28.256
G0 X-3.162 Y20.177
G1 X-3.154 Y20.120 F500.000
G1 X-3.117 Y19.936 F500.000
G1 X-3.049 Y19.838 F500.000
G1 X-2.977 Y19.786 F500.000
G1 X-2.977 Y19.786 F500.000
G1 X-2.680 Y19.692 F500.000
G1 X-2.620 Y19.684 F500.000
G1 X-2.440 Y19.718 F500.000
G1 X-2.158 Y19.835 F500.000
G1 X-2.105 Y19.865 F500.000
G1 X-1.812 Y20.094 F500.000
G1 X-1.560 Y20.368 F500.000
G1 X-1.425 Y20.556 F500.000
G1 X-1.312 Y20.752 F500.000
G1 X-1.199 Y20.989 F500.000
G1 X-1.079 Y21.293 F500.000
G1 X-0.970 Y21.647 F500.000
G1 X-0.895 Y22.008 F500.000
G1 X-0.846 Y22.368 F500.000
G1 X-0.816 Y22.737 F500.000
G1 X-0.812 Y23.105 F500.000
G1 X-0.827 Y23.474 F500.000
G1 X-0.868 Y23.842 F500.000
G1 X-0.921 Y24.207 F500.000
G1 X-0.989 Y24.571 F500.000
G1 X-1.071 Y24.932 F500.000
G1 X-1.173 Y25.289 F500.000
G1 X-1.286 Y25.643 F500.000
G1 X-1.549 Y26.335 F500.000
G1 X-1.853 Y27.008 F500.000
G1 X-2.023 Y27.338 F500.000
G1 X-2.203 Y27.662 F500.000
G1 X-2.402 Y27.970 F500.000
G1 X-2.665 Y28.305 F500.000
G1 X-2.789 Y28.425 F500.000
G1 X-2.842 Y28.451 F500.000
G1 X-2.898 Y28.466 F500.000
G1 X-3.293 Y28.466 F500.000
G1 X-3.293 Y28.466 F500.000
G1 X-3.410 Y28.440 F500.000
G1 X-3.481 Y28.387 F500.000
G0 X-3.496 Y28.365
G0 X-3.508 Y28.252
G0 X-2.861 Y20.056
G1 X-2.857 Y20.000 F500.000
G1 X-2.835 Y19.835 F500.000
G1 X-2.786 Y19.737 F500.000
G1 X-2.707 Y19.654 F500.000
G1 X-2.707 Y19.654 F500.000
G1 X-2.598 Y19.590 F500.000
G1 X-2.421 Y19.534 F500.000
G1 X-2.361 Y19.526 F500.000
G1 X-2.120 Y19.568 F500.000
G1 X-1.891 Y19.654 F500.000
G1 X-1.579 Y19.857 F500.000
G1 X-1.301 Y20.105 F500.000
G1 X-1.143 Y20.297 F500.000
G1 X-1.023 Y20.466 F500.000
G1 X-0.887 Y20.692 F500.000
G1 X-0.744 Y20.989 F500.000
G1 X-0.613 Y21.323 F500.000
G1 X-0.511 Y21.680 F500.000
G1 X-0.432 Y22.026 F500.000
G1 X-0.376 Y22.391 F500.000
G1 X-0.342 Y22.759 F500.000
G1 X-0.335 Y23.128 F500.000
G1 X-0.350 Y23.496 F500.000
G1 X-0.376 Y23.865 F500.000
G1 X-0.421 Y24.233 F500.000
G1 X-0.564 Y24.959 F500.000
G1 X-0.654 Y25.316 F500.000
G1 X-0.756 Y25.673 F500.000
G1 X-0.872 Y26.023 F500.000
G1 X-1.000 Y26.368 F500.000
G1 X-1.139 Y26.711 F500.000
G1 X-1.293 Y27.049 F500.000
G1 X-1.459 Y27.380 F500.000
G1 X-1.635 Y27.707 F500.000
G1 X-1.966 Y28.207 F500.000
G1 X-2.162 Y28.417 F500.000
G1 X-2.211 Y28.447 F500.000
G1 X-2.263 Y28.466 F500.000
G1 X-2.545 Y28.466 F500.000
G1 X-2.545 Y28.466 F500.000
G1 X-2.662 Y28.440 F500.000
G1 X-2.733 Y28.387 F500.000
G0 X-2.748 Y28.365
G0 X-2.767 Y28.252
G0 X-2.643 Y19.936
G1 X-2.643 Y19.880 F500.000
G1 X-2.624 Y19.695 F500.000
G1 X-2.568 Y19.586 F500.000
G1 X-2.508 Y19.523 F500.000
G1 X-2.508 Y19.523 F500.000
G1 X-2.293 Y19.395 F500.000
G1 X-2.177 Y19.357 F500.000
G1 X-1.936 Y19.372 F500.000
G1 X-1.639 Y19.455 F500.000
G1 X-1.312 Y19.635 F500.000
G1 X-1.034 Y19.861 F500.000
G1 X-0.887 Y20.015 F500.000
G1 X-0.759 Y20.165 F500.000
G1 X-0.594 Y20.398 F500.000
G1 X-0.414 Y20.711 F500.000
G1 X-0.263 Y21.041 F500.000
G1 X-0.147 Y21.353 F500.000
G1 X-0.041 Y21.688 F500.000
G1 X0.041 Y22.049 F500.000
G1 X0.094 Y22.414 F500.000
G1 X0.124 Y22.782 F500.000
G1 X0.143 Y23.150 F500.000
G1 X0.139 Y23.519 F500.000
G1 X0.113 Y23.887 F500.000
G1 X0.071 Y24.256 F500.000
G1 X0.019 Y24.624 F500.000
G1 X-0.053 Y24.989 F500.000
G1 X-0.139 Y25.350 F500.000
G1 X-0.350 Y26.060 F500.000
G1 X-0.466 Y26.410 F500.000
G1 X-0.737 Y27.098 F500.000
G1 X-1.079 Y27.756 F500.000
G1 X-1.380 Y28.203 F500.000
G1 X-1.571 Y28.417 F500.000
G1 X-1.620 Y28.447 F500.000
G1 X-1.677 Y28.466 F500.000
G1 X-2.071 Y28.466 F500.000
G1 X-2.071 Y28.466 F500.000
G1 X-2.188 Y28.440 F500.000
G1 X-2.259 Y28.387 F500.000
G0 X-2.274 Y28.365
G0 X-2.293 Y28.252
G0 X-2.376 Y19.767
G1 X-2.380 Y19.707 F500.000
G1 X-2.372 Y19.519 F500.000
G1 X-2.327 Y19.406 F500.000
G1 X-2.271 Y19.338 F500.000
G1 X-2.271 Y19.338 F500.000
G1 X-2.117 Y19.233 F500.000
G1 X-2.004 Y19.184 F500.000
G1 X-1.823 Y19.165 F500.000
G1 X-1.523 Y19.203 F500.000
G1 X-1.462 Y19.218 F500.000
G1 X-1.120 Y19.365 F500.000
G1 X-0.823 Y19.564 F500.000
G1 X-0.665 Y19.699 F500.000
G1 X-0.523 Y19.846 F500.000
G1 X-0.353 Y20.049 F500.000
G1 X-0.154 Y20.331 F500.000
G1 X0.034 Y20.650 F500.000
G1 X0.195 Y20.985 F500.000
G1 X0.331 Y21.331 F500.000
G1 X0.440 Y21.684 F500.000
G1 X0.519 Y22.045 F500.000
G1 X0.579 Y22.410 F500.000
G1 X0.617 Y22.778 F500.000
G1 X0.635 Y23.147 F500.000
G1 X0.613 Y23.883 F500.000
G1 X0.583 Y24.252 F500.000
G1 X0.530 Y24.620 F500.000
G1 X0.462 Y24.985 F500.000
G1 X0.293 Y25.707 F500.000
G1 X0.079 Y26.414 F500.000
G1 X-0.192 Y27.102 F500.000
G1 X-0.342 Y27.440 F500.000
G1 X-0.511 Y27.771 F500.000
G1 X-0.741 Y28.128 F500.000
G1 X-0.966 Y28.391 F500.000
G1 X-1.011 Y28.429 F500.000
G1 X-1.064 Y28.455 F500.000
G1 X-1.120 Y28.466 F500.000
G1 X-1.459 Y28.466 F500.000
G1 X-1.459 Y28.466 F500.000
G1 X-1.575 Y28.440 F500.000
G1 X-1.650 Y28.387 F500.000
G0 X-1.665 Y28.365
G0 X-1.688 Y28.252
G0 X-2.165 Y19.617
G1 X-2.165 Y19.556 F500.000
G1 X-2.169 Y19.338 F500.000
G1 X-2.124 Y19.226 F500.000
G1 X-2.090 Y19.180 F500.000
G1 X-2.090 Y19.180 F500.000
G1 X-1.898 Y19.019 F500.000
G1 X-1.842 Y18.989 F500.000
G1 X-1.662 Y18.951 F500.000
G1 X-1.421 Y18.951 F500.000
G1 X-1.301 Y18.970 F500.000
G1 X-0.947 Y19.086 F500.000
G1 X-0.643 Y19.256 F500.000
G1 X-0.474 Y19.380 F500.000
G1 X-0.320 Y19.511 F500.000
G1 X-0.128 Y19.707 F500.000
G1 X0.086 Y19.955 F500.000
G1 X0.305 Y20.256 F500.000
G1 X0.492 Y20.571 F500.000
G1 X0.658 Y20.902 F500.000
G1 X0.797 Y21.244 F500.000
G1 X0.910 Y21.598 F500.000
G1 X0.996 Y21.959 F500.000
G1 X1.060 Y22.323 F500.000
G1 X1.102 Y22.692 F500.000
G1 X1.124 Y23.060 F500.000
G1 X1.132 Y23.429 F500.000
G1 X1.094 Y24.165 F500.000
G1 X0.996 Y24.902 F500.000
G1 X0.925 Y25.267 F500.000
G1 X0.748 Y25.989 F500.000
G1 X0.639 Y26.342 F500.000
G1 X0.391 Y27.041 F500.000
G1 X0.248 Y27.383 F500.000
G1 X0.083 Y27.714 F500.000
G1 X-0.105 Y28.034 F500.000
G1 X-0.398 Y28.383 F500.000
G1 X-0.489 Y28.451 F500.000
G1 X-0.545 Y28.466 F500.000
G1 X-0.940 Y28.466 F500.000
G1 X-0.940 Y28.466 F500.000
G1 X-1.056 Y28.440 F500.000
G1 X-1.132 Y28.387 F500.000
G0 X-1.147 Y28.365
G0 X-1.173 Y28.256
G0 X-1.985 Y19.440
G1 X-1.989 Y19.380 F500.000
G1 X-2.000 Y19.162 F500.000
G1 X-1.936 Y18.996 F500.000
G1 X-1.936 Y18.996 F500.000
G1 X-1.805 Y18.861 F500.000
G1 X-1.703 Y18.789 F500.000
G1 X-1.647 Y18.763 F500.000
G1 X-1.406 Y18.718 F500.000
G1 X-1.165 Y18.718 F500.000
G1 X-0.801 Y18.801 F500.000
G1 X-0.485 Y18.940 F500.000
G1 X-0.308 Y19.041 F500.000
G1 X-0.139 Y19.158 F500.000
G1 X0.068 Y19.327 F500.000
G1 X0.331 Y19.586 F500.000
G1 X0.564 Y19.865 F500.000
G1 X0.759 Y20.132 F500.000
G1 X0.944 Y20.444 F500.000
G1 X1.102 Y20.756 F500.000
G1 X1.241 Y21.098 F500.000
G1 X1.361 Y21.447 F500.000
G1 X1.451 Y21.805 F500.000
G1 X1.523 Y22.169 F500.000
G1 X1.575 Y22.534 F500.000
G1 X1.609 Y22.902 F500.000
G1 X1.628 Y23.271 F500.000
G1 X1.624 Y23.639 F500.000
G1 X1.579 Y24.376 F500.000
G1 X1.474 Y25.109 F500.000
G1 X1.402 Y25.474 F500.000
G1 X1.214 Y26.192 F500.000
G1 X1.109 Y26.549 F500.000
G1 X0.853 Y27.244 F500.000
G1 X0.699 Y27.583 F500.000
G1 X0.523 Y27.910 F500.000
G1 X0.316 Y28.218 F500.000
G1 X0.150 Y28.391 F500.000
G1 X0.105 Y28.429 F500.000
G1 X0.049 Y28.455 F500.000
G1 X-0.008 Y28.466 F500.000
G1 X-0.459 Y28.466 F500.000
G1 X-0.459 Y28.466 F500.000
G1 X-0.575 Y28.440 F500.000
G1 X-0.650 Y28.387 F500.000
G0 X-0.665 Y28.365
G0 X-0.695 Y28.256
G0 X-1.831 Y19.252
G1 X-1.838 Y19.195 F500.000
G1 X-1.853 Y18.974 F500.000
G1 X-1.820 Y18.857 F500.000
G1 X-1.789 Y18.808 F500.000
G1 X-1.789 Y18.808 F500.000
G1 X-1.673 Y18.662 F500.000
G1 X-1.579 Y18.575 F500.000
G1 X-1.402 Y18.504 F500.000
G1 X-1.102 Y18.459 F500.000
G1 X-1.041 Y18.459 F500.000
G1 X-0.669 Y18.508 F500.000
G1 X-0.338 Y18.620 F500.000
G1 X0.023 Y18.805 F500.000
G1 X0.263 Y18.974 F500.000
G1 X0.519 Y19.184 F500.000
G1 X0.774 Y19.440 F500.000
G1 X0.985 Y19.692 F500.000
G1 X1.180 Y19.970 F500.000
G1 X1.361 Y20.263 F500.000
G1 X1.534 Y20.590 F500.000
G1 X1.677 Y20.932 F500.000
G1 X1.797 Y21.282 F500.000
G1 X1.902 Y21.635 F500.000
G1 X1.985 Y21.996 F500.000
G1 X2.049 Y22.361 F500.000
G1 X2.094 Y22.729 F500.000
G1 X2.132 Y23.466 F500.000
G1 X2.102 Y24.203 F500.000
G1 X2.064 Y24.571 F500.000
G1 X1.951 Y25.305 F500.000
G1 X1.880 Y25.669 F500.000
G1 X1.699 Y26.387 F500.000
G1 X1.594 Y26.744 F500.000
G1 X1.466 Y27.094 F500.000
G1 X1.323 Y27.436 F500.000
G1 X1.154 Y27.767 F500.000
G1 X0.959 Y28.083 F500.000
G1 X0.684 Y28.395 F500.000
G1 X0.635 Y28.432 F500.000
G1 X0.579 Y28.459 F500.000
G1 X0.098 Y28.466 F500.000
G1 X0.098 Y28.466 F500.000
G1 X-0.023 Y28.440 F500.000
G1 X-0.098 Y28.387 F500.000
G0 X-0.113 Y28.365
G0 X-0.147 Y28.256
G0 X-1.639 Y19.056
G1 X-1.650 Y19.000 F500.000
G1 X-1.692 Y18.718 F500.000
G1 X-1.669 Y18.602 F500.000
G1 X-1.669 Y18.602 F500.000
G1 X-1.568 Y18.444 F500.000
G1 X-1.481 Y18.353 F500.000
G1 X-1.429 Y18.316 F500.000
G1 X-1.195 Y18.229 F500.000
G1 X-0.955 Y18.188 F500.000
G1 X-0.583 Y18.203 F500.000
G1 X-0.229 Y18.286 F500.000
G1 X-0.038 Y18.357 F500.000
G1 X0.143 Y18.440 F500.000
G1 X0.376 Y18.571 F500.000
G1 X0.662 Y18.767 F500.000
G1 X0.936 Y18.996 F500.000
G1 X1.165 Y19.222 F500.000
G1 X1.383 Y19.481 F500.000
G1 X1.583 Y19.756 F500.000
G1 X1.782 Y20.068 F500.000
G1 X1.951 Y20.395 F500.000
G1 X2.105 Y20.729 F500.000
G1 X2.233 Y21.075 F500.000
G1 X2.346 Y21.429 F500.000
G1 X2.432 Y21.789 F500.000
G1 X2.508 Y22.150 F500.000
G1 X2.560 Y22.515 F500.000
G1 X2.602 Y22.883 F500.000
G1 X2.632 Y23.620 F500.000
G1 X2.624 Y23.989 F500.000
G1 X2.598 Y24.357 F500.000
G1 X2.560 Y24.726 F500.000
G1 X2.447 Y25.459 F500.000
G1 X2.376 Y25.823 F500.000
G1 X2.195 Y26.541 F500.000
G1 X2.083 Y26.895 F500.000
G1 X1.959 Y27.244 F500.000
G1 X1.805 Y27.583 F500.000
G1 X1.628 Y27.910 F500.000
G1 X1.417 Y28.214 F500.000
G1 X1.207 Y28.425 F500.000
G1 X1.150 Y28.451 F500.000
G1 X1.090 Y28.466 F500.000
G1 X0.609 Y28.466 F500.000
G1 X0.609 Y28.466 F500.000
G1 X0.481 Y28.440 F500.000
G1 X0.402 Y28.387 F500.000
G0 X0.383 Y28.365
G0 X0.346 Y28.256
G0 X-1.526 Y18.846
G1 X-1.541 Y18.786 F500.000
G1 X-1.586 Y18.504 F500.000
G1 X-1.564 Y18.387 F500.000
G1 X-1.564 Y18.387 F500.000
G1 X-1.436 Y18.173 F500.000
G1 X-1.395 Y18.124 F500.000
G1 X-1.346 Y18.083 F500.000
G1 X-1.120 Y17.977 F500.000
G1 X-0.880 Y17.917 F500.000
G1 X-0.508 Y17.902 F500.000
G1 X-0.139 Y17.955 F500.000
G1 X0.068 Y18.011 F500.000
G1 X0.496 Y18.184 F500.000
G1 X0.816 Y18.368 F500.000
G1 X1.090 Y18.564 F500.000
G1 X1.729 Y19.177 F500.000
G1 X2.248 Y19.940 F500.000
G1 X2.421 Y20.267 F500.000
G1 X2.571 Y20.605 F500.000
G1 X2.703 Y20.951 F500.000
G1 X2.914 Y21.662 F500.000
G1 X2.989 Y22.023 F500.000
G1 X3.094 Y22.756 F500.000
G1 X3.124 Y23.124 F500.000
G1 X3.135 Y23.492 F500.000
G1 X3.135 Y23.861 F500.000
G1 X3.120 Y24.229 F500.000
G1 X3.090 Y24.598 F500.000
G1 X2.992 Y25.335 F500.000
G1 X2.929 Y25.699 F500.000
G1 X2.853 Y26.060 F500.000
G1 X2.767 Y26.421 F500.000
G1 X2.541 Y27.128 F500.000
G1 X2.398 Y27.470 F500.000
G1 X2.229 Y27.801 F500.000
G1 X2.030 Y28.113 F500.000
G1 X1.793 Y28.380 F500.000
G1 X1.748 Y28.421 F500.000
G1 X1.639 Y28.466 F500.000
G1 X1.158 Y28.466 F500.000
G1 X1.158 Y28.466 F500.000
G1 X1.030 Y28.440 F500.000
G1 X0.951 Y28.387 F500.000
G0 X0.932 Y28.365
G0 X0.887 Y28.256
G0 X-1.391 Y18.620
G1 X-1.406 Y18.560 F500.000
G1 X-1.425 Y18.474 F500.000
G1 X-1.477 Y18.282 F500.000
G1 X-1.470 Y18.165 F500.000
G1 X-1.470 Y18.165 F500.000
G1 X-1.429 Y18.049 F500.000
G1 X-1.368 Y17.940 F500.000
G1 X-1.286 Y17.846 F500.000
G1 X-1.068 Y17.722 F500.000
G1 X-0.827 Y17.643 F500.000
G1 X-0.455 Y17.590 F500.000
G1 X-0.083 Y17.609 F500.000
G1 X0.120 Y17.643 F500.000
G1 X0.327 Y17.695 F500.000
G1 X0.560 Y17.778 F500.000
G1 X0.850 Y17.910 F500.000
G1 X1.444 Y18.282 F500.000
G1 X1.556 Y18.410 F500.000
G1 X1.816 Y18.861 F500.000
G1 X2.154 Y19.244 F500.000
G1 X2.556 Y19.654 F500.000
G1 X2.902 Y20.252 F500.000
G1 X3.083 Y20.639 F500.000
G1 X3.218 Y20.981 F500.000
G1 X3.331 Y21.335 F500.000
G1 X3.425 Y21.692 F500.000
G1 X3.504 Y22.053 F500.000
G1 X3.560 Y22.417 F500.000
G1 X3.605 Y22.786 F500.000
G1 X3.632 Y23.154 F500.000
G1 X3.647 Y23.523 F500.000
G1 X3.643 Y23.891 F500.000
G1 X3.602 Y24.628 F500.000
G1 X3.511 Y25.365 F500.000
G1 X3.451 Y25.729 F500.000
G1 X3.293 Y26.455 F500.000
G1 X3.188 Y26.812 F500.000
G1 X3.064 Y27.162 F500.000
G1 X2.921 Y27.504 F500.000
G1 X2.748 Y27.831 F500.000
G1 X2.545 Y28.143 F500.000
G1 X2.350 Y28.365 F500.000
G1 X2.252 Y28.440 F500.000
G1 X2.195 Y28.462 F500.000
G1 X1.714 Y28.466 F500.000
G1 X1.714 Y28.466 F500.000
G1 X1.586 Y28.440 F500.000
G1 X1.508 Y28.387 F500.000
G0 X1.485 Y28.365
G0 X1.440 Y28.259
G0 X-1.316 Y18.391
G1 X-1.331 Y18.331 F500.000
G1 X-1.346 Y18.286 F500.000
G1 X-1.410 Y18.053 F500.000
G1 X-1.402 Y17.936 F500.000
G1 X-1.402 Y17.936 F500.000
G1 X-1.365 Y17.816 F500.000
G1 X-1.312 Y17.703 F500.000
G1 X-1.278 Y17.650 F500.000
G1 X-1.135 Y17.530 F500.000
G1 X-0.917 Y17.406 F500.000
G1 X-0.801 Y17.361 F500.000
G1 X-0.436 Y17.271 F500.000
G1 X-0.064 Y17.252 F500.000
G1 X0.150 Y17.271 F500.000
G1 X0.335 Y17.305 F500.000
G1 X0.568 Y17.365 F500.000
G1 X1.098 Y17.560 F500.000
G1 X1.301 Y17.669 F500.000
G1 X1.338 Y17.711 F500.000
G1 X1.361 Y17.763 F500.000
G1 X1.361 Y17.763 F500.000
G1 X1.357 Y17.880 F500.000
G1 X1.338 Y17.936 F500.000
G1 X1.323 Y17.959 F500.000
G0 X1.305 Y17.974
G0 X1.195 Y17.992
G0 X-1.098 Y17.932
G1 X-1.132 Y17.932 F500.000
G1 X-1.252 Y17.921 F500.000
G1 X-1.297 Y17.891 F500.000
G1 X-1.338 Y17.816 F500.000
G1 X-1.353 Y17.699 F500.000
G1 X-1.353 Y17.699 F500.000
G1 X-1.308 Y17.519 F500.000
G1 X-1.252 Y17.406 F500.000
G1 X-1.214 Y17.357 F500.000
G1 X-1.019 Y17.199 F500.000
G1 X-0.801 Y17.071 F500.000
G1 X-0.447 Y16.951 F500.000
G1 X-0.083 Y16.902 F500.000
G1 X0.113 Y16.902 F500.000
G1 X0.305 Y16.914 F500.000
G1 X0.575 Y16.955 F500.000
G1 X0.951 Y17.056 F500.000
G1 X1.162 Y17.150 F500.000
G1 X1.259 Y17.214 F500.000
G1 X1.301 Y17.256 F500.000
G1 X1.323 Y17.308 F500.000
G1 X1.323 Y17.308 F500.000
G1 X1.301 Y17.425 F500.000
G1 X1.256 Y17.500 F500.000
G0 X1.233 Y17.515
G0 X1.068 Y17.541
G0 X-1.068 Y17.677
G1 X-1.102 Y17.680 F500.000
G1 X-1.222 Y17.677 F500.000
G1 X-1.267 Y17.650 F500.000
G1 X-1.308 Y17.579 F500.000
G1 X-1.323 Y17.462 F500.000
G1 X-1.323 Y17.462 F500.000
G1 X-1.293 Y17.282 F500.000
G1 X-1.248 Y17.165 F500.000
G1 X-1.083 Y16.977 F500.000
G1 X-0.827 Y16.797 F500.000
G1 X-0.485 Y16.643 F500.000
G1 X-0.120 Y16.560 F500.000
G1 X0.071 Y16.541 F500.000
G1 X0.263 Y16.534 F500.000
G1 X0.526 Y16.553 F500.000
G1 X0.823 Y16.609 F500.000
G1 X1.147 Y16.741 F500.000
G1 X1.289 Y16.842 F500.000
G1 X1.323 Y16.887 F500.000
G1 X1.335 Y16.944 F500.000
G1 X1.335 Y16.944 F500.000
G1 X1.289 Y17.056 F500.000
G1 X1.229 Y17.120 F500.000
G0 X1.203 Y17.135
G0 X1.038 Y17.169
G0 X-1.034 Y17.417
G1 X-1.068 Y17.421 F500.000
G1 X-1.192 Y17.429 F500.000
G1 X-1.237 Y17.406 F500.000
G1 X-1.289 Y17.335 F500.000
G1 X-1.320 Y17.222 F500.000
G1 X-1.320 Y17.222 F500.000
G1 X-1.316 Y17.102 F500.000
G1 X-1.271 Y16.921 F500.000
G1 X-1.117 Y16.726 F500.000
G1 X-0.880 Y16.523 F500.000
G1 X-0.553 Y16.338 F500.000
G1 X-0.195 Y16.222 F500.000
G1 X0.011 Y16.180 F500.000
G1 X0.199 Y16.162 F500.000
G1 X0.436 Y16.165 F500.000
G1 X0.714 Y16.199 F500.000
G1 X1.034 Y16.293 F500.000
G1 X1.237 Y16.402 F500.000
G1 X1.365 Y16.515 F500.000
G1 X1.387 Y16.568 F500.000
G1 X1.380 Y16.680 F500.000
G1 X1.380 Y16.680 F500.000
G1 X1.335 Y16.793 F500.000
G1 X1.274 Y16.857 F500.000
G0 X1.248 Y16.872
G0 X1.083 Y16.906
G0 X-1.011 Y17.165
G1 X-1.045 Y17.169 F500.000
G1 X-1.169 Y17.177 F500.000
G1 X-1.222 Y17.158 F500.000
G1 X-1.282 Y17.094 F500.000
G1 X-1.327 Y16.985 F500.000
G1 X-1.327 Y16.985 F500.000
G1 X-1.327 Y16.805 F500.000
G1 X-1.297 Y16.684 F500.000
G1 X-1.162 Y16.474 F500.000
G1 X-0.989 Y16.293 F500.000
G1 X-0.632 Y16.038 F500.000
G1 X-0.286 Y15.891 F500.000
G1 X-0.079 Y15.838 F500.000
G1 X0.105 Y15.805 F500.000
G1 X0.342 Y15.789 F500.000
G1 X0.613 Y15.805 F500.000
G1 X0.932 Y15.865 F500.000
G1 X1.098 Y15.921 F500.000
G1 X1.301 Y16.038 F500.000
G1 X1.387 Y16.113 F500.000
G1 X1.414 Y16.162 F500.000
G1 X1.429 Y16.218 F500.000
G1 X1.429 Y16.331 F500.000
G1 X1.429 Y16.331 F500.000
G1 X1.387 Y16.444 F500.000
G1 X1.331 Y16.515 F500.000
G0 X1.308 Y16.530
G0 X1.143 Y16.575
G0 X-1.041 Y16.974
G1 X-1.075 Y16.977 F500.000
G1 X-1.199 Y16.996 F500.000
G1 X-1.252 Y16.977 F500.000
G1 X-1.312 Y16.914 F500.000
G1 X-1.357 Y16.805 F500.000
G1 X-1.357 Y16.805 F500.000
G1 X-1.376 Y16.684 F500.000
G1 X-1.368 Y16.504 F500.000
G1 X-1.353 Y16.444 F500.000
G1 X-1.199 Y16.173 F500.000
G1 X-0.989 Y15.940 F500.000
G1 X-0.842 Y15.820 F500.000
G1 X-0.523 Y15.624 F500.000
G1 X-0.173 Y15.496 F500.000
G1 X0.030 Y15.451 F500.000
G1 X0.226 Y15.421 F500.000
G1 X0.474 Y15.414 F500.000
G1 X0.914 Y15.470 F500.000
G1 X1.188 Y15.560 F500.000
G1 X1.237 Y15.590 F500.000
G1 X1.312 Y15.677 F500.000
G1 X1.402 Y15.951 F500.000
G1 X1.414 Y16.008 F500.000
G1 X1.414 Y16.008 F500.000
G1 X1.391 Y16.154 F500.000
G1 X1.365 Y16.207 F500.000
G0 X1.342 Y16.226
G0 X1.237 Y16.263
G0 X-1.086 Y16.677
G1 X-1.120 Y16.680 F500.000
G1 X-1.244 Y16.699 F500.000
G1 X-1.301 Y16.680 F500.000
G1 X-1.365 Y16.620 F500.000
G1 X-1.417 Y16.511 F500.000
G1 X-1.417 Y16.511 F500.000
G1 X-1.429 Y16.331 F500.000
G1 X-1.406 Y16.150 F500.000
G1 X-1.368 Y16.030 F500.000
G1 X-1.312 Y15.921 F500.000
G1 X-1.113 Y15.677 F500.000
G1 X-0.823 Y15.432 F500.000
G1 X-0.605 Y15.305 F500.000
G1 X-0.263 Y15.150 F500.000
G1 X0.098 Y15.064 F500.000
G1 X0.342 Y15.038 F500.000
G1 X0.782 Y15.049 F500.000
G1 X0.951 Y15.083 F500.000
G1 X1.008 Y15.102 F500.000
G1 X1.056 Y15.132 F500.000
G1 X1.090 Y15.177 F500.000
G1 X1.090 Y15.177 F500.000
G1 X1.109 Y15.293 F500.000
G1 X1.090 Y15.376 F500.000
G0 X1.071 Y15.398
G0 X0.974 Y15.455
G0 X-1.169 Y16.308
G1 X-1.203 Y16.320 F500.000
G1 X-1.320 Y16.353 F500.000
G1 X-1.365 Y16.338 F500.000
G1 X-1.410 Y16.267 F500.000
G1 X-1.436 Y16.154 F500.000
G1 X-1.436 Y16.154 F500.000
G1 X-1.414 Y15.974 F500.000
G1 X-1.338 Y15.733 F500.000
G1 X-1.199 Y15.451 F500.000
G1 X-1.053 Y15.248 F500.000
G1 X-0.808 Y15.049 F500.000
G1 X-0.594 Y14.917 F500.000
G1 X-0.481 Y14.865 F500.000
G1 X-0.128 Y14.737 F500.000
G1 X0.237 Y14.665 F500.000
G1 X0.583 Y14.650 F500.000
G1 X0.752 Y14.673 F500.000
G1 X0.917 Y14.726 F500.000
G1 X0.962 Y14.763 F500.000
G1 X0.962 Y14.763 F500.000
G1 X0.959 Y14.880 F500.000
G1 X0.925 Y14.962 F500.000
G0 X0.906 Y14.981
G0 X0.756 Y15.041
G0 X-0.977 Y15.492
G1 X-1.011 Y15.500 F500.000
G1 X-1.124 Y15.523 F500.000
G1 X-1.158 Y15.496 F500.000
G1 X-1.169 Y15.421 F500.000
G1 X-1.147 Y15.308 F500.000
G1 X-1.147 Y15.308 F500.000
G1 X-0.992 Y14.966 F500.000
G1 X-0.921 Y14.865 F500.000
G1 X-0.733 Y14.695 F500.000
G1 X-0.462 Y14.530 F500.000
G1 X-0.056 Y14.365 F500.000
G1 X0.308 Y14.297 F500.000
G1 X0.590 Y14.301 F500.000
G1 X0.759 Y14.338 F500.000
G1 X0.865 Y14.387 F500.000
G1 X0.910 Y14.421 F500.000
G1 X0.932 Y14.474 F500.000
G1 X0.932 Y14.474 F500.000
G1 X0.910 Y14.590 F500.000
G1 X0.865 Y14.669 F500.000
G0 X0.842 Y14.688
G0 X0.688 Y14.744
G0 X-0.812 Y15.154
G1 X-0.846 Y15.162 F500.000
G1 X-0.959 Y15.184 F500.000
G1 X-1.000 Y15.162 F500.000
G1 X-1.030 Y15.086 F500.000
G1 X-1.030 Y14.970 F500.000
G1 X-1.030 Y14.970 F500.000
G1 X-0.932 Y14.669 F500.000
G1 X-0.872 Y14.560 F500.000
G1 X-0.699 Y14.380 F500.000
G1 X-0.444 Y14.195 F500.000
G1 X-0.102 Y14.038 F500.000
G1 X0.263 Y13.962 F500.000
G1 X0.451 Y13.959 F500.000
G1 X0.714 Y14.008 F500.000
G1 X0.820 Y14.053 F500.000
G1 X0.868 Y14.083 F500.000
G1 X0.906 Y14.124 F500.000
G1 X0.921 Y14.180 F500.000
G1 X0.921 Y14.180 F500.000
G1 X0.898 Y14.297 F500.000
G1 X0.853 Y14.376 F500.000
G0 X0.831 Y14.395
G0 X0.680 Y14.447
G0 X-0.711 Y14.801
G1 X-0.744 Y14.808 F500.000
G1 X-0.861 Y14.831 F500.000
G1 X-0.902 Y14.805 F500.000
G1 X-0.944 Y14.733 F500.000
G1 X-0.955 Y14.617 F500.000
G1 X-0.955 Y14.617 F500.000
G1 X-0.921 Y14.436 F500.000
G1 X-0.853 Y14.259 F500.000
G1 X-0.688 Y14.068 F500.000
G1 X-0.492 Y13.910 F500.000
G1 X-0.440 Y13.876 F500.000
G1 X-0.102 Y13.714 F500.000
G1 X0.241 Y13.643 F500.000
G1 X0.410 Y13.639 F500.000
G1 X0.613 Y13.662 F500.000
G1 X0.778 Y13.718 F500.000
G1 X0.880 Y13.778 F500.000
G1 X0.925 Y13.816 F500.000
G1 X0.947 Y13.868 F500.000
G1 X0.947 Y13.868 F500.000
G1 X0.910 Y13.981 F500.000
G1 X0.853 Y14.053 F500.000
G0 X0.831 Y14.068
G0 X0.579 Y14.150
G0 X-0.647 Y14.489
G1 X-0.680 Y14.496 F500.000
G1 X-0.797 Y14.519 F500.000
G1 X-0.846 Y14.500 F500.000
G1 X-0.895 Y14.432 F500.000
G1 X-0.925 Y14.320 F500.000
G1 X-0.925 Y14.320 F500.000
G1 X-0.921 Y14.199 F500.000
G1 X-0.876 Y14.019 F500.000
G1 X-0.850 Y13.962 F500.000
G1 X-0.692 Y13.767 F500.000
G1 X-0.500 Y13.605 F500.000
G1 X-0.173 Y13.425 F500.000
G1 X0.188 Y13.335 F500.000
G1 X0.357 Y13.323 F500.000
G1 X0.504 Y13.331 F500.000
G1 X0.782 Y13.406 F500.000
G1 X0.929 Y13.496 F500.000
G1 X0.970 Y13.538 F500.000
G1 X0.992 Y13.590 F500.000
G1 X0.974 Y13.703 F500.000
G1 X0.974 Y13.703 F500.000
G1 X0.921 Y13.816 F500.000
G1 X0.857 Y13.880 F500.000
G0 X0.831 Y13.895
G0 X-0.654 Y14.252
G1 X-0.688 Y14.259 F500.000
G1 X-0.805 Y14.282 F500.000
G1 X-0.853 Y14.259 F500.000
G1 X-0.902 Y14.192 F500.000
G1 X-0.932 Y14.079 F500.000
G1 X-0.932 Y14.079 F500.000
G1 X-0.929 Y13.838 F500.000
G1 X-0.898 Y13.718 F500.000
G1 X-0.752 Y13.515 F500.000
G1 X-0.568 Y13.342 F500.000
G1 X-0.515 Y13.305 F500.000
G1 X-0.188 Y13.124 F500.000
G1 X0.169 Y13.023 F500.000
G1 X0.346 Y13.011 F500.000
G1 X0.489 Y13.019 F500.000
G1 X0.774 Y13.086 F500.000
G1 X0.880 Y13.135 F500.000
G1 X1.015 Y13.241 F500.000
G1 X1.053 Y13.286 F500.000
G1 X1.064 Y13.342 F500.000
G1 X1.034 Y13.455 F500.000
G1 X1.034 Y13.455 F500.000
G1 X0.970 Y13.560 F500.000
G1 X0.902 Y13.620 F500.000
G0 X0.872 Y13.635
G0 X-0.639 Y13.951
G1 X-0.673 Y13.955 F500.000
G1 X-0.793 Y13.974 F500.000
G1 X-0.846 Y13.955 F500.000
G1 X-0.910 Y13.891 F500.000
G1 X-0.962 Y13.782 F500.000
G1 X-0.962 Y13.782 F500.000
G1 X-0.962 Y13.602 F500.000
G1 X-0.932 Y13.481 F500.000
G1 X-0.759 Y13.218 F500.000
G1 X-0.628 Y13.083 F500.000
G1 X-0.323 Y12.865 F500.000
G1 X-0.004 Y12.741 F500.000
G1 X0.162 Y12.711 F500.000
G1 X0.308 Y12.695 F500.000
G1 X0.496 Y12.703 F500.000
G1 X0.722 Y12.748 F500.000
G1 X0.974 Y12.861 F500.000
G1 X1.060 Y12.932 F500.000
G1 X1.132 Y13.019 F500.000
G1 X1.154 Y13.071 F500.000
G1 X1.154 Y13.128 F500.000
G1 X1.132 Y13.180 F500.000
G1 X1.132 Y13.180 F500.000
G1 X1.053 Y13.278 F500.000
G1 X0.977 Y13.331 F500.000
G0 X0.947 Y13.346
G0 X-0.677 Y13.763
G1 X-0.711 Y13.771 F500.000
G1 X-0.827 Y13.793 F500.000
G1 X-0.880 Y13.778 F500.000
G1 X-0.944 Y13.714 F500.000
G1 X-0.996 Y13.605 F500.000
G1 X-0.996 Y13.605 F500.000
G1 X-1.019 Y13.425 F500.000
G1 X-1.011 Y13.305 F500.000
G1 X-0.996 Y13.244 F500.000
G1 X-0.876 Y13.023 F500.000
G1 X-0.711 Y12.831 F500.000
G1 X-0.417 Y12.598 F500.000
G1 X-0.075 Y12.444 F500.000
G1 X0.094 Y12.402 F500.000
G1 X0.241 Y12.380 F500.000
G1 X0.440 Y12.376 F500.000
G1 X0.669 Y12.406 F500.000
G1 X0.883 Y12.474 F500.000
G1 X1.049 Y12.564 F500.000
G1 X1.180 Y12.677 F500.000
G1 X1.248 Y12.771 F500.000
G1 X1.274 Y12.823 F500.000
G1 X1.271 Y12.880 F500.000
G1 X1.244 Y12.932 F500.000
G1 X1.244 Y12.932 F500.000
G1 X1.165 Y13.030 F500.000
G1 X1.090 Y13.083 F500.000
G0 X1.060 Y13.098
G0 X-0.718 Y13.519
G1 X-0.752 Y13.526 F500.000
G1 X-0.868 Y13.549 F500.000
G1 X-0.925 Y13.534 F500.000
G1 X-0.992 Y13.477 F500.000
G1 X-1.053 Y13.372 F500.000
G1 X-1.053 Y13.372 F500.000
G1 X-1.090 Y13.192 F500.000
G1 X-1.090 Y13.071 F500.000
G1 X-1.023 Y12.895 F500.000
