(Exported by FreeCAD)
(Post Processor: grbl_post)
(Output Time:2023-12-12 17:43:20.522836)
(Begin preamble)
G17 G90
G21
(Block-name: G54)
(Block-expand: 0)
(Block-enable: 1)
(Begin operation: G54)
(Path: G54)
G54
G0 Z5.000
(Finish operation: G54)
(Block-name: 3mm Endmill001)
(Block-expand: 0)
(Block-enable: 1)
(Begin operation: 3mm Endmill001)
(Path: 3mm Endmill001)
(3mm Endmill001)
(Begin toolchange)
( M6 T2 )
M3 S10000
(Finish operation: 3mm Endmill001)
(Block-name: Drilling)
(Block-expand: 0)
(Block-enable: 1)
(Begin operation: Drilling)
(Path: Drilling)
(Drilling)
(Begin Drilling)
G0 Z5.000
G90
G98
G0 X25.000 Y-25.000
G0 Z3.000
G83 X25.000 Y-25.000 Z-6.000 F400.000 Q0.900 R3.000
G0 X-25.000 Y-25.000
G0 Z3.000
G83 X-25.000 Y-25.000 Z-6.000 F400.000 Q0.900 R3.000
G80
G0 Z3.000
G0 Z5.000
(Finish operation: Drilling)
(Block-name: Adaptive)
(Block-expand: 0)
(Block-enable: 1)
(Begin operation: Adaptive)
(Path: Adaptive)
(Adaptive)
(Helix to depth: -1.600000)
G0 Z5.000
G0 X0.755 Y0.820 Z5.000
G0 X0.755 Y0.820 Z3.000
G1 X0.755 Y0.820 Z0.000 F400.000
G1 X0.755 Y0.820 Z0.000 F400.000
G1 X0.581 Y0.952 Z-0.019 F400.000
G1 X0.384 Y1.047 Z-0.039 F400.000
G1 X0.173 Y1.102 Z-0.058 F400.000
G1 X-0.046 Y1.114 Z-0.077 F400.000
G1 X-0.262 Y1.084 Z-0.097 F400.000
G1 X-0.468 Y1.012 Z-0.116 F400.000
G1 X-0.657 Y0.901 Z-0.135 F400.000
G1 X-0.820 Y0.755 Z-0.155 F400.000
G1 X-0.952 Y0.581 Z-0.174 F400.000
G1 X-1.047 Y0.384 Z-0.193 F400.000
G1 X-1.102 Y0.173 Z-0.213 F400.000
G1 X-1.114 Y-0.046 Z-0.232 F400.000
G1 X-1.084 Y-0.262 Z-0.251 F400.000
G1 X-1.012 Y-0.468 Z-0.271 F400.000
G1 X-0.901 Y-0.657 Z-0.290 F400.000
G1 X-0.755 Y-0.820 Z-0.309 F400.000
G1 X-0.581 Y-0.952 Z-0.329 F400.000
G1 X-0.384 Y-1.047 Z-0.348 F400.000
G1 X-0.173 Y-1.102 Z-0.367 F400.000
G1 X0.046 Y-1.114 Z-0.387 F400.000
G1 X0.262 Y-1.084 Z-0.406 F400.000
G1 X0.468 Y-1.012 Z-0.425 F400.000
G1 X0.657 Y-0.901 Z-0.444 F400.000
G1 X0.820 Y-0.755 Z-0.464 F400.000
G1 X0.952 Y-0.581 Z-0.483 F400.000
G1 X1.047 Y-0.384 Z-0.502 F400.000
G1 X1.102 Y-0.173 Z-0.522 F400.000
G1 X1.114 Y0.046 Z-0.541 F400.000
G1 X1.084 Y0.262 Z-0.560 F400.000
G1 X1.012 Y0.468 Z-0.580 F400.000
G1 X0.901 Y0.657 Z-0.599 F400.000
G1 X0.755 Y0.820 Z-0.618 F400.000
G1 X0.581 Y0.952 Z-0.638 F400.000
G1 X0.384 Y1.047 Z-0.657 F400.000
G1 X0.173 Y1.102 Z-0.676 F400.000
G1 X-0.046 Y1.114 Z-0.696 F400.000
G1 X-0.262 Y1.084 Z-0.715 F400.000
G1 X-0.468 Y1.012 Z-0.734 F400.000
G1 X-0.657 Y0.901 Z-0.754 F400.000
G1 X-0.820 Y0.755 Z-0.773 F400.000
G1 X-0.952 Y0.581 Z-0.792 F400.000
G1 X-1.047 Y0.384 Z-0.812 F400.000
G1 X-1.102 Y0.173 Z-0.831 F400.000
G1 X-1.114 Y-0.046 Z-0.850 F400.000
G1 X-1.084 Y-0.262 Z-0.870 F400.000
G1 X-1.012 Y-0.468 Z-0.889 F400.000
G1 X-0.901 Y-0.657 Z-0.908 F400.000
G1 X-0.755 Y-0.820 Z-0.928 F400.000
G1 X-0.581 Y-0.952 Z-0.947 F400.000
G1 X-0.384 Y-1.047 Z-0.966 F400.000
G1 X-0.173 Y-1.102 Z-0.986 F400.000
G1 X0.046 Y-1.114 Z-1.005 F400.000
G1 X0.262 Y-1.084 Z-1.024 F400.000
G1 X0.468 Y-1.012 Z-1.044 F400.000
G1 X0.657 Y-0.901 Z-1.063 F400.000
G1 X0.820 Y-0.755 Z-1.082 F400.000
G1 X0.952 Y-0.581 Z-1.102 F400.000
G1 X1.047 Y-0.384 Z-1.121 F400.000
G1 X1.102 Y-0.173 Z-1.140 F400.000
G1 X1.114 Y0.046 Z-1.160 F400.000
G1 X1.084 Y0.262 Z-1.179 F400.000
G1 X1.012 Y0.468 Z-1.198 F400.000
G1 X0.901 Y0.657 Z-1.218 F400.000
G1 X0.755 Y0.820 Z-1.237 F400.000
G1 X0.581 Y0.952 Z-1.256 F400.000
G1 X0.384 Y1.047 Z-1.275 F400.000
G1 X0.173 Y1.102 Z-1.295 F400.000
G1 X-0.046 Y1.114 Z-1.314 F400.000
G1 X-0.262 Y1.084 Z-1.333 F400.000
G1 X-0.468 Y1.012 Z-1.353 F400.000
G1 X-0.657 Y0.901 Z-1.372 F400.000
G1 X-0.820 Y0.755 Z-1.391 F400.000
G1 X-0.952 Y0.581 Z-1.411 F400.000
G1 X-1.047 Y0.384 Z-1.430 F400.000
G1 X-1.102 Y0.173 Z-1.449 F400.000
G1 X-1.114 Y-0.046 Z-1.469 F400.000
G1 X-1.084 Y-0.262 Z-1.488 F400.000
G1 X-1.012 Y-0.468 Z-1.507 F400.000
G1 X-0.901 Y-0.657 Z-1.527 F400.000
G1 X-0.755 Y-0.820 Z-1.546 F400.000
G1 X-0.581 Y-0.952 Z-1.565 F400.000
G1 X-0.384 Y-1.047 Z-1.585 F400.000
G1 X-0.173 Y-1.102 Z-1.600 F500.000
G1 X0.046 Y-1.114 Z-1.600 F500.000
G1 X0.262 Y-1.084 Z-1.600 F500.000
G1 X0.468 Y-1.012 Z-1.600 F500.000
G1 X0.657 Y-0.901 Z-1.600 F500.000
G1 X0.820 Y-0.755 Z-1.600 F500.000
G1 X0.952 Y-0.581 Z-1.600 F500.000
G1 X1.047 Y-0.384 Z-1.600 F500.000
G1 X1.102 Y-0.173 Z-1.600 F500.000
G1 X1.114 Y0.046 Z-1.600 F500.000
G1 X1.084 Y0.262 Z-1.600 F500.000
G1 X1.012 Y0.468 Z-1.600 F500.000
G1 X0.901 Y0.657 Z-1.600 F500.000
G1 X0.755 Y0.820 Z-1.600 F500.000
G1 X0.581 Y0.952 Z-1.600 F500.000
G1 X0.384 Y1.047 Z-1.600 F500.000
G1 X0.173 Y1.102 Z-1.600 F500.000
G1 X-0.046 Y1.114 Z-1.600 F500.000
G1 X-0.262 Y1.084 Z-1.600 F500.000
G1 X-0.468 Y1.012 Z-1.600 F500.000
G1 X-0.657 Y0.901 Z-1.600 F500.000
G1 X-0.820 Y0.755 Z-1.600 F500.000
G1 X-0.952 Y0.581 Z-1.600 F500.000
G1 X-1.047 Y0.384 Z-1.600 F500.000
G1 X-1.102 Y0.173 Z-1.600 F500.000
G1 X-1.114 Y-0.046 Z-1.600 F500.000
G1 X-1.084 Y-0.262 Z-1.600 F500.000
G1 X-1.012 Y-0.468 Z-1.600 F500.000
G1 X-0.901 Y-0.657 Z-1.600 F500.000
G1 X-0.755 Y-0.820 Z-1.600 F500.000
G1 X-0.581 Y-0.952 Z-1.600 F500.000
G1 X-0.384 Y-1.047 Z-1.600 F500.000
(Adaptive - depth: -1.600000)
G1 X0.000 Y-1.125 F500.000
G1 X0.144 Y-1.256 F500.000
G1 X0.231 Y-1.300 F500.000
G1 X0.419 Y-1.344 F500.000
G1 X0.606 Y-1.350 F500.000
G1 X0.794 Y-1.312 F500.000
G1 X1.131 Y-1.156 F500.000
G1 X1.363 Y-0.956 F500.000
G1 X1.494 Y-0.787 F500.000
G1 X1.600 Y-0.606 F500.000
G1 X1.700 Y-0.344 F500.000
G1 X1.744 Y-0.037 F500.000
G1 X1.744 Y0.219 F500.000
G1 X1.694 Y0.494 F500.000
G1 X1.600 Y0.756 F500.000
G1 X1.450 Y1.025 F500.000
G1 X1.269 Y1.256 F500.000
G1 X1.050 Y1.450 F500.000
G1 X0.794 Y1.613 F500.000
G1 X0.519 Y1.725 F500.000
G1 X0.231 Y1.794 F500.000
G1 X-0.062 Y1.812 F500.000
G1 X-0.350 Y1.781 F500.000
G1 X-0.631 Y1.706 F500.000
G1 X-0.894 Y1.581 F500.000
G1 X-1.137 Y1.413 F500.000
G1 X-1.350 Y1.206 F500.000
G1 X-1.525 Y0.969 F500.000
G1 X-1.656 Y0.706 F500.000
G1 X-1.744 Y0.425 F500.000
G1 X-1.781 Y0.131 F500.000
G1 X-1.794 Y-0.156 F500.000
G1 X-1.738 Y-0.525 F500.000
G1 X-1.625 Y-0.819 F500.000
G1 X-1.488 Y-1.044 F500.000
G1 X-1.319 Y-1.238 F500.000
G1 X-1.119 Y-1.438 F500.000
G1 X-0.831 Y-1.681 F500.000
G1 X-0.506 Y-1.869 F500.000
G1 X-0.156 Y-2.013 F500.000
G1 X0.169 Y-2.081 F500.000
G1 X0.450 Y-2.100 F500.000
G1 X0.775 Y-2.069 F500.000
G1 X1.081 Y-1.988 F500.000
G1 X1.369 Y-1.863 F500.000
G1 X1.637 Y-1.694 F500.000
G1 X1.875 Y-1.481 F500.000
G1 X2.081 Y-1.238 F500.000
G1 X2.244 Y-0.963 F500.000
G1 X2.362 Y-0.662 F500.000
G1 X2.450 Y-0.356 F500.000
G1 X2.506 Y0.013 F500.000
G1 X2.506 Y0.381 F500.000
G1 X2.438 Y0.738 F500.000
G1 X2.337 Y1.019 F500.000
G1 X2.206 Y1.294 F500.000
G1 X2.006 Y1.613 F500.000
G1 X1.756 Y1.894 F500.000
G1 X1.475 Y2.125 F500.000
G1 X1.194 Y2.306 F500.000
G1 X0.863 Y2.456 F500.000
G1 X0.525 Y2.556 F500.000
G1 X0.181 Y2.606 F500.000
G1 X-0.163 Y2.606 F500.000
G1 X-0.506 Y2.556 F500.000
G1 X-0.844 Y2.481 F500.000
G1 X-1.188 Y2.344 F500.000
G1 X-1.512 Y2.163 F500.000
G1 X-1.800 Y1.919 F500.000
G1 X-2.006 Y1.700 F500.000
G1 X-2.206 Y1.413 F500.000
G1 X-2.356 Y1.100 F500.000
G1 X-2.475 Y0.794 F500.000
G1 X-2.569 Y0.431 F500.000
G1 X-2.612 Y0.056 F500.000
G1 X-2.600 Y-0.312 F500.000
G1 X-2.550 Y-0.650 F500.000
G1 X-2.444 Y-1.006 F500.000
G1 X-2.288 Y-1.344 F500.000
G1 X-2.094 Y-1.656 F500.000
G1 X-1.856 Y-1.944 F500.000
G1 X-1.581 Y-2.200 F500.000
G1 X-1.275 Y-2.419 F500.000
G1 X-0.950 Y-2.612 F500.000
G1 X-0.600 Y-2.756 F500.000
G1 X-0.237 Y-2.862 F500.000
G1 X0.125 Y-2.925 F500.000
G1 X0.494 Y-2.944 F500.000
G1 X0.863 Y-2.919 F500.000
G1 X1.225 Y-2.831 F500.000
G1 X1.550 Y-2.712 F500.000
G1 X1.881 Y-2.544 F500.000
G1 X2.188 Y-2.325 F500.000
G1 X2.462 Y-2.075 F500.000
G1 X2.700 Y-1.788 F500.000
G1 X2.913 Y-1.481 F500.000
G1 X3.081 Y-1.144 F500.000
G1 X3.212 Y-0.787 F500.000
G1 X3.300 Y-0.419 F500.000
G1 X3.344 Y-0.044 F500.000
G1 X3.344 Y0.325 F500.000
G1 X3.294 Y0.694 F500.000
G1 X3.219 Y1.056 F500.000
G1 X3.094 Y1.406 F500.000
G1 X2.938 Y1.744 F500.000
G1 X2.750 Y2.069 F500.000
G1 X2.525 Y2.369 F500.000
G1 X2.250 Y2.625 F500.000
G1 X1.962 Y2.856 F500.000
G1 X1.644 Y3.050 F500.000
G1 X1.306 Y3.219 F500.000
G1 X0.950 Y3.344 F500.000
G1 X0.581 Y3.431 F500.000
G1 X0.206 Y3.481 F500.000
G1 X-0.163 Y3.487 F500.000
G1 X-0.531 Y3.456 F500.000
G1 X-0.900 Y3.388 F500.000
G1 X-1.256 Y3.275 F500.000
G1 X-1.600 Y3.125 F500.000
G1 X-1.925 Y2.938 F500.000
G1 X-2.231 Y2.719 F500.000
G1 X-2.513 Y2.469 F500.000
G1 X-2.763 Y2.188 F500.000
G1 X-2.969 Y1.869 F500.000
G1 X-3.144 Y1.538 F500.000
G1 X-3.288 Y1.188 F500.000
G1 X-3.400 Y0.825 F500.000
G1 X-3.475 Y0.456 F500.000
G1 X-3.513 Y0.081 F500.000
G1 X-3.500 Y-0.287 F500.000
G1 X-3.456 Y-0.656 F500.000
G1 X-3.375 Y-1.019 F500.000
G1 X-3.250 Y-1.369 F500.000
G1 X-3.087 Y-1.706 F500.000
G1 X-2.906 Y-2.031 F500.000
G1 X-2.688 Y-2.331 F500.000
G1 X-2.438 Y-2.612 F500.000
G1 X-2.169 Y-2.875 F500.000
G1 X-1.875 Y-3.106 F500.000
G1 X-1.556 Y-3.306 F500.000
G1 X-1.219 Y-3.481 F500.000
G1 X-0.869 Y-3.619 F500.000
G1 X-0.506 Y-3.725 F500.000
G1 X-0.138 Y-3.794 F500.000
G1 X0.231 Y-3.831 F500.000
G1 X0.600 Y-3.831 F500.000
G1 X0.969 Y-3.794 F500.000
G1 X1.337 Y-3.725 F500.000
G1 X1.694 Y-3.619 F500.000
G1 X2.038 Y-3.481 F500.000
G1 X2.369 Y-3.312 F500.000
G1 X2.681 Y-3.112 F500.000
G1 X2.962 Y-2.869 F500.000
G1 X3.225 Y-2.600 F500.000
G1 X3.456 Y-2.306 F500.000
G1 X3.669 Y-1.994 F500.000
G1 X3.844 Y-1.663 F500.000
G1 X3.987 Y-1.312 F500.000
G1 X4.106 Y-0.956 F500.000
G1 X4.188 Y-0.588 F500.000
G1 X4.231 Y-0.212 F500.000
G1 X4.244 Y0.156 F500.000
G1 X4.237 Y0.525 F500.000
G1 X4.188 Y0.894 F500.000
G1 X4.112 Y1.256 F500.000
G1 X4.006 Y1.613 F500.000
G1 X3.869 Y1.962 F500.000
G1 X3.706 Y2.300 F500.000
G1 X3.513 Y2.619 F500.000
G1 X3.275 Y2.906 F500.000
G1 X3.019 Y3.181 F500.000
G1 X2.737 Y3.425 F500.000
G1 X2.112 Y3.844 F500.000
G1 X1.775 Y4.006 F500.000
G1 X1.425 Y4.144 F500.000
G1 X1.069 Y4.256 F500.000
G1 X0.700 Y4.338 F500.000
G1 X0.325 Y4.388 F500.000
G1 X-0.044 Y4.406 F500.000
G1 X-0.412 Y4.394 F500.000
G1 X-0.781 Y4.350 F500.000
G1 X-1.144 Y4.275 F500.000
G1 X-1.500 Y4.169 F500.000
G1 X-1.850 Y4.031 F500.000
G1 X-2.188 Y3.869 F500.000
G1 X-2.506 Y3.675 F500.000
G1 X-2.812 Y3.456 F500.000
G1 X-3.100 Y3.212 F500.000
G1 X-3.350 Y2.938 F500.000
G1 X-3.581 Y2.644 F500.000
G1 X-3.781 Y2.325 F500.000
G1 X-3.962 Y1.994 F500.000
G1 X-4.112 Y1.650 F500.000
G1 X-4.231 Y1.294 F500.000
G1 X-4.325 Y0.925 F500.000
G1 X-4.381 Y0.550 F500.000
G1 X-4.425 Y-0.194 F500.000
G1 X-4.400 Y-0.562 F500.000
G1 X-4.350 Y-0.931 F500.000
G1 X-4.256 Y-1.294 F500.000
G1 X-4.144 Y-1.650 F500.000
G1 X-4.000 Y-1.994 F500.000
G1 X-3.819 Y-2.319 F500.000
G1 X-3.394 Y-2.938 F500.000
G1 X-3.144 Y-3.219 F500.000
G1 X-2.875 Y-3.481 F500.000
G1 X-2.594 Y-3.725 F500.000
G1 X-2.288 Y-3.944 F500.000
G1 X-1.969 Y-4.144 F500.000
G1 X-1.637 Y-4.319 F500.000
G1 X-1.294 Y-4.469 F500.000
G1 X-0.938 Y-4.594 F500.000
G1 X-0.575 Y-4.688 F500.000
G1 X-0.206 Y-4.756 F500.000
G1 X0.163 Y-4.800 F500.000
G1 X0.531 Y-4.812 F500.000
G1 X0.900 Y-4.800 F500.000
G1 X1.269 Y-4.744 F500.000
G1 X1.631 Y-4.662 F500.000
G1 X1.988 Y-4.550 F500.000
G1 X2.331 Y-4.406 F500.000
G1 X2.663 Y-4.231 F500.000
G1 X3.281 Y-3.819 F500.000
G1 X3.569 Y-3.575 F500.000
G1 X3.837 Y-3.312 F500.000
G1 X4.094 Y-3.038 F500.000
G1 X4.325 Y-2.744 F500.000
G1 X4.519 Y-2.419 F500.000
G1 X4.694 Y-2.087 F500.000
G1 X4.969 Y-1.387 F500.000
G1 X5.069 Y-1.025 F500.000
G1 X5.138 Y-0.656 F500.000
G1 X5.181 Y-0.281 F500.000
G1 X5.200 Y0.087 F500.000
G1 X5.188 Y0.456 F500.000
G1 X5.100 Y1.194 F500.000
G1 X5.019 Y1.556 F500.000
G1 X4.912 Y1.913 F500.000
G1 X4.787 Y2.263 F500.000
G1 X4.638 Y2.606 F500.000
G1 X4.250 Y3.244 F500.000
G1 X4.006 Y3.531 F500.000
G1 X3.475 Y4.056 F500.000
G1 X3.175 Y4.281 F500.000
G1 X2.544 Y4.688 F500.000
G1 X2.206 Y4.850 F500.000
G1 X1.856 Y4.994 F500.000
G1 X1.500 Y5.119 F500.000
G1 X1.137 Y5.219 F500.000
G1 X0.769 Y5.294 F500.000
G1 X0.394 Y5.344 F500.000
G1 X0.019 Y5.369 F500.000
G1 X-0.350 Y5.369 F500.000
G1 X-0.719 Y5.344 F500.000
G1 X-1.087 Y5.294 F500.000
G1 X-1.450 Y5.206 F500.000
G1 X-1.806 Y5.100 F500.000
G1 X-2.156 Y4.963 F500.000
G1 X-2.494 Y4.800 F500.000
G1 X-3.138 Y4.412 F500.000
G1 X-3.438 Y4.188 F500.000
G1 X-3.719 Y3.944 F500.000
G1 X-3.987 Y3.681 F500.000
G1 X-4.237 Y3.400 F500.000
G1 X-4.650 Y2.775 F500.000
G1 X-4.825 Y2.444 F500.000
G1 X-4.969 Y2.094 F500.000
G1 X-5.200 Y1.375 F500.000
G1 X-5.275 Y1.006 F500.000
G1 X-5.325 Y0.631 F500.000
G1 X-5.356 Y0.256 F500.000
G1 X-5.362 Y-0.113 F500.000
G1 X-5.344 Y-0.481 F500.000
G1 X-5.300 Y-0.850 F500.000
G1 X-5.231 Y-1.219 F500.000
G1 X-5.144 Y-1.581 F500.000
G1 X-5.031 Y-1.938 F500.000
G1 X-4.894 Y-2.288 F500.000
G1 X-4.737 Y-2.625 F500.000
G1 X-4.556 Y-2.950 F500.000
G1 X-4.356 Y-3.269 F500.000
G1 X-4.138 Y-3.569 F500.000
G1 X-3.900 Y-3.856 F500.000
G1 X-3.644 Y-4.131 F500.000
G1 X-3.369 Y-4.388 F500.000
G1 X-3.075 Y-4.625 F500.000
G1 X-2.769 Y-4.844 F500.000
G1 X-2.100 Y-5.194 F500.000
G1 X-1.756 Y-5.350 F500.000
G1 X-1.400 Y-5.469 F500.000
G1 X-1.038 Y-5.569 F500.000
G1 X-0.300 Y-5.719 F500.000
G1 X0.438 Y-5.781 F500.000
G1 X0.806 Y-5.787 F500.000
G1 X1.544 Y-5.700 F500.000
G1 X1.906 Y-5.606 F500.000
G1 X2.263 Y-5.494 F500.000
G1 X2.606 Y-5.356 F500.000
G1 X3.269 Y-5.013 F500.000
G1 X3.581 Y-4.806 F500.000
G1 X3.881 Y-4.581 F500.000
G1 X4.169 Y-4.338 F500.000
G1 X4.700 Y-3.806 F500.000
G1 X4.944 Y-3.519 F500.000
G1 X5.169 Y-3.219 F500.000
G1 X5.544 Y-2.562 F500.000
G1 X5.700 Y-2.219 F500.000
G1 X5.825 Y-1.863 F500.000
G1 X6.031 Y-1.137 F500.000
G1 X6.100 Y-0.769 F500.000
G1 X6.150 Y-0.394 F500.000
G1 X6.181 Y-0.019 F500.000
G1 X6.188 Y0.350 F500.000
G1 X6.175 Y0.719 F500.000
G1 X6.144 Y1.087 F500.000
G1 X6.088 Y1.456 F500.000
G1 X6.013 Y1.819 F500.000
G1 X5.912 Y2.181 F500.000
G1 X5.625 Y2.869 F500.000
G1 X5.444 Y3.194 F500.000
G1 X5.237 Y3.506 F500.000
G1 X4.787 Y4.106 F500.000
G1 X4.531 Y4.381 F500.000
G1 X3.987 Y4.894 F500.000
G1 X3.388 Y5.344 F500.000
G1 X2.725 Y5.706 F500.000
G1 X2.381 Y5.856 F500.000
G1 X1.669 Y6.100 F500.000
G1 X1.300 Y6.188 F500.000
G1 X0.556 Y6.312 F500.000
G1 X0.181 Y6.344 F500.000
G1 X-0.188 Y6.356 F500.000
G1 X-0.556 Y6.350 F500.000
G1 X-0.925 Y6.319 F500.000
G1 X-1.294 Y6.269 F500.000
G1 X-2.013 Y6.081 F500.000
G1 X-2.706 Y5.819 F500.000
G1 X-3.044 Y5.656 F500.000
G1 X-3.369 Y5.475 F500.000
G1 X-3.975 Y5.037 F500.000
G1 X-4.256 Y4.794 F500.000
G1 X-4.519 Y4.525 F500.000
G1 X-5.013 Y3.956 F500.000
G1 X-5.438 Y3.331 F500.000
G1 X-5.625 Y3.006 F500.000
G1 X-5.794 Y2.669 F500.000
G1 X-5.944 Y2.325 F500.000
G1 X-6.075 Y1.975 F500.000
G1 X-6.250 Y1.244 F500.000
G1 X-6.306 Y0.869 F500.000
G1 X-6.331 Y0.494 F500.000
G1 X-6.338 Y-0.250 F500.000
G1 X-6.325 Y-0.619 F500.000
G1 X-6.287 Y-0.988 F500.000
G1 X-6.150 Y-1.719 F500.000
G1 X-6.050 Y-2.081 F500.000
G1 X-5.931 Y-2.438 F500.000
G1 X-5.794 Y-2.788 F500.000
G1 X-5.638 Y-3.125 F500.000
G1 X-5.463 Y-3.456 F500.000
G1 X-4.806 Y-4.362 F500.000
G1 X-4.556 Y-4.644 F500.000
G1 X-4.294 Y-4.912 F500.000
G1 X-3.712 Y-5.388 F500.000
G1 X-3.081 Y-5.800 F500.000
G1 X-2.750 Y-5.981 F500.000
G1 X-2.069 Y-6.294 F500.000
G1 X-1.712 Y-6.425 F500.000
G1 X-1.350 Y-6.537 F500.000
G1 X-0.988 Y-6.631 F500.000
G1 X-0.619 Y-6.706 F500.000
G1 X-0.244 Y-6.763 F500.000
G1 X0.125 Y-6.800 F500.000
G1 X0.494 Y-6.819 F500.000
G1 X1.231 Y-6.769 F500.000
G1 X1.600 Y-6.706 F500.000
G1 X1.962 Y-6.619 F500.000
G1 X2.675 Y-6.394 F500.000
G1 X3.019 Y-6.250 F500.000
G1 X3.688 Y-5.912 F500.000
G1 X4.312 Y-5.500 F500.000
G1 X4.888 Y-5.025 F500.000
G1 X5.156 Y-4.763 F500.000
G1 X5.412 Y-4.487 F500.000
G1 X5.875 Y-3.900 F500.000
G1 X6.275 Y-3.263 F500.000
G1 X6.450 Y-2.931 F500.000
G1 X6.606 Y-2.587 F500.000
G1 X6.744 Y-2.237 F500.000
G1 X6.862 Y-1.881 F500.000
G1 X6.963 Y-1.519 F500.000
G1 X7.044 Y-1.150 F500.000
G1 X7.106 Y-0.775 F500.000
G1 X7.144 Y-0.400 F500.000
G1 X7.181 Y0.344 F500.000
G1 X7.156 Y1.081 F500.000
G1 X7.125 Y1.450 F500.000
G1 X6.969 Y2.175 F500.000
G1 X6.862 Y2.531 F500.000
G1 X6.731 Y2.881 F500.000
G1 X6.581 Y3.225 F500.000
G1 X6.412 Y3.556 F500.000
G1 X6.225 Y3.881 F500.000
G1 X6.019 Y4.194 F500.000
G1 X5.794 Y4.494 F500.000
G1 X5.550 Y4.781 F500.000
G1 X5.031 Y5.319 F500.000
G1 X4.456 Y5.806 F500.000
G1 X4.156 Y6.031 F500.000
G1 X3.519 Y6.431 F500.000
G1 X2.844 Y6.769 F500.000
G1 X2.494 Y6.912 F500.000
G1 X2.138 Y7.037 F500.000
G1 X1.400 Y7.213 F500.000
G1 X0.650 Y7.325 F500.000
G1 X-0.094 Y7.362 F500.000
G1 X-0.463 Y7.362 F500.000
G1 X-0.831 Y7.344 F500.000
G1 X-1.200 Y7.306 F500.000
G1 X-1.931 Y7.156 F500.000
G1 X-2.644 Y6.938 F500.000
G1 X-2.994 Y6.806 F500.000
G1 X-3.337 Y6.656 F500.000
G1 X-3.981 Y6.281 F500.000
G1 X-4.287 Y6.069 F500.000
G1 X-4.862 Y5.581 F500.000
G1 X-5.138 Y5.325 F500.000
G1 X-5.394 Y5.050 F500.000
G1 X-5.869 Y4.469 F500.000
G1 X-6.281 Y3.844 F500.000
G1 X-6.469 Y3.519 F500.000
G1 X-6.638 Y3.181 F500.000
G1 X-6.925 Y2.487 F500.000
G1 X-7.044 Y2.131 F500.000
G1 X-7.144 Y1.769 F500.000
G1 X-7.225 Y1.400 F500.000
G1 X-7.338 Y0.656 F500.000
G1 X-7.369 Y0.281 F500.000
G1 X-7.381 Y-0.087 F500.000
G1 X-7.375 Y-0.456 F500.000
G1 X-7.350 Y-0.825 F500.000
G1 X-7.306 Y-1.194 F500.000
G1 X-7.244 Y-1.562 F500.000
G1 X-7.162 Y-1.925 F500.000
G1 X-7.062 Y-2.288 F500.000
G1 X-6.812 Y-2.994 F500.000
G1 X-6.662 Y-3.337 F500.000
G1 X-6.312 Y-3.994 F500.000
G1 X-5.900 Y-4.619 F500.000
G1 X-5.425 Y-5.200 F500.000
G1 X-5.169 Y-5.475 F500.000
G1 X-4.900 Y-5.737 F500.000
G1 X-4.325 Y-6.213 F500.000
G1 X-4.019 Y-6.431 F500.000
G1 X-3.375 Y-6.819 F500.000
G1 X-2.694 Y-7.144 F500.000
G1 X-2.344 Y-7.281 F500.000
G1 X-1.631 Y-7.519 F500.000
G1 X-0.531 Y-7.769 F500.000
G1 X0.212 Y-7.825 F500.000
G1 X0.581 Y-7.831 F500.000
G1 X1.319 Y-7.769 F500.000
G1 X1.688 Y-7.713 F500.000
G1 X2.050 Y-7.631 F500.000
G1 X2.413 Y-7.531 F500.000
G1 X3.125 Y-7.294 F500.000
G1 X3.806 Y-6.994 F500.000
G1 X4.450 Y-6.619 F500.000
G1 X4.763 Y-6.412 F500.000
G1 X5.350 Y-5.950 F500.000
G1 X5.900 Y-5.438 F500.000
G1 X6.156 Y-5.162 F500.000
G1 X6.638 Y-4.581 F500.000
G1 X6.856 Y-4.275 F500.000
G1 X7.237 Y-3.625 F500.000
G1 X7.406 Y-3.288 F500.000
G1 X7.812 Y-2.225 F500.000
G1 X8.012 Y-1.494 F500.000
G1 X8.094 Y-1.125 F500.000
G1 X8.156 Y-0.750 F500.000
G1 X8.213 Y0.000 F500.000
G1 X8.206 Y0.738 F500.000
G1 X8.181 Y1.106 F500.000
G1 X8.081 Y1.844 F500.000
G1 X7.919 Y2.569 F500.000
G1 X7.819 Y2.925 F500.000
G1 X7.537 Y3.612 F500.000
G1 X7.188 Y4.275 F500.000
G1 X6.994 Y4.594 F500.000
G1 X6.556 Y5.200 F500.000
G1 X6.319 Y5.487 F500.000
G1 X6.069 Y5.763 F500.000
G1 X5.806 Y6.025 F500.000
G1 X5.237 Y6.513 F500.000
G1 X4.625 Y6.950 F500.000
G1 X3.644 Y7.506 F500.000
G1 X2.962 Y7.819 F500.000
G1 X2.244 Y8.056 F500.000
G1 X1.881 Y8.150 F500.000
G1 X1.512 Y8.225 F500.000
G1 X0.762 Y8.338 F500.000
G1 X0.013 Y8.387 F500.000
G1 X-0.356 Y8.394 F500.000
G1 X-1.094 Y8.356 F500.000
G1 X-1.462 Y8.319 F500.000
G1 X-2.194 Y8.169 F500.000
G1 X-2.556 Y8.069 F500.000
G1 X-3.256 Y7.812 F500.000
G1 X-3.925 Y7.487 F500.000
G1 X-4.250 Y7.300 F500.000
G1 X-4.869 Y6.875 F500.000
G1 X-5.450 Y6.406 F500.000
G1 X-5.987 Y5.888 F500.000
G1 X-6.244 Y5.612 F500.000
G1 X-6.719 Y5.031 F500.000
G1 X-7.144 Y4.412 F500.000
G1 X-7.519 Y3.763 F500.000
G1 X-7.812 Y3.069 F500.000
G1 X-7.938 Y2.712 F500.000
G1 X-8.137 Y1.988 F500.000
G1 X-8.287 Y1.250 F500.000
G1 X-8.387 Y0.500 F500.000
G1 X-8.406 Y-0.244 F500.000
G1 X-8.394 Y-0.613 F500.000
G1 X-8.363 Y-0.981 F500.000
G1 X-8.312 Y-1.350 F500.000
G1 X-8.244 Y-1.719 F500.000
G1 X-8.075 Y-2.444 F500.000
G1 X-7.850 Y-3.156 F500.000
G1 X-7.725 Y-3.506 F500.000
G1 X-7.406 Y-4.181 F500.000
G1 X-7.225 Y-4.506 F500.000
G1 X-6.812 Y-5.138 F500.000
G1 X-6.350 Y-5.725 F500.000
G1 X-6.100 Y-6.000 F500.000
G1 X-5.838 Y-6.263 F500.000
G1 X-5.562 Y-6.513 F500.000
G1 X-4.987 Y-6.987 F500.000
G1 X-4.369 Y-7.419 F500.000
G1 X-3.725 Y-7.806 F500.000
G1 X-3.044 Y-8.125 F500.000
G1 X-2.694 Y-8.262 F500.000
G1 X-1.613 Y-8.588 F500.000
G1 X-0.875 Y-8.750 F500.000
G1 X-0.125 Y-8.844 F500.000
G1 X0.613 Y-8.856 F500.000
G1 X0.981 Y-8.838 F500.000
G1 X1.350 Y-8.794 F500.000
G1 X2.087 Y-8.669 F500.000
G1 X2.806 Y-8.481 F500.000
G1 X3.163 Y-8.369 F500.000
G1 X3.856 Y-8.094 F500.000
G1 X4.525 Y-7.769 F500.000
G1 X5.169 Y-7.381 F500.000
G1 X5.775 Y-6.944 F500.000
G1 X6.350 Y-6.456 F500.000
G1 X6.881 Y-5.931 F500.000
G1 X7.369 Y-5.362 F500.000
G1 X7.806 Y-4.756 F500.000
G1 X8.162 Y-4.100 F500.000
G1 X8.481 Y-3.413 F500.000
G1 X8.863 Y-2.350 F500.000
G1 X9.050 Y-1.619 F500.000
G1 X9.188 Y-0.875 F500.000
G1 X9.244 Y-0.125 F500.000
G1 X9.250 Y0.613 F500.000
G1 X9.200 Y1.350 F500.000
G1 X9.100 Y2.087 F500.000
G1 X8.950 Y2.819 F500.000
G1 X8.706 Y3.525 F500.000
G1 X8.406 Y4.206 F500.000
G1 X8.238 Y4.537 F500.000
G1 X7.856 Y5.181 F500.000
G1 X7.419 Y5.787 F500.000
G1 X6.931 Y6.362 F500.000
G1 X6.400 Y6.894 F500.000
G1 X5.825 Y7.381 F500.000
G1 X5.213 Y7.819 F500.000
G1 X4.569 Y8.206 F500.000
G1 X4.231 Y8.381 F500.000
G1 X3.538 Y8.681 F500.000
G1 X2.825 Y8.944 F500.000
G1 X1.738 Y9.250 F500.000
G1 X0.988 Y9.363 F500.000
G1 X0.613 Y9.400 F500.000
G1 X-0.500 Y9.431 F500.000
G1 X-1.238 Y9.400 F500.000
G1 X-1.975 Y9.294 F500.000
G1 X-2.337 Y9.219 F500.000
G1 X-3.056 Y9.006 F500.000
G1 X-3.406 Y8.881 F500.000
G1 X-4.088 Y8.581 F500.000
G1 X-4.737 Y8.219 F500.000
G1 X-5.362 Y7.806 F500.000
G1 X-5.956 Y7.344 F500.000
G1 X-6.244 Y7.100 F500.000
G1 X-6.781 Y6.581 F500.000
G1 X-7.281 Y6.025 F500.000
G1 X-7.744 Y5.431 F500.000
G1 X-8.156 Y4.806 F500.000
G1 X-8.494 Y4.131 F500.000
G1 X-8.781 Y3.431 F500.000
G1 X-9.006 Y2.712 F500.000
G1 X-9.262 Y1.613 F500.000
G1 X-9.419 Y0.487 F500.000
G1 X-9.444 Y-0.256 F500.000
G1 X-9.438 Y-0.625 F500.000
G1 X-9.375 Y-1.363 F500.000
G1 X-9.250 Y-2.100 F500.000
G1 X-9.169 Y-2.462 F500.000
G1 X-8.956 Y-3.175 F500.000
G1 X-8.681 Y-3.869 F500.000
G1 X-8.369 Y-4.544 F500.000
G1 X-8.006 Y-5.200 F500.000
G1 X-7.606 Y-5.831 F500.000
G1 X-7.138 Y-6.419 F500.000
G1 X-6.888 Y-6.694 F500.000
G1 X-6.344 Y-7.213 F500.000
G1 X-5.769 Y-7.688 F500.000
G1 X-5.162 Y-8.125 F500.000
G1 X-4.525 Y-8.525 F500.000
G1 X-3.862 Y-8.881 F500.000
G1 X-3.181 Y-9.194 F500.000
G1 X-2.475 Y-9.456 F500.000
G1 X-2.119 Y-9.569 F500.000
G1 X-1.381 Y-9.725 F500.000
G1 X-0.631 Y-9.844 F500.000
G1 X0.113 Y-9.912 F500.000
G1 X0.850 Y-9.900 F500.000
G1 X1.219 Y-9.869 F500.000
G1 X2.325 Y-9.688 F500.000
G1 X3.044 Y-9.494 F500.000
G1 X3.400 Y-9.381 F500.000
G1 X4.094 Y-9.113 F500.000
G1 X4.775 Y-8.800 F500.000
G1 X5.431 Y-8.438 F500.000
G1 X6.050 Y-8.025 F500.000
G1 X6.644 Y-7.562 F500.000
G1 X7.200 Y-7.062 F500.000
G1 X7.719 Y-6.519 F500.000
G1 X8.194 Y-5.938 F500.000
G1 X8.631 Y-5.325 F500.000
G1 X9.019 Y-4.681 F500.000
G1 X9.356 Y-4.013 F500.000
G1 X9.644 Y-3.319 F500.000
G1 X9.881 Y-2.606 F500.000
G1 X10.069 Y-1.875 F500.000
G1 X10.206 Y-1.131 F500.000
G1 X10.256 Y-0.756 F500.000
G1 X10.306 Y-0.006 F500.000
G1 X10.306 Y0.731 F500.000
G1 X10.287 Y1.100 F500.000
G1 X10.200 Y1.837 F500.000
G1 X10.062 Y2.569 F500.000
G1 X9.875 Y3.288 F500.000
G1 X9.762 Y3.644 F500.000
G1 X9.488 Y4.338 F500.000
G1 X9.162 Y5.013 F500.000
G1 X8.794 Y5.662 F500.000
G1 X8.381 Y6.281 F500.000
G1 X8.156 Y6.581 F500.000
G1 X7.650 Y7.138 F500.000
G1 X7.112 Y7.662 F500.000
G1 X6.231 Y8.375 F500.000
G1 X5.612 Y8.794 F500.000
G1 X4.969 Y9.169 F500.000
G1 X4.300 Y9.506 F500.000
G1 X3.606 Y9.794 F500.000
G1 X2.894 Y10.031 F500.000
G1 X2.163 Y10.231 F500.000
G1 X1.425 Y10.381 F500.000
G1 X-0.069 Y10.506 F500.000
G1 X-0.438 Y10.519 F500.000
G1 X-1.175 Y10.488 F500.000
G1 X-1.544 Y10.456 F500.000
G1 X-1.913 Y10.406 F500.000
G1 X-3.000 Y10.144 F500.000
G1 X-4.056 Y9.775 F500.000
G1 X-4.725 Y9.444 F500.000
G1 X-5.050 Y9.262 F500.000
G1 X-5.688 Y8.869 F500.000
G1 X-6.588 Y8.194 F500.000
G1 X-7.144 Y7.700 F500.000
G1 X-7.669 Y7.169 F500.000
G1 X-8.162 Y6.600 F500.000
G1 X-8.619 Y6.006 F500.000
G1 X-9.031 Y5.375 F500.000
G1 X-9.375 Y4.706 F500.000
G1 X-9.669 Y4.019 F500.000
G1 X-9.919 Y3.306 F500.000
G1 X-10.119 Y2.575 F500.000
G1 X-10.281 Y1.837 F500.000
G1 X-10.450 Y0.713 F500.000
G1 X-10.488 Y-0.031 F500.000
G1 X-10.488 Y-0.400 F500.000
G1 X-10.444 Y-1.137 F500.000
G1 X-10.344 Y-1.875 F500.000
G1 X-10.194 Y-2.606 F500.000
G1 X-9.981 Y-3.325 F500.000
G1 X-9.581 Y-4.375 F500.000
G1 X-9.094 Y-5.381 F500.000
G1 X-8.725 Y-6.031 F500.000
G1 X-8.294 Y-6.644 F500.000
G1 X-7.819 Y-7.219 F500.000
G1 X-7.562 Y-7.494 F500.000
G1 X-7.019 Y-8.006 F500.000
G1 X-6.138 Y-8.713 F500.000
G1 X-5.200 Y-9.331 F500.000
G1 X-4.544 Y-9.694 F500.000
G1 X-3.519 Y-10.169 F500.000
G1 X-2.456 Y-10.550 F500.000
G1 X-1.731 Y-10.750 F500.000
G1 X-0.988 Y-10.881 F500.000
G1 X-0.613 Y-10.925 F500.000
G1 X0.131 Y-10.963 F500.000
G1 X0.500 Y-10.963 F500.000
G1 X1.238 Y-10.912 F500.000
G1 X2.344 Y-10.744 F500.000
G1 X3.069 Y-10.575 F500.000
G1 X3.781 Y-10.356 F500.000
G1 X4.131 Y-10.231 F500.000
G1 X4.819 Y-9.938 F500.000
G1 X5.487 Y-9.600 F500.000
G1 X6.450 Y-9.012 F500.000
G1 X7.056 Y-8.581 F500.000
G1 X7.625 Y-8.094 F500.000
G1 X8.169 Y-7.575 F500.000
G1 X8.675 Y-7.019 F500.000
G1 X9.150 Y-6.438 F500.000
G1 X9.375 Y-6.138 F500.000
G1 X9.769 Y-5.500 F500.000
G1 X9.950 Y-5.169 F500.000
G1 X10.281 Y-4.494 F500.000
G1 X10.694 Y-3.438 F500.000
G1 X10.912 Y-2.719 F500.000
G1 X11.162 Y-1.619 F500.000
G1 X11.275 Y-0.869 F500.000
G1 X11.356 Y0.250 F500.000
G1 X11.356 Y0.988 F500.000
G1 X11.306 Y1.725 F500.000
G1 X11.262 Y2.094 F500.000
G1 X11.113 Y2.819 F500.000
G1 X11.019 Y3.181 F500.000
G1 X10.794 Y3.894 F500.000
G1 X10.369 Y4.931 F500.000
G1 X10.025 Y5.594 F500.000
G1 X9.444 Y6.556 F500.000
G1 X9.012 Y7.169 F500.000
G1 X8.525 Y7.737 F500.000
G1 X8.269 Y8.012 F500.000
G1 X7.725 Y8.525 F500.000
G1 X7.138 Y9.000 F500.000
G1 X6.525 Y9.438 F500.000
G1 X5.562 Y10.031 F500.000
G1 X4.556 Y10.544 F500.000
G1 X3.862 Y10.838 F500.000
G1 X3.144 Y11.062 F500.000
G1 X2.413 Y11.250 F500.000
G1 X1.294 Y11.444 F500.000
G1 X0.169 Y11.544 F500.000
G1 X-0.569 Y11.556 F500.000
G1 X-1.675 Y11.488 F500.000
G1 X-2.413 Y11.387 F500.000
G1 X-3.138 Y11.206 F500.000
G1 X-3.494 Y11.100 F500.000
G1 X-4.537 Y10.700 F500.000
G1 X-5.544 Y10.213 F500.000
G1 X-6.500 Y9.631 F500.000
G1 X-7.094 Y9.175 F500.000
G1 X-7.662 Y8.681 F500.000
G1 X-8.194 Y8.156 F500.000
G1 X-8.694 Y7.600 F500.000
G1 X-9.162 Y7.006 F500.000
G1 X-9.588 Y6.388 F500.000
G1 X-9.975 Y5.744 F500.000
G1 X-10.325 Y5.075 F500.000
G1 X-10.625 Y4.388 F500.000
G1 X-10.887 Y3.681 F500.000
G1 X-11.100 Y2.956 F500.000
G1 X-11.275 Y2.219 F500.000
G1 X-11.400 Y1.475 F500.000
G1 X-11.475 Y0.725 F500.000
G1 X-11.519 Y-0.019 F500.000
G1 X-11.525 Y-0.756 F500.000
G1 X-11.469 Y-1.494 F500.000
G1 X-11.425 Y-1.863 F500.000
G1 X-11.287 Y-2.594 F500.000
G1 X-11.100 Y-3.312 F500.000
G1 X-10.988 Y-3.669 F500.000
G1 X-10.731 Y-4.369 F500.000
G1 X-10.281 Y-5.394 F500.000
G1 X-9.756 Y-6.381 F500.000
G1 X-9.562 Y-6.700 F500.000
G1 X-9.119 Y-7.300 F500.000
G1 X-8.637 Y-7.875 F500.000
G1 X-8.119 Y-8.419 F500.000
G1 X-7.850 Y-8.681 F500.000
G1 X-7.281 Y-9.169 F500.000
G1 X-6.681 Y-9.619 F500.000
G1 X-5.731 Y-10.238 F500.000
G1 X-4.744 Y-10.787 F500.000
G1 X-4.069 Y-11.119 F500.000
G1 X-3.369 Y-11.394 F500.000
G1 X-2.650 Y-11.619 F500.000
G1 X-1.919 Y-11.794 F500.000
G1 X-1.175 Y-11.919 F500.000
G1 X-0.425 Y-11.994 F500.000
G1 X0.319 Y-12.019 F500.000
G1 X1.056 Y-11.994 F500.000
G1 X1.794 Y-11.906 F500.000
G1 X2.531 Y-11.787 F500.000
G1 X3.256 Y-11.631 F500.000
G1 X3.969 Y-11.412 F500.000
G1 X4.319 Y-11.287 F500.000
G1 X5.006 Y-10.994 F500.000
G1 X5.681 Y-10.669 F500.000
G1 X6.656 Y-10.106 F500.000
G1 X7.281 Y-9.700 F500.000
G1 X8.181 Y-9.025 F500.000
G1 X8.731 Y-8.512 F500.000
G1 X8.994 Y-8.244 F500.000
G1 X9.731 Y-7.388 F500.000
G1 X10.387 Y-6.469 F500.000
G1 X10.969 Y-5.500 F500.000
G1 X11.144 Y-5.169 F500.000
G1 X11.438 Y-4.475 F500.000
G1 X11.569 Y-4.119 F500.000
G1 X11.800 Y-3.400 F500.000
G1 X12.162 Y-1.931 F500.000
G1 X12.306 Y-1.194 F500.000
G1 X12.406 Y-0.069 F500.000
G1 X12.412 Y1.038 F500.000
G1 X12.338 Y2.144 F500.000
G1 X12.200 Y2.881 F500.000
G1 X12.119 Y3.244 F500.000
G1 X11.900 Y3.956 F500.000
G1 X11.637 Y4.656 F500.000
G1 X11.175 Y5.675 F500.000
G1 X10.819 Y6.331 F500.000
G1 X10.438 Y6.975 F500.000
G1 X10.231 Y7.287 F500.000
G1 X9.787 Y7.888 F500.000
G1 X9.306 Y8.463 F500.000
G1 X8.794 Y9.006 F500.000
G1 X7.925 Y9.731 F500.000
G1 X7.013 Y10.394 F500.000
G1 X6.056 Y10.994 F500.000
G1 X5.381 Y11.331 F500.000
G1 X4.694 Y11.631 F500.000
G1 X3.631 Y12.025 F500.000
G1 X3.269 Y12.137 F500.000
G1 X2.531 Y12.306 F500.000
G1 X1.794 Y12.444 F500.000
G1 X0.669 Y12.575 F500.000
G1 X-0.444 Y12.619 F500.000
G1 X-1.181 Y12.600 F500.000
G1 X-1.919 Y12.544 F500.000
G1 X-2.288 Y12.500 F500.000
G1 X-3.013 Y12.350 F500.000
G1 X-3.375 Y12.256 F500.000
G1 X-4.438 Y11.894 F500.000
G1 X-5.469 Y11.450 F500.000
G1 X-6.463 Y10.925 F500.000
G1 X-7.088 Y10.506 F500.000
G1 X-7.969 Y9.812 F500.000
G1 X-8.787 Y9.044 F500.000
G1 X-9.294 Y8.488 F500.000
G1 X-9.769 Y7.906 F500.000
G1 X-10.431 Y6.994 F500.000
G1 X-10.838 Y6.362 F500.000
G1 X-11.188 Y5.700 F500.000
G1 X-11.350 Y5.362 F500.000
G1 X-11.631 Y4.662 F500.000
G1 X-11.887 Y3.956 F500.000
G1 X-12.213 Y2.875 F500.000
G1 X-12.306 Y2.513 F500.000
G1 X-12.438 Y1.769 F500.000
G1 X-12.537 Y1.019 F500.000
G1 X-12.613 Y-0.100 F500.000
G1 X-12.619 Y-0.838 F500.000
G1 X-12.550 Y-1.575 F500.000
G1 X-12.500 Y-1.944 F500.000
G1 X-12.350 Y-2.675 F500.000
G1 X-12.162 Y-3.400 F500.000
G1 X-11.806 Y-4.463 F500.000
G1 X-11.225 Y-5.844 F500.000
G1 X-10.894 Y-6.519 F500.000
G1 X-10.706 Y-6.844 F500.000
G1 X-10.287 Y-7.469 F500.000
G1 X-9.838 Y-8.069 F500.000
G1 X-9.344 Y-8.637 F500.000
G1 X-8.831 Y-9.188 F500.000
G1 X-8.294 Y-9.706 F500.000
G1 X-7.706 Y-10.175 F500.000
G1 X-7.100 Y-10.619 F500.000
G1 X-6.150 Y-11.219 F500.000
G1 X-5.494 Y-11.588 F500.000
G1 X-4.487 Y-12.094 F500.000
G1 X-3.425 Y-12.494 F500.000
G1 X-2.694 Y-12.694 F500.000
G1 X-1.956 Y-12.850 F500.000
G1 X-0.831 Y-13.000 F500.000
G1 X-0.081 Y-13.050 F500.000
G1 X0.656 Y-13.056 F500.000
G1 X1.762 Y-12.988 F500.000
G1 X2.869 Y-12.825 F500.000
G1 X3.594 Y-12.662 F500.000
G1 X4.300 Y-12.425 F500.000
G1 X5.000 Y-12.162 F500.000
G1 X5.688 Y-11.869 F500.000
G1 X6.675 Y-11.344 F500.000
G1 X7.625 Y-10.744 F500.000
G1 X8.537 Y-10.088 F500.000
G1 X9.119 Y-9.619 F500.000
G1 X9.650 Y-9.088 F500.000
G1 X10.156 Y-8.531 F500.000
G1 X10.850 Y-7.650 F500.000
G1 X11.469 Y-6.713 F500.000
G1 X11.838 Y-6.056 F500.000
G1 X12.169 Y-5.375 F500.000
G1 X12.456 Y-4.681 F500.000
G1 X12.706 Y-3.969 F500.000
G1 X13.025 Y-2.881 F500.000
G1 X13.206 Y-2.144 F500.000
G1 X13.381 Y-1.025 F500.000
G1 X13.444 Y-0.275 F500.000
G1 X13.475 Y0.463 F500.000
G1 X13.463 Y1.569 F500.000
G1 X13.444 Y1.938 F500.000
G1 X13.281 Y3.044 F500.000
G1 X13.106 Y3.769 F500.000
G1 X12.881 Y4.475 F500.000
G1 X12.606 Y5.169 F500.000
G1 X12.294 Y5.844 F500.000
G1 X11.781 Y6.844 F500.000
G1 X11.600 Y7.169 F500.000
G1 X11.188 Y7.794 F500.000
G1 X10.738 Y8.394 F500.000
G1 X10.256 Y8.969 F500.000
G1 X9.475 Y9.781 F500.000
G1 X8.637 Y10.531 F500.000
G1 X7.744 Y11.225 F500.000
G1 X7.106 Y11.625 F500.000
G1 X6.781 Y11.812 F500.000
G1 X6.100 Y12.144 F500.000
G1 X5.769 Y12.325 F500.000
G1 X5.081 Y12.637 F500.000
G1 X4.025 Y13.031 F500.000
G1 X3.306 Y13.250 F500.000
G1 X2.569 Y13.406 F500.000
G1 X1.819 Y13.525 F500.000
G1 X0.319 Y13.662 F500.000
G1 X-0.419 Y13.700 F500.000
G1 X-1.525 Y13.681 F500.000
G1 X-2.631 Y13.519 F500.000
G1 X-3.719 Y13.256 F500.000
G1 X-4.781 Y12.906 F500.000
G1 X-5.819 Y12.475 F500.000
G1 X-6.487 Y12.144 F500.000
G1 X-7.125 Y11.756 F500.000
G1 X-7.737 Y11.331 F500.000
G1 X-8.619 Y10.637 F500.000
G1 X-8.906 Y10.394 F500.000
G1 X-9.456 Y9.881 F500.000
G1 X-9.975 Y9.338 F500.000
G1 X-10.463 Y8.769 F500.000
G1 X-11.137 Y7.869 F500.000
G1 X-11.544 Y7.237 F500.000
G1 X-12.088 Y6.244 F500.000
G1 X-12.406 Y5.562 F500.000
G1 X-12.688 Y4.862 F500.000
G1 X-13.062 Y3.800 F500.000
G1 X-13.175 Y3.438 F500.000
G1 X-13.425 Y2.331 F500.000
G1 X-13.588 Y1.206 F500.000
G1 X-13.675 Y0.081 F500.000
G1 X-13.688 Y-0.287 F500.000
G1 X-13.675 Y-1.025 F500.000
G1 X-13.569 Y-2.131 F500.000
G1 X-13.512 Y-2.500 F500.000
G1 X-13.331 Y-3.225 F500.000
G1 X-13.012 Y-4.294 F500.000
G1 X-12.894 Y-4.650 F500.000
G1 X-12.619 Y-5.350 F500.000
G1 X-12.169 Y-6.375 F500.000
G1 X-12.006 Y-6.713 F500.000
G1 X-11.438 Y-7.681 F500.000
G1 X-10.781 Y-8.594 F500.000
G1 X-10.300 Y-9.162 F500.000
G1 X-9.794 Y-9.719 F500.000
G1 X-9.269 Y-10.250 F500.000
G1 X-8.706 Y-10.744 F500.000
G1 X-8.113 Y-11.206 F500.000
G1 X-7.494 Y-11.631 F500.000
G1 X-6.537 Y-12.231 F500.000
G1 X-5.888 Y-12.606 F500.000
G1 X-5.556 Y-12.781 F500.000
G1 X-4.869 Y-13.094 F500.000
G1 X-3.806 Y-13.494 F500.000
G1 X-3.081 Y-13.706 F500.000
G1 X-1.975 Y-13.938 F500.000
G1 X-1.225 Y-14.037 F500.000
G1 X-0.475 Y-14.094 F500.000
G1 X0.637 Y-14.119 F500.000
G1 X1.375 Y-14.100 F500.000
G1 X2.112 Y-14.044 F500.000
G1 X2.850 Y-13.938 F500.000
G1 X3.581 Y-13.787 F500.000
G1 X4.650 Y-13.456 F500.000
G1 X5.350 Y-13.200 F500.000
G1 X6.031 Y-12.894 F500.000
G1 X6.700 Y-12.544 F500.000
G1 X7.669 Y-11.981 F500.000
G1 X8.300 Y-11.581 F500.000
G1 X9.213 Y-10.938 F500.000
G1 X9.781 Y-10.450 F500.000
G1 X10.056 Y-10.194 F500.000
G1 X10.575 Y-9.650 F500.000
G1 X11.300 Y-8.794 F500.000
G1 X11.981 Y-7.894 F500.000
G1 X12.194 Y-7.588 F500.000
G1 X12.575 Y-6.938 F500.000
G1 X12.912 Y-6.269 F500.000
G1 X13.225 Y-5.581 F500.000
G1 X13.631 Y-4.525 F500.000
G1 X13.969 Y-3.444 F500.000
G1 X14.231 Y-2.344 F500.000
G1 X14.425 Y-1.225 F500.000
G1 X14.544 Y-0.100 F500.000
G1 X14.588 Y1.006 F500.000
G1 X14.550 Y1.744 F500.000
G1 X14.463 Y2.481 F500.000
G1 X14.325 Y3.212 F500.000
G1 X14.156 Y3.938 F500.000
G1 X13.950 Y4.650 F500.000
G1 X13.537 Y5.694 F500.000
G1 X13.225 Y6.375 F500.000
G1 X12.706 Y7.369 F500.000
G1 X12.125 Y8.331 F500.000
G1 X11.675 Y8.931 F500.000
G1 X10.944 Y9.781 F500.000
G1 X10.200 Y10.506 F500.000
G1 X9.944 Y10.775 F500.000
G1 X9.394 Y11.287 F500.000
G1 X8.519 Y11.994 F500.000
G1 X8.213 Y12.213 F500.000
G1 X7.562 Y12.588 F500.000
G1 X7.244 Y12.787 F500.000
G1 X6.581 Y13.150 F500.000
G1 X5.550 Y13.606 F500.000
G1 X4.131 Y14.100 F500.000
G1 X3.406 Y14.306 F500.000
G1 X2.669 Y14.463 F500.000
G1 X1.169 Y14.681 F500.000
G1 X0.419 Y14.756 F500.000
G1 X-0.694 Y14.781 F500.000
G1 X-1.431 Y14.762 F500.000
G1 X-1.800 Y14.738 F500.000
G1 X-2.538 Y14.625 F500.000
G1 X-3.269 Y14.488 F500.000
G1 X-4.350 Y14.206 F500.000
G1 X-5.056 Y13.975 F500.000
G1 X-5.750 Y13.706 F500.000
G1 X-6.769 Y13.238 F500.000
G1 X-7.412 Y12.856 F500.000
G1 X-8.037 Y12.444 F500.000
G1 X-8.938 Y11.769 F500.000
G1 X-9.506 Y11.275 F500.000
G1 X-10.119 Y10.681 F500.000
G1 X-10.637 Y10.081 F500.000
G1 X-11.162 Y9.550 F500.000
G1 X-11.856 Y8.669 F500.000
G1 X-12.269 Y8.037 F500.000
G1 X-12.656 Y7.394 F500.000
G1 X-13.181 Y6.394 F500.000
G1 X-13.500 Y5.706 F500.000
G1 X-13.912 Y4.650 F500.000
G1 X-14.150 Y3.938 F500.000
G1 X-14.256 Y3.575 F500.000
G1 X-14.419 Y2.837 F500.000
G1 X-14.594 Y1.719 F500.000
G1 X-14.675 Y0.969 F500.000
G1 X-14.744 Y-0.150 F500.000
G1 X-14.756 Y-0.887 F500.000
G1 X-14.688 Y-1.994 F500.000
G1 X-14.569 Y-2.731 F500.000
G1 X-14.494 Y-3.094 F500.000
G1 X-14.294 Y-3.812 F500.000
G1 X-13.956 Y-4.881 F500.000
G1 X-13.556 Y-5.925 F500.000
G1 X-13.088 Y-6.944 F500.000
G1 X-12.562 Y-7.931 F500.000
G1 X-12.369 Y-8.250 F500.000
G1 X-11.931 Y-8.863 F500.000
G1 X-11.469 Y-9.450 F500.000
G1 X-11.225 Y-9.738 F500.000
G1 X-8.781 Y-12.000 F500.000
G1 X-8.194 Y-12.463 F500.000
G1 X-7.250 Y-13.075 F500.000
G1 X-6.263 Y-13.619 F500.000
G1 X-5.581 Y-13.938 F500.000
G1 X-4.188 Y-14.519 F500.000
G1 X-3.094 Y-14.819 F500.000
G1 X-2.356 Y-14.981 F500.000
G1 X-1.606 Y-15.100 F500.000
G1 X-0.856 Y-15.181 F500.000
G1 X-0.106 Y-15.225 F500.000
G1 X0.631 Y-15.231 F500.000
G1 X1.369 Y-15.200 F500.000
G1 X2.106 Y-15.131 F500.000
G1 X2.844 Y-15.025 F500.000
G1 X3.575 Y-14.881 F500.000
G1 X4.300 Y-14.700 F500.000
G1 X5.013 Y-14.481 F500.000
G1 X5.713 Y-14.225 F500.000
G1 X6.400 Y-13.931 F500.000
G1 X7.400 Y-13.425 F500.000
G1 X8.675 Y-12.650 F500.000
G1 X9.294 Y-12.231 F500.000
G1 X10.637 Y-11.037 F500.000
G1 X11.731 Y-9.875 F500.000
G1 X12.812 Y-8.488 F500.000
G1 X13.031 Y-8.181 F500.000
G1 X13.431 Y-7.544 F500.000
G1 X13.794 Y-6.881 F500.000
G1 X14.119 Y-6.200 F500.000
G1 X14.669 Y-4.800 F500.000
G1 X14.794 Y-4.444 F500.000
G1 X15.100 Y-3.356 F500.000
G1 X15.269 Y-2.619 F500.000
G1 X15.512 Y-1.125 F500.000
G1 X15.637 Y0.000 F500.000
G1 X15.662 Y1.106 F500.000
G1 X15.631 Y1.844 F500.000
G1 X15.506 Y2.950 F500.000
G1 X15.375 Y3.681 F500.000
G1 X15.169 Y4.394 F500.000
G1 X14.931 Y5.106 F500.000
G1 X14.350 Y6.487 F500.000
G1 X13.681 Y7.825 F500.000
G1 X13.312 Y8.475 F500.000
G1 X12.900 Y9.100 F500.000
G1 X12.262 Y9.863 F500.000
G1 X11.794 Y10.238 F500.000
G1 X11.537 Y10.400 F500.000
G1 X11.069 Y10.775 F500.000
G1 X10.594 Y11.275 F500.000
G1 X9.900 Y12.113 F500.000
G1 X8.938 Y12.844 F500.000
G1 X8.656 Y13.088 F500.000
G1 X7.725 Y13.719 F500.000
G1 X7.056 Y14.075 F500.000
G1 X6.381 Y14.400 F500.000
G1 X5.325 Y14.812 F500.000
G1 X4.250 Y15.169 F500.000
G1 X3.888 Y15.275 F500.000
G1 X2.413 Y15.594 F500.000
G1 X1.288 Y15.762 F500.000
G1 X0.537 Y15.844 F500.000
G1 X-0.944 Y15.869 F500.000
G1 X-2.050 Y15.812 F500.000
G1 X-2.788 Y15.706 F500.000
G1 X-3.881 Y15.469 F500.000
G1 X-4.950 Y15.156 F500.000
G1 X-6.000 Y14.787 F500.000
G1 X-6.350 Y14.650 F500.000
G1 X-7.356 Y14.162 F500.000
G1 X-8.006 Y13.787 F500.000
G1 X-8.625 Y13.375 F500.000
G1 X-9.894 Y12.269 F500.000
G1 X-10.256 Y11.769 F500.000
G1 X-10.419 Y11.512 F500.000
G1 X-10.869 Y10.975 F500.000
G1 X-11.300 Y10.562 F500.000
G1 X-12.062 Y9.931 F500.000
G1 X-12.938 Y8.856 F500.000
G1 X-13.381 Y8.250 F500.000
G1 X-13.588 Y7.938 F500.000
G1 X-13.950 Y7.287 F500.000
G1 X-14.119 Y6.950 F500.000
G1 X-14.713 Y5.569 F500.000
G1 X-14.850 Y5.219 F500.000
G1 X-15.206 Y4.144 F500.000
G1 X-15.400 Y3.419 F500.000
G1 X-15.625 Y2.312 F500.000
G1 X-15.731 Y1.562 F500.000
G1 X-15.800 Y0.812 F500.000
G1 X-15.838 Y-0.306 F500.000
G1 X-15.819 Y-1.044 F500.000
G1 X-15.762 Y-1.781 F500.000
G1 X-15.669 Y-2.519 F500.000
G1 X-15.463 Y-3.619 F500.000
G1 X-15.281 Y-4.344 F500.000
G1 X-14.944 Y-5.406 F500.000
G1 X-14.531 Y-6.444 F500.000
G1 X-13.881 Y-7.787 F500.000
G1 X-13.525 Y-8.444 F500.000
G1 X-13.113 Y-9.069 F500.000
G1 X-12.450 Y-9.819 F500.000
G1 X-12.131 Y-10.062 F500.000
G1 X-11.856 Y-10.194 F500.000
G1 X-11.119 Y-10.731 F500.000
G1 X-10.569 Y-11.300 F500.000
G1 X-9.819 Y-12.344 F500.000
G1 X-9.525 Y-12.625 F500.000
G1 X-8.544 Y-13.438 F500.000
G1 X-7.631 Y-14.094 F500.000
G1 X-6.981 Y-14.469 F500.000
G1 X-6.650 Y-14.644 F500.000
G1 X-5.625 Y-15.113 F500.000
G1 X-4.925 Y-15.394 F500.000
G1 X-4.213 Y-15.637 F500.000
G1 X-3.487 Y-15.838 F500.000
G1 X-2.750 Y-16.000 F500.000
G1 X-1.256 Y-16.231 F500.000
G1 X-0.881 Y-16.275 F500.000
G1 X0.237 Y-16.319 F500.000
G1 X1.344 Y-16.281 F500.000
G1 X2.450 Y-16.181 F500.000
G1 X3.556 Y-16.012 F500.000
G1 X4.281 Y-15.838 F500.000
G1 X4.638 Y-15.738 F500.000
G1 X5.700 Y-15.381 F500.000
G1 X6.750 Y-14.975 F500.000
G1 X7.756 Y-14.481 F500.000
G1 X8.406 Y-14.113 F500.000
G1 X9.119 Y-13.644 F500.000
G1 X9.594 Y-13.287 F500.000
G1 X9.656 Y-13.206 F500.000
G1 X9.700 Y-13.113 F500.000
G1 X9.912 Y-12.444 F500.000
G1 X10.225 Y-11.812 F500.000
G1 X10.625 Y-11.238 F500.000
G1 X11.244 Y-10.619 F500.000
G1 X11.731 Y-10.269 F500.000
G1 X12.781 Y-9.713 F500.000
G1 X12.944 Y-9.600 F500.000
G1 X13.925 Y-8.488 F500.000
G1 X14.363 Y-7.875 F500.000
G1 X14.750 Y-7.231 F500.000
G1 X15.088 Y-6.556 F500.000
G1 X15.537 Y-5.519 F500.000
G1 X15.931 Y-4.463 F500.000
G1 X16.131 Y-3.737 F500.000
G1 X16.431 Y-2.263 F500.000
G1 X16.619 Y-1.137 F500.000
G1 X16.738 Y0.356 F500.000
G1 X16.756 Y1.094 F500.000
G1 X16.725 Y1.831 F500.000
G1 X16.600 Y2.938 F500.000
G1 X16.381 Y4.031 F500.000
G1 X16.069 Y5.106 F500.000
G1 X15.812 Y5.806 F500.000
G1 X15.381 Y6.844 F500.000
G1 X14.731 Y8.188 F500.000
G1 X14.375 Y8.844 F500.000
G1 X13.912 Y9.488 F500.000
G1 X13.838 Y9.550 F500.000
G1 X13.744 Y9.594 F500.000
G1 X13.144 Y9.681 F500.000
G1 X12.669 Y9.838 F500.000
G1 X12.669 Y9.838 F500.000
G1 X12.412 Y9.863 F500.000
G1 X12.225 Y9.838 F500.000
G0 X12.162 Y9.825
G0 X11.494 Y9.738
G0 X11.381 Y9.756
G0 X10.269 Y10.669
G0 X10.213 Y10.762
G0 X10.162 Y11.181
G1 X10.162 Y11.238 F500.000
G1 X10.156 Y11.481 F500.000
G1 X10.162 Y11.794 F500.000
G1 X10.100 Y12.044 F500.000
G1 X10.100 Y12.044 F500.000
G1 X9.931 Y12.394 F500.000
G1 X9.631 Y13.119 F500.000
G1 X9.475 Y13.375 F500.000
G1 X8.988 Y13.869 F500.000
G1 X8.175 Y14.537 F500.000
G1 X7.862 Y14.750 F500.000
G1 X7.213 Y15.131 F500.000
G1 X6.537 Y15.456 F500.000
G1 X5.838 Y15.744 F500.000
G1 X4.769 Y16.106 F500.000
G1 X3.681 Y16.413 F500.000
G1 X2.206 Y16.744 F500.000
G1 X1.837 Y16.812 F500.000
G1 X1.087 Y16.894 F500.000
G1 X0.713 Y16.919 F500.000
G1 X0.338 Y16.925 F500.000
G1 X-0.031 Y16.950 F500.000
G1 X-1.137 Y16.956 F500.000
G1 X-1.875 Y16.925 F500.000
G1 X-2.981 Y16.781 F500.000
G1 X-3.706 Y16.625 F500.000
G1 X-4.787 Y16.344 F500.000
G1 X-5.856 Y16.012 F500.000
G1 X-6.556 Y15.756 F500.000
G1 X-7.569 Y15.281 F500.000
G1 X-8.537 Y14.719 F500.000
G1 X-9.000 Y14.387 F500.000
G1 X-9.450 Y14.000 F500.000
G1 X-9.519 Y13.925 F500.000
G1 X-9.606 Y13.744 F500.000
G1 X-9.713 Y13.044 F500.000
G1 X-9.900 Y12.469 F500.000
G1 X-9.988 Y12.287 F500.000
G1 X-9.988 Y12.287 F500.000
G1 X-10.044 Y12.037 F500.000
G1 X-10.037 Y11.919 F500.000
G1 X-10.019 Y11.869 F500.000
G0 X-9.988 Y11.838
G0 X-9.844 Y11.800
G0 X9.156 Y12.637
G1 X9.275 Y12.644 F500.000
G1 X9.488 Y12.662 F500.000
G1 X9.588 Y12.706 F500.000
G1 X9.656 Y12.800 F500.000
G1 X9.694 Y12.975 F500.000
G1 X9.688 Y13.169 F500.000
G1 X9.688 Y13.169 F500.000
G1 X9.531 Y14.012 F500.000
G1 X9.431 Y14.287 F500.000
G1 X9.206 Y14.613 F500.000
G1 X8.519 Y15.312 F500.000
G1 X8.244 Y15.569 F500.000
G1 X7.938 Y15.787 F500.000
G1 X6.969 Y16.363 F500.000
G1 X5.575 Y16.944 F500.000
G1 X4.506 Y17.306 F500.000
G1 X3.781 Y17.512 F500.000
G1 X2.675 Y17.756 F500.000
G1 X1.556 Y17.931 F500.000
G1 X0.431 Y18.031 F500.000
G1 X-0.681 Y18.056 F500.000
G1 X-1.419 Y18.038 F500.000
G1 X-2.525 Y17.944 F500.000
G1 X-3.631 Y17.775 F500.000
G1 X-4.719 Y17.538 F500.000
G1 X-5.794 Y17.225 F500.000
G1 X-6.850 Y16.850 F500.000
G1 X-7.194 Y16.706 F500.000
G1 X-7.856 Y16.369 F500.000
G1 X-8.181 Y16.188 F500.000
G1 X-8.812 Y15.781 F500.000
G1 X-9.194 Y15.500 F500.000
G1 X-9.631 Y15.088 F500.000
G1 X-9.662 Y14.994 F500.000
G1 X-9.588 Y14.394 F500.000
G1 X-9.588 Y13.894 F500.000
G1 X-9.588 Y13.894 F500.000
G1 X-9.537 Y13.637 F500.000
G1 X-9.475 Y13.525 F500.000
G1 X-9.438 Y13.481 F500.000
G0 X-9.394 Y13.450
G0 X-9.169 Y13.412
G0 X8.950 Y13.625
G1 X9.062 Y13.625 F500.000
G1 X9.338 Y13.650 F500.000
G1 X9.431 Y13.713 F500.000
G1 X9.531 Y13.869 F500.000
G1 X9.581 Y14.119 F500.000
G1 X9.581 Y14.119 F500.000
G1 X9.581 Y14.869 F500.000
G1 X9.544 Y15.056 F500.000
G1 X9.363 Y15.412 F500.000
G1 X8.762 Y16.181 F500.000
G1 X8.494 Y16.438 F500.000
G1 X7.912 Y16.913 F500.000
G1 X7.600 Y17.119 F500.000
G1 X7.275 Y17.306 F500.000
G1 X6.263 Y17.800 F500.000
G1 X5.206 Y18.194 F500.000
G1 X4.125 Y18.519 F500.000
G1 X3.019 Y18.781 F500.000
G1 X1.900 Y18.969 F500.000
G1 X1.150 Y19.062 F500.000
G1 X0.025 Y19.137 F500.000
G1 X-1.081 Y19.144 F500.000
G1 X-1.819 Y19.113 F500.000
G1 X-2.925 Y19.000 F500.000
G1 X-3.663 Y18.894 F500.000
G1 X-4.756 Y18.669 F500.000
G1 X-5.481 Y18.481 F500.000
G1 X-6.550 Y18.144 F500.000
G1 X-6.900 Y18.019 F500.000
G1 X-7.581 Y17.712 F500.000
G1 X-8.244 Y17.375 F500.000
G1 X-8.894 Y17.006 F500.000
G1 X-9.506 Y16.575 F500.000
G1 X-9.900 Y16.125 F500.000
G1 X-9.950 Y16.038 F500.000
G1 X-9.950 Y15.938 F500.000
G1 X-9.769 Y15.438 F500.000
G1 X-9.694 Y15.137 F500.000
G1 X-9.694 Y15.137 F500.000
G1 X-9.588 Y14.900 F500.000
G1 X-9.506 Y14.806 F500.000
G1 X-9.456 Y14.769 F500.000
G0 X-9.406 Y14.744
G0 X-9.175 Y14.706
G0 X8.956 Y14.519
G1 X9.075 Y14.519 F500.000
G1 X9.319 Y14.531 F500.000
G1 X9.438 Y14.581 F500.000
G1 X9.562 Y14.719 F500.000
G1 X9.662 Y14.956 F500.000
G1 X9.662 Y14.956 F500.000
G1 X9.762 Y15.519 F500.000
G1 X9.769 Y15.800 F500.000
G1 X9.588 Y16.256 F500.000
G1 X9.169 Y16.900 F500.000
G1 X8.925 Y17.188 F500.000
G1 X8.662 Y17.456 F500.000
G1 X8.375 Y17.700 F500.000
G1 X7.763 Y18.137 F500.000
G1 X7.444 Y18.331 F500.000
G1 X6.769 Y18.675 F500.000
G1 X6.081 Y18.975 F500.000
G1 X5.025 Y19.369 F500.000
G1 X4.306 Y19.600 F500.000
G1 X3.200 Y19.850 F500.000
G1 X2.081 Y20.025 F500.000
G1 X0.956 Y20.137 F500.000
G1 X-0.900 Y20.231 F500.000
G1 X-2.006 Y20.200 F500.000
G1 X-3.112 Y20.094 F500.000
G1 X-4.219 Y19.913 F500.000
G1 X-5.669 Y19.569 F500.000
G1 X-6.388 Y19.369 F500.000
G1 X-7.438 Y18.981 F500.000
G1 X-8.119 Y18.675 F500.000
G1 X-8.781 Y18.325 F500.000
G1 X-9.425 Y17.944 F500.000
G1 X-9.719 Y17.712 F500.000
G1 X-10.000 Y17.462 F500.000
G1 X-10.300 Y17.062 F500.000
G1 X-10.394 Y16.881 F500.000
G1 X-10.406 Y16.781 F500.000
G1 X-10.000 Y16.044 F500.000
G1 X-10.000 Y16.044 F500.000
G1 X-9.838 Y15.838 F500.000
G1 X-9.675 Y15.738 F500.000
G0 X-9.619 Y15.719
G0 X-9.381 Y15.694
G0 X9.081 Y15.244
G1 X9.194 Y15.244 F500.000
G1 X9.469 Y15.250 F500.000
G1 X9.581 Y15.294 F500.000
G1 X9.725 Y15.412 F500.000
G1 X9.850 Y15.644 F500.000
G1 X9.850 Y15.644 F500.000
G1 X10.031 Y16.194 F500.000
G1 X10.069 Y16.475 F500.000
G1 X10.044 Y16.663 F500.000
G1 X9.863 Y17.119 F500.000
G1 X9.581 Y17.625 F500.000
G1 X9.363 Y17.925 F500.000
G1 X9.113 Y18.206 F500.000
G1 X8.850 Y18.475 F500.000
G1 X8.269 Y18.944 F500.000
G1 X7.631 Y19.350 F500.000
G1 X6.969 Y19.700 F500.000
G1 X6.281 Y20.012 F500.000
G1 X5.219 Y20.413 F500.000
G1 X4.494 Y20.625 F500.000
G1 X3.388 Y20.887 F500.000
G1 X1.900 Y21.144 F500.000
G1 X0.775 Y21.275 F500.000
G1 X-0.344 Y21.350 F500.000
G1 X-0.713 Y21.363 F500.000
G1 X-2.188 Y21.294 F500.000
G1 X-3.294 Y21.188 F500.000
G1 X-4.031 Y21.081 F500.000
G1 X-5.119 Y20.844 F500.000
G1 X-6.200 Y20.556 F500.000
G1 X-7.263 Y20.212 F500.000
G1 X-8.306 Y19.800 F500.000
G1 X-8.969 Y19.462 F500.000
G1 X-9.613 Y19.087 F500.000
G1 X-9.912 Y18.869 F500.000
G1 X-10.200 Y18.625 F500.000
G1 X-10.475 Y18.369 F500.000
G1 X-10.719 Y18.081 F500.000
G1 X-10.900 Y17.719 F500.000
G1 X-10.963 Y17.519 F500.000
G1 X-10.956 Y17.419 F500.000
G1 X-10.488 Y16.863 F500.000
G1 X-10.488 Y16.863 F500.000
G1 X-10.294 Y16.688 F500.000
G1 X-10.119 Y16.606 F500.000
G0 X-10.062 Y16.594
G0 X9.325 Y15.950
G1 X9.444 Y15.950 F500.000
G1 X9.719 Y15.950 F500.000
G1 X9.887 Y16.019 F500.000
G1 X10.031 Y16.144 F500.000
G1 X10.137 Y16.306 F500.000
G1 X10.137 Y16.306 F500.000
G1 X10.400 Y16.819 F500.000
G1 X10.456 Y17.006 F500.000
G1 X10.469 Y17.100 F500.000
G1 X10.406 Y17.475 F500.000
G1 X10.119 Y18.188 F500.000
G1 X9.931 Y18.512 F500.000
G1 X9.713 Y18.819 F500.000
G1 X9.469 Y19.100 F500.000
G1 X8.925 Y19.619 F500.000
G1 X8.544 Y19.900 F500.000
G1 X6.938 Y20.756 F500.000
G1 X5.125 Y21.431 F500.000
G1 X2.125 Y22.100 F500.000
G1 X0.125 Y22.300 F500.000
G1 X-2.413 Y22.269 F500.000
G1 X-4.662 Y21.919 F500.000
G1 X-7.381 Y21.156 F500.000
G1 X-9.469 Y20.275 F500.000
G1 X-10.312 Y19.756 F500.000
G1 X-10.956 Y19.137 F500.000
G1 X-11.250 Y18.738 F500.000
G1 X-11.475 Y18.281 F500.000
G1 X-11.550 Y17.981 F500.000
G1 X-11.531 Y17.881 F500.000
G1 X-11.056 Y17.488 F500.000
G1 X-11.056 Y17.488 F500.000
G1 X-10.831 Y17.363 F500.000
G1 X-10.644 Y17.319 F500.000
G0 X-10.581 Y17.306
G0 X9.631 Y16.631
G1 X9.750 Y16.631 F500.000
G1 X10.100 Y16.637 F500.000
G1 X10.275 Y16.700 F500.000
G1 X10.525 Y16.913 F500.000
G1 X10.525 Y16.913 F500.000
G1 X10.800 Y17.306 F500.000
G1 X10.881 Y17.481 F500.000
G1 X10.906 Y17.575 F500.000
G1 X10.887 Y18.044 F500.000
G1 X10.675 Y18.775 F500.000
G1 X10.506 Y19.106 F500.000
G1 X9.881 Y19.887 F500.000
G1 X9.575 Y20.156 F500.000
G1 X8.981 Y20.531 F500.000
G1 X6.638 Y21.406 F500.000
G1 X4.356 Y21.988 F500.000
G1 X1.756 Y22.350 F500.000
G1 X0.056 Y22.406 F500.000
G1 X-0.787 Y22.387 F500.000
G1 X-0.787 Y22.387 F500.000
G1 X-1.025 Y22.319 F500.000
G1 X-1.119 Y22.262 F500.000
G1 X-1.144 Y22.231 F500.000
G0 X-1.150 Y22.200
G0 X-1.050 Y22.119
G0 X10.062 Y17.312
G1 X10.150 Y17.275 F500.000
G1 X10.400 Y17.188 F500.000
G1 X10.581 Y17.181 F500.000
G1 X10.762 Y17.244 F500.000
G1 X10.925 Y17.356 F500.000
G1 X10.925 Y17.356 F500.000
G1 X11.194 Y17.631 F500.000
G1 X11.356 Y17.863 F500.000
G1 X11.394 Y17.950 F500.000
G1 X11.444 Y18.325 F500.000
G1 X11.394 Y18.794 F500.000
G1 X11.238 Y19.262 F500.000
G1 X11.119 Y19.425 F500.000
G1 X11.050 Y19.494 F500.000
G1 X9.700 Y20.194 F500.000
G1 X9.700 Y20.194 F500.000
G1 X9.450 Y20.244 F500.000
G1 X9.331 Y20.238 F500.000
G1 X9.294 Y20.219 F500.000
G0 X9.269 Y20.194
G0 X9.281 Y20.113
G0 X10.688 Y17.906
G1 X10.719 Y17.850 F500.000
G1 X10.825 Y17.700 F500.000
G1 X10.912 Y17.637 F500.000
G1 X11.025 Y17.619 F500.000
G1 X11.206 Y17.656 F500.000
G1 X11.375 Y17.750 F500.000
G1 X11.375 Y17.750 F500.000
G1 X11.750 Y18.038 F500.000
G1 X11.925 Y18.262 F500.000
G1 X11.963 Y18.350 F500.000
G1 X12.019 Y18.725 F500.000
G1 X12.019 Y18.819 F500.000
G1 X11.981 Y18.913 F500.000
G1 X11.644 Y19.137 F500.000
G1 X11.644 Y19.137 F500.000
G1 X11.463 Y19.200 F500.000
G1 X11.363 Y19.206 F500.000
G0 X11.331 Y19.181
G0 X11.325 Y19.100
G0 X11.506 Y18.387
G1 X11.525 Y18.325 F500.000
G1 X11.600 Y18.144 F500.000
G1 X11.637 Y18.106 F500.000
G1 X11.744 Y18.081 F500.000
G1 X11.975 Y18.150 F500.000
G1 X11.975 Y18.150 F500.000
G1 X12.231 Y18.288 F500.000
G1 X12.375 Y18.406 F500.000
G1 X12.431 Y18.481 F500.000
G1 X12.469 Y18.569 F500.000
G1 X12.412 Y18.650 F500.000
G1 X11.988 Y18.925 F500.000
G1 X11.988 Y18.925 F500.000
G1 X11.956 Y18.925 F500.000
G0 X11.944 Y18.913
G0 X11.963 Y18.850
G1 X11.981 Y18.800 F500.000
G1 X12.219 Y18.425 F500.000
G1 X12.306 Y18.363 F500.000
G1 X12.412 Y18.350 F500.000
G1 X12.412 Y18.350 F500.000
G1 X12.500 Y18.394 F500.000
G1 X12.562 Y18.462 F500.000
G1 X12.531 Y18.556 F500.000
G1 X12.531 Y18.556 F500.000
G1 X12.256 Y18.719 F500.000
G1 X12.131 Y18.756 F500.000
G0 X12.075 Y18.769
G0 X-9.150 Y20.006
G1 X-9.275 Y20.012 F500.000
G1 X-9.875 Y20.044 F500.000
G1 X-10.119 Y19.981 F500.000
G1 X-10.119 Y19.981 F500.000
G1 X-10.994 Y19.525 F500.000
G1 X-11.575 Y19.150 F500.000
G1 X-11.800 Y18.956 F500.000
G1 X-11.988 Y18.719 F500.000
G1 X-12.081 Y18.425 F500.000
G1 X-12.100 Y18.325 F500.000
G1 X-12.081 Y18.225 F500.000
G1 X-11.644 Y17.944 F500.000
G1 X-11.644 Y17.944 F500.000
G1 X-11.469 Y17.856 F500.000
G1 X-11.369 Y17.844 F500.000
G0 X-11.338 Y17.863
G0 X-11.319 Y17.938
G0 X-11.450 Y18.712
G1 X-11.463 Y18.769 F500.000
G1 X-11.500 Y18.944 F500.000
G1 X-11.525 Y18.994 F500.000
G1 X-11.562 Y19.025 F500.000
G1 X-11.662 Y19.044 F500.000
G1 X-11.894 Y18.975 F500.000
G1 X-11.894 Y18.975 F500.000
G1 X-12.225 Y18.762 F500.000
G1 X-12.369 Y18.619 F500.000
G1 X-12.469 Y18.444 F500.000
G1 X-12.419 Y18.350 F500.000
G1 X-12.231 Y18.269 F500.000
G1 X-12.231 Y18.269 F500.000
G1 X-12.194 Y18.262 F500.000
G1 X-12.181 Y18.281 F500.000
G1 X-12.319 Y18.538 F500.000
G1 X-12.400 Y18.581 F500.000
G1 X-12.494 Y18.581 F500.000
G1 X-12.494 Y18.581 F500.000
G1 X-12.556 Y18.500 F500.000
G1 X-12.519 Y18.406 F500.000
G1 X-12.519 Y18.406 F500.000
G1 X-12.213 Y18.294 F500.000
G1 X-12.088 Y18.281 F500.000
G0 X-12.025 Y18.281
G0 X-11.338 Y18.406
G0 X-11.169 Y18.356
G0 X-10.644 Y18.006
G0 X-9.719 Y16.806
G0 X-9.169 Y15.738
G0 X-8.938 Y14.450
G0 X-9.019 Y13.144
G0 X-9.725 Y11.344
G0 X-10.594 Y10.306
G0 X-10.688 Y10.244
G0 X-11.056 Y10.213
G1 X-11.119 Y10.213 F500.000
G1 X-11.300 Y10.213 F500.000
G1 X-11.675 Y10.225 F500.000
G1 X-11.925 Y10.162 F500.000
G1 X-11.925 Y10.162 F500.000
G1 X-12.363 Y9.944 F500.000
G1 X-13.094 Y9.644 F500.000
G1 X-13.350 Y9.494 F500.000
G1 X-13.850 Y8.994 F500.000
G1 X-14.519 Y8.188 F500.000
G1 X-14.725 Y7.869 F500.000
G1 X-15.281 Y6.888 F500.000
G1 X-15.744 Y5.856 F500.000
G1 X-16.131 Y4.794 F500.000
G1 X-16.350 Y4.069 F500.000
G1 X-16.519 Y3.331 F500.000
G1 X-16.712 Y2.219 F500.000
G1 X-16.850 Y1.094 F500.000
G1 X-16.881 Y0.719 F500.000
G1 X-16.906 Y-0.762 F500.000
G1 X-16.850 Y-1.869 F500.000
G1 X-16.781 Y-2.606 F500.000
G1 X-16.656 Y-3.344 F500.000
G1 X-16.481 Y-4.069 F500.000
G1 X-16.281 Y-4.781 F500.000
G1 X-15.919 Y-5.838 F500.000
G1 X-15.344 Y-7.219 F500.000
G1 X-14.875 Y-8.231 F500.000
G1 X-14.444 Y-8.956 F500.000
G1 X-14.025 Y-9.519 F500.000
G1 X-13.944 Y-9.575 F500.000
G1 X-13.044 Y-9.713 F500.000
G1 X-12.469 Y-9.900 F500.000
G1 X-12.469 Y-9.900 F500.000
G1 X-12.213 Y-9.925 F500.000
G1 X-12.094 Y-9.906 F500.000
G1 X-12.044 Y-9.881 F500.000
G0 X-12.006 Y-9.844
G0 X-11.975 Y-9.694
G0 X-12.744 Y9.137
G1 X-12.750 Y9.256 F500.000
G1 X-12.769 Y9.469 F500.000
G1 X-12.812 Y9.569 F500.000
G1 X-12.900 Y9.637 F500.000
G1 X-13.075 Y9.675 F500.000
G1 X-13.269 Y9.669 F500.000
G1 X-13.269 Y9.669 F500.000
G1 X-14.019 Y9.531 F500.000
G1 X-14.206 Y9.469 F500.000
G1 X-14.694 Y9.131 F500.000
G1 X-15.244 Y8.581 F500.000
G1 X-15.500 Y8.306 F500.000
G1 X-15.725 Y8.006 F500.000
G1 X-16.131 Y7.375 F500.000
G1 X-16.481 Y6.713 F500.000
G1 X-16.644 Y6.375 F500.000
G1 X-17.069 Y5.325 F500.000
G1 X-17.419 Y4.250 F500.000
G1 X-17.613 Y3.525 F500.000
G1 X-17.800 Y2.400 F500.000
G1 X-17.931 Y1.275 F500.000
G1 X-18.006 Y0.150 F500.000
G1 X-18.025 Y-0.956 F500.000
G1 X-18.006 Y-1.694 F500.000
G1 X-17.881 Y-2.800 F500.000
G1 X-17.738 Y-3.531 F500.000
G1 X-17.562 Y-4.256 F500.000
G1 X-17.244 Y-5.325 F500.000
G1 X-16.450 Y-7.412 F500.000
G1 X-15.994 Y-8.438 F500.000
G1 X-15.625 Y-9.088 F500.000
G1 X-15.169 Y-9.613 F500.000
G1 X-15.081 Y-9.662 F500.000
G1 X-14.381 Y-9.588 F500.000
G1 X-14.081 Y-9.588 F500.000
G1 X-14.081 Y-9.588 F500.000
G1 X-13.825 Y-9.537 F500.000
G1 X-13.713 Y-9.481 F500.000
G1 X-13.669 Y-9.444 F500.000
G0 X-13.637 Y-9.400
G0 X-13.600 Y-9.175
G0 X-13.613 Y8.956
G1 X-13.613 Y9.069 F500.000
G1 X-13.619 Y9.287 F500.000
G1 X-13.656 Y9.394 F500.000
G1 X-13.738 Y9.475 F500.000
G1 X-13.906 Y9.556 F500.000
G1 X-14.100 Y9.588 F500.000
G1 X-14.100 Y9.588 F500.000
G1 X-14.850 Y9.581 F500.000
G1 X-15.131 Y9.512 F500.000
G1 X-15.631 Y9.213 F500.000
G1 X-16.150 Y8.787 F500.000
G1 X-16.413 Y8.519 F500.000
G1 X-16.656 Y8.231 F500.000
G1 X-17.094 Y7.625 F500.000
G1 X-17.469 Y6.975 F500.000
G1 X-17.794 Y6.300 F500.000
G1 X-18.206 Y5.244 F500.000
G1 X-18.544 Y4.162 F500.000
G1 X-18.806 Y3.062 F500.000
G1 X-18.938 Y2.319 F500.000
G1 X-19.031 Y1.569 F500.000
G1 X-19.087 Y0.819 F500.000
G1 X-19.119 Y-0.669 F500.000
G1 X-19.100 Y-1.775 F500.000
G1 X-18.988 Y-2.881 F500.000
G1 X-18.931 Y-3.250 F500.000
G1 X-18.775 Y-3.975 F500.000
G1 X-18.575 Y-4.700 F500.000
G1 X-18.238 Y-5.769 F500.000
G1 X-17.581 Y-7.513 F500.000
G1 X-17.137 Y-8.544 F500.000
G1 X-16.762 Y-9.194 F500.000
G1 X-16.488 Y-9.575 F500.000
G1 X-16.106 Y-9.912 F500.000
G1 X-16.012 Y-9.950 F500.000
G1 X-15.912 Y-9.944 F500.000
G1 X-15.412 Y-9.762 F500.000
G1 X-15.113 Y-9.694 F500.000
G1 X-15.113 Y-9.694 F500.000
G1 X-14.875 Y-9.588 F500.000
G1 X-14.781 Y-9.506 F500.000
G1 X-14.744 Y-9.456 F500.000
G0 X-14.719 Y-9.406
G0 X-14.681 Y-9.175
G0 X-14.494 Y8.969
G1 X-14.494 Y9.088 F500.000
G1 X-14.506 Y9.331 F500.000
G1 X-14.556 Y9.450 F500.000
G1 X-14.700 Y9.569 F500.000
G1 X-14.938 Y9.656 F500.000
G1 X-14.938 Y9.656 F500.000
G1 X-15.500 Y9.756 F500.000
G1 X-15.781 Y9.756 F500.000
G1 X-15.875 Y9.738 F500.000
G1 X-16.238 Y9.581 F500.000
G1 X-16.575 Y9.369 F500.000
G1 X-17.175 Y8.919 F500.000
G1 X-17.444 Y8.656 F500.000
G1 X-17.694 Y8.375 F500.000
G1 X-17.925 Y8.081 F500.000
G1 X-18.337 Y7.456 F500.000
G1 X-18.688 Y6.794 F500.000
G1 X-18.844 Y6.450 F500.000
G1 X-19.381 Y5.044 F500.000
G1 X-19.712 Y3.962 F500.000
G1 X-19.894 Y3.231 F500.000
G1 X-20.012 Y2.481 F500.000
G1 X-20.106 Y1.731 F500.000
G1 X-20.188 Y0.606 F500.000
G1 X-20.206 Y-0.506 F500.000
G1 X-20.144 Y-2.350 F500.000
G1 X-20.006 Y-3.456 F500.000
G1 X-19.781 Y-4.550 F500.000
G1 X-19.587 Y-5.269 F500.000
G1 X-19.356 Y-5.981 F500.000
G1 X-18.400 Y-8.412 F500.000
G1 X-18.238 Y-8.750 F500.000
G1 X-17.875 Y-9.406 F500.000
G1 X-17.650 Y-9.706 F500.000
G1 X-17.406 Y-9.988 F500.000
G1 X-17.012 Y-10.287 F500.000
G1 X-16.831 Y-10.381 F500.000
G1 X-16.731 Y-10.387 F500.000
G1 X-16.094 Y-10.025 F500.000
G1 X-16.094 Y-10.025 F500.000
G1 X-15.887 Y-9.863 F500.000
G1 X-15.787 Y-9.700 F500.000
G0 X-15.769 Y-9.644
G0 X-15.744 Y-9.406
G0 X-15.231 Y9.075
G1 X-15.231 Y9.188 F500.000
G1 X-15.238 Y9.463 F500.000
G1 X-15.281 Y9.575 F500.000
G1 X-15.400 Y9.719 F500.000
G1 X-15.631 Y9.844 F500.000
G1 X-15.631 Y9.844 F500.000
G1 X-16.175 Y10.025 F500.000
G1 X-16.363 Y10.056 F500.000
G1 X-16.456 Y10.056 F500.000
G1 X-16.831 Y9.956 F500.000
G1 X-17.281 Y9.750 F500.000
G1 X-17.606 Y9.569 F500.000
G1 X-17.913 Y9.350 F500.000
G1 X-18.469 Y8.844 F500.000
G1 X-18.950 Y8.269 F500.000
G1 X-19.363 Y7.638 F500.000
G1 X-19.544 Y7.306 F500.000
G1 X-20.031 Y6.281 F500.000
G1 X-20.319 Y5.581 F500.000
G1 X-20.681 Y4.513 F500.000
G1 X-20.881 Y3.788 F500.000
G1 X-21.087 Y2.681 F500.000
G1 X-21.231 Y1.556 F500.000
G1 X-21.294 Y0.806 F500.000
G1 X-21.319 Y-0.312 F500.000
G1 X-21.294 Y-1.419 F500.000
G1 X-21.175 Y-2.894 F500.000
G1 X-21.025 Y-4.000 F500.000
G1 X-20.769 Y-5.088 F500.000
G1 X-20.444 Y-6.156 F500.000
G1 X-20.062 Y-7.206 F500.000
G1 X-19.512 Y-8.588 F500.000
G1 X-19.188 Y-9.262 F500.000
G1 X-18.994 Y-9.581 F500.000
G1 X-18.562 Y-10.188 F500.000
G1 X-18.306 Y-10.463 F500.000
G1 X-18.019 Y-10.706 F500.000
G1 X-17.656 Y-10.881 F500.000
G1 X-17.456 Y-10.944 F500.000
G1 X-17.356 Y-10.906 F500.000
G1 X-16.794 Y-10.444 F500.000
G1 X-16.794 Y-10.444 F500.000
G1 X-16.613 Y-10.256 F500.000
G1 X-16.525 Y-10.088 F500.000
G0 X-16.512 Y-10.031
G0 X-15.944 Y9.294
G1 X-15.944 Y9.412 F500.000
G1 X-15.944 Y9.694 F500.000
G1 X-16.006 Y9.869 F500.000
G1 X-16.131 Y10.012 F500.000
G1 X-16.288 Y10.131 F500.000
G1 X-16.288 Y10.131 F500.000
G1 X-16.712 Y10.350 F500.000
G1 X-16.988 Y10.438 F500.000
G1 X-17.269 Y10.425 F500.000
G1 X-17.550 Y10.350 F500.000
G1 X-18.175 Y10.088 F500.000
G1 X-18.500 Y9.906 F500.000
G1 X-19.106 Y9.463 F500.000
G1 X-19.381 Y9.206 F500.000
G1 X-19.631 Y8.925 F500.000
G1 X-19.863 Y8.631 F500.000
G1 X-20.900 Y6.656 F500.000
G1 X-21.663 Y4.675 F500.000
G1 X-22.038 Y3.200 F500.000
G1 X-22.344 Y0.500 F500.000
G1 X-22.238 Y-2.438 F500.000
G1 X-21.881 Y-4.688 F500.000
G1 X-20.425 Y-8.950 F500.000
G1 X-19.956 Y-9.812 F500.000
G1 X-19.363 Y-10.606 F500.000
G1 X-18.769 Y-11.150 F500.000
G1 X-18.419 Y-11.363 F500.000
G1 X-18.131 Y-11.475 F500.000
G1 X-17.931 Y-11.519 F500.000
G1 X-17.831 Y-11.481 F500.000
G1 X-17.712 Y-11.306 F500.000
G1 X-17.438 Y-11.000 F500.000
G1 X-17.438 Y-11.000 F500.000
G1 X-17.312 Y-10.775 F500.000
G1 X-17.269 Y-10.588 F500.000
G0 X-17.256 Y-10.525
G0 X-16.631 Y9.619
G1 X-16.631 Y9.738 F500.000
G1 X-16.637 Y10.088 F500.000
G1 X-16.694 Y10.262 F500.000
G1 X-16.894 Y10.519 F500.000
G1 X-16.894 Y10.519 F500.000
G1 X-17.200 Y10.744 F500.000
G1 X-17.462 Y10.869 F500.000
G1 X-17.650 Y10.894 F500.000
G1 X-18.212 Y10.825 F500.000
G1 X-18.756 Y10.662 F500.000
G1 X-19.094 Y10.506 F500.000
G1 X-19.950 Y9.825 F500.000
G1 X-20.269 Y9.438 F500.000
G1 X-20.569 Y8.906 F500.000
G1 X-21.406 Y6.631 F500.000
G1 X-21.969 Y4.456 F500.000
G1 X-22.350 Y1.756 F500.000
G1 X-22.406 Y0.056 F500.000
G1 X-22.394 Y-0.600 F500.000
G1 X-22.394 Y-0.600 F500.000
G1 X-22.331 Y-0.838 F500.000
G1 X-22.275 Y-0.931 F500.000
G1 X-22.244 Y-0.956 F500.000
G0 X-22.212 Y-0.963
G0 X-22.131 Y-0.863
G0 X-17.306 Y10.062
G1 X-17.269 Y10.150 F500.000
G1 X-17.181 Y10.369 F500.000
G1 X-17.169 Y10.506 F500.000
G1 X-17.206 Y10.694 F500.000
G1 X-17.344 Y10.912 F500.000
G1 X-17.344 Y10.912 F500.000
G1 X-17.625 Y11.181 F500.000
G1 X-17.863 Y11.344 F500.000
G1 X-17.950 Y11.381 F500.000
G1 X-18.325 Y11.431 F500.000
G1 X-18.700 Y11.406 F500.000
G1 X-19.075 Y11.306 F500.000
G1 X-19.262 Y11.231 F500.000
G1 X-19.425 Y11.119 F500.000
G1 X-19.494 Y11.050 F500.000
G1 X-20.113 Y9.875 F500.000
G1 X-20.113 Y9.875 F500.000
G1 X-20.163 Y9.625 F500.000
G1 X-20.156 Y9.506 F500.000
G1 X-20.137 Y9.463 F500.000
G0 X-20.106 Y9.444
G0 X-20.025 Y9.450
G0 X-17.906 Y10.688
G1 X-17.850 Y10.719 F500.000
G1 X-17.700 Y10.819 F500.000
G1 X-17.631 Y10.906 F500.000
G1 X-17.613 Y11.012 F500.000
G1 X-17.650 Y11.194 F500.000
G1 X-17.744 Y11.363 F500.000
G1 X-17.744 Y11.363 F500.000
G1 X-18.038 Y11.744 F500.000
G1 X-18.262 Y11.925 F500.000
G1 X-18.350 Y11.963 F500.000
G1 X-18.725 Y12.019 F500.000
G1 X-18.819 Y12.019 F500.000
G1 X-18.913 Y11.981 F500.000
G1 X-19.137 Y11.644 F500.000
G1 X-19.137 Y11.644 F500.000
G1 X-19.200 Y11.463 F500.000
G1 X-19.206 Y11.363 F500.000
G0 X-19.181 Y11.331
G0 X-19.106 Y11.319
G0 X-18.356 Y11.494
G1 X-18.294 Y11.512 F500.000
G1 X-18.163 Y11.550 F500.000
G1 X-18.113 Y11.581 F500.000
G1 X-18.075 Y11.619 F500.000
G1 X-18.056 Y11.725 F500.000
G1 X-18.144 Y11.956 F500.000
G1 X-18.144 Y11.956 F500.000
G1 X-18.281 Y12.213 F500.000
G1 X-18.400 Y12.356 F500.000
G1 X-18.562 Y12.456 F500.000
G1 X-18.650 Y12.412 F500.000
G1 X-18.762 Y12.244 F500.000
G1 X-18.762 Y12.244 F500.000
G1 X-18.769 Y12.206 F500.000
G1 X-18.756 Y12.188 F500.000
G1 X-18.500 Y12.213 F500.000
G1 X-18.394 Y12.262 F500.000
G1 X-18.344 Y12.344 F500.000
G1 X-18.337 Y12.394 F500.000
G1 X-18.337 Y12.394 F500.000
G1 X-18.381 Y12.481 F500.000
G1 X-18.444 Y12.550 F500.000
G1 X-18.538 Y12.544 F500.000
G1 X-18.538 Y12.544 F500.000
G1 X-18.706 Y12.275 F500.000
G1 X-18.750 Y12.156 F500.000
G0 X-18.762 Y12.100
G0 X-18.794 Y11.781
G0 X-18.962 Y9.438
G0 X-21.069 Y-4.925
G0 X-21.225 Y-5.981
G1 X-21.238 Y-6.069 F500.000
G1 X-21.281 Y-6.325 F500.000
G1 X-21.337 Y-6.631 F500.000
G1 X-21.312 Y-6.888 F500.000
G1 X-21.312 Y-6.888 F500.000
G1 X-20.506 Y-9.031 F500.000
G1 X-19.494 Y-11.044 F500.000
G1 X-19.175 Y-11.537 F500.000
G1 X-18.919 Y-11.831 F500.000
G1 X-18.762 Y-11.950 F500.000
G1 X-18.481 Y-12.062 F500.000
G1 X-18.281 Y-12.094 F500.000
G1 X-18.188 Y-12.050 F500.000
G1 X-17.913 Y-11.600 F500.000
G1 X-17.913 Y-11.600 F500.000
G1 X-17.825 Y-11.425 F500.000
G1 X-17.812 Y-11.325 F500.000
G0 X-17.831 Y-11.294
G0 X-17.906 Y-11.275
G0 X-18.731 Y-11.438
G1 X-18.788 Y-11.450 F500.000
G1 X-18.962 Y-11.488 F500.000
G1 X-19.038 Y-11.550 F500.000
G1 X-19.056 Y-11.650 F500.000
G1 X-18.988 Y-11.881 F500.000
G1 X-18.988 Y-11.881 F500.000
G1 X-18.706 Y-12.287 F500.000
G1 X-18.550 Y-12.419 F500.000
G1 X-18.456 Y-12.463 F500.000
G1 X-18.356 Y-12.431 F500.000
G1 X-18.312 Y-12.338 F500.000
G1 X-18.312 Y-12.338 F500.000
G1 X-18.306 Y-12.300 F500.000
G1 X-18.325 Y-12.275 F500.000
G1 X-18.494 Y-12.306 F500.000
G1 X-18.575 Y-12.363 F500.000
G1 X-18.594 Y-12.481 F500.000
G1 X-18.594 Y-12.481 F500.000
G1 X-18.525 Y-12.550 F500.000
G1 X-18.425 Y-12.537 F500.000
G1 X-18.425 Y-12.537 F500.000
G1 X-18.244 Y-12.119 F500.000
G0 X-18.238 Y-12.056
G0 X-18.406 Y-11.325
G0 X-18.381 Y-11.213
G0 X-17.462 Y-10.131
G0 X-16.200 Y-9.344
G0 X-14.869 Y-8.956
G0 X-13.669 Y-9.006
G0 X-12.281 Y-9.250
G0 X-10.975 Y-10.000
G0 X-10.044 Y-10.975
G0 X-9.988 Y-11.081
G0 X-9.981 Y-11.463
G1 X-9.988 Y-11.531 F500.000
G1 X-9.994 Y-11.650 F500.000
G1 X-10.019 Y-12.088 F500.000
G1 X-9.956 Y-12.338 F500.000
G1 X-9.956 Y-12.338 F500.000
G1 X-9.581 Y-13.369 F500.000
G1 X-9.444 Y-13.625 F500.000
G1 X-9.113 Y-14.000 F500.000
G1 X-8.469 Y-14.600 F500.000
G1 X-8.175 Y-14.838 F500.000
G1 X-7.869 Y-15.056 F500.000
G1 X-7.231 Y-15.456 F500.000
G1 X-6.562 Y-15.806 F500.000
G1 X-5.881 Y-16.125 F500.000
G1 X-4.831 Y-16.544 F500.000
G1 X-3.756 Y-16.881 F500.000
G1 X-1.913 Y-17.269 F500.000
G1 X-0.787 Y-17.387 F500.000
G1 X0.331 Y-17.425 F500.000
G1 X1.438 Y-17.400 F500.000
G1 X2.544 Y-17.306 F500.000
G1 X2.913 Y-17.262 F500.000
G1 X3.650 Y-17.125 F500.000
G1 X4.013 Y-17.044 F500.000
G1 X5.094 Y-16.738 F500.000
G1 X6.156 Y-16.381 F500.000
G1 X7.200 Y-15.969 F500.000
G1 X7.881 Y-15.662 F500.000
G1 X8.213 Y-15.488 F500.000
G1 X9.419 Y-14.738 F500.000
G1 X9.500 Y-14.675 F500.000
G1 X9.569 Y-14.600 F500.000
G1 X9.606 Y-14.506 F500.000
G1 X9.581 Y-13.906 F500.000
G1 X9.600 Y-13.706 F500.000
G1 X9.600 Y-13.706 F500.000
G1 X9.575 Y-13.444 F500.000
G1 X9.525 Y-13.331 F500.000
G1 X9.494 Y-13.287 F500.000
G0 X9.450 Y-13.250
G0 X9.231 Y-13.206
G0 X-9.069 Y-12.988
G1 X-9.188 Y-12.988 F500.000
G1 X-9.425 Y-13.000 F500.000
G1 X-9.531 Y-13.069 F500.000
G1 X-9.594 Y-13.169 F500.000
G1 X-9.637 Y-13.488 F500.000
G1 X-9.637 Y-13.488 F500.000
G1 X-9.537 Y-14.238 F500.000
G1 X-9.456 Y-14.519 F500.000
G1 X-9.119 Y-15.006 F500.000
G1 X-8.588 Y-15.569 F500.000
G1 X-8.319 Y-15.831 F500.000
G1 X-7.713 Y-16.281 F500.000
G1 X-7.400 Y-16.488 F500.000
G1 X-6.406 Y-17.025 F500.000
G1 X-5.719 Y-17.331 F500.000
G1 X-4.656 Y-17.712 F500.000
G1 X-3.569 Y-18.012 F500.000
G1 X-2.462 Y-18.244 F500.000
G1 X-1.337 Y-18.413 F500.000
G1 X-0.212 Y-18.506 F500.000
G1 X0.894 Y-18.525 F500.000
G1 X2.000 Y-18.475 F500.000
G1 X2.737 Y-18.406 F500.000
G1 X3.106 Y-18.356 F500.000
G1 X4.556 Y-18.038 F500.000
G1 X5.987 Y-17.613 F500.000
G1 X7.037 Y-17.238 F500.000
G1 X7.725 Y-16.956 F500.000
G1 X8.387 Y-16.619 F500.000
G1 X9.037 Y-16.256 F500.000
G1 X9.438 Y-16.000 F500.000
G1 X9.731 Y-15.725 F500.000
G1 X9.794 Y-15.644 F500.000
G1 X9.812 Y-15.544 F500.000
G1 X9.719 Y-15.244 F500.000
G1 X9.700 Y-15.144 F500.000
G1 X9.700 Y-15.144 F500.000
G1 X9.594 Y-14.906 F500.000
G1 X9.512 Y-14.812 F500.000
G1 X9.463 Y-14.775 F500.000
G0 X9.412 Y-14.750
G0 X9.181 Y-14.706
G0 X-8.894 Y-14.006
G1 X-9.006 Y-14.006 F500.000
G1 X-9.281 Y-14.012 F500.000
G1 X-9.387 Y-14.069 F500.000
G1 X-9.500 Y-14.206 F500.000
G1 X-9.594 Y-14.444 F500.000
G1 X-9.594 Y-14.444 F500.000
G1 X-9.644 Y-15.006 F500.000
G1 X-9.606 Y-15.287 F500.000
G1 X-9.581 Y-15.381 F500.000
G1 X-9.456 Y-15.644 F500.000
G1 X-8.869 Y-16.419 F500.000
G1 X-8.613 Y-16.694 F500.000
G1 X-8.331 Y-16.944 F500.000
G1 X-8.037 Y-17.175 F500.000
G1 X-7.412 Y-17.600 F500.000
G1 X-7.088 Y-17.794 F500.000
G1 X-6.419 Y-18.137 F500.000
G1 X-5.375 Y-18.569 F500.000
G1 X-4.294 Y-18.906 F500.000
G1 X-3.194 Y-19.188 F500.000
G1 X-2.087 Y-19.413 F500.000
G1 X-1.712 Y-19.475 F500.000
G1 X-0.588 Y-19.587 F500.000
G1 X0.525 Y-19.619 F500.000
G1 X1.631 Y-19.587 F500.000
G1 X2.737 Y-19.494 F500.000
G1 X3.475 Y-19.400 F500.000
G1 X4.925 Y-19.081 F500.000
G1 X6.000 Y-18.781 F500.000
G1 X7.062 Y-18.425 F500.000
G1 X7.412 Y-18.294 F500.000
G1 X8.431 Y-17.831 F500.000
G1 X9.094 Y-17.481 F500.000
G1 X9.719 Y-17.075 F500.000
G1 X10.000 Y-16.788 F500.000
G1 X10.181 Y-16.544 F500.000
G1 X10.194 Y-16.444 F500.000
G1 X9.925 Y-15.869 F500.000
G1 X9.856 Y-15.669 F500.000
G1 X9.856 Y-15.669 F500.000
G1 X9.725 Y-15.444 F500.000
G1 X9.581 Y-15.325 F500.000
G0 X9.525 Y-15.306
G0 X9.294 Y-15.275
G0 X-9.000 Y-14.719
G1 X-9.113 Y-14.719 F500.000
G1 X-9.387 Y-14.725 F500.000
G1 X-9.494 Y-14.781 F500.000
G1 X-9.606 Y-14.919 F500.000
G1 X-9.700 Y-15.156 F500.000
G1 X-9.700 Y-15.156 F500.000
G1 X-9.825 Y-15.625 F500.000
G1 X-9.856 Y-16.000 F500.000
G1 X-9.844 Y-16.094 F500.000
G1 X-9.744 Y-16.375 F500.000
G1 X-9.294 Y-17.125 F500.000
G1 X-9.056 Y-17.413 F500.000
G1 X-8.537 Y-17.956 F500.000
G1 X-8.250 Y-18.200 F500.000
G1 X-7.950 Y-18.425 F500.000
G1 X-7.638 Y-18.631 F500.000
G1 X-6.981 Y-19.000 F500.000
G1 X-6.294 Y-19.312 F500.000
G1 X-5.594 Y-19.587 F500.000
G1 X-4.519 Y-19.938 F500.000
G1 X-3.425 Y-20.225 F500.000
G1 X-1.950 Y-20.525 F500.000
G1 X-0.825 Y-20.644 F500.000
G1 X0.662 Y-20.694 F500.000
G1 X2.138 Y-20.650 F500.000
G1 X2.875 Y-20.594 F500.000
G1 X3.981 Y-20.425 F500.000
G1 X4.706 Y-20.269 F500.000
G1 X5.787 Y-19.988 F500.000
G1 X7.213 Y-19.544 F500.000
G1 X7.912 Y-19.288 F500.000
G1 X8.919 Y-18.800 F500.000
G1 X9.575 Y-18.438 F500.000
G1 X9.881 Y-18.225 F500.000
G1 X10.169 Y-17.988 F500.000
G1 X10.431 Y-17.719 F500.000
G1 X10.594 Y-17.469 F500.000
G1 X10.675 Y-17.281 F500.000
G1 X10.700 Y-17.181 F500.000
G1 X10.662 Y-17.081 F500.000
G1 X10.344 Y-16.675 F500.000
G1 X10.238 Y-16.500 F500.000
G1 X10.238 Y-16.500 F500.000
G1 X10.062 Y-16.306 F500.000
G1 X9.900 Y-16.219 F500.000
G0 X9.838 Y-16.200
G0 X-9.131 Y-15.606
G1 X-9.250 Y-15.606 F500.000
G1 X-9.531 Y-15.606 F500.000
G1 X-9.706 Y-15.669 F500.000
G1 X-9.850 Y-15.794 F500.000
G1 X-9.969 Y-15.950 F500.000
G1 X-9.969 Y-15.950 F500.000
G1 X-10.156 Y-16.494 F500.000
G1 X-10.181 Y-16.681 F500.000
G1 X-10.056 Y-17.150 F500.000
G1 X-9.713 Y-17.831 F500.000
G1 X-9.519 Y-18.150 F500.000
G1 X-9.287 Y-18.444 F500.000
G1 X-8.769 Y-18.981 F500.000
G1 X-8.475 Y-19.219 F500.000
G1 X-7.856 Y-19.644 F500.000
G1 X-7.537 Y-19.837 F500.000
G1 X-6.519 Y-20.331 F500.000
G1 X-5.819 Y-20.613 F500.000
G1 X-4.744 Y-20.969 F500.000
G1 X-3.281 Y-21.344 F500.000
G1 X-1.312 Y-21.663 F500.000
G1 X1.488 Y-21.769 F500.000
G1 X3.456 Y-21.600 F500.000
G1 X6.456 Y-20.906 F500.000
G1 X8.675 Y-20.075 F500.000
G1 X9.881 Y-19.425 F500.000
G1 X10.287 Y-19.137 F500.000
G1 X10.725 Y-18.725 F500.000
G1 X10.988 Y-18.456 F500.000
G1 X11.213 Y-18.000 F500.000
G1 X11.269 Y-17.806 F500.000
G1 X11.262 Y-17.706 F500.000
G1 X10.756 Y-17.194 F500.000
G1 X10.756 Y-17.194 F500.000
G1 X10.550 Y-17.031 F500.000
G1 X10.375 Y-16.962 F500.000
G0 X10.319 Y-16.950
G0 X-9.387 Y-16.175
G1 X-9.500 Y-16.169 F500.000
G1 X-9.787 Y-16.169 F500.000
G1 X-9.963 Y-16.225 F500.000
G1 X-10.113 Y-16.337 F500.000
G1 X-10.238 Y-16.488 F500.000
G1 X-10.238 Y-16.488 F500.000
G1 X-10.481 Y-16.900 F500.000
G1 X-10.575 Y-17.175 F500.000
G1 X-10.556 Y-17.550 F500.000
G1 X-10.419 Y-18.019 F500.000
G1 X-10.281 Y-18.369 F500.000
G1 X-10.113 Y-18.700 F500.000
G1 X-9.700 Y-19.319 F500.000
G1 X-8.688 Y-20.150 F500.000
G1 X-7.562 Y-20.837 F500.000
G1 X-6.537 Y-21.312 F500.000
G1 X-4.600 Y-21.938 F500.000
G1 X-1.500 Y-22.363 F500.000
G1 X1.781 Y-22.337 F500.000
G1 X4.594 Y-21.931 F500.000
G1 X7.406 Y-21.150 F500.000
G1 X10.131 Y-19.981 F500.000
G1 X10.919 Y-19.556 F500.000
G1 X11.394 Y-19.194 F500.000
G1 X11.594 Y-18.975 F500.000
G1 X11.744 Y-18.712 F500.000
G1 X11.869 Y-18.325 F500.000
G1 X11.881 Y-18.225 F500.000
G1 X11.869 Y-18.125 F500.000
G1 X11.800 Y-18.050 F500.000
G1 X11.363 Y-17.750 F500.000
G1 X11.363 Y-17.750 F500.000
G1 X11.131 Y-17.644 F500.000
G1 X10.938 Y-17.619 F500.000
G0 X10.875 Y-17.613
G0 X-9.681 Y-16.731
G1 X-9.800 Y-16.725 F500.000
G1 X-10.150 Y-16.725 F500.000
G1 X-10.325 Y-16.781 F500.000
G1 X-10.588 Y-16.975 F500.000
G1 X-10.588 Y-16.975 F500.000
G1 X-10.931 Y-17.431 F500.000
G1 X-11.044 Y-17.694 F500.000
G1 X-11.056 Y-18.069 F500.000
G1 X-10.975 Y-18.538 F500.000
G1 X-10.887 Y-18.900 F500.000
G1 X-10.669 Y-19.337 F500.000
G1 X-10.375 Y-19.738 F500.000
G1 X-9.988 Y-20.056 F500.000
G1 X-8.875 Y-20.581 F500.000
G1 X-6.700 Y-21.387 F500.000
G1 X-5.606 Y-21.700 F500.000
G1 X-5.606 Y-21.700 F500.000
G1 X-5.350 Y-21.700 F500.000
G1 X-5.237 Y-21.669 F500.000
G1 X-5.200 Y-21.644 F500.000
G0 X-5.188 Y-21.619
G0 X-5.219 Y-21.550
G0 X-10.300 Y-17.531
G1 X-10.363 Y-17.481 F500.000
G1 X-10.544 Y-17.356 F500.000
G1 X-10.669 Y-17.331 F500.000
G1 X-10.856 Y-17.363 F500.000
G1 X-11.075 Y-17.500 F500.000
G1 X-11.075 Y-17.500 F500.000
G1 X-11.419 Y-17.831 F500.000
G1 X-11.569 Y-18.075 F500.000
G1 X-11.631 Y-18.544 F500.000
G1 X-11.606 Y-18.919 F500.000
G1 X-11.556 Y-19.106 F500.000
G1 X-11.438 Y-19.262 F500.000
G1 X-10.738 Y-19.669 F500.000
G1 X-10.738 Y-19.669 F500.000
G1 X-10.494 Y-19.731 F500.000
G1 X-10.375 Y-19.731 F500.000
G1 X-10.331 Y-19.712 F500.000
G0 X-10.306 Y-19.688
G0 X-10.306 Y-19.600
G0 X-10.900 Y-18.081
G1 X-10.925 Y-18.012 F500.000
G1 X-11.025 Y-17.837 F500.000
G1 X-11.119 Y-17.775 F500.000
G1 X-11.238 Y-17.769 F500.000
G1 X-11.544 Y-17.875 F500.000
G1 X-11.544 Y-17.875 F500.000
G1 X-11.863 Y-18.100 F500.000
G1 X-12.062 Y-18.300 F500.000
G1 X-12.113 Y-18.381 F500.000
G1 X-12.169 Y-18.562 F500.000
G1 X-12.181 Y-18.656 F500.000
G1 X-12.175 Y-18.750 F500.000
G1 X-12.131 Y-18.837 F500.000
G1 X-11.881 Y-19.000 F500.000
G1 X-11.881 Y-19.000 F500.000
G1 X-11.700 Y-19.062 F500.000
G1 X-11.600 Y-19.062 F500.000
G0 X-11.575 Y-19.038
G0 X-11.562 Y-18.950
G0 X-11.675 Y-18.531
G1 X-11.688 Y-18.469 F500.000
G1 X-11.750 Y-18.300 F500.000
G1 X-11.812 Y-18.219 F500.000
G1 X-11.919 Y-18.188 F500.000
G1 X-12.162 Y-18.238 F500.000
G1 X-12.162 Y-18.238 F500.000
G1 X-12.406 Y-18.387 F500.000
G1 X-12.475 Y-18.456 F500.000
G1 X-12.512 Y-18.544 F500.000
G1 X-12.450 Y-18.625 F500.000
G1 X-12.281 Y-18.738 F500.000
G1 X-12.281 Y-18.738 F500.000
G1 X-12.250 Y-18.738 F500.000
G1 X-12.231 Y-18.725 F500.000
G1 X-12.281 Y-18.531 F500.000
G1 X-12.344 Y-18.425 F500.000
G1 X-12.438 Y-18.387 F500.000
G1 X-12.488 Y-18.381 F500.000
G1 X-12.488 Y-18.381 F500.000
G1 X-12.550 Y-18.450 F500.000
G1 X-12.537 Y-18.544 F500.000
G1 X-12.537 Y-18.544 F500.000
G1 X-12.269 Y-18.712 F500.000
G1 X-12.150 Y-18.756 F500.000
G0 X-12.094 Y-18.769
G0 X10.475 Y-19.306
G1 X10.600 Y-19.306 F500.000
G1 X11.150 Y-19.331 F500.000
G1 X11.456 Y-19.244 F500.000
G1 X11.456 Y-19.244 F500.000
G1 X12.037 Y-18.869 F500.000
G1 X12.244 Y-18.656 F500.000
G1 X12.300 Y-18.569 F500.000
G1 X12.338 Y-18.475 F500.000
G1 X12.350 Y-18.375 F500.000
G1 X12.287 Y-18.294 F500.000
G1 X12.100 Y-18.212 F500.000
G1 X12.100 Y-18.212 F500.000
G1 X11.981 Y-18.175 F500.000
G1 X11.938 Y-18.175 F500.000
G0 X11.912 Y-18.194
G0 X11.900 Y-18.288
G0 X11.938 Y-18.469
G1 X11.950 Y-18.531 F500.000
G1 X12.006 Y-18.706 F500.000
G1 X12.031 Y-18.744 F500.000
G1 X12.069 Y-18.769 F500.000
G1 X12.162 Y-18.769 F500.000
G1 X12.269 Y-18.731 F500.000
G1 X12.269 Y-18.731 F500.000
G1 X12.431 Y-18.625 F500.000
G1 X12.506 Y-18.556 F500.000
G1 X12.550 Y-18.469 F500.000
G1 X12.494 Y-18.381 F500.000
G1 X12.494 Y-18.381 F500.000
G1 X12.181 Y-18.300 F500.000
G1 X12.050 Y-18.288 F500.000
G0 X11.988 Y-18.294
G0 X11.219 Y-18.356
G0 X11.056 Y-18.294
G0 X10.500 Y-17.887
G0 X9.581 Y-16.688
G0 X8.950 Y-14.719
G0 X9.025 Y-13.137
G0 X9.481 Y-11.762
G0 X10.256 Y-10.750
G0 X10.894 Y-10.025
G0 X11.469 Y-9.650
G0 X11.581 Y-9.613
G0 X12.012 Y-9.669
G1 X12.075 Y-9.681 F500.000
G1 X12.194 Y-9.706 F500.000
G1 X12.631 Y-9.787 F500.000
G1 X12.881 Y-9.756 F500.000
G1 X12.881 Y-9.756 F500.000
G1 X13.725 Y-9.544 F500.000
G1 X13.994 Y-9.412 F500.000
G1 X14.525 Y-8.963 F500.000
G1 X14.994 Y-8.475 F500.000
G1 X15.231 Y-8.181 F500.000
G1 X15.656 Y-7.556 F500.000
G1 X16.031 Y-6.906 F500.000
G1 X16.369 Y-6.231 F500.000
G1 X16.669 Y-5.537 F500.000
G1 X16.925 Y-4.831 F500.000
G1 X17.137 Y-4.106 F500.000
G1 X17.312 Y-3.369 F500.000
G1 X17.462 Y-2.631 F500.000
G1 X17.650 Y-1.506 F500.000
G1 X17.794 Y-0.381 F500.000
G1 X17.850 Y0.731 F500.000
G1 X17.844 Y1.469 F500.000
G1 X17.756 Y2.575 F500.000
G1 X17.650 Y3.312 F500.000
G1 X17.506 Y4.044 F500.000
G1 X17.325 Y4.769 F500.000
G1 X17.106 Y5.481 F500.000
G1 X16.712 Y6.525 F500.000
G1 X16.094 Y7.888 F500.000
G1 X15.756 Y8.550 F500.000
G1 X15.394 Y9.200 F500.000
G1 X15.075 Y9.581 F500.000
G1 X14.994 Y9.637 F500.000
G1 X14.894 Y9.650 F500.000
G1 X14.494 Y9.600 F500.000
G1 X14.494 Y9.600 F500.000
G1 X14.250 Y9.512 F500.000
G1 X14.144 Y9.444 F500.000
G1 X14.106 Y9.394 F500.000
G0 X14.075 Y9.344
G0 X14.031 Y9.119
G0 X13.344 Y-9.019
G1 X13.344 Y-9.131 F500.000
G1 X13.344 Y-9.344 F500.000
G1 X13.381 Y-9.450 F500.000
G1 X13.463 Y-9.519 F500.000
G1 X13.637 Y-9.575 F500.000
G1 X13.831 Y-9.588 F500.000
G1 X13.831 Y-9.588 F500.000
G1 X14.394 Y-9.581 F500.000
G1 X14.769 Y-9.512 F500.000
G1 X15.037 Y-9.387 F500.000
G1 X15.581 Y-8.950 F500.000
G1 X15.863 Y-8.706 F500.000
G1 X16.119 Y-8.431 F500.000
G1 X16.594 Y-7.850 F500.000
G1 X16.994 Y-7.213 F500.000
G1 X17.344 Y-6.550 F500.000
G1 X17.644 Y-5.862 F500.000
G1 X18.025 Y-4.800 F500.000
G1 X18.325 Y-3.706 F500.000
G1 X18.569 Y-2.600 F500.000
G1 X18.756 Y-1.481 F500.000
G1 X18.875 Y-0.356 F500.000
G1 X18.931 Y0.750 F500.000
G1 X18.931 Y1.856 F500.000
G1 X18.913 Y2.225 F500.000
G1 X18.769 Y3.331 F500.000
G1 X18.619 Y4.056 F500.000
G1 X18.444 Y4.781 F500.000
G1 X18.131 Y5.850 F500.000
G1 X17.887 Y6.556 F500.000
G1 X17.600 Y7.244 F500.000
G1 X17.131 Y8.262 F500.000
G1 X16.794 Y8.925 F500.000
G1 X16.600 Y9.244 F500.000
G1 X16.381 Y9.544 F500.000
G1 X16.031 Y9.900 F500.000
G1 X15.938 Y9.938 F500.000
G1 X15.537 Y9.806 F500.000
G1 X15.537 Y9.806 F500.000
G1 X15.312 Y9.675 F500.000
G1 X15.194 Y9.531 F500.000
G0 X15.175 Y9.475
G0 X15.137 Y9.244
G0 X14.250 Y-8.919
G1 X14.244 Y-9.031 F500.000
G1 X14.244 Y-9.306 F500.000
G1 X14.294 Y-9.412 F500.000
G1 X14.431 Y-9.525 F500.000
G1 X14.669 Y-9.619 F500.000
G1 X14.669 Y-9.619 F500.000
G1 X15.231 Y-9.688 F500.000
G1 X15.512 Y-9.688 F500.000
G1 X15.606 Y-9.669 F500.000
G1 X16.131 Y-9.400 F500.000
G1 X16.675 Y-9.000 F500.000
G1 X16.956 Y-8.750 F500.000
G1 X17.219 Y-8.481 F500.000
G1 X17.462 Y-8.194 F500.000
G1 X17.688 Y-7.894 F500.000
G1 X18.269 Y-6.931 F500.000
G1 X18.581 Y-6.250 F500.000
G1 X18.863 Y-5.550 F500.000
G1 X19.219 Y-4.475 F500.000
G1 X19.575 Y-3.006 F500.000
G1 X19.850 Y-1.525 F500.000
G1 X19.906 Y-1.150 F500.000
G1 X20.056 Y1.081 F500.000
G1 X20.019 Y2.188 F500.000
G1 X19.950 Y2.925 F500.000
G1 X19.844 Y3.663 F500.000
G1 X19.700 Y4.394 F500.000
G1 X19.519 Y5.119 F500.000
G1 X19.181 Y6.181 F500.000
G1 X18.788 Y7.225 F500.000
G1 X18.194 Y8.588 F500.000
G1 X18.031 Y8.925 F500.000
G1 X17.844 Y9.250 F500.000
G1 X17.637 Y9.562 F500.000
G1 X17.413 Y9.863 F500.000
G1 X17.156 Y10.137 F500.000
G1 X16.825 Y10.363 F500.000
G1 X16.725 Y10.381 F500.000
G1 X15.988 Y9.969 F500.000
G1 X15.988 Y9.969 F500.000
G1 X15.762 Y9.838 F500.000
G1 X15.644 Y9.694 F500.000
G0 X15.625 Y9.637
G0 X15.594 Y9.406
G0 X15.088 Y-9.025
G1 X15.088 Y-9.137 F500.000
G1 X15.094 Y-9.412 F500.000
G1 X15.137 Y-9.525 F500.000
G1 X15.256 Y-9.669 F500.000
G1 X15.488 Y-9.794 F500.000
G1 X15.488 Y-9.794 F500.000
G1 X16.038 Y-9.944 F500.000
G1 X16.225 Y-9.956 F500.000
G1 X16.506 Y-9.887 F500.000
G1 X17.038 Y-9.625 F500.000
G1 X17.363 Y-9.444 F500.000
G1 X17.663 Y-9.225 F500.000
G1 X17.938 Y-8.969 F500.000
G1 X18.444 Y-8.412 F500.000
G1 X18.675 Y-8.119 F500.000
G1 X19.075 Y-7.487 F500.000
G1 X19.431 Y-6.825 F500.000
G1 X19.881 Y-5.787 F500.000
G1 X20.238 Y-4.713 F500.000
G1 X20.444 Y-3.987 F500.000
G1 X20.694 Y-2.881 F500.000
G1 X20.894 Y-1.769 F500.000
G1 X21.025 Y-0.644 F500.000
G1 X21.100 Y0.469 F500.000
G1 X21.119 Y1.575 F500.000
G1 X21.081 Y2.681 F500.000
G1 X20.938 Y3.788 F500.000
G1 X20.788 Y4.513 F500.000
G1 X20.506 Y5.594 F500.000
G1 X20.169 Y6.656 F500.000
G1 X19.913 Y7.356 F500.000
G1 X19.331 Y8.738 F500.000
G1 X18.788 Y9.719 F500.000
G1 X18.581 Y10.031 F500.000
G1 X18.337 Y10.312 F500.000
G1 X17.994 Y10.637 F500.000
G1 X17.644 Y10.838 F500.000
G1 X17.456 Y10.906 F500.000
G1 X17.356 Y10.900 F500.000
G1 X16.875 Y10.500 F500.000
G1 X16.788 Y10.444 F500.000
G1 X16.788 Y10.444 F500.000
G1 X16.606 Y10.256 F500.000
G1 X16.519 Y10.088 F500.000
G0 X16.506 Y10.031
G0 X15.694 Y-9.200
G1 X15.688 Y-9.319 F500.000
G1 X15.688 Y-9.594 F500.000
G1 X15.756 Y-9.762 F500.000
G1 X15.881 Y-9.906 F500.000
G1 X16.044 Y-10.012 F500.000
G1 X16.044 Y-10.012 F500.000
G1 X16.569 Y-10.238 F500.000
G1 X16.850 Y-10.294 F500.000
G1 X17.131 Y-10.256 F500.000
G1 X17.681 Y-10.062 F500.000
G1 X18.025 Y-9.919 F500.000
G1 X18.337 Y-9.719 F500.000
G1 X18.637 Y-9.494 F500.000
G1 X18.913 Y-9.244 F500.000
G1 X19.175 Y-8.981 F500.000
G1 X19.425 Y-8.700 F500.000
G1 X19.656 Y-8.406 F500.000
G1 X19.869 Y-8.094 F500.000
G1 X20.431 Y-7.112 F500.000
G1 X21.600 Y-3.294 F500.000
G1 X21.975 Y-0.894 F500.000
G1 X22.131 Y1.969 F500.000
G1 X21.931 Y4.031 F500.000
G1 X21.331 Y6.375 F500.000
G1 X20.538 Y8.512 F500.000
G1 X19.906 Y9.825 F500.000
G1 X19.262 Y10.694 F500.000
G1 X18.819 Y11.088 F500.000
G1 X18.481 Y11.306 F500.000
G1 X18.200 Y11.431 F500.000
G1 X18.000 Y11.488 F500.000
G1 X17.900 Y11.500 F500.000
G1 X17.812 Y11.444 F500.000
G1 X17.413 Y10.969 F500.000
G1 X17.413 Y10.969 F500.000
G1 X17.275 Y10.744 F500.000
G1 X17.225 Y10.562 F500.000
G0 X17.212 Y10.500
G0 X16.375 Y-9.494
G1 X16.369 Y-9.606 F500.000
G1 X16.369 Y-9.894 F500.000
G1 X16.425 Y-10.069 F500.000
G1 X16.575 Y-10.269 F500.000
G1 X16.675 Y-10.356 F500.000
G1 X16.675 Y-10.356 F500.000
G1 X17.069 Y-10.625 F500.000
G1 X17.337 Y-10.731 F500.000
G1 X17.431 Y-10.750 F500.000
G1 X17.806 Y-10.725 F500.000
G1 X18.181 Y-10.631 F500.000
G1 X18.625 Y-10.463 F500.000
G1 X18.962 Y-10.300 F500.000
G1 X19.275 Y-10.094 F500.000
G1 X19.919 Y-9.475 F500.000
G1 X20.538 Y-8.675 F500.000
G1 X21.006 Y-7.775 F500.000
G1 X21.375 Y-6.744 F500.000
G1 X22.038 Y-4.069 F500.000
G1 X22.350 Y-1.769 F500.000
G1 X22.406 Y-0.069 F500.000
G1 X22.225 Y2.837 F500.000
G1 X21.656 Y5.744 F500.000
G1 X20.512 Y9.012 F500.000
G1 X19.350 Y11.281 F500.000
G1 X18.919 Y11.825 F500.000
G1 X18.756 Y11.944 F500.000
G1 X18.469 Y12.056 F500.000
G1 X18.269 Y12.088 F500.000
G1 X18.181 Y12.037 F500.000
G1 X17.913 Y11.594 F500.000
G1 X17.913 Y11.594 F500.000
G1 X17.806 Y11.363 F500.000
G1 X17.781 Y11.169 F500.000
G0 X17.775 Y11.106
G0 X17.031 Y-9.869
G1 X17.031 Y-9.988 F500.000
G1 X17.038 Y-10.400 F500.000
G1 X17.125 Y-10.644 F500.000
G1 X17.238 Y-10.800 F500.000
G1 X17.238 Y-10.800 F500.000
G1 X17.444 Y-11.000 F500.000
G1 X17.675 Y-11.162 F500.000
G1 X17.856 Y-11.231 F500.000
G1 X18.231 Y-11.256 F500.000
G1 X18.700 Y-11.188 F500.000
G1 X19.163 Y-11.025 F500.000
G1 X19.506 Y-10.844 F500.000
G1 X19.719 Y-10.637 F500.000
G1 X20.569 Y-8.906 F500.000
G1 X20.637 Y-8.719 F500.000
G1 X20.637 Y-8.719 F500.000
G1 X20.675 Y-8.463 F500.000
G1 X20.663 Y-8.344 F500.000
G1 X20.644 Y-8.306 F500.000
G0 X20.613 Y-8.287
G0 X20.538 Y-8.306
G0 X17.769 Y-10.519
G1 X17.712 Y-10.562 F500.000
G1 X17.538 Y-10.731 F500.000
G1 X17.506 Y-10.838 F500.000
G1 X17.525 Y-11.012 F500.000
G1 X17.650 Y-11.238 F500.000
G1 X17.650 Y-11.238 F500.000
G1 X17.962 Y-11.600 F500.000
G1 X18.119 Y-11.719 F500.000
G1 X18.394 Y-11.800 F500.000
G1 X18.769 Y-11.831 F500.000
G1 X18.956 Y-11.806 F500.000
G1 X19.044 Y-11.762 F500.000
G1 X19.113 Y-11.688 F500.000
G1 X19.625 Y-10.819 F500.000
G1 X19.625 Y-10.819 F500.000
G1 X19.688 Y-10.575 F500.000
G1 X19.688 Y-10.456 F500.000
G1 X19.669 Y-10.412 F500.000
G0 X19.644 Y-10.394
G0 X19.562 Y-10.394
G0 X18.206 Y-11.062
G1 X18.144 Y-11.094 F500.000
G1 X17.975 Y-11.206 F500.000
G1 X17.913 Y-11.306 F500.000
G1 X17.900 Y-11.425 F500.000
G1 X17.994 Y-11.731 F500.000
G1 X17.994 Y-11.731 F500.000
G1 X18.325 Y-12.206 F500.000
G1 X18.400 Y-12.269 F500.000
G1 X18.481 Y-12.312 F500.000
G1 X18.575 Y-12.331 F500.000
G1 X18.669 Y-12.319 F500.000
G1 X18.750 Y-12.262 F500.000
G1 X18.969 Y-11.931 F500.000
G1 X18.969 Y-11.931 F500.000
G1 X19.012 Y-11.775 F500.000
G0 X18.994 Y-11.756
G0 X18.562 Y-11.869
G1 X18.500 Y-11.887 F500.000
G1 X18.337 Y-11.956 F500.000
G1 X18.262 Y-12.031 F500.000
G1 X18.250 Y-12.137 F500.000
G1 X18.275 Y-12.256 F500.000
G1 X18.275 Y-12.256 F500.000
G1 X18.363 Y-12.431 F500.000
G1 X18.419 Y-12.512 F500.000
G1 X18.500 Y-12.556 F500.000
G1 X18.587 Y-12.506 F500.000
G1 X18.694 Y-12.338 F500.000
G1 X18.694 Y-12.338 F500.000
G1 X18.781 Y-12.100 F500.000
G1 X18.794 Y-12.037 F500.000
G0 X18.800 Y-11.975
G0 X19.094 Y11.000
G1 X19.094 Y11.125 F500.000
G1 X19.087 Y11.606 F500.000
G1 X19.006 Y11.850 F500.000
G1 X19.006 Y11.850 F500.000
G1 X18.794 Y12.181 F500.000
G1 X18.663 Y12.325 F500.000
G1 X18.500 Y12.444 F500.000
G1 X18.406 Y12.475 F500.000
G1 X18.337 Y12.394 F500.000
G1 X18.337 Y12.394 F500.000
G1 X18.337 Y12.350 F500.000
G1 X18.363 Y12.331 F500.000
G1 X18.500 Y12.319 F500.000
G1 X18.587 Y12.350 F500.000
G1 X18.613 Y12.412 F500.000
G1 X18.613 Y12.456 F500.000
G1 X18.613 Y12.456 F500.000
G1 X18.562 Y12.537 F500.000
G1 X18.462 Y12.550 F500.000
G1 X18.381 Y12.488 F500.000
G1 X18.381 Y12.488 F500.000
G1 X18.369 Y12.450 F500.000
G1 X18.375 Y12.438 F500.000
G1 X18.394 Y12.463 F500.000
G1 X18.356 Y12.488 F500.000
G1 X18.325 Y12.488 F500.000
G1 X18.325 Y12.488 F500.000
G1 X18.106 Y12.012 F500.000
G1 X17.663 Y11.344 F500.000
G1 X17.125 Y10.769 F500.000
G1 X16.644 Y10.394 F500.000
G1 X16.113 Y10.100 F500.000
G1 X15.894 Y10.006 F500.000
G1 X15.181 Y9.756 F500.000
G1 X14.519 Y9.656 F500.000
G1 X13.756 Y9.650 F500.000
G1 X12.994 Y9.787 F500.000
G1 X12.387 Y10.000 F500.000
G1 X11.931 Y10.225 F500.000
G1 X11.613 Y10.425 F500.000
G1 X11.175 Y10.750 F500.000
G1 X10.619 Y11.331 F500.000
G1 X10.375 Y11.669 F500.000
G1 X10.031 Y12.300 F500.000
G1 X9.806 Y12.931 F500.000
G1 X9.700 Y13.419 F500.000
G1 X9.631 Y14.275 F500.000
G1 X9.669 Y14.644 F500.000
G1 X9.787 Y15.281 F500.000
G1 X9.894 Y15.631 F500.000
G1 X9.981 Y15.850 F500.000
G1 X10.331 Y16.531 F500.000
G1 X10.637 Y16.969 F500.000
G1 X10.856 Y17.212 F500.000
G1 X11.338 Y17.663 F500.000
G1 X12.088 Y18.144 F500.000
G1 X12.525 Y18.344 F500.000
G1 X12.588 Y18.400 F500.000
G1 X12.619 Y18.506 F500.000
G1 X12.575 Y18.594 F500.000
G1 X12.456 Y18.694 F500.000
G1 X12.050 Y18.956 F500.000
G1 X10.938 Y19.625 F500.000
G1 X10.075 Y20.081 F500.000
G1 X8.963 Y20.606 F500.000
G1 X7.344 Y21.238 F500.000
G1 X6.756 Y21.431 F500.000
G1 X5.763 Y21.719 F500.000
G1 X4.487 Y22.019 F500.000
G1 X3.388 Y22.212 F500.000
G1 X2.225 Y22.363 F500.000
G1 X1.775 Y22.406 F500.000
G1 X0.550 Y22.469 F500.000
G1 X-0.562 Y22.456 F500.000
G1 X-1.800 Y22.387 F500.000
G1 X-2.919 Y22.269 F500.000
G1 X-4.100 Y22.094 F500.000
G1 X-5.794 Y21.706 F500.000
G1 X-7.406 Y21.206 F500.000
G1 X-7.900 Y21.025 F500.000
G1 X-9.113 Y20.531 F500.000
G1 X-10.088 Y20.069 F500.000
G1 X-11.106 Y19.525 F500.000
G1 X-12.100 Y18.919 F500.000
G1 X-12.569 Y18.600 F500.000
G1 X-12.619 Y18.488 F500.000
G1 X-12.569 Y18.375 F500.000
G1 X-12.506 Y18.325 F500.000
G1 X-11.875 Y18.031 F500.000
G1 X-11.419 Y17.719 F500.000
G1 X-11.269 Y17.600 F500.000
G1 X-10.838 Y17.200 F500.000
G1 X-10.319 Y16.531 F500.000
G1 X-10.081 Y16.075 F500.000
G1 X-9.781 Y15.275 F500.000
G1 X-9.744 Y15.100 F500.000
G1 X-9.644 Y14.350 F500.000
G1 X-9.650 Y13.812 F500.000
G1 X-9.775 Y13.031 F500.000
G1 X-9.988 Y12.412 F500.000
G1 X-10.225 Y11.931 F500.000
G1 X-10.425 Y11.613 F500.000
G1 X-10.812 Y11.106 F500.000
G1 X-11.213 Y10.719 F500.000
G1 X-11.681 Y10.375 F500.000
G1 X-11.850 Y10.269 F500.000
G1 X-12.200 Y10.081 F500.000
G1 X-12.931 Y9.806 F500.000
G1 X-13.312 Y9.719 F500.000
G1 X-13.887 Y9.644 F500.000
G1 X-14.519 Y9.650 F500.000
G1 X-15.281 Y9.787 F500.000
G1 X-15.887 Y10.000 F500.000
G1 X-16.344 Y10.225 F500.000
G1 X-16.812 Y10.519 F500.000
G1 X-17.281 Y10.925 F500.000
G1 X-17.750 Y11.456 F500.000
G1 X-18.144 Y12.088 F500.000
G1 X-18.344 Y12.519 F500.000
G1 X-18.400 Y12.588 F500.000
G1 X-18.512 Y12.619 F500.000
G1 X-18.575 Y12.594 F500.000
G1 X-18.694 Y12.456 F500.000
G1 X-18.956 Y12.050 F500.000
G1 X-19.587 Y10.994 F500.000
G1 X-20.119 Y10.000 F500.000
G1 X-20.613 Y8.944 F500.000
G1 X-20.850 Y8.369 F500.000
G1 X-21.244 Y7.312 F500.000
G1 X-21.431 Y6.744 F500.000
G1 X-21.744 Y5.675 F500.000
G1 X-22.012 Y4.544 F500.000
G1 X-22.212 Y3.388 F500.000
G1 X-22.369 Y2.200 F500.000
G1 X-22.406 Y1.769 F500.000
G1 X-22.469 Y0.475 F500.000
G1 X-22.469 Y-0.350 F500.000
G1 X-22.394 Y-1.769 F500.000
G1 X-22.350 Y-2.288 F500.000
G1 X-22.281 Y-2.844 F500.000
G1 X-22.106 Y-4.006 F500.000
G1 X-21.994 Y-4.562 F500.000
G1 X-21.731 Y-5.694 F500.000
G1 X-21.562 Y-6.287 F500.000
G1 X-21.225 Y-7.356 F500.000
G1 X-21.025 Y-7.912 F500.000
G1 X-20.531 Y-9.106 F500.000
G1 X-20.075 Y-10.081 F500.000
G1 X-19.562 Y-11.037 F500.000
G1 X-18.975 Y-12.025 F500.000
G1 X-18.606 Y-12.569 F500.000
G1 X-18.519 Y-12.606 F500.000
G1 X-18.406 Y-12.588 F500.000
G1 X-18.350 Y-12.544 F500.000
G1 X-18.119 Y-12.056 F500.000
G1 X-17.725 Y-11.419 F500.000
G1 X-17.212 Y-10.850 F500.000
G1 X-16.512 Y-10.312 F500.000
G1 X-15.894 Y-10.006 F500.000
G1 X-15.181 Y-9.756 F500.000
G1 X-14.387 Y-9.644 F500.000
G1 X-13.731 Y-9.656 F500.000
G1 X-12.963 Y-9.800 F500.000
G1 X-12.575 Y-9.925 F500.000
G1 X-12.387 Y-10.000 F500.000
G1 X-11.931 Y-10.225 F500.000
G1 X-11.613 Y-10.425 F500.000
G1 X-11.175 Y-10.750 F500.000
G1 X-10.656 Y-11.281 F500.000
G1 X-10.356 Y-11.706 F500.000
G1 X-10.250 Y-11.881 F500.000
G1 X-10.069 Y-12.231 F500.000
G1 X-9.794 Y-12.969 F500.000
G1 X-9.706 Y-13.412 F500.000
G1 X-9.637 Y-14.238 F500.000
G1 X-9.656 Y-14.456 F500.000
G1 X-9.800 Y-15.325 F500.000
G1 X-9.988 Y-15.863 F500.000
G1 X-10.225 Y-16.344 F500.000
G1 X-10.519 Y-16.812 F500.000
G1 X-10.925 Y-17.281 F500.000
G1 X-11.456 Y-17.750 F500.000
G1 X-12.088 Y-18.144 F500.000
G1 X-12.525 Y-18.344 F500.000
G1 X-12.588 Y-18.400 F500.000
G1 X-12.619 Y-18.519 F500.000
G1 X-12.594 Y-18.575 F500.000
G1 X-12.512 Y-18.650 F500.000
G1 X-11.981 Y-19.000 F500.000
G1 X-10.944 Y-19.625 F500.000
G1 X-10.075 Y-20.081 F500.000
G1 X-8.963 Y-20.606 F500.000
G1 X-7.344 Y-21.238 F500.000
G1 X-6.806 Y-21.413 F500.000
G1 X-5.700 Y-21.731 F500.000
G1 X-4.487 Y-22.019 F500.000
G1 X-3.388 Y-22.212 F500.000
G1 X-2.225 Y-22.363 F500.000
G1 X-1.775 Y-22.406 F500.000
G1 X-0.550 Y-22.469 F500.000
G1 X0.562 Y-22.456 F500.000
G1 X1.800 Y-22.387 F500.000
G1 X2.919 Y-22.269 F500.000
G1 X4.075 Y-22.094 F500.000
G1 X4.562 Y-21.994 F500.000
G1 X5.794 Y-21.706 F500.000
G1 X7.406 Y-21.206 F500.000
G1 X7.888 Y-21.031 F500.000
G1 X9.113 Y-20.531 F500.000
G1 X10.088 Y-20.069 F500.000
G1 X11.106 Y-19.525 F500.000
G1 X12.100 Y-18.919 F500.000
G1 X12.569 Y-18.600 F500.000
G1 X12.619 Y-18.488 F500.000
G1 X12.581 Y-18.394 F500.000
G1 X12.506 Y-18.325 F500.000
G1 X11.894 Y-18.038 F500.000
G1 X11.306 Y-17.637 F500.000
G1 X10.831 Y-17.194 F500.000
G1 X10.325 Y-16.531 F500.000
G1 X10.012 Y-15.919 F500.000
G1 X9.787 Y-15.287 F500.000
G1 X9.700 Y-14.863 F500.000
G1 X9.631 Y-14.144 F500.000
G1 X9.662 Y-13.650 F500.000
G1 X9.787 Y-12.988 F500.000
G1 X9.912 Y-12.594 F500.000
G1 X10.188 Y-12.000 F500.000
G1 X10.369 Y-11.700 F500.000
G1 X10.731 Y-11.194 F500.000
G1 X11.188 Y-10.744 F500.000
G1 X11.688 Y-10.369 F500.000
G1 X12.206 Y-10.081 F500.000
G1 X12.387 Y-10.000 F500.000
G1 X12.931 Y-9.806 F500.000
G1 X13.306 Y-9.719 F500.000
G1 X13.881 Y-9.644 F500.000
G1 X14.544 Y-9.656 F500.000
G1 X15.312 Y-9.800 F500.000
G1 X15.700 Y-9.925 F500.000
G1 X15.887 Y-10.000 F500.000
G1 X16.344 Y-10.225 F500.000
G1 X16.812 Y-10.519 F500.000
G1 X17.281 Y-10.925 F500.000
G1 X17.750 Y-11.456 F500.000
G1 X18.144 Y-12.088 F500.000
G1 X18.344 Y-12.525 F500.000
G1 X18.400 Y-12.588 F500.000
G1 X18.506 Y-12.619 F500.000
G1 X18.575 Y-12.594 F500.000
G1 X18.938 Y-12.081 F500.000
G1 X19.625 Y-10.938 F500.000
G1 X20.081 Y-10.075 F500.000
G1 X20.606 Y-8.956 F500.000
G1 X20.812 Y-8.456 F500.000
G1 X21.238 Y-7.344 F500.000
G1 X21.419 Y-6.806 F500.000
G1 X21.719 Y-5.763 F500.000
G1 X22.006 Y-4.550 F500.000
G1 X22.206 Y-3.450 F500.000
G1 X22.363 Y-2.256 F500.000
G1 X22.406 Y-1.775 F500.000
G1 X22.469 Y-0.475 F500.000
G1 X22.469 Y0.350 F500.000
G1 X22.394 Y1.769 F500.000
G1 X22.350 Y2.288 F500.000
G1 X22.281 Y2.844 F500.000
G1 X22.106 Y4.006 F500.000
G1 X21.994 Y4.562 F500.000
G1 X21.731 Y5.694 F500.000
G1 X21.562 Y6.287 F500.000
G1 X21.231 Y7.344 F500.000
G1 X21.031 Y7.888 F500.000
G1 X20.550 Y9.062 F500.000
G1 X20.081 Y10.056 F500.000
G1 X19.525 Y11.100 F500.000
G1 X18.975 Y12.025 F500.000
G1 X18.606 Y12.569 F500.000
G1 X18.519 Y12.606 F500.000
G1 X18.419 Y12.594 F500.000
G1 X18.350 Y12.544 F500.000
G1 X18.319 Y12.494 F500.000
G1 X18.325 Y12.488 F500.000
G0 Z5.000
G0 Z5.000
(Finish operation: Adaptive)
(Block-name: Profile)
(Block-expand: 0)
(Block-enable: 1)
(Begin operation: Profile)
(Path: Profile)
(Profile)
(Compensated Tool Path. Diameter: 3.0)
G0 Z5.000
G0 X-10.943 Y-10.943
G0 Z3.000
G1 X-10.943 Y-10.943 Z-1.600 F400.000
G2 X-13.318 Y-18.591 Z-1.600 I-3.200 J-3.200 K0.000 F500.000
G2 X-14.966 Y-9.693 Z-1.600 I-0.824 J4.449 K0.000 F500.000
G2 X-10.943 Y-10.943 Z-1.600 I0.824 J-4.449 K0.000 F500.000
G0 Z5.000
G0 Z5.000
G0 X-10.943 Y-10.943
G0 X-13.570 Y9.654
G0 X-13.570 Y9.654 Z3.000
G1 X-13.570 Y9.654 Z-1.600 F400.000
G2 X-14.966 Y18.591 Z-1.600 I-0.573 J4.488 K0.000 F500.000
G2 X-13.318 Y9.693 Z-1.600 I0.824 J-4.449 K0.000 F500.000
G2 X-13.570 Y9.654 Z-1.600 I-0.824 J4.449 K0.000 F500.000
G0 Z5.000
G0 Z5.000
G0 X-13.570 Y9.654
G0 X9.676 Y13.419
G0 X9.676 Y13.419 Z3.000
G1 X9.676 Y13.419 Z-1.600 F400.000
G2 X18.591 Y14.966 Z-1.600 I4.467 J0.723 K0.000 F500.000
G2 X9.693 Y13.318 Z-1.600 I-4.449 J-0.824 K0.000 F500.000
G2 X9.676 Y13.419 Z-1.600 I4.449 J0.824 K0.000 F500.000
G0 Z5.000
G0 Z5.000
G0 X9.676 Y13.419
G0 X13.418 Y-9.676
G0 X13.418 Y-9.676 Z3.000
G1 X13.418 Y-9.676 Z-1.600 F400.000
G2 X18.591 Y-13.318 Z-1.600 I0.724 J-4.467 K0.000 F500.000
G2 X9.693 Y-14.966 Z-1.600 I-4.449 J-0.824 K0.000 F500.000
G2 X13.418 Y-9.676 Z-1.600 I4.449 J0.824 K0.000 F500.000
G0 Z5.000
G0 Z5.000
(Finish operation: Profile)
(Block-name: Adaptive001)
(Block-expand: 0)
(Block-enable: 1)
(Begin operation: Adaptive001)
(Path: Adaptive001)
(Adaptive001)
(Helix to depth: -3.000000)
G0 Z5.000
G0 X0.770 Y15.320 Z5.000
G0 X0.770 Y15.320 Z3.000
G1 X0.770 Y15.320 Z0.000 F400.000
G1 X0.770 Y15.320 Z0.000 F400.000
G1 X0.916 Y15.482 Z-0.019 F400.000
G1 X1.028 Y15.670 Z-0.039 F400.000
G1 X1.101 Y15.876 Z-0.058 F400.000
G1 X1.133 Y16.093 Z-0.077 F400.000
G1 X1.121 Y16.311 Z-0.097 F400.000
G1 X1.067 Y16.523 Z-0.116 F400.000
G1 X0.973 Y16.720 Z-0.135 F400.000
G1 X0.843 Y16.895 Z-0.155 F400.000
G1 X0.680 Y17.041 Z-0.174 F400.000
G1 X0.492 Y17.153 Z-0.193 F400.000
G1 X0.286 Y17.226 Z-0.213 F400.000
G1 X0.070 Y17.258 Z-0.232 F400.000
G1 X-0.148 Y17.246 Z-0.251 F400.000
G1 X-0.360 Y17.192 Z-0.271 F400.000
G1 X-0.557 Y17.098 Z-0.290 F400.000
G1 X-0.733 Y16.968 Z-0.309 F400.000
G1 X-0.879 Y16.805 Z-0.329 F400.000
G1 X-0.991 Y16.617 Z-0.348 F400.000
G1 X-1.064 Y16.411 Z-0.367 F400.000
G1 X-1.095 Y16.195 Z-0.387 F400.000
G1 X-1.084 Y15.977 Z-0.406 F400.000
G1 X-1.030 Y15.765 Z-0.425 F400.000
G1 X-0.936 Y15.568 Z-0.444 F400.000
G1 X-0.805 Y15.392 Z-0.464 F400.000
G1 X-0.643 Y15.246 Z-0.483 F400.000
G1 X-0.455 Y15.134 Z-0.502 F400.000
G1 X-0.249 Y15.061 Z-0.522 F400.000
G1 X-0.032 Y15.030 Z-0.541 F400.000
G1 X0.186 Y15.041 Z-0.560 F400.000
G1 X0.398 Y15.095 Z-0.580 F400.000
G1 X0.595 Y15.189 Z-0.599 F400.000
G1 X0.770 Y15.320 Z-0.618 F400.000
G1 X0.916 Y15.482 Z-0.638 F400.000
G1 X1.028 Y15.670 Z-0.657 F400.000
G1 X1.101 Y15.876 Z-0.676 F400.000
G1 X1.133 Y16.093 Z-0.696 F400.000
G1 X1.121 Y16.311 Z-0.715 F400.000
G1 X1.067 Y16.523 Z-0.734 F400.000
G1 X0.973 Y16.720 Z-0.754 F400.000
G1 X0.843 Y16.895 Z-0.773 F400.000
G1 X0.680 Y17.041 Z-0.792 F400.000
G1 X0.492 Y17.153 Z-0.812 F400.000
G1 X0.286 Y17.226 Z-0.831 F400.000
G1 X0.070 Y17.258 Z-0.850 F400.000
G1 X-0.148 Y17.246 Z-0.870 F400.000
G1 X-0.360 Y17.192 Z-0.889 F400.000
G1 X-0.557 Y17.098 Z-0.908 F400.000
G1 X-0.733 Y16.968 Z-0.928 F400.000
G1 X-0.879 Y16.805 Z-0.947 F400.000
G1 X-0.991 Y16.617 Z-0.966 F400.000
G1 X-1.064 Y16.411 Z-0.986 F400.000
G1 X-1.095 Y16.195 Z-1.005 F400.000
G1 X-1.084 Y15.977 Z-1.024 F400.000
G1 X-1.030 Y15.765 Z-1.044 F400.000
G1 X-0.936 Y15.568 Z-1.063 F400.000
G1 X-0.805 Y15.392 Z-1.082 F400.000
G1 X-0.643 Y15.246 Z-1.102 F400.000
G1 X-0.455 Y15.134 Z-1.121 F400.000
G1 X-0.249 Y15.061 Z-1.140 F400.000
G1 X-0.032 Y15.030 Z-1.160 F400.000
G1 X0.186 Y15.041 Z-1.179 F400.000
G1 X0.398 Y15.095 Z-1.198 F400.000
G1 X0.595 Y15.189 Z-1.218 F400.000
G1 X0.770 Y15.320 Z-1.237 F400.000
G1 X0.916 Y15.482 Z-1.256 F400.000
G1 X1.028 Y15.670 Z-1.275 F400.000
G1 X1.101 Y15.876 Z-1.295 F400.000
G1 X1.133 Y16.093 Z-1.314 F400.000
G1 X1.121 Y16.311 Z-1.333 F400.000
G1 X1.067 Y16.523 Z-1.353 F400.000
G1 X0.973 Y16.720 Z-1.372 F400.000
G1 X0.843 Y16.895 Z-1.391 F400.000
G1 X0.680 Y17.041 Z-1.411 F400.000
G1 X0.492 Y17.153 Z-1.430 F400.000
G1 X0.286 Y17.226 Z-1.449 F400.000
G1 X0.070 Y17.258 Z-1.469 F400.000
G1 X-0.148 Y17.246 Z-1.488 F400.000
G1 X-0.360 Y17.192 Z-1.507 F400.000
G1 X-0.557 Y17.098 Z-1.527 F400.000
G1 X-0.733 Y16.968 Z-1.546 F400.000
G1 X-0.879 Y16.805 Z-1.565 F400.000
G1 X-0.991 Y16.617 Z-1.585 F400.000
G1 X-1.064 Y16.411 Z-1.604 F400.000
G1 X-1.095 Y16.195 Z-1.623 F400.000
G1 X-1.084 Y15.977 Z-1.643 F400.000
G1 X-1.030 Y15.765 Z-1.662 F400.000
G1 X-0.936 Y15.568 Z-1.681 F400.000
G1 X-0.805 Y15.392 Z-1.701 F400.000
G1 X-0.643 Y15.246 Z-1.720 F400.000
G1 X-0.455 Y15.134 Z-1.739 F400.000
G1 X-0.249 Y15.061 Z-1.759 F400.000
G1 X-0.032 Y15.030 Z-1.778 F400.000
G1 X0.186 Y15.041 Z-1.797 F400.000
G1 X0.398 Y15.095 Z-1.817 F400.000
G1 X0.595 Y15.189 Z-1.836 F400.000
G1 X0.770 Y15.320 Z-1.855 F400.000
G1 X0.916 Y15.482 Z-1.875 F400.000
G1 X1.028 Y15.670 Z-1.894 F400.000
G1 X1.101 Y15.876 Z-1.913 F400.000
G1 X1.133 Y16.093 Z-1.933 F400.000
G1 X1.121 Y16.311 Z-1.952 F400.000
G1 X1.067 Y16.523 Z-1.971 F400.000
G1 X0.973 Y16.720 Z-1.991 F400.000
G1 X0.843 Y16.895 Z-2.010 F400.000
G1 X0.680 Y17.041 Z-2.029 F400.000
G1 X0.492 Y17.153 Z-2.049 F400.000
G1 X0.286 Y17.226 Z-2.068 F400.000
G1 X0.070 Y17.258 Z-2.087 F400.000
G1 X-0.148 Y17.246 Z-2.106 F400.000
G1 X-0.360 Y17.192 Z-2.126 F400.000
G1 X-0.557 Y17.098 Z-2.145 F400.000
G1 X-0.733 Y16.968 Z-2.164 F400.000
G1 X-0.879 Y16.805 Z-2.184 F400.000
G1 X-0.991 Y16.617 Z-2.203 F400.000
G1 X-1.064 Y16.411 Z-2.222 F400.000
G1 X-1.095 Y16.195 Z-2.242 F400.000
G1 X-1.084 Y15.977 Z-2.261 F400.000
G1 X-1.030 Y15.765 Z-2.280 F400.000
G1 X-0.936 Y15.568 Z-2.300 F400.000
G1 X-0.805 Y15.392 Z-2.319 F400.000
G1 X-0.643 Y15.246 Z-2.338 F400.000
G1 X-0.455 Y15.134 Z-2.358 F400.000
G1 X-0.249 Y15.061 Z-2.377 F400.000
G1 X-0.032 Y15.030 Z-2.396 F400.000
G1 X0.186 Y15.041 Z-2.416 F400.000
G1 X0.398 Y15.095 Z-2.435 F400.000
G1 X0.595 Y15.189 Z-2.454 F400.000
G1 X0.770 Y15.320 Z-2.474 F400.000
G1 X0.916 Y15.482 Z-2.493 F400.000
G1 X1.028 Y15.670 Z-2.512 F400.000
G1 X1.101 Y15.876 Z-2.532 F400.000
G1 X1.133 Y16.093 Z-2.551 F400.000
G1 X1.121 Y16.311 Z-2.570 F400.000
G1 X1.067 Y16.523 Z-2.590 F400.000
G1 X0.973 Y16.720 Z-2.609 F400.000
G1 X0.843 Y16.895 Z-2.628 F400.000
G1 X0.680 Y17.041 Z-2.648 F400.000
G1 X0.492 Y17.153 Z-2.667 F400.000
G1 X0.286 Y17.226 Z-2.686 F400.000
G1 X0.070 Y17.258 Z-2.706 F400.000
G1 X-0.148 Y17.246 Z-2.725 F400.000
G1 X-0.360 Y17.192 Z-2.744 F400.000
G1 X-0.557 Y17.098 Z-2.764 F400.000
G1 X-0.733 Y16.968 Z-2.783 F400.000
G1 X-0.879 Y16.805 Z-2.802 F400.000
G1 X-0.991 Y16.617 Z-2.822 F400.000
G1 X-1.064 Y16.411 Z-2.841 F400.000
G1 X-1.095 Y16.195 Z-2.860 F400.000
G1 X-1.084 Y15.977 Z-2.880 F400.000
G1 X-1.030 Y15.765 Z-2.899 F400.000
G1 X-0.936 Y15.568 Z-2.918 F400.000
G1 X-0.805 Y15.392 Z-2.937 F400.000
G1 X-0.643 Y15.246 Z-2.957 F400.000
G1 X-0.455 Y15.134 Z-2.976 F400.000
G1 X-0.249 Y15.061 Z-2.995 F400.000
G1 X-0.032 Y15.030 Z-3.000 F500.000
G1 X0.186 Y15.041 Z-3.000 F500.000
G1 X0.398 Y15.095 Z-3.000 F500.000
G1 X0.595 Y15.189 Z-3.000 F500.000
G1 X0.770 Y15.320 Z-3.000 F500.000
G1 X0.916 Y15.482 Z-3.000 F500.000
G1 X1.028 Y15.670 Z-3.000 F500.000
G1 X1.101 Y15.876 Z-3.000 F500.000
G1 X1.133 Y16.093 Z-3.000 F500.000
G1 X1.121 Y16.311 Z-3.000 F500.000
G1 X1.067 Y16.523 Z-3.000 F500.000
G1 X0.973 Y16.720 Z-3.000 F500.000
G1 X0.843 Y16.895 Z-3.000 F500.000
G1 X0.680 Y17.041 Z-3.000 F500.000
G1 X0.492 Y17.153 Z-3.000 F500.000
G1 X0.286 Y17.226 Z-3.000 F500.000
G1 X0.070 Y17.258 Z-3.000 F500.000
G1 X-0.148 Y17.246 Z-3.000 F500.000
G1 X-0.360 Y17.192 Z-3.000 F500.000
G1 X-0.557 Y17.098 Z-3.000 F500.000
G1 X-0.733 Y16.968 Z-3.000 F500.000
G1 X-0.879 Y16.805 Z-3.000 F500.000
G1 X-0.991 Y16.617 Z-3.000 F500.000
G1 X-1.064 Y16.411 Z-3.000 F500.000
G1 X-1.095 Y16.195 Z-3.000 F500.000
G1 X-1.084 Y15.977 Z-3.000 F500.000
G1 X-1.030 Y15.765 Z-3.000 F500.000
G1 X-0.936 Y15.568 Z-3.000 F500.000
G1 X-0.805 Y15.392 Z-3.000 F500.000
G1 X-0.643 Y15.246 Z-3.000 F500.000
G1 X-0.455 Y15.134 Z-3.000 F500.000
G1 X-0.249 Y15.061 Z-3.000 F500.000
(Adaptive - depth: -3.000000)
G1 X0.019 Y15.019 F500.000
G1 X0.163 Y14.875 F500.000
G1 X0.250 Y14.825 F500.000
G1 X0.438 Y14.769 F500.000
G1 X0.719 Y14.762 F500.000
G1 X0.812 Y14.781 F500.000
G1 X1.150 Y14.931 F500.000
G1 X1.375 Y15.113 F500.000
G1 X1.512 Y15.281 F500.000
G1 X1.631 Y15.463 F500.000
G1 X1.750 Y15.744 F500.000
G1 X1.806 Y16.044 F500.000
G1 X1.819 Y16.312 F500.000
G1 X1.781 Y16.600 F500.000
G1 X1.694 Y16.875 F500.000
G1 X1.562 Y17.131 F500.000
G1 X1.387 Y17.356 F500.000
G1 X1.175 Y17.550 F500.000
G1 X0.931 Y17.706 F500.000
G1 X0.675 Y17.837 F500.000
G1 X0.338 Y17.931 F500.000
G1 X0.031 Y17.956 F500.000
G1 X-0.237 Y17.944 F500.000
G1 X-0.531 Y17.875 F500.000
G1 X-0.800 Y17.762 F500.000
G1 X-1.050 Y17.606 F500.000
G1 X-1.275 Y17.406 F500.000
G1 X-1.469 Y17.188 F500.000
G1 X-1.644 Y16.894 F500.000
G1 X-1.744 Y16.594 F500.000
G1 X-1.794 Y16.331 F500.000
G1 X-1.800 Y16.031 F500.000
G1 X-1.750 Y15.738 F500.000
G1 X-1.663 Y15.469 F500.000
G1 X-1.538 Y15.200 F500.000
G1 X-1.331 Y14.919 F500.000
G1 X-1.113 Y14.694 F500.000
G1 X-0.875 Y14.481 F500.000
G1 X-0.569 Y14.262 F500.000
G1 X-0.231 Y14.094 F500.000
G1 X0.131 Y13.994 F500.000
G1 X0.412 Y13.969 F500.000
G1 X0.669 Y13.981 F500.000
G1 X0.969 Y14.025 F500.000
G1 X1.319 Y14.156 F500.000
G1 X1.594 Y14.300 F500.000
G1 X1.856 Y14.506 F500.000
G1 X2.056 Y14.719 F500.000
G1 X2.250 Y14.969 F500.000
G1 X2.419 Y15.300 F500.000
G1 X2.525 Y15.606 F500.000
G1 X2.594 Y15.938 F500.000
G1 X2.612 Y16.288 F500.000
G1 X2.581 Y16.625 F500.000
G1 X2.506 Y16.962 F500.000
G1 X2.381 Y17.288 F500.000
