(Exported by FreeCAD)
(Post Processor: grbl_post)
(Output Time:2023-12-12 13:47:21.281420)
(Begin preamble)
G17 G90
G21
(Block-name: G54)
(Block-expand: 0)
(Block-enable: 1)
(Begin operation: G54)
(Path: G54)
G54
G0 Z5.000
(Finish operation: G54)
(Block-name: 3mm Endmill001)
(Block-expand: 0)
(Block-enable: 1)
(Begin operation: 3mm Endmill001)
(Path: 3mm Endmill001)
(3mm Endmill001)
(Begin toolchange)
( M6 T2 )
M3 S10000
(Finish operation: 3mm Endmill001)
(Block-name: Adaptive)
(Block-expand: 0)
(Block-enable: 1)
(Begin operation: Adaptive)
(Path: Adaptive)
(Adaptive)
(Helix to depth: -2.000000)
G0 Z5.000
G0 X-19.024 Y18.039 Z5.000
G0 X-19.024 Y18.039 Z3.000
G1 X-19.024 Y18.039 Z0.000 F7.000
G1 X-19.024 Y18.039 Z0.000 F7.000
G1 X-19.027 Y17.821 Z-0.019 F7.000
G1 X-18.988 Y17.606 Z-0.039 F7.000
G1 X-18.908 Y17.403 Z-0.058 F7.000
G1 X-18.789 Y17.220 Z-0.077 F7.000
G1 X-18.637 Y17.063 Z-0.097 F7.000
G1 X-18.457 Y16.939 Z-0.116 F7.000
G1 X-18.257 Y16.852 Z-0.135 F7.000
G1 X-18.043 Y16.807 Z-0.154 F7.000
G1 X-17.825 Y16.803 Z-0.174 F7.000
G1 X-17.610 Y16.843 Z-0.193 F7.000
G1 X-17.407 Y16.923 Z-0.212 F7.000
G1 X-17.223 Y17.042 Z-0.232 F7.000
G1 X-17.067 Y17.194 Z-0.251 F7.000
G1 X-16.943 Y17.374 Z-0.270 F7.000
G1 X-16.856 Y17.574 Z-0.290 F7.000
G1 X-16.810 Y17.788 Z-0.309 F7.000
G1 X-16.807 Y18.006 Z-0.328 F7.000
G1 X-16.847 Y18.221 Z-0.348 F7.000
G1 X-16.927 Y18.424 Z-0.367 F7.000
G1 X-17.046 Y18.607 Z-0.386 F7.000
G1 X-17.198 Y18.764 Z-0.405 F7.000
G1 X-17.378 Y18.888 Z-0.425 F7.000
G1 X-17.578 Y18.975 Z-0.444 F7.000
G1 X-17.792 Y19.020 Z-0.463 F7.000
G1 X-18.010 Y19.024 Z-0.483 F7.000
G1 X-18.225 Y18.984 Z-0.502 F7.000
G1 X-18.428 Y18.904 Z-0.521 F7.000
G1 X-18.611 Y18.785 Z-0.541 F7.000
G1 X-18.768 Y18.633 Z-0.560 F7.000
G1 X-18.892 Y18.453 Z-0.579 F7.000
G1 X-18.978 Y18.253 Z-0.599 F7.000
G1 X-19.024 Y18.039 Z-0.618 F7.000
G1 X-19.027 Y17.821 Z-0.637 F7.000
G1 X-18.988 Y17.606 Z-0.657 F7.000
G1 X-18.908 Y17.403 Z-0.676 F7.000
G1 X-18.789 Y17.220 Z-0.695 F7.000
G1 X-18.637 Y17.063 Z-0.714 F7.000
G1 X-18.457 Y16.939 Z-0.734 F7.000
G1 X-18.257 Y16.852 Z-0.753 F7.000
G1 X-18.043 Y16.807 Z-0.772 F7.000
G1 X-17.825 Y16.803 Z-0.792 F7.000
G1 X-17.610 Y16.843 Z-0.811 F7.000
G1 X-17.407 Y16.923 Z-0.830 F7.000
G1 X-17.223 Y17.042 Z-0.850 F7.000
G1 X-17.067 Y17.194 Z-0.869 F7.000
G1 X-16.943 Y17.374 Z-0.888 F7.000
G1 X-16.856 Y17.574 Z-0.908 F7.000
G1 X-16.810 Y17.788 Z-0.927 F7.000
G1 X-16.807 Y18.006 Z-0.946 F7.000
G1 X-16.847 Y18.221 Z-0.965 F7.000
G1 X-16.927 Y18.424 Z-0.985 F7.000
G1 X-17.046 Y18.607 Z-1.004 F7.000
G1 X-17.198 Y18.764 Z-1.023 F7.000
G1 X-17.378 Y18.888 Z-1.043 F7.000
G1 X-17.578 Y18.975 Z-1.062 F7.000
G1 X-17.792 Y19.020 Z-1.081 F7.000
G1 X-18.010 Y19.024 Z-1.101 F7.000
G1 X-18.225 Y18.984 Z-1.120 F7.000
G1 X-18.428 Y18.904 Z-1.139 F7.000
G1 X-18.611 Y18.785 Z-1.159 F7.000
G1 X-18.768 Y18.633 Z-1.178 F7.000
G1 X-18.892 Y18.453 Z-1.197 F7.000
G1 X-18.978 Y18.253 Z-1.216 F7.000
G1 X-19.024 Y18.039 Z-1.236 F7.000
G1 X-19.027 Y17.821 Z-1.255 F7.000
G1 X-18.988 Y17.606 Z-1.274 F7.000
G1 X-18.908 Y17.403 Z-1.294 F7.000
G1 X-18.789 Y17.220 Z-1.313 F7.000
G1 X-18.637 Y17.063 Z-1.332 F7.000
G1 X-18.457 Y16.939 Z-1.352 F7.000
G1 X-18.257 Y16.852 Z-1.371 F7.000
G1 X-18.043 Y16.807 Z-1.390 F7.000
G1 X-17.825 Y16.803 Z-1.410 F7.000
G1 X-17.610 Y16.843 Z-1.429 F7.000
G1 X-17.407 Y16.923 Z-1.448 F7.000
G1 X-17.223 Y17.042 Z-1.468 F7.000
G1 X-17.067 Y17.194 Z-1.487 F7.000
G1 X-16.943 Y17.374 Z-1.506 F7.000
G1 X-16.856 Y17.574 Z-1.525 F7.000
G1 X-16.810 Y17.788 Z-1.545 F7.000
G1 X-16.807 Y18.006 Z-1.564 F7.000
G1 X-16.847 Y18.221 Z-1.583 F7.000
G1 X-16.927 Y18.424 Z-1.603 F7.000
G1 X-17.046 Y18.607 Z-1.622 F7.000
G1 X-17.198 Y18.764 Z-1.641 F7.000
G1 X-17.378 Y18.888 Z-1.661 F7.000
G1 X-17.578 Y18.975 Z-1.680 F7.000
G1 X-17.792 Y19.020 Z-1.699 F7.000
G1 X-18.010 Y19.024 Z-1.719 F7.000
G1 X-18.225 Y18.984 Z-1.738 F7.000
G1 X-18.428 Y18.904 Z-1.757 F7.000
G1 X-18.611 Y18.785 Z-1.776 F7.000
G1 X-18.768 Y18.633 Z-1.796 F7.000
G1 X-18.892 Y18.453 Z-1.815 F7.000
G1 X-18.978 Y18.253 Z-1.834 F7.000
G1 X-19.024 Y18.039 Z-1.854 F7.000
G1 X-19.027 Y17.821 Z-1.873 F7.000
G1 X-18.988 Y17.606 Z-1.892 F7.000
G1 X-18.908 Y17.403 Z-1.912 F7.000
G1 X-18.789 Y17.220 Z-1.931 F7.000
G1 X-18.637 Y17.063 Z-1.950 F7.000
G1 X-18.457 Y16.939 Z-1.970 F7.000
G1 X-18.257 Y16.852 Z-1.989 F7.000
G1 X-18.043 Y16.807 Z-2.000 F10.000
G1 X-17.825 Y16.803 Z-2.000 F10.000
G1 X-17.610 Y16.843 Z-2.000 F10.000
G1 X-17.407 Y16.923 Z-2.000 F10.000
G1 X-17.223 Y17.042 Z-2.000 F10.000
G1 X-17.067 Y17.194 Z-2.000 F10.000
G1 X-16.943 Y17.374 Z-2.000 F10.000
G1 X-16.856 Y17.574 Z-2.000 F10.000
G1 X-16.810 Y17.788 Z-2.000 F10.000
G1 X-16.807 Y18.006 Z-2.000 F10.000
G1 X-16.847 Y18.221 Z-2.000 F10.000
G1 X-16.927 Y18.424 Z-2.000 F10.000
G1 X-17.046 Y18.607 Z-2.000 F10.000
G1 X-17.198 Y18.764 Z-2.000 F10.000
G1 X-17.378 Y18.888 Z-2.000 F10.000
G1 X-17.578 Y18.975 Z-2.000 F10.000
G1 X-17.792 Y19.020 Z-2.000 F10.000
G1 X-18.010 Y19.024 Z-2.000 F10.000
G1 X-18.225 Y18.984 Z-2.000 F10.000
G1 X-18.428 Y18.904 Z-2.000 F10.000
G1 X-18.611 Y18.785 Z-2.000 F10.000
G1 X-18.768 Y18.633 Z-2.000 F10.000
G1 X-18.892 Y18.453 Z-2.000 F10.000
G1 X-18.978 Y18.253 Z-2.000 F10.000
G1 X-19.024 Y18.039 Z-2.000 F10.000
G1 X-19.027 Y17.821 Z-2.000 F10.000
G1 X-18.988 Y17.606 Z-2.000 F10.000
G1 X-18.908 Y17.403 Z-2.000 F10.000
G1 X-18.789 Y17.220 Z-2.000 F10.000
G1 X-18.637 Y17.063 Z-2.000 F10.000
G1 X-18.457 Y16.939 Z-2.000 F10.000
G1 X-18.257 Y16.852 Z-2.000 F10.000
(Adaptive - depth: -2.000000)
G1 X-17.917 Y16.789 F10.000
G1 X-17.872 Y16.744 F10.000
G1 X-17.695 Y16.684 F10.000
G1 X-17.515 Y16.673 F10.000
G1 X-17.395 Y16.692 F10.000
G1 X-17.086 Y16.820 F10.000
G1 X-16.906 Y16.955 F10.000
G1 X-16.805 Y17.056 F10.000
G1 X-16.707 Y17.184 F10.000
G1 X-16.617 Y17.342 F10.000
G1 X-16.538 Y17.556 F10.000
G1 X-16.496 Y17.752 F10.000
G1 X-16.481 Y17.951 F10.000
G1 X-16.496 Y18.158 F10.000
G1 X-16.541 Y18.357 F10.000
G1 X-16.624 Y18.545 F10.000
G1 X-16.714 Y18.695 F10.000
G1 X-16.831 Y18.850 F10.000
G1 X-16.996 Y19.011 F10.000
G1 X-17.177 Y19.143 F10.000
G1 X-17.368 Y19.241 F10.000
G1 X-17.553 Y19.297 F10.000
G1 X-17.737 Y19.327 F10.000
G1 X-17.932 Y19.335 F10.000
G1 X-18.154 Y19.312 F10.000
G1 X-18.372 Y19.259 F10.000
G1 X-18.568 Y19.173 F10.000
G1 X-18.733 Y19.075 F10.000
G1 X-18.895 Y18.940 F10.000
G1 X-19.034 Y18.786 F10.000
G1 X-19.147 Y18.617 F10.000
G1 X-19.237 Y18.429 F10.000
G1 X-19.297 Y18.233 F10.000
G1 X-19.327 Y18.030 F10.000
G1 X-19.327 Y17.827 F10.000
G1 X-19.297 Y17.624 F10.000
G1 X-19.241 Y17.429 F10.000
G1 X-19.154 Y17.241 F10.000
G1 X-19.041 Y17.068 F10.000
G1 X-18.910 Y16.910 F10.000
G1 X-18.744 Y16.763 F10.000
G1 X-18.571 Y16.639 F10.000
G1 X-18.361 Y16.519 F10.000
G1 X-18.064 Y16.398 F10.000
G1 X-17.823 Y16.350 F10.000
G1 X-17.703 Y16.342 F10.000
G1 X-17.331 Y16.380 F10.000
G1 X-17.023 Y16.492 F10.000
G1 X-16.880 Y16.571 F10.000
G1 X-16.752 Y16.662 F10.000
G1 X-16.609 Y16.789 F10.000
G1 X-16.444 Y16.989 F10.000
G1 X-16.320 Y17.184 F10.000
G1 X-16.233 Y17.391 F10.000
G1 X-16.180 Y17.575 F10.000
G1 X-16.147 Y17.786 F10.000
G1 X-16.143 Y18.026 F10.000
G1 X-16.169 Y18.256 F10.000
G1 X-16.222 Y18.477 F10.000
G1 X-16.312 Y18.692 F10.000
G1 X-16.410 Y18.865 F10.000
G1 X-16.538 Y19.041 F10.000
G1 X-16.707 Y19.218 F10.000
G1 X-16.895 Y19.368 F10.000
G1 X-17.098 Y19.485 F10.000
G1 X-17.286 Y19.564 F10.000
G1 X-17.504 Y19.624 F10.000
G1 X-17.726 Y19.658 F10.000
G1 X-17.974 Y19.662 F10.000
G1 X-18.203 Y19.639 F10.000
G1 X-18.432 Y19.586 F10.000
G1 X-18.654 Y19.496 F10.000
G1 X-18.835 Y19.398 F10.000
G1 X-19.019 Y19.263 F10.000
G1 X-19.180 Y19.105 F10.000
G1 X-19.323 Y18.936 F10.000
G1 X-19.455 Y18.722 F10.000
G1 X-19.549 Y18.508 F10.000
G1 X-19.609 Y18.282 F10.000
G1 X-19.635 Y18.083 F10.000
G1 X-19.643 Y17.861 F10.000
G1 X-19.617 Y17.609 F10.000
G1 X-19.556 Y17.372 F10.000
G1 X-19.481 Y17.173 F10.000
G1 X-19.368 Y16.966 F10.000
G1 X-19.233 Y16.778 F10.000
G1 X-19.083 Y16.609 F10.000
G1 X-18.895 Y16.432 F10.000
G1 X-18.662 Y16.271 F10.000
G1 X-18.436 Y16.154 F10.000
G1 X-18.218 Y16.075 F10.000
G1 X-17.992 Y16.023 F10.000
G1 X-17.756 Y16.000 F10.000
G1 X-17.523 Y16.000 F10.000
G1 X-17.259 Y16.034 F10.000
G1 X-17.023 Y16.102 F10.000
G1 X-16.823 Y16.192 F10.000
G1 X-16.643 Y16.297 F10.000
G1 X-16.451 Y16.444 F10.000
G1 X-16.278 Y16.620 F10.000
G1 X-16.135 Y16.801 F10.000
G1 X-16.011 Y17.008 F10.000
G1 X-15.910 Y17.226 F10.000
G1 X-15.827 Y17.481 F10.000
G1 X-15.782 Y17.722 F10.000
G1 X-15.763 Y17.970 F10.000
G1 X-15.782 Y18.222 F10.000
G1 X-15.823 Y18.436 F10.000
G1 X-15.898 Y18.665 F10.000
G1 X-15.992 Y18.883 F10.000
G1 X-16.135 Y19.120 F10.000
G1 X-16.286 Y19.320 F10.000
G1 X-16.466 Y19.496 F10.000
G1 X-16.643 Y19.632 F10.000
G1 X-16.850 Y19.759 F10.000
G1 X-17.094 Y19.872 F10.000
G1 X-17.353 Y19.959 F10.000
G1 X-17.609 Y20.004 F10.000
G1 X-17.835 Y20.023 F10.000
G1 X-18.086 Y20.011 F10.000
G1 X-18.331 Y19.974 F10.000
G1 X-18.602 Y19.898 F10.000
G1 X-18.842 Y19.801 F10.000
G1 X-19.068 Y19.665 F10.000
G1 X-19.233 Y19.538 F10.000
G1 X-19.410 Y19.376 F10.000
G1 X-19.586 Y19.165 F10.000
G1 X-19.733 Y18.947 F10.000
G1 X-19.842 Y18.711 F10.000
G1 X-19.917 Y18.496 F10.000
G1 X-19.970 Y18.252 F10.000
G1 X-19.992 Y18.008 F10.000
G1 X-19.985 Y17.748 F10.000
G1 X-19.951 Y17.496 F10.000
G1 X-19.887 Y17.252 F10.000
G1 X-19.793 Y17.011 F10.000
G1 X-19.673 Y16.786 F10.000
G1 X-19.534 Y16.571 F10.000
G1 X-19.350 Y16.353 F10.000
G1 X-19.154 Y16.173 F10.000
G1 X-18.940 Y16.011 F10.000
G1 X-18.703 Y15.872 F10.000
G1 X-18.459 Y15.763 F10.000
G1 X-18.203 Y15.680 F10.000
G1 X-17.940 Y15.628 F10.000
G1 X-17.673 Y15.613 F10.000
G1 X-17.447 Y15.624 F10.000
G1 X-17.195 Y15.658 F10.000
G1 X-16.914 Y15.741 F10.000
G1 X-16.677 Y15.835 F10.000
G1 X-16.447 Y15.966 F10.000
G1 X-16.263 Y16.102 F10.000
G1 X-16.079 Y16.267 F10.000
G1 X-15.895 Y16.474 F10.000
G1 X-15.733 Y16.703 F10.000
G1 X-15.602 Y16.940 F10.000
G1 X-15.492 Y17.195 F10.000
G1 X-15.425 Y17.459 F10.000
G1 X-15.387 Y17.688 F10.000
G1 X-15.376 Y17.944 F10.000
G1 X-15.387 Y18.195 F10.000
G1 X-15.436 Y18.485 F10.000
G1 X-15.511 Y18.744 F10.000
G1 X-15.613 Y18.996 F10.000
G1 X-15.744 Y19.237 F10.000
G1 X-15.898 Y19.459 F10.000
G1 X-16.075 Y19.665 F10.000
G1 X-16.278 Y19.853 F10.000
G1 X-16.496 Y20.015 F10.000
G1 X-16.729 Y20.150 F10.000
G1 X-16.977 Y20.259 F10.000
G1 X-17.237 Y20.342 F10.000
G1 X-17.504 Y20.395 F10.000
G1 X-17.774 Y20.421 F10.000
G1 X-18.045 Y20.417 F10.000
G1 X-18.316 Y20.383 F10.000
G1 X-18.583 Y20.320 F10.000
G1 X-18.838 Y20.229 F10.000
G1 X-19.083 Y20.109 F10.000
G1 X-19.316 Y19.962 F10.000
G1 X-19.530 Y19.793 F10.000
G1 X-19.726 Y19.602 F10.000
G1 X-19.898 Y19.387 F10.000
G1 X-20.049 Y19.158 F10.000
G1 X-20.173 Y18.914 F10.000
G1 X-20.271 Y18.654 F10.000
G1 X-20.327 Y18.383 F10.000
G1 X-20.353 Y18.162 F10.000
G1 X-20.365 Y17.906 F10.000
G1 X-20.342 Y17.579 F10.000
G1 X-20.289 Y17.263 F10.000
G1 X-20.199 Y16.977 F10.000
G1 X-20.098 Y16.752 F10.000
G1 X-19.974 Y16.538 F10.000
G1 X-19.827 Y16.320 F10.000
G1 X-19.613 Y16.064 F10.000
G1 X-19.380 Y15.842 F10.000
G1 X-19.132 Y15.665 F10.000
G1 X-18.925 Y15.541 F10.000
G1 X-18.669 Y15.417 F10.000
G1 X-18.376 Y15.316 F10.000
G1 X-18.083 Y15.244 F10.000
G1 X-17.786 Y15.211 F10.000
G1 X-17.534 Y15.207 F10.000
G1 X-17.252 Y15.233 F10.000
G1 X-16.981 Y15.289 F10.000
G1 X-16.726 Y15.372 F10.000
G1 X-16.474 Y15.485 F10.000
G1 X-16.237 Y15.617 F10.000
G1 X-15.989 Y15.797 F10.000
G1 X-15.778 Y15.985 F10.000
G1 X-15.586 Y16.195 F10.000
G1 X-15.417 Y16.429 F10.000
G1 X-15.274 Y16.673 F10.000
G1 X-15.158 Y16.932 F10.000
G1 X-15.068 Y17.207 F10.000
G1 X-15.008 Y17.485 F10.000
G1 X-14.970 Y17.767 F10.000
G1 X-14.962 Y18.083 F10.000
G1 X-14.985 Y18.376 F10.000
G1 X-15.049 Y18.665 F10.000
G1 X-15.120 Y18.895 F10.000
G1 X-15.226 Y19.150 F10.000
G1 X-15.376 Y19.429 F10.000
G1 X-15.560 Y19.699 F10.000
G1 X-15.759 Y19.932 F10.000
G1 X-15.955 Y20.124 F10.000
G1 X-16.188 Y20.308 F10.000
G1 X-16.436 Y20.462 F10.000
G1 X-16.692 Y20.590 F10.000
G1 X-16.966 Y20.692 F10.000
G1 X-17.248 Y20.763 F10.000
G1 X-17.538 Y20.808 F10.000
G1 X-17.827 Y20.823 F10.000
G1 X-18.117 Y20.808 F10.000
G1 X-18.406 Y20.771 F10.000
G1 X-18.729 Y20.692 F10.000
G1 X-19.015 Y20.590 F10.000
G1 X-19.293 Y20.447 F10.000
G1 X-19.508 Y20.312 F10.000
G1 X-19.733 Y20.135 F10.000
G1 X-19.940 Y19.944 F10.000
G1 X-20.150 Y19.699 F10.000
G1 X-20.320 Y19.455 F10.000
G1 X-20.470 Y19.192 F10.000
G1 X-20.594 Y18.914 F10.000
G1 X-20.677 Y18.624 F10.000
G1 X-20.726 Y18.380 F10.000
G1 X-20.756 Y18.098 F10.000
G1 X-20.763 Y17.778 F10.000
G1 X-20.733 Y17.432 F10.000
G1 X-20.662 Y17.124 F10.000
G1 X-20.590 Y16.887 F10.000
G1 X-20.474 Y16.609 F10.000
G1 X-20.327 Y16.331 F10.000
G1 X-20.150 Y16.064 F10.000
G1 X-19.955 Y15.823 F10.000
G1 X-19.737 Y15.598 F10.000
G1 X-19.485 Y15.402 F10.000
G1 X-19.263 Y15.256 F10.000
G1 X-19.004 Y15.113 F10.000
G1 X-18.695 Y14.981 F10.000
G1 X-18.383 Y14.880 F10.000
G1 X-18.068 Y14.816 F10.000
G1 X-17.789 Y14.786 F10.000
G1 X-17.481 Y14.782 F10.000
G1 X-17.180 Y14.812 F10.000
G1 X-16.891 Y14.868 F10.000
G1 X-16.602 Y14.955 F10.000
G1 X-16.327 Y15.068 F10.000
G1 X-16.064 Y15.207 F10.000
G1 X-15.816 Y15.372 F10.000
G1 X-15.586 Y15.564 F10.000
G1 X-15.380 Y15.774 F10.000
G1 X-15.188 Y16.000 F10.000
G1 X-14.992 Y16.289 F10.000
G1 X-14.842 Y16.560 F10.000
G1 X-14.722 Y16.857 F10.000
G1 X-14.643 Y17.117 F10.000
G1 X-14.575 Y17.410 F10.000
G1 X-14.530 Y17.763 F10.000
G1 X-14.519 Y18.102 F10.000
G1 X-14.556 Y18.429 F10.000
G1 X-14.602 Y18.665 F10.000
G1 X-14.680 Y18.947 F10.000
G1 X-14.797 Y19.256 F10.000
G1 X-14.955 Y19.571 F10.000
G1 X-15.124 Y19.850 F10.000
G1 X-15.331 Y20.109 F10.000
G1 X-15.515 Y20.305 F10.000
G1 X-15.741 Y20.508 F10.000
G1 X-16.011 Y20.707 F10.000
G1 X-16.305 Y20.883 F10.000
G1 X-16.605 Y21.019 F10.000
G1 X-16.868 Y21.113 F10.000
G1 X-17.173 Y21.188 F10.000
G1 X-17.477 Y21.229 F10.000
G1 X-17.774 Y21.244 F10.000
G1 X-18.079 Y21.237 F10.000
G1 X-18.432 Y21.192 F10.000
G1 X-18.744 Y21.124 F10.000
G1 X-19.056 Y21.026 F10.000
G1 X-19.357 Y20.883 F10.000
G1 X-19.590 Y20.748 F10.000
G1 X-19.842 Y20.571 F10.000
G1 X-20.079 Y20.380 F10.000
G1 X-20.342 Y20.117 F10.000
G1 X-20.553 Y19.865 F10.000
G1 X-20.733 Y19.586 F10.000
G1 X-20.868 Y19.335 F10.000
G1 X-20.989 Y19.045 F10.000
G1 X-21.079 Y18.748 F10.000
G1 X-21.139 Y18.451 F10.000
G1 X-21.177 Y18.143 F10.000
G1 X-21.180 Y17.801 F10.000
G1 X-21.158 Y17.485 F10.000
G1 X-21.105 Y17.169 F10.000
G1 X-21.023 Y16.850 F10.000
G1 X-20.914 Y16.549 F10.000
G1 X-20.774 Y16.256 F10.000
G1 X-20.609 Y15.974 F10.000
G1 X-20.417 Y15.711 F10.000
G1 X-20.203 Y15.466 F10.000
G1 X-19.966 Y15.241 F10.000
G1 X-19.711 Y15.038 F10.000
G1 X-19.436 Y14.861 F10.000
G1 X-19.150 Y14.703 F10.000
G1 X-18.808 Y14.556 F10.000
G1 X-18.489 Y14.451 F10.000
G1 X-18.150 Y14.387 F10.000
G1 X-17.887 Y14.357 F10.000
G1 X-17.579 Y14.346 F10.000
G1 X-17.222 Y14.365 F10.000
G1 X-16.872 Y14.414 F10.000
G1 X-16.545 Y14.508 F10.000
G1 X-16.297 Y14.598 F10.000
G1 X-16.015 Y14.733 F10.000
G1 X-15.756 Y14.883 F10.000
G1 X-15.470 Y15.090 F10.000
G1 X-15.226 Y15.305 F10.000
G1 X-15.000 Y15.538 F10.000
G1 X-14.786 Y15.793 F10.000
G1 X-14.579 Y16.102 F10.000
G1 X-14.425 Y16.406 F10.000
G1 X-14.316 Y16.662 F10.000
G1 X-14.211 Y16.970 F10.000
G1 X-14.124 Y17.327 F10.000
G1 X-14.083 Y17.695 F10.000
G1 X-14.068 Y17.981 F10.000
G1 X-14.083 Y18.320 F10.000
G1 X-14.132 Y18.643 F10.000
G1 X-14.203 Y18.951 F10.000
G1 X-14.308 Y19.263 F10.000
G1 X-14.440 Y19.560 F10.000
G1 X-14.590 Y19.846 F10.000
G1 X-14.797 Y20.154 F10.000
G1 X-15.008 Y20.417 F10.000
G1 X-15.244 Y20.669 F10.000
G1 X-15.504 Y20.898 F10.000
G1 X-15.778 Y21.102 F10.000
G1 X-16.079 Y21.267 F10.000
G1 X-16.320 Y21.376 F10.000
G1 X-16.613 Y21.485 F10.000
G1 X-16.966 Y21.583 F10.000
G1 X-17.331 Y21.650 F10.000
G1 X-17.680 Y21.688 F10.000
G1 X-18.045 Y21.680 F10.000
G1 X-18.335 Y21.654 F10.000
G1 X-18.662 Y21.594 F10.000
G1 X-18.977 Y21.511 F10.000
G1 X-19.323 Y21.383 F10.000
G1 X-19.632 Y21.237 F10.000
G1 X-19.925 Y21.053 F10.000
G1 X-20.147 Y20.887 F10.000
G1 X-20.391 Y20.680 F10.000
G1 X-20.654 Y20.417 F10.000
G1 X-20.895 Y20.132 F10.000
G1 X-21.090 Y19.823 F10.000
G1 X-21.222 Y19.586 F10.000
G1 X-21.353 Y19.278 F10.000
G1 X-21.455 Y18.974 F10.000
G1 X-21.538 Y18.620 F10.000
G1 X-21.586 Y18.282 F10.000
G1 X-21.605 Y17.944 F10.000
G1 X-21.594 Y17.598 F10.000
G1 X-21.553 Y17.259 F10.000
G1 X-21.481 Y16.921 F10.000
G1 X-21.383 Y16.590 F10.000
G1 X-21.256 Y16.271 F10.000
G1 X-21.102 Y15.962 F10.000
G1 X-20.921 Y15.669 F10.000
G1 X-20.714 Y15.391 F10.000
G1 X-20.485 Y15.135 F10.000
G1 X-20.233 Y14.898 F10.000
G1 X-19.962 Y14.684 F10.000
G1 X-19.680 Y14.489 F10.000
G1 X-19.353 Y14.305 F10.000
G1 X-19.026 Y14.154 F10.000
G1 X-18.677 Y14.041 F10.000
G1 X-18.398 Y13.974 F10.000
G1 X-18.068 Y13.925 F10.000
G1 X-17.744 Y13.895 F10.000
G1 X-17.372 Y13.898 F10.000
G1 X-17.011 Y13.929 F10.000
G1 X-16.650 Y14.008 F10.000
G1 X-16.391 Y14.083 F10.000
G1 X-16.083 Y14.199 F10.000
G1 X-15.763 Y14.353 F10.000
G1 X-15.447 Y14.541 F10.000
G1 X-15.162 Y14.744 F10.000
G1 X-14.887 Y14.974 F10.000
G1 X-14.635 Y15.226 F10.000
G1 X-14.417 Y15.504 F10.000
G1 X-14.259 Y15.741 F10.000
G1 X-14.090 Y16.026 F10.000
G1 X-13.932 Y16.361 F10.000
G1 X-13.801 Y16.707 F10.000
G1 X-13.703 Y17.064 F10.000
G1 X-13.635 Y17.395 F10.000
G1 X-13.594 Y17.763 F10.000
G1 X-13.586 Y18.120 F10.000
G1 X-13.628 Y18.474 F10.000
G1 X-13.673 Y18.733 F10.000
G1 X-13.748 Y19.045 F10.000
G1 X-13.865 Y19.395 F10.000
G1 X-14.011 Y19.733 F10.000
G1 X-14.180 Y20.064 F10.000
G1 X-14.383 Y20.372 F10.000
G1 X-14.575 Y20.624 F10.000
G1 X-14.820 Y20.891 F10.000
G1 X-15.079 Y21.139 F10.000
G1 X-15.368 Y21.368 F10.000
G1 X-15.680 Y21.564 F10.000
G1 X-15.947 Y21.707 F10.000
G1 X-16.274 Y21.846 F10.000
G1 X-16.594 Y21.959 F10.000
G1 X-16.951 Y22.049 F10.000
G1 X-17.308 Y22.105 F10.000
G1 X-17.669 Y22.135 F10.000
G1 X-18.038 Y22.135 F10.000
G1 X-18.402 Y22.105 F10.000
G1 X-18.763 Y22.045 F10.000
G1 X-19.117 Y21.944 F10.000
G1 X-19.395 Y21.842 F10.000
G1 X-19.703 Y21.695 F10.000
G1 X-19.992 Y21.534 F10.000
G1 X-20.305 Y21.331 F10.000
G1 X-20.594 Y21.098 F10.000
G1 X-20.868 Y20.846 F10.000
G1 X-21.117 Y20.568 F10.000
G1 X-21.320 Y20.301 F10.000
G1 X-21.504 Y19.985 F10.000
G1 X-21.635 Y19.729 F10.000
G1 X-21.782 Y19.387 F10.000
G1 X-21.891 Y19.030 F10.000
G1 X-21.970 Y18.692 F10.000
G1 X-22.026 Y18.323 F10.000
G1 X-22.049 Y17.951 F10.000
G1 X-22.045 Y17.590 F10.000
G1 X-22.011 Y17.222 F10.000
G1 X-21.944 Y16.857 F10.000
G1 X-21.838 Y16.508 F10.000
G1 X-21.729 Y16.226 F10.000
G1 X-21.586 Y15.914 F10.000
G1 X-21.402 Y15.586 F10.000
G1 X-21.192 Y15.274 F10.000
G1 X-20.962 Y14.977 F10.000
G1 X-20.699 Y14.711 F10.000
G1 X-20.462 Y14.500 F10.000
G1 X-20.180 Y14.274 F10.000
G1 X-19.865 Y14.071 F10.000
G1 X-19.541 Y13.895 F10.000
G1 X-19.199 Y13.737 F10.000
G1 X-18.846 Y13.609 F10.000
G1 X-18.481 Y13.523 F10.000
G1 X-18.177 Y13.470 F10.000
G1 X-17.820 Y13.432 F10.000
G1 X-17.447 Y13.432 F10.000
G1 X-17.094 Y13.455 F10.000
G1 X-16.726 Y13.508 F10.000
G1 X-16.361 Y13.594 F10.000
G1 X-16.015 Y13.718 F10.000
G1 X-15.737 Y13.838 F10.000
G1 X-15.429 Y13.996 F10.000
G1 X-15.113 Y14.192 F10.000
G1 X-14.812 Y14.414 F10.000
G1 X-14.526 Y14.654 F10.000
G1 X-14.271 Y14.925 F10.000
G1 X-14.068 Y15.173 F10.000
G1 X-13.857 Y15.477 F10.000
G1 X-13.673 Y15.789 F10.000
G1 X-13.511 Y16.124 F10.000
G1 X-13.376 Y16.470 F10.000
G1 X-13.271 Y16.823 F10.000
G1 X-13.192 Y17.184 F10.000
G1 X-13.143 Y17.553 F10.000
G1 X-13.124 Y17.921 F10.000
G1 X-13.135 Y18.289 F10.000
G1 X-13.173 Y18.658 F10.000
G1 X-13.241 Y19.023 F10.000
G1 X-13.350 Y19.376 F10.000
G1 X-13.455 Y19.665 F10.000
G1 X-13.609 Y20.004 F10.000
G1 X-13.786 Y20.327 F10.000
G1 X-13.985 Y20.639 F10.000
G1 X-14.207 Y20.936 F10.000
G1 X-14.459 Y21.207 F10.000
G1 X-14.695 Y21.432 F10.000
G1 X-14.985 Y21.662 F10.000
G1 X-15.289 Y21.872 F10.000
G1 X-15.609 Y22.056 F10.000
G1 X-15.944 Y22.218 F10.000
G1 X-16.289 Y22.353 F10.000
G1 X-16.643 Y22.462 F10.000
G1 X-17.004 Y22.545 F10.000
G1 X-17.368 Y22.598 F10.000
G1 X-17.737 Y22.624 F10.000
G1 X-18.105 Y22.620 F10.000
G1 X-18.474 Y22.571 F10.000
G1 X-18.759 Y22.515 F10.000
G1 X-19.102 Y22.429 F10.000
G1 X-19.451 Y22.308 F10.000
G1 X-19.793 Y22.162 F10.000
G1 X-20.124 Y21.996 F10.000
G1 X-20.436 Y21.797 F10.000
G1 X-20.714 Y21.594 F10.000
G1 X-20.996 Y21.350 F10.000
G1 X-21.263 Y21.090 F10.000
G1 X-21.508 Y20.808 F10.000
G1 X-21.729 Y20.511 F10.000
G1 X-21.914 Y20.188 F10.000
G1 X-22.041 Y19.925 F10.000
G1 X-22.184 Y19.594 F10.000
G1 X-22.301 Y19.241 F10.000
G1 X-22.395 Y18.880 F10.000
G1 X-22.462 Y18.511 F10.000
G1 X-22.504 Y18.139 F10.000
G1 X-22.519 Y17.767 F10.000
G1 X-22.492 Y17.395 F10.000
G1 X-22.451 Y17.071 F10.000
G1 X-22.372 Y16.707 F10.000
G1 X-22.267 Y16.346 F10.000
G1 X-22.135 Y15.996 F10.000
G1 X-21.977 Y15.658 F10.000
G1 X-21.793 Y15.331 F10.000
G1 X-21.586 Y15.019 F10.000
G1 X-21.357 Y14.722 F10.000
G1 X-21.105 Y14.444 F10.000
G1 X-20.835 Y14.184 F10.000
G1 X-20.545 Y13.947 F10.000
G1 X-20.237 Y13.733 F10.000
G1 X-19.914 Y13.541 F10.000
G1 X-19.579 Y13.376 F10.000
G1 X-19.229 Y13.237 F10.000
G1 X-18.872 Y13.124 F10.000
G1 X-18.508 Y13.038 F10.000
G1 X-18.139 Y12.981 F10.000
G1 X-17.767 Y12.951 F10.000
G1 X-17.395 Y12.951 F10.000
G1 X-17.023 Y12.977 F10.000
G1 X-16.654 Y13.034 F10.000
G1 X-16.289 Y13.117 F10.000
G1 X-15.932 Y13.226 F10.000
G1 X-15.586 Y13.361 F10.000
G1 X-15.252 Y13.523 F10.000
G1 X-14.929 Y13.711 F10.000
G1 X-14.620 Y13.921 F10.000
G1 X-14.331 Y14.154 F10.000
G1 X-14.060 Y14.410 F10.000
G1 X-13.820 Y14.692 F10.000
G1 X-13.628 Y14.947 F10.000
G1 X-13.425 Y15.248 F10.000
G1 X-13.237 Y15.568 F10.000
G1 X-13.075 Y15.902 F10.000
G1 X-12.932 Y16.244 F10.000
G1 X-12.812 Y16.594 F10.000
G1 X-12.729 Y16.955 F10.000
G1 X-12.669 Y17.297 F10.000
G1 X-12.635 Y17.665 F10.000
G1 X-12.632 Y18.034 F10.000
G1 X-12.654 Y18.402 F10.000
G1 X-12.703 Y18.771 F10.000
G1 X-12.782 Y19.132 F10.000
G1 X-12.876 Y19.489 F10.000
G1 X-13.000 Y19.838 F10.000
G1 X-13.150 Y20.177 F10.000
G1 X-13.320 Y20.504 F10.000
G1 X-13.515 Y20.820 F10.000
G1 X-13.729 Y21.120 F10.000
G1 X-13.974 Y21.398 F10.000
G1 X-14.218 Y21.643 F10.000
G1 X-14.500 Y21.883 F10.000
G1 X-14.793 Y22.109 F10.000
G1 X-15.102 Y22.312 F10.000
G1 X-15.425 Y22.492 F10.000
G1 X-15.759 Y22.654 F10.000
G1 X-16.105 Y22.789 F10.000
G1 X-16.459 Y22.902 F10.000
G1 X-16.820 Y22.989 F10.000
G1 X-17.184 Y23.049 F10.000
G1 X-17.553 Y23.086 F10.000
G1 X-17.921 Y23.098 F10.000
G1 X-18.289 Y23.064 F10.000
G1 X-18.605 Y23.019 F10.000
G1 X-18.970 Y22.947 F10.000
G1 X-19.327 Y22.850 F10.000
G1 X-19.677 Y22.729 F10.000
G1 X-20.019 Y22.586 F10.000
G1 X-20.342 Y22.406 F10.000
G1 X-20.617 Y22.233 F10.000
G1 X-20.921 Y22.019 F10.000
G1 X-21.211 Y21.782 F10.000
G1 X-21.481 Y21.526 F10.000
G1 X-21.737 Y21.256 F10.000
G1 X-21.966 Y20.962 F10.000
G1 X-22.177 Y20.658 F10.000
G1 X-22.365 Y20.338 F10.000
G1 X-22.526 Y20.004 F10.000
G1 X-22.665 Y19.658 F10.000
G1 X-22.778 Y19.301 F10.000
G1 X-22.865 Y18.936 F10.000
G1 X-22.929 Y18.568 F10.000
G1 X-22.962 Y18.195 F10.000
G1 X-22.970 Y17.823 F10.000
G1 X-22.959 Y17.451 F10.000
G1 X-22.917 Y17.079 F10.000
G1 X-22.850 Y16.711 F10.000
G1 X-22.759 Y16.346 F10.000
G1 X-22.643 Y15.989 F10.000
G1 X-22.492 Y15.647 F10.000
G1 X-22.335 Y15.331 F10.000
G1 X-22.147 Y15.008 F10.000
G1 X-21.940 Y14.695 F10.000
G1 X-21.711 Y14.398 F10.000
G1 X-21.462 Y14.117 F10.000
G1 X-21.188 Y13.861 F10.000
G1 X-20.914 Y13.632 F10.000
G1 X-20.609 Y13.414 F10.000
G1 X-20.293 Y13.211 F10.000
G1 X-19.962 Y13.034 F10.000
G1 X-19.620 Y12.880 F10.000
G1 X-19.271 Y12.744 F10.000
G1 X-18.914 Y12.635 F10.000
G1 X-18.549 Y12.549 F10.000
G1 X-18.180 Y12.485 F10.000
G1 X-17.808 Y12.462 F10.000
G1 X-17.466 Y12.459 F10.000
G1 X-17.094 Y12.477 F10.000
G1 X-16.722 Y12.523 F10.000
G1 X-16.353 Y12.594 F10.000
G1 X-15.992 Y12.688 F10.000
G1 X-15.639 Y12.805 F10.000
G1 X-15.293 Y12.944 F10.000
G1 X-14.959 Y13.105 F10.000
G1 X-14.639 Y13.301 F10.000
G1 X-14.342 Y13.508 F10.000
G1 X-14.053 Y13.741 F10.000
G1 X-13.782 Y13.996 F10.000
G1 X-13.530 Y14.271 F10.000
G1 X-13.293 Y14.560 F10.000
G1 X-13.083 Y14.865 F10.000
G1 X-12.887 Y15.180 F10.000
G1 X-12.714 Y15.508 F10.000
G1 X-12.556 Y15.842 F10.000
G1 X-12.421 Y16.188 F10.000
G1 X-12.308 Y16.541 F10.000
G1 X-12.233 Y16.906 F10.000
G1 X-12.177 Y17.252 F10.000
G1 X-12.147 Y17.620 F10.000
G1 X-12.139 Y17.989 F10.000
G1 X-12.158 Y18.357 F10.000
G1 X-12.199 Y18.726 F10.000
G1 X-12.263 Y19.090 F10.000
G1 X-12.353 Y19.447 F10.000
G1 X-12.466 Y19.801 F10.000
G1 X-12.602 Y20.143 F10.000
G1 X-12.759 Y20.477 F10.000
G1 X-12.932 Y20.805 F10.000
G1 X-13.132 Y21.117 F10.000
G1 X-13.346 Y21.417 F10.000
G1 X-13.590 Y21.695 F10.000
G1 X-13.850 Y21.959 F10.000
G1 X-14.124 Y22.203 F10.000
G1 X-14.414 Y22.432 F10.000
G1 X-14.718 Y22.643 F10.000
G1 X-15.034 Y22.831 F10.000
G1 X-15.361 Y23.000 F10.000
G1 X-15.699 Y23.147 F10.000
G1 X-16.045 Y23.274 F10.000
G1 X-16.398 Y23.380 F10.000
G1 X-16.759 Y23.459 F10.000
G1 X-17.124 Y23.523 F10.000
G1 X-17.492 Y23.560 F10.000
G1 X-17.861 Y23.560 F10.000
G1 X-18.218 Y23.545 F10.000
G1 X-18.586 Y23.504 F10.000
G1 X-18.951 Y23.432 F10.000
G1 X-19.312 Y23.346 F10.000
G1 X-19.665 Y23.229 F10.000
G1 X-20.011 Y23.094 F10.000
G1 X-20.350 Y22.936 F10.000
G1 X-20.673 Y22.756 F10.000
G1 X-20.985 Y22.556 F10.000
G1 X-21.286 Y22.338 F10.000
G1 X-21.571 Y22.098 F10.000
G1 X-21.842 Y21.842 F10.000
G1 X-22.094 Y21.568 F10.000
G1 X-22.327 Y21.278 F10.000
G1 X-22.541 Y20.974 F10.000
G1 X-22.737 Y20.658 F10.000
G1 X-22.898 Y20.323 F10.000
G1 X-23.038 Y19.992 F10.000
G1 X-23.165 Y19.643 F10.000
G1 X-23.271 Y19.286 F10.000
G1 X-23.353 Y18.921 F10.000
G1 X-23.414 Y18.553 F10.000
G1 X-23.451 Y18.180 F10.000
G1 X-23.455 Y17.808 F10.000
G1 X-23.440 Y17.436 F10.000
G1 X-23.398 Y17.064 F10.000
G1 X-23.335 Y16.695 F10.000
G1 X-23.248 Y16.331 F10.000
G1 X-23.135 Y15.974 F10.000
G1 X-23.004 Y15.624 F10.000
G1 X-22.850 Y15.282 F10.000
G1 X-22.673 Y14.951 F10.000
G1 X-22.477 Y14.632 F10.000
G1 X-22.259 Y14.327 F10.000
G1 X-22.023 Y14.034 F10.000
G1 X-21.771 Y13.759 F10.000
G1 X-21.500 Y13.500 F10.000
G1 X-21.214 Y13.259 F10.000
G1 X-20.914 Y13.038 F10.000
G1 X-20.598 Y12.835 F10.000
G1 X-20.271 Y12.650 F10.000
G1 X-19.932 Y12.489 F10.000
G1 X-19.586 Y12.342 F10.000
G1 X-19.233 Y12.218 F10.000
G1 X-18.872 Y12.117 F10.000
G1 X-18.508 Y12.034 F10.000
G1 X-18.135 Y11.992 F10.000
G1 X-17.778 Y11.966 F10.000
G1 X-17.406 Y11.966 F10.000
G1 X-17.034 Y11.985 F10.000
G1 X-16.662 Y12.030 F10.000
G1 X-16.293 Y12.098 F10.000
G1 X-15.932 Y12.188 F10.000
G1 X-15.575 Y12.301 F10.000
G1 X-15.226 Y12.436 F10.000
G1 X-14.887 Y12.590 F10.000
G1 X-14.560 Y12.767 F10.000
G1 X-14.244 Y12.962 F10.000
G1 X-13.940 Y13.177 F10.000
G1 X-13.658 Y13.421 F10.000
G1 X-13.395 Y13.673 F10.000
G1 X-13.147 Y13.951 F10.000
G1 X-12.914 Y14.241 F10.000
G1 X-12.692 Y14.541 F10.000
G1 X-12.492 Y14.857 F10.000
G1 X-12.308 Y15.180 F10.000
G1 X-12.143 Y15.515 F10.000
G1 X-12.000 Y15.857 F10.000
G1 X-11.887 Y16.211 F10.000
G1 X-11.789 Y16.568 F10.000
G1 X-11.718 Y16.932 F10.000
G1 X-11.665 Y17.301 F10.000
G1 X-11.639 Y17.669 F10.000
G1 X-11.635 Y18.038 F10.000
G1 X-11.654 Y18.406 F10.000
G1 X-11.695 Y18.774 F10.000
G1 X-11.759 Y19.139 F10.000
G1 X-11.846 Y19.500 F10.000
G1 X-11.951 Y19.853 F10.000
G1 X-12.079 Y20.199 F10.000
G1 X-12.229 Y20.538 F10.000
G1 X-12.398 Y20.865 F10.000
G1 X-12.586 Y21.180 F10.000
G1 X-12.793 Y21.485 F10.000
G1 X-13.019 Y21.778 F10.000
G1 X-13.263 Y22.056 F10.000
G1 X-13.523 Y22.320 F10.000
G1 X-13.801 Y22.564 F10.000
G1 X-14.090 Y22.793 F10.000
G1 X-14.395 Y23.004 F10.000
G1 X-14.707 Y23.199 F10.000
G1 X-15.034 Y23.376 F10.000
G1 X-15.368 Y23.534 F10.000
G1 X-15.711 Y23.673 F10.000
G1 X-16.060 Y23.789 F10.000
G1 X-16.417 Y23.887 F10.000
G1 X-16.778 Y23.966 F10.000
G1 X-17.143 Y24.023 F10.000
G1 X-17.511 Y24.041 F10.000
G1 X-17.876 Y24.045 F10.000
G1 X-18.244 Y24.023 F10.000
G1 X-18.613 Y23.981 F10.000
G1 X-18.977 Y23.917 F10.000
G1 X-19.338 Y23.831 F10.000
G1 X-19.695 Y23.726 F10.000
G1 X-20.045 Y23.598 F10.000
G1 X-20.383 Y23.447 F10.000
G1 X-20.714 Y23.278 F10.000
G1 X-21.034 Y23.090 F10.000
G1 X-21.342 Y22.883 F10.000
G1 X-21.639 Y22.658 F10.000
G1 X-21.921 Y22.414 F10.000
G1 X-22.188 Y22.154 F10.000
G1 X-22.440 Y21.880 F10.000
G1 X-22.673 Y21.590 F10.000
G1 X-22.887 Y21.286 F10.000
G1 X-23.086 Y20.970 F10.000
G1 X-23.263 Y20.643 F10.000
G1 X-23.421 Y20.305 F10.000
G1 X-23.560 Y19.959 F10.000
G1 X-23.677 Y19.605 F10.000
G1 X-23.774 Y19.244 F10.000
G1 X-23.850 Y18.880 F10.000
G1 X-23.902 Y18.511 F10.000
G1 X-23.932 Y18.139 F10.000
G1 X-23.940 Y17.767 F10.000
G1 X-23.925 Y17.395 F10.000
G1 X-23.887 Y17.023 F10.000
G1 X-23.831 Y16.654 F10.000
G1 X-23.752 Y16.289 F10.000
G1 X-23.650 Y15.929 F10.000
G1 X-23.526 Y15.575 F10.000
G1 X-23.383 Y15.229 F10.000
G1 X-23.218 Y14.891 F10.000
G1 X-23.034 Y14.564 F10.000
G1 X-22.831 Y14.248 F10.000
G1 X-22.609 Y13.947 F10.000
G1 X-22.368 Y13.658 F10.000
G1 X-22.113 Y13.383 F10.000
G1 X-21.842 Y13.124 F10.000
G1 X-21.556 Y12.883 F10.000
G1 X-21.256 Y12.658 F10.000
G1 X-20.944 Y12.451 F10.000
G1 X-20.620 Y12.263 F10.000
G1 X-20.286 Y12.094 F10.000
G1 X-19.940 Y11.947 F10.000
G1 X-19.590 Y11.812 F10.000
G1 X-19.233 Y11.699 F10.000
G1 X-18.868 Y11.605 F10.000
G1 X-18.500 Y11.530 F10.000
G1 X-18.128 Y11.477 F10.000
G1 X-17.756 Y11.462 F10.000
G1 X-17.383 Y11.462 F10.000
G1 X-17.011 Y11.481 F10.000
G1 X-16.639 Y11.530 F10.000
G1 X-16.271 Y11.598 F10.000
G1 X-15.906 Y11.677 F10.000
G1 X-15.549 Y11.782 F10.000
G1 X-15.195 Y11.906 F10.000
G1 X-14.850 Y12.045 F10.000
G1 X-14.515 Y12.207 F10.000
G1 X-14.192 Y12.395 F10.000
G1 X-13.880 Y12.598 F10.000
G1 X-13.583 Y12.820 F10.000
G1 X-13.301 Y13.064 F10.000
G1 X-13.034 Y13.323 F10.000
G1 X-12.782 Y13.598 F10.000
G1 X-12.541 Y13.883 F10.000
G1 X-12.323 Y14.184 F10.000
G1 X-12.120 Y14.496 F10.000
G1 X-11.929 Y14.816 F10.000
G1 X-11.759 Y15.147 F10.000
G1 X-11.605 Y15.485 F10.000
G1 X-11.466 Y15.831 F10.000
G1 X-11.350 Y16.184 F10.000
G1 X-11.263 Y16.545 F10.000
G1 X-11.192 Y16.910 F10.000
G1 X-11.143 Y17.278 F10.000
G1 X-11.120 Y17.647 F10.000
G1 X-11.117 Y18.015 F10.000
G1 X-11.135 Y18.383 F10.000
G1 X-11.177 Y18.752 F10.000
G1 X-11.241 Y19.117 F10.000
G1 X-11.320 Y19.477 F10.000
G1 X-11.421 Y19.835 F10.000
G1 X-11.541 Y20.184 F10.000
G1 X-11.680 Y20.526 F10.000
G1 X-11.838 Y20.861 F10.000
G1 X-12.015 Y21.188 F10.000
G1 X-12.207 Y21.504 F10.000
G1 X-12.417 Y21.808 F10.000
G1 X-12.643 Y22.102 F10.000
G1 X-12.883 Y22.380 F10.000
G1 X-13.139 Y22.647 F10.000
G1 X-13.410 Y22.898 F10.000
G1 X-13.695 Y23.135 F10.000
G1 X-13.992 Y23.357 F10.000
G1 X-14.301 Y23.560 F10.000
G1 X-14.620 Y23.748 F10.000
G1 X-14.947 Y23.917 F10.000
G1 X-15.286 Y24.068 F10.000
G1 X-15.632 Y24.199 F10.000
G1 X-15.985 Y24.312 F10.000
G1 X-16.342 Y24.406 F10.000
G1 X-16.707 Y24.470 F10.000
G1 X-17.075 Y24.519 F10.000
G1 X-17.444 Y24.541 F10.000
G1 X-17.812 Y24.541 F10.000
G1 X-18.180 Y24.519 F10.000
G1 X-18.549 Y24.485 F10.000
G1 X-18.914 Y24.425 F10.000
G1 X-19.274 Y24.346 F10.000
G1 X-19.632 Y24.248 F10.000
G1 X-19.985 Y24.132 F10.000
G1 X-20.331 Y23.996 F10.000
G1 X-20.669 Y23.842 F10.000
G1 X-20.996 Y23.669 F10.000
G1 X-21.316 Y23.477 F10.000
G1 X-21.624 Y23.271 F10.000
G1 X-21.921 Y23.045 F10.000
G1 X-22.207 Y22.805 F10.000
G1 X-22.477 Y22.549 F10.000
G1 X-22.733 Y22.278 F10.000
G1 X-22.974 Y21.996 F10.000
G1 X-23.199 Y21.699 F10.000
G1 X-23.410 Y21.391 F10.000
G1 X-23.602 Y21.071 F10.000
G1 X-23.763 Y20.733 F10.000
G1 X-23.910 Y20.391 F10.000
G1 X-24.041 Y20.041 F10.000
G1 X-24.158 Y19.688 F10.000
G1 X-24.252 Y19.327 F10.000
G1 X-24.331 Y18.962 F10.000
G1 X-24.391 Y18.594 F10.000
G1 X-24.417 Y18.222 F10.000
G1 X-24.432 Y17.850 F10.000
G1 X-24.421 Y17.477 F10.000
G1 X-24.391 Y17.105 F10.000
G1 X-24.342 Y16.733 F10.000
G1 X-24.271 Y16.365 F10.000
G1 X-24.180 Y16.000 F10.000
G1 X-24.071 Y15.643 F10.000
G1 X-23.944 Y15.289 F10.000
G1 X-23.797 Y14.944 F10.000
G1 X-23.632 Y14.609 F10.000
G1 X-23.447 Y14.282 F10.000
G1 X-23.244 Y13.966 F10.000
G1 X-23.026 Y13.662 F10.000
G1 X-22.789 Y13.368 F10.000
G1 X-22.538 Y13.090 F10.000
G1 X-22.271 Y12.827 F10.000
G1 X-21.992 Y12.579 F10.000
G1 X-21.699 Y12.346 F10.000
G1 X-21.395 Y12.128 F10.000
G1 X-21.079 Y11.929 F10.000
G1 X-20.752 Y11.744 F10.000
G1 X-20.417 Y11.579 F10.000
G1 X-20.071 Y11.432 F10.000
G1 X-19.718 Y11.305 F10.000
G1 X-19.361 Y11.195 F10.000
G1 X-18.996 Y11.105 F10.000
G1 X-18.628 Y11.038 F10.000
G1 X-18.256 Y10.989 F10.000
G1 X-17.883 Y10.962 F10.000
G1 X-17.511 Y10.955 F10.000
G1 X-17.139 Y10.966 F10.000
G1 X-16.767 Y11.000 F10.000
G1 X-16.398 Y11.053 F10.000
G1 X-16.034 Y11.128 F10.000
G1 X-15.669 Y11.214 F10.000
G1 X-15.312 Y11.323 F10.000
G1 X-14.959 Y11.447 F10.000
G1 X-14.613 Y11.586 F10.000
G1 X-14.282 Y11.759 F10.000
G1 X-13.959 Y11.944 F10.000
G1 X-13.647 Y12.147 F10.000
G1 X-13.350 Y12.368 F10.000
G1 X-13.064 Y12.605 F10.000
G1 X-12.786 Y12.853 F10.000
G1 X-12.526 Y13.120 F10.000
G1 X-12.278 Y13.398 F10.000
G1 X-12.045 Y13.688 F10.000
G1 X-11.831 Y13.992 F10.000
G1 X-11.632 Y14.305 F10.000
G1 X-11.447 Y14.628 F10.000
G1 X-11.278 Y14.959 F10.000
G1 X-11.128 Y15.297 F10.000
G1 X-10.992 Y15.643 F10.000
G1 X-10.872 Y15.992 F10.000
G1 X-10.771 Y16.350 F10.000
G1 X-10.699 Y16.714 F10.000
G1 X-10.643 Y17.079 F10.000
G1 X-10.609 Y17.447 F10.000
G1 X-10.598 Y17.816 F10.000
G1 X-10.605 Y18.184 F10.000
G1 X-10.635 Y18.553 F10.000
G1 X-10.680 Y18.921 F10.000
G1 X-10.748 Y19.286 F10.000
G1 X-10.838 Y19.647 F10.000
G1 X-10.944 Y20.000 F10.000
G1 X-11.060 Y20.350 F10.000
G1 X-11.199 Y20.692 F10.000
G1 X-11.350 Y21.030 F10.000
G1 X-11.515 Y21.361 F10.000
G1 X-11.699 Y21.680 F10.000
G1 X-12.128 Y22.282 F10.000
G1 X-12.365 Y22.564 F10.000
G1 X-12.613 Y22.838 F10.000
G1 X-12.876 Y23.098 F10.000
G1 X-13.154 Y23.342 F10.000
G1 X-13.444 Y23.575 F10.000
G1 X-13.744 Y23.789 F10.000
G1 X-14.056 Y23.989 F10.000
G1 X-14.376 Y24.173 F10.000
G1 X-14.707 Y24.342 F10.000
G1 X-15.041 Y24.500 F10.000
G1 X-15.383 Y24.639 F10.000
G1 X-15.733 Y24.763 F10.000
G1 X-16.094 Y24.853 F10.000
G1 X-16.455 Y24.932 F10.000
G1 X-16.820 Y24.989 F10.000
G1 X-17.188 Y25.019 F10.000
G1 X-17.556 Y25.030 F10.000
G1 X-17.925 Y25.030 F10.000
G1 X-18.293 Y25.011 F10.000
G1 X-18.662 Y24.970 F10.000
G1 X-19.026 Y24.910 F10.000
G1 X-19.391 Y24.835 F10.000
G1 X-19.748 Y24.741 F10.000
G1 X-20.102 Y24.628 F10.000
G1 X-20.447 Y24.496 F10.000
G1 X-20.789 Y24.350 F10.000
G1 X-21.120 Y24.184 F10.000
G1 X-21.444 Y24.004 F10.000
G1 X-21.752 Y23.793 F10.000
G1 X-22.053 Y23.571 F10.000
G1 X-22.342 Y23.338 F10.000
G1 X-22.620 Y23.094 F10.000
G1 X-22.887 Y22.835 F10.000
G1 X-23.143 Y22.564 F10.000
G1 X-23.383 Y22.282 F10.000
G1 X-23.602 Y21.981 F10.000
G1 X-23.808 Y21.673 F10.000
G1 X-24.000 Y21.353 F10.000
G1 X-24.169 Y21.023 F10.000
G1 X-24.323 Y20.684 F10.000
G1 X-24.459 Y20.335 F10.000
G1 X-24.583 Y19.981 F10.000
G1 X-24.684 Y19.620 F10.000
G1 X-24.771 Y19.256 F10.000
G1 X-24.838 Y18.887 F10.000
G1 X-24.887 Y18.515 F10.000
G1 X-24.921 Y18.143 F10.000
G1 X-24.936 Y17.771 F10.000
G1 X-24.917 Y17.398 F10.000
G1 X-24.887 Y17.026 F10.000
G1 X-24.835 Y16.654 F10.000
G1 X-24.763 Y16.286 F10.000
G1 X-24.673 Y15.921 F10.000
G1 X-24.564 Y15.564 F10.000
G1 X-24.436 Y15.211 F10.000
G1 X-24.297 Y14.861 F10.000
G1 X-24.139 Y14.523 F10.000
G1 X-23.966 Y14.192 F10.000
G1 X-23.778 Y13.868 F10.000
G1 X-23.575 Y13.553 F10.000
G1 X-23.346 Y13.256 F10.000
G1 X-23.105 Y12.966 F10.000
G1 X-22.850 Y12.692 F10.000
G1 X-22.583 Y12.429 F10.000
G1 X-22.301 Y12.180 F10.000
G1 X-22.008 Y11.947 F10.000
G1 X-21.703 Y11.729 F10.000
G1 X-21.387 Y11.526 F10.000
G1 X-21.064 Y11.338 F10.000
G1 X-20.729 Y11.169 F10.000
G1 X-20.387 Y11.015 F10.000
G1 X-20.038 Y10.880 F10.000
G1 X-19.680 Y10.763 F10.000
G1 X-19.320 Y10.665 F10.000
G1 X-18.955 Y10.583 F10.000
G1 X-18.586 Y10.519 F10.000
G1 X-18.214 Y10.474 F10.000
G1 X-17.842 Y10.447 F10.000
G1 X-17.470 Y10.440 F10.000
G1 X-17.098 Y10.451 F10.000
G1 X-16.726 Y10.481 F10.000
G1 X-16.353 Y10.530 F10.000
G1 X-15.985 Y10.598 F10.000
G1 X-15.620 Y10.684 F10.000
G1 X-15.263 Y10.789 F10.000
G1 X-14.910 Y10.914 F10.000
G1 X-14.564 Y11.056 F10.000
G1 X-14.226 Y11.214 F10.000
G1 X-13.895 Y11.391 F10.000
G1 X-13.575 Y11.583 F10.000
G1 X-13.267 Y11.789 F10.000
G1 X-12.970 Y12.011 F10.000
G1 X-12.684 Y12.248 F10.000
G1 X-12.410 Y12.500 F10.000
G1 X-12.150 Y12.767 F10.000
G1 X-11.902 Y13.045 F10.000
G1 X-11.669 Y13.335 F10.000
G1 X-11.451 Y13.635 F10.000
G1 X-11.053 Y14.263 F10.000
G1 X-10.880 Y14.590 F10.000
G1 X-10.718 Y14.925 F10.000
G1 X-10.571 Y15.267 F10.000
G1 X-10.440 Y15.613 F10.000
G1 X-10.338 Y15.970 F10.000
G1 X-10.248 Y16.331 F10.000
G1 X-10.180 Y16.695 F10.000
G1 X-10.128 Y17.064 F10.000
G1 X-10.094 Y17.432 F10.000
G1 X-10.079 Y17.801 F10.000
G1 X-10.083 Y18.169 F10.000
G1 X-10.105 Y18.538 F10.000
G1 X-10.147 Y18.906 F10.000
G1 X-10.203 Y19.271 F10.000
G1 X-10.278 Y19.632 F10.000
G1 X-10.372 Y19.989 F10.000
G1 X-10.485 Y20.342 F10.000
G1 X-10.613 Y20.688 F10.000
G1 X-10.759 Y21.026 F10.000
G1 X-10.921 Y21.357 F10.000
G1 X-11.098 Y21.680 F10.000
G1 X-11.293 Y21.996 F10.000
G1 X-11.504 Y22.301 F10.000
G1 X-11.962 Y22.880 F10.000
G1 X-12.211 Y23.154 F10.000
G1 X-12.470 Y23.417 F10.000
G1 X-12.741 Y23.669 F10.000
G1 X-13.023 Y23.906 F10.000
G1 X-13.316 Y24.132 F10.000
G1 X-13.617 Y24.342 F10.000
G1 X-13.936 Y24.526 F10.000
G1 X-14.594 Y24.865 F10.000
G1 X-14.932 Y25.011 F10.000
G1 X-15.278 Y25.143 F10.000
G1 X-15.632 Y25.248 F10.000
G1 X-15.989 Y25.342 F10.000
G1 X-16.350 Y25.417 F10.000
G1 X-16.714 Y25.470 F10.000
G1 X-17.083 Y25.508 F10.000
G1 X-17.451 Y25.534 F10.000
G1 X-17.820 Y25.538 F10.000
G1 X-18.188 Y25.526 F10.000
G1 X-18.556 Y25.500 F10.000
G1 X-18.925 Y25.455 F10.000
G1 X-19.286 Y25.380 F10.000
G1 X-19.647 Y25.293 F10.000
G1 X-20.004 Y25.192 F10.000
G1 X-20.353 Y25.071 F10.000
G1 X-20.699 Y24.936 F10.000
G1 X-21.038 Y24.786 F10.000
G1 X-21.372 Y24.620 F10.000
G1 X-21.692 Y24.432 F10.000
G1 X-22.008 Y24.233 F10.000
G1 X-22.312 Y24.019 F10.000
G1 X-22.602 Y23.786 F10.000
G1 X-22.883 Y23.541 F10.000
G1 X-23.150 Y23.282 F10.000
G1 X-23.402 Y23.011 F10.000
G1 X-23.876 Y22.432 F10.000
G1 X-24.090 Y22.128 F10.000
G1 X-24.293 Y21.816 F10.000
G1 X-24.481 Y21.496 F10.000
G1 X-24.654 Y21.165 F10.000
G1 X-24.812 Y20.827 F10.000
G1 X-24.940 Y20.477 F10.000
G1 X-25.056 Y20.124 F10.000
G1 X-25.162 Y19.767 F10.000
G1 X-25.248 Y19.402 F10.000
G1 X-25.320 Y19.034 F10.000
G1 X-25.376 Y18.665 F10.000
G1 X-25.414 Y18.293 F10.000
G1 X-25.436 Y17.921 F10.000
G1 X-25.425 Y17.549 F10.000
G1 X-25.402 Y17.177 F10.000
G1 X-25.357 Y16.805 F10.000
G1 X-25.301 Y16.436 F10.000
G1 X-25.222 Y16.071 F10.000
G1 X-25.128 Y15.711 F10.000
G1 X-25.019 Y15.353 F10.000
G1 X-24.891 Y15.000 F10.000
G1 X-24.590 Y14.312 F10.000
G1 X-24.417 Y13.981 F10.000
G1 X-24.229 Y13.654 F10.000
G1 X-24.030 Y13.335 F10.000
G1 X-23.816 Y13.026 F10.000
G1 X-23.335 Y12.455 F10.000
G1 X-23.075 Y12.184 F10.000
G1 X-22.801 Y11.932 F10.000
G1 X-22.515 Y11.692 F10.000
G1 X-22.214 Y11.466 F10.000
G1 X-21.902 Y11.256 F10.000
G1 X-21.586 Y11.056 F10.000
G1 X-21.263 Y10.868 F10.000
G1 X-20.929 Y10.699 F10.000
G1 X-20.590 Y10.541 F10.000
G1 X-20.244 Y10.398 F10.000
G1 X-19.887 Y10.286 F10.000
G1 X-19.526 Y10.184 F10.000
G1 X-19.162 Y10.102 F10.000
G1 X-18.793 Y10.030 F10.000
G1 X-18.421 Y9.977 F10.000
G1 X-18.049 Y9.944 F10.000
G1 X-17.677 Y9.921 F10.000
G1 X-17.305 Y9.917 F10.000
G1 X-16.932 Y9.932 F10.000
G1 X-16.560 Y9.962 F10.000
G1 X-16.188 Y10.011 F10.000
G1 X-15.823 Y10.090 F10.000
G1 X-15.462 Y10.180 F10.000
G1 X-15.105 Y10.293 F10.000
G1 X-14.752 Y10.417 F10.000
G1 X-14.406 Y10.560 F10.000
G1 X-14.068 Y10.718 F10.000
G1 X-13.737 Y10.891 F10.000
G1 X-13.417 Y11.079 F10.000
G1 X-12.797 Y11.492 F10.000
G1 X-12.504 Y11.722 F10.000
G1 X-12.218 Y11.962 F10.000
G1 X-11.947 Y12.218 F10.000
G1 X-11.688 Y12.485 F10.000
G1 X-11.440 Y12.763 F10.000
G1 X-11.207 Y13.053 F10.000
G1 X-10.989 Y13.353 F10.000
G1 X-10.782 Y13.662 F10.000
G1 X-10.594 Y13.981 F10.000
G1 X-10.421 Y14.308 F10.000
G1 X-10.263 Y14.643 F10.000
G1 X-10.120 Y14.985 F10.000
G1 X-9.992 Y15.335 F10.000
G1 X-9.883 Y15.688 F10.000
G1 X-9.789 Y16.049 F10.000
G1 X-9.707 Y16.410 F10.000
G1 X-9.643 Y16.774 F10.000
G1 X-9.594 Y17.143 F10.000
G1 X-9.560 Y17.511 F10.000
G1 X-9.541 Y17.880 F10.000
G1 X-9.549 Y18.248 F10.000
G1 X-9.568 Y18.617 F10.000
G1 X-9.609 Y18.985 F10.000
G1 X-9.669 Y19.350 F10.000
G1 X-9.744 Y19.711 F10.000
G1 X-9.838 Y20.068 F10.000
G1 X-9.951 Y20.421 F10.000
G1 X-10.079 Y20.767 F10.000
G1 X-10.380 Y21.440 F10.000
G1 X-10.553 Y21.767 F10.000
G1 X-10.741 Y22.086 F10.000
G1 X-10.940 Y22.398 F10.000
G1 X-11.154 Y22.699 F10.000
G1 X-11.380 Y22.992 F10.000
G1 X-11.620 Y23.274 F10.000
G1 X-11.872 Y23.545 F10.000
G1 X-12.135 Y23.805 F10.000
G1 X-12.410 Y24.053 F10.000
G1 X-12.695 Y24.289 F10.000
G1 X-12.989 Y24.511 F10.000
G1 X-13.293 Y24.722 F10.000
G1 X-13.605 Y24.917 F10.000
G1 X-13.925 Y25.102 F10.000
G1 X-14.252 Y25.271 F10.000
G1 X-14.586 Y25.425 F10.000
G1 X-14.929 Y25.564 F10.000
G1 X-15.278 Y25.688 F10.000
G1 X-15.996 Y25.868 F10.000
G1 X-16.361 Y25.932 F10.000
G1 X-16.726 Y25.985 F10.000
G1 X-17.094 Y26.019 F10.000
G1 X-17.462 Y26.038 F10.000
G1 X-17.831 Y26.041 F10.000
G1 X-18.199 Y26.026 F10.000
G1 X-18.568 Y25.996 F10.000
G1 X-18.936 Y25.947 F10.000
G1 X-19.301 Y25.883 F10.000
G1 X-19.662 Y25.805 F10.000
G1 X-20.019 Y25.707 F10.000
G1 X-20.372 Y25.594 F10.000
G1 X-20.722 Y25.466 F10.000
G1 X-21.064 Y25.323 F10.000
G1 X-21.398 Y25.165 F10.000
G1 X-21.726 Y24.992 F10.000
G1 X-22.045 Y24.805 F10.000
G1 X-22.357 Y24.602 F10.000
G1 X-22.662 Y24.387 F10.000
G1 X-22.955 Y24.158 F10.000
G1 X-23.229 Y23.906 F10.000
G1 X-23.496 Y23.647 F10.000
G1 X-23.752 Y23.376 F10.000
G1 X-23.996 Y23.094 F10.000
G1 X-24.226 Y22.801 F10.000
G1 X-24.444 Y22.500 F10.000
G1 X-24.650 Y22.188 F10.000
G1 X-24.842 Y21.868 F10.000
G1 X-25.019 Y21.541 F10.000
G1 X-25.184 Y21.207 F10.000
G1 X-25.335 Y20.865 F10.000
G1 X-25.470 Y20.515 F10.000
G1 X-25.579 Y20.158 F10.000
G1 X-25.677 Y19.797 F10.000
G1 X-25.759 Y19.432 F10.000
G1 X-25.827 Y19.064 F10.000
G1 X-25.880 Y18.695 F10.000
G1 X-25.917 Y18.323 F10.000
G1 X-25.940 Y17.951 F10.000
G1 X-25.929 Y17.579 F10.000
G1 X-25.906 Y17.207 F10.000
G1 X-25.865 Y16.835 F10.000
G1 X-25.812 Y16.462 F10.000
G1 X-25.737 Y16.094 F10.000
G1 X-25.647 Y15.729 F10.000
G1 X-25.429 Y15.011 F10.000
G1 X-25.297 Y14.662 F10.000
G1 X-25.154 Y14.316 F10.000
G1 X-24.996 Y13.977 F10.000
G1 X-24.823 Y13.643 F10.000
G1 X-24.425 Y13.008 F10.000
G1 X-24.203 Y12.703 F10.000
G1 X-23.966 Y12.414 F10.000
G1 X-23.718 Y12.135 F10.000
G1 X-23.459 Y11.865 F10.000
G1 X-23.184 Y11.609 F10.000
G1 X-22.902 Y11.365 F10.000
G1 X-22.609 Y11.132 F10.000
G1 X-22.305 Y10.914 F10.000
G1 X-21.992 Y10.707 F10.000
G1 X-21.673 Y10.515 F10.000
G1 X-21.342 Y10.335 F10.000
G1 X-21.004 Y10.169 F10.000
G1 X-20.662 Y10.019 F10.000
G1 X-20.312 Y9.883 F10.000
G1 X-19.959 Y9.763 F10.000
G1 X-19.598 Y9.662 F10.000
G1 X-19.233 Y9.575 F10.000
G1 X-18.865 Y9.504 F10.000
G1 X-18.496 Y9.447 F10.000
G1 X-18.124 Y9.410 F10.000
G1 X-17.752 Y9.387 F10.000
G1 X-17.380 Y9.380 F10.000
G1 X-17.008 Y9.391 F10.000
G1 X-16.635 Y9.417 F10.000
G1 X-16.267 Y9.474 F10.000
G1 X-15.898 Y9.541 F10.000
G1 X-15.534 Y9.624 F10.000
G1 X-15.173 Y9.722 F10.000
G1 X-14.816 Y9.835 F10.000
G1 X-14.466 Y9.962 F10.000
G1 X-14.120 Y10.102 F10.000
G1 X-13.782 Y10.256 F10.000
G1 X-13.451 Y10.425 F10.000
G1 X-13.128 Y10.609 F10.000
G1 X-12.812 Y10.805 F10.000
G1 X-12.218 Y11.256 F10.000
G1 X-11.936 Y11.500 F10.000
G1 X-11.662 Y11.752 F10.000
G1 X-11.402 Y12.019 F10.000
G1 X-10.914 Y12.579 F10.000
G1 X-10.688 Y12.876 F10.000
G1 X-10.474 Y13.180 F10.000
G1 X-10.271 Y13.492 F10.000
G1 X-10.083 Y13.812 F10.000
G1 X-9.906 Y14.139 F10.000
G1 X-9.613 Y14.820 F10.000
G1 X-9.489 Y15.169 F10.000
G1 X-9.376 Y15.523 F10.000
G1 X-9.282 Y15.880 F10.000
G1 X-9.203 Y16.241 F10.000
G1 X-9.083 Y16.970 F10.000
G1 X-9.045 Y17.338 F10.000
G1 X-9.019 Y17.707 F10.000
G1 X-9.008 Y18.075 F10.000
G1 X-9.053 Y18.812 F10.000
G1 X-9.098 Y19.180 F10.000
G1 X-9.162 Y19.545 F10.000
G1 X-9.241 Y19.906 F10.000
G1 X-9.338 Y20.263 F10.000
G1 X-9.455 Y20.613 F10.000
G1 X-9.586 Y20.959 F10.000
G1 X-9.733 Y21.297 F10.000
G1 X-9.891 Y21.632 F10.000
G1 X-10.064 Y21.959 F10.000
G1 X-10.252 Y22.278 F10.000
G1 X-10.658 Y22.898 F10.000
G1 X-11.109 Y23.485 F10.000
G1 X-11.350 Y23.767 F10.000
G1 X-11.609 Y24.030 F10.000
G1 X-11.876 Y24.286 F10.000
G1 X-12.154 Y24.530 F10.000
G1 X-12.444 Y24.759 F10.000
G1 X-12.744 Y24.977 F10.000
G1 X-13.365 Y25.376 F10.000
G1 X-13.688 Y25.556 F10.000
G1 X-14.019 Y25.726 F10.000
G1 X-14.353 Y25.883 F10.000
G1 X-14.695 Y26.026 F10.000
G1 X-15.045 Y26.147 F10.000
G1 X-15.398 Y26.256 F10.000
G1 X-15.756 Y26.350 F10.000
G1 X-16.117 Y26.425 F10.000
G1 X-16.481 Y26.485 F10.000
G1 X-16.850 Y26.526 F10.000
G1 X-17.218 Y26.553 F10.000
G1 X-17.586 Y26.560 F10.000
G1 X-17.955 Y26.553 F10.000
G1 X-18.692 Y26.492 F10.000
G1 X-19.060 Y26.440 F10.000
G1 X-19.425 Y26.372 F10.000
G1 X-19.786 Y26.289 F10.000
G1 X-20.143 Y26.192 F10.000
G1 X-20.496 Y26.079 F10.000
G1 X-20.846 Y25.955 F10.000
G1 X-21.188 Y25.816 F10.000
G1 X-21.526 Y25.662 F10.000
G1 X-21.857 Y25.496 F10.000
G1 X-22.180 Y25.316 F10.000
G1 X-22.496 Y25.124 F10.000
G1 X-22.805 Y24.917 F10.000
G1 X-23.102 Y24.692 F10.000
G1 X-23.391 Y24.455 F10.000
G1 X-23.669 Y24.207 F10.000
G1 X-23.932 Y23.944 F10.000
G1 X-24.184 Y23.669 F10.000
G1 X-24.425 Y23.383 F10.000
G1 X-24.868 Y22.786 F10.000
G1 X-25.071 Y22.474 F10.000
G1 X-25.259 Y22.154 F10.000
G1 X-25.605 Y21.492 F10.000
G1 X-25.759 Y21.150 F10.000
G1 X-25.902 Y20.805 F10.000
G1 X-26.023 Y20.451 F10.000
G1 X-26.132 Y20.094 F10.000
G1 X-26.226 Y19.733 F10.000
G1 X-26.301 Y19.368 F10.000
G1 X-26.361 Y19.000 F10.000
G1 X-26.402 Y18.628 F10.000
G1 X-26.429 Y18.256 F10.000
G1 X-26.440 Y17.883 F10.000
G1 X-26.432 Y17.511 F10.000
G1 X-26.410 Y17.139 F10.000
G1 X-26.368 Y16.767 F10.000
G1 X-26.312 Y16.398 F10.000
G1 X-26.241 Y16.030 F10.000
G1 X-26.154 Y15.665 F10.000
G1 X-26.056 Y15.305 F10.000
G1 X-25.940 Y14.947 F10.000
G1 X-25.812 Y14.594 F10.000
G1 X-25.673 Y14.248 F10.000
G1 X-25.519 Y13.906 F10.000
G1 X-25.353 Y13.571 F10.000
G1 X-25.173 Y13.244 F10.000
G1 X-24.981 Y12.925 F10.000
G1 X-24.774 Y12.613 F10.000
G1 X-24.308 Y12.026 F10.000
G1 X-24.056 Y11.748 F10.000
G1 X-23.797 Y11.477 F10.000
G1 X-23.523 Y11.222 F10.000
G1 X-23.237 Y10.977 F10.000
G1 X-22.944 Y10.744 F10.000
G1 X-22.639 Y10.526 F10.000
G1 X-22.011 Y10.120 F10.000
G1 X-21.684 Y9.936 F10.000
G1 X-21.353 Y9.763 F10.000
G1 X-21.015 Y9.602 F10.000
G1 X-20.669 Y9.455 F10.000
G1 X-19.959 Y9.222 F10.000
G1 X-19.233 Y9.041 F10.000
G1 X-18.865 Y8.974 F10.000
G1 X-18.492 Y8.921 F10.000
G1 X-18.120 Y8.880 F10.000
G1 X-17.748 Y8.853 F10.000
G1 X-17.376 Y8.842 F10.000
G1 X-16.632 Y8.895 F10.000
G1 X-16.259 Y8.940 F10.000
G1 X-15.891 Y9.004 F10.000
G1 X-15.526 Y9.083 F10.000
G1 X-15.165 Y9.173 F10.000
G1 X-14.808 Y9.278 F10.000
G1 X-14.455 Y9.398 F10.000
G1 X-14.109 Y9.534 F10.000
G1 X-13.429 Y9.842 F10.000
G1 X-13.098 Y10.015 F10.000
G1 X-12.774 Y10.199 F10.000
G1 X-12.165 Y10.628 F10.000
G1 X-11.868 Y10.853 F10.000
G1 X-11.583 Y11.094 F10.000
G1 X-11.308 Y11.346 F10.000
G1 X-11.041 Y11.605 F10.000
G1 X-10.786 Y11.876 F10.000
G1 X-10.541 Y12.158 F10.000
G1 X-10.308 Y12.447 F10.000
G1 X-9.895 Y13.064 F10.000
G1 X-9.707 Y13.383 F10.000
G1 X-9.530 Y13.711 F10.000
G1 X-9.214 Y14.383 F10.000
G1 X-9.075 Y14.729 F10.000
G1 X-8.951 Y15.079 F10.000
G1 X-8.838 Y15.432 F10.000
G1 X-8.673 Y16.154 F10.000
G1 X-8.605 Y16.519 F10.000
G1 X-8.549 Y16.883 F10.000
G1 X-8.508 Y17.252 F10.000
G1 X-8.477 Y17.620 F10.000
G1 X-8.470 Y17.989 F10.000
G1 X-8.474 Y18.357 F10.000
G1 X-8.492 Y18.726 F10.000
G1 X-8.530 Y19.094 F10.000
G1 X-8.590 Y19.459 F10.000
G1 X-8.662 Y19.820 F10.000
G1 X-8.756 Y20.177 F10.000
G1 X-8.985 Y20.880 F10.000
G1 X-9.117 Y21.226 F10.000
G1 X-9.263 Y21.564 F10.000
G1 X-9.421 Y21.898 F10.000
G1 X-9.594 Y22.226 F10.000
G1 X-9.778 Y22.545 F10.000
G1 X-9.974 Y22.857 F10.000
G1 X-10.180 Y23.162 F10.000
G1 X-10.398 Y23.459 F10.000
G1 X-10.628 Y23.748 F10.000
G1 X-10.868 Y24.030 F10.000
G1 X-11.120 Y24.301 F10.000
G1 X-11.383 Y24.560 F10.000
G1 X-11.654 Y24.812 F10.000
G1 X-12.241 Y25.263 F10.000
G1 X-12.541 Y25.477 F10.000
G1 X-12.850 Y25.680 F10.000
G1 X-13.165 Y25.872 F10.000
G1 X-13.489 Y26.053 F10.000
G1 X-13.816 Y26.222 F10.000
G1 X-14.496 Y26.508 F10.000
G1 X-14.846 Y26.632 F10.000
G1 X-15.199 Y26.737 F10.000
G1 X-15.556 Y26.827 F10.000
G1 X-15.917 Y26.902 F10.000
G1 X-16.282 Y26.962 F10.000
G1 X-17.019 Y27.045 F10.000
G1 X-17.387 Y27.064 F10.000
G1 X-17.756 Y27.071 F10.000
G1 X-18.124 Y27.068 F10.000
G1 X-18.861 Y26.992 F10.000
G1 X-19.590 Y26.865 F10.000
G1 X-19.951 Y26.778 F10.000
G1 X-20.308 Y26.677 F10.000
G1 X-20.662 Y26.564 F10.000
G1 X-21.011 Y26.436 F10.000
G1 X-21.353 Y26.297 F10.000
G1 X-21.692 Y26.147 F10.000
G1 X-22.023 Y25.981 F10.000
G1 X-22.350 Y25.805 F10.000
G1 X-22.669 Y25.613 F10.000
G1 X-22.981 Y25.410 F10.000
G1 X-23.286 Y25.195 F10.000
G1 X-23.583 Y24.970 F10.000
G1 X-23.861 Y24.722 F10.000
G1 X-24.132 Y24.466 F10.000
G1 X-24.387 Y24.195 F10.000
G1 X-24.635 Y23.917 F10.000
G1 X-25.098 Y23.335 F10.000
G1 X-25.312 Y23.030 F10.000
G1 X-25.515 Y22.718 F10.000
G1 X-25.707 Y22.398 F10.000
G1 X-25.887 Y22.071 F10.000
G1 X-26.056 Y21.737 F10.000
G1 X-26.211 Y21.398 F10.000
G1 X-26.353 Y21.053 F10.000
G1 X-26.481 Y20.703 F10.000
G1 X-26.598 Y20.350 F10.000
G1 X-26.699 Y19.992 F10.000
G1 X-26.835 Y19.256 F10.000
G1 X-26.917 Y18.511 F10.000
G1 X-26.940 Y17.767 F10.000
G1 X-26.932 Y17.395 F10.000
G1 X-26.914 Y17.023 F10.000
G1 X-26.808 Y16.282 F10.000
G1 X-26.741 Y15.914 F10.000
G1 X-26.658 Y15.549 F10.000
G1 X-26.560 Y15.188 F10.000
G1 X-26.451 Y14.831 F10.000
G1 X-26.331 Y14.477 F10.000
G1 X-26.195 Y14.128 F10.000
G1 X-26.049 Y13.782 F10.000
G1 X-25.891 Y13.444 F10.000
G1 X-25.523 Y12.789 F10.000
G1 X-25.320 Y12.474 F10.000
G1 X-25.102 Y12.169 F10.000
G1 X-24.872 Y11.872 F10.000
G1 X-24.632 Y11.586 F10.000
G1 X-24.380 Y11.312 F10.000
G1 X-24.117 Y11.045 F10.000
G1 X-23.842 Y10.789 F10.000
G1 X-23.556 Y10.549 F10.000
G1 X-23.259 Y10.320 F10.000
G1 X-22.643 Y9.891 F10.000
G1 X-22.323 Y9.695 F10.000
G1 X-21.996 Y9.511 F10.000
G1 X-21.662 Y9.338 F10.000
G1 X-21.323 Y9.180 F10.000
G1 X-20.977 Y9.034 F10.000
G1 X-20.274 Y8.774 F10.000
G1 X-19.917 Y8.665 F10.000
G1 X-19.556 Y8.568 F10.000
G1 X-18.820 Y8.432 F10.000
G1 X-18.447 Y8.380 F10.000
G1 X-18.075 Y8.350 F10.000
G1 X-17.703 Y8.331 F10.000
G1 X-17.331 Y8.327 F10.000
G1 X-16.959 Y8.342 F10.000
G1 X-16.586 Y8.368 F10.000
G1 X-16.214 Y8.414 F10.000
G1 X-15.846 Y8.474 F10.000
G1 X-15.481 Y8.549 F10.000
G1 X-15.117 Y8.639 F10.000
G1 X-14.759 Y8.741 F10.000
G1 X-14.406 Y8.857 F10.000
G1 X-13.711 Y9.124 F10.000
G1 X-13.372 Y9.278 F10.000
G1 X-13.038 Y9.444 F10.000
G1 X-12.714 Y9.628 F10.000
G1 X-12.395 Y9.823 F10.000
G1 X-11.782 Y10.244 F10.000
G1 X-11.489 Y10.474 F10.000
G1 X-11.203 Y10.714 F10.000
G1 X-10.925 Y10.962 F10.000
G1 X-10.658 Y11.222 F10.000
G1 X-10.402 Y11.489 F10.000
G1 X-10.154 Y11.767 F10.000
G1 X-9.711 Y12.365 F10.000
G1 X-9.312 Y12.992 F10.000
G1 X-8.959 Y13.647 F10.000
G1 X-8.801 Y13.981 F10.000
G1 X-8.515 Y14.669 F10.000
G1 X-8.391 Y15.019 F10.000
G1 X-8.195 Y15.733 F10.000
G1 X-8.120 Y16.094 F10.000
G1 X-8.008 Y16.827 F10.000
G1 X-7.974 Y17.195 F10.000
G1 X-7.951 Y17.564 F10.000
G1 X-7.940 Y17.932 F10.000
G1 X-7.944 Y18.301 F10.000
G1 X-7.962 Y18.669 F10.000
G1 X-7.992 Y19.038 F10.000
G1 X-8.038 Y19.406 F10.000
G1 X-8.105 Y19.771 F10.000
G1 X-8.184 Y20.132 F10.000
G1 X-8.278 Y20.489 F10.000
G1 X-8.391 Y20.842 F10.000
G1 X-8.519 Y21.188 F10.000
G1 X-8.812 Y21.868 F10.000
G1 X-9.150 Y22.526 F10.000
G1 X-9.335 Y22.846 F10.000
G1 X-9.733 Y23.466 F10.000
G1 X-9.947 Y23.767 F10.000
G1 X-10.173 Y24.060 F10.000
G1 X-10.665 Y24.609 F10.000
G1 X-10.925 Y24.872 F10.000
G1 X-11.199 Y25.120 F10.000
G1 X-11.481 Y25.361 F10.000
G1 X-11.774 Y25.586 F10.000
G1 X-12.380 Y26.011 F10.000
G1 X-12.695 Y26.207 F10.000
G1 X-13.015 Y26.391 F10.000
G1 X-13.342 Y26.564 F10.000
G1 X-13.677 Y26.726 F10.000
G1 X-14.015 Y26.876 F10.000
G1 X-14.357 Y27.011 F10.000
G1 X-14.707 Y27.135 F10.000
G1 X-15.060 Y27.241 F10.000
G1 X-15.417 Y27.335 F10.000
G1 X-15.778 Y27.414 F10.000
G1 X-16.143 Y27.477 F10.000
G1 X-16.508 Y27.530 F10.000
G1 X-16.876 Y27.568 F10.000
G1 X-17.244 Y27.590 F10.000
G1 X-17.613 Y27.598 F10.000
G1 X-17.981 Y27.590 F10.000
G1 X-18.350 Y27.568 F10.000
G1 X-18.718 Y27.530 F10.000
G1 X-19.086 Y27.477 F10.000
G1 X-19.816 Y27.338 F10.000
G1 X-20.177 Y27.248 F10.000
G1 X-20.534 Y27.147 F10.000
G1 X-20.887 Y27.034 F10.000
G1 X-21.237 Y26.910 F10.000
G1 X-21.583 Y26.774 F10.000
G1 X-22.248 Y26.444 F10.000
G1 X-22.895 Y26.075 F10.000
G1 X-23.207 Y25.876 F10.000
G1 X-23.515 Y25.665 F10.000
G1 X-24.090 Y25.195 F10.000
G1 X-24.365 Y24.944 F10.000
G1 X-24.624 Y24.677 F10.000
G1 X-24.876 Y24.402 F10.000
G1 X-25.357 Y23.831 F10.000
G1 X-25.583 Y23.534 F10.000
G1 X-26.004 Y22.917 F10.000
G1 X-26.199 Y22.598 F10.000
G1 X-26.538 Y21.932 F10.000
G1 X-26.831 Y21.244 F10.000
G1 X-26.955 Y20.895 F10.000
G1 X-27.068 Y20.538 F10.000
G1 X-27.169 Y20.177 F10.000
G1 X-27.256 Y19.812 F10.000
G1 X-27.331 Y19.447 F10.000
G1 X-27.380 Y19.075 F10.000
G1 X-27.417 Y18.703 F10.000
G1 X-27.447 Y17.959 F10.000
G1 X-27.444 Y17.586 F10.000
G1 X-27.425 Y17.214 F10.000
G1 X-27.395 Y16.842 F10.000
G1 X-27.350 Y16.470 F10.000
G1 X-27.289 Y16.102 F10.000
G1 X-27.218 Y15.733 F10.000
G1 X-27.132 Y15.368 F10.000
G1 X-26.929 Y14.647 F10.000
G1 X-26.808 Y14.293 F10.000
G1 X-26.677 Y13.944 F10.000
G1 X-26.534 Y13.598 F10.000
G1 X-26.380 Y13.256 F10.000
G1 X-26.011 Y12.602 F10.000
G1 X-25.598 Y11.977 F10.000
G1 X-25.372 Y11.677 F10.000
G1 X-25.135 Y11.387 F10.000
G1 X-24.887 Y11.105 F10.000
G1 X-24.628 Y10.835 F10.000
G1 X-24.361 Y10.571 F10.000
G1 X-24.083 Y10.320 F10.000
G1 X-23.797 Y10.079 F10.000
G1 X-23.500 Y9.850 F10.000
G1 X-23.195 Y9.632 F10.000
G1 X-22.883 Y9.425 F10.000
G1 X-22.564 Y9.229 F10.000
G1 X-22.237 Y9.049 F10.000
G1 X-21.902 Y8.880 F10.000
G1 X-21.218 Y8.568 F10.000
G1 X-20.515 Y8.305 F10.000
G1 X-20.162 Y8.184 F10.000
G1 X-19.801 Y8.079 F10.000
G1 X-19.068 Y7.925 F10.000
G1 X-18.699 Y7.868 F10.000
G1 X-18.327 Y7.831 F10.000
G1 X-17.955 Y7.805 F10.000
G1 X-16.429 Y7.820 F10.000
G1 X-15.647 Y7.929 F10.000
G1 X-14.921 Y8.109 F10.000
G1 X-14.564 Y8.218 F10.000
G1 X-13.861 Y8.470 F10.000
G1 X-13.515 Y8.613 F10.000
G1 X-13.177 Y8.767 F10.000
G1 X-12.519 Y9.120 F10.000
G1 X-11.883 Y9.515 F10.000
G1 X-11.282 Y9.951 F10.000
G1 X-10.989 Y10.184 F10.000
G1 X-10.707 Y10.425 F10.000
G1 X-10.432 Y10.677 F10.000
G1 X-10.165 Y10.936 F10.000
G1 X-9.680 Y11.504 F10.000
G1 X-9.237 Y12.102 F10.000
G1 X-9.034 Y12.414 F10.000
G1 X-8.842 Y12.733 F10.000
G1 X-8.489 Y13.383 F10.000
G1 X-8.323 Y13.714 F10.000
G1 X-8.169 Y14.053 F10.000
G1 X-7.902 Y14.744 F10.000
G1 X-7.523 Y16.117 F10.000
G1 X-7.301 Y17.526 F10.000
G1 X-7.312 Y18.485 F10.000
G1 X-7.361 Y18.853 F10.000
G1 X-7.485 Y19.583 F10.000
G1 X-7.564 Y19.944 F10.000
G1 X-7.752 Y20.662 F10.000
G1 X-8.004 Y21.357 F10.000
G1 X-8.297 Y22.038 F10.000
G1 X-8.635 Y22.695 F10.000
G1 X-9.008 Y23.338 F10.000
G1 X-9.207 Y23.650 F10.000
G1 X-9.639 Y24.248 F10.000
G1 X-9.868 Y24.538 F10.000
G1 X-10.376 Y25.075 F10.000
G1 X-10.643 Y25.331 F10.000
G1 X-10.917 Y25.579 F10.000
G1 X-11.203 Y25.816 F10.000
G1 X-11.496 Y26.041 F10.000
G1 X-11.797 Y26.256 F10.000
G1 X-12.105 Y26.459 F10.000
G1 X-12.741 Y26.838 F10.000
G1 X-13.068 Y27.011 F10.000
G1 X-13.733 Y27.327 F10.000
G1 X-14.075 Y27.470 F10.000
G1 X-14.421 Y27.602 F10.000
G1 X-15.132 Y27.805 F10.000
G1 X-15.492 Y27.887 F10.000
G1 X-15.857 Y27.959 F10.000
G1 X-17.068 Y28.086 F10.000
G1 X-18.421 Y28.053 F10.000
G1 X-19.297 Y27.944 F10.000
G1 X-19.662 Y27.883 F10.000
G1 X-20.026 Y27.808 F10.000
G1 X-20.387 Y27.722 F10.000
G1 X-20.744 Y27.624 F10.000
G1 X-21.098 Y27.511 F10.000
G1 X-21.447 Y27.383 F10.000
G1 X-21.789 Y27.244 F10.000
G1 X-22.128 Y27.090 F10.000
G1 X-22.459 Y26.925 F10.000
G1 X-22.786 Y26.748 F10.000
G1 X-23.105 Y26.556 F10.000
G1 X-23.417 Y26.353 F10.000
G1 X-23.722 Y26.139 F10.000
G1 X-24.019 Y25.914 F10.000
G1 X-24.305 Y25.677 F10.000
G1 X-24.583 Y25.429 F10.000
G1 X-24.850 Y25.169 F10.000
G1 X-25.109 Y24.902 F10.000
G1 X-25.602 Y24.342 F10.000
G1 X-26.053 Y23.748 F10.000
G1 X-26.267 Y23.444 F10.000
G1 X-26.658 Y22.812 F10.000
G1 X-26.838 Y22.485 F10.000
G1 X-27.008 Y22.154 F10.000
G1 X-27.165 Y21.816 F10.000
G1 X-27.429 Y21.117 F10.000
G1 X-27.541 Y20.759 F10.000
G1 X-27.643 Y20.398 F10.000
G1 X-27.729 Y20.034 F10.000
G1 X-27.801 Y19.665 F10.000
G1 X-27.861 Y19.297 F10.000
G1 X-27.906 Y18.925 F10.000
G1 X-27.940 Y18.553 F10.000
G1 X-27.959 Y18.180 F10.000
G1 X-27.962 Y17.808 F10.000
G1 X-27.955 Y17.436 F10.000
G1 X-27.932 Y17.064 F10.000
G1 X-27.895 Y16.692 F10.000
G1 X-27.846 Y16.320 F10.000
G1 X-27.782 Y15.951 F10.000
G1 X-27.624 Y15.222 F10.000
G1 X-27.526 Y14.861 F10.000
G1 X-27.301 Y14.147 F10.000
G1 X-27.173 Y13.793 F10.000
G1 X-27.034 Y13.444 F10.000
G1 X-26.703 Y12.771 F10.000
G1 X-26.523 Y12.444 F10.000
G1 X-26.117 Y11.812 F10.000
G1 X-25.895 Y11.508 F10.000
G1 X-25.662 Y11.214 F10.000
G1 X-25.169 Y10.647 F10.000
G1 X-24.906 Y10.380 F10.000
G1 X-24.635 Y10.120 F10.000
G1 X-24.357 Y9.868 F10.000
G1 X-23.778 Y9.395 F10.000
G1 X-23.477 Y9.173 F10.000
G1 X-23.169 Y8.962 F10.000
G1 X-22.519 Y8.594 F10.000
G1 X-22.188 Y8.421 F10.000
G1 X-21.850 Y8.259 F10.000
G1 X-21.508 Y8.109 F10.000
G1 X-21.158 Y7.970 F10.000
G1 X-20.805 Y7.842 F10.000
G1 X-20.447 Y7.726 F10.000
G1 X-20.086 Y7.620 F10.000
G1 X-19.722 Y7.526 F10.000
G1 X-19.357 Y7.447 F10.000
G1 X-18.989 Y7.380 F10.000
G1 X-18.620 Y7.323 F10.000
G1 X-17.586 Y7.241 F10.000
G1 X-17.466 Y7.252 F10.000
G1 X-16.744 Y7.429 F10.000
G1 X-16.383 Y7.470 F10.000
G1 X-15.421 Y7.459 F10.000
G1 X-14.519 Y7.650 F10.000
G1 X-14.162 Y7.763 F10.000
G1 X-13.466 Y8.034 F10.000
G1 X-13.128 Y8.192 F10.000
G1 X-12.462 Y8.534 F10.000
G1 X-12.135 Y8.714 F10.000
G1 X-11.500 Y9.105 F10.000
G1 X-11.192 Y9.312 F10.000
G1 X-10.602 Y9.767 F10.000
G1 X-10.327 Y10.019 F10.000
G1 X-10.060 Y10.278 F10.000
G1 X-9.801 Y10.545 F10.000
G1 X-9.549 Y10.820 F10.000
G1 X-9.075 Y11.395 F10.000
G1 X-8.853 Y11.692 F10.000
G1 X-8.643 Y11.996 F10.000
G1 X-8.252 Y12.628 F10.000
G1 X-8.071 Y12.955 F10.000
G1 X-7.902 Y13.286 F10.000
G1 X-7.744 Y13.620 F10.000
G1 X-7.598 Y13.962 F10.000
G1 X-7.286 Y14.756 F10.000
G1 X-7.271 Y14.812 F10.000
G1 X-7.267 Y14.868 F10.000
G1 X-7.361 Y15.207 F10.000
G1 X-7.361 Y15.207 F10.000
G1 X-7.410 Y15.312 F10.000
G1 X-7.470 Y15.380 F10.000
G0 X-7.492 Y15.402
G0 X-7.831 Y15.759
G0 X-7.853 Y16.312
G0 X-7.718 Y16.793
G0 X-7.530 Y17.053
G1 X-7.511 Y17.079 F10.000
G1 X-7.398 Y17.211 F10.000
G1 X-7.297 Y17.331 F10.000
G1 X-7.271 Y17.391 F10.000
G1 X-7.271 Y17.391 F10.000
G1 X-6.925 Y18.274 F10.000
G1 X-6.883 Y19.120 F10.000
G1 X-6.932 Y19.489 F10.000
G1 X-6.996 Y19.853 F10.000
G1 X-7.075 Y20.214 F10.000
G1 X-7.173 Y20.571 F10.000
G1 X-7.402 Y21.274 F10.000
G1 X-7.530 Y21.620 F10.000
G1 X-7.823 Y22.301 F10.000
G1 X-7.985 Y22.635 F10.000
G1 X-8.338 Y23.286 F10.000
G1 X-8.729 Y23.914 F10.000
G1 X-9.158 Y24.515 F10.000
G1 X-9.643 Y25.075 F10.000
G1 X-9.898 Y25.342 F10.000
G1 X-10.429 Y25.857 F10.000
G1 X-10.989 Y26.338 F10.000
G1 X-11.594 Y26.763 F10.000
G1 X-11.902 Y26.966 F10.000
G1 X-12.541 Y27.335 F10.000
G1 X-13.199 Y27.669 F10.000
G1 X-13.538 Y27.823 F10.000
G1 X-13.880 Y27.966 F10.000
G1 X-15.526 Y28.406 F10.000
G1 X-19.135 Y28.436 F10.000
G1 X-20.207 Y28.267 F10.000
G1 X-21.523 Y27.880 F10.000
G1 X-21.872 Y27.752 F10.000
G1 X-22.214 Y27.609 F10.000
G1 X-22.553 Y27.451 F10.000
G1 X-23.207 Y27.098 F10.000
G1 X-23.523 Y26.902 F10.000
G1 X-23.831 Y26.695 F10.000
G1 X-24.132 Y26.477 F10.000
G1 X-24.421 Y26.244 F10.000
G1 X-24.981 Y25.752 F10.000
G1 X-25.248 Y25.492 F10.000
G1 X-25.508 Y25.226 F10.000
G1 X-25.756 Y24.951 F10.000
G1 X-25.996 Y24.665 F10.000
G1 X-26.447 Y24.071 F10.000
G1 X-26.662 Y23.767 F10.000
G1 X-27.060 Y23.135 F10.000
G1 X-27.248 Y22.812 F10.000
G1 X-27.425 Y22.485 F10.000
G1 X-27.722 Y21.801 F10.000
G1 X-27.853 Y21.451 F10.000
G1 X-27.974 Y21.098 F10.000
G1 X-28.083 Y20.741 F10.000
G1 X-28.353 Y18.996 F10.000
G1 X-28.406 Y17.432 F10.000
G1 X-28.297 Y16.229 F10.000
G1 X-27.974 Y14.726 F10.000
G1 X-27.883 Y14.361 F10.000
G1 X-27.778 Y14.000 F10.000
G1 X-27.654 Y13.647 F10.000
G1 X-27.519 Y13.297 F10.000
G1 X-27.372 Y12.951 F10.000
G1 X-27.211 Y12.613 F10.000
G1 X-27.038 Y12.282 F10.000
G1 X-26.846 Y11.959 F10.000
G1 X-26.643 Y11.643 F10.000
G1 X-26.199 Y11.038 F10.000
G1 X-25.962 Y10.748 F10.000
G1 X-25.714 Y10.466 F10.000
G1 X-25.195 Y9.925 F10.000
G1 X-24.643 Y9.421 F10.000
G1 X-24.357 Y9.177 F10.000
G1 X-24.064 Y8.944 F10.000
G1 X-23.447 Y8.515 F10.000
G1 X-23.128 Y8.320 F10.000
G1 X-22.801 Y8.135 F10.000
G1 X-22.470 Y7.962 F10.000
G1 X-21.789 Y7.647 F10.000
G1 X-21.094 Y7.376 F10.000
G1 X-20.741 Y7.256 F10.000
G1 X-20.383 Y7.147 F10.000
G1 X-20.023 Y7.049 F10.000
G1 X-19.658 Y6.962 F10.000
G1 X-19.289 Y6.887 F10.000
G1 X-18.500 Y6.763 F10.000
G1 X-18.440 Y6.771 F10.000
G1 X-18.383 Y6.797 F10.000
G1 X-18.383 Y6.797 F10.000
G1 X-18.274 Y6.910 F10.000
G1 X-18.244 Y6.966 F10.000
G0 X-18.229 Y6.992
G0 X-17.583 Y7.891
G0 X-7.244 Y17.902
G1 X-7.207 Y17.940 F10.000
G1 X-6.906 Y18.214 F10.000
G1 X-6.906 Y18.214 F10.000
G1 X-6.617 Y18.665 F10.000
G1 X-6.541 Y18.827 F10.000
G1 X-6.474 Y19.391 F10.000
G1 X-6.474 Y19.504 F10.000
G1 X-6.511 Y19.872 F10.000
G1 X-6.571 Y20.237 F10.000
G1 X-6.650 Y20.598 F10.000
G1 X-6.748 Y20.955 F10.000
G1 X-6.857 Y21.308 F10.000
G1 X-6.977 Y21.658 F10.000
G1 X-7.109 Y22.004 F10.000
G1 X-7.252 Y22.346 F10.000
G1 X-7.406 Y22.680 F10.000
G1 X-7.571 Y23.011 F10.000
G1 X-7.748 Y23.335 F10.000
G1 X-8.124 Y23.970 F10.000
G1 X-8.538 Y24.583 F10.000
G1 X-8.996 Y25.162 F10.000
G1 X-9.237 Y25.440 F10.000
G1 X-9.489 Y25.711 F10.000
G1 X-9.748 Y25.974 F10.000
G1 X-10.019 Y26.226 F10.000
G1 X-10.297 Y26.470 F10.000
G1 X-10.583 Y26.703 F10.000
G1 X-11.177 Y27.139 F10.000
G1 X-11.485 Y27.342 F10.000
G1 X-11.801 Y27.534 F10.000
G1 X-12.447 Y27.895 F10.000
G1 X-13.410 Y28.331 F10.000
G1 X-13.857 Y28.459 F10.000
G1 X-15.718 Y28.466 F10.000
G1 X-15.718 Y28.466 F10.000
G1 X-15.835 Y28.440 F10.000
G1 X-15.887 Y28.410 F10.000
G1 X-15.902 Y28.391 F10.000
G0 X-15.906 Y28.372
G0 X-15.857 Y28.286
G0 X-6.936 Y18.759
G1 X-6.887 Y18.707 F10.000
G1 X-6.793 Y18.620 F10.000
G1 X-6.737 Y18.605 F10.000
G1 X-6.654 Y18.628 F10.000
G1 X-6.556 Y18.703 F10.000
G1 X-6.556 Y18.703 F10.000
G1 X-6.263 Y19.075 F10.000
G1 X-6.207 Y19.180 F10.000
G1 X-6.135 Y19.462 F10.000
G1 X-6.094 Y19.857 F10.000
G1 X-6.117 Y20.226 F10.000
G1 X-6.165 Y20.594 F10.000
G1 X-6.233 Y20.959 F10.000
G1 X-6.323 Y21.316 F10.000
G1 X-6.429 Y21.669 F10.000
G1 X-6.549 Y22.019 F10.000
G1 X-6.680 Y22.365 F10.000
G1 X-6.985 Y23.038 F10.000
G1 X-7.150 Y23.368 F10.000
G1 X-7.519 Y24.011 F10.000
G1 X-7.714 Y24.323 F10.000
G1 X-8.135 Y24.929 F10.000
G1 X-8.594 Y25.508 F10.000
G1 X-8.838 Y25.786 F10.000
G1 X-9.090 Y26.056 F10.000
G1 X-9.350 Y26.320 F10.000
G1 X-9.617 Y26.575 F10.000
G1 X-10.180 Y27.056 F10.000
G1 X-10.470 Y27.286 F10.000
G1 X-11.071 Y27.714 F10.000
G1 X-11.383 Y27.914 F10.000
G1 X-12.323 Y28.417 F10.000
G1 X-12.492 Y28.466 F10.000
G1 X-13.620 Y28.466 F10.000
G1 X-13.620 Y28.466 F10.000
G1 X-13.737 Y28.440 F10.000
G1 X-13.789 Y28.410 F10.000
G1 X-13.805 Y28.391 F10.000
G0 X-13.812 Y28.368
G0 X-13.767 Y28.278
G0 X-6.602 Y19.139
G1 X-6.560 Y19.086 F10.000
G1 X-6.477 Y18.992 F10.000
G1 X-6.425 Y18.974 F10.000
G1 X-6.338 Y18.989 F10.000
G1 X-6.233 Y19.053 F10.000
G1 X-6.233 Y19.053 F10.000
G1 X-6.154 Y19.139 F10.000
G1 X-5.936 Y19.350 F10.000
G1 X-5.865 Y19.447 F10.000
G1 X-5.771 Y19.726 F10.000
G1 X-5.711 Y20.064 F10.000
G1 X-5.714 Y20.432 F10.000
G1 X-5.741 Y20.801 F10.000
G1 X-5.801 Y21.165 F10.000
G1 X-5.880 Y21.519 F10.000
G1 X-5.974 Y21.876 F10.000
G1 X-6.083 Y22.229 F10.000
G1 X-6.211 Y22.575 F10.000
G1 X-6.504 Y23.256 F10.000
G1 X-6.842 Y23.914 F10.000
G1 X-7.026 Y24.233 F10.000
G1 X-7.425 Y24.853 F10.000
G1 X-7.639 Y25.154 F10.000
G1 X-8.094 Y25.737 F10.000
G1 X-8.335 Y26.019 F10.000
G1 X-8.835 Y26.560 F10.000
G1 X-9.098 Y26.820 F10.000
G1 X-9.643 Y27.316 F10.000
G1 X-10.214 Y27.782 F10.000
G1 X-11.203 Y28.414 F10.000
G1 X-11.368 Y28.466 F10.000
G1 X-12.158 Y28.466 F10.000
G1 X-12.158 Y28.466 F10.000
G1 X-12.274 Y28.440 F10.000
G1 X-12.327 Y28.410 F10.000
G1 X-12.342 Y28.391 F10.000
G0 X-12.350 Y28.368
G0 X-12.312 Y28.274
G0 X-6.271 Y19.436
G1 X-6.233 Y19.383 F10.000
G1 X-6.158 Y19.289 F10.000
G1 X-6.105 Y19.263 F10.000
G1 X-6.023 Y19.271 F10.000
G1 X-5.914 Y19.327 F10.000
G1 X-5.914 Y19.327 F10.000
G1 X-5.590 Y19.598 F10.000
G1 X-5.515 Y19.692 F10.000
G1 X-5.406 Y19.966 F10.000
G1 X-5.338 Y20.248 F10.000
G1 X-5.312 Y20.617 F10.000
G1 X-5.323 Y20.985 F10.000
G1 X-5.361 Y21.335 F10.000
G1 X-5.421 Y21.669 F10.000
G1 X-5.504 Y22.030 F10.000
G1 X-5.605 Y22.387 F10.000
G1 X-5.722 Y22.737 F10.000
G1 X-5.853 Y23.083 F10.000
G1 X-6.162 Y23.756 F10.000
G1 X-6.511 Y24.406 F10.000
G1 X-6.703 Y24.722 F10.000
G1 X-7.117 Y25.335 F10.000
G1 X-7.560 Y25.925 F10.000
G1 X-8.038 Y26.489 F10.000
G1 X-8.286 Y26.763 F10.000
G1 X-8.541 Y27.030 F10.000
G1 X-8.805 Y27.289 F10.000
G1 X-9.350 Y27.786 F10.000
G1 X-10.203 Y28.414 F10.000
G1 X-10.312 Y28.455 F10.000
G1 X-10.368 Y28.466 F10.000
G1 X-11.045 Y28.466 F10.000
G1 X-11.045 Y28.466 F10.000
G1 X-11.162 Y28.440 F10.000
G1 X-11.214 Y28.410 F10.000
G1 X-11.229 Y28.391 F10.000
G0 X-11.237 Y28.368
G0 X-11.203 Y28.271
G0 X-5.880 Y19.756
G1 X-5.846 Y19.699 F10.000
G1 X-5.774 Y19.602 F10.000
G1 X-5.722 Y19.575 F10.000
G1 X-5.635 Y19.568 F10.000
G1 X-5.523 Y19.605 F10.000
G1 X-5.523 Y19.605 F10.000
G1 X-5.267 Y19.774 F10.000
G1 X-5.180 Y19.861 F10.000
G1 X-5.030 Y20.180 F10.000
G1 X-4.962 Y20.406 F10.000
G1 X-4.914 Y20.774 F10.000
G1 X-4.906 Y21.143 F10.000
G1 X-4.925 Y21.477 F10.000
G1 X-4.966 Y21.808 F10.000
G1 X-5.038 Y22.173 F10.000
G1 X-5.128 Y22.530 F10.000
G1 X-5.237 Y22.883 F10.000
G1 X-5.361 Y23.233 F10.000
G1 X-5.496 Y23.575 F10.000
G1 X-5.647 Y23.914 F10.000
G1 X-5.812 Y24.244 F10.000
G1 X-6.173 Y24.887 F10.000
G1 X-6.368 Y25.203 F10.000
G1 X-6.789 Y25.808 F10.000
G1 X-7.244 Y26.391 F10.000
G1 X-7.726 Y26.951 F10.000
G1 X-7.977 Y27.222 F10.000
G1 X-8.237 Y27.485 F10.000
G1 X-9.267 Y28.391 F10.000
G1 X-9.316 Y28.425 F10.000
G1 X-9.425 Y28.466 F10.000
G1 X-9.932 Y28.466 F10.000
G1 X-9.932 Y28.466 F10.000
G1 X-10.049 Y28.440 F10.000
G1 X-10.102 Y28.410 F10.000
G1 X-10.117 Y28.391 F10.000
G0 X-10.124 Y28.368
G0 X-10.098 Y28.267
G0 X-5.549 Y19.955
G1 X-5.523 Y19.902 F10.000
G1 X-5.455 Y19.801 F10.000
G1 X-5.406 Y19.763 F10.000
G1 X-5.320 Y19.744 F10.000
G1 X-5.203 Y19.767 F10.000
G1 X-5.203 Y19.767 F10.000
G1 X-4.887 Y19.947 F10.000
G1 X-4.842 Y19.989 F10.000
G1 X-4.692 Y20.244 F10.000
G1 X-4.605 Y20.462 F10.000
G1 X-4.526 Y20.823 F10.000
G1 X-4.489 Y21.192 F10.000
G1 X-4.485 Y21.504 F10.000
G1 X-4.504 Y21.797 F10.000
G1 X-4.549 Y22.139 F10.000
G1 X-4.617 Y22.504 F10.000
G1 X-4.707 Y22.861 F10.000
G1 X-4.812 Y23.214 F10.000
G1 X-4.932 Y23.564 F10.000
G1 X-5.226 Y24.244 F10.000
G1 X-5.568 Y24.902 F10.000
G1 X-5.756 Y25.222 F10.000
G1 X-6.158 Y25.842 F10.000
G1 X-6.594 Y26.440 F10.000
G1 X-7.060 Y27.015 F10.000
G1 X-7.549 Y27.568 F10.000
G1 X-7.805 Y27.835 F10.000
G1 X-8.462 Y28.425 F10.000
G1 X-8.571 Y28.466 F10.000
G1 X-9.079 Y28.466 F10.000
G1 X-9.079 Y28.466 F10.000
G1 X-9.195 Y28.440 F10.000
G1 X-9.248 Y28.410 F10.000
G1 X-9.263 Y28.391 F10.000
G0 X-9.274 Y28.368
G0 X-9.248 Y28.267
G0 X-5.256 Y20.102
G1 X-5.229 Y20.049 F10.000
G1 X-5.173 Y19.944 F10.000
G1 X-5.128 Y19.902 F10.000
G1 X-5.041 Y19.876 F10.000
G1 X-4.925 Y19.880 F10.000
G1 X-4.925 Y19.880 F10.000
G1 X-4.692 Y19.959 F10.000
G1 X-4.538 Y20.049 F10.000
G1 X-4.361 Y20.289 F10.000
G1 X-4.248 Y20.500 F10.000
G1 X-4.139 Y20.853 F10.000
G1 X-4.075 Y21.218 F10.000
G1 X-4.053 Y21.508 F10.000
G1 X-4.053 Y21.774 F10.000
G1 X-4.075 Y22.090 F10.000
G1 X-4.124 Y22.459 F10.000
G1 X-4.192 Y22.823 F10.000
G1 X-4.387 Y23.538 F10.000
G1 X-4.650 Y24.226 F10.000
G1 X-4.966 Y24.895 F10.000
G1 X-5.327 Y25.538 F10.000
G1 X-5.523 Y25.853 F10.000
G1 X-5.944 Y26.462 F10.000
G1 X-6.162 Y26.763 F10.000
G1 X-6.628 Y27.338 F10.000
G1 X-6.868 Y27.617 F10.000
G1 X-7.583 Y28.353 F10.000
G1 X-7.673 Y28.425 F10.000
G1 X-7.726 Y28.451 F10.000
G1 X-7.782 Y28.466 F10.000
G1 X-8.233 Y28.466 F10.000
G1 X-8.233 Y28.466 F10.000
G1 X-8.350 Y28.440 F10.000
G1 X-8.402 Y28.410 F10.000
G1 X-8.417 Y28.391 F10.000
G0 X-8.429 Y28.368
G0 X-8.406 Y28.263
G0 X-4.895 Y20.218
G1 X-4.872 Y20.165 F10.000
G1 X-4.820 Y20.056 F10.000
G1 X-4.778 Y20.011 F10.000
G1 X-4.695 Y19.974 F10.000
G1 X-4.579 Y19.970 F10.000
G1 X-4.579 Y19.970 F10.000
G1 X-4.342 Y20.026 F10.000
G1 X-4.233 Y20.079 F10.000
G1 X-4.184 Y20.117 F10.000
G1 X-3.959 Y20.398 F10.000
G1 X-3.898 Y20.504 F10.000
G1 X-3.763 Y20.850 F10.000
G1 X-3.673 Y21.211 F10.000
G1 X-3.632 Y21.489 F10.000
G1 X-3.613 Y21.752 F10.000
G1 X-3.613 Y22.064 F10.000
G1 X-3.639 Y22.432 F10.000
G1 X-3.692 Y22.797 F10.000
G1 X-3.763 Y23.158 F10.000
G1 X-3.853 Y23.515 F10.000
G1 X-3.962 Y23.868 F10.000
G1 X-4.086 Y24.218 F10.000
G1 X-4.380 Y24.898 F10.000
G1 X-4.541 Y25.229 F10.000
G1 X-4.910 Y25.872 F10.000
G1 X-5.305 Y26.500 F10.000
G1 X-5.733 Y27.098 F10.000
G1 X-6.192 Y27.677 F10.000
G1 X-6.432 Y27.959 F10.000
G1 X-6.808 Y28.346 F10.000
G1 X-6.898 Y28.421 F10.000
G1 X-7.004 Y28.466 F10.000
G1 X-7.511 Y28.466 F10.000
G1 X-7.511 Y28.466 F10.000
G1 X-7.628 Y28.440 F10.000
G1 X-7.680 Y28.410 F10.000
G1 X-7.699 Y28.391 F10.000
G0 X-7.707 Y28.368
G0 X-7.688 Y28.263
G0 X-4.583 Y20.274
G1 X-4.564 Y20.222 F10.000
G1 X-4.515 Y20.109 F10.000
G1 X-4.447 Y20.045 F10.000
G1 X-4.278 Y20.004 F10.000
G1 X-4.278 Y20.004 F10.000
G1 X-4.038 Y20.041 F10.000
G1 X-3.921 Y20.086 F10.000
G1 X-3.741 Y20.244 F10.000
G1 X-3.556 Y20.485 F10.000
G1 X-3.391 Y20.816 F10.000
G1 X-3.274 Y21.169 F10.000
G1 X-3.218 Y21.421 F10.000
G1 X-3.184 Y21.665 F10.000
G1 X-3.165 Y21.959 F10.000
G1 X-3.165 Y22.327 F10.000
G1 X-3.195 Y22.695 F10.000
G1 X-3.244 Y23.064 F10.000
G1 X-3.320 Y23.425 F10.000
G1 X-3.410 Y23.782 F10.000
G1 X-3.515 Y24.135 F10.000
G1 X-3.635 Y24.485 F10.000
G1 X-3.774 Y24.827 F10.000
G1 X-4.090 Y25.500 F10.000
G1 X-4.259 Y25.827 F10.000
G1 X-4.444 Y26.147 F10.000
G1 X-4.842 Y26.771 F10.000
G1 X-5.049 Y27.079 F10.000
G1 X-5.492 Y27.669 F10.000
G1 X-6.049 Y28.323 F10.000
G1 X-6.184 Y28.432 F10.000
G1 X-6.237 Y28.455 F10.000
G1 X-6.293 Y28.466 F10.000
G1 X-6.688 Y28.466 F10.000
G1 X-6.688 Y28.466 F10.000
G1 X-6.805 Y28.440 F10.000
G1 X-6.857 Y28.410 F10.000
G1 X-6.876 Y28.391 F10.000
G0 X-6.883 Y28.365
G0 X-6.872 Y28.259
G0 X-4.263 Y20.308
G1 X-4.248 Y20.256 F10.000
G1 X-4.199 Y20.139 F10.000
G1 X-4.124 Y20.060 F10.000
G1 X-3.981 Y20.015 F10.000
G1 X-3.981 Y20.015 F10.000
G1 X-3.741 Y20.026 F10.000
G1 X-3.624 Y20.064 F10.000
G1 X-3.429 Y20.207 F10.000
G1 X-3.226 Y20.429 F10.000
G1 X-3.038 Y20.748 F10.000
G1 X-2.895 Y21.090 F10.000
G1 X-2.812 Y21.372 F10.000
G1 X-2.756 Y21.628 F10.000
G1 X-2.718 Y21.944 F10.000
G1 X-2.703 Y22.274 F10.000
G1 X-2.711 Y22.643 F10.000
G1 X-2.744 Y23.011 F10.000
G1 X-2.801 Y23.376 F10.000
G1 X-2.876 Y23.737 F10.000
G1 X-2.966 Y24.094 F10.000
G1 X-3.079 Y24.447 F10.000
G1 X-3.203 Y24.797 F10.000
G1 X-3.338 Y25.139 F10.000
G1 X-3.485 Y25.477 F10.000
G1 X-3.647 Y25.808 F10.000
G1 X-3.820 Y26.135 F10.000
G1 X-4.192 Y26.774 F10.000
G1 X-4.605 Y27.387 F10.000
G1 X-4.823 Y27.684 F10.000
G1 X-5.368 Y28.338 F10.000
G1 X-5.451 Y28.414 F10.000
G1 X-5.500 Y28.444 F10.000
G1 X-5.553 Y28.462 F10.000
G1 X-5.891 Y28.466 F10.000
G1 X-5.891 Y28.466 F10.000
G1 X-6.008 Y28.440 F10.000
G1 X-6.060 Y28.410 F10.000
G1 X-6.079 Y28.387 F10.000
G0 X-6.090 Y28.365
G0 X-6.083 Y28.256
G0 X-4.008 Y20.308
G1 X-3.992 Y20.252 F10.000
G1 X-3.944 Y20.109 F10.000
G1 X-3.880 Y20.041 F10.000
G1 X-3.741 Y19.992 F10.000
G1 X-3.741 Y19.992 F10.000
G1 X-3.440 Y19.985 F10.000
G1 X-3.380 Y19.996 F10.000
G1 X-3.218 Y20.079 F10.000
G1 X-2.981 Y20.267 F10.000
G1 X-2.940 Y20.308 F10.000
G1 X-2.714 Y20.605 F10.000
G1 X-2.541 Y20.932 F10.000
G1 X-2.451 Y21.154 F10.000
G1 X-2.383 Y21.380 F10.000
G1 X-2.320 Y21.650 F10.000
G1 X-2.267 Y22.019 F10.000
G1 X-2.241 Y22.387 F10.000
G1 X-2.244 Y22.756 F10.000
G1 X-2.274 Y23.124 F10.000
G1 X-2.320 Y23.492 F10.000
G1 X-2.383 Y23.857 F10.000
G1 X-2.466 Y24.218 F10.000
G1 X-2.571 Y24.571 F10.000
G1 X-2.688 Y24.921 F10.000
G1 X-2.816 Y25.267 F10.000
G1 X-2.962 Y25.605 F10.000
G1 X-3.286 Y26.271 F10.000
G1 X-3.459 Y26.598 F10.000
G1 X-3.842 Y27.233 F10.000
G1 X-4.045 Y27.541 F10.000
G1 X-4.259 Y27.842 F10.000
G1 X-4.729 Y28.380 F10.000
G1 X-4.771 Y28.417 F10.000
G1 X-4.872 Y28.466 F10.000
G1 X-5.267 Y28.466 F10.000
G1 X-5.267 Y28.466 F10.000
G1 X-5.383 Y28.440 F10.000
G1 X-5.436 Y28.410 F10.000
G1 X-5.455 Y28.387 F10.000
G0 X-5.466 Y28.365
G0 X-5.462 Y28.256
G0 X-3.680 Y20.297
G1 X-3.665 Y20.241 F10.000
G1 X-3.617 Y20.083 F10.000
G1 X-3.553 Y20.004 F10.000
G1 X-3.447 Y19.940 F10.000
G1 X-3.447 Y19.940 F10.000
G1 X-3.207 Y19.906 F10.000
G1 X-3.086 Y19.914 F10.000
G1 X-2.917 Y19.985 F10.000
G1 X-2.669 Y20.158 F10.000
G1 X-2.624 Y20.199 F10.000
G1 X-2.383 Y20.481 F10.000
G1 X-2.184 Y20.793 F10.000
G1 X-2.068 Y21.038 F10.000
G1 X-1.981 Y21.256 F10.000
G1 X-1.898 Y21.538 F10.000
G1 X-1.831 Y21.865 F10.000
G1 X-1.782 Y22.233 F10.000
G1 X-1.767 Y22.602 F10.000
G1 X-1.771 Y22.962 F10.000
G1 X-1.793 Y23.331 F10.000
G1 X-1.838 Y23.699 F10.000
G1 X-1.906 Y24.064 F10.000
G1 X-1.992 Y24.425 F10.000
G1 X-2.090 Y24.782 F10.000
G1 X-2.207 Y25.132 F10.000
G1 X-2.335 Y25.477 F10.000
G1 X-2.628 Y26.158 F10.000
G1 X-2.966 Y26.816 F10.000
G1 X-3.150 Y27.135 F10.000
G1 X-3.549 Y27.759 F10.000
G1 X-3.910 Y28.237 F10.000
G1 X-4.075 Y28.398 F10.000
G1 X-4.120 Y28.432 F10.000
G1 X-4.173 Y28.455 F10.000
G1 X-4.229 Y28.466 F10.000
G1 X-4.680 Y28.466 F10.000
G1 X-4.680 Y28.466 F10.000
G1 X-4.797 Y28.440 F10.000
G1 X-4.850 Y28.410 F10.000
G1 X-4.868 Y28.387 F10.000
G0 X-4.880 Y28.365
G0 X-4.880 Y28.256
G0 X-3.383 Y20.222
G1 X-3.372 Y20.165 F10.000
G1 X-3.342 Y20.041 F10.000
G1 X-3.286 Y19.947 F10.000
G1 X-3.158 Y19.861 F10.000
G1 X-3.158 Y19.861 F10.000
G1 X-2.977 Y19.812 F10.000
G1 X-2.857 Y19.805 F10.000
G1 X-2.680 Y19.853 F10.000
G1 X-2.365 Y20.034 F10.000
G1 X-2.094 Y20.289 F10.000
G1 X-1.868 Y20.583 F10.000
G1 X-1.741 Y20.789 F10.000
G1 X-1.635 Y21.004 F10.000
G1 X-1.534 Y21.259 F10.000
G1 X-1.436 Y21.579 F10.000
G1 X-1.357 Y21.940 F10.000
G1 X-1.308 Y22.308 F10.000
G1 X-1.289 Y22.665 F10.000
G1 X-1.289 Y23.030 F10.000
G1 X-1.308 Y23.398 F10.000
G1 X-1.350 Y23.767 F10.000
G1 X-1.414 Y24.132 F10.000
G1 X-1.489 Y24.492 F10.000
G1 X-1.579 Y24.850 F10.000
G1 X-1.684 Y25.203 F10.000
G1 X-1.805 Y25.553 F10.000
G1 X-1.940 Y25.898 F10.000
G1 X-2.241 Y26.575 F10.000
G1 X-2.410 Y26.902 F10.000
G1 X-2.778 Y27.541 F10.000
G1 X-2.981 Y27.850 F10.000
G1 X-3.312 Y28.282 F10.000
G1 X-3.436 Y28.406 F10.000
G1 X-3.485 Y28.440 F10.000
G1 X-3.538 Y28.462 F10.000
G1 X-3.932 Y28.466 F10.000
G1 X-3.932 Y28.466 F10.000
G1 X-4.049 Y28.440 F10.000
G1 X-4.120 Y28.387 F10.000
G0 X-4.135 Y28.365
G0 X-4.139 Y28.256
G0 X-3.120 Y20.158
G1 X-3.113 Y20.102 F10.000
G1 X-3.075 Y19.917 F10.000
G1 X-3.008 Y19.820 F10.000
G1 X-2.936 Y19.767 F10.000
G1 X-2.936 Y19.767 F10.000
G1 X-2.699 Y19.684 F10.000
G1 X-2.639 Y19.673 F10.000
G1 X-2.579 Y19.673 F10.000
G1 X-2.342 Y19.737 F10.000
G1 X-2.071 Y19.872 F10.000
G1 X-1.786 Y20.109 F10.000
G1 X-1.541 Y20.387 F10.000
G1 X-1.402 Y20.583 F10.000
G1 X-1.289 Y20.778 F10.000
G1 X-1.173 Y21.023 F10.000
G1 X-1.056 Y21.331 F10.000
G1 X-0.959 Y21.680 F10.000
G1 X-0.891 Y22.038 F10.000
G1 X-0.846 Y22.387 F10.000
G1 X-0.820 Y22.756 F10.000
G1 X-0.816 Y23.124 F10.000
G1 X-0.838 Y23.492 F10.000
G1 X-0.876 Y23.861 F10.000
G1 X-0.929 Y24.226 F10.000
G1 X-0.996 Y24.590 F10.000
G1 X-1.083 Y24.951 F10.000
G1 X-1.184 Y25.305 F10.000
G1 X-1.297 Y25.658 F10.000
G1 X-1.421 Y26.008 F10.000
G1 X-1.714 Y26.688 F10.000
G1 X-2.053 Y27.346 F10.000
G1 X-2.237 Y27.665 F10.000
G1 X-2.432 Y27.977 F10.000
G1 X-2.695 Y28.312 F10.000
G1 X-2.778 Y28.395 F10.000
G1 X-2.876 Y28.455 F10.000
G1 X-2.932 Y28.466 F10.000
G1 X-3.383 Y28.466 F10.000
G1 X-3.383 Y28.466 F10.000
G1 X-3.500 Y28.440 F10.000
G1 X-3.571 Y28.387 F10.000
G0 X-3.586 Y28.365
G0 X-3.594 Y28.256
G0 X-2.827 Y20.034
G1 X-2.823 Y19.977 F10.000
G1 X-2.801 Y19.812 F10.000
G1 X-2.752 Y19.714 F10.000
G1 X-2.673 Y19.632 F10.000
G1 X-2.673 Y19.632 F10.000
G1 X-2.440 Y19.538 F10.000
G1 X-2.380 Y19.526 F10.000
G1 X-2.199 Y19.545 F10.000
G1 X-1.910 Y19.643 F10.000
G1 X-1.853 Y19.669 F10.000
G1 X-1.541 Y19.872 F10.000
G1 X-1.271 Y20.128 F10.000
G1 X-1.124 Y20.305 F10.000
G1 X-1.004 Y20.481 F10.000
G1 X-0.872 Y20.714 F10.000
G1 X-0.733 Y21.008 F10.000
G1 X-0.602 Y21.353 F10.000
G1 X-0.504 Y21.711 F10.000
G1 X-0.432 Y22.064 F10.000
G1 X-0.376 Y22.429 F10.000
G1 X-0.346 Y22.797 F10.000
G1 X-0.342 Y23.165 F10.000
G1 X-0.387 Y23.902 F10.000
G1 X-0.436 Y24.271 F10.000
G1 X-0.579 Y24.996 F10.000
G1 X-0.673 Y25.353 F10.000
G1 X-0.898 Y26.056 F10.000
G1 X-1.173 Y26.744 F10.000
G1 X-1.327 Y27.079 F10.000
G1 X-1.665 Y27.737 F10.000
G1 X-2.049 Y28.274 F10.000
G1 X-2.165 Y28.398 F10.000
G1 X-2.263 Y28.459 F10.000
G1 X-2.658 Y28.466 F10.000
G1 X-2.658 Y28.466 F10.000
G1 X-2.774 Y28.440 F10.000
G1 X-2.846 Y28.387 F10.000
G0 X-2.861 Y28.365
G0 X-2.876 Y28.252
G0 X-2.613 Y19.902
G1 X-2.613 Y19.846 F10.000
G1 X-2.594 Y19.680 F10.000
G1 X-2.549 Y19.583 F10.000
G1 X-2.470 Y19.500 F10.000
G1 X-2.470 Y19.500 F10.000
G1 X-2.308 Y19.402 F10.000
G1 X-2.192 Y19.361 F10.000
G1 X-2.011 Y19.357 F10.000
G1 X-1.771 Y19.402 F10.000
G1 X-1.650 Y19.440 F10.000
G1 X-1.320 Y19.613 F10.000
G1 X-1.030 Y19.846 F10.000
G1 X-0.887 Y19.996 F10.000
G1 X-0.767 Y20.143 F10.000
G1 X-0.617 Y20.361 F10.000
G1 X-0.444 Y20.654 F10.000
G1 X-0.282 Y20.989 F10.000
G1 X-0.147 Y21.335 F10.000
G1 X-0.038 Y21.688 F10.000
G1 X0.041 Y22.049 F10.000
G1 X0.090 Y22.417 F10.000
G1 X0.124 Y22.786 F10.000
G1 X0.139 Y23.154 F10.000
G1 X0.135 Y23.523 F10.000
G1 X0.109 Y23.891 F10.000
G1 X0.068 Y24.259 F10.000
G1 X0.015 Y24.628 F10.000
G1 X-0.056 Y24.989 F10.000
G1 X-0.244 Y25.707 F10.000
G1 X-0.353 Y26.060 F10.000
G1 X-0.617 Y26.748 F10.000
G1 X-0.759 Y27.090 F10.000
G1 X-0.917 Y27.425 F10.000
G1 X-1.098 Y27.748 F10.000
G1 X-1.293 Y28.064 F10.000
G1 X-1.508 Y28.335 F10.000
G1 X-1.590 Y28.417 F10.000
G1 X-1.639 Y28.447 F10.000
G1 X-1.692 Y28.466 F10.000
G1 X-2.086 Y28.466 F10.000
G1 X-2.086 Y28.466 F10.000
G1 X-2.203 Y28.440 F10.000
G1 X-2.274 Y28.387 F10.000
G0 X-2.289 Y28.365
G0 X-2.308 Y28.252
G0 X-2.387 Y19.778
G1 X-2.391 Y19.718 F10.000
G1 X-2.383 Y19.530 F10.000
G1 X-2.338 Y19.417 F10.000
G1 X-2.282 Y19.350 F10.000
G1 X-2.282 Y19.350 F10.000
G1 X-2.132 Y19.237 F10.000
G1 X-2.019 Y19.180 F10.000
G1 X-1.959 Y19.162 F10.000
G1 X-1.718 Y19.158 F10.000
G1 X-1.477 Y19.199 F10.000
G1 X-1.132 Y19.342 F10.000
G1 X-0.857 Y19.526 F10.000
G1 X-0.703 Y19.654 F10.000
G1 X-0.556 Y19.801 F10.000
G1 X-0.383 Y20.000 F10.000
G1 X-0.165 Y20.301 F10.000
G1 X0.023 Y20.617 F10.000
G1 X0.188 Y20.947 F10.000
G1 X0.323 Y21.289 F10.000
G1 X0.432 Y21.643 F10.000
G1 X0.511 Y22.004 F10.000
G1 X0.571 Y22.368 F10.000
G1 X0.613 Y22.737 F10.000
G1 X0.632 Y23.105 F10.000
G1 X0.628 Y23.474 F10.000
G1 X0.613 Y23.842 F10.000
G1 X0.530 Y24.579 F10.000
G1 X0.387 Y25.308 F10.000
G1 X0.297 Y25.669 F10.000
G1 X0.192 Y26.026 F10.000
G1 X0.075 Y26.380 F10.000
G1 X-0.053 Y26.726 F10.000
G1 X-0.192 Y27.068 F10.000
G1 X-0.346 Y27.406 F10.000
G1 X-0.511 Y27.737 F10.000
G1 X-0.703 Y28.053 F10.000
G1 X-0.921 Y28.323 F10.000
G1 X-1.004 Y28.406 F10.000
G1 X-1.053 Y28.440 F10.000
G1 X-1.105 Y28.462 F10.000
G1 X-1.444 Y28.466 F10.000
G1 X-1.444 Y28.466 F10.000
G1 X-1.560 Y28.440 F10.000
G1 X-1.635 Y28.387 F10.000
G0 X-1.650 Y28.365
G0 X-1.673 Y28.252
G0 X-2.132 Y19.590
G1 X-2.132 Y19.530 F10.000
G1 X-2.135 Y19.312 F10.000
G1 X-2.064 Y19.147 F10.000
G1 X-2.064 Y19.147 F10.000
G1 X-1.917 Y19.026 F10.000
G1 X-1.865 Y18.992 F10.000
G1 X-1.808 Y18.970 F10.000
G1 X-1.568 Y18.936 F10.000
G1 X-1.327 Y18.951 F10.000
G1 X-1.267 Y18.962 F10.000
G1 X-0.917 Y19.086 F10.000
G1 X-0.624 Y19.252 F10.000
G1 X-0.451 Y19.380 F10.000
G1 X-0.293 Y19.515 F10.000
G1 X-0.094 Y19.718 F10.000
G1 X0.128 Y19.989 F10.000
G1 X0.338 Y20.293 F10.000
G1 X0.523 Y20.613 F10.000
G1 X0.684 Y20.947 F10.000
G1 X0.816 Y21.293 F10.000
G1 X0.921 Y21.647 F10.000
G1 X1.004 Y22.008 F10.000
G1 X1.064 Y22.372 F10.000
G1 X1.105 Y22.741 F10.000
G1 X1.120 Y23.109 F10.000
G1 X1.124 Y23.477 F10.000
G1 X1.113 Y23.846 F10.000
G1 X1.086 Y24.214 F10.000
G1 X1.041 Y24.583 F10.000
G1 X0.985 Y24.947 F10.000
G1 X0.914 Y25.312 F10.000
G1 X0.823 Y25.673 F10.000
G1 X0.613 Y26.383 F10.000
G1 X0.492 Y26.733 F10.000
G1 X0.214 Y27.421 F10.000
G1 X0.045 Y27.752 F10.000
G1 X-0.147 Y28.068 F10.000
G1 X-0.455 Y28.417 F10.000
G1 X-0.504 Y28.447 F10.000
G1 X-0.556 Y28.466 F10.000
G1 X-1.008 Y28.466 F10.000
G1 X-1.008 Y28.466 F10.000
G1 X-1.124 Y28.440 F10.000
G1 X-1.199 Y28.387 F10.000
G0 X-1.214 Y28.365
G0 X-1.241 Y28.252
G0 X-1.996 Y19.455
G1 X-2.000 Y19.395 F10.000
G1 X-2.011 Y19.177 F10.000
G1 X-1.947 Y19.011 F10.000
G1 X-1.947 Y19.011 F10.000
G1 X-1.823 Y18.868 F10.000
G1 X-1.673 Y18.756 F10.000
G1 X-1.613 Y18.733 F10.000
G1 X-1.312 Y18.695 F10.000
G1 X-1.132 Y18.707 F10.000
G1 X-0.771 Y18.797 F10.000
G1 X-0.451 Y18.944 F10.000
G1 X-0.271 Y19.053 F10.000
G1 X-0.105 Y19.177 F10.000
G1 X0.075 Y19.331 F10.000
G1 X0.338 Y19.590 F10.000
G1 X0.575 Y19.872 F10.000
G1 X0.793 Y20.169 F10.000
G1 X0.974 Y20.492 F10.000
G1 X1.102 Y20.759 F10.000
G1 X1.233 Y21.086 F10.000
G1 X1.350 Y21.436 F10.000
G1 X1.447 Y21.793 F10.000
G1 X1.519 Y22.158 F10.000
G1 X1.568 Y22.526 F10.000
G1 X1.605 Y22.895 F10.000
G1 X1.624 Y23.263 F10.000
G1 X1.620 Y23.632 F10.000
G1 X1.575 Y24.368 F10.000
G1 X1.526 Y24.737 F10.000
G1 X1.466 Y25.102 F10.000
G1 X1.308 Y25.827 F10.000
G1 X1.207 Y26.184 F10.000
G1 X0.974 Y26.887 F10.000
G1 X0.838 Y27.233 F10.000
G1 X0.692 Y27.575 F10.000
G1 X0.515 Y27.902 F10.000
G1 X0.308 Y28.211 F10.000
G1 X0.094 Y28.425 F10.000
G1 X0.041 Y28.455 F10.000
G1 X-0.015 Y28.466 F10.000
G1 X-0.466 Y28.466 F10.000
G1 X-0.466 Y28.466 F10.000
G1 X-0.583 Y28.440 F10.000
G1 X-0.658 Y28.387 F10.000
G0 X-0.673 Y28.365
G0 X-0.703 Y28.256
G0 X-1.786 Y19.218
G1 X-1.793 Y19.162 F10.000
G1 X-1.816 Y18.936 F10.000
G1 X-1.763 Y18.771 F10.000
G1 X-1.763 Y18.771 F10.000
G1 X-1.598 Y18.579 F10.000
G1 X-1.545 Y18.545 F10.000
G1 X-1.248 Y18.462 F10.000
G1 X-1.008 Y18.447 F10.000
G1 X-0.639 Y18.504 F10.000
G1 X-0.323 Y18.617 F10.000
G1 X-0.143 Y18.703 F10.000
G1 X0.038 Y18.808 F10.000
G1 X0.267 Y18.970 F10.000
G1 X0.534 Y19.195 F10.000
G1 X0.789 Y19.451 F10.000
G1 X1.026 Y19.729 F10.000
G1 X1.226 Y20.026 F10.000
G1 X1.372 Y20.282 F10.000
G1 X1.523 Y20.583 F10.000
G1 X1.669 Y20.921 F10.000
G1 X1.797 Y21.267 F10.000
G1 X1.902 Y21.620 F10.000
G1 X1.989 Y21.981 F10.000
G1 X2.053 Y22.346 F10.000
G1 X2.094 Y22.714 F10.000
G1 X2.124 Y23.451 F10.000
G1 X2.120 Y23.820 F10.000
G1 X2.102 Y24.188 F10.000
G1 X2.071 Y24.556 F10.000
G1 X2.026 Y24.925 F10.000
G1 X1.966 Y25.289 F10.000
G1 X1.895 Y25.654 F10.000
G1 X1.808 Y26.015 F10.000
G1 X1.707 Y26.372 F10.000
G1 X1.594 Y26.726 F10.000
G1 X1.466 Y27.075 F10.000
G1 X1.327 Y27.421 F10.000
G1 X1.162 Y27.752 F10.000
G1 X0.970 Y28.071 F10.000
G1 X0.737 Y28.346 F10.000
G1 X0.647 Y28.429 F10.000
G1 X0.594 Y28.455 F10.000
G1 X0.534 Y28.466 F10.000
G1 X0.053 Y28.466 F10.000
G1 X0.053 Y28.466 F10.000
G1 X-0.064 Y28.440 F10.000
G1 X-0.139 Y28.387 F10.000
G0 X-0.154 Y28.365
G0 X-0.188 Y28.256
G0 X-1.624 Y19.019
G1 X-1.635 Y18.962 F10.000
G1 X-1.673 Y18.680 F10.000
G1 X-1.647 Y18.564 F10.000
G1 X-1.647 Y18.564 F10.000
G1 X-1.541 Y18.410 F10.000
G1 X-1.447 Y18.323 F10.000
G1 X-1.214 Y18.229 F10.000
G1 X-0.974 Y18.184 F10.000
G1 X-0.602 Y18.192 F10.000
G1 X-0.252 Y18.271 F10.000
G1 X-0.060 Y18.338 F10.000
G1 X0.120 Y18.417 F10.000
G1 X0.353 Y18.549 F10.000
G1 X0.617 Y18.726 F10.000
G1 X0.906 Y18.955 F10.000
G1 X1.165 Y19.203 F10.000
G1 X1.391 Y19.474 F10.000
G1 X1.564 Y19.718 F10.000
G1 X1.744 Y20.004 F10.000
G1 X1.921 Y20.327 F10.000
G1 X2.079 Y20.662 F10.000
G1 X2.214 Y21.008 F10.000
G1 X2.331 Y21.357 F10.000
G1 X2.425 Y21.714 F10.000
G1 X2.496 Y22.079 F10.000
G1 X2.556 Y22.444 F10.000
G1 X2.598 Y22.812 F10.000
G1 X2.624 Y23.180 F10.000
G1 X2.632 Y23.549 F10.000
G1 X2.609 Y24.286 F10.000
G1 X2.575 Y24.654 F10.000
G1 X2.526 Y25.023 F10.000
G1 X2.398 Y25.752 F10.000
G1 X2.316 Y26.113 F10.000
G1 X2.222 Y26.470 F10.000
G1 X2.105 Y26.823 F10.000
G1 X1.977 Y27.173 F10.000
G1 X1.835 Y27.515 F10.000
G1 X1.662 Y27.846 F10.000
G1 X1.459 Y28.158 F10.000
G1 X1.214 Y28.417 F10.000
G1 X1.162 Y28.447 F10.000
G1 X1.105 Y28.466 F10.000
G1 X0.624 Y28.466 F10.000
G1 X0.624 Y28.466 F10.000
G1 X0.496 Y28.440 F10.000
G1 X0.417 Y28.387 F10.000
G0 X0.398 Y28.365
G0 X0.361 Y28.256
G0 X-1.515 Y18.805
G1 X-1.526 Y18.744 F10.000
G1 X-1.571 Y18.492 F10.000
G1 X-1.541 Y18.346 F10.000
G1 X-1.541 Y18.346 F10.000
G1 X-1.406 Y18.135 F10.000
G1 X-1.361 Y18.090 F10.000
G1 X-1.195 Y18.000 F10.000
G1 X-0.895 Y17.910 F10.000
G1 X-0.523 Y17.887 F10.000
G1 X-0.195 Y17.929 F10.000
G1 X0.000 Y17.977 F10.000
G1 X0.195 Y18.041 F10.000
G1 X0.444 Y18.150 F10.000
G1 X0.733 Y18.305 F10.000
G1 X1.026 Y18.504 F10.000
G1 X1.560 Y18.981 F10.000
G1 X1.992 Y19.515 F10.000
G1 X2.263 Y19.955 F10.000
G1 X2.440 Y20.278 F10.000
G1 X2.590 Y20.617 F10.000
G1 X2.722 Y20.962 F10.000
G1 X2.831 Y21.316 F10.000
G1 X2.921 Y21.673 F10.000
G1 X3.000 Y22.034 F10.000
G1 X3.060 Y22.398 F10.000
G1 X3.102 Y22.767 F10.000
G1 X3.128 Y23.135 F10.000
G1 X3.143 Y23.504 F10.000
G1 X3.147 Y23.872 F10.000
G1 X3.132 Y24.241 F10.000
G1 X3.105 Y24.609 F10.000
G1 X3.068 Y24.977 F10.000
G1 X3.015 Y25.346 F10.000
G1 X2.947 Y25.711 F10.000
G1 X2.868 Y26.071 F10.000
G1 X2.774 Y26.432 F10.000
G1 X2.669 Y26.789 F10.000
G1 X2.541 Y27.139 F10.000
G1 X2.391 Y27.477 F10.000
G1 X2.229 Y27.812 F10.000
G1 X2.034 Y28.128 F10.000
G1 X1.793 Y28.391 F10.000
G1 X1.748 Y28.429 F10.000
G1 X1.692 Y28.455 F10.000
G1 X1.632 Y28.466 F10.000
G1 X1.150 Y28.466 F10.000
G1 X1.150 Y28.466 F10.000
G1 X1.023 Y28.440 F10.000
G1 X0.944 Y28.387 F10.000
G0 X0.925 Y28.365
G0 X0.880 Y28.256
G0 X-1.395 Y18.635
G1 X-1.410 Y18.575 F10.000
G1 X-1.429 Y18.489 F10.000
G1 X-1.481 Y18.297 F10.000
G1 X-1.474 Y18.180 F10.000
G1 X-1.474 Y18.180 F10.000
G1 X-1.406 Y18.004 F10.000
G1 X-1.338 Y17.898 F10.000
G1 X-1.297 Y17.853 F10.000
G1 X-1.083 Y17.722 F10.000
G1 X-0.906 Y17.650 F10.000
G1 X-0.477 Y17.575 F10.000
G1 X-0.105 Y17.594 F10.000
G1 X0.094 Y17.628 F10.000
G1 X0.297 Y17.680 F10.000
G1 X0.530 Y17.759 F10.000
G1 X0.846 Y17.902 F10.000
G1 X1.353 Y18.203 F10.000
G1 X1.444 Y18.271 F10.000
G1 X1.556 Y18.398 F10.000
G1 X1.812 Y18.853 F10.000
G1 X2.147 Y19.233 F10.000
G1 X2.519 Y19.590 F10.000
G1 X2.771 Y19.974 F10.000
G1 X2.955 Y20.335 F10.000
G1 X3.109 Y20.669 F10.000
G1 X3.241 Y21.015 F10.000
G1 X3.353 Y21.368 F10.000
G1 X3.451 Y21.726 F10.000
G1 X3.526 Y22.086 F10.000
G1 X3.586 Y22.451 F10.000
G1 X3.628 Y22.820 F10.000
G1 X3.650 Y23.188 F10.000
G1 X3.662 Y23.556 F10.000
G1 X3.662 Y23.925 F10.000
G1 X3.650 Y24.293 F10.000
G1 X3.624 Y24.662 F10.000
G1 X3.586 Y25.030 F10.000
G1 X3.538 Y25.398 F10.000
G1 X3.474 Y25.763 F10.000
G1 X3.398 Y26.128 F10.000
G1 X3.188 Y26.838 F10.000
G1 X3.064 Y27.188 F10.000
G1 X2.921 Y27.530 F10.000
G1 X2.752 Y27.861 F10.000
G1 X2.553 Y28.173 F10.000
G1 X2.305 Y28.432 F10.000
G1 X2.248 Y28.459 F10.000
G1 X1.707 Y28.466 F10.000
G1 X1.707 Y28.466 F10.000
G1 X1.579 Y28.440 F10.000
G1 X1.500 Y28.387 F10.000
G0 X1.477 Y28.365
G0 X1.432 Y28.259
G0 X-1.320 Y18.406
G1 X-1.335 Y18.346 F10.000
G1 X-1.350 Y18.301 F10.000
G1 X-1.414 Y18.068 F10.000
G1 X-1.406 Y17.951 F10.000
G1 X-1.406 Y17.951 F10.000
G1 X-1.327 Y17.714 F10.000
G1 X-1.259 Y17.605 F10.000
G1 X-1.053 Y17.462 F10.000
G1 X-0.827 Y17.357 F10.000
G1 X-0.462 Y17.267 F10.000
G1 X-0.090 Y17.244 F10.000
G1 X0.124 Y17.259 F10.000
G1 X0.553 Y17.346 F10.000
G1 X1.008 Y17.508 F10.000
G1 X1.267 Y17.635 F10.000
G1 X1.312 Y17.669 F10.000
G1 X1.350 Y17.714 F10.000
G1 X1.350 Y17.714 F10.000
G1 X1.346 Y17.831 F10.000
G1 X1.327 Y17.887 F10.000
G1 X1.312 Y17.910 F10.000
G0 X1.293 Y17.925
G0 X1.184 Y17.944
G0 X-1.090 Y17.887
G1 X-1.124 Y17.887 F10.000
G1 X-1.244 Y17.876 F10.000
G1 X-1.289 Y17.846 F10.000
G1 X-1.331 Y17.774 F10.000
G1 X-1.346 Y17.658 F10.000
G1 X-1.346 Y17.658 F10.000
G1 X-1.293 Y17.477 F10.000
G1 X-1.233 Y17.368 F10.000
G1 X-1.041 Y17.203 F10.000
G1 X-0.823 Y17.075 F10.000
G1 X-0.470 Y16.951 F10.000
G1 X-0.098 Y16.898 F10.000
G1 X0.109 Y16.895 F10.000
G1 X0.301 Y16.906 F10.000
G1 X0.568 Y16.944 F10.000
G1 X1.004 Y17.064 F10.000
G1 X1.162 Y17.135 F10.000
G1 X1.259 Y17.195 F10.000
G1 X1.301 Y17.237 F10.000
G1 X1.323 Y17.289 F10.000
G1 X1.323 Y17.289 F10.000
G1 X1.301 Y17.406 F10.000
G1 X1.256 Y17.481 F10.000
G0 X1.233 Y17.496
G0 X1.068 Y17.526
G0 X-1.071 Y17.688
G1 X-1.105 Y17.692 F10.000
G1 X-1.226 Y17.692 F10.000
G1 X-1.271 Y17.665 F10.000
G1 X-1.312 Y17.594 F10.000
G1 X-1.327 Y17.477 F10.000
G1 X-1.327 Y17.477 F10.000
G1 X-1.282 Y17.237 F10.000
G1 X-1.229 Y17.124 F10.000
G1 X-1.102 Y16.985 F10.000
G1 X-0.846 Y16.797 F10.000
G1 X-0.504 Y16.647 F10.000
G1 X-0.139 Y16.556 F10.000
G1 X0.086 Y16.530 F10.000
G1 X0.282 Y16.526 F10.000
G1 X0.530 Y16.545 F10.000
G1 X0.827 Y16.598 F10.000
G1 X1.109 Y16.703 F10.000
G1 X1.252 Y16.793 F10.000
G1 X1.297 Y16.831 F10.000
G1 X1.331 Y16.876 F10.000
G1 X1.338 Y16.932 F10.000
G1 X1.338 Y16.932 F10.000
G1 X1.293 Y17.045 F10.000
G1 X1.233 Y17.109 F10.000
G0 X1.207 Y17.124
G0 X1.038 Y17.158
G0 X-1.034 Y17.432
G1 X-1.068 Y17.436 F10.000
G1 X-1.192 Y17.447 F10.000
G1 X-1.237 Y17.425 F10.000
G1 X-1.289 Y17.353 F10.000
G1 X-1.320 Y17.241 F10.000
G1 X-1.320 Y17.241 F10.000
G1 X-1.316 Y17.120 F10.000
G1 X-1.274 Y16.940 F10.000
G1 X-1.248 Y16.883 F10.000
G1 X-1.132 Y16.733 F10.000
G1 X-0.895 Y16.526 F10.000
G1 X-0.571 Y16.338 F10.000
G1 X-0.218 Y16.218 F10.000
G1 X-0.008 Y16.180 F10.000
G1 X0.173 Y16.162 F10.000
G1 X0.410 Y16.158 F10.000
G1 X0.714 Y16.188 F10.000
G1 X1.008 Y16.267 F10.000
G1 X1.165 Y16.338 F10.000
G1 X1.350 Y16.477 F10.000
G1 X1.380 Y16.526 F10.000
G1 X1.395 Y16.583 F10.000
G1 X1.376 Y16.695 F10.000
G1 X1.376 Y16.695 F10.000
G1 X1.331 Y16.808 F10.000
G1 X1.271 Y16.872 F10.000
G0 X1.244 Y16.887
G0 X1.079 Y16.921
G0 X-1.011 Y17.180
G1 X-1.045 Y17.184 F10.000
G1 X-1.169 Y17.192 F10.000
G1 X-1.222 Y17.173 F10.000
G1 X-1.282 Y17.109 F10.000
G1 X-1.327 Y17.000 F10.000
G1 X-1.327 Y17.000 F10.000
G1 X-1.338 Y16.820 F10.000
G1 X-1.316 Y16.699 F10.000
G1 X-1.293 Y16.639 F10.000
G1 X-1.109 Y16.383 F10.000
G1 X-0.925 Y16.214 F10.000
G1 X-0.609 Y16.011 F10.000
G1 X-0.274 Y15.880 F10.000
G1 X-0.083 Y15.831 F10.000
G1 X0.105 Y15.797 F10.000
G1 X0.357 Y15.782 F10.000
G1 X0.639 Y15.797 F10.000
G1 X0.966 Y15.868 F10.000
G1 X1.229 Y15.981 F10.000
G1 X1.368 Y16.083 F10.000
G1 X1.402 Y16.128 F10.000
G1 X1.425 Y16.180 F10.000
G1 X1.432 Y16.293 F10.000
G1 X1.432 Y16.293 F10.000
G1 X1.391 Y16.406 F10.000
G1 X1.335 Y16.477 F10.000
G0 X1.312 Y16.492
G0 X1.147 Y16.538
G0 X-1.049 Y16.932
G1 X-1.083 Y16.936 F10.000
G1 X-1.207 Y16.955 F10.000
G1 X-1.259 Y16.936 F10.000
G1 X-1.320 Y16.872 F10.000
G1 X-1.365 Y16.763 F10.000
G1 X-1.365 Y16.763 F10.000
G1 X-1.383 Y16.523 F10.000
G1 X-1.361 Y16.402 F10.000
G1 X-1.271 Y16.237 F10.000
G1 X-1.113 Y16.038 F10.000
G1 X-0.823 Y15.793 F10.000
G1 X-0.500 Y15.602 F10.000
G1 X-0.147 Y15.477 F10.000
G1 X0.064 Y15.432 F10.000
G1 X0.263 Y15.406 F10.000
G1 X0.515 Y15.402 F10.000
G1 X1.011 Y15.489 F10.000
G1 X1.226 Y15.575 F10.000
G1 X1.305 Y15.662 F10.000
G1 X1.383 Y15.872 F10.000
G1 X1.383 Y15.872 F10.000
G1 X1.376 Y16.019 F10.000
G1 X1.353 Y16.071 F10.000
G0 X1.335 Y16.090
G0 X1.233 Y16.135
G0 X-1.086 Y16.680
G1 X-1.120 Y16.688 F10.000
G1 X-1.241 Y16.711 F10.000
G1 X-1.297 Y16.695 F10.000
G1 X-1.361 Y16.635 F10.000
G1 X-1.414 Y16.526 F10.000
G1 X-1.414 Y16.526 F10.000
G1 X-1.425 Y16.286 F10.000
G1 X-1.391 Y16.105 F10.000
G1 X-1.312 Y15.936 F10.000
G1 X-1.165 Y15.733 F10.000
G1 X-0.891 Y15.474 F10.000
G1 X-0.684 Y15.331 F10.000
G1 X-0.571 Y15.271 F10.000
G1 X-0.226 Y15.128 F10.000
G1 X0.135 Y15.049 F10.000
G1 X0.387 Y15.026 F10.000
G1 X0.827 Y15.053 F10.000
G1 X0.996 Y15.098 F10.000
G1 X1.049 Y15.124 F10.000
G1 X1.086 Y15.165 F10.000
G1 X1.086 Y15.165 F10.000
G1 X1.105 Y15.282 F10.000
G1 X1.086 Y15.365 F10.000
G0 X1.068 Y15.387
G0 X0.970 Y15.444
G0 X-1.173 Y16.316
G1 X-1.207 Y16.331 F10.000
G1 X-1.320 Y16.368 F10.000
G1 X-1.365 Y16.353 F10.000
G1 X-1.410 Y16.282 F10.000
G1 X-1.436 Y16.169 F10.000
G1 X-1.436 Y16.169 F10.000
G1 X-1.436 Y16.109 F10.000
G1 X-1.365 Y15.808 F10.000
G1 X-1.177 Y15.414 F10.000
G1 X-1.023 Y15.214 F10.000
G1 X-0.880 Y15.094 F10.000
G1 X-0.560 Y14.895 F10.000
G1 X-0.150 Y14.741 F10.000
G1 X0.211 Y14.662 F10.000
G1 X0.560 Y14.643 F10.000
G1 X0.729 Y14.658 F10.000
G1 X0.895 Y14.711 F10.000
G1 X0.944 Y14.741 F10.000
G1 X0.977 Y14.786 F10.000
G1 X0.977 Y14.786 F10.000
G1 X0.974 Y14.902 F10.000
G1 X0.940 Y14.985 F10.000
G0 X0.921 Y15.004
G0 X0.771 Y15.064
G0 X-0.985 Y15.511
G1 X-1.019 Y15.519 F10.000
G1 X-1.132 Y15.538 F10.000
G1 X-1.165 Y15.511 F10.000
G1 X-1.177 Y15.436 F10.000
G1 X-1.154 Y15.323 F10.000
G1 X-1.154 Y15.323 F10.000
G1 X-0.974 Y14.925 F10.000
G1 X-0.898 Y14.827 F10.000
G1 X-0.654 Y14.632 F10.000
G1 X-0.436 Y14.504 F10.000
G1 X-0.090 Y14.361 F10.000
G1 X0.274 Y14.289 F10.000
G1 X0.564 Y14.293 F10.000
G1 X0.733 Y14.327 F10.000
G1 X0.891 Y14.395 F10.000
G1 X0.929 Y14.440 F10.000
G1 X0.929 Y14.440 F10.000
G1 X0.906 Y14.556 F10.000
G1 X0.861 Y14.635 F10.000
G0 X0.838 Y14.654
G0 X0.688 Y14.711
G0 X-0.808 Y15.113
G1 X-0.842 Y15.120 F10.000
G1 X-0.955 Y15.143 F10.000
G1 X-0.996 Y15.120 F10.000
G1 X-1.023 Y15.045 F10.000
G1 X-1.019 Y14.929 F10.000
G1 X-1.019 Y14.929 F10.000
G1 X-0.925 Y14.628 F10.000
G1 X-0.865 Y14.519 F10.000
G1 X-0.684 Y14.346 F10.000
G1 X-0.425 Y14.173 F10.000
G1 X-0.083 Y14.023 F10.000
G1 X0.282 Y13.955 F10.000
G1 X0.530 Y13.959 F10.000
G1 X0.699 Y13.992 F10.000
G1 X0.853 Y14.060 F10.000
G1 X0.902 Y14.094 F10.000
G1 X0.921 Y14.150 F10.000
G1 X0.921 Y14.150 F10.000
G1 X0.883 Y14.263 F10.000
G1 X0.827 Y14.335 F10.000
G0 X0.805 Y14.350
G0 X0.549 Y14.429
G0 X-0.707 Y14.756
G1 X-0.741 Y14.763 F10.000
G1 X-0.857 Y14.786 F10.000
G1 X-0.898 Y14.763 F10.000
G1 X-0.940 Y14.692 F10.000
G1 X-0.951 Y14.575 F10.000
G1 X-0.951 Y14.575 F10.000
G1 X-0.895 Y14.335 F10.000
G1 X-0.842 Y14.218 F10.000
G1 X-0.673 Y14.038 F10.000
G1 X-0.421 Y13.853 F10.000
G1 X-0.079 Y13.699 F10.000
G1 X0.274 Y13.632 F10.000
G1 X0.444 Y13.632 F10.000
G1 X0.639 Y13.658 F10.000
G1 X0.748 Y13.692 F10.000
G1 X0.895 Y13.782 F10.000
G1 X0.932 Y13.823 F10.000
G1 X0.947 Y13.880 F10.000
G1 X0.947 Y13.876 F10.000
G1 X0.910 Y13.989 F10.000
G1 X0.853 Y14.060 F10.000
G0 X0.831 Y14.075
G0 X0.579 Y14.162
G0 X-0.647 Y14.504
G1 X-0.680 Y14.511 F10.000
G1 X-0.797 Y14.534 F10.000
G1 X-0.846 Y14.515 F10.000
G1 X-0.895 Y14.447 F10.000
G1 X-0.925 Y14.335 F10.000
G1 X-0.925 Y14.335 F10.000
G1 X-0.914 Y14.154 F10.000
G1 X-0.883 Y14.034 F10.000
G1 X-0.861 Y13.977 F10.000
G1 X-0.707 Y13.782 F10.000
G1 X-0.466 Y13.579 F10.000
G1 X-0.135 Y13.406 F10.000
G1 X0.214 Y13.323 F10.000
G1 X0.380 Y13.312 F10.000
G1 X0.526 Y13.323 F10.000
G1 X0.748 Y13.383 F10.000
G1 X0.898 Y13.470 F10.000
G1 X0.944 Y13.508 F10.000
G1 X0.981 Y13.553 F10.000
G1 X0.992 Y13.609 F10.000
G1 X0.992 Y13.609 F10.000
G1 X0.940 Y13.722 F10.000
G1 X0.876 Y13.786 F10.000
G0 X0.850 Y13.805
G0 X-0.654 Y14.263
G1 X-0.688 Y14.271 F10.000
G1 X-0.805 Y14.297 F10.000
G1 X-0.853 Y14.278 F10.000
G1 X-0.902 Y14.211 F10.000
G1 X-0.932 Y14.098 F10.000
G1 X-0.932 Y14.098 F10.000
G1 X-0.921 Y13.857 F10.000
G1 X-0.891 Y13.737 F10.000
G1 X-0.752 Y13.526 F10.000
G1 X-0.571 Y13.350 F10.000
G1 X-0.523 Y13.312 F10.000
G1 X-0.203 Y13.117 F10.000
G1 X0.154 Y13.015 F10.000
G1 X0.316 Y13.000 F10.000
G1 X0.455 Y13.000 F10.000
G1 X0.643 Y13.034 F10.000
G1 X0.876 Y13.128 F10.000
G1 X0.970 Y13.195 F10.000
G1 X1.049 Y13.282 F10.000
G1 X1.064 Y13.338 F10.000
G1 X1.034 Y13.451 F10.000
G1 X1.034 Y13.451 F10.000
G1 X0.970 Y13.556 F10.000
G1 X0.902 Y13.617 F10.000
G0 X0.876 Y13.632
G0 X-0.628 Y14.015
G1 X-0.662 Y14.023 F10.000
G1 X-0.778 Y14.045 F10.000
G1 X-0.831 Y14.030 F10.000
G1 X-0.895 Y13.966 F10.000
G1 X-0.947 Y13.857 F10.000
G1 X-0.947 Y13.857 F10.000
G1 X-0.970 Y13.677 F10.000
G1 X-0.962 Y13.556 F10.000
G1 X-0.925 Y13.436 F10.000
G1 X-0.786 Y13.226 F10.000
G1 X-0.605 Y13.049 F10.000
G1 X-0.293 Y12.838 F10.000
G1 X0.056 Y12.714 F10.000
G1 X0.222 Y12.692 F10.000
G1 X0.361 Y12.684 F10.000
G1 X0.553 Y12.695 F10.000
G1 X0.789 Y12.759 F10.000
G1 X0.966 Y12.850 F10.000
G1 X1.098 Y12.962 F10.000
G1 X1.158 Y13.060 F10.000
G1 X1.162 Y13.117 F10.000
G1 X1.135 Y13.169 F10.000
G1 X1.135 Y13.169 F10.000
G1 X1.056 Y13.267 F10.000
G1 X0.981 Y13.320 F10.000
G0 X0.951 Y13.335
G0 X-0.684 Y13.722
G1 X-0.718 Y13.729 F10.000
G1 X-0.835 Y13.752 F10.000
G1 X-0.887 Y13.737 F10.000
G1 X-0.951 Y13.673 F10.000
G1 X-1.004 Y13.564 F10.000
G1 X-1.004 Y13.564 F10.000
G1 X-1.026 Y13.383 F10.000
G1 X-1.019 Y13.263 F10.000
G1 X-0.940 Y13.094 F10.000
G1 X-0.835 Y12.936 F10.000
G1 X-0.707 Y12.797 F10.000
G1 X-0.410 Y12.568 F10.000
G1 X-0.098 Y12.429 F10.000
G1 X0.064 Y12.387 F10.000
G1 X0.214 Y12.365 F10.000
G1 X0.406 Y12.361 F10.000
G1 X0.643 Y12.391 F10.000
G1 X0.865 Y12.455 F10.000
G1 X1.086 Y12.583 F10.000
G1 X1.173 Y12.662 F10.000
G1 X1.244 Y12.752 F10.000
G1 X1.271 Y12.801 F10.000
G1 X1.274 Y12.857 F10.000
G1 X1.252 Y12.914 F10.000
G1 X1.252 Y12.914 F10.000
G1 X1.173 Y13.011 F10.000
G1 X1.094 Y13.064 F10.000
G0 X1.068 Y13.075
G0 X-0.729 Y13.481
G1 X-0.763 Y13.489 F10.000
G1 X-0.880 Y13.508 F10.000
G1 X-0.936 Y13.492 F10.000
G1 X-1.004 Y13.436 F10.000
G1 X-1.064 Y13.331 F10.000
G1 X-1.064 Y13.331 F10.000
G1 X-1.098 Y13.150 F10.000
G1 X-1.098 Y13.090 F10.000
G1 X-1.068 Y12.970 F10.000
G1 X-0.959 Y12.748 F10.000
G1 X-0.850 Y12.594 F10.000
G1 X-0.579 Y12.335 F10.000
G1 X-0.286 Y12.169 F10.000
G1 X-0.124 Y12.109 F10.000
G1 X0.026 Y12.068 F10.000
G1 X0.218 Y12.038 F10.000
G1 X0.485 Y12.034 F10.000
G1 X0.726 Y12.075 F10.000
G1 X0.910 Y12.135 F10.000
G1 X1.079 Y12.218 F10.000
G1 X1.244 Y12.338 F10.000
G1 X1.323 Y12.425 F10.000
G1 X1.383 Y12.523 F10.000
G1 X1.406 Y12.575 F10.000
G1 X1.410 Y12.632 F10.000
G1 X1.395 Y12.688 F10.000
G1 X1.395 Y12.688 F10.000
G1 X1.301 Y12.767 F10.000
G1 X1.218 Y12.805 F10.000
G0 X1.188 Y12.816
G0 X-0.774 Y13.293
G1 X-0.812 Y13.301 F10.000
G1 X-0.932 Y13.327 F10.000
G1 X-1.015 Y13.301 F10.000
G1 X-1.102 Y13.214 F10.000
G1 X-1.135 Y13.165 F10.000
G1 X-1.135 Y13.165 F10.000
G1 X-1.184 Y12.989 F10.000
G1 X-1.195 Y12.868 F10.000
G1 X-1.150 Y12.688 F10.000
G1 X-1.071 Y12.519 F10.000
G1 X-0.966 Y12.361 F10.000
G1 X-0.714 Y12.083 F10.000
G1 X-0.414 Y11.880 F10.000
G1 X-0.256 Y11.812 F10.000
G1 X-0.113 Y11.763 F10.000
G1 X0.090 Y11.718 F10.000
G1 X0.338 Y11.695 F10.000
G1 X0.598 Y11.707 F10.000
G1 X0.831 Y11.756 F10.000
G1 X1.026 Y11.820 F10.000
G1 X1.229 Y11.929 F10.000
G1 X1.417 Y12.090 F10.000
G1 X1.519 Y12.229 F10.000
G1 X1.575 Y12.391 F10.000
G1 X1.568 Y12.447 F10.000
G1 X1.534 Y12.496 F10.000
G1 X1.534 Y12.496 F10.000
G1 X1.440 Y12.575 F10.000
G1 X1.357 Y12.613 F10.000
G0 X1.327 Y12.624
G0 X-0.857 Y13.071
G1 X-0.891 Y13.079 F10.000
G1 X-1.015 Y13.098 F10.000
G1 X-1.105 Y13.075 F10.000
G1 X-1.199 Y12.996 F10.000
G1 X-1.237 Y12.947 F10.000
G1 X-1.237 Y12.947 F10.000
G1 X-1.293 Y12.774 F10.000
G1 X-1.305 Y12.714 F10.000
G1 X-1.286 Y12.534 F10.000
G1 X-1.229 Y12.353 F10.000
G1 X-1.143 Y12.184 F10.000
G1 X-0.921 Y11.880 F10.000
G1 X-0.643 Y11.650 F10.000
G1 X-0.489 Y11.560 F10.000
G1 X-0.342 Y11.492 F10.000
G1 X-0.150 Y11.421 F10.000
G1 X0.135 Y11.357 F10.000
G1 X0.395 Y11.335 F10.000
G1 X0.639 Y11.353 F10.000
G1 X0.835 Y11.387 F10.000
G1 X1.056 Y11.455 F10.000
G1 X1.274 Y11.560 F10.000
G1 X1.455 Y11.688 F10.000
G1 X1.628 Y11.868 F10.000
G1 X1.718 Y12.019 F10.000
G1 X1.763 Y12.184 F10.000
G1 X1.752 Y12.241 F10.000
G1 X1.718 Y12.289 F10.000
G1 X1.718 Y12.289 F10.000
G1 X1.575 Y12.365 F10.000
G1 X1.515 Y12.380 F10.000
G0 X1.485 Y12.387
G0 X-0.925 Y12.883
G1 X-0.959 Y12.891 F10.000
G1 X-1.117 Y12.914 F10.000
G1 X-1.203 Y12.887 F10.000
G1 X-1.323 Y12.789 F10.000
G1 X-1.323 Y12.789 F10.000
G1 X-1.402 Y12.628 F10.000
G1 X-1.429 Y12.508 F10.000
G1 X-1.402 Y12.267 F10.000
G1 X-1.323 Y12.030 F10.000
G1 X-1.297 Y11.974 F10.000
G1 X-1.098 Y11.654 F10.000
G1 X-0.857 Y11.414 F10.000
G1 X-0.711 Y11.308 F10.000
