(Exported by FreeCAD)
(Post Processor: grbl_post)
(Output Time:2023-12-08 10:01:42.824831)
(Begin preamble)
G17 G90
G21
(Block-name: Fixture)
(Block-expand: 0)
(Block-enable: 1)
(Begin operation: Fixture)
(Path: Fixture)
G54
(Finish operation: Fixture)
(Block-name: 1.5mm Endmill002)
(Block-expand: 0)
(Block-enable: 1)
(Begin operation: 1.5mm Endmill002)
(Path: 1.5mm Endmill002)
(1.5mm Endmill002)
(Begin toolchange)
( M6 T3 )
M3 S10000
(Finish operation: 1.5mm Endmill002)
(Block-name: Drilling002_1.5mm)
(Block-expand: 0)
(Block-enable: 1)
(Begin operation: Drilling002_1.5mm)
(Path: Drilling002_1.5mm)
(Drilling002_1.5mm)
(Begin Drilling)
G0 Z5.000
G90
G98
G0 X0.000 Y0.000
G83 X0.000 Y0.000 Z-10.000 F300.000 Q0.750 R3.000
G0 X-0.000 Y-15.264
G83 X-0.000 Y-15.264 Z-10.000 F300.000 Q0.750 R3.000
G0 X-15.264 Y0.000
G83 X-15.264 Y0.000 Z-10.000 F300.000 Q0.750 R3.000
G0 X0.000 Y15.264
G83 X0.000 Y15.264 Z-10.000 F300.000 Q0.750 R3.000
G0 X15.264 Y0.000
G83 X15.264 Y0.000 Z-10.000 F300.000 Q0.750 R3.000
G80
G0 Z3.000
G0 Z5.000
(Finish operation: Drilling002_1.5mm)
(Block-name: 3mm Endmill001)
(Block-expand: 0)
(Block-enable: 1)
(Begin operation: 3mm Endmill001)
(Path: 3mm Endmill001)
(3mm Endmill001)
(Begin toolchange)
( M6 T2 )
M3 S10000
(Finish operation: 3mm Endmill001)
(Block-name: Drilling)
(Block-expand: 0)
(Block-enable: 1)
(Begin operation: Drilling)
(Path: Drilling)
(Drilling)
(Begin Drilling)
G0 Z5.000
G90
G98
G0 X21.588 Y23.206
G83 X21.588 Y23.206 Z-10.000 F300.000 Q1.500 R3.000
G0 X-21.528 Y-23.436
G83 X-21.528 Y-23.436 Z-10.000 F300.000 Q1.500 R3.000
G80
G0 Z3.000
G0 Z5.000
(Finish operation: Drilling)
(Block-name: Adaptive)
(Block-expand: 0)
(Block-enable: 1)
(Begin operation: Adaptive)
(Path: Adaptive)
(Adaptive)
(Helix to depth: -2.000000)
G0 Z5.000
G0 X0.224 Y15.344 Z5.000
G0 X0.224 Y15.344 Z3.000
G1 X0.224 Y15.344 Z0.000 F300.000
G1 X0.224 Y15.344 Z0.000 F300.000
G1 X0.204 Y15.386 Z-0.004 F300.000
G1 X0.176 Y15.424 Z-0.009 F300.000
G1 X0.141 Y15.455 Z-0.013 F300.000
G1 X0.101 Y15.479 Z-0.017 F300.000
G1 X0.057 Y15.494 Z-0.021 F300.000
G1 X0.011 Y15.501 Z-0.026 F300.000
G1 X-0.036 Y15.499 Z-0.030 F300.000
G1 X-0.081 Y15.487 Z-0.034 F300.000
G1 X-0.123 Y15.467 Z-0.038 F300.000
G1 X-0.161 Y15.439 Z-0.043 F300.000
G1 X-0.192 Y15.404 Z-0.047 F300.000
G1 X-0.216 Y15.364 Z-0.051 F300.000
G1 X-0.231 Y15.320 Z-0.055 F300.000
G1 X-0.238 Y15.274 Z-0.060 F300.000
G1 X-0.235 Y15.227 Z-0.064 F300.000
G1 X-0.224 Y15.182 Z-0.068 F300.000
G1 X-0.204 Y15.140 Z-0.072 F300.000
G1 X-0.176 Y15.103 Z-0.077 F300.000
G1 X-0.141 Y15.071 Z-0.081 F300.000
G1 X-0.101 Y15.048 Z-0.085 F300.000
G1 X-0.057 Y15.032 Z-0.090 F300.000
G1 X-0.011 Y15.025 Z-0.094 F300.000
G1 X0.036 Y15.028 Z-0.098 F300.000
G1 X0.081 Y15.039 Z-0.102 F300.000
G1 X0.123 Y15.059 Z-0.107 F300.000
G1 X0.161 Y15.087 Z-0.111 F300.000
G1 X0.192 Y15.122 Z-0.115 F300.000
G1 X0.216 Y15.162 Z-0.119 F300.000
G1 X0.231 Y15.206 Z-0.124 F300.000
G1 X0.238 Y15.252 Z-0.128 F300.000
G1 X0.235 Y15.299 Z-0.132 F300.000
G1 X0.224 Y15.344 Z-0.136 F300.000
G1 X0.204 Y15.386 Z-0.141 F300.000
G1 X0.176 Y15.424 Z-0.145 F300.000
G1 X0.141 Y15.455 Z-0.149 F300.000
G1 X0.101 Y15.479 Z-0.153 F300.000
G1 X0.057 Y15.494 Z-0.158 F300.000
G1 X0.011 Y15.501 Z-0.162 F300.000
G1 X-0.036 Y15.499 Z-0.166 F300.000
G1 X-0.081 Y15.487 Z-0.170 F300.000
G1 X-0.123 Y15.467 Z-0.175 F300.000
G1 X-0.161 Y15.439 Z-0.179 F300.000
G1 X-0.192 Y15.404 Z-0.183 F300.000
G1 X-0.216 Y15.364 Z-0.188 F300.000
G1 X-0.231 Y15.320 Z-0.192 F300.000
G1 X-0.238 Y15.274 Z-0.196 F300.000
G1 X-0.235 Y15.227 Z-0.200 F300.000
G1 X-0.224 Y15.182 Z-0.205 F300.000
G1 X-0.204 Y15.140 Z-0.209 F300.000
G1 X-0.176 Y15.103 Z-0.213 F300.000
G1 X-0.141 Y15.071 Z-0.217 F300.000
G1 X-0.101 Y15.048 Z-0.222 F300.000
G1 X-0.057 Y15.032 Z-0.226 F300.000
G1 X-0.011 Y15.025 Z-0.230 F300.000
G1 X0.036 Y15.028 Z-0.234 F300.000
G1 X0.081 Y15.039 Z-0.239 F300.000
G1 X0.123 Y15.059 Z-0.243 F300.000
G1 X0.161 Y15.087 Z-0.247 F300.000
G1 X0.192 Y15.122 Z-0.251 F300.000
G1 X0.216 Y15.162 Z-0.256 F300.000
G1 X0.231 Y15.206 Z-0.260 F300.000
G1 X0.238 Y15.252 Z-0.264 F300.000
G1 X0.235 Y15.299 Z-0.269 F300.000
G1 X0.224 Y15.344 Z-0.273 F300.000
G1 X0.204 Y15.386 Z-0.277 F300.000
G1 X0.176 Y15.424 Z-0.281 F300.000
G1 X0.141 Y15.455 Z-0.286 F300.000
G1 X0.101 Y15.479 Z-0.290 F300.000
G1 X0.057 Y15.494 Z-0.294 F300.000
G1 X0.011 Y15.501 Z-0.298 F300.000
G1 X-0.036 Y15.499 Z-0.303 F300.000
G1 X-0.081 Y15.487 Z-0.307 F300.000
G1 X-0.123 Y15.467 Z-0.311 F300.000
G1 X-0.161 Y15.439 Z-0.315 F300.000
G1 X-0.192 Y15.404 Z-0.320 F300.000
G1 X-0.216 Y15.364 Z-0.324 F300.000
G1 X-0.231 Y15.320 Z-0.328 F300.000
G1 X-0.238 Y15.274 Z-0.332 F300.000
G1 X-0.235 Y15.227 Z-0.337 F300.000
G1 X-0.224 Y15.182 Z-0.341 F300.000
G1 X-0.204 Y15.140 Z-0.345 F300.000
G1 X-0.176 Y15.103 Z-0.350 F300.000
G1 X-0.141 Y15.071 Z-0.354 F300.000
G1 X-0.101 Y15.048 Z-0.358 F300.000
G1 X-0.057 Y15.032 Z-0.362 F300.000
G1 X-0.011 Y15.025 Z-0.367 F300.000
G1 X0.036 Y15.028 Z-0.371 F300.000
G1 X0.081 Y15.039 Z-0.375 F300.000
G1 X0.123 Y15.059 Z-0.379 F300.000
G1 X0.161 Y15.087 Z-0.384 F300.000
G1 X0.192 Y15.122 Z-0.388 F300.000
G1 X0.216 Y15.162 Z-0.392 F300.000
G1 X0.231 Y15.206 Z-0.396 F300.000
G1 X0.238 Y15.252 Z-0.401 F300.000
G1 X0.235 Y15.299 Z-0.405 F300.000
G1 X0.224 Y15.344 Z-0.409 F300.000
G1 X0.204 Y15.386 Z-0.413 F300.000
G1 X0.176 Y15.424 Z-0.418 F300.000
G1 X0.141 Y15.455 Z-0.422 F300.000
G1 X0.101 Y15.479 Z-0.426 F300.000
G1 X0.057 Y15.494 Z-0.430 F300.000
G1 X0.011 Y15.501 Z-0.435 F300.000
G1 X-0.036 Y15.499 Z-0.439 F300.000
G1 X-0.081 Y15.487 Z-0.443 F300.000
G1 X-0.123 Y15.467 Z-0.448 F300.000
G1 X-0.161 Y15.439 Z-0.452 F300.000
G1 X-0.192 Y15.404 Z-0.456 F300.000
G1 X-0.216 Y15.364 Z-0.460 F300.000
G1 X-0.231 Y15.320 Z-0.465 F300.000
G1 X-0.238 Y15.274 Z-0.469 F300.000
G1 X-0.235 Y15.227 Z-0.473 F300.000
G1 X-0.224 Y15.182 Z-0.477 F300.000
G1 X-0.204 Y15.140 Z-0.482 F300.000
G1 X-0.176 Y15.103 Z-0.486 F300.000
G1 X-0.141 Y15.071 Z-0.490 F300.000
G1 X-0.101 Y15.048 Z-0.494 F300.000
G1 X-0.057 Y15.032 Z-0.499 F300.000
G1 X-0.011 Y15.025 Z-0.503 F300.000
G1 X0.036 Y15.028 Z-0.507 F300.000
G1 X0.081 Y15.039 Z-0.511 F300.000
G1 X0.123 Y15.059 Z-0.516 F300.000
G1 X0.161 Y15.087 Z-0.520 F300.000
G1 X0.192 Y15.122 Z-0.524 F300.000
G1 X0.216 Y15.162 Z-0.529 F300.000
G1 X0.231 Y15.206 Z-0.533 F300.000
G1 X0.238 Y15.252 Z-0.537 F300.000
G1 X0.235 Y15.299 Z-0.541 F300.000
G1 X0.224 Y15.344 Z-0.546 F300.000
G1 X0.204 Y15.386 Z-0.550 F300.000
G1 X0.176 Y15.424 Z-0.554 F300.000
G1 X0.141 Y15.455 Z-0.558 F300.000
G1 X0.101 Y15.479 Z-0.563 F300.000
G1 X0.057 Y15.494 Z-0.567 F300.000
G1 X0.011 Y15.501 Z-0.571 F300.000
G1 X-0.036 Y15.499 Z-0.575 F300.000
G1 X-0.081 Y15.487 Z-0.580 F300.000
G1 X-0.123 Y15.467 Z-0.584 F300.000
G1 X-0.161 Y15.439 Z-0.588 F300.000
G1 X-0.192 Y15.404 Z-0.592 F300.000
G1 X-0.216 Y15.364 Z-0.597 F300.000
G1 X-0.231 Y15.320 Z-0.601 F300.000
G1 X-0.238 Y15.274 Z-0.605 F300.000
G1 X-0.235 Y15.227 Z-0.610 F300.000
G1 X-0.224 Y15.182 Z-0.614 F300.000
G1 X-0.204 Y15.140 Z-0.618 F300.000
G1 X-0.176 Y15.103 Z-0.622 F300.000
G1 X-0.141 Y15.071 Z-0.627 F300.000
G1 X-0.101 Y15.048 Z-0.631 F300.000
G1 X-0.057 Y15.032 Z-0.635 F300.000
G1 X-0.011 Y15.025 Z-0.639 F300.000
G1 X0.036 Y15.028 Z-0.644 F300.000
G1 X0.081 Y15.039 Z-0.648 F300.000
G1 X0.123 Y15.059 Z-0.652 F300.000
G1 X0.161 Y15.087 Z-0.656 F300.000
G1 X0.192 Y15.122 Z-0.661 F300.000
G1 X0.216 Y15.162 Z-0.665 F300.000
G1 X0.231 Y15.206 Z-0.669 F300.000
G1 X0.238 Y15.252 Z-0.673 F300.000
G1 X0.235 Y15.299 Z-0.678 F300.000
G1 X0.224 Y15.344 Z-0.682 F300.000
G1 X0.204 Y15.386 Z-0.686 F300.000
G1 X0.176 Y15.424 Z-0.690 F300.000
G1 X0.141 Y15.455 Z-0.695 F300.000
G1 X0.101 Y15.479 Z-0.699 F300.000
G1 X0.057 Y15.494 Z-0.703 F300.000
G1 X0.011 Y15.501 Z-0.708 F300.000
G1 X-0.036 Y15.499 Z-0.712 F300.000
G1 X-0.081 Y15.487 Z-0.716 F300.000
G1 X-0.123 Y15.467 Z-0.720 F300.000
G1 X-0.161 Y15.439 Z-0.725 F300.000
G1 X-0.192 Y15.404 Z-0.729 F300.000
G1 X-0.216 Y15.364 Z-0.733 F300.000
G1 X-0.231 Y15.320 Z-0.737 F300.000
G1 X-0.238 Y15.274 Z-0.742 F300.000
G1 X-0.235 Y15.227 Z-0.746 F300.000
G1 X-0.224 Y15.182 Z-0.750 F300.000
G1 X-0.204 Y15.140 Z-0.754 F300.000
G1 X-0.176 Y15.103 Z-0.759 F300.000
G1 X-0.141 Y15.071 Z-0.763 F300.000
G1 X-0.101 Y15.048 Z-0.767 F300.000
G1 X-0.057 Y15.032 Z-0.771 F300.000
G1 X-0.011 Y15.025 Z-0.776 F300.000
G1 X0.036 Y15.028 Z-0.780 F300.000
G1 X0.081 Y15.039 Z-0.784 F300.000
G1 X0.123 Y15.059 Z-0.789 F300.000
G1 X0.161 Y15.087 Z-0.793 F300.000
G1 X0.192 Y15.122 Z-0.797 F300.000
G1 X0.216 Y15.162 Z-0.801 F300.000
G1 X0.231 Y15.206 Z-0.806 F300.000
G1 X0.238 Y15.252 Z-0.810 F300.000
G1 X0.235 Y15.299 Z-0.814 F300.000
G1 X0.224 Y15.344 Z-0.818 F300.000
G1 X0.204 Y15.386 Z-0.823 F300.000
G1 X0.176 Y15.424 Z-0.827 F300.000
G1 X0.141 Y15.455 Z-0.831 F300.000
G1 X0.101 Y15.479 Z-0.835 F300.000
G1 X0.057 Y15.494 Z-0.840 F300.000
G1 X0.011 Y15.501 Z-0.844 F300.000
G1 X-0.036 Y15.499 Z-0.848 F300.000
G1 X-0.081 Y15.487 Z-0.852 F300.000
G1 X-0.123 Y15.467 Z-0.857 F300.000
G1 X-0.161 Y15.439 Z-0.861 F300.000
G1 X-0.192 Y15.404 Z-0.865 F300.000
G1 X-0.216 Y15.364 Z-0.870 F300.000
G1 X-0.231 Y15.320 Z-0.874 F300.000
G1 X-0.238 Y15.274 Z-0.878 F300.000
G1 X-0.235 Y15.227 Z-0.882 F300.000
G1 X-0.224 Y15.182 Z-0.887 F300.000
G1 X-0.204 Y15.140 Z-0.891 F300.000
G1 X-0.176 Y15.103 Z-0.895 F300.000
G1 X-0.141 Y15.071 Z-0.899 F300.000
G1 X-0.101 Y15.048 Z-0.904 F300.000
G1 X-0.057 Y15.032 Z-0.908 F300.000
G1 X-0.011 Y15.025 Z-0.912 F300.000
G1 X0.036 Y15.028 Z-0.916 F300.000
G1 X0.081 Y15.039 Z-0.921 F300.000
G1 X0.123 Y15.059 Z-0.925 F300.000
G1 X0.161 Y15.087 Z-0.929 F300.000
G1 X0.192 Y15.122 Z-0.933 F300.000
G1 X0.216 Y15.162 Z-0.938 F300.000
G1 X0.231 Y15.206 Z-0.942 F300.000
G1 X0.238 Y15.252 Z-0.946 F300.000
G1 X0.235 Y15.299 Z-0.950 F300.000
G1 X0.224 Y15.344 Z-0.955 F300.000
G1 X0.204 Y15.386 Z-0.959 F300.000
G1 X0.176 Y15.424 Z-0.963 F300.000
G1 X0.141 Y15.455 Z-0.968 F300.000
G1 X0.101 Y15.479 Z-0.972 F300.000
G1 X0.057 Y15.494 Z-0.976 F300.000
G1 X0.011 Y15.501 Z-0.980 F300.000
G1 X-0.036 Y15.499 Z-0.985 F300.000
G1 X-0.081 Y15.487 Z-0.989 F300.000
G1 X-0.123 Y15.467 Z-0.993 F300.000
G1 X-0.161 Y15.439 Z-0.997 F300.000
G1 X-0.192 Y15.404 Z-1.002 F300.000
G1 X-0.216 Y15.364 Z-1.006 F300.000
G1 X-0.231 Y15.320 Z-1.010 F300.000
G1 X-0.238 Y15.274 Z-1.014 F300.000
G1 X-0.235 Y15.227 Z-1.019 F300.000
G1 X-0.224 Y15.182 Z-1.023 F300.000
G1 X-0.204 Y15.140 Z-1.027 F300.000
G1 X-0.176 Y15.103 Z-1.031 F300.000
G1 X-0.141 Y15.071 Z-1.036 F300.000
G1 X-0.101 Y15.048 Z-1.040 F300.000
G1 X-0.057 Y15.032 Z-1.044 F300.000
G1 X-0.011 Y15.025 Z-1.049 F300.000
G1 X0.036 Y15.028 Z-1.053 F300.000
G1 X0.081 Y15.039 Z-1.057 F300.000
G1 X0.123 Y15.059 Z-1.061 F300.000
G1 X0.161 Y15.087 Z-1.066 F300.000
G1 X0.192 Y15.122 Z-1.070 F300.000
G1 X0.216 Y15.162 Z-1.074 F300.000
G1 X0.231 Y15.206 Z-1.078 F300.000
G1 X0.238 Y15.252 Z-1.083 F300.000
G1 X0.235 Y15.299 Z-1.087 F300.000
G1 X0.224 Y15.344 Z-1.091 F300.000
G1 X0.204 Y15.386 Z-1.095 F300.000
G1 X0.176 Y15.424 Z-1.100 F300.000
G1 X0.141 Y15.455 Z-1.104 F300.000
G1 X0.101 Y15.479 Z-1.108 F300.000
G1 X0.057 Y15.494 Z-1.112 F300.000
G1 X0.011 Y15.501 Z-1.117 F300.000
G1 X-0.036 Y15.499 Z-1.121 F300.000
G1 X-0.081 Y15.487 Z-1.125 F300.000
G1 X-0.123 Y15.467 Z-1.130 F300.000
G1 X-0.161 Y15.439 Z-1.134 F300.000
G1 X-0.192 Y15.404 Z-1.138 F300.000
G1 X-0.216 Y15.364 Z-1.142 F300.000
G1 X-0.231 Y15.320 Z-1.147 F300.000
G1 X-0.238 Y15.274 Z-1.151 F300.000
G1 X-0.235 Y15.227 Z-1.155 F300.000
G1 X-0.224 Y15.182 Z-1.159 F300.000
G1 X-0.204 Y15.140 Z-1.164 F300.000
G1 X-0.176 Y15.103 Z-1.168 F300.000
G1 X-0.141 Y15.071 Z-1.172 F300.000
G1 X-0.101 Y15.048 Z-1.176 F300.000
G1 X-0.057 Y15.032 Z-1.181 F300.000
G1 X-0.011 Y15.025 Z-1.185 F300.000
G1 X0.036 Y15.028 Z-1.189 F300.000
G1 X0.081 Y15.039 Z-1.193 F300.000
G1 X0.123 Y15.059 Z-1.198 F300.000
G1 X0.161 Y15.087 Z-1.202 F300.000
G1 X0.192 Y15.122 Z-1.206 F300.000
G1 X0.216 Y15.162 Z-1.210 F300.000
G1 X0.231 Y15.206 Z-1.215 F300.000
G1 X0.238 Y15.252 Z-1.219 F300.000
G1 X0.235 Y15.299 Z-1.223 F300.000
G1 X0.224 Y15.344 Z-1.228 F300.000
G1 X0.204 Y15.386 Z-1.232 F300.000
G1 X0.176 Y15.424 Z-1.236 F300.000
G1 X0.141 Y15.455 Z-1.240 F300.000
G1 X0.101 Y15.479 Z-1.245 F300.000
G1 X0.057 Y15.494 Z-1.249 F300.000
G1 X0.011 Y15.501 Z-1.253 F300.000
G1 X-0.036 Y15.499 Z-1.257 F300.000
G1 X-0.081 Y15.487 Z-1.262 F300.000
G1 X-0.123 Y15.467 Z-1.266 F300.000
G1 X-0.161 Y15.439 Z-1.270 F300.000
G1 X-0.192 Y15.404 Z-1.274 F300.000
G1 X-0.216 Y15.364 Z-1.279 F300.000
G1 X-0.231 Y15.320 Z-1.283 F300.000
G1 X-0.238 Y15.274 Z-1.287 F300.000
G1 X-0.235 Y15.227 Z-1.291 F300.000
G1 X-0.224 Y15.182 Z-1.296 F300.000
G1 X-0.204 Y15.140 Z-1.300 F300.000
G1 X-0.176 Y15.103 Z-1.304 F300.000
G1 X-0.141 Y15.071 Z-1.309 F300.000
G1 X-0.101 Y15.048 Z-1.313 F300.000
G1 X-0.057 Y15.032 Z-1.317 F300.000
G1 X-0.011 Y15.025 Z-1.321 F300.000
G1 X0.036 Y15.028 Z-1.326 F300.000
G1 X0.081 Y15.039 Z-1.330 F300.000
G1 X0.123 Y15.059 Z-1.334 F300.000
G1 X0.161 Y15.087 Z-1.338 F300.000
G1 X0.192 Y15.122 Z-1.343 F300.000
G1 X0.216 Y15.162 Z-1.347 F300.000
G1 X0.231 Y15.206 Z-1.351 F300.000
G1 X0.238 Y15.252 Z-1.355 F300.000
G1 X0.235 Y15.299 Z-1.360 F300.000
G1 X0.224 Y15.344 Z-1.364 F300.000
G1 X0.204 Y15.386 Z-1.368 F300.000
G1 X0.176 Y15.424 Z-1.372 F300.000
G1 X0.141 Y15.455 Z-1.377 F300.000
G1 X0.101 Y15.479 Z-1.381 F300.000
G1 X0.057 Y15.494 Z-1.385 F300.000
G1 X0.011 Y15.501 Z-1.390 F300.000
G1 X-0.036 Y15.499 Z-1.394 F300.000
G1 X-0.081 Y15.487 Z-1.398 F300.000
G1 X-0.123 Y15.467 Z-1.402 F300.000
G1 X-0.161 Y15.439 Z-1.407 F300.000
G1 X-0.192 Y15.404 Z-1.411 F300.000
G1 X-0.216 Y15.364 Z-1.415 F300.000
G1 X-0.231 Y15.320 Z-1.419 F300.000
G1 X-0.238 Y15.274 Z-1.424 F300.000
G1 X-0.235 Y15.227 Z-1.428 F300.000
G1 X-0.224 Y15.182 Z-1.432 F300.000
G1 X-0.204 Y15.140 Z-1.436 F300.000
G1 X-0.176 Y15.103 Z-1.441 F300.000
G1 X-0.141 Y15.071 Z-1.445 F300.000
G1 X-0.101 Y15.048 Z-1.449 F300.000
G1 X-0.057 Y15.032 Z-1.453 F300.000
G1 X-0.011 Y15.025 Z-1.458 F300.000
G1 X0.036 Y15.028 Z-1.462 F300.000
G1 X0.081 Y15.039 Z-1.466 F300.000
G1 X0.123 Y15.059 Z-1.470 F300.000
G1 X0.161 Y15.087 Z-1.475 F300.000
G1 X0.192 Y15.122 Z-1.479 F300.000
G1 X0.216 Y15.162 Z-1.483 F300.000
G1 X0.231 Y15.206 Z-1.488 F300.000
G1 X0.238 Y15.252 Z-1.492 F300.000
G1 X0.235 Y15.299 Z-1.496 F300.000
G1 X0.224 Y15.344 Z-1.500 F300.000
G1 X0.204 Y15.386 Z-1.505 F300.000
G1 X0.176 Y15.424 Z-1.509 F300.000
G1 X0.141 Y15.455 Z-1.513 F300.000
G1 X0.101 Y15.479 Z-1.517 F300.000
G1 X0.057 Y15.494 Z-1.522 F300.000
G1 X0.011 Y15.501 Z-1.526 F300.000
G1 X-0.036 Y15.499 Z-1.530 F300.000
G1 X-0.081 Y15.487 Z-1.534 F300.000
G1 X-0.123 Y15.467 Z-1.539 F300.000
G1 X-0.161 Y15.439 Z-1.543 F300.000
G1 X-0.192 Y15.404 Z-1.547 F300.000
G1 X-0.216 Y15.364 Z-1.551 F300.000
G1 X-0.231 Y15.320 Z-1.556 F300.000
G1 X-0.238 Y15.274 Z-1.560 F300.000
G1 X-0.235 Y15.227 Z-1.564 F300.000
G1 X-0.224 Y15.182 Z-1.569 F300.000
G1 X-0.204 Y15.140 Z-1.573 F300.000
G1 X-0.176 Y15.103 Z-1.577 F300.000
G1 X-0.141 Y15.071 Z-1.581 F300.000
G1 X-0.101 Y15.048 Z-1.586 F300.000
G1 X-0.057 Y15.032 Z-1.590 F300.000
G1 X-0.011 Y15.025 Z-1.594 F300.000
G1 X0.036 Y15.028 Z-1.598 F300.000
G1 X0.081 Y15.039 Z-1.603 F300.000
G1 X0.123 Y15.059 Z-1.607 F300.000
G1 X0.161 Y15.087 Z-1.611 F300.000
G1 X0.192 Y15.122 Z-1.615 F300.000
G1 X0.216 Y15.162 Z-1.620 F300.000
G1 X0.231 Y15.206 Z-1.624 F300.000
G1 X0.238 Y15.252 Z-1.628 F300.000
G1 X0.235 Y15.299 Z-1.632 F300.000
G1 X0.224 Y15.344 Z-1.637 F300.000
G1 X0.204 Y15.386 Z-1.641 F300.000
G1 X0.176 Y15.424 Z-1.645 F300.000
G1 X0.141 Y15.455 Z-1.650 F300.000
G1 X0.101 Y15.479 Z-1.654 F300.000
G1 X0.057 Y15.494 Z-1.658 F300.000
G1 X0.011 Y15.501 Z-1.662 F300.000
G1 X-0.036 Y15.499 Z-1.667 F300.000
G1 X-0.081 Y15.487 Z-1.671 F300.000
G1 X-0.123 Y15.467 Z-1.675 F300.000
G1 X-0.161 Y15.439 Z-1.679 F300.000
G1 X-0.192 Y15.404 Z-1.684 F300.000
G1 X-0.216 Y15.364 Z-1.688 F300.000
G1 X-0.231 Y15.320 Z-1.692 F300.000
G1 X-0.238 Y15.274 Z-1.696 F300.000
G1 X-0.235 Y15.227 Z-1.701 F300.000
G1 X-0.224 Y15.182 Z-1.705 F300.000
G1 X-0.204 Y15.140 Z-1.709 F300.000
G1 X-0.176 Y15.103 Z-1.713 F300.000
G1 X-0.141 Y15.071 Z-1.718 F300.000
G1 X-0.101 Y15.048 Z-1.722 F300.000
G1 X-0.057 Y15.032 Z-1.726 F300.000
G1 X-0.011 Y15.025 Z-1.730 F300.000
G1 X0.036 Y15.028 Z-1.735 F300.000
G1 X0.081 Y15.039 Z-1.739 F300.000
G1 X0.123 Y15.059 Z-1.743 F300.000
G1 X0.161 Y15.087 Z-1.748 F300.000
G1 X0.192 Y15.122 Z-1.752 F300.000
G1 X0.216 Y15.162 Z-1.756 F300.000
G1 X0.231 Y15.206 Z-1.760 F300.000
G1 X0.238 Y15.252 Z-1.765 F300.000
G1 X0.235 Y15.299 Z-1.769 F300.000
G1 X0.224 Y15.344 Z-1.773 F300.000
G1 X0.204 Y15.386 Z-1.777 F300.000
G1 X0.176 Y15.424 Z-1.782 F300.000
G1 X0.141 Y15.455 Z-1.786 F300.000
G1 X0.101 Y15.479 Z-1.790 F300.000
G1 X0.057 Y15.494 Z-1.794 F300.000
G1 X0.011 Y15.501 Z-1.799 F300.000
G1 X-0.036 Y15.499 Z-1.803 F300.000
G1 X-0.081 Y15.487 Z-1.807 F300.000
G1 X-0.123 Y15.467 Z-1.811 F300.000
G1 X-0.161 Y15.439 Z-1.816 F300.000
G1 X-0.192 Y15.404 Z-1.820 F300.000
G1 X-0.216 Y15.364 Z-1.824 F300.000
G1 X-0.231 Y15.320 Z-1.829 F300.000
G1 X-0.238 Y15.274 Z-1.833 F300.000
G1 X-0.235 Y15.227 Z-1.837 F300.000
G1 X-0.224 Y15.182 Z-1.841 F300.000
G1 X-0.204 Y15.140 Z-1.846 F300.000
G1 X-0.176 Y15.103 Z-1.850 F300.000
G1 X-0.141 Y15.071 Z-1.854 F300.000
G1 X-0.101 Y15.048 Z-1.858 F300.000
G1 X-0.057 Y15.032 Z-1.863 F300.000
G1 X-0.011 Y15.025 Z-1.867 F300.000
G1 X0.036 Y15.028 Z-1.871 F300.000
G1 X0.081 Y15.039 Z-1.875 F300.000
G1 X0.123 Y15.059 Z-1.880 F300.000
G1 X0.161 Y15.087 Z-1.884 F300.000
G1 X0.192 Y15.122 Z-1.888 F300.000
G1 X0.216 Y15.162 Z-1.892 F300.000
G1 X0.231 Y15.206 Z-1.897 F300.000
G1 X0.238 Y15.252 Z-1.901 F300.000
G1 X0.235 Y15.299 Z-1.905 F300.000
G1 X0.224 Y15.344 Z-1.910 F300.000
G1 X0.204 Y15.386 Z-1.914 F300.000
G1 X0.176 Y15.424 Z-1.918 F300.000
G1 X0.141 Y15.455 Z-1.922 F300.000
G1 X0.101 Y15.479 Z-1.927 F300.000
G1 X0.057 Y15.494 Z-1.931 F300.000
G1 X0.011 Y15.501 Z-1.935 F300.000
G1 X-0.036 Y15.499 Z-1.939 F300.000
G1 X-0.081 Y15.487 Z-1.944 F300.000
G1 X-0.123 Y15.467 Z-1.948 F300.000
G1 X-0.161 Y15.439 Z-1.952 F300.000
G1 X-0.192 Y15.404 Z-1.956 F300.000
G1 X-0.216 Y15.364 Z-1.961 F300.000
G1 X-0.231 Y15.320 Z-1.965 F300.000
G1 X-0.238 Y15.274 Z-1.969 F300.000
G1 X-0.235 Y15.227 Z-1.973 F300.000
G1 X-0.224 Y15.182 Z-1.978 F300.000
G1 X-0.204 Y15.140 Z-1.982 F300.000
G1 X-0.176 Y15.103 Z-1.986 F300.000
G1 X-0.141 Y15.071 Z-1.990 F300.000
G1 X-0.101 Y15.048 Z-1.995 F300.000
G1 X-0.057 Y15.032 Z-1.999 F300.000
G1 X-0.011 Y15.025 Z-2.000 F400.000
G1 X0.036 Y15.028 Z-2.000 F400.000
G1 X0.081 Y15.039 Z-2.000 F400.000
G1 X0.123 Y15.059 Z-2.000 F400.000
G1 X0.161 Y15.087 Z-2.000 F400.000
G1 X0.192 Y15.122 Z-2.000 F400.000
G1 X0.216 Y15.162 Z-2.000 F400.000
G1 X0.231 Y15.206 Z-2.000 F400.000
G1 X0.238 Y15.252 Z-2.000 F400.000
G1 X0.235 Y15.299 Z-2.000 F400.000
G1 X0.224 Y15.344 Z-2.000 F400.000
G1 X0.204 Y15.386 Z-2.000 F400.000
G1 X0.176 Y15.424 Z-2.000 F400.000
G1 X0.141 Y15.455 Z-2.000 F400.000
G1 X0.101 Y15.479 Z-2.000 F400.000
G1 X0.057 Y15.494 Z-2.000 F400.000
G1 X0.011 Y15.501 Z-2.000 F400.000
G1 X-0.036 Y15.499 Z-2.000 F400.000
G1 X-0.081 Y15.487 Z-2.000 F400.000
G1 X-0.123 Y15.467 Z-2.000 F400.000
G1 X-0.161 Y15.439 Z-2.000 F400.000
G1 X-0.192 Y15.404 Z-2.000 F400.000
G1 X-0.216 Y15.364 Z-2.000 F400.000
G1 X-0.231 Y15.320 Z-2.000 F400.000
G1 X-0.238 Y15.274 Z-2.000 F400.000
G1 X-0.235 Y15.227 Z-2.000 F400.000
G1 X-0.224 Y15.182 Z-2.000 F400.000
G1 X-0.204 Y15.140 Z-2.000 F400.000
G1 X-0.176 Y15.103 Z-2.000 F400.000
G1 X-0.141 Y15.071 Z-2.000 F400.000
G1 X-0.101 Y15.048 Z-2.000 F400.000
G1 X-0.057 Y15.032 Z-2.000 F400.000
(Adaptive - depth: -2.000000)
G1 X0.000 Y15.015 F400.000
G1 X0.053 Y14.985 F400.000
G1 X0.109 Y14.981 F400.000
G1 X0.165 Y14.996 F400.000
G1 X0.218 Y15.023 F400.000
G1 X0.263 Y15.060 F400.000
G1 X0.297 Y15.105 F400.000
G1 X0.335 Y15.214 F400.000
G1 X0.335 Y15.327 F400.000
G1 X0.320 Y15.383 F400.000
G1 X0.259 Y15.485 F400.000
G1 X0.169 Y15.560 F400.000
G1 X0.113 Y15.586 F400.000
G1 X-0.004 Y15.602 F400.000
G1 X-0.060 Y15.598 F400.000
G1 X-0.169 Y15.560 F400.000
G1 X-0.218 Y15.530 F400.000
G1 X-0.297 Y15.440 F400.000
G1 X-0.323 Y15.383 F400.000
G1 X-0.346 Y15.263 F400.000
G1 X-0.323 Y15.143 F400.000
G1 X-0.263 Y15.034 F400.000
G1 X-0.177 Y14.944 F400.000
G1 X-0.068 Y14.883 F400.000
G1 X0.049 Y14.853 F400.000
G1 X0.162 Y14.861 F400.000
G1 X0.271 Y14.906 F400.000
G1 X0.361 Y14.981 F400.000
G1 X0.429 Y15.075 F400.000
G1 X0.466 Y15.244 F400.000
G1 X0.432 Y15.414 F400.000
G1 X0.346 Y15.564 F400.000
G1 X0.308 Y15.609 F400.000
G1 X0.207 Y15.673 F400.000
G1 X0.090 Y15.714 F400.000
G1 X-0.026 Y15.726 F400.000
G1 X-0.195 Y15.684 F400.000
G1 X-0.335 Y15.579 F400.000
G1 X-0.376 Y15.538 F400.000
G1 X-0.432 Y15.429 F400.000
G1 X-0.462 Y15.308 F400.000
G1 X-0.466 Y15.248 F400.000
G1 X-0.421 Y15.068 F400.000
G1 X-0.263 Y14.876 F400.000
G1 X-0.154 Y14.820 F400.000
G1 X-0.034 Y14.793 F400.000
G1 X0.023 Y14.793 F400.000
G1 X0.192 Y14.835 F400.000
G1 X0.244 Y14.861 F400.000
G1 X0.244 Y14.861 F400.000
G1 X0.301 Y14.887 F400.000
G1 X0.301 Y14.887 F400.000
G1 X0.274 Y14.861 F400.000
G1 X0.274 Y14.861 F400.000
G1 X0.331 Y14.895 F400.000
G1 X0.331 Y14.895 F400.000
G1 X0.395 Y14.970 F400.000
G1 X0.459 Y15.079 F400.000
G1 X0.492 Y15.229 F400.000
G1 X0.481 Y15.342 F400.000
G1 X0.455 Y15.451 F400.000
G1 X0.383 Y15.575 F400.000
G1 X0.248 Y15.692 F400.000
G1 X0.169 Y15.733 F400.000
G1 X0.098 Y15.752 F400.000
G1 X-0.030 Y15.756 F400.000
G1 X-0.169 Y15.722 F400.000
G1 X-0.286 Y15.662 F400.000
G1 X-0.383 Y15.575 F400.000
G1 X-0.459 Y15.451 F400.000
G1 X-0.489 Y15.308 F400.000
G1 X-0.492 Y15.244 F400.000
G1 X-0.436 Y15.026 F400.000
G1 X-0.350 Y14.914 F400.000
G1 X-0.297 Y14.868 F400.000
G1 X-0.180 Y14.801 F400.000
G1 X-0.064 Y14.771 F400.000
G1 X0.053 Y14.771 F400.000
G1 X0.165 Y14.797 F400.000
G1 X0.252 Y14.838 F400.000
G1 X0.331 Y14.895 F400.000
G1 X0.331 Y14.895 F400.000
G0 Z5.000
(Helix to depth: -2.000000)
G0 Z5.000
G0 X0.224 Y0.081 Z5.000
G0 X0.224 Y0.081 Z3.000
G1 X0.224 Y0.081 Z0.000 F300.000
G1 X0.224 Y0.081 Z0.000 F300.000
G1 X0.204 Y0.123 Z-0.004 F300.000
G1 X0.176 Y0.161 Z-0.009 F300.000
G1 X0.141 Y0.192 Z-0.013 F300.000
G1 X0.101 Y0.216 Z-0.017 F300.000
G1 X0.057 Y0.231 Z-0.021 F300.000
G1 X0.011 Y0.238 Z-0.026 F300.000
G1 X-0.036 Y0.235 Z-0.030 F300.000
G1 X-0.081 Y0.224 Z-0.034 F300.000
G1 X-0.123 Y0.204 Z-0.038 F300.000
G1 X-0.161 Y0.176 Z-0.043 F300.000
G1 X-0.192 Y0.141 Z-0.047 F300.000
G1 X-0.216 Y0.101 Z-0.051 F300.000
G1 X-0.231 Y0.057 Z-0.055 F300.000
G1 X-0.238 Y0.011 Z-0.060 F300.000
G1 X-0.235 Y-0.036 Z-0.064 F300.000
G1 X-0.224 Y-0.081 Z-0.068 F300.000
G1 X-0.204 Y-0.123 Z-0.072 F300.000
G1 X-0.176 Y-0.161 Z-0.077 F300.000
G1 X-0.141 Y-0.192 Z-0.081 F300.000
G1 X-0.101 Y-0.216 Z-0.085 F300.000
G1 X-0.057 Y-0.231 Z-0.090 F300.000
G1 X-0.011 Y-0.238 Z-0.094 F300.000
G1 X0.036 Y-0.235 Z-0.098 F300.000
G1 X0.081 Y-0.224 Z-0.102 F300.000
G1 X0.123 Y-0.204 Z-0.107 F300.000
G1 X0.161 Y-0.176 Z-0.111 F300.000
G1 X0.192 Y-0.141 Z-0.115 F300.000
G1 X0.216 Y-0.101 Z-0.119 F300.000
G1 X0.231 Y-0.057 Z-0.124 F300.000
G1 X0.238 Y-0.011 Z-0.128 F300.000
G1 X0.235 Y0.036 Z-0.132 F300.000
G1 X0.224 Y0.081 Z-0.136 F300.000
G1 X0.204 Y0.123 Z-0.141 F300.000
G1 X0.176 Y0.161 Z-0.145 F300.000
G1 X0.141 Y0.192 Z-0.149 F300.000
G1 X0.101 Y0.216 Z-0.153 F300.000
G1 X0.057 Y0.231 Z-0.158 F300.000
G1 X0.011 Y0.238 Z-0.162 F300.000
G1 X-0.036 Y0.235 Z-0.166 F300.000
G1 X-0.081 Y0.224 Z-0.170 F300.000
G1 X-0.123 Y0.204 Z-0.175 F300.000
G1 X-0.161 Y0.176 Z-0.179 F300.000
G1 X-0.192 Y0.141 Z-0.183 F300.000
G1 X-0.216 Y0.101 Z-0.188 F300.000
G1 X-0.231 Y0.057 Z-0.192 F300.000
G1 X-0.238 Y0.011 Z-0.196 F300.000
G1 X-0.235 Y-0.036 Z-0.200 F300.000
G1 X-0.224 Y-0.081 Z-0.205 F300.000
G1 X-0.204 Y-0.123 Z-0.209 F300.000
G1 X-0.176 Y-0.161 Z-0.213 F300.000
G1 X-0.141 Y-0.192 Z-0.217 F300.000
G1 X-0.101 Y-0.216 Z-0.222 F300.000
G1 X-0.057 Y-0.231 Z-0.226 F300.000
G1 X-0.011 Y-0.238 Z-0.230 F300.000
G1 X0.036 Y-0.235 Z-0.234 F300.000
G1 X0.081 Y-0.224 Z-0.239 F300.000
G1 X0.123 Y-0.204 Z-0.243 F300.000
G1 X0.161 Y-0.176 Z-0.247 F300.000
G1 X0.192 Y-0.141 Z-0.251 F300.000
G1 X0.216 Y-0.101 Z-0.256 F300.000
G1 X0.231 Y-0.057 Z-0.260 F300.000
G1 X0.238 Y-0.011 Z-0.264 F300.000
G1 X0.235 Y0.036 Z-0.269 F300.000
G1 X0.224 Y0.081 Z-0.273 F300.000
G1 X0.204 Y0.123 Z-0.277 F300.000
G1 X0.176 Y0.161 Z-0.281 F300.000
G1 X0.141 Y0.192 Z-0.286 F300.000
G1 X0.101 Y0.216 Z-0.290 F300.000
G1 X0.057 Y0.231 Z-0.294 F300.000
G1 X0.011 Y0.238 Z-0.298 F300.000
G1 X-0.036 Y0.235 Z-0.303 F300.000
G1 X-0.081 Y0.224 Z-0.307 F300.000
G1 X-0.123 Y0.204 Z-0.311 F300.000
G1 X-0.161 Y0.176 Z-0.315 F300.000
G1 X-0.192 Y0.141 Z-0.320 F300.000
G1 X-0.216 Y0.101 Z-0.324 F300.000
G1 X-0.231 Y0.057 Z-0.328 F300.000
G1 X-0.238 Y0.011 Z-0.332 F300.000
G1 X-0.235 Y-0.036 Z-0.337 F300.000
G1 X-0.224 Y-0.081 Z-0.341 F300.000
G1 X-0.204 Y-0.123 Z-0.345 F300.000
G1 X-0.176 Y-0.161 Z-0.350 F300.000
G1 X-0.141 Y-0.192 Z-0.354 F300.000
G1 X-0.101 Y-0.216 Z-0.358 F300.000
G1 X-0.057 Y-0.231 Z-0.362 F300.000
G1 X-0.011 Y-0.238 Z-0.367 F300.000
G1 X0.036 Y-0.235 Z-0.371 F300.000
G1 X0.081 Y-0.224 Z-0.375 F300.000
G1 X0.123 Y-0.204 Z-0.379 F300.000
G1 X0.161 Y-0.176 Z-0.384 F300.000
G1 X0.192 Y-0.141 Z-0.388 F300.000
G1 X0.216 Y-0.101 Z-0.392 F300.000
G1 X0.231 Y-0.057 Z-0.396 F300.000
G1 X0.238 Y-0.011 Z-0.401 F300.000
G1 X0.235 Y0.036 Z-0.405 F300.000
G1 X0.224 Y0.081 Z-0.409 F300.000
G1 X0.204 Y0.123 Z-0.413 F300.000
G1 X0.176 Y0.161 Z-0.418 F300.000
G1 X0.141 Y0.192 Z-0.422 F300.000
G1 X0.101 Y0.216 Z-0.426 F300.000
G1 X0.057 Y0.231 Z-0.430 F300.000
G1 X0.011 Y0.238 Z-0.435 F300.000
G1 X-0.036 Y0.235 Z-0.439 F300.000
G1 X-0.081 Y0.224 Z-0.443 F300.000
G1 X-0.123 Y0.204 Z-0.448 F300.000
G1 X-0.161 Y0.176 Z-0.452 F300.000
G1 X-0.192 Y0.141 Z-0.456 F300.000
G1 X-0.216 Y0.101 Z-0.460 F300.000
G1 X-0.231 Y0.057 Z-0.465 F300.000
G1 X-0.238 Y0.011 Z-0.469 F300.000
G1 X-0.235 Y-0.036 Z-0.473 F300.000
G1 X-0.224 Y-0.081 Z-0.477 F300.000
G1 X-0.204 Y-0.123 Z-0.482 F300.000
G1 X-0.176 Y-0.161 Z-0.486 F300.000
G1 X-0.141 Y-0.192 Z-0.490 F300.000
G1 X-0.101 Y-0.216 Z-0.494 F300.000
G1 X-0.057 Y-0.231 Z-0.499 F300.000
G1 X-0.011 Y-0.238 Z-0.503 F300.000
G1 X0.036 Y-0.235 Z-0.507 F300.000
G1 X0.081 Y-0.224 Z-0.511 F300.000
G1 X0.123 Y-0.204 Z-0.516 F300.000
G1 X0.161 Y-0.176 Z-0.520 F300.000
G1 X0.192 Y-0.141 Z-0.524 F300.000
G1 X0.216 Y-0.101 Z-0.529 F300.000
G1 X0.231 Y-0.057 Z-0.533 F300.000
G1 X0.238 Y-0.011 Z-0.537 F300.000
G1 X0.235 Y0.036 Z-0.541 F300.000
G1 X0.224 Y0.081 Z-0.546 F300.000
G1 X0.204 Y0.123 Z-0.550 F300.000
G1 X0.176 Y0.161 Z-0.554 F300.000
G1 X0.141 Y0.192 Z-0.558 F300.000
G1 X0.101 Y0.216 Z-0.563 F300.000
G1 X0.057 Y0.231 Z-0.567 F300.000
G1 X0.011 Y0.238 Z-0.571 F300.000
G1 X-0.036 Y0.235 Z-0.575 F300.000
G1 X-0.081 Y0.224 Z-0.580 F300.000
G1 X-0.123 Y0.204 Z-0.584 F300.000
G1 X-0.161 Y0.176 Z-0.588 F300.000
G1 X-0.192 Y0.141 Z-0.592 F300.000
G1 X-0.216 Y0.101 Z-0.597 F300.000
G1 X-0.231 Y0.057 Z-0.601 F300.000
G1 X-0.238 Y0.011 Z-0.605 F300.000
G1 X-0.235 Y-0.036 Z-0.610 F300.000
G1 X-0.224 Y-0.081 Z-0.614 F300.000
G1 X-0.204 Y-0.123 Z-0.618 F300.000
G1 X-0.176 Y-0.161 Z-0.622 F300.000
G1 X-0.141 Y-0.192 Z-0.627 F300.000
G1 X-0.101 Y-0.216 Z-0.631 F300.000
G1 X-0.057 Y-0.231 Z-0.635 F300.000
G1 X-0.011 Y-0.238 Z-0.639 F300.000
G1 X0.036 Y-0.235 Z-0.644 F300.000
G1 X0.081 Y-0.224 Z-0.648 F300.000
G1 X0.123 Y-0.204 Z-0.652 F300.000
G1 X0.161 Y-0.176 Z-0.656 F300.000
G1 X0.192 Y-0.141 Z-0.661 F300.000
G1 X0.216 Y-0.101 Z-0.665 F300.000
G1 X0.231 Y-0.057 Z-0.669 F300.000
G1 X0.238 Y-0.011 Z-0.673 F300.000
G1 X0.235 Y0.036 Z-0.678 F300.000
G1 X0.224 Y0.081 Z-0.682 F300.000
G1 X0.204 Y0.123 Z-0.686 F300.000
G1 X0.176 Y0.161 Z-0.690 F300.000
G1 X0.141 Y0.192 Z-0.695 F300.000
G1 X0.101 Y0.216 Z-0.699 F300.000
G1 X0.057 Y0.231 Z-0.703 F300.000
G1 X0.011 Y0.238 Z-0.708 F300.000
G1 X-0.036 Y0.235 Z-0.712 F300.000
G1 X-0.081 Y0.224 Z-0.716 F300.000
G1 X-0.123 Y0.204 Z-0.720 F300.000
G1 X-0.161 Y0.176 Z-0.725 F300.000
G1 X-0.192 Y0.141 Z-0.729 F300.000
G1 X-0.216 Y0.101 Z-0.733 F300.000
G1 X-0.231 Y0.057 Z-0.737 F300.000
G1 X-0.238 Y0.011 Z-0.742 F300.000
G1 X-0.235 Y-0.036 Z-0.746 F300.000
G1 X-0.224 Y-0.081 Z-0.750 F300.000
G1 X-0.204 Y-0.123 Z-0.754 F300.000
G1 X-0.176 Y-0.161 Z-0.759 F300.000
G1 X-0.141 Y-0.192 Z-0.763 F300.000
G1 X-0.101 Y-0.216 Z-0.767 F300.000
G1 X-0.057 Y-0.231 Z-0.771 F300.000
G1 X-0.011 Y-0.238 Z-0.776 F300.000
G1 X0.036 Y-0.235 Z-0.780 F300.000
G1 X0.081 Y-0.224 Z-0.784 F300.000
G1 X0.123 Y-0.204 Z-0.789 F300.000
G1 X0.161 Y-0.176 Z-0.793 F300.000
G1 X0.192 Y-0.141 Z-0.797 F300.000
G1 X0.216 Y-0.101 Z-0.801 F300.000
G1 X0.231 Y-0.057 Z-0.806 F300.000
G1 X0.238 Y-0.011 Z-0.810 F300.000
G1 X0.235 Y0.036 Z-0.814 F300.000
G1 X0.224 Y0.081 Z-0.818 F300.000
G1 X0.204 Y0.123 Z-0.823 F300.000
G1 X0.176 Y0.161 Z-0.827 F300.000
G1 X0.141 Y0.192 Z-0.831 F300.000
G1 X0.101 Y0.216 Z-0.835 F300.000
G1 X0.057 Y0.231 Z-0.840 F300.000
G1 X0.011 Y0.238 Z-0.844 F300.000
G1 X-0.036 Y0.235 Z-0.848 F300.000
G1 X-0.081 Y0.224 Z-0.852 F300.000
G1 X-0.123 Y0.204 Z-0.857 F300.000
G1 X-0.161 Y0.176 Z-0.861 F300.000
G1 X-0.192 Y0.141 Z-0.865 F300.000
G1 X-0.216 Y0.101 Z-0.870 F300.000
G1 X-0.231 Y0.057 Z-0.874 F300.000
G1 X-0.238 Y0.011 Z-0.878 F300.000
G1 X-0.235 Y-0.036 Z-0.882 F300.000
G1 X-0.224 Y-0.081 Z-0.887 F300.000
G1 X-0.204 Y-0.123 Z-0.891 F300.000
G1 X-0.176 Y-0.161 Z-0.895 F300.000
G1 X-0.141 Y-0.192 Z-0.899 F300.000
G1 X-0.101 Y-0.216 Z-0.904 F300.000
G1 X-0.057 Y-0.231 Z-0.908 F300.000
G1 X-0.011 Y-0.238 Z-0.912 F300.000
G1 X0.036 Y-0.235 Z-0.916 F300.000
G1 X0.081 Y-0.224 Z-0.921 F300.000
G1 X0.123 Y-0.204 Z-0.925 F300.000
G1 X0.161 Y-0.176 Z-0.929 F300.000
G1 X0.192 Y-0.141 Z-0.933 F300.000
G1 X0.216 Y-0.101 Z-0.938 F300.000
G1 X0.231 Y-0.057 Z-0.942 F300.000
G1 X0.238 Y-0.011 Z-0.946 F300.000
G1 X0.235 Y0.036 Z-0.950 F300.000
G1 X0.224 Y0.081 Z-0.955 F300.000
G1 X0.204 Y0.123 Z-0.959 F300.000
G1 X0.176 Y0.161 Z-0.963 F300.000
G1 X0.141 Y0.192 Z-0.968 F300.000
G1 X0.101 Y0.216 Z-0.972 F300.000
G1 X0.057 Y0.231 Z-0.976 F300.000
G1 X0.011 Y0.238 Z-0.980 F300.000
G1 X-0.036 Y0.235 Z-0.985 F300.000
G1 X-0.081 Y0.224 Z-0.989 F300.000
G1 X-0.123 Y0.204 Z-0.993 F300.000
G1 X-0.161 Y0.176 Z-0.997 F300.000
G1 X-0.192 Y0.141 Z-1.002 F300.000
G1 X-0.216 Y0.101 Z-1.006 F300.000
G1 X-0.231 Y0.057 Z-1.010 F300.000
G1 X-0.238 Y0.011 Z-1.014 F300.000
G1 X-0.235 Y-0.036 Z-1.019 F300.000
G1 X-0.224 Y-0.081 Z-1.023 F300.000
G1 X-0.204 Y-0.123 Z-1.027 F300.000
G1 X-0.176 Y-0.161 Z-1.031 F300.000
G1 X-0.141 Y-0.192 Z-1.036 F300.000
G1 X-0.101 Y-0.216 Z-1.040 F300.000
G1 X-0.057 Y-0.231 Z-1.044 F300.000
G1 X-0.011 Y-0.238 Z-1.049 F300.000
G1 X0.036 Y-0.235 Z-1.053 F300.000
G1 X0.081 Y-0.224 Z-1.057 F300.000
G1 X0.123 Y-0.204 Z-1.061 F300.000
G1 X0.161 Y-0.176 Z-1.066 F300.000
G1 X0.192 Y-0.141 Z-1.070 F300.000
G1 X0.216 Y-0.101 Z-1.074 F300.000
G1 X0.231 Y-0.057 Z-1.078 F300.000
G1 X0.238 Y-0.011 Z-1.083 F300.000
G1 X0.235 Y0.036 Z-1.087 F300.000
G1 X0.224 Y0.081 Z-1.091 F300.000
G1 X0.204 Y0.123 Z-1.095 F300.000
G1 X0.176 Y0.161 Z-1.100 F300.000
G1 X0.141 Y0.192 Z-1.104 F300.000
G1 X0.101 Y0.216 Z-1.108 F300.000
G1 X0.057 Y0.231 Z-1.112 F300.000
G1 X0.011 Y0.238 Z-1.117 F300.000
G1 X-0.036 Y0.235 Z-1.121 F300.000
G1 X-0.081 Y0.224 Z-1.125 F300.000
G1 X-0.123 Y0.204 Z-1.130 F300.000
G1 X-0.161 Y0.176 Z-1.134 F300.000
G1 X-0.192 Y0.141 Z-1.138 F300.000
G1 X-0.216 Y0.101 Z-1.142 F300.000
G1 X-0.231 Y0.057 Z-1.147 F300.000
G1 X-0.238 Y0.011 Z-1.151 F300.000
G1 X-0.235 Y-0.036 Z-1.155 F300.000
G1 X-0.224 Y-0.081 Z-1.159 F300.000
G1 X-0.204 Y-0.123 Z-1.164 F300.000
G1 X-0.176 Y-0.161 Z-1.168 F300.000
G1 X-0.141 Y-0.192 Z-1.172 F300.000
G1 X-0.101 Y-0.216 Z-1.176 F300.000
G1 X-0.057 Y-0.231 Z-1.181 F300.000
G1 X-0.011 Y-0.238 Z-1.185 F300.000
G1 X0.036 Y-0.235 Z-1.189 F300.000
G1 X0.081 Y-0.224 Z-1.193 F300.000
G1 X0.123 Y-0.204 Z-1.198 F300.000
G1 X0.161 Y-0.176 Z-1.202 F300.000
G1 X0.192 Y-0.141 Z-1.206 F300.000
G1 X0.216 Y-0.101 Z-1.210 F300.000
G1 X0.231 Y-0.057 Z-1.215 F300.000
G1 X0.238 Y-0.011 Z-1.219 F300.000
G1 X0.235 Y0.036 Z-1.223 F300.000
G1 X0.224 Y0.081 Z-1.228 F300.000
G1 X0.204 Y0.123 Z-1.232 F300.000
G1 X0.176 Y0.161 Z-1.236 F300.000
G1 X0.141 Y0.192 Z-1.240 F300.000
G1 X0.101 Y0.216 Z-1.245 F300.000
G1 X0.057 Y0.231 Z-1.249 F300.000
G1 X0.011 Y0.238 Z-1.253 F300.000
G1 X-0.036 Y0.235 Z-1.257 F300.000
G1 X-0.081 Y0.224 Z-1.262 F300.000
G1 X-0.123 Y0.204 Z-1.266 F300.000
G1 X-0.161 Y0.176 Z-1.270 F300.000
G1 X-0.192 Y0.141 Z-1.274 F300.000
G1 X-0.216 Y0.101 Z-1.279 F300.000
G1 X-0.231 Y0.057 Z-1.283 F300.000
G1 X-0.238 Y0.011 Z-1.287 F300.000
G1 X-0.235 Y-0.036 Z-1.291 F300.000
G1 X-0.224 Y-0.081 Z-1.296 F300.000
G1 X-0.204 Y-0.123 Z-1.300 F300.000
G1 X-0.176 Y-0.161 Z-1.304 F300.000
G1 X-0.141 Y-0.192 Z-1.309 F300.000
G1 X-0.101 Y-0.216 Z-1.313 F300.000
G1 X-0.057 Y-0.231 Z-1.317 F300.000
G1 X-0.011 Y-0.238 Z-1.321 F300.000
G1 X0.036 Y-0.235 Z-1.326 F300.000
G1 X0.081 Y-0.224 Z-1.330 F300.000
G1 X0.123 Y-0.204 Z-1.334 F300.000
G1 X0.161 Y-0.176 Z-1.338 F300.000
G1 X0.192 Y-0.141 Z-1.343 F300.000
G1 X0.216 Y-0.101 Z-1.347 F300.000
G1 X0.231 Y-0.057 Z-1.351 F300.000
G1 X0.238 Y-0.011 Z-1.355 F300.000
G1 X0.235 Y0.036 Z-1.360 F300.000
G1 X0.224 Y0.081 Z-1.364 F300.000
G1 X0.204 Y0.123 Z-1.368 F300.000
G1 X0.176 Y0.161 Z-1.372 F300.000
G1 X0.141 Y0.192 Z-1.377 F300.000
G1 X0.101 Y0.216 Z-1.381 F300.000
G1 X0.057 Y0.231 Z-1.385 F300.000
G1 X0.011 Y0.238 Z-1.390 F300.000
G1 X-0.036 Y0.235 Z-1.394 F300.000
G1 X-0.081 Y0.224 Z-1.398 F300.000
G1 X-0.123 Y0.204 Z-1.402 F300.000
G1 X-0.161 Y0.176 Z-1.407 F300.000
G1 X-0.192 Y0.141 Z-1.411 F300.000
G1 X-0.216 Y0.101 Z-1.415 F300.000
G1 X-0.231 Y0.057 Z-1.419 F300.000
G1 X-0.238 Y0.011 Z-1.424 F300.000
G1 X-0.235 Y-0.036 Z-1.428 F300.000
G1 X-0.224 Y-0.081 Z-1.432 F300.000
G1 X-0.204 Y-0.123 Z-1.436 F300.000
G1 X-0.176 Y-0.161 Z-1.441 F300.000
G1 X-0.141 Y-0.192 Z-1.445 F300.000
G1 X-0.101 Y-0.216 Z-1.449 F300.000
G1 X-0.057 Y-0.231 Z-1.453 F300.000
G1 X-0.011 Y-0.238 Z-1.458 F300.000
G1 X0.036 Y-0.235 Z-1.462 F300.000
G1 X0.081 Y-0.224 Z-1.466 F300.000
G1 X0.123 Y-0.204 Z-1.470 F300.000
G1 X0.161 Y-0.176 Z-1.475 F300.000
G1 X0.192 Y-0.141 Z-1.479 F300.000
G1 X0.216 Y-0.101 Z-1.483 F300.000
G1 X0.231 Y-0.057 Z-1.488 F300.000
G1 X0.238 Y-0.011 Z-1.492 F300.000
G1 X0.235 Y0.036 Z-1.496 F300.000
G1 X0.224 Y0.081 Z-1.500 F300.000
G1 X0.204 Y0.123 Z-1.505 F300.000
G1 X0.176 Y0.161 Z-1.509 F300.000
G1 X0.141 Y0.192 Z-1.513 F300.000
G1 X0.101 Y0.216 Z-1.517 F300.000
G1 X0.057 Y0.231 Z-1.522 F300.000
G1 X0.011 Y0.238 Z-1.526 F300.000
G1 X-0.036 Y0.235 Z-1.530 F300.000
G1 X-0.081 Y0.224 Z-1.534 F300.000
G1 X-0.123 Y0.204 Z-1.539 F300.000
G1 X-0.161 Y0.176 Z-1.543 F300.000
G1 X-0.192 Y0.141 Z-1.547 F300.000
G1 X-0.216 Y0.101 Z-1.551 F300.000
G1 X-0.231 Y0.057 Z-1.556 F300.000
G1 X-0.238 Y0.011 Z-1.560 F300.000
G1 X-0.235 Y-0.036 Z-1.564 F300.000
G1 X-0.224 Y-0.081 Z-1.569 F300.000
G1 X-0.204 Y-0.123 Z-1.573 F300.000
G1 X-0.176 Y-0.161 Z-1.577 F300.000
G1 X-0.141 Y-0.192 Z-1.581 F300.000
G1 X-0.101 Y-0.216 Z-1.586 F300.000
G1 X-0.057 Y-0.231 Z-1.590 F300.000
G1 X-0.011 Y-0.238 Z-1.594 F300.000
G1 X0.036 Y-0.235 Z-1.598 F300.000
G1 X0.081 Y-0.224 Z-1.603 F300.000
G1 X0.123 Y-0.204 Z-1.607 F300.000
G1 X0.161 Y-0.176 Z-1.611 F300.000
G1 X0.192 Y-0.141 Z-1.615 F300.000
G1 X0.216 Y-0.101 Z-1.620 F300.000
G1 X0.231 Y-0.057 Z-1.624 F300.000
G1 X0.238 Y-0.011 Z-1.628 F300.000
G1 X0.235 Y0.036 Z-1.632 F300.000
G1 X0.224 Y0.081 Z-1.637 F300.000
G1 X0.204 Y0.123 Z-1.641 F300.000
G1 X0.176 Y0.161 Z-1.645 F300.000
G1 X0.141 Y0.192 Z-1.650 F300.000
G1 X0.101 Y0.216 Z-1.654 F300.000
G1 X0.057 Y0.231 Z-1.658 F300.000
G1 X0.011 Y0.238 Z-1.662 F300.000
G1 X-0.036 Y0.235 Z-1.667 F300.000
G1 X-0.081 Y0.224 Z-1.671 F300.000
G1 X-0.123 Y0.204 Z-1.675 F300.000
G1 X-0.161 Y0.176 Z-1.679 F300.000
G1 X-0.192 Y0.141 Z-1.684 F300.000
G1 X-0.216 Y0.101 Z-1.688 F300.000
G1 X-0.231 Y0.057 Z-1.692 F300.000
G1 X-0.238 Y0.011 Z-1.696 F300.000
G1 X-0.235 Y-0.036 Z-1.701 F300.000
G1 X-0.224 Y-0.081 Z-1.705 F300.000
G1 X-0.204 Y-0.123 Z-1.709 F300.000
G1 X-0.176 Y-0.161 Z-1.713 F300.000
G1 X-0.141 Y-0.192 Z-1.718 F300.000
G1 X-0.101 Y-0.216 Z-1.722 F300.000
G1 X-0.057 Y-0.231 Z-1.726 F300.000
G1 X-0.011 Y-0.238 Z-1.730 F300.000
G1 X0.036 Y-0.235 Z-1.735 F300.000
G1 X0.081 Y-0.224 Z-1.739 F300.000
G1 X0.123 Y-0.204 Z-1.743 F300.000
G1 X0.161 Y-0.176 Z-1.748 F300.000
G1 X0.192 Y-0.141 Z-1.752 F300.000
G1 X0.216 Y-0.101 Z-1.756 F300.000
G1 X0.231 Y-0.057 Z-1.760 F300.000
G1 X0.238 Y-0.011 Z-1.765 F300.000
G1 X0.235 Y0.036 Z-1.769 F300.000
G1 X0.224 Y0.081 Z-1.773 F300.000
G1 X0.204 Y0.123 Z-1.777 F300.000
G1 X0.176 Y0.161 Z-1.782 F300.000
G1 X0.141 Y0.192 Z-1.786 F300.000
G1 X0.101 Y0.216 Z-1.790 F300.000
G1 X0.057 Y0.231 Z-1.794 F300.000
G1 X0.011 Y0.238 Z-1.799 F300.000
G1 X-0.036 Y0.235 Z-1.803 F300.000
G1 X-0.081 Y0.224 Z-1.807 F300.000
G1 X-0.123 Y0.204 Z-1.811 F300.000
G1 X-0.161 Y0.176 Z-1.816 F300.000
G1 X-0.192 Y0.141 Z-1.820 F300.000
G1 X-0.216 Y0.101 Z-1.824 F300.000
G1 X-0.231 Y0.057 Z-1.829 F300.000
G1 X-0.238 Y0.011 Z-1.833 F300.000
G1 X-0.235 Y-0.036 Z-1.837 F300.000
G1 X-0.224 Y-0.081 Z-1.841 F300.000
G1 X-0.204 Y-0.123 Z-1.846 F300.000
G1 X-0.176 Y-0.161 Z-1.850 F300.000
G1 X-0.141 Y-0.192 Z-1.854 F300.000
G1 X-0.101 Y-0.216 Z-1.858 F300.000
G1 X-0.057 Y-0.231 Z-1.863 F300.000
G1 X-0.011 Y-0.238 Z-1.867 F300.000
G1 X0.036 Y-0.235 Z-1.871 F300.000
G1 X0.081 Y-0.224 Z-1.875 F300.000
G1 X0.123 Y-0.204 Z-1.880 F300.000
G1 X0.161 Y-0.176 Z-1.884 F300.000
G1 X0.192 Y-0.141 Z-1.888 F300.000
G1 X0.216 Y-0.101 Z-1.892 F300.000
G1 X0.231 Y-0.057 Z-1.897 F300.000
G1 X0.238 Y-0.011 Z-1.901 F300.000
G1 X0.235 Y0.036 Z-1.905 F300.000
G1 X0.224 Y0.081 Z-1.910 F300.000
G1 X0.204 Y0.123 Z-1.914 F300.000
G1 X0.176 Y0.161 Z-1.918 F300.000
G1 X0.141 Y0.192 Z-1.922 F300.000
G1 X0.101 Y0.216 Z-1.927 F300.000
G1 X0.057 Y0.231 Z-1.931 F300.000
G1 X0.011 Y0.238 Z-1.935 F300.000
G1 X-0.036 Y0.235 Z-1.939 F300.000
G1 X-0.081 Y0.224 Z-1.944 F300.000
G1 X-0.123 Y0.204 Z-1.948 F300.000
G1 X-0.161 Y0.176 Z-1.952 F300.000
G1 X-0.192 Y0.141 Z-1.956 F300.000
G1 X-0.216 Y0.101 Z-1.961 F300.000
G1 X-0.231 Y0.057 Z-1.965 F300.000
G1 X-0.238 Y0.011 Z-1.969 F300.000
G1 X-0.235 Y-0.036 Z-1.973 F300.000
G1 X-0.224 Y-0.081 Z-1.978 F300.000
G1 X-0.204 Y-0.123 Z-1.982 F300.000
G1 X-0.176 Y-0.161 Z-1.986 F300.000
G1 X-0.141 Y-0.192 Z-1.990 F300.000
G1 X-0.101 Y-0.216 Z-1.995 F300.000
G1 X-0.057 Y-0.231 Z-1.999 F300.000
G1 X-0.011 Y-0.238 Z-2.000 F400.000
G1 X0.036 Y-0.235 Z-2.000 F400.000
G1 X0.081 Y-0.224 Z-2.000 F400.000
G1 X0.123 Y-0.204 Z-2.000 F400.000
G1 X0.161 Y-0.176 Z-2.000 F400.000
G1 X0.192 Y-0.141 Z-2.000 F400.000
G1 X0.216 Y-0.101 Z-2.000 F400.000
G1 X0.231 Y-0.057 Z-2.000 F400.000
G1 X0.238 Y-0.011 Z-2.000 F400.000
G1 X0.235 Y0.036 Z-2.000 F400.000
G1 X0.224 Y0.081 Z-2.000 F400.000
G1 X0.204 Y0.123 Z-2.000 F400.000
G1 X0.176 Y0.161 Z-2.000 F400.000
G1 X0.141 Y0.192 Z-2.000 F400.000
G1 X0.101 Y0.216 Z-2.000 F400.000
G1 X0.057 Y0.231 Z-2.000 F400.000
G1 X0.011 Y0.238 Z-2.000 F400.000
G1 X-0.036 Y0.235 Z-2.000 F400.000
G1 X-0.081 Y0.224 Z-2.000 F400.000
G1 X-0.123 Y0.204 Z-2.000 F400.000
G1 X-0.161 Y0.176 Z-2.000 F400.000
G1 X-0.192 Y0.141 Z-2.000 F400.000
G1 X-0.216 Y0.101 Z-2.000 F400.000
G1 X-0.231 Y0.057 Z-2.000 F400.000
G1 X-0.238 Y0.011 Z-2.000 F400.000
G1 X-0.235 Y-0.036 Z-2.000 F400.000
G1 X-0.224 Y-0.081 Z-2.000 F400.000
G1 X-0.204 Y-0.123 Z-2.000 F400.000
G1 X-0.176 Y-0.161 Z-2.000 F400.000
G1 X-0.141 Y-0.192 Z-2.000 F400.000
G1 X-0.101 Y-0.216 Z-2.000 F400.000
G1 X-0.057 Y-0.231 Z-2.000 F400.000
(Adaptive - depth: -2.000000)
G1 X0.000 Y-0.248 F400.000
G1 X0.053 Y-0.274 F400.000
G1 X0.109 Y-0.274 F400.000
G1 X0.165 Y-0.259 F400.000
G1 X0.218 Y-0.229 F400.000
G1 X0.263 Y-0.188 F400.000
G1 X0.297 Y-0.135 F400.000
G1 X0.320 Y-0.079 F400.000
G1 X0.327 Y0.038 F400.000
G1 X0.320 Y0.094 F400.000
G1 X0.301 Y0.150 F400.000
G1 X0.199 Y0.286 F400.000
G1 X0.090 Y0.338 F400.000
G1 X0.011 Y0.350 F400.000
G1 X-0.064 Y0.342 F400.000
G1 X-0.158 Y0.308 F400.000
G1 X-0.252 Y0.241 F400.000
G1 X-0.316 Y0.147 F400.000
G1 X-0.346 Y0.053 F400.000
G1 X-0.350 Y-0.004 F400.000
G1 X-0.342 Y-0.060 F400.000
G1 X-0.301 Y-0.169 F400.000
G1 X-0.226 Y-0.263 F400.000
G1 X-0.132 Y-0.335 F400.000
G1 X-0.015 Y-0.376 F400.000
G1 X0.098 Y-0.383 F400.000
G1 X0.154 Y-0.376 F400.000
G1 X0.263 Y-0.331 F400.000
G1 X0.312 Y-0.293 F400.000
G1 X0.387 Y-0.195 F400.000
G1 X0.432 Y-0.079 F400.000
G1 X0.440 Y-0.019 F400.000
G1 X0.429 Y0.173 F400.000
G1 X0.357 Y0.308 F400.000
G1 X0.289 Y0.376 F400.000
G1 X0.211 Y0.425 F400.000
G1 X0.113 Y0.462 F400.000
G1 X-0.015 Y0.477 F400.000
G1 X-0.143 Y0.459 F400.000
G1 X-0.252 Y0.410 F400.000
G1 X-0.338 Y0.346 F400.000
G1 X-0.414 Y0.252 F400.000
G1 X-0.462 Y0.147 F400.000
G1 X-0.485 Y0.026 F400.000
G1 X-0.477 Y-0.090 F400.000
G1 X-0.444 Y-0.203 F400.000
G1 X-0.380 Y-0.305 F400.000
G1 X-0.293 Y-0.391 F400.000
G1 X-0.135 Y-0.481 F400.000
G1 X0.041 Y-0.519 F400.000
G1 X0.154 Y-0.515 F400.000
G1 X0.211 Y-0.504 F400.000
G1 X0.320 Y-0.455 F400.000
G1 X0.414 Y-0.383 F400.000
G1 X0.492 Y-0.289 F400.000
G1 X0.602 Y-0.049 F400.000
G1 X0.605 Y0.113 F400.000
G1 X0.586 Y0.207 F400.000
G1 X0.549 Y0.301 F400.000
G1 X0.477 Y0.410 F400.000
G1 X0.368 Y0.519 F400.000
G1 X0.241 Y0.594 F400.000
G1 X0.113 Y0.635 F400.000
G1 X-0.011 Y0.647 F400.000
G1 X-0.143 Y0.632 F400.000
G1 X-0.278 Y0.586 F400.000
G1 X-0.402 Y0.515 F400.000
G1 X-0.504 Y0.421 F400.000
G1 X-0.586 Y0.305 F400.000
G1 X-0.639 Y0.169 F400.000
G1 X-0.658 Y0.041 F400.000
G1 X-0.654 Y-0.083 F400.000
G1 X-0.624 Y-0.222 F400.000
G1 X-0.556 Y-0.361 F400.000
G1 X-0.474 Y-0.470 F400.000
G1 X-0.365 Y-0.568 F400.000
G1 X-0.237 Y-0.639 F400.000
G1 X-0.117 Y-0.673 F400.000
G1 X0.113 Y-0.688 F400.000
G1 X0.226 Y-0.673 F400.000
G1 X0.282 Y-0.654 F400.000
G1 X0.534 Y-0.523 F400.000
G1 X0.662 Y-0.391 F400.000
G1 X0.722 Y-0.286 F400.000
G1 X0.763 Y-0.184 F400.000
G1 X0.793 Y-0.038 F400.000
G1 X0.797 Y0.132 F400.000
G1 X0.759 Y0.297 F400.000
G1 X0.707 Y0.425 F400.000
G1 X0.620 Y0.556 F400.000
G1 X0.511 Y0.665 F400.000
G1 X0.387 Y0.752 F400.000
G1 X0.244 Y0.812 F400.000
G1 X0.094 Y0.846 F400.000
G1 X-0.056 Y0.853 F400.000
G1 X-0.218 Y0.831 F400.000
G1 X-0.372 Y0.778 F400.000
G1 X-0.511 Y0.699 F400.000
G1 X-0.639 Y0.594 F400.000
G1 X-0.741 Y0.462 F400.000
G1 X-0.808 Y0.331 F400.000
G1 X-0.850 Y0.188 F400.000
G1 X-0.868 Y0.034 F400.000
G1 X-0.865 Y-0.135 F400.000
G1 X-0.827 Y-0.308 F400.000
G1 X-0.756 Y-0.462 F400.000
G1 X-0.669 Y-0.583 F400.000
G1 X-0.564 Y-0.688 F400.000
G1 X-0.425 Y-0.786 F400.000
G1 X-0.271 Y-0.861 F400.000
G1 X-0.098 Y-0.906 F400.000
G1 X0.064 Y-0.917 F400.000
G1 X0.214 Y-0.906 F400.000
G1 X0.387 Y-0.865 F400.000
G1 X0.556 Y-0.786 F400.000
G1 X0.695 Y-0.684 F400.000
G1 X0.805 Y-0.568 F400.000
G1 X0.895 Y-0.440 F400.000
G1 X0.974 Y-0.274 F400.000
G1 X1.019 Y-0.098 F400.000
G1 X1.030 Y0.071 F400.000
G1 X1.015 Y0.226 F400.000
G1 X0.974 Y0.387 F400.000
G1 X0.898 Y0.564 F400.000
G1 X0.789 Y0.718 F400.000
G1 X0.680 Y0.835 F400.000
G1 X0.534 Y0.944 F400.000
G1 X0.376 Y1.023 F400.000
G1 X0.211 Y1.075 F400.000
G1 X0.034 Y1.098 F400.000
G1 X-0.139 Y1.094 F400.000
G1 X-0.323 Y1.060 F400.000
G1 X-0.492 Y0.996 F400.000
G1 X-0.650 Y0.910 F400.000
G1 X-0.793 Y0.793 F400.000
G1 X-0.910 Y0.654 F400.000
G1 X-0.996 Y0.511 F400.000
G1 X-1.068 Y0.350 F400.000
G1 X-1.113 Y0.162 F400.000
G1 X-1.128 Y-0.026 F400.000
G1 X-1.117 Y-0.211 F400.000
G1 X-1.071 Y-0.395 F400.000
G1 X-0.992 Y-0.564 F400.000
G1 X-0.902 Y-0.699 F400.000
G1 X-0.782 Y-0.835 F400.000
G1 X-0.632 Y-0.962 F400.000
G1 X-0.455 Y-1.068 F400.000
G1 X-0.271 Y-1.135 F400.000
G1 X-0.105 Y-1.173 F400.000
G1 X0.079 Y-1.184 F400.000
G1 X0.259 Y-1.169 F400.000
G1 X0.466 Y-1.120 F400.000
G1 X0.647 Y-1.045 F400.000
G1 X0.808 Y-0.936 F400.000
G1 X0.936 Y-0.823 F400.000
G1 X1.060 Y-0.680 F400.000
G1 X1.165 Y-0.500 F400.000
G1 X1.237 Y-0.323 F400.000
G1 X1.282 Y-0.135 F400.000
G1 X1.297 Y0.056 F400.000
G1 X1.289 Y0.244 F400.000
G1 X1.244 Y0.447 F400.000
G1 X1.173 Y0.632 F400.000
G1 X1.075 Y0.805 F400.000
G1 X0.947 Y0.962 F400.000
G1 X0.808 Y1.090 F400.000
G1 X0.647 Y1.199 F400.000
G1 X0.470 Y1.282 F400.000
G1 X0.286 Y1.338 F400.000
G1 X0.090 Y1.368 F400.000
G1 X-0.117 Y1.376 F400.000
G1 X-0.335 Y1.350 F400.000
G1 X-0.530 Y1.289 F400.000
G1 X-0.695 Y1.214 F400.000
G1 X-0.865 Y1.102 F400.000
G1 X-1.015 Y0.970 F400.000
G1 X-1.154 Y0.805 F400.000
G1 X-1.259 Y0.632 F400.000
G1 X-1.342 Y0.440 F400.000
G1 X-1.398 Y0.241 F400.000
G1 X-1.425 Y0.034 F400.000
G1 X-1.421 Y-0.169 F400.000
G1 X-1.380 Y-0.372 F400.000
G1 X-1.320 Y-0.545 F400.000
G1 X-1.233 Y-0.722 F400.000
G1 X-1.109 Y-0.906 F400.000
G1 X-0.955 Y-1.075 F400.000
G1 X-0.789 Y-1.211 F400.000
G1 X-0.620 Y-1.316 F400.000
G1 X-0.421 Y-1.402 F400.000
G1 X-0.218 Y-1.455 F400.000
G1 X-0.011 Y-1.481 F400.000
G1 X0.195 Y-1.477 F400.000
G1 X0.402 Y-1.447 F400.000
G1 X0.620 Y-1.383 F400.000
G1 X0.820 Y-1.293 F400.000
G1 X1.000 Y-1.169 F400.000
G1 X1.139 Y-1.045 F400.000
G1 X1.274 Y-0.891 F400.000
G1 X1.402 Y-0.699 F400.000
G1 X1.504 Y-0.492 F400.000
G1 X1.564 Y-0.278 F400.000
G1 X1.594 Y-0.086 F400.000
G1 X1.602 Y0.124 F400.000
G1 X1.583 Y0.346 F400.000
G1 X1.526 Y0.579 F400.000
G1 X1.440 Y0.786 F400.000
G1 X1.342 Y0.959 F400.000
G1 X1.207 Y1.135 F400.000
G1 X1.053 Y1.286 F400.000
G1 X0.883 Y1.410 F400.000
G1 X0.695 Y1.515 F400.000
G1 X0.477 Y1.605 F400.000
G1 X0.244 Y1.669 F400.000
G1 X0.015 Y1.688 F400.000
G1 X-0.177 Y1.684 F400.000
G1 X-0.395 Y1.650 F400.000
G1 X-0.617 Y1.586 F400.000
G1 X-0.835 Y1.492 F400.000
G1 X-1.030 Y1.376 F400.000
G1 X-1.207 Y1.226 F400.000
G1 X-1.342 Y1.079 F400.000
G1 X-1.470 Y0.902 F400.000
G1 X-1.583 Y0.692 F400.000
G1 X-1.669 Y0.470 F400.000
G1 X-1.718 Y0.241 F400.000
G1 X-1.737 Y0.030 F400.000
G1 X-1.729 Y-0.192 F400.000
G1 X-1.688 Y-0.410 F400.000
G1 X-1.628 Y-0.617 F400.000
G1 X-1.526 Y-0.842 F400.000
G1 X-1.406 Y-1.038 F400.000
G1 X-1.259 Y-1.218 F400.000
G1 X-1.086 Y-1.383 F400.000
G1 X-0.898 Y-1.523 F400.000
G1 X-0.695 Y-1.635 F400.000
G1 X-0.477 Y-1.722 F400.000
G1 X-0.252 Y-1.782 F400.000
G1 X-0.019 Y-1.812 F400.000
G1 X0.211 Y-1.812 F400.000
G1 X0.440 Y-1.782 F400.000
G1 X0.665 Y-1.726 F400.000
G1 X0.880 Y-1.639 F400.000
G1 X1.083 Y-1.526 F400.000
G1 X1.271 Y-1.387 F400.000
G1 X1.440 Y-1.226 F400.000
G1 X1.586 Y-1.045 F400.000
G1 X1.711 Y-0.846 F400.000
G1 X1.808 Y-0.632 F400.000
G1 X1.876 Y-0.406 F400.000
G1 X1.917 Y-0.177 F400.000
G1 X1.936 Y0.053 F400.000
G1 X1.921 Y0.320 F400.000
G1 X1.880 Y0.560 F400.000
G1 X1.808 Y0.797 F400.000
G1 X1.695 Y1.026 F400.000
G1 X1.523 Y1.267 F400.000
G1 X1.308 Y1.500 F400.000
G1 X1.162 Y1.605 F400.000
G1 X0.850 Y1.808 F400.000
G1 X0.383 Y1.959 F400.000
G1 X-0.034 Y2.004 F400.000
G1 X-0.429 Y1.974 F400.000
G1 X-0.711 Y1.898 F400.000
G1 X-1.135 Y1.688 F400.000
G1 X-1.372 Y1.500 F400.000
G1 X-1.650 Y1.184 F400.000
G1 X-1.808 Y0.925 F400.000
G1 X-1.940 Y0.586 F400.000
G1 X-2.011 Y0.226 F400.000
G1 X-2.015 Y-0.237 F400.000
G1 X-1.936 Y-0.632 F400.000
G1 X-1.801 Y-0.962 F400.000
G1 X-1.568 Y-1.312 F400.000
G1 X-1.320 Y-1.571 F400.000
G1 X-1.023 Y-1.786 F400.000
G1 X-0.590 Y-2.004 F400.000
G1 X-0.357 Y-2.075 F400.000
G1 X0.113 Y-2.128 F400.000
G1 X0.451 Y-2.102 F400.000
G1 X0.789 Y-2.011 F400.000
G1 X1.165 Y-1.835 F400.000
G1 X1.500 Y-1.590 F400.000
G1 X1.820 Y-1.229 F400.000
G1 X1.981 Y-0.970 F400.000
G1 X2.139 Y-0.568 F400.000
G1 X2.222 Y-0.147 F400.000
G1 X2.237 Y0.199 F400.000
G1 X2.188 Y0.594 F400.000
G1 X2.053 Y0.985 F400.000
G1 X1.850 Y1.342 F400.000
G1 X1.530 Y1.699 F400.000
G1 X1.192 Y1.951 F400.000
G1 X0.925 Y2.094 F400.000
G1 X0.583 Y2.218 F400.000
G1 X0.162 Y2.297 F400.000
G1 X-0.353 Y2.297 F400.000
G1 X-0.805 Y2.203 F400.000
G1 X-1.128 Y2.064 F400.000
G1 X-1.432 Y1.876 F400.000
G1 X-1.778 Y1.541 F400.000
G1 X-1.955 Y1.297 F400.000
G1 X-2.128 Y0.974 F400.000
G1 X-2.233 Y0.688 F400.000
G1 X-2.316 Y0.267 F400.000
G1 X-2.320 Y-0.312 F400.000
G1 X-2.241 Y-0.707 F400.000
G1 X-2.060 Y-1.143 F400.000
G1 X-1.827 Y-1.492 F400.000
G1 X-1.395 Y-1.910 F400.000
G1 X-0.936 Y-2.207 F400.000
G1 X-0.658 Y-2.327 F400.000
G1 X-0.297 Y-2.414 F400.000
G1 X0.169 Y-2.444 F400.000
G1 X0.620 Y-2.383 F400.000
G1 X1.011 Y-2.252 F400.000
G1 X1.327 Y-2.083 F400.000
G1 X1.699 Y-1.789 F400.000
G1 X1.981 Y-1.474 F400.000
G1 X2.150 Y-1.222 F400.000
G1 X2.259 Y-1.000 F400.000
G1 X2.365 Y-0.714 F400.000
G1 X2.440 Y-0.414 F400.000
G1 X2.470 Y-0.053 F400.000
G1 X2.451 Y0.286 F400.000
G1 X2.383 Y0.624 F400.000
G1 X2.244 Y1.015 F400.000
G1 X2.143 Y1.226 F400.000
G1 X1.868 Y1.617 F400.000
G1 X1.429 Y2.015 F400.000
G1 X1.222 Y2.147 F400.000
G1 X0.835 Y2.323 F400.000
G1 X0.417 Y2.436 F400.000
G1 X0.000 Y2.470 F400.000
G1 X-0.451 Y2.425 F400.000
G1 X-0.789 Y2.335 F400.000
G1 X-1.173 Y2.169 F400.000
G1 X-1.327 Y2.083 F400.000
G1 X-1.699 Y1.789 F400.000
G1 X-1.906 Y1.571 F400.000
G1 X-2.117 Y1.278 F400.000
G1 X-2.278 Y0.951 F400.000
G1 X-2.436 Y0.425 F400.000
G1 X-2.470 Y0.004 F400.000
G1 X-2.447 Y-0.335 F400.000
G1 X-2.297 Y-0.898 F400.000
G1 X-2.113 Y-1.271 F400.000
G1 X-1.944 Y-1.515 F400.000
G1 X-1.707 Y-1.786 F400.000
G1 X-1.429 Y-2.015 F400.000
G1 X-1.229 Y-2.147 F400.000
G1 X-0.902 Y-2.297 F400.000
G1 X-0.429 Y-2.436 F400.000
G1 X-0.068 Y-2.474 F400.000
G1 X-0.008 Y-2.470 F400.000
G1 X-0.008 Y-2.466 F400.000
G1 X0.053 Y-2.462 F400.000
G1 X0.053 Y-2.462 F400.000
G1 X0.075 Y-2.485 F400.000
G1 X0.075 Y-2.485 F400.000
G1 X0.139 Y-2.489 F400.000
G1 X0.139 Y-2.489 F400.000
G1 X0.492 Y-2.440 F400.000
G1 X0.680 Y-2.395 F400.000
G1 X0.989 Y-2.289 F400.000
G1 X1.263 Y-2.154 F400.000
G1 X1.519 Y-1.977 F400.000
G1 X1.726 Y-1.801 F400.000
G1 X1.932 Y-1.579 F400.000
G1 X2.026 Y-1.459 F400.000
G1 X2.192 Y-1.195 F400.000
G1 X2.289 Y-0.996 F400.000
G1 X2.387 Y-0.729 F400.000
G1 X2.451 Y-0.492 F400.000
G1 X2.485 Y-0.271 F400.000
G1 X2.496 Y-0.045 F400.000
G1 X2.466 Y0.350 F400.000
G1 X2.425 Y0.568 F400.000
G1 X2.380 Y0.737 F400.000
G1 X2.282 Y1.000 F400.000
G1 X2.124 Y1.308 F400.000
G1 X1.951 Y1.560 F400.000
G1 X1.808 Y1.722 F400.000
G1 X1.635 Y1.883 F400.000
G1 X1.398 Y2.068 F400.000
G1 X1.274 Y2.150 F400.000
G1 X1.068 Y2.256 F400.000
G1 X0.789 Y2.368 F400.000
G1 X0.590 Y2.425 F400.000
G1 X0.391 Y2.470 F400.000
G1 X0.177 Y2.492 F400.000
G1 X-0.004 Y2.500 F400.000
G1 X-0.132 Y2.492 F400.000
G1 X-0.485 Y2.444 F400.000
G1 X-0.801 Y2.361 F400.000
G1 X-0.944 Y2.308 F400.000
G1 X-1.278 Y2.139 F400.000
G1 X-1.530 Y1.966 F400.000
G1 X-1.827 Y1.703 F400.000
G1 X-2.053 Y1.414 F400.000
G1 X-2.180 Y1.211 F400.000
G1 X-2.289 Y0.996 F400.000
G1 X-2.398 Y0.688 F400.000
G1 X-2.485 Y0.293 F400.000
G1 X-2.496 Y-0.019 F400.000
G1 X-2.477 Y-0.289 F400.000
G1 X-2.440 Y-0.511 F400.000
G1 X-2.380 Y-0.729 F400.000
G1 X-2.293 Y-0.974 F400.000
G1 X-2.169 Y-1.226 F400.000
G1 X-2.105 Y-1.335 F400.000
G1 X-1.981 Y-1.508 F400.000
G1 X-1.744 Y-1.786 F400.000
G1 X-1.684 Y-1.846 F400.000
G1 X-1.402 Y-2.064 F400.000
G1 X-1.248 Y-2.165 F400.000
G1 X-1.124 Y-2.233 F400.000
G1 X-0.688 Y-2.398 F400.000
G1 X-0.372 Y-2.470 F400.000
G1 X-0.132 Y-2.500 F400.000
G1 X0.139 Y-2.489 F400.000
G1 X0.139 Y-2.489 F400.000
G0 Z5.000
(Helix to depth: -2.000000)
G0 Z5.000
G0 X15.483 Y0.081 Z5.000
G0 X15.483 Y0.081 Z3.000
G1 X15.483 Y0.081 Z0.000 F300.000
G1 X15.483 Y0.081 Z0.000 F300.000
G1 X15.463 Y0.123 Z-0.004 F300.000
G1 X15.435 Y0.161 Z-0.009 F300.000
G1 X15.401 Y0.192 Z-0.013 F300.000
G1 X15.360 Y0.216 Z-0.017 F300.000
G1 X15.316 Y0.231 Z-0.021 F300.000
G1 X15.270 Y0.238 Z-0.026 F300.000
G1 X15.224 Y0.235 Z-0.030 F300.000
G1 X15.178 Y0.224 Z-0.034 F300.000
G1 X15.136 Y0.204 Z-0.038 F300.000
G1 X15.099 Y0.176 Z-0.043 F300.000
G1 X15.068 Y0.141 Z-0.047 F300.000
G1 X15.044 Y0.101 Z-0.051 F300.000
G1 X15.028 Y0.057 Z-0.055 F300.000
G1 X15.022 Y0.011 Z-0.060 F300.000
G1 X15.024 Y-0.036 Z-0.064 F300.000
G1 X15.036 Y-0.081 Z-0.068 F300.000
G1 X15.056 Y-0.123 Z-0.072 F300.000
G1 X15.084 Y-0.161 Z-0.077 F300.000
G1 X15.118 Y-0.192 Z-0.081 F300.000
G1 X15.158 Y-0.216 Z-0.085 F300.000
G1 X15.202 Y-0.231 Z-0.090 F300.000
G1 X15.249 Y-0.238 Z-0.094 F300.000
G1 X15.295 Y-0.235 Z-0.098 F300.000
G1 X15.340 Y-0.224 Z-0.102 F300.000
G1 X15.383 Y-0.204 Z-0.107 F300.000
G1 X15.420 Y-0.176 Z-0.111 F300.000
G1 X15.451 Y-0.141 Z-0.115 F300.000
G1 X15.475 Y-0.101 Z-0.119 F300.000
G1 X15.491 Y-0.057 Z-0.124 F300.000
G1 X15.497 Y-0.011 Z-0.128 F300.000
G1 X15.495 Y0.036 Z-0.132 F300.000
G1 X15.483 Y0.081 Z-0.136 F300.000
G1 X15.463 Y0.123 Z-0.141 F300.000
G1 X15.435 Y0.161 Z-0.145 F300.000
G1 X15.401 Y0.192 Z-0.149 F300.000
G1 X15.360 Y0.216 Z-0.153 F300.000
G1 X15.316 Y0.231 Z-0.158 F300.000
G1 X15.270 Y0.238 Z-0.162 F300.000
G1 X15.224 Y0.235 Z-0.166 F300.000
G1 X15.178 Y0.224 Z-0.170 F300.000
G1 X15.136 Y0.204 Z-0.175 F300.000
G1 X15.099 Y0.176 Z-0.179 F300.000
G1 X15.068 Y0.141 Z-0.183 F300.000
G1 X15.044 Y0.101 Z-0.188 F300.000
G1 X15.028 Y0.057 Z-0.192 F300.000
G1 X15.022 Y0.011 Z-0.196 F300.000
G1 X15.024 Y-0.036 Z-0.200 F300.000
G1 X15.036 Y-0.081 Z-0.205 F300.000
G1 X15.056 Y-0.123 Z-0.209 F300.000
G1 X15.084 Y-0.161 Z-0.213 F300.000
G1 X15.118 Y-0.192 Z-0.217 F300.000
G1 X15.158 Y-0.216 Z-0.222 F300.000
G1 X15.202 Y-0.231 Z-0.226 F300.000
G1 X15.249 Y-0.238 Z-0.230 F300.000
G1 X15.295 Y-0.235 Z-0.234 F300.000
G1 X15.340 Y-0.224 Z-0.239 F300.000
G1 X15.383 Y-0.204 Z-0.243 F300.000
G1 X15.420 Y-0.176 Z-0.247 F300.000
G1 X15.451 Y-0.141 Z-0.251 F300.000
G1 X15.475 Y-0.101 Z-0.256 F300.000
G1 X15.491 Y-0.057 Z-0.260 F300.000
G1 X15.497 Y-0.011 Z-0.264 F300.000
G1 X15.495 Y0.036 Z-0.269 F300.000
G1 X15.483 Y0.081 Z-0.273 F300.000
G1 X15.463 Y0.123 Z-0.277 F300.000
G1 X15.435 Y0.161 Z-0.281 F300.000
G1 X15.401 Y0.192 Z-0.286 F300.000
G1 X15.360 Y0.216 Z-0.290 F300.000
G1 X15.316 Y0.231 Z-0.294 F300.000
G1 X15.270 Y0.238 Z-0.298 F300.000
G1 X15.224 Y0.235 Z-0.303 F300.000
G1 X15.178 Y0.224 Z-0.307 F300.000
G1 X15.136 Y0.204 Z-0.311 F300.000
G1 X15.099 Y0.176 Z-0.315 F300.000
G1 X15.068 Y0.141 Z-0.320 F300.000
G1 X15.044 Y0.101 Z-0.324 F300.000
G1 X15.028 Y0.057 Z-0.328 F300.000
G1 X15.022 Y0.011 Z-0.332 F300.000
G1 X15.024 Y-0.036 Z-0.337 F300.000
G1 X15.036 Y-0.081 Z-0.341 F300.000
G1 X15.056 Y-0.123 Z-0.345 F300.000
G1 X15.084 Y-0.161 Z-0.350 F300.000
G1 X15.118 Y-0.192 Z-0.354 F300.000
G1 X15.158 Y-0.216 Z-0.358 F300.000
G1 X15.202 Y-0.231 Z-0.362 F300.000
G1 X15.249 Y-0.238 Z-0.367 F300.000
G1 X15.295 Y-0.235 Z-0.371 F300.000
G1 X15.340 Y-0.224 Z-0.375 F300.000
G1 X15.383 Y-0.204 Z-0.379 F300.000
G1 X15.420 Y-0.176 Z-0.384 F300.000
G1 X15.451 Y-0.141 Z-0.388 F300.000
G1 X15.475 Y-0.101 Z-0.392 F300.000
G1 X15.491 Y-0.057 Z-0.396 F300.000
G1 X15.497 Y-0.011 Z-0.401 F300.000
G1 X15.495 Y0.036 Z-0.405 F300.000
G1 X15.483 Y0.081 Z-0.409 F300.000
G1 X15.463 Y0.123 Z-0.413 F300.000
G1 X15.435 Y0.161 Z-0.418 F300.000
G1 X15.401 Y0.192 Z-0.422 F300.000
G1 X15.360 Y0.216 Z-0.426 F300.000
G1 X15.316 Y0.231 Z-0.430 F300.000
G1 X15.270 Y0.238 Z-0.435 F300.000
G1 X15.224 Y0.235 Z-0.439 F300.000
G1 X15.178 Y0.224 Z-0.443 F300.000
G1 X15.136 Y0.204 Z-0.448 F300.000
G1 X15.099 Y0.176 Z-0.452 F300.000
G1 X15.068 Y0.141 Z-0.456 F300.000
G1 X15.044 Y0.101 Z-0.460 F300.000
G1 X15.028 Y0.057 Z-0.465 F300.000
G1 X15.022 Y0.011 Z-0.469 F300.000
G1 X15.024 Y-0.036 Z-0.473 F300.000
G1 X15.036 Y-0.081 Z-0.477 F300.000
G1 X15.056 Y-0.123 Z-0.482 F300.000
G1 X15.084 Y-0.161 Z-0.486 F300.000
G1 X15.118 Y-0.192 Z-0.490 F300.000
G1 X15.158 Y-0.216 Z-0.494 F300.000
G1 X15.202 Y-0.231 Z-0.499 F300.000
G1 X15.249 Y-0.238 Z-0.503 F300.000
G1 X15.295 Y-0.235 Z-0.507 F300.000
G1 X15.340 Y-0.224 Z-0.511 F300.000
G1 X15.383 Y-0.204 Z-0.516 F300.000
G1 X15.420 Y-0.176 Z-0.520 F300.000
G1 X15.451 Y-0.141 Z-0.524 F300.000
G1 X15.475 Y-0.101 Z-0.529 F300.000
G1 X15.491 Y-0.057 Z-0.533 F300.000
G1 X15.497 Y-0.011 Z-0.537 F300.000
G1 X15.495 Y0.036 Z-0.541 F300.000
G1 X15.483 Y0.081 Z-0.546 F300.000
G1 X15.463 Y0.123 Z-0.550 F300.000
G1 X15.435 Y0.161 Z-0.554 F300.000
G1 X15.401 Y0.192 Z-0.558 F300.000
G1 X15.360 Y0.216 Z-0.563 F300.000
G1 X15.316 Y0.231 Z-0.567 F300.000
G1 X15.270 Y0.238 Z-0.571 F300.000
G1 X15.224 Y0.235 Z-0.575 F300.000
G1 X15.178 Y0.224 Z-0.580 F300.000
G1 X15.136 Y0.204 Z-0.584 F300.000
G1 X15.099 Y0.176 Z-0.588 F300.000
G1 X15.068 Y0.141 Z-0.592 F300.000
G1 X15.044 Y0.101 Z-0.597 F300.000
G1 X15.028 Y0.057 Z-0.601 F300.000
G1 X15.022 Y0.011 Z-0.605 F300.000
G1 X15.024 Y-0.036 Z-0.610 F300.000
G1 X15.036 Y-0.081 Z-0.614 F300.000
G1 X15.056 Y-0.123 Z-0.618 F300.000
G1 X15.084 Y-0.161 Z-0.622 F300.000
G1 X15.118 Y-0.192 Z-0.627 F300.000
G1 X15.158 Y-0.216 Z-0.631 F300.000
G1 X15.202 Y-0.231 Z-0.635 F300.000
G1 X15.249 Y-0.238 Z-0.639 F300.000
G1 X15.295 Y-0.235 Z-0.644 F300.000
G1 X15.340 Y-0.224 Z-0.648 F300.000
G1 X15.383 Y-0.204 Z-0.652 F300.000
G1 X15.420 Y-0.176 Z-0.656 F300.000
G1 X15.451 Y-0.141 Z-0.661 F300.000
G1 X15.475 Y-0.101 Z-0.665 F300.000
G1 X15.491 Y-0.057 Z-0.669 F300.000
G1 X15.497 Y-0.011 Z-0.673 F300.000
G1 X15.495 Y0.036 Z-0.678 F300.000
G1 X15.483 Y0.081 Z-0.682 F300.000
G1 X15.463 Y0.123 Z-0.686 F300.000
G1 X15.435 Y0.161 Z-0.690 F300.000
G1 X15.401 Y0.192 Z-0.695 F300.000
G1 X15.360 Y0.216 Z-0.699 F300.000
G1 X15.316 Y0.231 Z-0.703 F300.000
G1 X15.270 Y0.238 Z-0.708 F300.000
G1 X15.224 Y0.235 Z-0.712 F300.000
G1 X15.178 Y0.224 Z-0.716 F300.000
G1 X15.136 Y0.204 Z-0.720 F300.000
G1 X15.099 Y0.176 Z-0.725 F300.000
G1 X15.068 Y0.141 Z-0.729 F300.000
G1 X15.044 Y0.101 Z-0.733 F300.000
G1 X15.028 Y0.057 Z-0.737 F300.000
G1 X15.022 Y0.011 Z-0.742 F300.000
G1 X15.024 Y-0.036 Z-0.746 F300.000
G1 X15.036 Y-0.081 Z-0.750 F300.000
G1 X15.056 Y-0.123 Z-0.754 F300.000
G1 X15.084 Y-0.161 Z-0.759 F300.000
G1 X15.118 Y-0.192 Z-0.763 F300.000
G1 X15.158 Y-0.216 Z-0.767 F300.000
G1 X15.202 Y-0.231 Z-0.771 F300.000
G1 X15.249 Y-0.238 Z-0.776 F300.000
G1 X15.295 Y-0.235 Z-0.780 F300.000
G1 X15.340 Y-0.224 Z-0.784 F300.000
G1 X15.383 Y-0.204 Z-0.789 F300.000
G1 X15.420 Y-0.176 Z-0.793 F300.000
G1 X15.451 Y-0.141 Z-0.797 F300.000
G1 X15.475 Y-0.101 Z-0.801 F300.000
G1 X15.491 Y-0.057 Z-0.806 F300.000
G1 X15.497 Y-0.011 Z-0.810 F300.000
G1 X15.495 Y0.036 Z-0.814 F300.000
G1 X15.483 Y0.081 Z-0.818 F300.000
G1 X15.463 Y0.123 Z-0.823 F300.000
G1 X15.435 Y0.161 Z-0.827 F300.000
G1 X15.401 Y0.192 Z-0.831 F300.000
G1 X15.360 Y0.216 Z-0.835 F300.000
G1 X15.316 Y0.231 Z-0.840 F300.000
G1 X15.270 Y0.238 Z-0.844 F300.000
G1 X15.224 Y0.235 Z-0.848 F300.000
G1 X15.178 Y0.224 Z-0.852 F300.000
G1 X15.136 Y0.204 Z-0.857 F300.000
G1 X15.099 Y0.176 Z-0.861 F300.000
G1 X15.068 Y0.141 Z-0.865 F300.000
G1 X15.044 Y0.101 Z-0.870 F300.000
G1 X15.028 Y0.057 Z-0.874 F300.000
G1 X15.022 Y0.011 Z-0.878 F300.000
G1 X15.024 Y-0.036 Z-0.882 F300.000
G1 X15.036 Y-0.081 Z-0.887 F300.000
G1 X15.056 Y-0.123 Z-0.891 F300.000
G1 X15.084 Y-0.161 Z-0.895 F300.000
G1 X15.118 Y-0.192 Z-0.899 F300.000
G1 X15.158 Y-0.216 Z-0.904 F300.000
G1 X15.202 Y-0.231 Z-0.908 F300.000
G1 X15.249 Y-0.238 Z-0.912 F300.000
G1 X15.295 Y-0.235 Z-0.916 F300.000
G1 X15.340 Y-0.224 Z-0.921 F300.000
G1 X15.383 Y-0.204 Z-0.925 F300.000
G1 X15.420 Y-0.176 Z-0.929 F300.000
G1 X15.451 Y-0.141 Z-0.933 F300.000
G1 X15.475 Y-0.101 Z-0.938 F300.000
G1 X15.491 Y-0.057 Z-0.942 F300.000
G1 X15.497 Y-0.011 Z-0.946 F300.000
G1 X15.495 Y0.036 Z-0.950 F300.000
G1 X15.483 Y0.081 Z-0.955 F300.000
G1 X15.463 Y0.123 Z-0.959 F300.000
G1 X15.435 Y0.161 Z-0.963 F300.000
G1 X15.401 Y0.192 Z-0.968 F300.000
G1 X15.360 Y0.216 Z-0.972 F300.000
G1 X15.316 Y0.231 Z-0.976 F300.000
G1 X15.270 Y0.238 Z-0.980 F300.000
G1 X15.224 Y0.235 Z-0.985 F300.000
G1 X15.178 Y0.224 Z-0.989 F300.000
G1 X15.136 Y0.204 Z-0.993 F300.000
G1 X15.099 Y0.176 Z-0.997 F300.000
G1 X15.068 Y0.141 Z-1.002 F300.000
G1 X15.044 Y0.101 Z-1.006 F300.000
G1 X15.028 Y0.057 Z-1.010 F300.000
G1 X15.022 Y0.011 Z-1.014 F300.000
G1 X15.024 Y-0.036 Z-1.019 F300.000
G1 X15.036 Y-0.081 Z-1.023 F300.000
G1 X15.056 Y-0.123 Z-1.027 F300.000
G1 X15.084 Y-0.161 Z-1.031 F300.000
G1 X15.118 Y-0.192 Z-1.036 F300.000
G1 X15.158 Y-0.216 Z-1.040 F300.000
G1 X15.202 Y-0.231 Z-1.044 F300.000
G1 X15.249 Y-0.238 Z-1.049 F300.000
G1 X15.295 Y-0.235 Z-1.053 F300.000
G1 X15.340 Y-0.224 Z-1.057 F300.000
G1 X15.383 Y-0.204 Z-1.061 F300.000
G1 X15.420 Y-0.176 Z-1.066 F300.000
G1 X15.451 Y-0.141 Z-1.070 F300.000
G1 X15.475 Y-0.101 Z-1.074 F300.000
G1 X15.491 Y-0.057 Z-1.078 F300.000
G1 X15.497 Y-0.011 Z-1.083 F300.000
G1 X15.495 Y0.036 Z-1.087 F300.000
G1 X15.483 Y0.081 Z-1.091 F300.000
G1 X15.463 Y0.123 Z-1.095 F300.000
G1 X15.435 Y0.161 Z-1.100 F300.000
G1 X15.401 Y0.192 Z-1.104 F300.000
G1 X15.360 Y0.216 Z-1.108 F300.000
G1 X15.316 Y0.231 Z-1.112 F300.000
G1 X15.270 Y0.238 Z-1.117 F300.000
G1 X15.224 Y0.235 Z-1.121 F300.000
G1 X15.178 Y0.224 Z-1.125 F300.000
G1 X15.136 Y0.204 Z-1.130 F300.000
G1 X15.099 Y0.176 Z-1.134 F300.000
G1 X15.068 Y0.141 Z-1.138 F300.000
G1 X15.044 Y0.101 Z-1.142 F300.000
G1 X15.028 Y0.057 Z-1.147 F300.000
G1 X15.022 Y0.011 Z-1.151 F300.000
G1 X15.024 Y-0.036 Z-1.155 F300.000
G1 X15.036 Y-0.081 Z-1.159 F300.000
G1 X15.056 Y-0.123 Z-1.164 F300.000
G1 X15.084 Y-0.161 Z-1.168 F300.000
G1 X15.118 Y-0.192 Z-1.172 F300.000
G1 X15.158 Y-0.216 Z-1.176 F300.000
G1 X15.202 Y-0.231 Z-1.181 F300.000
G1 X15.249 Y-0.238 Z-1.185 F300.000
G1 X15.295 Y-0.235 Z-1.189 F300.000
G1 X15.340 Y-0.224 Z-1.193 F300.000
G1 X15.383 Y-0.204 Z-1.198 F300.000
G1 X15.420 Y-0.176 Z-1.202 F300.000
G1 X15.451 Y-0.141 Z-1.206 F300.000
G1 X15.475 Y-0.101 Z-1.210 F300.000
G1 X15.491 Y-0.057 Z-1.215 F300.000
G1 X15.497 Y-0.011 Z-1.219 F300.000
G1 X15.495 Y0.036 Z-1.223 F300.000
G1 X15.483 Y0.081 Z-1.228 F300.000
G1 X15.463 Y0.123 Z-1.232 F300.000
G1 X15.435 Y0.161 Z-1.236 F300.000
G1 X15.401 Y0.192 Z-1.240 F300.000
G1 X15.360 Y0.216 Z-1.245 F300.000
G1 X15.316 Y0.231 Z-1.249 F300.000
G1 X15.270 Y0.238 Z-1.253 F300.000
G1 X15.224 Y0.235 Z-1.257 F300.000
G1 X15.178 Y0.224 Z-1.262 F300.000
G1 X15.136 Y0.204 Z-1.266 F300.000
G1 X15.099 Y0.176 Z-1.270 F300.000
G1 X15.068 Y0.141 Z-1.274 F300.000
G1 X15.044 Y0.101 Z-1.279 F300.000
G1 X15.028 Y0.057 Z-1.283 F300.000
G1 X15.022 Y0.011 Z-1.287 F300.000
G1 X15.024 Y-0.036 Z-1.291 F300.000
G1 X15.036 Y-0.081 Z-1.296 F300.000
G1 X15.056 Y-0.123 Z-1.300 F300.000
G1 X15.084 Y-0.161 Z-1.304 F300.000
G1 X15.118 Y-0.192 Z-1.309 F300.000
G1 X15.158 Y-0.216 Z-1.313 F300.000
G1 X15.202 Y-0.231 Z-1.317 F300.000
G1 X15.249 Y-0.238 Z-1.321 F300.000
G1 X15.295 Y-0.235 Z-1.326 F300.000
G1 X15.340 Y-0.224 Z-1.330 F300.000
G1 X15.383 Y-0.204 Z-1.334 F300.000
G1 X15.420 Y-0.176 Z-1.338 F300.000
G1 X15.451 Y-0.141 Z-1.343 F300.000
G1 X15.475 Y-0.101 Z-1.347 F300.000
G1 X15.491 Y-0.057 Z-1.351 F300.000
G1 X15.497 Y-0.011 Z-1.355 F300.000
G1 X15.495 Y0.036 Z-1.360 F300.000
G1 X15.483 Y0.081 Z-1.364 F300.000
G1 X15.463 Y0.123 Z-1.368 F300.000
G1 X15.435 Y0.161 Z-1.372 F300.000
G1 X15.401 Y0.192 Z-1.377 F300.000
G1 X15.360 Y0.216 Z-1.381 F300.000
G1 X15.316 Y0.231 Z-1.385 F300.000
G1 X15.270 Y0.238 Z-1.390 F300.000
G1 X15.224 Y0.235 Z-1.394 F300.000
G1 X15.178 Y0.224 Z-1.398 F300.000
G1 X15.136 Y0.204 Z-1.402 F300.000
G1 X15.099 Y0.176 Z-1.407 F300.000
G1 X15.068 Y0.141 Z-1.411 F300.000
G1 X15.044 Y0.101 Z-1.415 F300.000
G1 X15.028 Y0.057 Z-1.419 F300.000
G1 X15.022 Y0.011 Z-1.424 F300.000
G1 X15.024 Y-0.036 Z-1.428 F300.000
G1 X15.036 Y-0.081 Z-1.432 F300.000
G1 X15.056 Y-0.123 Z-1.436 F300.000
G1 X15.084 Y-0.161 Z-1.441 F300.000
G1 X15.118 Y-0.192 Z-1.445 F300.000
G1 X15.158 Y-0.216 Z-1.449 F300.000
G1 X15.202 Y-0.231 Z-1.453 F300.000
G1 X15.249 Y-0.238 Z-1.458 F300.000
G1 X15.295 Y-0.235 Z-1.462 F300.000
G1 X15.340 Y-0.224 Z-1.466 F300.000
G1 X15.383 Y-0.204 Z-1.470 F300.000
G1 X15.420 Y-0.176 Z-1.475 F300.000
G1 X15.451 Y-0.141 Z-1.479 F300.000
G1 X15.475 Y-0.101 Z-1.483 F300.000
G1 X15.491 Y-0.057 Z-1.488 F300.000
G1 X15.497 Y-0.011 Z-1.492 F300.000
G1 X15.495 Y0.036 Z-1.496 F300.000
G1 X15.483 Y0.081 Z-1.500 F300.000
G1 X15.463 Y0.123 Z-1.505 F300.000
G1 X15.435 Y0.161 Z-1.509 F300.000
G1 X15.401 Y0.192 Z-1.513 F300.000
G1 X15.360 Y0.216 Z-1.517 F300.000
G1 X15.316 Y0.231 Z-1.522 F300.000
G1 X15.270 Y0.238 Z-1.526 F300.000
G1 X15.224 Y0.235 Z-1.530 F300.000
G1 X15.178 Y0.224 Z-1.534 F300.000
G1 X15.136 Y0.204 Z-1.539 F300.000
G1 X15.099 Y0.176 Z-1.543 F300.000
G1 X15.068 Y0.141 Z-1.547 F300.000
G1 X15.044 Y0.101 Z-1.551 F300.000
G1 X15.028 Y0.057 Z-1.556 F300.000
G1 X15.022 Y0.011 Z-1.560 F300.000
G1 X15.024 Y-0.036 Z-1.564 F300.000
G1 X15.036 Y-0.081 Z-1.569 F300.000
G1 X15.056 Y-0.123 Z-1.573 F300.000
G1 X15.084 Y-0.161 Z-1.577 F300.000
G1 X15.118 Y-0.192 Z-1.581 F300.000
G1 X15.158 Y-0.216 Z-1.586 F300.000
G1 X15.202 Y-0.231 Z-1.590 F300.000
G1 X15.249 Y-0.238 Z-1.594 F300.000
G1 X15.295 Y-0.235 Z-1.598 F300.000
G1 X15.340 Y-0.224 Z-1.603 F300.000
G1 X15.383 Y-0.204 Z-1.607 F300.000
G1 X15.420 Y-0.176 Z-1.611 F300.000
G1 X15.451 Y-0.141 Z-1.615 F300.000
G1 X15.475 Y-0.101 Z-1.620 F300.000
G1 X15.491 Y-0.057 Z-1.624 F300.000
G1 X15.497 Y-0.011 Z-1.628 F300.000
G1 X15.495 Y0.036 Z-1.632 F300.000
G1 X15.483 Y0.081 Z-1.637 F300.000
G1 X15.463 Y0.123 Z-1.641 F300.000
G1 X15.435 Y0.161 Z-1.645 F300.000
G1 X15.401 Y0.192 Z-1.650 F300.000
G1 X15.360 Y0.216 Z-1.654 F300.000
G1 X15.316 Y0.231 Z-1.658 F300.000
G1 X15.270 Y0.238 Z-1.662 F300.000
G1 X15.224 Y0.235 Z-1.667 F300.000
G1 X15.178 Y0.224 Z-1.671 F300.000
G1 X15.136 Y0.204 Z-1.675 F300.000
G1 X15.099 Y0.176 Z-1.679 F300.000
G1 X15.068 Y0.141 Z-1.684 F300.000
G1 X15.044 Y0.101 Z-1.688 F300.000
G1 X15.028 Y0.057 Z-1.692 F300.000
G1 X15.022 Y0.011 Z-1.696 F300.000
G1 X15.024 Y-0.036 Z-1.701 F300.000
G1 X15.036 Y-0.081 Z-1.705 F300.000
G1 X15.056 Y-0.123 Z-1.709 F300.000
G1 X15.084 Y-0.161 Z-1.713 F300.000
G1 X15.118 Y-0.192 Z-1.718 F300.000
G1 X15.158 Y-0.216 Z-1.722 F300.000
G1 X15.202 Y-0.231 Z-1.726 F300.000
G1 X15.249 Y-0.238 Z-1.730 F300.000
G1 X15.295 Y-0.235 Z-1.735 F300.000
G1 X15.340 Y-0.224 Z-1.739 F300.000
G1 X15.383 Y-0.204 Z-1.743 F300.000
G1 X15.420 Y-0.176 Z-1.748 F300.000
G1 X15.451 Y-0.141 Z-1.752 F300.000
G1 X15.475 Y-0.101 Z-1.756 F300.000
G1 X15.491 Y-0.057 Z-1.760 F300.000
G1 X15.497 Y-0.011 Z-1.765 F300.000
G1 X15.495 Y0.036 Z-1.769 F300.000
G1 X15.483 Y0.081 Z-1.773 F300.000
G1 X15.463 Y0.123 Z-1.777 F300.000
G1 X15.435 Y0.161 Z-1.782 F300.000
G1 X15.401 Y0.192 Z-1.786 F300.000
G1 X15.360 Y0.216 Z-1.790 F300.000
G1 X15.316 Y0.231 Z-1.794 F300.000
G1 X15.270 Y0.238 Z-1.799 F300.000
G1 X15.224 Y0.235 Z-1.803 F300.000
G1 X15.178 Y0.224 Z-1.807 F300.000
G1 X15.136 Y0.204 Z-1.811 F300.000
G1 X15.099 Y0.176 Z-1.816 F300.000
G1 X15.068 Y0.141 Z-1.820 F300.000
G1 X15.044 Y0.101 Z-1.824 F300.000
G1 X15.028 Y0.057 Z-1.829 F300.000
G1 X15.022 Y0.011 Z-1.833 F300.000
G1 X15.024 Y-0.036 Z-1.837 F300.000
G1 X15.036 Y-0.081 Z-1.841 F300.000
G1 X15.056 Y-0.123 Z-1.846 F300.000
G1 X15.084 Y-0.161 Z-1.850 F300.000
G1 X15.118 Y-0.192 Z-1.854 F300.000
G1 X15.158 Y-0.216 Z-1.858 F300.000
G1 X15.202 Y-0.231 Z-1.863 F300.000
G1 X15.249 Y-0.238 Z-1.867 F300.000
G1 X15.295 Y-0.235 Z-1.871 F300.000
G1 X15.340 Y-0.224 Z-1.875 F300.000
G1 X15.383 Y-0.204 Z-1.880 F300.000
G1 X15.420 Y-0.176 Z-1.884 F300.000
G1 X15.451 Y-0.141 Z-1.888 F300.000
G1 X15.475 Y-0.101 Z-1.892 F300.000
G1 X15.491 Y-0.057 Z-1.897 F300.000
G1 X15.497 Y-0.011 Z-1.901 F300.000
G1 X15.495 Y0.036 Z-1.905 F300.000
G1 X15.483 Y0.081 Z-1.910 F300.000
G1 X15.463 Y0.123 Z-1.914 F300.000
G1 X15.435 Y0.161 Z-1.918 F300.000
G1 X15.401 Y0.192 Z-1.922 F300.000
G1 X15.360 Y0.216 Z-1.927 F300.000
G1 X15.316 Y0.231 Z-1.931 F300.000
G1 X15.270 Y0.238 Z-1.935 F300.000
G1 X15.224 Y0.235 Z-1.939 F300.000
G1 X15.178 Y0.224 Z-1.944 F300.000
G1 X15.136 Y0.204 Z-1.948 F300.000
G1 X15.099 Y0.176 Z-1.952 F300.000
G1 X15.068 Y0.141 Z-1.956 F300.000
G1 X15.044 Y0.101 Z-1.961 F300.000
G1 X15.028 Y0.057 Z-1.965 F300.000
G1 X15.022 Y0.011 Z-1.969 F300.000
G1 X15.024 Y-0.036 Z-1.973 F300.000
G1 X15.036 Y-0.081 Z-1.978 F300.000
G1 X15.056 Y-0.123 Z-1.982 F300.000
G1 X15.084 Y-0.161 Z-1.986 F300.000
G1 X15.118 Y-0.192 Z-1.990 F300.000
G1 X15.158 Y-0.216 Z-1.995 F300.000
G1 X15.202 Y-0.231 Z-1.999 F300.000
G1 X15.249 Y-0.238 Z-2.000 F400.000
G1 X15.295 Y-0.235 Z-2.000 F400.000
G1 X15.340 Y-0.224 Z-2.000 F400.000
G1 X15.383 Y-0.204 Z-2.000 F400.000
G1 X15.420 Y-0.176 Z-2.000 F400.000
G1 X15.451 Y-0.141 Z-2.000 F400.000
G1 X15.475 Y-0.101 Z-2.000 F400.000
G1 X15.491 Y-0.057 Z-2.000 F400.000
G1 X15.497 Y-0.011 Z-2.000 F400.000
G1 X15.495 Y0.036 Z-2.000 F400.000
G1 X15.483 Y0.081 Z-2.000 F400.000
G1 X15.463 Y0.123 Z-2.000 F400.000
G1 X15.435 Y0.161 Z-2.000 F400.000
G1 X15.401 Y0.192 Z-2.000 F400.000
G1 X15.360 Y0.216 Z-2.000 F400.000
G1 X15.316 Y0.231 Z-2.000 F400.000
G1 X15.270 Y0.238 Z-2.000 F400.000
G1 X15.224 Y0.235 Z-2.000 F400.000
G1 X15.178 Y0.224 Z-2.000 F400.000
G1 X15.136 Y0.204 Z-2.000 F400.000
G1 X15.099 Y0.176 Z-2.000 F400.000
G1 X15.068 Y0.141 Z-2.000 F400.000
G1 X15.044 Y0.101 Z-2.000 F400.000
G1 X15.028 Y0.057 Z-2.000 F400.000
G1 X15.022 Y0.011 Z-2.000 F400.000
G1 X15.024 Y-0.036 Z-2.000 F400.000
G1 X15.036 Y-0.081 Z-2.000 F400.000
G1 X15.056 Y-0.123 Z-2.000 F400.000
G1 X15.084 Y-0.161 Z-2.000 F400.000
G1 X15.118 Y-0.192 Z-2.000 F400.000
G1 X15.158 Y-0.216 Z-2.000 F400.000
G1 X15.202 Y-0.231 Z-2.000 F400.000
(Adaptive - depth: -2.000000)
G1 X15.259 Y-0.248 F400.000
G1 X15.312 Y-0.274 F400.000
G1 X15.368 Y-0.274 F400.000
G1 X15.425 Y-0.256 F400.000
G1 X15.477 Y-0.226 F400.000
G1 X15.523 Y-0.184 F400.000
G1 X15.556 Y-0.132 F400.000
G1 X15.575 Y-0.071 F400.000
G1 X15.583 Y0.045 F400.000
G1 X15.571 Y0.102 F400.000
G1 X15.519 Y0.207 F400.000
G1 X15.477 Y0.252 F400.000
G1 X15.429 Y0.289 F400.000
G1 X15.372 Y0.316 F400.000
G1 X15.312 Y0.331 F400.000
G1 X15.192 Y0.331 F400.000
G1 X15.132 Y0.316 F400.000
G1 X15.075 Y0.289 F400.000
G1 X14.977 Y0.207 F400.000
G1 X14.917 Y0.098 F400.000
G1 X14.898 Y-0.019 F400.000
G1 X14.902 Y-0.075 F400.000
G1 X14.940 Y-0.184 F400.000
G1 X15.008 Y-0.278 F400.000
G1 X15.102 Y-0.350 F400.000
G1 X15.211 Y-0.395 F400.000
G1 X15.323 Y-0.402 F400.000
G1 X15.436 Y-0.380 F400.000
G1 X15.538 Y-0.320 F400.000
G1 X15.620 Y-0.233 F400.000
G1 X15.673 Y-0.124 F400.000
G1 X15.695 Y-0.004 F400.000
G1 X15.688 Y0.109 F400.000
G1 X15.647 Y0.218 F400.000
G1 X15.534 Y0.357 F400.000
G1 X15.368 Y0.440 F400.000
G1 X15.248 Y0.459 F400.000
G1 X15.068 Y0.421 F400.000
G1 X14.962 Y0.357 F400.000
G1 X14.876 Y0.267 F400.000
G1 X14.823 Y0.154 F400.000
G1 X14.789 Y0.034 F400.000
G1 X14.820 Y-0.135 F400.000
G1 X14.838 Y-0.192 F400.000
G1 X14.898 Y-0.289 F400.000
G1 X14.936 Y-0.335 F400.000
G1 X15.079 Y-0.436 F400.000
G1 X15.248 Y-0.470 F400.000
G1 X15.417 Y-0.440 F400.000
G1 X15.470 Y-0.417 F400.000
G1 X15.571 Y-0.353 F400.000
G1 X15.707 Y-0.150 F400.000
G1 X15.729 Y-0.030 F400.000
G1 X15.729 Y0.026 F400.000
G1 X15.688 Y0.195 F400.000
G1 X15.586 Y0.338 F400.000
G1 X15.432 Y0.432 F400.000
G1 X15.376 Y0.451 F400.000
G1 X15.376 Y0.451 F400.000
G1 X15.357 Y0.451 F400.000
G1 X15.346 Y0.455 F400.000
G1 X15.301 Y0.466 F400.000
G1 X15.301 Y0.466 F400.000
G1 X15.241 Y0.466 F400.000
G1 X15.241 Y0.466 F400.000
G1 X15.222 Y0.455 F400.000
G0 X15.218 Y0.440
G0 X15.222 Y0.425
G1 X15.229 Y0.417 F400.000
G1 X15.244 Y0.432 F400.000
G1 X15.237 Y0.462 F400.000
G1 X15.207 Y0.485 F400.000
G1 X15.207 Y0.485 F400.000
G1 X15.034 Y0.440 F400.000
G1 X14.947 Y0.380 F400.000
G1 X14.891 Y0.323 F400.000
G1 X14.797 Y0.177 F400.000
G1 X14.767 Y-0.004 F400.000
G1 X14.797 Y-0.154 F400.000
G1 X14.876 Y-0.301 F400.000
G1 X14.944 Y-0.376 F400.000
G1 X15.056 Y-0.451 F400.000
G1 X15.259 Y-0.492 F400.000
G1 X15.342 Y-0.489 F400.000
G1 X15.470 Y-0.447 F400.000
G1 X15.545 Y-0.406 F400.000
G1 X15.620 Y-0.338 F400.000
G1 X15.677 Y-0.267 F400.000
G1 X15.737 Y-0.154 F400.000
G1 X15.756 Y-0.049 F400.000
G1 X15.756 Y-0.004 F400.000
G1 X15.726 Y0.173 F400.000
G1 X15.669 Y0.282 F400.000
G1 X15.602 Y0.357 F400.000
G1 X15.545 Y0.406 F400.000
G1 X15.470 Y0.451 F400.000
G1 X15.383 Y0.481 F400.000
G1 X15.293 Y0.492 F400.000
G1 X15.207 Y0.485 F400.000
G1 X15.207 Y0.485 F400.000
G0 Z5.000
(Helix to depth: -2.000000)
G0 Z5.000
G0 X-15.036 Y0.081 Z5.000
G0 X-15.036 Y0.081 Z3.000
G1 X-15.036 Y0.081 Z0.000 F300.000
G1 X-15.036 Y0.081 Z0.000 F300.000
G1 X-15.056 Y0.123 Z-0.004 F300.000
G1 X-15.084 Y0.161 Z-0.009 F300.000
G1 X-15.118 Y0.192 Z-0.013 F300.000
G1 X-15.158 Y0.216 Z-0.017 F300.000
G1 X-15.202 Y0.231 Z-0.021 F300.000
G1 X-15.249 Y0.238 Z-0.026 F300.000
G1 X-15.295 Y0.235 Z-0.030 F300.000
G1 X-15.340 Y0.224 Z-0.034 F300.000
G1 X-15.383 Y0.204 Z-0.038 F300.000
G1 X-15.420 Y0.176 Z-0.043 F300.000
G1 X-15.451 Y0.141 Z-0.047 F300.000
G1 X-15.475 Y0.101 Z-0.051 F300.000
G1 X-15.491 Y0.057 Z-0.055 F300.000
G1 X-15.497 Y0.011 Z-0.060 F300.000
G1 X-15.495 Y-0.036 Z-0.064 F300.000
G1 X-15.483 Y-0.081 Z-0.068 F300.000
G1 X-15.463 Y-0.123 Z-0.072 F300.000
G1 X-15.435 Y-0.161 Z-0.077 F300.000
G1 X-15.401 Y-0.192 Z-0.081 F300.000
G1 X-15.360 Y-0.216 Z-0.085 F300.000
G1 X-15.316 Y-0.231 Z-0.090 F300.000
G1 X-15.270 Y-0.238 Z-0.094 F300.000
G1 X-15.224 Y-0.235 Z-0.098 F300.000
G1 X-15.178 Y-0.224 Z-0.102 F300.000
G1 X-15.136 Y-0.204 Z-0.107 F300.000
G1 X-15.099 Y-0.176 Z-0.111 F300.000
G1 X-15.068 Y-0.141 Z-0.115 F300.000
G1 X-15.044 Y-0.101 Z-0.119 F300.000
G1 X-15.028 Y-0.057 Z-0.124 F300.000
G1 X-15.022 Y-0.011 Z-0.128 F300.000
G1 X-15.024 Y0.036 Z-0.132 F300.000
G1 X-15.036 Y0.081 Z-0.136 F300.000
G1 X-15.056 Y0.123 Z-0.141 F300.000
G1 X-15.084 Y0.161 Z-0.145 F300.000
G1 X-15.118 Y0.192 Z-0.149 F300.000
G1 X-15.158 Y0.216 Z-0.153 F300.000
G1 X-15.202 Y0.231 Z-0.158 F300.000
G1 X-15.249 Y0.238 Z-0.162 F300.000
G1 X-15.295 Y0.235 Z-0.166 F300.000
G1 X-15.340 Y0.224 Z-0.170 F300.000
G1 X-15.383 Y0.204 Z-0.175 F300.000
G1 X-15.420 Y0.176 Z-0.179 F300.000
G1 X-15.451 Y0.141 Z-0.183 F300.000
G1 X-15.475 Y0.101 Z-0.188 F300.000
G1 X-15.491 Y0.057 Z-0.192 F300.000
G1 X-15.497 Y0.011 Z-0.196 F300.000
G1 X-15.495 Y-0.036 Z-0.200 F300.000
G1 X-15.483 Y-0.081 Z-0.205 F300.000
G1 X-15.463 Y-0.123 Z-0.209 F300.000
G1 X-15.435 Y-0.161 Z-0.213 F300.000
G1 X-15.401 Y-0.192 Z-0.217 F300.000
G1 X-15.360 Y-0.216 Z-0.222 F300.000
G1 X-15.316 Y-0.231 Z-0.226 F300.000
G1 X-15.270 Y-0.238 Z-0.230 F300.000
G1 X-15.224 Y-0.235 Z-0.234 F300.000
G1 X-15.178 Y-0.224 Z-0.239 F300.000
G1 X-15.136 Y-0.204 Z-0.243 F300.000
G1 X-15.099 Y-0.176 Z-0.247 F300.000
G1 X-15.068 Y-0.141 Z-0.251 F300.000
G1 X-15.044 Y-0.101 Z-0.256 F300.000
G1 X-15.028 Y-0.057 Z-0.260 F300.000
G1 X-15.022 Y-0.011 Z-0.264 F300.000
G1 X-15.024 Y0.036 Z-0.269 F300.000
G1 X-15.036 Y0.081 Z-0.273 F300.000
G1 X-15.056 Y0.123 Z-0.277 F300.000
G1 X-15.084 Y0.161 Z-0.281 F300.000
G1 X-15.118 Y0.192 Z-0.286 F300.000
G1 X-15.158 Y0.216 Z-0.290 F300.000
G1 X-15.202 Y0.231 Z-0.294 F300.000
G1 X-15.249 Y0.238 Z-0.298 F300.000
G1 X-15.295 Y0.235 Z-0.303 F300.000
G1 X-15.340 Y0.224 Z-0.307 F300.000
G1 X-15.383 Y0.204 Z-0.311 F300.000
G1 X-15.420 Y0.176 Z-0.315 F300.000
G1 X-15.451 Y0.141 Z-0.320 F300.000
G1 X-15.475 Y0.101 Z-0.324 F300.000
G1 X-15.491 Y0.057 Z-0.328 F300.000
G1 X-15.497 Y0.011 Z-0.332 F300.000
G1 X-15.495 Y-0.036 Z-0.337 F300.000
G1 X-15.483 Y-0.081 Z-0.341 F300.000
G1 X-15.463 Y-0.123 Z-0.345 F300.000
G1 X-15.435 Y-0.161 Z-0.350 F300.000
G1 X-15.401 Y-0.192 Z-0.354 F300.000
G1 X-15.360 Y-0.216 Z-0.358 F300.000
G1 X-15.316 Y-0.231 Z-0.362 F300.000
G1 X-15.270 Y-0.238 Z-0.367 F300.000
G1 X-15.224 Y-0.235 Z-0.371 F300.000
G1 X-15.178 Y-0.224 Z-0.375 F300.000
G1 X-15.136 Y-0.204 Z-0.379 F300.000
G1 X-15.099 Y-0.176 Z-0.384 F300.000
G1 X-15.068 Y-0.141 Z-0.388 F300.000
G1 X-15.044 Y-0.101 Z-0.392 F300.000
G1 X-15.028 Y-0.057 Z-0.396 F300.000
G1 X-15.022 Y-0.011 Z-0.401 F300.000
G1 X-15.024 Y0.036 Z-0.405 F300.000
G1 X-15.036 Y0.081 Z-0.409 F300.000
G1 X-15.056 Y0.123 Z-0.413 F300.000
G1 X-15.084 Y0.161 Z-0.418 F300.000
G1 X-15.118 Y0.192 Z-0.422 F300.000
G1 X-15.158 Y0.216 Z-0.426 F300.000
G1 X-15.202 Y0.231 Z-0.430 F300.000
G1 X-15.249 Y0.238 Z-0.435 F300.000
G1 X-15.295 Y0.235 Z-0.439 F300.000
G1 X-15.340 Y0.224 Z-0.443 F300.000
G1 X-15.383 Y0.204 Z-0.448 F300.000
G1 X-15.420 Y0.176 Z-0.452 F300.000
G1 X-15.451 Y0.141 Z-0.456 F300.000
G1 X-15.475 Y0.101 Z-0.460 F300.000
G1 X-15.491 Y0.057 Z-0.465 F300.000
G1 X-15.497 Y0.011 Z-0.469 F300.000
G1 X-15.495 Y-0.036 Z-0.473 F300.000
G1 X-15.483 Y-0.081 Z-0.477 F300.000
G1 X-15.463 Y-0.123 Z-0.482 F300.000
G1 X-15.435 Y-0.161 Z-0.486 F300.000
G1 X-15.401 Y-0.192 Z-0.490 F300.000
G1 X-15.360 Y-0.216 Z-0.494 F300.000
G1 X-15.316 Y-0.231 Z-0.499 F300.000
G1 X-15.270 Y-0.238 Z-0.503 F300.000
G1 X-15.224 Y-0.235 Z-0.507 F300.000
G1 X-15.178 Y-0.224 Z-0.511 F300.000
G1 X-15.136 Y-0.204 Z-0.516 F300.000
G1 X-15.099 Y-0.176 Z-0.520 F300.000
G1 X-15.068 Y-0.141 Z-0.524 F300.000
G1 X-15.044 Y-0.101 Z-0.529 F300.000
G1 X-15.028 Y-0.057 Z-0.533 F300.000
G1 X-15.022 Y-0.011 Z-0.537 F300.000
G1 X-15.024 Y0.036 Z-0.541 F300.000
G1 X-15.036 Y0.081 Z-0.546 F300.000
G1 X-15.056 Y0.123 Z-0.550 F300.000
G1 X-15.084 Y0.161 Z-0.554 F300.000
G1 X-15.118 Y0.192 Z-0.558 F300.000
G1 X-15.158 Y0.216 Z-0.563 F300.000
G1 X-15.202 Y0.231 Z-0.567 F300.000
G1 X-15.249 Y0.238 Z-0.571 F300.000
G1 X-15.295 Y0.235 Z-0.575 F300.000
G1 X-15.340 Y0.224 Z-0.580 F300.000
G1 X-15.383 Y0.204 Z-0.584 F300.000
G1 X-15.420 Y0.176 Z-0.588 F300.000
G1 X-15.451 Y0.141 Z-0.592 F300.000
G1 X-15.475 Y0.101 Z-0.597 F300.000
G1 X-15.491 Y0.057 Z-0.601 F300.000
G1 X-15.497 Y0.011 Z-0.605 F300.000
G1 X-15.495 Y-0.036 Z-0.610 F300.000
G1 X-15.483 Y-0.081 Z-0.614 F300.000
G1 X-15.463 Y-0.123 Z-0.618 F300.000
G1 X-15.435 Y-0.161 Z-0.622 F300.000
G1 X-15.401 Y-0.192 Z-0.627 F300.000
G1 X-15.360 Y-0.216 Z-0.631 F300.000
G1 X-15.316 Y-0.231 Z-0.635 F300.000
G1 X-15.270 Y-0.238 Z-0.639 F300.000
G1 X-15.224 Y-0.235 Z-0.644 F300.000
G1 X-15.178 Y-0.224 Z-0.648 F300.000
G1 X-15.136 Y-0.204 Z-0.652 F300.000
G1 X-15.099 Y-0.176 Z-0.656 F300.000
G1 X-15.068 Y-0.141 Z-0.661 F300.000
G1 X-15.044 Y-0.101 Z-0.665 F300.000
G1 X-15.028 Y-0.057 Z-0.669 F300.000
G1 X-15.022 Y-0.011 Z-0.673 F300.000
G1 X-15.024 Y0.036 Z-0.678 F300.000
G1 X-15.036 Y0.081 Z-0.682 F300.000
G1 X-15.056 Y0.123 Z-0.686 F300.000
G1 X-15.084 Y0.161 Z-0.690 F300.000
G1 X-15.118 Y0.192 Z-0.695 F300.000
G1 X-15.158 Y0.216 Z-0.699 F300.000
G1 X-15.202 Y0.231 Z-0.703 F300.000
G1 X-15.249 Y0.238 Z-0.708 F300.000
G1 X-15.295 Y0.235 Z-0.712 F300.000
G1 X-15.340 Y0.224 Z-0.716 F300.000
G1 X-15.383 Y0.204 Z-0.720 F300.000
G1 X-15.420 Y0.176 Z-0.725 F300.000
G1 X-15.451 Y0.141 Z-0.729 F300.000
G1 X-15.475 Y0.101 Z-0.733 F300.000
G1 X-15.491 Y0.057 Z-0.737 F300.000
G1 X-15.497 Y0.011 Z-0.742 F300.000
G1 X-15.495 Y-0.036 Z-0.746 F300.000
G1 X-15.483 Y-0.081 Z-0.750 F300.000
G1 X-15.463 Y-0.123 Z-0.754 F300.000
G1 X-15.435 Y-0.161 Z-0.759 F300.000
G1 X-15.401 Y-0.192 Z-0.763 F300.000
G1 X-15.360 Y-0.216 Z-0.767 F300.000
G1 X-15.316 Y-0.231 Z-0.771 F300.000
G1 X-15.270 Y-0.238 Z-0.776 F300.000
G1 X-15.224 Y-0.235 Z-0.780 F300.000
G1 X-15.178 Y-0.224 Z-0.784 F300.000
G1 X-15.136 Y-0.204 Z-0.789 F300.000
G1 X-15.099 Y-0.176 Z-0.793 F300.000
G1 X-15.068 Y-0.141 Z-0.797 F300.000
G1 X-15.044 Y-0.101 Z-0.801 F300.000
G1 X-15.028 Y-0.057 Z-0.806 F300.000
G1 X-15.022 Y-0.011 Z-0.810 F300.000
G1 X-15.024 Y0.036 Z-0.814 F300.000
G1 X-15.036 Y0.081 Z-0.818 F300.000
G1 X-15.056 Y0.123 Z-0.823 F300.000
G1 X-15.084 Y0.161 Z-0.827 F300.000
G1 X-15.118 Y0.192 Z-0.831 F300.000
G1 X-15.158 Y0.216 Z-0.835 F300.000
G1 X-15.202 Y0.231 Z-0.840 F300.000
G1 X-15.249 Y0.238 Z-0.844 F300.000
G1 X-15.295 Y0.235 Z-0.848 F300.000
G1 X-15.340 Y0.224 Z-0.852 F300.000
G1 X-15.383 Y0.204 Z-0.857 F300.000
G1 X-15.420 Y0.176 Z-0.861 F300.000
G1 X-15.451 Y0.141 Z-0.865 F300.000
G1 X-15.475 Y0.101 Z-0.870 F300.000
G1 X-15.491 Y0.057 Z-0.874 F300.000
G1 X-15.497 Y0.011 Z-0.878 F300.000
G1 X-15.495 Y-0.036 Z-0.882 F300.000
G1 X-15.483 Y-0.081 Z-0.887 F300.000
G1 X-15.463 Y-0.123 Z-0.891 F300.000
G1 X-15.435 Y-0.161 Z-0.895 F300.000
G1 X-15.401 Y-0.192 Z-0.899 F300.000
G1 X-15.360 Y-0.216 Z-0.904 F300.000
G1 X-15.316 Y-0.231 Z-0.908 F300.000
G1 X-15.270 Y-0.238 Z-0.912 F300.000
G1 X-15.224 Y-0.235 Z-0.916 F300.000
G1 X-15.178 Y-0.224 Z-0.921 F300.000
G1 X-15.136 Y-0.204 Z-0.925 F300.000
G1 X-15.099 Y-0.176 Z-0.929 F300.000
G1 X-15.068 Y-0.141 Z-0.933 F300.000
G1 X-15.044 Y-0.101 Z-0.938 F300.000
G1 X-15.028 Y-0.057 Z-0.942 F300.000
G1 X-15.022 Y-0.011 Z-0.946 F300.000
G1 X-15.024 Y0.036 Z-0.950 F300.000
G1 X-15.036 Y0.081 Z-0.955 F300.000
G1 X-15.056 Y0.123 Z-0.959 F300.000
G1 X-15.084 Y0.161 Z-0.963 F300.000
G1 X-15.118 Y0.192 Z-0.968 F300.000
G1 X-15.158 Y0.216 Z-0.972 F300.000
G1 X-15.202 Y0.231 Z-0.976 F300.000
G1 X-15.249 Y0.238 Z-0.980 F300.000
G1 X-15.295 Y0.235 Z-0.985 F300.000
G1 X-15.340 Y0.224 Z-0.989 F300.000
G1 X-15.383 Y0.204 Z-0.993 F300.000
G1 X-15.420 Y0.176 Z-0.997 F300.000
G1 X-15.451 Y0.141 Z-1.002 F300.000
G1 X-15.475 Y0.101 Z-1.006 F300.000
G1 X-15.491 Y0.057 Z-1.010 F300.000
G1 X-15.497 Y0.011 Z-1.014 F300.000
G1 X-15.495 Y-0.036 Z-1.019 F300.000
G1 X-15.483 Y-0.081 Z-1.023 F300.000
G1 X-15.463 Y-0.123 Z-1.027 F300.000
G1 X-15.435 Y-0.161 Z-1.031 F300.000
G1 X-15.401 Y-0.192 Z-1.036 F300.000
G1 X-15.360 Y-0.216 Z-1.040 F300.000
G1 X-15.316 Y-0.231 Z-1.044 F300.000
G1 X-15.270 Y-0.238 Z-1.049 F300.000
G1 X-15.224 Y-0.235 Z-1.053 F300.000
G1 X-15.178 Y-0.224 Z-1.057 F300.000
G1 X-15.136 Y-0.204 Z-1.061 F300.000
G1 X-15.099 Y-0.176 Z-1.066 F300.000
G1 X-15.068 Y-0.141 Z-1.070 F300.000
G1 X-15.044 Y-0.101 Z-1.074 F300.000
G1 X-15.028 Y-0.057 Z-1.078 F300.000
G1 X-15.022 Y-0.011 Z-1.083 F300.000
G1 X-15.024 Y0.036 Z-1.087 F300.000
G1 X-15.036 Y0.081 Z-1.091 F300.000
G1 X-15.056 Y0.123 Z-1.095 F300.000
G1 X-15.084 Y0.161 Z-1.100 F300.000
G1 X-15.118 Y0.192 Z-1.104 F300.000
G1 X-15.158 Y0.216 Z-1.108 F300.000
G1 X-15.202 Y0.231 Z-1.112 F300.000
G1 X-15.249 Y0.238 Z-1.117 F300.000
G1 X-15.295 Y0.235 Z-1.121 F300.000
G1 X-15.340 Y0.224 Z-1.125 F300.000
G1 X-15.383 Y0.204 Z-1.130 F300.000
G1 X-15.420 Y0.176 Z-1.134 F300.000
G1 X-15.451 Y0.141 Z-1.138 F300.000
G1 X-15.475 Y0.101 Z-1.142 F300.000
G1 X-15.491 Y0.057 Z-1.147 F300.000
G1 X-15.497 Y0.011 Z-1.151 F300.000
G1 X-15.495 Y-0.036 Z-1.155 F300.000
G1 X-15.483 Y-0.081 Z-1.159 F300.000
G1 X-15.463 Y-0.123 Z-1.164 F300.000
G1 X-15.435 Y-0.161 Z-1.168 F300.000
G1 X-15.401 Y-0.192 Z-1.172 F300.000
G1 X-15.360 Y-0.216 Z-1.176 F300.000
G1 X-15.316 Y-0.231 Z-1.181 F300.000
G1 X-15.270 Y-0.238 Z-1.185 F300.000
G1 X-15.224 Y-0.235 Z-1.189 F300.000
G1 X-15.178 Y-0.224 Z-1.193 F300.000
G1 X-15.136 Y-0.204 Z-1.198 F300.000
G1 X-15.099 Y-0.176 Z-1.202 F300.000
G1 X-15.068 Y-0.141 Z-1.206 F300.000
G1 X-15.044 Y-0.101 Z-1.210 F300.000
G1 X-15.028 Y-0.057 Z-1.215 F300.000
G1 X-15.022 Y-0.011 Z-1.219 F300.000
G1 X-15.024 Y0.036 Z-1.223 F300.000
G1 X-15.036 Y0.081 Z-1.228 F300.000
G1 X-15.056 Y0.123 Z-1.232 F300.000
G1 X-15.084 Y0.161 Z-1.236 F300.000
G1 X-15.118 Y0.192 Z-1.240 F300.000
G1 X-15.158 Y0.216 Z-1.245 F300.000
G1 X-15.202 Y0.231 Z-1.249 F300.000
G1 X-15.249 Y0.238 Z-1.253 F300.000
G1 X-15.295 Y0.235 Z-1.257 F300.000
G1 X-15.340 Y0.224 Z-1.262 F300.000
G1 X-15.383 Y0.204 Z-1.266 F300.000
G1 X-15.420 Y0.176 Z-1.270 F300.000
G1 X-15.451 Y0.141 Z-1.274 F300.000
G1 X-15.475 Y0.101 Z-1.279 F300.000
G1 X-15.491 Y0.057 Z-1.283 F300.000
G1 X-15.497 Y0.011 Z-1.287 F300.000
G1 X-15.495 Y-0.036 Z-1.291 F300.000
G1 X-15.483 Y-0.081 Z-1.296 F300.000
G1 X-15.463 Y-0.123 Z-1.300 F300.000
G1 X-15.435 Y-0.161 Z-1.304 F300.000
G1 X-15.401 Y-0.192 Z-1.309 F300.000
G1 X-15.360 Y-0.216 Z-1.313 F300.000
G1 X-15.316 Y-0.231 Z-1.317 F300.000
G1 X-15.270 Y-0.238 Z-1.321 F300.000
G1 X-15.224 Y-0.235 Z-1.326 F300.000
G1 X-15.178 Y-0.224 Z-1.330 F300.000
G1 X-15.136 Y-0.204 Z-1.334 F300.000
G1 X-15.099 Y-0.176 Z-1.338 F300.000
G1 X-15.068 Y-0.141 Z-1.343 F300.000
G1 X-15.044 Y-0.101 Z-1.347 F300.000
G1 X-15.028 Y-0.057 Z-1.351 F300.000
G1 X-15.022 Y-0.011 Z-1.355 F300.000
G1 X-15.024 Y0.036 Z-1.360 F300.000
G1 X-15.036 Y0.081 Z-1.364 F300.000
G1 X-15.056 Y0.123 Z-1.368 F300.000
G1 X-15.084 Y0.161 Z-1.372 F300.000
G1 X-15.118 Y0.192 Z-1.377 F300.000
G1 X-15.158 Y0.216 Z-1.381 F300.000
G1 X-15.202 Y0.231 Z-1.385 F300.000
G1 X-15.249 Y0.238 Z-1.390 F300.000
G1 X-15.295 Y0.235 Z-1.394 F300.000
G1 X-15.340 Y0.224 Z-1.398 F300.000
G1 X-15.383 Y0.204 Z-1.402 F300.000
G1 X-15.420 Y0.176 Z-1.407 F300.000
G1 X-15.451 Y0.141 Z-1.411 F300.000
G1 X-15.475 Y0.101 Z-1.415 F300.000
G1 X-15.491 Y0.057 Z-1.419 F300.000
G1 X-15.497 Y0.011 Z-1.424 F300.000
G1 X-15.495 Y-0.036 Z-1.428 F300.000
G1 X-15.483 Y-0.081 Z-1.432 F300.000
G1 X-15.463 Y-0.123 Z-1.436 F300.000
G1 X-15.435 Y-0.161 Z-1.441 F300.000
G1 X-15.401 Y-0.192 Z-1.445 F300.000
G1 X-15.360 Y-0.216 Z-1.449 F300.000
G1 X-15.316 Y-0.231 Z-1.453 F300.000
G1 X-15.270 Y-0.238 Z-1.458 F300.000
G1 X-15.224 Y-0.235 Z-1.462 F300.000
G1 X-15.178 Y-0.224 Z-1.466 F300.000
G1 X-15.136 Y-0.204 Z-1.470 F300.000
G1 X-15.099 Y-0.176 Z-1.475 F300.000
G1 X-15.068 Y-0.141 Z-1.479 F300.000
G1 X-15.044 Y-0.101 Z-1.483 F300.000
G1 X-15.028 Y-0.057 Z-1.488 F300.000
G1 X-15.022 Y-0.011 Z-1.492 F300.000
G1 X-15.024 Y0.036 Z-1.496 F300.000
G1 X-15.036 Y0.081 Z-1.500 F300.000
G1 X-15.056 Y0.123 Z-1.505 F300.000
G1 X-15.084 Y0.161 Z-1.509 F300.000
G1 X-15.118 Y0.192 Z-1.513 F300.000
G1 X-15.158 Y0.216 Z-1.517 F300.000
G1 X-15.202 Y0.231 Z-1.522 F300.000
G1 X-15.249 Y0.238 Z-1.526 F300.000
G1 X-15.295 Y0.235 Z-1.530 F300.000
G1 X-15.340 Y0.224 Z-1.534 F300.000
G1 X-15.383 Y0.204 Z-1.539 F300.000
G1 X-15.420 Y0.176 Z-1.543 F300.000
G1 X-15.451 Y0.141 Z-1.547 F300.000
G1 X-15.475 Y0.101 Z-1.551 F300.000
G1 X-15.491 Y0.057 Z-1.556 F300.000
G1 X-15.497 Y0.011 Z-1.560 F300.000
G1 X-15.495 Y-0.036 Z-1.564 F300.000
G1 X-15.483 Y-0.081 Z-1.569 F300.000
G1 X-15.463 Y-0.123 Z-1.573 F300.000
G1 X-15.435 Y-0.161 Z-1.577 F300.000
G1 X-15.401 Y-0.192 Z-1.581 F300.000
G1 X-15.360 Y-0.216 Z-1.586 F300.000
G1 X-15.316 Y-0.231 Z-1.590 F300.000
G1 X-15.270 Y-0.238 Z-1.594 F300.000
G1 X-15.224 Y-0.235 Z-1.598 F300.000
G1 X-15.178 Y-0.224 Z-1.603 F300.000
G1 X-15.136 Y-0.204 Z-1.607 F300.000
G1 X-15.099 Y-0.176 Z-1.611 F300.000
G1 X-15.068 Y-0.141 Z-1.615 F300.000
G1 X-15.044 Y-0.101 Z-1.620 F300.000
G1 X-15.028 Y-0.057 Z-1.624 F300.000
G1 X-15.022 Y-0.011 Z-1.628 F300.000
G1 X-15.024 Y0.036 Z-1.632 F300.000
G1 X-15.036 Y0.081 Z-1.637 F300.000
G1 X-15.056 Y0.123 Z-1.641 F300.000
G1 X-15.084 Y0.161 Z-1.645 F300.000
G1 X-15.118 Y0.192 Z-1.650 F300.000
G1 X-15.158 Y0.216 Z-1.654 F300.000
G1 X-15.202 Y0.231 Z-1.658 F300.000
G1 X-15.249 Y0.238 Z-1.662 F300.000
G1 X-15.295 Y0.235 Z-1.667 F300.000
G1 X-15.340 Y0.224 Z-1.671 F300.000
G1 X-15.383 Y0.204 Z-1.675 F300.000
G1 X-15.420 Y0.176 Z-1.679 F300.000
G1 X-15.451 Y0.141 Z-1.684 F300.000
G1 X-15.475 Y0.101 Z-1.688 F300.000
G1 X-15.491 Y0.057 Z-1.692 F300.000
G1 X-15.497 Y0.011 Z-1.696 F300.000
G1 X-15.495 Y-0.036 Z-1.701 F300.000
G1 X-15.483 Y-0.081 Z-1.705 F300.000
G1 X-15.463 Y-0.123 Z-1.709 F300.000
G1 X-15.435 Y-0.161 Z-1.713 F300.000
G1 X-15.401 Y-0.192 Z-1.718 F300.000
G1 X-15.360 Y-0.216 Z-1.722 F300.000
G1 X-15.316 Y-0.231 Z-1.726 F300.000
G1 X-15.270 Y-0.238 Z-1.730 F300.000
G1 X-15.224 Y-0.235 Z-1.735 F300.000
G1 X-15.178 Y-0.224 Z-1.739 F300.000
G1 X-15.136 Y-0.204 Z-1.743 F300.000
G1 X-15.099 Y-0.176 Z-1.748 F300.000
G1 X-15.068 Y-0.141 Z-1.752 F300.000
G1 X-15.044 Y-0.101 Z-1.756 F300.000
G1 X-15.028 Y-0.057 Z-1.760 F300.000
G1 X-15.022 Y-0.011 Z-1.765 F300.000
G1 X-15.024 Y0.036 Z-1.769 F300.000
G1 X-15.036 Y0.081 Z-1.773 F300.000
G1 X-15.056 Y0.123 Z-1.777 F300.000
G1 X-15.084 Y0.161 Z-1.782 F300.000
G1 X-15.118 Y0.192 Z-1.786 F300.000
G1 X-15.158 Y0.216 Z-1.790 F300.000
G1 X-15.202 Y0.231 Z-1.794 F300.000
G1 X-15.249 Y0.238 Z-1.799 F300.000
G1 X-15.295 Y0.235 Z-1.803 F300.000
G1 X-15.340 Y0.224 Z-1.807 F300.000
G1 X-15.383 Y0.204 Z-1.811 F300.000
G1 X-15.420 Y0.176 Z-1.816 F300.000
G1 X-15.451 Y0.141 Z-1.820 F300.000
G1 X-15.475 Y0.101 Z-1.824 F300.000
G1 X-15.491 Y0.057 Z-1.829 F300.000
G1 X-15.497 Y0.011 Z-1.833 F300.000
G1 X-15.495 Y-0.036 Z-1.837 F300.000
G1 X-15.483 Y-0.081 Z-1.841 F300.000
G1 X-15.463 Y-0.123 Z-1.846 F300.000
G1 X-15.435 Y-0.161 Z-1.850 F300.000
G1 X-15.401 Y-0.192 Z-1.854 F300.000
G1 X-15.360 Y-0.216 Z-1.858 F300.000
G1 X-15.316 Y-0.231 Z-1.863 F300.000
G1 X-15.270 Y-0.238 Z-1.867 F300.000
G1 X-15.224 Y-0.235 Z-1.871 F300.000
G1 X-15.178 Y-0.224 Z-1.875 F300.000
G1 X-15.136 Y-0.204 Z-1.880 F300.000
G1 X-15.099 Y-0.176 Z-1.884 F300.000
G1 X-15.068 Y-0.141 Z-1.888 F300.000
G1 X-15.044 Y-0.101 Z-1.892 F300.000
G1 X-15.028 Y-0.057 Z-1.897 F300.000
G1 X-15.022 Y-0.011 Z-1.901 F300.000
G1 X-15.024 Y0.036 Z-1.905 F300.000
G1 X-15.036 Y0.081 Z-1.910 F300.000
G1 X-15.056 Y0.123 Z-1.914 F300.000
G1 X-15.084 Y0.161 Z-1.918 F300.000
G1 X-15.118 Y0.192 Z-1.922 F300.000
G1 X-15.158 Y0.216 Z-1.927 F300.000
G1 X-15.202 Y0.231 Z-1.931 F300.000
G1 X-15.249 Y0.238 Z-1.935 F300.000
G1 X-15.295 Y0.235 Z-1.939 F300.000
G1 X-15.340 Y0.224 Z-1.944 F300.000
G1 X-15.383 Y0.204 Z-1.948 F300.000
G1 X-15.420 Y0.176 Z-1.952 F300.000
G1 X-15.451 Y0.141 Z-1.956 F300.000
G1 X-15.475 Y0.101 Z-1.961 F300.000
G1 X-15.491 Y0.057 Z-1.965 F300.000
G1 X-15.497 Y0.011 Z-1.969 F300.000
G1 X-15.495 Y-0.036 Z-1.973 F300.000
G1 X-15.483 Y-0.081 Z-1.978 F300.000
G1 X-15.463 Y-0.123 Z-1.982 F300.000
G1 X-15.435 Y-0.161 Z-1.986 F300.000
G1 X-15.401 Y-0.192 Z-1.990 F300.000
G1 X-15.360 Y-0.216 Z-1.995 F300.000
G1 X-15.316 Y-0.231 Z-1.999 F300.000
G1 X-15.270 Y-0.238 Z-2.000 F400.000
G1 X-15.224 Y-0.235 Z-2.000 F400.000
G1 X-15.178 Y-0.224 Z-2.000 F400.000
G1 X-15.136 Y-0.204 Z-2.000 F400.000
G1 X-15.099 Y-0.176 Z-2.000 F400.000
G1 X-15.068 Y-0.141 Z-2.000 F400.000
G1 X-15.044 Y-0.101 Z-2.000 F400.000
G1 X-15.028 Y-0.057 Z-2.000 F400.000
G1 X-15.022 Y-0.011 Z-2.000 F400.000
G1 X-15.024 Y0.036 Z-2.000 F400.000
G1 X-15.036 Y0.081 Z-2.000 F400.000
G1 X-15.056 Y0.123 Z-2.000 F400.000
G1 X-15.084 Y0.161 Z-2.000 F400.000
G1 X-15.118 Y0.192 Z-2.000 F400.000
G1 X-15.158 Y0.216 Z-2.000 F400.000
G1 X-15.202 Y0.231 Z-2.000 F400.000
G1 X-15.249 Y0.238 Z-2.000 F400.000
G1 X-15.295 Y0.235 Z-2.000 F400.000
G1 X-15.340 Y0.224 Z-2.000 F400.000
G1 X-15.383 Y0.204 Z-2.000 F400.000
G1 X-15.420 Y0.176 Z-2.000 F400.000
G1 X-15.451 Y0.141 Z-2.000 F400.000
G1 X-15.475 Y0.101 Z-2.000 F400.000
G1 X-15.491 Y0.057 Z-2.000 F400.000
G1 X-15.497 Y0.011 Z-2.000 F400.000
G1 X-15.495 Y-0.036 Z-2.000 F400.000
G1 X-15.483 Y-0.081 Z-2.000 F400.000
G1 X-15.463 Y-0.123 Z-2.000 F400.000
G1 X-15.435 Y-0.161 Z-2.000 F400.000
G1 X-15.401 Y-0.192 Z-2.000 F400.000
G1 X-15.360 Y-0.216 Z-2.000 F400.000
G1 X-15.316 Y-0.231 Z-2.000 F400.000
(Adaptive - depth: -2.000000)
G1 X-15.259 Y-0.248 F400.000
G1 X-15.203 Y-0.274 F400.000
G1 X-15.143 Y-0.274 F400.000
G1 X-15.083 Y-0.256 F400.000
G1 X-15.030 Y-0.226 F400.000
G1 X-14.985 Y-0.184 F400.000
G1 X-14.951 Y-0.132 F400.000
G1 X-14.929 Y-0.075 F400.000
G1 X-14.914 Y0.041 F400.000
G1 X-14.921 Y0.098 F400.000
G1 X-14.966 Y0.207 F400.000
G1 X-15.000 Y0.252 F400.000
G1 X-15.090 Y0.320 F400.000
G1 X-15.143 Y0.342 F400.000
G1 X-15.256 Y0.357 F400.000
G1 X-15.368 Y0.335 F400.000
G1 X-15.470 Y0.282 F400.000
G1 X-15.515 Y0.241 F400.000
G1 X-15.553 Y0.192 F400.000
G1 X-15.579 Y0.135 F400.000
G1 X-15.602 Y0.015 F400.000
G1 X-15.586 Y-0.098 F400.000
G1 X-15.564 Y-0.154 F400.000
G1 X-15.492 Y-0.248 F400.000
G1 X-15.395 Y-0.323 F400.000
G1 X-15.282 Y-0.368 F400.000
G1 X-15.222 Y-0.380 F400.000
G1 X-15.102 Y-0.372 F400.000
G1 X-14.985 Y-0.327 F400.000
G1 X-14.887 Y-0.244 F400.000
G1 X-14.820 Y-0.139 F400.000
G1 X-14.797 Y-0.019 F400.000
G1 X-14.797 Y0.038 F400.000
G1 X-14.820 Y0.150 F400.000
G1 X-14.868 Y0.256 F400.000
G1 X-14.944 Y0.342 F400.000
G1 X-15.086 Y0.436 F400.000
G1 X-15.256 Y0.466 F400.000
G1 X-15.312 Y0.462 F400.000
G1 X-15.481 Y0.410 F400.000
G1 X-15.624 Y0.297 F400.000
G1 X-15.688 Y0.195 F400.000
G1 X-15.711 Y0.139 F400.000
G1 X-15.726 Y0.019 F400.000
G1 X-15.714 Y-0.094 F400.000
G1 X-15.673 Y-0.203 F400.000
G1 X-15.609 Y-0.305 F400.000
G1 X-15.568 Y-0.350 F400.000
G1 X-15.466 Y-0.421 F400.000
G1 X-15.414 Y-0.447 F400.000
G1 X-15.293 Y-0.470 F400.000
G1 X-15.233 Y-0.470 F400.000
G1 X-15.053 Y-0.417 F400.000
G1 X-14.947 Y-0.342 F400.000
G1 X-14.865 Y-0.248 F400.000
G1 X-14.865 Y-0.248 F400.000
G1 X-14.831 Y-0.192 F400.000
G1 X-14.831 Y-0.192 F400.000
G1 X-14.835 Y-0.233 F400.000
G1 X-14.835 Y-0.233 F400.000
G1 X-14.805 Y-0.180 F400.000
G1 X-14.805 Y-0.180 F400.000
G1 X-14.793 Y-0.162 F400.000
G1 X-14.771 Y-0.008 F400.000
G1 X-14.793 Y0.162 F400.000
G1 X-14.846 Y0.263 F400.000
G1 X-14.929 Y0.365 F400.000
G1 X-15.086 Y0.462 F400.000
G1 X-15.173 Y0.485 F400.000
G1 X-15.305 Y0.489 F400.000
G1 X-15.395 Y0.470 F400.000
G1 X-15.519 Y0.425 F400.000
G1 X-15.613 Y0.353 F400.000
G1 X-15.677 Y0.282 F400.000
G1 X-15.714 Y0.203 F400.000
G1 X-15.756 Y0.034 F400.000
G1 X-15.756 Y-0.041 F400.000
G1 X-15.741 Y-0.124 F400.000
G1 X-15.699 Y-0.226 F400.000
G1 X-15.620 Y-0.338 F400.000
G1 X-15.504 Y-0.432 F400.000
G1 X-15.436 Y-0.466 F400.000
G1 X-15.316 Y-0.492 F400.000
G1 X-15.248 Y-0.496 F400.000
G1 X-15.086 Y-0.462 F400.000
G1 X-14.947 Y-0.376 F400.000
G1 X-14.872 Y-0.301 F400.000
G1 X-14.801 Y-0.184 F400.000
G1 X-14.805 Y-0.180 F400.000
G0 Z5.000
(Helix to depth: -2.000000)
G0 Z5.000
G0 X0.224 Y-15.178 Z5.000
G0 X0.224 Y-15.178 Z3.000
G1 X0.224 Y-15.178 Z0.000 F300.000
G1 X0.224 Y-15.178 Z0.000 F300.000
G1 X0.204 Y-15.136 Z-0.004 F300.000
G1 X0.176 Y-15.099 Z-0.009 F300.000
G1 X0.141 Y-15.068 Z-0.013 F300.000
G1 X0.101 Y-15.044 Z-0.017 F300.000
G1 X0.057 Y-15.028 Z-0.021 F300.000
G1 X0.011 Y-15.022 Z-0.026 F300.000
G1 X-0.036 Y-15.024 Z-0.030 F300.000
G1 X-0.081 Y-15.036 Z-0.034 F300.000
G1 X-0.123 Y-15.056 Z-0.038 F300.000
G1 X-0.161 Y-15.084 Z-0.043 F300.000
G1 X-0.192 Y-15.118 Z-0.047 F300.000
G1 X-0.216 Y-15.158 Z-0.051 F300.000
G1 X-0.231 Y-15.202 Z-0.055 F300.000
G1 X-0.238 Y-15.249 Z-0.060 F300.000
G1 X-0.235 Y-15.295 Z-0.064 F300.000
G1 X-0.224 Y-15.340 Z-0.068 F300.000
G1 X-0.204 Y-15.383 Z-0.072 F300.000
G1 X-0.176 Y-15.420 Z-0.077 F300.000
G1 X-0.141 Y-15.451 Z-0.081 F300.000
G1 X-0.101 Y-15.475 Z-0.085 F300.000
G1 X-0.057 Y-15.491 Z-0.090 F300.000
G1 X-0.011 Y-15.497 Z-0.094 F300.000
G1 X0.036 Y-15.495 Z-0.098 F300.000
G1 X0.081 Y-15.483 Z-0.102 F300.000
G1 X0.123 Y-15.463 Z-0.107 F300.000
G1 X0.161 Y-15.435 Z-0.111 F300.000
G1 X0.192 Y-15.401 Z-0.115 F300.000
G1 X0.216 Y-15.360 Z-0.119 F300.000
G1 X0.231 Y-15.316 Z-0.124 F300.000
G1 X0.238 Y-15.270 Z-0.128 F300.000
G1 X0.235 Y-15.224 Z-0.132 F300.000
G1 X0.224 Y-15.178 Z-0.136 F300.000
G1 X0.204 Y-15.136 Z-0.141 F300.000
G1 X0.176 Y-15.099 Z-0.145 F300.000
G1 X0.141 Y-15.068 Z-0.149 F300.000
G1 X0.101 Y-15.044 Z-0.153 F300.000
G1 X0.057 Y-15.028 Z-0.158 F300.000
G1 X0.011 Y-15.022 Z-0.162 F300.000
G1 X-0.036 Y-15.024 Z-0.166 F300.000
G1 X-0.081 Y-15.036 Z-0.170 F300.000
G1 X-0.123 Y-15.056 Z-0.175 F300.000
G1 X-0.161 Y-15.084 Z-0.179 F300.000
G1 X-0.192 Y-15.118 Z-0.183 F300.000
G1 X-0.216 Y-15.158 Z-0.188 F300.000
G1 X-0.231 Y-15.202 Z-0.192 F300.000
G1 X-0.238 Y-15.249 Z-0.196 F300.000
G1 X-0.235 Y-15.295 Z-0.200 F300.000
G1 X-0.224 Y-15.340 Z-0.205 F300.000
G1 X-0.204 Y-15.383 Z-0.209 F300.000
G1 X-0.176 Y-15.420 Z-0.213 F300.000
G1 X-0.141 Y-15.451 Z-0.217 F300.000
G1 X-0.101 Y-15.475 Z-0.222 F300.000
G1 X-0.057 Y-15.491 Z-0.226 F300.000
G1 X-0.011 Y-15.497 Z-0.230 F300.000
G1 X0.036 Y-15.495 Z-0.234 F300.000
G1 X0.081 Y-15.483 Z-0.239 F300.000
G1 X0.123 Y-15.463 Z-0.243 F300.000
G1 X0.161 Y-15.435 Z-0.247 F300.000
G1 X0.192 Y-15.401 Z-0.251 F300.000
G1 X0.216 Y-15.360 Z-0.256 F300.000
G1 X0.231 Y-15.316 Z-0.260 F300.000
G1 X0.238 Y-15.270 Z-0.264 F300.000
G1 X0.235 Y-15.224 Z-0.269 F300.000
G1 X0.224 Y-15.178 Z-0.273 F300.000
G1 X0.204 Y-15.136 Z-0.277 F300.000
G1 X0.176 Y-15.099 Z-0.281 F300.000
G1 X0.141 Y-15.068 Z-0.286 F300.000
G1 X0.101 Y-15.044 Z-0.290 F300.000
G1 X0.057 Y-15.028 Z-0.294 F300.000
G1 X0.011 Y-15.022 Z-0.298 F300.000
G1 X-0.036 Y-15.024 Z-0.303 F300.000
G1 X-0.081 Y-15.036 Z-0.307 F300.000
G1 X-0.123 Y-15.056 Z-0.311 F300.000
G1 X-0.161 Y-15.084 Z-0.315 F300.000
G1 X-0.192 Y-15.118 Z-0.320 F300.000
G1 X-0.216 Y-15.158 Z-0.324 F300.000
G1 X-0.231 Y-15.202 Z-0.328 F300.000
G1 X-0.238 Y-15.249 Z-0.332 F300.000
G1 X-0.235 Y-15.295 Z-0.337 F300.000
G1 X-0.224 Y-15.340 Z-0.341 F300.000
G1 X-0.204 Y-15.383 Z-0.345 F300.000
G1 X-0.176 Y-15.420 Z-0.350 F300.000
G1 X-0.141 Y-15.451 Z-0.354 F300.000
G1 X-0.101 Y-15.475 Z-0.358 F300.000
G1 X-0.057 Y-15.491 Z-0.362 F300.000
G1 X-0.011 Y-15.497 Z-0.367 F300.000
G1 X0.036 Y-15.495 Z-0.371 F300.000
G1 X0.081 Y-15.483 Z-0.375 F300.000
G1 X0.123 Y-15.463 Z-0.379 F300.000
G1 X0.161 Y-15.435 Z-0.384 F300.000
G1 X0.192 Y-15.401 Z-0.388 F300.000
G1 X0.216 Y-15.360 Z-0.392 F300.000
G1 X0.231 Y-15.316 Z-0.396 F300.000
G1 X0.238 Y-15.270 Z-0.401 F300.000
G1 X0.235 Y-15.224 Z-0.405 F300.000
G1 X0.224 Y-15.178 Z-0.409 F300.000
G1 X0.204 Y-15.136 Z-0.413 F300.000
G1 X0.176 Y-15.099 Z-0.418 F300.000
G1 X0.141 Y-15.068 Z-0.422 F300.000
G1 X0.101 Y-15.044 Z-0.426 F300.000
G1 X0.057 Y-15.028 Z-0.430 F300.000
G1 X0.011 Y-15.022 Z-0.435 F300.000
G1 X-0.036 Y-15.024 Z-0.439 F300.000
G1 X-0.081 Y-15.036 Z-0.443 F300.000
G1 X-0.123 Y-15.056 Z-0.448 F300.000
G1 X-0.161 Y-15.084 Z-0.452 F300.000
G1 X-0.192 Y-15.118 Z-0.456 F300.000
G1 X-0.216 Y-15.158 Z-0.460 F300.000
G1 X-0.231 Y-15.202 Z-0.465 F300.000
G1 X-0.238 Y-15.249 Z-0.469 F300.000
G1 X-0.235 Y-15.295 Z-0.473 F300.000
G1 X-0.224 Y-15.340 Z-0.477 F300.000
G1 X-0.204 Y-15.383 Z-0.482 F300.000
G1 X-0.176 Y-15.420 Z-0.486 F300.000
G1 X-0.141 Y-15.451 Z-0.490 F300.000
G1 X-0.101 Y-15.475 Z-0.494 F300.000
G1 X-0.057 Y-15.491 Z-0.499 F300.000
G1 X-0.011 Y-15.497 Z-0.503 F300.000
G1 X0.036 Y-15.495 Z-0.507 F300.000
G1 X0.081 Y-15.483 Z-0.511 F300.000
G1 X0.123 Y-15.463 Z-0.516 F300.000
G1 X0.161 Y-15.435 Z-0.520 F300.000
G1 X0.192 Y-15.401 Z-0.524 F300.000
G1 X0.216 Y-15.360 Z-0.529 F300.000
G1 X0.231 Y-15.316 Z-0.533 F300.000
G1 X0.238 Y-15.270 Z-0.537 F300.000
G1 X0.235 Y-15.224 Z-0.541 F300.000
G1 X0.224 Y-15.178 Z-0.546 F300.000
G1 X0.204 Y-15.136 Z-0.550 F300.000
G1 X0.176 Y-15.099 Z-0.554 F300.000
G1 X0.141 Y-15.068 Z-0.558 F300.000
G1 X0.101 Y-15.044 Z-0.563 F300.000
G1 X0.057 Y-15.028 Z-0.567 F300.000
G1 X0.011 Y-15.022 Z-0.571 F300.000
G1 X-0.036 Y-15.024 Z-0.575 F300.000
G1 X-0.081 Y-15.036 Z-0.580 F300.000
G1 X-0.123 Y-15.056 Z-0.584 F300.000
G1 X-0.161 Y-15.084 Z-0.588 F300.000
G1 X-0.192 Y-15.118 Z-0.592 F300.000
G1 X-0.216 Y-15.158 Z-0.597 F300.000
G1 X-0.231 Y-15.202 Z-0.601 F300.000
G1 X-0.238 Y-15.249 Z-0.605 F300.000
G1 X-0.235 Y-15.295 Z-0.610 F300.000
G1 X-0.224 Y-15.340 Z-0.614 F300.000
G1 X-0.204 Y-15.383 Z-0.618 F300.000
G1 X-0.176 Y-15.420 Z-0.622 F300.000
G1 X-0.141 Y-15.451 Z-0.627 F300.000
G1 X-0.101 Y-15.475 Z-0.631 F300.000
G1 X-0.057 Y-15.491 Z-0.635 F300.000
G1 X-0.011 Y-15.497 Z-0.639 F300.000
G1 X0.036 Y-15.495 Z-0.644 F300.000
G1 X0.081 Y-15.483 Z-0.648 F300.000
G1 X0.123 Y-15.463 Z-0.652 F300.000
G1 X0.161 Y-15.435 Z-0.656 F300.000
G1 X0.192 Y-15.401 Z-0.661 F300.000
G1 X0.216 Y-15.360 Z-0.665 F300.000
G1 X0.231 Y-15.316 Z-0.669 F300.000
G1 X0.238 Y-15.270 Z-0.673 F300.000
G1 X0.235 Y-15.224 Z-0.678 F300.000
G1 X0.224 Y-15.178 Z-0.682 F300.000
G1 X0.204 Y-15.136 Z-0.686 F300.000
G1 X0.176 Y-15.099 Z-0.690 F300.000
G1 X0.141 Y-15.068 Z-0.695 F300.000
G1 X0.101 Y-15.044 Z-0.699 F300.000
G1 X0.057 Y-15.028 Z-0.703 F300.000
G1 X0.011 Y-15.022 Z-0.708 F300.000
G1 X-0.036 Y-15.024 Z-0.712 F300.000
G1 X-0.081 Y-15.036 Z-0.716 F300.000
G1 X-0.123 Y-15.056 Z-0.720 F300.000
G1 X-0.161 Y-15.084 Z-0.725 F300.000
G1 X-0.192 Y-15.118 Z-0.729 F300.000
G1 X-0.216 Y-15.158 Z-0.733 F300.000
G1 X-0.231 Y-15.202 Z-0.737 F300.000
G1 X-0.238 Y-15.249 Z-0.742 F300.000
G1 X-0.235 Y-15.295 Z-0.746 F300.000
G1 X-0.224 Y-15.340 Z-0.750 F300.000
G1 X-0.204 Y-15.383 Z-0.754 F300.000
G1 X-0.176 Y-15.420 Z-0.759 F300.000
G1 X-0.141 Y-15.451 Z-0.763 F300.000
G1 X-0.101 Y-15.475 Z-0.767 F300.000
G1 X-0.057 Y-15.491 Z-0.771 F300.000
G1 X-0.011 Y-15.497 Z-0.776 F300.000
G1 X0.036 Y-15.495 Z-0.780 F300.000
G1 X0.081 Y-15.483 Z-0.784 F300.000
G1 X0.123 Y-15.463 Z-0.789 F300.000
G1 X0.161 Y-15.435 Z-0.793 F300.000
G1 X0.192 Y-15.401 Z-0.797 F300.000
G1 X0.216 Y-15.360 Z-0.801 F300.000
G1 X0.231 Y-15.316 Z-0.806 F300.000
G1 X0.238 Y-15.270 Z-0.810 F300.000
G1 X0.235 Y-15.224 Z-0.814 F300.000
