(Exported by FreeCAD)
(Post Processor: grbl_post)
(Output Time:2023-12-07 22:14:14.380420)
(Begin preamble)
G17 G90
G21
(Block-name: Fixture)
(Block-expand: 0)
(Block-enable: 1)
(Begin operation: Fixture)
(Path: Fixture)
G54
(Finish operation: Fixture)
(Block-name: 1,5mm Endmill003)
(Block-expand: 0)
(Block-enable: 1)
(Begin operation: 1,5mm Endmill003)
(Path: 1,5mm Endmill003)
(1,5mm Endmill003)
(Begin toolchange)
( M6 T3 )
M3 S10000
(Finish operation: 1,5mm Endmill003)
(Block-name: Profile001_1.5)
(Block-expand: 0)
(Block-enable: 1)
(Begin operation: Profile001_1.5)
(Path: Profile001_1.5)
(Profile001_1.5)
(Compensated Tool Path. Diameter: 1.5)
G0 Z5.000
G0 X16.792 Y16.792
G0 Z3.000
G1 X16.792 Y16.792 Z-0.500 F200.000
G2 X17.834 Y14.787 Z-0.500 I-2.650 J-2.650 K0.000 F400.000
G2 X10.450 Y13.498 Z-0.500 I-3.692 J-0.644 K0.000 F400.000
G2 X16.792 Y16.792 Z-0.500 I3.692 J0.644 K0.000 F400.000
G0 Z5.000
G0 X-10.408 Y14.462 Z5.000
G0 X-10.408 Y14.462 Z3.000
G1 X-10.408 Y14.462 Z-0.500 F200.000
G2 X-17.834 Y13.498 Z-0.500 I-3.734 J-0.320 K0.000 F400.000
G2 X-10.450 Y14.787 Z-0.500 I3.692 J0.644 K0.000 F400.000
G2 X-10.408 Y14.462 Z-0.500 I-3.692 J-0.644 K0.000 F400.000
G0 Z5.000
G0 X-13.657 Y-10.426 Z5.000
G0 X-13.657 Y-10.426 Z3.000
G1 X-13.657 Y-10.426 Z-0.500 F200.000
G2 X-10.450 Y-13.498 Z-0.500 I-0.485 J-3.717 K0.000 F400.000
G2 X-13.498 Y-17.834 Z-0.500 I-3.692 J-0.644 K0.000 F400.000
G2 X-17.834 Y-14.787 Z-0.500 I-0.644 J3.692 K0.000 F400.000
G2 X-13.657 Y-10.426 Z-0.500 I3.692 J0.644 K0.000 F400.000
G0 Z5.000
G0 X10.427 Y-13.645 Z5.000
G0 X10.427 Y-13.645 Z3.000
G1 X10.427 Y-13.645 Z-0.500 F200.000
G2 X17.834 Y-13.498 Z-0.500 I3.715 J-0.497 K0.000 F400.000
G2 X10.450 Y-14.787 Z-0.500 I-3.692 J-0.644 K0.000 F400.000
G2 X10.427 Y-13.645 Z-0.500 I3.692 J0.644 K0.000 F400.000
G1 X10.427 Y-13.645 Z-1.000 F200.000
G2 X17.834 Y-13.498 Z-1.000 I3.715 J-0.497 K0.000 F400.000
G2 X10.450 Y-14.787 Z-1.000 I-3.692 J-0.644 K0.000 F400.000
G2 X10.427 Y-13.645 Z-1.000 I3.692 J0.644 K0.000 F400.000
G0 Z5.000
G0 X-10.395 Y-14.066 Z5.000
G0 X-10.395 Y-14.066 Z3.000
G1 X-10.395 Y-14.066 Z-1.000 F200.000
G2 X-17.834 Y-14.787 Z-1.000 I-3.747 J-0.076 K0.000 F400.000
G2 X-10.450 Y-13.498 Z-1.000 I3.692 J0.644 K0.000 F400.000
G2 X-10.395 Y-14.066 Z-1.000 I-3.692 J-0.644 K0.000 F400.000
G0 Z5.000
G0 X-13.649 Y10.427 Z5.000
G0 X-13.649 Y10.427 Z3.000
G1 X-13.649 Y10.427 Z-1.000 F200.000
G2 X-17.834 Y13.498 Z-1.000 I-0.494 J3.716 K0.000 F400.000
G2 X-10.450 Y14.787 Z-1.000 I3.692 J0.644 K0.000 F400.000
G2 X-13.649 Y10.427 Z-1.000 I-3.692 J-0.644 K0.000 F400.000
G0 Z5.000
G0 X10.427 Y13.645 Z5.000
G0 X10.427 Y13.645 Z3.000
G1 X10.427 Y13.645 Z-1.000 F200.000
G2 X17.834 Y14.787 Z-1.000 I3.715 J0.497 K0.000 F400.000
G2 X10.450 Y13.498 Z-1.000 I-3.692 J-0.644 K0.000 F400.000
G2 X10.427 Y13.645 Z-1.000 I3.692 J0.644 K0.000 F400.000
G1 X10.427 Y13.645 Z-1.500 F200.000
G2 X17.834 Y14.787 Z-1.500 I3.715 J0.497 K0.000 F400.000
G2 X10.450 Y13.498 Z-1.500 I-3.692 J-0.644 K0.000 F400.000
G2 X10.427 Y13.645 Z-1.500 I3.692 J0.644 K0.000 F400.000
G0 Z5.000
G0 X-10.395 Y14.066 Z5.000
G0 X-10.395 Y14.066 Z3.000
G1 X-10.395 Y14.066 Z-1.500 F200.000
G2 X-17.834 Y13.498 Z-1.500 I-3.747 J0.076 K0.000 F400.000
G2 X-10.450 Y14.787 Z-1.500 I3.692 J0.644 K0.000 F400.000
G2 X-10.395 Y14.066 Z-1.500 I-3.692 J-0.644 K0.000 F400.000
G0 Z5.000
G0 X-13.649 Y-10.427 Z5.000
G0 X-13.649 Y-10.427 Z3.000
G1 X-13.649 Y-10.427 Z-1.500 F200.000
G2 X-10.450 Y-13.498 Z-1.500 I-0.494 J-3.716 K0.000 F400.000
G2 X-13.498 Y-17.834 Z-1.500 I-3.692 J-0.644 K0.000 F400.000
G2 X-17.834 Y-14.787 Z-1.500 I-0.644 J3.692 K0.000 F400.000
G2 X-13.649 Y-10.427 Z-1.500 I3.692 J0.644 K0.000 F400.000
G0 Z5.000
G0 X10.427 Y-13.645 Z5.000
G0 X10.427 Y-13.645 Z3.000
G1 X10.427 Y-13.645 Z-1.500 F200.000
G2 X17.834 Y-13.498 Z-1.500 I3.715 J-0.497 K0.000 F400.000
G2 X10.450 Y-14.787 Z-1.500 I-3.692 J-0.644 K0.000 F400.000
G2 X10.427 Y-13.645 Z-1.500 I3.692 J0.644 K0.000 F400.000
G1 X10.427 Y-13.645 Z-1.600 F200.000
G2 X17.834 Y-13.498 Z-1.600 I3.715 J-0.497 K0.000 F400.000
G2 X10.450 Y-14.787 Z-1.600 I-3.692 J-0.644 K0.000 F400.000
G2 X10.427 Y-13.645 Z-1.600 I3.692 J0.644 K0.000 F400.000
G0 Z5.000
G0 X-10.395 Y-14.066 Z5.000
G0 X-10.395 Y-14.066 Z3.000
G1 X-10.395 Y-14.066 Z-1.600 F200.000
G2 X-17.834 Y-14.787 Z-1.600 I-3.747 J-0.076 K0.000 F400.000
G2 X-10.450 Y-13.498 Z-1.600 I3.692 J0.644 K0.000 F400.000
G2 X-10.395 Y-14.066 Z-1.600 I-3.692 J-0.644 K0.000 F400.000
G0 Z5.000
G0 X-13.649 Y10.427 Z5.000
G0 X-13.649 Y10.427 Z3.000
G1 X-13.649 Y10.427 Z-1.600 F200.000
G2 X-17.834 Y13.498 Z-1.600 I-0.494 J3.716 K0.000 F400.000
G2 X-10.450 Y14.787 Z-1.600 I3.692 J0.644 K0.000 F400.000
G2 X-13.649 Y10.427 Z-1.600 I-3.692 J-0.644 K0.000 F400.000
G0 Z5.000
G0 X10.427 Y13.645 Z5.000
G0 X10.427 Y13.645 Z3.000
G1 X10.427 Y13.645 Z-1.600 F200.000
G2 X17.834 Y14.787 Z-1.600 I3.715 J0.497 K0.000 F400.000
G2 X10.450 Y13.498 Z-1.600 I-3.692 J-0.644 K0.000 F400.000
G2 X10.427 Y13.645 Z-1.600 I3.692 J0.644 K0.000 F400.000
G0 Z5.000
G0 Z5.000
(Finish operation: Profile001_1.5)
(Block-name: 3mm Endmill001)
(Block-expand: 0)
(Block-enable: 1)
(Begin operation: 3mm Endmill001)
(Path: 3mm Endmill001)
(3mm Endmill001)
(Begin toolchange)
( M6 T2 )
M3 S10000
(Finish operation: 3mm Endmill001)
(Block-name: Drilling)
(Block-expand: 0)
(Block-enable: 1)
(Begin operation: Drilling)
(Path: Drilling)
(Drilling)
(Begin Drilling)
G0 Z5.000
G90
G98
G0 X-21.588 Y23.206
G83 X-21.588 Y23.206 Z-5.000 F420.000 Q1.500 R3.000
G0 X21.528 Y-23.436
G83 X21.528 Y-23.436 Z-5.000 F420.000 Q1.500 R3.000
G80
G0 Z3.000
G0 Z5.000
(Finish operation: Drilling)
(Block-name: Adaptive)
(Block-expand: 0)
(Block-enable: 1)
(Begin operation: Adaptive)
(Path: Adaptive)
(Adaptive)
(Helix to depth: -1.600000)
G0 Z5.000
G0 X-0.077 Y-1.119 Z5.000
G0 X-0.077 Y-1.119 Z3.000
G1 X-0.077 Y-1.119 Z0.000 F420.000
G1 X-0.077 Y-1.119 Z0.000 F420.000
G1 X0.142 Y-1.112 Z-0.004 F420.000
G1 X0.354 Y-1.061 Z-0.008 F420.000
G1 X0.553 Y-0.970 Z-0.012 F420.000
G1 X0.730 Y-0.843 Z-0.015 F420.000
G1 X0.879 Y-0.683 Z-0.019 F420.000
G1 X0.993 Y-0.497 Z-0.023 F420.000
G1 X1.070 Y-0.292 Z-0.027 F420.000
G1 X1.104 Y-0.077 Z-0.031 F420.000
G1 X1.097 Y0.142 Z-0.035 F420.000
G1 X1.046 Y0.354 Z-0.039 F420.000
G1 X0.955 Y0.553 Z-0.042 F420.000
G1 X0.828 Y0.730 Z-0.046 F420.000
G1 X0.668 Y0.879 Z-0.050 F420.000
G1 X0.482 Y0.993 Z-0.054 F420.000
G1 X0.277 Y1.070 Z-0.058 F420.000
G1 X0.062 Y1.104 Z-0.062 F420.000
G1 X-0.157 Y1.097 Z-0.065 F420.000
G1 X-0.369 Y1.046 Z-0.069 F420.000
G1 X-0.568 Y0.955 Z-0.073 F420.000
G1 X-0.745 Y0.828 Z-0.077 F420.000
G1 X-0.894 Y0.668 Z-0.081 F420.000
G1 X-1.008 Y0.482 Z-0.085 F420.000
G1 X-1.085 Y0.277 Z-0.089 F420.000
G1 X-1.119 Y0.062 Z-0.092 F420.000
G1 X-1.112 Y-0.157 Z-0.096 F420.000
G1 X-1.061 Y-0.369 Z-0.100 F420.000
G1 X-0.970 Y-0.568 Z-0.104 F420.000
G1 X-0.843 Y-0.745 Z-0.108 F420.000
G1 X-0.683 Y-0.894 Z-0.112 F420.000
G1 X-0.497 Y-1.008 Z-0.116 F420.000
G1 X-0.292 Y-1.085 Z-0.119 F420.000
G1 X-0.077 Y-1.119 Z-0.123 F420.000
G1 X0.142 Y-1.112 Z-0.127 F420.000
G1 X0.354 Y-1.061 Z-0.131 F420.000
G1 X0.553 Y-0.970 Z-0.135 F420.000
G1 X0.730 Y-0.843 Z-0.139 F420.000
G1 X0.879 Y-0.683 Z-0.143 F420.000
G1 X0.993 Y-0.497 Z-0.146 F420.000
G1 X1.070 Y-0.292 Z-0.150 F420.000
G1 X1.104 Y-0.077 Z-0.154 F420.000
G1 X1.097 Y0.142 Z-0.158 F420.000
G1 X1.046 Y0.354 Z-0.162 F420.000
G1 X0.955 Y0.553 Z-0.166 F420.000
G1 X0.828 Y0.730 Z-0.170 F420.000
G1 X0.668 Y0.879 Z-0.173 F420.000
G1 X0.482 Y0.993 Z-0.177 F420.000
G1 X0.277 Y1.070 Z-0.181 F420.000
G1 X0.062 Y1.104 Z-0.185 F420.000
G1 X-0.157 Y1.097 Z-0.189 F420.000
G1 X-0.369 Y1.046 Z-0.193 F420.000
G1 X-0.568 Y0.955 Z-0.196 F420.000
G1 X-0.745 Y0.828 Z-0.200 F420.000
G1 X-0.894 Y0.668 Z-0.204 F420.000
G1 X-1.008 Y0.482 Z-0.208 F420.000
G1 X-1.085 Y0.277 Z-0.212 F420.000
G1 X-1.119 Y0.062 Z-0.216 F420.000
G1 X-1.112 Y-0.157 Z-0.220 F420.000
G1 X-1.061 Y-0.369 Z-0.223 F420.000
G1 X-0.970 Y-0.568 Z-0.227 F420.000
G1 X-0.843 Y-0.745 Z-0.231 F420.000
G1 X-0.683 Y-0.894 Z-0.235 F420.000
G1 X-0.497 Y-1.008 Z-0.239 F420.000
G1 X-0.292 Y-1.085 Z-0.243 F420.000
G1 X-0.077 Y-1.119 Z-0.247 F420.000
G1 X0.142 Y-1.112 Z-0.250 F420.000
G1 X0.354 Y-1.061 Z-0.254 F420.000
G1 X0.553 Y-0.970 Z-0.258 F420.000
G1 X0.730 Y-0.843 Z-0.262 F420.000
G1 X0.879 Y-0.683 Z-0.266 F420.000
G1 X0.993 Y-0.497 Z-0.270 F420.000
G1 X1.070 Y-0.292 Z-0.274 F420.000
G1 X1.104 Y-0.077 Z-0.277 F420.000
G1 X1.097 Y0.142 Z-0.281 F420.000
G1 X1.046 Y0.354 Z-0.285 F420.000
G1 X0.955 Y0.553 Z-0.289 F420.000
G1 X0.828 Y0.730 Z-0.293 F420.000
G1 X0.668 Y0.879 Z-0.297 F420.000
G1 X0.482 Y0.993 Z-0.300 F420.000
G1 X0.277 Y1.070 Z-0.304 F420.000
G1 X0.062 Y1.104 Z-0.308 F420.000
G1 X-0.157 Y1.097 Z-0.312 F420.000
G1 X-0.369 Y1.046 Z-0.316 F420.000
G1 X-0.568 Y0.955 Z-0.320 F420.000
G1 X-0.745 Y0.828 Z-0.324 F420.000
G1 X-0.894 Y0.668 Z-0.327 F420.000
G1 X-1.008 Y0.482 Z-0.331 F420.000
G1 X-1.085 Y0.277 Z-0.335 F420.000
G1 X-1.119 Y0.062 Z-0.339 F420.000
G1 X-1.112 Y-0.157 Z-0.343 F420.000
G1 X-1.061 Y-0.369 Z-0.347 F420.000
G1 X-0.970 Y-0.568 Z-0.351 F420.000
G1 X-0.843 Y-0.745 Z-0.354 F420.000
G1 X-0.683 Y-0.894 Z-0.358 F420.000
G1 X-0.497 Y-1.008 Z-0.362 F420.000
G1 X-0.292 Y-1.085 Z-0.366 F420.000
G1 X-0.077 Y-1.119 Z-0.370 F420.000
G1 X0.142 Y-1.112 Z-0.374 F420.000
G1 X0.354 Y-1.061 Z-0.378 F420.000
G1 X0.553 Y-0.970 Z-0.381 F420.000
G1 X0.730 Y-0.843 Z-0.385 F420.000
G1 X0.879 Y-0.683 Z-0.389 F420.000
G1 X0.993 Y-0.497 Z-0.393 F420.000
G1 X1.070 Y-0.292 Z-0.397 F420.000
G1 X1.104 Y-0.077 Z-0.401 F420.000
G1 X1.097 Y0.142 Z-0.405 F420.000
G1 X1.046 Y0.354 Z-0.408 F420.000
G1 X0.955 Y0.553 Z-0.412 F420.000
G1 X0.828 Y0.730 Z-0.416 F420.000
G1 X0.668 Y0.879 Z-0.420 F420.000
G1 X0.482 Y0.993 Z-0.424 F420.000
G1 X0.277 Y1.070 Z-0.428 F420.000
G1 X0.062 Y1.104 Z-0.431 F420.000
G1 X-0.157 Y1.097 Z-0.435 F420.000
G1 X-0.369 Y1.046 Z-0.439 F420.000
G1 X-0.568 Y0.955 Z-0.443 F420.000
G1 X-0.745 Y0.828 Z-0.447 F420.000
G1 X-0.894 Y0.668 Z-0.451 F420.000
G1 X-1.008 Y0.482 Z-0.455 F420.000
G1 X-1.085 Y0.277 Z-0.458 F420.000
G1 X-1.119 Y0.062 Z-0.462 F420.000
G1 X-1.112 Y-0.157 Z-0.466 F420.000
G1 X-1.061 Y-0.369 Z-0.470 F420.000
G1 X-0.970 Y-0.568 Z-0.474 F420.000
G1 X-0.843 Y-0.745 Z-0.478 F420.000
G1 X-0.683 Y-0.894 Z-0.482 F420.000
G1 X-0.497 Y-1.008 Z-0.485 F420.000
G1 X-0.292 Y-1.085 Z-0.489 F420.000
G1 X-0.077 Y-1.119 Z-0.493 F420.000
G1 X0.142 Y-1.112 Z-0.497 F420.000
G1 X0.354 Y-1.061 Z-0.501 F420.000
G1 X0.553 Y-0.970 Z-0.505 F420.000
G1 X0.730 Y-0.843 Z-0.509 F420.000
G1 X0.879 Y-0.683 Z-0.512 F420.000
G1 X0.993 Y-0.497 Z-0.516 F420.000
G1 X1.070 Y-0.292 Z-0.520 F420.000
G1 X1.104 Y-0.077 Z-0.524 F420.000
G1 X1.097 Y0.142 Z-0.528 F420.000
G1 X1.046 Y0.354 Z-0.532 F420.000
G1 X0.955 Y0.553 Z-0.535 F420.000
G1 X0.828 Y0.730 Z-0.539 F420.000
G1 X0.668 Y0.879 Z-0.543 F420.000
G1 X0.482 Y0.993 Z-0.547 F420.000
G1 X0.277 Y1.070 Z-0.551 F420.000
G1 X0.062 Y1.104 Z-0.555 F420.000
G1 X-0.157 Y1.097 Z-0.559 F420.000
G1 X-0.369 Y1.046 Z-0.562 F420.000
G1 X-0.568 Y0.955 Z-0.566 F420.000
G1 X-0.745 Y0.828 Z-0.570 F420.000
G1 X-0.894 Y0.668 Z-0.574 F420.000
G1 X-1.008 Y0.482 Z-0.578 F420.000
G1 X-1.085 Y0.277 Z-0.582 F420.000
G1 X-1.119 Y0.062 Z-0.586 F420.000
G1 X-1.112 Y-0.157 Z-0.589 F420.000
G1 X-1.061 Y-0.369 Z-0.593 F420.000
G1 X-0.970 Y-0.568 Z-0.597 F420.000
G1 X-0.843 Y-0.745 Z-0.601 F420.000
G1 X-0.683 Y-0.894 Z-0.605 F420.000
G1 X-0.497 Y-1.008 Z-0.609 F420.000
G1 X-0.292 Y-1.085 Z-0.613 F420.000
G1 X-0.077 Y-1.119 Z-0.616 F420.000
G1 X0.142 Y-1.112 Z-0.620 F420.000
G1 X0.354 Y-1.061 Z-0.624 F420.000
G1 X0.553 Y-0.970 Z-0.628 F420.000
G1 X0.730 Y-0.843 Z-0.632 F420.000
G1 X0.879 Y-0.683 Z-0.636 F420.000
G1 X0.993 Y-0.497 Z-0.640 F420.000
G1 X1.070 Y-0.292 Z-0.643 F420.000
G1 X1.104 Y-0.077 Z-0.647 F420.000
G1 X1.097 Y0.142 Z-0.651 F420.000
G1 X1.046 Y0.354 Z-0.655 F420.000
G1 X0.955 Y0.553 Z-0.659 F420.000
G1 X0.828 Y0.730 Z-0.663 F420.000
G1 X0.668 Y0.879 Z-0.666 F420.000
G1 X0.482 Y0.993 Z-0.670 F420.000
G1 X0.277 Y1.070 Z-0.674 F420.000
G1 X0.062 Y1.104 Z-0.678 F420.000
G1 X-0.157 Y1.097 Z-0.682 F420.000
G1 X-0.369 Y1.046 Z-0.686 F420.000
G1 X-0.568 Y0.955 Z-0.690 F420.000
G1 X-0.745 Y0.828 Z-0.693 F420.000
G1 X-0.894 Y0.668 Z-0.697 F420.000
G1 X-1.008 Y0.482 Z-0.701 F420.000
G1 X-1.085 Y0.277 Z-0.705 F420.000
G1 X-1.119 Y0.062 Z-0.709 F420.000
G1 X-1.112 Y-0.157 Z-0.713 F420.000
G1 X-1.061 Y-0.369 Z-0.717 F420.000
G1 X-0.970 Y-0.568 Z-0.720 F420.000
G1 X-0.843 Y-0.745 Z-0.724 F420.000
G1 X-0.683 Y-0.894 Z-0.728 F420.000
G1 X-0.497 Y-1.008 Z-0.732 F420.000
G1 X-0.292 Y-1.085 Z-0.736 F420.000
G1 X-0.077 Y-1.119 Z-0.740 F420.000
G1 X0.142 Y-1.112 Z-0.744 F420.000
G1 X0.354 Y-1.061 Z-0.747 F420.000
G1 X0.553 Y-0.970 Z-0.751 F420.000
G1 X0.730 Y-0.843 Z-0.755 F420.000
G1 X0.879 Y-0.683 Z-0.759 F420.000
G1 X0.993 Y-0.497 Z-0.763 F420.000
G1 X1.070 Y-0.292 Z-0.767 F420.000
G1 X1.104 Y-0.077 Z-0.770 F420.000
G1 X1.097 Y0.142 Z-0.774 F420.000
G1 X1.046 Y0.354 Z-0.778 F420.000
G1 X0.955 Y0.553 Z-0.782 F420.000
G1 X0.828 Y0.730 Z-0.786 F420.000
G1 X0.668 Y0.879 Z-0.790 F420.000
G1 X0.482 Y0.993 Z-0.794 F420.000
G1 X0.277 Y1.070 Z-0.797 F420.000
G1 X0.062 Y1.104 Z-0.801 F420.000
G1 X-0.157 Y1.097 Z-0.805 F420.000
G1 X-0.369 Y1.046 Z-0.809 F420.000
G1 X-0.568 Y0.955 Z-0.813 F420.000
G1 X-0.745 Y0.828 Z-0.817 F420.000
G1 X-0.894 Y0.668 Z-0.821 F420.000
G1 X-1.008 Y0.482 Z-0.824 F420.000
G1 X-1.085 Y0.277 Z-0.828 F420.000
G1 X-1.119 Y0.062 Z-0.832 F420.000
G1 X-1.112 Y-0.157 Z-0.836 F420.000
G1 X-1.061 Y-0.369 Z-0.840 F420.000
G1 X-0.970 Y-0.568 Z-0.844 F420.000
G1 X-0.843 Y-0.745 Z-0.848 F420.000
G1 X-0.683 Y-0.894 Z-0.851 F420.000
G1 X-0.497 Y-1.008 Z-0.855 F420.000
G1 X-0.292 Y-1.085 Z-0.859 F420.000
G1 X-0.077 Y-1.119 Z-0.863 F420.000
G1 X0.142 Y-1.112 Z-0.867 F420.000
G1 X0.354 Y-1.061 Z-0.871 F420.000
G1 X0.553 Y-0.970 Z-0.875 F420.000
G1 X0.730 Y-0.843 Z-0.878 F420.000
G1 X0.879 Y-0.683 Z-0.882 F420.000
G1 X0.993 Y-0.497 Z-0.886 F420.000
G1 X1.070 Y-0.292 Z-0.890 F420.000
G1 X1.104 Y-0.077 Z-0.894 F420.000
G1 X1.097 Y0.142 Z-0.898 F420.000
G1 X1.046 Y0.354 Z-0.901 F420.000
G1 X0.955 Y0.553 Z-0.905 F420.000
G1 X0.828 Y0.730 Z-0.909 F420.000
G1 X0.668 Y0.879 Z-0.913 F420.000
G1 X0.482 Y0.993 Z-0.917 F420.000
G1 X0.277 Y1.070 Z-0.921 F420.000
G1 X0.062 Y1.104 Z-0.925 F420.000
G1 X-0.157 Y1.097 Z-0.928 F420.000
G1 X-0.369 Y1.046 Z-0.932 F420.000
G1 X-0.568 Y0.955 Z-0.936 F420.000
G1 X-0.745 Y0.828 Z-0.940 F420.000
G1 X-0.894 Y0.668 Z-0.944 F420.000
G1 X-1.008 Y0.482 Z-0.948 F420.000
G1 X-1.085 Y0.277 Z-0.952 F420.000
G1 X-1.119 Y0.062 Z-0.955 F420.000
G1 X-1.112 Y-0.157 Z-0.959 F420.000
G1 X-1.061 Y-0.369 Z-0.963 F420.000
G1 X-0.970 Y-0.568 Z-0.967 F420.000
G1 X-0.843 Y-0.745 Z-0.971 F420.000
G1 X-0.683 Y-0.894 Z-0.975 F420.000
G1 X-0.497 Y-1.008 Z-0.979 F420.000
G1 X-0.292 Y-1.085 Z-0.982 F420.000
G1 X-0.077 Y-1.119 Z-0.986 F420.000
G1 X0.142 Y-1.112 Z-0.990 F420.000
G1 X0.354 Y-1.061 Z-0.994 F420.000
G1 X0.553 Y-0.970 Z-0.998 F420.000
G1 X0.730 Y-0.843 Z-1.002 F420.000
G1 X0.879 Y-0.683 Z-1.005 F420.000
G1 X0.993 Y-0.497 Z-1.009 F420.000
G1 X1.070 Y-0.292 Z-1.013 F420.000
G1 X1.104 Y-0.077 Z-1.017 F420.000
G1 X1.097 Y0.142 Z-1.021 F420.000
G1 X1.046 Y0.354 Z-1.025 F420.000
G1 X0.955 Y0.553 Z-1.029 F420.000
G1 X0.828 Y0.730 Z-1.032 F420.000
G1 X0.668 Y0.879 Z-1.036 F420.000
G1 X0.482 Y0.993 Z-1.040 F420.000
G1 X0.277 Y1.070 Z-1.044 F420.000
G1 X0.062 Y1.104 Z-1.048 F420.000
G1 X-0.157 Y1.097 Z-1.052 F420.000
G1 X-0.369 Y1.046 Z-1.056 F420.000
G1 X-0.568 Y0.955 Z-1.059 F420.000
G1 X-0.745 Y0.828 Z-1.063 F420.000
G1 X-0.894 Y0.668 Z-1.067 F420.000
G1 X-1.008 Y0.482 Z-1.071 F420.000
G1 X-1.085 Y0.277 Z-1.075 F420.000
G1 X-1.119 Y0.062 Z-1.079 F420.000
G1 X-1.112 Y-0.157 Z-1.083 F420.000
G1 X-1.061 Y-0.369 Z-1.086 F420.000
G1 X-0.970 Y-0.568 Z-1.090 F420.000
G1 X-0.843 Y-0.745 Z-1.094 F420.000
G1 X-0.683 Y-0.894 Z-1.098 F420.000
G1 X-0.497 Y-1.008 Z-1.102 F420.000
G1 X-0.292 Y-1.085 Z-1.106 F420.000
G1 X-0.077 Y-1.119 Z-1.110 F420.000
G1 X0.142 Y-1.112 Z-1.113 F420.000
G1 X0.354 Y-1.061 Z-1.117 F420.000
G1 X0.553 Y-0.970 Z-1.121 F420.000
G1 X0.730 Y-0.843 Z-1.125 F420.000
G1 X0.879 Y-0.683 Z-1.129 F420.000
G1 X0.993 Y-0.497 Z-1.133 F420.000
G1 X1.070 Y-0.292 Z-1.136 F420.000
G1 X1.104 Y-0.077 Z-1.140 F420.000
G1 X1.097 Y0.142 Z-1.144 F420.000
G1 X1.046 Y0.354 Z-1.148 F420.000
G1 X0.955 Y0.553 Z-1.152 F420.000
G1 X0.828 Y0.730 Z-1.156 F420.000
G1 X0.668 Y0.879 Z-1.160 F420.000
G1 X0.482 Y0.993 Z-1.163 F420.000
G1 X0.277 Y1.070 Z-1.167 F420.000
G1 X0.062 Y1.104 Z-1.171 F420.000
G1 X-0.157 Y1.097 Z-1.175 F420.000
G1 X-0.369 Y1.046 Z-1.179 F420.000
G1 X-0.568 Y0.955 Z-1.183 F420.000
G1 X-0.745 Y0.828 Z-1.187 F420.000
G1 X-0.894 Y0.668 Z-1.190 F420.000
G1 X-1.008 Y0.482 Z-1.194 F420.000
G1 X-1.085 Y0.277 Z-1.198 F420.000
G1 X-1.119 Y0.062 Z-1.202 F420.000
G1 X-1.112 Y-0.157 Z-1.206 F420.000
G1 X-1.061 Y-0.369 Z-1.210 F420.000
G1 X-0.970 Y-0.568 Z-1.214 F420.000
G1 X-0.843 Y-0.745 Z-1.217 F420.000
G1 X-0.683 Y-0.894 Z-1.221 F420.000
G1 X-0.497 Y-1.008 Z-1.225 F420.000
G1 X-0.292 Y-1.085 Z-1.229 F420.000
G1 X-0.077 Y-1.119 Z-1.233 F420.000
G1 X0.142 Y-1.112 Z-1.237 F420.000
G1 X0.354 Y-1.061 Z-1.241 F420.000
G1 X0.553 Y-0.970 Z-1.244 F420.000
G1 X0.730 Y-0.843 Z-1.248 F420.000
G1 X0.879 Y-0.683 Z-1.252 F420.000
G1 X0.993 Y-0.497 Z-1.256 F420.000
G1 X1.070 Y-0.292 Z-1.260 F420.000
G1 X1.104 Y-0.077 Z-1.264 F420.000
G1 X1.097 Y0.142 Z-1.267 F420.000
G1 X1.046 Y0.354 Z-1.271 F420.000
G1 X0.955 Y0.553 Z-1.275 F420.000
G1 X0.828 Y0.730 Z-1.279 F420.000
G1 X0.668 Y0.879 Z-1.283 F420.000
G1 X0.482 Y0.993 Z-1.287 F420.000
G1 X0.277 Y1.070 Z-1.291 F420.000
G1 X0.062 Y1.104 Z-1.294 F420.000
G1 X-0.157 Y1.097 Z-1.298 F420.000
G1 X-0.369 Y1.046 Z-1.302 F420.000
G1 X-0.568 Y0.955 Z-1.306 F420.000
G1 X-0.745 Y0.828 Z-1.310 F420.000
G1 X-0.894 Y0.668 Z-1.314 F420.000
G1 X-1.008 Y0.482 Z-1.318 F420.000
G1 X-1.085 Y0.277 Z-1.321 F420.000
G1 X-1.119 Y0.062 Z-1.325 F420.000
G1 X-1.112 Y-0.157 Z-1.329 F420.000
G1 X-1.061 Y-0.369 Z-1.333 F420.000
G1 X-0.970 Y-0.568 Z-1.337 F420.000
G1 X-0.843 Y-0.745 Z-1.341 F420.000
G1 X-0.683 Y-0.894 Z-1.345 F420.000
G1 X-0.497 Y-1.008 Z-1.348 F420.000
G1 X-0.292 Y-1.085 Z-1.352 F420.000
G1 X-0.077 Y-1.119 Z-1.356 F420.000
G1 X0.142 Y-1.112 Z-1.360 F420.000
G1 X0.354 Y-1.061 Z-1.364 F420.000
G1 X0.553 Y-0.970 Z-1.368 F420.000
G1 X0.730 Y-0.843 Z-1.371 F420.000
G1 X0.879 Y-0.683 Z-1.375 F420.000
G1 X0.993 Y-0.497 Z-1.379 F420.000
G1 X1.070 Y-0.292 Z-1.383 F420.000
G1 X1.104 Y-0.077 Z-1.387 F420.000
G1 X1.097 Y0.142 Z-1.391 F420.000
G1 X1.046 Y0.354 Z-1.395 F420.000
G1 X0.955 Y0.553 Z-1.398 F420.000
G1 X0.828 Y0.730 Z-1.402 F420.000
G1 X0.668 Y0.879 Z-1.406 F420.000
G1 X0.482 Y0.993 Z-1.410 F420.000
G1 X0.277 Y1.070 Z-1.414 F420.000
G1 X0.062 Y1.104 Z-1.418 F420.000
G1 X-0.157 Y1.097 Z-1.422 F420.000
G1 X-0.369 Y1.046 Z-1.425 F420.000
G1 X-0.568 Y0.955 Z-1.429 F420.000
G1 X-0.745 Y0.828 Z-1.433 F420.000
G1 X-0.894 Y0.668 Z-1.437 F420.000
G1 X-1.008 Y0.482 Z-1.441 F420.000
G1 X-1.085 Y0.277 Z-1.445 F420.000
G1 X-1.119 Y0.062 Z-1.449 F420.000
G1 X-1.112 Y-0.157 Z-1.452 F420.000
G1 X-1.061 Y-0.369 Z-1.456 F420.000
G1 X-0.970 Y-0.568 Z-1.460 F420.000
G1 X-0.843 Y-0.745 Z-1.464 F420.000
G1 X-0.683 Y-0.894 Z-1.468 F420.000
G1 X-0.497 Y-1.008 Z-1.472 F420.000
G1 X-0.292 Y-1.085 Z-1.476 F420.000
G1 X-0.077 Y-1.119 Z-1.479 F420.000
G1 X0.142 Y-1.112 Z-1.483 F420.000
G1 X0.354 Y-1.061 Z-1.487 F420.000
G1 X0.553 Y-0.970 Z-1.491 F420.000
G1 X0.730 Y-0.843 Z-1.495 F420.000
G1 X0.879 Y-0.683 Z-1.499 F420.000
G1 X0.993 Y-0.497 Z-1.502 F420.000
G1 X1.070 Y-0.292 Z-1.506 F420.000
G1 X1.104 Y-0.077 Z-1.510 F420.000
G1 X1.097 Y0.142 Z-1.514 F420.000
G1 X1.046 Y0.354 Z-1.518 F420.000
G1 X0.955 Y0.553 Z-1.522 F420.000
G1 X0.828 Y0.730 Z-1.526 F420.000
G1 X0.668 Y0.879 Z-1.529 F420.000
G1 X0.482 Y0.993 Z-1.533 F420.000
G1 X0.277 Y1.070 Z-1.537 F420.000
G1 X0.062 Y1.104 Z-1.541 F420.000
G1 X-0.157 Y1.097 Z-1.545 F420.000
G1 X-0.369 Y1.046 Z-1.549 F420.000
G1 X-0.568 Y0.955 Z-1.553 F420.000
G1 X-0.745 Y0.828 Z-1.556 F420.000
G1 X-0.894 Y0.668 Z-1.560 F420.000
G1 X-1.008 Y0.482 Z-1.564 F420.000
G1 X-1.085 Y0.277 Z-1.568 F420.000
G1 X-1.119 Y0.062 Z-1.572 F420.000
G1 X-1.112 Y-0.157 Z-1.576 F420.000
G1 X-1.061 Y-0.369 Z-1.580 F420.000
G1 X-0.970 Y-0.568 Z-1.583 F420.000
G1 X-0.843 Y-0.745 Z-1.587 F420.000
G1 X-0.683 Y-0.894 Z-1.591 F420.000
G1 X-0.497 Y-1.008 Z-1.595 F420.000
G1 X-0.292 Y-1.085 Z-1.599 F420.000
G1 X-0.077 Y-1.119 Z-1.600 F420.000
G1 X0.142 Y-1.112 Z-1.600 F420.000
G1 X0.354 Y-1.061 Z-1.600 F420.000
G1 X0.553 Y-0.970 Z-1.600 F420.000
G1 X0.730 Y-0.843 Z-1.600 F420.000
G1 X0.879 Y-0.683 Z-1.600 F420.000
G1 X0.993 Y-0.497 Z-1.600 F420.000
G1 X1.070 Y-0.292 Z-1.600 F420.000
G1 X1.104 Y-0.077 Z-1.600 F420.000
G1 X1.097 Y0.142 Z-1.600 F420.000
G1 X1.046 Y0.354 Z-1.600 F420.000
G1 X0.955 Y0.553 Z-1.600 F420.000
G1 X0.828 Y0.730 Z-1.600 F420.000
G1 X0.668 Y0.879 Z-1.600 F420.000
G1 X0.482 Y0.993 Z-1.600 F420.000
G1 X0.277 Y1.070 Z-1.600 F420.000
G1 X0.062 Y1.104 Z-1.600 F420.000
G1 X-0.157 Y1.097 Z-1.600 F420.000
G1 X-0.369 Y1.046 Z-1.600 F420.000
G1 X-0.568 Y0.955 Z-1.600 F420.000
G1 X-0.745 Y0.828 Z-1.600 F420.000
G1 X-0.894 Y0.668 Z-1.600 F420.000
G1 X-1.008 Y0.482 Z-1.600 F420.000
G1 X-1.085 Y0.277 Z-1.600 F420.000
G1 X-1.119 Y0.062 Z-1.600 F420.000
G1 X-1.112 Y-0.157 Z-1.600 F420.000
G1 X-1.061 Y-0.369 Z-1.600 F420.000
G1 X-0.970 Y-0.568 Z-1.600 F420.000
G1 X-0.843 Y-0.745 Z-1.600 F420.000
G1 X-0.683 Y-0.894 Z-1.600 F420.000
G1 X-0.497 Y-1.008 Z-1.600 F420.000
G1 X-0.292 Y-1.085 Z-1.600 F420.000
(Adaptive - depth: -1.600000)
G1 X-0.008 Y-1.132 F420.000
G1 X0.034 Y-1.173 F420.000
G1 X0.199 Y-1.222 F420.000
G1 X0.368 Y-1.226 F420.000
G1 X0.481 Y-1.207 F420.000
G1 X0.827 Y-1.071 F420.000
G1 X0.996 Y-0.936 F420.000
G1 X1.083 Y-0.838 F420.000
G1 X1.165 Y-0.726 F420.000
G1 X1.259 Y-0.553 F420.000
G1 X1.338 Y-0.338 F420.000
G1 X1.376 Y-0.120 F420.000
G1 X1.383 Y0.056 F420.000
G1 X1.361 Y0.259 F420.000
G1 X1.312 Y0.451 F420.000
G1 X1.233 Y0.647 F420.000
G1 X1.128 Y0.823 F420.000
G1 X0.996 Y0.985 F420.000
G1 X0.838 Y1.120 F420.000
G1 X0.680 Y1.222 F420.000
G1 X0.500 Y1.305 F420.000
G1 X0.312 Y1.361 F420.000
G1 X0.098 Y1.391 F420.000
G1 X-0.102 Y1.391 F420.000
G1 X-0.305 Y1.361 F420.000
G1 X-0.504 Y1.308 F420.000
G1 X-0.718 Y1.207 F420.000
G1 X-0.872 Y1.102 F420.000
G1 X-1.015 Y0.974 F420.000
G1 X-1.143 Y0.816 F420.000
G1 X-1.248 Y0.650 F420.000
G1 X-1.338 Y0.444 F420.000
G1 X-1.391 Y0.244 F420.000
G1 X-1.417 Y0.038 F420.000
G1 X-1.414 Y-0.173 F420.000
G1 X-1.368 Y-0.376 F420.000
G1 X-1.312 Y-0.541 F420.000
G1 X-1.226 Y-0.718 F420.000
G1 X-1.102 Y-0.898 F420.000
G1 X-0.951 Y-1.060 F420.000
G1 X-0.778 Y-1.188 F420.000
G1 X-0.624 Y-1.282 F420.000
G1 X-0.417 Y-1.391 F420.000
G1 X-0.120 Y-1.492 F420.000
G1 X0.282 Y-1.515 F420.000
G1 X0.338 Y-1.511 F420.000
G1 X0.703 Y-1.444 F420.000
G1 X0.981 Y-1.308 F420.000
G1 X1.105 Y-1.214 F420.000
G1 X1.211 Y-1.117 F420.000
G1 X1.342 Y-0.970 F420.000
G1 X1.492 Y-0.748 F420.000
G1 X1.594 Y-0.526 F420.000
G1 X1.647 Y-0.335 F420.000
G1 X1.677 Y-0.143 F420.000
G1 X1.688 Y0.083 F420.000
G1 X1.662 Y0.320 F420.000
G1 X1.613 Y0.530 F420.000
G1 X1.534 Y0.744 F420.000
G1 X1.425 Y0.944 F420.000
G1 X1.289 Y1.124 F420.000
G1 X1.139 Y1.278 F420.000
G1 X0.962 Y1.414 F420.000
G1 X0.771 Y1.526 F420.000
G1 X0.564 Y1.613 F420.000
G1 X0.350 Y1.669 F420.000
G1 X0.128 Y1.699 F420.000
G1 X-0.090 Y1.703 F420.000
G1 X-0.335 Y1.673 F420.000
G1 X-0.556 Y1.617 F420.000
G1 X-0.771 Y1.534 F420.000
G1 X-0.977 Y1.417 F420.000
G1 X-1.158 Y1.271 F420.000
G1 X-1.301 Y1.128 F420.000
G1 X-1.432 Y0.951 F420.000
G1 X-1.541 Y0.763 F420.000
G1 X-1.635 Y0.538 F420.000
G1 X-1.695 Y0.316 F420.000
G1 X-1.729 Y0.086 F420.000
G1 X-1.733 Y-0.143 F420.000
G1 X-1.699 Y-0.368 F420.000
G1 X-1.647 Y-0.564 F420.000
G1 X-1.564 Y-0.767 F420.000
G1 X-1.440 Y-0.974 F420.000
G1 X-1.305 Y-1.147 F420.000
G1 X-1.147 Y-1.312 F420.000
G1 X-0.947 Y-1.474 F420.000
G1 X-0.726 Y-1.620 F420.000
G1 X-0.477 Y-1.733 F420.000
G1 X-0.263 Y-1.797 F420.000
G1 X-0.049 Y-1.835 F420.000
G1 X0.180 Y-1.850 F420.000
G1 X0.444 Y-1.831 F420.000
G1 X0.673 Y-1.786 F420.000
G1 X0.906 Y-1.711 F420.000
G1 X1.124 Y-1.594 F420.000
G1 X1.289 Y-1.477 F420.000
G1 X1.444 Y-1.346 F420.000
G1 X1.617 Y-1.158 F420.000
G1 X1.767 Y-0.940 F420.000
G1 X1.868 Y-0.726 F420.000
G1 X1.940 Y-0.526 F420.000
G1 X1.996 Y-0.297 F420.000
G1 X2.019 Y-0.034 F420.000
G1 X2.015 Y0.195 F420.000
G1 X1.981 Y0.436 F420.000
G1 X1.921 Y0.673 F420.000
G1 X1.823 Y0.921 F420.000
G1 X1.695 Y1.139 F420.000
G1 X1.568 Y1.312 F420.000
G1 X1.398 Y1.489 F420.000
G1 X1.218 Y1.643 F420.000
G1 X0.992 Y1.789 F420.000
G1 X0.767 Y1.898 F420.000
G1 X0.534 Y1.981 F420.000
G1 X0.282 Y2.026 F420.000
G1 X0.064 Y2.041 F420.000
G1 X-0.173 Y2.038 F420.000
G1 X-0.444 Y2.000 F420.000
G1 X-0.707 Y1.932 F420.000
G1 X-0.947 Y1.827 F420.000
G1 X-1.135 Y1.722 F420.000
G1 X-1.335 Y1.575 F420.000
G1 X-1.508 Y1.406 F420.000
G1 X-1.654 Y1.226 F420.000
G1 X-1.786 Y1.023 F420.000
G1 X-1.910 Y0.782 F420.000
G1 X-2.011 Y0.515 F420.000
G1 X-2.060 Y0.256 F420.000
G1 X-2.075 Y0.045 F420.000
G1 X-2.071 Y-0.165 F420.000
G1 X-2.038 Y-0.421 F420.000
G1 X-1.962 Y-0.699 F420.000
G1 X-1.865 Y-0.929 F420.000
G1 X-1.756 Y-1.128 F420.000
G1 X-1.605 Y-1.331 F420.000
G1 X-1.444 Y-1.515 F420.000
G1 X-1.218 Y-1.714 F420.000
G1 X-1.004 Y-1.865 F420.000
G1 X-0.771 Y-1.996 F420.000
G1 X-0.515 Y-2.102 F420.000
G1 X-0.256 Y-2.165 F420.000
G1 X-0.038 Y-2.195 F420.000
G1 X0.211 Y-2.207 F420.000
G1 X0.489 Y-2.192 F420.000
G1 X0.778 Y-2.128 F420.000
G1 X0.989 Y-2.053 F420.000
G1 X1.199 Y-1.951 F420.000
G1 X1.410 Y-1.823 F420.000
G1 X1.635 Y-1.654 F420.000
G1 X1.835 Y-1.451 F420.000
G1 X1.981 Y-1.256 F420.000
G1 X2.098 Y-1.060 F420.000
G1 X2.203 Y-0.835 F420.000
G1 X2.297 Y-0.564 F420.000
G1 X2.361 Y-0.282 F420.000
G1 X2.380 Y-0.008 F420.000
G1 X2.376 Y0.211 F420.000
G1 X2.346 Y0.466 F420.000
G1 X2.282 Y0.741 F420.000
G1 X2.188 Y1.004 F420.000
G1 X2.056 Y1.244 F420.000
G1 X1.929 Y1.436 F420.000
G1 X1.763 Y1.635 F420.000
G1 X1.553 Y1.831 F420.000
G1 X1.350 Y1.985 F420.000
G1 X1.124 Y2.128 F420.000
G1 X0.846 Y2.256 F420.000
G1 X0.583 Y2.338 F420.000
G1 X0.346 Y2.383 F420.000
G1 X0.102 Y2.402 F420.000
G1 X-0.147 Y2.406 F420.000
G1 X-0.477 Y2.365 F420.000
G1 X-0.741 Y2.305 F420.000
G1 X-1.008 Y2.214 F420.000
G1 X-1.263 Y2.075 F420.000
G1 X-1.447 Y1.955 F420.000
G1 X-1.650 Y1.786 F420.000
G1 X-1.827 Y1.602 F420.000
G1 X-1.996 Y1.380 F420.000
G1 X-2.139 Y1.154 F420.000
G1 X-2.267 Y0.887 F420.000
G1 X-2.361 Y0.624 F420.000
G1 X-2.425 Y0.353 F420.000
G1 X-2.447 Y0.071 F420.000
G1 X-2.444 Y-0.154 F420.000
G1 X-2.410 Y-0.414 F420.000
G1 X-2.357 Y-0.662 F420.000
G1 X-2.256 Y-0.951 F420.000
G1 X-2.139 Y-1.199 F420.000
G1 X-1.996 Y-1.436 F420.000
G1 X-1.823 Y-1.662 F420.000
G1 X-1.632 Y-1.865 F420.000
G1 X-1.417 Y-2.049 F420.000
G1 X-1.184 Y-2.207 F420.000
G1 X-0.936 Y-2.342 F420.000
G1 X-0.673 Y-2.451 F420.000
G1 X-0.402 Y-2.530 F420.000
G1 X-0.124 Y-2.579 F420.000
G1 X0.154 Y-2.598 F420.000
G1 X0.432 Y-2.586 F420.000
G1 X0.711 Y-2.545 F420.000
G1 X0.981 Y-2.466 F420.000
G1 X1.203 Y-2.376 F420.000
G1 X1.440 Y-2.256 F420.000
G1 X1.695 Y-2.090 F420.000
G1 X1.929 Y-1.902 F420.000
G1 X2.124 Y-1.688 F420.000
G1 X2.263 Y-1.504 F420.000
G1 X2.410 Y-1.274 F420.000
G1 X2.553 Y-0.992 F420.000
G1 X2.665 Y-0.692 F420.000
G1 X2.726 Y-0.395 F420.000
G1 X2.752 Y-0.173 F420.000
G1 X2.763 Y0.094 F420.000
G1 X2.744 Y0.410 F420.000
G1 X2.692 Y0.729 F420.000
G1 X2.602 Y1.019 F420.000
G1 X2.500 Y1.244 F420.000
G1 X2.380 Y1.451 F420.000
G1 X2.233 Y1.669 F420.000
G1 X2.015 Y1.929 F420.000
G1 X1.782 Y2.154 F420.000
G1 X1.538 Y2.335 F420.000
G1 X1.327 Y2.462 F420.000
G1 X1.068 Y2.583 F420.000
G1 X0.805 Y2.677 F420.000
G1 X0.504 Y2.748 F420.000
G1 X0.214 Y2.786 F420.000
G1 X-0.075 Y2.797 F420.000
G1 X-0.368 Y2.778 F420.000
G1 X-0.654 Y2.729 F420.000
G1 X-0.936 Y2.650 F420.000
G1 X-1.207 Y2.545 F420.000
G1 X-1.466 Y2.410 F420.000
G1 X-1.707 Y2.241 F420.000
G1 X-1.898 Y2.079 F420.000
G1 X-2.094 Y1.883 F420.000
G1 X-2.293 Y1.643 F420.000
G1 X-2.470 Y1.376 F420.000
G1 X-2.613 Y1.109 F420.000
G1 X-2.722 Y0.816 F420.000
G1 X-2.789 Y0.564 F420.000
G1 X-2.827 Y0.274 F420.000
G1 X-2.838 Y0.038 F420.000
G1 X-2.827 Y-0.252 F420.000
G1 X-2.782 Y-0.568 F420.000
G1 X-2.707 Y-0.880 F420.000
G1 X-2.598 Y-1.169 F420.000
G1 X-2.481 Y-1.414 F420.000
G1 X-2.323 Y-1.669 F420.000
G1 X-2.143 Y-1.902 F420.000
G1 X-1.944 Y-2.113 F420.000
G1 X-1.726 Y-2.308 F420.000
G1 X-1.459 Y-2.500 F420.000
G1 X-1.195 Y-2.654 F420.000
G1 X-0.917 Y-2.786 F420.000
G1 X-0.620 Y-2.891 F420.000
G1 X-0.316 Y-2.951 F420.000
G1 X-0.064 Y-2.981 F420.000
G1 X0.222 Y-2.992 F420.000
G1 X0.541 Y-2.974 F420.000
G1 X0.876 Y-2.921 F420.000
G1 X1.177 Y-2.827 F420.000
G1 X1.402 Y-2.729 F420.000
G1 X1.620 Y-2.617 F420.000
G1 X1.891 Y-2.444 F420.000
G1 X2.154 Y-2.229 F420.000
G1 X2.365 Y-2.011 F420.000
G1 X2.530 Y-1.808 F420.000
G1 X2.699 Y-1.564 F420.000
G1 X2.868 Y-1.248 F420.000
G1 X2.989 Y-0.970 F420.000
G1 X3.079 Y-0.665 F420.000
G1 X3.132 Y-0.395 F420.000
G1 X3.165 Y-0.098 F420.000
G1 X3.165 Y0.222 F420.000
G1 X3.135 Y0.515 F420.000
G1 X3.079 Y0.812 F420.000
G1 X2.989 Y1.105 F420.000
G1 X2.872 Y1.387 F420.000
G1 X2.729 Y1.654 F420.000
G1 X2.560 Y1.906 F420.000
G1 X2.368 Y2.143 F420.000
G1 X2.154 Y2.357 F420.000
G1 X1.917 Y2.553 F420.000
G1 X1.665 Y2.722 F420.000
G1 X1.398 Y2.868 F420.000
G1 X1.120 Y2.992 F420.000
G1 X0.793 Y3.098 F420.000
G1 X0.485 Y3.169 F420.000
G1 X0.165 Y3.203 F420.000
G1 X-0.109 Y3.207 F420.000
G1 X-0.410 Y3.180 F420.000
G1 X-0.707 Y3.132 F420.000
G1 X-1.041 Y3.041 F420.000
G1 X-1.335 Y2.932 F420.000
G1 X-1.620 Y2.789 F420.000
G1 X-1.861 Y2.639 F420.000
G1 X-2.102 Y2.451 F420.000
G1 X-2.320 Y2.241 F420.000
G1 X-2.519 Y2.019 F420.000
G1 X-2.718 Y1.744 F420.000
G1 X-2.876 Y1.474 F420.000
G1 X-3.011 Y1.188 F420.000
G1 X-3.120 Y0.883 F420.000
G1 X-3.199 Y0.575 F420.000
G1 X-3.233 Y0.256 F420.000
G1 X-3.241 Y0.008 F420.000
G1 X-3.229 Y-0.278 F420.000
G1 X-3.184 Y-0.635 F420.000
G1 X-3.102 Y-0.996 F420.000
G1 X-2.981 Y-1.312 F420.000
G1 X-2.876 Y-1.538 F420.000
G1 X-2.722 Y-1.808 F420.000
G1 X-2.526 Y-2.079 F420.000
G1 X-2.308 Y-2.335 F420.000
G1 X-2.075 Y-2.564 F420.000
G1 X-1.820 Y-2.771 F420.000
G1 X-1.545 Y-2.955 F420.000
G1 X-1.252 Y-3.098 F420.000
G1 X-1.008 Y-3.195 F420.000
G1 X-0.714 Y-3.286 F420.000
G1 X-0.368 Y-3.361 F420.000
G1 X-0.004 Y-3.406 F420.000
G1 X0.331 Y-3.410 F420.000
G1 X0.613 Y-3.391 F420.000
G1 X0.932 Y-3.338 F420.000
G1 X1.237 Y-3.256 F420.000
G1 X1.526 Y-3.147 F420.000
G1 X1.808 Y-3.008 F420.000
G1 X2.075 Y-2.842 F420.000
G1 X2.323 Y-2.654 F420.000
G1 X2.556 Y-2.440 F420.000
G1 X2.767 Y-2.207 F420.000
G1 X2.955 Y-1.955 F420.000
G1 X3.120 Y-1.684 F420.000
G1 X3.263 Y-1.402 F420.000
G1 X3.391 Y-1.075 F420.000
G1 X3.481 Y-0.759 F420.000
G1 X3.545 Y-0.432 F420.000
G1 X3.579 Y-0.098 F420.000
G1 X3.583 Y0.229 F420.000
G1 X3.556 Y0.556 F420.000
G1 X3.500 Y0.880 F420.000
G1 X3.406 Y1.195 F420.000
G1 X3.305 Y1.459 F420.000
G1 X3.162 Y1.737 F420.000
G1 X3.004 Y2.000 F420.000
G1 X2.782 Y2.297 F420.000
G1 X2.564 Y2.545 F420.000
G1 X2.320 Y2.778 F420.000
G1 X2.038 Y2.985 F420.000
G1 X1.808 Y3.128 F420.000
G1 X1.530 Y3.274 F420.000
G1 X1.192 Y3.417 F420.000
G1 X0.835 Y3.534 F420.000
G1 X0.485 Y3.598 F420.000
G1 X0.207 Y3.620 F420.000
G1 X-0.060 Y3.628 F420.000
G1 X-0.421 Y3.605 F420.000
G1 X-0.786 Y3.545 F420.000
G1 X-1.105 Y3.470 F420.000
G1 X-1.444 Y3.357 F420.000
G1 X-1.759 Y3.199 F420.000
G1 X-1.989 Y3.064 F420.000
G1 X-2.248 Y2.876 F420.000
G1 X-2.485 Y2.673 F420.000
G1 X-2.737 Y2.414 F420.000
G1 X-2.944 Y2.154 F420.000
G1 X-3.128 Y1.880 F420.000
G1 X-3.293 Y1.579 F420.000
G1 X-3.429 Y1.271 F420.000
G1 X-3.538 Y0.951 F420.000
G1 X-3.617 Y0.620 F420.000
G1 X-3.665 Y0.289 F420.000
G1 X-3.673 Y-0.041 F420.000
G1 X-3.658 Y-0.320 F420.000
G1 X-3.617 Y-0.632 F420.000
G1 X-3.545 Y-0.981 F420.000
G1 X-3.436 Y-1.335 F420.000
G1 X-3.293 Y-1.658 F420.000
G1 X-3.158 Y-1.914 F420.000
G1 X-2.977 Y-2.199 F420.000
G1 X-2.752 Y-2.481 F420.000
G1 X-2.530 Y-2.722 F420.000
G1 X-2.274 Y-2.951 F420.000
G1 X-2.000 Y-3.154 F420.000
G1 X-1.711 Y-3.335 F420.000
G1 X-1.406 Y-3.489 F420.000
G1 X-1.086 Y-3.617 F420.000
G1 X-0.763 Y-3.714 F420.000
G1 X-0.432 Y-3.782 F420.000
G1 X-0.094 Y-3.823 F420.000
G1 X0.241 Y-3.835 F420.000
G1 X0.575 Y-3.823 F420.000
G1 X0.944 Y-3.774 F420.000
G1 X1.286 Y-3.699 F420.000
G1 X1.624 Y-3.579 F420.000
G1 X1.872 Y-3.462 F420.000
G1 X2.128 Y-3.320 F420.000
G1 X2.410 Y-3.128 F420.000
G1 X2.688 Y-2.906 F420.000
G1 X2.951 Y-2.654 F420.000
G1 X3.184 Y-2.391 F420.000
G1 X3.383 Y-2.094 F420.000
G1 X3.519 Y-1.857 F420.000
G1 X3.665 Y-1.568 F420.000
G1 X3.805 Y-1.222 F420.000
G1 X3.914 Y-0.865 F420.000
G1 X3.985 Y-0.496 F420.000
G1 X4.011 Y-0.188 F420.000
G1 X4.023 Y0.105 F420.000
G1 X4.004 Y0.474 F420.000
G1 X3.951 Y0.842 F420.000
G1 X3.865 Y1.184 F420.000
G1 X3.767 Y1.474 F420.000
G1 X3.628 Y1.789 F420.000
G1 X3.462 Y2.079 F420.000
G1 X3.286 Y2.353 F420.000
G1 X3.060 Y2.650 F420.000
G1 X2.808 Y2.925 F420.000
G1 X2.526 Y3.162 F420.000
G1 X2.301 Y3.331 F420.000
G1 X2.011 Y3.515 F420.000
G1 X1.680 Y3.688 F420.000
G1 X1.338 Y3.835 F420.000
G1 X0.981 Y3.940 F420.000
G1 X0.692 Y4.004 F420.000
G1 X0.346 Y4.049 F420.000
G1 X0.011 Y4.064 F420.000
G1 X-0.357 Y4.049 F420.000
G1 X-0.703 Y4.011 F420.000
G1 X-1.068 Y3.940 F420.000
G1 X-1.421 Y3.827 F420.000
G1 X-1.707 Y3.714 F420.000
G1 X-2.023 Y3.556 F420.000
G1 X-2.312 Y3.376 F420.000
G1 X-2.579 Y3.177 F420.000
G1 X-2.835 Y2.947 F420.000
G1 X-3.068 Y2.695 F420.000
G1 X-3.278 Y2.429 F420.000
G1 X-3.474 Y2.147 F420.000
G1 X-3.654 Y1.820 F420.000
G1 X-3.801 Y1.492 F420.000
G1 X-3.925 Y1.150 F420.000
G1 X-4.023 Y0.789 F420.000
G1 X-4.075 Y0.429 F420.000
G1 X-4.098 Y0.128 F420.000
G1 X-4.094 Y-0.211 F420.000
G1 X-4.068 Y-0.541 F420.000
G1 X-4.004 Y-0.906 F420.000
G1 X-3.914 Y-1.252 F420.000
G1 X-3.797 Y-1.590 F420.000
G1 X-3.647 Y-1.925 F420.000
G1 X-3.474 Y-2.241 F420.000
G1 X-3.274 Y-2.545 F420.000
G1 X-3.049 Y-2.831 F420.000
G1 X-2.789 Y-3.090 F420.000
G1 X-2.568 Y-3.282 F420.000
G1 X-2.297 Y-3.489 F420.000
G1 X-1.981 Y-3.688 F420.000
G1 X-1.650 Y-3.865 F420.000
G1 X-1.308 Y-4.015 F420.000
G1 X-0.951 Y-4.124 F420.000
G1 X-0.658 Y-4.192 F420.000
G1 X-0.308 Y-4.248 F420.000
G1 X0.060 Y-4.278 F420.000
G1 X0.429 Y-4.278 F420.000
G1 X0.797 Y-4.252 F420.000
G1 X1.162 Y-4.184 F420.000
G1 X1.466 Y-4.105 F420.000
G1 X1.805 Y-3.985 F420.000
G1 X2.124 Y-3.838 F420.000
G1 X2.421 Y-3.673 F420.000
G1 X2.714 Y-3.474 F420.000
G1 X2.985 Y-3.252 F420.000
G1 X3.237 Y-3.008 F420.000
G1 X3.466 Y-2.744 F420.000
G1 X3.673 Y-2.462 F420.000
G1 X3.861 Y-2.169 F420.000
G1 X4.034 Y-1.838 F420.000
G1 X4.177 Y-1.500 F420.000
G1 X4.297 Y-1.147 F420.000
G1 X4.387 Y-0.786 F420.000
G1 X4.447 Y-0.417 F420.000
G1 X4.470 Y-0.045 F420.000
G1 X4.466 Y0.267 F420.000
G1 X4.440 Y0.617 F420.000
G1 X4.372 Y0.981 F420.000
G1 X4.282 Y1.323 F420.000
G1 X4.162 Y1.669 F420.000
G1 X4.011 Y2.008 F420.000
G1 X3.838 Y2.327 F420.000
G1 X3.635 Y2.635 F420.000
G1 X3.410 Y2.925 F420.000
G1 X3.162 Y3.195 F420.000
G1 X2.891 Y3.447 F420.000
G1 X2.602 Y3.673 F420.000
G1 X2.293 Y3.876 F420.000
G1 X1.970 Y4.053 F420.000
G1 X1.632 Y4.203 F420.000
G1 X1.282 Y4.327 F420.000
G1 X0.925 Y4.421 F420.000
G1 X0.560 Y4.485 F420.000
G1 X0.192 Y4.523 F420.000
G1 X-0.173 Y4.530 F420.000
G1 X-0.538 Y4.508 F420.000
G1 X-0.902 Y4.455 F420.000
G1 X-1.259 Y4.372 F420.000
G1 X-1.609 Y4.259 F420.000
G1 X-1.947 Y4.120 F420.000
G1 X-2.274 Y3.951 F420.000
G1 X-2.586 Y3.756 F420.000
G1 X-2.872 Y3.523 F420.000
G1 X-3.083 Y3.327 F420.000
G1 X-3.320 Y3.090 F420.000
G1 X-3.556 Y2.805 F420.000
G1 X-3.771 Y2.500 F420.000
G1 X-3.966 Y2.184 F420.000
G1 X-4.139 Y1.853 F420.000
G1 X-4.286 Y1.511 F420.000
G1 X-4.391 Y1.154 F420.000
G1 X-4.462 Y0.853 F420.000
G1 X-4.515 Y0.485 F420.000
G1 X-4.541 Y0.124 F420.000
G1 X-4.538 Y-0.244 F420.000
G1 X-4.504 Y-0.613 F420.000
G1 X-4.444 Y-0.977 F420.000
G1 X-4.353 Y-1.338 F420.000
G1 X-4.237 Y-1.692 F420.000
G1 X-4.090 Y-2.034 F420.000
G1 X-3.917 Y-2.365 F420.000
G1 X-3.722 Y-2.680 F420.000
G1 X-3.500 Y-2.977 F420.000
G1 X-3.256 Y-3.259 F420.000
G1 X-2.989 Y-3.519 F420.000
G1 X-2.703 Y-3.759 F420.000
G1 X-2.398 Y-3.974 F420.000
G1 X-2.079 Y-4.165 F420.000
G1 X-1.744 Y-4.331 F420.000
G1 X-1.398 Y-4.470 F420.000
G1 X-1.041 Y-4.583 F420.000
G1 X-0.677 Y-4.665 F420.000
G1 X-0.308 Y-4.722 F420.000
G1 X0.060 Y-4.748 F420.000
G1 X0.429 Y-4.744 F420.000
G1 X0.797 Y-4.714 F420.000
G1 X1.162 Y-4.654 F420.000
G1 X1.523 Y-4.564 F420.000
G1 X1.876 Y-4.447 F420.000
G1 X2.218 Y-4.301 F420.000
G1 X2.549 Y-4.128 F420.000
G1 X2.865 Y-3.932 F420.000
G1 X3.162 Y-3.711 F420.000
G1 X3.432 Y-3.455 F420.000
G1 X3.643 Y-3.229 F420.000
G1 X3.868 Y-2.959 F420.000
G1 X4.086 Y-2.658 F420.000
G1 X4.278 Y-2.338 F420.000
G1 X4.451 Y-2.008 F420.000
G1 X4.602 Y-1.665 F420.000
G1 X4.726 Y-1.312 F420.000
G1 X4.816 Y-0.947 F420.000
G1 X4.876 Y-0.609 F420.000
G1 X4.914 Y-0.237 F420.000
G1 X4.925 Y0.132 F420.000
G1 X4.910 Y0.500 F420.000
G1 X4.865 Y0.868 F420.000
G1 X4.793 Y1.233 F420.000
G1 X4.695 Y1.590 F420.000
G1 X4.560 Y1.936 F420.000
G1 X4.425 Y2.226 F420.000
G1 X4.248 Y2.553 F420.000
G1 X4.038 Y2.861 F420.000
G1 X3.816 Y3.154 F420.000
G1 X3.568 Y3.432 F420.000
G1 X3.301 Y3.692 F420.000
G1 X3.015 Y3.932 F420.000
G1 X2.714 Y4.150 F420.000
G1 X2.398 Y4.346 F420.000
G1 X2.068 Y4.519 F420.000
G1 X1.726 Y4.669 F420.000
G1 X1.372 Y4.793 F420.000
G1 X1.011 Y4.891 F420.000
G1 X0.643 Y4.947 F420.000
G1 X0.320 Y4.977 F420.000
G1 X-0.049 Y4.992 F420.000
G1 X-0.417 Y4.981 F420.000
G1 X-0.786 Y4.944 F420.000
G1 X-1.150 Y4.883 F420.000
G1 X-1.508 Y4.782 F420.000
G1 X-1.827 Y4.669 F420.000
G1 X-2.165 Y4.519 F420.000
G1 X-2.496 Y4.346 F420.000
G1 X-2.812 Y4.150 F420.000
G1 X-3.113 Y3.932 F420.000
G1 X-3.387 Y3.680 F420.000
G1 X-3.605 Y3.451 F420.000
G1 X-3.850 Y3.169 F420.000
G1 X-4.075 Y2.872 F420.000
G1 X-4.278 Y2.560 F420.000
G1 X-4.462 Y2.237 F420.000
G1 X-4.624 Y1.902 F420.000
G1 X-4.748 Y1.549 F420.000
G1 X-4.850 Y1.214 F420.000
G1 X-4.929 Y0.850 F420.000
G1 X-4.977 Y0.477 F420.000
G1 X-5.004 Y0.105 F420.000
G1 X-5.000 Y-0.263 F420.000
G1 X-4.966 Y-0.632 F420.000
G1 X-4.906 Y-0.996 F420.000
G1 X-4.827 Y-1.357 F420.000
G1 X-4.718 Y-1.711 F420.000
G1 X-4.583 Y-2.056 F420.000
G1 X-4.425 Y-2.395 F420.000
G1 X-4.244 Y-2.718 F420.000
G1 X-4.041 Y-3.030 F420.000
G1 X-3.816 Y-3.327 F420.000
G1 X-3.571 Y-3.605 F420.000
G1 X-3.308 Y-3.868 F420.000
G1 X-3.026 Y-4.113 F420.000
G1 X-2.722 Y-4.327 F420.000
G1 X-2.425 Y-4.508 F420.000
G1 X-2.090 Y-4.677 F420.000
G1 X-1.748 Y-4.827 F420.000
G1 X-1.395 Y-4.951 F420.000
G1 X-1.038 Y-5.056 F420.000
G1 X-0.673 Y-5.139 F420.000
G1 X-0.305 Y-5.195 F420.000
G1 X0.064 Y-5.218 F420.000
G1 X0.429 Y-5.218 F420.000
G1 X0.797 Y-5.188 F420.000
G1 X1.162 Y-5.132 F420.000
G1 X1.523 Y-5.049 F420.000
G1 X1.876 Y-4.940 F420.000
G1 X2.222 Y-4.805 F420.000
G1 X2.556 Y-4.643 F420.000
G1 X2.880 Y-4.459 F420.000
G1 X3.188 Y-4.252 F420.000
G1 X3.481 Y-4.023 F420.000
G1 X3.756 Y-3.771 F420.000
G1 X4.011 Y-3.500 F420.000
G1 X4.252 Y-3.214 F420.000
G1 X4.470 Y-2.910 F420.000
G1 X4.665 Y-2.594 F420.000
G1 X4.842 Y-2.263 F420.000
G1 X4.992 Y-1.921 F420.000
G1 X5.120 Y-1.571 F420.000
G1 X5.226 Y-1.214 F420.000
G1 X5.305 Y-0.850 F420.000
G1 X5.357 Y-0.481 F420.000
G1 X5.387 Y-0.109 F420.000
G1 X5.391 Y0.259 F420.000
G1 X5.368 Y0.628 F420.000
G1 X5.320 Y0.996 F420.000
G1 X5.248 Y1.361 F420.000
G1 X5.150 Y1.718 F420.000
G1 X5.015 Y2.064 F420.000
G1 X4.872 Y2.376 F420.000
G1 X4.699 Y2.703 F420.000
G1 X4.496 Y3.015 F420.000
G1 X4.278 Y3.316 F420.000
G1 X4.038 Y3.602 F420.000
G1 X3.782 Y3.872 F420.000
G1 X3.511 Y4.128 F420.000
G1 X3.226 Y4.365 F420.000
G1 X2.921 Y4.579 F420.000
G1 X2.605 Y4.774 F420.000
G1 X2.274 Y4.947 F420.000
G1 X1.932 Y5.098 F420.000
G1 X1.583 Y5.226 F420.000
G1 X1.222 Y5.316 F420.000
G1 X0.880 Y5.380 F420.000
G1 X0.511 Y5.432 F420.000
G1 X0.139 Y5.459 F420.000
G1 X-0.229 Y5.459 F420.000
G1 X-0.598 Y5.440 F420.000
G1 X-0.966 Y5.398 F420.000
G1 X-1.327 Y5.316 F420.000
G1 X-1.669 Y5.222 F420.000
G1 X-2.019 Y5.094 F420.000
G1 X-2.361 Y4.947 F420.000
G1 X-2.692 Y4.774 F420.000
G1 X-3.008 Y4.583 F420.000
G1 X-3.312 Y4.368 F420.000
G1 X-3.590 Y4.124 F420.000
G1 X-3.838 Y3.883 F420.000
G1 X-4.094 Y3.613 F420.000
G1 X-4.331 Y3.323 F420.000
G1 X-4.549 Y3.019 F420.000
G1 X-4.748 Y2.703 F420.000
G1 X-4.929 Y2.376 F420.000
G1 X-5.079 Y2.034 F420.000
G1 X-5.211 Y1.684 F420.000
G1 X-5.308 Y1.323 F420.000
G1 X-5.383 Y0.974 F420.000
G1 X-5.436 Y0.605 F420.000
G1 X-5.466 Y0.233 F420.000
G1 X-5.470 Y-0.135 F420.000
G1 X-5.447 Y-0.504 F420.000
G1 X-5.402 Y-0.872 F420.000
G1 X-5.331 Y-1.237 F420.000
G1 X-5.237 Y-1.594 F420.000
G1 X-5.120 Y-1.947 F420.000
G1 X-4.981 Y-2.289 F420.000
G1 X-4.823 Y-2.628 F420.000
G1 X-4.643 Y-2.951 F420.000
G1 X-4.444 Y-3.263 F420.000
G1 X-4.226 Y-3.564 F420.000
G1 X-3.989 Y-3.850 F420.000
G1 X-3.733 Y-4.120 F420.000
G1 X-3.455 Y-4.368 F420.000
G1 X-3.154 Y-4.590 F420.000
G1 X-2.861 Y-4.782 F420.000
G1 X-2.538 Y-4.970 F420.000
G1 X-2.203 Y-5.139 F420.000
G1 X-1.857 Y-5.282 F420.000
G1 X-1.504 Y-5.406 F420.000
G1 X-1.147 Y-5.511 F420.000
G1 X-0.782 Y-5.590 F420.000
G1 X-0.414 Y-5.650 F420.000
G1 X-0.041 Y-5.688 F420.000
G1 X0.327 Y-5.699 F420.000
G1 X0.695 Y-5.688 F420.000
G1 X1.064 Y-5.632 F420.000
G1 X1.383 Y-5.571 F420.000
G1 X1.741 Y-5.474 F420.000
G1 X2.094 Y-5.361 F420.000
G1 X2.436 Y-5.218 F420.000
G1 X2.771 Y-5.053 F420.000
G1 X3.094 Y-4.872 F420.000
G1 X3.402 Y-4.669 F420.000
G1 X3.699 Y-4.444 F420.000
G1 X3.981 Y-4.203 F420.000
G1 X4.248 Y-3.944 F420.000
G1 X4.496 Y-3.665 F420.000
G1 X4.726 Y-3.372 F420.000
G1 X4.936 Y-3.064 F420.000
G1 X5.128 Y-2.744 F420.000
G1 X5.297 Y-2.414 F420.000
G1 X5.447 Y-2.071 F420.000
G1 X5.575 Y-1.722 F420.000
G1 X5.680 Y-1.365 F420.000
G1 X5.763 Y-1.000 F420.000
G1 X5.820 Y-0.632 F420.000
G1 X5.853 Y-0.259 F420.000
G1 X5.865 Y0.109 F420.000
G1 X5.850 Y0.477 F420.000
G1 X5.820 Y0.846 F420.000
G1 X5.763 Y1.211 F420.000
G1 X5.684 Y1.571 F420.000
G1 X5.571 Y1.925 F420.000
G1 X5.444 Y2.263 F420.000
G1 X5.286 Y2.602 F420.000
G1 X5.109 Y2.929 F420.000
G1 X4.910 Y3.244 F420.000
G1 X4.692 Y3.545 F420.000
G1 X4.462 Y3.838 F420.000
G1 X4.211 Y4.113 F420.000
G1 X3.944 Y4.372 F420.000
G1 X3.665 Y4.620 F420.000
G1 X3.372 Y4.850 F420.000
G1 X3.064 Y5.060 F420.000
G1 X2.744 Y5.252 F420.000
G1 X2.406 Y5.410 F420.000
G1 X2.060 Y5.553 F420.000
G1 X1.707 Y5.673 F420.000
G1 X1.346 Y5.771 F420.000
G1 X0.981 Y5.846 F420.000
G1 X0.613 Y5.898 F420.000
G1 X0.241 Y5.929 F420.000
G1 X-0.128 Y5.944 F420.000
G1 X-0.496 Y5.932 F420.000
G1 X-0.865 Y5.898 F420.000
G1 X-1.229 Y5.827 F420.000
G1 X-1.583 Y5.741 F420.000
G1 X-1.940 Y5.635 F420.000
G1 X-2.286 Y5.504 F420.000
G1 X-2.624 Y5.353 F420.000
G1 X-2.955 Y5.184 F420.000
G1 X-3.267 Y4.985 F420.000
G1 X-3.571 Y4.771 F420.000
G1 X-3.861 Y4.534 F420.000
G1 X-4.132 Y4.278 F420.000
G1 X-4.387 Y4.008 F420.000
G1 X-4.628 Y3.726 F420.000
G1 X-4.846 Y3.425 F420.000
G1 X-5.049 Y3.113 F420.000
G1 X-5.233 Y2.789 F420.000
G1 X-5.406 Y2.459 F420.000
G1 X-5.556 Y2.117 F420.000
G1 X-5.673 Y1.763 F420.000
G1 X-5.778 Y1.406 F420.000
G1 X-5.857 Y1.041 F420.000
G1 X-5.910 Y0.673 F420.000
G1 X-5.944 Y0.301 F420.000
G1 X-5.951 Y-0.068 F420.000
G1 X-5.932 Y-0.436 F420.000
G1 X-5.891 Y-0.805 F420.000
G1 X-5.827 Y-1.169 F420.000
G1 X-5.748 Y-1.530 F420.000
G1 X-5.643 Y-1.887 F420.000
G1 X-5.515 Y-2.237 F420.000
G1 X-5.368 Y-2.579 F420.000
G1 X-5.203 Y-2.910 F420.000
G1 X-5.023 Y-3.233 F420.000
G1 X-4.823 Y-3.545 F420.000
G1 X-4.605 Y-3.846 F420.000
G1 X-4.372 Y-4.135 F420.000
G1 X-4.113 Y-4.402 F420.000
G1 X-3.842 Y-4.658 F420.000
G1 X-3.553 Y-4.891 F420.000
G1 X-3.248 Y-5.105 F420.000
G1 X-2.929 Y-5.301 F420.000
G1 X-2.602 Y-5.477 F420.000
G1 X-2.263 Y-5.635 F420.000
G1 X-1.917 Y-5.771 F420.000
G1 X-1.564 Y-5.887 F420.000
G1 X-1.203 Y-5.985 F420.000
G1 X-0.838 Y-6.068 F420.000
G1 X-0.470 Y-6.128 F420.000
G1 X-0.098 Y-6.165 F420.000
G1 X0.271 Y-6.177 F420.000
G1 X0.639 Y-6.169 F420.000
G1 X1.008 Y-6.124 F420.000
G1 X1.372 Y-6.060 F420.000
G1 X1.733 Y-5.974 F420.000
G1 X2.086 Y-5.865 F420.000
G1 X2.432 Y-5.733 F420.000
G1 X2.774 Y-5.586 F420.000
G1 X3.105 Y-5.417 F420.000
G1 X3.425 Y-5.226 F420.000
G1 X3.733 Y-5.019 F420.000
G1 X4.026 Y-4.793 F420.000
G1 X4.308 Y-4.549 F420.000
G1 X4.575 Y-4.289 F420.000
G1 X4.827 Y-4.015 F420.000
G1 X5.060 Y-3.726 F420.000
G1 X5.278 Y-3.421 F420.000
G1 X5.477 Y-3.105 F420.000
G1 X5.658 Y-2.778 F420.000
G1 X5.816 Y-2.440 F420.000
G1 X5.955 Y-2.094 F420.000
G1 X6.075 Y-1.741 F420.000
G1 X6.173 Y-1.380 F420.000
G1 X6.248 Y-1.015 F420.000
G1 X6.305 Y-0.647 F420.000
G1 X6.338 Y-0.274 F420.000
G1 X6.350 Y0.094 F420.000
G1 X6.338 Y0.462 F420.000
G1 X6.305 Y0.831 F420.000
G1 X6.248 Y1.195 F420.000
G1 X6.173 Y1.556 F420.000
G1 X6.075 Y1.914 F420.000
G1 X5.955 Y2.263 F420.000
G1 X5.816 Y2.605 F420.000
G1 X5.654 Y2.940 F420.000
G1 X5.474 Y3.263 F420.000
G1 X5.274 Y3.575 F420.000
G1 X5.056 Y3.876 F420.000
G1 X4.820 Y4.165 F420.000
G1 X4.568 Y4.440 F420.000
G1 X4.301 Y4.699 F420.000
G1 X4.026 Y4.947 F420.000
G1 X3.733 Y5.177 F420.000
G1 X3.429 Y5.391 F420.000
G1 X3.113 Y5.586 F420.000
G1 X2.786 Y5.767 F420.000
G1 X2.444 Y5.914 F420.000
G1 X2.094 Y6.045 F420.000
G1 X1.741 Y6.162 F420.000
G1 X1.380 Y6.256 F420.000
G1 X1.015 Y6.331 F420.000
G1 X0.647 Y6.387 F420.000
G1 X0.274 Y6.421 F420.000
G1 X-0.094 Y6.436 F420.000
G1 X-0.462 Y6.417 F420.000
G1 X-0.831 Y6.383 F420.000
G1 X-1.195 Y6.323 F420.000
G1 X-1.560 Y6.248 F420.000
G1 X-1.917 Y6.150 F420.000
G1 X-2.271 Y6.030 F420.000
G1 X-2.617 Y5.895 F420.000
G1 X-2.951 Y5.737 F420.000
G1 X-3.278 Y5.560 F420.000
G1 X-3.586 Y5.353 F420.000
G1 X-3.887 Y5.135 F420.000
G1 X-4.173 Y4.895 F420.000
G1 X-4.444 Y4.643 F420.000
G1 X-4.699 Y4.372 F420.000
G1 X-4.944 Y4.090 F420.000
G1 X-5.169 Y3.793 F420.000
G1 X-5.380 Y3.485 F420.000
G1 X-5.575 Y3.169 F420.000
G1 X-5.752 Y2.842 F420.000
G1 X-5.910 Y2.504 F420.000
G1 X-6.053 Y2.158 F420.000
G1 X-6.177 Y1.805 F420.000
G1 X-6.263 Y1.440 F420.000
G1 X-6.335 Y1.071 F420.000
G1 X-6.391 Y0.703 F420.000
G1 X-6.421 Y0.331 F420.000
G1 X-6.432 Y-0.038 F420.000
G1 X-6.425 Y-0.406 F420.000
G1 X-6.395 Y-0.774 F420.000
G1 X-6.342 Y-1.143 F420.000
G1 X-6.271 Y-1.508 F420.000
G1 X-6.165 Y-1.865 F420.000
G1 X-6.045 Y-2.214 F420.000
G1 X-5.910 Y-2.560 F420.000
G1 X-5.756 Y-2.898 F420.000
G1 X-5.583 Y-3.226 F420.000
G1 X-5.395 Y-3.545 F420.000
G1 X-5.192 Y-3.857 F420.000
G1 X-4.970 Y-4.158 F420.000
G1 X-4.737 Y-4.447 F420.000
G1 X-4.481 Y-4.718 F420.000
G1 X-4.214 Y-4.977 F420.000
G1 X-3.921 Y-5.211 F420.000
G1 X-3.620 Y-5.429 F420.000
G1 X-3.308 Y-5.632 F420.000
G1 X-2.985 Y-5.820 F420.000
G1 X-2.650 Y-5.985 F420.000
G1 X-2.308 Y-6.135 F420.000
G1 X-1.959 Y-6.267 F420.000
G1 X-1.602 Y-6.380 F420.000
G1 X-1.241 Y-6.474 F420.000
G1 X-0.872 Y-6.545 F420.000
G1 X-0.504 Y-6.605 F420.000
G1 X-0.132 Y-6.643 F420.000
G1 X0.237 Y-6.662 F420.000
G1 X0.605 Y-6.650 F420.000
G1 X0.974 Y-6.624 F420.000
G1 X1.338 Y-6.560 F420.000
G1 X1.699 Y-6.477 F420.000
G1 X2.056 Y-6.380 F420.000
G1 X2.410 Y-6.263 F420.000
G1 X2.752 Y-6.124 F420.000
G1 X3.086 Y-5.966 F420.000
G1 X3.414 Y-5.789 F420.000
G1 X3.729 Y-5.594 F420.000
G1 X4.034 Y-5.383 F420.000
G1 X4.327 Y-5.154 F420.000
G1 X4.609 Y-4.910 F420.000
G1 X4.880 Y-4.654 F420.000
G1 X5.135 Y-4.383 F420.000
G1 X5.376 Y-4.102 F420.000
G1 X5.605 Y-3.808 F420.000
G1 X5.816 Y-3.504 F420.000
G1 X6.000 Y-3.180 F420.000
G1 X6.173 Y-2.850 F420.000
G1 X6.323 Y-2.508 F420.000
G1 X6.455 Y-2.158 F420.000
G1 X6.564 Y-1.801 F420.000
G1 X6.654 Y-1.436 F420.000
G1 X6.733 Y-1.071 F420.000
G1 X6.786 Y-0.703 F420.000
G1 X6.820 Y-0.331 F420.000
G1 X6.838 Y0.038 F420.000
G1 X6.835 Y0.406 F420.000
G1 X6.812 Y0.774 F420.000
G1 X6.759 Y1.143 F420.000
G1 X6.692 Y1.508 F420.000
G1 X6.602 Y1.868 F420.000
G1 X6.485 Y2.222 F420.000
G1 X6.357 Y2.571 F420.000
G1 X6.207 Y2.910 F420.000
G1 X6.038 Y3.241 F420.000
G1 X5.857 Y3.564 F420.000
G1 X5.654 Y3.876 F420.000
G1 X5.436 Y4.177 F420.000
G1 X5.207 Y4.470 F420.000
G1 X4.959 Y4.748 F420.000
G1 X4.699 Y5.015 F420.000
G1 X4.425 Y5.267 F420.000
G1 X4.139 Y5.504 F420.000
G1 X3.842 Y5.726 F420.000
G1 X3.523 Y5.921 F420.000
G1 X3.195 Y6.105 F420.000
G1 X2.857 Y6.267 F420.000
G1 X2.515 Y6.414 F420.000
G1 X2.162 Y6.538 F420.000
G1 X1.444 Y6.741 F420.000
G1 X1.075 Y6.812 F420.000
G1 X0.707 Y6.868 F420.000
G1 X0.335 Y6.902 F420.000
G1 X-0.034 Y6.917 F420.000
G1 X-0.402 Y6.914 F420.000
G1 X-0.771 Y6.887 F420.000
G1 X-1.139 Y6.842 F420.000
G1 X-1.504 Y6.778 F420.000
G1 X-1.865 Y6.695 F420.000
G1 X-2.218 Y6.579 F420.000
G1 X-2.564 Y6.451 F420.000
G1 X-2.906 Y6.305 F420.000
G1 X-3.237 Y6.132 F420.000
G1 X-3.556 Y5.944 F420.000
G1 X-3.865 Y5.737 F420.000
G1 X-4.165 Y5.519 F420.000
G1 X-4.455 Y5.286 F420.000
G1 X-4.733 Y5.038 F420.000
G1 X-4.996 Y4.774 F420.000
G1 X-5.248 Y4.500 F420.000
G1 X-5.485 Y4.211 F420.000
G1 X-5.707 Y3.910 F420.000
G1 X-5.914 Y3.598 F420.000
G1 X-6.090 Y3.267 F420.000
G1 X-6.406 Y2.594 F420.000
G1 X-6.538 Y2.244 F420.000
G1 X-6.654 Y1.887 F420.000
G1 X-6.741 Y1.523 F420.000
G1 X-6.812 Y1.154 F420.000
G1 X-6.861 Y0.782 F420.000
G1 X-6.898 Y0.410 F420.000
G1 X-6.914 Y0.038 F420.000
G1 X-6.910 Y-0.331 F420.000
G1 X-6.891 Y-0.699 F420.000
G1 X-6.850 Y-1.068 F420.000
G1 X-6.789 Y-1.432 F420.000
G1 X-6.699 Y-1.793 F420.000
G1 X-6.598 Y-2.150 F420.000
G1 X-6.474 Y-2.500 F420.000
G1 X-6.327 Y-2.842 F420.000
G1 X-5.989 Y-3.504 F420.000
G1 X-5.801 Y-3.823 F420.000
G1 X-5.380 Y-4.436 F420.000
G1 X-5.139 Y-4.722 F420.000
G1 X-4.891 Y-4.996 F420.000
G1 X-4.628 Y-5.259 F420.000
G1 X-4.350 Y-5.508 F420.000
G1 X-4.049 Y-5.729 F420.000
G1 X-3.741 Y-5.940 F420.000
G1 X-3.421 Y-6.135 F420.000
G1 X-3.094 Y-6.316 F420.000
G1 X-2.756 Y-6.477 F420.000
G1 X-2.410 Y-6.620 F420.000
G1 X-2.060 Y-6.748 F420.000
G1 X-1.703 Y-6.857 F420.000
G1 X-1.342 Y-6.947 F420.000
G1 X-0.605 Y-7.083 F420.000
G1 X-0.233 Y-7.124 F420.000
G1 X0.135 Y-7.150 F420.000
G1 X0.504 Y-7.150 F420.000
G1 X0.872 Y-7.117 F420.000
G1 X1.241 Y-7.071 F420.000
G1 X1.605 Y-7.004 F420.000
G1 X1.966 Y-6.917 F420.000
G1 X2.320 Y-6.812 F420.000
G1 X2.669 Y-6.688 F420.000
G1 X3.011 Y-6.545 F420.000
G1 X3.346 Y-6.383 F420.000
G1 X3.673 Y-6.203 F420.000
G1 X3.989 Y-6.008 F420.000
G1 X4.590 Y-5.571 F420.000
G1 X4.872 Y-5.331 F420.000
G1 X5.143 Y-5.075 F420.000
G1 X5.402 Y-4.808 F420.000
G1 X5.647 Y-4.530 F420.000
G1 X5.880 Y-4.241 F420.000
G1 X6.098 Y-3.940 F420.000
G1 X6.301 Y-3.628 F420.000
G1 X6.489 Y-3.305 F420.000
G1 X6.662 Y-2.974 F420.000
G1 X6.808 Y-2.632 F420.000
G1 X6.940 Y-2.282 F420.000
G1 X7.053 Y-1.925 F420.000
G1 X7.139 Y-1.560 F420.000
G1 X7.211 Y-1.192 F420.000
G1 X7.267 Y-0.823 F420.000
G1 X7.301 Y-0.451 F420.000
G1 X7.323 Y-0.079 F420.000
G1 X7.327 Y0.289 F420.000
G1 X7.312 Y0.658 F420.000
G1 X7.282 Y1.026 F420.000
G1 X7.218 Y1.391 F420.000
G1 X7.143 Y1.756 F420.000
G1 X7.045 Y2.113 F420.000
G1 X6.929 Y2.466 F420.000
G1 X6.793 Y2.812 F420.000
G1 X6.639 Y3.150 F420.000
G1 X6.470 Y3.481 F420.000
G1 X6.086 Y4.117 F420.000
G1 X5.872 Y4.421 F420.000
G1 X5.643 Y4.714 F420.000
G1 X5.402 Y5.000 F420.000
G1 X5.150 Y5.271 F420.000
G1 X4.883 Y5.530 F420.000
G1 X4.598 Y5.771 F420.000
G1 X4.305 Y6.000 F420.000
G1 X4.000 Y6.214 F420.000
G1 X3.680 Y6.406 F420.000
G1 X3.353 Y6.583 F420.000
G1 X3.015 Y6.744 F420.000
G1 X2.669 Y6.887 F420.000
G1 X2.316 Y7.011 F420.000
G1 X1.959 Y7.117 F420.000
G1 X1.598 Y7.211 F420.000
G1 X1.229 Y7.282 F420.000
G1 X0.861 Y7.338 F420.000
G1 X0.489 Y7.380 F420.000
G1 X0.117 Y7.402 F420.000
G1 X-0.252 Y7.406 F420.000
G1 X-0.620 Y7.395 F420.000
G1 X-0.989 Y7.365 F420.000
G1 X-1.357 Y7.316 F420.000
G1 X-1.718 Y7.233 F420.000
G1 X-2.075 Y7.139 F420.000
G1 X-2.429 Y7.023 F420.000
G1 X-2.778 Y6.895 F420.000
G1 X-3.117 Y6.744 F420.000
G1 X-3.447 Y6.579 F420.000
G1 X-3.771 Y6.398 F420.000
G1 X-4.083 Y6.199 F420.000
G1 X-4.387 Y5.985 F420.000
G1 X-4.680 Y5.756 F420.000
G1 X-4.962 Y5.511 F420.000
G1 X-5.233 Y5.256 F420.000
G1 X-5.489 Y4.985 F420.000
G1 X-5.729 Y4.703 F420.000
G1 X-5.959 Y4.410 F420.000
G1 X-6.173 Y4.105 F420.000
G1 X-6.368 Y3.789 F420.000
G1 X-6.549 Y3.462 F420.000
G1 X-6.714 Y3.128 F420.000
G1 X-6.861 Y2.786 F420.000
G1 X-6.992 Y2.436 F420.000
G1 X-7.105 Y2.079 F420.000
G1 X-7.199 Y1.718 F420.000
G1 X-7.278 Y1.353 F420.000
G1 X-7.338 Y0.985 F420.000
G1 X-7.380 Y0.613 F420.000
G1 X-7.402 Y0.241 F420.000
G1 X-7.406 Y-0.128 F420.000
G1 X-7.391 Y-0.496 F420.000
G1 X-7.365 Y-0.865 F420.000
G1 X-7.320 Y-1.233 F420.000
G1 X-7.256 Y-1.598 F420.000
G1 X-7.165 Y-1.959 F420.000
G1 X-7.060 Y-2.316 F420.000
G1 X-6.936 Y-2.665 F420.000
G1 X-6.789 Y-3.008 F420.000
G1 X-6.459 Y-3.673 F420.000
G1 X-6.274 Y-3.996 F420.000
G1 X-6.075 Y-4.308 F420.000
G1 X-5.865 Y-4.613 F420.000
G1 X-5.639 Y-4.910 F420.000
G1 X-5.391 Y-5.188 F420.000
G1 X-5.135 Y-5.459 F420.000
G1 X-4.857 Y-5.707 F420.000
G1 X-4.571 Y-5.947 F420.000
G1 X-4.271 Y-6.169 F420.000
G1 X-3.962 Y-6.376 F420.000
G1 X-3.643 Y-6.568 F420.000
G1 X-3.316 Y-6.744 F420.000
G1 X-2.977 Y-6.906 F420.000
G1 X-2.635 Y-7.056 F420.000
G1 X-2.286 Y-7.188 F420.000
G1 X-1.932 Y-7.305 F420.000
G1 X-1.571 Y-7.406 F420.000
G1 X-1.207 Y-7.492 F420.000
G1 X-0.838 Y-7.560 F420.000
G1 X-0.470 Y-7.613 F420.000
G1 X-0.098 Y-7.632 F420.000
G1 X0.271 Y-7.639 F420.000
G1 X0.639 Y-7.624 F420.000
G1 X1.008 Y-7.594 F420.000
G1 X1.376 Y-7.545 F420.000
G1 X1.741 Y-7.477 F420.000
G1 X2.102 Y-7.395 F420.000
G1 X2.459 Y-7.293 F420.000
G1 X2.808 Y-7.173 F420.000
G1 X3.154 Y-7.038 F420.000
G1 X3.492 Y-6.883 F420.000
G1 X3.816 Y-6.703 F420.000
G1 X4.132 Y-6.511 F420.000
G1 X4.440 Y-6.308 F420.000
G1 X4.741 Y-6.090 F420.000
G1 X5.030 Y-5.857 F420.000
G1 X5.308 Y-5.613 F420.000
G1 X5.575 Y-5.353 F420.000
G1 X5.831 Y-5.083 F420.000
G1 X6.075 Y-4.801 F420.000
G1 X6.305 Y-4.508 F420.000
G1 X6.523 Y-4.207 F420.000
G1 X6.726 Y-3.895 F420.000
G1 X6.914 Y-3.575 F420.000
G1 X7.075 Y-3.241 F420.000
G1 X7.226 Y-2.898 F420.000
G1 X7.357 Y-2.549 F420.000
G1 X7.477 Y-2.195 F420.000
G1 X7.575 Y-1.835 F420.000
G1 X7.658 Y-1.470 F420.000
G1 X7.726 Y-1.102 F420.000
G1 X7.774 Y-0.729 F420.000
G1 X7.827 Y0.011 F420.000
G1 X7.827 Y0.380 F420.000
G1 X7.812 Y0.748 F420.000
G1 X7.767 Y1.117 F420.000
G1 X7.711 Y1.481 F420.000
G1 X7.635 Y1.846 F420.000
G1 X7.538 Y2.203 F420.000
G1 X7.425 Y2.556 F420.000
G1 X7.289 Y2.902 F420.000
G1 X7.143 Y3.244 F420.000
G1 X6.805 Y3.902 F420.000
G1 X6.613 Y4.222 F420.000
G1 X6.406 Y4.530 F420.000
G1 X6.188 Y4.831 F420.000
G1 X5.959 Y5.124 F420.000
G1 X5.714 Y5.406 F420.000
G1 X5.459 Y5.677 F420.000
G1 X5.184 Y5.929 F420.000
G1 X4.902 Y6.169 F420.000
G1 X4.605 Y6.395 F420.000
G1 X4.297 Y6.602 F420.000
G1 X3.977 Y6.797 F420.000
G1 X3.316 Y7.143 F420.000
G1 X2.974 Y7.289 F420.000
G1 X2.624 Y7.421 F420.000
G1 X2.271 Y7.541 F420.000
G1 X1.910 Y7.643 F420.000
G1 X1.545 Y7.729 F420.000
G1 X1.177 Y7.797 F420.000
G1 X0.808 Y7.850 F420.000
G1 X0.436 Y7.883 F420.000
G1 X0.064 Y7.902 F420.000
G1 X-0.305 Y7.906 F420.000
G1 X-0.673 Y7.891 F420.000
G1 X-1.041 Y7.861 F420.000
G1 X-1.410 Y7.812 F420.000
G1 X-1.774 Y7.737 F420.000
G1 X-2.135 Y7.650 F420.000
G1 X-2.489 Y7.541 F420.000
G1 X-2.838 Y7.414 F420.000
G1 X-3.180 Y7.271 F420.000
G1 X-3.515 Y7.109 F420.000
G1 X-4.158 Y6.741 F420.000
G1 X-4.771 Y6.320 F420.000
G1 X-5.064 Y6.090 F420.000
G1 X-5.346 Y5.846 F420.000
G1 X-5.613 Y5.586 F420.000
G1 X-5.868 Y5.316 F420.000
G1 X-6.113 Y5.034 F420.000
G1 X-6.342 Y4.741 F420.000
G1 X-6.560 Y4.436 F420.000
G1 X-6.763 Y4.124 F420.000
G1 X-6.947 Y3.801 F420.000
G1 X-7.117 Y3.470 F420.000
G1 X-7.271 Y3.132 F420.000
G1 X-7.410 Y2.786 F420.000
G1 X-7.534 Y2.432 F420.000
G1 X-7.639 Y2.075 F420.000
G1 X-7.729 Y1.711 F420.000
G1 X-7.801 Y1.342 F420.000
G1 X-7.853 Y0.974 F420.000
G1 X-7.891 Y0.602 F420.000
G1 X-7.910 Y0.229 F420.000
G1 X-7.910 Y-0.139 F420.000
G1 X-7.895 Y-0.508 F420.000
G1 X-7.868 Y-0.876 F420.000
G1 X-7.823 Y-1.244 F420.000
G1 X-7.763 Y-1.609 F420.000
G1 X-7.688 Y-1.974 F420.000
G1 X-7.462 Y-2.680 F420.000
G1 X-7.177 Y-3.368 F420.000
G1 X-6.838 Y-4.026 F420.000
G1 X-6.650 Y-4.346 F420.000
G1 X-6.237 Y-4.962 F420.000
G1 X-5.756 Y-5.530 F420.000
G1 X-5.500 Y-5.801 F420.000
G1 X-5.226 Y-6.053 F420.000
G1 X-4.944 Y-6.293 F420.000
G1 X-4.650 Y-6.523 F420.000
G1 X-4.346 Y-6.737 F420.000
G1 X-4.030 Y-6.936 F420.000
G1 X-3.703 Y-7.120 F420.000
G1 X-3.368 Y-7.286 F420.000
G1 X-2.680 Y-7.579 F420.000
G1 X-2.327 Y-7.699 F420.000
G1 X-1.609 Y-7.910 F420.000
G1 X-1.244 Y-7.992 F420.000
G1 X-0.876 Y-8.060 F420.000
G1 X-0.132 Y-8.128 F420.000
G1 X0.237 Y-8.139 F420.000
G1 X0.605 Y-8.128 F420.000
G1 X0.974 Y-8.102 F420.000
G1 X1.342 Y-8.056 F420.000
G1 X1.707 Y-7.996 F420.000
G1 X2.068 Y-7.917 F420.000
G1 X2.425 Y-7.823 F420.000
G1 X2.778 Y-7.714 F420.000
G1 X3.128 Y-7.590 F420.000
G1 X3.470 Y-7.451 F420.000
G1 X3.801 Y-7.286 F420.000
G1 X4.128 Y-7.109 F420.000
G1 X4.444 Y-6.914 F420.000
G1 X4.752 Y-6.707 F420.000
G1 X5.342 Y-6.256 F420.000
G1 X5.620 Y-6.011 F420.000
G1 X5.891 Y-5.756 F420.000
G1 X6.150 Y-5.489 F420.000
G1 X6.398 Y-5.211 F420.000
G1 X6.635 Y-4.921 F420.000
G1 X6.861 Y-4.624 F420.000
G1 X7.071 Y-4.316 F420.000
G1 X7.259 Y-3.992 F420.000
G1 X7.436 Y-3.665 F420.000
G1 X7.594 Y-3.327 F420.000
G1 X7.733 Y-2.981 F420.000
G1 X7.857 Y-2.628 F420.000
G1 X7.970 Y-2.271 F420.000
G1 X8.064 Y-1.910 F420.000
G1 X8.143 Y-1.545 F420.000
G1 X8.263 Y-0.808 F420.000
G1 X8.301 Y-0.436 F420.000
G1 X8.327 Y-0.064 F420.000
G1 X8.327 Y0.305 F420.000
G1 X8.316 Y0.673 F420.000
G1 X8.286 Y1.041 F420.000
G1 X8.237 Y1.410 F420.000
G1 X8.173 Y1.774 F420.000
G1 X8.079 Y2.132 F420.000
G1 X7.974 Y2.485 F420.000
G1 X7.853 Y2.835 F420.000
G1 X7.718 Y3.180 F420.000
G1 X7.564 Y3.519 F420.000
G1 X7.398 Y3.850 F420.000
G1 X7.030 Y4.492 F420.000
G1 X6.823 Y4.801 F420.000
G1 X6.380 Y5.395 F420.000
G1 X6.139 Y5.680 F420.000
G1 X5.887 Y5.955 F420.000
G1 X5.617 Y6.211 F420.000
G1 X5.338 Y6.459 F420.000
G1 X5.049 Y6.695 F420.000
G1 X4.748 Y6.914 F420.000
G1 X4.440 Y7.120 F420.000
G1 X4.120 Y7.312 F420.000
G1 X3.793 Y7.489 F420.000
G1 X3.459 Y7.650 F420.000
G1 X3.117 Y7.797 F420.000
G1 X2.767 Y7.925 F420.000
G1 X2.410 Y8.038 F420.000
G1 X2.049 Y8.135 F420.000
G1 X1.316 Y8.286 F420.000
G1 X0.947 Y8.338 F420.000
G1 X0.575 Y8.376 F420.000
G1 X0.203 Y8.402 F420.000
G1 X-0.165 Y8.410 F420.000
G1 X-0.534 Y8.402 F420.000
G1 X-0.902 Y8.380 F420.000
G1 X-1.271 Y8.342 F420.000
G1 X-2.000 Y8.199 F420.000
G1 X-2.357 Y8.105 F420.000
G1 X-2.711 Y7.989 F420.000
G1 X-3.056 Y7.857 F420.000
G1 X-3.729 Y7.549 F420.000
G1 X-4.380 Y7.188 F420.000
G1 X-4.695 Y6.989 F420.000
G1 X-5.000 Y6.778 F420.000
G1 X-5.297 Y6.556 F420.000
G1 X-5.846 Y6.056 F420.000
G1 X-6.105 Y5.789 F420.000
G1 X-6.357 Y5.515 F420.000
G1 X-6.594 Y5.229 F420.000
G1 X-6.820 Y4.932 F420.000
G1 X-7.034 Y4.628 F420.000
G1 X-7.233 Y4.312 F420.000
G1 X-7.421 Y3.989 F420.000
G1 X-7.594 Y3.658 F420.000
G1 X-7.741 Y3.316 F420.000
G1 X-7.876 Y2.970 F420.000
G1 X-8.000 Y2.617 F420.000
G1 X-8.109 Y2.259 F420.000
G1 X-8.203 Y1.898 F420.000
G1 X-8.282 Y1.534 F420.000
G1 X-8.346 Y1.165 F420.000
G1 X-8.383 Y0.793 F420.000
G1 X-8.410 Y0.421 F420.000
G1 X-8.417 Y0.049 F420.000
G1 X-8.414 Y-0.320 F420.000
G1 X-8.391 Y-0.688 F420.000
G1 X-8.353 Y-1.056 F420.000
G1 X-8.301 Y-1.425 F420.000
G1 X-8.233 Y-1.789 F420.000
G1 X-8.150 Y-2.150 F420.000
G1 X-8.053 Y-2.508 F420.000
G1 X-7.940 Y-2.861 F420.000
G1 X-7.801 Y-3.203 F420.000
G1 X-7.492 Y-3.876 F420.000
G1 X-7.320 Y-4.203 F420.000
G1 X-6.936 Y-4.838 F420.000
G1 X-6.726 Y-5.147 F420.000
G1 X-6.504 Y-5.447 F420.000
G1 X-6.008 Y-6.000 F420.000
G1 X-5.741 Y-6.259 F420.000
G1 X-5.462 Y-6.508 F420.000
G1 X-5.173 Y-6.744 F420.000
G1 X-4.876 Y-6.966 F420.000
G1 X-4.568 Y-7.177 F420.000
G1 X-4.252 Y-7.372 F420.000
G1 X-3.925 Y-7.553 F420.000
G1 X-3.252 Y-7.883 F420.000
G1 X-2.906 Y-8.026 F420.000
G1 X-2.556 Y-8.158 F420.000
G1 X-2.203 Y-8.274 F420.000
G1 X-1.842 Y-8.376 F420.000
G1 X-1.481 Y-8.466 F420.000
G1 X-1.117 Y-8.541 F420.000
G1 X-0.744 Y-8.590 F420.000
G1 X-0.372 Y-8.628 F420.000
G1 X0.000 Y-8.647 F420.000
G1 X0.368 Y-8.647 F420.000
G1 X0.737 Y-8.632 F420.000
G1 X1.105 Y-8.598 F420.000
G1 X1.474 Y-8.545 F420.000
G1 X2.199 Y-8.402 F420.000
G1 X2.556 Y-8.305 F420.000
G1 X2.910 Y-8.195 F420.000
G1 X3.259 Y-8.071 F420.000
G1 X3.605 Y-7.932 F420.000
G1 X3.944 Y-7.782 F420.000
G1 X4.271 Y-7.605 F420.000
G1 X4.590 Y-7.417 F420.000
G1 X5.207 Y-7.004 F420.000
G1 X5.500 Y-6.778 F420.000
G1 X5.786 Y-6.538 F420.000
G1 X6.060 Y-6.289 F420.000
G1 X6.323 Y-6.026 F420.000
G1 X6.579 Y-5.756 F420.000
G1 X7.060 Y-5.188 F420.000
G1 X7.282 Y-4.891 F420.000
G1 X7.489 Y-4.583 F420.000
G1 X7.677 Y-4.259 F420.000
G1 X7.853 Y-3.932 F420.000
G1 X8.011 Y-3.594 F420.000
G1 X8.289 Y-2.898 F420.000
G1 X8.402 Y-2.541 F420.000
G1 X8.594 Y-1.820 F420.000
G1 X8.677 Y-1.455 F420.000
G1 X8.744 Y-1.086 F420.000
G1 X8.827 Y-0.342 F420.000
G1 X8.846 Y0.026 F420.000
G1 X8.846 Y0.395 F420.000
G1 X8.835 Y0.763 F420.000
G1 X8.737 Y1.500 F420.000
G1 X8.662 Y1.865 F420.000
G1 X8.575 Y2.226 F420.000
G1 X8.470 Y2.583 F420.000
G1 X8.350 Y2.932 F420.000
G1 X8.214 Y3.278 F420.000
G1 X8.068 Y3.620 F420.000
G1 X7.906 Y3.955 F420.000
G1 X7.729 Y4.282 F420.000
G1 X7.346 Y4.917 F420.000
G1 X6.917 Y5.526 F420.000
G1 X6.688 Y5.820 F420.000
G1 X6.180 Y6.365 F420.000
G1 X5.910 Y6.620 F420.000
G1 X5.342 Y7.098 F420.000
G1 X5.041 Y7.320 F420.000
G1 X4.417 Y7.726 F420.000
G1 X4.094 Y7.910 F420.000
G1 X3.763 Y8.079 F420.000
G1 X3.421 Y8.226 F420.000
G1 X3.075 Y8.361 F420.000
G1 X2.722 Y8.481 F420.000
G1 X2.000 Y8.673 F420.000
G1 X1.263 Y8.808 F420.000
G1 X0.891 Y8.857 F420.000
G1 X0.519 Y8.891 F420.000
G1 X0.147 Y8.914 F420.000
G1 X-0.222 Y8.921 F420.000
G1 X-0.590 Y8.914 F420.000
G1 X-1.327 Y8.838 F420.000
G1 X-1.692 Y8.778 F420.000
G1 X-2.056 Y8.707 F420.000
G1 X-2.417 Y8.617 F420.000
G1 X-2.771 Y8.500 F420.000
G1 X-3.120 Y8.372 F420.000
G1 X-3.801 Y8.075 F420.000
G1 X-4.459 Y7.729 F420.000
G1 X-4.778 Y7.541 F420.000
G1 X-5.090 Y7.338 F420.000
G1 X-5.677 Y6.880 F420.000
G1 X-6.229 Y6.380 F420.000
G1 X-6.489 Y6.113 F420.000
G1 X-6.741 Y5.838 F420.000
G1 X-6.981 Y5.556 F420.000
G1 X-7.211 Y5.263 F420.000
G1 X-7.429 Y4.962 F420.000
G1 X-7.635 Y4.654 F420.000
G1 X-7.981 Y3.996 F420.000
G1 X-8.139 Y3.658 F420.000
G1 X-8.282 Y3.312 F420.000
G1 X-8.414 Y2.962 F420.000
G1 X-8.530 Y2.609 F420.000
G1 X-8.632 Y2.252 F420.000
G1 X-8.722 Y1.887 F420.000
G1 X-8.797 Y1.523 F420.000
G1 X-8.857 Y1.154 F420.000
G1 X-8.902 Y0.782 F420.000
G1 X-8.932 Y0.410 F420.000
G1 X-8.925 Y-0.331 F420.000
G1 X-8.906 Y-0.699 F420.000
G1 X-8.868 Y-1.068 F420.000
G1 X-8.816 Y-1.436 F420.000
G1 X-8.752 Y-1.801 F420.000
G1 X-8.673 Y-2.162 F420.000
G1 X-8.579 Y-2.519 F420.000
G1 X-8.470 Y-2.872 F420.000
G1 X-8.346 Y-3.222 F420.000
G1 X-8.211 Y-3.568 F420.000
G1 X-8.060 Y-3.906 F420.000
G1 X-7.898 Y-4.241 F420.000
G1 X-7.722 Y-4.568 F420.000
G1 X-7.534 Y-4.887 F420.000
G1 X-7.335 Y-5.199 F420.000
G1 X-6.876 Y-5.786 F420.000
G1 X-6.376 Y-6.335 F420.000
G1 X-6.109 Y-6.594 F420.000
G1 X-5.831 Y-6.842 F420.000
G1 X-5.545 Y-7.083 F420.000
G1 X-5.248 Y-7.308 F420.000
G1 X-4.944 Y-7.523 F420.000
G1 X-4.632 Y-7.726 F420.000
G1 X-4.312 Y-7.914 F420.000
G1 X-3.985 Y-8.090 F420.000
G1 X-3.650 Y-8.256 F420.000
G1 X-3.308 Y-8.406 F420.000
G1 X-2.962 Y-8.541 F420.000
G1 X-2.256 Y-8.782 F420.000
G1 X-1.895 Y-8.883 F420.000
G1 X-1.165 Y-9.049 F420.000
G1 X-0.421 Y-9.132 F420.000
G1 X-0.049 Y-9.150 F420.000
G1 X0.320 Y-9.158 F420.000
G1 X0.688 Y-9.147 F420.000
G1 X1.056 Y-9.120 F420.000
G1 X1.425 Y-9.083 F420.000
G1 X1.789 Y-9.026 F420.000
G1 X2.154 Y-8.955 F420.000
G1 X2.511 Y-8.857 F420.000
G1 X2.865 Y-8.748 F420.000
G1 X3.218 Y-8.628 F420.000
G1 X3.564 Y-8.496 F420.000
G1 X4.244 Y-8.195 F420.000
G1 X4.887 Y-7.827 F420.000
G1 X5.199 Y-7.624 F420.000
G1 X5.504 Y-7.410 F420.000
G1 X5.797 Y-7.180 F420.000
G1 X6.083 Y-6.940 F420.000
G1 X6.628 Y-6.436 F420.000
G1 X6.887 Y-6.169 F420.000
G1 X7.135 Y-5.891 F420.000
G1 X7.376 Y-5.605 F420.000
G1 X7.605 Y-5.312 F420.000
G1 X8.011 Y-4.688 F420.000
G1 X8.195 Y-4.365 F420.000
G1 X8.361 Y-4.030 F420.000
G1 X8.515 Y-3.692 F420.000
G1 X8.654 Y-3.346 F420.000
G1 X8.782 Y-2.996 F420.000
G1 X9.004 Y-2.282 F420.000
G1 X9.094 Y-1.921 F420.000
G1 X9.173 Y-1.556 F420.000
G1 X9.241 Y-1.188 F420.000
G1 X9.297 Y-0.820 F420.000
G1 X9.335 Y-0.447 F420.000
G1 X9.361 Y-0.075 F420.000
G1 X9.361 Y0.293 F420.000
G1 X9.350 Y0.662 F420.000
G1 X9.323 Y1.030 F420.000
G1 X9.274 Y1.398 F420.000
G1 X9.211 Y1.763 F420.000
G1 X9.132 Y2.124 F420.000
G1 X9.034 Y2.481 F420.000
G1 X8.921 Y2.835 F420.000
G1 X8.658 Y3.530 F420.000
G1 X8.504 Y3.868 F420.000
G1 X8.165 Y4.530 F420.000
G1 X7.985 Y4.853 F420.000
G1 X7.590 Y5.481 F420.000
G1 X7.135 Y6.068 F420.000
G1 X6.891 Y6.350 F420.000
G1 X6.632 Y6.617 F420.000
G1 X6.365 Y6.876 F420.000
G1 X6.090 Y7.128 F420.000
G1 X5.511 Y7.594 F420.000
G1 X5.211 Y7.812 F420.000
G1 X4.898 Y8.015 F420.000
G1 X4.579 Y8.207 F420.000
G1 X4.252 Y8.387 F420.000
G1 X3.917 Y8.556 F420.000
G1 X3.222 Y8.835 F420.000
G1 X2.868 Y8.951 F420.000
G1 X2.150 Y9.154 F420.000
G1 X1.786 Y9.233 F420.000
G1 X1.417 Y9.301 F420.000
G1 X1.049 Y9.353 F420.000
G1 X0.677 Y9.391 F420.000
G1 X0.305 Y9.417 F420.000
G1 X-0.064 Y9.432 F420.000
G1 X-0.432 Y9.432 F420.000
G1 X-0.801 Y9.417 F420.000
G1 X-1.169 Y9.391 F420.000
G1 X-1.898 Y9.263 F420.000
G1 X-2.617 Y9.083 F420.000
G1 X-2.970 Y8.970 F420.000
G1 X-3.320 Y8.842 F420.000
G1 X-3.662 Y8.703 F420.000
G1 X-4.000 Y8.549 F420.000
G1 X-4.658 Y8.207 F420.000
G1 X-5.289 Y7.816 F420.000
G1 X-5.594 Y7.605 F420.000
G1 X-6.169 Y7.132 F420.000
G1 X-6.444 Y6.880 F420.000
G1 X-6.711 Y6.620 F420.000
G1 X-6.966 Y6.350 F420.000
G1 X-7.211 Y6.068 F420.000
G1 X-7.444 Y5.778 F420.000
G1 X-7.665 Y5.481 F420.000
G1 X-7.876 Y5.173 F420.000
G1 X-8.075 Y4.857 F420.000
G1 X-8.263 Y4.534 F420.000
G1 X-8.440 Y4.207 F420.000
G1 X-8.605 Y3.872 F420.000
G1 X-8.756 Y3.530 F420.000
G1 X-8.996 Y2.823 F420.000
G1 X-9.102 Y2.466 F420.000
G1 X-9.195 Y2.105 F420.000
G1 X-9.274 Y1.741 F420.000
G1 X-9.342 Y1.372 F420.000
G1 X-9.398 Y1.004 F420.000
G1 X-9.436 Y0.259 F420.000
G1 X-9.444 Y-0.109 F420.000
G1 X-9.432 Y-0.477 F420.000
G1 X-9.406 Y-0.846 F420.000
G1 X-9.368 Y-1.214 F420.000
G1 X-9.316 Y-1.583 F420.000
G1 X-9.248 Y-1.947 F420.000
G1 X-9.169 Y-2.308 F420.000
G1 X-9.075 Y-2.669 F420.000
G1 X-8.970 Y-3.026 F420.000
G1 X-8.850 Y-3.376 F420.000
G1 X-8.718 Y-3.722 F420.000
G1 X-8.571 Y-4.064 F420.000
G1 X-8.414 Y-4.398 F420.000
G1 X-8.045 Y-5.041 F420.000
G1 X-7.624 Y-5.654 F420.000
G1 X-7.395 Y-5.947 F420.000
G1 X-7.154 Y-6.233 F420.000
G1 X-6.647 Y-6.778 F420.000
G1 X-6.376 Y-7.034 F420.000
G1 X-6.098 Y-7.282 F420.000
G1 X-5.812 Y-7.523 F420.000
G1 X-5.519 Y-7.752 F420.000
G1 X-5.218 Y-7.970 F420.000
G1 X-4.583 Y-8.361 F420.000
G1 X-4.256 Y-8.538 F420.000
G1 X-3.917 Y-8.699 F420.000
G1 X-3.229 Y-8.989 F420.000
G1 X-2.523 Y-9.233 F420.000
G1 X-2.165 Y-9.338 F420.000
G1 X-1.805 Y-9.432 F420.000
G1 X-1.440 Y-9.515 F420.000
G1 X-0.703 Y-9.628 F420.000
G1 X-0.331 Y-9.650 F420.000
G1 X0.406 Y-9.665 F420.000
G1 X0.774 Y-9.654 F420.000
G1 X1.143 Y-9.628 F420.000
G1 X1.511 Y-9.590 F420.000
G1 X2.241 Y-9.447 F420.000
G1 X2.959 Y-9.252 F420.000
G1 X3.312 Y-9.135 F420.000
G1 X3.658 Y-9.004 F420.000
G1 X4.000 Y-8.861 F420.000
G1 X4.338 Y-8.703 F420.000
G1 X4.669 Y-8.534 F420.000
G1 X4.992 Y-8.353 F420.000
G1 X5.308 Y-8.162 F420.000
G1 X5.617 Y-7.959 F420.000
G1 X5.917 Y-7.741 F420.000
G1 X6.496 Y-7.274 F420.000
G1 X6.771 Y-7.026 F420.000
G1 X7.038 Y-6.767 F420.000
G1 X7.293 Y-6.496 F420.000
G1 X7.541 Y-6.218 F420.000
G1 X7.778 Y-5.929 F420.000
G1 X8.004 Y-5.632 F420.000
G1 X8.218 Y-5.327 F420.000
G1 X8.421 Y-5.015 F420.000
G1 X8.767 Y-4.353 F420.000
G1 X8.925 Y-4.015 F420.000
G1 X9.071 Y-3.673 F420.000
G1 X9.203 Y-3.323 F420.000
G1 X9.323 Y-2.970 F420.000
G1 X9.538 Y-2.256 F420.000
G1 X9.628 Y-1.895 F420.000
G1 X9.707 Y-1.530 F420.000
G1 X9.812 Y-0.789 F420.000
G1 X9.846 Y-0.417 F420.000
G1 X9.861 Y-0.045 F420.000
G1 X9.865 Y0.323 F420.000
G1 X9.853 Y0.692 F420.000
G1 X9.827 Y1.060 F420.000
G1 X9.786 Y1.429 F420.000
G1 X9.729 Y1.793 F420.000
G1 X9.650 Y2.154 F420.000
G1 X9.560 Y2.515 F420.000
G1 X9.451 Y2.868 F420.000
G1 X9.331 Y3.218 F420.000
G1 X9.053 Y3.906 F420.000
G1 X8.895 Y4.241 F420.000
G1 X8.553 Y4.898 F420.000
G1 X8.365 Y5.218 F420.000
G1 X7.959 Y5.842 F420.000
G1 X7.741 Y6.143 F420.000
G1 X7.263 Y6.711 F420.000
G1 X7.008 Y6.981 F420.000
G1 X6.741 Y7.241 F420.000
G1 X6.466 Y7.492 F420.000
G1 X6.180 Y7.733 F420.000
G1 X5.883 Y7.959 F420.000
G1 X5.271 Y8.383 F420.000
G1 X4.951 Y8.579 F420.000
G1 X4.628 Y8.763 F420.000
G1 X4.297 Y8.936 F420.000
G1 X3.959 Y9.098 F420.000
G1 X3.613 Y9.237 F420.000
G1 X3.263 Y9.365 F420.000
G1 X2.906 Y9.477 F420.000
G1 X2.549 Y9.579 F420.000
G1 X2.184 Y9.665 F420.000
G1 X1.451 Y9.808 F420.000
G1 X1.083 Y9.861 F420.000
G1 X0.711 Y9.902 F420.000
G1 X0.338 Y9.932 F420.000
G1 X-0.030 Y9.947 F420.000
G1 X-0.398 Y9.951 F420.000
G1 X-1.135 Y9.898 F420.000
G1 X-1.504 Y9.853 F420.000
G1 X-1.868 Y9.789 F420.000
G1 X-2.229 Y9.711 F420.000
G1 X-2.944 Y9.515 F420.000
G1 X-3.293 Y9.395 F420.000
G1 X-3.639 Y9.263 F420.000
G1 X-3.981 Y9.120 F420.000
G1 X-4.316 Y8.962 F420.000
G1 X-4.647 Y8.793 F420.000
G1 X-5.289 Y8.425 F420.000
G1 X-5.906 Y8.011 F420.000
G1 X-6.477 Y7.538 F420.000
G1 X-6.756 Y7.289 F420.000
G1 X-7.019 Y7.026 F420.000
G1 X-7.526 Y6.481 F420.000
G1 X-7.992 Y5.898 F420.000
G1 X-8.211 Y5.598 F420.000
G1 X-8.617 Y4.974 F420.000
G1 X-8.970 Y4.316 F420.000
G1 X-9.128 Y3.977 F420.000
G1 X-9.271 Y3.632 F420.000
G1 X-9.402 Y3.282 F420.000
G1 X-9.519 Y2.929 F420.000
G1 X-9.624 Y2.571 F420.000
G1 X-9.714 Y2.211 F420.000
G1 X-9.789 Y1.846 F420.000
G1 X-9.850 Y1.477 F420.000
G1 X-9.898 Y1.105 F420.000
G1 X-9.932 Y0.733 F420.000
G1 X-9.951 Y0.361 F420.000
G1 X-9.951 Y-0.376 F420.000
G1 X-9.932 Y-0.744 F420.000
G1 X-9.902 Y-1.113 F420.000
G1 X-9.861 Y-1.481 F420.000
G1 X-9.805 Y-1.846 F420.000
G1 X-9.737 Y-2.211 F420.000
G1 X-9.654 Y-2.571 F420.000
G1 X-9.560 Y-2.929 F420.000
G1 X-9.312 Y-3.628 F420.000
G1 X-9.173 Y-3.974 F420.000
G1 X-8.853 Y-4.643 F420.000
G1 X-8.677 Y-4.970 F420.000
G1 X-8.293 Y-5.605 F420.000
G1 X-8.083 Y-5.914 F420.000
G1 X-7.609 Y-6.489 F420.000
G1 X-7.365 Y-6.767 F420.000
G1 X-7.109 Y-7.038 F420.000
G1 X-6.846 Y-7.301 F420.000
G1 X-6.575 Y-7.556 F420.000
G1 X-6.297 Y-7.801 F420.000
G1 X-6.008 Y-8.038 F420.000
G1 X-5.395 Y-8.459 F420.000
G1 X-5.079 Y-8.658 F420.000
G1 X-4.756 Y-8.846 F420.000
G1 X-4.094 Y-9.192 F420.000
G1 X-3.756 Y-9.346 F420.000
G1 X-3.410 Y-9.489 F420.000
G1 X-3.060 Y-9.620 F420.000
G1 X-2.707 Y-9.741 F420.000
G1 X-2.350 Y-9.850 F420.000
G1 X-1.620 Y-10.008 F420.000
G1 X-1.252 Y-10.068 F420.000
G1 X-0.880 Y-10.117 F420.000
G1 X-0.508 Y-10.150 F420.000
G1 X-0.135 Y-10.169 F420.000
G1 X0.233 Y-10.177 F420.000
G1 X0.602 Y-10.169 F420.000
G1 X0.970 Y-10.150 F420.000
G1 X1.338 Y-10.117 F420.000
G1 X1.707 Y-10.068 F420.000
G1 X2.071 Y-10.008 F420.000
G1 X2.436 Y-9.932 F420.000
G1 X2.797 Y-9.846 F420.000
G1 X3.154 Y-9.744 F420.000
G1 X3.850 Y-9.481 F420.000
G1 X4.192 Y-9.338 F420.000
G1 X4.530 Y-9.184 F420.000
G1 X5.188 Y-8.838 F420.000
G1 X5.820 Y-8.447 F420.000
G1 X6.124 Y-8.237 F420.000
G1 X6.711 Y-7.778 F420.000
G1 X6.992 Y-7.534 F420.000
G1 X7.263 Y-7.278 F420.000
G1 X7.526 Y-7.015 F420.000
G1 X7.778 Y-6.741 F420.000
G1 X8.023 Y-6.459 F420.000
G1 X8.256 Y-6.169 F420.000
G1 X8.477 Y-5.872 F420.000
G1 X8.688 Y-5.568 F420.000
G1 X9.064 Y-4.925 F420.000
G1 X9.387 Y-4.252 F420.000
G1 X9.669 Y-3.560 F420.000
G1 X9.910 Y-2.853 F420.000
G1 X10.015 Y-2.496 F420.000
G1 X10.109 Y-2.135 F420.000
G1 X10.248 Y-1.402 F420.000
G1 X10.301 Y-1.034 F420.000
G1 X10.361 Y-0.289 F420.000
G1 X10.372 Y0.079 F420.000
G1 X10.368 Y0.447 F420.000
G1 X10.350 Y0.816 F420.000
G1 X10.320 Y1.184 F420.000
G1 X10.274 Y1.553 F420.000
G1 X10.214 Y1.917 F420.000
G1 X10.143 Y2.282 F420.000
G1 X10.056 Y2.643 F420.000
G1 X9.955 Y3.000 F420.000
G1 X9.842 Y3.353 F420.000
G1 X9.714 Y3.703 F420.000
G1 X9.575 Y4.049 F420.000
G1 X9.425 Y4.387 F420.000
G1 X9.259 Y4.722 F420.000
G1 X9.083 Y5.049 F420.000
G1 X8.895 Y5.368 F420.000
G1 X8.695 Y5.680 F420.000
G1 X8.271 Y6.289 F420.000
G1 X7.805 Y6.868 F420.000
G1 X7.560 Y7.150 F420.000
G1 X7.305 Y7.421 F420.000
G1 X7.034 Y7.677 F420.000
G1 X6.756 Y7.925 F420.000
G1 X6.470 Y8.162 F420.000
G1 X5.868 Y8.598 F420.000
G1 X5.560 Y8.805 F420.000
G1 X4.914 Y9.180 F420.000
G1 X4.583 Y9.353 F420.000
G1 X3.902 Y9.662 F420.000
G1 X3.556 Y9.801 F420.000
G1 X3.203 Y9.925 F420.000
G1 X2.846 Y10.038 F420.000
G1 X2.485 Y10.139 F420.000
G1 X2.124 Y10.229 F420.000
G1 X1.759 Y10.305 F420.000
G1 X1.391 Y10.368 F420.000
G1 X0.274 Y10.462 F420.000
G1 X-0.094 Y10.474 F420.000
G1 X-0.462 Y10.474 F420.000
G1 X-0.831 Y10.455 F420.000
G1 X-1.199 Y10.414 F420.000
G1 X-1.568 Y10.361 F420.000
G1 X-2.297 Y10.226 F420.000
G1 X-2.658 Y10.139 F420.000
G1 X-3.015 Y10.041 F420.000
G1 X-3.368 Y9.932 F420.000
G1 X-4.056 Y9.650 F420.000
G1 X-4.729 Y9.335 F420.000
G1 X-5.380 Y8.974 F420.000
G1 X-5.699 Y8.782 F420.000
G1 X-6.308 Y8.353 F420.000
G1 X-6.602 Y8.128 F420.000
G1 X-6.887 Y7.887 F420.000
G1 X-7.154 Y7.628 F420.000
G1 X-7.669 Y7.090 F420.000
G1 X-7.917 Y6.812 F420.000
G1 X-8.387 Y6.233 F420.000
G1 X-8.609 Y5.936 F420.000
G1 X-9.019 Y5.312 F420.000
G1 X-9.211 Y4.992 F420.000
G1 X-9.387 Y4.665 F420.000
G1 X-9.695 Y3.985 F420.000
G1 X-9.951 Y3.282 F420.000
G1 X-10.060 Y2.925 F420.000
G1 X-10.154 Y2.564 F420.000
G1 X-10.237 Y2.199 F420.000
G1 X-10.305 Y1.831 F420.000
G1 X-10.361 Y1.462 F420.000
G1 X-10.402 Y1.090 F420.000
G1 X-10.455 Y0.346 F420.000
G1 X-10.462 Y-0.023 F420.000
G1 X-10.459 Y-0.391 F420.000
G1 X-10.444 Y-0.759 F420.000
G1 X-10.417 Y-1.128 F420.000
G1 X-10.380 Y-1.496 F420.000
G1 X-10.331 Y-1.865 F420.000
G1 X-10.271 Y-2.229 F420.000
G1 X-10.188 Y-2.590 F420.000
G1 X-9.970 Y-3.301 F420.000
G1 X-9.850 Y-3.650 F420.000
G1 X-9.714 Y-3.996 F420.000
G1 X-9.414 Y-4.677 F420.000
G1 X-9.248 Y-5.008 F420.000
G1 X-9.071 Y-5.335 F420.000
G1 X-8.883 Y-5.654 F420.000
G1 X-8.462 Y-6.267 F420.000
G1 X-8.237 Y-6.560 F420.000
G1 X-7.752 Y-7.124 F420.000
G1 X-7.492 Y-7.391 F420.000
G1 X-7.226 Y-7.650 F420.000
G1 X-6.673 Y-8.147 F420.000
G1 X-6.086 Y-8.605 F420.000
G1 X-5.786 Y-8.823 F420.000
G1 X-5.477 Y-9.030 F420.000
G1 X-4.827 Y-9.398 F420.000
G1 X-4.158 Y-9.729 F420.000
G1 X-3.816 Y-9.880 F420.000
G1 X-3.470 Y-10.019 F420.000
G1 X-3.120 Y-10.147 F420.000
G1 X-2.767 Y-10.263 F420.000
G1 X-2.410 Y-10.368 F420.000
G1 X-2.049 Y-10.462 F420.000
G1 X-1.316 Y-10.598 F420.000
G1 X-0.944 Y-10.647 F420.000
G1 X-0.571 Y-10.680 F420.000
G1 X-0.199 Y-10.703 F420.000
G1 X0.169 Y-10.711 F420.000
G1 X0.538 Y-10.703 F420.000
G1 X1.274 Y-10.650 F420.000
G1 X1.643 Y-10.605 F420.000
G1 X2.008 Y-10.549 F420.000
G1 X2.372 Y-10.481 F420.000
G1 X2.733 Y-10.398 F420.000
G1 X3.090 Y-10.305 F420.000
G1 X3.444 Y-10.192 F420.000
G1 X3.793 Y-10.068 F420.000
G1 X4.139 Y-9.932 F420.000
G1 X4.477 Y-9.782 F420.000
G1 X5.143 Y-9.451 F420.000
G1 X5.786 Y-9.079 F420.000
G1 X6.406 Y-8.673 F420.000
G1 X6.996 Y-8.222 F420.000
G1 X7.282 Y-7.981 F420.000
G1 X7.556 Y-7.729 F420.000
G1 X7.823 Y-7.470 F420.000
G1 X8.320 Y-6.914 F420.000
G1 X8.778 Y-6.323 F420.000
G1 X8.992 Y-6.019 F420.000
G1 X9.391 Y-5.387 F420.000
G1 X9.575 Y-5.064 F420.000
G1 X9.748 Y-4.733 F420.000
G1 X10.169 Y-3.699 F420.000
G1 X10.293 Y-3.350 F420.000
G1 X10.515 Y-2.635 F420.000
G1 X10.613 Y-2.274 F420.000
G1 X10.752 Y-1.538 F420.000
G1 X10.805 Y-1.169 F420.000
G1 X10.842 Y-0.797 F420.000
G1 X10.868 Y-0.425 F420.000
G1 X10.887 Y0.316 F420.000
G1 X10.880 Y0.684 F420.000
G1 X10.861 Y1.053 F420.000
G1 X10.763 Y1.789 F420.000
G1 X10.620 Y2.515 F420.000
G1 X10.530 Y2.876 F420.000
G1 X10.425 Y3.233 F420.000
G1 X10.308 Y3.586 F420.000
G1 X10.180 Y3.936 F420.000
G1 X10.041 Y4.278 F420.000
G1 X9.891 Y4.617 F420.000
G1 X9.729 Y4.951 F420.000
G1 X9.556 Y5.278 F420.000
G1 X9.372 Y5.602 F420.000
G1 X9.177 Y5.917 F420.000
G1 X8.970 Y6.226 F420.000
G1 X8.752 Y6.526 F420.000
G1 X8.286 Y7.105 F420.000
G1 X8.038 Y7.383 F420.000
G1 X7.782 Y7.654 F420.000
G1 X7.515 Y7.914 F420.000
G1 X7.241 Y8.165 F420.000
G1 X6.959 Y8.406 F420.000
G1 X6.372 Y8.868 F420.000
G1 X5.759 Y9.289 F420.000
G1 X5.109 Y9.658 F420.000
G1 X4.440 Y9.989 F420.000
G1 X3.752 Y10.274 F420.000
G1 X3.402 Y10.402 F420.000
G1 X3.049 Y10.519 F420.000
G1 X2.692 Y10.624 F420.000
G1 X2.331 Y10.718 F420.000
G1 X1.594 Y10.850 F420.000
G1 X1.226 Y10.902 F420.000
G1 X0.481 Y10.966 F420.000
G1 X0.109 Y10.981 F420.000
G1 X-0.628 Y10.981 F420.000
G1 X-0.996 Y10.962 F420.000
G1 X-1.733 Y10.865 F420.000
G1 X-2.462 Y10.722 F420.000
G1 X-2.823 Y10.632 F420.000
G1 X-3.534 Y10.414 F420.000
G1 X-3.883 Y10.286 F420.000
G1 X-4.229 Y10.147 F420.000
G1 X-4.568 Y9.996 F420.000
G1 X-4.902 Y9.835 F420.000
G1 X-5.229 Y9.662 F420.000
G1 X-5.553 Y9.477 F420.000
G1 X-5.868 Y9.282 F420.000
G1 X-6.481 Y8.861 F420.000
G1 X-6.778 Y8.635 F420.000
G1 X-7.068 Y8.398 F420.000
G1 X-7.346 Y8.154 F420.000
G1 X-7.617 Y7.898 F420.000
G1 X-7.880 Y7.635 F420.000
G1 X-8.132 Y7.365 F420.000
G1 X-8.376 Y7.083 F420.000
G1 X-8.835 Y6.496 F420.000
G1 X-9.056 Y6.195 F420.000
G1 X-9.267 Y5.887 F420.000
G1 X-9.658 Y5.252 F420.000
G1 X-9.831 Y4.921 F420.000
G1 X-9.992 Y4.586 F420.000
G1 X-10.143 Y4.244 F420.000
G1 X-10.278 Y3.895 F420.000
G1 X-10.398 Y3.541 F420.000
G1 X-10.609 Y2.823 F420.000
G1 X-10.695 Y2.459 F420.000
G1 X-10.771 Y2.094 F420.000
G1 X-10.835 Y1.726 F420.000
G1 X-10.883 Y1.353 F420.000
G1 X-10.955 Y0.609 F420.000
G1 X-10.974 Y0.237 F420.000
G1 X-10.981 Y-0.500 F420.000
G1 X-10.970 Y-0.868 F420.000
G1 X-10.947 Y-1.237 F420.000
G1 X-10.914 Y-1.605 F420.000
G1 X-10.853 Y-1.970 F420.000
G1 X-10.774 Y-2.331 F420.000
G1 X-10.586 Y-3.049 F420.000
G1 X-10.481 Y-3.406 F420.000
G1 X-10.233 Y-4.105 F420.000
G1 X-10.098 Y-4.451 F420.000
G1 X-9.951 Y-4.793 F420.000
G1 X-9.602 Y-5.451 F420.000
G1 X-9.214 Y-6.086 F420.000
G1 X-9.008 Y-6.395 F420.000
G1 X-8.564 Y-6.989 F420.000
G1 X-8.327 Y-7.274 F420.000
G1 X-7.812 Y-7.812 F420.000
G1 X-7.545 Y-8.071 F420.000
G1 X-7.271 Y-8.323 F420.000
G1 X-6.699 Y-8.797 F420.000
G1 X-6.098 Y-9.241 F420.000
G1 X-5.789 Y-9.447 F420.000
G1 X-4.812 Y-9.989 F420.000
G1 X-4.477 Y-10.154 F420.000
G1 X-3.797 Y-10.455 F420.000
G1 X-3.451 Y-10.594 F420.000
G1 X-3.102 Y-10.722 F420.000
G1 X-2.383 Y-10.925 F420.000
G1 X-2.019 Y-11.011 F420.000
G1 X-1.650 Y-11.079 F420.000
G1 X-1.282 Y-11.135 F420.000
G1 X-0.910 Y-11.177 F420.000
G1 X-0.538 Y-11.203 F420.000
G1 X0.203 Y-11.226 F420.000
G1 X0.571 Y-11.218 F420.000
G1 X0.940 Y-11.199 F420.000
G1 X1.308 Y-11.169 F420.000
G1 X1.677 Y-11.128 F420.000
G1 X2.045 Y-11.075 F420.000
G1 X2.410 Y-11.011 F420.000
G1 X2.771 Y-10.932 F420.000
G1 X3.132 Y-10.842 F420.000
G1 X3.489 Y-10.741 F420.000
G1 X4.184 Y-10.481 F420.000
G1 X4.526 Y-10.338 F420.000
G1 X5.192 Y-10.011 F420.000
G1 X5.519 Y-9.838 F420.000
G1 X6.154 Y-9.459 F420.000
G1 X6.771 Y-9.045 F420.000
G1 X7.071 Y-8.827 F420.000
G1 X7.650 Y-8.361 F420.000
G1 X8.188 Y-7.846 F420.000
G1 X8.444 Y-7.575 F420.000
G1 X8.688 Y-7.293 F420.000
G1 X8.921 Y-7.004 F420.000
G1 X9.361 Y-6.402 F420.000
G1 X9.759 Y-5.771 F420.000
G1 X9.944 Y-5.447 F420.000
G1 X10.117 Y-5.117 F420.000
G1 X10.278 Y-4.782 F420.000
G1 X10.429 Y-4.440 F420.000
G1 X10.568 Y-4.094 F420.000
G1 X10.823 Y-3.395 F420.000
G1 X10.936 Y-3.038 F420.000
G1 X11.132 Y-2.316 F420.000
G1 X11.214 Y-1.951 F420.000
G1 X11.335 Y-1.214 F420.000
G1 X11.376 Y-0.842 F420.000
G1 X11.402 Y-0.470 F420.000
G1 X11.417 Y-0.098 F420.000
G1 X11.421 Y0.271 F420.000
G1 X11.410 Y0.639 F420.000
G1 X11.387 Y1.008 F420.000
G1 X11.350 Y1.376 F420.000
G1 X11.301 Y1.744 F420.000
G1 X11.237 Y2.109 F420.000
G1 X11.162 Y2.474 F420.000
G1 X11.075 Y2.835 F420.000
G1 X10.974 Y3.192 F420.000
G1 X10.861 Y3.545 F420.000
G1 X10.609 Y4.244 F420.000
G1 X10.466 Y4.586 F420.000
G1 X10.154 Y5.259 F420.000
G1 X9.985 Y5.590 F420.000
G1 X9.805 Y5.914 F420.000
G1 X9.605 Y6.229 F420.000
G1 X9.169 Y6.831 F420.000
G1 X8.703 Y7.410 F420.000
G1 X8.203 Y7.962 F420.000
G1 X7.944 Y8.229 F420.000
G1 X7.383 Y8.722 F420.000
G1 X6.801 Y9.188 F420.000
G1 X6.192 Y9.617 F420.000
G1 X5.549 Y9.996 F420.000
G1 X5.222 Y10.177 F420.000
G1 X4.553 Y10.508 F420.000
G1 X4.211 Y10.662 F420.000
G1 X3.508 Y10.917 F420.000
G1 X3.150 Y11.030 F420.000
G1 X2.429 Y11.218 F420.000
G1 X2.064 Y11.293 F420.000
G1 X1.327 Y11.414 F420.000
G1 X0.955 Y11.455 F420.000
G1 X0.583 Y11.485 F420.000
G1 X0.211 Y11.504 F420.000
G1 X-0.158 Y11.511 F420.000
G1 X-0.526 Y11.508 F420.000
G1 X-0.895 Y11.492 F420.000
G1 X-1.263 Y11.466 F420.000
G1 X-1.996 Y11.361 F420.000
G1 X-2.361 Y11.289 F420.000
G1 X-2.722 Y11.203 F420.000
G1 X-3.079 Y11.105 F420.000
G1 X-3.786 Y10.872 F420.000
G1 X-4.132 Y10.741 F420.000
G1 X-4.474 Y10.598 F420.000
G1 X-5.147 Y10.286 F420.000
G1 X-5.801 Y9.932 F420.000
G1 X-6.120 Y9.744 F420.000
G1 X-6.733 Y9.320 F420.000
G1 X-7.320 Y8.861 F420.000
G1 X-7.602 Y8.617 F420.000
G1 X-7.872 Y8.365 F420.000
G1 X-8.135 Y8.102 F420.000
G1 X-8.391 Y7.831 F420.000
G1 X-8.883 Y7.271 F420.000
G1 X-9.342 Y6.684 F420.000
G1 X-9.771 Y6.075 F420.000
G1 X-10.150 Y5.432 F420.000
G1 X-10.327 Y5.102 F420.000
G1 X-10.489 Y4.767 F420.000
G1 X-10.759 Y4.071 F420.000
G1 X-10.883 Y3.718 F420.000
G1 X-10.996 Y3.361 F420.000
G1 X-11.184 Y2.639 F420.000
G1 X-11.263 Y2.274 F420.000
G1 X-11.331 Y1.906 F420.000
G1 X-11.387 Y1.538 F420.000
G1 X-11.432 Y1.165 F420.000
G1 X-11.466 Y0.793 F420.000
G1 X-11.489 Y0.421 F420.000
G1 X-11.500 Y0.049 F420.000
G1 X-11.496 Y-0.688 F420.000
G1 X-11.481 Y-1.056 F420.000
G1 X-11.455 Y-1.425 F420.000
G1 X-11.350 Y-2.158 F420.000
G1 X-11.271 Y-2.519 F420.000
G1 X-11.180 Y-2.880 F420.000
G1 X-10.970 Y-3.594 F420.000
G1 X-10.853 Y-3.947 F420.000
G1 X-10.590 Y-4.643 F420.000
G1 X-10.274 Y-5.316 F420.000
G1 X-10.102 Y-5.647 F420.000
G1 X-9.917 Y-5.970 F420.000
G1 X-9.519 Y-6.598 F420.000
G1 X-9.305 Y-6.902 F420.000
G1 X-8.846 Y-7.489 F420.000
G1 X-8.331 Y-8.026 F420.000
G1 X-8.068 Y-8.289 F420.000
G1 X-7.797 Y-8.545 F420.000
G1 X-7.237 Y-9.038 F420.000
G1 X-6.947 Y-9.274 F420.000
G1 X-6.647 Y-9.496 F420.000
G1 X-6.019 Y-9.895 F420.000
G1 X-5.376 Y-10.271 F420.000
G1 X-4.714 Y-10.617 F420.000
G1 X-4.041 Y-10.932 F420.000
G1 X-3.342 Y-11.199 F420.000
G1 X-2.985 Y-11.305 F420.000
G1 X-2.624 Y-11.398 F420.000
G1 X-1.895 Y-11.560 F420.000
G1 X-1.526 Y-11.620 F420.000
G1 X-0.782 Y-11.711 F420.000
G1 X-0.038 Y-11.756 F420.000
G1 X0.331 Y-11.763 F420.000
G1 X0.699 Y-11.759 F420.000
G1 X1.436 Y-11.692 F420.000
G1 X2.169 Y-11.583 F420.000
G1 X2.534 Y-11.511 F420.000
G1 X3.256 Y-11.338 F420.000
G1 X3.966 Y-11.120 F420.000
G1 X4.316 Y-10.996 F420.000
G1 X4.996 Y-10.695 F420.000
G1 X5.654 Y-10.357 F420.000
G1 X6.297 Y-9.985 F420.000
G1 X6.917 Y-9.579 F420.000
G1 X7.519 Y-9.143 F420.000
G1 X7.812 Y-8.914 F420.000
G1 X8.357 Y-8.406 F420.000
G1 X8.617 Y-8.139 F420.000
G1 X8.865 Y-7.861 F420.000
G1 X9.342 Y-7.286 F420.000
G1 X9.786 Y-6.692 F420.000
G1 X9.996 Y-6.383 F420.000
G1 X10.372 Y-5.741 F420.000
G1 X10.711 Y-5.075 F420.000
G1 X10.865 Y-4.737 F420.000
G1 X11.147 Y-4.045 F420.000
G1 X11.387 Y-3.342 F420.000
G1 X11.496 Y-2.985 F420.000
G1 X11.684 Y-2.263 F420.000
G1 X11.812 Y-1.526 F420.000
G1 X11.895 Y-0.782 F420.000
G1 X11.921 Y-0.410 F420.000
G1 X11.936 Y-0.038 F420.000
G1 X11.940 Y0.331 F420.000
G1 X11.932 Y0.699 F420.000
G1 X11.914 Y1.068 F420.000
G1 X11.883 Y1.436 F420.000
G1 X11.771 Y2.169 F420.000
G1 X11.695 Y2.534 F420.000
G1 X11.605 Y2.895 F420.000
G1 X11.395 Y3.605 F420.000
G1 X11.278 Y3.959 F420.000
G1 X11.008 Y4.650 F420.000
G1 X10.861 Y4.992 F420.000
G1 X10.538 Y5.658 F420.000
G1 X10.361 Y5.985 F420.000
G1 X9.962 Y6.613 F420.000
G1 X9.530 Y7.218 F420.000
G1 X9.301 Y7.511 F420.000
G1 X9.060 Y7.797 F420.000
G1 X8.812 Y8.075 F420.000
G1 X8.556 Y8.346 F420.000
G1 X8.293 Y8.609 F420.000
G1 X8.023 Y8.865 F420.000
G1 X7.459 Y9.346 F420.000
G1 X7.165 Y9.575 F420.000
G1 X6.556 Y10.004 F420.000
G1 X5.921 Y10.395 F420.000
G1 X5.263 Y10.748 F420.000
G1 X4.929 Y10.910 F420.000
G1 X4.586 Y11.060 F420.000
G1 X3.891 Y11.331 F420.000
G1 X3.538 Y11.451 F420.000
G1 X3.180 Y11.560 F420.000
G1 X2.820 Y11.658 F420.000
G1 X2.455 Y11.744 F420.000
G1 X2.090 Y11.820 F420.000
G1 X1.722 Y11.883 F420.000
G1 X1.353 Y11.936 F420.000
G1 X0.981 Y11.977 F420.000
G1 X0.609 Y12.008 F420.000
G1 X0.237 Y12.026 F420.000
G1 X-0.132 Y12.034 F420.000
G1 X-0.500 Y12.030 F420.000
G1 X-0.868 Y12.015 F420.000
G1 X-1.237 Y11.989 F420.000
G1 X-1.605 Y11.951 F420.000
G1 X-1.974 Y11.902 F420.000
G1 X-2.338 Y11.842 F420.000
G1 X-3.414 Y11.549 F420.000
G1 X-3.767 Y11.436 F420.000
G1 X-4.462 Y11.180 F420.000
G1 X-4.805 Y11.038 F420.000
G1 X-5.477 Y10.722 F420.000
G1 X-5.808 Y10.549 F420.000
G1 X-6.752 Y9.951 F420.000
G1 X-7.056 Y9.737 F420.000
G1 X-7.647 Y9.282 F420.000
G1 X-8.199 Y8.786 F420.000
G1 X-8.466 Y8.526 F420.000
G1 X-8.722 Y8.256 F420.000
G1 X-8.970 Y7.977 F420.000
G1 X-9.447 Y7.406 F420.000
G1 X-9.891 Y6.808 F420.000
G1 X-10.105 Y6.504 F420.000
G1 X-10.504 Y5.876 F420.000
G1 X-10.680 Y5.549 F420.000
G1 X-10.989 Y4.868 F420.000
G1 X-11.267 Y4.173 F420.000
G1 X-11.504 Y3.462 F420.000
G1 X-11.609 Y3.105 F420.000
G1 X-11.703 Y2.744 F420.000
G1 X-11.898 Y1.639 F420.000
G1 X-11.974 Y0.895 F420.000
G1 X-12.015 Y0.150 F420.000
G1 X-12.023 Y-0.586 F420.000
G1 X-12.015 Y-0.955 F420.000
G1 X-11.996 Y-1.323 F420.000
G1 X-11.955 Y-1.692 F420.000
G1 X-11.820 Y-2.421 F420.000
G1 X-11.741 Y-2.782 F420.000
G1 X-11.650 Y-3.143 F420.000
G1 X-11.440 Y-3.853 F420.000
G1 X-11.320 Y-4.203 F420.000
G1 X-11.049 Y-4.895 F420.000
G1 X-10.741 Y-5.568 F420.000
G1 X-10.571 Y-5.898 F420.000
G1 X-10.184 Y-6.534 F420.000
G1 X-9.981 Y-6.846 F420.000
G1 X-9.545 Y-7.447 F420.000
G1 X-9.056 Y-8.008 F420.000
G1 X-8.805 Y-8.282 F420.000
G1 X-8.545 Y-8.549 F420.000
G1 X-8.008 Y-9.064 F420.000
G1 X-7.447 Y-9.553 F420.000
G1 X-6.850 Y-9.992 F420.000
G1 X-6.541 Y-10.199 F420.000
G1 X-5.902 Y-10.583 F420.000
G1 X-5.579 Y-10.767 F420.000
G1 X-4.914 Y-11.105 F420.000
G1 X-4.575 Y-11.263 F420.000
G1 X-3.887 Y-11.549 F420.000
G1 X-3.180 Y-11.789 F420.000
G1 X-2.823 Y-11.895 F420.000
G1 X-2.462 Y-11.989 F420.000
G1 X-1.729 Y-12.132 F420.000
G1 X-1.361 Y-12.184 F420.000
G1 X-0.617 Y-12.256 F420.000
G1 X-0.244 Y-12.282 F420.000
G1 X0.124 Y-12.293 F420.000
G1 X0.861 Y-12.278 F420.000
G1 X1.229 Y-12.256 F420.000
G1 X1.598 Y-12.222 F420.000
G1 X2.327 Y-12.102 F420.000
G1 X3.049 Y-11.936 F420.000
G1 X3.410 Y-11.842 F420.000
G1 X4.120 Y-11.624 F420.000
G1 X4.808 Y-11.350 F420.000
G1 X5.481 Y-11.038 F420.000
G1 X5.812 Y-10.868 F420.000
G1 X6.455 Y-10.500 F420.000
G1 X7.083 Y-10.102 F420.000
G1 X7.688 Y-9.673 F420.000
G1 X7.985 Y-9.447 F420.000
G1 X8.541 Y-8.951 F420.000
G1 X8.808 Y-8.692 F420.000
G1 X9.064 Y-8.421 F420.000
G1 X9.312 Y-8.143 F420.000
G1 X9.782 Y-7.568 F420.000
G1 X10.218 Y-6.962 F420.000
G1 X10.425 Y-6.654 F420.000
G1 X10.808 Y-6.015 F420.000
G1 X10.989 Y-5.688 F420.000
G1 X11.320 Y-5.019 F420.000
G1 X11.470 Y-4.677 F420.000
G1 X11.741 Y-3.981 F420.000
G1 X11.861 Y-3.628 F420.000
G1 X12.071 Y-2.910 F420.000
G1 X12.162 Y-2.549 F420.000
G1 X12.241 Y-2.184 F420.000
G1 X12.391 Y-1.071 F420.000
G1 X12.425 Y-0.699 F420.000
G1 X12.466 Y0.041 F420.000
G1 X12.474 Y0.410 F420.000
G1 X12.462 Y0.778 F420.000
G1 X12.395 Y1.515 F420.000
G1 X12.346 Y1.883 F420.000
G1 X12.278 Y2.248 F420.000
G1 X12.117 Y2.970 F420.000
G1 X11.917 Y3.684 F420.000
G1 X11.805 Y4.038 F420.000
G1 X11.680 Y4.387 F420.000
G1 X11.402 Y5.075 F420.000
G1 X11.248 Y5.414 F420.000
G1 X10.910 Y6.075 F420.000
G1 X10.534 Y6.718 F420.000
G1 X10.120 Y7.335 F420.000
G1 X9.662 Y7.917 F420.000
G1 X9.417 Y8.199 F420.000
G1 X8.906 Y8.741 F420.000
G1 X8.639 Y9.000 F420.000
G1 X8.365 Y9.252 F420.000
G1 X8.083 Y9.496 F420.000
G1 X7.504 Y9.962 F420.000
G1 X6.898 Y10.398 F420.000
G1 X6.271 Y10.797 F420.000
G1 X5.617 Y11.158 F420.000
G1 X4.944 Y11.481 F420.000
G1 X4.602 Y11.628 F420.000
G1 X4.256 Y11.763 F420.000
G1 X3.549 Y12.004 F420.000
G1 X3.192 Y12.109 F420.000
G1 X2.831 Y12.203 F420.000
G1 X2.466 Y12.286 F420.000
G1 X2.098 Y12.357 F420.000
G1 X1.729 Y12.417 F420.000
G1 X1.357 Y12.466 F420.000
G1 X0.613 Y12.534 F420.000
G1 X0.241 Y12.553 F420.000
G1 X-0.128 Y12.560 F420.000
G1 X-0.496 Y12.556 F420.000
G1 X-0.865 Y12.541 F420.000
G1 X-1.233 Y12.515 F420.000
G1 X-1.602 Y12.477 F420.000
G1 X-1.970 Y12.429 F420.000
G1 X-2.335 Y12.368 F420.000
G1 X-2.699 Y12.297 F420.000
G1 X-3.060 Y12.214 F420.000
G1 X-4.120 Y11.876 F420.000
G1 X-4.470 Y11.748 F420.000
G1 X-5.158 Y11.462 F420.000
G1 X-5.496 Y11.308 F420.000
G1 X-6.150 Y10.959 F420.000
G1 X-6.470 Y10.771 F420.000
G1 X-7.090 Y10.357 F420.000
G1 X-7.684 Y9.906 F420.000
G1 X-7.974 Y9.673 F420.000
G1 X-8.256 Y9.429 F420.000
G1 X-8.801 Y8.921 F420.000
G1 X-9.064 Y8.658 F420.000
G1 X-9.320 Y8.387 F420.000
G1 X-9.568 Y8.109 F420.000
G1 X-10.041 Y7.534 F420.000
G1 X-10.466 Y6.921 F420.000
G1 X-10.857 Y6.286 F420.000
G1 X-11.038 Y5.959 F420.000
G1 X-11.207 Y5.624 F420.000
G1 X-11.365 Y5.286 F420.000
G1 X-11.650 Y4.598 F420.000
G1 X-11.786 Y4.248 F420.000
G1 X-12.019 Y3.538 F420.000
G1 X-12.124 Y3.180 F420.000
G1 X-12.218 Y2.820 F420.000
G1 X-12.357 Y2.083 F420.000
G1 X-12.455 Y1.342 F420.000
G1 X-12.519 Y0.598 F420.000
G1 X-12.538 Y0.226 F420.000
G1 X-12.549 Y-0.511 F420.000
G1 X-12.541 Y-0.880 F420.000
G1 X-12.523 Y-1.248 F420.000
G1 X-12.429 Y-1.985 F420.000
G1 X-12.365 Y-2.350 F420.000
G1 X-12.289 Y-2.714 F420.000
G1 X-12.113 Y-3.436 F420.000
G1 X-12.011 Y-3.793 F420.000
G1 X-11.778 Y-4.496 F420.000
G1 X-11.508 Y-5.184 F420.000
G1 X-11.357 Y-5.523 F420.000
G1 X-11.008 Y-6.177 F420.000
G1 X-10.620 Y-6.812 F420.000
G1 X-10.414 Y-7.120 F420.000
G1 X-9.970 Y-7.718 F420.000
G1 X-9.496 Y-8.289 F420.000
G1 X-9.252 Y-8.568 F420.000
G1 X-8.996 Y-8.838 F420.000
G1 X-8.466 Y-9.361 F420.000
G1 X-7.914 Y-9.857 F420.000
G1 X-7.323 Y-10.312 F420.000
G1 X-7.019 Y-10.526 F420.000
G1 X-6.387 Y-10.925 F420.000
G1 X-6.064 Y-11.109 F420.000
G1 X-5.402 Y-11.451 F420.000
G1 X-4.726 Y-11.767 F420.000
G1 X-4.383 Y-11.917 F420.000
G1 X-4.038 Y-12.056 F420.000
G1 X-3.688 Y-12.184 F420.000
G1 X-2.974 Y-12.402 F420.000
G1 X-2.613 Y-12.496 F420.000
G1 X-1.880 Y-12.647 F420.000
G1 X-1.511 Y-12.703 F420.000
G1 X-1.139 Y-12.748 F420.000
G1 X-0.767 Y-12.782 F420.000
G1 X-0.395 Y-12.805 F420.000
G1 X-0.023 Y-12.816 F420.000
G1 X0.714 Y-12.812 F420.000
G1 X1.451 Y-12.767 F420.000
G1 X2.188 Y-12.669 F420.000
G1 X2.553 Y-12.602 F420.000
G1 X2.914 Y-12.523 F420.000
G1 X3.274 Y-12.432 F420.000
G1 X3.632 Y-12.331 F420.000
G1 X3.985 Y-12.218 F420.000
G1 X4.680 Y-11.966 F420.000
G1 X5.361 Y-11.673 F420.000
G1 X5.695 Y-11.515 F420.000
G1 X6.026 Y-11.346 F420.000
G1 X6.673 Y-10.977 F420.000
G1 X7.305 Y-10.586 F420.000
G1 X7.917 Y-10.165 F420.000
G1 X8.492 Y-9.692 F420.000
G1 X8.771 Y-9.444 F420.000
G1 X9.038 Y-9.184 F420.000
G1 X9.553 Y-8.647 F420.000
G1 X10.034 Y-8.075 F420.000
G1 X10.489 Y-7.485 F420.000
G1 X10.910 Y-6.872 F420.000
G1 X11.286 Y-6.229 F420.000
G1 X11.466 Y-5.902 F420.000
G1 X11.789 Y-5.229 F420.000
G1 X11.940 Y-4.887 F420.000
G1 X12.079 Y-4.541 F420.000
G1 X12.444 Y-3.485 F420.000
G1 X12.647 Y-2.767 F420.000
G1 X12.786 Y-2.030 F420.000
G1 X12.846 Y-1.662 F420.000
G1 X12.936 Y-0.917 F420.000
G1 X12.989 Y-0.173 F420.000
G1 X13.000 Y0.195 F420.000
G1 X12.974 Y0.932 F420.000
G1 X12.944 Y1.301 F420.000
G1 X12.898 Y1.669 F420.000
G1 X12.842 Y2.034 F420.000
G1 X12.703 Y2.763 F420.000
G1 X12.617 Y3.124 F420.000
G1 X12.414 Y3.838 F420.000
G1 X12.177 Y4.541 F420.000
G1 X11.906 Y5.233 F420.000
G1 X11.759 Y5.575 F420.000
G1 X11.417 Y6.233 F420.000
G1 X11.045 Y6.876 F420.000
G1 X10.639 Y7.496 F420.000
G1 X10.425 Y7.801 F420.000
G1 X9.955 Y8.376 F420.000
G1 X9.707 Y8.654 F420.000
G1 X9.451 Y8.925 F420.000
G1 X9.188 Y9.188 F420.000
G1 X8.917 Y9.444 F420.000
G1 X8.357 Y9.936 F420.000
G1 X7.774 Y10.398 F420.000
G1 X7.169 Y10.835 F420.000
G1 X6.541 Y11.241 F420.000
G1 X5.898 Y11.617 F420.000
G1 X5.226 Y11.936 F420.000
G1 X4.883 Y12.083 F420.000
G1 X3.827 Y12.459 F420.000
G1 X3.109 Y12.662 F420.000
G1 X2.748 Y12.752 F420.000
G1 X2.015 Y12.902 F420.000
G1 X1.647 Y12.966 F420.000
G1 X1.278 Y13.019 F420.000
G1 X0.534 Y13.075 F420.000
G1 X-0.207 Y13.090 F420.000
G1 X-0.944 Y13.068 F420.000
G1 X-1.680 Y13.008 F420.000
G1 X-2.410 Y12.891 F420.000
G1 X-2.774 Y12.816 F420.000
G1 X-3.135 Y12.726 F420.000
G1 X-3.850 Y12.519 F420.000
G1 X-4.203 Y12.406 F420.000
G1 X-4.898 Y12.150 F420.000
G1 X-5.579 Y11.865 F420.000
G1 X-6.241 Y11.523 F420.000
G1 X-6.564 Y11.338 F420.000
G1 X-7.192 Y10.940 F420.000
G1 X-7.496 Y10.726 F420.000
G1 X-8.083 Y10.267 F420.000
G1 X-8.368 Y10.030 F420.000
G1 X-8.925 Y9.534 F420.000
G1 X-9.195 Y9.278 F420.000
G1 X-9.718 Y8.748 F420.000
G1 X-10.199 Y8.180 F420.000
G1 X-10.429 Y7.887 F420.000
G1 X-10.857 Y7.282 F420.000
G1 X-11.060 Y6.970 F420.000
G1 X-11.436 Y6.327 F420.000
G1 X-11.609 Y5.996 F420.000
G1 X-11.771 Y5.662 F420.000
G1 X-12.203 Y4.628 F420.000
G1 X-12.444 Y3.921 F420.000
G1 X-12.553 Y3.564 F420.000
G1 X-12.741 Y2.842 F420.000
G1 X-12.823 Y2.477 F420.000
G1 X-12.932 Y1.741 F420.000
G1 X-13.015 Y0.996 F420.000
G1 X-13.041 Y0.624 F420.000
G1 X-13.068 Y-0.117 F420.000
G1 X-13.060 Y-0.853 F420.000
G1 X-13.045 Y-1.222 F420.000
G1 X-13.019 Y-1.590 F420.000
G1 X-12.917 Y-2.327 F420.000
G1 X-12.850 Y-2.692 F420.000
G1 X-12.677 Y-3.414 F420.000
G1 X-12.466 Y-4.128 F420.000
G1 X-12.218 Y-4.827 F420.000
G1 X-12.083 Y-5.173 F420.000
G1 X-11.936 Y-5.515 F420.000
G1 X-11.613 Y-6.188 F420.000
G1 X-11.233 Y-6.827 F420.000
G1 X-10.823 Y-7.447 F420.000
G1 X-10.380 Y-8.045 F420.000
G1 X-9.906 Y-8.620 F420.000
G1 X-9.662 Y-8.902 F420.000
G1 X-9.410 Y-9.177 F420.000
G1 X-8.887 Y-9.707 F420.000
G1 X-8.030 Y-10.429 F420.000
G1 X-7.432 Y-10.876 F420.000
G1 X-7.128 Y-11.090 F420.000
G1 X-6.485 Y-11.470 F420.000
G1 X-5.492 Y-11.989 F420.000
G1 X-4.816 Y-12.305 F420.000
G1 X-4.128 Y-12.598 F420.000
G1 X-3.421 Y-12.831 F420.000
G1 X-3.060 Y-12.932 F420.000
G1 X-2.331 Y-13.098 F420.000
G1 X-1.594 Y-13.222 F420.000
G1 X-1.222 Y-13.267 F420.000
G1 X-0.477 Y-13.327 F420.000
G1 X-0.105 Y-13.342 F420.000
G1 X0.263 Y-13.346 F420.000
G1 X1.000 Y-13.323 F420.000
G1 X1.368 Y-13.297 F420.000
G1 X1.737 Y-13.259 F420.000
G1 X2.470 Y-13.154 F420.000
G1 X2.835 Y-13.086 F420.000
G1 X3.195 Y-13.008 F420.000
G1 X3.556 Y-12.917 F420.000
G1 X4.263 Y-12.692 F420.000
G1 X4.959 Y-12.429 F420.000
G1 X5.301 Y-12.282 F420.000
G1 X5.974 Y-11.959 F420.000
G1 X6.305 Y-11.789 F420.000
G1 X6.947 Y-11.421 F420.000
G1 X7.579 Y-11.034 F420.000
G1 X8.192 Y-10.617 F420.000
G1 X8.485 Y-10.387 F420.000
G1 X9.045 Y-9.895 F420.000
G1 X9.316 Y-9.639 F420.000
G1 X9.579 Y-9.376 F420.000
G1 X10.083 Y-8.831 F420.000
G1 X10.556 Y-8.259 F420.000
G1 X11.000 Y-7.662 F420.000
G1 X11.414 Y-7.041 F420.000
G1 X11.789 Y-6.398 F420.000
G1 X11.966 Y-6.068 F420.000
G1 X12.289 Y-5.395 F420.000
G1 X12.575 Y-4.707 F420.000
G1 X12.707 Y-4.357 F420.000
G1 X12.827 Y-4.004 F420.000
G1 X13.038 Y-3.286 F420.000
G1 X13.211 Y-2.560 F420.000
G1 X13.350 Y-1.823 F420.000
G1 X13.455 Y-1.083 F420.000
G1 X13.496 Y-0.711 F420.000
G1 X13.530 Y0.030 F420.000
G1 X13.534 Y0.398 F420.000
G1 X13.523 Y0.767 F420.000
G1 X13.402 Y1.872 F420.000
G1 X13.346 Y2.237 F420.000
G1 X13.203 Y2.966 F420.000
G1 X13.120 Y3.327 F420.000
G1 X12.925 Y4.041 F420.000
G1 X12.816 Y4.395 F420.000
G1 X12.695 Y4.744 F420.000
G1 X12.406 Y5.429 F420.000
G1 X12.252 Y5.767 F420.000
G1 X11.914 Y6.425 F420.000
G1 X11.733 Y6.748 F420.000
G1 X11.342 Y7.383 F420.000
G1 X10.921 Y7.996 F420.000
G1 X10.470 Y8.586 F420.000
G1 X10.233 Y8.872 F420.000
G1 X9.718 Y9.410 F420.000
G1 X9.455 Y9.673 F420.000
G1 X8.613 Y10.406 F420.000
G1 X7.733 Y11.094 F420.000
G1 X7.124 Y11.523 F420.000
G1 X6.805 Y11.718 F420.000
G1 X6.147 Y12.071 F420.000
G1 X5.812 Y12.241 F420.000
G1 X5.128 Y12.541 F420.000
G1 X4.782 Y12.680 F420.000
G1 X4.079 Y12.929 F420.000
G1 X3.361 Y13.139 F420.000
G1 X3.000 Y13.233 F420.000
G1 X2.271 Y13.391 F420.000
G1 X1.534 Y13.511 F420.000
G1 X0.789 Y13.594 F420.000
G1 X0.417 Y13.620 F420.000
G1 X-0.323 Y13.628 F420.000
G1 X-0.692 Y13.617 F420.000
G1 X-1.429 Y13.564 F420.000
G1 X-2.165 Y13.466 F420.000
G1 X-2.530 Y13.406 F420.000
G1 X-2.895 Y13.335 F420.000
G1 X-3.617 Y13.162 F420.000
G1 X-4.327 Y12.951 F420.000
G1 X-4.677 Y12.831 F420.000
G1 X-5.361 Y12.541 F420.000
G1 X-6.034 Y12.226 F420.000
G1 X-6.692 Y11.880 F420.000
G1 X-7.015 Y11.695 F420.000
G1 X-7.635 Y11.286 F420.000
G1 X-7.936 Y11.068 F420.000
G1 X-8.519 Y10.602 F420.000
G1 X-9.086 Y10.117 F420.000
G1 X-9.632 Y9.609 F420.000
G1 X-9.895 Y9.346 F420.000
G1 X-10.391 Y8.789 F420.000
G1 X-10.628 Y8.504 F420.000
G1 X-11.075 Y7.906 F420.000
G1 X-11.489 Y7.286 F420.000
G1 X-11.684 Y6.966 F420.000
G1 X-12.045 Y6.312 F420.000
G1 X-12.368 Y5.639 F420.000
G1 X-12.515 Y5.297 F420.000
G1 X-12.778 Y4.602 F420.000
G1 X-13.008 Y3.891 F420.000
G1 X-13.203 Y3.169 F420.000
G1 X-13.289 Y2.805 F420.000
G1 X-13.432 Y2.071 F420.000
G1 X-13.519 Y1.327 F420.000
G1 X-13.590 Y0.211 F420.000
G1 X-13.598 Y-0.526 F420.000
G1 X-13.575 Y-1.263 F420.000
G1 X-13.553 Y-1.632 F420.000
G1 X-13.508 Y-2.000 F420.000
G1 X-13.376 Y-2.729 F420.000
G1 X-13.211 Y-3.451 F420.000
G1 X-13.008 Y-4.162 F420.000
G1 X-12.891 Y-4.515 F420.000
G1 X-12.628 Y-5.211 F420.000
G1 X-12.485 Y-5.553 F420.000
G1 X-12.169 Y-6.226 F420.000
G1 X-12.000 Y-6.556 F420.000
G1 X-11.632 Y-7.203 F420.000
G1 X-10.989 Y-8.117 F420.000
G1 X-10.530 Y-8.703 F420.000
G1 X-10.289 Y-8.989 F420.000
G1 X-10.041 Y-9.267 F420.000
G1 X-9.526 Y-9.805 F420.000
G1 X-9.259 Y-10.064 F420.000
G1 X-8.707 Y-10.564 F420.000
G1 X-8.132 Y-11.038 F420.000
G1 X-7.515 Y-11.459 F420.000
G1 X-6.556 Y-12.030 F420.000
G1 X-5.564 Y-12.541 F420.000
G1 X-4.545 Y-13.004 F420.000
G1 X-3.838 Y-13.252 F420.000
G1 X-3.481 Y-13.365 F420.000
G1 X-2.759 Y-13.553 F420.000
G1 X-2.395 Y-13.632 F420.000
G1 X-2.026 Y-13.699 F420.000
G1 X-1.658 Y-13.756 F420.000
G1 X-1.286 Y-13.801 F420.000
G1 X-0.914 Y-13.835 F420.000
G1 X-0.541 Y-13.857 F420.000
G1 X0.199 Y-13.876 F420.000
G1 X0.936 Y-13.853 F420.000
G1 X1.305 Y-13.827 F420.000
G1 X2.041 Y-13.744 F420.000
G1 X2.410 Y-13.692 F420.000
G1 X3.139 Y-13.556 F420.000
G1 X3.500 Y-13.474 F420.000
G1 X4.214 Y-13.271 F420.000
G1 X4.568 Y-13.154 F420.000
G1 X4.917 Y-13.026 F420.000
G1 X5.263 Y-12.887 F420.000
G1 X5.602 Y-12.737 F420.000
G1 X6.598 Y-12.233 F420.000
G1 X7.244 Y-11.865 F420.000
G1 X8.184 Y-11.271 F420.000
G1 X8.771 Y-10.820 F420.000
G1 X9.338 Y-10.338 F420.000
G1 X9.613 Y-10.086 F420.000
G1 X9.880 Y-9.827 F420.000
G1 X10.139 Y-9.560 F420.000
G1 X10.639 Y-9.008 F420.000
G1 X11.113 Y-8.429 F420.000
G1 X11.338 Y-8.132 F420.000
G1 X11.759 Y-7.519 F420.000
G1 X12.150 Y-6.883 F420.000
G1 X12.496 Y-6.226 F420.000
G1 X12.808 Y-5.545 F420.000
G1 X12.951 Y-5.199 F420.000
G1 X13.331 Y-4.143 F420.000
G1 X13.545 Y-3.429 F420.000
G1 X13.733 Y-2.707 F420.000
G1 X13.925 Y-1.602 F420.000
G1 X14.004 Y-0.857 F420.000
G1 X14.030 Y-0.485 F420.000
G1 X14.053 Y0.256 F420.000
G1 X14.038 Y0.992 F420.000
G1 X13.959 Y1.729 F420.000
G1 X13.842 Y2.459 F420.000
G1 X13.692 Y3.188 F420.000
G1 X13.609 Y3.549 F420.000
G1 X13.417 Y4.263 F420.000
G1 X13.165 Y4.962 F420.000
G1 X12.880 Y5.650 F420.000
G1 X12.726 Y5.989 F420.000
G1 X12.387 Y6.650 F420.000
G1 X12.207 Y6.974 F420.000
G1 X11.816 Y7.609 F420.000
G1 X11.395 Y8.222 F420.000
G1 X10.951 Y8.816 F420.000
G1 X10.718 Y9.105 F420.000
G1 X10.211 Y9.650 F420.000
G1 X9.680 Y10.173 F420.000
G1 X9.124 Y10.669 F420.000
G1 X8.545 Y11.139 F420.000
G1 X7.947 Y11.583 F420.000
G1 X7.331 Y12.004 F420.000
G1 X7.015 Y12.203 F420.000
G1 X6.357 Y12.556 F420.000
G1 X5.684 Y12.876 F420.000
G1 X5.342 Y13.023 F420.000
G1 X4.647 Y13.286 F420.000
G1 X4.293 Y13.406 F420.000
G1 X3.214 Y13.718 F420.000
G1 X2.485 Y13.887 F420.000
G1 X2.120 Y13.962 F420.000
G1 X1.380 Y14.068 F420.000
G1 X1.008 Y14.105 F420.000
G1 X0.263 Y14.143 F420.000
G1 X-0.474 Y14.147 F420.000
G1 X-0.842 Y14.135 F420.000
G1 X-1.579 Y14.083 F420.000
G1 X-1.947 Y14.045 F420.000
G1 X-2.316 Y13.996 F420.000
G1 X-3.045 Y13.850 F420.000
G1 X-3.767 Y13.669 F420.000
G1 X-4.477 Y13.451 F420.000
G1 X-4.827 Y13.331 F420.000
G1 X-5.519 Y13.060 F420.000
G1 X-6.199 Y12.759 F420.000
G1 X-7.173 Y12.218 F420.000
G1 X-7.793 Y11.808 F420.000
G1 X-8.395 Y11.372 F420.000
G1 X-8.974 Y10.906 F420.000
G1 X-9.534 Y10.417 F420.000
G1 X-10.071 Y9.902 F420.000
G1 X-10.583 Y9.365 F420.000
G1 X-11.071 Y8.805 F420.000
G1 X-11.511 Y8.203 F420.000
G1 X-11.921 Y7.583 F420.000
G1 X-12.297 Y6.940 F420.000
G1 X-12.474 Y6.613 F420.000
G1 X-12.797 Y5.940 F420.000
G1 X-12.947 Y5.598 F420.000
G1 X-13.218 Y4.902 F420.000
G1 X-13.342 Y4.549 F420.000
G1 X-13.560 Y3.835 F420.000
G1 X-13.662 Y3.474 F420.000
