(Exported by FreeCAD)
(Post Processor: grbl_post)
(Output Time:2024-03-22 23:02:50.260527)
(Begin preamble)
G17 G90
G21
(Block-name: Fixture)
(Block-expand: 0)
(Block-enable: 1)
(Begin operation: Fixture)
(Path: Fixture)
G54
(Finish operation: Fixture)
(Block-name: 3mm Endmill001)
(Block-expand: 0)
(Block-enable: 1)
(Begin operation: 3mm Endmill001)
(Path: 3mm Endmill001)
(3mm Endmill001)
(Begin toolchange)
( M6 T3 )
M3 S8000
(Finish operation: 3mm Endmill001)
(Block-name: MillFace_backface)
(Block-expand: 0)
(Block-enable: 1)
(Begin operation: MillFace_backface)
(Path: MillFace_backface)
(MillFace_backface)
G0 Z6.000
G0 X2.500 Y109.500
G0 Z4.000
G1 X2.500 Y109.500 Z0.000 F400.000
G1 X-82.500 Y109.500 Z0.000 F400.000
G1 X-82.500 Y-15.500 Z0.000 F400.000
G1 X2.500 Y-15.500 Z0.000 F400.000
G1 X2.500 Y109.500 Z0.000 F400.000
G0 Z6.000
G0 X-82.500 Y107.389 Z6.000
G0 X-82.500 Y107.389 Z4.000
G1 X-82.500 Y107.389 Z0.000 F400.000
G1 X-80.389 Y109.500 Z0.000 F400.000
G1 X-82.500 Y109.500 Z0.000 F400.000
G1 X-82.500 Y107.389 Z0.000 F400.000
G1 X-82.500 Y105.268 Z0.000 F400.000
G1 X-78.268 Y109.500 Z0.000 F400.000
G1 X-76.147 Y109.500 Z0.000 F400.000
G1 X-82.500 Y103.147 Z0.000 F400.000
G1 X-82.500 Y101.025 Z0.000 F400.000
G1 X-74.025 Y109.500 Z0.000 F400.000
G1 X-71.904 Y109.500 Z0.000 F400.000
G1 X-82.500 Y98.904 Z0.000 F400.000
G1 X-82.500 Y96.783 Z0.000 F400.000
G1 X-69.783 Y109.500 Z0.000 F400.000
G1 X-67.661 Y109.500 Z0.000 F400.000
G1 X-82.500 Y94.661 Z0.000 F400.000
G1 X-82.500 Y92.540 Z0.000 F400.000
G1 X-65.540 Y109.500 Z0.000 F400.000
G1 X-63.419 Y109.500 Z0.000 F400.000
G1 X-82.500 Y90.419 Z0.000 F400.000
G1 X-82.500 Y88.298 Z0.000 F400.000
G1 X-61.298 Y109.500 Z0.000 F400.000
G1 X-59.176 Y109.500 Z0.000 F400.000
G1 X-82.500 Y86.176 Z0.000 F400.000
G1 X-82.500 Y84.055 Z0.000 F400.000
G1 X-57.055 Y109.500 Z0.000 F400.000
G1 X-54.934 Y109.500 Z0.000 F400.000
G1 X-82.500 Y81.934 Z0.000 F400.000
G1 X-82.500 Y79.812 Z0.000 F400.000
G1 X-52.812 Y109.500 Z0.000 F400.000
G1 X-50.691 Y109.500 Z0.000 F400.000
G1 X-82.500 Y77.691 Z0.000 F400.000
G1 X-82.500 Y75.570 Z0.000 F400.000
G1 X-48.570 Y109.500 Z0.000 F400.000
G1 X-46.448 Y109.500 Z0.000 F400.000
G1 X-82.500 Y73.448 Z0.000 F400.000
G1 X-82.500 Y71.327 Z0.000 F400.000
G1 X-44.327 Y109.500 Z0.000 F400.000
G1 X-42.206 Y109.500 Z0.000 F400.000
G1 X-82.500 Y69.206 Z0.000 F400.000
G1 X-82.500 Y67.084 Z0.000 F400.000
G1 X-40.084 Y109.500 Z0.000 F400.000
G1 X-37.963 Y109.500 Z0.000 F400.000
G1 X-82.500 Y64.963 Z0.000 F400.000
G1 X-82.500 Y62.842 Z0.000 F400.000
G1 X-35.842 Y109.500 Z0.000 F400.000
G1 X-33.720 Y109.500 Z0.000 F400.000
G1 X-82.500 Y60.720 Z0.000 F400.000
G1 X-82.500 Y58.599 Z0.000 F400.000
G1 X-31.599 Y109.500 Z0.000 F400.000
G1 X-29.478 Y109.500 Z0.000 F400.000
G1 X-82.500 Y56.478 Z0.000 F400.000
G1 X-82.500 Y54.356 Z0.000 F400.000
G1 X-27.356 Y109.500 Z0.000 F400.000
G1 X-25.235 Y109.500 Z0.000 F400.000
G1 X-82.500 Y52.235 Z0.000 F400.000
G1 X-82.500 Y50.114 Z0.000 F400.000
G1 X-23.114 Y109.500 Z0.000 F400.000
G1 X-20.992 Y109.500 Z0.000 F400.000
G1 X-82.500 Y47.992 Z0.000 F400.000
G1 X-82.500 Y45.871 Z0.000 F400.000
G1 X-18.871 Y109.500 Z0.000 F400.000
G1 X-16.750 Y109.500 Z0.000 F400.000
G1 X-82.500 Y43.750 Z0.000 F400.000
G1 X-82.500 Y41.628 Z0.000 F400.000
G1 X-14.628 Y109.500 Z0.000 F400.000
G1 X-12.507 Y109.500 Z0.000 F400.000
G1 X-82.500 Y39.507 Z0.000 F400.000
G1 X-82.500 Y37.386 Z0.000 F400.000
G1 X-10.386 Y109.500 Z0.000 F400.000
G1 X-8.265 Y109.500 Z0.000 F400.000
G1 X-82.500 Y35.265 Z0.000 F400.000
G1 X-82.500 Y33.143 Z0.000 F400.000
G1 X-6.143 Y109.500 Z0.000 F400.000
G1 X-4.022 Y109.500 Z0.000 F400.000
G1 X-82.500 Y31.022 Z0.000 F400.000
G1 X-82.500 Y28.901 Z0.000 F400.000
G1 X-1.901 Y109.500 Z0.000 F400.000
G1 X0.221 Y109.500 Z0.000 F400.000
G1 X-82.500 Y26.779 Z0.000 F400.000
G1 X-82.500 Y24.658 Z0.000 F400.000
G1 X2.342 Y109.500 Z0.000 F400.000
G1 X2.500 Y109.500 Z0.000 F400.000
G1 X2.500 Y107.537 Z0.000 F400.000
G1 X-82.500 Y22.537 Z0.000 F400.000
G1 X-82.500 Y20.415 Z0.000 F400.000
G1 X2.500 Y105.415 Z0.000 F400.000
G1 X2.500 Y103.294 Z0.000 F400.000
G1 X-82.500 Y18.294 Z0.000 F400.000
G1 X-82.500 Y16.173 Z0.000 F400.000
G1 X2.500 Y101.173 Z0.000 F400.000
G1 X2.500 Y99.051 Z0.000 F400.000
G1 X-82.500 Y14.051 Z0.000 F400.000
G1 X-82.500 Y11.930 Z0.000 F400.000
G1 X2.500 Y96.930 Z0.000 F400.000
G1 X2.500 Y94.809 Z0.000 F400.000
G1 X-82.500 Y9.809 Z0.000 F400.000
G1 X-82.500 Y7.687 Z0.000 F400.000
G1 X2.500 Y92.687 Z0.000 F400.000
G1 X2.500 Y90.566 Z0.000 F400.000
G1 X-82.500 Y5.566 Z0.000 F400.000
G1 X-82.500 Y3.445 Z0.000 F400.000
G1 X2.500 Y88.445 Z0.000 F400.000
G1 X2.500 Y86.323 Z0.000 F400.000
G1 X-82.500 Y1.323 Z0.000 F400.000
G1 X-82.500 Y-0.798 Z0.000 F400.000
G1 X2.500 Y84.202 Z0.000 F400.000
G1 X2.500 Y82.081 Z0.000 F400.000
G1 X-82.500 Y-2.919 Z0.000 F400.000
G1 X-82.500 Y-5.041 Z0.000 F400.000
G1 X2.500 Y79.959 Z0.000 F400.000
G1 X2.500 Y77.838 Z0.000 F400.000
G1 X-82.500 Y-7.162 Z0.000 F400.000
G1 X-82.500 Y-9.283 Z0.000 F400.000
G1 X2.500 Y75.717 Z0.000 F400.000
G1 X2.500 Y73.595 Z0.000 F400.000
G1 X-82.500 Y-11.405 Z0.000 F400.000
G1 X-82.500 Y-13.526 Z0.000 F400.000
G1 X2.500 Y71.474 Z0.000 F400.000
G1 X2.500 Y69.353 Z0.000 F400.000
G1 X-82.353 Y-15.500 Z0.000 F400.000
G1 X-80.231 Y-15.500 Z0.000 F400.000
G1 X2.500 Y67.231 Z0.000 F400.000
G1 X2.500 Y65.110 Z0.000 F400.000
G1 X-78.110 Y-15.500 Z0.000 F400.000
G1 X-75.989 Y-15.500 Z0.000 F400.000
G1 X2.500 Y62.989 Z0.000 F400.000
G1 X2.500 Y60.868 Z0.000 F400.000
G1 X-73.868 Y-15.500 Z0.000 F400.000
G1 X-71.746 Y-15.500 Z0.000 F400.000
G1 X2.500 Y58.746 Z0.000 F400.000
G1 X2.500 Y56.625 Z0.000 F400.000
G1 X-69.625 Y-15.500 Z0.000 F400.000
G1 X-67.504 Y-15.500 Z0.000 F400.000
G1 X2.500 Y54.504 Z0.000 F400.000
G1 X2.500 Y52.382 Z0.000 F400.000
G1 X-65.382 Y-15.500 Z0.000 F400.000
G1 X-63.261 Y-15.500 Z0.000 F400.000
G1 X2.500 Y50.261 Z0.000 F400.000
G1 X2.500 Y48.140 Z0.000 F400.000
G1 X-61.140 Y-15.500 Z0.000 F400.000
G1 X-59.018 Y-15.500 Z0.000 F400.000
G1 X2.500 Y46.018 Z0.000 F400.000
G1 X2.500 Y43.897 Z0.000 F400.000
G1 X-56.897 Y-15.500 Z0.000 F400.000
G1 X-54.776 Y-15.500 Z0.000 F400.000
G1 X2.500 Y41.776 Z0.000 F400.000
G1 X2.500 Y39.654 Z0.000 F400.000
G1 X-52.654 Y-15.500 Z0.000 F400.000
G1 X-50.533 Y-15.500 Z0.000 F400.000
G1 X2.500 Y37.533 Z0.000 F400.000
G1 X2.500 Y35.412 Z0.000 F400.000
G1 X-48.412 Y-15.500 Z0.000 F400.000
G1 X-46.290 Y-15.500 Z0.000 F400.000
G1 X2.500 Y33.290 Z0.000 F400.000
G1 X2.500 Y31.169 Z0.000 F400.000
G1 X-44.169 Y-15.500 Z0.000 F400.000
G1 X-42.048 Y-15.500 Z0.000 F400.000
G1 X2.500 Y29.048 Z0.000 F400.000
G1 X2.500 Y26.926 Z0.000 F400.000
G1 X-39.926 Y-15.500 Z0.000 F400.000
G1 X-37.805 Y-15.500 Z0.000 F400.000
G1 X2.500 Y24.805 Z0.000 F400.000
G1 X2.500 Y22.684 Z0.000 F400.000
G1 X-35.684 Y-15.500 Z0.000 F400.000
G1 X-33.562 Y-15.500 Z0.000 F400.000
G1 X2.500 Y20.562 Z0.000 F400.000
G1 X2.500 Y18.441 Z0.000 F400.000
G1 X-31.441 Y-15.500 Z0.000 F400.000
G1 X-29.320 Y-15.500 Z0.000 F400.000
G1 X2.500 Y16.320 Z0.000 F400.000
G1 X2.500 Y14.198 Z0.000 F400.000
G1 X-27.198 Y-15.500 Z0.000 F400.000
G1 X-25.077 Y-15.500 Z0.000 F400.000
G1 X2.500 Y12.077 Z0.000 F400.000
G1 X2.500 Y9.956 Z0.000 F400.000
G1 X-22.956 Y-15.500 Z0.000 F400.000
G1 X-20.835 Y-15.500 Z0.000 F400.000
G1 X2.500 Y7.835 Z0.000 F400.000
G1 X2.500 Y5.713 Z0.000 F400.000
G1 X-18.713 Y-15.500 Z0.000 F400.000
G1 X-16.592 Y-15.500 Z0.000 F400.000
G1 X2.500 Y3.592 Z0.000 F400.000
G1 X2.500 Y1.471 Z0.000 F400.000
G1 X-14.471 Y-15.500 Z0.000 F400.000
G1 X-12.349 Y-15.500 Z0.000 F400.000
G1 X2.500 Y-0.651 Z0.000 F400.000
G1 X2.500 Y-2.772 Z0.000 F400.000
G1 X-10.228 Y-15.500 Z0.000 F400.000
G1 X-8.107 Y-15.500 Z0.000 F400.000
G1 X2.500 Y-4.893 Z0.000 F400.000
G1 X2.500 Y-7.015 Z0.000 F400.000
G1 X-5.985 Y-15.500 Z0.000 F400.000
G1 X-3.864 Y-15.500 Z0.000 F400.000
G1 X2.500 Y-9.136 Z0.000 F400.000
G1 X2.500 Y-11.257 Z0.000 F400.000
G1 X-1.743 Y-15.500 Z0.000 F400.000
G1 X0.379 Y-15.500 Z0.000 F400.000
G1 X2.500 Y-13.379 Z0.000 F400.000
G1 X2.500 Y-15.500 Z0.000 F400.000
G0 Z6.000
G0 Z6.000
(Finish operation: MillFace_backface)
(Block-name: Adaptive_outcut)
(Block-expand: 0)
(Block-enable: 1)
(Begin operation: Adaptive_outcut)
(Path: Adaptive_outcut)
(Adaptive_outcut)
(Helix to depth: -5.000000)
G0 Z6.000
G0 X-81.534 Y-10.519 Z6.000
G0 X-81.534 Y-10.519 Z4.000
G1 X-81.534 Y-10.519 Z1.000 F400.000
G1 X-81.534 Y-10.519 Z1.000 F400.000
G1 X-81.600 Y-10.449 Z0.995 F400.000
G1 X-81.677 Y-10.394 Z0.990 F400.000
G1 X-81.765 Y-10.355 Z0.985 F400.000
G1 X-81.858 Y-10.333 Z0.980 F400.000
G1 X-81.953 Y-10.330 Z0.974 F400.000
G1 X-82.048 Y-10.346 Z0.969 F400.000
G1 X-82.137 Y-10.380 Z0.964 F400.000
G1 X-82.218 Y-10.431 Z0.959 F400.000
G1 X-82.288 Y-10.496 Z0.954 F400.000
G1 X-82.343 Y-10.574 Z0.949 F400.000
G1 X-82.382 Y-10.661 Z0.944 F400.000
G1 X-82.404 Y-10.754 Z0.939 F400.000
G1 X-82.407 Y-10.850 Z0.933 F400.000
G1 X-82.391 Y-10.944 Z0.928 F400.000
G1 X-82.357 Y-11.034 Z0.923 F400.000
G1 X-82.306 Y-11.115 Z0.918 F400.000
G1 X-82.241 Y-11.184 Z0.913 F400.000
G1 X-82.163 Y-11.240 Z0.908 F400.000
G1 X-82.076 Y-11.279 Z0.903 F400.000
G1 X-81.983 Y-11.301 Z0.898 F400.000
G1 X-81.887 Y-11.303 Z0.892 F400.000
G1 X-81.793 Y-11.288 Z0.887 F400.000
G1 X-81.703 Y-11.254 Z0.882 F400.000
G1 X-81.622 Y-11.203 Z0.877 F400.000
G1 X-81.553 Y-11.138 Z0.872 F400.000
G1 X-81.497 Y-11.060 Z0.867 F400.000
G1 X-81.458 Y-10.972 Z0.862 F400.000
G1 X-81.437 Y-10.879 Z0.857 F400.000
G1 X-81.434 Y-10.784 Z0.851 F400.000
G1 X-81.449 Y-10.690 Z0.846 F400.000
G1 X-81.483 Y-10.600 Z0.841 F400.000
G1 X-81.534 Y-10.519 Z0.836 F400.000
G1 X-81.600 Y-10.449 Z0.831 F400.000
G1 X-81.677 Y-10.394 Z0.826 F400.000
G1 X-81.765 Y-10.355 Z0.821 F400.000
G1 X-81.858 Y-10.333 Z0.816 F400.000
G1 X-81.953 Y-10.330 Z0.811 F400.000
G1 X-82.048 Y-10.346 Z0.805 F400.000
G1 X-82.137 Y-10.380 Z0.800 F400.000
G1 X-82.218 Y-10.431 Z0.795 F400.000
G1 X-82.288 Y-10.496 Z0.790 F400.000
G1 X-82.343 Y-10.574 Z0.785 F400.000
G1 X-82.382 Y-10.661 Z0.780 F400.000
G1 X-82.404 Y-10.754 Z0.775 F400.000
G1 X-82.407 Y-10.850 Z0.770 F400.000
G1 X-82.391 Y-10.944 Z0.764 F400.000
G1 X-82.357 Y-11.034 Z0.759 F400.000
G1 X-82.306 Y-11.115 Z0.754 F400.000
G1 X-82.241 Y-11.184 Z0.749 F400.000
G1 X-82.163 Y-11.240 Z0.744 F400.000
G1 X-82.076 Y-11.279 Z0.739 F400.000
G1 X-81.983 Y-11.301 Z0.734 F400.000
G1 X-81.887 Y-11.303 Z0.729 F400.000
G1 X-81.793 Y-11.288 Z0.723 F400.000
G1 X-81.703 Y-11.254 Z0.718 F400.000
G1 X-81.622 Y-11.203 Z0.713 F400.000
G1 X-81.553 Y-11.138 Z0.708 F400.000
G1 X-81.497 Y-11.060 Z0.703 F400.000
G1 X-81.458 Y-10.972 Z0.698 F400.000
G1 X-81.437 Y-10.879 Z0.693 F400.000
G1 X-81.434 Y-10.784 Z0.688 F400.000
G1 X-81.449 Y-10.690 Z0.683 F400.000
G1 X-81.483 Y-10.600 Z0.677 F400.000
G1 X-81.534 Y-10.519 Z0.672 F400.000
G1 X-81.600 Y-10.449 Z0.667 F400.000
G1 X-81.677 Y-10.394 Z0.662 F400.000
G1 X-81.765 Y-10.355 Z0.657 F400.000
G1 X-81.858 Y-10.333 Z0.652 F400.000
G1 X-81.953 Y-10.330 Z0.647 F400.000
G1 X-82.048 Y-10.346 Z0.642 F400.000
G1 X-82.137 Y-10.380 Z0.636 F400.000
G1 X-82.218 Y-10.431 Z0.631 F400.000
G1 X-82.288 Y-10.496 Z0.626 F400.000
G1 X-82.343 Y-10.574 Z0.621 F400.000
G1 X-82.382 Y-10.661 Z0.616 F400.000
G1 X-82.404 Y-10.754 Z0.611 F400.000
G1 X-82.407 Y-10.850 Z0.606 F400.000
G1 X-82.391 Y-10.944 Z0.601 F400.000
G1 X-82.357 Y-11.034 Z0.595 F400.000
G1 X-82.306 Y-11.115 Z0.590 F400.000
G1 X-82.241 Y-11.184 Z0.585 F400.000
G1 X-82.163 Y-11.240 Z0.580 F400.000
G1 X-82.076 Y-11.279 Z0.575 F400.000
G1 X-81.983 Y-11.301 Z0.570 F400.000
G1 X-81.887 Y-11.303 Z0.565 F400.000
G1 X-81.793 Y-11.288 Z0.560 F400.000
G1 X-81.703 Y-11.254 Z0.554 F400.000
G1 X-81.622 Y-11.203 Z0.549 F400.000
G1 X-81.553 Y-11.138 Z0.544 F400.000
G1 X-81.497 Y-11.060 Z0.539 F400.000
G1 X-81.458 Y-10.972 Z0.534 F400.000
G1 X-81.437 Y-10.879 Z0.529 F400.000
G1 X-81.434 Y-10.784 Z0.524 F400.000
G1 X-81.449 Y-10.690 Z0.519 F400.000
G1 X-81.483 Y-10.600 Z0.514 F400.000
G1 X-81.534 Y-10.519 Z0.508 F400.000
G1 X-81.600 Y-10.449 Z0.503 F400.000
G1 X-81.677 Y-10.394 Z0.498 F400.000
G1 X-81.765 Y-10.355 Z0.493 F400.000
G1 X-81.858 Y-10.333 Z0.488 F400.000
G1 X-81.953 Y-10.330 Z0.483 F400.000
G1 X-82.048 Y-10.346 Z0.478 F400.000
G1 X-82.137 Y-10.380 Z0.473 F400.000
G1 X-82.218 Y-10.431 Z0.467 F400.000
G1 X-82.288 Y-10.496 Z0.462 F400.000
G1 X-82.343 Y-10.574 Z0.457 F400.000
G1 X-82.382 Y-10.661 Z0.452 F400.000
G1 X-82.404 Y-10.754 Z0.447 F400.000
G1 X-82.407 Y-10.850 Z0.442 F400.000
G1 X-82.391 Y-10.944 Z0.437 F400.000
G1 X-82.357 Y-11.034 Z0.432 F400.000
G1 X-82.306 Y-11.115 Z0.426 F400.000
G1 X-82.241 Y-11.184 Z0.421 F400.000
G1 X-82.163 Y-11.240 Z0.416 F400.000
G1 X-82.076 Y-11.279 Z0.411 F400.000
G1 X-81.983 Y-11.301 Z0.406 F400.000
G1 X-81.887 Y-11.303 Z0.401 F400.000
G1 X-81.793 Y-11.288 Z0.396 F400.000
G1 X-81.703 Y-11.254 Z0.391 F400.000
G1 X-81.622 Y-11.203 Z0.385 F400.000
G1 X-81.553 Y-11.138 Z0.380 F400.000
G1 X-81.497 Y-11.060 Z0.375 F400.000
G1 X-81.458 Y-10.972 Z0.370 F400.000
G1 X-81.437 Y-10.879 Z0.365 F400.000
G1 X-81.434 Y-10.784 Z0.360 F400.000
G1 X-81.449 Y-10.690 Z0.355 F400.000
G1 X-81.483 Y-10.600 Z0.350 F400.000
G1 X-81.534 Y-10.519 Z0.345 F400.000
G1 X-81.600 Y-10.449 Z0.339 F400.000
G1 X-81.677 Y-10.394 Z0.334 F400.000
G1 X-81.765 Y-10.355 Z0.329 F400.000
G1 X-81.858 Y-10.333 Z0.324 F400.000
G1 X-81.953 Y-10.330 Z0.319 F400.000
G1 X-82.048 Y-10.346 Z0.314 F400.000
G1 X-82.137 Y-10.380 Z0.309 F400.000
G1 X-82.218 Y-10.431 Z0.304 F400.000
G1 X-82.288 Y-10.496 Z0.298 F400.000
G1 X-82.343 Y-10.574 Z0.293 F400.000
G1 X-82.382 Y-10.661 Z0.288 F400.000
G1 X-82.404 Y-10.754 Z0.283 F400.000
G1 X-82.407 Y-10.850 Z0.278 F400.000
G1 X-82.391 Y-10.944 Z0.273 F400.000
G1 X-82.357 Y-11.034 Z0.268 F400.000
G1 X-82.306 Y-11.115 Z0.263 F400.000
G1 X-82.241 Y-11.184 Z0.257 F400.000
G1 X-82.163 Y-11.240 Z0.252 F400.000
G1 X-82.076 Y-11.279 Z0.247 F400.000
G1 X-81.983 Y-11.301 Z0.242 F400.000
G1 X-81.887 Y-11.303 Z0.237 F400.000
G1 X-81.793 Y-11.288 Z0.232 F400.000
G1 X-81.703 Y-11.254 Z0.227 F400.000
G1 X-81.622 Y-11.203 Z0.222 F400.000
G1 X-81.553 Y-11.138 Z0.216 F400.000
G1 X-81.497 Y-11.060 Z0.211 F400.000
G1 X-81.458 Y-10.972 Z0.206 F400.000
G1 X-81.437 Y-10.879 Z0.201 F400.000
G1 X-81.434 Y-10.784 Z0.196 F400.000
G1 X-81.449 Y-10.690 Z0.191 F400.000
G1 X-81.483 Y-10.600 Z0.186 F400.000
G1 X-81.534 Y-10.519 Z0.181 F400.000
G1 X-81.600 Y-10.449 Z0.176 F400.000
G1 X-81.677 Y-10.394 Z0.170 F400.000
G1 X-81.765 Y-10.355 Z0.165 F400.000
G1 X-81.858 Y-10.333 Z0.160 F400.000
G1 X-81.953 Y-10.330 Z0.155 F400.000
G1 X-82.048 Y-10.346 Z0.150 F400.000
G1 X-82.137 Y-10.380 Z0.145 F400.000
G1 X-82.218 Y-10.431 Z0.140 F400.000
G1 X-82.288 Y-10.496 Z0.135 F400.000
G1 X-82.343 Y-10.574 Z0.129 F400.000
G1 X-82.382 Y-10.661 Z0.124 F400.000
G1 X-82.404 Y-10.754 Z0.119 F400.000
G1 X-82.407 Y-10.850 Z0.114 F400.000
G1 X-82.391 Y-10.944 Z0.109 F400.000
G1 X-82.357 Y-11.034 Z0.104 F400.000
G1 X-82.306 Y-11.115 Z0.099 F400.000
G1 X-82.241 Y-11.184 Z0.094 F400.000
G1 X-82.163 Y-11.240 Z0.088 F400.000
G1 X-82.076 Y-11.279 Z0.083 F400.000
G1 X-81.983 Y-11.301 Z0.078 F400.000
G1 X-81.887 Y-11.303 Z0.073 F400.000
G1 X-81.793 Y-11.288 Z0.068 F400.000
G1 X-81.703 Y-11.254 Z0.063 F400.000
G1 X-81.622 Y-11.203 Z0.058 F400.000
G1 X-81.553 Y-11.138 Z0.053 F400.000
G1 X-81.497 Y-11.060 Z0.048 F400.000
G1 X-81.458 Y-10.972 Z0.042 F400.000
G1 X-81.437 Y-10.879 Z0.037 F400.000
G1 X-81.434 Y-10.784 Z0.032 F400.000
G1 X-81.449 Y-10.690 Z0.027 F400.000
G1 X-81.483 Y-10.600 Z0.022 F400.000
G1 X-81.534 Y-10.519 Z0.017 F400.000
G1 X-81.600 Y-10.449 Z0.012 F400.000
G1 X-81.677 Y-10.394 Z0.007 F400.000
G1 X-81.765 Y-10.355 Z0.001 F400.000
G1 X-81.858 Y-10.333 Z-0.004 F400.000
G1 X-81.953 Y-10.330 Z-0.009 F400.000
G1 X-82.048 Y-10.346 Z-0.014 F400.000
G1 X-82.137 Y-10.380 Z-0.019 F400.000
G1 X-82.218 Y-10.431 Z-0.024 F400.000
G1 X-82.288 Y-10.496 Z-0.029 F400.000
G1 X-82.343 Y-10.574 Z-0.034 F400.000
G1 X-82.382 Y-10.661 Z-0.040 F400.000
G1 X-82.404 Y-10.754 Z-0.045 F400.000
G1 X-82.407 Y-10.850 Z-0.050 F400.000
G1 X-82.391 Y-10.944 Z-0.055 F400.000
G1 X-82.357 Y-11.034 Z-0.060 F400.000
G1 X-82.306 Y-11.115 Z-0.065 F400.000
G1 X-82.241 Y-11.184 Z-0.070 F400.000
G1 X-82.163 Y-11.240 Z-0.075 F400.000
G1 X-82.076 Y-11.279 Z-0.081 F400.000
G1 X-81.983 Y-11.301 Z-0.086 F400.000
G1 X-81.887 Y-11.303 Z-0.091 F400.000
G1 X-81.793 Y-11.288 Z-0.096 F400.000
G1 X-81.703 Y-11.254 Z-0.101 F400.000
G1 X-81.622 Y-11.203 Z-0.106 F400.000
G1 X-81.553 Y-11.138 Z-0.111 F400.000
G1 X-81.497 Y-11.060 Z-0.116 F400.000
G1 X-81.458 Y-10.972 Z-0.121 F400.000
G1 X-81.437 Y-10.879 Z-0.127 F400.000
G1 X-81.434 Y-10.784 Z-0.132 F400.000
G1 X-81.449 Y-10.690 Z-0.137 F400.000
G1 X-81.483 Y-10.600 Z-0.142 F400.000
G1 X-81.534 Y-10.519 Z-0.147 F400.000
G1 X-81.600 Y-10.449 Z-0.152 F400.000
G1 X-81.677 Y-10.394 Z-0.157 F400.000
G1 X-81.765 Y-10.355 Z-0.162 F400.000
G1 X-81.858 Y-10.333 Z-0.168 F400.000
G1 X-81.953 Y-10.330 Z-0.173 F400.000
G1 X-82.048 Y-10.346 Z-0.178 F400.000
G1 X-82.137 Y-10.380 Z-0.183 F400.000
G1 X-82.218 Y-10.431 Z-0.188 F400.000
G1 X-82.288 Y-10.496 Z-0.193 F400.000
G1 X-82.343 Y-10.574 Z-0.198 F400.000
G1 X-82.382 Y-10.661 Z-0.203 F400.000
G1 X-82.404 Y-10.754 Z-0.209 F400.000
G1 X-82.407 Y-10.850 Z-0.214 F400.000
G1 X-82.391 Y-10.944 Z-0.219 F400.000
G1 X-82.357 Y-11.034 Z-0.224 F400.000
G1 X-82.306 Y-11.115 Z-0.229 F400.000
G1 X-82.241 Y-11.184 Z-0.234 F400.000
G1 X-82.163 Y-11.240 Z-0.239 F400.000
G1 X-82.076 Y-11.279 Z-0.244 F400.000
G1 X-81.983 Y-11.301 Z-0.250 F400.000
G1 X-81.887 Y-11.303 Z-0.255 F400.000
G1 X-81.793 Y-11.288 Z-0.260 F400.000
G1 X-81.703 Y-11.254 Z-0.265 F400.000
G1 X-81.622 Y-11.203 Z-0.270 F400.000
G1 X-81.553 Y-11.138 Z-0.275 F400.000
G1 X-81.497 Y-11.060 Z-0.280 F400.000
G1 X-81.458 Y-10.972 Z-0.285 F400.000
G1 X-81.437 Y-10.879 Z-0.290 F400.000
G1 X-81.434 Y-10.784 Z-0.296 F400.000
G1 X-81.449 Y-10.690 Z-0.301 F400.000
G1 X-81.483 Y-10.600 Z-0.306 F400.000
G1 X-81.534 Y-10.519 Z-0.311 F400.000
G1 X-81.600 Y-10.449 Z-0.316 F400.000
G1 X-81.677 Y-10.394 Z-0.321 F400.000
G1 X-81.765 Y-10.355 Z-0.326 F400.000
G1 X-81.858 Y-10.333 Z-0.331 F400.000
G1 X-81.953 Y-10.330 Z-0.337 F400.000
G1 X-82.048 Y-10.346 Z-0.342 F400.000
G1 X-82.137 Y-10.380 Z-0.347 F400.000
G1 X-82.218 Y-10.431 Z-0.352 F400.000
G1 X-82.288 Y-10.496 Z-0.357 F400.000
G1 X-82.343 Y-10.574 Z-0.362 F400.000
G1 X-82.382 Y-10.661 Z-0.367 F400.000
G1 X-82.404 Y-10.754 Z-0.372 F400.000
G1 X-82.407 Y-10.850 Z-0.378 F400.000
G1 X-82.391 Y-10.944 Z-0.383 F400.000
G1 X-82.357 Y-11.034 Z-0.388 F400.000
G1 X-82.306 Y-11.115 Z-0.393 F400.000
G1 X-82.241 Y-11.184 Z-0.398 F400.000
G1 X-82.163 Y-11.240 Z-0.403 F400.000
G1 X-82.076 Y-11.279 Z-0.408 F400.000
G1 X-81.983 Y-11.301 Z-0.413 F400.000
G1 X-81.887 Y-11.303 Z-0.419 F400.000
G1 X-81.793 Y-11.288 Z-0.424 F400.000
G1 X-81.703 Y-11.254 Z-0.429 F400.000
G1 X-81.622 Y-11.203 Z-0.434 F400.000
G1 X-81.553 Y-11.138 Z-0.439 F400.000
G1 X-81.497 Y-11.060 Z-0.444 F400.000
G1 X-81.458 Y-10.972 Z-0.449 F400.000
G1 X-81.437 Y-10.879 Z-0.454 F400.000
G1 X-81.434 Y-10.784 Z-0.459 F400.000
G1 X-81.449 Y-10.690 Z-0.465 F400.000
G1 X-81.483 Y-10.600 Z-0.470 F400.000
G1 X-81.534 Y-10.519 Z-0.475 F400.000
G1 X-81.600 Y-10.449 Z-0.480 F400.000
G1 X-81.677 Y-10.394 Z-0.485 F400.000
G1 X-81.765 Y-10.355 Z-0.490 F400.000
G1 X-81.858 Y-10.333 Z-0.495 F400.000
G1 X-81.953 Y-10.330 Z-0.500 F400.000
G1 X-82.048 Y-10.346 Z-0.506 F400.000
G1 X-82.137 Y-10.380 Z-0.511 F400.000
G1 X-82.218 Y-10.431 Z-0.516 F400.000
G1 X-82.288 Y-10.496 Z-0.521 F400.000
G1 X-82.343 Y-10.574 Z-0.526 F400.000
G1 X-82.382 Y-10.661 Z-0.531 F400.000
G1 X-82.404 Y-10.754 Z-0.536 F400.000
G1 X-82.407 Y-10.850 Z-0.541 F400.000
G1 X-82.391 Y-10.944 Z-0.547 F400.000
G1 X-82.357 Y-11.034 Z-0.552 F400.000
G1 X-82.306 Y-11.115 Z-0.557 F400.000
G1 X-82.241 Y-11.184 Z-0.562 F400.000
G1 X-82.163 Y-11.240 Z-0.567 F400.000
G1 X-82.076 Y-11.279 Z-0.572 F400.000
G1 X-81.983 Y-11.301 Z-0.577 F400.000
G1 X-81.887 Y-11.303 Z-0.582 F400.000
G1 X-81.793 Y-11.288 Z-0.587 F400.000
G1 X-81.703 Y-11.254 Z-0.593 F400.000
G1 X-81.622 Y-11.203 Z-0.598 F400.000
G1 X-81.553 Y-11.138 Z-0.603 F400.000
G1 X-81.497 Y-11.060 Z-0.608 F400.000
G1 X-81.458 Y-10.972 Z-0.613 F400.000
G1 X-81.437 Y-10.879 Z-0.618 F400.000
G1 X-81.434 Y-10.784 Z-0.623 F400.000
G1 X-81.449 Y-10.690 Z-0.628 F400.000
G1 X-81.483 Y-10.600 Z-0.634 F400.000
G1 X-81.534 Y-10.519 Z-0.639 F400.000
G1 X-81.600 Y-10.449 Z-0.644 F400.000
G1 X-81.677 Y-10.394 Z-0.649 F400.000
G1 X-81.765 Y-10.355 Z-0.654 F400.000
G1 X-81.858 Y-10.333 Z-0.659 F400.000
G1 X-81.953 Y-10.330 Z-0.664 F400.000
G1 X-82.048 Y-10.346 Z-0.669 F400.000
G1 X-82.137 Y-10.380 Z-0.675 F400.000
G1 X-82.218 Y-10.431 Z-0.680 F400.000
G1 X-82.288 Y-10.496 Z-0.685 F400.000
G1 X-82.343 Y-10.574 Z-0.690 F400.000
G1 X-82.382 Y-10.661 Z-0.695 F400.000
G1 X-82.404 Y-10.754 Z-0.700 F400.000
G1 X-82.407 Y-10.850 Z-0.705 F400.000
G1 X-82.391 Y-10.944 Z-0.710 F400.000
G1 X-82.357 Y-11.034 Z-0.716 F400.000
G1 X-82.306 Y-11.115 Z-0.721 F400.000
G1 X-82.241 Y-11.184 Z-0.726 F400.000
G1 X-82.163 Y-11.240 Z-0.731 F400.000
G1 X-82.076 Y-11.279 Z-0.736 F400.000
G1 X-81.983 Y-11.301 Z-0.741 F400.000
G1 X-81.887 Y-11.303 Z-0.746 F400.000
G1 X-81.793 Y-11.288 Z-0.751 F400.000
G1 X-81.703 Y-11.254 Z-0.756 F400.000
G1 X-81.622 Y-11.203 Z-0.762 F400.000
G1 X-81.553 Y-11.138 Z-0.767 F400.000
G1 X-81.497 Y-11.060 Z-0.772 F400.000
G1 X-81.458 Y-10.972 Z-0.777 F400.000
G1 X-81.437 Y-10.879 Z-0.782 F400.000
G1 X-81.434 Y-10.784 Z-0.787 F400.000
G1 X-81.449 Y-10.690 Z-0.792 F400.000
G1 X-81.483 Y-10.600 Z-0.797 F400.000
G1 X-81.534 Y-10.519 Z-0.803 F400.000
G1 X-81.600 Y-10.449 Z-0.808 F400.000
G1 X-81.677 Y-10.394 Z-0.813 F400.000
G1 X-81.765 Y-10.355 Z-0.818 F400.000
G1 X-81.858 Y-10.333 Z-0.823 F400.000
G1 X-81.953 Y-10.330 Z-0.828 F400.000
G1 X-82.048 Y-10.346 Z-0.833 F400.000
G1 X-82.137 Y-10.380 Z-0.838 F400.000
G1 X-82.218 Y-10.431 Z-0.844 F400.000
G1 X-82.288 Y-10.496 Z-0.849 F400.000
G1 X-82.343 Y-10.574 Z-0.854 F400.000
G1 X-82.382 Y-10.661 Z-0.859 F400.000
G1 X-82.404 Y-10.754 Z-0.864 F400.000
G1 X-82.407 Y-10.850 Z-0.869 F400.000
G1 X-82.391 Y-10.944 Z-0.874 F400.000
G1 X-82.357 Y-11.034 Z-0.879 F400.000
G1 X-82.306 Y-11.115 Z-0.885 F400.000
G1 X-82.241 Y-11.184 Z-0.890 F400.000
G1 X-82.163 Y-11.240 Z-0.895 F400.000
G1 X-82.076 Y-11.279 Z-0.900 F400.000
G1 X-81.983 Y-11.301 Z-0.905 F400.000
G1 X-81.887 Y-11.303 Z-0.910 F400.000
G1 X-81.793 Y-11.288 Z-0.915 F400.000
G1 X-81.703 Y-11.254 Z-0.920 F400.000
G1 X-81.622 Y-11.203 Z-0.925 F400.000
G1 X-81.553 Y-11.138 Z-0.931 F400.000
G1 X-81.497 Y-11.060 Z-0.936 F400.000
G1 X-81.458 Y-10.972 Z-0.941 F400.000
G1 X-81.437 Y-10.879 Z-0.946 F400.000
G1 X-81.434 Y-10.784 Z-0.951 F400.000
G1 X-81.449 Y-10.690 Z-0.956 F400.000
G1 X-81.483 Y-10.600 Z-0.961 F400.000
G1 X-81.534 Y-10.519 Z-0.966 F400.000
G1 X-81.600 Y-10.449 Z-0.972 F400.000
G1 X-81.677 Y-10.394 Z-0.977 F400.000
G1 X-81.765 Y-10.355 Z-0.982 F400.000
G1 X-81.858 Y-10.333 Z-0.987 F400.000
G1 X-81.953 Y-10.330 Z-0.992 F400.000
G1 X-82.048 Y-10.346 Z-0.997 F400.000
G1 X-82.137 Y-10.380 Z-1.002 F400.000
G1 X-82.218 Y-10.431 Z-1.007 F400.000
G1 X-82.288 Y-10.496 Z-1.013 F400.000
G1 X-82.343 Y-10.574 Z-1.018 F400.000
G1 X-82.382 Y-10.661 Z-1.023 F400.000
G1 X-82.404 Y-10.754 Z-1.028 F400.000
G1 X-82.407 Y-10.850 Z-1.033 F400.000
G1 X-82.391 Y-10.944 Z-1.038 F400.000
G1 X-82.357 Y-11.034 Z-1.043 F400.000
G1 X-82.306 Y-11.115 Z-1.048 F400.000
G1 X-82.241 Y-11.184 Z-1.054 F400.000
G1 X-82.163 Y-11.240 Z-1.059 F400.000
G1 X-82.076 Y-11.279 Z-1.064 F400.000
G1 X-81.983 Y-11.301 Z-1.069 F400.000
G1 X-81.887 Y-11.303 Z-1.074 F400.000
G1 X-81.793 Y-11.288 Z-1.079 F400.000
G1 X-81.703 Y-11.254 Z-1.084 F400.000
G1 X-81.622 Y-11.203 Z-1.089 F400.000
G1 X-81.553 Y-11.138 Z-1.094 F400.000
G1 X-81.497 Y-11.060 Z-1.100 F400.000
G1 X-81.458 Y-10.972 Z-1.105 F400.000
G1 X-81.437 Y-10.879 Z-1.110 F400.000
G1 X-81.434 Y-10.784 Z-1.115 F400.000
G1 X-81.449 Y-10.690 Z-1.120 F400.000
G1 X-81.483 Y-10.600 Z-1.125 F400.000
G1 X-81.534 Y-10.519 Z-1.130 F400.000
G1 X-81.600 Y-10.449 Z-1.135 F400.000
G1 X-81.677 Y-10.394 Z-1.141 F400.000
G1 X-81.765 Y-10.355 Z-1.146 F400.000
G1 X-81.858 Y-10.333 Z-1.151 F400.000
G1 X-81.953 Y-10.330 Z-1.156 F400.000
G1 X-82.048 Y-10.346 Z-1.161 F400.000
G1 X-82.137 Y-10.380 Z-1.166 F400.000
G1 X-82.218 Y-10.431 Z-1.171 F400.000
G1 X-82.288 Y-10.496 Z-1.176 F400.000
G1 X-82.343 Y-10.574 Z-1.182 F400.000
G1 X-82.382 Y-10.661 Z-1.187 F400.000
G1 X-82.404 Y-10.754 Z-1.192 F400.000
G1 X-82.407 Y-10.850 Z-1.197 F400.000
G1 X-82.391 Y-10.944 Z-1.202 F400.000
G1 X-82.357 Y-11.034 Z-1.207 F400.000
G1 X-82.306 Y-11.115 Z-1.212 F400.000
G1 X-82.241 Y-11.184 Z-1.217 F400.000
G1 X-82.163 Y-11.240 Z-1.222 F400.000
G1 X-82.076 Y-11.279 Z-1.228 F400.000
G1 X-81.983 Y-11.301 Z-1.233 F400.000
G1 X-81.887 Y-11.303 Z-1.238 F400.000
G1 X-81.793 Y-11.288 Z-1.243 F400.000
G1 X-81.703 Y-11.254 Z-1.248 F400.000
G1 X-81.622 Y-11.203 Z-1.253 F400.000
G1 X-81.553 Y-11.138 Z-1.258 F400.000
G1 X-81.497 Y-11.060 Z-1.263 F400.000
G1 X-81.458 Y-10.972 Z-1.269 F400.000
G1 X-81.437 Y-10.879 Z-1.274 F400.000
G1 X-81.434 Y-10.784 Z-1.279 F400.000
G1 X-81.449 Y-10.690 Z-1.284 F400.000
G1 X-81.483 Y-10.600 Z-1.289 F400.000
G1 X-81.534 Y-10.519 Z-1.294 F400.000
G1 X-81.600 Y-10.449 Z-1.299 F400.000
G1 X-81.677 Y-10.394 Z-1.304 F400.000
G1 X-81.765 Y-10.355 Z-1.310 F400.000
G1 X-81.858 Y-10.333 Z-1.315 F400.000
G1 X-81.953 Y-10.330 Z-1.320 F400.000
G1 X-82.048 Y-10.346 Z-1.325 F400.000
G1 X-82.137 Y-10.380 Z-1.330 F400.000
G1 X-82.218 Y-10.431 Z-1.335 F400.000
G1 X-82.288 Y-10.496 Z-1.340 F400.000
G1 X-82.343 Y-10.574 Z-1.345 F400.000
G1 X-82.382 Y-10.661 Z-1.351 F400.000
G1 X-82.404 Y-10.754 Z-1.356 F400.000
G1 X-82.407 Y-10.850 Z-1.361 F400.000
G1 X-82.391 Y-10.944 Z-1.366 F400.000
G1 X-82.357 Y-11.034 Z-1.371 F400.000
G1 X-82.306 Y-11.115 Z-1.376 F400.000
G1 X-82.241 Y-11.184 Z-1.381 F400.000
G1 X-82.163 Y-11.240 Z-1.386 F400.000
G1 X-82.076 Y-11.279 Z-1.391 F400.000
G1 X-81.983 Y-11.301 Z-1.397 F400.000
G1 X-81.887 Y-11.303 Z-1.402 F400.000
G1 X-81.793 Y-11.288 Z-1.407 F400.000
G1 X-81.703 Y-11.254 Z-1.412 F400.000
G1 X-81.622 Y-11.203 Z-1.417 F400.000
G1 X-81.553 Y-11.138 Z-1.422 F400.000
G1 X-81.497 Y-11.060 Z-1.427 F400.000
G1 X-81.458 Y-10.972 Z-1.432 F400.000
G1 X-81.437 Y-10.879 Z-1.438 F400.000
G1 X-81.434 Y-10.784 Z-1.443 F400.000
G1 X-81.449 Y-10.690 Z-1.448 F400.000
G1 X-81.483 Y-10.600 Z-1.453 F400.000
G1 X-81.534 Y-10.519 Z-1.458 F400.000
G1 X-81.600 Y-10.449 Z-1.463 F400.000
G1 X-81.677 Y-10.394 Z-1.468 F400.000
G1 X-81.765 Y-10.355 Z-1.473 F400.000
G1 X-81.858 Y-10.333 Z-1.479 F400.000
G1 X-81.953 Y-10.330 Z-1.484 F400.000
G1 X-82.048 Y-10.346 Z-1.489 F400.000
G1 X-82.137 Y-10.380 Z-1.494 F400.000
G1 X-82.218 Y-10.431 Z-1.499 F400.000
G1 X-82.288 Y-10.496 Z-1.504 F400.000
G1 X-82.343 Y-10.574 Z-1.509 F400.000
G1 X-82.382 Y-10.661 Z-1.514 F400.000
G1 X-82.404 Y-10.754 Z-1.520 F400.000
G1 X-82.407 Y-10.850 Z-1.525 F400.000
G1 X-82.391 Y-10.944 Z-1.530 F400.000
G1 X-82.357 Y-11.034 Z-1.535 F400.000
G1 X-82.306 Y-11.115 Z-1.540 F400.000
G1 X-82.241 Y-11.184 Z-1.545 F400.000
G1 X-82.163 Y-11.240 Z-1.550 F400.000
G1 X-82.076 Y-11.279 Z-1.555 F400.000
G1 X-81.983 Y-11.301 Z-1.560 F400.000
G1 X-81.887 Y-11.303 Z-1.566 F400.000
G1 X-81.793 Y-11.288 Z-1.571 F400.000
G1 X-81.703 Y-11.254 Z-1.576 F400.000
G1 X-81.622 Y-11.203 Z-1.581 F400.000
G1 X-81.553 Y-11.138 Z-1.586 F400.000
G1 X-81.497 Y-11.060 Z-1.591 F400.000
G1 X-81.458 Y-10.972 Z-1.596 F400.000
G1 X-81.437 Y-10.879 Z-1.601 F400.000
G1 X-81.434 Y-10.784 Z-1.607 F400.000
G1 X-81.449 Y-10.690 Z-1.612 F400.000
G1 X-81.483 Y-10.600 Z-1.617 F400.000
G1 X-81.534 Y-10.519 Z-1.622 F400.000
G1 X-81.600 Y-10.449 Z-1.627 F400.000
G1 X-81.677 Y-10.394 Z-1.632 F400.000
G1 X-81.765 Y-10.355 Z-1.637 F400.000
G1 X-81.858 Y-10.333 Z-1.642 F400.000
G1 X-81.953 Y-10.330 Z-1.648 F400.000
G1 X-82.048 Y-10.346 Z-1.653 F400.000
G1 X-82.137 Y-10.380 Z-1.658 F400.000
G1 X-82.218 Y-10.431 Z-1.663 F400.000
G1 X-82.288 Y-10.496 Z-1.668 F400.000
G1 X-82.343 Y-10.574 Z-1.673 F400.000
G1 X-82.382 Y-10.661 Z-1.678 F400.000
G1 X-82.404 Y-10.754 Z-1.683 F400.000
G1 X-82.407 Y-10.850 Z-1.689 F400.000
G1 X-82.391 Y-10.944 Z-1.694 F400.000
G1 X-82.357 Y-11.034 Z-1.699 F400.000
G1 X-82.306 Y-11.115 Z-1.704 F400.000
G1 X-82.241 Y-11.184 Z-1.709 F400.000
G1 X-82.163 Y-11.240 Z-1.714 F400.000
G1 X-82.076 Y-11.279 Z-1.719 F400.000
G1 X-81.983 Y-11.301 Z-1.724 F400.000
G1 X-81.887 Y-11.303 Z-1.729 F400.000
G1 X-81.793 Y-11.288 Z-1.735 F400.000
G1 X-81.703 Y-11.254 Z-1.740 F400.000
G1 X-81.622 Y-11.203 Z-1.745 F400.000
G1 X-81.553 Y-11.138 Z-1.750 F400.000
G1 X-81.497 Y-11.060 Z-1.755 F400.000
G1 X-81.458 Y-10.972 Z-1.760 F400.000
G1 X-81.437 Y-10.879 Z-1.765 F400.000
G1 X-81.434 Y-10.784 Z-1.770 F400.000
G1 X-81.449 Y-10.690 Z-1.776 F400.000
G1 X-81.483 Y-10.600 Z-1.781 F400.000
G1 X-81.534 Y-10.519 Z-1.786 F400.000
G1 X-81.600 Y-10.449 Z-1.791 F400.000
G1 X-81.677 Y-10.394 Z-1.796 F400.000
G1 X-81.765 Y-10.355 Z-1.801 F400.000
G1 X-81.858 Y-10.333 Z-1.806 F400.000
G1 X-81.953 Y-10.330 Z-1.811 F400.000
G1 X-82.048 Y-10.346 Z-1.817 F400.000
G1 X-82.137 Y-10.380 Z-1.822 F400.000
G1 X-82.218 Y-10.431 Z-1.827 F400.000
G1 X-82.288 Y-10.496 Z-1.832 F400.000
G1 X-82.343 Y-10.574 Z-1.837 F400.000
G1 X-82.382 Y-10.661 Z-1.842 F400.000
G1 X-82.404 Y-10.754 Z-1.847 F400.000
G1 X-82.407 Y-10.850 Z-1.852 F400.000
G1 X-82.391 Y-10.944 Z-1.857 F400.000
G1 X-82.357 Y-11.034 Z-1.863 F400.000
G1 X-82.306 Y-11.115 Z-1.868 F400.000
G1 X-82.241 Y-11.184 Z-1.873 F400.000
G1 X-82.163 Y-11.240 Z-1.878 F400.000
G1 X-82.076 Y-11.279 Z-1.883 F400.000
G1 X-81.983 Y-11.301 Z-1.888 F400.000
G1 X-81.887 Y-11.303 Z-1.893 F400.000
G1 X-81.793 Y-11.288 Z-1.898 F400.000
G1 X-81.703 Y-11.254 Z-1.904 F400.000
G1 X-81.622 Y-11.203 Z-1.909 F400.000
G1 X-81.553 Y-11.138 Z-1.914 F400.000
G1 X-81.497 Y-11.060 Z-1.919 F400.000
G1 X-81.458 Y-10.972 Z-1.924 F400.000
G1 X-81.437 Y-10.879 Z-1.929 F400.000
G1 X-81.434 Y-10.784 Z-1.934 F400.000
G1 X-81.449 Y-10.690 Z-1.939 F400.000
G1 X-81.483 Y-10.600 Z-1.945 F400.000
G1 X-81.534 Y-10.519 Z-1.950 F400.000
G1 X-81.600 Y-10.449 Z-1.955 F400.000
G1 X-81.677 Y-10.394 Z-1.960 F400.000
G1 X-81.765 Y-10.355 Z-1.965 F400.000
G1 X-81.858 Y-10.333 Z-1.970 F400.000
G1 X-81.953 Y-10.330 Z-1.975 F400.000
G1 X-82.048 Y-10.346 Z-1.980 F400.000
G1 X-82.137 Y-10.380 Z-1.986 F400.000
G1 X-82.218 Y-10.431 Z-1.991 F400.000
G1 X-82.288 Y-10.496 Z-1.996 F400.000
G1 X-82.343 Y-10.574 Z-2.001 F400.000
G1 X-82.382 Y-10.661 Z-2.006 F400.000
G1 X-82.404 Y-10.754 Z-2.011 F400.000
G1 X-82.407 Y-10.850 Z-2.016 F400.000
G1 X-82.391 Y-10.944 Z-2.021 F400.000
G1 X-82.357 Y-11.034 Z-2.026 F400.000
G1 X-82.306 Y-11.115 Z-2.032 F400.000
G1 X-82.241 Y-11.184 Z-2.037 F400.000
G1 X-82.163 Y-11.240 Z-2.042 F400.000
G1 X-82.076 Y-11.279 Z-2.047 F400.000
G1 X-81.983 Y-11.301 Z-2.052 F400.000
G1 X-81.887 Y-11.303 Z-2.057 F400.000
G1 X-81.793 Y-11.288 Z-2.062 F400.000
G1 X-81.703 Y-11.254 Z-2.067 F400.000
G1 X-81.622 Y-11.203 Z-2.073 F400.000
G1 X-81.553 Y-11.138 Z-2.078 F400.000
G1 X-81.497 Y-11.060 Z-2.083 F400.000
G1 X-81.458 Y-10.972 Z-2.088 F400.000
G1 X-81.437 Y-10.879 Z-2.093 F400.000
G1 X-81.434 Y-10.784 Z-2.098 F400.000
G1 X-81.449 Y-10.690 Z-2.103 F400.000
G1 X-81.483 Y-10.600 Z-2.108 F400.000
G1 X-81.534 Y-10.519 Z-2.114 F400.000
G1 X-81.600 Y-10.449 Z-2.119 F400.000
G1 X-81.677 Y-10.394 Z-2.124 F400.000
G1 X-81.765 Y-10.355 Z-2.129 F400.000
G1 X-81.858 Y-10.333 Z-2.134 F400.000
G1 X-81.953 Y-10.330 Z-2.139 F400.000
G1 X-82.048 Y-10.346 Z-2.144 F400.000
G1 X-82.137 Y-10.380 Z-2.149 F400.000
G1 X-82.218 Y-10.431 Z-2.155 F400.000
G1 X-82.288 Y-10.496 Z-2.160 F400.000
G1 X-82.343 Y-10.574 Z-2.165 F400.000
G1 X-82.382 Y-10.661 Z-2.170 F400.000
G1 X-82.404 Y-10.754 Z-2.175 F400.000
G1 X-82.407 Y-10.850 Z-2.180 F400.000
G1 X-82.391 Y-10.944 Z-2.185 F400.000
G1 X-82.357 Y-11.034 Z-2.190 F400.000
G1 X-82.306 Y-11.115 Z-2.195 F400.000
G1 X-82.241 Y-11.184 Z-2.201 F400.000
G1 X-82.163 Y-11.240 Z-2.206 F400.000
G1 X-82.076 Y-11.279 Z-2.211 F400.000
G1 X-81.983 Y-11.301 Z-2.216 F400.000
G1 X-81.887 Y-11.303 Z-2.221 F400.000
G1 X-81.793 Y-11.288 Z-2.226 F400.000
G1 X-81.703 Y-11.254 Z-2.231 F400.000
G1 X-81.622 Y-11.203 Z-2.236 F400.000
G1 X-81.553 Y-11.138 Z-2.242 F400.000
G1 X-81.497 Y-11.060 Z-2.247 F400.000
G1 X-81.458 Y-10.972 Z-2.252 F400.000
G1 X-81.437 Y-10.879 Z-2.257 F400.000
G1 X-81.434 Y-10.784 Z-2.262 F400.000
G1 X-81.449 Y-10.690 Z-2.267 F400.000
G1 X-81.483 Y-10.600 Z-2.272 F400.000
G1 X-81.534 Y-10.519 Z-2.277 F400.000
G1 X-81.600 Y-10.449 Z-2.283 F400.000
G1 X-81.677 Y-10.394 Z-2.288 F400.000
G1 X-81.765 Y-10.355 Z-2.293 F400.000
G1 X-81.858 Y-10.333 Z-2.298 F400.000
G1 X-81.953 Y-10.330 Z-2.303 F400.000
G1 X-82.048 Y-10.346 Z-2.308 F400.000
G1 X-82.137 Y-10.380 Z-2.313 F400.000
G1 X-82.218 Y-10.431 Z-2.318 F400.000
G1 X-82.288 Y-10.496 Z-2.324 F400.000
G1 X-82.343 Y-10.574 Z-2.329 F400.000
G1 X-82.382 Y-10.661 Z-2.334 F400.000
G1 X-82.404 Y-10.754 Z-2.339 F400.000
G1 X-82.407 Y-10.850 Z-2.344 F400.000
G1 X-82.391 Y-10.944 Z-2.349 F400.000
G1 X-82.357 Y-11.034 Z-2.354 F400.000
G1 X-82.306 Y-11.115 Z-2.359 F400.000
G1 X-82.241 Y-11.184 Z-2.364 F400.000
G1 X-82.163 Y-11.240 Z-2.370 F400.000
G1 X-82.076 Y-11.279 Z-2.375 F400.000
G1 X-81.983 Y-11.301 Z-2.380 F400.000
G1 X-81.887 Y-11.303 Z-2.385 F400.000
G1 X-81.793 Y-11.288 Z-2.390 F400.000
G1 X-81.703 Y-11.254 Z-2.395 F400.000
G1 X-81.622 Y-11.203 Z-2.400 F400.000
G1 X-81.553 Y-11.138 Z-2.405 F400.000
G1 X-81.497 Y-11.060 Z-2.411 F400.000
G1 X-81.458 Y-10.972 Z-2.416 F400.000
G1 X-81.437 Y-10.879 Z-2.421 F400.000
G1 X-81.434 Y-10.784 Z-2.426 F400.000
G1 X-81.449 Y-10.690 Z-2.431 F400.000
G1 X-81.483 Y-10.600 Z-2.436 F400.000
G1 X-81.534 Y-10.519 Z-2.441 F400.000
G1 X-81.600 Y-10.449 Z-2.446 F400.000
G1 X-81.677 Y-10.394 Z-2.452 F400.000
G1 X-81.765 Y-10.355 Z-2.457 F400.000
G1 X-81.858 Y-10.333 Z-2.462 F400.000
G1 X-81.953 Y-10.330 Z-2.467 F400.000
G1 X-82.048 Y-10.346 Z-2.472 F400.000
G1 X-82.137 Y-10.380 Z-2.477 F400.000
G1 X-82.218 Y-10.431 Z-2.482 F400.000
G1 X-82.288 Y-10.496 Z-2.487 F400.000
G1 X-82.343 Y-10.574 Z-2.492 F400.000
G1 X-82.382 Y-10.661 Z-2.498 F400.000
G1 X-82.404 Y-10.754 Z-2.503 F400.000
G1 X-82.407 Y-10.850 Z-2.508 F400.000
G1 X-82.391 Y-10.944 Z-2.513 F400.000
G1 X-82.357 Y-11.034 Z-2.518 F400.000
G1 X-82.306 Y-11.115 Z-2.523 F400.000
G1 X-82.241 Y-11.184 Z-2.528 F400.000
G1 X-82.163 Y-11.240 Z-2.533 F400.000
G1 X-82.076 Y-11.279 Z-2.539 F400.000
G1 X-81.983 Y-11.301 Z-2.544 F400.000
G1 X-81.887 Y-11.303 Z-2.549 F400.000
G1 X-81.793 Y-11.288 Z-2.554 F400.000
G1 X-81.703 Y-11.254 Z-2.559 F400.000
G1 X-81.622 Y-11.203 Z-2.564 F400.000
G1 X-81.553 Y-11.138 Z-2.569 F400.000
G1 X-81.497 Y-11.060 Z-2.574 F400.000
G1 X-81.458 Y-10.972 Z-2.580 F400.000
G1 X-81.437 Y-10.879 Z-2.585 F400.000
G1 X-81.434 Y-10.784 Z-2.590 F400.000
G1 X-81.449 Y-10.690 Z-2.595 F400.000
G1 X-81.483 Y-10.600 Z-2.600 F400.000
G1 X-81.534 Y-10.519 Z-2.605 F400.000
G1 X-81.600 Y-10.449 Z-2.610 F400.000
G1 X-81.677 Y-10.394 Z-2.615 F400.000
G1 X-81.765 Y-10.355 Z-2.621 F400.000
G1 X-81.858 Y-10.333 Z-2.626 F400.000
G1 X-81.953 Y-10.330 Z-2.631 F400.000
G1 X-82.048 Y-10.346 Z-2.636 F400.000
G1 X-82.137 Y-10.380 Z-2.641 F400.000
G1 X-82.218 Y-10.431 Z-2.646 F400.000
G1 X-82.288 Y-10.496 Z-2.651 F400.000
G1 X-82.343 Y-10.574 Z-2.656 F400.000
G1 X-82.382 Y-10.661 Z-2.661 F400.000
G1 X-82.404 Y-10.754 Z-2.667 F400.000
G1 X-82.407 Y-10.850 Z-2.672 F400.000
G1 X-82.391 Y-10.944 Z-2.677 F400.000
G1 X-82.357 Y-11.034 Z-2.682 F400.000
G1 X-82.306 Y-11.115 Z-2.687 F400.000
G1 X-82.241 Y-11.184 Z-2.692 F400.000
G1 X-82.163 Y-11.240 Z-2.697 F400.000
G1 X-82.076 Y-11.279 Z-2.702 F400.000
G1 X-81.983 Y-11.301 Z-2.708 F400.000
G1 X-81.887 Y-11.303 Z-2.713 F400.000
G1 X-81.793 Y-11.288 Z-2.718 F400.000
G1 X-81.703 Y-11.254 Z-2.723 F400.000
G1 X-81.622 Y-11.203 Z-2.728 F400.000
G1 X-81.553 Y-11.138 Z-2.733 F400.000
G1 X-81.497 Y-11.060 Z-2.738 F400.000
G1 X-81.458 Y-10.972 Z-2.743 F400.000
G1 X-81.437 Y-10.879 Z-2.749 F400.000
G1 X-81.434 Y-10.784 Z-2.754 F400.000
G1 X-81.449 Y-10.690 Z-2.759 F400.000
G1 X-81.483 Y-10.600 Z-2.764 F400.000
G1 X-81.534 Y-10.519 Z-2.769 F400.000
G1 X-81.600 Y-10.449 Z-2.774 F400.000
G1 X-81.677 Y-10.394 Z-2.779 F400.000
G1 X-81.765 Y-10.355 Z-2.784 F400.000
G1 X-81.858 Y-10.333 Z-2.790 F400.000
G1 X-81.953 Y-10.330 Z-2.795 F400.000
G1 X-82.048 Y-10.346 Z-2.800 F400.000
G1 X-82.137 Y-10.380 Z-2.805 F400.000
G1 X-82.218 Y-10.431 Z-2.810 F400.000
G1 X-82.288 Y-10.496 Z-2.815 F400.000
G1 X-82.343 Y-10.574 Z-2.820 F400.000
G1 X-82.382 Y-10.661 Z-2.825 F400.000
G1 X-82.404 Y-10.754 Z-2.830 F400.000
G1 X-82.407 Y-10.850 Z-2.836 F400.000
G1 X-82.391 Y-10.944 Z-2.841 F400.000
G1 X-82.357 Y-11.034 Z-2.846 F400.000
G1 X-82.306 Y-11.115 Z-2.851 F400.000
G1 X-82.241 Y-11.184 Z-2.856 F400.000
G1 X-82.163 Y-11.240 Z-2.861 F400.000
G1 X-82.076 Y-11.279 Z-2.866 F400.000
G1 X-81.983 Y-11.301 Z-2.871 F400.000
G1 X-81.887 Y-11.303 Z-2.877 F400.000
G1 X-81.793 Y-11.288 Z-2.882 F400.000
G1 X-81.703 Y-11.254 Z-2.887 F400.000
G1 X-81.622 Y-11.203 Z-2.892 F400.000
G1 X-81.553 Y-11.138 Z-2.897 F400.000
G1 X-81.497 Y-11.060 Z-2.902 F400.000
G1 X-81.458 Y-10.972 Z-2.907 F400.000
G1 X-81.437 Y-10.879 Z-2.912 F400.000
G1 X-81.434 Y-10.784 Z-2.918 F400.000
G1 X-81.449 Y-10.690 Z-2.923 F400.000
G1 X-81.483 Y-10.600 Z-2.928 F400.000
G1 X-81.534 Y-10.519 Z-2.933 F400.000
G1 X-81.600 Y-10.449 Z-2.938 F400.000
G1 X-81.677 Y-10.394 Z-2.943 F400.000
G1 X-81.765 Y-10.355 Z-2.948 F400.000
G1 X-81.858 Y-10.333 Z-2.953 F400.000
G1 X-81.953 Y-10.330 Z-2.959 F400.000
G1 X-82.048 Y-10.346 Z-2.964 F400.000
G1 X-82.137 Y-10.380 Z-2.969 F400.000
G1 X-82.218 Y-10.431 Z-2.974 F400.000
G1 X-82.288 Y-10.496 Z-2.979 F400.000
G1 X-82.343 Y-10.574 Z-2.984 F400.000
G1 X-82.382 Y-10.661 Z-2.989 F400.000
G1 X-82.404 Y-10.754 Z-2.994 F400.000
G1 X-82.407 Y-10.850 Z-2.999 F400.000
G1 X-82.391 Y-10.944 Z-3.005 F400.000
G1 X-82.357 Y-11.034 Z-3.010 F400.000
G1 X-82.306 Y-11.115 Z-3.015 F400.000
G1 X-82.241 Y-11.184 Z-3.020 F400.000
G1 X-82.163 Y-11.240 Z-3.025 F400.000
G1 X-82.076 Y-11.279 Z-3.030 F400.000
G1 X-81.983 Y-11.301 Z-3.035 F400.000
G1 X-81.887 Y-11.303 Z-3.040 F400.000
G1 X-81.793 Y-11.288 Z-3.046 F400.000
G1 X-81.703 Y-11.254 Z-3.051 F400.000
G1 X-81.622 Y-11.203 Z-3.056 F400.000
G1 X-81.553 Y-11.138 Z-3.061 F400.000
G1 X-81.497 Y-11.060 Z-3.066 F400.000
G1 X-81.458 Y-10.972 Z-3.071 F400.000
G1 X-81.437 Y-10.879 Z-3.076 F400.000
G1 X-81.434 Y-10.784 Z-3.081 F400.000
G1 X-81.449 Y-10.690 Z-3.087 F400.000
G1 X-81.483 Y-10.600 Z-3.092 F400.000
G1 X-81.534 Y-10.519 Z-3.097 F400.000
G1 X-81.600 Y-10.449 Z-3.102 F400.000
G1 X-81.677 Y-10.394 Z-3.107 F400.000
G1 X-81.765 Y-10.355 Z-3.112 F400.000
G1 X-81.858 Y-10.333 Z-3.117 F400.000
G1 X-81.953 Y-10.330 Z-3.122 F400.000
G1 X-82.048 Y-10.346 Z-3.127 F400.000
G1 X-82.137 Y-10.380 Z-3.133 F400.000
G1 X-82.218 Y-10.431 Z-3.138 F400.000
G1 X-82.288 Y-10.496 Z-3.143 F400.000
G1 X-82.343 Y-10.574 Z-3.148 F400.000
G1 X-82.382 Y-10.661 Z-3.153 F400.000
G1 X-82.404 Y-10.754 Z-3.158 F400.000
G1 X-82.407 Y-10.850 Z-3.163 F400.000
G1 X-82.391 Y-10.944 Z-3.168 F400.000
G1 X-82.357 Y-11.034 Z-3.174 F400.000
G1 X-82.306 Y-11.115 Z-3.179 F400.000
G1 X-82.241 Y-11.184 Z-3.184 F400.000
G1 X-82.163 Y-11.240 Z-3.189 F400.000
G1 X-82.076 Y-11.279 Z-3.194 F400.000
G1 X-81.983 Y-11.301 Z-3.199 F400.000
G1 X-81.887 Y-11.303 Z-3.204 F400.000
G1 X-81.793 Y-11.288 Z-3.209 F400.000
G1 X-81.703 Y-11.254 Z-3.215 F400.000
G1 X-81.622 Y-11.203 Z-3.220 F400.000
G1 X-81.553 Y-11.138 Z-3.225 F400.000
G1 X-81.497 Y-11.060 Z-3.230 F400.000
G1 X-81.458 Y-10.972 Z-3.235 F400.000
G1 X-81.437 Y-10.879 Z-3.240 F400.000
G1 X-81.434 Y-10.784 Z-3.245 F400.000
G1 X-81.449 Y-10.690 Z-3.250 F400.000
G1 X-81.483 Y-10.600 Z-3.256 F400.000
G1 X-81.534 Y-10.519 Z-3.261 F400.000
G1 X-81.600 Y-10.449 Z-3.266 F400.000
G1 X-81.677 Y-10.394 Z-3.271 F400.000
G1 X-81.765 Y-10.355 Z-3.276 F400.000
G1 X-81.858 Y-10.333 Z-3.281 F400.000
G1 X-81.953 Y-10.330 Z-3.286 F400.000
G1 X-82.048 Y-10.346 Z-3.291 F400.000
G1 X-82.137 Y-10.380 Z-3.296 F400.000
G1 X-82.218 Y-10.431 Z-3.302 F400.000
G1 X-82.288 Y-10.496 Z-3.307 F400.000
G1 X-82.343 Y-10.574 Z-3.312 F400.000
G1 X-82.382 Y-10.661 Z-3.317 F400.000
G1 X-82.404 Y-10.754 Z-3.322 F400.000
G1 X-82.407 Y-10.850 Z-3.327 F400.000
G1 X-82.391 Y-10.944 Z-3.332 F400.000
G1 X-82.357 Y-11.034 Z-3.337 F400.000
G1 X-82.306 Y-11.115 Z-3.343 F400.000
G1 X-82.241 Y-11.184 Z-3.348 F400.000
G1 X-82.163 Y-11.240 Z-3.353 F400.000
G1 X-82.076 Y-11.279 Z-3.358 F400.000
G1 X-81.983 Y-11.301 Z-3.363 F400.000
G1 X-81.887 Y-11.303 Z-3.368 F400.000
G1 X-81.793 Y-11.288 Z-3.373 F400.000
G1 X-81.703 Y-11.254 Z-3.378 F400.000
G1 X-81.622 Y-11.203 Z-3.384 F400.000
G1 X-81.553 Y-11.138 Z-3.389 F400.000
G1 X-81.497 Y-11.060 Z-3.394 F400.000
G1 X-81.458 Y-10.972 Z-3.399 F400.000
G1 X-81.437 Y-10.879 Z-3.404 F400.000
G1 X-81.434 Y-10.784 Z-3.409 F400.000
G1 X-81.449 Y-10.690 Z-3.414 F400.000
G1 X-81.483 Y-10.600 Z-3.419 F400.000
G1 X-81.534 Y-10.519 Z-3.425 F400.000
G1 X-81.600 Y-10.449 Z-3.430 F400.000
G1 X-81.677 Y-10.394 Z-3.435 F400.000
G1 X-81.765 Y-10.355 Z-3.440 F400.000
G1 X-81.858 Y-10.333 Z-3.445 F400.000
G1 X-81.953 Y-10.330 Z-3.450 F400.000
G1 X-82.048 Y-10.346 Z-3.455 F400.000
G1 X-82.137 Y-10.380 Z-3.460 F400.000
G1 X-82.218 Y-10.431 Z-3.465 F400.000
G1 X-82.288 Y-10.496 Z-3.471 F400.000
G1 X-82.343 Y-10.574 Z-3.476 F400.000
G1 X-82.382 Y-10.661 Z-3.481 F400.000
G1 X-82.404 Y-10.754 Z-3.486 F400.000
G1 X-82.407 Y-10.850 Z-3.491 F400.000
G1 X-82.391 Y-10.944 Z-3.496 F400.000
G1 X-82.357 Y-11.034 Z-3.501 F400.000
G1 X-82.306 Y-11.115 Z-3.506 F400.000
G1 X-82.241 Y-11.184 Z-3.512 F400.000
G1 X-82.163 Y-11.240 Z-3.517 F400.000
G1 X-82.076 Y-11.279 Z-3.522 F400.000
G1 X-81.983 Y-11.301 Z-3.527 F400.000
G1 X-81.887 Y-11.303 Z-3.532 F400.000
G1 X-81.793 Y-11.288 Z-3.537 F400.000
G1 X-81.703 Y-11.254 Z-3.542 F400.000
G1 X-81.622 Y-11.203 Z-3.547 F400.000
G1 X-81.553 Y-11.138 Z-3.553 F400.000
G1 X-81.497 Y-11.060 Z-3.558 F400.000
G1 X-81.458 Y-10.972 Z-3.563 F400.000
G1 X-81.437 Y-10.879 Z-3.568 F400.000
G1 X-81.434 Y-10.784 Z-3.573 F400.000
G1 X-81.449 Y-10.690 Z-3.578 F400.000
G1 X-81.483 Y-10.600 Z-3.583 F400.000
G1 X-81.534 Y-10.519 Z-3.588 F400.000
G1 X-81.600 Y-10.449 Z-3.594 F400.000
G1 X-81.677 Y-10.394 Z-3.599 F400.000
G1 X-81.765 Y-10.355 Z-3.604 F400.000
G1 X-81.858 Y-10.333 Z-3.609 F400.000
G1 X-81.953 Y-10.330 Z-3.614 F400.000
G1 X-82.048 Y-10.346 Z-3.619 F400.000
G1 X-82.137 Y-10.380 Z-3.624 F400.000
G1 X-82.218 Y-10.431 Z-3.629 F400.000
G1 X-82.288 Y-10.496 Z-3.634 F400.000
G1 X-82.343 Y-10.574 Z-3.640 F400.000
G1 X-82.382 Y-10.661 Z-3.645 F400.000
G1 X-82.404 Y-10.754 Z-3.650 F400.000
G1 X-82.407 Y-10.850 Z-3.655 F400.000
G1 X-82.391 Y-10.944 Z-3.660 F400.000
G1 X-82.357 Y-11.034 Z-3.665 F400.000
G1 X-82.306 Y-11.115 Z-3.670 F400.000
G1 X-82.241 Y-11.184 Z-3.675 F400.000
G1 X-82.163 Y-11.240 Z-3.681 F400.000
G1 X-82.076 Y-11.279 Z-3.686 F400.000
G1 X-81.983 Y-11.301 Z-3.691 F400.000
G1 X-81.887 Y-11.303 Z-3.696 F400.000
G1 X-81.793 Y-11.288 Z-3.701 F400.000
G1 X-81.703 Y-11.254 Z-3.706 F400.000
G1 X-81.622 Y-11.203 Z-3.711 F400.000
G1 X-81.553 Y-11.138 Z-3.716 F400.000
G1 X-81.497 Y-11.060 Z-3.722 F400.000
G1 X-81.458 Y-10.972 Z-3.727 F400.000
G1 X-81.437 Y-10.879 Z-3.732 F400.000
G1 X-81.434 Y-10.784 Z-3.737 F400.000
G1 X-81.449 Y-10.690 Z-3.742 F400.000
G1 X-81.483 Y-10.600 Z-3.747 F400.000
G1 X-81.534 Y-10.519 Z-3.752 F400.000
G1 X-81.600 Y-10.449 Z-3.757 F400.000
G1 X-81.677 Y-10.394 Z-3.762 F400.000
G1 X-81.765 Y-10.355 Z-3.768 F400.000
G1 X-81.858 Y-10.333 Z-3.773 F400.000
G1 X-81.953 Y-10.330 Z-3.778 F400.000
G1 X-82.048 Y-10.346 Z-3.783 F400.000
G1 X-82.137 Y-10.380 Z-3.788 F400.000
G1 X-82.218 Y-10.431 Z-3.793 F400.000
G1 X-82.288 Y-10.496 Z-3.798 F400.000
G1 X-82.343 Y-10.574 Z-3.803 F400.000
G1 X-82.382 Y-10.661 Z-3.809 F400.000
G1 X-82.404 Y-10.754 Z-3.814 F400.000
G1 X-82.407 Y-10.850 Z-3.819 F400.000
G1 X-82.391 Y-10.944 Z-3.824 F400.000
G1 X-82.357 Y-11.034 Z-3.829 F400.000
G1 X-82.306 Y-11.115 Z-3.834 F400.000
G1 X-82.241 Y-11.184 Z-3.839 F400.000
G1 X-82.163 Y-11.240 Z-3.844 F400.000
G1 X-82.076 Y-11.279 Z-3.850 F400.000
G1 X-81.983 Y-11.301 Z-3.855 F400.000
G1 X-81.887 Y-11.303 Z-3.860 F400.000
G1 X-81.793 Y-11.288 Z-3.865 F400.000
G1 X-81.703 Y-11.254 Z-3.870 F400.000
G1 X-81.622 Y-11.203 Z-3.875 F400.000
G1 X-81.553 Y-11.138 Z-3.880 F400.000
G1 X-81.497 Y-11.060 Z-3.885 F400.000
G1 X-81.458 Y-10.972 Z-3.891 F400.000
G1 X-81.437 Y-10.879 Z-3.896 F400.000
G1 X-81.434 Y-10.784 Z-3.901 F400.000
G1 X-81.449 Y-10.690 Z-3.906 F400.000
G1 X-81.483 Y-10.600 Z-3.911 F400.000
G1 X-81.534 Y-10.519 Z-3.916 F400.000
G1 X-81.600 Y-10.449 Z-3.921 F400.000
G1 X-81.677 Y-10.394 Z-3.926 F400.000
G1 X-81.765 Y-10.355 Z-3.931 F400.000
G1 X-81.858 Y-10.333 Z-3.937 F400.000
G1 X-81.953 Y-10.330 Z-3.942 F400.000
G1 X-82.048 Y-10.346 Z-3.947 F400.000
G1 X-82.137 Y-10.380 Z-3.952 F400.000
G1 X-82.218 Y-10.431 Z-3.957 F400.000
G1 X-82.288 Y-10.496 Z-3.962 F400.000
G1 X-82.343 Y-10.574 Z-3.967 F400.000
G1 X-82.382 Y-10.661 Z-3.972 F400.000
G1 X-82.404 Y-10.754 Z-3.978 F400.000
G1 X-82.407 Y-10.850 Z-3.983 F400.000
G1 X-82.391 Y-10.944 Z-3.988 F400.000
G1 X-82.357 Y-11.034 Z-3.993 F400.000
G1 X-82.306 Y-11.115 Z-3.998 F400.000
G1 X-82.241 Y-11.184 Z-4.003 F400.000
G1 X-82.163 Y-11.240 Z-4.008 F400.000
G1 X-82.076 Y-11.279 Z-4.013 F400.000
G1 X-81.983 Y-11.301 Z-4.019 F400.000
G1 X-81.887 Y-11.303 Z-4.024 F400.000
G1 X-81.793 Y-11.288 Z-4.029 F400.000
G1 X-81.703 Y-11.254 Z-4.034 F400.000
G1 X-81.622 Y-11.203 Z-4.039 F400.000
G1 X-81.553 Y-11.138 Z-4.044 F400.000
G1 X-81.497 Y-11.060 Z-4.049 F400.000
G1 X-81.458 Y-10.972 Z-4.054 F400.000
G1 X-81.437 Y-10.879 Z-4.060 F400.000
G1 X-81.434 Y-10.784 Z-4.065 F400.000
G1 X-81.449 Y-10.690 Z-4.070 F400.000
G1 X-81.483 Y-10.600 Z-4.075 F400.000
G1 X-81.534 Y-10.519 Z-4.080 F400.000
G1 X-81.600 Y-10.449 Z-4.085 F400.000
G1 X-81.677 Y-10.394 Z-4.090 F400.000
G1 X-81.765 Y-10.355 Z-4.095 F400.000
G1 X-81.858 Y-10.333 Z-4.100 F400.000
G1 X-81.953 Y-10.330 Z-4.106 F400.000
G1 X-82.048 Y-10.346 Z-4.111 F400.000
G1 X-82.137 Y-10.380 Z-4.116 F400.000
G1 X-82.218 Y-10.431 Z-4.121 F400.000
G1 X-82.288 Y-10.496 Z-4.126 F400.000
G1 X-82.343 Y-10.574 Z-4.131 F400.000
G1 X-82.382 Y-10.661 Z-4.136 F400.000
G1 X-82.404 Y-10.754 Z-4.141 F400.000
G1 X-82.407 Y-10.850 Z-4.147 F400.000
G1 X-82.391 Y-10.944 Z-4.152 F400.000
G1 X-82.357 Y-11.034 Z-4.157 F400.000
G1 X-82.306 Y-11.115 Z-4.162 F400.000
G1 X-82.241 Y-11.184 Z-4.167 F400.000
G1 X-82.163 Y-11.240 Z-4.172 F400.000
G1 X-82.076 Y-11.279 Z-4.177 F400.000
G1 X-81.983 Y-11.301 Z-4.182 F400.000
G1 X-81.887 Y-11.303 Z-4.188 F400.000
G1 X-81.793 Y-11.288 Z-4.193 F400.000
G1 X-81.703 Y-11.254 Z-4.198 F400.000
G1 X-81.622 Y-11.203 Z-4.203 F400.000
G1 X-81.553 Y-11.138 Z-4.208 F400.000
G1 X-81.497 Y-11.060 Z-4.213 F400.000
G1 X-81.458 Y-10.972 Z-4.218 F400.000
G1 X-81.437 Y-10.879 Z-4.223 F400.000
G1 X-81.434 Y-10.784 Z-4.229 F400.000
G1 X-81.449 Y-10.690 Z-4.234 F400.000
G1 X-81.483 Y-10.600 Z-4.239 F400.000
G1 X-81.534 Y-10.519 Z-4.244 F400.000
G1 X-81.600 Y-10.449 Z-4.249 F400.000
G1 X-81.677 Y-10.394 Z-4.254 F400.000
G1 X-81.765 Y-10.355 Z-4.259 F400.000
G1 X-81.858 Y-10.333 Z-4.264 F400.000
G1 X-81.953 Y-10.330 Z-4.269 F400.000
G1 X-82.048 Y-10.346 Z-4.275 F400.000
G1 X-82.137 Y-10.380 Z-4.280 F400.000
G1 X-82.218 Y-10.431 Z-4.285 F400.000
G1 X-82.288 Y-10.496 Z-4.290 F400.000
G1 X-82.343 Y-10.574 Z-4.295 F400.000
G1 X-82.382 Y-10.661 Z-4.300 F400.000
G1 X-82.404 Y-10.754 Z-4.305 F400.000
G1 X-82.407 Y-10.850 Z-4.310 F400.000
G1 X-82.391 Y-10.944 Z-4.316 F400.000
G1 X-82.357 Y-11.034 Z-4.321 F400.000
G1 X-82.306 Y-11.115 Z-4.326 F400.000
G1 X-82.241 Y-11.184 Z-4.331 F400.000
G1 X-82.163 Y-11.240 Z-4.336 F400.000
G1 X-82.076 Y-11.279 Z-4.341 F400.000
G1 X-81.983 Y-11.301 Z-4.346 F400.000
G1 X-81.887 Y-11.303 Z-4.351 F400.000
G1 X-81.793 Y-11.288 Z-4.357 F400.000
G1 X-81.703 Y-11.254 Z-4.362 F400.000
G1 X-81.622 Y-11.203 Z-4.367 F400.000
G1 X-81.553 Y-11.138 Z-4.372 F400.000
G1 X-81.497 Y-11.060 Z-4.377 F400.000
G1 X-81.458 Y-10.972 Z-4.382 F400.000
G1 X-81.437 Y-10.879 Z-4.387 F400.000
G1 X-81.434 Y-10.784 Z-4.392 F400.000
G1 X-81.449 Y-10.690 Z-4.397 F400.000
G1 X-81.483 Y-10.600 Z-4.403 F400.000
G1 X-81.534 Y-10.519 Z-4.408 F400.000
G1 X-81.600 Y-10.449 Z-4.413 F400.000
G1 X-81.677 Y-10.394 Z-4.418 F400.000
G1 X-81.765 Y-10.355 Z-4.423 F400.000
G1 X-81.858 Y-10.333 Z-4.428 F400.000
G1 X-81.953 Y-10.330 Z-4.433 F400.000
G1 X-82.048 Y-10.346 Z-4.438 F400.000
G1 X-82.137 Y-10.380 Z-4.444 F400.000
G1 X-82.218 Y-10.431 Z-4.449 F400.000
G1 X-82.288 Y-10.496 Z-4.454 F400.000
G1 X-82.343 Y-10.574 Z-4.459 F400.000
G1 X-82.382 Y-10.661 Z-4.464 F400.000
G1 X-82.404 Y-10.754 Z-4.469 F400.000
G1 X-82.407 Y-10.850 Z-4.474 F400.000
G1 X-82.391 Y-10.944 Z-4.479 F400.000
G1 X-82.357 Y-11.034 Z-4.485 F400.000
G1 X-82.306 Y-11.115 Z-4.490 F400.000
G1 X-82.241 Y-11.184 Z-4.495 F400.000
G1 X-82.163 Y-11.240 Z-4.500 F400.000
G1 X-82.076 Y-11.279 Z-4.505 F400.000
G1 X-81.983 Y-11.301 Z-4.510 F400.000
G1 X-81.887 Y-11.303 Z-4.515 F400.000
G1 X-81.793 Y-11.288 Z-4.520 F400.000
G1 X-81.703 Y-11.254 Z-4.526 F400.000
G1 X-81.622 Y-11.203 Z-4.531 F400.000
G1 X-81.553 Y-11.138 Z-4.536 F400.000
G1 X-81.497 Y-11.060 Z-4.541 F400.000
G1 X-81.458 Y-10.972 Z-4.546 F400.000
G1 X-81.437 Y-10.879 Z-4.551 F400.000
G1 X-81.434 Y-10.784 Z-4.556 F400.000
G1 X-81.449 Y-10.690 Z-4.561 F400.000
G1 X-81.483 Y-10.600 Z-4.566 F400.000
G1 X-81.534 Y-10.519 Z-4.572 F400.000
G1 X-81.600 Y-10.449 Z-4.577 F400.000
G1 X-81.677 Y-10.394 Z-4.582 F400.000
G1 X-81.765 Y-10.355 Z-4.587 F400.000
G1 X-81.858 Y-10.333 Z-4.592 F400.000
G1 X-81.953 Y-10.330 Z-4.597 F400.000
G1 X-82.048 Y-10.346 Z-4.602 F400.000
G1 X-82.137 Y-10.380 Z-4.607 F400.000
G1 X-82.218 Y-10.431 Z-4.613 F400.000
G1 X-82.288 Y-10.496 Z-4.618 F400.000
G1 X-82.343 Y-10.574 Z-4.623 F400.000
G1 X-82.382 Y-10.661 Z-4.628 F400.000
G1 X-82.404 Y-10.754 Z-4.633 F400.000
G1 X-82.407 Y-10.850 Z-4.638 F400.000
G1 X-82.391 Y-10.944 Z-4.643 F400.000
G1 X-82.357 Y-11.034 Z-4.648 F400.000
G1 X-82.306 Y-11.115 Z-4.654 F400.000
G1 X-82.241 Y-11.184 Z-4.659 F400.000
G1 X-82.163 Y-11.240 Z-4.664 F400.000
G1 X-82.076 Y-11.279 Z-4.669 F400.000
G1 X-81.983 Y-11.301 Z-4.674 F400.000
G1 X-81.887 Y-11.303 Z-4.679 F400.000
G1 X-81.793 Y-11.288 Z-4.684 F400.000
G1 X-81.703 Y-11.254 Z-4.689 F400.000
G1 X-81.622 Y-11.203 Z-4.695 F400.000
G1 X-81.553 Y-11.138 Z-4.700 F400.000
G1 X-81.497 Y-11.060 Z-4.705 F400.000
G1 X-81.458 Y-10.972 Z-4.710 F400.000
G1 X-81.437 Y-10.879 Z-4.715 F400.000
G1 X-81.434 Y-10.784 Z-4.720 F400.000
G1 X-81.449 Y-10.690 Z-4.725 F400.000
G1 X-81.483 Y-10.600 Z-4.730 F400.000
G1 X-81.534 Y-10.519 Z-4.735 F400.000
G1 X-81.600 Y-10.449 Z-4.741 F400.000
G1 X-81.677 Y-10.394 Z-4.746 F400.000
G1 X-81.765 Y-10.355 Z-4.751 F400.000
G1 X-81.858 Y-10.333 Z-4.756 F400.000
G1 X-81.953 Y-10.330 Z-4.761 F400.000
G1 X-82.048 Y-10.346 Z-4.766 F400.000
G1 X-82.137 Y-10.380 Z-4.771 F400.000
G1 X-82.218 Y-10.431 Z-4.776 F400.000
G1 X-82.288 Y-10.496 Z-4.782 F400.000
G1 X-82.343 Y-10.574 Z-4.787 F400.000
G1 X-82.382 Y-10.661 Z-4.792 F400.000
G1 X-82.404 Y-10.754 Z-4.797 F400.000
G1 X-82.407 Y-10.850 Z-4.802 F400.000
G1 X-82.391 Y-10.944 Z-4.807 F400.000
G1 X-82.357 Y-11.034 Z-4.812 F400.000
G1 X-82.306 Y-11.115 Z-4.817 F400.000
G1 X-82.241 Y-11.184 Z-4.823 F400.000
G1 X-82.163 Y-11.240 Z-4.828 F400.000
G1 X-82.076 Y-11.279 Z-4.833 F400.000
G1 X-81.983 Y-11.301 Z-4.838 F400.000
G1 X-81.887 Y-11.303 Z-4.843 F400.000
G1 X-81.793 Y-11.288 Z-4.848 F400.000
G1 X-81.703 Y-11.254 Z-4.853 F400.000
G1 X-81.622 Y-11.203 Z-4.858 F400.000
G1 X-81.553 Y-11.138 Z-4.864 F400.000
G1 X-81.497 Y-11.060 Z-4.869 F400.000
G1 X-81.458 Y-10.972 Z-4.874 F400.000
G1 X-81.437 Y-10.879 Z-4.879 F400.000
G1 X-81.434 Y-10.784 Z-4.884 F400.000
G1 X-81.449 Y-10.690 Z-4.889 F400.000
G1 X-81.483 Y-10.600 Z-4.894 F400.000
G1 X-81.534 Y-10.519 Z-4.899 F400.000
G1 X-81.600 Y-10.449 Z-4.904 F400.000
G1 X-81.677 Y-10.394 Z-4.910 F400.000
G1 X-81.765 Y-10.355 Z-4.915 F400.000
G1 X-81.858 Y-10.333 Z-4.920 F400.000
G1 X-81.953 Y-10.330 Z-4.925 F400.000
G1 X-82.048 Y-10.346 Z-4.930 F400.000
G1 X-82.137 Y-10.380 Z-4.935 F400.000
G1 X-82.218 Y-10.431 Z-4.940 F400.000
G1 X-82.288 Y-10.496 Z-4.945 F400.000
G1 X-82.343 Y-10.574 Z-4.951 F400.000
G1 X-82.382 Y-10.661 Z-4.956 F400.000
G1 X-82.404 Y-10.754 Z-4.961 F400.000
G1 X-82.407 Y-10.850 Z-4.966 F400.000
G1 X-82.391 Y-10.944 Z-4.971 F400.000
G1 X-82.357 Y-11.034 Z-4.976 F400.000
G1 X-82.306 Y-11.115 Z-4.981 F400.000
G1 X-82.241 Y-11.184 Z-4.986 F400.000
G1 X-82.163 Y-11.240 Z-4.992 F400.000
G1 X-82.076 Y-11.279 Z-4.997 F400.000
G1 X-81.983 Y-11.301 Z-5.000 F400.000
G1 X-81.887 Y-11.303 Z-5.000 F400.000
G1 X-81.793 Y-11.288 Z-5.000 F400.000
G1 X-81.703 Y-11.254 Z-5.000 F400.000
G1 X-81.622 Y-11.203 Z-5.000 F400.000
G1 X-81.553 Y-11.138 Z-5.000 F400.000
G1 X-81.497 Y-11.060 Z-5.000 F400.000
G1 X-81.458 Y-10.972 Z-5.000 F400.000
G1 X-81.437 Y-10.879 Z-5.000 F400.000
G1 X-81.434 Y-10.784 Z-5.000 F400.000
G1 X-81.449 Y-10.690 Z-5.000 F400.000
G1 X-81.483 Y-10.600 Z-5.000 F400.000
G1 X-81.534 Y-10.519 Z-5.000 F400.000
G1 X-81.600 Y-10.449 Z-5.000 F400.000
G1 X-81.677 Y-10.394 Z-5.000 F400.000
G1 X-81.765 Y-10.355 Z-5.000 F400.000
G1 X-81.858 Y-10.333 Z-5.000 F400.000
G1 X-81.953 Y-10.330 Z-5.000 F400.000
G1 X-82.048 Y-10.346 Z-5.000 F400.000
G1 X-82.137 Y-10.380 Z-5.000 F400.000
G1 X-82.218 Y-10.431 Z-5.000 F400.000
G1 X-82.288 Y-10.496 Z-5.000 F400.000
G1 X-82.343 Y-10.574 Z-5.000 F400.000
G1 X-82.382 Y-10.661 Z-5.000 F400.000
G1 X-82.404 Y-10.754 Z-5.000 F400.000
G1 X-82.407 Y-10.850 Z-5.000 F400.000
G1 X-82.391 Y-10.944 Z-5.000 F400.000
G1 X-82.357 Y-11.034 Z-5.000 F400.000
G1 X-82.306 Y-11.115 Z-5.000 F400.000
G1 X-82.241 Y-11.184 Z-5.000 F400.000
G1 X-82.163 Y-11.240 Z-5.000 F400.000
G1 X-82.076 Y-11.279 Z-5.000 F400.000
(Adaptive - depth: -5.000000)
G1 X-81.920 Y-11.315 F400.000
G1 X-81.859 Y-11.362 F400.000
G1 X-81.784 Y-11.380 F400.000
G1 X-81.709 Y-11.385 F400.000
G1 X-81.559 Y-11.347 F400.000
G1 X-81.423 Y-11.263 F400.000
G1 X-81.319 Y-11.146 F400.000
G1 X-81.244 Y-11.009 F400.000
G1 X-81.221 Y-10.934 F400.000
G1 X-81.221 Y-10.934 F400.000
G1 X-81.296 Y-10.845 F400.000
G0 X-81.324 Y-10.831
G1 X-81.352 Y-10.817 F400.000
G1 X-81.385 Y-10.775 F400.000
G1 X-81.404 Y-10.563 F400.000
G1 X-81.404 Y-10.563 F400.000
G1 X-81.446 Y-10.502 F400.000
G1 X-81.526 Y-10.286 F400.000
G1 X-81.610 Y-10.160 F400.000
G1 X-81.746 Y-10.094 F400.000
G1 X-81.887 Y-10.061 F400.000
G1 X-82.028 Y-10.056 F400.000
G1 X-82.169 Y-10.085 F400.000
G1 X-82.300 Y-10.141 F400.000
G1 X-82.469 Y-10.282 F400.000
G1 X-82.507 Y-10.343 F400.000
G1 X-82.531 Y-10.408 F400.000
G1 X-82.531 Y-10.972 F400.000
G1 X-82.521 Y-11.042 F400.000
G1 X-82.484 Y-11.108 F400.000
G1 X-82.174 Y-11.418 F400.000
G1 X-82.047 Y-11.502 F400.000
G1 X-81.906 Y-11.559 F400.000
G1 X-81.756 Y-11.587 F400.000
G1 X-81.606 Y-11.582 F400.000
G1 X-81.531 Y-11.568 F400.000
G1 X-81.315 Y-11.469 F400.000
G1 X-81.188 Y-11.371 F400.000
G1 X-81.094 Y-11.249 F400.000
G1 X-81.061 Y-11.178 F400.000
G1 X-81.061 Y-11.103 F400.000
G1 X-81.061 Y-11.103 F400.000
G1 X-81.286 Y-10.967 F400.000
G0 X-81.315 Y-10.948
G0 X-81.465 Y-10.695
G1 X-81.484 Y-10.657 F400.000
G1 X-81.531 Y-10.535 F400.000
G1 X-81.512 Y-10.211 F400.000
G1 X-81.512 Y-10.211 F400.000
G1 X-81.545 Y-10.061 F400.000
G1 X-81.610 Y-9.925 F400.000
G1 X-81.732 Y-9.840 F400.000
G1 X-81.944 Y-9.779 F400.000
G1 X-82.155 Y-9.775 F400.000
G1 X-82.296 Y-9.803 F400.000
G1 X-82.427 Y-9.859 F400.000
G1 X-82.488 Y-9.897 F400.000
G1 X-82.531 Y-9.958 F400.000
G1 X-82.531 Y-10.099 F400.000
G1 X-82.531 Y-10.099 F400.000
G1 X-82.498 Y-10.244 F400.000
G1 X-82.460 Y-10.310 F400.000
G1 X-82.432 Y-10.333 F400.000
G0 X-82.404 Y-10.347
G0 X-81.854 Y-10.291
G1 X-81.812 Y-10.282 F400.000
G1 X-81.690 Y-10.258 F400.000
G1 X-81.624 Y-10.221 F400.000
G1 X-81.559 Y-10.127 F400.000
G1 X-81.526 Y-9.986 F400.000
G1 X-81.526 Y-9.986 F400.000
G1 X-81.540 Y-9.836 F400.000
G1 X-81.596 Y-9.690 F400.000
G1 X-81.643 Y-9.634 F400.000
G1 X-81.770 Y-9.554 F400.000
G1 X-81.977 Y-9.484 F400.000
G1 X-82.188 Y-9.465 F400.000
G1 X-82.329 Y-9.484 F400.000
G1 X-82.465 Y-9.535 F400.000
G1 X-82.516 Y-9.587 F400.000
G1 X-82.531 Y-9.657 F400.000
G1 X-82.531 Y-9.657 F400.000
G1 X-82.498 Y-9.803 F400.000
G1 X-82.432 Y-9.897 F400.000
G0 X-82.404 Y-9.911
G0 X-81.859 Y-9.948
G1 X-81.817 Y-9.953 F400.000
G1 X-81.690 Y-9.948 F400.000
G1 X-81.624 Y-9.915 F400.000
G1 X-81.559 Y-9.826 F400.000
G1 X-81.526 Y-9.685 F400.000
G1 X-81.526 Y-9.685 F400.000
G1 X-81.582 Y-9.460 F400.000
G1 X-81.620 Y-9.394 F400.000
G1 X-81.798 Y-9.263 F400.000
G1 X-82.005 Y-9.178 F400.000
G1 X-82.146 Y-9.155 F400.000
G1 X-82.286 Y-9.160 F400.000
G1 X-82.427 Y-9.197 F400.000
G1 X-82.488 Y-9.230 F400.000
G1 X-82.531 Y-9.291 F400.000
G1 X-82.531 Y-9.286 F400.000
G1 X-82.498 Y-9.432 F400.000
G1 X-82.432 Y-9.526 F400.000
G0 X-82.404 Y-9.549
G0 X-81.850 Y-9.685
G1 X-81.808 Y-9.695 F400.000
G1 X-81.685 Y-9.709 F400.000
G1 X-81.624 Y-9.685 F400.000
G1 X-81.559 Y-9.601 F400.000
G1 X-81.526 Y-9.460 F400.000
G1 X-81.526 Y-9.460 F400.000
G1 X-81.540 Y-9.310 F400.000
G1 X-81.582 Y-9.164 F400.000
G1 X-81.620 Y-9.099 F400.000
G1 X-81.789 Y-8.958 F400.000
G1 X-81.995 Y-8.873 F400.000
G1 X-82.207 Y-8.840 F400.000
G1 X-82.277 Y-8.840 F400.000
G1 X-82.418 Y-8.873 F400.000
G1 X-82.484 Y-8.906 F400.000
G1 X-82.526 Y-8.962 F400.000
G1 X-82.531 Y-9.033 F400.000
G1 X-82.531 Y-9.033 F400.000
G1 X-82.498 Y-9.178 F400.000
G1 X-82.432 Y-9.272 F400.000
G0 X-82.404 Y-9.291
G0 X-81.854 Y-9.399
G1 X-81.812 Y-9.408 F400.000
G1 X-81.690 Y-9.418 F400.000
G1 X-81.624 Y-9.390 F400.000
G1 X-81.559 Y-9.305 F400.000
G1 X-81.526 Y-9.164 F400.000
G1 X-81.526 Y-9.164 F400.000
G1 X-81.554 Y-8.939 F400.000
G1 X-81.610 Y-8.798 F400.000
G1 X-81.662 Y-8.742 F400.000
G1 X-81.850 Y-8.615 F400.000
G1 X-82.056 Y-8.540 F400.000
G1 X-82.268 Y-8.521 F400.000
G1 X-82.338 Y-8.531 F400.000
G1 X-82.474 Y-8.582 F400.000
G1 X-82.521 Y-8.638 F400.000
G1 X-82.531 Y-8.709 F400.000
G1 X-82.531 Y-8.709 F400.000
G1 X-82.498 Y-8.854 F400.000
G1 X-82.432 Y-8.948 F400.000
G0 X-82.404 Y-8.967
G0 X-81.854 Y-9.094
G1 X-81.812 Y-9.103 F400.000
G1 X-81.690 Y-9.117 F400.000
G1 X-81.624 Y-9.089 F400.000
G1 X-81.559 Y-9.005 F400.000
G1 X-81.526 Y-8.864 F400.000
G1 X-81.526 Y-8.864 F400.000
G1 X-81.549 Y-8.638 F400.000
G1 X-81.606 Y-8.493 F400.000
G1 X-81.653 Y-8.432 F400.000
G1 X-81.831 Y-8.305 F400.000
G1 X-82.038 Y-8.230 F400.000
G1 X-82.178 Y-8.207 F400.000
G1 X-82.319 Y-8.216 F400.000
G1 X-82.455 Y-8.263 F400.000
G1 X-82.512 Y-8.310 F400.000
G1 X-82.531 Y-8.380 F400.000
G1 X-82.531 Y-8.451 F400.000
G1 X-82.531 Y-8.446 F400.000
G1 X-82.498 Y-8.592 F400.000
G1 X-82.432 Y-8.685 F400.000
G0 X-82.404 Y-8.704
G0 X-81.854 Y-8.803
G1 X-81.812 Y-8.812 F400.000
G1 X-81.690 Y-8.817 F400.000
G1 X-81.624 Y-8.793 F400.000
G1 X-81.559 Y-8.704 F400.000
G1 X-81.526 Y-8.563 F400.000
G1 X-81.526 Y-8.563 F400.000
G1 X-81.549 Y-8.338 F400.000
G1 X-81.596 Y-8.192 F400.000
G1 X-81.638 Y-8.131 F400.000
G1 X-81.756 Y-8.033 F400.000
G1 X-81.953 Y-7.934 F400.000
G1 X-82.094 Y-7.901 F400.000
G1 X-82.305 Y-7.901 F400.000
G1 X-82.441 Y-7.939 F400.000
G1 X-82.502 Y-7.981 F400.000
G1 X-82.531 Y-8.047 F400.000
G1 X-82.531 Y-8.117 F400.000
G1 X-82.531 Y-8.117 F400.000
G1 X-82.498 Y-8.263 F400.000
G1 X-82.432 Y-8.357 F400.000
G0 X-82.404 Y-8.376
G0 X-81.854 Y-8.493
G1 X-81.812 Y-8.502 F400.000
G1 X-81.690 Y-8.516 F400.000
G1 X-81.624 Y-8.488 F400.000
G1 X-81.559 Y-8.404 F400.000
G1 X-81.526 Y-8.263 F400.000
G1 X-81.526 Y-8.263 F400.000
G1 X-81.540 Y-8.038 F400.000
G1 X-81.582 Y-7.892 F400.000
G1 X-81.620 Y-7.826 F400.000
G1 X-81.793 Y-7.690 F400.000
G1 X-82.000 Y-7.606 F400.000
G1 X-82.211 Y-7.573 F400.000
G1 X-82.352 Y-7.592 F400.000
G1 X-82.488 Y-7.648 F400.000
G1 X-82.531 Y-7.709 F400.000
G1 X-82.531 Y-7.709 F400.000
G1 X-82.498 Y-7.854 F400.000
G1 X-82.432 Y-7.948 F400.000
G0 X-82.404 Y-7.972
G0 X-81.850 Y-8.117
G1 X-81.808 Y-8.127 F400.000
G1 X-81.685 Y-8.141 F400.000
G1 X-81.624 Y-8.117 F400.000
G1 X-81.559 Y-8.033 F400.000
G1 X-81.526 Y-7.892 F400.000
G1 X-81.526 Y-7.892 F400.000
G1 X-81.540 Y-7.742 F400.000
G1 X-81.582 Y-7.596 F400.000
G1 X-81.615 Y-7.531 F400.000
G1 X-81.723 Y-7.427 F400.000
G1 X-81.915 Y-7.315 F400.000
G1 X-82.127 Y-7.258 F400.000
G1 X-82.268 Y-7.254 F400.000
G1 X-82.408 Y-7.286 F400.000
G1 X-82.474 Y-7.319 F400.000
G1 X-82.521 Y-7.371 F400.000
G1 X-82.531 Y-7.441 F400.000
G1 X-82.531 Y-7.441 F400.000
G1 X-82.498 Y-7.587 F400.000
G1 X-82.432 Y-7.681 F400.000
G0 X-82.404 Y-7.700
G0 X-81.854 Y-7.822
G1 X-81.812 Y-7.831 F400.000
G1 X-81.690 Y-7.845 F400.000
G1 X-81.624 Y-7.817 F400.000
G1 X-81.559 Y-7.732 F400.000
G1 X-81.526 Y-7.592 F400.000
G1 X-81.526 Y-7.592 F400.000
G1 X-81.554 Y-7.366 F400.000
G1 X-81.610 Y-7.221 F400.000
G1 X-81.657 Y-7.164 F400.000
G1 X-81.840 Y-7.038 F400.000
G1 X-82.047 Y-6.962 F400.000
G1 X-82.258 Y-6.944 F400.000
G1 X-82.399 Y-6.972 F400.000
G1 X-82.465 Y-7.000 F400.000
G1 X-82.516 Y-7.052 F400.000
G1 X-82.531 Y-7.122 F400.000
G1 X-82.531 Y-7.122 F400.000
G1 X-82.498 Y-7.268 F400.000
G1 X-82.432 Y-7.362 F400.000
G0 X-82.404 Y-7.385
G0 X-81.854 Y-7.516
G1 X-81.822 Y-7.526 F400.000
G1 X-81.676 Y-7.545 F400.000
G1 X-81.620 Y-7.516 F400.000
G1 X-81.559 Y-7.432 F400.000
G1 X-81.526 Y-7.291 F400.000
G1 X-81.526 Y-7.291 F400.000
G1 X-81.549 Y-7.066 F400.000
G1 X-81.606 Y-6.920 F400.000
G1 X-81.653 Y-6.859 F400.000
G1 X-81.770 Y-6.765 F400.000
G1 X-81.972 Y-6.667 F400.000
G1 X-82.113 Y-6.634 F400.000
G1 X-82.254 Y-6.629 F400.000
G1 X-82.394 Y-6.657 F400.000
G1 X-82.460 Y-6.685 F400.000
G1 X-82.512 Y-6.737 F400.000
G1 X-82.531 Y-6.808 F400.000
G1 X-82.531 Y-6.808 F400.000
G1 X-82.498 Y-6.953 F400.000
G1 X-82.432 Y-7.047 F400.000
G0 X-82.404 Y-7.070
G0 X-81.850 Y-7.216
G1 X-81.808 Y-7.225 F400.000
G1 X-81.685 Y-7.239 F400.000
G1 X-81.624 Y-7.216 F400.000
G1 X-81.559 Y-7.131 F400.000
G1 X-81.526 Y-6.991 F400.000
G1 X-81.526 Y-6.991 F400.000
G1 X-81.545 Y-6.765 F400.000
G1 X-81.592 Y-6.620 F400.000
G1 X-81.634 Y-6.559 F400.000
G1 X-81.808 Y-6.418 F400.000
G1 X-82.009 Y-6.333 F400.000
G1 X-82.150 Y-6.310 F400.000
G1 X-82.291 Y-6.315 F400.000
G1 X-82.427 Y-6.352 F400.000
G1 X-82.488 Y-6.385 F400.000
G1 X-82.531 Y-6.446 F400.000
G1 X-82.531 Y-6.446 F400.000
G1 X-82.498 Y-6.592 F400.000
G1 X-82.432 Y-6.685 F400.000
G0 X-82.404 Y-6.709
G0 X-81.854 Y-6.840
G1 X-81.822 Y-6.850 F400.000
G1 X-81.676 Y-6.869 F400.000
G1 X-81.620 Y-6.840 F400.000
G1 X-81.559 Y-6.756 F400.000
G1 X-81.526 Y-6.615 F400.000
G1 X-81.526 Y-6.615 F400.000
G1 X-81.554 Y-6.390 F400.000
G1 X-81.610 Y-6.249 F400.000
G1 X-81.718 Y-6.146 F400.000
G1 X-81.845 Y-6.070 F400.000
G1 X-82.056 Y-6.000 F400.000
G1 X-82.197 Y-5.986 F400.000
G1 X-82.338 Y-6.000 F400.000
G1 X-82.474 Y-6.052 F400.000
G1 X-82.521 Y-6.103 F400.000
G1 X-82.531 Y-6.174 F400.000
G1 X-82.531 Y-6.174 F400.000
G1 X-82.498 Y-6.319 F400.000
G1 X-82.432 Y-6.413 F400.000
G0 X-82.404 Y-6.432
G0 X-81.854 Y-6.549
G1 X-81.812 Y-6.559 F400.000
G1 X-81.690 Y-6.573 F400.000
G1 X-81.624 Y-6.545 F400.000
G1 X-81.559 Y-6.460 F400.000
G1 X-81.526 Y-6.319 F400.000
G1 X-81.526 Y-6.319 F400.000
G1 X-81.549 Y-6.094 F400.000
G1 X-81.606 Y-5.948 F400.000
G1 X-81.653 Y-5.887 F400.000
G1 X-81.836 Y-5.761 F400.000
G1 X-82.042 Y-5.685 F400.000
G1 X-82.254 Y-5.667 F400.000
G1 X-82.394 Y-5.695 F400.000
G1 X-82.460 Y-5.723 F400.000
G1 X-82.512 Y-5.770 F400.000
G1 X-82.531 Y-5.840 F400.000
G1 X-82.531 Y-5.840 F400.000
G1 X-82.498 Y-5.986 F400.000
G1 X-82.432 Y-6.080 F400.000
G0 X-82.404 Y-6.103
G0 X-81.850 Y-6.244
G1 X-81.808 Y-6.254 F400.000
G1 X-81.685 Y-6.268 F400.000
G1 X-81.624 Y-6.244 F400.000
G1 X-81.559 Y-6.160 F400.000
G1 X-81.526 Y-6.019 F400.000
G1 X-81.526 Y-6.019 F400.000
G1 X-81.549 Y-5.793 F400.000
G1 X-81.596 Y-5.648 F400.000
G1 X-81.638 Y-5.587 F400.000
G1 X-81.756 Y-5.493 F400.000
G1 X-81.958 Y-5.394 F400.000
G1 X-82.169 Y-5.352 F400.000
G1 X-82.310 Y-5.357 F400.000
G1 X-82.446 Y-5.404 F400.000
G1 X-82.507 Y-5.446 F400.000
G1 X-82.531 Y-5.512 F400.000
G1 X-82.531 Y-5.582 F400.000
G1 X-82.531 Y-5.582 F400.000
G1 X-82.498 Y-5.728 F400.000
G1 X-82.432 Y-5.822 F400.000
G0 X-82.404 Y-5.840
G0 X-81.854 Y-5.953
G1 X-81.812 Y-5.962 F400.000
G1 X-81.690 Y-5.972 F400.000
G1 X-81.624 Y-5.944 F400.000
G1 X-81.559 Y-5.859 F400.000
G1 X-81.526 Y-5.718 F400.000
G1 X-81.526 Y-5.718 F400.000
G1 X-81.540 Y-5.493 F400.000
G1 X-81.587 Y-5.347 F400.000
G1 X-81.624 Y-5.282 F400.000
G1 X-81.732 Y-5.183 F400.000
G1 X-81.930 Y-5.085 F400.000
G1 X-82.070 Y-5.042 F400.000
G1 X-82.211 Y-5.028 F400.000
G1 X-82.352 Y-5.047 F400.000
G1 X-82.484 Y-5.103 F400.000
G1 X-82.526 Y-5.160 F400.000
G1 X-82.531 Y-5.300 F400.000
G1 X-82.531 Y-5.300 F400.000
G1 X-82.498 Y-5.446 F400.000
G1 X-82.432 Y-5.540 F400.000
G0 X-82.404 Y-5.559
G0 X-81.859 Y-5.606
G1 X-81.817 Y-5.610 F400.000
G1 X-81.690 Y-5.606 F400.000
G1 X-81.624 Y-5.573 F400.000
G1 X-81.559 Y-5.484 F400.000
G1 X-81.526 Y-5.343 F400.000
G1 X-81.526 Y-5.343 F400.000
G1 X-81.554 Y-5.117 F400.000
G1 X-81.610 Y-4.977 F400.000
G1 X-81.662 Y-4.920 F400.000
G1 X-81.850 Y-4.793 F400.000
G1 X-81.991 Y-4.742 F400.000
G1 X-82.202 Y-4.714 F400.000
G1 X-82.343 Y-4.728 F400.000
G1 X-82.479 Y-4.784 F400.000
G1 X-82.521 Y-4.840 F400.000
G1 X-82.531 Y-4.911 F400.000
G1 X-82.531 Y-4.911 F400.000
G1 X-82.498 Y-5.056 F400.000
G1 X-82.432 Y-5.150 F400.000
G0 X-82.404 Y-5.169
G0 X-81.854 Y-5.277
G1 X-81.812 Y-5.286 F400.000
G1 X-81.690 Y-5.296 F400.000
G1 X-81.624 Y-5.268 F400.000
G1 X-81.559 Y-5.183 F400.000
G1 X-81.526 Y-5.042 F400.000
G1 X-81.526 Y-5.042 F400.000
G1 X-81.549 Y-4.817 F400.000
G1 X-81.606 Y-4.671 F400.000
G1 X-81.653 Y-4.610 F400.000
G1 X-81.840 Y-4.484 F400.000
G1 X-82.047 Y-4.413 F400.000
G1 X-82.258 Y-4.394 F400.000
G1 X-82.399 Y-4.427 F400.000
G1 X-82.465 Y-4.460 F400.000
G1 X-82.516 Y-4.512 F400.000
G1 X-82.531 Y-4.582 F400.000
G1 X-82.531 Y-4.582 F400.000
G1 X-82.498 Y-4.728 F400.000
G1 X-82.432 Y-4.822 F400.000
G0 X-82.404 Y-4.840
G0 X-81.854 Y-4.972
G1 X-81.822 Y-4.981 F400.000
G1 X-81.676 Y-5.000 F400.000
G1 X-81.620 Y-4.972 F400.000
G1 X-81.559 Y-4.887 F400.000
G1 X-81.526 Y-4.746 F400.000
G1 X-81.526 Y-4.746 F400.000
G1 X-81.549 Y-4.521 F400.000
G1 X-81.596 Y-4.376 F400.000
G1 X-81.638 Y-4.315 F400.000
G1 X-81.756 Y-4.221 F400.000
G1 X-81.958 Y-4.122 F400.000
G1 X-82.169 Y-4.080 F400.000
G1 X-82.380 Y-4.103 F400.000
G1 X-82.507 Y-4.169 F400.000
G1 X-82.531 Y-4.235 F400.000
G1 X-82.531 Y-4.235 F400.000
G1 X-82.498 Y-4.380 F400.000
G1 X-82.432 Y-4.474 F400.000
G0 X-82.404 Y-4.498
G0 X-81.850 Y-4.662
G1 X-81.808 Y-4.671 F400.000
G1 X-81.685 Y-4.695 F400.000
G1 X-81.624 Y-4.671 F400.000
G1 X-81.559 Y-4.587 F400.000
G1 X-81.526 Y-4.446 F400.000
G1 X-81.526 Y-4.446 F400.000
G1 X-81.545 Y-4.221 F400.000
G1 X-81.592 Y-4.075 F400.000
G1 X-81.634 Y-4.009 F400.000
G1 X-81.751 Y-3.911 F400.000
G1 X-81.948 Y-3.812 F400.000
G1 X-82.160 Y-3.765 F400.000
G1 X-82.300 Y-3.765 F400.000
G1 X-82.371 Y-3.779 F400.000
G1 X-82.498 Y-3.845 F400.000
G1 X-82.531 Y-3.906 F400.000
G1 X-82.531 Y-3.977 F400.000
G1 X-82.531 Y-3.977 F400.000
G1 X-82.498 Y-4.122 F400.000
G1 X-82.432 Y-4.216 F400.000
G0 X-82.404 Y-4.235
G0 X-81.854 Y-4.319
G1 X-81.812 Y-4.324 F400.000
G1 X-81.690 Y-4.329 F400.000
G1 X-81.624 Y-4.300 F400.000
G1 X-81.559 Y-4.211 F400.000
G1 X-81.526 Y-4.070 F400.000
G1 X-81.526 Y-4.070 F400.000
G1 X-81.540 Y-3.920 F400.000
G1 X-81.582 Y-3.775 F400.000
G1 X-81.620 Y-3.709 F400.000
G1 X-81.793 Y-3.568 F400.000
G1 X-82.000 Y-3.479 F400.000
G1 X-82.141 Y-3.446 F400.000
G1 X-82.282 Y-3.446 F400.000
G1 X-82.418 Y-3.484 F400.000
G1 X-82.484 Y-3.516 F400.000
G1 X-82.526 Y-3.573 F400.000
G1 X-82.526 Y-3.573 F400.000
G1 X-82.493 Y-3.718 F400.000
G1 X-82.427 Y-3.812 F400.000
G0 X-82.399 Y-3.836
G0 X-81.850 Y-3.991
G1 X-81.808 Y-4.000 F400.000
G1 X-81.685 Y-4.019 F400.000
G1 X-81.624 Y-3.995 F400.000
G1 X-81.559 Y-3.911 F400.000
G1 X-81.526 Y-3.770 F400.000
G1 X-81.526 Y-3.770 F400.000
G1 X-81.554 Y-3.545 F400.000
G1 X-81.610 Y-3.399 F400.000
G1 X-81.718 Y-3.296 F400.000
G1 X-81.845 Y-3.216 F400.000
G1 X-82.052 Y-3.146 F400.000
G1 X-82.263 Y-3.127 F400.000
G1 X-82.404 Y-3.164 F400.000
G1 X-82.469 Y-3.192 F400.000
G1 X-82.516 Y-3.244 F400.000
G1 X-82.531 Y-3.315 F400.000
G1 X-82.531 Y-3.315 F400.000
G1 X-82.498 Y-3.460 F400.000
G1 X-82.432 Y-3.554 F400.000
G0 X-82.404 Y-3.573
G0 X-81.854 Y-3.700
G1 X-81.812 Y-3.709 F400.000
G1 X-81.690 Y-3.723 F400.000
G1 X-81.624 Y-3.695 F400.000
G1 X-81.559 Y-3.610 F400.000
G1 X-81.526 Y-3.469 F400.000
G1 X-81.526 Y-3.469 F400.000
G1 X-81.549 Y-3.244 F400.000
G1 X-81.606 Y-3.099 F400.000
G1 X-81.653 Y-3.038 F400.000
G1 X-81.831 Y-2.911 F400.000
G1 X-82.038 Y-2.836 F400.000
G1 X-82.249 Y-2.817 F400.000
G1 X-82.390 Y-2.845 F400.000
G1 X-82.455 Y-2.873 F400.000
G1 X-82.512 Y-2.920 F400.000
G1 X-82.531 Y-2.991 F400.000
G1 X-82.531 Y-2.991 F400.000
G1 X-82.498 Y-3.136 F400.000
G1 X-82.432 Y-3.230 F400.000
G0 X-82.404 Y-3.254
G0 X-81.850 Y-3.399
G1 X-81.808 Y-3.408 F400.000
G1 X-81.685 Y-3.423 F400.000
G1 X-81.624 Y-3.399 F400.000
G1 X-81.559 Y-3.315 F400.000
G1 X-81.526 Y-3.174 F400.000
G1 X-81.526 Y-3.174 F400.000
G1 X-81.545 Y-2.948 F400.000
G1 X-81.592 Y-2.803 F400.000
G1 X-81.634 Y-2.737 F400.000
G1 X-81.812 Y-2.606 F400.000
G1 X-81.948 Y-2.545 F400.000
G1 X-82.160 Y-2.502 F400.000
G1 X-82.300 Y-2.507 F400.000
G1 X-82.371 Y-2.521 F400.000
G1 X-82.498 Y-2.587 F400.000
G1 X-82.531 Y-2.653 F400.000
G1 X-82.531 Y-2.723 F400.000
G1 X-82.531 Y-2.723 F400.000
G1 X-82.498 Y-2.869 F400.000
G1 X-82.432 Y-2.962 F400.000
G0 X-82.404 Y-2.981
G0 X-81.859 Y-3.052
G1 X-81.817 Y-3.056 F400.000
G1 X-81.690 Y-3.056 F400.000
G1 X-81.624 Y-3.028 F400.000
G1 X-81.559 Y-2.939 F400.000
G1 X-81.526 Y-2.798 F400.000
G1 X-81.526 Y-2.798 F400.000
G1 X-81.563 Y-2.573 F400.000
G1 X-81.629 Y-2.437 F400.000
G1 X-81.808 Y-2.296 F400.000
G1 X-81.944 Y-2.235 F400.000
G1 X-82.155 Y-2.188 F400.000
G1 X-82.296 Y-2.188 F400.000
G1 X-82.432 Y-2.225 F400.000
G1 X-82.493 Y-2.258 F400.000
G1 X-82.531 Y-2.319 F400.000
G1 X-82.531 Y-2.390 F400.000
G1 X-82.531 Y-2.390 F400.000
G1 X-82.498 Y-2.535 F400.000
G1 X-82.432 Y-2.629 F400.000
G0 X-82.404 Y-2.648
G0 X-81.854 Y-2.742
G1 X-81.812 Y-2.746 F400.000
G1 X-81.690 Y-2.751 F400.000
G1 X-81.624 Y-2.728 F400.000
G1 X-81.559 Y-2.638 F400.000
G1 X-81.526 Y-2.498 F400.000
G1 X-81.526 Y-2.498 F400.000
G1 X-81.540 Y-2.347 F400.000
G1 X-81.582 Y-2.202 F400.000
G1 X-81.620 Y-2.136 F400.000
G1 X-81.793 Y-1.995 F400.000
G1 X-81.925 Y-1.930 F400.000
G1 X-82.136 Y-1.873 F400.000
G1 X-82.277 Y-1.869 F400.000
G1 X-82.418 Y-1.906 F400.000
G1 X-82.484 Y-1.939 F400.000
G1 X-82.526 Y-1.995 F400.000
G1 X-82.531 Y-2.066 F400.000
G1 X-82.531 Y-2.066 F400.000
G1 X-82.498 Y-2.211 F400.000
G1 X-82.432 Y-2.305 F400.000
G0 X-82.404 Y-2.324
G0 X-81.854 Y-2.432
G1 X-81.812 Y-2.441 F400.000
G1 X-81.690 Y-2.451 F400.000
G1 X-81.624 Y-2.423 F400.000
G1 X-81.559 Y-2.338 F400.000
G1 X-81.526 Y-2.197 F400.000
G1 X-81.526 Y-2.197 F400.000
G1 X-81.554 Y-1.972 F400.000
G1 X-81.610 Y-1.826 F400.000
G1 X-81.718 Y-1.723 F400.000
G1 X-81.911 Y-1.610 F400.000
G1 X-82.122 Y-1.554 F400.000
G1 X-82.263 Y-1.549 F400.000
G1 X-82.404 Y-1.577 F400.000
G1 X-82.469 Y-1.610 F400.000
G1 X-82.516 Y-1.662 F400.000
G1 X-82.531 Y-1.732 F400.000
G1 X-82.531 Y-1.732 F400.000
G1 X-82.498 Y-1.878 F400.000
G1 X-82.432 Y-1.972 F400.000
G0 X-82.404 Y-1.995
G0 X-81.854 Y-2.127
G1 X-81.822 Y-2.136 F400.000
G1 X-81.676 Y-2.155 F400.000
G1 X-81.620 Y-2.127 F400.000
G1 X-81.559 Y-2.042 F400.000
G1 X-81.526 Y-1.901 F400.000
G1 X-81.526 Y-1.901 F400.000
G1 X-81.549 Y-1.676 F400.000
G1 X-81.596 Y-1.531 F400.000
G1 X-81.638 Y-1.469 F400.000
G1 X-81.822 Y-1.343 F400.000
G1 X-82.028 Y-1.272 F400.000
G1 X-82.239 Y-1.258 F400.000
G1 X-82.380 Y-1.286 F400.000
G1 X-82.446 Y-1.310 F400.000
G1 X-82.507 Y-1.347 F400.000
G1 X-82.531 Y-1.413 F400.000
G1 X-82.531 Y-1.413 F400.000
G1 X-82.498 Y-1.559 F400.000
G1 X-82.432 Y-1.653 F400.000
G0 X-82.404 Y-1.676
G0 X-81.850 Y-1.822
G1 X-81.808 Y-1.831 F400.000
G1 X-81.685 Y-1.850 F400.000
G1 X-81.624 Y-1.826 F400.000
G1 X-81.559 Y-1.742 F400.000
G1 X-81.526 Y-1.601 F400.000
G1 X-81.526 Y-1.601 F400.000
G1 X-81.545 Y-1.376 F400.000
G1 X-81.601 Y-1.230 F400.000
G1 X-81.648 Y-1.174 F400.000
G1 X-81.770 Y-1.089 F400.000
G1 X-81.906 Y-1.028 F400.000
G1 X-82.117 Y-0.986 F400.000
G1 X-82.329 Y-0.995 F400.000
G1 X-82.465 Y-1.047 F400.000
G1 X-82.516 Y-1.094 F400.000
G1 X-82.531 Y-1.164 F400.000
G1 X-82.531 Y-1.160 F400.000
G1 X-82.498 Y-1.305 F400.000
G1 X-82.432 Y-1.399 F400.000
G0 X-82.404 Y-1.418
G0 X-81.854 Y-1.535
G1 X-81.812 Y-1.545 F400.000
G1 X-81.690 Y-1.554 F400.000
G1 X-81.624 Y-1.526 F400.000
G1 X-81.559 Y-1.441 F400.000
G1 X-81.526 Y-1.300 F400.000
G1 X-81.526 Y-1.300 F400.000
G1 X-81.549 Y-1.075 F400.000
G1 X-81.615 Y-0.939 F400.000
G1 X-81.732 Y-0.845 F400.000
G1 X-81.864 Y-0.779 F400.000
G1 X-82.005 Y-0.737 F400.000
G1 X-82.216 Y-0.718 F400.000
G1 X-82.357 Y-0.742 F400.000
G1 X-82.493 Y-0.798 F400.000
G1 X-82.531 Y-0.859 F400.000
G1 X-82.531 Y-0.930 F400.000
G1 X-82.531 Y-0.930 F400.000
G1 X-82.498 Y-1.075 F400.000
G1 X-82.432 Y-1.169 F400.000
G0 X-82.404 Y-1.188
G0 X-81.859 Y-1.254
G1 X-81.817 Y-1.258 F400.000
G1 X-81.690 Y-1.258 F400.000
G1 X-81.624 Y-1.230 F400.000
G1 X-81.559 Y-1.141 F400.000
G1 X-81.526 Y-1.000 F400.000
G1 X-81.526 Y-1.000 F400.000
G1 X-81.540 Y-0.850 F400.000
G1 X-81.587 Y-0.704 F400.000
G1 X-81.629 Y-0.643 F400.000
G1 X-81.751 Y-0.559 F400.000
G1 X-81.958 Y-0.474 F400.000
G1 X-82.169 Y-0.446 F400.000
G1 X-82.310 Y-0.460 F400.000
G1 X-82.446 Y-0.502 F400.000
G1 X-82.507 Y-0.545 F400.000
G1 X-82.531 Y-0.610 F400.000
G1 X-82.531 Y-0.681 F400.000
G1 X-82.531 Y-0.681 F400.000
G1 X-82.498 Y-0.826 F400.000
G1 X-82.432 Y-0.915 F400.000
G0 X-82.404 Y-0.934
G0 X-81.859 Y-0.967
G1 X-81.817 Y-0.972 F400.000
G1 X-81.690 Y-0.962 F400.000
G1 X-81.624 Y-0.930 F400.000
G1 X-81.559 Y-0.840 F400.000
G1 X-81.526 Y-0.700 F400.000
G1 X-81.526 Y-0.700 F400.000
G1 X-81.554 Y-0.549 F400.000
G1 X-81.577 Y-0.479 F400.000
G1 X-81.615 Y-0.413 F400.000
G1 X-81.732 Y-0.319 F400.000
G1 X-81.864 Y-0.249 F400.000
G1 X-82.075 Y-0.192 F400.000
G1 X-82.286 Y-0.192 F400.000
G1 X-82.427 Y-0.235 F400.000
G1 X-82.488 Y-0.268 F400.000
G1 X-82.531 Y-0.329 F400.000
G1 X-82.531 Y-0.540 F400.000
G1 X-82.531 Y-0.540 F400.000
G1 X-82.498 Y-0.685 F400.000
G1 X-82.460 Y-0.751 F400.000
G1 X-82.432 Y-0.775 F400.000
G0 X-82.404 Y-0.793
G0 X-81.859 Y-0.765
G1 X-81.817 Y-0.765 F400.000
G1 X-81.690 Y-0.742 F400.000
G1 X-81.624 Y-0.704 F400.000
G1 X-81.559 Y-0.615 F400.000
G1 X-81.526 Y-0.474 F400.000
G1 X-81.526 Y-0.474 F400.000
G1 X-81.563 Y-0.249 F400.000
G1 X-81.592 Y-0.178 F400.000
G1 X-81.634 Y-0.117 F400.000
G1 X-81.756 Y-0.033 F400.000
G1 X-81.958 Y0.052 F400.000
G1 X-82.169 Y0.080 F400.000
G1 X-82.310 Y0.066 F400.000
G1 X-82.451 Y0.019 F400.000
G1 X-82.507 Y-0.028 F400.000
G1 X-82.531 Y-0.094 F400.000
G1 X-82.531 Y-0.235 F400.000
G1 X-82.531 Y-0.235 F400.000
G1 X-82.498 Y-0.380 F400.000
G1 X-82.460 Y-0.446 F400.000
G1 X-82.432 Y-0.469 F400.000
G0 X-82.404 Y-0.488
G0 X-81.859 Y-0.469
G1 X-81.817 Y-0.465 F400.000
G1 X-81.690 Y-0.446 F400.000
G1 X-81.624 Y-0.408 F400.000
G1 X-81.559 Y-0.319 F400.000
G1 X-81.526 Y-0.178 F400.000
G1 X-81.526 Y-0.178 F400.000
G1 X-81.573 Y0.042 F400.000
G1 X-81.606 Y0.108 F400.000
G1 X-81.653 Y0.164 F400.000
G1 X-81.840 Y0.277 F400.000
G1 X-82.047 Y0.338 F400.000
G1 X-82.258 Y0.343 F400.000
G1 X-82.399 Y0.305 F400.000
G1 X-82.465 Y0.272 F400.000
G1 X-82.516 Y0.216 F400.000
G1 X-82.531 Y0.141 F400.000
G1 X-82.531 Y-0.005 F400.000
G1 X-82.531 Y-0.005 F400.000
G1 X-82.498 Y-0.150 F400.000
G1 X-82.460 Y-0.216 F400.000
G1 X-82.432 Y-0.239 F400.000
G0 X-82.404 Y-0.258
G0 X-81.859 Y-0.244
G1 X-81.817 Y-0.244 F400.000
G1 X-81.690 Y-0.225 F400.000
G1 X-81.624 Y-0.188 F400.000
G1 X-81.559 Y-0.099 F400.000
G1 X-81.526 Y0.042 F400.000
G1 X-81.526 Y0.042 F400.000
G1 X-81.549 Y0.254 F400.000
G1 X-81.606 Y0.390 F400.000
G1 X-81.653 Y0.441 F400.000
G1 X-81.836 Y0.554 F400.000
G1 X-81.977 Y0.596 F400.000
G1 X-82.188 Y0.615 F400.000
G1 X-82.329 Y0.592 F400.000
G1 X-82.465 Y0.535 F400.000
G1 X-82.516 Y0.479 F400.000
G1 X-82.531 Y0.404 F400.000
G1 X-82.531 Y0.254 F400.000
G1 X-82.531 Y0.254 F400.000
G1 X-82.498 Y0.094 F400.000
G1 X-82.460 Y0.023 F400.000
G1 X-82.432 Y0.000 F400.000
G0 X-82.404 Y-0.014
G0 X-81.854 Y0.019
G1 X-81.812 Y0.023 F400.000
G1 X-81.690 Y0.047 F400.000
G1 X-81.624 Y0.089 F400.000
G1 X-81.559 Y0.188 F400.000
G1 X-81.526 Y0.343 F400.000
G1 X-81.526 Y0.343 F400.000
G1 X-81.540 Y0.484 F400.000
G1 X-81.582 Y0.620 F400.000
G1 X-81.620 Y0.681 F400.000
G1 X-81.798 Y0.798 F400.000
G1 X-82.005 Y0.869 F400.000
G1 X-82.146 Y0.883 F400.000
G1 X-82.286 Y0.869 F400.000
G1 X-82.427 Y0.822 F400.000
G1 X-82.493 Y0.784 F400.000
G1 X-82.531 Y0.718 F400.000
G1 X-82.531 Y0.493 F400.000
G1 X-82.531 Y0.493 F400.000
G1 X-82.498 Y0.333 F400.000
G1 X-82.460 Y0.263 F400.000
G1 X-82.432 Y0.239 F400.000
G0 X-82.404 Y0.221
G0 X-81.854 Y0.300
G1 X-81.812 Y0.310 F400.000
G1 X-81.690 Y0.343 F400.000
G1 X-81.624 Y0.390 F400.000
G1 X-81.559 Y0.488 F400.000
G1 X-81.526 Y0.643 F400.000
G1 X-81.526 Y0.643 F400.000
G1 X-81.573 Y0.854 F400.000
G1 X-81.606 Y0.920 F400.000
G1 X-81.653 Y0.972 F400.000
G1 X-81.840 Y1.085 F400.000
G1 X-81.981 Y1.127 F400.000
G1 X-82.192 Y1.146 F400.000
G1 X-82.263 Y1.141 F400.000
G1 X-82.404 Y1.099 F400.000
G1 X-82.469 Y1.066 F400.000
G1 X-82.521 Y1.009 F400.000
G1 X-82.531 Y0.859 F400.000
G1 X-82.531 Y0.859 F400.000
G1 X-82.498 Y0.700 F400.000
G1 X-82.460 Y0.629 F400.000
G1 X-82.432 Y0.601 F400.000
G0 X-82.404 Y0.582
G0 X-81.859 Y0.563
G1 X-81.817 Y0.568 F400.000
G1 X-81.690 Y0.577 F400.000
G1 X-81.624 Y0.615 F400.000
G1 X-81.559 Y0.714 F400.000
G1 X-81.526 Y0.869 F400.000
G1 X-81.526 Y0.869 F400.000
G1 X-81.540 Y1.009 F400.000
G1 X-81.582 Y1.146 F400.000
G1 X-81.620 Y1.207 F400.000
G1 X-81.732 Y1.296 F400.000
G1 X-81.930 Y1.380 F400.000
G1 X-82.141 Y1.408 F400.000
G1 X-82.282 Y1.399 F400.000
G1 X-82.423 Y1.357 F400.000
G1 X-82.488 Y1.319 F400.000
G1 X-82.531 Y1.258 F400.000
G1 X-82.531 Y1.033 F400.000
G1 X-82.531 Y1.033 F400.000
G1 X-82.498 Y0.873 F400.000
G1 X-82.460 Y0.803 F400.000
G1 X-82.432 Y0.779 F400.000
G0 X-82.404 Y0.761
G0 X-81.854 Y0.826
G1 X-81.812 Y0.836 F400.000
G1 X-81.690 Y0.864 F400.000
G1 X-81.624 Y0.911 F400.000
G1 X-81.559 Y1.009 F400.000
G1 X-81.526 Y1.164 F400.000
G1 X-81.526 Y1.164 F400.000
G1 X-81.568 Y1.376 F400.000
G1 X-81.601 Y1.441 F400.000
G1 X-81.648 Y1.498 F400.000
G1 X-81.836 Y1.610 F400.000
G1 X-82.042 Y1.667 F400.000
G1 X-82.254 Y1.671 F400.000
G1 X-82.394 Y1.634 F400.000
G1 X-82.460 Y1.606 F400.000
G1 X-82.512 Y1.554 F400.000
G1 X-82.531 Y1.479 F400.000
G1 X-82.531 Y1.329 F400.000
G1 X-82.531 Y1.329 F400.000
G1 X-82.498 Y1.169 F400.000
G1 X-82.460 Y1.099 F400.000
G1 X-82.432 Y1.070 F400.000
G0 X-82.404 Y1.056
G0 X-81.859 Y1.070
G1 X-81.817 Y1.075 F400.000
G1 X-81.690 Y1.094 F400.000
G1 X-81.624 Y1.136 F400.000
G1 X-81.559 Y1.235 F400.000
G1 X-81.526 Y1.390 F400.000
G1 X-81.526 Y1.390 F400.000
G1 X-81.540 Y1.531 F400.000
G1 X-81.582 Y1.667 F400.000
G1 X-81.620 Y1.728 F400.000
G1 X-81.789 Y1.854 F400.000
G1 X-81.995 Y1.925 F400.000
G1 X-82.136 Y1.939 F400.000
G1 X-82.347 Y1.911 F400.000
G1 X-82.484 Y1.845 F400.000
G1 X-82.526 Y1.784 F400.000
G1 X-82.531 Y1.559 F400.000
G1 X-82.531 Y1.559 F400.000
G1 X-82.498 Y1.399 F400.000
G1 X-82.460 Y1.329 F400.000
G1 X-82.432 Y1.305 F400.000
G0 X-82.404 Y1.286
G0 X-81.854 Y1.352
G1 X-81.812 Y1.362 F400.000
G1 X-81.690 Y1.390 F400.000
G1 X-81.624 Y1.437 F400.000
G1 X-81.559 Y1.535 F400.000
G1 X-81.526 Y1.690 F400.000
G1 X-81.526 Y1.690 F400.000
G1 X-81.568 Y1.901 F400.000
G1 X-81.596 Y1.967 F400.000
G1 X-81.638 Y2.023 F400.000
G1 X-81.822 Y2.136 F400.000
G1 X-82.028 Y2.192 F400.000
G1 X-82.239 Y2.197 F400.000
G1 X-82.380 Y2.164 F400.000
G1 X-82.446 Y2.136 F400.000
G1 X-82.507 Y2.089 F400.000
G1 X-82.531 Y2.019 F400.000
G1 X-82.531 Y1.869 F400.000
G1 X-82.531 Y1.869 F400.000
G1 X-82.498 Y1.709 F400.000
G1 X-82.460 Y1.638 F400.000
G1 X-82.432 Y1.610 F400.000
G0 X-82.404 Y1.596
G0 X-81.859 Y1.601
G1 X-81.817 Y1.606 F400.000
G1 X-81.690 Y1.624 F400.000
G1 X-81.624 Y1.662 F400.000
G1 X-81.559 Y1.761 F400.000
G1 X-81.526 Y1.915 F400.000
G1 X-81.526 Y1.915 F400.000
G1 X-81.540 Y2.056 F400.000
G1 X-81.582 Y2.192 F400.000
G1 X-81.620 Y2.254 F400.000
G1 X-81.793 Y2.380 F400.000
G1 X-81.995 Y2.451 F400.000
G1 X-82.207 Y2.465 F400.000
G1 X-82.347 Y2.441 F400.000
G1 X-82.484 Y2.376 F400.000
G1 X-82.526 Y2.315 F400.000
G1 X-82.531 Y2.089 F400.000
G1 X-82.531 Y2.089 F400.000
G1 X-82.498 Y1.930 F400.000
G1 X-82.460 Y1.859 F400.000
G1 X-82.432 Y1.836 F400.000
G0 X-82.404 Y1.817
G0 X-81.854 Y1.878
G1 X-81.812 Y1.887 F400.000
G1 X-81.690 Y1.915 F400.000
G1 X-81.624 Y1.962 F400.000
G1 X-81.559 Y2.061 F400.000
G1 X-81.526 Y2.216 F400.000
G1 X-81.526 Y2.216 F400.000
G1 X-81.568 Y2.427 F400.000
G1 X-81.596 Y2.493 F400.000
G1 X-81.643 Y2.549 F400.000
G1 X-81.826 Y2.662 F400.000
G1 X-82.033 Y2.723 F400.000
G1 X-82.244 Y2.728 F400.000
G1 X-82.385 Y2.690 F400.000
G1 X-82.451 Y2.662 F400.000
G1 X-82.507 Y2.615 F400.000
G1 X-82.531 Y2.545 F400.000
G1 X-82.531 Y2.394 F400.000
G1 X-82.531 Y2.394 F400.000
G1 X-82.498 Y2.235 F400.000
G1 X-82.460 Y2.164 F400.000
G1 X-82.432 Y2.136 F400.000
G0 X-82.404 Y2.122
G0 X-81.859 Y2.127
G1 X-81.817 Y2.131 F400.000
G1 X-81.690 Y2.150 F400.000
G1 X-81.624 Y2.188 F400.000
G1 X-81.559 Y2.286 F400.000
G1 X-81.526 Y2.441 F400.000
G1 X-81.526 Y2.441 F400.000
G1 X-81.549 Y2.653 F400.000
G1 X-81.606 Y2.789 F400.000
G1 X-81.653 Y2.840 F400.000
G1 X-81.840 Y2.944 F400.000
G1 X-82.047 Y3.000 F400.000
G1 X-82.188 Y3.005 F400.000
G1 X-82.329 Y2.981 F400.000
G1 X-82.465 Y2.925 F400.000
G1 X-82.516 Y2.869 F400.000
G1 X-82.531 Y2.793 F400.000
G1 X-82.531 Y2.643 F400.000
G1 X-82.531 Y2.643 F400.000
G1 X-82.498 Y2.484 F400.000
G1 X-82.460 Y2.413 F400.000
G1 X-82.432 Y2.390 F400.000
G0 X-82.404 Y2.371
G0 X-81.854 Y2.408
G1 X-81.812 Y2.413 F400.000
G1 X-81.690 Y2.441 F400.000
G1 X-81.624 Y2.484 F400.000
G1 X-81.559 Y2.582 F400.000
G1 X-81.526 Y2.737 F400.000
G1 X-81.526 Y2.737 F400.000
G1 X-81.540 Y2.878 F400.000
G1 X-81.587 Y3.014 F400.000
G1 X-81.624 Y3.075 F400.000
G1 X-81.742 Y3.160 F400.000
G1 X-81.944 Y3.244 F400.000
G1 X-82.155 Y3.272 F400.000
G1 X-82.296 Y3.258 F400.000
G1 X-82.432 Y3.211 F400.000
G1 X-82.498 Y3.174 F400.000
G1 X-82.531 Y3.108 F400.000
G1 X-82.531 Y2.883 F400.000
G1 X-82.531 Y2.883 F400.000
G1 X-82.498 Y2.723 F400.000
G1 X-82.460 Y2.653 F400.000
G1 X-82.432 Y2.629 F400.000
G0 X-82.404 Y2.610
G0 X-81.854 Y2.690
G1 X-81.822 Y2.700 F400.000
G1 X-81.676 Y2.737 F400.000
G1 X-81.596 Y2.812 F400.000
G1 X-81.526 Y3.038 F400.000
G1 X-81.526 Y3.038 F400.000
G1 X-81.577 Y3.249 F400.000
G1 X-81.610 Y3.310 F400.000
G1 X-81.723 Y3.404 F400.000
G1 X-81.850 Y3.474 F400.000
G1 X-81.991 Y3.516 F400.000
G1 X-82.202 Y3.531 F400.000
G1 X-82.343 Y3.512 F400.000
G1 X-82.479 Y3.451 F400.000
G1 X-82.526 Y3.390 F400.000
G1 X-82.531 Y3.164 F400.000
G1 X-82.531 Y3.164 F400.000
G1 X-82.498 Y3.005 F400.000
G1 X-82.460 Y2.934 F400.000
G1 X-82.432 Y2.911 F400.000
G0 X-82.404 Y2.892
G0 X-81.854 Y2.934
G1 X-81.812 Y2.939 F400.000
G1 X-81.690 Y2.967 F400.000
G1 X-81.624 Y3.009 F400.000
G1 X-81.559 Y3.108 F400.000
G1 X-81.526 Y3.263 F400.000
G1 X-81.526 Y3.263 F400.000
G1 X-81.540 Y3.404 F400.000
G1 X-81.587 Y3.540 F400.000
G1 X-81.629 Y3.601 F400.000
G1 X-81.746 Y3.685 F400.000
G1 X-81.948 Y3.770 F400.000
G1 X-82.160 Y3.803 F400.000
G1 X-82.371 Y3.765 F400.000
G1 X-82.441 Y3.737 F400.000
G1 X-82.502 Y3.695 F400.000
G1 X-82.531 Y3.624 F400.000
G1 X-82.531 Y3.399 F400.000
G1 X-82.531 Y3.399 F400.000
G1 X-82.498 Y3.239 F400.000
G1 X-82.460 Y3.169 F400.000
G1 X-82.432 Y3.146 F400.000
G0 X-82.404 Y3.127
G0 X-81.854 Y3.164
G1 X-81.812 Y3.169 F400.000
G1 X-81.690 Y3.192 F400.000
G1 X-81.624 Y3.235 F400.000
G1 X-81.559 Y3.333 F400.000
G1 X-81.526 Y3.488 F400.000
G1 X-81.526 Y3.488 F400.000
G1 X-81.549 Y3.700 F400.000
G1 X-81.606 Y3.836 F400.000
G1 X-81.653 Y3.892 F400.000
G1 X-81.775 Y3.972 F400.000
G1 X-81.977 Y4.042 F400.000
G1 X-82.188 Y4.061 F400.000
G1 X-82.329 Y4.042 F400.000
G1 X-82.465 Y3.986 F400.000
G1 X-82.516 Y3.930 F400.000
G1 X-82.531 Y3.854 F400.000
G1 X-82.531 Y3.704 F400.000
G1 X-82.531 Y3.704 F400.000
G1 X-82.498 Y3.545 F400.000
G1 X-82.460 Y3.474 F400.000
G1 X-82.432 Y3.451 F400.000
G0 X-82.404 Y3.432
G0 X-81.854 Y3.465
G1 X-81.812 Y3.469 F400.000
G1 X-81.690 Y3.493 F400.000
G1 X-81.624 Y3.535 F400.000
G1 X-81.559 Y3.634 F400.000
G1 X-81.526 Y3.789 F400.000
G1 X-81.526 Y3.789 F400.000
G1 X-81.540 Y3.930 F400.000
G1 X-81.587 Y4.066 F400.000
G1 X-81.624 Y4.127 F400.000
G1 X-81.803 Y4.239 F400.000
G1 X-82.009 Y4.310 F400.000
G1 X-82.150 Y4.324 F400.000
G1 X-82.291 Y4.310 F400.000
G1 X-82.432 Y4.263 F400.000
G1 X-82.498 Y4.225 F400.000
G1 X-82.531 Y4.160 F400.000
G1 X-82.531 Y3.934 F400.000
G1 X-82.531 Y3.934 F400.000
G1 X-82.498 Y3.775 F400.000
G1 X-82.460 Y3.704 F400.000
G1 X-82.432 Y3.681 F400.000
G0 X-82.404 Y3.662
G0 X-81.854 Y3.742
G1 X-81.812 Y3.751 F400.000
G1 X-81.690 Y3.784 F400.000
G1 X-81.624 Y3.831 F400.000
G1 X-81.559 Y3.930 F400.000
G1 X-81.526 Y4.085 F400.000
G1 X-81.526 Y4.085 F400.000
G1 X-81.573 Y4.296 F400.000
G1 X-81.606 Y4.362 F400.000
G1 X-81.653 Y4.413 F400.000
G1 X-81.840 Y4.526 F400.000
G1 X-82.052 Y4.582 F400.000
G1 X-82.192 Y4.592 F400.000
G1 X-82.333 Y4.568 F400.000
G1 X-82.469 Y4.512 F400.000
G1 X-82.516 Y4.455 F400.000
G1 X-82.531 Y4.380 F400.000
G1 X-82.531 Y4.230 F400.000
G1 X-82.531 Y4.230 F400.000
G1 X-82.498 Y4.070 F400.000
G1 X-82.460 Y4.000 F400.000
G1 X-82.432 Y3.972 F400.000
G0 X-82.404 Y3.958
G0 X-81.854 Y3.986
G1 X-81.812 Y3.991 F400.000
G1 X-81.690 Y4.014 F400.000
G1 X-81.624 Y4.056 F400.000
G1 X-81.559 Y4.155 F400.000
G1 X-81.526 Y4.310 F400.000
G1 X-81.526 Y4.310 F400.000
G1 X-81.540 Y4.451 F400.000
G1 X-81.582 Y4.587 F400.000
G1 X-81.620 Y4.648 F400.000
G1 X-81.793 Y4.770 F400.000
G1 X-82.000 Y4.840 F400.000
G1 X-82.211 Y4.854 F400.000
G1 X-82.352 Y4.826 F400.000
G1 X-82.488 Y4.761 F400.000
G1 X-82.531 Y4.695 F400.000
G1 X-82.531 Y4.469 F400.000
G1 X-82.531 Y4.465 F400.000
G1 X-82.498 Y4.305 F400.000
G1 X-82.460 Y4.235 F400.000
G1 X-82.432 Y4.211 F400.000
G0 X-82.404 Y4.192
G0 X-81.854 Y4.268
G1 X-81.812 Y4.277 F400.000
G1 X-81.690 Y4.310 F400.000
G1 X-81.624 Y4.357 F400.000
G1 X-81.559 Y4.455 F400.000
G1 X-81.526 Y4.610 F400.000
G1 X-81.526 Y4.610 F400.000
G1 X-81.577 Y4.822 F400.000
G1 X-81.610 Y4.887 F400.000
G1 X-81.718 Y4.981 F400.000
G1 X-81.845 Y5.052 F400.000
G1 X-82.056 Y5.108 F400.000
G1 X-82.268 Y5.108 F400.000
G1 X-82.408 Y5.066 F400.000
G1 X-82.474 Y5.033 F400.000
G1 X-82.521 Y4.977 F400.000
G1 X-82.531 Y4.751 F400.000
G1 X-82.531 Y4.751 F400.000
G1 X-82.498 Y4.592 F400.000
G1 X-82.460 Y4.521 F400.000
G1 X-82.432 Y4.498 F400.000
G0 X-82.404 Y4.479
G0 X-81.854 Y4.512
G1 X-81.812 Y4.516 F400.000
G1 X-81.690 Y4.540 F400.000
G1 X-81.624 Y4.582 F400.000
G1 X-81.559 Y4.681 F400.000
G1 X-81.526 Y4.836 F400.000
G1 X-81.526 Y4.836 F400.000
G1 X-81.540 Y4.977 F400.000
G1 X-81.582 Y5.113 F400.000
G1 X-81.620 Y5.174 F400.000
G1 X-81.793 Y5.296 F400.000
G1 X-82.000 Y5.366 F400.000
G1 X-82.211 Y5.380 F400.000
G1 X-82.423 Y5.329 F400.000
G1 X-82.488 Y5.291 F400.000
G1 X-82.531 Y5.225 F400.000
G1 X-82.531 Y5.000 F400.000
G1 X-82.531 Y5.000 F400.000
G1 X-82.498 Y4.840 F400.000
G1 X-82.460 Y4.770 F400.000
G1 X-82.432 Y4.746 F400.000
G0 X-82.404 Y4.728
G0 X-81.854 Y4.793
G1 X-81.812 Y4.803 F400.000
G1 X-81.690 Y4.836 F400.000
G1 X-81.624 Y4.883 F400.000
G1 X-81.559 Y4.981 F400.000
G1 X-81.526 Y5.136 F400.000
G1 X-81.526 Y5.136 F400.000
G1 X-81.577 Y5.347 F400.000
G1 X-81.610 Y5.413 F400.000
G1 X-81.718 Y5.507 F400.000
G1 X-81.845 Y5.577 F400.000
G1 X-82.056 Y5.634 F400.000
G1 X-82.268 Y5.638 F400.000
G1 X-82.408 Y5.596 F400.000
G1 X-82.474 Y5.563 F400.000
G1 X-82.521 Y5.507 F400.000
G1 X-82.531 Y5.282 F400.000
G1 X-82.531 Y5.282 F400.000
G1 X-82.498 Y5.122 F400.000
G1 X-82.460 Y5.052 F400.000
G1 X-82.432 Y5.023 F400.000
G0 X-82.404 Y5.009
G0 X-81.854 Y5.038
G1 X-81.812 Y5.042 F400.000
G1 X-81.690 Y5.066 F400.000
G1 X-81.624 Y5.108 F400.000
G1 X-81.559 Y5.207 F400.000
G1 X-81.526 Y5.362 F400.000
G1 X-81.526 Y5.362 F400.000
G1 X-81.540 Y5.502 F400.000
G1 X-81.582 Y5.638 F400.000
G1 X-81.620 Y5.700 F400.000
G1 X-81.732 Y5.789 F400.000
G1 X-81.934 Y5.873 F400.000
G1 X-82.146 Y5.906 F400.000
G1 X-82.286 Y5.897 F400.000
G1 X-82.427 Y5.850 F400.000
G1 X-82.493 Y5.812 F400.000
G1 X-82.531 Y5.746 F400.000
G1 X-82.531 Y5.521 F400.000
G1 X-82.531 Y5.521 F400.000
G1 X-82.498 Y5.362 F400.000
G1 X-82.460 Y5.291 F400.000
G1 X-82.432 Y5.268 F400.000
G0 X-82.404 Y5.249
G0 X-81.854 Y5.315
G1 X-81.812 Y5.324 F400.000
G1 X-81.690 Y5.357 F400.000
G1 X-81.624 Y5.404 F400.000
G1 X-81.559 Y5.502 F400.000
G1 X-81.526 Y5.657 F400.000
G1 X-81.526 Y5.657 F400.000
G1 X-81.568 Y5.869 F400.000
G1 X-81.601 Y5.934 F400.000
G1 X-81.648 Y5.991 F400.000
G1 X-81.831 Y6.103 F400.000
G1 X-82.038 Y6.164 F400.000
G1 X-82.249 Y6.169 F400.000
G1 X-82.390 Y6.131 F400.000
G1 X-82.455 Y6.099 F400.000
G1 X-82.512 Y6.047 F400.000
G1 X-82.531 Y5.972 F400.000
G1 X-82.531 Y5.822 F400.000
G1 X-82.531 Y5.822 F400.000
G1 X-82.498 Y5.662 F400.000
G1 X-82.460 Y5.592 F400.000
G1 X-82.432 Y5.563 F400.000
G0 X-82.404 Y5.549
G0 X-81.859 Y5.563
G1 X-81.817 Y5.568 F400.000
G1 X-81.690 Y5.587 F400.000
G1 X-81.624 Y5.629 F400.000
G1 X-81.559 Y5.728 F400.000
G1 X-81.526 Y5.883 F400.000
G1 X-81.526 Y5.883 F400.000
G1 X-81.554 Y6.094 F400.000
G1 X-81.610 Y6.225 F400.000
G1 X-81.662 Y6.277 F400.000
G1 X-81.784 Y6.352 F400.000
G1 X-81.991 Y6.423 F400.000
G1 X-82.202 Y6.437 F400.000
G1 X-82.413 Y6.385 F400.000
G1 X-82.479 Y6.347 F400.000
G1 X-82.526 Y6.286 F400.000
G1 X-82.531 Y6.061 F400.000
G1 X-82.531 Y6.061 F400.000
G1 X-82.498 Y5.901 F400.000
G1 X-82.460 Y5.831 F400.000
G1 X-82.432 Y5.808 F400.000
G0 X-82.404 Y5.789
G0 X-81.854 Y5.845
G1 X-81.812 Y5.854 F400.000
G1 X-81.690 Y5.883 F400.000
G1 X-81.624 Y5.930 F400.000
G1 X-81.559 Y6.028 F400.000
G1 X-81.526 Y6.183 F400.000
G1 X-81.526 Y6.183 F400.000
G1 X-81.540 Y6.324 F400.000
G1 X-81.587 Y6.460 F400.000
G1 X-81.629 Y6.521 F400.000
G1 X-81.812 Y6.634 F400.000
G1 X-82.023 Y6.695 F400.000
G1 X-82.164 Y6.709 F400.000
G1 X-82.376 Y6.671 F400.000
G1 X-82.502 Y6.596 F400.000
G1 X-82.531 Y6.526 F400.000
G1 X-82.531 Y6.300 F400.000
G1 X-82.531 Y6.300 F400.000
G1 X-82.498 Y6.141 F400.000
G1 X-82.460 Y6.070 F400.000
G1 X-82.432 Y6.047 F400.000
G0 X-82.404 Y6.028
G0 X-81.854 Y6.075
G1 X-81.812 Y6.085 F400.000
G1 X-81.690 Y6.113 F400.000
G1 X-81.624 Y6.155 F400.000
G1 X-81.559 Y6.254 F400.000
G1 X-81.526 Y6.408 F400.000
G1 X-81.526 Y6.408 F400.000
G1 X-81.549 Y6.620 F400.000
G1 X-81.606 Y6.756 F400.000
G1 X-81.718 Y6.850 F400.000
G1 X-81.915 Y6.934 F400.000
G1 X-82.127 Y6.967 F400.000
G1 X-82.268 Y6.962 F400.000
G1 X-82.338 Y6.948 F400.000
G1 X-82.474 Y6.887 F400.000
G1 X-82.521 Y6.826 F400.000
G1 X-82.531 Y6.601 F400.000
G1 X-82.531 Y6.601 F400.000
G1 X-82.498 Y6.441 F400.000
G1 X-82.460 Y6.371 F400.000
G1 X-82.432 Y6.347 F400.000
G0 X-82.404 Y6.329
G0 X-81.854 Y6.376
G1 X-81.812 Y6.385 F400.000
G1 X-81.690 Y6.413 F400.000
G1 X-81.624 Y6.455 F400.000
G1 X-81.559 Y6.554 F400.000
G1 X-81.526 Y6.709 F400.000
G1 X-81.526 Y6.709 F400.000
G1 X-81.540 Y6.850 F400.000
G1 X-81.587 Y6.986 F400.000
G1 X-81.624 Y7.047 F400.000
G1 X-81.808 Y7.160 F400.000
G1 X-82.014 Y7.225 F400.000
G1 X-82.155 Y7.239 F400.000
G1 X-82.366 Y7.202 F400.000
G1 X-82.498 Y7.136 F400.000
G1 X-82.531 Y7.070 F400.000
G1 X-82.531 Y6.845 F400.000
G1 X-82.531 Y6.845 F400.000
G1 X-82.498 Y6.685 F400.000
G1 X-82.460 Y6.615 F400.000
G1 X-82.432 Y6.592 F400.000
G0 X-82.404 Y6.573
G0 X-81.850 Y6.662
G1 X-81.808 Y6.671 F400.000
G1 X-81.685 Y6.709 F400.000
G1 X-81.596 Y6.784 F400.000
G1 X-81.535 Y6.930 F400.000
G1 X-81.526 Y7.009 F400.000
G1 X-81.526 Y7.009 F400.000
G1 X-81.554 Y7.150 F400.000
G1 X-81.610 Y7.282 F400.000
G1 X-81.723 Y7.376 F400.000
G1 X-81.915 Y7.465 F400.000
G1 X-82.127 Y7.502 F400.000
G1 X-82.338 Y7.479 F400.000
G1 X-82.474 Y7.423 F400.000
G1 X-82.521 Y7.366 F400.000
G1 X-82.531 Y7.141 F400.000
G1 X-82.531 Y7.141 F400.000
G1 X-82.498 Y6.981 F400.000
G1 X-82.460 Y6.911 F400.000
G1 X-82.432 Y6.887 F400.000
G0 X-82.404 Y6.869
G0 X-81.854 Y6.906
G1 X-81.812 Y6.911 F400.000
G1 X-81.690 Y6.934 F400.000
G1 X-81.624 Y6.977 F400.000
G1 X-81.559 Y7.075 F400.000
G1 X-81.526 Y7.230 F400.000
G1 X-81.526 Y7.230 F400.000
G1 X-81.540 Y7.371 F400.000
G1 X-81.587 Y7.507 F400.000
G1 X-81.624 Y7.568 F400.000
G1 X-81.803 Y7.685 F400.000
G1 X-82.009 Y7.756 F400.000
G1 X-82.221 Y7.770 F400.000
G1 X-82.291 Y7.761 F400.000
G1 X-82.432 Y7.709 F400.000
G1 X-82.498 Y7.671 F400.000
G1 X-82.531 Y7.601 F400.000
G1 X-82.531 Y7.376 F400.000
G1 X-82.531 Y7.376 F400.000
G1 X-82.498 Y7.216 F400.000
G1 X-82.460 Y7.146 F400.000
G1 X-82.432 Y7.122 F400.000
G0 X-82.404 Y7.103
G0 X-81.854 Y7.183
G1 X-81.822 Y7.192 F400.000
G1 X-81.676 Y7.230 F400.000
G1 X-81.596 Y7.305 F400.000
G1 X-81.526 Y7.531 F400.000
G1 X-81.526 Y7.531 F400.000
G1 X-81.577 Y7.742 F400.000
G1 X-81.610 Y7.808 F400.000
G1 X-81.718 Y7.901 F400.000
G1 X-81.845 Y7.972 F400.000
G1 X-82.056 Y8.028 F400.000
G1 X-82.268 Y8.028 F400.000
G1 X-82.338 Y8.014 F400.000
G1 X-82.474 Y7.953 F400.000
G1 X-82.521 Y7.897 F400.000
G1 X-82.531 Y7.671 F400.000
G1 X-82.531 Y7.671 F400.000
G1 X-82.498 Y7.512 F400.000
G1 X-82.460 Y7.441 F400.000
G1 X-82.432 Y7.418 F400.000
G0 X-82.404 Y7.399
G0 X-81.854 Y7.432
G1 X-81.812 Y7.437 F400.000
G1 X-81.690 Y7.460 F400.000
G1 X-81.624 Y7.502 F400.000
G1 X-81.559 Y7.601 F400.000
G1 X-81.526 Y7.756 F400.000
G1 X-81.526 Y7.756 F400.000
G1 X-81.540 Y7.897 F400.000
G1 X-81.582 Y8.033 F400.000
G1 X-81.620 Y8.094 F400.000
G1 X-81.732 Y8.178 F400.000
G1 X-81.930 Y8.263 F400.000
G1 X-82.141 Y8.296 F400.000
G1 X-82.282 Y8.286 F400.000
G1 X-82.423 Y8.239 F400.000
G1 X-82.488 Y8.202 F400.000
G1 X-82.531 Y8.136 F400.000
G1 X-82.531 Y7.911 F400.000
G1 X-82.531 Y7.911 F400.000
G1 X-82.498 Y7.751 F400.000
G1 X-82.460 Y7.681 F400.000
G1 X-82.432 Y7.657 F400.000
G0 X-82.404 Y7.638
G0 X-81.854 Y7.714
G1 X-81.812 Y7.723 F400.000
G1 X-81.690 Y7.756 F400.000
G1 X-81.624 Y7.803 F400.000
G1 X-81.559 Y7.901 F400.000
G1 X-81.526 Y8.056 F400.000
G1 X-81.526 Y8.056 F400.000
G1 X-81.577 Y8.268 F400.000
G1 X-81.610 Y8.333 F400.000
G1 X-81.718 Y8.427 F400.000
G1 X-81.845 Y8.493 F400.000
G1 X-81.986 Y8.535 F400.000
G1 X-82.197 Y8.554 F400.000
G1 X-82.268 Y8.549 F400.000
G1 X-82.408 Y8.507 F400.000
G1 X-82.474 Y8.474 F400.000
G1 X-82.521 Y8.418 F400.000
G1 X-82.531 Y8.192 F400.000
G1 X-82.531 Y8.192 F400.000
G1 X-82.498 Y8.033 F400.000
G1 X-82.460 Y7.962 F400.000
G1 X-82.432 Y7.939 F400.000
G0 X-82.404 Y7.920
G0 X-81.854 Y7.958
G1 X-81.812 Y7.962 F400.000
G1 X-81.690 Y7.986 F400.000
G1 X-81.624 Y8.028 F400.000
G1 X-81.559 Y8.127 F400.000
G1 X-81.526 Y8.282 F400.000
G1 X-81.526 Y8.282 F400.000
G1 X-81.540 Y8.423 F400.000
G1 X-81.587 Y8.559 F400.000
G1 X-81.624 Y8.620 F400.000
G1 X-81.737 Y8.704 F400.000
G1 X-81.939 Y8.789 F400.000
G1 X-82.150 Y8.822 F400.000
G1 X-82.291 Y8.808 F400.000
G1 X-82.432 Y8.761 F400.000
G1 X-82.498 Y8.723 F400.000
G1 X-82.531 Y8.653 F400.000
G1 X-82.531 Y8.427 F400.000
G1 X-82.531 Y8.423 F400.000
G1 X-82.498 Y8.263 F400.000
G1 X-82.460 Y8.192 F400.000
G1 X-82.432 Y8.169 F400.000
G0 X-82.404 Y8.150
G0 X-81.854 Y8.230
G1 X-81.822 Y8.239 F400.000
G1 X-81.676 Y8.277 F400.000
G1 X-81.596 Y8.352 F400.000
G1 X-81.526 Y8.577 F400.000
G1 X-81.526 Y8.577 F400.000
G1 X-81.577 Y8.789 F400.000
G1 X-81.610 Y8.854 F400.000
G1 X-81.657 Y8.906 F400.000
G1 X-81.840 Y9.019 F400.000
G1 X-82.047 Y9.075 F400.000
G1 X-82.258 Y9.080 F400.000
G1 X-82.399 Y9.042 F400.000
G1 X-82.465 Y9.009 F400.000
G1 X-82.516 Y8.953 F400.000
G1 X-82.531 Y8.878 F400.000
G1 X-82.531 Y8.728 F400.000
G1 X-82.531 Y8.728 F400.000
G1 X-82.498 Y8.568 F400.000
G1 X-82.460 Y8.498 F400.000
G1 X-82.432 Y8.469 F400.000
G0 X-82.404 Y8.455
G0 X-81.859 Y8.479
G1 X-81.817 Y8.484 F400.000
G1 X-81.690 Y8.507 F400.000
G1 X-81.624 Y8.549 F400.000
G1 X-81.559 Y8.648 F400.000
G1 X-81.526 Y8.803 F400.000
G1 X-81.526 Y8.803 F400.000
G1 X-81.540 Y8.944 F400.000
G1 X-81.582 Y9.080 F400.000
G1 X-81.620 Y9.141 F400.000
G1 X-81.793 Y9.263 F400.000
G1 X-82.000 Y9.333 F400.000
G1 X-82.211 Y9.347 F400.000
G1 X-82.423 Y9.296 F400.000
G1 X-82.488 Y9.258 F400.000
G1 X-82.531 Y9.192 F400.000
G1 X-82.531 Y8.967 F400.000
G1 X-82.531 Y8.967 F400.000
G1 X-82.498 Y8.808 F400.000
G1 X-82.460 Y8.737 F400.000
G1 X-82.432 Y8.714 F400.000
G0 X-82.404 Y8.695
G0 X-81.854 Y8.761
G1 X-81.812 Y8.770 F400.000
G1 X-81.690 Y8.803 F400.000
G1 X-81.624 Y8.850 F400.000
G1 X-81.559 Y8.948 F400.000
G1 X-81.526 Y9.103 F400.000
G1 X-81.526 Y9.103 F400.000
G1 X-81.577 Y9.315 F400.000
G1 X-81.610 Y9.380 F400.000
G1 X-81.718 Y9.474 F400.000
G1 X-81.845 Y9.545 F400.000
G1 X-82.056 Y9.601 F400.000
G1 X-82.268 Y9.606 F400.000
G1 X-82.408 Y9.563 F400.000
G1 X-82.474 Y9.531 F400.000
G1 X-82.521 Y9.474 F400.000
G1 X-82.531 Y9.249 F400.000
G1 X-82.531 Y9.249 F400.000
G1 X-82.498 Y9.089 F400.000
G1 X-82.460 Y9.019 F400.000
G1 X-82.432 Y8.991 F400.000
G0 X-82.404 Y8.977
G0 X-81.854 Y9.005
G1 X-81.812 Y9.009 F400.000
G1 X-81.690 Y9.033 F400.000
G1 X-81.624 Y9.075 F400.000
G1 X-81.559 Y9.174 F400.000
G1 X-81.526 Y9.329 F400.000
G1 X-81.526 Y9.329 F400.000
G1 X-81.540 Y9.469 F400.000
G1 X-81.582 Y9.606 F400.000
G1 X-81.620 Y9.667 F400.000
G1 X-81.732 Y9.756 F400.000
G1 X-81.934 Y9.840 F400.000
G1 X-82.146 Y9.873 F400.000
G1 X-82.286 Y9.864 F400.000
G1 X-82.427 Y9.817 F400.000
G1 X-82.493 Y9.779 F400.000
G1 X-82.531 Y9.714 F400.000
G1 X-82.531 Y9.488 F400.000
G1 X-82.531 Y9.488 F400.000
G1 X-82.498 Y9.329 F400.000
G1 X-82.460 Y9.258 F400.000
G1 X-82.432 Y9.235 F400.000
G0 X-82.404 Y9.216
G0 X-81.854 Y9.286
G1 X-81.812 Y9.296 F400.000
G1 X-81.690 Y9.329 F400.000
G1 X-81.624 Y9.376 F400.000
G1 X-81.559 Y9.474 F400.000
G1 X-81.526 Y9.629 F400.000
G1 X-81.526 Y9.629 F400.000
G1 X-81.577 Y9.840 F400.000
G1 X-81.610 Y9.906 F400.000
G1 X-81.657 Y9.958 F400.000
G1 X-81.840 Y10.070 F400.000
G1 X-82.047 Y10.127 F400.000
G1 X-82.258 Y10.131 F400.000
G1 X-82.399 Y10.094 F400.000
G1 X-82.465 Y10.061 F400.000
G1 X-82.516 Y10.009 F400.000
G1 X-82.531 Y9.934 F400.000
G1 X-82.531 Y9.784 F400.000
G1 X-82.531 Y9.784 F400.000
G1 X-82.498 Y9.624 F400.000
G1 X-82.460 Y9.554 F400.000
G1 X-82.432 Y9.526 F400.000
G0 X-82.404 Y9.512
G0 X-81.859 Y9.535
G1 X-81.817 Y9.540 F400.000
G1 X-81.690 Y9.559 F400.000
G1 X-81.624 Y9.601 F400.000
G1 X-81.559 Y9.700 F400.000
G1 X-81.526 Y9.854 F400.000
G1 X-81.526 Y9.854 F400.000
G1 X-81.540 Y9.995 F400.000
G1 X-81.582 Y10.131 F400.000
G1 X-81.620 Y10.192 F400.000
G1 X-81.793 Y10.315 F400.000
G1 X-81.995 Y10.385 F400.000
G1 X-82.207 Y10.399 F400.000
G1 X-82.418 Y10.347 F400.000
G1 X-82.484 Y10.315 F400.000
G1 X-82.526 Y10.254 F400.000
G1 X-82.531 Y10.028 F400.000
G1 X-82.531 Y10.028 F400.000
G1 X-82.498 Y9.869 F400.000
G1 X-82.460 Y9.798 F400.000
G1 X-82.432 Y9.775 F400.000
G0 X-82.404 Y9.756
G0 X-81.854 Y9.812
G1 X-81.812 Y9.822 F400.000
G1 X-81.690 Y9.850 F400.000
G1 X-81.624 Y9.897 F400.000
G1 X-81.559 Y9.995 F400.000
G1 X-81.526 Y10.150 F400.000
G1 X-81.526 Y10.150 F400.000
G1 X-81.568 Y10.362 F400.000
G1 X-81.596 Y10.427 F400.000
G1 X-81.643 Y10.484 F400.000
G1 X-81.826 Y10.596 F400.000
G1 X-82.033 Y10.657 F400.000
G1 X-82.244 Y10.662 F400.000
G1 X-82.385 Y10.629 F400.000
G1 X-82.451 Y10.596 F400.000
G1 X-82.507 Y10.549 F400.000
G1 X-82.531 Y10.479 F400.000
G1 X-82.531 Y10.329 F400.000
G1 X-82.531 Y10.329 F400.000
G1 X-82.498 Y10.169 F400.000
G1 X-82.460 Y10.099 F400.000
G1 X-82.432 Y10.070 F400.000
G0 X-82.404 Y10.056
G0 X-81.859 Y10.061
G1 X-81.817 Y10.066 F400.000
G1 X-81.690 Y10.085 F400.000
G1 X-81.624 Y10.122 F400.000
G1 X-81.559 Y10.221 F400.000
G1 X-81.526 Y10.376 F400.000
G1 X-81.526 Y10.376 F400.000
G1 X-81.549 Y10.587 F400.000
G1 X-81.606 Y10.723 F400.000
G1 X-81.653 Y10.775 F400.000
G1 X-81.840 Y10.878 F400.000
G1 X-81.977 Y10.920 F400.000
