(Exported by FreeCAD)
(Post Processor: grbl_post)
(Output Time:2024-03-28 17:34:23.985067)
(Begin preamble)
G17 G90
G21
(Block-name: Fixture)
(Block-expand: 0)
(Block-enable: 1)
(Begin operation: Fixture)
(Path: Fixture)
G54
(Finish operation: Fixture)
(Block-name: 3mm Endmill001)
(Block-expand: 0)
(Block-enable: 1)
(Begin operation: 3mm Endmill001)
(Path: 3mm Endmill001)
(3mm Endmill001)
(Begin toolchange)
( M6 T3 )
M3 S8000
(Finish operation: 3mm Endmill001)
(Block-name: Adaptive_outcut)
(Block-expand: 0)
(Block-enable: 1)
(Begin operation: Adaptive_outcut)
(Path: Adaptive_outcut)
(Adaptive_outcut)
(Helix to depth: -5.000000)
G0 Z6.000
G0 X-58.919 Y40.857 Z6.000
G0 X-58.919 Y40.857 Z4.000
G1 X-58.919 Y40.857 Z1.000 F400.000
G1 X-58.919 Y40.857 Z1.000 F400.000
G1 X-58.985 Y40.926 Z0.995 F400.000
G1 X-59.062 Y40.982 Z0.990 F400.000
G1 X-59.150 Y41.021 Z0.985 F400.000
G1 X-59.243 Y41.042 Z0.980 F400.000
G1 X-59.338 Y41.045 Z0.974 F400.000
G1 X-59.433 Y41.029 Z0.969 F400.000
G1 X-59.522 Y40.996 Z0.964 F400.000
G1 X-59.603 Y40.945 Z0.959 F400.000
G1 X-59.673 Y40.879 Z0.954 F400.000
G1 X-59.728 Y40.801 Z0.949 F400.000
G1 X-59.767 Y40.714 Z0.944 F400.000
G1 X-59.789 Y40.621 Z0.939 F400.000
G1 X-59.792 Y40.526 Z0.933 F400.000
G1 X-59.776 Y40.431 Z0.928 F400.000
G1 X-59.742 Y40.342 Z0.923 F400.000
G1 X-59.691 Y40.261 Z0.918 F400.000
G1 X-59.626 Y40.191 Z0.913 F400.000
G1 X-59.548 Y40.136 Z0.908 F400.000
G1 X-59.461 Y40.097 Z0.903 F400.000
G1 X-59.368 Y40.075 Z0.898 F400.000
G1 X-59.272 Y40.072 Z0.892 F400.000
G1 X-59.178 Y40.088 Z0.887 F400.000
G1 X-59.088 Y40.122 Z0.882 F400.000
G1 X-59.007 Y40.173 Z0.877 F400.000
G1 X-58.938 Y40.238 Z0.872 F400.000
G1 X-58.882 Y40.316 Z0.867 F400.000
G1 X-58.843 Y40.403 Z0.862 F400.000
G1 X-58.822 Y40.496 Z0.857 F400.000
G1 X-58.819 Y40.592 Z0.851 F400.000
G1 X-58.834 Y40.686 Z0.846 F400.000
G1 X-58.868 Y40.775 Z0.841 F400.000
G1 X-58.919 Y40.857 Z0.836 F400.000
G1 X-58.985 Y40.926 Z0.831 F400.000
G1 X-59.062 Y40.982 Z0.826 F400.000
G1 X-59.150 Y41.021 Z0.821 F400.000
G1 X-59.243 Y41.042 Z0.816 F400.000
G1 X-59.338 Y41.045 Z0.811 F400.000
G1 X-59.433 Y41.029 Z0.805 F400.000
G1 X-59.522 Y40.996 Z0.800 F400.000
G1 X-59.603 Y40.945 Z0.795 F400.000
G1 X-59.673 Y40.879 Z0.790 F400.000
G1 X-59.728 Y40.801 Z0.785 F400.000
G1 X-59.767 Y40.714 Z0.780 F400.000
G1 X-59.789 Y40.621 Z0.775 F400.000
G1 X-59.792 Y40.526 Z0.770 F400.000
G1 X-59.776 Y40.431 Z0.764 F400.000
G1 X-59.742 Y40.342 Z0.759 F400.000
G1 X-59.691 Y40.261 Z0.754 F400.000
G1 X-59.626 Y40.191 Z0.749 F400.000
G1 X-59.548 Y40.136 Z0.744 F400.000
G1 X-59.461 Y40.097 Z0.739 F400.000
G1 X-59.368 Y40.075 Z0.734 F400.000
G1 X-59.272 Y40.072 Z0.729 F400.000
G1 X-59.178 Y40.088 Z0.723 F400.000
G1 X-59.088 Y40.122 Z0.718 F400.000
G1 X-59.007 Y40.173 Z0.713 F400.000
G1 X-58.938 Y40.238 Z0.708 F400.000
G1 X-58.882 Y40.316 Z0.703 F400.000
G1 X-58.843 Y40.403 Z0.698 F400.000
G1 X-58.822 Y40.496 Z0.693 F400.000
G1 X-58.819 Y40.592 Z0.688 F400.000
G1 X-58.834 Y40.686 Z0.683 F400.000
G1 X-58.868 Y40.775 Z0.677 F400.000
G1 X-58.919 Y40.857 Z0.672 F400.000
G1 X-58.985 Y40.926 Z0.667 F400.000
G1 X-59.062 Y40.982 Z0.662 F400.000
G1 X-59.150 Y41.021 Z0.657 F400.000
G1 X-59.243 Y41.042 Z0.652 F400.000
G1 X-59.338 Y41.045 Z0.647 F400.000
G1 X-59.433 Y41.029 Z0.642 F400.000
G1 X-59.522 Y40.996 Z0.636 F400.000
G1 X-59.603 Y40.945 Z0.631 F400.000
G1 X-59.673 Y40.879 Z0.626 F400.000
G1 X-59.728 Y40.801 Z0.621 F400.000
G1 X-59.767 Y40.714 Z0.616 F400.000
G1 X-59.789 Y40.621 Z0.611 F400.000
G1 X-59.792 Y40.526 Z0.606 F400.000
G1 X-59.776 Y40.431 Z0.601 F400.000
G1 X-59.742 Y40.342 Z0.595 F400.000
G1 X-59.691 Y40.261 Z0.590 F400.000
G1 X-59.626 Y40.191 Z0.585 F400.000
G1 X-59.548 Y40.136 Z0.580 F400.000
G1 X-59.461 Y40.097 Z0.575 F400.000
G1 X-59.368 Y40.075 Z0.570 F400.000
G1 X-59.272 Y40.072 Z0.565 F400.000
G1 X-59.178 Y40.088 Z0.560 F400.000
G1 X-59.088 Y40.122 Z0.554 F400.000
G1 X-59.007 Y40.173 Z0.549 F400.000
G1 X-58.938 Y40.238 Z0.544 F400.000
G1 X-58.882 Y40.316 Z0.539 F400.000
G1 X-58.843 Y40.403 Z0.534 F400.000
G1 X-58.822 Y40.496 Z0.529 F400.000
G1 X-58.819 Y40.592 Z0.524 F400.000
G1 X-58.834 Y40.686 Z0.519 F400.000
G1 X-58.868 Y40.775 Z0.514 F400.000
G1 X-58.919 Y40.857 Z0.508 F400.000
G1 X-58.985 Y40.926 Z0.503 F400.000
G1 X-59.062 Y40.982 Z0.498 F400.000
G1 X-59.150 Y41.021 Z0.493 F400.000
G1 X-59.243 Y41.042 Z0.488 F400.000
G1 X-59.338 Y41.045 Z0.483 F400.000
G1 X-59.433 Y41.029 Z0.478 F400.000
G1 X-59.522 Y40.996 Z0.473 F400.000
G1 X-59.603 Y40.945 Z0.467 F400.000
G1 X-59.673 Y40.879 Z0.462 F400.000
G1 X-59.728 Y40.801 Z0.457 F400.000
G1 X-59.767 Y40.714 Z0.452 F400.000
G1 X-59.789 Y40.621 Z0.447 F400.000
G1 X-59.792 Y40.526 Z0.442 F400.000
G1 X-59.776 Y40.431 Z0.437 F400.000
G1 X-59.742 Y40.342 Z0.432 F400.000
G1 X-59.691 Y40.261 Z0.426 F400.000
G1 X-59.626 Y40.191 Z0.421 F400.000
G1 X-59.548 Y40.136 Z0.416 F400.000
G1 X-59.461 Y40.097 Z0.411 F400.000
G1 X-59.368 Y40.075 Z0.406 F400.000
G1 X-59.272 Y40.072 Z0.401 F400.000
G1 X-59.178 Y40.088 Z0.396 F400.000
G1 X-59.088 Y40.122 Z0.391 F400.000
G1 X-59.007 Y40.173 Z0.385 F400.000
G1 X-58.938 Y40.238 Z0.380 F400.000
G1 X-58.882 Y40.316 Z0.375 F400.000
G1 X-58.843 Y40.403 Z0.370 F400.000
G1 X-58.822 Y40.496 Z0.365 F400.000
G1 X-58.819 Y40.592 Z0.360 F400.000
G1 X-58.834 Y40.686 Z0.355 F400.000
G1 X-58.868 Y40.775 Z0.350 F400.000
G1 X-58.919 Y40.857 Z0.345 F400.000
G1 X-58.985 Y40.926 Z0.339 F400.000
G1 X-59.062 Y40.982 Z0.334 F400.000
G1 X-59.150 Y41.021 Z0.329 F400.000
G1 X-59.243 Y41.042 Z0.324 F400.000
G1 X-59.338 Y41.045 Z0.319 F400.000
G1 X-59.433 Y41.029 Z0.314 F400.000
G1 X-59.522 Y40.996 Z0.309 F400.000
G1 X-59.603 Y40.945 Z0.304 F400.000
G1 X-59.673 Y40.879 Z0.298 F400.000
G1 X-59.728 Y40.801 Z0.293 F400.000
G1 X-59.767 Y40.714 Z0.288 F400.000
G1 X-59.789 Y40.621 Z0.283 F400.000
G1 X-59.792 Y40.526 Z0.278 F400.000
G1 X-59.776 Y40.431 Z0.273 F400.000
G1 X-59.742 Y40.342 Z0.268 F400.000
G1 X-59.691 Y40.261 Z0.263 F400.000
G1 X-59.626 Y40.191 Z0.257 F400.000
G1 X-59.548 Y40.136 Z0.252 F400.000
G1 X-59.461 Y40.097 Z0.247 F400.000
G1 X-59.368 Y40.075 Z0.242 F400.000
G1 X-59.272 Y40.072 Z0.237 F400.000
G1 X-59.178 Y40.088 Z0.232 F400.000
G1 X-59.088 Y40.122 Z0.227 F400.000
G1 X-59.007 Y40.173 Z0.222 F400.000
G1 X-58.938 Y40.238 Z0.216 F400.000
G1 X-58.882 Y40.316 Z0.211 F400.000
G1 X-58.843 Y40.403 Z0.206 F400.000
G1 X-58.822 Y40.496 Z0.201 F400.000
G1 X-58.819 Y40.592 Z0.196 F400.000
G1 X-58.834 Y40.686 Z0.191 F400.000
G1 X-58.868 Y40.775 Z0.186 F400.000
G1 X-58.919 Y40.857 Z0.181 F400.000
G1 X-58.985 Y40.926 Z0.176 F400.000
G1 X-59.062 Y40.982 Z0.170 F400.000
G1 X-59.150 Y41.021 Z0.165 F400.000
G1 X-59.243 Y41.042 Z0.160 F400.000
G1 X-59.338 Y41.045 Z0.155 F400.000
G1 X-59.433 Y41.029 Z0.150 F400.000
G1 X-59.522 Y40.996 Z0.145 F400.000
G1 X-59.603 Y40.945 Z0.140 F400.000
G1 X-59.673 Y40.879 Z0.135 F400.000
G1 X-59.728 Y40.801 Z0.129 F400.000
G1 X-59.767 Y40.714 Z0.124 F400.000
G1 X-59.789 Y40.621 Z0.119 F400.000
G1 X-59.792 Y40.526 Z0.114 F400.000
G1 X-59.776 Y40.431 Z0.109 F400.000
G1 X-59.742 Y40.342 Z0.104 F400.000
G1 X-59.691 Y40.261 Z0.099 F400.000
G1 X-59.626 Y40.191 Z0.094 F400.000
G1 X-59.548 Y40.136 Z0.088 F400.000
G1 X-59.461 Y40.097 Z0.083 F400.000
G1 X-59.368 Y40.075 Z0.078 F400.000
G1 X-59.272 Y40.072 Z0.073 F400.000
G1 X-59.178 Y40.088 Z0.068 F400.000
G1 X-59.088 Y40.122 Z0.063 F400.000
G1 X-59.007 Y40.173 Z0.058 F400.000
G1 X-58.938 Y40.238 Z0.053 F400.000
G1 X-58.882 Y40.316 Z0.048 F400.000
G1 X-58.843 Y40.403 Z0.042 F400.000
G1 X-58.822 Y40.496 Z0.037 F400.000
G1 X-58.819 Y40.592 Z0.032 F400.000
G1 X-58.834 Y40.686 Z0.027 F400.000
G1 X-58.868 Y40.775 Z0.022 F400.000
G1 X-58.919 Y40.857 Z0.017 F400.000
G1 X-58.985 Y40.926 Z0.012 F400.000
G1 X-59.062 Y40.982 Z0.007 F400.000
G1 X-59.150 Y41.021 Z0.001 F400.000
G1 X-59.243 Y41.042 Z-0.004 F400.000
G1 X-59.338 Y41.045 Z-0.009 F400.000
G1 X-59.433 Y41.029 Z-0.014 F400.000
G1 X-59.522 Y40.996 Z-0.019 F400.000
G1 X-59.603 Y40.945 Z-0.024 F400.000
G1 X-59.673 Y40.879 Z-0.029 F400.000
G1 X-59.728 Y40.801 Z-0.034 F400.000
G1 X-59.767 Y40.714 Z-0.040 F400.000
G1 X-59.789 Y40.621 Z-0.045 F400.000
G1 X-59.792 Y40.526 Z-0.050 F400.000
G1 X-59.776 Y40.431 Z-0.055 F400.000
G1 X-59.742 Y40.342 Z-0.060 F400.000
G1 X-59.691 Y40.261 Z-0.065 F400.000
G1 X-59.626 Y40.191 Z-0.070 F400.000
G1 X-59.548 Y40.136 Z-0.075 F400.000
G1 X-59.461 Y40.097 Z-0.081 F400.000
G1 X-59.368 Y40.075 Z-0.086 F400.000
G1 X-59.272 Y40.072 Z-0.091 F400.000
G1 X-59.178 Y40.088 Z-0.096 F400.000
G1 X-59.088 Y40.122 Z-0.101 F400.000
G1 X-59.007 Y40.173 Z-0.106 F400.000
G1 X-58.938 Y40.238 Z-0.111 F400.000
G1 X-58.882 Y40.316 Z-0.116 F400.000
G1 X-58.843 Y40.403 Z-0.121 F400.000
G1 X-58.822 Y40.496 Z-0.127 F400.000
G1 X-58.819 Y40.592 Z-0.132 F400.000
G1 X-58.834 Y40.686 Z-0.137 F400.000
G1 X-58.868 Y40.775 Z-0.142 F400.000
G1 X-58.919 Y40.857 Z-0.147 F400.000
G1 X-58.985 Y40.926 Z-0.152 F400.000
G1 X-59.062 Y40.982 Z-0.157 F400.000
G1 X-59.150 Y41.021 Z-0.162 F400.000
G1 X-59.243 Y41.042 Z-0.168 F400.000
G1 X-59.338 Y41.045 Z-0.173 F400.000
G1 X-59.433 Y41.029 Z-0.178 F400.000
G1 X-59.522 Y40.996 Z-0.183 F400.000
G1 X-59.603 Y40.945 Z-0.188 F400.000
G1 X-59.673 Y40.879 Z-0.193 F400.000
G1 X-59.728 Y40.801 Z-0.198 F400.000
G1 X-59.767 Y40.714 Z-0.203 F400.000
G1 X-59.789 Y40.621 Z-0.209 F400.000
G1 X-59.792 Y40.526 Z-0.214 F400.000
G1 X-59.776 Y40.431 Z-0.219 F400.000
G1 X-59.742 Y40.342 Z-0.224 F400.000
G1 X-59.691 Y40.261 Z-0.229 F400.000
G1 X-59.626 Y40.191 Z-0.234 F400.000
G1 X-59.548 Y40.136 Z-0.239 F400.000
G1 X-59.461 Y40.097 Z-0.244 F400.000
G1 X-59.368 Y40.075 Z-0.250 F400.000
G1 X-59.272 Y40.072 Z-0.255 F400.000
G1 X-59.178 Y40.088 Z-0.260 F400.000
G1 X-59.088 Y40.122 Z-0.265 F400.000
G1 X-59.007 Y40.173 Z-0.270 F400.000
G1 X-58.938 Y40.238 Z-0.275 F400.000
G1 X-58.882 Y40.316 Z-0.280 F400.000
G1 X-58.843 Y40.403 Z-0.285 F400.000
G1 X-58.822 Y40.496 Z-0.290 F400.000
G1 X-58.819 Y40.592 Z-0.296 F400.000
G1 X-58.834 Y40.686 Z-0.301 F400.000
G1 X-58.868 Y40.775 Z-0.306 F400.000
G1 X-58.919 Y40.857 Z-0.311 F400.000
G1 X-58.985 Y40.926 Z-0.316 F400.000
G1 X-59.062 Y40.982 Z-0.321 F400.000
G1 X-59.150 Y41.021 Z-0.326 F400.000
G1 X-59.243 Y41.042 Z-0.331 F400.000
G1 X-59.338 Y41.045 Z-0.337 F400.000
G1 X-59.433 Y41.029 Z-0.342 F400.000
G1 X-59.522 Y40.996 Z-0.347 F400.000
G1 X-59.603 Y40.945 Z-0.352 F400.000
G1 X-59.673 Y40.879 Z-0.357 F400.000
G1 X-59.728 Y40.801 Z-0.362 F400.000
G1 X-59.767 Y40.714 Z-0.367 F400.000
G1 X-59.789 Y40.621 Z-0.372 F400.000
G1 X-59.792 Y40.526 Z-0.378 F400.000
G1 X-59.776 Y40.431 Z-0.383 F400.000
G1 X-59.742 Y40.342 Z-0.388 F400.000
G1 X-59.691 Y40.261 Z-0.393 F400.000
G1 X-59.626 Y40.191 Z-0.398 F400.000
G1 X-59.548 Y40.136 Z-0.403 F400.000
G1 X-59.461 Y40.097 Z-0.408 F400.000
G1 X-59.368 Y40.075 Z-0.413 F400.000
G1 X-59.272 Y40.072 Z-0.419 F400.000
G1 X-59.178 Y40.088 Z-0.424 F400.000
G1 X-59.088 Y40.122 Z-0.429 F400.000
G1 X-59.007 Y40.173 Z-0.434 F400.000
G1 X-58.938 Y40.238 Z-0.439 F400.000
G1 X-58.882 Y40.316 Z-0.444 F400.000
G1 X-58.843 Y40.403 Z-0.449 F400.000
G1 X-58.822 Y40.496 Z-0.454 F400.000
G1 X-58.819 Y40.592 Z-0.459 F400.000
G1 X-58.834 Y40.686 Z-0.465 F400.000
G1 X-58.868 Y40.775 Z-0.470 F400.000
G1 X-58.919 Y40.857 Z-0.475 F400.000
G1 X-58.985 Y40.926 Z-0.480 F400.000
G1 X-59.062 Y40.982 Z-0.485 F400.000
G1 X-59.150 Y41.021 Z-0.490 F400.000
G1 X-59.243 Y41.042 Z-0.495 F400.000
G1 X-59.338 Y41.045 Z-0.500 F400.000
G1 X-59.433 Y41.029 Z-0.506 F400.000
G1 X-59.522 Y40.996 Z-0.511 F400.000
G1 X-59.603 Y40.945 Z-0.516 F400.000
G1 X-59.673 Y40.879 Z-0.521 F400.000
G1 X-59.728 Y40.801 Z-0.526 F400.000
G1 X-59.767 Y40.714 Z-0.531 F400.000
G1 X-59.789 Y40.621 Z-0.536 F400.000
G1 X-59.792 Y40.526 Z-0.541 F400.000
G1 X-59.776 Y40.431 Z-0.547 F400.000
G1 X-59.742 Y40.342 Z-0.552 F400.000
G1 X-59.691 Y40.261 Z-0.557 F400.000
G1 X-59.626 Y40.191 Z-0.562 F400.000
G1 X-59.548 Y40.136 Z-0.567 F400.000
G1 X-59.461 Y40.097 Z-0.572 F400.000
G1 X-59.368 Y40.075 Z-0.577 F400.000
G1 X-59.272 Y40.072 Z-0.582 F400.000
G1 X-59.178 Y40.088 Z-0.587 F400.000
G1 X-59.088 Y40.122 Z-0.593 F400.000
G1 X-59.007 Y40.173 Z-0.598 F400.000
G1 X-58.938 Y40.238 Z-0.603 F400.000
G1 X-58.882 Y40.316 Z-0.608 F400.000
G1 X-58.843 Y40.403 Z-0.613 F400.000
G1 X-58.822 Y40.496 Z-0.618 F400.000
G1 X-58.819 Y40.592 Z-0.623 F400.000
G1 X-58.834 Y40.686 Z-0.628 F400.000
G1 X-58.868 Y40.775 Z-0.634 F400.000
G1 X-58.919 Y40.857 Z-0.639 F400.000
G1 X-58.985 Y40.926 Z-0.644 F400.000
G1 X-59.062 Y40.982 Z-0.649 F400.000
G1 X-59.150 Y41.021 Z-0.654 F400.000
G1 X-59.243 Y41.042 Z-0.659 F400.000
G1 X-59.338 Y41.045 Z-0.664 F400.000
G1 X-59.433 Y41.029 Z-0.669 F400.000
G1 X-59.522 Y40.996 Z-0.675 F400.000
G1 X-59.603 Y40.945 Z-0.680 F400.000
G1 X-59.673 Y40.879 Z-0.685 F400.000
G1 X-59.728 Y40.801 Z-0.690 F400.000
G1 X-59.767 Y40.714 Z-0.695 F400.000
G1 X-59.789 Y40.621 Z-0.700 F400.000
G1 X-59.792 Y40.526 Z-0.705 F400.000
G1 X-59.776 Y40.431 Z-0.710 F400.000
G1 X-59.742 Y40.342 Z-0.716 F400.000
G1 X-59.691 Y40.261 Z-0.721 F400.000
G1 X-59.626 Y40.191 Z-0.726 F400.000
G1 X-59.548 Y40.136 Z-0.731 F400.000
G1 X-59.461 Y40.097 Z-0.736 F400.000
G1 X-59.368 Y40.075 Z-0.741 F400.000
G1 X-59.272 Y40.072 Z-0.746 F400.000
G1 X-59.178 Y40.088 Z-0.751 F400.000
G1 X-59.088 Y40.122 Z-0.756 F400.000
G1 X-59.007 Y40.173 Z-0.762 F400.000
G1 X-58.938 Y40.238 Z-0.767 F400.000
G1 X-58.882 Y40.316 Z-0.772 F400.000
G1 X-58.843 Y40.403 Z-0.777 F400.000
G1 X-58.822 Y40.496 Z-0.782 F400.000
G1 X-58.819 Y40.592 Z-0.787 F400.000
G1 X-58.834 Y40.686 Z-0.792 F400.000
G1 X-58.868 Y40.775 Z-0.797 F400.000
G1 X-58.919 Y40.857 Z-0.803 F400.000
G1 X-58.985 Y40.926 Z-0.808 F400.000
G1 X-59.062 Y40.982 Z-0.813 F400.000
G1 X-59.150 Y41.021 Z-0.818 F400.000
G1 X-59.243 Y41.042 Z-0.823 F400.000
G1 X-59.338 Y41.045 Z-0.828 F400.000
G1 X-59.433 Y41.029 Z-0.833 F400.000
G1 X-59.522 Y40.996 Z-0.838 F400.000
G1 X-59.603 Y40.945 Z-0.844 F400.000
G1 X-59.673 Y40.879 Z-0.849 F400.000
G1 X-59.728 Y40.801 Z-0.854 F400.000
G1 X-59.767 Y40.714 Z-0.859 F400.000
G1 X-59.789 Y40.621 Z-0.864 F400.000
G1 X-59.792 Y40.526 Z-0.869 F400.000
G1 X-59.776 Y40.431 Z-0.874 F400.000
G1 X-59.742 Y40.342 Z-0.879 F400.000
G1 X-59.691 Y40.261 Z-0.885 F400.000
G1 X-59.626 Y40.191 Z-0.890 F400.000
G1 X-59.548 Y40.136 Z-0.895 F400.000
G1 X-59.461 Y40.097 Z-0.900 F400.000
G1 X-59.368 Y40.075 Z-0.905 F400.000
G1 X-59.272 Y40.072 Z-0.910 F400.000
G1 X-59.178 Y40.088 Z-0.915 F400.000
G1 X-59.088 Y40.122 Z-0.920 F400.000
G1 X-59.007 Y40.173 Z-0.925 F400.000
G1 X-58.938 Y40.238 Z-0.931 F400.000
G1 X-58.882 Y40.316 Z-0.936 F400.000
G1 X-58.843 Y40.403 Z-0.941 F400.000
G1 X-58.822 Y40.496 Z-0.946 F400.000
G1 X-58.819 Y40.592 Z-0.951 F400.000
G1 X-58.834 Y40.686 Z-0.956 F400.000
G1 X-58.868 Y40.775 Z-0.961 F400.000
G1 X-58.919 Y40.857 Z-0.966 F400.000
G1 X-58.985 Y40.926 Z-0.972 F400.000
G1 X-59.062 Y40.982 Z-0.977 F400.000
G1 X-59.150 Y41.021 Z-0.982 F400.000
G1 X-59.243 Y41.042 Z-0.987 F400.000
G1 X-59.338 Y41.045 Z-0.992 F400.000
G1 X-59.433 Y41.029 Z-0.997 F400.000
G1 X-59.522 Y40.996 Z-1.002 F400.000
G1 X-59.603 Y40.945 Z-1.007 F400.000
G1 X-59.673 Y40.879 Z-1.013 F400.000
G1 X-59.728 Y40.801 Z-1.018 F400.000
G1 X-59.767 Y40.714 Z-1.023 F400.000
G1 X-59.789 Y40.621 Z-1.028 F400.000
G1 X-59.792 Y40.526 Z-1.033 F400.000
G1 X-59.776 Y40.431 Z-1.038 F400.000
G1 X-59.742 Y40.342 Z-1.043 F400.000
G1 X-59.691 Y40.261 Z-1.048 F400.000
G1 X-59.626 Y40.191 Z-1.054 F400.000
G1 X-59.548 Y40.136 Z-1.059 F400.000
G1 X-59.461 Y40.097 Z-1.064 F400.000
G1 X-59.368 Y40.075 Z-1.069 F400.000
G1 X-59.272 Y40.072 Z-1.074 F400.000
G1 X-59.178 Y40.088 Z-1.079 F400.000
G1 X-59.088 Y40.122 Z-1.084 F400.000
G1 X-59.007 Y40.173 Z-1.089 F400.000
G1 X-58.938 Y40.238 Z-1.094 F400.000
G1 X-58.882 Y40.316 Z-1.100 F400.000
G1 X-58.843 Y40.403 Z-1.105 F400.000
G1 X-58.822 Y40.496 Z-1.110 F400.000
G1 X-58.819 Y40.592 Z-1.115 F400.000
G1 X-58.834 Y40.686 Z-1.120 F400.000
G1 X-58.868 Y40.775 Z-1.125 F400.000
G1 X-58.919 Y40.857 Z-1.130 F400.000
G1 X-58.985 Y40.926 Z-1.135 F400.000
G1 X-59.062 Y40.982 Z-1.141 F400.000
G1 X-59.150 Y41.021 Z-1.146 F400.000
G1 X-59.243 Y41.042 Z-1.151 F400.000
G1 X-59.338 Y41.045 Z-1.156 F400.000
G1 X-59.433 Y41.029 Z-1.161 F400.000
G1 X-59.522 Y40.996 Z-1.166 F400.000
G1 X-59.603 Y40.945 Z-1.171 F400.000
G1 X-59.673 Y40.879 Z-1.176 F400.000
G1 X-59.728 Y40.801 Z-1.182 F400.000
G1 X-59.767 Y40.714 Z-1.187 F400.000
G1 X-59.789 Y40.621 Z-1.192 F400.000
G1 X-59.792 Y40.526 Z-1.197 F400.000
G1 X-59.776 Y40.431 Z-1.202 F400.000
G1 X-59.742 Y40.342 Z-1.207 F400.000
G1 X-59.691 Y40.261 Z-1.212 F400.000
G1 X-59.626 Y40.191 Z-1.217 F400.000
G1 X-59.548 Y40.136 Z-1.222 F400.000
G1 X-59.461 Y40.097 Z-1.228 F400.000
G1 X-59.368 Y40.075 Z-1.233 F400.000
G1 X-59.272 Y40.072 Z-1.238 F400.000
G1 X-59.178 Y40.088 Z-1.243 F400.000
G1 X-59.088 Y40.122 Z-1.248 F400.000
G1 X-59.007 Y40.173 Z-1.253 F400.000
G1 X-58.938 Y40.238 Z-1.258 F400.000
G1 X-58.882 Y40.316 Z-1.263 F400.000
G1 X-58.843 Y40.403 Z-1.269 F400.000
G1 X-58.822 Y40.496 Z-1.274 F400.000
G1 X-58.819 Y40.592 Z-1.279 F400.000
G1 X-58.834 Y40.686 Z-1.284 F400.000
G1 X-58.868 Y40.775 Z-1.289 F400.000
G1 X-58.919 Y40.857 Z-1.294 F400.000
G1 X-58.985 Y40.926 Z-1.299 F400.000
G1 X-59.062 Y40.982 Z-1.304 F400.000
G1 X-59.150 Y41.021 Z-1.310 F400.000
G1 X-59.243 Y41.042 Z-1.315 F400.000
G1 X-59.338 Y41.045 Z-1.320 F400.000
G1 X-59.433 Y41.029 Z-1.325 F400.000
G1 X-59.522 Y40.996 Z-1.330 F400.000
G1 X-59.603 Y40.945 Z-1.335 F400.000
G1 X-59.673 Y40.879 Z-1.340 F400.000
G1 X-59.728 Y40.801 Z-1.345 F400.000
G1 X-59.767 Y40.714 Z-1.351 F400.000
G1 X-59.789 Y40.621 Z-1.356 F400.000
G1 X-59.792 Y40.526 Z-1.361 F400.000
G1 X-59.776 Y40.431 Z-1.366 F400.000
G1 X-59.742 Y40.342 Z-1.371 F400.000
G1 X-59.691 Y40.261 Z-1.376 F400.000
G1 X-59.626 Y40.191 Z-1.381 F400.000
G1 X-59.548 Y40.136 Z-1.386 F400.000
G1 X-59.461 Y40.097 Z-1.391 F400.000
G1 X-59.368 Y40.075 Z-1.397 F400.000
G1 X-59.272 Y40.072 Z-1.402 F400.000
G1 X-59.178 Y40.088 Z-1.407 F400.000
G1 X-59.088 Y40.122 Z-1.412 F400.000
G1 X-59.007 Y40.173 Z-1.417 F400.000
G1 X-58.938 Y40.238 Z-1.422 F400.000
G1 X-58.882 Y40.316 Z-1.427 F400.000
G1 X-58.843 Y40.403 Z-1.432 F400.000
G1 X-58.822 Y40.496 Z-1.438 F400.000
G1 X-58.819 Y40.592 Z-1.443 F400.000
G1 X-58.834 Y40.686 Z-1.448 F400.000
G1 X-58.868 Y40.775 Z-1.453 F400.000
G1 X-58.919 Y40.857 Z-1.458 F400.000
G1 X-58.985 Y40.926 Z-1.463 F400.000
G1 X-59.062 Y40.982 Z-1.468 F400.000
G1 X-59.150 Y41.021 Z-1.473 F400.000
G1 X-59.243 Y41.042 Z-1.479 F400.000
G1 X-59.338 Y41.045 Z-1.484 F400.000
G1 X-59.433 Y41.029 Z-1.489 F400.000
G1 X-59.522 Y40.996 Z-1.494 F400.000
G1 X-59.603 Y40.945 Z-1.499 F400.000
G1 X-59.673 Y40.879 Z-1.504 F400.000
G1 X-59.728 Y40.801 Z-1.509 F400.000
G1 X-59.767 Y40.714 Z-1.514 F400.000
G1 X-59.789 Y40.621 Z-1.520 F400.000
G1 X-59.792 Y40.526 Z-1.525 F400.000
G1 X-59.776 Y40.431 Z-1.530 F400.000
G1 X-59.742 Y40.342 Z-1.535 F400.000
G1 X-59.691 Y40.261 Z-1.540 F400.000
G1 X-59.626 Y40.191 Z-1.545 F400.000
G1 X-59.548 Y40.136 Z-1.550 F400.000
G1 X-59.461 Y40.097 Z-1.555 F400.000
G1 X-59.368 Y40.075 Z-1.560 F400.000
G1 X-59.272 Y40.072 Z-1.566 F400.000
G1 X-59.178 Y40.088 Z-1.571 F400.000
G1 X-59.088 Y40.122 Z-1.576 F400.000
G1 X-59.007 Y40.173 Z-1.581 F400.000
G1 X-58.938 Y40.238 Z-1.586 F400.000
G1 X-58.882 Y40.316 Z-1.591 F400.000
G1 X-58.843 Y40.403 Z-1.596 F400.000
G1 X-58.822 Y40.496 Z-1.601 F400.000
G1 X-58.819 Y40.592 Z-1.607 F400.000
G1 X-58.834 Y40.686 Z-1.612 F400.000
G1 X-58.868 Y40.775 Z-1.617 F400.000
G1 X-58.919 Y40.857 Z-1.622 F400.000
G1 X-58.985 Y40.926 Z-1.627 F400.000
G1 X-59.062 Y40.982 Z-1.632 F400.000
G1 X-59.150 Y41.021 Z-1.637 F400.000
G1 X-59.243 Y41.042 Z-1.642 F400.000
G1 X-59.338 Y41.045 Z-1.648 F400.000
G1 X-59.433 Y41.029 Z-1.653 F400.000
G1 X-59.522 Y40.996 Z-1.658 F400.000
G1 X-59.603 Y40.945 Z-1.663 F400.000
G1 X-59.673 Y40.879 Z-1.668 F400.000
G1 X-59.728 Y40.801 Z-1.673 F400.000
G1 X-59.767 Y40.714 Z-1.678 F400.000
G1 X-59.789 Y40.621 Z-1.683 F400.000
G1 X-59.792 Y40.526 Z-1.689 F400.000
G1 X-59.776 Y40.431 Z-1.694 F400.000
G1 X-59.742 Y40.342 Z-1.699 F400.000
G1 X-59.691 Y40.261 Z-1.704 F400.000
G1 X-59.626 Y40.191 Z-1.709 F400.000
G1 X-59.548 Y40.136 Z-1.714 F400.000
G1 X-59.461 Y40.097 Z-1.719 F400.000
G1 X-59.368 Y40.075 Z-1.724 F400.000
G1 X-59.272 Y40.072 Z-1.729 F400.000
G1 X-59.178 Y40.088 Z-1.735 F400.000
G1 X-59.088 Y40.122 Z-1.740 F400.000
G1 X-59.007 Y40.173 Z-1.745 F400.000
G1 X-58.938 Y40.238 Z-1.750 F400.000
G1 X-58.882 Y40.316 Z-1.755 F400.000
G1 X-58.843 Y40.403 Z-1.760 F400.000
G1 X-58.822 Y40.496 Z-1.765 F400.000
G1 X-58.819 Y40.592 Z-1.770 F400.000
G1 X-58.834 Y40.686 Z-1.776 F400.000
G1 X-58.868 Y40.775 Z-1.781 F400.000
G1 X-58.919 Y40.857 Z-1.786 F400.000
G1 X-58.985 Y40.926 Z-1.791 F400.000
G1 X-59.062 Y40.982 Z-1.796 F400.000
G1 X-59.150 Y41.021 Z-1.801 F400.000
G1 X-59.243 Y41.042 Z-1.806 F400.000
G1 X-59.338 Y41.045 Z-1.811 F400.000
G1 X-59.433 Y41.029 Z-1.817 F400.000
G1 X-59.522 Y40.996 Z-1.822 F400.000
G1 X-59.603 Y40.945 Z-1.827 F400.000
G1 X-59.673 Y40.879 Z-1.832 F400.000
G1 X-59.728 Y40.801 Z-1.837 F400.000
G1 X-59.767 Y40.714 Z-1.842 F400.000
G1 X-59.789 Y40.621 Z-1.847 F400.000
G1 X-59.792 Y40.526 Z-1.852 F400.000
G1 X-59.776 Y40.431 Z-1.857 F400.000
G1 X-59.742 Y40.342 Z-1.863 F400.000
G1 X-59.691 Y40.261 Z-1.868 F400.000
G1 X-59.626 Y40.191 Z-1.873 F400.000
G1 X-59.548 Y40.136 Z-1.878 F400.000
G1 X-59.461 Y40.097 Z-1.883 F400.000
G1 X-59.368 Y40.075 Z-1.888 F400.000
G1 X-59.272 Y40.072 Z-1.893 F400.000
G1 X-59.178 Y40.088 Z-1.898 F400.000
G1 X-59.088 Y40.122 Z-1.904 F400.000
G1 X-59.007 Y40.173 Z-1.909 F400.000
G1 X-58.938 Y40.238 Z-1.914 F400.000
G1 X-58.882 Y40.316 Z-1.919 F400.000
G1 X-58.843 Y40.403 Z-1.924 F400.000
G1 X-58.822 Y40.496 Z-1.929 F400.000
G1 X-58.819 Y40.592 Z-1.934 F400.000
G1 X-58.834 Y40.686 Z-1.939 F400.000
G1 X-58.868 Y40.775 Z-1.945 F400.000
G1 X-58.919 Y40.857 Z-1.950 F400.000
G1 X-58.985 Y40.926 Z-1.955 F400.000
G1 X-59.062 Y40.982 Z-1.960 F400.000
G1 X-59.150 Y41.021 Z-1.965 F400.000
G1 X-59.243 Y41.042 Z-1.970 F400.000
G1 X-59.338 Y41.045 Z-1.975 F400.000
G1 X-59.433 Y41.029 Z-1.980 F400.000
G1 X-59.522 Y40.996 Z-1.986 F400.000
G1 X-59.603 Y40.945 Z-1.991 F400.000
G1 X-59.673 Y40.879 Z-1.996 F400.000
G1 X-59.728 Y40.801 Z-2.001 F400.000
G1 X-59.767 Y40.714 Z-2.006 F400.000
G1 X-59.789 Y40.621 Z-2.011 F400.000
G1 X-59.792 Y40.526 Z-2.016 F400.000
G1 X-59.776 Y40.431 Z-2.021 F400.000
G1 X-59.742 Y40.342 Z-2.026 F400.000
G1 X-59.691 Y40.261 Z-2.032 F400.000
G1 X-59.626 Y40.191 Z-2.037 F400.000
G1 X-59.548 Y40.136 Z-2.042 F400.000
G1 X-59.461 Y40.097 Z-2.047 F400.000
G1 X-59.368 Y40.075 Z-2.052 F400.000
G1 X-59.272 Y40.072 Z-2.057 F400.000
G1 X-59.178 Y40.088 Z-2.062 F400.000
G1 X-59.088 Y40.122 Z-2.067 F400.000
G1 X-59.007 Y40.173 Z-2.073 F400.000
G1 X-58.938 Y40.238 Z-2.078 F400.000
G1 X-58.882 Y40.316 Z-2.083 F400.000
G1 X-58.843 Y40.403 Z-2.088 F400.000
G1 X-58.822 Y40.496 Z-2.093 F400.000
G1 X-58.819 Y40.592 Z-2.098 F400.000
G1 X-58.834 Y40.686 Z-2.103 F400.000
G1 X-58.868 Y40.775 Z-2.108 F400.000
G1 X-58.919 Y40.857 Z-2.114 F400.000
G1 X-58.985 Y40.926 Z-2.119 F400.000
G1 X-59.062 Y40.982 Z-2.124 F400.000
G1 X-59.150 Y41.021 Z-2.129 F400.000
G1 X-59.243 Y41.042 Z-2.134 F400.000
G1 X-59.338 Y41.045 Z-2.139 F400.000
G1 X-59.433 Y41.029 Z-2.144 F400.000
G1 X-59.522 Y40.996 Z-2.149 F400.000
G1 X-59.603 Y40.945 Z-2.155 F400.000
G1 X-59.673 Y40.879 Z-2.160 F400.000
G1 X-59.728 Y40.801 Z-2.165 F400.000
G1 X-59.767 Y40.714 Z-2.170 F400.000
G1 X-59.789 Y40.621 Z-2.175 F400.000
G1 X-59.792 Y40.526 Z-2.180 F400.000
G1 X-59.776 Y40.431 Z-2.185 F400.000
G1 X-59.742 Y40.342 Z-2.190 F400.000
G1 X-59.691 Y40.261 Z-2.195 F400.000
G1 X-59.626 Y40.191 Z-2.201 F400.000
G1 X-59.548 Y40.136 Z-2.206 F400.000
G1 X-59.461 Y40.097 Z-2.211 F400.000
G1 X-59.368 Y40.075 Z-2.216 F400.000
G1 X-59.272 Y40.072 Z-2.221 F400.000
G1 X-59.178 Y40.088 Z-2.226 F400.000
G1 X-59.088 Y40.122 Z-2.231 F400.000
G1 X-59.007 Y40.173 Z-2.236 F400.000
G1 X-58.938 Y40.238 Z-2.242 F400.000
G1 X-58.882 Y40.316 Z-2.247 F400.000
G1 X-58.843 Y40.403 Z-2.252 F400.000
G1 X-58.822 Y40.496 Z-2.257 F400.000
G1 X-58.819 Y40.592 Z-2.262 F400.000
G1 X-58.834 Y40.686 Z-2.267 F400.000
G1 X-58.868 Y40.775 Z-2.272 F400.000
G1 X-58.919 Y40.857 Z-2.277 F400.000
G1 X-58.985 Y40.926 Z-2.283 F400.000
G1 X-59.062 Y40.982 Z-2.288 F400.000
G1 X-59.150 Y41.021 Z-2.293 F400.000
G1 X-59.243 Y41.042 Z-2.298 F400.000
G1 X-59.338 Y41.045 Z-2.303 F400.000
G1 X-59.433 Y41.029 Z-2.308 F400.000
G1 X-59.522 Y40.996 Z-2.313 F400.000
G1 X-59.603 Y40.945 Z-2.318 F400.000
G1 X-59.673 Y40.879 Z-2.324 F400.000
G1 X-59.728 Y40.801 Z-2.329 F400.000
G1 X-59.767 Y40.714 Z-2.334 F400.000
G1 X-59.789 Y40.621 Z-2.339 F400.000
G1 X-59.792 Y40.526 Z-2.344 F400.000
G1 X-59.776 Y40.431 Z-2.349 F400.000
G1 X-59.742 Y40.342 Z-2.354 F400.000
G1 X-59.691 Y40.261 Z-2.359 F400.000
G1 X-59.626 Y40.191 Z-2.364 F400.000
G1 X-59.548 Y40.136 Z-2.370 F400.000
G1 X-59.461 Y40.097 Z-2.375 F400.000
G1 X-59.368 Y40.075 Z-2.380 F400.000
G1 X-59.272 Y40.072 Z-2.385 F400.000
G1 X-59.178 Y40.088 Z-2.390 F400.000
G1 X-59.088 Y40.122 Z-2.395 F400.000
G1 X-59.007 Y40.173 Z-2.400 F400.000
G1 X-58.938 Y40.238 Z-2.405 F400.000
G1 X-58.882 Y40.316 Z-2.411 F400.000
G1 X-58.843 Y40.403 Z-2.416 F400.000
G1 X-58.822 Y40.496 Z-2.421 F400.000
G1 X-58.819 Y40.592 Z-2.426 F400.000
G1 X-58.834 Y40.686 Z-2.431 F400.000
G1 X-58.868 Y40.775 Z-2.436 F400.000
G1 X-58.919 Y40.857 Z-2.441 F400.000
G1 X-58.985 Y40.926 Z-2.446 F400.000
G1 X-59.062 Y40.982 Z-2.452 F400.000
G1 X-59.150 Y41.021 Z-2.457 F400.000
G1 X-59.243 Y41.042 Z-2.462 F400.000
G1 X-59.338 Y41.045 Z-2.467 F400.000
G1 X-59.433 Y41.029 Z-2.472 F400.000
G1 X-59.522 Y40.996 Z-2.477 F400.000
G1 X-59.603 Y40.945 Z-2.482 F400.000
G1 X-59.673 Y40.879 Z-2.487 F400.000
G1 X-59.728 Y40.801 Z-2.492 F400.000
G1 X-59.767 Y40.714 Z-2.498 F400.000
G1 X-59.789 Y40.621 Z-2.503 F400.000
G1 X-59.792 Y40.526 Z-2.508 F400.000
G1 X-59.776 Y40.431 Z-2.513 F400.000
G1 X-59.742 Y40.342 Z-2.518 F400.000
G1 X-59.691 Y40.261 Z-2.523 F400.000
G1 X-59.626 Y40.191 Z-2.528 F400.000
G1 X-59.548 Y40.136 Z-2.533 F400.000
G1 X-59.461 Y40.097 Z-2.539 F400.000
G1 X-59.368 Y40.075 Z-2.544 F400.000
G1 X-59.272 Y40.072 Z-2.549 F400.000
G1 X-59.178 Y40.088 Z-2.554 F400.000
G1 X-59.088 Y40.122 Z-2.559 F400.000
G1 X-59.007 Y40.173 Z-2.564 F400.000
G1 X-58.938 Y40.238 Z-2.569 F400.000
G1 X-58.882 Y40.316 Z-2.574 F400.000
G1 X-58.843 Y40.403 Z-2.580 F400.000
G1 X-58.822 Y40.496 Z-2.585 F400.000
G1 X-58.819 Y40.592 Z-2.590 F400.000
G1 X-58.834 Y40.686 Z-2.595 F400.000
G1 X-58.868 Y40.775 Z-2.600 F400.000
G1 X-58.919 Y40.857 Z-2.605 F400.000
G1 X-58.985 Y40.926 Z-2.610 F400.000
G1 X-59.062 Y40.982 Z-2.615 F400.000
G1 X-59.150 Y41.021 Z-2.621 F400.000
G1 X-59.243 Y41.042 Z-2.626 F400.000
G1 X-59.338 Y41.045 Z-2.631 F400.000
G1 X-59.433 Y41.029 Z-2.636 F400.000
G1 X-59.522 Y40.996 Z-2.641 F400.000
G1 X-59.603 Y40.945 Z-2.646 F400.000
G1 X-59.673 Y40.879 Z-2.651 F400.000
G1 X-59.728 Y40.801 Z-2.656 F400.000
G1 X-59.767 Y40.714 Z-2.661 F400.000
G1 X-59.789 Y40.621 Z-2.667 F400.000
G1 X-59.792 Y40.526 Z-2.672 F400.000
G1 X-59.776 Y40.431 Z-2.677 F400.000
G1 X-59.742 Y40.342 Z-2.682 F400.000
G1 X-59.691 Y40.261 Z-2.687 F400.000
G1 X-59.626 Y40.191 Z-2.692 F400.000
G1 X-59.548 Y40.136 Z-2.697 F400.000
G1 X-59.461 Y40.097 Z-2.702 F400.000
G1 X-59.368 Y40.075 Z-2.708 F400.000
G1 X-59.272 Y40.072 Z-2.713 F400.000
G1 X-59.178 Y40.088 Z-2.718 F400.000
G1 X-59.088 Y40.122 Z-2.723 F400.000
G1 X-59.007 Y40.173 Z-2.728 F400.000
G1 X-58.938 Y40.238 Z-2.733 F400.000
G1 X-58.882 Y40.316 Z-2.738 F400.000
G1 X-58.843 Y40.403 Z-2.743 F400.000
G1 X-58.822 Y40.496 Z-2.749 F400.000
G1 X-58.819 Y40.592 Z-2.754 F400.000
G1 X-58.834 Y40.686 Z-2.759 F400.000
G1 X-58.868 Y40.775 Z-2.764 F400.000
G1 X-58.919 Y40.857 Z-2.769 F400.000
G1 X-58.985 Y40.926 Z-2.774 F400.000
G1 X-59.062 Y40.982 Z-2.779 F400.000
G1 X-59.150 Y41.021 Z-2.784 F400.000
G1 X-59.243 Y41.042 Z-2.790 F400.000
G1 X-59.338 Y41.045 Z-2.795 F400.000
G1 X-59.433 Y41.029 Z-2.800 F400.000
G1 X-59.522 Y40.996 Z-2.805 F400.000
G1 X-59.603 Y40.945 Z-2.810 F400.000
G1 X-59.673 Y40.879 Z-2.815 F400.000
G1 X-59.728 Y40.801 Z-2.820 F400.000
G1 X-59.767 Y40.714 Z-2.825 F400.000
G1 X-59.789 Y40.621 Z-2.830 F400.000
G1 X-59.792 Y40.526 Z-2.836 F400.000
G1 X-59.776 Y40.431 Z-2.841 F400.000
G1 X-59.742 Y40.342 Z-2.846 F400.000
G1 X-59.691 Y40.261 Z-2.851 F400.000
G1 X-59.626 Y40.191 Z-2.856 F400.000
G1 X-59.548 Y40.136 Z-2.861 F400.000
G1 X-59.461 Y40.097 Z-2.866 F400.000
G1 X-59.368 Y40.075 Z-2.871 F400.000
G1 X-59.272 Y40.072 Z-2.877 F400.000
G1 X-59.178 Y40.088 Z-2.882 F400.000
G1 X-59.088 Y40.122 Z-2.887 F400.000
G1 X-59.007 Y40.173 Z-2.892 F400.000
G1 X-58.938 Y40.238 Z-2.897 F400.000
G1 X-58.882 Y40.316 Z-2.902 F400.000
G1 X-58.843 Y40.403 Z-2.907 F400.000
G1 X-58.822 Y40.496 Z-2.912 F400.000
G1 X-58.819 Y40.592 Z-2.918 F400.000
G1 X-58.834 Y40.686 Z-2.923 F400.000
G1 X-58.868 Y40.775 Z-2.928 F400.000
G1 X-58.919 Y40.857 Z-2.933 F400.000
G1 X-58.985 Y40.926 Z-2.938 F400.000
G1 X-59.062 Y40.982 Z-2.943 F400.000
G1 X-59.150 Y41.021 Z-2.948 F400.000
G1 X-59.243 Y41.042 Z-2.953 F400.000
G1 X-59.338 Y41.045 Z-2.959 F400.000
G1 X-59.433 Y41.029 Z-2.964 F400.000
G1 X-59.522 Y40.996 Z-2.969 F400.000
G1 X-59.603 Y40.945 Z-2.974 F400.000
G1 X-59.673 Y40.879 Z-2.979 F400.000
G1 X-59.728 Y40.801 Z-2.984 F400.000
G1 X-59.767 Y40.714 Z-2.989 F400.000
G1 X-59.789 Y40.621 Z-2.994 F400.000
G1 X-59.792 Y40.526 Z-2.999 F400.000
G1 X-59.776 Y40.431 Z-3.005 F400.000
G1 X-59.742 Y40.342 Z-3.010 F400.000
G1 X-59.691 Y40.261 Z-3.015 F400.000
G1 X-59.626 Y40.191 Z-3.020 F400.000
G1 X-59.548 Y40.136 Z-3.025 F400.000
G1 X-59.461 Y40.097 Z-3.030 F400.000
G1 X-59.368 Y40.075 Z-3.035 F400.000
G1 X-59.272 Y40.072 Z-3.040 F400.000
G1 X-59.178 Y40.088 Z-3.046 F400.000
G1 X-59.088 Y40.122 Z-3.051 F400.000
G1 X-59.007 Y40.173 Z-3.056 F400.000
G1 X-58.938 Y40.238 Z-3.061 F400.000
G1 X-58.882 Y40.316 Z-3.066 F400.000
G1 X-58.843 Y40.403 Z-3.071 F400.000
G1 X-58.822 Y40.496 Z-3.076 F400.000
G1 X-58.819 Y40.592 Z-3.081 F400.000
G1 X-58.834 Y40.686 Z-3.087 F400.000
G1 X-58.868 Y40.775 Z-3.092 F400.000
G1 X-58.919 Y40.857 Z-3.097 F400.000
G1 X-58.985 Y40.926 Z-3.102 F400.000
G1 X-59.062 Y40.982 Z-3.107 F400.000
G1 X-59.150 Y41.021 Z-3.112 F400.000
G1 X-59.243 Y41.042 Z-3.117 F400.000
G1 X-59.338 Y41.045 Z-3.122 F400.000
G1 X-59.433 Y41.029 Z-3.127 F400.000
G1 X-59.522 Y40.996 Z-3.133 F400.000
G1 X-59.603 Y40.945 Z-3.138 F400.000
G1 X-59.673 Y40.879 Z-3.143 F400.000
G1 X-59.728 Y40.801 Z-3.148 F400.000
G1 X-59.767 Y40.714 Z-3.153 F400.000
G1 X-59.789 Y40.621 Z-3.158 F400.000
G1 X-59.792 Y40.526 Z-3.163 F400.000
G1 X-59.776 Y40.431 Z-3.168 F400.000
G1 X-59.742 Y40.342 Z-3.174 F400.000
G1 X-59.691 Y40.261 Z-3.179 F400.000
G1 X-59.626 Y40.191 Z-3.184 F400.000
G1 X-59.548 Y40.136 Z-3.189 F400.000
G1 X-59.461 Y40.097 Z-3.194 F400.000
G1 X-59.368 Y40.075 Z-3.199 F400.000
G1 X-59.272 Y40.072 Z-3.204 F400.000
G1 X-59.178 Y40.088 Z-3.209 F400.000
G1 X-59.088 Y40.122 Z-3.215 F400.000
G1 X-59.007 Y40.173 Z-3.220 F400.000
G1 X-58.938 Y40.238 Z-3.225 F400.000
G1 X-58.882 Y40.316 Z-3.230 F400.000
G1 X-58.843 Y40.403 Z-3.235 F400.000
G1 X-58.822 Y40.496 Z-3.240 F400.000
G1 X-58.819 Y40.592 Z-3.245 F400.000
G1 X-58.834 Y40.686 Z-3.250 F400.000
G1 X-58.868 Y40.775 Z-3.256 F400.000
G1 X-58.919 Y40.857 Z-3.261 F400.000
G1 X-58.985 Y40.926 Z-3.266 F400.000
G1 X-59.062 Y40.982 Z-3.271 F400.000
G1 X-59.150 Y41.021 Z-3.276 F400.000
G1 X-59.243 Y41.042 Z-3.281 F400.000
G1 X-59.338 Y41.045 Z-3.286 F400.000
G1 X-59.433 Y41.029 Z-3.291 F400.000
G1 X-59.522 Y40.996 Z-3.296 F400.000
G1 X-59.603 Y40.945 Z-3.302 F400.000
G1 X-59.673 Y40.879 Z-3.307 F400.000
G1 X-59.728 Y40.801 Z-3.312 F400.000
G1 X-59.767 Y40.714 Z-3.317 F400.000
G1 X-59.789 Y40.621 Z-3.322 F400.000
G1 X-59.792 Y40.526 Z-3.327 F400.000
G1 X-59.776 Y40.431 Z-3.332 F400.000
G1 X-59.742 Y40.342 Z-3.337 F400.000
G1 X-59.691 Y40.261 Z-3.343 F400.000
G1 X-59.626 Y40.191 Z-3.348 F400.000
G1 X-59.548 Y40.136 Z-3.353 F400.000
G1 X-59.461 Y40.097 Z-3.358 F400.000
G1 X-59.368 Y40.075 Z-3.363 F400.000
G1 X-59.272 Y40.072 Z-3.368 F400.000
G1 X-59.178 Y40.088 Z-3.373 F400.000
G1 X-59.088 Y40.122 Z-3.378 F400.000
G1 X-59.007 Y40.173 Z-3.384 F400.000
G1 X-58.938 Y40.238 Z-3.389 F400.000
G1 X-58.882 Y40.316 Z-3.394 F400.000
G1 X-58.843 Y40.403 Z-3.399 F400.000
G1 X-58.822 Y40.496 Z-3.404 F400.000
G1 X-58.819 Y40.592 Z-3.409 F400.000
G1 X-58.834 Y40.686 Z-3.414 F400.000
G1 X-58.868 Y40.775 Z-3.419 F400.000
G1 X-58.919 Y40.857 Z-3.425 F400.000
G1 X-58.985 Y40.926 Z-3.430 F400.000
G1 X-59.062 Y40.982 Z-3.435 F400.000
G1 X-59.150 Y41.021 Z-3.440 F400.000
G1 X-59.243 Y41.042 Z-3.445 F400.000
G1 X-59.338 Y41.045 Z-3.450 F400.000
G1 X-59.433 Y41.029 Z-3.455 F400.000
G1 X-59.522 Y40.996 Z-3.460 F400.000
G1 X-59.603 Y40.945 Z-3.465 F400.000
G1 X-59.673 Y40.879 Z-3.471 F400.000
G1 X-59.728 Y40.801 Z-3.476 F400.000
G1 X-59.767 Y40.714 Z-3.481 F400.000
G1 X-59.789 Y40.621 Z-3.486 F400.000
G1 X-59.792 Y40.526 Z-3.491 F400.000
G1 X-59.776 Y40.431 Z-3.496 F400.000
G1 X-59.742 Y40.342 Z-3.501 F400.000
G1 X-59.691 Y40.261 Z-3.506 F400.000
G1 X-59.626 Y40.191 Z-3.512 F400.000
G1 X-59.548 Y40.136 Z-3.517 F400.000
G1 X-59.461 Y40.097 Z-3.522 F400.000
G1 X-59.368 Y40.075 Z-3.527 F400.000
G1 X-59.272 Y40.072 Z-3.532 F400.000
G1 X-59.178 Y40.088 Z-3.537 F400.000
G1 X-59.088 Y40.122 Z-3.542 F400.000
G1 X-59.007 Y40.173 Z-3.547 F400.000
G1 X-58.938 Y40.238 Z-3.553 F400.000
G1 X-58.882 Y40.316 Z-3.558 F400.000
G1 X-58.843 Y40.403 Z-3.563 F400.000
G1 X-58.822 Y40.496 Z-3.568 F400.000
G1 X-58.819 Y40.592 Z-3.573 F400.000
G1 X-58.834 Y40.686 Z-3.578 F400.000
G1 X-58.868 Y40.775 Z-3.583 F400.000
G1 X-58.919 Y40.857 Z-3.588 F400.000
G1 X-58.985 Y40.926 Z-3.594 F400.000
G1 X-59.062 Y40.982 Z-3.599 F400.000
G1 X-59.150 Y41.021 Z-3.604 F400.000
G1 X-59.243 Y41.042 Z-3.609 F400.000
G1 X-59.338 Y41.045 Z-3.614 F400.000
G1 X-59.433 Y41.029 Z-3.619 F400.000
G1 X-59.522 Y40.996 Z-3.624 F400.000
G1 X-59.603 Y40.945 Z-3.629 F400.000
G1 X-59.673 Y40.879 Z-3.634 F400.000
G1 X-59.728 Y40.801 Z-3.640 F400.000
G1 X-59.767 Y40.714 Z-3.645 F400.000
G1 X-59.789 Y40.621 Z-3.650 F400.000
G1 X-59.792 Y40.526 Z-3.655 F400.000
G1 X-59.776 Y40.431 Z-3.660 F400.000
G1 X-59.742 Y40.342 Z-3.665 F400.000
G1 X-59.691 Y40.261 Z-3.670 F400.000
G1 X-59.626 Y40.191 Z-3.675 F400.000
G1 X-59.548 Y40.136 Z-3.681 F400.000
G1 X-59.461 Y40.097 Z-3.686 F400.000
G1 X-59.368 Y40.075 Z-3.691 F400.000
G1 X-59.272 Y40.072 Z-3.696 F400.000
G1 X-59.178 Y40.088 Z-3.701 F400.000
G1 X-59.088 Y40.122 Z-3.706 F400.000
G1 X-59.007 Y40.173 Z-3.711 F400.000
G1 X-58.938 Y40.238 Z-3.716 F400.000
G1 X-58.882 Y40.316 Z-3.722 F400.000
G1 X-58.843 Y40.403 Z-3.727 F400.000
G1 X-58.822 Y40.496 Z-3.732 F400.000
G1 X-58.819 Y40.592 Z-3.737 F400.000
G1 X-58.834 Y40.686 Z-3.742 F400.000
G1 X-58.868 Y40.775 Z-3.747 F400.000
G1 X-58.919 Y40.857 Z-3.752 F400.000
G1 X-58.985 Y40.926 Z-3.757 F400.000
G1 X-59.062 Y40.982 Z-3.762 F400.000
G1 X-59.150 Y41.021 Z-3.768 F400.000
G1 X-59.243 Y41.042 Z-3.773 F400.000
G1 X-59.338 Y41.045 Z-3.778 F400.000
G1 X-59.433 Y41.029 Z-3.783 F400.000
G1 X-59.522 Y40.996 Z-3.788 F400.000
G1 X-59.603 Y40.945 Z-3.793 F400.000
G1 X-59.673 Y40.879 Z-3.798 F400.000
G1 X-59.728 Y40.801 Z-3.803 F400.000
G1 X-59.767 Y40.714 Z-3.809 F400.000
G1 X-59.789 Y40.621 Z-3.814 F400.000
G1 X-59.792 Y40.526 Z-3.819 F400.000
G1 X-59.776 Y40.431 Z-3.824 F400.000
G1 X-59.742 Y40.342 Z-3.829 F400.000
G1 X-59.691 Y40.261 Z-3.834 F400.000
G1 X-59.626 Y40.191 Z-3.839 F400.000
G1 X-59.548 Y40.136 Z-3.844 F400.000
G1 X-59.461 Y40.097 Z-3.850 F400.000
G1 X-59.368 Y40.075 Z-3.855 F400.000
G1 X-59.272 Y40.072 Z-3.860 F400.000
G1 X-59.178 Y40.088 Z-3.865 F400.000
G1 X-59.088 Y40.122 Z-3.870 F400.000
G1 X-59.007 Y40.173 Z-3.875 F400.000
G1 X-58.938 Y40.238 Z-3.880 F400.000
G1 X-58.882 Y40.316 Z-3.885 F400.000
G1 X-58.843 Y40.403 Z-3.891 F400.000
G1 X-58.822 Y40.496 Z-3.896 F400.000
G1 X-58.819 Y40.592 Z-3.901 F400.000
G1 X-58.834 Y40.686 Z-3.906 F400.000
G1 X-58.868 Y40.775 Z-3.911 F400.000
G1 X-58.919 Y40.857 Z-3.916 F400.000
G1 X-58.985 Y40.926 Z-3.921 F400.000
G1 X-59.062 Y40.982 Z-3.926 F400.000
G1 X-59.150 Y41.021 Z-3.931 F400.000
G1 X-59.243 Y41.042 Z-3.937 F400.000
G1 X-59.338 Y41.045 Z-3.942 F400.000
G1 X-59.433 Y41.029 Z-3.947 F400.000
G1 X-59.522 Y40.996 Z-3.952 F400.000
G1 X-59.603 Y40.945 Z-3.957 F400.000
G1 X-59.673 Y40.879 Z-3.962 F400.000
G1 X-59.728 Y40.801 Z-3.967 F400.000
G1 X-59.767 Y40.714 Z-3.972 F400.000
G1 X-59.789 Y40.621 Z-3.978 F400.000
G1 X-59.792 Y40.526 Z-3.983 F400.000
G1 X-59.776 Y40.431 Z-3.988 F400.000
G1 X-59.742 Y40.342 Z-3.993 F400.000
G1 X-59.691 Y40.261 Z-3.998 F400.000
G1 X-59.626 Y40.191 Z-4.003 F400.000
G1 X-59.548 Y40.136 Z-4.008 F400.000
G1 X-59.461 Y40.097 Z-4.013 F400.000
G1 X-59.368 Y40.075 Z-4.019 F400.000
G1 X-59.272 Y40.072 Z-4.024 F400.000
G1 X-59.178 Y40.088 Z-4.029 F400.000
G1 X-59.088 Y40.122 Z-4.034 F400.000
G1 X-59.007 Y40.173 Z-4.039 F400.000
G1 X-58.938 Y40.238 Z-4.044 F400.000
G1 X-58.882 Y40.316 Z-4.049 F400.000
G1 X-58.843 Y40.403 Z-4.054 F400.000
G1 X-58.822 Y40.496 Z-4.060 F400.000
G1 X-58.819 Y40.592 Z-4.065 F400.000
G1 X-58.834 Y40.686 Z-4.070 F400.000
G1 X-58.868 Y40.775 Z-4.075 F400.000
G1 X-58.919 Y40.857 Z-4.080 F400.000
G1 X-58.985 Y40.926 Z-4.085 F400.000
G1 X-59.062 Y40.982 Z-4.090 F400.000
G1 X-59.150 Y41.021 Z-4.095 F400.000
G1 X-59.243 Y41.042 Z-4.100 F400.000
G1 X-59.338 Y41.045 Z-4.106 F400.000
G1 X-59.433 Y41.029 Z-4.111 F400.000
G1 X-59.522 Y40.996 Z-4.116 F400.000
G1 X-59.603 Y40.945 Z-4.121 F400.000
G1 X-59.673 Y40.879 Z-4.126 F400.000
G1 X-59.728 Y40.801 Z-4.131 F400.000
G1 X-59.767 Y40.714 Z-4.136 F400.000
G1 X-59.789 Y40.621 Z-4.141 F400.000
G1 X-59.792 Y40.526 Z-4.147 F400.000
G1 X-59.776 Y40.431 Z-4.152 F400.000
G1 X-59.742 Y40.342 Z-4.157 F400.000
G1 X-59.691 Y40.261 Z-4.162 F400.000
G1 X-59.626 Y40.191 Z-4.167 F400.000
G1 X-59.548 Y40.136 Z-4.172 F400.000
G1 X-59.461 Y40.097 Z-4.177 F400.000
G1 X-59.368 Y40.075 Z-4.182 F400.000
G1 X-59.272 Y40.072 Z-4.188 F400.000
G1 X-59.178 Y40.088 Z-4.193 F400.000
G1 X-59.088 Y40.122 Z-4.198 F400.000
G1 X-59.007 Y40.173 Z-4.203 F400.000
G1 X-58.938 Y40.238 Z-4.208 F400.000
G1 X-58.882 Y40.316 Z-4.213 F400.000
G1 X-58.843 Y40.403 Z-4.218 F400.000
G1 X-58.822 Y40.496 Z-4.223 F400.000
G1 X-58.819 Y40.592 Z-4.229 F400.000
G1 X-58.834 Y40.686 Z-4.234 F400.000
G1 X-58.868 Y40.775 Z-4.239 F400.000
G1 X-58.919 Y40.857 Z-4.244 F400.000
G1 X-58.985 Y40.926 Z-4.249 F400.000
G1 X-59.062 Y40.982 Z-4.254 F400.000
G1 X-59.150 Y41.021 Z-4.259 F400.000
G1 X-59.243 Y41.042 Z-4.264 F400.000
G1 X-59.338 Y41.045 Z-4.269 F400.000
G1 X-59.433 Y41.029 Z-4.275 F400.000
G1 X-59.522 Y40.996 Z-4.280 F400.000
G1 X-59.603 Y40.945 Z-4.285 F400.000
G1 X-59.673 Y40.879 Z-4.290 F400.000
G1 X-59.728 Y40.801 Z-4.295 F400.000
G1 X-59.767 Y40.714 Z-4.300 F400.000
G1 X-59.789 Y40.621 Z-4.305 F400.000
G1 X-59.792 Y40.526 Z-4.310 F400.000
G1 X-59.776 Y40.431 Z-4.316 F400.000
G1 X-59.742 Y40.342 Z-4.321 F400.000
G1 X-59.691 Y40.261 Z-4.326 F400.000
G1 X-59.626 Y40.191 Z-4.331 F400.000
G1 X-59.548 Y40.136 Z-4.336 F400.000
G1 X-59.461 Y40.097 Z-4.341 F400.000
G1 X-59.368 Y40.075 Z-4.346 F400.000
G1 X-59.272 Y40.072 Z-4.351 F400.000
G1 X-59.178 Y40.088 Z-4.357 F400.000
G1 X-59.088 Y40.122 Z-4.362 F400.000
G1 X-59.007 Y40.173 Z-4.367 F400.000
G1 X-58.938 Y40.238 Z-4.372 F400.000
G1 X-58.882 Y40.316 Z-4.377 F400.000
G1 X-58.843 Y40.403 Z-4.382 F400.000
G1 X-58.822 Y40.496 Z-4.387 F400.000
G1 X-58.819 Y40.592 Z-4.392 F400.000
G1 X-58.834 Y40.686 Z-4.397 F400.000
G1 X-58.868 Y40.775 Z-4.403 F400.000
G1 X-58.919 Y40.857 Z-4.408 F400.000
G1 X-58.985 Y40.926 Z-4.413 F400.000
G1 X-59.062 Y40.982 Z-4.418 F400.000
G1 X-59.150 Y41.021 Z-4.423 F400.000
G1 X-59.243 Y41.042 Z-4.428 F400.000
G1 X-59.338 Y41.045 Z-4.433 F400.000
G1 X-59.433 Y41.029 Z-4.438 F400.000
G1 X-59.522 Y40.996 Z-4.444 F400.000
G1 X-59.603 Y40.945 Z-4.449 F400.000
G1 X-59.673 Y40.879 Z-4.454 F400.000
G1 X-59.728 Y40.801 Z-4.459 F400.000
G1 X-59.767 Y40.714 Z-4.464 F400.000
G1 X-59.789 Y40.621 Z-4.469 F400.000
G1 X-59.792 Y40.526 Z-4.474 F400.000
G1 X-59.776 Y40.431 Z-4.479 F400.000
G1 X-59.742 Y40.342 Z-4.485 F400.000
G1 X-59.691 Y40.261 Z-4.490 F400.000
G1 X-59.626 Y40.191 Z-4.495 F400.000
G1 X-59.548 Y40.136 Z-4.500 F400.000
G1 X-59.461 Y40.097 Z-4.505 F400.000
G1 X-59.368 Y40.075 Z-4.510 F400.000
G1 X-59.272 Y40.072 Z-4.515 F400.000
G1 X-59.178 Y40.088 Z-4.520 F400.000
G1 X-59.088 Y40.122 Z-4.526 F400.000
G1 X-59.007 Y40.173 Z-4.531 F400.000
G1 X-58.938 Y40.238 Z-4.536 F400.000
G1 X-58.882 Y40.316 Z-4.541 F400.000
G1 X-58.843 Y40.403 Z-4.546 F400.000
G1 X-58.822 Y40.496 Z-4.551 F400.000
G1 X-58.819 Y40.592 Z-4.556 F400.000
G1 X-58.834 Y40.686 Z-4.561 F400.000
G1 X-58.868 Y40.775 Z-4.566 F400.000
G1 X-58.919 Y40.857 Z-4.572 F400.000
G1 X-58.985 Y40.926 Z-4.577 F400.000
G1 X-59.062 Y40.982 Z-4.582 F400.000
G1 X-59.150 Y41.021 Z-4.587 F400.000
G1 X-59.243 Y41.042 Z-4.592 F400.000
G1 X-59.338 Y41.045 Z-4.597 F400.000
G1 X-59.433 Y41.029 Z-4.602 F400.000
G1 X-59.522 Y40.996 Z-4.607 F400.000
G1 X-59.603 Y40.945 Z-4.613 F400.000
G1 X-59.673 Y40.879 Z-4.618 F400.000
G1 X-59.728 Y40.801 Z-4.623 F400.000
G1 X-59.767 Y40.714 Z-4.628 F400.000
G1 X-59.789 Y40.621 Z-4.633 F400.000
G1 X-59.792 Y40.526 Z-4.638 F400.000
G1 X-59.776 Y40.431 Z-4.643 F400.000
G1 X-59.742 Y40.342 Z-4.648 F400.000
G1 X-59.691 Y40.261 Z-4.654 F400.000
G1 X-59.626 Y40.191 Z-4.659 F400.000
G1 X-59.548 Y40.136 Z-4.664 F400.000
G1 X-59.461 Y40.097 Z-4.669 F400.000
G1 X-59.368 Y40.075 Z-4.674 F400.000
G1 X-59.272 Y40.072 Z-4.679 F400.000
G1 X-59.178 Y40.088 Z-4.684 F400.000
G1 X-59.088 Y40.122 Z-4.689 F400.000
G1 X-59.007 Y40.173 Z-4.695 F400.000
G1 X-58.938 Y40.238 Z-4.700 F400.000
G1 X-58.882 Y40.316 Z-4.705 F400.000
G1 X-58.843 Y40.403 Z-4.710 F400.000
G1 X-58.822 Y40.496 Z-4.715 F400.000
G1 X-58.819 Y40.592 Z-4.720 F400.000
G1 X-58.834 Y40.686 Z-4.725 F400.000
G1 X-58.868 Y40.775 Z-4.730 F400.000
G1 X-58.919 Y40.857 Z-4.735 F400.000
G1 X-58.985 Y40.926 Z-4.741 F400.000
G1 X-59.062 Y40.982 Z-4.746 F400.000
G1 X-59.150 Y41.021 Z-4.751 F400.000
G1 X-59.243 Y41.042 Z-4.756 F400.000
G1 X-59.338 Y41.045 Z-4.761 F400.000
G1 X-59.433 Y41.029 Z-4.766 F400.000
G1 X-59.522 Y40.996 Z-4.771 F400.000
G1 X-59.603 Y40.945 Z-4.776 F400.000
G1 X-59.673 Y40.879 Z-4.782 F400.000
G1 X-59.728 Y40.801 Z-4.787 F400.000
G1 X-59.767 Y40.714 Z-4.792 F400.000
G1 X-59.789 Y40.621 Z-4.797 F400.000
G1 X-59.792 Y40.526 Z-4.802 F400.000
G1 X-59.776 Y40.431 Z-4.807 F400.000
G1 X-59.742 Y40.342 Z-4.812 F400.000
G1 X-59.691 Y40.261 Z-4.817 F400.000
G1 X-59.626 Y40.191 Z-4.823 F400.000
G1 X-59.548 Y40.136 Z-4.828 F400.000
G1 X-59.461 Y40.097 Z-4.833 F400.000
G1 X-59.368 Y40.075 Z-4.838 F400.000
G1 X-59.272 Y40.072 Z-4.843 F400.000
G1 X-59.178 Y40.088 Z-4.848 F400.000
G1 X-59.088 Y40.122 Z-4.853 F400.000
G1 X-59.007 Y40.173 Z-4.858 F400.000
G1 X-58.938 Y40.238 Z-4.864 F400.000
G1 X-58.882 Y40.316 Z-4.869 F400.000
G1 X-58.843 Y40.403 Z-4.874 F400.000
G1 X-58.822 Y40.496 Z-4.879 F400.000
G1 X-58.819 Y40.592 Z-4.884 F400.000
G1 X-58.834 Y40.686 Z-4.889 F400.000
G1 X-58.868 Y40.775 Z-4.894 F400.000
G1 X-58.919 Y40.857 Z-4.899 F400.000
G1 X-58.985 Y40.926 Z-4.904 F400.000
G1 X-59.062 Y40.982 Z-4.910 F400.000
G1 X-59.150 Y41.021 Z-4.915 F400.000
G1 X-59.243 Y41.042 Z-4.920 F400.000
G1 X-59.338 Y41.045 Z-4.925 F400.000
G1 X-59.433 Y41.029 Z-4.930 F400.000
G1 X-59.522 Y40.996 Z-4.935 F400.000
G1 X-59.603 Y40.945 Z-4.940 F400.000
G1 X-59.673 Y40.879 Z-4.945 F400.000
G1 X-59.728 Y40.801 Z-4.951 F400.000
G1 X-59.767 Y40.714 Z-4.956 F400.000
G1 X-59.789 Y40.621 Z-4.961 F400.000
G1 X-59.792 Y40.526 Z-4.966 F400.000
G1 X-59.776 Y40.431 Z-4.971 F400.000
G1 X-59.742 Y40.342 Z-4.976 F400.000
G1 X-59.691 Y40.261 Z-4.981 F400.000
G1 X-59.626 Y40.191 Z-4.986 F400.000
G1 X-59.548 Y40.136 Z-4.992 F400.000
G1 X-59.461 Y40.097 Z-4.997 F400.000
G1 X-59.368 Y40.075 Z-5.000 F400.000
G1 X-59.272 Y40.072 Z-5.000 F400.000
G1 X-59.178 Y40.088 Z-5.000 F400.000
G1 X-59.088 Y40.122 Z-5.000 F400.000
G1 X-59.007 Y40.173 Z-5.000 F400.000
G1 X-58.938 Y40.238 Z-5.000 F400.000
G1 X-58.882 Y40.316 Z-5.000 F400.000
G1 X-58.843 Y40.403 Z-5.000 F400.000
G1 X-58.822 Y40.496 Z-5.000 F400.000
G1 X-58.819 Y40.592 Z-5.000 F400.000
G1 X-58.834 Y40.686 Z-5.000 F400.000
G1 X-58.868 Y40.775 Z-5.000 F400.000
G1 X-58.919 Y40.857 Z-5.000 F400.000
G1 X-58.985 Y40.926 Z-5.000 F400.000
G1 X-59.062 Y40.982 Z-5.000 F400.000
G1 X-59.150 Y41.021 Z-5.000 F400.000
G1 X-59.243 Y41.042 Z-5.000 F400.000
G1 X-59.338 Y41.045 Z-5.000 F400.000
G1 X-59.433 Y41.029 Z-5.000 F400.000
G1 X-59.522 Y40.996 Z-5.000 F400.000
G1 X-59.603 Y40.945 Z-5.000 F400.000
G1 X-59.673 Y40.879 Z-5.000 F400.000
G1 X-59.728 Y40.801 Z-5.000 F400.000
G1 X-59.767 Y40.714 Z-5.000 F400.000
G1 X-59.789 Y40.621 Z-5.000 F400.000
G1 X-59.792 Y40.526 Z-5.000 F400.000
G1 X-59.776 Y40.431 Z-5.000 F400.000
G1 X-59.742 Y40.342 Z-5.000 F400.000
G1 X-59.691 Y40.261 Z-5.000 F400.000
G1 X-59.626 Y40.191 Z-5.000 F400.000
G1 X-59.548 Y40.136 Z-5.000 F400.000
G1 X-59.461 Y40.097 Z-5.000 F400.000
(Adaptive - depth: -5.000000)
G1 X-59.305 Y40.061 F400.000
G1 X-59.244 Y40.009 F400.000
G1 X-59.169 Y39.991 F400.000
G1 X-59.169 Y39.991 F400.000
G1 X-59.061 Y40.141 F400.000
G1 X-59.042 Y40.164 F400.000
G1 X-58.836 Y40.310 F400.000
G1 X-58.836 Y40.310 F400.000
G1 X-58.732 Y40.418 F400.000
G1 X-58.638 Y40.620 F400.000
G1 X-58.629 Y40.690 F400.000
G1 X-58.648 Y40.831 F400.000
G1 X-58.704 Y40.967 F400.000
G1 X-58.845 Y41.136 F400.000
G1 X-58.962 Y41.216 F400.000
G1 X-59.099 Y41.268 F400.000
G1 X-59.239 Y41.291 F400.000
G1 X-59.310 Y41.272 F400.000
G1 X-59.366 Y41.221 F400.000
G1 X-59.366 Y41.221 F400.000
G1 X-59.446 Y41.085 F400.000
G1 X-59.465 Y40.977 F400.000
G0 X-59.460 Y40.944
G0 X-59.066 Y40.545
G1 X-59.033 Y40.516 F400.000
G1 X-58.934 Y40.437 F400.000
G1 X-58.864 Y40.418 F400.000
G1 X-58.756 Y40.437 F400.000
G1 X-58.624 Y40.521 F400.000
G1 X-58.624 Y40.521 F400.000
G1 X-58.484 Y40.695 F400.000
G1 X-58.427 Y40.831 F400.000
G1 X-58.423 Y40.901 F400.000
G1 X-58.455 Y41.042 F400.000
G1 X-58.554 Y41.230 F400.000
G1 X-58.653 Y41.338 F400.000
G1 X-58.826 Y41.465 F400.000
G1 X-58.958 Y41.516 F400.000
G1 X-59.028 Y41.526 F400.000
G1 X-59.094 Y41.493 F400.000
G1 X-59.094 Y41.493 F400.000
G1 X-59.174 Y41.357 F400.000
G1 X-59.197 Y41.249 F400.000
G0 X-59.188 Y41.211
G0 X-58.836 Y40.775
G1 X-58.812 Y40.742 F400.000
G1 X-58.718 Y40.657 F400.000
G1 X-58.653 Y40.629 F400.000
G1 X-58.545 Y40.648 F400.000
G1 X-58.413 Y40.732 F400.000
G1 X-58.413 Y40.732 F400.000
G1 X-58.315 Y40.845 F400.000
G1 X-58.249 Y40.977 F400.000
G1 X-58.230 Y41.047 F400.000
G1 X-58.249 Y41.188 F400.000
G1 X-58.333 Y41.390 F400.000
G1 X-58.465 Y41.559 F400.000
G1 X-58.577 Y41.653 F400.000
G1 X-58.704 Y41.718 F400.000
G1 X-58.775 Y41.737 F400.000
G1 X-58.845 Y41.728 F400.000
G1 X-58.901 Y41.681 F400.000
G1 X-58.901 Y41.681 F400.000
G1 X-58.981 Y41.545 F400.000
G1 X-59.005 Y41.437 F400.000
G0 X-58.995 Y41.399
G0 X-58.629 Y40.977
G1 X-58.601 Y40.948 F400.000
G1 X-58.507 Y40.864 F400.000
G1 X-58.437 Y40.840 F400.000
G1 X-58.329 Y40.859 F400.000
G1 X-58.197 Y40.944 F400.000
G1 X-58.197 Y40.944 F400.000
G1 X-58.070 Y41.127 F400.000
G1 X-58.042 Y41.197 F400.000
G1 X-58.028 Y41.268 F400.000
G1 X-58.047 Y41.408 F400.000
G1 X-58.131 Y41.610 F400.000
G1 X-58.258 Y41.779 F400.000
G1 X-58.427 Y41.906 F400.000
G1 X-58.563 Y41.953 F400.000
G1 X-58.634 Y41.939 F400.000
G1 X-58.746 Y41.840 F400.000
G1 X-58.746 Y41.840 F400.000
G1 X-58.826 Y41.704 F400.000
G1 X-58.845 Y41.596 F400.000
G0 X-58.840 Y41.563
G0 X-58.432 Y41.188
G1 X-58.399 Y41.164 F400.000
G1 X-58.300 Y41.089 F400.000
G1 X-58.225 Y41.066 F400.000
G1 X-58.117 Y41.080 F400.000
G1 X-57.986 Y41.155 F400.000
G1 X-57.986 Y41.155 F400.000
G1 X-57.859 Y41.338 F400.000
G1 X-57.836 Y41.408 F400.000
G1 X-57.840 Y41.549 F400.000
G1 X-57.901 Y41.756 F400.000
G1 X-58.014 Y41.939 F400.000
G1 X-58.113 Y42.038 F400.000
G1 X-58.230 Y42.117 F400.000
G1 X-58.296 Y42.146 F400.000
G1 X-58.366 Y42.150 F400.000
G1 X-58.437 Y42.141 F400.000
G1 X-58.545 Y42.042 F400.000
G1 X-58.545 Y42.042 F400.000
G1 X-58.624 Y41.906 F400.000
G1 X-58.643 Y41.798 F400.000
G0 X-58.638 Y41.765
G0 X-58.254 Y41.366
G1 X-58.225 Y41.338 F400.000
G1 X-58.127 Y41.254 F400.000
G1 X-58.019 Y41.225 F400.000
G1 X-57.873 Y41.254 F400.000
G1 X-57.808 Y41.291 F400.000
G1 X-57.808 Y41.291 F400.000
G1 X-57.704 Y41.399 F400.000
G1 X-57.662 Y41.460 F400.000
G1 X-57.634 Y41.531 F400.000
G1 X-57.629 Y41.742 F400.000
G1 X-57.690 Y41.948 F400.000
G1 X-57.803 Y42.131 F400.000
G1 X-57.901 Y42.235 F400.000
G1 X-57.962 Y42.277 F400.000
G1 X-58.033 Y42.296 F400.000
G1 X-58.103 Y42.282 F400.000
G1 X-58.103 Y42.282 F400.000
G1 X-58.225 Y42.188 F400.000
G1 X-58.272 Y42.127 F400.000
G1 X-58.286 Y42.094 F400.000
G0 X-58.291 Y42.061
G0 X-58.066 Y41.526
G1 X-58.047 Y41.488 F400.000
G1 X-57.981 Y41.376 F400.000
G1 X-57.925 Y41.333 F400.000
G1 X-57.817 Y41.319 F400.000
G1 X-57.676 Y41.362 F400.000
G1 X-57.676 Y41.362 F400.000
G1 X-57.488 Y41.488 F400.000
G1 X-57.437 Y41.545 F400.000
G1 X-57.404 Y41.610 F400.000
G1 X-57.376 Y41.822 F400.000
G1 X-57.390 Y41.962 F400.000
G1 X-57.460 Y42.169 F400.000
G1 X-57.582 Y42.343 F400.000
G1 X-57.634 Y42.390 F400.000
G1 X-57.695 Y42.423 F400.000
G1 X-57.765 Y42.423 F400.000
G1 X-57.765 Y42.423 F400.000
G1 X-57.887 Y42.329 F400.000
G1 X-57.953 Y42.235 F400.000
G0 X-57.958 Y42.202
G0 X-57.826 Y41.662
G1 X-57.812 Y41.620 F400.000
G1 X-57.770 Y41.502 F400.000
G1 X-57.718 Y41.451 F400.000
G1 X-57.615 Y41.427 F400.000
G1 X-57.469 Y41.451 F400.000
G1 X-57.469 Y41.451 F400.000
G1 X-57.263 Y41.549 F400.000
G1 X-57.207 Y41.601 F400.000
G1 X-57.131 Y41.808 F400.000
G1 X-57.117 Y42.019 F400.000
G1 X-57.155 Y42.230 F400.000
G1 X-57.216 Y42.362 F400.000
G1 X-57.305 Y42.479 F400.000
G1 X-57.366 Y42.516 F400.000
G1 X-57.437 Y42.531 F400.000
G1 X-57.507 Y42.526 F400.000
G1 X-57.577 Y42.502 F400.000
G1 X-57.577 Y42.502 F400.000
G1 X-57.700 Y42.408 F400.000
G1 X-57.765 Y42.315 F400.000
G0 X-57.770 Y42.282
G0 X-57.610 Y41.779
G1 X-57.596 Y41.737 F400.000
G1 X-57.545 Y41.620 F400.000
G1 X-57.488 Y41.563 F400.000
G1 X-57.371 Y41.512 F400.000
G1 X-57.254 Y41.502 F400.000
G1 X-57.254 Y41.502 F400.000
G1 X-57.038 Y41.582 F400.000
G1 X-56.977 Y41.624 F400.000
G1 X-56.901 Y41.751 F400.000
G1 X-56.840 Y41.962 F400.000
G1 X-56.826 Y42.174 F400.000
G1 X-56.878 Y42.385 F400.000
G1 X-56.911 Y42.451 F400.000
G1 X-56.958 Y42.502 F400.000
G1 X-57.023 Y42.531 F400.000
G1 X-57.023 Y42.531 F400.000
G1 X-57.169 Y42.498 F400.000
G1 X-57.258 Y42.432 F400.000
G0 X-57.277 Y42.404
G0 X-57.305 Y41.836
G1 X-57.305 Y41.793 F400.000
G1 X-57.291 Y41.667 F400.000
G1 X-57.239 Y41.596 F400.000
G1 X-57.136 Y41.540 F400.000
G1 X-57.028 Y41.526 F400.000
G1 X-57.028 Y41.526 F400.000
G1 X-56.878 Y41.559 F400.000
G1 X-56.808 Y41.587 F400.000
G1 X-56.742 Y41.629 F400.000
G1 X-56.648 Y41.746 F400.000
G1 X-56.577 Y41.878 F400.000
G1 X-56.535 Y42.019 F400.000
G1 X-56.521 Y42.230 F400.000
G1 X-56.549 Y42.371 F400.000
G1 X-56.610 Y42.498 F400.000
G1 X-56.671 Y42.531 F400.000
G1 X-56.671 Y42.531 F400.000
G1 X-56.817 Y42.498 F400.000
G1 X-56.911 Y42.432 F400.000
G0 X-56.930 Y42.404
G0 X-57.038 Y41.854
G1 X-57.047 Y41.812 F400.000
G1 X-57.056 Y41.690 F400.000
G1 X-57.028 Y41.624 F400.000
G1 X-56.944 Y41.559 F400.000
G1 X-56.803 Y41.526 F400.000
G1 X-56.803 Y41.526 F400.000
G1 X-56.653 Y41.540 F400.000
G1 X-56.507 Y41.587 F400.000
G1 X-56.441 Y41.624 F400.000
G1 X-56.315 Y41.803 F400.000
G1 X-56.254 Y41.939 F400.000
G1 X-56.211 Y42.150 F400.000
G1 X-56.211 Y42.291 F400.000
G1 X-56.249 Y42.432 F400.000
G1 X-56.282 Y42.498 F400.000
G1 X-56.343 Y42.531 F400.000
G1 X-56.343 Y42.531 F400.000
G1 X-56.488 Y42.498 F400.000
G1 X-56.582 Y42.432 F400.000
G0 X-56.601 Y42.404
G0 X-56.732 Y41.854
G1 X-56.742 Y41.812 F400.000
G1 X-56.756 Y41.690 F400.000
G1 X-56.728 Y41.624 F400.000
G1 X-56.643 Y41.559 F400.000
G1 X-56.502 Y41.526 F400.000
G1 X-56.502 Y41.526 F400.000
G1 X-56.352 Y41.540 F400.000
G1 X-56.207 Y41.587 F400.000
G1 X-56.141 Y41.624 F400.000
G1 X-56.000 Y41.803 F400.000
G1 X-55.915 Y42.009 F400.000
G1 X-55.887 Y42.221 F400.000
G1 X-55.906 Y42.362 F400.000
G1 X-55.962 Y42.498 F400.000
G1 X-56.023 Y42.531 F400.000
G1 X-56.023 Y42.531 F400.000
G1 X-56.169 Y42.498 F400.000
G1 X-56.263 Y42.432 F400.000
G0 X-56.286 Y42.404
G0 X-56.432 Y41.850
G1 X-56.441 Y41.808 F400.000
G1 X-56.455 Y41.685 F400.000
G1 X-56.432 Y41.624 F400.000
G1 X-56.347 Y41.559 F400.000
G1 X-56.207 Y41.526 F400.000
G1 X-56.207 Y41.526 F400.000
G1 X-56.056 Y41.540 F400.000
G1 X-55.906 Y41.582 F400.000
G1 X-55.840 Y41.620 F400.000
G1 X-55.700 Y41.789 F400.000
G1 X-55.629 Y41.920 F400.000
G1 X-55.587 Y42.061 F400.000
G1 X-55.573 Y42.272 F400.000
G1 X-55.601 Y42.413 F400.000
G1 X-55.629 Y42.479 F400.000
G1 X-55.681 Y42.526 F400.000
G1 X-55.681 Y42.526 F400.000
G1 X-55.826 Y42.493 F400.000
G1 X-55.920 Y42.427 F400.000
G0 X-55.944 Y42.399
G0 X-56.117 Y41.850
G1 X-56.131 Y41.808 F400.000
G1 X-56.155 Y41.685 F400.000
G1 X-56.131 Y41.624 F400.000
G1 X-56.047 Y41.559 F400.000
G1 X-55.906 Y41.526 F400.000
G1 X-55.906 Y41.526 F400.000
G1 X-55.681 Y41.554 F400.000
G1 X-55.535 Y41.610 F400.000
G1 X-55.479 Y41.657 F400.000
G1 X-55.352 Y41.840 F400.000
G1 X-55.291 Y41.977 F400.000
G1 X-55.249 Y42.188 F400.000
G1 X-55.258 Y42.329 F400.000
G1 X-55.300 Y42.465 F400.000
G1 X-55.352 Y42.516 F400.000
G1 X-55.423 Y42.531 F400.000
G1 X-55.423 Y42.531 F400.000
G1 X-55.568 Y42.498 F400.000
G1 X-55.662 Y42.432 F400.000
G0 X-55.685 Y42.404
G0 X-55.831 Y41.850
G1 X-55.840 Y41.808 F400.000
G1 X-55.854 Y41.685 F400.000
G1 X-55.831 Y41.624 F400.000
G1 X-55.746 Y41.559 F400.000
G1 X-55.606 Y41.526 F400.000
G1 X-55.606 Y41.526 F400.000
G1 X-55.380 Y41.549 F400.000
G1 X-55.235 Y41.596 F400.000
G1 X-55.174 Y41.638 F400.000
G1 X-55.075 Y41.756 F400.000
G1 X-54.977 Y41.948 F400.000
G1 X-54.930 Y42.160 F400.000
G1 X-54.930 Y42.300 F400.000
G1 X-54.967 Y42.437 F400.000
G1 X-55.000 Y42.502 F400.000
G1 X-55.066 Y42.531 F400.000
G1 X-55.066 Y42.531 F400.000
G1 X-55.211 Y42.498 F400.000
G1 X-55.305 Y42.432 F400.000
G0 X-55.329 Y42.404
G0 X-55.512 Y41.850
G1 X-55.526 Y41.808 F400.000
G1 X-55.549 Y41.685 F400.000
G1 X-55.531 Y41.624 F400.000
G1 X-55.446 Y41.559 F400.000
G1 X-55.305 Y41.526 F400.000
G1 X-55.305 Y41.526 F400.000
G1 X-55.080 Y41.540 F400.000
G1 X-54.934 Y41.582 F400.000
G1 X-54.869 Y41.620 F400.000
G1 X-54.728 Y41.789 F400.000
G1 X-54.657 Y41.920 F400.000
G1 X-54.601 Y42.131 F400.000
G1 X-54.596 Y42.272 F400.000
G1 X-54.606 Y42.343 F400.000
G1 X-54.657 Y42.479 F400.000
G1 X-54.709 Y42.526 F400.000
G1 X-54.709 Y42.526 F400.000
G1 X-54.854 Y42.493 F400.000
G1 X-54.948 Y42.427 F400.000
G0 X-54.972 Y42.399
G0 X-55.141 Y41.850
G1 X-55.155 Y41.808 F400.000
G1 X-55.178 Y41.685 F400.000
G1 X-55.155 Y41.624 F400.000
G1 X-55.070 Y41.559 F400.000
G1 X-54.930 Y41.526 F400.000
G1 X-54.930 Y41.526 F400.000
G1 X-54.704 Y41.554 F400.000
G1 X-54.559 Y41.610 F400.000
G1 X-54.502 Y41.657 F400.000
G1 X-54.376 Y41.840 F400.000
G1 X-54.300 Y42.047 F400.000
G1 X-54.277 Y42.188 F400.000
G1 X-54.286 Y42.329 F400.000
G1 X-54.333 Y42.465 F400.000
G1 X-54.380 Y42.516 F400.000
G1 X-54.451 Y42.531 F400.000
G1 X-54.451 Y42.531 F400.000
G1 X-54.596 Y42.498 F400.000
G1 X-54.690 Y42.432 F400.000
G0 X-54.714 Y42.404
G0 X-54.859 Y41.850
G1 X-54.869 Y41.808 F400.000
G1 X-54.883 Y41.685 F400.000
G1 X-54.859 Y41.624 F400.000
G1 X-54.775 Y41.559 F400.000
G1 X-54.634 Y41.526 F400.000
G1 X-54.634 Y41.526 F400.000
G1 X-54.408 Y41.549 F400.000
G1 X-54.263 Y41.596 F400.000
G1 X-54.202 Y41.638 F400.000
G1 X-54.066 Y41.817 F400.000
G1 X-54.005 Y41.953 F400.000
G1 X-53.962 Y42.164 F400.000
G1 X-53.967 Y42.305 F400.000
G1 X-54.005 Y42.441 F400.000
G1 X-54.042 Y42.502 F400.000
G1 X-54.108 Y42.531 F400.000
G1 X-54.108 Y42.531 F400.000
G1 X-54.254 Y42.498 F400.000
G1 X-54.347 Y42.432 F400.000
G0 X-54.371 Y42.404
G0 X-54.545 Y41.850
G1 X-54.559 Y41.808 F400.000
G1 X-54.582 Y41.685 F400.000
G1 X-54.559 Y41.624 F400.000
G1 X-54.474 Y41.559 F400.000
G1 X-54.333 Y41.526 F400.000
G1 X-54.333 Y41.526 F400.000
G1 X-54.108 Y41.540 F400.000
G1 X-53.962 Y41.587 F400.000
G1 X-53.897 Y41.624 F400.000
G1 X-53.756 Y41.798 F400.000
G1 X-53.690 Y41.934 F400.000
G1 X-53.643 Y42.146 F400.000
G1 X-53.643 Y42.286 F400.000
G1 X-53.681 Y42.427 F400.000
G1 X-53.714 Y42.493 F400.000
G1 X-53.775 Y42.531 F400.000
G1 X-53.775 Y42.531 F400.000
G1 X-53.920 Y42.498 F400.000
G1 X-54.014 Y42.432 F400.000
G0 X-54.038 Y42.404
G0 X-54.183 Y41.850
G1 X-54.192 Y41.808 F400.000
G1 X-54.207 Y41.685 F400.000
G1 X-54.183 Y41.624 F400.000
G1 X-54.099 Y41.559 F400.000
G1 X-53.958 Y41.526 F400.000
G1 X-53.958 Y41.526 F400.000
G1 X-53.732 Y41.554 F400.000
G1 X-53.592 Y41.610 F400.000
G1 X-53.488 Y41.718 F400.000
G1 X-53.408 Y41.845 F400.000
G1 X-53.338 Y42.052 F400.000
G1 X-53.319 Y42.263 F400.000
G1 X-53.347 Y42.404 F400.000
G1 X-53.376 Y42.469 F400.000
G1 X-53.427 Y42.521 F400.000
G1 X-53.498 Y42.531 F400.000
G1 X-53.498 Y42.531 F400.000
G1 X-53.643 Y42.498 F400.000
G1 X-53.737 Y42.432 F400.000
G0 X-53.756 Y42.404
G0 X-53.887 Y41.854
G1 X-53.897 Y41.812 F400.000
G1 X-53.911 Y41.690 F400.000
G1 X-53.883 Y41.624 F400.000
G1 X-53.798 Y41.559 F400.000
G1 X-53.657 Y41.526 F400.000
G1 X-53.657 Y41.526 F400.000
G1 X-53.432 Y41.549 F400.000
G1 X-53.286 Y41.606 F400.000
G1 X-53.225 Y41.653 F400.000
G1 X-53.099 Y41.831 F400.000
G1 X-53.023 Y42.038 F400.000
G1 X-53.000 Y42.178 F400.000
G1 X-53.005 Y42.319 F400.000
G1 X-53.047 Y42.455 F400.000
G1 X-53.094 Y42.507 F400.000
G1 X-53.160 Y42.531 F400.000
G1 X-53.160 Y42.531 F400.000
G1 X-53.305 Y42.498 F400.000
G1 X-53.399 Y42.432 F400.000
G0 X-53.423 Y42.404
G0 X-53.577 Y41.850
G1 X-53.587 Y41.808 F400.000
G1 X-53.606 Y41.685 F400.000
G1 X-53.582 Y41.624 F400.000
G1 X-53.498 Y41.559 F400.000
G1 X-53.357 Y41.526 F400.000
G1 X-53.357 Y41.526 F400.000
G1 X-53.131 Y41.549 F400.000
G1 X-52.986 Y41.596 F400.000
G1 X-52.925 Y41.638 F400.000
G1 X-52.826 Y41.756 F400.000
G1 X-52.728 Y41.948 F400.000
G1 X-52.681 Y42.160 F400.000
G1 X-52.685 Y42.300 F400.000
G1 X-52.728 Y42.437 F400.000
G1 X-52.761 Y42.502 F400.000
G1 X-52.826 Y42.531 F400.000
G1 X-52.826 Y42.531 F400.000
G1 X-52.972 Y42.498 F400.000
G1 X-53.066 Y42.432 F400.000
G0 X-53.089 Y42.404
G0 X-53.268 Y41.850
G1 X-53.282 Y41.808 F400.000
G1 X-53.305 Y41.685 F400.000
G1 X-53.286 Y41.624 F400.000
G1 X-53.202 Y41.559 F400.000
G1 X-53.061 Y41.526 F400.000
G1 X-53.061 Y41.526 F400.000
G1 X-52.836 Y41.540 F400.000
G1 X-52.690 Y41.582 F400.000
G1 X-52.624 Y41.620 F400.000
G1 X-52.484 Y41.789 F400.000
G1 X-52.418 Y41.920 F400.000
G1 X-52.362 Y42.131 F400.000
G1 X-52.371 Y42.343 F400.000
G1 X-52.418 Y42.479 F400.000
G1 X-52.474 Y42.526 F400.000
G1 X-52.545 Y42.531 F400.000
G1 X-52.545 Y42.531 F400.000
G1 X-52.690 Y42.498 F400.000
G1 X-52.784 Y42.432 F400.000
G0 X-52.803 Y42.404
G0 X-52.920 Y41.854
G1 X-52.930 Y41.812 F400.000
G1 X-52.939 Y41.690 F400.000
G1 X-52.911 Y41.624 F400.000
G1 X-52.826 Y41.559 F400.000
G1 X-52.685 Y41.526 F400.000
G1 X-52.685 Y41.526 F400.000
G1 X-52.460 Y41.554 F400.000
G1 X-52.315 Y41.610 F400.000
G1 X-52.211 Y41.718 F400.000
G1 X-52.099 Y41.911 F400.000
G1 X-52.042 Y42.122 F400.000
G1 X-52.038 Y42.263 F400.000
G1 X-52.066 Y42.404 F400.000
G1 X-52.094 Y42.469 F400.000
G1 X-52.146 Y42.521 F400.000
G1 X-52.216 Y42.531 F400.000
G1 X-52.216 Y42.531 F400.000
G1 X-52.362 Y42.498 F400.000
G1 X-52.455 Y42.432 F400.000
G0 X-52.479 Y42.404
G0 X-52.610 Y41.854
G1 X-52.620 Y41.822 F400.000
G1 X-52.638 Y41.676 F400.000
G1 X-52.610 Y41.620 F400.000
G1 X-52.526 Y41.559 F400.000
G1 X-52.385 Y41.526 F400.000
G1 X-52.385 Y41.526 F400.000
G1 X-52.160 Y41.549 F400.000
G1 X-52.014 Y41.601 F400.000
G1 X-51.953 Y41.643 F400.000
G1 X-51.859 Y41.761 F400.000
G1 X-51.789 Y41.892 F400.000
G1 X-51.732 Y42.103 F400.000
G1 X-51.728 Y42.315 F400.000
G1 X-51.765 Y42.451 F400.000
G1 X-51.812 Y42.507 F400.000
G1 X-51.878 Y42.531 F400.000
G1 X-51.878 Y42.531 F400.000
G1 X-52.023 Y42.498 F400.000
G1 X-52.117 Y42.432 F400.000
G0 X-52.141 Y42.404
G0 X-52.305 Y41.850
G1 X-52.315 Y41.808 F400.000
G1 X-52.333 Y41.685 F400.000
G1 X-52.310 Y41.624 F400.000
G1 X-52.225 Y41.559 F400.000
G1 X-52.085 Y41.526 F400.000
G1 X-52.085 Y41.526 F400.000
G1 X-51.859 Y41.545 F400.000
G1 X-51.714 Y41.592 F400.000
G1 X-51.648 Y41.634 F400.000
G1 X-51.507 Y41.812 F400.000
G1 X-51.423 Y42.019 F400.000
G1 X-51.394 Y42.230 F400.000
G1 X-51.399 Y42.300 F400.000
G1 X-51.441 Y42.437 F400.000
G1 X-51.474 Y42.502 F400.000
G1 X-51.540 Y42.531 F400.000
G1 X-51.540 Y42.531 F400.000
G1 X-51.685 Y42.498 F400.000
G1 X-51.779 Y42.432 F400.000
G0 X-51.803 Y42.404
G0 X-51.939 Y41.850
G1 X-51.948 Y41.808 F400.000
G1 X-51.962 Y41.685 F400.000
G1 X-51.939 Y41.624 F400.000
G1 X-51.854 Y41.559 F400.000
G1 X-51.714 Y41.526 F400.000
G1 X-51.714 Y41.526 F400.000
G1 X-51.488 Y41.554 F400.000
G1 X-51.347 Y41.610 F400.000
G1 X-51.244 Y41.718 F400.000
G1 X-51.164 Y41.845 F400.000
G1 X-51.094 Y42.056 F400.000
G1 X-51.075 Y42.268 F400.000
G1 X-51.103 Y42.408 F400.000
G1 X-51.131 Y42.474 F400.000
G1 X-51.183 Y42.521 F400.000
G1 X-51.254 Y42.531 F400.000
G1 X-51.254 Y42.531 F400.000
G1 X-51.399 Y42.498 F400.000
G1 X-51.493 Y42.432 F400.000
G0 X-51.512 Y42.404
G0 X-51.643 Y41.854
G1 X-51.653 Y41.812 F400.000
G1 X-51.667 Y41.690 F400.000
G1 X-51.638 Y41.624 F400.000
G1 X-51.554 Y41.559 F400.000
G1 X-51.413 Y41.526 F400.000
G1 X-51.413 Y41.526 F400.000
G1 X-51.188 Y41.554 F400.000
G1 X-51.042 Y41.610 F400.000
G1 X-50.986 Y41.657 F400.000
G1 X-50.859 Y41.840 F400.000
G1 X-50.779 Y42.047 F400.000
G1 X-50.756 Y42.188 F400.000
G1 X-50.765 Y42.329 F400.000
G1 X-50.812 Y42.465 F400.000
G1 X-50.859 Y42.516 F400.000
G1 X-50.930 Y42.531 F400.000
G1 X-50.930 Y42.531 F400.000
G1 X-51.075 Y42.498 F400.000
G1 X-51.169 Y42.432 F400.000
G0 X-51.192 Y42.404
G0 X-51.338 Y41.850
G1 X-51.347 Y41.808 F400.000
G1 X-51.362 Y41.685 F400.000
G1 X-51.338 Y41.624 F400.000
G1 X-51.254 Y41.559 F400.000
G1 X-51.113 Y41.526 F400.000
G1 X-51.113 Y41.526 F400.000
G1 X-50.887 Y41.549 F400.000
G1 X-50.742 Y41.601 F400.000
G1 X-50.676 Y41.643 F400.000
G1 X-50.549 Y41.822 F400.000
G1 X-50.465 Y42.028 F400.000
G1 X-50.441 Y42.169 F400.000
G1 X-50.446 Y42.310 F400.000
G1 X-50.488 Y42.446 F400.000
G1 X-50.531 Y42.502 F400.000
G1 X-50.596 Y42.531 F400.000
G1 X-50.596 Y42.531 F400.000
G1 X-50.742 Y42.498 F400.000
G1 X-50.836 Y42.432 F400.000
G0 X-50.859 Y42.404
G0 X-51.028 Y41.850
G1 X-51.038 Y41.808 F400.000
G1 X-51.061 Y41.685 F400.000
G1 X-51.038 Y41.624 F400.000
G1 X-50.953 Y41.559 F400.000
G1 X-50.812 Y41.526 F400.000
G1 X-50.812 Y41.526 F400.000
G1 X-50.587 Y41.540 F400.000
G1 X-50.441 Y41.582 F400.000
G1 X-50.376 Y41.620 F400.000
G1 X-50.235 Y41.798 F400.000
G1 X-50.150 Y42.005 F400.000
G1 X-50.117 Y42.216 F400.000
G1 X-50.136 Y42.357 F400.000
G1 X-50.192 Y42.493 F400.000
G1 X-50.254 Y42.531 F400.000
G1 X-50.254 Y42.531 F400.000
G1 X-50.399 Y42.498 F400.000
G1 X-50.493 Y42.432 F400.000
G0 X-50.516 Y42.404
G0 X-50.662 Y41.850
G1 X-50.671 Y41.808 F400.000
G1 X-50.685 Y41.685 F400.000
G1 X-50.662 Y41.624 F400.000
G1 X-50.577 Y41.559 F400.000
G1 X-50.437 Y41.526 F400.000
G1 X-50.437 Y41.526 F400.000
G1 X-50.211 Y41.554 F400.000
G1 X-50.070 Y41.610 F400.000
G1 X-49.967 Y41.718 F400.000
G1 X-49.887 Y41.845 F400.000
G1 X-49.817 Y42.052 F400.000
G1 X-49.798 Y42.263 F400.000
G1 X-49.826 Y42.404 F400.000
G1 X-49.854 Y42.469 F400.000
G1 X-49.906 Y42.516 F400.000
G1 X-49.977 Y42.531 F400.000
G1 X-49.977 Y42.531 F400.000
G1 X-50.122 Y42.498 F400.000
G1 X-50.216 Y42.432 F400.000
G0 X-50.235 Y42.404
G0 X-50.366 Y41.854
G1 X-50.376 Y41.822 F400.000
G1 X-50.394 Y41.676 F400.000
G1 X-50.366 Y41.620 F400.000
G1 X-50.282 Y41.559 F400.000
G1 X-50.141 Y41.526 F400.000
G1 X-50.141 Y41.526 F400.000
G1 X-49.915 Y41.549 F400.000
G1 X-49.770 Y41.606 F400.000
G1 X-49.709 Y41.653 F400.000
G1 X-49.582 Y41.831 F400.000
G1 X-49.507 Y42.038 F400.000
G1 X-49.484 Y42.178 F400.000
G1 X-49.488 Y42.319 F400.000
G1 X-49.531 Y42.455 F400.000
G1 X-49.577 Y42.507 F400.000
G1 X-49.648 Y42.531 F400.000
G1 X-49.648 Y42.531 F400.000
G1 X-49.793 Y42.498 F400.000
G1 X-49.887 Y42.432 F400.000
G0 X-49.911 Y42.404
G0 X-50.061 Y41.850
G1 X-50.070 Y41.808 F400.000
G1 X-50.089 Y41.685 F400.000
G1 X-50.066 Y41.624 F400.000
G1 X-49.981 Y41.559 F400.000
G1 X-49.840 Y41.526 F400.000
G1 X-49.840 Y41.526 F400.000
G1 X-49.615 Y41.549 F400.000
G1 X-49.469 Y41.596 F400.000
G1 X-49.408 Y41.638 F400.000
G1 X-49.310 Y41.756 F400.000
G1 X-49.211 Y41.948 F400.000
G1 X-49.164 Y42.160 F400.000
G1 X-49.169 Y42.300 F400.000
G1 X-49.207 Y42.437 F400.000
G1 X-49.239 Y42.498 F400.000
G1 X-49.300 Y42.531 F400.000
G1 X-49.371 Y42.531 F400.000
G1 X-49.371 Y42.531 F400.000
G1 X-49.516 Y42.498 F400.000
G1 X-49.610 Y42.432 F400.000
G0 X-49.634 Y42.404
G0 X-49.765 Y41.854
G1 X-49.775 Y41.822 F400.000
G1 X-49.793 Y41.676 F400.000
G1 X-49.765 Y41.620 F400.000
G1 X-49.681 Y41.559 F400.000
G1 X-49.540 Y41.526 F400.000
G1 X-49.540 Y41.526 F400.000
G1 X-49.315 Y41.540 F400.000
G1 X-49.169 Y41.582 F400.000
G1 X-49.103 Y41.620 F400.000
G1 X-48.962 Y41.793 F400.000
G1 X-48.897 Y41.925 F400.000
G1 X-48.854 Y42.066 F400.000
G1 X-48.840 Y42.207 F400.000
G1 X-48.854 Y42.347 F400.000
G1 X-48.906 Y42.484 F400.000
G1 X-48.962 Y42.526 F400.000
G1 X-48.962 Y42.526 F400.000
G1 X-49.108 Y42.493 F400.000
G1 X-49.202 Y42.427 F400.000
G0 X-49.225 Y42.399
G0 X-49.385 Y41.850
G1 X-49.394 Y41.808 F400.000
G1 X-49.413 Y41.685 F400.000
G1 X-49.390 Y41.624 F400.000
G1 X-49.305 Y41.559 F400.000
G1 X-49.164 Y41.526 F400.000
G1 X-49.164 Y41.526 F400.000
G1 X-48.939 Y41.554 F400.000
G1 X-48.798 Y41.610 F400.000
G1 X-48.695 Y41.718 F400.000
G1 X-48.582 Y41.911 F400.000
G1 X-48.526 Y42.122 F400.000
G1 X-48.521 Y42.263 F400.000
G1 X-48.549 Y42.404 F400.000
G1 X-48.577 Y42.469 F400.000
G1 X-48.629 Y42.516 F400.000
G1 X-48.700 Y42.531 F400.000
G1 X-48.700 Y42.531 F400.000
G1 X-48.845 Y42.498 F400.000
G1 X-48.939 Y42.432 F400.000
G0 X-48.958 Y42.404
G0 X-49.089 Y41.854
G1 X-49.099 Y41.822 F400.000
G1 X-49.117 Y41.676 F400.000
G1 X-49.089 Y41.620 F400.000
G1 X-49.005 Y41.559 F400.000
G1 X-48.864 Y41.526 F400.000
G1 X-48.864 Y41.526 F400.000
G1 X-48.638 Y41.549 F400.000
G1 X-48.493 Y41.596 F400.000
G1 X-48.432 Y41.638 F400.000
G1 X-48.305 Y41.822 F400.000
G1 X-48.244 Y41.958 F400.000
G1 X-48.202 Y42.169 F400.000
G1 X-48.207 Y42.310 F400.000
G1 X-48.254 Y42.446 F400.000
G1 X-48.296 Y42.502 F400.000
G1 X-48.362 Y42.531 F400.000
G1 X-48.362 Y42.531 F400.000
G1 X-48.507 Y42.498 F400.000
G1 X-48.601 Y42.432 F400.000
G0 X-48.624 Y42.404
G0 X-48.789 Y41.850
G1 X-48.798 Y41.808 F400.000
G1 X-48.817 Y41.685 F400.000
G1 X-48.793 Y41.624 F400.000
G1 X-48.709 Y41.559 F400.000
G1 X-48.568 Y41.526 F400.000
G1 X-48.568 Y41.526 F400.000
G1 X-48.343 Y41.545 F400.000
G1 X-48.197 Y41.592 F400.000
G1 X-48.131 Y41.634 F400.000
G1 X-47.991 Y41.808 F400.000
G1 X-47.930 Y41.939 F400.000
G1 X-47.887 Y42.150 F400.000
G1 X-47.887 Y42.291 F400.000
G1 X-47.925 Y42.427 F400.000
G1 X-47.958 Y42.488 F400.000
G1 X-48.019 Y42.531 F400.000
G1 X-48.019 Y42.531 F400.000
G1 X-48.164 Y42.498 F400.000
G1 X-48.258 Y42.432 F400.000
G0 X-48.282 Y42.404
G0 X-48.418 Y41.850
G1 X-48.427 Y41.808 F400.000
G1 X-48.441 Y41.685 F400.000
G1 X-48.418 Y41.624 F400.000
G1 X-48.333 Y41.559 F400.000
G1 X-48.192 Y41.526 F400.000
G1 X-48.192 Y41.526 F400.000
G1 X-48.042 Y41.540 F400.000
G1 X-47.897 Y41.582 F400.000
G1 X-47.831 Y41.620 F400.000
G1 X-47.690 Y41.789 F400.000
G1 X-47.624 Y41.920 F400.000
G1 X-47.568 Y42.131 F400.000
G1 X-47.563 Y42.272 F400.000
G1 X-47.601 Y42.413 F400.000
G1 X-47.629 Y42.479 F400.000
G1 X-47.685 Y42.526 F400.000
G1 X-47.756 Y42.531 F400.000
G1 X-47.756 Y42.531 F400.000
G1 X-47.901 Y42.498 F400.000
G1 X-47.995 Y42.432 F400.000
G0 X-48.014 Y42.404
G0 X-48.127 Y41.854
G1 X-48.136 Y41.812 F400.000
G1 X-48.146 Y41.690 F400.000
G1 X-48.117 Y41.624 F400.000
G1 X-48.033 Y41.559 F400.000
G1 X-47.892 Y41.526 F400.000
G1 X-47.892 Y41.526 F400.000
G1 X-47.667 Y41.554 F400.000
G1 X-47.521 Y41.610 F400.000
G1 X-47.418 Y41.718 F400.000
G1 X-47.305 Y41.911 F400.000
G1 X-47.249 Y42.122 F400.000
G1 X-47.244 Y42.263 F400.000
G1 X-47.272 Y42.404 F400.000
G1 X-47.300 Y42.469 F400.000
G1 X-47.352 Y42.516 F400.000
G1 X-47.423 Y42.531 F400.000
G1 X-47.423 Y42.531 F400.000
G1 X-47.568 Y42.498 F400.000
G1 X-47.662 Y42.432 F400.000
G0 X-47.685 Y42.404
G0 X-47.817 Y41.854
G1 X-47.826 Y41.822 F400.000
G1 X-47.845 Y41.676 F400.000
G1 X-47.817 Y41.620 F400.000
G1 X-47.732 Y41.559 F400.000
G1 X-47.592 Y41.526 F400.000
G1 X-47.592 Y41.526 F400.000
G1 X-47.366 Y41.549 F400.000
G1 X-47.221 Y41.601 F400.000
G1 X-47.160 Y41.643 F400.000
G1 X-47.066 Y41.761 F400.000
G1 X-46.967 Y41.962 F400.000
G1 X-46.925 Y42.174 F400.000
G1 X-46.948 Y42.385 F400.000
G1 X-46.977 Y42.451 F400.000
G1 X-47.023 Y42.507 F400.000
G1 X-47.089 Y42.531 F400.000
G1 X-47.089 Y42.531 F400.000
G1 X-47.235 Y42.498 F400.000
G1 X-47.329 Y42.432 F400.000
G0 X-47.352 Y42.404
G0 X-47.512 Y41.850
G1 X-47.521 Y41.808 F400.000
G1 X-47.540 Y41.685 F400.000
G1 X-47.516 Y41.624 F400.000
G1 X-47.432 Y41.559 F400.000
G1 X-47.291 Y41.526 F400.000
G1 X-47.291 Y41.526 F400.000
G1 X-47.066 Y41.545 F400.000
G1 X-46.920 Y41.592 F400.000
G1 X-46.854 Y41.629 F400.000
G1 X-46.714 Y41.808 F400.000
G1 X-46.629 Y42.014 F400.000
G1 X-46.606 Y42.155 F400.000
G1 X-46.610 Y42.296 F400.000
G1 X-46.648 Y42.432 F400.000
G1 X-46.681 Y42.493 F400.000
G1 X-46.742 Y42.531 F400.000
G1 X-46.742 Y42.531 F400.000
G1 X-46.887 Y42.498 F400.000
G1 X-46.981 Y42.432 F400.000
G0 X-47.005 Y42.404
G0 X-47.146 Y41.850
G1 X-47.155 Y41.808 F400.000
G1 X-47.169 Y41.685 F400.000
G1 X-47.146 Y41.624 F400.000
G1 X-47.061 Y41.559 F400.000
G1 X-46.920 Y41.526 F400.000
G1 X-46.920 Y41.526 F400.000
G1 X-46.695 Y41.554 F400.000
G1 X-46.554 Y41.610 F400.000
G1 X-46.498 Y41.662 F400.000
G1 X-46.408 Y41.784 F400.000
G1 X-46.343 Y41.915 F400.000
G1 X-46.300 Y42.056 F400.000
G1 X-46.286 Y42.268 F400.000
G1 X-46.315 Y42.408 F400.000
G1 X-46.343 Y42.474 F400.000
G1 X-46.399 Y42.521 F400.000
G1 X-46.469 Y42.531 F400.000
G1 X-46.469 Y42.531 F400.000
G1 X-46.615 Y42.498 F400.000
G1 X-46.709 Y42.432 F400.000
G0 X-46.728 Y42.404
G0 X-46.850 Y41.854
G1 X-46.859 Y41.812 F400.000
G1 X-46.873 Y41.690 F400.000
G1 X-46.845 Y41.624 F400.000
G1 X-46.761 Y41.559 F400.000
G1 X-46.620 Y41.526 F400.000
G1 X-46.620 Y41.526 F400.000
G1 X-46.394 Y41.549 F400.000
G1 X-46.249 Y41.606 F400.000
G1 X-46.192 Y41.653 F400.000
G1 X-46.066 Y41.836 F400.000
G1 X-45.991 Y42.042 F400.000
G1 X-45.967 Y42.183 F400.000
G1 X-45.977 Y42.324 F400.000
G1 X-46.023 Y42.460 F400.000
G1 X-46.070 Y42.516 F400.000
G1 X-46.141 Y42.531 F400.000
G1 X-46.141 Y42.531 F400.000
G1 X-46.286 Y42.498 F400.000
G1 X-46.380 Y42.432 F400.000
G0 X-46.404 Y42.404
G0 X-46.545 Y41.850
G1 X-46.554 Y41.808 F400.000
G1 X-46.568 Y41.685 F400.000
G1 X-46.545 Y41.624 F400.000
G1 X-46.460 Y41.559 F400.000
G1 X-46.319 Y41.526 F400.000
G1 X-46.319 Y41.526 F400.000
G1 X-46.094 Y41.545 F400.000
G1 X-45.948 Y41.592 F400.000
G1 X-45.883 Y41.629 F400.000
G1 X-45.784 Y41.746 F400.000
G1 X-45.685 Y41.948 F400.000
G1 X-45.643 Y42.160 F400.000
G1 X-45.648 Y42.300 F400.000
G1 X-45.685 Y42.437 F400.000
G1 X-45.723 Y42.498 F400.000
G1 X-45.789 Y42.531 F400.000
G1 X-45.789 Y42.531 F400.000
G1 X-45.934 Y42.498 F400.000
G1 X-46.028 Y42.432 F400.000
G0 X-46.047 Y42.404
G0 X-46.174 Y41.854
G1 X-46.183 Y41.812 F400.000
G1 X-46.197 Y41.690 F400.000
G1 X-46.169 Y41.624 F400.000
G1 X-46.085 Y41.559 F400.000
G1 X-45.944 Y41.526 F400.000
G1 X-45.944 Y41.526 F400.000
G1 X-45.793 Y41.540 F400.000
G1 X-45.648 Y41.582 F400.000
G1 X-45.582 Y41.620 F400.000
G1 X-45.441 Y41.793 F400.000
G1 X-45.376 Y41.925 F400.000
G1 X-45.329 Y42.136 F400.000
G1 X-45.338 Y42.347 F400.000
G1 X-45.390 Y42.484 F400.000
G1 X-45.446 Y42.526 F400.000
G1 X-45.516 Y42.531 F400.000
G1 X-45.516 Y42.531 F400.000
G1 X-45.662 Y42.498 F400.000
G1 X-45.756 Y42.432 F400.000
G0 X-45.775 Y42.404
G0 X-45.883 Y41.854
G1 X-45.892 Y41.812 F400.000
G1 X-45.901 Y41.690 F400.000
G1 X-45.873 Y41.624 F400.000
G1 X-45.789 Y41.559 F400.000
G1 X-45.648 Y41.526 F400.000
G1 X-45.648 Y41.526 F400.000
G1 X-45.423 Y41.554 F400.000
G1 X-45.282 Y41.610 F400.000
G1 X-45.225 Y41.662 F400.000
G1 X-45.099 Y41.845 F400.000
G1 X-45.023 Y42.052 F400.000
G1 X-45.005 Y42.263 F400.000
G1 X-45.033 Y42.404 F400.000
G1 X-45.061 Y42.469 F400.000
G1 X-45.113 Y42.516 F400.000
G1 X-45.183 Y42.531 F400.000
G1 X-45.183 Y42.531 F400.000
G1 X-45.329 Y42.498 F400.000
G1 X-45.423 Y42.432 F400.000
G0 X-45.441 Y42.404
G0 X-45.573 Y41.854
G1 X-45.582 Y41.822 F400.000
G1 X-45.601 Y41.676 F400.000
G1 X-45.573 Y41.620 F400.000
G1 X-45.488 Y41.559 F400.000
G1 X-45.347 Y41.526 F400.000
G1 X-45.347 Y41.526 F400.000
G1 X-45.122 Y41.549 F400.000
G1 X-44.977 Y41.596 F400.000
G1 X-44.915 Y41.638 F400.000
G1 X-44.822 Y41.756 F400.000
G1 X-44.723 Y41.958 F400.000
G1 X-44.681 Y42.169 F400.000
G1 X-44.704 Y42.380 F400.000
G1 X-44.732 Y42.446 F400.000
G1 X-44.775 Y42.502 F400.000
G1 X-44.840 Y42.531 F400.000
G1 X-44.840 Y42.531 F400.000
G1 X-44.986 Y42.498 F400.000
G1 X-45.080 Y42.432 F400.000
G0 X-45.103 Y42.404
G0 X-45.268 Y41.850
G1 X-45.277 Y41.808 F400.000
G1 X-45.296 Y41.685 F400.000
G1 X-45.272 Y41.624 F400.000
G1 X-45.188 Y41.559 F400.000
G1 X-45.047 Y41.526 F400.000
G1 X-45.047 Y41.526 F400.000
G1 X-44.822 Y41.545 F400.000
G1 X-44.676 Y41.592 F400.000
G1 X-44.610 Y41.629 F400.000
G1 X-44.469 Y41.808 F400.000
G1 X-44.408 Y41.939 F400.000
G1 X-44.362 Y42.150 F400.000
G1 X-44.366 Y42.291 F400.000
G1 X-44.404 Y42.432 F400.000
G1 X-44.437 Y42.493 F400.000
G1 X-44.498 Y42.531 F400.000
G1 X-44.498 Y42.531 F400.000
G1 X-44.643 Y42.498 F400.000
G1 X-44.737 Y42.432 F400.000
G0 X-44.761 Y42.404
G0 X-44.897 Y41.850
G1 X-44.906 Y41.808 F400.000
G1 X-44.920 Y41.685 F400.000
G1 X-44.897 Y41.624 F400.000
G1 X-44.812 Y41.559 F400.000
G1 X-44.671 Y41.526 F400.000
G1 X-44.671 Y41.526 F400.000
G1 X-44.521 Y41.540 F400.000
G1 X-44.376 Y41.582 F400.000
G1 X-44.310 Y41.615 F400.000
G1 X-44.207 Y41.723 F400.000
G1 X-44.127 Y41.850 F400.000
G1 X-44.056 Y42.056 F400.000
G1 X-44.038 Y42.268 F400.000
G1 X-44.070 Y42.408 F400.000
G1 X-44.099 Y42.474 F400.000
G1 X-44.150 Y42.521 F400.000
G1 X-44.221 Y42.531 F400.000
G1 X-44.221 Y42.531 F400.000
G1 X-44.366 Y42.498 F400.000
G1 X-44.460 Y42.432 F400.000
G0 X-44.479 Y42.404
G0 X-44.601 Y41.854
G1 X-44.610 Y41.812 F400.000
G1 X-44.624 Y41.690 F400.000
G1 X-44.596 Y41.624 F400.000
G1 X-44.512 Y41.559 F400.000
G1 X-44.371 Y41.526 F400.000
G1 X-44.371 Y41.526 F400.000
G1 X-44.146 Y41.554 F400.000
G1 X-44.000 Y41.610 F400.000
G1 X-43.944 Y41.657 F400.000
G1 X-43.817 Y41.840 F400.000
G1 X-43.742 Y42.047 F400.000
G1 X-43.718 Y42.188 F400.000
G1 X-43.728 Y42.329 F400.000
G1 X-43.775 Y42.465 F400.000
G1 X-43.826 Y42.516 F400.000
G1 X-43.897 Y42.531 F400.000
G1 X-43.897 Y42.531 F400.000
G1 X-44.042 Y42.498 F400.000
G1 X-44.136 Y42.432 F400.000
G0 X-44.160 Y42.404
G0 X-44.300 Y41.850
G1 X-44.310 Y41.808 F400.000
G1 X-44.324 Y41.685 F400.000
G1 X-44.300 Y41.624 F400.000
G1 X-44.216 Y41.559 F400.000
G1 X-44.075 Y41.526 F400.000
G1 X-44.075 Y41.526 F400.000
G1 X-43.850 Y41.549 F400.000
G1 X-43.704 Y41.596 F400.000
G1 X-43.643 Y41.638 F400.000
G1 X-43.507 Y41.817 F400.000
G1 X-43.446 Y41.953 F400.000
G1 X-43.404 Y42.164 F400.000
G1 X-43.408 Y42.305 F400.000
G1 X-43.446 Y42.441 F400.000
G1 X-43.484 Y42.502 F400.000
G1 X-43.549 Y42.531 F400.000
G1 X-43.549 Y42.531 F400.000
G1 X-43.695 Y42.498 F400.000
G1 X-43.789 Y42.432 F400.000
G0 X-43.812 Y42.404
G0 X-43.986 Y41.850
G1 X-44.000 Y41.808 F400.000
G1 X-44.023 Y41.685 F400.000
G1 X-44.000 Y41.624 F400.000
G1 X-43.915 Y41.559 F400.000
G1 X-43.775 Y41.526 F400.000
G1 X-43.775 Y41.526 F400.000
G1 X-43.549 Y41.545 F400.000
G1 X-43.404 Y41.592 F400.000
G1 X-43.338 Y41.629 F400.000
G1 X-43.202 Y41.808 F400.000
G1 X-43.117 Y42.009 F400.000
G1 X-43.089 Y42.221 F400.000
G1 X-43.108 Y42.362 F400.000
G1 X-43.164 Y42.493 F400.000
G1 X-43.225 Y42.531 F400.000
G1 X-43.225 Y42.531 F400.000
G1 X-43.371 Y42.498 F400.000
G1 X-43.465 Y42.432 F400.000
G0 X-43.488 Y42.404
G0 X-43.624 Y41.850
G1 X-43.634 Y41.808 F400.000
G1 X-43.648 Y41.685 F400.000
G1 X-43.624 Y41.624 F400.000
G1 X-43.540 Y41.559 F400.000
G1 X-43.399 Y41.526 F400.000
G1 X-43.399 Y41.526 F400.000
G1 X-43.249 Y41.540 F400.000
G1 X-43.103 Y41.582 F400.000
G1 X-43.038 Y41.620 F400.000
G1 X-42.897 Y41.793 F400.000
G1 X-42.826 Y41.925 F400.000
G1 X-42.784 Y42.066 F400.000
G1 X-42.770 Y42.277 F400.000
G1 X-42.808 Y42.418 F400.000
G1 X-42.840 Y42.484 F400.000
G1 X-42.897 Y42.526 F400.000
G1 X-42.967 Y42.531 F400.000
G1 X-42.967 Y42.531 F400.000
G1 X-43.113 Y42.498 F400.000
G1 X-43.207 Y42.432 F400.000
G0 X-43.225 Y42.404
G0 X-43.333 Y41.854
G1 X-43.343 Y41.812 F400.000
G1 X-43.352 Y41.690 F400.000
G1 X-43.324 Y41.624 F400.000
G1 X-43.239 Y41.559 F400.000
G1 X-43.099 Y41.526 F400.000
G1 X-43.099 Y41.526 F400.000
G1 X-42.873 Y41.554 F400.000
G1 X-42.728 Y41.610 F400.000
G1 X-42.624 Y41.718 F400.000
G1 X-42.512 Y41.911 F400.000
G1 X-42.469 Y42.052 F400.000
G1 X-42.455 Y42.263 F400.000
G1 X-42.484 Y42.404 F400.000
G1 X-42.516 Y42.469 F400.000
G1 X-42.568 Y42.521 F400.000
G1 X-42.638 Y42.531 F400.000
G1 X-42.638 Y42.531 F400.000
G1 X-42.784 Y42.498 F400.000
G1 X-42.878 Y42.432 F400.000
G0 X-42.897 Y42.404
G0 X-43.028 Y41.854
G1 X-43.038 Y41.812 F400.000
G1 X-43.052 Y41.690 F400.000
G1 X-43.023 Y41.624 F400.000
G1 X-42.939 Y41.559 F400.000
G1 X-42.798 Y41.526 F400.000
G1 X-42.798 Y41.526 F400.000
G1 X-42.573 Y41.549 F400.000
G1 X-42.427 Y41.596 F400.000
G1 X-42.366 Y41.638 F400.000
G1 X-42.235 Y41.817 F400.000
G1 X-42.174 Y41.953 F400.000
G1 X-42.131 Y42.164 F400.000
G1 X-42.155 Y42.376 F400.000
G1 X-42.221 Y42.502 F400.000
G1 X-42.286 Y42.531 F400.000
G1 X-42.286 Y42.531 F400.000
G1 X-42.432 Y42.498 F400.000
G1 X-42.526 Y42.432 F400.000
G0 X-42.549 Y42.404
G0 X-42.718 Y41.850
G1 X-42.728 Y41.808 F400.000
G1 X-42.751 Y41.685 F400.000
G1 X-42.728 Y41.624 F400.000
G1 X-42.643 Y41.559 F400.000
G1 X-42.502 Y41.526 F400.000
G1 X-42.502 Y41.526 F400.000
G1 X-42.277 Y41.540 F400.000
G1 X-42.131 Y41.582 F400.000
G1 X-42.066 Y41.620 F400.000
G1 X-41.930 Y41.798 F400.000
G1 X-41.845 Y42.005 F400.000
G1 X-41.812 Y42.216 F400.000
G1 X-41.831 Y42.357 F400.000
G1 X-41.887 Y42.488 F400.000
G1 X-41.948 Y42.531 F400.000
G1 X-41.948 Y42.531 F400.000
G1 X-42.094 Y42.498 F400.000
G1 X-42.188 Y42.432 F400.000
G0 X-42.211 Y42.404
G0 X-42.352 Y41.850
G1 X-42.362 Y41.808 F400.000
G1 X-42.376 Y41.685 F400.000
G1 X-42.352 Y41.624 F400.000
G1 X-42.268 Y41.559 F400.000
G1 X-42.127 Y41.526 F400.000
G1 X-42.127 Y41.526 F400.000
G1 X-41.977 Y41.540 F400.000
G1 X-41.831 Y41.582 F400.000
G1 X-41.765 Y41.620 F400.000
G1 X-41.624 Y41.793 F400.000
G1 X-41.554 Y41.925 F400.000
G1 X-41.498 Y42.136 F400.000
G1 X-41.493 Y42.277 F400.000
G1 X-41.502 Y42.347 F400.000
G1 X-41.559 Y42.484 F400.000
G1 X-41.615 Y42.526 F400.000
G1 X-41.685 Y42.531 F400.000
G1 X-41.685 Y42.531 F400.000
G1 X-41.831 Y42.498 F400.000
G1 X-41.925 Y42.432 F400.000
G0 X-41.944 Y42.404
G0 X-42.061 Y41.854
G1 X-42.070 Y41.812 F400.000
G1 X-42.080 Y41.690 F400.000
G1 X-42.052 Y41.624 F400.000
G1 X-41.967 Y41.559 F400.000
G1 X-41.826 Y41.526 F400.000
G1 X-41.826 Y41.526 F400.000
G1 X-41.601 Y41.554 F400.000
G1 X-41.455 Y41.610 F400.000
G1 X-41.399 Y41.657 F400.000
G1 X-41.272 Y41.836 F400.000
G1 X-41.211 Y41.972 F400.000
G1 X-41.178 Y42.113 F400.000
G1 X-41.174 Y42.254 F400.000
G1 X-41.202 Y42.394 F400.000
G1 X-41.230 Y42.460 F400.000
G1 X-41.277 Y42.516 F400.000
G1 X-41.347 Y42.531 F400.000
G1 X-41.347 Y42.531 F400.000
G1 X-41.493 Y42.498 F400.000
G1 X-41.587 Y42.432 F400.000
G0 X-41.610 Y42.404
G0 X-41.751 Y41.850
G1 X-41.761 Y41.808 F400.000
G1 X-41.775 Y41.685 F400.000
G1 X-41.751 Y41.624 F400.000
G1 X-41.667 Y41.559 F400.000
G1 X-41.526 Y41.526 F400.000
G1 X-41.526 Y41.526 F400.000
G1 X-41.300 Y41.549 F400.000
G1 X-41.155 Y41.596 F400.000
G1 X-41.094 Y41.638 F400.000
G1 X-40.962 Y41.817 F400.000
G1 X-40.901 Y41.953 F400.000
G1 X-40.859 Y42.164 F400.000
G1 X-40.864 Y42.305 F400.000
G1 X-40.901 Y42.441 F400.000
G1 X-40.939 Y42.502 F400.000
G1 X-41.005 Y42.531 F400.000
G1 X-41.005 Y42.531 F400.000
G1 X-41.150 Y42.498 F400.000
G1 X-41.244 Y42.432 F400.000
G0 X-41.268 Y42.404
G0 X-41.441 Y41.850
G1 X-41.455 Y41.808 F400.000
G1 X-41.479 Y41.685 F400.000
G1 X-41.455 Y41.624 F400.000
G1 X-41.371 Y41.559 F400.000
G1 X-41.230 Y41.526 F400.000
G1 X-41.230 Y41.526 F400.000
G1 X-41.005 Y41.545 F400.000
G1 X-40.859 Y41.592 F400.000
G1 X-40.793 Y41.629 F400.000
G1 X-40.657 Y41.808 F400.000
G1 X-40.573 Y42.009 F400.000
G1 X-40.540 Y42.221 F400.000
G1 X-40.559 Y42.362 F400.000
G1 X-40.615 Y42.493 F400.000
G1 X-40.676 Y42.531 F400.000
G1 X-40.676 Y42.531 F400.000
G1 X-40.822 Y42.498 F400.000
G1 X-40.915 Y42.432 F400.000
G0 X-40.939 Y42.404
G0 X-41.080 Y41.850
G1 X-41.089 Y41.808 F400.000
G1 X-41.103 Y41.685 F400.000
G1 X-41.080 Y41.624 F400.000
G1 X-40.995 Y41.559 F400.000
G1 X-40.854 Y41.526 F400.000
G1 X-40.854 Y41.526 F400.000
G1 X-40.704 Y41.540 F400.000
G1 X-40.559 Y41.582 F400.000
G1 X-40.493 Y41.615 F400.000
G1 X-40.390 Y41.723 F400.000
G1 X-40.310 Y41.850 F400.000
G1 X-40.239 Y42.056 F400.000
G1 X-40.221 Y42.268 F400.000
G1 X-40.254 Y42.408 F400.000
G1 X-40.286 Y42.474 F400.000
G1 X-40.338 Y42.521 F400.000
G1 X-40.408 Y42.531 F400.000
G1 X-40.408 Y42.531 F400.000
G1 X-40.554 Y42.498 F400.000
G1 X-40.648 Y42.432 F400.000
G0 X-40.667 Y42.404
G0 X-40.784 Y41.854
G1 X-40.793 Y41.812 F400.000
G1 X-40.808 Y41.690 F400.000
G1 X-40.779 Y41.624 F400.000
G1 X-40.695 Y41.559 F400.000
G1 X-40.554 Y41.526 F400.000
G1 X-40.554 Y41.526 F400.000
G1 X-40.329 Y41.554 F400.000
G1 X-40.183 Y41.610 F400.000
G1 X-40.127 Y41.657 F400.000
G1 X-40.000 Y41.840 F400.000
G1 X-39.925 Y42.047 F400.000
G1 X-39.906 Y42.258 F400.000
G1 X-39.934 Y42.399 F400.000
G1 X-39.967 Y42.465 F400.000
G1 X-40.019 Y42.516 F400.000
G1 X-40.089 Y42.531 F400.000
G1 X-40.089 Y42.531 F400.000
G1 X-40.235 Y42.498 F400.000
G1 X-40.329 Y42.432 F400.000
G0 X-40.347 Y42.404
G0 X-40.479 Y41.854
G1 X-40.488 Y41.822 F400.000
G1 X-40.507 Y41.676 F400.000
G1 X-40.479 Y41.620 F400.000
G1 X-40.394 Y41.559 F400.000
G1 X-40.254 Y41.526 F400.000
G1 X-40.254 Y41.526 F400.000
G1 X-40.028 Y41.549 F400.000
G1 X-39.883 Y41.606 F400.000
G1 X-39.822 Y41.653 F400.000
G1 X-39.723 Y41.770 F400.000
G1 X-39.624 Y41.972 F400.000
G1 X-39.592 Y42.113 F400.000
G1 X-39.587 Y42.254 F400.000
G1 X-39.615 Y42.394 F400.000
G1 X-39.643 Y42.460 F400.000
G1 X-39.690 Y42.516 F400.000
G1 X-39.761 Y42.531 F400.000
G1 X-39.761 Y42.531 F400.000
G1 X-39.906 Y42.498 F400.000
G1 X-40.000 Y42.432 F400.000
G0 X-40.023 Y42.404
G0 X-40.174 Y41.850
G1 X-40.183 Y41.808 F400.000
G1 X-40.202 Y41.685 F400.000
G1 X-40.178 Y41.624 F400.000
G1 X-40.094 Y41.559 F400.000
G1 X-39.953 Y41.526 F400.000
G1 X-39.953 Y41.526 F400.000
G1 X-39.728 Y41.545 F400.000
G1 X-39.582 Y41.592 F400.000
G1 X-39.516 Y41.634 F400.000
G1 X-39.380 Y41.812 F400.000
G1 X-39.296 Y42.019 F400.000
G1 X-39.268 Y42.230 F400.000
G1 X-39.286 Y42.371 F400.000
G1 X-39.310 Y42.441 F400.000
G1 X-39.347 Y42.502 F400.000
G1 X-39.413 Y42.531 F400.000
G1 X-39.413 Y42.531 F400.000
G1 X-39.559 Y42.498 F400.000
G1 X-39.653 Y42.432 F400.000
G0 X-39.676 Y42.404
G0 X-39.808 Y41.854
G1 X-39.817 Y41.822 F400.000
G1 X-39.836 Y41.676 F400.000
G1 X-39.808 Y41.620 F400.000
G1 X-39.723 Y41.559 F400.000
G1 X-39.582 Y41.526 F400.000
G1 X-39.582 Y41.526 F400.000
G1 X-39.432 Y41.540 F400.000
G1 X-39.286 Y41.582 F400.000
G1 X-39.221 Y41.620 F400.000
G1 X-39.080 Y41.789 F400.000
G1 X-39.009 Y41.920 F400.000
G1 X-38.953 Y42.131 F400.000
G1 X-38.948 Y42.272 F400.000
G1 X-38.958 Y42.343 F400.000
G1 X-39.009 Y42.479 F400.000
G1 X-39.066 Y42.526 F400.000
G1 X-39.136 Y42.531 F400.000
G1 X-39.136 Y42.531 F400.000
G1 X-39.282 Y42.498 F400.000
G1 X-39.376 Y42.432 F400.000
G0 X-39.394 Y42.404
G0 X-39.512 Y41.854
G1 X-39.521 Y41.812 F400.000
G1 X-39.535 Y41.690 F400.000
G1 X-39.507 Y41.624 F400.000
G1 X-39.423 Y41.559 F400.000
G1 X-39.282 Y41.526 F400.000
G1 X-39.282 Y41.526 F400.000
G1 X-39.056 Y41.554 F400.000
G1 X-38.911 Y41.610 F400.000
G1 X-38.854 Y41.657 F400.000
G1 X-38.728 Y41.840 F400.000
G1 X-38.653 Y42.047 F400.000
G1 X-38.634 Y42.258 F400.000
G1 X-38.662 Y42.399 F400.000
G1 X-38.690 Y42.465 F400.000
G1 X-38.742 Y42.516 F400.000
G1 X-38.812 Y42.531 F400.000
G1 X-38.883 Y42.531 F400.000
G1 X-38.883 Y42.531 F400.000
G1 X-39.028 Y42.498 F400.000
G1 X-39.122 Y42.432 F400.000
G0 X-39.141 Y42.404
G0 X-39.230 Y41.854
G1 X-39.235 Y41.812 F400.000
G1 X-39.239 Y41.690 F400.000
G1 X-39.211 Y41.624 F400.000
G1 X-39.122 Y41.559 F400.000
G1 X-38.981 Y41.526 F400.000
G1 X-38.981 Y41.526 F400.000
G1 X-38.756 Y41.549 F400.000
G1 X-38.610 Y41.606 F400.000
G1 X-38.549 Y41.653 F400.000
G1 X-38.451 Y41.770 F400.000
G1 X-38.352 Y41.972 F400.000
G1 X-38.319 Y42.113 F400.000
G1 X-38.315 Y42.254 F400.000
G1 X-38.343 Y42.394 F400.000
G1 X-38.371 Y42.460 F400.000
G1 X-38.418 Y42.512 F400.000
G1 X-38.488 Y42.531 F400.000
G1 X-38.488 Y42.531 F400.000
G1 X-38.634 Y42.498 F400.000
G1 X-38.728 Y42.432 F400.000
G0 X-38.751 Y42.404
G0 X-38.901 Y41.850
G1 X-38.911 Y41.808 F400.000
G1 X-38.930 Y41.685 F400.000
G1 X-38.906 Y41.624 F400.000
G1 X-38.822 Y41.559 F400.000
G1 X-38.681 Y41.526 F400.000
G1 X-38.681 Y41.526 F400.000
G1 X-38.455 Y41.545 F400.000
G1 X-38.310 Y41.592 F400.000
G1 X-38.244 Y41.634 F400.000
G1 X-38.108 Y41.812 F400.000
G1 X-38.023 Y42.019 F400.000
G1 X-37.995 Y42.230 F400.000
G1 X-38.014 Y42.371 F400.000
G1 X-38.038 Y42.437 F400.000
G1 X-38.075 Y42.498 F400.000
G1 X-38.136 Y42.531 F400.000
G1 X-38.136 Y42.531 F400.000
G1 X-38.282 Y42.498 F400.000
G1 X-38.376 Y42.432 F400.000
G0 X-38.399 Y42.404
G0 X-38.531 Y41.854
G1 X-38.540 Y41.822 F400.000
G1 X-38.559 Y41.676 F400.000
G1 X-38.531 Y41.620 F400.000
G1 X-38.446 Y41.559 F400.000
G1 X-38.305 Y41.526 F400.000
G1 X-38.305 Y41.526 F400.000
G1 X-38.080 Y41.563 F400.000
G1 X-38.009 Y41.587 F400.000
G1 X-37.944 Y41.624 F400.000
G1 X-37.803 Y41.798 F400.000
G1 X-37.718 Y42.000 F400.000
G1 X-37.685 Y42.141 F400.000
G1 X-37.685 Y42.282 F400.000
G1 X-37.723 Y42.423 F400.000
G1 X-37.756 Y42.488 F400.000
G1 X-37.812 Y42.531 F400.000
G1 X-37.812 Y42.531 F400.000
G1 X-37.958 Y42.498 F400.000
G1 X-38.052 Y42.432 F400.000
G0 X-38.075 Y42.404
G0 X-38.230 Y41.850
G1 X-38.239 Y41.808 F400.000
G1 X-38.258 Y41.685 F400.000
G1 X-38.235 Y41.624 F400.000
G1 X-38.150 Y41.559 F400.000
G1 X-38.009 Y41.526 F400.000
G1 X-38.009 Y41.526 F400.000
G1 X-37.784 Y41.554 F400.000
G1 X-37.643 Y41.610 F400.000
G1 X-37.540 Y41.718 F400.000
G1 X-37.427 Y41.911 F400.000
G1 X-37.371 Y42.122 F400.000
G1 X-37.366 Y42.263 F400.000
G1 X-37.394 Y42.404 F400.000
G1 X-37.423 Y42.469 F400.000
G1 X-37.474 Y42.521 F400.000
G1 X-37.545 Y42.531 F400.000
G1 X-37.545 Y42.531 F400.000
G1 X-37.690 Y42.498 F400.000
G1 X-37.784 Y42.432 F400.000
G0 X-37.803 Y42.404
G0 X-37.934 Y41.854
G1 X-37.944 Y41.822 F400.000
G1 X-37.962 Y41.676 F400.000
G1 X-37.934 Y41.620 F400.000
G1 X-37.850 Y41.559 F400.000
G1 X-37.709 Y41.526 F400.000
G1 X-37.709 Y41.526 F400.000
G1 X-37.484 Y41.549 F400.000
G1 X-37.338 Y41.606 F400.000
G1 X-37.277 Y41.653 F400.000
G1 X-37.150 Y41.836 F400.000
G1 X-37.075 Y42.042 F400.000
G1 X-37.052 Y42.183 F400.000
G1 X-37.061 Y42.324 F400.000
G1 X-37.108 Y42.460 F400.000
G1 X-37.155 Y42.516 F400.000
G1 X-37.225 Y42.531 F400.000
G1 X-37.225 Y42.531 F400.000
G1 X-37.371 Y42.498 F400.000
G1 X-37.465 Y42.432 F400.000
G0 X-37.488 Y42.404
G0 X-37.634 Y41.850
G1 X-37.643 Y41.808 F400.000
G1 X-37.657 Y41.685 F400.000
G1 X-37.634 Y41.624 F400.000
G1 X-37.549 Y41.559 F400.000
G1 X-37.408 Y41.526 F400.000
G1 X-37.408 Y41.526 F400.000
G1 X-37.183 Y41.549 F400.000
G1 X-37.038 Y41.596 F400.000
G1 X-36.977 Y41.638 F400.000
G1 X-36.845 Y41.817 F400.000
G1 X-36.761 Y42.019 F400.000
G1 X-36.732 Y42.230 F400.000
G1 X-36.751 Y42.371 F400.000
G1 X-36.808 Y42.498 F400.000
G1 X-36.873 Y42.531 F400.000
G1 X-36.873 Y42.531 F400.000
G1 X-37.019 Y42.498 F400.000
G1 X-37.113 Y42.432 F400.000
G0 X-37.136 Y42.404
G0 X-37.315 Y41.850
G1 X-37.329 Y41.808 F400.000
G1 X-37.352 Y41.685 F400.000
G1 X-37.333 Y41.624 F400.000
G1 X-37.249 Y41.559 F400.000
G1 X-37.108 Y41.526 F400.000
G1 X-37.108 Y41.526 F400.000
G1 X-36.883 Y41.540 F400.000
G1 X-36.737 Y41.582 F400.000
G1 X-36.671 Y41.620 F400.000
G1 X-36.531 Y41.793 F400.000
G1 X-36.446 Y42.000 F400.000
G1 X-36.413 Y42.211 F400.000
G1 X-36.432 Y42.352 F400.000
G1 X-36.488 Y42.488 F400.000
G1 X-36.545 Y42.531 F400.000
G1 X-36.545 Y42.531 F400.000
G1 X-36.690 Y42.498 F400.000
G1 X-36.784 Y42.432 F400.000
G0 X-36.808 Y42.404
G0 X-36.958 Y41.850
G1 X-36.967 Y41.808 F400.000
G1 X-36.986 Y41.685 F400.000
G1 X-36.962 Y41.624 F400.000
G1 X-36.878 Y41.559 F400.000
G1 X-36.737 Y41.526 F400.000
G1 X-36.737 Y41.526 F400.000
G1 X-36.512 Y41.554 F400.000
G1 X-36.371 Y41.610 F400.000
G1 X-36.315 Y41.657 F400.000
G1 X-36.188 Y41.840 F400.000
G1 X-36.113 Y42.047 F400.000
G1 X-36.094 Y42.258 F400.000
G1 X-36.122 Y42.399 F400.000
G1 X-36.155 Y42.465 F400.000
G1 X-36.207 Y42.516 F400.000
G1 X-36.277 Y42.531 F400.000
G1 X-36.277 Y42.531 F400.000
G1 X-36.423 Y42.498 F400.000
G1 X-36.516 Y42.432 F400.000
G0 X-36.535 Y42.404
G0 X-36.667 Y41.854
G1 X-36.676 Y41.812 F400.000
G1 X-36.690 Y41.690 F400.000
G1 X-36.662 Y41.624 F400.000
G1 X-36.577 Y41.559 F400.000
G1 X-36.437 Y41.526 F400.000
G1 X-36.437 Y41.526 F400.000
G1 X-36.211 Y41.549 F400.000
G1 X-36.066 Y41.601 F400.000
G1 X-36.005 Y41.648 F400.000
G1 X-35.873 Y41.826 F400.000
G1 X-35.798 Y42.033 F400.000
G1 X-35.775 Y42.174 F400.000
G1 X-35.784 Y42.315 F400.000
G1 X-35.831 Y42.451 F400.000
G1 X-35.878 Y42.507 F400.000
G1 X-35.944 Y42.531 F400.000
G1 X-35.944 Y42.531 F400.000
G1 X-36.089 Y42.498 F400.000
G1 X-36.183 Y42.432 F400.000
G0 X-36.207 Y42.404
G0 X-36.357 Y41.850
G1 X-36.366 Y41.808 F400.000
G1 X-36.385 Y41.685 F400.000
G1 X-36.362 Y41.624 F400.000
G1 X-36.277 Y41.559 F400.000
G1 X-36.136 Y41.526 F400.000
G1 X-36.136 Y41.526 F400.000
G1 X-35.911 Y41.545 F400.000
G1 X-35.765 Y41.592 F400.000
G1 X-35.700 Y41.634 F400.000
G1 X-35.601 Y41.751 F400.000
G1 X-35.502 Y41.953 F400.000
G1 X-35.460 Y42.164 F400.000
G1 X-35.465 Y42.305 F400.000
G1 X-35.479 Y42.376 F400.000
G1 X-35.507 Y42.441 F400.000
G1 X-35.549 Y42.502 F400.000
G1 X-35.615 Y42.531 F400.000
G1 X-35.685 Y42.531 F400.000
G1 X-35.685 Y42.531 F400.000
G1 X-35.831 Y42.498 F400.000
G1 X-35.925 Y42.432 F400.000
G0 X-35.944 Y42.404
G0 X-36.014 Y41.859
G1 X-36.019 Y41.817 F400.000
G1 X-36.019 Y41.690 F400.000
G1 X-35.991 Y41.624 F400.000
G1 X-35.901 Y41.559 F400.000
G1 X-35.761 Y41.526 F400.000
G1 X-35.761 Y41.526 F400.000
G1 X-35.535 Y41.554 F400.000
G1 X-35.399 Y41.620 F400.000
G1 X-35.258 Y41.789 F400.000
G1 X-35.169 Y41.995 F400.000
G1 X-35.136 Y42.207 F400.000
G1 X-35.155 Y42.347 F400.000
G1 X-35.211 Y42.484 F400.000
G1 X-35.268 Y42.526 F400.000
G1 X-35.338 Y42.531 F400.000
G1 X-35.338 Y42.531 F400.000
G1 X-35.484 Y42.498 F400.000
G1 X-35.577 Y42.432 F400.000
G0 X-35.596 Y42.404
G0 X-35.700 Y41.854
G1 X-35.709 Y41.812 F400.000
G1 X-35.714 Y41.690 F400.000
G1 X-35.690 Y41.624 F400.000
G1 X-35.601 Y41.559 F400.000
G1 X-35.460 Y41.526 F400.000
G1 X-35.460 Y41.526 F400.000
G1 X-35.235 Y41.554 F400.000
G1 X-35.094 Y41.610 F400.000
G1 X-34.991 Y41.718 F400.000
G1 X-34.878 Y41.911 F400.000
G1 X-34.836 Y42.052 F400.000
G1 X-34.822 Y42.263 F400.000
G1 X-34.831 Y42.333 F400.000
G1 X-34.883 Y42.469 F400.000
G1 X-34.934 Y42.521 F400.000
G1 X-35.005 Y42.531 F400.000
G1 X-35.005 Y42.531 F400.000
G1 X-35.150 Y42.498 F400.000
G1 X-35.244 Y42.432 F400.000
G0 X-35.263 Y42.404
G0 X-35.394 Y41.854
G1 X-35.404 Y41.812 F400.000
G1 X-35.418 Y41.690 F400.000
G1 X-35.390 Y41.624 F400.000
G1 X-35.305 Y41.559 F400.000
G1 X-35.164 Y41.526 F400.000
G1 X-35.164 Y41.526 F400.000
G1 X-34.939 Y41.549 F400.000
G1 X-34.793 Y41.596 F400.000
G1 X-34.732 Y41.638 F400.000
G1 X-34.601 Y41.817 F400.000
G1 X-34.526 Y42.023 F400.000
G1 X-34.502 Y42.164 F400.000
G1 X-34.507 Y42.305 F400.000
G1 X-34.545 Y42.441 F400.000
G1 X-34.587 Y42.498 F400.000
G1 X-34.648 Y42.531 F400.000
G1 X-34.718 Y42.531 F400.000
G1 X-34.718 Y42.531 F400.000
G1 X-34.864 Y42.498 F400.000
G1 X-34.958 Y42.432 F400.000
G0 X-34.977 Y42.404
G0 X-35.094 Y41.854
G1 X-35.103 Y41.812 F400.000
G1 X-35.117 Y41.690 F400.000
G1 X-35.089 Y41.624 F400.000
G1 X-35.005 Y41.559 F400.000
G1 X-34.864 Y41.526 F400.000
G1 X-34.864 Y41.526 F400.000
G1 X-34.638 Y41.540 F400.000
G1 X-34.493 Y41.587 F400.000
G1 X-34.427 Y41.624 F400.000
G1 X-34.329 Y41.737 F400.000
G1 X-34.230 Y41.934 F400.000
G1 X-34.183 Y42.146 F400.000
G1 X-34.183 Y42.286 F400.000
G1 X-34.221 Y42.423 F400.000
G1 X-34.254 Y42.488 F400.000
G1 X-34.315 Y42.531 F400.000
G1 X-34.315 Y42.531 F400.000
G1 X-34.460 Y42.498 F400.000
G1 X-34.554 Y42.432 F400.000
G0 X-34.577 Y42.404
G0 X-34.714 Y41.850
G1 X-34.723 Y41.808 F400.000
G1 X-34.737 Y41.685 F400.000
G1 X-34.714 Y41.624 F400.000
G1 X-34.629 Y41.559 F400.000
G1 X-34.488 Y41.526 F400.000
G1 X-34.488 Y41.526 F400.000
G1 X-34.338 Y41.540 F400.000
G1 X-34.192 Y41.582 F400.000
G1 X-34.127 Y41.620 F400.000
G1 X-33.986 Y41.789 F400.000
G1 X-33.901 Y41.995 F400.000
G1 X-33.869 Y42.136 F400.000
G1 X-33.864 Y42.277 F400.000
G1 X-33.901 Y42.418 F400.000
G1 X-33.934 Y42.484 F400.000
G1 X-33.991 Y42.526 F400.000
G1 X-34.061 Y42.531 F400.000
G1 X-34.061 Y42.531 F400.000
G1 X-34.207 Y42.498 F400.000
G1 X-34.300 Y42.432 F400.000
G0 X-34.319 Y42.404
G0 X-34.423 Y41.854
G1 X-34.432 Y41.812 F400.000
G1 X-34.441 Y41.690 F400.000
G1 X-34.413 Y41.624 F400.000
G1 X-34.329 Y41.559 F400.000
G1 X-34.188 Y41.526 F400.000
G1 X-34.188 Y41.526 F400.000
G1 X-34.038 Y41.540 F400.000
G1 X-33.887 Y41.582 F400.000
G1 X-33.822 Y41.615 F400.000
G1 X-33.718 Y41.723 F400.000
G1 X-33.606 Y41.915 F400.000
G1 X-33.549 Y42.127 F400.000
G1 X-33.545 Y42.268 F400.000
G1 X-33.573 Y42.408 F400.000
G1 X-33.606 Y42.474 F400.000
G1 X-33.662 Y42.521 F400.000
G1 X-33.732 Y42.531 F400.000
G1 X-33.732 Y42.531 F400.000
G1 X-33.878 Y42.498 F400.000
G1 X-33.972 Y42.432 F400.000
G0 X-33.991 Y42.404
G0 X-34.117 Y41.854
G1 X-34.127 Y41.812 F400.000
G1 X-34.141 Y41.690 F400.000
G1 X-34.113 Y41.624 F400.000
G1 X-34.028 Y41.559 F400.000
G1 X-33.887 Y41.526 F400.000
G1 X-33.887 Y41.526 F400.000
G1 X-33.662 Y41.554 F400.000
G1 X-33.516 Y41.610 F400.000
G1 X-33.460 Y41.657 F400.000
G1 X-33.366 Y41.775 F400.000
G1 X-33.268 Y41.977 F400.000
G1 X-33.235 Y42.117 F400.000
G1 X-33.230 Y42.258 F400.000
G1 X-33.258 Y42.399 F400.000
G1 X-33.291 Y42.465 F400.000
G1 X-33.343 Y42.516 F400.000
G1 X-33.413 Y42.531 F400.000
G1 X-33.413 Y42.531 F400.000
G1 X-33.559 Y42.498 F400.000
G1 X-33.653 Y42.432 F400.000
G0 X-33.676 Y42.404
G0 X-33.817 Y41.850
G1 X-33.826 Y41.808 F400.000
G1 X-33.840 Y41.685 F400.000
G1 X-33.817 Y41.624 F400.000
G1 X-33.732 Y41.559 F400.000
G1 X-33.592 Y41.526 F400.000
G1 X-33.592 Y41.526 F400.000
G1 X-33.366 Y41.549 F400.000
G1 X-33.221 Y41.596 F400.000
G1 X-33.160 Y41.638 F400.000
G1 X-33.019 Y41.817 F400.000
G1 X-32.934 Y42.023 F400.000
G1 X-32.911 Y42.164 F400.000
G1 X-32.915 Y42.305 F400.000
G1 X-32.953 Y42.441 F400.000
G1 X-32.991 Y42.502 F400.000
G1 X-33.056 Y42.531 F400.000
G1 X-33.056 Y42.531 F400.000
G1 X-33.202 Y42.498 F400.000
G1 X-33.296 Y42.432 F400.000
G0 X-33.319 Y42.404
G0 X-33.498 Y41.850
G1 X-33.512 Y41.808 F400.000
G1 X-33.535 Y41.685 F400.000
G1 X-33.516 Y41.624 F400.000
G1 X-33.432 Y41.559 F400.000
G1 X-33.291 Y41.526 F400.000
G1 X-33.291 Y41.526 F400.000
G1 X-33.066 Y41.540 F400.000
G1 X-32.920 Y41.582 F400.000
G1 X-32.854 Y41.620 F400.000
G1 X-32.714 Y41.789 F400.000
G1 X-32.648 Y41.920 F400.000
G1 X-32.592 Y42.131 F400.000
G1 X-32.587 Y42.272 F400.000
G1 X-32.596 Y42.343 F400.000
G1 X-32.653 Y42.479 F400.000
G1 X-32.709 Y42.526 F400.000
G1 X-32.779 Y42.531 F400.000
G1 X-32.779 Y42.531 F400.000
G1 X-32.925 Y42.498 F400.000
G1 X-33.019 Y42.432 F400.000
G0 X-33.038 Y42.404
G0 X-33.150 Y41.854
G1 X-33.160 Y41.812 F400.000
G1 X-33.169 Y41.690 F400.000
G1 X-33.141 Y41.624 F400.000
G1 X-33.056 Y41.559 F400.000
G1 X-32.915 Y41.526 F400.000
G1 X-32.915 Y41.526 F400.000
G1 X-32.690 Y41.554 F400.000
G1 X-32.545 Y41.610 F400.000
G1 X-32.441 Y41.718 F400.000
G1 X-32.329 Y41.911 F400.000
G1 X-32.272 Y42.122 F400.000
G1 X-32.268 Y42.263 F400.000
G1 X-32.277 Y42.333 F400.000
G1 X-32.329 Y42.469 F400.000
G1 X-32.380 Y42.521 F400.000
G1 X-32.451 Y42.531 F400.000
G1 X-32.451 Y42.531 F400.000
G1 X-32.596 Y42.498 F400.000
G1 X-32.690 Y42.432 F400.000
G0 X-32.709 Y42.404
G0 X-32.840 Y41.854
G1 X-32.850 Y41.822 F400.000
G1 X-32.869 Y41.676 F400.000
G1 X-32.840 Y41.620 F400.000
G1 X-32.756 Y41.559 F400.000
G1 X-32.615 Y41.526 F400.000
G1 X-32.615 Y41.526 F400.000
G1 X-32.390 Y41.549 F400.000
G1 X-32.244 Y41.601 F400.000
G1 X-32.183 Y41.643 F400.000
G1 X-32.089 Y41.761 F400.000
G1 X-32.019 Y41.892 F400.000
G1 X-31.962 Y42.103 F400.000
G1 X-31.962 Y42.315 F400.000
G1 X-32.000 Y42.451 F400.000
G1 X-32.047 Y42.507 F400.000
G1 X-32.113 Y42.531 F400.000
G1 X-32.113 Y42.531 F400.000
G1 X-32.258 Y42.498 F400.000
G1 X-32.352 Y42.432 F400.000
G0 X-32.376 Y42.404
G0 X-32.535 Y41.850
G1 X-32.545 Y41.808 F400.000
G1 X-32.563 Y41.685 F400.000
G1 X-32.540 Y41.624 F400.000
G1 X-32.455 Y41.559 F400.000
G1 X-32.315 Y41.526 F400.000
G1 X-32.315 Y41.526 F400.000
G1 X-32.089 Y41.545 F400.000
G1 X-31.944 Y41.592 F400.000
G1 X-31.883 Y41.634 F400.000
G1 X-31.784 Y41.746 F400.000
G1 X-31.685 Y41.944 F400.000
G1 X-31.638 Y42.155 F400.000
G1 X-31.638 Y42.296 F400.000
G1 X-31.676 Y42.432 F400.000
G1 X-31.709 Y42.493 F400.000
G1 X-31.770 Y42.531 F400.000
G1 X-31.840 Y42.531 F400.000
G1 X-31.840 Y42.531 F400.000
G1 X-31.986 Y42.498 F400.000
G1 X-32.080 Y42.432 F400.000
G0 X-32.099 Y42.404
G0 X-32.188 Y41.854
G1 X-32.192 Y41.812 F400.000
G1 X-32.197 Y41.690 F400.000
G1 X-32.174 Y41.624 F400.000
G1 X-32.085 Y41.559 F400.000
G1 X-31.944 Y41.526 F400.000
G1 X-31.944 Y41.526 F400.000
G1 X-31.793 Y41.540 F400.000
G1 X-31.648 Y41.582 F400.000
G1 X-31.582 Y41.620 F400.000
G1 X-31.441 Y41.789 F400.000
G1 X-31.376 Y41.920 F400.000
G1 X-31.319 Y42.131 F400.000
G1 X-31.329 Y42.343 F400.000
G1 X-31.380 Y42.479 F400.000
G1 X-31.437 Y42.526 F400.000
G1 X-31.507 Y42.531 F400.000
G1 X-31.507 Y42.531 F400.000
G1 X-31.653 Y42.498 F400.000
G1 X-31.746 Y42.432 F400.000
G0 X-31.765 Y42.404
G0 X-31.878 Y41.854
G1 X-31.887 Y41.812 F400.000
G1 X-31.897 Y41.690 F400.000
G1 X-31.869 Y41.624 F400.000
G1 X-31.784 Y41.559 F400.000
G1 X-31.643 Y41.526 F400.000
G1 X-31.643 Y41.526 F400.000
G1 X-31.418 Y41.554 F400.000
G1 X-31.272 Y41.610 F400.000
G1 X-31.169 Y41.718 F400.000
G1 X-31.056 Y41.911 F400.000
G1 X-31.000 Y42.122 F400.000
G1 X-30.995 Y42.263 F400.000
G1 X-31.023 Y42.404 F400.000
G1 X-31.056 Y42.469 F400.000
G1 X-31.108 Y42.521 F400.000
G1 X-31.178 Y42.531 F400.000
G1 X-31.178 Y42.531 F400.000
G1 X-31.324 Y42.498 F400.000
G1 X-31.418 Y42.432 F400.000
G0 X-31.437 Y42.404
G0 X-31.568 Y41.854
G1 X-31.577 Y41.822 F400.000
G1 X-31.596 Y41.676 F400.000
G1 X-31.568 Y41.620 F400.000
G1 X-31.484 Y41.559 F400.000
G1 X-31.343 Y41.526 F400.000
G1 X-31.343 Y41.526 F400.000
G1 X-31.117 Y41.549 F400.000
G1 X-30.972 Y41.601 F400.000
G1 X-30.911 Y41.643 F400.000
G1 X-30.817 Y41.761 F400.000
G1 X-30.718 Y41.962 F400.000
G1 X-30.676 Y42.174 F400.000
G1 X-30.681 Y42.315 F400.000
G1 X-30.695 Y42.385 F400.000
G1 X-30.723 Y42.451 F400.000
G1 X-30.770 Y42.507 F400.000
G1 X-30.836 Y42.531 F400.000
G1 X-30.836 Y42.531 F400.000
G1 X-30.981 Y42.498 F400.000
G1 X-31.075 Y42.432 F400.000
G0 X-31.099 Y42.404
G0 X-31.263 Y41.850
G1 X-31.272 Y41.808 F400.000
G1 X-31.291 Y41.685 F400.000
G1 X-31.268 Y41.624 F400.000
G1 X-31.183 Y41.559 F400.000
G1 X-31.042 Y41.526 F400.000
G1 X-31.042 Y41.526 F400.000
G1 X-30.817 Y41.545 F400.000
G1 X-30.671 Y41.592 F400.000
G1 X-30.606 Y41.629 F400.000
G1 X-30.465 Y41.803 F400.000
G1 X-30.380 Y42.009 F400.000
G1 X-30.352 Y42.221 F400.000
G1 X-30.371 Y42.362 F400.000
G1 X-30.427 Y42.488 F400.000
G1 X-30.484 Y42.531 F400.000
G1 X-30.554 Y42.531 F400.000
G1 X-30.554 Y42.531 F400.000
G1 X-30.700 Y42.498 F400.000
G1 X-30.793 Y42.432 F400.000
G0 X-30.812 Y42.404
