(Exported by FreeCAD)
(Post Processor: script_module)
(Output Time:2024-11-05 19:50:16.818880)
(Begin preamble)
G17 G90
G21
(Block-name: Fixture)
(Block-expand: 0)
(Block-enable: 1)
(Begin operation: Fixture)
(Path: Fixture)
G54
(Finish operation: Fixture)
(Block-name: 3mm Endmill001)
(Block-expand: 0)
(Block-enable: 1)
(Begin operation: 3mm Endmill001)
(Path: 3mm Endmill001)
(3mm Endmill001)
(Begin toolchange)
( M6 T2 )
M3 S10000
(Finish operation: 3mm Endmill001)
(Block-name: Adaptive)
(Block-expand: 0)
(Block-enable: 1)
(Begin operation: Adaptive)
(Path: Adaptive)
(Adaptive)
(Helix to depth: -3.000000)
G0 Z15.000
G0 X-20.334 Y22.790 Z15.000
G0 X-20.334 Y22.790 Z13.000
G1 X-20.334 Y22.790 Z0.000 F200.000
G1 X-20.334 Y22.790 Z0.000 F200.000
G1 X-20.247 Y22.830 Z-0.009 F200.000
G1 X-20.169 Y22.887 Z-0.017 F200.000
G1 X-20.104 Y22.958 Z-0.026 F200.000
G1 X-20.054 Y23.040 Z-0.034 F200.000
G1 X-20.022 Y23.130 Z-0.043 F200.000
G1 X-20.007 Y23.225 Z-0.052 F200.000
G1 X-20.011 Y23.321 Z-0.060 F200.000
G1 X-20.034 Y23.415 Z-0.069 F200.000
G1 X-20.075 Y23.502 Z-0.077 F200.000
G1 X-20.131 Y23.579 Z-0.086 F200.000
G1 X-20.202 Y23.644 Z-0.094 F200.000
G1 X-20.284 Y23.694 Z-0.103 F200.000
G1 X-20.375 Y23.727 Z-0.112 F200.000
G1 X-20.470 Y23.741 Z-0.120 F200.000
G1 X-20.566 Y23.737 Z-0.129 F200.000
G1 X-20.659 Y23.714 Z-0.137 F200.000
G1 X-20.746 Y23.673 Z-0.146 F200.000
G1 X-20.823 Y23.617 Z-0.155 F200.000
G1 X-20.888 Y23.546 Z-0.163 F200.000
G1 X-20.938 Y23.464 Z-0.172 F200.000
G1 X-20.971 Y23.373 Z-0.180 F200.000
G1 X-20.986 Y23.278 Z-0.189 F200.000
G1 X-20.981 Y23.183 Z-0.198 F200.000
G1 X-20.958 Y23.089 Z-0.206 F200.000
G1 X-20.918 Y23.002 Z-0.215 F200.000
G1 X-20.861 Y22.925 Z-0.223 F200.000
G1 X-20.790 Y22.860 Z-0.232 F200.000
G1 X-20.708 Y22.810 Z-0.240 F200.000
G1 X-20.618 Y22.777 Z-0.249 F200.000
G1 X-20.523 Y22.763 Z-0.258 F200.000
G1 X-20.427 Y22.767 Z-0.266 F200.000
G1 X-20.334 Y22.790 Z-0.275 F200.000
G1 X-20.247 Y22.830 Z-0.283 F200.000
G1 X-20.169 Y22.887 Z-0.292 F200.000
G1 X-20.104 Y22.958 Z-0.301 F200.000
G1 X-20.054 Y23.040 Z-0.309 F200.000
G1 X-20.022 Y23.130 Z-0.318 F200.000
G1 X-20.007 Y23.225 Z-0.326 F200.000
G1 X-20.011 Y23.321 Z-0.335 F200.000
G1 X-20.034 Y23.415 Z-0.344 F200.000
G1 X-20.075 Y23.502 Z-0.352 F200.000
G1 X-20.131 Y23.579 Z-0.361 F200.000
G1 X-20.202 Y23.644 Z-0.369 F200.000
G1 X-20.284 Y23.694 Z-0.378 F200.000
G1 X-20.375 Y23.727 Z-0.387 F200.000
G1 X-20.470 Y23.741 Z-0.395 F200.000
G1 X-20.566 Y23.737 Z-0.404 F200.000
G1 X-20.659 Y23.714 Z-0.412 F200.000
G1 X-20.746 Y23.673 Z-0.421 F200.000
G1 X-20.823 Y23.617 Z-0.429 F200.000
G1 X-20.888 Y23.546 Z-0.438 F200.000
G1 X-20.938 Y23.464 Z-0.447 F200.000
G1 X-20.971 Y23.373 Z-0.455 F200.000
G1 X-20.986 Y23.278 Z-0.464 F200.000
G1 X-20.981 Y23.183 Z-0.472 F200.000
G1 X-20.958 Y23.089 Z-0.481 F200.000
G1 X-20.918 Y23.002 Z-0.490 F200.000
G1 X-20.861 Y22.925 Z-0.498 F200.000
G1 X-20.790 Y22.860 Z-0.507 F200.000
G1 X-20.708 Y22.810 Z-0.515 F200.000
G1 X-20.618 Y22.777 Z-0.524 F200.000
G1 X-20.523 Y22.763 Z-0.533 F200.000
G1 X-20.427 Y22.767 Z-0.541 F200.000
G1 X-20.334 Y22.790 Z-0.550 F200.000
G1 X-20.247 Y22.830 Z-0.558 F200.000
G1 X-20.169 Y22.887 Z-0.567 F200.000
G1 X-20.104 Y22.958 Z-0.575 F200.000
G1 X-20.054 Y23.040 Z-0.584 F200.000
G1 X-20.022 Y23.130 Z-0.593 F200.000
G1 X-20.007 Y23.225 Z-0.601 F200.000
G1 X-20.011 Y23.321 Z-0.610 F200.000
G1 X-20.034 Y23.415 Z-0.618 F200.000
G1 X-20.075 Y23.502 Z-0.627 F200.000
G1 X-20.131 Y23.579 Z-0.636 F200.000
G1 X-20.202 Y23.644 Z-0.644 F200.000
G1 X-20.284 Y23.694 Z-0.653 F200.000
G1 X-20.375 Y23.727 Z-0.661 F200.000
G1 X-20.470 Y23.741 Z-0.670 F200.000
G1 X-20.566 Y23.737 Z-0.679 F200.000
G1 X-20.659 Y23.714 Z-0.687 F200.000
G1 X-20.746 Y23.673 Z-0.696 F200.000
G1 X-20.823 Y23.617 Z-0.704 F200.000
G1 X-20.888 Y23.546 Z-0.713 F200.000
G1 X-20.938 Y23.464 Z-0.721 F200.000
G1 X-20.971 Y23.373 Z-0.730 F200.000
G1 X-20.986 Y23.278 Z-0.739 F200.000
G1 X-20.981 Y23.183 Z-0.747 F200.000
G1 X-20.958 Y23.089 Z-0.756 F200.000
G1 X-20.918 Y23.002 Z-0.764 F200.000
G1 X-20.861 Y22.925 Z-0.773 F200.000
G1 X-20.790 Y22.860 Z-0.782 F200.000
G1 X-20.708 Y22.810 Z-0.790 F200.000
G1 X-20.618 Y22.777 Z-0.799 F200.000
G1 X-20.523 Y22.763 Z-0.807 F200.000
G1 X-20.427 Y22.767 Z-0.816 F200.000
G1 X-20.334 Y22.790 Z-0.825 F200.000
G1 X-20.247 Y22.830 Z-0.833 F200.000
G1 X-20.169 Y22.887 Z-0.842 F200.000
G1 X-20.104 Y22.958 Z-0.850 F200.000
G1 X-20.054 Y23.040 Z-0.859 F200.000
G1 X-20.022 Y23.130 Z-0.868 F200.000
G1 X-20.007 Y23.225 Z-0.876 F200.000
G1 X-20.011 Y23.321 Z-0.885 F200.000
G1 X-20.034 Y23.415 Z-0.893 F200.000
G1 X-20.075 Y23.502 Z-0.902 F200.000
G1 X-20.131 Y23.579 Z-0.910 F200.000
G1 X-20.202 Y23.644 Z-0.919 F200.000
G1 X-20.284 Y23.694 Z-0.928 F200.000
G1 X-20.375 Y23.727 Z-0.936 F200.000
G1 X-20.470 Y23.741 Z-0.945 F200.000
G1 X-20.566 Y23.737 Z-0.953 F200.000
G1 X-20.659 Y23.714 Z-0.962 F200.000
G1 X-20.746 Y23.673 Z-0.971 F200.000
G1 X-20.823 Y23.617 Z-0.979 F200.000
G1 X-20.888 Y23.546 Z-0.988 F200.000
G1 X-20.938 Y23.464 Z-0.996 F200.000
G1 X-20.971 Y23.373 Z-1.005 F200.000
G1 X-20.986 Y23.278 Z-1.014 F200.000
G1 X-20.981 Y23.183 Z-1.022 F200.000
G1 X-20.958 Y23.089 Z-1.031 F200.000
G1 X-20.918 Y23.002 Z-1.039 F200.000
G1 X-20.861 Y22.925 Z-1.048 F200.000
G1 X-20.790 Y22.860 Z-1.056 F200.000
G1 X-20.708 Y22.810 Z-1.065 F200.000
G1 X-20.618 Y22.777 Z-1.074 F200.000
G1 X-20.523 Y22.763 Z-1.082 F200.000
G1 X-20.427 Y22.767 Z-1.091 F200.000
G1 X-20.334 Y22.790 Z-1.099 F200.000
G1 X-20.247 Y22.830 Z-1.108 F200.000
G1 X-20.169 Y22.887 Z-1.117 F200.000
G1 X-20.104 Y22.958 Z-1.125 F200.000
G1 X-20.054 Y23.040 Z-1.134 F200.000
G1 X-20.022 Y23.130 Z-1.142 F200.000
G1 X-20.007 Y23.225 Z-1.151 F200.000
G1 X-20.011 Y23.321 Z-1.160 F200.000
G1 X-20.034 Y23.415 Z-1.168 F200.000
G1 X-20.075 Y23.502 Z-1.177 F200.000
G1 X-20.131 Y23.579 Z-1.185 F200.000
G1 X-20.202 Y23.644 Z-1.194 F200.000
G1 X-20.284 Y23.694 Z-1.202 F200.000
G1 X-20.375 Y23.727 Z-1.211 F200.000
G1 X-20.470 Y23.741 Z-1.220 F200.000
G1 X-20.566 Y23.737 Z-1.228 F200.000
G1 X-20.659 Y23.714 Z-1.237 F200.000
G1 X-20.746 Y23.673 Z-1.245 F200.000
G1 X-20.823 Y23.617 Z-1.254 F200.000
G1 X-20.888 Y23.546 Z-1.263 F200.000
G1 X-20.938 Y23.464 Z-1.271 F200.000
G1 X-20.971 Y23.373 Z-1.280 F200.000
G1 X-20.986 Y23.278 Z-1.288 F200.000
G1 X-20.981 Y23.183 Z-1.297 F200.000
G1 X-20.958 Y23.089 Z-1.306 F200.000
G1 X-20.918 Y23.002 Z-1.314 F200.000
G1 X-20.861 Y22.925 Z-1.323 F200.000
G1 X-20.790 Y22.860 Z-1.331 F200.000
G1 X-20.708 Y22.810 Z-1.340 F200.000
G1 X-20.618 Y22.777 Z-1.349 F200.000
G1 X-20.523 Y22.763 Z-1.357 F200.000
G1 X-20.427 Y22.767 Z-1.366 F200.000
G1 X-20.334 Y22.790 Z-1.374 F200.000
G1 X-20.247 Y22.830 Z-1.383 F200.000
G1 X-20.169 Y22.887 Z-1.391 F200.000
G1 X-20.104 Y22.958 Z-1.400 F200.000
G1 X-20.054 Y23.040 Z-1.409 F200.000
G1 X-20.022 Y23.130 Z-1.417 F200.000
G1 X-20.007 Y23.225 Z-1.426 F200.000
G1 X-20.011 Y23.321 Z-1.434 F200.000
G1 X-20.034 Y23.415 Z-1.443 F200.000
G1 X-20.075 Y23.502 Z-1.452 F200.000
G1 X-20.131 Y23.579 Z-1.460 F200.000
G1 X-20.202 Y23.644 Z-1.469 F200.000
G1 X-20.284 Y23.694 Z-1.477 F200.000
G1 X-20.375 Y23.727 Z-1.486 F200.000
G1 X-20.470 Y23.741 Z-1.495 F200.000
G1 X-20.566 Y23.737 Z-1.503 F200.000
G1 X-20.659 Y23.714 Z-1.512 F200.000
G1 X-20.746 Y23.673 Z-1.520 F200.000
G1 X-20.823 Y23.617 Z-1.529 F200.000
G1 X-20.888 Y23.546 Z-1.537 F200.000
G1 X-20.938 Y23.464 Z-1.546 F200.000
G1 X-20.971 Y23.373 Z-1.555 F200.000
G1 X-20.986 Y23.278 Z-1.563 F200.000
G1 X-20.981 Y23.183 Z-1.572 F200.000
G1 X-20.958 Y23.089 Z-1.580 F200.000
G1 X-20.918 Y23.002 Z-1.589 F200.000
G1 X-20.861 Y22.925 Z-1.598 F200.000
G1 X-20.790 Y22.860 Z-1.606 F200.000
G1 X-20.708 Y22.810 Z-1.615 F200.000
G1 X-20.618 Y22.777 Z-1.623 F200.000
G1 X-20.523 Y22.763 Z-1.632 F200.000
G1 X-20.427 Y22.767 Z-1.641 F200.000
G1 X-20.334 Y22.790 Z-1.649 F200.000
G1 X-20.247 Y22.830 Z-1.658 F200.000
G1 X-20.169 Y22.887 Z-1.666 F200.000
G1 X-20.104 Y22.958 Z-1.675 F200.000
G1 X-20.054 Y23.040 Z-1.683 F200.000
G1 X-20.022 Y23.130 Z-1.692 F200.000
G1 X-20.007 Y23.225 Z-1.701 F200.000
G1 X-20.011 Y23.321 Z-1.709 F200.000
G1 X-20.034 Y23.415 Z-1.718 F200.000
G1 X-20.075 Y23.502 Z-1.726 F200.000
G1 X-20.131 Y23.579 Z-1.735 F200.000
G1 X-20.202 Y23.644 Z-1.744 F200.000
G1 X-20.284 Y23.694 Z-1.752 F200.000
G1 X-20.375 Y23.727 Z-1.761 F200.000
G1 X-20.470 Y23.741 Z-1.769 F200.000
G1 X-20.566 Y23.737 Z-1.778 F200.000
G1 X-20.659 Y23.714 Z-1.787 F200.000
G1 X-20.746 Y23.673 Z-1.795 F200.000
G1 X-20.823 Y23.617 Z-1.804 F200.000
G1 X-20.888 Y23.546 Z-1.812 F200.000
G1 X-20.938 Y23.464 Z-1.821 F200.000
G1 X-20.971 Y23.373 Z-1.829 F200.000
G1 X-20.986 Y23.278 Z-1.838 F200.000
G1 X-20.981 Y23.183 Z-1.847 F200.000
G1 X-20.958 Y23.089 Z-1.855 F200.000
G1 X-20.918 Y23.002 Z-1.864 F200.000
G1 X-20.861 Y22.925 Z-1.872 F200.000
G1 X-20.790 Y22.860 Z-1.881 F200.000
G1 X-20.708 Y22.810 Z-1.890 F200.000
G1 X-20.618 Y22.777 Z-1.898 F200.000
G1 X-20.523 Y22.763 Z-1.907 F200.000
G1 X-20.427 Y22.767 Z-1.915 F200.000
G1 X-20.334 Y22.790 Z-1.924 F200.000
G1 X-20.247 Y22.830 Z-1.933 F200.000
G1 X-20.169 Y22.887 Z-1.941 F200.000
G1 X-20.104 Y22.958 Z-1.950 F200.000
G1 X-20.054 Y23.040 Z-1.958 F200.000
G1 X-20.022 Y23.130 Z-1.967 F200.000
G1 X-20.007 Y23.225 Z-1.976 F200.000
G1 X-20.011 Y23.321 Z-1.984 F200.000
G1 X-20.034 Y23.415 Z-1.993 F200.000
G1 X-20.075 Y23.502 Z-2.001 F200.000
G1 X-20.131 Y23.579 Z-2.010 F200.000
G1 X-20.202 Y23.644 Z-2.018 F200.000
G1 X-20.284 Y23.694 Z-2.027 F200.000
G1 X-20.375 Y23.727 Z-2.036 F200.000
G1 X-20.470 Y23.741 Z-2.044 F200.000
G1 X-20.566 Y23.737 Z-2.053 F200.000
G1 X-20.659 Y23.714 Z-2.061 F200.000
G1 X-20.746 Y23.673 Z-2.070 F200.000
G1 X-20.823 Y23.617 Z-2.079 F200.000
G1 X-20.888 Y23.546 Z-2.087 F200.000
G1 X-20.938 Y23.464 Z-2.096 F200.000
G1 X-20.971 Y23.373 Z-2.104 F200.000
G1 X-20.986 Y23.278 Z-2.113 F200.000
G1 X-20.981 Y23.183 Z-2.122 F200.000
G1 X-20.958 Y23.089 Z-2.130 F200.000
G1 X-20.918 Y23.002 Z-2.139 F200.000
G1 X-20.861 Y22.925 Z-2.147 F200.000
G1 X-20.790 Y22.860 Z-2.156 F200.000
G1 X-20.708 Y22.810 Z-2.164 F200.000
G1 X-20.618 Y22.777 Z-2.173 F200.000
G1 X-20.523 Y22.763 Z-2.182 F200.000
G1 X-20.427 Y22.767 Z-2.190 F200.000
G1 X-20.334 Y22.790 Z-2.199 F200.000
G1 X-20.247 Y22.830 Z-2.207 F200.000
G1 X-20.169 Y22.887 Z-2.216 F200.000
G1 X-20.104 Y22.958 Z-2.225 F200.000
G1 X-20.054 Y23.040 Z-2.233 F200.000
G1 X-20.022 Y23.130 Z-2.242 F200.000
G1 X-20.007 Y23.225 Z-2.250 F200.000
G1 X-20.011 Y23.321 Z-2.259 F200.000
G1 X-20.034 Y23.415 Z-2.268 F200.000
G1 X-20.075 Y23.502 Z-2.276 F200.000
G1 X-20.131 Y23.579 Z-2.285 F200.000
G1 X-20.202 Y23.644 Z-2.293 F200.000
G1 X-20.284 Y23.694 Z-2.302 F200.000
G1 X-20.375 Y23.727 Z-2.310 F200.000
G1 X-20.470 Y23.741 Z-2.319 F200.000
G1 X-20.566 Y23.737 Z-2.328 F200.000
G1 X-20.659 Y23.714 Z-2.336 F200.000
G1 X-20.746 Y23.673 Z-2.345 F200.000
G1 X-20.823 Y23.617 Z-2.353 F200.000
G1 X-20.888 Y23.546 Z-2.362 F200.000
G1 X-20.938 Y23.464 Z-2.371 F200.000
G1 X-20.971 Y23.373 Z-2.379 F200.000
G1 X-20.986 Y23.278 Z-2.388 F200.000
G1 X-20.981 Y23.183 Z-2.396 F200.000
G1 X-20.958 Y23.089 Z-2.405 F200.000
G1 X-20.918 Y23.002 Z-2.414 F200.000
G1 X-20.861 Y22.925 Z-2.422 F200.000
G1 X-20.790 Y22.860 Z-2.431 F200.000
G1 X-20.708 Y22.810 Z-2.439 F200.000
G1 X-20.618 Y22.777 Z-2.448 F200.000
G1 X-20.523 Y22.763 Z-2.457 F200.000
G1 X-20.427 Y22.767 Z-2.465 F200.000
G1 X-20.334 Y22.790 Z-2.474 F200.000
G1 X-20.247 Y22.830 Z-2.482 F200.000
G1 X-20.169 Y22.887 Z-2.491 F200.000
G1 X-20.104 Y22.958 Z-2.499 F200.000
G1 X-20.054 Y23.040 Z-2.508 F200.000
G1 X-20.022 Y23.130 Z-2.517 F200.000
G1 X-20.007 Y23.225 Z-2.525 F200.000
G1 X-20.011 Y23.321 Z-2.534 F200.000
G1 X-20.034 Y23.415 Z-2.542 F200.000
G1 X-20.075 Y23.502 Z-2.551 F200.000
G1 X-20.131 Y23.579 Z-2.560 F200.000
G1 X-20.202 Y23.644 Z-2.568 F200.000
G1 X-20.284 Y23.694 Z-2.577 F200.000
G1 X-20.375 Y23.727 Z-2.585 F200.000
G1 X-20.470 Y23.741 Z-2.594 F200.000
G1 X-20.566 Y23.737 Z-2.603 F200.000
G1 X-20.659 Y23.714 Z-2.611 F200.000
G1 X-20.746 Y23.673 Z-2.620 F200.000
G1 X-20.823 Y23.617 Z-2.628 F200.000
G1 X-20.888 Y23.546 Z-2.637 F200.000
G1 X-20.938 Y23.464 Z-2.645 F200.000
G1 X-20.971 Y23.373 Z-2.654 F200.000
G1 X-20.986 Y23.278 Z-2.663 F200.000
G1 X-20.981 Y23.183 Z-2.671 F200.000
G1 X-20.958 Y23.089 Z-2.680 F200.000
G1 X-20.918 Y23.002 Z-2.688 F200.000
G1 X-20.861 Y22.925 Z-2.697 F200.000
G1 X-20.790 Y22.860 Z-2.706 F200.000
G1 X-20.708 Y22.810 Z-2.714 F200.000
G1 X-20.618 Y22.777 Z-2.723 F200.000
G1 X-20.523 Y22.763 Z-2.731 F200.000
G1 X-20.427 Y22.767 Z-2.740 F200.000
G1 X-20.334 Y22.790 Z-2.749 F200.000
G1 X-20.247 Y22.830 Z-2.757 F200.000
G1 X-20.169 Y22.887 Z-2.766 F200.000
G1 X-20.104 Y22.958 Z-2.774 F200.000
G1 X-20.054 Y23.040 Z-2.783 F200.000
G1 X-20.022 Y23.130 Z-2.791 F200.000
G1 X-20.007 Y23.225 Z-2.800 F200.000
G1 X-20.011 Y23.321 Z-2.809 F200.000
G1 X-20.034 Y23.415 Z-2.817 F200.000
G1 X-20.075 Y23.502 Z-2.826 F200.000
G1 X-20.131 Y23.579 Z-2.834 F200.000
G1 X-20.202 Y23.644 Z-2.843 F200.000
G1 X-20.284 Y23.694 Z-2.852 F200.000
G1 X-20.375 Y23.727 Z-2.860 F200.000
G1 X-20.470 Y23.741 Z-2.869 F200.000
G1 X-20.566 Y23.737 Z-2.877 F200.000
G1 X-20.659 Y23.714 Z-2.886 F200.000
G1 X-20.746 Y23.673 Z-2.895 F200.000
G1 X-20.823 Y23.617 Z-2.903 F200.000
G1 X-20.888 Y23.546 Z-2.912 F200.000
G1 X-20.938 Y23.464 Z-2.920 F200.000
G1 X-20.971 Y23.373 Z-2.929 F200.000
G1 X-20.986 Y23.278 Z-2.937 F200.000
G1 X-20.981 Y23.183 Z-2.946 F200.000
G1 X-20.958 Y23.089 Z-2.955 F200.000
G1 X-20.918 Y23.002 Z-2.963 F200.000
G1 X-20.861 Y22.925 Z-2.972 F200.000
G1 X-20.790 Y22.860 Z-2.980 F200.000
G1 X-20.708 Y22.810 Z-2.989 F200.000
G1 X-20.618 Y22.777 Z-2.998 F200.000
G1 X-20.523 Y22.763 Z-3.000 F200.000
G1 X-20.427 Y22.767 Z-3.000 F200.000
G1 X-20.334 Y22.790 Z-3.000 F200.000
G1 X-20.247 Y22.830 Z-3.000 F200.000
G1 X-20.169 Y22.887 Z-3.000 F200.000
G1 X-20.104 Y22.958 Z-3.000 F200.000
G1 X-20.054 Y23.040 Z-3.000 F200.000
G1 X-20.022 Y23.130 Z-3.000 F200.000
G1 X-20.007 Y23.225 Z-3.000 F200.000
G1 X-20.011 Y23.321 Z-3.000 F200.000
G1 X-20.034 Y23.415 Z-3.000 F200.000
G1 X-20.075 Y23.502 Z-3.000 F200.000
G1 X-20.131 Y23.579 Z-3.000 F200.000
G1 X-20.202 Y23.644 Z-3.000 F200.000
G1 X-20.284 Y23.694 Z-3.000 F200.000
G1 X-20.375 Y23.727 Z-3.000 F200.000
G1 X-20.470 Y23.741 Z-3.000 F200.000
G1 X-20.566 Y23.737 Z-3.000 F200.000
G1 X-20.659 Y23.714 Z-3.000 F200.000
G1 X-20.746 Y23.673 Z-3.000 F200.000
G1 X-20.823 Y23.617 Z-3.000 F200.000
G1 X-20.888 Y23.546 Z-3.000 F200.000
G1 X-20.938 Y23.464 Z-3.000 F200.000
G1 X-20.971 Y23.373 Z-3.000 F200.000
G1 X-20.986 Y23.278 Z-3.000 F200.000
G1 X-20.981 Y23.183 Z-3.000 F200.000
G1 X-20.958 Y23.089 Z-3.000 F200.000
G1 X-20.918 Y23.002 Z-3.000 F200.000
G1 X-20.861 Y22.925 Z-3.000 F200.000
G1 X-20.790 Y22.860 Z-3.000 F200.000
G1 X-20.708 Y22.810 Z-3.000 F200.000
G1 X-20.618 Y22.777 Z-3.000 F200.000
(Adaptive - depth: -3.000000)
G1 X-20.496 Y22.752 F200.000
G1 X-20.447 Y22.714 F200.000
G1 X-20.387 Y22.695 F200.000
G1 X-20.327 Y22.688 F200.000
G1 X-20.267 Y22.692 F200.000
G1 X-20.150 Y22.726 F200.000
G1 X-20.041 Y22.786 F200.000
G1 X-19.992 Y22.823 F200.000
G1 X-19.857 Y23.038 F200.000
G1 X-19.820 Y23.177 F200.000
G1 X-19.808 Y23.282 F200.000
G1 X-19.820 Y23.402 F200.000
G1 X-19.865 Y23.541 F200.000
G1 X-19.940 Y23.669 F200.000
G1 X-20.030 Y23.771 F200.000
G1 X-20.147 Y23.853 F200.000
G1 X-20.278 Y23.910 F200.000
G1 X-20.417 Y23.940 F200.000
G1 X-20.560 Y23.940 F200.000
G1 X-20.703 Y23.910 F200.000
G1 X-20.831 Y23.853 F200.000
G1 X-20.951 Y23.767 F200.000
G1 X-21.049 Y23.658 F200.000
G1 X-21.120 Y23.530 F200.000
G1 X-21.162 Y23.398 F200.000
G1 X-21.177 Y23.256 F200.000
G1 X-21.162 Y23.117 F200.000
G1 X-21.117 Y22.981 F200.000
G1 X-21.045 Y22.857 F200.000
G1 X-20.910 Y22.703 F200.000
G1 X-20.756 Y22.590 F200.000
G1 X-20.583 Y22.511 F200.000
G1 X-20.402 Y22.474 F200.000
G1 X-20.282 Y22.470 F200.000
G1 X-20.162 Y22.489 F200.000
G1 X-20.045 Y22.530 F200.000
G1 X-19.771 Y22.741 F200.000
G1 X-19.677 Y22.876 F200.000
G1 X-19.628 Y22.977 F200.000
G1 X-19.590 Y23.094 F200.000
G1 X-19.571 Y23.259 F200.000
G1 X-19.583 Y23.436 F200.000
G1 X-19.628 Y23.602 F200.000
G1 X-19.695 Y23.744 F200.000
G1 X-19.793 Y23.880 F200.000
G1 X-19.914 Y23.989 F200.000
G1 X-20.038 Y24.068 F200.000
G1 X-20.184 Y24.128 F200.000
G1 X-20.338 Y24.165 F200.000
G1 X-20.526 Y24.173 F200.000
G1 X-20.692 Y24.154 F200.000
G1 X-20.853 Y24.098 F200.000
G1 X-20.981 Y24.026 F200.000
G1 X-21.109 Y23.925 F200.000
G1 X-21.222 Y23.793 F200.000
G1 X-21.305 Y23.654 F200.000
G1 X-21.361 Y23.496 F200.000
G1 X-21.387 Y23.331 F200.000
G1 X-21.387 Y23.165 F200.000
G1 X-21.357 Y23.000 F200.000
G1 X-21.297 Y22.842 F200.000
G1 X-21.214 Y22.695 F200.000
G1 X-21.102 Y22.553 F200.000
G1 X-20.959 Y22.425 F200.000
G1 X-20.808 Y22.327 F200.000
G1 X-20.635 Y22.256 F200.000
G1 X-20.474 Y22.218 F200.000
G1 X-20.297 Y22.214 F200.000
G1 X-20.143 Y22.237 F200.000
G1 X-19.981 Y22.282 F200.000
G1 X-19.808 Y22.365 F200.000
G1 X-19.654 Y22.474 F200.000
G1 X-19.530 Y22.605 F200.000
G1 X-19.436 Y22.737 F200.000
G1 X-19.361 Y22.895 F200.000
G1 X-19.312 Y23.060 F200.000
G1 X-19.289 Y23.252 F200.000
G1 X-19.297 Y23.429 F200.000
G1 X-19.331 Y23.609 F200.000
G1 X-19.398 Y23.793 F200.000
G1 X-19.496 Y23.951 F200.000
G1 X-19.602 Y24.079 F200.000
G1 X-19.737 Y24.203 F200.000
G1 X-19.906 Y24.308 F200.000
G1 X-20.071 Y24.380 F200.000
G1 X-20.256 Y24.429 F200.000
G1 X-20.444 Y24.447 F200.000
G1 X-20.628 Y24.436 F200.000
G1 X-20.812 Y24.395 F200.000
G1 X-20.989 Y24.323 F200.000
G1 X-21.154 Y24.226 F200.000
G1 X-21.301 Y24.105 F200.000
G1 X-21.429 Y23.962 F200.000
G1 X-21.526 Y23.797 F200.000
G1 X-21.590 Y23.643 F200.000
G1 X-21.635 Y23.451 F200.000
G1 X-21.650 Y23.267 F200.000
G1 X-21.639 Y23.068 F200.000
G1 X-21.598 Y22.880 F200.000
G1 X-21.526 Y22.699 F200.000
G1 X-21.429 Y22.526 F200.000
G1 X-21.312 Y22.372 F200.000
G1 X-21.154 Y22.218 F200.000
G1 X-20.989 Y22.098 F200.000
G1 X-20.801 Y22.011 F200.000
G1 X-20.632 Y21.959 F200.000
G1 X-20.440 Y21.929 F200.000
G1 X-20.237 Y21.925 F200.000
G1 X-20.026 Y21.951 F200.000
G1 X-19.831 Y22.008 F200.000
G1 X-19.647 Y22.102 F200.000
G1 X-19.504 Y22.199 F200.000
G1 X-19.361 Y22.327 F200.000
G1 X-19.229 Y22.489 F200.000
G1 X-19.124 Y22.665 F200.000
G1 X-19.045 Y22.853 F200.000
G1 X-18.996 Y23.053 F200.000
G1 X-18.977 Y23.252 F200.000
G1 X-18.985 Y23.451 F200.000
G1 X-19.019 Y23.654 F200.000
G1 X-19.086 Y23.857 F200.000
G1 X-19.180 Y24.041 F200.000
G1 X-19.301 Y24.211 F200.000
G1 X-19.444 Y24.365 F200.000
G1 X-19.605 Y24.496 F200.000
G1 X-19.786 Y24.602 F200.000
G1 X-19.977 Y24.680 F200.000
G1 X-20.180 Y24.733 F200.000
G1 X-20.387 Y24.756 F200.000
G1 X-20.594 Y24.748 F200.000
G1 X-20.801 Y24.711 F200.000
G1 X-21.000 Y24.647 F200.000
G1 X-21.192 Y24.560 F200.000
G1 X-21.391 Y24.432 F200.000
G1 X-21.549 Y24.282 F200.000
G1 X-21.665 Y24.139 F200.000
G1 X-21.774 Y23.959 F200.000
G1 X-21.853 Y23.771 F200.000
G1 X-21.914 Y23.556 F200.000
G1 X-21.944 Y23.346 F200.000
G1 X-21.944 Y23.117 F200.000
G1 X-21.914 Y22.895 F200.000
G1 X-21.850 Y22.684 F200.000
G1 X-21.771 Y22.504 F200.000
G1 X-21.654 Y22.305 F200.000
G1 X-21.500 Y22.117 F200.000
G1 X-21.342 Y21.962 F200.000
G1 X-21.150 Y21.831 F200.000
G1 X-20.974 Y21.737 F200.000
G1 X-20.771 Y21.658 F200.000
G1 X-20.545 Y21.609 F200.000
G1 X-20.335 Y21.590 F200.000
G1 X-20.117 Y21.602 F200.000
G1 X-19.902 Y21.643 F200.000
G1 X-19.579 Y21.748 F200.000
G1 X-19.365 Y21.861 F200.000
G1 X-19.169 Y22.004 F200.000
G1 X-18.925 Y22.267 F200.000
G1 X-18.748 Y22.575 F200.000
G1 X-18.632 Y22.910 F200.000
G1 X-18.583 Y23.248 F200.000
G1 X-18.602 Y23.586 F200.000
G1 X-18.695 Y23.925 F200.000
G1 X-18.880 Y24.278 F200.000
G1 X-19.060 Y24.504 F200.000
G1 X-19.320 Y24.729 F200.000
G1 X-19.669 Y24.932 F200.000
G1 X-20.173 Y25.071 F200.000
G1 X-20.511 Y25.086 F200.000
G1 X-20.850 Y25.038 F200.000
G1 X-21.128 Y24.944 F200.000
G1 X-21.436 Y24.767 F200.000
G1 X-21.711 Y24.530 F200.000
G1 X-21.966 Y24.188 F200.000
G1 X-22.165 Y23.805 F200.000
G1 X-22.233 Y23.444 F200.000
G1 X-22.237 Y23.083 F200.000
G1 X-22.177 Y22.722 F200.000
G1 X-22.019 Y22.316 F200.000
G1 X-21.774 Y21.951 F200.000
G1 X-21.556 Y21.726 F200.000
G1 X-21.252 Y21.504 F200.000
G1 X-21.026 Y21.391 F200.000
G1 X-20.605 Y21.263 F200.000
G1 X-20.244 Y21.222 F200.000
G1 X-19.883 Y21.244 F200.000
G1 X-19.526 Y21.338 F200.000
G1 X-19.143 Y21.523 F200.000
G1 X-18.944 Y21.669 F200.000
G1 X-18.744 Y21.891 F200.000
G1 X-18.549 Y22.188 F200.000
G1 X-18.402 Y22.508 F200.000
G1 X-18.327 Y22.789 F200.000
G1 X-18.282 Y23.071 F200.000
G1 X-18.286 Y23.466 F200.000
G1 X-18.361 Y23.861 F200.000
G1 X-18.436 Y24.086 F200.000
G1 X-18.568 Y24.350 F200.000
G1 X-18.801 Y24.680 F200.000
G1 X-19.038 Y24.925 F200.000
G1 X-19.417 Y25.188 F200.000
G1 X-19.786 Y25.338 F200.000
G1 X-20.237 Y25.429 F200.000
G1 X-20.632 Y25.425 F200.000
G1 X-20.970 Y25.357 F200.000
G1 X-21.350 Y25.199 F200.000
G1 X-21.650 Y25.004 F200.000
G1 X-21.996 Y24.673 F200.000
G1 X-22.214 Y24.387 F200.000
G1 X-22.357 Y24.120 F200.000
G1 X-22.444 Y23.891 F200.000
G1 X-22.534 Y23.410 F200.000
G1 X-22.538 Y22.989 F200.000
G1 X-22.477 Y22.628 F200.000
G1 X-22.271 Y22.105 F200.000
G1 X-22.034 Y21.737 F200.000
G1 X-21.771 Y21.470 F200.000
G1 X-21.466 Y21.252 F200.000
G1 X-21.120 Y21.120 F200.000
G1 X-20.820 Y21.056 F200.000
G1 X-20.338 Y21.034 F200.000
G1 X-19.917 Y21.113 F200.000
G1 X-19.741 Y21.165 F200.000
G1 X-19.628 Y21.214 F200.000
G1 X-19.628 Y21.214 F200.000
G1 X-19.617 Y21.233 F200.000
G0 X-19.613 Y21.248
G1 X-19.620 Y21.259 F200.000
G1 X-19.624 Y21.259 F200.000
G1 X-19.628 Y21.263 F200.000
G1 X-19.628 Y21.241 F200.000
G1 X-19.586 Y21.229 F200.000
G1 X-19.586 Y21.229 F200.000
G1 X-19.477 Y21.282 F200.000
G1 X-19.477 Y21.282 F200.000
G1 X-19.380 Y21.365 F200.000
G1 X-19.335 Y21.440 F200.000
G0 X-19.331 Y21.470
G0 X-19.346 Y21.654
G0 X-19.955 Y25.120
G1 X-19.962 Y25.162 F200.000
G1 X-19.992 Y25.286 F200.000
G1 X-20.041 Y25.361 F200.000
G1 X-20.150 Y25.432 F200.000
G1 X-20.214 Y25.455 F200.000
G1 X-20.214 Y25.455 F200.000
G1 X-20.553 Y25.470 F200.000
G1 X-20.835 Y25.447 F200.000
G1 X-21.173 Y25.368 F200.000
G1 X-21.451 Y25.256 F200.000
G1 X-21.714 Y25.109 F200.000
G1 X-21.910 Y24.966 F200.000
G1 X-22.132 Y24.759 F200.000
G1 X-22.350 Y24.477 F200.000
G1 X-22.549 Y24.105 F200.000
G1 X-22.594 Y23.992 F200.000
G1 X-22.688 Y23.632 F200.000
G1 X-22.714 Y23.090 F200.000
G1 X-22.669 Y22.789 F200.000
G1 X-22.583 Y22.489 F200.000
G1 X-22.429 Y22.150 F200.000
G1 X-22.256 Y21.891 F200.000
G1 X-22.045 Y21.662 F200.000
G1 X-21.853 Y21.496 F200.000
G1 X-21.853 Y21.496 F200.000
G1 X-21.835 Y21.489 F200.000
G0 X-21.820 Y21.496
G0 X-21.812 Y21.511
G1 X-21.816 Y21.523 F200.000
G1 X-21.846 Y21.530 F200.000
G1 X-21.868 Y21.508 F200.000
G1 X-21.868 Y21.474 F200.000
G1 X-21.868 Y21.474 F200.000
G1 X-21.692 Y21.353 F200.000
G1 X-21.477 Y21.233 F200.000
G1 X-21.150 Y21.102 F200.000
G1 X-20.868 Y21.034 F200.000
G1 X-20.571 Y21.008 F200.000
G1 X-20.357 Y21.008 F200.000
G1 X-20.135 Y21.034 F200.000
G1 X-19.853 Y21.102 F200.000
G1 X-19.594 Y21.195 F200.000
G1 X-19.368 Y21.312 F200.000
G1 X-19.143 Y21.459 F200.000
G1 X-18.977 Y21.594 F200.000
G1 X-18.887 Y21.684 F200.000
G1 X-18.684 Y21.925 F200.000
G1 X-18.568 Y22.094 F200.000
G1 X-18.485 Y22.248 F200.000
G1 X-18.406 Y22.432 F200.000
G1 X-18.327 Y22.677 F200.000
G1 X-18.274 Y22.921 F200.000
G1 X-18.256 Y23.083 F200.000
G1 X-18.252 Y23.365 F200.000
G1 X-18.271 Y23.538 F200.000
G1 X-18.335 Y23.865 F200.000
G1 X-18.414 Y24.105 F200.000
G1 X-18.556 Y24.380 F200.000
G1 X-18.632 Y24.504 F200.000
G1 X-18.718 Y24.624 F200.000
G1 X-18.944 Y24.880 F200.000
G1 X-19.158 Y25.056 F200.000
G1 X-19.376 Y25.203 F200.000
G1 X-19.530 Y25.282 F200.000
G1 X-19.820 Y25.395 F200.000
G1 X-20.071 Y25.455 F200.000
G1 X-20.286 Y25.489 F200.000
G1 X-20.647 Y25.496 F200.000
G1 X-20.917 Y25.459 F200.000
G1 X-21.135 Y25.402 F200.000
G1 X-21.489 Y25.271 F200.000
G1 X-21.737 Y25.124 F200.000
G1 X-21.910 Y24.996 F200.000
G1 X-22.135 Y24.789 F200.000
G1 X-22.323 Y24.568 F200.000
G1 X-22.455 Y24.365 F200.000
G1 X-22.556 Y24.150 F200.000
G1 X-22.673 Y23.812 F200.000
G1 X-22.711 Y23.650 F200.000
G1 X-22.741 Y23.368 F200.000
G1 X-22.744 Y23.173 F200.000
G1 X-22.733 Y23.011 F200.000
G1 X-22.677 Y22.722 F200.000
G1 X-22.620 Y22.519 F200.000
G1 X-22.549 Y22.338 F200.000
G1 X-22.436 Y22.109 F200.000
G1 X-22.259 Y21.853 F200.000
G1 X-22.139 Y21.718 F200.000
G1 X-21.868 Y21.474 F200.000
G1 X-21.868 Y21.474 F200.000
G0 Z15.000
(Helix to depth: -3.000000)
G0 Z15.000
G0 X20.659 Y22.790 Z15.000
G0 X20.659 Y22.790 Z13.000
G1 X20.659 Y22.790 Z0.000 F200.000
G1 X20.659 Y22.790 Z0.000 F200.000
G1 X20.746 Y22.830 Z-0.009 F200.000
G1 X20.823 Y22.887 Z-0.017 F200.000
G1 X20.888 Y22.958 Z-0.026 F200.000
G1 X20.938 Y23.040 Z-0.034 F200.000
G1 X20.971 Y23.130 Z-0.043 F200.000
G1 X20.986 Y23.225 Z-0.052 F200.000
G1 X20.981 Y23.321 Z-0.060 F200.000
G1 X20.958 Y23.415 Z-0.069 F200.000
G1 X20.918 Y23.502 Z-0.077 F200.000
G1 X20.861 Y23.579 Z-0.086 F200.000
G1 X20.790 Y23.644 Z-0.094 F200.000
G1 X20.708 Y23.694 Z-0.103 F200.000
G1 X20.618 Y23.727 Z-0.112 F200.000
G1 X20.523 Y23.741 Z-0.120 F200.000
G1 X20.427 Y23.737 Z-0.129 F200.000
G1 X20.334 Y23.714 Z-0.137 F200.000
G1 X20.247 Y23.673 Z-0.146 F200.000
G1 X20.169 Y23.617 Z-0.155 F200.000
G1 X20.104 Y23.546 Z-0.163 F200.000
G1 X20.054 Y23.464 Z-0.172 F200.000
G1 X20.022 Y23.373 Z-0.180 F200.000
G1 X20.007 Y23.278 Z-0.189 F200.000
G1 X20.011 Y23.183 Z-0.198 F200.000
G1 X20.034 Y23.089 Z-0.206 F200.000
G1 X20.075 Y23.002 Z-0.215 F200.000
G1 X20.131 Y22.925 Z-0.223 F200.000
G1 X20.202 Y22.860 Z-0.232 F200.000
G1 X20.284 Y22.810 Z-0.240 F200.000
G1 X20.375 Y22.777 Z-0.249 F200.000
G1 X20.470 Y22.763 Z-0.258 F200.000
G1 X20.566 Y22.767 Z-0.266 F200.000
G1 X20.659 Y22.790 Z-0.275 F200.000
G1 X20.746 Y22.830 Z-0.283 F200.000
G1 X20.823 Y22.887 Z-0.292 F200.000
G1 X20.888 Y22.958 Z-0.301 F200.000
G1 X20.938 Y23.040 Z-0.309 F200.000
G1 X20.971 Y23.130 Z-0.318 F200.000
G1 X20.986 Y23.225 Z-0.326 F200.000
G1 X20.981 Y23.321 Z-0.335 F200.000
G1 X20.958 Y23.415 Z-0.344 F200.000
G1 X20.918 Y23.502 Z-0.352 F200.000
G1 X20.861 Y23.579 Z-0.361 F200.000
G1 X20.790 Y23.644 Z-0.369 F200.000
G1 X20.708 Y23.694 Z-0.378 F200.000
G1 X20.618 Y23.727 Z-0.387 F200.000
G1 X20.523 Y23.741 Z-0.395 F200.000
G1 X20.427 Y23.737 Z-0.404 F200.000
G1 X20.334 Y23.714 Z-0.412 F200.000
G1 X20.247 Y23.673 Z-0.421 F200.000
G1 X20.169 Y23.617 Z-0.429 F200.000
G1 X20.104 Y23.546 Z-0.438 F200.000
G1 X20.054 Y23.464 Z-0.447 F200.000
G1 X20.022 Y23.373 Z-0.455 F200.000
G1 X20.007 Y23.278 Z-0.464 F200.000
G1 X20.011 Y23.183 Z-0.472 F200.000
G1 X20.034 Y23.089 Z-0.481 F200.000
G1 X20.075 Y23.002 Z-0.490 F200.000
G1 X20.131 Y22.925 Z-0.498 F200.000
G1 X20.202 Y22.860 Z-0.507 F200.000
G1 X20.284 Y22.810 Z-0.515 F200.000
G1 X20.375 Y22.777 Z-0.524 F200.000
G1 X20.470 Y22.763 Z-0.533 F200.000
G1 X20.566 Y22.767 Z-0.541 F200.000
G1 X20.659 Y22.790 Z-0.550 F200.000
G1 X20.746 Y22.830 Z-0.558 F200.000
G1 X20.823 Y22.887 Z-0.567 F200.000
G1 X20.888 Y22.958 Z-0.575 F200.000
G1 X20.938 Y23.040 Z-0.584 F200.000
G1 X20.971 Y23.130 Z-0.593 F200.000
G1 X20.986 Y23.225 Z-0.601 F200.000
G1 X20.981 Y23.321 Z-0.610 F200.000
G1 X20.958 Y23.415 Z-0.618 F200.000
G1 X20.918 Y23.502 Z-0.627 F200.000
G1 X20.861 Y23.579 Z-0.636 F200.000
G1 X20.790 Y23.644 Z-0.644 F200.000
G1 X20.708 Y23.694 Z-0.653 F200.000
G1 X20.618 Y23.727 Z-0.661 F200.000
G1 X20.523 Y23.741 Z-0.670 F200.000
G1 X20.427 Y23.737 Z-0.679 F200.000
G1 X20.334 Y23.714 Z-0.687 F200.000
G1 X20.247 Y23.673 Z-0.696 F200.000
G1 X20.169 Y23.617 Z-0.704 F200.000
G1 X20.104 Y23.546 Z-0.713 F200.000
G1 X20.054 Y23.464 Z-0.721 F200.000
G1 X20.022 Y23.373 Z-0.730 F200.000
G1 X20.007 Y23.278 Z-0.739 F200.000
G1 X20.011 Y23.183 Z-0.747 F200.000
G1 X20.034 Y23.089 Z-0.756 F200.000
G1 X20.075 Y23.002 Z-0.764 F200.000
G1 X20.131 Y22.925 Z-0.773 F200.000
G1 X20.202 Y22.860 Z-0.782 F200.000
G1 X20.284 Y22.810 Z-0.790 F200.000
G1 X20.375 Y22.777 Z-0.799 F200.000
G1 X20.470 Y22.763 Z-0.807 F200.000
G1 X20.566 Y22.767 Z-0.816 F200.000
G1 X20.659 Y22.790 Z-0.825 F200.000
G1 X20.746 Y22.830 Z-0.833 F200.000
G1 X20.823 Y22.887 Z-0.842 F200.000
G1 X20.888 Y22.958 Z-0.850 F200.000
G1 X20.938 Y23.040 Z-0.859 F200.000
G1 X20.971 Y23.130 Z-0.868 F200.000
G1 X20.986 Y23.225 Z-0.876 F200.000
G1 X20.981 Y23.321 Z-0.885 F200.000
G1 X20.958 Y23.415 Z-0.893 F200.000
G1 X20.918 Y23.502 Z-0.902 F200.000
G1 X20.861 Y23.579 Z-0.910 F200.000
G1 X20.790 Y23.644 Z-0.919 F200.000
G1 X20.708 Y23.694 Z-0.928 F200.000
G1 X20.618 Y23.727 Z-0.936 F200.000
G1 X20.523 Y23.741 Z-0.945 F200.000
G1 X20.427 Y23.737 Z-0.953 F200.000
G1 X20.334 Y23.714 Z-0.962 F200.000
G1 X20.247 Y23.673 Z-0.971 F200.000
G1 X20.169 Y23.617 Z-0.979 F200.000
G1 X20.104 Y23.546 Z-0.988 F200.000
G1 X20.054 Y23.464 Z-0.996 F200.000
G1 X20.022 Y23.373 Z-1.005 F200.000
G1 X20.007 Y23.278 Z-1.014 F200.000
G1 X20.011 Y23.183 Z-1.022 F200.000
G1 X20.034 Y23.089 Z-1.031 F200.000
G1 X20.075 Y23.002 Z-1.039 F200.000
G1 X20.131 Y22.925 Z-1.048 F200.000
G1 X20.202 Y22.860 Z-1.056 F200.000
G1 X20.284 Y22.810 Z-1.065 F200.000
G1 X20.375 Y22.777 Z-1.074 F200.000
G1 X20.470 Y22.763 Z-1.082 F200.000
G1 X20.566 Y22.767 Z-1.091 F200.000
G1 X20.659 Y22.790 Z-1.099 F200.000
G1 X20.746 Y22.830 Z-1.108 F200.000
G1 X20.823 Y22.887 Z-1.117 F200.000
G1 X20.888 Y22.958 Z-1.125 F200.000
G1 X20.938 Y23.040 Z-1.134 F200.000
G1 X20.971 Y23.130 Z-1.142 F200.000
G1 X20.986 Y23.225 Z-1.151 F200.000
G1 X20.981 Y23.321 Z-1.160 F200.000
G1 X20.958 Y23.415 Z-1.168 F200.000
G1 X20.918 Y23.502 Z-1.177 F200.000
G1 X20.861 Y23.579 Z-1.185 F200.000
G1 X20.790 Y23.644 Z-1.194 F200.000
G1 X20.708 Y23.694 Z-1.202 F200.000
G1 X20.618 Y23.727 Z-1.211 F200.000
G1 X20.523 Y23.741 Z-1.220 F200.000
G1 X20.427 Y23.737 Z-1.228 F200.000
G1 X20.334 Y23.714 Z-1.237 F200.000
G1 X20.247 Y23.673 Z-1.245 F200.000
G1 X20.169 Y23.617 Z-1.254 F200.000
G1 X20.104 Y23.546 Z-1.263 F200.000
G1 X20.054 Y23.464 Z-1.271 F200.000
G1 X20.022 Y23.373 Z-1.280 F200.000
G1 X20.007 Y23.278 Z-1.288 F200.000
G1 X20.011 Y23.183 Z-1.297 F200.000
G1 X20.034 Y23.089 Z-1.306 F200.000
G1 X20.075 Y23.002 Z-1.314 F200.000
G1 X20.131 Y22.925 Z-1.323 F200.000
G1 X20.202 Y22.860 Z-1.331 F200.000
G1 X20.284 Y22.810 Z-1.340 F200.000
G1 X20.375 Y22.777 Z-1.349 F200.000
G1 X20.470 Y22.763 Z-1.357 F200.000
G1 X20.566 Y22.767 Z-1.366 F200.000
G1 X20.659 Y22.790 Z-1.374 F200.000
G1 X20.746 Y22.830 Z-1.383 F200.000
G1 X20.823 Y22.887 Z-1.391 F200.000
G1 X20.888 Y22.958 Z-1.400 F200.000
G1 X20.938 Y23.040 Z-1.409 F200.000
G1 X20.971 Y23.130 Z-1.417 F200.000
G1 X20.986 Y23.225 Z-1.426 F200.000
G1 X20.981 Y23.321 Z-1.434 F200.000
G1 X20.958 Y23.415 Z-1.443 F200.000
G1 X20.918 Y23.502 Z-1.452 F200.000
G1 X20.861 Y23.579 Z-1.460 F200.000
G1 X20.790 Y23.644 Z-1.469 F200.000
G1 X20.708 Y23.694 Z-1.477 F200.000
G1 X20.618 Y23.727 Z-1.486 F200.000
G1 X20.523 Y23.741 Z-1.495 F200.000
G1 X20.427 Y23.737 Z-1.503 F200.000
G1 X20.334 Y23.714 Z-1.512 F200.000
G1 X20.247 Y23.673 Z-1.520 F200.000
G1 X20.169 Y23.617 Z-1.529 F200.000
G1 X20.104 Y23.546 Z-1.537 F200.000
G1 X20.054 Y23.464 Z-1.546 F200.000
G1 X20.022 Y23.373 Z-1.555 F200.000
G1 X20.007 Y23.278 Z-1.563 F200.000
G1 X20.011 Y23.183 Z-1.572 F200.000
G1 X20.034 Y23.089 Z-1.580 F200.000
G1 X20.075 Y23.002 Z-1.589 F200.000
G1 X20.131 Y22.925 Z-1.598 F200.000
G1 X20.202 Y22.860 Z-1.606 F200.000
G1 X20.284 Y22.810 Z-1.615 F200.000
G1 X20.375 Y22.777 Z-1.623 F200.000
G1 X20.470 Y22.763 Z-1.632 F200.000
G1 X20.566 Y22.767 Z-1.641 F200.000
G1 X20.659 Y22.790 Z-1.649 F200.000
G1 X20.746 Y22.830 Z-1.658 F200.000
G1 X20.823 Y22.887 Z-1.666 F200.000
G1 X20.888 Y22.958 Z-1.675 F200.000
G1 X20.938 Y23.040 Z-1.683 F200.000
G1 X20.971 Y23.130 Z-1.692 F200.000
G1 X20.986 Y23.225 Z-1.701 F200.000
G1 X20.981 Y23.321 Z-1.709 F200.000
G1 X20.958 Y23.415 Z-1.718 F200.000
G1 X20.918 Y23.502 Z-1.726 F200.000
G1 X20.861 Y23.579 Z-1.735 F200.000
G1 X20.790 Y23.644 Z-1.744 F200.000
G1 X20.708 Y23.694 Z-1.752 F200.000
G1 X20.618 Y23.727 Z-1.761 F200.000
G1 X20.523 Y23.741 Z-1.769 F200.000
G1 X20.427 Y23.737 Z-1.778 F200.000
G1 X20.334 Y23.714 Z-1.787 F200.000
G1 X20.247 Y23.673 Z-1.795 F200.000
G1 X20.169 Y23.617 Z-1.804 F200.000
G1 X20.104 Y23.546 Z-1.812 F200.000
G1 X20.054 Y23.464 Z-1.821 F200.000
G1 X20.022 Y23.373 Z-1.829 F200.000
G1 X20.007 Y23.278 Z-1.838 F200.000
G1 X20.011 Y23.183 Z-1.847 F200.000
G1 X20.034 Y23.089 Z-1.855 F200.000
G1 X20.075 Y23.002 Z-1.864 F200.000
G1 X20.131 Y22.925 Z-1.872 F200.000
G1 X20.202 Y22.860 Z-1.881 F200.000
G1 X20.284 Y22.810 Z-1.890 F200.000
G1 X20.375 Y22.777 Z-1.898 F200.000
G1 X20.470 Y22.763 Z-1.907 F200.000
G1 X20.566 Y22.767 Z-1.915 F200.000
G1 X20.659 Y22.790 Z-1.924 F200.000
G1 X20.746 Y22.830 Z-1.933 F200.000
G1 X20.823 Y22.887 Z-1.941 F200.000
G1 X20.888 Y22.958 Z-1.950 F200.000
G1 X20.938 Y23.040 Z-1.958 F200.000
G1 X20.971 Y23.130 Z-1.967 F200.000
G1 X20.986 Y23.225 Z-1.976 F200.000
G1 X20.981 Y23.321 Z-1.984 F200.000
G1 X20.958 Y23.415 Z-1.993 F200.000
G1 X20.918 Y23.502 Z-2.001 F200.000
G1 X20.861 Y23.579 Z-2.010 F200.000
G1 X20.790 Y23.644 Z-2.018 F200.000
G1 X20.708 Y23.694 Z-2.027 F200.000
G1 X20.618 Y23.727 Z-2.036 F200.000
G1 X20.523 Y23.741 Z-2.044 F200.000
G1 X20.427 Y23.737 Z-2.053 F200.000
G1 X20.334 Y23.714 Z-2.061 F200.000
G1 X20.247 Y23.673 Z-2.070 F200.000
G1 X20.169 Y23.617 Z-2.079 F200.000
G1 X20.104 Y23.546 Z-2.087 F200.000
G1 X20.054 Y23.464 Z-2.096 F200.000
G1 X20.022 Y23.373 Z-2.104 F200.000
G1 X20.007 Y23.278 Z-2.113 F200.000
G1 X20.011 Y23.183 Z-2.122 F200.000
G1 X20.034 Y23.089 Z-2.130 F200.000
G1 X20.075 Y23.002 Z-2.139 F200.000
G1 X20.131 Y22.925 Z-2.147 F200.000
G1 X20.202 Y22.860 Z-2.156 F200.000
G1 X20.284 Y22.810 Z-2.164 F200.000
G1 X20.375 Y22.777 Z-2.173 F200.000
G1 X20.470 Y22.763 Z-2.182 F200.000
G1 X20.566 Y22.767 Z-2.190 F200.000
G1 X20.659 Y22.790 Z-2.199 F200.000
G1 X20.746 Y22.830 Z-2.207 F200.000
G1 X20.823 Y22.887 Z-2.216 F200.000
G1 X20.888 Y22.958 Z-2.225 F200.000
G1 X20.938 Y23.040 Z-2.233 F200.000
G1 X20.971 Y23.130 Z-2.242 F200.000
G1 X20.986 Y23.225 Z-2.250 F200.000
G1 X20.981 Y23.321 Z-2.259 F200.000
G1 X20.958 Y23.415 Z-2.268 F200.000
G1 X20.918 Y23.502 Z-2.276 F200.000
G1 X20.861 Y23.579 Z-2.285 F200.000
G1 X20.790 Y23.644 Z-2.293 F200.000
G1 X20.708 Y23.694 Z-2.302 F200.000
G1 X20.618 Y23.727 Z-2.310 F200.000
G1 X20.523 Y23.741 Z-2.319 F200.000
G1 X20.427 Y23.737 Z-2.328 F200.000
G1 X20.334 Y23.714 Z-2.336 F200.000
G1 X20.247 Y23.673 Z-2.345 F200.000
G1 X20.169 Y23.617 Z-2.353 F200.000
G1 X20.104 Y23.546 Z-2.362 F200.000
G1 X20.054 Y23.464 Z-2.371 F200.000
G1 X20.022 Y23.373 Z-2.379 F200.000
G1 X20.007 Y23.278 Z-2.388 F200.000
G1 X20.011 Y23.183 Z-2.396 F200.000
G1 X20.034 Y23.089 Z-2.405 F200.000
G1 X20.075 Y23.002 Z-2.414 F200.000
G1 X20.131 Y22.925 Z-2.422 F200.000
G1 X20.202 Y22.860 Z-2.431 F200.000
G1 X20.284 Y22.810 Z-2.439 F200.000
G1 X20.375 Y22.777 Z-2.448 F200.000
G1 X20.470 Y22.763 Z-2.457 F200.000
G1 X20.566 Y22.767 Z-2.465 F200.000
G1 X20.659 Y22.790 Z-2.474 F200.000
G1 X20.746 Y22.830 Z-2.482 F200.000
G1 X20.823 Y22.887 Z-2.491 F200.000
G1 X20.888 Y22.958 Z-2.499 F200.000
G1 X20.938 Y23.040 Z-2.508 F200.000
G1 X20.971 Y23.130 Z-2.517 F200.000
G1 X20.986 Y23.225 Z-2.525 F200.000
G1 X20.981 Y23.321 Z-2.534 F200.000
G1 X20.958 Y23.415 Z-2.542 F200.000
G1 X20.918 Y23.502 Z-2.551 F200.000
G1 X20.861 Y23.579 Z-2.560 F200.000
G1 X20.790 Y23.644 Z-2.568 F200.000
G1 X20.708 Y23.694 Z-2.577 F200.000
G1 X20.618 Y23.727 Z-2.585 F200.000
G1 X20.523 Y23.741 Z-2.594 F200.000
G1 X20.427 Y23.737 Z-2.603 F200.000
G1 X20.334 Y23.714 Z-2.611 F200.000
G1 X20.247 Y23.673 Z-2.620 F200.000
G1 X20.169 Y23.617 Z-2.628 F200.000
G1 X20.104 Y23.546 Z-2.637 F200.000
G1 X20.054 Y23.464 Z-2.645 F200.000
G1 X20.022 Y23.373 Z-2.654 F200.000
G1 X20.007 Y23.278 Z-2.663 F200.000
G1 X20.011 Y23.183 Z-2.671 F200.000
G1 X20.034 Y23.089 Z-2.680 F200.000
G1 X20.075 Y23.002 Z-2.688 F200.000
G1 X20.131 Y22.925 Z-2.697 F200.000
G1 X20.202 Y22.860 Z-2.706 F200.000
G1 X20.284 Y22.810 Z-2.714 F200.000
G1 X20.375 Y22.777 Z-2.723 F200.000
G1 X20.470 Y22.763 Z-2.731 F200.000
G1 X20.566 Y22.767 Z-2.740 F200.000
G1 X20.659 Y22.790 Z-2.749 F200.000
G1 X20.746 Y22.830 Z-2.757 F200.000
G1 X20.823 Y22.887 Z-2.766 F200.000
G1 X20.888 Y22.958 Z-2.774 F200.000
G1 X20.938 Y23.040 Z-2.783 F200.000
G1 X20.971 Y23.130 Z-2.791 F200.000
G1 X20.986 Y23.225 Z-2.800 F200.000
G1 X20.981 Y23.321 Z-2.809 F200.000
G1 X20.958 Y23.415 Z-2.817 F200.000
G1 X20.918 Y23.502 Z-2.826 F200.000
G1 X20.861 Y23.579 Z-2.834 F200.000
G1 X20.790 Y23.644 Z-2.843 F200.000
G1 X20.708 Y23.694 Z-2.852 F200.000
G1 X20.618 Y23.727 Z-2.860 F200.000
G1 X20.523 Y23.741 Z-2.869 F200.000
G1 X20.427 Y23.737 Z-2.877 F200.000
G1 X20.334 Y23.714 Z-2.886 F200.000
G1 X20.247 Y23.673 Z-2.895 F200.000
G1 X20.169 Y23.617 Z-2.903 F200.000
G1 X20.104 Y23.546 Z-2.912 F200.000
G1 X20.054 Y23.464 Z-2.920 F200.000
G1 X20.022 Y23.373 Z-2.929 F200.000
G1 X20.007 Y23.278 Z-2.937 F200.000
G1 X20.011 Y23.183 Z-2.946 F200.000
G1 X20.034 Y23.089 Z-2.955 F200.000
G1 X20.075 Y23.002 Z-2.963 F200.000
G1 X20.131 Y22.925 Z-2.972 F200.000
G1 X20.202 Y22.860 Z-2.980 F200.000
G1 X20.284 Y22.810 Z-2.989 F200.000
G1 X20.375 Y22.777 Z-2.998 F200.000
G1 X20.470 Y22.763 Z-3.000 F200.000
G1 X20.566 Y22.767 Z-3.000 F200.000
G1 X20.659 Y22.790 Z-3.000 F200.000
G1 X20.746 Y22.830 Z-3.000 F200.000
G1 X20.823 Y22.887 Z-3.000 F200.000
G1 X20.888 Y22.958 Z-3.000 F200.000
G1 X20.938 Y23.040 Z-3.000 F200.000
G1 X20.971 Y23.130 Z-3.000 F200.000
G1 X20.986 Y23.225 Z-3.000 F200.000
G1 X20.981 Y23.321 Z-3.000 F200.000
G1 X20.958 Y23.415 Z-3.000 F200.000
G1 X20.918 Y23.502 Z-3.000 F200.000
G1 X20.861 Y23.579 Z-3.000 F200.000
G1 X20.790 Y23.644 Z-3.000 F200.000
G1 X20.708 Y23.694 Z-3.000 F200.000
G1 X20.618 Y23.727 Z-3.000 F200.000
G1 X20.523 Y23.741 Z-3.000 F200.000
G1 X20.427 Y23.737 Z-3.000 F200.000
G1 X20.334 Y23.714 Z-3.000 F200.000
G1 X20.247 Y23.673 Z-3.000 F200.000
G1 X20.169 Y23.617 Z-3.000 F200.000
G1 X20.104 Y23.546 Z-3.000 F200.000
G1 X20.054 Y23.464 Z-3.000 F200.000
G1 X20.022 Y23.373 Z-3.000 F200.000
G1 X20.007 Y23.278 Z-3.000 F200.000
G1 X20.011 Y23.183 Z-3.000 F200.000
G1 X20.034 Y23.089 Z-3.000 F200.000
G1 X20.075 Y23.002 Z-3.000 F200.000
G1 X20.131 Y22.925 Z-3.000 F200.000
G1 X20.202 Y22.860 Z-3.000 F200.000
G1 X20.284 Y22.810 Z-3.000 F200.000
G1 X20.375 Y22.777 Z-3.000 F200.000
(Adaptive - depth: -3.000000)
G1 X20.496 Y22.752 F200.000
G1 X20.545 Y22.714 F200.000
G1 X20.602 Y22.695 F200.000
G1 X20.658 Y22.688 F200.000
G1 X20.771 Y22.703 F200.000
G1 X20.880 Y22.748 F200.000
G1 X20.974 Y22.816 F200.000
G1 X21.120 Y23.019 F200.000
G1 X21.162 Y23.173 F200.000
G1 X21.169 Y23.271 F200.000
G1 X21.158 Y23.383 F200.000
G1 X21.113 Y23.523 F200.000
G1 X21.034 Y23.654 F200.000
G1 X20.944 Y23.756 F200.000
G1 X20.827 Y23.842 F200.000
G1 X20.692 Y23.898 F200.000
G1 X20.556 Y23.925 F200.000
G1 X20.414 Y23.925 F200.000
G1 X20.274 Y23.895 F200.000
G1 X20.147 Y23.835 F200.000
G1 X20.034 Y23.752 F200.000
G1 X19.940 Y23.647 F200.000
G1 X19.868 Y23.523 F200.000
G1 X19.820 Y23.391 F200.000
G1 X19.801 Y23.237 F200.000
G1 X19.816 Y23.094 F200.000
G1 X19.857 Y22.962 F200.000
G1 X19.921 Y22.842 F200.000
G1 X20.011 Y22.733 F200.000
G1 X20.173 Y22.590 F200.000
G1 X20.274 Y22.526 F200.000
G1 X20.496 Y22.455 F200.000
G1 X20.609 Y22.444 F200.000
G1 X20.778 Y22.466 F200.000
G1 X20.940 Y22.526 F200.000
G1 X21.226 Y22.759 F200.000
G1 X21.320 Y22.929 F200.000
G1 X21.353 Y23.026 F200.000
G1 X21.376 Y23.139 F200.000
G1 X21.383 Y23.297 F200.000
G1 X21.353 Y23.500 F200.000
G1 X21.289 Y23.658 F200.000
G1 X21.214 Y23.778 F200.000
G1 X21.117 Y23.891 F200.000
G1 X20.981 Y23.996 F200.000
G1 X20.831 Y24.075 F200.000
G1 X20.677 Y24.124 F200.000
G1 X20.511 Y24.147 F200.000
G1 X20.346 Y24.139 F200.000
G1 X20.184 Y24.094 F200.000
G1 X20.045 Y24.030 F200.000
G1 X19.910 Y23.936 F200.000
G1 X19.793 Y23.827 F200.000
G1 X19.684 Y23.677 F200.000
G1 X19.613 Y23.526 F200.000
G1 X19.571 Y23.361 F200.000
G1 X19.560 Y23.211 F200.000
G1 X19.575 Y23.049 F200.000
G1 X19.620 Y22.883 F200.000
G1 X19.695 Y22.726 F200.000
G1 X19.789 Y22.583 F200.000
G1 X19.921 Y22.447 F200.000
G1 X20.064 Y22.342 F200.000
G1 X20.222 Y22.263 F200.000
G1 X20.395 Y22.211 F200.000
G1 X20.568 Y22.188 F200.000
G1 X20.741 Y22.199 F200.000
G1 X20.891 Y22.233 F200.000
G1 X21.049 Y22.293 F200.000
G1 X21.214 Y22.391 F200.000
G1 X21.361 Y22.523 F200.000
G1 X21.459 Y22.650 F200.000
G1 X21.538 Y22.789 F200.000
G1 X21.602 Y22.962 F200.000
G1 X21.635 Y23.154 F200.000
G1 X21.639 Y23.331 F200.000
G1 X21.613 Y23.515 F200.000
G1 X21.556 Y23.692 F200.000
G1 X21.474 Y23.857 F200.000
G1 X21.361 Y24.008 F200.000
G1 X21.237 Y24.128 F200.000
G1 X21.090 Y24.233 F200.000
G1 X20.929 Y24.316 F200.000
G1 X20.733 Y24.376 F200.000
G1 X20.545 Y24.398 F200.000
G1 X20.376 Y24.395 F200.000
G1 X20.188 Y24.361 F200.000
G1 X20.015 Y24.305 F200.000
G1 X19.835 Y24.211 F200.000
G1 X19.677 Y24.094 F200.000
G1 X19.545 Y23.951 F200.000
G1 X19.455 Y23.816 F200.000
G1 X19.372 Y23.650 F200.000
G1 X19.312 Y23.455 F200.000
G1 X19.286 Y23.263 F200.000
G1 X19.286 Y23.071 F200.000
G1 X19.316 Y22.876 F200.000
G1 X19.376 Y22.692 F200.000
G1 X19.462 Y22.519 F200.000
G1 X19.575 Y22.361 F200.000
G1 X19.711 Y22.222 F200.000
G1 X19.865 Y22.105 F200.000
G1 X20.034 Y22.008 F200.000
G1 X20.241 Y21.929 F200.000
G1 X20.440 Y21.891 F200.000
G1 X20.617 Y21.880 F200.000
G1 X20.812 Y21.902 F200.000
G1 X21.000 Y21.947 F200.000
G1 X21.199 Y22.030 F200.000
G1 X21.372 Y22.135 F200.000
G1 X21.526 Y22.263 F200.000
G1 X21.662 Y22.414 F200.000
G1 X21.774 Y22.583 F200.000
G1 X21.861 Y22.767 F200.000
G1 X21.914 Y22.966 F200.000
G1 X21.936 Y23.143 F200.000
G1 X21.940 Y23.335 F200.000
G1 X21.910 Y23.556 F200.000
G1 X21.850 Y23.767 F200.000
G1 X21.756 Y23.959 F200.000
G1 X21.654 Y24.117 F200.000
G1 X21.515 Y24.271 F200.000
G1 X21.361 Y24.402 F200.000
G1 X21.177 Y24.519 F200.000
G1 X20.985 Y24.602 F200.000
G1 X20.782 Y24.658 F200.000
G1 X20.571 Y24.688 F200.000
G1 X20.361 Y24.688 F200.000
G1 X20.150 Y24.658 F200.000
G1 X19.947 Y24.598 F200.000
G1 X19.752 Y24.511 F200.000
G1 X19.571 Y24.398 F200.000
G1 X19.410 Y24.259 F200.000
G1 X19.271 Y24.098 F200.000
G1 X19.162 Y23.929 F200.000
G1 X19.075 Y23.737 F200.000
G1 X19.008 Y23.538 F200.000
G1 X18.966 Y23.301 F200.000
G1 X18.959 Y23.086 F200.000
G1 X18.985 Y22.868 F200.000
G1 X19.034 Y22.673 F200.000
G1 X19.113 Y22.477 F200.000
G1 X19.226 Y22.282 F200.000
G1 X19.353 Y22.113 F200.000
G1 X19.519 Y21.947 F200.000
G1 X19.699 Y21.812 F200.000
G1 X19.891 Y21.699 F200.000
G1 X20.098 Y21.613 F200.000
G1 X20.316 Y21.556 F200.000
G1 X20.538 Y21.538 F200.000
G1 X20.733 Y21.545 F200.000
G1 X20.944 Y21.583 F200.000
G1 X21.199 Y21.658 F200.000
G1 X21.508 Y21.812 F200.000
G1 X21.737 Y21.989 F200.000
G1 X21.962 Y22.248 F200.000
G1 X22.079 Y22.447 F200.000
G1 X22.184 Y22.718 F200.000
G1 X22.244 Y23.000 F200.000
G1 X22.248 Y23.395 F200.000
G1 X22.195 Y23.677 F200.000
G1 X22.064 Y24.004 F200.000
G1 X21.842 Y24.372 F200.000
G1 X21.714 Y24.492 F200.000
G1 X21.429 Y24.729 F200.000
G1 X21.320 Y24.786 F200.000
G1 X21.015 Y24.921 F200.000
G1 X20.594 Y24.996 F200.000
G1 X20.293 Y24.996 F200.000
G1 X19.932 Y24.929 F200.000
G1 X19.639 Y24.812 F200.000
G1 X19.425 Y24.684 F200.000
G1 X19.143 Y24.440 F200.000
G1 X18.981 Y24.248 F200.000
G1 X18.816 Y23.981 F200.000
G1 X18.692 Y23.692 F200.000
G1 X18.620 Y23.391 F200.000
G1 X18.598 Y23.030 F200.000
G1 X18.632 Y22.729 F200.000
G1 X18.756 Y22.320 F200.000
G1 X18.970 Y21.955 F200.000
G1 X19.248 Y21.643 F200.000
G1 X19.579 Y21.395 F200.000
G1 X19.898 Y21.244 F200.000
G1 X20.180 Y21.165 F200.000
G1 X20.632 Y21.135 F200.000
G1 X21.026 Y21.188 F200.000
G1 X21.466 Y21.342 F200.000
G1 X21.714 Y21.481 F200.000
G1 X21.981 Y21.695 F200.000
G1 X22.139 Y21.861 F200.000
G1 X22.357 Y22.192 F200.000
G1 X22.511 Y22.564 F200.000
G1 X22.586 Y22.959 F200.000
G1 X22.586 Y23.353 F200.000
G1 X22.492 Y23.805 F200.000
G1 X22.361 Y24.135 F200.000
G1 X22.132 Y24.485 F200.000
G1 X21.842 Y24.786 F200.000
G1 X21.598 Y24.966 F200.000
G1 X21.327 Y25.109 F200.000
G1 X21.038 Y25.214 F200.000
G1 X20.617 Y25.289 F200.000
G1 X20.195 Y25.289 F200.000
G1 X19.774 Y25.207 F200.000
G1 X19.425 Y25.068 F200.000
G1 X19.158 Y24.906 F200.000
G1 X18.876 Y24.662 F200.000
G1 X18.635 Y24.372 F200.000
G1 X18.425 Y23.985 F200.000
G1 X18.308 Y23.628 F200.000
G1 X18.282 Y23.086 F200.000
G1 X18.361 Y22.665 F200.000
G1 X18.414 Y22.489 F200.000
G1 X18.598 Y22.098 F200.000
G1 X18.733 Y21.902 F200.000
G1 X18.932 Y21.677 F200.000
G1 X19.256 Y21.417 F200.000
G1 X19.508 Y21.263 F200.000
G1 X19.835 Y21.132 F200.000
G1 X20.173 Y21.056 F200.000
G1 X20.680 Y21.034 F200.000
G1 X21.188 Y21.143 F200.000
G1 X21.560 Y21.305 F200.000
G1 X21.850 Y21.489 F200.000
G1 X22.139 Y21.759 F200.000
G1 X22.320 Y21.989 F200.000
G1 X22.523 Y22.335 F200.000
G1 X22.586 Y22.492 F200.000
G1 X22.665 Y22.774 F200.000
G1 X22.714 Y23.113 F200.000
G1 X22.707 Y23.508 F200.000
G1 X22.639 Y23.846 F200.000
G1 X22.541 Y24.128 F200.000
G1 X22.436 Y24.338 F200.000
G1 X22.274 Y24.586 F200.000
G1 X22.083 Y24.812 F200.000
G1 X21.857 Y25.011 F200.000
G1 X21.500 Y25.241 F200.000
G1 X21.105 Y25.387 F200.000
G1 X20.744 Y25.459 F200.000
G1 X20.263 Y25.462 F200.000
G1 X19.842 Y25.372 F200.000
G1 X19.545 Y25.256 F200.000
G1 X19.274 Y25.102 F200.000
G1 X19.026 Y24.910 F200.000
G1 X18.767 Y24.639 F200.000
G1 X18.556 Y24.331 F200.000
G1 X18.526 Y24.274 F200.000
G1 X18.526 Y24.274 F200.000
G1 X18.496 Y24.214 F200.000
G1 X18.496 Y24.214 F200.000
G1 X18.470 Y24.203 F200.000
G1 X18.470 Y24.203 F200.000
G1 X18.440 Y24.150 F200.000
G1 X18.440 Y24.150 F200.000
G1 X18.323 Y23.812 F200.000
G1 X18.286 Y23.650 F200.000
G1 X18.256 Y23.368 F200.000
G1 X18.252 Y23.173 F200.000
G1 X18.263 Y23.011 F200.000
G1 X18.320 Y22.722 F200.000
G1 X18.376 Y22.519 F200.000
G1 X18.447 Y22.338 F200.000
G1 X18.560 Y22.109 F200.000
G1 X18.737 Y21.853 F200.000
G1 X18.857 Y21.718 F200.000
G1 X19.128 Y21.474 F200.000
G1 X19.305 Y21.353 F200.000
G1 X19.519 Y21.233 F200.000
G1 X19.846 Y21.102 F200.000
G1 X20.128 Y21.034 F200.000
G1 X20.425 Y21.008 F200.000
G1 X20.639 Y21.008 F200.000
G1 X20.861 Y21.034 F200.000
G1 X21.143 Y21.102 F200.000
G1 X21.402 Y21.195 F200.000
G1 X21.628 Y21.312 F200.000
G1 X21.853 Y21.459 F200.000
G1 X22.019 Y21.594 F200.000
G1 X22.109 Y21.684 F200.000
G1 X22.312 Y21.925 F200.000
G1 X22.429 Y22.094 F200.000
G1 X22.511 Y22.248 F200.000
G1 X22.590 Y22.432 F200.000
G1 X22.669 Y22.677 F200.000
G1 X22.722 Y22.921 F200.000
G1 X22.741 Y23.083 F200.000
G1 X22.744 Y23.365 F200.000
G1 X22.726 Y23.538 F200.000
G1 X22.662 Y23.865 F200.000
G1 X22.583 Y24.105 F200.000
G1 X22.440 Y24.380 F200.000
G1 X22.365 Y24.504 F200.000
G1 X22.278 Y24.624 F200.000
G1 X22.053 Y24.880 F200.000
G1 X21.838 Y25.056 F200.000
G1 X21.620 Y25.203 F200.000
G1 X21.466 Y25.282 F200.000
G1 X21.177 Y25.395 F200.000
G1 X20.925 Y25.455 F200.000
G1 X20.711 Y25.489 F200.000
G1 X20.350 Y25.496 F200.000
G1 X20.079 Y25.459 F200.000
G1 X19.861 Y25.402 F200.000
G1 X19.508 Y25.271 F200.000
G1 X19.259 Y25.124 F200.000
G1 X19.086 Y24.996 F200.000
G1 X18.861 Y24.789 F200.000
G1 X18.673 Y24.568 F200.000
G1 X18.541 Y24.365 F200.000
G1 X18.440 Y24.150 F200.000
G1 X18.440 Y24.150 F200.000
G0 Z15.000
(Helix to depth: -3.000000)
G0 Z15.000
G0 X-18.834 Y-24.955 Z15.000
G0 X-18.834 Y-24.955 Z13.000
G1 X-18.834 Y-24.955 Z0.000 F200.000
G1 X-18.834 Y-24.955 Z0.000 F200.000
G1 X-18.747 Y-24.914 Z-0.009 F200.000
G1 X-18.669 Y-24.857 Z-0.017 F200.000
G1 X-18.604 Y-24.786 Z-0.026 F200.000
G1 X-18.554 Y-24.704 Z-0.034 F200.000
G1 X-18.522 Y-24.614 Z-0.043 F200.000
G1 X-18.507 Y-24.519 Z-0.052 F200.000
G1 X-18.511 Y-24.423 Z-0.060 F200.000
G1 X-18.534 Y-24.330 Z-0.069 F200.000
G1 X-18.575 Y-24.243 Z-0.077 F200.000
G1 X-18.631 Y-24.165 Z-0.086 F200.000
G1 X-18.702 Y-24.100 Z-0.094 F200.000
G1 X-18.784 Y-24.051 Z-0.103 F200.000
G1 X-18.875 Y-24.018 Z-0.112 F200.000
G1 X-18.970 Y-24.003 Z-0.120 F200.000
G1 X-19.066 Y-24.007 Z-0.129 F200.000
G1 X-19.159 Y-24.030 Z-0.137 F200.000
G1 X-19.246 Y-24.071 Z-0.146 F200.000
G1 X-19.323 Y-24.128 Z-0.155 F200.000
G1 X-19.388 Y-24.199 Z-0.163 F200.000
G1 X-19.438 Y-24.281 Z-0.172 F200.000
G1 X-19.471 Y-24.371 Z-0.180 F200.000
G1 X-19.486 Y-24.466 Z-0.189 F200.000
G1 X-19.481 Y-24.562 Z-0.198 F200.000
G1 X-19.458 Y-24.655 Z-0.206 F200.000
G1 X-19.418 Y-24.742 Z-0.215 F200.000
G1 X-19.361 Y-24.820 Z-0.223 F200.000
G1 X-19.290 Y-24.885 Z-0.232 F200.000
G1 X-19.208 Y-24.934 Z-0.240 F200.000
G1 X-19.118 Y-24.967 Z-0.249 F200.000
G1 X-19.023 Y-24.982 Z-0.258 F200.000
G1 X-18.927 Y-24.978 Z-0.266 F200.000
G1 X-18.834 Y-24.955 Z-0.275 F200.000
G1 X-18.747 Y-24.914 Z-0.283 F200.000
G1 X-18.669 Y-24.857 Z-0.292 F200.000
G1 X-18.604 Y-24.786 Z-0.301 F200.000
G1 X-18.554 Y-24.704 Z-0.309 F200.000
G1 X-18.522 Y-24.614 Z-0.318 F200.000
G1 X-18.507 Y-24.519 Z-0.326 F200.000
G1 X-18.511 Y-24.423 Z-0.335 F200.000
G1 X-18.534 Y-24.330 Z-0.344 F200.000
G1 X-18.575 Y-24.243 Z-0.352 F200.000
G1 X-18.631 Y-24.165 Z-0.361 F200.000
G1 X-18.702 Y-24.100 Z-0.369 F200.000
G1 X-18.784 Y-24.051 Z-0.378 F200.000
G1 X-18.875 Y-24.018 Z-0.387 F200.000
G1 X-18.970 Y-24.003 Z-0.395 F200.000
G1 X-19.066 Y-24.007 Z-0.404 F200.000
G1 X-19.159 Y-24.030 Z-0.412 F200.000
G1 X-19.246 Y-24.071 Z-0.421 F200.000
G1 X-19.323 Y-24.128 Z-0.429 F200.000
G1 X-19.388 Y-24.199 Z-0.438 F200.000
G1 X-19.438 Y-24.281 Z-0.447 F200.000
G1 X-19.471 Y-24.371 Z-0.455 F200.000
G1 X-19.486 Y-24.466 Z-0.464 F200.000
G1 X-19.481 Y-24.562 Z-0.472 F200.000
G1 X-19.458 Y-24.655 Z-0.481 F200.000
G1 X-19.418 Y-24.742 Z-0.490 F200.000
G1 X-19.361 Y-24.820 Z-0.498 F200.000
G1 X-19.290 Y-24.885 Z-0.507 F200.000
G1 X-19.208 Y-24.934 Z-0.515 F200.000
G1 X-19.118 Y-24.967 Z-0.524 F200.000
G1 X-19.023 Y-24.982 Z-0.533 F200.000
G1 X-18.927 Y-24.978 Z-0.541 F200.000
G1 X-18.834 Y-24.955 Z-0.550 F200.000
G1 X-18.747 Y-24.914 Z-0.558 F200.000
G1 X-18.669 Y-24.857 Z-0.567 F200.000
G1 X-18.604 Y-24.786 Z-0.575 F200.000
G1 X-18.554 Y-24.704 Z-0.584 F200.000
G1 X-18.522 Y-24.614 Z-0.593 F200.000
G1 X-18.507 Y-24.519 Z-0.601 F200.000
G1 X-18.511 Y-24.423 Z-0.610 F200.000
G1 X-18.534 Y-24.330 Z-0.618 F200.000
G1 X-18.575 Y-24.243 Z-0.627 F200.000
G1 X-18.631 Y-24.165 Z-0.636 F200.000
G1 X-18.702 Y-24.100 Z-0.644 F200.000
G1 X-18.784 Y-24.051 Z-0.653 F200.000
G1 X-18.875 Y-24.018 Z-0.661 F200.000
G1 X-18.970 Y-24.003 Z-0.670 F200.000
G1 X-19.066 Y-24.007 Z-0.679 F200.000
G1 X-19.159 Y-24.030 Z-0.687 F200.000
G1 X-19.246 Y-24.071 Z-0.696 F200.000
G1 X-19.323 Y-24.128 Z-0.704 F200.000
G1 X-19.388 Y-24.199 Z-0.713 F200.000
G1 X-19.438 Y-24.281 Z-0.721 F200.000
G1 X-19.471 Y-24.371 Z-0.730 F200.000
G1 X-19.486 Y-24.466 Z-0.739 F200.000
G1 X-19.481 Y-24.562 Z-0.747 F200.000
G1 X-19.458 Y-24.655 Z-0.756 F200.000
G1 X-19.418 Y-24.742 Z-0.764 F200.000
G1 X-19.361 Y-24.820 Z-0.773 F200.000
G1 X-19.290 Y-24.885 Z-0.782 F200.000
G1 X-19.208 Y-24.934 Z-0.790 F200.000
G1 X-19.118 Y-24.967 Z-0.799 F200.000
G1 X-19.023 Y-24.982 Z-0.807 F200.000
G1 X-18.927 Y-24.978 Z-0.816 F200.000
G1 X-18.834 Y-24.955 Z-0.825 F200.000
G1 X-18.747 Y-24.914 Z-0.833 F200.000
G1 X-18.669 Y-24.857 Z-0.842 F200.000
G1 X-18.604 Y-24.786 Z-0.850 F200.000
G1 X-18.554 Y-24.704 Z-0.859 F200.000
G1 X-18.522 Y-24.614 Z-0.868 F200.000
G1 X-18.507 Y-24.519 Z-0.876 F200.000
G1 X-18.511 Y-24.423 Z-0.885 F200.000
G1 X-18.534 Y-24.330 Z-0.893 F200.000
G1 X-18.575 Y-24.243 Z-0.902 F200.000
G1 X-18.631 Y-24.165 Z-0.910 F200.000
G1 X-18.702 Y-24.100 Z-0.919 F200.000
G1 X-18.784 Y-24.051 Z-0.928 F200.000
G1 X-18.875 Y-24.018 Z-0.936 F200.000
G1 X-18.970 Y-24.003 Z-0.945 F200.000
G1 X-19.066 Y-24.007 Z-0.953 F200.000
G1 X-19.159 Y-24.030 Z-0.962 F200.000
G1 X-19.246 Y-24.071 Z-0.971 F200.000
G1 X-19.323 Y-24.128 Z-0.979 F200.000
G1 X-19.388 Y-24.199 Z-0.988 F200.000
G1 X-19.438 Y-24.281 Z-0.996 F200.000
G1 X-19.471 Y-24.371 Z-1.005 F200.000
G1 X-19.486 Y-24.466 Z-1.014 F200.000
G1 X-19.481 Y-24.562 Z-1.022 F200.000
G1 X-19.458 Y-24.655 Z-1.031 F200.000
G1 X-19.418 Y-24.742 Z-1.039 F200.000
G1 X-19.361 Y-24.820 Z-1.048 F200.000
G1 X-19.290 Y-24.885 Z-1.056 F200.000
G1 X-19.208 Y-24.934 Z-1.065 F200.000
G1 X-19.118 Y-24.967 Z-1.074 F200.000
G1 X-19.023 Y-24.982 Z-1.082 F200.000
G1 X-18.927 Y-24.978 Z-1.091 F200.000
G1 X-18.834 Y-24.955 Z-1.099 F200.000
G1 X-18.747 Y-24.914 Z-1.108 F200.000
G1 X-18.669 Y-24.857 Z-1.117 F200.000
G1 X-18.604 Y-24.786 Z-1.125 F200.000
G1 X-18.554 Y-24.704 Z-1.134 F200.000
G1 X-18.522 Y-24.614 Z-1.142 F200.000
G1 X-18.507 Y-24.519 Z-1.151 F200.000
G1 X-18.511 Y-24.423 Z-1.160 F200.000
G1 X-18.534 Y-24.330 Z-1.168 F200.000
G1 X-18.575 Y-24.243 Z-1.177 F200.000
G1 X-18.631 Y-24.165 Z-1.185 F200.000
G1 X-18.702 Y-24.100 Z-1.194 F200.000
G1 X-18.784 Y-24.051 Z-1.202 F200.000
G1 X-18.875 Y-24.018 Z-1.211 F200.000
G1 X-18.970 Y-24.003 Z-1.220 F200.000
G1 X-19.066 Y-24.007 Z-1.228 F200.000
G1 X-19.159 Y-24.030 Z-1.237 F200.000
G1 X-19.246 Y-24.071 Z-1.245 F200.000
G1 X-19.323 Y-24.128 Z-1.254 F200.000
G1 X-19.388 Y-24.199 Z-1.263 F200.000
G1 X-19.438 Y-24.281 Z-1.271 F200.000
G1 X-19.471 Y-24.371 Z-1.280 F200.000
G1 X-19.486 Y-24.466 Z-1.288 F200.000
G1 X-19.481 Y-24.562 Z-1.297 F200.000
G1 X-19.458 Y-24.655 Z-1.306 F200.000
G1 X-19.418 Y-24.742 Z-1.314 F200.000
G1 X-19.361 Y-24.820 Z-1.323 F200.000
G1 X-19.290 Y-24.885 Z-1.331 F200.000
G1 X-19.208 Y-24.934 Z-1.340 F200.000
G1 X-19.118 Y-24.967 Z-1.349 F200.000
G1 X-19.023 Y-24.982 Z-1.357 F200.000
G1 X-18.927 Y-24.978 Z-1.366 F200.000
G1 X-18.834 Y-24.955 Z-1.374 F200.000
G1 X-18.747 Y-24.914 Z-1.383 F200.000
G1 X-18.669 Y-24.857 Z-1.391 F200.000
G1 X-18.604 Y-24.786 Z-1.400 F200.000
G1 X-18.554 Y-24.704 Z-1.409 F200.000
G1 X-18.522 Y-24.614 Z-1.417 F200.000
G1 X-18.507 Y-24.519 Z-1.426 F200.000
G1 X-18.511 Y-24.423 Z-1.434 F200.000
G1 X-18.534 Y-24.330 Z-1.443 F200.000
G1 X-18.575 Y-24.243 Z-1.452 F200.000
G1 X-18.631 Y-24.165 Z-1.460 F200.000
G1 X-18.702 Y-24.100 Z-1.469 F200.000
G1 X-18.784 Y-24.051 Z-1.477 F200.000
G1 X-18.875 Y-24.018 Z-1.486 F200.000
G1 X-18.970 Y-24.003 Z-1.495 F200.000
G1 X-19.066 Y-24.007 Z-1.503 F200.000
G1 X-19.159 Y-24.030 Z-1.512 F200.000
G1 X-19.246 Y-24.071 Z-1.520 F200.000
G1 X-19.323 Y-24.128 Z-1.529 F200.000
G1 X-19.388 Y-24.199 Z-1.537 F200.000
G1 X-19.438 Y-24.281 Z-1.546 F200.000
G1 X-19.471 Y-24.371 Z-1.555 F200.000
G1 X-19.486 Y-24.466 Z-1.563 F200.000
G1 X-19.481 Y-24.562 Z-1.572 F200.000
G1 X-19.458 Y-24.655 Z-1.580 F200.000
G1 X-19.418 Y-24.742 Z-1.589 F200.000
G1 X-19.361 Y-24.820 Z-1.598 F200.000
G1 X-19.290 Y-24.885 Z-1.606 F200.000
G1 X-19.208 Y-24.934 Z-1.615 F200.000
G1 X-19.118 Y-24.967 Z-1.623 F200.000
G1 X-19.023 Y-24.982 Z-1.632 F200.000
G1 X-18.927 Y-24.978 Z-1.641 F200.000
G1 X-18.834 Y-24.955 Z-1.649 F200.000
G1 X-18.747 Y-24.914 Z-1.658 F200.000
G1 X-18.669 Y-24.857 Z-1.666 F200.000
G1 X-18.604 Y-24.786 Z-1.675 F200.000
G1 X-18.554 Y-24.704 Z-1.683 F200.000
G1 X-18.522 Y-24.614 Z-1.692 F200.000
G1 X-18.507 Y-24.519 Z-1.701 F200.000
G1 X-18.511 Y-24.423 Z-1.709 F200.000
G1 X-18.534 Y-24.330 Z-1.718 F200.000
G1 X-18.575 Y-24.243 Z-1.726 F200.000
G1 X-18.631 Y-24.165 Z-1.735 F200.000
G1 X-18.702 Y-24.100 Z-1.744 F200.000
G1 X-18.784 Y-24.051 Z-1.752 F200.000
G1 X-18.875 Y-24.018 Z-1.761 F200.000
G1 X-18.970 Y-24.003 Z-1.769 F200.000
G1 X-19.066 Y-24.007 Z-1.778 F200.000
G1 X-19.159 Y-24.030 Z-1.787 F200.000
G1 X-19.246 Y-24.071 Z-1.795 F200.000
G1 X-19.323 Y-24.128 Z-1.804 F200.000
G1 X-19.388 Y-24.199 Z-1.812 F200.000
G1 X-19.438 Y-24.281 Z-1.821 F200.000
G1 X-19.471 Y-24.371 Z-1.829 F200.000
G1 X-19.486 Y-24.466 Z-1.838 F200.000
G1 X-19.481 Y-24.562 Z-1.847 F200.000
G1 X-19.458 Y-24.655 Z-1.855 F200.000
G1 X-19.418 Y-24.742 Z-1.864 F200.000
G1 X-19.361 Y-24.820 Z-1.872 F200.000
G1 X-19.290 Y-24.885 Z-1.881 F200.000
G1 X-19.208 Y-24.934 Z-1.890 F200.000
G1 X-19.118 Y-24.967 Z-1.898 F200.000
G1 X-19.023 Y-24.982 Z-1.907 F200.000
G1 X-18.927 Y-24.978 Z-1.915 F200.000
G1 X-18.834 Y-24.955 Z-1.924 F200.000
G1 X-18.747 Y-24.914 Z-1.933 F200.000
G1 X-18.669 Y-24.857 Z-1.941 F200.000
G1 X-18.604 Y-24.786 Z-1.950 F200.000
G1 X-18.554 Y-24.704 Z-1.958 F200.000
G1 X-18.522 Y-24.614 Z-1.967 F200.000
G1 X-18.507 Y-24.519 Z-1.976 F200.000
G1 X-18.511 Y-24.423 Z-1.984 F200.000
G1 X-18.534 Y-24.330 Z-1.993 F200.000
G1 X-18.575 Y-24.243 Z-2.001 F200.000
G1 X-18.631 Y-24.165 Z-2.010 F200.000
G1 X-18.702 Y-24.100 Z-2.018 F200.000
G1 X-18.784 Y-24.051 Z-2.027 F200.000
G1 X-18.875 Y-24.018 Z-2.036 F200.000
G1 X-18.970 Y-24.003 Z-2.044 F200.000
G1 X-19.066 Y-24.007 Z-2.053 F200.000
G1 X-19.159 Y-24.030 Z-2.061 F200.000
G1 X-19.246 Y-24.071 Z-2.070 F200.000
G1 X-19.323 Y-24.128 Z-2.079 F200.000
G1 X-19.388 Y-24.199 Z-2.087 F200.000
G1 X-19.438 Y-24.281 Z-2.096 F200.000
G1 X-19.471 Y-24.371 Z-2.104 F200.000
G1 X-19.486 Y-24.466 Z-2.113 F200.000
G1 X-19.481 Y-24.562 Z-2.122 F200.000
G1 X-19.458 Y-24.655 Z-2.130 F200.000
G1 X-19.418 Y-24.742 Z-2.139 F200.000
G1 X-19.361 Y-24.820 Z-2.147 F200.000
G1 X-19.290 Y-24.885 Z-2.156 F200.000
G1 X-19.208 Y-24.934 Z-2.164 F200.000
G1 X-19.118 Y-24.967 Z-2.173 F200.000
G1 X-19.023 Y-24.982 Z-2.182 F200.000
G1 X-18.927 Y-24.978 Z-2.190 F200.000
G1 X-18.834 Y-24.955 Z-2.199 F200.000
G1 X-18.747 Y-24.914 Z-2.207 F200.000
G1 X-18.669 Y-24.857 Z-2.216 F200.000
G1 X-18.604 Y-24.786 Z-2.225 F200.000
G1 X-18.554 Y-24.704 Z-2.233 F200.000
G1 X-18.522 Y-24.614 Z-2.242 F200.000
G1 X-18.507 Y-24.519 Z-2.250 F200.000
G1 X-18.511 Y-24.423 Z-2.259 F200.000
G1 X-18.534 Y-24.330 Z-2.268 F200.000
G1 X-18.575 Y-24.243 Z-2.276 F200.000
G1 X-18.631 Y-24.165 Z-2.285 F200.000
G1 X-18.702 Y-24.100 Z-2.293 F200.000
G1 X-18.784 Y-24.051 Z-2.302 F200.000
G1 X-18.875 Y-24.018 Z-2.310 F200.000
G1 X-18.970 Y-24.003 Z-2.319 F200.000
G1 X-19.066 Y-24.007 Z-2.328 F200.000
G1 X-19.159 Y-24.030 Z-2.336 F200.000
G1 X-19.246 Y-24.071 Z-2.345 F200.000
G1 X-19.323 Y-24.128 Z-2.353 F200.000
G1 X-19.388 Y-24.199 Z-2.362 F200.000
G1 X-19.438 Y-24.281 Z-2.371 F200.000
G1 X-19.471 Y-24.371 Z-2.379 F200.000
G1 X-19.486 Y-24.466 Z-2.388 F200.000
G1 X-19.481 Y-24.562 Z-2.396 F200.000
G1 X-19.458 Y-24.655 Z-2.405 F200.000
G1 X-19.418 Y-24.742 Z-2.414 F200.000
G1 X-19.361 Y-24.820 Z-2.422 F200.000
G1 X-19.290 Y-24.885 Z-2.431 F200.000
G1 X-19.208 Y-24.934 Z-2.439 F200.000
G1 X-19.118 Y-24.967 Z-2.448 F200.000
G1 X-19.023 Y-24.982 Z-2.457 F200.000
G1 X-18.927 Y-24.978 Z-2.465 F200.000
G1 X-18.834 Y-24.955 Z-2.474 F200.000
G1 X-18.747 Y-24.914 Z-2.482 F200.000
G1 X-18.669 Y-24.857 Z-2.491 F200.000
G1 X-18.604 Y-24.786 Z-2.499 F200.000
G1 X-18.554 Y-24.704 Z-2.508 F200.000
G1 X-18.522 Y-24.614 Z-2.517 F200.000
G1 X-18.507 Y-24.519 Z-2.525 F200.000
G1 X-18.511 Y-24.423 Z-2.534 F200.000
G1 X-18.534 Y-24.330 Z-2.542 F200.000
G1 X-18.575 Y-24.243 Z-2.551 F200.000
G1 X-18.631 Y-24.165 Z-2.560 F200.000
G1 X-18.702 Y-24.100 Z-2.568 F200.000
G1 X-18.784 Y-24.051 Z-2.577 F200.000
G1 X-18.875 Y-24.018 Z-2.585 F200.000
G1 X-18.970 Y-24.003 Z-2.594 F200.000
G1 X-19.066 Y-24.007 Z-2.603 F200.000
G1 X-19.159 Y-24.030 Z-2.611 F200.000
G1 X-19.246 Y-24.071 Z-2.620 F200.000
G1 X-19.323 Y-24.128 Z-2.628 F200.000
G1 X-19.388 Y-24.199 Z-2.637 F200.000
G1 X-19.438 Y-24.281 Z-2.645 F200.000
G1 X-19.471 Y-24.371 Z-2.654 F200.000
G1 X-19.486 Y-24.466 Z-2.663 F200.000
G1 X-19.481 Y-24.562 Z-2.671 F200.000
G1 X-19.458 Y-24.655 Z-2.680 F200.000
G1 X-19.418 Y-24.742 Z-2.688 F200.000
G1 X-19.361 Y-24.820 Z-2.697 F200.000
G1 X-19.290 Y-24.885 Z-2.706 F200.000
G1 X-19.208 Y-24.934 Z-2.714 F200.000
G1 X-19.118 Y-24.967 Z-2.723 F200.000
G1 X-19.023 Y-24.982 Z-2.731 F200.000
G1 X-18.927 Y-24.978 Z-2.740 F200.000
G1 X-18.834 Y-24.955 Z-2.749 F200.000
G1 X-18.747 Y-24.914 Z-2.757 F200.000
G1 X-18.669 Y-24.857 Z-2.766 F200.000
G1 X-18.604 Y-24.786 Z-2.774 F200.000
G1 X-18.554 Y-24.704 Z-2.783 F200.000
G1 X-18.522 Y-24.614 Z-2.791 F200.000
G1 X-18.507 Y-24.519 Z-2.800 F200.000
G1 X-18.511 Y-24.423 Z-2.809 F200.000
G1 X-18.534 Y-24.330 Z-2.817 F200.000
G1 X-18.575 Y-24.243 Z-2.826 F200.000
G1 X-18.631 Y-24.165 Z-2.834 F200.000
G1 X-18.702 Y-24.100 Z-2.843 F200.000
G1 X-18.784 Y-24.051 Z-2.852 F200.000
G1 X-18.875 Y-24.018 Z-2.860 F200.000
G1 X-18.970 Y-24.003 Z-2.869 F200.000
G1 X-19.066 Y-24.007 Z-2.877 F200.000
G1 X-19.159 Y-24.030 Z-2.886 F200.000
G1 X-19.246 Y-24.071 Z-2.895 F200.000
G1 X-19.323 Y-24.128 Z-2.903 F200.000
G1 X-19.388 Y-24.199 Z-2.912 F200.000
G1 X-19.438 Y-24.281 Z-2.920 F200.000
G1 X-19.471 Y-24.371 Z-2.929 F200.000
G1 X-19.486 Y-24.466 Z-2.937 F200.000
G1 X-19.481 Y-24.562 Z-2.946 F200.000
G1 X-19.458 Y-24.655 Z-2.955 F200.000
G1 X-19.418 Y-24.742 Z-2.963 F200.000
G1 X-19.361 Y-24.820 Z-2.972 F200.000
G1 X-19.290 Y-24.885 Z-2.980 F200.000
G1 X-19.208 Y-24.934 Z-2.989 F200.000
G1 X-19.118 Y-24.967 Z-2.998 F200.000
G1 X-19.023 Y-24.982 Z-3.000 F200.000
G1 X-18.927 Y-24.978 Z-3.000 F200.000
G1 X-18.834 Y-24.955 Z-3.000 F200.000
G1 X-18.747 Y-24.914 Z-3.000 F200.000
G1 X-18.669 Y-24.857 Z-3.000 F200.000
G1 X-18.604 Y-24.786 Z-3.000 F200.000
G1 X-18.554 Y-24.704 Z-3.000 F200.000
G1 X-18.522 Y-24.614 Z-3.000 F200.000
G1 X-18.507 Y-24.519 Z-3.000 F200.000
G1 X-18.511 Y-24.423 Z-3.000 F200.000
G1 X-18.534 Y-24.330 Z-3.000 F200.000
G1 X-18.575 Y-24.243 Z-3.000 F200.000
G1 X-18.631 Y-24.165 Z-3.000 F200.000
G1 X-18.702 Y-24.100 Z-3.000 F200.000
G1 X-18.784 Y-24.051 Z-3.000 F200.000
G1 X-18.875 Y-24.018 Z-3.000 F200.000
G1 X-18.970 Y-24.003 Z-3.000 F200.000
G1 X-19.066 Y-24.007 Z-3.000 F200.000
G1 X-19.159 Y-24.030 Z-3.000 F200.000
G1 X-19.246 Y-24.071 Z-3.000 F200.000
G1 X-19.323 Y-24.128 Z-3.000 F200.000
G1 X-19.388 Y-24.199 Z-3.000 F200.000
G1 X-19.438 Y-24.281 Z-3.000 F200.000
G1 X-19.471 Y-24.371 Z-3.000 F200.000
G1 X-19.486 Y-24.466 Z-3.000 F200.000
G1 X-19.481 Y-24.562 Z-3.000 F200.000
G1 X-19.458 Y-24.655 Z-3.000 F200.000
G1 X-19.418 Y-24.742 Z-3.000 F200.000
G1 X-19.361 Y-24.820 Z-3.000 F200.000
G1 X-19.290 Y-24.885 Z-3.000 F200.000
G1 X-19.208 Y-24.934 Z-3.000 F200.000
G1 X-19.118 Y-24.967 Z-3.000 F200.000
(Adaptive - depth: -3.000000)
G1 X-18.996 Y-24.992 F200.000
G1 X-18.947 Y-25.026 F200.000
G1 X-18.887 Y-25.041 F200.000
G1 X-18.827 Y-25.045 F200.000
G1 X-18.767 Y-25.038 F200.000
G1 X-18.650 Y-24.996 F200.000
G1 X-18.541 Y-24.929 F200.000
G1 X-18.496 Y-24.887 F200.000
G1 X-18.368 Y-24.699 F200.000
G1 X-18.323 Y-24.538 F200.000
G1 X-18.320 Y-24.425 F200.000
G1 X-18.335 Y-24.312 F200.000
G1 X-18.380 Y-24.184 F200.000
G1 X-18.455 Y-24.056 F200.000
G1 X-18.556 Y-23.947 F200.000
G1 X-18.673 Y-23.865 F200.000
G1 X-18.808 Y-23.812 F200.000
G1 X-18.936 Y-23.786 F200.000
G1 X-19.071 Y-23.786 F200.000
G1 X-19.211 Y-23.816 F200.000
G1 X-19.342 Y-23.876 F200.000
G1 X-19.459 Y-23.962 F200.000
G1 X-19.556 Y-24.068 F200.000
G1 X-19.628 Y-24.192 F200.000
G1 X-19.673 Y-24.327 F200.000
G1 X-19.688 Y-24.470 F200.000
G1 X-19.677 Y-24.613 F200.000
G1 X-19.635 Y-24.752 F200.000
G1 X-19.564 Y-24.880 F200.000
G1 X-19.470 Y-24.992 F200.000
G1 X-19.267 Y-25.128 F200.000
G1 X-19.098 Y-25.195 F200.000
G1 X-18.857 Y-25.226 F200.000
G1 X-18.737 Y-25.214 F200.000
G1 X-18.617 Y-25.177 F200.000
G1 X-18.504 Y-25.120 F200.000
G1 X-18.226 Y-24.868 F200.000
G1 X-18.147 Y-24.703 F200.000
G1 X-18.120 Y-24.602 F200.000
G1 X-18.105 Y-24.492 F200.000
G1 X-18.105 Y-24.335 F200.000
G1 X-18.150 Y-24.132 F200.000
G1 X-18.222 Y-23.977 F200.000
G1 X-18.305 Y-23.861 F200.000
G1 X-18.410 Y-23.748 F200.000
G1 X-18.553 Y-23.650 F200.000
G1 X-18.703 Y-23.583 F200.000
G1 X-18.861 Y-23.541 F200.000
G1 X-19.026 Y-23.530 F200.000
G1 X-19.188 Y-23.549 F200.000
G1 X-19.342 Y-23.598 F200.000
G1 X-19.477 Y-23.669 F200.000
G1 X-19.605 Y-23.763 F200.000
G1 X-19.729 Y-23.891 F200.000
G1 X-19.831 Y-24.045 F200.000
G1 X-19.891 Y-24.207 F200.000
G1 X-19.921 Y-24.353 F200.000
G1 X-19.925 Y-24.519 F200.000
G1 X-19.902 Y-24.680 F200.000
G1 X-19.846 Y-24.842 F200.000
G1 X-19.763 Y-24.989 F200.000
G1 X-19.658 Y-25.120 F200.000
G1 X-19.534 Y-25.233 F200.000
G1 X-19.380 Y-25.335 F200.000
G1 X-19.203 Y-25.414 F200.000
G1 X-19.023 Y-25.447 F200.000
G1 X-18.842 Y-25.451 F200.000
G1 X-18.474 Y-25.376 F200.000
G1 X-18.278 Y-25.267 F200.000
G1 X-18.177 Y-25.184 F200.000
G1 X-18.090 Y-25.086 F200.000
G1 X-17.996 Y-24.955 F200.000
G1 X-17.906 Y-24.759 F200.000
G1 X-17.861 Y-24.579 F200.000
G1 X-17.846 Y-24.410 F200.000
G1 X-17.853 Y-24.244 F200.000
G1 X-17.895 Y-24.049 F200.000
G1 X-17.966 Y-23.868 F200.000
G1 X-18.064 Y-23.711 F200.000
G1 X-18.173 Y-23.583 F200.000
G1 X-18.308 Y-23.466 F200.000
G1 X-18.470 Y-23.365 F200.000
G1 X-18.654 Y-23.289 F200.000
G1 X-18.838 Y-23.248 F200.000
G1 X-19.011 Y-23.237 F200.000
G1 X-19.195 Y-23.256 F200.000
G1 X-19.372 Y-23.305 F200.000
G1 X-19.541 Y-23.372 F200.000
G1 X-19.711 Y-23.481 F200.000
G1 X-19.853 Y-23.605 F200.000
G1 X-19.974 Y-23.748 F200.000
G1 X-20.071 Y-23.914 F200.000
G1 X-20.143 Y-24.090 F200.000
G1 X-20.188 Y-24.278 F200.000
G1 X-20.203 Y-24.470 F200.000
G1 X-20.188 Y-24.658 F200.000
G1 X-20.143 Y-24.846 F200.000
G1 X-20.068 Y-25.026 F200.000
G1 X-19.966 Y-25.192 F200.000
G1 X-19.842 Y-25.342 F200.000
G1 X-19.695 Y-25.470 F200.000
G1 X-19.530 Y-25.575 F200.000
G1 X-19.350 Y-25.654 F200.000
G1 X-19.158 Y-25.703 F200.000
G1 X-18.962 Y-25.729 F200.000
G1 X-18.741 Y-25.726 F200.000
G1 X-18.538 Y-25.692 F200.000
G1 X-18.342 Y-25.624 F200.000
G1 X-18.177 Y-25.538 F200.000
G1 X-18.015 Y-25.421 F200.000
G1 X-17.876 Y-25.282 F200.000
G1 X-17.759 Y-25.128 F200.000
G1 X-17.665 Y-24.951 F200.000
G1 X-17.598 Y-24.771 F200.000
G1 X-17.556 Y-24.564 F200.000
G1 X-17.541 Y-24.365 F200.000
G1 X-17.553 Y-24.150 F200.000
G1 X-17.598 Y-23.932 F200.000
G1 X-17.677 Y-23.737 F200.000
G1 X-17.767 Y-23.575 F200.000
G1 X-17.887 Y-23.414 F200.000
G1 X-18.045 Y-23.263 F200.000
G1 X-18.207 Y-23.147 F200.000
G1 X-18.387 Y-23.049 F200.000
G1 X-18.579 Y-22.977 F200.000
G1 X-18.793 Y-22.932 F200.000
G1 X-19.000 Y-22.917 F200.000
G1 X-19.211 Y-22.932 F200.000
G1 X-19.417 Y-22.977 F200.000
G1 X-19.617 Y-23.049 F200.000
G1 X-19.805 Y-23.150 F200.000
G1 X-19.974 Y-23.274 F200.000
G1 X-20.124 Y-23.421 F200.000
G1 X-20.252 Y-23.590 F200.000
G1 X-20.357 Y-23.774 F200.000
G1 X-20.436 Y-23.970 F200.000
G1 X-20.489 Y-24.177 F200.000
G1 X-20.515 Y-24.406 F200.000
G1 X-20.511 Y-24.620 F200.000
G1 X-20.474 Y-24.838 F200.000
G1 X-20.410 Y-25.034 F200.000
G1 X-20.316 Y-25.226 F200.000
G1 X-20.195 Y-25.402 F200.000
G1 X-20.056 Y-25.560 F200.000
G1 X-19.891 Y-25.699 F200.000
G1 X-19.714 Y-25.820 F200.000
G1 X-19.492 Y-25.925 F200.000
G1 X-19.282 Y-25.992 F200.000
G1 X-19.060 Y-26.038 F200.000
G1 X-18.831 Y-26.049 F200.000
G1 X-18.605 Y-26.034 F200.000
G1 X-18.380 Y-25.977 F200.000
G1 X-18.195 Y-25.906 F200.000
G1 X-18.004 Y-25.805 F200.000
G1 X-17.816 Y-25.665 F200.000
G1 X-17.658 Y-25.515 F200.000
G1 X-17.519 Y-25.342 F200.000
G1 X-17.402 Y-25.150 F200.000
G1 X-17.316 Y-24.947 F200.000
G1 X-17.233 Y-24.673 F200.000
G1 X-17.192 Y-24.372 F200.000
G1 X-17.214 Y-24.011 F200.000
G1 X-17.308 Y-23.658 F200.000
G1 X-17.444 Y-23.387 F200.000
G1 X-17.620 Y-23.143 F200.000
G1 X-17.880 Y-22.895 F200.000
G1 X-18.289 Y-22.658 F200.000
G1 X-18.571 Y-22.564 F200.000
G1 X-18.966 Y-22.508 F200.000
G1 X-19.248 Y-22.530 F200.000
G1 X-19.639 Y-22.639 F200.000
G1 X-19.850 Y-22.737 F200.000
G1 X-20.090 Y-22.895 F200.000
G1 X-20.342 Y-23.132 F200.000
G1 X-20.523 Y-23.357 F200.000
G1 X-20.711 Y-23.711 F200.000
G1 X-20.816 Y-24.098 F200.000
G1 X-20.842 Y-24.492 F200.000
G1 X-20.797 Y-24.831 F200.000
G1 X-20.658 Y-25.218 F200.000
G1 X-20.508 Y-25.474 F200.000
G1 X-20.233 Y-25.789 F200.000
G1 X-19.898 Y-26.045 F200.000
G1 X-19.515 Y-26.226 F200.000
G1 X-19.098 Y-26.327 F200.000
G1 X-18.917 Y-26.350 F200.000
G1 X-18.556 Y-26.335 F200.000
G1 X-18.195 Y-26.244 F200.000
G1 X-17.857 Y-26.086 F200.000
G1 X-17.553 Y-25.865 F200.000
G1 X-17.335 Y-25.639 F200.000
G1 X-17.120 Y-25.331 F200.000
G1 X-16.959 Y-24.992 F200.000
G1 X-16.838 Y-24.511 F200.000
G1 X-16.823 Y-24.211 F200.000
G1 X-16.857 Y-23.910 F200.000
G1 X-16.977 Y-23.560 F200.000
G1 X-17.195 Y-23.199 F200.000
G1 X-17.308 Y-23.053 F200.000
G1 X-17.515 Y-22.838 F200.000
G1 X-17.801 Y-22.624 F200.000
G1 X-18.060 Y-22.481 F200.000
G1 X-18.391 Y-22.353 F200.000
G1 X-18.729 Y-22.286 F200.000
G1 X-19.237 Y-22.282 F200.000
G1 X-19.632 Y-22.365 F200.000
G1 X-19.951 Y-22.489 F200.000
G1 X-20.248 Y-22.662 F200.000
G1 X-20.474 Y-22.838 F200.000
G1 X-20.639 Y-22.996 F200.000
G1 X-20.820 Y-23.222 F200.000
G1 X-20.992 Y-23.523 F200.000
G1 X-21.098 Y-23.789 F200.000
G1 X-21.184 Y-24.184 F200.000
G1 X-21.184 Y-24.635 F200.000
G1 X-21.117 Y-24.974 F200.000
G1 X-21.015 Y-25.252 F200.000
G1 X-20.771 Y-25.658 F200.000
G1 X-20.496 Y-25.974 F200.000
G1 X-20.117 Y-26.271 F200.000
G1 X-19.737 Y-26.470 F200.000
G1 X-19.207 Y-26.632 F200.000
G1 X-18.906 Y-26.669 F200.000
G1 X-18.545 Y-26.647 F200.000
G1 X-18.244 Y-26.579 F200.000
G1 X-17.898 Y-26.425 F200.000
G1 X-17.639 Y-26.252 F200.000
G1 X-17.406 Y-26.041 F200.000
G1 X-17.241 Y-25.850 F200.000
G1 X-17.064 Y-25.586 F200.000
G1 X-16.951 Y-25.361 F200.000
G1 X-16.808 Y-24.880 F200.000
G1 X-16.808 Y-24.880 F200.000
G1 X-16.805 Y-24.865 F200.000
G1 X-16.805 Y-24.857 F200.000
G1 X-16.801 Y-24.823 F200.000
G1 X-16.801 Y-24.823 F200.000
G1 X-16.782 Y-24.643 F200.000
G1 X-16.782 Y-24.643 F200.000
G1 X-16.808 Y-24.485 F200.000
G1 X-16.842 Y-24.436 F200.000
G0 X-16.865 Y-24.421
G0 X-16.974 Y-24.402
G0 X-20.925 Y-24.429
G1 X-20.966 Y-24.432 F200.000
G1 X-21.094 Y-24.444 F200.000
G1 X-21.139 Y-24.474 F200.000
G1 X-21.188 Y-24.549 F200.000
G1 X-21.214 Y-24.677 F200.000
G1 X-21.214 Y-24.677 F200.000
G1 X-21.090 Y-25.241 F200.000
G1 X-20.917 Y-25.617 F200.000
G1 X-20.748 Y-25.861 F200.000
G1 X-20.500 Y-26.124 F200.000
G1 X-20.169 Y-26.380 F200.000
G1 X-19.898 Y-26.523 F200.000
G1 X-19.669 Y-26.609 F200.000
G1 X-19.368 Y-26.684 F200.000
G1 X-18.947 Y-26.714 F200.000
G1 X-18.707 Y-26.695 F200.000
G1 X-18.707 Y-26.695 F200.000
G1 X-18.692 Y-26.684 F200.000
G0 X-18.688 Y-26.669
G0 X-18.711 Y-26.647
G0 X-18.733 Y-26.639
G1 X-18.756 Y-26.643 F200.000
G1 X-18.793 Y-26.677 F200.000
G1 X-18.801 Y-26.711 F200.000
G1 X-18.782 Y-26.733 F200.000
G1 X-18.782 Y-26.733 F200.000
G1 X-18.474 Y-26.677 F200.000
G1 X-18.316 Y-26.632 F200.000
G1 X-17.914 Y-26.466 F200.000
G1 X-17.741 Y-26.357 F200.000
G1 X-17.590 Y-26.244 F200.000
G1 X-17.451 Y-26.124 F200.000
G1 X-17.199 Y-25.835 F200.000
G1 X-17.023 Y-25.564 F200.000
G1 X-16.910 Y-25.323 F200.000
G1 X-16.846 Y-25.135 F200.000
G1 X-16.782 Y-24.853 F200.000
G1 X-16.756 Y-24.620 F200.000
G1 X-16.752 Y-24.361 F200.000
G1 X-16.759 Y-24.263 F200.000
G1 X-16.846 Y-23.857 F200.000
G1 X-16.992 Y-23.485 F200.000
G1 X-17.139 Y-23.226 F200.000
G1 X-17.256 Y-23.071 F200.000
G1 X-17.380 Y-22.932 F200.000
G1 X-17.489 Y-22.827 F200.000
G1 X-17.695 Y-22.665 F200.000
G1 X-17.876 Y-22.549 F200.000
G1 X-18.173 Y-22.402 F200.000
G1 X-18.350 Y-22.342 F200.000
G1 X-18.605 Y-22.278 F200.000
G1 X-18.868 Y-22.248 F200.000
G1 X-19.135 Y-22.248 F200.000
G1 X-19.417 Y-22.286 F200.000
G1 X-19.707 Y-22.361 F200.000
G1 X-19.974 Y-22.470 F200.000
G1 X-20.169 Y-22.579 F200.000
G1 X-20.365 Y-22.714 F200.000
G1 X-20.632 Y-22.955 F200.000
G1 X-20.831 Y-23.192 F200.000
G1 X-20.955 Y-23.380 F200.000
G1 X-21.056 Y-23.594 F200.000
G1 X-21.173 Y-23.932 F200.000
G1 X-21.211 Y-24.098 F200.000
G1 X-21.244 Y-24.414 F200.000
G1 X-21.241 Y-24.673 F200.000
G1 X-21.218 Y-24.838 F200.000
G1 X-21.128 Y-25.207 F200.000
G1 X-21.053 Y-25.402 F200.000
G1 X-20.944 Y-25.628 F200.000
G1 X-20.774 Y-25.872 F200.000
G1 X-20.632 Y-26.034 F200.000
G1 X-20.447 Y-26.207 F200.000
G1 X-20.177 Y-26.406 F200.000
G1 X-19.959 Y-26.523 F200.000
G1 X-19.647 Y-26.647 F200.000
G1 X-19.357 Y-26.714 F200.000
G1 X-19.233 Y-26.729 F200.000
G1 X-18.962 Y-26.744 F200.000
G1 X-18.782 Y-26.733 F200.000
G1 X-18.782 Y-26.733 F200.000
G0 Z15.000
(Helix to depth: -3.000000)
G0 Z15.000
G0 X19.159 Y-24.955 Z15.000
G0 X19.159 Y-24.955 Z13.000
G1 X19.159 Y-24.955 Z0.000 F200.000
G1 X19.159 Y-24.955 Z0.000 F200.000
G1 X19.246 Y-24.914 Z-0.009 F200.000
G1 X19.323 Y-24.857 Z-0.017 F200.000
G1 X19.388 Y-24.786 Z-0.026 F200.000
G1 X19.438 Y-24.704 Z-0.034 F200.000
G1 X19.471 Y-24.614 Z-0.043 F200.000
G1 X19.486 Y-24.519 Z-0.052 F200.000
G1 X19.481 Y-24.423 Z-0.060 F200.000
G1 X19.458 Y-24.330 Z-0.069 F200.000
G1 X19.418 Y-24.243 Z-0.077 F200.000
G1 X19.361 Y-24.165 Z-0.086 F200.000
G1 X19.290 Y-24.100 Z-0.094 F200.000
G1 X19.208 Y-24.051 Z-0.103 F200.000
G1 X19.118 Y-24.018 Z-0.112 F200.000
G1 X19.023 Y-24.003 Z-0.120 F200.000
G1 X18.927 Y-24.007 Z-0.129 F200.000
G1 X18.834 Y-24.030 Z-0.137 F200.000
G1 X18.747 Y-24.071 Z-0.146 F200.000
G1 X18.669 Y-24.128 Z-0.155 F200.000
G1 X18.604 Y-24.199 Z-0.163 F200.000
G1 X18.554 Y-24.281 Z-0.172 F200.000
G1 X18.522 Y-24.371 Z-0.180 F200.000
G1 X18.507 Y-24.466 Z-0.189 F200.000
G1 X18.511 Y-24.562 Z-0.198 F200.000
G1 X18.534 Y-24.655 Z-0.206 F200.000
G1 X18.575 Y-24.742 Z-0.215 F200.000
G1 X18.631 Y-24.820 Z-0.223 F200.000
G1 X18.702 Y-24.885 Z-0.232 F200.000
G1 X18.784 Y-24.934 Z-0.240 F200.000
G1 X18.875 Y-24.967 Z-0.249 F200.000
G1 X18.970 Y-24.982 Z-0.258 F200.000
G1 X19.066 Y-24.978 Z-0.266 F200.000
G1 X19.159 Y-24.955 Z-0.275 F200.000
G1 X19.246 Y-24.914 Z-0.283 F200.000
G1 X19.323 Y-24.857 Z-0.292 F200.000
G1 X19.388 Y-24.786 Z-0.301 F200.000
G1 X19.438 Y-24.704 Z-0.309 F200.000
G1 X19.471 Y-24.614 Z-0.318 F200.000
G1 X19.486 Y-24.519 Z-0.326 F200.000
G1 X19.481 Y-24.423 Z-0.335 F200.000
G1 X19.458 Y-24.330 Z-0.344 F200.000
G1 X19.418 Y-24.243 Z-0.352 F200.000
G1 X19.361 Y-24.165 Z-0.361 F200.000
G1 X19.290 Y-24.100 Z-0.369 F200.000
G1 X19.208 Y-24.051 Z-0.378 F200.000
G1 X19.118 Y-24.018 Z-0.387 F200.000
G1 X19.023 Y-24.003 Z-0.395 F200.000
G1 X18.927 Y-24.007 Z-0.404 F200.000
G1 X18.834 Y-24.030 Z-0.412 F200.000
G1 X18.747 Y-24.071 Z-0.421 F200.000
G1 X18.669 Y-24.128 Z-0.429 F200.000
G1 X18.604 Y-24.199 Z-0.438 F200.000
G1 X18.554 Y-24.281 Z-0.447 F200.000
G1 X18.522 Y-24.371 Z-0.455 F200.000
G1 X18.507 Y-24.466 Z-0.464 F200.000
G1 X18.511 Y-24.562 Z-0.472 F200.000
G1 X18.534 Y-24.655 Z-0.481 F200.000
G1 X18.575 Y-24.742 Z-0.490 F200.000
G1 X18.631 Y-24.820 Z-0.498 F200.000
G1 X18.702 Y-24.885 Z-0.507 F200.000
G1 X18.784 Y-24.934 Z-0.515 F200.000
G1 X18.875 Y-24.967 Z-0.524 F200.000
G1 X18.970 Y-24.982 Z-0.533 F200.000
G1 X19.066 Y-24.978 Z-0.541 F200.000
G1 X19.159 Y-24.955 Z-0.550 F200.000
G1 X19.246 Y-24.914 Z-0.558 F200.000
G1 X19.323 Y-24.857 Z-0.567 F200.000
G1 X19.388 Y-24.786 Z-0.575 F200.000
G1 X19.438 Y-24.704 Z-0.584 F200.000
G1 X19.471 Y-24.614 Z-0.593 F200.000
G1 X19.486 Y-24.519 Z-0.601 F200.000
G1 X19.481 Y-24.423 Z-0.610 F200.000
G1 X19.458 Y-24.330 Z-0.618 F200.000
G1 X19.418 Y-24.243 Z-0.627 F200.000
G1 X19.361 Y-24.165 Z-0.636 F200.000
G1 X19.290 Y-24.100 Z-0.644 F200.000
G1 X19.208 Y-24.051 Z-0.653 F200.000
G1 X19.118 Y-24.018 Z-0.661 F200.000
G1 X19.023 Y-24.003 Z-0.670 F200.000
G1 X18.927 Y-24.007 Z-0.679 F200.000
G1 X18.834 Y-24.030 Z-0.687 F200.000
G1 X18.747 Y-24.071 Z-0.696 F200.000
G1 X18.669 Y-24.128 Z-0.704 F200.000
G1 X18.604 Y-24.199 Z-0.713 F200.000
G1 X18.554 Y-24.281 Z-0.721 F200.000
G1 X18.522 Y-24.371 Z-0.730 F200.000
G1 X18.507 Y-24.466 Z-0.739 F200.000
G1 X18.511 Y-24.562 Z-0.747 F200.000
G1 X18.534 Y-24.655 Z-0.756 F200.000
G1 X18.575 Y-24.742 Z-0.764 F200.000
G1 X18.631 Y-24.820 Z-0.773 F200.000
G1 X18.702 Y-24.885 Z-0.782 F200.000
G1 X18.784 Y-24.934 Z-0.790 F200.000
G1 X18.875 Y-24.967 Z-0.799 F200.000
G1 X18.970 Y-24.982 Z-0.807 F200.000
G1 X19.066 Y-24.978 Z-0.816 F200.000
G1 X19.159 Y-24.955 Z-0.825 F200.000
G1 X19.246 Y-24.914 Z-0.833 F200.000
G1 X19.323 Y-24.857 Z-0.842 F200.000
G1 X19.388 Y-24.786 Z-0.850 F200.000
G1 X19.438 Y-24.704 Z-0.859 F200.000
G1 X19.471 Y-24.614 Z-0.868 F200.000
G1 X19.486 Y-24.519 Z-0.876 F200.000
G1 X19.481 Y-24.423 Z-0.885 F200.000
G1 X19.458 Y-24.330 Z-0.893 F200.000
G1 X19.418 Y-24.243 Z-0.902 F200.000
G1 X19.361 Y-24.165 Z-0.910 F200.000
G1 X19.290 Y-24.100 Z-0.919 F200.000
G1 X19.208 Y-24.051 Z-0.928 F200.000
G1 X19.118 Y-24.018 Z-0.936 F200.000
G1 X19.023 Y-24.003 Z-0.945 F200.000
G1 X18.927 Y-24.007 Z-0.953 F200.000
G1 X18.834 Y-24.030 Z-0.962 F200.000
G1 X18.747 Y-24.071 Z-0.971 F200.000
G1 X18.669 Y-24.128 Z-0.979 F200.000
G1 X18.604 Y-24.199 Z-0.988 F200.000
G1 X18.554 Y-24.281 Z-0.996 F200.000
G1 X18.522 Y-24.371 Z-1.005 F200.000
G1 X18.507 Y-24.466 Z-1.014 F200.000
G1 X18.511 Y-24.562 Z-1.022 F200.000
G1 X18.534 Y-24.655 Z-1.031 F200.000
G1 X18.575 Y-24.742 Z-1.039 F200.000
G1 X18.631 Y-24.820 Z-1.048 F200.000
G1 X18.702 Y-24.885 Z-1.056 F200.000
G1 X18.784 Y-24.934 Z-1.065 F200.000
G1 X18.875 Y-24.967 Z-1.074 F200.000
G1 X18.970 Y-24.982 Z-1.082 F200.000
G1 X19.066 Y-24.978 Z-1.091 F200.000
G1 X19.159 Y-24.955 Z-1.099 F200.000
G1 X19.246 Y-24.914 Z-1.108 F200.000
G1 X19.323 Y-24.857 Z-1.117 F200.000
G1 X19.388 Y-24.786 Z-1.125 F200.000
G1 X19.438 Y-24.704 Z-1.134 F200.000
G1 X19.471 Y-24.614 Z-1.142 F200.000
G1 X19.486 Y-24.519 Z-1.151 F200.000
G1 X19.481 Y-24.423 Z-1.160 F200.000
G1 X19.458 Y-24.330 Z-1.168 F200.000
G1 X19.418 Y-24.243 Z-1.177 F200.000
G1 X19.361 Y-24.165 Z-1.185 F200.000
G1 X19.290 Y-24.100 Z-1.194 F200.000
G1 X19.208 Y-24.051 Z-1.202 F200.000
G1 X19.118 Y-24.018 Z-1.211 F200.000
G1 X19.023 Y-24.003 Z-1.220 F200.000
G1 X18.927 Y-24.007 Z-1.228 F200.000
G1 X18.834 Y-24.030 Z-1.237 F200.000
G1 X18.747 Y-24.071 Z-1.245 F200.000
G1 X18.669 Y-24.128 Z-1.254 F200.000
G1 X18.604 Y-24.199 Z-1.263 F200.000
G1 X18.554 Y-24.281 Z-1.271 F200.000
G1 X18.522 Y-24.371 Z-1.280 F200.000
G1 X18.507 Y-24.466 Z-1.288 F200.000
G1 X18.511 Y-24.562 Z-1.297 F200.000
G1 X18.534 Y-24.655 Z-1.306 F200.000
G1 X18.575 Y-24.742 Z-1.314 F200.000
G1 X18.631 Y-24.820 Z-1.323 F200.000
G1 X18.702 Y-24.885 Z-1.331 F200.000
G1 X18.784 Y-24.934 Z-1.340 F200.000
G1 X18.875 Y-24.967 Z-1.349 F200.000
G1 X18.970 Y-24.982 Z-1.357 F200.000
G1 X19.066 Y-24.978 Z-1.366 F200.000
G1 X19.159 Y-24.955 Z-1.374 F200.000
G1 X19.246 Y-24.914 Z-1.383 F200.000
G1 X19.323 Y-24.857 Z-1.391 F200.000
G1 X19.388 Y-24.786 Z-1.400 F200.000
G1 X19.438 Y-24.704 Z-1.409 F200.000
G1 X19.471 Y-24.614 Z-1.417 F200.000
G1 X19.486 Y-24.519 Z-1.426 F200.000
G1 X19.481 Y-24.423 Z-1.434 F200.000
G1 X19.458 Y-24.330 Z-1.443 F200.000
G1 X19.418 Y-24.243 Z-1.452 F200.000
G1 X19.361 Y-24.165 Z-1.460 F200.000
G1 X19.290 Y-24.100 Z-1.469 F200.000
G1 X19.208 Y-24.051 Z-1.477 F200.000
G1 X19.118 Y-24.018 Z-1.486 F200.000
G1 X19.023 Y-24.003 Z-1.495 F200.000
G1 X18.927 Y-24.007 Z-1.503 F200.000
G1 X18.834 Y-24.030 Z-1.512 F200.000
G1 X18.747 Y-24.071 Z-1.520 F200.000
G1 X18.669 Y-24.128 Z-1.529 F200.000
G1 X18.604 Y-24.199 Z-1.537 F200.000
G1 X18.554 Y-24.281 Z-1.546 F200.000
G1 X18.522 Y-24.371 Z-1.555 F200.000
G1 X18.507 Y-24.466 Z-1.563 F200.000
G1 X18.511 Y-24.562 Z-1.572 F200.000
G1 X18.534 Y-24.655 Z-1.580 F200.000
G1 X18.575 Y-24.742 Z-1.589 F200.000
G1 X18.631 Y-24.820 Z-1.598 F200.000
G1 X18.702 Y-24.885 Z-1.606 F200.000
G1 X18.784 Y-24.934 Z-1.615 F200.000
G1 X18.875 Y-24.967 Z-1.623 F200.000
G1 X18.970 Y-24.982 Z-1.632 F200.000
G1 X19.066 Y-24.978 Z-1.641 F200.000
G1 X19.159 Y-24.955 Z-1.649 F200.000
G1 X19.246 Y-24.914 Z-1.658 F200.000
G1 X19.323 Y-24.857 Z-1.666 F200.000
G1 X19.388 Y-24.786 Z-1.675 F200.000
G1 X19.438 Y-24.704 Z-1.683 F200.000
G1 X19.471 Y-24.614 Z-1.692 F200.000
G1 X19.486 Y-24.519 Z-1.701 F200.000
G1 X19.481 Y-24.423 Z-1.709 F200.000
G1 X19.458 Y-24.330 Z-1.718 F200.000
G1 X19.418 Y-24.243 Z-1.726 F200.000
G1 X19.361 Y-24.165 Z-1.735 F200.000
G1 X19.290 Y-24.100 Z-1.744 F200.000
G1 X19.208 Y-24.051 Z-1.752 F200.000
G1 X19.118 Y-24.018 Z-1.761 F200.000
G1 X19.023 Y-24.003 Z-1.769 F200.000
G1 X18.927 Y-24.007 Z-1.778 F200.000
G1 X18.834 Y-24.030 Z-1.787 F200.000
G1 X18.747 Y-24.071 Z-1.795 F200.000
G1 X18.669 Y-24.128 Z-1.804 F200.000
G1 X18.604 Y-24.199 Z-1.812 F200.000
G1 X18.554 Y-24.281 Z-1.821 F200.000
G1 X18.522 Y-24.371 Z-1.829 F200.000
G1 X18.507 Y-24.466 Z-1.838 F200.000
G1 X18.511 Y-24.562 Z-1.847 F200.000
G1 X18.534 Y-24.655 Z-1.855 F200.000
G1 X18.575 Y-24.742 Z-1.864 F200.000
G1 X18.631 Y-24.820 Z-1.872 F200.000
G1 X18.702 Y-24.885 Z-1.881 F200.000
G1 X18.784 Y-24.934 Z-1.890 F200.000
G1 X18.875 Y-24.967 Z-1.898 F200.000
G1 X18.970 Y-24.982 Z-1.907 F200.000
G1 X19.066 Y-24.978 Z-1.915 F200.000
G1 X19.159 Y-24.955 Z-1.924 F200.000
G1 X19.246 Y-24.914 Z-1.933 F200.000
G1 X19.323 Y-24.857 Z-1.941 F200.000
G1 X19.388 Y-24.786 Z-1.950 F200.000
G1 X19.438 Y-24.704 Z-1.958 F200.000
G1 X19.471 Y-24.614 Z-1.967 F200.000
G1 X19.486 Y-24.519 Z-1.976 F200.000
G1 X19.481 Y-24.423 Z-1.984 F200.000
G1 X19.458 Y-24.330 Z-1.993 F200.000
G1 X19.418 Y-24.243 Z-2.001 F200.000
G1 X19.361 Y-24.165 Z-2.010 F200.000
G1 X19.290 Y-24.100 Z-2.018 F200.000
G1 X19.208 Y-24.051 Z-2.027 F200.000
G1 X19.118 Y-24.018 Z-2.036 F200.000
G1 X19.023 Y-24.003 Z-2.044 F200.000
G1 X18.927 Y-24.007 Z-2.053 F200.000
G1 X18.834 Y-24.030 Z-2.061 F200.000
G1 X18.747 Y-24.071 Z-2.070 F200.000
G1 X18.669 Y-24.128 Z-2.079 F200.000
G1 X18.604 Y-24.199 Z-2.087 F200.000
G1 X18.554 Y-24.281 Z-2.096 F200.000
G1 X18.522 Y-24.371 Z-2.104 F200.000
G1 X18.507 Y-24.466 Z-2.113 F200.000
G1 X18.511 Y-24.562 Z-2.122 F200.000
G1 X18.534 Y-24.655 Z-2.130 F200.000
G1 X18.575 Y-24.742 Z-2.139 F200.000
G1 X18.631 Y-24.820 Z-2.147 F200.000
G1 X18.702 Y-24.885 Z-2.156 F200.000
G1 X18.784 Y-24.934 Z-2.164 F200.000
G1 X18.875 Y-24.967 Z-2.173 F200.000
G1 X18.970 Y-24.982 Z-2.182 F200.000
G1 X19.066 Y-24.978 Z-2.190 F200.000
G1 X19.159 Y-24.955 Z-2.199 F200.000
G1 X19.246 Y-24.914 Z-2.207 F200.000
G1 X19.323 Y-24.857 Z-2.216 F200.000
G1 X19.388 Y-24.786 Z-2.225 F200.000
G1 X19.438 Y-24.704 Z-2.233 F200.000
G1 X19.471 Y-24.614 Z-2.242 F200.000
G1 X19.486 Y-24.519 Z-2.250 F200.000
G1 X19.481 Y-24.423 Z-2.259 F200.000
G1 X19.458 Y-24.330 Z-2.268 F200.000
G1 X19.418 Y-24.243 Z-2.276 F200.000
G1 X19.361 Y-24.165 Z-2.285 F200.000
G1 X19.290 Y-24.100 Z-2.293 F200.000
G1 X19.208 Y-24.051 Z-2.302 F200.000
G1 X19.118 Y-24.018 Z-2.310 F200.000
G1 X19.023 Y-24.003 Z-2.319 F200.000
G1 X18.927 Y-24.007 Z-2.328 F200.000
G1 X18.834 Y-24.030 Z-2.336 F200.000
G1 X18.747 Y-24.071 Z-2.345 F200.000
G1 X18.669 Y-24.128 Z-2.353 F200.000
G1 X18.604 Y-24.199 Z-2.362 F200.000
G1 X18.554 Y-24.281 Z-2.371 F200.000
G1 X18.522 Y-24.371 Z-2.379 F200.000
G1 X18.507 Y-24.466 Z-2.388 F200.000
G1 X18.511 Y-24.562 Z-2.396 F200.000
G1 X18.534 Y-24.655 Z-2.405 F200.000
G1 X18.575 Y-24.742 Z-2.414 F200.000
G1 X18.631 Y-24.820 Z-2.422 F200.000
G1 X18.702 Y-24.885 Z-2.431 F200.000
G1 X18.784 Y-24.934 Z-2.439 F200.000
G1 X18.875 Y-24.967 Z-2.448 F200.000
G1 X18.970 Y-24.982 Z-2.457 F200.000
G1 X19.066 Y-24.978 Z-2.465 F200.000
G1 X19.159 Y-24.955 Z-2.474 F200.000
G1 X19.246 Y-24.914 Z-2.482 F200.000
G1 X19.323 Y-24.857 Z-2.491 F200.000
G1 X19.388 Y-24.786 Z-2.499 F200.000
G1 X19.438 Y-24.704 Z-2.508 F200.000
G1 X19.471 Y-24.614 Z-2.517 F200.000
G1 X19.486 Y-24.519 Z-2.525 F200.000
G1 X19.481 Y-24.423 Z-2.534 F200.000
G1 X19.458 Y-24.330 Z-2.542 F200.000
G1 X19.418 Y-24.243 Z-2.551 F200.000
G1 X19.361 Y-24.165 Z-2.560 F200.000
G1 X19.290 Y-24.100 Z-2.568 F200.000
G1 X19.208 Y-24.051 Z-2.577 F200.000
G1 X19.118 Y-24.018 Z-2.585 F200.000
G1 X19.023 Y-24.003 Z-2.594 F200.000
G1 X18.927 Y-24.007 Z-2.603 F200.000
G1 X18.834 Y-24.030 Z-2.611 F200.000
G1 X18.747 Y-24.071 Z-2.620 F200.000
G1 X18.669 Y-24.128 Z-2.628 F200.000
G1 X18.604 Y-24.199 Z-2.637 F200.000
G1 X18.554 Y-24.281 Z-2.645 F200.000
G1 X18.522 Y-24.371 Z-2.654 F200.000
G1 X18.507 Y-24.466 Z-2.663 F200.000
G1 X18.511 Y-24.562 Z-2.671 F200.000
G1 X18.534 Y-24.655 Z-2.680 F200.000
G1 X18.575 Y-24.742 Z-2.688 F200.000
G1 X18.631 Y-24.820 Z-2.697 F200.000
G1 X18.702 Y-24.885 Z-2.706 F200.000
G1 X18.784 Y-24.934 Z-2.714 F200.000
G1 X18.875 Y-24.967 Z-2.723 F200.000
G1 X18.970 Y-24.982 Z-2.731 F200.000
G1 X19.066 Y-24.978 Z-2.740 F200.000
G1 X19.159 Y-24.955 Z-2.749 F200.000
G1 X19.246 Y-24.914 Z-2.757 F200.000
G1 X19.323 Y-24.857 Z-2.766 F200.000
G1 X19.388 Y-24.786 Z-2.774 F200.000
G1 X19.438 Y-24.704 Z-2.783 F200.000
G1 X19.471 Y-24.614 Z-2.791 F200.000
G1 X19.486 Y-24.519 Z-2.800 F200.000
G1 X19.481 Y-24.423 Z-2.809 F200.000
G1 X19.458 Y-24.330 Z-2.817 F200.000
G1 X19.418 Y-24.243 Z-2.826 F200.000
G1 X19.361 Y-24.165 Z-2.834 F200.000
G1 X19.290 Y-24.100 Z-2.843 F200.000
G1 X19.208 Y-24.051 Z-2.852 F200.000
G1 X19.118 Y-24.018 Z-2.860 F200.000
G1 X19.023 Y-24.003 Z-2.869 F200.000
G1 X18.927 Y-24.007 Z-2.877 F200.000
G1 X18.834 Y-24.030 Z-2.886 F200.000
G1 X18.747 Y-24.071 Z-2.895 F200.000
G1 X18.669 Y-24.128 Z-2.903 F200.000
G1 X18.604 Y-24.199 Z-2.912 F200.000
G1 X18.554 Y-24.281 Z-2.920 F200.000
G1 X18.522 Y-24.371 Z-2.929 F200.000
G1 X18.507 Y-24.466 Z-2.937 F200.000
G1 X18.511 Y-24.562 Z-2.946 F200.000
G1 X18.534 Y-24.655 Z-2.955 F200.000
G1 X18.575 Y-24.742 Z-2.963 F200.000
G1 X18.631 Y-24.820 Z-2.972 F200.000
G1 X18.702 Y-24.885 Z-2.980 F200.000
G1 X18.784 Y-24.934 Z-2.989 F200.000
G1 X18.875 Y-24.967 Z-2.998 F200.000
G1 X18.970 Y-24.982 Z-3.000 F200.000
G1 X19.066 Y-24.978 Z-3.000 F200.000
G1 X19.159 Y-24.955 Z-3.000 F200.000
G1 X19.246 Y-24.914 Z-3.000 F200.000
G1 X19.323 Y-24.857 Z-3.000 F200.000
G1 X19.388 Y-24.786 Z-3.000 F200.000
G1 X19.438 Y-24.704 Z-3.000 F200.000
G1 X19.471 Y-24.614 Z-3.000 F200.000
G1 X19.486 Y-24.519 Z-3.000 F200.000
G1 X19.481 Y-24.423 Z-3.000 F200.000
G1 X19.458 Y-24.330 Z-3.000 F200.000
G1 X19.418 Y-24.243 Z-3.000 F200.000
G1 X19.361 Y-24.165 Z-3.000 F200.000
G1 X19.290 Y-24.100 Z-3.000 F200.000
G1 X19.208 Y-24.051 Z-3.000 F200.000
G1 X19.118 Y-24.018 Z-3.000 F200.000
G1 X19.023 Y-24.003 Z-3.000 F200.000
G1 X18.927 Y-24.007 Z-3.000 F200.000
G1 X18.834 Y-24.030 Z-3.000 F200.000
G1 X18.747 Y-24.071 Z-3.000 F200.000
G1 X18.669 Y-24.128 Z-3.000 F200.000
G1 X18.604 Y-24.199 Z-3.000 F200.000
G1 X18.554 Y-24.281 Z-3.000 F200.000
G1 X18.522 Y-24.371 Z-3.000 F200.000
G1 X18.507 Y-24.466 Z-3.000 F200.000
G1 X18.511 Y-24.562 Z-3.000 F200.000
G1 X18.534 Y-24.655 Z-3.000 F200.000
G1 X18.575 Y-24.742 Z-3.000 F200.000
G1 X18.631 Y-24.820 Z-3.000 F200.000
G1 X18.702 Y-24.885 Z-3.000 F200.000
G1 X18.784 Y-24.934 Z-3.000 F200.000
G1 X18.875 Y-24.967 Z-3.000 F200.000
(Adaptive - depth: -3.000000)
G1 X18.996 Y-24.992 F200.000
G1 X19.045 Y-25.026 F200.000
G1 X19.102 Y-25.041 F200.000
G1 X19.214 Y-25.041 F200.000
G1 X19.327 Y-25.004 F200.000
G1 X19.429 Y-24.940 F200.000
G1 X19.474 Y-24.898 F200.000
G1 X19.617 Y-24.699 F200.000
G1 X19.654 Y-24.538 F200.000
G1 X19.658 Y-24.440 F200.000
G1 X19.643 Y-24.327 F200.000
G1 X19.594 Y-24.192 F200.000
G1 X19.511 Y-24.056 F200.000
G1 X19.406 Y-23.955 F200.000
G1 X19.297 Y-23.883 F200.000
G1 X19.165 Y-23.831 F200.000
G1 X19.030 Y-23.805 F200.000
G1 X18.880 Y-23.808 F200.000
G1 X18.741 Y-23.842 F200.000
G1 X18.613 Y-23.906 F200.000
G1 X18.508 Y-23.989 F200.000
G1 X18.417 Y-24.094 F200.000
G1 X18.346 Y-24.226 F200.000
G1 X18.305 Y-24.357 F200.000
G1 X18.289 Y-24.508 F200.000
G1 X18.305 Y-24.650 F200.000
G1 X18.353 Y-24.786 F200.000
G1 X18.417 Y-24.898 F200.000
G1 X18.515 Y-25.011 F200.000
G1 X18.632 Y-25.109 F200.000
G1 X18.729 Y-25.169 F200.000
G1 X18.891 Y-25.226 F200.000
G1 X19.117 Y-25.252 F200.000
G1 X19.286 Y-25.222 F200.000
G1 X19.447 Y-25.150 F200.000
G1 X19.496 Y-25.120 F200.000
G1 X19.763 Y-24.861 F200.000
G1 X19.831 Y-24.688 F200.000
G1 X19.850 Y-24.594 F200.000
G1 X19.857 Y-24.485 F200.000
G1 X19.850 Y-24.323 F200.000
G1 X19.789 Y-24.105 F200.000
G1 X19.707 Y-23.955 F200.000
G1 X19.617 Y-23.846 F200.000
G1 X19.508 Y-23.748 F200.000
G1 X19.361 Y-23.662 F200.000
G1 X19.203 Y-23.602 F200.000
G1 X19.034 Y-23.568 F200.000
G1 X18.868 Y-23.568 F200.000
G1 X18.707 Y-23.602 F200.000
G1 X18.564 Y-23.654 F200.000
G1 X18.425 Y-23.741 F200.000
G1 X18.305 Y-23.842 F200.000
G1 X18.188 Y-23.989 F200.000
G1 X18.109 Y-24.132 F200.000
G1 X18.060 Y-24.293 F200.000
G1 X18.041 Y-24.447 F200.000
G1 X18.049 Y-24.609 F200.000
G1 X18.083 Y-24.778 F200.000
G1 X18.154 Y-24.947 F200.000
G1 X18.244 Y-25.090 F200.000
G1 X18.357 Y-25.218 F200.000
G1 X18.492 Y-25.323 F200.000
G1 X18.639 Y-25.406 F200.000
G1 X18.808 Y-25.470 F200.000
G1 X18.996 Y-25.496 F200.000
G1 X19.154 Y-25.496 F200.000
G1 X19.331 Y-25.459 F200.000
G1 X19.481 Y-25.406 F200.000
G1 X19.654 Y-25.316 F200.000
G1 X19.812 Y-25.192 F200.000
G1 X19.925 Y-25.045 F200.000
G1 X19.996 Y-24.921 F200.000
G1 X20.053 Y-24.774 F200.000
G1 X20.094 Y-24.590 F200.000
G1 X20.102 Y-24.391 F200.000
G1 X20.083 Y-24.211 F200.000
G1 X20.030 Y-24.026 F200.000
G1 X19.955 Y-23.872 F200.000
G1 X19.850 Y-23.722 F200.000
G1 X19.722 Y-23.590 F200.000
G1 X19.579 Y-23.481 F200.000
G1 X19.406 Y-23.391 F200.000
G1 X19.233 Y-23.331 F200.000
G1 X19.038 Y-23.293 F200.000
G1 X18.846 Y-23.289 F200.000
G1 X18.658 Y-23.323 F200.000
G1 X18.504 Y-23.372 F200.000
G1 X18.342 Y-23.451 F200.000
G1 X18.184 Y-23.564 F200.000
G1 X18.041 Y-23.703 F200.000
G1 X17.925 Y-23.857 F200.000
G1 X17.838 Y-24.034 F200.000
G1 X17.786 Y-24.195 F200.000
G1 X17.756 Y-24.376 F200.000
G1 X17.752 Y-24.575 F200.000
G1 X17.778 Y-24.782 F200.000
G1 X17.831 Y-24.970 F200.000
G1 X17.921 Y-25.147 F200.000
G1 X18.019 Y-25.286 F200.000
G1 X18.147 Y-25.425 F200.000
G1 X18.305 Y-25.553 F200.000
G1 X18.485 Y-25.658 F200.000
G1 X18.669 Y-25.733 F200.000
G1 X18.868 Y-25.774 F200.000
G1 X19.053 Y-25.789 F200.000
G1 X19.248 Y-25.774 F200.000
G1 X19.440 Y-25.729 F200.000
G1 X19.620 Y-25.658 F200.000
G1 X19.793 Y-25.564 F200.000
G1 X19.970 Y-25.425 F200.000
G1 X20.105 Y-25.267 F200.000
G1 X20.199 Y-25.117 F200.000
G1 X20.278 Y-24.955 F200.000
G1 X20.350 Y-24.748 F200.000
G1 X20.387 Y-24.515 F200.000
G1 X20.387 Y-24.308 F200.000
G1 X20.357 Y-24.124 F200.000
G1 X20.305 Y-23.947 F200.000
G1 X20.214 Y-23.752 F200.000
G1 X20.094 Y-23.571 F200.000
G1 X19.962 Y-23.421 F200.000
G1 X19.805 Y-23.282 F200.000
G1 X19.617 Y-23.162 F200.000
G1 X19.425 Y-23.071 F200.000
G1 X19.218 Y-23.008 F200.000
G1 X19.004 Y-22.977 F200.000
G1 X18.816 Y-22.977 F200.000
G1 X18.609 Y-23.008 F200.000
G1 X18.414 Y-23.068 F200.000
G1 X18.229 Y-23.147 F200.000
G1 X18.034 Y-23.271 F200.000
G1 X17.872 Y-23.406 F200.000
G1 X17.733 Y-23.564 F200.000
G1 X17.620 Y-23.737 F200.000
G1 X17.530 Y-23.925 F200.000
G1 X17.466 Y-24.124 F200.000
G1 X17.429 Y-24.346 F200.000
G1 X17.421 Y-24.556 F200.000
G1 X17.444 Y-24.771 F200.000
G1 X17.496 Y-24.981 F200.000
G1 X17.571 Y-25.184 F200.000
G1 X17.688 Y-25.391 F200.000
G1 X17.823 Y-25.568 F200.000
G1 X17.970 Y-25.718 F200.000
G1 X18.147 Y-25.853 F200.000
G1 X18.338 Y-25.962 F200.000
G1 X18.538 Y-26.041 F200.000
G1 X18.752 Y-26.094 F200.000
G1 X18.970 Y-26.117 F200.000
G1 X19.188 Y-26.109 F200.000
G1 X19.406 Y-26.071 F200.000
G1 X19.617 Y-26.008 F200.000
G1 X19.820 Y-25.917 F200.000
G1 X20.023 Y-25.789 F200.000
G1 X20.195 Y-25.639 F200.000
G1 X20.331 Y-25.489 F200.000
G1 X20.455 Y-25.305 F200.000
G1 X20.556 Y-25.113 F200.000
G1 X20.643 Y-24.880 F200.000
G1 X20.692 Y-24.654 F200.000
G1 X20.707 Y-24.425 F200.000
G1 X20.695 Y-24.222 F200.000
G1 X20.658 Y-24.004 F200.000
G1 X20.586 Y-23.774 F200.000
G1 X20.436 Y-23.504 F200.000
G1 X20.241 Y-23.256 F200.000
G1 X19.959 Y-23.004 F200.000
G1 X19.692 Y-22.835 F200.000
G1 X19.342 Y-22.699 F200.000
G1 X19.041 Y-22.643 F200.000
G1 X18.680 Y-22.635 F200.000
G1 X18.380 Y-22.688 F200.000
G1 X18.034 Y-22.823 F200.000
G1 X17.729 Y-23.023 F200.000
G1 X17.470 Y-23.274 F200.000
G1 X17.293 Y-23.515 F200.000
G1 X17.139 Y-23.835 F200.000
G1 X17.034 Y-24.229 F200.000
G1 X17.008 Y-24.568 F200.000
G1 X17.045 Y-24.906 F200.000
G1 X17.173 Y-25.289 F200.000
G1 X17.380 Y-25.643 F200.000
G1 X17.605 Y-25.902 F200.000
G1 X17.872 Y-26.120 F200.000
G1 X18.120 Y-26.263 F200.000
G1 X18.335 Y-26.350 F200.000
G1 X18.786 Y-26.444 F200.000
G1 X19.237 Y-26.440 F200.000
G1 X19.575 Y-26.372 F200.000
G1 X19.902 Y-26.233 F200.000
G1 X20.109 Y-26.109 F200.000
G1 X20.425 Y-25.835 F200.000
G1 X20.684 Y-25.500 F200.000
G1 X20.801 Y-25.286 F200.000
G1 X20.906 Y-25.000 F200.000
G1 X20.989 Y-24.579 F200.000
G1 X20.989 Y-24.218 F200.000
G1 X20.936 Y-23.917 F200.000
G1 X20.782 Y-23.504 F200.000
G1 X20.583 Y-23.180 F200.000
G1 X20.293 Y-22.850 F200.000
G1 X20.053 Y-22.650 F200.000
G1 X19.838 Y-22.519 F200.000
G1 X19.553 Y-22.395 F200.000
G1 X19.192 Y-22.297 F200.000
G1 X19.011 Y-22.274 F200.000
G1 X18.711 Y-22.289 F200.000
G1 X18.350 Y-22.368 F200.000
G1 X18.011 Y-22.508 F200.000
G1 X17.801 Y-22.624 F200.000
G1 X17.425 Y-22.929 F200.000
G1 X17.192 Y-23.195 F200.000
G1 X17.011 Y-23.500 F200.000
G1 X16.898 Y-23.771 F200.000
G1 X16.801 Y-24.165 F200.000
G1 X16.782 Y-24.673 F200.000
G1 X16.827 Y-24.955 F200.000
G1 X16.906 Y-25.237 F200.000
G1 X17.071 Y-25.605 F200.000
G1 X17.274 Y-25.891 F200.000
G1 X17.466 Y-26.098 F200.000
G1 X17.774 Y-26.346 F200.000
G1 X18.071 Y-26.511 F200.000
G1 X18.451 Y-26.643 F200.000
G1 X18.620 Y-26.684 F200.000
G1 X19.071 Y-26.714 F200.000
G1 X19.466 Y-26.665 F200.000
G1 X19.805 Y-26.560 F200.000
G1 X20.128 Y-26.406 F200.000
G1 X20.417 Y-26.199 F200.000
G1 X20.594 Y-26.038 F200.000
G1 X20.917 Y-25.613 F200.000
G1 X21.053 Y-25.342 F200.000
G1 X21.147 Y-25.056 F200.000
G1 X21.188 Y-24.876 F200.000
G1 X21.218 Y-24.395 F200.000
G1 X21.180 Y-24.094 F200.000
G1 X21.105 Y-23.793 F200.000
G1 X21.015 Y-23.556 F200.000
G1 X20.861 Y-23.282 F200.000
G1 X20.628 Y-22.989 F200.000
G1 X20.447 Y-22.812 F200.000
G1 X20.199 Y-22.628 F200.000
G1 X19.872 Y-22.451 F200.000
G1 X19.635 Y-22.365 F200.000
G1 X19.635 Y-22.365 F200.000
G1 X19.617 Y-22.365 F200.000
G0 X19.605 Y-22.380
G0 X19.605 Y-22.395
G1 X19.609 Y-22.406 F200.000
G1 X19.639 Y-22.410 F200.000
G1 X19.665 Y-22.383 F200.000
G1 X19.647 Y-22.342 F200.000
G1 X19.647 Y-22.342 F200.000
G1 X19.391 Y-22.278 F200.000
G1 X19.128 Y-22.248 F200.000
G1 X18.861 Y-22.248 F200.000
G1 X18.579 Y-22.286 F200.000
G1 X18.289 Y-22.361 F200.000
G1 X18.023 Y-22.470 F200.000
G1 X17.827 Y-22.579 F200.000
G1 X17.632 Y-22.714 F200.000
G1 X17.365 Y-22.955 F200.000
G1 X17.165 Y-23.192 F200.000
G1 X17.041 Y-23.380 F200.000
G1 X16.940 Y-23.594 F200.000
G1 X16.823 Y-23.932 F200.000
G1 X16.786 Y-24.098 F200.000
G1 X16.752 Y-24.414 F200.000
G1 X16.756 Y-24.673 F200.000
G1 X16.778 Y-24.838 F200.000
G1 X16.868 Y-25.207 F200.000
G1 X16.944 Y-25.402 F200.000
G1 X17.053 Y-25.628 F200.000
G1 X17.222 Y-25.872 F200.000
G1 X17.365 Y-26.034 F200.000
G1 X17.549 Y-26.207 F200.000
G1 X17.820 Y-26.406 F200.000
G1 X18.038 Y-26.523 F200.000
G1 X18.350 Y-26.647 F200.000
G1 X18.639 Y-26.714 F200.000
G1 X18.763 Y-26.729 F200.000
G1 X19.034 Y-26.744 F200.000
G1 X19.214 Y-26.733 F200.000
G1 X19.523 Y-26.677 F200.000
G1 X19.680 Y-26.632 F200.000
G1 X20.083 Y-26.466 F200.000
G1 X20.256 Y-26.357 F200.000
G1 X20.406 Y-26.244 F200.000
G1 X20.545 Y-26.124 F200.000
G1 X20.797 Y-25.835 F200.000
G1 X20.974 Y-25.564 F200.000
G1 X21.086 Y-25.323 F200.000
G1 X21.150 Y-25.135 F200.000
G1 X21.214 Y-24.853 F200.000
G1 X21.241 Y-24.620 F200.000
G1 X21.244 Y-24.361 F200.000
G1 X21.237 Y-24.263 F200.000
G1 X21.150 Y-23.857 F200.000
G1 X21.004 Y-23.485 F200.000
G1 X20.857 Y-23.226 F200.000
G1 X20.741 Y-23.071 F200.000
G1 X20.617 Y-22.932 F200.000
G1 X20.508 Y-22.827 F200.000
G1 X20.301 Y-22.665 F200.000
G1 X20.120 Y-22.549 F200.000
G1 X19.823 Y-22.402 F200.000
G1 X19.647 Y-22.342 F200.000
G1 X19.647 Y-22.342 F200.000
G0 Z15.000
G0 Z15.000
(Finish operation: Adaptive)
(Block-name: Adaptive001)
(Block-expand: 0)
(Block-enable: 1)
(Begin operation: Adaptive001)
(Path: Adaptive001)
(Adaptive001)
(Helix to depth: -5.000000)
G0 Z5.000
G0 X20.013 Y23.165 Z5.000
G0 X20.013 Y23.165 Z3.000
G1 X20.013 Y23.165 Z0.000 F200.000
G1 X20.013 Y23.165 Z0.000 F200.000
G1 X20.039 Y23.072 Z-0.009 F200.000
G1 X20.082 Y22.986 Z-0.017 F200.000
G1 X20.141 Y22.910 Z-0.026 F200.000
G1 X20.214 Y22.848 Z-0.034 F200.000
G1 X20.297 Y22.800 Z-0.043 F200.000
G1 X20.389 Y22.770 Z-0.052 F200.000
G1 X20.484 Y22.758 Z-0.060 F200.000
G1 X20.580 Y22.765 Z-0.069 F200.000
G1 X20.672 Y22.791 Z-0.077 F200.000
G1 X20.758 Y22.834 Z-0.086 F200.000
G1 X20.834 Y22.893 Z-0.094 F200.000
G1 X20.897 Y22.966 Z-0.103 F200.000
G1 X20.944 Y23.049 Z-0.112 F200.000
G1 X20.974 Y23.140 Z-0.120 F200.000
G1 X20.986 Y23.236 Z-0.129 F200.000
G1 X20.979 Y23.332 Z-0.137 F200.000
G1 X20.954 Y23.424 Z-0.146 F200.000
G1 X20.910 Y23.510 Z-0.155 F200.000
G1 X20.851 Y23.586 Z-0.163 F200.000
G1 X20.779 Y23.649 Z-0.172 F200.000
G1 X20.695 Y23.696 Z-0.180 F200.000
G1 X20.604 Y23.726 Z-0.189 F200.000
G1 X20.509 Y23.738 Z-0.198 F200.000
G1 X20.413 Y23.731 Z-0.206 F200.000
G1 X20.320 Y23.705 Z-0.215 F200.000
G1 X20.234 Y23.662 Z-0.223 F200.000
G1 X20.159 Y23.603 Z-0.232 F200.000
G1 X20.096 Y23.530 Z-0.240 F200.000
G1 X20.048 Y23.447 Z-0.249 F200.000
G1 X20.018 Y23.356 Z-0.258 F200.000
G1 X20.006 Y23.260 Z-0.266 F200.000
G1 X20.013 Y23.165 Z-0.275 F200.000
G1 X20.039 Y23.072 Z-0.283 F200.000
G1 X20.082 Y22.986 Z-0.292 F200.000
G1 X20.141 Y22.910 Z-0.301 F200.000
G1 X20.214 Y22.848 Z-0.309 F200.000
G1 X20.297 Y22.800 Z-0.318 F200.000
G1 X20.389 Y22.770 Z-0.326 F200.000
G1 X20.484 Y22.758 Z-0.335 F200.000
G1 X20.580 Y22.765 Z-0.344 F200.000
G1 X20.672 Y22.791 Z-0.352 F200.000
G1 X20.758 Y22.834 Z-0.361 F200.000
G1 X20.834 Y22.893 Z-0.369 F200.000
G1 X20.897 Y22.966 Z-0.378 F200.000
G1 X20.944 Y23.049 Z-0.387 F200.000
G1 X20.974 Y23.140 Z-0.395 F200.000
G1 X20.986 Y23.236 Z-0.404 F200.000
G1 X20.979 Y23.332 Z-0.412 F200.000
G1 X20.954 Y23.424 Z-0.421 F200.000
G1 X20.910 Y23.510 Z-0.429 F200.000
G1 X20.851 Y23.586 Z-0.438 F200.000
G1 X20.779 Y23.649 Z-0.447 F200.000
G1 X20.695 Y23.696 Z-0.455 F200.000
G1 X20.604 Y23.726 Z-0.464 F200.000
G1 X20.509 Y23.738 Z-0.472 F200.000
G1 X20.413 Y23.731 Z-0.481 F200.000
G1 X20.320 Y23.705 Z-0.490 F200.000
G1 X20.234 Y23.662 Z-0.498 F200.000
G1 X20.159 Y23.603 Z-0.507 F200.000
G1 X20.096 Y23.530 Z-0.515 F200.000
G1 X20.048 Y23.447 Z-0.524 F200.000
G1 X20.018 Y23.356 Z-0.533 F200.000
G1 X20.006 Y23.260 Z-0.541 F200.000
G1 X20.013 Y23.165 Z-0.550 F200.000
G1 X20.039 Y23.072 Z-0.558 F200.000
G1 X20.082 Y22.986 Z-0.567 F200.000
G1 X20.141 Y22.910 Z-0.575 F200.000
G1 X20.214 Y22.848 Z-0.584 F200.000
G1 X20.297 Y22.800 Z-0.593 F200.000
G1 X20.389 Y22.770 Z-0.601 F200.000
G1 X20.484 Y22.758 Z-0.610 F200.000
G1 X20.580 Y22.765 Z-0.618 F200.000
G1 X20.672 Y22.791 Z-0.627 F200.000
G1 X20.758 Y22.834 Z-0.636 F200.000
G1 X20.834 Y22.893 Z-0.644 F200.000
G1 X20.897 Y22.966 Z-0.653 F200.000
G1 X20.944 Y23.049 Z-0.661 F200.000
G1 X20.974 Y23.140 Z-0.670 F200.000
G1 X20.986 Y23.236 Z-0.679 F200.000
G1 X20.979 Y23.332 Z-0.687 F200.000
G1 X20.954 Y23.424 Z-0.696 F200.000
G1 X20.910 Y23.510 Z-0.704 F200.000
G1 X20.851 Y23.586 Z-0.713 F200.000
G1 X20.779 Y23.649 Z-0.721 F200.000
G1 X20.695 Y23.696 Z-0.730 F200.000
G1 X20.604 Y23.726 Z-0.739 F200.000
G1 X20.509 Y23.738 Z-0.747 F200.000
G1 X20.413 Y23.731 Z-0.756 F200.000
G1 X20.320 Y23.705 Z-0.764 F200.000
G1 X20.234 Y23.662 Z-0.773 F200.000
G1 X20.159 Y23.603 Z-0.782 F200.000
G1 X20.096 Y23.530 Z-0.790 F200.000
G1 X20.048 Y23.447 Z-0.799 F200.000
G1 X20.018 Y23.356 Z-0.807 F200.000
G1 X20.006 Y23.260 Z-0.816 F200.000
G1 X20.013 Y23.165 Z-0.825 F200.000
G1 X20.039 Y23.072 Z-0.833 F200.000
G1 X20.082 Y22.986 Z-0.842 F200.000
G1 X20.141 Y22.910 Z-0.850 F200.000
G1 X20.214 Y22.848 Z-0.859 F200.000
G1 X20.297 Y22.800 Z-0.868 F200.000
G1 X20.389 Y22.770 Z-0.876 F200.000
G1 X20.484 Y22.758 Z-0.885 F200.000
G1 X20.580 Y22.765 Z-0.893 F200.000
G1 X20.672 Y22.791 Z-0.902 F200.000
G1 X20.758 Y22.834 Z-0.910 F200.000
G1 X20.834 Y22.893 Z-0.919 F200.000
G1 X20.897 Y22.966 Z-0.928 F200.000
G1 X20.944 Y23.049 Z-0.936 F200.000
G1 X20.974 Y23.140 Z-0.945 F200.000
G1 X20.986 Y23.236 Z-0.953 F200.000
G1 X20.979 Y23.332 Z-0.962 F200.000
G1 X20.954 Y23.424 Z-0.971 F200.000
G1 X20.910 Y23.510 Z-0.979 F200.000
G1 X20.851 Y23.586 Z-0.988 F200.000
G1 X20.779 Y23.649 Z-0.996 F200.000
G1 X20.695 Y23.696 Z-1.005 F200.000
G1 X20.604 Y23.726 Z-1.014 F200.000
G1 X20.509 Y23.738 Z-1.022 F200.000
G1 X20.413 Y23.731 Z-1.031 F200.000
G1 X20.320 Y23.705 Z-1.039 F200.000
G1 X20.234 Y23.662 Z-1.048 F200.000
G1 X20.159 Y23.603 Z-1.056 F200.000
G1 X20.096 Y23.530 Z-1.065 F200.000
G1 X20.048 Y23.447 Z-1.074 F200.000
G1 X20.018 Y23.356 Z-1.082 F200.000
G1 X20.006 Y23.260 Z-1.091 F200.000
G1 X20.013 Y23.165 Z-1.099 F200.000
G1 X20.039 Y23.072 Z-1.108 F200.000
G1 X20.082 Y22.986 Z-1.117 F200.000
G1 X20.141 Y22.910 Z-1.125 F200.000
G1 X20.214 Y22.848 Z-1.134 F200.000
G1 X20.297 Y22.800 Z-1.142 F200.000
G1 X20.389 Y22.770 Z-1.151 F200.000
G1 X20.484 Y22.758 Z-1.160 F200.000
G1 X20.580 Y22.765 Z-1.168 F200.000
