(Exported by FreeCAD)
(Post Processor: script_module)
(Output Time:2024-11-05 01:16:06.701012)
(Begin preamble)
G17 G90
G21
(Block-name: Fixture)
(Block-expand: 0)
(Block-enable: 1)
(Begin operation: Fixture)
(Path: Fixture)
G54
(Finish operation: Fixture)
(Block-name: 3mm Endmill001)
(Block-expand: 0)
(Block-enable: 1)
(Begin operation: 3mm Endmill001)
(Path: 3mm Endmill001)
(3mm Endmill001)
(Begin toolchange)
( M6 T2 )
M3 S10000
(Finish operation: 3mm Endmill001)
(Block-name: Adaptive)
(Block-expand: 0)
(Block-enable: 1)
(Begin operation: Adaptive)
(Path: Adaptive)
(Adaptive)
(Helix to depth: -5.000000)
G0 Z5.000
G0 X20.718 Y23.336 Z5.000
G0 X20.718 Y23.336 Z3.000
G1 X20.718 Y23.336 Z0.000 F200.000
G1 X20.718 Y23.336 Z0.000 F200.000
G1 X20.696 Y23.377 Z-0.004 F200.000
G1 X20.667 Y23.414 Z-0.009 F200.000
G1 X20.631 Y23.444 Z-0.013 F200.000
G1 X20.591 Y23.467 Z-0.017 F200.000
G1 X20.546 Y23.481 Z-0.021 F200.000
G1 X20.500 Y23.486 Z-0.026 F200.000
G1 X20.453 Y23.482 Z-0.030 F200.000
G1 X20.408 Y23.469 Z-0.034 F200.000
G1 X20.367 Y23.448 Z-0.038 F200.000
G1 X20.330 Y23.419 Z-0.043 F200.000
G1 X20.300 Y23.383 Z-0.047 F200.000
G1 X20.278 Y23.343 Z-0.051 F200.000
G1 X20.263 Y23.298 Z-0.055 F200.000
G1 X20.258 Y23.252 Z-0.060 F200.000
G1 X20.262 Y23.205 Z-0.064 F200.000
G1 X20.275 Y23.160 Z-0.068 F200.000
G1 X20.296 Y23.119 Z-0.072 F200.000
G1 X20.325 Y23.082 Z-0.077 F200.000
G1 X20.361 Y23.052 Z-0.081 F200.000
G1 X20.402 Y23.030 Z-0.085 F200.000
G1 X20.446 Y23.015 Z-0.090 F200.000
G1 X20.493 Y23.010 Z-0.094 F200.000
G1 X20.539 Y23.014 Z-0.098 F200.000
G1 X20.584 Y23.027 Z-0.102 F200.000
G1 X20.626 Y23.048 Z-0.107 F200.000
G1 X20.662 Y23.077 Z-0.111 F200.000
G1 X20.692 Y23.113 Z-0.115 F200.000
G1 X20.715 Y23.154 Z-0.119 F200.000
G1 X20.729 Y23.198 Z-0.124 F200.000
G1 X20.734 Y23.245 Z-0.128 F200.000
G1 X20.730 Y23.291 Z-0.132 F200.000
G1 X20.718 Y23.336 Z-0.136 F200.000
G1 X20.696 Y23.377 Z-0.141 F200.000
G1 X20.667 Y23.414 Z-0.145 F200.000
G1 X20.631 Y23.444 Z-0.149 F200.000
G1 X20.591 Y23.467 Z-0.153 F200.000
G1 X20.546 Y23.481 Z-0.158 F200.000
G1 X20.500 Y23.486 Z-0.162 F200.000
G1 X20.453 Y23.482 Z-0.166 F200.000
G1 X20.408 Y23.469 Z-0.170 F200.000
G1 X20.367 Y23.448 Z-0.175 F200.000
G1 X20.330 Y23.419 Z-0.179 F200.000
G1 X20.300 Y23.383 Z-0.183 F200.000
G1 X20.278 Y23.343 Z-0.188 F200.000
G1 X20.263 Y23.298 Z-0.192 F200.000
G1 X20.258 Y23.252 Z-0.196 F200.000
G1 X20.262 Y23.205 Z-0.200 F200.000
G1 X20.275 Y23.160 Z-0.205 F200.000
G1 X20.296 Y23.119 Z-0.209 F200.000
G1 X20.325 Y23.082 Z-0.213 F200.000
G1 X20.361 Y23.052 Z-0.217 F200.000
G1 X20.402 Y23.030 Z-0.222 F200.000
G1 X20.446 Y23.015 Z-0.226 F200.000
G1 X20.493 Y23.010 Z-0.230 F200.000
G1 X20.539 Y23.014 Z-0.234 F200.000
G1 X20.584 Y23.027 Z-0.239 F200.000
G1 X20.626 Y23.048 Z-0.243 F200.000
G1 X20.662 Y23.077 Z-0.247 F200.000
G1 X20.692 Y23.113 Z-0.251 F200.000
G1 X20.715 Y23.154 Z-0.256 F200.000
G1 X20.729 Y23.198 Z-0.260 F200.000
G1 X20.734 Y23.245 Z-0.264 F200.000
G1 X20.730 Y23.291 Z-0.269 F200.000
G1 X20.718 Y23.336 Z-0.273 F200.000
G1 X20.696 Y23.377 Z-0.277 F200.000
G1 X20.667 Y23.414 Z-0.281 F200.000
G1 X20.631 Y23.444 Z-0.286 F200.000
G1 X20.591 Y23.467 Z-0.290 F200.000
G1 X20.546 Y23.481 Z-0.294 F200.000
G1 X20.500 Y23.486 Z-0.298 F200.000
G1 X20.453 Y23.482 Z-0.303 F200.000
G1 X20.408 Y23.469 Z-0.307 F200.000
G1 X20.367 Y23.448 Z-0.311 F200.000
G1 X20.330 Y23.419 Z-0.315 F200.000
G1 X20.300 Y23.383 Z-0.320 F200.000
G1 X20.278 Y23.343 Z-0.324 F200.000
G1 X20.263 Y23.298 Z-0.328 F200.000
G1 X20.258 Y23.252 Z-0.332 F200.000
G1 X20.262 Y23.205 Z-0.337 F200.000
G1 X20.275 Y23.160 Z-0.341 F200.000
G1 X20.296 Y23.119 Z-0.345 F200.000
G1 X20.325 Y23.082 Z-0.350 F200.000
G1 X20.361 Y23.052 Z-0.354 F200.000
G1 X20.402 Y23.030 Z-0.358 F200.000
G1 X20.446 Y23.015 Z-0.362 F200.000
G1 X20.493 Y23.010 Z-0.367 F200.000
G1 X20.539 Y23.014 Z-0.371 F200.000
G1 X20.584 Y23.027 Z-0.375 F200.000
G1 X20.626 Y23.048 Z-0.379 F200.000
G1 X20.662 Y23.077 Z-0.384 F200.000
G1 X20.692 Y23.113 Z-0.388 F200.000
G1 X20.715 Y23.154 Z-0.392 F200.000
G1 X20.729 Y23.198 Z-0.396 F200.000
G1 X20.734 Y23.245 Z-0.401 F200.000
G1 X20.730 Y23.291 Z-0.405 F200.000
G1 X20.718 Y23.336 Z-0.409 F200.000
G1 X20.696 Y23.377 Z-0.413 F200.000
G1 X20.667 Y23.414 Z-0.418 F200.000
G1 X20.631 Y23.444 Z-0.422 F200.000
G1 X20.591 Y23.467 Z-0.426 F200.000
G1 X20.546 Y23.481 Z-0.430 F200.000
G1 X20.500 Y23.486 Z-0.435 F200.000
G1 X20.453 Y23.482 Z-0.439 F200.000
G1 X20.408 Y23.469 Z-0.443 F200.000
G1 X20.367 Y23.448 Z-0.448 F200.000
G1 X20.330 Y23.419 Z-0.452 F200.000
G1 X20.300 Y23.383 Z-0.456 F200.000
G1 X20.278 Y23.343 Z-0.460 F200.000
G1 X20.263 Y23.298 Z-0.465 F200.000
G1 X20.258 Y23.252 Z-0.469 F200.000
G1 X20.262 Y23.205 Z-0.473 F200.000
G1 X20.275 Y23.160 Z-0.477 F200.000
G1 X20.296 Y23.119 Z-0.482 F200.000
G1 X20.325 Y23.082 Z-0.486 F200.000
G1 X20.361 Y23.052 Z-0.490 F200.000
G1 X20.402 Y23.030 Z-0.494 F200.000
G1 X20.446 Y23.015 Z-0.499 F200.000
G1 X20.493 Y23.010 Z-0.503 F200.000
G1 X20.539 Y23.014 Z-0.507 F200.000
G1 X20.584 Y23.027 Z-0.511 F200.000
G1 X20.626 Y23.048 Z-0.516 F200.000
G1 X20.662 Y23.077 Z-0.520 F200.000
G1 X20.692 Y23.113 Z-0.524 F200.000
G1 X20.715 Y23.154 Z-0.529 F200.000
G1 X20.729 Y23.198 Z-0.533 F200.000
G1 X20.734 Y23.245 Z-0.537 F200.000
G1 X20.730 Y23.291 Z-0.541 F200.000
G1 X20.718 Y23.336 Z-0.546 F200.000
G1 X20.696 Y23.377 Z-0.550 F200.000
G1 X20.667 Y23.414 Z-0.554 F200.000
G1 X20.631 Y23.444 Z-0.558 F200.000
G1 X20.591 Y23.467 Z-0.563 F200.000
G1 X20.546 Y23.481 Z-0.567 F200.000
G1 X20.500 Y23.486 Z-0.571 F200.000
G1 X20.453 Y23.482 Z-0.575 F200.000
G1 X20.408 Y23.469 Z-0.580 F200.000
G1 X20.367 Y23.448 Z-0.584 F200.000
G1 X20.330 Y23.419 Z-0.588 F200.000
G1 X20.300 Y23.383 Z-0.592 F200.000
G1 X20.278 Y23.343 Z-0.597 F200.000
G1 X20.263 Y23.298 Z-0.601 F200.000
G1 X20.258 Y23.252 Z-0.605 F200.000
G1 X20.262 Y23.205 Z-0.610 F200.000
G1 X20.275 Y23.160 Z-0.614 F200.000
G1 X20.296 Y23.119 Z-0.618 F200.000
G1 X20.325 Y23.082 Z-0.622 F200.000
G1 X20.361 Y23.052 Z-0.627 F200.000
G1 X20.402 Y23.030 Z-0.631 F200.000
G1 X20.446 Y23.015 Z-0.635 F200.000
G1 X20.493 Y23.010 Z-0.639 F200.000
G1 X20.539 Y23.014 Z-0.644 F200.000
G1 X20.584 Y23.027 Z-0.648 F200.000
G1 X20.626 Y23.048 Z-0.652 F200.000
G1 X20.662 Y23.077 Z-0.656 F200.000
G1 X20.692 Y23.113 Z-0.661 F200.000
G1 X20.715 Y23.154 Z-0.665 F200.000
G1 X20.729 Y23.198 Z-0.669 F200.000
G1 X20.734 Y23.245 Z-0.673 F200.000
G1 X20.730 Y23.291 Z-0.678 F200.000
G1 X20.718 Y23.336 Z-0.682 F200.000
G1 X20.696 Y23.377 Z-0.686 F200.000
G1 X20.667 Y23.414 Z-0.690 F200.000
G1 X20.631 Y23.444 Z-0.695 F200.000
G1 X20.591 Y23.467 Z-0.699 F200.000
G1 X20.546 Y23.481 Z-0.703 F200.000
G1 X20.500 Y23.486 Z-0.708 F200.000
G1 X20.453 Y23.482 Z-0.712 F200.000
G1 X20.408 Y23.469 Z-0.716 F200.000
G1 X20.367 Y23.448 Z-0.720 F200.000
G1 X20.330 Y23.419 Z-0.725 F200.000
G1 X20.300 Y23.383 Z-0.729 F200.000
G1 X20.278 Y23.343 Z-0.733 F200.000
G1 X20.263 Y23.298 Z-0.737 F200.000
G1 X20.258 Y23.252 Z-0.742 F200.000
G1 X20.262 Y23.205 Z-0.746 F200.000
G1 X20.275 Y23.160 Z-0.750 F200.000
G1 X20.296 Y23.119 Z-0.754 F200.000
G1 X20.325 Y23.082 Z-0.759 F200.000
G1 X20.361 Y23.052 Z-0.763 F200.000
G1 X20.402 Y23.030 Z-0.767 F200.000
G1 X20.446 Y23.015 Z-0.771 F200.000
G1 X20.493 Y23.010 Z-0.776 F200.000
G1 X20.539 Y23.014 Z-0.780 F200.000
G1 X20.584 Y23.027 Z-0.784 F200.000
G1 X20.626 Y23.048 Z-0.789 F200.000
G1 X20.662 Y23.077 Z-0.793 F200.000
G1 X20.692 Y23.113 Z-0.797 F200.000
G1 X20.715 Y23.154 Z-0.801 F200.000
G1 X20.729 Y23.198 Z-0.806 F200.000
G1 X20.734 Y23.245 Z-0.810 F200.000
G1 X20.730 Y23.291 Z-0.814 F200.000
G1 X20.718 Y23.336 Z-0.818 F200.000
G1 X20.696 Y23.377 Z-0.823 F200.000
G1 X20.667 Y23.414 Z-0.827 F200.000
G1 X20.631 Y23.444 Z-0.831 F200.000
G1 X20.591 Y23.467 Z-0.835 F200.000
G1 X20.546 Y23.481 Z-0.840 F200.000
G1 X20.500 Y23.486 Z-0.844 F200.000
G1 X20.453 Y23.482 Z-0.848 F200.000
G1 X20.408 Y23.469 Z-0.852 F200.000
G1 X20.367 Y23.448 Z-0.857 F200.000
G1 X20.330 Y23.419 Z-0.861 F200.000
G1 X20.300 Y23.383 Z-0.865 F200.000
G1 X20.278 Y23.343 Z-0.870 F200.000
G1 X20.263 Y23.298 Z-0.874 F200.000
G1 X20.258 Y23.252 Z-0.878 F200.000
G1 X20.262 Y23.205 Z-0.882 F200.000
G1 X20.275 Y23.160 Z-0.887 F200.000
G1 X20.296 Y23.119 Z-0.891 F200.000
G1 X20.325 Y23.082 Z-0.895 F200.000
G1 X20.361 Y23.052 Z-0.899 F200.000
G1 X20.402 Y23.030 Z-0.904 F200.000
G1 X20.446 Y23.015 Z-0.908 F200.000
G1 X20.493 Y23.010 Z-0.912 F200.000
G1 X20.539 Y23.014 Z-0.916 F200.000
G1 X20.584 Y23.027 Z-0.921 F200.000
G1 X20.626 Y23.048 Z-0.925 F200.000
G1 X20.662 Y23.077 Z-0.929 F200.000
G1 X20.692 Y23.113 Z-0.933 F200.000
G1 X20.715 Y23.154 Z-0.938 F200.000
G1 X20.729 Y23.198 Z-0.942 F200.000
G1 X20.734 Y23.245 Z-0.946 F200.000
G1 X20.730 Y23.291 Z-0.950 F200.000
G1 X20.718 Y23.336 Z-0.955 F200.000
G1 X20.696 Y23.377 Z-0.959 F200.000
G1 X20.667 Y23.414 Z-0.963 F200.000
G1 X20.631 Y23.444 Z-0.968 F200.000
G1 X20.591 Y23.467 Z-0.972 F200.000
G1 X20.546 Y23.481 Z-0.976 F200.000
G1 X20.500 Y23.486 Z-0.980 F200.000
G1 X20.453 Y23.482 Z-0.985 F200.000
G1 X20.408 Y23.469 Z-0.989 F200.000
G1 X20.367 Y23.448 Z-0.993 F200.000
G1 X20.330 Y23.419 Z-0.997 F200.000
G1 X20.300 Y23.383 Z-1.002 F200.000
G1 X20.278 Y23.343 Z-1.006 F200.000
G1 X20.263 Y23.298 Z-1.010 F200.000
G1 X20.258 Y23.252 Z-1.014 F200.000
G1 X20.262 Y23.205 Z-1.019 F200.000
G1 X20.275 Y23.160 Z-1.023 F200.000
G1 X20.296 Y23.119 Z-1.027 F200.000
G1 X20.325 Y23.082 Z-1.031 F200.000
G1 X20.361 Y23.052 Z-1.036 F200.000
G1 X20.402 Y23.030 Z-1.040 F200.000
G1 X20.446 Y23.015 Z-1.044 F200.000
G1 X20.493 Y23.010 Z-1.049 F200.000
G1 X20.539 Y23.014 Z-1.053 F200.000
G1 X20.584 Y23.027 Z-1.057 F200.000
G1 X20.626 Y23.048 Z-1.061 F200.000
G1 X20.662 Y23.077 Z-1.066 F200.000
G1 X20.692 Y23.113 Z-1.070 F200.000
G1 X20.715 Y23.154 Z-1.074 F200.000
G1 X20.729 Y23.198 Z-1.078 F200.000
G1 X20.734 Y23.245 Z-1.083 F200.000
G1 X20.730 Y23.291 Z-1.087 F200.000
G1 X20.718 Y23.336 Z-1.091 F200.000
G1 X20.696 Y23.377 Z-1.095 F200.000
G1 X20.667 Y23.414 Z-1.100 F200.000
G1 X20.631 Y23.444 Z-1.104 F200.000
G1 X20.591 Y23.467 Z-1.108 F200.000
G1 X20.546 Y23.481 Z-1.112 F200.000
G1 X20.500 Y23.486 Z-1.117 F200.000
G1 X20.453 Y23.482 Z-1.121 F200.000
G1 X20.408 Y23.469 Z-1.125 F200.000
G1 X20.367 Y23.448 Z-1.130 F200.000
G1 X20.330 Y23.419 Z-1.134 F200.000
G1 X20.300 Y23.383 Z-1.138 F200.000
G1 X20.278 Y23.343 Z-1.142 F200.000
G1 X20.263 Y23.298 Z-1.147 F200.000
G1 X20.258 Y23.252 Z-1.151 F200.000
G1 X20.262 Y23.205 Z-1.155 F200.000
G1 X20.275 Y23.160 Z-1.159 F200.000
G1 X20.296 Y23.119 Z-1.164 F200.000
G1 X20.325 Y23.082 Z-1.168 F200.000
G1 X20.361 Y23.052 Z-1.172 F200.000
G1 X20.402 Y23.030 Z-1.176 F200.000
G1 X20.446 Y23.015 Z-1.181 F200.000
G1 X20.493 Y23.010 Z-1.185 F200.000
G1 X20.539 Y23.014 Z-1.189 F200.000
G1 X20.584 Y23.027 Z-1.193 F200.000
G1 X20.626 Y23.048 Z-1.198 F200.000
G1 X20.662 Y23.077 Z-1.202 F200.000
G1 X20.692 Y23.113 Z-1.206 F200.000
G1 X20.715 Y23.154 Z-1.210 F200.000
G1 X20.729 Y23.198 Z-1.215 F200.000
G1 X20.734 Y23.245 Z-1.219 F200.000
G1 X20.730 Y23.291 Z-1.223 F200.000
G1 X20.718 Y23.336 Z-1.228 F200.000
G1 X20.696 Y23.377 Z-1.232 F200.000
G1 X20.667 Y23.414 Z-1.236 F200.000
G1 X20.631 Y23.444 Z-1.240 F200.000
G1 X20.591 Y23.467 Z-1.245 F200.000
G1 X20.546 Y23.481 Z-1.249 F200.000
G1 X20.500 Y23.486 Z-1.253 F200.000
G1 X20.453 Y23.482 Z-1.257 F200.000
G1 X20.408 Y23.469 Z-1.262 F200.000
G1 X20.367 Y23.448 Z-1.266 F200.000
G1 X20.330 Y23.419 Z-1.270 F200.000
G1 X20.300 Y23.383 Z-1.274 F200.000
G1 X20.278 Y23.343 Z-1.279 F200.000
G1 X20.263 Y23.298 Z-1.283 F200.000
G1 X20.258 Y23.252 Z-1.287 F200.000
G1 X20.262 Y23.205 Z-1.291 F200.000
G1 X20.275 Y23.160 Z-1.296 F200.000
G1 X20.296 Y23.119 Z-1.300 F200.000
G1 X20.325 Y23.082 Z-1.304 F200.000
G1 X20.361 Y23.052 Z-1.309 F200.000
G1 X20.402 Y23.030 Z-1.313 F200.000
G1 X20.446 Y23.015 Z-1.317 F200.000
G1 X20.493 Y23.010 Z-1.321 F200.000
G1 X20.539 Y23.014 Z-1.326 F200.000
G1 X20.584 Y23.027 Z-1.330 F200.000
G1 X20.626 Y23.048 Z-1.334 F200.000
G1 X20.662 Y23.077 Z-1.338 F200.000
G1 X20.692 Y23.113 Z-1.343 F200.000
G1 X20.715 Y23.154 Z-1.347 F200.000
G1 X20.729 Y23.198 Z-1.351 F200.000
G1 X20.734 Y23.245 Z-1.355 F200.000
G1 X20.730 Y23.291 Z-1.360 F200.000
G1 X20.718 Y23.336 Z-1.364 F200.000
G1 X20.696 Y23.377 Z-1.368 F200.000
G1 X20.667 Y23.414 Z-1.372 F200.000
G1 X20.631 Y23.444 Z-1.377 F200.000
G1 X20.591 Y23.467 Z-1.381 F200.000
G1 X20.546 Y23.481 Z-1.385 F200.000
G1 X20.500 Y23.486 Z-1.390 F200.000
G1 X20.453 Y23.482 Z-1.394 F200.000
G1 X20.408 Y23.469 Z-1.398 F200.000
G1 X20.367 Y23.448 Z-1.402 F200.000
G1 X20.330 Y23.419 Z-1.407 F200.000
G1 X20.300 Y23.383 Z-1.411 F200.000
G1 X20.278 Y23.343 Z-1.415 F200.000
G1 X20.263 Y23.298 Z-1.419 F200.000
G1 X20.258 Y23.252 Z-1.424 F200.000
G1 X20.262 Y23.205 Z-1.428 F200.000
G1 X20.275 Y23.160 Z-1.432 F200.000
G1 X20.296 Y23.119 Z-1.436 F200.000
G1 X20.325 Y23.082 Z-1.441 F200.000
G1 X20.361 Y23.052 Z-1.445 F200.000
G1 X20.402 Y23.030 Z-1.449 F200.000
G1 X20.446 Y23.015 Z-1.453 F200.000
G1 X20.493 Y23.010 Z-1.458 F200.000
G1 X20.539 Y23.014 Z-1.462 F200.000
G1 X20.584 Y23.027 Z-1.466 F200.000
G1 X20.626 Y23.048 Z-1.470 F200.000
G1 X20.662 Y23.077 Z-1.475 F200.000
G1 X20.692 Y23.113 Z-1.479 F200.000
G1 X20.715 Y23.154 Z-1.483 F200.000
G1 X20.729 Y23.198 Z-1.488 F200.000
G1 X20.734 Y23.245 Z-1.492 F200.000
G1 X20.730 Y23.291 Z-1.496 F200.000
G1 X20.718 Y23.336 Z-1.500 F200.000
G1 X20.696 Y23.377 Z-1.505 F200.000
G1 X20.667 Y23.414 Z-1.509 F200.000
G1 X20.631 Y23.444 Z-1.513 F200.000
G1 X20.591 Y23.467 Z-1.517 F200.000
G1 X20.546 Y23.481 Z-1.522 F200.000
G1 X20.500 Y23.486 Z-1.526 F200.000
G1 X20.453 Y23.482 Z-1.530 F200.000
G1 X20.408 Y23.469 Z-1.534 F200.000
G1 X20.367 Y23.448 Z-1.539 F200.000
G1 X20.330 Y23.419 Z-1.543 F200.000
G1 X20.300 Y23.383 Z-1.547 F200.000
G1 X20.278 Y23.343 Z-1.551 F200.000
G1 X20.263 Y23.298 Z-1.556 F200.000
G1 X20.258 Y23.252 Z-1.560 F200.000
G1 X20.262 Y23.205 Z-1.564 F200.000
G1 X20.275 Y23.160 Z-1.569 F200.000
G1 X20.296 Y23.119 Z-1.573 F200.000
G1 X20.325 Y23.082 Z-1.577 F200.000
G1 X20.361 Y23.052 Z-1.581 F200.000
G1 X20.402 Y23.030 Z-1.586 F200.000
G1 X20.446 Y23.015 Z-1.590 F200.000
G1 X20.493 Y23.010 Z-1.594 F200.000
G1 X20.539 Y23.014 Z-1.598 F200.000
G1 X20.584 Y23.027 Z-1.603 F200.000
G1 X20.626 Y23.048 Z-1.607 F200.000
G1 X20.662 Y23.077 Z-1.611 F200.000
G1 X20.692 Y23.113 Z-1.615 F200.000
G1 X20.715 Y23.154 Z-1.620 F200.000
G1 X20.729 Y23.198 Z-1.624 F200.000
G1 X20.734 Y23.245 Z-1.628 F200.000
G1 X20.730 Y23.291 Z-1.632 F200.000
G1 X20.718 Y23.336 Z-1.637 F200.000
G1 X20.696 Y23.377 Z-1.641 F200.000
G1 X20.667 Y23.414 Z-1.645 F200.000
G1 X20.631 Y23.444 Z-1.650 F200.000
G1 X20.591 Y23.467 Z-1.654 F200.000
G1 X20.546 Y23.481 Z-1.658 F200.000
G1 X20.500 Y23.486 Z-1.662 F200.000
G1 X20.453 Y23.482 Z-1.667 F200.000
G1 X20.408 Y23.469 Z-1.671 F200.000
G1 X20.367 Y23.448 Z-1.675 F200.000
G1 X20.330 Y23.419 Z-1.679 F200.000
G1 X20.300 Y23.383 Z-1.684 F200.000
G1 X20.278 Y23.343 Z-1.688 F200.000
G1 X20.263 Y23.298 Z-1.692 F200.000
G1 X20.258 Y23.252 Z-1.696 F200.000
G1 X20.262 Y23.205 Z-1.701 F200.000
G1 X20.275 Y23.160 Z-1.705 F200.000
G1 X20.296 Y23.119 Z-1.709 F200.000
G1 X20.325 Y23.082 Z-1.713 F200.000
G1 X20.361 Y23.052 Z-1.718 F200.000
G1 X20.402 Y23.030 Z-1.722 F200.000
G1 X20.446 Y23.015 Z-1.726 F200.000
G1 X20.493 Y23.010 Z-1.730 F200.000
G1 X20.539 Y23.014 Z-1.735 F200.000
G1 X20.584 Y23.027 Z-1.739 F200.000
G1 X20.626 Y23.048 Z-1.743 F200.000
G1 X20.662 Y23.077 Z-1.748 F200.000
G1 X20.692 Y23.113 Z-1.752 F200.000
G1 X20.715 Y23.154 Z-1.756 F200.000
G1 X20.729 Y23.198 Z-1.760 F200.000
G1 X20.734 Y23.245 Z-1.765 F200.000
G1 X20.730 Y23.291 Z-1.769 F200.000
G1 X20.718 Y23.336 Z-1.773 F200.000
G1 X20.696 Y23.377 Z-1.777 F200.000
G1 X20.667 Y23.414 Z-1.782 F200.000
G1 X20.631 Y23.444 Z-1.786 F200.000
G1 X20.591 Y23.467 Z-1.790 F200.000
G1 X20.546 Y23.481 Z-1.794 F200.000
G1 X20.500 Y23.486 Z-1.799 F200.000
G1 X20.453 Y23.482 Z-1.803 F200.000
G1 X20.408 Y23.469 Z-1.807 F200.000
G1 X20.367 Y23.448 Z-1.811 F200.000
G1 X20.330 Y23.419 Z-1.816 F200.000
G1 X20.300 Y23.383 Z-1.820 F200.000
G1 X20.278 Y23.343 Z-1.824 F200.000
G1 X20.263 Y23.298 Z-1.829 F200.000
G1 X20.258 Y23.252 Z-1.833 F200.000
G1 X20.262 Y23.205 Z-1.837 F200.000
G1 X20.275 Y23.160 Z-1.841 F200.000
G1 X20.296 Y23.119 Z-1.846 F200.000
G1 X20.325 Y23.082 Z-1.850 F200.000
G1 X20.361 Y23.052 Z-1.854 F200.000
G1 X20.402 Y23.030 Z-1.858 F200.000
G1 X20.446 Y23.015 Z-1.863 F200.000
G1 X20.493 Y23.010 Z-1.867 F200.000
G1 X20.539 Y23.014 Z-1.871 F200.000
G1 X20.584 Y23.027 Z-1.875 F200.000
G1 X20.626 Y23.048 Z-1.880 F200.000
G1 X20.662 Y23.077 Z-1.884 F200.000
G1 X20.692 Y23.113 Z-1.888 F200.000
G1 X20.715 Y23.154 Z-1.892 F200.000
G1 X20.729 Y23.198 Z-1.897 F200.000
G1 X20.734 Y23.245 Z-1.901 F200.000
G1 X20.730 Y23.291 Z-1.905 F200.000
G1 X20.718 Y23.336 Z-1.910 F200.000
G1 X20.696 Y23.377 Z-1.914 F200.000
G1 X20.667 Y23.414 Z-1.918 F200.000
G1 X20.631 Y23.444 Z-1.922 F200.000
G1 X20.591 Y23.467 Z-1.927 F200.000
G1 X20.546 Y23.481 Z-1.931 F200.000
G1 X20.500 Y23.486 Z-1.935 F200.000
G1 X20.453 Y23.482 Z-1.939 F200.000
G1 X20.408 Y23.469 Z-1.944 F200.000
G1 X20.367 Y23.448 Z-1.948 F200.000
G1 X20.330 Y23.419 Z-1.952 F200.000
G1 X20.300 Y23.383 Z-1.956 F200.000
G1 X20.278 Y23.343 Z-1.961 F200.000
G1 X20.263 Y23.298 Z-1.965 F200.000
G1 X20.258 Y23.252 Z-1.969 F200.000
G1 X20.262 Y23.205 Z-1.973 F200.000
G1 X20.275 Y23.160 Z-1.978 F200.000
G1 X20.296 Y23.119 Z-1.982 F200.000
G1 X20.325 Y23.082 Z-1.986 F200.000
G1 X20.361 Y23.052 Z-1.990 F200.000
G1 X20.402 Y23.030 Z-1.995 F200.000
G1 X20.446 Y23.015 Z-1.999 F200.000
G1 X20.493 Y23.010 Z-2.003 F200.000
G1 X20.539 Y23.014 Z-2.008 F200.000
G1 X20.584 Y23.027 Z-2.012 F200.000
G1 X20.626 Y23.048 Z-2.016 F200.000
G1 X20.662 Y23.077 Z-2.020 F200.000
G1 X20.692 Y23.113 Z-2.025 F200.000
G1 X20.715 Y23.154 Z-2.029 F200.000
G1 X20.729 Y23.198 Z-2.033 F200.000
G1 X20.734 Y23.245 Z-2.037 F200.000
G1 X20.730 Y23.291 Z-2.042 F200.000
G1 X20.718 Y23.336 Z-2.046 F200.000
G1 X20.696 Y23.377 Z-2.050 F200.000
G1 X20.667 Y23.414 Z-2.054 F200.000
G1 X20.631 Y23.444 Z-2.059 F200.000
G1 X20.591 Y23.467 Z-2.063 F200.000
G1 X20.546 Y23.481 Z-2.067 F200.000
G1 X20.500 Y23.486 Z-2.071 F200.000
G1 X20.453 Y23.482 Z-2.076 F200.000
G1 X20.408 Y23.469 Z-2.080 F200.000
G1 X20.367 Y23.448 Z-2.084 F200.000
G1 X20.330 Y23.419 Z-2.089 F200.000
G1 X20.300 Y23.383 Z-2.093 F200.000
G1 X20.278 Y23.343 Z-2.097 F200.000
G1 X20.263 Y23.298 Z-2.101 F200.000
G1 X20.258 Y23.252 Z-2.106 F200.000
G1 X20.262 Y23.205 Z-2.110 F200.000
G1 X20.275 Y23.160 Z-2.114 F200.000
G1 X20.296 Y23.119 Z-2.118 F200.000
G1 X20.325 Y23.082 Z-2.123 F200.000
G1 X20.361 Y23.052 Z-2.127 F200.000
G1 X20.402 Y23.030 Z-2.131 F200.000
G1 X20.446 Y23.015 Z-2.135 F200.000
G1 X20.493 Y23.010 Z-2.140 F200.000
G1 X20.539 Y23.014 Z-2.144 F200.000
G1 X20.584 Y23.027 Z-2.148 F200.000
G1 X20.626 Y23.048 Z-2.152 F200.000
G1 X20.662 Y23.077 Z-2.157 F200.000
G1 X20.692 Y23.113 Z-2.161 F200.000
G1 X20.715 Y23.154 Z-2.165 F200.000
G1 X20.729 Y23.198 Z-2.170 F200.000
G1 X20.734 Y23.245 Z-2.174 F200.000
G1 X20.730 Y23.291 Z-2.178 F200.000
G1 X20.718 Y23.336 Z-2.182 F200.000
G1 X20.696 Y23.377 Z-2.187 F200.000
G1 X20.667 Y23.414 Z-2.191 F200.000
G1 X20.631 Y23.444 Z-2.195 F200.000
G1 X20.591 Y23.467 Z-2.199 F200.000
G1 X20.546 Y23.481 Z-2.204 F200.000
G1 X20.500 Y23.486 Z-2.208 F200.000
G1 X20.453 Y23.482 Z-2.212 F200.000
G1 X20.408 Y23.469 Z-2.216 F200.000
G1 X20.367 Y23.448 Z-2.221 F200.000
G1 X20.330 Y23.419 Z-2.225 F200.000
G1 X20.300 Y23.383 Z-2.229 F200.000
G1 X20.278 Y23.343 Z-2.233 F200.000
G1 X20.263 Y23.298 Z-2.238 F200.000
G1 X20.258 Y23.252 Z-2.242 F200.000
G1 X20.262 Y23.205 Z-2.246 F200.000
G1 X20.275 Y23.160 Z-2.250 F200.000
G1 X20.296 Y23.119 Z-2.255 F200.000
G1 X20.325 Y23.082 Z-2.259 F200.000
G1 X20.361 Y23.052 Z-2.263 F200.000
G1 X20.402 Y23.030 Z-2.268 F200.000
G1 X20.446 Y23.015 Z-2.272 F200.000
G1 X20.493 Y23.010 Z-2.276 F200.000
G1 X20.539 Y23.014 Z-2.280 F200.000
G1 X20.584 Y23.027 Z-2.285 F200.000
G1 X20.626 Y23.048 Z-2.289 F200.000
G1 X20.662 Y23.077 Z-2.293 F200.000
G1 X20.692 Y23.113 Z-2.297 F200.000
G1 X20.715 Y23.154 Z-2.302 F200.000
G1 X20.729 Y23.198 Z-2.306 F200.000
G1 X20.734 Y23.245 Z-2.310 F200.000
G1 X20.730 Y23.291 Z-2.314 F200.000
G1 X20.718 Y23.336 Z-2.319 F200.000
G1 X20.696 Y23.377 Z-2.323 F200.000
G1 X20.667 Y23.414 Z-2.327 F200.000
G1 X20.631 Y23.444 Z-2.331 F200.000
G1 X20.591 Y23.467 Z-2.336 F200.000
G1 X20.546 Y23.481 Z-2.340 F200.000
G1 X20.500 Y23.486 Z-2.344 F200.000
G1 X20.453 Y23.482 Z-2.349 F200.000
G1 X20.408 Y23.469 Z-2.353 F200.000
G1 X20.367 Y23.448 Z-2.357 F200.000
G1 X20.330 Y23.419 Z-2.361 F200.000
G1 X20.300 Y23.383 Z-2.366 F200.000
G1 X20.278 Y23.343 Z-2.370 F200.000
G1 X20.263 Y23.298 Z-2.374 F200.000
G1 X20.258 Y23.252 Z-2.378 F200.000
G1 X20.262 Y23.205 Z-2.383 F200.000
G1 X20.275 Y23.160 Z-2.387 F200.000
G1 X20.296 Y23.119 Z-2.391 F200.000
G1 X20.325 Y23.082 Z-2.395 F200.000
G1 X20.361 Y23.052 Z-2.400 F200.000
G1 X20.402 Y23.030 Z-2.404 F200.000
G1 X20.446 Y23.015 Z-2.408 F200.000
G1 X20.493 Y23.010 Z-2.412 F200.000
G1 X20.539 Y23.014 Z-2.417 F200.000
G1 X20.584 Y23.027 Z-2.421 F200.000
G1 X20.626 Y23.048 Z-2.425 F200.000
G1 X20.662 Y23.077 Z-2.430 F200.000
G1 X20.692 Y23.113 Z-2.434 F200.000
G1 X20.715 Y23.154 Z-2.438 F200.000
G1 X20.729 Y23.198 Z-2.442 F200.000
G1 X20.734 Y23.245 Z-2.447 F200.000
G1 X20.730 Y23.291 Z-2.451 F200.000
G1 X20.718 Y23.336 Z-2.455 F200.000
G1 X20.696 Y23.377 Z-2.459 F200.000
G1 X20.667 Y23.414 Z-2.464 F200.000
G1 X20.631 Y23.444 Z-2.468 F200.000
G1 X20.591 Y23.467 Z-2.472 F200.000
G1 X20.546 Y23.481 Z-2.476 F200.000
G1 X20.500 Y23.486 Z-2.481 F200.000
G1 X20.453 Y23.482 Z-2.485 F200.000
G1 X20.408 Y23.469 Z-2.489 F200.000
G1 X20.367 Y23.448 Z-2.493 F200.000
G1 X20.330 Y23.419 Z-2.498 F200.000
G1 X20.300 Y23.383 Z-2.502 F200.000
G1 X20.278 Y23.343 Z-2.506 F200.000
G1 X20.263 Y23.298 Z-2.510 F200.000
G1 X20.258 Y23.252 Z-2.515 F200.000
G1 X20.262 Y23.205 Z-2.519 F200.000
G1 X20.275 Y23.160 Z-2.523 F200.000
G1 X20.296 Y23.119 Z-2.528 F200.000
G1 X20.325 Y23.082 Z-2.532 F200.000
G1 X20.361 Y23.052 Z-2.536 F200.000
G1 X20.402 Y23.030 Z-2.540 F200.000
G1 X20.446 Y23.015 Z-2.545 F200.000
G1 X20.493 Y23.010 Z-2.549 F200.000
G1 X20.539 Y23.014 Z-2.553 F200.000
G1 X20.584 Y23.027 Z-2.557 F200.000
G1 X20.626 Y23.048 Z-2.562 F200.000
G1 X20.662 Y23.077 Z-2.566 F200.000
G1 X20.692 Y23.113 Z-2.570 F200.000
G1 X20.715 Y23.154 Z-2.574 F200.000
G1 X20.729 Y23.198 Z-2.579 F200.000
G1 X20.734 Y23.245 Z-2.583 F200.000
G1 X20.730 Y23.291 Z-2.587 F200.000
G1 X20.718 Y23.336 Z-2.591 F200.000
G1 X20.696 Y23.377 Z-2.596 F200.000
G1 X20.667 Y23.414 Z-2.600 F200.000
G1 X20.631 Y23.444 Z-2.604 F200.000
G1 X20.591 Y23.467 Z-2.609 F200.000
G1 X20.546 Y23.481 Z-2.613 F200.000
G1 X20.500 Y23.486 Z-2.617 F200.000
G1 X20.453 Y23.482 Z-2.621 F200.000
G1 X20.408 Y23.469 Z-2.626 F200.000
G1 X20.367 Y23.448 Z-2.630 F200.000
G1 X20.330 Y23.419 Z-2.634 F200.000
G1 X20.300 Y23.383 Z-2.638 F200.000
G1 X20.278 Y23.343 Z-2.643 F200.000
G1 X20.263 Y23.298 Z-2.647 F200.000
G1 X20.258 Y23.252 Z-2.651 F200.000
G1 X20.262 Y23.205 Z-2.655 F200.000
G1 X20.275 Y23.160 Z-2.660 F200.000
G1 X20.296 Y23.119 Z-2.664 F200.000
G1 X20.325 Y23.082 Z-2.668 F200.000
G1 X20.361 Y23.052 Z-2.672 F200.000
G1 X20.402 Y23.030 Z-2.677 F200.000
G1 X20.446 Y23.015 Z-2.681 F200.000
G1 X20.493 Y23.010 Z-2.685 F200.000
G1 X20.539 Y23.014 Z-2.690 F200.000
G1 X20.584 Y23.027 Z-2.694 F200.000
G1 X20.626 Y23.048 Z-2.698 F200.000
G1 X20.662 Y23.077 Z-2.702 F200.000
G1 X20.692 Y23.113 Z-2.707 F200.000
G1 X20.715 Y23.154 Z-2.711 F200.000
G1 X20.729 Y23.198 Z-2.715 F200.000
G1 X20.734 Y23.245 Z-2.719 F200.000
G1 X20.730 Y23.291 Z-2.724 F200.000
G1 X20.718 Y23.336 Z-2.728 F200.000
G1 X20.696 Y23.377 Z-2.732 F200.000
G1 X20.667 Y23.414 Z-2.736 F200.000
G1 X20.631 Y23.444 Z-2.741 F200.000
G1 X20.591 Y23.467 Z-2.745 F200.000
G1 X20.546 Y23.481 Z-2.749 F200.000
G1 X20.500 Y23.486 Z-2.753 F200.000
G1 X20.453 Y23.482 Z-2.758 F200.000
G1 X20.408 Y23.469 Z-2.762 F200.000
G1 X20.367 Y23.448 Z-2.766 F200.000
G1 X20.330 Y23.419 Z-2.770 F200.000
G1 X20.300 Y23.383 Z-2.775 F200.000
G1 X20.278 Y23.343 Z-2.779 F200.000
G1 X20.263 Y23.298 Z-2.783 F200.000
G1 X20.258 Y23.252 Z-2.788 F200.000
G1 X20.262 Y23.205 Z-2.792 F200.000
G1 X20.275 Y23.160 Z-2.796 F200.000
G1 X20.296 Y23.119 Z-2.800 F200.000
G1 X20.325 Y23.082 Z-2.805 F200.000
G1 X20.361 Y23.052 Z-2.809 F200.000
G1 X20.402 Y23.030 Z-2.813 F200.000
G1 X20.446 Y23.015 Z-2.817 F200.000
G1 X20.493 Y23.010 Z-2.822 F200.000
G1 X20.539 Y23.014 Z-2.826 F200.000
G1 X20.584 Y23.027 Z-2.830 F200.000
G1 X20.626 Y23.048 Z-2.834 F200.000
G1 X20.662 Y23.077 Z-2.839 F200.000
G1 X20.692 Y23.113 Z-2.843 F200.000
G1 X20.715 Y23.154 Z-2.847 F200.000
G1 X20.729 Y23.198 Z-2.851 F200.000
G1 X20.734 Y23.245 Z-2.856 F200.000
G1 X20.730 Y23.291 Z-2.860 F200.000
G1 X20.718 Y23.336 Z-2.864 F200.000
G1 X20.696 Y23.377 Z-2.869 F200.000
G1 X20.667 Y23.414 Z-2.873 F200.000
G1 X20.631 Y23.444 Z-2.877 F200.000
G1 X20.591 Y23.467 Z-2.881 F200.000
G1 X20.546 Y23.481 Z-2.886 F200.000
G1 X20.500 Y23.486 Z-2.890 F200.000
G1 X20.453 Y23.482 Z-2.894 F200.000
G1 X20.408 Y23.469 Z-2.898 F200.000
G1 X20.367 Y23.448 Z-2.903 F200.000
G1 X20.330 Y23.419 Z-2.907 F200.000
G1 X20.300 Y23.383 Z-2.911 F200.000
G1 X20.278 Y23.343 Z-2.915 F200.000
G1 X20.263 Y23.298 Z-2.920 F200.000
G1 X20.258 Y23.252 Z-2.924 F200.000
G1 X20.262 Y23.205 Z-2.928 F200.000
G1 X20.275 Y23.160 Z-2.932 F200.000
G1 X20.296 Y23.119 Z-2.937 F200.000
G1 X20.325 Y23.082 Z-2.941 F200.000
G1 X20.361 Y23.052 Z-2.945 F200.000
G1 X20.402 Y23.030 Z-2.950 F200.000
G1 X20.446 Y23.015 Z-2.954 F200.000
G1 X20.493 Y23.010 Z-2.958 F200.000
G1 X20.539 Y23.014 Z-2.962 F200.000
G1 X20.584 Y23.027 Z-2.967 F200.000
G1 X20.626 Y23.048 Z-2.971 F200.000
G1 X20.662 Y23.077 Z-2.975 F200.000
G1 X20.692 Y23.113 Z-2.979 F200.000
G1 X20.715 Y23.154 Z-2.984 F200.000
G1 X20.729 Y23.198 Z-2.988 F200.000
G1 X20.734 Y23.245 Z-2.992 F200.000
G1 X20.730 Y23.291 Z-2.996 F200.000
G1 X20.718 Y23.336 Z-3.001 F200.000
G1 X20.696 Y23.377 Z-3.005 F200.000
G1 X20.667 Y23.414 Z-3.009 F200.000
G1 X20.631 Y23.444 Z-3.013 F200.000
G1 X20.591 Y23.467 Z-3.018 F200.000
G1 X20.546 Y23.481 Z-3.022 F200.000
G1 X20.500 Y23.486 Z-3.026 F200.000
G1 X20.453 Y23.482 Z-3.030 F200.000
G1 X20.408 Y23.469 Z-3.035 F200.000
G1 X20.367 Y23.448 Z-3.039 F200.000
G1 X20.330 Y23.419 Z-3.043 F200.000
G1 X20.300 Y23.383 Z-3.048 F200.000
G1 X20.278 Y23.343 Z-3.052 F200.000
G1 X20.263 Y23.298 Z-3.056 F200.000
G1 X20.258 Y23.252 Z-3.060 F200.000
G1 X20.262 Y23.205 Z-3.065 F200.000
G1 X20.275 Y23.160 Z-3.069 F200.000
G1 X20.296 Y23.119 Z-3.073 F200.000
G1 X20.325 Y23.082 Z-3.077 F200.000
G1 X20.361 Y23.052 Z-3.082 F200.000
G1 X20.402 Y23.030 Z-3.086 F200.000
G1 X20.446 Y23.015 Z-3.090 F200.000
G1 X20.493 Y23.010 Z-3.094 F200.000
G1 X20.539 Y23.014 Z-3.099 F200.000
G1 X20.584 Y23.027 Z-3.103 F200.000
G1 X20.626 Y23.048 Z-3.107 F200.000
G1 X20.662 Y23.077 Z-3.111 F200.000
G1 X20.692 Y23.113 Z-3.116 F200.000
G1 X20.715 Y23.154 Z-3.120 F200.000
G1 X20.729 Y23.198 Z-3.124 F200.000
G1 X20.734 Y23.245 Z-3.129 F200.000
G1 X20.730 Y23.291 Z-3.133 F200.000
G1 X20.718 Y23.336 Z-3.137 F200.000
G1 X20.696 Y23.377 Z-3.141 F200.000
G1 X20.667 Y23.414 Z-3.146 F200.000
G1 X20.631 Y23.444 Z-3.150 F200.000
G1 X20.591 Y23.467 Z-3.154 F200.000
G1 X20.546 Y23.481 Z-3.158 F200.000
G1 X20.500 Y23.486 Z-3.163 F200.000
G1 X20.453 Y23.482 Z-3.167 F200.000
G1 X20.408 Y23.469 Z-3.171 F200.000
G1 X20.367 Y23.448 Z-3.175 F200.000
G1 X20.330 Y23.419 Z-3.180 F200.000
G1 X20.300 Y23.383 Z-3.184 F200.000
G1 X20.278 Y23.343 Z-3.188 F200.000
G1 X20.263 Y23.298 Z-3.192 F200.000
G1 X20.258 Y23.252 Z-3.197 F200.000
G1 X20.262 Y23.205 Z-3.201 F200.000
G1 X20.275 Y23.160 Z-3.205 F200.000
G1 X20.296 Y23.119 Z-3.210 F200.000
G1 X20.325 Y23.082 Z-3.214 F200.000
G1 X20.361 Y23.052 Z-3.218 F200.000
G1 X20.402 Y23.030 Z-3.222 F200.000
G1 X20.446 Y23.015 Z-3.227 F200.000
G1 X20.493 Y23.010 Z-3.231 F200.000
G1 X20.539 Y23.014 Z-3.235 F200.000
G1 X20.584 Y23.027 Z-3.239 F200.000
G1 X20.626 Y23.048 Z-3.244 F200.000
G1 X20.662 Y23.077 Z-3.248 F200.000
G1 X20.692 Y23.113 Z-3.252 F200.000
G1 X20.715 Y23.154 Z-3.256 F200.000
G1 X20.729 Y23.198 Z-3.261 F200.000
G1 X20.734 Y23.245 Z-3.265 F200.000
G1 X20.730 Y23.291 Z-3.269 F200.000
G1 X20.718 Y23.336 Z-3.273 F200.000
G1 X20.696 Y23.377 Z-3.278 F200.000
G1 X20.667 Y23.414 Z-3.282 F200.000
G1 X20.631 Y23.444 Z-3.286 F200.000
G1 X20.591 Y23.467 Z-3.290 F200.000
G1 X20.546 Y23.481 Z-3.295 F200.000
G1 X20.500 Y23.486 Z-3.299 F200.000
G1 X20.453 Y23.482 Z-3.303 F200.000
G1 X20.408 Y23.469 Z-3.308 F200.000
G1 X20.367 Y23.448 Z-3.312 F200.000
G1 X20.330 Y23.419 Z-3.316 F200.000
G1 X20.300 Y23.383 Z-3.320 F200.000
G1 X20.278 Y23.343 Z-3.325 F200.000
G1 X20.263 Y23.298 Z-3.329 F200.000
G1 X20.258 Y23.252 Z-3.333 F200.000
G1 X20.262 Y23.205 Z-3.337 F200.000
G1 X20.275 Y23.160 Z-3.342 F200.000
G1 X20.296 Y23.119 Z-3.346 F200.000
G1 X20.325 Y23.082 Z-3.350 F200.000
G1 X20.361 Y23.052 Z-3.354 F200.000
G1 X20.402 Y23.030 Z-3.359 F200.000
G1 X20.446 Y23.015 Z-3.363 F200.000
G1 X20.493 Y23.010 Z-3.367 F200.000
G1 X20.539 Y23.014 Z-3.371 F200.000
G1 X20.584 Y23.027 Z-3.376 F200.000
G1 X20.626 Y23.048 Z-3.380 F200.000
G1 X20.662 Y23.077 Z-3.384 F200.000
G1 X20.692 Y23.113 Z-3.389 F200.000
G1 X20.715 Y23.154 Z-3.393 F200.000
G1 X20.729 Y23.198 Z-3.397 F200.000
G1 X20.734 Y23.245 Z-3.401 F200.000
G1 X20.730 Y23.291 Z-3.406 F200.000
G1 X20.718 Y23.336 Z-3.410 F200.000
G1 X20.696 Y23.377 Z-3.414 F200.000
G1 X20.667 Y23.414 Z-3.418 F200.000
G1 X20.631 Y23.444 Z-3.423 F200.000
G1 X20.591 Y23.467 Z-3.427 F200.000
G1 X20.546 Y23.481 Z-3.431 F200.000
G1 X20.500 Y23.486 Z-3.435 F200.000
G1 X20.453 Y23.482 Z-3.440 F200.000
G1 X20.408 Y23.469 Z-3.444 F200.000
G1 X20.367 Y23.448 Z-3.448 F200.000
G1 X20.330 Y23.419 Z-3.452 F200.000
G1 X20.300 Y23.383 Z-3.457 F200.000
G1 X20.278 Y23.343 Z-3.461 F200.000
G1 X20.263 Y23.298 Z-3.465 F200.000
G1 X20.258 Y23.252 Z-3.470 F200.000
G1 X20.262 Y23.205 Z-3.474 F200.000
G1 X20.275 Y23.160 Z-3.478 F200.000
G1 X20.296 Y23.119 Z-3.482 F200.000
G1 X20.325 Y23.082 Z-3.487 F200.000
G1 X20.361 Y23.052 Z-3.491 F200.000
G1 X20.402 Y23.030 Z-3.495 F200.000
G1 X20.446 Y23.015 Z-3.499 F200.000
G1 X20.493 Y23.010 Z-3.504 F200.000
G1 X20.539 Y23.014 Z-3.508 F200.000
G1 X20.584 Y23.027 Z-3.512 F200.000
G1 X20.626 Y23.048 Z-3.516 F200.000
G1 X20.662 Y23.077 Z-3.521 F200.000
G1 X20.692 Y23.113 Z-3.525 F200.000
G1 X20.715 Y23.154 Z-3.529 F200.000
G1 X20.729 Y23.198 Z-3.533 F200.000
G1 X20.734 Y23.245 Z-3.538 F200.000
G1 X20.730 Y23.291 Z-3.542 F200.000
G1 X20.718 Y23.336 Z-3.546 F200.000
G1 X20.696 Y23.377 Z-3.550 F200.000
G1 X20.667 Y23.414 Z-3.555 F200.000
G1 X20.631 Y23.444 Z-3.559 F200.000
G1 X20.591 Y23.467 Z-3.563 F200.000
G1 X20.546 Y23.481 Z-3.568 F200.000
G1 X20.500 Y23.486 Z-3.572 F200.000
G1 X20.453 Y23.482 Z-3.576 F200.000
G1 X20.408 Y23.469 Z-3.580 F200.000
G1 X20.367 Y23.448 Z-3.585 F200.000
G1 X20.330 Y23.419 Z-3.589 F200.000
G1 X20.300 Y23.383 Z-3.593 F200.000
G1 X20.278 Y23.343 Z-3.597 F200.000
G1 X20.263 Y23.298 Z-3.602 F200.000
G1 X20.258 Y23.252 Z-3.606 F200.000
G1 X20.262 Y23.205 Z-3.610 F200.000
G1 X20.275 Y23.160 Z-3.614 F200.000
G1 X20.296 Y23.119 Z-3.619 F200.000
G1 X20.325 Y23.082 Z-3.623 F200.000
G1 X20.361 Y23.052 Z-3.627 F200.000
G1 X20.402 Y23.030 Z-3.631 F200.000
G1 X20.446 Y23.015 Z-3.636 F200.000
G1 X20.493 Y23.010 Z-3.640 F200.000
G1 X20.539 Y23.014 Z-3.644 F200.000
G1 X20.584 Y23.027 Z-3.649 F200.000
G1 X20.626 Y23.048 Z-3.653 F200.000
G1 X20.662 Y23.077 Z-3.657 F200.000
G1 X20.692 Y23.113 Z-3.661 F200.000
G1 X20.715 Y23.154 Z-3.666 F200.000
G1 X20.729 Y23.198 Z-3.670 F200.000
G1 X20.734 Y23.245 Z-3.674 F200.000
G1 X20.730 Y23.291 Z-3.678 F200.000
G1 X20.718 Y23.336 Z-3.683 F200.000
G1 X20.696 Y23.377 Z-3.687 F200.000
G1 X20.667 Y23.414 Z-3.691 F200.000
G1 X20.631 Y23.444 Z-3.695 F200.000
G1 X20.591 Y23.467 Z-3.700 F200.000
G1 X20.546 Y23.481 Z-3.704 F200.000
G1 X20.500 Y23.486 Z-3.708 F200.000
G1 X20.453 Y23.482 Z-3.712 F200.000
G1 X20.408 Y23.469 Z-3.717 F200.000
G1 X20.367 Y23.448 Z-3.721 F200.000
G1 X20.330 Y23.419 Z-3.725 F200.000
G1 X20.300 Y23.383 Z-3.730 F200.000
G1 X20.278 Y23.343 Z-3.734 F200.000
G1 X20.263 Y23.298 Z-3.738 F200.000
G1 X20.258 Y23.252 Z-3.742 F200.000
G1 X20.262 Y23.205 Z-3.747 F200.000
G1 X20.275 Y23.160 Z-3.751 F200.000
G1 X20.296 Y23.119 Z-3.755 F200.000
G1 X20.325 Y23.082 Z-3.759 F200.000
G1 X20.361 Y23.052 Z-3.764 F200.000
G1 X20.402 Y23.030 Z-3.768 F200.000
G1 X20.446 Y23.015 Z-3.772 F200.000
G1 X20.493 Y23.010 Z-3.776 F200.000
G1 X20.539 Y23.014 Z-3.781 F200.000
G1 X20.584 Y23.027 Z-3.785 F200.000
G1 X20.626 Y23.048 Z-3.789 F200.000
G1 X20.662 Y23.077 Z-3.793 F200.000
G1 X20.692 Y23.113 Z-3.798 F200.000
G1 X20.715 Y23.154 Z-3.802 F200.000
G1 X20.729 Y23.198 Z-3.806 F200.000
G1 X20.734 Y23.245 Z-3.810 F200.000
G1 X20.730 Y23.291 Z-3.815 F200.000
G1 X20.718 Y23.336 Z-3.819 F200.000
G1 X20.696 Y23.377 Z-3.823 F200.000
G1 X20.667 Y23.414 Z-3.828 F200.000
G1 X20.631 Y23.444 Z-3.832 F200.000
G1 X20.591 Y23.467 Z-3.836 F200.000
G1 X20.546 Y23.481 Z-3.840 F200.000
G1 X20.500 Y23.486 Z-3.845 F200.000
G1 X20.453 Y23.482 Z-3.849 F200.000
G1 X20.408 Y23.469 Z-3.853 F200.000
G1 X20.367 Y23.448 Z-3.857 F200.000
G1 X20.330 Y23.419 Z-3.862 F200.000
G1 X20.300 Y23.383 Z-3.866 F200.000
G1 X20.278 Y23.343 Z-3.870 F200.000
G1 X20.263 Y23.298 Z-3.874 F200.000
G1 X20.258 Y23.252 Z-3.879 F200.000
G1 X20.262 Y23.205 Z-3.883 F200.000
G1 X20.275 Y23.160 Z-3.887 F200.000
G1 X20.296 Y23.119 Z-3.891 F200.000
G1 X20.325 Y23.082 Z-3.896 F200.000
G1 X20.361 Y23.052 Z-3.900 F200.000
G1 X20.402 Y23.030 Z-3.904 F200.000
G1 X20.446 Y23.015 Z-3.909 F200.000
G1 X20.493 Y23.010 Z-3.913 F200.000
G1 X20.539 Y23.014 Z-3.917 F200.000
G1 X20.584 Y23.027 Z-3.921 F200.000
G1 X20.626 Y23.048 Z-3.926 F200.000
G1 X20.662 Y23.077 Z-3.930 F200.000
G1 X20.692 Y23.113 Z-3.934 F200.000
G1 X20.715 Y23.154 Z-3.938 F200.000
G1 X20.729 Y23.198 Z-3.943 F200.000
G1 X20.734 Y23.245 Z-3.947 F200.000
G1 X20.730 Y23.291 Z-3.951 F200.000
G1 X20.718 Y23.336 Z-3.955 F200.000
G1 X20.696 Y23.377 Z-3.960 F200.000
G1 X20.667 Y23.414 Z-3.964 F200.000
G1 X20.631 Y23.444 Z-3.968 F200.000
G1 X20.591 Y23.467 Z-3.972 F200.000
G1 X20.546 Y23.481 Z-3.977 F200.000
G1 X20.500 Y23.486 Z-3.981 F200.000
G1 X20.453 Y23.482 Z-3.985 F200.000
G1 X20.408 Y23.469 Z-3.990 F200.000
G1 X20.367 Y23.448 Z-3.994 F200.000
G1 X20.330 Y23.419 Z-3.998 F200.000
G1 X20.300 Y23.383 Z-4.002 F200.000
G1 X20.278 Y23.343 Z-4.007 F200.000
G1 X20.263 Y23.298 Z-4.011 F200.000
G1 X20.258 Y23.252 Z-4.015 F200.000
G1 X20.262 Y23.205 Z-4.019 F200.000
G1 X20.275 Y23.160 Z-4.024 F200.000
G1 X20.296 Y23.119 Z-4.028 F200.000
G1 X20.325 Y23.082 Z-4.032 F200.000
G1 X20.361 Y23.052 Z-4.036 F200.000
G1 X20.402 Y23.030 Z-4.041 F200.000
G1 X20.446 Y23.015 Z-4.045 F200.000
G1 X20.493 Y23.010 Z-4.049 F200.000
G1 X20.539 Y23.014 Z-4.053 F200.000
G1 X20.584 Y23.027 Z-4.058 F200.000
G1 X20.626 Y23.048 Z-4.062 F200.000
G1 X20.662 Y23.077 Z-4.066 F200.000
G1 X20.692 Y23.113 Z-4.070 F200.000
G1 X20.715 Y23.154 Z-4.075 F200.000
G1 X20.729 Y23.198 Z-4.079 F200.000
G1 X20.734 Y23.245 Z-4.083 F200.000
G1 X20.730 Y23.291 Z-4.088 F200.000
G1 X20.718 Y23.336 Z-4.092 F200.000
G1 X20.696 Y23.377 Z-4.096 F200.000
G1 X20.667 Y23.414 Z-4.100 F200.000
G1 X20.631 Y23.444 Z-4.105 F200.000
G1 X20.591 Y23.467 Z-4.109 F200.000
G1 X20.546 Y23.481 Z-4.113 F200.000
G1 X20.500 Y23.486 Z-4.117 F200.000
G1 X20.453 Y23.482 Z-4.122 F200.000
G1 X20.408 Y23.469 Z-4.126 F200.000
G1 X20.367 Y23.448 Z-4.130 F200.000
G1 X20.330 Y23.419 Z-4.134 F200.000
G1 X20.300 Y23.383 Z-4.139 F200.000
G1 X20.278 Y23.343 Z-4.143 F200.000
G1 X20.263 Y23.298 Z-4.147 F200.000
G1 X20.258 Y23.252 Z-4.151 F200.000
G1 X20.262 Y23.205 Z-4.156 F200.000
G1 X20.275 Y23.160 Z-4.160 F200.000
G1 X20.296 Y23.119 Z-4.164 F200.000
G1 X20.325 Y23.082 Z-4.169 F200.000
G1 X20.361 Y23.052 Z-4.173 F200.000
G1 X20.402 Y23.030 Z-4.177 F200.000
G1 X20.446 Y23.015 Z-4.181 F200.000
G1 X20.493 Y23.010 Z-4.186 F200.000
G1 X20.539 Y23.014 Z-4.190 F200.000
G1 X20.584 Y23.027 Z-4.194 F200.000
G1 X20.626 Y23.048 Z-4.198 F200.000
G1 X20.662 Y23.077 Z-4.203 F200.000
G1 X20.692 Y23.113 Z-4.207 F200.000
G1 X20.715 Y23.154 Z-4.211 F200.000
G1 X20.729 Y23.198 Z-4.215 F200.000
G1 X20.734 Y23.245 Z-4.220 F200.000
G1 X20.730 Y23.291 Z-4.224 F200.000
G1 X20.718 Y23.336 Z-4.228 F200.000
G1 X20.696 Y23.377 Z-4.232 F200.000
G1 X20.667 Y23.414 Z-4.237 F200.000
G1 X20.631 Y23.444 Z-4.241 F200.000
G1 X20.591 Y23.467 Z-4.245 F200.000
G1 X20.546 Y23.481 Z-4.250 F200.000
G1 X20.500 Y23.486 Z-4.254 F200.000
G1 X20.453 Y23.482 Z-4.258 F200.000
G1 X20.408 Y23.469 Z-4.262 F200.000
G1 X20.367 Y23.448 Z-4.267 F200.000
G1 X20.330 Y23.419 Z-4.271 F200.000
G1 X20.300 Y23.383 Z-4.275 F200.000
G1 X20.278 Y23.343 Z-4.279 F200.000
G1 X20.263 Y23.298 Z-4.284 F200.000
G1 X20.258 Y23.252 Z-4.288 F200.000
G1 X20.262 Y23.205 Z-4.292 F200.000
G1 X20.275 Y23.160 Z-4.296 F200.000
G1 X20.296 Y23.119 Z-4.301 F200.000
G1 X20.325 Y23.082 Z-4.305 F200.000
G1 X20.361 Y23.052 Z-4.309 F200.000
G1 X20.402 Y23.030 Z-4.313 F200.000
G1 X20.446 Y23.015 Z-4.318 F200.000
G1 X20.493 Y23.010 Z-4.322 F200.000
G1 X20.539 Y23.014 Z-4.326 F200.000
G1 X20.584 Y23.027 Z-4.330 F200.000
G1 X20.626 Y23.048 Z-4.335 F200.000
G1 X20.662 Y23.077 Z-4.339 F200.000
G1 X20.692 Y23.113 Z-4.343 F200.000
G1 X20.715 Y23.154 Z-4.348 F200.000
G1 X20.729 Y23.198 Z-4.352 F200.000
G1 X20.734 Y23.245 Z-4.356 F200.000
G1 X20.730 Y23.291 Z-4.360 F200.000
G1 X20.718 Y23.336 Z-4.365 F200.000
G1 X20.696 Y23.377 Z-4.369 F200.000
G1 X20.667 Y23.414 Z-4.373 F200.000
G1 X20.631 Y23.444 Z-4.377 F200.000
G1 X20.591 Y23.467 Z-4.382 F200.000
G1 X20.546 Y23.481 Z-4.386 F200.000
G1 X20.500 Y23.486 Z-4.390 F200.000
G1 X20.453 Y23.482 Z-4.394 F200.000
G1 X20.408 Y23.469 Z-4.399 F200.000
G1 X20.367 Y23.448 Z-4.403 F200.000
G1 X20.330 Y23.419 Z-4.407 F200.000
G1 X20.300 Y23.383 Z-4.411 F200.000
G1 X20.278 Y23.343 Z-4.416 F200.000
G1 X20.263 Y23.298 Z-4.420 F200.000
G1 X20.258 Y23.252 Z-4.424 F200.000
G1 X20.262 Y23.205 Z-4.429 F200.000
G1 X20.275 Y23.160 Z-4.433 F200.000
G1 X20.296 Y23.119 Z-4.437 F200.000
G1 X20.325 Y23.082 Z-4.441 F200.000
G1 X20.361 Y23.052 Z-4.446 F200.000
G1 X20.402 Y23.030 Z-4.450 F200.000
G1 X20.446 Y23.015 Z-4.454 F200.000
G1 X20.493 Y23.010 Z-4.458 F200.000
G1 X20.539 Y23.014 Z-4.463 F200.000
G1 X20.584 Y23.027 Z-4.467 F200.000
G1 X20.626 Y23.048 Z-4.471 F200.000
G1 X20.662 Y23.077 Z-4.475 F200.000
G1 X20.692 Y23.113 Z-4.480 F200.000
G1 X20.715 Y23.154 Z-4.484 F200.000
G1 X20.729 Y23.198 Z-4.488 F200.000
G1 X20.734 Y23.245 Z-4.492 F200.000
G1 X20.730 Y23.291 Z-4.497 F200.000
G1 X20.718 Y23.336 Z-4.501 F200.000
G1 X20.696 Y23.377 Z-4.505 F200.000
G1 X20.667 Y23.414 Z-4.510 F200.000
G1 X20.631 Y23.444 Z-4.514 F200.000
G1 X20.591 Y23.467 Z-4.518 F200.000
G1 X20.546 Y23.481 Z-4.522 F200.000
G1 X20.500 Y23.486 Z-4.527 F200.000
G1 X20.453 Y23.482 Z-4.531 F200.000
G1 X20.408 Y23.469 Z-4.535 F200.000
G1 X20.367 Y23.448 Z-4.539 F200.000
G1 X20.330 Y23.419 Z-4.544 F200.000
G1 X20.300 Y23.383 Z-4.548 F200.000
G1 X20.278 Y23.343 Z-4.552 F200.000
G1 X20.263 Y23.298 Z-4.556 F200.000
G1 X20.258 Y23.252 Z-4.561 F200.000
G1 X20.262 Y23.205 Z-4.565 F200.000
G1 X20.275 Y23.160 Z-4.569 F200.000
G1 X20.296 Y23.119 Z-4.573 F200.000
G1 X20.325 Y23.082 Z-4.578 F200.000
G1 X20.361 Y23.052 Z-4.582 F200.000
G1 X20.402 Y23.030 Z-4.586 F200.000
G1 X20.446 Y23.015 Z-4.590 F200.000
G1 X20.493 Y23.010 Z-4.595 F200.000
G1 X20.539 Y23.014 Z-4.599 F200.000
G1 X20.584 Y23.027 Z-4.603 F200.000
G1 X20.626 Y23.048 Z-4.608 F200.000
G1 X20.662 Y23.077 Z-4.612 F200.000
G1 X20.692 Y23.113 Z-4.616 F200.000
G1 X20.715 Y23.154 Z-4.620 F200.000
G1 X20.729 Y23.198 Z-4.625 F200.000
G1 X20.734 Y23.245 Z-4.629 F200.000
G1 X20.730 Y23.291 Z-4.633 F200.000
G1 X20.718 Y23.336 Z-4.637 F200.000
G1 X20.696 Y23.377 Z-4.642 F200.000
G1 X20.667 Y23.414 Z-4.646 F200.000
G1 X20.631 Y23.444 Z-4.650 F200.000
G1 X20.591 Y23.467 Z-4.654 F200.000
G1 X20.546 Y23.481 Z-4.659 F200.000
G1 X20.500 Y23.486 Z-4.663 F200.000
G1 X20.453 Y23.482 Z-4.667 F200.000
G1 X20.408 Y23.469 Z-4.671 F200.000
G1 X20.367 Y23.448 Z-4.676 F200.000
G1 X20.330 Y23.419 Z-4.680 F200.000
G1 X20.300 Y23.383 Z-4.684 F200.000
G1 X20.278 Y23.343 Z-4.689 F200.000
G1 X20.263 Y23.298 Z-4.693 F200.000
G1 X20.258 Y23.252 Z-4.697 F200.000
G1 X20.262 Y23.205 Z-4.701 F200.000
G1 X20.275 Y23.160 Z-4.706 F200.000
G1 X20.296 Y23.119 Z-4.710 F200.000
G1 X20.325 Y23.082 Z-4.714 F200.000
G1 X20.361 Y23.052 Z-4.718 F200.000
G1 X20.402 Y23.030 Z-4.723 F200.000
G1 X20.446 Y23.015 Z-4.727 F200.000
G1 X20.493 Y23.010 Z-4.731 F200.000
G1 X20.539 Y23.014 Z-4.735 F200.000
G1 X20.584 Y23.027 Z-4.740 F200.000
G1 X20.626 Y23.048 Z-4.744 F200.000
G1 X20.662 Y23.077 Z-4.748 F200.000
G1 X20.692 Y23.113 Z-4.752 F200.000
G1 X20.715 Y23.154 Z-4.757 F200.000
G1 X20.729 Y23.198 Z-4.761 F200.000
G1 X20.734 Y23.245 Z-4.765 F200.000
G1 X20.730 Y23.291 Z-4.770 F200.000
G1 X20.718 Y23.336 Z-4.774 F200.000
G1 X20.696 Y23.377 Z-4.778 F200.000
G1 X20.667 Y23.414 Z-4.782 F200.000
G1 X20.631 Y23.444 Z-4.787 F200.000
G1 X20.591 Y23.467 Z-4.791 F200.000
G1 X20.546 Y23.481 Z-4.795 F200.000
G1 X20.500 Y23.486 Z-4.799 F200.000
G1 X20.453 Y23.482 Z-4.804 F200.000
G1 X20.408 Y23.469 Z-4.808 F200.000
G1 X20.367 Y23.448 Z-4.812 F200.000
G1 X20.330 Y23.419 Z-4.816 F200.000
G1 X20.300 Y23.383 Z-4.821 F200.000
G1 X20.278 Y23.343 Z-4.825 F200.000
G1 X20.263 Y23.298 Z-4.829 F200.000
G1 X20.258 Y23.252 Z-4.833 F200.000
G1 X20.262 Y23.205 Z-4.838 F200.000
G1 X20.275 Y23.160 Z-4.842 F200.000
G1 X20.296 Y23.119 Z-4.846 F200.000
G1 X20.325 Y23.082 Z-4.850 F200.000
G1 X20.361 Y23.052 Z-4.855 F200.000
G1 X20.402 Y23.030 Z-4.859 F200.000
G1 X20.446 Y23.015 Z-4.863 F200.000
G1 X20.493 Y23.010 Z-4.868 F200.000
G1 X20.539 Y23.014 Z-4.872 F200.000
G1 X20.584 Y23.027 Z-4.876 F200.000
G1 X20.626 Y23.048 Z-4.880 F200.000
G1 X20.662 Y23.077 Z-4.885 F200.000
G1 X20.692 Y23.113 Z-4.889 F200.000
G1 X20.715 Y23.154 Z-4.893 F200.000
G1 X20.729 Y23.198 Z-4.897 F200.000
G1 X20.734 Y23.245 Z-4.902 F200.000
G1 X20.730 Y23.291 Z-4.906 F200.000
G1 X20.718 Y23.336 Z-4.910 F200.000
G1 X20.696 Y23.377 Z-4.914 F200.000
G1 X20.667 Y23.414 Z-4.919 F200.000
G1 X20.631 Y23.444 Z-4.923 F200.000
G1 X20.591 Y23.467 Z-4.927 F200.000
G1 X20.546 Y23.481 Z-4.931 F200.000
G1 X20.500 Y23.486 Z-4.936 F200.000
G1 X20.453 Y23.482 Z-4.940 F200.000
G1 X20.408 Y23.469 Z-4.944 F200.000
G1 X20.367 Y23.448 Z-4.949 F200.000
G1 X20.330 Y23.419 Z-4.953 F200.000
G1 X20.300 Y23.383 Z-4.957 F200.000
G1 X20.278 Y23.343 Z-4.961 F200.000
G1 X20.263 Y23.298 Z-4.966 F200.000
G1 X20.258 Y23.252 Z-4.970 F200.000
G1 X20.262 Y23.205 Z-4.974 F200.000
G1 X20.275 Y23.160 Z-4.978 F200.000
G1 X20.296 Y23.119 Z-4.983 F200.000
G1 X20.325 Y23.082 Z-4.987 F200.000
G1 X20.361 Y23.052 Z-4.991 F200.000
G1 X20.402 Y23.030 Z-4.995 F200.000
G1 X20.446 Y23.015 Z-5.000 F200.000
G1 X20.493 Y23.010 Z-5.000 F200.000
G1 X20.539 Y23.014 Z-5.000 F200.000
G1 X20.584 Y23.027 Z-5.000 F200.000
G1 X20.626 Y23.048 Z-5.000 F200.000
G1 X20.662 Y23.077 Z-5.000 F200.000
G1 X20.692 Y23.113 Z-5.000 F200.000
G1 X20.715 Y23.154 Z-5.000 F200.000
G1 X20.729 Y23.198 Z-5.000 F200.000
G1 X20.734 Y23.245 Z-5.000 F200.000
G1 X20.730 Y23.291 Z-5.000 F200.000
G1 X20.718 Y23.336 Z-5.000 F200.000
G1 X20.696 Y23.377 Z-5.000 F200.000
G1 X20.667 Y23.414 Z-5.000 F200.000
G1 X20.631 Y23.444 Z-5.000 F200.000
G1 X20.591 Y23.467 Z-5.000 F200.000
G1 X20.546 Y23.481 Z-5.000 F200.000
G1 X20.500 Y23.486 Z-5.000 F200.000
G1 X20.453 Y23.482 Z-5.000 F200.000
G1 X20.408 Y23.469 Z-5.000 F200.000
G1 X20.367 Y23.448 Z-5.000 F200.000
G1 X20.330 Y23.419 Z-5.000 F200.000
G1 X20.300 Y23.383 Z-5.000 F200.000
G1 X20.278 Y23.343 Z-5.000 F200.000
G1 X20.263 Y23.298 Z-5.000 F200.000
G1 X20.258 Y23.252 Z-5.000 F200.000
G1 X20.262 Y23.205 Z-5.000 F200.000
G1 X20.275 Y23.160 Z-5.000 F200.000
G1 X20.296 Y23.119 Z-5.000 F200.000
G1 X20.325 Y23.082 Z-5.000 F200.000
G1 X20.361 Y23.052 Z-5.000 F200.000
G1 X20.402 Y23.030 Z-5.000 F200.000
G1 X20.446 Y23.015 Z-5.000 F200.000
(Adaptive - depth: -5.000000)
G1 X20.496 Y23.000 F200.000
G1 X20.549 Y22.974 F200.000
G1 X20.605 Y22.970 F200.000
G1 X20.662 Y22.981 F200.000
G1 X20.714 Y23.008 F200.000
G1 X20.759 Y23.045 F200.000
G1 X20.820 Y23.147 F200.000
G1 X20.835 Y23.259 F200.000
G1 X20.831 Y23.316 F200.000
G1 X20.816 Y23.372 F200.000
G1 X20.789 Y23.425 F200.000
G1 X20.752 Y23.474 F200.000
G1 X20.658 Y23.549 F200.000
G1 X20.541 Y23.586 F200.000
G1 X20.481 Y23.590 F200.000
G1 X20.421 Y23.583 F200.000
G1 X20.305 Y23.538 F200.000
G1 X20.256 Y23.500 F200.000
G1 X20.177 Y23.402 F200.000
G1 X20.150 Y23.346 F200.000
G1 X20.135 Y23.286 F200.000
G1 X20.135 Y23.165 F200.000
G1 X20.150 Y23.105 F200.000
G1 X20.211 Y22.996 F200.000
G1 X20.293 Y22.910 F200.000
G1 X20.342 Y22.872 F200.000
G1 X20.451 Y22.827 F200.000
G1 X20.564 Y22.808 F200.000
G1 X20.620 Y22.812 F200.000
G1 X20.729 Y22.846 F200.000
G1 X20.823 Y22.914 F200.000
G1 X20.898 Y23.004 F200.000
G1 X20.951 Y23.105 F200.000
G1 X20.974 Y23.218 F200.000
G1 X20.966 Y23.331 F200.000
G1 X20.929 Y23.444 F200.000
G1 X20.861 Y23.541 F200.000
G1 X20.820 Y23.586 F200.000
G1 X20.718 Y23.658 F200.000
G1 X20.602 Y23.703 F200.000
G1 X20.481 Y23.718 F200.000
G1 X20.361 Y23.703 F200.000
G1 X20.244 Y23.658 F200.000
G1 X20.143 Y23.590 F200.000
G1 X20.060 Y23.496 F200.000
G1 X20.004 Y23.387 F200.000
G1 X19.974 Y23.267 F200.000
G1 X19.974 Y23.147 F200.000
G1 X20.000 Y23.026 F200.000
G1 X20.049 Y22.914 F200.000
G1 X20.162 Y22.767 F200.000
G1 X20.256 Y22.692 F200.000
G1 X20.417 Y22.624 F200.000
G1 X20.586 Y22.609 F200.000
G1 X20.756 Y22.650 F200.000
G1 X20.857 Y22.699 F200.000
G1 X20.992 Y22.812 F200.000
G1 X21.064 Y22.906 F200.000
G1 X21.113 Y23.011 F200.000
G1 X21.147 Y23.180 F200.000
G1 X21.135 Y23.350 F200.000
G1 X21.075 Y23.515 F200.000
G1 X21.011 Y23.617 F200.000
G1 X20.925 Y23.703 F200.000
G1 X20.774 Y23.805 F200.000
G1 X20.598 Y23.865 F200.000
G1 X20.477 Y23.876 F200.000
G1 X20.297 Y23.853 F200.000
G1 X20.180 Y23.816 F200.000
G1 X20.023 Y23.714 F200.000
G1 X19.936 Y23.628 F200.000
G1 X19.835 Y23.466 F200.000
G1 X19.793 Y23.346 F200.000
G1 X19.786 Y23.165 F200.000
G1 X19.793 Y23.105 F200.000
G1 X19.853 Y22.936 F200.000
G1 X19.951 Y22.786 F200.000
G1 X20.038 Y22.703 F200.000
G1 X20.188 Y22.605 F200.000
G1 X20.297 Y22.560 F200.000
G1 X20.410 Y22.538 F200.000
G1 X20.579 Y22.538 F200.000
G1 X20.692 Y22.556 F200.000
G1 X20.850 Y22.628 F200.000
G1 X21.034 Y22.767 F200.000
G1 X21.132 Y22.910 F200.000
G1 X21.211 Y23.128 F200.000
G1 X21.211 Y23.353 F200.000
G1 X21.188 Y23.466 F200.000
G1 X21.041 Y23.722 F200.000
G1 X20.910 Y23.842 F200.000
G1 X20.748 Y23.929 F200.000
G1 X20.628 Y23.959 F200.000
G1 X20.447 Y23.962 F200.000
G1 X20.327 Y23.951 F200.000
G1 X20.207 Y23.910 F200.000
G1 X20.094 Y23.850 F200.000
G1 X20.000 Y23.771 F200.000
G1 X19.917 Y23.677 F200.000
G1 X19.857 Y23.568 F200.000
G1 X19.857 Y23.568 F200.000
G1 X19.853 Y23.545 F200.000
G0 X19.861 Y23.534
G0 X19.872 Y23.530
G1 X19.887 Y23.534 F200.000
G1 X19.887 Y23.560 F200.000
G1 X19.861 Y23.575 F200.000
G1 X19.827 Y23.568 F200.000
G1 X19.827 Y23.568 F200.000
G1 X19.774 Y23.421 F200.000
G1 X19.756 Y23.312 F200.000
G1 X19.774 Y23.064 F200.000
G1 X19.823 Y22.940 F200.000
G1 X19.914 Y22.793 F200.000
G1 X20.023 Y22.684 F200.000
G1 X20.150 Y22.594 F200.000
G1 X20.203 Y22.568 F200.000
G1 X20.342 Y22.526 F200.000
G1 X20.425 Y22.511 F200.000
G1 X20.650 Y22.519 F200.000
G1 X20.853 Y22.598 F200.000
G1 X21.026 Y22.729 F200.000
G1 X21.090 Y22.797 F200.000
G1 X21.184 Y22.959 F200.000
G1 X21.226 Y23.071 F200.000
G1 X21.237 Y23.128 F200.000
G1 X21.241 Y23.282 F200.000
G1 X21.233 Y23.391 F200.000
G1 X21.207 Y23.496 F200.000
G1 X21.154 Y23.602 F200.000
G1 X21.075 Y23.722 F200.000
G1 X20.970 Y23.831 F200.000
G1 X20.842 Y23.914 F200.000
G1 X20.692 Y23.977 F200.000
G1 X20.643 Y23.989 F200.000
G1 X20.410 Y23.989 F200.000
G1 X20.218 Y23.940 F200.000
G1 X20.105 Y23.883 F200.000
G1 X19.977 Y23.786 F200.000
G1 X19.902 Y23.692 F200.000
G1 X19.827 Y23.568 F200.000
G1 X19.827 Y23.568 F200.000
G0 Z5.000
(Helix to depth: -5.000000)
G0 Z5.000
G0 X-20.275 Y23.336 Z5.000
G0 X-20.275 Y23.336 Z3.000
G1 X-20.275 Y23.336 Z0.000 F200.000
G1 X-20.275 Y23.336 Z0.000 F200.000
G1 X-20.296 Y23.377 Z-0.004 F200.000
G1 X-20.325 Y23.414 Z-0.009 F200.000
G1 X-20.361 Y23.444 Z-0.013 F200.000
G1 X-20.402 Y23.467 Z-0.017 F200.000
G1 X-20.446 Y23.481 Z-0.021 F200.000
G1 X-20.493 Y23.486 Z-0.026 F200.000
G1 X-20.539 Y23.482 Z-0.030 F200.000
G1 X-20.584 Y23.469 Z-0.034 F200.000
G1 X-20.626 Y23.448 Z-0.038 F200.000
G1 X-20.662 Y23.419 Z-0.043 F200.000
G1 X-20.692 Y23.383 Z-0.047 F200.000
G1 X-20.715 Y23.343 Z-0.051 F200.000
G1 X-20.729 Y23.298 Z-0.055 F200.000
G1 X-20.734 Y23.252 Z-0.060 F200.000
G1 X-20.730 Y23.205 Z-0.064 F200.000
G1 X-20.718 Y23.160 Z-0.068 F200.000
G1 X-20.696 Y23.119 Z-0.072 F200.000
G1 X-20.667 Y23.082 Z-0.077 F200.000
G1 X-20.631 Y23.052 Z-0.081 F200.000
G1 X-20.591 Y23.030 Z-0.085 F200.000
G1 X-20.546 Y23.015 Z-0.090 F200.000
G1 X-20.500 Y23.010 Z-0.094 F200.000
G1 X-20.453 Y23.014 Z-0.098 F200.000
G1 X-20.408 Y23.027 Z-0.102 F200.000
G1 X-20.367 Y23.048 Z-0.107 F200.000
G1 X-20.330 Y23.077 Z-0.111 F200.000
G1 X-20.300 Y23.113 Z-0.115 F200.000
G1 X-20.278 Y23.154 Z-0.119 F200.000
G1 X-20.263 Y23.198 Z-0.124 F200.000
G1 X-20.258 Y23.245 Z-0.128 F200.000
G1 X-20.262 Y23.291 Z-0.132 F200.000
G1 X-20.275 Y23.336 Z-0.136 F200.000
G1 X-20.296 Y23.377 Z-0.141 F200.000
G1 X-20.325 Y23.414 Z-0.145 F200.000
G1 X-20.361 Y23.444 Z-0.149 F200.000
G1 X-20.402 Y23.467 Z-0.153 F200.000
G1 X-20.446 Y23.481 Z-0.158 F200.000
G1 X-20.493 Y23.486 Z-0.162 F200.000
G1 X-20.539 Y23.482 Z-0.166 F200.000
G1 X-20.584 Y23.469 Z-0.170 F200.000
G1 X-20.626 Y23.448 Z-0.175 F200.000
G1 X-20.662 Y23.419 Z-0.179 F200.000
G1 X-20.692 Y23.383 Z-0.183 F200.000
G1 X-20.715 Y23.343 Z-0.188 F200.000
G1 X-20.729 Y23.298 Z-0.192 F200.000
G1 X-20.734 Y23.252 Z-0.196 F200.000
G1 X-20.730 Y23.205 Z-0.200 F200.000
G1 X-20.718 Y23.160 Z-0.205 F200.000
G1 X-20.696 Y23.119 Z-0.209 F200.000
G1 X-20.667 Y23.082 Z-0.213 F200.000
G1 X-20.631 Y23.052 Z-0.217 F200.000
G1 X-20.591 Y23.030 Z-0.222 F200.000
G1 X-20.546 Y23.015 Z-0.226 F200.000
G1 X-20.500 Y23.010 Z-0.230 F200.000
G1 X-20.453 Y23.014 Z-0.234 F200.000
G1 X-20.408 Y23.027 Z-0.239 F200.000
G1 X-20.367 Y23.048 Z-0.243 F200.000
G1 X-20.330 Y23.077 Z-0.247 F200.000
G1 X-20.300 Y23.113 Z-0.251 F200.000
G1 X-20.278 Y23.154 Z-0.256 F200.000
G1 X-20.263 Y23.198 Z-0.260 F200.000
G1 X-20.258 Y23.245 Z-0.264 F200.000
G1 X-20.262 Y23.291 Z-0.269 F200.000
G1 X-20.275 Y23.336 Z-0.273 F200.000
G1 X-20.296 Y23.377 Z-0.277 F200.000
G1 X-20.325 Y23.414 Z-0.281 F200.000
G1 X-20.361 Y23.444 Z-0.286 F200.000
G1 X-20.402 Y23.467 Z-0.290 F200.000
G1 X-20.446 Y23.481 Z-0.294 F200.000
G1 X-20.493 Y23.486 Z-0.298 F200.000
G1 X-20.539 Y23.482 Z-0.303 F200.000
G1 X-20.584 Y23.469 Z-0.307 F200.000
G1 X-20.626 Y23.448 Z-0.311 F200.000
G1 X-20.662 Y23.419 Z-0.315 F200.000
G1 X-20.692 Y23.383 Z-0.320 F200.000
G1 X-20.715 Y23.343 Z-0.324 F200.000
G1 X-20.729 Y23.298 Z-0.328 F200.000
G1 X-20.734 Y23.252 Z-0.332 F200.000
G1 X-20.730 Y23.205 Z-0.337 F200.000
G1 X-20.718 Y23.160 Z-0.341 F200.000
G1 X-20.696 Y23.119 Z-0.345 F200.000
G1 X-20.667 Y23.082 Z-0.350 F200.000
G1 X-20.631 Y23.052 Z-0.354 F200.000
G1 X-20.591 Y23.030 Z-0.358 F200.000
G1 X-20.546 Y23.015 Z-0.362 F200.000
G1 X-20.500 Y23.010 Z-0.367 F200.000
G1 X-20.453 Y23.014 Z-0.371 F200.000
G1 X-20.408 Y23.027 Z-0.375 F200.000
G1 X-20.367 Y23.048 Z-0.379 F200.000
G1 X-20.330 Y23.077 Z-0.384 F200.000
G1 X-20.300 Y23.113 Z-0.388 F200.000
G1 X-20.278 Y23.154 Z-0.392 F200.000
G1 X-20.263 Y23.198 Z-0.396 F200.000
G1 X-20.258 Y23.245 Z-0.401 F200.000
G1 X-20.262 Y23.291 Z-0.405 F200.000
G1 X-20.275 Y23.336 Z-0.409 F200.000
G1 X-20.296 Y23.377 Z-0.413 F200.000
G1 X-20.325 Y23.414 Z-0.418 F200.000
G1 X-20.361 Y23.444 Z-0.422 F200.000
G1 X-20.402 Y23.467 Z-0.426 F200.000
G1 X-20.446 Y23.481 Z-0.430 F200.000
G1 X-20.493 Y23.486 Z-0.435 F200.000
G1 X-20.539 Y23.482 Z-0.439 F200.000
G1 X-20.584 Y23.469 Z-0.443 F200.000
G1 X-20.626 Y23.448 Z-0.448 F200.000
G1 X-20.662 Y23.419 Z-0.452 F200.000
G1 X-20.692 Y23.383 Z-0.456 F200.000
G1 X-20.715 Y23.343 Z-0.460 F200.000
G1 X-20.729 Y23.298 Z-0.465 F200.000
G1 X-20.734 Y23.252 Z-0.469 F200.000
G1 X-20.730 Y23.205 Z-0.473 F200.000
G1 X-20.718 Y23.160 Z-0.477 F200.000
G1 X-20.696 Y23.119 Z-0.482 F200.000
G1 X-20.667 Y23.082 Z-0.486 F200.000
G1 X-20.631 Y23.052 Z-0.490 F200.000
G1 X-20.591 Y23.030 Z-0.494 F200.000
G1 X-20.546 Y23.015 Z-0.499 F200.000
G1 X-20.500 Y23.010 Z-0.503 F200.000
G1 X-20.453 Y23.014 Z-0.507 F200.000
G1 X-20.408 Y23.027 Z-0.511 F200.000
G1 X-20.367 Y23.048 Z-0.516 F200.000
G1 X-20.330 Y23.077 Z-0.520 F200.000
G1 X-20.300 Y23.113 Z-0.524 F200.000
G1 X-20.278 Y23.154 Z-0.529 F200.000
G1 X-20.263 Y23.198 Z-0.533 F200.000
G1 X-20.258 Y23.245 Z-0.537 F200.000
G1 X-20.262 Y23.291 Z-0.541 F200.000
G1 X-20.275 Y23.336 Z-0.546 F200.000
G1 X-20.296 Y23.377 Z-0.550 F200.000
G1 X-20.325 Y23.414 Z-0.554 F200.000
G1 X-20.361 Y23.444 Z-0.558 F200.000
G1 X-20.402 Y23.467 Z-0.563 F200.000
G1 X-20.446 Y23.481 Z-0.567 F200.000
G1 X-20.493 Y23.486 Z-0.571 F200.000
G1 X-20.539 Y23.482 Z-0.575 F200.000
G1 X-20.584 Y23.469 Z-0.580 F200.000
G1 X-20.626 Y23.448 Z-0.584 F200.000
G1 X-20.662 Y23.419 Z-0.588 F200.000
G1 X-20.692 Y23.383 Z-0.592 F200.000
G1 X-20.715 Y23.343 Z-0.597 F200.000
G1 X-20.729 Y23.298 Z-0.601 F200.000
G1 X-20.734 Y23.252 Z-0.605 F200.000
G1 X-20.730 Y23.205 Z-0.610 F200.000
G1 X-20.718 Y23.160 Z-0.614 F200.000
G1 X-20.696 Y23.119 Z-0.618 F200.000
G1 X-20.667 Y23.082 Z-0.622 F200.000
G1 X-20.631 Y23.052 Z-0.627 F200.000
G1 X-20.591 Y23.030 Z-0.631 F200.000
G1 X-20.546 Y23.015 Z-0.635 F200.000
G1 X-20.500 Y23.010 Z-0.639 F200.000
G1 X-20.453 Y23.014 Z-0.644 F200.000
G1 X-20.408 Y23.027 Z-0.648 F200.000
G1 X-20.367 Y23.048 Z-0.652 F200.000
G1 X-20.330 Y23.077 Z-0.656 F200.000
G1 X-20.300 Y23.113 Z-0.661 F200.000
G1 X-20.278 Y23.154 Z-0.665 F200.000
G1 X-20.263 Y23.198 Z-0.669 F200.000
G1 X-20.258 Y23.245 Z-0.673 F200.000
G1 X-20.262 Y23.291 Z-0.678 F200.000
G1 X-20.275 Y23.336 Z-0.682 F200.000
G1 X-20.296 Y23.377 Z-0.686 F200.000
G1 X-20.325 Y23.414 Z-0.690 F200.000
G1 X-20.361 Y23.444 Z-0.695 F200.000
G1 X-20.402 Y23.467 Z-0.699 F200.000
G1 X-20.446 Y23.481 Z-0.703 F200.000
G1 X-20.493 Y23.486 Z-0.708 F200.000
G1 X-20.539 Y23.482 Z-0.712 F200.000
G1 X-20.584 Y23.469 Z-0.716 F200.000
G1 X-20.626 Y23.448 Z-0.720 F200.000
G1 X-20.662 Y23.419 Z-0.725 F200.000
G1 X-20.692 Y23.383 Z-0.729 F200.000
G1 X-20.715 Y23.343 Z-0.733 F200.000
G1 X-20.729 Y23.298 Z-0.737 F200.000
G1 X-20.734 Y23.252 Z-0.742 F200.000
G1 X-20.730 Y23.205 Z-0.746 F200.000
G1 X-20.718 Y23.160 Z-0.750 F200.000
G1 X-20.696 Y23.119 Z-0.754 F200.000
G1 X-20.667 Y23.082 Z-0.759 F200.000
G1 X-20.631 Y23.052 Z-0.763 F200.000
G1 X-20.591 Y23.030 Z-0.767 F200.000
G1 X-20.546 Y23.015 Z-0.771 F200.000
G1 X-20.500 Y23.010 Z-0.776 F200.000
G1 X-20.453 Y23.014 Z-0.780 F200.000
G1 X-20.408 Y23.027 Z-0.784 F200.000
G1 X-20.367 Y23.048 Z-0.789 F200.000
G1 X-20.330 Y23.077 Z-0.793 F200.000
G1 X-20.300 Y23.113 Z-0.797 F200.000
G1 X-20.278 Y23.154 Z-0.801 F200.000
G1 X-20.263 Y23.198 Z-0.806 F200.000
G1 X-20.258 Y23.245 Z-0.810 F200.000
G1 X-20.262 Y23.291 Z-0.814 F200.000
G1 X-20.275 Y23.336 Z-0.818 F200.000
G1 X-20.296 Y23.377 Z-0.823 F200.000
G1 X-20.325 Y23.414 Z-0.827 F200.000
G1 X-20.361 Y23.444 Z-0.831 F200.000
G1 X-20.402 Y23.467 Z-0.835 F200.000
G1 X-20.446 Y23.481 Z-0.840 F200.000
G1 X-20.493 Y23.486 Z-0.844 F200.000
G1 X-20.539 Y23.482 Z-0.848 F200.000
G1 X-20.584 Y23.469 Z-0.852 F200.000
G1 X-20.626 Y23.448 Z-0.857 F200.000
G1 X-20.662 Y23.419 Z-0.861 F200.000
G1 X-20.692 Y23.383 Z-0.865 F200.000
G1 X-20.715 Y23.343 Z-0.870 F200.000
G1 X-20.729 Y23.298 Z-0.874 F200.000
G1 X-20.734 Y23.252 Z-0.878 F200.000
G1 X-20.730 Y23.205 Z-0.882 F200.000
G1 X-20.718 Y23.160 Z-0.887 F200.000
G1 X-20.696 Y23.119 Z-0.891 F200.000
G1 X-20.667 Y23.082 Z-0.895 F200.000
G1 X-20.631 Y23.052 Z-0.899 F200.000
G1 X-20.591 Y23.030 Z-0.904 F200.000
G1 X-20.546 Y23.015 Z-0.908 F200.000
G1 X-20.500 Y23.010 Z-0.912 F200.000
G1 X-20.453 Y23.014 Z-0.916 F200.000
G1 X-20.408 Y23.027 Z-0.921 F200.000
G1 X-20.367 Y23.048 Z-0.925 F200.000
G1 X-20.330 Y23.077 Z-0.929 F200.000
G1 X-20.300 Y23.113 Z-0.933 F200.000
G1 X-20.278 Y23.154 Z-0.938 F200.000
G1 X-20.263 Y23.198 Z-0.942 F200.000
G1 X-20.258 Y23.245 Z-0.946 F200.000
G1 X-20.262 Y23.291 Z-0.950 F200.000
G1 X-20.275 Y23.336 Z-0.955 F200.000
G1 X-20.296 Y23.377 Z-0.959 F200.000
G1 X-20.325 Y23.414 Z-0.963 F200.000
G1 X-20.361 Y23.444 Z-0.968 F200.000
G1 X-20.402 Y23.467 Z-0.972 F200.000
G1 X-20.446 Y23.481 Z-0.976 F200.000
G1 X-20.493 Y23.486 Z-0.980 F200.000
G1 X-20.539 Y23.482 Z-0.985 F200.000
G1 X-20.584 Y23.469 Z-0.989 F200.000
G1 X-20.626 Y23.448 Z-0.993 F200.000
G1 X-20.662 Y23.419 Z-0.997 F200.000
G1 X-20.692 Y23.383 Z-1.002 F200.000
G1 X-20.715 Y23.343 Z-1.006 F200.000
G1 X-20.729 Y23.298 Z-1.010 F200.000
G1 X-20.734 Y23.252 Z-1.014 F200.000
G1 X-20.730 Y23.205 Z-1.019 F200.000
G1 X-20.718 Y23.160 Z-1.023 F200.000
G1 X-20.696 Y23.119 Z-1.027 F200.000
G1 X-20.667 Y23.082 Z-1.031 F200.000
G1 X-20.631 Y23.052 Z-1.036 F200.000
G1 X-20.591 Y23.030 Z-1.040 F200.000
G1 X-20.546 Y23.015 Z-1.044 F200.000
G1 X-20.500 Y23.010 Z-1.049 F200.000
G1 X-20.453 Y23.014 Z-1.053 F200.000
G1 X-20.408 Y23.027 Z-1.057 F200.000
G1 X-20.367 Y23.048 Z-1.061 F200.000
G1 X-20.330 Y23.077 Z-1.066 F200.000
G1 X-20.300 Y23.113 Z-1.070 F200.000
G1 X-20.278 Y23.154 Z-1.074 F200.000
G1 X-20.263 Y23.198 Z-1.078 F200.000
G1 X-20.258 Y23.245 Z-1.083 F200.000
G1 X-20.262 Y23.291 Z-1.087 F200.000
G1 X-20.275 Y23.336 Z-1.091 F200.000
G1 X-20.296 Y23.377 Z-1.095 F200.000
G1 X-20.325 Y23.414 Z-1.100 F200.000
G1 X-20.361 Y23.444 Z-1.104 F200.000
G1 X-20.402 Y23.467 Z-1.108 F200.000
G1 X-20.446 Y23.481 Z-1.112 F200.000
G1 X-20.493 Y23.486 Z-1.117 F200.000
G1 X-20.539 Y23.482 Z-1.121 F200.000
G1 X-20.584 Y23.469 Z-1.125 F200.000
G1 X-20.626 Y23.448 Z-1.130 F200.000
G1 X-20.662 Y23.419 Z-1.134 F200.000
G1 X-20.692 Y23.383 Z-1.138 F200.000
G1 X-20.715 Y23.343 Z-1.142 F200.000
G1 X-20.729 Y23.298 Z-1.147 F200.000
G1 X-20.734 Y23.252 Z-1.151 F200.000
G1 X-20.730 Y23.205 Z-1.155 F200.000
G1 X-20.718 Y23.160 Z-1.159 F200.000
G1 X-20.696 Y23.119 Z-1.164 F200.000
G1 X-20.667 Y23.082 Z-1.168 F200.000
G1 X-20.631 Y23.052 Z-1.172 F200.000
G1 X-20.591 Y23.030 Z-1.176 F200.000
G1 X-20.546 Y23.015 Z-1.181 F200.000
G1 X-20.500 Y23.010 Z-1.185 F200.000
G1 X-20.453 Y23.014 Z-1.189 F200.000
G1 X-20.408 Y23.027 Z-1.193 F200.000
G1 X-20.367 Y23.048 Z-1.198 F200.000
G1 X-20.330 Y23.077 Z-1.202 F200.000
G1 X-20.300 Y23.113 Z-1.206 F200.000
G1 X-20.278 Y23.154 Z-1.210 F200.000
G1 X-20.263 Y23.198 Z-1.215 F200.000
G1 X-20.258 Y23.245 Z-1.219 F200.000
G1 X-20.262 Y23.291 Z-1.223 F200.000
G1 X-20.275 Y23.336 Z-1.228 F200.000
G1 X-20.296 Y23.377 Z-1.232 F200.000
G1 X-20.325 Y23.414 Z-1.236 F200.000
G1 X-20.361 Y23.444 Z-1.240 F200.000
G1 X-20.402 Y23.467 Z-1.245 F200.000
G1 X-20.446 Y23.481 Z-1.249 F200.000
G1 X-20.493 Y23.486 Z-1.253 F200.000
G1 X-20.539 Y23.482 Z-1.257 F200.000
G1 X-20.584 Y23.469 Z-1.262 F200.000
G1 X-20.626 Y23.448 Z-1.266 F200.000
G1 X-20.662 Y23.419 Z-1.270 F200.000
G1 X-20.692 Y23.383 Z-1.274 F200.000
G1 X-20.715 Y23.343 Z-1.279 F200.000
G1 X-20.729 Y23.298 Z-1.283 F200.000
G1 X-20.734 Y23.252 Z-1.287 F200.000
G1 X-20.730 Y23.205 Z-1.291 F200.000
G1 X-20.718 Y23.160 Z-1.296 F200.000
G1 X-20.696 Y23.119 Z-1.300 F200.000
G1 X-20.667 Y23.082 Z-1.304 F200.000
G1 X-20.631 Y23.052 Z-1.309 F200.000
G1 X-20.591 Y23.030 Z-1.313 F200.000
G1 X-20.546 Y23.015 Z-1.317 F200.000
G1 X-20.500 Y23.010 Z-1.321 F200.000
G1 X-20.453 Y23.014 Z-1.326 F200.000
G1 X-20.408 Y23.027 Z-1.330 F200.000
G1 X-20.367 Y23.048 Z-1.334 F200.000
G1 X-20.330 Y23.077 Z-1.338 F200.000
G1 X-20.300 Y23.113 Z-1.343 F200.000
G1 X-20.278 Y23.154 Z-1.347 F200.000
G1 X-20.263 Y23.198 Z-1.351 F200.000
G1 X-20.258 Y23.245 Z-1.355 F200.000
G1 X-20.262 Y23.291 Z-1.360 F200.000
G1 X-20.275 Y23.336 Z-1.364 F200.000
G1 X-20.296 Y23.377 Z-1.368 F200.000
G1 X-20.325 Y23.414 Z-1.372 F200.000
G1 X-20.361 Y23.444 Z-1.377 F200.000
G1 X-20.402 Y23.467 Z-1.381 F200.000
G1 X-20.446 Y23.481 Z-1.385 F200.000
G1 X-20.493 Y23.486 Z-1.390 F200.000
G1 X-20.539 Y23.482 Z-1.394 F200.000
G1 X-20.584 Y23.469 Z-1.398 F200.000
G1 X-20.626 Y23.448 Z-1.402 F200.000
G1 X-20.662 Y23.419 Z-1.407 F200.000
G1 X-20.692 Y23.383 Z-1.411 F200.000
G1 X-20.715 Y23.343 Z-1.415 F200.000
G1 X-20.729 Y23.298 Z-1.419 F200.000
G1 X-20.734 Y23.252 Z-1.424 F200.000
G1 X-20.730 Y23.205 Z-1.428 F200.000
G1 X-20.718 Y23.160 Z-1.432 F200.000
G1 X-20.696 Y23.119 Z-1.436 F200.000
G1 X-20.667 Y23.082 Z-1.441 F200.000
G1 X-20.631 Y23.052 Z-1.445 F200.000
G1 X-20.591 Y23.030 Z-1.449 F200.000
G1 X-20.546 Y23.015 Z-1.453 F200.000
G1 X-20.500 Y23.010 Z-1.458 F200.000
G1 X-20.453 Y23.014 Z-1.462 F200.000
G1 X-20.408 Y23.027 Z-1.466 F200.000
G1 X-20.367 Y23.048 Z-1.470 F200.000
G1 X-20.330 Y23.077 Z-1.475 F200.000
G1 X-20.300 Y23.113 Z-1.479 F200.000
G1 X-20.278 Y23.154 Z-1.483 F200.000
G1 X-20.263 Y23.198 Z-1.488 F200.000
G1 X-20.258 Y23.245 Z-1.492 F200.000
G1 X-20.262 Y23.291 Z-1.496 F200.000
G1 X-20.275 Y23.336 Z-1.500 F200.000
G1 X-20.296 Y23.377 Z-1.505 F200.000
G1 X-20.325 Y23.414 Z-1.509 F200.000
G1 X-20.361 Y23.444 Z-1.513 F200.000
G1 X-20.402 Y23.467 Z-1.517 F200.000
G1 X-20.446 Y23.481 Z-1.522 F200.000
G1 X-20.493 Y23.486 Z-1.526 F200.000
G1 X-20.539 Y23.482 Z-1.530 F200.000
G1 X-20.584 Y23.469 Z-1.534 F200.000
G1 X-20.626 Y23.448 Z-1.539 F200.000
G1 X-20.662 Y23.419 Z-1.543 F200.000
G1 X-20.692 Y23.383 Z-1.547 F200.000
G1 X-20.715 Y23.343 Z-1.551 F200.000
G1 X-20.729 Y23.298 Z-1.556 F200.000
G1 X-20.734 Y23.252 Z-1.560 F200.000
G1 X-20.730 Y23.205 Z-1.564 F200.000
G1 X-20.718 Y23.160 Z-1.569 F200.000
G1 X-20.696 Y23.119 Z-1.573 F200.000
G1 X-20.667 Y23.082 Z-1.577 F200.000
G1 X-20.631 Y23.052 Z-1.581 F200.000
G1 X-20.591 Y23.030 Z-1.586 F200.000
G1 X-20.546 Y23.015 Z-1.590 F200.000
G1 X-20.500 Y23.010 Z-1.594 F200.000
G1 X-20.453 Y23.014 Z-1.598 F200.000
G1 X-20.408 Y23.027 Z-1.603 F200.000
G1 X-20.367 Y23.048 Z-1.607 F200.000
G1 X-20.330 Y23.077 Z-1.611 F200.000
G1 X-20.300 Y23.113 Z-1.615 F200.000
G1 X-20.278 Y23.154 Z-1.620 F200.000
G1 X-20.263 Y23.198 Z-1.624 F200.000
G1 X-20.258 Y23.245 Z-1.628 F200.000
G1 X-20.262 Y23.291 Z-1.632 F200.000
G1 X-20.275 Y23.336 Z-1.637 F200.000
G1 X-20.296 Y23.377 Z-1.641 F200.000
G1 X-20.325 Y23.414 Z-1.645 F200.000
G1 X-20.361 Y23.444 Z-1.650 F200.000
G1 X-20.402 Y23.467 Z-1.654 F200.000
G1 X-20.446 Y23.481 Z-1.658 F200.000
G1 X-20.493 Y23.486 Z-1.662 F200.000
G1 X-20.539 Y23.482 Z-1.667 F200.000
G1 X-20.584 Y23.469 Z-1.671 F200.000
G1 X-20.626 Y23.448 Z-1.675 F200.000
G1 X-20.662 Y23.419 Z-1.679 F200.000
G1 X-20.692 Y23.383 Z-1.684 F200.000
G1 X-20.715 Y23.343 Z-1.688 F200.000
G1 X-20.729 Y23.298 Z-1.692 F200.000
G1 X-20.734 Y23.252 Z-1.696 F200.000
G1 X-20.730 Y23.205 Z-1.701 F200.000
G1 X-20.718 Y23.160 Z-1.705 F200.000
G1 X-20.696 Y23.119 Z-1.709 F200.000
G1 X-20.667 Y23.082 Z-1.713 F200.000
G1 X-20.631 Y23.052 Z-1.718 F200.000
G1 X-20.591 Y23.030 Z-1.722 F200.000
G1 X-20.546 Y23.015 Z-1.726 F200.000
G1 X-20.500 Y23.010 Z-1.730 F200.000
G1 X-20.453 Y23.014 Z-1.735 F200.000
G1 X-20.408 Y23.027 Z-1.739 F200.000
G1 X-20.367 Y23.048 Z-1.743 F200.000
G1 X-20.330 Y23.077 Z-1.748 F200.000
G1 X-20.300 Y23.113 Z-1.752 F200.000
G1 X-20.278 Y23.154 Z-1.756 F200.000
G1 X-20.263 Y23.198 Z-1.760 F200.000
G1 X-20.258 Y23.245 Z-1.765 F200.000
G1 X-20.262 Y23.291 Z-1.769 F200.000
G1 X-20.275 Y23.336 Z-1.773 F200.000
G1 X-20.296 Y23.377 Z-1.777 F200.000
G1 X-20.325 Y23.414 Z-1.782 F200.000
G1 X-20.361 Y23.444 Z-1.786 F200.000
G1 X-20.402 Y23.467 Z-1.790 F200.000
G1 X-20.446 Y23.481 Z-1.794 F200.000
G1 X-20.493 Y23.486 Z-1.799 F200.000
G1 X-20.539 Y23.482 Z-1.803 F200.000
G1 X-20.584 Y23.469 Z-1.807 F200.000
G1 X-20.626 Y23.448 Z-1.811 F200.000
G1 X-20.662 Y23.419 Z-1.816 F200.000
G1 X-20.692 Y23.383 Z-1.820 F200.000
G1 X-20.715 Y23.343 Z-1.824 F200.000
G1 X-20.729 Y23.298 Z-1.829 F200.000
G1 X-20.734 Y23.252 Z-1.833 F200.000
G1 X-20.730 Y23.205 Z-1.837 F200.000
G1 X-20.718 Y23.160 Z-1.841 F200.000
G1 X-20.696 Y23.119 Z-1.846 F200.000
G1 X-20.667 Y23.082 Z-1.850 F200.000
G1 X-20.631 Y23.052 Z-1.854 F200.000
G1 X-20.591 Y23.030 Z-1.858 F200.000
G1 X-20.546 Y23.015 Z-1.863 F200.000
G1 X-20.500 Y23.010 Z-1.867 F200.000
G1 X-20.453 Y23.014 Z-1.871 F200.000
G1 X-20.408 Y23.027 Z-1.875 F200.000
G1 X-20.367 Y23.048 Z-1.880 F200.000
G1 X-20.330 Y23.077 Z-1.884 F200.000
G1 X-20.300 Y23.113 Z-1.888 F200.000
G1 X-20.278 Y23.154 Z-1.892 F200.000
G1 X-20.263 Y23.198 Z-1.897 F200.000
G1 X-20.258 Y23.245 Z-1.901 F200.000
G1 X-20.262 Y23.291 Z-1.905 F200.000
G1 X-20.275 Y23.336 Z-1.910 F200.000
G1 X-20.296 Y23.377 Z-1.914 F200.000
G1 X-20.325 Y23.414 Z-1.918 F200.000
G1 X-20.361 Y23.444 Z-1.922 F200.000
G1 X-20.402 Y23.467 Z-1.927 F200.000
G1 X-20.446 Y23.481 Z-1.931 F200.000
G1 X-20.493 Y23.486 Z-1.935 F200.000
G1 X-20.539 Y23.482 Z-1.939 F200.000
G1 X-20.584 Y23.469 Z-1.944 F200.000
G1 X-20.626 Y23.448 Z-1.948 F200.000
G1 X-20.662 Y23.419 Z-1.952 F200.000
G1 X-20.692 Y23.383 Z-1.956 F200.000
G1 X-20.715 Y23.343 Z-1.961 F200.000
G1 X-20.729 Y23.298 Z-1.965 F200.000
G1 X-20.734 Y23.252 Z-1.969 F200.000
G1 X-20.730 Y23.205 Z-1.973 F200.000
G1 X-20.718 Y23.160 Z-1.978 F200.000
G1 X-20.696 Y23.119 Z-1.982 F200.000
G1 X-20.667 Y23.082 Z-1.986 F200.000
G1 X-20.631 Y23.052 Z-1.990 F200.000
G1 X-20.591 Y23.030 Z-1.995 F200.000
G1 X-20.546 Y23.015 Z-1.999 F200.000
G1 X-20.500 Y23.010 Z-2.003 F200.000
G1 X-20.453 Y23.014 Z-2.008 F200.000
G1 X-20.408 Y23.027 Z-2.012 F200.000
G1 X-20.367 Y23.048 Z-2.016 F200.000
G1 X-20.330 Y23.077 Z-2.020 F200.000
G1 X-20.300 Y23.113 Z-2.025 F200.000
G1 X-20.278 Y23.154 Z-2.029 F200.000
G1 X-20.263 Y23.198 Z-2.033 F200.000
G1 X-20.258 Y23.245 Z-2.037 F200.000
G1 X-20.262 Y23.291 Z-2.042 F200.000
G1 X-20.275 Y23.336 Z-2.046 F200.000
G1 X-20.296 Y23.377 Z-2.050 F200.000
G1 X-20.325 Y23.414 Z-2.054 F200.000
G1 X-20.361 Y23.444 Z-2.059 F200.000
G1 X-20.402 Y23.467 Z-2.063 F200.000
G1 X-20.446 Y23.481 Z-2.067 F200.000
G1 X-20.493 Y23.486 Z-2.071 F200.000
G1 X-20.539 Y23.482 Z-2.076 F200.000
G1 X-20.584 Y23.469 Z-2.080 F200.000
G1 X-20.626 Y23.448 Z-2.084 F200.000
G1 X-20.662 Y23.419 Z-2.089 F200.000
G1 X-20.692 Y23.383 Z-2.093 F200.000
G1 X-20.715 Y23.343 Z-2.097 F200.000
G1 X-20.729 Y23.298 Z-2.101 F200.000
G1 X-20.734 Y23.252 Z-2.106 F200.000
G1 X-20.730 Y23.205 Z-2.110 F200.000
G1 X-20.718 Y23.160 Z-2.114 F200.000
G1 X-20.696 Y23.119 Z-2.118 F200.000
G1 X-20.667 Y23.082 Z-2.123 F200.000
G1 X-20.631 Y23.052 Z-2.127 F200.000
G1 X-20.591 Y23.030 Z-2.131 F200.000
G1 X-20.546 Y23.015 Z-2.135 F200.000
G1 X-20.500 Y23.010 Z-2.140 F200.000
G1 X-20.453 Y23.014 Z-2.144 F200.000
G1 X-20.408 Y23.027 Z-2.148 F200.000
G1 X-20.367 Y23.048 Z-2.152 F200.000
G1 X-20.330 Y23.077 Z-2.157 F200.000
G1 X-20.300 Y23.113 Z-2.161 F200.000
G1 X-20.278 Y23.154 Z-2.165 F200.000
G1 X-20.263 Y23.198 Z-2.170 F200.000
G1 X-20.258 Y23.245 Z-2.174 F200.000
G1 X-20.262 Y23.291 Z-2.178 F200.000
G1 X-20.275 Y23.336 Z-2.182 F200.000
G1 X-20.296 Y23.377 Z-2.187 F200.000
G1 X-20.325 Y23.414 Z-2.191 F200.000
G1 X-20.361 Y23.444 Z-2.195 F200.000
G1 X-20.402 Y23.467 Z-2.199 F200.000
G1 X-20.446 Y23.481 Z-2.204 F200.000
G1 X-20.493 Y23.486 Z-2.208 F200.000
G1 X-20.539 Y23.482 Z-2.212 F200.000
G1 X-20.584 Y23.469 Z-2.216 F200.000
G1 X-20.626 Y23.448 Z-2.221 F200.000
G1 X-20.662 Y23.419 Z-2.225 F200.000
G1 X-20.692 Y23.383 Z-2.229 F200.000
G1 X-20.715 Y23.343 Z-2.233 F200.000
G1 X-20.729 Y23.298 Z-2.238 F200.000
G1 X-20.734 Y23.252 Z-2.242 F200.000
G1 X-20.730 Y23.205 Z-2.246 F200.000
G1 X-20.718 Y23.160 Z-2.250 F200.000
G1 X-20.696 Y23.119 Z-2.255 F200.000
G1 X-20.667 Y23.082 Z-2.259 F200.000
G1 X-20.631 Y23.052 Z-2.263 F200.000
G1 X-20.591 Y23.030 Z-2.268 F200.000
G1 X-20.546 Y23.015 Z-2.272 F200.000
G1 X-20.500 Y23.010 Z-2.276 F200.000
G1 X-20.453 Y23.014 Z-2.280 F200.000
G1 X-20.408 Y23.027 Z-2.285 F200.000
G1 X-20.367 Y23.048 Z-2.289 F200.000
G1 X-20.330 Y23.077 Z-2.293 F200.000
G1 X-20.300 Y23.113 Z-2.297 F200.000
G1 X-20.278 Y23.154 Z-2.302 F200.000
G1 X-20.263 Y23.198 Z-2.306 F200.000
G1 X-20.258 Y23.245 Z-2.310 F200.000
G1 X-20.262 Y23.291 Z-2.314 F200.000
G1 X-20.275 Y23.336 Z-2.319 F200.000
G1 X-20.296 Y23.377 Z-2.323 F200.000
G1 X-20.325 Y23.414 Z-2.327 F200.000
G1 X-20.361 Y23.444 Z-2.331 F200.000
G1 X-20.402 Y23.467 Z-2.336 F200.000
G1 X-20.446 Y23.481 Z-2.340 F200.000
G1 X-20.493 Y23.486 Z-2.344 F200.000
G1 X-20.539 Y23.482 Z-2.349 F200.000
G1 X-20.584 Y23.469 Z-2.353 F200.000
G1 X-20.626 Y23.448 Z-2.357 F200.000
G1 X-20.662 Y23.419 Z-2.361 F200.000
G1 X-20.692 Y23.383 Z-2.366 F200.000
G1 X-20.715 Y23.343 Z-2.370 F200.000
G1 X-20.729 Y23.298 Z-2.374 F200.000
G1 X-20.734 Y23.252 Z-2.378 F200.000
G1 X-20.730 Y23.205 Z-2.383 F200.000
G1 X-20.718 Y23.160 Z-2.387 F200.000
G1 X-20.696 Y23.119 Z-2.391 F200.000
G1 X-20.667 Y23.082 Z-2.395 F200.000
G1 X-20.631 Y23.052 Z-2.400 F200.000
G1 X-20.591 Y23.030 Z-2.404 F200.000
G1 X-20.546 Y23.015 Z-2.408 F200.000
G1 X-20.500 Y23.010 Z-2.412 F200.000
G1 X-20.453 Y23.014 Z-2.417 F200.000
G1 X-20.408 Y23.027 Z-2.421 F200.000
G1 X-20.367 Y23.048 Z-2.425 F200.000
G1 X-20.330 Y23.077 Z-2.430 F200.000
G1 X-20.300 Y23.113 Z-2.434 F200.000
G1 X-20.278 Y23.154 Z-2.438 F200.000
G1 X-20.263 Y23.198 Z-2.442 F200.000
G1 X-20.258 Y23.245 Z-2.447 F200.000
G1 X-20.262 Y23.291 Z-2.451 F200.000
G1 X-20.275 Y23.336 Z-2.455 F200.000
G1 X-20.296 Y23.377 Z-2.459 F200.000
G1 X-20.325 Y23.414 Z-2.464 F200.000
G1 X-20.361 Y23.444 Z-2.468 F200.000
G1 X-20.402 Y23.467 Z-2.472 F200.000
G1 X-20.446 Y23.481 Z-2.476 F200.000
G1 X-20.493 Y23.486 Z-2.481 F200.000
G1 X-20.539 Y23.482 Z-2.485 F200.000
G1 X-20.584 Y23.469 Z-2.489 F200.000
G1 X-20.626 Y23.448 Z-2.493 F200.000
G1 X-20.662 Y23.419 Z-2.498 F200.000
G1 X-20.692 Y23.383 Z-2.502 F200.000
G1 X-20.715 Y23.343 Z-2.506 F200.000
G1 X-20.729 Y23.298 Z-2.510 F200.000
G1 X-20.734 Y23.252 Z-2.515 F200.000
G1 X-20.730 Y23.205 Z-2.519 F200.000
G1 X-20.718 Y23.160 Z-2.523 F200.000
G1 X-20.696 Y23.119 Z-2.528 F200.000
G1 X-20.667 Y23.082 Z-2.532 F200.000
G1 X-20.631 Y23.052 Z-2.536 F200.000
G1 X-20.591 Y23.030 Z-2.540 F200.000
G1 X-20.546 Y23.015 Z-2.545 F200.000
G1 X-20.500 Y23.010 Z-2.549 F200.000
G1 X-20.453 Y23.014 Z-2.553 F200.000
G1 X-20.408 Y23.027 Z-2.557 F200.000
G1 X-20.367 Y23.048 Z-2.562 F200.000
G1 X-20.330 Y23.077 Z-2.566 F200.000
G1 X-20.300 Y23.113 Z-2.570 F200.000
G1 X-20.278 Y23.154 Z-2.574 F200.000
G1 X-20.263 Y23.198 Z-2.579 F200.000
G1 X-20.258 Y23.245 Z-2.583 F200.000
G1 X-20.262 Y23.291 Z-2.587 F200.000
G1 X-20.275 Y23.336 Z-2.591 F200.000
G1 X-20.296 Y23.377 Z-2.596 F200.000
G1 X-20.325 Y23.414 Z-2.600 F200.000
G1 X-20.361 Y23.444 Z-2.604 F200.000
G1 X-20.402 Y23.467 Z-2.609 F200.000
G1 X-20.446 Y23.481 Z-2.613 F200.000
G1 X-20.493 Y23.486 Z-2.617 F200.000
G1 X-20.539 Y23.482 Z-2.621 F200.000
G1 X-20.584 Y23.469 Z-2.626 F200.000
G1 X-20.626 Y23.448 Z-2.630 F200.000
G1 X-20.662 Y23.419 Z-2.634 F200.000
G1 X-20.692 Y23.383 Z-2.638 F200.000
G1 X-20.715 Y23.343 Z-2.643 F200.000
G1 X-20.729 Y23.298 Z-2.647 F200.000
G1 X-20.734 Y23.252 Z-2.651 F200.000
G1 X-20.730 Y23.205 Z-2.655 F200.000
G1 X-20.718 Y23.160 Z-2.660 F200.000
G1 X-20.696 Y23.119 Z-2.664 F200.000
G1 X-20.667 Y23.082 Z-2.668 F200.000
G1 X-20.631 Y23.052 Z-2.672 F200.000
G1 X-20.591 Y23.030 Z-2.677 F200.000
G1 X-20.546 Y23.015 Z-2.681 F200.000
G1 X-20.500 Y23.010 Z-2.685 F200.000
G1 X-20.453 Y23.014 Z-2.690 F200.000
G1 X-20.408 Y23.027 Z-2.694 F200.000
G1 X-20.367 Y23.048 Z-2.698 F200.000
G1 X-20.330 Y23.077 Z-2.702 F200.000
G1 X-20.300 Y23.113 Z-2.707 F200.000
G1 X-20.278 Y23.154 Z-2.711 F200.000
G1 X-20.263 Y23.198 Z-2.715 F200.000
G1 X-20.258 Y23.245 Z-2.719 F200.000
G1 X-20.262 Y23.291 Z-2.724 F200.000
G1 X-20.275 Y23.336 Z-2.728 F200.000
G1 X-20.296 Y23.377 Z-2.732 F200.000
G1 X-20.325 Y23.414 Z-2.736 F200.000
G1 X-20.361 Y23.444 Z-2.741 F200.000
G1 X-20.402 Y23.467 Z-2.745 F200.000
G1 X-20.446 Y23.481 Z-2.749 F200.000
G1 X-20.493 Y23.486 Z-2.753 F200.000
G1 X-20.539 Y23.482 Z-2.758 F200.000
G1 X-20.584 Y23.469 Z-2.762 F200.000
G1 X-20.626 Y23.448 Z-2.766 F200.000
G1 X-20.662 Y23.419 Z-2.770 F200.000
G1 X-20.692 Y23.383 Z-2.775 F200.000
G1 X-20.715 Y23.343 Z-2.779 F200.000
G1 X-20.729 Y23.298 Z-2.783 F200.000
G1 X-20.734 Y23.252 Z-2.788 F200.000
G1 X-20.730 Y23.205 Z-2.792 F200.000
G1 X-20.718 Y23.160 Z-2.796 F200.000
G1 X-20.696 Y23.119 Z-2.800 F200.000
G1 X-20.667 Y23.082 Z-2.805 F200.000
G1 X-20.631 Y23.052 Z-2.809 F200.000
G1 X-20.591 Y23.030 Z-2.813 F200.000
G1 X-20.546 Y23.015 Z-2.817 F200.000
G1 X-20.500 Y23.010 Z-2.822 F200.000
G1 X-20.453 Y23.014 Z-2.826 F200.000
G1 X-20.408 Y23.027 Z-2.830 F200.000
G1 X-20.367 Y23.048 Z-2.834 F200.000
G1 X-20.330 Y23.077 Z-2.839 F200.000
G1 X-20.300 Y23.113 Z-2.843 F200.000
G1 X-20.278 Y23.154 Z-2.847 F200.000
G1 X-20.263 Y23.198 Z-2.851 F200.000
G1 X-20.258 Y23.245 Z-2.856 F200.000
G1 X-20.262 Y23.291 Z-2.860 F200.000
G1 X-20.275 Y23.336 Z-2.864 F200.000
G1 X-20.296 Y23.377 Z-2.869 F200.000
G1 X-20.325 Y23.414 Z-2.873 F200.000
G1 X-20.361 Y23.444 Z-2.877 F200.000
G1 X-20.402 Y23.467 Z-2.881 F200.000
G1 X-20.446 Y23.481 Z-2.886 F200.000
G1 X-20.493 Y23.486 Z-2.890 F200.000
G1 X-20.539 Y23.482 Z-2.894 F200.000
G1 X-20.584 Y23.469 Z-2.898 F200.000
G1 X-20.626 Y23.448 Z-2.903 F200.000
G1 X-20.662 Y23.419 Z-2.907 F200.000
G1 X-20.692 Y23.383 Z-2.911 F200.000
G1 X-20.715 Y23.343 Z-2.915 F200.000
G1 X-20.729 Y23.298 Z-2.920 F200.000
G1 X-20.734 Y23.252 Z-2.924 F200.000
G1 X-20.730 Y23.205 Z-2.928 F200.000
G1 X-20.718 Y23.160 Z-2.932 F200.000
G1 X-20.696 Y23.119 Z-2.937 F200.000
G1 X-20.667 Y23.082 Z-2.941 F200.000
G1 X-20.631 Y23.052 Z-2.945 F200.000
G1 X-20.591 Y23.030 Z-2.950 F200.000
G1 X-20.546 Y23.015 Z-2.954 F200.000
G1 X-20.500 Y23.010 Z-2.958 F200.000
G1 X-20.453 Y23.014 Z-2.962 F200.000
G1 X-20.408 Y23.027 Z-2.967 F200.000
G1 X-20.367 Y23.048 Z-2.971 F200.000
G1 X-20.330 Y23.077 Z-2.975 F200.000
G1 X-20.300 Y23.113 Z-2.979 F200.000
G1 X-20.278 Y23.154 Z-2.984 F200.000
G1 X-20.263 Y23.198 Z-2.988 F200.000
G1 X-20.258 Y23.245 Z-2.992 F200.000
G1 X-20.262 Y23.291 Z-2.996 F200.000
G1 X-20.275 Y23.336 Z-3.001 F200.000
G1 X-20.296 Y23.377 Z-3.005 F200.000
G1 X-20.325 Y23.414 Z-3.009 F200.000
G1 X-20.361 Y23.444 Z-3.013 F200.000
G1 X-20.402 Y23.467 Z-3.018 F200.000
G1 X-20.446 Y23.481 Z-3.022 F200.000
G1 X-20.493 Y23.486 Z-3.026 F200.000
G1 X-20.539 Y23.482 Z-3.030 F200.000
G1 X-20.584 Y23.469 Z-3.035 F200.000
G1 X-20.626 Y23.448 Z-3.039 F200.000
G1 X-20.662 Y23.419 Z-3.043 F200.000
G1 X-20.692 Y23.383 Z-3.048 F200.000
G1 X-20.715 Y23.343 Z-3.052 F200.000
G1 X-20.729 Y23.298 Z-3.056 F200.000
G1 X-20.734 Y23.252 Z-3.060 F200.000
G1 X-20.730 Y23.205 Z-3.065 F200.000
G1 X-20.718 Y23.160 Z-3.069 F200.000
G1 X-20.696 Y23.119 Z-3.073 F200.000
G1 X-20.667 Y23.082 Z-3.077 F200.000
G1 X-20.631 Y23.052 Z-3.082 F200.000
G1 X-20.591 Y23.030 Z-3.086 F200.000
G1 X-20.546 Y23.015 Z-3.090 F200.000
G1 X-20.500 Y23.010 Z-3.094 F200.000
G1 X-20.453 Y23.014 Z-3.099 F200.000
G1 X-20.408 Y23.027 Z-3.103 F200.000
G1 X-20.367 Y23.048 Z-3.107 F200.000
G1 X-20.330 Y23.077 Z-3.111 F200.000
G1 X-20.300 Y23.113 Z-3.116 F200.000
G1 X-20.278 Y23.154 Z-3.120 F200.000
G1 X-20.263 Y23.198 Z-3.124 F200.000
G1 X-20.258 Y23.245 Z-3.129 F200.000
G1 X-20.262 Y23.291 Z-3.133 F200.000
G1 X-20.275 Y23.336 Z-3.137 F200.000
G1 X-20.296 Y23.377 Z-3.141 F200.000
G1 X-20.325 Y23.414 Z-3.146 F200.000
G1 X-20.361 Y23.444 Z-3.150 F200.000
G1 X-20.402 Y23.467 Z-3.154 F200.000
G1 X-20.446 Y23.481 Z-3.158 F200.000
G1 X-20.493 Y23.486 Z-3.163 F200.000
G1 X-20.539 Y23.482 Z-3.167 F200.000
G1 X-20.584 Y23.469 Z-3.171 F200.000
G1 X-20.626 Y23.448 Z-3.175 F200.000
G1 X-20.662 Y23.419 Z-3.180 F200.000
G1 X-20.692 Y23.383 Z-3.184 F200.000
G1 X-20.715 Y23.343 Z-3.188 F200.000
G1 X-20.729 Y23.298 Z-3.192 F200.000
G1 X-20.734 Y23.252 Z-3.197 F200.000
G1 X-20.730 Y23.205 Z-3.201 F200.000
G1 X-20.718 Y23.160 Z-3.205 F200.000
G1 X-20.696 Y23.119 Z-3.210 F200.000
G1 X-20.667 Y23.082 Z-3.214 F200.000
G1 X-20.631 Y23.052 Z-3.218 F200.000
G1 X-20.591 Y23.030 Z-3.222 F200.000
G1 X-20.546 Y23.015 Z-3.227 F200.000
G1 X-20.500 Y23.010 Z-3.231 F200.000
G1 X-20.453 Y23.014 Z-3.235 F200.000
G1 X-20.408 Y23.027 Z-3.239 F200.000
G1 X-20.367 Y23.048 Z-3.244 F200.000
G1 X-20.330 Y23.077 Z-3.248 F200.000
G1 X-20.300 Y23.113 Z-3.252 F200.000
G1 X-20.278 Y23.154 Z-3.256 F200.000
G1 X-20.263 Y23.198 Z-3.261 F200.000
G1 X-20.258 Y23.245 Z-3.265 F200.000
G1 X-20.262 Y23.291 Z-3.269 F200.000
G1 X-20.275 Y23.336 Z-3.273 F200.000
G1 X-20.296 Y23.377 Z-3.278 F200.000
G1 X-20.325 Y23.414 Z-3.282 F200.000
G1 X-20.361 Y23.444 Z-3.286 F200.000
G1 X-20.402 Y23.467 Z-3.290 F200.000
G1 X-20.446 Y23.481 Z-3.295 F200.000
G1 X-20.493 Y23.486 Z-3.299 F200.000
G1 X-20.539 Y23.482 Z-3.303 F200.000
G1 X-20.584 Y23.469 Z-3.308 F200.000
G1 X-20.626 Y23.448 Z-3.312 F200.000
G1 X-20.662 Y23.419 Z-3.316 F200.000
G1 X-20.692 Y23.383 Z-3.320 F200.000
G1 X-20.715 Y23.343 Z-3.325 F200.000
G1 X-20.729 Y23.298 Z-3.329 F200.000
G1 X-20.734 Y23.252 Z-3.333 F200.000
G1 X-20.730 Y23.205 Z-3.337 F200.000
G1 X-20.718 Y23.160 Z-3.342 F200.000
G1 X-20.696 Y23.119 Z-3.346 F200.000
G1 X-20.667 Y23.082 Z-3.350 F200.000
G1 X-20.631 Y23.052 Z-3.354 F200.000
G1 X-20.591 Y23.030 Z-3.359 F200.000
G1 X-20.546 Y23.015 Z-3.363 F200.000
G1 X-20.500 Y23.010 Z-3.367 F200.000
G1 X-20.453 Y23.014 Z-3.371 F200.000
G1 X-20.408 Y23.027 Z-3.376 F200.000
G1 X-20.367 Y23.048 Z-3.380 F200.000
G1 X-20.330 Y23.077 Z-3.384 F200.000
G1 X-20.300 Y23.113 Z-3.389 F200.000
G1 X-20.278 Y23.154 Z-3.393 F200.000
G1 X-20.263 Y23.198 Z-3.397 F200.000
G1 X-20.258 Y23.245 Z-3.401 F200.000
G1 X-20.262 Y23.291 Z-3.406 F200.000
G1 X-20.275 Y23.336 Z-3.410 F200.000
G1 X-20.296 Y23.377 Z-3.414 F200.000
G1 X-20.325 Y23.414 Z-3.418 F200.000
G1 X-20.361 Y23.444 Z-3.423 F200.000
G1 X-20.402 Y23.467 Z-3.427 F200.000
G1 X-20.446 Y23.481 Z-3.431 F200.000
G1 X-20.493 Y23.486 Z-3.435 F200.000
G1 X-20.539 Y23.482 Z-3.440 F200.000
G1 X-20.584 Y23.469 Z-3.444 F200.000
G1 X-20.626 Y23.448 Z-3.448 F200.000
G1 X-20.662 Y23.419 Z-3.452 F200.000
G1 X-20.692 Y23.383 Z-3.457 F200.000
G1 X-20.715 Y23.343 Z-3.461 F200.000
G1 X-20.729 Y23.298 Z-3.465 F200.000
G1 X-20.734 Y23.252 Z-3.470 F200.000
G1 X-20.730 Y23.205 Z-3.474 F200.000
G1 X-20.718 Y23.160 Z-3.478 F200.000
G1 X-20.696 Y23.119 Z-3.482 F200.000
G1 X-20.667 Y23.082 Z-3.487 F200.000
G1 X-20.631 Y23.052 Z-3.491 F200.000
G1 X-20.591 Y23.030 Z-3.495 F200.000
G1 X-20.546 Y23.015 Z-3.499 F200.000
G1 X-20.500 Y23.010 Z-3.504 F200.000
G1 X-20.453 Y23.014 Z-3.508 F200.000
G1 X-20.408 Y23.027 Z-3.512 F200.000
G1 X-20.367 Y23.048 Z-3.516 F200.000
G1 X-20.330 Y23.077 Z-3.521 F200.000
G1 X-20.300 Y23.113 Z-3.525 F200.000
G1 X-20.278 Y23.154 Z-3.529 F200.000
G1 X-20.263 Y23.198 Z-3.533 F200.000
G1 X-20.258 Y23.245 Z-3.538 F200.000
G1 X-20.262 Y23.291 Z-3.542 F200.000
G1 X-20.275 Y23.336 Z-3.546 F200.000
G1 X-20.296 Y23.377 Z-3.550 F200.000
G1 X-20.325 Y23.414 Z-3.555 F200.000
G1 X-20.361 Y23.444 Z-3.559 F200.000
G1 X-20.402 Y23.467 Z-3.563 F200.000
G1 X-20.446 Y23.481 Z-3.568 F200.000
G1 X-20.493 Y23.486 Z-3.572 F200.000
G1 X-20.539 Y23.482 Z-3.576 F200.000
G1 X-20.584 Y23.469 Z-3.580 F200.000
G1 X-20.626 Y23.448 Z-3.585 F200.000
G1 X-20.662 Y23.419 Z-3.589 F200.000
G1 X-20.692 Y23.383 Z-3.593 F200.000
G1 X-20.715 Y23.343 Z-3.597 F200.000
G1 X-20.729 Y23.298 Z-3.602 F200.000
G1 X-20.734 Y23.252 Z-3.606 F200.000
G1 X-20.730 Y23.205 Z-3.610 F200.000
G1 X-20.718 Y23.160 Z-3.614 F200.000
G1 X-20.696 Y23.119 Z-3.619 F200.000
G1 X-20.667 Y23.082 Z-3.623 F200.000
G1 X-20.631 Y23.052 Z-3.627 F200.000
G1 X-20.591 Y23.030 Z-3.631 F200.000
G1 X-20.546 Y23.015 Z-3.636 F200.000
G1 X-20.500 Y23.010 Z-3.640 F200.000
G1 X-20.453 Y23.014 Z-3.644 F200.000
G1 X-20.408 Y23.027 Z-3.649 F200.000
G1 X-20.367 Y23.048 Z-3.653 F200.000
G1 X-20.330 Y23.077 Z-3.657 F200.000
G1 X-20.300 Y23.113 Z-3.661 F200.000
G1 X-20.278 Y23.154 Z-3.666 F200.000
G1 X-20.263 Y23.198 Z-3.670 F200.000
G1 X-20.258 Y23.245 Z-3.674 F200.000
G1 X-20.262 Y23.291 Z-3.678 F200.000
G1 X-20.275 Y23.336 Z-3.683 F200.000
G1 X-20.296 Y23.377 Z-3.687 F200.000
G1 X-20.325 Y23.414 Z-3.691 F200.000
G1 X-20.361 Y23.444 Z-3.695 F200.000
G1 X-20.402 Y23.467 Z-3.700 F200.000
G1 X-20.446 Y23.481 Z-3.704 F200.000
G1 X-20.493 Y23.486 Z-3.708 F200.000
G1 X-20.539 Y23.482 Z-3.712 F200.000
G1 X-20.584 Y23.469 Z-3.717 F200.000
G1 X-20.626 Y23.448 Z-3.721 F200.000
G1 X-20.662 Y23.419 Z-3.725 F200.000
G1 X-20.692 Y23.383 Z-3.730 F200.000
G1 X-20.715 Y23.343 Z-3.734 F200.000
G1 X-20.729 Y23.298 Z-3.738 F200.000
G1 X-20.734 Y23.252 Z-3.742 F200.000
G1 X-20.730 Y23.205 Z-3.747 F200.000
G1 X-20.718 Y23.160 Z-3.751 F200.000
G1 X-20.696 Y23.119 Z-3.755 F200.000
G1 X-20.667 Y23.082 Z-3.759 F200.000
G1 X-20.631 Y23.052 Z-3.764 F200.000
G1 X-20.591 Y23.030 Z-3.768 F200.000
G1 X-20.546 Y23.015 Z-3.772 F200.000
G1 X-20.500 Y23.010 Z-3.776 F200.000
G1 X-20.453 Y23.014 Z-3.781 F200.000
G1 X-20.408 Y23.027 Z-3.785 F200.000
G1 X-20.367 Y23.048 Z-3.789 F200.000
G1 X-20.330 Y23.077 Z-3.793 F200.000
G1 X-20.300 Y23.113 Z-3.798 F200.000
G1 X-20.278 Y23.154 Z-3.802 F200.000
G1 X-20.263 Y23.198 Z-3.806 F200.000
G1 X-20.258 Y23.245 Z-3.810 F200.000
G1 X-20.262 Y23.291 Z-3.815 F200.000
G1 X-20.275 Y23.336 Z-3.819 F200.000
G1 X-20.296 Y23.377 Z-3.823 F200.000
G1 X-20.325 Y23.414 Z-3.828 F200.000
G1 X-20.361 Y23.444 Z-3.832 F200.000
G1 X-20.402 Y23.467 Z-3.836 F200.000
G1 X-20.446 Y23.481 Z-3.840 F200.000
G1 X-20.493 Y23.486 Z-3.845 F200.000
G1 X-20.539 Y23.482 Z-3.849 F200.000
G1 X-20.584 Y23.469 Z-3.853 F200.000
G1 X-20.626 Y23.448 Z-3.857 F200.000
G1 X-20.662 Y23.419 Z-3.862 F200.000
G1 X-20.692 Y23.383 Z-3.866 F200.000
G1 X-20.715 Y23.343 Z-3.870 F200.000
G1 X-20.729 Y23.298 Z-3.874 F200.000
G1 X-20.734 Y23.252 Z-3.879 F200.000
G1 X-20.730 Y23.205 Z-3.883 F200.000
G1 X-20.718 Y23.160 Z-3.887 F200.000
G1 X-20.696 Y23.119 Z-3.891 F200.000
G1 X-20.667 Y23.082 Z-3.896 F200.000
G1 X-20.631 Y23.052 Z-3.900 F200.000
G1 X-20.591 Y23.030 Z-3.904 F200.000
G1 X-20.546 Y23.015 Z-3.909 F200.000
G1 X-20.500 Y23.010 Z-3.913 F200.000
G1 X-20.453 Y23.014 Z-3.917 F200.000
G1 X-20.408 Y23.027 Z-3.921 F200.000
G1 X-20.367 Y23.048 Z-3.926 F200.000
G1 X-20.330 Y23.077 Z-3.930 F200.000
G1 X-20.300 Y23.113 Z-3.934 F200.000
G1 X-20.278 Y23.154 Z-3.938 F200.000
G1 X-20.263 Y23.198 Z-3.943 F200.000
G1 X-20.258 Y23.245 Z-3.947 F200.000
G1 X-20.262 Y23.291 Z-3.951 F200.000
G1 X-20.275 Y23.336 Z-3.955 F200.000
G1 X-20.296 Y23.377 Z-3.960 F200.000
G1 X-20.325 Y23.414 Z-3.964 F200.000
G1 X-20.361 Y23.444 Z-3.968 F200.000
G1 X-20.402 Y23.467 Z-3.972 F200.000
G1 X-20.446 Y23.481 Z-3.977 F200.000
G1 X-20.493 Y23.486 Z-3.981 F200.000
G1 X-20.539 Y23.482 Z-3.985 F200.000
G1 X-20.584 Y23.469 Z-3.990 F200.000
G1 X-20.626 Y23.448 Z-3.994 F200.000
G1 X-20.662 Y23.419 Z-3.998 F200.000
G1 X-20.692 Y23.383 Z-4.002 F200.000
G1 X-20.715 Y23.343 Z-4.007 F200.000
G1 X-20.729 Y23.298 Z-4.011 F200.000
G1 X-20.734 Y23.252 Z-4.015 F200.000
G1 X-20.730 Y23.205 Z-4.019 F200.000
G1 X-20.718 Y23.160 Z-4.024 F200.000
G1 X-20.696 Y23.119 Z-4.028 F200.000
G1 X-20.667 Y23.082 Z-4.032 F200.000
G1 X-20.631 Y23.052 Z-4.036 F200.000
G1 X-20.591 Y23.030 Z-4.041 F200.000
G1 X-20.546 Y23.015 Z-4.045 F200.000
G1 X-20.500 Y23.010 Z-4.049 F200.000
G1 X-20.453 Y23.014 Z-4.053 F200.000
G1 X-20.408 Y23.027 Z-4.058 F200.000
G1 X-20.367 Y23.048 Z-4.062 F200.000
G1 X-20.330 Y23.077 Z-4.066 F200.000
G1 X-20.300 Y23.113 Z-4.070 F200.000
G1 X-20.278 Y23.154 Z-4.075 F200.000
G1 X-20.263 Y23.198 Z-4.079 F200.000
G1 X-20.258 Y23.245 Z-4.083 F200.000
G1 X-20.262 Y23.291 Z-4.088 F200.000
G1 X-20.275 Y23.336 Z-4.092 F200.000
G1 X-20.296 Y23.377 Z-4.096 F200.000
G1 X-20.325 Y23.414 Z-4.100 F200.000
G1 X-20.361 Y23.444 Z-4.105 F200.000
G1 X-20.402 Y23.467 Z-4.109 F200.000
G1 X-20.446 Y23.481 Z-4.113 F200.000
G1 X-20.493 Y23.486 Z-4.117 F200.000
G1 X-20.539 Y23.482 Z-4.122 F200.000
G1 X-20.584 Y23.469 Z-4.126 F200.000
G1 X-20.626 Y23.448 Z-4.130 F200.000
G1 X-20.662 Y23.419 Z-4.134 F200.000
G1 X-20.692 Y23.383 Z-4.139 F200.000
G1 X-20.715 Y23.343 Z-4.143 F200.000
G1 X-20.729 Y23.298 Z-4.147 F200.000
G1 X-20.734 Y23.252 Z-4.151 F200.000
G1 X-20.730 Y23.205 Z-4.156 F200.000
G1 X-20.718 Y23.160 Z-4.160 F200.000
G1 X-20.696 Y23.119 Z-4.164 F200.000
G1 X-20.667 Y23.082 Z-4.169 F200.000
G1 X-20.631 Y23.052 Z-4.173 F200.000
G1 X-20.591 Y23.030 Z-4.177 F200.000
G1 X-20.546 Y23.015 Z-4.181 F200.000
G1 X-20.500 Y23.010 Z-4.186 F200.000
G1 X-20.453 Y23.014 Z-4.190 F200.000
G1 X-20.408 Y23.027 Z-4.194 F200.000
G1 X-20.367 Y23.048 Z-4.198 F200.000
G1 X-20.330 Y23.077 Z-4.203 F200.000
G1 X-20.300 Y23.113 Z-4.207 F200.000
G1 X-20.278 Y23.154 Z-4.211 F200.000
G1 X-20.263 Y23.198 Z-4.215 F200.000
G1 X-20.258 Y23.245 Z-4.220 F200.000
G1 X-20.262 Y23.291 Z-4.224 F200.000
G1 X-20.275 Y23.336 Z-4.228 F200.000
G1 X-20.296 Y23.377 Z-4.232 F200.000
G1 X-20.325 Y23.414 Z-4.237 F200.000
G1 X-20.361 Y23.444 Z-4.241 F200.000
G1 X-20.402 Y23.467 Z-4.245 F200.000
G1 X-20.446 Y23.481 Z-4.250 F200.000
G1 X-20.493 Y23.486 Z-4.254 F200.000
G1 X-20.539 Y23.482 Z-4.258 F200.000
G1 X-20.584 Y23.469 Z-4.262 F200.000
G1 X-20.626 Y23.448 Z-4.267 F200.000
G1 X-20.662 Y23.419 Z-4.271 F200.000
G1 X-20.692 Y23.383 Z-4.275 F200.000
G1 X-20.715 Y23.343 Z-4.279 F200.000
G1 X-20.729 Y23.298 Z-4.284 F200.000
G1 X-20.734 Y23.252 Z-4.288 F200.000
G1 X-20.730 Y23.205 Z-4.292 F200.000
G1 X-20.718 Y23.160 Z-4.296 F200.000
G1 X-20.696 Y23.119 Z-4.301 F200.000
G1 X-20.667 Y23.082 Z-4.305 F200.000
G1 X-20.631 Y23.052 Z-4.309 F200.000
G1 X-20.591 Y23.030 Z-4.313 F200.000
G1 X-20.546 Y23.015 Z-4.318 F200.000
G1 X-20.500 Y23.010 Z-4.322 F200.000
G1 X-20.453 Y23.014 Z-4.326 F200.000
G1 X-20.408 Y23.027 Z-4.330 F200.000
G1 X-20.367 Y23.048 Z-4.335 F200.000
G1 X-20.330 Y23.077 Z-4.339 F200.000
G1 X-20.300 Y23.113 Z-4.343 F200.000
G1 X-20.278 Y23.154 Z-4.348 F200.000
G1 X-20.263 Y23.198 Z-4.352 F200.000
G1 X-20.258 Y23.245 Z-4.356 F200.000
G1 X-20.262 Y23.291 Z-4.360 F200.000
G1 X-20.275 Y23.336 Z-4.365 F200.000
G1 X-20.296 Y23.377 Z-4.369 F200.000
G1 X-20.325 Y23.414 Z-4.373 F200.000
G1 X-20.361 Y23.444 Z-4.377 F200.000
G1 X-20.402 Y23.467 Z-4.382 F200.000
G1 X-20.446 Y23.481 Z-4.386 F200.000
G1 X-20.493 Y23.486 Z-4.390 F200.000
G1 X-20.539 Y23.482 Z-4.394 F200.000
G1 X-20.584 Y23.469 Z-4.399 F200.000
G1 X-20.626 Y23.448 Z-4.403 F200.000
G1 X-20.662 Y23.419 Z-4.407 F200.000
G1 X-20.692 Y23.383 Z-4.411 F200.000
G1 X-20.715 Y23.343 Z-4.416 F200.000
G1 X-20.729 Y23.298 Z-4.420 F200.000
G1 X-20.734 Y23.252 Z-4.424 F200.000
G1 X-20.730 Y23.205 Z-4.429 F200.000
G1 X-20.718 Y23.160 Z-4.433 F200.000
G1 X-20.696 Y23.119 Z-4.437 F200.000
G1 X-20.667 Y23.082 Z-4.441 F200.000
G1 X-20.631 Y23.052 Z-4.446 F200.000
G1 X-20.591 Y23.030 Z-4.450 F200.000
G1 X-20.546 Y23.015 Z-4.454 F200.000
G1 X-20.500 Y23.010 Z-4.458 F200.000
G1 X-20.453 Y23.014 Z-4.463 F200.000
G1 X-20.408 Y23.027 Z-4.467 F200.000
G1 X-20.367 Y23.048 Z-4.471 F200.000
G1 X-20.330 Y23.077 Z-4.475 F200.000
G1 X-20.300 Y23.113 Z-4.480 F200.000
G1 X-20.278 Y23.154 Z-4.484 F200.000
G1 X-20.263 Y23.198 Z-4.488 F200.000
G1 X-20.258 Y23.245 Z-4.492 F200.000
G1 X-20.262 Y23.291 Z-4.497 F200.000
G1 X-20.275 Y23.336 Z-4.501 F200.000
G1 X-20.296 Y23.377 Z-4.505 F200.000
G1 X-20.325 Y23.414 Z-4.510 F200.000
G1 X-20.361 Y23.444 Z-4.514 F200.000
G1 X-20.402 Y23.467 Z-4.518 F200.000
G1 X-20.446 Y23.481 Z-4.522 F200.000
G1 X-20.493 Y23.486 Z-4.527 F200.000
G1 X-20.539 Y23.482 Z-4.531 F200.000
G1 X-20.584 Y23.469 Z-4.535 F200.000
G1 X-20.626 Y23.448 Z-4.539 F200.000
G1 X-20.662 Y23.419 Z-4.544 F200.000
G1 X-20.692 Y23.383 Z-4.548 F200.000
G1 X-20.715 Y23.343 Z-4.552 F200.000
G1 X-20.729 Y23.298 Z-4.556 F200.000
G1 X-20.734 Y23.252 Z-4.561 F200.000
G1 X-20.730 Y23.205 Z-4.565 F200.000
G1 X-20.718 Y23.160 Z-4.569 F200.000
G1 X-20.696 Y23.119 Z-4.573 F200.000
G1 X-20.667 Y23.082 Z-4.578 F200.000
G1 X-20.631 Y23.052 Z-4.582 F200.000
G1 X-20.591 Y23.030 Z-4.586 F200.000
G1 X-20.546 Y23.015 Z-4.590 F200.000
G1 X-20.500 Y23.010 Z-4.595 F200.000
G1 X-20.453 Y23.014 Z-4.599 F200.000
G1 X-20.408 Y23.027 Z-4.603 F200.000
G1 X-20.367 Y23.048 Z-4.608 F200.000
G1 X-20.330 Y23.077 Z-4.612 F200.000
G1 X-20.300 Y23.113 Z-4.616 F200.000
G1 X-20.278 Y23.154 Z-4.620 F200.000
G1 X-20.263 Y23.198 Z-4.625 F200.000
G1 X-20.258 Y23.245 Z-4.629 F200.000
G1 X-20.262 Y23.291 Z-4.633 F200.000
G1 X-20.275 Y23.336 Z-4.637 F200.000
G1 X-20.296 Y23.377 Z-4.642 F200.000
G1 X-20.325 Y23.414 Z-4.646 F200.000
G1 X-20.361 Y23.444 Z-4.650 F200.000
G1 X-20.402 Y23.467 Z-4.654 F200.000
G1 X-20.446 Y23.481 Z-4.659 F200.000
G1 X-20.493 Y23.486 Z-4.663 F200.000
G1 X-20.539 Y23.482 Z-4.667 F200.000
G1 X-20.584 Y23.469 Z-4.671 F200.000
G1 X-20.626 Y23.448 Z-4.676 F200.000
G1 X-20.662 Y23.419 Z-4.680 F200.000
G1 X-20.692 Y23.383 Z-4.684 F200.000
G1 X-20.715 Y23.343 Z-4.689 F200.000
G1 X-20.729 Y23.298 Z-4.693 F200.000
G1 X-20.734 Y23.252 Z-4.697 F200.000
G1 X-20.730 Y23.205 Z-4.701 F200.000
G1 X-20.718 Y23.160 Z-4.706 F200.000
G1 X-20.696 Y23.119 Z-4.710 F200.000
G1 X-20.667 Y23.082 Z-4.714 F200.000
G1 X-20.631 Y23.052 Z-4.718 F200.000
G1 X-20.591 Y23.030 Z-4.723 F200.000
G1 X-20.546 Y23.015 Z-4.727 F200.000
G1 X-20.500 Y23.010 Z-4.731 F200.000
G1 X-20.453 Y23.014 Z-4.735 F200.000
G1 X-20.408 Y23.027 Z-4.740 F200.000
G1 X-20.367 Y23.048 Z-4.744 F200.000
G1 X-20.330 Y23.077 Z-4.748 F200.000
G1 X-20.300 Y23.113 Z-4.752 F200.000
G1 X-20.278 Y23.154 Z-4.757 F200.000
G1 X-20.263 Y23.198 Z-4.761 F200.000
G1 X-20.258 Y23.245 Z-4.765 F200.000
G1 X-20.262 Y23.291 Z-4.770 F200.000
G1 X-20.275 Y23.336 Z-4.774 F200.000
G1 X-20.296 Y23.377 Z-4.778 F200.000
G1 X-20.325 Y23.414 Z-4.782 F200.000
G1 X-20.361 Y23.444 Z-4.787 F200.000
G1 X-20.402 Y23.467 Z-4.791 F200.000
G1 X-20.446 Y23.481 Z-4.795 F200.000
G1 X-20.493 Y23.486 Z-4.799 F200.000
G1 X-20.539 Y23.482 Z-4.804 F200.000
G1 X-20.584 Y23.469 Z-4.808 F200.000
G1 X-20.626 Y23.448 Z-4.812 F200.000
G1 X-20.662 Y23.419 Z-4.816 F200.000
G1 X-20.692 Y23.383 Z-4.821 F200.000
G1 X-20.715 Y23.343 Z-4.825 F200.000
G1 X-20.729 Y23.298 Z-4.829 F200.000
G1 X-20.734 Y23.252 Z-4.833 F200.000
G1 X-20.730 Y23.205 Z-4.838 F200.000
G1 X-20.718 Y23.160 Z-4.842 F200.000
G1 X-20.696 Y23.119 Z-4.846 F200.000
G1 X-20.667 Y23.082 Z-4.850 F200.000
G1 X-20.631 Y23.052 Z-4.855 F200.000
G1 X-20.591 Y23.030 Z-4.859 F200.000
G1 X-20.546 Y23.015 Z-4.863 F200.000
G1 X-20.500 Y23.010 Z-4.868 F200.000
G1 X-20.453 Y23.014 Z-4.872 F200.000
G1 X-20.408 Y23.027 Z-4.876 F200.000
G1 X-20.367 Y23.048 Z-4.880 F200.000
G1 X-20.330 Y23.077 Z-4.885 F200.000
G1 X-20.300 Y23.113 Z-4.889 F200.000
G1 X-20.278 Y23.154 Z-4.893 F200.000
G1 X-20.263 Y23.198 Z-4.897 F200.000
G1 X-20.258 Y23.245 Z-4.902 F200.000
G1 X-20.262 Y23.291 Z-4.906 F200.000
G1 X-20.275 Y23.336 Z-4.910 F200.000
G1 X-20.296 Y23.377 Z-4.914 F200.000
G1 X-20.325 Y23.414 Z-4.919 F200.000
G1 X-20.361 Y23.444 Z-4.923 F200.000
G1 X-20.402 Y23.467 Z-4.927 F200.000
G1 X-20.446 Y23.481 Z-4.931 F200.000
G1 X-20.493 Y23.486 Z-4.936 F200.000
G1 X-20.539 Y23.482 Z-4.940 F200.000
G1 X-20.584 Y23.469 Z-4.944 F200.000
G1 X-20.626 Y23.448 Z-4.949 F200.000
G1 X-20.662 Y23.419 Z-4.953 F200.000
G1 X-20.692 Y23.383 Z-4.957 F200.000
G1 X-20.715 Y23.343 Z-4.961 F200.000
G1 X-20.729 Y23.298 Z-4.966 F200.000
G1 X-20.734 Y23.252 Z-4.970 F200.000
G1 X-20.730 Y23.205 Z-4.974 F200.000
G1 X-20.718 Y23.160 Z-4.978 F200.000
G1 X-20.696 Y23.119 Z-4.983 F200.000
G1 X-20.667 Y23.082 Z-4.987 F200.000
G1 X-20.631 Y23.052 Z-4.991 F200.000
G1 X-20.591 Y23.030 Z-4.995 F200.000
G1 X-20.546 Y23.015 Z-5.000 F200.000
G1 X-20.500 Y23.010 Z-5.000 F200.000
G1 X-20.453 Y23.014 Z-5.000 F200.000
G1 X-20.408 Y23.027 Z-5.000 F200.000
G1 X-20.367 Y23.048 Z-5.000 F200.000
G1 X-20.330 Y23.077 Z-5.000 F200.000
G1 X-20.300 Y23.113 Z-5.000 F200.000
G1 X-20.278 Y23.154 Z-5.000 F200.000
G1 X-20.263 Y23.198 Z-5.000 F200.000
G1 X-20.258 Y23.245 Z-5.000 F200.000
G1 X-20.262 Y23.291 Z-5.000 F200.000
G1 X-20.275 Y23.336 Z-5.000 F200.000
G1 X-20.296 Y23.377 Z-5.000 F200.000
G1 X-20.325 Y23.414 Z-5.000 F200.000
G1 X-20.361 Y23.444 Z-5.000 F200.000
G1 X-20.402 Y23.467 Z-5.000 F200.000
G1 X-20.446 Y23.481 Z-5.000 F200.000
G1 X-20.493 Y23.486 Z-5.000 F200.000
G1 X-20.539 Y23.482 Z-5.000 F200.000
G1 X-20.584 Y23.469 Z-5.000 F200.000
G1 X-20.626 Y23.448 Z-5.000 F200.000
G1 X-20.662 Y23.419 Z-5.000 F200.000
G1 X-20.692 Y23.383 Z-5.000 F200.000
G1 X-20.715 Y23.343 Z-5.000 F200.000
G1 X-20.729 Y23.298 Z-5.000 F200.000
G1 X-20.734 Y23.252 Z-5.000 F200.000
G1 X-20.730 Y23.205 Z-5.000 F200.000
G1 X-20.718 Y23.160 Z-5.000 F200.000
G1 X-20.696 Y23.119 Z-5.000 F200.000
G1 X-20.667 Y23.082 Z-5.000 F200.000
G1 X-20.631 Y23.052 Z-5.000 F200.000
G1 X-20.591 Y23.030 Z-5.000 F200.000
G1 X-20.546 Y23.015 Z-5.000 F200.000
(Adaptive - depth: -5.000000)
G1 X-20.496 Y23.000 F200.000
G1 X-20.440 Y22.974 F200.000
G1 X-20.380 Y22.970 F200.000
G1 X-20.320 Y22.985 F200.000
G1 X-20.267 Y23.011 F200.000
G1 X-20.222 Y23.049 F200.000
G1 X-20.184 Y23.094 F200.000
G1 X-20.158 Y23.147 F200.000
G1 X-20.135 Y23.259 F200.000
G1 X-20.139 Y23.316 F200.000
G1 X-20.177 Y23.425 F200.000
G1 X-20.244 Y23.515 F200.000
G1 X-20.289 Y23.553 F200.000
G1 X-20.395 Y23.598 F200.000
G1 X-20.451 Y23.609 F200.000
G1 X-20.564 Y23.602 F200.000
G1 X-20.673 Y23.556 F200.000
G1 X-20.722 Y23.519 F200.000
G1 X-20.797 Y23.425 F200.000
G1 X-20.835 Y23.308 F200.000
G1 X-20.842 Y23.248 F200.000
G1 X-20.820 Y23.128 F200.000
G1 X-20.793 Y23.071 F200.000
G1 X-20.714 Y22.970 F200.000
G1 X-20.617 Y22.895 F200.000
G1 X-20.560 Y22.865 F200.000
G1 X-20.440 Y22.835 F200.000
G1 X-20.380 Y22.831 F200.000
G1 X-20.320 Y22.838 F200.000
G1 X-20.203 Y22.883 F200.000
G1 X-20.105 Y22.959 F200.000
G1 X-20.034 Y23.053 F200.000
G1 X-19.974 Y23.218 F200.000
G1 X-19.981 Y23.387 F200.000
G1 X-20.019 Y23.496 F200.000
G1 X-20.083 Y23.590 F200.000
G1 X-20.169 Y23.669 F200.000
G1 X-20.271 Y23.726 F200.000
G1 X-20.440 Y23.763 F200.000
G1 X-20.609 Y23.744 F200.000
G1 X-20.718 Y23.699 F200.000
G1 X-20.812 Y23.628 F200.000
G1 X-20.887 Y23.534 F200.000
G1 X-20.940 Y23.425 F200.000
G1 X-20.966 Y23.305 F200.000
G1 X-20.962 Y23.184 F200.000
G1 X-20.932 Y23.064 F200.000
G1 X-20.880 Y22.951 F200.000
G1 X-20.805 Y22.850 F200.000
G1 X-20.711 Y22.767 F200.000
G1 X-20.602 Y22.707 F200.000
G1 X-20.481 Y22.673 F200.000
G1 X-20.361 Y22.662 F200.000
G1 X-20.241 Y22.677 F200.000
G1 X-20.124 Y22.718 F200.000
G1 X-19.970 Y22.820 F200.000
G1 X-19.925 Y22.861 F200.000
G1 X-19.853 Y22.959 F200.000
G1 X-19.786 Y23.120 F200.000
G1 X-19.786 Y23.346 F200.000
G1 X-19.805 Y23.459 F200.000
G1 X-19.944 Y23.707 F200.000
G1 X-19.981 Y23.752 F200.000
G1 X-20.117 Y23.861 F200.000
G1 X-20.271 Y23.936 F200.000
G1 X-20.327 Y23.951 F200.000
G1 X-20.496 Y23.962 F200.000
G1 X-20.722 Y23.921 F200.000
G1 X-20.827 Y23.868 F200.000
G1 X-20.925 Y23.797 F200.000
G1 X-21.038 Y23.662 F200.000
G1 X-21.094 Y23.553 F200.000
G1 X-21.139 Y23.376 F200.000
G1 X-21.143 Y23.195 F200.000
G1 X-21.124 Y23.075 F200.000
G1 X-21.056 Y22.898 F200.000
G1 X-20.955 Y22.741 F200.000
G1 X-20.820 Y22.609 F200.000
G1 X-20.703 Y22.564 F200.000
G1 X-20.523 Y22.534 F200.000
G1 X-20.342 Y22.549 F200.000
G1 X-20.113 Y22.643 F200.000
G1 X-19.970 Y22.756 F200.000
G1 X-19.970 Y22.756 F200.000
G1 X-19.902 Y22.895 F200.000
G1 X-19.895 Y22.951 F200.000
G0 X-19.898 Y22.977
G0 X-19.981 Y23.102
G0 X-20.545 Y23.763
G1 X-20.564 Y23.786 F200.000
G1 X-20.647 Y23.872 F200.000
G1 X-20.699 Y23.895 F200.000
G1 X-20.789 Y23.887 F200.000
G1 X-20.910 Y23.842 F200.000
G1 X-20.910 Y23.842 F200.000
G1 X-21.004 Y23.763 F200.000
G1 X-21.083 Y23.669 F200.000
G1 X-21.169 Y23.508 F200.000
G1 X-21.203 Y23.387 F200.000
G1 X-21.211 Y23.147 F200.000
G1 X-21.154 Y22.966 F200.000
G1 X-21.019 Y22.756 F200.000
G1 X-20.974 Y22.714 F200.000
G1 X-20.974 Y22.714 F200.000
G1 X-20.955 Y22.707 F200.000
G0 X-20.936 Y22.711
G0 X-20.929 Y22.722
G1 X-20.929 Y22.737 F200.000
G1 X-20.951 Y22.741 F200.000
G1 X-20.974 Y22.718 F200.000
G1 X-20.974 Y22.684 F200.000
G1 X-20.974 Y22.684 F200.000
G1 X-20.846 Y22.594 F200.000
G1 X-20.793 Y22.568 F200.000
G1 X-20.654 Y22.526 F200.000
G1 X-20.571 Y22.511 F200.000
G1 X-20.350 Y22.519 F200.000
G1 X-20.143 Y22.598 F200.000
G1 X-19.970 Y22.729 F200.000
G1 X-19.906 Y22.797 F200.000
G1 X-19.812 Y22.959 F200.000
G1 X-19.771 Y23.071 F200.000
G1 X-19.759 Y23.128 F200.000
G1 X-19.756 Y23.282 F200.000
G1 X-19.763 Y23.391 F200.000
G1 X-19.789 Y23.496 F200.000
G1 X-19.842 Y23.602 F200.000
G1 X-19.921 Y23.722 F200.000
G1 X-20.026 Y23.831 F200.000
G1 X-20.154 Y23.914 F200.000
G1 X-20.305 Y23.977 F200.000
G1 X-20.353 Y23.989 F200.000
G1 X-20.586 Y23.989 F200.000
G1 X-20.778 Y23.940 F200.000
G1 X-20.891 Y23.883 F200.000
G1 X-21.019 Y23.786 F200.000
G1 X-21.094 Y23.692 F200.000
G1 X-21.169 Y23.568 F200.000
G1 X-21.222 Y23.421 F200.000
G1 X-21.241 Y23.312 F200.000
G1 X-21.222 Y23.064 F200.000
G1 X-21.173 Y22.940 F200.000
G1 X-21.083 Y22.793 F200.000
G1 X-20.974 Y22.684 F200.000
G1 X-20.974 Y22.684 F200.000
G0 Z5.000
(Helix to depth: -5.000000)
G0 Z5.000
G0 X0.221 Y0.088 Z5.000
G0 X0.221 Y0.088 Z3.000
G1 X0.221 Y0.088 Z0.000 F200.000
G1 X0.221 Y0.088 Z0.000 F200.000
G1 X0.200 Y0.129 Z-0.004 F200.000
G1 X0.171 Y0.166 Z-0.009 F200.000
G1 X0.135 Y0.196 Z-0.013 F200.000
G1 X0.094 Y0.219 Z-0.017 F200.000
G1 X0.050 Y0.233 Z-0.021 F200.000
G1 X0.004 Y0.238 Z-0.026 F200.000
G1 X-0.043 Y0.234 Z-0.030 F200.000
G1 X-0.088 Y0.221 Z-0.034 F200.000
G1 X-0.129 Y0.200 Z-0.038 F200.000
G1 X-0.166 Y0.171 Z-0.043 F200.000
G1 X-0.196 Y0.135 Z-0.047 F200.000
G1 X-0.219 Y0.094 Z-0.051 F200.000
G1 X-0.233 Y0.050 Z-0.055 F200.000
G1 X-0.238 Y0.004 Z-0.060 F200.000
G1 X-0.234 Y-0.043 Z-0.064 F200.000
G1 X-0.221 Y-0.088 Z-0.068 F200.000
G1 X-0.200 Y-0.129 Z-0.072 F200.000
G1 X-0.171 Y-0.166 Z-0.077 F200.000
G1 X-0.135 Y-0.196 Z-0.081 F200.000
G1 X-0.094 Y-0.219 Z-0.085 F200.000
G1 X-0.050 Y-0.233 Z-0.090 F200.000
G1 X-0.004 Y-0.238 Z-0.094 F200.000
G1 X0.043 Y-0.234 Z-0.098 F200.000
G1 X0.088 Y-0.221 Z-0.102 F200.000
G1 X0.129 Y-0.200 Z-0.107 F200.000
G1 X0.166 Y-0.171 Z-0.111 F200.000
G1 X0.196 Y-0.135 Z-0.115 F200.000
G1 X0.219 Y-0.094 Z-0.119 F200.000
G1 X0.233 Y-0.050 Z-0.124 F200.000
G1 X0.238 Y-0.004 Z-0.128 F200.000
G1 X0.234 Y0.043 Z-0.132 F200.000
G1 X0.221 Y0.088 Z-0.136 F200.000
G1 X0.200 Y0.129 Z-0.141 F200.000
G1 X0.171 Y0.166 Z-0.145 F200.000
G1 X0.135 Y0.196 Z-0.149 F200.000
G1 X0.094 Y0.219 Z-0.153 F200.000
G1 X0.050 Y0.233 Z-0.158 F200.000
G1 X0.004 Y0.238 Z-0.162 F200.000
G1 X-0.043 Y0.234 Z-0.166 F200.000
G1 X-0.088 Y0.221 Z-0.170 F200.000
G1 X-0.129 Y0.200 Z-0.175 F200.000
G1 X-0.166 Y0.171 Z-0.179 F200.000
G1 X-0.196 Y0.135 Z-0.183 F200.000
G1 X-0.219 Y0.094 Z-0.188 F200.000
G1 X-0.233 Y0.050 Z-0.192 F200.000
G1 X-0.238 Y0.004 Z-0.196 F200.000
G1 X-0.234 Y-0.043 Z-0.200 F200.000
G1 X-0.221 Y-0.088 Z-0.205 F200.000
G1 X-0.200 Y-0.129 Z-0.209 F200.000
G1 X-0.171 Y-0.166 Z-0.213 F200.000
G1 X-0.135 Y-0.196 Z-0.217 F200.000
G1 X-0.094 Y-0.219 Z-0.222 F200.000
G1 X-0.050 Y-0.233 Z-0.226 F200.000
G1 X-0.004 Y-0.238 Z-0.230 F200.000
G1 X0.043 Y-0.234 Z-0.234 F200.000
G1 X0.088 Y-0.221 Z-0.239 F200.000
G1 X0.129 Y-0.200 Z-0.243 F200.000
G1 X0.166 Y-0.171 Z-0.247 F200.000
G1 X0.196 Y-0.135 Z-0.251 F200.000
G1 X0.219 Y-0.094 Z-0.256 F200.000
G1 X0.233 Y-0.050 Z-0.260 F200.000
G1 X0.238 Y-0.004 Z-0.264 F200.000
G1 X0.234 Y0.043 Z-0.269 F200.000
G1 X0.221 Y0.088 Z-0.273 F200.000
G1 X0.200 Y0.129 Z-0.277 F200.000
G1 X0.171 Y0.166 Z-0.281 F200.000
G1 X0.135 Y0.196 Z-0.286 F200.000
G1 X0.094 Y0.219 Z-0.290 F200.000
G1 X0.050 Y0.233 Z-0.294 F200.000
G1 X0.004 Y0.238 Z-0.298 F200.000
G1 X-0.043 Y0.234 Z-0.303 F200.000
G1 X-0.088 Y0.221 Z-0.307 F200.000
G1 X-0.129 Y0.200 Z-0.311 F200.000
G1 X-0.166 Y0.171 Z-0.315 F200.000
G1 X-0.196 Y0.135 Z-0.320 F200.000
G1 X-0.219 Y0.094 Z-0.324 F200.000
G1 X-0.233 Y0.050 Z-0.328 F200.000
G1 X-0.238 Y0.004 Z-0.332 F200.000
G1 X-0.234 Y-0.043 Z-0.337 F200.000
