(ASPIRATIONCLAMPCUT)
(T1  D=3.175 CR=0. - ZMIN=-10. - FLAT END MILL)
G90 G94 G91.1 G40 G49 G17
G21

(DRILL1)
M5
M9
T1
S9170 M3
G54
M8
G0 X-67.656 Y-63.682
G43 Z10. H1
Z5.
G98 G73 X-67.656 Y-63.682 Z-10. R5. Q2. F762.
X-4.165 Y-62.57
X5.334 Y-13.067
X84.168 Y11.662
G80
Z10.

(2D POCKET1)
M8
G0 X76.541 Y66.342
Z10.
Z5.
G1 Z2.5 F465.
G3 X79.359 Y67.418 Z1.665 R1.508
X76.541 Y66.342 Z0.829 R1.508
X79.359 Y67.418 Z-0.006 R1.508
X76.541 Y66.342 Z-0.842 R1.508
X79.359 Y67.418 Z-1.677 R1.508
X77.938 Y68.388 Z-2. R1.508
G1 X76.827 Y68.379
G3 X76.733 Y68.159 R0.13
G2 X78.335 Y66.347 R34.884
G3 X78.578 Y66.436 R0.137
G1 X78.564 Y68.074
G3 X78.242 Y68.39 R0.319
G1 X77.938 Y68.388
G2 X76.975 Y69.018 R1.037
G3 X76.012 Y69.649 R1.037
G1 X73.838 Y69.631
G3 X73.733 Y69.381 R0.148
G2 X74.099 Y68.962 R5.779
G3 X74.133 Y68.925 R0.309
G2 X79.66 Y62.365 R32.815
G3 X79.888 Y62.433 R0.124
G1 X79.831 Y69.367
G3 X79.515 Y69.678 R0.313
G1 X76.012 Y69.649
X26.984 Y67.968
X26.676 Y67.966
G3 X26.363 Y67.648 R0.315
G1 X26.377 Y66.006
G3 X26.622 Y65.921 R0.137
G2 X28.157 Y67.72 R34.099
G3 X28.043 Y67.977 R0.153
G1 X26.984 Y67.968
G2 X26.066 Y68.44 R1.112
G3 X25.083 Y68.124 R0.541
G1 X25.133 Y61.982
G3 X25.362 Y61.918 R0.124
G2 X30.744 Y68.534 R33.297
G3 X30.789 Y68.584 R0.414
G2 X31.164 Y69.03 R5.779
G3 X31.055 Y69.279 R0.148
G1 X25.383 Y69.232
G3 X25.076 Y68.92 R0.309
G1 X25.083 Y68.124
G2 X24.151 Y66.692 R1.547
G3 X23.219 Y65.259 R1.537
G1 X23.278 Y60.57
G2 X23.193 Y59.841 R2.95
X22.972 Y59.141 R5.721
G3 X23.167 Y58.859 R0.207
G1 X25.434 Y58.878
G3 X26.017 Y59.229 R0.668
G2 X32.087 Y67.174 R31.655
G3 X32.294 Y67.406 R1.795
G2 X33.64 Y68.565 R4.094
X35.361 Y69.005 R3.706
G1 X69.537 Y69.286
G2 X71.254 Y68.88 R3.703
X72.615 Y67.757 R4.097
G3 X72.819 Y67.537 R1.795
G2 X79.05 Y59.666 R31.209
G3 X79.638 Y59.324 R0.668
G1 X81.905 Y59.343
G3 X82.095 Y59.628 R0.207
G2 X81.863 Y60.325 R5.718
X81.766 Y61.052 R2.951
G1 X81.726 Y71.288
G3 X81.404 Y71.605 R0.319
G1 X23.462 Y71.128
G3 X23.149 Y70.81 R0.315
G1 X23.219 Y65.259
G2 X22.081 Y63.517 R1.867
G3 X20.944 Y61.774 R1.88
G1 X20.954 Y60.551
G2 X20.795 Y59.845 R1.588
G3 X19.397 Y56.548 R35.413
G1 X27.258 Y56.613
G2 X33.986 Y65.827 R29.088
X35.38 Y66.68 R1.588
G1 X69.556 Y66.962
G2 X70.956 Y66.147 R1.587
X77.852 Y57.03 R29.087
G1 X85.713 Y57.094
G3 X84.261 Y60.368 R35.413
G2 X84.09 Y61.072 R1.587
G1 X83.991 Y73.149
G3 X83.9 Y73.905 R3.413
G1 X20.933 Y73.387
G3 X20.854 Y72.631 R3.413
G1 X20.944 Y61.774
G3 X23.731 Y60.988 Z-2.534 R1.508
G1 X27.326 Y66.752 Z-3.468
G2 X27.462 Y66.938 Z-3.5 R1.508
X28.157 Y67.72 R34.099
G3 X28.043 Y67.977 R0.153
G1 X26.676 Y67.966
G3 X26.363 Y67.648 R0.315
G1 X26.377 Y66.006
G3 X26.622 Y65.921 R0.137
G2 X27.462 Y66.938 R34.099
X28.588 Y67.245 R1.043
G3 X29.721 Y67.52 R1.09
G2 X30.744 Y68.534 R33.297
G3 X30.789 Y68.584 R0.414
G2 X31.164 Y69.03 R5.779
G3 X31.055 Y69.279 R0.148
G1 X25.383 Y69.232
G3 X25.076 Y68.92 R0.309
G1 X25.133 Y61.982
G3 X25.362 Y61.918 R0.124
G2 X29.721 Y67.52 R33.297
X29.866 Y67.581 R0.2
G1 X77.333 Y67.411
G2 X77.482 Y67.344 R0.2
X78.335 Y66.347 R34.884
G3 X78.578 Y66.436 R0.137
G1 X78.564 Y68.074
G3 X78.242 Y68.39 R0.319
G1 X76.827 Y68.379
G3 X76.733 Y68.159 R0.13
G2 X77.482 Y67.344 R34.884
X77.636 Y66.191 R1.039
G3 X77.757 Y65.035 R1.086
G2 X79.66 Y62.365 R32.815
G3 X79.888 Y62.433 R0.124
G1 X79.831 Y69.367
G3 X79.515 Y69.678 R0.313
G1 X73.838 Y69.631
G3 X73.733 Y69.381 R0.148
G2 X74.099 Y68.962 R5.779
G3 X74.133 Y68.925 R0.309
G2 X77.757 Y65.035 R32.815
X77.885 Y63.28 R1.567
G3 X77.931 Y61.52 R1.681
G2 X79.05 Y59.666 R31.209
G3 X79.638 Y59.324 R0.668
G1 X81.905 Y59.343
G3 X82.095 Y59.628 R0.207
G2 X81.863 Y60.325 R5.718
X81.766 Y61.052 R2.951
G1 X81.726 Y71.288
G3 X81.404 Y71.605 R0.319
G1 X23.462 Y71.128
G3 X23.149 Y70.81 R0.315
G1 X23.278 Y60.57
G2 X23.193 Y59.841 R2.95
X22.972 Y59.141 R5.721
G3 X23.167 Y58.859 R0.207
G1 X25.434 Y58.878
G3 X26.017 Y59.229 R0.668
G2 X32.087 Y67.174 R31.655
G3 X32.294 Y67.406 R1.795
G2 X33.64 Y68.565 R4.094
X35.361 Y69.005 R3.706
G1 X69.537 Y69.286
G2 X71.254 Y68.88 R3.703
X72.615 Y67.757 R4.097
G3 X72.819 Y67.537 R1.795
G2 X77.931 Y61.52 R31.209
X77.886 Y59.41 R1.872
G3 X77.717 Y57.306 R2.051
G2 X77.852 Y57.03 R29.087
G1 X85.713 Y57.094
G3 X84.261 Y60.368 R35.413
G2 X84.09 Y61.072 R1.587
G1 X83.991 Y73.149
G3 X83.9 Y73.905 R3.413
G1 X20.933 Y73.387
G3 X20.854 Y72.631 R3.413
G1 X20.954 Y60.551
G2 X20.795 Y59.845 R1.588
G3 X19.397 Y56.548 R35.413
G1 X27.258 Y56.613
G2 X33.986 Y65.827 R29.088
X35.38 Y66.68 R1.588
G1 X69.556 Y66.962
G2 X70.956 Y66.147 R1.587
X77.717 Y57.306 R29.087
G1 X78.158 Y57.524 Z-3.451
G0 Z10.
X-3.014 Y59.265
Z5.
G1 Z2.5 F465.
G3 X-16.799 Y39.163 Z-2. R24.413
X-16.873 Y37.251 R24.413
X5.952 Y12.891 R24.413
G1 Y14.72
G2 Y59.783 R22.588
G1 Y61.612
G3 X-16.799 Y39.163 R24.413
X-16.873 Y37.251 Z-2.168 R24.413
X-8.449 Y18.803 Z-4. R24.413
X5.952 Y12.891 R24.413
G1 Y14.72
G2 Y59.783 R22.588
G1 Y61.612
G3 X-16.873 Y37.251 R24.413
X-8.449 Y18.803 R24.413
X1.581 Y13.577 Z-5. R24.413
X5.952 Y12.891 R24.413
G1 Y14.72
G2 Y59.783 R22.588
G1 Y61.612
G3 X-16.873 Y37.251 R24.413
X1.581 Y13.577 R24.413
G1 X1.728 Y14.162 Z-4.94
G0 Z5.
X-11.598 Y-61.112
G1 Z2.5 F465.
X-11.53 Y-61.111 Z2.488
X-11.912 Y-39.264 Z-1.365
G3 X-12.563 Y-35.738 Z-2. R10.913
X-23.014 Y-28.545 R10.913
G1 X-50.01 Y-29.017
G3 X-60.73 Y-40.119 R10.912
G1 X-60.347 Y-61.966
X-58.522 Y-61.934
X-58.905 Y-40.087
G2 X-49.978 Y-30.842 R9.088
G1 X-22.982 Y-30.369
G2 X-13.737 Y-39.296 R9.088
G1 X-13.354 Y-61.143
X-11.53 Y-61.111
X-11.912 Y-39.264
G3 X-12.563 Y-35.738 R10.913
X-23.014 Y-28.545 Z-2.827 R10.913
G1 X-42.209 Y-28.881 Z-4.
X-50.01 Y-29.017
G3 X-60.73 Y-40.119 R10.912
G1 X-60.347 Y-61.966
X-58.522 Y-61.934
X-58.905 Y-40.087
G2 X-49.978 Y-30.842 R9.088
G1 X-22.982 Y-30.369
G2 X-13.737 Y-39.296 R9.088
G1 X-13.354 Y-61.143
X-11.53 Y-61.111
X-11.912 Y-39.264
G3 X-23.014 Y-28.545 R10.913
G1 X-42.209 Y-28.881
X-50.01 Y-29.017 Z-4.477
G3 X-57.666 Y-32.345 Z-5. R10.912
X-60.73 Y-40.119 R10.912
G1 X-60.347 Y-61.966
X-58.522 Y-61.934
X-58.905 Y-40.087
G2 X-49.978 Y-30.842 R9.088
G1 X-22.982 Y-30.369
G2 X-13.737 Y-39.296 R9.088
G1 X-13.354 Y-61.143
X-11.53 Y-61.111
X-11.912 Y-39.264
G3 X-23.014 Y-28.545 R10.913
G1 X-42.209 Y-28.881
X-50.01 Y-29.017
G3 X-57.666 Y-32.345 R10.912
G1 X-57.233 Y-32.765 Z-4.94
G0 Z10.

(2D CONTOUR1)
M8
G0 X-74.639 Y-0.11
Z10.
Z5.
G1 Z3. F762.
Z2.5
G2 X-89.028 Y19.173 Z-2. R21.587 F465.
X-89.055 Y20.251 R21.587
G1 Y54.251
G2 X-67.468 Y75.839 R21.587
G1 X7.539
G2 X7.635 Y72.667 R1.588
G1 X7.053 Y72.632
G3 X3.877 Y69.002 R3.663
X7.539 Y65.339 R3.663
G2 X9.127 Y63.751 R1.588
G1 Y56.251
G2 X7.539 Y54.664 R1.587
G3 Y19.839 R17.412
G2 X9.127 Y18.251 R1.588
G1 Y10.752
G2 X7.539 Y9.164 R1.588
G3 X4.949 Y8.091 R3.662
G1 X-4.013 Y-0.871
G2 X-5.136 Y-1.336 R1.587
G1 X-67.468
G2 X-89.028 Y19.173 R21.587
X-89.055 Y20.251 Z-2.039 R21.587
G1 Y54.251 Z-3.265
G2 X-80.134 Y71.733 Z-4. R21.588
X-67.468 Y75.839 R21.587
G1 X7.539
G2 X7.635 Y72.667 R1.588
G1 X7.053 Y72.632
G3 X3.877 Y69.002 R3.663
X7.539 Y65.339 R3.663
G2 X9.127 Y63.751 R1.588
G1 Y56.251
G2 X7.539 Y54.664 R1.587
G3 Y19.839 R17.412
G2 X9.127 Y18.251 R1.588
G1 Y10.752
G2 X7.539 Y9.164 R1.588
G3 X4.949 Y8.091 R3.662
G1 X-4.013 Y-0.871
G2 X-5.136 Y-1.336 R1.587
G1 X-67.468
G2 X-89.055 Y20.251 R21.587
G1 Y54.251
G2 X-80.134 Y71.733 R21.588
X-67.468 Y75.839 Z-4.488 R21.587
G1 X-25.55 Z-6.
X7.539
G2 X7.635 Y72.667 R1.588
G1 X7.053 Y72.632
G3 X3.877 Y69.002 R3.663
X7.539 Y65.339 R3.663
G2 X9.127 Y63.751 R1.588
G1 Y56.251
G2 X7.539 Y54.664 R1.587
G3 Y19.839 R17.412
G2 X9.127 Y18.251 R1.588
G1 Y10.752
G2 X7.539 Y9.164 R1.588
G3 X4.949 Y8.091 R3.662
G1 X-4.013 Y-0.871
G2 X-5.136 Y-1.336 R1.587
G1 X-67.468
G2 X-89.055 Y20.251 R21.587
G1 Y54.251
G2 X-67.468 Y75.839 R21.587
G1 X-25.55
X7.539 Z-7.193
G2 X7.635 Y72.667 Z-7.37 R1.588
G1 X7.053 Y72.632 Z-7.391
G3 X3.877 Y69.002 Z-7.581 R3.663
X7.539 Y65.339 Z-7.788 R3.663
G2 X9.127 Y63.751 Z-7.878 R1.588
G1 Y60.374 Z-8.
Y56.251
G2 X7.539 Y54.664 R1.587
G3 Y19.839 R17.412
G2 X9.127 Y18.251 R1.588
G1 Y10.752
G2 X7.539 Y9.164 R1.588
G3 X4.949 Y8.091 R3.662
G1 X-4.013 Y-0.871
G2 X-5.136 Y-1.336 R1.587
G1 X-67.468
G2 X-89.055 Y20.251 R21.587
G1 Y54.251
G2 X-67.468 Y75.839 R21.587
G1 X-25.55
X7.539
G2 X7.635 Y72.667 R1.588
G1 X7.053 Y72.632
G3 X3.877 Y69.002 R3.663
X7.539 Y65.339 R3.663
G2 X9.127 Y63.751 R1.588
G1 Y60.374
Y56.251 Z-8.149
G2 X7.539 Y54.664 Z-8.239 R1.587
G3 X1.783 Y20.818 Z-10. R17.412
X7.539 Y19.839 R17.412
G2 X9.127 Y18.251 R1.588
G1 Y10.752
G2 X7.539 Y9.164 R1.588
G3 X4.949 Y8.091 R3.662
G1 X-4.013 Y-0.871
G2 X-5.136 Y-1.336 R1.587
G1 X-67.468
G2 X-89.055 Y20.251 R21.587
G1 Y54.251
G2 X-67.468 Y75.839 R21.587
G1 X7.539
G2 X7.635 Y72.667 R1.588
G1 X7.053 Y72.632
G3 X3.877 Y69.002 R3.663
X7.539 Y65.339 R3.663
G2 X9.127 Y63.751 R1.588
G1 Y56.251
G2 X7.539 Y54.664 R1.587
G3 X1.783 Y20.818 R17.412
G0 Z5.
X17.702 Y69.782
G1 Z3. F762.
Z2.5
X17.679 Y72.605 Z2.002 F465.
G2 Y72.659 Z1.993 R6.588
X24.212 Y79.246 Z0.178 R6.588
G1 X28.549 Y79.282 Z-0.587
G2 X34.172 Y84.288 Z-2. R6.588
X34.901 Y84.334 R6.588
G1 X69.753 Y84.621
G2 X69.807 Y84.622 R6.588
X76.188 Y79.674 R6.588
G1 X80.524 Y79.708
G2 X87.166 Y73.175 R6.587
G1 X87.262 Y61.465
G2 X89.36 Y56.306 R38.588
X88.994 Y54.716 R1.587
G1 X81.808 Y47.235
G2 X81.795 Y47.222 R1.588
G3 X80.768 Y45.075 R3.663
G1 X80.742 Y44.534
G2 X77.57 Y44.555 R1.587
G1 X77.519 Y45.999
G3 X68.839 Y63.781 R25.912
G1 X36.159 Y63.512
G3 X27.772 Y45.589 R25.913
G1 X27.745 Y44.144
G2 X24.574 Y44.065 R1.588
G1 X24.534 Y44.646
G3 X20.908 Y47.793 R3.663
X20.878 R3.662
X17.274 Y44.586 R3.663
G1 X17.244 Y44.004
G2 X14.071 Y44.11 R1.587
G1 X14.096 Y45.811
G2 X14.097 Y45.848 R1.588
X17.776 Y60.892 R38.588
G1 X17.679 Y72.605
G2 X24.212 Y79.246 R6.588
G1 X28.549 Y79.282
G2 X34.172 Y84.288 R6.588
X34.901 Y84.334 Z-2.038 R6.588
G1 X69.753 Y84.621 Z-3.84
G2 X69.807 Y84.622 Z-3.843 R6.588
X72.742 Y83.932 Z-4. R6.588
X76.188 Y79.674 R6.588
G1 X80.524 Y79.708
G2 X87.166 Y73.175 R6.587
G1 X87.262 Y61.465
G2 X89.36 Y56.306 R38.588
X88.994 Y54.716 R1.587
G1 X81.808 Y47.235
G2 X81.795 Y47.222 R1.588
G3 X80.768 Y45.075 R3.663
G1 X80.742 Y44.534
G2 X77.57 Y44.555 R1.587
G1 X77.519 Y45.999
G3 X68.839 Y63.781 R25.912
G1 X36.159 Y63.512
G3 X27.772 Y45.589 R25.913
G1 X27.745 Y44.144
G2 X24.574 Y44.065 R1.588
G1 X24.534 Y44.646
G3 X20.908 Y47.793 R3.663
X20.878 R3.662
X17.274 Y44.586 R3.663
G1 X17.244 Y44.004
G2 X14.071 Y44.11 R1.587
G1 X14.096 Y45.811
G2 X14.097 Y45.848 R1.588
X17.776 Y60.892 R38.588
G1 X17.679 Y72.605
G2 X24.212 Y79.246 R6.588
G1 X28.549 Y79.282
G2 X34.901 Y84.334 R6.588
G1 X69.753 Y84.621
G2 X69.807 Y84.622 R6.588
X72.742 Y83.932 R6.588
X76.188 Y79.674 Z-4.292 R6.588
G1 X80.524 Y79.708 Z-4.516
G2 X80.578 Z-4.519 R6.587
X87.166 Y73.175 Z-5.051 R6.587
G1 X87.262 Y61.465 Z-5.657
G2 X89.36 Y56.306 Z-5.945 R38.588
X89.338 Y55.263 Z-6. R1.587
X88.994 Y54.716 R1.587
G1 X81.808 Y47.235
G2 X81.795 Y47.222 R1.588
G3 X80.768 Y45.075 R3.663
G1 X80.742 Y44.534
G2 X77.57 Y44.555 R1.587
G1 X77.519 Y45.999
G3 X68.839 Y63.781 R25.912
G1 X36.159 Y63.512
G3 X27.772 Y45.589 R25.913
G1 X27.745 Y44.144
G2 X24.574 Y44.065 R1.588
G1 X24.534 Y44.646
G3 X20.908 Y47.793 R3.663
X20.878 R3.662
X17.274 Y44.586 R3.663
G1 X17.244 Y44.004
G2 X14.071 Y44.11 R1.587
G1 X14.096 Y45.811
G2 X14.097 Y45.848 R1.588
X17.776 Y60.892 R38.588
G1 X17.679 Y72.605
G2 X24.212 Y79.246 R6.588
G1 X28.549 Y79.282
G2 X34.901 Y84.334 R6.588
G1 X69.753 Y84.621
G2 X69.807 Y84.622 R6.588
X76.188 Y79.674 R6.588
G1 X80.524 Y79.708
G2 X87.166 Y73.175 R6.587
G1 X87.262 Y61.465
G2 X89.36 Y56.306 R38.588
X89.338 Y55.263 R1.587
X88.994 Y54.716 Z-6.034 R1.587
G1 X81.808 Y47.235 Z-6.57
G2 X81.795 Y47.222 Z-6.571 R1.588
G3 X80.768 Y45.075 Z-6.696 R3.663
G1 X80.742 Y44.534 Z-6.724
G2 X77.57 Y44.555 Z-6.975 R1.587
G1 X77.519 Y45.999 Z-7.05
G3 X70.236 Y62.447 Z-8. R25.912
X68.839 Y63.781 R25.912
G1 X36.159 Y63.512
G3 X27.772 Y45.589 R25.913
G1 X27.745 Y44.144
G2 X24.574 Y44.065 R1.588
G1 X24.534 Y44.646
G3 X20.908 Y47.793 R3.663
X20.878 R3.662
X17.274 Y44.586 R3.663
G1 X17.244 Y44.004
G2 X14.071 Y44.11 R1.587
G1 X14.096 Y45.811
G2 X14.097 Y45.848 R1.588
X17.776 Y60.892 R38.588
G1 X17.679 Y72.605
G2 X24.212 Y79.246 R6.588
G1 X28.549 Y79.282
G2 X34.901 Y84.334 R6.588
G1 X69.753 Y84.621
G2 X69.807 Y84.622 R6.588
X76.188 Y79.674 R6.588
G1 X80.524 Y79.708
G2 X87.166 Y73.175 R6.587
G1 X87.262 Y61.465
G2 X89.36 Y56.306 R38.588
X88.994 Y54.716 R1.587
G1 X81.808 Y47.235
G2 X81.795 Y47.222 R1.588
G3 X80.768 Y45.075 R3.663
G1 X80.742 Y44.534
G2 X77.57 Y44.555 R1.587
G1 X77.519 Y45.999
G3 X70.236 Y62.447 R25.912
X68.839 Y63.781 Z-8.1 R25.912
G1 X36.159 Y63.512 Z-9.79
G3 X33.387 Y60.542 Z-10. R25.913
X27.772 Y45.589 R25.913
G1 X27.745 Y44.144
G2 X24.574 Y44.065 R1.588
G1 X24.534 Y44.646
G3 X20.908 Y47.793 R3.663
X20.878 R3.662
X17.274 Y44.586 R3.663
G1 X17.244 Y44.004
G2 X14.071 Y44.11 R1.587
G1 X14.096 Y45.811
G2 X14.097 Y45.848 R1.588
X17.776 Y60.892 R38.588
G1 X17.679 Y72.605
G2 X24.212 Y79.246 R6.588
G1 X28.549 Y79.282
G2 X34.901 Y84.334 R6.588
G1 X69.753 Y84.621
G2 X69.807 Y84.622 R6.588
X76.188 Y79.674 R6.588
G1 X80.524 Y79.708
G2 X87.166 Y73.175 R6.587
G1 X87.262 Y61.465
G2 X89.36 Y56.306 R38.588
X88.994 Y54.716 R1.587
G1 X81.808 Y47.235
G2 X81.795 Y47.222 R1.588
G3 X80.768 Y45.075 R3.663
G1 X80.742 Y44.534
G2 X77.57 Y44.555 R1.587
G1 X77.519 Y45.999
G3 X68.839 Y63.781 R25.912
G1 X36.159 Y63.512
G3 X33.387 Y60.542 R25.913
G0 Z5.
X74.13 Y25.501
G1 Z3. F762.
Z2.5
G3 X52.922 Y37.692 Z-2. R25.412 F465.
X51.927 Y-13.123 R25.412
X52.922 Y37.692 R25.412
X31.464 Y26.653 Z-4. R25.412
X73.385 Y-2.083 R25.412
X31.464 Y26.653 R25.412
X28.906 Y2.657 Z-6. R25.412
X75.943 Y21.912 R25.412
X28.906 Y2.657 R25.412
X47.556 Y-12.657 Z-8. R25.412
X57.293 Y37.227 R25.412
X47.556 Y-12.657 R25.412
X70.596 Y-5.48 Z-10. R25.412
X34.253 Y30.049 R25.412
X70.596 Y-5.48 R25.412
G0 Z5.
X70.91 Y-46.91
G1 Z3. F762.
Z2.5
G3 X51.541 Y-32.794 Z-2. R20.912 F465.
X50.721 Y-74.611 R20.912
X51.541 Y-32.794 R20.912
X33.882 Y-41.879 Z-4. R20.912
X68.38 Y-65.526 R20.912
X33.882 Y-41.879 R20.912
X31.778 Y-61.625 Z-6. R20.912
X70.485 Y-45.78 R20.912
X31.778 Y-61.625 R20.912
X47.125 Y-74.228 Z-8. R20.912
X55.137 Y-33.177 R20.912
X47.125 Y-74.228 R20.912
X66.085 Y-68.322 Z-10. R20.912
X36.177 Y-39.084 R20.912
X66.085 Y-68.322 R20.912
G0 Z5.
X12.515 Y-73.638
G1 Z3. F762.
Z2.5
G2 X6.44 Y-83.396 Z0.093 R6.838 F465.
G1 X-5.428 Y-83.582 Z-2.
X-68.551 Y-84.575
G2 X-90.475 Y-63.33 R21.588
G1 X-91.009 Y-29.334
G2 X-69.764 Y-7.41 R21.588
G1 X5.227 Y-6.23
G2 X12.171 Y-12.96 R6.837
X5.442 Y-19.904 R6.837
G1 X-79.548 Y-21.24
G3 X-82.906 Y-24.706 R3.413
G1 X-82.23 Y-67.701
G3 X-78.764 Y-71.059 R3.413
G1 X6.225 Y-69.722
G2 X6.44 Y-83.396 R6.838
G1 X-5.428 Y-83.582
G0 Z5.
X-20.475 Y-22.764
G1 Z3. F762.
Z2.5
X-19.19 Y-22.741 Z2.273 F465.
G2 X-12.71 Y-27.628 Z0.732 R6.588
G1 X-8.373 Y-27.552 Z-0.033
G2 X-1.671 Y-34.024 Z-1.858 R6.588
G1 X-1.657 Y-34.829 Z-2.
X-1.466 Y-45.732
G2 X2.671 Y-62.45 R38.588
X-10.787 Y-64.274 R6.838
G1 X-16.886 Y-64.381
G2 X-18.501 Y-62.821 R1.588
G3 X-36.216 Y-45.716 R17.413
X-53.32 Y-63.431 R17.413
G2 X-54.88 Y-65.046 R1.588
G1 X-60.978 Y-65.153
G2 X-74.492 Y-63.802 R6.838
X-70.944 Y-46.95 R38.588
G1 X-71.149 Y-35.239
G2 X-64.678 Y-28.537 R6.588
G1 X-60.341 Y-28.461
G2 X-54.038 Y-23.351 R6.588
G1 X-19.19 Y-22.741
G2 X-12.71 Y-27.628 R6.588
G1 X-8.373 Y-27.552
G2 X-1.671 Y-34.024 R6.588
G1 X-1.657 Y-34.829
G0 Z5.
X-20.475 Y-22.764
G1 Z1. F762.
Z0.5
X-19.19 Y-22.741 Z0.273 F465.
G2 X-12.71 Y-27.628 Z-1.268 R6.588
G1 X-8.373 Y-27.552 Z-2.033
G2 X-1.671 Y-34.024 Z-3.858 R6.588
G1 X-1.657 Y-34.829 Z-4.
X-1.466 Y-45.732
G2 X2.671 Y-62.45 R38.588
X-10.787 Y-64.274 R6.838
G1 X-16.886 Y-64.381
G2 X-18.501 Y-62.821 R1.588
G3 X-36.216 Y-45.716 R17.413
X-53.32 Y-63.431 R17.413
G2 X-54.88 Y-65.046 R1.588
G1 X-60.978 Y-65.153
G2 X-74.492 Y-63.802 R6.838
X-70.944 Y-46.95 R38.588
G1 X-71.149 Y-35.239
G2 X-64.678 Y-28.537 R6.588
G1 X-60.341 Y-28.461
G2 X-54.038 Y-23.351 R6.588
G1 X-19.19 Y-22.741
G2 X-12.71 Y-27.628 R6.588
G1 X-8.373 Y-27.552
G2 X-1.671 Y-34.024 R6.588
G1 X-1.657 Y-34.829
Z0.5
X12.515 Y-73.638
G2 X6.44 Y-83.396 Z-1.907 R6.838
G1 X-5.428 Y-83.582 Z-4.
X-68.551 Y-84.575
G2 X-90.475 Y-63.33 R21.588
G1 X-91.009 Y-29.334
G2 X-69.764 Y-7.41 R21.588
G1 X5.227 Y-6.23
G2 X12.171 Y-12.96 R6.837
X5.442 Y-19.904 R6.837
G1 X-79.548 Y-21.24
G3 X-82.906 Y-24.706 R3.413
G1 X-82.23 Y-67.701
G3 X-78.764 Y-71.059 R3.413
G1 X6.225 Y-69.722
G2 X6.44 Y-83.396 R6.838
G1 X-5.428 Y-83.582
X-68.551 Y-84.575 Z-5.546
G2 X-84.999 Y-77.361 Z-6. R21.588
X-90.475 Y-63.33 R21.588
G1 X-91.009 Y-29.334
G2 X-69.764 Y-7.41 R21.588
G1 X5.227 Y-6.23
G2 X12.171 Y-12.96 R6.837
X5.442 Y-19.904 R6.837
G1 X-79.548 Y-21.24
G3 X-82.906 Y-24.706 R3.413
G1 X-82.23 Y-67.701
G3 X-78.764 Y-71.059 R3.413
G1 X6.225 Y-69.722
G2 X6.44 Y-83.396 R6.838
G1 X-68.551 Y-84.575
G2 X-84.999 Y-77.361 R21.588
G0 Z5.
X-20.475 Y-22.764
G1 Z-1. F762.
Z-1.5
X-19.19 Y-22.741 Z-1.727 F465.
G2 X-12.71 Y-27.628 Z-3.268 R6.588
G1 X-8.373 Y-27.552 Z-4.033
G2 X-1.671 Y-34.024 Z-5.858 R6.588
G1 X-1.657 Y-34.829 Z-6.
X-1.466 Y-45.732
G2 X2.671 Y-62.45 R38.588
X-10.787 Y-64.274 R6.838
G1 X-16.886 Y-64.381
G2 X-18.501 Y-62.821 R1.588
G3 X-36.216 Y-45.716 R17.413
X-53.32 Y-63.431 R17.413
G2 X-54.88 Y-65.046 R1.588
G1 X-60.978 Y-65.153
G2 X-74.492 Y-63.802 R6.838
X-70.944 Y-46.95 R38.588
G1 X-71.149 Y-35.239
G2 X-64.678 Y-28.537 R6.588
G1 X-60.341 Y-28.461
G2 X-54.038 Y-23.351 R6.588
G1 X-19.19 Y-22.741
G2 X-12.71 Y-27.628 R6.588
G1 X-8.373 Y-27.552
G2 X-1.671 Y-34.024 R6.588
G1 X-1.657 Y-34.829
G0 Z5.
X-20.475 Y-22.764
G1 Z-3. F762.
Z-3.5
X-19.19 Y-22.741 Z-3.727 F465.
G2 X-12.71 Y-27.628 Z-5.268 R6.588
G1 X-8.373 Y-27.552 Z-6.033
G2 X-1.671 Y-34.024 Z-7.858 R6.588
G1 X-1.657 Y-34.829 Z-8.
X-1.466 Y-45.732
G2 X2.671 Y-62.45 R38.588
X-10.787 Y-64.274 R6.838
G1 X-16.886 Y-64.381
G2 X-18.501 Y-62.821 R1.588
G3 X-36.216 Y-45.716 R17.413
X-53.32 Y-63.431 R17.413
G2 X-54.88 Y-65.046 R1.588
G1 X-60.978 Y-65.153
G2 X-74.492 Y-63.802 R6.838
X-70.944 Y-46.95 R38.588
G1 X-71.149 Y-35.239
G2 X-64.678 Y-28.537 R6.588
G1 X-60.341 Y-28.461
G2 X-54.038 Y-23.351 R6.588
G1 X-19.19 Y-22.741
G2 X-12.71 Y-27.628 R6.588
G1 X-8.373 Y-27.552
G2 X-1.671 Y-34.024 R6.588
G1 X-1.657 Y-34.829
Z-3.5
X12.515 Y-73.638
G2 X6.44 Y-83.396 Z-5.907 R6.838
G1 X-5.428 Y-83.582 Z-8.
X-68.551 Y-84.575
G2 X-90.475 Y-63.33 R21.588
G1 X-91.009 Y-29.334
G2 X-69.764 Y-7.41 R21.588
G1 X5.227 Y-6.23
G2 X12.171 Y-12.96 R6.837
X5.442 Y-19.904 R6.837
G1 X-79.548 Y-21.24
G3 X-82.906 Y-24.706 R3.413
G1 X-82.23 Y-67.701
G3 X-78.764 Y-71.059 R3.413
G1 X6.225 Y-69.722
G2 X6.44 Y-83.396 R6.838
G1 X-5.428 Y-83.582
X-68.551 Y-84.575 Z-9.546
G2 X-84.999 Y-77.361 Z-10. R21.588
X-90.475 Y-63.33 R21.588
G1 X-91.009 Y-29.334
G2 X-69.764 Y-7.41 R21.588
G1 X5.227 Y-6.23
G2 X12.171 Y-12.96 R6.837
X5.442 Y-19.904 R6.837
G1 X-79.548 Y-21.24
G3 X-82.906 Y-24.706 R3.413
G1 X-82.23 Y-67.701
G3 X-78.764 Y-71.059 R3.413
G1 X6.225 Y-69.722
G2 X6.44 Y-83.396 R6.838
G1 X-68.551 Y-84.575
G2 X-84.999 Y-77.361 R21.588
G0 Z5.
X-20.475 Y-22.764
G1 Z-5. F762.
Z-5.5
X-19.19 Y-22.741 Z-5.727 F465.
G2 X-12.71 Y-27.628 Z-7.268 R6.588
G1 X-8.373 Y-27.552 Z-8.033
G2 X-1.671 Y-34.024 Z-9.858 R6.588
G1 X-1.657 Y-34.829 Z-10.
X-1.466 Y-45.732
G2 X2.671 Y-62.45 R38.588
X-10.787 Y-64.274 R6.838
G1 X-16.886 Y-64.381
G2 X-18.501 Y-62.821 R1.588
G3 X-36.216 Y-45.716 R17.413
X-53.32 Y-63.431 R17.413
G2 X-54.88 Y-65.046 R1.588
G1 X-60.978 Y-65.153
G2 X-74.492 Y-63.802 R6.838
X-70.944 Y-46.95 R38.588
G1 X-71.149 Y-35.239
G2 X-64.678 Y-28.537 R6.588
G1 X-60.341 Y-28.461
G2 X-54.038 Y-23.351 R6.588
G1 X-19.19 Y-22.741
G2 X-12.71 Y-27.628 R6.588
G1 X-8.373 Y-27.552
G2 X-1.671 Y-34.024 R6.588
G1 X-1.657 Y-34.829
G0 Z10.

(2D CONTOUR2)
M8
G0 X90.876 Y15.518
Z10.
Z5.
G1 Z3. F762.
Z2.5
G2 X91.005 Y11.528 Z1.796 R38.588 F465.
G1 X90.583 Y-9.995 Z-2.
X89.535 Y-63.457
G2 X67.528 Y-84.617 R21.587
G1 X33.535 Y-83.951
G2 X12.375 Y-61.945 R21.587
G1 X13.844 Y13.041
G2 X29.007 Y42.954 R38.588
G1 X29.072 Y46.249
G2 X35.787 Y52.706 R6.588
G1 X70.633 Y52.023
G2 X77.09 Y45.308 R6.588
G1 X77.026 Y42.013
G2 X91.005 Y11.528 R38.588
G1 X90.583 Y-9.995
X89.535 Y-63.457 Z-3.772
G2 X88.31 Y-70.215 Z-4. R21.587
X67.528 Y-84.617 R21.587
G1 X33.535 Y-83.951
G2 X12.375 Y-61.945 R21.587
G1 X13.844 Y13.041
G2 X29.007 Y42.954 R38.588
G1 X29.072 Y46.249
G2 X35.787 Y52.706 R6.588
G1 X70.633 Y52.023
G2 X77.09 Y45.308 R6.588
G1 X77.026 Y42.013
G2 X91.005 Y11.528 R38.588
G1 X89.535 Y-63.457
G2 X88.31 Y-70.215 R21.587
X67.528 Y-84.617 Z-4.895 R21.587
G1 X34.178 Y-83.964 Z-6.
X33.535 Y-83.951
G2 X12.375 Y-61.945 R21.587
G1 X13.844 Y13.041
G2 X29.007 Y42.954 R38.588
G1 X29.072 Y46.249
G2 X35.787 Y52.706 R6.588
G1 X70.633 Y52.023
G2 X77.09 Y45.308 R6.588
G1 X77.026 Y42.013
G2 X91.005 Y11.528 R38.588
G1 X89.535 Y-63.457
G2 X67.528 Y-84.617 R21.587
G1 X34.178 Y-83.964
X33.535 Y-83.951 Z-6.021
G2 X12.375 Y-61.945 Z-7.145 R21.587
G1 X12.881 Y-36.133 Z-8.
X13.844 Y13.041
G2 X29.007 Y42.954 R38.588
G1 X29.072 Y46.249
G2 X35.787 Y52.706 R6.588
G1 X70.633 Y52.023
G2 X77.09 Y45.308 R6.588
G1 X77.026 Y42.013
G2 X91.005 Y11.528 R38.588
G1 X89.535 Y-63.457
G2 X67.528 Y-84.617 R21.587
G1 X34.178 Y-83.964
X33.535 Y-83.951
G2 X12.375 Y-61.945 R21.587
G1 X12.881 Y-36.133
X13.844 Y13.041 Z-9.629
G2 X15.67 Y24.037 Z-10. R38.588
X29.007 Y42.954 R38.588
G1 X29.072 Y46.249
G2 X35.787 Y52.706 R6.588
G1 X70.633 Y52.023
G2 X77.09 Y45.308 R6.588
G1 X77.026 Y42.013
G2 X91.005 Y11.528 R38.588
G1 X89.535 Y-63.457
G2 X67.528 Y-84.617 R21.587
G1 X33.535 Y-83.951
G2 X12.375 Y-61.945 R21.587
G1 X13.844 Y13.041
G2 X15.67 Y24.037 R38.588
G0 Z10.

M9
M30
