%
(Clamp_base)
(T1  D=3.175 CR=0 - ZMIN=-20 - flat end mill)
G90 G94
G17
G21

(2D Contour1)
M9
T1 M6
S10000 M3
G54
M8
G0 X25.521 Y-21.587
Z10
Z5
G1 Z3 F762
Z2.5
X0 Z-2
X-60
G2 X-61.588 Y-20 J1.587
G1 Y20
G2 X-60 Y21.587 I1.588
G1 X60
G2 X61.588 Y20 J-1.587
G1 Y-20
G2 X60 Y-21.587 I-1.588
G1 X0
X-51.964 Z-4
X-60
G2 X-61.588 Y-20 J1.587
G1 Y20
G2 X-60 Y21.587 I1.588
G1 X60
G2 X61.588 Y20 J-1.587
G1 Y-20
G2 X60 Y-21.587 I-1.588
G1 X0
X-51.964
X-60 Z-4.309
G2 X-61.588 Y-20 Z-4.405 J1.587
G1 Y20 Z-5.945
G2 X-60.982 Y21.248 Z-6 I1.588
X-60 Y21.587 I0.982 J-1.248
G1 X60
G2 X61.588 Y20 J-1.587
G1 Y-20
G2 X60 Y-21.587 I-1.588
G1 X-51.964
X-60
G2 X-61.588 Y-20 J1.587
G1 Y20
G2 X-60.982 Y21.248 I1.588
X-60 Y21.587 Z-6.041 I0.982 J-1.248
G1 X-9.094 Z-8
X60
G2 X61.588 Y20 J-1.587
G1 Y-20
G2 X60 Y-21.587 I-1.588
G1 X-60
G2 X-61.588 Y-20 J1.587
G1 Y20
G2 X-60 Y21.587 I1.588
G1 X-9.094
X42.871 Z-10
X60
G2 X61.588 Y20 J-1.587
G1 Y-20
G2 X60 Y-21.587 I-1.588
G1 X-60
G2 X-61.588 Y-20 J1.587
G1 Y20
G2 X-60 Y21.587 I1.588
G1 X42.871
X60 Z-10.659
G2 X61.588 Y20 Z-10.755 J-1.587
G1 Y-12.342 Z-12
Y-20
G2 X60 Y-21.587 I-1.588
G1 X-60
G2 X-61.588 Y-20 J1.587
G1 Y20
G2 X-60 Y21.587 I1.588
G1 X42.871
X60
G2 X61.588 Y20 J-1.587
G1 Y-12.342
Y-20 Z-12.295
G2 X60 Y-21.587 Z-12.391 I-1.588
G1 X18.188 Z-14
X-60
G2 X-61.588 Y-20 J1.587
G1 Y20
G2 X-60 Y21.587 I1.588
G1 X60
G2 X61.588 Y20 J-1.587
G1 Y-12.342
Y-20
G2 X60 Y-21.587 I-1.588
G1 X18.188
X-33.777 Z-16
X-60
G2 X-61.588 Y-20 J1.587
G1 Y20
G2 X-60 Y21.587 I1.588
G1 X60
G2 X61.588 Y20 J-1.587
G1 Y-20
G2 X60 Y-21.587 I-1.588
G1 X-33.777
X-60 Z-17.009
G2 X-61.588 Y-20 Z-17.105 J1.587
G1 Y3.248 Z-18
Y20
G2 X-60 Y21.587 I1.588
G1 X60
G2 X61.588 Y20 J-1.587
G1 Y-20
G2 X60 Y-21.587 I-1.588
G1 X-33.777
X-60
G2 X-61.588 Y-20 J1.587
G1 Y3.248
Y20 Z-18.645
G2 X-60 Y21.587 Z-18.741 I1.588
G1 X-27.281 Z-20
X60
G2 X61.588 Y20 J-1.587
G1 Y-20
G2 X60 Y-21.587 I-1.588
G1 X-60
G2 X-61.588 Y-20 J1.587
G1 Y3.248
Y20
G2 X-60 Y21.587 I1.588
G1 X-27.281
G3 X-26.964 Y21.905 J0.318
G1 Y22.222
G19 G3 Y22.54 Z-19.683 K0.317
G0 Z10
G17
M9
M30
%
