%
(conter_drill_nut_holder)
(T1  D=3.175 CR=0 - ZMIN=-10 - flat end mill)
G90 G94
G17
G21

(2D Contour3)
M9
T1 M6
S5500 M3
G54
M8
G0 X-22.291 Y15.772
Z10
Z5
G1 Z3 F762
Z2.5
G2 X-33.024 Y21.194 Z-0.831 I-5.367 J2.711 F350.5
X-27.657 Y24.496 Z-2 I5.367 J-2.711
Y12.47 J-6.013 F300
Y24.496 J6.013
X-21.942 Y16.616 Z-4 J-6.013 F350.5
X-33.373 Y20.35 I-5.715 J1.867 F300
X-21.942 Y16.616 I5.715 J-1.867
X-31.206 Y13.63 Z-6 I-5.715 J1.867 F350.5
X-24.108 Y23.336 I3.549 J4.853 F300
X-31.206 Y13.63 I-3.549 J-4.853
X-31.169 Y23.364 Z-8 I3.549 J4.853 F350.5
X-24.146 Y13.602 I3.512 J-4.881 F300
X-31.169 Y23.364 I-3.512 J4.881
X-21.928 Y20.306 Z-10 I3.512 J-4.881 F350.5
X-33.387 Y16.66 I-5.73 J-1.823 F300
X-21.928 Y20.306 I5.73 J1.823
G0 Z5
X34.024 Y15.772
G1 Z3 F762
Z2.5
G2 X23.291 Y21.194 Z-0.831 I-5.367 J2.711 F350.5
X28.657 Y24.496 Z-2 I5.367 J-2.711
Y12.47 J-6.013 F300
Y24.496 J6.013
X34.373 Y16.616 Z-4 J-6.013 F350.5
X22.942 Y20.35 I-5.715 J1.867 F300
X34.373 Y16.616 I5.715 J-1.867
X25.108 Y13.63 Z-6 I-5.715 J1.867 F350.5
X32.206 Y23.336 I3.549 J4.853 F300
X25.108 Y13.63 I-3.549 J-4.853
X25.146 Y23.364 Z-8 I3.549 J4.853 F350.5
X32.169 Y13.602 I3.512 J-4.881 F300
X25.146 Y23.364 I-3.512 J4.881
X34.387 Y20.306 Z-10 I3.512 J-4.881 F350.5
X22.928 Y16.66 I-5.73 J-1.823 F300
X34.387 Y20.306 I5.73 J1.823
G0 Z10

(2D Contour4)
M8
X-33.024 Y15.772
Z10
Z5
G1 Z3 F762
Z2.5
G3 X-22.291 Y21.194 Z-0.831 I5.367 J2.711 F350.5
X-27.657 Y24.496 Z-2 I-5.367 J-2.711
Y12.47 J-6.013 F300
Y24.496 J6.013
X-33.373 Y16.616 Z-4 J-6.013 F350.5
X-21.942 Y20.35 I5.715 J1.867 F300
X-33.373 Y16.616 I-5.715 J-1.867
X-24.108 Y13.63 Z-6 I5.715 J1.867 F350.5
X-31.206 Y23.336 I-3.549 J4.853 F300
X-24.108 Y13.63 I3.549 J-4.853
X-24.146 Y23.364 Z-8 I-3.549 J4.853 F350.5
X-31.169 Y13.602 I-3.512 J-4.881 F300
X-24.146 Y23.364 I3.512 J4.881
X-33.387 Y20.306 Z-10 I-3.512 J-4.881 F350.5
X-21.928 Y16.66 I5.73 J-1.823 F300
X-33.387 Y20.306 I-5.73 J1.823
G0 Z5
X23.291 Y15.772
G1 Z3 F762
Z2.5
G3 X34.024 Y21.194 Z-0.831 I5.367 J2.711 F350.5
X28.657 Y24.496 Z-2 I-5.367 J-2.711
Y12.47 J-6.013 F300
Y24.496 J6.013
X22.942 Y16.616 Z-4 J-6.013 F350.5
X34.373 Y20.35 I5.715 J1.867 F300
X22.942 Y16.616 I-5.715 J-1.867
X32.206 Y13.63 Z-6 I5.715 J1.867 F350.5
X25.108 Y23.336 I-3.549 J4.853 F300
X32.206 Y13.63 I3.549 J-4.853
X32.169 Y23.364 Z-8 I-3.549 J4.853 F350.5
X25.146 Y13.602 I-3.512 J-4.881 F300
X32.169 Y23.364 I3.512 J4.881
X22.928 Y20.306 Z-10 I-3.512 J-4.881 F350.5
X34.387 Y16.66 I5.73 J-1.823 F300
X22.928 Y20.306 I-5.73 J1.823
G0 Z10
M9
M30
%
