(Exported by FreeCAD)
(Post Processor: script_module)
(Output Time:2024-12-22 14:35:05.451348)
(Begin preamble)
G17 G90
G21
(Block-name: Fixture)
(Block-expand: 0)
(Block-enable: 1)
(Begin operation: Fixture)
(Path: Fixture)
G54
(Finish operation: Fixture)
(Block-name: 3mm Endmill001)
(Block-expand: 0)
(Block-enable: 1)
(Begin operation: 3mm Endmill001)
(Path: 3mm Endmill001)
(3mm Endmill001)
(Begin toolchange)
( M6 T2 )
M3 S10000
(Finish operation: 3mm Endmill001)
(Block-name: Adaptive)
(Block-expand: 0)
(Block-enable: 1)
(Begin operation: Adaptive)
(Path: Adaptive)
(Adaptive)
(Helix to depth: -5.000000)
G0 Z6.000
G0 X12.355 Y-10.026 Z6.000
G0 X12.355 Y-10.026 Z4.000
G1 X12.355 Y-10.026 Z1.000 F200.000
G1 X12.355 Y-10.026 Z1.000 F200.000
G1 X12.428 Y-9.963 Z0.991 F200.000
G1 X12.487 Y-9.888 Z0.983 F200.000
G1 X12.530 Y-9.802 Z0.974 F200.000
G1 X12.555 Y-9.709 Z0.966 F200.000
G1 X12.562 Y-9.614 Z0.957 F200.000
G1 X12.550 Y-9.519 Z0.949 F200.000
G1 X12.520 Y-9.428 Z0.940 F200.000
G1 X12.473 Y-9.344 Z0.931 F200.000
G1 X12.410 Y-9.272 Z0.923 F200.000
G1 X12.334 Y-9.213 Z0.914 F200.000
G1 X12.248 Y-9.170 Z0.906 F200.000
G1 X12.156 Y-9.145 Z0.897 F200.000
G1 X12.060 Y-9.138 Z0.889 F200.000
G1 X11.965 Y-9.150 Z0.880 F200.000
G1 X11.874 Y-9.180 Z0.871 F200.000
G1 X11.791 Y-9.227 Z0.863 F200.000
G1 X11.718 Y-9.290 Z0.854 F200.000
G1 X11.660 Y-9.366 Z0.846 F200.000
G1 X11.617 Y-9.451 Z0.837 F200.000
G1 X11.591 Y-9.544 Z0.829 F200.000
G1 X11.584 Y-9.639 Z0.820 F200.000
G1 X11.596 Y-9.735 Z0.811 F200.000
G1 X11.626 Y-9.826 Z0.803 F200.000
G1 X11.674 Y-9.909 Z0.794 F200.000
G1 X11.737 Y-9.981 Z0.786 F200.000
G1 X11.812 Y-10.040 Z0.777 F200.000
G1 X11.898 Y-10.083 Z0.769 F200.000
G1 X11.990 Y-10.109 Z0.760 F200.000
G1 X12.086 Y-10.116 Z0.751 F200.000
G1 X12.181 Y-10.104 Z0.743 F200.000
G1 X12.272 Y-10.073 Z0.734 F200.000
G1 X12.355 Y-10.026 Z0.726 F200.000
G1 X12.428 Y-9.963 Z0.717 F200.000
G1 X12.487 Y-9.888 Z0.709 F200.000
G1 X12.530 Y-9.802 Z0.700 F200.000
G1 X12.555 Y-9.709 Z0.691 F200.000
G1 X12.562 Y-9.614 Z0.683 F200.000
G1 X12.550 Y-9.519 Z0.674 F200.000
G1 X12.520 Y-9.428 Z0.666 F200.000
G1 X12.473 Y-9.344 Z0.657 F200.000
G1 X12.410 Y-9.272 Z0.649 F200.000
G1 X12.334 Y-9.213 Z0.640 F200.000
G1 X12.248 Y-9.170 Z0.631 F200.000
G1 X12.156 Y-9.145 Z0.623 F200.000
G1 X12.060 Y-9.138 Z0.614 F200.000
G1 X11.965 Y-9.150 Z0.606 F200.000
G1 X11.874 Y-9.180 Z0.597 F200.000
G1 X11.791 Y-9.227 Z0.588 F200.000
G1 X11.718 Y-9.290 Z0.580 F200.000
G1 X11.660 Y-9.366 Z0.571 F200.000
G1 X11.617 Y-9.451 Z0.563 F200.000
G1 X11.591 Y-9.544 Z0.554 F200.000
G1 X11.584 Y-9.639 Z0.546 F200.000
G1 X11.596 Y-9.735 Z0.537 F200.000
G1 X11.626 Y-9.826 Z0.528 F200.000
G1 X11.674 Y-9.909 Z0.520 F200.000
G1 X11.737 Y-9.981 Z0.511 F200.000
G1 X11.812 Y-10.040 Z0.503 F200.000
G1 X11.898 Y-10.083 Z0.494 F200.000
G1 X11.990 Y-10.109 Z0.486 F200.000
G1 X12.086 Y-10.116 Z0.477 F200.000
G1 X12.181 Y-10.104 Z0.468 F200.000
G1 X12.272 Y-10.073 Z0.460 F200.000
G1 X12.355 Y-10.026 Z0.451 F200.000
G1 X12.428 Y-9.963 Z0.443 F200.000
G1 X12.487 Y-9.888 Z0.434 F200.000
G1 X12.530 Y-9.802 Z0.426 F200.000
G1 X12.555 Y-9.709 Z0.417 F200.000
G1 X12.562 Y-9.614 Z0.408 F200.000
G1 X12.550 Y-9.519 Z0.400 F200.000
G1 X12.520 Y-9.428 Z0.391 F200.000
G1 X12.473 Y-9.344 Z0.383 F200.000
G1 X12.410 Y-9.272 Z0.374 F200.000
G1 X12.334 Y-9.213 Z0.366 F200.000
G1 X12.248 Y-9.170 Z0.357 F200.000
G1 X12.156 Y-9.145 Z0.348 F200.000
G1 X12.060 Y-9.138 Z0.340 F200.000
G1 X11.965 Y-9.150 Z0.331 F200.000
G1 X11.874 Y-9.180 Z0.323 F200.000
G1 X11.791 Y-9.227 Z0.314 F200.000
G1 X11.718 Y-9.290 Z0.306 F200.000
G1 X11.660 Y-9.366 Z0.297 F200.000
G1 X11.617 Y-9.451 Z0.288 F200.000
G1 X11.591 Y-9.544 Z0.280 F200.000
G1 X11.584 Y-9.639 Z0.271 F200.000
G1 X11.596 Y-9.735 Z0.263 F200.000
G1 X11.626 Y-9.826 Z0.254 F200.000
G1 X11.674 Y-9.909 Z0.246 F200.000
G1 X11.737 Y-9.981 Z0.237 F200.000
G1 X11.812 Y-10.040 Z0.228 F200.000
G1 X11.898 Y-10.083 Z0.220 F200.000
G1 X11.990 Y-10.109 Z0.211 F200.000
G1 X12.086 Y-10.116 Z0.203 F200.000
G1 X12.181 Y-10.104 Z0.194 F200.000
G1 X12.272 Y-10.073 Z0.186 F200.000
G1 X12.355 Y-10.026 Z0.177 F200.000
G1 X12.428 Y-9.963 Z0.168 F200.000
G1 X12.487 Y-9.888 Z0.160 F200.000
G1 X12.530 Y-9.802 Z0.151 F200.000
G1 X12.555 Y-9.709 Z0.143 F200.000
G1 X12.562 Y-9.614 Z0.134 F200.000
G1 X12.550 Y-9.519 Z0.126 F200.000
G1 X12.520 Y-9.428 Z0.117 F200.000
G1 X12.473 Y-9.344 Z0.108 F200.000
G1 X12.410 Y-9.272 Z0.100 F200.000
G1 X12.334 Y-9.213 Z0.091 F200.000
G1 X12.248 Y-9.170 Z0.083 F200.000
G1 X12.156 Y-9.145 Z0.074 F200.000
G1 X12.060 Y-9.138 Z0.066 F200.000
G1 X11.965 Y-9.150 Z0.057 F200.000
G1 X11.874 Y-9.180 Z0.048 F200.000
G1 X11.791 Y-9.227 Z0.040 F200.000
G1 X11.718 Y-9.290 Z0.031 F200.000
G1 X11.660 Y-9.366 Z0.023 F200.000
G1 X11.617 Y-9.451 Z0.014 F200.000
G1 X11.591 Y-9.544 Z0.006 F200.000
G1 X11.584 Y-9.639 Z-0.003 F200.000
G1 X11.596 Y-9.735 Z-0.012 F200.000
G1 X11.626 Y-9.826 Z-0.020 F200.000
G1 X11.674 Y-9.909 Z-0.029 F200.000
G1 X11.737 Y-9.981 Z-0.037 F200.000
G1 X11.812 Y-10.040 Z-0.046 F200.000
G1 X11.898 Y-10.083 Z-0.054 F200.000
G1 X11.990 Y-10.109 Z-0.063 F200.000
G1 X12.086 Y-10.116 Z-0.072 F200.000
G1 X12.181 Y-10.104 Z-0.080 F200.000
G1 X12.272 Y-10.073 Z-0.089 F200.000
G1 X12.355 Y-10.026 Z-0.097 F200.000
G1 X12.428 Y-9.963 Z-0.106 F200.000
G1 X12.487 Y-9.888 Z-0.114 F200.000
G1 X12.530 Y-9.802 Z-0.123 F200.000
G1 X12.555 Y-9.709 Z-0.132 F200.000
G1 X12.562 Y-9.614 Z-0.140 F200.000
G1 X12.550 Y-9.519 Z-0.149 F200.000
G1 X12.520 Y-9.428 Z-0.157 F200.000
G1 X12.473 Y-9.344 Z-0.166 F200.000
G1 X12.410 Y-9.272 Z-0.175 F200.000
G1 X12.334 Y-9.213 Z-0.183 F200.000
G1 X12.248 Y-9.170 Z-0.192 F200.000
G1 X12.156 Y-9.145 Z-0.200 F200.000
G1 X12.060 Y-9.138 Z-0.209 F200.000
G1 X11.965 Y-9.150 Z-0.217 F200.000
G1 X11.874 Y-9.180 Z-0.226 F200.000
G1 X11.791 Y-9.227 Z-0.235 F200.000
G1 X11.718 Y-9.290 Z-0.243 F200.000
G1 X11.660 Y-9.366 Z-0.252 F200.000
G1 X11.617 Y-9.451 Z-0.260 F200.000
G1 X11.591 Y-9.544 Z-0.269 F200.000
G1 X11.584 Y-9.639 Z-0.277 F200.000
G1 X11.596 Y-9.735 Z-0.286 F200.000
G1 X11.626 Y-9.826 Z-0.295 F200.000
G1 X11.674 Y-9.909 Z-0.303 F200.000
G1 X11.737 Y-9.981 Z-0.312 F200.000
G1 X11.812 Y-10.040 Z-0.320 F200.000
G1 X11.898 Y-10.083 Z-0.329 F200.000
G1 X11.990 Y-10.109 Z-0.337 F200.000
G1 X12.086 Y-10.116 Z-0.346 F200.000
G1 X12.181 Y-10.104 Z-0.355 F200.000
G1 X12.272 Y-10.073 Z-0.363 F200.000
G1 X12.355 Y-10.026 Z-0.372 F200.000
G1 X12.428 Y-9.963 Z-0.380 F200.000
G1 X12.487 Y-9.888 Z-0.389 F200.000
G1 X12.530 Y-9.802 Z-0.397 F200.000
G1 X12.555 Y-9.709 Z-0.406 F200.000
G1 X12.562 Y-9.614 Z-0.415 F200.000
G1 X12.550 Y-9.519 Z-0.423 F200.000
G1 X12.520 Y-9.428 Z-0.432 F200.000
G1 X12.473 Y-9.344 Z-0.440 F200.000
G1 X12.410 Y-9.272 Z-0.449 F200.000
G1 X12.334 Y-9.213 Z-0.457 F200.000
G1 X12.248 Y-9.170 Z-0.466 F200.000
G1 X12.156 Y-9.145 Z-0.475 F200.000
G1 X12.060 Y-9.138 Z-0.483 F200.000
G1 X11.965 Y-9.150 Z-0.492 F200.000
G1 X11.874 Y-9.180 Z-0.500 F200.000
G1 X11.791 Y-9.227 Z-0.509 F200.000
G1 X11.718 Y-9.290 Z-0.517 F200.000
G1 X11.660 Y-9.366 Z-0.526 F200.000
G1 X11.617 Y-9.451 Z-0.535 F200.000
G1 X11.591 Y-9.544 Z-0.543 F200.000
G1 X11.584 Y-9.639 Z-0.552 F200.000
G1 X11.596 Y-9.735 Z-0.560 F200.000
G1 X11.626 Y-9.826 Z-0.569 F200.000
G1 X11.674 Y-9.909 Z-0.577 F200.000
G1 X11.737 Y-9.981 Z-0.586 F200.000
G1 X11.812 Y-10.040 Z-0.595 F200.000
G1 X11.898 Y-10.083 Z-0.603 F200.000
G1 X11.990 Y-10.109 Z-0.612 F200.000
G1 X12.086 Y-10.116 Z-0.620 F200.000
G1 X12.181 Y-10.104 Z-0.629 F200.000
G1 X12.272 Y-10.073 Z-0.637 F200.000
G1 X12.355 Y-10.026 Z-0.646 F200.000
G1 X12.428 Y-9.963 Z-0.655 F200.000
G1 X12.487 Y-9.888 Z-0.663 F200.000
G1 X12.530 Y-9.802 Z-0.672 F200.000
G1 X12.555 Y-9.709 Z-0.680 F200.000
G1 X12.562 Y-9.614 Z-0.689 F200.000
G1 X12.550 Y-9.519 Z-0.697 F200.000
G1 X12.520 Y-9.428 Z-0.706 F200.000
G1 X12.473 Y-9.344 Z-0.715 F200.000
G1 X12.410 Y-9.272 Z-0.723 F200.000
G1 X12.334 Y-9.213 Z-0.732 F200.000
G1 X12.248 Y-9.170 Z-0.740 F200.000
G1 X12.156 Y-9.145 Z-0.749 F200.000
G1 X12.060 Y-9.138 Z-0.757 F200.000
G1 X11.965 Y-9.150 Z-0.766 F200.000
G1 X11.874 Y-9.180 Z-0.775 F200.000
G1 X11.791 Y-9.227 Z-0.783 F200.000
G1 X11.718 Y-9.290 Z-0.792 F200.000
G1 X11.660 Y-9.366 Z-0.800 F200.000
G1 X11.617 Y-9.451 Z-0.809 F200.000
G1 X11.591 Y-9.544 Z-0.817 F200.000
G1 X11.584 Y-9.639 Z-0.826 F200.000
G1 X11.596 Y-9.735 Z-0.835 F200.000
G1 X11.626 Y-9.826 Z-0.843 F200.000
G1 X11.674 Y-9.909 Z-0.852 F200.000
G1 X11.737 Y-9.981 Z-0.860 F200.000
G1 X11.812 Y-10.040 Z-0.869 F200.000
G1 X11.898 Y-10.083 Z-0.878 F200.000
G1 X11.990 Y-10.109 Z-0.886 F200.000
G1 X12.086 Y-10.116 Z-0.895 F200.000
G1 X12.181 Y-10.104 Z-0.903 F200.000
G1 X12.272 Y-10.073 Z-0.912 F200.000
G1 X12.355 Y-10.026 Z-0.920 F200.000
G1 X12.428 Y-9.963 Z-0.929 F200.000
G1 X12.487 Y-9.888 Z-0.938 F200.000
G1 X12.530 Y-9.802 Z-0.946 F200.000
G1 X12.555 Y-9.709 Z-0.955 F200.000
G1 X12.562 Y-9.614 Z-0.963 F200.000
G1 X12.550 Y-9.519 Z-0.972 F200.000
G1 X12.520 Y-9.428 Z-0.980 F200.000
G1 X12.473 Y-9.344 Z-0.989 F200.000
G1 X12.410 Y-9.272 Z-0.998 F200.000
G1 X12.334 Y-9.213 Z-1.006 F200.000
G1 X12.248 Y-9.170 Z-1.015 F200.000
G1 X12.156 Y-9.145 Z-1.023 F200.000
G1 X12.060 Y-9.138 Z-1.032 F200.000
G1 X11.965 Y-9.150 Z-1.040 F200.000
G1 X11.874 Y-9.180 Z-1.049 F200.000
G1 X11.791 Y-9.227 Z-1.058 F200.000
G1 X11.718 Y-9.290 Z-1.066 F200.000
G1 X11.660 Y-9.366 Z-1.075 F200.000
G1 X11.617 Y-9.451 Z-1.083 F200.000
G1 X11.591 Y-9.544 Z-1.092 F200.000
G1 X11.584 Y-9.639 Z-1.100 F200.000
G1 X11.596 Y-9.735 Z-1.109 F200.000
G1 X11.626 Y-9.826 Z-1.118 F200.000
G1 X11.674 Y-9.909 Z-1.126 F200.000
G1 X11.737 Y-9.981 Z-1.135 F200.000
G1 X11.812 Y-10.040 Z-1.143 F200.000
G1 X11.898 Y-10.083 Z-1.152 F200.000
G1 X11.990 Y-10.109 Z-1.160 F200.000
G1 X12.086 Y-10.116 Z-1.169 F200.000
G1 X12.181 Y-10.104 Z-1.178 F200.000
G1 X12.272 Y-10.073 Z-1.186 F200.000
G1 X12.355 Y-10.026 Z-1.195 F200.000
G1 X12.428 Y-9.963 Z-1.203 F200.000
G1 X12.487 Y-9.888 Z-1.212 F200.000
G1 X12.530 Y-9.802 Z-1.220 F200.000
G1 X12.555 Y-9.709 Z-1.229 F200.000
G1 X12.562 Y-9.614 Z-1.238 F200.000
G1 X12.550 Y-9.519 Z-1.246 F200.000
G1 X12.520 Y-9.428 Z-1.255 F200.000
G1 X12.473 Y-9.344 Z-1.263 F200.000
G1 X12.410 Y-9.272 Z-1.272 F200.000
G1 X12.334 Y-9.213 Z-1.280 F200.000
G1 X12.248 Y-9.170 Z-1.289 F200.000
G1 X12.156 Y-9.145 Z-1.298 F200.000
G1 X12.060 Y-9.138 Z-1.306 F200.000
G1 X11.965 Y-9.150 Z-1.315 F200.000
G1 X11.874 Y-9.180 Z-1.323 F200.000
G1 X11.791 Y-9.227 Z-1.332 F200.000
G1 X11.718 Y-9.290 Z-1.340 F200.000
G1 X11.660 Y-9.366 Z-1.349 F200.000
G1 X11.617 Y-9.451 Z-1.358 F200.000
G1 X11.591 Y-9.544 Z-1.366 F200.000
G1 X11.584 Y-9.639 Z-1.375 F200.000
G1 X11.596 Y-9.735 Z-1.383 F200.000
G1 X11.626 Y-9.826 Z-1.392 F200.000
G1 X11.674 Y-9.909 Z-1.400 F200.000
G1 X11.737 Y-9.981 Z-1.409 F200.000
G1 X11.812 Y-10.040 Z-1.418 F200.000
G1 X11.898 Y-10.083 Z-1.426 F200.000
G1 X11.990 Y-10.109 Z-1.435 F200.000
G1 X12.086 Y-10.116 Z-1.443 F200.000
G1 X12.181 Y-10.104 Z-1.452 F200.000
G1 X12.272 Y-10.073 Z-1.460 F200.000
G1 X12.355 Y-10.026 Z-1.469 F200.000
G1 X12.428 Y-9.963 Z-1.478 F200.000
G1 X12.487 Y-9.888 Z-1.486 F200.000
G1 X12.530 Y-9.802 Z-1.495 F200.000
G1 X12.555 Y-9.709 Z-1.503 F200.000
G1 X12.562 Y-9.614 Z-1.512 F200.000
G1 X12.550 Y-9.519 Z-1.520 F200.000
G1 X12.520 Y-9.428 Z-1.529 F200.000
G1 X12.473 Y-9.344 Z-1.538 F200.000
G1 X12.410 Y-9.272 Z-1.546 F200.000
G1 X12.334 Y-9.213 Z-1.555 F200.000
G1 X12.248 Y-9.170 Z-1.563 F200.000
G1 X12.156 Y-9.145 Z-1.572 F200.000
G1 X12.060 Y-9.138 Z-1.580 F200.000
G1 X11.965 Y-9.150 Z-1.589 F200.000
G1 X11.874 Y-9.180 Z-1.598 F200.000
G1 X11.791 Y-9.227 Z-1.606 F200.000
G1 X11.718 Y-9.290 Z-1.615 F200.000
G1 X11.660 Y-9.366 Z-1.623 F200.000
G1 X11.617 Y-9.451 Z-1.632 F200.000
G1 X11.591 Y-9.544 Z-1.641 F200.000
G1 X11.584 Y-9.639 Z-1.649 F200.000
G1 X11.596 Y-9.735 Z-1.658 F200.000
G1 X11.626 Y-9.826 Z-1.666 F200.000
G1 X11.674 Y-9.909 Z-1.675 F200.000
G1 X11.737 Y-9.981 Z-1.683 F200.000
G1 X11.812 Y-10.040 Z-1.692 F200.000
G1 X11.898 Y-10.083 Z-1.701 F200.000
G1 X11.990 Y-10.109 Z-1.709 F200.000
G1 X12.086 Y-10.116 Z-1.718 F200.000
G1 X12.181 Y-10.104 Z-1.726 F200.000
G1 X12.272 Y-10.073 Z-1.735 F200.000
G1 X12.355 Y-10.026 Z-1.743 F200.000
G1 X12.428 Y-9.963 Z-1.752 F200.000
G1 X12.487 Y-9.888 Z-1.761 F200.000
G1 X12.530 Y-9.802 Z-1.769 F200.000
G1 X12.555 Y-9.709 Z-1.778 F200.000
G1 X12.562 Y-9.614 Z-1.786 F200.000
G1 X12.550 Y-9.519 Z-1.795 F200.000
G1 X12.520 Y-9.428 Z-1.803 F200.000
G1 X12.473 Y-9.344 Z-1.812 F200.000
G1 X12.410 Y-9.272 Z-1.821 F200.000
G1 X12.334 Y-9.213 Z-1.829 F200.000
G1 X12.248 Y-9.170 Z-1.838 F200.000
G1 X12.156 Y-9.145 Z-1.846 F200.000
G1 X12.060 Y-9.138 Z-1.855 F200.000
G1 X11.965 Y-9.150 Z-1.863 F200.000
G1 X11.874 Y-9.180 Z-1.872 F200.000
G1 X11.791 Y-9.227 Z-1.881 F200.000
G1 X11.718 Y-9.290 Z-1.889 F200.000
G1 X11.660 Y-9.366 Z-1.898 F200.000
G1 X11.617 Y-9.451 Z-1.906 F200.000
G1 X11.591 Y-9.544 Z-1.915 F200.000
G1 X11.584 Y-9.639 Z-1.923 F200.000
G1 X11.596 Y-9.735 Z-1.932 F200.000
G1 X11.626 Y-9.826 Z-1.941 F200.000
G1 X11.674 Y-9.909 Z-1.949 F200.000
G1 X11.737 Y-9.981 Z-1.958 F200.000
G1 X11.812 Y-10.040 Z-1.966 F200.000
G1 X11.898 Y-10.083 Z-1.975 F200.000
G1 X11.990 Y-10.109 Z-1.983 F200.000
G1 X12.086 Y-10.116 Z-1.992 F200.000
G1 X12.181 Y-10.104 Z-2.001 F200.000
G1 X12.272 Y-10.073 Z-2.009 F200.000
G1 X12.355 Y-10.026 Z-2.018 F200.000
G1 X12.428 Y-9.963 Z-2.026 F200.000
G1 X12.487 Y-9.888 Z-2.035 F200.000
G1 X12.530 Y-9.802 Z-2.043 F200.000
G1 X12.555 Y-9.709 Z-2.052 F200.000
G1 X12.562 Y-9.614 Z-2.061 F200.000
G1 X12.550 Y-9.519 Z-2.069 F200.000
G1 X12.520 Y-9.428 Z-2.078 F200.000
G1 X12.473 Y-9.344 Z-2.086 F200.000
G1 X12.410 Y-9.272 Z-2.095 F200.000
G1 X12.334 Y-9.213 Z-2.103 F200.000
G1 X12.248 Y-9.170 Z-2.112 F200.000
G1 X12.156 Y-9.145 Z-2.121 F200.000
G1 X12.060 Y-9.138 Z-2.129 F200.000
G1 X11.965 Y-9.150 Z-2.138 F200.000
G1 X11.874 Y-9.180 Z-2.146 F200.000
G1 X11.791 Y-9.227 Z-2.155 F200.000
G1 X11.718 Y-9.290 Z-2.163 F200.000
G1 X11.660 Y-9.366 Z-2.172 F200.000
G1 X11.617 Y-9.451 Z-2.181 F200.000
G1 X11.591 Y-9.544 Z-2.189 F200.000
G1 X11.584 Y-9.639 Z-2.198 F200.000
G1 X11.596 Y-9.735 Z-2.206 F200.000
G1 X11.626 Y-9.826 Z-2.215 F200.000
G1 X11.674 Y-9.909 Z-2.223 F200.000
G1 X11.737 Y-9.981 Z-2.232 F200.000
G1 X11.812 Y-10.040 Z-2.241 F200.000
G1 X11.898 Y-10.083 Z-2.249 F200.000
G1 X11.990 Y-10.109 Z-2.258 F200.000
G1 X12.086 Y-10.116 Z-2.266 F200.000
G1 X12.181 Y-10.104 Z-2.275 F200.000
G1 X12.272 Y-10.073 Z-2.283 F200.000
G1 X12.355 Y-10.026 Z-2.292 F200.000
G1 X12.428 Y-9.963 Z-2.301 F200.000
G1 X12.487 Y-9.888 Z-2.309 F200.000
G1 X12.530 Y-9.802 Z-2.318 F200.000
G1 X12.555 Y-9.709 Z-2.326 F200.000
G1 X12.562 Y-9.614 Z-2.335 F200.000
G1 X12.550 Y-9.519 Z-2.343 F200.000
G1 X12.520 Y-9.428 Z-2.352 F200.000
G1 X12.473 Y-9.344 Z-2.361 F200.000
G1 X12.410 Y-9.272 Z-2.369 F200.000
G1 X12.334 Y-9.213 Z-2.378 F200.000
G1 X12.248 Y-9.170 Z-2.386 F200.000
G1 X12.156 Y-9.145 Z-2.395 F200.000
G1 X12.060 Y-9.138 Z-2.404 F200.000
G1 X11.965 Y-9.150 Z-2.412 F200.000
G1 X11.874 Y-9.180 Z-2.421 F200.000
G1 X11.791 Y-9.227 Z-2.429 F200.000
G1 X11.718 Y-9.290 Z-2.438 F200.000
G1 X11.660 Y-9.366 Z-2.446 F200.000
G1 X11.617 Y-9.451 Z-2.455 F200.000
G1 X11.591 Y-9.544 Z-2.464 F200.000
G1 X11.584 Y-9.639 Z-2.472 F200.000
G1 X11.596 Y-9.735 Z-2.481 F200.000
G1 X11.626 Y-9.826 Z-2.489 F200.000
G1 X11.674 Y-9.909 Z-2.498 F200.000
G1 X11.737 Y-9.981 Z-2.506 F200.000
G1 X11.812 Y-10.040 Z-2.515 F200.000
G1 X11.898 Y-10.083 Z-2.524 F200.000
G1 X11.990 Y-10.109 Z-2.532 F200.000
G1 X12.086 Y-10.116 Z-2.541 F200.000
G1 X12.181 Y-10.104 Z-2.549 F200.000
G1 X12.272 Y-10.073 Z-2.558 F200.000
G1 X12.355 Y-10.026 Z-2.566 F200.000
G1 X12.428 Y-9.963 Z-2.575 F200.000
G1 X12.487 Y-9.888 Z-2.584 F200.000
G1 X12.530 Y-9.802 Z-2.592 F200.000
G1 X12.555 Y-9.709 Z-2.601 F200.000
G1 X12.562 Y-9.614 Z-2.609 F200.000
G1 X12.550 Y-9.519 Z-2.618 F200.000
G1 X12.520 Y-9.428 Z-2.626 F200.000
G1 X12.473 Y-9.344 Z-2.635 F200.000
G1 X12.410 Y-9.272 Z-2.644 F200.000
G1 X12.334 Y-9.213 Z-2.652 F200.000
G1 X12.248 Y-9.170 Z-2.661 F200.000
G1 X12.156 Y-9.145 Z-2.669 F200.000
G1 X12.060 Y-9.138 Z-2.678 F200.000
G1 X11.965 Y-9.150 Z-2.686 F200.000
G1 X11.874 Y-9.180 Z-2.695 F200.000
G1 X11.791 Y-9.227 Z-2.704 F200.000
G1 X11.718 Y-9.290 Z-2.712 F200.000
G1 X11.660 Y-9.366 Z-2.721 F200.000
G1 X11.617 Y-9.451 Z-2.729 F200.000
G1 X11.591 Y-9.544 Z-2.738 F200.000
G1 X11.584 Y-9.639 Z-2.746 F200.000
G1 X11.596 Y-9.735 Z-2.755 F200.000
G1 X11.626 Y-9.826 Z-2.764 F200.000
G1 X11.674 Y-9.909 Z-2.772 F200.000
G1 X11.737 Y-9.981 Z-2.781 F200.000
G1 X11.812 Y-10.040 Z-2.789 F200.000
G1 X11.898 Y-10.083 Z-2.798 F200.000
G1 X11.990 Y-10.109 Z-2.806 F200.000
G1 X12.086 Y-10.116 Z-2.815 F200.000
G1 X12.181 Y-10.104 Z-2.824 F200.000
G1 X12.272 Y-10.073 Z-2.832 F200.000
G1 X12.355 Y-10.026 Z-2.841 F200.000
G1 X12.428 Y-9.963 Z-2.849 F200.000
G1 X12.487 Y-9.888 Z-2.858 F200.000
G1 X12.530 Y-9.802 Z-2.866 F200.000
G1 X12.555 Y-9.709 Z-2.875 F200.000
G1 X12.562 Y-9.614 Z-2.884 F200.000
G1 X12.550 Y-9.519 Z-2.892 F200.000
G1 X12.520 Y-9.428 Z-2.901 F200.000
G1 X12.473 Y-9.344 Z-2.909 F200.000
G1 X12.410 Y-9.272 Z-2.918 F200.000
G1 X12.334 Y-9.213 Z-2.926 F200.000
G1 X12.248 Y-9.170 Z-2.935 F200.000
G1 X12.156 Y-9.145 Z-2.944 F200.000
G1 X12.060 Y-9.138 Z-2.952 F200.000
G1 X11.965 Y-9.150 Z-2.961 F200.000
G1 X11.874 Y-9.180 Z-2.969 F200.000
G1 X11.791 Y-9.227 Z-2.978 F200.000
G1 X11.718 Y-9.290 Z-2.986 F200.000
G1 X11.660 Y-9.366 Z-2.995 F200.000
G1 X11.617 Y-9.451 Z-3.004 F200.000
G1 X11.591 Y-9.544 Z-3.012 F200.000
G1 X11.584 Y-9.639 Z-3.021 F200.000
G1 X11.596 Y-9.735 Z-3.029 F200.000
G1 X11.626 Y-9.826 Z-3.038 F200.000
G1 X11.674 Y-9.909 Z-3.046 F200.000
G1 X11.737 Y-9.981 Z-3.055 F200.000
G1 X11.812 Y-10.040 Z-3.064 F200.000
G1 X11.898 Y-10.083 Z-3.072 F200.000
G1 X11.990 Y-10.109 Z-3.081 F200.000
G1 X12.086 Y-10.116 Z-3.089 F200.000
G1 X12.181 Y-10.104 Z-3.098 F200.000
G1 X12.272 Y-10.073 Z-3.106 F200.000
G1 X12.355 Y-10.026 Z-3.115 F200.000
G1 X12.428 Y-9.963 Z-3.124 F200.000
G1 X12.487 Y-9.888 Z-3.132 F200.000
G1 X12.530 Y-9.802 Z-3.141 F200.000
G1 X12.555 Y-9.709 Z-3.149 F200.000
G1 X12.562 Y-9.614 Z-3.158 F200.000
G1 X12.550 Y-9.519 Z-3.167 F200.000
G1 X12.520 Y-9.428 Z-3.175 F200.000
G1 X12.473 Y-9.344 Z-3.184 F200.000
G1 X12.410 Y-9.272 Z-3.192 F200.000
G1 X12.334 Y-9.213 Z-3.201 F200.000
G1 X12.248 Y-9.170 Z-3.209 F200.000
G1 X12.156 Y-9.145 Z-3.218 F200.000
G1 X12.060 Y-9.138 Z-3.227 F200.000
G1 X11.965 Y-9.150 Z-3.235 F200.000
G1 X11.874 Y-9.180 Z-3.244 F200.000
G1 X11.791 Y-9.227 Z-3.252 F200.000
G1 X11.718 Y-9.290 Z-3.261 F200.000
G1 X11.660 Y-9.366 Z-3.269 F200.000
G1 X11.617 Y-9.451 Z-3.278 F200.000
G1 X11.591 Y-9.544 Z-3.287 F200.000
G1 X11.584 Y-9.639 Z-3.295 F200.000
G1 X11.596 Y-9.735 Z-3.304 F200.000
G1 X11.626 Y-9.826 Z-3.312 F200.000
G1 X11.674 Y-9.909 Z-3.321 F200.000
G1 X11.737 Y-9.981 Z-3.329 F200.000
G1 X11.812 Y-10.040 Z-3.338 F200.000
G1 X11.898 Y-10.083 Z-3.347 F200.000
G1 X11.990 Y-10.109 Z-3.355 F200.000
G1 X12.086 Y-10.116 Z-3.364 F200.000
G1 X12.181 Y-10.104 Z-3.372 F200.000
G1 X12.272 Y-10.073 Z-3.381 F200.000
G1 X12.355 Y-10.026 Z-3.389 F200.000
G1 X12.428 Y-9.963 Z-3.398 F200.000
G1 X12.487 Y-9.888 Z-3.407 F200.000
G1 X12.530 Y-9.802 Z-3.415 F200.000
G1 X12.555 Y-9.709 Z-3.424 F200.000
G1 X12.562 Y-9.614 Z-3.432 F200.000
G1 X12.550 Y-9.519 Z-3.441 F200.000
G1 X12.520 Y-9.428 Z-3.449 F200.000
G1 X12.473 Y-9.344 Z-3.458 F200.000
G1 X12.410 Y-9.272 Z-3.467 F200.000
G1 X12.334 Y-9.213 Z-3.475 F200.000
G1 X12.248 Y-9.170 Z-3.484 F200.000
G1 X12.156 Y-9.145 Z-3.492 F200.000
G1 X12.060 Y-9.138 Z-3.501 F200.000
G1 X11.965 Y-9.150 Z-3.509 F200.000
G1 X11.874 Y-9.180 Z-3.518 F200.000
G1 X11.791 Y-9.227 Z-3.527 F200.000
G1 X11.718 Y-9.290 Z-3.535 F200.000
G1 X11.660 Y-9.366 Z-3.544 F200.000
G1 X11.617 Y-9.451 Z-3.552 F200.000
G1 X11.591 Y-9.544 Z-3.561 F200.000
G1 X11.584 Y-9.639 Z-3.569 F200.000
G1 X11.596 Y-9.735 Z-3.578 F200.000
G1 X11.626 Y-9.826 Z-3.587 F200.000
G1 X11.674 Y-9.909 Z-3.595 F200.000
G1 X11.737 Y-9.981 Z-3.604 F200.000
G1 X11.812 Y-10.040 Z-3.612 F200.000
G1 X11.898 Y-10.083 Z-3.621 F200.000
G1 X11.990 Y-10.109 Z-3.629 F200.000
G1 X12.086 Y-10.116 Z-3.638 F200.000
G1 X12.181 Y-10.104 Z-3.647 F200.000
G1 X12.272 Y-10.073 Z-3.655 F200.000
G1 X12.355 Y-10.026 Z-3.664 F200.000
G1 X12.428 Y-9.963 Z-3.672 F200.000
G1 X12.487 Y-9.888 Z-3.681 F200.000
G1 X12.530 Y-9.802 Z-3.689 F200.000
G1 X12.555 Y-9.709 Z-3.698 F200.000
G1 X12.562 Y-9.614 Z-3.707 F200.000
G1 X12.550 Y-9.519 Z-3.715 F200.000
G1 X12.520 Y-9.428 Z-3.724 F200.000
G1 X12.473 Y-9.344 Z-3.732 F200.000
G1 X12.410 Y-9.272 Z-3.741 F200.000
G1 X12.334 Y-9.213 Z-3.749 F200.000
G1 X12.248 Y-9.170 Z-3.758 F200.000
G1 X12.156 Y-9.145 Z-3.767 F200.000
G1 X12.060 Y-9.138 Z-3.775 F200.000
G1 X11.965 Y-9.150 Z-3.784 F200.000
G1 X11.874 Y-9.180 Z-3.792 F200.000
G1 X11.791 Y-9.227 Z-3.801 F200.000
G1 X11.718 Y-9.290 Z-3.809 F200.000
G1 X11.660 Y-9.366 Z-3.818 F200.000
G1 X11.617 Y-9.451 Z-3.827 F200.000
G1 X11.591 Y-9.544 Z-3.835 F200.000
G1 X11.584 Y-9.639 Z-3.844 F200.000
G1 X11.596 Y-9.735 Z-3.852 F200.000
G1 X11.626 Y-9.826 Z-3.861 F200.000
G1 X11.674 Y-9.909 Z-3.870 F200.000
G1 X11.737 Y-9.981 Z-3.878 F200.000
G1 X11.812 Y-10.040 Z-3.887 F200.000
G1 X11.898 Y-10.083 Z-3.895 F200.000
G1 X11.990 Y-10.109 Z-3.904 F200.000
G1 X12.086 Y-10.116 Z-3.912 F200.000
G1 X12.181 Y-10.104 Z-3.921 F200.000
G1 X12.272 Y-10.073 Z-3.930 F200.000
G1 X12.355 Y-10.026 Z-3.938 F200.000
G1 X12.428 Y-9.963 Z-3.947 F200.000
G1 X12.487 Y-9.888 Z-3.955 F200.000
G1 X12.530 Y-9.802 Z-3.964 F200.000
G1 X12.555 Y-9.709 Z-3.972 F200.000
G1 X12.562 Y-9.614 Z-3.981 F200.000
G1 X12.550 Y-9.519 Z-3.990 F200.000
G1 X12.520 Y-9.428 Z-3.998 F200.000
G1 X12.473 Y-9.344 Z-4.007 F200.000
G1 X12.410 Y-9.272 Z-4.015 F200.000
G1 X12.334 Y-9.213 Z-4.024 F200.000
G1 X12.248 Y-9.170 Z-4.032 F200.000
G1 X12.156 Y-9.145 Z-4.041 F200.000
G1 X12.060 Y-9.138 Z-4.050 F200.000
G1 X11.965 Y-9.150 Z-4.058 F200.000
G1 X11.874 Y-9.180 Z-4.067 F200.000
G1 X11.791 Y-9.227 Z-4.075 F200.000
G1 X11.718 Y-9.290 Z-4.084 F200.000
G1 X11.660 Y-9.366 Z-4.092 F200.000
G1 X11.617 Y-9.451 Z-4.101 F200.000
G1 X11.591 Y-9.544 Z-4.110 F200.000
G1 X11.584 Y-9.639 Z-4.118 F200.000
G1 X11.596 Y-9.735 Z-4.127 F200.000
G1 X11.626 Y-9.826 Z-4.135 F200.000
G1 X11.674 Y-9.909 Z-4.144 F200.000
G1 X11.737 Y-9.981 Z-4.152 F200.000
G1 X11.812 Y-10.040 Z-4.161 F200.000
G1 X11.898 Y-10.083 Z-4.170 F200.000
G1 X11.990 Y-10.109 Z-4.178 F200.000
G1 X12.086 Y-10.116 Z-4.187 F200.000
G1 X12.181 Y-10.104 Z-4.195 F200.000
G1 X12.272 Y-10.073 Z-4.204 F200.000
G1 X12.355 Y-10.026 Z-4.212 F200.000
G1 X12.428 Y-9.963 Z-4.221 F200.000
G1 X12.487 Y-9.888 Z-4.230 F200.000
G1 X12.530 Y-9.802 Z-4.238 F200.000
G1 X12.555 Y-9.709 Z-4.247 F200.000
G1 X12.562 Y-9.614 Z-4.255 F200.000
G1 X12.550 Y-9.519 Z-4.264 F200.000
G1 X12.520 Y-9.428 Z-4.272 F200.000
G1 X12.473 Y-9.344 Z-4.281 F200.000
G1 X12.410 Y-9.272 Z-4.290 F200.000
G1 X12.334 Y-9.213 Z-4.298 F200.000
G1 X12.248 Y-9.170 Z-4.307 F200.000
G1 X12.156 Y-9.145 Z-4.315 F200.000
G1 X12.060 Y-9.138 Z-4.324 F200.000
G1 X11.965 Y-9.150 Z-4.332 F200.000
G1 X11.874 Y-9.180 Z-4.341 F200.000
G1 X11.791 Y-9.227 Z-4.350 F200.000
G1 X11.718 Y-9.290 Z-4.358 F200.000
G1 X11.660 Y-9.366 Z-4.367 F200.000
G1 X11.617 Y-9.451 Z-4.375 F200.000
G1 X11.591 Y-9.544 Z-4.384 F200.000
G1 X11.584 Y-9.639 Z-4.392 F200.000
G1 X11.596 Y-9.735 Z-4.401 F200.000
G1 X11.626 Y-9.826 Z-4.410 F200.000
G1 X11.674 Y-9.909 Z-4.418 F200.000
G1 X11.737 Y-9.981 Z-4.427 F200.000
G1 X11.812 Y-10.040 Z-4.435 F200.000
G1 X11.898 Y-10.083 Z-4.444 F200.000
G1 X11.990 Y-10.109 Z-4.452 F200.000
G1 X12.086 Y-10.116 Z-4.461 F200.000
G1 X12.181 Y-10.104 Z-4.470 F200.000
G1 X12.272 Y-10.073 Z-4.478 F200.000
G1 X12.355 Y-10.026 Z-4.487 F200.000
G1 X12.428 Y-9.963 Z-4.495 F200.000
G1 X12.487 Y-9.888 Z-4.504 F200.000
G1 X12.530 Y-9.802 Z-4.512 F200.000
G1 X12.555 Y-9.709 Z-4.521 F200.000
G1 X12.562 Y-9.614 Z-4.530 F200.000
G1 X12.550 Y-9.519 Z-4.538 F200.000
G1 X12.520 Y-9.428 Z-4.547 F200.000
G1 X12.473 Y-9.344 Z-4.555 F200.000
G1 X12.410 Y-9.272 Z-4.564 F200.000
G1 X12.334 Y-9.213 Z-4.572 F200.000
G1 X12.248 Y-9.170 Z-4.581 F200.000
G1 X12.156 Y-9.145 Z-4.590 F200.000
G1 X12.060 Y-9.138 Z-4.598 F200.000
G1 X11.965 Y-9.150 Z-4.607 F200.000
G1 X11.874 Y-9.180 Z-4.615 F200.000
G1 X11.791 Y-9.227 Z-4.624 F200.000
G1 X11.718 Y-9.290 Z-4.633 F200.000
G1 X11.660 Y-9.366 Z-4.641 F200.000
G1 X11.617 Y-9.451 Z-4.650 F200.000
G1 X11.591 Y-9.544 Z-4.658 F200.000
G1 X11.584 Y-9.639 Z-4.667 F200.000
G1 X11.596 Y-9.735 Z-4.675 F200.000
G1 X11.626 Y-9.826 Z-4.684 F200.000
G1 X11.674 Y-9.909 Z-4.693 F200.000
G1 X11.737 Y-9.981 Z-4.701 F200.000
G1 X11.812 Y-10.040 Z-4.710 F200.000
G1 X11.898 Y-10.083 Z-4.718 F200.000
G1 X11.990 Y-10.109 Z-4.727 F200.000
G1 X12.086 Y-10.116 Z-4.735 F200.000
G1 X12.181 Y-10.104 Z-4.744 F200.000
G1 X12.272 Y-10.073 Z-4.753 F200.000
G1 X12.355 Y-10.026 Z-4.761 F200.000
G1 X12.428 Y-9.963 Z-4.770 F200.000
G1 X12.487 Y-9.888 Z-4.778 F200.000
G1 X12.530 Y-9.802 Z-4.787 F200.000
G1 X12.555 Y-9.709 Z-4.795 F200.000
G1 X12.562 Y-9.614 Z-4.804 F200.000
G1 X12.550 Y-9.519 Z-4.813 F200.000
G1 X12.520 Y-9.428 Z-4.821 F200.000
G1 X12.473 Y-9.344 Z-4.830 F200.000
G1 X12.410 Y-9.272 Z-4.838 F200.000
G1 X12.334 Y-9.213 Z-4.847 F200.000
G1 X12.248 Y-9.170 Z-4.855 F200.000
G1 X12.156 Y-9.145 Z-4.864 F200.000
G1 X12.060 Y-9.138 Z-4.873 F200.000
G1 X11.965 Y-9.150 Z-4.881 F200.000
G1 X11.874 Y-9.180 Z-4.890 F200.000
G1 X11.791 Y-9.227 Z-4.898 F200.000
G1 X11.718 Y-9.290 Z-4.907 F200.000
G1 X11.660 Y-9.366 Z-4.915 F200.000
G1 X11.617 Y-9.451 Z-4.924 F200.000
G1 X11.591 Y-9.544 Z-4.933 F200.000
G1 X11.584 Y-9.639 Z-4.941 F200.000
G1 X11.596 Y-9.735 Z-4.950 F200.000
G1 X11.626 Y-9.826 Z-4.958 F200.000
G1 X11.674 Y-9.909 Z-4.967 F200.000
G1 X11.737 Y-9.981 Z-4.975 F200.000
G1 X11.812 Y-10.040 Z-4.984 F200.000
G1 X11.898 Y-10.083 Z-4.993 F200.000
G1 X11.990 Y-10.109 Z-5.000 F200.000
G1 X12.086 Y-10.116 Z-5.000 F200.000
G1 X12.181 Y-10.104 Z-5.000 F200.000
G1 X12.272 Y-10.073 Z-5.000 F200.000
G1 X12.355 Y-10.026 Z-5.000 F200.000
G1 X12.428 Y-9.963 Z-5.000 F200.000
G1 X12.487 Y-9.888 Z-5.000 F200.000
G1 X12.530 Y-9.802 Z-5.000 F200.000
G1 X12.555 Y-9.709 Z-5.000 F200.000
G1 X12.562 Y-9.614 Z-5.000 F200.000
G1 X12.550 Y-9.519 Z-5.000 F200.000
G1 X12.520 Y-9.428 Z-5.000 F200.000
G1 X12.473 Y-9.344 Z-5.000 F200.000
G1 X12.410 Y-9.272 Z-5.000 F200.000
G1 X12.334 Y-9.213 Z-5.000 F200.000
G1 X12.248 Y-9.170 Z-5.000 F200.000
G1 X12.156 Y-9.145 Z-5.000 F200.000
G1 X12.060 Y-9.138 Z-5.000 F200.000
G1 X11.965 Y-9.150 Z-5.000 F200.000
G1 X11.874 Y-9.180 Z-5.000 F200.000
G1 X11.791 Y-9.227 Z-5.000 F200.000
G1 X11.718 Y-9.290 Z-5.000 F200.000
G1 X11.660 Y-9.366 Z-5.000 F200.000
G1 X11.617 Y-9.451 Z-5.000 F200.000
G1 X11.591 Y-9.544 Z-5.000 F200.000
G1 X11.584 Y-9.639 Z-5.000 F200.000
G1 X11.596 Y-9.735 Z-5.000 F200.000
G1 X11.626 Y-9.826 Z-5.000 F200.000
G1 X11.674 Y-9.909 Z-5.000 F200.000
G1 X11.737 Y-9.981 Z-5.000 F200.000
G1 X11.812 Y-10.040 Z-5.000 F200.000
G1 X11.898 Y-10.083 Z-5.000 F200.000
(Adaptive - depth: -5.000000)
G1 X12.073 Y-10.126 F200.000
G1 X12.099 Y-10.139 F200.000
G1 X12.156 Y-10.148 F200.000
G1 X12.212 Y-10.146 F200.000
G1 X12.296 Y-10.124 F200.000
G1 X12.402 Y-10.069 F200.000
G1 X12.448 Y-10.034 F200.000
G1 X12.600 Y-9.846 F200.000
G1 X12.632 Y-9.750 F200.000
G1 X12.642 Y-9.694 F200.000
G1 X12.645 Y-9.630 F200.000
G1 X12.640 Y-9.540 F200.000
G1 X12.612 Y-9.426 F200.000
G1 X12.570 Y-9.336 F200.000
G1 X12.523 Y-9.265 F200.000
G1 X12.463 Y-9.201 F200.000
G1 X12.392 Y-9.146 F200.000
G1 X12.311 Y-9.099 F200.000
G1 X12.218 Y-9.066 F200.000
G1 X12.128 Y-9.049 F200.000
G1 X12.036 Y-9.045 F200.000
G1 X11.942 Y-9.058 F200.000
G1 X11.854 Y-9.084 F200.000
G1 X11.771 Y-9.124 F200.000
G1 X11.696 Y-9.176 F200.000
G1 X11.630 Y-9.240 F200.000
G1 X11.576 Y-9.313 F200.000
G1 X11.533 Y-9.394 F200.000
G1 X11.501 Y-9.486 F200.000
G1 X11.486 Y-9.578 F200.000
G1 X11.486 Y-9.670 F200.000
G1 X11.499 Y-9.756 F200.000
G1 X11.527 Y-9.842 F200.000
G1 X11.568 Y-9.927 F200.000
G1 X11.627 Y-10.008 F200.000
G1 X11.692 Y-10.073 F200.000
G1 X11.769 Y-10.128 F200.000
G1 X11.901 Y-10.189 F200.000
G1 X12.013 Y-10.221 F200.000
G1 X12.126 Y-10.231 F200.000
G1 X12.238 Y-10.218 F200.000
G1 X12.349 Y-10.180 F200.000
G1 X12.450 Y-10.120 F200.000
G1 X12.629 Y-9.959 F200.000
G1 X12.692 Y-9.831 F200.000
G1 X12.709 Y-9.773 F200.000
G1 X12.720 Y-9.713 F200.000
G1 X12.728 Y-9.623 F200.000
G1 X12.717 Y-9.490 F200.000
G1 X12.689 Y-9.385 F200.000
G1 X12.662 Y-9.328 F200.000
G1 X12.591 Y-9.212 F200.000
G1 X12.505 Y-9.122 F200.000
G1 X12.377 Y-9.034 F200.000
G1 X12.293 Y-8.994 F200.000
G1 X12.143 Y-8.955 F200.000
G1 X12.023 Y-8.947 F200.000
G1 X11.902 Y-8.962 F200.000
G1 X11.786 Y-9.000 F200.000
G1 X11.655 Y-9.075 F200.000
G1 X11.542 Y-9.174 F200.000
G1 X11.456 Y-9.293 F200.000
G1 X11.388 Y-9.456 F200.000
G1 X11.366 Y-9.597 F200.000
G1 X11.373 Y-9.737 F200.000
G1 X11.413 Y-9.876 F200.000
G1 X11.465 Y-9.977 F200.000
G1 X11.553 Y-10.090 F200.000
G1 X11.687 Y-10.199 F200.000
G1 X11.812 Y-10.266 F200.000
G1 X11.953 Y-10.306 F200.000
G1 X12.122 Y-10.319 F200.000
G1 X12.235 Y-10.304 F200.000
G1 X12.373 Y-10.257 F200.000
G1 X12.527 Y-10.169 F200.000
G1 X12.617 Y-10.090 F200.000
G1 X12.689 Y-9.992 F200.000
G1 X12.756 Y-9.856 F200.000
G1 X12.794 Y-9.707 F200.000
G1 X12.801 Y-9.587 F200.000
G1 X12.782 Y-9.437 F200.000
G1 X12.745 Y-9.317 F200.000
G1 X12.704 Y-9.233 F200.000
G1 X12.612 Y-9.107 F200.000
G1 X12.522 Y-9.021 F200.000
G1 X12.364 Y-8.919 F200.000
G1 X12.248 Y-8.874 F200.000
G1 X12.068 Y-8.841 F200.000
G1 X11.917 Y-8.846 F200.000
G1 X11.741 Y-8.895 F200.000
G1 X11.632 Y-8.949 F200.000
G1 X11.508 Y-9.038 F200.000
G1 X11.403 Y-9.144 F200.000
G1 X11.321 Y-9.268 F200.000
G1 X11.265 Y-9.405 F200.000
G1 X11.236 Y-9.546 F200.000
G1 X11.238 Y-9.715 F200.000
G1 X11.261 Y-9.827 F200.000
G1 X11.300 Y-9.936 F200.000
G1 X11.373 Y-10.062 F200.000
G1 X11.486 Y-10.191 F200.000
G1 X11.574 Y-10.265 F200.000
G1 X11.698 Y-10.336 F200.000
G1 X11.887 Y-10.402 F200.000
G1 X12.028 Y-10.420 F200.000
G1 X12.197 Y-10.409 F200.000
G1 X12.366 Y-10.364 F200.000
G1 X12.523 Y-10.283 F200.000
G1 X12.617 Y-10.210 F200.000
G1 X12.717 Y-10.099 F200.000
G1 X12.807 Y-9.942 F200.000
G1 X12.850 Y-9.827 F200.000
G1 X12.878 Y-9.677 F200.000
G1 X12.878 Y-9.497 F200.000
G1 X12.856 Y-9.377 F200.000
G1 X12.788 Y-9.203 F200.000
G1 X12.724 Y-9.096 F200.000
G1 X12.623 Y-8.977 F200.000
G1 X12.527 Y-8.897 F200.000
G1 X12.394 Y-8.816 F200.000
G1 X12.250 Y-8.758 F200.000
G1 X12.069 Y-8.722 F200.000
G1 X11.889 Y-8.726 F200.000
G1 X11.711 Y-8.769 F200.000
G1 X11.520 Y-8.861 F200.000
G1 X11.398 Y-8.951 F200.000
G1 X11.274 Y-9.081 F200.000
G1 X11.165 Y-9.257 F200.000
G1 X11.118 Y-9.398 F200.000
G1 X11.090 Y-9.595 F200.000
G1 X11.099 Y-9.764 F200.000
G1 X11.148 Y-9.931 F200.000
G1 X11.208 Y-10.060 F200.000
G1 X11.328 Y-10.221 F200.000
G1 X11.505 Y-10.368 F200.000
G1 X11.629 Y-10.439 F200.000
G1 X11.820 Y-10.503 F200.000
G1 X11.989 Y-10.525 F200.000
G1 X12.214 Y-10.510 F200.000
G1 X12.383 Y-10.465 F200.000
G1 X12.516 Y-10.402 F200.000
G1 X12.636 Y-10.315 F200.000
G1 X12.760 Y-10.186 F200.000
G1 X12.861 Y-10.034 F200.000
G1 X12.929 Y-9.865 F200.000
G1 X12.966 Y-9.655 F200.000
G1 X12.970 Y-9.535 F200.000
G1 X12.944 Y-9.355 F200.000
G1 X12.893 Y-9.206 F200.000
G1 X12.805 Y-9.041 F200.000
G1 X12.687 Y-8.895 F200.000
G1 X12.570 Y-8.792 F200.000
G1 X12.437 Y-8.707 F200.000
G1 X12.233 Y-8.630 F200.000
G1 X12.053 Y-8.600 F200.000
G1 X11.932 Y-8.600 F200.000
G1 X11.842 Y-8.617 F200.000
G1 X11.724 Y-8.653 F200.000
G1 X11.612 Y-8.702 F200.000
G1 X11.407 Y-8.837 F200.000
G1 X11.281 Y-8.961 F200.000
G1 X11.180 Y-9.109 F200.000
G1 X11.092 Y-9.295 F200.000
G1 X11.047 Y-9.492 F200.000
G1 X11.039 Y-9.660 F200.000
G1 X11.051 Y-9.801 F200.000
G1 X11.096 Y-9.970 F200.000
G1 X11.152 Y-10.101 F200.000
G1 X11.242 Y-10.246 F200.000
G1 X11.379 Y-10.394 F200.000
G1 X11.492 Y-10.482 F200.000
G1 X11.617 Y-10.553 F200.000
G1 X11.724 Y-10.597 F200.000
G1 X11.949 Y-10.640 F200.000
G1 X12.118 Y-10.638 F200.000
G1 X12.315 Y-10.604 F200.000
G1 X12.507 Y-10.527 F200.000
G1 X12.704 Y-10.390 F200.000
G1 X12.844 Y-10.236 F200.000
G1 X12.955 Y-10.056 F200.000
G1 X13.032 Y-9.856 F200.000
G1 X13.062 Y-9.675 F200.000
G1 X13.064 Y-9.495 F200.000
G1 X13.023 Y-9.285 F200.000
G1 X12.940 Y-9.083 F200.000
G1 X12.856 Y-8.951 F200.000
G1 X12.696 Y-8.799 F200.000
G1 X12.538 Y-8.702 F200.000
G1 X12.426 Y-8.653 F200.000
G1 X12.216 Y-8.600 F200.000
G1 X12.216 Y-8.600 F200.000
G1 X12.152 Y-8.606 F200.000
G1 X12.113 Y-8.627 F200.000
G0 X12.103 Y-8.638
G0 X12.084 Y-8.690
G0 X11.764 Y-10.465
G1 X11.760 Y-10.486 F200.000
G1 X11.752 Y-10.548 F200.000
G1 X11.762 Y-10.576 F200.000
G1 X11.794 Y-10.610 F200.000
G1 X11.852 Y-10.640 F200.000
G1 X11.852 Y-10.640 F200.000
G1 X12.049 Y-10.664 F200.000
G1 X12.218 Y-10.655 F200.000
G1 X12.302 Y-10.638 F200.000
G1 X12.471 Y-10.583 F200.000
G1 X12.653 Y-10.488 F200.000
G1 X12.769 Y-10.396 F200.000
G1 X12.871 Y-10.291 F200.000
G1 X12.942 Y-10.195 F200.000
G1 X13.049 Y-9.977 F200.000
G1 X13.099 Y-9.769 F200.000
G1 X13.109 Y-9.709 F200.000
G1 X13.107 Y-9.559 F200.000
G1 X13.086 Y-9.409 F200.000
G1 X13.041 Y-9.259 F200.000
G1 X12.961 Y-9.090 F200.000
G1 X12.961 Y-9.090 F200.000
G1 X12.951 Y-9.084 F200.000
G1 X12.942 Y-9.084 F200.000
G1 X12.929 Y-9.099 F200.000
G1 X12.931 Y-9.116 F200.000
G1 X12.947 Y-9.124 F200.000
G1 X12.966 Y-9.118 F200.000
G1 X12.979 Y-9.099 F200.000
G1 X12.979 Y-9.099 F200.000
G1 X12.878 Y-8.955 F200.000
G1 X12.792 Y-8.865 F200.000
G1 X12.700 Y-8.786 F200.000
G1 X12.630 Y-8.741 F200.000
G1 X12.503 Y-8.672 F200.000
G1 X12.405 Y-8.630 F200.000
G1 X12.233 Y-8.591 F200.000
G1 X12.111 Y-8.580 F200.000
G1 X11.932 Y-8.589 F200.000
G1 X11.889 Y-8.597 F200.000
G1 X11.696 Y-8.649 F200.000
G1 X11.582 Y-8.702 F200.000
G1 X11.415 Y-8.814 F200.000
G1 X11.323 Y-8.899 F200.000
G1 X11.253 Y-8.977 F200.000
G1 X11.193 Y-9.060 F200.000
G1 X11.159 Y-9.118 F200.000
G1 X11.103 Y-9.233 F200.000
G1 X11.083 Y-9.283 F200.000
G1 X11.043 Y-9.433 F200.000
G1 X11.026 Y-9.555 F200.000
G1 X11.028 Y-9.709 F200.000
G1 X11.038 Y-9.801 F200.000
G1 X11.079 Y-9.951 F200.000
G1 X11.158 Y-10.137 F200.000
G1 X11.235 Y-10.255 F200.000
G1 X11.306 Y-10.340 F200.000
G1 X11.368 Y-10.402 F200.000
G1 X11.482 Y-10.493 F200.000
G1 X11.598 Y-10.561 F200.000
G1 X11.694 Y-10.604 F200.000
G1 X11.884 Y-10.659 F200.000
G1 X11.925 Y-10.666 F200.000
G1 X12.051 Y-10.677 F200.000
G1 X12.146 Y-10.675 F200.000
G1 X12.229 Y-10.666 F200.000
G1 X12.321 Y-10.647 F200.000
G1 X12.452 Y-10.606 F200.000
G1 X12.522 Y-10.576 F200.000
G1 X12.632 Y-10.516 F200.000
G1 X12.683 Y-10.482 F200.000
G1 X12.745 Y-10.433 F200.000
G1 X12.837 Y-10.349 F200.000
G1 X12.916 Y-10.255 F200.000
G1 X12.976 Y-10.165 F200.000
G1 X13.008 Y-10.105 F200.000
G1 X13.056 Y-9.994 F200.000
G1 X13.079 Y-9.931 F200.000
G1 X13.103 Y-9.827 F200.000
G1 X13.122 Y-9.707 F200.000
G1 X13.124 Y-9.644 F200.000
G1 X13.118 Y-9.525 F200.000
G1 X13.096 Y-9.390 F200.000
G1 X13.068 Y-9.287 F200.000
G1 X13.045 Y-9.233 F200.000
G1 X12.979 Y-9.099 F200.000
G1 X12.979 Y-9.099 F200.000
G0 Z6.000
(Helix to depth: -10.000000)
G0 Z6.000
G0 X11.585 Y-9.605 Z6.000
G0 X11.585 Y-9.605 Z4.000
G1 X11.585 Y-9.605 Z-5.000 F200.000
G1 X11.585 Y-9.605 Z-5.000 F200.000
G1 X11.590 Y-9.701 Z-5.009 F200.000
G1 X11.614 Y-9.794 Z-5.017 F200.000
G1 X11.655 Y-9.880 Z-5.026 F200.000
G1 X11.713 Y-9.957 Z-5.034 F200.000
G1 X11.784 Y-10.021 Z-5.043 F200.000
G1 X11.867 Y-10.070 Z-5.051 F200.000
G1 X11.957 Y-10.102 Z-5.060 F200.000
G1 X12.052 Y-10.115 Z-5.069 F200.000
G1 X12.148 Y-10.110 Z-5.077 F200.000
G1 X12.240 Y-10.086 Z-5.086 F200.000
G1 X12.327 Y-10.045 Z-5.094 F200.000
G1 X12.404 Y-9.987 Z-5.103 F200.000
G1 X12.468 Y-9.916 Z-5.111 F200.000
G1 X12.516 Y-9.833 Z-5.120 F200.000
G1 X12.548 Y-9.743 Z-5.129 F200.000
G1 X12.562 Y-9.648 Z-5.137 F200.000
G1 X12.557 Y-9.552 Z-5.146 F200.000
G1 X12.533 Y-9.459 Z-5.154 F200.000
G1 X12.491 Y-9.373 Z-5.163 F200.000
G1 X12.434 Y-9.296 Z-5.171 F200.000
G1 X12.362 Y-9.232 Z-5.180 F200.000
G1 X12.280 Y-9.183 Z-5.189 F200.000
G1 X12.189 Y-9.152 Z-5.197 F200.000
G1 X12.094 Y-9.138 Z-5.206 F200.000
G1 X11.999 Y-9.143 Z-5.214 F200.000
G1 X11.906 Y-9.167 Z-5.223 F200.000
G1 X11.819 Y-9.209 Z-5.231 F200.000
G1 X11.743 Y-9.266 Z-5.240 F200.000
G1 X11.679 Y-9.337 Z-5.249 F200.000
G1 X11.630 Y-9.420 Z-5.257 F200.000
G1 X11.598 Y-9.510 Z-5.266 F200.000
G1 X11.585 Y-9.605 Z-5.274 F200.000
G1 X11.590 Y-9.701 Z-5.283 F200.000
G1 X11.614 Y-9.794 Z-5.291 F200.000
G1 X11.655 Y-9.880 Z-5.300 F200.000
G1 X11.713 Y-9.957 Z-5.309 F200.000
G1 X11.784 Y-10.021 Z-5.317 F200.000
G1 X11.867 Y-10.070 Z-5.326 F200.000
G1 X11.957 Y-10.102 Z-5.334 F200.000
G1 X12.052 Y-10.115 Z-5.343 F200.000
G1 X12.148 Y-10.110 Z-5.351 F200.000
G1 X12.240 Y-10.086 Z-5.360 F200.000
G1 X12.327 Y-10.045 Z-5.369 F200.000
G1 X12.404 Y-9.987 Z-5.377 F200.000
G1 X12.468 Y-9.916 Z-5.386 F200.000
G1 X12.516 Y-9.833 Z-5.394 F200.000
G1 X12.548 Y-9.743 Z-5.403 F200.000
G1 X12.562 Y-9.648 Z-5.412 F200.000
G1 X12.557 Y-9.552 Z-5.420 F200.000
G1 X12.533 Y-9.459 Z-5.429 F200.000
G1 X12.491 Y-9.373 Z-5.437 F200.000
G1 X12.434 Y-9.296 Z-5.446 F200.000
G1 X12.362 Y-9.232 Z-5.454 F200.000
G1 X12.280 Y-9.183 Z-5.463 F200.000
G1 X12.189 Y-9.152 Z-5.472 F200.000
G1 X12.094 Y-9.138 Z-5.480 F200.000
G1 X11.999 Y-9.143 Z-5.489 F200.000
G1 X11.906 Y-9.167 Z-5.497 F200.000
G1 X11.819 Y-9.209 Z-5.506 F200.000
G1 X11.743 Y-9.266 Z-5.514 F200.000
G1 X11.679 Y-9.337 Z-5.523 F200.000
G1 X11.630 Y-9.420 Z-5.532 F200.000
G1 X11.598 Y-9.510 Z-5.540 F200.000
G1 X11.585 Y-9.605 Z-5.549 F200.000
G1 X11.590 Y-9.701 Z-5.557 F200.000
G1 X11.614 Y-9.794 Z-5.566 F200.000
G1 X11.655 Y-9.880 Z-5.574 F200.000
G1 X11.713 Y-9.957 Z-5.583 F200.000
G1 X11.784 Y-10.021 Z-5.592 F200.000
G1 X11.867 Y-10.070 Z-5.600 F200.000
G1 X11.957 Y-10.102 Z-5.609 F200.000
G1 X12.052 Y-10.115 Z-5.617 F200.000
G1 X12.148 Y-10.110 Z-5.626 F200.000
G1 X12.240 Y-10.086 Z-5.634 F200.000
G1 X12.327 Y-10.045 Z-5.643 F200.000
G1 X12.404 Y-9.987 Z-5.652 F200.000
G1 X12.468 Y-9.916 Z-5.660 F200.000
G1 X12.516 Y-9.833 Z-5.669 F200.000
G1 X12.548 Y-9.743 Z-5.677 F200.000
G1 X12.562 Y-9.648 Z-5.686 F200.000
G1 X12.557 Y-9.552 Z-5.694 F200.000
G1 X12.533 Y-9.459 Z-5.703 F200.000
G1 X12.491 Y-9.373 Z-5.712 F200.000
G1 X12.434 Y-9.296 Z-5.720 F200.000
G1 X12.362 Y-9.232 Z-5.729 F200.000
G1 X12.280 Y-9.183 Z-5.737 F200.000
G1 X12.189 Y-9.152 Z-5.746 F200.000
G1 X12.094 Y-9.138 Z-5.754 F200.000
G1 X11.999 Y-9.143 Z-5.763 F200.000
G1 X11.906 Y-9.167 Z-5.772 F200.000
G1 X11.819 Y-9.209 Z-5.780 F200.000
G1 X11.743 Y-9.266 Z-5.789 F200.000
G1 X11.679 Y-9.337 Z-5.797 F200.000
G1 X11.630 Y-9.420 Z-5.806 F200.000
G1 X11.598 Y-9.510 Z-5.814 F200.000
G1 X11.585 Y-9.605 Z-5.823 F200.000
G1 X11.590 Y-9.701 Z-5.832 F200.000
G1 X11.614 Y-9.794 Z-5.840 F200.000
G1 X11.655 Y-9.880 Z-5.849 F200.000
G1 X11.713 Y-9.957 Z-5.857 F200.000
G1 X11.784 Y-10.021 Z-5.866 F200.000
G1 X11.867 Y-10.070 Z-5.874 F200.000
G1 X11.957 Y-10.102 Z-5.883 F200.000
G1 X12.052 Y-10.115 Z-5.892 F200.000
G1 X12.148 Y-10.110 Z-5.900 F200.000
G1 X12.240 Y-10.086 Z-5.909 F200.000
G1 X12.327 Y-10.045 Z-5.917 F200.000
G1 X12.404 Y-9.987 Z-5.926 F200.000
G1 X12.468 Y-9.916 Z-5.934 F200.000
G1 X12.516 Y-9.833 Z-5.943 F200.000
G1 X12.548 Y-9.743 Z-5.952 F200.000
G1 X12.562 Y-9.648 Z-5.960 F200.000
G1 X12.557 Y-9.552 Z-5.969 F200.000
G1 X12.533 Y-9.459 Z-5.977 F200.000
G1 X12.491 Y-9.373 Z-5.986 F200.000
G1 X12.434 Y-9.296 Z-5.994 F200.000
G1 X12.362 Y-9.232 Z-6.003 F200.000
G1 X12.280 Y-9.183 Z-6.012 F200.000
G1 X12.189 Y-9.152 Z-6.020 F200.000
G1 X12.094 Y-9.138 Z-6.029 F200.000
G1 X11.999 Y-9.143 Z-6.037 F200.000
G1 X11.906 Y-9.167 Z-6.046 F200.000
G1 X11.819 Y-9.209 Z-6.054 F200.000
G1 X11.743 Y-9.266 Z-6.063 F200.000
G1 X11.679 Y-9.337 Z-6.072 F200.000
G1 X11.630 Y-9.420 Z-6.080 F200.000
G1 X11.598 Y-9.510 Z-6.089 F200.000
G1 X11.585 Y-9.605 Z-6.097 F200.000
G1 X11.590 Y-9.701 Z-6.106 F200.000
G1 X11.614 Y-9.794 Z-6.114 F200.000
G1 X11.655 Y-9.880 Z-6.123 F200.000
G1 X11.713 Y-9.957 Z-6.132 F200.000
G1 X11.784 Y-10.021 Z-6.140 F200.000
G1 X11.867 Y-10.070 Z-6.149 F200.000
G1 X11.957 Y-10.102 Z-6.157 F200.000
G1 X12.052 Y-10.115 Z-6.166 F200.000
G1 X12.148 Y-10.110 Z-6.175 F200.000
G1 X12.240 Y-10.086 Z-6.183 F200.000
G1 X12.327 Y-10.045 Z-6.192 F200.000
G1 X12.404 Y-9.987 Z-6.200 F200.000
G1 X12.468 Y-9.916 Z-6.209 F200.000
G1 X12.516 Y-9.833 Z-6.217 F200.000
G1 X12.548 Y-9.743 Z-6.226 F200.000
G1 X12.562 Y-9.648 Z-6.235 F200.000
G1 X12.557 Y-9.552 Z-6.243 F200.000
G1 X12.533 Y-9.459 Z-6.252 F200.000
G1 X12.491 Y-9.373 Z-6.260 F200.000
G1 X12.434 Y-9.296 Z-6.269 F200.000
G1 X12.362 Y-9.232 Z-6.277 F200.000
G1 X12.280 Y-9.183 Z-6.286 F200.000
G1 X12.189 Y-9.152 Z-6.295 F200.000
G1 X12.094 Y-9.138 Z-6.303 F200.000
G1 X11.999 Y-9.143 Z-6.312 F200.000
G1 X11.906 Y-9.167 Z-6.320 F200.000
G1 X11.819 Y-9.209 Z-6.329 F200.000
G1 X11.743 Y-9.266 Z-6.337 F200.000
G1 X11.679 Y-9.337 Z-6.346 F200.000
G1 X11.630 Y-9.420 Z-6.355 F200.000
G1 X11.598 Y-9.510 Z-6.363 F200.000
G1 X11.585 Y-9.605 Z-6.372 F200.000
G1 X11.590 Y-9.701 Z-6.380 F200.000
G1 X11.614 Y-9.794 Z-6.389 F200.000
G1 X11.655 Y-9.880 Z-6.397 F200.000
G1 X11.713 Y-9.957 Z-6.406 F200.000
G1 X11.784 Y-10.021 Z-6.415 F200.000
G1 X11.867 Y-10.070 Z-6.423 F200.000
G1 X11.957 Y-10.102 Z-6.432 F200.000
G1 X12.052 Y-10.115 Z-6.440 F200.000
G1 X12.148 Y-10.110 Z-6.449 F200.000
G1 X12.240 Y-10.086 Z-6.457 F200.000
G1 X12.327 Y-10.045 Z-6.466 F200.000
G1 X12.404 Y-9.987 Z-6.475 F200.000
G1 X12.468 Y-9.916 Z-6.483 F200.000
G1 X12.516 Y-9.833 Z-6.492 F200.000
G1 X12.548 Y-9.743 Z-6.500 F200.000
G1 X12.562 Y-9.648 Z-6.509 F200.000
G1 X12.557 Y-9.552 Z-6.517 F200.000
G1 X12.533 Y-9.459 Z-6.526 F200.000
G1 X12.491 Y-9.373 Z-6.535 F200.000
G1 X12.434 Y-9.296 Z-6.543 F200.000
G1 X12.362 Y-9.232 Z-6.552 F200.000
G1 X12.280 Y-9.183 Z-6.560 F200.000
G1 X12.189 Y-9.152 Z-6.569 F200.000
G1 X12.094 Y-9.138 Z-6.577 F200.000
G1 X11.999 Y-9.143 Z-6.586 F200.000
G1 X11.906 Y-9.167 Z-6.595 F200.000
G1 X11.819 Y-9.209 Z-6.603 F200.000
G1 X11.743 Y-9.266 Z-6.612 F200.000
G1 X11.679 Y-9.337 Z-6.620 F200.000
G1 X11.630 Y-9.420 Z-6.629 F200.000
G1 X11.598 Y-9.510 Z-6.637 F200.000
G1 X11.585 Y-9.605 Z-6.646 F200.000
G1 X11.590 Y-9.701 Z-6.655 F200.000
G1 X11.614 Y-9.794 Z-6.663 F200.000
G1 X11.655 Y-9.880 Z-6.672 F200.000
G1 X11.713 Y-9.957 Z-6.680 F200.000
G1 X11.784 Y-10.021 Z-6.689 F200.000
G1 X11.867 Y-10.070 Z-6.697 F200.000
G1 X11.957 Y-10.102 Z-6.706 F200.000
G1 X12.052 Y-10.115 Z-6.715 F200.000
G1 X12.148 Y-10.110 Z-6.723 F200.000
G1 X12.240 Y-10.086 Z-6.732 F200.000
G1 X12.327 Y-10.045 Z-6.740 F200.000
G1 X12.404 Y-9.987 Z-6.749 F200.000
G1 X12.468 Y-9.916 Z-6.757 F200.000
G1 X12.516 Y-9.833 Z-6.766 F200.000
G1 X12.548 Y-9.743 Z-6.775 F200.000
G1 X12.562 Y-9.648 Z-6.783 F200.000
G1 X12.557 Y-9.552 Z-6.792 F200.000
G1 X12.533 Y-9.459 Z-6.800 F200.000
G1 X12.491 Y-9.373 Z-6.809 F200.000
G1 X12.434 Y-9.296 Z-6.817 F200.000
G1 X12.362 Y-9.232 Z-6.826 F200.000
G1 X12.280 Y-9.183 Z-6.835 F200.000
G1 X12.189 Y-9.152 Z-6.843 F200.000
G1 X12.094 Y-9.138 Z-6.852 F200.000
G1 X11.999 Y-9.143 Z-6.860 F200.000
G1 X11.906 Y-9.167 Z-6.869 F200.000
G1 X11.819 Y-9.209 Z-6.878 F200.000
G1 X11.743 Y-9.266 Z-6.886 F200.000
G1 X11.679 Y-9.337 Z-6.895 F200.000
G1 X11.630 Y-9.420 Z-6.903 F200.000
G1 X11.598 Y-9.510 Z-6.912 F200.000
G1 X11.585 Y-9.605 Z-6.920 F200.000
G1 X11.590 Y-9.701 Z-6.929 F200.000
G1 X11.614 Y-9.794 Z-6.938 F200.000
G1 X11.655 Y-9.880 Z-6.946 F200.000
G1 X11.713 Y-9.957 Z-6.955 F200.000
G1 X11.784 Y-10.021 Z-6.963 F200.000
G1 X11.867 Y-10.070 Z-6.972 F200.000
G1 X11.957 Y-10.102 Z-6.980 F200.000
G1 X12.052 Y-10.115 Z-6.989 F200.000
G1 X12.148 Y-10.110 Z-6.998 F200.000
G1 X12.240 Y-10.086 Z-7.006 F200.000
G1 X12.327 Y-10.045 Z-7.015 F200.000
G1 X12.404 Y-9.987 Z-7.023 F200.000
G1 X12.468 Y-9.916 Z-7.032 F200.000
G1 X12.516 Y-9.833 Z-7.040 F200.000
G1 X12.548 Y-9.743 Z-7.049 F200.000
G1 X12.562 Y-9.648 Z-7.058 F200.000
G1 X12.557 Y-9.552 Z-7.066 F200.000
G1 X12.533 Y-9.459 Z-7.075 F200.000
G1 X12.491 Y-9.373 Z-7.083 F200.000
G1 X12.434 Y-9.296 Z-7.092 F200.000
G1 X12.362 Y-9.232 Z-7.100 F200.000
G1 X12.280 Y-9.183 Z-7.109 F200.000
G1 X12.189 Y-9.152 Z-7.118 F200.000
G1 X12.094 Y-9.138 Z-7.126 F200.000
G1 X11.999 Y-9.143 Z-7.135 F200.000
G1 X11.906 Y-9.167 Z-7.143 F200.000
G1 X11.819 Y-9.209 Z-7.152 F200.000
G1 X11.743 Y-9.266 Z-7.160 F200.000
G1 X11.679 Y-9.337 Z-7.169 F200.000
G1 X11.630 Y-9.420 Z-7.178 F200.000
G1 X11.598 Y-9.510 Z-7.186 F200.000
G1 X11.585 Y-9.605 Z-7.195 F200.000
G1 X11.590 Y-9.701 Z-7.203 F200.000
G1 X11.614 Y-9.794 Z-7.212 F200.000
G1 X11.655 Y-9.880 Z-7.220 F200.000
G1 X11.713 Y-9.957 Z-7.229 F200.000
G1 X11.784 Y-10.021 Z-7.238 F200.000
G1 X11.867 Y-10.070 Z-7.246 F200.000
G1 X11.957 Y-10.102 Z-7.255 F200.000
G1 X12.052 Y-10.115 Z-7.263 F200.000
G1 X12.148 Y-10.110 Z-7.272 F200.000
G1 X12.240 Y-10.086 Z-7.280 F200.000
G1 X12.327 Y-10.045 Z-7.289 F200.000
G1 X12.404 Y-9.987 Z-7.298 F200.000
G1 X12.468 Y-9.916 Z-7.306 F200.000
G1 X12.516 Y-9.833 Z-7.315 F200.000
G1 X12.548 Y-9.743 Z-7.323 F200.000
G1 X12.562 Y-9.648 Z-7.332 F200.000
G1 X12.557 Y-9.552 Z-7.340 F200.000
G1 X12.533 Y-9.459 Z-7.349 F200.000
G1 X12.491 Y-9.373 Z-7.358 F200.000
G1 X12.434 Y-9.296 Z-7.366 F200.000
G1 X12.362 Y-9.232 Z-7.375 F200.000
G1 X12.280 Y-9.183 Z-7.383 F200.000
G1 X12.189 Y-9.152 Z-7.392 F200.000
G1 X12.094 Y-9.138 Z-7.400 F200.000
G1 X11.999 Y-9.143 Z-7.409 F200.000
G1 X11.906 Y-9.167 Z-7.418 F200.000
G1 X11.819 Y-9.209 Z-7.426 F200.000
G1 X11.743 Y-9.266 Z-7.435 F200.000
G1 X11.679 Y-9.337 Z-7.443 F200.000
G1 X11.630 Y-9.420 Z-7.452 F200.000
G1 X11.598 Y-9.510 Z-7.460 F200.000
G1 X11.585 Y-9.605 Z-7.469 F200.000
G1 X11.590 Y-9.701 Z-7.478 F200.000
G1 X11.614 Y-9.794 Z-7.486 F200.000
G1 X11.655 Y-9.880 Z-7.495 F200.000
G1 X11.713 Y-9.957 Z-7.503 F200.000
G1 X11.784 Y-10.021 Z-7.512 F200.000
G1 X11.867 Y-10.070 Z-7.520 F200.000
G1 X11.957 Y-10.102 Z-7.529 F200.000
G1 X12.052 Y-10.115 Z-7.538 F200.000
G1 X12.148 Y-10.110 Z-7.546 F200.000
G1 X12.240 Y-10.086 Z-7.555 F200.000
G1 X12.327 Y-10.045 Z-7.563 F200.000
G1 X12.404 Y-9.987 Z-7.572 F200.000
G1 X12.468 Y-9.916 Z-7.580 F200.000
G1 X12.516 Y-9.833 Z-7.589 F200.000
G1 X12.548 Y-9.743 Z-7.598 F200.000
G1 X12.562 Y-9.648 Z-7.606 F200.000
G1 X12.557 Y-9.552 Z-7.615 F200.000
G1 X12.533 Y-9.459 Z-7.623 F200.000
G1 X12.491 Y-9.373 Z-7.632 F200.000
G1 X12.434 Y-9.296 Z-7.641 F200.000
G1 X12.362 Y-9.232 Z-7.649 F200.000
G1 X12.280 Y-9.183 Z-7.658 F200.000
G1 X12.189 Y-9.152 Z-7.666 F200.000
G1 X12.094 Y-9.138 Z-7.675 F200.000
G1 X11.999 Y-9.143 Z-7.683 F200.000
G1 X11.906 Y-9.167 Z-7.692 F200.000
G1 X11.819 Y-9.209 Z-7.701 F200.000
G1 X11.743 Y-9.266 Z-7.709 F200.000
G1 X11.679 Y-9.337 Z-7.718 F200.000
G1 X11.630 Y-9.420 Z-7.726 F200.000
G1 X11.598 Y-9.510 Z-7.735 F200.000
G1 X11.585 Y-9.605 Z-7.743 F200.000
G1 X11.590 Y-9.701 Z-7.752 F200.000
G1 X11.614 Y-9.794 Z-7.761 F200.000
G1 X11.655 Y-9.880 Z-7.769 F200.000
G1 X11.713 Y-9.957 Z-7.778 F200.000
G1 X11.784 Y-10.021 Z-7.786 F200.000
G1 X11.867 Y-10.070 Z-7.795 F200.000
G1 X11.957 Y-10.102 Z-7.803 F200.000
G1 X12.052 Y-10.115 Z-7.812 F200.000
G1 X12.148 Y-10.110 Z-7.821 F200.000
G1 X12.240 Y-10.086 Z-7.829 F200.000
G1 X12.327 Y-10.045 Z-7.838 F200.000
G1 X12.404 Y-9.987 Z-7.846 F200.000
G1 X12.468 Y-9.916 Z-7.855 F200.000
G1 X12.516 Y-9.833 Z-7.863 F200.000
G1 X12.548 Y-9.743 Z-7.872 F200.000
G1 X12.562 Y-9.648 Z-7.881 F200.000
G1 X12.557 Y-9.552 Z-7.889 F200.000
G1 X12.533 Y-9.459 Z-7.898 F200.000
G1 X12.491 Y-9.373 Z-7.906 F200.000
G1 X12.434 Y-9.296 Z-7.915 F200.000
G1 X12.362 Y-9.232 Z-7.923 F200.000
G1 X12.280 Y-9.183 Z-7.932 F200.000
G1 X12.189 Y-9.152 Z-7.941 F200.000
G1 X12.094 Y-9.138 Z-7.949 F200.000
G1 X11.999 Y-9.143 Z-7.958 F200.000
G1 X11.906 Y-9.167 Z-7.966 F200.000
G1 X11.819 Y-9.209 Z-7.975 F200.000
G1 X11.743 Y-9.266 Z-7.983 F200.000
G1 X11.679 Y-9.337 Z-7.992 F200.000
G1 X11.630 Y-9.420 Z-8.001 F200.000
G1 X11.598 Y-9.510 Z-8.009 F200.000
G1 X11.585 Y-9.605 Z-8.018 F200.000
G1 X11.590 Y-9.701 Z-8.026 F200.000
G1 X11.614 Y-9.794 Z-8.035 F200.000
G1 X11.655 Y-9.880 Z-8.043 F200.000
G1 X11.713 Y-9.957 Z-8.052 F200.000
G1 X11.784 Y-10.021 Z-8.061 F200.000
G1 X11.867 Y-10.070 Z-8.069 F200.000
G1 X11.957 Y-10.102 Z-8.078 F200.000
G1 X12.052 Y-10.115 Z-8.086 F200.000
G1 X12.148 Y-10.110 Z-8.095 F200.000
G1 X12.240 Y-10.086 Z-8.103 F200.000
G1 X12.327 Y-10.045 Z-8.112 F200.000
G1 X12.404 Y-9.987 Z-8.121 F200.000
G1 X12.468 Y-9.916 Z-8.129 F200.000
G1 X12.516 Y-9.833 Z-8.138 F200.000
G1 X12.548 Y-9.743 Z-8.146 F200.000
G1 X12.562 Y-9.648 Z-8.155 F200.000
G1 X12.557 Y-9.552 Z-8.163 F200.000
G1 X12.533 Y-9.459 Z-8.172 F200.000
G1 X12.491 Y-9.373 Z-8.181 F200.000
G1 X12.434 Y-9.296 Z-8.189 F200.000
G1 X12.362 Y-9.232 Z-8.198 F200.000
G1 X12.280 Y-9.183 Z-8.206 F200.000
G1 X12.189 Y-9.152 Z-8.215 F200.000
G1 X12.094 Y-9.138 Z-8.223 F200.000
G1 X11.999 Y-9.143 Z-8.232 F200.000
G1 X11.906 Y-9.167 Z-8.241 F200.000
G1 X11.819 Y-9.209 Z-8.249 F200.000
G1 X11.743 Y-9.266 Z-8.258 F200.000
G1 X11.679 Y-9.337 Z-8.266 F200.000
G1 X11.630 Y-9.420 Z-8.275 F200.000
G1 X11.598 Y-9.510 Z-8.283 F200.000
G1 X11.585 Y-9.605 Z-8.292 F200.000
G1 X11.590 Y-9.701 Z-8.301 F200.000
G1 X11.614 Y-9.794 Z-8.309 F200.000
G1 X11.655 Y-9.880 Z-8.318 F200.000
G1 X11.713 Y-9.957 Z-8.326 F200.000
G1 X11.784 Y-10.021 Z-8.335 F200.000
G1 X11.867 Y-10.070 Z-8.343 F200.000
G1 X11.957 Y-10.102 Z-8.352 F200.000
G1 X12.052 Y-10.115 Z-8.361 F200.000
G1 X12.148 Y-10.110 Z-8.369 F200.000
G1 X12.240 Y-10.086 Z-8.378 F200.000
G1 X12.327 Y-10.045 Z-8.386 F200.000
G1 X12.404 Y-9.987 Z-8.395 F200.000
G1 X12.468 Y-9.916 Z-8.404 F200.000
G1 X12.516 Y-9.833 Z-8.412 F200.000
G1 X12.548 Y-9.743 Z-8.421 F200.000
G1 X12.562 Y-9.648 Z-8.429 F200.000
G1 X12.557 Y-9.552 Z-8.438 F200.000
G1 X12.533 Y-9.459 Z-8.446 F200.000
G1 X12.491 Y-9.373 Z-8.455 F200.000
G1 X12.434 Y-9.296 Z-8.464 F200.000
G1 X12.362 Y-9.232 Z-8.472 F200.000
G1 X12.280 Y-9.183 Z-8.481 F200.000
G1 X12.189 Y-9.152 Z-8.489 F200.000
G1 X12.094 Y-9.138 Z-8.498 F200.000
G1 X11.999 Y-9.143 Z-8.506 F200.000
G1 X11.906 Y-9.167 Z-8.515 F200.000
G1 X11.819 Y-9.209 Z-8.524 F200.000
G1 X11.743 Y-9.266 Z-8.532 F200.000
G1 X11.679 Y-9.337 Z-8.541 F200.000
G1 X11.630 Y-9.420 Z-8.549 F200.000
G1 X11.598 Y-9.510 Z-8.558 F200.000
G1 X11.585 Y-9.605 Z-8.566 F200.000
G1 X11.590 Y-9.701 Z-8.575 F200.000
G1 X11.614 Y-9.794 Z-8.584 F200.000
G1 X11.655 Y-9.880 Z-8.592 F200.000
G1 X11.713 Y-9.957 Z-8.601 F200.000
G1 X11.784 Y-10.021 Z-8.609 F200.000
G1 X11.867 Y-10.070 Z-8.618 F200.000
G1 X11.957 Y-10.102 Z-8.626 F200.000
G1 X12.052 Y-10.115 Z-8.635 F200.000
G1 X12.148 Y-10.110 Z-8.644 F200.000
G1 X12.240 Y-10.086 Z-8.652 F200.000
G1 X12.327 Y-10.045 Z-8.661 F200.000
G1 X12.404 Y-9.987 Z-8.669 F200.000
G1 X12.468 Y-9.916 Z-8.678 F200.000
G1 X12.516 Y-9.833 Z-8.686 F200.000
G1 X12.548 Y-9.743 Z-8.695 F200.000
G1 X12.562 Y-9.648 Z-8.704 F200.000
G1 X12.557 Y-9.552 Z-8.712 F200.000
G1 X12.533 Y-9.459 Z-8.721 F200.000
G1 X12.491 Y-9.373 Z-8.729 F200.000
G1 X12.434 Y-9.296 Z-8.738 F200.000
G1 X12.362 Y-9.232 Z-8.746 F200.000
G1 X12.280 Y-9.183 Z-8.755 F200.000
G1 X12.189 Y-9.152 Z-8.764 F200.000
G1 X12.094 Y-9.138 Z-8.772 F200.000
G1 X11.999 Y-9.143 Z-8.781 F200.000
G1 X11.906 Y-9.167 Z-8.789 F200.000
G1 X11.819 Y-9.209 Z-8.798 F200.000
G1 X11.743 Y-9.266 Z-8.806 F200.000
G1 X11.679 Y-9.337 Z-8.815 F200.000
G1 X11.630 Y-9.420 Z-8.824 F200.000
G1 X11.598 Y-9.510 Z-8.832 F200.000
G1 X11.585 Y-9.605 Z-8.841 F200.000
G1 X11.590 Y-9.701 Z-8.849 F200.000
G1 X11.614 Y-9.794 Z-8.858 F200.000
G1 X11.655 Y-9.880 Z-8.866 F200.000
G1 X11.713 Y-9.957 Z-8.875 F200.000
G1 X11.784 Y-10.021 Z-8.884 F200.000
G1 X11.867 Y-10.070 Z-8.892 F200.000
G1 X11.957 Y-10.102 Z-8.901 F200.000
G1 X12.052 Y-10.115 Z-8.909 F200.000
G1 X12.148 Y-10.110 Z-8.918 F200.000
G1 X12.240 Y-10.086 Z-8.926 F200.000
G1 X12.327 Y-10.045 Z-8.935 F200.000
G1 X12.404 Y-9.987 Z-8.944 F200.000
G1 X12.468 Y-9.916 Z-8.952 F200.000
G1 X12.516 Y-9.833 Z-8.961 F200.000
G1 X12.548 Y-9.743 Z-8.969 F200.000
G1 X12.562 Y-9.648 Z-8.978 F200.000
G1 X12.557 Y-9.552 Z-8.986 F200.000
G1 X12.533 Y-9.459 Z-8.995 F200.000
G1 X12.491 Y-9.373 Z-9.004 F200.000
G1 X12.434 Y-9.296 Z-9.012 F200.000
G1 X12.362 Y-9.232 Z-9.021 F200.000
G1 X12.280 Y-9.183 Z-9.029 F200.000
G1 X12.189 Y-9.152 Z-9.038 F200.000
G1 X12.094 Y-9.138 Z-9.046 F200.000
G1 X11.999 Y-9.143 Z-9.055 F200.000
G1 X11.906 Y-9.167 Z-9.064 F200.000
G1 X11.819 Y-9.209 Z-9.072 F200.000
G1 X11.743 Y-9.266 Z-9.081 F200.000
G1 X11.679 Y-9.337 Z-9.089 F200.000
G1 X11.630 Y-9.420 Z-9.098 F200.000
G1 X11.598 Y-9.510 Z-9.106 F200.000
G1 X11.585 Y-9.605 Z-9.115 F200.000
G1 X11.590 Y-9.701 Z-9.124 F200.000
G1 X11.614 Y-9.794 Z-9.132 F200.000
G1 X11.655 Y-9.880 Z-9.141 F200.000
G1 X11.713 Y-9.957 Z-9.149 F200.000
G1 X11.784 Y-10.021 Z-9.158 F200.000
G1 X11.867 Y-10.070 Z-9.167 F200.000
G1 X11.957 Y-10.102 Z-9.175 F200.000
G1 X12.052 Y-10.115 Z-9.184 F200.000
G1 X12.148 Y-10.110 Z-9.192 F200.000
G1 X12.240 Y-10.086 Z-9.201 F200.000
G1 X12.327 Y-10.045 Z-9.209 F200.000
G1 X12.404 Y-9.987 Z-9.218 F200.000
G1 X12.468 Y-9.916 Z-9.227 F200.000
G1 X12.516 Y-9.833 Z-9.235 F200.000
G1 X12.548 Y-9.743 Z-9.244 F200.000
G1 X12.562 Y-9.648 Z-9.252 F200.000
G1 X12.557 Y-9.552 Z-9.261 F200.000
G1 X12.533 Y-9.459 Z-9.269 F200.000
G1 X12.491 Y-9.373 Z-9.278 F200.000
G1 X12.434 Y-9.296 Z-9.287 F200.000
G1 X12.362 Y-9.232 Z-9.295 F200.000
G1 X12.280 Y-9.183 Z-9.304 F200.000
G1 X12.189 Y-9.152 Z-9.312 F200.000
G1 X12.094 Y-9.138 Z-9.321 F200.000
G1 X11.999 Y-9.143 Z-9.329 F200.000
G1 X11.906 Y-9.167 Z-9.338 F200.000
G1 X11.819 Y-9.209 Z-9.347 F200.000
G1 X11.743 Y-9.266 Z-9.355 F200.000
G1 X11.679 Y-9.337 Z-9.364 F200.000
G1 X11.630 Y-9.420 Z-9.372 F200.000
G1 X11.598 Y-9.510 Z-9.381 F200.000
G1 X11.585 Y-9.605 Z-9.389 F200.000
G1 X11.590 Y-9.701 Z-9.398 F200.000
G1 X11.614 Y-9.794 Z-9.407 F200.000
G1 X11.655 Y-9.880 Z-9.415 F200.000
G1 X11.713 Y-9.957 Z-9.424 F200.000
G1 X11.784 Y-10.021 Z-9.432 F200.000
G1 X11.867 Y-10.070 Z-9.441 F200.000
G1 X11.957 Y-10.102 Z-9.449 F200.000
G1 X12.052 Y-10.115 Z-9.458 F200.000
G1 X12.148 Y-10.110 Z-9.467 F200.000
G1 X12.240 Y-10.086 Z-9.475 F200.000
G1 X12.327 Y-10.045 Z-9.484 F200.000
G1 X12.404 Y-9.987 Z-9.492 F200.000
G1 X12.468 Y-9.916 Z-9.501 F200.000
G1 X12.516 Y-9.833 Z-9.509 F200.000
G1 X12.548 Y-9.743 Z-9.518 F200.000
G1 X12.562 Y-9.648 Z-9.527 F200.000
G1 X12.557 Y-9.552 Z-9.535 F200.000
G1 X12.533 Y-9.459 Z-9.544 F200.000
G1 X12.491 Y-9.373 Z-9.552 F200.000
G1 X12.434 Y-9.296 Z-9.561 F200.000
G1 X12.362 Y-9.232 Z-9.569 F200.000
G1 X12.280 Y-9.183 Z-9.578 F200.000
G1 X12.189 Y-9.152 Z-9.587 F200.000
G1 X12.094 Y-9.138 Z-9.595 F200.000
G1 X11.999 Y-9.143 Z-9.604 F200.000
G1 X11.906 Y-9.167 Z-9.612 F200.000
G1 X11.819 Y-9.209 Z-9.621 F200.000
G1 X11.743 Y-9.266 Z-9.629 F200.000
G1 X11.679 Y-9.337 Z-9.638 F200.000
G1 X11.630 Y-9.420 Z-9.647 F200.000
G1 X11.598 Y-9.510 Z-9.655 F200.000
G1 X11.585 Y-9.605 Z-9.664 F200.000
G1 X11.590 Y-9.701 Z-9.672 F200.000
G1 X11.614 Y-9.794 Z-9.681 F200.000
G1 X11.655 Y-9.880 Z-9.689 F200.000
G1 X11.713 Y-9.957 Z-9.698 F200.000
G1 X11.784 Y-10.021 Z-9.707 F200.000
G1 X11.867 Y-10.070 Z-9.715 F200.000
G1 X11.957 Y-10.102 Z-9.724 F200.000
G1 X12.052 Y-10.115 Z-9.732 F200.000
G1 X12.148 Y-10.110 Z-9.741 F200.000
G1 X12.240 Y-10.086 Z-9.749 F200.000
G1 X12.327 Y-10.045 Z-9.758 F200.000
G1 X12.404 Y-9.987 Z-9.767 F200.000
G1 X12.468 Y-9.916 Z-9.775 F200.000
G1 X12.516 Y-9.833 Z-9.784 F200.000
G1 X12.548 Y-9.743 Z-9.792 F200.000
G1 X12.562 Y-9.648 Z-9.801 F200.000
G1 X12.557 Y-9.552 Z-9.809 F200.000
G1 X12.533 Y-9.459 Z-9.818 F200.000
G1 X12.491 Y-9.373 Z-9.827 F200.000
G1 X12.434 Y-9.296 Z-9.835 F200.000
G1 X12.362 Y-9.232 Z-9.844 F200.000
G1 X12.280 Y-9.183 Z-9.852 F200.000
G1 X12.189 Y-9.152 Z-9.861 F200.000
G1 X12.094 Y-9.138 Z-9.870 F200.000
G1 X11.999 Y-9.143 Z-9.878 F200.000
G1 X11.906 Y-9.167 Z-9.887 F200.000
G1 X11.819 Y-9.209 Z-9.895 F200.000
G1 X11.743 Y-9.266 Z-9.904 F200.000
G1 X11.679 Y-9.337 Z-9.912 F200.000
G1 X11.630 Y-9.420 Z-9.921 F200.000
G1 X11.598 Y-9.510 Z-9.930 F200.000
G1 X11.585 Y-9.605 Z-9.938 F200.000
G1 X11.590 Y-9.701 Z-9.947 F200.000
G1 X11.614 Y-9.794 Z-9.955 F200.000
G1 X11.655 Y-9.880 Z-9.964 F200.000
G1 X11.713 Y-9.957 Z-9.972 F200.000
G1 X11.784 Y-10.021 Z-9.981 F200.000
G1 X11.867 Y-10.070 Z-9.990 F200.000
G1 X11.957 Y-10.102 Z-9.998 F200.000
G1 X12.052 Y-10.115 Z-10.000 F200.000
G1 X12.148 Y-10.110 Z-10.000 F200.000
G1 X12.240 Y-10.086 Z-10.000 F200.000
G1 X12.327 Y-10.045 Z-10.000 F200.000
G1 X12.404 Y-9.987 Z-10.000 F200.000
G1 X12.468 Y-9.916 Z-10.000 F200.000
G1 X12.516 Y-9.833 Z-10.000 F200.000
G1 X12.548 Y-9.743 Z-10.000 F200.000
G1 X12.562 Y-9.648 Z-10.000 F200.000
G1 X12.557 Y-9.552 Z-10.000 F200.000
G1 X12.533 Y-9.459 Z-10.000 F200.000
G1 X12.491 Y-9.373 Z-10.000 F200.000
G1 X12.434 Y-9.296 Z-10.000 F200.000
G1 X12.362 Y-9.232 Z-10.000 F200.000
G1 X12.280 Y-9.183 Z-10.000 F200.000
G1 X12.189 Y-9.152 Z-10.000 F200.000
G1 X12.094 Y-9.138 Z-10.000 F200.000
G1 X11.999 Y-9.143 Z-10.000 F200.000
G1 X11.906 Y-9.167 Z-10.000 F200.000
G1 X11.819 Y-9.209 Z-10.000 F200.000
G1 X11.743 Y-9.266 Z-10.000 F200.000
G1 X11.679 Y-9.337 Z-10.000 F200.000
G1 X11.630 Y-9.420 Z-10.000 F200.000
G1 X11.598 Y-9.510 Z-10.000 F200.000
G1 X11.585 Y-9.605 Z-10.000 F200.000
G1 X11.590 Y-9.701 Z-10.000 F200.000
G1 X11.614 Y-9.794 Z-10.000 F200.000
G1 X11.655 Y-9.880 Z-10.000 F200.000
G1 X11.713 Y-9.957 Z-10.000 F200.000
G1 X11.784 Y-10.021 Z-10.000 F200.000
G1 X11.867 Y-10.070 Z-10.000 F200.000
G1 X11.957 Y-10.102 Z-10.000 F200.000
(Adaptive - depth: -10.000000)
G1 X12.073 Y-10.126 F200.000
G1 X12.099 Y-10.139 F200.000
G1 X12.156 Y-10.148 F200.000
G1 X12.212 Y-10.146 F200.000
G1 X12.296 Y-10.124 F200.000
G1 X12.402 Y-10.069 F200.000
G1 X12.448 Y-10.034 F200.000
G1 X12.600 Y-9.846 F200.000
G1 X12.632 Y-9.750 F200.000
G1 X12.642 Y-9.694 F200.000
G1 X12.645 Y-9.630 F200.000
G1 X12.640 Y-9.540 F200.000
G1 X12.612 Y-9.426 F200.000
G1 X12.570 Y-9.336 F200.000
G1 X12.523 Y-9.265 F200.000
G1 X12.463 Y-9.201 F200.000
G1 X12.392 Y-9.146 F200.000
G1 X12.311 Y-9.099 F200.000
G1 X12.218 Y-9.066 F200.000
G1 X12.128 Y-9.049 F200.000
G1 X12.036 Y-9.045 F200.000
G1 X11.942 Y-9.058 F200.000
G1 X11.854 Y-9.084 F200.000
G1 X11.771 Y-9.124 F200.000
G1 X11.696 Y-9.176 F200.000
G1 X11.630 Y-9.240 F200.000
G1 X11.576 Y-9.313 F200.000
G1 X11.533 Y-9.394 F200.000
G1 X11.501 Y-9.486 F200.000
G1 X11.486 Y-9.578 F200.000
G1 X11.486 Y-9.670 F200.000
G1 X11.499 Y-9.756 F200.000
G1 X11.527 Y-9.842 F200.000
G1 X11.568 Y-9.927 F200.000
G1 X11.627 Y-10.008 F200.000
G1 X11.692 Y-10.073 F200.000
G1 X11.769 Y-10.128 F200.000
G1 X11.901 Y-10.189 F200.000
G1 X12.013 Y-10.221 F200.000
G1 X12.126 Y-10.231 F200.000
G1 X12.238 Y-10.218 F200.000
G1 X12.349 Y-10.180 F200.000
G1 X12.450 Y-10.120 F200.000
G1 X12.629 Y-9.959 F200.000
G1 X12.692 Y-9.831 F200.000
G1 X12.709 Y-9.773 F200.000
G1 X12.720 Y-9.713 F200.000
G1 X12.728 Y-9.623 F200.000
G1 X12.717 Y-9.490 F200.000
G1 X12.689 Y-9.385 F200.000
G1 X12.662 Y-9.328 F200.000
G1 X12.591 Y-9.212 F200.000
G1 X12.505 Y-9.122 F200.000
G1 X12.377 Y-9.034 F200.000
G1 X12.293 Y-8.994 F200.000
G1 X12.143 Y-8.955 F200.000
G1 X12.023 Y-8.947 F200.000
G1 X11.902 Y-8.962 F200.000
G1 X11.786 Y-9.000 F200.000
G1 X11.655 Y-9.075 F200.000
G1 X11.542 Y-9.174 F200.000
G1 X11.456 Y-9.293 F200.000
G1 X11.388 Y-9.456 F200.000
G1 X11.366 Y-9.597 F200.000
G1 X11.373 Y-9.737 F200.000
G1 X11.413 Y-9.876 F200.000
G1 X11.465 Y-9.977 F200.000
G1 X11.553 Y-10.090 F200.000
G1 X11.687 Y-10.199 F200.000
G1 X11.812 Y-10.266 F200.000
G1 X11.953 Y-10.306 F200.000
G1 X12.122 Y-10.319 F200.000
G1 X12.235 Y-10.304 F200.000
G1 X12.373 Y-10.257 F200.000
G1 X12.527 Y-10.169 F200.000
G1 X12.617 Y-10.090 F200.000
G1 X12.689 Y-9.992 F200.000
G1 X12.756 Y-9.856 F200.000
G1 X12.794 Y-9.707 F200.000
G1 X12.801 Y-9.587 F200.000
G1 X12.782 Y-9.437 F200.000
G1 X12.745 Y-9.317 F200.000
G1 X12.704 Y-9.233 F200.000
G1 X12.612 Y-9.107 F200.000
G1 X12.522 Y-9.021 F200.000
G1 X12.364 Y-8.919 F200.000
G1 X12.248 Y-8.874 F200.000
G1 X12.068 Y-8.841 F200.000
G1 X11.917 Y-8.846 F200.000
G1 X11.741 Y-8.895 F200.000
G1 X11.632 Y-8.949 F200.000
G1 X11.508 Y-9.038 F200.000
G1 X11.403 Y-9.144 F200.000
G1 X11.321 Y-9.268 F200.000
G1 X11.265 Y-9.405 F200.000
G1 X11.236 Y-9.546 F200.000
G1 X11.238 Y-9.715 F200.000
G1 X11.261 Y-9.827 F200.000
G1 X11.300 Y-9.936 F200.000
G1 X11.373 Y-10.062 F200.000
G1 X11.486 Y-10.191 F200.000
G1 X11.574 Y-10.265 F200.000
G1 X11.698 Y-10.336 F200.000
G1 X11.887 Y-10.402 F200.000
G1 X12.028 Y-10.420 F200.000
G1 X12.197 Y-10.409 F200.000
G1 X12.366 Y-10.364 F200.000
G1 X12.523 Y-10.283 F200.000
G1 X12.617 Y-10.210 F200.000
G1 X12.717 Y-10.099 F200.000
G1 X12.807 Y-9.942 F200.000
G1 X12.850 Y-9.827 F200.000
G1 X12.878 Y-9.677 F200.000
G1 X12.878 Y-9.497 F200.000
G1 X12.856 Y-9.377 F200.000
G1 X12.788 Y-9.203 F200.000
G1 X12.724 Y-9.096 F200.000
G1 X12.623 Y-8.977 F200.000
G1 X12.527 Y-8.897 F200.000
G1 X12.394 Y-8.816 F200.000
G1 X12.250 Y-8.758 F200.000
G1 X12.069 Y-8.722 F200.000
G1 X11.889 Y-8.726 F200.000
G1 X11.711 Y-8.769 F200.000
G1 X11.520 Y-8.861 F200.000
G1 X11.398 Y-8.951 F200.000
G1 X11.274 Y-9.081 F200.000
G1 X11.165 Y-9.257 F200.000
G1 X11.118 Y-9.398 F200.000
G1 X11.090 Y-9.595 F200.000
G1 X11.099 Y-9.764 F200.000
G1 X11.148 Y-9.931 F200.000
G1 X11.208 Y-10.060 F200.000
G1 X11.328 Y-10.221 F200.000
G1 X11.505 Y-10.368 F200.000
G1 X11.629 Y-10.439 F200.000
G1 X11.820 Y-10.503 F200.000
G1 X11.989 Y-10.525 F200.000
G1 X12.214 Y-10.510 F200.000
G1 X12.383 Y-10.465 F200.000
G1 X12.516 Y-10.402 F200.000
G1 X12.636 Y-10.315 F200.000
G1 X12.760 Y-10.186 F200.000
G1 X12.861 Y-10.034 F200.000
G1 X12.929 Y-9.865 F200.000
G1 X12.966 Y-9.655 F200.000
G1 X12.970 Y-9.535 F200.000
G1 X12.944 Y-9.355 F200.000
G1 X12.893 Y-9.206 F200.000
G1 X12.805 Y-9.041 F200.000
G1 X12.687 Y-8.895 F200.000
G1 X12.570 Y-8.792 F200.000
G1 X12.437 Y-8.707 F200.000
G1 X12.233 Y-8.630 F200.000
G1 X12.053 Y-8.600 F200.000
G1 X11.932 Y-8.600 F200.000
G1 X11.842 Y-8.617 F200.000
G1 X11.724 Y-8.653 F200.000
G1 X11.612 Y-8.702 F200.000
G1 X11.407 Y-8.837 F200.000
G1 X11.281 Y-8.961 F200.000
G1 X11.180 Y-9.109 F200.000
G1 X11.092 Y-9.295 F200.000
G1 X11.047 Y-9.492 F200.000
G1 X11.039 Y-9.660 F200.000
G1 X11.051 Y-9.801 F200.000
G1 X11.096 Y-9.970 F200.000
G1 X11.152 Y-10.101 F200.000
G1 X11.242 Y-10.246 F200.000
G1 X11.379 Y-10.394 F200.000
G1 X11.492 Y-10.482 F200.000
G1 X11.617 Y-10.553 F200.000
G1 X11.724 Y-10.597 F200.000
G1 X11.949 Y-10.640 F200.000
G1 X12.118 Y-10.638 F200.000
G1 X12.315 Y-10.604 F200.000
G1 X12.507 Y-10.527 F200.000
G1 X12.704 Y-10.390 F200.000
G1 X12.844 Y-10.236 F200.000
G1 X12.955 Y-10.056 F200.000
G1 X13.032 Y-9.856 F200.000
G1 X13.062 Y-9.675 F200.000
G1 X13.064 Y-9.495 F200.000
G1 X13.023 Y-9.285 F200.000
G1 X12.940 Y-9.083 F200.000
G1 X12.856 Y-8.951 F200.000
G1 X12.696 Y-8.799 F200.000
G1 X12.538 Y-8.702 F200.000
G1 X12.426 Y-8.653 F200.000
G1 X12.216 Y-8.600 F200.000
G1 X12.216 Y-8.600 F200.000
G1 X12.152 Y-8.606 F200.000
G1 X12.113 Y-8.627 F200.000
G0 X12.103 Y-8.638
G0 X12.084 Y-8.690
G0 X11.764 Y-10.465
G1 X11.760 Y-10.486 F200.000
G1 X11.752 Y-10.548 F200.000
G1 X11.762 Y-10.576 F200.000
G1 X11.794 Y-10.610 F200.000
G1 X11.852 Y-10.640 F200.000
G1 X11.852 Y-10.640 F200.000
G1 X12.049 Y-10.664 F200.000
G1 X12.218 Y-10.655 F200.000
G1 X12.302 Y-10.638 F200.000
G1 X12.471 Y-10.583 F200.000
G1 X12.653 Y-10.488 F200.000
G1 X12.769 Y-10.396 F200.000
G1 X12.871 Y-10.291 F200.000
G1 X12.942 Y-10.195 F200.000
G1 X13.049 Y-9.977 F200.000
G1 X13.099 Y-9.769 F200.000
G1 X13.109 Y-9.709 F200.000
G1 X13.107 Y-9.559 F200.000
G1 X13.086 Y-9.409 F200.000
G1 X13.041 Y-9.259 F200.000
G1 X12.961 Y-9.090 F200.000
G1 X12.961 Y-9.090 F200.000
G1 X12.951 Y-9.084 F200.000
G1 X12.942 Y-9.084 F200.000
G1 X12.929 Y-9.099 F200.000
G1 X12.931 Y-9.116 F200.000
G1 X12.947 Y-9.124 F200.000
G1 X12.966 Y-9.118 F200.000
G1 X12.979 Y-9.099 F200.000
G1 X12.979 Y-9.099 F200.000
G1 X12.878 Y-8.955 F200.000
G1 X12.792 Y-8.865 F200.000
G1 X12.700 Y-8.786 F200.000
G1 X12.630 Y-8.741 F200.000
G1 X12.503 Y-8.672 F200.000
G1 X12.405 Y-8.630 F200.000
G1 X12.233 Y-8.591 F200.000
G1 X12.111 Y-8.580 F200.000
G1 X11.932 Y-8.589 F200.000
G1 X11.889 Y-8.597 F200.000
G1 X11.696 Y-8.649 F200.000
G1 X11.582 Y-8.702 F200.000
G1 X11.415 Y-8.814 F200.000
G1 X11.323 Y-8.899 F200.000
G1 X11.253 Y-8.977 F200.000
G1 X11.193 Y-9.060 F200.000
G1 X11.159 Y-9.118 F200.000
G1 X11.103 Y-9.233 F200.000
G1 X11.083 Y-9.283 F200.000
G1 X11.043 Y-9.433 F200.000
G1 X11.026 Y-9.555 F200.000
G1 X11.028 Y-9.709 F200.000
G1 X11.038 Y-9.801 F200.000
G1 X11.079 Y-9.951 F200.000
G1 X11.158 Y-10.137 F200.000
G1 X11.235 Y-10.255 F200.000
G1 X11.306 Y-10.340 F200.000
G1 X11.368 Y-10.402 F200.000
G1 X11.482 Y-10.493 F200.000
G1 X11.598 Y-10.561 F200.000
G1 X11.694 Y-10.604 F200.000
G1 X11.884 Y-10.659 F200.000
G1 X11.925 Y-10.666 F200.000
G1 X12.051 Y-10.677 F200.000
G1 X12.146 Y-10.675 F200.000
G1 X12.229 Y-10.666 F200.000
G1 X12.321 Y-10.647 F200.000
G1 X12.452 Y-10.606 F200.000
G1 X12.522 Y-10.576 F200.000
G1 X12.632 Y-10.516 F200.000
G1 X12.683 Y-10.482 F200.000
G1 X12.745 Y-10.433 F200.000
G1 X12.837 Y-10.349 F200.000
G1 X12.916 Y-10.255 F200.000
G1 X12.976 Y-10.165 F200.000
G1 X13.008 Y-10.105 F200.000
G1 X13.056 Y-9.994 F200.000
G1 X13.079 Y-9.931 F200.000
G1 X13.103 Y-9.827 F200.000
G1 X13.122 Y-9.707 F200.000
G1 X13.124 Y-9.644 F200.000
G1 X13.118 Y-9.525 F200.000
G1 X13.096 Y-9.390 F200.000
G1 X13.068 Y-9.287 F200.000
G1 X13.045 Y-9.233 F200.000
G1 X12.979 Y-9.099 F200.000
G1 X12.979 Y-9.099 F200.000
G0 Z6.000
G0 Z6.000
(Finish operation: Adaptive)
(Block-name: Profile)
(Block-expand: 0)
(Block-enable: 1)
(Begin operation: Profile)
(Path: Profile)
(Profile)
(Compensated Tool Path. Diameter: 3.0)
G0 Z6.000
G0 X15.851 Y-3.152
G0 Z4.000
G1 X15.851 Y-3.152 Z-0.500 F200.000
G2 X19.957 Y-8.458 Z-0.500 I-5.396 J-8.419 K0.000 F200.000
G2 X20.289 Y-11.101 Z-0.500 I-5.681 J-2.055 K0.000 F200.000
G2 X17.686 Y-16.680 Z-0.500 I-8.989 J0.798 K0.000 F200.000
G2 X12.817 Y-18.926 Z-0.500 I-6.283 J7.219 K0.000 F200.000
G1 X12.385 Y-19.000 Z-0.500 F200.000
G2 X8.669 Y-18.288 Z-0.500 I-0.255 J8.727 K0.000 F200.000
G2 X5.076 Y-15.690 Z-0.500 I3.706 J8.911 K0.000 F200.000
G3 X3.223 Y-13.656 Z-0.500 I-18.577 J-15.058 K0.000 F200.000
G3 X-1.716 Y-10.346 Z-0.500 I-17.443 J-20.685 K0.000 F200.000
G3 X-5.757 Y-8.926 Z-0.500 I-6.397 J-11.743 K0.000 F200.000
G3 X-8.470 Y-8.559 Z-0.500 I-9.278 J-58.396 K0.000 F200.000
G3 X-19.568 Y-8.800 Z-0.500 I-4.581 J-44.620 K0.000 F200.000
G2 X-23.920 Y-8.118 Z-0.500 I-1.076 J7.359 K0.000 F200.000
G2 X-26.074 Y-6.928 Z-0.500 I19.102 J37.113 K0.000 F200.000
G2 X-34.349 Y-1.555 Z-0.500 I148.834 J238.304 K0.000 F200.000
G2 X-35.461 Y2.096 Z-0.500 I1.837 J2.554 K0.000 F200.000
G2 X-32.316 Y3.686 Z-0.500 I2.355 J-0.751 K0.000 F200.000
G2 X-29.121 Y2.282 Z-0.500 I-13.433 J-34.894 K0.000 F200.000
G3 X-23.370 Y-0.565 Z-0.500 I66.701 J127.508 K0.000 F200.000
G3 X-20.924 Y-1.061 Z-0.500 I2.114 J4.150 K0.000 F200.000
G3 X-17.349 Y-0.759 Z-0.500 I-9.022 J128.440 K0.000 F200.000
G2 X3.260 Y-0.276 Z-0.500 I13.089 J-118.455 K0.000 F200.000
G2 X11.264 Y-1.358 Z-0.500 I-3.164 J-53.557 K0.000 F200.000
G2 X14.509 Y-2.430 Z-0.500 I-3.079 J-14.760 K0.000 F200.000
G2 X15.851 Y-3.152 Z-0.500 I-4.054 J-9.141 K0.000 F200.000
G1 X15.851 Y-3.152 Z-2.000 F200.000
G2 X19.957 Y-8.458 Z-2.000 I-5.396 J-8.419 K0.000 F200.000
G2 X20.289 Y-11.101 Z-2.000 I-5.681 J-2.055 K0.000 F200.000
G2 X17.686 Y-16.680 Z-2.000 I-8.989 J0.798 K0.000 F200.000
G2 X12.817 Y-18.926 Z-2.000 I-6.283 J7.219 K0.000 F200.000
G1 X12.385 Y-19.000 Z-2.000 F200.000
G2 X8.669 Y-18.288 Z-2.000 I-0.255 J8.727 K0.000 F200.000
G2 X5.076 Y-15.690 Z-2.000 I3.706 J8.911 K0.000 F200.000
G3 X3.223 Y-13.656 Z-2.000 I-18.577 J-15.058 K0.000 F200.000
G3 X-1.716 Y-10.346 Z-2.000 I-17.443 J-20.685 K0.000 F200.000
G3 X-5.757 Y-8.926 Z-2.000 I-6.397 J-11.743 K0.000 F200.000
G3 X-8.470 Y-8.559 Z-2.000 I-9.278 J-58.396 K0.000 F200.000
G3 X-19.568 Y-8.800 Z-2.000 I-4.581 J-44.620 K0.000 F200.000
G2 X-23.920 Y-8.118 Z-2.000 I-1.076 J7.359 K0.000 F200.000
G2 X-26.074 Y-6.928 Z-2.000 I19.102 J37.113 K0.000 F200.000
G2 X-34.349 Y-1.555 Z-2.000 I148.834 J238.304 K0.000 F200.000
G2 X-35.461 Y2.096 Z-2.000 I1.837 J2.554 K0.000 F200.000
G2 X-32.316 Y3.686 Z-2.000 I2.355 J-0.751 K0.000 F200.000
G2 X-29.121 Y2.282 Z-2.000 I-13.433 J-34.894 K0.000 F200.000
G3 X-23.370 Y-0.565 Z-2.000 I66.701 J127.508 K0.000 F200.000
G3 X-20.924 Y-1.061 Z-2.000 I2.114 J4.150 K0.000 F200.000
G3 X-17.349 Y-0.759 Z-2.000 I-9.022 J128.440 K0.000 F200.000
G2 X3.260 Y-0.276 Z-2.000 I13.089 J-118.455 K0.000 F200.000
G2 X11.264 Y-1.358 Z-2.000 I-3.164 J-53.557 K0.000 F200.000
G2 X14.509 Y-2.430 Z-2.000 I-3.079 J-14.760 K0.000 F200.000
G2 X15.851 Y-3.152 Z-2.000 I-4.054 J-9.141 K0.000 F200.000
G1 X15.851 Y-3.152 Z-3.500 F200.000
G2 X19.957 Y-8.458 Z-3.500 I-5.396 J-8.419 K0.000 F200.000
G2 X20.289 Y-11.101 Z-3.500 I-5.681 J-2.055 K0.000 F200.000
G2 X17.686 Y-16.680 Z-3.500 I-8.989 J0.798 K0.000 F200.000
G2 X12.817 Y-18.926 Z-3.500 I-6.283 J7.219 K0.000 F200.000
G1 X12.385 Y-19.000 Z-3.500 F200.000
G2 X8.669 Y-18.288 Z-3.500 I-0.255 J8.727 K0.000 F200.000
G2 X5.076 Y-15.690 Z-3.500 I3.706 J8.911 K0.000 F200.000
G3 X3.223 Y-13.656 Z-3.500 I-18.577 J-15.058 K0.000 F200.000
G3 X-1.716 Y-10.346 Z-3.500 I-17.443 J-20.685 K0.000 F200.000
G3 X-5.757 Y-8.926 Z-3.500 I-6.397 J-11.743 K0.000 F200.000
G3 X-8.470 Y-8.559 Z-3.500 I-9.278 J-58.396 K0.000 F200.000
G3 X-19.568 Y-8.800 Z-3.500 I-4.581 J-44.620 K0.000 F200.000
G2 X-23.920 Y-8.118 Z-3.500 I-1.076 J7.359 K0.000 F200.000
G2 X-26.074 Y-6.928 Z-3.500 I19.102 J37.113 K0.000 F200.000
G2 X-34.349 Y-1.555 Z-3.500 I148.834 J238.304 K0.000 F200.000
G2 X-35.461 Y2.096 Z-3.500 I1.837 J2.554 K0.000 F200.000
G2 X-32.316 Y3.686 Z-3.500 I2.355 J-0.751 K0.000 F200.000
G2 X-29.121 Y2.282 Z-3.500 I-13.433 J-34.894 K0.000 F200.000
G3 X-23.370 Y-0.565 Z-3.500 I66.701 J127.508 K0.000 F200.000
G3 X-20.924 Y-1.061 Z-3.500 I2.114 J4.150 K0.000 F200.000
G3 X-17.349 Y-0.759 Z-3.500 I-9.022 J128.440 K0.000 F200.000
G2 X3.260 Y-0.276 Z-3.500 I13.089 J-118.455 K0.000 F200.000
G2 X11.264 Y-1.358 Z-3.500 I-3.164 J-53.557 K0.000 F200.000
G2 X14.509 Y-2.430 Z-3.500 I-3.079 J-14.760 K0.000 F200.000
G2 X15.851 Y-3.152 Z-3.500 I-4.054 J-9.141 K0.000 F200.000
G1 X15.851 Y-3.152 Z-5.000 F200.000
G2 X19.957 Y-8.458 Z-5.000 I-5.396 J-8.419 K0.000 F200.000
G2 X20.289 Y-11.101 Z-5.000 I-5.681 J-2.055 K0.000 F200.000
G2 X17.686 Y-16.680 Z-5.000 I-8.989 J0.798 K0.000 F200.000
G2 X12.817 Y-18.926 Z-5.000 I-6.283 J7.219 K0.000 F200.000
G1 X12.385 Y-19.000 Z-5.000 F200.000
G2 X8.669 Y-18.288 Z-5.000 I-0.255 J8.727 K0.000 F200.000
G2 X5.076 Y-15.690 Z-5.000 I3.706 J8.911 K0.000 F200.000
G3 X3.223 Y-13.656 Z-5.000 I-18.577 J-15.058 K0.000 F200.000
G3 X-1.716 Y-10.346 Z-5.000 I-17.443 J-20.685 K0.000 F200.000
G3 X-5.757 Y-8.926 Z-5.000 I-6.397 J-11.743 K0.000 F200.000
G3 X-8.470 Y-8.559 Z-5.000 I-9.278 J-58.396 K0.000 F200.000
G3 X-19.568 Y-8.800 Z-5.000 I-4.581 J-44.620 K0.000 F200.000
G2 X-23.920 Y-8.118 Z-5.000 I-1.076 J7.359 K0.000 F200.000
G2 X-26.074 Y-6.928 Z-5.000 I19.102 J37.113 K0.000 F200.000
G2 X-34.349 Y-1.555 Z-5.000 I148.834 J238.304 K0.000 F200.000
G2 X-35.461 Y2.096 Z-5.000 I1.837 J2.554 K0.000 F200.000
G2 X-32.316 Y3.686 Z-5.000 I2.355 J-0.751 K0.000 F200.000
G2 X-29.121 Y2.282 Z-5.000 I-13.433 J-34.894 K0.000 F200.000
G3 X-23.370 Y-0.565 Z-5.000 I66.701 J127.508 K0.000 F200.000
G3 X-20.924 Y-1.061 Z-5.000 I2.114 J4.150 K0.000 F200.000
G3 X-17.349 Y-0.759 Z-5.000 I-9.022 J128.440 K0.000 F200.000
G2 X3.260 Y-0.276 Z-5.000 I13.089 J-118.455 K0.000 F200.000
G2 X11.264 Y-1.358 Z-5.000 I-3.164 J-53.557 K0.000 F200.000
G2 X14.509 Y-2.430 Z-5.000 I-3.079 J-14.760 K0.000 F200.000
G2 X15.851 Y-3.152 Z-5.000 I-4.054 J-9.141 K0.000 F200.000
G1 X15.851 Y-3.152 Z-6.500 F200.000
G2 X19.957 Y-8.458 Z-6.500 I-5.396 J-8.419 K0.000 F200.000
G2 X20.289 Y-11.101 Z-6.500 I-5.681 J-2.055 K0.000 F200.000
G2 X17.686 Y-16.680 Z-6.500 I-8.989 J0.798 K0.000 F200.000
G2 X12.817 Y-18.926 Z-6.500 I-6.283 J7.219 K0.000 F200.000
G1 X12.385 Y-19.000 Z-6.500 F200.000
G2 X8.669 Y-18.288 Z-6.500 I-0.255 J8.727 K0.000 F200.000
G2 X5.076 Y-15.690 Z-6.500 I3.706 J8.911 K0.000 F200.000
G3 X3.223 Y-13.656 Z-6.500 I-18.577 J-15.058 K0.000 F200.000
G3 X-1.716 Y-10.346 Z-6.500 I-17.443 J-20.685 K0.000 F200.000
G3 X-5.757 Y-8.926 Z-6.500 I-6.397 J-11.743 K0.000 F200.000
G3 X-8.470 Y-8.559 Z-6.500 I-9.278 J-58.396 K0.000 F200.000
G3 X-19.568 Y-8.800 Z-6.500 I-4.581 J-44.620 K0.000 F200.000
G2 X-23.920 Y-8.118 Z-6.500 I-1.076 J7.359 K0.000 F200.000
G2 X-26.074 Y-6.928 Z-6.500 I19.102 J37.113 K0.000 F200.000
G2 X-34.349 Y-1.555 Z-6.500 I148.834 J238.304 K0.000 F200.000
G2 X-35.461 Y2.096 Z-6.500 I1.837 J2.554 K0.000 F200.000
G2 X-32.316 Y3.686 Z-6.500 I2.355 J-0.751 K0.000 F200.000
G2 X-29.121 Y2.282 Z-6.500 I-13.433 J-34.894 K0.000 F200.000
G3 X-23.370 Y-0.565 Z-6.500 I66.701 J127.508 K0.000 F200.000
G3 X-20.924 Y-1.061 Z-6.500 I2.114 J4.150 K0.000 F200.000
G3 X-17.349 Y-0.759 Z-6.500 I-9.022 J128.440 K0.000 F200.000
G2 X3.260 Y-0.276 Z-6.500 I13.089 J-118.455 K0.000 F200.000
G2 X11.264 Y-1.358 Z-6.500 I-3.164 J-53.557 K0.000 F200.000
G2 X14.509 Y-2.430 Z-6.500 I-3.079 J-14.760 K0.000 F200.000
G2 X15.851 Y-3.152 Z-6.500 I-4.054 J-9.141 K0.000 F200.000
G1 X15.851 Y-3.152 Z-8.000 F200.000
G2 X19.957 Y-8.458 Z-8.000 I-5.396 J-8.419 K0.000 F200.000
G2 X20.289 Y-11.101 Z-8.000 I-5.681 J-2.055 K0.000 F200.000
G2 X17.686 Y-16.680 Z-8.000 I-8.989 J0.798 K0.000 F200.000
G2 X12.817 Y-18.926 Z-8.000 I-6.283 J7.219 K0.000 F200.000
G1 X12.385 Y-19.000 Z-8.000 F200.000
G2 X8.669 Y-18.288 Z-8.000 I-0.255 J8.727 K0.000 F200.000
G2 X5.076 Y-15.690 Z-8.000 I3.706 J8.911 K0.000 F200.000
G3 X3.223 Y-13.656 Z-8.000 I-18.577 J-15.058 K0.000 F200.000
G3 X-1.716 Y-10.346 Z-8.000 I-17.443 J-20.685 K0.000 F200.000
G3 X-5.757 Y-8.926 Z-8.000 I-6.397 J-11.743 K0.000 F200.000
G3 X-8.470 Y-8.559 Z-8.000 I-9.278 J-58.396 K0.000 F200.000
G3 X-19.568 Y-8.800 Z-8.000 I-4.581 J-44.620 K0.000 F200.000
G2 X-23.920 Y-8.118 Z-8.000 I-1.076 J7.359 K0.000 F200.000
G2 X-26.074 Y-6.928 Z-8.000 I19.102 J37.113 K0.000 F200.000
G2 X-34.349 Y-1.555 Z-8.000 I148.834 J238.304 K0.000 F200.000
G2 X-35.461 Y2.096 Z-8.000 I1.837 J2.554 K0.000 F200.000
G2 X-32.316 Y3.686 Z-8.000 I2.355 J-0.751 K0.000 F200.000
G2 X-29.121 Y2.282 Z-8.000 I-13.433 J-34.894 K0.000 F200.000
G3 X-23.370 Y-0.565 Z-8.000 I66.701 J127.508 K0.000 F200.000
G3 X-20.924 Y-1.061 Z-8.000 I2.114 J4.150 K0.000 F200.000
G3 X-17.349 Y-0.759 Z-8.000 I-9.022 J128.440 K0.000 F200.000
G2 X3.260 Y-0.276 Z-8.000 I13.089 J-118.455 K0.000 F200.000
G2 X11.264 Y-1.358 Z-8.000 I-3.164 J-53.557 K0.000 F200.000
G2 X14.509 Y-2.430 Z-8.000 I-3.079 J-14.760 K0.000 F200.000
G2 X15.851 Y-3.152 Z-8.000 I-4.054 J-9.141 K0.000 F200.000
G1 X15.851 Y-3.152 Z-9.500 F200.000
G2 X19.957 Y-8.458 Z-9.500 I-5.396 J-8.419 K0.000 F200.000
G2 X20.289 Y-11.101 Z-9.500 I-5.681 J-2.055 K0.000 F200.000
G2 X17.686 Y-16.680 Z-9.500 I-8.989 J0.798 K0.000 F200.000
G2 X12.817 Y-18.926 Z-9.500 I-6.283 J7.219 K0.000 F200.000
G1 X12.385 Y-19.000 Z-9.500 F200.000
G2 X8.669 Y-18.288 Z-9.500 I-0.255 J8.727 K0.000 F200.000
G2 X5.076 Y-15.690 Z-9.500 I3.706 J8.911 K0.000 F200.000
G3 X3.223 Y-13.656 Z-9.500 I-18.577 J-15.058 K0.000 F200.000
G3 X-1.716 Y-10.346 Z-9.500 I-17.443 J-20.685 K0.000 F200.000
G3 X-5.757 Y-8.926 Z-9.500 I-6.397 J-11.743 K0.000 F200.000
G3 X-8.470 Y-8.559 Z-9.500 I-9.278 J-58.396 K0.000 F200.000
G3 X-19.568 Y-8.800 Z-9.500 I-4.581 J-44.620 K0.000 F200.000
G2 X-23.920 Y-8.118 Z-9.500 I-1.076 J7.359 K0.000 F200.000
G2 X-26.074 Y-6.928 Z-9.500 I19.102 J37.113 K0.000 F200.000
G2 X-34.349 Y-1.555 Z-9.500 I148.834 J238.304 K0.000 F200.000
G2 X-35.461 Y2.096 Z-9.500 I1.837 J2.554 K0.000 F200.000
G2 X-32.316 Y3.686 Z-9.500 I2.355 J-0.751 K0.000 F200.000
G2 X-29.121 Y2.282 Z-9.500 I-13.433 J-34.894 K0.000 F200.000
G3 X-23.370 Y-0.565 Z-9.500 I66.701 J127.508 K0.000 F200.000
G3 X-20.924 Y-1.061 Z-9.500 I2.114 J4.150 K0.000 F200.000
G3 X-17.349 Y-0.759 Z-9.500 I-9.022 J128.440 K0.000 F200.000
G2 X3.260 Y-0.276 Z-9.500 I13.089 J-118.455 K0.000 F200.000
G2 X11.264 Y-1.358 Z-9.500 I-3.164 J-53.557 K0.000 F200.000
G2 X14.509 Y-2.430 Z-9.500 I-3.079 J-14.760 K0.000 F200.000
G2 X15.851 Y-3.152 Z-9.500 I-4.054 J-9.141 K0.000 F200.000
G1 X15.851 Y-3.152 Z-10.000 F200.000
G2 X19.957 Y-8.458 Z-10.000 I-5.396 J-8.419 K0.000 F200.000
G2 X20.289 Y-11.101 Z-10.000 I-5.681 J-2.055 K0.000 F200.000
G2 X17.686 Y-16.680 Z-10.000 I-8.989 J0.798 K0.000 F200.000
G2 X12.817 Y-18.926 Z-10.000 I-6.283 J7.219 K0.000 F200.000
G1 X12.385 Y-19.000 Z-10.000 F200.000
G2 X8.669 Y-18.288 Z-10.000 I-0.255 J8.727 K0.000 F200.000
G2 X5.076 Y-15.690 Z-10.000 I3.706 J8.911 K0.000 F200.000
G3 X3.223 Y-13.656 Z-10.000 I-18.577 J-15.058 K0.000 F200.000
G3 X-1.716 Y-10.346 Z-10.000 I-17.443 J-20.685 K0.000 F200.000
G3 X-5.757 Y-8.926 Z-10.000 I-6.397 J-11.743 K0.000 F200.000
G3 X-8.470 Y-8.559 Z-10.000 I-9.278 J-58.396 K0.000 F200.000
G3 X-19.568 Y-8.800 Z-10.000 I-4.581 J-44.620 K0.000 F200.000
G2 X-23.920 Y-8.118 Z-10.000 I-1.076 J7.359 K0.000 F200.000
G2 X-26.074 Y-6.928 Z-10.000 I19.102 J37.113 K0.000 F200.000
G2 X-34.349 Y-1.555 Z-10.000 I148.834 J238.304 K0.000 F200.000
G2 X-35.461 Y2.096 Z-10.000 I1.837 J2.554 K0.000 F200.000
G2 X-32.316 Y3.686 Z-10.000 I2.355 J-0.751 K0.000 F200.000
G2 X-29.121 Y2.282 Z-10.000 I-13.433 J-34.894 K0.000 F200.000
G3 X-23.370 Y-0.565 Z-10.000 I66.701 J127.508 K0.000 F200.000
G3 X-20.924 Y-1.061 Z-10.000 I2.114 J4.150 K0.000 F200.000
G3 X-17.349 Y-0.759 Z-10.000 I-9.022 J128.440 K0.000 F200.000
G2 X3.260 Y-0.276 Z-10.000 I13.089 J-118.455 K0.000 F200.000
G2 X11.264 Y-1.358 Z-10.000 I-3.164 J-53.557 K0.000 F200.000
G2 X14.509 Y-2.430 Z-10.000 I-3.079 J-14.760 K0.000 F200.000
G2 X15.851 Y-3.152 Z-10.000 I-4.054 J-9.141 K0.000 F200.000
G0 Z6.000
G0 Z6.000
(Finish operation: Profile)
(Block-name: post_amble)
(Block-expand: 0)
(Block-enable: 1)
(Begin postamble)
M5
G17 G90
M2
