%
(GEAR_CLAMP_V2)
(T1  D=3.175 CR=0 - ZMIN=-19.5 - flat end mill)
G90 G94
G17
G21

(Pocket1)
M9
T1 M6
S10000 M3
G54
M8
G0 X0.017 Y-1.018
Z10
Z3
G1 Z-1.683 F762
G3 X0.005 Y-1.017 Z-1.77 I-0.017 J-0.094
X-0.031 Y-1.022 Z-1.851 I-0.005 J-0.095
X-0.076 Y-1.055 Z-1.919 I0.031 J-0.09
X-0.095 Y-1.114 Z-1.963 I0.076 J-0.057
X-0.068 Y-1.179 Z-1.991 I0.095 J0.002
X0 Y-1.208 Z-2 I0.068 J0.067
G1 X0.244
G3 X1.207 Y-0.244 J0.963
G1 Y5.316
G3 X0.781 Y6.109 I-0.951
G2 X0.658 Y6.192 I7.872 J11.877
X0.534 Y6.275 I7.872 J11.877
G3 X-0.535 Y6.274 I-0.534 J-0.787
G2 X-0.659 Y6.19 I-8.019 J11.778
X-0.783 Y6.107 I-8.019 J11.778
G3 X-1.207 Y5.315 I0.527 J-0.792
G1 Y-0.244
G3 X-0.244 Y-1.208 I0.963
G1 X0
G2 X1.609 Y-2.339 J-1.71
G3 X3.548 Y-2.001 I0.94 J0.338
G1 X3.547 Y5.892
G3 X2.517 Y7.773 I-2.232
G2 X0.765 Y8.987 I15.451 J24.171
G3 X-0.771 Y8.985 I-0.767 J-1.016
G2 X-2.497 Y7.783 I-15.802 J20.845
G3 X-3.547 Y5.866 I1.225 J-1.918
G1 X-3.548 Y-2.585
G3 X-2.584 Y-3.548 I0.963
G1 X2.584
G3 X3.548 Y-2.585 J0.963
G1 Y-2.001
G2 X4.718 Y-0.246 I1.902
G3 X5.888 Y1.51 I-0.731 J1.755
G1 Y7.334
G3 X4.867 Y9.088 I-2.017
G2 X0.723 Y12.044 I12.164 J21.434
G3 X-0.717 Y12.046 I-0.721 J-0.813
G2 X-5.012 Y9.008 I-16.298 J18.486
G3 X-5.888 Y7.519 I0.827 J-1.489
G1 Y-4.926
G3 X-4.925 Y-5.889 I0.963
G1 X4.925
G3 X5.888 Y-4.926 J0.963
G1 Y1.51
G2 X7.058 Y3.265 I1.902
G3 X8.229 Y5.021 I-0.731 J1.755
G1 Y8.875
G3 X7.216 Y10.494 I-1.801
G2 X0.621 Y15.41 I9.679 J19.868
G3 X-0.628 Y15.408 I-0.624 J-0.575
G2 X-6.952 Y10.617 I-16.283 J14.925
X-7.113 Y10.543 I-1.179 J2.355
G3 X-7.275 Y10.469 I1.415 J-3.293
X-8.229 Y8.94 I0.749 J-1.529
G1 Y-7.266
G3 X-7.266 Y-8.23 I0.963
G1 X7.266
G3 X8.229 Y-7.266 J0.963
G1 Y5.021
G2 X9.345 Y6.695 I1.813
G3 X10.461 Y8.369 I-0.697 J1.674
G1 Y10.444
G3 X9.458 Y11.939 I-1.617
G2 X0.52 Y19.102 I7.73 J18.806
G3 X-0.521 Y19.1 I-0.52 J-0.361
G2 X-9.655 Y11.856 I-16.407 J11.307
G3 X-10.46 Y10.672 I0.467 J-1.184
G1 X-10.461 Y-9.498
G3 X-9.498 Y-10.462 I0.963
G1 X9.498
G3 X10.461 Y-9.498 J0.963
G1 Y8.369
G2 X11.486 Y9.907 I1.667
G3 X12.512 Y11.446 I-0.641 J1.539
G1 Y12.011
G3 X11.523 Y13.368 I-1.424
G2 X0.645 Y23.02 I5.505 J17.161
G3 X-0.646 Y23.016 I-0.644 J-0.297
G2 X-4.066 Y17.946 I-16.746 J7.607
X-8.982 Y14.306 I-12.869 J12.243
X-10.28 Y13.769 I-4.385 J8.756
X-11.617 Y13.339 I-22.841 J68.764
G3 X-12.512 Y12.123 I0.378 J-1.216
G1 X-12.513 Y-11.55
G3 X-11.55 Y-12.513 I0.963
G1 X11.55
G3 X12.513 Y-11.55 J0.963
G1 X12.512 Y11.446
G2 X13.844 Y12.95 I1.515
G3 X14.481 Y14.855 I-0.135 J1.104
X13.875 Y15.172 I-0.843 J-0.875
G2 X2.371 Y24.952 I3.03 J15.221
G3 X0.936 Y25.941 I-1.434 J-0.545
G1 X-0.933
G3 X-2.373 Y24.951 J-1.542
G2 X-4.441 Y21.073 I-16.586 J6.355
X-7.491 Y17.908 I-11.795 J8.314
X-10.201 Y16.326 I-7.767 J10.194
X-13.171 Y15.312 I-8.096 J18.858
X-13.505 Y15.241 I-0.999 J3.874
G3 X-13.841 Y15.178 I1.44 J-8.536
X-14.853 Y13.931 I0.261 J-1.246
G1 Y-13.891
G3 X-13.89 Y-14.854 I0.963
G1 X13.89
G3 X14.853 Y-13.891 J0.963
G1 Y13.981
G3 X14.481 Y14.855 I-1.215
G2 X13.448 Y16.61 I2.632 J2.731
G3 X12.096 Y18.131 I-2.189 J-0.584
G2 X8.512 Y20.265 I4.885 J12.284
X4.088 Y27.308 I8.612 J10.32
G3 X2.839 Y28.282 I-1.249 J-0.314
G1 X-2.848
G3 X-4.084 Y27.311 J-1.272
G2 X-16.288 Y17.217 I-12.861 J3.125
G3 X-17.193 Y16.267 I0.046 J-0.95
G1 X-17.194 Y-16.231
G3 X-16.231 Y-17.195 I0.963
G1 X16.231
G3 X17.194 Y-16.231 J0.963
G1 X17.193 Y16.219
G3 X16.25 Y17.216 I-0.998
G2 X12.096 Y18.131 I0.731 J13.199
X10.931 Y19.928 I0.684 J1.72
G3 X10.057 Y21.883 I-2.401 J0.1
G2 X8.779 Y23.129 I6.789 J8.245
X6.068 Y29.674 I8.455 J7.335
G3 X5.05 Y30.623 I-1.018 J-0.072
G1 X-5.054
G3 X-6.066 Y29.683 J-1.014
G2 X-9.507 Y22.51 I-10.879 J0.806
X-16.866 Y19.486 I-7.689 J8.249
X-17.719 Y19.505 I-0.247 J8.428
G3 X-18.571 Y19.535 I-0.852 J-11.83
X-19.534 Y18.572 J-0.963
G1 X-19.535 Y-18.572
G3 X-18.572 Y-19.535 I0.963
G1 X18.572
G3 X19.535 Y-18.572 J0.963
G1 X19.534 Y18.573
G3 X18.571 Y19.537 I-0.964
X16.75 Y19.497 I-0.009 J-41.132
G2 X14.933 Y19.621 I-0.359 J8.134
X10.057 Y21.883 I1.913 J10.508
X9.48 Y24.079 I1.234 J1.499
G3 X9.352 Y26.347 I-2.575 J0.992
G2 X8.33 Y30.522 I8.007 J4.173
X8.353 Y31.261 I11.839 J-0.003
G3 X8.376 Y32 I-11.816 J0.742
X7.413 Y32.963 I-0.963
G1 X-7.414
G3 X-8.378 Y32 J-0.964
G2 X-8.396 Y29.575 I-171.508 J0.048
X-8.889 Y27.2 I-6.412 J0.092
X-11.968 Y23.333 I-8.326 J3.47
X-16.654 Y21.754 I-4.933 J6.9
X-18.783 Y21.8 I-0.618 J21.112
G3 X-20.911 Y21.876 I-2.128 J-29.667
X-21.875 Y20.913 J-0.963
G1 X-21.876 Y-20.913
G3 X-20.912 Y-21.876 I0.963
G1 X20.912
G3 X21.876 Y-20.913 J0.963
G1 X21.875 Y20.914
G3 X20.911 Y21.877 I-0.964
G1 X16.476 Y21.878
G2 X12.332 Y23.09 I0.002 J7.698
X9.38 Y26.294 I4.607 J7.207
X9.352 Y26.347 I7.979 J4.226
X9.688 Y28.601 I1.718 J0.895
G3 X10.531 Y30.718 I-2.095 J2.06
G2 X10.573 Y31.68 I7.564 J0.148
G3 X10.717 Y34.341 I-24.638 J2.667
X9.754 Y35.304 I-0.963
G1 X-9.754
G3 X-10.718 Y34.341 J-0.964
X-10.707 Y30.139 I755.167 J-0.213
G2 X-12.22 Y26.22 I-5.756 J-0.03
X-14.255 Y24.699 I-5.028 J4.609
X-16.722 Y24.091 I-2.643 J5.412
G1 X-23.252 Y24.216
G3 X-24.215 Y23.253 J-0.963
G1 X-24.216 Y-23.253
G3 X-23.253 Y-24.216 I0.963
G1 X23.253
G3 X24.216 Y-23.253 J0.963
G1 X24.215 Y23.254
G3 X23.252 Y24.217 I-0.964
X19.51 Y24.042 I-0.008 J-39.937
G2 X15.767 Y24.204 I-1.283 J13.668
X12.554 Y25.876 I1.099 J6.037
X10.758 Y29.021 I4.727 J4.785
X10.531 Y30.718 I7.337 J1.844
X11.76 Y32.512 I1.871 J0.037
G3 X13.028 Y34.279 I-0.663 J1.815
X13.058 Y36.681 I-97.017 J2.424
X12.095 Y37.644 I-0.963
G1 X-12.094
G3 X-13.058 Y36.681 J-0.964
X-12.869 Y33.162 I32.73 J-0.009
G2 X-13.016 Y29.641 I-11.778 J-1.27
X-14.091 Y27.646 I-3.729 J0.721
X-16.066 Y26.533 I-3.073 J3.146
X-16.612 Y26.443 I-0.791 J3.065
X-17.165 Y26.421 I-0.553 J7.135
G1 X-25.592 Y26.557
G3 X-26.556 Y25.594 J-0.963
G1 X-26.557 Y-25.594
G3 X-25.593 Y-26.557 I0.963
G1 X25.593
G3 X26.557 Y-25.594 J0.963
G1 X26.556 Y25.594
G3 X25.592 Y26.557 I-0.964
X21.267 Y26.49 I-0.029 J-137.869
G2 X16.942 Y26.423 I-4.296 J137.802
X12.875 Y30.748 I0.001 J4.075
G3 X13.028 Y34.279 I-96.865 J5.955
G2 X14.232 Y36.032 I1.948 J-0.049
G3 X15.414 Y37.799 I-0.73 J1.768
G1 X15.415 Y40
X-15.416
X-15.413 Y39.93
G2 Y39.901 I-0.793 J-0.029
G1 X-15.415 Y30.435
G2 X-15.43 Y30.284 I-0.794
G1 X-15.462 Y30.114
G2 X-15.509 Y29.96 I-0.779 J0.151
G1 X-15.567 Y29.821
G2 X-15.631 Y29.699 I-0.733 J0.305
G1 X-15.698 Y29.593
G2 X-15.782 Y29.485 I-0.669 J0.428
G1 X-15.883 Y29.375
G2 X-15.987 Y29.28 I-0.585 J0.536
G1 X-16.093 Y29.199
G2 X-16.218 Y29.121 I-0.481 J0.631
G1 X-16.364 Y29.048
G2 X-16.521 Y28.989 I-0.355 J0.71
G1 X-16.688 Y28.946
G2 X-16.863 Y28.921 I-0.198 J0.769
G1 X-17.142 Y28.913
G2 X-17.165 I-0.023 J0.793
G1 X-26.857
X-27.56 Y28.804
X-28.068 Y28.552
X-28.178 Y28.465
X-28.479 Y28.163
X-28.56 Y28.054
X-28.807 Y27.544
X-28.911 Y26.884
X-28.912 Y-26.876
X-28.804 Y-27.557
X-28.759 Y-27.665
X-28.559 Y-28.057
X-28.462 Y-28.182
X-28.177 Y-28.467
X-28.059 Y-28.557
X-27.554 Y-28.803
X-27.505 Y-28.813
X-26.857 Y-28.913
X26.857
X27.56 Y-28.804
X28.057 Y-28.558
X28.175 Y-28.468
X28.496 Y-28.142
X28.557 Y-28.062
X28.759 Y-27.665
X28.804 Y-27.557
X28.912 Y-26.876
X28.911 Y26.884
X28.807 Y27.544
X28.56 Y28.054
X28.481 Y28.16
X28.134 Y28.503
X28.074 Y28.549
X27.554 Y28.803
X27.513 Y28.811
X26.857 Y28.913
X16.942 Y28.915
G2 X16.8 Y28.927 J0.794
G1 X16.633 Y28.958
G2 X16.472 Y29.005 I0.142 J0.781
G1 X16.319 Y29.068
G2 X16.195 Y29.133 I0.303 J0.734
G1 X16.098 Y29.195
G2 X15.99 Y29.278 I0.428 J0.669
G1 X15.876 Y29.382
G2 X15.779 Y29.488 I0.535 J0.586
G1 X15.699 Y29.592
G2 X15.62 Y29.719 I0.632 J0.481
G1 X15.546 Y29.869
G2 X15.486 Y30.029 I0.71 J0.354
G1 X15.444 Y30.199
G2 X15.421 Y30.347 I0.77 J0.194
G1 X15.414 Y30.474
G2 X15.413 Y30.52 I0.792 J0.045
G1 X15.414 Y37.799
G3 X15.399 Y37.895 Z-1.984 I-0.318
X15.361 Y37.975 Z-1.939 I-0.302 J-0.096
X15.316 Y38.028 Z-1.869 I-0.264 J-0.176
X15.281 Y38.057 Z-1.781 I-0.219 J-0.23
X15.268 Y38.066 Z-1.683 I-0.184 J-0.258
G0 Z5
X0.017 Y-1.018
Z1
G1 Z-3.683 F762
G3 X0.005 Y-1.017 Z-3.77 I-0.017 J-0.094
X-0.031 Y-1.022 Z-3.851 I-0.005 J-0.095
X-0.076 Y-1.055 Z-3.919 I0.031 J-0.09
X-0.095 Y-1.114 Z-3.963 I0.076 J-0.057
X-0.068 Y-1.179 Z-3.991 I0.095 J0.002
X0 Y-1.208 Z-4 I0.068 J0.067
G1 X0.244
G3 X1.207 Y-0.244 J0.963
G1 Y5.316
G3 X0.781 Y6.109 I-0.951
G2 X0.658 Y6.192 I7.872 J11.877
X0.534 Y6.275 I7.872 J11.877
G3 X-0.535 Y6.274 I-0.534 J-0.787
G2 X-0.659 Y6.19 I-8.019 J11.778
X-0.783 Y6.107 I-8.019 J11.778
G3 X-1.207 Y5.315 I0.527 J-0.792
G1 Y-0.244
G3 X-0.244 Y-1.208 I0.963
G1 X0
G2 X1.609 Y-2.339 J-1.71
G3 X3.548 Y-2.001 I0.94 J0.338
G1 X3.547 Y5.892
G3 X2.517 Y7.773 I-2.232
G2 X0.765 Y8.987 I15.451 J24.171
G3 X-0.771 Y8.985 I-0.767 J-1.016
G2 X-2.497 Y7.783 I-15.802 J20.845
G3 X-3.547 Y5.866 I1.225 J-1.918
G1 X-3.548 Y-2.585
G3 X-2.584 Y-3.548 I0.963
G1 X2.584
G3 X3.548 Y-2.585 J0.963
G1 Y-2.001
G2 X4.718 Y-0.246 I1.902
G3 X5.888 Y1.51 I-0.731 J1.755
G1 Y7.334
G3 X4.867 Y9.088 I-2.017
G2 X0.723 Y12.044 I12.164 J21.434
G3 X-0.717 Y12.046 I-0.721 J-0.813
G2 X-5.012 Y9.008 I-16.298 J18.486
G3 X-5.888 Y7.519 I0.827 J-1.489
G1 Y-4.926
G3 X-4.925 Y-5.889 I0.963
G1 X4.925
G3 X5.888 Y-4.926 J0.963
G1 Y1.51
G2 X7.058 Y3.265 I1.902
G3 X8.229 Y5.021 I-0.731 J1.755
G1 Y8.875
G3 X7.216 Y10.494 I-1.801
G2 X0.621 Y15.41 I9.679 J19.868
G3 X-0.628 Y15.408 I-0.624 J-0.575
G2 X-6.952 Y10.617 I-16.283 J14.925
X-7.113 Y10.543 I-1.179 J2.355
G3 X-7.275 Y10.469 I1.415 J-3.293
X-8.229 Y8.94 I0.749 J-1.529
G1 Y-7.266
G3 X-7.266 Y-8.23 I0.963
G1 X7.266
G3 X8.229 Y-7.266 J0.963
G1 Y5.021
G2 X9.345 Y6.695 I1.813
G3 X10.461 Y8.369 I-0.697 J1.674
G1 Y10.444
G3 X9.458 Y11.939 I-1.617
G2 X0.52 Y19.102 I7.73 J18.806
G3 X-0.521 Y19.1 I-0.52 J-0.361
G2 X-9.655 Y11.856 I-16.407 J11.307
G3 X-10.46 Y10.672 I0.467 J-1.184
G1 X-10.461 Y-9.498
G3 X-9.498 Y-10.462 I0.963
G1 X9.498
G3 X10.461 Y-9.498 J0.963
G1 Y8.369
G2 X11.486 Y9.907 I1.667
G3 X12.512 Y11.446 I-0.641 J1.539
G1 Y12.011
G3 X11.523 Y13.368 I-1.424
G2 X0.645 Y23.02 I5.505 J17.161
G3 X-0.646 Y23.016 I-0.644 J-0.297
G2 X-4.066 Y17.946 I-16.746 J7.607
X-8.982 Y14.306 I-12.869 J12.243
X-10.28 Y13.769 I-4.385 J8.756
X-11.617 Y13.339 I-22.841 J68.764
G3 X-12.512 Y12.123 I0.378 J-1.216
G1 X-12.513 Y-11.55
G3 X-11.55 Y-12.513 I0.963
G1 X11.55
G3 X12.513 Y-11.55 J0.963
G1 X12.512 Y11.446
G2 X13.844 Y12.95 I1.515
G3 X14.481 Y14.855 I-0.135 J1.104
X13.875 Y15.172 I-0.843 J-0.875
G2 X2.371 Y24.952 I3.03 J15.221
G3 X0.936 Y25.941 I-1.434 J-0.545
G1 X-0.933
G3 X-2.373 Y24.951 J-1.542
G2 X-4.441 Y21.073 I-16.586 J6.355
X-7.491 Y17.908 I-11.795 J8.314
X-10.201 Y16.326 I-7.767 J10.194
X-13.171 Y15.312 I-8.096 J18.858
X-13.505 Y15.241 I-0.999 J3.874
G3 X-13.841 Y15.178 I1.44 J-8.536
X-14.853 Y13.931 I0.261 J-1.246
G1 Y-13.891
G3 X-13.89 Y-14.854 I0.963
G1 X13.89
G3 X14.853 Y-13.891 J0.963
G1 Y13.981
G3 X14.481 Y14.855 I-1.215
G2 X13.448 Y16.61 I2.632 J2.731
G3 X12.096 Y18.131 I-2.189 J-0.584
G2 X8.512 Y20.265 I4.885 J12.284
X4.088 Y27.308 I8.612 J10.32
G3 X2.839 Y28.282 I-1.249 J-0.314
G1 X-2.848
G3 X-4.084 Y27.311 J-1.272
G2 X-16.288 Y17.217 I-12.861 J3.125
G3 X-17.193 Y16.267 I0.046 J-0.95
G1 X-17.194 Y-16.231
G3 X-16.231 Y-17.195 I0.963
G1 X16.231
G3 X17.194 Y-16.231 J0.963
G1 X17.193 Y16.219
G3 X16.25 Y17.216 I-0.998
G2 X12.096 Y18.131 I0.731 J13.199
X10.931 Y19.928 I0.684 J1.72
G3 X10.057 Y21.883 I-2.401 J0.1
G2 X8.779 Y23.129 I6.789 J8.245
X6.068 Y29.674 I8.455 J7.335
G3 X5.05 Y30.623 I-1.018 J-0.072
G1 X-5.054
G3 X-6.066 Y29.683 J-1.014
G2 X-9.507 Y22.51 I-10.879 J0.806
X-16.866 Y19.486 I-7.689 J8.249
X-17.719 Y19.505 I-0.247 J8.428
G3 X-18.571 Y19.535 I-0.852 J-11.83
X-19.534 Y18.572 J-0.963
G1 X-19.535 Y-18.572
G3 X-18.572 Y-19.535 I0.963
G1 X18.572
G3 X19.535 Y-18.572 J0.963
G1 X19.534 Y18.573
G3 X18.571 Y19.537 I-0.964
X16.75 Y19.497 I-0.009 J-41.132
G2 X14.933 Y19.621 I-0.359 J8.134
X10.057 Y21.883 I1.913 J10.508
X9.48 Y24.079 I1.234 J1.499
G3 X9.352 Y26.347 I-2.575 J0.992
G2 X8.33 Y30.522 I8.007 J4.173
X8.353 Y31.261 I11.839 J-0.003
G3 X8.376 Y32 I-11.816 J0.742
X7.413 Y32.963 I-0.963
G1 X-7.414
G3 X-8.378 Y32 J-0.964
G2 X-8.396 Y29.575 I-171.508 J0.048
X-8.889 Y27.2 I-6.412 J0.092
X-11.968 Y23.333 I-8.326 J3.47
X-16.654 Y21.754 I-4.933 J6.9
X-18.783 Y21.8 I-0.618 J21.112
G3 X-20.911 Y21.876 I-2.128 J-29.667
X-21.875 Y20.913 J-0.963
G1 X-21.876 Y-20.913
G3 X-20.912 Y-21.876 I0.963
G1 X20.912
G3 X21.876 Y-20.913 J0.963
G1 X21.875 Y20.914
G3 X20.911 Y21.877 I-0.964
G1 X16.476 Y21.878
G2 X12.332 Y23.09 I0.002 J7.698
X9.38 Y26.294 I4.607 J7.207
X9.352 Y26.347 I7.979 J4.226
X9.688 Y28.601 I1.718 J0.895
G3 X10.531 Y30.718 I-2.095 J2.06
G2 X10.573 Y31.68 I7.564 J0.148
G3 X10.717 Y34.341 I-24.638 J2.667
X9.754 Y35.304 I-0.963
G1 X-9.754
G3 X-10.718 Y34.341 J-0.964
X-10.707 Y30.139 I755.167 J-0.213
G2 X-12.22 Y26.22 I-5.756 J-0.03
X-14.255 Y24.699 I-5.028 J4.609
X-16.722 Y24.091 I-2.643 J5.412
G1 X-23.252 Y24.216
G3 X-24.215 Y23.253 J-0.963
G1 X-24.216 Y-23.253
G3 X-23.253 Y-24.216 I0.963
G1 X23.253
G3 X24.216 Y-23.253 J0.963
G1 X24.215 Y23.254
G3 X23.252 Y24.217 I-0.964
X19.51 Y24.042 I-0.008 J-39.937
G2 X15.767 Y24.204 I-1.283 J13.668
X12.554 Y25.876 I1.099 J6.037
X10.758 Y29.021 I4.727 J4.785
X10.531 Y30.718 I7.337 J1.844
X11.76 Y32.512 I1.871 J0.037
G3 X13.028 Y34.279 I-0.663 J1.815
X13.058 Y36.681 I-97.017 J2.424
X12.095 Y37.644 I-0.963
G1 X-12.094
G3 X-13.058 Y36.681 J-0.964
X-12.869 Y33.162 I32.73 J-0.009
G2 X-13.016 Y29.641 I-11.778 J-1.27
X-14.091 Y27.646 I-3.729 J0.721
X-16.066 Y26.533 I-3.073 J3.146
X-16.612 Y26.443 I-0.791 J3.065
X-17.165 Y26.421 I-0.553 J7.135
G1 X-25.592 Y26.557
G3 X-26.556 Y25.594 J-0.963
G1 X-26.557 Y-25.594
G3 X-25.593 Y-26.557 I0.963
G1 X25.593
G3 X26.557 Y-25.594 J0.963
G1 X26.556 Y25.594
G3 X25.592 Y26.557 I-0.964
X21.267 Y26.49 I-0.029 J-137.869
G2 X16.942 Y26.423 I-4.296 J137.802
X12.875 Y30.748 I0.001 J4.075
G3 X13.028 Y34.279 I-96.865 J5.955
G2 X14.232 Y36.032 I1.948 J-0.049
G3 X15.414 Y37.799 I-0.73 J1.768
G1 X15.415 Y40
X-15.416
X-15.413 Y39.93
G2 Y39.901 I-0.793 J-0.029
G1 X-15.415 Y30.435
G2 X-15.43 Y30.284 I-0.794
G1 X-15.462 Y30.114
G2 X-15.509 Y29.96 I-0.779 J0.151
G1 X-15.567 Y29.821
G2 X-15.631 Y29.699 I-0.733 J0.305
G1 X-15.698 Y29.593
G2 X-15.782 Y29.485 I-0.669 J0.428
G1 X-15.883 Y29.375
G2 X-15.987 Y29.28 I-0.585 J0.536
G1 X-16.093 Y29.199
G2 X-16.218 Y29.121 I-0.481 J0.631
G1 X-16.364 Y29.048
G2 X-16.521 Y28.989 I-0.355 J0.71
G1 X-16.688 Y28.946
G2 X-16.863 Y28.921 I-0.198 J0.769
G1 X-17.142 Y28.913
G2 X-17.165 I-0.023 J0.793
G1 X-26.857
X-27.56 Y28.804
X-28.068 Y28.552
X-28.178 Y28.465
X-28.479 Y28.163
X-28.56 Y28.054
X-28.807 Y27.544
X-28.911 Y26.884
X-28.912 Y-26.876
X-28.804 Y-27.557
X-28.759 Y-27.665
X-28.559 Y-28.057
X-28.462 Y-28.182
X-28.177 Y-28.467
X-28.059 Y-28.557
X-27.554 Y-28.803
X-27.505 Y-28.813
X-26.857 Y-28.913
X26.857
X27.56 Y-28.804
X28.057 Y-28.558
X28.175 Y-28.468
X28.496 Y-28.142
X28.557 Y-28.062
X28.759 Y-27.665
X28.804 Y-27.557
X28.912 Y-26.876
X28.911 Y26.884
X28.807 Y27.544
X28.56 Y28.054
X28.481 Y28.16
X28.134 Y28.503
X28.074 Y28.549
X27.554 Y28.803
X27.513 Y28.811
X26.857 Y28.913
X16.942 Y28.915
G2 X16.8 Y28.927 J0.794
G1 X16.633 Y28.958
G2 X16.472 Y29.005 I0.142 J0.781
G1 X16.319 Y29.068
G2 X16.195 Y29.133 I0.303 J0.734
G1 X16.098 Y29.195
G2 X15.99 Y29.278 I0.428 J0.669
G1 X15.876 Y29.382
G2 X15.779 Y29.488 I0.535 J0.586
G1 X15.699 Y29.592
G2 X15.62 Y29.719 I0.632 J0.481
G1 X15.546 Y29.869
G2 X15.486 Y30.029 I0.71 J0.354
G1 X15.444 Y30.199
G2 X15.421 Y30.347 I0.77 J0.194
G1 X15.414 Y30.474
G2 X15.413 Y30.52 I0.792 J0.045
G1 X15.414 Y37.799
G3 X15.399 Y37.895 Z-3.984 I-0.318
X15.361 Y37.975 Z-3.939 I-0.302 J-0.096
X15.316 Y38.028 Z-3.869 I-0.264 J-0.176
X15.281 Y38.057 Z-3.781 I-0.219 J-0.23
X15.268 Y38.066 Z-3.683 I-0.184 J-0.258
G0 Z5
X0.017 Y-1.018
Z3
G1 Z-1 F762
Z-5.683
G3 X0.005 Y-1.017 Z-5.77 I-0.017 J-0.094
X-0.031 Y-1.022 Z-5.851 I-0.005 J-0.095
X-0.076 Y-1.055 Z-5.919 I0.031 J-0.09
X-0.095 Y-1.114 Z-5.963 I0.076 J-0.057
X-0.068 Y-1.179 Z-5.991 I0.095 J0.002
X0 Y-1.208 Z-6 I0.068 J0.067
G1 X0.244
G3 X1.207 Y-0.244 J0.963
G1 Y5.316
G3 X0.781 Y6.109 I-0.951
G2 X0.658 Y6.192 I7.872 J11.877
X0.534 Y6.275 I7.872 J11.877
G3 X-0.535 Y6.274 I-0.534 J-0.787
G2 X-0.659 Y6.19 I-8.019 J11.778
X-0.783 Y6.107 I-8.019 J11.778
G3 X-1.207 Y5.315 I0.527 J-0.792
G1 Y-0.244
G3 X-0.244 Y-1.208 I0.963
G1 X0
G2 X1.609 Y-2.339 J-1.71
G3 X3.548 Y-2.001 I0.94 J0.338
G1 X3.547 Y5.892
G3 X2.517 Y7.773 I-2.232
G2 X0.765 Y8.987 I15.451 J24.171
G3 X-0.771 Y8.985 I-0.767 J-1.016
G2 X-2.497 Y7.783 I-15.802 J20.845
G3 X-3.547 Y5.866 I1.225 J-1.918
G1 X-3.548 Y-2.585
G3 X-2.584 Y-3.548 I0.963
G1 X2.584
G3 X3.548 Y-2.585 J0.963
G1 Y-2.001
G2 X4.718 Y-0.246 I1.902
G3 X5.888 Y1.51 I-0.731 J1.755
G1 Y7.334
G3 X4.867 Y9.088 I-2.017
G2 X0.723 Y12.044 I12.164 J21.434
G3 X-0.717 Y12.046 I-0.721 J-0.813
G2 X-5.012 Y9.008 I-16.298 J18.486
G3 X-5.888 Y7.519 I0.827 J-1.489
G1 Y-4.926
G3 X-4.925 Y-5.889 I0.963
G1 X4.925
G3 X5.888 Y-4.926 J0.963
G1 Y1.51
G2 X7.058 Y3.265 I1.902
G3 X8.229 Y5.021 I-0.731 J1.755
G1 Y8.875
G3 X7.216 Y10.494 I-1.801
G2 X0.621 Y15.41 I9.679 J19.868
G3 X-0.628 Y15.408 I-0.624 J-0.575
G2 X-6.952 Y10.617 I-16.283 J14.925
X-7.113 Y10.543 I-1.179 J2.355
G3 X-7.275 Y10.469 I1.415 J-3.293
X-8.229 Y8.94 I0.749 J-1.529
G1 Y-7.266
G3 X-7.266 Y-8.23 I0.963
G1 X7.266
G3 X8.229 Y-7.266 J0.963
G1 Y5.021
G2 X9.345 Y6.695 I1.813
G3 X10.461 Y8.369 I-0.697 J1.674
G1 Y10.444
G3 X9.458 Y11.939 I-1.617
G2 X0.52 Y19.102 I7.73 J18.806
G3 X-0.521 Y19.1 I-0.52 J-0.361
G2 X-9.655 Y11.856 I-16.407 J11.307
G3 X-10.46 Y10.672 I0.467 J-1.184
G1 X-10.461 Y-9.498
G3 X-9.498 Y-10.462 I0.963
G1 X9.498
G3 X10.461 Y-9.498 J0.963
G1 Y8.369
G2 X11.486 Y9.907 I1.667
G3 X12.512 Y11.446 I-0.641 J1.539
G1 Y12.011
G3 X11.523 Y13.368 I-1.424
G2 X0.645 Y23.02 I5.505 J17.161
G3 X-0.646 Y23.016 I-0.644 J-0.297
G2 X-4.066 Y17.946 I-16.746 J7.607
X-8.982 Y14.306 I-12.869 J12.243
X-10.28 Y13.769 I-4.385 J8.756
X-11.617 Y13.339 I-22.841 J68.764
G3 X-12.512 Y12.123 I0.378 J-1.216
G1 X-12.513 Y-11.55
G3 X-11.55 Y-12.513 I0.963
G1 X11.55
G3 X12.513 Y-11.55 J0.963
G1 X12.512 Y11.446
G2 X13.844 Y12.95 I1.515
G3 X14.481 Y14.855 I-0.135 J1.104
X13.875 Y15.172 I-0.843 J-0.875
G2 X2.371 Y24.952 I3.03 J15.221
G3 X0.936 Y25.941 I-1.434 J-0.545
G1 X-0.933
G3 X-2.373 Y24.951 J-1.542
G2 X-4.441 Y21.073 I-16.586 J6.355
X-7.491 Y17.908 I-11.795 J8.314
X-10.201 Y16.326 I-7.767 J10.194
X-13.171 Y15.312 I-8.096 J18.858
X-13.505 Y15.241 I-0.999 J3.874
G3 X-13.841 Y15.178 I1.44 J-8.536
X-14.853 Y13.931 I0.261 J-1.246
G1 Y-13.891
G3 X-13.89 Y-14.854 I0.963
G1 X13.89
G3 X14.853 Y-13.891 J0.963
G1 Y13.981
G3 X14.481 Y14.855 I-1.215
G2 X13.448 Y16.61 I2.632 J2.731
G3 X12.096 Y18.131 I-2.189 J-0.584
G2 X8.512 Y20.265 I4.885 J12.284
X4.088 Y27.308 I8.612 J10.32
G3 X2.839 Y28.282 I-1.249 J-0.314
G1 X-2.848
G3 X-4.084 Y27.311 J-1.272
G2 X-16.288 Y17.217 I-12.861 J3.125
G3 X-17.193 Y16.267 I0.046 J-0.95
G1 X-17.194 Y-16.231
G3 X-16.231 Y-17.195 I0.963
G1 X16.231
G3 X17.194 Y-16.231 J0.963
G1 X17.193 Y16.219
G3 X16.25 Y17.216 I-0.998
G2 X12.096 Y18.131 I0.731 J13.199
X10.931 Y19.928 I0.684 J1.72
G3 X10.057 Y21.883 I-2.401 J0.1
G2 X8.779 Y23.129 I6.789 J8.245
X6.068 Y29.674 I8.455 J7.335
G3 X5.05 Y30.623 I-1.018 J-0.072
G1 X-5.054
G3 X-6.066 Y29.683 J-1.014
G2 X-9.507 Y22.51 I-10.879 J0.806
X-16.866 Y19.486 I-7.689 J8.249
X-17.719 Y19.505 I-0.247 J8.428
G3 X-18.571 Y19.535 I-0.852 J-11.83
X-19.534 Y18.572 J-0.963
G1 X-19.535 Y-18.572
G3 X-18.572 Y-19.535 I0.963
G1 X18.572
G3 X19.535 Y-18.572 J0.963
G1 X19.534 Y18.573
G3 X18.571 Y19.537 I-0.964
X16.75 Y19.497 I-0.009 J-41.132
G2 X14.933 Y19.621 I-0.359 J8.134
X10.057 Y21.883 I1.913 J10.508
X9.48 Y24.079 I1.234 J1.499
G3 X9.352 Y26.347 I-2.575 J0.992
G2 X8.33 Y30.522 I8.007 J4.173
X8.353 Y31.261 I11.839 J-0.003
G3 X8.376 Y32 I-11.816 J0.742
X7.413 Y32.963 I-0.963
G1 X-7.414
G3 X-8.378 Y32 J-0.964
G2 X-8.396 Y29.575 I-171.508 J0.048
X-8.889 Y27.2 I-6.412 J0.092
X-11.968 Y23.333 I-8.326 J3.47
X-16.654 Y21.754 I-4.933 J6.9
X-18.783 Y21.8 I-0.618 J21.112
G3 X-20.911 Y21.876 I-2.128 J-29.667
X-21.875 Y20.913 J-0.963
G1 X-21.876 Y-20.913
G3 X-20.912 Y-21.876 I0.963
G1 X20.912
G3 X21.876 Y-20.913 J0.963
G1 X21.875 Y20.914
G3 X20.911 Y21.877 I-0.964
G1 X16.476 Y21.878
G2 X12.332 Y23.09 I0.002 J7.698
X9.38 Y26.294 I4.607 J7.207
X9.352 Y26.347 I7.979 J4.226
X9.688 Y28.601 I1.718 J0.895
G3 X10.531 Y30.718 I-2.095 J2.06
G2 X10.573 Y31.68 I7.564 J0.148
G3 X10.717 Y34.341 I-24.638 J2.667
X9.754 Y35.304 I-0.963
G1 X-9.754
G3 X-10.718 Y34.341 J-0.964
X-10.707 Y30.139 I755.167 J-0.213
G2 X-12.22 Y26.22 I-5.756 J-0.03
X-14.255 Y24.699 I-5.028 J4.609
X-16.722 Y24.091 I-2.643 J5.412
G1 X-23.252 Y24.216
G3 X-24.215 Y23.253 J-0.963
G1 X-24.216 Y-23.253
G3 X-23.253 Y-24.216 I0.963
G1 X23.253
G3 X24.216 Y-23.253 J0.963
G1 X24.215 Y23.254
G3 X23.252 Y24.217 I-0.964
X19.51 Y24.042 I-0.008 J-39.937
G2 X15.767 Y24.204 I-1.283 J13.668
X12.554 Y25.876 I1.099 J6.037
X10.758 Y29.021 I4.727 J4.785
X10.531 Y30.718 I7.337 J1.844
X11.76 Y32.512 I1.871 J0.037
G3 X13.028 Y34.279 I-0.663 J1.815
X13.058 Y36.681 I-97.017 J2.424
X12.095 Y37.644 I-0.963
G1 X-12.094
G3 X-13.058 Y36.681 J-0.964
X-12.869 Y33.162 I32.73 J-0.009
G2 X-13.016 Y29.641 I-11.778 J-1.27
X-14.091 Y27.646 I-3.729 J0.721
X-16.066 Y26.533 I-3.073 J3.146
X-16.612 Y26.443 I-0.791 J3.065
X-17.165 Y26.421 I-0.553 J7.135
G1 X-25.592 Y26.557
G3 X-26.556 Y25.594 J-0.963
G1 X-26.557 Y-25.594
G3 X-25.593 Y-26.557 I0.963
G1 X25.593
G3 X26.557 Y-25.594 J0.963
G1 X26.556 Y25.594
G3 X25.592 Y26.557 I-0.964
X21.267 Y26.49 I-0.029 J-137.869
G2 X16.942 Y26.423 I-4.296 J137.802
X12.875 Y30.748 I0.001 J4.075
G3 X13.028 Y34.279 I-96.865 J5.955
G2 X14.232 Y36.032 I1.948 J-0.049
G3 X15.414 Y37.799 I-0.73 J1.768
G1 X15.415 Y40
X-15.416
X-15.413 Y39.93
G2 Y39.901 I-0.793 J-0.029
G1 X-15.415 Y30.435
G2 X-15.43 Y30.284 I-0.794
G1 X-15.462 Y30.114
G2 X-15.509 Y29.96 I-0.779 J0.151
G1 X-15.567 Y29.821
G2 X-15.631 Y29.699 I-0.733 J0.305
G1 X-15.698 Y29.593
G2 X-15.782 Y29.485 I-0.669 J0.428
G1 X-15.883 Y29.375
G2 X-15.987 Y29.28 I-0.585 J0.536
G1 X-16.093 Y29.199
G2 X-16.218 Y29.121 I-0.481 J0.631
G1 X-16.364 Y29.048
G2 X-16.521 Y28.989 I-0.355 J0.71
G1 X-16.688 Y28.946
G2 X-16.863 Y28.921 I-0.198 J0.769
G1 X-17.142 Y28.913
G2 X-17.165 I-0.023 J0.793
G1 X-26.857
X-27.56 Y28.804
X-28.068 Y28.552
X-28.178 Y28.465
X-28.479 Y28.163
X-28.56 Y28.054
X-28.807 Y27.544
X-28.911 Y26.884
X-28.912 Y-26.876
X-28.804 Y-27.557
X-28.759 Y-27.665
X-28.559 Y-28.057
X-28.462 Y-28.182
X-28.177 Y-28.467
X-28.059 Y-28.557
X-27.554 Y-28.803
X-27.505 Y-28.813
X-26.857 Y-28.913
X26.857
X27.56 Y-28.804
X28.057 Y-28.558
X28.175 Y-28.468
X28.496 Y-28.142
X28.557 Y-28.062
X28.759 Y-27.665
X28.804 Y-27.557
X28.912 Y-26.876
X28.911 Y26.884
X28.807 Y27.544
X28.56 Y28.054
X28.481 Y28.16
X28.134 Y28.503
X28.074 Y28.549
X27.554 Y28.803
X27.513 Y28.811
X26.857 Y28.913
X16.942 Y28.915
G2 X16.8 Y28.927 J0.794
G1 X16.633 Y28.958
G2 X16.472 Y29.005 I0.142 J0.781
G1 X16.319 Y29.068
G2 X16.195 Y29.133 I0.303 J0.734
G1 X16.098 Y29.195
G2 X15.99 Y29.278 I0.428 J0.669
G1 X15.876 Y29.382
G2 X15.779 Y29.488 I0.535 J0.586
G1 X15.699 Y29.592
G2 X15.62 Y29.719 I0.632 J0.481
G1 X15.546 Y29.869
G2 X15.486 Y30.029 I0.71 J0.354
G1 X15.444 Y30.199
G2 X15.421 Y30.347 I0.77 J0.194
G1 X15.414 Y30.474
G2 X15.413 Y30.52 I0.792 J0.045
G1 X15.414 Y37.799
G3 X15.399 Y37.895 Z-5.984 I-0.318
X15.361 Y37.975 Z-5.939 I-0.302 J-0.096
X15.316 Y38.028 Z-5.869 I-0.264 J-0.176
X15.281 Y38.057 Z-5.781 I-0.219 J-0.23
X15.268 Y38.066 Z-5.683 I-0.184 J-0.258
G0 Z5
X0.017 Y-1.018
Z-3
G1 Z-7.683 F762
G3 X0.005 Y-1.017 Z-7.77 I-0.017 J-0.094
X-0.031 Y-1.022 Z-7.851 I-0.005 J-0.095
X-0.076 Y-1.055 Z-7.919 I0.031 J-0.09
X-0.095 Y-1.114 Z-7.963 I0.076 J-0.057
X-0.068 Y-1.179 Z-7.991 I0.095 J0.002
X0 Y-1.208 Z-8 I0.068 J0.067
G1 X0.244
G3 X1.207 Y-0.244 J0.963
G1 Y5.316
G3 X0.781 Y6.109 I-0.951
G2 X0.658 Y6.192 I7.872 J11.877
X0.534 Y6.275 I7.872 J11.877
G3 X-0.535 Y6.274 I-0.534 J-0.787
G2 X-0.659 Y6.19 I-8.019 J11.778
X-0.783 Y6.107 I-8.019 J11.778
G3 X-1.207 Y5.315 I0.527 J-0.792
G1 Y-0.244
G3 X-0.244 Y-1.208 I0.963
G1 X0
G2 X1.609 Y-2.339 J-1.71
G3 X3.548 Y-2.001 I0.94 J0.338
G1 X3.547 Y5.892
G3 X2.517 Y7.773 I-2.232
G2 X0.765 Y8.987 I15.451 J24.171
G3 X-0.771 Y8.985 I-0.767 J-1.016
G2 X-2.497 Y7.783 I-15.802 J20.845
G3 X-3.547 Y5.866 I1.225 J-1.918
G1 X-3.548 Y-2.585
G3 X-2.584 Y-3.548 I0.963
G1 X2.584
G3 X3.548 Y-2.585 J0.963
G1 Y-2.001
G2 X4.718 Y-0.246 I1.902
G3 X5.888 Y1.51 I-0.731 J1.755
G1 Y7.334
G3 X4.867 Y9.088 I-2.017
G2 X0.723 Y12.044 I12.164 J21.434
G3 X-0.717 Y12.046 I-0.721 J-0.813
G2 X-5.012 Y9.008 I-16.298 J18.486
G3 X-5.888 Y7.519 I0.827 J-1.489
G1 Y-4.926
G3 X-4.925 Y-5.889 I0.963
G1 X4.925
G3 X5.888 Y-4.926 J0.963
G1 Y1.51
G2 X7.058 Y3.265 I1.902
G3 X8.229 Y5.021 I-0.731 J1.755
G1 Y8.875
G3 X7.216 Y10.494 I-1.801
G2 X0.621 Y15.41 I9.679 J19.868
G3 X-0.628 Y15.408 I-0.624 J-0.575
G2 X-6.952 Y10.617 I-16.283 J14.925
X-7.113 Y10.543 I-1.179 J2.355
G3 X-7.275 Y10.469 I1.415 J-3.293
X-8.229 Y8.94 I0.749 J-1.529
G1 Y-7.266
G3 X-7.266 Y-8.23 I0.963
G1 X7.266
G3 X8.229 Y-7.266 J0.963
G1 Y5.021
G2 X9.345 Y6.695 I1.813
G3 X10.461 Y8.369 I-0.697 J1.674
G1 Y10.444
G3 X9.458 Y11.939 I-1.617
G2 X0.52 Y19.102 I7.73 J18.806
G3 X-0.521 Y19.1 I-0.52 J-0.361
G2 X-9.655 Y11.856 I-16.407 J11.307
G3 X-10.46 Y10.672 I0.467 J-1.184
G1 X-10.461 Y-9.498
G3 X-9.498 Y-10.462 I0.963
G1 X9.498
G3 X10.461 Y-9.498 J0.963
G1 Y8.369
G2 X11.486 Y9.907 I1.667
G3 X12.512 Y11.446 I-0.641 J1.539
G1 Y12.011
G3 X11.523 Y13.368 I-1.424
G2 X0.645 Y23.02 I5.505 J17.161
G3 X-0.646 Y23.016 I-0.644 J-0.297
G2 X-4.066 Y17.946 I-16.746 J7.607
X-8.982 Y14.306 I-12.869 J12.243
X-10.28 Y13.769 I-4.385 J8.756
X-11.617 Y13.339 I-22.841 J68.764
G3 X-12.512 Y12.123 I0.378 J-1.216
G1 X-12.513 Y-11.55
G3 X-11.55 Y-12.513 I0.963
G1 X11.55
G3 X12.513 Y-11.55 J0.963
G1 X12.512 Y11.446
G2 X13.844 Y12.95 I1.515
G3 X14.481 Y14.855 I-0.135 J1.104
X13.875 Y15.172 I-0.843 J-0.875
G2 X2.371 Y24.952 I3.03 J15.221
G3 X0.936 Y25.941 I-1.434 J-0.545
G1 X-0.933
G3 X-2.373 Y24.951 J-1.542
G2 X-4.441 Y21.073 I-16.586 J6.355
X-7.491 Y17.908 I-11.795 J8.314
X-10.201 Y16.326 I-7.767 J10.194
X-13.171 Y15.312 I-8.096 J18.858
X-13.505 Y15.241 I-0.999 J3.874
G3 X-13.841 Y15.178 I1.44 J-8.536
X-14.853 Y13.931 I0.261 J-1.246
G1 Y-13.891
G3 X-13.89 Y-14.854 I0.963
G1 X13.89
G3 X14.853 Y-13.891 J0.963
G1 Y13.981
G3 X14.481 Y14.855 I-1.215
G2 X13.448 Y16.61 I2.632 J2.731
G3 X12.096 Y18.131 I-2.189 J-0.584
G2 X8.512 Y20.265 I4.885 J12.284
X4.088 Y27.308 I8.612 J10.32
G3 X2.839 Y28.282 I-1.249 J-0.314
G1 X-2.848
G3 X-4.084 Y27.311 J-1.272
G2 X-16.288 Y17.217 I-12.861 J3.125
G3 X-17.193 Y16.267 I0.046 J-0.95
G1 X-17.194 Y-16.231
G3 X-16.231 Y-17.195 I0.963
G1 X16.231
G3 X17.194 Y-16.231 J0.963
G1 X17.193 Y16.219
G3 X16.25 Y17.216 I-0.998
G2 X12.096 Y18.131 I0.731 J13.199
X10.931 Y19.928 I0.684 J1.72
G3 X10.057 Y21.883 I-2.401 J0.1
G2 X8.779 Y23.129 I6.789 J8.245
X6.068 Y29.674 I8.455 J7.335
G3 X5.05 Y30.623 I-1.018 J-0.072
G1 X-5.054
G3 X-6.066 Y29.683 J-1.014
G2 X-9.507 Y22.51 I-10.879 J0.806
X-16.866 Y19.486 I-7.689 J8.249
X-17.719 Y19.505 I-0.247 J8.428
G3 X-18.571 Y19.535 I-0.852 J-11.83
X-19.534 Y18.572 J-0.963
G1 X-19.535 Y-18.572
G3 X-18.572 Y-19.535 I0.963
G1 X18.572
G3 X19.535 Y-18.572 J0.963
G1 X19.534 Y18.573
G3 X18.571 Y19.537 I-0.964
X16.75 Y19.497 I-0.009 J-41.132
G2 X14.933 Y19.621 I-0.359 J8.134
X10.057 Y21.883 I1.913 J10.508
X9.48 Y24.079 I1.234 J1.499
G3 X9.352 Y26.347 I-2.575 J0.992
G2 X8.33 Y30.522 I8.007 J4.173
X8.353 Y31.261 I11.839 J-0.003
G3 X8.376 Y32 I-11.816 J0.742
X7.413 Y32.963 I-0.963
G1 X-7.414
G3 X-8.378 Y32 J-0.964
G2 X-8.396 Y29.575 I-171.508 J0.048
X-8.889 Y27.2 I-6.412 J0.092
X-11.968 Y23.333 I-8.326 J3.47
X-16.654 Y21.754 I-4.933 J6.9
X-18.783 Y21.8 I-0.618 J21.112
G3 X-20.911 Y21.876 I-2.128 J-29.667
X-21.875 Y20.913 J-0.963
G1 X-21.876 Y-20.913
G3 X-20.912 Y-21.876 I0.963
G1 X20.912
G3 X21.876 Y-20.913 J0.963
G1 X21.875 Y20.914
G3 X20.911 Y21.877 I-0.964
G1 X16.476 Y21.878
G2 X12.332 Y23.09 I0.002 J7.698
X9.38 Y26.294 I4.607 J7.207
X9.352 Y26.347 I7.979 J4.226
X9.688 Y28.601 I1.718 J0.895
G3 X10.531 Y30.718 I-2.095 J2.06
G2 X10.573 Y31.68 I7.564 J0.148
G3 X10.717 Y34.341 I-24.638 J2.667
X9.754 Y35.304 I-0.963
G1 X-9.754
G3 X-10.718 Y34.341 J-0.964
X-10.707 Y30.139 I755.167 J-0.213
G2 X-12.22 Y26.22 I-5.756 J-0.03
X-14.255 Y24.699 I-5.028 J4.609
X-16.722 Y24.091 I-2.643 J5.412
G1 X-23.252 Y24.216
G3 X-24.215 Y23.253 J-0.963
G1 X-24.216 Y-23.253
G3 X-23.253 Y-24.216 I0.963
G1 X23.253
G3 X24.216 Y-23.253 J0.963
G1 X24.215 Y23.254
G3 X23.252 Y24.217 I-0.964
X19.51 Y24.042 I-0.008 J-39.937
G2 X15.767 Y24.204 I-1.283 J13.668
X12.554 Y25.876 I1.099 J6.037
X10.758 Y29.021 I4.727 J4.785
X10.531 Y30.718 I7.337 J1.844
X11.76 Y32.512 I1.871 J0.037
G3 X13.028 Y34.279 I-0.663 J1.815
X13.058 Y36.681 I-97.017 J2.424
X12.095 Y37.644 I-0.963
G1 X-12.094
G3 X-13.058 Y36.681 J-0.964
X-12.869 Y33.162 I32.73 J-0.009
G2 X-13.016 Y29.641 I-11.778 J-1.27
X-14.091 Y27.646 I-3.729 J0.721
X-16.066 Y26.533 I-3.073 J3.146
X-16.612 Y26.443 I-0.791 J3.065
X-17.165 Y26.421 I-0.553 J7.135
G1 X-25.592 Y26.557
G3 X-26.556 Y25.594 J-0.963
G1 X-26.557 Y-25.594
G3 X-25.593 Y-26.557 I0.963
G1 X25.593
G3 X26.557 Y-25.594 J0.963
G1 X26.556 Y25.594
G3 X25.592 Y26.557 I-0.964
X21.267 Y26.49 I-0.029 J-137.869
G2 X16.942 Y26.423 I-4.296 J137.802
X12.875 Y30.748 I0.001 J4.075
G3 X13.028 Y34.279 I-96.865 J5.955
G2 X14.232 Y36.032 I1.948 J-0.049
G3 X15.414 Y37.799 I-0.73 J1.768
G1 X15.415 Y40
X-15.416
X-15.413 Y39.93
G2 Y39.901 I-0.793 J-0.029
G1 X-15.415 Y30.435
G2 X-15.43 Y30.284 I-0.794
G1 X-15.462 Y30.114
G2 X-15.509 Y29.96 I-0.779 J0.151
G1 X-15.567 Y29.821
G2 X-15.631 Y29.699 I-0.733 J0.305
G1 X-15.698 Y29.593
G2 X-15.782 Y29.485 I-0.669 J0.428
G1 X-15.883 Y29.375
G2 X-15.987 Y29.28 I-0.585 J0.536
G1 X-16.093 Y29.199
G2 X-16.218 Y29.121 I-0.481 J0.631
G1 X-16.364 Y29.048
G2 X-16.521 Y28.989 I-0.355 J0.71
G1 X-16.688 Y28.946
G2 X-16.863 Y28.921 I-0.198 J0.769
G1 X-17.142 Y28.913
G2 X-17.165 I-0.023 J0.793
G1 X-26.857
X-27.56 Y28.804
X-28.068 Y28.552
X-28.178 Y28.465
X-28.479 Y28.163
X-28.56 Y28.054
X-28.807 Y27.544
X-28.911 Y26.884
X-28.912 Y-26.876
X-28.804 Y-27.557
X-28.759 Y-27.665
X-28.559 Y-28.057
X-28.462 Y-28.182
X-28.177 Y-28.467
X-28.059 Y-28.557
X-27.554 Y-28.803
X-27.505 Y-28.813
X-26.857 Y-28.913
X26.857
X27.56 Y-28.804
X28.057 Y-28.558
X28.175 Y-28.468
X28.496 Y-28.142
X28.557 Y-28.062
X28.759 Y-27.665
X28.804 Y-27.557
X28.912 Y-26.876
X28.911 Y26.884
X28.807 Y27.544
X28.56 Y28.054
X28.481 Y28.16
X28.134 Y28.503
X28.074 Y28.549
X27.554 Y28.803
X27.513 Y28.811
X26.857 Y28.913
X16.942 Y28.915
G2 X16.8 Y28.927 J0.794
G1 X16.633 Y28.958
G2 X16.472 Y29.005 I0.142 J0.781
G1 X16.319 Y29.068
G2 X16.195 Y29.133 I0.303 J0.734
G1 X16.098 Y29.195
G2 X15.99 Y29.278 I0.428 J0.669
G1 X15.876 Y29.382
G2 X15.779 Y29.488 I0.535 J0.586
G1 X15.699 Y29.592
G2 X15.62 Y29.719 I0.632 J0.481
G1 X15.546 Y29.869
G2 X15.486 Y30.029 I0.71 J0.354
G1 X15.444 Y30.199
G2 X15.421 Y30.347 I0.77 J0.194
G1 X15.414 Y30.474
G2 X15.413 Y30.52 I0.792 J0.045
G1 X15.414 Y37.799
G3 X15.399 Y37.895 Z-7.984 I-0.318
X15.361 Y37.975 Z-7.939 I-0.302 J-0.096
X15.316 Y38.028 Z-7.869 I-0.264 J-0.176
X15.281 Y38.057 Z-7.781 I-0.219 J-0.23
X15.268 Y38.066 Z-7.683 I-0.184 J-0.258
G0 Z5
X0.017 Y-1.018
Z-5
G1 Z-9.682 F762
G3 X0.005 Y-1.017 Z-9.77 I-0.017 J-0.094
X-0.031 Y-1.022 Z-9.851 I-0.005 J-0.095
X-0.076 Y-1.055 Z-9.919 I0.031 J-0.09
X-0.095 Y-1.114 Z-9.963 I0.076 J-0.057
X-0.068 Y-1.179 Z-9.991 I0.095 J0.002
X0 Y-1.208 Z-10 I0.068 J0.067
G1 X0.244
G3 X1.207 Y-0.244 J0.963
G1 Y5.316
G3 X0.781 Y6.109 I-0.951
G2 X0.658 Y6.192 I7.872 J11.877
X0.534 Y6.275 I7.872 J11.877
G3 X-0.535 Y6.274 I-0.534 J-0.787
G2 X-0.659 Y6.19 I-8.019 J11.778
X-0.783 Y6.107 I-8.019 J11.778
G3 X-1.207 Y5.315 I0.527 J-0.792
G1 Y-0.244
G3 X-0.244 Y-1.208 I0.963
G1 X0
G2 X1.609 Y-2.339 J-1.71
G3 X3.548 Y-2.001 I0.94 J0.338
G1 X3.547 Y5.892
G3 X2.517 Y7.773 I-2.232
G2 X0.765 Y8.987 I15.451 J24.171
G3 X-0.771 Y8.985 I-0.767 J-1.016
G2 X-2.497 Y7.783 I-15.802 J20.845
G3 X-3.547 Y5.866 I1.225 J-1.918
G1 X-3.548 Y-2.585
G3 X-2.584 Y-3.548 I0.963
G1 X2.584
G3 X3.548 Y-2.585 J0.963
G1 Y-2.001
G2 X4.718 Y-0.246 I1.902
G3 X5.888 Y1.51 I-0.731 J1.755
G1 Y7.334
G3 X4.867 Y9.088 I-2.017
G2 X0.723 Y12.044 I12.164 J21.434
G3 X-0.717 Y12.046 I-0.721 J-0.813
G2 X-5.012 Y9.008 I-16.298 J18.486
G3 X-5.888 Y7.519 I0.827 J-1.489
G1 Y-4.926
G3 X-4.925 Y-5.889 I0.963
G1 X4.925
G3 X5.888 Y-4.926 J0.963
G1 Y1.51
G2 X7.058 Y3.265 I1.902
G3 X8.229 Y5.021 I-0.731 J1.755
G1 Y8.875
G3 X7.216 Y10.494 I-1.801
G2 X0.621 Y15.41 I9.679 J19.868
G3 X-0.628 Y15.408 I-0.624 J-0.575
G2 X-6.952 Y10.617 I-16.283 J14.925
X-7.113 Y10.543 I-1.179 J2.355
G3 X-7.275 Y10.469 I1.415 J-3.293
X-8.229 Y8.94 I0.749 J-1.529
G1 Y-7.266
G3 X-7.266 Y-8.23 I0.963
G1 X7.266
G3 X8.229 Y-7.266 J0.963
G1 Y5.021
G2 X9.345 Y6.695 I1.813
G3 X10.461 Y8.369 I-0.697 J1.674
G1 Y10.444
G3 X9.458 Y11.939 I-1.617
G2 X0.52 Y19.102 I7.73 J18.806
G3 X-0.521 Y19.1 I-0.52 J-0.361
G2 X-9.655 Y11.856 I-16.407 J11.307
G3 X-10.46 Y10.672 I0.467 J-1.184
G1 X-10.461 Y-9.498
G3 X-9.498 Y-10.462 I0.963
G1 X9.498
G3 X10.461 Y-9.498 J0.963
G1 Y8.369
G2 X11.486 Y9.907 I1.667
G3 X12.512 Y11.446 I-0.641 J1.539
G1 Y12.011
G3 X11.523 Y13.368 I-1.424
G2 X0.645 Y23.02 I5.505 J17.161
G3 X-0.646 Y23.016 I-0.644 J-0.297
G2 X-4.066 Y17.946 I-16.746 J7.607
X-8.982 Y14.306 I-12.869 J12.243
X-10.28 Y13.769 I-4.385 J8.756
X-11.617 Y13.339 I-22.841 J68.764
G3 X-12.512 Y12.123 I0.378 J-1.216
G1 X-12.513 Y-11.55
G3 X-11.55 Y-12.513 I0.963
G1 X11.55
G3 X12.513 Y-11.55 J0.963
G1 X12.512 Y11.446
G2 X13.844 Y12.95 I1.515
G3 X14.481 Y14.855 I-0.135 J1.104
X13.875 Y15.172 I-0.843 J-0.875
G2 X2.371 Y24.952 I3.03 J15.221
G3 X0.936 Y25.941 I-1.434 J-0.545
G1 X-0.933
G3 X-2.373 Y24.951 J-1.542
G2 X-4.441 Y21.073 I-16.586 J6.355
X-7.491 Y17.908 I-11.795 J8.314
X-10.201 Y16.326 I-7.767 J10.194
X-13.171 Y15.312 I-8.096 J18.858
X-13.505 Y15.241 I-0.999 J3.874
G3 X-13.841 Y15.178 I1.44 J-8.536
X-14.853 Y13.931 I0.261 J-1.246
G1 Y-13.891
G3 X-13.89 Y-14.854 I0.963
G1 X13.89
G3 X14.853 Y-13.891 J0.963
G1 Y13.981
G3 X14.481 Y14.855 I-1.215
G2 X13.448 Y16.61 I2.632 J2.731
G3 X12.096 Y18.131 I-2.189 J-0.584
G2 X8.512 Y20.265 I4.885 J12.284
X4.088 Y27.308 I8.612 J10.32
G3 X2.839 Y28.282 I-1.249 J-0.314
G1 X-2.848
G3 X-4.084 Y27.311 J-1.272
G2 X-16.288 Y17.217 I-12.861 J3.125
G3 X-17.193 Y16.267 I0.046 J-0.95
G1 X-17.194 Y-16.231
G3 X-16.231 Y-17.195 I0.963
G1 X16.231
G3 X17.194 Y-16.231 J0.963
G1 X17.193 Y16.219
G3 X16.25 Y17.216 I-0.998
G2 X12.096 Y18.131 I0.731 J13.199
X10.931 Y19.928 I0.684 J1.72
G3 X10.057 Y21.883 I-2.401 J0.1
G2 X8.779 Y23.129 I6.789 J8.245
X6.068 Y29.674 I8.455 J7.335
G3 X5.05 Y30.623 I-1.018 J-0.072
G1 X-5.054
G3 X-6.066 Y29.683 J-1.014
G2 X-9.507 Y22.51 I-10.879 J0.806
X-16.866 Y19.486 I-7.689 J8.249
X-17.719 Y19.505 I-0.247 J8.428
G3 X-18.571 Y19.535 I-0.852 J-11.83
X-19.534 Y18.572 J-0.963
G1 X-19.535 Y-18.572
G3 X-18.572 Y-19.535 I0.963
G1 X18.572
G3 X19.535 Y-18.572 J0.963
G1 X19.534 Y18.573
G3 X18.571 Y19.537 I-0.964
X16.75 Y19.497 I-0.009 J-41.132
G2 X14.933 Y19.621 I-0.359 J8.134
X10.057 Y21.883 I1.913 J10.508
X9.48 Y24.079 I1.234 J1.499
G3 X9.352 Y26.347 I-2.575 J0.992
G2 X8.33 Y30.522 I8.007 J4.173
X8.353 Y31.261 I11.839 J-0.003
G3 X8.376 Y32 I-11.816 J0.742
X7.413 Y32.963 I-0.963
G1 X-7.414
G3 X-8.378 Y32 J-0.964
G2 X-8.396 Y29.575 I-171.508 J0.048
X-8.889 Y27.2 I-6.412 J0.092
X-11.968 Y23.333 I-8.326 J3.47
X-16.654 Y21.754 I-4.933 J6.9
X-18.783 Y21.8 I-0.618 J21.112
G3 X-20.911 Y21.876 I-2.128 J-29.667
X-21.875 Y20.913 J-0.963
G1 X-21.876 Y-20.913
G3 X-20.912 Y-21.876 I0.963
G1 X20.912
G3 X21.876 Y-20.913 J0.963
G1 X21.875 Y20.914
G3 X20.911 Y21.877 I-0.964
G1 X16.476 Y21.878
G2 X12.332 Y23.09 I0.002 J7.698
X9.38 Y26.294 I4.607 J7.207
X9.352 Y26.347 I7.979 J4.226
X9.688 Y28.601 I1.718 J0.895
G3 X10.531 Y30.718 I-2.095 J2.06
G2 X10.573 Y31.68 I7.564 J0.148
G3 X10.717 Y34.341 I-24.638 J2.667
X9.754 Y35.304 I-0.963
G1 X-9.754
G3 X-10.718 Y34.341 J-0.964
X-10.707 Y30.139 I755.167 J-0.213
G2 X-12.22 Y26.22 I-5.756 J-0.03
X-14.255 Y24.699 I-5.028 J4.609
X-16.722 Y24.091 I-2.643 J5.412
G1 X-23.252 Y24.216
G3 X-24.215 Y23.253 J-0.963
G1 X-24.216 Y-23.253
G3 X-23.253 Y-24.216 I0.963
G1 X23.253
G3 X24.216 Y-23.253 J0.963
G1 X24.215 Y23.254
G3 X23.252 Y24.217 I-0.964
X19.51 Y24.042 I-0.008 J-39.937
G2 X15.767 Y24.204 I-1.283 J13.668
X12.554 Y25.876 I1.099 J6.037
X10.758 Y29.021 I4.727 J4.785
X10.531 Y30.718 I7.337 J1.844
X11.76 Y32.512 I1.871 J0.037
G3 X13.028 Y34.279 I-0.663 J1.815
X13.058 Y36.681 I-97.017 J2.424
X12.095 Y37.644 I-0.963
G1 X-12.094
G3 X-13.058 Y36.681 J-0.964
X-12.869 Y33.162 I32.73 J-0.009
G2 X-13.016 Y29.641 I-11.778 J-1.27
X-14.091 Y27.646 I-3.729 J0.721
X-16.066 Y26.533 I-3.073 J3.146
X-16.612 Y26.443 I-0.791 J3.065
X-17.165 Y26.421 I-0.553 J7.135
G1 X-25.592 Y26.557
G3 X-26.556 Y25.594 J-0.963
G1 X-26.557 Y-25.594
G3 X-25.593 Y-26.557 I0.963
G1 X25.593
G3 X26.557 Y-25.594 J0.963
G1 X26.556 Y25.594
G3 X25.592 Y26.557 I-0.964
X21.267 Y26.49 I-0.029 J-137.869
G2 X16.942 Y26.423 I-4.296 J137.802
X12.875 Y30.748 I0.001 J4.075
G3 X13.028 Y34.279 I-96.865 J5.955
G2 X14.232 Y36.032 I1.948 J-0.049
G3 X15.414 Y37.799 I-0.73 J1.768
G1 X15.415 Y40
X-15.416
X-15.413 Y39.93
G2 Y39.901 I-0.793 J-0.029
G1 X-15.415 Y30.435
G2 X-15.43 Y30.284 I-0.794
G1 X-15.462 Y30.114
G2 X-15.509 Y29.96 I-0.779 J0.151
G1 X-15.567 Y29.821
G2 X-15.631 Y29.699 I-0.733 J0.305
G1 X-15.698 Y29.593
G2 X-15.782 Y29.485 I-0.669 J0.428
G1 X-15.883 Y29.375
G2 X-15.987 Y29.28 I-0.585 J0.536
G1 X-16.093 Y29.199
G2 X-16.218 Y29.121 I-0.481 J0.631
G1 X-16.364 Y29.048
G2 X-16.521 Y28.989 I-0.355 J0.71
G1 X-16.688 Y28.946
G2 X-16.863 Y28.921 I-0.198 J0.769
G1 X-17.142 Y28.913
G2 X-17.165 I-0.023 J0.793
G1 X-26.857
X-27.56 Y28.804
X-28.068 Y28.552
X-28.178 Y28.465
X-28.479 Y28.163
X-28.56 Y28.054
X-28.807 Y27.544
X-28.911 Y26.884
X-28.912 Y-26.876
X-28.804 Y-27.557
X-28.759 Y-27.665
X-28.559 Y-28.057
X-28.462 Y-28.182
X-28.177 Y-28.467
X-28.059 Y-28.557
X-27.554 Y-28.803
X-27.505 Y-28.813
X-26.857 Y-28.913
X26.857
X27.56 Y-28.804
X28.057 Y-28.558
X28.175 Y-28.468
X28.496 Y-28.142
X28.557 Y-28.062
X28.759 Y-27.665
X28.804 Y-27.557
X28.912 Y-26.876
X28.911 Y26.884
X28.807 Y27.544
X28.56 Y28.054
X28.481 Y28.16
X28.134 Y28.503
X28.074 Y28.549
X27.554 Y28.803
X27.513 Y28.811
X26.857 Y28.913
X16.942 Y28.915
G2 X16.8 Y28.927 J0.794
G1 X16.633 Y28.958
G2 X16.472 Y29.005 I0.142 J0.781
G1 X16.319 Y29.068
G2 X16.195 Y29.133 I0.303 J0.734
G1 X16.098 Y29.195
G2 X15.99 Y29.278 I0.428 J0.669
G1 X15.876 Y29.382
G2 X15.779 Y29.488 I0.535 J0.586
G1 X15.699 Y29.592
G2 X15.62 Y29.719 I0.632 J0.481
G1 X15.546 Y29.869
G2 X15.486 Y30.029 I0.71 J0.354
G1 X15.444 Y30.199
G2 X15.421 Y30.347 I0.77 J0.194
G1 X15.414 Y30.474
G2 X15.413 Y30.52 I0.792 J0.045
G1 X15.414 Y37.799
G3 X15.399 Y37.895 Z-9.984 I-0.318
X15.361 Y37.975 Z-9.939 I-0.302 J-0.096
X15.316 Y38.028 Z-9.869 I-0.264 J-0.176
X15.281 Y38.057 Z-9.781 I-0.219 J-0.23
X15.268 Y38.066 Z-9.682 I-0.184 J-0.258
G0 Z5
X25.656 Y24.715
Z-7
G1 Z-10.682 F762
G3 X25.657 Y24.702 Z-10.77 I0.095 J-0.001
X25.668 Y24.668 Z-10.851 I0.095 J0.011
X25.708 Y24.629 Z-10.919 I0.084 J0.045
X25.769 Y24.62 Z-10.963 I0.044 J0.085
X25.829 Y24.657 Z-10.991 I-0.018 J0.094
X25.846 Y24.73 Z-11 I-0.077 J0.056
G1 X25.806 Y24.96
X25.782 Y25.013
X25.559 Y25.396
X25.196 Y25.7
X24.739 Y25.864
X24.71 Y25.867
X24.256 Y25.865
X23.809 Y25.703
X23.44 Y25.395
X23.431 Y25.383
X23.201 Y24.985
X23.114 Y24.489
X23.194 Y24.036
X23.203 Y24.013
X23.431 Y23.617
X23.811 Y23.296
X24.254 Y23.136
X24.283 Y23.133
X24.733 Y23.134
X25.19 Y23.297
X25.556 Y23.602
X25.573 Y23.625
X25.806 Y24.034
X25.886 Y24.491
X25.846 Y24.73
G3 X25.745 Y24.808 I-0.094 J-0.016
G1 X25.744
G3 X25.656 Y24.715 I0.007 J-0.095
G1 Z-12.682
G3 X25.657 Y24.702 Z-12.77 I0.095 J-0.001
X25.668 Y24.668 Z-12.851 I0.095 J0.011
X25.708 Y24.629 Z-12.919 I0.084 J0.045
X25.769 Y24.62 Z-12.963 I0.044 J0.085
X25.829 Y24.657 Z-12.991 I-0.018 J0.094
X25.846 Y24.73 Z-13 I-0.077 J0.056
G1 X25.806 Y24.96
X25.782 Y25.013
X25.559 Y25.396
X25.196 Y25.7
X24.739 Y25.864
X24.71 Y25.867
X24.256 Y25.865
X23.809 Y25.703
X23.44 Y25.395
X23.431 Y25.383
X23.201 Y24.985
X23.114 Y24.489
X23.194 Y24.036
X23.203 Y24.013
X23.431 Y23.617
X23.811 Y23.296
X24.254 Y23.136
X24.283 Y23.133
X24.733 Y23.134
X25.19 Y23.297
X25.556 Y23.602
X25.573 Y23.625
X25.806 Y24.034
X25.886 Y24.491
X25.846 Y24.73
G3 X25.745 Y24.808 I-0.094 J-0.016
G1 X25.744
G3 X25.656 Y24.715 I0.007 J-0.095
G1 Z-14.182
G3 X25.657 Y24.702 Z-14.27 I0.095 J-0.001
X25.668 Y24.668 Z-14.351 I0.095 J0.011
X25.708 Y24.629 Z-14.419 I0.084 J0.045
X25.769 Y24.62 Z-14.463 I0.044 J0.085
X25.829 Y24.657 Z-14.491 I-0.018 J0.094
X25.846 Y24.73 Z-14.5 I-0.077 J0.056
G1 X25.806 Y24.96
X25.782 Y25.013
X25.559 Y25.396
X25.196 Y25.7
X24.739 Y25.864
X24.71 Y25.867
X24.256 Y25.865
X23.809 Y25.703
X23.44 Y25.395
X23.431 Y25.383
X23.201 Y24.985
X23.114 Y24.489
X23.194 Y24.036
X23.203 Y24.013
X23.431 Y23.617
X23.811 Y23.296
X24.254 Y23.136
X24.283 Y23.133
X24.733 Y23.134
X25.19 Y23.297
X25.556 Y23.602
X25.573 Y23.625
X25.806 Y24.034
X25.886 Y24.491
X25.846 Y24.73
G3 X25.745 Y24.808 I-0.094 J-0.016
G1 X25.744
G3 X25.656 Y24.715 I0.007 J-0.095
G1 Z-16.183
G3 X25.657 Y24.702 Z-16.27 I0.095 J-0.001
X25.668 Y24.668 Z-16.351 I0.095 J0.011
X25.708 Y24.629 Z-16.419 I0.084 J0.045
X25.769 Y24.62 Z-16.463 I0.044 J0.085
X25.829 Y24.657 Z-16.491 I-0.018 J0.094
X25.846 Y24.73 Z-16.5 I-0.077 J0.056
G1 X25.806 Y24.96
X25.782 Y25.013
X25.559 Y25.396
X25.196 Y25.7
X24.739 Y25.864
X24.71 Y25.867
X24.256 Y25.865
X23.809 Y25.703
X23.44 Y25.395
X23.431 Y25.383
X23.201 Y24.985
X23.114 Y24.489
X23.194 Y24.036
X23.203 Y24.013
X23.431 Y23.617
X23.811 Y23.296
X24.254 Y23.136
X24.283 Y23.133
X24.733 Y23.134
X25.19 Y23.297
X25.556 Y23.602
X25.573 Y23.625
X25.806 Y24.034
X25.886 Y24.491
X25.846 Y24.73
G3 X25.745 Y24.808 I-0.094 J-0.016
G1 X25.744
G3 X25.656 Y24.715 I0.007 J-0.095
G1 Z-18.183
G3 X25.657 Y24.702 Z-18.27 I0.095 J-0.001
X25.668 Y24.668 Z-18.351 I0.095 J0.011
X25.708 Y24.629 Z-18.419 I0.084 J0.045
X25.769 Y24.62 Z-18.463 I0.044 J0.085
X25.829 Y24.657 Z-18.491 I-0.018 J0.094
X25.846 Y24.73 Z-18.5 I-0.077 J0.056
G1 X25.806 Y24.96
X25.782 Y25.013
X25.559 Y25.396
X25.196 Y25.7
X24.739 Y25.864
X24.71 Y25.867
X24.256 Y25.865
X23.809 Y25.703
X23.44 Y25.395
X23.431 Y25.383
X23.201 Y24.985
X23.114 Y24.489
X23.194 Y24.036
X23.203 Y24.013
X23.431 Y23.617
X23.811 Y23.296
X24.254 Y23.136
X24.283 Y23.133
X24.733 Y23.134
X25.19 Y23.297
X25.556 Y23.602
X25.573 Y23.625
X25.806 Y24.034
X25.886 Y24.491
X25.846 Y24.73
G3 X25.745 Y24.808 I-0.094 J-0.016
G1 X25.744
G3 X25.656 Y24.715 I0.007 J-0.095
G1 Z-19.183
G3 X25.657 Y24.702 Z-19.27 I0.095 J-0.001
X25.668 Y24.668 Z-19.351 I0.095 J0.011
X25.708 Y24.629 Z-19.419 I0.084 J0.045
X25.769 Y24.62 Z-19.463 I0.044 J0.085
X25.829 Y24.657 Z-19.491 I-0.018 J0.094
X25.846 Y24.73 Z-19.5 I-0.077 J0.056
G1 X25.806 Y24.96
X25.782 Y25.013
X25.559 Y25.396
X25.196 Y25.7
X24.739 Y25.864
X24.71 Y25.867
X24.256 Y25.865
X23.809 Y25.703
X23.44 Y25.395
X23.431 Y25.383
X23.201 Y24.985
X23.114 Y24.489
X23.194 Y24.036
X23.203 Y24.013
X23.431 Y23.617
X23.811 Y23.296
X24.254 Y23.136
X24.283 Y23.133
X24.733 Y23.134
X25.19 Y23.297
X25.556 Y23.602
X25.573 Y23.625
X25.806 Y24.034
X25.886 Y24.491
X25.846 Y24.73
G3 X25.815 Y24.822 Z-19.484 I-0.313 J-0.054
X25.764 Y24.894 Z-19.439 I-0.282 J-0.146
X25.71 Y24.94 Z-19.369 I-0.231 J-0.218
X25.671 Y24.962 Z-19.281 I-0.177 J-0.263
X25.657 Y24.968 Z-19.183 I-0.138 J-0.286
G0 Z5
X0.149 Y0.019
Z-7
G1 Z-10.682 F762
G3 X0.148 Y0.006 Z-10.77 I0.094 J-0.017
X0.153 Y-0.029 Z-10.851 I0.095 J-0.005
X0.186 Y-0.075 Z-10.919 I0.09 J0.031
X0.245 Y-0.094 Z-10.963 I0.057 J0.076
X0.31 Y-0.067 Z-10.991 I-0.002 J0.095
X0.339 Y0.001 Z-11 I-0.067 J0.068
X-0.339 I-0.339
X0.339 I0.339
G2 X0.961 Y1.44 I1.974
G3 X0.968 Y3.008 I-0.739 J0.787
G1 X0.659 Y3.303
G3 X-0.657 Y3.301 I-0.657 J-0.688
X-2.336 Y1.178 I6.853 J-7.142
X-2.247 Y-1.528 I2.181 J-1.283
X0.017 Y-2.709 I2.232 J1.518
X2.267 Y-1.5 I-0.033 J2.758
X2.754 Y0.02 I-2.343 J1.589
X2.305 Y1.55 I-2.615 J0.064
X1.516 Y2.485 I-4.753 J-3.217
G1 X0.968 Y3.008
G2 X0.346 Y4.902 I1.459 J1.528
G3 X-1.441 Y5.786 I-1.023 J0.18
G2 X-2.155 Y5.047 I-16.26 J14.993
G3 X-3.786 Y3.31 I22.475 J-22.745
X-3.321 Y-3.785 I3.802 J-3.313
X3.775 Y-3.322 I3.317 J3.76
X4.986 Y-0.82 I-3.971 J3.466
X4.683 Y1.944 I-4.733 J0.88
X3.685 Y3.451 I-4.567 J-1.941
X2.395 Y4.716 I-24.078 J-23.259
G2 X1.435 Y5.733 I7.313 J7.871
X0.546 Y6.812 I184.204 J152.618
G3 X-0.553 Y6.81 I-0.549 J-0.45
G2 X-1.441 Y5.786 I-17.148 J13.969
X-3.336 Y5.366 I-1.25 J1.152
G3 X-5.224 Y4.916 I-0.631 J-1.538
X-7.123 Y0.037 I5.892 J-5.102
X-4.807 Y-5.359 I6.979 J-0.2
X7.04 Y-1.545 I4.811 J5.362
X4.896 Y5.205 I-6.929 J1.515
G2 X0.457 Y10.724 I15.679 J17.154
G3 X-0.457 I-0.457 J-0.265
G2 X-2.422 Y7.919 I-17.128 J9.906
X-4.756 Y5.412 I-25.345 J21.247
G3 X-5.224 Y4.916 I5.423 J-5.598
G2 X-6.85 Y4.468 I-1.149 J0.995
G3 X-8.397 Y3.795 I-0.397 J-1.201
X-8.495 Y3.573 I7.513 J-3.452
X-3.571 Y-8.491 I8.453 J-3.587
X8.495 Y-3.573 I3.555 J8.539
X5.973 Y7.044 I-8.459 J3.598
G2 X0.283 Y16.355 I11.2 J13.239
G3 X-0.283 I-0.283 J-0.066
G2 X-1.554 Y12.651 I-18.749 J4.36
X-3.626 Y9.327 I-14.224 J6.563
X-6.263 Y6.622 I-16.357 J13.307
G3 X-8.397 Y3.795 I5.379 J-6.278
G2 X-9.44 Y3.132 I-1.035 J0.476
G3 X-10.413 Y2.369 I-0.007 J-0.993
X-10.693 Y-0.019 I9.998 J-2.384
X5.028 Y-9.43 I10.68 J0.004
X8.855 Y5.983 I-5.006 J9.424
G1 X4.376 Y10.86
G2 X2.65 Y13.77 I12.035 J9.105
X1.582 Y16.98 I15.192 J6.84
X1.25 Y20.972 I14.353 J3.204
G3 X1.357 Y24.977 I-74.414 J3.996
X0.394 Y25.941 I-0.963
G1 X-0.405
G3 X-1.356 Y24.99 J-0.951
X-1.264 Y20.889 I90.281 J-0.02
G2 X-1.621 Y16.803 I-15.518 J-0.702
X-3.749 Y11.951 I-13.428 J2.998
X-7.179 Y7.913 I-22.442 J15.588
G3 X-9.742 Y4.304 I8.426 J-8.698
X-10.413 Y2.369 I9.327 J-4.319
G2 X-11.831 Y0.927 I-1.904 J0.454
G3 X-13.036 Y-0.697 I0.399 J-1.555
X-12.491 Y-4.201 I15.983 J0.689
X-11.732 Y-5.985 I6.967 J1.91
X-4.669 Y-12.071 I12.626 J7.513
X4.655 Y-12.173 I4.79 J11.711
X8.714 Y-9.679 I-4.655 J12.131
X11.731 Y-5.991 I-10.682 J11.813
X12.481 Y-4.226 I-6.213 J3.685
X12.484 Y4.218 I-15.329 J4.227
X11.735 Y5.98 I-6.964 J-1.919
X10.388 Y7.89 I-12.613 J-7.47
X8.799 Y9.604 I-16.953 J-14.114
G2 X5.789 Y13.101 I17.98 J18.523
X3.906 Y17.312 I9.403 J6.731
X3.527 Y22.31 I17.052 J3.806
G3 X3.697 Y27.318 I-73.204 J5
X2.734 Y28.281 I-0.963
G1 X-2.745
G3 X-3.697 Y27.33 J-0.951
X-3.558 Y20.886 I148.379 J-0.033
G2 X-4.858 Y14.572 I-13.203 J-0.571
X-7.072 Y11.453 I-10.323 J4.98
G3 X-9.73 Y8.703 I82.536 J-82.43
X-10.802 Y7.403 I9.923 J-9.28
X-11.728 Y5.994 I14.771 J-10.72
X-12.483 Y4.216 I6.213 J-3.686
X-13.036 Y-0.697 I15.431 J-4.224
G2 X-14.04 Y-2.414 I-1.835 J-0.079
G3 X-14.89 Y-4.212 I0.735 J-1.448
X-14.665 Y-5.126 I19.033 J4.204
X-13.906 Y-6.91 I6.967 J1.91
X-8.856 Y-12.484 I16.32 J9.711
X-1.866 Y-15.264 I8.789 J11.921
X7.261 Y-13.437 I1.801 J14.714
X13.904 Y-6.916 I-8.974 J15.784
X14.655 Y-5.15 I-6.213 J3.685
X14.657 Y5.142 I-18.682 J5.151
X13.909 Y6.904 I-6.964 J-1.919
X12.315 Y9.209 I-17.225 J-10.201
X10.43 Y11.284 I-17.456 J-13.967
G2 X7.832 Y14.243 I17.193 J17.713
X6.19 Y17.822 I7.555 J5.632
X5.98 Y19.025 I12.763 J2.849
X5.903 Y20.244 I9.615 J1.22
G1 X6.038 Y29.659
G3 X5.074 Y30.622 I-0.963
G1 X-5.086
G3 X-6.037 Y29.671 J-0.951
G1 X-5.903 Y20.243
G2 X-6.575 Y16.529 I-10.613 J0.002
X-8.452 Y13.254 I-10.922 J4.083
X-10.6 Y11.036 I-13.86 J11.276
G3 X-12.7 Y8.772 I9.371 J-10.797
X-13.326 Y7.86 I11.59 J-8.622
X-13.903 Y6.917 I33.86 J-21.372
X-14.657 Y5.139 I6.213 J-3.686
X-14.89 Y-4.212 I18.8 J-5.146
G2 X-15.596 Y-6.05 I-1.743 J-0.385
G3 X-15.994 Y-7.978 I0.841 J-1.179
X-10.248 Y-14.33 I19.282 J11.669
X-2.151 Y-17.592 I10.15 J13.512
X13.338 Y-11.669 I2.153 J17.585
X14.795 Y-9.817 I-17.385 J15.174
X16.077 Y-7.84 I-24.03 J16.99
X16.828 Y-6.075 I-6.213 J3.685
X16.831 Y6.065 I-22.035 J6.076
X16.082 Y7.827 I-6.964 J-1.919
X14.242 Y10.529 I-22.301 J-13.208
X12.061 Y12.964 I-18.531 J-14.409
G2 X9.875 Y15.386 I17.171 J17.69
X8.475 Y18.332 I5.763 J4.545
X8.307 Y19.282 I10.571 J2.36
X8.244 Y20.245 I7.337 J0.963
G1 X8.378 Y31.999
G3 X7.415 Y32.963 I-0.963
G1 X-7.426
G3 X-8.377 Y32.012 J-0.951
G1 X-8.244 Y20.244
G2 X-8.781 Y17.313 I-8.279 J0.002
X-10.268 Y14.731 I-8.722 J3.304
X-12.441 Y12.468 I-14.816 J12.053
G3 X-14.564 Y10.159 I10.011 J-11.337
X-15.351 Y9.019 I15.634 J-11.63
X-16.077 Y7.84 I35.274 J-22.535
X-16.832 Y6.061 I6.213 J-3.686
X-16.839 Y-6.05 I22.17 J-6.069
X-16.08 Y-7.835 I6.967 J1.91
X-15.994 Y-7.978 I19.368 J11.525
G2 X-16.116 Y-10.033 I-1.551 J-0.939
G3 X-16.136 Y-12.091 I1.334 J-1.042
X15.984 Y-12.292 I16.136 J12.108
X17.36 Y10.262 I-15.951 J12.293
X15.672 Y12.575 I-12.853 J-7.612
X13.692 Y14.644 I-29.093 J-25.863
G2 X11.57 Y17.129 I12.152 J12.519
X10.585 Y20.245 I4.433 J3.116
G1 X10.719 Y34.34
G3 X9.755 Y35.303 I-0.963
G1 X-9.766
G3 X-10.717 Y34.352 J-0.951
G1 X-10.585 Y20.244
G2 X-10.986 Y18.097 I-5.948 J0.001
X-12.084 Y16.208 I-6.527 J2.528
X-14.054 Y14.256 I-10.049 J8.175
G3 X-15.998 Y12.277 I7.158 J-8.973
X-17.337 Y-10.3 I15.973 J-12.275
X-16.136 Y-12.091 I17.337 J10.316
G2 X-16.033 Y-13.994 I-1.37 J-1.028
G3 X-15.803 Y-15.885 I1.342 J-0.796
X-14.967 Y-16.683 I13.262 J13.051
X14.967 I14.967 J16.682
X17.856 Y-13.398 I-12.387 J13.806
G2 X20.362 Y-9.813 I263.265 J-181.325
G3 X21.255 Y-7.679 I-4.32 J3.063
G2 X22.005 Y-3.851 I113.585 J-20.257
G3 X22.413 Y0.029 I-18.116 J3.867
X22.004 Y3.881 I-18.449 J-0.013
G2 X21.255 Y7.681 I115.833 J24.815
G3 X20.378 Y9.793 I-5.265 J-0.949
G2 X18.558 Y12.505 I74.63 J52.046
G3 X16.548 Y15.081 I-15.363 J-9.914
X14.478 Y17.068 I-19.493 J-18.232
G2 X13.004 Y19.53 I2.978 J3.456
X12.925 Y20.245 I3.206 J0.716
G1 X13.059 Y36.681
G3 X12.096 Y37.644 I-0.963
G1 X-12.106
G3 X-13.057 Y36.693 J-0.951
G1 X-12.925 Y20.245
G2 X-13.727 Y18.04 I-3.436 J0.001
X-15.325 Y16.322 I-17.26 J14.449
G3 X-17.993 Y13.182 I14.846 J-15.325
G2 X-20.363 Y9.811 I-348.82 J242.688
G3 X-21.254 Y7.687 I4.294 J-3.05
G2 X-22.004 Y3.858 I-112.786 J20.121
G3 X-22.414 Y-0.023 I18.12 J-3.874
X-22.008 Y-3.894 I18.745 J0.007
G2 X-21.249 Y-7.711 I-158.921 J-33.602
G3 X-20.359 Y-9.817 I5.259 J0.981
G2 X-17.856 Y-13.402 I-319.37 J-225.691
G3 X-15.803 Y-15.885 I15.314 J10.568
G2 X-15.352 Y-17.967 I-1.421 J-1.398
G3 X-14.773 Y-20.017 I1.709 J-0.624
G1 X-14.258 Y-20.425
X-11.657 Y-22.013
X-8.911 Y-23.261
X-5.983 Y-24.178
X-3.024 Y-24.725
X0 Y-24.91
X3.024 Y-24.725
X6.034 Y-24.166
X8.91 Y-23.261
X11.699 Y-21.989
X14.258 Y-20.425
X16.634 Y-18.541
X18.752 Y-16.394
X20.632 Y-13.955
X22.248 Y-11.23
G2 X22.336 Y-11.11 I0.683 J-0.405
G1 X22.454 Y-10.975
G2 X22.573 Y-10.865 I0.595 J-0.525
G1 X22.688 Y-10.779
G2 X22.807 Y-10.705 I0.477 J-0.635
G1 X22.928 Y-10.644
G2 X23.05 Y-10.595 I0.358 J-0.708
G1 X23.171 Y-10.557
G2 X23.315 Y-10.526 I0.236 J-0.758
G1 X23.482 Y-10.507
G2 X23.651 Y-10.505 I0.092 J-0.788
G1 X23.818 Y-10.521
G2 X23.957 Y-10.548 I-0.076 J-0.79
G1 X24.069 Y-10.579
G2 X24.12 Y-10.595 I-0.216 J-0.764
G1 X24.309 Y-10.663
X24.538 Y-10.687
X24.689 Y-10.638
X24.805 Y-10.534
X24.869 Y-10.391
Y-10.24
X24.798 Y-10.085
X24.633 Y-9.936
X24.337 Y-9.787
G2 X24.208 Y-9.705 I0.357 J0.709
G1 X24.107 Y-9.627
G2 X23.998 Y-9.524 I0.487 J0.627
G1 X23.884 Y-9.395
G2 X23.789 Y-9.261 I0.596 J0.524
G1 X23.712 Y-9.126
G2 X23.646 Y-8.974 I0.691 J0.391
G1 X23.593 Y-8.806
G2 X23.56 Y-8.638 I0.757 J0.239
G1 X23.545 Y-8.47
G2 X23.548 Y-8.302 I0.791 J0.07
G1 X23.568 Y-8.134
G2 X23.591 Y-8.021 I0.788 J-0.098
G1 X24.334 Y-5.327
X24.766 Y-2.675
X24.909 Y0.031
X24.765 Y2.682
X24.332 Y5.334
X23.589 Y8.029
G2 X23.566 Y8.15 I0.765 J0.211
G1 X23.547 Y8.317
G2 X23.545 Y8.486 I0.789 J0.09
G1 X23.562 Y8.653
G2 X23.597 Y8.822 I0.79 J-0.078
G1 X23.652 Y8.989
G2 X23.723 Y9.146 I0.754 J-0.247
G1 X23.809 Y9.292
G2 X23.898 Y9.414 I0.683 J-0.404
G1 X23.987 Y9.515
G2 X24.088 Y9.61 I0.594 J-0.526
G1 X24.201 Y9.699
G2 X24.339 Y9.788 I0.493 J-0.622
G1 X24.628 Y9.932
X24.805 Y10.091
X24.865 Y10.226
Y10.399
X24.805 Y10.534
X24.689 Y10.639
X24.545 Y10.685
X24.304 Y10.662
X24.059 Y10.576
G2 X23.924 Y10.541 I-0.263 J0.749
G1 X23.749 Y10.513
G2 X23.582 Y10.504 I-0.128 J0.783
G1 X23.424 Y10.511
G2 X23.26 Y10.537 I0.04 J0.793
G1 X23.092 Y10.582
G2 X22.953 Y10.633 I0.204 J0.767
G1 X22.841 Y10.686
G2 X22.729 Y10.752 I0.343 J0.716
G1 X22.617 Y10.83
G2 X22.505 Y10.926 I0.455 J0.65
G1 X22.393 Y11.04
G2 X22.294 Y11.164 I0.568 J0.555
G1 X22.189 Y11.327
G2 X22.173 Y11.353 I0.667 J0.431
G1 X20.735 Y13.78
X20.281 Y14.411
X19.217 Y15.795
X18.923 Y16.158
X18.369 Y16.783
X17.058 Y18.112
X15.869 Y19.217
G2 X15.776 Y19.32 I0.54 J0.581
G1 X15.696 Y19.425
G2 X15.615 Y19.559 I0.633 J0.479
G1 X15.535 Y19.723
G2 X15.476 Y19.895 I0.715 J0.345
G1 X15.436 Y20.073
G2 X15.417 Y20.245 I0.775 J0.173
G1 X15.415 Y40
X-15.416
X-15.413 Y39.93
G2 Y39.901 I-0.793 J-0.029
G1 X-15.417 Y20.245
G2 X-15.436 Y20.073 I-0.794
G1 X-15.476 Y19.895
G2 X-15.535 Y19.723 I-0.775 J0.173
G1 X-15.615 Y19.559
G2 X-15.714 Y19.403 I-0.715 J0.345
G1 X-15.832 Y19.258
G2 X-15.909 Y19.176 I-0.616 J0.501
G1 X-17.059 Y18.112
X-18.369 Y16.783
X-18.922 Y16.159
X-19.264 Y15.734
X-20.281 Y14.411
X-20.736 Y13.78
X-22.248 Y11.23
G2 X-22.318 Y11.131 I-0.683 J0.405
G1 X-22.398 Y11.033
G2 X-22.497 Y10.933 I-0.613 J0.504
G1 X-22.614 Y10.833
G2 X-22.729 Y10.751 I-0.514 J0.604
G1 X-22.841 Y10.687
G2 X-22.98 Y10.623 I-0.399 J0.686
G1 X-23.147 Y10.565
G2 X-23.319 Y10.526 I-0.26 J0.75
G1 X-23.494 Y10.506
G2 X-23.661 I-0.088 J0.789
G1 X-23.819 Y10.521
G2 X-23.964 Y10.55 I0.079 J0.79
G1 X-24.428 Y10.686
X-24.626 Y10.666
X-24.748 Y10.595
X-24.846 Y10.459
X-24.877 Y10.312
X-24.844 Y10.159
X-24.751 Y10.03
X-24.294 Y9.763
G2 X-24.201 Y9.699 I-0.4 J-0.686
G1 X-24.088 Y9.61
G2 X-23.974 Y9.499 I-0.493 J-0.622
G1 X-23.861 Y9.365
G2 X-23.775 Y9.24 I-0.608 J-0.511
G1 X-23.713 Y9.129
G2 X-23.652 Y8.989 I-0.694 J-0.386
G1 X-23.597 Y8.822
G2 X-23.562 Y8.653 I-0.754 J-0.247
G1 X-23.545 Y8.486
G2 X-23.547 Y8.317 I-0.79 J-0.078
G1 X-23.566 Y8.15
G2 X-23.589 Y8.031 I-0.789 J0.09
G1 X-24.342 Y5.279
X-24.765 Y2.683
X-24.909 Y-0.024
X-24.766 Y-2.675
X-24.334 Y-5.327
X-23.58 Y-8.078
G2 X-23.552 Y-8.246 I-0.766 J-0.21
G1 X-23.544 Y-8.414
G2 X-23.553 Y-8.582 I-0.793 J-0.042
G1 X-23.58 Y-8.75
G2 X-23.626 Y-8.919 I-0.784 J0.127
G1 X-23.694 Y-9.086
G2 X-23.769 Y-9.229 I-0.737 J0.295
G1 X-23.848 Y-9.348
G2 X-23.93 Y-9.453 I-0.662 J0.438
G1 X-24.015 Y-9.543
G2 X-24.13 Y-9.644 I-0.579 J0.543
G1 X-24.281 Y-9.753
G2 X-24.346 Y-9.795 I-0.463 J0.644
G1 X-24.751 Y-10.03
X-24.844 Y-10.158
X-24.877 Y-10.313
X-24.861 Y-10.389
X-24.843 Y-10.467
X-24.754 Y-10.59
X-24.609 Y-10.672
X-24.445 Y-10.689
X-23.962 Y-10.549
G2 X-23.818 Y-10.521 I0.221 J-0.762
G1 X-23.651 Y-10.505
G2 X-23.482 Y-10.507 I0.076 J-0.79
G1 X-23.315 Y-10.526
G2 X-23.15 Y-10.564 I-0.092 J-0.788
G1 X-22.988 Y-10.619
G2 X-22.847 Y-10.684 I-0.257 J-0.751
G1 X-22.726 Y-10.754
G2 X-22.61 Y-10.836 I-0.399 J-0.686
G1 X-22.502 Y-10.928
G2 X-22.405 Y-11.026 I-0.514 J-0.605
G1 X-22.32 Y-11.128
G2 X-22.249 Y-11.229 I-0.611 J-0.507
G1 X-20.597 Y-14.004
X-18.752 Y-16.394
X-16.634 Y-18.541
X-14.773 Y-20.017
G3 X-14.688 Y-20.065 Z-10.984 I0.197 J0.249
X-14.602 Y-20.084 Z-10.939 I0.112 J0.297
X-14.532 Y-20.082 Z-10.869 I0.026 J0.316
X-14.488 Y-20.073 Z-10.781 I-0.044 J0.314
X-14.473 Y-20.068 Z-10.682 I-0.088 J0.305
G0 Z5
X-23.729 Y-25.388
Z-7
G1 Z-10.682 F762
G3 X-23.739 Y-25.394 Z-10.77 I0.047 J-0.083
X-23.764 Y-25.421 Z-10.851 I0.058 J-0.076
X-23.777 Y-25.476 Z-10.919 I0.082 J-0.049
X-23.754 Y-25.533 Z-10.963 I0.095 J0.005
X-23.691 Y-25.566 Z-10.991 I0.072 J0.063
X-23.62 Y-25.544 Z-11 I0.01 J0.095
G1 X-23.433 Y-25.386
X-23.198 Y-24.977
X-23.112 Y-24.5
X-23.194 Y-24.039
X-23.219 Y-23.986
X-23.439 Y-23.61
X-23.454 Y-23.594
X-23.809 Y-23.297
X-24.254 Y-23.136
X-24.283 Y-23.133
X-24.733 Y-23.134
X-25.196 Y-23.299
X-25.555 Y-23.601
X-25.806 Y-24.035
X-25.887 Y-24.497
X-25.883 Y-24.526
X-25.806 Y-24.966
X-25.566 Y-25.387
X-25.193 Y-25.702
X-24.748 Y-25.864
X-24.741 Y-25.866
X-24.255
X-23.811 Y-25.704
X-23.62 Y-25.544
G3 X-23.604 Y-25.417 I-0.061 J0.073
G1 Y-25.416
G3 X-23.729 Y-25.388 I-0.078 J-0.054
G1 Z-12.682
G3 X-23.739 Y-25.394 Z-12.77 I0.047 J-0.083
X-23.764 Y-25.421 Z-12.851 I0.058 J-0.076
X-23.777 Y-25.476 Z-12.919 I0.082 J-0.049
X-23.754 Y-25.533 Z-12.963 I0.095 J0.005
X-23.691 Y-25.566 Z-12.991 I0.072 J0.063
X-23.62 Y-25.544 Z-13 I0.01 J0.095
G1 X-23.433 Y-25.386
X-23.198 Y-24.977
X-23.112 Y-24.5
X-23.194 Y-24.039
X-23.219 Y-23.986
X-23.439 Y-23.61
X-23.454 Y-23.594
X-23.809 Y-23.297
X-24.254 Y-23.136
X-24.283 Y-23.133
X-24.733 Y-23.134
X-25.196 Y-23.299
X-25.555 Y-23.601
X-25.806 Y-24.035
X-25.887 Y-24.497
X-25.883 Y-24.526
X-25.806 Y-24.966
X-25.566 Y-25.387
X-25.193 Y-25.702
X-24.748 Y-25.864
X-24.741 Y-25.866
X-24.255
X-23.811 Y-25.704
X-23.62 Y-25.544
G3 X-23.604 Y-25.417 I-0.061 J0.073
G1 Y-25.416
G3 X-23.729 Y-25.388 I-0.078 J-0.054
G1 Z-14.182
G3 X-23.739 Y-25.394 Z-14.27 I0.047 J-0.083
X-23.764 Y-25.421 Z-14.351 I0.058 J-0.076
X-23.777 Y-25.476 Z-14.419 I0.082 J-0.049
X-23.754 Y-25.533 Z-14.463 I0.095 J0.005
X-23.691 Y-25.566 Z-14.491 I0.072 J0.063
X-23.62 Y-25.544 Z-14.5 I0.01 J0.095
G1 X-23.433 Y-25.386
X-23.198 Y-24.977
X-23.112 Y-24.5
X-23.194 Y-24.039
X-23.219 Y-23.986
X-23.439 Y-23.61
X-23.454 Y-23.594
X-23.809 Y-23.297
X-24.254 Y-23.136
X-24.283 Y-23.133
X-24.733 Y-23.134
X-25.196 Y-23.299
X-25.555 Y-23.601
X-25.806 Y-24.035
X-25.887 Y-24.497
X-25.883 Y-24.526
X-25.806 Y-24.966
X-25.566 Y-25.387
X-25.193 Y-25.702
X-24.748 Y-25.864
X-24.741 Y-25.866
X-24.255
X-23.811 Y-25.704
X-23.62 Y-25.544
G3 X-23.604 Y-25.417 I-0.061 J0.073
G1 Y-25.416
G3 X-23.729 Y-25.388 I-0.078 J-0.054
G1 Z-16.183
G3 X-23.739 Y-25.394 Z-16.27 I0.047 J-0.083
X-23.764 Y-25.421 Z-16.351 I0.058 J-0.076
X-23.777 Y-25.476 Z-16.419 I0.082 J-0.049
X-23.754 Y-25.533 Z-16.463 I0.095 J0.005
X-23.691 Y-25.566 Z-16.491 I0.072 J0.063
X-23.62 Y-25.544 Z-16.5 I0.01 J0.095
G1 X-23.433 Y-25.386
X-23.198 Y-24.977
X-23.112 Y-24.5
X-23.194 Y-24.039
X-23.219 Y-23.986
X-23.439 Y-23.61
X-23.454 Y-23.594
X-23.809 Y-23.297
X-24.254 Y-23.136
X-24.283 Y-23.133
X-24.733 Y-23.134
X-25.196 Y-23.299
X-25.555 Y-23.601
X-25.806 Y-24.035
X-25.887 Y-24.497
X-25.883 Y-24.526
X-25.806 Y-24.966
X-25.566 Y-25.387
X-25.193 Y-25.702
X-24.748 Y-25.864
X-24.741 Y-25.866
X-24.255
X-23.811 Y-25.704
X-23.62 Y-25.544
G3 X-23.604 Y-25.417 I-0.061 J0.073
G1 Y-25.416
G3 X-23.729 Y-25.388 I-0.078 J-0.054
G1 Z-18.183
G3 X-23.739 Y-25.394 Z-18.27 I0.047 J-0.083
X-23.764 Y-25.421 Z-18.351 I0.058 J-0.076
X-23.777 Y-25.476 Z-18.419 I0.082 J-0.049
X-23.754 Y-25.533 Z-18.463 I0.095 J0.005
X-23.691 Y-25.566 Z-18.491 I0.072 J0.063
X-23.62 Y-25.544 Z-18.5 I0.01 J0.095
G1 X-23.433 Y-25.386
X-23.198 Y-24.977
X-23.112 Y-24.5
X-23.194 Y-24.039
X-23.219 Y-23.986
X-23.439 Y-23.61
X-23.454 Y-23.594
X-23.809 Y-23.297
X-24.254 Y-23.136
X-24.283 Y-23.133
X-24.733 Y-23.134
X-25.196 Y-23.299
X-25.555 Y-23.601
X-25.806 Y-24.035
X-25.887 Y-24.497
X-25.883 Y-24.526
X-25.806 Y-24.966
X-25.566 Y-25.387
X-25.193 Y-25.702
X-24.748 Y-25.864
X-24.741 Y-25.866
X-24.255
X-23.811 Y-25.704
X-23.62 Y-25.544
G3 X-23.604 Y-25.417 I-0.061 J0.073
G1 Y-25.416
G3 X-23.729 Y-25.388 I-0.078 J-0.054
G1 Z-19.183
G3 X-23.739 Y-25.394 Z-19.27 I0.047 J-0.083
X-23.764 Y-25.421 Z-19.351 I0.058 J-0.076
X-23.777 Y-25.476 Z-19.419 I0.082 J-0.049
X-23.754 Y-25.533 Z-19.463 I0.095 J0.005
X-23.691 Y-25.566 Z-19.491 I0.072 J0.063
X-23.62 Y-25.544 Z-19.5 I0.01 J0.095
G1 X-23.433 Y-25.386
X-23.198 Y-24.977
X-23.112 Y-24.5
X-23.194 Y-24.039
X-23.219 Y-23.986
X-23.439 Y-23.61
X-23.454 Y-23.594
X-23.809 Y-23.297
X-24.254 Y-23.136
X-24.283 Y-23.133
X-24.733 Y-23.134
X-25.196 Y-23.299
X-25.555 Y-23.601
X-25.806 Y-24.035
X-25.887 Y-24.497
X-25.883 Y-24.526
X-25.806 Y-24.966
X-25.566 Y-25.387
X-25.193 Y-25.702
X-24.748 Y-25.864
X-24.741 Y-25.866
X-24.255
X-23.811 Y-25.704
X-23.62 Y-25.544
G3 X-23.556 Y-25.47 Z-19.484 I-0.204 J0.243
X-23.52 Y-25.39 Z-19.439 I-0.269 J0.169
X-23.508 Y-25.32 Z-19.369 I-0.305 J0.089
Y-25.275 Z-19.281 I-0.317 J0.02
X-23.51 Y-25.26 Z-19.183 I-0.316 J-0.025
G0 Z5
X1.064 Y0.095
Z-8
G1 Z-12.905 F762
G19 G2 Y-0.001 Z-13 J-0.096
G17 G3 X1.951 I0.444
X-1.952 I-1.952
X4.968 I3.46
X-4.969 I-4.968
X7.984 I6.476
X-7.985 I-7.984
X11 I9.493
X-11.001 I-11.001
X14.016 I12.509
X-14.017 I-14.017
X14.016 I14.017
G2 X15.269 Y1.954 I2.152
G3 X16.332 Y4.018 I-0.787 J1.711
X15.943 Y5.688 I-21.057 J-4.017
X15.194 Y7.45 I-6.964 J-1.919
X9.664 Y13.584 I-17.978 J-10.647
X1.993 Y16.644 I-9.616 J-12.963
X-7.963 Y14.608 I-1.932 J-15.916
X-15.189 Y7.463 I10.058 J-17.398
X-15.944 Y5.685 I6.213 J-3.686
X-15.951 Y-5.673 I20.794 J-5.692
X-15.192 Y-7.457 I6.967 J1.91
X-9.679 Y-13.576 I18.121 J10.783
X-2.035 Y-16.641 I9.594 J12.861
X12.616 Y-11.039 I2.036 J16.634
X13.984 Y-9.309 I-17.167 J14.984
X15.189 Y-7.462 I-21.005 J15.02
X15.94 Y-5.697 I-6.213 J3.685
X16.332 Y4.018 I-20.666 J5.698
G2 X17.247 Y6.122 I1.999 J0.381
G3 X17.818 Y8.344 I-0.889 J1.413
X17.669 Y8.599 I-6.318 J-3.503
X12.162 Y15.075 I-23.121 J-14.083
X4.585 Y18.93 I-11.741 J-13.704
X-5.986 Y18.534 I-4.571 J-19.276
X-14.786 Y12.663 I5.784 J-18.198
X-16.333 Y10.659 I21.934 J-18.541
X-17.71 Y8.534 I26.669 J-18.782
X-18.483 Y6.69 I6.211 J-3.689
X-18.481 Y-6.711 I25.36 J-6.696
X-17.713 Y-8.529 I6.976 J1.876
X-12.235 Y-15.027 I22.423 J13.345
X-4.677 Y-18.914 I12.011 J14.065
X13.012 Y-14.504 I4.685 J18.887
X15.588 Y-11.698 I-13.159 J14.667
X17.71 Y-8.535 I-27.641 J20.836
X18.484 Y-6.686 I-6.212 J3.688
Y6.688 I-25.391 J6.687
X17.818 Y8.344 I-6.984 J-1.847
G2 X17.917 Y10.681 I1.961 J1.087
G3 X17.849 Y13.02 I-1.67 J1.121
X16.72 Y14.456 I-44.792 J-34.046
X12.425 Y18.381 I-15.322 J-12.451
X-3.206 Y22.029 I-12.612 J-18.729
X-17.142 Y14.065 I2.858 J-21.177
X-18.749 Y11.851 I27.643 J-21.749
G1 X-20.138 Y9.77
G3 X-21.067 Y7.556 I5.239 J-3.499
X-22.05 Y1.433 I65.977 J-13.737
X-21.736 Y-4.761 I18.884 J-2.147
X-21.4 Y-6.17 I35.379 J7.709
G2 X-21.063 Y-7.578 I-32.665 J-8.55
G3 X-20.134 Y-9.776 I6.283 J1.36
X-17.695 Y-13.32 I109.472 J72.743
X-14.828 Y-16.528 I15.936 J11.358
X14.828 I14.828 J16.527
X17.695 Y-13.319 I-13.05 J14.545
X20.136 Y-9.775 I-110.599 J78.767
X21.069 Y-7.545 I-5.313 J3.536
X22.054 Y-1.425 I-65.043 J13.602
X21.736 Y4.766 I-18.849 J2.136
X21.403 Y6.156 I-34.855 J-7.627
G2 X21.069 Y7.545 I25.487 J6.849
G3 X20.151 Y9.757 I-6.359 J-1.345
X17.849 Y13.02 I-47.094 J-30.783
G2 X17.666 Y15.437 I1.775 J1.349
G3 X17.329 Y17.837 I-1.784 J0.973
G1 X17.059 Y18.112
X16.204 Y18.903
X15.299 Y19.614
X13.935 Y20.623
X12.744 Y21.35
X11.45 Y22.102
X9.711 Y22.894
X8.697 Y23.328
X6.681 Y23.958
X5.836 Y24.206
X3.21 Y24.685
X2.922 Y24.731
X0 Y24.91
X-2.97 Y24.727
X-5.429 Y24.281
X-5.885 Y24.195
X-7.566 Y23.684
X-8.749 Y23.308
X-10.154 Y22.696
X-11.449 Y22.103
X-12.745 Y21.35
X-13.989 Y20.586
X-15.345 Y19.58
X-16.203 Y18.903
X-17.059 Y18.112
X-18.369 Y16.783
X-18.922 Y16.159
X-19.264 Y15.734
X-20.281 Y14.411
X-20.736 Y13.78
X-22.248 Y11.23
G2 X-22.318 Y11.131 I-0.683 J0.405
G1 X-22.398 Y11.033
G2 X-22.497 Y10.933 I-0.613 J0.504
G1 X-22.614 Y10.833
G2 X-22.729 Y10.751 I-0.514 J0.604
G1 X-22.841 Y10.687
G2 X-22.98 Y10.623 I-0.399 J0.686
G1 X-23.147 Y10.565
G2 X-23.319 Y10.526 I-0.26 J0.75
G1 X-23.494 Y10.506
G2 X-23.661 I-0.088 J0.789
G1 X-23.819 Y10.521
G2 X-23.964 Y10.55 I0.079 J0.79
G1 X-24.428 Y10.686
X-24.626 Y10.666
X-24.748 Y10.595
X-24.846 Y10.459
X-24.877 Y10.312
X-24.844 Y10.159
X-24.751 Y10.03
X-24.294 Y9.763
G2 X-24.201 Y9.699 I-0.4 J-0.686
G1 X-24.088 Y9.61
G2 X-23.974 Y9.499 I-0.493 J-0.622
G1 X-23.861 Y9.365
G2 X-23.775 Y9.24 I-0.608 J-0.511
G1 X-23.713 Y9.129
G2 X-23.652 Y8.989 I-0.694 J-0.386
G1 X-23.597 Y8.822
G2 X-23.562 Y8.653 I-0.754 J-0.247
G1 X-23.545 Y8.486
G2 X-23.547 Y8.317 I-0.79 J-0.078
G1 X-23.566 Y8.15
G2 X-23.589 Y8.031 I-0.789 J0.09
G1 X-24.342 Y5.279
X-24.765 Y2.683
X-24.909 Y-0.024
X-24.766 Y-2.675
X-24.334 Y-5.327
X-23.58 Y-8.078
G2 X-23.552 Y-8.246 I-0.766 J-0.21
G1 X-23.544 Y-8.414
G2 X-23.553 Y-8.582 I-0.793 J-0.042
G1 X-23.58 Y-8.75
G2 X-23.626 Y-8.919 I-0.784 J0.127
G1 X-23.694 Y-9.086
G2 X-23.769 Y-9.229 I-0.737 J0.295
G1 X-23.848 Y-9.348
G2 X-23.93 Y-9.453 I-0.662 J0.438
G1 X-24.015 Y-9.543
G2 X-24.13 Y-9.644 I-0.579 J0.543
G1 X-24.281 Y-9.753
G2 X-24.346 Y-9.795 I-0.463 J0.644
G1 X-24.751 Y-10.03
X-24.844 Y-10.158
X-24.877 Y-10.313
X-24.861 Y-10.389
X-24.843 Y-10.467
X-24.754 Y-10.59
X-24.609 Y-10.672
X-24.445 Y-10.689
X-23.962 Y-10.549
G2 X-23.818 Y-10.521 I0.221 J-0.762
G1 X-23.651 Y-10.505
G2 X-23.482 Y-10.507 I0.076 J-0.79
G1 X-23.315 Y-10.526
G2 X-23.15 Y-10.564 I-0.092 J-0.788
G1 X-22.988 Y-10.619
G2 X-22.847 Y-10.684 I-0.257 J-0.751
G1 X-22.726 Y-10.754
G2 X-22.61 Y-10.836 I-0.399 J-0.686
G1 X-22.502 Y-10.928
G2 X-22.405 Y-11.026 I-0.514 J-0.605
G1 X-22.32 Y-11.128
G2 X-22.249 Y-11.229 I-0.611 J-0.507
G1 X-20.597 Y-14.004
X-18.752 Y-16.394
X-16.634 Y-18.541
X-14.258 Y-20.425
X-11.657 Y-22.013
X-8.911 Y-23.261
X-5.983 Y-24.178
X-3.024 Y-24.725
X0 Y-24.91
X3.024 Y-24.725
X6.034 Y-24.166
X8.91 Y-23.261
X11.699 Y-21.989
X14.258 Y-20.425
X16.634 Y-18.541
X18.752 Y-16.394
X20.632 Y-13.955
X22.248 Y-11.23
G2 X22.336 Y-11.11 I0.683 J-0.405
G1 X22.454 Y-10.975
G2 X22.573 Y-10.865 I0.595 J-0.525
G1 X22.688 Y-10.779
G2 X22.807 Y-10.705 I0.477 J-0.635
G1 X22.928 Y-10.644
G2 X23.05 Y-10.595 I0.358 J-0.708
G1 X23.171 Y-10.557
G2 X23.315 Y-10.526 I0.236 J-0.758
G1 X23.482 Y-10.507
G2 X23.651 Y-10.505 I0.092 J-0.788
G1 X23.818 Y-10.521
G2 X23.957 Y-10.548 I-0.076 J-0.79
G1 X24.069 Y-10.579
G2 X24.12 Y-10.595 I-0.216 J-0.764
G1 X24.309 Y-10.663
X24.538 Y-10.687
X24.689 Y-10.638
X24.805 Y-10.534
X24.869 Y-10.391
Y-10.24
X24.798 Y-10.085
X24.633 Y-9.936
X24.337 Y-9.787
G2 X24.208 Y-9.705 I0.357 J0.709
G1 X24.107 Y-9.627
G2 X23.998 Y-9.524 I0.487 J0.627
G1 X23.884 Y-9.395
G2 X23.789 Y-9.261 I0.596 J0.524
G1 X23.712 Y-9.126
G2 X23.646 Y-8.974 I0.691 J0.391
G1 X23.593 Y-8.806
G2 X23.56 Y-8.638 I0.757 J0.239
G1 X23.545 Y-8.47
G2 X23.548 Y-8.302 I0.791 J0.07
G1 X23.568 Y-8.134
G2 X23.591 Y-8.021 I0.788 J-0.098
G1 X24.334 Y-5.327
X24.766 Y-2.675
X24.909 Y0.031
X24.765 Y2.682
X24.332 Y5.334
X23.589 Y8.029
G2 X23.566 Y8.15 I0.765 J0.211
G1 X23.547 Y8.317
G2 X23.545 Y8.486 I0.789 J0.09
G1 X23.562 Y8.653
G2 X23.597 Y8.822 I0.79 J-0.078
G1 X23.652 Y8.989
G2 X23.723 Y9.146 I0.754 J-0.247
G1 X23.809 Y9.292
G2 X23.898 Y9.414 I0.683 J-0.404
G1 X23.987 Y9.515
G2 X24.088 Y9.61 I0.594 J-0.526
G1 X24.201 Y9.699
G2 X24.339 Y9.788 I0.493 J-0.622
G1 X24.628 Y9.932
X24.805 Y10.091
X24.865 Y10.226
Y10.399
X24.805 Y10.534
X24.689 Y10.639
X24.545 Y10.685
X24.304 Y10.662
X24.059 Y10.576
G2 X23.924 Y10.541 I-0.263 J0.749
G1 X23.749 Y10.513
G2 X23.582 Y10.504 I-0.128 J0.783
G1 X23.424 Y10.511
G2 X23.26 Y10.537 I0.04 J0.793
G1 X23.092 Y10.582
G2 X22.953 Y10.633 I0.204 J0.767
G1 X22.841 Y10.686
G2 X22.729 Y10.752 I0.343 J0.716
G1 X22.617 Y10.83
G2 X22.505 Y10.926 I0.455 J0.65
G1 X22.393 Y11.04
G2 X22.294 Y11.164 I0.568 J0.555
G1 X22.189 Y11.327
G2 X22.173 Y11.353 I0.667 J0.431
G1 X20.735 Y13.78
X20.281 Y14.411
X19.217 Y15.795
X18.923 Y16.158
X18.369 Y16.783
X17.329 Y17.837
G3 X17.251 Y17.895 Z-12.984 I-0.226 J-0.223
X17.168 Y17.925 Z-12.939 I-0.148 J-0.281
X17.098 Y17.932 Z-12.869 I-0.064 J-0.311
X17.053 Y17.928 Z-12.781 I0.005 J-0.317
X17.038 Y17.925 Z-12.682 I0.05 J-0.314
G0 Z5
X1.064 Y0.094
Z-10
G1 Z-14.405 F762
G19 G2 Y-0.001 Z-14.5 J-0.096
G17 G3 X1.951 I0.443
X-1.952 I-1.952
X4.967 I3.46
X-4.968 I-4.968
X7.984 I6.476
X-7.984 I-7.984
X11 I9.492
X-11.001 I-11
X14.016 I12.508
X-14.017 I-14.017
X14.016 I14.017
G2 X15.269 Y1.954 I2.152
G3 X16.332 Y4.018 I-0.787 J1.711
X15.943 Y5.688 I-21.057 J-4.017
X15.194 Y7.45 I-6.964 J-1.919
X9.664 Y13.584 I-17.978 J-10.647
X1.993 Y16.644 I-9.616 J-12.963
X-7.963 Y14.608 I-1.932 J-15.916
X-15.189 Y7.463 I10.058 J-17.398
X-15.944 Y5.685 I6.213 J-3.686
X-15.951 Y-5.673 I20.794 J-5.692
X-15.192 Y-7.457 I6.967 J1.91
X-9.679 Y-13.576 I18.121 J10.783
X-2.035 Y-16.641 I9.594 J12.861
X12.616 Y-11.039 I2.036 J16.634
X13.984 Y-9.309 I-17.167 J14.984
X15.189 Y-7.462 I-21.005 J15.02
X15.94 Y-5.697 I-6.213 J3.685
X16.332 Y4.018 I-20.666 J5.698
G2 X17.247 Y6.122 I1.999 J0.381
G3 X17.818 Y8.344 I-0.889 J1.413
X17.669 Y8.599 I-6.318 J-3.503
X12.162 Y15.075 I-23.121 J-14.083
X4.585 Y18.93 I-11.741 J-13.704
X-5.986 Y18.534 I-4.571 J-19.276
X-14.786 Y12.663 I5.784 J-18.198
X-16.333 Y10.659 I21.934 J-18.541
X-17.71 Y8.534 I26.669 J-18.782
X-18.483 Y6.69 I6.211 J-3.689
X-18.481 Y-6.711 I25.36 J-6.696
X-17.713 Y-8.529 I6.976 J1.876
X-12.235 Y-15.027 I22.423 J13.345
X-4.677 Y-18.914 I12.011 J14.065
X13.012 Y-14.504 I4.685 J18.887
X15.588 Y-11.698 I-13.159 J14.667
X17.71 Y-8.535 I-27.641 J20.836
X18.484 Y-6.686 I-6.212 J3.688
Y6.688 I-25.391 J6.687
X17.818 Y8.344 I-6.984 J-1.847
G2 X17.917 Y10.681 I1.961 J1.087
G3 X17.849 Y13.02 I-1.67 J1.121
X16.721 Y14.456 I-44.892 J-34.111
X12.426 Y18.381 I-15.294 J-12.422
X-3.205 Y22.027 I-12.614 J-18.747
X-17.142 Y14.065 I2.853 J-21.172
X-18.749 Y11.851 I27.643 J-21.749
G1 X-20.138 Y9.77
G3 X-21.067 Y7.556 I5.239 J-3.499
X-22.05 Y1.433 I65.977 J-13.737
X-21.736 Y-4.761 I18.884 J-2.147
X-21.4 Y-6.17 I35.379 J7.709
G2 X-21.063 Y-7.578 I-32.665 J-8.55
G3 X-20.134 Y-9.776 I6.283 J1.36
X-17.695 Y-13.32 I109.472 J72.743
X-14.828 Y-16.528 I15.936 J11.358
X14.828 I14.828 J16.527
X17.695 Y-13.319 I-13.05 J14.545
X20.136 Y-9.775 I-110.599 J78.767
X21.069 Y-7.545 I-5.313 J3.536
X22.054 Y-1.425 I-65.043 J13.602
X21.736 Y4.766 I-18.849 J2.136
X21.403 Y6.156 I-34.855 J-7.627
G2 X21.069 Y7.545 I25.487 J6.849
G3 X20.151 Y9.757 I-6.359 J-1.345
X17.849 Y13.02 I-47.194 J-30.849
G2 X17.667 Y15.436 I1.775 J1.349
G3 X17.33 Y17.836 I-1.784 J0.973
G1 X17.059 Y18.112
X16.37 Y18.748
X14.9 Y19.91
X13.935 Y20.623
X12.744 Y21.35
X11.45 Y22.102
X9.711 Y22.894
X8.697 Y23.328
X6.681 Y23.958
X5.836 Y24.206
X3.21 Y24.685
X2.922 Y24.731
X0 Y24.91
X-2.97 Y24.727
X-5.429 Y24.281
X-5.885 Y24.195
X-7.566 Y23.684
X-8.749 Y23.308
X-10.154 Y22.696
X-11.449 Y22.103
X-12.745 Y21.35
X-13.989 Y20.586
X-14.899 Y19.911
X-16.37 Y18.748
X-17.059 Y18.112
X-18.369 Y16.783
X-18.922 Y16.159
X-19.264 Y15.734
X-20.281 Y14.411
X-20.736 Y13.78
X-22.248 Y11.23
G2 X-22.318 Y11.131 I-0.683 J0.405
G1 X-22.398 Y11.033
G2 X-22.497 Y10.933 I-0.613 J0.504
G1 X-22.614 Y10.833
G2 X-22.729 Y10.751 I-0.514 J0.604
G1 X-22.841 Y10.687
G2 X-22.98 Y10.623 I-0.399 J0.686
G1 X-23.147 Y10.565
G2 X-23.319 Y10.526 I-0.26 J0.75
G1 X-23.494 Y10.506
G2 X-23.661 I-0.088 J0.789
G1 X-23.819 Y10.521
G2 X-23.964 Y10.55 I0.079 J0.79
G1 X-24.428 Y10.686
X-24.626 Y10.666
X-24.748 Y10.595
X-24.846 Y10.459
X-24.877 Y10.312
X-24.844 Y10.159
X-24.751 Y10.03
X-24.294 Y9.763
G2 X-24.201 Y9.699 I-0.4 J-0.686
G1 X-24.088 Y9.61
G2 X-23.974 Y9.499 I-0.493 J-0.622
G1 X-23.861 Y9.365
G2 X-23.775 Y9.24 I-0.608 J-0.511
G1 X-23.713 Y9.129
G2 X-23.652 Y8.989 I-0.694 J-0.386
G1 X-23.597 Y8.822
G2 X-23.562 Y8.653 I-0.754 J-0.247
G1 X-23.545 Y8.486
G2 X-23.547 Y8.317 I-0.79 J-0.078
G1 X-23.566 Y8.15
G2 X-23.589 Y8.031 I-0.789 J0.09
G1 X-24.342 Y5.279
X-24.765 Y2.683
X-24.909 Y-0.024
X-24.766 Y-2.675
X-24.334 Y-5.327
X-23.58 Y-8.078
G2 X-23.552 Y-8.246 I-0.766 J-0.21
G1 X-23.544 Y-8.414
G2 X-23.553 Y-8.582 I-0.793 J-0.042
G1 X-23.58 Y-8.75
G2 X-23.626 Y-8.919 I-0.784 J0.127
G1 X-23.694 Y-9.086
G2 X-23.769 Y-9.229 I-0.737 J0.295
G1 X-23.848 Y-9.348
G2 X-23.93 Y-9.453 I-0.662 J0.438
G1 X-24.015 Y-9.543
G2 X-24.13 Y-9.644 I-0.579 J0.543
G1 X-24.281 Y-9.753
G2 X-24.346 Y-9.795 I-0.463 J0.644
G1 X-24.751 Y-10.03
X-24.844 Y-10.158
X-24.877 Y-10.313
X-24.861 Y-10.389
X-24.843 Y-10.467
X-24.754 Y-10.59
X-24.609 Y-10.672
X-24.445 Y-10.689
X-23.962 Y-10.549
G2 X-23.818 Y-10.521 I0.221 J-0.762
G1 X-23.651 Y-10.505
G2 X-23.482 Y-10.507 I0.076 J-0.79
G1 X-23.315 Y-10.526
G2 X-23.15 Y-10.564 I-0.092 J-0.788
G1 X-22.988 Y-10.619
G2 X-22.847 Y-10.684 I-0.257 J-0.751
G1 X-22.726 Y-10.754
G2 X-22.61 Y-10.836 I-0.399 J-0.686
G1 X-22.502 Y-10.928
G2 X-22.405 Y-11.026 I-0.514 J-0.605
G1 X-22.32 Y-11.128
G2 X-22.249 Y-11.229 I-0.611 J-0.507
G1 X-20.597 Y-14.004
X-18.752 Y-16.394
X-16.634 Y-18.541
X-14.258 Y-20.425
X-11.657 Y-22.013
X-8.911 Y-23.261
X-5.983 Y-24.178
X-3.024 Y-24.725
X0 Y-24.91
X3.024 Y-24.725
X6.034 Y-24.166
X8.91 Y-23.261
X11.699 Y-21.989
X14.258 Y-20.425
X16.634 Y-18.541
X18.752 Y-16.394
X20.632 Y-13.955
X22.248 Y-11.23
G2 X22.336 Y-11.11 I0.683 J-0.405
G1 X22.454 Y-10.975
G2 X22.573 Y-10.865 I0.595 J-0.525
G1 X22.688 Y-10.779
G2 X22.807 Y-10.705 I0.477 J-0.635
G1 X22.928 Y-10.644
G2 X23.05 Y-10.595 I0.358 J-0.708
G1 X23.171 Y-10.557
G2 X23.315 Y-10.526 I0.236 J-0.758
G1 X23.482 Y-10.507
G2 X23.651 Y-10.505 I0.092 J-0.788
G1 X23.818 Y-10.521
G2 X23.957 Y-10.548 I-0.076 J-0.79
G1 X24.069 Y-10.579
G2 X24.12 Y-10.595 I-0.216 J-0.764
G1 X24.309 Y-10.663
X24.538 Y-10.687
X24.689 Y-10.638
X24.805 Y-10.534
X24.869 Y-10.391
Y-10.24
X24.798 Y-10.085
X24.633 Y-9.936
X24.337 Y-9.787
G2 X24.208 Y-9.705 I0.357 J0.709
G1 X24.107 Y-9.627
G2 X23.998 Y-9.524 I0.487 J0.627
G1 X23.884 Y-9.395
G2 X23.789 Y-9.261 I0.596 J0.524
G1 X23.712 Y-9.126
G2 X23.646 Y-8.974 I0.691 J0.391
G1 X23.593 Y-8.806
G2 X23.56 Y-8.638 I0.757 J0.239
G1 X23.545 Y-8.47
G2 X23.548 Y-8.302 I0.791 J0.07
G1 X23.568 Y-8.134
G2 X23.591 Y-8.021 I0.788 J-0.098
G1 X24.334 Y-5.327
X24.766 Y-2.675
X24.909 Y0.031
X24.765 Y2.682
X24.332 Y5.334
X23.589 Y8.029
G2 X23.566 Y8.15 I0.765 J0.211
G1 X23.547 Y8.317
G2 X23.545 Y8.486 I0.789 J0.09
G1 X23.562 Y8.653
G2 X23.597 Y8.822 I0.79 J-0.078
G1 X23.652 Y8.989
G2 X23.723 Y9.146 I0.754 J-0.247
G1 X23.809 Y9.292
G2 X23.898 Y9.414 I0.683 J-0.404
G1 X23.987 Y9.515
G2 X24.088 Y9.61 I0.594 J-0.526
G1 X24.201 Y9.699
G2 X24.339 Y9.788 I0.493 J-0.622
G1 X24.628 Y9.932
X24.805 Y10.091
X24.865 Y10.226
Y10.399
X24.805 Y10.534
X24.689 Y10.639
X24.545 Y10.685
X24.304 Y10.662
X24.059 Y10.576
G2 X23.924 Y10.541 I-0.263 J0.749
G1 X23.749 Y10.513
G2 X23.582 Y10.504 I-0.128 J0.783
G1 X23.424 Y10.511
G2 X23.26 Y10.537 I0.04 J0.793
G1 X23.092 Y10.582
G2 X22.953 Y10.633 I0.204 J0.767
G1 X22.841 Y10.686
G2 X22.729 Y10.752 I0.343 J0.716
G1 X22.617 Y10.83
G2 X22.505 Y10.926 I0.455 J0.65
G1 X22.393 Y11.04
G2 X22.294 Y11.164 I0.568 J0.555
G1 X22.189 Y11.327
G2 X22.173 Y11.353 I0.667 J0.431
G1 X20.735 Y13.78
X20.281 Y14.411
X19.217 Y15.795
X18.923 Y16.158
X18.369 Y16.783
X17.33 Y17.836
G3 X17.178 Y17.723 I-0.068 J-0.067
G1 X21.45 Y9.986
G3 X21.553 Y9.939 I0.084 J0.046
G1 X24.254 Y10.497
X24.347 Y10.441
G3 X24.377 Y10.439 I0.016 J0.023
G1 Z-16.183
G3 X24.387 Y10.446 Z-16.27 I-0.045 J0.084
X24.412 Y10.472 Z-16.351 I-0.056 J0.078
X24.427 Y10.526 Z-16.419 I-0.08 J0.051
X24.405 Y10.584 Z-16.463 I-0.095 J-0.003
X24.343 Y10.618 Z-16.491 I-0.073 J-0.061
X24.272 Y10.598 Z-16.5 I-0.012 J-0.095
G1 X24.224 Y10.56
X24.188 Y10.509
X24.147 Y10.425
X24.134 Y10.364
X24.132 Y10.269
X24.144 Y10.211
X24.182 Y10.126
X24.232 Y10.06
X24.277 Y10.019
X24.351 Y9.975
X24.418 Y9.953
X24.481 Y9.945
X24.651 Y9.96
X24.66 Y9.961
X24.805 Y10.091
X24.865 Y10.226
Y10.399
X24.805 Y10.534
X24.689 Y10.639
X24.545 Y10.685
X24.358 Y10.667
X24.272 Y10.598
X24.259 Y10.586
G3 X24.375 Y10.439 I0.07 J-0.064
G1 Z-18.183
G3 X24.385 Y10.445 Z-18.27 I-0.046 J0.084
X24.41 Y10.472 Z-18.351 I-0.056 J0.077
X24.424 Y10.526 Z-18.419 I-0.081 J0.051
X24.401 Y10.584 Z-18.463 I-0.095 J-0.004
X24.34 Y10.617 Z-18.491 I-0.073 J-0.062
X24.268 Y10.596 Z-18.5 I-0.011 J-0.095
G1 X24.225 Y10.561
X24.188 Y10.509
X24.147 Y10.425
X24.134 Y10.364
X24.132 Y10.269
X24.144 Y10.211
X24.182 Y10.126
X24.232 Y10.06
X24.277 Y10.019
X24.351 Y9.975
X24.418 Y9.953
X24.481 Y9.945
X24.629 Y9.958
X24.673 Y9.972
X24.805 Y10.091
X24.865 Y10.226
Y10.399
X24.805 Y10.534
X24.689 Y10.639
X24.545 Y10.685
X24.361 Y10.667
X24.341 Y10.656
X24.268 Y10.596
G3 X24.3 Y10.424 I0.063 J-0.077
G1 X24.573 Y10.334
G2 X24.532 Y10.139 I-0.031 J-0.095
G1 Z-19.183
G3 X24.52 Y10.14 Z-19.27 I-0.009 J-0.095
X24.485 Y10.132 Z-19.351 I0.003 J-0.095
X24.442 Y10.095 Z-19.419 I0.038 J-0.087
X24.428 Y10.034 Z-19.463 I0.081 J-0.051
X24.461 Y9.972 Z-19.491 I0.095 J0.01
X24.531 Y9.949 Z-19.5 I0.063 J0.072
G1 X24.588 Y9.954
X24.69 Y9.987
X24.805 Y10.091
X24.865 Y10.226
Y10.399
X24.805 Y10.534
X24.689 Y10.639
X24.545 Y10.685
X24.381 Y10.669
X24.307 Y10.627
X24.223 Y10.557
X24.188 Y10.509
X24.147 Y10.425
X24.134 Y10.364
X24.132 Y10.269
X24.144 Y10.211
X24.182 Y10.126
X24.232 Y10.06
X24.277 Y10.019
X24.351 Y9.975
X24.418 Y9.953
X24.481 Y9.945
X24.531 Y9.949
X24.588 Y9.954 Z-19.495
X24.64 Y9.971 Z-19.48
X24.69 Y9.987 Z-19.455
X24.728 Y10.022 Z-19.415
X24.76 Y10.05 Z-19.366
X24.784 Y10.072 Z-19.31
X24.799 Y10.085 Z-19.247
X24.804 Y10.09 Z-19.183
G0 Z5
X24.352 Y-10.407
Z-7
G1 Z-11.5 F762
Z-16.183
G3 X24.348 Y-10.396 Z-16.27 I-0.091 J-0.028
X24.327 Y-10.366 Z-16.351 I-0.087 J-0.039
X24.277 Y-10.341 Z-16.419 I-0.066 J-0.069
X24.215 Y-10.351 Z-16.463 I-0.016 J-0.094
X24.17 Y-10.405 Z-16.491 I0.045 J-0.084
X24.176 Y-10.479 Z-16.5 I0.091 J-0.03
G1 X24.203 Y-10.53
X24.218 Y-10.552
X24.357 Y-10.668
X24.538 Y-10.687
X24.689 Y-10.638
X24.805 Y-10.534
X24.869 Y-10.391
Y-10.24
X24.798 Y-10.085
X24.66 Y-9.96
X24.51 Y-9.944
X24.431 Y-9.95
X24.407 Y-9.957
X24.339 Y-9.98
X24.285 Y-10.013
X24.215 Y-10.079
X24.178 Y-10.131
X24.145 Y-10.209
X24.134 Y-10.262
X24.136 Y-10.374
X24.146 Y-10.421
X24.176 Y-10.479
G3 X24.358 Y-10.47 I0.089 J0.046
G1 X24.463 Y-10.209
G2 X24.653 Y-10.222 I0.093 J-0.037
G1 Z-18.183
G3 X24.656 Y-10.234 Z-18.27 I0.093 J0.023
X24.676 Y-10.265 Z-18.351 I0.089 J0.035
X24.725 Y-10.293 Z-18.419 I0.07 J0.065
X24.786 Y-10.286 Z-18.463 I0.021 J0.093
X24.834 Y-10.234 Z-18.491 I-0.041 J0.086
X24.832 Y-10.16 Z-18.5 I-0.089 J0.035
G1 X24.798 Y-10.085
X24.676 Y-9.975
X24.628 Y-9.958
X24.507 Y-9.944
X24.431 Y-9.95
X24.407 Y-9.957
X24.339 Y-9.98
X24.285 Y-10.013
X24.215 Y-10.079
X24.178 Y-10.131
X24.145 Y-10.209
X24.134 Y-10.262
X24.136 Y-10.374
X24.146 Y-10.421
X24.203 Y-10.53
X24.216 Y-10.548
X24.361 Y-10.668
X24.538 Y-10.687
X24.689 Y-10.638
X24.805 Y-10.534
X24.869 Y-10.391
Y-10.24
X24.832 Y-10.16
G3 X24.793 Y-10.133 I-0.041 J-0.019
G1 X24.655 Y-10.127
G2 X24.622 Y-10.111 I0.002 J0.045
G1 X24.535 Y-10.054
G3 X24.469 Y-10.074 I-0.024 J-0.039
X24.499 Y-10.137 I0.042 J-0.018
G1 Z-19.183
G3 X24.511 Y-10.139 Z-19.27 I0.025 J0.092
X24.547 Y-10.137 Z-19.351 I0.013 J0.095
X24.595 Y-10.108 Z-19.419 I-0.023 J0.093
X24.619 Y-10.051 Z-19.463 I-0.071 J0.064
X24.598 Y-9.984 Z-19.491 I-0.095 J0.006
X24.532 Y-9.949 Z-19.5 I-0.074 J-0.06
G1 X24.483 Y-9.945
X24.419 Y-9.953
X24.338 Y-9.981
X24.285 Y-10.013
X24.215 Y-10.079
X24.178 Y-10.131
X24.145 Y-10.209
X24.134 Y-10.262
X24.136 Y-10.374
X24.146 Y-10.421
X24.203 Y-10.53
X24.218 Y-10.552
X24.309 Y-10.628
X24.383 Y-10.67
X24.539 Y-10.687
X24.689 Y-10.638
X24.805 Y-10.534
X24.869 Y-10.391
Y-10.24
X24.798 Y-10.085
X24.69 Y-9.987
X24.588 Y-9.954
X24.532 Y-9.949
X24.483 Y-9.945 Z-19.496
X24.419 Y-9.953 Z-19.479
X24.376 Y-9.968 Z-19.457
X24.338 Y-9.981 Z-19.429
X24.309 Y-9.998 Z-19.398
X24.285 Y-10.013 Z-19.362
X24.262 Y-10.034 Z-19.306
X24.249 Y-10.047 Z-19.246
X24.244 Y-10.051 Z-19.183
G0 Z5
X25.529 Y-25.069
Z-7
G1 Z-10.682 F762
G3 X25.522 Y-25.079 Z-10.77 I0.073 J-0.062
X25.508 Y-25.112 Z-10.851 I0.08 J-0.052
X25.514 Y-25.168 Z-10.919 I0.094 J-0.018
X25.556 Y-25.214 Z-10.963 I0.088 J0.038
X25.626 Y-25.223 Z-10.991 I0.046 J0.084
X25.685 Y-25.178 Z-11 I-0.024 J0.092
G1 X25.806 Y-24.966
X25.888 Y-24.5
X25.806 Y-24.032
X25.798 Y-24.015
X25.556 Y-23.601
X25.196 Y-23.299
X24.739 Y-23.136
X24.71 Y-23.133
X24.256 Y-23.135
X23.809 Y-23.297
X23.454 Y-23.594
X23.441 Y-23.607
X23.194 Y-24.036
X23.113 Y-24.497
X23.116 Y-24.525
X23.197 Y-24.973
X23.205 Y-24.991
X23.443 Y-25.394
X23.811 Y-25.704
X24.247 Y-25.863
X24.288 Y-25.867
X24.74 Y-25.866
X24.748 Y-25.864
X25.185 Y-25.705
X25.315 Y-25.601
X25.564 Y-25.389
X25.685 Y-25.178
G3 X25.651 Y-25.049 I-0.083 J0.047
G1 X25.65 Y-25.048
G3 X25.529 Y-25.069 I-0.048 J-0.082
G1 Z-12.682
G3 X25.522 Y-25.079 Z-12.77 I0.073 J-0.062
X25.508 Y-25.112 Z-12.851 I0.08 J-0.052
X25.514 Y-25.168 Z-12.919 I0.094 J-0.018
X25.556 Y-25.214 Z-12.963 I0.088 J0.038
X25.626 Y-25.223 Z-12.991 I0.046 J0.084
X25.685 Y-25.178 Z-13 I-0.024 J0.092
G1 X25.806 Y-24.966
X25.888 Y-24.5
X25.806 Y-24.032
X25.798 Y-24.015
X25.556 Y-23.601
X25.196 Y-23.299
X24.739 Y-23.136
X24.71 Y-23.133
X24.256 Y-23.135
X23.809 Y-23.297
X23.454 Y-23.594
X23.441 Y-23.607
X23.194 Y-24.036
X23.113 Y-24.497
X23.116 Y-24.525
X23.197 Y-24.973
X23.205 Y-24.991
X23.443 Y-25.394
X23.811 Y-25.704
X24.247 Y-25.863
X24.288 Y-25.867
X24.74 Y-25.866
X24.748 Y-25.864
X25.185 Y-25.705
X25.315 Y-25.601
X25.564 Y-25.389
X25.685 Y-25.178
G3 X25.651 Y-25.049 I-0.083 J0.047
G1 X25.65 Y-25.048
G3 X25.529 Y-25.069 I-0.048 J-0.082
G1 Z-14.182
G3 X25.522 Y-25.079 Z-14.27 I0.073 J-0.062
X25.508 Y-25.112 Z-14.351 I0.08 J-0.052
X25.514 Y-25.168 Z-14.419 I0.094 J-0.018
X25.556 Y-25.214 Z-14.463 I0.088 J0.038
X25.626 Y-25.223 Z-14.491 I0.046 J0.084
X25.685 Y-25.178 Z-14.5 I-0.024 J0.092
G1 X25.806 Y-24.966
X25.888 Y-24.5
X25.806 Y-24.032
X25.798 Y-24.015
X25.556 Y-23.601
X25.196 Y-23.299
X24.739 Y-23.136
X24.71 Y-23.133
X24.256 Y-23.135
X23.809 Y-23.297
X23.454 Y-23.594
X23.441 Y-23.607
X23.194 Y-24.036
X23.113 Y-24.497
X23.116 Y-24.525
X23.197 Y-24.973
X23.205 Y-24.991
X23.443 Y-25.394
X23.811 Y-25.704
X24.247 Y-25.863
X24.288 Y-25.867
X24.74 Y-25.866
X24.748 Y-25.864
X25.185 Y-25.705
X25.315 Y-25.601
X25.564 Y-25.389
X25.685 Y-25.178
G3 X25.651 Y-25.049 I-0.083 J0.047
G1 X25.65 Y-25.048
G3 X25.529 Y-25.069 I-0.048 J-0.082
G1 Z-16.183
G3 X25.522 Y-25.079 Z-16.27 I0.073 J-0.062
X25.508 Y-25.112 Z-16.351 I0.08 J-0.052
X25.514 Y-25.168 Z-16.419 I0.094 J-0.018
X25.556 Y-25.214 Z-16.463 I0.088 J0.038
X25.626 Y-25.223 Z-16.491 I0.046 J0.084
X25.685 Y-25.178 Z-16.5 I-0.024 J0.092
G1 X25.806 Y-24.966
X25.888 Y-24.5
X25.806 Y-24.032
X25.798 Y-24.015
X25.556 Y-23.601
X25.196 Y-23.299
X24.739 Y-23.136
X24.71 Y-23.133
X24.256 Y-23.135
X23.809 Y-23.297
X23.454 Y-23.594
X23.441 Y-23.607
X23.194 Y-24.036
X23.113 Y-24.497
X23.116 Y-24.525
X23.197 Y-24.973
X23.205 Y-24.991
X23.443 Y-25.394
X23.811 Y-25.704
X24.247 Y-25.863
X24.288 Y-25.867
X24.74 Y-25.866
X24.748 Y-25.864
X25.185 Y-25.705
X25.315 Y-25.601
X25.564 Y-25.389
X25.685 Y-25.178
G3 X25.651 Y-25.049 I-0.083 J0.047
G1 X25.65 Y-25.048
G3 X25.529 Y-25.069 I-0.048 J-0.082
G1 Z-18.183
G3 X25.522 Y-25.079 Z-18.27 I0.073 J-0.062
X25.508 Y-25.112 Z-18.351 I0.08 J-0.052
X25.514 Y-25.168 Z-18.419 I0.094 J-0.018
X25.556 Y-25.214 Z-18.463 I0.088 J0.038
X25.626 Y-25.223 Z-18.491 I0.046 J0.084
X25.685 Y-25.178 Z-18.5 I-0.024 J0.092
G1 X25.806 Y-24.966
X25.888 Y-24.5
X25.806 Y-24.032
X25.798 Y-24.015
X25.556 Y-23.601
X25.196 Y-23.299
X24.739 Y-23.136
X24.71 Y-23.133
X24.256 Y-23.135
X23.809 Y-23.297
X23.454 Y-23.594
X23.441 Y-23.607
X23.194 Y-24.036
X23.113 Y-24.497
X23.116 Y-24.525
X23.197 Y-24.973
X23.205 Y-24.991
X23.443 Y-25.394
X23.811 Y-25.704
X24.247 Y-25.863
X24.288 Y-25.867
X24.74 Y-25.866
X24.748 Y-25.864
X25.185 Y-25.705
X25.315 Y-25.601
X25.564 Y-25.389
X25.685 Y-25.178
G3 X25.651 Y-25.049 I-0.083 J0.047
G1 X25.65 Y-25.048
G3 X25.529 Y-25.069 I-0.048 J-0.082
G1 Z-19.183
G3 X25.522 Y-25.079 Z-19.27 I0.073 J-0.062
X25.508 Y-25.112 Z-19.351 I0.08 J-0.052
X25.514 Y-25.168 Z-19.419 I0.094 J-0.018
X25.556 Y-25.214 Z-19.463 I0.088 J0.038
X25.626 Y-25.223 Z-19.491 I0.046 J0.084
X25.685 Y-25.178 Z-19.5 I-0.024 J0.092
G1 X25.806 Y-24.966
X25.888 Y-24.5
X25.806 Y-24.032
X25.798 Y-24.015
X25.556 Y-23.601
X25.196 Y-23.299
X24.739 Y-23.136
X24.71 Y-23.133
X24.256 Y-23.135
X23.809 Y-23.297
X23.454 Y-23.594
X23.441 Y-23.607
X23.194 Y-24.036
X23.113 Y-24.497
X23.116 Y-24.525
X23.197 Y-24.973
X23.205 Y-24.991
X23.443 Y-25.394
X23.811 Y-25.704
X24.247 Y-25.863
X24.288 Y-25.867
X24.74 Y-25.866
X24.748 Y-25.864
X25.185 Y-25.705
X25.315 Y-25.601
X25.564 Y-25.389
X25.685 Y-25.178
G3 X25.72 Y-25.086 Z-19.484 I-0.276 J0.157
X25.726 Y-24.998 Z-19.439 I-0.311 J0.066
X25.713 Y-24.929 Z-19.369 I-0.317 J-0.022
X25.697 Y-24.887 Z-19.281 I-0.304 J-0.091
X25.691 Y-24.873 Z-19.183 I-0.288 J-0.133
G0 Z5
X0.482 Y-0.095
Z-11.5
G1 Z-16.404 F762
G19 G3 Y0.001 Z-16.5 J0.095
G17 G3 X-0.482 I-0.482
X3.498 I1.99
X-3.498 I-3.498
X3.498 I3.498
G2 X4.563 Y1.865 I2.164
G3 X4.977 Y3.971 I-0.729 J1.237
G1 X4.657 Y4.392
X4.582 Y4.46
X3.604 Y5.29
X2.378 Y5.944
X1.04 Y6.317
X-0.347 Y6.394
X-1.705 Y6.171
X-1.734 Y6.161
X-2.989 Y5.661
X-3.027 Y5.638
X-4.145 Y4.881
X-5.105 Y3.863
X-5.811 Y2.688
X-6.255 Y1.366
X-6.402 Y0.007
X-6.401 Y-0.018
X-6.255 Y-1.364
X-6.157 Y-1.662
X-5.812 Y-2.687
X-5.083 Y-3.89
X-4.131 Y-4.89
X-3.017 Y-5.645
X-2.587 Y-5.821
X-1.732 Y-6.162
X-1.397 Y-6.222
X-0.347 Y-6.394
X1.037 Y-6.318
X2.379 Y-5.944
X3.582 Y-5.306
X3.625 Y-5.273
X4.656 Y-4.394
X5.488 Y-3.298
X6.062 Y-2.058
X6.366 Y-0.692
Y0.673
X6.07 Y2.036
X6.058 Y2.066
X5.483 Y3.305
X4.977 Y3.971
G3 X4.827 Y3.982 I-0.08 J-0.061
G1 X0.652 Y-0.166
G2 X0.482 Y-0.095 I-0.07 J0.071
G1 Z-18.404
G19 G3 Y0.001 Z-18.5 J0.095
G17 G3 X-0.482 I-0.482
X3.498 I1.99
X-3.498 I-3.498
X3.498 I3.498
G2 X4.563 Y1.865 I2.164
G3 X4.977 Y3.971 I-0.729 J1.237
G1 X4.657 Y4.392
X4.582 Y4.46
X3.604 Y5.29
X2.378 Y5.944
X1.04 Y6.317
X-0.347 Y6.394
X-1.705 Y6.171
X-1.734 Y6.161
X-2.989 Y5.661
X-3.027 Y5.638
X-4.145 Y4.881
X-5.105 Y3.863
X-5.811 Y2.688
X-6.255 Y1.366
X-6.402 Y0.007
X-6.401 Y-0.018
X-6.255 Y-1.364
X-6.157 Y-1.662
X-5.812 Y-2.687
X-5.083 Y-3.89
X-4.131 Y-4.89
X-3.017 Y-5.645
X-2.587 Y-5.821
X-1.732 Y-6.162
X-1.397 Y-6.222
X-0.347 Y-6.394
X1.037 Y-6.318
X2.379 Y-5.944
X3.582 Y-5.306
X3.625 Y-5.273
X4.656 Y-4.394
X5.488 Y-3.298
X6.062 Y-2.058
X6.366 Y-0.692
Y0.673
X6.07 Y2.036
X6.058 Y2.066
X5.483 Y3.305
X4.977 Y3.971
G3 X4.827 Y3.982 I-0.08 J-0.061
G1 X0.652 Y-0.166
G2 X0.482 Y-0.095 I-0.07 J0.071
G1 Z-19.404
G19 G3 Y0.001 Z-19.5 J0.095
G17 G3 X-0.482 I-0.482
X3.498 I1.99
X-3.498 I-3.498
X3.498 I3.498
G2 X4.563 Y1.865 I2.164
G3 X4.977 Y3.971 I-0.729 J1.237
G1 X4.657 Y4.392
X4.582 Y4.46
X3.604 Y5.29
X2.378 Y5.944
X1.04 Y6.317
X-0.347 Y6.394
X-1.705 Y6.171
X-1.734 Y6.161
X-2.989 Y5.661
X-3.027 Y5.638
X-4.145 Y4.881
X-5.105 Y3.863
X-5.811 Y2.688
X-6.255 Y1.366
X-6.402 Y0.007
X-6.401 Y-0.018
X-6.255 Y-1.364
X-6.157 Y-1.662
X-5.812 Y-2.687
X-5.083 Y-3.89
X-4.131 Y-4.89
X-3.017 Y-5.645
X-2.587 Y-5.821
X-1.732 Y-6.162
X-1.397 Y-6.222
X-0.347 Y-6.394
X1.037 Y-6.318
X2.379 Y-5.944
X3.582 Y-5.306
X3.625 Y-5.273
X4.656 Y-4.394
X5.488 Y-3.298
X6.062 Y-2.058
X6.366 Y-0.692
Y0.673
X6.07 Y2.036
X6.058 Y2.066
X5.483 Y3.305
X4.977 Y3.971
G3 X4.907 Y4.039 Z-19.484 I-0.253 J-0.192
X4.828 Y4.079 Z-19.439 I-0.182 J-0.26
X4.76 Y4.095 Z-19.369 I-0.104 J-0.3
X4.715 Y4.096 Z-19.281 I-0.035 J-0.316
X4.699 Z-19.183 I0.01 J-0.317
G0 Z5
X-24.656 Y10.399
Z-7
G1 Z-11.5 F762
Z-16.183
G3 X-24.647 Y10.408 Z-16.27 I-0.066 J0.069
X-24.63 Y10.44 Z-16.351 I-0.074 J0.06
X-24.631 Y10.496 Z-16.419 I-0.091 J0.028
X-24.667 Y10.547 Z-16.463 I-0.091 J-0.028
X-24.736 Y10.563 Z-16.491 I-0.054 J-0.078
X-24.799 Y10.524 Z-16.5 I0.014 J-0.094
G1 X-24.846 Y10.459
X-24.877 Y10.312
X-24.86 Y10.232
X-24.844 Y10.159
X-24.751 Y10.03
X-24.623 Y9.956
X-24.46 Y9.939
X-24.317 Y9.986
X-24.197 Y10.095
X-24.134 Y10.24
X-24.137 Y10.392
X-24.197 Y10.528
X-24.349 Y10.66
X-24.433 Y10.686
X-24.626 Y10.666
X-24.748 Y10.595
X-24.799 Y10.524
G3 X-24.784 Y10.397 I0.077 J-0.056
G1 Y10.396
G3 X-24.656 Y10.399 I0.062 J0.072
G1 Z-18.183
G3 X-24.647 Y10.408 Z-18.27 I-0.066 J0.069
X-24.63 Y10.44 Z-18.351 I-0.074 J0.06
X-24.631 Y10.496 Z-18.419 I-0.091 J0.028
X-24.667 Y10.547 Z-18.463 I-0.091 J-0.028
X-24.736 Y10.563 Z-18.491 I-0.054 J-0.078
X-24.799 Y10.524 Z-18.5 I0.014 J-0.094
G1 X-24.846 Y10.459
X-24.877 Y10.312
X-24.86 Y10.232
X-24.844 Y10.159
X-24.752 Y10.031
X-24.621 Y9.956
X-24.46 Y9.939
X-24.317 Y9.986
X-24.197 Y10.095
X-24.134 Y10.24
X-24.137 Y10.392
X-24.197 Y10.528
X-24.337 Y10.65
X-24.445 Y10.685
X-24.62 Y10.669
X-24.748 Y10.595
X-24.799 Y10.524
G3 X-24.732 Y10.366 I0.081 J-0.059
G1 X-24.462 Y10.329
G2 X-24.379 Y10.209 I-0.014 J-0.099
X-24.505 Y10.134 I-0.098 J0.021
G1 Z-19.183
G3 X-24.517 Y10.137 Z-19.27 I-0.027 J-0.092
X-24.553 Y10.136 Z-19.351 I-0.015 J-0.094
X-24.602 Y10.108 Z-19.419 I0.021 J-0.093
X-24.627 Y10.051 Z-19.463 I0.07 J-0.065
X-24.607 Y9.984 Z-19.491 I0.095 J-0.008
X-24.542 Y9.948 Z-19.5 I0.075 J0.059
G1 X-24.46 Y9.939
X-24.317 Y9.986
X-24.197 Y10.095
X-24.134 Y10.24
X-24.137 Y10.392
X-24.196 Y10.527
X-24.335 Y10.647
X-24.458 Y10.686
X-24.622 Y10.668
X-24.748 Y10.595
X-24.846 Y10.459
X-24.877 Y10.312
X-24.86 Y10.232
X-24.844 Y10.159
X-24.752 Y10.032
X-24.62 Y9.956
X-24.542 Y9.948
X-24.501 Y9.943 Z-19.497
X-24.46 Y9.939 Z-19.489
X-24.407 Y9.956 Z-19.468
X-24.359 Y9.972 Z-19.438
X-24.317 Y9.986 Z-19.398
X-24.29 Y10.01 Z-19.351
X-24.271 Y10.028 Z-19.298
X-24.259 Y10.039 Z-19.241
X-24.255 Y10.043 Z-19.183
G0 Z5
X-25.509 Y23.899
Z-7
G1 Z-10.682 F762
G3 X-25.514 Y23.91 Z-10.77 I-0.09 J-0.032
X-25.536 Y23.939 Z-10.851 I-0.085 J-0.043
X-25.587 Y23.962 Z-10.919 I-0.063 J-0.072
X-25.648 Y23.949 Z-10.963 I-0.011 J-0.095
X-25.691 Y23.893 Z-10.991 I0.049 J-0.082
X-25.681 Y23.819 Z-11 I0.092 J-0.026
G1 X-25.556 Y23.602
X-25.19 Y23.297
X-24.739 Y23.136
X-24.71 Y23.133
X-24.256 Y23.135
X-23.811 Y23.296
X-23.431 Y23.617
X-23.203 Y24.013
X-23.194 Y24.036
X-23.114 Y24.489
X-23.201 Y24.985
X-23.43 Y25.38
X-23.807 Y25.702
X-24.254 Y25.864
X-24.283 Y25.867
X-24.733 Y25.866
X-25.196 Y25.7
X-25.554 Y25.4
X-25.576 Y25.369
X-25.805 Y24.968
X-25.886 Y24.491
X-25.806 Y24.035
X-25.681 Y23.819
G3 X-25.499 Y23.84 I0.087 J0.05
G1 X-24.992 Y25.531
G2 X-24.913 Y25.601 I0.096 J-0.029
G1 Z-12.682
G3 X-24.901 Y25.603 Z-12.77 I-0.015 J0.094
X-24.869 Y25.62 Z-12.851 I-0.027 J0.091
X-24.837 Y25.667 Z-12.919 I-0.059 J0.075
X-24.839 Y25.729 Z-12.963 I-0.091 J0.028
X-24.886 Y25.781 Z-12.991 I-0.089 J-0.034
X-24.96 Y25.785 Z-13 I-0.042 J-0.086
G1 X-25.196 Y25.7
X-25.554 Y25.4
X-25.576 Y25.369
X-25.805 Y24.968
X-25.886 Y24.491
X-25.806 Y24.035
X-25.556 Y23.602
X-25.19 Y23.297
X-24.739 Y23.136
X-24.71 Y23.133
X-24.256 Y23.135
X-23.811 Y23.296
X-23.431 Y23.617
X-23.203 Y24.013
X-23.194 Y24.036
X-23.114 Y24.489
X-23.201 Y24.985
X-23.43 Y25.38
X-23.807 Y25.702
X-24.254 Y25.864
X-24.283 Y25.867
X-24.733 Y25.866
X-24.96 Y25.785
G3 X-25.02 Y25.672 I0.032 J-0.09
G1 Y25.671
G3 X-24.913 Y25.601 I0.092 J0.024
G1 Z-14.182
G3 X-24.901 Y25.603 Z-14.27 I-0.015 J0.094
X-24.869 Y25.62 Z-14.351 I-0.027 J0.091
X-24.837 Y25.667 Z-14.419 I-0.059 J0.075
X-24.839 Y25.729 Z-14.463 I-0.091 J0.028
X-24.886 Y25.781 Z-14.491 I-0.089 J-0.034
X-24.96 Y25.785 Z-14.5 I-0.042 J-0.086
G1 X-25.196 Y25.7
X-25.554 Y25.4
X-25.576 Y25.369
X-25.805 Y24.968
X-25.886 Y24.491
X-25.806 Y24.035
X-25.556 Y23.602
X-25.19 Y23.297
X-24.739 Y23.136
X-24.71 Y23.133
X-24.256 Y23.135
X-23.811 Y23.296
X-23.431 Y23.617
X-23.203 Y24.013
X-23.194 Y24.036
X-23.114 Y24.489
X-23.201 Y24.985
X-23.43 Y25.38
X-23.807 Y25.702
X-24.254 Y25.864
X-24.283 Y25.867
X-24.733 Y25.866
X-24.96 Y25.785
G3 X-25.02 Y25.672 I0.032 J-0.09
G1 Y25.671
G3 X-24.913 Y25.601 I0.092 J0.024
G1 Z-16.183
G3 X-24.901 Y25.603 Z-16.27 I-0.015 J0.094
X-24.869 Y25.62 Z-16.351 I-0.027 J0.091
X-24.837 Y25.667 Z-16.419 I-0.059 J0.075
X-24.839 Y25.729 Z-16.463 I-0.091 J0.028
X-24.886 Y25.781 Z-16.491 I-0.089 J-0.034
X-24.96 Y25.785 Z-16.5 I-0.042 J-0.086
G1 X-25.196 Y25.7
X-25.554 Y25.4
X-25.576 Y25.369
X-25.805 Y24.968
X-25.886 Y24.491
X-25.806 Y24.035
X-25.556 Y23.602
X-25.19 Y23.297
X-24.739 Y23.136
X-24.71 Y23.133
X-24.256 Y23.135
X-23.811 Y23.296
X-23.431 Y23.617
X-23.203 Y24.013
X-23.194 Y24.036
X-23.114 Y24.489
X-23.201 Y24.985
X-23.43 Y25.38
X-23.807 Y25.702
X-24.254 Y25.864
X-24.283 Y25.867
X-24.733 Y25.866
X-24.96 Y25.785
G3 X-25.02 Y25.672 I0.032 J-0.09
G1 Y25.671
G3 X-24.913 Y25.601 I0.092 J0.024
G1 Z-18.183
G3 X-24.901 Y25.603 Z-18.27 I-0.015 J0.094
X-24.869 Y25.62 Z-18.351 I-0.027 J0.091
X-24.837 Y25.667 Z-18.419 I-0.059 J0.075
X-24.839 Y25.729 Z-18.463 I-0.091 J0.028
X-24.886 Y25.781 Z-18.491 I-0.089 J-0.034
X-24.96 Y25.785 Z-18.5 I-0.042 J-0.086
G1 X-25.196 Y25.7
X-25.554 Y25.4
X-25.576 Y25.369
X-25.805 Y24.968
X-25.886 Y24.491
X-25.806 Y24.035
X-25.556 Y23.602
X-25.19 Y23.297
X-24.739 Y23.136
X-24.71 Y23.133
X-24.256 Y23.135
X-23.811 Y23.296
X-23.431 Y23.617
X-23.203 Y24.013
X-23.194 Y24.036
X-23.114 Y24.489
X-23.201 Y24.985
X-23.43 Y25.38
X-23.807 Y25.702
X-24.254 Y25.864
X-24.283 Y25.867
X-24.733 Y25.866
X-24.96 Y25.785
G3 X-25.02 Y25.672 I0.032 J-0.09
G1 Y25.671
G3 X-24.913 Y25.601 I0.092 J0.024
G1 Z-19.183
G3 X-24.901 Y25.603 Z-19.27 I-0.015 J0.094
X-24.869 Y25.62 Z-19.351 I-0.027 J0.091
X-24.837 Y25.667 Z-19.419 I-0.059 J0.075
X-24.839 Y25.729 Z-19.463 I-0.091 J0.028
X-24.886 Y25.781 Z-19.491 I-0.089 J-0.034
X-24.96 Y25.785 Z-19.5 I-0.042 J-0.086
G1 X-25.196 Y25.7
X-25.554 Y25.4
X-25.576 Y25.369
X-25.805 Y24.968
X-25.886 Y24.491
X-25.806 Y24.035
X-25.556 Y23.602
X-25.19 Y23.297
X-24.739 Y23.136
X-24.71 Y23.133
X-24.256 Y23.135
X-23.811 Y23.296
X-23.431 Y23.617
X-23.203 Y24.013
X-23.194 Y24.036
X-23.114 Y24.489
X-23.201 Y24.985
X-23.43 Y25.38
X-23.807 Y25.702
X-24.254 Y25.864
X-24.283 Y25.867
X-24.733 Y25.866
X-24.96 Y25.785
G3 X-25.046 Y25.738 Z-19.484 I0.107 J-0.299
X-25.108 Y25.675 Z-19.439 I0.193 J-0.252
X-25.143 Y25.615 Z-19.369 I0.255 J-0.189
X-25.159 Y25.572 Z-19.281 I0.29 J-0.129
X-25.162 Y25.557 Z-19.183 I0.305 J-0.087
G0 Z5
X-24.376 Y-10.434
Z-7
G1 Z-11.5 F762
Z-16.183
G3 X-24.386 Y-10.441 Z-16.27 I0.047 J-0.083
X-24.41 Y-10.468 Z-16.351 I0.058 J-0.076
X-24.424 Y-10.523 Z-16.419 I0.082 J-0.049
X-24.401 Y-10.58 Z-16.463 I0.095 J0.005
X-24.338 Y-10.612 Z-16.491 I0.072 J0.063
X-24.267 Y-10.59 Z-16.5 I0.009 J0.095
G1 X-24.204 Y-10.537
X-24.137 Y-10.396
X-24.135 Y-10.235
X-24.195 Y-10.095
X-24.207 Y-10.083
X-24.312 Y-9.988
X-24.46 Y-9.939
X-24.623 Y-9.956
X-24.751 Y-10.03
X-24.844 Y-10.158
X-24.877 Y-10.313
X-24.861 Y-10.389
X-24.843 Y-10.467
X-24.754 Y-10.59
X-24.609 Y-10.672
X-24.449 Y-10.688
X-24.347 Y-10.658
X-24.267 Y-10.59
X-24.26 Y-10.584
G3 X-24.373 Y-10.433 I-0.065 J0.069
G1 Z-18.183
G3 X-24.384 Y-10.44 Z-18.27 I0.049 J-0.082
X-24.407 Y-10.467 Z-18.351 I0.059 J-0.075
X-24.42 Y-10.522 Z-18.419 I0.083 J-0.048
X-24.395 Y-10.579 Z-18.463 I0.095 J0.007
X-24.333 Y-10.61 Z-18.491 I0.071 J0.064
X-24.262 Y-10.587 Z-18.5 I0.008 J0.095
G1 X-24.203 Y-10.536
X-24.137 Y-10.396
X-24.135 Y-10.235
X-24.195 Y-10.095
X-24.207 Y-10.083
X-24.312 Y-9.988
X-24.46 Y-9.939
X-24.621 Y-9.956
X-24.752 Y-10.031
X-24.844 Y-10.158
X-24.877 Y-10.313
X-24.861 Y-10.389
X-24.843 Y-10.467
X-24.754 Y-10.59
X-24.609 Y-10.672
X-24.456 Y-10.688
X-24.332 Y-10.648
X-24.262 Y-10.587
G3 X-24.354 Y-10.426 I-0.062 J0.071
G1 X-24.374 Y-10.434
Z-19.183
G3 X-24.385 Y-10.441 Z-19.27 I0.048 J-0.083
X-24.409 Y-10.468 Z-19.351 I0.058 J-0.076
X-24.422 Y-10.523 Z-19.419 I0.082 J-0.049
X-24.398 Y-10.58 Z-19.463 I0.095 J0.006
X-24.335 Y-10.612 Z-19.491 I0.071 J0.063
X-24.265 Y-10.59 Z-19.5 I0.009 J0.095
G1 X-24.204 Y-10.538
X-24.137 Y-10.396
X-24.135 Y-10.235
X-24.195 Y-10.095
X-24.207 Y-10.083
X-24.312 Y-9.988
X-24.46 Y-9.939
X-24.62 Y-9.956
X-24.752 Y-10.032
X-24.844 Y-10.158
X-24.877 Y-10.313
X-24.861 Y-10.389
X-24.843 Y-10.467
X-24.754 Y-10.59
X-24.609 Y-10.672
X-24.462 Y-10.687
X-24.328 Y-10.644
X-24.265 Y-10.59
X-24.234 Y-10.564 Z-19.497
X-24.204 Y-10.538 Z-19.49
X-24.18 Y-10.485 Z-19.469
X-24.157 Y-10.437 Z-19.436
X-24.137 Y-10.396 Z-19.394
Y-10.361 Z-19.348
Y-10.336 Z-19.296
X-24.136 Y-10.32 Z-19.24
Y-10.315 Z-19.183
G0 Z10

(2D Contour1)
M8
X-4.663 Y-24.778
Z10
Z-5
G1 Z-7 F762
Z-7.5
G2 X-21.956 Y-12.394 Z-11.372 I4.663 J24.778
G3 X-21.47 Y-9.037 Z-12 I-2.544 J2.082
X-24.21 Y-7.037 I-3.03 J-1.275
G2 Y7.037 I24.21 J7.037
G3 X-21.956 Y12.394 I-0.29 J3.275
G2 X21.956 I21.956 J-12.394
G3 X24.21 Y7.037 I2.544 J-2.082
G2 Y-7.037 I-24.21 J-7.037
G3 X21.956 Y-12.394 I0.29 J-3.275
G2 X-21.956 I-21.956 J12.394
G3 X-21.47 Y-9.037 I-2.544 J2.082
X-24.21 Y-7.037 Z-12.277 I-3.03 J-1.275
G2 Y7.037 Z-13.384 I24.21 J7.037
G3 X-21.956 Y12.394 Z-13.937 I-0.29 J3.275
G2 X-21.546 Y13.094 Z-14 I21.956 J-12.394
X21.956 Y12.394 I21.546 J-13.094
G3 X24.21 Y7.037 I2.544 J-2.082
G2 Y-7.037 I-24.21 J-7.037
G3 X21.956 Y-12.394 I0.29 J-3.275
G2 X-21.956 I-21.956 J12.394
G3 X-24.21 Y-7.037 I-2.544 J2.082
G2 Y7.037 I24.21 J7.037
G3 X-21.956 Y12.394 I-0.29 J3.275
G2 X-21.546 Y13.094 I21.956 J-12.394
X-17.537 Y18.114 Z-14.5 I21.546 J-13.094
X21.956 Y12.394 I17.537 J-18.114
G3 X24.21 Y7.037 I2.544 J-2.082
G2 Y-7.037 I-24.21 J-7.037
G3 X21.956 Y-12.394 I0.29 J-3.275
G2 X-21.956 I-21.956 J12.394
G3 X-24.21 Y-7.037 I-2.544 J2.082
G2 Y7.037 I24.21 J7.037
G3 X-21.956 Y12.394 I-0.29 J3.275
G2 X-17.537 Y18.114 I21.956 J-12.394
G0 Z10

(2D Contour2)
M8
X-4.48 Y-41.196
Z10
Z5
G1 Z3 F762
Z-2
G2 X-5.024 Y-40 I1.044 J1.196
G3 X-5.149 I-0.063
G1 Y-41.5
G2 X-6.736 Y-43.088 I-1.588
G1 X-8.986
G2 X-9.986 Y-42.733 J1.588
X-10.986 Y-43.088 I-1 J1.233
G1 X-13.236
G2 X-14.824 Y-41.5 J1.588
G1 Y-40
G3 X-14.949 I-0.063
G2 X-16.536 Y-41.588 I-1.587
G1 X-23.244
G2 X-24.831 Y-40 J1.588
G3 X-24.956 I-0.063
G1 Y-41.5
G2 X-26.544 Y-43.088 I-1.587
G1 X-28.794
G2 X-29.794 Y-42.733 J1.588
X-30.794 Y-43.088 I-1 J1.233
G1 X-33.044
G2 X-34.631 Y-41.5 J1.588
G1 Y-40
G3 X-34.756 I-0.063
G2 X-36.344 Y-41.588 I-1.587
G1 X-40
G2 X-41.588 Y-40 J1.588
G1 Y30
G2 X-30 Y41.588 I11.588
G1 X30
G2 X41.588 Y30 J-11.588
G1 Y-40
G2 X40 Y-41.588 I-1.588
G1 X36.344
G2 X34.756 Y-40 J1.588
G3 X34.631 I-0.063
G1 Y-41.5
G2 X33.044 Y-43.088 I-1.588
G1 X30.794
G2 X29.794 Y-42.733 J1.588
X28.794 Y-43.088 I-1 J1.233
G1 X26.544
G2 X24.956 Y-41.5 J1.588
G1 Y-40
G3 X24.831 I-0.063
G2 X23.244 Y-41.588 I-1.587
G1 X16.536
G2 X14.949 Y-40 J1.588
G3 X14.824 I-0.063
G1 Y-41.5
G2 X13.236 Y-43.088 I-1.588
G1 X10.984
G2 X9.984 Y-42.733 J1.588
X8.984 Y-43.088 I-1 J1.233
G1 X6.736
G2 X5.149 Y-41.5 J1.588
G1 Y-40
G3 X5.024 I-0.063
G2 X3.436 Y-41.588 I-1.588
G1 X-3.436
G2 X-4.48 Y-41.196 J1.588
G1 Z-4
G2 X-5.024 Y-40 I1.044 J1.196
G3 X-5.149 I-0.063
G1 Y-41.5
G2 X-6.736 Y-43.088 I-1.588
G1 X-8.986
G2 X-9.986 Y-42.733 J1.588
X-10.986 Y-43.088 I-1 J1.233
G1 X-13.236
G2 X-14.824 Y-41.5 J1.588
G1 Y-40
G3 X-14.949 I-0.063
G2 X-16.536 Y-41.588 I-1.587
G1 X-23.244
G2 X-24.831 Y-40 J1.588
G3 X-24.956 I-0.063
G1 Y-41.5
G2 X-26.544 Y-43.088 I-1.587
G1 X-28.794
G2 X-29.794 Y-42.733 J1.588
X-30.794 Y-43.088 I-1 J1.233
G1 X-33.044
G2 X-34.631 Y-41.5 J1.588
G1 Y-40
G3 X-34.756 I-0.063
G2 X-36.344 Y-41.588 I-1.587
G1 X-40
G2 X-41.588 Y-40 J1.588
G1 Y30
G2 X-30 Y41.588 I11.588
G1 X30
G2 X41.588 Y30 J-11.588
G1 Y-40
G2 X40 Y-41.588 I-1.588
G1 X36.344
G2 X34.756 Y-40 J1.588
G3 X34.631 I-0.063
G1 Y-41.5
G2 X33.044 Y-43.088 I-1.588
G1 X30.794
G2 X29.794 Y-42.733 J1.588
X28.794 Y-43.088 I-1 J1.233
G1 X26.544
G2 X24.956 Y-41.5 J1.588
G1 Y-40
G3 X24.831 I-0.063
G2 X23.244 Y-41.588 I-1.587
G1 X16.536
G2 X14.949 Y-40 J1.588
G3 X14.824 I-0.063
G1 Y-41.5
G2 X13.236 Y-43.088 I-1.588
G1 X10.984
G2 X9.984 Y-42.733 J1.588
X8.984 Y-43.088 I-1 J1.233
G1 X6.736
G2 X5.149 Y-41.5 J1.588
G1 Y-40
G3 X5.024 I-0.063
G2 X3.436 Y-41.588 I-1.588
G1 X-3.436
G2 X-4.48 Y-41.196 J1.588
G1 Z-6
G2 X-5.024 Y-40 I1.044 J1.196
G3 X-5.149 I-0.063
G1 Y-41.5
G2 X-6.736 Y-43.088 I-1.588
G1 X-8.986
G2 X-9.986 Y-42.733 J1.588
X-10.986 Y-43.088 I-1 J1.233
G1 X-13.236
G2 X-14.824 Y-41.5 J1.588
G1 Y-40
G3 X-14.949 I-0.063
G2 X-16.536 Y-41.588 I-1.587
G1 X-23.244
G2 X-24.831 Y-40 J1.588
G3 X-24.956 I-0.063
G1 Y-41.5
G2 X-26.544 Y-43.088 I-1.587
G1 X-28.794
G2 X-29.794 Y-42.733 J1.588
X-30.794 Y-43.088 I-1 J1.233
G1 X-33.044
G2 X-34.631 Y-41.5 J1.588
G1 Y-40
G3 X-34.756 I-0.063
G2 X-36.344 Y-41.588 I-1.587
G1 X-40
G2 X-41.588 Y-40 J1.588
G1 Y30
G2 X-30 Y41.588 I11.588
G1 X30
G2 X41.588 Y30 J-11.588
G1 Y-40
G2 X40 Y-41.588 I-1.588
G1 X36.344
G2 X34.756 Y-40 J1.588
G3 X34.631 I-0.063
G1 Y-41.5
G2 X33.044 Y-43.088 I-1.588
G1 X30.794
G2 X29.794 Y-42.733 J1.588
X28.794 Y-43.088 I-1 J1.233
G1 X26.544
G2 X24.956 Y-41.5 J1.588
G1 Y-40
G3 X24.831 I-0.063
G2 X23.244 Y-41.588 I-1.587
G1 X16.536
G2 X14.949 Y-40 J1.588
G3 X14.824 I-0.063
G1 Y-41.5
G2 X13.236 Y-43.088 I-1.588
G1 X10.984
G2 X9.984 Y-42.733 J1.588
X8.984 Y-43.088 I-1 J1.233
G1 X6.736
G2 X5.149 Y-41.5 J1.588
G1 Y-40
G3 X5.024 I-0.063
G2 X3.436 Y-41.588 I-1.588
G1 X-3.436
G2 X-4.48 Y-41.196 J1.588
G1 Z-8
G2 X-5.024 Y-40 I1.044 J1.196
G3 X-5.149 I-0.063
G1 Y-41.5
G2 X-6.736 Y-43.088 I-1.588
G1 X-8.986
G2 X-9.986 Y-42.733 J1.588
X-10.986 Y-43.088 I-1 J1.233
G1 X-13.236
G2 X-14.824 Y-41.5 J1.588
G1 Y-40
G3 X-14.949 I-0.063
G2 X-16.536 Y-41.588 I-1.587
G1 X-23.244
G2 X-24.831 Y-40 J1.588
G3 X-24.956 I-0.063
G1 Y-41.5
G2 X-26.544 Y-43.088 I-1.587
G1 X-28.794
