%
(GEAR_CLAMP)
(T1  D=3.175 CR=0 - ZMIN=-19.5 - flat end mill)
G90 G94
G17
G21

(Pocket1)
M9
T1 M6
S10000 M3
G54
M8
G0 X-0.05 Y-1.153
Z10
Z3
G1 Z2.194 F762
G3 Y-1.163 Z2.151 I0.05 J-0.005
X-0.039 Y-1.189 Z2.117 I0.05 J0.005
X-0.004 Y-1.208 Z2.1 I0.039 J0.031
X0.004 Y-1.108 Z2.072 I0.004 J0.05
X-0.004 Y-1.208 Z2.045 I-0.004 J-0.05
X0.004 Y-1.108 Z2.017 I0.004 J0.05
X-0.004 Y-1.208 Z1.989 I-0.004 J-0.05
X0.004 Y-1.108 Z1.962 I0.004 J0.05
X-0.004 Y-1.208 Z1.934 I-0.004 J-0.05
X0.004 Y-1.108 Z1.906 I0.004 J0.05
X-0.004 Y-1.208 Z1.878 I-0.004 J-0.05
X0.004 Y-1.108 Z1.851 I0.004 J0.05
X-0.004 Y-1.208 Z1.823 I-0.004 J-0.05
X0.004 Y-1.108 Z1.795 I0.004 J0.05
X-0.004 Y-1.208 Z1.768 I-0.004 J-0.05
X0.004 Y-1.108 Z1.74 I0.004 J0.05
X-0.004 Y-1.208 Z1.712 I-0.004 J-0.05
X0.004 Y-1.108 Z1.685 I0.004 J0.05
X-0.004 Y-1.208 Z1.657 I-0.004 J-0.05
X0.004 Y-1.108 Z1.629 I0.004 J0.05
X-0.004 Y-1.208 Z1.601 I-0.004 J-0.05
X0.004 Y-1.108 Z1.574 I0.004 J0.05
X-0.004 Y-1.208 Z1.546 I-0.004 J-0.05
X0.004 Y-1.108 Z1.518 I0.004 J0.05
X-0.004 Y-1.208 Z1.491 I-0.004 J-0.05
X0.004 Y-1.108 Z1.463 I0.004 J0.05
X-0.004 Y-1.208 Z1.435 I-0.004 J-0.05
X0.004 Y-1.108 Z1.408 I0.004 J0.05
X-0.004 Y-1.208 Z1.38 I-0.004 J-0.05
X0.004 Y-1.108 Z1.352 I0.004 J0.05
X-0.004 Y-1.208 Z1.324 I-0.004 J-0.05
X0.004 Y-1.108 Z1.297 I0.004 J0.05
X-0.004 Y-1.208 Z1.269 I-0.004 J-0.05
X0.004 Y-1.108 Z1.241 I0.004 J0.05
X-0.004 Y-1.208 Z1.214 I-0.004 J-0.05
X0.004 Y-1.108 Z1.186 I0.004 J0.05
X-0.004 Y-1.208 Z1.158 I-0.004 J-0.05
X0.004 Y-1.108 Z1.131 I0.004 J0.05
X-0.004 Y-1.208 Z1.103 I-0.004 J-0.05
X0.004 Y-1.108 Z1.075 I0.004 J0.05
X-0.004 Y-1.208 Z1.047 I-0.004 J-0.05
X0.004 Y-1.108 Z1.02 I0.004 J0.05
X-0.004 Y-1.208 Z0.992 I-0.004 J-0.05
X0.004 Y-1.108 Z0.964 I0.004 J0.05
X-0.004 Y-1.208 Z0.937 I-0.004 J-0.05
X0.004 Y-1.108 Z0.909 I0.004 J0.05
X-0.004 Y-1.208 Z0.881 I-0.004 J-0.05
X0.004 Y-1.108 Z0.854 I0.004 J0.05
X-0.004 Y-1.208 Z0.826 I-0.004 J-0.05
X0.004 Y-1.108 Z0.798 I0.004 J0.05
X-0.004 Y-1.208 Z0.771 I-0.004 J-0.05
X0.004 Y-1.108 Z0.743 I0.004 J0.05
X-0.004 Y-1.208 Z0.715 I-0.004 J-0.05
X0.004 Y-1.108 Z0.687 I0.004 J0.05
X-0.004 Y-1.208 Z0.66 I-0.004 J-0.05
X0.004 Y-1.108 Z0.632 I0.004 J0.05
X-0.004 Y-1.208 Z0.604 I-0.004 J-0.05
X0.004 Y-1.108 Z0.577 I0.004 J0.05
X-0.004 Y-1.208 Z0.549 I-0.004 J-0.05
X0.004 Y-1.108 Z0.521 I0.004 J0.05
X-0.004 Y-1.208 Z0.494 I-0.004 J-0.05
X0.004 Y-1.108 Z0.466 I0.004 J0.05
X-0.004 Y-1.208 Z0.438 I-0.004 J-0.05
X0.004 Y-1.108 Z0.41 I0.004 J0.05
X-0.004 Y-1.208 Z0.383 I-0.004 J-0.05
X0.004 Y-1.108 Z0.355 I0.004 J0.05
X-0.004 Y-1.208 Z0.327 I-0.004 J-0.05
X0.004 Y-1.108 Z0.3 I0.004 J0.05
X-0.004 Y-1.208 Z0.272 I-0.004 J-0.05
X0.004 Y-1.108 Z0.244 I0.004 J0.05
X-0.004 Y-1.208 Z0.217 I-0.004 J-0.05
X0.004 Y-1.108 Z0.189 I0.004 J0.05
X-0.004 Y-1.208 Z0.161 I-0.004 J-0.05
X0.004 Y-1.108 Z0.133 I0.004 J0.05
X-0.004 Y-1.208 Z0.106 I-0.004 J-0.05
X0.004 Y-1.108 Z0.078 I0.004 J0.05
X-0.004 Y-1.208 Z0.05 I-0.004 J-0.05
X0.004 Y-1.108 Z0.023 I0.004 J0.05
X-0.004 Y-1.208 Z-0.005 I-0.004 J-0.05
X0.004 Y-1.108 Z-0.033 I0.004 J0.05
X-0.004 Y-1.208 Z-0.06 I-0.004 J-0.05
X0.004 Y-1.108 Z-0.088 I0.004 J0.05
X-0.004 Y-1.208 Z-0.116 I-0.004 J-0.05
X0.004 Y-1.108 Z-0.143 I0.004 J0.05
X-0.004 Y-1.208 Z-0.171 I-0.004 J-0.05
X0.004 Y-1.108 Z-0.199 I0.004 J0.05
X-0.004 Y-1.208 Z-0.227 I-0.004 J-0.05
X0.004 Y-1.108 Z-0.254 I0.004 J0.05
X-0.004 Y-1.208 Z-0.282 I-0.004 J-0.05
X0.004 Y-1.108 Z-0.31 I0.004 J0.05
X-0.004 Y-1.208 Z-0.337 I-0.004 J-0.05
X0.004 Y-1.108 Z-0.365 I0.004 J0.05
X-0.004 Y-1.208 Z-0.393 I-0.004 J-0.05
X0.004 Y-1.108 Z-0.42 I0.004 J0.05
X-0.004 Y-1.208 Z-0.448 I-0.004 J-0.05
X0.004 Y-1.108 Z-0.476 I0.004 J0.05
X-0.004 Y-1.208 Z-0.504 I-0.004 J-0.05
X0.004 Y-1.108 Z-0.531 I0.004 J0.05
X-0.004 Y-1.208 Z-0.559 I-0.004 J-0.05
X0.004 Y-1.108 Z-0.587 I0.004 J0.05
X-0.004 Y-1.208 Z-0.614 I-0.004 J-0.05
X0.004 Y-1.108 Z-0.642 I0.004 J0.05
X-0.004 Y-1.208 Z-0.67 I-0.004 J-0.05
X0.004 Y-1.108 Z-0.697 I0.004 J0.05
X-0.004 Y-1.208 Z-0.725 I-0.004 J-0.05
X0.004 Y-1.108 Z-0.753 I0.004 J0.05
X-0.004 Y-1.208 Z-0.781 I-0.004 J-0.05
X0.004 Y-1.108 Z-0.808 I0.004 J0.05
X-0.004 Y-1.208 Z-0.836 I-0.004 J-0.05
X0.004 Y-1.108 Z-0.864 I0.004 J0.05
X-0.004 Y-1.208 Z-0.891 I-0.004 J-0.05
X0.004 Y-1.108 Z-0.919 I0.004 J0.05
X-0.004 Y-1.208 Z-0.947 I-0.004 J-0.05
X0.004 Y-1.108 Z-0.974 I0.004 J0.05
X-0.004 Y-1.208 Z-1.002 I-0.004 J-0.05
X0.004 Y-1.108 Z-1.03 I0.004 J0.05
X-0.004 Y-1.208 Z-1.058 I-0.004 J-0.05
X0.004 Y-1.108 Z-1.085 I0.004 J0.05
X-0.004 Y-1.208 Z-1.113 I-0.004 J-0.05
X0.004 Y-1.108 Z-1.141 I0.004 J0.05
X-0.004 Y-1.208 Z-1.168 I-0.004 J-0.05
X0.004 Y-1.108 Z-1.196 I0.004 J0.05
X-0.004 Y-1.208 Z-1.224 I-0.004 J-0.05
X0.004 Y-1.108 Z-1.251 I0.004 J0.05
X-0.004 Y-1.208 Z-1.279 I-0.004 J-0.05
X0.004 Y-1.108 Z-1.307 I0.004 J0.05
X-0.004 Y-1.208 Z-1.334 I-0.004 J-0.05
X0.004 Y-1.108 Z-1.362 I0.004 J0.05
X-0.004 Y-1.208 Z-1.39 I-0.004 J-0.05
X0.004 Y-1.108 Z-1.418 I0.004 J0.05
X-0.004 Y-1.208 Z-1.445 I-0.004 J-0.05
X0.004 Y-1.108 Z-1.473 I0.004 J0.05
X-0.004 Y-1.208 Z-1.501 I-0.004 J-0.05
X0.004 Y-1.108 Z-1.528 I0.004 J0.05
X-0.004 Y-1.208 Z-1.556 I-0.004 J-0.05
X0.004 Y-1.108 Z-1.584 I0.004 J0.05
X-0.004 Y-1.208 Z-1.611 I-0.004 J-0.05
X0.004 Y-1.108 Z-1.639 I0.004 J0.05
X-0.004 Y-1.208 Z-1.667 I-0.004 J-0.05
X0.004 Y-1.108 Z-1.695 I0.004 J0.05
X-0.004 Y-1.208 Z-1.722 I-0.004 J-0.05
X0.004 Y-1.108 Z-1.75 I0.004 J0.05
X-0.004 Y-1.208 Z-1.778 I-0.004 J-0.05
X0.004 Y-1.108 Z-1.805 I0.004 J0.05
X-0.004 Y-1.208 Z-1.833 I-0.004 J-0.05
X0.004 Y-1.108 Z-1.861 I0.004 J0.05
X-0.004 Y-1.208 Z-1.888 I-0.004 J-0.05
X0.004 Y-1.108 Z-1.916 I0.004 J0.05
X-0.004 Y-1.208 Z-1.944 I-0.004 J-0.05
X0.004 Y-1.108 Z-1.972 I0.004 J0.05
X-0.05 Y-1.155 Z-1.986 I-0.004 J-0.05
X0 Y-1.208 Z-2 I0.05 J-0.002
G1 X0.244
G3 X1.207 Y-0.244 J0.963
G1 Y5.316
G3 X0.781 Y6.109 I-0.951
G2 X0.658 Y6.192 I7.872 J11.877
X0.534 Y6.275 I7.872 J11.877
G3 X-0.535 Y6.274 I-0.534 J-0.787
G2 X-0.659 Y6.19 I-8.019 J11.778
X-0.783 Y6.107 I-8.019 J11.778
G3 X-1.207 Y5.315 I0.527 J-0.792
G1 Y-0.244
G3 X-0.244 Y-1.208 I0.963
G1 X0
G2 X1.609 Y-2.339 J-1.71
G3 X3.548 Y-2.001 I0.94 J0.338
G1 X3.547 Y5.892
G3 X2.517 Y7.773 I-2.232
G2 X0.765 Y8.987 I15.451 J24.171
G3 X-0.771 Y8.985 I-0.767 J-1.016
G2 X-2.497 Y7.783 I-15.802 J20.845
G3 X-3.547 Y5.866 I1.225 J-1.918
G1 X-3.548 Y-2.585
G3 X-2.584 Y-3.548 I0.963
G1 X2.584
G3 X3.548 Y-2.585 J0.963
G1 Y-2.001
G2 X4.718 Y-0.246 I1.902
G3 X5.888 Y1.51 I-0.731 J1.755
G1 Y7.334
G3 X4.867 Y9.088 I-2.017
G2 X0.723 Y12.044 I12.164 J21.434
G3 X-0.717 Y12.046 I-0.721 J-0.813
G2 X-5.012 Y9.008 I-16.298 J18.486
G3 X-5.888 Y7.519 I0.827 J-1.489
G1 Y-4.926
G3 X-4.925 Y-5.889 I0.963
G1 X4.925
G3 X5.888 Y-4.926 J0.963
G1 Y1.51
G2 X7.058 Y3.265 I1.902
G3 X8.229 Y5.021 I-0.731 J1.755
G1 Y8.875
G3 X7.216 Y10.494 I-1.801
G2 X0.621 Y15.41 I9.679 J19.868
G3 X-0.628 Y15.408 I-0.624 J-0.575
G2 X-6.952 Y10.617 I-16.283 J14.925
X-7.113 Y10.543 I-1.179 J2.355
G3 X-7.275 Y10.469 I1.415 J-3.293
X-8.229 Y8.94 I0.749 J-1.529
G1 Y-7.266
G3 X-7.266 Y-8.23 I0.963
G1 X7.266
G3 X8.229 Y-7.266 J0.963
G1 Y5.021
G2 X9.345 Y6.695 I1.813
G3 X10.461 Y8.369 I-0.697 J1.674
G1 Y10.444
G3 X9.458 Y11.939 I-1.617
G2 X0.52 Y19.102 I7.73 J18.806
G3 X-0.521 Y19.1 I-0.52 J-0.361
G2 X-9.655 Y11.856 I-16.407 J11.307
G3 X-10.46 Y10.672 I0.467 J-1.184
G1 X-10.461 Y-9.498
G3 X-9.498 Y-10.462 I0.963
G1 X9.498
G3 X10.461 Y-9.498 J0.963
G1 Y8.369
G2 X11.486 Y9.907 I1.667
G3 X12.512 Y11.446 I-0.641 J1.539
G1 Y12.011
G3 X11.523 Y13.368 I-1.424
G2 X0.645 Y23.02 I5.505 J17.161
G3 X-0.646 Y23.016 I-0.644 J-0.297
G2 X-4.066 Y17.946 I-16.746 J7.607
X-8.982 Y14.306 I-12.869 J12.243
X-10.28 Y13.769 I-4.385 J8.756
X-11.617 Y13.339 I-22.841 J68.764
G3 X-12.512 Y12.123 I0.378 J-1.216
G1 X-12.513 Y-11.55
G3 X-11.55 Y-12.513 I0.963
G1 X11.55
G3 X12.513 Y-11.55 J0.963
G1 X12.512 Y11.446
G2 X13.844 Y12.95 I1.515
G3 X14.481 Y14.855 I-0.135 J1.104
X13.875 Y15.172 I-0.843 J-0.875
G2 X2.371 Y24.952 I3.03 J15.221
G3 X0.936 Y25.941 I-1.434 J-0.545
G1 X-0.933
G3 X-2.373 Y24.951 J-1.542
G2 X-4.441 Y21.073 I-16.586 J6.355
X-7.491 Y17.908 I-11.795 J8.314
X-10.201 Y16.326 I-7.767 J10.194
X-13.171 Y15.312 I-8.096 J18.858
X-13.505 Y15.241 I-0.999 J3.874
G3 X-13.841 Y15.178 I1.44 J-8.536
X-14.853 Y13.931 I0.261 J-1.246
G1 Y-13.891
G3 X-13.89 Y-14.854 I0.963
G1 X13.89
G3 X14.853 Y-13.891 J0.963
G1 Y13.981
G3 X14.481 Y14.855 I-1.215
G2 X13.448 Y16.61 I2.632 J2.731
G3 X12.096 Y18.131 I-2.189 J-0.584
G2 X8.512 Y20.265 I4.885 J12.284
X4.088 Y27.308 I8.612 J10.32
G3 X2.839 Y28.282 I-1.249 J-0.314
G1 X-2.848
G3 X-4.084 Y27.311 J-1.272
G2 X-16.288 Y17.217 I-12.861 J3.125
G3 X-17.193 Y16.267 I0.046 J-0.95
G1 X-17.194 Y-16.231
G3 X-16.231 Y-17.195 I0.963
G1 X16.231
G3 X17.194 Y-16.231 J0.963
G1 X17.193 Y16.219
G3 X16.25 Y17.216 I-0.998
G2 X12.096 Y18.131 I0.731 J13.199
X10.931 Y19.928 I0.684 J1.72
G3 X10.057 Y21.883 I-2.401 J0.1
G2 X8.779 Y23.129 I6.789 J8.245
X6.068 Y29.674 I8.455 J7.335
G3 X5.05 Y30.623 I-1.018 J-0.072
G1 X-5.054
G3 X-6.066 Y29.683 J-1.014
G2 X-9.507 Y22.51 I-10.879 J0.806
X-16.866 Y19.486 I-7.689 J8.249
X-17.719 Y19.505 I-0.247 J8.428
G3 X-18.571 Y19.535 I-0.852 J-11.83
X-19.534 Y18.572 J-0.963
G1 X-19.535 Y-18.572
G3 X-18.572 Y-19.535 I0.963
G1 X18.572
G3 X19.535 Y-18.572 J0.963
G1 X19.534 Y18.573
G3 X18.571 Y19.537 I-0.964
X16.75 Y19.497 I-0.009 J-41.132
G2 X14.933 Y19.621 I-0.359 J8.134
X10.057 Y21.883 I1.913 J10.508
X9.48 Y24.079 I1.234 J1.499
G3 X9.352 Y26.347 I-2.575 J0.992
G2 X8.33 Y30.522 I8.007 J4.173
X8.353 Y31.261 I11.839 J-0.003
G3 X8.376 Y32 I-11.816 J0.742
X7.413 Y32.963 I-0.963
G1 X-7.414
G3 X-8.378 Y32 J-0.964
G2 X-8.396 Y29.575 I-171.508 J0.048
X-8.889 Y27.2 I-6.412 J0.092
X-11.968 Y23.333 I-8.326 J3.47
X-16.654 Y21.754 I-4.933 J6.9
X-18.783 Y21.8 I-0.618 J21.112
G3 X-20.911 Y21.876 I-2.128 J-29.667
X-21.875 Y20.913 J-0.963
G1 X-21.876 Y-20.913
G3 X-20.912 Y-21.876 I0.963
G1 X20.912
G3 X21.876 Y-20.913 J0.963
G1 X21.875 Y20.914
G3 X20.911 Y21.877 I-0.964
G1 X16.476 Y21.878
G2 X12.332 Y23.09 I0.002 J7.698
X9.38 Y26.294 I4.607 J7.207
X9.352 Y26.347 I7.979 J4.226
X9.688 Y28.601 I1.718 J0.895
G3 X10.531 Y30.718 I-2.095 J2.06
G2 X10.573 Y31.68 I7.564 J0.148
G3 X10.717 Y34.341 I-24.638 J2.667
X9.754 Y35.304 I-0.963
G1 X-9.754
G3 X-10.718 Y34.341 J-0.964
X-10.707 Y30.139 I755.167 J-0.213
G2 X-12.22 Y26.22 I-5.756 J-0.03
X-14.255 Y24.699 I-5.028 J4.609
X-16.722 Y24.091 I-2.643 J5.412
G1 X-23.252 Y24.216
G3 X-24.215 Y23.253 J-0.963
G1 X-24.216 Y-23.253
G3 X-23.253 Y-24.216 I0.963
G1 X23.253
G3 X24.216 Y-23.253 J0.963
G1 X24.215 Y23.254
G3 X23.252 Y24.217 I-0.964
X19.51 Y24.042 I-0.008 J-39.937
G2 X15.767 Y24.204 I-1.283 J13.668
X12.554 Y25.876 I1.099 J6.037
X10.758 Y29.021 I4.727 J4.785
X10.531 Y30.718 I7.337 J1.844
X11.76 Y32.512 I1.871 J0.037
G3 X13.028 Y34.279 I-0.663 J1.815
X13.058 Y36.681 I-97.017 J2.424
X12.095 Y37.644 I-0.963
G1 X-12.094
G3 X-13.058 Y36.681 J-0.964
X-12.869 Y33.162 I32.73 J-0.009
G2 X-13.016 Y29.641 I-11.778 J-1.27
X-14.091 Y27.646 I-3.729 J0.721
X-16.066 Y26.533 I-3.073 J3.146
X-16.612 Y26.443 I-0.791 J3.065
X-17.165 Y26.421 I-0.553 J7.135
G1 X-25.592 Y26.557
G3 X-26.556 Y25.594 J-0.963
G1 X-26.557 Y-25.594
G3 X-25.593 Y-26.557 I0.963
G1 X25.593
G3 X26.557 Y-25.594 J0.963
G1 X26.556 Y25.594
G3 X25.592 Y26.557 I-0.964
X21.267 Y26.49 I-0.029 J-137.869
G2 X16.942 Y26.423 I-4.296 J137.802
X12.875 Y30.748 I0.001 J4.075
G3 X13.028 Y34.279 I-96.865 J5.955
G2 X14.232 Y36.032 I1.948 J-0.049
G3 X15.414 Y37.799 I-0.73 J1.768
G1 X15.415 Y40
X-15.416
X-15.413 Y39.93
G2 Y39.901 I-0.793 J-0.029
G1 X-15.415 Y30.435
G2 X-15.43 Y30.284 I-0.794
G1 X-15.462 Y30.114
G2 X-15.509 Y29.96 I-0.779 J0.151
G1 X-15.567 Y29.821
G2 X-15.631 Y29.699 I-0.733 J0.305
G1 X-15.698 Y29.593
G2 X-15.782 Y29.485 I-0.669 J0.428
G1 X-15.883 Y29.375
G2 X-15.987 Y29.28 I-0.585 J0.536
G1 X-16.093 Y29.199
G2 X-16.218 Y29.121 I-0.481 J0.631
G1 X-16.364 Y29.048
G2 X-16.521 Y28.989 I-0.355 J0.71
G1 X-16.688 Y28.946
G2 X-16.863 Y28.921 I-0.198 J0.769
G1 X-17.142 Y28.913
G2 X-17.165 I-0.023 J0.793
G1 X-26.857
X-27.56 Y28.804
X-28.068 Y28.552
X-28.178 Y28.465
X-28.479 Y28.163
X-28.56 Y28.054
X-28.807 Y27.544
X-28.911 Y26.884
X-28.912 Y-26.876
X-28.804 Y-27.557
X-28.759 Y-27.665
X-28.559 Y-28.057
X-28.462 Y-28.182
X-28.177 Y-28.467
X-28.059 Y-28.557
X-27.554 Y-28.803
X-27.505 Y-28.813
X-26.857 Y-28.913
X26.857
X27.56 Y-28.804
X28.057 Y-28.558
X28.175 Y-28.468
X28.496 Y-28.142
X28.557 Y-28.062
X28.759 Y-27.665
X28.804 Y-27.557
X28.912 Y-26.876
X28.911 Y26.884
X28.807 Y27.544
X28.56 Y28.054
X28.481 Y28.16
X28.134 Y28.503
X28.074 Y28.549
X27.554 Y28.803
X27.513 Y28.811
X26.857 Y28.913
X16.942 Y28.915
G2 X16.8 Y28.927 J0.794
G1 X16.633 Y28.958
G2 X16.472 Y29.005 I0.142 J0.781
G1 X16.319 Y29.068
G2 X16.195 Y29.133 I0.303 J0.734
G1 X16.098 Y29.195
G2 X15.99 Y29.278 I0.428 J0.669
G1 X15.876 Y29.382
G2 X15.779 Y29.488 I0.535 J0.586
G1 X15.699 Y29.592
G2 X15.62 Y29.719 I0.632 J0.481
G1 X15.546 Y29.869
G2 X15.486 Y30.029 I0.71 J0.354
G1 X15.444 Y30.199
G2 X15.421 Y30.347 I0.77 J0.194
G1 X15.414 Y30.474
G2 X15.413 Y30.52 I0.792 J0.045
G1 X15.414 Y37.799
G3 X15.399 Y37.895 Z-1.984 I-0.318
X15.361 Y37.975 Z-1.939 I-0.302 J-0.096
X15.316 Y38.028 Z-1.869 I-0.264 J-0.176
X15.281 Y38.057 Z-1.781 I-0.219 J-0.23
X15.268 Y38.066 Z-1.683 I-0.184 J-0.258
G0 Z5
X-0.05 Y-1.153
Z0.194
G3 Y-1.163 Z0.151 I0.05 J-0.005 F762
X-0.039 Y-1.189 Z0.117 I0.05 J0.005
X-0.004 Y-1.208 Z0.1 I0.039 J0.031
X0.004 Y-1.108 Z0.072 I0.004 J0.05
X-0.004 Y-1.208 Z0.045 I-0.004 J-0.05
X0.004 Y-1.108 Z0.017 I0.004 J0.05
X-0.004 Y-1.208 Z-0.011 I-0.004 J-0.05
X0.004 Y-1.108 Z-0.038 I0.004 J0.05
X-0.004 Y-1.208 Z-0.066 I-0.004 J-0.05
X0.004 Y-1.108 Z-0.094 I0.004 J0.05
X-0.004 Y-1.208 Z-0.122 I-0.004 J-0.05
X0.004 Y-1.108 Z-0.149 I0.004 J0.05
X-0.004 Y-1.208 Z-0.177 I-0.004 J-0.05
X0.004 Y-1.108 Z-0.205 I0.004 J0.05
X-0.004 Y-1.208 Z-0.232 I-0.004 J-0.05
X0.004 Y-1.108 Z-0.26 I0.004 J0.05
X-0.004 Y-1.208 Z-0.288 I-0.004 J-0.05
X0.004 Y-1.108 Z-0.315 I0.004 J0.05
X-0.004 Y-1.208 Z-0.343 I-0.004 J-0.05
X0.004 Y-1.108 Z-0.371 I0.004 J0.05
X-0.004 Y-1.208 Z-0.399 I-0.004 J-0.05
X0.004 Y-1.108 Z-0.426 I0.004 J0.05
X-0.004 Y-1.208 Z-0.454 I-0.004 J-0.05
X0.004 Y-1.108 Z-0.482 I0.004 J0.05
X-0.004 Y-1.208 Z-0.509 I-0.004 J-0.05
X0.004 Y-1.108 Z-0.537 I0.004 J0.05
X-0.004 Y-1.208 Z-0.565 I-0.004 J-0.05
X0.004 Y-1.108 Z-0.592 I0.004 J0.05
X-0.004 Y-1.208 Z-0.62 I-0.004 J-0.05
X0.004 Y-1.108 Z-0.648 I0.004 J0.05
X-0.004 Y-1.208 Z-0.676 I-0.004 J-0.05
X0.004 Y-1.108 Z-0.703 I0.004 J0.05
X-0.004 Y-1.208 Z-0.731 I-0.004 J-0.05
X0.004 Y-1.108 Z-0.759 I0.004 J0.05
X-0.004 Y-1.208 Z-0.786 I-0.004 J-0.05
X0.004 Y-1.108 Z-0.814 I0.004 J0.05
X-0.004 Y-1.208 Z-0.842 I-0.004 J-0.05
X0.004 Y-1.108 Z-0.869 I0.004 J0.05
X-0.004 Y-1.208 Z-0.897 I-0.004 J-0.05
X0.004 Y-1.108 Z-0.925 I0.004 J0.05
X-0.004 Y-1.208 Z-0.953 I-0.004 J-0.05
X0.004 Y-1.108 Z-0.98 I0.004 J0.05
X-0.004 Y-1.208 Z-1.008 I-0.004 J-0.05
X0.004 Y-1.108 Z-1.036 I0.004 J0.05
X-0.004 Y-1.208 Z-1.063 I-0.004 J-0.05
X0.004 Y-1.108 Z-1.091 I0.004 J0.05
X-0.004 Y-1.208 Z-1.119 I-0.004 J-0.05
X0.004 Y-1.108 Z-1.146 I0.004 J0.05
X-0.004 Y-1.208 Z-1.174 I-0.004 J-0.05
X0.004 Y-1.108 Z-1.202 I0.004 J0.05
X-0.004 Y-1.208 Z-1.229 I-0.004 J-0.05
X0.004 Y-1.108 Z-1.257 I0.004 J0.05
X-0.004 Y-1.208 Z-1.285 I-0.004 J-0.05
X0.004 Y-1.108 Z-1.313 I0.004 J0.05
X-0.004 Y-1.208 Z-1.34 I-0.004 J-0.05
X0.004 Y-1.108 Z-1.368 I0.004 J0.05
X-0.004 Y-1.208 Z-1.396 I-0.004 J-0.05
X0.004 Y-1.108 Z-1.423 I0.004 J0.05
X-0.004 Y-1.208 Z-1.451 I-0.004 J-0.05
X0.004 Y-1.108 Z-1.479 I0.004 J0.05
X-0.004 Y-1.208 Z-1.506 I-0.004 J-0.05
X0.004 Y-1.108 Z-1.534 I0.004 J0.05
X-0.004 Y-1.208 Z-1.562 I-0.004 J-0.05
X0.004 Y-1.108 Z-1.59 I0.004 J0.05
X-0.004 Y-1.208 Z-1.617 I-0.004 J-0.05
X0.004 Y-1.108 Z-1.645 I0.004 J0.05
X-0.004 Y-1.208 Z-1.673 I-0.004 J-0.05
X0.004 Y-1.108 Z-1.7 I0.004 J0.05
X-0.004 Y-1.208 Z-1.728 I-0.004 J-0.05
X0.004 Y-1.108 Z-1.756 I0.004 J0.05
X-0.004 Y-1.208 Z-1.783 I-0.004 J-0.05
X0.004 Y-1.108 Z-1.811 I0.004 J0.05
X-0.004 Y-1.208 Z-1.839 I-0.004 J-0.05
X0.004 Y-1.108 Z-1.867 I0.004 J0.05
X-0.004 Y-1.208 Z-1.894 I-0.004 J-0.05
X0.004 Y-1.108 Z-1.922 I0.004 J0.05
X-0.004 Y-1.208 Z-1.95 I-0.004 J-0.05
X0.004 Y-1.108 Z-1.977 I0.004 J0.05
X-0.004 Y-1.208 Z-2.005 I-0.004 J-0.05
X0.004 Y-1.108 Z-2.033 I0.004 J0.05
X-0.004 Y-1.208 Z-2.06 I-0.004 J-0.05
X0.004 Y-1.108 Z-2.088 I0.004 J0.05
X-0.004 Y-1.208 Z-2.116 I-0.004 J-0.05
X0.004 Y-1.108 Z-2.143 I0.004 J0.05
X-0.004 Y-1.208 Z-2.171 I-0.004 J-0.05
X0.004 Y-1.108 Z-2.199 I0.004 J0.05
X-0.004 Y-1.208 Z-2.227 I-0.004 J-0.05
X0.004 Y-1.108 Z-2.254 I0.004 J0.05
X-0.004 Y-1.208 Z-2.282 I-0.004 J-0.05
X0.004 Y-1.108 Z-2.31 I0.004 J0.05
X-0.004 Y-1.208 Z-2.337 I-0.004 J-0.05
X0.004 Y-1.108 Z-2.365 I0.004 J0.05
X-0.004 Y-1.208 Z-2.393 I-0.004 J-0.05
X0.004 Y-1.108 Z-2.42 I0.004 J0.05
X-0.004 Y-1.208 Z-2.448 I-0.004 J-0.05
X0.004 Y-1.108 Z-2.476 I0.004 J0.05
X-0.004 Y-1.208 Z-2.504 I-0.004 J-0.05
X0.004 Y-1.108 Z-2.531 I0.004 J0.05
X-0.004 Y-1.208 Z-2.559 I-0.004 J-0.05
X0.004 Y-1.108 Z-2.587 I0.004 J0.05
X-0.004 Y-1.208 Z-2.614 I-0.004 J-0.05
X0.004 Y-1.108 Z-2.642 I0.004 J0.05
X-0.004 Y-1.208 Z-2.67 I-0.004 J-0.05
X0.004 Y-1.108 Z-2.697 I0.004 J0.05
X-0.004 Y-1.208 Z-2.725 I-0.004 J-0.05
X0.004 Y-1.108 Z-2.753 I0.004 J0.05
X-0.004 Y-1.208 Z-2.781 I-0.004 J-0.05
X0.004 Y-1.108 Z-2.808 I0.004 J0.05
X-0.004 Y-1.208 Z-2.836 I-0.004 J-0.05
X0.004 Y-1.108 Z-2.864 I0.004 J0.05
X-0.004 Y-1.208 Z-2.891 I-0.004 J-0.05
X0.004 Y-1.108 Z-2.919 I0.004 J0.05
X-0.004 Y-1.208 Z-2.947 I-0.004 J-0.05
X0.004 Y-1.108 Z-2.974 I0.004 J0.05
X-0.004 Y-1.208 Z-3.002 I-0.004 J-0.05
X0.004 Y-1.108 Z-3.03 I0.004 J0.05
X-0.004 Y-1.208 Z-3.058 I-0.004 J-0.05
X0.004 Y-1.108 Z-3.085 I0.004 J0.05
X-0.004 Y-1.208 Z-3.113 I-0.004 J-0.05
X0.004 Y-1.108 Z-3.141 I0.004 J0.05
X-0.004 Y-1.208 Z-3.168 I-0.004 J-0.05
X0.004 Y-1.108 Z-3.196 I0.004 J0.05
X-0.004 Y-1.208 Z-3.224 I-0.004 J-0.05
X0.004 Y-1.108 Z-3.251 I0.004 J0.05
X-0.004 Y-1.208 Z-3.279 I-0.004 J-0.05
X0.004 Y-1.108 Z-3.307 I0.004 J0.05
X-0.004 Y-1.208 Z-3.334 I-0.004 J-0.05
X0.004 Y-1.108 Z-3.362 I0.004 J0.05
X-0.004 Y-1.208 Z-3.39 I-0.004 J-0.05
X0.004 Y-1.108 Z-3.418 I0.004 J0.05
X-0.004 Y-1.208 Z-3.445 I-0.004 J-0.05
X0.004 Y-1.108 Z-3.473 I0.004 J0.05
X-0.004 Y-1.208 Z-3.501 I-0.004 J-0.05
X0.004 Y-1.108 Z-3.528 I0.004 J0.05
X-0.004 Y-1.208 Z-3.556 I-0.004 J-0.05
X0.004 Y-1.108 Z-3.584 I0.004 J0.05
X-0.004 Y-1.208 Z-3.611 I-0.004 J-0.05
X0.004 Y-1.108 Z-3.639 I0.004 J0.05
X-0.004 Y-1.208 Z-3.667 I-0.004 J-0.05
X0.004 Y-1.108 Z-3.695 I0.004 J0.05
X-0.004 Y-1.208 Z-3.722 I-0.004 J-0.05
X0.004 Y-1.108 Z-3.75 I0.004 J0.05
X-0.004 Y-1.208 Z-3.778 I-0.004 J-0.05
X0.004 Y-1.108 Z-3.805 I0.004 J0.05
X-0.004 Y-1.208 Z-3.833 I-0.004 J-0.05
X0.004 Y-1.108 Z-3.861 I0.004 J0.05
X-0.004 Y-1.208 Z-3.888 I-0.004 J-0.05
X0.004 Y-1.108 Z-3.916 I0.004 J0.05
X-0.004 Y-1.208 Z-3.944 I-0.004 J-0.05
X0.004 Y-1.108 Z-3.972 I0.004 J0.05
X-0.05 Y-1.155 Z-3.986 I-0.004 J-0.05
X0 Y-1.208 Z-4 I0.05 J-0.002
G1 X0.244
G3 X1.207 Y-0.244 J0.963
G1 Y5.316
G3 X0.781 Y6.109 I-0.951
G2 X0.658 Y6.192 I7.872 J11.877
X0.534 Y6.275 I7.872 J11.877
G3 X-0.535 Y6.274 I-0.534 J-0.787
G2 X-0.659 Y6.19 I-8.019 J11.778
X-0.783 Y6.107 I-8.019 J11.778
G3 X-1.207 Y5.315 I0.527 J-0.792
G1 Y-0.244
G3 X-0.244 Y-1.208 I0.963
G1 X0
G2 X1.609 Y-2.339 J-1.71
G3 X3.548 Y-2.001 I0.94 J0.338
G1 X3.547 Y5.892
G3 X2.517 Y7.773 I-2.232
G2 X0.765 Y8.987 I15.451 J24.171
G3 X-0.771 Y8.985 I-0.767 J-1.016
G2 X-2.497 Y7.783 I-15.802 J20.845
G3 X-3.547 Y5.866 I1.225 J-1.918
G1 X-3.548 Y-2.585
G3 X-2.584 Y-3.548 I0.963
G1 X2.584
G3 X3.548 Y-2.585 J0.963
G1 Y-2.001
G2 X4.718 Y-0.246 I1.902
G3 X5.888 Y1.51 I-0.731 J1.755
G1 Y7.334
G3 X4.867 Y9.088 I-2.017
G2 X0.723 Y12.044 I12.164 J21.434
G3 X-0.717 Y12.046 I-0.721 J-0.813
G2 X-5.012 Y9.008 I-16.298 J18.486
G3 X-5.888 Y7.519 I0.827 J-1.489
G1 Y-4.926
G3 X-4.925 Y-5.889 I0.963
G1 X4.925
G3 X5.888 Y-4.926 J0.963
G1 Y1.51
G2 X7.058 Y3.265 I1.902
G3 X8.229 Y5.021 I-0.731 J1.755
G1 Y8.875
G3 X7.216 Y10.494 I-1.801
G2 X0.621 Y15.41 I9.679 J19.868
G3 X-0.628 Y15.408 I-0.624 J-0.575
G2 X-6.952 Y10.617 I-16.283 J14.925
X-7.113 Y10.543 I-1.179 J2.355
G3 X-7.275 Y10.469 I1.415 J-3.293
X-8.229 Y8.94 I0.749 J-1.529
G1 Y-7.266
G3 X-7.266 Y-8.23 I0.963
G1 X7.266
G3 X8.229 Y-7.266 J0.963
G1 Y5.021
G2 X9.345 Y6.695 I1.813
G3 X10.461 Y8.369 I-0.697 J1.674
G1 Y10.444
G3 X9.458 Y11.939 I-1.617
G2 X0.52 Y19.102 I7.73 J18.806
G3 X-0.521 Y19.1 I-0.52 J-0.361
G2 X-9.655 Y11.856 I-16.407 J11.307
G3 X-10.46 Y10.672 I0.467 J-1.184
G1 X-10.461 Y-9.498
G3 X-9.498 Y-10.462 I0.963
G1 X9.498
G3 X10.461 Y-9.498 J0.963
G1 Y8.369
G2 X11.486 Y9.907 I1.667
G3 X12.512 Y11.446 I-0.641 J1.539
G1 Y12.011
G3 X11.523 Y13.368 I-1.424
G2 X0.645 Y23.02 I5.505 J17.161
G3 X-0.646 Y23.016 I-0.644 J-0.297
G2 X-4.066 Y17.946 I-16.746 J7.607
X-8.982 Y14.306 I-12.869 J12.243
X-10.28 Y13.769 I-4.385 J8.756
X-11.617 Y13.339 I-22.841 J68.764
G3 X-12.512 Y12.123 I0.378 J-1.216
G1 X-12.513 Y-11.55
G3 X-11.55 Y-12.513 I0.963
G1 X11.55
G3 X12.513 Y-11.55 J0.963
G1 X12.512 Y11.446
G2 X13.844 Y12.95 I1.515
G3 X14.481 Y14.855 I-0.135 J1.104
X13.875 Y15.172 I-0.843 J-0.875
G2 X2.371 Y24.952 I3.03 J15.221
G3 X0.936 Y25.941 I-1.434 J-0.545
G1 X-0.933
G3 X-2.373 Y24.951 J-1.542
G2 X-4.441 Y21.073 I-16.586 J6.355
X-7.491 Y17.908 I-11.795 J8.314
X-10.201 Y16.326 I-7.767 J10.194
X-13.171 Y15.312 I-8.096 J18.858
X-13.505 Y15.241 I-0.999 J3.874
G3 X-13.841 Y15.178 I1.44 J-8.536
X-14.853 Y13.931 I0.261 J-1.246
G1 Y-13.891
G3 X-13.89 Y-14.854 I0.963
G1 X13.89
G3 X14.853 Y-13.891 J0.963
G1 Y13.981
G3 X14.481 Y14.855 I-1.215
G2 X13.448 Y16.61 I2.632 J2.731
G3 X12.096 Y18.131 I-2.189 J-0.584
G2 X8.512 Y20.265 I4.885 J12.284
X4.088 Y27.308 I8.612 J10.32
G3 X2.839 Y28.282 I-1.249 J-0.314
G1 X-2.848
G3 X-4.084 Y27.311 J-1.272
G2 X-16.288 Y17.217 I-12.861 J3.125
G3 X-17.193 Y16.267 I0.046 J-0.95
G1 X-17.194 Y-16.231
G3 X-16.231 Y-17.195 I0.963
G1 X16.231
G3 X17.194 Y-16.231 J0.963
G1 X17.193 Y16.219
G3 X16.25 Y17.216 I-0.998
G2 X12.096 Y18.131 I0.731 J13.199
X10.931 Y19.928 I0.684 J1.72
G3 X10.057 Y21.883 I-2.401 J0.1
G2 X8.779 Y23.129 I6.789 J8.245
X6.068 Y29.674 I8.455 J7.335
G3 X5.05 Y30.623 I-1.018 J-0.072
G1 X-5.054
G3 X-6.066 Y29.683 J-1.014
G2 X-9.507 Y22.51 I-10.879 J0.806
X-16.866 Y19.486 I-7.689 J8.249
X-17.719 Y19.505 I-0.247 J8.428
G3 X-18.571 Y19.535 I-0.852 J-11.83
X-19.534 Y18.572 J-0.963
G1 X-19.535 Y-18.572
G3 X-18.572 Y-19.535 I0.963
G1 X18.572
G3 X19.535 Y-18.572 J0.963
G1 X19.534 Y18.573
G3 X18.571 Y19.537 I-0.964
X16.75 Y19.497 I-0.009 J-41.132
G2 X14.933 Y19.621 I-0.359 J8.134
X10.057 Y21.883 I1.913 J10.508
X9.48 Y24.079 I1.234 J1.499
G3 X9.352 Y26.347 I-2.575 J0.992
G2 X8.33 Y30.522 I8.007 J4.173
X8.353 Y31.261 I11.839 J-0.003
G3 X8.376 Y32 I-11.816 J0.742
X7.413 Y32.963 I-0.963
G1 X-7.414
G3 X-8.378 Y32 J-0.964
G2 X-8.396 Y29.575 I-171.508 J0.048
X-8.889 Y27.2 I-6.412 J0.092
X-11.968 Y23.333 I-8.326 J3.47
X-16.654 Y21.754 I-4.933 J6.9
X-18.783 Y21.8 I-0.618 J21.112
G3 X-20.911 Y21.876 I-2.128 J-29.667
X-21.875 Y20.913 J-0.963
G1 X-21.876 Y-20.913
G3 X-20.912 Y-21.876 I0.963
G1 X20.912
G3 X21.876 Y-20.913 J0.963
G1 X21.875 Y20.914
G3 X20.911 Y21.877 I-0.964
G1 X16.476 Y21.878
G2 X12.332 Y23.09 I0.002 J7.698
X9.38 Y26.294 I4.607 J7.207
X9.352 Y26.347 I7.979 J4.226
X9.688 Y28.601 I1.718 J0.895
G3 X10.531 Y30.718 I-2.095 J2.06
G2 X10.573 Y31.68 I7.564 J0.148
G3 X10.717 Y34.341 I-24.638 J2.667
X9.754 Y35.304 I-0.963
G1 X-9.754
G3 X-10.718 Y34.341 J-0.964
X-10.707 Y30.139 I755.167 J-0.213
G2 X-12.22 Y26.22 I-5.756 J-0.03
X-14.255 Y24.699 I-5.028 J4.609
X-16.722 Y24.091 I-2.643 J5.412
G1 X-23.252 Y24.216
G3 X-24.215 Y23.253 J-0.963
G1 X-24.216 Y-23.253
G3 X-23.253 Y-24.216 I0.963
G1 X23.253
G3 X24.216 Y-23.253 J0.963
G1 X24.215 Y23.254
G3 X23.252 Y24.217 I-0.964
X19.51 Y24.042 I-0.008 J-39.937
G2 X15.767 Y24.204 I-1.283 J13.668
X12.554 Y25.876 I1.099 J6.037
X10.758 Y29.021 I4.727 J4.785
X10.531 Y30.718 I7.337 J1.844
X11.76 Y32.512 I1.871 J0.037
G3 X13.028 Y34.279 I-0.663 J1.815
X13.058 Y36.681 I-97.017 J2.424
X12.095 Y37.644 I-0.963
G1 X-12.094
G3 X-13.058 Y36.681 J-0.964
X-12.869 Y33.162 I32.73 J-0.009
G2 X-13.016 Y29.641 I-11.778 J-1.27
X-14.091 Y27.646 I-3.729 J0.721
X-16.066 Y26.533 I-3.073 J3.146
X-16.612 Y26.443 I-0.791 J3.065
X-17.165 Y26.421 I-0.553 J7.135
G1 X-25.592 Y26.557
G3 X-26.556 Y25.594 J-0.963
G1 X-26.557 Y-25.594
G3 X-25.593 Y-26.557 I0.963
G1 X25.593
G3 X26.557 Y-25.594 J0.963
G1 X26.556 Y25.594
G3 X25.592 Y26.557 I-0.964
X21.267 Y26.49 I-0.029 J-137.869
G2 X16.942 Y26.423 I-4.296 J137.802
X12.875 Y30.748 I0.001 J4.075
G3 X13.028 Y34.279 I-96.865 J5.955
G2 X14.232 Y36.032 I1.948 J-0.049
G3 X15.414 Y37.799 I-0.73 J1.768
G1 X15.415 Y40
X-15.416
X-15.413 Y39.93
G2 Y39.901 I-0.793 J-0.029
G1 X-15.415 Y30.435
G2 X-15.43 Y30.284 I-0.794
G1 X-15.462 Y30.114
G2 X-15.509 Y29.96 I-0.779 J0.151
G1 X-15.567 Y29.821
G2 X-15.631 Y29.699 I-0.733 J0.305
G1 X-15.698 Y29.593
G2 X-15.782 Y29.485 I-0.669 J0.428
G1 X-15.883 Y29.375
G2 X-15.987 Y29.28 I-0.585 J0.536
G1 X-16.093 Y29.199
G2 X-16.218 Y29.121 I-0.481 J0.631
G1 X-16.364 Y29.048
G2 X-16.521 Y28.989 I-0.355 J0.71
G1 X-16.688 Y28.946
G2 X-16.863 Y28.921 I-0.198 J0.769
G1 X-17.142 Y28.913
G2 X-17.165 I-0.023 J0.793
G1 X-26.857
X-27.56 Y28.804
X-28.068 Y28.552
X-28.178 Y28.465
X-28.479 Y28.163
X-28.56 Y28.054
X-28.807 Y27.544
X-28.911 Y26.884
X-28.912 Y-26.876
X-28.804 Y-27.557
X-28.759 Y-27.665
X-28.559 Y-28.057
X-28.462 Y-28.182
X-28.177 Y-28.467
X-28.059 Y-28.557
X-27.554 Y-28.803
X-27.505 Y-28.813
X-26.857 Y-28.913
X26.857
X27.56 Y-28.804
X28.057 Y-28.558
X28.175 Y-28.468
X28.496 Y-28.142
X28.557 Y-28.062
X28.759 Y-27.665
X28.804 Y-27.557
X28.912 Y-26.876
X28.911 Y26.884
X28.807 Y27.544
X28.56 Y28.054
X28.481 Y28.16
X28.134 Y28.503
X28.074 Y28.549
X27.554 Y28.803
X27.513 Y28.811
X26.857 Y28.913
X16.942 Y28.915
G2 X16.8 Y28.927 J0.794
G1 X16.633 Y28.958
G2 X16.472 Y29.005 I0.142 J0.781
G1 X16.319 Y29.068
G2 X16.195 Y29.133 I0.303 J0.734
G1 X16.098 Y29.195
G2 X15.99 Y29.278 I0.428 J0.669
G1 X15.876 Y29.382
G2 X15.779 Y29.488 I0.535 J0.586
G1 X15.699 Y29.592
G2 X15.62 Y29.719 I0.632 J0.481
G1 X15.546 Y29.869
G2 X15.486 Y30.029 I0.71 J0.354
G1 X15.444 Y30.199
G2 X15.421 Y30.347 I0.77 J0.194
G1 X15.414 Y30.474
G2 X15.413 Y30.52 I0.792 J0.045
G1 X15.414 Y37.799
G3 X15.399 Y37.895 Z-3.984 I-0.318
X15.361 Y37.975 Z-3.939 I-0.302 J-0.096
X15.316 Y38.028 Z-3.869 I-0.264 J-0.176
X15.281 Y38.057 Z-3.781 I-0.219 J-0.23
X15.268 Y38.066 Z-3.683 I-0.184 J-0.258
G0 Z5
X-0.05 Y-1.153
Z3
G1 Z-1.806 F762
G3 Y-1.163 Z-1.849 I0.05 J-0.005
X-0.039 Y-1.189 Z-1.883 I0.05 J0.005
X-0.004 Y-1.208 Z-1.9 I0.039 J0.031
X0.004 Y-1.108 Z-1.928 I0.004 J0.05
X-0.004 Y-1.208 Z-1.955 I-0.004 J-0.05
X0.004 Y-1.108 Z-1.983 I0.004 J0.05
X-0.004 Y-1.208 Z-2.011 I-0.004 J-0.05
X0.004 Y-1.108 Z-2.038 I0.004 J0.05
X-0.004 Y-1.208 Z-2.066 I-0.004 J-0.05
X0.004 Y-1.108 Z-2.094 I0.004 J0.05
X-0.004 Y-1.208 Z-2.122 I-0.004 J-0.05
X0.004 Y-1.108 Z-2.149 I0.004 J0.05
X-0.004 Y-1.208 Z-2.177 I-0.004 J-0.05
X0.004 Y-1.108 Z-2.205 I0.004 J0.05
X-0.004 Y-1.208 Z-2.232 I-0.004 J-0.05
X0.004 Y-1.108 Z-2.26 I0.004 J0.05
X-0.004 Y-1.208 Z-2.288 I-0.004 J-0.05
X0.004 Y-1.108 Z-2.315 I0.004 J0.05
X-0.004 Y-1.208 Z-2.343 I-0.004 J-0.05
X0.004 Y-1.108 Z-2.371 I0.004 J0.05
X-0.004 Y-1.208 Z-2.399 I-0.004 J-0.05
X0.004 Y-1.108 Z-2.426 I0.004 J0.05
X-0.004 Y-1.208 Z-2.454 I-0.004 J-0.05
X0.004 Y-1.108 Z-2.482 I0.004 J0.05
X-0.004 Y-1.208 Z-2.509 I-0.004 J-0.05
X0.004 Y-1.108 Z-2.537 I0.004 J0.05
X-0.004 Y-1.208 Z-2.565 I-0.004 J-0.05
X0.004 Y-1.108 Z-2.592 I0.004 J0.05
X-0.004 Y-1.208 Z-2.62 I-0.004 J-0.05
X0.004 Y-1.108 Z-2.648 I0.004 J0.05
X-0.004 Y-1.208 Z-2.676 I-0.004 J-0.05
X0.004 Y-1.108 Z-2.703 I0.004 J0.05
X-0.004 Y-1.208 Z-2.731 I-0.004 J-0.05
X0.004 Y-1.108 Z-2.759 I0.004 J0.05
X-0.004 Y-1.208 Z-2.786 I-0.004 J-0.05
X0.004 Y-1.108 Z-2.814 I0.004 J0.05
X-0.004 Y-1.208 Z-2.842 I-0.004 J-0.05
X0.004 Y-1.108 Z-2.869 I0.004 J0.05
X-0.004 Y-1.208 Z-2.897 I-0.004 J-0.05
X0.004 Y-1.108 Z-2.925 I0.004 J0.05
X-0.004 Y-1.208 Z-2.953 I-0.004 J-0.05
X0.004 Y-1.108 Z-2.98 I0.004 J0.05
X-0.004 Y-1.208 Z-3.008 I-0.004 J-0.05
X0.004 Y-1.108 Z-3.036 I0.004 J0.05
X-0.004 Y-1.208 Z-3.063 I-0.004 J-0.05
X0.004 Y-1.108 Z-3.091 I0.004 J0.05
X-0.004 Y-1.208 Z-3.119 I-0.004 J-0.05
X0.004 Y-1.108 Z-3.146 I0.004 J0.05
X-0.004 Y-1.208 Z-3.174 I-0.004 J-0.05
X0.004 Y-1.108 Z-3.202 I0.004 J0.05
X-0.004 Y-1.208 Z-3.229 I-0.004 J-0.05
X0.004 Y-1.108 Z-3.257 I0.004 J0.05
X-0.004 Y-1.208 Z-3.285 I-0.004 J-0.05
X0.004 Y-1.108 Z-3.313 I0.004 J0.05
X-0.004 Y-1.208 Z-3.34 I-0.004 J-0.05
X0.004 Y-1.108 Z-3.368 I0.004 J0.05
X-0.004 Y-1.208 Z-3.396 I-0.004 J-0.05
X0.004 Y-1.108 Z-3.423 I0.004 J0.05
X-0.004 Y-1.208 Z-3.451 I-0.004 J-0.05
X0.004 Y-1.108 Z-3.479 I0.004 J0.05
X-0.004 Y-1.208 Z-3.506 I-0.004 J-0.05
X0.004 Y-1.108 Z-3.534 I0.004 J0.05
X-0.004 Y-1.208 Z-3.562 I-0.004 J-0.05
X0.004 Y-1.108 Z-3.59 I0.004 J0.05
X-0.004 Y-1.208 Z-3.617 I-0.004 J-0.05
X0.004 Y-1.108 Z-3.645 I0.004 J0.05
X-0.004 Y-1.208 Z-3.673 I-0.004 J-0.05
X0.004 Y-1.108 Z-3.7 I0.004 J0.05
X-0.004 Y-1.208 Z-3.728 I-0.004 J-0.05
X0.004 Y-1.108 Z-3.756 I0.004 J0.05
X-0.004 Y-1.208 Z-3.783 I-0.004 J-0.05
X0.004 Y-1.108 Z-3.811 I0.004 J0.05
X-0.004 Y-1.208 Z-3.839 I-0.004 J-0.05
X0.004 Y-1.108 Z-3.867 I0.004 J0.05
X-0.004 Y-1.208 Z-3.894 I-0.004 J-0.05
X0.004 Y-1.108 Z-3.922 I0.004 J0.05
X-0.004 Y-1.208 Z-3.95 I-0.004 J-0.05
X0.004 Y-1.108 Z-3.977 I0.004 J0.05
X-0.004 Y-1.208 Z-4.005 I-0.004 J-0.05
X0.004 Y-1.108 Z-4.033 I0.004 J0.05
X-0.004 Y-1.208 Z-4.06 I-0.004 J-0.05
X0.004 Y-1.108 Z-4.088 I0.004 J0.05
X-0.004 Y-1.208 Z-4.116 I-0.004 J-0.05
X0.004 Y-1.108 Z-4.143 I0.004 J0.05
X-0.004 Y-1.208 Z-4.171 I-0.004 J-0.05
X0.004 Y-1.108 Z-4.199 I0.004 J0.05
X-0.004 Y-1.208 Z-4.227 I-0.004 J-0.05
X0.004 Y-1.108 Z-4.254 I0.004 J0.05
X-0.004 Y-1.208 Z-4.282 I-0.004 J-0.05
X0.004 Y-1.108 Z-4.31 I0.004 J0.05
X-0.004 Y-1.208 Z-4.337 I-0.004 J-0.05
X0.004 Y-1.108 Z-4.365 I0.004 J0.05
X-0.004 Y-1.208 Z-4.393 I-0.004 J-0.05
X0.004 Y-1.108 Z-4.42 I0.004 J0.05
X-0.004 Y-1.208 Z-4.448 I-0.004 J-0.05
X0.004 Y-1.108 Z-4.476 I0.004 J0.05
X-0.004 Y-1.208 Z-4.504 I-0.004 J-0.05
X0.004 Y-1.108 Z-4.531 I0.004 J0.05
X-0.004 Y-1.208 Z-4.559 I-0.004 J-0.05
X0.004 Y-1.108 Z-4.587 I0.004 J0.05
X-0.004 Y-1.208 Z-4.614 I-0.004 J-0.05
X0.004 Y-1.108 Z-4.642 I0.004 J0.05
X-0.004 Y-1.208 Z-4.67 I-0.004 J-0.05
X0.004 Y-1.108 Z-4.697 I0.004 J0.05
X-0.004 Y-1.208 Z-4.725 I-0.004 J-0.05
X0.004 Y-1.108 Z-4.753 I0.004 J0.05
X-0.004 Y-1.208 Z-4.781 I-0.004 J-0.05
X0.004 Y-1.108 Z-4.808 I0.004 J0.05
X-0.004 Y-1.208 Z-4.836 I-0.004 J-0.05
X0.004 Y-1.108 Z-4.864 I0.004 J0.05
X-0.004 Y-1.208 Z-4.891 I-0.004 J-0.05
X0.004 Y-1.108 Z-4.919 I0.004 J0.05
X-0.004 Y-1.208 Z-4.947 I-0.004 J-0.05
X0.004 Y-1.108 Z-4.974 I0.004 J0.05
X-0.004 Y-1.208 Z-5.002 I-0.004 J-0.05
X0.004 Y-1.108 Z-5.03 I0.004 J0.05
X-0.004 Y-1.208 Z-5.058 I-0.004 J-0.05
X0.004 Y-1.108 Z-5.085 I0.004 J0.05
X-0.004 Y-1.208 Z-5.113 I-0.004 J-0.05
X0.004 Y-1.108 Z-5.141 I0.004 J0.05
X-0.004 Y-1.208 Z-5.168 I-0.004 J-0.05
X0.004 Y-1.108 Z-5.196 I0.004 J0.05
X-0.004 Y-1.208 Z-5.224 I-0.004 J-0.05
X0.004 Y-1.108 Z-5.251 I0.004 J0.05
X-0.004 Y-1.208 Z-5.279 I-0.004 J-0.05
X0.004 Y-1.108 Z-5.307 I0.004 J0.05
X-0.004 Y-1.208 Z-5.334 I-0.004 J-0.05
X0.004 Y-1.108 Z-5.362 I0.004 J0.05
X-0.004 Y-1.208 Z-5.39 I-0.004 J-0.05
X0.004 Y-1.108 Z-5.418 I0.004 J0.05
X-0.004 Y-1.208 Z-5.445 I-0.004 J-0.05
X0.004 Y-1.108 Z-5.473 I0.004 J0.05
X-0.004 Y-1.208 Z-5.501 I-0.004 J-0.05
X0.004 Y-1.108 Z-5.528 I0.004 J0.05
X-0.004 Y-1.208 Z-5.556 I-0.004 J-0.05
X0.004 Y-1.108 Z-5.584 I0.004 J0.05
X-0.004 Y-1.208 Z-5.611 I-0.004 J-0.05
X0.004 Y-1.108 Z-5.639 I0.004 J0.05
X-0.004 Y-1.208 Z-5.667 I-0.004 J-0.05
X0.004 Y-1.108 Z-5.695 I0.004 J0.05
X-0.004 Y-1.208 Z-5.722 I-0.004 J-0.05
X0.004 Y-1.108 Z-5.75 I0.004 J0.05
X-0.004 Y-1.208 Z-5.778 I-0.004 J-0.05
X0.004 Y-1.108 Z-5.805 I0.004 J0.05
X-0.004 Y-1.208 Z-5.833 I-0.004 J-0.05
X0.004 Y-1.108 Z-5.861 I0.004 J0.05
X-0.004 Y-1.208 Z-5.888 I-0.004 J-0.05
X0.004 Y-1.108 Z-5.916 I0.004 J0.05
X-0.004 Y-1.208 Z-5.944 I-0.004 J-0.05
X0.004 Y-1.108 Z-5.972 I0.004 J0.05
X-0.05 Y-1.155 Z-5.986 I-0.004 J-0.05
X0 Y-1.208 Z-6 I0.05 J-0.002
G1 X0.244
G3 X1.207 Y-0.244 J0.963
G1 Y5.316
G3 X0.781 Y6.109 I-0.951
G2 X0.658 Y6.192 I7.872 J11.877
X0.534 Y6.275 I7.872 J11.877
G3 X-0.535 Y6.274 I-0.534 J-0.787
G2 X-0.659 Y6.19 I-8.019 J11.778
X-0.783 Y6.107 I-8.019 J11.778
G3 X-1.207 Y5.315 I0.527 J-0.792
G1 Y-0.244
G3 X-0.244 Y-1.208 I0.963
G1 X0
G2 X1.609 Y-2.339 J-1.71
G3 X3.548 Y-2.001 I0.94 J0.338
G1 X3.547 Y5.892
G3 X2.517 Y7.773 I-2.232
G2 X0.765 Y8.987 I15.451 J24.171
G3 X-0.771 Y8.985 I-0.767 J-1.016
G2 X-2.497 Y7.783 I-15.802 J20.845
G3 X-3.547 Y5.866 I1.225 J-1.918
G1 X-3.548 Y-2.585
G3 X-2.584 Y-3.548 I0.963
G1 X2.584
G3 X3.548 Y-2.585 J0.963
G1 Y-2.001
G2 X4.718 Y-0.246 I1.902
G3 X5.888 Y1.51 I-0.731 J1.755
G1 Y7.334
G3 X4.867 Y9.088 I-2.017
G2 X0.723 Y12.044 I12.164 J21.434
G3 X-0.717 Y12.046 I-0.721 J-0.813
G2 X-5.012 Y9.008 I-16.298 J18.486
G3 X-5.888 Y7.519 I0.827 J-1.489
G1 Y-4.926
G3 X-4.925 Y-5.889 I0.963
G1 X4.925
G3 X5.888 Y-4.926 J0.963
G1 Y1.51
G2 X7.058 Y3.265 I1.902
G3 X8.229 Y5.021 I-0.731 J1.755
G1 Y8.875
G3 X7.216 Y10.494 I-1.801
G2 X0.621 Y15.41 I9.679 J19.868
G3 X-0.628 Y15.408 I-0.624 J-0.575
G2 X-6.952 Y10.617 I-16.283 J14.925
X-7.113 Y10.543 I-1.179 J2.355
G3 X-7.275 Y10.469 I1.415 J-3.293
X-8.229 Y8.94 I0.749 J-1.529
G1 Y-7.266
G3 X-7.266 Y-8.23 I0.963
G1 X7.266
G3 X8.229 Y-7.266 J0.963
G1 Y5.021
G2 X9.345 Y6.695 I1.813
G3 X10.461 Y8.369 I-0.697 J1.674
G1 Y10.444
G3 X9.458 Y11.939 I-1.617
G2 X0.52 Y19.102 I7.73 J18.806
G3 X-0.521 Y19.1 I-0.52 J-0.361
G2 X-9.655 Y11.856 I-16.407 J11.307
G3 X-10.46 Y10.672 I0.467 J-1.184
G1 X-10.461 Y-9.498
G3 X-9.498 Y-10.462 I0.963
G1 X9.498
G3 X10.461 Y-9.498 J0.963
G1 Y8.369
G2 X11.486 Y9.907 I1.667
G3 X12.512 Y11.446 I-0.641 J1.539
G1 Y12.011
G3 X11.523 Y13.368 I-1.424
G2 X0.645 Y23.02 I5.505 J17.161
G3 X-0.646 Y23.016 I-0.644 J-0.297
G2 X-4.066 Y17.946 I-16.746 J7.607
X-8.982 Y14.306 I-12.869 J12.243
X-10.28 Y13.769 I-4.385 J8.756
X-11.617 Y13.339 I-22.841 J68.764
G3 X-12.512 Y12.123 I0.378 J-1.216
G1 X-12.513 Y-11.55
G3 X-11.55 Y-12.513 I0.963
G1 X11.55
G3 X12.513 Y-11.55 J0.963
G1 X12.512 Y11.446
G2 X13.844 Y12.95 I1.515
G3 X14.481 Y14.855 I-0.135 J1.104
X13.875 Y15.172 I-0.843 J-0.875
G2 X2.371 Y24.952 I3.03 J15.221
G3 X0.936 Y25.941 I-1.434 J-0.545
G1 X-0.933
G3 X-2.373 Y24.951 J-1.542
G2 X-4.441 Y21.073 I-16.586 J6.355
X-7.491 Y17.908 I-11.795 J8.314
X-10.201 Y16.326 I-7.767 J10.194
X-13.171 Y15.312 I-8.096 J18.858
X-13.505 Y15.241 I-0.999 J3.874
G3 X-13.841 Y15.178 I1.44 J-8.536
X-14.853 Y13.931 I0.261 J-1.246
G1 Y-13.891
G3 X-13.89 Y-14.854 I0.963
G1 X13.89
G3 X14.853 Y-13.891 J0.963
G1 Y13.981
G3 X14.481 Y14.855 I-1.215
G2 X13.448 Y16.61 I2.632 J2.731
G3 X12.096 Y18.131 I-2.189 J-0.584
G2 X8.512 Y20.265 I4.885 J12.284
X4.088 Y27.308 I8.612 J10.32
G3 X2.839 Y28.282 I-1.249 J-0.314
G1 X-2.848
G3 X-4.084 Y27.311 J-1.272
G2 X-16.288 Y17.217 I-12.861 J3.125
G3 X-17.193 Y16.267 I0.046 J-0.95
G1 X-17.194 Y-16.231
G3 X-16.231 Y-17.195 I0.963
G1 X16.231
G3 X17.194 Y-16.231 J0.963
G1 X17.193 Y16.219
G3 X16.25 Y17.216 I-0.998
G2 X12.096 Y18.131 I0.731 J13.199
X10.931 Y19.928 I0.684 J1.72
G3 X10.057 Y21.883 I-2.401 J0.1
G2 X8.779 Y23.129 I6.789 J8.245
X6.068 Y29.674 I8.455 J7.335
G3 X5.05 Y30.623 I-1.018 J-0.072
G1 X-5.054
G3 X-6.066 Y29.683 J-1.014
G2 X-9.507 Y22.51 I-10.879 J0.806
X-16.866 Y19.486 I-7.689 J8.249
X-17.719 Y19.505 I-0.247 J8.428
G3 X-18.571 Y19.535 I-0.852 J-11.83
X-19.534 Y18.572 J-0.963
G1 X-19.535 Y-18.572
G3 X-18.572 Y-19.535 I0.963
G1 X18.572
G3 X19.535 Y-18.572 J0.963
G1 X19.534 Y18.573
G3 X18.571 Y19.537 I-0.964
X16.75 Y19.497 I-0.009 J-41.132
G2 X14.933 Y19.621 I-0.359 J8.134
X10.057 Y21.883 I1.913 J10.508
X9.48 Y24.079 I1.234 J1.499
G3 X9.352 Y26.347 I-2.575 J0.992
G2 X8.33 Y30.522 I8.007 J4.173
X8.353 Y31.261 I11.839 J-0.003
G3 X8.376 Y32 I-11.816 J0.742
X7.413 Y32.963 I-0.963
G1 X-7.414
G3 X-8.378 Y32 J-0.964
G2 X-8.396 Y29.575 I-171.508 J0.048
X-8.889 Y27.2 I-6.412 J0.092
X-11.968 Y23.333 I-8.326 J3.47
X-16.654 Y21.754 I-4.933 J6.9
X-18.783 Y21.8 I-0.618 J21.112
G3 X-20.911 Y21.876 I-2.128 J-29.667
X-21.875 Y20.913 J-0.963
G1 X-21.876 Y-20.913
G3 X-20.912 Y-21.876 I0.963
G1 X20.912
G3 X21.876 Y-20.913 J0.963
G1 X21.875 Y20.914
G3 X20.911 Y21.877 I-0.964
G1 X16.476 Y21.878
G2 X12.332 Y23.09 I0.002 J7.698
X9.38 Y26.294 I4.607 J7.207
X9.352 Y26.347 I7.979 J4.226
X9.688 Y28.601 I1.718 J0.895
G3 X10.531 Y30.718 I-2.095 J2.06
G2 X10.573 Y31.68 I7.564 J0.148
G3 X10.717 Y34.341 I-24.638 J2.667
X9.754 Y35.304 I-0.963
G1 X-9.754
G3 X-10.718 Y34.341 J-0.964
X-10.707 Y30.139 I755.167 J-0.213
G2 X-12.22 Y26.22 I-5.756 J-0.03
X-14.255 Y24.699 I-5.028 J4.609
X-16.722 Y24.091 I-2.643 J5.412
G1 X-23.252 Y24.216
G3 X-24.215 Y23.253 J-0.963
G1 X-24.216 Y-23.253
G3 X-23.253 Y-24.216 I0.963
G1 X23.253
G3 X24.216 Y-23.253 J0.963
G1 X24.215 Y23.254
G3 X23.252 Y24.217 I-0.964
X19.51 Y24.042 I-0.008 J-39.937
G2 X15.767 Y24.204 I-1.283 J13.668
X12.554 Y25.876 I1.099 J6.037
X10.758 Y29.021 I4.727 J4.785
X10.531 Y30.718 I7.337 J1.844
X11.76 Y32.512 I1.871 J0.037
G3 X13.028 Y34.279 I-0.663 J1.815
X13.058 Y36.681 I-97.017 J2.424
X12.095 Y37.644 I-0.963
G1 X-12.094
G3 X-13.058 Y36.681 J-0.964
X-12.869 Y33.162 I32.73 J-0.009
G2 X-13.016 Y29.641 I-11.778 J-1.27
X-14.091 Y27.646 I-3.729 J0.721
X-16.066 Y26.533 I-3.073 J3.146
X-16.612 Y26.443 I-0.791 J3.065
X-17.165 Y26.421 I-0.553 J7.135
G1 X-25.592 Y26.557
G3 X-26.556 Y25.594 J-0.963
G1 X-26.557 Y-25.594
G3 X-25.593 Y-26.557 I0.963
G1 X25.593
G3 X26.557 Y-25.594 J0.963
G1 X26.556 Y25.594
G3 X25.592 Y26.557 I-0.964
X21.267 Y26.49 I-0.029 J-137.869
G2 X16.942 Y26.423 I-4.296 J137.802
X12.875 Y30.748 I0.001 J4.075
G3 X13.028 Y34.279 I-96.865 J5.955
G2 X14.232 Y36.032 I1.948 J-0.049
G3 X15.414 Y37.799 I-0.73 J1.768
G1 X15.415 Y40
X-15.416
X-15.413 Y39.93
G2 Y39.901 I-0.793 J-0.029
G1 X-15.415 Y30.435
G2 X-15.43 Y30.284 I-0.794
G1 X-15.462 Y30.114
G2 X-15.509 Y29.96 I-0.779 J0.151
G1 X-15.567 Y29.821
G2 X-15.631 Y29.699 I-0.733 J0.305
G1 X-15.698 Y29.593
G2 X-15.782 Y29.485 I-0.669 J0.428
G1 X-15.883 Y29.375
G2 X-15.987 Y29.28 I-0.585 J0.536
G1 X-16.093 Y29.199
G2 X-16.218 Y29.121 I-0.481 J0.631
G1 X-16.364 Y29.048
G2 X-16.521 Y28.989 I-0.355 J0.71
G1 X-16.688 Y28.946
G2 X-16.863 Y28.921 I-0.198 J0.769
G1 X-17.142 Y28.913
G2 X-17.165 I-0.023 J0.793
G1 X-26.857
X-27.56 Y28.804
X-28.068 Y28.552
X-28.178 Y28.465
X-28.479 Y28.163
X-28.56 Y28.054
X-28.807 Y27.544
X-28.911 Y26.884
X-28.912 Y-26.876
X-28.804 Y-27.557
X-28.759 Y-27.665
X-28.559 Y-28.057
X-28.462 Y-28.182
X-28.177 Y-28.467
X-28.059 Y-28.557
X-27.554 Y-28.803
X-27.505 Y-28.813
X-26.857 Y-28.913
X26.857
X27.56 Y-28.804
X28.057 Y-28.558
X28.175 Y-28.468
X28.496 Y-28.142
X28.557 Y-28.062
X28.759 Y-27.665
X28.804 Y-27.557
X28.912 Y-26.876
X28.911 Y26.884
X28.807 Y27.544
X28.56 Y28.054
X28.481 Y28.16
X28.134 Y28.503
X28.074 Y28.549
X27.554 Y28.803
X27.513 Y28.811
X26.857 Y28.913
X16.942 Y28.915
G2 X16.8 Y28.927 J0.794
G1 X16.633 Y28.958
G2 X16.472 Y29.005 I0.142 J0.781
G1 X16.319 Y29.068
G2 X16.195 Y29.133 I0.303 J0.734
G1 X16.098 Y29.195
G2 X15.99 Y29.278 I0.428 J0.669
G1 X15.876 Y29.382
G2 X15.779 Y29.488 I0.535 J0.586
G1 X15.699 Y29.592
G2 X15.62 Y29.719 I0.632 J0.481
G1 X15.546 Y29.869
G2 X15.486 Y30.029 I0.71 J0.354
G1 X15.444 Y30.199
G2 X15.421 Y30.347 I0.77 J0.194
G1 X15.414 Y30.474
G2 X15.413 Y30.52 I0.792 J0.045
G1 X15.414 Y37.799
G3 X15.399 Y37.895 Z-5.984 I-0.318
X15.361 Y37.975 Z-5.939 I-0.302 J-0.096
X15.316 Y38.028 Z-5.869 I-0.264 J-0.176
X15.281 Y38.057 Z-5.781 I-0.219 J-0.23
X15.268 Y38.066 Z-5.683 I-0.184 J-0.258
G0 Z5
X-0.05 Y-1.153
Z-3.806
G3 Y-1.163 Z-3.849 I0.05 J-0.005 F762
X-0.039 Y-1.189 Z-3.883 I0.05 J0.005
X-0.004 Y-1.208 Z-3.9 I0.039 J0.031
X0.004 Y-1.108 Z-3.928 I0.004 J0.05
X-0.004 Y-1.208 Z-3.955 I-0.004 J-0.05
X0.004 Y-1.108 Z-3.983 I0.004 J0.05
X-0.004 Y-1.208 Z-4.011 I-0.004 J-0.05
X0.004 Y-1.108 Z-4.038 I0.004 J0.05
X-0.004 Y-1.208 Z-4.066 I-0.004 J-0.05
X0.004 Y-1.108 Z-4.094 I0.004 J0.05
X-0.004 Y-1.208 Z-4.122 I-0.004 J-0.05
X0.004 Y-1.108 Z-4.149 I0.004 J0.05
X-0.004 Y-1.208 Z-4.177 I-0.004 J-0.05
X0.004 Y-1.108 Z-4.205 I0.004 J0.05
X-0.004 Y-1.208 Z-4.232 I-0.004 J-0.05
X0.004 Y-1.108 Z-4.26 I0.004 J0.05
X-0.004 Y-1.208 Z-4.288 I-0.004 J-0.05
X0.004 Y-1.108 Z-4.315 I0.004 J0.05
X-0.004 Y-1.208 Z-4.343 I-0.004 J-0.05
X0.004 Y-1.108 Z-4.371 I0.004 J0.05
X-0.004 Y-1.208 Z-4.399 I-0.004 J-0.05
X0.004 Y-1.108 Z-4.426 I0.004 J0.05
X-0.004 Y-1.208 Z-4.454 I-0.004 J-0.05
X0.004 Y-1.108 Z-4.482 I0.004 J0.05
X-0.004 Y-1.208 Z-4.509 I-0.004 J-0.05
X0.004 Y-1.108 Z-4.537 I0.004 J0.05
X-0.004 Y-1.208 Z-4.565 I-0.004 J-0.05
X0.004 Y-1.108 Z-4.592 I0.004 J0.05
X-0.004 Y-1.208 Z-4.62 I-0.004 J-0.05
X0.004 Y-1.108 Z-4.648 I0.004 J0.05
X-0.004 Y-1.208 Z-4.676 I-0.004 J-0.05
X0.004 Y-1.108 Z-4.703 I0.004 J0.05
X-0.004 Y-1.208 Z-4.731 I-0.004 J-0.05
X0.004 Y-1.108 Z-4.759 I0.004 J0.05
X-0.004 Y-1.208 Z-4.786 I-0.004 J-0.05
X0.004 Y-1.108 Z-4.814 I0.004 J0.05
X-0.004 Y-1.208 Z-4.842 I-0.004 J-0.05
X0.004 Y-1.108 Z-4.869 I0.004 J0.05
X-0.004 Y-1.208 Z-4.897 I-0.004 J-0.05
X0.004 Y-1.108 Z-4.925 I0.004 J0.05
X-0.004 Y-1.208 Z-4.953 I-0.004 J-0.05
X0.004 Y-1.108 Z-4.98 I0.004 J0.05
X-0.004 Y-1.208 Z-5.008 I-0.004 J-0.05
X0.004 Y-1.108 Z-5.036 I0.004 J0.05
X-0.004 Y-1.208 Z-5.063 I-0.004 J-0.05
X0.004 Y-1.108 Z-5.091 I0.004 J0.05
X-0.004 Y-1.208 Z-5.119 I-0.004 J-0.05
X0.004 Y-1.108 Z-5.146 I0.004 J0.05
X-0.004 Y-1.208 Z-5.174 I-0.004 J-0.05
X0.004 Y-1.108 Z-5.202 I0.004 J0.05
X-0.004 Y-1.208 Z-5.229 I-0.004 J-0.05
X0.004 Y-1.108 Z-5.257 I0.004 J0.05
X-0.004 Y-1.208 Z-5.285 I-0.004 J-0.05
X0.004 Y-1.108 Z-5.313 I0.004 J0.05
X-0.004 Y-1.208 Z-5.34 I-0.004 J-0.05
X0.004 Y-1.108 Z-5.368 I0.004 J0.05
X-0.004 Y-1.208 Z-5.396 I-0.004 J-0.05
X0.004 Y-1.108 Z-5.423 I0.004 J0.05
X-0.004 Y-1.208 Z-5.451 I-0.004 J-0.05
X0.004 Y-1.108 Z-5.479 I0.004 J0.05
X-0.004 Y-1.208 Z-5.506 I-0.004 J-0.05
X0.004 Y-1.108 Z-5.534 I0.004 J0.05
X-0.004 Y-1.208 Z-5.562 I-0.004 J-0.05
X0.004 Y-1.108 Z-5.59 I0.004 J0.05
X-0.004 Y-1.208 Z-5.617 I-0.004 J-0.05
X0.004 Y-1.108 Z-5.645 I0.004 J0.05
X-0.004 Y-1.208 Z-5.673 I-0.004 J-0.05
X0.004 Y-1.108 Z-5.7 I0.004 J0.05
X-0.004 Y-1.208 Z-5.728 I-0.004 J-0.05
X0.004 Y-1.108 Z-5.756 I0.004 J0.05
X-0.004 Y-1.208 Z-5.783 I-0.004 J-0.05
X0.004 Y-1.108 Z-5.811 I0.004 J0.05
X-0.004 Y-1.208 Z-5.839 I-0.004 J-0.05
X0.004 Y-1.108 Z-5.867 I0.004 J0.05
X-0.004 Y-1.208 Z-5.894 I-0.004 J-0.05
X0.004 Y-1.108 Z-5.922 I0.004 J0.05
X-0.004 Y-1.208 Z-5.95 I-0.004 J-0.05
X0.004 Y-1.108 Z-5.977 I0.004 J0.05
X-0.004 Y-1.208 Z-6.005 I-0.004 J-0.05
X0.004 Y-1.108 Z-6.033 I0.004 J0.05
X-0.004 Y-1.208 Z-6.06 I-0.004 J-0.05
X0.004 Y-1.108 Z-6.088 I0.004 J0.05
X-0.004 Y-1.208 Z-6.116 I-0.004 J-0.05
X0.004 Y-1.108 Z-6.143 I0.004 J0.05
X-0.004 Y-1.208 Z-6.171 I-0.004 J-0.05
X0.004 Y-1.108 Z-6.199 I0.004 J0.05
X-0.004 Y-1.208 Z-6.227 I-0.004 J-0.05
X0.004 Y-1.108 Z-6.254 I0.004 J0.05
X-0.004 Y-1.208 Z-6.282 I-0.004 J-0.05
X0.004 Y-1.108 Z-6.31 I0.004 J0.05
X-0.004 Y-1.208 Z-6.337 I-0.004 J-0.05
X0.004 Y-1.108 Z-6.365 I0.004 J0.05
X-0.004 Y-1.208 Z-6.393 I-0.004 J-0.05
X0.004 Y-1.108 Z-6.42 I0.004 J0.05
X-0.004 Y-1.208 Z-6.448 I-0.004 J-0.05
X0.004 Y-1.108 Z-6.476 I0.004 J0.05
X-0.004 Y-1.208 Z-6.504 I-0.004 J-0.05
X0.004 Y-1.108 Z-6.531 I0.004 J0.05
X-0.004 Y-1.208 Z-6.559 I-0.004 J-0.05
X0.004 Y-1.108 Z-6.587 I0.004 J0.05
X-0.004 Y-1.208 Z-6.614 I-0.004 J-0.05
X0.004 Y-1.108 Z-6.642 I0.004 J0.05
X-0.004 Y-1.208 Z-6.67 I-0.004 J-0.05
X0.004 Y-1.108 Z-6.697 I0.004 J0.05
X-0.004 Y-1.208 Z-6.725 I-0.004 J-0.05
X0.004 Y-1.108 Z-6.753 I0.004 J0.05
X-0.004 Y-1.208 Z-6.781 I-0.004 J-0.05
X0.004 Y-1.108 Z-6.808 I0.004 J0.05
X-0.004 Y-1.208 Z-6.836 I-0.004 J-0.05
X0.004 Y-1.108 Z-6.864 I0.004 J0.05
X-0.004 Y-1.208 Z-6.891 I-0.004 J-0.05
X0.004 Y-1.108 Z-6.919 I0.004 J0.05
X-0.004 Y-1.208 Z-6.947 I-0.004 J-0.05
X0.004 Y-1.108 Z-6.974 I0.004 J0.05
X-0.004 Y-1.208 Z-7.002 I-0.004 J-0.05
X0.004 Y-1.108 Z-7.03 I0.004 J0.05
X-0.004 Y-1.208 Z-7.058 I-0.004 J-0.05
X0.004 Y-1.108 Z-7.085 I0.004 J0.05
X-0.004 Y-1.208 Z-7.113 I-0.004 J-0.05
X0.004 Y-1.108 Z-7.141 I0.004 J0.05
X-0.004 Y-1.208 Z-7.168 I-0.004 J-0.05
X0.004 Y-1.108 Z-7.196 I0.004 J0.05
X-0.004 Y-1.208 Z-7.224 I-0.004 J-0.05
X0.004 Y-1.108 Z-7.251 I0.004 J0.05
X-0.004 Y-1.208 Z-7.279 I-0.004 J-0.05
X0.004 Y-1.108 Z-7.307 I0.004 J0.05
X-0.004 Y-1.208 Z-7.334 I-0.004 J-0.05
X0.004 Y-1.108 Z-7.362 I0.004 J0.05
X-0.004 Y-1.208 Z-7.39 I-0.004 J-0.05
X0.004 Y-1.108 Z-7.418 I0.004 J0.05
X-0.004 Y-1.208 Z-7.445 I-0.004 J-0.05
X0.004 Y-1.108 Z-7.473 I0.004 J0.05
X-0.004 Y-1.208 Z-7.501 I-0.004 J-0.05
X0.004 Y-1.108 Z-7.528 I0.004 J0.05
X-0.004 Y-1.208 Z-7.556 I-0.004 J-0.05
X0.004 Y-1.108 Z-7.584 I0.004 J0.05
X-0.004 Y-1.208 Z-7.611 I-0.004 J-0.05
X0.004 Y-1.108 Z-7.639 I0.004 J0.05
X-0.004 Y-1.208 Z-7.667 I-0.004 J-0.05
X0.004 Y-1.108 Z-7.695 I0.004 J0.05
X-0.004 Y-1.208 Z-7.722 I-0.004 J-0.05
X0.004 Y-1.108 Z-7.75 I0.004 J0.05
X-0.004 Y-1.208 Z-7.778 I-0.004 J-0.05
X0.004 Y-1.108 Z-7.805 I0.004 J0.05
X-0.004 Y-1.208 Z-7.833 I-0.004 J-0.05
X0.004 Y-1.108 Z-7.861 I0.004 J0.05
X-0.004 Y-1.208 Z-7.888 I-0.004 J-0.05
X0.004 Y-1.108 Z-7.916 I0.004 J0.05
X-0.004 Y-1.208 Z-7.944 I-0.004 J-0.05
X0.004 Y-1.108 Z-7.972 I0.004 J0.05
X-0.05 Y-1.155 Z-7.986 I-0.004 J-0.05
X0 Y-1.208 Z-8 I0.05 J-0.002
G1 X0.244
G3 X1.207 Y-0.244 J0.963
G1 Y5.316
G3 X0.781 Y6.109 I-0.951
G2 X0.658 Y6.192 I7.872 J11.877
X0.534 Y6.275 I7.872 J11.877
G3 X-0.535 Y6.274 I-0.534 J-0.787
G2 X-0.659 Y6.19 I-8.019 J11.778
X-0.783 Y6.107 I-8.019 J11.778
G3 X-1.207 Y5.315 I0.527 J-0.792
G1 Y-0.244
G3 X-0.244 Y-1.208 I0.963
G1 X0
G2 X1.609 Y-2.339 J-1.71
G3 X3.548 Y-2.001 I0.94 J0.338
G1 X3.547 Y5.892
G3 X2.517 Y7.773 I-2.232
G2 X0.765 Y8.987 I15.451 J24.171
G3 X-0.771 Y8.985 I-0.767 J-1.016
G2 X-2.497 Y7.783 I-15.802 J20.845
G3 X-3.547 Y5.866 I1.225 J-1.918
G1 X-3.548 Y-2.585
G3 X-2.584 Y-3.548 I0.963
G1 X2.584
G3 X3.548 Y-2.585 J0.963
G1 Y-2.001
G2 X4.718 Y-0.246 I1.902
G3 X5.888 Y1.51 I-0.731 J1.755
G1 Y7.334
G3 X4.867 Y9.088 I-2.017
G2 X0.723 Y12.044 I12.164 J21.434
G3 X-0.717 Y12.046 I-0.721 J-0.813
G2 X-5.012 Y9.008 I-16.298 J18.486
G3 X-5.888 Y7.519 I0.827 J-1.489
G1 Y-4.926
G3 X-4.925 Y-5.889 I0.963
G1 X4.925
G3 X5.888 Y-4.926 J0.963
G1 Y1.51
G2 X7.058 Y3.265 I1.902
G3 X8.229 Y5.021 I-0.731 J1.755
G1 Y8.875
G3 X7.216 Y10.494 I-1.801
G2 X0.621 Y15.41 I9.679 J19.868
G3 X-0.628 Y15.408 I-0.624 J-0.575
G2 X-6.952 Y10.617 I-16.283 J14.925
X-7.113 Y10.543 I-1.179 J2.355
G3 X-7.275 Y10.469 I1.415 J-3.293
X-8.229 Y8.94 I0.749 J-1.529
G1 Y-7.266
G3 X-7.266 Y-8.23 I0.963
G1 X7.266
G3 X8.229 Y-7.266 J0.963
G1 Y5.021
G2 X9.345 Y6.695 I1.813
G3 X10.461 Y8.369 I-0.697 J1.674
G1 Y10.444
G3 X9.458 Y11.939 I-1.617
G2 X0.52 Y19.102 I7.73 J18.806
G3 X-0.521 Y19.1 I-0.52 J-0.361
G2 X-9.655 Y11.856 I-16.407 J11.307
G3 X-10.46 Y10.672 I0.467 J-1.184
G1 X-10.461 Y-9.498
G3 X-9.498 Y-10.462 I0.963
G1 X9.498
G3 X10.461 Y-9.498 J0.963
G1 Y8.369
G2 X11.486 Y9.907 I1.667
G3 X12.512 Y11.446 I-0.641 J1.539
G1 Y12.011
G3 X11.523 Y13.368 I-1.424
G2 X0.645 Y23.02 I5.505 J17.161
G3 X-0.646 Y23.016 I-0.644 J-0.297
G2 X-4.066 Y17.946 I-16.746 J7.607
X-8.982 Y14.306 I-12.869 J12.243
X-10.28 Y13.769 I-4.385 J8.756
X-11.617 Y13.339 I-22.841 J68.764
G3 X-12.512 Y12.123 I0.378 J-1.216
G1 X-12.513 Y-11.55
G3 X-11.55 Y-12.513 I0.963
G1 X11.55
G3 X12.513 Y-11.55 J0.963
G1 X12.512 Y11.446
G2 X13.844 Y12.95 I1.515
G3 X14.481 Y14.855 I-0.135 J1.104
X13.875 Y15.172 I-0.843 J-0.875
G2 X2.371 Y24.952 I3.03 J15.221
G3 X0.936 Y25.941 I-1.434 J-0.545
G1 X-0.933
G3 X-2.373 Y24.951 J-1.542
G2 X-4.441 Y21.073 I-16.586 J6.355
X-7.491 Y17.908 I-11.795 J8.314
X-10.201 Y16.326 I-7.767 J10.194
X-13.171 Y15.312 I-8.096 J18.858
X-13.505 Y15.241 I-0.999 J3.874
G3 X-13.841 Y15.178 I1.44 J-8.536
X-14.853 Y13.931 I0.261 J-1.246
G1 Y-13.891
G3 X-13.89 Y-14.854 I0.963
G1 X13.89
G3 X14.853 Y-13.891 J0.963
G1 Y13.981
G3 X14.481 Y14.855 I-1.215
G2 X13.448 Y16.61 I2.632 J2.731
G3 X12.096 Y18.131 I-2.189 J-0.584
G2 X8.512 Y20.265 I4.885 J12.284
X4.088 Y27.308 I8.612 J10.32
G3 X2.839 Y28.282 I-1.249 J-0.314
G1 X-2.848
G3 X-4.084 Y27.311 J-1.272
G2 X-16.288 Y17.217 I-12.861 J3.125
G3 X-17.193 Y16.267 I0.046 J-0.95
G1 X-17.194 Y-16.231
G3 X-16.231 Y-17.195 I0.963
G1 X16.231
G3 X17.194 Y-16.231 J0.963
G1 X17.193 Y16.219
G3 X16.25 Y17.216 I-0.998
G2 X12.096 Y18.131 I0.731 J13.199
X10.931 Y19.928 I0.684 J1.72
G3 X10.057 Y21.883 I-2.401 J0.1
G2 X8.779 Y23.129 I6.789 J8.245
X6.068 Y29.674 I8.455 J7.335
G3 X5.05 Y30.623 I-1.018 J-0.072
G1 X-5.054
G3 X-6.066 Y29.683 J-1.014
G2 X-9.507 Y22.51 I-10.879 J0.806
X-16.866 Y19.486 I-7.689 J8.249
X-17.719 Y19.505 I-0.247 J8.428
G3 X-18.571 Y19.535 I-0.852 J-11.83
X-19.534 Y18.572 J-0.963
G1 X-19.535 Y-18.572
G3 X-18.572 Y-19.535 I0.963
G1 X18.572
G3 X19.535 Y-18.572 J0.963
G1 X19.534 Y18.573
G3 X18.571 Y19.537 I-0.964
X16.75 Y19.497 I-0.009 J-41.132
G2 X14.933 Y19.621 I-0.359 J8.134
X10.057 Y21.883 I1.913 J10.508
X9.48 Y24.079 I1.234 J1.499
G3 X9.352 Y26.347 I-2.575 J0.992
G2 X8.33 Y30.522 I8.007 J4.173
X8.353 Y31.261 I11.839 J-0.003
G3 X8.376 Y32 I-11.816 J0.742
X7.413 Y32.963 I-0.963
G1 X-7.414
G3 X-8.378 Y32 J-0.964
G2 X-8.396 Y29.575 I-171.508 J0.048
X-8.889 Y27.2 I-6.412 J0.092
X-11.968 Y23.333 I-8.326 J3.47
X-16.654 Y21.754 I-4.933 J6.9
X-18.783 Y21.8 I-0.618 J21.112
G3 X-20.911 Y21.876 I-2.128 J-29.667
X-21.875 Y20.913 J-0.963
G1 X-21.876 Y-20.913
G3 X-20.912 Y-21.876 I0.963
G1 X20.912
G3 X21.876 Y-20.913 J0.963
G1 X21.875 Y20.914
G3 X20.911 Y21.877 I-0.964
G1 X16.476 Y21.878
G2 X12.332 Y23.09 I0.002 J7.698
X9.38 Y26.294 I4.607 J7.207
X9.352 Y26.347 I7.979 J4.226
X9.688 Y28.601 I1.718 J0.895
G3 X10.531 Y30.718 I-2.095 J2.06
G2 X10.573 Y31.68 I7.564 J0.148
G3 X10.717 Y34.341 I-24.638 J2.667
X9.754 Y35.304 I-0.963
G1 X-9.754
G3 X-10.718 Y34.341 J-0.964
X-10.707 Y30.139 I755.167 J-0.213
G2 X-12.22 Y26.22 I-5.756 J-0.03
X-14.255 Y24.699 I-5.028 J4.609
X-16.722 Y24.091 I-2.643 J5.412
G1 X-23.252 Y24.216
G3 X-24.215 Y23.253 J-0.963
G1 X-24.216 Y-23.253
G3 X-23.253 Y-24.216 I0.963
G1 X23.253
G3 X24.216 Y-23.253 J0.963
G1 X24.215 Y23.254
G3 X23.252 Y24.217 I-0.964
X19.51 Y24.042 I-0.008 J-39.937
G2 X15.767 Y24.204 I-1.283 J13.668
X12.554 Y25.876 I1.099 J6.037
X10.758 Y29.021 I4.727 J4.785
X10.531 Y30.718 I7.337 J1.844
X11.76 Y32.512 I1.871 J0.037
G3 X13.028 Y34.279 I-0.663 J1.815
X13.058 Y36.681 I-97.017 J2.424
X12.095 Y37.644 I-0.963
G1 X-12.094
G3 X-13.058 Y36.681 J-0.964
X-12.869 Y33.162 I32.73 J-0.009
G2 X-13.016 Y29.641 I-11.778 J-1.27
X-14.091 Y27.646 I-3.729 J0.721
X-16.066 Y26.533 I-3.073 J3.146
X-16.612 Y26.443 I-0.791 J3.065
X-17.165 Y26.421 I-0.553 J7.135
G1 X-25.592 Y26.557
G3 X-26.556 Y25.594 J-0.963
G1 X-26.557 Y-25.594
G3 X-25.593 Y-26.557 I0.963
G1 X25.593
G3 X26.557 Y-25.594 J0.963
G1 X26.556 Y25.594
G3 X25.592 Y26.557 I-0.964
X21.267 Y26.49 I-0.029 J-137.869
G2 X16.942 Y26.423 I-4.296 J137.802
X12.875 Y30.748 I0.001 J4.075
G3 X13.028 Y34.279 I-96.865 J5.955
G2 X14.232 Y36.032 I1.948 J-0.049
G3 X15.414 Y37.799 I-0.73 J1.768
G1 X15.415 Y40
X-15.416
X-15.413 Y39.93
G2 Y39.901 I-0.793 J-0.029
G1 X-15.415 Y30.435
G2 X-15.43 Y30.284 I-0.794
G1 X-15.462 Y30.114
G2 X-15.509 Y29.96 I-0.779 J0.151
G1 X-15.567 Y29.821
G2 X-15.631 Y29.699 I-0.733 J0.305
G1 X-15.698 Y29.593
G2 X-15.782 Y29.485 I-0.669 J0.428
G1 X-15.883 Y29.375
G2 X-15.987 Y29.28 I-0.585 J0.536
G1 X-16.093 Y29.199
G2 X-16.218 Y29.121 I-0.481 J0.631
G1 X-16.364 Y29.048
G2 X-16.521 Y28.989 I-0.355 J0.71
G1 X-16.688 Y28.946
G2 X-16.863 Y28.921 I-0.198 J0.769
G1 X-17.142 Y28.913
G2 X-17.165 I-0.023 J0.793
G1 X-26.857
X-27.56 Y28.804
X-28.068 Y28.552
X-28.178 Y28.465
X-28.479 Y28.163
X-28.56 Y28.054
X-28.807 Y27.544
X-28.911 Y26.884
X-28.912 Y-26.876
X-28.804 Y-27.557
X-28.759 Y-27.665
X-28.559 Y-28.057
X-28.462 Y-28.182
X-28.177 Y-28.467
X-28.059 Y-28.557
X-27.554 Y-28.803
X-27.505 Y-28.813
X-26.857 Y-28.913
X26.857
X27.56 Y-28.804
X28.057 Y-28.558
X28.175 Y-28.468
X28.496 Y-28.142
X28.557 Y-28.062
X28.759 Y-27.665
X28.804 Y-27.557
X28.912 Y-26.876
X28.911 Y26.884
X28.807 Y27.544
X28.56 Y28.054
X28.481 Y28.16
X28.134 Y28.503
X28.074 Y28.549
X27.554 Y28.803
X27.513 Y28.811
X26.857 Y28.913
X16.942 Y28.915
G2 X16.8 Y28.927 J0.794
G1 X16.633 Y28.958
G2 X16.472 Y29.005 I0.142 J0.781
G1 X16.319 Y29.068
G2 X16.195 Y29.133 I0.303 J0.734
G1 X16.098 Y29.195
G2 X15.99 Y29.278 I0.428 J0.669
G1 X15.876 Y29.382
G2 X15.779 Y29.488 I0.535 J0.586
G1 X15.699 Y29.592
G2 X15.62 Y29.719 I0.632 J0.481
G1 X15.546 Y29.869
G2 X15.486 Y30.029 I0.71 J0.354
G1 X15.444 Y30.199
G2 X15.421 Y30.347 I0.77 J0.194
G1 X15.414 Y30.474
G2 X15.413 Y30.52 I0.792 J0.045
G1 X15.414 Y37.799
G3 X15.399 Y37.895 Z-7.984 I-0.318
X15.361 Y37.975 Z-7.939 I-0.302 J-0.096
X15.316 Y38.028 Z-7.869 I-0.264 J-0.176
X15.281 Y38.057 Z-7.781 I-0.219 J-0.23
X15.268 Y38.066 Z-7.683 I-0.184 J-0.258
G0 Z5
X-0.05 Y-1.153
Z-5.806
G3 Y-1.163 Z-5.849 I0.05 J-0.005 F762
X-0.039 Y-1.189 Z-5.883 I0.05 J0.005
X-0.004 Y-1.208 Z-5.9 I0.039 J0.031
X0.004 Y-1.108 Z-5.928 I0.004 J0.05
X-0.004 Y-1.208 Z-5.955 I-0.004 J-0.05
X0.004 Y-1.108 Z-5.983 I0.004 J0.05
X-0.004 Y-1.208 Z-6.011 I-0.004 J-0.05
X0.004 Y-1.108 Z-6.038 I0.004 J0.05
X-0.004 Y-1.208 Z-6.066 I-0.004 J-0.05
X0.004 Y-1.108 Z-6.094 I0.004 J0.05
X-0.004 Y-1.208 Z-6.122 I-0.004 J-0.05
X0.004 Y-1.108 Z-6.149 I0.004 J0.05
X-0.004 Y-1.208 Z-6.177 I-0.004 J-0.05
X0.004 Y-1.108 Z-6.205 I0.004 J0.05
X-0.004 Y-1.208 Z-6.232 I-0.004 J-0.05
X0.004 Y-1.108 Z-6.26 I0.004 J0.05
X-0.004 Y-1.208 Z-6.288 I-0.004 J-0.05
X0.004 Y-1.108 Z-6.315 I0.004 J0.05
X-0.004 Y-1.208 Z-6.343 I-0.004 J-0.05
X0.004 Y-1.108 Z-6.371 I0.004 J0.05
X-0.004 Y-1.208 Z-6.399 I-0.004 J-0.05
X0.004 Y-1.108 Z-6.426 I0.004 J0.05
X-0.004 Y-1.208 Z-6.454 I-0.004 J-0.05
X0.004 Y-1.108 Z-6.482 I0.004 J0.05
X-0.004 Y-1.208 Z-6.509 I-0.004 J-0.05
X0.004 Y-1.108 Z-6.537 I0.004 J0.05
X-0.004 Y-1.208 Z-6.565 I-0.004 J-0.05
X0.004 Y-1.108 Z-6.592 I0.004 J0.05
X-0.004 Y-1.208 Z-6.62 I-0.004 J-0.05
X0.004 Y-1.108 Z-6.648 I0.004 J0.05
X-0.004 Y-1.208 Z-6.676 I-0.004 J-0.05
X0.004 Y-1.108 Z-6.703 I0.004 J0.05
X-0.004 Y-1.208 Z-6.731 I-0.004 J-0.05
X0.004 Y-1.108 Z-6.759 I0.004 J0.05
X-0.004 Y-1.208 Z-6.786 I-0.004 J-0.05
X0.004 Y-1.108 Z-6.814 I0.004 J0.05
X-0.004 Y-1.208 Z-6.842 I-0.004 J-0.05
X0.004 Y-1.108 Z-6.869 I0.004 J0.05
X-0.004 Y-1.208 Z-6.897 I-0.004 J-0.05
X0.004 Y-1.108 Z-6.925 I0.004 J0.05
X-0.004 Y-1.208 Z-6.953 I-0.004 J-0.05
X0.004 Y-1.108 Z-6.98 I0.004 J0.05
X-0.004 Y-1.208 Z-7.008 I-0.004 J-0.05
X0.004 Y-1.108 Z-7.036 I0.004 J0.05
X-0.004 Y-1.208 Z-7.063 I-0.004 J-0.05
X0.004 Y-1.108 Z-7.091 I0.004 J0.05
X-0.004 Y-1.208 Z-7.119 I-0.004 J-0.05
X0.004 Y-1.108 Z-7.146 I0.004 J0.05
X-0.004 Y-1.208 Z-7.174 I-0.004 J-0.05
X0.004 Y-1.108 Z-7.202 I0.004 J0.05
X-0.004 Y-1.208 Z-7.229 I-0.004 J-0.05
X0.004 Y-1.108 Z-7.257 I0.004 J0.05
X-0.004 Y-1.208 Z-7.285 I-0.004 J-0.05
X0.004 Y-1.108 Z-7.313 I0.004 J0.05
X-0.004 Y-1.208 Z-7.34 I-0.004 J-0.05
X0.004 Y-1.108 Z-7.368 I0.004 J0.05
X-0.004 Y-1.208 Z-7.396 I-0.004 J-0.05
X0.004 Y-1.108 Z-7.423 I0.004 J0.05
X-0.004 Y-1.208 Z-7.451 I-0.004 J-0.05
X0.004 Y-1.108 Z-7.479 I0.004 J0.05
X-0.004 Y-1.208 Z-7.506 I-0.004 J-0.05
X0.004 Y-1.108 Z-7.534 I0.004 J0.05
X-0.004 Y-1.208 Z-7.562 I-0.004 J-0.05
X0.004 Y-1.108 Z-7.59 I0.004 J0.05
X-0.004 Y-1.208 Z-7.617 I-0.004 J-0.05
X0.004 Y-1.108 Z-7.645 I0.004 J0.05
X-0.004 Y-1.208 Z-7.673 I-0.004 J-0.05
X0.004 Y-1.108 Z-7.7 I0.004 J0.05
X-0.004 Y-1.208 Z-7.728 I-0.004 J-0.05
X0.004 Y-1.108 Z-7.756 I0.004 J0.05
X-0.004 Y-1.208 Z-7.783 I-0.004 J-0.05
X0.004 Y-1.108 Z-7.811 I0.004 J0.05
X-0.004 Y-1.208 Z-7.839 I-0.004 J-0.05
X0.004 Y-1.108 Z-7.867 I0.004 J0.05
X-0.004 Y-1.208 Z-7.894 I-0.004 J-0.05
X0.004 Y-1.108 Z-7.922 I0.004 J0.05
X-0.004 Y-1.208 Z-7.95 I-0.004 J-0.05
X0.004 Y-1.108 Z-7.977 I0.004 J0.05
X-0.004 Y-1.208 Z-8.005 I-0.004 J-0.05
X0.004 Y-1.108 Z-8.033 I0.004 J0.05
X-0.004 Y-1.208 Z-8.06 I-0.004 J-0.05
X0.004 Y-1.108 Z-8.088 I0.004 J0.05
X-0.004 Y-1.208 Z-8.116 I-0.004 J-0.05
X0.004 Y-1.108 Z-8.143 I0.004 J0.05
X-0.004 Y-1.208 Z-8.171 I-0.004 J-0.05
X0.004 Y-1.108 Z-8.199 I0.004 J0.05
X-0.004 Y-1.208 Z-8.227 I-0.004 J-0.05
X0.004 Y-1.108 Z-8.254 I0.004 J0.05
X-0.004 Y-1.208 Z-8.282 I-0.004 J-0.05
X0.004 Y-1.108 Z-8.31 I0.004 J0.05
X-0.004 Y-1.208 Z-8.337 I-0.004 J-0.05
X0.004 Y-1.108 Z-8.365 I0.004 J0.05
X-0.004 Y-1.208 Z-8.393 I-0.004 J-0.05
X0.004 Y-1.108 Z-8.42 I0.004 J0.05
X-0.004 Y-1.208 Z-8.448 I-0.004 J-0.05
X0.004 Y-1.108 Z-8.476 I0.004 J0.05
X-0.004 Y-1.208 Z-8.504 I-0.004 J-0.05
X0.004 Y-1.108 Z-8.531 I0.004 J0.05
X-0.004 Y-1.208 Z-8.559 I-0.004 J-0.05
X0.004 Y-1.108 Z-8.587 I0.004 J0.05
X-0.004 Y-1.208 Z-8.614 I-0.004 J-0.05
X0.004 Y-1.108 Z-8.642 I0.004 J0.05
X-0.004 Y-1.208 Z-8.67 I-0.004 J-0.05
X0.004 Y-1.108 Z-8.697 I0.004 J0.05
X-0.004 Y-1.208 Z-8.725 I-0.004 J-0.05
X0.004 Y-1.108 Z-8.753 I0.004 J0.05
X-0.004 Y-1.208 Z-8.781 I-0.004 J-0.05
X0.004 Y-1.108 Z-8.808 I0.004 J0.05
X-0.004 Y-1.208 Z-8.836 I-0.004 J-0.05
X0.004 Y-1.108 Z-8.864 I0.004 J0.05
X-0.004 Y-1.208 Z-8.891 I-0.004 J-0.05
X0.004 Y-1.108 Z-8.919 I0.004 J0.05
X-0.004 Y-1.208 Z-8.947 I-0.004 J-0.05
X0.004 Y-1.108 Z-8.974 I0.004 J0.05
X-0.004 Y-1.208 Z-9.002 I-0.004 J-0.05
X0.004 Y-1.108 Z-9.03 I0.004 J0.05
X-0.004 Y-1.208 Z-9.058 I-0.004 J-0.05
X0.004 Y-1.108 Z-9.085 I0.004 J0.05
X-0.004 Y-1.208 Z-9.113 I-0.004 J-0.05
X0.004 Y-1.108 Z-9.141 I0.004 J0.05
X-0.004 Y-1.208 Z-9.168 I-0.004 J-0.05
X0.004 Y-1.108 Z-9.196 I0.004 J0.05
X-0.004 Y-1.208 Z-9.224 I-0.004 J-0.05
X0.004 Y-1.108 Z-9.251 I0.004 J0.05
X-0.004 Y-1.208 Z-9.279 I-0.004 J-0.05
X0.004 Y-1.108 Z-9.307 I0.004 J0.05
X-0.004 Y-1.208 Z-9.334 I-0.004 J-0.05
X0.004 Y-1.108 Z-9.362 I0.004 J0.05
X-0.004 Y-1.208 Z-9.39 I-0.004 J-0.05
X0.004 Y-1.108 Z-9.418 I0.004 J0.05
X-0.004 Y-1.208 Z-9.445 I-0.004 J-0.05
X0.004 Y-1.108 Z-9.473 I0.004 J0.05
X-0.004 Y-1.208 Z-9.501 I-0.004 J-0.05
X0.004 Y-1.108 Z-9.528 I0.004 J0.05
X-0.004 Y-1.208 Z-9.556 I-0.004 J-0.05
X0.004 Y-1.108 Z-9.584 I0.004 J0.05
X-0.004 Y-1.208 Z-9.611 I-0.004 J-0.05
X0.004 Y-1.108 Z-9.639 I0.004 J0.05
X-0.004 Y-1.208 Z-9.667 I-0.004 J-0.05
X0.004 Y-1.108 Z-9.695 I0.004 J0.05
X-0.004 Y-1.208 Z-9.722 I-0.004 J-0.05
X0.004 Y-1.108 Z-9.75 I0.004 J0.05
X-0.004 Y-1.208 Z-9.778 I-0.004 J-0.05
X0.004 Y-1.108 Z-9.805 I0.004 J0.05
X-0.004 Y-1.208 Z-9.833 I-0.004 J-0.05
X0.004 Y-1.108 Z-9.861 I0.004 J0.05
X-0.004 Y-1.208 Z-9.888 I-0.004 J-0.05
X0.004 Y-1.108 Z-9.916 I0.004 J0.05
X-0.004 Y-1.208 Z-9.944 I-0.004 J-0.05
X0.004 Y-1.108 Z-9.972 I0.004 J0.05
X-0.05 Y-1.155 Z-9.986 I-0.004 J-0.05
X0 Y-1.208 Z-10 I0.05 J-0.002
G1 X0.244
G3 X1.207 Y-0.244 J0.963
G1 Y5.316
G3 X0.781 Y6.109 I-0.951
G2 X0.658 Y6.192 I7.872 J11.877
X0.534 Y6.275 I7.872 J11.877
G3 X-0.535 Y6.274 I-0.534 J-0.787
G2 X-0.659 Y6.19 I-8.019 J11.778
X-0.783 Y6.107 I-8.019 J11.778
G3 X-1.207 Y5.315 I0.527 J-0.792
G1 Y-0.244
G3 X-0.244 Y-1.208 I0.963
G1 X0
G2 X1.609 Y-2.339 J-1.71
G3 X3.548 Y-2.001 I0.94 J0.338
G1 X3.547 Y5.892
G3 X2.517 Y7.773 I-2.232
G2 X0.765 Y8.987 I15.451 J24.171
G3 X-0.771 Y8.985 I-0.767 J-1.016
G2 X-2.497 Y7.783 I-15.802 J20.845
G3 X-3.547 Y5.866 I1.225 J-1.918
G1 X-3.548 Y-2.585
G3 X-2.584 Y-3.548 I0.963
G1 X2.584
G3 X3.548 Y-2.585 J0.963
G1 Y-2.001
G2 X4.718 Y-0.246 I1.902
G3 X5.888 Y1.51 I-0.731 J1.755
G1 Y7.334
G3 X4.867 Y9.088 I-2.017
G2 X0.723 Y12.044 I12.164 J21.434
G3 X-0.717 Y12.046 I-0.721 J-0.813
G2 X-5.012 Y9.008 I-16.298 J18.486
G3 X-5.888 Y7.519 I0.827 J-1.489
G1 Y-4.926
G3 X-4.925 Y-5.889 I0.963
G1 X4.925
G3 X5.888 Y-4.926 J0.963
G1 Y1.51
G2 X7.058 Y3.265 I1.902
G3 X8.229 Y5.021 I-0.731 J1.755
G1 Y8.875
G3 X7.216 Y10.494 I-1.801
G2 X0.621 Y15.41 I9.679 J19.868
G3 X-0.628 Y15.408 I-0.624 J-0.575
G2 X-6.952 Y10.617 I-16.283 J14.925
X-7.113 Y10.543 I-1.179 J2.355
G3 X-7.275 Y10.469 I1.415 J-3.293
X-8.229 Y8.94 I0.749 J-1.529
G1 Y-7.266
G3 X-7.266 Y-8.23 I0.963
G1 X7.266
G3 X8.229 Y-7.266 J0.963
G1 Y5.021
G2 X9.345 Y6.695 I1.813
G3 X10.461 Y8.369 I-0.697 J1.674
G1 Y10.444
G3 X9.458 Y11.939 I-1.617
G2 X0.52 Y19.102 I7.73 J18.806
G3 X-0.521 Y19.1 I-0.52 J-0.361
G2 X-9.655 Y11.856 I-16.407 J11.307
G3 X-10.46 Y10.672 I0.467 J-1.184
G1 X-10.461 Y-9.498
G3 X-9.498 Y-10.462 I0.963
G1 X9.498
G3 X10.461 Y-9.498 J0.963
G1 Y8.369
G2 X11.486 Y9.907 I1.667
G3 X12.512 Y11.446 I-0.641 J1.539
G1 Y12.011
G3 X11.523 Y13.368 I-1.424
G2 X0.645 Y23.02 I5.505 J17.161
G3 X-0.646 Y23.016 I-0.644 J-0.297
G2 X-4.066 Y17.946 I-16.746 J7.607
X-8.982 Y14.306 I-12.869 J12.243
X-10.28 Y13.769 I-4.385 J8.756
X-11.617 Y13.339 I-22.841 J68.764
G3 X-12.512 Y12.123 I0.378 J-1.216
G1 X-12.513 Y-11.55
G3 X-11.55 Y-12.513 I0.963
G1 X11.55
G3 X12.513 Y-11.55 J0.963
G1 X12.512 Y11.446
G2 X13.844 Y12.95 I1.515
G3 X14.481 Y14.855 I-0.135 J1.104
X13.875 Y15.172 I-0.843 J-0.875
G2 X2.371 Y24.952 I3.03 J15.221
G3 X0.936 Y25.941 I-1.434 J-0.545
G1 X-0.933
G3 X-2.373 Y24.951 J-1.542
G2 X-4.441 Y21.073 I-16.586 J6.355
X-7.491 Y17.908 I-11.795 J8.314
X-10.201 Y16.326 I-7.767 J10.194
X-13.171 Y15.312 I-8.096 J18.858
X-13.505 Y15.241 I-0.999 J3.874
G3 X-13.841 Y15.178 I1.44 J-8.536
X-14.853 Y13.931 I0.261 J-1.246
G1 Y-13.891
G3 X-13.89 Y-14.854 I0.963
G1 X13.89
G3 X14.853 Y-13.891 J0.963
G1 Y13.981
G3 X14.481 Y14.855 I-1.215
G2 X13.448 Y16.61 I2.632 J2.731
G3 X12.096 Y18.131 I-2.189 J-0.584
G2 X8.512 Y20.265 I4.885 J12.284
X4.088 Y27.308 I8.612 J10.32
G3 X2.839 Y28.282 I-1.249 J-0.314
G1 X-2.848
G3 X-4.084 Y27.311 J-1.272
G2 X-16.288 Y17.217 I-12.861 J3.125
G3 X-17.193 Y16.267 I0.046 J-0.95
G1 X-17.194 Y-16.231
G3 X-16.231 Y-17.195 I0.963
G1 X16.231
G3 X17.194 Y-16.231 J0.963
G1 X17.193 Y16.219
G3 X16.25 Y17.216 I-0.998
G2 X12.096 Y18.131 I0.731 J13.199
X10.931 Y19.928 I0.684 J1.72
G3 X10.057 Y21.883 I-2.401 J0.1
G2 X8.779 Y23.129 I6.789 J8.245
X6.068 Y29.674 I8.455 J7.335
G3 X5.05 Y30.623 I-1.018 J-0.072
G1 X-5.054
G3 X-6.066 Y29.683 J-1.014
G2 X-9.507 Y22.51 I-10.879 J0.806
X-16.866 Y19.486 I-7.689 J8.249
X-17.719 Y19.505 I-0.247 J8.428
G3 X-18.571 Y19.535 I-0.852 J-11.83
X-19.534 Y18.572 J-0.963
G1 X-19.535 Y-18.572
G3 X-18.572 Y-19.535 I0.963
G1 X18.572
G3 X19.535 Y-18.572 J0.963
G1 X19.534 Y18.573
G3 X18.571 Y19.537 I-0.964
X16.75 Y19.497 I-0.009 J-41.132
G2 X14.933 Y19.621 I-0.359 J8.134
X10.057 Y21.883 I1.913 J10.508
X9.48 Y24.079 I1.234 J1.499
G3 X9.352 Y26.347 I-2.575 J0.992
G2 X8.33 Y30.522 I8.007 J4.173
X8.353 Y31.261 I11.839 J-0.003
G3 X8.376 Y32 I-11.816 J0.742
X7.413 Y32.963 I-0.963
G1 X-7.414
G3 X-8.378 Y32 J-0.964
G2 X-8.396 Y29.575 I-171.508 J0.048
X-8.889 Y27.2 I-6.412 J0.092
X-11.968 Y23.333 I-8.326 J3.47
X-16.654 Y21.754 I-4.933 J6.9
X-18.783 Y21.8 I-0.618 J21.112
G3 X-20.911 Y21.876 I-2.128 J-29.667
X-21.875 Y20.913 J-0.963
G1 X-21.876 Y-20.913
G3 X-20.912 Y-21.876 I0.963
G1 X20.912
G3 X21.876 Y-20.913 J0.963
G1 X21.875 Y20.914
G3 X20.911 Y21.877 I-0.964
G1 X16.476 Y21.878
G2 X12.332 Y23.09 I0.002 J7.698
X9.38 Y26.294 I4.607 J7.207
X9.352 Y26.347 I7.979 J4.226
X9.688 Y28.601 I1.718 J0.895
G3 X10.531 Y30.718 I-2.095 J2.06
G2 X10.573 Y31.68 I7.564 J0.148
G3 X10.717 Y34.341 I-24.638 J2.667
X9.754 Y35.304 I-0.963
G1 X-9.754
G3 X-10.718 Y34.341 J-0.964
X-10.707 Y30.139 I755.167 J-0.213
G2 X-12.22 Y26.22 I-5.756 J-0.03
X-14.255 Y24.699 I-5.028 J4.609
X-16.722 Y24.091 I-2.643 J5.412
G1 X-23.252 Y24.216
G3 X-24.215 Y23.253 J-0.963
G1 X-24.216 Y-23.253
G3 X-23.253 Y-24.216 I0.963
G1 X23.253
G3 X24.216 Y-23.253 J0.963
G1 X24.215 Y23.254
G3 X23.252 Y24.217 I-0.964
X19.51 Y24.042 I-0.008 J-39.937
G2 X15.767 Y24.204 I-1.283 J13.668
X12.554 Y25.876 I1.099 J6.037
X10.758 Y29.021 I4.727 J4.785
X10.531 Y30.718 I7.337 J1.844
X11.76 Y32.512 I1.871 J0.037
G3 X13.028 Y34.279 I-0.663 J1.815
X13.058 Y36.681 I-97.017 J2.424
X12.095 Y37.644 I-0.963
G1 X-12.094
G3 X-13.058 Y36.681 J-0.964
X-12.869 Y33.162 I32.73 J-0.009
G2 X-13.016 Y29.641 I-11.778 J-1.27
X-14.091 Y27.646 I-3.729 J0.721
X-16.066 Y26.533 I-3.073 J3.146
X-16.612 Y26.443 I-0.791 J3.065
X-17.165 Y26.421 I-0.553 J7.135
G1 X-25.592 Y26.557
G3 X-26.556 Y25.594 J-0.963
G1 X-26.557 Y-25.594
G3 X-25.593 Y-26.557 I0.963
G1 X25.593
G3 X26.557 Y-25.594 J0.963
G1 X26.556 Y25.594
G3 X25.592 Y26.557 I-0.964
X21.267 Y26.49 I-0.029 J-137.869
G2 X16.942 Y26.423 I-4.296 J137.802
X12.875 Y30.748 I0.001 J4.075
G3 X13.028 Y34.279 I-96.865 J5.955
G2 X14.232 Y36.032 I1.948 J-0.049
G3 X15.414 Y37.799 I-0.73 J1.768
G1 X15.415 Y40
X-15.416
X-15.413 Y39.93
G2 Y39.901 I-0.793 J-0.029
G1 X-15.415 Y30.435
G2 X-15.43 Y30.284 I-0.794
G1 X-15.462 Y30.114
G2 X-15.509 Y29.96 I-0.779 J0.151
G1 X-15.567 Y29.821
G2 X-15.631 Y29.699 I-0.733 J0.305
G1 X-15.698 Y29.593
G2 X-15.782 Y29.485 I-0.669 J0.428
G1 X-15.883 Y29.375
G2 X-15.987 Y29.28 I-0.585 J0.536
G1 X-16.093 Y29.199
G2 X-16.218 Y29.121 I-0.481 J0.631
G1 X-16.364 Y29.048
G2 X-16.521 Y28.989 I-0.355 J0.71
G1 X-16.688 Y28.946
G2 X-16.863 Y28.921 I-0.198 J0.769
G1 X-17.142 Y28.913
G2 X-17.165 I-0.023 J0.793
G1 X-26.857
X-27.56 Y28.804
X-28.068 Y28.552
X-28.178 Y28.465
X-28.479 Y28.163
X-28.56 Y28.054
X-28.807 Y27.544
X-28.911 Y26.884
X-28.912 Y-26.876
X-28.804 Y-27.557
X-28.759 Y-27.665
X-28.559 Y-28.057
X-28.462 Y-28.182
X-28.177 Y-28.467
X-28.059 Y-28.557
X-27.554 Y-28.803
X-27.505 Y-28.813
X-26.857 Y-28.913
X26.857
X27.56 Y-28.804
X28.057 Y-28.558
X28.175 Y-28.468
X28.496 Y-28.142
X28.557 Y-28.062
X28.759 Y-27.665
X28.804 Y-27.557
X28.912 Y-26.876
X28.911 Y26.884
X28.807 Y27.544
X28.56 Y28.054
X28.481 Y28.16
X28.134 Y28.503
X28.074 Y28.549
X27.554 Y28.803
X27.513 Y28.811
X26.857 Y28.913
X16.942 Y28.915
G2 X16.8 Y28.927 J0.794
G1 X16.633 Y28.958
G2 X16.472 Y29.005 I0.142 J0.781
G1 X16.319 Y29.068
G2 X16.195 Y29.133 I0.303 J0.734
G1 X16.098 Y29.195
G2 X15.99 Y29.278 I0.428 J0.669
G1 X15.876 Y29.382
G2 X15.779 Y29.488 I0.535 J0.586
G1 X15.699 Y29.592
G2 X15.62 Y29.719 I0.632 J0.481
G1 X15.546 Y29.869
G2 X15.486 Y30.029 I0.71 J0.354
G1 X15.444 Y30.199
G2 X15.421 Y30.347 I0.77 J0.194
G1 X15.414 Y30.474
G2 X15.413 Y30.52 I0.792 J0.045
G1 X15.414 Y37.799
G3 X15.399 Y37.895 Z-9.984 I-0.318
X15.361 Y37.975 Z-9.939 I-0.302 J-0.096
X15.316 Y38.028 Z-9.869 I-0.264 J-0.176
X15.281 Y38.057 Z-9.781 I-0.219 J-0.23
X15.268 Y38.066 Z-9.682 I-0.184 J-0.258
G0 Z5
X25.816 Y24.675
Z-7.806
G3 X25.831 Y24.685 Z-7.863 I-0.02 J0.046 F762
X25.846 Y24.73 Z-7.897 I-0.035 J0.036
X25.842 Y24.741 Z-7.9 I-0.049 J-0.008
X25.751 Y24.701 Z-7.928 I-0.046 J-0.02
X25.842 Y24.741 Z-7.955 I0.046 J0.02
X25.751 Y24.701 Z-7.983 I-0.046 J-0.02
X25.842 Y24.741 Z-8.011 I0.046 J0.02
X25.751 Y24.701 Z-8.038 I-0.046 J-0.02
X25.842 Y24.741 Z-8.066 I0.046 J0.02
X25.751 Y24.701 Z-8.094 I-0.046 J-0.02
X25.842 Y24.741 Z-8.122 I0.046 J0.02
X25.751 Y24.701 Z-8.149 I-0.046 J-0.02
X25.842 Y24.741 Z-8.177 I0.046 J0.02
X25.751 Y24.701 Z-8.205 I-0.046 J-0.02
X25.842 Y24.741 Z-8.232 I0.046 J0.02
X25.751 Y24.701 Z-8.26 I-0.046 J-0.02
X25.842 Y24.741 Z-8.288 I0.046 J0.02
X25.751 Y24.701 Z-8.315 I-0.046 J-0.02
X25.842 Y24.741 Z-8.343 I0.046 J0.02
X25.751 Y24.701 Z-8.371 I-0.046 J-0.02
X25.842 Y24.741 Z-8.399 I0.046 J0.02
X25.751 Y24.701 Z-8.426 I-0.046 J-0.02
X25.842 Y24.741 Z-8.454 I0.046 J0.02
X25.751 Y24.701 Z-8.482 I-0.046 J-0.02
X25.842 Y24.741 Z-8.509 I0.046 J0.02
X25.751 Y24.701 Z-8.537 I-0.046 J-0.02
X25.842 Y24.741 Z-8.565 I0.046 J0.02
X25.751 Y24.701 Z-8.592 I-0.046 J-0.02
X25.842 Y24.741 Z-8.62 I0.046 J0.02
X25.751 Y24.701 Z-8.648 I-0.046 J-0.02
X25.842 Y24.741 Z-8.676 I0.046 J0.02
X25.751 Y24.701 Z-8.703 I-0.046 J-0.02
X25.842 Y24.741 Z-8.731 I0.046 J0.02
X25.751 Y24.701 Z-8.759 I-0.046 J-0.02
X25.842 Y24.741 Z-8.786 I0.046 J0.02
X25.751 Y24.701 Z-8.814 I-0.046 J-0.02
X25.842 Y24.741 Z-8.842 I0.046 J0.02
X25.751 Y24.701 Z-8.869 I-0.046 J-0.02
X25.842 Y24.741 Z-8.897 I0.046 J0.02
X25.751 Y24.701 Z-8.925 I-0.046 J-0.02
X25.842 Y24.741 Z-8.953 I0.046 J0.02
X25.751 Y24.701 Z-8.98 I-0.046 J-0.02
X25.842 Y24.741 Z-9.008 I0.046 J0.02
X25.751 Y24.701 Z-9.036 I-0.046 J-0.02
X25.842 Y24.741 Z-9.063 I0.046 J0.02
X25.751 Y24.701 Z-9.091 I-0.046 J-0.02
X25.842 Y24.741 Z-9.119 I0.046 J0.02
X25.751 Y24.701 Z-9.146 I-0.046 J-0.02
X25.842 Y24.741 Z-9.174 I0.046 J0.02
X25.751 Y24.701 Z-9.202 I-0.046 J-0.02
X25.842 Y24.741 Z-9.229 I0.046 J0.02
X25.751 Y24.701 Z-9.257 I-0.046 J-0.02
X25.842 Y24.741 Z-9.285 I0.046 J0.02
X25.751 Y24.701 Z-9.313 I-0.046 J-0.02
X25.842 Y24.741 Z-9.34 I0.046 J0.02
X25.751 Y24.701 Z-9.368 I-0.046 J-0.02
X25.842 Y24.741 Z-9.396 I0.046 J0.02
X25.751 Y24.701 Z-9.423 I-0.046 J-0.02
X25.842 Y24.741 Z-9.451 I0.046 J0.02
X25.751 Y24.701 Z-9.479 I-0.046 J-0.02
X25.842 Y24.741 Z-9.506 I0.046 J0.02
X25.751 Y24.701 Z-9.534 I-0.046 J-0.02
X25.842 Y24.741 Z-9.562 I0.046 J0.02
X25.751 Y24.701 Z-9.59 I-0.046 J-0.02
X25.842 Y24.741 Z-9.617 I0.046 J0.02
X25.751 Y24.701 Z-9.645 I-0.046 J-0.02
X25.842 Y24.741 Z-9.673 I0.046 J0.02
X25.751 Y24.701 Z-9.7 I-0.046 J-0.02
X25.842 Y24.741 Z-9.728 I0.046 J0.02
X25.751 Y24.701 Z-9.756 I-0.046 J-0.02
X25.842 Y24.741 Z-9.783 I0.046 J0.02
X25.751 Y24.701 Z-9.811 I-0.046 J-0.02
X25.842 Y24.741 Z-9.839 I0.046 J0.02
X25.751 Y24.701 Z-9.867 I-0.046 J-0.02
X25.842 Y24.741 Z-9.894 I0.046 J0.02
X25.751 Y24.701 Z-9.922 I-0.046 J-0.02
X25.842 Y24.741 Z-9.95 I0.046 J0.02
X25.751 Y24.701 Z-9.977 I-0.046 J-0.02
X25.842 Y24.741 Z-10.005 I0.046 J0.02
X25.751 Y24.701 Z-10.033 I-0.046 J-0.02
X25.842 Y24.741 Z-10.06 I0.046 J0.02
X25.751 Y24.701 Z-10.088 I-0.046 J-0.02
X25.842 Y24.741 Z-10.116 I0.046 J0.02
X25.751 Y24.701 Z-10.143 I-0.046 J-0.02
X25.842 Y24.741 Z-10.171 I0.046 J0.02
X25.751 Y24.701 Z-10.199 I-0.046 J-0.02
X25.842 Y24.741 Z-10.227 I0.046 J0.02
X25.751 Y24.701 Z-10.254 I-0.046 J-0.02
X25.842 Y24.741 Z-10.282 I0.046 J0.02
X25.751 Y24.701 Z-10.31 I-0.046 J-0.02
X25.842 Y24.741 Z-10.337 I0.046 J0.02
X25.751 Y24.701 Z-10.365 I-0.046 J-0.02
X25.842 Y24.741 Z-10.393 I0.046 J0.02
X25.751 Y24.701 Z-10.42 I-0.046 J-0.02
X25.842 Y24.741 Z-10.448 I0.046 J0.02
X25.751 Y24.701 Z-10.476 I-0.046 J-0.02
X25.842 Y24.741 Z-10.504 I0.046 J0.02
X25.751 Y24.701 Z-10.531 I-0.046 J-0.02
X25.842 Y24.741 Z-10.559 I0.046 J0.02
X25.751 Y24.701 Z-10.587 I-0.046 J-0.02
X25.842 Y24.741 Z-10.614 I0.046 J0.02
X25.751 Y24.701 Z-10.642 I-0.046 J-0.02
X25.842 Y24.741 Z-10.67 I0.046 J0.02
X25.751 Y24.701 Z-10.697 I-0.046 J-0.02
X25.842 Y24.741 Z-10.725 I0.046 J0.02
X25.751 Y24.701 Z-10.753 I-0.046 J-0.02
X25.842 Y24.741 Z-10.781 I0.046 J0.02
X25.751 Y24.701 Z-10.808 I-0.046 J-0.02
X25.842 Y24.741 Z-10.836 I0.046 J0.02
X25.751 Y24.701 Z-10.864 I-0.046 J-0.02
X25.842 Y24.741 Z-10.891 I0.046 J0.02
X25.751 Y24.701 Z-10.919 I-0.046 J-0.02
X25.842 Y24.741 Z-10.947 I0.046 J0.02
X25.751 Y24.701 Z-10.974 I-0.046 J-0.02
X25.846 Y24.73 Z-11 I0.046 J0.02
G1 X25.806 Y24.96
X25.782 Y25.013
X25.559 Y25.396
X25.196 Y25.7
X24.739 Y25.864
X24.71 Y25.867
X24.256 Y25.865
X23.809 Y25.703
X23.44 Y25.395
X23.431 Y25.383
X23.201 Y24.985
X23.114 Y24.489
X23.194 Y24.036
X23.203 Y24.013
X23.431 Y23.617
X23.811 Y23.296
X24.254 Y23.136
X24.283 Y23.133
X24.733 Y23.134
X25.19 Y23.297
X25.556 Y23.602
X25.573 Y23.625
X25.806 Y24.034
X25.886 Y24.491
X25.846 Y24.73
X25.841 Y24.698
G3 X25.752 Y24.745 Z-11.028 I-0.044 J0.023
X25.841 Y24.698 Z-11.055 I0.044 J-0.023
X25.752 Y24.745 Z-11.083 I-0.044 J0.023
X25.841 Y24.698 Z-11.111 I0.044 J-0.023
X25.752 Y24.745 Z-11.138 I-0.044 J0.023
X25.841 Y24.698 Z-11.166 I0.044 J-0.023
X25.752 Y24.745 Z-11.194 I-0.044 J0.023
X25.841 Y24.698 Z-11.222 I0.044 J-0.023
X25.752 Y24.745 Z-11.249 I-0.044 J0.023
X25.841 Y24.698 Z-11.277 I0.044 J-0.023
X25.752 Y24.745 Z-11.305 I-0.044 J0.023
X25.841 Y24.698 Z-11.332 I0.044 J-0.023
X25.752 Y24.745 Z-11.36 I-0.044 J0.023
X25.841 Y24.698 Z-11.388 I0.044 J-0.023
X25.752 Y24.745 Z-11.415 I-0.044 J0.023
X25.841 Y24.698 Z-11.443 I0.044 J-0.023
X25.752 Y24.745 Z-11.471 I-0.044 J0.023
X25.841 Y24.698 Z-11.499 I0.044 J-0.023
X25.752 Y24.745 Z-11.526 I-0.044 J0.023
X25.841 Y24.698 Z-11.554 I0.044 J-0.023
X25.752 Y24.745 Z-11.582 I-0.044 J0.023
X25.841 Y24.698 Z-11.609 I0.044 J-0.023
X25.752 Y24.745 Z-11.637 I-0.044 J0.023
X25.841 Y24.698 Z-11.665 I0.044 J-0.023
X25.752 Y24.745 Z-11.692 I-0.044 J0.023
X25.841 Y24.698 Z-11.72 I0.044 J-0.023
X25.752 Y24.745 Z-11.748 I-0.044 J0.023
X25.841 Y24.698 Z-11.776 I0.044 J-0.023
X25.752 Y24.745 Z-11.803 I-0.044 J0.023
X25.841 Y24.698 Z-11.831 I0.044 J-0.023
X25.752 Y24.745 Z-11.859 I-0.044 J0.023
X25.841 Y24.698 Z-11.886 I0.044 J-0.023
X25.752 Y24.745 Z-11.914 I-0.044 J0.023
X25.841 Y24.698 Z-11.942 I0.044 J-0.023
X25.752 Y24.745 Z-11.969 I-0.044 J0.023
X25.841 Y24.698 Z-11.997 I0.044 J-0.023
X25.752 Y24.745 Z-12.025 I-0.044 J0.023
X25.841 Y24.698 Z-12.053 I0.044 J-0.023
X25.752 Y24.745 Z-12.08 I-0.044 J0.023
X25.841 Y24.698 Z-12.108 I0.044 J-0.023
X25.752 Y24.745 Z-12.136 I-0.044 J0.023
X25.841 Y24.698 Z-12.163 I0.044 J-0.023
X25.752 Y24.745 Z-12.191 I-0.044 J0.023
X25.841 Y24.698 Z-12.219 I0.044 J-0.023
X25.752 Y24.745 Z-12.246 I-0.044 J0.023
X25.841 Y24.698 Z-12.274 I0.044 J-0.023
X25.752 Y24.745 Z-12.302 I-0.044 J0.023
X25.841 Y24.698 Z-12.329 I0.044 J-0.023
X25.752 Y24.745 Z-12.357 I-0.044 J0.023
X25.841 Y24.698 Z-12.385 I0.044 J-0.023
X25.752 Y24.745 Z-12.413 I-0.044 J0.023
X25.841 Y24.698 Z-12.44 I0.044 J-0.023
X25.752 Y24.745 Z-12.468 I-0.044 J0.023
X25.841 Y24.698 Z-12.496 I0.044 J-0.023
X25.752 Y24.745 Z-12.523 I-0.044 J0.023
X25.841 Y24.698 Z-12.551 I0.044 J-0.023
X25.752 Y24.745 Z-12.579 I-0.044 J0.023
X25.841 Y24.698 Z-12.606 I0.044 J-0.023
X25.752 Y24.745 Z-12.634 I-0.044 J0.023
X25.841 Y24.698 Z-12.662 I0.044 J-0.023
X25.752 Y24.745 Z-12.69 I-0.044 J0.023
X25.841 Y24.698 Z-12.717 I0.044 J-0.023
X25.752 Y24.745 Z-12.745 I-0.044 J0.023
X25.841 Y24.698 Z-12.773 I0.044 J-0.023
X25.752 Y24.745 Z-12.8 I-0.044 J0.023
X25.841 Y24.698 Z-12.828 I0.044 J-0.023
X25.752 Y24.745 Z-12.856 I-0.044 J0.023
X25.841 Y24.698 Z-12.883 I0.044 J-0.023
X25.752 Y24.745 Z-12.911 I-0.044 J0.023
X25.841 Y24.698 Z-12.939 I0.044 J-0.023
X25.752 Y24.745 Z-12.967 I-0.044 J0.023
X25.841 Y24.698 Z-12.994 I0.044 J-0.023
X25.846 Y24.73 Z-13 I-0.044 J0.023
G1 X25.806 Y24.96
X25.782 Y25.013
X25.559 Y25.396
X25.196 Y25.7
X24.739 Y25.864
X24.71 Y25.867
X24.256 Y25.865
X23.809 Y25.703
X23.44 Y25.395
X23.431 Y25.383
X23.201 Y24.985
X23.114 Y24.489
X23.194 Y24.036
X23.203 Y24.013
X23.431 Y23.617
X23.811 Y23.296
X24.254 Y23.136
X24.283 Y23.133
X24.733 Y23.134
X25.19 Y23.297
X25.556 Y23.602
X25.573 Y23.625
X25.806 Y24.034
X25.886 Y24.491
X25.846 Y24.73
X25.844 Y24.705
G3 X25.749 Y24.737 Z-13.028 I-0.047 J0.016
X25.844 Y24.705 Z-13.055 I0.047 J-0.016
X25.749 Y24.737 Z-13.083 I-0.047 J0.016
X25.844 Y24.705 Z-13.111 I0.047 J-0.016
X25.749 Y24.737 Z-13.138 I-0.047 J0.016
X25.844 Y24.705 Z-13.166 I0.047 J-0.016
X25.749 Y24.737 Z-13.194 I-0.047 J0.016
X25.844 Y24.705 Z-13.222 I0.047 J-0.016
X25.749 Y24.737 Z-13.249 I-0.047 J0.016
X25.844 Y24.705 Z-13.277 I0.047 J-0.016
X25.749 Y24.737 Z-13.305 I-0.047 J0.016
X25.844 Y24.705 Z-13.332 I0.047 J-0.016
X25.749 Y24.737 Z-13.36 I-0.047 J0.016
X25.844 Y24.705 Z-13.388 I0.047 J-0.016
X25.749 Y24.737 Z-13.415 I-0.047 J0.016
X25.844 Y24.705 Z-13.443 I0.047 J-0.016
X25.749 Y24.737 Z-13.471 I-0.047 J0.016
X25.844 Y24.705 Z-13.499 I0.047 J-0.016
X25.749 Y24.737 Z-13.526 I-0.047 J0.016
X25.844 Y24.705 Z-13.554 I0.047 J-0.016
X25.749 Y24.737 Z-13.582 I-0.047 J0.016
X25.844 Y24.705 Z-13.609 I0.047 J-0.016
X25.749 Y24.737 Z-13.637 I-0.047 J0.016
X25.844 Y24.705 Z-13.665 I0.047 J-0.016
X25.749 Y24.737 Z-13.692 I-0.047 J0.016
X25.844 Y24.705 Z-13.72 I0.047 J-0.016
X25.749 Y24.737 Z-13.748 I-0.047 J0.016
X25.844 Y24.705 Z-13.776 I0.047 J-0.016
X25.749 Y24.737 Z-13.803 I-0.047 J0.016
X25.844 Y24.705 Z-13.831 I0.047 J-0.016
X25.749 Y24.737 Z-13.859 I-0.047 J0.016
X25.844 Y24.705 Z-13.886 I0.047 J-0.016
X25.749 Y24.737 Z-13.914 I-0.047 J0.016
X25.844 Y24.705 Z-13.942 I0.047 J-0.016
X25.749 Y24.737 Z-13.969 I-0.047 J0.016
X25.844 Y24.705 Z-13.997 I0.047 J-0.016
X25.749 Y24.737 Z-14.025 I-0.047 J0.016
X25.844 Y24.705 Z-14.053 I0.047 J-0.016
X25.749 Y24.737 Z-14.08 I-0.047 J0.016
X25.844 Y24.705 Z-14.108 I0.047 J-0.016
X25.749 Y24.737 Z-14.136 I-0.047 J0.016
X25.844 Y24.705 Z-14.163 I0.047 J-0.016
X25.749 Y24.737 Z-14.191 I-0.047 J0.016
X25.844 Y24.705 Z-14.219 I0.047 J-0.016
X25.749 Y24.737 Z-14.246 I-0.047 J0.016
X25.844 Y24.705 Z-14.274 I0.047 J-0.016
X25.749 Y24.737 Z-14.302 I-0.047 J0.016
X25.844 Y24.705 Z-14.329 I0.047 J-0.016
X25.749 Y24.737 Z-14.357 I-0.047 J0.016
X25.844 Y24.705 Z-14.385 I0.047 J-0.016
X25.749 Y24.737 Z-14.413 I-0.047 J0.016
X25.844 Y24.705 Z-14.44 I0.047 J-0.016
X25.749 Y24.737 Z-14.468 I-0.047 J0.016
X25.844 Y24.705 Z-14.496 I0.047 J-0.016
X25.846 Y24.73 Z-14.5 I-0.047 J0.016
G1 X25.806 Y24.96
X25.782 Y25.013
X25.559 Y25.396
X25.196 Y25.7
X24.739 Y25.864
X24.71 Y25.867
X24.256 Y25.865
X23.809 Y25.703
X23.44 Y25.395
X23.431 Y25.383
X23.201 Y24.985
X23.114 Y24.489
X23.194 Y24.036
X23.203 Y24.013
X23.431 Y23.617
X23.811 Y23.296
X24.254 Y23.136
X24.283 Y23.133
X24.733 Y23.134
X25.19 Y23.297
X25.556 Y23.602
X25.573 Y23.625
X25.806 Y24.034
X25.886 Y24.491
X25.846 Y24.73
X25.841 Y24.698
G3 X25.752 Y24.745 Z-14.528 I-0.044 J0.023
X25.841 Y24.698 Z-14.555 I0.044 J-0.023
X25.752 Y24.745 Z-14.583 I-0.044 J0.023
X25.841 Y24.698 Z-14.611 I0.044 J-0.023
X25.752 Y24.745 Z-14.638 I-0.044 J0.023
X25.841 Y24.698 Z-14.666 I0.044 J-0.023
X25.752 Y24.745 Z-14.694 I-0.044 J0.023
X25.841 Y24.698 Z-14.722 I0.044 J-0.023
X25.752 Y24.745 Z-14.749 I-0.044 J0.023
X25.841 Y24.698 Z-14.777 I0.044 J-0.023
X25.752 Y24.745 Z-14.805 I-0.044 J0.023
X25.841 Y24.698 Z-14.832 I0.044 J-0.023
X25.752 Y24.745 Z-14.86 I-0.044 J0.023
X25.841 Y24.698 Z-14.888 I0.044 J-0.023
X25.752 Y24.745 Z-14.915 I-0.044 J0.023
X25.841 Y24.698 Z-14.943 I0.044 J-0.023
X25.752 Y24.745 Z-14.971 I-0.044 J0.023
X25.841 Y24.698 Z-14.999 I0.044 J-0.023
X25.752 Y24.745 Z-15.026 I-0.044 J0.023
X25.841 Y24.698 Z-15.054 I0.044 J-0.023
X25.752 Y24.745 Z-15.082 I-0.044 J0.023
X25.841 Y24.698 Z-15.109 I0.044 J-0.023
X25.752 Y24.745 Z-15.137 I-0.044 J0.023
X25.841 Y24.698 Z-15.165 I0.044 J-0.023
X25.752 Y24.745 Z-15.192 I-0.044 J0.023
X25.841 Y24.698 Z-15.22 I0.044 J-0.023
X25.752 Y24.745 Z-15.248 I-0.044 J0.023
X25.841 Y24.698 Z-15.276 I0.044 J-0.023
X25.752 Y24.745 Z-15.303 I-0.044 J0.023
X25.841 Y24.698 Z-15.331 I0.044 J-0.023
X25.752 Y24.745 Z-15.359 I-0.044 J0.023
X25.841 Y24.698 Z-15.386 I0.044 J-0.023
X25.752 Y24.745 Z-15.414 I-0.044 J0.023
X25.841 Y24.698 Z-15.442 I0.044 J-0.023
X25.752 Y24.745 Z-15.469 I-0.044 J0.023
X25.841 Y24.698 Z-15.497 I0.044 J-0.023
X25.752 Y24.745 Z-15.525 I-0.044 J0.023
X25.841 Y24.698 Z-15.553 I0.044 J-0.023
X25.752 Y24.745 Z-15.58 I-0.044 J0.023
X25.841 Y24.698 Z-15.608 I0.044 J-0.023
X25.752 Y24.745 Z-15.636 I-0.044 J0.023
X25.841 Y24.698 Z-15.663 I0.044 J-0.023
X25.752 Y24.745 Z-15.691 I-0.044 J0.023
X25.841 Y24.698 Z-15.719 I0.044 J-0.023
X25.752 Y24.745 Z-15.746 I-0.044 J0.023
X25.841 Y24.698 Z-15.774 I0.044 J-0.023
X25.752 Y24.745 Z-15.802 I-0.044 J0.023
X25.841 Y24.698 Z-15.829 I0.044 J-0.023
X25.752 Y24.745 Z-15.857 I-0.044 J0.023
X25.841 Y24.698 Z-15.885 I0.044 J-0.023
X25.752 Y24.745 Z-15.913 I-0.044 J0.023
X25.841 Y24.698 Z-15.94 I0.044 J-0.023
X25.752 Y24.745 Z-15.968 I-0.044 J0.023
X25.841 Y24.698 Z-15.996 I0.044 J-0.023
X25.752 Y24.745 Z-16.023 I-0.044 J0.023
X25.841 Y24.698 Z-16.051 I0.044 J-0.023
X25.752 Y24.745 Z-16.079 I-0.044 J0.023
X25.841 Y24.698 Z-16.106 I0.044 J-0.023
X25.752 Y24.745 Z-16.134 I-0.044 J0.023
X25.841 Y24.698 Z-16.162 I0.044 J-0.023
X25.752 Y24.745 Z-16.19 I-0.044 J0.023
X25.841 Y24.698 Z-16.217 I0.044 J-0.023
X25.752 Y24.745 Z-16.245 I-0.044 J0.023
X25.841 Y24.698 Z-16.273 I0.044 J-0.023
X25.752 Y24.745 Z-16.3 I-0.044 J0.023
X25.841 Y24.698 Z-16.328 I0.044 J-0.023
X25.752 Y24.745 Z-16.356 I-0.044 J0.023
X25.841 Y24.698 Z-16.383 I0.044 J-0.023
X25.752 Y24.745 Z-16.411 I-0.044 J0.023
X25.841 Y24.698 Z-16.439 I0.044 J-0.023
X25.752 Y24.745 Z-16.467 I-0.044 J0.023
X25.841 Y24.698 Z-16.494 I0.044 J-0.023
X25.846 Y24.73 Z-16.5 I-0.044 J0.023
G1 X25.806 Y24.96
X25.782 Y25.013
X25.559 Y25.396
X25.196 Y25.7
X24.739 Y25.864
X24.71 Y25.867
X24.256 Y25.865
X23.809 Y25.703
X23.44 Y25.395
X23.431 Y25.383
X23.201 Y24.985
X23.114 Y24.489
X23.194 Y24.036
X23.203 Y24.013
X23.431 Y23.617
X23.811 Y23.296
X24.254 Y23.136
X24.283 Y23.133
X24.733 Y23.134
X25.19 Y23.297
X25.556 Y23.602
X25.573 Y23.625
X25.806 Y24.034
X25.886 Y24.491
X25.846 Y24.73
X25.841 Y24.698
G3 X25.752 Y24.745 Z-16.528 I-0.044 J0.023
X25.841 Y24.698 Z-16.555 I0.044 J-0.023
X25.752 Y24.745 Z-16.583 I-0.044 J0.023
X25.841 Y24.698 Z-16.611 I0.044 J-0.023
X25.752 Y24.745 Z-16.638 I-0.044 J0.023
X25.841 Y24.698 Z-16.666 I0.044 J-0.023
X25.752 Y24.745 Z-16.694 I-0.044 J0.023
X25.841 Y24.698 Z-16.722 I0.044 J-0.023
X25.752 Y24.745 Z-16.749 I-0.044 J0.023
X25.841 Y24.698 Z-16.777 I0.044 J-0.023
X25.752 Y24.745 Z-16.805 I-0.044 J0.023
X25.841 Y24.698 Z-16.832 I0.044 J-0.023
X25.752 Y24.745 Z-16.86 I-0.044 J0.023
X25.841 Y24.698 Z-16.888 I0.044 J-0.023
X25.752 Y24.745 Z-16.915 I-0.044 J0.023
X25.841 Y24.698 Z-16.943 I0.044 J-0.023
X25.752 Y24.745 Z-16.971 I-0.044 J0.023
X25.841 Y24.698 Z-16.999 I0.044 J-0.023
X25.752 Y24.745 Z-17.026 I-0.044 J0.023
X25.841 Y24.698 Z-17.054 I0.044 J-0.023
X25.752 Y24.745 Z-17.082 I-0.044 J0.023
X25.841 Y24.698 Z-17.109 I0.044 J-0.023
X25.752 Y24.745 Z-17.137 I-0.044 J0.023
X25.841 Y24.698 Z-17.165 I0.044 J-0.023
X25.752 Y24.745 Z-17.192 I-0.044 J0.023
X25.841 Y24.698 Z-17.22 I0.044 J-0.023
X25.752 Y24.745 Z-17.248 I-0.044 J0.023
X25.841 Y24.698 Z-17.276 I0.044 J-0.023
X25.752 Y24.745 Z-17.303 I-0.044 J0.023
X25.841 Y24.698 Z-17.331 I0.044 J-0.023
X25.752 Y24.745 Z-17.359 I-0.044 J0.023
X25.841 Y24.698 Z-17.386 I0.044 J-0.023
X25.752 Y24.745 Z-17.414 I-0.044 J0.023
X25.841 Y24.698 Z-17.442 I0.044 J-0.023
X25.752 Y24.745 Z-17.469 I-0.044 J0.023
X25.841 Y24.698 Z-17.497 I0.044 J-0.023
X25.752 Y24.745 Z-17.525 I-0.044 J0.023
X25.841 Y24.698 Z-17.553 I0.044 J-0.023
X25.752 Y24.745 Z-17.58 I-0.044 J0.023
X25.841 Y24.698 Z-17.608 I0.044 J-0.023
X25.752 Y24.745 Z-17.636 I-0.044 J0.023
X25.841 Y24.698 Z-17.663 I0.044 J-0.023
X25.752 Y24.745 Z-17.691 I-0.044 J0.023
X25.841 Y24.698 Z-17.719 I0.044 J-0.023
X25.752 Y24.745 Z-17.746 I-0.044 J0.023
X25.841 Y24.698 Z-17.774 I0.044 J-0.023
X25.752 Y24.745 Z-17.802 I-0.044 J0.023
X25.841 Y24.698 Z-17.829 I0.044 J-0.023
X25.752 Y24.745 Z-17.857 I-0.044 J0.023
X25.841 Y24.698 Z-17.885 I0.044 J-0.023
X25.752 Y24.745 Z-17.913 I-0.044 J0.023
X25.841 Y24.698 Z-17.94 I0.044 J-0.023
X25.752 Y24.745 Z-17.968 I-0.044 J0.023
X25.841 Y24.698 Z-17.996 I0.044 J-0.023
X25.752 Y24.745 Z-18.023 I-0.044 J0.023
X25.841 Y24.698 Z-18.051 I0.044 J-0.023
X25.752 Y24.745 Z-18.079 I-0.044 J0.023
X25.841 Y24.698 Z-18.106 I0.044 J-0.023
X25.752 Y24.745 Z-18.134 I-0.044 J0.023
X25.841 Y24.698 Z-18.162 I0.044 J-0.023
X25.752 Y24.745 Z-18.19 I-0.044 J0.023
X25.841 Y24.698 Z-18.217 I0.044 J-0.023
X25.752 Y24.745 Z-18.245 I-0.044 J0.023
X25.841 Y24.698 Z-18.273 I0.044 J-0.023
X25.752 Y24.745 Z-18.3 I-0.044 J0.023
X25.841 Y24.698 Z-18.328 I0.044 J-0.023
X25.752 Y24.745 Z-18.356 I-0.044 J0.023
X25.841 Y24.698 Z-18.383 I0.044 J-0.023
X25.752 Y24.745 Z-18.411 I-0.044 J0.023
X25.841 Y24.698 Z-18.439 I0.044 J-0.023
X25.752 Y24.745 Z-18.467 I-0.044 J0.023
X25.841 Y24.698 Z-18.494 I0.044 J-0.023
X25.846 Y24.73 Z-18.5 I-0.044 J0.023
G1 X25.806 Y24.96
X25.782 Y25.013
X25.559 Y25.396
X25.196 Y25.7
X24.739 Y25.864
X24.71 Y25.867
X24.256 Y25.865
X23.809 Y25.703
X23.44 Y25.395
X23.431 Y25.383
X23.201 Y24.985
X23.114 Y24.489
X23.194 Y24.036
X23.203 Y24.013
X23.431 Y23.617
X23.811 Y23.296
X24.254 Y23.136
X24.283 Y23.133
X24.733 Y23.134
X25.19 Y23.297
X25.556 Y23.602
X25.573 Y23.625
X25.806 Y24.034
X25.886 Y24.491
X25.846 Y24.73
Y24.713
G3 X25.747 Y24.729 Z-18.528 I-0.049 J0.008
X25.846 Y24.713 Z-18.555 I0.049 J-0.008
X25.747 Y24.729 Z-18.583 I-0.049 J0.008
X25.846 Y24.713 Z-18.611 I0.049 J-0.008
X25.747 Y24.729 Z-18.638 I-0.049 J0.008
X25.846 Y24.713 Z-18.666 I0.049 J-0.008
X25.747 Y24.729 Z-18.694 I-0.049 J0.008
X25.846 Y24.713 Z-18.722 I0.049 J-0.008
X25.747 Y24.729 Z-18.749 I-0.049 J0.008
X25.846 Y24.713 Z-18.777 I0.049 J-0.008
X25.747 Y24.729 Z-18.805 I-0.049 J0.008
X25.846 Y24.713 Z-18.832 I0.049 J-0.008
X25.747 Y24.729 Z-18.86 I-0.049 J0.008
X25.846 Y24.713 Z-18.888 I0.049 J-0.008
X25.747 Y24.729 Z-18.915 I-0.049 J0.008
X25.846 Y24.713 Z-18.943 I0.049 J-0.008
X25.747 Y24.729 Z-18.971 I-0.049 J0.008
X25.846 Y24.713 Z-18.999 I0.049 J-0.008
X25.747 Y24.729 Z-19.026 I-0.049 J0.008
X25.846 Y24.713 Z-19.054 I0.049 J-0.008
X25.747 Y24.729 Z-19.082 I-0.049 J0.008
X25.846 Y24.713 Z-19.109 I0.049 J-0.008
X25.747 Y24.729 Z-19.137 I-0.049 J0.008
X25.846 Y24.713 Z-19.165 I0.049 J-0.008
X25.747 Y24.729 Z-19.192 I-0.049 J0.008
X25.846 Y24.713 Z-19.22 I0.049 J-0.008
X25.747 Y24.729 Z-19.248 I-0.049 J0.008
X25.846 Y24.713 Z-19.276 I0.049 J-0.008
X25.747 Y24.729 Z-19.303 I-0.049 J0.008
X25.846 Y24.713 Z-19.331 I0.049 J-0.008
X25.747 Y24.729 Z-19.359 I-0.049 J0.008
X25.846 Y24.713 Z-19.386 I0.049 J-0.008
X25.747 Y24.729 Z-19.414 I-0.049 J0.008
X25.846 Y24.713 Z-19.442 I0.049 J-0.008
X25.747 Y24.729 Z-19.469 I-0.049 J0.008
X25.846 Y24.713 Z-19.497 I0.049 J-0.008
Y24.73 Z-19.5 I-0.049 J0.008
G1 X25.806 Y24.96
X25.782 Y25.013
X25.559 Y25.396
X25.196 Y25.7
X24.739 Y25.864
X24.71 Y25.867
X24.256 Y25.865
X23.809 Y25.703
X23.44 Y25.395
X23.431 Y25.383
X23.201 Y24.985
X23.114 Y24.489
X23.194 Y24.036
X23.203 Y24.013
X23.431 Y23.617
X23.811 Y23.296
X24.254 Y23.136
X24.283 Y23.133
X24.733 Y23.134
X25.19 Y23.297
X25.556 Y23.602
X25.573 Y23.625
X25.806 Y24.034
X25.886 Y24.491
X25.846 Y24.73
G3 X25.815 Y24.822 Z-19.484 I-0.313 J-0.054
X25.764 Y24.894 Z-19.439 I-0.282 J-0.146
X25.71 Y24.94 Z-19.369 I-0.231 J-0.218
X25.671 Y24.962 Z-19.281 I-0.177 J-0.263
X25.657 Y24.968 Z-19.183 I-0.138 J-0.286
G0 Z5
X0.3 Y-0.047
Z-7.806
G3 X0.317 Y-0.04 Z-7.863 I-0.011 J0.049 F762
X0.339 Y0.001 Z-7.897 I-0.028 J0.041
X0.337 Y0.013 Z-7.9 I-0.05
X0.24 Y-0.01 Z-7.928 I-0.049 J-0.012
X0.337 Y0.013 Z-7.955 I0.049 J0.012
X0.24 Y-0.01 Z-7.983 I-0.049 J-0.012
X0.337 Y0.013 Z-8.011 I0.049 J0.012
X0.24 Y-0.01 Z-8.038 I-0.049 J-0.012
X0.337 Y0.013 Z-8.066 I0.049 J0.012
X0.24 Y-0.01 Z-8.094 I-0.049 J-0.012
X0.337 Y0.013 Z-8.122 I0.049 J0.012
X0.24 Y-0.01 Z-8.149 I-0.049 J-0.012
X0.337 Y0.013 Z-8.177 I0.049 J0.012
X0.24 Y-0.01 Z-8.205 I-0.049 J-0.012
X0.337 Y0.013 Z-8.232 I0.049 J0.012
X0.24 Y-0.01 Z-8.26 I-0.049 J-0.012
X0.337 Y0.013 Z-8.288 I0.049 J0.012
X0.24 Y-0.01 Z-8.315 I-0.049 J-0.012
X0.337 Y0.013 Z-8.343 I0.049 J0.012
X0.24 Y-0.01 Z-8.371 I-0.049 J-0.012
X0.337 Y0.013 Z-8.399 I0.049 J0.012
X0.24 Y-0.01 Z-8.426 I-0.049 J-0.012
X0.337 Y0.013 Z-8.454 I0.049 J0.012
X0.24 Y-0.01 Z-8.482 I-0.049 J-0.012
X0.337 Y0.013 Z-8.509 I0.049 J0.012
X0.24 Y-0.01 Z-8.537 I-0.049 J-0.012
X0.337 Y0.013 Z-8.565 I0.049 J0.012
X0.24 Y-0.01 Z-8.592 I-0.049 J-0.012
X0.337 Y0.013 Z-8.62 I0.049 J0.012
X0.24 Y-0.01 Z-8.648 I-0.049 J-0.012
X0.337 Y0.013 Z-8.676 I0.049 J0.012
X0.24 Y-0.01 Z-8.703 I-0.049 J-0.012
X0.337 Y0.013 Z-8.731 I0.049 J0.012
X0.24 Y-0.01 Z-8.759 I-0.049 J-0.012
X0.337 Y0.013 Z-8.786 I0.049 J0.012
X0.24 Y-0.01 Z-8.814 I-0.049 J-0.012
X0.337 Y0.013 Z-8.842 I0.049 J0.012
X0.24 Y-0.01 Z-8.869 I-0.049 J-0.012
X0.337 Y0.013 Z-8.897 I0.049 J0.012
X0.24 Y-0.01 Z-8.925 I-0.049 J-0.012
X0.337 Y0.013 Z-8.953 I0.049 J0.012
X0.24 Y-0.01 Z-8.98 I-0.049 J-0.012
X0.337 Y0.013 Z-9.008 I0.049 J0.012
X0.24 Y-0.01 Z-9.036 I-0.049 J-0.012
X0.337 Y0.013 Z-9.063 I0.049 J0.012
X0.24 Y-0.01 Z-9.091 I-0.049 J-0.012
X0.337 Y0.013 Z-9.119 I0.049 J0.012
X0.24 Y-0.01 Z-9.146 I-0.049 J-0.012
X0.337 Y0.013 Z-9.174 I0.049 J0.012
X0.24 Y-0.01 Z-9.202 I-0.049 J-0.012
X0.337 Y0.013 Z-9.229 I0.049 J0.012
X0.24 Y-0.01 Z-9.257 I-0.049 J-0.012
X0.337 Y0.013 Z-9.285 I0.049 J0.012
X0.24 Y-0.01 Z-9.313 I-0.049 J-0.012
X0.337 Y0.013 Z-9.34 I0.049 J0.012
X0.24 Y-0.01 Z-9.368 I-0.049 J-0.012
X0.337 Y0.013 Z-9.396 I0.049 J0.012
X0.24 Y-0.01 Z-9.423 I-0.049 J-0.012
X0.337 Y0.013 Z-9.451 I0.049 J0.012
X0.24 Y-0.01 Z-9.479 I-0.049 J-0.012
X0.337 Y0.013 Z-9.506 I0.049 J0.012
X0.24 Y-0.01 Z-9.534 I-0.049 J-0.012
X0.337 Y0.013 Z-9.562 I0.049 J0.012
X0.24 Y-0.01 Z-9.59 I-0.049 J-0.012
X0.337 Y0.013 Z-9.617 I0.049 J0.012
X0.24 Y-0.01 Z-9.645 I-0.049 J-0.012
X0.337 Y0.013 Z-9.673 I0.049 J0.012
X0.24 Y-0.01 Z-9.7 I-0.049 J-0.012
X0.337 Y0.013 Z-9.728 I0.049 J0.012
X0.24 Y-0.01 Z-9.756 I-0.049 J-0.012
X0.337 Y0.013 Z-9.783 I0.049 J0.012
X0.24 Y-0.01 Z-9.811 I-0.049 J-0.012
X0.337 Y0.013 Z-9.839 I0.049 J0.012
X0.24 Y-0.01 Z-9.867 I-0.049 J-0.012
X0.337 Y0.013 Z-9.894 I0.049 J0.012
X0.24 Y-0.01 Z-9.922 I-0.049 J-0.012
X0.337 Y0.013 Z-9.95 I0.049 J0.012
X0.24 Y-0.01 Z-9.977 I-0.049 J-0.012
X0.337 Y0.013 Z-10.005 I0.049 J0.012
X0.24 Y-0.01 Z-10.033 I-0.049 J-0.012
X0.337 Y0.013 Z-10.06 I0.049 J0.012
X0.24 Y-0.01 Z-10.088 I-0.049 J-0.012
X0.337 Y0.013 Z-10.116 I0.049 J0.012
X0.24 Y-0.01 Z-10.143 I-0.049 J-0.012
X0.337 Y0.013 Z-10.171 I0.049 J0.012
X0.24 Y-0.01 Z-10.199 I-0.049 J-0.012
X0.337 Y0.013 Z-10.227 I0.049 J0.012
X0.24 Y-0.01 Z-10.254 I-0.049 J-0.012
X0.337 Y0.013 Z-10.282 I0.049 J0.012
X0.24 Y-0.01 Z-10.31 I-0.049 J-0.012
X0.337 Y0.013 Z-10.337 I0.049 J0.012
X0.24 Y-0.01 Z-10.365 I-0.049 J-0.012
X0.337 Y0.013 Z-10.393 I0.049 J0.012
X0.24 Y-0.01 Z-10.42 I-0.049 J-0.012
X0.337 Y0.013 Z-10.448 I0.049 J0.012
X0.24 Y-0.01 Z-10.476 I-0.049 J-0.012
X0.337 Y0.013 Z-10.504 I0.049 J0.012
X0.24 Y-0.01 Z-10.531 I-0.049 J-0.012
X0.337 Y0.013 Z-10.559 I0.049 J0.012
X0.24 Y-0.01 Z-10.587 I-0.049 J-0.012
X0.337 Y0.013 Z-10.614 I0.049 J0.012
X0.24 Y-0.01 Z-10.642 I-0.049 J-0.012
X0.337 Y0.013 Z-10.67 I0.049 J0.012
X0.24 Y-0.01 Z-10.697 I-0.049 J-0.012
X0.337 Y0.013 Z-10.725 I0.049 J0.012
X0.24 Y-0.01 Z-10.753 I-0.049 J-0.012
X0.337 Y0.013 Z-10.781 I0.049 J0.012
X0.24 Y-0.01 Z-10.808 I-0.049 J-0.012
X0.337 Y0.013 Z-10.836 I0.049 J0.012
X0.24 Y-0.01 Z-10.864 I-0.049 J-0.012
X0.337 Y0.013 Z-10.891 I0.049 J0.012
X0.24 Y-0.01 Z-10.919 I-0.049 J-0.012
X0.337 Y0.013 Z-10.947 I0.049 J0.012
X0.24 Y-0.01 Z-10.974 I-0.049 J-0.012
X0.339 Y0.001 Z-11 I0.049 J0.012
X-0.339 I-0.339
X0.339 I0.339
G2 X0.961 Y1.44 I1.974
G3 X0.968 Y3.008 I-0.739 J0.787
G1 X0.659 Y3.303
G3 X-0.657 Y3.301 I-0.657 J-0.688
X-2.336 Y1.178 I6.853 J-7.142
X-2.247 Y-1.528 I2.181 J-1.283
X0.017 Y-2.709 I2.232 J1.518
X2.267 Y-1.5 I-0.033 J2.758
X2.754 Y0.02 I-2.343 J1.589
X2.305 Y1.55 I-2.615 J0.064
X1.516 Y2.485 I-4.753 J-3.217
G1 X0.968 Y3.008
G2 X0.346 Y4.902 I1.459 J1.528
G3 X-1.441 Y5.786 I-1.023 J0.18
G2 X-2.155 Y5.047 I-16.26 J14.993
G3 X-3.786 Y3.31 I22.475 J-22.745
X-3.321 Y-3.785 I3.802 J-3.313
X3.775 Y-3.322 I3.317 J3.76
X4.986 Y-0.82 I-3.971 J3.466
X4.683 Y1.944 I-4.733 J0.88
X3.685 Y3.451 I-4.567 J-1.941
X2.395 Y4.716 I-24.078 J-23.259
G2 X1.435 Y5.733 I7.313 J7.871
X0.546 Y6.812 I184.204 J152.618
G3 X-0.553 Y6.81 I-0.549 J-0.45
G2 X-1.441 Y5.786 I-17.148 J13.969
X-3.336 Y5.366 I-1.25 J1.152
G3 X-5.224 Y4.916 I-0.631 J-1.538
X-7.123 Y0.037 I5.892 J-5.102
X-4.807 Y-5.359 I6.979 J-0.2
X7.04 Y-1.545 I4.811 J5.362
X4.896 Y5.205 I-6.929 J1.515
G2 X0.457 Y10.724 I15.679 J17.154
G3 X-0.457 I-0.457 J-0.265
G2 X-2.422 Y7.919 I-17.128 J9.906
X-4.756 Y5.412 I-25.345 J21.247
G3 X-5.224 Y4.916 I5.423 J-5.598
G2 X-6.85 Y4.468 I-1.149 J0.995
G3 X-8.397 Y3.795 I-0.397 J-1.201
X-8.495 Y3.573 I7.513 J-3.452
X-3.571 Y-8.491 I8.453 J-3.587
X8.495 Y-3.573 I3.555 J8.539
X5.973 Y7.044 I-8.459 J3.598
G2 X0.283 Y16.355 I11.2 J13.239
G3 X-0.283 I-0.283 J-0.066
G2 X-1.554 Y12.651 I-18.749 J4.36
X-3.626 Y9.327 I-14.224 J6.563
X-6.263 Y6.622 I-16.357 J13.307
G3 X-8.397 Y3.795 I5.379 J-6.278
G2 X-9.44 Y3.132 I-1.035 J0.476
G3 X-10.413 Y2.369 I-0.007 J-0.993
X-10.693 Y-0.019 I9.998 J-2.384
X5.028 Y-9.43 I10.68 J0.004
X8.855 Y5.983 I-5.006 J9.424
G1 X4.376 Y10.86
G2 X2.65 Y13.77 I12.035 J9.105
X1.582 Y16.98 I15.192 J6.84
X1.25 Y20.972 I14.353 J3.204
G3 X1.357 Y24.977 I-74.414 J3.996
X0.394 Y25.941 I-0.963
G1 X-0.405
G3 X-1.356 Y24.99 J-0.951
X-1.264 Y20.889 I90.281 J-0.02
G2 X-1.621 Y16.803 I-15.518 J-0.702
X-3.749 Y11.951 I-13.428 J2.998
X-7.179 Y7.913 I-22.442 J15.588
G3 X-9.742 Y4.304 I8.426 J-8.698
X-10.413 Y2.369 I9.327 J-4.319
G2 X-11.831 Y0.927 I-1.904 J0.454
G3 X-13.036 Y-0.697 I0.399 J-1.555
X-12.491 Y-4.201 I15.983 J0.689
X-11.732 Y-5.985 I6.967 J1.91
X-4.669 Y-12.071 I12.626 J7.513
X4.655 Y-12.173 I4.79 J11.711
X8.714 Y-9.679 I-4.655 J12.131
X11.731 Y-5.991 I-10.682 J11.813
X12.481 Y-4.226 I-6.213 J3.685
X12.484 Y4.218 I-15.329 J4.227
X11.735 Y5.98 I-6.964 J-1.919
X10.388 Y7.89 I-12.613 J-7.47
X8.799 Y9.604 I-16.953 J-14.114
G2 X5.789 Y13.101 I17.98 J18.523
X3.906 Y17.312 I9.403 J6.731
X3.527 Y22.31 I17.052 J3.806
G3 X3.697 Y27.318 I-73.204 J5
X2.734 Y28.281 I-0.963
G1 X-2.745
G3 X-3.697 Y27.33 J-0.951
X-3.558 Y20.886 I148.379 J-0.033
G2 X-4.858 Y14.572 I-13.203 J-0.571
X-7.072 Y11.453 I-10.323 J4.98
G3 X-9.73 Y8.703 I82.536 J-82.43
X-10.802 Y7.403 I9.923 J-9.28
X-11.728 Y5.994 I14.771 J-10.72
X-12.483 Y4.216 I6.213 J-3.686
X-13.036 Y-0.697 I15.431 J-4.224
G2 X-14.04 Y-2.414 I-1.835 J-0.079
G3 X-14.89 Y-4.212 I0.735 J-1.448
X-14.665 Y-5.126 I19.033 J4.204
X-13.906 Y-6.91 I6.967 J1.91
X-8.856 Y-12.484 I16.32 J9.711
X-1.866 Y-15.264 I8.789 J11.921
X7.261 Y-13.437 I1.801 J14.714
X13.904 Y-6.916 I-8.974 J15.784
X14.655 Y-5.15 I-6.213 J3.685
X14.657 Y5.142 I-18.682 J5.151
X13.909 Y6.904 I-6.964 J-1.919
X12.315 Y9.209 I-17.225 J-10.201
X10.43 Y11.284 I-17.456 J-13.967
G2 X7.832 Y14.243 I17.193 J17.713
X6.19 Y17.822 I7.555 J5.632
X5.98 Y19.025 I12.763 J2.849
X5.903 Y20.244 I9.615 J1.22
G1 X6.038 Y29.659
G3 X5.074 Y30.622 I-0.963
G1 X-5.086
G3 X-6.037 Y29.671 J-0.951
G1 X-5.903 Y20.243
G2 X-6.575 Y16.529 I-10.613 J0.002
X-8.452 Y13.254 I-10.922 J4.083
X-10.6 Y11.036 I-13.86 J11.276
G3 X-12.7 Y8.772 I9.371 J-10.797
X-13.326 Y7.86 I11.59 J-8.622
X-13.903 Y6.917 I33.86 J-21.372
X-14.657 Y5.139 I6.213 J-3.686
X-14.89 Y-4.212 I18.8 J-5.146
G2 X-15.596 Y-6.05 I-1.743 J-0.385
G3 X-15.994 Y-7.978 I0.841 J-1.179
X-10.248 Y-14.33 I19.282 J11.669
X-2.151 Y-17.592 I10.15 J13.512
X13.338 Y-11.669 I2.153 J17.585
X14.795 Y-9.817 I-17.385 J15.174
X16.077 Y-7.84 I-24.03 J16.99
X16.828 Y-6.075 I-6.213 J3.685
X16.831 Y6.065 I-22.035 J6.076
X16.082 Y7.827 I-6.964 J-1.919
X14.242 Y10.529 I-22.301 J-13.208
X12.061 Y12.964 I-18.531 J-14.409
G2 X9.875 Y15.386 I17.171 J17.69
X8.475 Y18.332 I5.763 J4.545
X8.307 Y19.282 I10.571 J2.36
X8.244 Y20.245 I7.337 J0.963
G1 X8.378 Y31.999
G3 X7.415 Y32.963 I-0.963
G1 X-7.426
G3 X-8.377 Y32.012 J-0.951
G1 X-8.244 Y20.244
G2 X-8.781 Y17.313 I-8.279 J0.002
X-10.268 Y14.731 I-8.722 J3.304
X-12.441 Y12.468 I-14.816 J12.053
G3 X-14.564 Y10.159 I10.011 J-11.337
X-15.351 Y9.019 I15.634 J-11.63
X-16.077 Y7.84 I35.274 J-22.535
X-16.832 Y6.061 I6.213 J-3.686
X-16.839 Y-6.05 I22.17 J-6.069
X-16.08 Y-7.835 I6.967 J1.91
X-15.994 Y-7.978 I19.368 J11.525
G2 X-16.116 Y-10.033 I-1.551 J-0.939
G3 X-16.136 Y-12.091 I1.334 J-1.042
X15.984 Y-12.292 I16.136 J12.108
X17.36 Y10.262 I-15.951 J12.293
X15.672 Y12.575 I-12.853 J-7.612
X13.692 Y14.644 I-29.093 J-25.863
G2 X11.57 Y17.129 I12.152 J12.519
X10.585 Y20.245 I4.433 J3.116
G1 X10.719 Y34.34
G3 X9.755 Y35.303 I-0.963
G1 X-9.766
G3 X-10.717 Y34.352 J-0.951
G1 X-10.585 Y20.244
G2 X-10.986 Y18.097 I-5.948 J0.001
X-12.084 Y16.208 I-6.527 J2.528
X-14.054 Y14.256 I-10.049 J8.175
G3 X-15.998 Y12.277 I7.158 J-8.973
X-17.337 Y-10.3 I15.973 J-12.275
X-16.136 Y-12.091 I17.337 J10.316
G2 X-16.033 Y-13.994 I-1.37 J-1.028
G3 X-15.803 Y-15.885 I1.342 J-0.796
X-14.967 Y-16.683 I13.262 J13.051
X14.967 I14.967 J16.682
X17.856 Y-13.398 I-12.387 J13.806
G2 X20.362 Y-9.813 I263.265 J-181.325
G3 X21.255 Y-7.679 I-4.32 J3.063
G2 X22.005 Y-3.851 I113.585 J-20.257
G3 X22.413 Y0.029 I-18.116 J3.867
X22.004 Y3.881 I-18.449 J-0.013
G2 X21.255 Y7.681 I115.833 J24.815
G3 X20.378 Y9.793 I-5.265 J-0.949
G2 X18.558 Y12.505 I74.63 J52.046
G3 X16.548 Y15.081 I-15.363 J-9.914
X14.478 Y17.068 I-19.493 J-18.232
G2 X13.004 Y19.53 I2.978 J3.456
X12.925 Y20.245 I3.206 J0.716
G1 X13.059 Y36.681
G3 X12.096 Y37.644 I-0.963
G1 X-12.106
G3 X-13.057 Y36.693 J-0.951
G1 X-12.925 Y20.245
G2 X-13.727 Y18.04 I-3.436 J0.001
X-15.325 Y16.322 I-17.26 J14.449
G3 X-17.993 Y13.182 I14.846 J-15.325
G2 X-20.363 Y9.811 I-348.82 J242.688
G3 X-21.254 Y7.687 I4.294 J-3.05
G2 X-22.004 Y3.858 I-112.786 J20.121
G3 X-22.414 Y-0.023 I18.12 J-3.874
X-22.008 Y-3.894 I18.745 J0.007
G2 X-21.249 Y-7.711 I-158.921 J-33.602
G3 X-20.359 Y-9.817 I5.259 J0.981
G2 X-17.856 Y-13.402 I-319.37 J-225.691
G3 X-15.803 Y-15.885 I15.314 J10.568
G2 X-15.352 Y-17.967 I-1.421 J-1.398
G3 X-14.773 Y-20.017 I1.709 J-0.624
G1 X-14.258 Y-20.425
X-11.657 Y-22.013
X-8.911 Y-23.261
X-5.983 Y-24.178
X-3.024 Y-24.725
X0 Y-24.91
X3.024 Y-24.725
X6.034 Y-24.166
X8.91 Y-23.261
X11.699 Y-21.989
X14.258 Y-20.425
X16.634 Y-18.541
X18.752 Y-16.394
X20.632 Y-13.955
X22.248 Y-11.23
G2 X22.336 Y-11.11 I0.683 J-0.405
G1 X22.454 Y-10.975
G2 X22.573 Y-10.865 I0.595 J-0.525
G1 X22.688 Y-10.779
G2 X22.807 Y-10.705 I0.477 J-0.635
G1 X22.928 Y-10.644
G2 X23.05 Y-10.595 I0.358 J-0.708
G1 X23.171 Y-10.557
G2 X23.315 Y-10.526 I0.236 J-0.758
G1 X23.482 Y-10.507
G2 X23.651 Y-10.505 I0.092 J-0.788
G1 X23.818 Y-10.521
G2 X23.957 Y-10.548 I-0.076 J-0.79
G1 X24.069 Y-10.579
G2 X24.12 Y-10.595 I-0.216 J-0.764
G1 X24.309 Y-10.663
X24.538 Y-10.687
X24.689 Y-10.638
X24.805 Y-10.534
X24.869 Y-10.391
Y-10.24
X24.798 Y-10.085
X24.633 Y-9.936
X24.337 Y-9.787
G2 X24.208 Y-9.705 I0.357 J0.709
G1 X24.107 Y-9.627
G2 X23.998 Y-9.524 I0.487 J0.627
G1 X23.884 Y-9.395
G2 X23.789 Y-9.261 I0.596 J0.524
G1 X23.712 Y-9.126
G2 X23.646 Y-8.974 I0.691 J0.391
G1 X23.593 Y-8.806
G2 X23.56 Y-8.638 I0.757 J0.239
G1 X23.545 Y-8.47
G2 X23.548 Y-8.302 I0.791 J0.07
G1 X23.568 Y-8.134
G2 X23.591 Y-8.021 I0.788 J-0.098
G1 X24.334 Y-5.327
X24.766 Y-2.675
X24.909 Y0.031
X24.765 Y2.682
X24.332 Y5.334
X23.589 Y8.029
G2 X23.566 Y8.15 I0.765 J0.211
G1 X23.547 Y8.317
G2 X23.545 Y8.486 I0.789 J0.09
G1 X23.562 Y8.653
G2 X23.597 Y8.822 I0.79 J-0.078
G1 X23.652 Y8.989
G2 X23.723 Y9.146 I0.754 J-0.247
G1 X23.809 Y9.292
G2 X23.898 Y9.414 I0.683 J-0.404
G1 X23.987 Y9.515
G2 X24.088 Y9.61 I0.594 J-0.526
G1 X24.201 Y9.699
G2 X24.339 Y9.788 I0.493 J-0.622
G1 X24.628 Y9.932
X24.805 Y10.091
X24.865 Y10.226
Y10.399
X24.805 Y10.534
X24.689 Y10.639
X24.545 Y10.685
X24.304 Y10.662
X24.059 Y10.576
G2 X23.924 Y10.541 I-0.263 J0.749
G1 X23.749 Y10.513
G2 X23.582 Y10.504 I-0.128 J0.783
G1 X23.424 Y10.511
G2 X23.26 Y10.537 I0.04 J0.793
G1 X23.092 Y10.582
G2 X22.953 Y10.633 I0.204 J0.767
G1 X22.841 Y10.686
G2 X22.729 Y10.752 I0.343 J0.716
G1 X22.617 Y10.83
G2 X22.505 Y10.926 I0.455 J0.65
G1 X22.393 Y11.04
G2 X22.294 Y11.164 I0.568 J0.555
G1 X22.189 Y11.327
G2 X22.173 Y11.353 I0.667 J0.431
G1 X20.735 Y13.78
X20.281 Y14.411
X19.217 Y15.795
X18.923 Y16.158
X18.369 Y16.783
X17.058 Y18.112
X15.869 Y19.217
G2 X15.776 Y19.32 I0.54 J0.581
G1 X15.696 Y19.425
G2 X15.615 Y19.559 I0.633 J0.479
G1 X15.535 Y19.723
G2 X15.476 Y19.895 I0.715 J0.345
G1 X15.436 Y20.073
G2 X15.417 Y20.245 I0.775 J0.173
G1 X15.415 Y40
X-15.416
X-15.413 Y39.93
G2 Y39.901 I-0.793 J-0.029
G1 X-15.417 Y20.245
G2 X-15.436 Y20.073 I-0.794
G1 X-15.476 Y19.895
G2 X-15.535 Y19.723 I-0.775 J0.173
G1 X-15.615 Y19.559
G2 X-15.714 Y19.403 I-0.715 J0.345
G1 X-15.832 Y19.258
G2 X-15.909 Y19.176 I-0.616 J0.501
G1 X-17.059 Y18.112
X-18.369 Y16.783
X-18.922 Y16.159
X-19.264 Y15.734
X-20.281 Y14.411
X-20.736 Y13.78
X-22.248 Y11.23
G2 X-22.318 Y11.131 I-0.683 J0.405
G1 X-22.398 Y11.033
G2 X-22.497 Y10.933 I-0.613 J0.504
G1 X-22.614 Y10.833
G2 X-22.729 Y10.751 I-0.514 J0.604
G1 X-22.841 Y10.687
G2 X-22.98 Y10.623 I-0.399 J0.686
G1 X-23.147 Y10.565
G2 X-23.319 Y10.526 I-0.26 J0.75
G1 X-23.494 Y10.506
G2 X-23.661 I-0.088 J0.789
G1 X-23.819 Y10.521
G2 X-23.964 Y10.55 I0.079 J0.79
G1 X-24.428 Y10.686
X-24.626 Y10.666
X-24.748 Y10.595
X-24.846 Y10.459
X-24.877 Y10.312
X-24.844 Y10.159
X-24.751 Y10.03
X-24.294 Y9.763
G2 X-24.201 Y9.699 I-0.4 J-0.686
G1 X-24.088 Y9.61
G2 X-23.974 Y9.499 I-0.493 J-0.622
G1 X-23.861 Y9.365
G2 X-23.775 Y9.24 I-0.608 J-0.511
G1 X-23.713 Y9.129
G2 X-23.652 Y8.989 I-0.694 J-0.386
G1 X-23.597 Y8.822
G2 X-23.562 Y8.653 I-0.754 J-0.247
G1 X-23.545 Y8.486
G2 X-23.547 Y8.317 I-0.79 J-0.078
G1 X-23.566 Y8.15
G2 X-23.589 Y8.031 I-0.789 J0.09
G1 X-24.342 Y5.279
X-24.765 Y2.683
X-24.909 Y-0.024
X-24.766 Y-2.675
X-24.334 Y-5.327
X-23.58 Y-8.078
