(Exported by FreeCAD)
(Post Processor: script_module)
(Output Time:2024-12-23 00:11:36.972924)
(Begin preamble)
G17 G90
G21
(Block-name: Fixture)
(Block-expand: 0)
(Block-enable: 1)
(Begin operation: Fixture)
(Path: Fixture)
G54
(Finish operation: Fixture)
(Block-name: 3mm Endmill001)
(Block-expand: 0)
(Block-enable: 1)
(Begin operation: 3mm Endmill001)
(Path: 3mm Endmill001)
(3mm Endmill001)
(Begin toolchange)
( M6 T2 )
M3 S10000
(Finish operation: 3mm Endmill001)
(Block-name: Adaptive001)
(Block-expand: 0)
(Block-enable: 1)
(Begin operation: Adaptive001)
(Path: Adaptive001)
(Adaptive001)
(Helix to depth: -16.000000)
G0 Z6.000
G0 X-2.384 Y-0.399 Z6.000
G0 X-2.384 Y-0.399 Z4.000
G1 X-2.384 Y-0.399 Z-10.000 F400.000
G1 X-2.384 Y-0.399 Z-10.000 F400.000
G1 X-2.311 Y-0.337 Z-10.009 F400.000
G1 X-2.252 Y-0.261 Z-10.017 F400.000
G1 X-2.209 Y-0.175 Z-10.026 F400.000
G1 X-2.184 Y-0.083 Z-10.034 F400.000
G1 X-2.177 Y0.013 Z-10.043 F400.000
G1 X-2.189 Y0.108 Z-10.051 F400.000
G1 X-2.219 Y0.199 Z-10.060 F400.000
G1 X-2.267 Y0.282 Z-10.069 F400.000
G1 X-2.329 Y0.355 Z-10.077 F400.000
G1 X-2.405 Y0.414 Z-10.086 F400.000
G1 X-2.491 Y0.457 Z-10.094 F400.000
G1 X-2.583 Y0.482 Z-10.103 F400.000
G1 X-2.679 Y0.489 Z-10.111 F400.000
G1 X-2.774 Y0.477 Z-10.120 F400.000
G1 X-2.865 Y0.447 Z-10.129 F400.000
G1 X-2.948 Y0.399 Z-10.137 F400.000
G1 X-3.021 Y0.337 Z-10.146 F400.000
G1 X-3.080 Y0.261 Z-10.154 F400.000
G1 X-3.123 Y0.175 Z-10.163 F400.000
G1 X-3.148 Y0.083 Z-10.171 F400.000
G1 X-3.155 Y-0.013 Z-10.180 F400.000
G1 X-3.143 Y-0.108 Z-10.189 F400.000
G1 X-3.113 Y-0.199 Z-10.197 F400.000
G1 X-3.065 Y-0.282 Z-10.206 F400.000
G1 X-3.003 Y-0.355 Z-10.214 F400.000
G1 X-2.927 Y-0.414 Z-10.223 F400.000
G1 X-2.841 Y-0.457 Z-10.231 F400.000
G1 X-2.749 Y-0.482 Z-10.240 F400.000
G1 X-2.653 Y-0.489 Z-10.249 F400.000
G1 X-2.558 Y-0.477 Z-10.257 F400.000
G1 X-2.467 Y-0.447 Z-10.266 F400.000
G1 X-2.384 Y-0.399 Z-10.274 F400.000
G1 X-2.311 Y-0.337 Z-10.283 F400.000
G1 X-2.252 Y-0.261 Z-10.291 F400.000
G1 X-2.209 Y-0.175 Z-10.300 F400.000
G1 X-2.184 Y-0.083 Z-10.309 F400.000
G1 X-2.177 Y0.013 Z-10.317 F400.000
G1 X-2.189 Y0.108 Z-10.326 F400.000
G1 X-2.219 Y0.199 Z-10.334 F400.000
G1 X-2.267 Y0.282 Z-10.343 F400.000
G1 X-2.329 Y0.355 Z-10.351 F400.000
G1 X-2.405 Y0.414 Z-10.360 F400.000
G1 X-2.491 Y0.457 Z-10.369 F400.000
G1 X-2.583 Y0.482 Z-10.377 F400.000
G1 X-2.679 Y0.489 Z-10.386 F400.000
G1 X-2.774 Y0.477 Z-10.394 F400.000
G1 X-2.865 Y0.447 Z-10.403 F400.000
G1 X-2.948 Y0.399 Z-10.412 F400.000
G1 X-3.021 Y0.337 Z-10.420 F400.000
G1 X-3.080 Y0.261 Z-10.429 F400.000
G1 X-3.123 Y0.175 Z-10.437 F400.000
G1 X-3.148 Y0.083 Z-10.446 F400.000
G1 X-3.155 Y-0.013 Z-10.454 F400.000
G1 X-3.143 Y-0.108 Z-10.463 F400.000
G1 X-3.113 Y-0.199 Z-10.472 F400.000
G1 X-3.065 Y-0.282 Z-10.480 F400.000
G1 X-3.003 Y-0.355 Z-10.489 F400.000
G1 X-2.927 Y-0.414 Z-10.497 F400.000
G1 X-2.841 Y-0.457 Z-10.506 F400.000
G1 X-2.749 Y-0.482 Z-10.514 F400.000
G1 X-2.653 Y-0.489 Z-10.523 F400.000
G1 X-2.558 Y-0.477 Z-10.532 F400.000
G1 X-2.467 Y-0.447 Z-10.540 F400.000
G1 X-2.384 Y-0.399 Z-10.549 F400.000
G1 X-2.311 Y-0.337 Z-10.557 F400.000
G1 X-2.252 Y-0.261 Z-10.566 F400.000
G1 X-2.209 Y-0.175 Z-10.574 F400.000
G1 X-2.184 Y-0.083 Z-10.583 F400.000
G1 X-2.177 Y0.013 Z-10.592 F400.000
G1 X-2.189 Y0.108 Z-10.600 F400.000
G1 X-2.219 Y0.199 Z-10.609 F400.000
G1 X-2.267 Y0.282 Z-10.617 F400.000
G1 X-2.329 Y0.355 Z-10.626 F400.000
G1 X-2.405 Y0.414 Z-10.634 F400.000
G1 X-2.491 Y0.457 Z-10.643 F400.000
G1 X-2.583 Y0.482 Z-10.652 F400.000
G1 X-2.679 Y0.489 Z-10.660 F400.000
G1 X-2.774 Y0.477 Z-10.669 F400.000
G1 X-2.865 Y0.447 Z-10.677 F400.000
G1 X-2.948 Y0.399 Z-10.686 F400.000
G1 X-3.021 Y0.337 Z-10.694 F400.000
G1 X-3.080 Y0.261 Z-10.703 F400.000
G1 X-3.123 Y0.175 Z-10.712 F400.000
G1 X-3.148 Y0.083 Z-10.720 F400.000
G1 X-3.155 Y-0.013 Z-10.729 F400.000
G1 X-3.143 Y-0.108 Z-10.737 F400.000
G1 X-3.113 Y-0.199 Z-10.746 F400.000
G1 X-3.065 Y-0.282 Z-10.754 F400.000
G1 X-3.003 Y-0.355 Z-10.763 F400.000
G1 X-2.927 Y-0.414 Z-10.772 F400.000
G1 X-2.841 Y-0.457 Z-10.780 F400.000
G1 X-2.749 Y-0.482 Z-10.789 F400.000
G1 X-2.653 Y-0.489 Z-10.797 F400.000
G1 X-2.558 Y-0.477 Z-10.806 F400.000
G1 X-2.467 Y-0.447 Z-10.814 F400.000
G1 X-2.384 Y-0.399 Z-10.823 F400.000
G1 X-2.311 Y-0.337 Z-10.832 F400.000
G1 X-2.252 Y-0.261 Z-10.840 F400.000
G1 X-2.209 Y-0.175 Z-10.849 F400.000
G1 X-2.184 Y-0.083 Z-10.857 F400.000
G1 X-2.177 Y0.013 Z-10.866 F400.000
G1 X-2.189 Y0.108 Z-10.874 F400.000
G1 X-2.219 Y0.199 Z-10.883 F400.000
G1 X-2.267 Y0.282 Z-10.892 F400.000
G1 X-2.329 Y0.355 Z-10.900 F400.000
G1 X-2.405 Y0.414 Z-10.909 F400.000
G1 X-2.491 Y0.457 Z-10.917 F400.000
G1 X-2.583 Y0.482 Z-10.926 F400.000
G1 X-2.679 Y0.489 Z-10.934 F400.000
G1 X-2.774 Y0.477 Z-10.943 F400.000
G1 X-2.865 Y0.447 Z-10.952 F400.000
G1 X-2.948 Y0.399 Z-10.960 F400.000
G1 X-3.021 Y0.337 Z-10.969 F400.000
G1 X-3.080 Y0.261 Z-10.977 F400.000
G1 X-3.123 Y0.175 Z-10.986 F400.000
G1 X-3.148 Y0.083 Z-10.994 F400.000
G1 X-3.155 Y-0.013 Z-11.003 F400.000
G1 X-3.143 Y-0.108 Z-11.012 F400.000
G1 X-3.113 Y-0.199 Z-11.020 F400.000
G1 X-3.065 Y-0.282 Z-11.029 F400.000
G1 X-3.003 Y-0.355 Z-11.037 F400.000
G1 X-2.927 Y-0.414 Z-11.046 F400.000
G1 X-2.841 Y-0.457 Z-11.054 F400.000
G1 X-2.749 Y-0.482 Z-11.063 F400.000
G1 X-2.653 Y-0.489 Z-11.072 F400.000
G1 X-2.558 Y-0.477 Z-11.080 F400.000
G1 X-2.467 Y-0.447 Z-11.089 F400.000
G1 X-2.384 Y-0.399 Z-11.097 F400.000
G1 X-2.311 Y-0.337 Z-11.106 F400.000
G1 X-2.252 Y-0.261 Z-11.114 F400.000
G1 X-2.209 Y-0.175 Z-11.123 F400.000
G1 X-2.184 Y-0.083 Z-11.132 F400.000
G1 X-2.177 Y0.013 Z-11.140 F400.000
G1 X-2.189 Y0.108 Z-11.149 F400.000
G1 X-2.219 Y0.199 Z-11.157 F400.000
G1 X-2.267 Y0.282 Z-11.166 F400.000
G1 X-2.329 Y0.355 Z-11.175 F400.000
G1 X-2.405 Y0.414 Z-11.183 F400.000
G1 X-2.491 Y0.457 Z-11.192 F400.000
G1 X-2.583 Y0.482 Z-11.200 F400.000
G1 X-2.679 Y0.489 Z-11.209 F400.000
G1 X-2.774 Y0.477 Z-11.217 F400.000
G1 X-2.865 Y0.447 Z-11.226 F400.000
G1 X-2.948 Y0.399 Z-11.235 F400.000
G1 X-3.021 Y0.337 Z-11.243 F400.000
G1 X-3.080 Y0.261 Z-11.252 F400.000
G1 X-3.123 Y0.175 Z-11.260 F400.000
G1 X-3.148 Y0.083 Z-11.269 F400.000
G1 X-3.155 Y-0.013 Z-11.277 F400.000
G1 X-3.143 Y-0.108 Z-11.286 F400.000
G1 X-3.113 Y-0.199 Z-11.295 F400.000
G1 X-3.065 Y-0.282 Z-11.303 F400.000
G1 X-3.003 Y-0.355 Z-11.312 F400.000
G1 X-2.927 Y-0.414 Z-11.320 F400.000
G1 X-2.841 Y-0.457 Z-11.329 F400.000
G1 X-2.749 Y-0.482 Z-11.337 F400.000
G1 X-2.653 Y-0.489 Z-11.346 F400.000
G1 X-2.558 Y-0.477 Z-11.355 F400.000
G1 X-2.467 Y-0.447 Z-11.363 F400.000
G1 X-2.384 Y-0.399 Z-11.372 F400.000
G1 X-2.311 Y-0.337 Z-11.380 F400.000
G1 X-2.252 Y-0.261 Z-11.389 F400.000
G1 X-2.209 Y-0.175 Z-11.397 F400.000
G1 X-2.184 Y-0.083 Z-11.406 F400.000
G1 X-2.177 Y0.013 Z-11.415 F400.000
G1 X-2.189 Y0.108 Z-11.423 F400.000
G1 X-2.219 Y0.199 Z-11.432 F400.000
G1 X-2.267 Y0.282 Z-11.440 F400.000
G1 X-2.329 Y0.355 Z-11.449 F400.000
G1 X-2.405 Y0.414 Z-11.457 F400.000
G1 X-2.491 Y0.457 Z-11.466 F400.000
G1 X-2.583 Y0.482 Z-11.475 F400.000
G1 X-2.679 Y0.489 Z-11.483 F400.000
G1 X-2.774 Y0.477 Z-11.492 F400.000
G1 X-2.865 Y0.447 Z-11.500 F400.000
G1 X-2.948 Y0.399 Z-11.509 F400.000
G1 X-3.021 Y0.337 Z-11.517 F400.000
G1 X-3.080 Y0.261 Z-11.526 F400.000
G1 X-3.123 Y0.175 Z-11.535 F400.000
G1 X-3.148 Y0.083 Z-11.543 F400.000
G1 X-3.155 Y-0.013 Z-11.552 F400.000
G1 X-3.143 Y-0.108 Z-11.560 F400.000
G1 X-3.113 Y-0.199 Z-11.569 F400.000
G1 X-3.065 Y-0.282 Z-11.577 F400.000
G1 X-3.003 Y-0.355 Z-11.586 F400.000
G1 X-2.927 Y-0.414 Z-11.595 F400.000
G1 X-2.841 Y-0.457 Z-11.603 F400.000
G1 X-2.749 Y-0.482 Z-11.612 F400.000
G1 X-2.653 Y-0.489 Z-11.620 F400.000
G1 X-2.558 Y-0.477 Z-11.629 F400.000
G1 X-2.467 Y-0.447 Z-11.637 F400.000
G1 X-2.384 Y-0.399 Z-11.646 F400.000
G1 X-2.311 Y-0.337 Z-11.655 F400.000
G1 X-2.252 Y-0.261 Z-11.663 F400.000
G1 X-2.209 Y-0.175 Z-11.672 F400.000
G1 X-2.184 Y-0.083 Z-11.680 F400.000
G1 X-2.177 Y0.013 Z-11.689 F400.000
G1 X-2.189 Y0.108 Z-11.697 F400.000
G1 X-2.219 Y0.199 Z-11.706 F400.000
G1 X-2.267 Y0.282 Z-11.715 F400.000
G1 X-2.329 Y0.355 Z-11.723 F400.000
G1 X-2.405 Y0.414 Z-11.732 F400.000
G1 X-2.491 Y0.457 Z-11.740 F400.000
G1 X-2.583 Y0.482 Z-11.749 F400.000
G1 X-2.679 Y0.489 Z-11.757 F400.000
G1 X-2.774 Y0.477 Z-11.766 F400.000
G1 X-2.865 Y0.447 Z-11.775 F400.000
G1 X-2.948 Y0.399 Z-11.783 F400.000
G1 X-3.021 Y0.337 Z-11.792 F400.000
G1 X-3.080 Y0.261 Z-11.800 F400.000
G1 X-3.123 Y0.175 Z-11.809 F400.000
G1 X-3.148 Y0.083 Z-11.817 F400.000
G1 X-3.155 Y-0.013 Z-11.826 F400.000
G1 X-3.143 Y-0.108 Z-11.835 F400.000
G1 X-3.113 Y-0.199 Z-11.843 F400.000
G1 X-3.065 Y-0.282 Z-11.852 F400.000
G1 X-3.003 Y-0.355 Z-11.860 F400.000
G1 X-2.927 Y-0.414 Z-11.869 F400.000
G1 X-2.841 Y-0.457 Z-11.878 F400.000
G1 X-2.749 Y-0.482 Z-11.886 F400.000
G1 X-2.653 Y-0.489 Z-11.895 F400.000
G1 X-2.558 Y-0.477 Z-11.903 F400.000
G1 X-2.467 Y-0.447 Z-11.912 F400.000
G1 X-2.384 Y-0.399 Z-11.920 F400.000
G1 X-2.311 Y-0.337 Z-11.929 F400.000
G1 X-2.252 Y-0.261 Z-11.938 F400.000
G1 X-2.209 Y-0.175 Z-11.946 F400.000
G1 X-2.184 Y-0.083 Z-11.955 F400.000
G1 X-2.177 Y0.013 Z-11.963 F400.000
G1 X-2.189 Y0.108 Z-11.972 F400.000
G1 X-2.219 Y0.199 Z-11.980 F400.000
G1 X-2.267 Y0.282 Z-11.989 F400.000
G1 X-2.329 Y0.355 Z-11.998 F400.000
G1 X-2.405 Y0.414 Z-12.006 F400.000
G1 X-2.491 Y0.457 Z-12.015 F400.000
G1 X-2.583 Y0.482 Z-12.023 F400.000
G1 X-2.679 Y0.489 Z-12.032 F400.000
G1 X-2.774 Y0.477 Z-12.040 F400.000
G1 X-2.865 Y0.447 Z-12.049 F400.000
G1 X-2.948 Y0.399 Z-12.058 F400.000
G1 X-3.021 Y0.337 Z-12.066 F400.000
G1 X-3.080 Y0.261 Z-12.075 F400.000
G1 X-3.123 Y0.175 Z-12.083 F400.000
G1 X-3.148 Y0.083 Z-12.092 F400.000
G1 X-3.155 Y-0.013 Z-12.100 F400.000
G1 X-3.143 Y-0.108 Z-12.109 F400.000
G1 X-3.113 Y-0.199 Z-12.118 F400.000
G1 X-3.065 Y-0.282 Z-12.126 F400.000
G1 X-3.003 Y-0.355 Z-12.135 F400.000
G1 X-2.927 Y-0.414 Z-12.143 F400.000
G1 X-2.841 Y-0.457 Z-12.152 F400.000
G1 X-2.749 Y-0.482 Z-12.160 F400.000
G1 X-2.653 Y-0.489 Z-12.169 F400.000
G1 X-2.558 Y-0.477 Z-12.178 F400.000
G1 X-2.467 Y-0.447 Z-12.186 F400.000
G1 X-2.384 Y-0.399 Z-12.195 F400.000
G1 X-2.311 Y-0.337 Z-12.203 F400.000
G1 X-2.252 Y-0.261 Z-12.212 F400.000
G1 X-2.209 Y-0.175 Z-12.220 F400.000
G1 X-2.184 Y-0.083 Z-12.229 F400.000
G1 X-2.177 Y0.013 Z-12.238 F400.000
G1 X-2.189 Y0.108 Z-12.246 F400.000
G1 X-2.219 Y0.199 Z-12.255 F400.000
G1 X-2.267 Y0.282 Z-12.263 F400.000
G1 X-2.329 Y0.355 Z-12.272 F400.000
G1 X-2.405 Y0.414 Z-12.280 F400.000
G1 X-2.491 Y0.457 Z-12.289 F400.000
G1 X-2.583 Y0.482 Z-12.298 F400.000
G1 X-2.679 Y0.489 Z-12.306 F400.000
G1 X-2.774 Y0.477 Z-12.315 F400.000
G1 X-2.865 Y0.447 Z-12.323 F400.000
G1 X-2.948 Y0.399 Z-12.332 F400.000
G1 X-3.021 Y0.337 Z-12.340 F400.000
G1 X-3.080 Y0.261 Z-12.349 F400.000
G1 X-3.123 Y0.175 Z-12.358 F400.000
G1 X-3.148 Y0.083 Z-12.366 F400.000
G1 X-3.155 Y-0.013 Z-12.375 F400.000
G1 X-3.143 Y-0.108 Z-12.383 F400.000
G1 X-3.113 Y-0.199 Z-12.392 F400.000
G1 X-3.065 Y-0.282 Z-12.400 F400.000
G1 X-3.003 Y-0.355 Z-12.409 F400.000
G1 X-2.927 Y-0.414 Z-12.418 F400.000
G1 X-2.841 Y-0.457 Z-12.426 F400.000
G1 X-2.749 Y-0.482 Z-12.435 F400.000
G1 X-2.653 Y-0.489 Z-12.443 F400.000
G1 X-2.558 Y-0.477 Z-12.452 F400.000
G1 X-2.467 Y-0.447 Z-12.460 F400.000
G1 X-2.384 Y-0.399 Z-12.469 F400.000
G1 X-2.311 Y-0.337 Z-12.478 F400.000
G1 X-2.252 Y-0.261 Z-12.486 F400.000
G1 X-2.209 Y-0.175 Z-12.495 F400.000
G1 X-2.184 Y-0.083 Z-12.503 F400.000
G1 X-2.177 Y0.013 Z-12.512 F400.000
G1 X-2.189 Y0.108 Z-12.520 F400.000
G1 X-2.219 Y0.199 Z-12.529 F400.000
G1 X-2.267 Y0.282 Z-12.538 F400.000
G1 X-2.329 Y0.355 Z-12.546 F400.000
G1 X-2.405 Y0.414 Z-12.555 F400.000
G1 X-2.491 Y0.457 Z-12.563 F400.000
G1 X-2.583 Y0.482 Z-12.572 F400.000
G1 X-2.679 Y0.489 Z-12.580 F400.000
G1 X-2.774 Y0.477 Z-12.589 F400.000
G1 X-2.865 Y0.447 Z-12.598 F400.000
G1 X-2.948 Y0.399 Z-12.606 F400.000
G1 X-3.021 Y0.337 Z-12.615 F400.000
G1 X-3.080 Y0.261 Z-12.623 F400.000
G1 X-3.123 Y0.175 Z-12.632 F400.000
G1 X-3.148 Y0.083 Z-12.641 F400.000
G1 X-3.155 Y-0.013 Z-12.649 F400.000
G1 X-3.143 Y-0.108 Z-12.658 F400.000
G1 X-3.113 Y-0.199 Z-12.666 F400.000
G1 X-3.065 Y-0.282 Z-12.675 F400.000
G1 X-3.003 Y-0.355 Z-12.683 F400.000
G1 X-2.927 Y-0.414 Z-12.692 F400.000
G1 X-2.841 Y-0.457 Z-12.701 F400.000
G1 X-2.749 Y-0.482 Z-12.709 F400.000
G1 X-2.653 Y-0.489 Z-12.718 F400.000
G1 X-2.558 Y-0.477 Z-12.726 F400.000
G1 X-2.467 Y-0.447 Z-12.735 F400.000
G1 X-2.384 Y-0.399 Z-12.743 F400.000
G1 X-2.311 Y-0.337 Z-12.752 F400.000
G1 X-2.252 Y-0.261 Z-12.761 F400.000
G1 X-2.209 Y-0.175 Z-12.769 F400.000
G1 X-2.184 Y-0.083 Z-12.778 F400.000
G1 X-2.177 Y0.013 Z-12.786 F400.000
G1 X-2.189 Y0.108 Z-12.795 F400.000
G1 X-2.219 Y0.199 Z-12.803 F400.000
G1 X-2.267 Y0.282 Z-12.812 F400.000
G1 X-2.329 Y0.355 Z-12.821 F400.000
G1 X-2.405 Y0.414 Z-12.829 F400.000
G1 X-2.491 Y0.457 Z-12.838 F400.000
G1 X-2.583 Y0.482 Z-12.846 F400.000
G1 X-2.679 Y0.489 Z-12.855 F400.000
G1 X-2.774 Y0.477 Z-12.863 F400.000
G1 X-2.865 Y0.447 Z-12.872 F400.000
G1 X-2.948 Y0.399 Z-12.881 F400.000
G1 X-3.021 Y0.337 Z-12.889 F400.000
G1 X-3.080 Y0.261 Z-12.898 F400.000
G1 X-3.123 Y0.175 Z-12.906 F400.000
G1 X-3.148 Y0.083 Z-12.915 F400.000
G1 X-3.155 Y-0.013 Z-12.923 F400.000
G1 X-3.143 Y-0.108 Z-12.932 F400.000
G1 X-3.113 Y-0.199 Z-12.941 F400.000
G1 X-3.065 Y-0.282 Z-12.949 F400.000
G1 X-3.003 Y-0.355 Z-12.958 F400.000
G1 X-2.927 Y-0.414 Z-12.966 F400.000
G1 X-2.841 Y-0.457 Z-12.975 F400.000
G1 X-2.749 Y-0.482 Z-12.983 F400.000
G1 X-2.653 Y-0.489 Z-12.992 F400.000
G1 X-2.558 Y-0.477 Z-13.001 F400.000
G1 X-2.467 Y-0.447 Z-13.009 F400.000
G1 X-2.384 Y-0.399 Z-13.018 F400.000
G1 X-2.311 Y-0.337 Z-13.026 F400.000
G1 X-2.252 Y-0.261 Z-13.035 F400.000
G1 X-2.209 Y-0.175 Z-13.043 F400.000
G1 X-2.184 Y-0.083 Z-13.052 F400.000
G1 X-2.177 Y0.013 Z-13.061 F400.000
G1 X-2.189 Y0.108 Z-13.069 F400.000
G1 X-2.219 Y0.199 Z-13.078 F400.000
G1 X-2.267 Y0.282 Z-13.086 F400.000
G1 X-2.329 Y0.355 Z-13.095 F400.000
G1 X-2.405 Y0.414 Z-13.103 F400.000
G1 X-2.491 Y0.457 Z-13.112 F400.000
G1 X-2.583 Y0.482 Z-13.121 F400.000
G1 X-2.679 Y0.489 Z-13.129 F400.000
G1 X-2.774 Y0.477 Z-13.138 F400.000
G1 X-2.865 Y0.447 Z-13.146 F400.000
G1 X-2.948 Y0.399 Z-13.155 F400.000
G1 X-3.021 Y0.337 Z-13.163 F400.000
G1 X-3.080 Y0.261 Z-13.172 F400.000
G1 X-3.123 Y0.175 Z-13.181 F400.000
G1 X-3.148 Y0.083 Z-13.189 F400.000
G1 X-3.155 Y-0.013 Z-13.198 F400.000
G1 X-3.143 Y-0.108 Z-13.206 F400.000
G1 X-3.113 Y-0.199 Z-13.215 F400.000
G1 X-3.065 Y-0.282 Z-13.223 F400.000
G1 X-3.003 Y-0.355 Z-13.232 F400.000
G1 X-2.927 Y-0.414 Z-13.241 F400.000
G1 X-2.841 Y-0.457 Z-13.249 F400.000
G1 X-2.749 Y-0.482 Z-13.258 F400.000
G1 X-2.653 Y-0.489 Z-13.266 F400.000
G1 X-2.558 Y-0.477 Z-13.275 F400.000
G1 X-2.467 Y-0.447 Z-13.283 F400.000
G1 X-2.384 Y-0.399 Z-13.292 F400.000
G1 X-2.311 Y-0.337 Z-13.301 F400.000
G1 X-2.252 Y-0.261 Z-13.309 F400.000
G1 X-2.209 Y-0.175 Z-13.318 F400.000
G1 X-2.184 Y-0.083 Z-13.326 F400.000
G1 X-2.177 Y0.013 Z-13.335 F400.000
G1 X-2.189 Y0.108 Z-13.343 F400.000
G1 X-2.219 Y0.199 Z-13.352 F400.000
G1 X-2.267 Y0.282 Z-13.361 F400.000
G1 X-2.329 Y0.355 Z-13.369 F400.000
G1 X-2.405 Y0.414 Z-13.378 F400.000
G1 X-2.491 Y0.457 Z-13.386 F400.000
G1 X-2.583 Y0.482 Z-13.395 F400.000
G1 X-2.679 Y0.489 Z-13.404 F400.000
G1 X-2.774 Y0.477 Z-13.412 F400.000
G1 X-2.865 Y0.447 Z-13.421 F400.000
G1 X-2.948 Y0.399 Z-13.429 F400.000
G1 X-3.021 Y0.337 Z-13.438 F400.000
G1 X-3.080 Y0.261 Z-13.446 F400.000
G1 X-3.123 Y0.175 Z-13.455 F400.000
G1 X-3.148 Y0.083 Z-13.464 F400.000
G1 X-3.155 Y-0.013 Z-13.472 F400.000
G1 X-3.143 Y-0.108 Z-13.481 F400.000
G1 X-3.113 Y-0.199 Z-13.489 F400.000
G1 X-3.065 Y-0.282 Z-13.498 F400.000
G1 X-3.003 Y-0.355 Z-13.506 F400.000
G1 X-2.927 Y-0.414 Z-13.515 F400.000
G1 X-2.841 Y-0.457 Z-13.524 F400.000
G1 X-2.749 Y-0.482 Z-13.532 F400.000
G1 X-2.653 Y-0.489 Z-13.541 F400.000
G1 X-2.558 Y-0.477 Z-13.549 F400.000
G1 X-2.467 Y-0.447 Z-13.558 F400.000
G1 X-2.384 Y-0.399 Z-13.566 F400.000
G1 X-2.311 Y-0.337 Z-13.575 F400.000
G1 X-2.252 Y-0.261 Z-13.584 F400.000
G1 X-2.209 Y-0.175 Z-13.592 F400.000
G1 X-2.184 Y-0.083 Z-13.601 F400.000
G1 X-2.177 Y0.013 Z-13.609 F400.000
G1 X-2.189 Y0.108 Z-13.618 F400.000
G1 X-2.219 Y0.199 Z-13.626 F400.000
G1 X-2.267 Y0.282 Z-13.635 F400.000
G1 X-2.329 Y0.355 Z-13.644 F400.000
G1 X-2.405 Y0.414 Z-13.652 F400.000
G1 X-2.491 Y0.457 Z-13.661 F400.000
G1 X-2.583 Y0.482 Z-13.669 F400.000
G1 X-2.679 Y0.489 Z-13.678 F400.000
G1 X-2.774 Y0.477 Z-13.686 F400.000
G1 X-2.865 Y0.447 Z-13.695 F400.000
G1 X-2.948 Y0.399 Z-13.704 F400.000
G1 X-3.021 Y0.337 Z-13.712 F400.000
G1 X-3.080 Y0.261 Z-13.721 F400.000
G1 X-3.123 Y0.175 Z-13.729 F400.000
G1 X-3.148 Y0.083 Z-13.738 F400.000
G1 X-3.155 Y-0.013 Z-13.746 F400.000
G1 X-3.143 Y-0.108 Z-13.755 F400.000
G1 X-3.113 Y-0.199 Z-13.764 F400.000
G1 X-3.065 Y-0.282 Z-13.772 F400.000
G1 X-3.003 Y-0.355 Z-13.781 F400.000
G1 X-2.927 Y-0.414 Z-13.789 F400.000
G1 X-2.841 Y-0.457 Z-13.798 F400.000
G1 X-2.749 Y-0.482 Z-13.806 F400.000
G1 X-2.653 Y-0.489 Z-13.815 F400.000
G1 X-2.558 Y-0.477 Z-13.824 F400.000
G1 X-2.467 Y-0.447 Z-13.832 F400.000
G1 X-2.384 Y-0.399 Z-13.841 F400.000
G1 X-2.311 Y-0.337 Z-13.849 F400.000
G1 X-2.252 Y-0.261 Z-13.858 F400.000
G1 X-2.209 Y-0.175 Z-13.866 F400.000
G1 X-2.184 Y-0.083 Z-13.875 F400.000
G1 X-2.177 Y0.013 Z-13.884 F400.000
G1 X-2.189 Y0.108 Z-13.892 F400.000
G1 X-2.219 Y0.199 Z-13.901 F400.000
G1 X-2.267 Y0.282 Z-13.909 F400.000
G1 X-2.329 Y0.355 Z-13.918 F400.000
G1 X-2.405 Y0.414 Z-13.926 F400.000
G1 X-2.491 Y0.457 Z-13.935 F400.000
G1 X-2.583 Y0.482 Z-13.944 F400.000
G1 X-2.679 Y0.489 Z-13.952 F400.000
G1 X-2.774 Y0.477 Z-13.961 F400.000
G1 X-2.865 Y0.447 Z-13.969 F400.000
G1 X-2.948 Y0.399 Z-13.978 F400.000
G1 X-3.021 Y0.337 Z-13.986 F400.000
G1 X-3.080 Y0.261 Z-13.995 F400.000
G1 X-3.123 Y0.175 Z-14.004 F400.000
G1 X-3.148 Y0.083 Z-14.012 F400.000
G1 X-3.155 Y-0.013 Z-14.021 F400.000
G1 X-3.143 Y-0.108 Z-14.029 F400.000
G1 X-3.113 Y-0.199 Z-14.038 F400.000
G1 X-3.065 Y-0.282 Z-14.046 F400.000
G1 X-3.003 Y-0.355 Z-14.055 F400.000
G1 X-2.927 Y-0.414 Z-14.064 F400.000
G1 X-2.841 Y-0.457 Z-14.072 F400.000
G1 X-2.749 Y-0.482 Z-14.081 F400.000
G1 X-2.653 Y-0.489 Z-14.089 F400.000
G1 X-2.558 Y-0.477 Z-14.098 F400.000
G1 X-2.467 Y-0.447 Z-14.106 F400.000
G1 X-2.384 Y-0.399 Z-14.115 F400.000
G1 X-2.311 Y-0.337 Z-14.124 F400.000
G1 X-2.252 Y-0.261 Z-14.132 F400.000
G1 X-2.209 Y-0.175 Z-14.141 F400.000
G1 X-2.184 Y-0.083 Z-14.149 F400.000
G1 X-2.177 Y0.013 Z-14.158 F400.000
G1 X-2.189 Y0.108 Z-14.167 F400.000
G1 X-2.219 Y0.199 Z-14.175 F400.000
G1 X-2.267 Y0.282 Z-14.184 F400.000
G1 X-2.329 Y0.355 Z-14.192 F400.000
G1 X-2.405 Y0.414 Z-14.201 F400.000
G1 X-2.491 Y0.457 Z-14.209 F400.000
G1 X-2.583 Y0.482 Z-14.218 F400.000
G1 X-2.679 Y0.489 Z-14.227 F400.000
G1 X-2.774 Y0.477 Z-14.235 F400.000
G1 X-2.865 Y0.447 Z-14.244 F400.000
G1 X-2.948 Y0.399 Z-14.252 F400.000
G1 X-3.021 Y0.337 Z-14.261 F400.000
G1 X-3.080 Y0.261 Z-14.269 F400.000
G1 X-3.123 Y0.175 Z-14.278 F400.000
G1 X-3.148 Y0.083 Z-14.287 F400.000
G1 X-3.155 Y-0.013 Z-14.295 F400.000
G1 X-3.143 Y-0.108 Z-14.304 F400.000
G1 X-3.113 Y-0.199 Z-14.312 F400.000
G1 X-3.065 Y-0.282 Z-14.321 F400.000
G1 X-3.003 Y-0.355 Z-14.329 F400.000
G1 X-2.927 Y-0.414 Z-14.338 F400.000
G1 X-2.841 Y-0.457 Z-14.347 F400.000
G1 X-2.749 Y-0.482 Z-14.355 F400.000
G1 X-2.653 Y-0.489 Z-14.364 F400.000
G1 X-2.558 Y-0.477 Z-14.372 F400.000
G1 X-2.467 Y-0.447 Z-14.381 F400.000
G1 X-2.384 Y-0.399 Z-14.389 F400.000
G1 X-2.311 Y-0.337 Z-14.398 F400.000
G1 X-2.252 Y-0.261 Z-14.407 F400.000
G1 X-2.209 Y-0.175 Z-14.415 F400.000
G1 X-2.184 Y-0.083 Z-14.424 F400.000
G1 X-2.177 Y0.013 Z-14.432 F400.000
G1 X-2.189 Y0.108 Z-14.441 F400.000
G1 X-2.219 Y0.199 Z-14.449 F400.000
G1 X-2.267 Y0.282 Z-14.458 F400.000
G1 X-2.329 Y0.355 Z-14.467 F400.000
G1 X-2.405 Y0.414 Z-14.475 F400.000
G1 X-2.491 Y0.457 Z-14.484 F400.000
G1 X-2.583 Y0.482 Z-14.492 F400.000
G1 X-2.679 Y0.489 Z-14.501 F400.000
G1 X-2.774 Y0.477 Z-14.509 F400.000
G1 X-2.865 Y0.447 Z-14.518 F400.000
G1 X-2.948 Y0.399 Z-14.527 F400.000
G1 X-3.021 Y0.337 Z-14.535 F400.000
G1 X-3.080 Y0.261 Z-14.544 F400.000
G1 X-3.123 Y0.175 Z-14.552 F400.000
G1 X-3.148 Y0.083 Z-14.561 F400.000
G1 X-3.155 Y-0.013 Z-14.569 F400.000
G1 X-3.143 Y-0.108 Z-14.578 F400.000
G1 X-3.113 Y-0.199 Z-14.587 F400.000
G1 X-3.065 Y-0.282 Z-14.595 F400.000
G1 X-3.003 Y-0.355 Z-14.604 F400.000
G1 X-2.927 Y-0.414 Z-14.612 F400.000
G1 X-2.841 Y-0.457 Z-14.621 F400.000
G1 X-2.749 Y-0.482 Z-14.629 F400.000
G1 X-2.653 Y-0.489 Z-14.638 F400.000
G1 X-2.558 Y-0.477 Z-14.647 F400.000
G1 X-2.467 Y-0.447 Z-14.655 F400.000
G1 X-2.384 Y-0.399 Z-14.664 F400.000
G1 X-2.311 Y-0.337 Z-14.672 F400.000
G1 X-2.252 Y-0.261 Z-14.681 F400.000
G1 X-2.209 Y-0.175 Z-14.689 F400.000
G1 X-2.184 Y-0.083 Z-14.698 F400.000
G1 X-2.177 Y0.013 Z-14.707 F400.000
G1 X-2.189 Y0.108 Z-14.715 F400.000
G1 X-2.219 Y0.199 Z-14.724 F400.000
G1 X-2.267 Y0.282 Z-14.732 F400.000
G1 X-2.329 Y0.355 Z-14.741 F400.000
G1 X-2.405 Y0.414 Z-14.749 F400.000
G1 X-2.491 Y0.457 Z-14.758 F400.000
G1 X-2.583 Y0.482 Z-14.767 F400.000
G1 X-2.679 Y0.489 Z-14.775 F400.000
G1 X-2.774 Y0.477 Z-14.784 F400.000
G1 X-2.865 Y0.447 Z-14.792 F400.000
G1 X-2.948 Y0.399 Z-14.801 F400.000
G1 X-3.021 Y0.337 Z-14.809 F400.000
G1 X-3.080 Y0.261 Z-14.818 F400.000
G1 X-3.123 Y0.175 Z-14.827 F400.000
G1 X-3.148 Y0.083 Z-14.835 F400.000
G1 X-3.155 Y-0.013 Z-14.844 F400.000
G1 X-3.143 Y-0.108 Z-14.852 F400.000
G1 X-3.113 Y-0.199 Z-14.861 F400.000
G1 X-3.065 Y-0.282 Z-14.870 F400.000
G1 X-3.003 Y-0.355 Z-14.878 F400.000
G1 X-2.927 Y-0.414 Z-14.887 F400.000
G1 X-2.841 Y-0.457 Z-14.895 F400.000
G1 X-2.749 Y-0.482 Z-14.904 F400.000
G1 X-2.653 Y-0.489 Z-14.912 F400.000
G1 X-2.558 Y-0.477 Z-14.921 F400.000
G1 X-2.467 Y-0.447 Z-14.930 F400.000
G1 X-2.384 Y-0.399 Z-14.938 F400.000
G1 X-2.311 Y-0.337 Z-14.947 F400.000
G1 X-2.252 Y-0.261 Z-14.955 F400.000
G1 X-2.209 Y-0.175 Z-14.964 F400.000
G1 X-2.184 Y-0.083 Z-14.972 F400.000
G1 X-2.177 Y0.013 Z-14.981 F400.000
G1 X-2.189 Y0.108 Z-14.990 F400.000
G1 X-2.219 Y0.199 Z-14.998 F400.000
G1 X-2.267 Y0.282 Z-15.007 F400.000
G1 X-2.329 Y0.355 Z-15.015 F400.000
G1 X-2.405 Y0.414 Z-15.024 F400.000
G1 X-2.491 Y0.457 Z-15.032 F400.000
G1 X-2.583 Y0.482 Z-15.041 F400.000
G1 X-2.679 Y0.489 Z-15.050 F400.000
G1 X-2.774 Y0.477 Z-15.058 F400.000
G1 X-2.865 Y0.447 Z-15.067 F400.000
G1 X-2.948 Y0.399 Z-15.075 F400.000
G1 X-3.021 Y0.337 Z-15.084 F400.000
G1 X-3.080 Y0.261 Z-15.092 F400.000
G1 X-3.123 Y0.175 Z-15.101 F400.000
G1 X-3.148 Y0.083 Z-15.110 F400.000
G1 X-3.155 Y-0.013 Z-15.118 F400.000
G1 X-3.143 Y-0.108 Z-15.127 F400.000
G1 X-3.113 Y-0.199 Z-15.135 F400.000
G1 X-3.065 Y-0.282 Z-15.144 F400.000
G1 X-3.003 Y-0.355 Z-15.152 F400.000
G1 X-2.927 Y-0.414 Z-15.161 F400.000
G1 X-2.841 Y-0.457 Z-15.170 F400.000
G1 X-2.749 Y-0.482 Z-15.178 F400.000
G1 X-2.653 Y-0.489 Z-15.187 F400.000
G1 X-2.558 Y-0.477 Z-15.195 F400.000
G1 X-2.467 Y-0.447 Z-15.204 F400.000
G1 X-2.384 Y-0.399 Z-15.212 F400.000
G1 X-2.311 Y-0.337 Z-15.221 F400.000
G1 X-2.252 Y-0.261 Z-15.230 F400.000
G1 X-2.209 Y-0.175 Z-15.238 F400.000
G1 X-2.184 Y-0.083 Z-15.247 F400.000
G1 X-2.177 Y0.013 Z-15.255 F400.000
G1 X-2.189 Y0.108 Z-15.264 F400.000
G1 X-2.219 Y0.199 Z-15.272 F400.000
G1 X-2.267 Y0.282 Z-15.281 F400.000
G1 X-2.329 Y0.355 Z-15.290 F400.000
G1 X-2.405 Y0.414 Z-15.298 F400.000
G1 X-2.491 Y0.457 Z-15.307 F400.000
G1 X-2.583 Y0.482 Z-15.315 F400.000
G1 X-2.679 Y0.489 Z-15.324 F400.000
G1 X-2.774 Y0.477 Z-15.332 F400.000
G1 X-2.865 Y0.447 Z-15.341 F400.000
G1 X-2.948 Y0.399 Z-15.350 F400.000
G1 X-3.021 Y0.337 Z-15.358 F400.000
G1 X-3.080 Y0.261 Z-15.367 F400.000
G1 X-3.123 Y0.175 Z-15.375 F400.000
G1 X-3.148 Y0.083 Z-15.384 F400.000
G1 X-3.155 Y-0.013 Z-15.392 F400.000
G1 X-3.143 Y-0.108 Z-15.401 F400.000
G1 X-3.113 Y-0.199 Z-15.410 F400.000
G1 X-3.065 Y-0.282 Z-15.418 F400.000
G1 X-3.003 Y-0.355 Z-15.427 F400.000
G1 X-2.927 Y-0.414 Z-15.435 F400.000
G1 X-2.841 Y-0.457 Z-15.444 F400.000
G1 X-2.749 Y-0.482 Z-15.452 F400.000
G1 X-2.653 Y-0.489 Z-15.461 F400.000
G1 X-2.558 Y-0.477 Z-15.470 F400.000
G1 X-2.467 Y-0.447 Z-15.478 F400.000
G1 X-2.384 Y-0.399 Z-15.487 F400.000
G1 X-2.311 Y-0.337 Z-15.495 F400.000
G1 X-2.252 Y-0.261 Z-15.504 F400.000
G1 X-2.209 Y-0.175 Z-15.512 F400.000
G1 X-2.184 Y-0.083 Z-15.521 F400.000
G1 X-2.177 Y0.013 Z-15.530 F400.000
G1 X-2.189 Y0.108 Z-15.538 F400.000
G1 X-2.219 Y0.199 Z-15.547 F400.000
G1 X-2.267 Y0.282 Z-15.555 F400.000
G1 X-2.329 Y0.355 Z-15.564 F400.000
G1 X-2.405 Y0.414 Z-15.572 F400.000
G1 X-2.491 Y0.457 Z-15.581 F400.000
G1 X-2.583 Y0.482 Z-15.590 F400.000
G1 X-2.679 Y0.489 Z-15.598 F400.000
G1 X-2.774 Y0.477 Z-15.607 F400.000
G1 X-2.865 Y0.447 Z-15.615 F400.000
G1 X-2.948 Y0.399 Z-15.624 F400.000
G1 X-3.021 Y0.337 Z-15.633 F400.000
G1 X-3.080 Y0.261 Z-15.641 F400.000
G1 X-3.123 Y0.175 Z-15.650 F400.000
G1 X-3.148 Y0.083 Z-15.658 F400.000
G1 X-3.155 Y-0.013 Z-15.667 F400.000
G1 X-3.143 Y-0.108 Z-15.675 F400.000
G1 X-3.113 Y-0.199 Z-15.684 F400.000
G1 X-3.065 Y-0.282 Z-15.693 F400.000
G1 X-3.003 Y-0.355 Z-15.701 F400.000
G1 X-2.927 Y-0.414 Z-15.710 F400.000
G1 X-2.841 Y-0.457 Z-15.718 F400.000
G1 X-2.749 Y-0.482 Z-15.727 F400.000
G1 X-2.653 Y-0.489 Z-15.735 F400.000
G1 X-2.558 Y-0.477 Z-15.744 F400.000
G1 X-2.467 Y-0.447 Z-15.753 F400.000
G1 X-2.384 Y-0.399 Z-15.761 F400.000
G1 X-2.311 Y-0.337 Z-15.770 F400.000
G1 X-2.252 Y-0.261 Z-15.778 F400.000
G1 X-2.209 Y-0.175 Z-15.787 F400.000
G1 X-2.184 Y-0.083 Z-15.795 F400.000
G1 X-2.177 Y0.013 Z-15.804 F400.000
G1 X-2.189 Y0.108 Z-15.813 F400.000
G1 X-2.219 Y0.199 Z-15.821 F400.000
G1 X-2.267 Y0.282 Z-15.830 F400.000
G1 X-2.329 Y0.355 Z-15.838 F400.000
G1 X-2.405 Y0.414 Z-15.847 F400.000
G1 X-2.491 Y0.457 Z-15.855 F400.000
G1 X-2.583 Y0.482 Z-15.864 F400.000
G1 X-2.679 Y0.489 Z-15.873 F400.000
G1 X-2.774 Y0.477 Z-15.881 F400.000
G1 X-2.865 Y0.447 Z-15.890 F400.000
G1 X-2.948 Y0.399 Z-15.898 F400.000
G1 X-3.021 Y0.337 Z-15.907 F400.000
G1 X-3.080 Y0.261 Z-15.915 F400.000
G1 X-3.123 Y0.175 Z-15.924 F400.000
G1 X-3.148 Y0.083 Z-15.933 F400.000
G1 X-3.155 Y-0.013 Z-15.941 F400.000
G1 X-3.143 Y-0.108 Z-15.950 F400.000
G1 X-3.113 Y-0.199 Z-15.958 F400.000
G1 X-3.065 Y-0.282 Z-15.967 F400.000
G1 X-3.003 Y-0.355 Z-15.975 F400.000
G1 X-2.927 Y-0.414 Z-15.984 F400.000
G1 X-2.841 Y-0.457 Z-15.993 F400.000
G1 X-2.749 Y-0.482 Z-16.000 F400.000
G1 X-2.653 Y-0.489 Z-16.000 F400.000
G1 X-2.558 Y-0.477 Z-16.000 F400.000
G1 X-2.467 Y-0.447 Z-16.000 F400.000
G1 X-2.384 Y-0.399 Z-16.000 F400.000
G1 X-2.311 Y-0.337 Z-16.000 F400.000
G1 X-2.252 Y-0.261 Z-16.000 F400.000
G1 X-2.209 Y-0.175 Z-16.000 F400.000
G1 X-2.184 Y-0.083 Z-16.000 F400.000
G1 X-2.177 Y0.013 Z-16.000 F400.000
G1 X-2.189 Y0.108 Z-16.000 F400.000
G1 X-2.219 Y0.199 Z-16.000 F400.000
G1 X-2.267 Y0.282 Z-16.000 F400.000
G1 X-2.329 Y0.355 Z-16.000 F400.000
G1 X-2.405 Y0.414 Z-16.000 F400.000
G1 X-2.491 Y0.457 Z-16.000 F400.000
G1 X-2.583 Y0.482 Z-16.000 F400.000
G1 X-2.679 Y0.489 Z-16.000 F400.000
G1 X-2.774 Y0.477 Z-16.000 F400.000
G1 X-2.865 Y0.447 Z-16.000 F400.000
G1 X-2.948 Y0.399 Z-16.000 F400.000
G1 X-3.021 Y0.337 Z-16.000 F400.000
G1 X-3.080 Y0.261 Z-16.000 F400.000
G1 X-3.123 Y0.175 Z-16.000 F400.000
G1 X-3.148 Y0.083 Z-16.000 F400.000
G1 X-3.155 Y-0.013 Z-16.000 F400.000
G1 X-3.143 Y-0.108 Z-16.000 F400.000
G1 X-3.113 Y-0.199 Z-16.000 F400.000
G1 X-3.065 Y-0.282 Z-16.000 F400.000
G1 X-3.003 Y-0.355 Z-16.000 F400.000
G1 X-2.927 Y-0.414 Z-16.000 F400.000
G1 X-2.841 Y-0.457 Z-16.000 F400.000
(Adaptive - depth: -16.000000)
G1 X-2.666 Y-0.499 F400.000
G1 X-2.638 Y-0.512 F400.000
G1 X-2.548 Y-0.520 F400.000
G1 X-2.458 Y-0.505 F400.000
G1 X-2.400 Y-0.484 F400.000
G1 X-2.293 Y-0.417 F400.000
G1 X-2.225 Y-0.353 F400.000
G1 X-2.152 Y-0.251 F400.000
G1 X-2.101 Y-0.137 F400.000
G1 X-2.088 Y-0.077 F400.000
G1 X-2.086 Y0.068 F400.000
G1 X-2.111 Y0.180 F400.000
G1 X-2.156 Y0.285 F400.000
G1 X-2.221 Y0.381 F400.000
G1 X-2.283 Y0.443 F400.000
G1 X-2.353 Y0.492 F400.000
G1 X-2.484 Y0.552 F400.000
G1 X-2.625 Y0.578 F400.000
G1 X-2.794 Y0.557 F400.000
G1 X-2.878 Y0.531 F400.000
G1 X-3.006 Y0.458 F400.000
G1 X-3.092 Y0.375 F400.000
G1 X-3.159 Y0.276 F400.000
G1 X-3.197 Y0.191 F400.000
G1 X-3.225 Y0.071 F400.000
G1 X-3.225 Y-0.073 F400.000
G1 X-3.197 Y-0.186 F400.000
G1 X-3.146 Y-0.293 F400.000
G1 X-3.073 Y-0.386 F400.000
G1 X-2.957 Y-0.478 F400.000
G1 X-2.878 Y-0.522 F400.000
G1 X-2.765 Y-0.565 F400.000
G1 X-2.675 Y-0.585 F400.000
G1 X-2.585 Y-0.578 F400.000
G1 X-2.465 Y-0.548 F400.000
G1 X-2.381 Y-0.508 F400.000
G1 X-2.278 Y-0.437 F400.000
G1 X-2.191 Y-0.343 F400.000
G1 X-2.191 Y-0.343 F400.000
G1 X-2.161 Y-0.266 F400.000
G1 X-2.161 Y-0.235 F400.000
G0 X-2.163 Y-0.221
G0 X-2.221 Y-0.101
G0 X-2.538 Y0.458
G1 X-2.546 Y0.473 F400.000
G1 X-2.589 Y0.537 F400.000
G1 X-2.627 Y0.565 F400.000
G1 X-2.705 Y0.583 F400.000
G1 X-2.705 Y0.583 F400.000
G1 X-2.734 Y0.582 F400.000
G1 X-2.874 Y0.546 F400.000
G1 X-3.006 Y0.477 F400.000
G1 X-3.096 Y0.398 F400.000
G1 X-3.152 Y0.328 F400.000
G1 X-3.208 Y0.220 F400.000
G1 X-3.242 Y0.101 F400.000
G1 X-3.250 Y-0.045 F400.000
G1 X-3.248 Y-0.073 F400.000
G1 X-3.208 Y-0.214 F400.000
G1 X-3.188 Y-0.270 F400.000
G1 X-3.141 Y-0.345 F400.000
G1 X-3.081 Y-0.413 F400.000
G1 X-2.991 Y-0.488 F400.000
G1 X-2.826 Y-0.563 F400.000
G1 X-2.705 Y-0.585 F400.000
G1 X-2.705 Y-0.585 F400.000
G1 X-2.696 Y-0.582 F400.000
G0 X-2.690 Y-0.578
G0 X-2.692 Y-0.561
G0 X-2.698 Y-0.553
G1 X-2.705 Y-0.553 F400.000
G1 X-2.719 Y-0.565 F400.000
G1 X-2.719 Y-0.583 F400.000
G1 X-2.707 Y-0.598 F400.000
G1 X-2.707 Y-0.598 F400.000
G1 X-2.591 Y-0.591 F400.000
G1 X-2.533 Y-0.580 F400.000
G1 X-2.426 Y-0.546 F400.000
G1 X-2.375 Y-0.522 F400.000
G1 X-2.310 Y-0.480 F400.000
G1 X-2.227 Y-0.407 F400.000
G1 X-2.195 Y-0.368 F400.000
G1 X-2.139 Y-0.276 F400.000
G1 X-2.098 Y-0.182 F400.000
G1 X-2.073 Y-0.069 F400.000
G1 X-2.073 Y0.079 F400.000
G1 X-2.090 Y0.163 F400.000
G1 X-2.131 Y0.268 F400.000
G1 X-2.205 Y0.381 F400.000
G1 X-2.236 Y0.417 F400.000
G1 X-2.328 Y0.493 F400.000
G1 X-2.373 Y0.522 F400.000
G1 X-2.420 Y0.544 F400.000
G1 X-2.486 Y0.567 F400.000
G1 X-2.589 Y0.593 F400.000
G1 X-2.666 Y0.598 F400.000
G1 X-2.713 Y0.597 F400.000
G1 X-2.837 Y0.572 F400.000
G1 X-2.998 Y0.497 F400.000
G1 X-3.090 Y0.420 F400.000
G1 X-3.152 Y0.349 F400.000
G1 X-3.195 Y0.283 F400.000
G1 X-3.218 Y0.233 F400.000
G1 X-3.253 Y0.105 F400.000
G1 X-3.263 Y0.051 F400.000
G1 X-3.263 Y-0.054 F400.000
G1 X-3.253 Y-0.107 F400.000
G1 X-3.229 Y-0.197 F400.000
G1 X-3.191 Y-0.287 F400.000
G1 X-3.141 Y-0.366 F400.000
G1 X-3.105 Y-0.405 F400.000
G1 X-3.041 Y-0.465 F400.000
G1 X-2.955 Y-0.522 F400.000
G1 X-2.857 Y-0.568 F400.000
G1 X-2.707 Y-0.598 F400.000
G1 X-2.707 Y-0.598 F400.000
G0 Z6.000
(Helix to depth: -20.000000)
G0 Z6.000
G0 X-2.350 Y0.373 Z6.000
G0 X-2.350 Y0.373 Z4.000
G1 X-2.350 Y0.373 Z-16.000 F400.000
G1 X-2.350 Y0.373 Z-16.000 F400.000
G1 X-2.429 Y0.428 Z-16.009 F400.000
G1 X-2.517 Y0.466 Z-16.017 F400.000
G1 X-2.611 Y0.486 Z-16.026 F400.000
G1 X-2.707 Y0.487 Z-16.034 F400.000
G1 X-2.801 Y0.470 Z-16.043 F400.000
G1 X-2.890 Y0.435 Z-16.051 F400.000
G1 X-2.971 Y0.383 Z-16.060 F400.000
G1 X-3.039 Y0.316 Z-16.069 F400.000
G1 X-3.094 Y0.237 Z-16.077 F400.000
G1 X-3.132 Y0.149 Z-16.086 F400.000
G1 X-3.152 Y0.055 Z-16.094 F400.000
G1 X-3.153 Y-0.041 Z-16.103 F400.000
G1 X-3.136 Y-0.135 Z-16.111 F400.000
G1 X-3.101 Y-0.224 Z-16.120 F400.000
G1 X-3.049 Y-0.304 Z-16.129 F400.000
G1 X-2.982 Y-0.373 Z-16.137 F400.000
G1 X-2.903 Y-0.428 Z-16.146 F400.000
G1 X-2.815 Y-0.466 Z-16.154 F400.000
G1 X-2.721 Y-0.486 Z-16.163 F400.000
G1 X-2.626 Y-0.487 Z-16.171 F400.000
G1 X-2.531 Y-0.470 Z-16.180 F400.000
G1 X-2.442 Y-0.435 Z-16.189 F400.000
G1 X-2.362 Y-0.383 Z-16.197 F400.000
G1 X-2.293 Y-0.316 Z-16.206 F400.000
G1 X-2.238 Y-0.237 Z-16.214 F400.000
G1 X-2.200 Y-0.149 Z-16.223 F400.000
G1 X-2.180 Y-0.055 Z-16.231 F400.000
G1 X-2.179 Y0.041 Z-16.240 F400.000
G1 X-2.196 Y0.135 Z-16.249 F400.000
G1 X-2.231 Y0.224 Z-16.257 F400.000
G1 X-2.283 Y0.304 Z-16.266 F400.000
G1 X-2.350 Y0.373 Z-16.274 F400.000
G1 X-2.429 Y0.428 Z-16.283 F400.000
G1 X-2.517 Y0.466 Z-16.291 F400.000
G1 X-2.611 Y0.486 Z-16.300 F400.000
G1 X-2.707 Y0.487 Z-16.309 F400.000
G1 X-2.801 Y0.470 Z-16.317 F400.000
G1 X-2.890 Y0.435 Z-16.326 F400.000
G1 X-2.971 Y0.383 Z-16.334 F400.000
G1 X-3.039 Y0.316 Z-16.343 F400.000
G1 X-3.094 Y0.237 Z-16.351 F400.000
G1 X-3.132 Y0.149 Z-16.360 F400.000
G1 X-3.152 Y0.055 Z-16.369 F400.000
G1 X-3.153 Y-0.041 Z-16.377 F400.000
G1 X-3.136 Y-0.135 Z-16.386 F400.000
G1 X-3.101 Y-0.224 Z-16.394 F400.000
G1 X-3.049 Y-0.304 Z-16.403 F400.000
G1 X-2.982 Y-0.373 Z-16.412 F400.000
G1 X-2.903 Y-0.428 Z-16.420 F400.000
G1 X-2.815 Y-0.466 Z-16.429 F400.000
G1 X-2.721 Y-0.486 Z-16.437 F400.000
G1 X-2.626 Y-0.487 Z-16.446 F400.000
G1 X-2.531 Y-0.470 Z-16.454 F400.000
G1 X-2.442 Y-0.435 Z-16.463 F400.000
G1 X-2.362 Y-0.383 Z-16.472 F400.000
G1 X-2.293 Y-0.316 Z-16.480 F400.000
G1 X-2.238 Y-0.237 Z-16.489 F400.000
G1 X-2.200 Y-0.149 Z-16.497 F400.000
G1 X-2.180 Y-0.055 Z-16.506 F400.000
G1 X-2.179 Y0.041 Z-16.514 F400.000
G1 X-2.196 Y0.135 Z-16.523 F400.000
G1 X-2.231 Y0.224 Z-16.532 F400.000
G1 X-2.283 Y0.304 Z-16.540 F400.000
G1 X-2.350 Y0.373 Z-16.549 F400.000
G1 X-2.429 Y0.428 Z-16.557 F400.000
G1 X-2.517 Y0.466 Z-16.566 F400.000
G1 X-2.611 Y0.486 Z-16.574 F400.000
G1 X-2.707 Y0.487 Z-16.583 F400.000
G1 X-2.801 Y0.470 Z-16.592 F400.000
G1 X-2.890 Y0.435 Z-16.600 F400.000
G1 X-2.971 Y0.383 Z-16.609 F400.000
G1 X-3.039 Y0.316 Z-16.617 F400.000
G1 X-3.094 Y0.237 Z-16.626 F400.000
G1 X-3.132 Y0.149 Z-16.634 F400.000
G1 X-3.152 Y0.055 Z-16.643 F400.000
G1 X-3.153 Y-0.041 Z-16.652 F400.000
G1 X-3.136 Y-0.135 Z-16.660 F400.000
G1 X-3.101 Y-0.224 Z-16.669 F400.000
G1 X-3.049 Y-0.304 Z-16.677 F400.000
G1 X-2.982 Y-0.373 Z-16.686 F400.000
G1 X-2.903 Y-0.428 Z-16.694 F400.000
G1 X-2.815 Y-0.466 Z-16.703 F400.000
G1 X-2.721 Y-0.486 Z-16.712 F400.000
G1 X-2.626 Y-0.487 Z-16.720 F400.000
G1 X-2.531 Y-0.470 Z-16.729 F400.000
G1 X-2.442 Y-0.435 Z-16.737 F400.000
G1 X-2.362 Y-0.383 Z-16.746 F400.000
G1 X-2.293 Y-0.316 Z-16.754 F400.000
G1 X-2.238 Y-0.237 Z-16.763 F400.000
G1 X-2.200 Y-0.149 Z-16.772 F400.000
G1 X-2.180 Y-0.055 Z-16.780 F400.000
G1 X-2.179 Y0.041 Z-16.789 F400.000
G1 X-2.196 Y0.135 Z-16.797 F400.000
G1 X-2.231 Y0.224 Z-16.806 F400.000
G1 X-2.283 Y0.304 Z-16.814 F400.000
G1 X-2.350 Y0.373 Z-16.823 F400.000
G1 X-2.429 Y0.428 Z-16.832 F400.000
G1 X-2.517 Y0.466 Z-16.840 F400.000
G1 X-2.611 Y0.486 Z-16.849 F400.000
G1 X-2.707 Y0.487 Z-16.857 F400.000
G1 X-2.801 Y0.470 Z-16.866 F400.000
G1 X-2.890 Y0.435 Z-16.874 F400.000
G1 X-2.971 Y0.383 Z-16.883 F400.000
G1 X-3.039 Y0.316 Z-16.892 F400.000
G1 X-3.094 Y0.237 Z-16.900 F400.000
G1 X-3.132 Y0.149 Z-16.909 F400.000
G1 X-3.152 Y0.055 Z-16.917 F400.000
G1 X-3.153 Y-0.041 Z-16.926 F400.000
G1 X-3.136 Y-0.135 Z-16.934 F400.000
G1 X-3.101 Y-0.224 Z-16.943 F400.000
G1 X-3.049 Y-0.304 Z-16.952 F400.000
G1 X-2.982 Y-0.373 Z-16.960 F400.000
G1 X-2.903 Y-0.428 Z-16.969 F400.000
G1 X-2.815 Y-0.466 Z-16.977 F400.000
G1 X-2.721 Y-0.486 Z-16.986 F400.000
G1 X-2.626 Y-0.487 Z-16.994 F400.000
G1 X-2.531 Y-0.470 Z-17.003 F400.000
G1 X-2.442 Y-0.435 Z-17.012 F400.000
G1 X-2.362 Y-0.383 Z-17.020 F400.000
G1 X-2.293 Y-0.316 Z-17.029 F400.000
G1 X-2.238 Y-0.237 Z-17.037 F400.000
G1 X-2.200 Y-0.149 Z-17.046 F400.000
G1 X-2.180 Y-0.055 Z-17.054 F400.000
G1 X-2.179 Y0.041 Z-17.063 F400.000
G1 X-2.196 Y0.135 Z-17.072 F400.000
G1 X-2.231 Y0.224 Z-17.080 F400.000
G1 X-2.283 Y0.304 Z-17.089 F400.000
G1 X-2.350 Y0.373 Z-17.097 F400.000
G1 X-2.429 Y0.428 Z-17.106 F400.000
G1 X-2.517 Y0.466 Z-17.114 F400.000
G1 X-2.611 Y0.486 Z-17.123 F400.000
G1 X-2.707 Y0.487 Z-17.132 F400.000
G1 X-2.801 Y0.470 Z-17.140 F400.000
G1 X-2.890 Y0.435 Z-17.149 F400.000
G1 X-2.971 Y0.383 Z-17.157 F400.000
G1 X-3.039 Y0.316 Z-17.166 F400.000
G1 X-3.094 Y0.237 Z-17.175 F400.000
G1 X-3.132 Y0.149 Z-17.183 F400.000
G1 X-3.152 Y0.055 Z-17.192 F400.000
G1 X-3.153 Y-0.041 Z-17.200 F400.000
G1 X-3.136 Y-0.135 Z-17.209 F400.000
G1 X-3.101 Y-0.224 Z-17.217 F400.000
G1 X-3.049 Y-0.304 Z-17.226 F400.000
G1 X-2.982 Y-0.373 Z-17.235 F400.000
G1 X-2.903 Y-0.428 Z-17.243 F400.000
G1 X-2.815 Y-0.466 Z-17.252 F400.000
G1 X-2.721 Y-0.486 Z-17.260 F400.000
G1 X-2.626 Y-0.487 Z-17.269 F400.000
G1 X-2.531 Y-0.470 Z-17.277 F400.000
G1 X-2.442 Y-0.435 Z-17.286 F400.000
G1 X-2.362 Y-0.383 Z-17.295 F400.000
G1 X-2.293 Y-0.316 Z-17.303 F400.000
G1 X-2.238 Y-0.237 Z-17.312 F400.000
G1 X-2.200 Y-0.149 Z-17.320 F400.000
G1 X-2.180 Y-0.055 Z-17.329 F400.000
G1 X-2.179 Y0.041 Z-17.337 F400.000
G1 X-2.196 Y0.135 Z-17.346 F400.000
G1 X-2.231 Y0.224 Z-17.355 F400.000
G1 X-2.283 Y0.304 Z-17.363 F400.000
G1 X-2.350 Y0.373 Z-17.372 F400.000
G1 X-2.429 Y0.428 Z-17.380 F400.000
G1 X-2.517 Y0.466 Z-17.389 F400.000
G1 X-2.611 Y0.486 Z-17.397 F400.000
G1 X-2.707 Y0.487 Z-17.406 F400.000
G1 X-2.801 Y0.470 Z-17.415 F400.000
G1 X-2.890 Y0.435 Z-17.423 F400.000
G1 X-2.971 Y0.383 Z-17.432 F400.000
G1 X-3.039 Y0.316 Z-17.440 F400.000
G1 X-3.094 Y0.237 Z-17.449 F400.000
G1 X-3.132 Y0.149 Z-17.457 F400.000
G1 X-3.152 Y0.055 Z-17.466 F400.000
G1 X-3.153 Y-0.041 Z-17.475 F400.000
G1 X-3.136 Y-0.135 Z-17.483 F400.000
G1 X-3.101 Y-0.224 Z-17.492 F400.000
G1 X-3.049 Y-0.304 Z-17.500 F400.000
G1 X-2.982 Y-0.373 Z-17.509 F400.000
G1 X-2.903 Y-0.428 Z-17.517 F400.000
G1 X-2.815 Y-0.466 Z-17.526 F400.000
G1 X-2.721 Y-0.486 Z-17.535 F400.000
G1 X-2.626 Y-0.487 Z-17.543 F400.000
G1 X-2.531 Y-0.470 Z-17.552 F400.000
G1 X-2.442 Y-0.435 Z-17.560 F400.000
G1 X-2.362 Y-0.383 Z-17.569 F400.000
G1 X-2.293 Y-0.316 Z-17.577 F400.000
G1 X-2.238 Y-0.237 Z-17.586 F400.000
G1 X-2.200 Y-0.149 Z-17.595 F400.000
G1 X-2.180 Y-0.055 Z-17.603 F400.000
G1 X-2.179 Y0.041 Z-17.612 F400.000
G1 X-2.196 Y0.135 Z-17.620 F400.000
G1 X-2.231 Y0.224 Z-17.629 F400.000
G1 X-2.283 Y0.304 Z-17.637 F400.000
G1 X-2.350 Y0.373 Z-17.646 F400.000
G1 X-2.429 Y0.428 Z-17.655 F400.000
G1 X-2.517 Y0.466 Z-17.663 F400.000
G1 X-2.611 Y0.486 Z-17.672 F400.000
G1 X-2.707 Y0.487 Z-17.680 F400.000
G1 X-2.801 Y0.470 Z-17.689 F400.000
G1 X-2.890 Y0.435 Z-17.697 F400.000
G1 X-2.971 Y0.383 Z-17.706 F400.000
G1 X-3.039 Y0.316 Z-17.715 F400.000
G1 X-3.094 Y0.237 Z-17.723 F400.000
G1 X-3.132 Y0.149 Z-17.732 F400.000
G1 X-3.152 Y0.055 Z-17.740 F400.000
G1 X-3.153 Y-0.041 Z-17.749 F400.000
G1 X-3.136 Y-0.135 Z-17.757 F400.000
G1 X-3.101 Y-0.224 Z-17.766 F400.000
G1 X-3.049 Y-0.304 Z-17.775 F400.000
G1 X-2.982 Y-0.373 Z-17.783 F400.000
G1 X-2.903 Y-0.428 Z-17.792 F400.000
G1 X-2.815 Y-0.466 Z-17.800 F400.000
G1 X-2.721 Y-0.486 Z-17.809 F400.000
G1 X-2.626 Y-0.487 Z-17.817 F400.000
G1 X-2.531 Y-0.470 Z-17.826 F400.000
G1 X-2.442 Y-0.435 Z-17.835 F400.000
G1 X-2.362 Y-0.383 Z-17.843 F400.000
G1 X-2.293 Y-0.316 Z-17.852 F400.000
G1 X-2.238 Y-0.237 Z-17.860 F400.000
G1 X-2.200 Y-0.149 Z-17.869 F400.000
G1 X-2.180 Y-0.055 Z-17.878 F400.000
G1 X-2.179 Y0.041 Z-17.886 F400.000
G1 X-2.196 Y0.135 Z-17.895 F400.000
G1 X-2.231 Y0.224 Z-17.903 F400.000
G1 X-2.283 Y0.304 Z-17.912 F400.000
G1 X-2.350 Y0.373 Z-17.920 F400.000
G1 X-2.429 Y0.428 Z-17.929 F400.000
G1 X-2.517 Y0.466 Z-17.938 F400.000
G1 X-2.611 Y0.486 Z-17.946 F400.000
G1 X-2.707 Y0.487 Z-17.955 F400.000
G1 X-2.801 Y0.470 Z-17.963 F400.000
G1 X-2.890 Y0.435 Z-17.972 F400.000
G1 X-2.971 Y0.383 Z-17.980 F400.000
G1 X-3.039 Y0.316 Z-17.989 F400.000
G1 X-3.094 Y0.237 Z-17.998 F400.000
G1 X-3.132 Y0.149 Z-18.006 F400.000
G1 X-3.152 Y0.055 Z-18.015 F400.000
G1 X-3.153 Y-0.041 Z-18.023 F400.000
G1 X-3.136 Y-0.135 Z-18.032 F400.000
G1 X-3.101 Y-0.224 Z-18.040 F400.000
G1 X-3.049 Y-0.304 Z-18.049 F400.000
G1 X-2.982 Y-0.373 Z-18.058 F400.000
G1 X-2.903 Y-0.428 Z-18.066 F400.000
G1 X-2.815 Y-0.466 Z-18.075 F400.000
G1 X-2.721 Y-0.486 Z-18.083 F400.000
G1 X-2.626 Y-0.487 Z-18.092 F400.000
G1 X-2.531 Y-0.470 Z-18.100 F400.000
G1 X-2.442 Y-0.435 Z-18.109 F400.000
G1 X-2.362 Y-0.383 Z-18.118 F400.000
G1 X-2.293 Y-0.316 Z-18.126 F400.000
G1 X-2.238 Y-0.237 Z-18.135 F400.000
G1 X-2.200 Y-0.149 Z-18.143 F400.000
G1 X-2.180 Y-0.055 Z-18.152 F400.000
G1 X-2.179 Y0.041 Z-18.160 F400.000
G1 X-2.196 Y0.135 Z-18.169 F400.000
G1 X-2.231 Y0.224 Z-18.178 F400.000
G1 X-2.283 Y0.304 Z-18.186 F400.000
G1 X-2.350 Y0.373 Z-18.195 F400.000
G1 X-2.429 Y0.428 Z-18.203 F400.000
G1 X-2.517 Y0.466 Z-18.212 F400.000
G1 X-2.611 Y0.486 Z-18.220 F400.000
G1 X-2.707 Y0.487 Z-18.229 F400.000
G1 X-2.801 Y0.470 Z-18.238 F400.000
G1 X-2.890 Y0.435 Z-18.246 F400.000
G1 X-2.971 Y0.383 Z-18.255 F400.000
G1 X-3.039 Y0.316 Z-18.263 F400.000
G1 X-3.094 Y0.237 Z-18.272 F400.000
G1 X-3.132 Y0.149 Z-18.280 F400.000
G1 X-3.152 Y0.055 Z-18.289 F400.000
G1 X-3.153 Y-0.041 Z-18.298 F400.000
G1 X-3.136 Y-0.135 Z-18.306 F400.000
G1 X-3.101 Y-0.224 Z-18.315 F400.000
G1 X-3.049 Y-0.304 Z-18.323 F400.000
G1 X-2.982 Y-0.373 Z-18.332 F400.000
G1 X-2.903 Y-0.428 Z-18.340 F400.000
G1 X-2.815 Y-0.466 Z-18.349 F400.000
G1 X-2.721 Y-0.486 Z-18.358 F400.000
G1 X-2.626 Y-0.487 Z-18.366 F400.000
G1 X-2.531 Y-0.470 Z-18.375 F400.000
G1 X-2.442 Y-0.435 Z-18.383 F400.000
G1 X-2.362 Y-0.383 Z-18.392 F400.000
G1 X-2.293 Y-0.316 Z-18.400 F400.000
G1 X-2.238 Y-0.237 Z-18.409 F400.000
G1 X-2.200 Y-0.149 Z-18.418 F400.000
G1 X-2.180 Y-0.055 Z-18.426 F400.000
G1 X-2.179 Y0.041 Z-18.435 F400.000
G1 X-2.196 Y0.135 Z-18.443 F400.000
G1 X-2.231 Y0.224 Z-18.452 F400.000
G1 X-2.283 Y0.304 Z-18.460 F400.000
G1 X-2.350 Y0.373 Z-18.469 F400.000
G1 X-2.429 Y0.428 Z-18.478 F400.000
G1 X-2.517 Y0.466 Z-18.486 F400.000
G1 X-2.611 Y0.486 Z-18.495 F400.000
G1 X-2.707 Y0.487 Z-18.503 F400.000
G1 X-2.801 Y0.470 Z-18.512 F400.000
G1 X-2.890 Y0.435 Z-18.520 F400.000
G1 X-2.971 Y0.383 Z-18.529 F400.000
G1 X-3.039 Y0.316 Z-18.538 F400.000
G1 X-3.094 Y0.237 Z-18.546 F400.000
G1 X-3.132 Y0.149 Z-18.555 F400.000
G1 X-3.152 Y0.055 Z-18.563 F400.000
G1 X-3.153 Y-0.041 Z-18.572 F400.000
G1 X-3.136 Y-0.135 Z-18.580 F400.000
G1 X-3.101 Y-0.224 Z-18.589 F400.000
G1 X-3.049 Y-0.304 Z-18.598 F400.000
G1 X-2.982 Y-0.373 Z-18.606 F400.000
G1 X-2.903 Y-0.428 Z-18.615 F400.000
G1 X-2.815 Y-0.466 Z-18.623 F400.000
G1 X-2.721 Y-0.486 Z-18.632 F400.000
G1 X-2.626 Y-0.487 Z-18.641 F400.000
G1 X-2.531 Y-0.470 Z-18.649 F400.000
G1 X-2.442 Y-0.435 Z-18.658 F400.000
G1 X-2.362 Y-0.383 Z-18.666 F400.000
G1 X-2.293 Y-0.316 Z-18.675 F400.000
G1 X-2.238 Y-0.237 Z-18.683 F400.000
G1 X-2.200 Y-0.149 Z-18.692 F400.000
G1 X-2.180 Y-0.055 Z-18.701 F400.000
G1 X-2.179 Y0.041 Z-18.709 F400.000
G1 X-2.196 Y0.135 Z-18.718 F400.000
G1 X-2.231 Y0.224 Z-18.726 F400.000
G1 X-2.283 Y0.304 Z-18.735 F400.000
G1 X-2.350 Y0.373 Z-18.743 F400.000
G1 X-2.429 Y0.428 Z-18.752 F400.000
G1 X-2.517 Y0.466 Z-18.761 F400.000
G1 X-2.611 Y0.486 Z-18.769 F400.000
G1 X-2.707 Y0.487 Z-18.778 F400.000
G1 X-2.801 Y0.470 Z-18.786 F400.000
G1 X-2.890 Y0.435 Z-18.795 F400.000
G1 X-2.971 Y0.383 Z-18.803 F400.000
G1 X-3.039 Y0.316 Z-18.812 F400.000
G1 X-3.094 Y0.237 Z-18.821 F400.000
G1 X-3.132 Y0.149 Z-18.829 F400.000
G1 X-3.152 Y0.055 Z-18.838 F400.000
G1 X-3.153 Y-0.041 Z-18.846 F400.000
G1 X-3.136 Y-0.135 Z-18.855 F400.000
G1 X-3.101 Y-0.224 Z-18.863 F400.000
G1 X-3.049 Y-0.304 Z-18.872 F400.000
G1 X-2.982 Y-0.373 Z-18.881 F400.000
G1 X-2.903 Y-0.428 Z-18.889 F400.000
G1 X-2.815 Y-0.466 Z-18.898 F400.000
G1 X-2.721 Y-0.486 Z-18.906 F400.000
G1 X-2.626 Y-0.487 Z-18.915 F400.000
G1 X-2.531 Y-0.470 Z-18.923 F400.000
G1 X-2.442 Y-0.435 Z-18.932 F400.000
G1 X-2.362 Y-0.383 Z-18.941 F400.000
G1 X-2.293 Y-0.316 Z-18.949 F400.000
G1 X-2.238 Y-0.237 Z-18.958 F400.000
G1 X-2.200 Y-0.149 Z-18.966 F400.000
G1 X-2.180 Y-0.055 Z-18.975 F400.000
G1 X-2.179 Y0.041 Z-18.983 F400.000
G1 X-2.196 Y0.135 Z-18.992 F400.000
G1 X-2.231 Y0.224 Z-19.001 F400.000
G1 X-2.283 Y0.304 Z-19.009 F400.000
G1 X-2.350 Y0.373 Z-19.018 F400.000
G1 X-2.429 Y0.428 Z-19.026 F400.000
G1 X-2.517 Y0.466 Z-19.035 F400.000
G1 X-2.611 Y0.486 Z-19.043 F400.000
G1 X-2.707 Y0.487 Z-19.052 F400.000
G1 X-2.801 Y0.470 Z-19.061 F400.000
G1 X-2.890 Y0.435 Z-19.069 F400.000
G1 X-2.971 Y0.383 Z-19.078 F400.000
G1 X-3.039 Y0.316 Z-19.086 F400.000
G1 X-3.094 Y0.237 Z-19.095 F400.000
G1 X-3.132 Y0.149 Z-19.103 F400.000
G1 X-3.152 Y0.055 Z-19.112 F400.000
G1 X-3.153 Y-0.041 Z-19.121 F400.000
G1 X-3.136 Y-0.135 Z-19.129 F400.000
G1 X-3.101 Y-0.224 Z-19.138 F400.000
G1 X-3.049 Y-0.304 Z-19.146 F400.000
G1 X-2.982 Y-0.373 Z-19.155 F400.000
G1 X-2.903 Y-0.428 Z-19.163 F400.000
G1 X-2.815 Y-0.466 Z-19.172 F400.000
G1 X-2.721 Y-0.486 Z-19.181 F400.000
G1 X-2.626 Y-0.487 Z-19.189 F400.000
G1 X-2.531 Y-0.470 Z-19.198 F400.000
G1 X-2.442 Y-0.435 Z-19.206 F400.000
G1 X-2.362 Y-0.383 Z-19.215 F400.000
G1 X-2.293 Y-0.316 Z-19.223 F400.000
G1 X-2.238 Y-0.237 Z-19.232 F400.000
G1 X-2.200 Y-0.149 Z-19.241 F400.000
G1 X-2.180 Y-0.055 Z-19.249 F400.000
G1 X-2.179 Y0.041 Z-19.258 F400.000
G1 X-2.196 Y0.135 Z-19.266 F400.000
G1 X-2.231 Y0.224 Z-19.275 F400.000
G1 X-2.283 Y0.304 Z-19.283 F400.000
G1 X-2.350 Y0.373 Z-19.292 F400.000
G1 X-2.429 Y0.428 Z-19.301 F400.000
G1 X-2.517 Y0.466 Z-19.309 F400.000
G1 X-2.611 Y0.486 Z-19.318 F400.000
G1 X-2.707 Y0.487 Z-19.326 F400.000
G1 X-2.801 Y0.470 Z-19.335 F400.000
G1 X-2.890 Y0.435 Z-19.343 F400.000
G1 X-2.971 Y0.383 Z-19.352 F400.000
G1 X-3.039 Y0.316 Z-19.361 F400.000
G1 X-3.094 Y0.237 Z-19.369 F400.000
G1 X-3.132 Y0.149 Z-19.378 F400.000
G1 X-3.152 Y0.055 Z-19.386 F400.000
G1 X-3.153 Y-0.041 Z-19.395 F400.000
G1 X-3.136 Y-0.135 Z-19.404 F400.000
G1 X-3.101 Y-0.224 Z-19.412 F400.000
G1 X-3.049 Y-0.304 Z-19.421 F400.000
G1 X-2.982 Y-0.373 Z-19.429 F400.000
G1 X-2.903 Y-0.428 Z-19.438 F400.000
G1 X-2.815 Y-0.466 Z-19.446 F400.000
G1 X-2.721 Y-0.486 Z-19.455 F400.000
G1 X-2.626 Y-0.487 Z-19.464 F400.000
G1 X-2.531 Y-0.470 Z-19.472 F400.000
G1 X-2.442 Y-0.435 Z-19.481 F400.000
G1 X-2.362 Y-0.383 Z-19.489 F400.000
G1 X-2.293 Y-0.316 Z-19.498 F400.000
G1 X-2.238 Y-0.237 Z-19.506 F400.000
G1 X-2.200 Y-0.149 Z-19.515 F400.000
G1 X-2.180 Y-0.055 Z-19.524 F400.000
G1 X-2.179 Y0.041 Z-19.532 F400.000
G1 X-2.196 Y0.135 Z-19.541 F400.000
G1 X-2.231 Y0.224 Z-19.549 F400.000
G1 X-2.283 Y0.304 Z-19.558 F400.000
G1 X-2.350 Y0.373 Z-19.566 F400.000
G1 X-2.429 Y0.428 Z-19.575 F400.000
G1 X-2.517 Y0.466 Z-19.584 F400.000
G1 X-2.611 Y0.486 Z-19.592 F400.000
G1 X-2.707 Y0.487 Z-19.601 F400.000
G1 X-2.801 Y0.470 Z-19.609 F400.000
G1 X-2.890 Y0.435 Z-19.618 F400.000
G1 X-2.971 Y0.383 Z-19.626 F400.000
G1 X-3.039 Y0.316 Z-19.635 F400.000
G1 X-3.094 Y0.237 Z-19.644 F400.000
G1 X-3.132 Y0.149 Z-19.652 F400.000
G1 X-3.152 Y0.055 Z-19.661 F400.000
G1 X-3.153 Y-0.041 Z-19.669 F400.000
G1 X-3.136 Y-0.135 Z-19.678 F400.000
G1 X-3.101 Y-0.224 Z-19.686 F400.000
G1 X-3.049 Y-0.304 Z-19.695 F400.000
G1 X-2.982 Y-0.373 Z-19.704 F400.000
G1 X-2.903 Y-0.428 Z-19.712 F400.000
G1 X-2.815 Y-0.466 Z-19.721 F400.000
G1 X-2.721 Y-0.486 Z-19.729 F400.000
G1 X-2.626 Y-0.487 Z-19.738 F400.000
G1 X-2.531 Y-0.470 Z-19.746 F400.000
G1 X-2.442 Y-0.435 Z-19.755 F400.000
G1 X-2.362 Y-0.383 Z-19.764 F400.000
G1 X-2.293 Y-0.316 Z-19.772 F400.000
G1 X-2.238 Y-0.237 Z-19.781 F400.000
G1 X-2.200 Y-0.149 Z-19.789 F400.000
G1 X-2.180 Y-0.055 Z-19.798 F400.000
G1 X-2.179 Y0.041 Z-19.806 F400.000
G1 X-2.196 Y0.135 Z-19.815 F400.000
G1 X-2.231 Y0.224 Z-19.824 F400.000
G1 X-2.283 Y0.304 Z-19.832 F400.000
G1 X-2.350 Y0.373 Z-19.841 F400.000
G1 X-2.429 Y0.428 Z-19.849 F400.000
G1 X-2.517 Y0.466 Z-19.858 F400.000
G1 X-2.611 Y0.486 Z-19.866 F400.000
G1 X-2.707 Y0.487 Z-19.875 F400.000
G1 X-2.801 Y0.470 Z-19.884 F400.000
G1 X-2.890 Y0.435 Z-19.892 F400.000
G1 X-2.971 Y0.383 Z-19.901 F400.000
G1 X-3.039 Y0.316 Z-19.909 F400.000
G1 X-3.094 Y0.237 Z-19.918 F400.000
G1 X-3.132 Y0.149 Z-19.926 F400.000
G1 X-3.152 Y0.055 Z-19.935 F400.000
G1 X-3.153 Y-0.041 Z-19.944 F400.000
G1 X-3.136 Y-0.135 Z-19.952 F400.000
G1 X-3.101 Y-0.224 Z-19.961 F400.000
G1 X-3.049 Y-0.304 Z-19.969 F400.000
G1 X-2.982 Y-0.373 Z-19.978 F400.000
G1 X-2.903 Y-0.428 Z-19.986 F400.000
G1 X-2.815 Y-0.466 Z-19.995 F400.000
G1 X-2.721 Y-0.486 Z-20.000 F400.000
G1 X-2.626 Y-0.487 Z-20.000 F400.000
G1 X-2.531 Y-0.470 Z-20.000 F400.000
G1 X-2.442 Y-0.435 Z-20.000 F400.000
G1 X-2.362 Y-0.383 Z-20.000 F400.000
G1 X-2.293 Y-0.316 Z-20.000 F400.000
G1 X-2.238 Y-0.237 Z-20.000 F400.000
G1 X-2.200 Y-0.149 Z-20.000 F400.000
G1 X-2.180 Y-0.055 Z-20.000 F400.000
G1 X-2.179 Y0.041 Z-20.000 F400.000
G1 X-2.196 Y0.135 Z-20.000 F400.000
G1 X-2.231 Y0.224 Z-20.000 F400.000
G1 X-2.283 Y0.304 Z-20.000 F400.000
G1 X-2.350 Y0.373 Z-20.000 F400.000
G1 X-2.429 Y0.428 Z-20.000 F400.000
G1 X-2.517 Y0.466 Z-20.000 F400.000
G1 X-2.611 Y0.486 Z-20.000 F400.000
G1 X-2.707 Y0.487 Z-20.000 F400.000
G1 X-2.801 Y0.470 Z-20.000 F400.000
G1 X-2.890 Y0.435 Z-20.000 F400.000
G1 X-2.971 Y0.383 Z-20.000 F400.000
G1 X-3.039 Y0.316 Z-20.000 F400.000
G1 X-3.094 Y0.237 Z-20.000 F400.000
G1 X-3.132 Y0.149 Z-20.000 F400.000
G1 X-3.152 Y0.055 Z-20.000 F400.000
G1 X-3.153 Y-0.041 Z-20.000 F400.000
G1 X-3.136 Y-0.135 Z-20.000 F400.000
G1 X-3.101 Y-0.224 Z-20.000 F400.000
G1 X-3.049 Y-0.304 Z-20.000 F400.000
G1 X-2.982 Y-0.373 Z-20.000 F400.000
G1 X-2.903 Y-0.428 Z-20.000 F400.000
G1 X-2.815 Y-0.466 Z-20.000 F400.000
(Adaptive - depth: -20.000000)
G1 X-2.666 Y-0.499 F400.000
G1 X-2.638 Y-0.512 F400.000
G1 X-2.548 Y-0.520 F400.000
G1 X-2.458 Y-0.505 F400.000
G1 X-2.400 Y-0.484 F400.000
G1 X-2.293 Y-0.417 F400.000
G1 X-2.225 Y-0.353 F400.000
G1 X-2.152 Y-0.251 F400.000
G1 X-2.101 Y-0.137 F400.000
G1 X-2.088 Y-0.077 F400.000
G1 X-2.086 Y0.068 F400.000
G1 X-2.111 Y0.180 F400.000
G1 X-2.156 Y0.285 F400.000
G1 X-2.221 Y0.381 F400.000
G1 X-2.283 Y0.443 F400.000
G1 X-2.353 Y0.492 F400.000
G1 X-2.484 Y0.552 F400.000
G1 X-2.625 Y0.578 F400.000
G1 X-2.794 Y0.557 F400.000
G1 X-2.878 Y0.531 F400.000
G1 X-3.006 Y0.458 F400.000
G1 X-3.092 Y0.375 F400.000
G1 X-3.159 Y0.276 F400.000
G1 X-3.197 Y0.191 F400.000
G1 X-3.225 Y0.071 F400.000
G1 X-3.225 Y-0.073 F400.000
G1 X-3.197 Y-0.186 F400.000
G1 X-3.146 Y-0.293 F400.000
G1 X-3.073 Y-0.386 F400.000
G1 X-2.957 Y-0.478 F400.000
G1 X-2.878 Y-0.522 F400.000
G1 X-2.765 Y-0.565 F400.000
G1 X-2.675 Y-0.585 F400.000
G1 X-2.585 Y-0.578 F400.000
G1 X-2.465 Y-0.548 F400.000
G1 X-2.381 Y-0.508 F400.000
G1 X-2.278 Y-0.437 F400.000
G1 X-2.191 Y-0.343 F400.000
G1 X-2.191 Y-0.343 F400.000
G1 X-2.161 Y-0.266 F400.000
G1 X-2.161 Y-0.235 F400.000
G0 X-2.163 Y-0.221
G0 X-2.221 Y-0.101
G0 X-2.538 Y0.458
G1 X-2.546 Y0.473 F400.000
G1 X-2.589 Y0.537 F400.000
G1 X-2.627 Y0.565 F400.000
G1 X-2.705 Y0.583 F400.000
G1 X-2.705 Y0.583 F400.000
G1 X-2.734 Y0.582 F400.000
G1 X-2.874 Y0.546 F400.000
G1 X-3.006 Y0.477 F400.000
G1 X-3.096 Y0.398 F400.000
G1 X-3.152 Y0.328 F400.000
G1 X-3.208 Y0.220 F400.000
G1 X-3.242 Y0.101 F400.000
G1 X-3.250 Y-0.045 F400.000
G1 X-3.248 Y-0.073 F400.000
G1 X-3.208 Y-0.214 F400.000
G1 X-3.188 Y-0.270 F400.000
G1 X-3.141 Y-0.345 F400.000
G1 X-3.081 Y-0.413 F400.000
G1 X-2.991 Y-0.488 F400.000
G1 X-2.826 Y-0.563 F400.000
G1 X-2.705 Y-0.585 F400.000
G1 X-2.705 Y-0.585 F400.000
G1 X-2.696 Y-0.582 F400.000
G0 X-2.690 Y-0.578
G0 X-2.692 Y-0.561
G0 X-2.698 Y-0.553
G1 X-2.705 Y-0.553 F400.000
G1 X-2.719 Y-0.565 F400.000
G1 X-2.719 Y-0.583 F400.000
G1 X-2.707 Y-0.598 F400.000
G1 X-2.707 Y-0.598 F400.000
G1 X-2.591 Y-0.591 F400.000
G1 X-2.533 Y-0.580 F400.000
G1 X-2.426 Y-0.546 F400.000
G1 X-2.375 Y-0.522 F400.000
G1 X-2.310 Y-0.480 F400.000
G1 X-2.227 Y-0.407 F400.000
G1 X-2.195 Y-0.368 F400.000
G1 X-2.139 Y-0.276 F400.000
G1 X-2.098 Y-0.182 F400.000
G1 X-2.073 Y-0.069 F400.000
G1 X-2.073 Y0.079 F400.000
G1 X-2.090 Y0.163 F400.000
G1 X-2.131 Y0.268 F400.000
G1 X-2.205 Y0.381 F400.000
G1 X-2.236 Y0.417 F400.000
G1 X-2.328 Y0.493 F400.000
G1 X-2.373 Y0.522 F400.000
G1 X-2.420 Y0.544 F400.000
G1 X-2.486 Y0.567 F400.000
G1 X-2.589 Y0.593 F400.000
G1 X-2.666 Y0.598 F400.000
G1 X-2.713 Y0.597 F400.000
G1 X-2.837 Y0.572 F400.000
G1 X-2.998 Y0.497 F400.000
G1 X-3.090 Y0.420 F400.000
G1 X-3.152 Y0.349 F400.000
G1 X-3.195 Y0.283 F400.000
G1 X-3.218 Y0.233 F400.000
G1 X-3.253 Y0.105 F400.000
G1 X-3.263 Y0.051 F400.000
G1 X-3.263 Y-0.054 F400.000
G1 X-3.253 Y-0.107 F400.000
G1 X-3.229 Y-0.197 F400.000
G1 X-3.191 Y-0.287 F400.000
G1 X-3.141 Y-0.366 F400.000
G1 X-3.105 Y-0.405 F400.000
G1 X-3.041 Y-0.465 F400.000
G1 X-2.955 Y-0.522 F400.000
G1 X-2.857 Y-0.568 F400.000
G1 X-2.707 Y-0.598 F400.000
G1 X-2.707 Y-0.598 F400.000
G0 Z6.000
G0 Z6.000
(Finish operation: Adaptive001)
(Block-name: Fixture)
(Block-expand: 0)
(Block-enable: 1)
(Begin operation: Fixture)
(Path: Fixture)
G54
(Finish operation: Fixture)
(Block-name: Adaptive)
(Block-expand: 0)
(Block-enable: 1)
(Begin operation: Adaptive)
(Path: Adaptive)
(Adaptive)
(Helix to depth: -5.000000)
G0 Z6.000
G0 X0.477 Y0.564 Z6.000
G0 X0.477 Y0.564 Z4.000
G1 X0.477 Y0.564 Z1.000 F400.000
G1 X0.477 Y0.564 Z1.000 F400.000
G1 X0.358 Y0.646 Z0.987 F400.000
G1 X0.225 Y0.703 Z0.974 F400.000
G1 X0.084 Y0.734 Z0.961 F400.000
G1 X-0.061 Y0.736 Z0.949 F400.000
G1 X-0.204 Y0.710 Z0.936 F400.000
G1 X-0.338 Y0.657 Z0.923 F400.000
G1 X-0.460 Y0.578 Z0.910 F400.000
G1 X-0.564 Y0.477 Z0.897 F400.000
G1 X-0.646 Y0.358 Z0.884 F400.000
G1 X-0.703 Y0.225 Z0.871 F400.000
G1 X-0.734 Y0.084 Z0.859 F400.000
G1 X-0.736 Y-0.061 Z0.846 F400.000
G1 X-0.710 Y-0.204 Z0.833 F400.000
G1 X-0.657 Y-0.338 Z0.820 F400.000
G1 X-0.578 Y-0.460 Z0.807 F400.000
G1 X-0.477 Y-0.564 Z0.794 F400.000
G1 X-0.358 Y-0.646 Z0.781 F400.000
G1 X-0.225 Y-0.703 Z0.769 F400.000
G1 X-0.084 Y-0.734 Z0.756 F400.000
G1 X0.061 Y-0.736 Z0.743 F400.000
G1 X0.204 Y-0.710 Z0.730 F400.000
G1 X0.338 Y-0.657 Z0.717 F400.000
G1 X0.460 Y-0.578 Z0.704 F400.000
G1 X0.564 Y-0.477 Z0.691 F400.000
G1 X0.646 Y-0.358 Z0.679 F400.000
G1 X0.703 Y-0.225 Z0.666 F400.000
G1 X0.734 Y-0.084 Z0.653 F400.000
G1 X0.736 Y0.061 Z0.640 F400.000
G1 X0.710 Y0.204 Z0.627 F400.000
G1 X0.657 Y0.338 Z0.614 F400.000
G1 X0.578 Y0.460 Z0.601 F400.000
G1 X0.477 Y0.564 Z0.588 F400.000
G1 X0.358 Y0.646 Z0.576 F400.000
G1 X0.225 Y0.703 Z0.563 F400.000
G1 X0.084 Y0.734 Z0.550 F400.000
G1 X-0.061 Y0.736 Z0.537 F400.000
G1 X-0.204 Y0.710 Z0.524 F400.000
G1 X-0.338 Y0.657 Z0.511 F400.000
G1 X-0.460 Y0.578 Z0.498 F400.000
G1 X-0.564 Y0.477 Z0.486 F400.000
G1 X-0.646 Y0.358 Z0.473 F400.000
G1 X-0.703 Y0.225 Z0.460 F400.000
G1 X-0.734 Y0.084 Z0.447 F400.000
G1 X-0.736 Y-0.061 Z0.434 F400.000
G1 X-0.710 Y-0.204 Z0.421 F400.000
G1 X-0.657 Y-0.338 Z0.408 F400.000
G1 X-0.578 Y-0.460 Z0.396 F400.000
G1 X-0.477 Y-0.564 Z0.383 F400.000
G1 X-0.358 Y-0.646 Z0.370 F400.000
G1 X-0.225 Y-0.703 Z0.357 F400.000
G1 X-0.084 Y-0.734 Z0.344 F400.000
G1 X0.061 Y-0.736 Z0.331 F400.000
G1 X0.204 Y-0.710 Z0.318 F400.000
G1 X0.338 Y-0.657 Z0.306 F400.000
G1 X0.460 Y-0.578 Z0.293 F400.000
G1 X0.564 Y-0.477 Z0.280 F400.000
G1 X0.646 Y-0.358 Z0.267 F400.000
G1 X0.703 Y-0.225 Z0.254 F400.000
G1 X0.734 Y-0.084 Z0.241 F400.000
G1 X0.736 Y0.061 Z0.228 F400.000
G1 X0.710 Y0.204 Z0.216 F400.000
G1 X0.657 Y0.338 Z0.203 F400.000
G1 X0.578 Y0.460 Z0.190 F400.000
G1 X0.477 Y0.564 Z0.177 F400.000
G1 X0.358 Y0.646 Z0.164 F400.000
G1 X0.225 Y0.703 Z0.151 F400.000
G1 X0.084 Y0.734 Z0.138 F400.000
G1 X-0.061 Y0.736 Z0.126 F400.000
G1 X-0.204 Y0.710 Z0.113 F400.000
G1 X-0.338 Y0.657 Z0.100 F400.000
G1 X-0.460 Y0.578 Z0.087 F400.000
G1 X-0.564 Y0.477 Z0.074 F400.000
G1 X-0.646 Y0.358 Z0.061 F400.000
G1 X-0.703 Y0.225 Z0.048 F400.000
G1 X-0.734 Y0.084 Z0.036 F400.000
G1 X-0.736 Y-0.061 Z0.023 F400.000
G1 X-0.710 Y-0.204 Z0.010 F400.000
G1 X-0.657 Y-0.338 Z-0.003 F400.000
G1 X-0.578 Y-0.460 Z-0.016 F400.000
G1 X-0.477 Y-0.564 Z-0.029 F400.000
G1 X-0.358 Y-0.646 Z-0.042 F400.000
G1 X-0.225 Y-0.703 Z-0.054 F400.000
G1 X-0.084 Y-0.734 Z-0.067 F400.000
G1 X0.061 Y-0.736 Z-0.080 F400.000
G1 X0.204 Y-0.710 Z-0.093 F400.000
G1 X0.338 Y-0.657 Z-0.106 F400.000
G1 X0.460 Y-0.578 Z-0.119 F400.000
G1 X0.564 Y-0.477 Z-0.132 F400.000
G1 X0.646 Y-0.358 Z-0.145 F400.000
G1 X0.703 Y-0.225 Z-0.157 F400.000
G1 X0.734 Y-0.084 Z-0.170 F400.000
G1 X0.736 Y0.061 Z-0.183 F400.000
G1 X0.710 Y0.204 Z-0.196 F400.000
G1 X0.657 Y0.338 Z-0.209 F400.000
G1 X0.578 Y0.460 Z-0.222 F400.000
G1 X0.477 Y0.564 Z-0.235 F400.000
G1 X0.358 Y0.646 Z-0.247 F400.000
G1 X0.225 Y0.703 Z-0.260 F400.000
G1 X0.084 Y0.734 Z-0.273 F400.000
G1 X-0.061 Y0.736 Z-0.286 F400.000
G1 X-0.204 Y0.710 Z-0.299 F400.000
G1 X-0.338 Y0.657 Z-0.312 F400.000
G1 X-0.460 Y0.578 Z-0.325 F400.000
G1 X-0.564 Y0.477 Z-0.337 F400.000
G1 X-0.646 Y0.358 Z-0.350 F400.000
G1 X-0.703 Y0.225 Z-0.363 F400.000
G1 X-0.734 Y0.084 Z-0.376 F400.000
G1 X-0.736 Y-0.061 Z-0.389 F400.000
G1 X-0.710 Y-0.204 Z-0.402 F400.000
G1 X-0.657 Y-0.338 Z-0.415 F400.000
G1 X-0.578 Y-0.460 Z-0.427 F400.000
G1 X-0.477 Y-0.564 Z-0.440 F400.000
G1 X-0.358 Y-0.646 Z-0.453 F400.000
G1 X-0.225 Y-0.703 Z-0.466 F400.000
G1 X-0.084 Y-0.734 Z-0.479 F400.000
G1 X0.061 Y-0.736 Z-0.492 F400.000
G1 X0.204 Y-0.710 Z-0.505 F400.000
G1 X0.338 Y-0.657 Z-0.517 F400.000
G1 X0.460 Y-0.578 Z-0.530 F400.000
G1 X0.564 Y-0.477 Z-0.543 F400.000
G1 X0.646 Y-0.358 Z-0.556 F400.000
G1 X0.703 Y-0.225 Z-0.569 F400.000
G1 X0.734 Y-0.084 Z-0.582 F400.000
G1 X0.736 Y0.061 Z-0.595 F400.000
G1 X0.710 Y0.204 Z-0.607 F400.000
G1 X0.657 Y0.338 Z-0.620 F400.000
G1 X0.578 Y0.460 Z-0.633 F400.000
G1 X0.477 Y0.564 Z-0.646 F400.000
G1 X0.358 Y0.646 Z-0.659 F400.000
G1 X0.225 Y0.703 Z-0.672 F400.000
G1 X0.084 Y0.734 Z-0.685 F400.000
G1 X-0.061 Y0.736 Z-0.697 F400.000
G1 X-0.204 Y0.710 Z-0.710 F400.000
G1 X-0.338 Y0.657 Z-0.723 F400.000
G1 X-0.460 Y0.578 Z-0.736 F400.000
G1 X-0.564 Y0.477 Z-0.749 F400.000
G1 X-0.646 Y0.358 Z-0.762 F400.000
G1 X-0.703 Y0.225 Z-0.775 F400.000
G1 X-0.734 Y0.084 Z-0.787 F400.000
G1 X-0.736 Y-0.061 Z-0.800 F400.000
G1 X-0.710 Y-0.204 Z-0.813 F400.000
G1 X-0.657 Y-0.338 Z-0.826 F400.000
G1 X-0.578 Y-0.460 Z-0.839 F400.000
G1 X-0.477 Y-0.564 Z-0.852 F400.000
G1 X-0.358 Y-0.646 Z-0.865 F400.000
G1 X-0.225 Y-0.703 Z-0.878 F400.000
G1 X-0.084 Y-0.734 Z-0.890 F400.000
G1 X0.061 Y-0.736 Z-0.903 F400.000
G1 X0.204 Y-0.710 Z-0.916 F400.000
G1 X0.338 Y-0.657 Z-0.929 F400.000
G1 X0.460 Y-0.578 Z-0.942 F400.000
G1 X0.564 Y-0.477 Z-0.955 F400.000
G1 X0.646 Y-0.358 Z-0.968 F400.000
G1 X0.703 Y-0.225 Z-0.980 F400.000
G1 X0.734 Y-0.084 Z-0.993 F400.000
G1 X0.736 Y0.061 Z-1.006 F400.000
G1 X0.710 Y0.204 Z-1.019 F400.000
G1 X0.657 Y0.338 Z-1.032 F400.000
G1 X0.578 Y0.460 Z-1.045 F400.000
G1 X0.477 Y0.564 Z-1.058 F400.000
G1 X0.358 Y0.646 Z-1.070 F400.000
G1 X0.225 Y0.703 Z-1.083 F400.000
G1 X0.084 Y0.734 Z-1.096 F400.000
G1 X-0.061 Y0.736 Z-1.109 F400.000
G1 X-0.204 Y0.710 Z-1.122 F400.000
G1 X-0.338 Y0.657 Z-1.135 F400.000
G1 X-0.460 Y0.578 Z-1.148 F400.000
G1 X-0.564 Y0.477 Z-1.160 F400.000
G1 X-0.646 Y0.358 Z-1.173 F400.000
G1 X-0.703 Y0.225 Z-1.186 F400.000
G1 X-0.734 Y0.084 Z-1.199 F400.000
G1 X-0.736 Y-0.061 Z-1.212 F400.000
G1 X-0.710 Y-0.204 Z-1.225 F400.000
G1 X-0.657 Y-0.338 Z-1.238 F400.000
G1 X-0.578 Y-0.460 Z-1.250 F400.000
G1 X-0.477 Y-0.564 Z-1.263 F400.000
G1 X-0.358 Y-0.646 Z-1.276 F400.000
G1 X-0.225 Y-0.703 Z-1.289 F400.000
G1 X-0.084 Y-0.734 Z-1.302 F400.000
G1 X0.061 Y-0.736 Z-1.315 F400.000
G1 X0.204 Y-0.710 Z-1.328 F400.000
G1 X0.338 Y-0.657 Z-1.340 F400.000
G1 X0.460 Y-0.578 Z-1.353 F400.000
G1 X0.564 Y-0.477 Z-1.366 F400.000
G1 X0.646 Y-0.358 Z-1.379 F400.000
G1 X0.703 Y-0.225 Z-1.392 F400.000
G1 X0.734 Y-0.084 Z-1.405 F400.000
G1 X0.736 Y0.061 Z-1.418 F400.000
G1 X0.710 Y0.204 Z-1.430 F400.000
G1 X0.657 Y0.338 Z-1.443 F400.000
G1 X0.578 Y0.460 Z-1.456 F400.000
G1 X0.477 Y0.564 Z-1.469 F400.000
G1 X0.358 Y0.646 Z-1.482 F400.000
G1 X0.225 Y0.703 Z-1.495 F400.000
G1 X0.084 Y0.734 Z-1.508 F400.000
G1 X-0.061 Y0.736 Z-1.520 F400.000
G1 X-0.204 Y0.710 Z-1.533 F400.000
G1 X-0.338 Y0.657 Z-1.546 F400.000
G1 X-0.460 Y0.578 Z-1.559 F400.000
G1 X-0.564 Y0.477 Z-1.572 F400.000
G1 X-0.646 Y0.358 Z-1.585 F400.000
G1 X-0.703 Y0.225 Z-1.598 F400.000
G1 X-0.734 Y0.084 Z-1.610 F400.000
G1 X-0.736 Y-0.061 Z-1.623 F400.000
G1 X-0.710 Y-0.204 Z-1.636 F400.000
G1 X-0.657 Y-0.338 Z-1.649 F400.000
G1 X-0.578 Y-0.460 Z-1.662 F400.000
G1 X-0.477 Y-0.564 Z-1.675 F400.000
G1 X-0.358 Y-0.646 Z-1.688 F400.000
G1 X-0.225 Y-0.703 Z-1.701 F400.000
G1 X-0.084 Y-0.734 Z-1.713 F400.000
G1 X0.061 Y-0.736 Z-1.726 F400.000
G1 X0.204 Y-0.710 Z-1.739 F400.000
G1 X0.338 Y-0.657 Z-1.752 F400.000
G1 X0.460 Y-0.578 Z-1.765 F400.000
G1 X0.564 Y-0.477 Z-1.778 F400.000
G1 X0.646 Y-0.358 Z-1.791 F400.000
G1 X0.703 Y-0.225 Z-1.803 F400.000
G1 X0.734 Y-0.084 Z-1.816 F400.000
G1 X0.736 Y0.061 Z-1.829 F400.000
G1 X0.710 Y0.204 Z-1.842 F400.000
G1 X0.657 Y0.338 Z-1.855 F400.000
G1 X0.578 Y0.460 Z-1.868 F400.000
G1 X0.477 Y0.564 Z-1.881 F400.000
G1 X0.358 Y0.646 Z-1.893 F400.000
G1 X0.225 Y0.703 Z-1.906 F400.000
G1 X0.084 Y0.734 Z-1.919 F400.000
G1 X-0.061 Y0.736 Z-1.932 F400.000
G1 X-0.204 Y0.710 Z-1.945 F400.000
G1 X-0.338 Y0.657 Z-1.958 F400.000
G1 X-0.460 Y0.578 Z-1.971 F400.000
G1 X-0.564 Y0.477 Z-1.983 F400.000
G1 X-0.646 Y0.358 Z-1.996 F400.000
G1 X-0.703 Y0.225 Z-2.009 F400.000
G1 X-0.734 Y0.084 Z-2.022 F400.000
G1 X-0.736 Y-0.061 Z-2.035 F400.000
G1 X-0.710 Y-0.204 Z-2.048 F400.000
G1 X-0.657 Y-0.338 Z-2.061 F400.000
G1 X-0.578 Y-0.460 Z-2.073 F400.000
G1 X-0.477 Y-0.564 Z-2.086 F400.000
G1 X-0.358 Y-0.646 Z-2.099 F400.000
G1 X-0.225 Y-0.703 Z-2.112 F400.000
G1 X-0.084 Y-0.734 Z-2.125 F400.000
G1 X0.061 Y-0.736 Z-2.138 F400.000
G1 X0.204 Y-0.710 Z-2.151 F400.000
G1 X0.338 Y-0.657 Z-2.163 F400.000
G1 X0.460 Y-0.578 Z-2.176 F400.000
G1 X0.564 Y-0.477 Z-2.189 F400.000
G1 X0.646 Y-0.358 Z-2.202 F400.000
G1 X0.703 Y-0.225 Z-2.215 F400.000
G1 X0.734 Y-0.084 Z-2.228 F400.000
G1 X0.736 Y0.061 Z-2.241 F400.000
G1 X0.710 Y0.204 Z-2.253 F400.000
G1 X0.657 Y0.338 Z-2.266 F400.000
G1 X0.578 Y0.460 Z-2.279 F400.000
G1 X0.477 Y0.564 Z-2.292 F400.000
G1 X0.358 Y0.646 Z-2.305 F400.000
G1 X0.225 Y0.703 Z-2.318 F400.000
G1 X0.084 Y0.734 Z-2.331 F400.000
G1 X-0.061 Y0.736 Z-2.343 F400.000
G1 X-0.204 Y0.710 Z-2.356 F400.000
G1 X-0.338 Y0.657 Z-2.369 F400.000
G1 X-0.460 Y0.578 Z-2.382 F400.000
G1 X-0.564 Y0.477 Z-2.395 F400.000
G1 X-0.646 Y0.358 Z-2.408 F400.000
G1 X-0.703 Y0.225 Z-2.421 F400.000
G1 X-0.734 Y0.084 Z-2.434 F400.000
G1 X-0.736 Y-0.061 Z-2.446 F400.000
G1 X-0.710 Y-0.204 Z-2.459 F400.000
G1 X-0.657 Y-0.338 Z-2.472 F400.000
G1 X-0.578 Y-0.460 Z-2.485 F400.000
G1 X-0.477 Y-0.564 Z-2.498 F400.000
G1 X-0.358 Y-0.646 Z-2.511 F400.000
G1 X-0.225 Y-0.703 Z-2.524 F400.000
G1 X-0.084 Y-0.734 Z-2.536 F400.000
G1 X0.061 Y-0.736 Z-2.549 F400.000
G1 X0.204 Y-0.710 Z-2.562 F400.000
G1 X0.338 Y-0.657 Z-2.575 F400.000
G1 X0.460 Y-0.578 Z-2.588 F400.000
G1 X0.564 Y-0.477 Z-2.601 F400.000
G1 X0.646 Y-0.358 Z-2.614 F400.000
G1 X0.703 Y-0.225 Z-2.626 F400.000
G1 X0.734 Y-0.084 Z-2.639 F400.000
G1 X0.736 Y0.061 Z-2.652 F400.000
G1 X0.710 Y0.204 Z-2.665 F400.000
G1 X0.657 Y0.338 Z-2.678 F400.000
G1 X0.578 Y0.460 Z-2.691 F400.000
G1 X0.477 Y0.564 Z-2.704 F400.000
G1 X0.358 Y0.646 Z-2.716 F400.000
G1 X0.225 Y0.703 Z-2.729 F400.000
G1 X0.084 Y0.734 Z-2.742 F400.000
G1 X-0.061 Y0.736 Z-2.755 F400.000
G1 X-0.204 Y0.710 Z-2.768 F400.000
G1 X-0.338 Y0.657 Z-2.781 F400.000
G1 X-0.460 Y0.578 Z-2.794 F400.000
G1 X-0.564 Y0.477 Z-2.806 F400.000
G1 X-0.646 Y0.358 Z-2.819 F400.000
G1 X-0.703 Y0.225 Z-2.832 F400.000
G1 X-0.734 Y0.084 Z-2.845 F400.000
G1 X-0.736 Y-0.061 Z-2.858 F400.000
G1 X-0.710 Y-0.204 Z-2.871 F400.000
G1 X-0.657 Y-0.338 Z-2.884 F400.000
G1 X-0.578 Y-0.460 Z-2.896 F400.000
G1 X-0.477 Y-0.564 Z-2.909 F400.000
G1 X-0.358 Y-0.646 Z-2.922 F400.000
G1 X-0.225 Y-0.703 Z-2.935 F400.000
G1 X-0.084 Y-0.734 Z-2.948 F400.000
G1 X0.061 Y-0.736 Z-2.961 F400.000
G1 X0.204 Y-0.710 Z-2.974 F400.000
G1 X0.338 Y-0.657 Z-2.986 F400.000
G1 X0.460 Y-0.578 Z-2.999 F400.000
G1 X0.564 Y-0.477 Z-3.012 F400.000
G1 X0.646 Y-0.358 Z-3.025 F400.000
G1 X0.703 Y-0.225 Z-3.038 F400.000
G1 X0.734 Y-0.084 Z-3.051 F400.000
G1 X0.736 Y0.061 Z-3.064 F400.000
G1 X0.710 Y0.204 Z-3.076 F400.000
G1 X0.657 Y0.338 Z-3.089 F400.000
G1 X0.578 Y0.460 Z-3.102 F400.000
G1 X0.477 Y0.564 Z-3.115 F400.000
G1 X0.358 Y0.646 Z-3.128 F400.000
G1 X0.225 Y0.703 Z-3.141 F400.000
G1 X0.084 Y0.734 Z-3.154 F400.000
G1 X-0.061 Y0.736 Z-3.167 F400.000
G1 X-0.204 Y0.710 Z-3.179 F400.000
G1 X-0.338 Y0.657 Z-3.192 F400.000
G1 X-0.460 Y0.578 Z-3.205 F400.000
G1 X-0.564 Y0.477 Z-3.218 F400.000
G1 X-0.646 Y0.358 Z-3.231 F400.000
G1 X-0.703 Y0.225 Z-3.244 F400.000
G1 X-0.734 Y0.084 Z-3.257 F400.000
G1 X-0.736 Y-0.061 Z-3.269 F400.000
G1 X-0.710 Y-0.204 Z-3.282 F400.000
G1 X-0.657 Y-0.338 Z-3.295 F400.000
G1 X-0.578 Y-0.460 Z-3.308 F400.000
G1 X-0.477 Y-0.564 Z-3.321 F400.000
G1 X-0.358 Y-0.646 Z-3.334 F400.000
G1 X-0.225 Y-0.703 Z-3.347 F400.000
G1 X-0.084 Y-0.734 Z-3.359 F400.000
G1 X0.061 Y-0.736 Z-3.372 F400.000
G1 X0.204 Y-0.710 Z-3.385 F400.000
G1 X0.338 Y-0.657 Z-3.398 F400.000
G1 X0.460 Y-0.578 Z-3.411 F400.000
G1 X0.564 Y-0.477 Z-3.424 F400.000
G1 X0.646 Y-0.358 Z-3.437 F400.000
G1 X0.703 Y-0.225 Z-3.449 F400.000
G1 X0.734 Y-0.084 Z-3.462 F400.000
G1 X0.736 Y0.061 Z-3.475 F400.000
G1 X0.710 Y0.204 Z-3.488 F400.000
G1 X0.657 Y0.338 Z-3.501 F400.000
G1 X0.578 Y0.460 Z-3.514 F400.000
G1 X0.477 Y0.564 Z-3.527 F400.000
G1 X0.358 Y0.646 Z-3.539 F400.000
G1 X0.225 Y0.703 Z-3.552 F400.000
G1 X0.084 Y0.734 Z-3.565 F400.000
G1 X-0.061 Y0.736 Z-3.578 F400.000
G1 X-0.204 Y0.710 Z-3.591 F400.000
G1 X-0.338 Y0.657 Z-3.604 F400.000
G1 X-0.460 Y0.578 Z-3.617 F400.000
G1 X-0.564 Y0.477 Z-3.629 F400.000
G1 X-0.646 Y0.358 Z-3.642 F400.000
G1 X-0.703 Y0.225 Z-3.655 F400.000
G1 X-0.734 Y0.084 Z-3.668 F400.000
G1 X-0.736 Y-0.061 Z-3.681 F400.000
G1 X-0.710 Y-0.204 Z-3.694 F400.000
G1 X-0.657 Y-0.338 Z-3.707 F400.000
G1 X-0.578 Y-0.460 Z-3.719 F400.000
G1 X-0.477 Y-0.564 Z-3.732 F400.000
G1 X-0.358 Y-0.646 Z-3.745 F400.000
G1 X-0.225 Y-0.703 Z-3.758 F400.000
G1 X-0.084 Y-0.734 Z-3.771 F400.000
G1 X0.061 Y-0.736 Z-3.784 F400.000
G1 X0.204 Y-0.710 Z-3.797 F400.000
G1 X0.338 Y-0.657 Z-3.809 F400.000
G1 X0.460 Y-0.578 Z-3.822 F400.000
G1 X0.564 Y-0.477 Z-3.835 F400.000
G1 X0.646 Y-0.358 Z-3.848 F400.000
G1 X0.703 Y-0.225 Z-3.861 F400.000
G1 X0.734 Y-0.084 Z-3.874 F400.000
G1 X0.736 Y0.061 Z-3.887 F400.000
G1 X0.710 Y0.204 Z-3.900 F400.000
G1 X0.657 Y0.338 Z-3.912 F400.000
G1 X0.578 Y0.460 Z-3.925 F400.000
G1 X0.477 Y0.564 Z-3.938 F400.000
G1 X0.358 Y0.646 Z-3.951 F400.000
G1 X0.225 Y0.703 Z-3.964 F400.000
G1 X0.084 Y0.734 Z-3.977 F400.000
G1 X-0.061 Y0.736 Z-3.990 F400.000
G1 X-0.204 Y0.710 Z-4.002 F400.000
G1 X-0.338 Y0.657 Z-4.015 F400.000
G1 X-0.460 Y0.578 Z-4.028 F400.000
G1 X-0.564 Y0.477 Z-4.041 F400.000
G1 X-0.646 Y0.358 Z-4.054 F400.000
G1 X-0.703 Y0.225 Z-4.067 F400.000
G1 X-0.734 Y0.084 Z-4.080 F400.000
G1 X-0.736 Y-0.061 Z-4.092 F400.000
G1 X-0.710 Y-0.204 Z-4.105 F400.000
G1 X-0.657 Y-0.338 Z-4.118 F400.000
G1 X-0.578 Y-0.460 Z-4.131 F400.000
G1 X-0.477 Y-0.564 Z-4.144 F400.000
G1 X-0.358 Y-0.646 Z-4.157 F400.000
G1 X-0.225 Y-0.703 Z-4.170 F400.000
G1 X-0.084 Y-0.734 Z-4.182 F400.000
G1 X0.061 Y-0.736 Z-4.195 F400.000
G1 X0.204 Y-0.710 Z-4.208 F400.000
G1 X0.338 Y-0.657 Z-4.221 F400.000
G1 X0.460 Y-0.578 Z-4.234 F400.000
G1 X0.564 Y-0.477 Z-4.247 F400.000
G1 X0.646 Y-0.358 Z-4.260 F400.000
G1 X0.703 Y-0.225 Z-4.272 F400.000
G1 X0.734 Y-0.084 Z-4.285 F400.000
G1 X0.736 Y0.061 Z-4.298 F400.000
G1 X0.710 Y0.204 Z-4.311 F400.000
G1 X0.657 Y0.338 Z-4.324 F400.000
G1 X0.578 Y0.460 Z-4.337 F400.000
G1 X0.477 Y0.564 Z-4.350 F400.000
G1 X0.358 Y0.646 Z-4.362 F400.000
G1 X0.225 Y0.703 Z-4.375 F400.000
G1 X0.084 Y0.734 Z-4.388 F400.000
G1 X-0.061 Y0.736 Z-4.401 F400.000
G1 X-0.204 Y0.710 Z-4.414 F400.000
G1 X-0.338 Y0.657 Z-4.427 F400.000
G1 X-0.460 Y0.578 Z-4.440 F400.000
G1 X-0.564 Y0.477 Z-4.452 F400.000
G1 X-0.646 Y0.358 Z-4.465 F400.000
G1 X-0.703 Y0.225 Z-4.478 F400.000
G1 X-0.734 Y0.084 Z-4.491 F400.000
G1 X-0.736 Y-0.061 Z-4.504 F400.000
G1 X-0.710 Y-0.204 Z-4.517 F400.000
G1 X-0.657 Y-0.338 Z-4.530 F400.000
G1 X-0.578 Y-0.460 Z-4.542 F400.000
G1 X-0.477 Y-0.564 Z-4.555 F400.000
G1 X-0.358 Y-0.646 Z-4.568 F400.000
G1 X-0.225 Y-0.703 Z-4.581 F400.000
G1 X-0.084 Y-0.734 Z-4.594 F400.000
G1 X0.061 Y-0.736 Z-4.607 F400.000
G1 X0.204 Y-0.710 Z-4.620 F400.000
G1 X0.338 Y-0.657 Z-4.633 F400.000
G1 X0.460 Y-0.578 Z-4.645 F400.000
G1 X0.564 Y-0.477 Z-4.658 F400.000
G1 X0.646 Y-0.358 Z-4.671 F400.000
G1 X0.703 Y-0.225 Z-4.684 F400.000
G1 X0.734 Y-0.084 Z-4.697 F400.000
G1 X0.736 Y0.061 Z-4.710 F400.000
G1 X0.710 Y0.204 Z-4.723 F400.000
G1 X0.657 Y0.338 Z-4.735 F400.000
G1 X0.578 Y0.460 Z-4.748 F400.000
G1 X0.477 Y0.564 Z-4.761 F400.000
G1 X0.358 Y0.646 Z-4.774 F400.000
G1 X0.225 Y0.703 Z-4.787 F400.000
G1 X0.084 Y0.734 Z-4.800 F400.000
G1 X-0.061 Y0.736 Z-4.813 F400.000
G1 X-0.204 Y0.710 Z-4.825 F400.000
G1 X-0.338 Y0.657 Z-4.838 F400.000
G1 X-0.460 Y0.578 Z-4.851 F400.000
G1 X-0.564 Y0.477 Z-4.864 F400.000
G1 X-0.646 Y0.358 Z-4.877 F400.000
G1 X-0.703 Y0.225 Z-4.890 F400.000
G1 X-0.734 Y0.084 Z-4.903 F400.000
G1 X-0.736 Y-0.061 Z-4.915 F400.000
G1 X-0.710 Y-0.204 Z-4.928 F400.000
G1 X-0.657 Y-0.338 Z-4.941 F400.000
G1 X-0.578 Y-0.460 Z-4.954 F400.000
G1 X-0.477 Y-0.564 Z-4.967 F400.000
G1 X-0.358 Y-0.646 Z-4.980 F400.000
G1 X-0.225 Y-0.703 Z-4.993 F400.000
G1 X-0.084 Y-0.734 Z-5.000 F400.000
G1 X0.061 Y-0.736 Z-5.000 F400.000
G1 X0.204 Y-0.710 Z-5.000 F400.000
G1 X0.338 Y-0.657 Z-5.000 F400.000
G1 X0.460 Y-0.578 Z-5.000 F400.000
G1 X0.564 Y-0.477 Z-5.000 F400.000
G1 X0.646 Y-0.358 Z-5.000 F400.000
G1 X0.703 Y-0.225 Z-5.000 F400.000
G1 X0.734 Y-0.084 Z-5.000 F400.000
G1 X0.736 Y0.061 Z-5.000 F400.000
G1 X0.710 Y0.204 Z-5.000 F400.000
G1 X0.657 Y0.338 Z-5.000 F400.000
G1 X0.578 Y0.460 Z-5.000 F400.000
G1 X0.477 Y0.564 Z-5.000 F400.000
G1 X0.358 Y0.646 Z-5.000 F400.000
G1 X0.225 Y0.703 Z-5.000 F400.000
G1 X0.084 Y0.734 Z-5.000 F400.000
G1 X-0.061 Y0.736 Z-5.000 F400.000
G1 X-0.204 Y0.710 Z-5.000 F400.000
G1 X-0.338 Y0.657 Z-5.000 F400.000
G1 X-0.460 Y0.578 Z-5.000 F400.000
G1 X-0.564 Y0.477 Z-5.000 F400.000
G1 X-0.646 Y0.358 Z-5.000 F400.000
G1 X-0.703 Y0.225 Z-5.000 F400.000
G1 X-0.734 Y0.084 Z-5.000 F400.000
G1 X-0.736 Y-0.061 Z-5.000 F400.000
G1 X-0.710 Y-0.204 Z-5.000 F400.000
G1 X-0.657 Y-0.338 Z-5.000 F400.000
G1 X-0.578 Y-0.460 Z-5.000 F400.000
G1 X-0.477 Y-0.564 Z-5.000 F400.000
G1 X-0.358 Y-0.646 Z-5.000 F400.000
G1 X-0.225 Y-0.703 Z-5.000 F400.000
(Adaptive - depth: -5.000000)
G1 X0.000 Y-0.749 F400.000
G1 X0.024 Y-0.764 F400.000
G1 X0.081 Y-0.777 F400.000
G1 X0.193 Y-0.777 F400.000
G1 X0.334 Y-0.743 F400.000
G1 X0.388 Y-0.720 F400.000
G1 X0.591 Y-0.593 F400.000
G1 X0.685 Y-0.490 F400.000
G1 X0.726 Y-0.428 F400.000
G1 X0.762 Y-0.360 F400.000
G1 X0.801 Y-0.265 F400.000
G1 X0.835 Y-0.133 F400.000
G1 X0.846 Y-0.006 F400.000
G1 X0.842 Y0.096 F400.000
G1 X0.826 Y0.197 F400.000
G1 X0.794 Y0.300 F400.000
G1 X0.745 Y0.405 F400.000
G1 X0.683 Y0.505 F400.000
G1 X0.610 Y0.593 F400.000
G1 X0.522 Y0.670 F400.000
G1 X0.437 Y0.728 F400.000
G1 X0.338 Y0.779 F400.000
G1 X0.227 Y0.818 F400.000
G1 X0.113 Y0.842 F400.000
G1 X0.000 Y0.850 F400.000
G1 X-0.101 Y0.844 F400.000
G1 X-0.210 Y0.824 F400.000
G1 X-0.323 Y0.788 F400.000
G1 X-0.430 Y0.737 F400.000
G1 X-0.525 Y0.672 F400.000
G1 X-0.604 Y0.602 F400.000
G1 X-0.677 Y0.518 F400.000
G1 X-0.737 Y0.424 F400.000
G1 X-0.784 Y0.326 F400.000
G1 X-0.820 Y0.221 F400.000
G1 X-0.842 Y0.105 F400.000
G1 X-0.850 Y-0.006 F400.000
G1 X-0.842 Y-0.118 F400.000
G1 X-0.820 Y-0.229 F400.000
G1 X-0.782 Y-0.336 F400.000
G1 X-0.732 Y-0.437 F400.000
G1 X-0.666 Y-0.531 F400.000
G1 X-0.595 Y-0.610 F400.000
G1 X-0.510 Y-0.681 F400.000
G1 X-0.418 Y-0.741 F400.000
G1 X-0.285 Y-0.807 F400.000
G1 X-0.075 Y-0.859 F400.000
G1 X0.126 Y-0.872 F400.000
G1 X0.266 Y-0.854 F400.000
G1 X0.379 Y-0.820 F400.000
G1 X0.595 Y-0.715 F400.000
G1 X0.705 Y-0.617 F400.000
G1 X0.756 Y-0.559 F400.000
G1 X0.803 Y-0.492 F400.000
G1 X0.854 Y-0.402 F400.000
G1 X0.908 Y-0.270 F400.000
G1 X0.942 Y-0.139 F400.000
G1 X0.953 Y-0.023 F400.000
G1 X0.951 Y0.079 F400.000
G1 X0.936 Y0.193 F400.000
G1 X0.906 Y0.311 F400.000
G1 X0.861 Y0.426 F400.000
G1 X0.801 Y0.529 F400.000
G1 X0.735 Y0.615 F400.000
G1 X0.655 Y0.700 F400.000
G1 X0.559 Y0.779 F400.000
G1 X0.454 Y0.844 F400.000
G1 X0.343 Y0.897 F400.000
G1 X0.223 Y0.932 F400.000
G1 X0.118 Y0.951 F400.000
G1 X0.002 Y0.959 F400.000
G1 X-0.120 Y0.953 F400.000
G1 X-0.251 Y0.931 F400.000
G1 X-0.368 Y0.891 F400.000
G1 X-0.465 Y0.844 F400.000
G1 X-0.561 Y0.784 F400.000
G1 X-0.657 Y0.705 F400.000
G1 X-0.741 Y0.617 F400.000
G1 X-0.811 Y0.518 F400.000
G1 X-0.863 Y0.422 F400.000
G1 X-0.906 Y0.313 F400.000
G1 X-0.940 Y0.191 F400.000
G1 X-0.959 Y0.062 F400.000
G1 X-0.959 Y-0.060 F400.000
G1 X-0.946 Y-0.167 F400.000
G1 X-0.917 Y-0.283 F400.000
G1 X-0.874 Y-0.400 F400.000
G1 X-0.818 Y-0.508 F400.000
G1 X-0.745 Y-0.608 F400.000
G1 X-0.672 Y-0.687 F400.000
G1 X-0.583 Y-0.765 F400.000
G1 X-0.477 Y-0.839 F400.000
G1 X-0.364 Y-0.897 F400.000
G1 X-0.248 Y-0.940 F400.000
G1 X-0.008 Y-0.970 F400.000
G1 X0.189 Y-0.968 F400.000
G1 X0.330 Y-0.944 F400.000
G1 X0.555 Y-0.865 F400.000
G1 X0.696 Y-0.771 F400.000
G1 X0.758 Y-0.717 F400.000
G1 X0.880 Y-0.570 F400.000
G1 X0.964 Y-0.430 F400.000
G1 X1.021 Y-0.298 F400.000
G1 X1.051 Y-0.182 F400.000
G1 X1.066 Y-0.079 F400.000
G1 X1.069 Y0.039 F400.000
G1 X1.060 Y0.165 F400.000
G1 X1.034 Y0.304 F400.000
G1 X0.991 Y0.426 F400.000
G1 X0.940 Y0.529 F400.000
G1 X0.876 Y0.629 F400.000
G1 X0.801 Y0.722 F400.000
G1 X0.707 Y0.814 F400.000
G1 X0.600 Y0.895 F400.000
G1 X0.492 Y0.961 F400.000
G1 X0.371 Y1.013 F400.000
G1 X0.255 Y1.049 F400.000
G1 X0.129 Y1.071 F400.000
G1 X0.004 Y1.079 F400.000
G1 X-0.120 Y1.073 F400.000
G1 X-0.251 Y1.051 F400.000
G1 X-0.373 Y1.015 F400.000
G1 X-0.492 Y0.964 F400.000
G1 X-0.597 Y0.904 F400.000
G1 X-0.698 Y0.829 F400.000
G1 X-0.788 Y0.743 F400.000
G1 X-0.867 Y0.647 F400.000
G1 X-0.934 Y0.542 F400.000
G1 X-0.991 Y0.430 F400.000
G1 X-1.034 Y0.311 F400.000
G1 X-1.064 Y0.180 F400.000
G1 X-1.079 Y0.053 F400.000
G1 X-1.079 Y-0.075 F400.000
G1 X-1.064 Y-0.205 F400.000
G1 X-1.032 Y-0.328 F400.000
G1 X-0.991 Y-0.437 F400.000
G1 X-0.932 Y-0.548 F400.000
G1 X-0.863 Y-0.651 F400.000
G1 X-0.779 Y-0.750 F400.000
G1 X-0.681 Y-0.841 F400.000
G1 X-0.576 Y-0.917 F400.000
G1 X-0.462 Y-0.983 F400.000
G1 X-0.340 Y-1.034 F400.000
G1 X-0.223 Y-1.068 F400.000
G1 X-0.098 Y-1.090 F400.000
G1 X0.161 Y-1.088 F400.000
G1 X0.398 Y-1.054 F400.000
G1 X0.604 Y-0.974 F400.000
G1 X0.750 Y-0.876 F400.000
G1 X0.839 Y-0.799 F400.000
G1 X0.940 Y-0.689 F400.000
G1 X1.030 Y-0.567 F400.000
G1 X1.096 Y-0.443 F400.000
G1 X1.137 Y-0.336 F400.000
G1 X1.167 Y-0.223 F400.000
G1 X1.188 Y-0.101 F400.000
G1 X1.195 Y0.041 F400.000
G1 X1.186 Y0.182 F400.000
G1 X1.159 Y0.313 F400.000
G1 X1.124 Y0.430 F400.000
G1 X1.069 Y0.552 F400.000
G1 X1.004 Y0.662 F400.000
G1 X0.929 Y0.765 F400.000
G1 X0.835 Y0.869 F400.000
G1 X0.730 Y0.961 F400.000
G1 X0.619 Y1.038 F400.000
G1 X0.495 Y1.101 F400.000
G1 X0.379 Y1.146 F400.000
G1 X0.250 Y1.182 F400.000
G1 X0.118 Y1.201 F400.000
G1 X-0.009 Y1.208 F400.000
G1 X-0.148 Y1.199 F400.000
G1 X-0.280 Y1.176 F400.000
G1 X-0.418 Y1.137 F400.000
G1 X-0.546 Y1.084 F400.000
G1 X-0.666 Y1.015 F400.000
G1 X-0.762 Y0.942 F400.000
G1 X-0.846 Y0.865 F400.000
G1 X-0.934 Y0.765 F400.000
G1 X-1.019 Y0.647 F400.000
G1 X-1.090 Y0.520 F400.000
G1 X-1.144 Y0.388 F400.000
G1 X-1.182 Y0.263 F400.000
G1 X-1.206 Y0.126 F400.000
G1 X-1.214 Y-0.009 F400.000
G1 X-1.206 Y-0.131 F400.000
G1 X-1.184 Y-0.253 F400.000
G1 X-1.150 Y-0.375 F400.000
G1 X-1.094 Y-0.514 F400.000
G1 X-1.026 Y-0.640 F400.000
G1 X-0.946 Y-0.752 F400.000
G1 X-0.863 Y-0.846 F400.000
G1 X-0.764 Y-0.938 F400.000
G1 X-0.649 Y-1.021 F400.000
G1 X-0.535 Y-1.088 F400.000
G1 X-0.403 Y-1.148 F400.000
G1 X-0.270 Y-1.188 F400.000
G1 X-0.146 Y-1.212 F400.000
G1 X-0.009 Y-1.227 F400.000
G1 X0.139 Y-1.229 F400.000
G1 X0.291 Y-1.214 F400.000
G1 X0.433 Y-1.182 F400.000
G1 X0.561 Y-1.137 F400.000
G1 X0.674 Y-1.083 F400.000
G1 X0.788 Y-1.011 F400.000
G1 X0.891 Y-0.931 F400.000
G1 X0.992 Y-0.833 F400.000
G1 X1.079 Y-0.728 F400.000
G1 X1.154 Y-0.615 F400.000
G1 X1.216 Y-0.493 F400.000
G1 X1.265 Y-0.364 F400.000
G1 X1.298 Y-0.231 F400.000
G1 X1.319 Y-0.094 F400.000
G1 X1.325 Y0.041 F400.000
G1 X1.317 Y0.176 F400.000
G1 X1.293 Y0.319 F400.000
G1 X1.255 Y0.452 F400.000
G1 X1.203 Y0.582 F400.000
G1 X1.135 Y0.707 F400.000
G1 X1.056 Y0.824 F400.000
G1 X0.966 Y0.931 F400.000
G1 X0.865 Y1.028 F400.000
G1 X0.754 Y1.114 F400.000
G1 X0.634 Y1.188 F400.000
G1 X0.505 Y1.246 F400.000
G1 X0.383 Y1.287 F400.000
G1 X0.250 Y1.319 F400.000
G1 X0.105 Y1.338 F400.000
G1 X-0.039 Y1.341 F400.000
G1 X-0.180 Y1.330 F400.000
G1 X-0.321 Y1.306 F400.000
G1 X-0.467 Y1.263 F400.000
G1 X-0.600 Y1.205 F400.000
G1 X-0.711 Y1.143 F400.000
G1 X-0.826 Y1.062 F400.000
G1 X-0.929 Y0.972 F400.000
G1 X-1.026 Y0.867 F400.000
G1 X-1.111 Y0.754 F400.000
G1 X-1.184 Y0.632 F400.000
G1 X-1.246 Y0.503 F400.000
G1 X-1.296 Y0.360 F400.000
G1 X-1.330 Y0.220 F400.000
G1 X-1.345 Y0.073 F400.000
G1 X-1.347 Y-0.053 F400.000
G1 X-1.334 Y-0.189 F400.000
G1 X-1.308 Y-0.323 F400.000
G1 X-1.265 Y-0.462 F400.000
G1 X-1.206 Y-0.597 F400.000
G1 X-1.137 Y-0.722 F400.000
G1 X-1.053 Y-0.841 F400.000
G1 X-0.962 Y-0.944 F400.000
G1 X-0.857 Y-1.041 F400.000
G1 X-0.743 Y-1.126 F400.000
G1 X-0.621 Y-1.197 F400.000
G1 X-0.493 Y-1.257 F400.000
G1 X-0.349 Y-1.308 F400.000
G1 X-0.208 Y-1.343 F400.000
G1 X-0.054 Y-1.366 F400.000
G1 X0.094 Y-1.371 F400.000
G1 X0.242 Y-1.364 F400.000
G1 X0.390 Y-1.338 F400.000
G1 X0.523 Y-1.300 F400.000
G1 X0.653 Y-1.250 F400.000
G1 X0.779 Y-1.182 F400.000
G1 X0.895 Y-1.103 F400.000
G1 X1.004 Y-1.015 F400.000
G1 X1.111 Y-0.906 F400.000
G1 X1.201 Y-0.794 F400.000
G1 X1.281 Y-0.670 F400.000
G1 X1.347 Y-0.538 F400.000
G1 X1.400 Y-0.402 F400.000
G1 X1.435 Y-0.259 F400.000
G1 X1.454 Y-0.131 F400.000
G1 X1.463 Y0.006 F400.000
G1 X1.458 Y0.169 F400.000
G1 X1.437 Y0.323 F400.000
G1 X1.400 Y0.469 F400.000
G1 X1.355 Y0.595 F400.000
G1 X1.291 Y0.728 F400.000
G1 X1.214 Y0.850 F400.000
G1 X1.128 Y0.964 F400.000
G1 X1.023 Y1.077 F400.000
G1 X0.912 Y1.173 F400.000
G1 X0.790 Y1.259 F400.000
G1 X0.659 Y1.332 F400.000
G1 X0.522 Y1.392 F400.000
G1 X0.381 Y1.437 F400.000
G1 X0.235 Y1.469 F400.000
G1 X0.086 Y1.486 F400.000
G1 X-0.060 Y1.488 F400.000
G1 X-0.206 Y1.475 F400.000
G1 X-0.351 Y1.447 F400.000
G1 X-0.493 Y1.407 F400.000
G1 X-0.642 Y1.347 F400.000
G1 X-0.775 Y1.274 F400.000
G1 X-0.886 Y1.199 F400.000
G1 X-0.998 Y1.103 F400.000
G1 X-1.099 Y1.000 F400.000
G1 X-1.197 Y0.878 F400.000
G1 X-1.278 Y0.754 F400.000
G1 X-1.349 Y0.623 F400.000
G1 X-1.413 Y0.469 F400.000
G1 X-1.454 Y0.321 F400.000
G1 X-1.480 Y0.182 F400.000
G1 X-1.492 Y0.030 F400.000
G1 X-1.488 Y-0.107 F400.000
G1 X-1.469 Y-0.248 F400.000
G1 X-1.437 Y-0.388 F400.000
G1 X-1.388 Y-0.538 F400.000
G1 X-1.325 Y-0.685 F400.000
G1 X-1.248 Y-0.818 F400.000
G1 X-1.165 Y-0.934 F400.000
G1 X-1.066 Y-1.049 F400.000
G1 X-0.957 Y-1.150 F400.000
G1 X-0.841 Y-1.238 F400.000
G1 X-0.713 Y-1.315 F400.000
G1 X-0.580 Y-1.381 F400.000
G1 X-0.430 Y-1.437 F400.000
G1 X-0.283 Y-1.478 F400.000
G1 X-0.122 Y-1.508 F400.000
G1 X0.034 Y-1.522 F400.000
G1 X0.189 Y-1.520 F400.000
G1 X0.347 Y-1.499 F400.000
G1 X0.480 Y-1.469 F400.000
G1 X0.623 Y-1.422 F400.000
G1 X0.758 Y-1.360 F400.000
G1 X0.884 Y-1.289 F400.000
G1 X1.013 Y-1.197 F400.000
G1 X1.128 Y-1.099 F400.000
G1 X1.240 Y-0.983 F400.000
G1 X1.338 Y-0.859 F400.000
G1 X1.418 Y-0.726 F400.000
G1 X1.478 Y-0.604 F400.000
G1 X1.531 Y-0.465 F400.000
G1 X1.570 Y-0.323 F400.000
G1 X1.598 Y-0.163 F400.000
G1 X1.612 Y0.000 F400.000
G1 X1.610 Y0.154 F400.000
G1 X1.593 Y0.311 F400.000
G1 X1.557 Y0.467 F400.000
G1 X1.514 Y0.602 F400.000
G1 X1.452 Y0.743 F400.000
G1 X1.377 Y0.874 F400.000
G1 X1.293 Y0.996 F400.000
G1 X1.195 Y1.113 F400.000
G1 X1.079 Y1.227 F400.000
G1 X0.959 Y1.323 F400.000
G1 X0.829 Y1.409 F400.000
G1 X0.690 Y1.482 F400.000
G1 X0.546 Y1.542 F400.000
G1 X0.396 Y1.589 F400.000
G1 X0.242 Y1.621 F400.000
G1 X0.086 Y1.638 F400.000
G1 X-0.068 Y1.640 F400.000
G1 X-0.221 Y1.627 F400.000
G1 X-0.373 Y1.598 F400.000
G1 X-0.523 Y1.557 F400.000
G1 X-0.668 Y1.501 F400.000
G1 X-0.807 Y1.432 F400.000
G1 X-0.938 Y1.349 F400.000
G1 X-1.062 Y1.253 F400.000
G1 X-1.174 Y1.144 F400.000
G1 X-1.268 Y1.036 F400.000
G1 X-1.358 Y0.912 F400.000
G1 X-1.443 Y0.769 F400.000
G1 X-1.516 Y0.617 F400.000
G1 X-1.572 Y0.465 F400.000
G1 X-1.614 Y0.304 F400.000
G1 X-1.632 Y0.154 F400.000
G1 X-1.638 Y0.026 F400.000
G1 X-1.634 Y-0.118 F400.000
G1 X-1.612 Y-0.300 F400.000
G1 X-1.574 Y-0.469 F400.000
G1 X-1.520 Y-0.627 F400.000
G1 X-1.462 Y-0.754 F400.000
G1 X-1.388 Y-0.880 F400.000
G1 X-1.302 Y-1.002 F400.000
G1 X-1.191 Y-1.131 F400.000
G1 X-1.073 Y-1.246 F400.000
G1 X-0.946 Y-1.345 F400.000
G1 X-0.822 Y-1.426 F400.000
G1 X-0.683 Y-1.501 F400.000
G1 X-0.529 Y-1.565 F400.000
G1 X-0.379 Y-1.614 F400.000
G1 X-0.210 Y-1.651 F400.000
G1 X-0.045 Y-1.672 F400.000
G1 X0.118 Y-1.675 F400.000
G1 X0.270 Y-1.666 F400.000
G1 X0.430 Y-1.642 F400.000
G1 X0.583 Y-1.602 F400.000
G1 X0.730 Y-1.546 F400.000
G1 X0.856 Y-1.484 F400.000
G1 X0.987 Y-1.407 F400.000
G1 X1.131 Y-1.302 F400.000
G1 X1.257 Y-1.189 F400.000
G1 X1.362 Y-1.077 F400.000
G1 X1.454 Y-0.957 F400.000
G1 X1.538 Y-0.824 F400.000
G1 X1.614 Y-0.675 F400.000
G1 X1.672 Y-0.529 F400.000
G1 X1.717 Y-0.375 F400.000
G1 X1.747 Y-0.216 F400.000
G1 X1.764 Y-0.056 F400.000
G1 X1.765 Y0.114 F400.000
G1 X1.752 Y0.276 F400.000
G1 X1.726 Y0.437 F400.000
G1 X1.679 Y0.597 F400.000
G1 X1.629 Y0.732 F400.000
G1 X1.559 Y0.872 F400.000
G1 X1.477 Y1.004 F400.000
G1 X1.379 Y1.135 F400.000
G1 X1.266 Y1.261 F400.000
G1 X1.148 Y1.370 F400.000
G1 X1.021 Y1.467 F400.000
G1 X0.884 Y1.555 F400.000
G1 X0.726 Y1.636 F400.000
G1 X0.572 Y1.700 F400.000
G1 X0.411 Y1.749 F400.000
G1 X0.257 Y1.779 F400.000
G1 X0.105 Y1.795 F400.000
G1 X-0.053 Y1.797 F400.000
G1 X-0.206 Y1.786 F400.000
G1 X-0.370 Y1.760 F400.000
G1 X-0.537 Y1.717 F400.000
G1 X-0.692 Y1.660 F400.000
G1 X-0.844 Y1.589 F400.000
G1 X-0.989 Y1.503 F400.000
G1 X-1.114 Y1.413 F400.000
G1 X-1.238 Y1.306 F400.000
G1 X-1.351 Y1.188 F400.000
G1 X-1.452 Y1.062 F400.000
G1 X-1.542 Y0.925 F400.000
G1 X-1.617 Y0.782 F400.000
G1 X-1.679 Y0.632 F400.000
G1 X-1.728 Y0.478 F400.000
G1 X-1.765 Y0.321 F400.000
G1 X-1.790 Y0.143 F400.000
G1 X-1.797 Y-0.023 F400.000
G1 X-1.788 Y-0.189 F400.000
G1 X-1.765 Y-0.347 F400.000
G1 X-1.728 Y-0.507 F400.000
G1 X-1.675 Y-0.660 F400.000
G1 X-1.610 Y-0.809 F400.000
G1 X-1.531 Y-0.951 F400.000
G1 X-1.439 Y-1.086 F400.000
G1 X-1.336 Y-1.212 F400.000
G1 X-1.221 Y-1.328 F400.000
G1 X-1.096 Y-1.433 F400.000
G1 X-0.961 Y-1.527 F400.000
G1 X-0.820 Y-1.610 F400.000
G1 X-0.659 Y-1.687 F400.000
G1 X-0.490 Y-1.750 F400.000
G1 X-0.321 Y-1.795 F400.000
G1 X-0.165 Y-1.824 F400.000
G1 X0.004 Y-1.839 F400.000
G1 X0.169 Y-1.837 F400.000
G1 X0.332 Y-1.822 F400.000
G1 X0.495 Y-1.792 F400.000
G1 X0.655 Y-1.747 F400.000
G1 X0.811 Y-1.687 F400.000
G1 X0.961 Y-1.614 F400.000
G1 X1.103 Y-1.527 F400.000
G1 X1.238 Y-1.428 F400.000
G1 X1.364 Y-1.317 F400.000
G1 X1.478 Y-1.195 F400.000
G1 X1.582 Y-1.064 F400.000
G1 X1.672 Y-0.923 F400.000
G1 X1.743 Y-0.786 F400.000
G1 X1.805 Y-0.634 F400.000
G1 X1.854 Y-0.480 F400.000
G1 X1.895 Y-0.306 F400.000
G1 X1.921 Y-0.122 F400.000
G1 X1.932 Y0.051 F400.000
G1 X1.923 Y0.227 F400.000
G1 X1.904 Y0.379 F400.000
G1 X1.869 Y0.540 F400.000
G1 X1.818 Y0.696 F400.000
G1 X1.754 Y0.844 F400.000
G1 X1.677 Y0.991 F400.000
G1 X1.582 Y1.139 F400.000
G1 X1.478 Y1.270 F400.000
G1 X1.362 Y1.396 F400.000
G1 X1.235 Y1.510 F400.000
G1 X1.099 Y1.612 F400.000
G1 X0.955 Y1.702 F400.000
G1 X0.803 Y1.779 F400.000
G1 X0.645 Y1.844 F400.000
G1 X0.469 Y1.899 F400.000
G1 X0.298 Y1.936 F400.000
G1 X0.122 Y1.957 F400.000
G1 X-0.030 Y1.962 F400.000
G1 X-0.195 Y1.953 F400.000
G1 X-0.358 Y1.931 F400.000
G1 X-0.529 Y1.893 F400.000
G1 X-0.702 Y1.837 F400.000
G1 X-0.861 Y1.765 F400.000
G1 X-0.992 Y1.694 F400.000
G1 X-1.131 Y1.602 F400.000
G1 X-1.270 Y1.493 F400.000
G1 X-1.403 Y1.370 F400.000
G1 X-1.522 Y1.238 F400.000
G1 X-1.627 Y1.094 F400.000
G1 X-1.709 Y0.959 F400.000
G1 X-1.786 Y0.805 F400.000
G1 X-1.848 Y0.647 F400.000
G1 X-1.895 Y0.488 F400.000
G1 X-1.931 Y0.325 F400.000
G1 X-1.953 Y0.135 F400.000
G1 X-1.959 Y-0.036 F400.000
G1 X-1.951 Y-0.210 F400.000
G1 X-1.927 Y-0.386 F400.000
G1 X-1.886 Y-0.557 F400.000
G1 X-1.837 Y-0.705 F400.000
G1 X-1.769 Y-0.859 F400.000
G1 X-1.689 Y-1.006 F400.000
G1 X-1.600 Y-1.143 F400.000
G1 X-1.490 Y-1.285 F400.000
G1 X-1.366 Y-1.418 F400.000
G1 X-1.233 Y-1.533 F400.000
G1 X-1.114 Y-1.623 F400.000
G1 X-0.964 Y-1.720 F400.000
G1 X-0.792 Y-1.811 F400.000
G1 X-0.621 Y-1.884 F400.000
G1 X-0.443 Y-1.940 F400.000
G1 X-0.281 Y-1.977 F400.000
G1 X-0.103 Y-2.000 F400.000
G1 X0.056 Y-2.008 F400.000
G1 X0.223 Y-2.000 F400.000
G1 X0.390 Y-1.981 F400.000
G1 X0.576 Y-1.946 F400.000
G1 X0.756 Y-1.891 F400.000
G1 X0.908 Y-1.829 F400.000
G1 X1.049 Y-1.758 F400.000
G1 X1.193 Y-1.668 F400.000
G1 X1.334 Y-1.563 F400.000
G1 X1.469 Y-1.443 F400.000
G1 X1.589 Y-1.317 F400.000
G1 X1.700 Y-1.180 F400.000
G1 X1.799 Y-1.032 F400.000
G1 X1.886 Y-0.878 F400.000
G1 X1.955 Y-0.715 F400.000
G1 X2.006 Y-0.563 F400.000
G1 X2.049 Y-0.398 F400.000
G1 X2.081 Y-0.216 F400.000
G1 X2.098 Y-0.026 F400.000
G1 X2.099 Y0.152 F400.000
G1 X2.083 Y0.334 F400.000
G1 X2.054 Y0.492 F400.000
G1 X2.009 Y0.660 F400.000
G1 X1.949 Y0.822 F400.000
G1 X1.878 Y0.974 F400.000
G1 X1.792 Y1.124 F400.000
G1 X1.696 Y1.266 F400.000
G1 X1.576 Y1.413 F400.000
G1 X1.452 Y1.540 F400.000
G1 X1.317 Y1.660 F400.000
G1 X1.171 Y1.769 F400.000
G1 X1.017 Y1.865 F400.000
G1 X0.856 Y1.947 F400.000
G1 X0.687 Y2.013 F400.000
G1 X0.529 Y2.062 F400.000
G1 X0.358 Y2.099 F400.000
G1 X0.184 Y2.120 F400.000
G1 X0.013 Y2.128 F400.000
G1 X-0.158 Y2.124 F400.000
G1 X-0.353 Y2.103 F400.000
G1 X-0.542 Y2.066 F400.000
G1 X-0.720 Y2.011 F400.000
G1 X-0.869 Y1.951 F400.000
G1 X-1.011 Y1.878 F400.000
G1 X-1.156 Y1.790 F400.000
G1 X-1.308 Y1.683 F400.000
G1 X-1.460 Y1.553 F400.000
G1 X-1.587 Y1.422 F400.000
G1 X-1.698 Y1.291 F400.000
G1 X-1.803 Y1.141 F400.000
G1 X-1.889 Y0.985 F400.000
G1 X-1.957 Y0.839 F400.000
G1 X-2.017 Y0.674 F400.000
G1 X-2.064 Y0.508 F400.000
G1 X-2.103 Y0.319 F400.000
G1 X-2.126 Y0.120 F400.000
G1 X-2.133 Y-0.066 F400.000
G1 X-2.120 Y-0.257 F400.000
G1 X-2.098 Y-0.415 F400.000
G1 X-2.058 Y-0.587 F400.000
G1 X-2.004 Y-0.754 F400.000
G1 X-1.938 Y-0.912 F400.000
G1 X-1.857 Y-1.066 F400.000
G1 X-1.764 Y-1.212 F400.000
G1 X-1.659 Y-1.349 F400.000
G1 X-1.542 Y-1.478 F400.000
G1 X-1.403 Y-1.612 F400.000
G1 X-1.253 Y-1.734 F400.000
G1 X-1.101 Y-1.839 F400.000
G1 X-0.938 Y-1.934 F400.000
G1 X-0.767 Y-2.017 F400.000
G1 X-0.591 Y-2.081 F400.000
G1 X-0.433 Y-2.126 F400.000
G1 X-0.255 Y-2.159 F400.000
G1 X-0.079 Y-2.176 F400.000
G1 X0.092 Y-2.180 F400.000
G1 X0.266 Y-2.173 F400.000
G1 X0.467 Y-2.144 F400.000
G1 X0.645 Y-2.105 F400.000
G1 X0.824 Y-2.051 F400.000
G1 X1.000 Y-1.976 F400.000
G1 X1.143 Y-1.902 F400.000
G1 X1.293 Y-1.809 F400.000
G1 X1.433 Y-1.704 F400.000
G1 X1.572 Y-1.583 F400.000
G1 X1.707 Y-1.445 F400.000
G1 X1.826 Y-1.304 F400.000
G1 X1.932 Y-1.148 F400.000
G1 X2.017 Y-0.998 F400.000
G1 X2.086 Y-0.846 F400.000
G1 X2.148 Y-0.683 F400.000
G1 X2.205 Y-0.493 F400.000
G1 X2.246 Y-0.296 F400.000
G1 X2.270 Y-0.107 F400.000
G1 X2.276 Y0.086 F400.000
G1 X2.268 Y0.255 F400.000
G1 X2.244 Y0.439 F400.000
G1 X2.208 Y0.602 F400.000
G1 X2.156 Y0.767 F400.000
G1 X2.090 Y0.931 F400.000
G1 X2.009 Y1.098 F400.000
G1 X1.908 Y1.266 F400.000
G1 X1.801 Y1.418 F400.000
G1 X1.681 Y1.565 F400.000
G1 X1.548 Y1.702 F400.000
G1 X1.403 Y1.824 F400.000
G1 X1.268 Y1.921 F400.000
G1 X1.113 Y2.015 F400.000
G1 X0.951 Y2.094 F400.000
G1 X0.788 Y2.161 F400.000
G1 X0.595 Y2.223 F400.000
G1 X0.400 Y2.268 F400.000
G1 X0.210 Y2.295 F400.000
G1 X0.041 Y2.306 F400.000
G1 X-0.143 Y2.302 F400.000
G1 X-0.323 Y2.285 F400.000
G1 X-0.510 Y2.251 F400.000
G1 X-0.689 Y2.205 F400.000
G1 X-0.863 Y2.143 F400.000
G1 X-1.034 Y2.068 F400.000
G1 X-1.199 Y1.977 F400.000
G1 X-1.355 Y1.872 F400.000
G1 X-1.486 Y1.769 F400.000
G1 X-1.619 Y1.647 F400.000
G1 X-1.750 Y1.507 F400.000
G1 X-1.874 Y1.351 F400.000
G1 X-1.977 Y1.191 F400.000
G1 X-2.058 Y1.045 F400.000
G1 X-2.133 Y0.876 F400.000
G1 X-2.193 Y0.705 F400.000
G1 X-2.244 Y0.518 F400.000
G1 X-2.280 Y0.334 F400.000
G1 X-2.302 Y0.131 F400.000
G1 X-2.310 Y-0.060 F400.000
G1 X-2.302 Y-0.251 F400.000
G1 X-2.274 Y-0.445 F400.000
G1 X-2.238 Y-0.606 F400.000
G1 X-2.184 Y-0.780 F400.000
G1 X-2.116 Y-0.947 F400.000
G1 X-2.038 Y-1.105 F400.000
G1 X-1.944 Y-1.259 F400.000
G1 X-1.841 Y-1.403 F400.000
G1 X-1.717 Y-1.552 F400.000
G1 X-1.576 Y-1.694 F400.000
G1 X-1.432 Y-1.820 F400.000
G1 X-1.276 Y-1.936 F400.000
G1 X-1.111 Y-2.041 F400.000
G1 X-0.940 Y-2.131 F400.000
G1 X-0.760 Y-2.210 F400.000
G1 X-0.574 Y-2.272 F400.000
G1 X-0.403 Y-2.315 F400.000
G1 X-0.218 Y-2.345 F400.000
G1 X-0.032 Y-2.360 F400.000
G1 X0.148 Y-2.360 F400.000
G1 X0.332 Y-2.349 F400.000
G1 X0.531 Y-2.319 F400.000
G1 X0.715 Y-2.276 F400.000
G1 X0.897 Y-2.214 F400.000
G1 X1.054 Y-2.148 F400.000
G1 X1.218 Y-2.064 F400.000
G1 X1.371 Y-1.968 F400.000
G1 X1.527 Y-1.856 F400.000
G1 X1.683 Y-1.722 F400.000
G1 X1.818 Y-1.587 F400.000
G1 X1.946 Y-1.439 F400.000
G1 X2.060 Y-1.278 F400.000
G1 X2.152 Y-1.128 F400.000
G1 X2.238 Y-0.959 F400.000
G1 X2.310 Y-0.784 F400.000
G1 X2.366 Y-0.608 F400.000
G1 X2.409 Y-0.424 F400.000
G1 X2.437 Y-0.240 F400.000
G1 X2.450 Y-0.054 F400.000
G1 X2.452 Y0.131 F400.000
G1 X2.435 Y0.343 F400.000
G1 X2.405 Y0.535 F400.000
G1 X2.358 Y0.724 F400.000
G1 X2.304 Y0.889 F400.000
G1 X2.231 Y1.062 F400.000
G1 X2.144 Y1.225 F400.000
G1 X2.049 Y1.381 F400.000
G1 X1.931 Y1.546 F400.000
G1 X1.797 Y1.704 F400.000
G1 X1.660 Y1.844 F400.000
G1 X1.505 Y1.974 F400.000
G1 X1.370 Y2.071 F400.000
G1 X1.208 Y2.169 F400.000
G1 X1.043 Y2.251 F400.000
G1 X0.863 Y2.328 F400.000
G1 X0.666 Y2.394 F400.000
G1 X0.477 Y2.441 F400.000
G1 X0.280 Y2.475 F400.000
G1 X0.081 Y2.490 F400.000
G1 X-0.092 Y2.492 F400.000
G1 X-0.280 Y2.478 F400.000
G1 X-0.463 Y2.448 F400.000
G1 X-0.642 Y2.409 F400.000
G1 X-0.842 Y2.349 F400.000
G1 X-1.038 Y2.266 F400.000
G1 X-1.186 Y2.193 F400.000
G1 X-1.351 Y2.094 F400.000
G1 X-1.507 Y1.985 F400.000
G1 X-1.668 Y1.852 F400.000
G1 X-1.811 Y1.715 F400.000
G1 X-1.940 Y1.567 F400.000
G1 X-2.049 Y1.420 F400.000
G1 X-2.152 Y1.259 F400.000
G1 X-2.242 Y1.090 F400.000
G1 X-2.317 Y0.917 F400.000
G1 X-2.379 Y0.737 F400.000
G1 X-2.426 Y0.553 F400.000
G1 X-2.462 Y0.366 F400.000
G1 X-2.488 Y0.150 F400.000
G1 X-2.497 Y-0.064 F400.000
G1 X-2.484 Y-0.268 F400.000
G1 X-2.463 Y-0.432 F400.000
G1 X-2.424 Y-0.619 F400.000
G1 X-2.370 Y-0.795 F400.000
G1 X-2.304 Y-0.962 F400.000
G1 X-2.225 Y-1.131 F400.000
G1 X-2.126 Y-1.310 F400.000
G1 X-2.009 Y-1.482 F400.000
G1 X-1.886 Y-1.638 F400.000
G1 X-1.758 Y-1.777 F400.000
G1 X-1.614 Y-1.910 F400.000
G1 X-1.460 Y-2.032 F400.000
G1 X-1.300 Y-2.141 F400.000
G1 X-1.131 Y-2.240 F400.000
G1 X-0.942 Y-2.332 F400.000
G1 X-0.756 Y-2.405 F400.000
G1 X-0.565 Y-2.465 F400.000
G1 X-0.364 Y-2.508 F400.000
G1 X-0.182 Y-2.535 F400.000
G1 X0.011 Y-2.548 F400.000
G1 X0.205 Y-2.546 F400.000
G1 X0.394 Y-2.529 F400.000
G1 X0.583 Y-2.497 F400.000
G1 X0.771 Y-2.450 F400.000
G1 X0.953 Y-2.390 F400.000
G1 X1.131 Y-2.315 F400.000
G1 X1.302 Y-2.227 F400.000
G1 X1.467 Y-2.126 F400.000
G1 X1.625 Y-2.013 F400.000
G1 X1.784 Y-1.880 F400.000
G1 X1.925 Y-1.743 F400.000
G1 X2.056 Y-1.595 F400.000
G1 X2.178 Y-1.433 F400.000
G1 X2.287 Y-1.266 F400.000
G1 X2.383 Y-1.090 F400.000
G1 X2.465 Y-0.906 F400.000
G1 X2.529 Y-0.715 F400.000
G1 X2.572 Y-0.550 F400.000
G1 X2.606 Y-0.362 F400.000
G1 X2.627 Y-0.176 F400.000
G1 X2.636 Y0.032 F400.000
G1 X2.629 Y0.242 F400.000
G1 X2.608 Y0.443 F400.000
G1 X2.570 Y0.647 F400.000
G1 X2.514 Y0.844 F400.000
G1 X2.456 Y1.008 F400.000
G1 X2.377 Y1.186 F400.000
G1 X2.285 Y1.353 F400.000
G1 X2.186 Y1.510 F400.000
G1 X2.060 Y1.683 F400.000
G1 X1.917 Y1.848 F400.000
G1 X1.771 Y1.991 F400.000
G1 X1.630 Y2.111 F400.000
G1 X1.465 Y2.229 F400.000
G1 X1.296 Y2.332 F400.000
G1 X1.124 Y2.420 F400.000
G1 X0.942 Y2.497 F400.000
G1 X0.756 Y2.563 F400.000
G1 X0.548 Y2.617 F400.000
G1 X0.347 Y2.655 F400.000
G1 X0.143 Y2.675 F400.000
G1 X-0.039 Y2.681 F400.000
G1 X-0.233 Y2.672 F400.000
G1 X-0.424 Y2.645 F400.000
G1 X-0.612 Y2.610 F400.000
G1 X-0.826 Y2.550 F400.000
G1 X-1.013 Y2.482 F400.000
G1 X-1.199 Y2.398 F400.000
G1 X-1.360 Y2.310 F400.000
G1 X-1.523 Y2.203 F400.000
G1 X-1.677 Y2.086 F400.000
G1 X-1.837 Y1.946 F400.000
G1 X-1.977 Y1.801 F400.000
G1 X-2.107 Y1.647 F400.000
G1 X-2.227 Y1.482 F400.000
G1 X-2.334 Y1.310 F400.000
G1 X-2.428 Y1.129 F400.000
G1 X-2.508 Y0.942 F400.000
G1 X-2.574 Y0.750 F400.000
G1 X-2.627 Y0.553 F400.000
G1 X-2.660 Y0.353 F400.000
G1 X-2.679 Y0.167 F400.000
G1 X-2.685 Y-0.028 F400.000
G1 X-2.677 Y-0.221 F400.000
G1 X-2.651 Y-0.432 F400.000
G1 X-2.612 Y-0.629 F400.000
G1 X-2.559 Y-0.824 F400.000
G1 X-2.492 Y-1.015 F400.000
G1 X-2.407 Y-1.199 F400.000
G1 X-2.321 Y-1.355 F400.000
G1 X-2.214 Y-1.518 F400.000
G1 X-2.099 Y-1.672 F400.000
G1 X-1.955 Y-1.841 F400.000
G1 X-1.795 Y-2.002 F400.000
G1 X-1.634 Y-2.139 F400.000
G1 X-1.478 Y-2.255 F400.000
G1 X-1.300 Y-2.368 F400.000
G1 X-1.120 Y-2.465 F400.000
G1 X-0.934 Y-2.548 F400.000
G1 X-0.739 Y-2.615 F400.000
G1 X-0.555 Y-2.666 F400.000
G1 X-0.360 Y-2.704 F400.000
G1 X-0.163 Y-2.726 F400.000
G1 X0.030 Y-2.735 F400.000
G1 X0.242 Y-2.730 F400.000
G1 X0.443 Y-2.709 F400.000
G1 X0.644 Y-2.675 F400.000
G1 X0.842 Y-2.625 F400.000
G1 X1.036 Y-2.561 F400.000
G1 X1.223 Y-2.482 F400.000
G1 X1.405 Y-2.390 F400.000
G1 X1.580 Y-2.285 F400.000
G1 X1.747 Y-2.167 F400.000
G1 X1.904 Y-2.038 F400.000
G1 X2.049 Y-1.893 F400.000
G1 X2.159 Y-1.767 F400.000
G1 X2.278 Y-1.617 F400.000
G1 X2.405 Y-1.430 F400.000
G1 X2.525 Y-1.221 F400.000
G1 X2.617 Y-1.023 F400.000
G1 X2.681 Y-0.850 F400.000
G1 X2.732 Y-0.674 F400.000
G1 X2.775 Y-0.484 F400.000
G1 X2.809 Y-0.265 F400.000
G1 X2.826 Y-0.045 F400.000
G1 X2.829 Y0.163 F400.000
G1 X2.812 Y0.379 F400.000
G1 X2.786 Y0.565 F400.000
G1 X2.743 Y0.764 F400.000
G1 X2.685 Y0.957 F400.000
G1 X2.614 Y1.143 F400.000
G1 X2.527 Y1.325 F400.000
G1 X2.428 Y1.499 F400.000
G1 X2.315 Y1.666 F400.000
G1 X2.193 Y1.826 F400.000
G1 X2.047 Y1.987 F400.000
G1 X1.899 Y2.129 F400.000
G1 X1.739 Y2.263 F400.000
G1 X1.568 Y2.386 F400.000
G1 X1.390 Y2.495 F400.000
G1 X1.205 Y2.593 F400.000
G1 X1.013 Y2.675 F400.000
G1 X0.816 Y2.745 F400.000
G1 X0.615 Y2.801 F400.000
G1 X0.411 Y2.842 F400.000
G1 X0.203 Y2.865 F400.000
G1 X0.017 Y2.872 F400.000
G1 X-0.182 Y2.865 F400.000
G1 X-0.377 Y2.844 F400.000
G1 X-0.589 Y2.809 F400.000
G1 X-0.805 Y2.756 F400.000
G1 X-1.006 Y2.692 F400.000
G1 X-1.206 Y2.608 F400.000
G1 X-1.373 Y2.523 F400.000
G1 X-1.550 Y2.418 F400.000
G1 X-1.715 Y2.302 F400.000
G1 X-1.869 Y2.176 F400.000
G1 X-2.017 Y2.039 F400.000
G1 X-2.167 Y1.876 F400.000
G1 X-2.296 Y1.715 F400.000
G1 X-2.417 Y1.542 F400.000
G1 X-2.525 Y1.360 F400.000
G1 X-2.629 Y1.158 F400.000
G1 X-2.709 Y0.957 F400.000
G1 X-2.769 Y0.773 F400.000
G1 X-2.814 Y0.585 F400.000
G1 X-2.846 Y0.386 F400.000
G1 X-2.867 Y0.191 F400.000
G1 X-2.874 Y-0.028 F400.000
G1 X-2.865 Y-0.255 F400.000
G1 X-2.842 Y-0.467 F400.000
G1 X-2.799 Y-0.683 F400.000
G1 X-2.752 Y-0.863 F400.000
G1 X-2.681 Y-1.056 F400.000
G1 X-2.606 Y-1.223 F400.000
G1 X-2.518 Y-1.392 F400.000
G1 X-2.402 Y-1.582 F400.000
G1 X-2.270 Y-1.767 F400.000
G1 X-2.124 Y-1.946 F400.000
G1 X-1.983 Y-2.096 F400.000
G1 X-1.820 Y-2.242 F400.000
G1 X-1.668 Y-2.360 F400.000
G1 X-1.497 Y-2.475 F400.000
G1 X-1.321 Y-2.578 F400.000
G1 X-1.116 Y-2.677 F400.000
G1 X-0.919 Y-2.758 F400.000
G1 X-0.715 Y-2.826 F400.000
G1 X-0.503 Y-2.878 F400.000
G1 X-0.291 Y-2.910 F400.000
G1 X-0.109 Y-2.927 F400.000
G1 X0.092 Y-2.931 F400.000
G1 X0.289 Y-2.921 F400.000
G1 X0.518 Y-2.897 F400.000
G1 X0.745 Y-2.856 F400.000
G1 X0.955 Y-2.797 F400.000
G1 X1.133 Y-2.735 F400.000
G1 X1.326 Y-2.653 F400.000
G1 X1.507 Y-2.557 F400.000
G1 X1.677 Y-2.452 F400.000
G1 X1.846 Y-2.332 F400.000
G1 X2.015 Y-2.191 F400.000
G1 X2.165 Y-2.047 F400.000
G1 X2.308 Y-1.889 F400.000
G1 X2.441 Y-1.722 F400.000
G1 X2.570 Y-1.533 F400.000
G1 X2.681 Y-1.345 F400.000
G1 X2.775 Y-1.146 F400.000
G1 X2.844 Y-0.976 F400.000
G1 X2.906 Y-0.779 F400.000
G1 X2.955 Y-0.582 F400.000
G1 X2.992 Y-0.362 F400.000
G1 X3.015 Y-0.152 F400.000
G1 X3.024 Y0.075 F400.000
G1 X3.019 Y0.293 F400.000
G1 X2.994 Y0.510 F400.000
G1 X2.961 Y0.702 F400.000
G1 X2.908 Y0.904 F400.000
G1 X2.841 Y1.101 F400.000
G1 X2.762 Y1.289 F400.000
G1 X2.668 Y1.475 F400.000
G1 X2.561 Y1.651 F400.000
G1 X2.443 Y1.820 F400.000
G1 X2.315 Y1.981 F400.000
G1 X2.158 Y2.150 F400.000
G1 X2.002 Y2.296 F400.000
G1 X1.833 Y2.435 F400.000
G1 X1.653 Y2.563 F400.000
G1 X1.467 Y2.677 F400.000
G1 X1.274 Y2.779 F400.000
G1 X1.075 Y2.867 F400.000
G1 X0.871 Y2.940 F400.000
G1 X0.659 Y2.994 F400.000
G1 X0.473 Y3.030 F400.000
G1 X0.266 Y3.054 F400.000
G1 X0.064 Y3.066 F400.000
G1 X-0.152 Y3.062 F400.000
G1 X-0.360 Y3.043 F400.000
G1 X-0.567 Y3.013 F400.000
G1 X-0.801 Y2.961 F400.000
G1 X-1.011 Y2.899 F400.000
G1 X-1.220 Y2.816 F400.000
G1 X-1.392 Y2.735 F400.000
G1 X-1.576 Y2.634 F400.000
G1 X-1.749 Y2.520 F400.000
G1 X-1.910 Y2.396 F400.000
G1 X-2.066 Y2.261 F400.000
G1 X-2.229 Y2.099 F400.000
G1 X-2.381 Y1.925 F400.000
G1 X-2.516 Y1.750 F400.000
G1 X-2.642 Y1.561 F400.000
G1 X-2.750 Y1.362 F400.000
G1 X-2.831 Y1.189 F400.000
G1 X-2.908 Y0.991 F400.000
G1 X-2.968 Y0.790 F400.000
G1 X-3.013 Y0.591 F400.000
G1 X-3.047 Y0.385 F400.000
G1 X-3.066 Y0.158 F400.000
G1 X-3.069 Y-0.053 F400.000
G1 X-3.062 Y-0.266 F400.000
G1 X-3.036 Y-0.503 F400.000
G1 X-2.992 Y-0.719 F400.000
G1 X-2.940 Y-0.912 F400.000
G1 X-2.876 Y-1.096 F400.000
G1 X-2.795 Y-1.283 F400.000
G1 X-2.696 Y-1.475 F400.000
G1 X-2.591 Y-1.653 F400.000
G1 X-2.456 Y-1.852 F400.000
G1 X-2.308 Y-2.041 F400.000
G1 X-2.150 Y-2.210 F400.000
G1 X-2.009 Y-2.343 F400.000
G1 X-1.841 Y-2.482 F400.000
G1 X-1.666 Y-2.604 F400.000
G1 X-1.488 Y-2.713 F400.000
G1 X-1.298 Y-2.812 F400.000
G1 X-1.088 Y-2.908 F400.000
G1 X-0.867 Y-2.989 F400.000
G1 X-0.647 Y-3.049 F400.000
G1 X-0.458 Y-3.088 F400.000
G1 X-0.244 Y-3.118 F400.000
G1 X-0.004 Y-3.111 F400.000
G1 X0.291 Y-3.109 F400.000
G1 X0.529 Y-3.088 F400.000
G1 X0.765 Y-3.047 F400.000
G1 X0.998 Y-2.989 F400.000
G1 X1.176 Y-2.927 F400.000
G1 X1.345 Y-2.856 F400.000
G1 X1.527 Y-2.765 F400.000
G1 X1.720 Y-2.655 F400.000
G1 X1.917 Y-2.522 F400.000
G1 X2.090 Y-2.386 F400.000
G1 X2.261 Y-2.236 F400.000
G1 X2.418 Y-2.071 F400.000
G1 X2.548 Y-1.917 F400.000
G1 X2.677 Y-1.741 F400.000
G1 X2.790 Y-1.559 F400.000
G1 X2.889 Y-1.373 F400.000
G1 X2.977 Y-1.178 F400.000
G1 X3.051 Y-0.977 F400.000
G1 X3.111 Y-0.773 F400.000
G1 X3.161 Y-0.548 F400.000
G1 X3.197 Y-0.332 F400.000
G1 X3.220 Y-0.092 F400.000
G1 X3.227 Y0.137 F400.000
G1 X3.214 Y0.366 F400.000
G1 X3.191 Y0.563 F400.000
G1 X3.152 Y0.779 F400.000
G1 X3.094 Y0.985 F400.000
G1 X3.032 Y1.161 F400.000
G1 X2.951 Y1.351 F400.000
G1 X2.850 Y1.550 F400.000
G1 X2.732 Y1.747 F400.000
G1 X2.608 Y1.927 F400.000
G1 X2.469 Y2.103 F400.000
G1 X2.317 Y2.270 F400.000
G1 X2.156 Y2.426 F400.000
G1 X1.983 Y2.570 F400.000
G1 X1.803 Y2.704 F400.000
G1 X1.615 Y2.824 F400.000
G1 X1.418 Y2.931 F400.000
G1 X1.216 Y3.024 F400.000
G1 X1.008 Y3.105 F400.000
G1 X0.762 Y3.171 F400.000
G1 X0.101 Y3.250 F400.000
G1 X-0.523 Y3.212 F400.000
G1 X-0.861 Y3.135 F400.000
G1 X-1.203 Y3.026 F400.000
G1 X-1.422 Y2.932 F400.000
G1 X-1.634 Y2.822 F400.000
G1 X-1.799 Y2.719 F400.000
G1 X-1.955 Y2.606 F400.000
G1 X-2.118 Y2.475 F400.000
G1 X-2.295 Y2.313 F400.000
G1 X-2.460 Y2.139 F400.000
G1 X-2.608 Y1.962 F400.000
G1 X-2.747 Y1.767 F400.000
G1 X-2.856 Y1.593 F400.000
G1 X-2.961 Y1.396 F400.000
G1 X-3.051 Y1.193 F400.000
G1 X-3.122 Y0.989 F400.000
G1 X-3.174 Y0.801 F400.000
G1 X-3.216 Y0.595 F400.000
G1 X-3.246 Y0.390 F400.000
G1 X-3.266 Y0.158 F400.000
G1 X-3.270 Y-0.081 F400.000
G1 X-3.261 Y-0.310 F400.000
G1 X-3.231 Y-0.548 F400.000
G1 X-3.193 Y-0.749 F400.000
G1 X-3.137 Y-0.964 F400.000
G1 X-3.066 Y-1.173 F400.000
G1 X-2.983 Y-1.371 F400.000
G1 X-2.886 Y-1.568 F400.000
G1 X-2.775 Y-1.758 F400.000
G1 X-2.651 Y-1.940 F400.000
G1 X-2.516 Y-2.113 F400.000
G1 X-2.370 Y-2.276 F400.000
G1 X-2.214 Y-2.430 F400.000
G1 X-2.032 Y-2.585 F400.000
G1 X-1.852 Y-2.720 F400.000
G1 X-1.662 Y-2.844 F400.000
G1 X-1.462 Y-2.957 F400.000
G1 X-1.257 Y-3.056 F400.000
G1 X-1.045 Y-3.143 F400.000
G1 X-0.385 Y-3.265 F400.000
G1 X0.201 Y-3.293 F400.000
G1 X0.651 Y-3.250 F400.000
G1 X1.158 Y-3.111 F400.000
G1 X1.411 Y-3.019 F400.000
G1 X1.629 Y-2.921 F400.000
G1 X1.839 Y-2.805 F400.000
G1 X2.021 Y-2.687 F400.000
G1 X2.182 Y-2.568 F400.000
G1 X2.362 Y-2.413 F400.000
