%
(nuttholder_Z)
(T1  D=3.175 CR=0 - ZMIN=-19.83 - flat end mill)
G90 G94
G17
G21

(Drill1)
M9
T1 M6
S5500 M3
G54
M8
G0 X37.5 Y-17.125
Z10
X38.184 Y-15.889
Z5
G1 Z0 F350.5
G3 X36.816 Y-18.361 Z-0.5 I-0.684 J-1.236
X38.184 Y-15.889 Z-1 I0.684 J1.236
X36.816 Y-18.361 Z-1.5 I-0.684 J-1.236
X38.184 Y-15.889 Z-2 I0.684 J1.236
X36.816 Y-18.361 Z-2.5 I-0.684 J-1.236
X38.184 Y-15.889 Z-3 I0.684 J1.236
X36.816 Y-18.361 Z-3.5 I-0.684 J-1.236
X38.184 Y-15.889 Z-4 I0.684 J1.236
X36.816 Y-18.361 Z-4.5 I-0.684 J-1.236
X38.184 Y-15.889 Z-5 I0.684 J1.236
X36.816 Y-18.361 Z-5.5 I-0.684 J-1.236
X38.184 Y-15.889 Z-6 I0.684 J1.236
X36.816 Y-18.361 Z-6.5 I-0.684 J-1.236
X38.184 Y-15.889 Z-7 I0.684 J1.236
X36.816 Y-18.361 Z-7.5 I-0.684 J-1.236
X38.184 Y-15.889 Z-8 I0.684 J1.236
X36.816 Y-18.361 Z-8.5 I-0.684 J-1.236
X38.184 Y-15.889 Z-9 I0.684 J1.236
X36.816 Y-18.361 Z-9.5 I-0.684 J-1.236
X38.184 Y-15.889 Z-10 I0.684 J1.236
X36.816 Y-18.361 Z-10.5 I-0.684 J-1.236
X38.184 Y-15.889 Z-11 I0.684 J1.236
X36.816 Y-18.361 Z-11.5 I-0.684 J-1.236
X38.184 Y-15.889 Z-12 I0.684 J1.236
X36.816 Y-18.361 Z-12.5 I-0.684 J-1.236
X38.184 Y-15.889 Z-13 I0.684 J1.236
X36.816 Y-18.361 Z-13.5 I-0.684 J-1.236
X38.184 Y-15.889 Z-14 I0.684 J1.236
X36.816 Y-18.361 Z-14.5 I-0.684 J-1.236
X38.184 Y-15.889 Z-15 I0.684 J1.236
X36.816 Y-18.361 Z-15.5 I-0.684 J-1.236
X38.184 Y-15.889 Z-16 I0.684 J1.236
X36.816 Y-18.361 Z-16.5 I-0.684 J-1.236
X38.184 Y-15.889 Z-17 I0.684 J1.236
X36.816 Y-18.361 Z-17.5 I-0.684 J-1.236
X38.184 Y-15.889 Z-18 I0.684 J1.236
X36.816 Y-18.361 Z-18.5 I-0.684 J-1.236
X38.184 Y-15.889 Z-19 I0.684 J1.236
X36.816 Y-18.361 Z-19.5 I-0.684 J-1.236
X38.913 Y-17.125 Z-19.83 I0.684 J1.236
X36.087 I-1.413
X38.913 I1.413
X37.5 I-0.706
G0 Z5
X8.184 Y-15.889
G1 Z0 F350.5
G3 X6.816 Y-18.361 Z-0.5 I-0.684 J-1.236
X8.184 Y-15.889 Z-1 I0.684 J1.236
X6.816 Y-18.361 Z-1.5 I-0.684 J-1.236
X8.184 Y-15.889 Z-2 I0.684 J1.236
X6.816 Y-18.361 Z-2.5 I-0.684 J-1.236
X8.184 Y-15.889 Z-3 I0.684 J1.236
X6.816 Y-18.361 Z-3.5 I-0.684 J-1.236
X8.184 Y-15.889 Z-4 I0.684 J1.236
X6.816 Y-18.361 Z-4.5 I-0.684 J-1.236
X8.184 Y-15.889 Z-5 I0.684 J1.236
X6.816 Y-18.361 Z-5.5 I-0.684 J-1.236
X8.184 Y-15.889 Z-6 I0.684 J1.236
X6.816 Y-18.361 Z-6.5 I-0.684 J-1.236
X8.184 Y-15.889 Z-7 I0.684 J1.236
X6.816 Y-18.361 Z-7.5 I-0.684 J-1.236
X8.184 Y-15.889 Z-8 I0.684 J1.236
X6.816 Y-18.361 Z-8.5 I-0.684 J-1.236
X8.184 Y-15.889 Z-9 I0.684 J1.236
X6.816 Y-18.361 Z-9.5 I-0.684 J-1.236
X8.184 Y-15.889 Z-10 I0.684 J1.236
X6.816 Y-18.361 Z-10.5 I-0.684 J-1.236
X8.184 Y-15.889 Z-11 I0.684 J1.236
X6.816 Y-18.361 Z-11.5 I-0.684 J-1.236
X8.184 Y-15.889 Z-12 I0.684 J1.236
X6.816 Y-18.361 Z-12.5 I-0.684 J-1.236
X8.184 Y-15.889 Z-13 I0.684 J1.236
X6.816 Y-18.361 Z-13.5 I-0.684 J-1.236
X8.184 Y-15.889 Z-14 I0.684 J1.236
X6.816 Y-18.361 Z-14.5 I-0.684 J-1.236
X8.184 Y-15.889 Z-15 I0.684 J1.236
X6.816 Y-18.361 Z-15.5 I-0.684 J-1.236
X8.184 Y-15.889 Z-16 I0.684 J1.236
X6.816 Y-18.361 Z-16.5 I-0.684 J-1.236
X8.184 Y-15.889 Z-17 I0.684 J1.236
X6.816 Y-18.361 Z-17.5 I-0.684 J-1.236
X8.184 Y-15.889 Z-18 I0.684 J1.236
X6.816 Y-18.361 Z-18.5 I-0.684 J-1.236
X8.184 Y-15.889 Z-19 I0.684 J1.236
X6.816 Y-18.361 Z-19.5 I-0.684 J-1.236
X8.912 Y-17.125 Z-19.83 I0.684 J1.236
X6.088 I-1.412
X8.912 I1.412
X7.5 I-0.706
G0 Z5
X-7.816 Y-17.389
G1 Z0 F350.5
G3 X-9.184 Y-19.861 Z-0.5 I-0.684 J-1.236
X-7.816 Y-17.389 Z-1 I0.684 J1.236
X-9.184 Y-19.861 Z-1.5 I-0.684 J-1.236
X-7.816 Y-17.389 Z-2 I0.684 J1.236
X-9.184 Y-19.861 Z-2.5 I-0.684 J-1.236
X-7.816 Y-17.389 Z-3 I0.684 J1.236
X-9.184 Y-19.861 Z-3.5 I-0.684 J-1.236
X-7.816 Y-17.389 Z-4 I0.684 J1.236
X-9.184 Y-19.861 Z-4.5 I-0.684 J-1.236
X-7.816 Y-17.389 Z-5 I0.684 J1.236
X-9.184 Y-19.861 Z-5.5 I-0.684 J-1.236
X-7.816 Y-17.389 Z-6 I0.684 J1.236
X-9.184 Y-19.861 Z-6.5 I-0.684 J-1.236
X-7.816 Y-17.389 Z-7 I0.684 J1.236
X-9.184 Y-19.861 Z-7.5 I-0.684 J-1.236
X-7.816 Y-17.389 Z-8 I0.684 J1.236
X-9.184 Y-19.861 Z-8.5 I-0.684 J-1.236
X-7.816 Y-17.389 Z-9 I0.684 J1.236
X-9.184 Y-19.861 Z-9.5 I-0.684 J-1.236
X-7.816 Y-17.389 Z-10 I0.684 J1.236
X-9.184 Y-19.861 Z-10.5 I-0.684 J-1.236
X-7.816 Y-17.389 Z-11 I0.684 J1.236
X-9.184 Y-19.861 Z-11.5 I-0.684 J-1.236
X-7.816 Y-17.389 Z-12 I0.684 J1.236
X-9.184 Y-19.861 Z-12.5 I-0.684 J-1.236
X-7.816 Y-17.389 Z-13 I0.684 J1.236
X-9.184 Y-19.861 Z-13.5 I-0.684 J-1.236
X-7.816 Y-17.389 Z-14 I0.684 J1.236
X-9.184 Y-19.861 Z-14.5 I-0.684 J-1.236
X-7.816 Y-17.389 Z-15 I0.684 J1.236
X-9.184 Y-19.861 Z-15.5 I-0.684 J-1.236
X-7.816 Y-17.389 Z-16 I0.684 J1.236
X-9.184 Y-19.861 Z-16.5 I-0.684 J-1.236
X-7.816 Y-17.389 Z-17 I0.684 J1.236
X-9.184 Y-19.861 Z-17.5 I-0.684 J-1.236
X-7.816 Y-17.389 Z-18 I0.684 J1.236
X-9.184 Y-19.861 Z-18.5 I-0.684 J-1.236
X-7.816 Y-17.389 Z-19 I0.684 J1.236
X-9.184 Y-19.861 Z-19.5 I-0.684 J-1.236
X-7.088 Y-18.625 Z-19.83 I0.684 J1.236
X-9.912 I-1.412
X-7.088 I1.412
X-8.5 I-0.706
G0 Z5
X-37.816 Y-17.389
G1 Z0 F350.5
G3 X-39.184 Y-19.861 Z-0.5 I-0.684 J-1.236
X-37.816 Y-17.389 Z-1 I0.684 J1.236
X-39.184 Y-19.861 Z-1.5 I-0.684 J-1.236
X-37.816 Y-17.389 Z-2 I0.684 J1.236
X-39.184 Y-19.861 Z-2.5 I-0.684 J-1.236
X-37.816 Y-17.389 Z-3 I0.684 J1.236
X-39.184 Y-19.861 Z-3.5 I-0.684 J-1.236
X-37.816 Y-17.389 Z-4 I0.684 J1.236
X-39.184 Y-19.861 Z-4.5 I-0.684 J-1.236
X-37.816 Y-17.389 Z-5 I0.684 J1.236
X-39.184 Y-19.861 Z-5.5 I-0.684 J-1.236
X-37.816 Y-17.389 Z-6 I0.684 J1.236
X-39.184 Y-19.861 Z-6.5 I-0.684 J-1.236
X-37.816 Y-17.389 Z-7 I0.684 J1.236
X-39.184 Y-19.861 Z-7.5 I-0.684 J-1.236
X-37.816 Y-17.389 Z-8 I0.684 J1.236
X-39.184 Y-19.861 Z-8.5 I-0.684 J-1.236
X-37.816 Y-17.389 Z-9 I0.684 J1.236
X-39.184 Y-19.861 Z-9.5 I-0.684 J-1.236
X-37.816 Y-17.389 Z-10 I0.684 J1.236
X-39.184 Y-19.861 Z-10.5 I-0.684 J-1.236
X-37.816 Y-17.389 Z-11 I0.684 J1.236
X-39.184 Y-19.861 Z-11.5 I-0.684 J-1.236
X-37.816 Y-17.389 Z-12 I0.684 J1.236
X-39.184 Y-19.861 Z-12.5 I-0.684 J-1.236
X-37.816 Y-17.389 Z-13 I0.684 J1.236
X-39.184 Y-19.861 Z-13.5 I-0.684 J-1.236
X-37.816 Y-17.389 Z-14 I0.684 J1.236
X-39.184 Y-19.861 Z-14.5 I-0.684 J-1.236
X-37.816 Y-17.389 Z-15 I0.684 J1.236
X-39.184 Y-19.861 Z-15.5 I-0.684 J-1.236
X-37.816 Y-17.389 Z-16 I0.684 J1.236
X-39.184 Y-19.861 Z-16.5 I-0.684 J-1.236
X-37.816 Y-17.389 Z-17 I0.684 J1.236
X-39.184 Y-19.861 Z-17.5 I-0.684 J-1.236
X-37.816 Y-17.389 Z-18 I0.684 J1.236
X-39.184 Y-19.861 Z-18.5 I-0.684 J-1.236
X-37.816 Y-17.389 Z-19 I0.684 J1.236
X-39.184 Y-19.861 Z-19.5 I-0.684 J-1.236
X-37.087 Y-18.625 Z-19.83 I0.684 J1.236
X-39.913 I-1.413
X-37.087 I1.413
X-38.5 I-0.706
G0 Z5
X-37.816 Y-47.389
G1 Z0 F350.5
G3 X-39.184 Y-49.861 Z-0.5 I-0.684 J-1.236
X-37.816 Y-47.389 Z-1 I0.684 J1.236
X-39.184 Y-49.861 Z-1.5 I-0.684 J-1.236
X-37.816 Y-47.389 Z-2 I0.684 J1.236
X-39.184 Y-49.861 Z-2.5 I-0.684 J-1.236
X-37.816 Y-47.389 Z-3 I0.684 J1.236
X-39.184 Y-49.861 Z-3.5 I-0.684 J-1.236
X-37.816 Y-47.389 Z-4 I0.684 J1.236
X-39.184 Y-49.861 Z-4.5 I-0.684 J-1.236
X-37.816 Y-47.389 Z-5 I0.684 J1.236
X-39.184 Y-49.861 Z-5.5 I-0.684 J-1.236
X-37.816 Y-47.389 Z-6 I0.684 J1.236
X-39.184 Y-49.861 Z-6.5 I-0.684 J-1.236
X-37.816 Y-47.389 Z-7 I0.684 J1.236
X-39.184 Y-49.861 Z-7.5 I-0.684 J-1.236
X-37.816 Y-47.389 Z-8 I0.684 J1.236
X-39.184 Y-49.861 Z-8.5 I-0.684 J-1.236
X-37.816 Y-47.389 Z-9 I0.684 J1.236
X-39.184 Y-49.861 Z-9.5 I-0.684 J-1.236
X-37.816 Y-47.389 Z-10 I0.684 J1.236
X-39.184 Y-49.861 Z-10.5 I-0.684 J-1.236
X-37.816 Y-47.389 Z-11 I0.684 J1.236
X-39.184 Y-49.861 Z-11.5 I-0.684 J-1.236
X-37.816 Y-47.389 Z-12 I0.684 J1.236
X-39.184 Y-49.861 Z-12.5 I-0.684 J-1.236
X-37.816 Y-47.389 Z-13 I0.684 J1.236
X-39.184 Y-49.861 Z-13.5 I-0.684 J-1.236
X-37.816 Y-47.389 Z-14 I0.684 J1.236
X-39.184 Y-49.861 Z-14.5 I-0.684 J-1.236
X-37.816 Y-47.389 Z-15 I0.684 J1.236
X-39.184 Y-49.861 Z-15.5 I-0.684 J-1.236
X-37.816 Y-47.389 Z-16 I0.684 J1.236
X-39.184 Y-49.861 Z-16.5 I-0.684 J-1.236
X-37.816 Y-47.389 Z-17 I0.684 J1.236
X-39.184 Y-49.861 Z-17.5 I-0.684 J-1.236
X-37.816 Y-47.389 Z-18 I0.684 J1.236
X-39.184 Y-49.861 Z-18.5 I-0.684 J-1.236
X-37.816 Y-47.389 Z-19 I0.684 J1.236
X-39.184 Y-49.861 Z-19.5 I-0.684 J-1.236
X-37.087 Y-48.625 Z-19.83 I0.684 J1.236
X-39.913 I-1.413
X-37.087 I1.413
X-38.5 I-0.706
G0 Z5
X-7.816 Y-47.389
G1 Z0 F350.5
G3 X-9.184 Y-49.861 Z-0.5 I-0.684 J-1.236
X-7.816 Y-47.389 Z-1 I0.684 J1.236
X-9.184 Y-49.861 Z-1.5 I-0.684 J-1.236
X-7.816 Y-47.389 Z-2 I0.684 J1.236
X-9.184 Y-49.861 Z-2.5 I-0.684 J-1.236
X-7.816 Y-47.389 Z-3 I0.684 J1.236
X-9.184 Y-49.861 Z-3.5 I-0.684 J-1.236
X-7.816 Y-47.389 Z-4 I0.684 J1.236
X-9.184 Y-49.861 Z-4.5 I-0.684 J-1.236
X-7.816 Y-47.389 Z-5 I0.684 J1.236
X-9.184 Y-49.861 Z-5.5 I-0.684 J-1.236
X-7.816 Y-47.389 Z-6 I0.684 J1.236
X-9.184 Y-49.861 Z-6.5 I-0.684 J-1.236
X-7.816 Y-47.389 Z-7 I0.684 J1.236
X-9.184 Y-49.861 Z-7.5 I-0.684 J-1.236
X-7.816 Y-47.389 Z-8 I0.684 J1.236
X-9.184 Y-49.861 Z-8.5 I-0.684 J-1.236
X-7.816 Y-47.389 Z-9 I0.684 J1.236
X-9.184 Y-49.861 Z-9.5 I-0.684 J-1.236
X-7.816 Y-47.389 Z-10 I0.684 J1.236
X-9.184 Y-49.861 Z-10.5 I-0.684 J-1.236
X-7.816 Y-47.389 Z-11 I0.684 J1.236
X-9.184 Y-49.861 Z-11.5 I-0.684 J-1.236
X-7.816 Y-47.389 Z-12 I0.684 J1.236
X-9.184 Y-49.861 Z-12.5 I-0.684 J-1.236
X-7.816 Y-47.389 Z-13 I0.684 J1.236
X-9.184 Y-49.861 Z-13.5 I-0.684 J-1.236
X-7.816 Y-47.389 Z-14 I0.684 J1.236
X-9.184 Y-49.861 Z-14.5 I-0.684 J-1.236
X-7.816 Y-47.389 Z-15 I0.684 J1.236
X-9.184 Y-49.861 Z-15.5 I-0.684 J-1.236
X-7.816 Y-47.389 Z-16 I0.684 J1.236
X-9.184 Y-49.861 Z-16.5 I-0.684 J-1.236
X-7.816 Y-47.389 Z-17 I0.684 J1.236
X-9.184 Y-49.861 Z-17.5 I-0.684 J-1.236
X-7.816 Y-47.389 Z-18 I0.684 J1.236
X-9.184 Y-49.861 Z-18.5 I-0.684 J-1.236
X-7.816 Y-47.389 Z-19 I0.684 J1.236
X-9.184 Y-49.861 Z-19.5 I-0.684 J-1.236
X-7.088 Y-48.625 Z-19.83 I0.684 J1.236
X-9.912 I-1.412
X-7.088 I1.412
X-8.5 I-0.706
G0 Z5
X8.184 Y-45.889
G1 Z0 F350.5
G3 X6.816 Y-48.361 Z-0.5 I-0.684 J-1.236
X8.184 Y-45.889 Z-1 I0.684 J1.236
X6.816 Y-48.361 Z-1.5 I-0.684 J-1.236
X8.184 Y-45.889 Z-2 I0.684 J1.236
X6.816 Y-48.361 Z-2.5 I-0.684 J-1.236
X8.184 Y-45.889 Z-3 I0.684 J1.236
X6.816 Y-48.361 Z-3.5 I-0.684 J-1.236
X8.184 Y-45.889 Z-4 I0.684 J1.236
X6.816 Y-48.361 Z-4.5 I-0.684 J-1.236
X8.184 Y-45.889 Z-5 I0.684 J1.236
X6.816 Y-48.361 Z-5.5 I-0.684 J-1.236
X8.184 Y-45.889 Z-6 I0.684 J1.236
X6.816 Y-48.361 Z-6.5 I-0.684 J-1.236
X8.184 Y-45.889 Z-7 I0.684 J1.236
X6.816 Y-48.361 Z-7.5 I-0.684 J-1.236
X8.184 Y-45.889 Z-8 I0.684 J1.236
X6.816 Y-48.361 Z-8.5 I-0.684 J-1.236
X8.184 Y-45.889 Z-9 I0.684 J1.236
X6.816 Y-48.361 Z-9.5 I-0.684 J-1.236
X8.184 Y-45.889 Z-10 I0.684 J1.236
X6.816 Y-48.361 Z-10.5 I-0.684 J-1.236
X8.184 Y-45.889 Z-11 I0.684 J1.236
X6.816 Y-48.361 Z-11.5 I-0.684 J-1.236
X8.184 Y-45.889 Z-12 I0.684 J1.236
X6.816 Y-48.361 Z-12.5 I-0.684 J-1.236
X8.184 Y-45.889 Z-13 I0.684 J1.236
X6.816 Y-48.361 Z-13.5 I-0.684 J-1.236
X8.184 Y-45.889 Z-14 I0.684 J1.236
X6.816 Y-48.361 Z-14.5 I-0.684 J-1.236
X8.184 Y-45.889 Z-15 I0.684 J1.236
X6.816 Y-48.361 Z-15.5 I-0.684 J-1.236
X8.184 Y-45.889 Z-16 I0.684 J1.236
X6.816 Y-48.361 Z-16.5 I-0.684 J-1.236
X8.184 Y-45.889 Z-17 I0.684 J1.236
X6.816 Y-48.361 Z-17.5 I-0.684 J-1.236
X8.184 Y-45.889 Z-18 I0.684 J1.236
X6.816 Y-48.361 Z-18.5 I-0.684 J-1.236
X8.184 Y-45.889 Z-19 I0.684 J1.236
X6.816 Y-48.361 Z-19.5 I-0.684 J-1.236
X8.912 Y-47.125 Z-19.83 I0.684 J1.236
X6.088 I-1.412
X8.912 I1.412
X7.5 I-0.706
G0 Z5
X38.184 Y-45.889
G1 Z0 F350.5
G3 X36.816 Y-48.361 Z-0.5 I-0.684 J-1.236
X38.184 Y-45.889 Z-1 I0.684 J1.236
X36.816 Y-48.361 Z-1.5 I-0.684 J-1.236
X38.184 Y-45.889 Z-2 I0.684 J1.236
X36.816 Y-48.361 Z-2.5 I-0.684 J-1.236
X38.184 Y-45.889 Z-3 I0.684 J1.236
X36.816 Y-48.361 Z-3.5 I-0.684 J-1.236
X38.184 Y-45.889 Z-4 I0.684 J1.236
X36.816 Y-48.361 Z-4.5 I-0.684 J-1.236
X38.184 Y-45.889 Z-5 I0.684 J1.236
X36.816 Y-48.361 Z-5.5 I-0.684 J-1.236
X38.184 Y-45.889 Z-6 I0.684 J1.236
X36.816 Y-48.361 Z-6.5 I-0.684 J-1.236
X38.184 Y-45.889 Z-7 I0.684 J1.236
X36.816 Y-48.361 Z-7.5 I-0.684 J-1.236
X38.184 Y-45.889 Z-8 I0.684 J1.236
X36.816 Y-48.361 Z-8.5 I-0.684 J-1.236
X38.184 Y-45.889 Z-9 I0.684 J1.236
X36.816 Y-48.361 Z-9.5 I-0.684 J-1.236
X38.184 Y-45.889 Z-10 I0.684 J1.236
X36.816 Y-48.361 Z-10.5 I-0.684 J-1.236
X38.184 Y-45.889 Z-11 I0.684 J1.236
X36.816 Y-48.361 Z-11.5 I-0.684 J-1.236
X38.184 Y-45.889 Z-12 I0.684 J1.236
X36.816 Y-48.361 Z-12.5 I-0.684 J-1.236
X38.184 Y-45.889 Z-13 I0.684 J1.236
X36.816 Y-48.361 Z-13.5 I-0.684 J-1.236
X38.184 Y-45.889 Z-14 I0.684 J1.236
X36.816 Y-48.361 Z-14.5 I-0.684 J-1.236
X38.184 Y-45.889 Z-15 I0.684 J1.236
X36.816 Y-48.361 Z-15.5 I-0.684 J-1.236
X38.184 Y-45.889 Z-16 I0.684 J1.236
X36.816 Y-48.361 Z-16.5 I-0.684 J-1.236
X38.184 Y-45.889 Z-17 I0.684 J1.236
X36.816 Y-48.361 Z-17.5 I-0.684 J-1.236
X38.184 Y-45.889 Z-18 I0.684 J1.236
X36.816 Y-48.361 Z-18.5 I-0.684 J-1.236
X38.184 Y-45.889 Z-19 I0.684 J1.236
X36.816 Y-48.361 Z-19.5 I-0.684 J-1.236
X38.913 Y-47.125 Z-19.83 I0.684 J1.236
X36.087 I-1.413
X38.913 I1.413
X37.5 I-0.706
G0 Z5
Z10

(2D Contour1)
M8
X-4.657 Y22.51
Z10
Z5
G1 Z3 F762
Z2.5
G3 X13.35 Y34.375 Z-2 I5.095 J11.865 F350.5
X-12.475 I-12.913
X13.35 I12.913
X7.528 Y45.167 Z-4 I-12.913
X-6.653 Y23.583 I-7.091 J-10.792
X7.528 Y45.167 I7.091 J10.792
X-4.687 Y46.227 Z-6 I-7.091 J-10.792
X5.563 Y22.523 I5.125 J-11.852
X-4.687 Y46.227 I-5.125 J11.852
X-12.282 Y36.6 Z-8 I5.125 J-11.852
X13.157 Y32.15 I12.719 J-2.225
X-12.282 Y36.6 I-12.719 J2.225
X-8.406 Y24.967 Z-10 I12.719 J-2.225
X9.282 Y43.783 I8.844 J9.408
X-8.406 Y24.967 I-8.844 J-9.408
X3.444 Y21.817 Z-12 I8.844 J9.408
X-2.569 Y46.933 I-3.007 J12.558
X3.444 Y21.817 I3.007 J-12.558
X12.584 Y29.992 Z-14 I-3.007 J12.558
X-11.708 Y38.758 I-12.146 J4.383
X12.584 Y29.992 I12.146 J-4.383
X10.771 Y42.119 Z-16 I-12.146 J4.383
X-9.895 Y26.631 I-10.333 J-7.744
X10.771 Y42.119 I10.333 J7.744
X-0.36 Y47.263 Z-18 I-10.333 J-7.744
X1.236 Y21.487 I0.798 J-12.888
X-0.36 Y47.263 I-0.798 J12.888
X-10.195 Y41.702 Z-19.83 I0.798 J-12.888
X11.07 Y27.048 I10.632 J-7.327
X-10.195 Y41.702 I-10.632 J7.327
G0 Z10

(Drill2)
M8
X13.873 Y47.81
Z10
X14.145 Y48.302
Z5
G1 Z0 F350.5
G3 X13.601 Y47.318 Z-0.5 I-0.272 J-0.492
X14.145 Y48.302 Z-1 I0.272 J0.492
X13.601 Y47.318 Z-1.5 I-0.272 J-0.492
X14.145 Y48.302 Z-2 I0.272 J0.492
X13.601 Y47.318 Z-2.5 I-0.272 J-0.492
X14.145 Y48.302 Z-3 I0.272 J0.492
X13.601 Y47.318 Z-3.5 I-0.272 J-0.492
X14.145 Y48.302 Z-4 I0.272 J0.492
X13.601 Y47.318 Z-4.5 I-0.272 J-0.492
X14.145 Y48.302 Z-5 I0.272 J0.492
X13.601 Y47.318 Z-5.5 I-0.272 J-0.492
X14.145 Y48.302 Z-6 I0.272 J0.492
X13.601 Y47.318 Z-6.5 I-0.272 J-0.492
X14.145 Y48.302 Z-7 I0.272 J0.492
X13.601 Y47.318 Z-7.5 I-0.272 J-0.492
X14.145 Y48.302 Z-8 I0.272 J0.492
X13.601 Y47.318 Z-8.5 I-0.272 J-0.492
X14.145 Y48.302 Z-9 I0.272 J0.492
X13.601 Y47.318 Z-9.5 I-0.272 J-0.492
X14.145 Y48.302 Z-10 I0.272 J0.492
X13.601 Y47.318 Z-10.5 I-0.272 J-0.492
X14.145 Y48.302 Z-11 I0.272 J0.492
X13.601 Y47.318 Z-11.5 I-0.272 J-0.492
X14.145 Y48.302 Z-12 I0.272 J0.492
X13.601 Y47.318 Z-12.5 I-0.272 J-0.492
X14.145 Y48.302 Z-13 I0.272 J0.492
X13.601 Y47.318 Z-13.5 I-0.272 J-0.492
X14.145 Y48.302 Z-14 I0.272 J0.492
X13.601 Y47.318 Z-14.5 I-0.272 J-0.492
X14.145 Y48.302 Z-15 I0.272 J0.492
X13.601 Y47.318 Z-15.5 I-0.272 J-0.492
X14.145 Y48.302 Z-16 I0.272 J0.492
X13.601 Y47.318 Z-16.5 I-0.272 J-0.492
X14.145 Y48.302 Z-17 I0.272 J0.492
X13.601 Y47.318 Z-17.5 I-0.272 J-0.492
X14.145 Y48.302 Z-18 I0.272 J0.492
X13.601 Y47.318 Z-18.5 I-0.272 J-0.492
X14.145 Y48.302 Z-19 I0.272 J0.492
X13.601 Y47.318 Z-19.5 I-0.272 J-0.492
X14.435 Y47.81 Z-19.83 I0.272 J0.492
X13.31 I-0.563
X14.435 I0.563
X13.873 I-0.281
G0 Z5
X0.71 Y53.867
G1 Z0 F350.5
G3 X0.166 Y52.883 Z-0.5 I-0.272 J-0.492
X0.71 Y53.867 Z-1 I0.272 J0.492
X0.166 Y52.883 Z-1.5 I-0.272 J-0.492
X0.71 Y53.867 Z-2 I0.272 J0.492
X0.166 Y52.883 Z-2.5 I-0.272 J-0.492
X0.71 Y53.867 Z-3 I0.272 J0.492
X0.166 Y52.883 Z-3.5 I-0.272 J-0.492
X0.71 Y53.867 Z-4 I0.272 J0.492
X0.166 Y52.883 Z-4.5 I-0.272 J-0.492
X0.71 Y53.867 Z-5 I0.272 J0.492
X0.166 Y52.883 Z-5.5 I-0.272 J-0.492
X0.71 Y53.867 Z-6 I0.272 J0.492
X0.166 Y52.883 Z-6.5 I-0.272 J-0.492
X0.71 Y53.867 Z-7 I0.272 J0.492
X0.166 Y52.883 Z-7.5 I-0.272 J-0.492
X0.71 Y53.867 Z-8 I0.272 J0.492
X0.166 Y52.883 Z-8.5 I-0.272 J-0.492
X0.71 Y53.867 Z-9 I0.272 J0.492
X0.166 Y52.883 Z-9.5 I-0.272 J-0.492
X0.71 Y53.867 Z-10 I0.272 J0.492
X0.166 Y52.883 Z-10.5 I-0.272 J-0.492
X0.71 Y53.867 Z-11 I0.272 J0.492
X0.166 Y52.883 Z-11.5 I-0.272 J-0.492
X0.71 Y53.867 Z-12 I0.272 J0.492
X0.166 Y52.883 Z-12.5 I-0.272 J-0.492
X0.71 Y53.867 Z-13 I0.272 J0.492
X0.166 Y52.883 Z-13.5 I-0.272 J-0.492
X0.71 Y53.867 Z-14 I0.272 J0.492
X0.166 Y52.883 Z-14.5 I-0.272 J-0.492
X0.71 Y53.867 Z-15 I0.272 J0.492
X0.166 Y52.883 Z-15.5 I-0.272 J-0.492
X0.71 Y53.867 Z-16 I0.272 J0.492
X0.166 Y52.883 Z-16.5 I-0.272 J-0.492
X0.71 Y53.867 Z-17 I0.272 J0.492
X0.166 Y52.883 Z-17.5 I-0.272 J-0.492
X0.71 Y53.867 Z-18 I0.272 J0.492
X0.166 Y52.883 Z-18.5 I-0.272 J-0.492
X0.71 Y53.867 Z-19 I0.272 J0.492
X0.166 Y52.883 Z-19.5 I-0.272 J-0.492
X1 Y53.375 Z-19.83 I0.272 J0.492
X-0.125 I-0.563
X1 I0.563
X0.438 I-0.281
G0 Z5
X-12.725 Y48.302
G1 Z0 F350.5
G3 X-13.269 Y47.318 Z-0.5 I-0.272 J-0.492
X-12.725 Y48.302 Z-1 I0.272 J0.492
X-13.269 Y47.318 Z-1.5 I-0.272 J-0.492
X-12.725 Y48.302 Z-2 I0.272 J0.492
X-13.269 Y47.318 Z-2.5 I-0.272 J-0.492
X-12.725 Y48.302 Z-3 I0.272 J0.492
X-13.269 Y47.318 Z-3.5 I-0.272 J-0.492
X-12.725 Y48.302 Z-4 I0.272 J0.492
X-13.269 Y47.318 Z-4.5 I-0.272 J-0.492
X-12.725 Y48.302 Z-5 I0.272 J0.492
X-13.269 Y47.318 Z-5.5 I-0.272 J-0.492
X-12.725 Y48.302 Z-6 I0.272 J0.492
X-13.269 Y47.318 Z-6.5 I-0.272 J-0.492
X-12.725 Y48.302 Z-7 I0.272 J0.492
X-13.269 Y47.318 Z-7.5 I-0.272 J-0.492
X-12.725 Y48.302 Z-8 I0.272 J0.492
X-13.269 Y47.318 Z-8.5 I-0.272 J-0.492
X-12.725 Y48.302 Z-9 I0.272 J0.492
X-13.269 Y47.318 Z-9.5 I-0.272 J-0.492
X-12.725 Y48.302 Z-10 I0.272 J0.492
X-13.269 Y47.318 Z-10.5 I-0.272 J-0.492
X-12.725 Y48.302 Z-11 I0.272 J0.492
X-13.269 Y47.318 Z-11.5 I-0.272 J-0.492
X-12.725 Y48.302 Z-12 I0.272 J0.492
X-13.269 Y47.318 Z-12.5 I-0.272 J-0.492
X-12.725 Y48.302 Z-13 I0.272 J0.492
X-13.269 Y47.318 Z-13.5 I-0.272 J-0.492
X-12.725 Y48.302 Z-14 I0.272 J0.492
X-13.269 Y47.318 Z-14.5 I-0.272 J-0.492
X-12.725 Y48.302 Z-15 I0.272 J0.492
X-13.269 Y47.318 Z-15.5 I-0.272 J-0.492
X-12.725 Y48.302 Z-16 I0.272 J0.492
X-13.269 Y47.318 Z-16.5 I-0.272 J-0.492
X-12.725 Y48.302 Z-17 I0.272 J0.492
X-13.269 Y47.318 Z-17.5 I-0.272 J-0.492
X-12.725 Y48.302 Z-18 I0.272 J0.492
X-13.269 Y47.318 Z-18.5 I-0.272 J-0.492
X-12.725 Y48.302 Z-19 I0.272 J0.492
X-13.269 Y47.318 Z-19.5 I-0.272 J-0.492
X-12.435 Y47.81 Z-19.83 I0.272 J0.492
X-13.56 I-0.563
X-12.435 I0.563
X-12.997 I-0.281
G0 Z5
X-12.725 Y21.432
G1 Z0 F350.5
G3 X-13.269 Y20.448 Z-0.5 I-0.272 J-0.492
X-12.725 Y21.432 Z-1 I0.272 J0.492
X-13.269 Y20.448 Z-1.5 I-0.272 J-0.492
X-12.725 Y21.432 Z-2 I0.272 J0.492
X-13.269 Y20.448 Z-2.5 I-0.272 J-0.492
X-12.725 Y21.432 Z-3 I0.272 J0.492
X-13.269 Y20.448 Z-3.5 I-0.272 J-0.492
X-12.725 Y21.432 Z-4 I0.272 J0.492
X-13.269 Y20.448 Z-4.5 I-0.272 J-0.492
X-12.725 Y21.432 Z-5 I0.272 J0.492
X-13.269 Y20.448 Z-5.5 I-0.272 J-0.492
X-12.725 Y21.432 Z-6 I0.272 J0.492
X-13.269 Y20.448 Z-6.5 I-0.272 J-0.492
X-12.725 Y21.432 Z-7 I0.272 J0.492
X-13.269 Y20.448 Z-7.5 I-0.272 J-0.492
X-12.725 Y21.432 Z-8 I0.272 J0.492
X-13.269 Y20.448 Z-8.5 I-0.272 J-0.492
X-12.725 Y21.432 Z-9 I0.272 J0.492
X-13.269 Y20.448 Z-9.5 I-0.272 J-0.492
X-12.725 Y21.432 Z-10 I0.272 J0.492
X-13.269 Y20.448 Z-10.5 I-0.272 J-0.492
X-12.725 Y21.432 Z-11 I0.272 J0.492
X-13.269 Y20.448 Z-11.5 I-0.272 J-0.492
X-12.725 Y21.432 Z-12 I0.272 J0.492
X-13.269 Y20.448 Z-12.5 I-0.272 J-0.492
X-12.725 Y21.432 Z-13 I0.272 J0.492
X-13.269 Y20.448 Z-13.5 I-0.272 J-0.492
X-12.725 Y21.432 Z-14 I0.272 J0.492
X-13.269 Y20.448 Z-14.5 I-0.272 J-0.492
X-12.725 Y21.432 Z-15 I0.272 J0.492
X-13.269 Y20.448 Z-15.5 I-0.272 J-0.492
X-12.725 Y21.432 Z-16 I0.272 J0.492
X-13.269 Y20.448 Z-16.5 I-0.272 J-0.492
X-12.725 Y21.432 Z-17 I0.272 J0.492
X-13.269 Y20.448 Z-17.5 I-0.272 J-0.492
X-12.725 Y21.432 Z-18 I0.272 J0.492
X-13.269 Y20.448 Z-18.5 I-0.272 J-0.492
X-12.725 Y21.432 Z-19 I0.272 J0.492
X-13.269 Y20.448 Z-19.5 I-0.272 J-0.492
X-12.435 Y20.94 Z-19.83 I0.272 J0.492
X-13.56 I-0.563
X-12.435 I0.563
X-12.997 I-0.281
G0 Z5
X0.71 Y15.867
G1 Z0 F350.5
G3 X0.166 Y14.883 Z-0.5 I-0.272 J-0.492
X0.71 Y15.867 Z-1 I0.272 J0.492
X0.166 Y14.883 Z-1.5 I-0.272 J-0.492
X0.71 Y15.867 Z-2 I0.272 J0.492
X0.166 Y14.883 Z-2.5 I-0.272 J-0.492
X0.71 Y15.867 Z-3 I0.272 J0.492
X0.166 Y14.883 Z-3.5 I-0.272 J-0.492
X0.71 Y15.867 Z-4 I0.272 J0.492
X0.166 Y14.883 Z-4.5 I-0.272 J-0.492
X0.71 Y15.867 Z-5 I0.272 J0.492
X0.166 Y14.883 Z-5.5 I-0.272 J-0.492
X0.71 Y15.867 Z-6 I0.272 J0.492
X0.166 Y14.883 Z-6.5 I-0.272 J-0.492
X0.71 Y15.867 Z-7 I0.272 J0.492
X0.166 Y14.883 Z-7.5 I-0.272 J-0.492
X0.71 Y15.867 Z-8 I0.272 J0.492
X0.166 Y14.883 Z-8.5 I-0.272 J-0.492
X0.71 Y15.867 Z-9 I0.272 J0.492
X0.166 Y14.883 Z-9.5 I-0.272 J-0.492
X0.71 Y15.867 Z-10 I0.272 J0.492
X0.166 Y14.883 Z-10.5 I-0.272 J-0.492
X0.71 Y15.867 Z-11 I0.272 J0.492
X0.166 Y14.883 Z-11.5 I-0.272 J-0.492
X0.71 Y15.867 Z-12 I0.272 J0.492
X0.166 Y14.883 Z-12.5 I-0.272 J-0.492
X0.71 Y15.867 Z-13 I0.272 J0.492
X0.166 Y14.883 Z-13.5 I-0.272 J-0.492
X0.71 Y15.867 Z-14 I0.272 J0.492
X0.166 Y14.883 Z-14.5 I-0.272 J-0.492
X0.71 Y15.867 Z-15 I0.272 J0.492
X0.166 Y14.883 Z-15.5 I-0.272 J-0.492
X0.71 Y15.867 Z-16 I0.272 J0.492
X0.166 Y14.883 Z-16.5 I-0.272 J-0.492
X0.71 Y15.867 Z-17 I0.272 J0.492
X0.166 Y14.883 Z-17.5 I-0.272 J-0.492
X0.71 Y15.867 Z-18 I0.272 J0.492
X0.166 Y14.883 Z-18.5 I-0.272 J-0.492
X0.71 Y15.867 Z-19 I0.272 J0.492
X0.166 Y14.883 Z-19.5 I-0.272 J-0.492
X1 Y15.375 Z-19.83 I0.272 J0.492
X-0.125 I-0.563
X1 I0.563
X0.438 I-0.281
G0 Z5
X14.145 Y21.432
G1 Z0 F350.5
G3 X13.601 Y20.448 Z-0.5 I-0.272 J-0.492
X14.145 Y21.432 Z-1 I0.272 J0.492
X13.601 Y20.448 Z-1.5 I-0.272 J-0.492
X14.145 Y21.432 Z-2 I0.272 J0.492
X13.601 Y20.448 Z-2.5 I-0.272 J-0.492
X14.145 Y21.432 Z-3 I0.272 J0.492
X13.601 Y20.448 Z-3.5 I-0.272 J-0.492
X14.145 Y21.432 Z-4 I0.272 J0.492
X13.601 Y20.448 Z-4.5 I-0.272 J-0.492
X14.145 Y21.432 Z-5 I0.272 J0.492
X13.601 Y20.448 Z-5.5 I-0.272 J-0.492
X14.145 Y21.432 Z-6 I0.272 J0.492
X13.601 Y20.448 Z-6.5 I-0.272 J-0.492
X14.145 Y21.432 Z-7 I0.272 J0.492
X13.601 Y20.448 Z-7.5 I-0.272 J-0.492
X14.145 Y21.432 Z-8 I0.272 J0.492
X13.601 Y20.448 Z-8.5 I-0.272 J-0.492
X14.145 Y21.432 Z-9 I0.272 J0.492
X13.601 Y20.448 Z-9.5 I-0.272 J-0.492
X14.145 Y21.432 Z-10 I0.272 J0.492
X13.601 Y20.448 Z-10.5 I-0.272 J-0.492
X14.145 Y21.432 Z-11 I0.272 J0.492
X13.601 Y20.448 Z-11.5 I-0.272 J-0.492
X14.145 Y21.432 Z-12 I0.272 J0.492
X13.601 Y20.448 Z-12.5 I-0.272 J-0.492
X14.145 Y21.432 Z-13 I0.272 J0.492
X13.601 Y20.448 Z-13.5 I-0.272 J-0.492
X14.145 Y21.432 Z-14 I0.272 J0.492
X13.601 Y20.448 Z-14.5 I-0.272 J-0.492
X14.145 Y21.432 Z-15 I0.272 J0.492
X13.601 Y20.448 Z-15.5 I-0.272 J-0.492
X14.145 Y21.432 Z-16 I0.272 J0.492
X13.601 Y20.448 Z-16.5 I-0.272 J-0.492
X14.145 Y21.432 Z-17 I0.272 J0.492
X13.601 Y20.448 Z-17.5 I-0.272 J-0.492
X14.145 Y21.432 Z-18 I0.272 J0.492
X13.601 Y20.448 Z-18.5 I-0.272 J-0.492
X14.145 Y21.432 Z-19 I0.272 J0.492
X13.601 Y20.448 Z-19.5 I-0.272 J-0.492
X14.435 Y20.94 Z-19.83 I0.272 J0.492
X13.31 I-0.563
X14.435 I0.563
X13.873 I-0.281
G0 Z5
Z10

(Pocket2)
M8
Z15
X-28.462 Y17.109
Z3
G1 Z1.913 F762
G3 X-28.445 Y17.117 Z1.804 I-0.622 J1.374 F350.5
X-28.396 Y17.142 Z1.709 I-0.64 J1.366
X-28.322 Y17.182 Z1.638 I-0.689 J1.341
X-28.234 Y17.238 Z1.6 I-0.763 J1.301
X-29.936 Y19.728 Z0.765 I-0.851 J1.245
X-28.234 Y17.238 Z-0.071 I0.851 J-1.245
X-29.936 Y19.728 Z-0.906 I-0.851 J1.245
X-28.234 Y17.238 Z-1.742 I0.851 J-1.245
X-27.577 Y18.483 Z-2 I-0.851 J1.245
X-27.737 I-0.08
X-24.561 I1.588
X-30.753 I-3.096
X-24.561 I3.096
G2 X-23.486 Y20.333 I2.129
G3 X-23.197 Y22.453 I-0.667 J1.17
G1 X-23.908 Y23.168
X-25.051 Y23.89
X-26.342 Y24.337
X-27.656 Y24.485
X-28.973 Y24.337
X-30.258 Y23.892
X-31.408 Y23.167
X-32.351 Y22.225
X-33.062 Y21.093
X-33.509 Y19.817
X-33.659 Y18.492
X-33.51 Y17.153
X-33.476 Y17.052
X-33.062 Y15.873
X-32.354 Y14.747
X-31.382 Y13.779
X-30.27 Y13.081
X-28.999 Y12.633
X-27.656 Y12.481
X-26.329 Y12.63
X-25.071 Y13.069
X-24.843 Y13.207
X-23.923 Y13.785
X-22.978 Y14.727
X-22.835 Y14.947
X-22.261 Y15.86
X-21.812 Y17.128
X-21.693 Y18.14
X-21.656 Y18.491
X-21.804 Y19.806
X-22.244 Y21.073
X-22.953 Y22.208
X-23.197 Y22.453
G3 X-25.572 Y20.634 Z-2.757 I-1.07 J-1.063
G1 X-24.764 Y19.239 Z-3.038
G2 X-27.374 Y17.727 Z-3.862 I-1.305 J-0.756
X-27.577 Y18.483 Z-4 I1.305 J0.756
G3 X-27.737 I-0.08
X-24.561 I1.588
X-30.753 I-3.096
X-24.561 I3.096
G2 X-23.486 Y20.333 I2.129
G3 X-23.197 Y22.453 I-0.667 J1.17
G1 X-23.908 Y23.168
X-25.051 Y23.89
X-26.342 Y24.337
X-27.656 Y24.485
X-28.973 Y24.337
X-30.258 Y23.892
X-31.408 Y23.167
X-32.351 Y22.225
X-33.062 Y21.093
X-33.509 Y19.817
X-33.659 Y18.492
X-33.51 Y17.153
X-33.476 Y17.052
X-33.062 Y15.873
X-32.354 Y14.747
X-31.382 Y13.779
X-30.27 Y13.081
X-28.999 Y12.633
X-27.656 Y12.481
X-26.329 Y12.63
X-25.071 Y13.069
X-24.843 Y13.207
X-23.923 Y13.785
X-22.978 Y14.727
X-22.835 Y14.947
X-22.261 Y15.86
X-21.812 Y17.128
X-21.693 Y18.14
X-21.656 Y18.491
X-21.804 Y19.806
X-22.244 Y21.073
X-22.953 Y22.208
X-23.197 Y22.453
G3 X-25.572 Y20.634 Z-4.757 I-1.07 J-1.063
G1 X-24.764 Y19.239 Z-5.038
G2 X-27.374 Y17.727 Z-5.862 I-1.305 J-0.756
X-27.577 Y18.483 Z-6 I1.305 J0.756
G3 X-27.737 I-0.08
X-24.561 I1.588
X-30.753 I-3.096
X-24.561 I3.096
G2 X-23.486 Y20.333 I2.129
G3 X-23.197 Y22.453 I-0.667 J1.17
G1 X-23.908 Y23.168
X-25.051 Y23.89
X-26.342 Y24.337
X-27.656 Y24.485
X-28.973 Y24.337
X-30.258 Y23.892
X-31.408 Y23.167
X-32.351 Y22.225
X-33.062 Y21.093
X-33.509 Y19.817
X-33.659 Y18.492
X-33.51 Y17.153
X-33.476 Y17.052
X-33.062 Y15.873
X-32.354 Y14.747
X-31.382 Y13.779
X-30.27 Y13.081
X-28.999 Y12.633
X-27.656 Y12.481
X-26.329 Y12.63
X-25.071 Y13.069
X-24.843 Y13.207
X-23.923 Y13.785
X-22.978 Y14.727
X-22.835 Y14.947
X-22.261 Y15.86
X-21.812 Y17.128
X-21.693 Y18.14
X-21.656 Y18.491
X-21.804 Y19.806
X-22.244 Y21.073
X-22.953 Y22.208
X-23.197 Y22.453
G3 X-25.572 Y20.634 Z-6.757 I-1.07 J-1.063
G1 X-24.764 Y19.239 Z-7.038
G2 X-27.374 Y17.727 Z-7.862 I-1.305 J-0.756
X-27.577 Y18.483 Z-8 I1.305 J0.756
G3 X-27.737 I-0.08
X-24.561 I1.588
X-30.753 I-3.096
X-24.561 I3.096
G2 X-23.486 Y20.333 I2.129
G3 X-23.197 Y22.453 I-0.667 J1.17
G1 X-23.908 Y23.168
X-25.051 Y23.89
X-26.342 Y24.337
X-27.656 Y24.485
X-28.973 Y24.337
X-30.258 Y23.892
X-31.408 Y23.167
X-32.351 Y22.225
X-33.062 Y21.093
X-33.509 Y19.817
X-33.659 Y18.492
X-33.51 Y17.153
X-33.476 Y17.052
X-33.062 Y15.873
X-32.354 Y14.747
X-31.382 Y13.779
X-30.27 Y13.081
X-28.999 Y12.633
X-27.656 Y12.481
X-26.329 Y12.63
X-25.071 Y13.069
X-24.843 Y13.207
X-23.923 Y13.785
X-22.978 Y14.727
X-22.835 Y14.947
X-22.261 Y15.86
X-21.812 Y17.128
X-21.693 Y18.14
X-21.656 Y18.491
X-21.804 Y19.806
X-22.244 Y21.073
X-22.953 Y22.208
X-23.197 Y22.453
G3 X-25.572 Y20.634 Z-8.757 I-1.07 J-1.063
G1 X-24.764 Y19.239 Z-9.038
G2 X-27.374 Y17.727 Z-9.862 I-1.305 J-0.756
X-27.577 Y18.483 Z-10 I1.305 J0.756
G3 X-27.737 I-0.08
X-24.561 I1.588
X-30.753 I-3.096
X-24.561 I3.096
G2 X-23.486 Y20.333 I2.129
G3 X-23.197 Y22.453 I-0.667 J1.17
G1 X-23.908 Y23.168
X-25.051 Y23.89
X-26.342 Y24.337
X-27.656 Y24.485
X-28.973 Y24.337
X-30.258 Y23.892
X-31.408 Y23.167
X-32.351 Y22.225
X-33.062 Y21.093
X-33.509 Y19.817
X-33.659 Y18.492
X-33.51 Y17.153
X-33.476 Y17.052
X-33.062 Y15.873
X-32.354 Y14.747
X-31.382 Y13.779
X-30.27 Y13.081
X-28.999 Y12.633
X-27.656 Y12.481
X-26.329 Y12.63
X-25.071 Y13.069
X-24.843 Y13.207
X-23.923 Y13.785
X-22.978 Y14.727
X-22.835 Y14.947
X-22.261 Y15.86
X-21.812 Y17.128
X-21.693 Y18.14
X-21.656 Y18.491
X-21.804 Y19.806
X-22.244 Y21.073
X-22.953 Y22.208
X-23.197 Y22.453
G3 X-23.427 Y22.447 I-0.113 J-0.112
G1 X-28.048 Y17.315
G3 X-27.878 Y17.058 I0.118 J-0.106
X-28.864 Y19.909 Z-10.835 I-0.493 J1.425
X-27.878 Y17.058 Z-11.671 I0.493 J-1.425
X-26.863 Y18.484 Z-12 I-0.493 J1.425
X-28.451 I-0.794
X-26.863 I0.794
G2 X-26.209 Y19.663 I1.392
G3 X-26.295 Y21.009 I-0.407 J0.65
G1 X-26.831 Y21.257
X-27.656 Y21.379
X-28.483 Y21.257
X-29.234 Y20.91
X-29.846 Y20.379
X-30.286 Y19.696
X-30.322 Y19.583
X-30.524 Y18.897
X-30.52 Y18.057
X-30.347 Y17.467
X-30.292 Y17.28
X-29.853 Y16.597
X-29.212 Y16.042
X-28.488 Y15.711
X-27.655 Y15.587
X-26.833 Y15.708
X-26.092 Y16.046
X-25.477 Y16.579
X-25.021 Y17.288
X-24.795 Y18.057
X-24.791 Y18.883
X-24.868 Y19.157
X-25.024 Y19.687
X-25.477 Y20.387
X-26.081 Y20.91
X-26.295 Y21.009
G3 X-26.507 Y20.927 I-0.067 J-0.144
G1 X-28.076 Y17.271
G3 X-27.878 Y17.058 I0.146 J-0.063
X-28.864 Y19.909 Z-12.835 I-0.493 J1.425
X-27.878 Y17.058 Z-13.671 I0.493 J-1.425
X-26.863 Y18.484 Z-14 I-0.493 J1.425
X-28.451 I-0.794
X-26.863 I0.794
G2 X-26.209 Y19.663 I1.392
G3 X-26.295 Y21.009 I-0.407 J0.65
G1 X-26.831 Y21.257
X-27.656 Y21.379
X-28.483 Y21.257
X-29.234 Y20.91
X-29.846 Y20.379
X-30.286 Y19.696
X-30.322 Y19.583
X-30.524 Y18.897
X-30.52 Y18.057
X-30.347 Y17.467
X-30.292 Y17.28
X-29.853 Y16.597
X-29.212 Y16.042
X-28.488 Y15.711
X-27.655 Y15.587
X-26.833 Y15.708
X-26.092 Y16.046
X-25.477 Y16.579
X-25.021 Y17.288
X-24.795 Y18.057
X-24.791 Y18.883
X-24.868 Y19.157
X-25.024 Y19.687
X-25.477 Y20.387
X-26.081 Y20.91
X-26.295 Y21.009
G3 X-26.507 Y20.927 I-0.067 J-0.144
G1 X-28.076 Y17.271
G3 X-27.878 Y17.058 I0.146 J-0.063
X-28.864 Y19.909 Z-14.835 I-0.493 J1.425
X-27.878 Y17.058 Z-15.671 I0.493 J-1.425
X-26.863 Y18.484 Z-16 I-0.493 J1.425
X-28.451 I-0.794
X-26.863 I0.794
G2 X-26.209 Y19.663 I1.392
G3 X-26.295 Y21.009 I-0.407 J0.65
G1 X-26.831 Y21.257
X-27.656 Y21.379
X-28.483 Y21.257
X-29.234 Y20.91
X-29.846 Y20.379
X-30.286 Y19.696
X-30.322 Y19.583
X-30.524 Y18.897
X-30.52 Y18.057
X-30.347 Y17.467
X-30.292 Y17.28
X-29.853 Y16.597
X-29.212 Y16.042
X-28.488 Y15.711
X-27.655 Y15.587
X-26.833 Y15.708
X-26.092 Y16.046
X-25.477 Y16.579
X-25.021 Y17.288
X-24.795 Y18.057
X-24.791 Y18.883
X-24.868 Y19.157
X-25.024 Y19.687
X-25.477 Y20.387
X-26.081 Y20.91
X-26.295 Y21.009
G3 X-26.507 Y20.927 I-0.067 J-0.144
G1 X-28.076 Y17.271
G3 X-27.878 Y17.058 I0.146 J-0.063
X-28.864 Y19.909 Z-16.835 I-0.493 J1.425
X-27.878 Y17.058 Z-17.671 I0.493 J-1.425
X-26.863 Y18.484 Z-18 I-0.493 J1.425
X-28.451 I-0.794
X-26.863 I0.794
G2 X-26.209 Y19.663 I1.392
G3 X-26.295 Y21.009 I-0.407 J0.65
G1 X-26.831 Y21.257
X-27.656 Y21.379
X-28.483 Y21.257
X-29.234 Y20.91
X-29.846 Y20.379
X-30.286 Y19.696
X-30.322 Y19.583
X-30.524 Y18.897
X-30.52 Y18.057
X-30.347 Y17.467
X-30.292 Y17.28
X-29.853 Y16.597
X-29.212 Y16.042
X-28.488 Y15.711
X-27.655 Y15.587
X-26.833 Y15.708
X-26.092 Y16.046
X-25.477 Y16.579
X-25.021 Y17.288
X-24.795 Y18.057
X-24.791 Y18.883
X-24.868 Y19.157
X-25.024 Y19.687
X-25.477 Y20.387
X-26.081 Y20.91
X-26.295 Y21.009
G3 X-26.514 Y20.908 I-0.067 J-0.144
G1 X-27.41 Y17.765
G3 X-27.126 Y17.632 I0.153 J-0.044
X-29.616 Y19.335 Z-18.835 I-1.245 J0.852
X-27.126 Y17.632 Z-19.671 I1.245 J-0.852
X-26.863 Y18.484 Z-19.83 I-1.245 J0.852
X-28.451 I-0.794
X-26.863 I0.794
G2 X-26.209 Y19.663 I1.392
G3 X-26.295 Y21.009 I-0.407 J0.65
G1 X-26.831 Y21.257
X-27.656 Y21.379
X-28.483 Y21.257
X-29.234 Y20.91
X-29.846 Y20.379
X-30.286 Y19.696
X-30.322 Y19.583
X-30.524 Y18.897
X-30.52 Y18.057
X-30.347 Y17.467
X-30.292 Y17.28
X-29.853 Y16.597
X-29.212 Y16.042
X-28.488 Y15.711
X-27.655 Y15.587
X-26.833 Y15.708
X-26.092 Y16.046
X-25.477 Y16.579
X-25.021 Y17.288
X-24.795 Y18.057
X-24.791 Y18.883
X-24.868 Y19.157
X-25.024 Y19.687
X-25.477 Y20.387
X-26.081 Y20.91
X-26.295 Y21.009
G3 X-26.379 Y21.034 Z-19.816 I-0.133 J-0.288
X-26.459 Y21.037 Z-19.775 I-0.048 J-0.314
X-26.522 Y21.024 Z-19.712 I0.032 J-0.316
X-26.56 Y21.009 Z-19.632 I0.094 J-0.303
X-26.572 Y21.003 Z-19.543 I0.132 J-0.289
G0 Z5
X27.852 Y17.11
Z1.913
G3 X27.87 Y17.118 Z1.804 I-0.622 J1.374 F350.5
X27.919 Y17.142 Z1.709 I-0.64 J1.366
X27.993 Y17.183 Z1.638 I-0.689 J1.341
X28.081 Y17.238 Z1.6 I-0.763 J1.301
X26.379 Y19.728 Z0.765 I-0.851 J1.245
X28.081 Y17.238 Z-0.071 I0.851 J-1.245
X26.379 Y19.728 Z-0.906 I-0.851 J1.245
X28.081 Y17.238 Z-1.742 I0.851 J-1.245
X28.738 Y18.483 Z-2 I-0.851 J1.245
X28.578 I-0.08
X31.754 I1.588
X25.562 I-3.096
X31.754 I3.096
G2 X32.833 Y20.333 I2.125
G3 X33.121 Y22.454 I-0.662 J1.171
G1 X32.409 Y23.167
X31.253 Y23.894
X29.973 Y24.337
X28.641 Y24.484
X27.342 Y24.337
X26.069 Y23.896
X25.883 Y23.784
X24.907 Y23.168
X23.976 Y22.237
X23.244 Y21.072
X22.804 Y19.806
X22.656 Y18.491
X22.691 Y18.163
X22.812 Y17.128
X23.261 Y15.86
X23.966 Y14.74
X24.932 Y13.779
X26.042 Y13.082
X27.312 Y12.635
X28.641 Y12.483
X30.005 Y12.635
X31.246 Y13.07
X32.388 Y13.783
X33.346 Y14.737
X34.057 Y15.866
X34.509 Y17.15
X34.659 Y18.492
X34.508 Y19.821
X34.065 Y21.087
X33.343 Y22.232
X33.121 Y22.454
G3 X30.748 Y20.636 Z-2.756 I-1.066 J-1.066
G1 X31.553 Y19.235 Z-3.038
G2 X28.939 Y17.731 Z-3.863 I-1.307 J-0.752
X28.738 Y18.483 Z-4 I1.307 J0.752
G3 X28.578 I-0.08
X31.754 I1.588
X25.562 I-3.096
X31.754 I3.096
G2 X32.833 Y20.333 I2.125
G3 X33.121 Y22.454 I-0.662 J1.171
G1 X32.409 Y23.167
X31.253 Y23.894
X29.973 Y24.337
X28.641 Y24.484
X27.342 Y24.337
X26.069 Y23.896
X25.883 Y23.784
X24.907 Y23.168
X23.976 Y22.237
X23.244 Y21.072
X22.804 Y19.806
X22.656 Y18.491
X22.691 Y18.163
X22.812 Y17.128
X23.261 Y15.86
X23.966 Y14.74
X24.932 Y13.779
X26.042 Y13.082
X27.312 Y12.635
X28.641 Y12.483
X30.005 Y12.635
X31.246 Y13.07
X32.388 Y13.783
X33.346 Y14.737
X34.057 Y15.866
X34.509 Y17.15
X34.659 Y18.492
X34.508 Y19.821
X34.065 Y21.087
X33.343 Y22.232
X33.121 Y22.454
G3 X30.748 Y20.636 Z-4.756 I-1.066 J-1.066
G1 X31.553 Y19.235 Z-5.038
G2 X28.939 Y17.731 Z-5.863 I-1.307 J-0.752
X28.738 Y18.483 Z-6 I1.307 J0.752
G3 X28.578 I-0.08
X31.754 I1.588
X25.562 I-3.096
X31.754 I3.096
G2 X32.833 Y20.333 I2.125
G3 X33.121 Y22.454 I-0.662 J1.171
G1 X32.409 Y23.167
X31.253 Y23.894
X29.973 Y24.337
X28.641 Y24.484
X27.342 Y24.337
X26.069 Y23.896
X25.883 Y23.784
X24.907 Y23.168
X23.976 Y22.237
X23.244 Y21.072
X22.804 Y19.806
X22.656 Y18.491
X22.691 Y18.163
X22.812 Y17.128
X23.261 Y15.86
X23.966 Y14.74
X24.932 Y13.779
X26.042 Y13.082
X27.312 Y12.635
X28.641 Y12.483
X30.005 Y12.635
X31.246 Y13.07
X32.388 Y13.783
X33.346 Y14.737
X34.057 Y15.866
X34.509 Y17.15
X34.659 Y18.492
X34.508 Y19.821
X34.065 Y21.087
X33.343 Y22.232
X33.121 Y22.454
G3 X30.748 Y20.636 Z-6.756 I-1.066 J-1.066
G1 X31.553 Y19.235 Z-7.038
G2 X28.939 Y17.731 Z-7.863 I-1.307 J-0.752
X28.738 Y18.483 Z-8 I1.307 J0.752
G3 X28.578 I-0.08
X31.754 I1.588
X25.562 I-3.096
X31.754 I3.096
G2 X32.833 Y20.333 I2.125
G3 X33.121 Y22.454 I-0.662 J1.171
G1 X32.409 Y23.167
X31.253 Y23.894
X29.973 Y24.337
X28.641 Y24.484
X27.342 Y24.337
X26.069 Y23.896
X25.883 Y23.784
X24.907 Y23.168
X23.976 Y22.237
X23.244 Y21.072
X22.804 Y19.806
X22.656 Y18.491
X22.691 Y18.163
X22.812 Y17.128
X23.261 Y15.86
X23.966 Y14.74
X24.932 Y13.779
X26.042 Y13.082
X27.312 Y12.635
X28.641 Y12.483
X30.005 Y12.635
X31.246 Y13.07
X32.388 Y13.783
X33.346 Y14.737
X34.057 Y15.866
X34.509 Y17.15
X34.659 Y18.492
X34.508 Y19.821
X34.065 Y21.087
X33.343 Y22.232
X33.121 Y22.454
G3 X30.748 Y20.636 Z-8.756 I-1.066 J-1.066
G1 X31.553 Y19.235 Z-9.038
G2 X28.939 Y17.731 Z-9.863 I-1.307 J-0.752
X28.738 Y18.483 Z-10 I1.307 J0.752
G3 X28.578 I-0.08
X31.754 I1.588
X25.562 I-3.096
X31.754 I3.096
G2 X32.833 Y20.333 I2.125
G3 X33.121 Y22.454 I-0.662 J1.171
G1 X32.409 Y23.167
X31.253 Y23.894
X29.973 Y24.337
X28.641 Y24.484
X27.342 Y24.337
X26.069 Y23.896
X25.883 Y23.784
X24.907 Y23.168
X23.976 Y22.237
X23.244 Y21.072
X22.804 Y19.806
X22.656 Y18.491
X22.691 Y18.163
X22.812 Y17.128
X23.261 Y15.86
X23.966 Y14.74
X24.932 Y13.779
X26.042 Y13.082
X27.312 Y12.635
X28.641 Y12.483
X30.005 Y12.635
X31.246 Y13.07
X32.388 Y13.783
X33.346 Y14.737
X34.057 Y15.866
X34.509 Y17.15
X34.659 Y18.492
X34.508 Y19.821
X34.065 Y21.087
X33.343 Y22.232
X33.121 Y22.454
G3 X32.888 Y22.444 I-0.112 J-0.112
G1 X30.139 Y19.189
G2 X29.929 Y19.16 I-0.121 J0.102
G3 X28.24 Y16.661 Z-10.835 I-0.844 J-1.25
X29.929 Y19.16 Z-11.671 I0.844 J1.25
X28.18 Y19.117 Z-12 I-0.844 J-1.25
X29.133 Y17.847 I0.476 J-0.635
X28.18 Y19.117 I-0.476 J0.635
G2 X26.816 Y18.678 I-1.32 J1.761
G3 X25.947 Y17.539 I-0.017 J-0.888
G1 X26.022 Y17.282
X26.477 Y16.579
X27.1 Y16.043
X27.851 Y15.703
X28.642 Y15.589
X29.463 Y15.703
X30.219 Y16.045
X30.846 Y16.587
X31.292 Y17.28
X31.52 Y18.057
X31.524 Y18.883
X31.447 Y19.158
X31.292 Y19.686
X30.854 Y20.367
X30.654 Y20.546
X30.234 Y20.91
X29.485 Y21.256
X28.642 Y21.376
X27.831 Y21.257
X27.081 Y20.91
X26.469 Y20.38
X26.029 Y19.696
X25.993 Y19.583
X25.791 Y18.897
Y18.071
X25.947 Y17.539
G3 X26.073 Y17.427 I0.152 J0.045
G1 X28.358 Y17.05
G3 X28.435 Y17.057 I0.026 J0.157
X27.449 Y19.907 Z-12.835 I-0.493 J1.425
X28.435 Y17.057 Z-13.671 I0.493 J-1.425
X29.45 Y18.482 Z-14 I-0.493 J1.425
X27.862 I-0.794
X29.45 I0.794
G2 X30.105 Y19.662 I1.392
G3 X30.02 Y21.009 I-0.407 J0.65
G1 X29.485 Y21.256
X28.642 Y21.376
X27.831 Y21.257
X27.081 Y20.91
X26.469 Y20.38
X26.029 Y19.696
X25.993 Y19.583
X25.791 Y18.897
Y18.071
X26.022 Y17.282
X26.477 Y16.579
X27.1 Y16.043
X27.851 Y15.703
X28.642 Y15.589
X29.463 Y15.703
X30.219 Y16.045
X30.846 Y16.587
X31.292 Y17.28
X31.52 Y18.057
X31.524 Y18.883
X31.447 Y19.158
X31.292 Y19.686
X30.854 Y20.367
X30.654 Y20.546
X30.234 Y20.91
X30.02 Y21.009
G3 X29.807 Y20.928 I-0.067 J-0.144
G1 X28.238 Y17.269
G3 X28.435 Y17.057 I0.146 J-0.063
X27.449 Y19.907 Z-14.835 I-0.493 J1.425
X28.435 Y17.057 Z-15.671 I0.493 J-1.425
X29.45 Y18.482 Z-16 I-0.493 J1.425
X27.862 I-0.794
X29.45 I0.794
G2 X30.105 Y19.662 I1.392
G3 X30.02 Y21.009 I-0.407 J0.65
G1 X29.485 Y21.256
X28.642 Y21.376
X27.831 Y21.257
X27.081 Y20.91
X26.469 Y20.38
X26.029 Y19.696
X25.993 Y19.583
X25.791 Y18.897
Y18.071
X26.022 Y17.282
X26.477 Y16.579
X27.1 Y16.043
X27.851 Y15.703
X28.642 Y15.589
X29.463 Y15.703
X30.219 Y16.045
X30.846 Y16.587
X31.292 Y17.28
X31.52 Y18.057
X31.524 Y18.883
X31.447 Y19.158
X31.292 Y19.686
X30.854 Y20.367
X30.654 Y20.546
X30.234 Y20.91
X30.02 Y21.009
G3 X29.807 Y20.928 I-0.067 J-0.144
G1 X28.238 Y17.269
G3 X28.435 Y17.057 I0.146 J-0.063
X27.449 Y19.907 Z-16.835 I-0.493 J1.425
X28.435 Y17.057 Z-17.671 I0.493 J-1.425
X29.45 Y18.482 Z-18 I-0.493 J1.425
X27.862 I-0.794
X29.45 I0.794
G2 X30.105 Y19.662 I1.392
G3 X30.02 Y21.009 I-0.407 J0.65
G1 X29.485 Y21.256
X28.642 Y21.376
X27.831 Y21.257
X27.081 Y20.91
X26.469 Y20.38
X26.029 Y19.696
X25.993 Y19.583
X25.791 Y18.897
Y18.071
X26.022 Y17.282
X26.477 Y16.579
X27.1 Y16.043
X27.851 Y15.703
X28.642 Y15.589
X29.463 Y15.703
X30.219 Y16.045
X30.846 Y16.587
X31.292 Y17.28
X31.52 Y18.057
X31.524 Y18.883
X31.447 Y19.158
X31.292 Y19.686
X30.854 Y20.367
X30.654 Y20.546
X30.234 Y20.91
X30.02 Y21.009
G3 X29.8 Y20.909 I-0.067 J-0.144
G1 X28.903 Y17.764
G3 X29.187 Y17.63 I0.153 J-0.044
X26.698 Y19.334 Z-18.835 I-1.245 J0.852
X29.187 Y17.63 Z-19.671 I1.245 J-0.852
X29.45 Y18.482 Z-19.83 I-1.245 J0.852
X27.862 I-0.794
X29.45 I0.794
G2 X30.105 Y19.662 I1.392
G3 X30.02 Y21.009 I-0.407 J0.65
G1 X29.485 Y21.256
X28.642 Y21.376
X27.831 Y21.257
X27.081 Y20.91
X26.469 Y20.38
X26.029 Y19.696
X25.993 Y19.583
X25.791 Y18.897
Y18.071
X26.022 Y17.282
X26.477 Y16.579
X27.1 Y16.043
X27.851 Y15.703
X28.642 Y15.589
X29.463 Y15.703
X30.219 Y16.045
X30.846 Y16.587
X31.292 Y17.28
X31.52 Y18.057
X31.524 Y18.883
X31.447 Y19.158
X31.292 Y19.686
X30.854 Y20.367
X30.654 Y20.546
X30.234 Y20.91
X30.02 Y21.009
G3 X29.935 Y21.035 Z-19.816 I-0.133 J-0.288
X29.855 Y21.037 Z-19.775 I-0.048 J-0.314
X29.793 Y21.024 Z-19.712 I0.032 J-0.316
X29.754 Y21.01 Z-19.632 I0.094 J-0.303
X29.742 Y21.004 Z-19.543 I0.132 J-0.289
G0 Z15

(Drill3)
M8
X37.5 Y-17.125
Z10
X40.396
Z5
G1 Z0 F350.5
G3 X34.604 Z-1 I-2.896
X40.396 Z-2 I2.896
X34.604 Z-3 I-2.896
X40.396 Z-4 I2.896
X34.604 Z-5 I-2.896
X40.396 Z-6 I2.896
X34.604 Z-7 I-2.896
X40.396 Z-8 I2.896
X34.604 Z-9 I-2.896
X40.396 Z-10 I2.896
X34.604 I-2.896
X40.396 I2.896
X37.5 I-1.448
G0 Z5
X43.413
G1 Z0 F350.5
G3 X31.587 Z-1 I-5.913
X43.413 Z-2 I5.913
X31.587 Z-3 I-5.913
X43.413 Z-4 I5.913
X31.587 Z-5 I-5.913
X43.413 Z-6 I5.913
X31.587 Z-7 I-5.913
X43.413 Z-8 I5.913
X31.587 Z-9 I-5.913
X43.413 Z-10 I5.913
X31.587 I-5.913
X43.413 I5.913
X37.5 I-2.956
G0 Z5
X10.396
G1 Z0 F350.5
G3 X4.604 Z-1 I-2.896
X10.396 Z-2 I2.896
X4.604 Z-3 I-2.896
X10.396 Z-4 I2.896
X4.604 Z-5 I-2.896
X10.396 Z-6 I2.896
X4.604 Z-7 I-2.896
X10.396 Z-8 I2.896
X4.604 Z-9 I-2.896
X10.396 Z-10 I2.896
X4.604 I-2.896
X10.396 I2.896
X7.5 I-1.448
G0 Z5
X13.412
G1 Z0 F350.5
G3 X1.588 Z-1 I-5.912
X13.412 Z-2 I5.912
X1.588 Z-3 I-5.912
X13.412 Z-4 I5.912
X1.588 Z-5 I-5.912
X13.412 Z-6 I5.912
X1.588 Z-7 I-5.912
X13.412 Z-8 I5.912
X1.588 Z-9 I-5.912
X13.412 Z-10 I5.912
X1.588 I-5.912
X13.412 I5.912
X7.5 I-2.956
G0 Z5
X-5.604 Y-18.625
G1 Z0 F350.5
G3 X-11.396 Z-1 I-2.896
X-5.604 Z-2 I2.896
X-11.396 Z-3 I-2.896
X-5.604 Z-4 I2.896
X-11.396 Z-5 I-2.896
X-5.604 Z-6 I2.896
X-11.396 Z-7 I-2.896
X-5.604 Z-8 I2.896
X-11.396 Z-9 I-2.896
X-5.604 Z-10 I2.896
X-11.396 I-2.896
X-5.604 I2.896
X-8.5 I-1.448
G0 Z5
X-2.588
G1 Z0 F350.5
G3 X-14.412 Z-1 I-5.912
X-2.588 Z-2 I5.912
X-14.412 Z-3 I-5.912
X-2.588 Z-4 I5.912
X-14.412 Z-5 I-5.912
X-2.588 Z-6 I5.912
X-14.412 Z-7 I-5.912
X-2.588 Z-8 I5.912
X-14.412 Z-9 I-5.912
X-2.588 Z-10 I5.912
X-14.412 I-5.912
X-2.588 I5.912
X-8.5 I-2.956
G0 Z5
X-35.604
G1 Z0 F350.5
G3 X-41.396 Z-1 I-2.896
X-35.604 Z-2 I2.896
X-41.396 Z-3 I-2.896
X-35.604 Z-4 I2.896
X-41.396 Z-5 I-2.896
X-35.604 Z-6 I2.896
X-41.396 Z-7 I-2.896
X-35.604 Z-8 I2.896
X-41.396 Z-9 I-2.896
X-35.604 Z-10 I2.896
X-41.396 I-2.896
X-35.604 I2.896
X-38.5 I-1.448
G0 Z5
X-32.587
G1 Z0 F350.5
G3 X-44.413 Z-1 I-5.913
X-32.587 Z-2 I5.913
X-44.413 Z-3 I-5.913
X-32.587 Z-4 I5.913
X-44.413 Z-5 I-5.913
X-32.587 Z-6 I5.913
X-44.413 Z-7 I-5.913
X-32.587 Z-8 I5.913
X-44.413 Z-9 I-5.913
X-32.587 Z-10 I5.913
X-44.413 I-5.913
X-32.587 I5.913
X-38.5 I-2.956
G0 Z5
X-35.604 Y-48.625
G1 Z0 F350.5
G3 X-41.396 Z-1 I-2.896
X-35.604 Z-2 I2.896
X-41.396 Z-3 I-2.896
X-35.604 Z-4 I2.896
X-41.396 Z-5 I-2.896
X-35.604 Z-6 I2.896
X-41.396 Z-7 I-2.896
X-35.604 Z-8 I2.896
X-41.396 Z-9 I-2.896
X-35.604 Z-10 I2.896
X-41.396 I-2.896
X-35.604 I2.896
X-38.5 I-1.448
G0 Z5
X-32.587
G1 Z0 F350.5
G3 X-44.413 Z-1 I-5.913
X-32.587 Z-2 I5.913
X-44.413 Z-3 I-5.913
X-32.587 Z-4 I5.913
X-44.413 Z-5 I-5.913
X-32.587 Z-6 I5.913
X-44.413 Z-7 I-5.913
X-32.587 Z-8 I5.913
X-44.413 Z-9 I-5.913
X-32.587 Z-10 I5.913
X-44.413 I-5.913
X-32.587 I5.913
X-38.5 I-2.956
G0 Z5
X-5.604
G1 Z0 F350.5
G3 X-11.396 Z-1 I-2.896
X-5.604 Z-2 I2.896
X-11.396 Z-3 I-2.896
X-5.604 Z-4 I2.896
X-11.396 Z-5 I-2.896
X-5.604 Z-6 I2.896
X-11.396 Z-7 I-2.896
X-5.604 Z-8 I2.896
X-11.396 Z-9 I-2.896
X-5.604 Z-10 I2.896
X-11.396 I-2.896
X-5.604 I2.896
X-8.5 I-1.448
G0 Z5
X-2.588
G1 Z0 F350.5
G3 X-14.412 Z-1 I-5.912
X-2.588 Z-2 I5.912
X-14.412 Z-3 I-5.912
X-2.588 Z-4 I5.912
X-14.412 Z-5 I-5.912
X-2.588 Z-6 I5.912
X-14.412 Z-7 I-5.912
X-2.588 Z-8 I5.912
X-14.412 Z-9 I-5.912
X-2.588 Z-10 I5.912
X-14.412 I-5.912
X-2.588 I5.912
X-8.5 I-2.956
G0 Z5
X10.396 Y-47.125
G1 Z0 F350.5
G3 X4.604 Z-1 I-2.896
X10.396 Z-2 I2.896
X4.604 Z-3 I-2.896
X10.396 Z-4 I2.896
X4.604 Z-5 I-2.896
X10.396 Z-6 I2.896
X4.604 Z-7 I-2.896
X10.396 Z-8 I2.896
X4.604 Z-9 I-2.896
X10.396 Z-10 I2.896
X4.604 I-2.896
X10.396 I2.896
X7.5 I-1.448
G0 Z5
X13.412
G1 Z0 F350.5
G3 X1.588 Z-1 I-5.912
X13.412 Z-2 I5.912
X1.588 Z-3 I-5.912
X13.412 Z-4 I5.912
X1.588 Z-5 I-5.912
X13.412 Z-6 I5.912
X1.588 Z-7 I-5.912
X13.412 Z-8 I5.912
X1.588 Z-9 I-5.912
X13.412 Z-10 I5.912
X1.588 I-5.912
X13.412 I5.912
X7.5 I-2.956
G0 Z5
X40.396
G1 Z0 F350.5
G3 X34.604 Z-1 I-2.896
X40.396 Z-2 I2.896
X34.604 Z-3 I-2.896
X40.396 Z-4 I2.896
X34.604 Z-5 I-2.896
X40.396 Z-6 I2.896
X34.604 Z-7 I-2.896
X40.396 Z-8 I2.896
X34.604 Z-9 I-2.896
X40.396 Z-10 I2.896
X34.604 I-2.896
X40.396 I2.896
X37.5 I-1.448
G0 Z5
X43.413
G1 Z0 F350.5
G3 X31.587 Z-1 I-5.913
X43.413 Z-2 I5.913
X31.587 Z-3 I-5.913
X43.413 Z-4 I5.913
X31.587 Z-5 I-5.913
X43.413 Z-6 I5.913
X31.587 Z-7 I-5.913
X43.413 Z-8 I5.913
X31.587 Z-9 I-5.913
X43.413 Z-10 I5.913
X31.587 I-5.913
X43.413 I5.913
X37.5 I-2.956
G0 Z5
Z10

(2D Contour2)
M8
X38.423 Y24.108
Z10
Z5
G1 Z3 F762
Z2.5
X44.949 Y9.523 Z-0.317 F350.5
G2 X45.088 Y8.875 Z-0.435 I-1.449 J-0.648
G1 Y0 Z-2
Y-56.125
G2 X43.5 Y-57.713 I-1.588
G1 X-43.5
G2 X-45.088 Y-56.125 J1.588
G1 Y8.875
G2 X-44.914 Y9.597 I1.588
G1 X-20.77 Y56.847
G2 X-19.356 Y57.713 I1.414 J-0.722
G1 X22.356
G2 X23.805 Y56.773 J-1.588
G1 X44.949 Y9.523
G2 X45.088 Y8.875 I-1.449 J-0.648
G1 Y0
Y-56.125 Z-3.908
G2 X43.5 Y-57.713 Z-3.993 I-1.588
G1 X43.298 Z-4
X-43.5
G2 X-45.088 Y-56.125 J1.588
G1 Y8.875
G2 X-44.914 Y9.597 I1.588
G1 X-20.77 Y56.847
G2 X-19.356 Y57.713 I1.414 J-0.722
G1 X22.356
G2 X23.805 Y56.773 J-1.588
G1 X44.949 Y9.523
G2 X45.088 Y8.875 I-1.449 J-0.648
G1 Y-56.125
G2 X43.5 Y-57.713 I-1.588
G1 X43.298
X-15.523 Z-6
X-43.5
G2 X-45.088 Y-56.125 J1.588
G1 Y8.875
G2 X-44.914 Y9.597 I1.588
G1 X-20.77 Y56.847
G2 X-19.356 Y57.713 I1.414 J-0.722
G1 X22.356
G2 X23.805 Y56.773 J-1.588
G1 X44.949 Y9.523
G2 X45.088 Y8.875 I-1.449 J-0.648
G1 Y-56.125
G2 X43.5 Y-57.713 I-1.588
G1 X-15.523
X-43.5 Z-6.951
G2 X-45.088 Y-56.125 Z-7.036 J1.588
G1 Y-27.774 Z-8
Y8.875
G2 X-44.914 Y9.597 I1.588
G1 X-20.77 Y56.847
G2 X-19.356 Y57.713 I1.414 J-0.722
G1 X22.356
G2 X23.805 Y56.773 J-1.588
G1 X44.949 Y9.523
G2 X45.088 Y8.875 I-1.449 J-0.648
G1 Y-56.125
G2 X43.5 Y-57.713 I-1.588
G1 X-15.523
X-43.5
G2 X-45.088 Y-56.125 J1.588
G1 Y-27.774
Y8.875 Z-9.246
G2 X-44.914 Y9.597 Z-9.272 I1.588
G1 X-35.166 Y28.673 Z-10
X-20.77 Y56.847
G2 X-19.356 Y57.713 I1.414 J-0.722
G1 X22.356
G2 X23.805 Y56.773 J-1.588
G1 X44.949 Y9.523
G2 X45.088 Y8.875 I-1.449 J-0.648
G1 Y-56.125
G2 X43.5 Y-57.713 I-1.588
G1 X-43.5
G2 X-45.088 Y-56.125 J1.588
G1 Y8.875
G2 X-44.914 Y9.597 I1.588
G1 X-35.166 Y28.673
X-20.77 Y56.847 Z-11.076
G2 X-19.356 Y57.713 Z-11.135 I1.414 J-0.722
G1 X6.082 Z-12
X22.356
G2 X23.805 Y56.773 J-1.588
G1 X44.949 Y9.523
G2 X45.088 Y8.875 I-1.449 J-0.648
G1 Y-56.125
G2 X43.5 Y-57.713 I-1.588
G1 X-43.5
G2 X-45.088 Y-56.125 J1.588
G1 Y8.875
G2 X-44.914 Y9.597 I1.588
G1 X-20.77 Y56.847
G2 X-19.356 Y57.713 I1.414 J-0.722
G1 X6.082
X22.356 Z-12.553
G2 X23.805 Y56.773 Z-12.615 J-1.588
G1 X40.438 Y19.605 Z-14
X44.949 Y9.523
G2 X45.088 Y8.875 I-1.449 J-0.648
G1 Y-56.125
G2 X43.5 Y-57.713 I-1.588
G1 X-43.5
G2 X-45.088 Y-56.125 J1.588
G1 Y8.875
G2 X-44.914 Y9.597 I1.588
G1 X-20.77 Y56.847
G2 X-19.356 Y57.713 I1.414 J-0.722
G1 X6.082
X22.356
G2 X23.805 Y56.773 J-1.588
G1 X40.438 Y19.605
X44.949 Y9.523 Z-14.376
G2 X45.088 Y8.875 Z-14.398 I-1.449 J-0.648
G1 Y-38.234 Z-16
Y-56.125
G2 X43.5 Y-57.713 I-1.588
G1 X-43.5
G2 X-45.088 Y-56.125 J1.588
G1 Y8.875
G2 X-44.914 Y9.597 I1.588
G1 X-20.77 Y56.847
G2 X-19.356 Y57.713 I1.414 J-0.722
G1 X22.356
G2 X23.805 Y56.773 J-1.588
G1 X40.438 Y19.605
X44.949 Y9.523
G2 X45.088 Y8.875 I-1.449 J-0.648
G1 Y-38.234
Y-56.125 Z-16.608
G2 X43.5 Y-57.713 Z-16.693 I-1.588
G1 X5.064 Z-18
X-43.5
G2 X-45.088 Y-56.125 J1.588
G1 Y8.875
G2 X-44.914 Y9.597 I1.588
G1 X-20.77 Y56.847
G2 X-19.356 Y57.713 I1.414 J-0.722
G1 X22.356
G2 X23.805 Y56.773 J-1.588
G1 X44.949 Y9.523
G2 X45.088 Y8.875 I-1.449 J-0.648
G1 Y-38.234
Y-56.125
G2 X43.5 Y-57.713 I-1.588
G1 X5.064
X-43.5 Z-19.651
G2 X-45.088 Y-56.125 Z-19.736 J1.588
G1 Y-53.35 Z-19.83
Y8.875
G2 X-44.914 Y9.597 I1.588
G1 X-20.77 Y56.847
G2 X-19.356 Y57.713 I1.414 J-0.722
G1 X22.356
G2 X23.805 Y56.773 J-1.588
G1 X44.949 Y9.523
G2 X45.088 Y8.875 I-1.449 J-0.648
G1 Y-56.125
G2 X43.5 Y-57.713 I-1.588
G1 X-43.5
G2 X-45.088 Y-56.125 J1.588
G1 Y-53.35
G0 Z10
M9
M30
%
