(PARTCLAMP_2)
(T1  D=3.175 CR=0. - ZMIN=-8. - FLAT END MILL)
G90 G94 G91.1 G40 G49 G17
G21

(POCKET1)
M5
M9
T1
S10000 M3
G54
M8
G0 X0.042 Y-0.727
G43 Z10. H1
Z2.
G1 Z1.366 F762.
G3 X0.049 Y-0.715 Z1.274 R1.508
X0.067 Y-0.68 Z1.19 R1.508
X0.094 Y-0.624 Z1.121 R1.508
X0.125 Y-0.551 Z1.073 R1.508
X0.155 Y-0.466 Z1.05 R1.508
X-2.713 Y0.466 Z0.55 R1.508
X0.155 Y-0.466 Z0.05 R1.508
X-2.713 Y0.466 Z-0.45 R1.508
X0.155 Y-0.466 Z-0.95 R1.508
X0.229 Y0. Z-1. R1.508
X-0.229 R0.229
X3.245 R1.737
X-3.245 R3.245
X3.245 R3.245
G2 X4.32 Y1.838 R2.109
G3 X4.676 Y3.937 R1.37
G1 X4.088 Y4.604
X2.862 Y5.453
X1.489 Y5.973
X-0.008 Y6.157
X-1.493 Y5.972
X-2.862 Y5.453
X-4.07 Y4.619
X-5.059 Y3.509
X-5.76 Y2.174
X-6.113 Y0.728
X-6.108 Y-0.762
X-5.944 Y-1.429
X-5.752 Y-2.195
X-5.058 Y-3.51
X-4.068 Y-4.62
X-2.857 Y-5.455
X-1.458 Y-5.981
X-0.008 Y-6.157
X1.484 Y-5.975
X2.877 Y-5.442
X4.088 Y-4.605
X5.075 Y-3.486
X5.759 Y-2.18
X6.113 Y-0.73
X6.109 Y0.76
X5.748 Y2.202
X5.075 Y3.484
X4.676 Y3.937
G3 X2.23 Y2.201 Z-1.381 R1.508
G1 X3.052 Y0.739 Z-1.525
G2 X0.422 Y-0.739 Z-1.933 R1.508
X0.229 Y0. Z-2. R1.508
G3 X-0.229 R0.229
X3.245 R1.737
X-3.245 R3.245
X3.245 R3.245
G2 X4.32 Y1.838 R2.109
G3 X4.676 Y3.937 R1.37
G1 X4.088 Y4.604
X2.862 Y5.453
X1.489 Y5.973
X-0.008 Y6.157
X-1.493 Y5.972
X-2.862 Y5.453
X-4.07 Y4.619
X-5.059 Y3.509
X-5.76 Y2.174
X-6.113 Y0.728
X-6.108 Y-0.762
X-5.944 Y-1.429
X-5.752 Y-2.195
X-5.058 Y-3.51
X-4.068 Y-4.62
X-2.857 Y-5.455
X-1.458 Y-5.981
X-0.008 Y-6.157
X1.484 Y-5.975
X2.877 Y-5.442
X4.088 Y-4.605
X5.075 Y-3.486
X5.759 Y-2.18
X6.113 Y-0.73
X6.109 Y0.76
X5.748 Y2.202
X5.075 Y3.484
X4.676 Y3.937
G3 X2.23 Y2.201 Z-2.381 R1.508
G1 X3.052 Y0.739 Z-2.525
G2 X0.422 Y-0.739 Z-2.933 R1.508
X0.229 Y0. Z-3. R1.508
G3 X-0.229 R0.229
X3.245 R1.737
X-3.245 R3.245
X3.245 R3.245
G2 X4.32 Y1.838 R2.109
G3 X4.676 Y3.937 R1.37
G1 X4.088 Y4.604
X2.862 Y5.453
X1.489 Y5.973
X-0.008 Y6.157
X-1.493 Y5.972
X-2.862 Y5.453
X-4.07 Y4.619
X-5.059 Y3.509
X-5.76 Y2.174
X-6.113 Y0.728
X-6.108 Y-0.762
X-5.944 Y-1.429
X-5.752 Y-2.195
X-5.058 Y-3.51
X-4.068 Y-4.62
X-2.857 Y-5.455
X-1.458 Y-5.981
X-0.008 Y-6.157
X1.484 Y-5.975
X2.877 Y-5.442
X4.088 Y-4.605
X5.075 Y-3.486
X5.759 Y-2.18
X6.113 Y-0.73
X6.109 Y0.76
X5.748 Y2.202
X5.075 Y3.484
X4.676 Y3.937
G3 X2.23 Y2.201 Z-3.381 R1.508
G1 X3.052 Y0.739 Z-3.525
G2 X0.422 Y-0.739 Z-3.933 R1.508
X0.229 Y0. Z-4. R1.508
G3 X-0.229 R0.229
X3.245 R1.737
X-3.245 R3.245
X3.245 R3.245
G2 X4.32 Y1.838 R2.109
G3 X4.676 Y3.937 R1.37
G1 X4.088 Y4.604
X2.862 Y5.453
X1.489 Y5.973
X-0.008 Y6.157
X-1.493 Y5.972
X-2.862 Y5.453
X-4.07 Y4.619
X-5.059 Y3.509
X-5.76 Y2.174
X-6.113 Y0.728
X-6.108 Y-0.762
X-5.944 Y-1.429
X-5.752 Y-2.195
X-5.058 Y-3.51
X-4.068 Y-4.62
X-2.857 Y-5.455
X-1.458 Y-5.981
X-0.008 Y-6.157
X1.484 Y-5.975
X2.877 Y-5.442
X4.088 Y-4.605
X5.075 Y-3.486
X5.759 Y-2.18
X6.113 Y-0.73
X6.109 Y0.76
X5.748 Y2.202
X5.075 Y3.484
X4.676 Y3.937
G3 X2.23 Y2.201 Z-4.381 R1.508
G1 X3.052 Y0.739 Z-4.525
G2 X0.422 Y-0.739 Z-4.933 R1.508
X0.229 Y0. Z-5. R1.508
G3 X-0.229 R0.229
X3.245 R1.737
X-3.245 R3.245
X3.245 R3.245
G2 X4.32 Y1.838 R2.109
G3 X4.676 Y3.937 R1.37
G1 X4.088 Y4.604
X2.862 Y5.453
X1.489 Y5.973
X-0.008 Y6.157
X-1.493 Y5.972
X-2.862 Y5.453
X-4.07 Y4.619
X-5.059 Y3.509
X-5.76 Y2.174
X-6.113 Y0.728
X-6.108 Y-0.762
X-5.944 Y-1.429
X-5.752 Y-2.195
X-5.058 Y-3.51
X-4.068 Y-4.62
X-2.857 Y-5.455
X-1.458 Y-5.981
X-0.008 Y-6.157
X1.484 Y-5.975
X2.877 Y-5.442
X4.088 Y-4.605
X5.075 Y-3.486
X5.759 Y-2.18
X6.113 Y-0.73
X6.109 Y0.76
X5.748 Y2.202
X5.075 Y3.484
X4.676 Y3.937
G3 X2.23 Y2.201 Z-5.381 R1.508
G1 X3.052 Y0.739 Z-5.525
G2 X0.422 Y-0.739 Z-5.933 R1.508
X0.229 Y0. Z-6. R1.508
G3 X-0.229 R0.229
X3.245 R1.737
X-3.245 R3.245
X3.245 R3.245
G2 X4.32 Y1.838 R2.109
G3 X4.676 Y3.937 R1.37
G1 X4.088 Y4.604
X2.862 Y5.453
X1.489 Y5.973
X-0.008 Y6.157
X-1.493 Y5.972
X-2.862 Y5.453
X-4.07 Y4.619
X-5.059 Y3.509
X-5.76 Y2.174
X-6.113 Y0.728
X-6.108 Y-0.762
X-5.944 Y-1.429
X-5.752 Y-2.195
X-5.058 Y-3.51
X-4.068 Y-4.62
X-2.857 Y-5.455
X-1.458 Y-5.981
X-0.008 Y-6.157
X1.484 Y-5.975
X2.877 Y-5.442
X4.088 Y-4.605
X5.075 Y-3.486
X5.759 Y-2.18
X6.113 Y-0.73
X6.109 Y0.76
X5.748 Y2.202
X5.075 Y3.484
X4.676 Y3.937
G3 X2.23 Y2.201 Z-6.381 R1.508
G1 X3.052 Y0.739 Z-6.525
G2 X0.422 Y-0.739 Z-6.933 R1.508
X0.229 Y0. Z-7. R1.508
G3 X-0.229 R0.229
X3.245 R1.737
X-3.245 R3.245
X3.245 R3.245
G2 X4.32 Y1.838 R2.109
G3 X4.676 Y3.937 R1.37
G1 X4.088 Y4.604
X2.862 Y5.453
X1.489 Y5.973
X-0.008 Y6.157
X-1.493 Y5.972
X-2.862 Y5.453
X-4.07 Y4.619
X-5.059 Y3.509
X-5.76 Y2.174
X-6.113 Y0.728
X-6.108 Y-0.762
X-5.944 Y-1.429
X-5.752 Y-2.195
X-5.058 Y-3.51
X-4.068 Y-4.62
X-2.857 Y-5.455
X-1.458 Y-5.981
X-0.008 Y-6.157
X1.484 Y-5.975
X2.877 Y-5.442
X4.088 Y-4.605
X5.075 Y-3.486
X5.759 Y-2.18
X6.113 Y-0.73
X6.109 Y0.76
X5.748 Y2.202
X5.075 Y3.484
X4.676 Y3.937
G3 X2.23 Y2.201 Z-7.381 R1.508
G1 X3.052 Y0.739 Z-7.525
G2 X0.422 Y-0.739 Z-7.933 R1.508
X0.229 Y0. Z-8. R1.508
G3 X-0.229 R0.229
X3.245 R1.737
X-3.245 R3.245
X3.245 R3.245
G2 X4.32 Y1.838 R2.109
G3 X4.676 Y3.937 R1.37
G1 X4.088 Y4.604
X2.862 Y5.453
X1.489 Y5.973
X-0.008 Y6.157
X-1.493 Y5.972
X-2.862 Y5.453
X-4.07 Y4.619
X-5.059 Y3.509
X-5.76 Y2.174
X-6.113 Y0.728
X-6.108 Y-0.762
X-5.944 Y-1.429
X-5.752 Y-2.195
X-5.058 Y-3.51
X-4.068 Y-4.62
X-2.857 Y-5.455
X-1.458 Y-5.981
X-0.008 Y-6.157
X1.484 Y-5.975
X2.877 Y-5.442
X4.088 Y-4.605
X5.075 Y-3.486
X5.759 Y-2.18
X6.113 Y-0.73
X6.109 Y0.76
X5.748 Y2.202
X5.075 Y3.484
X4.676 Y3.937
G3 X4.601 Y4. Z-7.984 R0.317
X4.52 Y4.034 Z-7.939 R0.318
X4.45 Y4.045 Z-7.869 R0.317
X4.405 Y4.043 Z-7.781 R0.318
X4.39 Y4.041 Z-7.683 R0.318
G0 Z10.

M9
M30
