(PARTCLAMPBOTTOM)
(T1  D=3.175 CR=0. - ZMIN=-20. - FLAT END MILL)
G90 G94 G91.1 G40 G49 G17
G21

(POCKET1)
M5
M9
T1
S2440 M3
G54
M8
G0 X-0.176 Y11.989
G43 Z10. H1
Z3.
G1 Z2.413 F762.
G2 X-0.195 Y11.991 Z2.304 R1.508 F155.
X-0.249 Y11.999 Z2.209 R1.508
X-0.332 Y12.016 Z2.138 R1.508
X-0.432 Y12.042 Z2.1 R1.508
X0.43 Y14.932 Z1.265 R1.508
X-0.432 Y12.042 Z0.429 R1.508
X0.43 Y14.932 Z-0.406 R1.508
X-0.432 Y12.042 Z-1.242 R1.508
X-0.002 Y14.995 Z-2. R1.508
G1 X14.994 Y14.997
X15. Y-14.966
X14.996 Y-14.996
X-14.994 Y-14.997
X-14.997 Y14.994
X-0.002 Y14.995
G2 X1.764 Y13.818 R1.913
G3 X3.53 Y12.641 R1.913
G1 X11.678
G2 X12.641 Y11.678 R0.963
G1 X12.644 Y-11.678
G2 X11.681 Y-12.641 R0.963
G1 X-11.678
G2 X-12.641 Y-11.678 R0.963
G1 Y11.678
G2 X-11.678 Y12.641 R0.963
G1 X3.53
G2 X5.285 Y11.471 R1.902
G3 X7.041 Y10.3 R1.902
G1 X9.338
G2 X10.301 Y9.337 R0.963
G1 X10.303 Y-9.337
G2 X9.34 Y-10.3 R0.963
G1 X-9.337
G2 X-10.3 Y-9.337 R0.963
G1 Y9.337
G2 X-9.337 Y10.3 R0.963
G1 X7.041
G2 X8.608 Y7.818 R1.736
G3 X7.961 Y4.954 R6.657
G1 X7.962 Y-6.997
G2 X6.999 Y-7.96 R0.963
G1 X-6.997
G2 X-7.96 Y-6.997 R0.963
G1 Y6.997
G2 X-6.997 Y7.96 R0.963
G1 X6.997
G2 X7.961 Y6.997 R0.963
G1 Y4.954
G2 X6.791 Y3.165 R1.951
G3 X5.621 Y1.377 R1.951
G1 Y-4.656
G2 X4.658 Y-5.619 R0.963
G1 X-4.656
G2 X-5.619 Y-4.656 R0.963
G1 Y4.656
G2 X-4.656 Y5.619 R0.963
G1 X4.657
G2 X5.62 Y4.656 R0.963
G1 X5.621 Y1.377
G2 X4.45 Y-0.379 R1.902
G3 X3.28 Y-2.134 R1.902
G1 Y-2.315
G2 X2.317 Y-3.279 R0.963
G1 X-2.315
G2 X-3.279 Y-2.315 R0.963
G1 Y2.315
G2 X-2.315 Y3.279 R0.963
G1 X2.317
G2 X3.28 Y2.315 R0.963
G1 Y-2.134
G2 X0.883 Y-2.697 R1.265
G3 X-0.668 Y-0.785 R5.636
G2 X-0.938 Y-0.228 R0.71
G1 Y0.228
G2 X-0.228 Y0.938 R0.71
G1 X0.23
G2 X0.94 Y0.228 R0.71
G1 Y-0.228
G2 X0.23 Y-0.938 R0.71
G1 X-0.228
G2 X-0.668 Y-0.785 R0.71
X-1.229 Y0.203 Z-2.111 R1.508
G1 X-1.495 Y2.251 Z-2.307
G2 X1.495 Y2.641 Z-2.757 R1.508
X0. Y0.938 Z-3. R1.508
G1 X-0.228
G3 X-0.938 Y0.228 R0.71
G1 Y-0.228
G3 X-0.228 Y-0.938 R0.71
G1 X0.23
G3 X0.94 Y-0.228 R0.71
G1 Y0.228
G3 X0.23 Y0.938 R0.71
G1 X0.
G2 X-1.531 Y1.879 R1.715
G3 X-3.279 Y1.463 R0.924
G1 Y-2.315
G3 X-2.315 Y-3.279 R0.963
G1 X2.317
G3 X3.28 Y-2.315 R0.963
G1 Y2.315
G3 X2.317 Y3.279 R0.963
G1 X-2.315
G3 X-3.279 Y2.315 R0.963
G1 Y1.463
G2 X-4.449 Y-0.293 R1.902
G3 X-5.619 Y-2.048 R1.902
G1 Y-4.656
G3 X-4.656 Y-5.619 R0.963
G1 X4.658
G3 X5.621 Y-4.656 R0.963
G1 X5.62 Y4.656
G3 X4.657 Y5.619 R0.963
G1 X-4.656
G3 X-5.619 Y4.656 R0.963
G1 Y-2.048
G2 X-6.789 Y-3.804 R1.902
G3 X-7.96 Y-5.559 R1.902
G1 Y-6.997
G3 X-6.997 Y-7.96 R0.963
G1 X6.999
G3 X7.962 Y-6.997 R0.963
G1 X7.961 Y6.997
G3 X6.997 Y7.96 R0.963
G1 X-6.997
G3 X-7.96 Y6.997 R0.963
G1 Y-5.559
G2 X-9.13 Y-7.315 R1.902
G3 X-10.3 Y-9.07 R1.902
G1 Y-9.337
G3 X-9.337 Y-10.3 R0.963
G1 X9.34
G3 X10.303 Y-9.337 R0.963
G1 X10.301 Y9.337
G3 X9.338 Y10.3 R0.963
G1 X-9.337
G3 X-10.3 Y9.337 R0.963
G1 Y-9.07
G2 X-11.448 Y-10.686 R1.712
G3 X-11.117 Y-12.641 R1.005
G1 X11.681
G3 X12.644 Y-11.678 R0.963
G1 X12.641 Y11.678
G3 X11.678 Y12.641 R0.963
G1 X-11.678
G3 X-12.641 Y11.678 R0.963
G1 Y-11.678
G3 X-11.678 Y-12.641 R0.963
G1 X-11.117
G2 X-9.352 Y-13.818 R1.912
G3 X-7.588 Y-14.994 R1.912
G1 X14.994 Y-14.997
X15. Y-14.966
X14.997 Y14.993
X-14.994 Y14.997
X-14.997 Y-14.994
X-7.588
G3 X-7.491 Y-14.979 Z-2.984 R0.317
X-7.412 Y-14.941 Z-2.939 R0.318
X-7.358 Y-14.896 Z-2.869 R0.318
X-7.329 Y-14.861 Z-2.781 R0.317
X-7.321 Y-14.848 Z-2.683 R0.318
G0 Z5.
X-0.172 Y3.334
Z3.
G1 Z-0.587 F762.
G3 X-0.191 Y3.332 Z-0.696 R1.508 F155.
X-0.246 Y3.324 Z-0.791 R1.508
X-0.328 Y3.308 Z-0.862 R1.508
X-0.429 Y3.281 Z-0.9 R1.508
X0.434 Y0.391 Z-1.735 R1.508
X-0.429 Y3.281 Z-2.571 R1.508
X0.434 Y0.391 Z-3.406 R1.508
X-0.429 Y3.281 Z-4.242 R1.508
X0.002 Y0.328 Z-5. R1.508
G1 X0.636
G3 X0.833 Y1.06 R0.393
G2 X0.298 Y1.395 R9.532
G3 X-0.29 Y1.397 R0.528
G2 X-0.833 Y1.061 R9.532
G3 X-0.639 Y0.328 R0.393
G1 X0.002
G2 X0.899 Y-0.27 R0.972
G3 X1.796 Y-0.868 R0.972
G1 X1.839
G3 X2.607 Y0.645 R0.951
G2 X2.039 Y1.534 R8.336
G3 X1.547 Y2.03 R1.273
G2 X1.162 Y2.26 R7.609
X0.789 Y2.507 R14.621
G3 X-0.794 Y2.5 R1.393
G2 X-1.534 Y2.039 R8.336
G3 X-2.03 Y1.547 R1.273
G2 X-2.309 Y1.084 R8.381
X-2.613 Y0.638 R11.45
G3 X-1.84 Y-0.868 R0.951
G1 X1.796
G2 X3.179 Y-1.646 R1.618
G3 X4.762 Y-1.752 R0.97
G2 X5.129 Y-1.332 R7.487
X6.092 Y-0.498 R6.236
G3 X6.097 Y0.494 R0.608
G2 X4.04 Y2.836 R6.889
G3 X2.82 Y4.047 R2.978
G2 X0.498 Y6.092 R6.694
G3 X-0.494 Y6.097 R0.608
G2 X-2.836 Y4.04 R6.889
G3 X-4.047 Y2.82 R2.978
G2 X-6.092 Y0.498 R6.694
G3 X-6.097 Y-0.494 R0.608
G2 X-5.135 Y-1.324 R7.078
X-4.344 Y-2.317 R6.588
G3 X-2.629 Y-3.248 R2.046
G1 X2.629
G3 X4.339 Y-2.33 R2.051
G2 X4.762 Y-1.752 R7.487
X6.588 Y-1.255 R1.619
G3 X8.48 Y-1.328 R3.006
G2 X9.06 Y-1.204 R4.16
X10.884 Y-1.25 R5.576
G3 X11.754 Y-0.532 R0.731
G1 Y0.524
G3 X10.871 Y1.251 R0.741
G2 X5.533 Y4.16 R4.77
G3 X4.163 Y5.537 R2.5
G2 X1.752 Y7.69 R4.843
X1.25 Y10.883 R4.774
G3 X0.531 Y11.752 R0.732
G1 X-0.523
G3 X-1.251 Y10.869 R0.742
G2 X-4.216 Y5.511 R4.768
G3 X-5.5 Y4.251 R2.275
G2 X-7.272 Y2.005 R5.195
X-9.999 Y1.141 R4.584
X-10.455 Y1.177 R3.393
X-10.905 Y1.254 R9.23
G3 X-11.752 Y0.558 R0.71
G1 Y-0.523
G3 X-10.869 Y-1.251 R0.742
G2 X-5.505 Y-4.231 R4.768
G3 X-4.146 Y-5.166 R1.455
G1 X4.145
G3 X5.498 Y-4.257 R1.461
G2 X6.242 Y-2.911 R6.555
X7.353 Y-1.847 R4.219
X8.48 Y-1.328 R4.16
X10.633 Y-2.205 R1.875
G3 X12.045 Y-4.051 R8.46
G2 X12.851 Y-5.602 R2.852
X12.881 Y-5.952 R2.089
X12.812 Y-9.631 R99.767
G3 X12.744 Y-13.31 R99.767
X13.272 Y-13.839 R0.528
G1 X13.312
G3 X13.841 Y-13.31 R0.528
G1 X13.838 Y12.874
G3 X12.874 Y13.838 R0.963
G1 X-12.886
G3 X-13.838 Y12.886 R0.951
G1 Y-13.078
G3 X-12.746 R0.546
G1 X-12.881 Y-5.951
G2 X-7.911 Y-4.136 R2.816
X-7.466 Y-4.931 R2.456
X-7.249 Y-5.816 R5.499
G3 X-5.567 Y-7.251 R1.703
G1 X5.571
G3 X7.251 Y-5.823 R1.703
G2 X7.475 Y-4.879 R6.81
X7.984 Y-4.052 R1.986
X10.886 Y-3.355 R2.917
X12.045 Y-4.051 R2.852
X12.08 Y-5.418 R0.986
G3 X11.586 Y-6.692 R1.891
G1 X11.584 Y-14.999
X14.993 Y-14.997
X15. Y-14.966
X14.997 Y14.993
X-14.994 Y14.997
X-14.997 Y-14.994
X-11.587 Y-14.999
X-11.586 Y-5.951
G2 X-11.575 Y-5.818 R0.794
G1 X-11.546 Y-5.652
G2 X-11.498 Y-5.484 R0.794
G1 X-11.43 Y-5.317
G2 X-11.357 Y-5.179 R0.794
G1 X-11.286 Y-5.071
G2 X-11.197 Y-4.96 R0.794
G1 X-11.091 Y-4.849
G2 X-10.978 Y-4.752 R0.794
G1 X-10.862 Y-4.669
G2 X-10.72 Y-4.588 R0.794
G1 X-10.554 Y-4.515
G2 X-10.386 Y-4.462 R0.794
G1 X-10.219 Y-4.43
G2 X-10.051 Y-4.416 R0.794
G1 X-9.884 Y-4.419
G2 X-9.716 Y-4.44 R0.794
G1 X-9.549 Y-4.48
G2 X-9.381 Y-4.541 R0.794
G1 X-9.214 Y-4.624
G2 X-9.074 Y-4.713 R0.794
G1 X-8.96 Y-4.803
G2 X-8.844 Y-4.916 R0.794
G1 X-8.729 Y-5.052
G2 X-8.643 Y-5.178 R0.794
G1 X-8.582 Y-5.29
G2 X-8.522 Y-5.428 R0.794
G1 X-8.467 Y-5.595
G2 X-8.439 Y-5.715 R0.794
G1 X-8.276 Y-6.739
X-7.936 Y-7.406
X-7.407 Y-7.935
X-6.739 Y-8.276
X-5.889 Y-8.41
X5.889
X6.739 Y-8.276
X7.406 Y-7.936
X7.935 Y-7.407
X8.276 Y-6.739
X8.453 Y-5.656
G2 X8.502 Y-5.484 R0.794
G1 X8.57 Y-5.317
G2 X8.648 Y-5.171 R0.794
G1 X8.732 Y-5.047
G2 X8.835 Y-4.925 R0.794
G1 X8.955 Y-4.808
G2 X9.074 Y-4.713 R0.794
G1 X9.186 Y-4.638
G2 X9.326 Y-4.566 R0.794
G1 X9.493 Y-4.498
G2 X9.661 Y-4.451 R0.794
G1 X9.828 Y-4.424
G2 X9.996 Y-4.415 R0.794
G1 X10.162 Y-4.423
G2 X10.33 Y-4.45 R0.794
G1 X10.497 Y-4.495
G2 X10.636 Y-4.547 R0.794
G1 X10.747 Y-4.601
G2 X10.862 Y-4.669 R0.794
G1 X10.978 Y-4.752
G2 X11.091 Y-4.849 R0.794
G1 X11.197 Y-4.96
G2 X11.286 Y-5.071 R0.794
G1 X11.357 Y-5.179
G2 X11.43 Y-5.317 R0.794
G1 X11.498 Y-5.484
G2 X11.546 Y-5.652 R0.794
G1 X11.575 Y-5.818
G2 X11.586 Y-5.951 R0.794
G1 Y-6.692
G3 X11.756 Y-6.85 R0.159
X11.902 Y-6.669 R0.159
G1 X10.509 Y2.788
G3 X10.34 Y2.923 R0.159
G2 X7.054 Y5.387 R3.109
G3 X5.358 Y7.062 R2.158
G2 X2.934 Y9.438 R3.088
X4.213 Y12.582 R3.006
X5.041 Y12.989 R3.625
X5.951 Y13.141 R2.813
G3 X8.319 Y13.216 R37.318
G2 X10.682 Y13.064 R9.296
X12.279 Y12.158 R2.884
X13.096 Y10.515 R3.445
X13.228 Y8.234 R8.532
G3 X13.141 Y5.952 R29.81
G2 X10.352 Y2.924 R3.037
X10.34 Y2.923 R3.109
X8.952 Y3.919 R1.325
G3 X8.479 Y5.56 R26.073
G1 X8.467 Y5.595
G2 X8.439 Y5.715 R0.794
G1 X8.276 Y6.739
X7.936 Y7.406
X7.407 Y7.935
X6.739 Y8.276
X5.656 Y8.453
G2 X5.484 Y8.502 R0.794
G1 X5.317 Y8.57
G2 X5.171 Y8.648 R0.794
G1 X5.047 Y8.732
G2 X4.925 Y8.835 R0.794
G1 X4.808 Y8.955
G2 X4.713 Y9.074 R0.794
G1 X4.638 Y9.186
G2 X4.566 Y9.326 R0.794
G1 X4.498 Y9.493
G2 X4.451 Y9.661 R0.794
G1 X4.424 Y9.828
G2 X4.415 Y9.996 R0.794
G1 X4.423 Y10.162
G2 X4.45 Y10.33 R0.794
G1 X4.495 Y10.497
G2 X4.547 Y10.636 R0.794
G1 X4.601 Y10.747
G2 X4.669 Y10.862 R0.794
G1 X4.752 Y10.978
G2 X4.849 Y11.091 R0.794
G1 X4.96 Y11.197
G2 X5.071 Y11.286 R0.794
G1 X5.179 Y11.357
G2 X5.317 Y11.43 R0.794
G1 X5.484 Y11.498
G2 X5.652 Y11.546 R0.794
G1 X5.818 Y11.575
G2 X5.952 Y11.586 R0.794
G1 X10.067 Y11.585
G2 X10.219 Y11.57 R0.794
G1 X10.386 Y11.538
G2 X10.554 Y11.485 R0.794
G1 X10.72 Y11.412
G2 X10.855 Y11.336 R0.794
G1 X10.959 Y11.264
G2 X11.062 Y11.178 R0.794
G1 X11.163 Y11.078
G2 X11.254 Y10.972 R0.794
G1 X11.333 Y10.86
G2 X11.412 Y10.72 R0.794
G1 X11.485 Y10.554
G2 X11.538 Y10.386 R0.794
G1 X11.57 Y10.219
G2 X11.585 Y10.067 R0.794
G1 X11.586 Y5.952
G2 X11.575 Y5.818 R0.794
G1 X11.546 Y5.652
G2 X11.498 Y5.484 R0.794
G1 X11.43 Y5.317
G2 X11.357 Y5.179 R0.794
G1 X11.286 Y5.071
G2 X11.197 Y4.96 R0.794
G1 X11.091 Y4.849
G2 X10.978 Y4.752 R0.794
G1 X10.862 Y4.669
G2 X10.72 Y4.588 R0.794
G1 X10.554 Y4.515
G2 X10.386 Y4.462 R0.794
G1 X10.219 Y4.43
G2 X10.051 Y4.416 R0.794
G1 X9.884 Y4.419
G2 X9.716 Y4.44 R0.794
G1 X9.549 Y4.48
G2 X9.381 Y4.541 R0.794
G1 X9.214 Y4.624
G2 X9.074 Y4.713 R0.794
G1 X8.96 Y4.803
G2 X8.844 Y4.916 R0.794
G1 X8.729 Y5.052
G2 X8.643 Y5.178 R0.794
G1 X8.582 Y5.29
G2 X8.522 Y5.428 R0.794
G1 X8.479 Y5.56
G3 X8.351 Y5.668 R0.159
G1 X-4.214 Y7.521
G3 X-4.325 Y7.497 R0.159
G2 X-5.363 Y7.059 R3.115
G3 X-7.067 Y5.334 R2.23
G2 X-9.451 Y2.935 R3.097
X-12.582 Y4.213 R3.001
X-12.989 Y5.041 R3.625
X-13.141 Y5.951 R2.813
G3 X-13.216 Y8.319 R37.318
G2 X-13.064 Y10.682 R9.296
X-12.158 Y12.279 R2.884
X-10.515 Y13.096 R3.445
X-8.234 Y13.228 R8.534
G3 X-5.951 Y13.141 R29.872
G2 X-2.93 Y10.364 R3.032
X-4.325 Y7.497 R3.115
X-5.735 Y7.749 R1.043
G3 X-7.129 Y8.077 R1.109
G1 X-7.406 Y7.936
X-7.935 Y7.407
X-8.276 Y6.739
X-8.453 Y5.656
G2 X-8.502 Y5.484 R0.794
G1 X-8.57 Y5.317
G2 X-8.648 Y5.171 R0.794
G1 X-8.732 Y5.047
G2 X-8.835 Y4.925 R0.794
G1 X-8.955 Y4.808
G2 X-9.074 Y4.713 R0.794
G1 X-9.186 Y4.638
G2 X-9.326 Y4.566 R0.794
G1 X-9.493 Y4.498
G2 X-9.661 Y4.451 R0.794
G1 X-9.828 Y4.424
G2 X-9.996 Y4.415 R0.794
G1 X-10.162 Y4.423
G2 X-10.33 Y4.45 R0.794
G1 X-10.497 Y4.495
G2 X-10.636 Y4.547 R0.794
G1 X-10.747 Y4.601
G2 X-10.862 Y4.669 R0.794
G1 X-10.978 Y4.752
G2 X-11.091 Y4.849 R0.794
G1 X-11.197 Y4.96
G2 X-11.286 Y5.071 R0.794
G1 X-11.357 Y5.179
G2 X-11.43 Y5.317 R0.794
G1 X-11.498 Y5.484
G2 X-11.546 Y5.652 R0.794
G1 X-11.575 Y5.818
G2 X-11.586 Y5.952 R0.794
G1 X-11.585 Y10.067
G2 X-11.57 Y10.219 R0.794
G1 X-11.538 Y10.386
G2 X-11.485 Y10.554 R0.794
G1 X-11.412 Y10.72
G2 X-11.333 Y10.86 R0.794
G1 X-11.254 Y10.972
G2 X-11.163 Y11.078 R0.794
G1 X-11.062 Y11.178
G2 X-10.959 Y11.264 R0.794
G1 X-10.855 Y11.336
G2 X-10.72 Y11.412 R0.794
G1 X-10.554 Y11.485
G2 X-10.386 Y11.538 R0.794
G1 X-10.219 Y11.57
G2 X-10.067 Y11.585 R0.794
G1 X-5.952 Y11.586
G2 X-5.818 Y11.575 R0.794
G1 X-5.652 Y11.546
G2 X-5.484 Y11.498 R0.794
G1 X-5.317 Y11.43
G2 X-5.179 Y11.357 R0.794
G1 X-5.071 Y11.286
G2 X-4.96 Y11.197 R0.794
G1 X-4.849 Y11.091
G2 X-4.752 Y10.978 R0.794
G1 X-4.669 Y10.862
G2 X-4.588 Y10.72 R0.794
G1 X-4.515 Y10.554
G2 X-4.462 Y10.386 R0.794
G1 X-4.43 Y10.219
G2 X-4.416 Y10.051 R0.794
G1 X-4.419 Y9.884
G2 X-4.44 Y9.716 R0.794
G1 X-4.48 Y9.549
G2 X-4.541 Y9.381 R0.794
G1 X-4.624 Y9.214
G2 X-4.713 Y9.074 R0.794
G1 X-4.803 Y8.96
G2 X-4.916 Y8.844 R0.794
G1 X-5.052 Y8.729
G2 X-5.178 Y8.643 R0.794
G1 X-5.29 Y8.582
G2 X-5.428 Y8.522 R0.794
G1 X-5.595 Y8.467
G2 X-5.715 Y8.439 R0.794
G1 X-6.739 Y8.276
X-7.129 Y8.077
G3 X-7.357 Y5.532 Z-5.503 R1.508
G1 X-0.91 Y0.635 Z-6.838
G3 X0.002 Y0.328 Z-7. R1.508
G1 X0.636
G3 X0.833 Y1.06 R0.393
G2 X0.298 Y1.395 R9.532
G3 X-0.29 Y1.397 R0.528
G2 X-0.833 Y1.061 R9.532
G3 X-0.639 Y0.328 R0.393
G1 X0.002
G2 X0.899 Y-0.27 R0.972
G3 X1.796 Y-0.868 R0.972
G1 X1.839
G3 X2.607 Y0.645 R0.951
G2 X2.039 Y1.534 R8.336
G3 X1.547 Y2.03 R1.273
G2 X1.162 Y2.26 R7.609
X0.789 Y2.507 R14.621
G3 X-0.794 Y2.5 R1.393
G2 X-1.534 Y2.039 R8.336
G3 X-2.03 Y1.547 R1.273
G2 X-2.309 Y1.084 R8.381
X-2.613 Y0.638 R11.45
G3 X-1.84 Y-0.868 R0.951
G1 X1.796
G2 X3.179 Y-1.646 R1.618
G3 X4.762 Y-1.752 R0.97
G2 X5.129 Y-1.332 R7.487
X6.092 Y-0.498 R6.236
G3 X6.097 Y0.494 R0.608
G2 X4.04 Y2.836 R6.889
G3 X2.82 Y4.047 R2.978
G2 X0.498 Y6.092 R6.694
G3 X-0.494 Y6.097 R0.608
G2 X-2.836 Y4.04 R6.889
G3 X-4.047 Y2.82 R2.978
G2 X-6.092 Y0.498 R6.694
G3 X-6.097 Y-0.494 R0.608
G2 X-5.135 Y-1.324 R7.078
X-4.344 Y-2.317 R6.588
G3 X-2.629 Y-3.248 R2.046
G1 X2.629
G3 X4.339 Y-2.33 R2.051
G2 X4.762 Y-1.752 R7.487
X6.588 Y-1.255 R1.619
G3 X8.48 Y-1.328 R3.006
G2 X9.06 Y-1.204 R4.16
X10.884 Y-1.25 R5.576
G3 X11.754 Y-0.532 R0.731
G1 Y0.524
G3 X10.871 Y1.251 R0.741
G2 X5.533 Y4.16 R4.77
G3 X4.163 Y5.537 R2.5
G2 X1.752 Y7.69 R4.843
X1.25 Y10.883 R4.774
G3 X0.531 Y11.752 R0.732
G1 X-0.523
G3 X-1.251 Y10.869 R0.742
G2 X-4.216 Y5.511 R4.768
G3 X-5.5 Y4.251 R2.275
G2 X-7.272 Y2.005 R5.195
X-9.999 Y1.141 R4.584
X-10.455 Y1.177 R3.393
X-10.905 Y1.254 R9.23
G3 X-11.752 Y0.558 R0.71
G1 Y-0.523
G3 X-10.869 Y-1.251 R0.742
G2 X-5.505 Y-4.231 R4.768
G3 X-4.146 Y-5.166 R1.455
G1 X4.145
G3 X5.498 Y-4.257 R1.461
G2 X6.242 Y-2.911 R6.555
X7.353 Y-1.847 R4.219
X8.48 Y-1.328 R4.16
X10.633 Y-2.205 R1.875
G3 X12.045 Y-4.051 R8.46
G2 X12.851 Y-5.602 R2.852
X12.881 Y-5.952 R2.089
X12.812 Y-9.631 R99.767
G3 X12.744 Y-13.31 R99.767
X13.272 Y-13.839 R0.528
G1 X13.312
G3 X13.841 Y-13.31 R0.528
G1 X13.838 Y12.874
G3 X12.874 Y13.838 R0.963
G1 X-12.886
G3 X-13.838 Y12.886 R0.951
G1 Y-13.078
G3 X-12.746 R0.546
G1 X-12.881 Y-5.951
G2 X-7.911 Y-4.136 R2.816
X-7.466 Y-4.931 R2.456
X-7.249 Y-5.816 R5.499
G3 X-5.567 Y-7.251 R1.703
G1 X5.571
G3 X7.251 Y-5.823 R1.703
G2 X7.475 Y-4.879 R6.81
X7.984 Y-4.052 R1.986
X10.886 Y-3.355 R2.917
X12.045 Y-4.051 R2.852
X12.08 Y-5.418 R0.986
G3 X11.586 Y-6.692 R1.891
G1 X11.584 Y-14.999
X14.993 Y-14.997
X15. Y-14.966
X14.997 Y14.993
X-14.994 Y14.997
X-14.997 Y-14.994
X-11.587 Y-14.999
X-11.586 Y-5.951
G2 X-11.575 Y-5.818 R0.794
G1 X-11.546 Y-5.652
G2 X-11.498 Y-5.484 R0.794
G1 X-11.43 Y-5.317
G2 X-11.357 Y-5.179 R0.794
G1 X-11.286 Y-5.071
G2 X-11.197 Y-4.96 R0.794
G1 X-11.091 Y-4.849
G2 X-10.978 Y-4.752 R0.794
G1 X-10.862 Y-4.669
G2 X-10.72 Y-4.588 R0.794
G1 X-10.554 Y-4.515
G2 X-10.386 Y-4.462 R0.794
G1 X-10.219 Y-4.43
G2 X-10.051 Y-4.416 R0.794
G1 X-9.884 Y-4.419
G2 X-9.716 Y-4.44 R0.794
G1 X-9.549 Y-4.48
G2 X-9.381 Y-4.541 R0.794
G1 X-9.214 Y-4.624
G2 X-9.074 Y-4.713 R0.794
G1 X-8.96 Y-4.803
G2 X-8.844 Y-4.916 R0.794
G1 X-8.729 Y-5.052
G2 X-8.643 Y-5.178 R0.794
G1 X-8.582 Y-5.29
G2 X-8.522 Y-5.428 R0.794
G1 X-8.467 Y-5.595
G2 X-8.439 Y-5.715 R0.794
G1 X-8.276 Y-6.739
X-7.936 Y-7.406
X-7.407 Y-7.935
X-6.739 Y-8.276
X-5.889 Y-8.41
X5.889
X6.739 Y-8.276
X7.406 Y-7.936
X7.935 Y-7.407
X8.276 Y-6.739
X8.453 Y-5.656
G2 X8.502 Y-5.484 R0.794
G1 X8.57 Y-5.317
G2 X8.648 Y-5.171 R0.794
G1 X8.732 Y-5.047
G2 X8.835 Y-4.925 R0.794
G1 X8.955 Y-4.808
G2 X9.074 Y-4.713 R0.794
G1 X9.186 Y-4.638
G2 X9.326 Y-4.566 R0.794
G1 X9.493 Y-4.498
G2 X9.661 Y-4.451 R0.794
G1 X9.828 Y-4.424
G2 X9.996 Y-4.415 R0.794
G1 X10.162 Y-4.423
G2 X10.33 Y-4.45 R0.794
G1 X10.497 Y-4.495
G2 X10.636 Y-4.547 R0.794
G1 X10.747 Y-4.601
G2 X10.862 Y-4.669 R0.794
G1 X10.978 Y-4.752
G2 X11.091 Y-4.849 R0.794
G1 X11.197 Y-4.96
G2 X11.286 Y-5.071 R0.794
G1 X11.357 Y-5.179
G2 X11.43 Y-5.317 R0.794
G1 X11.498 Y-5.484
G2 X11.546 Y-5.652 R0.794
G1 X11.575 Y-5.818
G2 X11.586 Y-5.951 R0.794
G1 Y-6.692
G3 X11.756 Y-6.85 R0.159
X11.902 Y-6.669 R0.159
G1 X10.509 Y2.788
G3 X10.34 Y2.923 R0.159
G2 X7.054 Y5.387 R3.109
G3 X5.358 Y7.062 R2.158
G2 X2.934 Y9.438 R3.088
X4.213 Y12.582 R3.006
X5.041 Y12.989 R3.625
X5.951 Y13.141 R2.813
G3 X8.319 Y13.216 R37.318
G2 X10.682 Y13.064 R9.296
X12.279 Y12.158 R2.884
X13.096 Y10.515 R3.445
X13.228 Y8.234 R8.532
G3 X13.141 Y5.952 R29.81
G2 X10.352 Y2.924 R3.037
X10.34 Y2.923 R3.109
X8.952 Y3.919 R1.325
G3 X8.479 Y5.56 R26.073
G1 X8.467 Y5.595
G2 X8.439 Y5.715 R0.794
G1 X8.276 Y6.739
X7.936 Y7.406
X7.407 Y7.935
X6.739 Y8.276
X5.656 Y8.453
G2 X5.484 Y8.502 R0.794
G1 X5.317 Y8.57
G2 X5.171 Y8.648 R0.794
G1 X5.047 Y8.732
G2 X4.925 Y8.835 R0.794
G1 X4.808 Y8.955
G2 X4.713 Y9.074 R0.794
G1 X4.638 Y9.186
G2 X4.566 Y9.326 R0.794
G1 X4.498 Y9.493
G2 X4.451 Y9.661 R0.794
G1 X4.424 Y9.828
G2 X4.415 Y9.996 R0.794
G1 X4.423 Y10.162
G2 X4.45 Y10.33 R0.794
G1 X4.495 Y10.497
G2 X4.547 Y10.636 R0.794
G1 X4.601 Y10.747
G2 X4.669 Y10.862 R0.794
G1 X4.752 Y10.978
G2 X4.849 Y11.091 R0.794
G1 X4.96 Y11.197
G2 X5.071 Y11.286 R0.794
G1 X5.179 Y11.357
G2 X5.317 Y11.43 R0.794
G1 X5.484 Y11.498
G2 X5.652 Y11.546 R0.794
G1 X5.818 Y11.575
G2 X5.952 Y11.586 R0.794
G1 X10.067 Y11.585
G2 X10.219 Y11.57 R0.794
G1 X10.386 Y11.538
G2 X10.554 Y11.485 R0.794
G1 X10.72 Y11.412
G2 X10.855 Y11.336 R0.794
G1 X10.959 Y11.264
G2 X11.062 Y11.178 R0.794
G1 X11.163 Y11.078
G2 X11.254 Y10.972 R0.794
G1 X11.333 Y10.86
G2 X11.412 Y10.72 R0.794
G1 X11.485 Y10.554
G2 X11.538 Y10.386 R0.794
G1 X11.57 Y10.219
G2 X11.585 Y10.067 R0.794
G1 X11.586 Y5.952
G2 X11.575 Y5.818 R0.794
G1 X11.546 Y5.652
G2 X11.498 Y5.484 R0.794
G1 X11.43 Y5.317
G2 X11.357 Y5.179 R0.794
G1 X11.286 Y5.071
G2 X11.197 Y4.96 R0.794
G1 X11.091 Y4.849
G2 X10.978 Y4.752 R0.794
G1 X10.862 Y4.669
G2 X10.72 Y4.588 R0.794
G1 X10.554 Y4.515
G2 X10.386 Y4.462 R0.794
G1 X10.219 Y4.43
G2 X10.051 Y4.416 R0.794
G1 X9.884 Y4.419
G2 X9.716 Y4.44 R0.794
G1 X9.549 Y4.48
G2 X9.381 Y4.541 R0.794
G1 X9.214 Y4.624
G2 X9.074 Y4.713 R0.794
G1 X8.96 Y4.803
G2 X8.844 Y4.916 R0.794
G1 X8.729 Y5.052
G2 X8.643 Y5.178 R0.794
G1 X8.582 Y5.29
G2 X8.522 Y5.428 R0.794
G1 X8.479 Y5.56
G3 X8.351 Y5.668 R0.159
G1 X-4.214 Y7.521
G3 X-4.325 Y7.497 R0.159
G2 X-5.363 Y7.059 R3.115
G3 X-7.067 Y5.334 R2.23
G2 X-9.451 Y2.935 R3.097
X-12.582 Y4.213 R3.001
X-12.989 Y5.041 R3.625
X-13.141 Y5.951 R2.813
G3 X-13.216 Y8.319 R37.318
G2 X-13.064 Y10.682 R9.296
X-12.158 Y12.279 R2.884
X-10.515 Y13.096 R3.445
X-8.234 Y13.228 R8.534
G3 X-5.951 Y13.141 R29.872
G2 X-2.93 Y10.364 R3.032
X-4.325 Y7.497 R3.115
X-5.735 Y7.749 R1.043
G3 X-7.129 Y8.077 R1.109
G1 X-7.406 Y7.936
X-7.935 Y7.407
X-8.276 Y6.739
X-8.453 Y5.656
G2 X-8.502 Y5.484 R0.794
G1 X-8.57 Y5.317
G2 X-8.648 Y5.171 R0.794
G1 X-8.732 Y5.047
G2 X-8.835 Y4.925 R0.794
G1 X-8.955 Y4.808
G2 X-9.074 Y4.713 R0.794
G1 X-9.186 Y4.638
G2 X-9.326 Y4.566 R0.794
G1 X-9.493 Y4.498
G2 X-9.661 Y4.451 R0.794
G1 X-9.828 Y4.424
G2 X-9.996 Y4.415 R0.794
G1 X-10.162 Y4.423
G2 X-10.33 Y4.45 R0.794
G1 X-10.497 Y4.495
G2 X-10.636 Y4.547 R0.794
G1 X-10.747 Y4.601
G2 X-10.862 Y4.669 R0.794
G1 X-10.978 Y4.752
G2 X-11.091 Y4.849 R0.794
G1 X-11.197 Y4.96
G2 X-11.286 Y5.071 R0.794
G1 X-11.357 Y5.179
G2 X-11.43 Y5.317 R0.794
G1 X-11.498 Y5.484
G2 X-11.546 Y5.652 R0.794
G1 X-11.575 Y5.818
G2 X-11.586 Y5.952 R0.794
G1 X-11.585 Y10.067
G2 X-11.57 Y10.219 R0.794
G1 X-11.538 Y10.386
G2 X-11.485 Y10.554 R0.794
G1 X-11.412 Y10.72
G2 X-11.333 Y10.86 R0.794
G1 X-11.254 Y10.972
G2 X-11.163 Y11.078 R0.794
G1 X-11.062 Y11.178
G2 X-10.959 Y11.264 R0.794
G1 X-10.855 Y11.336
G2 X-10.72 Y11.412 R0.794
G1 X-10.554 Y11.485
G2 X-10.386 Y11.538 R0.794
G1 X-10.219 Y11.57
G2 X-10.067 Y11.585 R0.794
G1 X-5.952 Y11.586
G2 X-5.818 Y11.575 R0.794
G1 X-5.652 Y11.546
G2 X-5.484 Y11.498 R0.794
G1 X-5.317 Y11.43
G2 X-5.179 Y11.357 R0.794
G1 X-5.071 Y11.286
G2 X-4.96 Y11.197 R0.794
G1 X-4.849 Y11.091
G2 X-4.752 Y10.978 R0.794
G1 X-4.669 Y10.862
G2 X-4.588 Y10.72 R0.794
G1 X-4.515 Y10.554
G2 X-4.462 Y10.386 R0.794
G1 X-4.43 Y10.219
G2 X-4.416 Y10.051 R0.794
G1 X-4.419 Y9.884
G2 X-4.44 Y9.716 R0.794
G1 X-4.48 Y9.549
G2 X-4.541 Y9.381 R0.794
G1 X-4.624 Y9.214
G2 X-4.713 Y9.074 R0.794
G1 X-4.803 Y8.96
G2 X-4.916 Y8.844 R0.794
G1 X-5.052 Y8.729
G2 X-5.178 Y8.643 R0.794
G1 X-5.29 Y8.582
G2 X-5.428 Y8.522 R0.794
G1 X-5.595 Y8.467
G2 X-5.715 Y8.439 R0.794
G1 X-6.739 Y8.276
X-7.129 Y8.077
G3 X-7.357 Y5.532 Z-7.251 R1.508
G1 X-0.91 Y0.635 Z-7.919
G3 X0.002 Y0.328 Z-8. R1.508
G1 X0.636
G3 X0.833 Y1.06 R0.393
G2 X0.298 Y1.395 R9.532
G3 X-0.29 Y1.397 R0.528
G2 X-0.833 Y1.061 R9.532
G3 X-0.639 Y0.328 R0.393
G1 X0.002
G2 X0.899 Y-0.27 R0.972
G3 X1.796 Y-0.868 R0.972
G1 X1.839
G3 X2.607 Y0.645 R0.951
G2 X2.039 Y1.534 R8.336
G3 X1.547 Y2.03 R1.273
G2 X1.162 Y2.26 R7.609
X0.789 Y2.507 R14.621
G3 X-0.794 Y2.5 R1.393
G2 X-1.534 Y2.039 R8.336
G3 X-2.03 Y1.547 R1.273
G2 X-2.309 Y1.084 R8.381
X-2.613 Y0.638 R11.45
G3 X-1.84 Y-0.868 R0.951
G1 X1.796
G2 X3.179 Y-1.646 R1.618
G3 X4.762 Y-1.752 R0.97
G2 X5.129 Y-1.332 R7.487
X6.092 Y-0.498 R6.236
G3 X6.097 Y0.494 R0.608
G2 X4.04 Y2.836 R6.889
G3 X2.82 Y4.047 R2.978
G2 X0.498 Y6.092 R6.694
G3 X-0.494 Y6.097 R0.608
G2 X-2.836 Y4.04 R6.889
G3 X-4.047 Y2.82 R2.978
G2 X-6.092 Y0.498 R6.694
G3 X-6.097 Y-0.494 R0.608
G2 X-5.135 Y-1.324 R7.078
X-4.344 Y-2.317 R6.588
G3 X-2.629 Y-3.248 R2.046
G1 X2.629
G3 X4.339 Y-2.33 R2.051
G2 X4.762 Y-1.752 R7.487
X6.588 Y-1.255 R1.619
G3 X8.48 Y-1.328 R3.006
G2 X9.06 Y-1.204 R4.16
X10.884 Y-1.25 R5.576
G3 X11.754 Y-0.532 R0.731
G1 Y0.524
G3 X10.871 Y1.251 R0.741
G2 X5.533 Y4.16 R4.77
G3 X4.163 Y5.537 R2.5
G2 X1.752 Y7.69 R4.843
X1.25 Y10.883 R4.774
G3 X0.531 Y11.752 R0.732
G1 X-0.523
G3 X-1.251 Y10.869 R0.742
G2 X-4.216 Y5.511 R4.768
G3 X-5.5 Y4.251 R2.275
G2 X-7.272 Y2.005 R5.195
X-9.999 Y1.141 R4.584
X-10.455 Y1.177 R3.393
X-10.905 Y1.254 R9.23
G3 X-11.752 Y0.558 R0.71
G1 Y-0.523
G3 X-10.869 Y-1.251 R0.742
G2 X-5.505 Y-4.231 R4.768
G3 X-4.146 Y-5.166 R1.455
G1 X4.145
G3 X5.498 Y-4.257 R1.461
G2 X6.242 Y-2.911 R6.555
X7.353 Y-1.847 R4.219
X8.48 Y-1.328 R4.16
X10.633 Y-2.205 R1.875
G3 X12.045 Y-4.051 R8.46
G2 X12.851 Y-5.602 R2.852
X12.881 Y-5.952 R2.089
X12.812 Y-9.631 R99.767
G3 X12.744 Y-13.31 R99.767
X13.272 Y-13.839 R0.528
G1 X13.312
G3 X13.841 Y-13.31 R0.528
G1 X13.838 Y12.874
G3 X12.874 Y13.838 R0.963
G1 X-12.886
G3 X-13.838 Y12.886 R0.951
G1 Y-13.078
G3 X-12.746 R0.546
G1 X-12.881 Y-5.951
G2 X-7.911 Y-4.136 R2.816
X-7.466 Y-4.931 R2.456
X-7.249 Y-5.816 R5.499
G3 X-5.567 Y-7.251 R1.703
G1 X5.571
G3 X7.251 Y-5.823 R1.703
G2 X7.475 Y-4.879 R6.81
X7.984 Y-4.052 R1.986
X10.886 Y-3.355 R2.917
X12.045 Y-4.051 R2.852
X12.08 Y-5.418 R0.986
G3 X11.586 Y-6.692 R1.891
G1 X11.584 Y-14.999
X14.993 Y-14.997
X15. Y-14.966
X14.997 Y14.993
X-14.994 Y14.997
X-14.997 Y-14.994
X-11.587 Y-14.999
X-11.586 Y-5.951
G2 X-11.575 Y-5.818 R0.794
G1 X-11.546 Y-5.652
G2 X-11.498 Y-5.484 R0.794
G1 X-11.43 Y-5.317
G2 X-11.357 Y-5.179 R0.794
G1 X-11.286 Y-5.071
G2 X-11.197 Y-4.96 R0.794
G1 X-11.091 Y-4.849
G2 X-10.978 Y-4.752 R0.794
G1 X-10.862 Y-4.669
G2 X-10.72 Y-4.588 R0.794
G1 X-10.554 Y-4.515
G2 X-10.386 Y-4.462 R0.794
G1 X-10.219 Y-4.43
G2 X-10.051 Y-4.416 R0.794
G1 X-9.884 Y-4.419
G2 X-9.716 Y-4.44 R0.794
G1 X-9.549 Y-4.48
G2 X-9.381 Y-4.541 R0.794
G1 X-9.214 Y-4.624
G2 X-9.074 Y-4.713 R0.794
G1 X-8.96 Y-4.803
G2 X-8.844 Y-4.916 R0.794
G1 X-8.729 Y-5.052
G2 X-8.643 Y-5.178 R0.794
G1 X-8.582 Y-5.29
G2 X-8.522 Y-5.428 R0.794
G1 X-8.467 Y-5.595
G2 X-8.439 Y-5.715 R0.794
G1 X-8.276 Y-6.739
X-7.936 Y-7.406
X-7.407 Y-7.935
X-6.739 Y-8.276
X-5.889 Y-8.41
X5.889
X6.739 Y-8.276
X7.406 Y-7.936
X7.935 Y-7.407
X8.276 Y-6.739
X8.453 Y-5.656
G2 X8.502 Y-5.484 R0.794
G1 X8.57 Y-5.317
G2 X8.648 Y-5.171 R0.794
G1 X8.732 Y-5.047
G2 X8.835 Y-4.925 R0.794
G1 X8.955 Y-4.808
G2 X9.074 Y-4.713 R0.794
G1 X9.186 Y-4.638
G2 X9.326 Y-4.566 R0.794
G1 X9.493 Y-4.498
G2 X9.661 Y-4.451 R0.794
G1 X9.828 Y-4.424
G2 X9.996 Y-4.415 R0.794
G1 X10.162 Y-4.423
G2 X10.33 Y-4.45 R0.794
G1 X10.497 Y-4.495
G2 X10.636 Y-4.547 R0.794
G1 X10.747 Y-4.601
G2 X10.862 Y-4.669 R0.794
G1 X10.978 Y-4.752
G2 X11.091 Y-4.849 R0.794
G1 X11.197 Y-4.96
G2 X11.286 Y-5.071 R0.794
G1 X11.357 Y-5.179
G2 X11.43 Y-5.317 R0.794
G1 X11.498 Y-5.484
G2 X11.546 Y-5.652 R0.794
G1 X11.575 Y-5.818
G2 X11.586 Y-5.951 R0.794
G1 Y-6.692
G3 X11.756 Y-6.85 R0.159
X11.902 Y-6.669 R0.159
G1 X10.509 Y2.788
G3 X10.34 Y2.923 R0.159
G2 X7.054 Y5.387 R3.109
G3 X5.358 Y7.062 R2.158
G2 X2.934 Y9.438 R3.088
X4.213 Y12.582 R3.006
X5.041 Y12.989 R3.625
X5.951 Y13.141 R2.813
G3 X8.319 Y13.216 R37.318
G2 X10.682 Y13.064 R9.296
X12.279 Y12.158 R2.884
X13.096 Y10.515 R3.445
X13.228 Y8.234 R8.532
G3 X13.141 Y5.952 R29.81
G2 X10.352 Y2.924 R3.037
X10.34 Y2.923 R3.109
X8.952 Y3.919 R1.325
G3 X8.479 Y5.56 R26.073
G1 X8.467 Y5.595
G2 X8.439 Y5.715 R0.794
G1 X8.276 Y6.739
X7.936 Y7.406
X7.407 Y7.935
X6.739 Y8.276
X5.656 Y8.453
G2 X5.484 Y8.502 R0.794
G1 X5.317 Y8.57
G2 X5.171 Y8.648 R0.794
G1 X5.047 Y8.732
G2 X4.925 Y8.835 R0.794
G1 X4.808 Y8.955
G2 X4.713 Y9.074 R0.794
G1 X4.638 Y9.186
G2 X4.566 Y9.326 R0.794
G1 X4.498 Y9.493
G2 X4.451 Y9.661 R0.794
G1 X4.424 Y9.828
G2 X4.415 Y9.996 R0.794
G1 X4.423 Y10.162
G2 X4.45 Y10.33 R0.794
G1 X4.495 Y10.497
G2 X4.547 Y10.636 R0.794
G1 X4.601 Y10.747
G2 X4.669 Y10.862 R0.794
G1 X4.752 Y10.978
G2 X4.849 Y11.091 R0.794
G1 X4.96 Y11.197
G2 X5.071 Y11.286 R0.794
G1 X5.179 Y11.357
G2 X5.317 Y11.43 R0.794
G1 X5.484 Y11.498
G2 X5.652 Y11.546 R0.794
G1 X5.818 Y11.575
G2 X5.952 Y11.586 R0.794
G1 X10.067 Y11.585
G2 X10.219 Y11.57 R0.794
G1 X10.386 Y11.538
G2 X10.554 Y11.485 R0.794
G1 X10.72 Y11.412
G2 X10.855 Y11.336 R0.794
G1 X10.959 Y11.264
G2 X11.062 Y11.178 R0.794
G1 X11.163 Y11.078
G2 X11.254 Y10.972 R0.794
G1 X11.333 Y10.86
G2 X11.412 Y10.72 R0.794
G1 X11.485 Y10.554
G2 X11.538 Y10.386 R0.794
G1 X11.57 Y10.219
G2 X11.585 Y10.067 R0.794
G1 X11.586 Y5.952
G2 X11.575 Y5.818 R0.794
G1 X11.546 Y5.652
G2 X11.498 Y5.484 R0.794
G1 X11.43 Y5.317
G2 X11.357 Y5.179 R0.794
G1 X11.286 Y5.071
G2 X11.197 Y4.96 R0.794
G1 X11.091 Y4.849
G2 X10.978 Y4.752 R0.794
G1 X10.862 Y4.669
G2 X10.72 Y4.588 R0.794
G1 X10.554 Y4.515
G2 X10.386 Y4.462 R0.794
G1 X10.219 Y4.43
G2 X10.051 Y4.416 R0.794
G1 X9.884 Y4.419
G2 X9.716 Y4.44 R0.794
G1 X9.549 Y4.48
G2 X9.381 Y4.541 R0.794
G1 X9.214 Y4.624
G2 X9.074 Y4.713 R0.794
G1 X8.96 Y4.803
G2 X8.844 Y4.916 R0.794
G1 X8.729 Y5.052
G2 X8.643 Y5.178 R0.794
G1 X8.582 Y5.29
G2 X8.522 Y5.428 R0.794
G1 X8.479 Y5.56
G3 X8.351 Y5.668 R0.159
G1 X-4.214 Y7.521
G3 X-4.325 Y7.497 R0.159
G2 X-5.363 Y7.059 R3.115
G3 X-7.067 Y5.334 R2.23
G2 X-9.451 Y2.935 R3.097
X-12.582 Y4.213 R3.001
X-12.989 Y5.041 R3.625
X-13.141 Y5.951 R2.813
G3 X-13.216 Y8.319 R37.318
G2 X-13.064 Y10.682 R9.296
X-12.158 Y12.279 R2.884
X-10.515 Y13.096 R3.445
X-8.234 Y13.228 R8.534
G3 X-5.951 Y13.141 R29.872
G2 X-2.93 Y10.364 R3.032
X-4.325 Y7.497 R3.115
X-5.735 Y7.749 R1.043
G3 X-7.129 Y8.077 R1.109
G1 X-7.406 Y7.936
X-7.935 Y7.407
X-8.276 Y6.739
X-8.453 Y5.656
G2 X-8.502 Y5.484 R0.794
G1 X-8.57 Y5.317
G2 X-8.648 Y5.171 R0.794
G1 X-8.732 Y5.047
G2 X-8.835 Y4.925 R0.794
G1 X-8.955 Y4.808
G2 X-9.074 Y4.713 R0.794
G1 X-9.186 Y4.638
G2 X-9.326 Y4.566 R0.794
G1 X-9.493 Y4.498
G2 X-9.661 Y4.451 R0.794
G1 X-9.828 Y4.424
G2 X-9.996 Y4.415 R0.794
G1 X-10.162 Y4.423
G2 X-10.33 Y4.45 R0.794
G1 X-10.497 Y4.495
G2 X-10.636 Y4.547 R0.794
G1 X-10.747 Y4.601
G2 X-10.862 Y4.669 R0.794
G1 X-10.978 Y4.752
G2 X-11.091 Y4.849 R0.794
G1 X-11.197 Y4.96
G2 X-11.286 Y5.071 R0.794
G1 X-11.357 Y5.179
G2 X-11.43 Y5.317 R0.794
G1 X-11.498 Y5.484
G2 X-11.546 Y5.652 R0.794
G1 X-11.575 Y5.818
G2 X-11.586 Y5.952 R0.794
G1 X-11.585 Y10.067
G2 X-11.57 Y10.219 R0.794
G1 X-11.538 Y10.386
G2 X-11.485 Y10.554 R0.794
G1 X-11.412 Y10.72
G2 X-11.333 Y10.86 R0.794
G1 X-11.254 Y10.972
G2 X-11.163 Y11.078 R0.794
G1 X-11.062 Y11.178
G2 X-10.959 Y11.264 R0.794
G1 X-10.855 Y11.336
G2 X-10.72 Y11.412 R0.794
G1 X-10.554 Y11.485
G2 X-10.386 Y11.538 R0.794
G1 X-10.219 Y11.57
G2 X-10.067 Y11.585 R0.794
G1 X-5.952 Y11.586
G2 X-5.818 Y11.575 R0.794
G1 X-5.652 Y11.546
G2 X-5.484 Y11.498 R0.794
G1 X-5.317 Y11.43
G2 X-5.179 Y11.357 R0.794
G1 X-5.071 Y11.286
G2 X-4.96 Y11.197 R0.794
G1 X-4.849 Y11.091
G2 X-4.752 Y10.978 R0.794
G1 X-4.669 Y10.862
G2 X-4.588 Y10.72 R0.794
G1 X-4.515 Y10.554
G2 X-4.462 Y10.386 R0.794
G1 X-4.43 Y10.219
G2 X-4.416 Y10.051 R0.794
G1 X-4.419 Y9.884
G2 X-4.44 Y9.716 R0.794
G1 X-4.48 Y9.549
G2 X-4.541 Y9.381 R0.794
G1 X-4.624 Y9.214
G2 X-4.713 Y9.074 R0.794
G1 X-4.803 Y8.96
G2 X-4.916 Y8.844 R0.794
G1 X-5.052 Y8.729
G2 X-5.178 Y8.643 R0.794
G1 X-5.29 Y8.582
G2 X-5.428 Y8.522 R0.794
G1 X-5.595 Y8.467
G2 X-5.715 Y8.439 R0.794
G1 X-6.739 Y8.276
X-7.129 Y8.077
G3 X-7.629 Y5.799 Z-8.379 R1.508
G1 X-2.873 Y-0.231 Z-9.47
G3 X-0.181 Y0.703 Z-10. R1.508
G1 Y0.929
G3 X-0.774 Y1.267 R0.393
G2 X-0.987 Y1.144 R9.385
G3 X-1.137 Y0.994 R0.393
G2 X-1.265 Y0.776 R9.385
G3 X-0.929 Y0.181 R0.393
G1 X-0.573
G3 X-0.181 Y0.573 R0.393
G1 Y0.703
G2 X0.409 Y1.459 R0.78
G3 X0.819 Y2.325 R0.621
X-0.61 Y2.684 R0.951
G2 X-1.565 Y2.07 R8.296
G3 X-2.061 Y1.576 R1.273
G2 X-2.361 Y1.08 R8.533
X-2.69 Y0.603 R10.78
G3 X-1.921 Y-0.909 R0.951
G1 X-0.054
G3 X0.909 Y0.054 R0.963
G1 Y1.921
G3 X0.819 Y2.325 R0.951
G2 X0.743 Y4.213 R2.437
G3 X0.503 Y6.088 R2.027
G1 X0.498 Y6.096
G3 X-0.494 Y6.101 R0.608
G2 X-2.837 Y4.042 R6.885
G3 X-4.048 Y2.822 R2.978
G2 X-6.096 Y0.498 R6.692
G3 X-6.101 Y-0.494 R0.608
G2 X-5.138 Y-1.324 R7.072
X-4.345 Y-2.319 R6.587
G3 X-2.63 Y-3.25 R2.045
G1 X2.306
G3 X3.25 Y-2.306 R0.944
G1 Y2.63
G3 X2.332 Y4.34 R2.05
G2 X1.332 Y5.131 R7.483
X0.503 Y6.088 R6.233
X0.561 Y7.941 R1.545
G3 X1.153 Y9.697 R2.706
G2 X1.251 Y10.884 R5.575
G3 X0.533 Y11.753 R0.732
G1 X-0.525
G3 X-1.253 Y10.871 R0.741
G2 X-4.217 Y5.512 R4.769
G3 X-5.501 Y4.252 R2.275
G2 X-7.272 Y2.006 R5.195
X-9.999 Y1.142 R4.582
X-10.455 Y1.178 R3.393
X-10.906 Y1.256 R9.204
G3 X-11.753 Y0.559 R0.71
G1 Y-0.525
G3 X-10.871 Y-1.253 R0.741
G2 X-5.506 Y-4.232 R4.769
G3 X-4.147 Y-5.167 R1.455
G1 X4.204
G3 X5.167 Y-4.204 R0.963
G1 Y4.147
G3 X4.259 Y5.498 R1.46
G2 X2.912 Y6.243 R6.551
X1.848 Y7.354 R4.219
X1.205 Y9.061 R4.159
X1.153 Y9.697 R5.575
X2.483 Y11.503 R1.831
G3 X4.526 Y12.43 R7.512
G2 X5.602 Y12.85 R2.851
X5.952 Y12.88 R2.088
X9.631 Y12.811 R99.794
G3 X13.311 Y12.743 R99.794
X13.84 Y13.271 R0.528
G1 Y13.31
G3 X13.311 Y13.839 R0.528
G1 X-12.875
G3 X-13.839 Y12.875 R0.963
G1 Y-13.079
G3 X-12.745 R0.547
G1 X-12.88 Y-5.951
G2 X-7.912 Y-4.136 R2.815
X-7.467 Y-4.932 R2.455
X-7.25 Y-5.817 R5.508
G3 X-5.568 Y-7.252 R1.703
G1 X5.549
G3 X7.252 Y-5.549 R1.703
G1 Y5.571
G3 X5.824 Y7.252 R1.703
G2 X4.88 Y7.476 R6.823
X4.053 Y7.984 R1.985
X3.356 Y10.886 R2.916
X4.526 Y12.43 R2.851
X5.853 Y12.192 R0.985
G3 X7.058 Y11.586 R1.502
G1 X14.999 Y11.584
X14.997 Y14.993
X-14.994 Y14.997
X-14.997 Y-14.994
X-11.587 Y-14.999
X-11.586 Y-5.951
G2 X-11.575 Y-5.818 R0.794
G1 X-11.546 Y-5.652
G2 X-11.498 Y-5.484 R0.794
G1 X-11.43 Y-5.317
G2 X-11.357 Y-5.179 R0.794
G1 X-11.286 Y-5.071
G2 X-11.197 Y-4.96 R0.794
G1 X-11.091 Y-4.849
G2 X-10.978 Y-4.752 R0.794
G1 X-10.862 Y-4.669
G2 X-10.72 Y-4.588 R0.794
G1 X-10.554 Y-4.515
G2 X-10.386 Y-4.462 R0.794
G1 X-10.219 Y-4.43
G2 X-10.051 Y-4.416 R0.794
G1 X-9.884 Y-4.419
G2 X-9.716 Y-4.44 R0.794
G1 X-9.549 Y-4.48
G2 X-9.381 Y-4.541 R0.794
G1 X-9.214 Y-4.624
G2 X-9.074 Y-4.713 R0.794
G1 X-8.96 Y-4.803
G2 X-8.844 Y-4.916 R0.794
G1 X-8.729 Y-5.052
G2 X-8.643 Y-5.178 R0.794
G1 X-8.582 Y-5.29
G2 X-8.522 Y-5.428 R0.794
G1 X-8.467 Y-5.595
G2 X-8.439 Y-5.715 R0.794
G1 X-8.276 Y-6.739
X-7.936 Y-7.406
X-7.407 Y-7.935
X-6.739 Y-8.276
X-5.889 Y-8.41
X5.889
X6.739 Y-8.276
X7.406 Y-7.936
X7.935 Y-7.407
X8.276 Y-6.739
X8.41 Y-5.889
Y5.889
X8.276 Y6.739
X7.936 Y7.406
X7.407 Y7.935
X6.739 Y8.276
X5.656 Y8.453
G2 X5.484 Y8.502 R0.794
G1 X5.317 Y8.57
G2 X5.171 Y8.648 R0.794
G1 X5.047 Y8.732
G2 X4.925 Y8.835 R0.794
G1 X4.808 Y8.955
G2 X4.713 Y9.074 R0.794
G1 X4.638 Y9.186
G2 X4.566 Y9.326 R0.794
G1 X4.498 Y9.493
G2 X4.451 Y9.661 R0.794
G1 X4.424 Y9.828
G2 X4.415 Y9.996 R0.794
G1 X4.423 Y10.162
G2 X4.45 Y10.33 R0.794
G1 X4.495 Y10.497
G2 X4.547 Y10.636 R0.794
G1 X4.601 Y10.747
G2 X4.669 Y10.862 R0.794
G1 X4.752 Y10.978
G2 X4.849 Y11.091 R0.794
G1 X4.96 Y11.197
G2 X5.071 Y11.286 R0.794
G1 X5.179 Y11.357
G2 X5.317 Y11.43 R0.794
G1 X5.484 Y11.498
G2 X5.652 Y11.546 R0.794
G1 X5.818 Y11.575
G2 X5.951 Y11.586 R0.794
G1 X7.058
G3 X7.217 Y11.756 R0.159
X7.036 Y11.902 R0.159
G1 X-2.792 Y10.511
G3 X-2.928 Y10.341 R0.159
G2 X-5.363 Y7.059 R3.115
G3 X-7.067 Y5.334 R2.23
G2 X-9.451 Y2.935 R3.097
X-12.582 Y4.213 R3.001
X-12.989 Y5.041 R3.625
X-13.141 Y5.951 R2.813
G3 X-13.216 Y8.319 R37.318
G2 X-13.064 Y10.682 R9.296
X-12.158 Y12.279 R2.884
X-10.515 Y13.096 R3.445
X-8.234 Y13.228 R8.534
G3 X-5.951 Y13.141 R29.872
G2 X-2.93 Y10.364 R3.032
X-2.928 Y10.341 R3.115
X-3.917 Y8.957 R1.324
G3 X-5.551 Y8.482 R27.828
G1 X-5.595 Y8.467
G2 X-5.715 Y8.439 R0.794
G1 X-6.739 Y8.276
X-7.406 Y7.936
X-7.935 Y7.407
X-8.276 Y6.739
X-8.453 Y5.656
G2 X-8.502 Y5.484 R0.794
G1 X-8.57 Y5.317
G2 X-8.648 Y5.171 R0.794
G1 X-8.732 Y5.047
G2 X-8.835 Y4.925 R0.794
G1 X-8.955 Y4.808
G2 X-9.074 Y4.713 R0.794
G1 X-9.186 Y4.638
G2 X-9.326 Y4.566 R0.794
G1 X-9.493 Y4.498
G2 X-9.661 Y4.451 R0.794
G1 X-9.828 Y4.424
G2 X-9.996 Y4.415 R0.794
G1 X-10.162 Y4.423
G2 X-10.33 Y4.45 R0.794
G1 X-10.497 Y4.495
G2 X-10.636 Y4.547 R0.794
G1 X-10.747 Y4.601
G2 X-10.862 Y4.669 R0.794
G1 X-10.978 Y4.752
G2 X-11.091 Y4.849 R0.794
G1 X-11.197 Y4.96
G2 X-11.286 Y5.071 R0.794
G1 X-11.357 Y5.179
G2 X-11.43 Y5.317 R0.794
G1 X-11.498 Y5.484
G2 X-11.546 Y5.652 R0.794
G1 X-11.575 Y5.818
G2 X-11.586 Y5.952 R0.794
G1 X-11.585 Y10.067
G2 X-11.57 Y10.219 R0.794
G1 X-11.538 Y10.386
G2 X-11.485 Y10.554 R0.794
G1 X-11.412 Y10.72
G2 X-11.333 Y10.86 R0.794
G1 X-11.254 Y10.972
G2 X-11.163 Y11.078 R0.794
G1 X-11.062 Y11.178
G2 X-10.959 Y11.264 R0.794
G1 X-10.855 Y11.336
G2 X-10.72 Y11.412 R0.794
G1 X-10.554 Y11.485
G2 X-10.386 Y11.538 R0.794
G1 X-10.219 Y11.57
G2 X-10.067 Y11.585 R0.794
G1 X-5.952 Y11.586
G2 X-5.818 Y11.575 R0.794
G1 X-5.652 Y11.546
G2 X-5.484 Y11.498 R0.794
G1 X-5.317 Y11.43
G2 X-5.179 Y11.357 R0.794
G1 X-5.071 Y11.286
G2 X-4.96 Y11.197 R0.794
G1 X-4.849 Y11.091
G2 X-4.752 Y10.978 R0.794
G1 X-4.669 Y10.862
G2 X-4.588 Y10.72 R0.794
G1 X-4.515 Y10.554
G2 X-4.462 Y10.386 R0.794
G1 X-4.43 Y10.219
G2 X-4.416 Y10.051 R0.794
G1 X-4.419 Y9.884
G2 X-4.44 Y9.716 R0.794
G1 X-4.48 Y9.549
G2 X-4.541 Y9.381 R0.794
G1 X-4.624 Y9.214
G2 X-4.713 Y9.074 R0.794
G1 X-4.803 Y8.96
G2 X-4.916 Y8.844 R0.794
G1 X-5.052 Y8.729
G2 X-5.178 Y8.643 R0.794
G1 X-5.29 Y8.582
G2 X-5.428 Y8.522 R0.794
G1 X-5.551 Y8.482
G3 X-6.416 Y6.335 Z-10.381 R1.508
G1 X-3.018 Y-0.009 Z-11.422
G3 X-0.181 Y0.703 Z-12. R1.508
G1 Y0.929
G3 X-0.774 Y1.267 R0.393
G2 X-0.987 Y1.144 R9.385
G3 X-1.137 Y0.994 R0.393
G2 X-1.265 Y0.776 R9.385
G3 X-0.929 Y0.181 R0.393
G1 X-0.573
G3 X-0.181 Y0.573 R0.393
G1 Y0.703
G2 X0.409 Y1.459 R0.78
G3 X0.819 Y2.325 R0.621
X-0.61 Y2.684 R0.951
G2 X-1.565 Y2.07 R8.296
G3 X-2.061 Y1.576 R1.273
G2 X-2.361 Y1.08 R8.533
X-2.69 Y0.603 R10.78
G3 X-1.921 Y-0.909 R0.951
G1 X-0.054
G3 X0.909 Y0.054 R0.963
G1 Y1.921
G3 X0.819 Y2.325 R0.951
G2 X0.743 Y4.213 R2.437
G3 X0.503 Y6.088 R2.027
G1 X0.498 Y6.096
G3 X-0.494 Y6.101 R0.608
G2 X-2.837 Y4.042 R6.885
G3 X-4.048 Y2.822 R2.978
G2 X-6.096 Y0.498 R6.692
G3 X-6.101 Y-0.494 R0.608
G2 X-5.138 Y-1.324 R7.072
X-4.345 Y-2.319 R6.587
G3 X-2.63 Y-3.25 R2.045
G1 X2.306
G3 X3.25 Y-2.306 R0.944
G1 Y2.63
G3 X2.332 Y4.34 R2.05
G2 X1.332 Y5.131 R7.483
X0.503 Y6.088 R6.233
X0.561 Y7.941 R1.545
G3 X1.153 Y9.697 R2.706
G2 X1.251 Y10.884 R5.575
G3 X0.533 Y11.753 R0.732
G1 X-0.525
G3 X-1.253 Y10.871 R0.741
G2 X-4.217 Y5.512 R4.769
G3 X-5.501 Y4.252 R2.275
G2 X-7.272 Y2.006 R5.195
X-9.999 Y1.142 R4.582
X-10.455 Y1.178 R3.393
X-10.906 Y1.256 R9.204
G3 X-11.753 Y0.559 R0.71
G1 Y-0.525
G3 X-10.871 Y-1.253 R0.741
G2 X-5.506 Y-4.232 R4.769
G3 X-4.147 Y-5.167 R1.455
G1 X4.204
G3 X5.167 Y-4.204 R0.963
G1 Y4.147
G3 X4.259 Y5.498 R1.46
G2 X2.912 Y6.243 R6.551
X1.848 Y7.354 R4.219
X1.205 Y9.061 R4.159
X1.153 Y9.697 R5.575
X2.483 Y11.503 R1.831
G3 X4.526 Y12.43 R7.512
G2 X5.602 Y12.85 R2.851
X5.952 Y12.88 R2.088
X9.631 Y12.811 R99.794
G3 X13.311 Y12.743 R99.794
X13.84 Y13.271 R0.528
G1 Y13.31
G3 X13.311 Y13.839 R0.528
G1 X-12.875
G3 X-13.839 Y12.875 R0.963
G1 Y-13.079
G3 X-12.745 R0.547
G1 X-12.88 Y-5.951
G2 X-7.912 Y-4.136 R2.815
X-7.467 Y-4.932 R2.455
X-7.25 Y-5.817 R5.508
G3 X-5.568 Y-7.252 R1.703
G1 X5.549
G3 X7.252 Y-5.549 R1.703
G1 Y5.571
G3 X5.824 Y7.252 R1.703
G2 X4.88 Y7.476 R6.823
X4.053 Y7.984 R1.985
X3.356 Y10.886 R2.916
X4.526 Y12.43 R2.851
X5.853 Y12.192 R0.985
G3 X7.058 Y11.586 R1.502
G1 X14.999 Y11.584
X14.997 Y14.993
X-14.994 Y14.997
X-14.997 Y-14.994
X-11.587 Y-14.999
X-11.586 Y-5.951
G2 X-11.575 Y-5.818 R0.794
G1 X-11.546 Y-5.652
G2 X-11.498 Y-5.484 R0.794
G1 X-11.43 Y-5.317
G2 X-11.357 Y-5.179 R0.794
G1 X-11.286 Y-5.071
G2 X-11.197 Y-4.96 R0.794
G1 X-11.091 Y-4.849
G2 X-10.978 Y-4.752 R0.794
G1 X-10.862 Y-4.669
G2 X-10.72 Y-4.588 R0.794
G1 X-10.554 Y-4.515
G2 X-10.386 Y-4.462 R0.794
G1 X-10.219 Y-4.43
G2 X-10.051 Y-4.416 R0.794
G1 X-9.884 Y-4.419
G2 X-9.716 Y-4.44 R0.794
G1 X-9.549 Y-4.48
G2 X-9.381 Y-4.541 R0.794
G1 X-9.214 Y-4.624
G2 X-9.074 Y-4.713 R0.794
G1 X-8.96 Y-4.803
G2 X-8.844 Y-4.916 R0.794
G1 X-8.729 Y-5.052
G2 X-8.643 Y-5.178 R0.794
G1 X-8.582 Y-5.29
G2 X-8.522 Y-5.428 R0.794
G1 X-8.467 Y-5.595
G2 X-8.439 Y-5.715 R0.794
G1 X-8.276 Y-6.739
X-7.936 Y-7.406
X-7.407 Y-7.935
X-6.739 Y-8.276
X-5.889 Y-8.41
X5.889
X6.739 Y-8.276
X7.406 Y-7.936
X7.935 Y-7.407
X8.276 Y-6.739
X8.41 Y-5.889
Y5.889
X8.276 Y6.739
X7.936 Y7.406
X7.407 Y7.935
X6.739 Y8.276
X5.656 Y8.453
G2 X5.484 Y8.502 R0.794
G1 X5.317 Y8.57
G2 X5.171 Y8.648 R0.794
G1 X5.047 Y8.732
G2 X4.925 Y8.835 R0.794
G1 X4.808 Y8.955
G2 X4.713 Y9.074 R0.794
G1 X4.638 Y9.186
G2 X4.566 Y9.326 R0.794
G1 X4.498 Y9.493
G2 X4.451 Y9.661 R0.794
G1 X4.424 Y9.828
G2 X4.415 Y9.996 R0.794
G1 X4.423 Y10.162
G2 X4.45 Y10.33 R0.794
G1 X4.495 Y10.497
G2 X4.547 Y10.636 R0.794
G1 X4.601 Y10.747
G2 X4.669 Y10.862 R0.794
G1 X4.752 Y10.978
G2 X4.849 Y11.091 R0.794
G1 X4.96 Y11.197
G2 X5.071 Y11.286 R0.794
G1 X5.179 Y11.357
G2 X5.317 Y11.43 R0.794
G1 X5.484 Y11.498
G2 X5.652 Y11.546 R0.794
G1 X5.818 Y11.575
G2 X5.951 Y11.586 R0.794
G1 X7.058
G3 X7.217 Y11.756 R0.159
X7.036 Y11.902 R0.159
G1 X-2.792 Y10.511
G3 X-2.928 Y10.341 R0.159
G2 X-5.363 Y7.059 R3.115
G3 X-7.067 Y5.334 R2.23
G2 X-9.451 Y2.935 R3.097
X-12.582 Y4.213 R3.001
X-12.989 Y5.041 R3.625
X-13.141 Y5.951 R2.813
G3 X-13.216 Y8.319 R37.318
G2 X-13.064 Y10.682 R9.296
X-12.158 Y12.279 R2.884
X-10.515 Y13.096 R3.445
X-8.234 Y13.228 R8.534
G3 X-5.951 Y13.141 R29.872
G2 X-2.93 Y10.364 R3.032
X-2.928 Y10.341 R3.115
X-3.917 Y8.957 R1.324
G3 X-5.551 Y8.482 R27.828
G1 X-5.595 Y8.467
G2 X-5.715 Y8.439 R0.794
G1 X-6.739 Y8.276
X-7.406 Y7.936
X-7.935 Y7.407
X-8.276 Y6.739
X-8.453 Y5.656
G2 X-8.502 Y5.484 R0.794
G1 X-8.57 Y5.317
G2 X-8.648 Y5.171 R0.794
G1 X-8.732 Y5.047
G2 X-8.835 Y4.925 R0.794
G1 X-8.955 Y4.808
G2 X-9.074 Y4.713 R0.794
G1 X-9.186 Y4.638
G2 X-9.326 Y4.566 R0.794
G1 X-9.493 Y4.498
G2 X-9.661 Y4.451 R0.794
G1 X-9.828 Y4.424
G2 X-9.996 Y4.415 R0.794
G1 X-10.162 Y4.423
G2 X-10.33 Y4.45 R0.794
G1 X-10.497 Y4.495
G2 X-10.636 Y4.547 R0.794
G1 X-10.747 Y4.601
G2 X-10.862 Y4.669 R0.794
G1 X-10.978 Y4.752
G2 X-11.091 Y4.849 R0.794
G1 X-11.197 Y4.96
G2 X-11.286 Y5.071 R0.794
G1 X-11.357 Y5.179
G2 X-11.43 Y5.317 R0.794
G1 X-11.498 Y5.484
G2 X-11.546 Y5.652 R0.794
G1 X-11.575 Y5.818
G2 X-11.586 Y5.952 R0.794
G1 X-11.585 Y10.067
G2 X-11.57 Y10.219 R0.794
G1 X-11.538 Y10.386
G2 X-11.485 Y10.554 R0.794
G1 X-11.412 Y10.72
G2 X-11.333 Y10.86 R0.794
G1 X-11.254 Y10.972
G2 X-11.163 Y11.078 R0.794
G1 X-11.062 Y11.178
G2 X-10.959 Y11.264 R0.794
G1 X-10.855 Y11.336
G2 X-10.72 Y11.412 R0.794
G1 X-10.554 Y11.485
G2 X-10.386 Y11.538 R0.794
G1 X-10.219 Y11.57
G2 X-10.067 Y11.585 R0.794
G1 X-5.952 Y11.586
G2 X-5.818 Y11.575 R0.794
G1 X-5.652 Y11.546
G2 X-5.484 Y11.498 R0.794
G1 X-5.317 Y11.43
G2 X-5.179 Y11.357 R0.794
G1 X-5.071 Y11.286
G2 X-4.96 Y11.197 R0.794
G1 X-4.849 Y11.091
G2 X-4.752 Y10.978 R0.794
G1 X-4.669 Y10.862
G2 X-4.588 Y10.72 R0.794
G1 X-4.515 Y10.554
G2 X-4.462 Y10.386 R0.794
G1 X-4.43 Y10.219
G2 X-4.416 Y10.051 R0.794
G1 X-4.419 Y9.884
G2 X-4.44 Y9.716 R0.794
G1 X-4.48 Y9.549
G2 X-4.541 Y9.381 R0.794
G1 X-4.624 Y9.214
G2 X-4.713 Y9.074 R0.794
G1 X-4.803 Y8.96
G2 X-4.916 Y8.844 R0.794
G1 X-5.052 Y8.729
G2 X-5.178 Y8.643 R0.794
G1 X-5.29 Y8.582
G2 X-5.428 Y8.522 R0.794
G1 X-5.551 Y8.482
G3 X-6.416 Y6.335 Z-12.191 R1.508
G1 X-3.018 Y-0.009 Z-12.711
G3 X-0.181 Y0.703 Z-13. R1.508
G1 Y0.929
G3 X-0.774 Y1.267 R0.393
G2 X-0.987 Y1.144 R9.385
G3 X-1.137 Y0.994 R0.393
G2 X-1.265 Y0.776 R9.385
G3 X-0.929 Y0.181 R0.393
G1 X-0.573
G3 X-0.181 Y0.573 R0.393
G1 Y0.703
G2 X0.409 Y1.459 R0.78
G3 X0.819 Y2.325 R0.621
X-0.61 Y2.684 R0.951
G2 X-1.565 Y2.07 R8.296
G3 X-2.061 Y1.576 R1.273
G2 X-2.361 Y1.08 R8.533
X-2.69 Y0.603 R10.78
G3 X-1.921 Y-0.909 R0.951
G1 X-0.054
G3 X0.909 Y0.054 R0.963
G1 Y1.921
G3 X0.819 Y2.325 R0.951
G2 X0.743 Y4.213 R2.437
G3 X0.503 Y6.088 R2.027
G1 X0.498 Y6.096
G3 X-0.494 Y6.101 R0.608
G2 X-2.837 Y4.042 R6.885
G3 X-4.048 Y2.822 R2.978
G2 X-6.096 Y0.498 R6.692
G3 X-6.101 Y-0.494 R0.608
G2 X-5.138 Y-1.324 R7.072
X-4.345 Y-2.319 R6.587
G3 X-2.63 Y-3.25 R2.045
G1 X2.306
G3 X3.25 Y-2.306 R0.944
G1 Y2.63
G3 X2.332 Y4.34 R2.05
G2 X1.332 Y5.131 R7.483
X0.503 Y6.088 R6.233
X0.561 Y7.941 R1.545
G3 X1.153 Y9.697 R2.706
G2 X1.251 Y10.884 R5.575
G3 X0.533 Y11.753 R0.732
G1 X-0.525
G3 X-1.253 Y10.871 R0.741
G2 X-4.217 Y5.512 R4.769
G3 X-5.501 Y4.252 R2.275
G2 X-7.272 Y2.006 R5.195
X-9.999 Y1.142 R4.582
X-10.455 Y1.178 R3.393
X-10.906 Y1.256 R9.204
G3 X-11.753 Y0.559 R0.71
G1 Y-0.525
G3 X-10.871 Y-1.253 R0.741
G2 X-5.506 Y-4.232 R4.769
G3 X-4.147 Y-5.167 R1.455
G1 X4.204
G3 X5.167 Y-4.204 R0.963
G1 Y4.147
G3 X4.259 Y5.498 R1.46
G2 X2.912 Y6.243 R6.551
X1.848 Y7.354 R4.219
X1.205 Y9.061 R4.159
X1.153 Y9.697 R5.575
X2.483 Y11.503 R1.831
G3 X4.526 Y12.43 R7.512
G2 X5.602 Y12.85 R2.851
X5.952 Y12.88 R2.088
X9.631 Y12.811 R99.794
G3 X13.311 Y12.743 R99.794
X13.84 Y13.271 R0.528
G1 Y13.31
G3 X13.311 Y13.839 R0.528
G1 X-12.875
G3 X-13.839 Y12.875 R0.963
G1 Y-13.079
G3 X-12.745 R0.547
G1 X-12.88 Y-5.951
G2 X-7.912 Y-4.136 R2.815
X-7.467 Y-4.932 R2.455
X-7.25 Y-5.817 R5.508
G3 X-5.568 Y-7.252 R1.703
G1 X5.549
G3 X7.252 Y-5.549 R1.703
G1 Y5.571
G3 X5.824 Y7.252 R1.703
G2 X4.88 Y7.476 R6.823
X4.053 Y7.984 R1.985
X3.356 Y10.886 R2.916
X4.526 Y12.43 R2.851
X5.853 Y12.192 R0.985
G3 X7.058 Y11.586 R1.502
G1 X14.999 Y11.584
X14.997 Y14.993
X-14.994 Y14.997
X-14.997 Y-14.994
X-11.587 Y-14.999
X-11.586 Y-5.951
G2 X-11.575 Y-5.818 R0.794
G1 X-11.546 Y-5.652
G2 X-11.498 Y-5.484 R0.794
G1 X-11.43 Y-5.317
G2 X-11.357 Y-5.179 R0.794
G1 X-11.286 Y-5.071
G2 X-11.197 Y-4.96 R0.794
G1 X-11.091 Y-4.849
G2 X-10.978 Y-4.752 R0.794
G1 X-10.862 Y-4.669
G2 X-10.72 Y-4.588 R0.794
G1 X-10.554 Y-4.515
G2 X-10.386 Y-4.462 R0.794
G1 X-10.219 Y-4.43
G2 X-10.051 Y-4.416 R0.794
G1 X-9.884 Y-4.419
G2 X-9.716 Y-4.44 R0.794
G1 X-9.549 Y-4.48
G2 X-9.381 Y-4.541 R0.794
G1 X-9.214 Y-4.624
G2 X-9.074 Y-4.713 R0.794
G1 X-8.96 Y-4.803
G2 X-8.844 Y-4.916 R0.794
G1 X-8.729 Y-5.052
G2 X-8.643 Y-5.178 R0.794
G1 X-8.582 Y-5.29
G2 X-8.522 Y-5.428 R0.794
G1 X-8.467 Y-5.595
G2 X-8.439 Y-5.715 R0.794
G1 X-8.276 Y-6.739
X-7.936 Y-7.406
X-7.407 Y-7.935
X-6.739 Y-8.276
X-5.889 Y-8.41
X5.889
X6.739 Y-8.276
X7.406 Y-7.936
X7.935 Y-7.407
X8.276 Y-6.739
X8.41 Y-5.889
Y5.889
X8.276 Y6.739
X7.936 Y7.406
X7.407 Y7.935
X6.739 Y8.276
X5.656 Y8.453
G2 X5.484 Y8.502 R0.794
G1 X5.317 Y8.57
G2 X5.171 Y8.648 R0.794
G1 X5.047 Y8.732
G2 X4.925 Y8.835 R0.794
G1 X4.808 Y8.955
G2 X4.713 Y9.074 R0.794
G1 X4.638 Y9.186
G2 X4.566 Y9.326 R0.794
G1 X4.498 Y9.493
G2 X4.451 Y9.661 R0.794
G1 X4.424 Y9.828
G2 X4.415 Y9.996 R0.794
G1 X4.423 Y10.162
G2 X4.45 Y10.33 R0.794
G1 X4.495 Y10.497
G2 X4.547 Y10.636 R0.794
G1 X4.601 Y10.747
G2 X4.669 Y10.862 R0.794
G1 X4.752 Y10.978
G2 X4.849 Y11.091 R0.794
G1 X4.96 Y11.197
G2 X5.071 Y11.286 R0.794
G1 X5.179 Y11.357
G2 X5.317 Y11.43 R0.794
G1 X5.484 Y11.498
G2 X5.652 Y11.546 R0.794
G1 X5.818 Y11.575
G2 X5.951 Y11.586 R0.794
G1 X7.058
G3 X7.217 Y11.756 R0.159
X7.036 Y11.902 R0.159
G1 X-2.792 Y10.511
G3 X-2.928 Y10.341 R0.159
G2 X-5.363 Y7.059 R3.115
G3 X-7.067 Y5.334 R2.23
G2 X-9.451 Y2.935 R3.097
X-12.582 Y4.213 R3.001
X-12.989 Y5.041 R3.625
X-13.141 Y5.951 R2.813
G3 X-13.216 Y8.319 R37.318
G2 X-13.064 Y10.682 R9.296
X-12.158 Y12.279 R2.884
X-10.515 Y13.096 R3.445
X-8.234 Y13.228 R8.534
G3 X-5.951 Y13.141 R29.872
G2 X-2.93 Y10.364 R3.032
X-2.928 Y10.341 R3.115
X-3.917 Y8.957 R1.324
G3 X-5.551 Y8.482 R27.828
G1 X-5.595 Y8.467
G2 X-5.715 Y8.439 R0.794
G1 X-6.739 Y8.276
X-7.406 Y7.936
X-7.935 Y7.407
X-8.276 Y6.739
X-8.453 Y5.656
G2 X-8.502 Y5.484 R0.794
G1 X-8.57 Y5.317
G2 X-8.648 Y5.171 R0.794
G1 X-8.732 Y5.047
G2 X-8.835 Y4.925 R0.794
G1 X-8.955 Y4.808
G2 X-9.074 Y4.713 R0.794
G1 X-9.186 Y4.638
G2 X-9.326 Y4.566 R0.794
G1 X-9.493 Y4.498
G2 X-9.661 Y4.451 R0.794
G1 X-9.828 Y4.424
G2 X-9.996 Y4.415 R0.794
G1 X-10.162 Y4.423
G2 X-10.33 Y4.45 R0.794
G1 X-10.497 Y4.495
G2 X-10.636 Y4.547 R0.794
G1 X-10.747 Y4.601
G2 X-10.862 Y4.669 R0.794
G1 X-10.978 Y4.752
G2 X-11.091 Y4.849 R0.794
G1 X-11.197 Y4.96
G2 X-11.286 Y5.071 R0.794
G1 X-11.357 Y5.179
G2 X-11.43 Y5.317 R0.794
G1 X-11.498 Y5.484
G2 X-11.546 Y5.652 R0.794
G1 X-11.575 Y5.818
G2 X-11.586 Y5.952 R0.794
G1 X-11.585 Y10.067
G2 X-11.57 Y10.219 R0.794
G1 X-11.538 Y10.386
G2 X-11.485 Y10.554 R0.794
G1 X-11.412 Y10.72
G2 X-11.333 Y10.86 R0.794
G1 X-11.254 Y10.972
G2 X-11.163 Y11.078 R0.794
G1 X-11.062 Y11.178
G2 X-10.959 Y11.264 R0.794
G1 X-10.855 Y11.336
G2 X-10.72 Y11.412 R0.794
G1 X-10.554 Y11.485
G2 X-10.386 Y11.538 R0.794
G1 X-10.219 Y11.57
G2 X-10.067 Y11.585 R0.794
G1 X-5.952 Y11.586
G2 X-5.818 Y11.575 R0.794
G1 X-5.652 Y11.546
G2 X-5.484 Y11.498 R0.794
G1 X-5.317 Y11.43
G2 X-5.179 Y11.357 R0.794
G1 X-5.071 Y11.286
G2 X-4.96 Y11.197 R0.794
G1 X-4.849 Y11.091
G2 X-4.752 Y10.978 R0.794
G1 X-4.669 Y10.862
G2 X-4.588 Y10.72 R0.794
G1 X-4.515 Y10.554
G2 X-4.462 Y10.386 R0.794
G1 X-4.43 Y10.219
G2 X-4.416 Y10.051 R0.794
G1 X-4.419 Y9.884
G2 X-4.44 Y9.716 R0.794
G1 X-4.48 Y9.549
G2 X-4.541 Y9.381 R0.794
G1 X-4.624 Y9.214
G2 X-4.713 Y9.074 R0.794
G1 X-4.803 Y8.96
G2 X-4.916 Y8.844 R0.794
G1 X-5.052 Y8.729
G2 X-5.178 Y8.643 R0.794
G1 X-5.29 Y8.582
G2 X-5.428 Y8.522 R0.794
G1 X-5.551 Y8.482
G3 X-5.626 Y8.232 R0.159
G1 X1.151 Y-0.257
G3 X1.425 Y-0.106 R0.159
X-1.425 Y-1.092 Z-13.835 R1.508
X1.425 Y-0.106 Z-14.671 R1.508
X0. Y0.909 Z-15. R1.508
G1 X-2.105
G3 X-2.679 Y0.617 R0.71
G2 X-2.818 Y0.432 R8.295
G3 X-2.814 Y-0.44 R0.71
G2 X-2.675 Y-0.622 R8.295
G3 X-2.105 Y-0.909 R0.71
G1 X0.2
G3 X0.909 Y-0.2 R0.71
G1 Y0.2
G3 X0.2 Y0.909 R0.71
G1 X0.
G2 X-1.626 Y2.175 R1.677
G3 X-3.485 Y3.064 R1.341
X-4.34 Y2.332 R2.05
G2 X-5.172 Y1.29 R7.465
X-6.193 Y0.431 R6.174
G3 X-6.198 Y-0.426 R0.518
G2 X-4.345 Y-2.319 R6.845
G3 X-2.63 Y-3.25 R2.045
G1 X2.306
G3 X3.25 Y-2.306 R0.944
G1 Y2.306
G3 X2.306 Y3.25 R0.944
G1 X-2.63
G3 X-3.485 Y3.064 R2.05
G2 X-5.053 Y2.979 R2.14
G3 X-6.578 Y2.606 R1.475
G2 X-6.995 Y2.221 R5.196
X-9.296 Y1.174 R4.831
X-10.105 Y1.143 R3.287
X-10.906 Y1.256 R7.322
G3 X-11.753 Y0.559 R0.71
G1 Y-0.525
G3 X-10.871 Y-1.253 R0.741
G2 X-5.506 Y-4.232 R4.769
G3 X-4.147 Y-5.167 R1.455
G1 X4.204
G3 X5.167 Y-4.204 R0.963
G1 Y4.204
G3 X4.204 Y5.167 R0.963
G1 X-4.147
G3 X-5.498 Y4.259 R1.46
G2 X-6.578 Y2.606 R5.196
X-8.814 Y2.38 R1.744
G3 X-10.844 Y3.344 R7.205
G2 X-10.886 Y3.356 R2.916
X-12.85 Y5.602 R2.851
X-12.88 Y5.952 R2.088
X-12.811 Y9.631 R99.794
G3 X-12.743 Y13.311 R99.794
X-13.271 Y13.84 R0.528
G1 X-13.31
G3 X-13.839 Y13.311 R0.528
G1 Y-13.079
G3 X-12.745 R0.547
G1 X-12.88 Y-5.951
G2 X-7.912 Y-4.136 R2.815
X-7.467 Y-4.932 R2.455
X-7.25 Y-5.817 R5.508
G3 X-5.568 Y-7.252 R1.703
G1 X5.549
G3 X7.252 Y-5.549 R1.703
G1 Y5.549
G3 X5.549 Y7.252 R1.703
G1 X-5.571
G3 X-7.252 Y5.824 R1.703
G2 X-7.476 Y4.88 R6.823
X-7.984 Y4.053 R1.985
X-10.844 Y3.344 R2.916
X-11.569 Y4.479 R1.025
G3 X-11.576 Y5.826 R4.399
G2 X-11.586 Y5.951 R0.794
G1 X-11.584 Y14.999
X-14.993 Y14.997
X-14.997 Y-14.994
X-11.587 Y-14.999
X-11.586 Y-5.951
G2 X-11.575 Y-5.818 R0.794
G1 X-11.546 Y-5.652
G2 X-11.498 Y-5.484 R0.794
G1 X-11.43 Y-5.317
G2 X-11.357 Y-5.179 R0.794
G1 X-11.286 Y-5.071
G2 X-11.197 Y-4.96 R0.794
G1 X-11.091 Y-4.849
G2 X-10.978 Y-4.752 R0.794
G1 X-10.862 Y-4.669
G2 X-10.72 Y-4.588 R0.794
G1 X-10.554 Y-4.515
G2 X-10.386 Y-4.462 R0.794
G1 X-10.219 Y-4.43
G2 X-10.051 Y-4.416 R0.794
G1 X-9.884 Y-4.419
G2 X-9.716 Y-4.44 R0.794
G1 X-9.549 Y-4.48
G2 X-9.381 Y-4.541 R0.794
G1 X-9.214 Y-4.624
G2 X-9.074 Y-4.713 R0.794
G1 X-8.96 Y-4.803
G2 X-8.844 Y-4.916 R0.794
G1 X-8.729 Y-5.052
G2 X-8.643 Y-5.178 R0.794
G1 X-8.582 Y-5.29
G2 X-8.522 Y-5.428 R0.794
G1 X-8.467 Y-5.595
G2 X-8.439 Y-5.715 R0.794
G1 X-8.276 Y-6.739
X-7.936 Y-7.406
X-7.407 Y-7.935
X-6.739 Y-8.276
X-5.889 Y-8.41
X5.889
X6.739 Y-8.276
X7.406 Y-7.936
X7.935 Y-7.407
X8.276 Y-6.739
X8.41 Y-5.889
Y5.889
X8.276 Y6.739
X7.936 Y7.406
X7.407 Y7.935
X6.739 Y8.276
X5.889 Y8.41
X-5.889
X-6.739 Y8.276
X-7.406 Y7.936
X-7.935 Y7.407
X-8.276 Y6.739
X-8.453 Y5.656
G2 X-8.502 Y5.484 R0.794
G1 X-8.57 Y5.317
G2 X-8.648 Y5.171 R0.794
G1 X-8.732 Y5.047
G2 X-8.835 Y4.925 R0.794
G1 X-8.955 Y4.808
G2 X-9.074 Y4.713 R0.794
G1 X-9.186 Y4.638
G2 X-9.326 Y4.566 R0.794
G1 X-9.493 Y4.498
G2 X-9.661 Y4.451 R0.794
G1 X-9.828 Y4.424
G2 X-9.996 Y4.415 R0.794
G1 X-10.162 Y4.423
G2 X-10.33 Y4.45 R0.794
G1 X-10.497 Y4.495
G2 X-10.636 Y4.547 R0.794
G1 X-10.747 Y4.601
G2 X-10.862 Y4.669 R0.794
G1 X-10.978 Y4.752
G2 X-11.091 Y4.849 R0.794
G1 X-11.197 Y4.96
G2 X-11.286 Y5.071 R0.794
G1 X-11.357 Y5.179
G2 X-11.43 Y5.317 R0.794
G1 X-11.498 Y5.484
G2 X-11.546 Y5.652 R0.794
G1 X-11.575 Y5.818
X-11.576 Y5.826
X-12.721 Y11.686
G2 X-12.617 Y11.866 R0.159
G3 X-13.603 Y14.717 Z-15.835 R1.508
X-12.617 Y11.866 Z-16.671 R1.508
X-11.602 Y13.292 Z-17. R1.508
X-13.838 R1.118
G1 Y-13.079
G3 X-12.745 R0.547
G1 X-12.743 Y13.311
G3 X-13.271 Y13.84 R0.528
G1 X-13.31
G3 X-13.838 Y13.311 R0.528
G1 Y13.292
G2 X-14.416 Y12.425 R0.938
G3 X-14.994 Y11.559 R0.939
G1 X-14.997 Y-14.994
X-11.587 Y-14.999
X-11.584 Y14.999
X-14.993 Y14.997
X-14.994 Y11.559
G3 X-12.929 Y10.934 Z-17.314 R1.127
G1 X-11.774 Y12.667 Z-17.541
G3 X-13.649 Y13.917 Z-17.928 R1.127
X-13.838 Y13.292 Z-18. R1.127
G1 Y-13.079
G3 X-12.745 R0.547
G1 X-12.743 Y13.311
G3 X-13.271 Y13.84 R0.528
G1 X-13.31
G3 X-13.838 Y13.311 R0.528
G1 Y13.292
G2 X-14.416 Y12.425 R0.938
G3 X-14.994 Y11.559 R0.939
G1 X-14.997 Y-14.994
X-11.587 Y-14.999
X-11.584 Y14.999
X-14.993 Y14.997
X-14.994 Y11.559
G3 X-14.979 Y11.463 Z-17.984 R0.317
X-14.94 Y11.383 Z-17.939 R0.318
X-14.895 Y11.329 Z-17.869 R0.317
X-14.861 Y11.301 Z-17.781 R0.317
X-14.848 Y11.292 Z-17.683 R0.317
G0 Z5.
X-0.527 Y0.412
Z-12.587
G3 X-0.541 Y0.399 Z-12.696 R1.508 F155.
X-0.58 Y0.359 Z-12.791 R1.508
X-0.636 Y0.297 Z-12.862 R1.508
X-0.701 Y0.216 Z-12.9 R1.508
X1.723 Y-1.579 Z-13.735 R1.508
X-0.701 Y0.216 Z-14.571 R1.508
X1.723 Y-1.579 Z-15.406 R1.508
X-0.701 Y0.216 Z-16.242 R1.508
X1.416 Y-1.888 Z-17. R1.508
X1.715 Y0.204 R1.494
X-0.377 Y0.503 R1.494
X0.377 Y-0.503 R0.628
X-0.377 Y0.503 R0.628
G2 X-1.479 Y0.31 R1.233
G3 X-2.323 Y-0.425 R0.659
G1 X-2.27 Y-0.751
X-2.186 Y-0.914
X-1.926 Y-1.416
X-1.417 Y-1.925
X-0.751 Y-2.27
X0. Y-2.392
X0.751 Y-2.27
X1.406 Y-1.936
X1.925 Y-1.417
X2.27 Y-0.751
X2.392 Y0.
X2.27 Y0.751
X1.936 Y1.406
X1.417 Y1.925
X0.751 Y2.27
X0. Y2.392
X-0.751 Y2.27
X-1.406 Y1.936
X-1.925 Y1.417
X-2.27 Y0.751
X-2.392 Y0.
X-2.323 Y-0.425
G3 X-1.369 Y-1.585 Z-17.171 R1.495
G1 X-0.001 Y-2.094 Z-17.329
G3 X1.041 Y0.708 Z-17.838 R1.495
X-0.377 Y0.503 Z-18. R1.495
X0.377 Y-0.503 R0.628
X-0.377 Y0.503 R0.628
G2 X-1.479 Y0.31 R1.233
G3 X-2.323 Y-0.425 R0.659
G1 X-2.27 Y-0.751
X-2.186 Y-0.914
X-1.926 Y-1.416
X-1.417 Y-1.925
X-0.751 Y-2.27
X0. Y-2.392
X0.751 Y-2.27
X1.406 Y-1.936
X1.925 Y-1.417
X2.27 Y-0.751
X2.392 Y0.
X2.27 Y0.751
X1.936 Y1.406
X1.417 Y1.925
X0.751 Y2.27
X0. Y2.392
X-0.751 Y2.27
X-1.406 Y1.936
X-1.925 Y1.417
X-2.27 Y0.751
X-2.392 Y0.
X-2.323 Y-0.425
G3 X-2.26 Y-0.528 R0.159
G1 X-0.333 Y-1.931
G3 X1.356 Y0.568 Z-18.835 R1.508
X-0.333 Y-1.931 Z-19.671 R1.508
X1.416 Y-1.888 Z-20. R1.508
X1.715 Y0.204 R1.494
X-0.377 Y0.503 R1.494
X0.377 Y-0.503 R0.628
X-0.377 Y0.503 R0.628
G2 X-1.479 Y0.31 R1.233
G3 X-2.323 Y-0.425 R0.659
G1 X-2.27 Y-0.751
X-2.186 Y-0.914
X-1.926 Y-1.416
X-1.417 Y-1.925
X-0.751 Y-2.27
X0. Y-2.392
X0.751 Y-2.27
X1.406 Y-1.936
X1.925 Y-1.417
X2.27 Y-0.751
X2.392 Y0.
X2.27 Y0.751
X1.936 Y1.406
X1.417 Y1.925
X0.751 Y2.27
X0. Y2.392
X-0.751 Y2.27
X-1.406 Y1.936
X-1.925 Y1.417
X-2.27 Y0.751
X-2.392 Y0.
X-2.323 Y-0.425
G3 X-2.292 Y-0.518 Z-19.984 R0.317
X-2.242 Y-0.59 Z-19.939 R0.317
X-2.189 Y-0.636 Z-19.869 R0.318
X-2.15 Y-0.659 Z-19.781 R0.318
X-2.136 Y-0.665 Z-19.683 R0.317
G0 Z10.

(2D CONTOUR1)
M8
G0 X-6.973 Y-16.587
Z10.
Z5.
G1 Z3. F762.
Z2.5
X-15. Z1.085 F155.
G2 X-16.587 Y-15. Z0.645 R1.587
G1 Y0. Z-2.
Y15.
G2 X-15. Y16.587 R1.587
G1 X15.
G2 X16.587 Y15. R1.587
G1 Y-15.
G2 X15. Y-16.587 R1.587
G1 X-15.
G2 X-16.587 Y-15. R1.587
G1 Y0.
Y15. Z-3.466
G2 X-15. Y16.587 Z-3.709 R1.587
G1 X-12.025 Z-4.
X15.
G2 X16.587 Y15. R1.587
G1 Y-15.
G2 X15. Y-16.587 R1.587
G1 X-15.
G2 X-16.587 Y-15. R1.587
G1 Y15.
G2 X-15. Y16.587 R1.587
G1 X-12.025
X8.443 Z-6.
X15.
G2 X16.587 Y15. R1.587
G1 Y-15.
G2 X15. Y-16.587 R1.587
G1 X-15.
G2 X-16.587 Y-15. R1.587
G1 Y15.
G2 X-15. Y16.587 R1.587
G1 X8.443
X15. Z-6.641
G2 X16.587 Y15. Z-6.884 R1.587
G1 Y3.582 Z-8.
Y-15.
G2 X15. Y-16.587 R1.587
G1 X-15.
G2 X-16.587 Y-15. R1.587
G1 Y15.
G2 X-15. Y16.587 R1.587
G1 X8.443
X15.
G2 X16.587 Y15. R1.587
G1 Y3.582
Y-15. Z-9.816
G2 X15.592 Y-16.473 Z-10. R1.587
X15. Y-16.587 R1.587
G1 X-15.
G2 X-16.587 Y-15. R1.587
G1 Y15.
G2 X-15. Y16.587 R1.587
G1 X15.
G2 X16.587 Y15. R1.587
G1 Y-15.
G2 X15.592 Y-16.473 R1.587
X15. Y-16.587 Z-10.059 R1.587
G1 X-4.861 Z-12.
X-15.
G2 X-16.587 Y-15. R1.587
G1 Y15.
G2 X-15. Y16.587 R1.587
G1 X15.
G2 X16.587 Y15. R1.587
G1 Y-15.
G2 X15. Y-16.587 R1.587
G1 X-4.861
X-15. Z-12.991
G2 X-16.587 Y-15. Z-13.234 R1.587
G1 Y-7.164 Z-14.
Y15.
G2 X-15. Y16.587 R1.587
G1 X15.
G2 X16.587 Y15. R1.587
G1 Y-15.
G2 X15. Y-16.587 R1.587
G1 X-4.861
X-15.
G2 X-16.587 Y-15. R1.587
G1 Y-7.164
Y13.304 Z-16.
Y15.
G2 X-15. Y16.587 R1.587
G1 X15.
G2 X16.587 Y15. R1.587
G1 Y-15.
G2 X15. Y-16.587 R1.587
G1 X-15.
G2 X-16.587 Y-15. R1.587
G1 Y13.304
Y15. Z-16.166
G2 X-15. Y16.587 Z-16.409 R1.587
G1 X1.279 Z-18.
X15.
G2 X16.587 Y15. R1.587
G1 Y-15.
G2 X15. Y-16.587 R1.587
G1 X-15.
G2 X-16.587 Y-15. R1.587
G1 Y13.304
Y15.
G2 X-15. Y16.587 R1.587
G1 X1.279
X15. Z-19.341
G2 X16.587 Y15. Z-19.584 R1.587
G1 Y10.746 Z-20.
Y-15.
G2 X15. Y-16.587 R1.587
G1 X-15.
G2 X-16.587 Y-15. R1.587
G1 Y15.
G2 X-15. Y16.587 R1.587
G1 X1.279
X15.
G2 X16.587 Y15. R1.587
G1 Y10.746
G0 Z10.

M9
M30
