(PARTCLAMPTOP_1)
(T1  D=3.175 CR=0. - ZMIN=-20. - FLAT END MILL)
G90 G94 G91.1 G40 G49 G17
G21

(POCKET4)
M5
M9
T1
S10000 M3
G54
M8
G0 X0.646 Y0.175
G43 Z10. H1
Z3.
G1 Z2.413 F762.
G3 X0.644 Y0.194 Z2.304 R1.508
X0.636 Y0.248 Z2.209 R1.508
X0.619 Y0.331 Z2.138 R1.508
X0.593 Y0.431 Z2.1 R1.508
X-2.297 Y-0.431 Z1.265 R1.508
X0.593 Y0.431 Z0.429 R1.508
X-2.297 Y-0.431 Z-0.406 R1.508
X0.593 Y0.431 Z-1.242 R1.508
X-2.36 Y0. Z-2. R1.508
X0.629 R1.494
X-0.629 R0.629
X0.629 R0.629
G2 X1.138 Y0.999 R1.236
G3 X1.049 Y2.118 R0.658
G1 X0.744 Y2.273
X0. Y2.392
X-0.744 Y2.273
X-1.403 Y1.938
X-1.938 Y1.403
X-2.273 Y0.744
X-2.393 Y-0.001
X-2.305 Y-0.556
X-2.274 Y-0.742
X-1.938 Y-1.403
X-1.403 Y-1.938
X-0.744 Y-2.273
X0. Y-2.392
X0.744 Y-2.273
X1.403 Y-1.938
X1.938 Y-1.403
X2.273 Y-0.744
X2.392 Y0.
X2.273 Y0.744
X1.938 Y1.403
X1.403 Y1.938
X1.049 Y2.118
G3 X0.931 Y2.128 R0.159
G1 X-1.345 Y1.425
G3 X-0.359 Y-1.425 Z-2.835 R1.508
X-1.345 Y1.425 Z-3.671 R1.508
X-2.36 Y0. Z-4. R1.508
X0.629 R1.494
X-0.629 R0.629
X0.629 R0.629
G2 X1.138 Y0.999 R1.236
G3 X1.049 Y2.118 R0.658
G1 X0.744 Y2.273
X0. Y2.392
X-0.744 Y2.273
X-1.403 Y1.938
X-1.938 Y1.403
X-2.273 Y0.744
X-2.393 Y-0.001
X-2.305 Y-0.556
X-2.274 Y-0.742
X-1.938 Y-1.403
X-1.403 Y-1.938
X-0.744 Y-2.273
X0. Y-2.392
X0.744 Y-2.273
X1.403 Y-1.938
X1.938 Y-1.403
X2.273 Y-0.744
X2.392 Y0.
X2.273 Y0.744
X1.938 Y1.403
X1.403 Y1.938
X1.049 Y2.118
G3 X0.931 Y2.128 R0.159
G1 X-1.345 Y1.425
G3 X-0.359 Y-1.425 Z-4.835 R1.508
X-1.345 Y1.425 Z-5.671 R1.508
X-2.36 Y0. Z-6. R1.508
X0.629 R1.494
X-0.629 R0.629
X0.629 R0.629
G2 X1.138 Y0.999 R1.236
G3 X1.049 Y2.118 R0.658
G1 X0.744 Y2.273
X0. Y2.392
X-0.744 Y2.273
X-1.403 Y1.938
X-1.938 Y1.403
X-2.273 Y0.744
X-2.393 Y-0.001
X-2.305 Y-0.556
X-2.274 Y-0.742
X-1.938 Y-1.403
X-1.403 Y-1.938
X-0.744 Y-2.273
X0. Y-2.392
X0.744 Y-2.273
X1.403 Y-1.938
X1.938 Y-1.403
X2.273 Y-0.744
X2.392 Y0.
X2.273 Y0.744
X1.938 Y1.403
X1.403 Y1.938
X1.049 Y2.118
G3 X0.931 Y2.128 R0.159
G1 X-1.345 Y1.425
G3 X-0.359 Y-1.425 Z-6.835 R1.508
X-1.345 Y1.425 Z-7.671 R1.508
X-2.36 Y0. Z-8. R1.508
X0.629 R1.494
X-0.629 R0.629
X0.629 R0.629
G2 X1.138 Y0.999 R1.236
G3 X1.049 Y2.118 R0.658
G1 X0.744 Y2.273
X0. Y2.392
X-0.744 Y2.273
X-1.403 Y1.938
X-1.938 Y1.403
X-2.273 Y0.744
X-2.393 Y-0.001
X-2.305 Y-0.556
X-2.274 Y-0.742
X-1.938 Y-1.403
X-1.403 Y-1.938
X-0.744 Y-2.273
X0. Y-2.392
X0.744 Y-2.273
X1.403 Y-1.938
X1.938 Y-1.403
X2.273 Y-0.744
X2.392 Y0.
X2.273 Y0.744
X1.938 Y1.403
X1.403 Y1.938
X1.049 Y2.118
G3 X0.931 Y2.128 R0.159
G1 X-1.345 Y1.425
G3 X-0.359 Y-1.425 Z-8.835 R1.508
X-1.345 Y1.425 Z-9.671 R1.508
X-2.36 Y0. Z-10. R1.508
X0.629 R1.494
X-0.629 R0.629
X0.629 R0.629
G2 X1.138 Y0.999 R1.236
G3 X1.049 Y2.118 R0.658
G1 X0.744 Y2.273
X0. Y2.392
X-0.744 Y2.273
X-1.403 Y1.938
X-1.938 Y1.403
X-2.273 Y0.744
X-2.393 Y-0.001
X-2.305 Y-0.556
X-2.274 Y-0.742
X-1.938 Y-1.403
X-1.403 Y-1.938
X-0.744 Y-2.273
X0. Y-2.392
X0.744 Y-2.273
X1.403 Y-1.938
X1.938 Y-1.403
X2.273 Y-0.744
X2.392 Y0.
X2.273 Y0.744
X1.938 Y1.403
X1.403 Y1.938
X1.049 Y2.118
G3 X-0.431 Y2.048 Z-10.168 R1.495
G1 X-1.668 Y1.262 Z-10.327
G3 X-0.065 Y-1.262 Z-10.837 R1.495
X0.629 Y0. Z-11. R1.495
X-0.629 R0.629
X0.629 R0.629
G2 X1.138 Y0.999 R1.236
G3 X1.049 Y2.118 R0.658
G1 X0.744 Y2.273
X0. Y2.392
X-0.744 Y2.273
X-1.403 Y1.938
X-1.938 Y1.403
X-2.273 Y0.744
X-2.393 Y-0.001
X-2.305 Y-0.556
X-2.274 Y-0.742
X-1.938 Y-1.403
X-1.403 Y-1.938
X-0.744 Y-2.273
X0. Y-2.392
X0.744 Y-2.273
X1.403 Y-1.938
X1.938 Y-1.403
X2.273 Y-0.744
X2.392 Y0.
X2.273 Y0.744
X1.938 Y1.403
X1.403 Y1.938
X1.049 Y2.118
G3 X0.931 Y2.128 R0.159
G1 X-1.345 Y1.425
G3 X-0.359 Y-1.425 Z-11.835 R1.508
X-1.345 Y1.425 Z-12.671 R1.508
X-2.36 Y0. Z-13. R1.508
X0.629 R1.494
X-0.629 R0.629
X0.629 R0.629
G2 X1.138 Y0.999 R1.236
G3 X1.049 Y2.118 R0.658
G1 X0.744 Y2.273
X0. Y2.392
X-0.744 Y2.273
X-1.403 Y1.938
X-1.938 Y1.403
X-2.273 Y0.744
X-2.393 Y-0.001
X-2.305 Y-0.556
X-2.274 Y-0.742
X-1.938 Y-1.403
X-1.403 Y-1.938
X-0.744 Y-2.273
X0. Y-2.392
X0.744 Y-2.273
X1.403 Y-1.938
X1.938 Y-1.403
X2.273 Y-0.744
X2.392 Y0.
X2.273 Y0.744
X1.938 Y1.403
X1.403 Y1.938
X1.049 Y2.118
G3 X0.931 Y2.128 R0.159
G1 X-1.345 Y1.425
G3 X-0.359 Y-1.425 Z-13.835 R1.508
X-1.345 Y1.425 Z-14.671 R1.508
X-2.36 Y0. Z-15. R1.508
X0.629 R1.494
X-0.629 R0.629
X0.629 R0.629
G2 X1.138 Y0.999 R1.236
G3 X1.049 Y2.118 R0.658
G1 X0.744 Y2.273
X0. Y2.392
X-0.744 Y2.273
X-1.403 Y1.938
X-1.938 Y1.403
X-2.273 Y0.744
X-2.393 Y-0.001
X-2.305 Y-0.556
X-2.274 Y-0.742
X-1.938 Y-1.403
X-1.403 Y-1.938
X-0.744 Y-2.273
X0. Y-2.392
X0.744 Y-2.273
X1.403 Y-1.938
X1.938 Y-1.403
X2.273 Y-0.744
X2.392 Y0.
X2.273 Y0.744
X1.938 Y1.403
X1.403 Y1.938
X1.049 Y2.118
G3 X-1.117 Y0.635 Z-15.511 R1.495
G1 X-0.968 Y-0.844 Z-15.748
G3 X2.008 Y-0.543 Z-16.496 R1.495
X-0.377 Y0.503 Z-17. R1.495
X0.377 Y-0.503 R0.629
X-0.377 Y0.503 R0.629
G2 X-1.48 Y0.311 R1.233
G3 X-2.326 Y-0.422 R0.659
G1 X-2.305 Y-0.556
X-2.274 Y-0.742
X-1.938 Y-1.403
X-1.403 Y-1.938
X-0.744 Y-2.273
X0. Y-2.392
X0.744 Y-2.273
X1.403 Y-1.938
X1.938 Y-1.403
X2.273 Y-0.744
X2.392 Y0.
X2.273 Y0.744
X1.938 Y1.403
X1.403 Y1.938
X0.744 Y2.273
X0. Y2.392
X-0.744 Y2.273
X-1.403 Y1.938
X-1.938 Y1.403
X-2.273 Y0.744
X-2.393 Y-0.001
X-2.326 Y-0.422
G3 X-2.028 Y-0.471 R0.159
G1 X-1.152 Y1.202
G3 X-1.345 Y1.425 R0.159
X-0.359 Y-1.425 Z-17.835 R1.508
X-1.345 Y1.425 Z-18.671 R1.508
X-2.36 Y0. Z-19. R1.508
X0.629 R1.494
X-0.629 R0.629
X0.629 R0.629
G2 X1.138 Y0.999 R1.236
G3 X1.049 Y2.118 R0.658
G1 X0.744 Y2.273
X0. Y2.392
X-0.744 Y2.273
X-1.403 Y1.938
X-1.938 Y1.403
X-2.273 Y0.744
X-2.393 Y-0.001
X-2.305 Y-0.556
X-2.274 Y-0.742
X-1.938 Y-1.403
X-1.403 Y-1.938
X-0.744 Y-2.273
X0. Y-2.392
X0.744 Y-2.273
X1.403 Y-1.938
X1.938 Y-1.403
X2.273 Y-0.744
X2.392 Y0.
X2.273 Y0.744
X1.938 Y1.403
X1.403 Y1.938
X1.049 Y2.118
G3 X-0.431 Y2.048 Z-19.168 R1.495
G1 X-1.668 Y1.262 Z-19.327
G3 X-0.065 Y-1.262 Z-19.837 R1.495
X0.629 Y0. Z-20. R1.495
X-0.629 R0.629
X0.629 R0.629
G2 X1.138 Y0.999 R1.236
G3 X1.049 Y2.118 R0.658
G1 X0.744 Y2.273
X0. Y2.392
X-0.744 Y2.273
X-1.403 Y1.938
X-1.938 Y1.403
X-2.273 Y0.744
X-2.393 Y-0.001
X-2.305 Y-0.556
X-2.274 Y-0.742
X-1.938 Y-1.403
X-1.403 Y-1.938
X-0.744 Y-2.273
X0. Y-2.392
X0.744 Y-2.273
X1.403 Y-1.938
X1.938 Y-1.403
X2.273 Y-0.744
X2.392 Y0.
X2.273 Y0.744
X1.938 Y1.403
X1.403 Y1.938
X1.049 Y2.118
G3 X0.957 Y2.148 Z-19.984 R0.318
X0.868 Y2.15 Z-19.939 R0.317
X0.8 Y2.134 Z-19.869 R0.318
X0.759 Y2.116 Z-19.781 R0.318
X0.745 Y2.109 Z-19.683 R0.318
G0 Z5.
X10.706 Y-10.951
Z2.413
G3 X10.694 Y-10.966 Z2.304 R1.508 F762.
X10.661 Y-11.01 Z2.209 R1.508
X10.614 Y-11.08 Z2.138 R1.508
X10.562 Y-11.17 Z2.1 R1.508
X13.213 Y-12.608 Z1.265 R1.508
X10.562 Y-11.17 Z0.429 R1.508
X13.213 Y-12.608 Z-0.406 R1.508
X10.562 Y-11.17 Z-1.242 R1.508
X12.952 Y-12.957 Z-2. R1.508
X12.955 Y-10.899 R1.455
X10.897 Y-10.896 R1.455
G1 X10.513 Y-11.279
G3 X10.821 Y-12.025 R0.437
G1 X11.496
G3 X12.025 Y-11.496 R0.528
G1 Y-10.809
G3 X11.29 Y-10.504 R0.431
G1 X10.897 Y-10.896
G3 X10.84 Y-10.975 Z-1.984 R0.318
X10.81 Y-11.058 Z-1.939 R0.318
X10.804 Y-11.128 Z-1.869 R0.317
X10.808 Y-11.172 Z-1.781 R0.317
X10.811 Y-11.188 Z-1.683 R0.318
G0 Z5.
X-12.121 Y-11.538
Z2.413
G3 X-12.118 Y-11.557 Z2.304 R1.508 F762.
X-12.11 Y-11.612 Z2.209 R1.508
X-12.094 Y-11.695 Z2.138 R1.508
X-12.068 Y-11.795 Z2.1 R1.508
X-9.177 Y-10.933 Z1.265 R1.508
X-12.068 Y-11.795 Z0.429 R1.508
X-9.177 Y-10.933 Z-0.406 R1.508
X-12.068 Y-11.795 Z-1.242 R1.508
X-9.115 Y-11.364 Z-2. R1.508
X-12.025 R1.455
G1 Y-11.496
G3 X-11.496 Y-12.025 R0.528
G1 X-10.809
G3 X-10.504 Y-11.29 R0.431
G1 X-11.279 Y-10.513
G3 X-12.025 Y-10.821 R0.437
G1 Y-11.364
G3 X-12.01 Y-11.46 Z-1.984 R0.318
X-11.972 Y-11.54 Z-1.939 R0.318
X-11.927 Y-11.594 Z-1.869 R0.318
X-11.892 Y-11.622 Z-1.781 R0.318
X-11.879 Y-11.631 Z-1.683 R0.318
G0 Z5.
X-11.538 Y12.121
Z2.413
G3 X-11.557 Y12.118 Z2.304 R1.508 F762.
X-11.612 Y12.11 Z2.209 R1.508
X-11.695 Y12.094 Z2.138 R1.508
X-11.795 Y12.068 Z2.1 R1.508
X-10.933 Y9.177 Z1.265 R1.508
X-11.795 Y12.068 Z0.429 R1.508
X-10.933 Y9.177 Z-0.406 R1.508
X-11.795 Y12.068 Z-1.242 R1.508
X-11.364 Y9.115 Z-2. R1.508
Y12.025 R1.455
G1 X-11.496
G3 X-12.025 Y11.496 R0.528
G1 Y10.809
G3 X-11.29 Y10.504 R0.431
G1 X-10.513 Y11.279
G3 X-10.821 Y12.025 R0.437
G1 X-11.364
G3 X-11.46 Y12.01 Z-1.984 R0.318
X-11.54 Y11.972 Z-1.939 R0.318
X-11.594 Y11.927 Z-1.869 R0.318
X-11.622 Y11.892 Z-1.781 R0.318
X-11.631 Y11.879 Z-1.683 R0.318
G0 Z5.
X10.949 Y10.709
Z2.413
G3 X10.964 Y10.697 Z2.304 R1.508 F762.
X11.008 Y10.664 Z2.209 R1.508
X11.078 Y10.616 Z2.138 R1.508
X11.167 Y10.563 Z2.1 R1.508
X12.618 Y13.208 Z1.265 R1.508
X11.167 Y10.563 Z0.429 R1.508
X12.618 Y13.208 Z-0.406 R1.508
X11.167 Y10.563 Z-1.242 R1.508
X12.966 Y12.945 Z-2. R1.508
X10.908 Y12.958 R1.455
X10.894 Y10.9 R1.455
X11.279 Y10.513 R115.679
X12.025 Y10.821 R0.437
G1 Y11.496
G3 X11.496 Y12.025 R0.528
G1 X10.717
G3 X10.442 Y11.352 R0.393
G2 X10.862 Y10.934 R37.537
G3 X10.894 Y10.9 R115.679
G2 X11.09 Y9.572 R1.136
G3 X11.079 Y8.228 R1.459
G1 X11.239 Y7.915
G2 X11.287 Y7.796 R0.794
G1 X11.338 Y7.635
G2 X11.366 Y7.518 R0.794
G1 X11.575 Y6.19
G2 X11.585 Y6.066 R0.794
G1 Y-6.066
G2 X11.575 Y-6.191 R0.794
G1 X11.358 Y-7.555
G2 X11.325 Y-7.687 R0.794
G1 X11.282 Y-7.813
G2 X11.238 Y-7.916 R0.794
G1 X10.618 Y-9.129
G2 X10.533 Y-9.262 R0.794
G1 X10.418 Y-9.407
G2 X10.356 Y-9.476 R0.794
G1 X9.429 Y-10.4
G2 X9.311 Y-10.497 R0.794
G1 X9.156 Y-10.601
G2 X9.073 Y-10.65 R0.794
G1 X7.915 Y-11.239
G2 X7.796 Y-11.287 R0.794
G1 X7.635 Y-11.338
G2 X7.518 Y-11.366 R0.794
G1 X6.19 Y-11.575
G2 X6.066 Y-11.585 R0.794
G1 X-6.066
G2 X-6.191 Y-11.575 R0.794
G1 X-7.555 Y-11.358
G2 X-7.687 Y-11.325 R0.794
G1 X-7.813 Y-11.282
G2 X-7.916 Y-11.238 R0.794
G1 X-9.129 Y-10.618
G2 X-9.262 Y-10.533 R0.794
G1 X-9.407 Y-10.418
G2 X-9.476 Y-10.356 R0.794
G1 X-10.4 Y-9.429
G2 X-10.497 Y-9.311 R0.794
G1 X-10.601 Y-9.156
G2 X-10.65 Y-9.073 R0.794
G1 X-11.239 Y-7.915
G2 X-11.287 Y-7.796 R0.794
G1 X-11.338 Y-7.635
G2 X-11.363 Y-7.537 R0.794
G1 X-11.369 Y-7.502
G2 X-11.372 Y-7.483 R0.794
G1 X-11.575 Y-6.189
G2 X-11.585 Y-6.066 R0.794
G1 Y6.066
G2 X-11.575 Y6.191 R0.794
G1 X-11.358 Y7.555
G2 X-11.325 Y7.687 R0.794
G1 X-11.282 Y7.813
G2 X-11.238 Y7.916 R0.794
G1 X-10.618 Y9.129
G2 X-10.533 Y9.262 R0.794
G1 X-10.418 Y9.407
G2 X-10.356 Y9.476 R0.794
G1 X-9.429 Y10.4
G2 X-9.311 Y10.497 R0.794
G1 X-9.156 Y10.601
G2 X-9.073 Y10.65 R0.794
G1 X-7.915 Y11.239
G2 X-7.796 Y11.287 R0.794
G1 X-7.635 Y11.338
G2 X-7.518 Y11.366 R0.794
G1 X-6.19 Y11.575
G2 X-6.066 Y11.585 R0.794
G1 X6.066
G2 X6.191 Y11.575 R0.794
G1 X7.555 Y11.358
G2 X7.687 Y11.325 R0.794
G1 X7.813 Y11.282
G2 X7.916 Y11.238 R0.794
G1 X9.129 Y10.618
G2 X9.262 Y10.533 R0.794
G1 X9.407 Y10.418
G2 X9.476 Y10.356 R0.794
G1 X10.4 Y9.429
G2 X10.497 Y9.311 R0.794
G1 X10.601 Y9.156
G2 X10.65 Y9.073 R0.794
G1 X11.079 Y8.228
G3 X11.353 Y8.212 R0.159
G1 X13.386 Y11.275
G3 X13.413 Y11.363 R0.159
G1 Y13.413
X-13.413
Y-13.413
X13.413
Y10.68
Y11.363
G3 X13.324 Y11.408 R0.056
G1 X13.161 Y11.287
G3 X13.228 Y11.198 R0.056
X13.244 Y11.218 R0.056
X10.54 Y12.553 Z-2.835 R1.508
X13.244 Y11.218 Z-3.671 R1.508
X12.966 Y12.945 Z-4. R1.508
X10.908 Y12.958 R1.455
X10.894 Y10.9 R1.455
X11.279 Y10.513 R115.679
X12.025 Y10.821 R0.437
G1 Y11.496
G3 X11.496 Y12.025 R0.528
G1 X10.717
G3 X10.442 Y11.352 R0.393
G2 X10.862 Y10.934 R37.537
G3 X10.894 Y10.9 R115.679
X10.973 Y10.843 Z-3.984 R0.318
X11.057 Y10.813 Z-3.939 R0.318
X11.126 Y10.807 Z-3.869 R0.317
X11.171 Y10.811 Z-3.781 R0.318
X11.186 Y10.814 Z-3.683 R0.317
G0 Z5.
X-11.538 Y12.121
Z0.413
G3 X-11.557 Y12.118 Z0.304 R1.508 F762.
X-11.612 Y12.11 Z0.209 R1.508
X-11.695 Y12.094 Z0.138 R1.508
X-11.795 Y12.068 Z0.1 R1.508
X-10.933 Y9.177 Z-0.735 R1.508
X-11.795 Y12.068 Z-1.571 R1.508
X-10.933 Y9.177 Z-2.406 R1.508
X-11.795 Y12.068 Z-3.242 R1.508
X-11.364 Y9.115 Z-4. R1.508
Y12.025 R1.455
G1 X-11.496
G3 X-12.025 Y11.496 R0.528
G1 Y10.809
G3 X-11.29 Y10.504 R0.431
G1 X-10.513 Y11.279
G3 X-10.821 Y12.025 R0.437
G1 X-11.364
G3 X-11.46 Y12.01 Z-3.984 R0.318
X-11.54 Y11.972 Z-3.939 R0.318
X-11.594 Y11.927 Z-3.869 R0.318
X-11.622 Y11.892 Z-3.781 R0.318
X-11.631 Y11.879 Z-3.683 R0.318
G0 Z5.
X-12.121 Y-11.538
Z0.413
G3 X-12.118 Y-11.557 Z0.304 R1.508 F762.
X-12.11 Y-11.612 Z0.209 R1.508
X-12.094 Y-11.695 Z0.138 R1.508
X-12.068 Y-11.795 Z0.1 R1.508
X-9.177 Y-10.933 Z-0.735 R1.508
X-12.068 Y-11.795 Z-1.571 R1.508
X-9.177 Y-10.933 Z-2.406 R1.508
X-12.068 Y-11.795 Z-3.242 R1.508
X-9.115 Y-11.364 Z-4. R1.508
X-12.025 R1.455
G1 Y-11.496
G3 X-11.496 Y-12.025 R0.528
G1 X-10.809
G3 X-10.504 Y-11.29 R0.431
G1 X-11.279 Y-10.513
G3 X-12.025 Y-10.821 R0.437
G1 Y-11.364
G3 X-12.01 Y-11.46 Z-3.984 R0.318
X-11.972 Y-11.54 Z-3.939 R0.318
X-11.927 Y-11.594 Z-3.869 R0.318
X-11.892 Y-11.622 Z-3.781 R0.318
X-11.879 Y-11.631 Z-3.683 R0.318
G0 Z5.
X10.706 Y-10.951
Z0.413
G3 X10.694 Y-10.966 Z0.304 R1.508 F762.
X10.661 Y-11.01 Z0.209 R1.508
X10.614 Y-11.08 Z0.138 R1.508
X10.562 Y-11.17 Z0.1 R1.508
X13.213 Y-12.608 Z-0.735 R1.508
X10.562 Y-11.17 Z-1.571 R1.508
X13.213 Y-12.608 Z-2.406 R1.508
X10.562 Y-11.17 Z-3.242 R1.508
X12.952 Y-12.957 Z-4. R1.508
X12.955 Y-10.899 R1.455
X10.897 Y-10.896 R1.455
G1 X10.513 Y-11.279
G3 X10.821 Y-12.025 R0.437
G1 X11.496
G3 X12.025 Y-11.496 R0.528
G1 Y-10.809
G3 X11.29 Y-10.504 R0.431
G1 X10.897 Y-10.896
G2 X9.567 Y-11.094 R1.133
G3 X8.221 Y-11.083 R1.46
G1 X7.915 Y-11.239
G2 X7.796 Y-11.287 R0.794
G1 X7.635 Y-11.338
G2 X7.518 Y-11.366 R0.794
G1 X6.19 Y-11.575
G2 X6.066 Y-11.585 R0.794
G1 X-6.066
G2 X-6.191 Y-11.575 R0.794
G1 X-7.555 Y-11.358
G2 X-7.687 Y-11.325 R0.794
G1 X-7.813 Y-11.282
G2 X-7.916 Y-11.238 R0.794
G1 X-9.129 Y-10.618
G2 X-9.262 Y-10.533 R0.794
G1 X-9.407 Y-10.418
G2 X-9.476 Y-10.356 R0.794
G1 X-10.4 Y-9.429
G2 X-10.497 Y-9.311 R0.794
G1 X-10.601 Y-9.156
G2 X-10.65 Y-9.073 R0.794
G1 X-11.239 Y-7.915
G2 X-11.287 Y-7.796 R0.794
G1 X-11.338 Y-7.635
G2 X-11.363 Y-7.537 R0.794
G1 X-11.369 Y-7.502
G2 X-11.372 Y-7.483 R0.794
G1 X-11.575 Y-6.189
G2 X-11.585 Y-6.066 R0.794
G1 Y6.066
G2 X-11.575 Y6.191 R0.794
G1 X-11.358 Y7.555
G2 X-11.325 Y7.687 R0.794
G1 X-11.282 Y7.813
G2 X-11.238 Y7.916 R0.794
G1 X-10.618 Y9.129
G2 X-10.533 Y9.262 R0.794
G1 X-10.418 Y9.407
G2 X-10.356 Y9.476 R0.794
G1 X-9.429 Y10.4
G2 X-9.311 Y10.497 R0.794
G1 X-9.156 Y10.601
G2 X-9.073 Y10.65 R0.794
G1 X-7.915 Y11.239
G2 X-7.796 Y11.287 R0.794
G1 X-7.635 Y11.338
G2 X-7.518 Y11.366 R0.794
G1 X-6.19 Y11.575
G2 X-6.066 Y11.585 R0.794
G1 X6.066
G2 X6.191 Y11.575 R0.794
G1 X7.555 Y11.358
G2 X7.687 Y11.325 R0.794
G1 X7.813 Y11.282
G2 X7.916 Y11.238 R0.794
G1 X9.129 Y10.618
G2 X9.262 Y10.533 R0.794
G1 X9.407 Y10.418
G2 X9.476 Y10.356 R0.794
G1 X10.4 Y9.429
G2 X10.497 Y9.311 R0.794
G1 X10.601 Y9.156
G2 X10.65 Y9.073 R0.794
G1 X11.239 Y7.915
G2 X11.287 Y7.796 R0.794
G1 X11.338 Y7.635
G2 X11.366 Y7.518 R0.794
G1 X11.575 Y6.19
G2 X11.585 Y6.066 R0.794
G1 Y-6.066
G2 X11.575 Y-6.191 R0.794
G1 X11.358 Y-7.555
G2 X11.325 Y-7.687 R0.794
G1 X11.282 Y-7.813
G2 X11.238 Y-7.916 R0.794
G1 X10.618 Y-9.129
G2 X10.533 Y-9.262 R0.794
G1 X10.418 Y-9.407
G2 X10.356 Y-9.476 R0.794
G1 X9.429 Y-10.4
G2 X9.311 Y-10.497 R0.794
G1 X9.156 Y-10.601
G2 X9.073 Y-10.65 R0.794
G1 X8.221 Y-11.083
G3 X8.206 Y-11.357 R0.159
G1 X11.275 Y-13.386
G3 X11.363 Y-13.413 R0.159
G1 X13.413
Y13.413
X-13.413
Y-13.413
X11.155
X11.363
G3 X11.408 Y-13.327 R0.054
G1 X11.294 Y-13.164
G3 X11.205 Y-13.227 R0.054
X11.226 Y-13.244 R0.054
X12.549 Y-10.534 Z-4.835 R1.508
X11.226 Y-13.244 Z-5.671 R1.508
X12.952 Y-12.957 Z-6. R1.508
X12.955 Y-10.899 R1.455
X10.897 Y-10.896 R1.455
G1 X10.513 Y-11.279
G3 X10.821 Y-12.025 R0.437
G1 X11.496
G3 X12.025 Y-11.496 R0.528
G1 Y-10.809
G3 X11.29 Y-10.504 R0.431
G1 X10.897 Y-10.896
G3 X10.84 Y-10.975 Z-5.984 R0.318
X10.81 Y-11.058 Z-5.939 R0.318
X10.804 Y-11.128 Z-5.869 R0.317
X10.808 Y-11.172 Z-5.781 R0.317
X10.811 Y-11.188 Z-5.683 R0.318
G0 Z5.
X-12.121 Y-11.538
Z3.
G1 Z-1.587 F762.
G3 X-12.118 Y-11.557 Z-1.696 R1.508
X-12.11 Y-11.612 Z-1.791 R1.508
X-12.094 Y-11.695 Z-1.862 R1.508
X-12.068 Y-11.795 Z-1.9 R1.508
X-9.177 Y-10.933 Z-2.735 R1.508
X-12.068 Y-11.795 Z-3.571 R1.508
X-9.177 Y-10.933 Z-4.406 R1.508
X-12.068 Y-11.795 Z-5.242 R1.508
X-9.115 Y-11.364 Z-6. R1.508
X-12.025 R1.455
G1 Y-11.496
G3 X-11.496 Y-12.025 R0.528
G1 X-10.809
G3 X-10.504 Y-11.29 R0.431
G1 X-11.279 Y-10.513
G3 X-12.025 Y-10.821 R0.437
G1 Y-11.364
G3 X-12.01 Y-11.46 Z-5.984 R0.318
X-11.972 Y-11.54 Z-5.939 R0.318
X-11.927 Y-11.594 Z-5.869 R0.318
X-11.892 Y-11.622 Z-5.781 R0.318
X-11.879 Y-11.631 Z-5.683 R0.318
G0 Z5.
X-11.538 Y12.121
Z3.
G1 Z-1.587 F762.
G3 X-11.557 Y12.118 Z-1.696 R1.508
X-11.612 Y12.11 Z-1.791 R1.508
X-11.695 Y12.094 Z-1.862 R1.508
X-11.795 Y12.068 Z-1.9 R1.508
X-10.933 Y9.177 Z-2.735 R1.508
X-11.795 Y12.068 Z-3.571 R1.508
X-10.933 Y9.177 Z-4.406 R1.508
X-11.795 Y12.068 Z-5.242 R1.508
X-11.364 Y9.115 Z-6. R1.508
Y12.025 R1.455
G1 X-11.496
G3 X-12.025 Y11.496 R0.528
G1 Y10.809
G3 X-11.29 Y10.504 R0.431
G1 X-10.513 Y11.279
G3 X-10.821 Y12.025 R0.437
G1 X-11.364
G3 X-11.46 Y12.01 Z-5.984 R0.318
X-11.54 Y11.972 Z-5.939 R0.318
X-11.594 Y11.927 Z-5.869 R0.318
X-11.622 Y11.892 Z-5.781 R0.318
X-11.631 Y11.879 Z-5.683 R0.318
G0 Z5.
X10.949 Y10.709
Z3.
G1 Z-1.587 F762.
G3 X10.964 Y10.697 Z-1.696 R1.508
X11.008 Y10.664 Z-1.791 R1.508
X11.078 Y10.616 Z-1.862 R1.508
X11.167 Y10.563 Z-1.9 R1.508
X12.618 Y13.208 Z-2.735 R1.508
X11.167 Y10.563 Z-3.571 R1.508
X12.618 Y13.208 Z-4.406 R1.508
X11.167 Y10.563 Z-5.242 R1.508
X12.966 Y12.945 Z-6. R1.508
X10.908 Y12.958 R1.455
X10.894 Y10.9 R1.455
X11.279 Y10.513 R115.679
X12.025 Y10.821 R0.437
G1 Y11.496
G3 X11.496 Y12.025 R0.528
G1 X10.717
G3 X10.442 Y11.352 R0.393
G2 X10.862 Y10.934 R37.537
G3 X10.894 Y10.9 R115.679
G2 X11.09 Y9.572 R1.136
G3 X11.079 Y8.228 R1.459
G1 X11.239 Y7.915
G2 X11.287 Y7.796 R0.794
G1 X11.338 Y7.635
G2 X11.366 Y7.518 R0.794
G1 X11.575 Y6.19
G2 X11.585 Y6.066 R0.794
G1 Y-6.066
G2 X11.575 Y-6.191 R0.794
G1 X11.358 Y-7.555
G2 X11.325 Y-7.687 R0.794
G1 X11.282 Y-7.813
G2 X11.238 Y-7.916 R0.794
G1 X10.618 Y-9.129
G2 X10.533 Y-9.262 R0.794
G1 X10.418 Y-9.407
G2 X10.356 Y-9.476 R0.794
G1 X9.429 Y-10.4
G2 X9.311 Y-10.497 R0.794
G1 X9.156 Y-10.601
G2 X9.073 Y-10.65 R0.794
G1 X7.915 Y-11.239
G2 X7.796 Y-11.287 R0.794
G1 X7.635 Y-11.338
G2 X7.518 Y-11.366 R0.794
G1 X6.19 Y-11.575
G2 X6.066 Y-11.585 R0.794
G1 X-6.066
G2 X-6.191 Y-11.575 R0.794
G1 X-7.555 Y-11.358
G2 X-7.687 Y-11.325 R0.794
G1 X-7.813 Y-11.282
G2 X-7.916 Y-11.238 R0.794
G1 X-9.129 Y-10.618
G2 X-9.262 Y-10.533 R0.794
G1 X-9.407 Y-10.418
G2 X-9.476 Y-10.356 R0.794
G1 X-10.4 Y-9.429
G2 X-10.497 Y-9.311 R0.794
G1 X-10.601 Y-9.156
G2 X-10.65 Y-9.073 R0.794
G1 X-11.239 Y-7.915
G2 X-11.287 Y-7.796 R0.794
G1 X-11.338 Y-7.635
G2 X-11.363 Y-7.537 R0.794
G1 X-11.369 Y-7.502
G2 X-11.372 Y-7.483 R0.794
G1 X-11.575 Y-6.189
G2 X-11.585 Y-6.066 R0.794
G1 Y6.066
G2 X-11.575 Y6.191 R0.794
G1 X-11.358 Y7.555
G2 X-11.325 Y7.687 R0.794
G1 X-11.282 Y7.813
G2 X-11.238 Y7.916 R0.794
G1 X-10.618 Y9.129
G2 X-10.533 Y9.262 R0.794
G1 X-10.418 Y9.407
G2 X-10.356 Y9.476 R0.794
G1 X-9.429 Y10.4
G2 X-9.311 Y10.497 R0.794
G1 X-9.156 Y10.601
G2 X-9.073 Y10.65 R0.794
G1 X-7.915 Y11.239
G2 X-7.796 Y11.287 R0.794
G1 X-7.635 Y11.338
G2 X-7.518 Y11.366 R0.794
G1 X-6.19 Y11.575
G2 X-6.066 Y11.585 R0.794
G1 X6.066
G2 X6.191 Y11.575 R0.794
G1 X7.555 Y11.358
G2 X7.687 Y11.325 R0.794
G1 X7.813 Y11.282
G2 X7.916 Y11.238 R0.794
G1 X9.129 Y10.618
G2 X9.262 Y10.533 R0.794
G1 X9.407 Y10.418
G2 X9.476 Y10.356 R0.794
G1 X10.4 Y9.429
G2 X10.497 Y9.311 R0.794
G1 X10.601 Y9.156
G2 X10.65 Y9.073 R0.794
G1 X11.079 Y8.228
G3 X11.353 Y8.212 R0.159
G1 X13.386 Y11.275
G3 X13.413 Y11.363 R0.159
G1 Y13.413
X-13.413
Y-13.413
X13.413
Y10.68
Y11.363
G3 X13.324 Y11.408 R0.056
G1 X13.161 Y11.287
G3 X13.228 Y11.198 R0.056
X13.244 Y11.218 R0.056
X10.54 Y12.553 Z-6.835 R1.508
X13.244 Y11.218 Z-7.671 R1.508
X12.966 Y12.945 Z-8. R1.508
X10.908 Y12.958 R1.455
X10.894 Y10.9 R1.455
X11.279 Y10.513 R115.679
X12.025 Y10.821 R0.437
G1 Y11.496
G3 X11.496 Y12.025 R0.528
G1 X10.717
G3 X10.442 Y11.352 R0.393
G2 X10.862 Y10.934 R37.537
G3 X10.894 Y10.9 R115.679
X10.973 Y10.843 Z-7.984 R0.318
X11.057 Y10.813 Z-7.939 R0.318
X11.126 Y10.807 Z-7.869 R0.317
X11.171 Y10.811 Z-7.781 R0.318
X11.186 Y10.814 Z-7.683 R0.317
G0 Z5.
X-11.538 Y12.121
G1 Z-3.587 F762.
G3 X-11.557 Y12.118 Z-3.696 R1.508
X-11.612 Y12.11 Z-3.791 R1.508
X-11.695 Y12.094 Z-3.862 R1.508
X-11.795 Y12.068 Z-3.9 R1.508
X-10.933 Y9.177 Z-4.735 R1.508
X-11.795 Y12.068 Z-5.571 R1.508
X-10.933 Y9.177 Z-6.406 R1.508
X-11.795 Y12.068 Z-7.242 R1.508
X-11.364 Y9.115 Z-8. R1.508
Y12.025 R1.455
G1 X-11.496
G3 X-12.025 Y11.496 R0.528
G1 Y10.809
G3 X-11.29 Y10.504 R0.431
G1 X-10.513 Y11.279
G3 X-10.821 Y12.025 R0.437
G1 X-11.364
G3 X-11.46 Y12.01 Z-7.984 R0.318
X-11.54 Y11.972 Z-7.939 R0.318
X-11.594 Y11.927 Z-7.869 R0.318
X-11.622 Y11.892 Z-7.781 R0.318
X-11.631 Y11.879 Z-7.683 R0.318
G0 Z5.
X-12.121 Y-11.538
G1 Z-3.587 F762.
G3 X-12.118 Y-11.557 Z-3.696 R1.508
X-12.11 Y-11.612 Z-3.791 R1.508
X-12.094 Y-11.695 Z-3.862 R1.508
X-12.068 Y-11.795 Z-3.9 R1.508
X-9.177 Y-10.933 Z-4.735 R1.508
X-12.068 Y-11.795 Z-5.571 R1.508
X-9.177 Y-10.933 Z-6.406 R1.508
X-12.068 Y-11.795 Z-7.242 R1.508
X-9.115 Y-11.364 Z-8. R1.508
X-12.025 R1.455
G1 Y-11.496
G3 X-11.496 Y-12.025 R0.528
G1 X-10.809
G3 X-10.504 Y-11.29 R0.431
G1 X-11.279 Y-10.513
G3 X-12.025 Y-10.821 R0.437
G1 Y-11.364
G3 X-12.01 Y-11.46 Z-7.984 R0.318
X-11.972 Y-11.54 Z-7.939 R0.318
X-11.927 Y-11.594 Z-7.869 R0.318
X-11.892 Y-11.622 Z-7.781 R0.318
X-11.879 Y-11.631 Z-7.683 R0.318
G0 Z5.
X10.706 Y-10.951
G1 Z-3.587 F762.
G3 X10.694 Y-10.966 Z-3.696 R1.508
X10.661 Y-11.01 Z-3.791 R1.508
X10.614 Y-11.08 Z-3.862 R1.508
X10.562 Y-11.17 Z-3.9 R1.508
X13.213 Y-12.608 Z-4.735 R1.508
X10.562 Y-11.17 Z-5.571 R1.508
X13.213 Y-12.608 Z-6.406 R1.508
X10.562 Y-11.17 Z-7.242 R1.508
X12.952 Y-12.957 Z-8. R1.508
X12.955 Y-10.899 R1.455
X10.897 Y-10.896 R1.455
G1 X10.513 Y-11.279
G3 X10.821 Y-12.025 R0.437
G1 X11.496
G3 X12.025 Y-11.496 R0.528
G1 Y-10.809
G3 X11.29 Y-10.504 R0.431
G1 X10.897 Y-10.896
G2 X9.567 Y-11.094 R1.133
G3 X8.221 Y-11.083 R1.46
G1 X7.915 Y-11.239
G2 X7.796 Y-11.287 R0.794
G1 X7.635 Y-11.338
G2 X7.518 Y-11.366 R0.794
G1 X6.19 Y-11.575
G2 X6.066 Y-11.585 R0.794
G1 X-6.066
G2 X-6.191 Y-11.575 R0.794
G1 X-7.555 Y-11.358
G2 X-7.687 Y-11.325 R0.794
G1 X-7.813 Y-11.282
G2 X-7.916 Y-11.238 R0.794
G1 X-9.129 Y-10.618
G2 X-9.262 Y-10.533 R0.794
G1 X-9.407 Y-10.418
G2 X-9.476 Y-10.356 R0.794
G1 X-10.4 Y-9.429
G2 X-10.497 Y-9.311 R0.794
G1 X-10.601 Y-9.156
G2 X-10.65 Y-9.073 R0.794
G1 X-11.239 Y-7.915
G2 X-11.287 Y-7.796 R0.794
G1 X-11.338 Y-7.635
G2 X-11.363 Y-7.537 R0.794
G1 X-11.369 Y-7.502
G2 X-11.372 Y-7.483 R0.794
G1 X-11.575 Y-6.189
G2 X-11.585 Y-6.066 R0.794
G1 Y6.066
G2 X-11.575 Y6.191 R0.794
G1 X-11.358 Y7.555
G2 X-11.325 Y7.687 R0.794
G1 X-11.282 Y7.813
G2 X-11.238 Y7.916 R0.794
G1 X-10.618 Y9.129
G2 X-10.533 Y9.262 R0.794
G1 X-10.418 Y9.407
G2 X-10.356 Y9.476 R0.794
G1 X-9.429 Y10.4
G2 X-9.311 Y10.497 R0.794
G1 X-9.156 Y10.601
G2 X-9.073 Y10.65 R0.794
G1 X-7.915 Y11.239
G2 X-7.796 Y11.287 R0.794
G1 X-7.635 Y11.338
G2 X-7.518 Y11.366 R0.794
G1 X-6.19 Y11.575
G2 X-6.066 Y11.585 R0.794
G1 X6.066
G2 X6.191 Y11.575 R0.794
G1 X7.555 Y11.358
G2 X7.687 Y11.325 R0.794
G1 X7.813 Y11.282
G2 X7.916 Y11.238 R0.794
G1 X9.129 Y10.618
G2 X9.262 Y10.533 R0.794
G1 X9.407 Y10.418
G2 X9.476 Y10.356 R0.794
G1 X10.4 Y9.429
G2 X10.497 Y9.311 R0.794
G1 X10.601 Y9.156
G2 X10.65 Y9.073 R0.794
G1 X11.239 Y7.915
G2 X11.287 Y7.796 R0.794
G1 X11.338 Y7.635
G2 X11.366 Y7.518 R0.794
G1 X11.575 Y6.19
G2 X11.585 Y6.066 R0.794
G1 Y-6.066
G2 X11.575 Y-6.191 R0.794
G1 X11.358 Y-7.555
G2 X11.325 Y-7.687 R0.794
G1 X11.282 Y-7.813
G2 X11.238 Y-7.916 R0.794
G1 X10.618 Y-9.129
G2 X10.533 Y-9.262 R0.794
G1 X10.418 Y-9.407
G2 X10.356 Y-9.476 R0.794
G1 X9.429 Y-10.4
G2 X9.311 Y-10.497 R0.794
G1 X9.156 Y-10.601
G2 X9.073 Y-10.65 R0.794
G1 X8.221 Y-11.083
G3 X8.206 Y-11.357 R0.159
G1 X11.275 Y-13.386
G3 X11.363 Y-13.413 R0.159
G1 X13.413
Y13.413
X-13.413
Y-13.413
X11.155
X11.363
G3 X11.408 Y-13.327 R0.054
G1 X11.294 Y-13.164
G3 X11.205 Y-13.227 R0.054
X11.226 Y-13.244 R0.054
X12.549 Y-10.534 Z-8.835 R1.508
X11.226 Y-13.244 Z-9.671 R1.508
X12.952 Y-12.957 Z-10. R1.508
X12.955 Y-10.899 R1.455
X10.897 Y-10.896 R1.455
G1 X10.513 Y-11.279
G3 X10.821 Y-12.025 R0.437
G1 X11.496
G3 X12.025 Y-11.496 R0.528
G1 Y-10.809
G3 X11.29 Y-10.504 R0.431
G1 X10.897 Y-10.896
G3 X10.84 Y-10.975 Z-9.984 R0.318
X10.81 Y-11.058 Z-9.939 R0.318
X10.804 Y-11.128 Z-9.869 R0.317
X10.808 Y-11.172 Z-9.781 R0.317
X10.811 Y-11.188 Z-9.682 R0.318
G0 Z5.
X-12.121 Y-11.538
G1 Z-5.587 F762.
G3 X-12.118 Y-11.557 Z-5.696 R1.508
X-12.11 Y-11.612 Z-5.791 R1.508
X-12.094 Y-11.695 Z-5.862 R1.508
X-12.068 Y-11.795 Z-5.9 R1.508
X-9.177 Y-10.933 Z-6.735 R1.508
X-12.068 Y-11.795 Z-7.571 R1.508
X-9.177 Y-10.933 Z-8.406 R1.508
X-12.068 Y-11.795 Z-9.242 R1.508
X-9.115 Y-11.364 Z-10. R1.508
X-12.025 R1.455
G1 Y-11.496
G3 X-11.496 Y-12.025 R0.528
G1 X-10.809
G3 X-10.504 Y-11.29 R0.431
G1 X-11.279 Y-10.513
G3 X-12.025 Y-10.821 R0.437
G1 Y-11.364
G3 X-12.01 Y-11.46 Z-9.984 R0.318
X-11.972 Y-11.54 Z-9.939 R0.318
X-11.927 Y-11.594 Z-9.869 R0.318
X-11.892 Y-11.622 Z-9.781 R0.318
X-11.879 Y-11.631 Z-9.682 R0.318
G0 Z5.
X-11.538 Y12.121
G1 Z-5.587 F762.
G3 X-11.557 Y12.118 Z-5.696 R1.508
X-11.612 Y12.11 Z-5.791 R1.508
X-11.695 Y12.094 Z-5.862 R1.508
X-11.795 Y12.068 Z-5.9 R1.508
X-10.933 Y9.177 Z-6.735 R1.508
X-11.795 Y12.068 Z-7.571 R1.508
X-10.933 Y9.177 Z-8.406 R1.508
X-11.795 Y12.068 Z-9.242 R1.508
X-11.364 Y9.115 Z-10. R1.508
Y12.025 R1.455
G1 X-11.496
G3 X-12.025 Y11.496 R0.528
G1 Y10.809
G3 X-11.29 Y10.504 R0.431
G1 X-10.513 Y11.279
G3 X-10.821 Y12.025 R0.437
G1 X-11.364
G3 X-11.46 Y12.01 Z-9.984 R0.318
X-11.54 Y11.972 Z-9.939 R0.318
X-11.594 Y11.927 Z-9.869 R0.318
X-11.622 Y11.892 Z-9.781 R0.318
X-11.631 Y11.879 Z-9.682 R0.318
G0 Z5.
X10.949 Y10.709
G1 Z-5.587 F762.
G3 X10.964 Y10.697 Z-5.696 R1.508
X11.008 Y10.664 Z-5.791 R1.508
X11.078 Y10.616 Z-5.862 R1.508
X11.167 Y10.563 Z-5.9 R1.508
X12.618 Y13.208 Z-6.735 R1.508
X11.167 Y10.563 Z-7.571 R1.508
X12.618 Y13.208 Z-8.406 R1.508
X11.167 Y10.563 Z-9.242 R1.508
X12.966 Y12.945 Z-10. R1.508
X10.908 Y12.958 R1.455
X10.894 Y10.9 R1.455
X11.279 Y10.513 R115.679
X12.025 Y10.821 R0.437
G1 Y11.496
G3 X11.496 Y12.025 R0.528
G1 X10.717
G3 X10.442 Y11.352 R0.393
G2 X10.862 Y10.934 R37.537
G3 X10.894 Y10.9 R115.679
G2 X11.09 Y9.572 R1.136
G3 X11.079 Y8.228 R1.459
G1 X11.239 Y7.915
G2 X11.287 Y7.796 R0.794
G1 X11.338 Y7.635
G2 X11.366 Y7.518 R0.794
G1 X11.575 Y6.19
G2 X11.585 Y6.066 R0.794
G1 Y-6.066
G2 X11.575 Y-6.191 R0.794
G1 X11.358 Y-7.555
G2 X11.325 Y-7.687 R0.794
G1 X11.282 Y-7.813
G2 X11.238 Y-7.916 R0.794
G1 X10.618 Y-9.129
G2 X10.533 Y-9.262 R0.794
G1 X10.418 Y-9.407
G2 X10.356 Y-9.476 R0.794
G1 X9.429 Y-10.4
G2 X9.311 Y-10.497 R0.794
G1 X9.156 Y-10.601
G2 X9.073 Y-10.65 R0.794
G1 X7.915 Y-11.239
G2 X7.796 Y-11.287 R0.794
G1 X7.635 Y-11.338
G2 X7.518 Y-11.366 R0.794
G1 X6.19 Y-11.575
G2 X6.066 Y-11.585 R0.794
G1 X-6.066
G2 X-6.191 Y-11.575 R0.794
G1 X-7.555 Y-11.358
G2 X-7.687 Y-11.325 R0.794
G1 X-7.813 Y-11.282
G2 X-7.916 Y-11.238 R0.794
G1 X-9.129 Y-10.618
G2 X-9.262 Y-10.533 R0.794
G1 X-9.407 Y-10.418
G2 X-9.476 Y-10.356 R0.794
G1 X-10.4 Y-9.429
G2 X-10.497 Y-9.311 R0.794
G1 X-10.601 Y-9.156
G2 X-10.65 Y-9.073 R0.794
G1 X-11.239 Y-7.915
G2 X-11.287 Y-7.796 R0.794
G1 X-11.338 Y-7.635
G2 X-11.363 Y-7.537 R0.794
G1 X-11.369 Y-7.502
G2 X-11.372 Y-7.483 R0.794
G1 X-11.575 Y-6.189
G2 X-11.585 Y-6.066 R0.794
G1 Y6.066
G2 X-11.575 Y6.191 R0.794
G1 X-11.358 Y7.555
G2 X-11.325 Y7.687 R0.794
G1 X-11.282 Y7.813
G2 X-11.238 Y7.916 R0.794
G1 X-10.618 Y9.129
G2 X-10.533 Y9.262 R0.794
G1 X-10.418 Y9.407
G2 X-10.356 Y9.476 R0.794
G1 X-9.429 Y10.4
G2 X-9.311 Y10.497 R0.794
G1 X-9.156 Y10.601
G2 X-9.073 Y10.65 R0.794
G1 X-7.915 Y11.239
G2 X-7.796 Y11.287 R0.794
G1 X-7.635 Y11.338
G2 X-7.518 Y11.366 R0.794
G1 X-6.19 Y11.575
G2 X-6.066 Y11.585 R0.794
G1 X6.066
G2 X6.191 Y11.575 R0.794
G1 X7.555 Y11.358
G2 X7.687 Y11.325 R0.794
G1 X7.813 Y11.282
G2 X7.916 Y11.238 R0.794
G1 X9.129 Y10.618
G2 X9.262 Y10.533 R0.794
G1 X9.407 Y10.418
G2 X9.476 Y10.356 R0.794
G1 X10.4 Y9.429
G2 X10.497 Y9.311 R0.794
G1 X10.601 Y9.156
G2 X10.65 Y9.073 R0.794
G1 X11.079 Y8.228
G3 X11.353 Y8.212 R0.159
G1 X13.386 Y11.275
G3 X13.413 Y11.363 R0.159
G1 Y13.413
X-13.413
Y-13.413
X13.413
Y10.68
Y11.363
G3 X13.311 Y11.876 Z-10.09 R1.354
G1 X13.111 Y12.365 Z-10.181
G3 X10.605 Y11.338 Z-10.909 R1.354
X10.894 Y10.9 Z-11. R1.354
X11.279 Y10.513 R115.679
X12.025 Y10.821 R0.437
G1 Y11.496
G3 X11.496 Y12.025 R0.528
G1 X10.717
G3 X10.442 Y11.352 R0.393
G2 X10.862 Y10.934 R37.537
G3 X10.894 Y10.9 R115.679
X10.973 Y10.843 Z-10.984 R0.318
X11.057 Y10.813 Z-10.939 R0.318
X11.126 Y10.807 Z-10.869 R0.317
X11.171 Y10.811 Z-10.781 R0.318
X11.186 Y10.814 Z-10.682 R0.317
G0 Z5.
X-9.504 Y12.375
G1 Z-7.587 F762.
G3 X-9.517 Y12.389 Z-7.696 R1.508
X-9.555 Y12.429 Z-7.791 R1.508
X-9.616 Y12.487 Z-7.862 R1.508
X-9.696 Y12.554 Z-7.9 R1.508
X-11.55 Y10.174 Z-8.735 R1.508
X-9.696 Y12.554 Z-9.571 R1.508
X-11.55 Y10.174 Z-10.406 R1.508
X-9.115 Y11.364 Z-11. R1.508
X-12.025 R1.455
G1 Y10.809
G3 X-11.29 Y10.504 R0.431
G1 X-10.513 Y11.279
G3 X-10.821 Y12.025 R0.437
G1 X-11.496
G3 X-12.025 Y11.496 R0.528
G1 Y11.364
G3 X-12.01 Y11.267 Z-10.984 R0.318
X-11.972 Y11.188 Z-10.939 R0.318
X-11.927 Y11.134 Z-10.869 R0.318
X-11.892 Y11.105 Z-10.781 R0.318
X-11.879 Y11.097 Z-10.682 R0.318
G0 Z5.
X-12.375 Y-9.504
G1 Z-7.587 F762.
G3 X-12.389 Y-9.517 Z-7.696 R1.508
X-12.429 Y-9.555 Z-7.791 R1.508
X-12.487 Y-9.616 Z-7.862 R1.508
X-12.554 Y-9.696 Z-7.9 R1.508
X-10.174 Y-11.55 Z-8.735 R1.508
X-12.554 Y-9.696 Z-9.571 R1.508
X-10.174 Y-11.55 Z-10.406 R1.508
X-11.364 Y-9.115 Z-11. R1.508
Y-12.025 R1.455
G1 X-10.809
G3 X-10.504 Y-11.29 R0.431
G1 X-11.279 Y-10.513
G3 X-12.025 Y-10.821 R0.437
G1 Y-11.496
G3 X-11.496 Y-12.025 R0.528
G1 X-11.364
G3 X-11.267 Y-12.01 Z-10.984 R0.318
X-11.188 Y-11.972 Z-10.939 R0.318
X-11.134 Y-11.927 Z-10.869 R0.318
X-11.105 Y-11.892 Z-10.781 R0.318
X-11.097 Y-11.879 Z-10.682 R0.318
G0 Z5.
X13.393 Y-11.968
G1 Z-7.587 F762.
G3 X13.394 Y-11.949 Z-7.696 R1.508
X13.395 Y-11.893 Z-7.791 R1.508
X13.393 Y-11.809 Z-7.862 R1.508
X13.384 Y-11.706 Z-7.9 R1.508
X10.39 Y-12.072 Z-8.735 R1.508
X13.384 Y-11.706 Z-9.571 R1.508
X10.39 Y-12.072 Z-10.406 R1.508
X12.952 Y-12.957 Z-11. R1.508
X12.955 Y-10.899 R1.455
X10.897 Y-10.896 R1.455
G1 X10.513 Y-11.279
G3 X10.821 Y-12.025 R0.437
G1 X11.496
G3 X12.025 Y-11.496 R0.528
G1 Y-10.809
G3 X11.29 Y-10.504 R0.431
G1 X10.897 Y-10.896
G2 X9.567 Y-11.094 R1.133
G3 X8.221 Y-11.083 R1.46
G1 X7.915 Y-11.239
G2 X7.796 Y-11.287 R0.794
G1 X7.635 Y-11.338
G2 X7.518 Y-11.366 R0.794
G1 X6.19 Y-11.575
G2 X6.066 Y-11.585 R0.794
G1 X-6.066
G2 X-6.191 Y-11.575 R0.794
G1 X-7.555 Y-11.358
G2 X-7.687 Y-11.325 R0.794
G1 X-7.813 Y-11.282
G2 X-7.916 Y-11.238 R0.794
G1 X-9.129 Y-10.618
G2 X-9.262 Y-10.533 R0.794
G1 X-9.407 Y-10.418
G2 X-9.476 Y-10.356 R0.794
G1 X-10.4 Y-9.429
G2 X-10.497 Y-9.311 R0.794
G1 X-10.601 Y-9.156
G2 X-10.65 Y-9.073 R0.794
G1 X-11.239 Y-7.915
G2 X-11.287 Y-7.796 R0.794
G1 X-11.338 Y-7.635
G2 X-11.363 Y-7.537 R0.794
G1 X-11.369 Y-7.502
G2 X-11.372 Y-7.483 R0.794
G1 X-11.575 Y-6.189
G2 X-11.585 Y-6.066 R0.794
G1 Y6.066
G2 X-11.575 Y6.191 R0.794
G1 X-11.358 Y7.555
G2 X-11.325 Y7.687 R0.794
G1 X-11.282 Y7.813
G2 X-11.238 Y7.916 R0.794
G1 X-10.618 Y9.129
G2 X-10.533 Y9.262 R0.794
G1 X-10.418 Y9.407
G2 X-10.356 Y9.476 R0.794
G1 X-9.429 Y10.4
G2 X-9.311 Y10.497 R0.794
G1 X-9.156 Y10.601
G2 X-9.073 Y10.65 R0.794
G1 X-7.915 Y11.239
G2 X-7.796 Y11.287 R0.794
G1 X-7.635 Y11.338
G2 X-7.518 Y11.366 R0.794
G1 X-6.19 Y11.575
G2 X-6.066 Y11.585 R0.794
G1 X6.066
G2 X6.191 Y11.575 R0.794
G1 X7.555 Y11.358
G2 X7.687 Y11.325 R0.794
G1 X7.813 Y11.282
G2 X7.916 Y11.238 R0.794
G1 X9.129 Y10.618
G2 X9.262 Y10.533 R0.794
G1 X9.407 Y10.418
G2 X9.476 Y10.356 R0.794
G1 X10.4 Y9.429
G2 X10.497 Y9.311 R0.794
G1 X10.601 Y9.156
G2 X10.65 Y9.073 R0.794
G1 X11.239 Y7.915
G2 X11.287 Y7.796 R0.794
G1 X11.338 Y7.635
G2 X11.366 Y7.518 R0.794
G1 X11.575 Y6.19
G2 X11.585 Y6.066 R0.794
G1 Y-6.066
G2 X11.575 Y-6.191 R0.794
G1 X11.358 Y-7.555
G2 X11.325 Y-7.687 R0.794
G1 X11.282 Y-7.813
G2 X11.238 Y-7.916 R0.794
G1 X10.618 Y-9.129
G2 X10.533 Y-9.262 R0.794
G1 X10.418 Y-9.407
G2 X10.356 Y-9.476 R0.794
G1 X9.429 Y-10.4
G2 X9.311 Y-10.497 R0.794
G1 X9.156 Y-10.601
G2 X9.073 Y-10.65 R0.794
G1 X8.221 Y-11.083
G3 X8.206 Y-11.357 R0.159
G1 X11.275 Y-13.386
G3 X11.363 Y-13.413 R0.159
G1 X13.413
Y13.413
X-13.413
Y-13.413
X11.155
X11.363
G3 X11.46 Y-13.397 Z-10.984 R0.317
X11.539 Y-13.359 Z-10.939 R0.317
X11.593 Y-13.314 Z-10.869 R0.318
X11.621 Y-13.279 Z-10.781 R0.317
X11.63 Y-13.267 Z-10.682 R0.318
G0 Z5.
X-13.413 Y-6.946
G1 Z-8.583 F762.
G19 G2 Y-7.259 Z-8.9 R0.317
G1 Y-13.413 Z-8.979
X13.413 Z-9.323
Y13.413 Z-9.667
X11.587 Z-9.69
Y-10.037 Z-9.991
G17 G2 X11.578 Y-10.153 Z-9.993 R0.794
G1 X11.554 Y-10.312 Z-9.995
G2 X11.516 Y-10.464 Z-9.997 R0.794
G1 X11.464 Y-10.609 Z-9.999
G2 X11.394 Y-10.755 Z-10.001 R0.794
G1 X11.305 Y-10.899 Z-10.003
G2 X11.212 Y-11.023 Z-10.005 R0.794
G1 X11.116 Y-11.127 Z-10.007
G2 X10.996 Y-11.233 Z-10.009 R0.794
G1 X10.852 Y-11.337 Z-10.011
G2 X10.706 Y-11.42 Z-10.013 R0.794
G1 X10.561 Y-11.483 Z-10.015
G2 X10.412 Y-11.531 Z-10.017 R0.794
G1 X10.26 Y-11.564 Z-10.019
G2 X10.094 Y-11.582 Z-10.021 R0.794
G1 X7.502 Y-11.587 Z-10.055
X-10.037 Z-10.28
G2 X-10.153 Y-11.578 Z-10.281 R0.794
G1 X-10.312 Y-11.554 Z-10.283
G2 X-10.464 Y-11.516 Z-10.285 R0.794
G1 X-10.609 Y-11.464 Z-10.287
G2 X-10.755 Y-11.394 Z-10.289 R0.794
G1 X-10.899 Y-11.305 Z-10.291
G2 X-11.023 Y-11.212 Z-10.293 R0.794
G1 X-11.127 Y-11.116 Z-10.295
G2 X-11.233 Y-10.996 Z-10.297 R0.794
G1 X-11.337 Y-10.852 Z-10.3
G2 X-11.42 Y-10.706 Z-10.302 R0.794
G1 X-11.483 Y-10.561 Z-10.304
G2 X-11.531 Y-10.412 Z-10.306 R0.794
G1 X-11.564 Y-10.26 Z-10.308
G2 X-11.582 Y-10.094 Z-10.31 R0.794
G1 X-11.587 Y-7.502 Z-10.343
Y13.413 Z-10.611
X-13.413 Z-10.635
Y-13.413 Z-10.979
X13.413 Z-11.323
Y13.413 Z-11.667
X11.587 Z-11.69
Y-10.037 Z-11.991
G2 X11.578 Y-10.153 Z-11.993 R0.794
G1 X11.554 Y-10.312 Z-11.995
G2 X11.516 Y-10.464 Z-11.997 R0.794
G1 X11.464 Y-10.609 Z-11.999
G2 X11.394 Y-10.755 Z-12.001 R0.794
G1 X11.305 Y-10.899 Z-12.003
G2 X11.212 Y-11.023 Z-12.005 R0.794
G1 X11.116 Y-11.127 Z-12.007
G2 X10.996 Y-11.233 Z-12.009 R0.794
G1 X10.852 Y-11.337 Z-12.011
G2 X10.706 Y-11.42 Z-12.013 R0.794
G1 X10.561 Y-11.483 Z-12.015
G2 X10.412 Y-11.531 Z-12.017 R0.794
G1 X10.26 Y-11.564 Z-12.019
G2 X10.094 Y-11.582 Z-12.021 R0.794
G1 X7.502 Y-11.587 Z-12.055
X-10.037 Z-12.28
G2 X-10.153 Y-11.578 Z-12.281 R0.794
G1 X-10.312 Y-11.554 Z-12.283
G2 X-10.464 Y-11.516 Z-12.285 R0.794
G1 X-10.609 Y-11.464 Z-12.287
G2 X-10.755 Y-11.394 Z-12.289 R0.794
G1 X-10.899 Y-11.305 Z-12.291
G2 X-11.023 Y-11.212 Z-12.293 R0.794
G1 X-11.127 Y-11.116 Z-12.295
G2 X-11.233 Y-10.996 Z-12.297 R0.794
G1 X-11.337 Y-10.852 Z-12.3
G2 X-11.42 Y-10.706 Z-12.302 R0.794
G1 X-11.483 Y-10.561 Z-12.304
G2 X-11.531 Y-10.412 Z-12.306 R0.794
G1 X-11.564 Y-10.26 Z-12.308
G2 X-11.582 Y-10.094 Z-12.31 R0.794
G1 X-11.587 Y-7.502 Z-12.343
Y13.413 Z-12.611
X-13.413 Z-12.635
Y-13.413 Z-12.979
X-11.769 Z-13.
X13.413
Y13.413
X11.587
Y-10.037
G2 X11.578 Y-10.153 R0.794
G1 X11.554 Y-10.312
G2 X11.516 Y-10.464 R0.794
G1 X11.464 Y-10.609
G2 X11.394 Y-10.755 R0.794
G1 X11.305 Y-10.899
G2 X11.212 Y-11.023 R0.794
G1 X11.116 Y-11.127
G2 X10.996 Y-11.233 R0.794
G1 X10.852 Y-11.337
G2 X10.706 Y-11.42 R0.794
G1 X10.561 Y-11.483
G2 X10.412 Y-11.531 R0.794
G1 X10.26 Y-11.564
G2 X10.094 Y-11.582 R0.794
G1 X7.502 Y-11.587
X-10.037
G2 X-10.153 Y-11.578 R0.794
G1 X-10.312 Y-11.554
G2 X-10.464 Y-11.516 R0.794
G1 X-10.609 Y-11.464
G2 X-10.755 Y-11.394 R0.794
G1 X-10.899 Y-11.305
G2 X-11.023 Y-11.212 R0.794
G1 X-11.127 Y-11.116
G2 X-11.233 Y-10.996 R0.794
G1 X-11.337 Y-10.852
G2 X-11.42 Y-10.706 R0.794
G1 X-11.483 Y-10.561
G2 X-11.531 Y-10.412 R0.794
G1 X-11.564 Y-10.26
G2 X-11.582 Y-10.094 R0.794
G1 X-11.587 Y-7.502
Y13.413
X-13.413
Y-7.5
Y-13.413
X-11.769
G3 X-11.672 Y-13.397 Z-12.984 R0.317
X-11.593 Y-13.359 Z-12.939 R0.317
X-11.539 Y-13.314 Z-12.869 R0.318
X-11.51 Y-13.279 Z-12.781 R0.317
X-11.502 Y-13.267 Z-12.682 R0.318
G0 Z5.
X11.587 Y-5.93
G1 Z-10.583 F762.
G19 G2 Y-6.241 Z-10.9 R0.317
G1 Y-10.037 Z-10.971
G17 G2 X11.578 Y-10.153 Z-10.973 R0.794
G1 X11.554 Y-10.312 Z-10.976
G2 X11.516 Y-10.464 Z-10.979 R0.794
G1 X11.464 Y-10.609 Z-10.982
G2 X11.394 Y-10.755 Z-10.985 R0.794
G1 X11.305 Y-10.899 Z-10.988
G2 X11.212 Y-11.023 Z-10.991 R0.794
G1 X11.116 Y-11.127 Z-10.994
G2 X10.996 Y-11.233 Z-10.997 R0.794
G1 X10.852 Y-11.337 Z-11.
G2 X10.706 Y-11.42 Z-11.004 R0.794
G1 X10.561 Y-11.483 Z-11.006
G2 X10.412 Y-11.531 Z-11.009 R0.794
G1 X10.26 Y-11.564 Z-11.012
G2 X10.094 Y-11.582 Z-11.015 R0.794
G1 X7.502 Y-11.587 Z-11.064
X-13.413 Z-11.456
Y-13.413 Z-11.491
X13.413 Z-11.994
Y13.413 Z-12.497
X11.587 Z-12.531
Y-10.037 Z-12.971
G2 X11.578 Y-10.153 Z-12.973 R0.794
G1 X11.554 Y-10.312 Z-12.976
G2 X11.516 Y-10.464 Z-12.979 R0.794
G1 X11.464 Y-10.609 Z-12.982
G2 X11.394 Y-10.755 Z-12.985 R0.794
G1 X11.305 Y-10.899 Z-12.988
G2 X11.212 Y-11.023 Z-12.991 R0.794
G1 X11.116 Y-11.127 Z-12.994
G2 X10.996 Y-11.233 Z-12.997 R0.794
G1 X10.852 Y-11.337 Z-13.
G2 X10.706 Y-11.42 Z-13.004 R0.794
G1 X10.561 Y-11.483 Z-13.006
G2 X10.412 Y-11.531 Z-13.009 R0.794
G1 X10.26 Y-11.564 Z-13.012
G2 X10.094 Y-11.582 Z-13.015 R0.794
G1 X7.502 Y-11.587 Z-13.064
X-13.413 Z-13.456
Y-13.413 Z-13.491
X13.413 Z-13.994
Y13.413 Z-14.497
X11.587 Z-14.531
Y-10.037 Z-14.971
G2 X11.578 Y-10.153 Z-14.973 R0.794
G1 X11.554 Y-10.312 Z-14.976
G2 X11.516 Y-10.464 Z-14.979 R0.794
G1 X11.464 Y-10.609 Z-14.982
G2 X11.394 Y-10.755 Z-14.985 R0.794
G1 X11.305 Y-10.899 Z-14.988
G2 X11.212 Y-11.023 Z-14.991 R0.794
G1 X11.116 Y-11.127 Z-14.994
G2 X10.996 Y-11.233 Z-14.997 R0.794
G1 X10.868 Y-11.325 Z-15.
X10.852 Y-11.337
G2 X10.706 Y-11.42 R0.794
G1 X10.561 Y-11.483
G2 X10.412 Y-11.531 R0.794
G1 X10.26 Y-11.564
G2 X10.094 Y-11.582 R0.794
G1 X7.502 Y-11.587
X-13.413
Y-13.413
X13.413
Y13.413
X11.587
Y-10.037
G2 X11.578 Y-10.153 R0.794
G1 X11.554 Y-10.312
G2 X11.516 Y-10.464 R0.794
G1 X11.464 Y-10.609
G2 X11.394 Y-10.755 R0.794
G1 X11.305 Y-10.899
G2 X11.212 Y-11.023 R0.794
G1 X11.116 Y-11.127
G2 X10.996 Y-11.233 R0.794
G1 X10.868 Y-11.325
G3 X10.798 Y-11.394 Z-14.984 R0.318
X10.756 Y-11.471 Z-14.939 R0.318
X10.739 Y-11.539 Z-14.869 R0.318
X10.736 Y-11.584 Z-14.781 R0.318
Y-11.6 Z-14.682 R0.318
G0 Z5.
X13.413 Y11.455
G1 Z-12.583 F762.
G19 G3 Y11.762 Z-12.9 R0.317
G1 Y13.413 Z-12.958
X11.587 Z-13.021
Y-13.413 Z-13.958
X13.413 Z-14.021
Y13.413 Z-14.958
X11.587 Z-15.021
Y-13.413 Z-15.958
X13.413 Z-16.021
Y13.413 Z-16.958
X12.198 Z-17.
X11.587
Y-13.413
X13.413
Y13.413
X12.198
G17 G3 X12.102 Y13.397 Z-16.984 R0.317
X12.022 Y13.359 Z-16.939 R0.317
X11.969 Y13.314 Z-16.869 R0.318
X11.94 Y13.279 Z-16.781 R0.317
X11.931 Y13.267 Z-16.683 R0.318
G0 Z10.

(2D CONTOUR2)
M8
G0 X5.058 Y-11.387
Z10.
Z5.
G1 Z3. F762.
Z2.5
X-6. Z0.55
G2 X-11.387 Y-6. Z-0.942 R5.387
G1 Y0. Z-2.
Y6.
G2 X-6. Y11.387 R5.387
G1 X6.
G2 X11.387 Y6. R5.387
G1 Y-6.
G2 X6. Y-11.387 R5.387
G1 X-6.
G2 X-11.387 Y-6. R5.387
G1 Y0.
Y6. Z-2.931
G2 X-7.551 Y11.16 Z-4. R5.387
X-6. Y11.387 R5.387
G1 X6.
G2 X11.387 Y6. R5.387
G1 Y-6.
G2 X6. Y-11.387 R5.387
G1 X-6.
G2 X-11.387 Y-6. R5.387
G1 Y0.
Y6.
G2 X-7.551 Y11.16 R5.387
X-6. Y11.387 Z-4.244 R5.387
G1 X5.317 Z-6.
X6.
G2 X11.387 Y6. R5.387
G1 Y-6.
G2 X6. Y-11.387 R5.387
G1 X-6.
G2 X-11.387 Y-6. R5.387
G1 Y6.
G2 X-6. Y11.387 R5.387
G1 X5.317
X6. Z-6.106
G2 X11.387 Y6. Z-7.419 R5.387
G1 Y2.256 Z-8.
Y-6.
G2 X6. Y-11.387 R5.387
G1 X-6.
G2 X-11.387 Y-6. R5.387
G1 Y6.
G2 X-6. Y11.387 R5.387
G1 X5.317
X6.
G2 X11.387 Y6. R5.387
G1 Y2.256
Y-6. Z-9.281
G2 X9.514 Y-10.083 Z-10. R5.388
X6. Y-11.387 R5.387
G1 X-6.
G2 X-11.387 Y-6. R5.387
G1 Y6.
G2 X-6. Y11.387 R5.387
G1 X6.
G2 X11.387 Y6. R5.387
G1 Y-6.
G2 X9.514 Y-10.083 R5.388
X6. Y-11.387 Z-10.594 R5.387
G1 X3.384 Z-11.
X-6.
G2 X-11.387 Y-6. R5.387
G1 Y6.
G2 X-6. Y11.387 R5.387
G1 X6.
G2 X11.387 Y6. R5.387
G1 Y-6.
G2 X6. Y-11.387 R5.387
G1 X3.384
G0 Z10.

(2D CONTOUR1)
M8
G0 X16.587 Y-6.973
Z10.
Z5.
G1 Z3. F762.
Z2.5
Y-15. Z1.085
G2 X15. Y-16.587 Z0.645 R1.587
G1 X0. Z-2.
X-15.
G2 X-16.587 Y-15. R1.587
G1 Y15.
G2 X-15. Y16.587 R1.587
G1 X15.
G2 X16.587 Y15. R1.587
G1 Y-15.
G2 X15. Y-16.587 R1.587
G1 X0.
X-15. Z-3.466
G2 X-16.587 Y-15. Z-3.709 R1.587
G1 Y-12.025 Z-4.
Y15.
G2 X-15. Y16.587 R1.587
G1 X15.
G2 X16.587 Y15. R1.587
G1 Y-15.
G2 X15. Y-16.587 R1.587
G1 X-15.
G2 X-16.587 Y-15. R1.587
G1 Y-12.025
Y8.443 Z-6.
Y15.
G2 X-15. Y16.587 R1.587
G1 X15.
G2 X16.587 Y15. R1.587
G1 Y-15.
G2 X15. Y-16.587 R1.587
G1 X-15.
G2 X-16.587 Y-15. R1.587
G1 Y8.443
Y15. Z-6.641
G2 X-15. Y16.587 Z-6.884 R1.587
G1 X-3.582 Z-8.
X15.
G2 X16.587 Y15. R1.587
G1 Y-15.
G2 X15. Y-16.587 R1.587
G1 X-15.
G2 X-16.587 Y-15. R1.587
G1 Y8.443
Y15.
G2 X-15. Y16.587 R1.587
G1 X-3.582
X15. Z-9.816
G2 X16.473 Y15.592 Z-10. R1.587
X16.587 Y15. R1.587
G1 Y-15.
G2 X15. Y-16.587 R1.587
G1 X-15.
G2 X-16.587 Y-15. R1.587
G1 Y15.
G2 X-15. Y16.587 R1.587
G1 X15.
G2 X16.473 Y15.592 R1.587
X16.587 Y15. Z-10.059 R1.587
G1 Y-4.861 Z-12.
Y-15.
G2 X15. Y-16.587 R1.587
G1 X-15.
G2 X-16.587 Y-15. R1.587
G1 Y15.
G2 X-15. Y16.587 R1.587
G1 X15.
G2 X16.587 Y15. R1.587
G1 Y-4.861
Y-15. Z-12.991
G2 X15. Y-16.587 Z-13.234 R1.587
G1 X7.164 Z-14.
X-15.
G2 X-16.587 Y-15. R1.587
G1 Y15.
G2 X-15. Y16.587 R1.587
G1 X15.
G2 X16.587 Y15. R1.587
G1 Y-4.861
Y-15.
G2 X15. Y-16.587 R1.587
G1 X7.164
X-13.304 Z-16.
X-15.
G2 X-16.587 Y-15. R1.587
G1 Y15.
G2 X-15. Y16.587 R1.587
G1 X15.
G2 X16.587 Y15. R1.587
G1 Y-15.
G2 X15. Y-16.587 R1.587
G1 X-13.304
X-15. Z-16.166
G2 X-16.587 Y-15. Z-16.409 R1.587
G1 Y1.279 Z-18.
Y15.
G2 X-15. Y16.587 R1.587
G1 X15.
G2 X16.587 Y15. R1.587
G1 Y-15.
G2 X15. Y-16.587 R1.587
G1 X-13.304
X-15.
G2 X-16.587 Y-15. R1.587
G1 Y1.279
Y15. Z-19.341
G2 X-15. Y16.587 Z-19.584 R1.587
G1 X-10.746 Z-20.
X15.
G2 X16.587 Y15. R1.587
G1 Y-15.
G2 X15. Y-16.587 R1.587
G1 X-15.
G2 X-16.587 Y-15. R1.587
G1 Y1.279
Y15.
G2 X-15. Y16.587 R1.587
G1 X-10.746
G0 Z10.

M9
M30
