(Exported by FreeCAD)
(Post Processor: script_module)
(Output Time:2024-12-19 19:34:00.068830)
(Begin preamble)
G17 G90
G21
(Block-name: Fixture)
(Block-expand: 0)
(Block-enable: 1)
(Begin operation: Fixture)
(Path: Fixture)
G54
(Finish operation: Fixture)
(Block-name: 3mm Endmill001)
(Block-expand: 0)
(Block-enable: 1)
(Begin operation: 3mm Endmill001)
(Path: 3mm Endmill001)
(3mm Endmill001)
(Begin toolchange)
( M6 T2 )
M3 S10000
(Finish operation: 3mm Endmill001)
(Block-name: Adaptive)
(Block-expand: 0)
(Block-enable: 1)
(Begin operation: Adaptive)
(Path: Adaptive)
(Adaptive)
(Helix to depth: -6.000000)
G0 Z6.000
G0 X64.994 Y47.486 Z6.000
G0 X64.994 Y47.486 Z4.000
G1 X64.994 Y47.486 Z1.000 F200.000
G1 X64.994 Y47.486 Z1.000 F200.000
G1 X64.899 Y47.476 Z0.991 F200.000
G1 X64.807 Y47.448 Z0.983 F200.000
G1 X64.722 Y47.403 Z0.974 F200.000
G1 X64.648 Y47.341 Z0.966 F200.000
G1 X64.588 Y47.267 Z0.957 F200.000
G1 X64.543 Y47.182 Z0.948 F200.000
G1 X64.515 Y47.090 Z0.940 F200.000
G1 X64.506 Y46.994 Z0.931 F200.000
G1 X64.516 Y46.899 Z0.923 F200.000
G1 X64.544 Y46.807 Z0.914 F200.000
G1 X64.590 Y46.722 Z0.906 F200.000
G1 X64.651 Y46.648 Z0.897 F200.000
G1 X64.726 Y46.588 Z0.888 F200.000
G1 X64.811 Y46.543 Z0.880 F200.000
G1 X64.903 Y46.515 Z0.871 F200.000
G1 X64.998 Y46.506 Z0.863 F200.000
G1 X65.094 Y46.516 Z0.854 F200.000
G1 X65.186 Y46.544 Z0.845 F200.000
G1 X65.270 Y46.590 Z0.837 F200.000
G1 X65.344 Y46.651 Z0.828 F200.000
G1 X65.405 Y46.726 Z0.820 F200.000
G1 X65.450 Y46.811 Z0.811 F200.000
G1 X65.477 Y46.903 Z0.802 F200.000
G1 X65.486 Y46.998 Z0.794 F200.000
G1 X65.476 Y47.094 Z0.785 F200.000
G1 X65.448 Y47.186 Z0.777 F200.000
G1 X65.403 Y47.270 Z0.768 F200.000
G1 X65.341 Y47.344 Z0.760 F200.000
G1 X65.267 Y47.405 Z0.751 F200.000
G1 X65.182 Y47.450 Z0.742 F200.000
G1 X65.090 Y47.477 Z0.734 F200.000
G1 X64.994 Y47.486 Z0.725 F200.000
G1 X64.899 Y47.476 Z0.717 F200.000
G1 X64.807 Y47.448 Z0.708 F200.000
G1 X64.722 Y47.403 Z0.699 F200.000
G1 X64.648 Y47.341 Z0.691 F200.000
G1 X64.588 Y47.267 Z0.682 F200.000
G1 X64.543 Y47.182 Z0.674 F200.000
G1 X64.515 Y47.090 Z0.665 F200.000
G1 X64.506 Y46.994 Z0.656 F200.000
G1 X64.516 Y46.899 Z0.648 F200.000
G1 X64.544 Y46.807 Z0.639 F200.000
G1 X64.590 Y46.722 Z0.631 F200.000
G1 X64.651 Y46.648 Z0.622 F200.000
G1 X64.726 Y46.588 Z0.613 F200.000
G1 X64.811 Y46.543 Z0.605 F200.000
G1 X64.903 Y46.515 Z0.596 F200.000
G1 X64.998 Y46.506 Z0.588 F200.000
G1 X65.094 Y46.516 Z0.579 F200.000
G1 X65.186 Y46.544 Z0.571 F200.000
G1 X65.270 Y46.590 Z0.562 F200.000
G1 X65.344 Y46.651 Z0.553 F200.000
G1 X65.405 Y46.726 Z0.545 F200.000
G1 X65.450 Y46.811 Z0.536 F200.000
G1 X65.477 Y46.903 Z0.528 F200.000
G1 X65.486 Y46.998 Z0.519 F200.000
G1 X65.476 Y47.094 Z0.510 F200.000
G1 X65.448 Y47.186 Z0.502 F200.000
G1 X65.403 Y47.270 Z0.493 F200.000
G1 X65.341 Y47.344 Z0.485 F200.000
G1 X65.267 Y47.405 Z0.476 F200.000
G1 X65.182 Y47.450 Z0.467 F200.000
G1 X65.090 Y47.477 Z0.459 F200.000
G1 X64.994 Y47.486 Z0.450 F200.000
G1 X64.899 Y47.476 Z0.442 F200.000
G1 X64.807 Y47.448 Z0.433 F200.000
G1 X64.722 Y47.403 Z0.425 F200.000
G1 X64.648 Y47.341 Z0.416 F200.000
G1 X64.588 Y47.267 Z0.407 F200.000
G1 X64.543 Y47.182 Z0.399 F200.000
G1 X64.515 Y47.090 Z0.390 F200.000
G1 X64.506 Y46.994 Z0.382 F200.000
G1 X64.516 Y46.899 Z0.373 F200.000
G1 X64.544 Y46.807 Z0.364 F200.000
G1 X64.590 Y46.722 Z0.356 F200.000
G1 X64.651 Y46.648 Z0.347 F200.000
G1 X64.726 Y46.588 Z0.339 F200.000
G1 X64.811 Y46.543 Z0.330 F200.000
G1 X64.903 Y46.515 Z0.321 F200.000
G1 X64.998 Y46.506 Z0.313 F200.000
G1 X65.094 Y46.516 Z0.304 F200.000
G1 X65.186 Y46.544 Z0.296 F200.000
G1 X65.270 Y46.590 Z0.287 F200.000
G1 X65.344 Y46.651 Z0.279 F200.000
G1 X65.405 Y46.726 Z0.270 F200.000
G1 X65.450 Y46.811 Z0.261 F200.000
G1 X65.477 Y46.903 Z0.253 F200.000
G1 X65.486 Y46.998 Z0.244 F200.000
G1 X65.476 Y47.094 Z0.236 F200.000
G1 X65.448 Y47.186 Z0.227 F200.000
G1 X65.403 Y47.270 Z0.218 F200.000
G1 X65.341 Y47.344 Z0.210 F200.000
G1 X65.267 Y47.405 Z0.201 F200.000
G1 X65.182 Y47.450 Z0.193 F200.000
G1 X65.090 Y47.477 Z0.184 F200.000
G1 X64.994 Y47.486 Z0.175 F200.000
G1 X64.899 Y47.476 Z0.167 F200.000
G1 X64.807 Y47.448 Z0.158 F200.000
G1 X64.722 Y47.403 Z0.150 F200.000
G1 X64.648 Y47.341 Z0.141 F200.000
G1 X64.588 Y47.267 Z0.132 F200.000
G1 X64.543 Y47.182 Z0.124 F200.000
G1 X64.515 Y47.090 Z0.115 F200.000
G1 X64.506 Y46.994 Z0.107 F200.000
G1 X64.516 Y46.899 Z0.098 F200.000
G1 X64.544 Y46.807 Z0.090 F200.000
G1 X64.590 Y46.722 Z0.081 F200.000
G1 X64.651 Y46.648 Z0.072 F200.000
G1 X64.726 Y46.588 Z0.064 F200.000
G1 X64.811 Y46.543 Z0.055 F200.000
G1 X64.903 Y46.515 Z0.047 F200.000
G1 X64.998 Y46.506 Z0.038 F200.000
G1 X65.094 Y46.516 Z0.029 F200.000
G1 X65.186 Y46.544 Z0.021 F200.000
G1 X65.270 Y46.590 Z0.012 F200.000
G1 X65.344 Y46.651 Z0.004 F200.000
G1 X65.405 Y46.726 Z-0.005 F200.000
G1 X65.450 Y46.811 Z-0.014 F200.000
G1 X65.477 Y46.903 Z-0.022 F200.000
G1 X65.486 Y46.998 Z-0.031 F200.000
G1 X65.476 Y47.094 Z-0.039 F200.000
G1 X65.448 Y47.186 Z-0.048 F200.000
G1 X65.403 Y47.270 Z-0.056 F200.000
G1 X65.341 Y47.344 Z-0.065 F200.000
G1 X65.267 Y47.405 Z-0.074 F200.000
G1 X65.182 Y47.450 Z-0.082 F200.000
G1 X65.090 Y47.477 Z-0.091 F200.000
G1 X64.994 Y47.486 Z-0.099 F200.000
G1 X64.899 Y47.476 Z-0.108 F200.000
G1 X64.807 Y47.448 Z-0.117 F200.000
G1 X64.722 Y47.403 Z-0.125 F200.000
G1 X64.648 Y47.341 Z-0.134 F200.000
G1 X64.588 Y47.267 Z-0.142 F200.000
G1 X64.543 Y47.182 Z-0.151 F200.000
G1 X64.515 Y47.090 Z-0.160 F200.000
G1 X64.506 Y46.994 Z-0.168 F200.000
G1 X64.516 Y46.899 Z-0.177 F200.000
G1 X64.544 Y46.807 Z-0.185 F200.000
G1 X64.590 Y46.722 Z-0.194 F200.000
G1 X64.651 Y46.648 Z-0.202 F200.000
G1 X64.726 Y46.588 Z-0.211 F200.000
G1 X64.811 Y46.543 Z-0.220 F200.000
G1 X64.903 Y46.515 Z-0.228 F200.000
G1 X64.998 Y46.506 Z-0.237 F200.000
G1 X65.094 Y46.516 Z-0.245 F200.000
G1 X65.186 Y46.544 Z-0.254 F200.000
G1 X65.270 Y46.590 Z-0.263 F200.000
G1 X65.344 Y46.651 Z-0.271 F200.000
G1 X65.405 Y46.726 Z-0.280 F200.000
G1 X65.450 Y46.811 Z-0.288 F200.000
G1 X65.477 Y46.903 Z-0.297 F200.000
G1 X65.486 Y46.998 Z-0.306 F200.000
G1 X65.476 Y47.094 Z-0.314 F200.000
G1 X65.448 Y47.186 Z-0.323 F200.000
G1 X65.403 Y47.270 Z-0.331 F200.000
G1 X65.341 Y47.344 Z-0.340 F200.000
G1 X65.267 Y47.405 Z-0.349 F200.000
G1 X65.182 Y47.450 Z-0.357 F200.000
G1 X65.090 Y47.477 Z-0.366 F200.000
G1 X64.994 Y47.486 Z-0.374 F200.000
G1 X64.899 Y47.476 Z-0.383 F200.000
G1 X64.807 Y47.448 Z-0.391 F200.000
G1 X64.722 Y47.403 Z-0.400 F200.000
G1 X64.648 Y47.341 Z-0.409 F200.000
G1 X64.588 Y47.267 Z-0.417 F200.000
G1 X64.543 Y47.182 Z-0.426 F200.000
G1 X64.515 Y47.090 Z-0.434 F200.000
G1 X64.506 Y46.994 Z-0.443 F200.000
G1 X64.516 Y46.899 Z-0.452 F200.000
G1 X64.544 Y46.807 Z-0.460 F200.000
G1 X64.590 Y46.722 Z-0.469 F200.000
G1 X64.651 Y46.648 Z-0.477 F200.000
G1 X64.726 Y46.588 Z-0.486 F200.000
G1 X64.811 Y46.543 Z-0.495 F200.000
G1 X64.903 Y46.515 Z-0.503 F200.000
G1 X64.998 Y46.506 Z-0.512 F200.000
G1 X65.094 Y46.516 Z-0.520 F200.000
G1 X65.186 Y46.544 Z-0.529 F200.000
G1 X65.270 Y46.590 Z-0.537 F200.000
G1 X65.344 Y46.651 Z-0.546 F200.000
G1 X65.405 Y46.726 Z-0.555 F200.000
G1 X65.450 Y46.811 Z-0.563 F200.000
G1 X65.477 Y46.903 Z-0.572 F200.000
G1 X65.486 Y46.998 Z-0.580 F200.000
G1 X65.476 Y47.094 Z-0.589 F200.000
G1 X65.448 Y47.186 Z-0.598 F200.000
G1 X65.403 Y47.270 Z-0.606 F200.000
G1 X65.341 Y47.344 Z-0.615 F200.000
G1 X65.267 Y47.405 Z-0.623 F200.000
G1 X65.182 Y47.450 Z-0.632 F200.000
G1 X65.090 Y47.477 Z-0.641 F200.000
G1 X64.994 Y47.486 Z-0.649 F200.000
G1 X64.899 Y47.476 Z-0.658 F200.000
G1 X64.807 Y47.448 Z-0.666 F200.000
G1 X64.722 Y47.403 Z-0.675 F200.000
G1 X64.648 Y47.341 Z-0.683 F200.000
G1 X64.588 Y47.267 Z-0.692 F200.000
G1 X64.543 Y47.182 Z-0.701 F200.000
G1 X64.515 Y47.090 Z-0.709 F200.000
G1 X64.506 Y46.994 Z-0.718 F200.000
G1 X64.516 Y46.899 Z-0.726 F200.000
G1 X64.544 Y46.807 Z-0.735 F200.000
G1 X64.590 Y46.722 Z-0.744 F200.000
G1 X64.651 Y46.648 Z-0.752 F200.000
G1 X64.726 Y46.588 Z-0.761 F200.000
G1 X64.811 Y46.543 Z-0.769 F200.000
G1 X64.903 Y46.515 Z-0.778 F200.000
G1 X64.998 Y46.506 Z-0.787 F200.000
G1 X65.094 Y46.516 Z-0.795 F200.000
G1 X65.186 Y46.544 Z-0.804 F200.000
G1 X65.270 Y46.590 Z-0.812 F200.000
G1 X65.344 Y46.651 Z-0.821 F200.000
G1 X65.405 Y46.726 Z-0.829 F200.000
G1 X65.450 Y46.811 Z-0.838 F200.000
G1 X65.477 Y46.903 Z-0.847 F200.000
G1 X65.486 Y46.998 Z-0.855 F200.000
G1 X65.476 Y47.094 Z-0.864 F200.000
G1 X65.448 Y47.186 Z-0.872 F200.000
G1 X65.403 Y47.270 Z-0.881 F200.000
G1 X65.341 Y47.344 Z-0.890 F200.000
G1 X65.267 Y47.405 Z-0.898 F200.000
G1 X65.182 Y47.450 Z-0.907 F200.000
G1 X65.090 Y47.477 Z-0.915 F200.000
G1 X64.994 Y47.486 Z-0.924 F200.000
G1 X64.899 Y47.476 Z-0.933 F200.000
G1 X64.807 Y47.448 Z-0.941 F200.000
G1 X64.722 Y47.403 Z-0.950 F200.000
G1 X64.648 Y47.341 Z-0.958 F200.000
G1 X64.588 Y47.267 Z-0.967 F200.000
G1 X64.543 Y47.182 Z-0.976 F200.000
G1 X64.515 Y47.090 Z-0.984 F200.000
G1 X64.506 Y46.994 Z-0.993 F200.000
G1 X64.516 Y46.899 Z-1.001 F200.000
G1 X64.544 Y46.807 Z-1.010 F200.000
G1 X64.590 Y46.722 Z-1.018 F200.000
G1 X64.651 Y46.648 Z-1.027 F200.000
G1 X64.726 Y46.588 Z-1.036 F200.000
G1 X64.811 Y46.543 Z-1.044 F200.000
G1 X64.903 Y46.515 Z-1.053 F200.000
G1 X64.998 Y46.506 Z-1.061 F200.000
G1 X65.094 Y46.516 Z-1.070 F200.000
G1 X65.186 Y46.544 Z-1.079 F200.000
G1 X65.270 Y46.590 Z-1.087 F200.000
G1 X65.344 Y46.651 Z-1.096 F200.000
G1 X65.405 Y46.726 Z-1.104 F200.000
G1 X65.450 Y46.811 Z-1.113 F200.000
G1 X65.477 Y46.903 Z-1.122 F200.000
G1 X65.486 Y46.998 Z-1.130 F200.000
G1 X65.476 Y47.094 Z-1.139 F200.000
G1 X65.448 Y47.186 Z-1.147 F200.000
G1 X65.403 Y47.270 Z-1.156 F200.000
G1 X65.341 Y47.344 Z-1.164 F200.000
G1 X65.267 Y47.405 Z-1.173 F200.000
G1 X65.182 Y47.450 Z-1.182 F200.000
G1 X65.090 Y47.477 Z-1.190 F200.000
G1 X64.994 Y47.486 Z-1.199 F200.000
G1 X64.899 Y47.476 Z-1.207 F200.000
G1 X64.807 Y47.448 Z-1.216 F200.000
G1 X64.722 Y47.403 Z-1.225 F200.000
G1 X64.648 Y47.341 Z-1.233 F200.000
G1 X64.588 Y47.267 Z-1.242 F200.000
G1 X64.543 Y47.182 Z-1.250 F200.000
G1 X64.515 Y47.090 Z-1.259 F200.000
G1 X64.506 Y46.994 Z-1.268 F200.000
G1 X64.516 Y46.899 Z-1.276 F200.000
G1 X64.544 Y46.807 Z-1.285 F200.000
G1 X64.590 Y46.722 Z-1.293 F200.000
G1 X64.651 Y46.648 Z-1.302 F200.000
G1 X64.726 Y46.588 Z-1.310 F200.000
G1 X64.811 Y46.543 Z-1.319 F200.000
G1 X64.903 Y46.515 Z-1.328 F200.000
G1 X64.998 Y46.506 Z-1.336 F200.000
G1 X65.094 Y46.516 Z-1.345 F200.000
G1 X65.186 Y46.544 Z-1.353 F200.000
G1 X65.270 Y46.590 Z-1.362 F200.000
G1 X65.344 Y46.651 Z-1.371 F200.000
G1 X65.405 Y46.726 Z-1.379 F200.000
G1 X65.450 Y46.811 Z-1.388 F200.000
G1 X65.477 Y46.903 Z-1.396 F200.000
G1 X65.486 Y46.998 Z-1.405 F200.000
G1 X65.476 Y47.094 Z-1.414 F200.000
G1 X65.448 Y47.186 Z-1.422 F200.000
G1 X65.403 Y47.270 Z-1.431 F200.000
G1 X65.341 Y47.344 Z-1.439 F200.000
G1 X65.267 Y47.405 Z-1.448 F200.000
G1 X65.182 Y47.450 Z-1.457 F200.000
G1 X65.090 Y47.477 Z-1.465 F200.000
G1 X64.994 Y47.486 Z-1.474 F200.000
G1 X64.899 Y47.476 Z-1.482 F200.000
G1 X64.807 Y47.448 Z-1.491 F200.000
G1 X64.722 Y47.403 Z-1.499 F200.000
G1 X64.648 Y47.341 Z-1.508 F200.000
G1 X64.588 Y47.267 Z-1.517 F200.000
G1 X64.543 Y47.182 Z-1.525 F200.000
G1 X64.515 Y47.090 Z-1.534 F200.000
G1 X64.506 Y46.994 Z-1.542 F200.000
G1 X64.516 Y46.899 Z-1.551 F200.000
G1 X64.544 Y46.807 Z-1.560 F200.000
G1 X64.590 Y46.722 Z-1.568 F200.000
G1 X64.651 Y46.648 Z-1.577 F200.000
G1 X64.726 Y46.588 Z-1.585 F200.000
G1 X64.811 Y46.543 Z-1.594 F200.000
G1 X64.903 Y46.515 Z-1.603 F200.000
G1 X64.998 Y46.506 Z-1.611 F200.000
G1 X65.094 Y46.516 Z-1.620 F200.000
G1 X65.186 Y46.544 Z-1.628 F200.000
G1 X65.270 Y46.590 Z-1.637 F200.000
G1 X65.344 Y46.651 Z-1.645 F200.000
G1 X65.405 Y46.726 Z-1.654 F200.000
G1 X65.450 Y46.811 Z-1.663 F200.000
G1 X65.477 Y46.903 Z-1.671 F200.000
G1 X65.486 Y46.998 Z-1.680 F200.000
G1 X65.476 Y47.094 Z-1.688 F200.000
G1 X65.448 Y47.186 Z-1.697 F200.000
G1 X65.403 Y47.270 Z-1.706 F200.000
G1 X65.341 Y47.344 Z-1.714 F200.000
G1 X65.267 Y47.405 Z-1.723 F200.000
G1 X65.182 Y47.450 Z-1.731 F200.000
G1 X65.090 Y47.477 Z-1.740 F200.000
G1 X64.994 Y47.486 Z-1.749 F200.000
G1 X64.899 Y47.476 Z-1.757 F200.000
G1 X64.807 Y47.448 Z-1.766 F200.000
G1 X64.722 Y47.403 Z-1.774 F200.000
G1 X64.648 Y47.341 Z-1.783 F200.000
G1 X64.588 Y47.267 Z-1.791 F200.000
G1 X64.543 Y47.182 Z-1.800 F200.000
G1 X64.515 Y47.090 Z-1.809 F200.000
G1 X64.506 Y46.994 Z-1.817 F200.000
G1 X64.516 Y46.899 Z-1.826 F200.000
G1 X64.544 Y46.807 Z-1.834 F200.000
G1 X64.590 Y46.722 Z-1.843 F200.000
G1 X64.651 Y46.648 Z-1.852 F200.000
G1 X64.726 Y46.588 Z-1.860 F200.000
G1 X64.811 Y46.543 Z-1.869 F200.000
G1 X64.903 Y46.515 Z-1.877 F200.000
G1 X64.998 Y46.506 Z-1.886 F200.000
G1 X65.094 Y46.516 Z-1.895 F200.000
G1 X65.186 Y46.544 Z-1.903 F200.000
G1 X65.270 Y46.590 Z-1.912 F200.000
G1 X65.344 Y46.651 Z-1.920 F200.000
G1 X65.405 Y46.726 Z-1.929 F200.000
G1 X65.450 Y46.811 Z-1.937 F200.000
G1 X65.477 Y46.903 Z-1.946 F200.000
G1 X65.486 Y46.998 Z-1.955 F200.000
G1 X65.476 Y47.094 Z-1.963 F200.000
G1 X65.448 Y47.186 Z-1.972 F200.000
G1 X65.403 Y47.270 Z-1.980 F200.000
G1 X65.341 Y47.344 Z-1.989 F200.000
G1 X65.267 Y47.405 Z-1.998 F200.000
G1 X65.182 Y47.450 Z-2.006 F200.000
G1 X65.090 Y47.477 Z-2.015 F200.000
G1 X64.994 Y47.486 Z-2.023 F200.000
G1 X64.899 Y47.476 Z-2.032 F200.000
G1 X64.807 Y47.448 Z-2.041 F200.000
G1 X64.722 Y47.403 Z-2.049 F200.000
G1 X64.648 Y47.341 Z-2.058 F200.000
G1 X64.588 Y47.267 Z-2.066 F200.000
G1 X64.543 Y47.182 Z-2.075 F200.000
G1 X64.515 Y47.090 Z-2.084 F200.000
G1 X64.506 Y46.994 Z-2.092 F200.000
G1 X64.516 Y46.899 Z-2.101 F200.000
G1 X64.544 Y46.807 Z-2.109 F200.000
G1 X64.590 Y46.722 Z-2.118 F200.000
G1 X64.651 Y46.648 Z-2.126 F200.000
G1 X64.726 Y46.588 Z-2.135 F200.000
G1 X64.811 Y46.543 Z-2.144 F200.000
G1 X64.903 Y46.515 Z-2.152 F200.000
G1 X64.998 Y46.506 Z-2.161 F200.000
G1 X65.094 Y46.516 Z-2.169 F200.000
G1 X65.186 Y46.544 Z-2.178 F200.000
G1 X65.270 Y46.590 Z-2.187 F200.000
G1 X65.344 Y46.651 Z-2.195 F200.000
G1 X65.405 Y46.726 Z-2.204 F200.000
G1 X65.450 Y46.811 Z-2.212 F200.000
G1 X65.477 Y46.903 Z-2.221 F200.000
G1 X65.486 Y46.998 Z-2.230 F200.000
G1 X65.476 Y47.094 Z-2.238 F200.000
G1 X65.448 Y47.186 Z-2.247 F200.000
G1 X65.403 Y47.270 Z-2.255 F200.000
G1 X65.341 Y47.344 Z-2.264 F200.000
G1 X65.267 Y47.405 Z-2.272 F200.000
G1 X65.182 Y47.450 Z-2.281 F200.000
G1 X65.090 Y47.477 Z-2.290 F200.000
G1 X64.994 Y47.486 Z-2.298 F200.000
G1 X64.899 Y47.476 Z-2.307 F200.000
G1 X64.807 Y47.448 Z-2.315 F200.000
G1 X64.722 Y47.403 Z-2.324 F200.000
G1 X64.648 Y47.341 Z-2.333 F200.000
G1 X64.588 Y47.267 Z-2.341 F200.000
G1 X64.543 Y47.182 Z-2.350 F200.000
G1 X64.515 Y47.090 Z-2.358 F200.000
G1 X64.506 Y46.994 Z-2.367 F200.000
G1 X64.516 Y46.899 Z-2.376 F200.000
G1 X64.544 Y46.807 Z-2.384 F200.000
G1 X64.590 Y46.722 Z-2.393 F200.000
G1 X64.651 Y46.648 Z-2.401 F200.000
G1 X64.726 Y46.588 Z-2.410 F200.000
G1 X64.811 Y46.543 Z-2.418 F200.000
G1 X64.903 Y46.515 Z-2.427 F200.000
G1 X64.998 Y46.506 Z-2.436 F200.000
G1 X65.094 Y46.516 Z-2.444 F200.000
G1 X65.186 Y46.544 Z-2.453 F200.000
G1 X65.270 Y46.590 Z-2.461 F200.000
G1 X65.344 Y46.651 Z-2.470 F200.000
G1 X65.405 Y46.726 Z-2.479 F200.000
G1 X65.450 Y46.811 Z-2.487 F200.000
G1 X65.477 Y46.903 Z-2.496 F200.000
G1 X65.486 Y46.998 Z-2.504 F200.000
G1 X65.476 Y47.094 Z-2.513 F200.000
G1 X65.448 Y47.186 Z-2.522 F200.000
G1 X65.403 Y47.270 Z-2.530 F200.000
G1 X65.341 Y47.344 Z-2.539 F200.000
G1 X65.267 Y47.405 Z-2.547 F200.000
G1 X65.182 Y47.450 Z-2.556 F200.000
G1 X65.090 Y47.477 Z-2.565 F200.000
G1 X64.994 Y47.486 Z-2.573 F200.000
G1 X64.899 Y47.476 Z-2.582 F200.000
G1 X64.807 Y47.448 Z-2.590 F200.000
G1 X64.722 Y47.403 Z-2.599 F200.000
G1 X64.648 Y47.341 Z-2.607 F200.000
G1 X64.588 Y47.267 Z-2.616 F200.000
G1 X64.543 Y47.182 Z-2.625 F200.000
G1 X64.515 Y47.090 Z-2.633 F200.000
G1 X64.506 Y46.994 Z-2.642 F200.000
G1 X64.516 Y46.899 Z-2.650 F200.000
G1 X64.544 Y46.807 Z-2.659 F200.000
G1 X64.590 Y46.722 Z-2.668 F200.000
G1 X64.651 Y46.648 Z-2.676 F200.000
G1 X64.726 Y46.588 Z-2.685 F200.000
G1 X64.811 Y46.543 Z-2.693 F200.000
G1 X64.903 Y46.515 Z-2.702 F200.000
G1 X64.998 Y46.506 Z-2.711 F200.000
G1 X65.094 Y46.516 Z-2.719 F200.000
G1 X65.186 Y46.544 Z-2.728 F200.000
G1 X65.270 Y46.590 Z-2.736 F200.000
G1 X65.344 Y46.651 Z-2.745 F200.000
G1 X65.405 Y46.726 Z-2.753 F200.000
G1 X65.450 Y46.811 Z-2.762 F200.000
G1 X65.477 Y46.903 Z-2.771 F200.000
G1 X65.486 Y46.998 Z-2.779 F200.000
G1 X65.476 Y47.094 Z-2.788 F200.000
G1 X65.448 Y47.186 Z-2.796 F200.000
G1 X65.403 Y47.270 Z-2.805 F200.000
G1 X65.341 Y47.344 Z-2.814 F200.000
G1 X65.267 Y47.405 Z-2.822 F200.000
G1 X65.182 Y47.450 Z-2.831 F200.000
G1 X65.090 Y47.477 Z-2.839 F200.000
G1 X64.994 Y47.486 Z-2.848 F200.000
G1 X64.899 Y47.476 Z-2.857 F200.000
G1 X64.807 Y47.448 Z-2.865 F200.000
G1 X64.722 Y47.403 Z-2.874 F200.000
G1 X64.648 Y47.341 Z-2.882 F200.000
G1 X64.588 Y47.267 Z-2.891 F200.000
G1 X64.543 Y47.182 Z-2.899 F200.000
G1 X64.515 Y47.090 Z-2.908 F200.000
G1 X64.506 Y46.994 Z-2.917 F200.000
G1 X64.516 Y46.899 Z-2.925 F200.000
G1 X64.544 Y46.807 Z-2.934 F200.000
G1 X64.590 Y46.722 Z-2.942 F200.000
G1 X64.651 Y46.648 Z-2.951 F200.000
G1 X64.726 Y46.588 Z-2.960 F200.000
G1 X64.811 Y46.543 Z-2.968 F200.000
G1 X64.903 Y46.515 Z-2.977 F200.000
G1 X64.998 Y46.506 Z-2.985 F200.000
G1 X65.094 Y46.516 Z-2.994 F200.000
G1 X65.186 Y46.544 Z-3.003 F200.000
G1 X65.270 Y46.590 Z-3.011 F200.000
G1 X65.344 Y46.651 Z-3.020 F200.000
G1 X65.405 Y46.726 Z-3.028 F200.000
G1 X65.450 Y46.811 Z-3.037 F200.000
G1 X65.477 Y46.903 Z-3.046 F200.000
G1 X65.486 Y46.998 Z-3.054 F200.000
G1 X65.476 Y47.094 Z-3.063 F200.000
G1 X65.448 Y47.186 Z-3.071 F200.000
G1 X65.403 Y47.270 Z-3.080 F200.000
G1 X65.341 Y47.344 Z-3.088 F200.000
G1 X65.267 Y47.405 Z-3.097 F200.000
G1 X65.182 Y47.450 Z-3.106 F200.000
G1 X65.090 Y47.477 Z-3.114 F200.000
G1 X64.994 Y47.486 Z-3.123 F200.000
G1 X64.899 Y47.476 Z-3.131 F200.000
G1 X64.807 Y47.448 Z-3.140 F200.000
G1 X64.722 Y47.403 Z-3.149 F200.000
G1 X64.648 Y47.341 Z-3.157 F200.000
G1 X64.588 Y47.267 Z-3.166 F200.000
G1 X64.543 Y47.182 Z-3.174 F200.000
G1 X64.515 Y47.090 Z-3.183 F200.000
G1 X64.506 Y46.994 Z-3.192 F200.000
G1 X64.516 Y46.899 Z-3.200 F200.000
G1 X64.544 Y46.807 Z-3.209 F200.000
G1 X64.590 Y46.722 Z-3.217 F200.000
G1 X64.651 Y46.648 Z-3.226 F200.000
G1 X64.726 Y46.588 Z-3.234 F200.000
G1 X64.811 Y46.543 Z-3.243 F200.000
G1 X64.903 Y46.515 Z-3.252 F200.000
G1 X64.998 Y46.506 Z-3.260 F200.000
G1 X65.094 Y46.516 Z-3.269 F200.000
G1 X65.186 Y46.544 Z-3.277 F200.000
G1 X65.270 Y46.590 Z-3.286 F200.000
G1 X65.344 Y46.651 Z-3.295 F200.000
G1 X65.405 Y46.726 Z-3.303 F200.000
G1 X65.450 Y46.811 Z-3.312 F200.000
G1 X65.477 Y46.903 Z-3.320 F200.000
G1 X65.486 Y46.998 Z-3.329 F200.000
G1 X65.476 Y47.094 Z-3.338 F200.000
G1 X65.448 Y47.186 Z-3.346 F200.000
G1 X65.403 Y47.270 Z-3.355 F200.000
G1 X65.341 Y47.344 Z-3.363 F200.000
G1 X65.267 Y47.405 Z-3.372 F200.000
G1 X65.182 Y47.450 Z-3.380 F200.000
G1 X65.090 Y47.477 Z-3.389 F200.000
G1 X64.994 Y47.486 Z-3.398 F200.000
G1 X64.899 Y47.476 Z-3.406 F200.000
G1 X64.807 Y47.448 Z-3.415 F200.000
G1 X64.722 Y47.403 Z-3.423 F200.000
G1 X64.648 Y47.341 Z-3.432 F200.000
G1 X64.588 Y47.267 Z-3.441 F200.000
G1 X64.543 Y47.182 Z-3.449 F200.000
G1 X64.515 Y47.090 Z-3.458 F200.000
G1 X64.506 Y46.994 Z-3.466 F200.000
G1 X64.516 Y46.899 Z-3.475 F200.000
G1 X64.544 Y46.807 Z-3.484 F200.000
G1 X64.590 Y46.722 Z-3.492 F200.000
G1 X64.651 Y46.648 Z-3.501 F200.000
G1 X64.726 Y46.588 Z-3.509 F200.000
G1 X64.811 Y46.543 Z-3.518 F200.000
G1 X64.903 Y46.515 Z-3.526 F200.000
G1 X64.998 Y46.506 Z-3.535 F200.000
G1 X65.094 Y46.516 Z-3.544 F200.000
G1 X65.186 Y46.544 Z-3.552 F200.000
G1 X65.270 Y46.590 Z-3.561 F200.000
G1 X65.344 Y46.651 Z-3.569 F200.000
G1 X65.405 Y46.726 Z-3.578 F200.000
G1 X65.450 Y46.811 Z-3.587 F200.000
G1 X65.477 Y46.903 Z-3.595 F200.000
G1 X65.486 Y46.998 Z-3.604 F200.000
G1 X65.476 Y47.094 Z-3.612 F200.000
G1 X65.448 Y47.186 Z-3.621 F200.000
G1 X65.403 Y47.270 Z-3.630 F200.000
G1 X65.341 Y47.344 Z-3.638 F200.000
G1 X65.267 Y47.405 Z-3.647 F200.000
G1 X65.182 Y47.450 Z-3.655 F200.000
G1 X65.090 Y47.477 Z-3.664 F200.000
G1 X64.994 Y47.486 Z-3.673 F200.000
G1 X64.899 Y47.476 Z-3.681 F200.000
G1 X64.807 Y47.448 Z-3.690 F200.000
G1 X64.722 Y47.403 Z-3.698 F200.000
G1 X64.648 Y47.341 Z-3.707 F200.000
G1 X64.588 Y47.267 Z-3.715 F200.000
G1 X64.543 Y47.182 Z-3.724 F200.000
G1 X64.515 Y47.090 Z-3.733 F200.000
G1 X64.506 Y46.994 Z-3.741 F200.000
G1 X64.516 Y46.899 Z-3.750 F200.000
G1 X64.544 Y46.807 Z-3.758 F200.000
G1 X64.590 Y46.722 Z-3.767 F200.000
G1 X64.651 Y46.648 Z-3.776 F200.000
G1 X64.726 Y46.588 Z-3.784 F200.000
G1 X64.811 Y46.543 Z-3.793 F200.000
G1 X64.903 Y46.515 Z-3.801 F200.000
G1 X64.998 Y46.506 Z-3.810 F200.000
G1 X65.094 Y46.516 Z-3.819 F200.000
G1 X65.186 Y46.544 Z-3.827 F200.000
G1 X65.270 Y46.590 Z-3.836 F200.000
G1 X65.344 Y46.651 Z-3.844 F200.000
G1 X65.405 Y46.726 Z-3.853 F200.000
G1 X65.450 Y46.811 Z-3.861 F200.000
G1 X65.477 Y46.903 Z-3.870 F200.000
G1 X65.486 Y46.998 Z-3.879 F200.000
G1 X65.476 Y47.094 Z-3.887 F200.000
G1 X65.448 Y47.186 Z-3.896 F200.000
G1 X65.403 Y47.270 Z-3.904 F200.000
G1 X65.341 Y47.344 Z-3.913 F200.000
G1 X65.267 Y47.405 Z-3.922 F200.000
G1 X65.182 Y47.450 Z-3.930 F200.000
G1 X65.090 Y47.477 Z-3.939 F200.000
G1 X64.994 Y47.486 Z-3.947 F200.000
G1 X64.899 Y47.476 Z-3.956 F200.000
G1 X64.807 Y47.448 Z-3.965 F200.000
G1 X64.722 Y47.403 Z-3.973 F200.000
G1 X64.648 Y47.341 Z-3.982 F200.000
G1 X64.588 Y47.267 Z-3.990 F200.000
G1 X64.543 Y47.182 Z-3.999 F200.000
G1 X64.515 Y47.090 Z-4.007 F200.000
G1 X64.506 Y46.994 Z-4.016 F200.000
G1 X64.516 Y46.899 Z-4.025 F200.000
G1 X64.544 Y46.807 Z-4.033 F200.000
G1 X64.590 Y46.722 Z-4.042 F200.000
G1 X64.651 Y46.648 Z-4.050 F200.000
G1 X64.726 Y46.588 Z-4.059 F200.000
G1 X64.811 Y46.543 Z-4.068 F200.000
G1 X64.903 Y46.515 Z-4.076 F200.000
G1 X64.998 Y46.506 Z-4.085 F200.000
G1 X65.094 Y46.516 Z-4.093 F200.000
G1 X65.186 Y46.544 Z-4.102 F200.000
G1 X65.270 Y46.590 Z-4.111 F200.000
G1 X65.344 Y46.651 Z-4.119 F200.000
G1 X65.405 Y46.726 Z-4.128 F200.000
G1 X65.450 Y46.811 Z-4.136 F200.000
G1 X65.477 Y46.903 Z-4.145 F200.000
G1 X65.486 Y46.998 Z-4.154 F200.000
G1 X65.476 Y47.094 Z-4.162 F200.000
G1 X65.448 Y47.186 Z-4.171 F200.000
G1 X65.403 Y47.270 Z-4.179 F200.000
G1 X65.341 Y47.344 Z-4.188 F200.000
G1 X65.267 Y47.405 Z-4.196 F200.000
G1 X65.182 Y47.450 Z-4.205 F200.000
G1 X65.090 Y47.477 Z-4.214 F200.000
G1 X64.994 Y47.486 Z-4.222 F200.000
G1 X64.899 Y47.476 Z-4.231 F200.000
G1 X64.807 Y47.448 Z-4.239 F200.000
G1 X64.722 Y47.403 Z-4.248 F200.000
G1 X64.648 Y47.341 Z-4.257 F200.000
G1 X64.588 Y47.267 Z-4.265 F200.000
G1 X64.543 Y47.182 Z-4.274 F200.000
G1 X64.515 Y47.090 Z-4.282 F200.000
G1 X64.506 Y46.994 Z-4.291 F200.000
G1 X64.516 Y46.899 Z-4.300 F200.000
G1 X64.544 Y46.807 Z-4.308 F200.000
G1 X64.590 Y46.722 Z-4.317 F200.000
G1 X64.651 Y46.648 Z-4.325 F200.000
G1 X64.726 Y46.588 Z-4.334 F200.000
G1 X64.811 Y46.543 Z-4.342 F200.000
G1 X64.903 Y46.515 Z-4.351 F200.000
G1 X64.998 Y46.506 Z-4.360 F200.000
G1 X65.094 Y46.516 Z-4.368 F200.000
G1 X65.186 Y46.544 Z-4.377 F200.000
G1 X65.270 Y46.590 Z-4.385 F200.000
G1 X65.344 Y46.651 Z-4.394 F200.000
G1 X65.405 Y46.726 Z-4.403 F200.000
G1 X65.450 Y46.811 Z-4.411 F200.000
G1 X65.477 Y46.903 Z-4.420 F200.000
G1 X65.486 Y46.998 Z-4.428 F200.000
G1 X65.476 Y47.094 Z-4.437 F200.000
G1 X65.448 Y47.186 Z-4.446 F200.000
G1 X65.403 Y47.270 Z-4.454 F200.000
G1 X65.341 Y47.344 Z-4.463 F200.000
G1 X65.267 Y47.405 Z-4.471 F200.000
G1 X65.182 Y47.450 Z-4.480 F200.000
G1 X65.090 Y47.477 Z-4.488 F200.000
G1 X64.994 Y47.486 Z-4.497 F200.000
G1 X64.899 Y47.476 Z-4.506 F200.000
G1 X64.807 Y47.448 Z-4.514 F200.000
G1 X64.722 Y47.403 Z-4.523 F200.000
G1 X64.648 Y47.341 Z-4.531 F200.000
G1 X64.588 Y47.267 Z-4.540 F200.000
G1 X64.543 Y47.182 Z-4.549 F200.000
G1 X64.515 Y47.090 Z-4.557 F200.000
G1 X64.506 Y46.994 Z-4.566 F200.000
G1 X64.516 Y46.899 Z-4.574 F200.000
G1 X64.544 Y46.807 Z-4.583 F200.000
G1 X64.590 Y46.722 Z-4.592 F200.000
G1 X64.651 Y46.648 Z-4.600 F200.000
G1 X64.726 Y46.588 Z-4.609 F200.000
G1 X64.811 Y46.543 Z-4.617 F200.000
G1 X64.903 Y46.515 Z-4.626 F200.000
G1 X64.998 Y46.506 Z-4.635 F200.000
G1 X65.094 Y46.516 Z-4.643 F200.000
G1 X65.186 Y46.544 Z-4.652 F200.000
G1 X65.270 Y46.590 Z-4.660 F200.000
G1 X65.344 Y46.651 Z-4.669 F200.000
G1 X65.405 Y46.726 Z-4.677 F200.000
G1 X65.450 Y46.811 Z-4.686 F200.000
G1 X65.477 Y46.903 Z-4.695 F200.000
G1 X65.486 Y46.998 Z-4.703 F200.000
G1 X65.476 Y47.094 Z-4.712 F200.000
G1 X65.448 Y47.186 Z-4.720 F200.000
G1 X65.403 Y47.270 Z-4.729 F200.000
G1 X65.341 Y47.344 Z-4.738 F200.000
G1 X65.267 Y47.405 Z-4.746 F200.000
G1 X65.182 Y47.450 Z-4.755 F200.000
G1 X65.090 Y47.477 Z-4.763 F200.000
G1 X64.994 Y47.486 Z-4.772 F200.000
G1 X64.899 Y47.476 Z-4.781 F200.000
G1 X64.807 Y47.448 Z-4.789 F200.000
G1 X64.722 Y47.403 Z-4.798 F200.000
G1 X64.648 Y47.341 Z-4.806 F200.000
G1 X64.588 Y47.267 Z-4.815 F200.000
G1 X64.543 Y47.182 Z-4.823 F200.000
G1 X64.515 Y47.090 Z-4.832 F200.000
G1 X64.506 Y46.994 Z-4.841 F200.000
G1 X64.516 Y46.899 Z-4.849 F200.000
G1 X64.544 Y46.807 Z-4.858 F200.000
G1 X64.590 Y46.722 Z-4.866 F200.000
G1 X64.651 Y46.648 Z-4.875 F200.000
G1 X64.726 Y46.588 Z-4.884 F200.000
G1 X64.811 Y46.543 Z-4.892 F200.000
G1 X64.903 Y46.515 Z-4.901 F200.000
G1 X64.998 Y46.506 Z-4.909 F200.000
G1 X65.094 Y46.516 Z-4.918 F200.000
G1 X65.186 Y46.544 Z-4.927 F200.000
G1 X65.270 Y46.590 Z-4.935 F200.000
G1 X65.344 Y46.651 Z-4.944 F200.000
G1 X65.405 Y46.726 Z-4.952 F200.000
G1 X65.450 Y46.811 Z-4.961 F200.000
G1 X65.477 Y46.903 Z-4.969 F200.000
G1 X65.486 Y46.998 Z-4.978 F200.000
G1 X65.476 Y47.094 Z-4.987 F200.000
G1 X65.448 Y47.186 Z-4.995 F200.000
G1 X65.403 Y47.270 Z-5.004 F200.000
G1 X65.341 Y47.344 Z-5.012 F200.000
G1 X65.267 Y47.405 Z-5.021 F200.000
G1 X65.182 Y47.450 Z-5.030 F200.000
G1 X65.090 Y47.477 Z-5.038 F200.000
G1 X64.994 Y47.486 Z-5.047 F200.000
G1 X64.899 Y47.476 Z-5.055 F200.000
G1 X64.807 Y47.448 Z-5.064 F200.000
G1 X64.722 Y47.403 Z-5.073 F200.000
G1 X64.648 Y47.341 Z-5.081 F200.000
G1 X64.588 Y47.267 Z-5.090 F200.000
G1 X64.543 Y47.182 Z-5.098 F200.000
G1 X64.515 Y47.090 Z-5.107 F200.000
G1 X64.506 Y46.994 Z-5.115 F200.000
G1 X64.516 Y46.899 Z-5.124 F200.000
G1 X64.544 Y46.807 Z-5.133 F200.000
G1 X64.590 Y46.722 Z-5.141 F200.000
G1 X64.651 Y46.648 Z-5.150 F200.000
G1 X64.726 Y46.588 Z-5.158 F200.000
G1 X64.811 Y46.543 Z-5.167 F200.000
G1 X64.903 Y46.515 Z-5.176 F200.000
G1 X64.998 Y46.506 Z-5.184 F200.000
G1 X65.094 Y46.516 Z-5.193 F200.000
G1 X65.186 Y46.544 Z-5.201 F200.000
G1 X65.270 Y46.590 Z-5.210 F200.000
G1 X65.344 Y46.651 Z-5.219 F200.000
G1 X65.405 Y46.726 Z-5.227 F200.000
G1 X65.450 Y46.811 Z-5.236 F200.000
G1 X65.477 Y46.903 Z-5.244 F200.000
G1 X65.486 Y46.998 Z-5.253 F200.000
G1 X65.476 Y47.094 Z-5.262 F200.000
G1 X65.448 Y47.186 Z-5.270 F200.000
G1 X65.403 Y47.270 Z-5.279 F200.000
G1 X65.341 Y47.344 Z-5.287 F200.000
G1 X65.267 Y47.405 Z-5.296 F200.000
G1 X65.182 Y47.450 Z-5.304 F200.000
G1 X65.090 Y47.477 Z-5.313 F200.000
G1 X64.994 Y47.486 Z-5.322 F200.000
G1 X64.899 Y47.476 Z-5.330 F200.000
G1 X64.807 Y47.448 Z-5.339 F200.000
G1 X64.722 Y47.403 Z-5.347 F200.000
G1 X64.648 Y47.341 Z-5.356 F200.000
G1 X64.588 Y47.267 Z-5.365 F200.000
G1 X64.543 Y47.182 Z-5.373 F200.000
G1 X64.515 Y47.090 Z-5.382 F200.000
G1 X64.506 Y46.994 Z-5.390 F200.000
G1 X64.516 Y46.899 Z-5.399 F200.000
G1 X64.544 Y46.807 Z-5.408 F200.000
G1 X64.590 Y46.722 Z-5.416 F200.000
G1 X64.651 Y46.648 Z-5.425 F200.000
G1 X64.726 Y46.588 Z-5.433 F200.000
G1 X64.811 Y46.543 Z-5.442 F200.000
G1 X64.903 Y46.515 Z-5.450 F200.000
G1 X64.998 Y46.506 Z-5.459 F200.000
G1 X65.094 Y46.516 Z-5.468 F200.000
G1 X65.186 Y46.544 Z-5.476 F200.000
G1 X65.270 Y46.590 Z-5.485 F200.000
G1 X65.344 Y46.651 Z-5.493 F200.000
G1 X65.405 Y46.726 Z-5.502 F200.000
G1 X65.450 Y46.811 Z-5.511 F200.000
G1 X65.477 Y46.903 Z-5.519 F200.000
G1 X65.486 Y46.998 Z-5.528 F200.000
G1 X65.476 Y47.094 Z-5.536 F200.000
G1 X65.448 Y47.186 Z-5.545 F200.000
G1 X65.403 Y47.270 Z-5.554 F200.000
G1 X65.341 Y47.344 Z-5.562 F200.000
G1 X65.267 Y47.405 Z-5.571 F200.000
G1 X65.182 Y47.450 Z-5.579 F200.000
G1 X65.090 Y47.477 Z-5.588 F200.000
G1 X64.994 Y47.486 Z-5.596 F200.000
G1 X64.899 Y47.476 Z-5.605 F200.000
G1 X64.807 Y47.448 Z-5.614 F200.000
G1 X64.722 Y47.403 Z-5.622 F200.000
G1 X64.648 Y47.341 Z-5.631 F200.000
G1 X64.588 Y47.267 Z-5.639 F200.000
G1 X64.543 Y47.182 Z-5.648 F200.000
G1 X64.515 Y47.090 Z-5.657 F200.000
G1 X64.506 Y46.994 Z-5.665 F200.000
G1 X64.516 Y46.899 Z-5.674 F200.000
G1 X64.544 Y46.807 Z-5.682 F200.000
G1 X64.590 Y46.722 Z-5.691 F200.000
G1 X64.651 Y46.648 Z-5.700 F200.000
G1 X64.726 Y46.588 Z-5.708 F200.000
G1 X64.811 Y46.543 Z-5.717 F200.000
G1 X64.903 Y46.515 Z-5.725 F200.000
G1 X64.998 Y46.506 Z-5.734 F200.000
G1 X65.094 Y46.516 Z-5.743 F200.000
G1 X65.186 Y46.544 Z-5.751 F200.000
G1 X65.270 Y46.590 Z-5.760 F200.000
G1 X65.344 Y46.651 Z-5.768 F200.000
G1 X65.405 Y46.726 Z-5.777 F200.000
G1 X65.450 Y46.811 Z-5.785 F200.000
G1 X65.477 Y46.903 Z-5.794 F200.000
G1 X65.486 Y46.998 Z-5.803 F200.000
G1 X65.476 Y47.094 Z-5.811 F200.000
G1 X65.448 Y47.186 Z-5.820 F200.000
G1 X65.403 Y47.270 Z-5.828 F200.000
G1 X65.341 Y47.344 Z-5.837 F200.000
G1 X65.267 Y47.405 Z-5.846 F200.000
G1 X65.182 Y47.450 Z-5.854 F200.000
G1 X65.090 Y47.477 Z-5.863 F200.000
G1 X64.994 Y47.486 Z-5.871 F200.000
G1 X64.899 Y47.476 Z-5.880 F200.000
G1 X64.807 Y47.448 Z-5.889 F200.000
G1 X64.722 Y47.403 Z-5.897 F200.000
G1 X64.648 Y47.341 Z-5.906 F200.000
G1 X64.588 Y47.267 Z-5.914 F200.000
G1 X64.543 Y47.182 Z-5.923 F200.000
G1 X64.515 Y47.090 Z-5.931 F200.000
G1 X64.506 Y46.994 Z-5.940 F200.000
G1 X64.516 Y46.899 Z-5.949 F200.000
G1 X64.544 Y46.807 Z-5.957 F200.000
G1 X64.590 Y46.722 Z-5.966 F200.000
G1 X64.651 Y46.648 Z-5.974 F200.000
G1 X64.726 Y46.588 Z-5.983 F200.000
G1 X64.811 Y46.543 Z-5.992 F200.000
G1 X64.903 Y46.515 Z-6.000 F200.000
G1 X64.998 Y46.506 Z-6.000 F200.000
G1 X65.094 Y46.516 Z-6.000 F200.000
G1 X65.186 Y46.544 Z-6.000 F200.000
G1 X65.270 Y46.590 Z-6.000 F200.000
G1 X65.344 Y46.651 Z-6.000 F200.000
G1 X65.405 Y46.726 Z-6.000 F200.000
G1 X65.450 Y46.811 Z-6.000 F200.000
G1 X65.477 Y46.903 Z-6.000 F200.000
G1 X65.486 Y46.998 Z-6.000 F200.000
G1 X65.476 Y47.094 Z-6.000 F200.000
G1 X65.448 Y47.186 Z-6.000 F200.000
G1 X65.403 Y47.270 Z-6.000 F200.000
G1 X65.341 Y47.344 Z-6.000 F200.000
G1 X65.267 Y47.405 Z-6.000 F200.000
G1 X65.182 Y47.450 Z-6.000 F200.000
G1 X65.090 Y47.477 Z-6.000 F200.000
G1 X64.994 Y47.486 Z-6.000 F200.000
G1 X64.899 Y47.476 Z-6.000 F200.000
G1 X64.807 Y47.448 Z-6.000 F200.000
G1 X64.722 Y47.403 Z-6.000 F200.000
G1 X64.648 Y47.341 Z-6.000 F200.000
G1 X64.588 Y47.267 Z-6.000 F200.000
G1 X64.543 Y47.182 Z-6.000 F200.000
G1 X64.515 Y47.090 Z-6.000 F200.000
G1 X64.506 Y46.994 Z-6.000 F200.000
G1 X64.516 Y46.899 Z-6.000 F200.000
G1 X64.544 Y46.807 Z-6.000 F200.000
G1 X64.590 Y46.722 Z-6.000 F200.000
G1 X64.651 Y46.648 Z-6.000 F200.000
G1 X64.726 Y46.588 Z-6.000 F200.000
G1 X64.811 Y46.543 Z-6.000 F200.000
(Adaptive - depth: -6.000000)
G1 X64.992 Y46.492 F200.000
G1 X65.045 Y46.459 F200.000
G1 X65.102 Y46.440 F200.000
G1 X65.158 Y46.432 F200.000
G1 X65.271 Y46.447 F200.000
G1 X65.380 Y46.492 F200.000
G1 X65.474 Y46.560 F200.000
G1 X65.620 Y46.763 F200.000
G1 X65.662 Y46.917 F200.000
G1 X65.669 Y47.015 F200.000
G1 X65.658 Y47.128 F200.000
G1 X65.613 Y47.267 F200.000
G1 X65.534 Y47.398 F200.000
G1 X65.444 Y47.500 F200.000
G1 X65.327 Y47.586 F200.000
G1 X65.192 Y47.643 F200.000
G1 X65.056 Y47.669 F200.000
G1 X64.914 Y47.669 F200.000
G1 X64.774 Y47.639 F200.000
G1 X64.647 Y47.579 F200.000
G1 X64.534 Y47.496 F200.000
G1 X64.440 Y47.391 F200.000
G1 X64.368 Y47.267 F200.000
G1 X64.320 Y47.135 F200.000
G1 X64.301 Y46.981 F200.000
G1 X64.316 Y46.838 F200.000
G1 X64.357 Y46.707 F200.000
G1 X64.421 Y46.586 F200.000
G1 X64.511 Y46.477 F200.000
G1 X64.673 Y46.335 F200.000
G1 X64.774 Y46.271 F200.000
G1 X64.996 Y46.199 F200.000
G1 X65.109 Y46.188 F200.000
G1 X65.278 Y46.211 F200.000
G1 X65.440 Y46.271 F200.000
G1 X65.583 Y46.361 F200.000
G1 X65.707 Y46.481 F200.000
G1 X65.797 Y46.624 F200.000
G1 X65.853 Y46.789 F200.000
G1 X65.876 Y46.959 F200.000
G1 X65.865 Y47.128 F200.000
G1 X65.820 Y47.297 F200.000
G1 X65.741 Y47.455 F200.000
G1 X65.628 Y47.594 F200.000
G1 X65.485 Y47.707 F200.000
G1 X65.267 Y47.816 F200.000
G1 X65.147 Y47.850 F200.000
G1 X64.966 Y47.865 F200.000
G1 X64.786 Y47.846 F200.000
G1 X64.609 Y47.789 F200.000
G1 X64.447 Y47.699 F200.000
G1 X64.305 Y47.575 F200.000
G1 X64.192 Y47.425 F200.000
G1 X64.113 Y47.252 F200.000
G1 X64.068 Y47.071 F200.000
G1 X64.056 Y46.891 F200.000
G1 X64.068 Y46.771 F200.000
G1 X64.143 Y46.538 F200.000
G1 X64.267 Y46.327 F200.000
G1 X64.387 Y46.188 F200.000
G1 X64.526 Y46.071 F200.000
G1 X64.733 Y45.962 F200.000
G1 X64.959 Y45.902 F200.000
G1 X65.184 Y45.898 F200.000
G1 X65.353 Y45.932 F200.000
G1 X65.617 Y46.045 F200.000
G1 X65.759 Y46.143 F200.000
G1 X65.880 Y46.267 F200.000
G1 X66.004 Y46.455 F200.000
G1 X66.071 Y46.617 F200.000
G1 X66.124 Y46.898 F200.000
G1 X66.113 Y47.124 F200.000
G1 X66.056 Y47.350 F200.000
G1 X65.977 Y47.508 F200.000
G1 X65.786 Y47.737 F200.000
G1 X65.549 Y47.921 F200.000
G1 X65.383 Y48.000 F200.000
G1 X65.147 Y48.064 F200.000
G1 X64.906 Y48.079 F200.000
G1 X64.605 Y48.030 F200.000
G1 X64.429 Y47.962 F200.000
G1 X64.218 Y47.827 F200.000
G1 X64.041 Y47.647 F200.000
G1 X63.910 Y47.432 F200.000
G1 X63.823 Y47.199 F200.000
G1 X63.789 Y47.019 F200.000
G1 X63.786 Y46.898 F200.000
G1 X63.812 Y46.718 F200.000
G1 X63.891 Y46.489 F200.000
G1 X64.011 Y46.282 F200.000
G1 X64.214 Y46.064 F200.000
G1 X64.361 Y45.955 F200.000
G1 X64.575 Y45.853 F200.000
G1 X64.744 Y45.805 F200.000
G1 X64.970 Y45.778 F200.000
G1 X65.139 Y45.786 F200.000
G1 X65.308 Y45.820 F200.000
G1 X65.530 Y45.898 F200.000
G1 X65.680 Y45.992 F200.000
G1 X65.861 Y46.135 F200.000
G1 X66.008 Y46.312 F200.000
G1 X66.162 Y46.620 F200.000
G1 X66.211 Y46.846 F200.000
G1 X66.211 Y47.128 F200.000
G1 X66.165 Y47.353 F200.000
G1 X66.045 Y47.624 F200.000
G1 X65.906 Y47.816 F200.000
G1 X65.526 Y48.102 F200.000
G1 X65.301 Y48.180 F200.000
G1 X65.060 Y48.214 F200.000
G1 X64.880 Y48.214 F200.000
G1 X64.699 Y48.184 F200.000
G1 X64.519 Y48.124 F200.000
G1 X64.305 Y48.000 F200.000
G1 X64.113 Y47.842 F200.000
G1 X64.030 Y47.744 F200.000
G1 X63.876 Y47.477 F200.000
G1 X63.831 Y47.365 F200.000
G1 X63.831 Y47.365 F200.000
G1 X63.831 Y47.342 F200.000
G0 X63.838 Y47.331
G0 X63.850 Y47.327
G1 X63.861 Y47.331 F200.000
G1 X63.853 Y47.353 F200.000
G1 X63.827 Y47.357 F200.000
G1 X63.797 Y47.338 F200.000
G1 X63.797 Y47.338 F200.000
G1 X63.771 Y47.222 F200.000
G1 X63.756 Y46.981 F200.000
G1 X63.763 Y46.850 F200.000
G1 X63.816 Y46.605 F200.000
G1 X63.898 Y46.417 F200.000
G1 X63.992 Y46.259 F200.000
G1 X64.083 Y46.154 F200.000
G1 X64.169 Y46.071 F200.000
G1 X64.320 Y45.951 F200.000
G1 X64.481 Y45.865 F200.000
G1 X64.729 Y45.778 F200.000
G1 X64.902 Y45.752 F200.000
G1 X65.207 Y45.771 F200.000
G1 X65.320 Y45.793 F200.000
G1 X65.526 Y45.865 F200.000
G1 X65.635 Y45.929 F200.000
G1 X65.850 Y46.090 F200.000
G1 X65.996 Y46.244 F200.000
G1 X66.102 Y46.417 F200.000
G1 X66.180 Y46.598 F200.000
G1 X66.207 Y46.692 F200.000
G1 X66.237 Y46.861 F200.000
G1 X66.241 Y47.008 F200.000
G1 X66.233 Y47.169 F200.000
G1 X66.192 Y47.353 F200.000
G1 X66.165 Y47.432 F200.000
G1 X66.090 Y47.598 F200.000
G1 X66.019 Y47.714 F200.000
G1 X65.880 Y47.880 F200.000
G1 X65.553 Y48.117 F200.000
G1 X65.444 Y48.162 F200.000
G1 X65.271 Y48.214 F200.000
G1 X65.169 Y48.233 F200.000
G1 X64.917 Y48.241 F200.000
G1 X64.673 Y48.199 F200.000
G1 X64.489 Y48.139 F200.000
G1 X64.305 Y48.034 F200.000
G1 X64.109 Y47.872 F200.000
G1 X63.966 Y47.695 F200.000
G1 X63.876 Y47.545 F200.000
G1 X63.838 Y47.462 F200.000
G1 X63.797 Y47.338 F200.000
G1 X63.797 Y47.338 F200.000
G0 Z6.000
(Helix to depth: -6.000000)
G0 Z6.000
G0 X-64.998 Y47.486 Z6.000
G0 X-64.998 Y47.486 Z4.000
G1 X-64.998 Y47.486 Z1.000 F200.000
G1 X-64.998 Y47.486 Z1.000 F200.000
G1 X-65.094 Y47.476 Z0.991 F200.000
G1 X-65.186 Y47.448 Z0.983 F200.000
G1 X-65.270 Y47.403 Z0.974 F200.000
G1 X-65.344 Y47.341 Z0.966 F200.000
G1 X-65.405 Y47.267 Z0.957 F200.000
G1 X-65.450 Y47.182 Z0.948 F200.000
G1 X-65.477 Y47.090 Z0.940 F200.000
G1 X-65.486 Y46.994 Z0.931 F200.000
G1 X-65.476 Y46.899 Z0.923 F200.000
G1 X-65.448 Y46.807 Z0.914 F200.000
G1 X-65.403 Y46.722 Z0.906 F200.000
G1 X-65.341 Y46.648 Z0.897 F200.000
G1 X-65.267 Y46.588 Z0.888 F200.000
G1 X-65.182 Y46.543 Z0.880 F200.000
G1 X-65.090 Y46.515 Z0.871 F200.000
G1 X-64.994 Y46.506 Z0.863 F200.000
G1 X-64.899 Y46.516 Z0.854 F200.000
G1 X-64.807 Y46.544 Z0.845 F200.000
G1 X-64.722 Y46.590 Z0.837 F200.000
G1 X-64.648 Y46.651 Z0.828 F200.000
G1 X-64.588 Y46.726 Z0.820 F200.000
G1 X-64.543 Y46.811 Z0.811 F200.000
G1 X-64.515 Y46.903 Z0.802 F200.000
G1 X-64.506 Y46.998 Z0.794 F200.000
G1 X-64.516 Y47.094 Z0.785 F200.000
G1 X-64.544 Y47.186 Z0.777 F200.000
G1 X-64.590 Y47.270 Z0.768 F200.000
G1 X-64.651 Y47.344 Z0.760 F200.000
G1 X-64.726 Y47.405 Z0.751 F200.000
G1 X-64.811 Y47.450 Z0.742 F200.000
G1 X-64.903 Y47.477 Z0.734 F200.000
G1 X-64.998 Y47.486 Z0.725 F200.000
G1 X-65.094 Y47.476 Z0.717 F200.000
G1 X-65.186 Y47.448 Z0.708 F200.000
G1 X-65.270 Y47.403 Z0.699 F200.000
G1 X-65.344 Y47.341 Z0.691 F200.000
G1 X-65.405 Y47.267 Z0.682 F200.000
G1 X-65.450 Y47.182 Z0.674 F200.000
G1 X-65.477 Y47.090 Z0.665 F200.000
G1 X-65.486 Y46.994 Z0.656 F200.000
G1 X-65.476 Y46.899 Z0.648 F200.000
G1 X-65.448 Y46.807 Z0.639 F200.000
G1 X-65.403 Y46.722 Z0.631 F200.000
G1 X-65.341 Y46.648 Z0.622 F200.000
G1 X-65.267 Y46.588 Z0.613 F200.000
G1 X-65.182 Y46.543 Z0.605 F200.000
G1 X-65.090 Y46.515 Z0.596 F200.000
G1 X-64.994 Y46.506 Z0.588 F200.000
G1 X-64.899 Y46.516 Z0.579 F200.000
G1 X-64.807 Y46.544 Z0.571 F200.000
G1 X-64.722 Y46.590 Z0.562 F200.000
G1 X-64.648 Y46.651 Z0.553 F200.000
G1 X-64.588 Y46.726 Z0.545 F200.000
G1 X-64.543 Y46.811 Z0.536 F200.000
G1 X-64.515 Y46.903 Z0.528 F200.000
G1 X-64.506 Y46.998 Z0.519 F200.000
G1 X-64.516 Y47.094 Z0.510 F200.000
G1 X-64.544 Y47.186 Z0.502 F200.000
G1 X-64.590 Y47.270 Z0.493 F200.000
G1 X-64.651 Y47.344 Z0.485 F200.000
G1 X-64.726 Y47.405 Z0.476 F200.000
G1 X-64.811 Y47.450 Z0.467 F200.000
G1 X-64.903 Y47.477 Z0.459 F200.000
G1 X-64.998 Y47.486 Z0.450 F200.000
G1 X-65.094 Y47.476 Z0.442 F200.000
G1 X-65.186 Y47.448 Z0.433 F200.000
G1 X-65.270 Y47.403 Z0.425 F200.000
G1 X-65.344 Y47.341 Z0.416 F200.000
G1 X-65.405 Y47.267 Z0.407 F200.000
G1 X-65.450 Y47.182 Z0.399 F200.000
G1 X-65.477 Y47.090 Z0.390 F200.000
G1 X-65.486 Y46.994 Z0.382 F200.000
G1 X-65.476 Y46.899 Z0.373 F200.000
G1 X-65.448 Y46.807 Z0.364 F200.000
G1 X-65.403 Y46.722 Z0.356 F200.000
G1 X-65.341 Y46.648 Z0.347 F200.000
G1 X-65.267 Y46.588 Z0.339 F200.000
G1 X-65.182 Y46.543 Z0.330 F200.000
G1 X-65.090 Y46.515 Z0.321 F200.000
G1 X-64.994 Y46.506 Z0.313 F200.000
G1 X-64.899 Y46.516 Z0.304 F200.000
G1 X-64.807 Y46.544 Z0.296 F200.000
G1 X-64.722 Y46.590 Z0.287 F200.000
G1 X-64.648 Y46.651 Z0.279 F200.000
G1 X-64.588 Y46.726 Z0.270 F200.000
G1 X-64.543 Y46.811 Z0.261 F200.000
G1 X-64.515 Y46.903 Z0.253 F200.000
G1 X-64.506 Y46.998 Z0.244 F200.000
G1 X-64.516 Y47.094 Z0.236 F200.000
G1 X-64.544 Y47.186 Z0.227 F200.000
G1 X-64.590 Y47.270 Z0.218 F200.000
G1 X-64.651 Y47.344 Z0.210 F200.000
G1 X-64.726 Y47.405 Z0.201 F200.000
G1 X-64.811 Y47.450 Z0.193 F200.000
G1 X-64.903 Y47.477 Z0.184 F200.000
G1 X-64.998 Y47.486 Z0.175 F200.000
G1 X-65.094 Y47.476 Z0.167 F200.000
G1 X-65.186 Y47.448 Z0.158 F200.000
G1 X-65.270 Y47.403 Z0.150 F200.000
G1 X-65.344 Y47.341 Z0.141 F200.000
G1 X-65.405 Y47.267 Z0.132 F200.000
G1 X-65.450 Y47.182 Z0.124 F200.000
G1 X-65.477 Y47.090 Z0.115 F200.000
G1 X-65.486 Y46.994 Z0.107 F200.000
G1 X-65.476 Y46.899 Z0.098 F200.000
G1 X-65.448 Y46.807 Z0.090 F200.000
G1 X-65.403 Y46.722 Z0.081 F200.000
G1 X-65.341 Y46.648 Z0.072 F200.000
G1 X-65.267 Y46.588 Z0.064 F200.000
G1 X-65.182 Y46.543 Z0.055 F200.000
G1 X-65.090 Y46.515 Z0.047 F200.000
G1 X-64.994 Y46.506 Z0.038 F200.000
G1 X-64.899 Y46.516 Z0.029 F200.000
G1 X-64.807 Y46.544 Z0.021 F200.000
G1 X-64.722 Y46.590 Z0.012 F200.000
G1 X-64.648 Y46.651 Z0.004 F200.000
G1 X-64.588 Y46.726 Z-0.005 F200.000
G1 X-64.543 Y46.811 Z-0.014 F200.000
G1 X-64.515 Y46.903 Z-0.022 F200.000
G1 X-64.506 Y46.998 Z-0.031 F200.000
G1 X-64.516 Y47.094 Z-0.039 F200.000
G1 X-64.544 Y47.186 Z-0.048 F200.000
G1 X-64.590 Y47.270 Z-0.056 F200.000
G1 X-64.651 Y47.344 Z-0.065 F200.000
G1 X-64.726 Y47.405 Z-0.074 F200.000
G1 X-64.811 Y47.450 Z-0.082 F200.000
G1 X-64.903 Y47.477 Z-0.091 F200.000
G1 X-64.998 Y47.486 Z-0.099 F200.000
G1 X-65.094 Y47.476 Z-0.108 F200.000
G1 X-65.186 Y47.448 Z-0.117 F200.000
G1 X-65.270 Y47.403 Z-0.125 F200.000
G1 X-65.344 Y47.341 Z-0.134 F200.000
G1 X-65.405 Y47.267 Z-0.142 F200.000
G1 X-65.450 Y47.182 Z-0.151 F200.000
G1 X-65.477 Y47.090 Z-0.160 F200.000
G1 X-65.486 Y46.994 Z-0.168 F200.000
G1 X-65.476 Y46.899 Z-0.177 F200.000
G1 X-65.448 Y46.807 Z-0.185 F200.000
G1 X-65.403 Y46.722 Z-0.194 F200.000
G1 X-65.341 Y46.648 Z-0.202 F200.000
G1 X-65.267 Y46.588 Z-0.211 F200.000
G1 X-65.182 Y46.543 Z-0.220 F200.000
G1 X-65.090 Y46.515 Z-0.228 F200.000
G1 X-64.994 Y46.506 Z-0.237 F200.000
G1 X-64.899 Y46.516 Z-0.245 F200.000
G1 X-64.807 Y46.544 Z-0.254 F200.000
G1 X-64.722 Y46.590 Z-0.263 F200.000
G1 X-64.648 Y46.651 Z-0.271 F200.000
G1 X-64.588 Y46.726 Z-0.280 F200.000
G1 X-64.543 Y46.811 Z-0.288 F200.000
G1 X-64.515 Y46.903 Z-0.297 F200.000
G1 X-64.506 Y46.998 Z-0.306 F200.000
G1 X-64.516 Y47.094 Z-0.314 F200.000
G1 X-64.544 Y47.186 Z-0.323 F200.000
G1 X-64.590 Y47.270 Z-0.331 F200.000
G1 X-64.651 Y47.344 Z-0.340 F200.000
G1 X-64.726 Y47.405 Z-0.349 F200.000
G1 X-64.811 Y47.450 Z-0.357 F200.000
G1 X-64.903 Y47.477 Z-0.366 F200.000
G1 X-64.998 Y47.486 Z-0.374 F200.000
G1 X-65.094 Y47.476 Z-0.383 F200.000
G1 X-65.186 Y47.448 Z-0.391 F200.000
G1 X-65.270 Y47.403 Z-0.400 F200.000
G1 X-65.344 Y47.341 Z-0.409 F200.000
G1 X-65.405 Y47.267 Z-0.417 F200.000
G1 X-65.450 Y47.182 Z-0.426 F200.000
G1 X-65.477 Y47.090 Z-0.434 F200.000
G1 X-65.486 Y46.994 Z-0.443 F200.000
G1 X-65.476 Y46.899 Z-0.452 F200.000
G1 X-65.448 Y46.807 Z-0.460 F200.000
G1 X-65.403 Y46.722 Z-0.469 F200.000
G1 X-65.341 Y46.648 Z-0.477 F200.000
G1 X-65.267 Y46.588 Z-0.486 F200.000
G1 X-65.182 Y46.543 Z-0.495 F200.000
G1 X-65.090 Y46.515 Z-0.503 F200.000
G1 X-64.994 Y46.506 Z-0.512 F200.000
G1 X-64.899 Y46.516 Z-0.520 F200.000
G1 X-64.807 Y46.544 Z-0.529 F200.000
G1 X-64.722 Y46.590 Z-0.537 F200.000
G1 X-64.648 Y46.651 Z-0.546 F200.000
G1 X-64.588 Y46.726 Z-0.555 F200.000
G1 X-64.543 Y46.811 Z-0.563 F200.000
G1 X-64.515 Y46.903 Z-0.572 F200.000
G1 X-64.506 Y46.998 Z-0.580 F200.000
G1 X-64.516 Y47.094 Z-0.589 F200.000
G1 X-64.544 Y47.186 Z-0.598 F200.000
G1 X-64.590 Y47.270 Z-0.606 F200.000
G1 X-64.651 Y47.344 Z-0.615 F200.000
G1 X-64.726 Y47.405 Z-0.623 F200.000
G1 X-64.811 Y47.450 Z-0.632 F200.000
G1 X-64.903 Y47.477 Z-0.641 F200.000
G1 X-64.998 Y47.486 Z-0.649 F200.000
G1 X-65.094 Y47.476 Z-0.658 F200.000
G1 X-65.186 Y47.448 Z-0.666 F200.000
G1 X-65.270 Y47.403 Z-0.675 F200.000
G1 X-65.344 Y47.341 Z-0.683 F200.000
G1 X-65.405 Y47.267 Z-0.692 F200.000
G1 X-65.450 Y47.182 Z-0.701 F200.000
G1 X-65.477 Y47.090 Z-0.709 F200.000
G1 X-65.486 Y46.994 Z-0.718 F200.000
G1 X-65.476 Y46.899 Z-0.726 F200.000
G1 X-65.448 Y46.807 Z-0.735 F200.000
G1 X-65.403 Y46.722 Z-0.744 F200.000
G1 X-65.341 Y46.648 Z-0.752 F200.000
G1 X-65.267 Y46.588 Z-0.761 F200.000
G1 X-65.182 Y46.543 Z-0.769 F200.000
G1 X-65.090 Y46.515 Z-0.778 F200.000
G1 X-64.994 Y46.506 Z-0.787 F200.000
G1 X-64.899 Y46.516 Z-0.795 F200.000
G1 X-64.807 Y46.544 Z-0.804 F200.000
G1 X-64.722 Y46.590 Z-0.812 F200.000
G1 X-64.648 Y46.651 Z-0.821 F200.000
G1 X-64.588 Y46.726 Z-0.829 F200.000
G1 X-64.543 Y46.811 Z-0.838 F200.000
G1 X-64.515 Y46.903 Z-0.847 F200.000
G1 X-64.506 Y46.998 Z-0.855 F200.000
G1 X-64.516 Y47.094 Z-0.864 F200.000
G1 X-64.544 Y47.186 Z-0.872 F200.000
G1 X-64.590 Y47.270 Z-0.881 F200.000
G1 X-64.651 Y47.344 Z-0.890 F200.000
G1 X-64.726 Y47.405 Z-0.898 F200.000
G1 X-64.811 Y47.450 Z-0.907 F200.000
G1 X-64.903 Y47.477 Z-0.915 F200.000
G1 X-64.998 Y47.486 Z-0.924 F200.000
G1 X-65.094 Y47.476 Z-0.933 F200.000
G1 X-65.186 Y47.448 Z-0.941 F200.000
G1 X-65.270 Y47.403 Z-0.950 F200.000
G1 X-65.344 Y47.341 Z-0.958 F200.000
G1 X-65.405 Y47.267 Z-0.967 F200.000
G1 X-65.450 Y47.182 Z-0.976 F200.000
G1 X-65.477 Y47.090 Z-0.984 F200.000
G1 X-65.486 Y46.994 Z-0.993 F200.000
G1 X-65.476 Y46.899 Z-1.001 F200.000
G1 X-65.448 Y46.807 Z-1.010 F200.000
G1 X-65.403 Y46.722 Z-1.018 F200.000
G1 X-65.341 Y46.648 Z-1.027 F200.000
G1 X-65.267 Y46.588 Z-1.036 F200.000
G1 X-65.182 Y46.543 Z-1.044 F200.000
G1 X-65.090 Y46.515 Z-1.053 F200.000
G1 X-64.994 Y46.506 Z-1.061 F200.000
G1 X-64.899 Y46.516 Z-1.070 F200.000
G1 X-64.807 Y46.544 Z-1.079 F200.000
G1 X-64.722 Y46.590 Z-1.087 F200.000
G1 X-64.648 Y46.651 Z-1.096 F200.000
G1 X-64.588 Y46.726 Z-1.104 F200.000
G1 X-64.543 Y46.811 Z-1.113 F200.000
G1 X-64.515 Y46.903 Z-1.122 F200.000
G1 X-64.506 Y46.998 Z-1.130 F200.000
G1 X-64.516 Y47.094 Z-1.139 F200.000
G1 X-64.544 Y47.186 Z-1.147 F200.000
G1 X-64.590 Y47.270 Z-1.156 F200.000
G1 X-64.651 Y47.344 Z-1.164 F200.000
G1 X-64.726 Y47.405 Z-1.173 F200.000
G1 X-64.811 Y47.450 Z-1.182 F200.000
G1 X-64.903 Y47.477 Z-1.190 F200.000
G1 X-64.998 Y47.486 Z-1.199 F200.000
G1 X-65.094 Y47.476 Z-1.207 F200.000
G1 X-65.186 Y47.448 Z-1.216 F200.000
G1 X-65.270 Y47.403 Z-1.225 F200.000
G1 X-65.344 Y47.341 Z-1.233 F200.000
G1 X-65.405 Y47.267 Z-1.242 F200.000
G1 X-65.450 Y47.182 Z-1.250 F200.000
G1 X-65.477 Y47.090 Z-1.259 F200.000
G1 X-65.486 Y46.994 Z-1.268 F200.000
G1 X-65.476 Y46.899 Z-1.276 F200.000
G1 X-65.448 Y46.807 Z-1.285 F200.000
G1 X-65.403 Y46.722 Z-1.293 F200.000
G1 X-65.341 Y46.648 Z-1.302 F200.000
G1 X-65.267 Y46.588 Z-1.310 F200.000
G1 X-65.182 Y46.543 Z-1.319 F200.000
G1 X-65.090 Y46.515 Z-1.328 F200.000
G1 X-64.994 Y46.506 Z-1.336 F200.000
G1 X-64.899 Y46.516 Z-1.345 F200.000
G1 X-64.807 Y46.544 Z-1.353 F200.000
G1 X-64.722 Y46.590 Z-1.362 F200.000
G1 X-64.648 Y46.651 Z-1.371 F200.000
G1 X-64.588 Y46.726 Z-1.379 F200.000
G1 X-64.543 Y46.811 Z-1.388 F200.000
G1 X-64.515 Y46.903 Z-1.396 F200.000
G1 X-64.506 Y46.998 Z-1.405 F200.000
G1 X-64.516 Y47.094 Z-1.414 F200.000
G1 X-64.544 Y47.186 Z-1.422 F200.000
G1 X-64.590 Y47.270 Z-1.431 F200.000
G1 X-64.651 Y47.344 Z-1.439 F200.000
G1 X-64.726 Y47.405 Z-1.448 F200.000
G1 X-64.811 Y47.450 Z-1.457 F200.000
G1 X-64.903 Y47.477 Z-1.465 F200.000
G1 X-64.998 Y47.486 Z-1.474 F200.000
G1 X-65.094 Y47.476 Z-1.482 F200.000
G1 X-65.186 Y47.448 Z-1.491 F200.000
G1 X-65.270 Y47.403 Z-1.499 F200.000
G1 X-65.344 Y47.341 Z-1.508 F200.000
G1 X-65.405 Y47.267 Z-1.517 F200.000
G1 X-65.450 Y47.182 Z-1.525 F200.000
G1 X-65.477 Y47.090 Z-1.534 F200.000
G1 X-65.486 Y46.994 Z-1.542 F200.000
G1 X-65.476 Y46.899 Z-1.551 F200.000
G1 X-65.448 Y46.807 Z-1.560 F200.000
G1 X-65.403 Y46.722 Z-1.568 F200.000
G1 X-65.341 Y46.648 Z-1.577 F200.000
G1 X-65.267 Y46.588 Z-1.585 F200.000
G1 X-65.182 Y46.543 Z-1.594 F200.000
G1 X-65.090 Y46.515 Z-1.603 F200.000
G1 X-64.994 Y46.506 Z-1.611 F200.000
G1 X-64.899 Y46.516 Z-1.620 F200.000
G1 X-64.807 Y46.544 Z-1.628 F200.000
G1 X-64.722 Y46.590 Z-1.637 F200.000
G1 X-64.648 Y46.651 Z-1.645 F200.000
G1 X-64.588 Y46.726 Z-1.654 F200.000
G1 X-64.543 Y46.811 Z-1.663 F200.000
G1 X-64.515 Y46.903 Z-1.671 F200.000
G1 X-64.506 Y46.998 Z-1.680 F200.000
G1 X-64.516 Y47.094 Z-1.688 F200.000
G1 X-64.544 Y47.186 Z-1.697 F200.000
G1 X-64.590 Y47.270 Z-1.706 F200.000
G1 X-64.651 Y47.344 Z-1.714 F200.000
G1 X-64.726 Y47.405 Z-1.723 F200.000
G1 X-64.811 Y47.450 Z-1.731 F200.000
G1 X-64.903 Y47.477 Z-1.740 F200.000
G1 X-64.998 Y47.486 Z-1.749 F200.000
G1 X-65.094 Y47.476 Z-1.757 F200.000
G1 X-65.186 Y47.448 Z-1.766 F200.000
G1 X-65.270 Y47.403 Z-1.774 F200.000
G1 X-65.344 Y47.341 Z-1.783 F200.000
G1 X-65.405 Y47.267 Z-1.791 F200.000
G1 X-65.450 Y47.182 Z-1.800 F200.000
G1 X-65.477 Y47.090 Z-1.809 F200.000
G1 X-65.486 Y46.994 Z-1.817 F200.000
G1 X-65.476 Y46.899 Z-1.826 F200.000
G1 X-65.448 Y46.807 Z-1.834 F200.000
G1 X-65.403 Y46.722 Z-1.843 F200.000
G1 X-65.341 Y46.648 Z-1.852 F200.000
G1 X-65.267 Y46.588 Z-1.860 F200.000
G1 X-65.182 Y46.543 Z-1.869 F200.000
G1 X-65.090 Y46.515 Z-1.877 F200.000
G1 X-64.994 Y46.506 Z-1.886 F200.000
G1 X-64.899 Y46.516 Z-1.895 F200.000
G1 X-64.807 Y46.544 Z-1.903 F200.000
G1 X-64.722 Y46.590 Z-1.912 F200.000
G1 X-64.648 Y46.651 Z-1.920 F200.000
G1 X-64.588 Y46.726 Z-1.929 F200.000
G1 X-64.543 Y46.811 Z-1.937 F200.000
G1 X-64.515 Y46.903 Z-1.946 F200.000
G1 X-64.506 Y46.998 Z-1.955 F200.000
G1 X-64.516 Y47.094 Z-1.963 F200.000
G1 X-64.544 Y47.186 Z-1.972 F200.000
G1 X-64.590 Y47.270 Z-1.980 F200.000
G1 X-64.651 Y47.344 Z-1.989 F200.000
G1 X-64.726 Y47.405 Z-1.998 F200.000
G1 X-64.811 Y47.450 Z-2.006 F200.000
G1 X-64.903 Y47.477 Z-2.015 F200.000
G1 X-64.998 Y47.486 Z-2.023 F200.000
G1 X-65.094 Y47.476 Z-2.032 F200.000
G1 X-65.186 Y47.448 Z-2.041 F200.000
G1 X-65.270 Y47.403 Z-2.049 F200.000
G1 X-65.344 Y47.341 Z-2.058 F200.000
G1 X-65.405 Y47.267 Z-2.066 F200.000
G1 X-65.450 Y47.182 Z-2.075 F200.000
G1 X-65.477 Y47.090 Z-2.084 F200.000
G1 X-65.486 Y46.994 Z-2.092 F200.000
G1 X-65.476 Y46.899 Z-2.101 F200.000
G1 X-65.448 Y46.807 Z-2.109 F200.000
G1 X-65.403 Y46.722 Z-2.118 F200.000
G1 X-65.341 Y46.648 Z-2.126 F200.000
G1 X-65.267 Y46.588 Z-2.135 F200.000
G1 X-65.182 Y46.543 Z-2.144 F200.000
G1 X-65.090 Y46.515 Z-2.152 F200.000
G1 X-64.994 Y46.506 Z-2.161 F200.000
G1 X-64.899 Y46.516 Z-2.169 F200.000
G1 X-64.807 Y46.544 Z-2.178 F200.000
G1 X-64.722 Y46.590 Z-2.187 F200.000
G1 X-64.648 Y46.651 Z-2.195 F200.000
G1 X-64.588 Y46.726 Z-2.204 F200.000
G1 X-64.543 Y46.811 Z-2.212 F200.000
G1 X-64.515 Y46.903 Z-2.221 F200.000
G1 X-64.506 Y46.998 Z-2.230 F200.000
G1 X-64.516 Y47.094 Z-2.238 F200.000
G1 X-64.544 Y47.186 Z-2.247 F200.000
G1 X-64.590 Y47.270 Z-2.255 F200.000
G1 X-64.651 Y47.344 Z-2.264 F200.000
G1 X-64.726 Y47.405 Z-2.272 F200.000
G1 X-64.811 Y47.450 Z-2.281 F200.000
G1 X-64.903 Y47.477 Z-2.290 F200.000
G1 X-64.998 Y47.486 Z-2.298 F200.000
G1 X-65.094 Y47.476 Z-2.307 F200.000
G1 X-65.186 Y47.448 Z-2.315 F200.000
G1 X-65.270 Y47.403 Z-2.324 F200.000
G1 X-65.344 Y47.341 Z-2.333 F200.000
G1 X-65.405 Y47.267 Z-2.341 F200.000
G1 X-65.450 Y47.182 Z-2.350 F200.000
G1 X-65.477 Y47.090 Z-2.358 F200.000
G1 X-65.486 Y46.994 Z-2.367 F200.000
G1 X-65.476 Y46.899 Z-2.376 F200.000
G1 X-65.448 Y46.807 Z-2.384 F200.000
G1 X-65.403 Y46.722 Z-2.393 F200.000
G1 X-65.341 Y46.648 Z-2.401 F200.000
G1 X-65.267 Y46.588 Z-2.410 F200.000
G1 X-65.182 Y46.543 Z-2.418 F200.000
G1 X-65.090 Y46.515 Z-2.427 F200.000
G1 X-64.994 Y46.506 Z-2.436 F200.000
G1 X-64.899 Y46.516 Z-2.444 F200.000
G1 X-64.807 Y46.544 Z-2.453 F200.000
G1 X-64.722 Y46.590 Z-2.461 F200.000
G1 X-64.648 Y46.651 Z-2.470 F200.000
G1 X-64.588 Y46.726 Z-2.479 F200.000
G1 X-64.543 Y46.811 Z-2.487 F200.000
G1 X-64.515 Y46.903 Z-2.496 F200.000
G1 X-64.506 Y46.998 Z-2.504 F200.000
G1 X-64.516 Y47.094 Z-2.513 F200.000
G1 X-64.544 Y47.186 Z-2.522 F200.000
G1 X-64.590 Y47.270 Z-2.530 F200.000
G1 X-64.651 Y47.344 Z-2.539 F200.000
G1 X-64.726 Y47.405 Z-2.547 F200.000
G1 X-64.811 Y47.450 Z-2.556 F200.000
G1 X-64.903 Y47.477 Z-2.565 F200.000
G1 X-64.998 Y47.486 Z-2.573 F200.000
G1 X-65.094 Y47.476 Z-2.582 F200.000
G1 X-65.186 Y47.448 Z-2.590 F200.000
G1 X-65.270 Y47.403 Z-2.599 F200.000
G1 X-65.344 Y47.341 Z-2.607 F200.000
G1 X-65.405 Y47.267 Z-2.616 F200.000
G1 X-65.450 Y47.182 Z-2.625 F200.000
G1 X-65.477 Y47.090 Z-2.633 F200.000
G1 X-65.486 Y46.994 Z-2.642 F200.000
G1 X-65.476 Y46.899 Z-2.650 F200.000
G1 X-65.448 Y46.807 Z-2.659 F200.000
G1 X-65.403 Y46.722 Z-2.668 F200.000
G1 X-65.341 Y46.648 Z-2.676 F200.000
G1 X-65.267 Y46.588 Z-2.685 F200.000
G1 X-65.182 Y46.543 Z-2.693 F200.000
G1 X-65.090 Y46.515 Z-2.702 F200.000
G1 X-64.994 Y46.506 Z-2.711 F200.000
G1 X-64.899 Y46.516 Z-2.719 F200.000
G1 X-64.807 Y46.544 Z-2.728 F200.000
G1 X-64.722 Y46.590 Z-2.736 F200.000
G1 X-64.648 Y46.651 Z-2.745 F200.000
G1 X-64.588 Y46.726 Z-2.753 F200.000
G1 X-64.543 Y46.811 Z-2.762 F200.000
G1 X-64.515 Y46.903 Z-2.771 F200.000
G1 X-64.506 Y46.998 Z-2.779 F200.000
G1 X-64.516 Y47.094 Z-2.788 F200.000
G1 X-64.544 Y47.186 Z-2.796 F200.000
G1 X-64.590 Y47.270 Z-2.805 F200.000
G1 X-64.651 Y47.344 Z-2.814 F200.000
G1 X-64.726 Y47.405 Z-2.822 F200.000
G1 X-64.811 Y47.450 Z-2.831 F200.000
G1 X-64.903 Y47.477 Z-2.839 F200.000
G1 X-64.998 Y47.486 Z-2.848 F200.000
G1 X-65.094 Y47.476 Z-2.857 F200.000
G1 X-65.186 Y47.448 Z-2.865 F200.000
G1 X-65.270 Y47.403 Z-2.874 F200.000
G1 X-65.344 Y47.341 Z-2.882 F200.000
G1 X-65.405 Y47.267 Z-2.891 F200.000
G1 X-65.450 Y47.182 Z-2.899 F200.000
G1 X-65.477 Y47.090 Z-2.908 F200.000
G1 X-65.486 Y46.994 Z-2.917 F200.000
G1 X-65.476 Y46.899 Z-2.925 F200.000
G1 X-65.448 Y46.807 Z-2.934 F200.000
G1 X-65.403 Y46.722 Z-2.942 F200.000
G1 X-65.341 Y46.648 Z-2.951 F200.000
G1 X-65.267 Y46.588 Z-2.960 F200.000
G1 X-65.182 Y46.543 Z-2.968 F200.000
G1 X-65.090 Y46.515 Z-2.977 F200.000
G1 X-64.994 Y46.506 Z-2.985 F200.000
G1 X-64.899 Y46.516 Z-2.994 F200.000
G1 X-64.807 Y46.544 Z-3.003 F200.000
G1 X-64.722 Y46.590 Z-3.011 F200.000
G1 X-64.648 Y46.651 Z-3.020 F200.000
G1 X-64.588 Y46.726 Z-3.028 F200.000
G1 X-64.543 Y46.811 Z-3.037 F200.000
G1 X-64.515 Y46.903 Z-3.046 F200.000
G1 X-64.506 Y46.998 Z-3.054 F200.000
G1 X-64.516 Y47.094 Z-3.063 F200.000
G1 X-64.544 Y47.186 Z-3.071 F200.000
G1 X-64.590 Y47.270 Z-3.080 F200.000
G1 X-64.651 Y47.344 Z-3.088 F200.000
G1 X-64.726 Y47.405 Z-3.097 F200.000
G1 X-64.811 Y47.450 Z-3.106 F200.000
G1 X-64.903 Y47.477 Z-3.114 F200.000
G1 X-64.998 Y47.486 Z-3.123 F200.000
G1 X-65.094 Y47.476 Z-3.131 F200.000
G1 X-65.186 Y47.448 Z-3.140 F200.000
G1 X-65.270 Y47.403 Z-3.149 F200.000
G1 X-65.344 Y47.341 Z-3.157 F200.000
G1 X-65.405 Y47.267 Z-3.166 F200.000
G1 X-65.450 Y47.182 Z-3.174 F200.000
G1 X-65.477 Y47.090 Z-3.183 F200.000
G1 X-65.486 Y46.994 Z-3.192 F200.000
G1 X-65.476 Y46.899 Z-3.200 F200.000
G1 X-65.448 Y46.807 Z-3.209 F200.000
G1 X-65.403 Y46.722 Z-3.217 F200.000
G1 X-65.341 Y46.648 Z-3.226 F200.000
G1 X-65.267 Y46.588 Z-3.234 F200.000
G1 X-65.182 Y46.543 Z-3.243 F200.000
G1 X-65.090 Y46.515 Z-3.252 F200.000
G1 X-64.994 Y46.506 Z-3.260 F200.000
G1 X-64.899 Y46.516 Z-3.269 F200.000
G1 X-64.807 Y46.544 Z-3.277 F200.000
G1 X-64.722 Y46.590 Z-3.286 F200.000
G1 X-64.648 Y46.651 Z-3.295 F200.000
G1 X-64.588 Y46.726 Z-3.303 F200.000
G1 X-64.543 Y46.811 Z-3.312 F200.000
G1 X-64.515 Y46.903 Z-3.320 F200.000
G1 X-64.506 Y46.998 Z-3.329 F200.000
G1 X-64.516 Y47.094 Z-3.338 F200.000
G1 X-64.544 Y47.186 Z-3.346 F200.000
G1 X-64.590 Y47.270 Z-3.355 F200.000
G1 X-64.651 Y47.344 Z-3.363 F200.000
G1 X-64.726 Y47.405 Z-3.372 F200.000
G1 X-64.811 Y47.450 Z-3.380 F200.000
G1 X-64.903 Y47.477 Z-3.389 F200.000
G1 X-64.998 Y47.486 Z-3.398 F200.000
G1 X-65.094 Y47.476 Z-3.406 F200.000
G1 X-65.186 Y47.448 Z-3.415 F200.000
G1 X-65.270 Y47.403 Z-3.423 F200.000
G1 X-65.344 Y47.341 Z-3.432 F200.000
G1 X-65.405 Y47.267 Z-3.441 F200.000
G1 X-65.450 Y47.182 Z-3.449 F200.000
G1 X-65.477 Y47.090 Z-3.458 F200.000
G1 X-65.486 Y46.994 Z-3.466 F200.000
G1 X-65.476 Y46.899 Z-3.475 F200.000
G1 X-65.448 Y46.807 Z-3.484 F200.000
G1 X-65.403 Y46.722 Z-3.492 F200.000
G1 X-65.341 Y46.648 Z-3.501 F200.000
G1 X-65.267 Y46.588 Z-3.509 F200.000
G1 X-65.182 Y46.543 Z-3.518 F200.000
G1 X-65.090 Y46.515 Z-3.526 F200.000
G1 X-64.994 Y46.506 Z-3.535 F200.000
G1 X-64.899 Y46.516 Z-3.544 F200.000
G1 X-64.807 Y46.544 Z-3.552 F200.000
G1 X-64.722 Y46.590 Z-3.561 F200.000
G1 X-64.648 Y46.651 Z-3.569 F200.000
G1 X-64.588 Y46.726 Z-3.578 F200.000
G1 X-64.543 Y46.811 Z-3.587 F200.000
G1 X-64.515 Y46.903 Z-3.595 F200.000
G1 X-64.506 Y46.998 Z-3.604 F200.000
G1 X-64.516 Y47.094 Z-3.612 F200.000
G1 X-64.544 Y47.186 Z-3.621 F200.000
G1 X-64.590 Y47.270 Z-3.630 F200.000
G1 X-64.651 Y47.344 Z-3.638 F200.000
G1 X-64.726 Y47.405 Z-3.647 F200.000
G1 X-64.811 Y47.450 Z-3.655 F200.000
G1 X-64.903 Y47.477 Z-3.664 F200.000
G1 X-64.998 Y47.486 Z-3.673 F200.000
G1 X-65.094 Y47.476 Z-3.681 F200.000
G1 X-65.186 Y47.448 Z-3.690 F200.000
G1 X-65.270 Y47.403 Z-3.698 F200.000
G1 X-65.344 Y47.341 Z-3.707 F200.000
G1 X-65.405 Y47.267 Z-3.715 F200.000
G1 X-65.450 Y47.182 Z-3.724 F200.000
G1 X-65.477 Y47.090 Z-3.733 F200.000
G1 X-65.486 Y46.994 Z-3.741 F200.000
G1 X-65.476 Y46.899 Z-3.750 F200.000
G1 X-65.448 Y46.807 Z-3.758 F200.000
G1 X-65.403 Y46.722 Z-3.767 F200.000
G1 X-65.341 Y46.648 Z-3.776 F200.000
G1 X-65.267 Y46.588 Z-3.784 F200.000
G1 X-65.182 Y46.543 Z-3.793 F200.000
G1 X-65.090 Y46.515 Z-3.801 F200.000
G1 X-64.994 Y46.506 Z-3.810 F200.000
G1 X-64.899 Y46.516 Z-3.819 F200.000
G1 X-64.807 Y46.544 Z-3.827 F200.000
G1 X-64.722 Y46.590 Z-3.836 F200.000
G1 X-64.648 Y46.651 Z-3.844 F200.000
G1 X-64.588 Y46.726 Z-3.853 F200.000
G1 X-64.543 Y46.811 Z-3.861 F200.000
G1 X-64.515 Y46.903 Z-3.870 F200.000
G1 X-64.506 Y46.998 Z-3.879 F200.000
G1 X-64.516 Y47.094 Z-3.887 F200.000
G1 X-64.544 Y47.186 Z-3.896 F200.000
G1 X-64.590 Y47.270 Z-3.904 F200.000
G1 X-64.651 Y47.344 Z-3.913 F200.000
G1 X-64.726 Y47.405 Z-3.922 F200.000
G1 X-64.811 Y47.450 Z-3.930 F200.000
G1 X-64.903 Y47.477 Z-3.939 F200.000
G1 X-64.998 Y47.486 Z-3.947 F200.000
G1 X-65.094 Y47.476 Z-3.956 F200.000
G1 X-65.186 Y47.448 Z-3.965 F200.000
G1 X-65.270 Y47.403 Z-3.973 F200.000
G1 X-65.344 Y47.341 Z-3.982 F200.000
G1 X-65.405 Y47.267 Z-3.990 F200.000
G1 X-65.450 Y47.182 Z-3.999 F200.000
G1 X-65.477 Y47.090 Z-4.007 F200.000
G1 X-65.486 Y46.994 Z-4.016 F200.000
G1 X-65.476 Y46.899 Z-4.025 F200.000
G1 X-65.448 Y46.807 Z-4.033 F200.000
G1 X-65.403 Y46.722 Z-4.042 F200.000
G1 X-65.341 Y46.648 Z-4.050 F200.000
G1 X-65.267 Y46.588 Z-4.059 F200.000
G1 X-65.182 Y46.543 Z-4.068 F200.000
G1 X-65.090 Y46.515 Z-4.076 F200.000
G1 X-64.994 Y46.506 Z-4.085 F200.000
G1 X-64.899 Y46.516 Z-4.093 F200.000
G1 X-64.807 Y46.544 Z-4.102 F200.000
G1 X-64.722 Y46.590 Z-4.111 F200.000
G1 X-64.648 Y46.651 Z-4.119 F200.000
G1 X-64.588 Y46.726 Z-4.128 F200.000
G1 X-64.543 Y46.811 Z-4.136 F200.000
G1 X-64.515 Y46.903 Z-4.145 F200.000
G1 X-64.506 Y46.998 Z-4.154 F200.000
G1 X-64.516 Y47.094 Z-4.162 F200.000
G1 X-64.544 Y47.186 Z-4.171 F200.000
G1 X-64.590 Y47.270 Z-4.179 F200.000
G1 X-64.651 Y47.344 Z-4.188 F200.000
G1 X-64.726 Y47.405 Z-4.196 F200.000
G1 X-64.811 Y47.450 Z-4.205 F200.000
G1 X-64.903 Y47.477 Z-4.214 F200.000
G1 X-64.998 Y47.486 Z-4.222 F200.000
G1 X-65.094 Y47.476 Z-4.231 F200.000
G1 X-65.186 Y47.448 Z-4.239 F200.000
G1 X-65.270 Y47.403 Z-4.248 F200.000
G1 X-65.344 Y47.341 Z-4.257 F200.000
G1 X-65.405 Y47.267 Z-4.265 F200.000
G1 X-65.450 Y47.182 Z-4.274 F200.000
G1 X-65.477 Y47.090 Z-4.282 F200.000
G1 X-65.486 Y46.994 Z-4.291 F200.000
G1 X-65.476 Y46.899 Z-4.300 F200.000
G1 X-65.448 Y46.807 Z-4.308 F200.000
G1 X-65.403 Y46.722 Z-4.317 F200.000
G1 X-65.341 Y46.648 Z-4.325 F200.000
G1 X-65.267 Y46.588 Z-4.334 F200.000
G1 X-65.182 Y46.543 Z-4.342 F200.000
G1 X-65.090 Y46.515 Z-4.351 F200.000
G1 X-64.994 Y46.506 Z-4.360 F200.000
G1 X-64.899 Y46.516 Z-4.368 F200.000
G1 X-64.807 Y46.544 Z-4.377 F200.000
G1 X-64.722 Y46.590 Z-4.385 F200.000
G1 X-64.648 Y46.651 Z-4.394 F200.000
G1 X-64.588 Y46.726 Z-4.403 F200.000
G1 X-64.543 Y46.811 Z-4.411 F200.000
G1 X-64.515 Y46.903 Z-4.420 F200.000
G1 X-64.506 Y46.998 Z-4.428 F200.000
G1 X-64.516 Y47.094 Z-4.437 F200.000
G1 X-64.544 Y47.186 Z-4.446 F200.000
G1 X-64.590 Y47.270 Z-4.454 F200.000
G1 X-64.651 Y47.344 Z-4.463 F200.000
G1 X-64.726 Y47.405 Z-4.471 F200.000
G1 X-64.811 Y47.450 Z-4.480 F200.000
G1 X-64.903 Y47.477 Z-4.488 F200.000
G1 X-64.998 Y47.486 Z-4.497 F200.000
G1 X-65.094 Y47.476 Z-4.506 F200.000
G1 X-65.186 Y47.448 Z-4.514 F200.000
G1 X-65.270 Y47.403 Z-4.523 F200.000
G1 X-65.344 Y47.341 Z-4.531 F200.000
G1 X-65.405 Y47.267 Z-4.540 F200.000
G1 X-65.450 Y47.182 Z-4.549 F200.000
G1 X-65.477 Y47.090 Z-4.557 F200.000
G1 X-65.486 Y46.994 Z-4.566 F200.000
G1 X-65.476 Y46.899 Z-4.574 F200.000
G1 X-65.448 Y46.807 Z-4.583 F200.000
G1 X-65.403 Y46.722 Z-4.592 F200.000
G1 X-65.341 Y46.648 Z-4.600 F200.000
G1 X-65.267 Y46.588 Z-4.609 F200.000
G1 X-65.182 Y46.543 Z-4.617 F200.000
G1 X-65.090 Y46.515 Z-4.626 F200.000
G1 X-64.994 Y46.506 Z-4.635 F200.000
G1 X-64.899 Y46.516 Z-4.643 F200.000
G1 X-64.807 Y46.544 Z-4.652 F200.000
G1 X-64.722 Y46.590 Z-4.660 F200.000
G1 X-64.648 Y46.651 Z-4.669 F200.000
G1 X-64.588 Y46.726 Z-4.677 F200.000
G1 X-64.543 Y46.811 Z-4.686 F200.000
G1 X-64.515 Y46.903 Z-4.695 F200.000
G1 X-64.506 Y46.998 Z-4.703 F200.000
G1 X-64.516 Y47.094 Z-4.712 F200.000
G1 X-64.544 Y47.186 Z-4.720 F200.000
G1 X-64.590 Y47.270 Z-4.729 F200.000
G1 X-64.651 Y47.344 Z-4.738 F200.000
G1 X-64.726 Y47.405 Z-4.746 F200.000
G1 X-64.811 Y47.450 Z-4.755 F200.000
G1 X-64.903 Y47.477 Z-4.763 F200.000
G1 X-64.998 Y47.486 Z-4.772 F200.000
G1 X-65.094 Y47.476 Z-4.781 F200.000
G1 X-65.186 Y47.448 Z-4.789 F200.000
G1 X-65.270 Y47.403 Z-4.798 F200.000
G1 X-65.344 Y47.341 Z-4.806 F200.000
G1 X-65.405 Y47.267 Z-4.815 F200.000
G1 X-65.450 Y47.182 Z-4.823 F200.000
G1 X-65.477 Y47.090 Z-4.832 F200.000
G1 X-65.486 Y46.994 Z-4.841 F200.000
G1 X-65.476 Y46.899 Z-4.849 F200.000
G1 X-65.448 Y46.807 Z-4.858 F200.000
G1 X-65.403 Y46.722 Z-4.866 F200.000
G1 X-65.341 Y46.648 Z-4.875 F200.000
G1 X-65.267 Y46.588 Z-4.884 F200.000
G1 X-65.182 Y46.543 Z-4.892 F200.000
G1 X-65.090 Y46.515 Z-4.901 F200.000
G1 X-64.994 Y46.506 Z-4.909 F200.000
G1 X-64.899 Y46.516 Z-4.918 F200.000
G1 X-64.807 Y46.544 Z-4.927 F200.000
G1 X-64.722 Y46.590 Z-4.935 F200.000
G1 X-64.648 Y46.651 Z-4.944 F200.000
G1 X-64.588 Y46.726 Z-4.952 F200.000
G1 X-64.543 Y46.811 Z-4.961 F200.000
G1 X-64.515 Y46.903 Z-4.969 F200.000
G1 X-64.506 Y46.998 Z-4.978 F200.000
G1 X-64.516 Y47.094 Z-4.987 F200.000
G1 X-64.544 Y47.186 Z-4.995 F200.000
G1 X-64.590 Y47.270 Z-5.004 F200.000
G1 X-64.651 Y47.344 Z-5.012 F200.000
G1 X-64.726 Y47.405 Z-5.021 F200.000
G1 X-64.811 Y47.450 Z-5.030 F200.000
G1 X-64.903 Y47.477 Z-5.038 F200.000
G1 X-64.998 Y47.486 Z-5.047 F200.000
G1 X-65.094 Y47.476 Z-5.055 F200.000
G1 X-65.186 Y47.448 Z-5.064 F200.000
G1 X-65.270 Y47.403 Z-5.073 F200.000
G1 X-65.344 Y47.341 Z-5.081 F200.000
G1 X-65.405 Y47.267 Z-5.090 F200.000
G1 X-65.450 Y47.182 Z-5.098 F200.000
G1 X-65.477 Y47.090 Z-5.107 F200.000
G1 X-65.486 Y46.994 Z-5.115 F200.000
G1 X-65.476 Y46.899 Z-5.124 F200.000
G1 X-65.448 Y46.807 Z-5.133 F200.000
G1 X-65.403 Y46.722 Z-5.141 F200.000
G1 X-65.341 Y46.648 Z-5.150 F200.000
G1 X-65.267 Y46.588 Z-5.158 F200.000
G1 X-65.182 Y46.543 Z-5.167 F200.000
G1 X-65.090 Y46.515 Z-5.176 F200.000
G1 X-64.994 Y46.506 Z-5.184 F200.000
G1 X-64.899 Y46.516 Z-5.193 F200.000
G1 X-64.807 Y46.544 Z-5.201 F200.000
G1 X-64.722 Y46.590 Z-5.210 F200.000
G1 X-64.648 Y46.651 Z-5.219 F200.000
G1 X-64.588 Y46.726 Z-5.227 F200.000
G1 X-64.543 Y46.811 Z-5.236 F200.000
G1 X-64.515 Y46.903 Z-5.244 F200.000
G1 X-64.506 Y46.998 Z-5.253 F200.000
G1 X-64.516 Y47.094 Z-5.262 F200.000
G1 X-64.544 Y47.186 Z-5.270 F200.000
G1 X-64.590 Y47.270 Z-5.279 F200.000
G1 X-64.651 Y47.344 Z-5.287 F200.000
G1 X-64.726 Y47.405 Z-5.296 F200.000
G1 X-64.811 Y47.450 Z-5.304 F200.000
G1 X-64.903 Y47.477 Z-5.313 F200.000
G1 X-64.998 Y47.486 Z-5.322 F200.000
G1 X-65.094 Y47.476 Z-5.330 F200.000
G1 X-65.186 Y47.448 Z-5.339 F200.000
G1 X-65.270 Y47.403 Z-5.347 F200.000
G1 X-65.344 Y47.341 Z-5.356 F200.000
G1 X-65.405 Y47.267 Z-5.365 F200.000
G1 X-65.450 Y47.182 Z-5.373 F200.000
G1 X-65.477 Y47.090 Z-5.382 F200.000
G1 X-65.486 Y46.994 Z-5.390 F200.000
G1 X-65.476 Y46.899 Z-5.399 F200.000
G1 X-65.448 Y46.807 Z-5.408 F200.000
G1 X-65.403 Y46.722 Z-5.416 F200.000
G1 X-65.341 Y46.648 Z-5.425 F200.000
G1 X-65.267 Y46.588 Z-5.433 F200.000
G1 X-65.182 Y46.543 Z-5.442 F200.000
G1 X-65.090 Y46.515 Z-5.450 F200.000
G1 X-64.994 Y46.506 Z-5.459 F200.000
G1 X-64.899 Y46.516 Z-5.468 F200.000
G1 X-64.807 Y46.544 Z-5.476 F200.000
G1 X-64.722 Y46.590 Z-5.485 F200.000
G1 X-64.648 Y46.651 Z-5.493 F200.000
G1 X-64.588 Y46.726 Z-5.502 F200.000
G1 X-64.543 Y46.811 Z-5.511 F200.000
G1 X-64.515 Y46.903 Z-5.519 F200.000
G1 X-64.506 Y46.998 Z-5.528 F200.000
G1 X-64.516 Y47.094 Z-5.536 F200.000
G1 X-64.544 Y47.186 Z-5.545 F200.000
G1 X-64.590 Y47.270 Z-5.554 F200.000
G1 X-64.651 Y47.344 Z-5.562 F200.000
G1 X-64.726 Y47.405 Z-5.571 F200.000
G1 X-64.811 Y47.450 Z-5.579 F200.000
G1 X-64.903 Y47.477 Z-5.588 F200.000
G1 X-64.998 Y47.486 Z-5.596 F200.000
G1 X-65.094 Y47.476 Z-5.605 F200.000
G1 X-65.186 Y47.448 Z-5.614 F200.000
G1 X-65.270 Y47.403 Z-5.622 F200.000
G1 X-65.344 Y47.341 Z-5.631 F200.000
G1 X-65.405 Y47.267 Z-5.639 F200.000
G1 X-65.450 Y47.182 Z-5.648 F200.000
G1 X-65.477 Y47.090 Z-5.657 F200.000
G1 X-65.486 Y46.994 Z-5.665 F200.000
G1 X-65.476 Y46.899 Z-5.674 F200.000
G1 X-65.448 Y46.807 Z-5.682 F200.000
G1 X-65.403 Y46.722 Z-5.691 F200.000
G1 X-65.341 Y46.648 Z-5.700 F200.000
G1 X-65.267 Y46.588 Z-5.708 F200.000
G1 X-65.182 Y46.543 Z-5.717 F200.000
G1 X-65.090 Y46.515 Z-5.725 F200.000
G1 X-64.994 Y46.506 Z-5.734 F200.000
G1 X-64.899 Y46.516 Z-5.743 F200.000
G1 X-64.807 Y46.544 Z-5.751 F200.000
G1 X-64.722 Y46.590 Z-5.760 F200.000
G1 X-64.648 Y46.651 Z-5.768 F200.000
G1 X-64.588 Y46.726 Z-5.777 F200.000
G1 X-64.543 Y46.811 Z-5.785 F200.000
G1 X-64.515 Y46.903 Z-5.794 F200.000
G1 X-64.506 Y46.998 Z-5.803 F200.000
G1 X-64.516 Y47.094 Z-5.811 F200.000
G1 X-64.544 Y47.186 Z-5.820 F200.000
G1 X-64.590 Y47.270 Z-5.828 F200.000
G1 X-64.651 Y47.344 Z-5.837 F200.000
G1 X-64.726 Y47.405 Z-5.846 F200.000
G1 X-64.811 Y47.450 Z-5.854 F200.000
G1 X-64.903 Y47.477 Z-5.863 F200.000
G1 X-64.998 Y47.486 Z-5.871 F200.000
G1 X-65.094 Y47.476 Z-5.880 F200.000
G1 X-65.186 Y47.448 Z-5.889 F200.000
G1 X-65.270 Y47.403 Z-5.897 F200.000
G1 X-65.344 Y47.341 Z-5.906 F200.000
G1 X-65.405 Y47.267 Z-5.914 F200.000
G1 X-65.450 Y47.182 Z-5.923 F200.000
G1 X-65.477 Y47.090 Z-5.931 F200.000
G1 X-65.486 Y46.994 Z-5.940 F200.000
G1 X-65.476 Y46.899 Z-5.949 F200.000
G1 X-65.448 Y46.807 Z-5.957 F200.000
G1 X-65.403 Y46.722 Z-5.966 F200.000
G1 X-65.341 Y46.648 Z-5.974 F200.000
G1 X-65.267 Y46.588 Z-5.983 F200.000
G1 X-65.182 Y46.543 Z-5.992 F200.000
G1 X-65.090 Y46.515 Z-6.000 F200.000
G1 X-64.994 Y46.506 Z-6.000 F200.000
G1 X-64.899 Y46.516 Z-6.000 F200.000
G1 X-64.807 Y46.544 Z-6.000 F200.000
G1 X-64.722 Y46.590 Z-6.000 F200.000
G1 X-64.648 Y46.651 Z-6.000 F200.000
G1 X-64.588 Y46.726 Z-6.000 F200.000
G1 X-64.543 Y46.811 Z-6.000 F200.000
G1 X-64.515 Y46.903 Z-6.000 F200.000
G1 X-64.506 Y46.998 Z-6.000 F200.000
G1 X-64.516 Y47.094 Z-6.000 F200.000
G1 X-64.544 Y47.186 Z-6.000 F200.000
G1 X-64.590 Y47.270 Z-6.000 F200.000
G1 X-64.651 Y47.344 Z-6.000 F200.000
G1 X-64.726 Y47.405 Z-6.000 F200.000
G1 X-64.811 Y47.450 Z-6.000 F200.000
G1 X-64.903 Y47.477 Z-6.000 F200.000
G1 X-64.998 Y47.486 Z-6.000 F200.000
G1 X-65.094 Y47.476 Z-6.000 F200.000
G1 X-65.186 Y47.448 Z-6.000 F200.000
G1 X-65.270 Y47.403 Z-6.000 F200.000
G1 X-65.344 Y47.341 Z-6.000 F200.000
G1 X-65.405 Y47.267 Z-6.000 F200.000
G1 X-65.450 Y47.182 Z-6.000 F200.000
G1 X-65.477 Y47.090 Z-6.000 F200.000
G1 X-65.486 Y46.994 Z-6.000 F200.000
G1 X-65.476 Y46.899 Z-6.000 F200.000
G1 X-65.448 Y46.807 Z-6.000 F200.000
G1 X-65.403 Y46.722 Z-6.000 F200.000
G1 X-65.341 Y46.648 Z-6.000 F200.000
G1 X-65.267 Y46.588 Z-6.000 F200.000
G1 X-65.182 Y46.543 Z-6.000 F200.000
(Adaptive - depth: -6.000000)
G1 X-64.996 Y46.496 F200.000
G1 X-64.947 Y46.459 F200.000
G1 X-64.887 Y46.440 F200.000
G1 X-64.827 Y46.432 F200.000
G1 X-64.767 Y46.436 F200.000
G1 X-64.650 Y46.470 F200.000
G1 X-64.541 Y46.530 F200.000
G1 X-64.492 Y46.568 F200.000
G1 X-64.357 Y46.782 F200.000
G1 X-64.320 Y46.921 F200.000
G1 X-64.308 Y47.026 F200.000
G1 X-64.320 Y47.147 F200.000
G1 X-64.365 Y47.286 F200.000
G1 X-64.440 Y47.414 F200.000
G1 X-64.530 Y47.515 F200.000
G1 X-64.647 Y47.598 F200.000
G1 X-64.778 Y47.654 F200.000
G1 X-64.917 Y47.684 F200.000
G1 X-65.060 Y47.684 F200.000
G1 X-65.203 Y47.654 F200.000
G1 X-65.331 Y47.598 F200.000
G1 X-65.451 Y47.511 F200.000
G1 X-65.549 Y47.402 F200.000
G1 X-65.620 Y47.274 F200.000
G1 X-65.662 Y47.143 F200.000
G1 X-65.677 Y47.000 F200.000
G1 X-65.662 Y46.861 F200.000
G1 X-65.617 Y46.726 F200.000
G1 X-65.545 Y46.602 F200.000
G1 X-65.410 Y46.447 F200.000
G1 X-65.256 Y46.335 F200.000
G1 X-65.083 Y46.256 F200.000
G1 X-64.902 Y46.218 F200.000
G1 X-64.782 Y46.214 F200.000
G1 X-64.662 Y46.233 F200.000
G1 X-64.489 Y46.301 F200.000
G1 X-64.342 Y46.402 F200.000
G1 X-64.218 Y46.534 F200.000
G1 X-64.128 Y46.688 F200.000
G1 X-64.071 Y46.853 F200.000
G1 X-64.049 Y47.023 F200.000
G1 X-64.060 Y47.192 F200.000
G1 X-64.105 Y47.357 F200.000
G1 X-64.184 Y47.511 F200.000
G1 X-64.293 Y47.643 F200.000
G1 X-64.421 Y47.752 F200.000
G1 X-64.624 Y47.861 F200.000
G1 X-64.789 Y47.906 F200.000
G1 X-65.071 Y47.914 F200.000
G1 X-65.241 Y47.880 F200.000
G1 X-65.455 Y47.778 F200.000
G1 X-65.594 Y47.665 F200.000
G1 X-65.707 Y47.526 F200.000
G1 X-65.816 Y47.308 F200.000
G1 X-65.861 Y47.128 F200.000
G1 X-65.872 Y46.947 F200.000
G1 X-65.838 Y46.767 F200.000
G1 X-65.771 Y46.590 F200.000
G1 X-65.677 Y46.425 F200.000
G1 X-65.556 Y46.282 F200.000
G1 X-65.361 Y46.124 F200.000
G1 X-65.195 Y46.034 F200.000
G1 X-65.019 Y45.977 F200.000
G1 X-64.838 Y45.955 F200.000
G1 X-64.658 Y45.966 F200.000
G1 X-64.421 Y46.030 F200.000
G1 X-64.259 Y46.113 F200.000
G1 X-64.113 Y46.222 F200.000
G1 X-63.992 Y46.353 F200.000
G1 X-63.891 Y46.500 F200.000
G1 X-63.842 Y46.605 F200.000
G1 X-63.789 Y46.831 F200.000
G1 X-63.789 Y47.169 F200.000
G1 X-63.846 Y47.395 F200.000
G1 X-63.936 Y47.605 F200.000
G1 X-64.109 Y47.831 F200.000
G1 X-64.289 Y47.977 F200.000
G1 X-64.485 Y48.094 F200.000
G1 X-64.703 Y48.165 F200.000
G1 X-64.985 Y48.192 F200.000
G1 X-65.211 Y48.162 F200.000
G1 X-65.436 Y48.083 F200.000
G1 X-65.635 Y47.955 F200.000
G1 X-65.808 Y47.786 F200.000
G1 X-65.944 Y47.583 F200.000
G1 X-66.038 Y47.357 F200.000
G1 X-66.083 Y47.117 F200.000
G1 X-66.086 Y46.876 F200.000
G1 X-66.041 Y46.635 F200.000
G1 X-65.951 Y46.402 F200.000
G1 X-65.816 Y46.188 F200.000
G1 X-65.643 Y46.004 F200.000
G1 X-65.436 Y45.868 F200.000
G1 X-65.323 Y45.820 F200.000
G1 X-65.023 Y45.778 F200.000
G1 X-64.842 Y45.789 F200.000
G1 X-64.605 Y45.846 F200.000
G1 X-64.436 Y45.910 F200.000
G1 X-64.335 Y45.977 F200.000
G1 X-64.335 Y45.977 F200.000
G1 X-64.252 Y46.071 F200.000
G1 X-64.222 Y46.158 F200.000
G0 X-64.218 Y46.184
G0 X-64.259 Y46.346
G0 X-64.805 Y47.947
G1 X-64.816 Y47.981 F200.000
G1 X-64.861 Y48.094 F200.000
G1 X-64.925 Y48.162 F200.000
G1 X-65.045 Y48.203 F200.000
G1 X-65.109 Y48.214 F200.000
G1 X-65.109 Y48.214 F200.000
G1 X-65.335 Y48.173 F200.000
G1 X-65.447 Y48.135 F200.000
G1 X-65.658 Y48.023 F200.000
G1 X-65.891 Y47.835 F200.000
G1 X-66.000 Y47.695 F200.000
G1 X-66.165 Y47.365 F200.000
G1 X-66.207 Y47.184 F200.000
G1 X-66.211 Y46.883 F200.000
G1 X-66.180 Y46.703 F200.000
G1 X-66.120 Y46.523 F200.000
G1 X-65.962 Y46.248 F200.000
G1 X-65.789 Y46.068 F200.000
G1 X-65.635 Y45.959 F200.000
G1 X-65.635 Y45.959 F200.000
G1 X-65.511 Y45.914 F200.000
G1 X-65.417 Y45.914 F200.000
G0 X-65.387 Y45.914
G0 X-64.402 Y46.109
G1 X-64.365 Y46.117 F200.000
G1 X-64.331 Y46.124 F200.000
G1 X-64.105 Y46.177 F200.000
G1 X-64.000 Y46.244 F200.000
G1 X-64.000 Y46.244 F200.000
G1 X-63.895 Y46.417 F200.000
G1 X-63.816 Y46.598 F200.000
G1 X-63.789 Y46.692 F200.000
G1 X-63.759 Y46.861 F200.000
G1 X-63.756 Y47.008 F200.000
G1 X-63.763 Y47.169 F200.000
G1 X-63.805 Y47.353 F200.000
G1 X-63.831 Y47.432 F200.000
G1 X-63.906 Y47.598 F200.000
G1 X-63.977 Y47.714 F200.000
G1 X-64.117 Y47.880 F200.000
G1 X-64.444 Y48.117 F200.000
G1 X-64.553 Y48.162 F200.000
G1 X-64.726 Y48.214 F200.000
G1 X-64.827 Y48.233 F200.000
G1 X-65.079 Y48.241 F200.000
G1 X-65.323 Y48.199 F200.000
G1 X-65.508 Y48.139 F200.000
G1 X-65.692 Y48.034 F200.000
G1 X-65.887 Y47.872 F200.000
G1 X-66.030 Y47.695 F200.000
G1 X-66.120 Y47.545 F200.000
G1 X-66.158 Y47.462 F200.000
G1 X-66.199 Y47.338 F200.000
G1 X-66.226 Y47.222 F200.000
G1 X-66.241 Y46.981 F200.000
G1 X-66.233 Y46.850 F200.000
G1 X-66.180 Y46.605 F200.000
G1 X-66.098 Y46.417 F200.000
G1 X-66.004 Y46.259 F200.000
G1 X-65.914 Y46.154 F200.000
G1 X-65.827 Y46.071 F200.000
G1 X-65.677 Y45.951 F200.000
G1 X-65.515 Y45.865 F200.000
G1 X-65.267 Y45.778 F200.000
G1 X-65.094 Y45.752 F200.000
G1 X-64.789 Y45.771 F200.000
G1 X-64.677 Y45.793 F200.000
G1 X-64.470 Y45.865 F200.000
G1 X-64.361 Y45.929 F200.000
G1 X-64.147 Y46.090 F200.000
G1 X-64.004 Y46.241 F200.000
G1 X-64.000 Y46.244 F200.000
G0 Z6.000
(Helix to depth: -6.000000)
G0 Z6.000
G0 X64.994 Y-34.506 Z6.000
G0 X64.994 Y-34.506 Z4.000
G1 X64.994 Y-34.506 Z1.000 F200.000
G1 X64.994 Y-34.506 Z1.000 F200.000
G1 X64.899 Y-34.516 Z0.991 F200.000
G1 X64.807 Y-34.544 Z0.983 F200.000
G1 X64.722 Y-34.590 Z0.974 F200.000
G1 X64.648 Y-34.651 Z0.966 F200.000
G1 X64.588 Y-34.726 Z0.957 F200.000
G1 X64.543 Y-34.811 Z0.948 F200.000
G1 X64.515 Y-34.903 Z0.940 F200.000
G1 X64.506 Y-34.998 Z0.931 F200.000
G1 X64.516 Y-35.094 Z0.923 F200.000
G1 X64.544 Y-35.186 Z0.914 F200.000
G1 X64.590 Y-35.270 Z0.906 F200.000
G1 X64.651 Y-35.344 Z0.897 F200.000
G1 X64.726 Y-35.405 Z0.888 F200.000
G1 X64.811 Y-35.450 Z0.880 F200.000
G1 X64.903 Y-35.477 Z0.871 F200.000
G1 X64.998 Y-35.486 Z0.863 F200.000
G1 X65.094 Y-35.476 Z0.854 F200.000
G1 X65.186 Y-35.448 Z0.845 F200.000
G1 X65.270 Y-35.403 Z0.837 F200.000
G1 X65.344 Y-35.341 Z0.828 F200.000
G1 X65.405 Y-35.267 Z0.820 F200.000
G1 X65.450 Y-35.182 Z0.811 F200.000
G1 X65.477 Y-35.090 Z0.802 F200.000
G1 X65.486 Y-34.994 Z0.794 F200.000
G1 X65.476 Y-34.899 Z0.785 F200.000
G1 X65.448 Y-34.807 Z0.777 F200.000
G1 X65.403 Y-34.722 Z0.768 F200.000
G1 X65.341 Y-34.648 Z0.760 F200.000
G1 X65.267 Y-34.588 Z0.751 F200.000
G1 X65.182 Y-34.543 Z0.742 F200.000
G1 X65.090 Y-34.515 Z0.734 F200.000
G1 X64.994 Y-34.506 Z0.725 F200.000
G1 X64.899 Y-34.516 Z0.717 F200.000
G1 X64.807 Y-34.544 Z0.708 F200.000
G1 X64.722 Y-34.590 Z0.699 F200.000
G1 X64.648 Y-34.651 Z0.691 F200.000
G1 X64.588 Y-34.726 Z0.682 F200.000
G1 X64.543 Y-34.811 Z0.674 F200.000
G1 X64.515 Y-34.903 Z0.665 F200.000
G1 X64.506 Y-34.998 Z0.656 F200.000
G1 X64.516 Y-35.094 Z0.648 F200.000
G1 X64.544 Y-35.186 Z0.639 F200.000
G1 X64.590 Y-35.270 Z0.631 F200.000
G1 X64.651 Y-35.344 Z0.622 F200.000
G1 X64.726 Y-35.405 Z0.613 F200.000
G1 X64.811 Y-35.450 Z0.605 F200.000
G1 X64.903 Y-35.477 Z0.596 F200.000
G1 X64.998 Y-35.486 Z0.588 F200.000
G1 X65.094 Y-35.476 Z0.579 F200.000
G1 X65.186 Y-35.448 Z0.571 F200.000
G1 X65.270 Y-35.403 Z0.562 F200.000
G1 X65.344 Y-35.341 Z0.553 F200.000
G1 X65.405 Y-35.267 Z0.545 F200.000
G1 X65.450 Y-35.182 Z0.536 F200.000
G1 X65.477 Y-35.090 Z0.528 F200.000
G1 X65.486 Y-34.994 Z0.519 F200.000
G1 X65.476 Y-34.899 Z0.510 F200.000
G1 X65.448 Y-34.807 Z0.502 F200.000
G1 X65.403 Y-34.722 Z0.493 F200.000
G1 X65.341 Y-34.648 Z0.485 F200.000
G1 X65.267 Y-34.588 Z0.476 F200.000
G1 X65.182 Y-34.543 Z0.467 F200.000
G1 X65.090 Y-34.515 Z0.459 F200.000
G1 X64.994 Y-34.506 Z0.450 F200.000
G1 X64.899 Y-34.516 Z0.442 F200.000
G1 X64.807 Y-34.544 Z0.433 F200.000
G1 X64.722 Y-34.590 Z0.425 F200.000
G1 X64.648 Y-34.651 Z0.416 F200.000
G1 X64.588 Y-34.726 Z0.407 F200.000
G1 X64.543 Y-34.811 Z0.399 F200.000
G1 X64.515 Y-34.903 Z0.390 F200.000
G1 X64.506 Y-34.998 Z0.382 F200.000
G1 X64.516 Y-35.094 Z0.373 F200.000
G1 X64.544 Y-35.186 Z0.364 F200.000
G1 X64.590 Y-35.270 Z0.356 F200.000
G1 X64.651 Y-35.344 Z0.347 F200.000
G1 X64.726 Y-35.405 Z0.339 F200.000
G1 X64.811 Y-35.450 Z0.330 F200.000
G1 X64.903 Y-35.477 Z0.321 F200.000
G1 X64.998 Y-35.486 Z0.313 F200.000
G1 X65.094 Y-35.476 Z0.304 F200.000
G1 X65.186 Y-35.448 Z0.296 F200.000
G1 X65.270 Y-35.403 Z0.287 F200.000
G1 X65.344 Y-35.341 Z0.279 F200.000
G1 X65.405 Y-35.267 Z0.270 F200.000
G1 X65.450 Y-35.182 Z0.261 F200.000
G1 X65.477 Y-35.090 Z0.253 F200.000
G1 X65.486 Y-34.994 Z0.244 F200.000
G1 X65.476 Y-34.899 Z0.236 F200.000
G1 X65.448 Y-34.807 Z0.227 F200.000
G1 X65.403 Y-34.722 Z0.218 F200.000
G1 X65.341 Y-34.648 Z0.210 F200.000
G1 X65.267 Y-34.588 Z0.201 F200.000
G1 X65.182 Y-34.543 Z0.193 F200.000
G1 X65.090 Y-34.515 Z0.184 F200.000
G1 X64.994 Y-34.506 Z0.175 F200.000
G1 X64.899 Y-34.516 Z0.167 F200.000
G1 X64.807 Y-34.544 Z0.158 F200.000
G1 X64.722 Y-34.590 Z0.150 F200.000
G1 X64.648 Y-34.651 Z0.141 F200.000
G1 X64.588 Y-34.726 Z0.132 F200.000
G1 X64.543 Y-34.811 Z0.124 F200.000
G1 X64.515 Y-34.903 Z0.115 F200.000
G1 X64.506 Y-34.998 Z0.107 F200.000
G1 X64.516 Y-35.094 Z0.098 F200.000
G1 X64.544 Y-35.186 Z0.090 F200.000
G1 X64.590 Y-35.270 Z0.081 F200.000
G1 X64.651 Y-35.344 Z0.072 F200.000
G1 X64.726 Y-35.405 Z0.064 F200.000
G1 X64.811 Y-35.450 Z0.055 F200.000
G1 X64.903 Y-35.477 Z0.047 F200.000
G1 X64.998 Y-35.486 Z0.038 F200.000
G1 X65.094 Y-35.476 Z0.029 F200.000
G1 X65.186 Y-35.448 Z0.021 F200.000
G1 X65.270 Y-35.403 Z0.012 F200.000
G1 X65.344 Y-35.341 Z0.004 F200.000
G1 X65.405 Y-35.267 Z-0.005 F200.000
G1 X65.450 Y-35.182 Z-0.014 F200.000
G1 X65.477 Y-35.090 Z-0.022 F200.000
G1 X65.486 Y-34.994 Z-0.031 F200.000
G1 X65.476 Y-34.899 Z-0.039 F200.000
G1 X65.448 Y-34.807 Z-0.048 F200.000
G1 X65.403 Y-34.722 Z-0.056 F200.000
G1 X65.341 Y-34.648 Z-0.065 F200.000
G1 X65.267 Y-34.588 Z-0.074 F200.000
G1 X65.182 Y-34.543 Z-0.082 F200.000
G1 X65.090 Y-34.515 Z-0.091 F200.000
G1 X64.994 Y-34.506 Z-0.099 F200.000
G1 X64.899 Y-34.516 Z-0.108 F200.000
G1 X64.807 Y-34.544 Z-0.117 F200.000
G1 X64.722 Y-34.590 Z-0.125 F200.000
G1 X64.648 Y-34.651 Z-0.134 F200.000
G1 X64.588 Y-34.726 Z-0.142 F200.000
G1 X64.543 Y-34.811 Z-0.151 F200.000
G1 X64.515 Y-34.903 Z-0.160 F200.000
G1 X64.506 Y-34.998 Z-0.168 F200.000
G1 X64.516 Y-35.094 Z-0.177 F200.000
G1 X64.544 Y-35.186 Z-0.185 F200.000
G1 X64.590 Y-35.270 Z-0.194 F200.000
G1 X64.651 Y-35.344 Z-0.202 F200.000
G1 X64.726 Y-35.405 Z-0.211 F200.000
G1 X64.811 Y-35.450 Z-0.220 F200.000
G1 X64.903 Y-35.477 Z-0.228 F200.000
G1 X64.998 Y-35.486 Z-0.237 F200.000
G1 X65.094 Y-35.476 Z-0.245 F200.000
G1 X65.186 Y-35.448 Z-0.254 F200.000
G1 X65.270 Y-35.403 Z-0.263 F200.000
G1 X65.344 Y-35.341 Z-0.271 F200.000
G1 X65.405 Y-35.267 Z-0.280 F200.000
G1 X65.450 Y-35.182 Z-0.288 F200.000
G1 X65.477 Y-35.090 Z-0.297 F200.000
G1 X65.486 Y-34.994 Z-0.306 F200.000
G1 X65.476 Y-34.899 Z-0.314 F200.000
G1 X65.448 Y-34.807 Z-0.323 F200.000
G1 X65.403 Y-34.722 Z-0.331 F200.000
G1 X65.341 Y-34.648 Z-0.340 F200.000
G1 X65.267 Y-34.588 Z-0.349 F200.000
G1 X65.182 Y-34.543 Z-0.357 F200.000
G1 X65.090 Y-34.515 Z-0.366 F200.000
G1 X64.994 Y-34.506 Z-0.374 F200.000
G1 X64.899 Y-34.516 Z-0.383 F200.000
G1 X64.807 Y-34.544 Z-0.391 F200.000
G1 X64.722 Y-34.590 Z-0.400 F200.000
G1 X64.648 Y-34.651 Z-0.409 F200.000
G1 X64.588 Y-34.726 Z-0.417 F200.000
G1 X64.543 Y-34.811 Z-0.426 F200.000
G1 X64.515 Y-34.903 Z-0.434 F200.000
G1 X64.506 Y-34.998 Z-0.443 F200.000
G1 X64.516 Y-35.094 Z-0.452 F200.000
G1 X64.544 Y-35.186 Z-0.460 F200.000
G1 X64.590 Y-35.270 Z-0.469 F200.000
G1 X64.651 Y-35.344 Z-0.477 F200.000
G1 X64.726 Y-35.405 Z-0.486 F200.000
G1 X64.811 Y-35.450 Z-0.495 F200.000
G1 X64.903 Y-35.477 Z-0.503 F200.000
G1 X64.998 Y-35.486 Z-0.512 F200.000
G1 X65.094 Y-35.476 Z-0.520 F200.000
G1 X65.186 Y-35.448 Z-0.529 F200.000
G1 X65.270 Y-35.403 Z-0.537 F200.000
G1 X65.344 Y-35.341 Z-0.546 F200.000
G1 X65.405 Y-35.267 Z-0.555 F200.000
G1 X65.450 Y-35.182 Z-0.563 F200.000
G1 X65.477 Y-35.090 Z-0.572 F200.000
G1 X65.486 Y-34.994 Z-0.580 F200.000
G1 X65.476 Y-34.899 Z-0.589 F200.000
G1 X65.448 Y-34.807 Z-0.598 F200.000
G1 X65.403 Y-34.722 Z-0.606 F200.000
G1 X65.341 Y-34.648 Z-0.615 F200.000
G1 X65.267 Y-34.588 Z-0.623 F200.000
G1 X65.182 Y-34.543 Z-0.632 F200.000
G1 X65.090 Y-34.515 Z-0.641 F200.000
G1 X64.994 Y-34.506 Z-0.649 F200.000
G1 X64.899 Y-34.516 Z-0.658 F200.000
G1 X64.807 Y-34.544 Z-0.666 F200.000
G1 X64.722 Y-34.590 Z-0.675 F200.000
G1 X64.648 Y-34.651 Z-0.683 F200.000
G1 X64.588 Y-34.726 Z-0.692 F200.000
G1 X64.543 Y-34.811 Z-0.701 F200.000
G1 X64.515 Y-34.903 Z-0.709 F200.000
G1 X64.506 Y-34.998 Z-0.718 F200.000
G1 X64.516 Y-35.094 Z-0.726 F200.000
G1 X64.544 Y-35.186 Z-0.735 F200.000
G1 X64.590 Y-35.270 Z-0.744 F200.000
G1 X64.651 Y-35.344 Z-0.752 F200.000
G1 X64.726 Y-35.405 Z-0.761 F200.000
G1 X64.811 Y-35.450 Z-0.769 F200.000
G1 X64.903 Y-35.477 Z-0.778 F200.000
G1 X64.998 Y-35.486 Z-0.787 F200.000
G1 X65.094 Y-35.476 Z-0.795 F200.000
G1 X65.186 Y-35.448 Z-0.804 F200.000
G1 X65.270 Y-35.403 Z-0.812 F200.000
G1 X65.344 Y-35.341 Z-0.821 F200.000
G1 X65.405 Y-35.267 Z-0.829 F200.000
G1 X65.450 Y-35.182 Z-0.838 F200.000
G1 X65.477 Y-35.090 Z-0.847 F200.000
G1 X65.486 Y-34.994 Z-0.855 F200.000
G1 X65.476 Y-34.899 Z-0.864 F200.000
G1 X65.448 Y-34.807 Z-0.872 F200.000
G1 X65.403 Y-34.722 Z-0.881 F200.000
G1 X65.341 Y-34.648 Z-0.890 F200.000
G1 X65.267 Y-34.588 Z-0.898 F200.000
G1 X65.182 Y-34.543 Z-0.907 F200.000
G1 X65.090 Y-34.515 Z-0.915 F200.000
G1 X64.994 Y-34.506 Z-0.924 F200.000
G1 X64.899 Y-34.516 Z-0.933 F200.000
G1 X64.807 Y-34.544 Z-0.941 F200.000
G1 X64.722 Y-34.590 Z-0.950 F200.000
G1 X64.648 Y-34.651 Z-0.958 F200.000
G1 X64.588 Y-34.726 Z-0.967 F200.000
G1 X64.543 Y-34.811 Z-0.976 F200.000
G1 X64.515 Y-34.903 Z-0.984 F200.000
G1 X64.506 Y-34.998 Z-0.993 F200.000
G1 X64.516 Y-35.094 Z-1.001 F200.000
G1 X64.544 Y-35.186 Z-1.010 F200.000
G1 X64.590 Y-35.270 Z-1.018 F200.000
G1 X64.651 Y-35.344 Z-1.027 F200.000
G1 X64.726 Y-35.405 Z-1.036 F200.000
G1 X64.811 Y-35.450 Z-1.044 F200.000
G1 X64.903 Y-35.477 Z-1.053 F200.000
G1 X64.998 Y-35.486 Z-1.061 F200.000
G1 X65.094 Y-35.476 Z-1.070 F200.000
G1 X65.186 Y-35.448 Z-1.079 F200.000
G1 X65.270 Y-35.403 Z-1.087 F200.000
G1 X65.344 Y-35.341 Z-1.096 F200.000
G1 X65.405 Y-35.267 Z-1.104 F200.000
G1 X65.450 Y-35.182 Z-1.113 F200.000
G1 X65.477 Y-35.090 Z-1.122 F200.000
G1 X65.486 Y-34.994 Z-1.130 F200.000
G1 X65.476 Y-34.899 Z-1.139 F200.000
G1 X65.448 Y-34.807 Z-1.147 F200.000
G1 X65.403 Y-34.722 Z-1.156 F200.000
G1 X65.341 Y-34.648 Z-1.164 F200.000
G1 X65.267 Y-34.588 Z-1.173 F200.000
G1 X65.182 Y-34.543 Z-1.182 F200.000
G1 X65.090 Y-34.515 Z-1.190 F200.000
G1 X64.994 Y-34.506 Z-1.199 F200.000
G1 X64.899 Y-34.516 Z-1.207 F200.000
G1 X64.807 Y-34.544 Z-1.216 F200.000
G1 X64.722 Y-34.590 Z-1.225 F200.000
G1 X64.648 Y-34.651 Z-1.233 F200.000
G1 X64.588 Y-34.726 Z-1.242 F200.000
G1 X64.543 Y-34.811 Z-1.250 F200.000
G1 X64.515 Y-34.903 Z-1.259 F200.000
G1 X64.506 Y-34.998 Z-1.268 F200.000
G1 X64.516 Y-35.094 Z-1.276 F200.000
G1 X64.544 Y-35.186 Z-1.285 F200.000
G1 X64.590 Y-35.270 Z-1.293 F200.000
G1 X64.651 Y-35.344 Z-1.302 F200.000
G1 X64.726 Y-35.405 Z-1.310 F200.000
G1 X64.811 Y-35.450 Z-1.319 F200.000
G1 X64.903 Y-35.477 Z-1.328 F200.000
G1 X64.998 Y-35.486 Z-1.336 F200.000
G1 X65.094 Y-35.476 Z-1.345 F200.000
G1 X65.186 Y-35.448 Z-1.353 F200.000
G1 X65.270 Y-35.403 Z-1.362 F200.000
G1 X65.344 Y-35.341 Z-1.371 F200.000
G1 X65.405 Y-35.267 Z-1.379 F200.000
G1 X65.450 Y-35.182 Z-1.388 F200.000
G1 X65.477 Y-35.090 Z-1.396 F200.000
G1 X65.486 Y-34.994 Z-1.405 F200.000
G1 X65.476 Y-34.899 Z-1.414 F200.000
G1 X65.448 Y-34.807 Z-1.422 F200.000
G1 X65.403 Y-34.722 Z-1.431 F200.000
G1 X65.341 Y-34.648 Z-1.439 F200.000
G1 X65.267 Y-34.588 Z-1.448 F200.000
G1 X65.182 Y-34.543 Z-1.457 F200.000
G1 X65.090 Y-34.515 Z-1.465 F200.000
G1 X64.994 Y-34.506 Z-1.474 F200.000
G1 X64.899 Y-34.516 Z-1.482 F200.000
G1 X64.807 Y-34.544 Z-1.491 F200.000
G1 X64.722 Y-34.590 Z-1.499 F200.000
G1 X64.648 Y-34.651 Z-1.508 F200.000
G1 X64.588 Y-34.726 Z-1.517 F200.000
G1 X64.543 Y-34.811 Z-1.525 F200.000
G1 X64.515 Y-34.903 Z-1.534 F200.000
G1 X64.506 Y-34.998 Z-1.542 F200.000
G1 X64.516 Y-35.094 Z-1.551 F200.000
G1 X64.544 Y-35.186 Z-1.560 F200.000
G1 X64.590 Y-35.270 Z-1.568 F200.000
G1 X64.651 Y-35.344 Z-1.577 F200.000
G1 X64.726 Y-35.405 Z-1.585 F200.000
G1 X64.811 Y-35.450 Z-1.594 F200.000
G1 X64.903 Y-35.477 Z-1.603 F200.000
G1 X64.998 Y-35.486 Z-1.611 F200.000
G1 X65.094 Y-35.476 Z-1.620 F200.000
G1 X65.186 Y-35.448 Z-1.628 F200.000
G1 X65.270 Y-35.403 Z-1.637 F200.000
G1 X65.344 Y-35.341 Z-1.645 F200.000
G1 X65.405 Y-35.267 Z-1.654 F200.000
G1 X65.450 Y-35.182 Z-1.663 F200.000
G1 X65.477 Y-35.090 Z-1.671 F200.000
G1 X65.486 Y-34.994 Z-1.680 F200.000
G1 X65.476 Y-34.899 Z-1.688 F200.000
G1 X65.448 Y-34.807 Z-1.697 F200.000
G1 X65.403 Y-34.722 Z-1.706 F200.000
G1 X65.341 Y-34.648 Z-1.714 F200.000
G1 X65.267 Y-34.588 Z-1.723 F200.000
G1 X65.182 Y-34.543 Z-1.731 F200.000
G1 X65.090 Y-34.515 Z-1.740 F200.000
G1 X64.994 Y-34.506 Z-1.749 F200.000
G1 X64.899 Y-34.516 Z-1.757 F200.000
G1 X64.807 Y-34.544 Z-1.766 F200.000
G1 X64.722 Y-34.590 Z-1.774 F200.000
G1 X64.648 Y-34.651 Z-1.783 F200.000
G1 X64.588 Y-34.726 Z-1.791 F200.000
G1 X64.543 Y-34.811 Z-1.800 F200.000
G1 X64.515 Y-34.903 Z-1.809 F200.000
G1 X64.506 Y-34.998 Z-1.817 F200.000
G1 X64.516 Y-35.094 Z-1.826 F200.000
G1 X64.544 Y-35.186 Z-1.834 F200.000
G1 X64.590 Y-35.270 Z-1.843 F200.000
G1 X64.651 Y-35.344 Z-1.852 F200.000
G1 X64.726 Y-35.405 Z-1.860 F200.000
G1 X64.811 Y-35.450 Z-1.869 F200.000
G1 X64.903 Y-35.477 Z-1.877 F200.000
G1 X64.998 Y-35.486 Z-1.886 F200.000
G1 X65.094 Y-35.476 Z-1.895 F200.000
G1 X65.186 Y-35.448 Z-1.903 F200.000
G1 X65.270 Y-35.403 Z-1.912 F200.000
G1 X65.344 Y-35.341 Z-1.920 F200.000
G1 X65.405 Y-35.267 Z-1.929 F200.000
G1 X65.450 Y-35.182 Z-1.937 F200.000
G1 X65.477 Y-35.090 Z-1.946 F200.000
G1 X65.486 Y-34.994 Z-1.955 F200.000
G1 X65.476 Y-34.899 Z-1.963 F200.000
G1 X65.448 Y-34.807 Z-1.972 F200.000
G1 X65.403 Y-34.722 Z-1.980 F200.000
G1 X65.341 Y-34.648 Z-1.989 F200.000
G1 X65.267 Y-34.588 Z-1.998 F200.000
G1 X65.182 Y-34.543 Z-2.006 F200.000
G1 X65.090 Y-34.515 Z-2.015 F200.000
G1 X64.994 Y-34.506 Z-2.023 F200.000
G1 X64.899 Y-34.516 Z-2.032 F200.000
G1 X64.807 Y-34.544 Z-2.041 F200.000
G1 X64.722 Y-34.590 Z-2.049 F200.000
G1 X64.648 Y-34.651 Z-2.058 F200.000
G1 X64.588 Y-34.726 Z-2.066 F200.000
G1 X64.543 Y-34.811 Z-2.075 F200.000
G1 X64.515 Y-34.903 Z-2.084 F200.000
G1 X64.506 Y-34.998 Z-2.092 F200.000
G1 X64.516 Y-35.094 Z-2.101 F200.000
G1 X64.544 Y-35.186 Z-2.109 F200.000
G1 X64.590 Y-35.270 Z-2.118 F200.000
G1 X64.651 Y-35.344 Z-2.126 F200.000
G1 X64.726 Y-35.405 Z-2.135 F200.000
G1 X64.811 Y-35.450 Z-2.144 F200.000
G1 X64.903 Y-35.477 Z-2.152 F200.000
G1 X64.998 Y-35.486 Z-2.161 F200.000
G1 X65.094 Y-35.476 Z-2.169 F200.000
G1 X65.186 Y-35.448 Z-2.178 F200.000
G1 X65.270 Y-35.403 Z-2.187 F200.000
G1 X65.344 Y-35.341 Z-2.195 F200.000
G1 X65.405 Y-35.267 Z-2.204 F200.000
G1 X65.450 Y-35.182 Z-2.212 F200.000
G1 X65.477 Y-35.090 Z-2.221 F200.000
G1 X65.486 Y-34.994 Z-2.230 F200.000
G1 X65.476 Y-34.899 Z-2.238 F200.000
G1 X65.448 Y-34.807 Z-2.247 F200.000
G1 X65.403 Y-34.722 Z-2.255 F200.000
G1 X65.341 Y-34.648 Z-2.264 F200.000
G1 X65.267 Y-34.588 Z-2.272 F200.000
G1 X65.182 Y-34.543 Z-2.281 F200.000
G1 X65.090 Y-34.515 Z-2.290 F200.000
G1 X64.994 Y-34.506 Z-2.298 F200.000
G1 X64.899 Y-34.516 Z-2.307 F200.000
G1 X64.807 Y-34.544 Z-2.315 F200.000
G1 X64.722 Y-34.590 Z-2.324 F200.000
G1 X64.648 Y-34.651 Z-2.333 F200.000
G1 X64.588 Y-34.726 Z-2.341 F200.000
G1 X64.543 Y-34.811 Z-2.350 F200.000
G1 X64.515 Y-34.903 Z-2.358 F200.000
G1 X64.506 Y-34.998 Z-2.367 F200.000
G1 X64.516 Y-35.094 Z-2.376 F200.000
G1 X64.544 Y-35.186 Z-2.384 F200.000
G1 X64.590 Y-35.270 Z-2.393 F200.000
G1 X64.651 Y-35.344 Z-2.401 F200.000
G1 X64.726 Y-35.405 Z-2.410 F200.000
G1 X64.811 Y-35.450 Z-2.418 F200.000
G1 X64.903 Y-35.477 Z-2.427 F200.000
G1 X64.998 Y-35.486 Z-2.436 F200.000
G1 X65.094 Y-35.476 Z-2.444 F200.000
G1 X65.186 Y-35.448 Z-2.453 F200.000
G1 X65.270 Y-35.403 Z-2.461 F200.000
G1 X65.344 Y-35.341 Z-2.470 F200.000
G1 X65.405 Y-35.267 Z-2.479 F200.000
G1 X65.450 Y-35.182 Z-2.487 F200.000
G1 X65.477 Y-35.090 Z-2.496 F200.000
G1 X65.486 Y-34.994 Z-2.504 F200.000
G1 X65.476 Y-34.899 Z-2.513 F200.000
G1 X65.448 Y-34.807 Z-2.522 F200.000
G1 X65.403 Y-34.722 Z-2.530 F200.000
G1 X65.341 Y-34.648 Z-2.539 F200.000
G1 X65.267 Y-34.588 Z-2.547 F200.000
G1 X65.182 Y-34.543 Z-2.556 F200.000
G1 X65.090 Y-34.515 Z-2.565 F200.000
G1 X64.994 Y-34.506 Z-2.573 F200.000
G1 X64.899 Y-34.516 Z-2.582 F200.000
G1 X64.807 Y-34.544 Z-2.590 F200.000
G1 X64.722 Y-34.590 Z-2.599 F200.000
G1 X64.648 Y-34.651 Z-2.607 F200.000
G1 X64.588 Y-34.726 Z-2.616 F200.000
G1 X64.543 Y-34.811 Z-2.625 F200.000
G1 X64.515 Y-34.903 Z-2.633 F200.000
G1 X64.506 Y-34.998 Z-2.642 F200.000
G1 X64.516 Y-35.094 Z-2.650 F200.000
G1 X64.544 Y-35.186 Z-2.659 F200.000
G1 X64.590 Y-35.270 Z-2.668 F200.000
G1 X64.651 Y-35.344 Z-2.676 F200.000
G1 X64.726 Y-35.405 Z-2.685 F200.000
G1 X64.811 Y-35.450 Z-2.693 F200.000
G1 X64.903 Y-35.477 Z-2.702 F200.000
G1 X64.998 Y-35.486 Z-2.711 F200.000
G1 X65.094 Y-35.476 Z-2.719 F200.000
G1 X65.186 Y-35.448 Z-2.728 F200.000
G1 X65.270 Y-35.403 Z-2.736 F200.000
G1 X65.344 Y-35.341 Z-2.745 F200.000
G1 X65.405 Y-35.267 Z-2.753 F200.000
G1 X65.450 Y-35.182 Z-2.762 F200.000
G1 X65.477 Y-35.090 Z-2.771 F200.000
G1 X65.486 Y-34.994 Z-2.779 F200.000
G1 X65.476 Y-34.899 Z-2.788 F200.000
G1 X65.448 Y-34.807 Z-2.796 F200.000
G1 X65.403 Y-34.722 Z-2.805 F200.000
G1 X65.341 Y-34.648 Z-2.814 F200.000
G1 X65.267 Y-34.588 Z-2.822 F200.000
G1 X65.182 Y-34.543 Z-2.831 F200.000
G1 X65.090 Y-34.515 Z-2.839 F200.000
G1 X64.994 Y-34.506 Z-2.848 F200.000
G1 X64.899 Y-34.516 Z-2.857 F200.000
G1 X64.807 Y-34.544 Z-2.865 F200.000
G1 X64.722 Y-34.590 Z-2.874 F200.000
G1 X64.648 Y-34.651 Z-2.882 F200.000
G1 X64.588 Y-34.726 Z-2.891 F200.000
G1 X64.543 Y-34.811 Z-2.899 F200.000
G1 X64.515 Y-34.903 Z-2.908 F200.000
G1 X64.506 Y-34.998 Z-2.917 F200.000
G1 X64.516 Y-35.094 Z-2.925 F200.000
G1 X64.544 Y-35.186 Z-2.934 F200.000
G1 X64.590 Y-35.270 Z-2.942 F200.000
G1 X64.651 Y-35.344 Z-2.951 F200.000
G1 X64.726 Y-35.405 Z-2.960 F200.000
G1 X64.811 Y-35.450 Z-2.968 F200.000
G1 X64.903 Y-35.477 Z-2.977 F200.000
G1 X64.998 Y-35.486 Z-2.985 F200.000
G1 X65.094 Y-35.476 Z-2.994 F200.000
G1 X65.186 Y-35.448 Z-3.003 F200.000
G1 X65.270 Y-35.403 Z-3.011 F200.000
G1 X65.344 Y-35.341 Z-3.020 F200.000
G1 X65.405 Y-35.267 Z-3.028 F200.000
G1 X65.450 Y-35.182 Z-3.037 F200.000
G1 X65.477 Y-35.090 Z-3.046 F200.000
G1 X65.486 Y-34.994 Z-3.054 F200.000
G1 X65.476 Y-34.899 Z-3.063 F200.000
G1 X65.448 Y-34.807 Z-3.071 F200.000
G1 X65.403 Y-34.722 Z-3.080 F200.000
G1 X65.341 Y-34.648 Z-3.088 F200.000
G1 X65.267 Y-34.588 Z-3.097 F200.000
G1 X65.182 Y-34.543 Z-3.106 F200.000
G1 X65.090 Y-34.515 Z-3.114 F200.000
G1 X64.994 Y-34.506 Z-3.123 F200.000
G1 X64.899 Y-34.516 Z-3.131 F200.000
G1 X64.807 Y-34.544 Z-3.140 F200.000
G1 X64.722 Y-34.590 Z-3.149 F200.000
G1 X64.648 Y-34.651 Z-3.157 F200.000
G1 X64.588 Y-34.726 Z-3.166 F200.000
G1 X64.543 Y-34.811 Z-3.174 F200.000
G1 X64.515 Y-34.903 Z-3.183 F200.000
G1 X64.506 Y-34.998 Z-3.192 F200.000
G1 X64.516 Y-35.094 Z-3.200 F200.000
G1 X64.544 Y-35.186 Z-3.209 F200.000
G1 X64.590 Y-35.270 Z-3.217 F200.000
G1 X64.651 Y-35.344 Z-3.226 F200.000
G1 X64.726 Y-35.405 Z-3.234 F200.000
G1 X64.811 Y-35.450 Z-3.243 F200.000
G1 X64.903 Y-35.477 Z-3.252 F200.000
G1 X64.998 Y-35.486 Z-3.260 F200.000
G1 X65.094 Y-35.476 Z-3.269 F200.000
G1 X65.186 Y-35.448 Z-3.277 F200.000
G1 X65.270 Y-35.403 Z-3.286 F200.000
G1 X65.344 Y-35.341 Z-3.295 F200.000
G1 X65.405 Y-35.267 Z-3.303 F200.000
G1 X65.450 Y-35.182 Z-3.312 F200.000
G1 X65.477 Y-35.090 Z-3.320 F200.000
G1 X65.486 Y-34.994 Z-3.329 F200.000
G1 X65.476 Y-34.899 Z-3.338 F200.000
G1 X65.448 Y-34.807 Z-3.346 F200.000
G1 X65.403 Y-34.722 Z-3.355 F200.000
G1 X65.341 Y-34.648 Z-3.363 F200.000
G1 X65.267 Y-34.588 Z-3.372 F200.000
G1 X65.182 Y-34.543 Z-3.380 F200.000
G1 X65.090 Y-34.515 Z-3.389 F200.000
G1 X64.994 Y-34.506 Z-3.398 F200.000
G1 X64.899 Y-34.516 Z-3.406 F200.000
G1 X64.807 Y-34.544 Z-3.415 F200.000
G1 X64.722 Y-34.590 Z-3.423 F200.000
G1 X64.648 Y-34.651 Z-3.432 F200.000
G1 X64.588 Y-34.726 Z-3.441 F200.000
G1 X64.543 Y-34.811 Z-3.449 F200.000
G1 X64.515 Y-34.903 Z-3.458 F200.000
G1 X64.506 Y-34.998 Z-3.466 F200.000
G1 X64.516 Y-35.094 Z-3.475 F200.000
G1 X64.544 Y-35.186 Z-3.484 F200.000
G1 X64.590 Y-35.270 Z-3.492 F200.000
G1 X64.651 Y-35.344 Z-3.501 F200.000
G1 X64.726 Y-35.405 Z-3.509 F200.000
G1 X64.811 Y-35.450 Z-3.518 F200.000
G1 X64.903 Y-35.477 Z-3.526 F200.000
G1 X64.998 Y-35.486 Z-3.535 F200.000
G1 X65.094 Y-35.476 Z-3.544 F200.000
G1 X65.186 Y-35.448 Z-3.552 F200.000
G1 X65.270 Y-35.403 Z-3.561 F200.000
G1 X65.344 Y-35.341 Z-3.569 F200.000
G1 X65.405 Y-35.267 Z-3.578 F200.000
G1 X65.450 Y-35.182 Z-3.587 F200.000
G1 X65.477 Y-35.090 Z-3.595 F200.000
G1 X65.486 Y-34.994 Z-3.604 F200.000
G1 X65.476 Y-34.899 Z-3.612 F200.000
G1 X65.448 Y-34.807 Z-3.621 F200.000
G1 X65.403 Y-34.722 Z-3.630 F200.000
G1 X65.341 Y-34.648 Z-3.638 F200.000
G1 X65.267 Y-34.588 Z-3.647 F200.000
G1 X65.182 Y-34.543 Z-3.655 F200.000
G1 X65.090 Y-34.515 Z-3.664 F200.000
G1 X64.994 Y-34.506 Z-3.673 F200.000
G1 X64.899 Y-34.516 Z-3.681 F200.000
G1 X64.807 Y-34.544 Z-3.690 F200.000
G1 X64.722 Y-34.590 Z-3.698 F200.000
G1 X64.648 Y-34.651 Z-3.707 F200.000
G1 X64.588 Y-34.726 Z-3.715 F200.000
G1 X64.543 Y-34.811 Z-3.724 F200.000
G1 X64.515 Y-34.903 Z-3.733 F200.000
G1 X64.506 Y-34.998 Z-3.741 F200.000
G1 X64.516 Y-35.094 Z-3.750 F200.000
G1 X64.544 Y-35.186 Z-3.758 F200.000
G1 X64.590 Y-35.270 Z-3.767 F200.000
G1 X64.651 Y-35.344 Z-3.776 F200.000
G1 X64.726 Y-35.405 Z-3.784 F200.000
G1 X64.811 Y-35.450 Z-3.793 F200.000
G1 X64.903 Y-35.477 Z-3.801 F200.000
G1 X64.998 Y-35.486 Z-3.810 F200.000
G1 X65.094 Y-35.476 Z-3.819 F200.000
G1 X65.186 Y-35.448 Z-3.827 F200.000
G1 X65.270 Y-35.403 Z-3.836 F200.000
G1 X65.344 Y-35.341 Z-3.844 F200.000
G1 X65.405 Y-35.267 Z-3.853 F200.000
G1 X65.450 Y-35.182 Z-3.861 F200.000
G1 X65.477 Y-35.090 Z-3.870 F200.000
G1 X65.486 Y-34.994 Z-3.879 F200.000
G1 X65.476 Y-34.899 Z-3.887 F200.000
G1 X65.448 Y-34.807 Z-3.896 F200.000
G1 X65.403 Y-34.722 Z-3.904 F200.000
G1 X65.341 Y-34.648 Z-3.913 F200.000
G1 X65.267 Y-34.588 Z-3.922 F200.000
G1 X65.182 Y-34.543 Z-3.930 F200.000
G1 X65.090 Y-34.515 Z-3.939 F200.000
G1 X64.994 Y-34.506 Z-3.947 F200.000
G1 X64.899 Y-34.516 Z-3.956 F200.000
G1 X64.807 Y-34.544 Z-3.965 F200.000
G1 X64.722 Y-34.590 Z-3.973 F200.000
G1 X64.648 Y-34.651 Z-3.982 F200.000
G1 X64.588 Y-34.726 Z-3.990 F200.000
G1 X64.543 Y-34.811 Z-3.999 F200.000
G1 X64.515 Y-34.903 Z-4.007 F200.000
G1 X64.506 Y-34.998 Z-4.016 F200.000
G1 X64.516 Y-35.094 Z-4.025 F200.000
G1 X64.544 Y-35.186 Z-4.033 F200.000
G1 X64.590 Y-35.270 Z-4.042 F200.000
G1 X64.651 Y-35.344 Z-4.050 F200.000
G1 X64.726 Y-35.405 Z-4.059 F200.000
G1 X64.811 Y-35.450 Z-4.068 F200.000
G1 X64.903 Y-35.477 Z-4.076 F200.000
G1 X64.998 Y-35.486 Z-4.085 F200.000
G1 X65.094 Y-35.476 Z-4.093 F200.000
G1 X65.186 Y-35.448 Z-4.102 F200.000
G1 X65.270 Y-35.403 Z-4.111 F200.000
G1 X65.344 Y-35.341 Z-4.119 F200.000
G1 X65.405 Y-35.267 Z-4.128 F200.000
G1 X65.450 Y-35.182 Z-4.136 F200.000
G1 X65.477 Y-35.090 Z-4.145 F200.000
G1 X65.486 Y-34.994 Z-4.154 F200.000
G1 X65.476 Y-34.899 Z-4.162 F200.000
G1 X65.448 Y-34.807 Z-4.171 F200.000
G1 X65.403 Y-34.722 Z-4.179 F200.000
G1 X65.341 Y-34.648 Z-4.188 F200.000
G1 X65.267 Y-34.588 Z-4.196 F200.000
G1 X65.182 Y-34.543 Z-4.205 F200.000
G1 X65.090 Y-34.515 Z-4.214 F200.000
G1 X64.994 Y-34.506 Z-4.222 F200.000
G1 X64.899 Y-34.516 Z-4.231 F200.000
G1 X64.807 Y-34.544 Z-4.239 F200.000
G1 X64.722 Y-34.590 Z-4.248 F200.000
G1 X64.648 Y-34.651 Z-4.257 F200.000
G1 X64.588 Y-34.726 Z-4.265 F200.000
G1 X64.543 Y-34.811 Z-4.274 F200.000
G1 X64.515 Y-34.903 Z-4.282 F200.000
G1 X64.506 Y-34.998 Z-4.291 F200.000
G1 X64.516 Y-35.094 Z-4.300 F200.000
G1 X64.544 Y-35.186 Z-4.308 F200.000
G1 X64.590 Y-35.270 Z-4.317 F200.000
G1 X64.651 Y-35.344 Z-4.325 F200.000
G1 X64.726 Y-35.405 Z-4.334 F200.000
G1 X64.811 Y-35.450 Z-4.342 F200.000
G1 X64.903 Y-35.477 Z-4.351 F200.000
G1 X64.998 Y-35.486 Z-4.360 F200.000
G1 X65.094 Y-35.476 Z-4.368 F200.000
G1 X65.186 Y-35.448 Z-4.377 F200.000
G1 X65.270 Y-35.403 Z-4.385 F200.000
G1 X65.344 Y-35.341 Z-4.394 F200.000
G1 X65.405 Y-35.267 Z-4.403 F200.000
G1 X65.450 Y-35.182 Z-4.411 F200.000
G1 X65.477 Y-35.090 Z-4.420 F200.000
G1 X65.486 Y-34.994 Z-4.428 F200.000
G1 X65.476 Y-34.899 Z-4.437 F200.000
G1 X65.448 Y-34.807 Z-4.446 F200.000
G1 X65.403 Y-34.722 Z-4.454 F200.000
G1 X65.341 Y-34.648 Z-4.463 F200.000
G1 X65.267 Y-34.588 Z-4.471 F200.000
G1 X65.182 Y-34.543 Z-4.480 F200.000
G1 X65.090 Y-34.515 Z-4.488 F200.000
G1 X64.994 Y-34.506 Z-4.497 F200.000
G1 X64.899 Y-34.516 Z-4.506 F200.000
G1 X64.807 Y-34.544 Z-4.514 F200.000
G1 X64.722 Y-34.590 Z-4.523 F200.000
G1 X64.648 Y-34.651 Z-4.531 F200.000
G1 X64.588 Y-34.726 Z-4.540 F200.000
G1 X64.543 Y-34.811 Z-4.549 F200.000
G1 X64.515 Y-34.903 Z-4.557 F200.000
G1 X64.506 Y-34.998 Z-4.566 F200.000
G1 X64.516 Y-35.094 Z-4.574 F200.000
G1 X64.544 Y-35.186 Z-4.583 F200.000
G1 X64.590 Y-35.270 Z-4.592 F200.000
G1 X64.651 Y-35.344 Z-4.600 F200.000
G1 X64.726 Y-35.405 Z-4.609 F200.000
G1 X64.811 Y-35.450 Z-4.617 F200.000
G1 X64.903 Y-35.477 Z-4.626 F200.000
G1 X64.998 Y-35.486 Z-4.635 F200.000
G1 X65.094 Y-35.476 Z-4.643 F200.000
G1 X65.186 Y-35.448 Z-4.652 F200.000
G1 X65.270 Y-35.403 Z-4.660 F200.000
G1 X65.344 Y-35.341 Z-4.669 F200.000
G1 X65.405 Y-35.267 Z-4.677 F200.000
G1 X65.450 Y-35.182 Z-4.686 F200.000
G1 X65.477 Y-35.090 Z-4.695 F200.000
G1 X65.486 Y-34.994 Z-4.703 F200.000
G1 X65.476 Y-34.899 Z-4.712 F200.000
G1 X65.448 Y-34.807 Z-4.720 F200.000
G1 X65.403 Y-34.722 Z-4.729 F200.000
G1 X65.341 Y-34.648 Z-4.738 F200.000
G1 X65.267 Y-34.588 Z-4.746 F200.000
G1 X65.182 Y-34.543 Z-4.755 F200.000
G1 X65.090 Y-34.515 Z-4.763 F200.000
G1 X64.994 Y-34.506 Z-4.772 F200.000
G1 X64.899 Y-34.516 Z-4.781 F200.000
G1 X64.807 Y-34.544 Z-4.789 F200.000
G1 X64.722 Y-34.590 Z-4.798 F200.000
G1 X64.648 Y-34.651 Z-4.806 F200.000
G1 X64.588 Y-34.726 Z-4.815 F200.000
G1 X64.543 Y-34.811 Z-4.823 F200.000
G1 X64.515 Y-34.903 Z-4.832 F200.000
G1 X64.506 Y-34.998 Z-4.841 F200.000
G1 X64.516 Y-35.094 Z-4.849 F200.000
G1 X64.544 Y-35.186 Z-4.858 F200.000
G1 X64.590 Y-35.270 Z-4.866 F200.000
G1 X64.651 Y-35.344 Z-4.875 F200.000
G1 X64.726 Y-35.405 Z-4.884 F200.000
G1 X64.811 Y-35.450 Z-4.892 F200.000
G1 X64.903 Y-35.477 Z-4.901 F200.000
G1 X64.998 Y-35.486 Z-4.909 F200.000
G1 X65.094 Y-35.476 Z-4.918 F200.000
G1 X65.186 Y-35.448 Z-4.927 F200.000
G1 X65.270 Y-35.403 Z-4.935 F200.000
G1 X65.344 Y-35.341 Z-4.944 F200.000
G1 X65.405 Y-35.267 Z-4.952 F200.000
G1 X65.450 Y-35.182 Z-4.961 F200.000
G1 X65.477 Y-35.090 Z-4.969 F200.000
G1 X65.486 Y-34.994 Z-4.978 F200.000
G1 X65.476 Y-34.899 Z-4.987 F200.000
G1 X65.448 Y-34.807 Z-4.995 F200.000
G1 X65.403 Y-34.722 Z-5.004 F200.000
G1 X65.341 Y-34.648 Z-5.012 F200.000
G1 X65.267 Y-34.588 Z-5.021 F200.000
G1 X65.182 Y-34.543 Z-5.030 F200.000
G1 X65.090 Y-34.515 Z-5.038 F200.000
G1 X64.994 Y-34.506 Z-5.047 F200.000
G1 X64.899 Y-34.516 Z-5.055 F200.000
G1 X64.807 Y-34.544 Z-5.064 F200.000
G1 X64.722 Y-34.590 Z-5.073 F200.000
G1 X64.648 Y-34.651 Z-5.081 F200.000
G1 X64.588 Y-34.726 Z-5.090 F200.000
G1 X64.543 Y-34.811 Z-5.098 F200.000
G1 X64.515 Y-34.903 Z-5.107 F200.000
G1 X64.506 Y-34.998 Z-5.115 F200.000
G1 X64.516 Y-35.094 Z-5.124 F200.000
G1 X64.544 Y-35.186 Z-5.133 F200.000
G1 X64.590 Y-35.270 Z-5.141 F200.000
G1 X64.651 Y-35.344 Z-5.150 F200.000
G1 X64.726 Y-35.405 Z-5.158 F200.000
G1 X64.811 Y-35.450 Z-5.167 F200.000
G1 X64.903 Y-35.477 Z-5.176 F200.000
G1 X64.998 Y-35.486 Z-5.184 F200.000
G1 X65.094 Y-35.476 Z-5.193 F200.000
G1 X65.186 Y-35.448 Z-5.201 F200.000
G1 X65.270 Y-35.403 Z-5.210 F200.000
G1 X65.344 Y-35.341 Z-5.219 F200.000
G1 X65.405 Y-35.267 Z-5.227 F200.000
G1 X65.450 Y-35.182 Z-5.236 F200.000
G1 X65.477 Y-35.090 Z-5.244 F200.000
G1 X65.486 Y-34.994 Z-5.253 F200.000
G1 X65.476 Y-34.899 Z-5.262 F200.000
G1 X65.448 Y-34.807 Z-5.270 F200.000
G1 X65.403 Y-34.722 Z-5.279 F200.000
G1 X65.341 Y-34.648 Z-5.287 F200.000
G1 X65.267 Y-34.588 Z-5.296 F200.000
G1 X65.182 Y-34.543 Z-5.304 F200.000
G1 X65.090 Y-34.515 Z-5.313 F200.000
G1 X64.994 Y-34.506 Z-5.322 F200.000
G1 X64.899 Y-34.516 Z-5.330 F200.000
G1 X64.807 Y-34.544 Z-5.339 F200.000
G1 X64.722 Y-34.590 Z-5.347 F200.000
G1 X64.648 Y-34.651 Z-5.356 F200.000
G1 X64.588 Y-34.726 Z-5.365 F200.000
G1 X64.543 Y-34.811 Z-5.373 F200.000
G1 X64.515 Y-34.903 Z-5.382 F200.000
G1 X64.506 Y-34.998 Z-5.390 F200.000
G1 X64.516 Y-35.094 Z-5.399 F200.000
G1 X64.544 Y-35.186 Z-5.408 F200.000
