(SPINDELBRASH_2)
(T1  D=3.175 CR=0. - ZMIN=-5. - FLAT END MILL)
G90 G94 G91.1 G40 G49 G17
G21

(2D POCKET1)
M5
M9
T1
S5500 M3
G54
M8
G0 X-72.588 Y-20.915
G43 Z10. H1
Z5.
G1 Z2.5 F351.
Y-13.262 Z1.151
G2 X-65.559 Y-4.411 Z-1. R9.087
X-63.5 Y-4.175 R9.087
G1 X63.75
G2 X72.838 Y-13.262 R9.087
G1 Y-57.763
G2 X63.75 Y-66.85 R9.087
G1 X-63.5
G2 X-72.588 Y-57.763 R9.088
G1 Y-13.262
G2 X-65.559 Y-4.411 R9.087
G3 X-65.408 Y-4.18 R0.2
G1 X-65.667 Y-2.778
G3 X-65.908 Y-2.619 R0.2
X-74.412 Y-13.263 R10.913
G1 Y-57.763
G3 X-63.5 Y-68.675 R10.913
G1 X63.75
G3 X74.662 Y-57.763 R10.912
G1 Y-13.262
G3 X63.75 Y-2.35 R10.912
G1 X-63.5
G3 X-63.561 R10.913
X-65.908 Y-2.619 R10.913
X-74.412 Y-13.263 Z-1.453 R10.913
G1 Y-30.995 Z-2.
Y-57.763
G3 X-63.5 Y-68.675 R10.913
G1 X63.75
G3 X74.662 Y-57.763 R10.912
G1 Y-13.262
G3 X63.75 Y-2.35 R10.912
G1 X-63.5
G3 X-63.561 R10.913
X-74.412 Y-13.263 R10.913
G1 Y-30.995
G3 X-74.013 Y-31.011 R0.2
G1 X-72.588 Y-13.263
Y-13.262
G2 X-63.5 Y-4.175 R9.087
G1 X63.75
G2 X72.838 Y-13.262 R9.087
G1 Y-57.763
G2 X63.75 Y-66.85 R9.087
G1 X-63.5
G2 X-72.588 Y-57.763 R9.088
G1 Y-13.263
G3 X-72.684 Y-13.077 R0.228
G1 X-72.95 Y-12.889
G2 X-73.031 Y-12.622 R0.228
G1 X-71.099 Y-7.474
G2 X-70.862 Y-7.327 R0.228
G1 X-70.538 Y-7.36
G3 X-70.343 Y-7.283 R0.228
G2 X-65.559 Y-4.411 Z-3. R9.087
X-63.5 Y-4.175 R9.087
G1 X63.75
G2 X72.838 Y-13.262 R9.087
G1 Y-57.763
G2 X63.75 Y-66.85 R9.087
G1 X-63.5
G2 X-72.588 Y-57.763 R9.088
G1 Y-13.262
G2 X-65.559 Y-4.411 R9.087
G3 X-65.408 Y-4.18 R0.2
G1 X-65.667 Y-2.778
G3 X-65.908 Y-2.619 R0.2
X-74.412 Y-13.263 R10.913
G1 Y-57.763
G3 X-63.5 Y-68.675 R10.913
G1 X63.75
G3 X74.662 Y-57.763 R10.912
G1 Y-13.262
G3 X63.75 Y-2.35 R10.912
G1 X-63.5
G3 X-63.561 R10.913
X-65.908 Y-2.619 R10.913
X-74.412 Y-13.263 Z-3.453 R10.913
G1 Y-30.995 Z-4.
Y-57.763
G3 X-63.5 Y-68.675 R10.913
G1 X63.75
G3 X74.662 Y-57.763 R10.912
G1 Y-13.262
G3 X63.75 Y-2.35 R10.912
G1 X-63.5
G3 X-63.561 R10.913
X-74.412 Y-13.263 R10.913
G1 Y-30.995
G3 X-74.013 Y-31.011 R0.2
G1 X-72.588 Y-13.263
Y-13.262
G2 X-63.5 Y-4.175 R9.087
G1 X63.75
G2 X72.838 Y-13.262 R9.087
G1 Y-57.763
G2 X63.75 Y-66.85 R9.087
G1 X-63.5
G2 X-72.588 Y-57.763 R9.088
G1 Y-13.263
G3 X-72.684 Y-13.077 R0.228
G1 X-72.95 Y-12.889
G2 X-73.031 Y-12.622 R0.228
G1 X-71.099 Y-7.474
G2 X-70.862 Y-7.327 R0.228
G1 X-70.538 Y-7.36
G3 X-70.343 Y-7.283 R0.228
G2 X-65.559 Y-4.411 Z-5. R9.087
X-63.5 Y-4.175 R9.087
G1 X63.75
G2 X72.838 Y-13.262 R9.087
G1 Y-57.763
G2 X63.75 Y-66.85 R9.087
G1 X-63.5
G2 X-72.588 Y-57.763 R9.088
G1 Y-13.262
G2 X-65.559 Y-4.411 R9.087
G3 X-65.408 Y-4.18 R0.2
G1 X-65.667 Y-2.778
G3 X-65.908 Y-2.619 R0.2
X-74.412 Y-13.263 R10.913
G1 Y-57.763
G3 X-63.5 Y-68.675 R10.913
G1 X63.75
G3 X74.662 Y-57.763 R10.912
G1 Y-13.262
G3 X63.75 Y-2.35 R10.912
G1 X-63.5
G3 X-63.561 R10.913
X-65.908 Y-2.619 R10.913
G1 X-65.775 Y-3.207 Z-4.94
G0 Z10.

M9
M30
