(SPINDELBUMP)
(T1  D=3.175 CR=0. - ZMIN=-10. - FLAT END MILL)
G90 G94 G91.1 G40 G49 G17
G21
G28 G91 Z0.
G90

(2D CONTOUR3)
M5
M9
T1 M6
S10000 M3
G54
M8
G0 X-31.161 Y33.689
G43 Z10. H1
Z5.
G1 Z3. F762.
Z2.5
G3 X-18.956 Y12.098 Z-2. R30.913
X18.139 Y61.558 R30.913
X-18.956 Y12.098 R30.913
X10.075 Y7.747 Z-4. R30.913
X-10.891 Y65.909 R30.913
X10.075 Y7.747 R30.913
X22.625 Y16.212 Z-5. R30.913
X-23.442 Y57.444 R30.913
X22.625 Y16.212 R30.913
G0 Z10.

(2D POCKET1)
M8
G0 X-26.464 Y-63.016
Z10.
Z5.
G1 Z2.5 F762.
G3 X-28.962 Y-61.325 Z1.665 R1.508
X-26.464 Y-63.016 Z0.829 R1.508
X-28.962 Y-61.325 Z-0.006 R1.508
X-26.464 Y-63.016 Z-0.842 R1.508
X-26.205 Y-62.171 Z-1. R1.508
X-27.967 R0.881
X-26.158 R0.904
X-30.983 R2.412
X-26.158 R2.412
X-26.298 Y-61.98 R0.2
G1 X-28.718 Y-61.221
G3 X-28.941 Y-61.296 R0.2
X-26.484 Y-63.045 Z-1.835 R1.508
X-26.205 Y-62.171 Z-2. R1.508
X-27.967 R0.881
X-26.158 R0.904
X-30.983 R2.412
X-26.158 R2.412
X-26.298 Y-61.98 R0.2
G1 X-28.718 Y-61.221
G3 X-28.941 Y-61.296 R0.2
X-26.484 Y-63.045 Z-2.835 R1.508
X-26.205 Y-62.171 Z-3. R1.508
X-27.967 R0.881
X-26.158 R0.904
X-30.983 R2.412
X-26.158 R2.412
X-26.298 Y-61.98 R0.2
G1 X-28.718 Y-61.221
G3 X-28.941 Y-61.296 R0.2
X-26.484 Y-63.045 Z-3.835 R1.508
X-26.205 Y-62.171 Z-4. R1.508
X-27.967 R0.881
X-26.158 R0.904
X-30.983 R2.412
X-26.158 R2.412
X-26.298 Y-61.98 R0.2
G1 X-28.718 Y-61.221
G3 X-28.941 Y-61.296 R0.2
X-26.484 Y-63.045 Z-4.835 R1.508
X-26.205 Y-62.171 Z-5. R1.508
X-27.967 R0.881
X-26.158 R0.904
X-30.983 R2.412
X-26.158 R2.412
X-26.298 Y-61.98 R0.2
G1 X-28.718 Y-61.221
G3 X-28.941 Y-61.296 R0.2
X-26.484 Y-63.045 Z-5.835 R1.508
X-26.205 Y-62.171 Z-6. R1.508
X-27.967 R0.881
X-26.158 R0.904
X-30.983 R2.412
X-26.158 R2.412
X-26.298 Y-61.98 R0.2
G1 X-28.718 Y-61.221
G3 X-28.941 Y-61.296 R0.2
X-26.484 Y-63.045 Z-6.835 R1.508
X-26.205 Y-62.171 Z-7. R1.508
X-27.967 R0.881
X-26.158 R0.904
X-30.983 R2.412
X-26.158 R2.412
X-26.298 Y-61.98 R0.2
G1 X-28.718 Y-61.221
G3 X-28.941 Y-61.296 R0.2
X-26.484 Y-63.045 Z-7.835 R1.508
X-26.205 Y-62.171 Z-8. R1.508
X-27.967 R0.881
X-26.158 R0.904
X-30.983 R2.412
X-26.158 R2.412
X-26.298 Y-61.98 R0.2
G1 X-28.718 Y-61.221
G3 X-28.941 Y-61.296 R0.2
X-26.484 Y-63.045 Z-8.835 R1.508
X-26.205 Y-62.171 Z-9. R1.508
X-27.967 R0.881
X-26.158 R0.904
X-30.983 R2.412
X-26.158 R2.412
X-26.298 Y-61.98 R0.2
G1 X-28.718 Y-61.221
G3 X-28.941 Y-61.296 R0.2
X-26.484 Y-63.045 Z-9.835 R1.508
X-26.205 Y-62.171 Z-10. R1.508
X-27.967 R0.881
X-26.158 R0.904
X-30.983 R2.412
X-26.158 R2.412
G1 X-26.762 Z-9.94
G0 Z5.
X29.85 Y-63.019
G1 Z2.5 F762.
G3 X27.353 Y-61.328 Z1.665 R1.508
X29.85 Y-63.019 Z0.829 R1.508
X27.353 Y-61.328 Z-0.006 R1.508
X29.85 Y-63.019 Z-0.842 R1.508
X30.11 Y-62.174 Z-1. R1.508
X28.348 R0.881
X30.156 R0.904
X25.331 R2.412
X30.156 R2.412
X30.016 Y-61.983 R0.2
G1 X27.596 Y-61.224
G3 X27.373 Y-61.299 R0.2
X29.83 Y-63.048 Z-1.835 R1.508
X30.11 Y-62.174 Z-2. R1.508
X28.348 R0.881
X30.156 R0.904
X25.331 R2.412
X30.156 R2.412
X30.016 Y-61.983 R0.2
G1 X27.596 Y-61.224
G3 X27.373 Y-61.299 R0.2
X29.83 Y-63.048 Z-2.835 R1.508
X30.11 Y-62.174 Z-3. R1.508
X28.348 R0.881
X30.156 R0.904
X25.331 R2.412
X30.156 R2.412
X30.016 Y-61.983 R0.2
G1 X27.596 Y-61.224
G3 X27.373 Y-61.299 R0.2
X29.83 Y-63.048 Z-3.835 R1.508
X30.11 Y-62.174 Z-4. R1.508
X28.348 R0.881
X30.156 R0.904
X25.331 R2.412
X30.156 R2.412
X30.016 Y-61.983 R0.2
G1 X27.596 Y-61.224
G3 X27.373 Y-61.299 R0.2
X29.83 Y-63.048 Z-4.835 R1.508
X30.11 Y-62.174 Z-5. R1.508
X28.348 R0.881
X30.156 R0.904
X25.331 R2.412
X30.156 R2.412
X30.016 Y-61.983 R0.2
G1 X27.596 Y-61.224
G3 X27.373 Y-61.299 R0.2
X29.83 Y-63.048 Z-5.835 R1.508
X30.11 Y-62.174 Z-6. R1.508
X28.348 R0.881
X30.156 R0.904
X25.331 R2.412
X30.156 R2.412
X30.016 Y-61.983 R0.2
G1 X27.596 Y-61.224
G3 X27.373 Y-61.299 R0.2
X29.83 Y-63.048 Z-6.835 R1.508
X30.11 Y-62.174 Z-7. R1.508
X28.348 R0.881
X30.156 R0.904
X25.331 R2.412
X30.156 R2.412
X30.016 Y-61.983 R0.2
G1 X27.596 Y-61.224
G3 X27.373 Y-61.299 R0.2
X29.83 Y-63.048 Z-7.835 R1.508
X30.11 Y-62.174 Z-8. R1.508
X28.348 R0.881
X30.156 R0.904
X25.331 R2.412
X30.156 R2.412
X30.016 Y-61.983 R0.2
G1 X27.596 Y-61.224
G3 X27.373 Y-61.299 R0.2
X29.83 Y-63.048 Z-8.835 R1.508
X30.11 Y-62.174 Z-9. R1.508
X28.348 R0.881
X30.156 R0.904
X25.331 R2.412
X30.156 R2.412
X30.016 Y-61.983 R0.2
G1 X27.596 Y-61.224
G3 X27.373 Y-61.299 R0.2
X29.83 Y-63.048 Z-9.835 R1.508
X30.11 Y-62.174 Z-10. R1.508
X28.348 R0.881
X30.156 R0.904
X25.331 R2.412
X30.156 R2.412
G1 X29.553 Z-9.94
G0 Z10.

(2D CONTOUR1)
M8
G0 X25.852 Y25.98
Z10.
Z5.
G1 Z3. F762.
Z2.5
G3 X24.437 Y50.611 Z-2. R28.412
X-25.254 Y23.045 R28.412
X24.437 Y50.611 R28.412
X1.716 Y65.161 Z-4. R28.412
X-2.533 Y8.495 R28.412
X1.716 Y65.161 R28.412
X-22.921 Y54.162 Z-6. R28.412
X22.104 Y19.494 R28.412
X-22.921 Y54.162 R28.412
X-27.257 Y27.532 Z-8. R28.412
X26.44 Y46.124 R28.412
X-27.257 Y27.532 R28.412
X-7.382 Y9.285 Z-10. R28.412
X6.566 Y64.371 R28.412
X-7.382 Y9.285 R28.412
G0 Z5.
X-7.202 Y-37.787
G1 Z3. F762.
Z2.5
G3 X-1.701 Y-57.109 Z-2. R10.913
X1. Y-35.451 R10.913
X-1.701 Y-57.109 R10.913
X8.3 Y-52.932 Z-4. R10.913
X-9.001 Y-39.628 R10.913
X8.3 Y-52.932 R10.913
X9.768 Y-42.193 Z-6. R10.913
X-10.469 Y-50.367 R10.913
X9.768 Y-42.193 R10.913
X1.253 Y-35.486 Z-8. R10.913
X-1.954 Y-57.074 R10.913
X1.253 Y-35.486 R10.913
X-8.203 Y-38.702 Z-9.829 R10.913
X-8.844 Y-39.428 Z-10. R10.913
X8.143 Y-53.132 R10.913
X-8.844 Y-39.428 R10.913
G0 Z10.

(2D CONTOUR2)
M8
G0 X45.174 Y25.521
Z10.
Z5.
G1 Z3. F762.
Z2.5
Y0. Z-2.
Y-71.782
G2 X43.586 Y-73.37 R1.588
G1 X-43.586
G2 X-45.174 Y-71.782 R1.588
G1 Y61.782
G2 X-33.586 Y73.37 R11.588
G1 X33.586
G2 X39.781 Y71.575 R11.588
X45.174 Y61.782 R11.588
G1 Y0.
Y-71.782 Z-3.97
G2 X44.801 Y-72.804 Z-4. R1.587
X43.586 Y-73.37 R1.588
G1 X-43.586
G2 X-45.174 Y-71.782 R1.588
G1 Y61.782
G2 X-33.586 Y73.37 R11.588
G1 X33.586
G2 X39.781 Y71.575 R11.588
X45.174 Y61.782 R11.588
G1 Y-71.782
G2 X44.801 Y-72.804 R1.587
X43.586 Y-73.37 Z-4.038 R1.588
G1 X-27.922 Z-6.
X-43.586
G2 X-45.174 Y-71.782 R1.588
G1 Y61.782
G2 X-33.586 Y73.37 R11.588
G1 X33.586
G2 X39.781 Y71.575 R11.588
X45.174 Y61.782 R11.588
G1 Y-71.782
G2 X43.586 Y-73.37 R1.588
G1 X-27.922
X-43.586 Z-6.43
G2 X-45.174 Y-71.782 Z-6.498 R1.588
G1 Y-17.048 Z-8.
Y61.782
G2 X-33.586 Y73.37 R11.588
G1 X33.586
G2 X39.781 Y71.575 R11.588
X45.174 Y61.782 R11.588
G1 Y-71.782
G2 X43.586 Y-73.37 R1.588
G1 X-27.922
X-43.586
G2 X-45.174 Y-71.782 R1.588
G1 Y-17.048
Y55.844 Z-10.
Y61.782
G2 X-33.586 Y73.37 R11.588
G1 X33.586
G2 X39.781 Y71.575 R11.588
X45.174 Y61.782 R11.588
G1 Y-71.782
G2 X43.586 Y-73.37 R1.588
G1 X-43.586
G2 X-45.174 Y-71.782 R1.588
G1 Y55.844
G0 Z10.

M9
G28 G91 Z0.
G28 X0. Y0.
M30
