(SPINDELLBRASH)
(T1  D=3.175 CR=0. - ZMIN=-10. - FLAT END MILL)
G90 G94 G91.1 G40 G49 G17
G21

(2D CONTOUR2)
M5
M9
T1
S5500 M3
G54
M8
G0 X21.98 Y-54.686
G43 Z10. H1
Z5.
G1 Z2.5 F762.
G3 X40. Y-61.825 Z-1. R26.313 F351.
Y-9.2 R26.313
Y-61.825 R26.313
X52.493 Y-58.67 Z-2. R26.312
X27.507 Y-12.355 R26.312
X52.493 Y-58.67 R26.312
X61.99 Y-49.961 Z-3. R26.313
X18.01 Y-21.064 R26.313
X61.99 Y-49.961 R26.313
X66.214 Y-37.788 Z-4. R26.313
X13.786 Y-33.237 R26.313
X66.214 Y-37.788 R26.313
X64.151 Y-25.069 Z-5. R26.312
X15.849 Y-45.956 R26.312
X64.151 Y-25.069 R26.312
X56.296 Y-14.854 Z-6. R26.313
X23.704 Y-56.171 R26.313
X56.296 Y-14.854 R26.313
X44.534 Y-9.593 Z-7. R26.313
X35.466 Y-61.432 R26.313
X44.534 Y-9.593 R26.313
X31.684 Y-10.549 Z-8. R26.313
X48.316 Y-60.476 R26.313
X31.684 Y-10.549 R26.313
X20.828 Y-17.491 Z-9. R26.313
X59.172 Y-53.534 R26.313
X20.828 Y-17.491 R26.313
X14.57 Y-28.755 Z-10. R26.313
X65.43 Y-42.27 R26.313
X14.57 Y-28.755 R26.313
G0 Z5.
X-64.474 Y-47.556
G1 Z2.5 F762.
G3 X-47.5 Y-56.325 Z-1. R20.813 F351.
Y-14.7 R20.813
Y-56.325 R20.813
X-37.618 Y-53.829 Z-2. R20.813
X-57.382 Y-17.196 R20.813
X-37.618 Y-53.829 R20.813
X-30.106 Y-46.941 Z-3. R20.812
X-64.894 Y-24.084 R20.812
X-30.106 Y-46.941 R20.812
X-26.765 Y-37.312 Z-4. R20.812
X-68.235 Y-33.713 R20.812
X-26.765 Y-37.312 R20.812
X-28.397 Y-27.252 Z-5. R20.812
X-66.603 Y-43.773 R20.812
X-28.397 Y-27.252 R20.812
X-34.61 Y-19.172 Z-6. R20.812
X-60.39 Y-51.853 R20.812
X-34.61 Y-19.172 R20.812
X-43.914 Y-15.011 Z-7. R20.813
X-51.086 Y-56.014 R20.813
X-43.914 Y-15.011 R20.813
X-54.078 Y-15.767 Z-8. R20.813
X-40.922 Y-55.258 R20.813
X-54.078 Y-15.767 R20.813
X-62.665 Y-21.258 Z-9. R20.813
X-32.335 Y-49.767 R20.813
X-62.665 Y-21.258 R20.813
X-64.15 Y-23.025 Z-9.224 R20.813
X-67.614 Y-30.167 Z-10. R20.813
X-27.386 Y-40.858 R20.813
X-67.614 Y-30.167 R20.813
G0 Z5.
X9.933 Y64.976
G1 Z2.5 F762.
G3 X9.806 Y64.822 Z2.465 R2.313 F351.
X13.506 Y62.047 Z1.184 R2.313
X9.806 Y64.822 Z-0.097 R2.313
X11.656 Y61.122 Z-1. R2.313
Y65.747 R2.313
Y61.122 R2.313
X13.127 Y65.219 Z-2. R2.313
X10.186 Y61.65 R2.313
X13.127 Y65.219 R2.313
X9.387 Y62.992 Z-3. R2.312
X13.926 Y63.877 R2.312
X9.387 Y62.992 R2.312
X13.69 Y62.332 Z-4. R2.313
X9.623 Y64.536 R2.313
X13.69 Y62.332 R2.313
X10.788 Y65.578 Z-5. R2.312
X12.525 Y61.291 R2.312
X10.788 Y65.578 R2.312
X10.964 Y61.228 Z-6. R2.312
X12.349 Y65.641 R2.312
X10.964 Y61.228 R2.312
X13.594 Y64.697 Z-7. R2.313
X9.719 Y62.172 R2.313
X13.594 Y64.697 R2.313
X9.358 Y63.692 Z-8. R2.312
X13.955 Y63.177 R2.312
X9.358 Y63.692 R2.312
X13.266 Y61.774 Z-9. R2.312
X10.047 Y65.094 R2.312
X13.266 Y61.774 R2.312
X11.47 Y65.739 Z-10. R2.313
X11.843 Y61.129 R2.313
X11.47 Y65.739 R2.313
G0 Z5.
X48.308 Y54.244
G1 Z2.5 F762.
G3 X31.131 Y54.083 Z-1. R10.813 F351.
X48.431 Y41.108 R10.813
X31.131 Y54.083 R10.813
X29.045 Y48.879 Z-2. R10.812
X50.517 Y46.312 R10.812
X29.045 Y48.879 R10.812
X29.846 Y43.33 Z-3. R10.812
X49.717 Y51.861 R10.812
X29.846 Y43.33 R10.812
X33.318 Y38.928 Z-4. R10.812
X46.245 Y56.263 R10.812
X33.318 Y38.928 R10.812
X38.527 Y36.856 Z-5. R10.813
X41.036 Y58.335 R10.813
X38.527 Y36.856 R10.813
X44.074 Y37.671 Z-6. R10.813
X35.489 Y57.519 R10.813
X44.074 Y37.671 R10.813
X48.467 Y41.155 Z-7. R10.812
X31.096 Y54.035 R10.812
X48.467 Y41.155 R10.812
X50.524 Y46.371 Z-8. R10.813
X29.038 Y48.82 R10.813
X50.524 Y46.371 R10.813
X49.693 Y51.915 Z-9. R10.813
X29.869 Y43.275 R10.813
X49.693 Y51.915 R10.813
X48.431 Y54.083 Z-9.443 R10.813
X46.198 Y56.298 Z-10. R10.813
X33.365 Y38.892 R10.813
X46.198 Y56.298 R10.813
G0 Z5.
X66.247 Y65.082
G1 Z2.5 F762.
G3 X66.121 Y64.928 Z2.465 R2.313 F351.
X69.821 Y62.153 Z1.184 R2.313
X66.121 Y64.928 Z-0.097 R2.313
X67.971 Y61.228 Z-1. R2.313
Y65.853 R2.313
Y61.228 R2.313
X69.441 Y65.325 Z-2. R2.313
X66.5 Y61.756 R2.313
X69.441 Y65.325 R2.313
X65.701 Y63.098 Z-3. R2.312
X70.241 Y63.983 R2.312
X65.701 Y63.098 R2.312
X70.004 Y62.438 Z-4. R2.312
X65.938 Y64.642 R2.312
X70.004 Y62.438 R2.312
X67.102 Y65.684 Z-5. R2.313
X68.839 Y61.397 R2.313
X67.102 Y65.684 R2.313
X67.278 Y61.334 Z-6. R2.312
X68.663 Y65.747 R2.312
X67.278 Y61.334 R2.312
X69.908 Y64.803 Z-7. R2.313
X66.033 Y62.278 R2.313
X69.908 Y64.803 R2.313
X69.821 Y64.928 Z-7.027 R2.313
X65.673 Y63.798 Z-8. R2.312
X70.269 Y63.283 R2.312
X65.673 Y63.798 R2.312
X69.581 Y61.88 Z-9. R2.312
X66.361 Y65.2 R2.312
X69.581 Y61.88 R2.312
X67.784 Y65.845 Z-10. R2.313
X68.158 Y61.235 R2.313
X67.784 Y65.845 R2.313
G0 Z10.

(2D CONTOUR3)
M8
G0 X19.849 Y-74.6
Z10.
Z5.
G1 Z2.5 F762.
X0. Z-1. F351.
X-70.
G2 X-81.588 Y-63.013 R11.588
G1 Y-8.013
G2 X-70. Y3.575 R11.588
G1 X-14.205
G3 X-5.792 Y11.988 R8.413
G1 Y72.989
G2 X-4.205 Y74.576 R1.588
G1 X80. Y74.6
G2 X81.588 Y73.012 R1.588
G1 Y-63.013
G2 X70. Y-74.6 R11.587
G1 X0.
X-47.625 Z-2.
X-70.
G2 X-81.588 Y-63.013 R11.588
G1 Y-8.013
G2 X-70. Y3.575 R11.588
G1 X-14.205
G3 X-5.792 Y11.988 R8.413
G1 Y72.989
G2 X-4.205 Y74.576 R1.588
G1 X80. Y74.6
G2 X81.588 Y73.012 R1.588
G1 Y-63.013
G2 X70. Y-74.6 R11.587
G1 X0.
X-47.625
X-70. Z-2.47
G2 X-81.588 Y-63.013 Z-2.852 R11.588
G1 Y-55.965 Z-3.
Y-8.013
G2 X-70. Y3.575 R11.588
G1 X-14.205
G3 X-5.792 Y11.988 R8.413
G1 Y72.989
G2 X-4.205 Y74.576 R1.588
G1 X80. Y74.6
G2 X81.588 Y73.012 R1.588
G1 Y-63.013
G2 X70. Y-74.6 R11.587
G1 X-47.625
X-70.
G2 X-81.588 Y-63.013 R11.588
G1 Y-55.965
Y-8.34 Z-4.
Y-8.013
G2 X-70. Y3.575 R11.588
G1 X-14.205
G3 X-5.792 Y11.988 R8.413
G1 Y72.989
G2 X-4.205 Y74.576 R1.588
G1 X80. Y74.6
G2 X81.588 Y73.012 R1.588
G1 Y-63.013
G2 X70. Y-74.6 R11.587
G1 X-70.
G2 X-81.588 Y-63.013 R11.588
G1 Y-8.34
Y-8.013 Z-4.007
G2 X-70. Y3.575 Z-4.389 R11.588
G1 X-40.905 Z-5.
X-14.205
G3 X-5.792 Y11.988 R8.413
G1 Y72.989
G2 X-4.205 Y74.576 R1.588
G1 X80. Y74.6
G2 X81.588 Y73.012 R1.588
G1 Y-63.013
G2 X70. Y-74.6 R11.587
G1 X-70.
G2 X-81.588 Y-63.013 R11.588
G1 Y-8.34
Y-8.013
G2 X-70. Y3.575 R11.588
G1 X-40.905
X-14.205 Z-5.561
G3 X-5.792 Y11.988 Z-5.838 R8.413
G1 Y19.698 Z-6.
Y72.989
G2 X-4.205 Y74.576 R1.588
G1 X80. Y74.6
G2 X81.588 Y73.012 R1.588
G1 Y-63.013
G2 X70. Y-74.6 R11.587
G1 X-70.
G2 X-81.588 Y-63.013 R11.588
G1 Y-8.013
G2 X-70. Y3.575 R11.588
G1 X-40.905
X-14.205
G3 X-5.792 Y11.988 R8.413
G1 Y19.698
Y67.322 Z-7.
Y72.989
G2 X-4.205 Y74.576 R1.588
G1 X80. Y74.6
G2 X81.588 Y73.012 R1.588
G1 Y-63.013
G2 X70. Y-74.6 R11.587
G1 X-70.
G2 X-81.588 Y-63.013 R11.588
G1 Y-8.013
G2 X-70. Y3.575 R11.588
G1 X-14.205
G3 X-5.792 Y11.988 R8.413
G1 Y67.322
Y72.989 Z-7.119
G2 X-4.205 Y74.576 Z-7.171 R1.588
G1 X35.26 Y74.587 Z-8.
X80. Y74.6
G2 X81.588 Y73.012 R1.588
G1 Y-63.013
G2 X70. Y-74.6 R11.587
G1 X-70.
G2 X-81.588 Y-63.013 R11.588
G1 Y-8.013
G2 X-70. Y3.575 R11.588
G1 X-14.205
G3 X-5.792 Y11.988 R8.413
G1 Y67.322
Y72.989
G2 X-4.205 Y74.576 R1.588
G1 X35.26 Y74.587
X80. Y74.6 Z-8.939
G2 X81.588 Y73.012 Z-8.992 R1.588
G1 Y72.622 Z-9.
Y-63.013
G2 X70. Y-74.6 R11.587
G1 X-70.
G2 X-81.588 Y-63.013 R11.588
G1 Y-8.013
G2 X-70. Y3.575 R11.588
G1 X-14.205
G3 X-5.792 Y11.988 R8.413
G1 Y72.989
G2 X-4.205 Y74.576 R1.588
G1 X80. Y74.6
G2 X81.588 Y73.012 R1.588
G1 Y72.622
Y24.997 Z-10.
Y-63.013
G2 X70. Y-74.6 R11.587
G1 X-70.
G2 X-81.588 Y-63.013 R11.588
G1 Y-8.013
G2 X-70. Y3.575 R11.588
G1 X-14.205
G3 X-5.792 Y11.988 R8.413
G1 Y72.989
G2 X-4.205 Y74.576 R1.588
G1 X80. Y74.6
G2 X81.588 Y73.012 R1.588
G1 Y24.997
G0 Z10.

M9
M30
