(SPINDELBRASH_3)
(T1  D=3.175 CR=0. - ZMIN=-10. - FLAT END MILL)
G90 G94 G91.1 G40 G49 G17
G21

(2D CONTOUR1)
M5
M9
T1
S5500 M3
G54
M8
G0 X-53.685 Y49.864
G43 Z10. H1
Z5.
G1 Z2.5 F762.
G2 X-39.781 Y61.683 Z-1. R14.088 F351.
Y33.508 R14.088
Y61.683 R14.088
X-33.093 Y59.994 Z-2. R14.088
X-46.47 Y35.197 R14.088
X-33.093 Y59.994 R14.088
X-28.008 Y55.331 Z-3. R14.087
X-51.555 Y39.859 R14.087
X-28.008 Y55.331 R14.087
X-25.747 Y48.813 Z-4. R14.087
X-53.816 Y46.377 R14.087
X-25.747 Y48.813 R14.087
X-26.851 Y42.004 Z-5. R14.087
X-52.712 Y53.187 R14.087
X-26.851 Y42.004 R14.087
X-31.056 Y36.535 Z-6. R14.087
X-48.506 Y58.656 R14.087
X-31.056 Y36.535 R14.087
X-37.354 Y33.718 Z-7. R14.087
X-42.209 Y61.472 R14.087
X-37.354 Y33.718 R14.087
X-44.234 Y34.23 Z-8. R14.087
X-35.329 Y60.961 R14.087
X-44.234 Y34.23 R14.087
X-50.046 Y37.947 Z-9. R14.088
X-29.517 Y57.244 R14.088
X-50.046 Y37.947 R14.088
X-53.396 Y43.977 Z-10. R14.087
X-26.166 Y51.213 R14.087
X-53.396 Y43.977 R14.087
G0 Z10.

(2D CONTOUR4)
M8
G0 X-60.151 Y3.575
Z10.
Z5.
G1 Z2.5 F762.
X-80. Z-1. F351.
X14.205
X-80. Z-2.
X14.205
X-80. Z-3.
X14.205
G0 Z10.

M9
M30
