%
(Turning_clamp)
(T2  D=3.175 CR=0 - ZMIN=-20 - flat end mill)
G90 G94
G17
G21

(Drill1)
M9
T2 M6
S5500 M3
G54
M8
G0 X12.905 Y-12.905
Z10
Z5
Z2
G1 Z-2 F762
G0 Z-1.9
G1 Z-4 F762
G0 Z5
Z-2
G1 Z-6 F762
G0 Z-5.9
G1 Z-8 F762
G0 Z5
Z-6
G1 Z-10 F762
G0 Z-9.9
G1 Z-12 F762
G0 Z5
Z-10
G1 Z-14 F762
G0 Z-13.9
G1 Z-16 F762
G0 Z5
Z-14
G1 Z-18 F762
G0 Z-17.9
G1 Z-20 F762
G0 Z5
X-12.905 Y12.905
Z2
G1 Z-2 F762
G0 Z-1.9
G1 Z-4 F762
G0 Z5
Z-2
G1 Z-6 F762
G0 Z-5.9
G1 Z-8 F762
G0 Z5
Z-6
G1 Z-10 F762
G0 Z-9.9
G1 Z-12 F762
G0 Z5
Z-10
G1 Z-14 F762
G0 Z-13.9
G1 Z-16 F762
G0 Z5
Z-14
G1 Z-18 F762
G0 Z-17.9
G1 Z-20 F762
G0 Z5
Z10

(Pocket1)
M8
X-2.039 Y-0.175
Z10
Z3
G1 Z2.413 F762
G3 X-2.037 Y-0.194 Z2.304 I1.498 J0.175 F350.5
X-2.028 Y-0.249 Z2.209 I1.496 J0.194
X-2.012 Y-0.331 Z2.138 I1.488 J0.248
X-1.986 Y-0.432 Z2.1 I1.471 J0.331
X0.904 Y0.431 Z1.265 I1.445 J0.431
X-1.986 Y-0.432 Z0.429 I-1.445 J-0.431
X0.904 Y0.431 Z-0.406 I1.445 J0.431
X-1.986 Y-0.432 Z-1.242 I-1.445 J-0.431
X0.967 Y0 Z-2 I1.445 J0.431
X-0.968 I-0.968
X3.983 I2.476
X-3.984 I-3.984
X7 I5.492
X-7 I-7
X10.016 I8.508
X-10.017 I-10.016
X13.032 I11.524
X-13.033 I-13.033
X16.048 I14.541
X-16.049 I-16.049
X19.065 I17.557
X-19.065 I-19.065
X22.081 I20.573
X-22.082 I-22.081
X22.081 I22.081
G2 X23.41 Y2.097 I2.32
G3 X24.592 Y4.281 I-0.896 J1.896
G1 X24.491 Y5.008
X23.676 Y8.024
X22.477 Y10.941
X20.918 Y13.688
X19.023 Y16.218
X16.839 Y18.476
X14.359 Y20.463
X11.617 Y22.134
X8.764 Y23.412
X5.749 Y24.328
X2.627 Y24.86
X-0.549 Y24.992
X-3.671 Y24.727
X-6.794 Y24.057
X-9.754 Y23.017
X-12.582 Y21.601
X-15.229 Y19.823
X-17.56 Y17.792
X-19.691 Y15.4
X-21.475 Y12.796
X-22.924 Y9.97
X-23.998 Y7.001
X-24.687 Y3.931
X-24.986 Y0.751
X-24.886 Y-2.373
X-24.556 Y-4.446
X-24.386 Y-5.498
X-23.504 Y-8.515
X-22.235 Y-11.424
X-20.623 Y-14.128
X-18.672 Y-16.621
X-16.421 Y-18.848
X-13.905 Y-20.775
X-11.169 Y-22.364
X-8.247 Y-23.599
X-5.233 Y-24.445
X-2.102 Y-24.91
X-0.019 Y-24.999
X3.165 Y-24.797
X6.288 Y-24.194
X9.278 Y-23.213
X12.101 Y-21.874
X14.793 Y-20.151
X17.236 Y-18.105
X19.369 Y-15.803
X21.194 Y-13.256
X22.707 Y-10.455
X23.849 Y-7.491
X24.597 Y-4.462
X24.965 Y-1.295
X24.931 Y1.828
X24.592 Y4.281
G3 X24.339 Y4.386 I-0.157 J-0.022
G1 X16.26 Y-1.673
G3 X16.266 Y-1.931 I0.095 J-0.127
X17.955 Y0.568 Z-2.835 I0.844 J1.25
X16.266 Y-1.931 Z-3.671 I-0.844 J-1.25
X18.015 Y-1.888 Z-4 I0.844 J1.25
X18.314 Y0.204 I-0.897 J1.196
X16.222 Y0.503 I-1.196 J-0.897
X16.976 Y-0.503 I0.377 J-0.503
X16.222 Y0.503 I-0.377 J0.503
G2 X15.119 Y0.309 I-0.742 J0.989
G3 X14.273 Y-0.425 I-0.193 J-0.632
G1 X14.323 Y-0.739
X14.663 Y-1.406
X15.185 Y-1.928
X15.849 Y-2.27
X16.598 Y-2.392
X17.347 Y-2.271
X18.008 Y-1.933
X18.537 Y-1.402
X18.869 Y-0.75
X18.991 Y-0.002
X18.87 Y0.747
X18.538 Y1.4
X18.012 Y1.928
X17.346 Y2.271
X16.598 Y2.392
X15.849 Y2.27
X15.183 Y1.926
X14.671 Y1.414
X14.328 Y0.747
X14.207 Y-0.004
X14.273 Y-0.425
G3 X14.303 Y-0.518 Z-3.984 I0.314 J0.05
X14.354 Y-0.591 Z-3.939 I0.284 J0.143
X14.407 Y-0.637 Z-3.869 I0.233 J0.215
X14.445 Y-0.66 Z-3.781 I0.181 J0.261
X14.459 Y-0.666 Z-3.683 I0.142 J0.284
G0 Z5
X3.592 Y0.174
Z0.413
G3 X3.59 Y0.193 Z0.304 I-1.498 J-0.175 F350.5
X3.582 Y0.248 Z0.209 I-1.496 J-0.194
X3.565 Y0.331 Z0.138 I-1.488 J-0.248
X3.539 Y0.431 Z0.1 I-1.471 J-0.331
X0.649 Y-0.432 Z-0.735 I-1.445 J-0.431
X3.539 Y0.431 Z-1.571 I1.445 J0.431
X0.649 Y-0.432 Z-2.406 I-1.445 J-0.431
X3.539 Y0.431 Z-3.242 I1.445 J0.431
X0.586 Y0 Z-4 I-1.445 J-0.431
X2.429 I0.922
X-2.43 I-2.43
X5.445 I3.938
X-5.447 I-5.446
X5.445 I5.446
G2 X6.581 Y1.969 I2.275
G3 X7.204 Y4.155 I-0.819 J1.415
G1 X6.937 Y4.654
X5.911 Y5.904
X5.905 Y5.91
X4.638 Y6.949
X3.214 Y7.71
X1.611 Y8.196
X-0.01 Y8.354
X-1.632 Y8.193
X-3.213 Y7.71
X-4.643 Y6.945
X-5.897 Y5.917
X-6.951 Y4.633
X-7.717 Y3.201
X-8.195 Y1.621
X-8.355 Y-0.003
X-8.195 Y-1.627
X-8.139 Y-1.814
X-7.717 Y-3.2
X-6.951 Y-4.635
X-5.895 Y-5.918
X-4.638 Y-6.949
X-3.203 Y-7.716
X-1.633 Y-8.193
X-0.011 Y-8.354
X1.645 Y-8.19
X3.203 Y-7.716
X4.633 Y-6.951
X5.891 Y-5.921
X5.95 Y-5.856
X6.957 Y-4.623
X7.721 Y-3.189
X8.195 Y-1.626
X8.355 Y-0.003
X8.195 Y1.621
X7.722 Y3.188
X7.204 Y4.155
G3 X7.145 Y4.233 Z-3.984 I-0.28 J-0.15
X7.074 Y4.285 Z-3.939 I-0.221 J-0.228
X7.009 Y4.311 Z-3.869 I-0.15 J-0.28
X6.964 Y4.32 Z-3.781 I-0.085 J-0.306
X6.949 Y4.322 Z-3.683 I-0.041 J-0.315
G0 Z5
X0.647 Y16.773
Z0.413
G3 X0.645 Y16.792 Z0.304 I-1.498 J-0.175 F350.5
X0.637 Y16.847 Z0.209 I-1.496 J-0.194
X0.62 Y16.93 Z0.138 I-1.488 J-0.248
X0.594 Y17.03 Z0.1 I-1.471 J-0.331
X-2.296 Y16.168 Z-0.735 I-1.445 J-0.431
X0.594 Y17.03 Z-1.571 I1.445 J0.431
X-2.296 Y16.168 Z-2.406 I-1.445 J-0.431
X0.594 Y17.03 Z-3.242 I1.445 J0.431
X-2.359 Y16.599 Z-4 I-1.445 J-0.431
X0.63 I1.494
X-0.627 I-0.628
X0.63 I0.628
G2 X1.139 Y17.597 I1.232
G3 X1.049 Y18.714 I-0.385 J0.531
G1 X0.728 Y18.876
X-0.01 Y18.99
X-0.739 Y18.874
X-1.395 Y18.54
X-1.929 Y18.012
X-2.276 Y17.337
X-2.392 Y16.604
X-2.387 Y16.561
X-2.277 Y15.865
X-1.94 Y15.202
X-1.393 Y14.656
X-0.739 Y14.323
X-0.01 Y14.208
X0.74 Y14.324
X1.416 Y14.672
X1.934 Y15.191
X2.276 Y15.863
X2.393 Y16.599
X2.276 Y17.338
X1.941 Y17.996
X1.406 Y18.534
X1.049 Y18.714
G3 X0.956 Y18.744 Z-3.984 I-0.143 J-0.284
X0.868 Y18.746 Z-3.939 I-0.05 J-0.314
X0.8 Y18.729 Z-3.869 I0.038 J-0.315
X0.759 Y18.711 Z-3.781 I0.107 J-0.299
X0.745 Y18.704 Z-3.683 I0.148 J-0.281
G0 Z5
X-15.954 Y0.174
Z0.413
G3 X-15.956 Y0.193 Z0.304 I-1.498 J-0.175 F350.5
X-15.964 Y0.248 Z0.209 I-1.496 J-0.194
X-15.98 Y0.331 Z0.138 I-1.488 J-0.248
X-16.007 Y0.431 Z0.1 I-1.471 J-0.331
X-18.897 Y-0.432 Z-0.735 I-1.445 J-0.431
X-16.007 Y0.431 Z-1.571 I1.445 J0.431
X-18.897 Y-0.432 Z-2.406 I-1.445 J-0.431
X-16.007 Y0.431 Z-3.242 I1.445 J0.431
X-18.96 Y0 Z-4 I-1.445 J-0.431
X-15.971 I1.494
X-17.228 I-0.629
X-15.971 I0.629
G2 X-15.461 Y0.998 I1.233
G3 X-15.55 Y2.116 I-0.385 J0.532
G1 X-15.867 Y2.277
X-16.599 Y2.393
X-17.338 Y2.276
X-18.005 Y1.936
X-18.535 Y1.406
X-18.874 Y0.74
X-18.991 Y-0.002
X-18.874 Y-0.739
X-18.541 Y-1.395
X-18.273 Y-1.668
X-18.011 Y-1.93
X-17.939 Y-1.969
X-17.338 Y-2.276
X-16.604 Y-2.392
X-16.562 Y-2.387
X-15.867 Y-2.277
X-15.199 Y-1.939
X-14.663 Y-1.406
X-14.329 Y-0.752
X-14.257 Y-0.32
X-14.207 Y-0.004
X-14.328 Y0.749
X-14.663 Y1.406
X-15.196 Y1.937
X-15.55 Y2.116
G3 X-15.643 Y2.147 Z-3.984 I-0.143 J-0.283
X-15.731 Y2.148 Z-3.939 I-0.05 J-0.313
X-15.799 Y2.132 Z-3.869 I0.038 J-0.315
X-15.841 Y2.114 Z-3.781 I0.106 J-0.299
X-15.854 Y2.107 Z-3.683 I0.147 J-0.281
G0 Z5
X-0.525 Y-16.187
Z0.413
G3 X-0.539 Y-16.2 Z0.304 I1.038 J-1.094 F350.5
X-0.577 Y-16.239 Z0.209 I1.052 J-1.08
X-0.634 Y-16.302 Z0.138 I1.091 J-1.041
X-0.698 Y-16.383 Z0.1 I1.148 J-0.978
X1.726 Y-18.178 Z-0.735 I1.212 J-0.897
X-0.698 Y-16.383 Z-1.571 I-1.212 J0.897
X1.726 Y-18.178 Z-2.406 I1.212 J-0.897
X-0.698 Y-16.383 Z-3.242 I-1.212 J0.897
X1.419 Y-18.487 Z-4 I1.212 J-0.897
X1.717 Y-16.395 I-0.897 J1.195
X-0.375 Y-16.096 I-1.195 J-0.897
X0.379 Y-17.1 I0.377 J-0.502
X-0.375 Y-16.096 I-0.377 J0.502
G2 X-1.479 Y-16.286 I-0.738 J0.983
G3 X-2.326 Y-17.018 I-0.196 J-0.629
G1 X-2.277 Y-17.33
X-2.225 Y-17.436
X-1.926 Y-18.015
X-1.406 Y-18.535
X-0.739 Y-18.874
X-0.011 Y-18.99
X0.751 Y-18.868
X1.406 Y-18.535
X1.94 Y-17.998
X2.276 Y-17.338
X2.393 Y-16.599
X2.277 Y-15.867
X1.936 Y-15.194
X1.416 Y-14.672
X1.075 Y-14.494
X0.742 Y-14.324
X-0.01 Y-14.208
X-0.739 Y-14.323
X-1.394 Y-14.657
X-1.941 Y-15.205
X-2.277 Y-15.87
X-2.393 Y-16.599
X-2.338 Y-16.946
X-2.326 Y-17.018
G3 X-2.296 Y-17.111 Z-3.984 I0.314 J0.05
X-2.246 Y-17.184 Z-3.939 I0.284 J0.143
X-2.193 Y-17.23 Z-3.869 I0.233 J0.215
X-2.154 Y-17.253 Z-3.781 I0.181 J0.261
X-2.14 Y-17.259 Z-3.683 I0.142 J0.284
G0 Z5
X3.592 Y0.174
Z3
G1 Z-1.587 F762
G3 X3.59 Y0.193 Z-1.696 I-1.498 J-0.175 F350.5
X3.582 Y0.248 Z-1.791 I-1.496 J-0.194
X3.565 Y0.331 Z-1.862 I-1.488 J-0.248
X3.539 Y0.431 Z-1.9 I-1.471 J-0.331
X0.649 Y-0.432 Z-2.735 I-1.445 J-0.431
X3.539 Y0.431 Z-3.571 I1.445 J0.431
X0.649 Y-0.432 Z-4.406 I-1.445 J-0.431
X3.539 Y0.431 Z-5.242 I1.445 J0.431
X0.586 Y0 Z-6 I-1.445 J-0.431
X2.429 I0.922
X-2.43 I-2.43
X5.445 I3.938
X-5.447 I-5.446
X5.445 I5.446
G2 X6.581 Y1.969 I2.275
G3 X7.204 Y4.155 I-0.819 J1.415
G1 X6.937 Y4.654
X5.911 Y5.904
X5.905 Y5.91
X4.638 Y6.949
X3.214 Y7.71
X1.611 Y8.196
X-0.01 Y8.354
X-1.632 Y8.193
X-3.213 Y7.71
X-4.643 Y6.945
X-5.897 Y5.917
X-6.951 Y4.633
X-7.717 Y3.201
X-8.195 Y1.621
X-8.355 Y-0.003
X-8.195 Y-1.627
X-8.139 Y-1.814
X-7.717 Y-3.2
X-6.951 Y-4.635
X-5.895 Y-5.918
X-4.638 Y-6.949
X-3.203 Y-7.716
X-1.633 Y-8.193
X-0.011 Y-8.354
X1.645 Y-8.19
X3.203 Y-7.716
X4.633 Y-6.951
X5.891 Y-5.921
X5.95 Y-5.856
X6.957 Y-4.623
X7.721 Y-3.189
X8.195 Y-1.626
X8.355 Y-0.003
X8.195 Y1.621
X7.722 Y3.188
X7.204 Y4.155
G3 X6.991 Y4.221 I-0.14 J-0.075
G1 X1.601 Y1.425
G3 X2.587 Y-1.426 Z-6.835 I0.493 J-1.425
X1.601 Y1.425 Z-7.671 I-0.493 J1.425
X0.586 Y0 Z-8 I0.493 J-1.425
X2.429 I0.922
X-2.43 I-2.43
X5.445 I3.938
X-5.447 I-5.446
X5.445 I5.446
G2 X6.581 Y1.969 I2.275
G3 X7.204 Y4.155 I-0.819 J1.415
G1 X6.937 Y4.654
X5.911 Y5.904
X5.905 Y5.91
X4.638 Y6.949
X3.214 Y7.71
X1.611 Y8.196
X-0.01 Y8.354
X-1.632 Y8.193
X-3.213 Y7.71
X-4.643 Y6.945
X-5.897 Y5.917
X-6.951 Y4.633
X-7.717 Y3.201
X-8.195 Y1.621
X-8.355 Y-0.003
X-8.195 Y-1.627
X-8.139 Y-1.814
X-7.717 Y-3.2
X-6.951 Y-4.635
X-5.895 Y-5.918
X-4.638 Y-6.949
X-3.203 Y-7.716
X-1.633 Y-8.193
X-0.011 Y-8.354
X1.645 Y-8.19
X3.203 Y-7.716
X4.633 Y-6.951
X5.891 Y-5.921
X5.95 Y-5.856
X6.957 Y-4.623
X7.721 Y-3.189
X8.195 Y-1.626
X8.355 Y-0.003
X8.195 Y1.621
X7.722 Y3.188
X7.204 Y4.155
G3 X6.964 Y4.204 I-0.14 J-0.075
G1 X0.329 Y-1.152
G3 X0.481 Y-1.426 I0.1 J-0.124
X-0.505 Y1.425 Z-8.835 I-0.493 J1.425
X0.481 Y-1.426 Z-9.671 I0.493 J-1.425
X1.496 Y0 Z-10 I-0.493 J1.425
X-1.497 I-1.496
X1.496 I1.496
G2 X2.461 Y1.695 I1.972
G3 X2.428 Y3.646 I-0.574 J0.966
G1 X1.635 Y4.082
X1.121 Y4.219
X0.555 Y4.364
X-0.552 Y4.365
X-1.605 Y4.095
X-2.595 Y3.551
X-3.394 Y2.799
X-3.977 Y1.88
X-4.321 Y0.826
X-4.322 Y0.816
X-4.389 Y-0.285
X-4.182 Y-1.366
X-3.717 Y-2.354
X-3.018 Y-3.2
X-2.11 Y-3.859
X-1.09 Y-4.262
X-0.01 Y-4.399
X1.095 Y-4.261
X2.103 Y-3.862
X2.998 Y-3.217
X3.703 Y-2.371
X4.187 Y-1.349
X4.389 Y-0.285
X4.322 Y0.824
X3.977 Y1.88
X3.391 Y2.804
X2.575 Y3.566
X2.428 Y3.646
G3 X2.205 Y3.566 I-0.076 J-0.139
G1 X0.281 Y-1.217
G3 X0.481 Y-1.426 I0.147 J-0.059
X-0.505 Y1.425 Z-10.835 I-0.493 J1.425
X0.481 Y-1.426 Z-11.671 I0.493 J-1.425
X1.496 Y0 Z-12 I-0.493 J1.425
X-1.497 I-1.496
X1.496 I1.496
G2 X2.461 Y1.695 I1.972
G3 X2.428 Y3.646 I-0.574 J0.966
G1 X1.635 Y4.082
X1.121 Y4.219
X0.555 Y4.364
X-0.552 Y4.365
X-1.605 Y4.095
X-2.595 Y3.551
X-3.394 Y2.799
X-3.977 Y1.88
X-4.321 Y0.826
X-4.322 Y0.816
X-4.389 Y-0.285
X-4.182 Y-1.366
X-3.717 Y-2.354
X-3.018 Y-3.2
X-2.11 Y-3.859
X-1.09 Y-4.262
X-0.01 Y-4.399
X1.095 Y-4.261
X2.103 Y-3.862
X2.998 Y-3.217
X3.703 Y-2.371
X4.187 Y-1.349
X4.389 Y-0.285
X4.322 Y0.824
X3.977 Y1.88
X3.391 Y2.804
X2.575 Y3.566
X2.428 Y3.646
G3 X2.205 Y3.566 I-0.076 J-0.139
G1 X0.281 Y-1.217
G3 X0.481 Y-1.426 I0.147 J-0.059
X-0.505 Y1.425 Z-12.835 I-0.493 J1.425
X0.481 Y-1.426 Z-13.671 I0.493 J-1.425
X1.496 Y0 Z-14 I-0.493 J1.425
X-1.497 I-1.496
X1.496 I1.496
G2 X2.461 Y1.695 I1.972
G3 X2.428 Y3.646 I-0.574 J0.966
G1 X1.635 Y4.082
X1.121 Y4.219
X0.555 Y4.364
X-0.552 Y4.365
X-1.605 Y4.095
X-2.595 Y3.551
X-3.394 Y2.799
X-3.977 Y1.88
X-4.321 Y0.826
X-4.322 Y0.816
X-4.389 Y-0.285
X-4.182 Y-1.366
X-3.717 Y-2.354
X-3.018 Y-3.2
X-2.11 Y-3.859
X-1.09 Y-4.262
X-0.01 Y-4.399
X1.095 Y-4.261
X2.103 Y-3.862
X2.998 Y-3.217
X3.703 Y-2.371
X4.187 Y-1.349
X4.389 Y-0.285
X4.322 Y0.824
X3.977 Y1.88
X3.391 Y2.804
X2.575 Y3.566
X2.428 Y3.646
G3 X2.205 Y3.566 I-0.076 J-0.139
G1 X0.281 Y-1.217
G3 X0.481 Y-1.426 I0.147 J-0.059
X-0.505 Y1.425 Z-14.835 I-0.493 J1.425
X0.481 Y-1.426 Z-15.671 I0.493 J-1.425
X1.496 Y0 Z-16 I-0.493 J1.425
X-1.497 I-1.496
X1.496 I1.496
G2 X2.461 Y1.695 I1.972
G3 X2.428 Y3.646 I-0.574 J0.966
G1 X1.635 Y4.082
X1.121 Y4.219
X0.555 Y4.364
X-0.552 Y4.365
X-1.605 Y4.095
X-2.595 Y3.551
X-3.394 Y2.799
X-3.977 Y1.88
X-4.321 Y0.826
X-4.322 Y0.816
X-4.389 Y-0.285
X-4.182 Y-1.366
X-3.717 Y-2.354
X-3.018 Y-3.2
X-2.11 Y-3.859
X-1.09 Y-4.262
X-0.01 Y-4.399
X1.095 Y-4.261
X2.103 Y-3.862
X2.998 Y-3.217
X3.703 Y-2.371
X4.187 Y-1.349
X4.389 Y-0.285
X4.322 Y0.824
X3.977 Y1.88
X3.391 Y2.804
X2.575 Y3.566
X2.428 Y3.646
G3 X2.205 Y3.566 I-0.076 J-0.139
G1 X0.281 Y-1.217
G3 X0.481 Y-1.426 I0.147 J-0.059
X-0.505 Y1.425 Z-16.835 I-0.493 J1.425
X0.481 Y-1.426 Z-17.671 I0.493 J-1.425
X1.496 Y0 Z-18 I-0.493 J1.425
X-1.497 I-1.496
X1.496 I1.496
G2 X2.461 Y1.695 I1.972
G3 X2.428 Y3.646 I-0.574 J0.966
G1 X1.635 Y4.082
X1.121 Y4.219
X0.555 Y4.364
X-0.552 Y4.365
X-1.605 Y4.095
X-2.595 Y3.551
X-3.394 Y2.799
X-3.977 Y1.88
X-4.321 Y0.826
X-4.322 Y0.816
X-4.389 Y-0.285
X-4.182 Y-1.366
X-3.717 Y-2.354
X-3.018 Y-3.2
X-2.11 Y-3.859
X-1.09 Y-4.262
X-0.01 Y-4.399
X1.095 Y-4.261
X2.103 Y-3.862
X2.998 Y-3.217
X3.703 Y-2.371
X4.187 Y-1.349
X4.389 Y-0.285
X4.322 Y0.824
X3.977 Y1.88
X3.391 Y2.804
X2.575 Y3.566
X2.428 Y3.646
G3 X2.205 Y3.566 I-0.076 J-0.139
G1 X0.281 Y-1.217
G3 X0.481 Y-1.426 I0.147 J-0.059
X-0.505 Y1.425 Z-18.835 I-0.493 J1.425
X0.481 Y-1.426 Z-19.671 I0.493 J-1.425
X1.496 Y0 Z-20 I-0.493 J1.425
X-1.497 I-1.496
X1.496 I1.496
G2 X2.461 Y1.695 I1.972
G3 X2.428 Y3.646 I-0.574 J0.966
G1 X1.635 Y4.082
X1.121 Y4.219
X0.555 Y4.364
X-0.552 Y4.365
X-1.605 Y4.095
X-2.595 Y3.551
X-3.394 Y2.799
X-3.977 Y1.88
X-4.321 Y0.826
X-4.322 Y0.816
X-4.389 Y-0.285
X-4.182 Y-1.366
X-3.717 Y-2.354
X-3.018 Y-3.2
X-2.11 Y-3.859
X-1.09 Y-4.262
X-0.01 Y-4.399
X1.095 Y-4.261
X2.103 Y-3.862
X2.998 Y-3.217
X3.703 Y-2.371
X4.187 Y-1.349
X4.389 Y-0.285
X4.322 Y0.824
X3.977 Y1.88
X3.391 Y2.804
X2.575 Y3.566
X2.428 Y3.646
G3 X2.337 Y3.68 Z-19.984 I-0.153 J-0.278
X2.248 Y3.684 Z-19.939 I-0.061 J-0.312
X2.18 Y3.671 Z-19.869 I0.027 J-0.316
X2.138 Y3.654 Z-19.781 I0.096 J-0.303
X2.124 Y3.647 Z-19.683 I0.138 J-0.286
G0 Z10

(2D Contour1)
M8
X-7.993 Y2.458
Z10
Z5
G1 Z3 F762
Z2.5
G2 X7.993 Y-2.458 Z1.583 I7.993 J-2.458 F350.5
X-7.993 Y2.458 Z0.665 I-7.993 J2.458
X7.993 Y-2.458 Z-0.252 I7.993 J-2.458
X-7.993 Y2.458 Z-1.17 I-7.993 J2.458
X8.362 Y0 Z-2 I7.993 J-2.458
X-8.362 I-8.362
X8.362 I8.362
X-8.362 Z-2.917 I-8.362
X8.362 Z-3.835 I8.362
X7.06 Y-4.481 Z-4 I-8.362
X-7.06 Y4.481 I-7.06 J4.481
X7.06 Y-4.481 I7.06 J-4.481
X-7.06 Y4.481 Z-4.917 I-7.06 J4.481
X7.06 Y-4.481 Z-5.835 I7.06 J-4.481
X3.56 Y-7.567 Z-6 I-7.06 J4.481
X-3.56 Y7.567 I-3.56 J7.567
X3.56 Y-7.567 I3.56 J-7.567
X-3.56 Y7.567 Z-6.917 I-3.56 J7.567
X3.56 Y-7.567 Z-7.835 I3.56 J-7.567
X-1.05 Y-8.296 Z-8 I-3.56 J7.567
X1.05 Y8.296 I1.05 J8.296
X-1.05 Y-8.296 I-1.05 J-8.296
G0 Z10

(2D Contour2)
M8
X-4.015 Y-1.831
Z10
Z-3
G1 Z-5 F762
Z-5.5
G2 X4.015 Y1.831 Z-7.944 I4.015 J1.831 F350.5
X-2.648 Y-3.53 Z-10 I-4.015 J-1.831
X2.648 Y3.53 I2.648 J3.53
X-2.648 Y-3.53 I-2.648 J-3.53
X0.319 Y4.401 Z-12 I2.648 J3.53
X-0.319 Y-4.401 I-0.319 J-4.401
X0.319 Y4.401 I0.319 J4.401
X2.11 Y-3.875 Z-14 I-0.319 J-4.401
X-2.11 Y3.875 I-2.11 J3.875
X2.11 Y-3.875 I2.11 J-3.875
X-3.87 Y2.12 Z-16 I-2.11 J3.875
X3.87 Y-2.12 I3.87 J-2.12
X-3.87 Y2.12 I-3.87 J2.12
X4.402 Y0.308 Z-18 I3.87 J-2.12
X-4.402 Y-0.308 I-4.402 J-0.308
X4.402 Y0.308 I4.402 J0.308
X4.412 Y0 Z-18.054 I-4.402 J-0.308
X-3.537 Y-2.638 Z-20 I-4.412
X3.537 Y2.638 I3.537 J2.638
X-3.537 Y-2.638 I-3.537 J-2.638
G0 Z10

(2D Contour3)
M8
X21.778 Y-15.251
Z10
Z3
G1 Z1 F762
Z0.5
G2 X0 Y-26.587 Z-4 I-21.778 J15.251 F350.5
Y26.587 J26.587
Y-26.587 J-26.587
X-22.22 Y-14.6 Z-6 J26.587
X22.22 Y14.6 I22.22 J14.6
X-22.22 Y-14.6 I-22.22 J-14.6
X-24.403 Y10.553 Z-8 I22.22 J14.6
X24.403 Y-10.553 I24.403 J-10.553
X-24.403 Y10.553 I-24.403 J10.553
X-4.581 Y26.19 Z-10 I24.403 J-10.553
X4.581 Y-26.19 I4.581 J-26.19
X-4.581 Y26.19 I-4.581 J26.19
X19.372 Y18.21 Z-12 I4.581 J-26.19
X-19.372 Y-18.21 I-19.372 J-18.21
X19.372 Y18.21 I19.372 J18.21
X25.857 Y-6.191 Z-14 I-19.372 J-18.21
X-25.857 Y6.191 I-25.857 J6.191
X25.857 Y-6.191 I25.857 J-6.191
X9.025 Y-25.009 Z-16 I-25.857 J6.191
X-9.025 Y25.009 I-9.025 J25.009
X9.025 Y-25.009 I9.025 J-25.009
X-15.945 Y-21.275 Z-18 I-9.025 J25.009
X15.945 Y21.275 I15.945 J21.275
X-15.945 Y-21.275 I-15.945 J-21.275
G1 X-15.952 Y-21.27
G2 X-26.536 Y1.652 Z-20 I15.952 J21.27
X26.536 Y-1.652 I26.536 J-1.652
X-26.536 Y1.652 I-26.536 J1.652
G0 Z10
M9
M30
%
