(_BK12)
(T1  D=3. CR=0. - ZMIN=-10. - FLAT END MILL)
G90 G94 G91.1 G40 G49 G17
G21

(POCKET1)
M5
M9
T1
S10000 M3
G54
M8
G0 X6.548 Y7.326
G43 Z10. H1
Z4.
G1 Z3.449 F200.
G3 X6.537 Y7.32 Z3.361 R0.925 F720.
X6.503 Y7.301 Z3.281 R0.925
X6.453 Y7.269 Z3.216 R0.925
X6.392 Y7.223 Z3.171 R0.925
X6.327 Y7.166 Z3.15 R0.925
X7.622 Y5.844 Z2.896 R0.925
X6.327 Y7.166 Z2.642 R0.925
X7.622 Y5.844 Z2.387 R0.925
X6.327 Y7.166 Z2.133 R0.925
X7.622 Y5.844 Z1.879 R0.925
X6.327 Y7.166 Z1.625 R0.925
X7.622 Y5.844 Z1.37 R0.925
X6.327 Y7.166 Z1.116 R0.925
X7.622 Y5.844 Z0.862 R0.925
X6.327 Y7.166 Z0.608 R0.925
X7.622 Y5.844 Z0.353 R0.925
X6.327 Y7.166 Z0.099 R0.925
X7.622 Y5.844 Z-0.155 R0.925
X6.327 Y7.166 Z-0.409 R0.925
X7.622 Y5.844 Z-0.664 R0.925
X6.327 Y7.166 Z-0.918 R0.925
X7.622 Y5.844 Z-1.172 R0.925
X6.327 Y7.166 Z-1.426 R0.925
X7.622 Y5.844 Z-1.681 R0.925
X6.327 Y7.166 Z-1.935 R0.925
X7.622 Y5.844 Z-2.189 R0.925
X6.327 Y7.166 Z-2.443 R0.925
X7.622 Y5.844 Z-2.698 R0.925
X6.327 Y7.166 Z-2.952 R0.925
X6.068 Y6.688 Z-3. R0.925
G1 X6.03 Y6.499
X6.103 Y6.129
X6.265 Y5.887
X6.313 Y5.814
X6.633 Y5.602
X6.998 Y5.53
X7.372 Y5.604
X7.686 Y5.814
X7.895 Y6.125
X7.906 Y6.176
X7.97 Y6.498
X7.893 Y6.877
X7.686 Y7.186
X7.372 Y7.396
X6.999 Y7.47
X6.624 Y7.394
X6.314 Y7.186
X6.106 Y6.875
X6.068 Y6.688
G3 X6.066 Y6.644 R0.143
G1 X6.121 Y6.163
G3 X6.133 Y6.12 R0.143
X7.816 Y6.89 Z-3.254 R0.925
X6.133 Y6.12 Z-3.508 R0.925
X7.816 Y6.89 Z-3.763 R0.925
X6.133 Y6.12 Z-4.017 R0.925
X7.816 Y6.89 Z-4.271 R0.925
X6.133 Y6.12 Z-4.525 R0.925
X7.816 Y6.89 Z-4.78 R0.925
X6.133 Y6.12 Z-5.034 R0.925
X7.816 Y6.89 Z-5.288 R0.925
X6.133 Y6.12 Z-5.542 R0.925
X7.816 Y6.89 Z-5.797 R0.925
X6.068 Y6.688 Z-6. R0.925
G1 X6.03 Y6.499
X6.103 Y6.129
X6.265 Y5.887
X6.313 Y5.814
X6.633 Y5.602
X6.998 Y5.53
X7.372 Y5.604
X7.686 Y5.814
X7.895 Y6.125
X7.906 Y6.176
X7.97 Y6.498
X7.893 Y6.877
X7.686 Y7.186
X7.372 Y7.396
X6.999 Y7.47
X6.624 Y7.394
X6.314 Y7.186
X6.106 Y6.875
X6.068 Y6.688
G3 X6.066 Y6.644 R0.143
G1 X6.121 Y6.163
G3 X6.133 Y6.12 R0.143
X7.816 Y6.89 Z-6.254 R0.925
X6.133 Y6.12 Z-6.508 R0.925
X7.816 Y6.89 Z-6.763 R0.925
X6.133 Y6.12 Z-7.017 R0.925
X7.816 Y6.89 Z-7.271 R0.925
X6.133 Y6.12 Z-7.525 R0.925
X7.816 Y6.89 Z-7.78 R0.925
X6.133 Y6.12 Z-8.034 R0.925
X7.816 Y6.89 Z-8.288 R0.925
X6.133 Y6.12 Z-8.542 R0.925
X7.816 Y6.89 Z-8.797 R0.925
X6.068 Y6.688 Z-9. R0.925
G1 X6.03 Y6.499
X6.103 Y6.129
X6.265 Y5.887
X6.313 Y5.814
X6.633 Y5.602
X6.998 Y5.53
X7.372 Y5.604
X7.686 Y5.814
X7.895 Y6.125
X7.906 Y6.176
X7.97 Y6.498
X7.893 Y6.877
X7.686 Y7.186
X7.372 Y7.396
X6.999 Y7.47
X6.624 Y7.394
X6.314 Y7.186
X6.106 Y6.875
X6.068 Y6.688
X6.05 Y6.496
G3 X7.899 Y6.514 Z-9.254 R0.925
X6.05 Y6.496 Z-9.508 R0.925
X7.899 Y6.514 Z-9.763 R0.925
X6.068 Y6.688 Z-10. R0.925
G1 X6.03 Y6.499
X6.103 Y6.129
X6.265 Y5.887
X6.313 Y5.814
X6.633 Y5.602
X6.998 Y5.53
X7.372 Y5.604
X7.686 Y5.814
X7.895 Y6.125
X7.906 Y6.176
X7.97 Y6.498
X7.893 Y6.877
X7.686 Y7.186
X7.372 Y7.396
X6.999 Y7.47
X6.624 Y7.394
X6.314 Y7.186
X6.106 Y6.875
X6.068 Y6.688
G3 X6.064 Y6.596 Z-9.985 R0.3
X6.084 Y6.515 Z-9.943 R0.3
X6.116 Y6.457 Z-9.876 R0.3
X6.143 Y6.424 Z-9.793 R0.3
X6.153 Y6.414 Z-9.7 R0.3
G0 Z5.
X6.263 Y-5.914
Z3.449
G3 X6.254 Y-5.924 Z3.361 R0.925 F720.
X6.231 Y-5.955 Z3.281 R0.925
X6.197 Y-6.004 Z3.216 R0.925
X6.158 Y-6.07 Z3.171 R0.925
X6.121 Y-6.148 Z3.15 R0.925
X7.828 Y-6.862 Z2.896 R0.925
X6.121 Y-6.148 Z2.642 R0.925
X7.828 Y-6.862 Z2.387 R0.925
X6.121 Y-6.148 Z2.133 R0.925
X7.828 Y-6.862 Z1.879 R0.925
X6.121 Y-6.148 Z1.625 R0.925
X7.828 Y-6.862 Z1.37 R0.925
X6.121 Y-6.148 Z1.116 R0.925
X7.828 Y-6.862 Z0.862 R0.925
X6.121 Y-6.148 Z0.608 R0.925
X7.828 Y-6.862 Z0.353 R0.925
X6.121 Y-6.148 Z0.099 R0.925
X7.828 Y-6.862 Z-0.155 R0.925
X6.121 Y-6.148 Z-0.409 R0.925
X7.828 Y-6.862 Z-0.664 R0.925
X6.121 Y-6.148 Z-0.918 R0.925
X7.828 Y-6.862 Z-1.172 R0.925
X6.121 Y-6.148 Z-1.426 R0.925
X7.828 Y-6.862 Z-1.681 R0.925
X6.121 Y-6.148 Z-1.935 R0.925
X7.828 Y-6.862 Z-2.189 R0.925
X6.121 Y-6.148 Z-2.443 R0.925
X7.828 Y-6.862 Z-2.698 R0.925
X6.121 Y-6.148 Z-2.952 R0.925
X6.068 Y-6.688 Z-3. R0.925
G1 X6.106 Y-6.875
X6.265 Y-7.113
X6.314 Y-7.186
X6.624 Y-7.394
X6.999 Y-7.47
X7.366 Y-7.398
X7.44 Y-7.351
X7.686 Y-7.186
X7.893 Y-6.877
X7.97 Y-6.498
X7.897 Y-6.129
X7.686 Y-5.814
X7.372 Y-5.604
X6.998 Y-5.53
X6.633 Y-5.602
X6.313 Y-5.815
X6.106 Y-6.124
X6.09 Y-6.195
X6.03 Y-6.499
X6.068 Y-6.688
G3 X6.084 Y-6.73 R0.143
G1 X6.321 Y-7.151
G3 X6.349 Y-7.186 R0.143
X7.6 Y-5.823 Z-3.254 R0.925
X6.349 Y-7.186 Z-3.508 R0.925
X7.6 Y-5.823 Z-3.763 R0.925
X6.349 Y-7.186 Z-4.017 R0.925
X7.6 Y-5.823 Z-4.271 R0.925
X6.349 Y-7.186 Z-4.525 R0.925
X7.6 Y-5.823 Z-4.78 R0.925
X6.349 Y-7.186 Z-5.034 R0.925
X7.6 Y-5.823 Z-5.288 R0.925
X6.349 Y-7.186 Z-5.542 R0.925
X7.6 Y-5.823 Z-5.797 R0.925
X6.068 Y-6.688 Z-6. R0.925
G1 X6.106 Y-6.875
X6.265 Y-7.113
X6.314 Y-7.186
X6.624 Y-7.394
X6.999 Y-7.47
X7.366 Y-7.398
X7.44 Y-7.351
X7.686 Y-7.186
X7.893 Y-6.877
X7.97 Y-6.498
X7.897 Y-6.129
X7.686 Y-5.814
X7.372 Y-5.604
X6.998 Y-5.53
X6.633 Y-5.602
X6.313 Y-5.815
X6.106 Y-6.124
X6.09 Y-6.195
X6.03 Y-6.499
X6.068 Y-6.688
G3 X6.084 Y-6.73 R0.143
G1 X6.321 Y-7.151
G3 X6.349 Y-7.186 R0.143
X7.6 Y-5.823 Z-6.254 R0.925
X6.349 Y-7.186 Z-6.508 R0.925
X7.6 Y-5.823 Z-6.763 R0.925
X6.349 Y-7.186 Z-7.017 R0.925
X7.6 Y-5.823 Z-7.271 R0.925
X6.349 Y-7.186 Z-7.525 R0.925
X7.6 Y-5.823 Z-7.78 R0.925
X6.349 Y-7.186 Z-8.034 R0.925
X7.6 Y-5.823 Z-8.288 R0.925
X6.349 Y-7.186 Z-8.542 R0.925
X7.6 Y-5.823 Z-8.797 R0.925
X6.068 Y-6.688 Z-9. R0.925
G1 X6.106 Y-6.875
X6.265 Y-7.113
X6.314 Y-7.186
X6.624 Y-7.394
X6.999 Y-7.47
X7.366 Y-7.398
X7.44 Y-7.351
X7.686 Y-7.186
X7.893 Y-6.877
X7.97 Y-6.498
X7.897 Y-6.129
X7.686 Y-5.814
X7.372 Y-5.604
X6.998 Y-5.53
X6.633 Y-5.602
X6.313 Y-5.815
X6.106 Y-6.124
X6.09 Y-6.195
X6.03 Y-6.499
X6.068 Y-6.688
X6.126 Y-6.873
G3 X7.823 Y-6.137 Z-9.254 R0.925
X6.126 Y-6.873 Z-9.508 R0.925
X7.823 Y-6.137 Z-9.763 R0.925
X6.068 Y-6.688 Z-10. R0.925
G1 X6.106 Y-6.875
X6.265 Y-7.113
X6.314 Y-7.186
X6.624 Y-7.394
X6.999 Y-7.47
X7.366 Y-7.398
X7.44 Y-7.351
X7.686 Y-7.186
X7.893 Y-6.877
X7.97 Y-6.498
X7.897 Y-6.129
X7.686 Y-5.814
X7.372 Y-5.604
X6.998 Y-5.53
X6.633 Y-5.602
X6.313 Y-5.815
X6.106 Y-6.124
X6.09 Y-6.195
X6.03 Y-6.499
X6.068 Y-6.688
G3 X6.1 Y-6.775 Z-9.985 R0.3
X6.15 Y-6.841 Z-9.943 R0.3
X6.202 Y-6.883 Z-9.876 R0.3
X6.24 Y-6.903 Z-9.793 R0.3
X6.253 Y-6.908 Z-9.7 R0.3
G0 Z5.
X-0.649 Y-20.301
Z3.449
G3 X-0.64 Y-20.311 Z3.361 R0.925 F720.
X-0.612 Y-20.337 Z3.281 R0.925
X-0.566 Y-20.375 Z3.216 R0.925
X-0.504 Y-20.42 Z3.171 R0.925
X-0.43 Y-20.464 Z3.15 R0.925
X0.444 Y-18.834 Z2.896 R0.925
X-0.43 Y-20.464 Z2.642 R0.925
X0.444 Y-18.834 Z2.387 R0.925
X-0.43 Y-20.464 Z2.133 R0.925
X0.444 Y-18.834 Z1.879 R0.925
X-0.43 Y-20.464 Z1.625 R0.925
X0.444 Y-18.834 Z1.37 R0.925
X-0.43 Y-20.464 Z1.116 R0.925
X0.444 Y-18.834 Z0.862 R0.925
X-0.43 Y-20.464 Z0.608 R0.925
X0.444 Y-18.834 Z0.353 R0.925
X-0.43 Y-20.464 Z0.099 R0.925
X0.444 Y-18.834 Z-0.155 R0.925
X-0.43 Y-20.464 Z-0.409 R0.925
X0.444 Y-18.834 Z-0.664 R0.925
X-0.43 Y-20.464 Z-0.918 R0.925
X0.444 Y-18.834 Z-1.172 R0.925
X-0.43 Y-20.464 Z-1.426 R0.925
X0.444 Y-18.834 Z-1.681 R0.925
X-0.43 Y-20.464 Z-1.935 R0.925
X0.444 Y-18.834 Z-2.189 R0.925
X-0.43 Y-20.464 Z-2.443 R0.925
X0.444 Y-18.834 Z-2.698 R0.925
X-0.43 Y-20.464 Z-2.952 R0.925
X0.103 Y-20.569 Z-3. R0.925
G1 X0.139 Y-20.565
G3 X0.199 Y-20.537 R0.101
G1 X0.259 Y-20.48
G3 X0.362 Y-20.246 R0.338
G1 X0.363 Y-20.197
G3 X0.231 Y-19.864 R0.455
G1 X0.176 Y-19.809
G3 X-0.249 Y-19.62 R0.643
G1 X-0.341 Y-19.616
G3 X-0.915 Y-19.791 R0.886
G1 X-0.982 Y-19.842
G3 X-1.395 Y-20.461 R1.12
G1 X-1.434 Y-20.614
G3 X-1.245 Y-21.768 R1.459
X-0.863 Y-22.19 R1.763
G1 X-0.853 Y-22.197
G3 X-0.334 Y-22.488 R1.839
G1 X-0.311 Y-22.496
G3 X0.331 Y-22.615 R1.993
G1 X0.351 Y-22.616
G3 X1.023 Y-22.52 R2.12
G1 X1.054 Y-22.511
G3 X1.653 Y-22.212 R2.101
G1 X2.008 Y-21.958
X2.359 Y-21.268
X2.48 Y-20.49
X2.36 Y-19.733
X2.007 Y-19.042
X1.459 Y-18.493
X0.753 Y-18.138
X0. Y-18.019
X-0.753 Y-18.138
X-1.46 Y-18.494
X-2.007 Y-19.042
X-2.36 Y-19.733
X-2.48 Y-20.49
X-2.359 Y-21.268
X-2.008 Y-21.958
X-1.451 Y-22.511
X-0.772 Y-22.857
X0. Y-22.981
X0.772 Y-22.857
X1.451 Y-22.511
X2.008 Y-21.958
G0 Z5.
X-0.649 Y-20.301
Z0.449
G3 X-0.64 Y-20.311 Z0.361 R0.925 F720.
X-0.612 Y-20.337 Z0.281 R0.925
X-0.566 Y-20.375 Z0.216 R0.925
X-0.504 Y-20.42 Z0.171 R0.925
X-0.43 Y-20.464 Z0.15 R0.925
X0.444 Y-18.834 Z-0.104 R0.925
X-0.43 Y-20.464 Z-0.358 R0.925
X0.444 Y-18.834 Z-0.613 R0.925
X-0.43 Y-20.464 Z-0.867 R0.925
X0.444 Y-18.834 Z-1.121 R0.925
X-0.43 Y-20.464 Z-1.375 R0.925
X0.444 Y-18.834 Z-1.63 R0.925
X-0.43 Y-20.464 Z-1.884 R0.925
X0.444 Y-18.834 Z-2.138 R0.925
X-0.43 Y-20.464 Z-2.392 R0.925
X0.444 Y-18.834 Z-2.647 R0.925
X-0.43 Y-20.464 Z-2.901 R0.925
X0.444 Y-18.834 Z-3.155 R0.925
X-0.43 Y-20.464 Z-3.409 R0.925
X0.444 Y-18.834 Z-3.664 R0.925
X-0.43 Y-20.464 Z-3.918 R0.925
X0.444 Y-18.834 Z-4.172 R0.925
X-0.43 Y-20.464 Z-4.426 R0.925
X0.444 Y-18.834 Z-4.681 R0.925
X-0.43 Y-20.464 Z-4.935 R0.925
X0.444 Y-18.834 Z-5.189 R0.925
X-0.43 Y-20.464 Z-5.443 R0.925
X0.444 Y-18.834 Z-5.698 R0.925
X-0.43 Y-20.464 Z-5.952 R0.925
X0.103 Y-20.569 Z-6. R0.925
G1 X0.139 Y-20.565
G3 X0.199 Y-20.537 R0.101
G1 X0.259 Y-20.48
G3 X0.362 Y-20.246 R0.338
G1 X0.363 Y-20.197
G3 X0.231 Y-19.864 R0.455
G1 X0.176 Y-19.809
G3 X-0.249 Y-19.62 R0.643
G1 X-0.341 Y-19.616
G3 X-0.915 Y-19.791 R0.886
G1 X-0.982 Y-19.842
G3 X-1.395 Y-20.461 R1.12
G1 X-1.434 Y-20.614
G3 X-1.245 Y-21.768 R1.459
X-0.863 Y-22.19 R1.763
G1 X-0.853 Y-22.197
G3 X-0.334 Y-22.488 R1.839
G1 X-0.311 Y-22.496
G3 X0.331 Y-22.615 R1.993
G1 X0.351 Y-22.616
G3 X1.023 Y-22.52 R2.12
G1 X1.054 Y-22.511
G3 X1.653 Y-22.212 R2.101
G1 X2.008 Y-21.958
X2.359 Y-21.268
X2.48 Y-20.49
X2.36 Y-19.733
X2.007 Y-19.042
X1.459 Y-18.493
X0.753 Y-18.138
X0. Y-18.019
X-0.753 Y-18.138
X-1.46 Y-18.494
X-2.007 Y-19.042
X-2.36 Y-19.733
X-2.48 Y-20.49
X-2.359 Y-21.268
X-2.008 Y-21.958
X-1.451 Y-22.511
X-0.772 Y-22.857
X0. Y-22.981
X0.772 Y-22.857
X1.451 Y-22.511
X2.008 Y-21.958
G0 Z5.
X-0.649 Y-20.301
Z4.
G1 Z-2.551 F200.
G3 X-0.64 Y-20.311 Z-2.639 R0.925 F720.
X-0.612 Y-20.337 Z-2.719 R0.925
X-0.566 Y-20.375 Z-2.784 R0.925
X-0.504 Y-20.42 Z-2.829 R0.925
X-0.43 Y-20.464 Z-2.85 R0.925
X0.444 Y-18.834 Z-3.104 R0.925
X-0.43 Y-20.464 Z-3.358 R0.925
X0.444 Y-18.834 Z-3.613 R0.925
X-0.43 Y-20.464 Z-3.867 R0.925
X0.444 Y-18.834 Z-4.121 R0.925
X-0.43 Y-20.464 Z-4.375 R0.925
X0.444 Y-18.834 Z-4.63 R0.925
X-0.43 Y-20.464 Z-4.884 R0.925
X0.444 Y-18.834 Z-5.138 R0.925
X-0.43 Y-20.464 Z-5.392 R0.925
X0.444 Y-18.834 Z-5.647 R0.925
X-0.43 Y-20.464 Z-5.901 R0.925
X0.444 Y-18.834 Z-6.155 R0.925
X-0.43 Y-20.464 Z-6.409 R0.925
X0.444 Y-18.834 Z-6.664 R0.925
X-0.43 Y-20.464 Z-6.918 R0.925
X0.444 Y-18.834 Z-7.172 R0.925
X-0.43 Y-20.464 Z-7.426 R0.925
X0.444 Y-18.834 Z-7.681 R0.925
X-0.43 Y-20.464 Z-7.935 R0.925
X0.444 Y-18.834 Z-8.189 R0.925
X-0.43 Y-20.464 Z-8.443 R0.925
X0.444 Y-18.834 Z-8.698 R0.925
X-0.43 Y-20.464 Z-8.952 R0.925
X0.103 Y-20.569 Z-9. R0.925
G1 X0.139 Y-20.565
G3 X0.199 Y-20.537 R0.101
G1 X0.259 Y-20.48
G3 X0.362 Y-20.246 R0.338
G1 X0.363 Y-20.197
G3 X0.231 Y-19.864 R0.455
G1 X0.176 Y-19.809
G3 X-0.249 Y-19.62 R0.643
G1 X-0.341 Y-19.616
G3 X-0.915 Y-19.791 R0.886
G1 X-0.982 Y-19.842
G3 X-1.395 Y-20.461 R1.12
G1 X-1.434 Y-20.614
G3 X-1.245 Y-21.768 R1.459
X-0.863 Y-22.19 R1.763
G1 X-0.853 Y-22.197
G3 X-0.334 Y-22.488 R1.839
G1 X-0.311 Y-22.496
G3 X0.331 Y-22.615 R1.993
G1 X0.351 Y-22.616
G3 X1.023 Y-22.52 R2.12
G1 X1.054 Y-22.511
G3 X1.653 Y-22.212 R2.101
G1 X2.008 Y-21.958
X2.359 Y-21.268
X2.48 Y-20.49
X2.36 Y-19.733
X2.007 Y-19.042
X1.459 Y-18.493
X0.753 Y-18.138
X0. Y-18.019
X-0.753 Y-18.138
X-1.46 Y-18.494
X-2.007 Y-19.042
X-2.36 Y-19.733
X-2.48 Y-20.49
X-2.359 Y-21.268
X-2.008 Y-21.958
X-1.451 Y-22.511
X-0.772 Y-22.857
X0. Y-22.981
X0.772 Y-22.857
X1.451 Y-22.511
X2.008 Y-21.958
G0 Z5.
X-0.858 Y-19.978
G1 Z-5.551 F200.
G3 X-0.853 Y-19.99 Z-5.639 R0.925 F720.
X-0.838 Y-20.025 Z-5.719 R0.925
X-0.812 Y-20.079 Z-5.784 R0.925
X-0.774 Y-20.145 Z-5.829 R0.925
X-0.724 Y-20.216 Z-5.85 R0.925
X0.738 Y-19.082 Z-6.104 R0.925
X-0.724 Y-20.216 Z-6.358 R0.925
X0.738 Y-19.082 Z-6.613 R0.925
X-0.724 Y-20.216 Z-6.867 R0.925
X0.738 Y-19.082 Z-7.121 R0.925
X-0.724 Y-20.216 Z-7.375 R0.925
X0.738 Y-19.082 Z-7.63 R0.925
X-0.724 Y-20.216 Z-7.884 R0.925
X0.738 Y-19.082 Z-8.138 R0.925
X-0.724 Y-20.216 Z-8.392 R0.925
X0.738 Y-19.082 Z-8.647 R0.925
X-0.724 Y-20.216 Z-8.901 R0.925
X0.738 Y-19.082 Z-9.155 R0.925
X-0.724 Y-20.216 Z-9.409 R0.925
X0.738 Y-19.082 Z-9.664 R0.925
X-0.724 Y-20.216 Z-9.918 R0.925
X0.103 Y-20.569 Z-10. R0.925
G1 X0.139 Y-20.565
G3 X0.199 Y-20.537 R0.101
G1 X0.259 Y-20.48
G3 X0.362 Y-20.246 R0.338
G1 X0.363 Y-20.197
G3 X0.231 Y-19.864 R0.455
G1 X0.176 Y-19.809
G3 X-0.249 Y-19.62 R0.643
G1 X-0.341 Y-19.616
G3 X-0.915 Y-19.791 R0.886
G1 X-0.982 Y-19.842
G3 X-1.395 Y-20.461 R1.12
G1 X-1.434 Y-20.614
G3 X-1.245 Y-21.768 R1.459
X-0.863 Y-22.19 R1.763
G1 X-0.853 Y-22.197
G3 X-0.334 Y-22.488 R1.839
G1 X-0.311 Y-22.496
G3 X0.331 Y-22.615 R1.993
G1 X0.351 Y-22.616
G3 X1.023 Y-22.52 R2.12
G1 X1.054 Y-22.511
G3 X1.653 Y-22.212 R2.101
G1 X2.008 Y-21.958
X2.359 Y-21.268
X2.48 Y-20.49
X2.36 Y-19.733
X2.007 Y-19.042
X1.459 Y-18.493
X0.753 Y-18.138
X0. Y-18.019
X-0.753 Y-18.138
X-1.46 Y-18.494
X-2.007 Y-19.042
X-2.36 Y-19.733
X-2.48 Y-20.49
X-2.359 Y-21.268
X-2.008 Y-21.958
X-1.451 Y-22.511
X-0.772 Y-22.857
X0. Y-22.981
X0.772 Y-22.857
X1.451 Y-22.511
X2.008 Y-21.958
G0 Z5.
X-40.569 Y-20.893
Z3.449
G3 X-40.556 Y-20.892 Z3.361 R0.925 F720.
X-40.518 Y-20.887 Z3.281 R0.925
X-40.459 Y-20.877 Z3.216 R0.925
X-40.385 Y-20.858 Z3.171 R0.925
X-40.303 Y-20.83 Z3.15 R0.925
X-40.993 Y-19.113 Z2.896 R0.925
X-40.303 Y-20.83 Z2.642 R0.925
X-40.993 Y-19.113 Z2.387 R0.925
X-40.303 Y-20.83 Z2.133 R0.925
X-40.993 Y-19.113 Z1.879 R0.925
X-40.303 Y-20.83 Z1.625 R0.925
X-40.993 Y-19.113 Z1.37 R0.925
X-40.303 Y-20.83 Z1.116 R0.925
X-40.993 Y-19.113 Z0.862 R0.925
X-40.303 Y-20.83 Z0.608 R0.925
X-40.993 Y-19.113 Z0.353 R0.925
X-40.303 Y-20.83 Z0.099 R0.925
X-40.993 Y-19.113 Z-0.155 R0.925
X-40.303 Y-20.83 Z-0.409 R0.925
X-40.993 Y-19.113 Z-0.664 R0.925
X-40.303 Y-20.83 Z-0.918 R0.925
X-40.993 Y-19.113 Z-1.172 R0.925
X-40.303 Y-20.83 Z-1.426 R0.925
X-40.993 Y-19.113 Z-1.681 R0.925
X-40.303 Y-20.83 Z-1.935 R0.925
X-40.993 Y-19.113 Z-2.189 R0.925
X-40.303 Y-20.83 Z-2.443 R0.925
X-40.993 Y-19.113 Z-2.698 R0.925
X-40.303 Y-20.83 Z-2.952 R0.925
X-39.881 Y-20.488 Z-3. R0.925
G1 X-39.83 Y-20.412
G3 X-39.801 Y-20.259 R0.195
G1 X-39.82 Y-20.18
G3 X-39.988 Y-19.941 R0.386
G1 X-40.036 Y-19.91
G3 X-40.431 Y-19.84 R0.524
G1 X-40.528 Y-19.862
G3 X-40.977 Y-20.149 R0.773
G1 X-41.026 Y-20.213
G3 X-41.229 Y-20.851 R0.997
G1 X-41.226 Y-20.934
G3 X-40.928 Y-21.698 R1.233
G1 X-40.813 Y-21.831
G3 X-39.698 Y-22.373 R1.568
X-39.104 Y-22.301 R1.812
G1 X-39.064 Y-22.289
G3 X-38.481 Y-22.012 R2.062
X-37.984 Y-21.532 R2.066
G1 X-37.955 Y-21.493
G3 X-37.669 Y-20.939 R1.978
G1 X-37.52 Y-20.489
X-37.64 Y-19.733
X-37.992 Y-19.043
X-37.998 Y-19.037
X-38.539 Y-18.495
X-38.55 Y-18.489
X-39.247 Y-18.138
X-40. Y-18.019
X-40.752 Y-18.138
X-41.45 Y-18.489
X-42.009 Y-19.045
X-42.355 Y-19.724
X-42.48 Y-20.492
X-42.36 Y-21.266
X-42.29 Y-21.403
X-42.012 Y-21.949
X-41.464 Y-22.501
X-40.775 Y-22.855
X-39.999 Y-22.981
X-39.24 Y-22.861
X-38.532 Y-22.497
X-37.997 Y-21.962
X-37.978 Y-21.931
X-37.646 Y-21.279
X-37.52 Y-20.489
G0 Z5.
X-40.569 Y-20.893
Z0.449
G3 X-40.556 Y-20.892 Z0.361 R0.925 F720.
X-40.518 Y-20.887 Z0.281 R0.925
X-40.459 Y-20.877 Z0.216 R0.925
X-40.385 Y-20.858 Z0.171 R0.925
X-40.303 Y-20.83 Z0.15 R0.925
X-40.993 Y-19.113 Z-0.104 R0.925
X-40.303 Y-20.83 Z-0.358 R0.925
X-40.993 Y-19.113 Z-0.613 R0.925
X-40.303 Y-20.83 Z-0.867 R0.925
X-40.993 Y-19.113 Z-1.121 R0.925
X-40.303 Y-20.83 Z-1.375 R0.925
X-40.993 Y-19.113 Z-1.63 R0.925
X-40.303 Y-20.83 Z-1.884 R0.925
X-40.993 Y-19.113 Z-2.138 R0.925
X-40.303 Y-20.83 Z-2.392 R0.925
X-40.993 Y-19.113 Z-2.647 R0.925
X-40.303 Y-20.83 Z-2.901 R0.925
X-40.993 Y-19.113 Z-3.155 R0.925
X-40.303 Y-20.83 Z-3.409 R0.925
X-40.993 Y-19.113 Z-3.664 R0.925
X-40.303 Y-20.83 Z-3.918 R0.925
X-40.993 Y-19.113 Z-4.172 R0.925
X-40.303 Y-20.83 Z-4.426 R0.925
X-40.993 Y-19.113 Z-4.681 R0.925
X-40.303 Y-20.83 Z-4.935 R0.925
X-40.993 Y-19.113 Z-5.189 R0.925
X-40.303 Y-20.83 Z-5.443 R0.925
X-40.993 Y-19.113 Z-5.698 R0.925
X-40.303 Y-20.83 Z-5.952 R0.925
X-39.881 Y-20.488 Z-6. R0.925
G1 X-39.83 Y-20.412
G3 X-39.801 Y-20.259 R0.195
G1 X-39.82 Y-20.18
G3 X-39.988 Y-19.941 R0.386
G1 X-40.036 Y-19.91
G3 X-40.431 Y-19.84 R0.524
G1 X-40.528 Y-19.862
G3 X-40.977 Y-20.149 R0.773
G1 X-41.026 Y-20.213
G3 X-41.229 Y-20.851 R0.997
G1 X-41.226 Y-20.934
G3 X-40.928 Y-21.698 R1.233
G1 X-40.813 Y-21.831
G3 X-39.698 Y-22.373 R1.568
X-39.104 Y-22.301 R1.812
G1 X-39.064 Y-22.289
G3 X-38.481 Y-22.012 R2.062
X-37.984 Y-21.532 R2.066
G1 X-37.955 Y-21.493
G3 X-37.669 Y-20.939 R1.978
G1 X-37.52 Y-20.489
X-37.64 Y-19.733
X-37.992 Y-19.043
X-37.998 Y-19.037
X-38.539 Y-18.495
X-38.55 Y-18.489
X-39.247 Y-18.138
X-40. Y-18.019
X-40.752 Y-18.138
X-41.45 Y-18.489
X-42.009 Y-19.045
X-42.355 Y-19.724
X-42.48 Y-20.492
X-42.36 Y-21.266
X-42.29 Y-21.403
X-42.012 Y-21.949
X-41.464 Y-22.501
X-40.775 Y-22.855
X-39.999 Y-22.981
X-39.24 Y-22.861
X-38.532 Y-22.497
X-37.997 Y-21.962
X-37.978 Y-21.931
X-37.646 Y-21.279
X-37.52 Y-20.489
G0 Z5.
X-40.569 Y-20.893
Z4.
G1 Z-2.551 F200.
G3 X-40.556 Y-20.892 Z-2.639 R0.925 F720.
X-40.518 Y-20.887 Z-2.719 R0.925
X-40.459 Y-20.877 Z-2.784 R0.925
X-40.385 Y-20.858 Z-2.829 R0.925
X-40.303 Y-20.83 Z-2.85 R0.925
X-40.993 Y-19.113 Z-3.104 R0.925
X-40.303 Y-20.83 Z-3.358 R0.925
X-40.993 Y-19.113 Z-3.613 R0.925
X-40.303 Y-20.83 Z-3.867 R0.925
X-40.993 Y-19.113 Z-4.121 R0.925
X-40.303 Y-20.83 Z-4.375 R0.925
X-40.993 Y-19.113 Z-4.63 R0.925
X-40.303 Y-20.83 Z-4.884 R0.925
X-40.993 Y-19.113 Z-5.138 R0.925
X-40.303 Y-20.83 Z-5.392 R0.925
X-40.993 Y-19.113 Z-5.647 R0.925
X-40.303 Y-20.83 Z-5.901 R0.925
X-40.993 Y-19.113 Z-6.155 R0.925
X-40.303 Y-20.83 Z-6.409 R0.925
X-40.993 Y-19.113 Z-6.664 R0.925
X-40.303 Y-20.83 Z-6.918 R0.925
X-40.993 Y-19.113 Z-7.172 R0.925
X-40.303 Y-20.83 Z-7.426 R0.925
X-40.993 Y-19.113 Z-7.681 R0.925
X-40.303 Y-20.83 Z-7.935 R0.925
X-40.993 Y-19.113 Z-8.189 R0.925
X-40.303 Y-20.83 Z-8.443 R0.925
X-40.993 Y-19.113 Z-8.698 R0.925
X-40.303 Y-20.83 Z-8.952 R0.925
X-39.881 Y-20.488 Z-9. R0.925
G1 X-39.83 Y-20.412
G3 X-39.801 Y-20.259 R0.195
G1 X-39.82 Y-20.18
G3 X-39.988 Y-19.941 R0.386
G1 X-40.036 Y-19.91
G3 X-40.431 Y-19.84 R0.524
G1 X-40.528 Y-19.862
G3 X-40.977 Y-20.149 R0.773
G1 X-41.026 Y-20.213
G3 X-41.229 Y-20.851 R0.997
G1 X-41.226 Y-20.934
G3 X-40.928 Y-21.698 R1.233
G1 X-40.813 Y-21.831
G3 X-39.698 Y-22.373 R1.568
X-39.104 Y-22.301 R1.812
G1 X-39.064 Y-22.289
G3 X-38.481 Y-22.012 R2.062
X-37.984 Y-21.532 R2.066
G1 X-37.955 Y-21.493
G3 X-37.669 Y-20.939 R1.978
G1 X-37.52 Y-20.489
X-37.64 Y-19.733
X-37.992 Y-19.043
X-37.998 Y-19.037
X-38.539 Y-18.495
X-38.55 Y-18.489
X-39.247 Y-18.138
X-40. Y-18.019
X-40.752 Y-18.138
X-41.45 Y-18.489
X-42.009 Y-19.045
X-42.355 Y-19.724
X-42.48 Y-20.492
X-42.36 Y-21.266
X-42.29 Y-21.403
X-42.012 Y-21.949
X-41.464 Y-22.501
X-40.775 Y-22.855
X-39.999 Y-22.981
X-39.24 Y-22.861
X-38.532 Y-22.497
X-37.997 Y-21.962
X-37.978 Y-21.931
X-37.646 Y-21.279
X-37.52 Y-20.489
G0 Z5.
X-40.951 Y-20.845
G1 Z-5.551 F200.
G3 X-40.938 Y-20.849 Z-5.639 R0.925 F720.
X-40.902 Y-20.861 Z-5.719 R0.925
X-40.844 Y-20.875 Z-5.784 R0.925
X-40.768 Y-20.888 Z-5.829 R0.925
X-40.682 Y-20.896 Z-5.85 R0.925
X-40.613 Y-19.047 Z-6.104 R0.925
X-40.682 Y-20.896 Z-6.358 R0.925
X-40.613 Y-19.047 Z-6.613 R0.925
X-40.682 Y-20.896 Z-6.867 R0.925
X-40.613 Y-19.047 Z-7.121 R0.925
X-40.682 Y-20.896 Z-7.375 R0.925
X-40.613 Y-19.047 Z-7.63 R0.925
X-40.682 Y-20.896 Z-7.884 R0.925
X-40.613 Y-19.047 Z-8.138 R0.925
X-40.682 Y-20.896 Z-8.392 R0.925
X-40.613 Y-19.047 Z-8.647 R0.925
X-40.682 Y-20.896 Z-8.901 R0.925
X-40.613 Y-19.047 Z-9.155 R0.925
X-40.682 Y-20.896 Z-9.409 R0.925
X-40.613 Y-19.047 Z-9.664 R0.925
X-40.682 Y-20.896 Z-9.918 R0.925
X-39.881 Y-20.488 Z-10. R0.925
G1 X-39.83 Y-20.412
G3 X-39.801 Y-20.259 R0.195
G1 X-39.82 Y-20.18
G3 X-39.988 Y-19.941 R0.386
G1 X-40.036 Y-19.91
G3 X-40.431 Y-19.84 R0.524
G1 X-40.528 Y-19.862
G3 X-40.977 Y-20.149 R0.773
G1 X-41.026 Y-20.213
G3 X-41.229 Y-20.851 R0.997
G1 X-41.226 Y-20.934
G3 X-40.928 Y-21.698 R1.233
G1 X-40.813 Y-21.831
G3 X-39.698 Y-22.373 R1.568
X-39.104 Y-22.301 R1.812
G1 X-39.064 Y-22.289
G3 X-38.481 Y-22.012 R2.062
X-37.984 Y-21.532 R2.066
G1 X-37.955 Y-21.493
G3 X-37.669 Y-20.939 R1.978
G1 X-37.52 Y-20.489
X-37.64 Y-19.733
X-37.992 Y-19.043
X-37.998 Y-19.037
X-38.539 Y-18.495
X-38.55 Y-18.489
X-39.247 Y-18.138
X-40. Y-18.019
X-40.752 Y-18.138
X-41.45 Y-18.489
X-42.009 Y-19.045
X-42.355 Y-19.724
X-42.48 Y-20.492
X-42.36 Y-21.266
X-42.29 Y-21.403
X-42.012 Y-21.949
X-41.464 Y-22.501
X-40.775 Y-22.855
X-39.999 Y-22.981
X-39.24 Y-22.861
X-38.532 Y-22.497
X-37.997 Y-21.962
X-37.978 Y-21.931
X-37.646 Y-21.279
X-37.52 Y-20.489
G0 Z5.
X-40.448 Y19.976
Z3.449
G3 X-40.435 Y19.981 Z3.361 R0.925 F720.
X-40.4 Y19.995 Z3.281 R0.925
X-40.346 Y20.021 Z3.216 R0.925
X-40.279 Y20.058 Z3.171 R0.925
X-40.208 Y20.107 Z3.15 R0.925
X-41.326 Y21.581 Z2.896 R0.925
X-40.208 Y20.107 Z2.642 R0.925
X-41.326 Y21.581 Z2.387 R0.925
X-40.208 Y20.107 Z2.133 R0.925
X-41.326 Y21.581 Z1.879 R0.925
X-40.208 Y20.107 Z1.625 R0.925
X-41.326 Y21.581 Z1.37 R0.925
X-40.208 Y20.107 Z1.116 R0.925
X-41.326 Y21.581 Z0.862 R0.925
X-40.208 Y20.107 Z0.608 R0.925
X-41.326 Y21.581 Z0.353 R0.925
X-40.208 Y20.107 Z0.099 R0.925
X-41.326 Y21.581 Z-0.155 R0.925
X-40.208 Y20.107 Z-0.409 R0.925
X-41.326 Y21.581 Z-0.664 R0.925
X-40.208 Y20.107 Z-0.918 R0.925
X-41.326 Y21.581 Z-1.172 R0.925
X-40.208 Y20.107 Z-1.426 R0.925
X-41.326 Y21.581 Z-1.681 R0.925
X-40.208 Y20.107 Z-1.935 R0.925
X-41.326 Y21.581 Z-2.189 R0.925
X-40.208 Y20.107 Z-2.443 R0.925
X-41.326 Y21.581 Z-2.698 R0.925
X-40.208 Y20.107 Z-2.952 R0.925
X-39.891 Y20.548 Z-3. R0.925
G1 X-39.864 Y20.627
G3 X-39.878 Y20.777 R0.188
G1 X-39.916 Y20.848
G3 X-40.156 Y21.032 R0.372
G1 X-40.227 Y21.049
G3 X-40.627 Y20.991 R0.543
G1 X-40.702 Y20.947
G3 X-41.036 Y20.547 R0.765
G1 X-41.066 Y20.464
G3 X-41.053 Y19.745 R1.002
G1 X-41.023 Y19.67
G3 X-40.522 Y19.082 R1.228
G1 X-40.365 Y18.987
G3 X-39.137 Y18.814 R1.569
X-38.571 Y19.075 R1.904
G1 X-38.562 Y19.081
G3 X-38.1 Y19.518 R1.966
G1 X-38.086 Y19.537
G3 X-37.768 Y20.136 R2.108
G1 X-37.751 Y20.185
G3 X-37.647 Y20.809 R1.963
G1 X-37.646 Y21.279
X-37.993 Y21.958
X-38.532 Y22.497
X-39.24 Y22.861
X-39.999 Y22.981
X-40.775 Y22.855
X-41.464 Y22.501
X-42.012 Y21.949
X-42.36 Y21.265
X-42.48 Y20.492
X-42.355 Y19.724
X-42.009 Y19.045
X-41.45 Y18.489
X-40.752 Y18.138
X-40. Y18.019
X-39.248 Y18.138
X-38.541 Y18.494
X-37.993 Y19.042
X-37.64 Y19.733
X-37.52 Y20.489
X-37.646 Y21.279
G0 Z5.
X-40.448 Y19.976
Z0.449
G3 X-40.435 Y19.981 Z0.361 R0.925 F720.
X-40.4 Y19.995 Z0.281 R0.925
X-40.346 Y20.021 Z0.216 R0.925
X-40.279 Y20.058 Z0.171 R0.925
X-40.208 Y20.107 Z0.15 R0.925
X-41.326 Y21.581 Z-0.104 R0.925
X-40.208 Y20.107 Z-0.358 R0.925
X-41.326 Y21.581 Z-0.613 R0.925
X-40.208 Y20.107 Z-0.867 R0.925
X-41.326 Y21.581 Z-1.121 R0.925
X-40.208 Y20.107 Z-1.375 R0.925
X-41.326 Y21.581 Z-1.63 R0.925
X-40.208 Y20.107 Z-1.884 R0.925
X-41.326 Y21.581 Z-2.138 R0.925
X-40.208 Y20.107 Z-2.392 R0.925
X-41.326 Y21.581 Z-2.647 R0.925
X-40.208 Y20.107 Z-2.901 R0.925
X-41.326 Y21.581 Z-3.155 R0.925
X-40.208 Y20.107 Z-3.409 R0.925
X-41.326 Y21.581 Z-3.664 R0.925
X-40.208 Y20.107 Z-3.918 R0.925
X-41.326 Y21.581 Z-4.172 R0.925
X-40.208 Y20.107 Z-4.426 R0.925
X-41.326 Y21.581 Z-4.681 R0.925
X-40.208 Y20.107 Z-4.935 R0.925
X-41.326 Y21.581 Z-5.189 R0.925
X-40.208 Y20.107 Z-5.443 R0.925
X-41.326 Y21.581 Z-5.698 R0.925
X-40.208 Y20.107 Z-5.952 R0.925
X-39.891 Y20.548 Z-6. R0.925
G1 X-39.864 Y20.627
G3 X-39.878 Y20.777 R0.188
G1 X-39.916 Y20.848
G3 X-40.156 Y21.032 R0.372
G1 X-40.227 Y21.049
G3 X-40.627 Y20.991 R0.543
G1 X-40.702 Y20.947
G3 X-41.036 Y20.547 R0.765
G1 X-41.066 Y20.464
G3 X-41.053 Y19.745 R1.002
G1 X-41.023 Y19.67
G3 X-40.522 Y19.082 R1.228
G1 X-40.365 Y18.987
G3 X-39.137 Y18.814 R1.569
X-38.571 Y19.075 R1.904
G1 X-38.562 Y19.081
G3 X-38.1 Y19.518 R1.966
G1 X-38.086 Y19.537
G3 X-37.768 Y20.136 R2.108
G1 X-37.751 Y20.185
G3 X-37.647 Y20.809 R1.963
G1 X-37.646 Y21.279
X-37.993 Y21.958
X-38.532 Y22.497
X-39.24 Y22.861
X-39.999 Y22.981
X-40.775 Y22.855
X-41.464 Y22.501
X-42.012 Y21.949
X-42.36 Y21.265
X-42.48 Y20.492
X-42.355 Y19.724
X-42.009 Y19.045
X-41.45 Y18.489
X-40.752 Y18.138
X-40. Y18.019
X-39.248 Y18.138
X-38.541 Y18.494
X-37.993 Y19.042
X-37.64 Y19.733
X-37.52 Y20.489
X-37.646 Y21.279
G0 Z5.
X-40.448 Y19.976
Z4.
G1 Z-2.551 F200.
G3 X-40.435 Y19.981 Z-2.639 R0.925 F720.
X-40.4 Y19.995 Z-2.719 R0.925
X-40.346 Y20.021 Z-2.784 R0.925
X-40.279 Y20.058 Z-2.829 R0.925
X-40.208 Y20.107 Z-2.85 R0.925
X-41.326 Y21.581 Z-3.104 R0.925
X-40.208 Y20.107 Z-3.358 R0.925
X-41.326 Y21.581 Z-3.613 R0.925
X-40.208 Y20.107 Z-3.867 R0.925
X-41.326 Y21.581 Z-4.121 R0.925
X-40.208 Y20.107 Z-4.375 R0.925
X-41.326 Y21.581 Z-4.63 R0.925
X-40.208 Y20.107 Z-4.884 R0.925
X-41.326 Y21.581 Z-5.138 R0.925
X-40.208 Y20.107 Z-5.392 R0.925
X-41.326 Y21.581 Z-5.647 R0.925
X-40.208 Y20.107 Z-5.901 R0.925
X-41.326 Y21.581 Z-6.155 R0.925
X-40.208 Y20.107 Z-6.409 R0.925
X-41.326 Y21.581 Z-6.664 R0.925
X-40.208 Y20.107 Z-6.918 R0.925
X-41.326 Y21.581 Z-7.172 R0.925
X-40.208 Y20.107 Z-7.426 R0.925
X-41.326 Y21.581 Z-7.681 R0.925
X-40.208 Y20.107 Z-7.935 R0.925
X-41.326 Y21.581 Z-8.189 R0.925
X-40.208 Y20.107 Z-8.443 R0.925
X-41.326 Y21.581 Z-8.698 R0.925
X-40.208 Y20.107 Z-8.952 R0.925
X-39.891 Y20.548 Z-9. R0.925
G1 X-39.864 Y20.627
G3 X-39.878 Y20.777 R0.188
G1 X-39.916 Y20.848
G3 X-40.156 Y21.032 R0.372
G1 X-40.227 Y21.049
G3 X-40.627 Y20.991 R0.543
G1 X-40.702 Y20.947
G3 X-41.036 Y20.547 R0.765
G1 X-41.066 Y20.464
G3 X-41.053 Y19.745 R1.002
G1 X-41.023 Y19.67
G3 X-40.522 Y19.082 R1.228
G1 X-40.365 Y18.987
G3 X-39.137 Y18.814 R1.569
X-38.571 Y19.075 R1.904
G1 X-38.562 Y19.081
G3 X-38.1 Y19.518 R1.966
G1 X-38.086 Y19.537
G3 X-37.768 Y20.136 R2.108
G1 X-37.751 Y20.185
G3 X-37.647 Y20.809 R1.963
G1 X-37.646 Y21.279
X-37.993 Y21.958
X-38.532 Y22.497
X-39.24 Y22.861
X-39.999 Y22.981
X-40.775 Y22.855
X-41.464 Y22.501
X-42.012 Y21.949
X-42.36 Y21.265
X-42.48 Y20.492
X-42.355 Y19.724
X-42.009 Y19.045
X-41.45 Y18.489
X-40.752 Y18.138
X-40. Y18.019
X-39.248 Y18.138
X-38.541 Y18.494
X-37.993 Y19.042
X-37.64 Y19.733
X-37.52 Y20.489
X-37.646 Y21.279
G0 Z5.
X-40.829 Y19.921
G1 Z-5.551 F200.
G3 X-40.815 Z-5.639 R0.925 F720.
X-40.777 Y19.919 Z-5.719 R0.925
X-40.717 Y19.921 Z-5.784 R0.925
X-40.641 Y19.928 Z-5.829 R0.925
X-40.557 Y19.944 Z-5.85 R0.925
X-40.978 Y21.745 Z-6.104 R0.925
X-40.557 Y19.944 Z-6.358 R0.925
X-40.978 Y21.745 Z-6.613 R0.925
X-40.557 Y19.944 Z-6.867 R0.925
X-40.978 Y21.745 Z-7.121 R0.925
X-40.557 Y19.944 Z-7.375 R0.925
X-40.978 Y21.745 Z-7.63 R0.925
X-40.557 Y19.944 Z-7.884 R0.925
X-40.978 Y21.745 Z-8.138 R0.925
X-40.557 Y19.944 Z-8.392 R0.925
X-40.978 Y21.745 Z-8.647 R0.925
X-40.557 Y19.944 Z-8.901 R0.925
X-40.978 Y21.745 Z-9.155 R0.925
X-40.557 Y19.944 Z-9.409 R0.925
X-40.978 Y21.745 Z-9.664 R0.925
X-40.557 Y19.944 Z-9.918 R0.925
X-39.891 Y20.548 Z-10. R0.925
G1 X-39.864 Y20.627
G3 X-39.878 Y20.777 R0.188
G1 X-39.916 Y20.848
G3 X-40.156 Y21.032 R0.372
G1 X-40.227 Y21.049
G3 X-40.627 Y20.991 R0.543
G1 X-40.702 Y20.947
G3 X-41.036 Y20.547 R0.765
G1 X-41.066 Y20.464
G3 X-41.053 Y19.745 R1.002
G1 X-41.023 Y19.67
G3 X-40.522 Y19.082 R1.228
G1 X-40.365 Y18.987
G3 X-39.137 Y18.814 R1.569
X-38.571 Y19.075 R1.904
G1 X-38.562 Y19.081
G3 X-38.1 Y19.518 R1.966
G1 X-38.086 Y19.537
G3 X-37.768 Y20.136 R2.108
G1 X-37.751 Y20.185
G3 X-37.647 Y20.809 R1.963
G1 X-37.646 Y21.279
X-37.993 Y21.958
X-38.532 Y22.497
X-39.24 Y22.861
X-39.999 Y22.981
X-40.775 Y22.855
X-41.464 Y22.501
X-42.012 Y21.949
X-42.36 Y21.265
X-42.48 Y20.492
X-42.355 Y19.724
X-42.009 Y19.045
X-41.45 Y18.489
X-40.752 Y18.138
X-40. Y18.019
X-39.248 Y18.138
X-38.541 Y18.494
X-37.993 Y19.042
X-37.64 Y19.733
X-37.52 Y20.489
X-37.646 Y21.279
G0 Z5.
X-0.556 Y20.891
Z3.449
G3 X-0.55 Y20.879 Z3.361 R0.925 F720.
X-0.532 Y20.846 Z3.281 R0.925
X-0.5 Y20.795 Z3.216 R0.925
X-0.455 Y20.733 Z3.171 R0.925
X-0.398 Y20.668 Z3.15 R0.925
X0.933 Y21.953 Z2.896 R0.925
X-0.398 Y20.668 Z2.642 R0.925
X0.933 Y21.953 Z2.387 R0.925
X-0.398 Y20.668 Z2.133 R0.925
X0.933 Y21.953 Z1.879 R0.925
X-0.398 Y20.668 Z1.625 R0.925
X0.933 Y21.953 Z1.37 R0.925
X-0.398 Y20.668 Z1.116 R0.925
X0.933 Y21.953 Z0.862 R0.925
X-0.398 Y20.668 Z0.608 R0.925
X0.933 Y21.953 Z0.353 R0.925
X-0.398 Y20.668 Z0.099 R0.925
X0.933 Y21.953 Z-0.155 R0.925
X-0.398 Y20.668 Z-0.409 R0.925
X0.933 Y21.953 Z-0.664 R0.925
X-0.398 Y20.668 Z-0.918 R0.925
X0.933 Y21.953 Z-1.172 R0.925
X-0.398 Y20.668 Z-1.426 R0.925
X0.933 Y21.953 Z-1.681 R0.925
X-0.398 Y20.668 Z-1.935 R0.925
X0.933 Y21.953 Z-2.189 R0.925
X-0.398 Y20.668 Z-2.443 R0.925
X0.933 Y21.953 Z-2.698 R0.925
X-0.398 Y20.668 Z-2.952 R0.925
X0.078 Y20.406 Z-3. R0.925
G1 X0.115 Y20.398
G3 X0.184 Y20.406 R0.109
G1 X0.25 Y20.437
G3 X0.416 Y20.619 R0.322
G1 X0.436 Y20.675
G3 X0.415 Y21.039 R0.462
G1 X0.383 Y21.103
G3 X0.041 Y21.412 R0.636
G1 X-0.048 Y21.446
G3 X-0.654 Y21.456 R0.887
G1 X-0.733 Y21.429
G3 X-1.315 Y20.966 R1.119
G1 X-1.404 Y20.825
G3 X-1.578 Y19.684 R1.454
X-1.347 Y19.167 R1.737
G1 X-1.338 Y19.153
G3 X-0.923 Y18.708 R1.839
G1 X-0.898 Y18.689
G3 X-0.331 Y18.383 R2.029
G1 X-0.322 Y18.379
G3 X0.341 Y18.263 R2.09
G1 X0.402 Y18.262
G3 X1.011 Y18.352 R1.944
G1 X1.46 Y18.494
X2.007 Y19.042
X2.36 Y19.733
X2.48 Y20.49
X2.359 Y21.268
X2.008 Y21.958
X1.451 Y22.511
X0.772 Y22.857
X0. Y22.981
X-0.772 Y22.857
X-1.451 Y22.511
X-2.008 Y21.958
X-2.359 Y21.268
X-2.48 Y20.49
X-2.36 Y19.733
X-2.007 Y19.042
X-1.459 Y18.493
X-0.753 Y18.138
X0. Y18.019
X0.753 Y18.138
X1.46 Y18.494
G0 Z5.
X-0.556 Y20.891
Z0.449
G3 X-0.55 Y20.879 Z0.361 R0.925 F720.
X-0.532 Y20.846 Z0.281 R0.925
X-0.5 Y20.795 Z0.216 R0.925
X-0.455 Y20.733 Z0.171 R0.925
X-0.398 Y20.668 Z0.15 R0.925
X0.933 Y21.953 Z-0.104 R0.925
X-0.398 Y20.668 Z-0.358 R0.925
X0.933 Y21.953 Z-0.613 R0.925
X-0.398 Y20.668 Z-0.867 R0.925
X0.933 Y21.953 Z-1.121 R0.925
X-0.398 Y20.668 Z-1.375 R0.925
X0.933 Y21.953 Z-1.63 R0.925
X-0.398 Y20.668 Z-1.884 R0.925
X0.933 Y21.953 Z-2.138 R0.925
X-0.398 Y20.668 Z-2.392 R0.925
X0.933 Y21.953 Z-2.647 R0.925
X-0.398 Y20.668 Z-2.901 R0.925
X0.933 Y21.953 Z-3.155 R0.925
X-0.398 Y20.668 Z-3.409 R0.925
X0.933 Y21.953 Z-3.664 R0.925
X-0.398 Y20.668 Z-3.918 R0.925
X0.933 Y21.953 Z-4.172 R0.925
X-0.398 Y20.668 Z-4.426 R0.925
X0.933 Y21.953 Z-4.681 R0.925
X-0.398 Y20.668 Z-4.935 R0.925
X0.933 Y21.953 Z-5.189 R0.925
X-0.398 Y20.668 Z-5.443 R0.925
X0.933 Y21.953 Z-5.698 R0.925
X-0.398 Y20.668 Z-5.952 R0.925
X0.078 Y20.406 Z-6. R0.925
G1 X0.115 Y20.398
G3 X0.184 Y20.406 R0.109
G1 X0.25 Y20.437
G3 X0.416 Y20.619 R0.322
G1 X0.436 Y20.675
G3 X0.415 Y21.039 R0.462
G1 X0.383 Y21.103
G3 X0.041 Y21.412 R0.636
G1 X-0.048 Y21.446
G3 X-0.654 Y21.456 R0.887
G1 X-0.733 Y21.429
G3 X-1.315 Y20.966 R1.119
G1 X-1.404 Y20.825
G3 X-1.578 Y19.684 R1.454
X-1.347 Y19.167 R1.737
G1 X-1.338 Y19.153
G3 X-0.923 Y18.708 R1.839
G1 X-0.898 Y18.689
G3 X-0.331 Y18.383 R2.029
G1 X-0.322 Y18.379
G3 X0.341 Y18.263 R2.09
G1 X0.402 Y18.262
G3 X1.011 Y18.352 R1.944
G1 X1.46 Y18.494
X2.007 Y19.042
X2.36 Y19.733
X2.48 Y20.49
X2.359 Y21.268
X2.008 Y21.958
X1.451 Y22.511
X0.772 Y22.857
X0. Y22.981
X-0.772 Y22.857
X-1.451 Y22.511
X-2.008 Y21.958
X-2.359 Y21.268
X-2.48 Y20.49
X-2.36 Y19.733
X-2.007 Y19.042
X-1.459 Y18.493
X-0.753 Y18.138
X0. Y18.019
X0.753 Y18.138
X1.46 Y18.494
G0 Z5.
X-0.556 Y20.891
Z4.
G1 Z-2.551 F200.
G3 X-0.55 Y20.879 Z-2.639 R0.925 F720.
X-0.532 Y20.846 Z-2.719 R0.925
X-0.5 Y20.795 Z-2.784 R0.925
X-0.455 Y20.733 Z-2.829 R0.925
X-0.398 Y20.668 Z-2.85 R0.925
X0.933 Y21.953 Z-3.104 R0.925
X-0.398 Y20.668 Z-3.358 R0.925
X0.933 Y21.953 Z-3.613 R0.925
X-0.398 Y20.668 Z-3.867 R0.925
X0.933 Y21.953 Z-4.121 R0.925
X-0.398 Y20.668 Z-4.375 R0.925
X0.933 Y21.953 Z-4.63 R0.925
X-0.398 Y20.668 Z-4.884 R0.925
X0.933 Y21.953 Z-5.138 R0.925
X-0.398 Y20.668 Z-5.392 R0.925
X0.933 Y21.953 Z-5.647 R0.925
X-0.398 Y20.668 Z-5.901 R0.925
X0.933 Y21.953 Z-6.155 R0.925
X-0.398 Y20.668 Z-6.409 R0.925
X0.933 Y21.953 Z-6.664 R0.925
X-0.398 Y20.668 Z-6.918 R0.925
X0.933 Y21.953 Z-7.172 R0.925
X-0.398 Y20.668 Z-7.426 R0.925
X0.933 Y21.953 Z-7.681 R0.925
X-0.398 Y20.668 Z-7.935 R0.925
X0.933 Y21.953 Z-8.189 R0.925
X-0.398 Y20.668 Z-8.443 R0.925
X0.933 Y21.953 Z-8.698 R0.925
X-0.398 Y20.668 Z-8.952 R0.925
X0.078 Y20.406 Z-9. R0.925
G1 X0.115 Y20.398
G3 X0.184 Y20.406 R0.109
G1 X0.25 Y20.437
G3 X0.416 Y20.619 R0.322
G1 X0.436 Y20.675
G3 X0.415 Y21.039 R0.462
G1 X0.383 Y21.103
G3 X0.041 Y21.412 R0.636
G1 X-0.048 Y21.446
G3 X-0.654 Y21.456 R0.887
G1 X-0.733 Y21.429
G3 X-1.315 Y20.966 R1.119
G1 X-1.404 Y20.825
G3 X-1.578 Y19.684 R1.454
X-1.347 Y19.167 R1.737
G1 X-1.338 Y19.153
G3 X-0.923 Y18.708 R1.839
G1 X-0.898 Y18.689
G3 X-0.331 Y18.383 R2.029
G1 X-0.322 Y18.379
G3 X0.341 Y18.263 R2.09
G1 X0.402 Y18.262
G3 X1.011 Y18.352 R1.944
G1 X1.46 Y18.494
X2.007 Y19.042
X2.36 Y19.733
X2.48 Y20.49
X2.359 Y21.268
X2.008 Y21.958
X1.451 Y22.511
X0.772 Y22.857
X0. Y22.981
X-0.772 Y22.857
X-1.451 Y22.511
X-2.008 Y21.958
X-2.359 Y21.268
X-2.48 Y20.49
X-2.36 Y19.733
X-2.007 Y19.042
X-1.459 Y18.493
X-0.753 Y18.138
X0. Y18.019
X0.753 Y18.138
X1.46 Y18.494
G0 Z5.
X-0.656 Y21.262
G1 Z-5.551 F200.
G3 X-0.655 Y21.249 Z-5.639 R0.925 F720.
X-0.652 Y21.211 Z-5.719 R0.925
X-0.644 Y21.152 Z-5.784 R0.925
X-0.627 Y21.077 Z-5.829 R0.925
X-0.602 Y20.995 Z-5.85 R0.925
X1.137 Y21.627 Z-6.104 R0.925
X-0.602 Y20.995 Z-6.358 R0.925
X1.137 Y21.627 Z-6.613 R0.925
X-0.602 Y20.995 Z-6.867 R0.925
X1.137 Y21.627 Z-7.121 R0.925
X-0.602 Y20.995 Z-7.375 R0.925
X1.137 Y21.627 Z-7.63 R0.925
X-0.602 Y20.995 Z-7.884 R0.925
X1.137 Y21.627 Z-8.138 R0.925
X-0.602 Y20.995 Z-8.392 R0.925
X1.137 Y21.627 Z-8.647 R0.925
X-0.602 Y20.995 Z-8.901 R0.925
X1.137 Y21.627 Z-9.155 R0.925
X-0.602 Y20.995 Z-9.409 R0.925
X1.137 Y21.627 Z-9.664 R0.925
X-0.602 Y20.995 Z-9.918 R0.925
X0.078 Y20.406 Z-10. R0.925
G1 X0.115 Y20.398
G3 X0.184 Y20.406 R0.109
G1 X0.25 Y20.437
G3 X0.416 Y20.619 R0.322
G1 X0.436 Y20.675
G3 X0.415 Y21.039 R0.462
G1 X0.383 Y21.103
G3 X0.041 Y21.412 R0.636
G1 X-0.048 Y21.446
G3 X-0.654 Y21.456 R0.887
G1 X-0.733 Y21.429
G3 X-1.315 Y20.966 R1.119
G1 X-1.404 Y20.825
G3 X-1.578 Y19.684 R1.454
X-1.347 Y19.167 R1.737
G1 X-1.338 Y19.153
G3 X-0.923 Y18.708 R1.839
G1 X-0.898 Y18.689
G3 X-0.331 Y18.383 R2.029
G1 X-0.322 Y18.379
G3 X0.341 Y18.263 R2.09
G1 X0.402 Y18.262
G3 X1.011 Y18.352 R1.944
G1 X1.46 Y18.494
X2.007 Y19.042
X2.36 Y19.733
X2.48 Y20.49
X2.359 Y21.268
X2.008 Y21.958
X1.451 Y22.511
X0.772 Y22.857
X0. Y22.981
X-0.772 Y22.857
X-1.451 Y22.511
X-2.008 Y21.958
X-2.359 Y21.268
X-2.48 Y20.49
X-2.36 Y19.733
X-2.007 Y19.042
X-1.459 Y18.493
X-0.753 Y18.138
X0. Y18.019
X0.753 Y18.138
X1.46 Y18.494
G0 Z5.
X53.738 Y5.915
Z3.449
G3 X53.746 Y5.926 Z3.361 R0.925 F720.
X53.769 Y5.956 Z3.281 R0.925
X53.803 Y6.005 Z3.216 R0.925
X53.842 Y6.071 Z3.171 R0.925
X53.879 Y6.149 Z3.15 R0.925
X52.171 Y6.861 Z2.896 R0.925
X53.879 Y6.149 Z2.642 R0.925
X52.171 Y6.861 Z2.387 R0.925
X53.879 Y6.149 Z2.133 R0.925
X52.171 Y6.861 Z1.879 R0.925
X53.879 Y6.149 Z1.625 R0.925
X52.171 Y6.861 Z1.37 R0.925
X53.879 Y6.149 Z1.116 R0.925
X52.171 Y6.861 Z0.862 R0.925
X53.879 Y6.149 Z0.608 R0.925
X52.171 Y6.861 Z0.353 R0.925
X53.879 Y6.149 Z0.099 R0.925
X52.171 Y6.861 Z-0.155 R0.925
X53.879 Y6.149 Z-0.409 R0.925
X52.171 Y6.861 Z-0.664 R0.925
X53.879 Y6.149 Z-0.918 R0.925
X52.171 Y6.861 Z-1.172 R0.925
X53.879 Y6.149 Z-1.426 R0.925
X52.171 Y6.861 Z-1.681 R0.925
X53.879 Y6.149 Z-1.935 R0.925
X52.171 Y6.861 Z-2.189 R0.925
X53.879 Y6.149 Z-2.443 R0.925
X52.171 Y6.861 Z-2.698 R0.925
X53.879 Y6.149 Z-2.952 R0.925
X53.931 Y6.69 Z-3. R0.925
G1 X53.893 Y6.877
X53.686 Y7.186
X53.372 Y7.396
X52.997 Y7.469
X52.623 Y7.393
X52.314 Y7.186
X52.105 Y6.875
X52.03 Y6.499
X52.103 Y6.129
X52.262 Y5.892
X52.313 Y5.814
X52.632 Y5.603
X52.995 Y5.53
X53.372 Y5.604
X53.686 Y5.814
X53.895 Y6.126
X53.905 Y6.169
X53.97 Y6.498
X53.931 Y6.69
G3 X53.916 Y6.732 R0.143
G1 X53.677 Y7.152
G3 X53.649 Y7.187 R0.143
X52.401 Y5.822 Z-3.254 R0.925
X53.649 Y7.187 Z-3.508 R0.925
X52.401 Y5.822 Z-3.763 R0.925
X53.649 Y7.187 Z-4.017 R0.925
X52.401 Y5.822 Z-4.271 R0.925
X53.649 Y7.187 Z-4.525 R0.925
X52.401 Y5.822 Z-4.78 R0.925
X53.649 Y7.187 Z-5.034 R0.925
X52.401 Y5.822 Z-5.288 R0.925
X53.649 Y7.187 Z-5.542 R0.925
X52.401 Y5.822 Z-5.797 R0.925
X53.931 Y6.69 Z-6. R0.925
G1 X53.893 Y6.877
X53.686 Y7.186
X53.372 Y7.396
X52.997 Y7.469
X52.623 Y7.393
X52.314 Y7.186
X52.105 Y6.875
X52.03 Y6.499
X52.103 Y6.129
X52.262 Y5.892
X52.313 Y5.814
X52.632 Y5.603
X52.995 Y5.53
X53.372 Y5.604
X53.686 Y5.814
X53.895 Y6.126
X53.905 Y6.169
X53.97 Y6.498
X53.931 Y6.69
G3 X53.916 Y6.732 R0.143
G1 X53.677 Y7.152
G3 X53.649 Y7.187 R0.143
X52.401 Y5.822 Z-6.254 R0.925
X53.649 Y7.187 Z-6.508 R0.925
X52.401 Y5.822 Z-6.763 R0.925
X53.649 Y7.187 Z-7.017 R0.925
X52.401 Y5.822 Z-7.271 R0.925
X53.649 Y7.187 Z-7.525 R0.925
X52.401 Y5.822 Z-7.78 R0.925
X53.649 Y7.187 Z-8.034 R0.925
X52.401 Y5.822 Z-8.288 R0.925
X53.649 Y7.187 Z-8.542 R0.925
X52.401 Y5.822 Z-8.797 R0.925
X53.931 Y6.69 Z-9. R0.925
G1 X53.893 Y6.877
X53.686 Y7.186
X53.372 Y7.396
X52.997 Y7.469
X52.623 Y7.393
X52.314 Y7.186
X52.105 Y6.875
X52.03 Y6.499
X52.103 Y6.129
X52.262 Y5.892
X52.313 Y5.814
X52.632 Y5.603
X52.995 Y5.53
X53.372 Y5.604
X53.686 Y5.814
X53.895 Y6.126
X53.905 Y6.169
X53.97 Y6.498
X53.931 Y6.69
X53.873 Y6.874
G3 X52.177 Y6.135 Z-9.254 R0.925
X53.873 Y6.874 Z-9.508 R0.925
X52.177 Y6.135 Z-9.763 R0.925
X53.931 Y6.69 Z-10. R0.925
G1 X53.893 Y6.877
X53.686 Y7.186
X53.372 Y7.396
X52.997 Y7.469
X52.623 Y7.393
X52.314 Y7.186
X52.105 Y6.875
X52.03 Y6.499
X52.103 Y6.129
X52.262 Y5.892
X52.313 Y5.814
X52.632 Y5.603
X52.995 Y5.53
X53.372 Y5.604
X53.686 Y5.814
X53.895 Y6.126
X53.905 Y6.169
X53.97 Y6.498
X53.931 Y6.69
G3 X53.899 Y6.776 Z-9.985 R0.3
X53.849 Y6.843 Z-9.943 R0.3
X53.797 Y6.884 Z-9.876 R0.3
X53.759 Y6.904 Z-9.793 R0.3
X53.746 Y6.91 Z-9.7 R0.3
G0 Z5.
X52.173 Y-6.95
Z3.449
G3 X52.179 Y-6.961 Z3.361 R0.925 F720.
X52.198 Y-6.995 Z3.281 R0.925
X52.23 Y-7.045 Z3.216 R0.925
X52.276 Y-7.106 Z3.171 R0.925
X52.333 Y-7.171 Z3.15 R0.925
X53.657 Y-5.879 Z2.896 R0.925
X52.333 Y-7.171 Z2.642 R0.925
X53.657 Y-5.879 Z2.387 R0.925
X52.333 Y-7.171 Z2.133 R0.925
X53.657 Y-5.879 Z1.879 R0.925
X52.333 Y-7.171 Z1.625 R0.925
X53.657 Y-5.879 Z1.37 R0.925
X52.333 Y-7.171 Z1.116 R0.925
X53.657 Y-5.879 Z0.862 R0.925
X52.333 Y-7.171 Z0.608 R0.925
X53.657 Y-5.879 Z0.353 R0.925
X52.333 Y-7.171 Z0.099 R0.925
X53.657 Y-5.879 Z-0.155 R0.925
X52.333 Y-7.171 Z-0.409 R0.925
X53.657 Y-5.879 Z-0.664 R0.925
X52.333 Y-7.171 Z-0.918 R0.925
X53.657 Y-5.879 Z-1.172 R0.925
X52.333 Y-7.171 Z-1.426 R0.925
X53.657 Y-5.879 Z-1.681 R0.925
X52.333 Y-7.171 Z-1.935 R0.925
X53.657 Y-5.879 Z-2.189 R0.925
X52.333 Y-7.171 Z-2.443 R0.925
X53.657 Y-5.879 Z-2.698 R0.925
X52.333 Y-7.171 Z-2.952 R0.925
X52.81 Y-7.431 Z-3. R0.925
G1 X52.997 Y-7.469
X53.372 Y-7.396
X53.686 Y-7.186
X53.893 Y-6.877
X53.97 Y-6.498
X53.897 Y-6.129
X53.686 Y-5.814
X53.372 Y-5.604
X52.995 Y-5.53
X52.632 Y-5.603
X52.313 Y-5.814
X52.106 Y-6.124
X52.09 Y-6.195
X52.03 Y-6.499
X52.105 Y-6.875
X52.262 Y-7.108
X52.314 Y-7.186
X52.623 Y-7.393
X52.81 Y-7.431
G3 X52.855 Y-7.433 R0.143
G1 X53.335 Y-7.379
G3 X53.378 Y-7.367 R0.143
X52.611 Y-5.683 Z-3.254 R0.925
X53.378 Y-7.367 Z-3.508 R0.925
X52.611 Y-5.683 Z-3.763 R0.925
X53.378 Y-7.367 Z-4.017 R0.925
X52.611 Y-5.683 Z-4.271 R0.925
X53.378 Y-7.367 Z-4.525 R0.925
X52.611 Y-5.683 Z-4.78 R0.925
X53.378 Y-7.367 Z-5.034 R0.925
X52.611 Y-5.683 Z-5.288 R0.925
X53.378 Y-7.367 Z-5.542 R0.925
X52.611 Y-5.683 Z-5.797 R0.925
X52.81 Y-7.431 Z-6. R0.925
G1 X52.997 Y-7.469
X53.372 Y-7.396
X53.686 Y-7.186
X53.893 Y-6.877
X53.97 Y-6.498
X53.897 Y-6.129
X53.686 Y-5.814
X53.372 Y-5.604
X52.995 Y-5.53
X52.632 Y-5.603
X52.313 Y-5.814
X52.106 Y-6.124
X52.09 Y-6.195
X52.03 Y-6.499
X52.105 Y-6.875
X52.262 Y-7.108
X52.314 Y-7.186
X52.623 Y-7.393
X52.81 Y-7.431
G3 X52.855 Y-7.433 R0.143
G1 X53.335 Y-7.379
G3 X53.378 Y-7.367 R0.143
X52.611 Y-5.683 Z-6.254 R0.925
X53.378 Y-7.367 Z-6.508 R0.925
X52.611 Y-5.683 Z-6.763 R0.925
X53.378 Y-7.367 Z-7.017 R0.925
X52.611 Y-5.683 Z-7.271 R0.925
X53.378 Y-7.367 Z-7.525 R0.925
X52.611 Y-5.683 Z-7.78 R0.925
X53.378 Y-7.367 Z-8.034 R0.925
X52.611 Y-5.683 Z-8.288 R0.925
X53.378 Y-7.367 Z-8.542 R0.925
X52.611 Y-5.683 Z-8.797 R0.925
X52.81 Y-7.431 Z-9. R0.925
G1 X52.997 Y-7.469
X53.372 Y-7.396
X53.686 Y-7.186
X53.893 Y-6.877
X53.97 Y-6.498
X53.897 Y-6.129
X53.686 Y-5.814
X53.372 Y-5.604
X52.995 Y-5.53
X52.632 Y-5.603
X52.313 Y-5.814
X52.106 Y-6.124
X52.09 Y-6.195
X52.03 Y-6.499
X52.105 Y-6.875
X52.262 Y-7.108
X52.314 Y-7.186
X52.623 Y-7.393
X52.81 Y-7.431
X53.002 Y-7.45
G3 X52.987 Y-5.6 Z-9.254 R0.925
X53.002 Y-7.45 Z-9.508 R0.925
X52.987 Y-5.6 Z-9.763 R0.925
X52.81 Y-7.431 Z-10. R0.925
G1 X52.997 Y-7.469
X53.372 Y-7.396
X53.686 Y-7.186
X53.893 Y-6.877
X53.97 Y-6.498
X53.897 Y-6.129
X53.686 Y-5.814
X53.372 Y-5.604
X52.995 Y-5.53
X52.632 Y-5.603
X52.313 Y-5.814
X52.106 Y-6.124
X52.09 Y-6.195
X52.03 Y-6.499
X52.105 Y-6.875
X52.262 Y-7.108
X52.314 Y-7.186
X52.623 Y-7.393
X52.81 Y-7.431
G3 X52.902 Y-7.435 Z-9.985 R0.3
X52.983 Y-7.415 Z-9.943 R0.3
X53.041 Y-7.383 Z-9.876 R0.3
X53.074 Y-7.357 Z-9.793 R0.3
X53.085 Y-7.346 Z-9.7 R0.3
G0 Z10.

(2D ADAPTIVE1)
M8
G0 X-58.139 Y29.902
Z10.
Z5.
Z2.845
G1 Z2.545 F720.
G3 X-57.861 Y29.098 Z2.428 R0.425
X-58.139 Y29.902 Z2.311 R0.425
X-57.861 Y29.098 Z2.195 R0.425
X-58.139 Y29.902 Z2.078 R0.425
X-57.861 Y29.098 Z1.961 R0.425
X-58.139 Y29.902 Z1.844 R0.425
X-57.861 Y29.098 Z1.727 R0.425
X-58.139 Y29.902 Z1.61 R0.425
X-57.861 Y29.098 Z1.494 R0.425
X-58.139 Y29.902 Z1.377 R0.425
X-57.861 Y29.098 Z1.26 R0.425
X-58.139 Y29.902 Z1.143 R0.425
X-57.861 Y29.098 Z1.026 R0.425
X-58.139 Y29.902 Z0.91 R0.425
X-57.861 Y29.098 Z0.793 R0.425
X-58.139 Y29.902 Z0.676 R0.425
X-57.861 Y29.098 Z0.559 R0.425
X-58.139 Y29.902 Z0.442 R0.425
X-57.861 Y29.098 Z0.326 R0.425
X-58.139 Y29.902 Z0.209 R0.425
X-57.861 Y29.098 Z0.092 R0.425
X-58.139 Y29.902 Z-0.025 R0.425
X-57.861 Y29.098 Z-0.142 R0.425
X-58.139 Y29.902 Z-0.259 R0.425
X-57.861 Y29.098 Z-0.375 R0.425
X-58.139 Y29.902 Z-0.492 R0.425
X-57.861 Y29.098 Z-0.609 R0.425
X-58.139 Y29.902 Z-0.726 R0.425
X-57.861 Y29.098 Z-0.843 R0.425
X-58.139 Y29.902 Z-0.959 R0.425
X-57.861 Y29.098 Z-1.076 R0.425
X-58.139 Y29.902 Z-1.193 R0.425
X-57.861 Y29.098 Z-1.31 R0.425
X-58.139 Y29.902 Z-1.427 R0.425
X-57.861 Y29.098 Z-1.543 R0.425
X-58.139 Y29.902 Z-1.66 R0.425
X-57.861 Y29.098 Z-1.777 R0.425
X-58.139 Y29.902 Z-1.894 R0.425
X-57.861 Y29.098 Z-2.011 R0.425
X-58.139 Y29.902 Z-2.128 R0.425
X-57.861 Y29.098 Z-2.244 R0.425
X-58.139 Y29.902 Z-2.361 R0.425
X-57.861 Y29.098 Z-2.478 R0.425
X-58.139 Y29.902 Z-2.595 R0.425
X-57.861 Y29.098 Z-2.712 R0.425
X-58.139 Y29.902 Z-2.828 R0.425
X-57.861 Y29.098 Z-2.945 R0.425
X-58.139 Y29.902 Z-3.062 R0.425
X-57.861 Y29.098 Z-3.179 R0.425
X-58.139 Y29.902 Z-3.296 R0.425
X-57.861 Y29.098 Z-3.412 R0.425
X-58.139 Y29.902 Z-3.529 R0.425
X-57.861 Y29.098 Z-3.646 R0.425
X-58.139 Y29.902 Z-3.763 R0.425
X-57.861 Y29.098 Z-3.88 R0.425
X-58.139 Y29.902 Z-3.997 R0.425
X-57.861 Y29.098 Z-4.113 R0.425
X-58.139 Y29.902 Z-4.23 R0.425
X-57.861 Y29.098 Z-4.347 R0.425
X-58.139 Y29.902 Z-4.464 R0.425
X-57.861 Y29.098 Z-4.581 R0.425
X-58.139 Y29.902 Z-4.697 R0.425
X-57.861 Y29.098 Z-4.814 R0.425
X-58.139 Y29.902 Z-4.931 R0.425
X-57.861 Y29.098 Z-5.048 R0.425
X-58.139 Y29.902 Z-5.165 R0.425
X-57.861 Y29.098 Z-5.281 R0.425
X-58.139 Y29.902 Z-5.398 R0.425
X-57.861 Y29.098 Z-5.515 R0.425
X-58.139 Y29.902 Z-5.632 R0.425
X-57.861 Y29.098 Z-5.749 R0.425
X-58.139 Y29.902 Z-5.866 R0.425
X-57.861 Y29.098 Z-5.982 R0.425
X-58.139 Y29.902 Z-6.099 R0.425
X-57.861 Y29.098 Z-6.216 R0.425
X-58.139 Y29.902 Z-6.333 R0.425
X-57.861 Y29.098 Z-6.45 R0.425
X-58.139 Y29.902 Z-6.566 R0.425
X-57.861 Y29.098 Z-6.683 R0.425
X-58.139 Y29.902 Z-6.8 R0.425
X-57.861 Y29.098 Z-6.917 R0.425
X-58.139 Y29.902 Z-7.034 R0.425
X-57.861 Y29.098 Z-7.15 R0.425
X-58.139 Y29.902 Z-7.267 R0.425
X-57.861 Y29.098 Z-7.384 R0.425
X-58.139 Y29.902 Z-7.501 R0.425
X-57.861 Y29.098 Z-7.618 R0.425
X-58.139 Y29.902 Z-7.735 R0.425
X-57.861 Y29.098 Z-7.851 R0.425
X-58.139 Y29.902 Z-7.968 R0.425
X-57.861 Y29.098 Z-8.085 R0.425
X-58.139 Y29.902 Z-8.202 R0.425
X-57.861 Y29.098 Z-8.319 R0.425
X-58.139 Y29.902 Z-8.435 R0.425
X-57.861 Y29.098 Z-8.552 R0.425
X-58.139 Y29.902 Z-8.669 R0.425
X-57.861 Y29.098 Z-8.786 R0.425
X-58.139 Y29.902 Z-8.903 R0.425
X-57.861 Y29.098 Z-9.019 R0.425
X-58.139 Y29.902 Z-9.136 R0.425
X-57.861 Y29.098 Z-9.253 R0.425
X-58.139 Y29.902 Z-9.37 R0.425
X-57.861 Y29.098 Z-9.487 R0.425
X-58.139 Y29.902 Z-9.604 R0.425
X-57.861 Y29.098 Z-9.72 R0.425
X-58.139 Y29.902 Z-9.837 R0.425
X-57.861 Y29.098 Z-9.954 R0.425
X-57.575 Y29.5 Z-10. R0.425
X-58.425 R0.425
X-57.575 R0.425
G1 X-57.549 Y29.8
X-57.576 Y29.902
X-57.652 Y29.975
X-57.754 Y29.998
X-58.248 Y29.963
X-58.382 Y29.943
X-58.515 Y29.916
X-58.629 Y29.845
X-58.725 Y29.699
X-58.766 Y29.529
X-58.748 Y29.355
X-58.673 Y29.198
X-58.549 Y29.075
X-58.39 Y29.001
X-58.217 Y28.984
X-57.71 Y29.
X-57.575 Y29.007
X-57.448 Y29.054
X-57.312 Y29.187
X-57.233 Y29.36
X-57.223 Y29.551
X-57.283 Y29.732
X-57.404 Y29.879
X-57.57 Y29.972
X-57.759 Y29.998
X-57.876 Y29.987
X-58.265 Y29.953
X-58.382 Y29.943
X-58.725 Y29.891
X-58.858 Y29.864
X-58.971 Y29.79
X-59.061 Y29.69
X-59.117 Y29.514
X-59.106 Y29.329
X-59.03 Y29.16
X-58.898 Y29.03
X-58.729 Y28.956
X-58.544 Y28.947
X-58.217 Y28.984
G3 X-58.004 Y29.208 R0.24
X-58.725 Y29.891 R0.649
G1 X-59.096 Y29.835
X-59.228 Y29.808
X-59.338 Y29.73
X-59.424 Y29.626
X-59.477 Y29.435
X-59.453 Y29.237
X-59.357 Y29.063
X-59.202 Y28.939
X-59.012 Y28.882
X-58.814 Y28.901
G3 X-58.634 Y29.304 R0.3
G1 X-58.786 Y29.656
G3 X-59.096 Y29.835 R0.3
G1 X-59.242 Y29.809
X-59.528 Y29.688
X-59.649 Y29.628
X-59.742 Y29.53
X-59.796 Y29.354
X-59.786 Y29.169
X-59.713 Y29.
X-59.585 Y28.866
X-59.419 Y28.786
X-59.235 Y28.768
X-59.056 Y28.815
G3 X-58.998 Y28.857 R0.247
X-58.966 Y28.89 R0.502
X-59.528 Y29.688 R0.502
G1 X-59.835 Y29.555
X-59.956 Y29.495
X-60.05 Y29.398
X-60.113 Y29.279
X-60.125 Y29.08
X-60.062 Y28.891
X-59.935 Y28.739
X-59.76 Y28.643
X-59.562 Y28.619
X-59.37 Y28.669
X-59.056 Y28.815
G3 X-58.931 Y29.094 R0.244
X-59.835 Y29.555 R0.678
G1 X-60.16 Y29.414
X-60.281 Y29.354
X-60.374 Y29.257
X-60.439 Y29.138
X-60.452 Y28.936
X-60.389 Y28.743
X-60.259 Y28.587
X-60.081 Y28.49
X-59.879 Y28.466
X-59.683 Y28.518
X-59.37 Y28.669
G3 X-59.245 Y28.951 R0.246
X-60.16 Y29.414 R0.688
G1 X-60.299 Y29.35
X-60.555 Y29.152
X-60.656 Y29.064
X-60.725 Y28.947
X-60.738 Y28.751
X-60.676 Y28.563
X-60.548 Y28.414
X-60.372 Y28.323
X-60.176 Y28.306
X-59.987 Y28.364
X-59.683 Y28.518
G3 X-59.557 Y28.823 R0.258
X-60.555 Y29.152 R0.646
G1 X-60.826 Y28.939
X-60.928 Y28.85
X-60.995 Y28.733
X-61.006 Y28.559
X-60.956 Y28.392
X-60.852 Y28.252
X-60.707 Y28.156
X-60.537 Y28.115
X-60.364 Y28.134
X-60.208 Y28.212
X-59.997 Y28.359
X-59.987 Y28.364
G3 X-59.883 Y28.655 R0.241
X-60.826 Y28.939 R0.617
G1 X-61.095 Y28.727
X-61.197 Y28.638
X-61.259 Y28.519
X-61.288 Y28.387
X-61.253 Y28.213
X-61.162 Y28.061
X-61.026 Y27.948
X-60.86 Y27.886
X-60.682 Y27.882
X-60.514 Y27.938
X-60.374 Y28.046
G3 X-60.418 Y28.48 R0.3
G1 X-60.736 Y28.723
G3 X-61.095 Y28.727 R0.3
G1 X-61.207 Y28.634
X-61.406 Y28.375
X-61.482 Y28.263
X-61.513 Y28.132
X-61.511 Y27.997
X-61.428 Y27.82
X-61.287 Y27.685
X-61.107 Y27.61
X-60.911 Y27.605
X-60.727 Y27.671
X-60.58 Y27.799
X-60.374 Y28.046
G3 X-60.366 Y28.366 R0.252
X-61.406 Y28.375 R0.665
G1 X-61.637 Y28.068
X-61.712 Y27.957
X-61.739 Y27.824
X-61.697 Y27.648
X-61.598 Y27.496
X-61.454 Y27.386
X-61.281 Y27.332
X-61.1 Y27.338
X-60.932 Y27.406
X-60.796 Y27.527
X-60.58 Y27.799
G3 X-60.603 Y28.121 R0.248
X-61.637 Y28.068 R0.695
G1 X-61.84 Y27.799
X-61.861 Y27.771
X-61.88 Y27.746
X-61.93 Y27.646
X-61.919 Y27.621
G3 X-61.886 Y27.602 R0.033
X-61.776 Y27.689 R0.128
X-61.88 Y27.746 R0.06
G1 X-61.934 Y27.637
X-61.979 Y27.509
X-61.921 Y27.336
X-61.81 Y27.191
X-61.657 Y27.09
X-61.479 Y27.046
X-61.297 Y27.064
X-61.13 Y27.14
X-60.999 Y27.267
X-60.796 Y27.527
G3 X-60.849 Y27.905 R0.273
X-61.934 Y27.637 R0.713
G1 X-62.044 Y27.368
X-62.089 Y27.24
X-62.086 Y27.105
X-62.008 Y26.953
X-61.883 Y26.834
X-61.726 Y26.764
X-61.555 Y26.75
X-61.388 Y26.794
X-61.246 Y26.891
X-61.144 Y27.029
G3 X-61.126 Y27.09 R0.24
X-62.044 Y27.368 R0.484
G1 X-62.17 Y27.058
X-62.215 Y26.931
X-62.211 Y26.796
X-62.171 Y26.667
X-62.037 Y26.52
X-61.857 Y26.434
X-61.658 Y26.422
X-61.47 Y26.486
X-61.319 Y26.616
X-61.229 Y26.794
G3 X-61.223 Y26.911 R0.3
X-61.466 Y27.161 R0.3
G1 X-61.842 Y27.23
G3 X-62.17 Y27.058 R0.3
G1 X-62.303 Y26.734
X-62.319 Y26.695
X-62.33 Y26.658
X-62.347 Y26.577
G3 X-62.294 Y26.565 R0.03
G1 X-62.271 Y26.576
G3 X-62.272 Y26.7 R0.062
X-62.33 Y26.658 R0.062
G1 X-62.35 Y26.561
X-62.36 Y26.426
X-62.31 Y26.301
X-62.183 Y26.171
X-62.021 Y26.088
X-61.841 Y26.062
X-61.663 Y26.096
X-61.504 Y26.185
X-61.383 Y26.321
X-61.312 Y26.488
X-61.229 Y26.794
G3 X-61.396 Y27.107 R0.265
X-62.35 Y26.561 R0.721
G1 X-62.39 Y26.251
X-62.4 Y26.117
X-62.367 Y25.986
X-62.299 Y25.869
X-62.145 Y25.758
X-61.962 Y25.708
X-61.773 Y25.725
X-61.602 Y25.808
X-61.471 Y25.945
X-61.397 Y26.12
X-61.312 Y26.488
G3 X-61.472 Y26.779 R0.256
X-62.39 Y26.251 R0.684
G1 X-62.437 Y25.889
X-62.448 Y25.754
X-62.412 Y25.624
X-62.299 Y25.492
X-62.148 Y25.406
X-61.977 Y25.375
X-61.805 Y25.403
X-61.653 Y25.487
X-61.538 Y25.617
X-61.473 Y25.778
X-61.397 Y26.12
G3 X-61.552 Y26.397 R0.247
X-62.437 Y25.889 R0.659
G1 X-62.475 Y25.546
X-62.48 Y25.411
X-62.442 Y25.281
X-62.37 Y25.167
X-62.204 Y25.059
X-62.009 Y25.022
X-61.815 Y25.06
X-61.649 Y25.169
X-61.536 Y25.332
X-61.493 Y25.525
G3 X-61.805 Y25.823 R0.3
G1 X-62.189 Y25.807
G3 X-62.475 Y25.546 R0.3
G1 X-62.5 Y25.216
Y25.142
X-62.493 Y25.007
X-62.442 Y24.883
X-62.303 Y24.759
X-62.131 Y24.691
X-61.945 Y24.687
X-61.77 Y24.747
X-61.627 Y24.865
X-61.533 Y25.025
X-61.5 Y25.207
X-61.493 Y25.525
G3 X-61.684 Y25.765 R0.248
X-62.485 Y25.259 R0.664
X-62.5 Y25.142 R0.664
G1 Y24.772
X-62.493 Y24.637
X-62.432 Y24.517
X-62.344 Y24.414
X-62.169 Y24.332
X-61.976 Y24.318
X-61.79 Y24.373
X-61.636 Y24.492
X-61.535 Y24.657
X-61.5 Y24.848
Y25.207
G3 X-61.717 Y25.443 R0.246
X-62.5 Y24.772 R0.701
G1 Y24.409
X-62.493 Y24.274
X-62.434 Y24.153
X-62.346 Y24.051
X-62.17 Y23.967
X-61.977 Y23.952
X-61.791 Y24.007
X-61.637 Y24.126
X-61.535 Y24.291
X-61.5 Y24.482
Y24.848
G3 X-61.719 Y25.084 R0.246
X-62.5 Y24.409 R0.704
G1 Y24.066
X-62.493 Y23.931
X-62.44 Y23.808
X-62.356 Y23.701
X-62.181 Y23.612
X-61.986 Y23.593
X-61.797 Y23.645
X-61.64 Y23.763
X-61.536 Y23.929
X-61.5 Y24.122
Y24.482
G3 X-61.706 Y24.717 R0.247
X-62.5 Y24.066 R0.683
G1 Y23.696
X-62.493 Y23.561
X-62.437 Y23.439
X-62.351 Y23.335
X-62.176 Y23.248
X-61.982 Y23.23
X-61.794 Y23.284
X-61.638 Y23.401
X-61.536 Y23.567
X-61.5 Y23.759
Y24.122
G3 X-61.712 Y24.357 R0.246
X-62.5 Y23.696 R0.692
G1 Y23.333
X-62.493 Y23.199
X-62.436 Y23.076
X-62.351 Y22.972
X-62.176 Y22.885
X-61.982 Y22.868
X-61.794 Y22.921
X-61.638 Y23.039
X-61.536 Y23.205
X-61.5 Y23.397
Y23.759
G3 X-61.712 Y23.995 R0.246
X-62.5 Y23.333 R0.692
G1 Y22.957
X-62.493 Y22.822
X-62.433 Y22.701
X-62.345 Y22.6
X-62.169 Y22.516
X-61.976 Y22.501
X-61.79 Y22.557
X-61.637 Y22.675
X-61.535 Y22.84
X-61.5 Y23.031
Y23.397
G3 X-61.719 Y23.633 R0.246
X-62.5 Y22.957 R0.705
G1 Y22.62
X-62.493 Y22.485
X-62.441 Y22.361
X-62.358 Y22.254
X-62.184 Y22.164
X-61.988 Y22.143
X-61.799 Y22.195
X-61.641 Y22.312
X-61.536 Y22.479
X-61.5 Y22.672
Y23.031
G3 X-61.704 Y23.265 R0.247
X-62.5 Y22.62 R0.679
G1 Y22.257
X-62.493 Y22.123
X-62.439 Y21.999
X-62.356 Y21.893
X-62.181 Y21.803
X-61.986 Y21.783
X-61.797 Y21.836
X-61.64 Y21.953
X-61.536 Y22.119
X-61.5 Y22.312
Y22.672
G3 X-61.706 Y22.907 R0.247
X-62.5 Y22.257 R0.682
G1 Y21.881
X-62.493 Y21.746
X-62.435 Y21.625
X-62.348 Y21.521
X-62.173 Y21.436
X-61.979 Y21.419
X-61.793 Y21.474
X-61.638 Y21.591
X-61.536 Y21.757
X-61.5 Y21.948
Y22.312
G3 X-61.715 Y22.548 R0.246
X-62.5 Y21.881 R0.697
G1 Y21.511
X-62.493 Y21.376
X-62.434 Y21.255
X-62.346 Y21.153
X-62.17 Y21.069
X-61.977 Y21.054
X-61.791 Y21.109
X-61.637 Y21.227
X-61.535 Y21.392
X-61.5 Y21.583
Y21.948
G3 X-61.718 Y22.184 R0.246
X-62.5 Y21.511 R0.702
G1 Y21.141
X-62.493 Y21.006
X-62.432 Y20.886
X-62.344 Y20.784
X-62.168 Y20.701
X-61.975 Y20.687
X-61.79 Y20.743
X-61.636 Y20.861
X-61.535 Y21.026
X-61.5 Y21.217
Y21.583
G3 X-61.721 Y21.82 R0.246
X-62.5 Y21.141 R0.707
G1 Y20.778
X-62.493 Y20.643
X-62.433 Y20.522
X-62.345 Y20.42
X-62.17 Y20.336
X-61.977 Y20.321
X-61.791 Y20.377
X-61.637 Y20.495
X-61.535 Y20.66
X-61.5 Y20.851
Y21.217
G3 X-61.719 Y21.453 R0.246
X-62.486 Y20.895 R0.704
X-62.5 Y20.778 R0.704
G1 Y20.435
X-62.493 Y20.3
X-62.439 Y20.177
X-62.356 Y20.071
X-62.181 Y19.981
X-61.986 Y19.962
X-61.797 Y20.014
X-61.64 Y20.132
X-61.536 Y20.298
X-61.5 Y20.491
Y20.851
G3 X-61.707 Y21.086 R0.247
X-62.5 Y20.435 R0.683
G1 Y20.065
X-62.493 Y19.93
X-62.437 Y19.808
X-62.351 Y19.704
X-62.176 Y19.617
X-61.982 Y19.599
X-61.794 Y19.653
X-61.638 Y19.771
X-61.536 Y19.936
X-61.5 Y20.128
Y20.491
G3 X-61.712 Y20.727 R0.246
X-62.5 Y20.065 R0.692
G1 Y19.702
X-62.493 Y19.567
X-62.436 Y19.445
X-62.351 Y19.341
X-62.176 Y19.254
X-61.981 Y19.237
X-61.794 Y19.29
X-61.638 Y19.408
X-61.536 Y19.574
X-61.5 Y19.766
Y20.128
G3 X-61.712 Y20.364 R0.246
X-62.5 Y19.702 R0.692
G1 Y19.326
X-62.493 Y19.191
X-62.433 Y19.07
X-62.345 Y18.969
X-62.169 Y18.885
X-61.976 Y18.87
X-61.79 Y18.926
X-61.637 Y19.044
X-61.535 Y19.209
X-61.5 Y19.4
Y19.766
G3 X-61.72 Y20.002 R0.246
X-62.5 Y19.326 R0.705
G1 Y18.989
X-62.493 Y18.854
X-62.441 Y18.73
X-62.358 Y18.623
X-62.184 Y18.533
X-61.988 Y18.512
X-61.798 Y18.564
X-61.641 Y18.681
X-61.536 Y18.848
X-61.5 Y19.041
Y19.4
G3 X-61.704 Y19.634 R0.247
X-62.486 Y19.106 R0.679
X-62.5 Y18.989 R0.679
G1 Y18.626
X-62.493 Y18.492
X-62.439 Y18.368
X-62.356 Y18.262
X-62.181 Y18.172
X-61.986 Y18.152
X-61.797 Y18.205
X-61.64 Y18.322
X-61.536 Y18.488
X-61.5 Y18.681
Y19.041
G3 X-61.706 Y19.276 R0.247
X-62.486 Y18.743 R0.683
X-62.5 Y18.626 R0.683
G1 Y18.25
X-62.493 Y18.115
X-62.435 Y17.994
X-62.348 Y17.89
X-62.173 Y17.805
X-61.979 Y17.788
X-61.793 Y17.843
X-61.638 Y17.96
X-61.536 Y18.126
X-61.5 Y18.317
Y18.681
G3 X-61.715 Y18.917 R0.246
X-62.486 Y18.367 R0.697
X-62.5 Y18.25 R0.697
G1 Y17.88
X-62.493 Y17.745
X-62.434 Y17.624
X-62.346 Y17.522
X-62.17 Y17.438
X-61.977 Y17.423
X-61.791 Y17.478
X-61.637 Y17.596
X-61.535 Y17.761
X-61.5 Y17.952
Y18.317
G3 X-61.718 Y18.553 R0.246
X-62.5 Y17.88 R0.702
G1 Y17.51
X-62.493 Y17.375
X-62.432 Y17.255
X-62.344 Y17.153
X-62.168 Y17.07
X-61.975 Y17.056
X-61.79 Y17.112
X-61.636 Y17.23
X-61.535 Y17.395
X-61.5 Y17.586
Y17.952
G3 X-61.721 Y18.189 R0.246
X-62.5 Y17.51 R0.707
G1 Y17.147
X-62.493 Y17.012
X-62.433 Y16.891
X-62.345 Y16.789
X-62.17 Y16.705
X-61.977 Y16.69
X-61.791 Y16.746
X-61.637 Y16.864
X-61.535 Y17.029
X-61.5 Y17.22
Y17.586
G3 X-61.719 Y17.822 R0.246
X-62.486 Y17.264 R0.704
X-62.5 Y17.147 R0.704
G1 Y16.804
X-62.493 Y16.669
X-62.439 Y16.546
X-62.356 Y16.439
X-62.181 Y16.35
X-61.986 Y16.331
X-61.797 Y16.383
X-61.64 Y16.501
X-61.536 Y16.667
X-61.5 Y16.86
Y17.22
G3 X-61.707 Y17.455 R0.247
X-62.5 Y16.804 R0.683
G1 Y16.434
X-62.493 Y16.299
X-62.437 Y16.177
X-62.351 Y16.073
X-62.176 Y15.986
X-61.982 Y15.968
X-61.794 Y16.022
X-61.638 Y16.14
X-61.536 Y16.305
X-61.5 Y16.497
Y16.86
G3 X-61.712 Y17.096 R0.246
X-62.5 Y16.434 R0.692
G1 Y16.071
X-62.493 Y15.936
X-62.436 Y15.814
X-62.351 Y15.71
X-62.176 Y15.623
X-61.981 Y15.606
X-61.794 Y15.659
X-61.638 Y15.777
X-61.536 Y15.943
X-61.5 Y16.135
Y16.497
G3 X-61.712 Y16.733 R0.246
X-62.5 Y16.071 R0.692
G1 Y15.695
X-62.493 Y15.56
X-62.433 Y15.439
X-62.345 Y15.337
X-62.169 Y15.254
X-61.976 Y15.239
X-61.79 Y15.295
X-61.637 Y15.413
X-61.535 Y15.578
X-61.5 Y15.769
Y16.135
G3 X-61.72 Y16.371 R0.246
X-62.5 Y15.695 R0.705
G1 Y15.358
X-62.493 Y15.223
X-62.441 Y15.099
X-62.358 Y14.992
X-62.184 Y14.902
X-61.988 Y14.881
X-61.798 Y14.933
X-61.641 Y15.05
X-61.536 Y15.217
X-61.5 Y15.41
Y15.769
G3 X-61.704 Y16.003 R0.247
X-62.486 Y15.475 R0.679
X-62.5 Y15.358 R0.679
G1 Y14.995
X-62.493 Y14.861
X-62.439 Y14.737
X-62.356 Y14.631
X-62.181 Y14.541
X-61.986 Y14.521
X-61.797 Y14.574
X-61.64 Y14.691
X-61.536 Y14.857
X-61.5 Y15.05
Y15.41
G3 X-61.706 Y15.645 R0.247
X-62.486 Y15.112 R0.683
X-62.5 Y14.995 R0.683
G1 Y14.619
X-62.493 Y14.484
X-62.435 Y14.362
X-62.348 Y14.259
X-62.173 Y14.174
X-61.979 Y14.157
X-61.793 Y14.212
X-61.638 Y14.329
X-61.536 Y14.495
X-61.5 Y14.686
Y15.05
G3 X-61.715 Y15.286 R0.246
X-62.486 Y14.736 R0.697
X-62.5 Y14.619 R0.697
G1 Y14.249
X-62.493 Y14.114
X-62.434 Y13.993
X-62.346 Y13.891
X-62.17 Y13.807
X-61.977 Y13.792
X-61.791 Y13.847
X-61.637 Y13.965
X-61.535 Y14.13
X-61.5 Y14.321
Y14.686
G3 X-61.718 Y14.922 R0.246
X-62.5 Y14.249 R0.702
G1 Y13.879
X-62.493 Y13.744
X-62.432 Y13.624
X-62.344 Y13.522
X-62.168 Y13.439
X-61.975 Y13.425
X-61.79 Y13.481
X-61.636 Y13.599
X-61.535 Y13.764
X-61.5 Y13.955
Y14.321
G3 X-61.721 Y14.558 R0.246
X-62.5 Y13.879 R0.707
G1 Y13.516
X-62.493 Y13.381
X-62.433 Y13.26
X-62.345 Y13.158
X-62.17 Y13.074
X-61.977 Y13.059
X-61.791 Y13.115
X-61.637 Y13.233
X-61.535 Y13.398
X-61.5 Y13.589
Y13.955
G3 X-61.719 Y14.191 R0.246
X-62.486 Y13.633 R0.704
X-62.5 Y13.516 R0.704
G1 Y13.173
X-62.493 Y13.038
X-62.439 Y12.915
X-62.356 Y12.808
X-62.181 Y12.719
X-61.986 Y12.7
X-61.797 Y12.752
X-61.64 Y12.87
X-61.536 Y13.036
X-61.5 Y13.229
Y13.589
G3 X-61.707 Y13.824 R0.247
X-62.5 Y13.173 R0.683
G1 Y12.803
X-62.493 Y12.668
X-62.437 Y12.546
X-62.351 Y12.442
X-62.176 Y12.355
X-61.982 Y12.337
X-61.794 Y12.391
X-61.638 Y12.508
X-61.536 Y12.674
X-61.5 Y12.866
Y13.229
G3 X-61.712 Y13.465 R0.246
X-62.5 Y12.803 R0.692
G1 Y12.44
X-62.493 Y12.305
X-62.436 Y12.183
X-62.351 Y12.079
X-62.176 Y11.992
X-61.981 Y11.975
X-61.794 Y12.028
X-61.638 Y12.146
X-61.536 Y12.312
X-61.5 Y12.504
Y12.866
G3 X-61.712 Y13.102 R0.246
X-62.5 Y12.44 R0.692
G1 Y12.064
X-62.493 Y11.929
X-62.433 Y11.808
X-62.345 Y11.706
X-62.169 Y11.623
X-61.976 Y11.608
X-61.79 Y11.664
X-61.637 Y11.782
X-61.535 Y11.947
X-61.5 Y12.138
Y12.504
G3 X-61.72 Y12.74 R0.246
X-62.5 Y12.064 R0.705
G1 Y11.727
X-62.493 Y11.592
X-62.441 Y11.468
X-62.358 Y11.361
X-62.184 Y11.271
X-61.988 Y11.25
X-61.798 Y11.302
X-61.641 Y11.419
X-61.536 Y11.586
X-61.5 Y11.779
Y12.138
G3 X-61.704 Y12.372 R0.247
X-62.486 Y11.844 R0.679
X-62.5 Y11.727 R0.679
G1 Y11.364
X-62.493 Y11.23
X-62.439 Y11.106
X-62.356 Y11.
X-62.181 Y10.91
X-61.986 Y10.89
X-61.797 Y10.943
X-61.64 Y11.06
X-61.536 Y11.226
X-61.5 Y11.419
Y11.779
G3 X-61.706 Y12.014 R0.247
X-62.486 Y11.481 R0.683
X-62.5 Y11.364 R0.683
G1 Y10.988
X-62.493 Y10.853
X-62.435 Y10.731
X-62.348 Y10.628
X-62.173 Y10.543
X-61.979 Y10.526
X-61.793 Y10.58
X-61.638 Y10.698
X-61.536 Y10.864
X-61.5 Y11.055
Y11.419
G3 X-61.715 Y11.655 R0.246
X-62.486 Y11.105 R0.697
X-62.5 Y10.988 R0.697
G1 Y10.618
X-62.493 Y10.483
X-62.434 Y10.362
X-62.346 Y10.26
X-62.17 Y10.176
X-61.977 Y10.161
X-61.791 Y10.216
X-61.637 Y10.334
X-61.535 Y10.499
X-61.5 Y10.69
Y11.055
G3 X-61.718 Y11.291 R0.246
X-62.5 Y10.618 R0.702
G1 Y10.248
X-62.493 Y10.113
X-62.432 Y9.992
X-62.344 Y9.891
X-62.168 Y9.808
X-61.975 Y9.794
X-61.79 Y9.85
X-61.636 Y9.968
X-61.535 Y10.133
X-61.5 Y10.324
Y10.69
G3 X-61.721 Y10.927 R0.246
X-62.5 Y10.248 R0.707
G1 Y9.885
X-62.493 Y9.75
X-62.433 Y9.629
X-62.345 Y9.527
X-62.17 Y9.443
X-61.977 Y9.428
X-61.791 Y9.483
X-61.637 Y9.602
X-61.535 Y9.767
X-61.5 Y9.958
Y10.324
G3 X-61.719 Y10.56 R0.246
X-62.486 Y10.002 R0.704
X-62.5 Y9.885 R0.704
G1 Y9.542
X-62.493 Y9.407
X-62.439 Y9.284
X-62.356 Y9.177
X-62.181 Y9.088
X-61.986 Y9.069
X-61.797 Y9.121
X-61.64 Y9.239
X-61.536 Y9.405
X-61.5 Y9.598
Y9.958
G3 X-61.707 Y10.193 R0.247
X-62.5 Y9.542 R0.683
G1 Y9.172
X-62.493 Y9.037
X-62.437 Y8.915
X-62.351 Y8.811
X-62.176 Y8.724
X-61.982 Y8.706
X-61.794 Y8.76
X-61.638 Y8.877
X-61.536 Y9.043
X-61.5 Y9.235
Y9.598
G3 X-61.712 Y9.833 R0.246
X-62.5 Y9.172 R0.692
G1 Y8.809
X-62.493 Y8.674
X-62.436 Y8.552
X-62.351 Y8.448
X-62.176 Y8.361
X-61.981 Y8.344
X-61.794 Y8.397
X-61.638 Y8.515
X-61.536 Y8.681
X-61.5 Y8.873
Y9.235
G3 X-61.712 Y9.471 R0.246
X-62.5 Y8.809 R0.692
G1 Y8.433
X-62.493 Y8.298
X-62.433 Y8.177
X-62.345 Y8.075
X-62.169 Y7.992
X-61.976 Y7.977
X-61.79 Y8.033
X-61.637 Y8.151
X-61.535 Y8.316
X-61.5 Y8.507
Y8.873
G3 X-61.72 Y9.109 R0.246
X-62.5 Y8.433 R0.705
G1 Y8.096
X-62.493 Y7.961
X-62.441 Y7.837
X-62.358 Y7.73
X-62.184 Y7.64
X-61.988 Y7.619
X-61.798 Y7.671
X-61.641 Y7.788
X-61.536 Y7.955
X-61.5 Y8.148
Y8.507
G3 X-61.704 Y8.741 R0.247
X-62.486 Y8.213 R0.679
X-62.5 Y8.096 R0.679
G1 Y7.733
X-62.493 Y7.599
X-62.439 Y7.475
X-62.356 Y7.369
X-62.181 Y7.279
X-61.986 Y7.259
X-61.797 Y7.312
X-61.64 Y7.429
X-61.536 Y7.595
X-61.5 Y7.788
Y8.148
G3 X-61.706 Y8.383 R0.247
X-62.486 Y7.85 R0.683
X-62.5 Y7.733 R0.683
G1 Y7.357
X-62.493 Y7.222
X-62.435 Y7.1
X-62.348 Y6.997
X-62.173 Y6.912
X-61.979 Y6.895
X-61.793 Y6.949
X-61.638 Y7.067
X-61.536 Y7.233
X-61.5 Y7.424
Y7.788
G3 X-61.715 Y8.024 R0.246
X-62.486 Y7.474 R0.697
X-62.5 Y7.357 R0.697
G1 Y6.987
X-62.493 Y6.852
X-62.434 Y6.731
X-62.346 Y6.629
X-62.17 Y6.545
X-61.977 Y6.53
X-61.791 Y6.585
X-61.637 Y6.703
X-61.535 Y6.868
X-61.5 Y7.059
Y7.424
G3 X-61.718 Y7.66 R0.246
X-62.5 Y6.987 R0.702
G1 Y6.617
X-62.493 Y6.482
X-62.432 Y6.361
X-62.344 Y6.26
X-62.168 Y6.177
X-61.975 Y6.163
X-61.79 Y6.219
X-61.636 Y6.337
X-61.535 Y6.502
X-61.5 Y6.693
Y7.059
G3 X-61.721 Y7.296 R0.246
X-62.5 Y6.617 R0.707
G1 Y6.254
X-62.493 Y6.119
X-62.433 Y5.998
X-62.345 Y5.896
X-62.17 Y5.812
X-61.977 Y5.797
X-61.791 Y5.852
X-61.637 Y5.971
X-61.535 Y6.136
X-61.5 Y6.327
Y6.693
G3 X-61.719 Y6.929 R0.246
X-62.486 Y6.371 R0.704
X-62.5 Y6.254 R0.704
G1 Y5.911
X-62.493 Y5.776
X-62.439 Y5.652
X-62.356 Y5.546
X-62.181 Y5.457
X-61.986 Y5.438
X-61.797 Y5.49
X-61.64 Y5.608
X-61.536 Y5.774
X-61.5 Y5.967
Y6.327
G3 X-61.707 Y6.562 R0.247
X-62.5 Y5.911 R0.683
G1 Y5.541
X-62.493 Y5.406
X-62.437 Y5.284
X-62.351 Y5.18
X-62.176 Y5.093
X-61.982 Y5.075
X-61.794 Y5.129
X-61.638 Y5.246
X-61.536 Y5.412
X-61.5 Y5.604
Y5.967
G3 X-61.712 Y6.202 R0.246
X-62.5 Y5.541 R0.692
G1 Y5.178
X-62.493 Y5.043
X-62.436 Y4.921
X-62.351 Y4.817
X-62.176 Y4.73
X-61.981 Y4.713
X-61.794 Y4.766
X-61.638 Y4.884
X-61.536 Y5.05
X-61.5 Y5.242
Y5.604
G3 X-61.712 Y5.84 R0.246
X-62.5 Y5.178 R0.692
G1 Y4.802
X-62.493 Y4.667
X-62.433 Y4.546
X-62.345 Y4.444
X-62.169 Y4.361
X-61.976 Y4.346
X-61.79 Y4.402
X-61.637 Y4.52
X-61.535 Y4.685
X-61.5 Y4.876
Y5.242
G3 X-61.72 Y5.478 R0.246
X-62.5 Y4.802 R0.705
G1 Y4.465
X-62.493 Y4.33
X-62.441 Y4.206
X-62.358 Y4.099
X-62.184 Y4.009
X-61.988 Y3.988
X-61.798 Y4.04
X-61.641 Y4.157
X-61.536 Y4.324
X-61.5 Y4.517
Y4.876
G3 X-61.704 Y5.11 R0.247
X-62.486 Y4.582 R0.679
X-62.5 Y4.465 R0.679
G1 Y4.102
X-62.493 Y3.968
X-62.439 Y3.844
X-62.356 Y3.738
X-62.181 Y3.648
X-61.986 Y3.628
X-61.797 Y3.68
X-61.64 Y3.798
X-61.536 Y3.964
X-61.5 Y4.157
Y4.517
G3 X-61.706 Y4.752 R0.247
X-62.486 Y4.219 R0.683
X-62.5 Y4.102 R0.683
G1 Y3.726
X-62.493 Y3.591
X-62.435 Y3.469
X-62.348 Y3.366
X-62.173 Y3.281
X-61.979 Y3.264
X-61.793 Y3.318
X-61.638 Y3.436
X-61.536 Y3.602
X-61.5 Y3.793
Y4.157
G3 X-61.715 Y4.393 R0.246
X-62.486 Y3.843 R0.697
X-62.5 Y3.726 R0.697
G1 Y3.356
X-62.493 Y3.221
X-62.434 Y3.1
X-62.346 Y2.998
X-62.17 Y2.914
X-61.977 Y2.899
X-61.791 Y2.954
X-61.637 Y3.072
X-61.535 Y3.237
X-61.5 Y3.428
Y3.793
G3 X-61.718 Y4.029 R0.246
X-62.5 Y3.356 R0.702
G1 Y2.986
X-62.493 Y2.851
X-62.432 Y2.73
X-62.344 Y2.629
X-62.168 Y2.546
X-61.975 Y2.532
X-61.79 Y2.587
X-61.636 Y2.706
X-61.535 Y2.871
X-61.5 Y3.062
Y3.428
G3 X-61.721 Y3.664 R0.246
X-62.5 Y2.986 R0.707
G1 Y2.623
X-62.493 Y2.488
X-62.433 Y2.367
X-62.345 Y2.265
X-62.17 Y2.181
X-61.977 Y2.166
X-61.791 Y2.221
X-61.637 Y2.34
X-61.535 Y2.505
X-61.5 Y2.696
Y3.062
G3 X-61.719 Y3.298 R0.246
X-62.486 Y2.74 R0.704
X-62.5 Y2.623 R0.704
G1 Y2.28
X-62.493 Y2.145
X-62.439 Y2.021
X-62.356 Y1.915
X-62.181 Y1.826
X-61.986 Y1.807
X-61.797 Y1.859
X-61.64 Y1.977
X-61.536 Y2.143
X-61.5 Y2.336
Y2.696
G3 X-61.707 Y2.931 R0.247
X-62.5 Y2.28 R0.683
G1 Y1.91
X-62.493 Y1.775
X-62.437 Y1.653
X-62.351 Y1.548
X-62.176 Y1.462
X-61.982 Y1.444
X-61.794 Y1.498
X-61.638 Y1.615
X-61.536 Y1.781
X-61.5 Y1.973
Y2.336
G3 X-61.712 Y2.571 R0.246
X-62.5 Y1.91 R0.692
G1 Y1.547
X-62.493 Y1.412
X-62.436 Y1.29
X-62.351 Y1.186
X-62.176 Y1.099
X-61.981 Y1.082
X-61.794 Y1.135
X-61.638 Y1.253
X-61.536 Y1.419
X-61.5 Y1.611
Y1.973
G3 X-61.712 Y2.208 R0.246
X-62.5 Y1.547 R0.692
G1 Y1.171
X-62.493 Y1.036
X-62.433 Y0.915
X-62.345 Y0.813
X-62.169 Y0.73
X-61.976 Y0.715
X-61.79 Y0.771
X-61.637 Y0.889
X-61.535 Y1.054
X-61.5 Y1.245
Y1.611
G3 X-61.72 Y1.847 R0.246
X-62.5 Y1.171 R0.705
G1 Y0.834
X-62.493 Y0.699
X-62.441 Y0.575
X-62.358 Y0.468
X-62.184 Y0.377
X-61.988 Y0.357
X-61.798 Y0.409
X-61.641 Y0.526
X-61.536 Y0.693
X-61.5 Y0.886
Y1.245
G3 X-61.704 Y1.479 R0.247
X-62.486 Y0.951 R0.679
X-62.5 Y0.834 R0.679
G1 Y0.471
X-62.493 Y0.336
X-62.439 Y0.213
X-62.356 Y0.107
X-62.181 Y0.017
X-61.986 Y-0.003
X-61.797 Y0.049
X-61.64 Y0.167
X-61.536 Y0.333
X-61.5 Y0.526
Y0.886
G3 X-61.706 Y1.121 R0.247
X-62.486 Y0.588 R0.683
X-62.5 Y0.471 R0.683
G1 Y0.095
X-62.493 Y-0.04
X-62.435 Y-0.162
X-62.348 Y-0.265
X-62.173 Y-0.35
X-61.979 Y-0.367
X-61.793 Y-0.313
X-61.638 Y-0.195
X-61.536 Y-0.029
X-61.5 Y0.162
Y0.526
G3 X-61.715 Y0.762 R0.246
X-62.486 Y0.212 R0.697
X-62.5 Y0.095 R0.697
G1 Y-0.275
X-62.493 Y-0.41
X-62.434 Y-0.531
X-62.346 Y-0.633
X-62.17 Y-0.717
X-61.977 Y-0.732
X-61.791 Y-0.677
X-61.637 Y-0.559
X-61.535 Y-0.394
X-61.5 Y-0.203
Y0.162
G3 X-61.718 Y0.398 R0.246
X-62.5 Y-0.275 R0.702
G1 Y-0.645
X-62.493 Y-0.78
X-62.432 Y-0.901
X-62.344 Y-1.002
X-62.168 Y-1.085
X-61.975 Y-1.099
X-61.79 Y-1.044
X-61.636 Y-0.925
X-61.535 Y-0.76
X-61.5 Y-0.569
Y-0.203
G3 X-61.721 Y0.033 R0.246
X-62.5 Y-0.645 R0.707
G1 Y-1.008
X-62.493 Y-1.143
X-62.433 Y-1.264
X-62.345 Y-1.366
X-62.17 Y-1.45
X-61.977 Y-1.465
X-61.791 Y-1.41
X-61.637 Y-1.291
X-61.535 Y-1.126
X-61.5 Y-0.935
Y-0.569
G3 X-61.719 Y-0.333 R0.246
X-62.5 Y-1.008 R0.704
G1 Y-1.351
X-62.493 Y-1.486
X-62.439 Y-1.61
X-62.356 Y-1.716
X-62.181 Y-1.805
X-61.986 Y-1.824
X-61.797 Y-1.772
X-61.64 Y-1.654
X-61.536 Y-1.488
X-61.5 Y-1.295
Y-0.935
G3 X-61.707 Y-0.7 R0.247
X-62.5 Y-1.351 R0.683
G1 Y-1.721
X-62.493 Y-1.856
X-62.437 Y-1.978
X-62.351 Y-2.083
X-62.176 Y-2.169
X-61.982 Y-2.187
X-61.794 Y-2.133
X-61.638 Y-2.016
X-61.536 Y-1.85
X-61.5 Y-1.658
Y-1.295
G3 X-61.712 Y-1.06 R0.246
X-62.5 Y-1.721 R0.692
G1 Y-2.084
X-62.493 Y-2.219
X-62.436 Y-2.341
X-62.351 Y-2.445
X-62.176 Y-2.532
X-61.981 Y-2.549
X-61.794 Y-2.496
X-61.638 Y-2.378
X-61.536 Y-2.212
X-61.5 Y-2.02
Y-1.658
G3 X-61.712 Y-1.423 R0.246
X-62.5 Y-2.084 R0.692
G1 Y-2.46
X-62.493 Y-2.595
X-62.433 Y-2.716
X-62.345 Y-2.818
X-62.169 Y-2.901
X-61.976 Y-2.916
X-61.79 Y-2.86
X-61.637 Y-2.742
X-61.535 Y-2.577
X-61.5 Y-2.386
Y-2.02
G3 X-61.72 Y-1.784 R0.246
X-62.5 Y-2.46 R0.705
G1 Y-2.797
X-62.493 Y-2.932
X-62.441 Y-3.056
X-62.358 Y-3.163
X-62.184 Y-3.254
X-61.988 Y-3.274
X-61.798 Y-3.222
X-61.641 Y-3.105
X-61.536 Y-2.938
X-61.5 Y-2.745
Y-2.386
G3 X-61.704 Y-2.152 R0.247
X-62.486 Y-2.68 R0.679
X-62.5 Y-2.797 R0.679
G1 Y-3.16
X-62.493 Y-3.295
X-62.439 Y-3.418
X-62.356 Y-3.524
X-62.181 Y-3.614
X-61.986 Y-3.634
X-61.797 Y-3.582
X-61.64 Y-3.464
X-61.536 Y-3.298
X-61.5 Y-3.105
Y-2.745
G3 X-61.706 Y-2.51 R0.247
X-62.486 Y-3.043 R0.683
X-62.5 Y-3.16 R0.683
G1 Y-3.536
X-62.493 Y-3.671
X-62.435 Y-3.793
X-62.348 Y-3.896
X-62.173 Y-3.981
X-61.979 Y-3.998
X-61.793 Y-3.944
X-61.638 Y-3.826
X-61.536 Y-3.66
X-61.5 Y-3.469
Y-3.105
G3 X-61.715 Y-2.869 R0.246
X-62.486 Y-3.419 R0.697
X-62.5 Y-3.536 R0.697
G1 Y-3.906
X-62.493 Y-4.041
X-62.434 Y-4.162
X-62.346 Y-4.264
X-62.17 Y-4.348
X-61.977 Y-4.363
X-61.791 Y-4.308
X-61.637 Y-4.19
X-61.535 Y-4.025
X-61.5 Y-3.834
Y-3.469
G3 X-61.718 Y-3.233 R0.246
X-62.5 Y-3.906 R0.702
G1 Y-4.276
X-62.493 Y-4.411
X-62.432 Y-4.532
X-62.344 Y-4.633
X-62.168 Y-4.716
X-61.975 Y-4.73
X-61.79 Y-4.675
X-61.636 Y-4.556
X-61.535 Y-4.391
X-61.5 Y-4.2
Y-3.834
G3 X-61.721 Y-3.598 R0.246
X-62.5 Y-4.276 R0.707
G1 Y-4.639
X-62.493 Y-4.774
X-62.433 Y-4.895
X-62.345 Y-4.997
X-62.17 Y-5.081
X-61.977 Y-5.096
X-61.791 Y-5.041
X-61.637 Y-4.922
X-61.535 Y-4.757
X-61.5 Y-4.566
Y-4.2
G3 X-61.719 Y-3.964 R0.246
X-62.486 Y-4.522 R0.704
X-62.5 Y-4.639 R0.704
G1 Y-4.982
X-62.493 Y-5.117
X-62.439 Y-5.241
X-62.356 Y-5.347
X-62.181 Y-5.436
X-61.986 Y-5.455
X-61.797 Y-5.403
X-61.64 Y-5.285
X-61.536 Y-5.119
X-61.5 Y-4.926
Y-4.566
G3 X-61.707 Y-4.331 R0.247
X-62.5 Y-4.982 R0.683
G1 Y-5.352
X-62.493 Y-5.487
X-62.437 Y-5.609
X-62.351 Y-5.714
X-62.176 Y-5.8
X-61.982 Y-5.818
X-61.794 Y-5.764
X-61.638 Y-5.647
X-61.536 Y-5.481
X-61.5 Y-5.289
Y-4.926
G3 X-61.712 Y-4.691 R0.246
X-62.5 Y-5.352 R0.692
G1 Y-5.715
X-62.493 Y-5.85
X-62.436 Y-5.972
X-62.351 Y-6.076
X-62.176 Y-6.163
X-61.981 Y-6.181
X-61.794 Y-6.127
X-61.638 Y-6.009
X-61.536 Y-5.843
X-61.5 Y-5.651
Y-5.289
G3 X-61.712 Y-5.054 R0.246
X-62.5 Y-5.715 R0.692
G1 Y-6.091
X-62.493 Y-6.226
X-62.433 Y-6.347
X-62.345 Y-6.449
X-62.169 Y-6.532
X-61.976 Y-6.547
X-61.79 Y-6.491
X-61.637 Y-6.373
X-61.535 Y-6.208
X-61.5 Y-6.017
Y-5.651
G3 X-61.72 Y-5.415 R0.246
X-62.5 Y-6.091 R0.705
G1 Y-6.428
X-62.493 Y-6.563
X-62.441 Y-6.687
X-62.358 Y-6.794
X-62.184 Y-6.885
X-61.988 Y-6.905
X-61.798 Y-6.853
X-61.641 Y-6.736
X-61.536 Y-6.569
X-61.5 Y-6.376
Y-6.017
G3 X-61.704 Y-5.783 R0.247
X-62.486 Y-6.311 R0.679
X-62.5 Y-6.428 R0.679
G1 Y-6.791
X-62.493 Y-6.926
X-62.439 Y-7.049
X-62.356 Y-7.155
X-62.181 Y-7.245
X-61.986 Y-7.265
X-61.797 Y-7.213
X-61.64 Y-7.095
X-61.536 Y-6.929
X-61.5 Y-6.736
Y-6.376
G3 X-61.706 Y-6.141 R0.247
X-62.486 Y-6.674 R0.683
X-62.5 Y-6.791 R0.683
G1 Y-7.167
X-62.493 Y-7.302
X-62.435 Y-7.424
X-62.348 Y-7.527
X-62.173 Y-7.612
X-61.979 Y-7.629
X-61.793 Y-7.575
X-61.638 Y-7.457
X-61.536 Y-7.291
X-61.5 Y-7.1
Y-6.736
G3 X-61.715 Y-6.5 R0.246
X-62.486 Y-7.05 R0.697
X-62.5 Y-7.167 R0.697
G1 Y-7.537
X-62.493 Y-7.672
X-62.434 Y-7.793
X-62.346 Y-7.895
X-62.17 Y-7.979
X-61.977 Y-7.994
X-61.791 Y-7.939
X-61.637 Y-7.821
X-61.535 Y-7.656
X-61.5 Y-7.465
Y-7.1
G3 X-61.718 Y-6.864 R0.246
X-62.5 Y-7.537 R0.702
G1 Y-7.907
X-62.493 Y-8.042
X-62.432 Y-8.163
X-62.344 Y-8.264
X-62.168 Y-8.347
X-61.975 Y-8.361
X-61.79 Y-8.306
X-61.636 Y-8.187
X-61.535 Y-8.022
X-61.5 Y-7.831
Y-7.465
G3 X-61.721 Y-7.229 R0.246
X-62.5 Y-7.907 R0.707
G1 Y-8.27
X-62.493 Y-8.405
X-62.433 Y-8.526
X-62.345 Y-8.628
X-62.17 Y-8.712
X-61.977 Y-8.727
X-61.791 Y-8.672
X-61.637 Y-8.553
X-61.535 Y-8.388
X-61.5 Y-8.197
Y-7.831
G3 X-61.719 Y-7.595 R0.246
X-62.486 Y-8.153 R0.704
X-62.5 Y-8.27 R0.704
G1 Y-8.613
X-62.493 Y-8.748
X-62.439 Y-8.872
X-62.356 Y-8.978
X-62.181 Y-9.067
X-61.986 Y-9.086
X-61.797 Y-9.034
X-61.64 Y-8.916
X-61.536 Y-8.75
X-61.5 Y-8.557
Y-8.197
G3 X-61.707 Y-7.962 R0.247
X-62.5 Y-8.613 R0.683
G1 Y-8.983
X-62.493 Y-9.118
X-62.437 Y-9.241
X-62.351 Y-9.345
X-62.176 Y-9.431
X-61.982 Y-9.449
X-61.794 Y-9.395
X-61.638 Y-9.278
X-61.536 Y-9.112
X-61.5 Y-8.92
Y-8.557
G3 X-61.712 Y-8.322 R0.246
X-62.5 Y-8.983 R0.692
G1 Y-9.346
X-62.493 Y-9.481
X-62.436 Y-9.603
X-62.351 Y-9.707
X-62.176 Y-9.794
X-61.981 Y-9.812
X-61.794 Y-9.758
X-61.638 Y-9.64
X-61.536 Y-9.474
X-61.5 Y-9.282
Y-8.92
G3 X-61.712 Y-8.685 R0.246
X-62.5 Y-9.346 R0.692
G1 Y-9.722
X-62.493 Y-9.857
X-62.433 Y-9.978
X-62.345 Y-10.08
X-62.169 Y-10.163
X-61.976 Y-10.178
X-61.79 Y-10.122
X-61.637 Y-10.004
X-61.535 Y-9.839
X-61.5 Y-9.648
Y-9.282
G3 X-61.72 Y-9.046 R0.246
X-62.5 Y-9.722 R0.705
G1 Y-10.059
X-62.493 Y-10.194
X-62.441 Y-10.318
X-62.358 Y-10.425
X-62.184 Y-10.516
X-61.988 Y-10.536
X-61.798 Y-10.484
X-61.641 Y-10.367
X-61.536 Y-10.2
X-61.5 Y-10.007
Y-9.648
G3 X-61.704 Y-9.414 R0.247
X-62.486 Y-9.942 R0.679
X-62.5 Y-10.059 R0.679
G1 Y-10.422
X-62.493 Y-10.557
X-62.439 Y-10.68
X-62.356 Y-10.786
X-62.181 Y-10.876
X-61.986 Y-10.896
X-61.797 Y-10.844
X-61.64 Y-10.726
X-61.536 Y-10.56
X-61.5 Y-10.367
Y-10.007
G3 X-61.706 Y-9.772 R0.247
X-62.486 Y-10.305 R0.683
X-62.5 Y-10.422 R0.683
G1 Y-10.798
X-62.493 Y-10.933
X-62.435 Y-11.055
X-62.348 Y-11.158
X-62.173 Y-11.243
X-61.979 Y-11.26
X-61.793 Y-11.206
X-61.638 Y-11.088
X-61.536 Y-10.922
X-61.5 Y-10.731
Y-10.367
G3 X-61.715 Y-10.131 R0.246
X-62.486 Y-10.681 R0.697
X-62.5 Y-10.798 R0.697
G1 Y-11.168
X-62.493 Y-11.303
X-62.434 Y-11.424
X-62.346 Y-11.526
X-62.17 Y-11.61
X-61.977 Y-11.626
X-61.791 Y-11.57
X-61.637 Y-11.452
X-61.535 Y-11.287
X-61.5 Y-11.096
Y-10.731
G3 X-61.718 Y-10.495 R0.246
X-62.5 Y-11.168 R0.702
G1 Y-11.538
X-62.493 Y-11.673
X-62.432 Y-11.794
X-62.344 Y-11.895
X-62.168 Y-11.978
X-61.975 Y-11.992
X-61.79 Y-11.937
X-61.636 Y-11.818
X-61.535 Y-11.653
X-61.5 Y-11.463
Y-11.096
G3 X-61.721 Y-10.86 R0.246
X-62.5 Y-11.538 R0.707
G1 Y-11.901
X-62.493 Y-12.036
X-62.433 Y-12.157
X-62.345 Y-12.259
X-62.17 Y-12.343
X-61.977 Y-12.358
X-61.791 Y-12.303
X-61.637 Y-12.184
X-61.535 Y-12.019
X-61.5 Y-11.828
Y-11.463
G3 X-61.719 Y-11.226 R0.246
X-62.486 Y-11.784 R0.704
X-62.5 Y-11.901 R0.704
G1 Y-12.244
X-62.493 Y-12.379
X-62.439 Y-12.503
X-62.356 Y-12.609
X-62.181 Y-12.698
X-61.986 Y-12.718
X-61.797 Y-12.665
X-61.64 Y-12.547
X-61.536 Y-12.381
X-61.5 Y-12.188
Y-11.828
G3 X-61.707 Y-11.593 R0.247
X-62.5 Y-12.244 R0.683
G1 Y-12.614
X-62.493 Y-12.749
X-62.437 Y-12.872
X-62.351 Y-12.976
X-62.176 Y-13.062
X-61.982 Y-13.08
X-61.794 Y-13.026
X-61.638 Y-12.909
X-61.536 Y-12.743
X-61.5 Y-12.551
Y-12.188
G3 X-61.712 Y-11.953 R0.246
X-62.5 Y-12.614 R0.692
G1 Y-12.977
X-62.493 Y-13.112
X-62.436 Y-13.234
X-62.351 Y-13.338
X-62.176 Y-13.425
X-61.981 Y-13.443
X-61.794 Y-13.389
X-61.638 Y-13.271
X-61.536 Y-13.105
X-61.5 Y-12.913
Y-12.551
G3 X-61.712 Y-12.316 R0.246
X-62.5 Y-12.977 R0.692
G1 Y-13.353
X-62.493 Y-13.488
X-62.433 Y-13.609
X-62.345 Y-13.711
X-62.169 Y-13.794
X-61.976 Y-13.809
X-61.79 Y-13.754
X-61.637 Y-13.635
X-61.535 Y-13.47
X-61.5 Y-13.279
Y-12.913
G3 X-61.72 Y-12.677 R0.246
X-62.5 Y-13.353 R0.705
G1 Y-13.69
X-62.493 Y-13.825
X-62.441 Y-13.949
X-62.358 Y-14.056
X-62.184 Y-14.147
X-61.988 Y-14.167
X-61.798 Y-14.115
X-61.641 Y-13.998
X-61.536 Y-13.831
X-61.5 Y-13.638
Y-13.279
G3 X-61.704 Y-13.045 R0.247
X-62.486 Y-13.573 R0.679
X-62.5 Y-13.69 R0.679
G1 Y-14.053
X-62.493 Y-14.188
X-62.439 Y-14.311
X-62.356 Y-14.417
X-62.181 Y-14.507
X-61.986 Y-14.527
X-61.797 Y-14.475
X-61.64 Y-14.357
X-61.536 Y-14.191
X-61.5 Y-13.998
Y-13.638
G3 X-61.706 Y-13.403 R0.247
X-62.486 Y-13.936 R0.683
X-62.5 Y-14.053 R0.683
G1 Y-14.429
X-62.493 Y-14.564
X-62.435 Y-14.686
X-62.348 Y-14.789
X-62.173 Y-14.874
X-61.979 Y-14.891
X-61.793 Y-14.837
X-61.638 Y-14.719
X-61.536 Y-14.553
X-61.5 Y-14.362
Y-13.998
G3 X-61.715 Y-13.762 R0.246
X-62.486 Y-14.312 R0.697
X-62.5 Y-14.429 R0.697
G1 Y-14.799
X-62.493 Y-14.934
X-62.434 Y-15.055
X-62.346 Y-15.158
X-62.17 Y-15.241
X-61.977 Y-15.257
X-61.791 Y-15.202
X-61.637 Y-15.083
X-61.535 Y-14.918
X-61.5 Y-14.727
Y-14.362
G3 X-61.718 Y-14.126 R0.246
X-62.5 Y-14.799 R0.702
G1 Y-15.169
X-62.493 Y-15.304
X-62.432 Y-15.425
X-62.344 Y-15.526
X-62.168 Y-15.609
X-61.975 Y-15.623
X-61.79 Y-15.568
X-61.636 Y-15.449
X-61.535 Y-15.284
X-61.5 Y-15.094
Y-14.727
G3 X-61.721 Y-14.491 R0.246
X-62.5 Y-15.169 R0.707
G1 Y-15.532
X-62.493 Y-15.667
X-62.433 Y-15.788
X-62.345 Y-15.89
X-62.17 Y-15.974
X-61.977 Y-15.989
X-61.791 Y-15.934
X-61.637 Y-15.816
X-61.535 Y-15.65
X-61.5 Y-15.459
Y-15.094
G3 X-61.719 Y-14.857 R0.246
X-62.486 Y-15.415 R0.704
X-62.5 Y-15.532 R0.704
G1 Y-15.875
X-62.493 Y-16.01
X-62.439 Y-16.134
X-62.356 Y-16.24
X-62.181 Y-16.329
X-61.986 Y-16.349
X-61.797 Y-16.296
X-61.64 Y-16.178
X-61.536 Y-16.012
X-61.5 Y-15.819
Y-15.459
G3 X-61.707 Y-15.224 R0.247
X-62.5 Y-15.875 R0.683
G1 Y-16.245
X-62.493 Y-16.38
X-62.437 Y-16.503
X-62.351 Y-16.607
X-62.176 Y-16.693
X-61.982 Y-16.711
X-61.794 Y-16.657
X-61.638 Y-16.54
X-61.536 Y-16.374
X-61.5 Y-16.182
Y-15.819
G3 X-61.712 Y-15.584 R0.246
X-62.5 Y-16.245 R0.692
G1 Y-16.608
X-62.493 Y-16.743
X-62.436 Y-16.865
X-62.351 Y-16.969
X-62.176 Y-17.056
X-61.981 Y-17.074
X-61.794 Y-17.02
X-61.638 Y-16.902
X-61.536 Y-16.736
X-61.5 Y-16.545
Y-16.182
G3 X-61.712 Y-15.947 R0.246
X-62.5 Y-16.608 R0.692
G1 Y-16.984
X-62.493 Y-17.119
X-62.433 Y-17.24
X-62.345 Y-17.342
X-62.169 Y-17.425
X-61.976 Y-17.44
X-61.79 Y-17.385
X-61.637 Y-17.266
X-61.535 Y-17.101
X-61.5 Y-16.91
Y-16.545
G3 X-61.72 Y-16.308 R0.246
X-62.5 Y-16.984 R0.705
G1 Y-17.321
X-62.493 Y-17.456
X-62.441 Y-17.58
X-62.358 Y-17.687
X-62.184 Y-17.778
X-61.988 Y-17.798
X-61.798 Y-17.746
X-61.641 Y-17.629
X-61.536 Y-17.462
X-61.5 Y-17.269
Y-16.91
G3 X-61.704 Y-16.676 R0.247
X-62.486 Y-17.204 R0.679
X-62.5 Y-17.321 R0.679
G1 Y-17.684
X-62.493 Y-17.819
X-62.439 Y-17.942
X-62.356 Y-18.048
X-62.181 Y-18.138
X-61.986 Y-18.158
X-61.797 Y-18.106
X-61.64 Y-17.988
X-61.536 Y-17.822
X-61.5 Y-17.629
Y-17.269
G3 X-61.706 Y-17.034 R0.247
X-62.486 Y-17.567 R0.683
X-62.5 Y-17.684 R0.683
G1 Y-18.06
X-62.493 Y-18.195
X-62.435 Y-18.317
X-62.348 Y-18.42
X-62.173 Y-18.505
X-61.979 Y-18.522
X-61.793 Y-18.468
X-61.638 Y-18.35
X-61.536 Y-18.184
X-61.5 Y-17.993
Y-17.629
G3 X-61.715 Y-17.394 R0.246
X-62.486 Y-17.943 R0.697
X-62.5 Y-18.06 R0.697
G1 Y-18.43
X-62.493 Y-18.565
X-62.434 Y-18.686
X-62.346 Y-18.789
X-62.17 Y-18.872
X-61.977 Y-18.888
X-61.791 Y-18.833
X-61.637 Y-18.714
X-61.535 Y-18.549
X-61.5 Y-18.358
Y-17.993
G3 X-61.718 Y-17.757 R0.246
X-62.5 Y-18.43 R0.702
G1 Y-18.8
X-62.493 Y-18.935
X-62.432 Y-19.056
X-62.344 Y-19.157
X-62.168 Y-19.24
X-61.975 Y-19.254
X-61.79 Y-19.199
X-61.636 Y-19.08
X-61.535 Y-18.915
X-61.5 Y-18.725
Y-18.358
G3 X-61.721 Y-18.122 R0.246
X-62.5 Y-18.8 R0.707
G1 Y-19.163
X-62.493 Y-19.298
X-62.433 Y-19.419
X-62.345 Y-19.521
X-62.17 Y-19.605
X-61.977 Y-19.62
X-61.791 Y-19.565
X-61.637 Y-19.447
X-61.535 Y-19.281
X-61.5 Y-19.09
Y-18.725
G3 X-61.719 Y-18.488 R0.246
X-62.5 Y-19.163 R0.704
G1 Y-19.506
X-62.493 Y-19.641
X-62.439 Y-19.765
X-62.356 Y-19.871
X-62.181 Y-19.96
X-61.986 Y-19.98
X-61.797 Y-19.927
X-61.64 Y-19.81
X-61.536 Y-19.643
X-61.5 Y-19.45
Y-19.09
G3 X-61.707 Y-18.856 R0.247
X-62.5 Y-19.506 R0.683
G1 Y-19.876
X-62.493 Y-20.011
X-62.437 Y-20.134
X-62.351 Y-20.238
X-62.176 Y-20.324
X-61.982 Y-20.342
X-61.794 Y-20.288
X-61.638 Y-20.171
X-61.536 Y-20.005
X-61.5 Y-19.813
Y-19.45
G3 X-61.712 Y-19.215 R0.246
X-62.5 Y-19.876 R0.692
G1 Y-20.239
X-62.493 Y-20.374
X-62.436 Y-20.496
X-62.351 Y-20.601
X-62.176 Y-20.687
X-61.981 Y-20.705
X-61.794 Y-20.651
X-61.638 Y-20.533
X-61.536 Y-20.367
X-61.5 Y-20.176
Y-19.813
G3 X-61.712 Y-19.578 R0.246
X-62.5 Y-20.239 R0.692
G1 Y-20.615
X-62.493 Y-20.75
X-62.433 Y-20.871
X-62.345 Y-20.973
X-62.169 Y-21.056
X-61.976 Y-21.071
X-61.79 Y-21.016
X-61.637 Y-20.897
X-61.535 Y-20.732
X-61.5 Y-20.541
Y-20.176
G3 X-61.72 Y-19.939 R0.246
X-62.5 Y-20.615 R0.705
G1 Y-20.952
X-62.493 Y-21.087
X-62.441 Y-21.211
X-62.358 Y-21.318
X-62.184 Y-21.409
X-61.988 Y-21.429
X-61.798 Y-21.377
X-61.641 Y-21.26
X-61.536 Y-21.093
X-61.5 Y-20.9
Y-20.541
G3 X-61.704 Y-20.307 R0.247
X-62.486 Y-20.835 R0.679
X-62.5 Y-20.952 R0.679
G1 Y-21.315
X-62.493 Y-21.45
X-62.439 Y-21.574
X-62.356 Y-21.679
X-62.181 Y-21.769
X-61.986 Y-21.789
X-61.797 Y-21.737
X-61.64 Y-21.619
X-61.536 Y-21.453
X-61.5 Y-21.26
Y-20.9
G3 X-61.706 Y-20.665 R0.247
X-62.486 Y-21.198 R0.683
X-62.5 Y-21.315 R0.683
G1 Y-21.691
X-62.493 Y-21.826
X-62.435 Y-21.948
X-62.348 Y-22.051
X-62.173 Y-22.136
X-61.979 Y-22.153
X-61.793 Y-22.099
X-61.638 Y-21.981
X-61.536 Y-21.815
X-61.5 Y-21.624
Y-21.26
G3 X-61.715 Y-21.025 R0.246
X-62.486 Y-21.574 R0.697
X-62.5 Y-21.691 R0.697
G1 Y-22.061
X-62.493 Y-22.196
X-62.434 Y-22.317
X-62.346 Y-22.42
X-62.17 Y-22.503
X-61.977 Y-22.519
X-61.791 Y-22.464
X-61.637 Y-22.345
X-61.535 Y-22.18
X-61.5 Y-21.989
Y-21.624
G3 X-61.718 Y-21.388 R0.246
X-62.5 Y-22.061 R0.702
G1 Y-22.431
X-62.493 Y-22.566
X-62.432 Y-22.687
X-62.344 Y-22.788
X-62.168 Y-22.871
X-61.975 Y-22.885
X-61.79 Y-22.83
X-61.636 Y-22.711
X-61.535 Y-22.546
X-61.5 Y-22.356
Y-21.989
G3 X-61.721 Y-21.753 R0.246
X-62.5 Y-22.431 R0.707
G1 Y-22.794
X-62.493 Y-22.929
X-62.433 Y-23.05
X-62.345 Y-23.152
X-62.17 Y-23.236
X-61.977 Y-23.251
X-61.791 Y-23.196
X-61.637 Y-23.078
X-61.535 Y-22.912
X-61.5 Y-22.721
Y-22.356
G3 X-61.719 Y-22.119 R0.246
X-62.486 Y-22.677 R0.704
X-62.5 Y-22.794 R0.704
G1 Y-23.137
X-62.493 Y-23.272
X-62.439 Y-23.396
X-62.356 Y-23.502
X-62.181 Y-23.591
X-61.986 Y-23.611
X-61.797 Y-23.558
X-61.64 Y-23.441
X-61.536 Y-23.274
X-61.5 Y-23.081
Y-22.721
G3 X-61.707 Y-22.487 R0.247
X-62.5 Y-23.137 R0.683
G1 Y-23.507
X-62.493 Y-23.642
X-62.437 Y-23.765
X-62.351 Y-23.869
X-62.176 Y-23.955
X-61.982 Y-23.973
X-61.794 Y-23.92
X-61.638 Y-23.802
X-61.536 Y-23.636
X-61.5 Y-23.444
Y-23.081
G3 X-61.712 Y-22.846 R0.246
X-62.5 Y-23.507 R0.692
G1 Y-23.87
X-62.493 Y-24.005
X-62.436 Y-24.127
X-62.351 Y-24.232
X-62.176 Y-24.318
X-61.981 Y-24.336
X-61.794 Y-24.282
X-61.638 Y-24.164
X-61.536 Y-23.998
X-61.5 Y-23.807
Y-23.444
G3 X-61.712 Y-23.209 R0.246
X-62.5 Y-23.87 R0.692
G1 Y-24.246
X-62.493 Y-24.381
X-62.433 Y-24.502
X-62.345 Y-24.604
X-62.169 Y-24.687
X-61.976 Y-24.702
X-61.79 Y-24.647
X-61.637 Y-24.528
X-61.535 Y-24.363
X-61.5 Y-24.172
Y-23.807
G3 X-61.72 Y-23.57 R0.246
X-62.5 Y-24.246 R0.705
G1 Y-24.583
X-62.493 Y-24.718
X-62.441 Y-24.842
X-62.358 Y-24.949
X-62.184 Y-25.04
X-61.988 Y-25.06
X-61.798 Y-25.008
X-61.641 Y-24.891
X-61.536 Y-24.724
X-61.5 Y-24.531
Y-24.172
G3 X-61.704 Y-23.938 R0.247
X-62.486 Y-24.466 R0.679
X-62.5 Y-24.583 R0.679
G1 Y-24.946
X-62.493 Y-25.081
X-62.439 Y-25.205
X-62.356 Y-25.31
X-62.181 Y-25.4
X-61.986 Y-25.42
X-61.797 Y-25.368
X-61.64 Y-25.25
X-61.536 Y-25.084
X-61.5 Y-24.891
Y-24.531
G3 X-61.706 Y-24.296 R0.247
X-62.486 Y-24.829 R0.683
X-62.5 Y-24.946 R0.683
G1 X-62.495 Y-25.322
X-62.483 Y-25.457
X-62.425 Y-25.579
X-62.337 Y-25.681
X-62.163 Y-25.766
X-61.969 Y-25.781
X-61.784 Y-25.725
X-61.631 Y-25.605
X-61.532 Y-25.439
X-61.499 Y-25.247
X-61.5 Y-24.891
G3 X-61.706 Y-24.654 R0.25
X-62.486 Y-25.205 R0.672
X-62.495 Y-25.322 R0.672
G1 X-62.464 Y-25.726
X-62.462 Y-25.753
X-62.435 Y-25.885
X-62.361 Y-25.998
X-62.214 Y-26.089
X-62.046 Y-26.127
X-61.874 Y-26.108
X-61.717 Y-26.035
X-61.593 Y-25.914
X-61.515 Y-25.76
X-61.491 Y-25.589
X-61.499 Y-25.247
G3 X-61.739 Y-25.014 R0.246
X-62.462 Y-25.753 R0.705
G1 X-62.413 Y-26.079
X-62.386 Y-26.212
X-62.314 Y-26.326
X-62.215 Y-26.418
X-62.04 Y-26.476
X-61.855 Y-26.468
X-61.685 Y-26.394
X-61.553 Y-26.265
X-61.475 Y-26.098
X-61.463 Y-25.913
X-61.491 Y-25.589
G3 X-61.711 Y-25.362 R0.243
X-62.413 Y-26.079 R0.646
G1 X-62.361 Y-26.425
X-62.334 Y-26.558
X-62.264 Y-26.673
X-62.165 Y-26.765
X-61.985 Y-26.825
X-61.795 Y-26.814
X-61.623 Y-26.734
X-61.492 Y-26.597
X-61.42 Y-26.422
X-61.419 Y-26.232
X-61.463 Y-25.913
G3 X-61.683 Y-25.711 R0.238
X-62.361 Y-26.425 R0.642
G1 X-62.306 Y-26.75
X-62.256 Y-26.869
X-62.196 Y-26.99
X-62.103 Y-27.088
X-61.936 Y-27.151
X-61.758 Y-27.154
X-61.589 Y-27.095
X-61.45 Y-26.983
X-61.358 Y-26.83
X-61.323 Y-26.655
X-61.35 Y-26.479
G3 X-61.367 Y-26.442 R0.247
X-62.286 Y-26.756 R0.495
X-62.256 Y-26.869 R0.495
G1 X-62.109 Y-27.209
X-62.05 Y-27.33
X-61.949 Y-27.42
X-61.829 Y-27.481
X-61.633 Y-27.491
X-61.447 Y-27.429
X-61.296 Y-27.303
X-61.203 Y-27.13
X-61.179 Y-26.935
X-61.227 Y-26.745
X-61.35 Y-26.479
G3 X-61.624 Y-26.325 R0.243
X-62.142 Y-27.096 R0.656
X-62.109 Y-27.209 R0.656
G1 X-61.965 Y-27.542
X-61.906 Y-27.663
X-61.805 Y-27.752
X-61.685 Y-27.814
X-61.485 Y-27.823
X-61.295 Y-27.758
X-61.143 Y-27.628
X-61.049 Y-27.451
X-61.026 Y-27.252
X-61.078 Y-27.059
X-61.227 Y-26.745
G3 X-61.515 Y-26.622 R0.245
X-61.999 Y-27.429 R0.695
X-61.965 Y-27.542 R0.695
G1 X-61.847 Y-27.804
X-61.745 Y-27.936
X-61.657 Y-28.038
X-61.529 Y-28.113
X-61.356 Y-28.133
X-61.187 Y-28.095
X-61.04 Y-28.003
X-60.931 Y-27.868
X-60.873 Y-27.704
X-60.872 Y-27.531
X-60.929 Y-27.367
X-61.078 Y-27.059
G3 X-61.376 Y-26.925 R0.266
X-61.806 Y-27.835 R0.648
X-61.745 Y-27.936 R0.648
G1 X-61.513 Y-28.231
X-61.425 Y-28.333
X-61.306 Y-28.397
X-61.131 Y-28.407
X-60.963 Y-28.357
X-60.823 Y-28.252
X-60.727 Y-28.105
X-60.688 Y-27.935
X-60.709 Y-27.761
X-60.789 Y-27.605
G3 X-60.826 Y-27.568 R0.239
X-60.88 Y-27.531 R0.482
X-61.513 Y-28.231 R0.482
G1 X-61.311 Y-28.488
X-61.223 Y-28.59
X-61.106 Y-28.657
X-60.975 Y-28.689
X-60.802 Y-28.657
X-60.651 Y-28.57
X-60.537 Y-28.436
X-60.475 Y-28.272
X-60.472 Y-28.097
X-60.528 Y-27.93
X-60.636 Y-27.792
G3 X-61.06 Y-27.83 R0.3
G1 X-61.3 Y-28.119
G3 X-61.311 Y-28.488 R0.3
G1 X-61.13 Y-28.711
X-60.978 Y-28.828
X-60.866 Y-28.904
X-60.735 Y-28.936
X-60.6 Y-28.935
X-60.421 Y-28.854
X-60.284 Y-28.714
X-60.207 Y-28.533
X-60.201 Y-28.337
X-60.267 Y-28.152
X-60.395 Y-28.003
X-60.636 Y-27.792
G3 X-60.949 Y-27.781 R0.255
X-60.978 Y-28.828 R0.66
G1 X-60.669 Y-29.061
X-60.557 Y-29.136
X-60.425 Y-29.164
X-60.248 Y-29.123
X-60.095 Y-29.024
X-59.984 Y-28.88
X-59.929 Y-28.706
X-59.935 Y-28.524
X-60.003 Y-28.355
X-60.124 Y-28.219
X-60.395 Y-28.003
G3 X-60.716 Y-28.025 R0.249
X-60.669 Y-29.061 R0.693
G1 X-60.4 Y-29.263
X-60.288 Y-29.339
X-60.157 Y-29.37
X-59.98 Y-29.332
X-59.826 Y-29.236
X-59.714 Y-29.094
X-59.658 Y-28.922
X-59.663 Y-28.741
X-59.73 Y-28.572
X-59.85 Y-28.437
X-60.124 Y-28.219
G3 X-60.44 Y-28.238 R0.246
X-60.4 Y-29.263 R0.682
G1 X-60.239 Y-29.384
X-60.131 Y-29.437
X-60.024 Y-29.48
X-59.896 Y-29.525
X-59.762 Y-29.531
X-59.6 Y-29.46
X-59.471 Y-29.339
X-59.392 Y-29.181
X-59.371 Y-29.006
X-59.412 Y-28.834
X-59.508 Y-28.686
X-59.649 Y-28.58
G3 X-59.681 Y-28.568 R0.244
X-60.024 Y-29.48 R0.488
G1 X-59.689 Y-29.617
X-59.562 Y-29.662
X-59.427 Y-29.658
X-59.298 Y-29.619
X-59.151 Y-29.489
X-59.064 Y-29.313
X-59.051 Y-29.118
X-59.114 Y-28.932
X-59.242 Y-28.783
X-59.418 Y-28.695
G3 X-59.78 Y-28.922 R0.3
G1 X-59.859 Y-29.278
G3 X-59.689 Y-29.617 R0.3
G1 X-59.351 Y-29.755
X-59.224 Y-29.8
X-59.089 Y-29.792
X-58.96 Y-29.751
X-58.829 Y-29.635
X-58.742 Y-29.482
X-58.709 Y-29.309
X-58.735 Y-29.135
X-58.815 Y-28.979
X-58.942 Y-28.857
X-59.101 Y-28.783
X-59.418 Y-28.695
G3 X-59.685 Y-28.82 R0.237
X-59.351 Y-29.755 R0.688
G1 X-59.122 Y-29.841
X-58.92 Y-29.868
X-58.786 Y-29.879
X-58.654 Y-29.848
X-58.535 Y-29.786
X-58.414 Y-29.633
X-58.357 Y-29.447
X-58.369 Y-29.253
X-58.451 Y-29.076
X-58.59 Y-28.94
X-58.769 Y-28.863
X-59.101 Y-28.783
G3 X-59.392 Y-28.914 R0.26
X-58.92 Y-29.868 R0.655
G1 X-58.544 Y-29.917
X-58.409 Y-29.927
X-58.279 Y-29.893
X-58.143 Y-29.779
X-58.053 Y-29.626
X-58.02 Y-29.451
X-58.049 Y-29.275
X-58.135 Y-29.12
X-58.268 Y-29.002
X-58.434 Y-28.937
X-58.769 Y-28.863
G3 X-59.048 Y-29.015 R0.251
X-58.544 Y-29.917 R0.661
G1 X-58.174 Y-29.962
X-58.039 Y-29.969
X-57.912 Y-29.924
X-57.799 Y-29.849
X-57.697 Y-29.684
X-57.663 Y-29.493
X-57.703 Y-29.303
X-57.811 Y-29.141
X-57.971 Y-29.032
X-58.161 Y-28.991
G3 X-58.457 Y-29.309 R0.3
G1 X-58.434 Y-29.684
G3 X-58.174 Y-29.962 R0.3
G1 X-57.803 Y-29.994
X-57.668 Y-29.996
X-57.542 Y-29.948
X-57.432 Y-29.87
X-57.333 Y-29.699
X-57.304 Y-29.503
X-57.349 Y-29.31
X-57.463 Y-29.148
X-57.628 Y-29.039
X-57.822 Y-28.998
X-58.161 Y-28.991
G3 X-58.395 Y-29.179 R0.242
X-57.803 Y-29.994 R0.67
G1 X-57.4 Y-30.
X-57.265 Y-29.993
X-57.143 Y-29.935
X-57.027 Y-29.793
X-56.966 Y-29.619
X-56.968 Y-29.436
X-57.032 Y-29.263
X-57.15 Y-29.123
X-57.31 Y-29.032
X-57.491 Y-29.
X-57.822 Y-28.998
G3 X-58.062 Y-29.21 R0.247
X-57.4 Y-30. R0.693
G1 X-57.064
X-56.929 Y-29.993
X-56.806 Y-29.938
X-56.702 Y-29.852
X-56.616 Y-29.676
X-56.599 Y-29.482
X-56.654 Y-29.294
X-56.772 Y-29.138
X-56.938 Y-29.036
X-57.13 Y-29.
X-57.491
G3 X-57.726 Y-29.212 R0.246
X-57.064 Y-30. R0.693
G1 X-56.694
X-56.559 Y-29.993
X-56.438 Y-29.934
X-56.335 Y-29.847
X-56.251 Y-29.672
X-56.235 Y-29.478
X-56.29 Y-29.292
X-56.408 Y-29.137
X-56.573 Y-29.035
X-56.764 Y-29.
X-57.13
G3 X-57.366 Y-29.218 R0.246
X-56.694 Y-30. R0.702
G1 X-56.324
X-56.189 Y-29.993
X-56.068 Y-29.933
X-55.966 Y-29.844
X-55.883 Y-29.669
X-55.869 Y-29.476
X-55.924 Y-29.29
X-56.042 Y-29.136
X-56.208 Y-29.035
X-56.398 Y-29.
X-56.764
G3 X-57.001 Y-29.22 R0.246
X-56.324 Y-30. R0.705
G1 X-55.961
X-55.826 Y-29.993
X-55.705 Y-29.934
X-55.602 Y-29.846
X-55.519 Y-29.671
X-55.503 Y-29.477
X-55.558 Y-29.291
X-55.676 Y-29.137
X-55.842 Y-29.035
X-56.033 Y-29.
X-56.398
G3 X-56.634 Y-29.218 R0.246
X-55.961 Y-30. R0.703
G1 X-55.618
X-55.483 Y-29.993
X-55.359 Y-29.94
X-55.253 Y-29.856
X-55.164 Y-29.682
X-55.144 Y-29.486
X-55.196 Y-29.297
X-55.314 Y-29.14
X-55.48 Y-29.036
X-55.673 Y-29.
X-56.033
G3 X-56.267 Y-29.206 R0.247
X-55.618 Y-30. R0.683
G1 X-55.248
X-55.113 Y-29.993
X-54.99 Y-29.937
X-54.886 Y-29.851
X-54.799 Y-29.676
X-54.781 Y-29.482
X-54.835 Y-29.294
X-54.953 Y-29.138
X-55.118 Y-29.036
X-55.31 Y-29.
X-55.673
G3 X-55.909 Y-29.212 R0.246
X-55.248 Y-30. R0.692
G1 X-54.885
X-54.75 Y-29.993
X-54.627 Y-29.936
X-54.523 Y-29.851
X-54.437 Y-29.676
X-54.419 Y-29.482
X-54.473 Y-29.294
X-54.59 Y-29.138
X-54.756 Y-29.036
X-54.948 Y-29.
X-55.31
G3 X-55.546 Y-29.212 R0.246
X-54.885 Y-30. R0.692
G1 X-54.508
X-54.374 Y-29.993
X-54.253 Y-29.933
X-54.151 Y-29.845
X-54.068 Y-29.669
X-54.053 Y-29.476
X-54.108 Y-29.29
X-54.226 Y-29.137
X-54.391 Y-29.035
X-54.582 Y-29.
X-54.948
G3 X-55.184 Y-29.219 R0.246
X-54.508 Y-30. R0.705
G1 X-54.171
X-54.037 Y-29.993
X-53.912 Y-29.941
X-53.805 Y-29.858
X-53.715 Y-29.684
X-53.694 Y-29.488
X-53.746 Y-29.298
X-53.863 Y-29.141
X-54.03 Y-29.036
X-54.224 Y-29.
X-54.582
G3 X-54.816 Y-29.204 R0.247
X-54.171 Y-30. R0.679
G1 X-53.808
X-53.674 Y-29.993
X-53.55 Y-29.939
X-53.444 Y-29.856
X-53.355 Y-29.681
X-53.335 Y-29.486
X-53.387 Y-29.297
X-53.504 Y-29.14
X-53.67 Y-29.036
X-53.863 Y-29.
X-54.224
G3 X-54.458 Y-29.206 R0.247
X-53.808 Y-30. R0.683
G1 X-53.432
X-53.297 Y-29.993
X-53.175 Y-29.935
X-53.072 Y-29.848
X-52.987 Y-29.673
X-52.97 Y-29.479
X-53.025 Y-29.292
X-53.142 Y-29.138
X-53.308 Y-29.036
X-53.499 Y-29.
X-53.863
G3 X-54.099 Y-29.215 R0.246
X-53.432 Y-30. R0.697
G1 X-53.062
X-52.927 Y-29.993
X-52.806 Y-29.934
X-52.704 Y-29.845
X-52.62 Y-29.67
X-52.605 Y-29.477
X-52.66 Y-29.291
X-52.778 Y-29.137
X-52.943 Y-29.035
X-53.134 Y-29.
X-53.499
G3 X-53.736 Y-29.218 R0.246
X-53.062 Y-30. R0.703
G1 X-52.692
X-52.557 Y-29.993
X-52.436 Y-29.932
X-52.335 Y-29.844
X-52.252 Y-29.668
X-52.238 Y-29.475
X-52.294 Y-29.29
X-52.412 Y-29.136
X-52.577 Y-29.035
X-52.768 Y-29.
X-53.134
G3 X-53.371 Y-29.221 R0.246
X-52.692 Y-30. R0.707
G1 X-52.329
X-52.194 Y-29.993
X-52.073 Y-29.933
X-51.971 Y-29.845
X-51.887 Y-29.67
X-51.872 Y-29.477
X-51.927 Y-29.291
X-52.046 Y-29.137
X-52.211 Y-29.035
X-52.402 Y-29.
X-52.768
G3 X-53.004 Y-29.219 R0.246
X-52.329 Y-30. R0.704
G1 X-51.986
X-51.851 Y-29.993
X-51.727 Y-29.939
X-51.621 Y-29.856
X-51.532 Y-29.681
X-51.512 Y-29.486
X-51.565 Y-29.297
X-51.683 Y-29.14
X-51.849 Y-29.036
X-52.042 Y-29.
X-52.402
G3 X-52.637 Y-29.207 R0.247
X-51.986 Y-30. R0.684
G1 X-51.615
X-51.481 Y-29.993
X-51.358 Y-29.936
X-51.254 Y-29.85
X-51.168 Y-29.676
X-51.15 Y-29.481
X-51.204 Y-29.294
X-51.321 Y-29.138
X-51.487 Y-29.036
X-51.679 Y-29.
X-52.042
G3 X-52.277 Y-29.212 R0.246
X-51.615 Y-30. R0.693
G1 X-51.253
X-51.118 Y-29.993
X-50.995 Y-29.936
X-50.891 Y-29.85
X-50.805 Y-29.676
X-50.787 Y-29.481
X-50.841 Y-29.294
X-50.959 Y-29.138
X-51.125 Y-29.036
X-51.316 Y-29.
X-51.679
G3 X-51.914 Y-29.212 R0.246
X-51.253 Y-30. R0.693
G1 X-50.876
X-50.741 Y-29.993
X-50.621 Y-29.933
X-50.519 Y-29.844
X-50.436 Y-29.669
X-50.421 Y-29.476
X-50.476 Y-29.29
X-50.594 Y-29.136
X-50.76 Y-29.035
X-50.95 Y-29.
X-51.316
G3 X-51.553 Y-29.22 R0.246
X-50.876 Y-30. R0.705
G1 X-50.539
X-50.404 Y-29.993
X-50.28 Y-29.941
X-50.173 Y-29.858
X-50.083 Y-29.684
X-50.062 Y-29.488
X-50.114 Y-29.298
X-50.232 Y-29.141
X-50.398 Y-29.036
X-50.592 Y-29.
X-50.95
G3 X-51.185 Y-29.204 R0.247
X-50.539 Y-30. R0.679
G1 X-50.176
X-50.042 Y-29.993
X-49.918 Y-29.939
X-49.812 Y-29.856
X-49.723 Y-29.681
X-49.703 Y-29.486
X-49.755 Y-29.297
X-49.872 Y-29.14
X-50.039 Y-29.036
X-50.231 Y-29.
X-50.592
G3 X-50.826 Y-29.206 R0.247
X-50.176 Y-30. R0.683
G1 X-49.8
X-49.665 Y-29.993
X-49.543 Y-29.935
X-49.44 Y-29.848
X-49.355 Y-29.673
X-49.338 Y-29.479
X-49.393 Y-29.292
X-49.511 Y-29.138
X-49.676 Y-29.036
X-49.867 Y-29.
X-50.231
G3 X-50.467 Y-29.215 R0.246
X-49.8 Y-30. R0.697
G1 X-49.43
X-49.295 Y-29.993
X-49.174 Y-29.933
X-49.072 Y-29.845
X-48.988 Y-29.67
X-48.973 Y-29.477
X-49.028 Y-29.291
X-49.146 Y-29.137
X-49.311 Y-29.035
X-49.502 Y-29.
X-49.867
G3 X-50.104 Y-29.218 R0.246
X-49.43 Y-30. R0.703
G1 X-49.06
X-48.925 Y-29.993
X-48.804 Y-29.932
X-48.703 Y-29.844
X-48.62 Y-29.668
X-48.606 Y-29.475
X-48.662 Y-29.29
X-48.78 Y-29.136
X-48.945 Y-29.035
X-49.136 Y-29.
X-49.502
G3 X-49.739 Y-29.221 R0.246
X-49.06 Y-30. R0.707
G1 X-48.697
X-48.562 Y-29.993
X-48.441 Y-29.933
X-48.338 Y-29.845
X-48.255 Y-29.67
X-48.24 Y-29.477
X-48.295 Y-29.291
X-48.414 Y-29.137
X-48.579 Y-29.035
X-48.77 Y-29.
X-49.136
G3 X-49.372 Y-29.219 R0.246
X-48.697 Y-30. R0.704
G1 X-48.354
X-48.219 Y-29.993
X-48.095 Y-29.939
X-47.989 Y-29.856
X-47.9 Y-29.681
X-47.88 Y-29.486
X-47.933 Y-29.297
X-48.051 Y-29.14
X-48.217 Y-29.036
X-48.41 Y-29.
X-48.77
G3 X-49.005 Y-29.207 R0.247
X-48.354 Y-30. R0.684
G1 X-47.983
X-47.848 Y-29.993
X-47.726 Y-29.936
X-47.622 Y-29.85
X-47.535 Y-29.676
X-47.518 Y-29.481
X-47.571 Y-29.294
X-47.689 Y-29.138
X-47.855 Y-29.036
X-48.047 Y-29.
X-48.41
G3 X-48.645 Y-29.212 R0.246
X-47.983 Y-30. R0.693
G1 X-47.62
X-47.486 Y-29.993
X-47.363 Y-29.936
X-47.259 Y-29.85
X-47.173 Y-29.676
X-47.155 Y-29.481
X-47.209 Y-29.294
X-47.327 Y-29.138
X-47.493 Y-29.036
X-47.684 Y-29.
X-48.047
G3 X-48.282 Y-29.212 R0.246
X-47.62 Y-30. R0.693
G1 X-47.244
X-47.109 Y-29.993
X-46.988 Y-29.933
X-46.887 Y-29.844
X-46.804 Y-29.669
X-46.789 Y-29.476
X-46.844 Y-29.29
X-46.962 Y-29.136
X-47.128 Y-29.035
X-47.318 Y-29.
X-47.684
G3 X-47.921 Y-29.22 R0.246
X-47.244 Y-30. R0.705
G1 X-46.907
X-46.772 Y-29.993
X-46.648 Y-29.941
X-46.541 Y-29.858
X-46.451 Y-29.684
X-46.43 Y-29.488
X-46.482 Y-29.298
X-46.6 Y-29.141
X-46.766 Y-29.036
X-46.96 Y-29.
X-47.318
G3 X-47.553 Y-29.204 R0.247
X-46.907 Y-30. R0.679
G1 X-46.544
X-46.409 Y-29.993
X-46.286 Y-29.939
X-46.18 Y-29.855
X-46.09 Y-29.681
X-46.071 Y-29.486
X-46.123 Y-29.297
X-46.24 Y-29.14
X-46.406 Y-29.036
X-46.599 Y-29.
X-46.96
G3 X-47.194 Y-29.206 R0.247
X-46.544 Y-30. R0.683
G1 X-46.168
X-46.033 Y-29.993
X-45.911 Y-29.935
X-45.808 Y-29.848
X-45.723 Y-29.673
X-45.706 Y-29.479
X-45.761 Y-29.292
X-45.878 Y-29.138
X-46.044 Y-29.036
X-46.235 Y-29.
X-46.599
G3 X-46.835 Y-29.215 R0.246
X-46.168 Y-30. R0.697
G1 X-45.798
X-45.663 Y-29.993
X-45.542 Y-29.933
X-45.439 Y-29.845
X-45.356 Y-29.67
X-45.341 Y-29.477
X-45.396 Y-29.291
X-45.514 Y-29.137
X-45.679 Y-29.035
X-45.87 Y-29.
X-46.235
G3 X-46.472 Y-29.218 R0.246
X-45.798 Y-30. R0.703
G1 X-45.427
X-45.293 Y-29.993
X-45.172 Y-29.932
X-45.07 Y-29.844
X-44.988 Y-29.668
X-44.974 Y-29.475
X-45.029 Y-29.29
X-45.148 Y-29.136
X-45.313 Y-29.035
X-45.504 Y-29.
X-45.87
G3 X-46.107 Y-29.221 R0.246
X-45.427 Y-30. R0.707
G1 X-45.065
X-44.93 Y-29.993
X-44.809 Y-29.933
X-44.706 Y-29.845
X-44.623 Y-29.67
X-44.608 Y-29.477
X-44.663 Y-29.291
X-44.782 Y-29.137
X-44.947 Y-29.035
X-45.138 Y-29.
X-45.504
G3 X-45.74 Y-29.219 R0.246
X-45.065 Y-30. R0.704
G1 X-44.721
X-44.587 Y-29.993
X-44.463 Y-29.939
X-44.357 Y-29.856
X-44.268 Y-29.681
X-44.248 Y-29.486
X-44.301 Y-29.297
X-44.418 Y-29.14
X-44.585 Y-29.036
X-44.778 Y-29.
X-45.138
G3 X-45.373 Y-29.207 R0.247
X-44.721 Y-30. R0.684
G1 X-44.351
X-44.216 Y-29.993
X-44.094 Y-29.936
X-43.99 Y-29.85
X-43.903 Y-29.676
X-43.886 Y-29.481
X-43.939 Y-29.294
X-44.057 Y-29.138
X-44.223 Y-29.036
X-44.415 Y-29.
X-44.778
G3 X-45.013 Y-29.212 R0.246
X-44.351 Y-30. R0.693
G1 X-43.988
X-43.854 Y-29.993
X-43.731 Y-29.936
X-43.627 Y-29.85
X-43.541 Y-29.676
X-43.523 Y-29.481
X-43.577 Y-29.294
X-43.694 Y-29.138
X-43.86 Y-29.036
X-44.052 Y-29.
X-44.415
G3 X-44.65 Y-29.212 R0.246
X-43.988 Y-30. R0.693
G1 X-43.612
X-43.477 Y-29.993
X-43.356 Y-29.933
X-43.255 Y-29.844
X-43.172 Y-29.669
X-43.157 Y-29.476
X-43.212 Y-29.29
X-43.33 Y-29.136
X-43.496 Y-29.035
X-43.686 Y-29.
X-44.052
G3 X-44.288 Y-29.22 R0.246
X-43.612 Y-30. R0.705
G1 X-43.275
X-43.14 Y-29.993
X-43.016 Y-29.941
X-42.909 Y-29.858
X-42.819 Y-29.684
X-42.798 Y-29.488
X-42.85 Y-29.298
X-42.967 Y-29.141
X-43.134 Y-29.036
X-43.327 Y-29.
X-43.686
G3 X-43.92 Y-29.204 R0.247
X-43.275 Y-30. R0.679
G1 X-42.912
X-42.777 Y-29.993
X-42.654 Y-29.939
X-42.548 Y-29.855
X-42.458 Y-29.681
X-42.438 Y-29.486
X-42.491 Y-29.297
X-42.608 Y-29.14
X-42.774 Y-29.036
X-42.967 Y-29.
X-43.327
G3 X-43.562 Y-29.206 R0.247
X-42.912 Y-30. R0.683
G1 X-42.536
X-42.401 Y-29.993
X-42.279 Y-29.935
X-42.176 Y-29.848
X-42.091 Y-29.673
X-42.074 Y-29.479
X-42.128 Y-29.292
X-42.246 Y-29.138
X-42.412 Y-29.036
X-42.603 Y-29.
X-42.967
G3 X-43.203 Y-29.215 R0.246
X-42.536 Y-30. R0.697
G1 X-42.166
X-42.031 Y-29.993
X-41.91 Y-29.933
X-41.807 Y-29.845
X-41.724 Y-29.67
X-41.709 Y-29.477
X-41.764 Y-29.291
X-41.882 Y-29.137
X-42.047 Y-29.035
X-42.238 Y-29.
X-42.603
G3 X-42.839 Y-29.218 R0.246
X-42.166 Y-30. R0.703
G1 X-41.795
X-41.66 Y-29.993
X-41.54 Y-29.932
X-41.438 Y-29.844
X-41.356 Y-29.668
X-41.342 Y-29.475
X-41.397 Y-29.29
X-41.516 Y-29.136
X-41.681 Y-29.035
X-41.871 Y-29.
X-42.238
G3 X-42.474 Y-29.221 R0.246
X-41.795 Y-30. R0.707
G1 X-41.432
X-41.298 Y-29.993
X-41.177 Y-29.933
X-41.074 Y-29.845
X-40.991 Y-29.67
X-40.976 Y-29.477
X-41.031 Y-29.291
X-41.149 Y-29.137
X-41.315 Y-29.035
X-41.506 Y-29.
X-41.871
G3 X-42.108 Y-29.219 R0.246
X-41.432 Y-30. R0.704
G1 X-41.089
X-40.955 Y-29.993
X-40.831 Y-29.939
X-40.725 Y-29.856
X-40.636 Y-29.681
X-40.616 Y-29.486
X-40.669 Y-29.297
X-40.786 Y-29.14
X-40.953 Y-29.036
X-41.146 Y-29.
X-41.506
G3 X-41.74 Y-29.207 R0.247
X-41.089 Y-30. R0.684
G1 X-40.719
X-40.584 Y-29.993
X-40.462 Y-29.936
X-40.358 Y-29.85
X-40.271 Y-29.676
X-40.254 Y-29.481
X-40.307 Y-29.294
X-40.425 Y-29.138
X-40.591 Y-29.036
X-40.783 Y-29.
X-41.146
G3 X-41.381 Y-29.212 R0.246
X-40.719 Y-30. R0.693
G1 X-40.356
X-40.221 Y-29.993
X-40.099 Y-29.936
X-39.995 Y-29.85
X-39.908 Y-29.676
X-39.891 Y-29.481
X-39.945 Y-29.294
X-40.062 Y-29.138
X-40.228 Y-29.036
X-40.42 Y-29.
X-40.783
G3 X-41.018 Y-29.212 R0.246
X-40.356 Y-30. R0.693
G1 X-39.98
X-39.845 Y-29.993
X-39.724 Y-29.933
X-39.622 Y-29.844
X-39.539 Y-29.669
X-39.525 Y-29.476
X-39.58 Y-29.29
X-39.698 Y-29.136
X-39.863 Y-29.035
X-40.054 Y-29.
X-40.42
G3 X-40.656 Y-29.22 R0.246
X-39.98 Y-30. R0.705
G1 X-39.643
X-39.508 Y-29.993
X-39.384 Y-29.941
X-39.277 Y-29.858
X-39.187 Y-29.684
X-39.166 Y-29.488
X-39.218 Y-29.298
X-39.335 Y-29.141
X-39.502 Y-29.036
X-39.695 Y-29.
X-40.054
G3 X-40.288 Y-29.204 R0.247
X-39.643 Y-30. R0.679
G1 X-39.28
X-39.145 Y-29.993
X-39.021 Y-29.939
X-38.916 Y-29.855
X-38.826 Y-29.681
X-38.806 Y-29.486
X-38.859 Y-29.297
X-38.976 Y-29.14
X-39.142 Y-29.036
X-39.335 Y-29.
X-39.695
G3 X-39.93 Y-29.206 R0.247
X-39.28 Y-30. R0.683
G1 X-38.904
X-38.769 Y-29.993
X-38.647 Y-29.935
X-38.544 Y-29.848
X-38.459 Y-29.673
X-38.442 Y-29.479
X-38.496 Y-29.292
X-38.614 Y-29.138
X-38.78 Y-29.036
X-38.971 Y-29.
X-39.335
G3 X-39.571 Y-29.215 R0.246
X-38.904 Y-30. R0.697
G1 X-38.533
X-38.399 Y-29.993
X-38.278 Y-29.933
X-38.175 Y-29.845
X-38.092 Y-29.67
X-38.076 Y-29.477
X-38.132 Y-29.291
X-38.25 Y-29.137
X-38.415 Y-29.035
X-38.606 Y-29.
X-38.971
G3 X-39.207 Y-29.218 R0.246
X-38.533 Y-30. R0.703
G1 X-38.163
X-38.028 Y-29.993
X-37.908 Y-29.932
X-37.806 Y-29.844
X-37.724 Y-29.668
X-37.71 Y-29.475
X-37.765 Y-29.29
X-37.884 Y-29.136
X-38.049 Y-29.035
X-38.239 Y-29.
X-38.606
G3 X-38.842 Y-29.221 R0.246
X-38.163 Y-30. R0.707
G1 X-37.8
X-37.665 Y-29.993
X-37.544 Y-29.933
X-37.442 Y-29.845
X-37.359 Y-29.67
X-37.344 Y-29.477
X-37.399 Y-29.291
X-37.517 Y-29.137
X-37.683 Y-29.035
X-37.874 Y-29.
X-38.239
G3 X-38.476 Y-29.219 R0.246
X-37.8 Y-30. R0.704
G1 X-37.457
X-37.322 Y-29.993
X-37.199 Y-29.939
X-37.093 Y-29.856
X-37.004 Y-29.681
X-36.984 Y-29.486
X-37.037 Y-29.297
X-37.154 Y-29.14
X-37.321 Y-29.036
X-37.513 Y-29.
X-37.874
G3 X-38.108 Y-29.207 R0.247
X-37.457 Y-30. R0.684
G1 X-37.087
X-36.952 Y-29.993
X-36.83 Y-29.936
X-36.726 Y-29.85
X-36.639 Y-29.676
X-36.621 Y-29.481
X-36.675 Y-29.294
X-36.793 Y-29.138
X-36.959 Y-29.036
X-37.15 Y-29.
X-37.513
G3 X-37.749 Y-29.212 R0.246
X-37.087 Y-30. R0.693
G1 X-36.724
X-36.589 Y-29.993
X-36.467 Y-29.936
X-36.363 Y-29.85
X-36.276 Y-29.676
X-36.259 Y-29.481
X-36.313 Y-29.294
X-36.43 Y-29.138
X-36.596 Y-29.036
X-36.788 Y-29.
X-37.15
G3 X-37.386 Y-29.212 R0.246
X-36.724 Y-30. R0.693
G1 X-36.348
X-36.213 Y-29.993
X-36.092 Y-29.933
X-35.99 Y-29.844
X-35.907 Y-29.669
X-35.892 Y-29.476
X-35.948 Y-29.29
X-36.066 Y-29.136
X-36.231 Y-29.035
X-36.422 Y-29.
X-36.788
G3 X-37.024 Y-29.22 R0.246
