(_BF12)
(T1  D=3. CR=0. - ZMIN=-10. - FLAT END MILL)
G90 G94 G91.1 G40 G49 G17
G21

(2D ADAPTIVE6)
M5
M9
T1
S10000 M3
G54
M8
G0 X40.28 Y-7.903
G43 Z10. H1
Z5.
Z0.845
G1 Z0.545 F720.
G3 X42.07 Y-7.434 Z0.033 R0.925
X40.28 Y-7.903 Z-0.48 R0.925
X42.07 Y-7.434 Z-0.992 R0.925
X40.28 Y-7.903 Z-1.505 R0.925
X42.07 Y-7.434 Z-2.017 R0.925
X40.28 Y-7.903 Z-2.529 R0.925
X42.1 Y-7.668 Z-3. R0.925
X40.25 R0.925
X42.1 R0.925
G1 X42.131 Y-7.003
X42.117 Y-6.868
X42.077 Y-6.739
X42.015 Y-6.619
X41.936 Y-6.51
X41.843 Y-6.413
X41.737 Y-6.329
X41.622 Y-6.258
X41.5 Y-6.201
X41.372 Y-6.158
X41.24 Y-6.128
X41.106 Y-6.113
X40.971 Y-6.111
X40.836 Y-6.122
X40.704 Y-6.146
X40.574 Y-6.182
X40.447 Y-6.23
X40.326 Y-6.289
X40.211 Y-6.359
X40.102 Y-6.439
X40. Y-6.528
X39.907 Y-6.626
X39.822 Y-6.731
X39.747 Y-6.843
X39.681 Y-6.961
X39.626 Y-7.084
X39.581 Y-7.211
X39.547 Y-7.342
X39.524 Y-7.475
X39.511 Y-7.609
X39.51 Y-7.744
X39.521 Y-7.879
X39.542 Y-8.012
X39.574 Y-8.143
X39.616 Y-8.271
X39.669 Y-8.396
X39.732 Y-8.515
X39.804 Y-8.629
X39.886 Y-8.737
X39.976 Y-8.838
X40.073 Y-8.931
X40.178 Y-9.016
X40.29 Y-9.092
X40.407 Y-9.159
X40.529 Y-9.216
X40.656 Y-9.263
X40.786 Y-9.3
X40.918 Y-9.326
X41.052 Y-9.342
X41.187 Y-9.347
X41.322 Y-9.34
X41.456 Y-9.323
X41.588 Y-9.296
X41.717 Y-9.257
X41.843 Y-9.209
X41.965 Y-9.15
X42.081 Y-9.082
X42.192 Y-9.005
X42.296 Y-8.919
X42.393 Y-8.825
X42.482 Y-8.723
X42.576 Y-8.596
X42.679 Y-8.432
X42.774 Y-8.244
X42.81 Y-8.131
X42.854 Y-7.937
X42.875 Y-7.668
Y-7.13
X42.864 Y-6.918
X42.847 Y-6.784
X42.818 Y-6.652
X42.779 Y-6.523
X42.728 Y-6.396
X42.669 Y-6.275
X42.596 Y-6.153
X42.513 Y-6.037
X42.422 Y-5.928
X42.318 Y-5.823
X42.202 Y-5.724
X42.08 Y-5.635
X41.949 Y-5.554
X41.808 Y-5.482
X41.658 Y-5.421
X41.503 Y-5.371
X41.343 Y-5.334
X41.177 Y-5.31
X41.006 Y-5.298
X40.831 Y-5.3
X40.656 Y-5.316
X40.482 Y-5.347
X40.309 Y-5.392
X40.138 Y-5.451
X39.97 Y-5.525
X39.807 Y-5.613
X39.649 Y-5.715
X39.499 Y-5.83
X39.315 Y-6.003
X39.212 Y-6.145
X39.147 Y-6.309
X39.125 Y-6.483
Y-7.668
X39.146 Y-7.937
X39.207 Y-8.207
X39.313 Y-8.476
X39.47 Y-8.745
X39.56 Y-8.87
X39.694 Y-9.014
X39.83 Y-9.131
X40.054 Y-9.283
X40.368 Y-9.432
X40.637 Y-9.506
X40.906 Y-9.541
X41.175 Y-9.534
X41.444 Y-9.487
X41.713 Y-9.399
X41.982 Y-9.258
X42.296 Y-9.014
X42.526 Y-8.745
X42.692 Y-8.476
X42.793 Y-8.207
X42.81 Y-8.131
G3 X42.815 Y-8.093 R0.3
G1 X42.82 Y-8.014
X42.868 Y-7.248
X42.875 Y-7.13
Y-6.009
X42.868 Y-5.874
X42.844 Y-5.742
X42.803 Y-5.613
X42.749 Y-5.489
X42.683 Y-5.371
X42.607 Y-5.26
X42.521 Y-5.154
X42.42 Y-5.047
X42.302 Y-4.943
X42.173 Y-4.845
X42.03 Y-4.754
X41.872 Y-4.669
X41.698 Y-4.595
X41.513 Y-4.532
X41.319 Y-4.483
X41.116 Y-4.449
X40.903 Y-4.43
X40.682 Y-4.429
X40.456 Y-4.446
X40.226 Y-4.482
X39.994 Y-4.537
X39.765 Y-4.612
X39.504 Y-4.726
X39.348 Y-4.836
X39.227 Y-4.984
X39.151 Y-5.159
X39.125 Y-5.348
Y-6.483
G3 X39.469 Y-6.769 R0.3
G1 X42.62 Y-6.295
G3 X42.875 Y-6.009 R0.3
G1 Y-5.165
X42.868 Y-5.031
X42.844 Y-4.898
X42.804 Y-4.769
X42.75 Y-4.645
X42.684 Y-4.528
X42.607 Y-4.416
X42.518 Y-4.307
X42.413 Y-4.196
X42.288 Y-4.085
X42.151 Y-3.982
X41.995 Y-3.882
X41.818 Y-3.788
X41.626 Y-3.706
X41.421 Y-3.637
X41.196 Y-3.58
X40.953 Y-3.54
X40.697 Y-3.518
X40.435 Y-3.517
X40.187 Y-3.535
X39.965 Y-3.57
X39.761 Y-3.619
X39.554 Y-3.691
X39.379 Y-3.796
X39.242 Y-3.948
X39.155 Y-4.134
X39.125 Y-4.336
Y-5.348
G3 X39.442 Y-5.637 R0.3
G1 X42.593 Y-5.454
G3 X42.875 Y-5.165 R0.3
G1 Y-4.292
X42.868 Y-4.157
X42.841 Y-4.025
X42.798 Y-3.897
X42.742 Y-3.774
X42.675 Y-3.657
X42.595 Y-3.541
X42.501 Y-3.426
X42.385 Y-3.306
X42.256 Y-3.192
X42.105 Y-3.079
X41.929 Y-2.968
X41.741 Y-2.869
X41.528 Y-2.778
X41.293 Y-2.7
X41.044 Y-2.638
X40.787 Y-2.596
X40.526 Y-2.575
X40.292
X40.075 Y-2.592
X39.874 Y-2.624
X39.709 Y-2.665
X39.605 Y-2.699
X39.411 Y-2.799
X39.257 Y-2.954
X39.159 Y-3.148
X39.125 Y-3.364
Y-4.336
G3 X39.429 Y-4.626 R0.3
G1 X42.579 Y-4.581
G3 X42.875 Y-4.292 R0.3
G1 Y-3.418
X42.868 Y-3.283
X42.841 Y-3.151
X42.799 Y-3.023
X42.743 Y-2.899
X42.677 Y-2.782
X42.598 Y-2.664
X42.498 Y-2.538
X42.384 Y-2.417
X42.246 Y-2.291
X42.088 Y-2.168
X41.912 Y-2.054
X41.71 Y-1.944
X41.488 Y-1.846
X41.254 Y-1.764
X41.008 Y-1.7
X40.755 Y-1.655
X40.507 Y-1.631
X40.291 Y-1.628
X40.066 Y-1.642
X39.884 Y-1.669
X39.717 Y-1.707
X39.614 Y-1.74
X39.417 Y-1.839
X39.26 Y-1.994
X39.16 Y-2.19
X39.125 Y-2.407
Y-3.364
G3 X39.42 Y-3.653 R0.3
G1 X42.57 Y-3.707
G3 X42.875 Y-3.418 R0.3
G1 Y-2.556
X42.868 Y-2.421
X42.846 Y-2.288
X42.808 Y-2.158
X42.758 Y-2.033
X42.696 Y-1.913
X42.618 Y-1.788
X42.525 Y-1.663
X42.413 Y-1.535
X42.277 Y-1.404
X42.128 Y-1.28
X41.953 Y-1.158
X41.754 Y-1.041
X41.541 Y-0.938
X41.315 Y-0.851
X41.073 Y-0.778
X40.824 Y-0.726
X40.575 Y-0.694
X40.357 Y-0.683
X40.131 Y-0.69
X39.941 Y-0.712
X39.778 Y-0.744
X39.583 Y-0.8
X39.397 Y-0.903
X39.251 Y-1.057
X39.157 Y-1.247
X39.125 Y-1.457
Y-2.407
G3 X39.411 Y-2.697 R0.3
G1 X42.561 Y-2.845
G3 X42.875 Y-2.556 R0.3
G1 Y-1.601
X42.868 Y-1.466
X42.841 Y-1.334
X42.8 Y-1.205
X42.746 Y-1.081
X42.679 Y-0.956
X42.599 Y-0.833
X42.498 Y-0.702
X42.38 Y-0.571
X42.243 Y-0.442
X42.08 Y-0.312
X41.9 Y-0.19
X41.701 Y-0.078
X41.484 Y0.023
X41.249 Y0.11
X41.005 Y0.178
X40.758 Y0.226
X40.507 Y0.254
X40.298 Y0.261
X40.083 Y0.251
X39.897 Y0.227
X39.738 Y0.193
X39.625 Y0.159
X39.424 Y0.062
X39.264 Y-0.093
X39.161 Y-0.291
X39.125 Y-0.512
Y-1.457
G3 X39.411 Y-1.746 R0.3
G1 X42.561 Y-1.89
G3 X42.875 Y-1.601 R0.3
G1 Y-0.673
X42.868 Y-0.538
X42.842 Y-0.405
X42.801 Y-0.277
X42.748 Y-0.152
X42.684 Y-0.031
X42.603 Y0.095
X42.503 Y0.228
X42.388 Y0.357
X42.247 Y0.491
X42.089 Y0.619
X41.912 Y0.741
X41.709 Y0.857
X41.49 Y0.96
X41.256 Y1.048
X41.014 Y1.118
X40.768 Y1.168
X40.528 Y1.196
X40.315 Y1.205
X40.093 Y1.195
X39.915 Y1.174
X39.75 Y1.14
X39.63 Y1.105
X39.427 Y1.008
X39.265 Y0.853
X39.161 Y0.654
X39.125 Y0.433
Y-0.512
G3 X39.41 Y-0.801 R0.3
G1 X42.56 Y-0.962
G3 X42.875 Y-0.673 R0.3
G1 Y0.216
X42.868 Y0.351
X42.848 Y0.484
X42.813 Y0.615
X42.765 Y0.741
X42.706 Y0.862
X42.629 Y0.99
X42.539 Y1.118
X42.428 Y1.25
X42.295 Y1.385
X42.148 Y1.512
X41.975 Y1.639
X41.779 Y1.759
X41.568 Y1.867
X41.345 Y1.959
X41.106 Y2.036
X40.861 Y2.093
X40.615 Y2.131
X40.397 Y2.146
X40.17 Y2.143
X39.979 Y2.126
X39.816 Y2.098
X39.597 Y2.038
X39.406 Y1.937
X39.255 Y1.783
X39.158 Y1.59
X39.125 Y1.376
Y0.433
G3 X39.404 Y0.144 R0.3
G1 X42.555 Y-0.073
G3 X42.875 Y0.216 R0.3
G1 Y1.211
X42.868 Y1.346
X42.841 Y1.478
X42.8 Y1.606
X42.747 Y1.731
X42.68 Y1.856
X42.598 Y1.983
X42.498 Y2.114
X42.376 Y2.25
X42.24 Y2.379
X42.079 Y2.509
X41.893 Y2.635
X41.694 Y2.749
X41.479 Y2.849
X41.246 Y2.936
X41.003 Y3.005
X40.757 Y3.054
X40.509 Y3.083
X40.302 Y3.09
X40.085 Y3.081
X39.902 Y3.058
X39.742 Y3.024
X39.628 Y2.991
X39.426 Y2.894
X39.265 Y2.739
X39.161 Y2.54
X39.125 Y2.319
Y1.376
G3 X39.409 Y1.087 R0.3
G1 X42.559 Y0.922
G3 X42.875 Y1.211 R0.3
G1 Y2.099
X42.868 Y2.234
X42.848 Y2.368
X42.813 Y2.498
X42.765 Y2.624
X42.705 Y2.745
X42.629 Y2.874
X42.539 Y3.001
X42.428 Y3.134
X42.295 Y3.269
X42.148 Y3.396
X41.975 Y3.523
X41.778 Y3.644
X41.568 Y3.752
X41.345 Y3.844
X41.106 Y3.921
X40.86 Y3.979
X40.614 Y4.016
X40.397 Y4.031
X40.171 Y4.029
X39.979 Y4.012
X39.816 Y3.984
X39.597 Y3.924
X39.406 Y3.823
X39.255 Y3.669
X39.158 Y3.476
X39.125 Y3.262
Y2.319
G3 X39.404 Y2.03 R0.3
G1 X42.554 Y1.811
G3 X42.875 Y2.099 R0.3
G1 Y3.094
X42.868 Y3.229
X42.841 Y3.361
X42.8 Y3.49
X42.747 Y3.614
X42.68 Y3.74
X42.598 Y3.867
X42.499 Y3.998
X42.377 Y4.134
X42.24 Y4.263
X42.079 Y4.393
X41.894 Y4.52
X41.695 Y4.633
X41.48 Y4.734
X41.246 Y4.821
X41.003 Y4.89
X40.758 Y4.939
X40.51 Y4.968
X40.304 Y4.976
X40.086 Y4.966
X39.903 Y4.944
X39.744 Y4.91
X39.628 Y4.877
X39.426 Y4.78
X39.265 Y4.624
X39.161 Y4.426
X39.125 Y4.205
Y3.262
G3 X39.409 Y2.973 R0.3
G1 X42.559 Y2.805
G3 X42.875 Y3.094 R0.3
G1 Y3.983
X42.868 Y4.118
X42.848 Y4.251
X42.813 Y4.382
X42.765 Y4.508
X42.706 Y4.629
X42.63 Y4.758
X42.54 Y4.885
X42.429 Y5.017
X42.297 Y5.152
X42.149 Y5.28
X41.976 Y5.407
X41.78 Y5.528
X41.57 Y5.636
X41.347 Y5.729
X41.108 Y5.806
X40.863 Y5.864
X40.616 Y5.901
X40.399 Y5.917
X40.173 Y5.915
X39.981 Y5.898
X39.818 Y5.87
X39.598 Y5.81
X39.407 Y5.709
X39.255 Y5.555
X39.158 Y5.361
X39.125 Y5.148
Y4.205
G3 X39.404 Y3.916 R0.3
G1 X42.554 Y3.694
G3 X42.875 Y3.983 R0.3
G1 Y4.978
X42.868 Y5.113
X42.841 Y5.245
X42.8 Y5.373
X42.747 Y5.498
X42.681 Y5.623
X42.599 Y5.751
X42.5 Y5.881
X42.378 Y6.017
X42.242 Y6.147
X42.081 Y6.277
X41.897 Y6.403
X41.697 Y6.517
X41.483 Y6.618
X41.25 Y6.706
X41.007 Y6.775
X40.761 Y6.824
X40.514 Y6.854
X40.307 Y6.861
X40.089 Y6.852
X39.906 Y6.83
X39.746 Y6.797
X39.629 Y6.762
X39.427 Y6.666
X39.265 Y6.51
X39.161 Y6.312
X39.125 Y6.09
Y5.148
G3 X39.409 Y4.859 R0.3
G1 X42.559 Y4.689
G3 X42.875 Y4.978 R0.3
G1 Y5.866
X42.868 Y6.001
X42.849 Y6.135
X42.814 Y6.265
X42.766 Y6.391
X42.707 Y6.513
X42.631 Y6.641
X42.541 Y6.769
X42.431 Y6.901
X42.298 Y7.036
X42.151 Y7.164
X41.979 Y7.291
X41.783 Y7.412
X41.573 Y7.52
X41.35 Y7.613
X41.111 Y7.69
X40.866 Y7.749
X40.62 Y7.786
X40.402 Y7.802
X40.176 Y7.801
X39.983 Y7.784
X39.82 Y7.756
X39.599 Y7.696
X39.407 Y7.595
X39.256 Y7.44
X39.158 Y7.247
X39.125 Y7.033
Y6.09
G3 X39.404 Y5.802 R0.3
G1 X42.554 Y5.578
G3 X42.875 Y5.866 R0.3
G1 Y6.861
X42.868 Y6.996
X42.842 Y7.128
X42.801 Y7.257
X42.748 Y7.381
X42.682 Y7.507
X42.6 Y7.634
X42.501 Y7.765
X42.38 Y7.901
X42.244 Y8.03
X42.084 Y8.16
X41.899 Y8.287
X41.7 Y8.401
X41.486 Y8.502
X41.253 Y8.59
X41.01 Y8.66
X40.765 Y8.709
X40.517 Y8.739
X40.31 Y8.747
X40.092 Y8.738
X39.909 Y8.715
X39.679 Y8.662
X39.485 Y8.572
X39.327 Y8.427
X39.221 Y8.241
X39.146 Y7.937
X39.125 Y7.668
Y7.033
G3 X39.408 Y6.744 R0.3
G1 X42.559 Y6.572
G3 X42.875 Y6.861 R0.3
G1 Y7.668
X42.858 Y7.883
X42.856 Y7.913
X42.854 Y7.937
X42.793 Y8.153
X42.746 Y8.279
X42.688 Y8.401
X42.615 Y8.527
X42.526 Y8.654
X42.419 Y8.784
X42.289 Y8.918
X42.145 Y9.045
X41.975 Y9.171
X41.782 Y9.292
X41.575 Y9.399
X41.302 Y9.509
X41.236 Y9.524
G3 X40.987 Y9.01 R0.3
G1 X42.347 Y7.708
G3 X42.854 Y7.937 R0.3
G1 X42.79 Y8.218
X42.692 Y8.476
X42.521 Y8.753
X42.296 Y9.014
X41.982 Y9.258
X41.713 Y9.399
X41.444 Y9.487
X41.175 Y9.534
X40.906 Y9.541
X40.637 Y9.506
X40.368 Y9.432
X40.054 Y9.283
X39.83 Y9.131
X39.694 Y9.014
X39.56 Y8.87
X39.47 Y8.745
X39.313 Y8.476
X39.221 Y8.241
X39.158 Y8.265
X39.028 Y8.229
X38.914 Y8.157
X38.814 Y8.066
X38.726 Y7.964
X38.64 Y7.845
X38.548 Y7.692
X38.45 Y7.495
X38.347 Y7.238
X38.239 Y6.891
X38.128 Y6.392
X38.045 Y5.806
X37.996 Y5.215
X37.967 Y4.623
X37.94 Y3.439
X37.926 Y-0.116
X37.925 Y-6.632
X37.937 Y-7.195
X37.977 Y-7.596
X38.038 Y-7.925
X38.125 Y-8.251
X38.223 Y-8.524
X38.335 Y-8.774
X38.46 Y-9.001
X38.605 Y-9.222
X38.752 Y-9.41
X38.932 Y-9.605
X39.102 Y-9.762
X39.299 Y-9.917
X39.489 Y-10.043
X39.702 Y-10.161
X39.91 Y-10.255
X40.125 Y-10.333
X40.351 Y-10.394
X40.566 Y-10.434
X40.804 Y-10.459
X41.018 Y-10.464
X41.253 Y-10.45
X41.463 Y-10.421
X41.697 Y-10.369
X41.915 Y-10.303
X42.111 Y-10.225
X42.329 Y-10.117
X42.516 Y-10.005
X42.717 Y-9.862
X42.877 Y-9.727
X43.041 Y-9.565
X43.18 Y-9.403
X43.32 Y-9.212
X43.433 Y-9.027
X43.54 Y-8.816
X43.643 Y-8.566
X43.75 Y-8.229
X43.861 Y-7.75
X43.949 Y-7.164
X44. Y-6.573
X44.03 Y-5.982
X44.059 Y-4.797
X44.074 Y-1.835
X44.075 Y6.459
X44.069 Y7.051
X44.035 Y7.492
X43.981 Y7.832
X43.904 Y8.151
X43.816 Y8.416
X43.699 Y8.696
X43.583 Y8.92
X43.434 Y9.158
X43.288 Y9.355
X43.115 Y9.552
X42.949 Y9.714
X42.756 Y9.873
X42.563 Y10.008
X42.361 Y10.126
X42.145 Y10.23
X41.941 Y10.309
X41.712 Y10.377
X41.499 Y10.423
X41.261 Y10.453
X41.051 Y10.463
X40.809 Y10.455
X40.593 Y10.431
X40.358 Y10.385
X40.138 Y10.323
X39.931 Y10.247
X39.731 Y10.154
X39.544 Y10.048
X39.053 Y9.716
X38.706 Y9.454
X38.438 Y9.216
X38.205 Y8.972
X37.989 Y8.707
X37.785 Y8.41
X37.602 Y8.091
X37.419 Y7.705
X37.244 Y7.243
X37.086 Y6.695
X36.968 Y6.115
X36.887 Y5.528
X36.832 Y4.938
X36.795 Y4.347
X36.754 Y3.162
X36.733 Y1.385
X36.725 Y-5.724
X36.73 Y-6.316
X36.754 Y-6.908
X36.816 Y-7.487
X36.909 Y-7.977
X37.024 Y-8.397
X37.165 Y-8.784
X37.326 Y-9.138
X37.51 Y-9.469
X37.711 Y-9.77
X37.929 Y-10.045
X38.163 Y-10.296
X38.41 Y-10.522
X38.67 Y-10.724
X38.942 Y-10.903
X39.224 Y-11.056
X39.516 Y-11.187
X39.814 Y-11.292
X40.118 Y-11.373
X40.424 Y-11.428
X40.735 Y-11.458
X41.046 Y-11.464
X41.353 Y-11.445
X41.661 Y-11.4
X41.961 Y-11.332
X42.259 Y-11.239
X42.543 Y-11.124
X42.819 Y-10.986
X43.08 Y-10.828
X43.329 Y-10.648
X43.561 Y-10.45
X43.779 Y-10.233
X43.984 Y-9.992
X44.182 Y-9.717
X44.362 Y-9.42
X44.541 Y-9.062
X44.716 Y-8.627
X44.872 Y-8.129
X45.003 Y-7.551
X45.094 Y-6.965
X45.155 Y-6.376
X45.197 Y-5.785
X45.242 Y-4.601
X45.266 Y-2.824
X45.275 Y5.47
X45.273 Y6.062
X45.258 Y6.654
X45.214 Y7.245
X45.135 Y7.763
X45.028 Y8.214
X44.898 Y8.614
X44.746 Y8.982
X44.57 Y9.325
X44.377 Y9.637
X44.164 Y9.927
X43.936 Y10.189
X43.694 Y10.427
X43.439 Y10.64
X43.171 Y10.829
X42.894 Y10.993
X42.606 Y11.134
X42.313 Y11.249
X42.01 Y11.341
X41.705 Y11.407
X41.393 Y11.449
X41.081 Y11.465
X40.77 Y11.457
X40.463 Y11.424
X40.163 Y11.367
X39.843 Y11.278
X39.461 Y11.14
X39.05 Y10.951
X38.657 Y10.732
X38.29 Y10.486
X37.946 Y10.213
X37.624 Y9.913
X37.324 Y9.585
X37.04 Y9.219
X36.769 Y8.804
X36.522 Y8.35
X36.299 Y7.85
X36.103 Y7.291
X35.949 Y6.719
X35.831 Y6.138
X35.743 Y5.552
X35.678 Y4.963
X35.632 Y4.373
X35.575 Y3.189
X35.54 Y1.412
X35.526 Y-2.735
X35.531 Y-5.697
X35.549 Y-6.289
X35.587 Y-6.88
X35.657 Y-7.468
X35.767 Y-8.05
X35.914 Y-8.591
X36.094 Y-9.088
X36.302 Y-9.546
X36.534 Y-9.964
X36.788 Y-10.345
X37.063 Y-10.694
X37.359 Y-11.013
X37.674 Y-11.302
X38.007 Y-11.562
X38.356 Y-11.791
X38.717 Y-11.989
X39.09 Y-12.156
X39.472 Y-12.292
X39.862 Y-12.395
X40.255 Y-12.467
X40.652 Y-12.507
X41.049 Y-12.515
X41.446 Y-12.49
X41.837 Y-12.435
X42.222 Y-12.348
X42.598 Y-12.231
X42.962 Y-12.084
X43.313 Y-11.909
X43.649 Y-11.707
X43.968 Y-11.477
X44.274 Y-11.217
X44.564 Y-10.928
X44.842 Y-10.603
X45.109 Y-10.233
X45.351 Y-9.834
X45.58 Y-9.379
X45.797 Y-8.844
X45.974 Y-8.279
X46.112 Y-7.703
X46.215 Y-7.119
X46.291 Y-6.532
X46.347 Y-5.942
X46.386 Y-5.351
X46.434 Y-4.167
X46.463 Y-2.39
X46.475 Y2.942
X46.473 Y5.311
X46.465 Y5.904
X46.442 Y6.496
X46.392 Y7.086
X46.309 Y7.673
X46.187 Y8.236
X46.029 Y8.757
X45.84 Y9.238
X45.623 Y9.682
X45.381 Y10.092
X45.115 Y10.468
X44.829 Y10.811
X44.524 Y11.121
X44.203 Y11.4
X43.866 Y11.649
X43.514 Y11.866
X43.149 Y12.053
X42.773 Y12.209
X42.388 Y12.334
X41.996 Y12.427
X41.601 Y12.487
X41.204 Y12.516
X40.802 Y12.513
X40.382 Y12.475
X39.958 Y12.403
X39.514 Y12.29
X39.058 Y12.134
X38.602 Y11.936
X38.156 Y11.697
X37.724 Y11.42
X37.311 Y11.106
X36.918 Y10.752
X36.542 Y10.356
X36.188 Y9.917
X35.857 Y9.432
X35.564 Y8.917
X35.311 Y8.382
X35.098 Y7.829
X34.923 Y7.263
X34.781 Y6.688
X34.668 Y6.106
X34.58 Y5.52
X34.512 Y4.932
X34.461 Y4.341
X34.422 Y3.75
X34.374 Y2.566
X34.341 Y0.789
X34.326 Y-3.358
X34.332 Y-5.135
X34.346 Y-5.727
X34.374 Y-6.319
X34.422 Y-6.909
X34.497 Y-7.497
X34.605 Y-8.079
X34.751 Y-8.654
X34.936 Y-9.216
X35.163 Y-9.764
X35.424 Y-10.277
X35.716 Y-10.752
X36.036 Y-11.19
X36.385 Y-11.594
X36.759 Y-11.963
X37.156 Y-12.296
X37.573 Y-12.593
X38.008 Y-12.852
X38.458 Y-13.073
X38.921 Y-13.257
X39.393 Y-13.401
X39.873 Y-13.506
X40.358 Y-13.573
X40.845 Y-13.6
X41.33 Y-13.588
X41.812 Y-13.537
X42.286 Y-13.448
X42.751 Y-13.321
X43.203 Y-13.158
X43.641 Y-12.959
X44.063 Y-12.725
X44.469 Y-12.455
X44.858 Y-12.148
X45.231 Y-11.802
X45.584 Y-11.417
X45.919 Y-10.988
X46.234 Y-10.509
X46.516 Y-9.995
X46.758 Y-9.454
X46.96 Y-8.897
X47.126 Y-8.328
X47.259 Y-7.751
X47.364 Y-7.168
X47.445 Y-6.581
X47.507 Y-5.992
X47.554 Y-5.401
X47.614 Y-4.218
X47.654 Y-2.441
X47.673 Y1.113
Y4.668
X47.65 Y5.852
X47.619 Y6.444
X47.566 Y7.034
X47.483 Y7.621
X47.366 Y8.201
X47.211 Y8.773
X47.016 Y9.333
X46.779 Y9.876
X46.506 Y10.389
X46.204 Y10.861
X45.876 Y11.293
X45.521 Y11.689
X45.143 Y12.048
X44.743 Y12.372
X44.322 Y12.659
X43.884 Y12.91
X43.431 Y13.122
X42.966 Y13.297
X42.492 Y13.432
X42.009 Y13.529
X41.515 Y13.587
X41.013 Y13.606
X40.498 Y13.584
X39.972 Y13.518
X39.44 Y13.408
X38.909 Y13.253
X38.382 Y13.052
X37.859 Y12.803
X37.349 Y12.507
X36.862 Y12.17
X36.403 Y11.795
X35.974 Y11.386
X35.577 Y10.946
X35.213 Y10.479
X34.883 Y9.987
X34.587 Y9.474
X34.326 Y8.942
X34.1 Y8.395
X33.907 Y7.834
X33.745 Y7.264
X33.611 Y6.687
X33.501 Y6.105
X33.413 Y5.519
X33.343 Y4.931
X33.288 Y4.341
X33.246 Y3.75
X33.19 Y2.567
X33.149 Y0.79
X33.129 Y-2.172
X33.132 Y-4.542
X33.163 Y-5.726
X33.197 Y-6.318
X33.25 Y-6.908
X33.326 Y-7.495
X33.43 Y-8.078
X33.566 Y-8.655
X33.736 Y-9.223
X33.939 Y-9.779
X34.178 Y-10.321
X34.454 Y-10.846
X34.766 Y-11.349
X35.113 Y-11.829
X35.496 Y-12.281
X35.912 Y-12.703
X36.359 Y-13.091
X36.836 Y-13.444
X37.339 Y-13.757
X37.863 Y-14.028
X38.405 Y-14.255
X38.961 Y-14.437
X39.527 Y-14.574
X40.1 Y-14.664
X40.676 Y-14.707
X41.253 Y-14.704
X41.825 Y-14.655
X42.39 Y-14.561
X42.945 Y-14.422
X43.487 Y-14.238
X44.014 Y-14.012
X44.523 Y-13.742
X45.015 Y-13.428
X45.488 Y-13.071
X45.93 Y-12.677
X46.34 Y-12.249
X46.717 Y-11.792
X47.057 Y-11.307
X47.361 Y-10.798
X47.628 Y-10.27
X47.861 Y-9.725
X48.061 Y-9.167
X48.229 Y-8.599
X48.369 Y-8.024
X48.483 Y-7.442
X48.576 Y-6.857
X48.649 Y-6.269
X48.706 Y-5.679
X48.75 Y-5.089
X48.808 Y-3.905
X48.851 Y-2.129
X48.871 Y0.834
X48.87 Y4.388
X48.845 Y5.573
X48.815 Y6.164
X48.766 Y6.755
X48.695 Y7.343
X48.596 Y7.927
X48.468 Y8.505
X48.308 Y9.076
X48.115 Y9.636
X47.886 Y10.182
X47.62 Y10.711
X47.316 Y11.22
X46.977 Y11.706
X46.603 Y12.166
X46.196 Y12.595
X45.756 Y12.993
X45.287 Y13.355
X44.791 Y13.678
X44.271 Y13.962
X43.732 Y14.201
X43.179 Y14.395
X42.612 Y14.545
X42.033 Y14.649
X41.443 Y14.706
X40.851 Y14.716
X40.26 Y14.679
X39.673 Y14.597
X39.094 Y14.471
X38.526 Y14.303
X37.972 Y14.094
X37.434 Y13.846
X36.915 Y13.56
X36.418 Y13.237
X35.945 Y12.88
X35.498 Y12.492
X35.076 Y12.076
X34.683 Y11.633
X34.317 Y11.166
X33.981 Y10.679
X33.675 Y10.171
X33.401 Y9.646
X33.158 Y9.106
X32.945 Y8.553
X32.761 Y7.99
X32.602 Y7.419
X32.468 Y6.842
X32.356 Y6.26
X32.263 Y5.675
X32.188 Y5.088
X32.127 Y4.498
X32.079 Y3.908
X32.012 Y2.725
X31.972 Y1.541
X31.943 Y-0.236
X31.929 Y-3.198
X31.937 Y-4.383
X31.971 Y-5.568
X32.005 Y-6.159
X32.056 Y-6.749
X32.128 Y-7.337
X32.223 Y-7.922
X32.344 Y-8.502
X32.493 Y-9.075
X32.671 Y-9.641
X32.878 Y-10.195
X33.117 Y-10.738
X33.386 Y-11.265
X33.689 Y-11.775
X34.024 Y-12.263
X34.389 Y-12.729
X34.785 Y-13.171
X35.208 Y-13.585
X35.657 Y-13.971
X36.132 Y-14.326
X36.629 Y-14.647
X37.149 Y-14.932
X37.687 Y-15.18
X38.241 Y-15.389
X38.809 Y-15.559
X39.387 Y-15.689
X39.973 Y-15.778
X40.563 Y-15.826
X41.156 Y-15.832
X41.747 Y-15.795
X42.334 Y-15.715
X42.913 Y-15.592
X43.483 Y-15.429
X44.039 Y-15.225
X44.579 Y-14.982
X45.102 Y-14.702
X45.603 Y-14.387
X46.081 Y-14.037
X46.533 Y-13.654
X46.957 Y-13.24
X47.352 Y-12.799
X47.717 Y-12.332
X48.051 Y-11.843
X48.355 Y-11.334
X48.627 Y-10.808
X48.869 Y-10.267
X49.08 Y-9.714
X49.263 Y-9.15
X49.419 Y-8.579
X49.551 Y-8.001
X49.66 Y-7.419
X49.751 Y-6.833
X49.824 Y-6.245
X49.882 Y-5.656
X49.929 Y-5.065
X49.993 Y-3.882
X50.043 Y-2.106
X50.066 Y0.264
X50.07 Y3.819
X50.051 Y5.003
X50.028 Y5.595
X49.992 Y6.187
X49.939 Y6.777
X49.866 Y7.365
X49.77 Y7.949
X49.648 Y8.529
X49.499 Y9.102
X49.319 Y9.667
X49.11 Y10.221
X48.868 Y10.762
X48.596 Y11.288
X48.292 Y11.797
X47.957 Y12.285
X47.591 Y12.751
X47.195 Y13.191
X46.77 Y13.604
X46.318 Y13.987
X45.841 Y14.339
X45.342 Y14.658
X44.823 Y14.943
X44.285 Y15.191
X43.73 Y15.4
X43.162 Y15.568
X42.584 Y15.696
X41.998 Y15.784
X41.407 Y15.831
X40.815 Y15.839
X40.224 Y15.806
X39.636 Y15.735
X39.054 Y15.623
X38.481 Y15.472
X37.919 Y15.286
X37.369 Y15.063
X36.835 Y14.807
X36.318 Y14.518
X35.82 Y14.198
X35.342 Y13.848
X34.886 Y13.469
X34.454 Y13.064
X34.046 Y12.634
X33.663 Y12.182
X33.306 Y11.709
X32.976 Y11.218
X32.672 Y10.709
X32.396 Y10.185
X32.147 Y9.647
X31.925 Y9.098
X31.728 Y8.539
X31.557 Y7.972
X31.408 Y7.399
X31.281 Y6.82
X31.174 Y6.237
X31.083 Y5.652
X31.009 Y5.064
X30.947 Y4.475
X30.858 Y3.294
X30.802 Y2.11
X30.757 Y0.333
X30.734 Y-2.036
X30.737 Y-3.814
X30.763 Y-4.998
X30.789 Y-5.59
X30.827 Y-6.181
X30.881 Y-6.771
X30.954 Y-7.359
X31.046 Y-7.944
X31.162 Y-8.525
X31.302 Y-9.101
X31.468 Y-9.669
X31.661 Y-10.23
X31.881 Y-10.78
X32.128 Y-11.318
X32.403 Y-11.843
X32.707 Y-12.352
X33.038 Y-12.843
X33.396 Y-13.315
X33.782 Y-13.764
X34.194 Y-14.19
X34.63 Y-14.591
X35.088 Y-14.966
X35.568 Y-15.313
X36.069 Y-15.63
X36.588 Y-15.917
X37.123 Y-16.171
X37.673 Y-16.391
X38.236 Y-16.575
X38.809 Y-16.724
X39.391 Y-16.838
X39.978 Y-16.916
X40.569 Y-16.958
X41.161 Y-16.962
X41.753 Y-16.93
X42.341 Y-16.86
X42.923 Y-16.752
X43.498 Y-16.607
X44.062 Y-16.425
X44.613 Y-16.21
X45.151 Y-15.96
X45.672 Y-15.679
X46.175 Y-15.366
X46.658 Y-15.023
X47.118 Y-14.649
X47.554 Y-14.248
X47.965 Y-13.821
X48.349 Y-13.371
X48.707 Y-12.899
X49.039 Y-12.407
X49.342 Y-11.899
X49.619 Y-11.375
X49.868 Y-10.838
X50.091 Y-10.288
X50.286 Y-9.729
X50.457 Y-9.162
X50.604 Y-8.588
X50.73 Y-8.009
X50.836 Y-7.426
X50.925 Y-6.841
X50.999 Y-6.253
X51.059 Y-5.663
X51.146 Y-4.482
X51.201 Y-3.298
X51.244 Y-1.521
X51.269 Y1.441
Y3.218
X51.255 Y4.403
X51.212 Y5.587
X51.172 Y6.178
X51.118 Y6.768
X51.046 Y7.356
X50.954 Y7.941
X50.838 Y8.522
X50.697 Y9.097
X50.531 Y9.666
X50.338 Y10.226
X50.118 Y10.776
X49.87 Y11.314
X49.595 Y11.839
X49.293 Y12.348
X48.963 Y12.84
X48.604 Y13.312
X48.218 Y13.761
X47.806 Y14.187
X47.37 Y14.588
X46.911 Y14.962
X46.43 Y15.309
X45.93 Y15.627
X45.413 Y15.915
X44.878 Y16.17
X44.328 Y16.391
X43.765 Y16.576
X43.192 Y16.726
X42.611 Y16.84
X42.024 Y16.919
X41.433 Y16.964
X40.841 Y16.973
X40.249 Y16.947
X39.66 Y16.886
X39.075 Y16.788
X38.498 Y16.656
X37.929 Y16.49
X37.371 Y16.293
X36.824 Y16.064
X36.291 Y15.806
X35.773 Y15.518
X35.271 Y15.203
X34.788 Y14.861
X34.324 Y14.492
X33.882 Y14.098
X33.46 Y13.681
X33.061 Y13.244
X32.685 Y12.786
X32.331 Y12.311
X32.002 Y11.818
X31.697 Y11.31
X31.416 Y10.789
X31.159 Y10.255
X30.927 Y9.71
X30.719 Y9.155
X30.535 Y8.592
X30.372 Y8.023
X30.23 Y7.447
X30.106 Y6.868
X30.001 Y6.285
X29.911 Y5.699
X29.835 Y5.112
X29.772 Y4.523
X29.678 Y3.342
X29.617 Y2.158
X29.565 Y0.382
X29.538 Y-1.988
X29.544 Y-3.765
X29.574 Y-4.949
X29.602 Y-5.541
X29.642 Y-6.132
X29.696 Y-6.722
X29.766 Y-7.31
X29.854 Y-7.896
X29.963 Y-8.478
X30.094 Y-9.056
X30.248 Y-9.628
X30.425 Y-10.194
X30.627 Y-10.751
X30.852 Y-11.299
X31.103 Y-11.835
X31.378 Y-12.36
X31.679 Y-12.871
X32.004 Y-13.366
X32.355 Y-13.843
X32.73 Y-14.301
X33.129 Y-14.739
X33.551 Y-15.155
X33.994 Y-15.549
X34.457 Y-15.919
X34.939 Y-16.263
X35.438 Y-16.582
X35.954 Y-16.873
X36.485 Y-17.135
X37.031 Y-17.366
X37.588 Y-17.567
X38.156 Y-17.735
X38.732 Y-17.873
X39.315 Y-17.978
X39.903 Y-18.052
X40.494 Y-18.094
X41.087 Y-18.103
X41.678 Y-18.079
X42.268 Y-18.02
X42.853 Y-17.927
X43.432 Y-17.801
X44.003 Y-17.643
X44.564 Y-17.453
X45.114 Y-17.233
X45.651 Y-16.983
X46.174 Y-16.704
X46.681 Y-16.398
X47.17 Y-16.063
X47.638 Y-15.701
X48.086 Y-15.313
X48.512 Y-14.901
X48.916 Y-14.467
X49.296 Y-14.013
X49.652 Y-13.54
X49.985 Y-13.049
X50.293 Y-12.543
X50.577 Y-12.023
X50.836 Y-11.49
X51.069 Y-10.946
X51.278 Y-10.392
X51.464 Y-9.829
X51.627 Y-9.26
X51.771 Y-8.685
X51.894 Y-8.105
X52.001 Y-7.523
X52.091 Y-6.937
X52.166 Y-6.35
X52.229 Y-5.76
X52.323 Y-4.579
X52.384 Y-3.396
X52.435 Y-1.62
X52.463 Y0.75
X52.465 Y3.12
X52.448 Y4.304
X52.402 Y5.488
X52.363 Y6.079
X52.31 Y6.669
X52.241 Y7.258
X52.153 Y7.844
X52.046 Y8.426
X51.916 Y9.005
X51.765 Y9.577
X51.589 Y10.143
X51.39 Y10.701
X51.166 Y11.25
X50.918 Y11.787
X50.645 Y12.313
X50.348 Y12.826
X50.025 Y13.322
X49.675 Y13.801
X49.302 Y14.26
X48.904 Y14.7
X48.484 Y15.118
X48.043 Y15.513
X47.582 Y15.885
X47.102 Y16.232
X46.604 Y16.554
X46.09 Y16.848
X45.56 Y17.113
X45.016 Y17.347
X44.46 Y17.55
X43.893 Y17.723
X43.317 Y17.864
X42.735 Y17.973
X42.148 Y18.052
X41.558 Y18.099
X40.965 Y18.116
X40.373 Y18.1
X39.783 Y18.05
X39.196 Y17.969
X38.614 Y17.857
X38.039 Y17.714
X37.472 Y17.542
X36.915 Y17.341
X36.369 Y17.112
X35.834 Y16.857
X35.313 Y16.575
X34.806 Y16.268
X34.316 Y15.935
X33.844 Y15.578
X33.389 Y15.198
X32.954 Y14.796
X32.538 Y14.374
X32.142 Y13.934
X31.767 Y13.475
X31.413 Y13.
X31.08 Y12.51
X30.769 Y12.006
X30.48 Y11.488
X30.214 Y10.959
X29.971 Y10.419
X29.75 Y9.869
X29.551 Y9.311
X29.372 Y8.747
X29.213 Y8.176
X29.073 Y7.6
X28.95 Y7.021
X28.843 Y6.438
X28.751 Y5.853
X28.672 Y5.266
X28.606 Y4.677
X28.505 Y3.496
X28.436 Y2.314
X28.376 Y0.537
X28.348 Y-1.24
X28.344 Y-3.017
X28.361 Y-4.202
X28.408 Y-5.386
X28.446 Y-5.977
X28.497 Y-6.567
X28.563 Y-7.156
X28.645 Y-7.743
X28.746 Y-8.326
X28.865 Y-8.907
X29.005 Y-9.482
X29.165 Y-10.053
X29.347 Y-10.616
X29.551 Y-11.173
X29.777 Y-11.72
X30.025 Y-12.258
X30.296 Y-12.785
X30.59 Y-13.3
X30.907 Y-13.8
X31.248 Y-14.285
X31.611 Y-14.753
X31.996 Y-15.203
X32.401 Y-15.635
X32.827 Y-16.047
X33.271 Y-16.439
X33.734 Y-16.809
X34.214 Y-17.157
X34.709 Y-17.481
X35.22 Y-17.78
X35.746 Y-18.053
X36.286 Y-18.298
X36.837 Y-18.516
X37.398 Y-18.706
X37.968 Y-18.868
X38.545 Y-19.002
X39.128 Y-19.107
X39.715 Y-19.184
X40.306 Y-19.231
X40.898 Y-19.25
X41.49 Y-19.237
X42.081 Y-19.192
X42.669 Y-19.118
X43.252 Y-19.013
X43.829 Y-18.879
X44.398 Y-18.717
X44.959 Y-18.526
X45.51 Y-18.308
X46.05 Y-18.063
X46.577 Y-17.792
X47.089 Y-17.495
X47.585 Y-17.171
X48.064 Y-16.823
X48.525 Y-16.45
X48.967 Y-16.056
X49.39 Y-15.641
X49.792 Y-15.205
X50.173 Y-14.752
X50.533 Y-14.282
X50.871 Y-13.795
X51.187 Y-13.294
X51.48 Y-12.779
X51.75 Y-12.252
X51.998 Y-11.714
X52.222 Y-11.165
X52.425 Y-10.609
X52.607 Y-10.045
X52.77 Y-9.475
X52.913 Y-8.9
X53.038 Y-8.321
X53.147 Y-7.739
X53.241 Y-7.154
X53.321 Y-6.567
X53.389 Y-5.979
X53.492 Y-4.798
X53.562 Y-3.616
X53.623 Y-1.839
X53.658 Y0.53
X53.662 Y2.9
X53.644 Y4.084
X53.6 Y5.268
X53.563 Y5.86
X53.514 Y6.45
X53.451 Y7.039
X53.371 Y7.626
X53.274 Y8.211
X53.158 Y8.792
X53.023 Y9.368
X52.866 Y9.94
X52.689 Y10.505
X52.489 Y11.063
X52.268 Y11.612
X52.024 Y12.152
X51.758 Y12.682
X51.469 Y13.198
X51.155 Y13.701
X50.819 Y14.189
X50.46 Y14.66
X50.079 Y15.114
X49.678 Y15.549
X49.256 Y15.966
X48.815 Y16.362
X48.356 Y16.736
X47.881 Y17.089
X47.388 Y17.419
X46.88 Y17.723
X46.356 Y18.
X45.82 Y18.251
X45.271 Y18.475
X44.712 Y18.671
X44.144 Y18.84
X43.569 Y18.98
X42.987 Y19.093
X42.401 Y19.177
X41.811 Y19.234
X41.219 Y19.26
X40.627 Y19.257
X40.035 Y19.225
X39.446 Y19.163
X38.86 Y19.073
X38.28 Y18.956
X37.705 Y18.811
X37.138 Y18.639
X36.58 Y18.442
X36.031 Y18.219
X35.492 Y17.972
X34.966 Y17.7
X34.453 Y17.403
X33.955 Y17.083
X33.471 Y16.741
X33.004 Y16.377
X32.553 Y15.992
X32.119 Y15.589
X31.703 Y15.167
X31.306 Y14.728
X30.927 Y14.272
X30.567 Y13.801
X30.227 Y13.316
X29.908 Y12.817
X29.609 Y12.306
X29.331 Y11.783
X29.074 Y11.249
X28.837 Y10.706
X28.621 Y10.154
X28.424 Y9.596
X28.245 Y9.031
X28.085 Y8.46
X27.943 Y7.885
X27.816 Y7.307
X27.705 Y6.725
X27.609 Y6.14
X27.525 Y5.554
X27.453 Y4.966
X27.341 Y3.786
X27.263 Y2.604
X27.211 Y1.42
X27.165 Y-0.357
X27.148 Y-2.134
X27.154 Y-3.319
X27.181 Y-4.503
X27.241 Y-5.686
X27.287 Y-6.277
X27.346 Y-6.867
X27.419 Y-7.454
X27.508 Y-8.04
X27.614 Y-8.623
X27.737 Y-9.202
X27.879 Y-9.778
X28.04 Y-10.348
X28.221 Y-10.912
X28.422 Y-11.469
X28.643 Y-12.019
X28.884 Y-12.56
X29.147 Y-13.091
X29.432 Y-13.61
X29.738 Y-14.118
X30.065 Y-14.612
X30.413 Y-15.091
X30.78 Y-15.556
X31.168 Y-16.004
X31.574 Y-16.435
X31.998 Y-16.849
X32.44 Y-17.244
X32.898 Y-17.619
X33.372 Y-17.974
X33.862 Y-18.308
X34.367 Y-18.618
X34.885 Y-18.905
X35.416 Y-19.168
X35.958 Y-19.406
X36.511 Y-19.619
X37.073 Y-19.808
X37.642 Y-19.971
X38.218 Y-20.108
X38.8 Y-20.22
X39.386 Y-20.305
X39.976 Y-20.363
X40.568 Y-20.394
X41.16 Y-20.396
X41.752 Y-20.371
X42.342 Y-20.318
X42.929 Y-20.238
X43.512 Y-20.131
X44.089 Y-19.998
X44.66 Y-19.838
X45.222 Y-19.654
X45.776 Y-19.444
X46.32 Y-19.209
X46.852 Y-18.948
X47.372 Y-18.664
X47.878 Y-18.355
X48.369 Y-18.024
X48.844 Y-17.67
X49.303 Y-17.296
X49.745 Y-16.902
X50.17 Y-16.488
X50.576 Y-16.057
X50.963 Y-15.608
X51.33 Y-15.143
X51.677 Y-14.663
X52.004 Y-14.169
X52.31 Y-13.662
X52.594 Y-13.142
X52.858 Y-12.612
X53.102 Y-12.072
X53.324 Y-11.523
X53.528 Y-10.966
X53.711 Y-10.403
X53.877 Y-9.834
X54.024 Y-9.26
X54.155 Y-8.683
X54.271 Y-8.101
X54.371 Y-7.518
X54.458 Y-6.932
X54.532 Y-6.344
X54.596 Y-5.755
X54.693 Y-4.574
X54.76 Y-3.391
X54.82 Y-1.615
X54.856 Y0.755
X54.859 Y2.532
X54.844 Y3.717
X54.805 Y4.901
X54.773 Y5.492
X54.73 Y6.083
X54.675 Y6.673
X54.606 Y7.261
X54.522 Y7.848
X54.422 Y8.432
X54.304 Y9.012
X54.168 Y9.589
X54.013 Y10.161
X53.839 Y10.727
X53.646 Y11.287
X53.431 Y11.839
X53.196 Y12.383
X52.939 Y12.917
X52.661 Y13.44
X52.362 Y13.951
X52.042 Y14.45
X51.701 Y14.934
X51.34 Y15.404
X50.959 Y15.858
X50.559 Y16.295
X50.141 Y16.714
X49.705 Y17.116
X49.252 Y17.498
X48.783 Y17.86
X48.298 Y18.2
X47.798 Y18.517
X47.284 Y18.812
X46.757 Y19.083
X46.219 Y19.33
X45.669 Y19.552
X45.111 Y19.75
X44.544 Y19.922
X43.97 Y20.07
X43.391 Y20.191
X42.806 Y20.286
X42.217 Y20.355
X41.626 Y20.397
X41.034 Y20.412
X40.442 Y20.4
X39.851 Y20.362
X39.262 Y20.298
X38.676 Y20.209
X38.095 Y20.094
X37.519 Y19.954
X36.95 Y19.79
X36.388 Y19.602
X35.835 Y19.389
X35.292 Y19.153
X34.759 Y18.894
X34.238 Y18.613
X33.729 Y18.31
X33.233 Y17.986
X32.751 Y17.641
X32.283 Y17.277
X31.831 Y16.895
X31.394 Y16.494
X30.974 Y16.077
X30.57 Y15.643
X30.184 Y15.194
X29.816 Y14.73
X29.466 Y14.252
X29.134 Y13.761
X28.822 Y13.258
X28.528 Y12.743
X28.254 Y12.218
X27.998 Y11.683
X27.762 Y11.14
X27.544 Y10.59
X27.344 Y10.032
X27.161 Y9.468
X26.996 Y8.899
X26.847 Y8.326
X26.714 Y7.749
X26.595 Y7.168
X26.491 Y6.585
X26.4 Y6.
X26.321 Y5.413
X26.194 Y4.235
X26.103 Y3.053
X26.039 Y1.87
X25.982 Y0.094
X25.956 Y-1.683
X25.965 Y-3.461
X25.999 Y-4.645
X26.066 Y-5.828
X26.116 Y-6.418
X26.178 Y-7.007
X26.253 Y-7.595
X26.343 Y-8.18
X26.449 Y-8.763
X26.571 Y-9.343
X26.71 Y-9.919
X26.866 Y-10.49
X27.041 Y-11.057
X27.234 Y-11.617
X27.447 Y-12.17
X27.678 Y-12.715
X27.93 Y-13.251
X28.2 Y-13.778
X28.491 Y-14.295
X28.801 Y-14.799
X29.13 Y-15.292
X29.478 Y-15.772
X29.844 Y-16.237
X30.228 Y-16.688
X30.63 Y-17.124
X31.048 Y-17.543
X31.483 Y-17.945
X31.934 Y-18.329
X32.401 Y-18.695
X32.882 Y-19.04
X33.377 Y-19.366
X33.885 Y-19.671
X34.405 Y-19.954
X34.937 Y-20.216
X35.479 Y-20.455
X36.03 Y-20.672
X36.59 Y-20.866
X37.157 Y-21.036
X37.731 Y-21.183
X38.311 Y-21.305
X38.895 Y-21.403
X39.483 Y-21.477
X40.073 Y-21.525
X40.665 Y-21.548
X41.258 Y-21.546
X41.849 Y-21.518
X42.44 Y-21.466
X43.027 Y-21.389
X43.611 Y-21.288
X44.19 Y-21.162
X44.763 Y-21.012
X45.329 Y-20.838
X45.887 Y-20.64
X46.437 Y-20.418
X46.976 Y-20.174
X47.505 Y-19.907
X48.022 Y-19.618
X48.527 Y-19.307
X49.018 Y-18.976
X49.495 Y-18.625
X49.957 Y-18.254
X50.404 Y-17.865
X50.835 Y-17.458
X51.248 Y-17.034
X51.644 Y-16.593
X52.022 Y-16.137
X52.382 Y-15.666
X52.723 Y-15.182
X53.045 Y-14.685
X53.348 Y-14.176
X53.632 Y-13.656
X53.896 Y-13.126
X54.142 Y-12.587
X54.369 Y-12.039
X54.578 Y-11.485
X54.768 Y-10.924
X54.941 Y-10.357
X55.097 Y-9.786
X55.237 Y-9.21
X55.361 Y-8.631
X55.471 Y-8.048
X55.567 Y-7.464
X55.651 Y-6.878
X55.724 Y-6.29
X55.839 Y-5.11
X55.92 Y-3.928
X55.976 Y-2.745
X56.027 Y-0.968
X56.055 Y1.401
X56.046 Y3.179
X56.016 Y4.363
X55.955 Y5.546
X55.91 Y6.137
X55.854 Y6.727
X55.784 Y7.315
X55.701 Y7.902
X55.603 Y8.486
X55.489 Y9.067
X55.358 Y9.645
X55.21 Y10.219
X55.044 Y10.787
X54.859 Y11.35
X54.655 Y11.906
X54.432 Y12.455
X54.19 Y12.996
X53.929 Y13.527
X53.647 Y14.049
X53.347 Y14.559
X53.027 Y15.058
X52.688 Y15.544
X52.331 Y16.016
X51.955 Y16.475
X51.562 Y16.918
X51.151 Y17.345
X50.723 Y17.755
X50.28 Y18.147
X49.82 Y18.521
X49.346 Y18.877
X48.858 Y19.212
X48.356 Y19.527
X47.842 Y19.821
X47.316 Y20.093
X46.779 Y20.344
X46.232 Y20.573
X45.677 Y20.778
X45.113 Y20.96
X44.542 Y21.119
X43.965 Y21.254
X43.383 Y21.364
X42.797 Y21.451
X42.208 Y21.513
X41.617 Y21.551
X41.025 Y21.565
X40.432 Y21.554
X39.841 Y21.52
X39.251 Y21.461
X38.665 Y21.379
X38.082 Y21.273
X37.504 Y21.144
X36.931 Y20.991
X36.365 Y20.816
X35.807 Y20.619
X35.256 Y20.4
X34.715 Y20.159
X34.183 Y19.897
X33.662 Y19.615
X33.153 Y19.313
X32.655 Y18.991
X32.17 Y18.651
X31.699 Y18.293
X31.241 Y17.917
X30.797 Y17.524
X30.369 Y17.114
X29.957 Y16.689
X29.56 Y16.25
X29.179 Y15.795
X28.815 Y15.328
X28.468 Y14.848
X28.138 Y14.356
X27.826 Y13.852
X27.531 Y13.338
X27.254 Y12.815
X26.995 Y12.282
X26.752 Y11.742
X26.528 Y11.193
X26.32 Y10.639
X26.129 Y10.078
X25.955 Y9.511
X25.797 Y8.941
X25.653 Y8.366
X25.524 Y7.788
X25.409 Y7.206
X25.307 Y6.623
X25.217 Y6.037
X25.139 Y5.45
X25.011 Y4.272
X24.918 Y3.091
X24.852 Y1.908
X24.79 Y0.132
X24.763 Y-1.645
X24.774 Y-3.422
X24.809 Y-4.607
X24.877 Y-5.79
X24.926 Y-6.38
X24.987 Y-6.969
X25.06 Y-7.557
X25.146 Y-8.143
X25.247 Y-8.727
X25.363 Y-9.308
X25.495 Y-9.886
X25.643 Y-10.459
X25.808 Y-11.028
X25.99 Y-11.592
X26.189 Y-12.15
X26.407 Y-12.701
X26.642 Y-13.245
X26.895 Y-13.78
X27.166 Y-14.307
X27.456 Y-14.824
X27.763 Y-15.33
X28.088 Y-15.826
X28.43 Y-16.309
X28.79 Y-16.78
X29.167 Y-17.237
X29.561 Y-17.68
X29.97 Y-18.108
X30.395 Y-18.521
X30.835 Y-18.917
X31.29 Y-19.297
X31.759 Y-19.659
X32.241 Y-20.004
X32.736 Y-20.329
X33.243 Y-20.636
X33.761 Y-20.923
X34.29 Y-21.19
X34.828 Y-21.437
X35.376 Y-21.663
X35.932 Y-21.867
X36.496 Y-22.049
X37.066 Y-22.21
X37.642 Y-22.349
X38.223 Y-22.465
X38.808 Y-22.558
X39.396 Y-22.629
X39.986 Y-22.677
X40.578 Y-22.702
X41.171 Y-22.704
X41.763 Y-22.683
X42.354 Y-22.639
X42.942 Y-22.571
X43.528 Y-22.48
X44.109 Y-22.367
X44.686 Y-22.231
X45.256 Y-22.072
X45.821 Y-21.892
X46.378 Y-21.689
X46.926 Y-21.466
X47.466 Y-21.221
X47.995 Y-20.955
X48.514 Y-20.67
X49.022 Y-20.364
X49.517 Y-20.039
X50. Y-19.696
X50.468 Y-19.333
X50.923 Y-18.953
X51.363 Y-18.556
X51.787 Y-18.143
X52.196 Y-17.714
X52.588 Y-17.27
X52.964 Y-16.812
X53.323 Y-16.341
X53.665 Y-15.857
X53.989 Y-15.361
X54.296 Y-14.855
X54.585 Y-14.337
X54.856 Y-13.811
X55.11 Y-13.275
X55.345 Y-12.732
X55.563 Y-12.181
X55.764 Y-11.623
X55.948 Y-11.06
X56.116 Y-10.492
X56.268 Y-9.92
X56.406 Y-9.343
X56.529 Y-8.764
X56.638 Y-8.182
X56.735 Y-7.597
X56.82 Y-7.011
X56.894 Y-6.423
X57.013 Y-5.244
X57.1 Y-4.063
X57.161 Y-2.879
X57.218 Y-1.103
X57.245 Y0.674
X57.247 Y2.451
X57.228 Y3.636
X57.185 Y4.82
X57.108 Y6.002
X57.055 Y6.592
X56.989 Y7.181
X56.911 Y7.768
X56.819 Y8.354
X56.712 Y8.936
X56.59 Y9.516
X56.452 Y10.092
X56.298 Y10.664
X56.127 Y11.231
X55.938 Y11.793
X55.732 Y12.349
X55.509 Y12.897
X55.267 Y13.438
X55.007 Y13.97
X54.73 Y14.494
X54.434 Y15.007
X54.12 Y15.51
X53.789 Y16.001
X53.44 Y16.479
X53.073 Y16.945
X52.69 Y17.397
X52.291 Y17.834
X51.876 Y18.257
X51.445 Y18.664
X50.999 Y19.054
X50.54 Y19.428
X50.066 Y19.784
X49.58 Y20.122
X49.081 Y20.442
X48.57 Y20.742
X48.048 Y21.022
X47.516 Y21.282
X46.974 Y21.521
X46.423 Y21.739
X45.864 Y21.936
X45.298 Y22.111
X44.726 Y22.265
X44.149 Y22.397
X43.566 Y22.506
X42.98 Y22.594
X42.392 Y22.659
X41.801 Y22.701
X41.209 Y22.722
X40.616 Y22.719
X40.024 Y22.694
X39.434 Y22.647
X38.845 Y22.577
X38.26 Y22.485
X37.679 Y22.372
X37.102 Y22.237
X36.53 Y22.081
X35.965 Y21.903
X35.407 Y21.706
X34.856 Y21.488
X34.313 Y21.25
X33.779 Y20.993
X33.255 Y20.717
X32.742 Y20.422
X32.239 Y20.108
X31.748 Y19.777
X31.269 Y19.428
X30.803 Y19.062
X30.35 Y18.681
X29.91 Y18.283
X29.485 Y17.871
X29.074 Y17.444
X28.677 Y17.004
X28.296 Y16.551
X27.931 Y16.085
X27.581 Y15.607
X27.246 Y15.117
X26.929 Y14.617
X26.627 Y14.107
X26.342 Y13.588
X26.074 Y13.06
X25.823 Y12.523
X25.587 Y11.98
X25.368 Y11.429
X25.165 Y10.873
X24.978 Y10.311
X24.805 Y9.744
X24.648 Y9.173
X24.505 Y8.598
X24.375 Y8.02
X24.259 Y7.439
X24.155 Y6.856
X24.062 Y6.271
X23.98 Y5.684
X23.847 Y4.507
X23.746 Y3.326
X23.674 Y2.143
X23.604 Y0.367
X23.572 Y-1.41
X23.578 Y-3.187
X23.611 Y-4.371
X23.674 Y-5.554
X23.719 Y-6.145
X23.774 Y-6.735
X23.842 Y-7.323
X23.921 Y-7.911
X24.013 Y-8.496
X24.119 Y-9.079
X24.24 Y-9.659
X24.375 Y-10.235
X24.526 Y-10.808
X24.693 Y-11.377
X24.875 Y-11.94
X25.074 Y-12.499
X25.289 Y-13.05
X25.521 Y-13.596
X25.77 Y-14.133
X26.036 Y-14.663
X26.319 Y-15.183
X26.618 Y-15.694
X26.935 Y-16.195
X27.268 Y-16.685
X27.617 Y-17.163
X27.983 Y-17.63
X28.364 Y-18.083
X28.76 Y-18.524
X29.171 Y-18.95
X29.597 Y-19.363
X30.036 Y-19.76
X30.489 Y-20.142
X30.955 Y-20.508
X31.434 Y-20.857
X31.924 Y-21.189
X32.426 Y-21.503
X32.94 Y-21.799
X33.463 Y-22.077
X33.996 Y-22.335
X34.538 Y-22.574
X35.088 Y-22.794
X35.646 Y-22.994
X36.21 Y-23.174
X36.781 Y-23.334
X37.357 Y-23.473
X37.937 Y-23.591
X38.521 Y-23.689
X39.109 Y-23.766
X39.699 Y-23.821
X40.29 Y-23.855
X40.882 Y-23.867
X41.475 Y-23.857
X42.066 Y-23.826
X42.656 Y-23.773
X43.244 Y-23.699
X43.829 Y-23.603
X44.41 Y-23.487
X44.986 Y-23.35
X45.557 Y-23.192
X46.122 Y-23.014
X46.68 Y-22.815
X47.231 Y-22.597
X47.773 Y-22.359
X48.307 Y-22.101
X48.831 Y-21.824
X49.344 Y-21.528
X49.846 Y-21.214
X50.337 Y-20.882
X50.815 Y-20.533
X51.281 Y-20.167
X51.734 Y-19.784
X52.173 Y-19.386
X52.597 Y-18.973
X53.007 Y-18.546
X53.402 Y-18.104
X53.782 Y-17.65
X54.146 Y-17.182
X54.495 Y-16.703
X54.826 Y-16.212
X55.141 Y-15.711
X55.44 Y-15.199
X55.722 Y-14.678
X55.987 Y-14.148
X56.236 Y-13.61
X56.468 Y-13.065
X56.683 Y-12.513
X56.883 Y-11.956
X57.068 Y-11.393
X57.237 Y-10.825
X57.391 Y-10.253
X57.531 Y-9.677
X57.658 Y-9.099
X57.771 Y-8.517
X57.873 Y-7.933
X57.962 Y-7.348
X58.041 Y-6.761
X58.171 Y-5.583
X58.267 Y-4.402
X58.336 Y-3.219
X58.402 Y-1.443
X58.436 Y0.334
X58.443 Y2.111
X58.427 Y3.296
X58.389 Y4.48
X58.321 Y5.663
X58.273 Y6.253
X58.215 Y6.843
X58.145 Y7.431
X58.063 Y8.018
X57.968 Y8.603
X57.859 Y9.185
X57.735 Y9.764
X57.597 Y10.34
X57.443 Y10.913
X57.274 Y11.48
X57.089 Y12.043
X56.887 Y12.6
X56.669 Y13.151
X56.433 Y13.694
X56.181 Y14.23
X55.912 Y14.758
X55.625 Y15.277
X55.322 Y15.786
X55.003 Y16.285
X54.666 Y16.772
X54.314 Y17.249
X53.946 Y17.713
X53.562 Y18.164
X53.163 Y18.602
X52.749 Y19.026
X52.322 Y19.436
X51.88 Y19.831
X51.425 Y20.21
X50.956 Y20.572
X50.475 Y20.918
X49.982 Y21.247
X49.478 Y21.558
X48.963 Y21.85
X48.438 Y22.125
X47.903 Y22.38
X47.36 Y22.616
X46.808 Y22.833
X46.25 Y23.03
X45.684 Y23.207
X45.113 Y23.364
X44.537 Y23.501
X43.956 Y23.617
X43.371 Y23.712
X42.783 Y23.787
X42.193 Y23.84
X41.602 Y23.872
X41.009 Y23.884
X40.417 Y23.874
X39.825 Y23.844
X39.235 Y23.792
X38.647 Y23.721
X38.062 Y23.628
X37.48 Y23.516
X36.903 Y23.384
X36.33 Y23.232
X35.763 Y23.06
X35.202 Y22.869
X34.648 Y22.659
X34.102 Y22.43
X33.564 Y22.183
X33.034 Y21.917
X32.514 Y21.634
X32.004 Y21.333
X31.504 Y21.015
X31.014 Y20.681
X30.537 Y20.331
X30.071 Y19.965
X29.617 Y19.584
X29.176 Y19.189
X28.748 Y18.779
X28.333 Y18.356
X27.932 Y17.92
X27.545 Y17.471
X27.173 Y17.011
X26.815 Y16.538
X26.472 Y16.055
X26.145 Y15.561
X25.833 Y15.058
X25.536 Y14.545
X25.255 Y14.024
X24.989 Y13.494
X24.739 Y12.957
X24.504 Y12.413
X24.284 Y11.863
X24.079 Y11.307
X23.889 Y10.746
X23.713 Y10.18
X23.552 Y9.611
X23.404 Y9.037
X23.269 Y8.46
X23.147 Y7.88
X23.036 Y7.298
X22.938 Y6.714
X22.85 Y6.128
X22.751 Y5.336
X22.75 Y5.309
Y-6.789
X22.81 Y-7.972
X22.873 Y-8.561
X22.96 Y-9.147
X23.068 Y-9.73
X23.194 Y-10.309
X23.336 Y-10.884
X23.495 Y-11.455
X23.669 Y-12.021
X23.86 Y-12.582
X24.066 Y-13.137
X24.288 Y-13.686
X24.526 Y-14.229
X24.78 Y-14.764
X25.049 Y-15.292
X25.335 Y-15.811
X25.636 Y-16.321
X25.953 Y-16.821
X26.285 Y-17.312
X26.633 Y-17.792
X26.995 Y-18.26
X27.372 Y-18.717
X27.764 Y-19.162
X28.169 Y-19.594
X28.589 Y-20.012
X29.022 Y-20.417
X29.468 Y-20.807
X29.926 Y-21.182
X30.396 Y-21.542
X30.878 Y-21.887
X31.371 Y-22.215
X31.875 Y-22.527
X32.389 Y-22.822
X32.912 Y-23.1
X33.444 Y-23.36
X33.985 Y-23.602
X34.533 Y-23.827
X35.089 Y-24.033
X35.651 Y-24.22
X36.219 Y-24.387
X36.792 Y-24.536
X37.371 Y-24.665
X37.953 Y-24.775
X38.538 Y-24.866
X39.126 Y-24.936
X39.717 Y-24.987
X40.308 Y-25.017
X40.901 Y-25.028
X41.493 Y-25.018
X42.085 Y-24.989
X42.675 Y-24.939
X43.263 Y-24.87
X43.849 Y-24.781
X44.431 Y-24.672
X45.01 Y-24.543
X45.583 Y-24.394
X46.151 Y-24.226
X46.714 Y-24.04
X47.269 Y-23.834
X47.818 Y-23.61
X48.358 Y-23.368
X48.89 Y-23.107
X49.413 Y-22.829
X49.927 Y-22.533
X50.43 Y-22.22
X50.922 Y-21.891
X51.403 Y-21.545
X51.873 Y-21.184
X52.33 Y-20.807
X52.774 Y-20.416
X53.206 Y-20.009
X53.623 Y-19.589
X54.027 Y-19.156
X54.417 Y-18.709
X54.792 Y-18.251
X55.152 Y-17.781
X55.498 Y-17.299
X55.828 Y-16.807
X56.142 Y-16.305
X56.442 Y-15.794
X56.725 Y-15.274
X56.993 Y-14.746
X57.246 Y-14.21
X57.483 Y-13.667
X57.704 Y-13.117
X57.911 Y-12.562
X58.102 Y-12.002
X58.279 Y-11.436
X58.442 Y-10.866
X58.59 Y-10.293
X58.726 Y-9.716
X58.849 Y-9.137
X58.96 Y-8.555
X59.059 Y-7.971
X59.147 Y-7.385
X59.249 Y-6.577
X59.25 Y-6.55
Y6.789
X59.19 Y7.972
X59.127 Y8.561
X59.039 Y9.147
X58.931 Y9.73
X58.805 Y10.309
X58.662 Y10.883
X58.503 Y11.454
X58.328 Y12.02
X58.138 Y12.581
X57.932 Y13.137
X57.71 Y13.686
X57.472 Y14.228
X57.218 Y14.764
X56.948 Y15.291
X56.663 Y15.81
X56.362 Y16.32
X56.045 Y16.821
X55.713 Y17.311
X55.365 Y17.791
X55.003 Y18.26
X54.625 Y18.717
X54.233 Y19.161
X53.827 Y19.592
X53.408 Y20.011
X52.975 Y20.415
X52.529 Y20.806
X52.071 Y21.181
X51.601 Y21.541
X51.119 Y21.886
X50.626 Y22.215
X50.123 Y22.527
X49.609 Y22.822
X49.086 Y23.1
X48.554 Y23.361
X48.014 Y23.604
X47.465 Y23.828
X46.91 Y24.034
X46.348 Y24.221
X45.78 Y24.39
X45.207 Y24.539
X44.629 Y24.67
X44.047 Y24.781
X43.462 Y24.873
X42.874 Y24.946
X42.284 Y24.999
X41.692 Y25.032
X41.1 Y25.046
X40.507 Y25.04
X39.915 Y25.015
X39.325 Y24.971
X38.736 Y24.907
X38.149 Y24.824
X37.566 Y24.721
X36.986 Y24.6
X36.41 Y24.46
X35.839 Y24.301
X35.274 Y24.125
X34.714 Y23.93
X34.161 Y23.717
X33.615 Y23.487
X33.077 Y23.24
X32.547 Y22.976
X32.025 Y22.695
X31.513 Y22.397
X31.01 Y22.084
X30.517 Y21.756
X30.035 Y21.412
X29.564 Y21.052
X29.104 Y20.679
X28.656 Y20.291
X28.22 Y19.89
X27.796 Y19.476
X27.385 Y19.05
X26.987 Y18.611
X26.602 Y18.161
X26.231 Y17.699
X25.874 Y17.226
X25.53 Y16.743
X25.201 Y16.251
X24.886 Y15.749
X24.586 Y15.238
X24.3 Y14.719
X24.029 Y14.193
X23.772 Y13.659
X23.531 Y13.118
X23.303 Y12.571
X23.09 Y12.018
X22.892 Y11.46
X22.766 Y11.064
X22.75 Y10.917
Y5.309
Y5.191
Y-6.671
Y-6.789
Y-11.628
X22.778 Y-12.194
X22.835 Y-12.629
X22.957 Y-13.198
X23.127 Y-13.766
X23.33 Y-14.322
X23.559 Y-14.869
X23.809 Y-15.406
X24.078 Y-15.934
X24.363 Y-16.453
X24.664 Y-16.963
X24.981 Y-17.464
X25.313 Y-17.955
X25.659 Y-18.436
X26.019 Y-18.906
X26.393 Y-19.366
X26.78 Y-19.814
X27.182 Y-20.25
X27.596 Y-20.673
X28.023 Y-21.084
X28.463 Y-21.481
X28.914 Y-21.864
X29.378 Y-22.233
X29.852 Y-22.588
X30.337 Y-22.928
X30.833 Y-23.253
X31.338 Y-23.563
X31.852 Y-23.856
X32.376 Y-24.134
X32.908 Y-24.395
X33.447 Y-24.639
X33.994 Y-24.866
X34.548 Y-25.077
X35.108 Y-25.27
X35.674 Y-25.445
X36.246 Y-25.601
X36.822 Y-25.739
X37.402 Y-25.86
X37.985 Y-25.961
X38.308 Y-26.
X42.409
X43.592 Y-25.937
X44.181 Y-25.868
X44.765 Y-25.769
X45.344 Y-25.646
X45.919 Y-25.501
X46.488 Y-25.336
X47.051 Y-25.152
X47.608 Y-24.95
X48.158 Y-24.73
X48.701 Y-24.492
X49.236 Y-24.238
X49.762 Y-23.966
X50.28 Y-23.678
X50.788 Y-23.373
X51.286 Y-23.053
X51.774 Y-22.717
X52.251 Y-22.366
X52.717 Y-22.
X53.171 Y-21.62
X53.614 Y-21.226
X54.044 Y-20.818
X54.461 Y-20.398
X54.866 Y-19.965
X55.257 Y-19.52
X55.635 Y-19.064
X55.999 Y-18.596
X56.349 Y-18.118
X56.684 Y-17.63
X57.005 Y-17.132
X57.312 Y-16.625
X57.603 Y-16.109
X57.88 Y-15.586
X58.142 Y-15.054
X58.39 Y-14.516
X58.623 Y-13.971
X58.841 Y-13.421
X59.045 Y-12.865
X59.233 Y-12.296
X59.25 Y-12.145
Y-6.55
X59.242 Y-6.514 Z-2.994
X59.234 Y-6.483 Z-2.977
X59.228 Y-6.457 Z-2.951
X59.224 Y-6.441 Z-2.918
X59.223 Y-6.436 Z-2.882
G0 Z5.
X42.677 Y-25.789
Z-2.4
G1 Z-2.7 F720.
X42.67 Y-25.791 Z-2.767
X42.649 Y-25.798 Z-2.83
X42.615 Y-25.81 Z-2.887
X42.57 Y-25.825 Z-2.935
X42.516 Y-25.842 Z-2.97
X42.456 Y-25.862 Z-2.992
X42.392 Y-25.883 Z-3.
G3 X42.409 Y-26. R0.06
G1 X46.852
X47.31 Y-25.977
X47.698 Y-25.926
X48.186 Y-25.822
X48.754 Y-25.652
X49.307 Y-25.441
X49.849 Y-25.201
X50.38 Y-24.938
X50.9 Y-24.654
X51.409 Y-24.352
X51.909 Y-24.034
X52.399 Y-23.701
X52.878 Y-23.352
X53.347 Y-22.99
X53.805 Y-22.614
X54.251 Y-22.225
X54.686 Y-21.822
X55.109 Y-21.407
X55.52 Y-20.98
X55.918 Y-20.542
X56.303 Y-20.092
X56.676 Y-19.631
X57.036 Y-19.161
X57.382 Y-18.68
X57.715 Y-18.19
X58.034 Y-17.691
X58.339 Y-17.183
X58.63 Y-16.667
X58.908 Y-16.144
X59.185 Y-15.585
X59.221 Y-15.49
X59.243 Y-15.391
X59.25 Y-15.29
Y-12.145
X59.242 Y-12.11 Z-2.994
X59.234 Y-12.078 Z-2.977
X59.228 Y-12.053 Z-2.951
X59.224 Y-12.037 Z-2.918
X59.223 Y-12.031 Z-2.882
G0 Z5.
X47.12 Y-25.789
Z-2.4
G1 Z-2.7 F720.
X47.113 Y-25.791 Z-2.767
X47.092 Y-25.798 Z-2.83
X47.058 Y-25.81 Z-2.887
X47.013 Y-25.825 Z-2.935
X46.959 Y-25.842 Z-2.97
X46.899 Y-25.862 Z-2.992
X46.835 Y-25.883 Z-3.
G3 X46.852 Y-26. R0.06
G1 X49.545
X49.906 Y-25.982
X50.186 Y-25.945
X50.514 Y-25.875
X50.923 Y-25.753
X51.437 Y-25.552
X51.97 Y-25.294
X52.485 Y-25.002
X52.986 Y-24.684
X53.473 Y-24.347
X53.948 Y-23.993
X54.411 Y-23.624
X54.863 Y-23.241
X55.304 Y-22.845
X55.732 Y-22.436
X56.149 Y-22.015
X56.555 Y-21.583
X56.948 Y-21.14
X57.329 Y-20.686
X57.698 Y-20.223
X58.054 Y-19.75
X58.398 Y-19.267
X58.729 Y-18.776
X59.15 Y-18.105
X59.205 Y-17.991
X59.239 Y-17.87
X59.25 Y-17.744
Y-15.29
G3 X58.728 Y-15.099 R0.3
G1 X49.333 Y-25.499
G3 X49.545 Y-26. R0.3
G1 X51.833
X52.066 Y-25.988
X52.301 Y-25.958
X52.563 Y-25.902
X52.892 Y-25.803
X53.276 Y-25.654
X53.757 Y-25.42
X54.267 Y-25.12
X54.757 Y-24.786
X55.229 Y-24.428
X55.686 Y-24.051
X56.13 Y-23.659
X56.561 Y-23.252
X56.98 Y-22.834
X57.387 Y-22.403
X57.782 Y-21.962
X58.166 Y-21.511
X58.538 Y-21.05
X58.898 Y-20.579
X59.116 Y-20.278
X59.19 Y-20.152
X59.235 Y-20.013
X59.25 Y-19.867
Y-17.744
G3 X58.727 Y-17.555 R0.3
G1 X51.62 Y-25.5
G3 X51.833 Y-26. R0.3
G1 X53.853
X53.997 Y-25.993
X54.202 Y-25.966
X54.432 Y-25.917
X54.713 Y-25.832
X55.032 Y-25.708
X55.424 Y-25.518
X55.906 Y-25.234
X56.391 Y-24.894
X56.853 Y-24.523
X57.298 Y-24.131
X57.726 Y-23.722
X58.141 Y-23.299
X58.542 Y-22.864
X59.089 Y-22.227
X59.177 Y-22.092
X59.231 Y-21.941
X59.25 Y-21.781
G3 X58.767 Y-21.554 R0.3
G1 X53.681 Y-25.462
G3 X53.853 Y-26. R0.3
G1 X55.603
X55.79 Y-25.991
X55.967 Y-25.967
X56.181 Y-25.922
X56.429 Y-25.847
X56.713 Y-25.737
X57.051 Y-25.573
X57.462 Y-25.331
X57.947 Y-24.99
X58.404 Y-24.613
X58.838 Y-24.211
X59.048 Y-23.999
X59.157 Y-23.855
X59.226 Y-23.687
X59.25 Y-23.507
G3 X58.786 Y-23.266 R0.3
G1 X55.449 Y-25.449
G3 X55.603 Y-26. R0.3
G1 X57.353
X57.488 Y-25.993
X57.663 Y-25.968
X57.875 Y-25.919
X58.101 Y-25.848
X58.375 Y-25.736
X58.706 Y-25.567
X58.791 Y-25.507
X58.865 Y-25.434
X58.929 Y-25.351
G3 X58.564 Y-24.917 R0.3
G1 X57.256 Y-25.42
G3 X57.353 Y-26. R0.3
G1 X57.757 Y-25.997
X57.892 Y-25.971
X58.397 Y-25.818
X58.511 Y-25.744
X58.848 Y-25.475
X59.119 Y-25.033
X59.169 Y-24.803
X59.25 Y-24.332
Y-19.867
X59.242 Y-19.832 Z-2.994
X59.234 Y-19.8 Z-2.977
X59.228 Y-19.775 Z-2.951
X59.224 Y-19.759 Z-2.918
X59.223 Y-19.753 Z-2.882
G0 Z5.
X59.039 Y7.057
Z-2.4
G1 Z-2.7 F720.
X59.041 Y7.05 Z-2.767
X59.048 Y7.029 Z-2.83
X59.06 Y6.995 Z-2.887
X59.075 Y6.95 Z-2.935
X59.092 Y6.896 Z-2.97
X59.112 Y6.836 Z-2.992
X59.133 Y6.772 Z-3.
G3 X59.25 Y6.789 R0.06
G1 Y11.628
X59.222 Y12.188
X59.165 Y12.624
X59.043 Y13.193
X58.873 Y13.761
X58.67 Y14.317
X58.441 Y14.864
X58.191 Y15.401
X57.923 Y15.929
X57.637 Y16.448
X57.336 Y16.958
X57.02 Y17.459
X56.688 Y17.95
X56.343 Y18.431
X55.982 Y18.901
X55.608 Y19.361
X55.22 Y19.809
X54.819 Y20.245
X54.405 Y20.668
X53.978 Y21.079
X53.538 Y21.476
X53.087 Y21.859
X52.624 Y22.229
X52.15 Y22.584
X51.665 Y22.924
X51.17 Y23.25
X50.665 Y23.559
X50.15 Y23.853
X49.627 Y24.131
X49.095 Y24.393
X48.556 Y24.638
X48.009 Y24.866
X47.455 Y25.076
X46.895 Y25.27
X46.33 Y25.445
X45.759 Y25.603
X45.183 Y25.742
X44.603 Y25.864
X43.845 Y25.993
X43.744 Y26.
X39.313
X38.13 Y25.936
X37.541 Y25.865
X36.957 Y25.765
X36.378 Y25.642
X35.804 Y25.497
X35.234 Y25.332
X34.671 Y25.149
X34.114 Y24.949
X33.562 Y24.731
X33.018 Y24.497
X32.481 Y24.247
X31.952 Y23.98
X31.431 Y23.698
X30.919 Y23.401
X30.415 Y23.089
X29.921 Y22.762
X29.437 Y22.42
X28.963 Y22.065
X28.5 Y21.695
X28.048 Y21.313
X27.607 Y20.917
X27.177 Y20.509
X26.76 Y20.089
X26.355 Y19.656
X25.962 Y19.213
X25.582 Y18.759
X25.214 Y18.294
X24.86 Y17.819
X24.519 Y17.335
X24.191 Y16.841
X23.877 Y16.339
X23.577 Y15.828
X23.29 Y15.31
X23.017 Y14.784
X22.821 Y14.381
X22.782 Y14.283
X22.758 Y14.18
X22.75 Y14.074
Y10.917
G3 X22.777 Y10.803 R0.3
G1 X22.805 Y10.742 Z-2.992
X22.831 Y10.685 Z-2.97
X22.854 Y10.633 Z-2.935
X22.874 Y10.59 Z-2.887
X22.889 Y10.557 Z-2.83
X22.898 Y10.537 Z-2.767
X22.901 Y10.53 Z-2.7
G0 Z5.
X39.045 Y25.789
Z-2.4
G1 Z-2.7 F720.
X39.052 Y25.791 Z-2.767
X39.073 Y25.798 Z-2.83
X39.107 Y25.81 Z-2.887
X39.152 Y25.825 Z-2.935
X39.206 Y25.842 Z-2.97
X39.266 Y25.862 Z-2.992
X39.329 Y25.883 Z-3.
G3 X39.313 Y26. R0.06
G1 X34.87
X34.406 Y25.977
X34.009 Y25.925
X33.506 Y25.817
X32.939 Y25.647
X32.384 Y25.439
X31.841 Y25.202
X31.309 Y24.942
X30.786 Y24.664
X30.273 Y24.368
X29.768 Y24.057
X29.274 Y23.731
X28.788 Y23.391
X28.313 Y23.038
X27.848 Y22.671
X27.393 Y22.292
X26.948 Y21.9
X26.515 Y21.496
X26.093 Y21.08
X25.682 Y20.653
X25.283 Y20.215
X24.896 Y19.767
X24.521 Y19.308
X24.159 Y18.839
X23.809 Y18.361
X23.471 Y17.875
X23.146 Y17.379
X22.855 Y16.91
X22.797 Y16.794
X22.762 Y16.67
X22.75 Y16.541
Y14.074
G3 X22.777 Y13.961 R0.3
G1 X22.805 Y13.9 Z-2.992
X22.831 Y13.842 Z-2.97
X22.854 Y13.79 Z-2.935
X22.874 Y13.747 Z-2.887
X22.889 Y13.715 Z-2.83
X22.898 Y13.694 Z-2.767
X22.901 Y13.688 Z-2.7
G0 Z5.
X34.602 Y25.789
Z-2.4
G1 Z-2.7 F720.
X34.609 Y25.791 Z-2.767
X34.63 Y25.798 Z-2.83
X34.664 Y25.81 Z-2.887
X34.709 Y25.825 Z-2.935
X34.763 Y25.842 Z-2.97
X34.823 Y25.862 Z-2.992
X34.886 Y25.883 Z-3.
G3 X34.87 Y26. R0.06
G1 X32.042
X31.775 Y25.987
X31.488 Y25.949
X31.146 Y25.876
X30.72 Y25.748
X30.177 Y25.537
X29.644 Y25.278
X29.128 Y24.989
X28.625 Y24.676
X28.134 Y24.344
X27.654 Y23.996
X27.186 Y23.634
X26.727 Y23.258
X26.279 Y22.871
X25.842 Y22.471
X25.416 Y22.06
X25. Y21.637
X24.596 Y21.204
X24.203 Y20.76
X23.822 Y20.307
X23.452 Y19.844
X23.094 Y19.372
X22.882 Y19.077
X22.81 Y18.951
X22.765 Y18.813
X22.75 Y18.668
Y16.541
G3 X23.264 Y16.341 R0.3
G1 X32.246 Y25.49
G3 X32.042 Y26. R0.3
G1 X29.754
X29.566 Y25.991
X29.325 Y25.959
X29.054 Y25.901
X28.714 Y25.799
X28.309 Y25.641
X27.798 Y25.393
X27.287 Y25.093
X26.796 Y24.762
X26.32 Y24.408
X25.859 Y24.037
X25.409 Y23.651
X24.972 Y23.252
X24.545 Y22.841
X24.13 Y22.418
X23.725 Y21.986
X23.332 Y21.543
X22.905 Y21.035
X22.82 Y20.902
X22.768 Y20.753
X22.75 Y20.596
Y18.668
G3 X23.267 Y18.472 R0.3
G1 X29.96 Y25.493
G3 X29.754 Y26. R0.3
G1 X27.734
X27.593 Y25.993
X27.382 Y25.965
X27.146 Y25.915
X26.854 Y25.827
X26.521 Y25.698
X26.108 Y25.497
X25.598 Y25.197
X25.113 Y24.857
X24.648 Y24.489
X24.2 Y24.102
X23.766 Y23.698
X23.345 Y23.281
X22.931 Y22.847
X22.833 Y22.707
X22.771 Y22.547
X22.75 Y22.377
Y20.596
G3 X23.271 Y20.404 R0.3
G1 X27.945 Y25.497
G3 X27.734 Y26. R0.3
G1 X25.984
X25.763 Y25.989
X25.578 Y25.965
X25.361 Y25.918
X25.103 Y25.841
X24.809 Y25.727
X24.454 Y25.555
X24.021 Y25.299
X23.536 Y24.959
X23.077 Y24.584
X22.979 Y24.495
X22.855 Y24.346
X22.777 Y24.169
X22.75 Y23.977
G3 X23.201 Y23.729 R0.3
G1 X26.125 Y25.441
G3 X25.984 Y26. R0.3
G1 X24.234
X24.055 Y25.991
X23.884 Y25.969
X23.676 Y25.924
X23.444 Y25.855
X23.235 Y25.773
X23.144 Y25.729
X22.982 Y25.62
X22.857 Y25.471
X22.777 Y25.293
X22.75 Y25.1
G3 X23.185 Y24.842 R0.3
G1 X24.358 Y25.432
G3 X24.234 Y26. R0.3
G1 X23.022 Y25.998
X22.921 Y25.97
X22.849 Y25.921
X22.788 Y25.845
X22.753 Y25.74
X22.75 Y22.377
X22.758 Y22.342 Z-2.994
X22.766 Y22.31 Z-2.977
X22.772 Y22.285 Z-2.951
X22.776 Y22.269 Z-2.918
X22.777 Y22.263 Z-2.882
G0 Z5.
X22.961 Y-11.897
Z-2.4
G1 Z-2.7 F720.
X22.959 Y-11.889 Z-2.767
X22.952 Y-11.868 Z-2.83
X22.94 Y-11.834 Z-2.887
X22.925 Y-11.789 Z-2.935
X22.908 Y-11.735 Z-2.97
X22.888 Y-11.675 Z-2.992
X22.867 Y-11.612 Z-3.
G3 X22.75 Y-11.628 R0.06
G1 Y-14.586
X22.769 Y-14.964
X22.808 Y-15.264
X22.887 Y-15.632
X23.022 Y-16.084
X23.237 Y-16.636
X23.494 Y-17.17
X23.779 Y-17.689
X24.088 Y-18.195
X24.415 Y-18.689
X24.759 Y-19.171
X25.118 Y-19.643
X25.49 Y-20.103
X25.877 Y-20.552
X26.276 Y-20.99
X26.688 Y-21.416
X27.112 Y-21.829
X27.548 Y-22.231
X27.995 Y-22.619
X28.454 Y-22.994
X28.923 Y-23.355
X29.403 Y-23.703
X29.893 Y-24.036
X30.392 Y-24.355
X30.901 Y-24.659
X31.418 Y-24.948
X31.943 Y-25.222
X32.476 Y-25.481
X33.016 Y-25.724
X33.573 Y-25.954
X33.654 Y-25.98
X33.738 Y-25.995
X33.822 Y-26.
X38.308
X38.343 Y-25.992 Z-2.994
X38.375 Y-25.984 Z-2.977
X38.4 Y-25.978 Z-2.951
X38.416 Y-25.974 Z-2.918
X38.421 Y-25.973 Z-2.882
G0 Z5.
X22.961 Y-14.854
Z-2.4
G1 Z-2.7 F720.
X22.959 Y-14.847 Z-2.767
X22.952 Y-14.826 Z-2.83
X22.94 Y-14.792 Z-2.887
X22.925 Y-14.747 Z-2.935
X22.908 Y-14.693 Z-2.97
X22.888 Y-14.633 Z-2.992
X22.867 Y-14.569 Z-3.
G3 X22.75 Y-14.586 R0.06
G1 Y-17.006
X22.761 Y-17.23
X22.794 Y-17.476
X22.853 Y-17.756
X22.958 Y-18.107
X23.122 Y-18.527
X23.378 Y-19.055
X23.679 Y-19.566
X24.009 Y-20.058
X24.362 Y-20.534
X24.732 Y-20.996
X25.118 Y-21.445
X25.518 Y-21.882
X25.931 Y-22.307
X26.356 Y-22.72
X26.792 Y-23.121
X27.24 Y-23.509
X27.698 Y-23.885
X28.166 Y-24.248
X28.644 Y-24.597
X29.132 Y-24.934
X29.629 Y-25.257
X30.134 Y-25.566
X30.753 Y-25.917
X30.858 Y-25.963
X30.969 Y-25.991
X31.084 Y-26.
X33.822
G3 X34. Y-25.467 R0.3
G1 X23.238 Y-16.783
G3 X22.75 Y-17.006 R0.3
G1 Y-19.022
X22.761 Y-19.234
X22.789 Y-19.449
X22.839 Y-19.686
X22.928 Y-19.982
X23.058 Y-20.317
X23.26 Y-20.733
X23.561 Y-21.244
X23.901 Y-21.729
X24.269 Y-22.193
X24.657 Y-22.641
X25.062 Y-23.073
X25.481 Y-23.492
X25.913 Y-23.897
X26.356 Y-24.291
X26.81 Y-24.671
X27.274 Y-25.04
X27.748 Y-25.395
X28.446 Y-25.882
X28.567 Y-25.947
X28.699 Y-25.986
X28.836 Y-26.
X31.084
G3 X31.265 Y-25.469 R0.3
G1 X23.242 Y-18.802
G3 X22.75 Y-19.022 R0.3
G1 Y-20.904
X22.758 Y-21.063
X22.782 Y-21.25
X22.829 Y-21.467
X22.907 Y-21.726
X23.02 Y-22.018
X23.192 Y-22.372
X23.445 Y-22.801
X23.785 Y-23.286
X24.16 Y-23.744
X24.56 Y-24.181
X24.978 Y-24.601
X25.412 Y-25.005
X25.858 Y-25.395
X26.42 Y-25.853
X26.551 Y-25.933
X26.697 Y-25.983
X26.849 Y-26.
X28.836
G3 X29.017 Y-25.469 R0.3
G1 X23.241 Y-20.684
G3 X22.75 Y-20.904 R0.3
G1 Y-22.652
X22.757 Y-22.787
X22.781 Y-22.961
X22.828 Y-23.173
X22.9 Y-23.405
X23.01 Y-23.68
X23.167 Y-23.995
X23.396 Y-24.377
X23.724 Y-24.835
X24.106 Y-25.287
X24.516 Y-25.715
X24.616 Y-25.809
X24.758 Y-25.913
X24.922 Y-25.978
X25.097 Y-26.
G3 X25.335 Y-25.533 R0.3
G1 X23.299 Y-22.495
G3 X22.75 Y-22.652 R0.3
G1 Y-24.265
X22.757 Y-24.4
X22.779 Y-24.566
X22.823 Y-24.767
X22.888 Y-24.978
X22.987 Y-25.23
X23.127 Y-25.514
X23.212 Y-25.658
X23.324 Y-25.8
X23.468 Y-25.909
X23.635 Y-25.977
X23.814 Y-26.
G3 X24.068 Y-25.56 R0.3
G1 X23.315 Y-24.135
G3 X22.75 Y-24.265 R0.3
G1 Y-25.61
X22.751 Y-25.649
Y-25.677
X22.763 Y-25.771
X22.81 Y-25.878
G3 X23.144 Y-25.976 R0.325
X22.974 Y-25.385 R0.307
X22.751 Y-25.677 R0.307
G1 X22.76 Y-25.778
X22.81 Y-25.878
X22.887 Y-25.951
X22.988 Y-25.993
X23.426 Y-26.
X26.849
X26.885 Y-25.992 Z-2.994
X26.917 Y-25.984 Z-2.977
X26.942 Y-25.978 Z-2.951
X26.958 Y-25.974 Z-2.918
X26.963 Y-25.973 Z-2.882
G0 Z5.
X59.039 Y11.897
Z-2.4
G1 Z-2.7 F720.
X59.041 Y11.889 Z-2.767
X59.048 Y11.868 Z-2.83
X59.06 Y11.834 Z-2.887
X59.075 Y11.789 Z-2.935
X59.092 Y11.735 Z-2.97
X59.112 Y11.675 Z-2.992
X59.133 Y11.612 Z-3.
G3 X59.25 Y11.628 R0.06
G1 Y14.586
X59.231 Y14.959
X59.192 Y15.259
X59.113 Y15.628
X58.978 Y16.08
X58.763 Y16.632
X58.506 Y17.166
X58.221 Y17.685
X57.912 Y18.191
X57.585 Y18.685
X57.241 Y19.167
X56.883 Y19.639
X56.51 Y20.099
X56.123 Y20.548
X55.724 Y20.986
X55.312 Y21.412
X54.888 Y21.825
X54.452 Y22.227
X54.005 Y22.615
X53.547 Y22.99
X53.077 Y23.352
X52.598 Y23.699
X52.108 Y24.033
X51.609 Y24.352
X51.101 Y24.657
X50.584 Y24.946
X50.059 Y25.221
X49.526 Y25.48
X48.986 Y25.723
X48.428 Y25.954
X48.347 Y25.979
X48.264 Y25.995
X48.179 Y26.
X43.744
G3 X43.63 Y25.973 R0.3
G1 X43.569 Y25.945 Z-2.992
X43.512 Y25.919 Z-2.97
X43.46 Y25.896 Z-2.935
X43.417 Y25.876 Z-2.887
X43.384 Y25.861 Z-2.83
X43.364 Y25.852 Z-2.767
X43.357 Y25.849 Z-2.7
G0 Z5.
X59.039 Y14.854
Z-2.4
G1 Z-2.7 F720.
X59.041 Y14.847 Z-2.767
X59.048 Y14.826 Z-2.83
X59.06 Y14.792 Z-2.887
X59.075 Y14.747 Z-2.935
X59.092 Y14.693 Z-2.97
X59.112 Y14.633 Z-2.992
X59.133 Y14.569 Z-3.
G3 X59.25 Y14.586 R0.06
G1 Y17.006
X59.239 Y17.226
X59.207 Y17.473
X59.147 Y17.752
X59.042 Y18.103
X58.878 Y18.524
X58.622 Y19.051
X58.321 Y19.562
X57.991 Y20.054
X57.639 Y20.53
X57.268 Y20.992
X56.882 Y21.441
X56.482 Y21.878
X56.069 Y22.303
X55.644 Y22.716
X55.208 Y23.117
X54.761 Y23.505
X54.303 Y23.881
X53.835 Y24.244
X53.357 Y24.594
X52.869 Y24.931
X52.373 Y25.254
X51.867 Y25.563
X51.246 Y25.916
X51.14 Y25.962
X51.029 Y25.991
X50.914 Y26.
X48.179
G3 X48.001 Y25.467 R0.3
G1 X58.762 Y16.783
G3 X59.25 Y17.006 R0.3
G1 Y19.022
X59.24 Y19.231
X59.211 Y19.445
X59.161 Y19.682
X59.072 Y19.978
X58.942 Y20.313
X58.74 Y20.729
X58.439 Y21.239
X58.099 Y21.724
X57.732 Y22.189
X57.343 Y22.636
X56.938 Y23.069
X56.519 Y23.488
X56.088 Y23.893
X55.645 Y24.287
X55.191 Y24.667
X54.727 Y25.036
X54.253 Y25.391
X53.551 Y25.881
X53.429 Y25.946
X53.298 Y25.986
X53.161 Y26.
X50.914
G3 X50.733 Y25.469 R0.3
G1 X58.758 Y18.802
G3 X59.25 Y19.022 R0.3
G1 Y20.904
X59.242 Y21.059
X59.218 Y21.246
X59.171 Y21.462
X59.094 Y21.722
X58.98 Y22.014
X58.808 Y22.368
X58.556 Y22.797
X58.215 Y23.282
X57.84 Y23.74
X57.44 Y24.178
X57.022 Y24.597
X56.589 Y25.001
X56.143 Y25.391
X55.576 Y25.853
X55.445 Y25.933
X55.3 Y25.983
X55.147 Y26.
G3 X54.922 Y25.514 R0.3
G1 X58.715 Y20.729
G3 X59.25 Y20.904 R0.3
G1 Y22.652
X59.243 Y22.787
X59.218 Y22.962
X59.17 Y23.175
X59.098 Y23.407
X58.986 Y23.684
X58.829 Y24.
X58.597 Y24.384
X58.266 Y24.844
X57.883 Y25.296
X57.38 Y25.809
X57.238 Y25.913
X57.075 Y25.978
X56.9 Y26.
G3 X56.661 Y25.533 R0.3
G1 X58.701 Y22.495
G3 X59.25 Y22.652 R0.3
G1 Y24.265
Y24.306
Y24.334
X59.242 Y24.469
X59.21 Y24.651
X59.154 Y24.863
X59.074 Y25.09
X58.985 Y25.269
X58.953 Y25.314
G3 X58.434 Y25.039 R0.3
G1 X58.662 Y24.259
G3 X59.25 Y24.334 R0.3
G1 X59.238 Y24.583
X59.071 Y25.139
X59.035 Y25.206
X58.747 Y25.576
X58.7 Y25.618
X58.296 Y25.863
X58.161 Y25.899
X57.623 Y25.997
X53.161 Y26.
X53.126 Y25.992 Z-2.994
X53.094 Y25.984 Z-2.977
X53.069 Y25.978 Z-2.951
X53.052 Y25.974 Z-2.918
X53.047 Y25.973 Z-2.882
G0 Z5.
Z10.

(POCKET4)
M8
G0 Z11.515
X6.891 Y13.619
G1 Z1.945 F200.
X6.889 Y13.624 Z1.887 F720.
G3 X6.875 Y13.651 Z1.803 R0.75
X6.849 Y13.698 Z1.731 R0.75
X6.807 Y13.758 Z1.679 R0.75
X6.752 Y13.823 Z1.65 R0.75
X5.668 Y12.786 Z1.235 R0.75
X6.752 Y13.823 Z0.819 R0.75
X5.668 Y12.786 Z0.404 R0.75
X6.752 Y13.823 Z-0.012 R0.75
X5.668 Y12.786 Z-0.427 R0.75
X6.752 Y13.823 Z-0.843 R0.75
X5.668 Y12.786 Z-1.258 R0.75
X6.752 Y13.823 Z-1.674 R0.75
X5.668 Y12.786 Z-2.089 R0.75
X6.752 Y13.823 Z-2.505 R0.75
X5.668 Y12.786 Z-2.92 R0.75
X6.059 Y12.57 Z-3. R0.75
G1 X6.252 Y12.53
X6.621 Y12.603
X6.936 Y12.814
X7.147 Y13.129
X7.221 Y13.5
X7.147 Y13.871
X6.936 Y14.186
X6.621 Y14.397
X6.251 Y14.47
X5.877 Y14.395
X5.564 Y14.186
X5.353 Y13.871
X5.28 Y13.501
X5.355 Y13.126
X5.564 Y12.814
X5.871 Y12.608
X6.059 Y12.57
G3 X6.151 Y12.565 Z-2.985 R0.3
X6.232 Y12.585 Z-2.943 R0.3
X6.291 Y12.617 Z-2.876 R0.3
X6.324 Y12.643 Z-2.793 R0.3
X6.334 Y12.654 Z-2.7 R0.3
G0 Z11.515
X6.526 Y13.017
G1 Z-1.055 F200.
G3 X6.542 Y13.024 Z-1.157 R0.75 F720.
X6.588 Y13.049 Z-1.247 R0.75
X6.655 Y13.093 Z-1.314 R0.75
X6.73 Y13.155 Z-1.35 R0.75
X5.693 Y14.24 Z-1.765 R0.75
X6.73 Y13.155 Z-2.181 R0.75
X5.693 Y14.24 Z-2.596 R0.75
X6.73 Y13.155 Z-3.012 R0.75
X5.693 Y14.24 Z-3.427 R0.75
X6.73 Y13.155 Z-3.843 R0.75
X5.693 Y14.24 Z-4.258 R0.75
X6.73 Y13.155 Z-4.674 R0.75
X5.693 Y14.24 Z-5.089 R0.75
X6.73 Y13.155 Z-5.505 R0.75
X5.693 Y14.24 Z-5.92 R0.75
X6.73 Y13.155 Z-6.336 R0.75
X5.693 Y14.24 Z-6.751 R0.75
X6.73 Y13.155 Z-7.166 R0.75
X5.693 Y14.24 Z-7.582 R0.75
X6.73 Y13.155 Z-7.997 R0.75
X5.693 Y14.24 Z-8.413 R0.75
X6.73 Y13.155 Z-8.828 R0.75
X5.693 Y14.24 Z-9.244 R0.75
X6.73 Y13.155 Z-9.659 R0.75
X6.064 Y14.433 Z-10. R0.75
G1 X5.877 Y14.395
X5.564 Y14.186
X5.353 Y13.871
X5.28 Y13.501
X5.355 Y13.126
X5.564 Y12.814
X5.871 Y12.608
X6.252 Y12.53
X6.621 Y12.603
X6.936 Y12.814
X7.147 Y13.129
X7.221 Y13.5
X7.147 Y13.871
X6.936 Y14.186
X6.621 Y14.397
X6.251 Y14.47
X6.064 Y14.433
G3 X5.977 Y14.401 Z-9.985 R0.3
X5.911 Y14.351 Z-9.943 R0.3
X5.869 Y14.299 Z-9.876 R0.3
X5.849 Y14.262 Z-9.793 R0.3
X5.843 Y14.248 Z-9.7 R0.3
G0 Z11.515
X-0.652 Y19.363
G1 Z1.945 F200.
X-0.646 Y19.361 Z1.887 F720.
G3 X-0.617 Y19.353 Z1.803 R0.75
X-0.564 Y19.342 Z1.731 R0.75
X-0.492 Y19.333 Z1.679 R0.75
X-0.407 Y19.332 Z1.65 R0.75
X-0.465 Y20.831 Z1.235 R0.75
X-0.407 Y19.332 Z0.819 R0.75
X-0.465 Y20.831 Z0.404 R0.75
X-0.407 Y19.332 Z-0.012 R0.75
X-0.465 Y20.831 Z-0.427 R0.75
X-0.407 Y19.332 Z-0.843 R0.75
X-0.465 Y20.831 Z-1.258 R0.75
X-0.407 Y19.332 Z-1.674 R0.75
X-0.465 Y20.831 Z-2.089 R0.75
X-0.407 Y19.332 Z-2.505 R0.75
X-0.465 Y20.831 Z-2.92 R0.75
X-0.886 Y20.681 Z-3. R0.75
X-0.614 Y20.318 R0.227
X-0.886 Y20.681 R0.227
G2 X-1.533 Y20.567 R0.727
G3 X-1.994 Y20.098 R0.371
X0.494 Y20.901 R1.307
X-1.994 Y20.098 R1.307
G2 X-2.18 Y19.253 R0.858
G3 X-2.027 Y18.4 R0.543
G1 X-1.517 Y18.14
X-0.759 Y18.02
X0.029 Y18.146
X0.701 Y18.489
X0.774 Y18.558
X1.264 Y19.054
X1.61 Y19.733
X1.73 Y20.489
X1.604 Y21.279
X1.257 Y21.958
X0.712 Y22.504
X0.014 Y22.86
X-0.757 Y22.98
X-1.51 Y22.861
X-1.567 Y22.835
X-2.203 Y22.51
X-2.758 Y21.958
X-3.104 Y21.279
X-3.23 Y20.489
X-3.157 Y20.032
X-3.11 Y19.733
X-2.76 Y19.047
X-2.208 Y18.492
X-2.027 Y18.4
G3 X-1.94 Y18.372 Z-2.985 R0.3
X-1.856 Y18.37 Z-2.943 R0.3
X-1.792 Y18.385 Z-2.876 R0.3
X-1.753 Y18.401 Z-2.793 R0.3
X-1.74 Y18.409 Z-2.7 R0.3
G0 Z11.515
X-2.126 Y21.014
G1 Z-1.055 F200.
G3 X-2.129 Y20.996 Z-1.157 R0.75 F720.
X-2.138 Y20.945 Z-1.247 R0.75
X-2.143 Y20.865 Z-1.314 R0.75
X-2.139 Y20.768 Z-1.35 R0.75
X-0.648 Y20.934 Z-1.765 R0.75
X-2.139 Y20.768 Z-2.181 R0.75
X-0.648 Y20.934 Z-2.596 R0.75
X-2.139 Y20.768 Z-3.012 R0.75
X-0.648 Y20.934 Z-3.427 R0.75
X-2.139 Y20.768 Z-3.843 R0.75
X-0.648 Y20.934 Z-4.258 R0.75
X-2.139 Y20.768 Z-4.674 R0.75
X-0.648 Y20.934 Z-5.089 R0.75
X-2.139 Y20.768 Z-5.505 R0.75
X-0.648 Y20.934 Z-5.92 R0.75
X-2.139 Y20.768 Z-6.336 R0.75
X-0.648 Y20.934 Z-6.751 R0.75
X-2.139 Y20.768 Z-7.166 R0.75
X-0.648 Y20.934 Z-7.582 R0.75
X-2.139 Y20.768 Z-7.997 R0.75
X-0.648 Y20.934 Z-8.413 R0.75
X-2.139 Y20.768 Z-8.828 R0.75
X-0.648 Y20.934 Z-9.244 R0.75
X-2.139 Y20.768 Z-9.659 R0.75
X-0.719 Y20.523 Z-10. R0.75
G1 X-0.711 Y20.539
G3 X-0.733 Y20.632 R0.076
G1 X-0.758 Y20.652
G3 X-0.882 Y20.683 R0.159
G1 X-0.903 Y20.68
G3 X-1.034 Y20.601 R0.208
G1 X-1.056 Y20.572
G3 X-1.119 Y20.386 R0.306
G1 Y20.364
G3 X-1.038 Y20.141 R0.359
G1 X-1.017 Y20.115
G3 X-0.758 Y19.959 R0.452
G1 X-0.728 Y19.953
G3 X-0.382 Y19.996 R0.542
G1 X-0.36 Y20.006
G3 X-0.084 Y20.274 R0.616
G1 X-0.074 Y20.291
G3 X-0.004 Y20.708 R0.677
G1 X-0.009 Y20.745
G3 X-0.241 Y21.195 R0.789
G1 X-0.255 Y21.209
G3 X-0.737 Y21.44 R0.847
G1 X-0.764 Y21.443
G3 X-1.338 Y21.331 R0.93
G1 X-1.36 Y21.318
G3 X-1.789 Y20.847 R1.009
G1 X-1.825 Y20.765
G3 X-1.56 Y19.549 R1.056
G1 X-1.506 Y19.501
G3 X0.085 Y19.36 R1.34
G1 X0.104 Y19.372
G3 X0.668 Y20.032 R1.412
G1 X0.701 Y20.11
G3 X0.451 Y21.695 R1.53
G1 X0.447 Y21.699
G3 X0.045 Y22.04 R1.677
G1 X0.036 Y22.046
G3 X-0.476 Y22.254 R1.744
G1 X-0.482 Y22.256
G3 X-1.036 Y22.296 R1.787
X-1.591 Y22.158 R1.793
G1 X-1.597 Y22.155
G3 X-2.082 Y21.851 R1.833
G1 X-2.093 Y21.842
G3 X-2.698 Y20.827 R1.904
G1 X-2.703 Y20.804
G3 X-2.587 Y19.564 R2.007
X-2.244 Y19.023 R2.055
G1 X-2.237 Y19.015
G3 X-1.72 Y18.588 R2.119
X-1.097 Y18.344 R2.129
X-0.418 Y18.304 R2.146
G1 X-0.394 Y18.306
G3 X0.296 Y18.488 R2.292
G1 X0.485 Y18.571
G3 X0.718 Y18.722 R0.863
G1 X0.893 Y18.881
G3 X1.609 Y20.123 R2.338
G1 X1.61 Y20.129
G3 X1.648 Y20.854 R2.309
G1 X1.604 Y21.279
X1.257 Y21.958
X0.712 Y22.504
X0.014 Y22.86
X-0.757 Y22.98
X-1.51 Y22.861
X-1.567 Y22.835
X-2.203 Y22.51
X-2.758 Y21.958
X-3.104 Y21.279
X-3.23 Y20.489
X-3.157 Y20.032
X-3.11 Y19.733
X-2.76 Y19.047
X-2.208 Y18.492
X-1.517 Y18.14
X-0.759 Y18.02
X0.029 Y18.146
X0.701 Y18.489
X0.774 Y18.558
X1.264 Y19.054
X1.61 Y19.733
X1.73 Y20.489
X1.604 Y21.279
G0 Z11.515
X6.891 Y-13.38
G1 Z1.945 F200.
X6.888 Y-13.375 Z1.887 F720.
G3 X6.875 Y-13.347 Z1.803 R0.75
X6.848 Y-13.301 Z1.731 R0.75
X6.806 Y-13.241 Z1.679 R0.75
X6.751 Y-13.177 Z1.65 R0.75
X5.672 Y-14.219 Z1.235 R0.75
X6.751 Y-13.177 Z0.819 R0.75
X5.672 Y-14.219 Z0.404 R0.75
X6.751 Y-13.177 Z-0.012 R0.75
X5.672 Y-14.219 Z-0.427 R0.75
X6.751 Y-13.177 Z-0.843 R0.75
X5.672 Y-14.219 Z-1.258 R0.75
X6.751 Y-13.177 Z-1.674 R0.75
X5.672 Y-14.219 Z-2.089 R0.75
X6.751 Y-13.177 Z-2.505 R0.75
X5.672 Y-14.219 Z-2.92 R0.75
X6.064 Y-14.433 Z-3. R0.75
G1 X6.251 Y-14.47
X6.621 Y-14.397
X6.936 Y-14.186
X7.147 Y-13.871
X7.221 Y-13.5
X7.147 Y-13.129
X6.936 Y-12.814
X6.621 Y-12.603
X6.252 Y-12.53
X5.871 Y-12.608
X5.564 Y-12.814
X5.355 Y-13.126
X5.28 Y-13.501
X5.353 Y-13.871
X5.564 Y-14.186
X5.877 Y-14.395
X6.064 Y-14.433
G3 X6.156 Y-14.437 Z-2.985 R0.3
X6.237 Y-14.416 Z-2.943 R0.3
X6.295 Y-14.385 Z-2.876 R0.3
X6.328 Y-14.358 Z-2.793 R0.3
X6.338 Y-14.347 Z-2.7 R0.3
G0 Z11.515
X6.184 Y-12.948
G1 Z-1.055 F200.
G3 X6.166 Y-12.949 Z-1.157 R0.75 F720.
X6.114 Y-12.954 Z-1.247 R0.75
X6.036 Y-12.968 Z-1.314 R0.75
X5.943 Y-12.997 Z-1.35 R0.75
X6.48 Y-14.398 Z-1.765 R0.75
X5.943 Y-12.997 Z-2.181 R0.75
X6.48 Y-14.398 Z-2.596 R0.75
X5.943 Y-12.997 Z-3.012 R0.75
X6.48 Y-14.398 Z-3.427 R0.75
X5.943 Y-12.997 Z-3.843 R0.75
X6.48 Y-14.398 Z-4.258 R0.75
X5.943 Y-12.997 Z-4.674 R0.75
X6.48 Y-14.398 Z-5.089 R0.75
X5.943 Y-12.997 Z-5.505 R0.75
X6.48 Y-14.398 Z-5.92 R0.75
X5.943 Y-12.997 Z-6.336 R0.75
X6.48 Y-14.398 Z-6.751 R0.75
X5.943 Y-12.997 Z-7.166 R0.75
X6.48 Y-14.398 Z-7.582 R0.75
X5.943 Y-12.997 Z-7.997 R0.75
X6.48 Y-14.398 Z-8.413 R0.75
X5.943 Y-12.997 Z-8.828 R0.75
X6.48 Y-14.398 Z-9.244 R0.75
X5.943 Y-12.997 Z-9.659 R0.75
X6.064 Y-14.433 Z-10. R0.75
G1 X6.251 Y-14.47
X6.621 Y-14.397
X6.936 Y-14.186
X7.147 Y-13.871
X7.221 Y-13.5
X7.147 Y-13.129
X6.936 Y-12.814
X6.621 Y-12.603
X6.252 Y-12.53
X5.871 Y-12.608
X5.564 Y-12.814
X5.355 Y-13.126
X5.28 Y-13.501
X5.353 Y-13.871
X5.564 Y-14.186
X5.877 Y-14.395
X6.064 Y-14.433
G3 X6.156 Y-14.437 Z-9.985 R0.3
X6.237 Y-14.416 Z-9.943 R0.3
X6.295 Y-14.385 Z-9.876 R0.3
X6.328 Y-14.358 Z-9.793 R0.3
X6.338 Y-14.347 Z-9.7 R0.3
G0 Z11.515
X-1.719 Y-19.897
G1 Z1.945 F200.
X-1.723 Y-19.901 Z1.887 F720.
G3 X-1.747 Y-19.92 Z1.803 R0.75
X-1.788 Y-19.955 Z1.731 R0.75
X-1.838 Y-20.008 Z1.679 R0.75
X-1.89 Y-20.075 Z1.65 R0.75
X-0.656 Y-20.927 Z1.235 R0.75
X-1.89 Y-20.075 Z0.819 R0.75
X-0.656 Y-20.927 Z0.404 R0.75
X-1.89 Y-20.075 Z-0.012 R0.75
X-0.656 Y-20.927 Z-0.427 R0.75
X-1.89 Y-20.075 Z-0.843 R0.75
X-0.656 Y-20.927 Z-1.258 R0.75
X-1.89 Y-20.075 Z-1.674 R0.75
X-0.656 Y-20.927 Z-2.089 R0.75
X-1.89 Y-20.075 Z-2.505 R0.75
X-0.656 Y-20.927 Z-2.92 R0.75
X-0.523 Y-20.501 Z-3. R0.75
X-0.98 R0.228
X-0.523 R0.228
G2 X-0.226 Y-19.914 R0.727
G3 X-0.324 Y-19.264 R0.371
X-1.178 Y-21.737 R1.308
X-0.324 Y-19.264 R1.308
G2 X-0.882 Y-18.602 R0.845
G3 X-1.655 Y-18.211 R0.536
G1 X-2.208 Y-18.492
X-2.76 Y-19.047
X-3.11 Y-19.733
X-3.23 Y-20.491
X-3.157 Y-20.966
X-3.105 Y-21.275
X-2.758 Y-21.958
X-2.203 Y-22.51
X-1.517 Y-22.86
X-0.757 Y-22.98
X0.014 Y-22.86
X0.712 Y-22.504
X1.257 Y-21.958
X1.604 Y-21.279
X1.73 Y-20.489
X1.61 Y-19.733
X1.264 Y-19.054
X0.707 Y-18.492
X0.029 Y-18.146
X-0.759 Y-18.02
X-1.515 Y-18.14
X-1.527 Y-18.145
X-1.655 Y-18.211
G3 X-1.73 Y-18.265 Z-2.985 R0.3
X-1.78 Y-18.331 Z-2.943 R0.3
X-1.806 Y-18.392 Z-2.876 R0.3
X-1.816 Y-18.434 Z-2.793 R0.3
X-1.817 Y-18.448 Z-2.7 R0.3
G0 Z11.515
X-1.813 Y-19.482
G1 Z-1.055 F200.
G3 X-1.823 Y-19.497 Z-1.157 R0.75 F720.
X-1.851 Y-19.541 Z-1.247 R0.75
X-1.888 Y-19.612 Z-1.314 R0.75
X-1.922 Y-19.703 Z-1.35 R0.75
X-0.486 Y-20.138 Z-1.765 R0.75
X-1.922 Y-19.703 Z-2.181 R0.75
X-0.486 Y-20.138 Z-2.596 R0.75
X-1.922 Y-19.703 Z-3.012 R0.75
X-0.486 Y-20.138 Z-3.427 R0.75
X-1.922 Y-19.703 Z-3.843 R0.75
X-0.486 Y-20.138 Z-4.258 R0.75
X-1.922 Y-19.703 Z-4.674 R0.75
X-0.486 Y-20.138 Z-5.089 R0.75
X-1.922 Y-19.703 Z-5.505 R0.75
X-0.486 Y-20.138 Z-5.92 R0.75
X-1.922 Y-19.703 Z-6.336 R0.75
X-0.486 Y-20.138 Z-6.751 R0.75
X-1.922 Y-19.703 Z-7.166 R0.75
X-0.486 Y-20.138 Z-7.582 R0.75
X-1.922 Y-19.703 Z-7.997 R0.75
X-0.486 Y-20.138 Z-8.413 R0.75
X-1.922 Y-19.703 Z-8.828 R0.75
X-0.486 Y-20.138 Z-9.244 R0.75
X-1.922 Y-19.703 Z-9.659 R0.75
X-0.714 Y-20.488 Z-10. R0.75
G1 X-0.705 Y-20.48
G3 X-0.685 Y-20.436 R0.058
G1 X-0.687 Y-20.408
G3 X-0.737 Y-20.323 R0.108
G1 X-0.765 Y-20.306
G3 X-0.896 Y-20.283 R0.176
G1 X-0.927 Y-20.289
G3 X-1.076 Y-20.385 R0.256
G1 X-1.091 Y-20.405
G3 X-1.158 Y-20.613 R0.326
G1 X-1.156 Y-20.644
G3 X-1.057 Y-20.899 R0.413
G1 X-1.039 Y-20.92
G3 X-0.762 Y-21.083 R0.495
G1 X-0.736 Y-21.089
G3 X-0.373 Y-21.043 R0.572
G1 X-0.349 Y-21.032
G3 X-0.051 Y-20.738 R0.65
G1 X-0.036 Y-20.707
G3 X0.034 Y-20.246 R0.753
G1 X0.032 Y-20.232
G3 X-0.197 Y-19.794 R0.796
G1 X-0.22 Y-19.772
G3 X-0.728 Y-19.525 R0.892
G1 X-0.757 Y-19.522
G3 X-1.367 Y-19.641 R0.979
G1 X-1.388 Y-19.653
G3 X-1.83 Y-20.14 R1.054
G1 X-1.863 Y-20.212
G3 X-1.586 Y-21.483 R1.097
G1 X-1.527 Y-21.535
G3 X0.097 Y-21.679 R1.377
G1 X0.112 Y-21.67
G3 X0.701 Y-20.981 R1.444
G1 X0.741 Y-20.883
G3 X0.484 Y-19.285 R1.555
G1 X0.478 Y-19.278
G3 X-0.452 Y-18.713 R1.743
G1 X-0.468 Y-18.709
G3 X-1.614 Y-18.809 R1.849
X-2.117 Y-19.126 R1.882
G1 X-2.126 Y-19.134
G3 X-2.517 Y-19.605 R1.958
X-2.745 Y-20.179 R1.964
G1 X-2.747 Y-20.186
G3 X-2.788 Y-20.805 R2.016
G1 X-2.782 Y-20.882
G3 X-2.653 Y-21.387 R1.623
G1 X-2.624 Y-21.454
G3 X-2.266 Y-22.014 R2.104
G1 X-2.26 Y-22.021
G3 X-1.739 Y-22.448 R2.159
X-1.103 Y-22.697 R2.172
G1 X-1.097 Y-22.698
G3 X-0.41 Y-22.739 R2.209
G1 X-0.4 Y-22.738
G3 X0.296 Y-22.555 R2.272
G1 X0.302 Y-22.552
G3 X0.912 Y-22.158 R2.316
X1.376 Y-21.589 R2.332
G1 X1.38 Y-21.582
G3 X1.64 Y-20.907 R2.309
G1 X1.73 Y-20.489
X1.61 Y-19.733
X1.264 Y-19.054
X0.707 Y-18.492
X0.029 Y-18.146
X-0.759 Y-18.02
X-1.515 Y-18.14
X-1.527 Y-18.145
X-2.208 Y-18.492
X-2.76 Y-19.047
X-3.11 Y-19.733
X-3.23 Y-20.491
X-3.157 Y-20.966
X-3.105 Y-21.275
X-2.758 Y-21.958
X-2.203 Y-22.51
X-1.517 Y-22.86
X-0.757 Y-22.98
X0.014 Y-22.86
X0.712 Y-22.504
X1.257 Y-21.958
X1.604 Y-21.279
X1.73 Y-20.489
G0 Z11.515
X-40.651 Y-21.638
G1 Z1.945 F200.
X-40.646 Y-21.639 Z1.887 F720.
G3 X-40.617 Y-21.647 Z1.803 R0.75
X-40.564 Y-21.658 Z1.731 R0.75
X-40.492 Y-21.667 Z1.679 R0.75
X-40.407 Y-21.669 Z1.65 R0.75
X-40.465 Y-20.17 Z1.235 R0.75
X-40.407 Y-21.669 Z0.819 R0.75
X-40.465 Y-20.17 Z0.404 R0.75
X-40.407 Y-21.669 Z-0.012 R0.75
X-40.465 Y-20.17 Z-0.427 R0.75
X-40.407 Y-21.669 Z-0.843 R0.75
X-40.465 Y-20.17 Z-1.258 R0.75
X-40.407 Y-21.669 Z-1.674 R0.75
X-40.465 Y-20.17 Z-2.089 R0.75
X-40.407 Y-21.669 Z-2.505 R0.75
X-40.465 Y-20.17 Z-2.92 R0.75
X-40.886 Y-20.319 Z-3. R0.75
X-40.613 Y-20.683 R0.227
X-40.886 Y-20.319 R0.227
G2 X-41.533 Y-20.434 R0.727
G3 X-41.994 Y-20.902 R0.371
X-39.506 Y-20.1 R1.307
X-41.994 Y-20.902 R1.307
G2 X-42.183 Y-21.746 R0.851
G3 X-42.032 Y-22.597 R0.539
G1 X-41.505 Y-22.862
X-40.764 Y-22.979
X-39.982 Y-22.859
X-39.292 Y-22.507
X-38.747 Y-21.963
X-38.39 Y-21.267
X-38.27 Y-20.49
X-38.388 Y-19.746
X-38.75 Y-19.034
X-39.292 Y-18.493
X-39.98 Y-18.142
X-40.765 Y-18.021
X-41.515 Y-18.14
X-42.209 Y-18.493
X-42.753 Y-19.037
X-43.112 Y-19.747
X-43.23 Y-20.489
X-43.104 Y-21.278
X-42.758 Y-21.957
X-42.215 Y-22.501
X-42.099 Y-22.563
X-42.032 Y-22.597
G3 X-41.944 Y-22.625 Z-2.985 R0.3
X-41.861 Y-22.627 Z-2.943 R0.3
X-41.796 Y-22.611 Z-2.876 R0.3
X-41.757 Y-22.594 Z-2.793 R0.3
X-41.744 Y-22.587 Z-2.7 R0.3
G0 Z11.515
X-42.206 Y-20.284
G1 Z-1.055 F200.
G3 X-42.205 Y-20.302 Z-1.157 R0.75 F720.
X-42.203 Y-20.354 Z-1.247 R0.75
X-42.192 Y-20.433 Z-1.314 R0.75
X-42.167 Y-20.528 Z-1.35 R0.75
X-40.745 Y-20.051 Z-1.765 R0.75
X-42.167 Y-20.528 Z-2.181 R0.75
X-40.745 Y-20.051 Z-2.596 R0.75
X-42.167 Y-20.528 Z-3.012 R0.75
X-40.745 Y-20.051 Z-3.427 R0.75
X-42.167 Y-20.528 Z-3.843 R0.75
X-40.745 Y-20.051 Z-4.258 R0.75
X-42.167 Y-20.528 Z-4.674 R0.75
X-40.745 Y-20.051 Z-5.089 R0.75
X-42.167 Y-20.528 Z-5.505 R0.75
X-40.745 Y-20.051 Z-5.92 R0.75
X-42.167 Y-20.528 Z-6.336 R0.75
X-40.745 Y-20.051 Z-6.751 R0.75
X-42.167 Y-20.528 Z-7.166 R0.75
X-40.745 Y-20.051 Z-7.582 R0.75
X-42.167 Y-20.528 Z-7.997 R0.75
X-40.745 Y-20.051 Z-8.413 R0.75
X-42.167 Y-20.528 Z-8.828 R0.75
X-40.745 Y-20.051 Z-9.244 R0.75
X-42.167 Y-20.528 Z-9.659 R0.75
X-40.727 Y-20.469 Z-10. R0.75
G1 X-40.725 Y-20.458
G3 X-40.738 Y-20.407 R0.054
G1 X-40.763 Y-20.383
G3 X-40.848 Y-20.347 R0.12
G1 X-40.873
G3 X-40.988 Y-20.398 R0.168
G1 X-41.009 Y-20.42
G3 X-41.078 Y-20.583 R0.244
G1 X-41.079 Y-20.617
G3 X-41.006 Y-20.836 R0.335
G1 X-40.988 Y-20.859
G3 X-40.755 Y-21.004 R0.415
G1 X-40.727 Y-21.011
G3 X-40.415 Y-20.979 R0.496
G1 X-40.395 Y-20.969
G3 X-40.129 Y-20.721 R0.563
G1 X-40.113 Y-20.692
G3 X-40.045 Y-20.272 R0.66
G1 X-40.05 Y-20.244
G3 X-40.262 Y-19.836 R0.744
G1 X-40.275 Y-19.824
G3 X-40.724 Y-19.603 R0.798
G1 X-40.758 Y-19.598
G3 X-41.318 Y-19.701 R0.904
G1 X-41.336 Y-19.711
G3 X-41.746 Y-20.149 R0.966
G1 X-41.758 Y-20.174
G3 X-41.835 Y-20.828 R1.049
G1 X-41.829 Y-20.856
G3 X-41.469 Y-21.478 R1.134
G1 X-41.449 Y-21.496
G3 X-40.752 Y-21.795 R1.215
G1 X-40.729 Y-21.798
G3 X-39.953 Y-21.619 R1.288
G1 X-39.933 Y-21.607
G3 X-39.378 Y-20.966 R1.358
G1 X-39.365 Y-20.936
G3 X-39.295 Y-20.025 R1.457
G1 X-39.319 Y-19.93
G3 X-40.477 Y-18.79 R1.551
G1 X-40.49 Y-18.786
G3 X-41.572 Y-18.88 R1.762
G1 X-41.577 Y-18.882
G3 X-42.062 Y-19.185 R1.817
X-42.433 Y-19.629 R1.821
G1 X-42.444 Y-19.648
G3 X-42.705 Y-20.798 R1.914
G1 X-42.704 Y-20.811
G3 X-42.185 Y-21.971 R1.956
G1 X-42.16 Y-21.998
G3 X-40.426 Y-22.657 R2.104
G1 X-40.417 Y-22.656
G3 X-39.149 Y-22.103 R2.215
X-38.702 Y-21.558 R2.252
G1 X-38.697 Y-21.551
G3 X-38.432 Y-20.863 R2.306
G1 X-38.429 Y-20.848
G3 X-38.391 Y-20.127 R2.33
X-38.577 Y-19.425 R2.308
G1 X-38.75 Y-19.034
X-39.292 Y-18.493
X-39.98 Y-18.142
X-40.765 Y-18.021
X-41.515 Y-18.14
X-42.209 Y-18.493
X-42.753 Y-19.037
X-43.112 Y-19.747
X-43.23 Y-20.489
X-43.104 Y-21.278
X-42.758 Y-21.957
X-42.215 Y-22.501
X-42.099 Y-22.563
X-41.505 Y-22.862
X-40.764 Y-22.979
X-39.982 Y-22.859
X-39.292 Y-22.507
X-38.747 Y-21.963
X-38.39 Y-21.267
X-38.27 Y-20.49
X-38.388 Y-19.746
X-38.75 Y-19.034
G0 Z11.515
X-40.651 Y19.365
G1 Z1.945 F200.
X-40.646 Y19.363 Z1.887 F720.
G3 X-40.617 Y19.355 Z1.803 R0.75
X-40.564 Y19.344 Z1.731 R0.75
X-40.492 Y19.335 Z1.679 R0.75
X-40.407 Y19.334 Z1.65 R0.75
X-40.465 Y20.832 Z1.235 R0.75
X-40.407 Y19.334 Z0.819 R0.75
X-40.465 Y20.832 Z0.404 R0.75
X-40.407 Y19.334 Z-0.012 R0.75
X-40.465 Y20.832 Z-0.427 R0.75
X-40.407 Y19.334 Z-0.843 R0.75
X-40.465 Y20.832 Z-1.258 R0.75
X-40.407 Y19.334 Z-1.674 R0.75
X-40.465 Y20.832 Z-2.089 R0.75
X-40.407 Y19.334 Z-2.505 R0.75
X-40.465 Y20.832 Z-2.92 R0.75
X-40.886 Y20.683 Z-3. R0.75
X-40.613 Y20.319 R0.227
X-40.886 Y20.683 R0.227
G2 X-41.533 Y20.569 R0.727
G3 X-41.994 Y20.1 R0.371
X-39.506 Y20.902 R1.307
X-41.994 Y20.1 R1.307
G2 X-42.181 Y19.254 R0.858
G3 X-42.028 Y18.401 R0.543
G1 X-41.515 Y18.14
X-40.765 Y18.021
X-39.98 Y18.142
X-39.292 Y18.493
X-38.75 Y19.034
X-38.388 Y19.746
X-38.27 Y20.49
X-38.391 Y21.267
X-38.747 Y21.963
X-39.292 Y22.507
X-39.982 Y22.859
X-40.764 Y22.979
X-41.504 Y22.862
X-42.209 Y22.506
X-42.758 Y21.957
X-43.104 Y21.278
X-43.23 Y20.489
X-43.111 Y19.74
X-43.072 Y19.659
X-42.754 Y19.038
X-42.211 Y18.496
X-42.196 Y18.486
X-42.028 Y18.401
G3 X-41.94 Y18.372 Z-2.985 R0.3
X-41.857 Y18.37 Z-2.943 R0.3
X-41.793 Y18.385 Z-2.876 R0.3
X-41.754 Y18.402 Z-2.793 R0.3
X-41.741 Y18.409 Z-2.7 R0.3
G0 Z11.515
X-41.737 Y21.58
G1 Z-1.055 F200.
G3 X-41.748 Y21.566 Z-1.157 R0.75 F720.
X-41.779 Y21.525 Z-1.247 R0.75
X-41.821 Y21.457 Z-1.314 R0.75
X-41.862 Y21.368 Z-1.35 R0.75
X-40.461 Y20.831 Z-1.765 R0.75
X-41.862 Y21.368 Z-2.181 R0.75
X-40.461 Y20.831 Z-2.596 R0.75
X-41.862 Y21.368 Z-3.012 R0.75
X-40.461 Y20.831 Z-3.427 R0.75
X-41.862 Y21.368 Z-3.843 R0.75
X-40.461 Y20.831 Z-4.258 R0.75
X-41.862 Y21.368 Z-4.674 R0.75
X-40.461 Y20.831 Z-5.089 R0.75
X-41.862 Y21.368 Z-5.505 R0.75
X-40.461 Y20.831 Z-5.92 R0.75
X-41.862 Y21.368 Z-6.336 R0.75
X-40.461 Y20.831 Z-6.751 R0.75
X-41.862 Y21.368 Z-7.166 R0.75
X-40.461 Y20.831 Z-7.582 R0.75
X-41.862 Y21.368 Z-7.997 R0.75
X-40.461 Y20.831 Z-8.413 R0.75
X-41.862 Y21.368 Z-8.828 R0.75
X-40.461 Y20.831 Z-9.244 R0.75
X-41.862 Y21.368 Z-9.659 R0.75
X-40.713 Y20.498 Z-10. R0.75
G1 X-40.694 Y20.512
G3 X-40.67 Y20.551 R0.064
G1 X-40.665 Y20.574
G3 X-40.694 Y20.676 R0.12
G1 X-40.711 Y20.695
G3 X-40.829 Y20.754 R0.176
G1 X-40.86 Y20.756
G3 X-41.02 Y20.713 R0.254
G1 X-41.039 Y20.701
G3 X-41.166 Y20.528 R0.318
G1 X-41.177 Y20.492
G3 X-41.162 Y20.211 R0.422
G1 X-41.153 Y20.189
G3 X-40.944 Y19.95 R0.492
G1 X-40.924 Y19.938
G3 X-40.574 Y19.867 R0.561
G1 X-40.541 Y19.871
G3 X-40.153 Y20.063 R0.659
G1 X-40.133 Y20.083
G3 X-39.927 Y20.498 R0.743
G1 X-39.924 Y20.519
G3 X-40.013 Y21.016 R0.805
G1 X-40.026 Y21.041
G3 X-40.437 Y21.426 R0.888
G1 X-40.466 Y21.439
G3 X-41.077 Y21.508 R0.983
G1 X-41.099 Y21.503
G3 X-41.662 Y21.181 R1.051
G1 X-41.677 Y21.164
G3 X-41.96 Y20.53 R1.118
G1 X-41.964 Y20.495
G3 X-41.8 Y19.744 R1.225
G1 X-41.79 Y19.726
G3 X-41.189 Y19.198 R1.287
G1 X-41.168 Y19.189
G3 X-40.332 Y19.114 R1.356
G1 X-40.3 Y19.121
G3 X-39.514 Y19.601 R1.454
G1 X-39.448 Y19.678
G3 X-39.204 Y21.285 R1.554
G1 X-39.209 Y21.297
G3 X-39.494 Y21.756 R1.732
G1 X-39.498 Y21.759
G3 X-39.921 Y22.116 R1.763
X-40.456 Y22.332 R1.789
G1 X-40.473 Y22.336
G3 X-41.614 Y22.233 R1.871
G1 X-41.625 Y22.228
G3 X-42.549 Y21.42 R1.968
X-42.778 Y20.844 R1.978
G1 X-42.782 Y20.827
G3 X-42.82 Y20.144 R2.084
G1 X-42.819 Y20.132
G3 X-42.295 Y18.955 R2.118
X-41.764 Y18.52 R2.177
G1 X-41.757 Y18.515
G3 X-40.416 Y18.222 R2.231
G1 X-40.394 Y18.224
G3 X-39.063 Y18.809 R2.331
G1 X-39.059 Y18.813
G3 X-38.601 Y19.377 R2.308
G1 X-38.388 Y19.746
X-38.27 Y20.49
X-38.391 Y21.267
X-38.747 Y21.963
X-39.292 Y22.507
X-39.982 Y22.859
X-40.764 Y22.979
X-41.504 Y22.862
X-42.209 Y22.506
X-42.758 Y21.957
X-43.104 Y21.278
X-43.23 Y20.489
X-43.111 Y19.74
X-43.072 Y19.659
X-42.754 Y19.038
X-42.211 Y18.496
X-42.196 Y18.486
X-41.515 Y18.14
X-40.765 Y18.021
X-39.98 Y18.142
X-39.292 Y18.493
X-38.75 Y19.034
X-38.388 Y19.746
G0 Z11.515
X22.831 Y-24.65
G1 Z11.5 F200.
Z-2.7 F720.
X22.83 Y-24.658 Z-2.767
X22.828 Y-24.68 Z-2.83
X22.825 Y-24.715 Z-2.887
X22.822 Y-24.763 Z-2.935
X22.817 Y-24.82 Z-2.97
X22.812 Y-24.883 Z-2.992
X22.807 Y-24.949 Z-3.
G3 X22.748 Y-26.448 R19.104
G1 Y-27.5
X57.589
X58.067 Y-27.482
X58.081 Y-27.479
X59.116 Y-27.166
X59.143 Y-27.15
X59.976 Y-26.506
X60.537 Y-25.594
X60.551 Y-25.561
X60.745 Y-24.518
X60.75 Y-7.117
Y24.355
X60.73 Y24.824
X60.728 Y24.839
X60.422 Y25.853
X60.41 Y25.878
X59.753 Y26.729
X58.839 Y27.29
X58.806 Y27.303
X57.752 Y27.497
X22.748 Y27.5
Y26.444
G3 X22.752 Y26.397 R0.3
G1 X24.786 Y13.557
X24.796 Y13.491 Z-2.992
X24.806 Y13.428 Z-2.97
X24.815 Y13.372 Z-2.935
X24.822 Y13.325 Z-2.887
X24.828 Y13.29 Z-2.83
X24.831 Y13.268 Z-2.767
X24.832 Y13.261 Z-2.7
G0 Z11.322
X51.713 Y-13.354
Z8.692
G1 Z-1.055 F200.
G3 X51.707 Y-13.371 Z-1.157 R0.75 F720.
X51.692 Y-13.421 Z-1.247 R0.75
X51.676 Y-13.499 Z-1.314 R0.75
X51.668 Y-13.596 Z-1.35 R0.75
X53.167 Y-13.625 Z-1.765 R0.75
X51.668 Y-13.596 Z-2.181 R0.75
X53.167 Y-13.625 Z-2.596 R0.75
X51.668 Y-13.596 Z-3.012 R0.75
X53.167 Y-13.625 Z-3.427 R0.75
X51.668 Y-13.596 Z-3.843 R0.75
X53.167 Y-13.625 Z-4.258 R0.75
X51.668 Y-13.596 Z-4.674 R0.75
X53.167 Y-13.625 Z-5.089 R0.75
X51.668 Y-13.596 Z-5.505 R0.75
X53.167 Y-13.625 Z-5.92 R0.75
X51.668 Y-13.596 Z-6.336 R0.75
X53.167 Y-13.625 Z-6.751 R0.75
X51.668 Y-13.596 Z-7.166 R0.75
X53.167 Y-13.625 Z-7.582 R0.75
X51.668 Y-13.596 Z-7.997 R0.75
X53.167 Y-13.625 Z-8.413 R0.75
X51.668 Y-13.596 Z-8.828 R0.75
X53.167 Y-13.625 Z-9.244 R0.75
X51.668 Y-13.596 Z-9.659 R0.75
X53.043 Y-14.024 Z-10. R0.75
G1 X53.148 Y-13.866
X53.22 Y-13.501
X53.145 Y-13.126
X52.936 Y-12.814
X52.622 Y-12.604
X52.245 Y-12.53
X51.886 Y-12.602
X51.564 Y-12.814
X51.353 Y-13.132
X51.279 Y-13.5
X51.353 Y-13.871
X51.563 Y-14.185
X51.885 Y-14.398
X52.245 Y-14.47
X52.622 Y-14.396
X52.936 Y-14.187
X53.043 Y-14.024
G3 X53.082 Y-13.94 Z-9.985 R0.3
X53.093 Y-13.858 Z-9.943 R0.3
X53.085 Y-13.792 Z-9.876 R0.3
X53.073 Y-13.751 Z-9.793 R0.3
X53.067 Y-13.737 Z-9.7 R0.3
G0 Z11.
X51.905 Y13.063
Z8.856
G1 Z-1.055 F200.
G3 X51.918 Y13.051 Z-1.157 R0.75 F720.
X51.958 Y13.018 Z-1.247 R0.75
X52.024 Y12.972 Z-1.314 R0.75
X52.11 Y12.926 Z-1.35 R0.75
X52.724 Y14.295 Z-1.765 R0.75
X52.11 Y12.926 Z-2.181 R0.75
X52.724 Y14.295 Z-2.596 R0.75
X52.11 Y12.926 Z-3.012 R0.75
X52.724 Y14.295 Z-3.427 R0.75
X52.11 Y12.926 Z-3.843 R0.75
X52.724 Y14.295 Z-4.258 R0.75
X52.11 Y12.926 Z-4.674 R0.75
X52.724 Y14.295 Z-5.089 R0.75
X52.11 Y12.926 Z-5.505 R0.75
X52.724 Y14.295 Z-5.92 R0.75
X52.11 Y12.926 Z-6.336 R0.75
X52.724 Y14.295 Z-6.751 R0.75
X52.11 Y12.926 Z-7.166 R0.75
X52.724 Y14.295 Z-7.582 R0.75
X52.11 Y12.926 Z-7.997 R0.75
X52.724 Y14.295 Z-8.413 R0.75
X52.11 Y12.926 Z-8.828 R0.75
X52.724 Y14.295 Z-9.244 R0.75
X52.11 Y12.926 Z-9.659 R0.75
X53.043 Y14.024 Z-10. R0.75
G1 X52.935 Y14.187
X52.622 Y14.396
X52.245 Y14.47
X51.885 Y14.398
X51.564 Y14.186
X51.352 Y13.867
X51.279 Y13.5
X51.353 Y13.129
X51.563 Y12.814
X51.885 Y12.602
X52.245 Y12.53
X52.622 Y12.604
X52.936 Y12.814
X53.145 Y13.126
X53.22 Y13.501
X53.148 Y13.865
X53.043 Y14.024
G3 X52.981 Y14.093 Z-9.985 R0.3
X52.909 Y14.135 Z-9.943 R0.3
X52.846 Y14.154 Z-9.876 R0.3
X52.803 Y14.159 Z-9.793 R0.3
X52.789 Z-9.7 R0.3
G0 Z11.

(2D ADAPTIVE2)
M8
G0 X-58.488 Y29.134
Z10.
Z5.
Z0.845
G1 Z0.545 F720.
G3 X-59.012 Y29.866 Z0.296 R0.45
X-58.488 Y29.134 Z0.046 R0.45
X-59.012 Y29.866 Z-0.203 R0.45
X-58.488 Y29.134 Z-0.452 R0.45
X-59.012 Y29.866 Z-0.701 R0.45
X-58.488 Y29.134 Z-0.951 R0.45
X-59.012 Y29.866 Z-1.2 R0.45
X-58.488 Y29.134 Z-1.449 R0.45
X-59.012 Y29.866 Z-1.698 R0.45
X-58.488 Y29.134 Z-1.948 R0.45
X-59.012 Y29.866 Z-2.197 R0.45
X-58.488 Y29.134 Z-2.446 R0.45
X-59.012 Y29.866 Z-2.696 R0.45
X-58.488 Y29.134 Z-2.945 R0.45
X-59.012 Y29.866 Z-3.194 R0.45
X-58.488 Y29.134 Z-3.443 R0.45
X-59.012 Y29.866 Z-3.693 R0.45
X-58.488 Y29.134 Z-3.942 R0.45
X-59.012 Y29.866 Z-4.191 R0.45
X-58.488 Y29.134 Z-4.441 R0.45
X-59.012 Y29.866 Z-4.69 R0.45
X-58.488 Y29.134 Z-4.939 R0.45
X-59.012 Y29.866 Z-5.188 R0.45
X-58.488 Y29.134 Z-5.438 R0.45
X-59.012 Y29.866 Z-5.687 R0.45
X-58.488 Y29.134 Z-5.936 R0.45
X-59.012 Y29.866 Z-6.185 R0.45
X-58.488 Y29.134 Z-6.435 R0.45
X-59.012 Y29.866 Z-6.684 R0.45
X-58.488 Y29.134 Z-6.933 R0.45
X-59.012 Y29.866 Z-7.183 R0.45
X-58.488 Y29.134 Z-7.432 R0.45
X-59.012 Y29.866 Z-7.681 R0.45
X-58.488 Y29.134 Z-7.93 R0.45
X-59.012 Y29.866 Z-8.18 R0.45
X-58.488 Y29.134 Z-8.429 R0.45
X-59.012 Y29.866 Z-8.678 R0.45
X-58.488 Y29.134 Z-8.928 R0.45
X-59.012 Y29.866 Z-9.177 R0.45
X-58.488 Y29.134 Z-9.426 R0.45
X-59.012 Y29.866 Z-9.675 R0.45
X-58.488 Y29.134 Z-9.925 R0.45
X-58.3 Y29.5 Z-10. R0.45
X-59.2 R0.45
X-58.3 R0.45
G1 X-58.294 Y29.563
X-58.263 Y29.682
X-58.282 Y29.804
X-58.349 Y29.907
X-58.453 Y29.975
X-58.575 Y29.994
X-58.995 Y29.963
X-59.399 Y29.902
X-59.531 Y29.876
X-59.652 Y29.815
X-59.758 Y29.731
X-59.847 Y29.629
X-59.918 Y29.515
X-59.972 Y29.389
X-60.015 Y29.204
X-59.996 Y29.059
X-59.911 Y28.94
X-59.779 Y28.875
X-59.633 Y28.881
X-59.534 Y28.91
X-59.13 Y28.966
X-58.861 Y28.993
X-58.114 Y29.
X-57.979 Y29.007
X-57.851 Y29.047
X-57.73 Y29.109
X-57.621 Y29.188
X-57.526 Y29.284
X-57.439 Y29.402
X-57.369 Y29.532
X-57.345 Y29.598
X-57.33 Y29.739
X-57.382 Y29.872
X-57.489 Y29.966
X-57.627 Y30.
X-58.522 Y29.997
X-58.575 Y29.994
X-58.692 Y29.981
X-59.282 Y29.915
X-59.399 Y29.902
X-59.991 Y29.81
X-60.341 Y29.66
X-60.462 Y29.601
X-60.573 Y29.523
X-60.667 Y29.426
X-60.744 Y29.315
X-60.803 Y29.194
X-60.843 Y29.065
X-60.866 Y28.921
X-60.865 Y28.747
X-60.814 Y28.616
X-60.71 Y28.522
X-60.574 Y28.487
X-60.437 Y28.516
X-59.698 Y28.86
X-59.633 Y28.881
G3 X-59.467 Y29.149 R0.246
X-60.341 Y29.66 R0.645
G1 X-61.047 Y29.351
X-61.351 Y29.116
X-61.452 Y29.027
X-61.535 Y28.921
X-61.597 Y28.801
X-61.641 Y28.673
X-61.665 Y28.54
X-61.67 Y28.403
X-61.653 Y28.249
X-61.633 Y28.175
X-61.576 Y28.061
X-61.476 Y27.982
X-61.353 Y27.951
X-61.227 Y27.974
X-61.123 Y28.047
X-60.973 Y28.202
X-60.745 Y28.361
X-60.437 Y28.516
G3 X-60.324 Y28.853 R0.257
X-61.25 Y29.177 R0.686
X-61.351 Y29.116 R0.686
G1 X-61.955 Y28.636
X-62.159 Y28.37
X-62.235 Y28.258
X-62.29 Y28.135
X-62.323 Y28.004
X-62.333 Y27.869
X-62.323 Y27.73
X-62.292 Y27.593
X-62.241 Y27.46
X-62.194 Y27.376
X-62.093 Y27.269
X-61.952 Y27.223
X-61.807 Y27.25
X-61.692 Y27.343
X-61.148 Y28.019
X-61.123 Y28.047
G3 X-61.118 Y28.37 R0.252
X-62.078 Y28.454 R0.67
X-62.159 Y28.37 R0.67
G1 X-62.647 Y27.72
X-62.763 Y27.445
X-62.807 Y27.317
X-62.83 Y27.184
X-62.829 Y27.049
X-62.808 Y26.916
X-62.766 Y26.787
X-62.702 Y26.659
X-62.615 Y26.534
X-62.546 Y26.46
X-62.442 Y26.389
X-62.319 Y26.366
X-62.197 Y26.395
X-62.097 Y26.473
X-62.038 Y26.584
X-61.986 Y26.769
G3 X-61.964 Y26.885 R1.
X-62.064 Y27.461 R1.
X-62.763 Y27.445 R0.387
G1 X-63.069 Y26.695
X-63.089 Y26.628
X-63.127 Y26.352
X-63.137 Y26.218
X-63.121 Y26.084
X-63.083 Y25.954
X-63.025 Y25.833
X-62.945 Y25.715
X-62.848 Y25.61
X-62.736 Y25.518
X-62.683 Y25.486
X-62.54 Y25.444
X-62.395 Y25.475
X-62.282 Y25.572
X-62.23 Y25.711
X-62.169 Y26.023
X-62.038 Y26.584
G3 X-62.199 Y26.889 R0.259
X-63.098 Y26.467 R0.694
X-63.127 Y26.352 R0.694
G1 X-63.218 Y25.62
X-63.243 Y25.351
Y25.216
X-63.213 Y25.084
X-63.16 Y24.96
X-63.088 Y24.846
X-62.999 Y24.744
X-62.897 Y24.656
X-62.773 Y24.578
X-62.672 Y24.533
X-62.527 Y24.508
X-62.387 Y24.555
X-62.286 Y24.664
X-62.25 Y24.807
X-62.24 Y25.62
X-62.23 Y25.711
G3 X-62.436 Y25.966 R0.24
X-63.218 Y25.466 R0.714
X-63.243 Y25.351 R0.714
G1 X-63.25 Y24.947
Y24.409
X-63.243 Y24.274
X-63.213 Y24.143
X-63.159 Y24.019
X-63.084 Y23.907
X-62.994 Y23.806
X-62.889 Y23.719
X-62.771 Y23.647
X-62.627 Y23.585
X-62.491 Y23.581
X-62.367 Y23.637
X-62.281 Y23.743
X-62.25 Y23.875
Y24.807
G3 X-62.446 Y25.04 R0.247
X-63.25 Y24.409 R0.668
G1 Y23.468
X-63.243 Y23.333
X-63.21 Y23.202
X-63.155 Y23.079
X-63.08 Y22.966
X-62.986 Y22.865
X-62.877 Y22.777
X-62.755 Y22.704
X-62.664 Y22.667
X-62.52 Y22.646
X-62.383 Y22.695
X-62.285 Y22.803
X-62.25 Y22.944
Y23.875
G3 X-62.452 Y24.109 R0.247
X-63.25 Y23.468 R0.676
G1 Y22.526
X-63.243 Y22.392
X-63.209 Y22.261
X-63.152 Y22.139
X-63.075 Y22.028
X-62.982 Y21.929
X-62.874 Y21.843
X-62.754 Y21.772
X-62.662 Y21.736
X-62.519 Y21.715
X-62.382 Y21.765
X-62.285 Y21.873
X-62.25 Y22.014
Y22.944
G3 X-62.458 Y23.179 R0.246
X-63.25 Y22.526 R0.685
G1 Y21.585
X-63.243 Y21.45
X-63.207 Y21.32
X-63.149 Y21.199
X-63.07 Y21.089
X-62.976 Y20.99
X-62.867 Y20.905
X-62.745 Y20.836
X-62.659 Y20.802
X-62.516 Y20.784
X-62.381 Y20.834
X-62.285 Y20.941
X-62.25 Y21.082
Y22.014
G3 X-62.464 Y22.249 R0.246
X-63.236 Y21.702 R0.695
X-63.25 Y21.585 R0.695
G1 Y20.644
X-63.243 Y20.509
X-63.205 Y20.379
X-63.146 Y20.258
X-63.066 Y20.149
X-62.97 Y20.051
X-62.86 Y19.967
X-62.737 Y19.898
X-62.657 Y19.868
X-62.514 Y19.85
X-62.38 Y19.901
X-62.284 Y20.009
X-62.25 Y20.148
Y21.082
G3 X-62.469 Y21.318 R0.246
X-63.236 Y20.761 R0.703
X-63.25 Y20.644 R0.703
G1 Y19.702
X-63.243 Y19.567
X-63.204 Y19.438
X-63.143 Y19.318
X-63.063 Y19.209
X-62.966 Y19.112
X-62.854 Y19.028
X-62.73 Y18.96
X-62.655 Y18.932
X-62.512 Y18.916
X-62.379 Y18.967
X-62.284 Y19.074
X-62.25 Y19.213
Y20.148
G3 X-62.473 Y20.385 R0.246
X-63.236 Y19.819 R0.71
X-63.25 Y19.702 R0.71
G1 Y18.761
X-63.243 Y18.626
X-63.203 Y18.497
X-63.141 Y18.377
X-63.06 Y18.269
X-62.962 Y18.172
X-62.85 Y18.089
X-62.725 Y18.022
X-62.653 Y17.995
X-62.511 Y17.98
X-62.378 Y18.032
X-62.284 Y18.139
X-62.25 Y18.277
Y19.213
G3 X-62.476 Y19.45 R0.246
X-63.25 Y18.761 R0.716
G1 Y17.82
X-63.243 Y17.685
X-63.202 Y17.556
X-63.139 Y17.437
X-63.057 Y17.329
X-62.958 Y17.232
X-62.845 Y17.149
X-62.72 Y17.082
X-62.651 Y17.058
X-62.51 Y17.043
X-62.377 Y17.095
X-62.284 Y17.202
X-62.25 Y17.34
Y18.277
G3 X-62.479 Y18.514 R0.246
X-63.25 Y17.82 R0.722
G1 Y16.878
X-63.243 Y16.743
X-63.201 Y16.615
X-63.138 Y16.496
X-63.055 Y16.388
X-62.956 Y16.291
X-62.842 Y16.209
X-62.716 Y16.143
X-62.65 Y16.119
X-62.509 Y16.105
X-62.377 Y16.157
X-62.284 Y16.264
X-62.25 Y16.402
Y17.34
G3 X-62.481 Y17.577 R0.246
X-63.25 Y16.878 R0.726
G1 Y15.937
X-63.243 Y15.802
X-63.201 Y15.674
X-63.137 Y15.555
X-63.054 Y15.447
X-62.954 Y15.351
X-62.84 Y15.269
X-62.713 Y15.203
X-62.649 Y15.18
X-62.508 Y15.167
X-62.376 Y15.219
X-62.283 Y15.326
X-62.25 Y15.464
Y16.402
G3 X-62.483 Y16.639 R0.246
X-63.236 Y16.054 R0.729
X-63.25 Y15.937 R0.729
G1 Y14.995
X-63.243 Y14.861
X-63.2 Y14.733
X-63.136 Y14.614
X-63.052 Y14.506
X-62.952 Y14.41
X-62.838 Y14.328
X-62.71 Y14.262
X-62.648 Y14.241
X-62.507 Y14.227
X-62.376 Y14.28
X-62.283 Y14.387
X-62.25 Y14.524
Y15.464
G3 X-62.484 Y15.701 R0.246
X-63.236 Y15.112 R0.732
X-63.25 Y14.995 R0.732
G1 Y14.054
X-63.243 Y13.919
X-63.2 Y13.791
X-63.136 Y13.673
X-63.051 Y13.565
X-62.951 Y13.469
X-62.836 Y13.387
X-62.709 Y13.322
X-62.647 Y13.301
X-62.507 Y13.288
X-62.376 Y13.341
X-62.283 Y13.447
X-62.25 Y13.585
Y14.524
G3 X-62.485 Y14.762 R0.246
X-63.236 Y14.171 R0.734
X-63.25 Y14.054 R0.734
G1 Y13.113
X-63.243 Y12.978
X-63.2 Y12.85
X-63.135 Y12.732
X-63.051 Y12.624
X-62.95 Y12.528
X-62.835 Y12.446
X-62.707 Y12.381
X-62.647 Y12.361
X-62.506 Y12.348
X-62.375 Y12.401
X-62.283 Y12.507
X-62.25 Y12.645
Y13.585
G3 X-62.486 Y13.822 R0.246
X-63.25 Y13.113 R0.735
G1 Y12.171
X-63.243 Y12.036
X-63.2 Y11.909
X-63.135 Y11.79
X-63.05 Y11.683
X-62.949 Y11.587
X-62.834 Y11.505
X-62.706 Y11.44
X-62.646 Y11.42
X-62.506 Y11.407
X-62.375 Y11.46
X-62.283 Y11.567
X-62.25 Y11.704
Y12.645
G3 X-62.487 Y12.882 R0.246
X-63.25 Y12.171 R0.737
G1 Y11.23
X-63.243 Y11.095
X-63.199 Y10.967
X-63.134 Y10.849
X-63.05 Y10.742
X-62.948 Y10.646
X-62.833 Y10.564
X-62.705 Y10.499
X-62.646 Y10.479
X-62.506 Y10.467
X-62.375 Y10.52
X-62.283 Y10.627
X-62.25 Y10.764
Y11.704
G3 X-62.487 Y11.941 R0.246
X-63.237 Y11.347 R0.738
X-63.25 Y11.23 R0.738
G1 Y10.289
X-63.243 Y10.154
X-63.199 Y10.026
X-63.134 Y9.908
X-63.049 Y9.8
X-62.948 Y9.704
X-62.832 Y9.623
X-62.704 Y9.558
X-62.646 Y9.538
X-62.505 Y9.526
X-62.375 Y9.579
X-62.283 Y9.686
X-62.25 Y9.823
Y10.764
G3 X-62.488 Y11.001 R0.246
X-63.25 Y10.289 R0.738
G1 Y9.347
X-63.243 Y9.212
X-63.199 Y9.085
X-63.134 Y8.967
X-63.049 Y8.859
X-62.947 Y8.763
X-62.832 Y8.682
X-62.704 Y8.617
X-62.646 Y8.597
X-62.505 Y8.585
X-62.375 Y8.638
X-62.283 Y8.745
X-62.25 Y8.882
Y9.823
G3 X-62.488 Y10.06 R0.246
X-63.25 Y9.347 R0.739
G1 Y8.406
X-63.243 Y8.271
X-63.199 Y8.143
X-63.134 Y8.025
X-63.049 Y7.918
X-62.947 Y7.822
X-62.832 Y7.741
X-62.703 Y7.676
X-62.645 Y7.656
X-62.505 Y7.644
X-62.375 Y7.697
X-62.283 Y7.804
X-62.25 Y7.941
Y8.882
G3 X-62.488 Y9.119 R0.246
X-63.237 Y8.523 R0.74
X-63.25 Y8.406 R0.74
G1 Y7.464
X-63.243 Y7.33
X-63.199 Y7.202
X-63.134 Y7.084
X-63.049 Y6.977
X-62.947 Y6.881
X-62.831 Y6.799
X-62.703 Y6.735
X-62.645 Y6.715
X-62.505 Y6.703
X-62.375 Y6.756
X-62.283 Y6.863
X-62.25 Y7.
Y7.941
G3 X-62.489 Y8.178 R0.246
X-63.25 Y7.464 R0.74
G1 Y6.523
X-63.243 Y6.388
X-63.199 Y6.261
X-63.134 Y6.143
X-63.048 Y6.035
X-62.947 Y5.939
X-62.831 Y5.858
X-62.703 Y5.793
X-62.645 Y5.774
X-62.505 Y5.762
X-62.375 Y5.815
X-62.283 Y5.922
X-62.25 Y6.059
Y7.
G3 X-62.489 Y7.237 R0.246
X-63.25 Y6.523 R0.74
G1 Y5.582
X-63.243 Y5.447
X-63.199 Y5.319
X-63.134 Y5.201
X-63.048 Y5.094
X-62.947 Y4.998
X-62.831 Y4.917
X-62.703 Y4.852
X-62.645 Y4.833
X-62.505 Y4.821
X-62.375 Y4.874
X-62.283 Y4.981
X-62.25 Y5.117
Y6.059
G3 X-62.489 Y6.296 R0.246
X-63.25 Y5.582 R0.74
G1 Y4.64
X-63.243 Y4.505
X-63.199 Y4.378
X-63.133 Y4.26
X-63.048 Y4.153
X-62.947 Y4.057
X-62.831 Y3.976
X-62.702 Y3.911
X-62.645 Y3.892
X-62.505 Y3.879
X-62.375 Y3.933
X-62.283 Y4.039
X-62.25 Y4.176
Y5.117
G3 X-62.489 Y5.355 R0.246
X-63.25 Y4.64 R0.741
G1 Y3.699
X-63.243 Y3.564
X-63.199 Y3.437
X-63.133 Y3.318
X-63.048 Y3.211
X-62.947 Y3.115
X-62.831 Y3.034
X-62.702 Y2.969
X-62.645 Y2.95
X-62.505 Y2.938
X-62.375 Y2.991
X-62.283 Y3.098
X-62.25 Y3.235
Y4.176
G3 X-62.489 Y4.413 R0.246
X-63.25 Y3.699 R0.741
G1 Y2.758
X-63.243 Y2.623
X-63.199 Y2.495
X-63.133 Y2.377
X-63.048 Y2.27
X-62.946 Y2.174
X-62.831 Y2.093
X-62.702 Y2.028
X-62.645 Y2.009
X-62.505 Y1.997
X-62.375 Y2.05
X-62.283 Y2.157
X-62.25 Y2.293
Y3.235
G3 X-62.489 Y3.472 R0.246
X-63.237 Y2.874 R0.741
X-63.25 Y2.758 R0.741
G1 Y1.816
X-63.243 Y1.681
X-63.199 Y1.554
X-63.133 Y1.436
X-63.048 Y1.328
X-62.946 Y1.233
X-62.831 Y1.151
X-62.702 Y1.087
X-62.645 Y1.068
X-62.505 Y1.056
X-62.375 Y1.109
X-62.283 Y1.215
X-62.25 Y1.352
Y2.293
G3 X-62.489 Y2.531 R0.246
X-63.25 Y1.816 R0.741
G1 Y0.875
X-63.243 Y0.74
X-63.199 Y0.612
X-63.133 Y0.494
X-63.048 Y0.387
X-62.946 Y0.291
X-62.831 Y0.21
X-62.702 Y0.145
X-62.645 Y0.126
X-62.505 Y0.114
X-62.375 Y0.167
X-62.283 Y0.274
X-62.25 Y0.411
Y1.352
G3 X-62.489 Y1.589 R0.246
X-63.25 Y0.875 R0.741
G1 Y-0.067
X-63.243 Y-0.201
X-63.199 Y-0.329
X-63.133 Y-0.447
X-63.048 Y-0.554
X-62.946 Y-0.65
X-62.831 Y-0.731
X-62.702 Y-0.796
X-62.645 Y-0.815
X-62.505 Y-0.827
X-62.375 Y-0.774
X-62.283 Y-0.667
X-62.25 Y-0.531
Y0.411
G3 X-62.489 Y0.648 R0.246
X-63.25 Y-0.067 R0.741
G1 Y-1.008
X-63.243 Y-1.143
X-63.199 Y-1.27
X-63.133 Y-1.388
X-63.048 Y-1.496
X-62.946 Y-1.592
X-62.831 Y-1.673
X-62.702 Y-1.737
X-62.645 Y-1.756
X-62.505 Y-1.768
X-62.375 Y-1.715
X-62.283 Y-1.609
X-62.25 Y-1.472
Y-0.531
G3 X-62.489 Y-0.293 R0.246
X-63.25 Y-1.008 R0.741
G1 Y-1.949
X-63.243 Y-2.084
X-63.199 Y-2.212
X-63.133 Y-2.33
X-63.048 Y-2.437
X-62.946 Y-2.533
X-62.831 Y-2.614
X-62.702 Y-2.679
X-62.645 Y-2.698
X-62.505 Y-2.71
X-62.375 Y-2.657
X-62.283 Y-2.55
X-62.25 Y-2.413
Y-1.472
G3 X-62.489 Y-1.235 R0.246
X-63.25 Y-1.949 R0.741
G1 Y-2.891
X-63.243 Y-3.026
X-63.199 Y-3.153
X-63.133 Y-3.271
X-63.048 Y-3.378
X-62.946 Y-3.474
X-62.831 Y-3.555
X-62.702 Y-3.62
X-62.645 Y-3.639
X-62.505 Y-3.651
X-62.375 Y-3.598
X-62.283 Y-3.491
X-62.25 Y-3.355
Y-2.413
G3 X-62.489 Y-2.176 R0.246
X-63.25 Y-2.891 R0.741
G1 Y-3.832
X-63.243 Y-3.967
X-63.199 Y-4.094
X-63.133 Y-4.212
X-63.048 Y-4.32
X-62.946 Y-4.416
X-62.831 Y-4.497
X-62.702 Y-4.561
X-62.645 Y-4.581
X-62.505 Y-4.593
X-62.375 Y-4.539
X-62.283 Y-4.433
X-62.25 Y-4.296
Y-3.355
G3 X-62.489 Y-3.117 R0.246
X-63.25 Y-3.832 R0.741
G1 Y-4.774
X-63.243 Y-4.908
X-63.199 Y-5.036
X-63.133 Y-5.154
X-63.048 Y-5.261
X-62.946 Y-5.357
X-62.83 Y-5.438
X-62.702 Y-5.503
X-62.645 Y-5.522
X-62.505 Y-5.534
X-62.375 Y-5.481
X-62.283 Y-5.374
X-62.25 Y-5.237
Y-4.296
G3 X-62.489 Y-4.059 R0.246
X-63.237 Y-4.657 R0.741
X-63.25 Y-4.774 R0.741
G1 Y-5.715
X-63.243 Y-5.85
X-63.199 Y-5.977
X-63.133 Y-6.095
X-63.048 Y-6.203
X-62.946 Y-6.298
X-62.83 Y-6.379
X-62.702 Y-6.444
X-62.645 Y-6.463
X-62.505 Y-6.475
X-62.375 Y-6.422
X-62.283 Y-6.315
X-62.25 Y-6.179
Y-5.237
G3 X-62.489 Y-5. R0.246
X-63.237 Y-5.598 R0.741
X-63.25 Y-5.715 R0.741
G1 Y-6.656
X-63.243 Y-6.791
X-63.199 Y-6.919
X-63.133 Y-7.037
X-63.048 Y-7.144
X-62.946 Y-7.24
X-62.83 Y-7.321
X-62.702 Y-7.386
X-62.645 Y-7.405
X-62.505 Y-7.417
X-62.375 Y-7.363
X-62.283 Y-7.257
X-62.25 Y-7.12
Y-6.179
G3 X-62.489 Y-5.941 R0.246
X-63.237 Y-6.539 R0.741
X-63.25 Y-6.656 R0.741
G1 Y-7.598
X-63.243 Y-7.732
X-63.199 Y-7.86
X-63.133 Y-7.978
X-63.048 Y-8.085
X-62.946 Y-8.181
X-62.83 Y-8.262
X-62.702 Y-8.327
X-62.645 Y-8.346
X-62.505 Y-8.358
X-62.375 Y-8.305
X-62.283 Y-8.198
X-62.25 Y-8.061
Y-7.12
G3 X-62.489 Y-6.883 R0.246
X-63.237 Y-7.481 R0.741
X-63.25 Y-7.598 R0.741
G1 Y-8.539
X-63.243 Y-8.674
X-63.199 Y-8.801
X-63.133 Y-8.919
X-63.048 Y-9.027
X-62.946 Y-9.123
X-62.83 Y-9.204
X-62.702 Y-9.268
X-62.645 Y-9.287
X-62.505 Y-9.299
X-62.375 Y-9.246
X-62.283 Y-9.14
X-62.25 Y-9.003
Y-8.061
G3 X-62.489 Y-7.824 R0.246
X-63.237 Y-8.422 R0.741
X-63.25 Y-8.539 R0.741
G1 Y-9.48
X-63.243 Y-9.615
X-63.199 Y-9.743
X-63.133 Y-9.861
X-63.048 Y-9.968
X-62.946 Y-10.064
X-62.83 Y-10.145
X-62.702 Y-10.21
X-62.645 Y-10.229
X-62.505 Y-10.241
X-62.375 Y-10.188
X-62.283 Y-10.081
X-62.25 Y-9.944
Y-9.003
G3 X-62.489 Y-8.766 R0.246
X-63.237 Y-9.363 R0.741
X-63.25 Y-9.48 R0.741
G1 Y-10.422
X-63.243 Y-10.557
X-63.199 Y-10.684
X-63.133 Y-10.802
X-63.048 Y-10.909
X-62.946 Y-11.005
X-62.83 Y-11.086
X-62.702 Y-11.151
X-62.645 Y-11.17
X-62.505 Y-11.182
X-62.375 Y-11.129
X-62.283 Y-11.022
X-62.25 Y-10.886
Y-9.944
G3 X-62.489 Y-9.707 R0.246
X-63.237 Y-10.305 R0.741
X-63.25 Y-10.422 R0.741
G1 Y-11.363
X-63.243 Y-11.498
X-63.199 Y-11.625
X-63.133 Y-11.744
X-63.048 Y-11.851
X-62.946 Y-11.947
X-62.83 Y-12.028
X-62.702 Y-12.092
X-62.645 Y-12.112
X-62.505 Y-12.124
X-62.375 Y-12.07
X-62.283 Y-11.964
X-62.25 Y-11.827
Y-10.886
G3 X-62.489 Y-10.648 R0.246
X-63.237 Y-11.246 R0.741
X-63.25 Y-11.363 R0.741
G1 Y-12.305
X-63.243 Y-12.439
X-63.199 Y-12.567
X-63.133 Y-12.685
X-63.048 Y-12.792
X-62.946 Y-12.888
X-62.83 Y-12.969
X-62.702 Y-13.034
X-62.645 Y-13.053
X-62.505 Y-13.065
X-62.375 Y-13.012
X-62.283 Y-12.905
X-62.25 Y-12.768
Y-11.827
G3 X-62.489 Y-11.59 R0.246
X-63.237 Y-12.188 R0.741
X-63.25 Y-12.305 R0.741
G1 Y-13.246
X-63.243 Y-13.381
X-63.199 Y-13.508
X-63.133 Y-13.626
X-63.048 Y-13.734
X-62.946 Y-13.829
X-62.83 Y-13.911
X-62.702 Y-13.975
X-62.645 Y-13.994
X-62.505 Y-14.006
X-62.375 Y-13.953
X-62.283 Y-13.846
X-62.25 Y-13.71
Y-12.768
G3 X-62.489 Y-12.531 R0.246
X-63.237 Y-13.129 R0.741
X-63.25 Y-13.246 R0.741
G1 Y-14.187
X-63.243 Y-14.322
X-63.199 Y-14.45
X-63.133 Y-14.568
X-63.048 Y-14.675
X-62.946 Y-14.771
X-62.83 Y-14.852
X-62.702 Y-14.917
X-62.645 Y-14.936
X-62.505 Y-14.948
X-62.375 Y-14.895
X-62.283 Y-14.788
X-62.25 Y-14.651
Y-13.71
G3 X-62.489 Y-13.472 R0.246
X-63.237 Y-14.07 R0.741
X-63.25 Y-14.187 R0.741
G1 Y-15.129
X-63.243 Y-15.264
X-63.199 Y-15.391
X-63.133 Y-15.509
X-63.048 Y-15.616
X-62.946 Y-15.712
X-62.83 Y-15.793
X-62.702 Y-15.858
X-62.645 Y-15.877
X-62.505 Y-15.889
X-62.375 Y-15.836
X-62.283 Y-15.729
X-62.25 Y-15.592
Y-14.651
G3 X-62.489 Y-14.414 R0.246
X-63.237 Y-15.012 R0.741
X-63.25 Y-15.129 R0.741
G1 Y-16.07
X-63.243 Y-16.205
X-63.199 Y-16.332
X-63.133 Y-16.45
X-63.048 Y-16.558
X-62.946 Y-16.654
X-62.83 Y-16.735
X-62.702 Y-16.799
X-62.645 Y-16.818
X-62.505 Y-16.83
X-62.375 Y-16.777
X-62.283 Y-16.671
X-62.25 Y-16.534
Y-15.592
G3 X-62.489 Y-15.355 R0.246
X-63.237 Y-15.953 R0.741
X-63.25 Y-16.07 R0.741
G1 Y-17.011
X-63.243 Y-17.146
X-63.199 Y-17.274
X-63.133 Y-17.392
X-63.048 Y-17.499
X-62.946 Y-17.595
X-62.83 Y-17.676
X-62.702 Y-17.741
X-62.645 Y-17.76
X-62.505 Y-17.772
X-62.375 Y-17.719
X-62.283 Y-17.612
X-62.25 Y-17.475
Y-16.534
G3 X-62.489 Y-16.297 R0.246
X-63.237 Y-16.895 R0.741
X-63.25 Y-17.011 R0.741
G1 Y-17.953
X-63.243 Y-18.088
X-63.199 Y-18.215
X-63.133 Y-18.333
X-63.048 Y-18.44
X-62.946 Y-18.536
X-62.83 Y-18.617
X-62.702 Y-18.682
X-62.645 Y-18.701
X-62.505 Y-18.713
X-62.375 Y-18.66
X-62.283 Y-18.553
X-62.25 Y-18.417
Y-17.475
G3 X-62.489 Y-17.238 R0.246
X-63.237 Y-17.836 R0.741
X-63.25 Y-17.953 R0.741
G1 Y-18.894
X-63.243 Y-19.029
X-63.199 Y-19.157
X-63.133 Y-19.275
X-63.048 Y-19.382
X-62.946 Y-19.478
X-62.83 Y-19.559
X-62.702 Y-19.623
X-62.645 Y-19.643
X-62.505 Y-19.655
X-62.375 Y-19.601
X-62.283 Y-19.495
X-62.25 Y-19.358
Y-18.417
G3 X-62.489 Y-18.179 R0.246
X-63.237 Y-18.777 R0.741
X-63.25 Y-18.894 R0.741
G1 Y-19.836
X-63.243 Y-19.97
X-63.199 Y-20.098
X-63.133 Y-20.216
X-63.048 Y-20.323
X-62.946 Y-20.419
X-62.83 Y-20.5
X-62.702 Y-20.565
X-62.645 Y-20.584
X-62.505 Y-20.596
X-62.375 Y-20.543
X-62.283 Y-20.436
X-62.25 Y-20.299
Y-19.358
G3 X-62.489 Y-19.121 R0.246
X-63.237 Y-19.719 R0.741
X-63.25 Y-19.836 R0.741
G1 Y-20.777
X-63.243 Y-20.912
X-63.199 Y-21.039
X-63.133 Y-21.157
X-63.048 Y-21.265
X-62.946 Y-21.36
X-62.83 Y-21.442
X-62.702 Y-21.506
X-62.645 Y-21.525
X-62.505 Y-21.537
X-62.375 Y-21.484
X-62.283 Y-21.377
X-62.25 Y-21.241
Y-20.299
G3 X-62.489 Y-20.062 R0.246
X-63.237 Y-20.66 R0.741
X-63.25 Y-20.777 R0.741
G1 Y-21.718
X-63.243 Y-21.853
X-63.199 Y-21.981
X-63.133 Y-22.099
X-63.048 Y-22.206
X-62.946 Y-22.302
X-62.83 Y-22.383
X-62.702 Y-22.448
X-62.645 Y-22.467
X-62.505 Y-22.479
X-62.375 Y-22.426
X-62.283 Y-22.319
X-62.25 Y-22.182
Y-21.241
G3 X-62.489 Y-21.003 R0.246
X-63.237 Y-21.601 R0.741
X-63.25 Y-21.718 R0.741
G1 Y-22.66
X-63.243 Y-22.795
X-63.199 Y-22.922
X-63.133 Y-23.04
X-63.048 Y-23.147
X-62.946 Y-23.243
X-62.83 Y-23.324
X-62.702 Y-23.389
X-62.645 Y-23.408
X-62.505 Y-23.42
X-62.375 Y-23.367
X-62.283 Y-23.26
X-62.25 Y-23.123
Y-22.182
G3 X-62.489 Y-21.945 R0.246
X-63.237 Y-22.543 R0.741
X-63.25 Y-22.66 R0.741
G1 Y-23.601
X-63.243 Y-23.736
X-63.199 Y-23.863
X-63.133 Y-23.981
X-63.048 Y-24.089
X-62.946 Y-24.185
X-62.83 Y-24.266
X-62.702 Y-24.33
X-62.645 Y-24.349
X-62.505 Y-24.361
X-62.375 Y-24.308
X-62.283 Y-24.202
X-62.25 Y-24.065
Y-23.123
G3 X-62.489 Y-22.886 R0.246
X-63.237 Y-23.484 R0.741
X-63.25 Y-23.601 R0.741
G1 Y-24.542
X-63.243 Y-24.677
X-63.199 Y-24.805
X-63.133 Y-24.923
X-63.048 Y-25.03
X-62.946 Y-25.126
X-62.83 Y-25.207
X-62.702 Y-25.272
X-62.645 Y-25.291
X-62.505 Y-25.303
X-62.375 Y-25.25
X-62.283 Y-25.143
X-62.25 Y-25.006
Y-24.065
G3 X-62.489 Y-23.828 R0.246
X-63.237 Y-24.426 R0.741
X-63.25 Y-24.542 R0.741
G1 X-63.244 Y-25.349
X-63.234 Y-25.484
X-63.217 Y-25.618
X-63.172 Y-25.745
X-63.105 Y-25.863
X-63.02 Y-25.967
X-62.92 Y-26.06
X-62.806 Y-26.138
