(__2_1_2)
(T1  D=3. CR=0. - ZMIN=-10. - FLAT END MILL)
G90 G94 G91.1 G40 G49 G17
G21

(POCKET1)
M5
M9
T1
S10000 M3
G54
M8
G0 X6.346 Y-0.936
G43 Z10. H1
Z4.
G1 Z3.449 F200.
G3 X6.359 Y-0.935 Z3.361 R0.925 F720.
X6.397 Y-0.931 Z3.281 R0.925
X6.456 Y-0.92 Z3.216 R0.925
X6.53 Y-0.902 Z3.171 R0.925
X6.612 Y-0.874 Z3.15 R0.925
X5.929 Y0.845 Z2.896 R0.925
X6.612 Y-0.874 Z2.642 R0.925
X5.929 Y0.845 Z2.387 R0.925
X6.612 Y-0.874 Z2.133 R0.925
X5.929 Y0.845 Z1.879 R0.925
X6.612 Y-0.874 Z1.625 R0.925
X5.929 Y0.845 Z1.37 R0.925
X6.612 Y-0.874 Z1.116 R0.925
X5.929 Y0.845 Z0.862 R0.925
X6.612 Y-0.874 Z0.608 R0.925
X5.929 Y0.845 Z0.353 R0.925
X6.612 Y-0.874 Z0.099 R0.925
X5.929 Y0.845 Z-0.155 R0.925
X6.612 Y-0.874 Z-0.409 R0.925
X5.929 Y0.845 Z-0.664 R0.925
X6.612 Y-0.874 Z-0.918 R0.925
X5.929 Y0.845 Z-1.172 R0.925
X6.612 Y-0.874 Z-1.426 R0.925
X5.929 Y0.845 Z-1.681 R0.925
X6.612 Y-0.874 Z-1.935 R0.925
X5.929 Y0.845 Z-2.189 R0.925
X6.612 Y-0.874 Z-2.443 R0.925
X5.929 Y0.845 Z-2.698 R0.925
X6.612 Y-0.874 Z-2.952 R0.925
X7.035 Y-0.534 Z-3. R0.925
G1 X7.147 Y-0.369
X7.221 Y0.
X7.147 Y0.37
X6.929 Y0.692
X6.621 Y0.897
X6.25 Y0.971
X5.877 Y0.896
X5.564 Y0.686
X5.353 Y0.371
X5.279 Y0.
X5.353 Y-0.371
X5.564 Y-0.686
X5.877 Y-0.896
X6.25 Y-0.971
X6.621 Y-0.897
X6.928 Y-0.692
X7.035 Y-0.534
G3 X6.925 Y-0.3 R0.15
G1 X5.534 Y-0.17
G3 X5.384 Y-0.382 R0.15
X7.063 Y0.393 Z-3.254 R0.925
X5.384 Y-0.382 Z-3.508 R0.925
X7.063 Y0.393 Z-3.763 R0.925
X5.384 Y-0.382 Z-4.017 R0.925
X7.063 Y0.393 Z-4.271 R0.925
X5.384 Y-0.382 Z-4.525 R0.925
X7.063 Y0.393 Z-4.78 R0.925
X5.384 Y-0.382 Z-5.034 R0.925
X7.063 Y0.393 Z-5.288 R0.925
X5.384 Y-0.382 Z-5.542 R0.925
X7.063 Y0.393 Z-5.797 R0.925
X5.316 Y0.186 Z-6. R0.925
G1 X5.279 Y0.
X5.353 Y-0.371
X5.564 Y-0.686
X5.877 Y-0.896
X6.25 Y-0.971
X6.621 Y-0.897
X6.928 Y-0.692
X7.147 Y-0.369
X7.221 Y0.
X7.147 Y0.37
X6.929 Y0.692
X6.621 Y0.897
X6.25 Y0.971
X5.877 Y0.896
X5.564 Y0.686
X5.353 Y0.371
X5.316 Y0.186
G3 X5.315 Y0.141 R0.143
G1 X5.371 Y-0.339
G3 X5.384 Y-0.382 R0.143
X7.063 Y0.393 Z-6.254 R0.925
X5.384 Y-0.382 Z-6.508 R0.925
X7.063 Y0.393 Z-6.763 R0.925
X5.384 Y-0.382 Z-7.017 R0.925
X7.063 Y0.393 Z-7.271 R0.925
X5.384 Y-0.382 Z-7.525 R0.925
X7.063 Y0.393 Z-7.78 R0.925
X5.384 Y-0.382 Z-8.034 R0.925
X7.063 Y0.393 Z-8.288 R0.925
X5.384 Y-0.382 Z-8.542 R0.925
X7.063 Y0.393 Z-8.797 R0.925
X5.316 Y0.186 Z-9. R0.925
G1 X5.279 Y0.
X5.353 Y-0.371
X5.564 Y-0.686
X5.877 Y-0.896
X6.25 Y-0.971
X6.621 Y-0.897
X6.928 Y-0.692
X7.147 Y-0.369
X7.221 Y0.
X7.147 Y0.37
X6.929 Y0.692
X6.621 Y0.897
X6.25 Y0.971
X5.877 Y0.896
X5.564 Y0.686
X5.353 Y0.371
X5.316 Y0.186
X5.299 Y-0.007
G3 X7.148 Y0.017 Z-9.254 R0.925
X5.299 Y-0.007 Z-9.508 R0.925
X7.148 Y0.017 Z-9.763 R0.925
X5.316 Y0.186 Z-10. R0.925
G1 X5.279 Y0.
X5.353 Y-0.371
X5.564 Y-0.686
X5.877 Y-0.896
X6.25 Y-0.971
X6.621 Y-0.897
X6.928 Y-0.692
X7.147 Y-0.369
X7.221 Y0.
X7.147 Y0.37
X6.929 Y0.692
X6.621 Y0.897
X6.25 Y0.971
X5.877 Y0.896
X5.564 Y0.686
X5.353 Y0.371
X5.316 Y0.186
G3 X5.312 Y0.093 Z-9.985 R0.3
X5.333 Y0.013 Z-9.943 R0.3
X5.365 Y-0.045 Z-9.876 R0.3
X5.392 Y-0.078 Z-9.793 R0.3
X5.402 Y-0.089 Z-9.7 R0.3
G0 Z5.
X6.705 Y-7.325
Z3.449
G3 X6.717 Y-7.319 Z3.361 R0.925 F720.
X6.75 Y-7.3 Z3.281 R0.925
X6.801 Y-7.268 Z3.216 R0.925
X6.862 Y-7.222 Z3.171 R0.925
X6.926 Y-7.164 Z3.15 R0.925
X5.627 Y-5.847 Z2.896 R0.925
X6.926 Y-7.164 Z2.642 R0.925
X5.627 Y-5.847 Z2.387 R0.925
X6.926 Y-7.164 Z2.133 R0.925
X5.627 Y-5.847 Z1.879 R0.925
X6.926 Y-7.164 Z1.625 R0.925
X5.627 Y-5.847 Z1.37 R0.925
X6.926 Y-7.164 Z1.116 R0.925
X5.627 Y-5.847 Z0.862 R0.925
X6.926 Y-7.164 Z0.608 R0.925
X5.627 Y-5.847 Z0.353 R0.925
X6.926 Y-7.164 Z0.099 R0.925
X5.627 Y-5.847 Z-0.155 R0.925
X6.926 Y-7.164 Z-0.409 R0.925
X5.627 Y-5.847 Z-0.664 R0.925
X6.926 Y-7.164 Z-0.918 R0.925
X5.627 Y-5.847 Z-1.172 R0.925
X6.926 Y-7.164 Z-1.426 R0.925
X5.627 Y-5.847 Z-1.681 R0.925
X6.926 Y-7.164 Z-1.935 R0.925
X5.627 Y-5.847 Z-2.189 R0.925
X6.926 Y-7.164 Z-2.443 R0.925
X5.627 Y-5.847 Z-2.698 R0.925
X6.926 Y-7.164 Z-2.952 R0.925
X7.184 Y-6.686 Z-3. R0.925
G1 X7.221 Y-6.5
X7.147 Y-6.129
X6.936 Y-5.814
X6.621 Y-5.603
X6.25 Y-5.529
X5.886 Y-5.602
X5.57 Y-5.811
X5.356 Y-6.127
X5.34 Y-6.195
X5.28 Y-6.498
X5.358 Y-6.878
X5.564 Y-7.186
X5.879 Y-7.397
X6.25 Y-7.471
X6.621 Y-7.397
X6.936 Y-7.186
X7.147 Y-6.871
X7.184 Y-6.686
G3 X7.185 Y-6.641 R0.143
G1 X7.128 Y-6.161
G3 X7.116 Y-6.118 R0.143
X5.437 Y-6.893 Z-3.254 R0.925
X7.116 Y-6.118 Z-3.508 R0.925
X5.437 Y-6.893 Z-3.763 R0.925
X7.116 Y-6.118 Z-4.017 R0.925
X5.437 Y-6.893 Z-4.271 R0.925
X7.116 Y-6.118 Z-4.525 R0.925
X5.437 Y-6.893 Z-4.78 R0.925
X7.116 Y-6.118 Z-5.034 R0.925
X5.437 Y-6.893 Z-5.288 R0.925
X7.116 Y-6.118 Z-5.542 R0.925
X5.437 Y-6.893 Z-5.797 R0.925
X7.184 Y-6.686 Z-6. R0.925
G1 X7.221 Y-6.5
X7.147 Y-6.129
X6.936 Y-5.814
X6.621 Y-5.603
X6.25 Y-5.529
X5.886 Y-5.602
X5.57 Y-5.811
X5.356 Y-6.127
X5.34 Y-6.195
X5.28 Y-6.498
X5.358 Y-6.878
X5.564 Y-7.186
X5.879 Y-7.397
X6.25 Y-7.471
X6.621 Y-7.397
X6.936 Y-7.186
X7.147 Y-6.871
X7.184 Y-6.686
G3 X7.185 Y-6.641 R0.143
G1 X7.128 Y-6.161
G3 X7.116 Y-6.118 R0.143
X5.437 Y-6.893 Z-6.254 R0.925
X7.116 Y-6.118 Z-6.508 R0.925
X5.437 Y-6.893 Z-6.763 R0.925
X7.116 Y-6.118 Z-7.017 R0.925
X5.437 Y-6.893 Z-7.271 R0.925
X7.116 Y-6.118 Z-7.525 R0.925
X5.437 Y-6.893 Z-7.78 R0.925
X7.116 Y-6.118 Z-8.034 R0.925
X5.437 Y-6.893 Z-8.288 R0.925
X7.116 Y-6.118 Z-8.542 R0.925
X5.437 Y-6.893 Z-8.797 R0.925
X7.184 Y-6.686 Z-9. R0.925
G1 X7.221 Y-6.5
X7.147 Y-6.129
X6.936 Y-5.814
X6.621 Y-5.603
X6.25 Y-5.529
X5.886 Y-5.602
X5.57 Y-5.811
X5.356 Y-6.127
X5.34 Y-6.195
X5.28 Y-6.498
X5.358 Y-6.878
X5.564 Y-7.186
X5.879 Y-7.397
X6.25 Y-7.471
X6.621 Y-7.397
X6.936 Y-7.186
X7.147 Y-6.871
X7.184 Y-6.686
X7.201 Y-6.493
G3 X5.351 Y-6.518 Z-9.254 R0.925
X7.201 Y-6.493 Z-9.508 R0.925
X5.351 Y-6.518 Z-9.763 R0.925
X7.184 Y-6.686 Z-10. R0.925
G1 X7.221 Y-6.5
X7.147 Y-6.129
X6.936 Y-5.814
X6.621 Y-5.603
X6.25 Y-5.529
X5.886 Y-5.602
X5.57 Y-5.811
X5.356 Y-6.127
X5.34 Y-6.195
X5.28 Y-6.498
X5.358 Y-6.878
X5.564 Y-7.186
X5.879 Y-7.397
X6.25 Y-7.471
X6.621 Y-7.397
X6.936 Y-7.186
X7.147 Y-6.871
X7.184 Y-6.686
G3 X7.188 Y-6.594 Z-9.985 R0.3
X7.167 Y-6.513 Z-9.943 R0.3
X7.135 Y-6.455 Z-9.876 R0.3
X7.108 Y-6.422 Z-9.793 R0.3
X7.098 Y-6.411 Z-9.7 R0.3
G0 Z5.
X5.316 Y6.391
Z3.449
G3 X5.317 Y6.378 Z3.361 R0.925 F720.
X5.322 Y6.34 Z3.281 R0.925
X5.333 Y6.281 Z3.216 R0.925
X5.352 Y6.207 Z3.171 R0.925
X5.381 Y6.126 Z3.15 R0.925
X7.091 Y6.832 Z2.896 R0.925
X5.381 Y6.126 Z2.642 R0.925
X7.091 Y6.832 Z2.387 R0.925
X5.381 Y6.126 Z2.133 R0.925
X7.091 Y6.832 Z1.879 R0.925
X5.381 Y6.126 Z1.625 R0.925
X7.091 Y6.832 Z1.37 R0.925
X5.381 Y6.126 Z1.116 R0.925
X7.091 Y6.832 Z0.862 R0.925
X5.381 Y6.126 Z0.608 R0.925
X7.091 Y6.832 Z0.353 R0.925
X5.381 Y6.126 Z0.099 R0.925
X7.091 Y6.832 Z-0.155 R0.925
X5.381 Y6.126 Z-0.409 R0.925
X7.091 Y6.832 Z-0.664 R0.925
X5.381 Y6.126 Z-0.918 R0.925
X7.091 Y6.832 Z-1.172 R0.925
X5.381 Y6.126 Z-1.426 R0.925
X7.091 Y6.832 Z-1.681 R0.925
X5.381 Y6.126 Z-1.935 R0.925
X7.091 Y6.832 Z-2.189 R0.925
X5.381 Y6.126 Z-2.443 R0.925
X7.091 Y6.832 Z-2.698 R0.925
X5.381 Y6.126 Z-2.952 R0.925
X5.727 Y5.707 Z-3. R0.925
G1 X5.886 Y5.602
X6.25 Y5.529
X6.621 Y5.603
X6.936 Y5.814
X7.144 Y6.124
X7.16 Y6.195
X7.221 Y6.5
X7.149 Y6.862
X6.97 Y7.135
X6.942 Y7.178
X6.678 Y7.359
X6.621 Y7.397
X6.25 Y7.471
X5.879 Y7.397
X5.564 Y7.186
X5.358 Y6.878
X5.28 Y6.498
X5.353 Y6.129
X5.386 Y6.08
X5.569 Y5.811
X5.727 Y5.707
G3 X5.942 Y5.762 R0.15
G1 X6.68 Y7.168
G3 X6.601 Y7.378 R0.15
X5.942 Y5.65 Z-3.254 R0.925
X6.601 Y7.378 Z-3.508 R0.925
X5.942 Y5.65 Z-3.763 R0.925
X6.601 Y7.378 Z-4.017 R0.925
X5.942 Y5.65 Z-4.271 R0.925
X6.601 Y7.378 Z-4.525 R0.925
X5.942 Y5.65 Z-4.78 R0.925
X6.601 Y7.378 Z-5.034 R0.925
X5.942 Y5.65 Z-5.288 R0.925
X6.601 Y7.378 Z-5.542 R0.925
X5.942 Y5.65 Z-5.797 R0.925
X7.046 Y7.019 Z-6. R0.925
G1 X6.97 Y7.135
X6.942 Y7.178
X6.678 Y7.359
X6.621 Y7.397
X6.25 Y7.471
X5.879 Y7.397
X5.564 Y7.186
X5.358 Y6.878
X5.28 Y6.498
X5.353 Y6.129
X5.386 Y6.08
X5.569 Y5.811
X5.886 Y5.602
X6.25 Y5.529
X6.621 Y5.603
X6.936 Y5.814
X7.144 Y6.124
X7.16 Y6.195
X7.221 Y6.5
X7.149 Y6.862
X7.046 Y7.019
G3 X7.016 Y7.052 R0.143
G1 X6.64 Y7.356
G3 X6.601 Y7.378 R0.143
X5.942 Y5.65 Z-6.254 R0.925
X6.601 Y7.378 Z-6.508 R0.925
X5.942 Y5.65 Z-6.763 R0.925
X6.601 Y7.378 Z-7.017 R0.925
X5.942 Y5.65 Z-7.271 R0.925
X6.601 Y7.378 Z-7.525 R0.925
X5.942 Y5.65 Z-7.78 R0.925
X6.601 Y7.378 Z-8.034 R0.925
X5.942 Y5.65 Z-8.288 R0.925
X6.601 Y7.378 Z-8.542 R0.925
X5.942 Y5.65 Z-8.797 R0.925
X7.046 Y7.019 Z-9. R0.925
G1 X6.97 Y7.135
X6.942 Y7.178
X6.678 Y7.359
X6.621 Y7.397
X6.25 Y7.471
X5.879 Y7.397
X5.564 Y7.186
X5.358 Y6.878
X5.28 Y6.498
X5.353 Y6.129
X5.386 Y6.08
X5.569 Y5.811
X5.886 Y5.602
X6.25 Y5.529
X6.621 Y5.603
X6.936 Y5.814
X7.144 Y6.124
X7.16 Y6.195
X7.221 Y6.5
X7.149 Y6.862
X7.046 Y7.019
X6.924 Y7.169
G3 X5.619 Y5.858 Z-9.254 R0.925
X6.924 Y7.169 Z-9.508 R0.925
X5.619 Y5.858 Z-9.763 R0.925
X7.046 Y7.019 Z-10. R0.925
G1 X6.97 Y7.135
X6.942 Y7.178
X6.678 Y7.359
X6.621 Y7.397
X6.25 Y7.471
X5.879 Y7.397
X5.564 Y7.186
X5.358 Y6.878
X5.28 Y6.498
X5.353 Y6.129
X5.386 Y6.08
X5.569 Y5.811
X5.886 Y5.602
X6.25 Y5.529
X6.621 Y5.603
X6.936 Y5.814
X7.144 Y6.124
X7.16 Y6.195
X7.221 Y6.5
X7.149 Y6.862
X7.046 Y7.019
G3 X6.985 Y7.088 Z-9.985 R0.3
X6.913 Y7.131 Z-9.943 R0.3
X6.85 Y7.15 Z-9.876 R0.3
X6.808 Y7.155 Z-9.793 R0.3
X6.793 Z-9.7 R0.3
G0 Z5.
X-1.179 Y19.959
Z3.449
G3 X-1.166 Y19.964 Z3.361 R0.925 F720.
X-1.132 Y19.979 Z3.281 R0.925
X-1.078 Y20.007 Z3.216 R0.925
X-1.013 Y20.046 Z3.171 R0.925
X-0.944 Y20.097 Z3.15 R0.925
X-2.109 Y21.534 Z2.896 R0.925
X-0.944 Y20.097 Z2.642 R0.925
X-2.109 Y21.534 Z2.387 R0.925
X-0.944 Y20.097 Z2.133 R0.925
X-2.109 Y21.534 Z1.879 R0.925
X-0.944 Y20.097 Z1.625 R0.925
X-2.109 Y21.534 Z1.37 R0.925
X-0.944 Y20.097 Z1.116 R0.925
X-2.109 Y21.534 Z0.862 R0.925
X-0.944 Y20.097 Z0.608 R0.925
X-2.109 Y21.534 Z0.353 R0.925
X-0.944 Y20.097 Z0.099 R0.925
X-2.109 Y21.534 Z-0.155 R0.925
X-0.944 Y20.097 Z-0.409 R0.925
X-2.109 Y21.534 Z-0.664 R0.925
X-0.944 Y20.097 Z-0.918 R0.925
X-2.109 Y21.534 Z-1.172 R0.925
X-0.944 Y20.097 Z-1.426 R0.925
X-2.109 Y21.534 Z-1.681 R0.925
X-0.944 Y20.097 Z-1.935 R0.925
X-2.109 Y21.534 Z-2.189 R0.925
X-0.944 Y20.097 Z-2.443 R0.925
X-2.109 Y21.534 Z-2.698 R0.925
X-0.944 Y20.097 Z-2.952 R0.925
X-0.641 Y20.548 Z-3. R0.925
G1 X-0.615 Y20.632
G3 X-0.633 Y20.783 R0.191
G1 X-0.674 Y20.854
G3 X-0.912 Y21.034 R0.382
G1 X-0.974 Y21.05
G3 X-1.369 Y20.996 R0.536
G1 X-1.441 Y20.955
G3 X-1.776 Y20.552 R0.745
G1 X-1.808 Y20.46
G3 X-1.801 Y19.777 R1.009
G1 X-1.772 Y19.699
G3 X-1.256 Y19.072 R1.243
G1 X-1.124 Y18.992
G3 X0.127 Y18.814 R1.592
X0.704 Y19.086 R1.838
G1 X0.718 Y19.096
G3 X1.146 Y19.511 R1.941
G1 X1.164 Y19.535
G3 X1.483 Y20.137 R2.136
G1 X1.499 Y20.185
G3 X1.603 Y20.809 R1.963
G1 X1.604 Y21.279
X1.257 Y21.958
X0.712 Y22.504
X0.014 Y22.86
X-0.757 Y22.98
X-1.51 Y22.861
X-1.567 Y22.835
X-2.203 Y22.51
X-2.758 Y21.958
X-3.104 Y21.279
X-3.23 Y20.489
X-3.157 Y20.032
X-3.11 Y19.733
X-2.76 Y19.047
X-2.208 Y18.492
X-1.517 Y18.14
X-0.759 Y18.02
X0.029 Y18.146
X0.701 Y18.489
X0.774 Y18.558
X1.264 Y19.054
X1.61 Y19.733
X1.73 Y20.489
X1.604 Y21.279
G0 Z5.
X-1.179 Y19.959
Z0.449
G3 X-1.166 Y19.964 Z0.361 R0.925 F720.
X-1.132 Y19.979 Z0.281 R0.925
X-1.078 Y20.007 Z0.216 R0.925
X-1.013 Y20.046 Z0.171 R0.925
X-0.944 Y20.097 Z0.15 R0.925
X-2.109 Y21.534 Z-0.104 R0.925
X-0.944 Y20.097 Z-0.358 R0.925
X-2.109 Y21.534 Z-0.613 R0.925
X-0.944 Y20.097 Z-0.867 R0.925
X-2.109 Y21.534 Z-1.121 R0.925
X-0.944 Y20.097 Z-1.375 R0.925
X-2.109 Y21.534 Z-1.63 R0.925
X-0.944 Y20.097 Z-1.884 R0.925
X-2.109 Y21.534 Z-2.138 R0.925
X-0.944 Y20.097 Z-2.392 R0.925
X-2.109 Y21.534 Z-2.647 R0.925
X-0.944 Y20.097 Z-2.901 R0.925
X-2.109 Y21.534 Z-3.155 R0.925
X-0.944 Y20.097 Z-3.409 R0.925
X-2.109 Y21.534 Z-3.664 R0.925
X-0.944 Y20.097 Z-3.918 R0.925
X-2.109 Y21.534 Z-4.172 R0.925
X-0.944 Y20.097 Z-4.426 R0.925
X-2.109 Y21.534 Z-4.681 R0.925
X-0.944 Y20.097 Z-4.935 R0.925
X-2.109 Y21.534 Z-5.189 R0.925
X-0.944 Y20.097 Z-5.443 R0.925
X-2.109 Y21.534 Z-5.698 R0.925
X-0.944 Y20.097 Z-5.952 R0.925
X-0.641 Y20.548 Z-6. R0.925
G1 X-0.615 Y20.632
G3 X-0.633 Y20.783 R0.191
G1 X-0.674 Y20.854
G3 X-0.912 Y21.034 R0.382
G1 X-0.974 Y21.05
G3 X-1.369 Y20.996 R0.536
G1 X-1.441 Y20.955
G3 X-1.776 Y20.552 R0.745
G1 X-1.808 Y20.46
G3 X-1.801 Y19.777 R1.009
G1 X-1.772 Y19.699
G3 X-1.256 Y19.072 R1.243
G1 X-1.124 Y18.992
G3 X0.127 Y18.814 R1.592
X0.704 Y19.086 R1.838
G1 X0.718 Y19.096
G3 X1.146 Y19.511 R1.941
G1 X1.164 Y19.535
G3 X1.483 Y20.137 R2.136
G1 X1.499 Y20.185
G3 X1.603 Y20.809 R1.963
G1 X1.604 Y21.279
X1.257 Y21.958
X0.712 Y22.504
X0.014 Y22.86
X-0.757 Y22.98
X-1.51 Y22.861
X-1.567 Y22.835
X-2.203 Y22.51
X-2.758 Y21.958
X-3.104 Y21.279
X-3.23 Y20.489
X-3.157 Y20.032
X-3.11 Y19.733
X-2.76 Y19.047
X-2.208 Y18.492
X-1.517 Y18.14
X-0.759 Y18.02
X0.029 Y18.146
X0.701 Y18.489
X0.774 Y18.558
X1.264 Y19.054
X1.61 Y19.733
X1.73 Y20.489
X1.604 Y21.279
G0 Z5.
X-1.179 Y19.959
Z4.
G1 Z-2.551 F200.
G3 X-1.166 Y19.964 Z-2.639 R0.925 F720.
X-1.132 Y19.979 Z-2.719 R0.925
X-1.078 Y20.007 Z-2.784 R0.925
X-1.013 Y20.046 Z-2.829 R0.925
X-0.944 Y20.097 Z-2.85 R0.925
X-2.109 Y21.534 Z-3.104 R0.925
X-0.944 Y20.097 Z-3.358 R0.925
X-2.109 Y21.534 Z-3.613 R0.925
X-0.944 Y20.097 Z-3.867 R0.925
X-2.109 Y21.534 Z-4.121 R0.925
X-0.944 Y20.097 Z-4.375 R0.925
X-2.109 Y21.534 Z-4.63 R0.925
X-0.944 Y20.097 Z-4.884 R0.925
X-2.109 Y21.534 Z-5.138 R0.925
X-0.944 Y20.097 Z-5.392 R0.925
X-2.109 Y21.534 Z-5.647 R0.925
X-0.944 Y20.097 Z-5.901 R0.925
X-2.109 Y21.534 Z-6.155 R0.925
X-0.944 Y20.097 Z-6.409 R0.925
X-2.109 Y21.534 Z-6.664 R0.925
X-0.944 Y20.097 Z-6.918 R0.925
X-2.109 Y21.534 Z-7.172 R0.925
X-0.944 Y20.097 Z-7.426 R0.925
X-2.109 Y21.534 Z-7.681 R0.925
X-0.944 Y20.097 Z-7.935 R0.925
X-2.109 Y21.534 Z-8.189 R0.925
X-0.944 Y20.097 Z-8.443 R0.925
X-2.109 Y21.534 Z-8.698 R0.925
X-0.944 Y20.097 Z-8.952 R0.925
X-0.641 Y20.548 Z-9. R0.925
G1 X-0.615 Y20.632
G3 X-0.633 Y20.783 R0.191
G1 X-0.674 Y20.854
G3 X-0.912 Y21.034 R0.382
G1 X-0.974 Y21.05
G3 X-1.369 Y20.996 R0.536
G1 X-1.441 Y20.955
G3 X-1.776 Y20.552 R0.745
G1 X-1.808 Y20.46
G3 X-1.801 Y19.777 R1.009
G1 X-1.772 Y19.699
G3 X-1.256 Y19.072 R1.243
G1 X-1.124 Y18.992
G3 X0.127 Y18.814 R1.592
X0.704 Y19.086 R1.838
G1 X0.718 Y19.096
G3 X1.146 Y19.511 R1.941
G1 X1.164 Y19.535
G3 X1.483 Y20.137 R2.136
G1 X1.499 Y20.185
G3 X1.603 Y20.809 R1.963
G1 X1.604 Y21.279
X1.257 Y21.958
X0.712 Y22.504
X0.014 Y22.86
X-0.757 Y22.98
X-1.51 Y22.861
X-1.567 Y22.835
X-2.203 Y22.51
X-2.758 Y21.958
X-3.104 Y21.279
X-3.23 Y20.489
X-3.157 Y20.032
X-3.11 Y19.733
X-2.76 Y19.047
X-2.208 Y18.492
X-1.517 Y18.14
X-0.759 Y18.02
X0.029 Y18.146
X0.701 Y18.489
X0.774 Y18.558
X1.264 Y19.054
X1.61 Y19.733
X1.73 Y20.489
X1.604 Y21.279
G0 Z5.
X-1.557 Y19.891
G1 Z-5.551 F200.
G3 X-1.544 Z-5.639 R0.925 F720.
X-1.506 Z-5.719 R0.925
X-1.446 Y19.894 Z-5.784 R0.925
X-1.371 Y19.904 Z-5.829 R0.925
X-1.286 Y19.922 Z-5.85 R0.925
X-1.766 Y21.709 Z-6.104 R0.925
X-1.286 Y19.922 Z-6.358 R0.925
X-1.766 Y21.709 Z-6.613 R0.925
X-1.286 Y19.922 Z-6.867 R0.925
X-1.766 Y21.709 Z-7.121 R0.925
X-1.286 Y19.922 Z-7.375 R0.925
X-1.766 Y21.709 Z-7.63 R0.925
X-1.286 Y19.922 Z-7.884 R0.925
X-1.766 Y21.709 Z-8.138 R0.925
X-1.286 Y19.922 Z-8.392 R0.925
X-1.766 Y21.709 Z-8.647 R0.925
X-1.286 Y19.922 Z-8.901 R0.925
X-1.766 Y21.709 Z-9.155 R0.925
X-1.286 Y19.922 Z-9.409 R0.925
X-1.766 Y21.709 Z-9.664 R0.925
X-1.286 Y19.922 Z-9.918 R0.925
X-0.641 Y20.548 Z-10. R0.925
G1 X-0.615 Y20.632
G3 X-0.633 Y20.783 R0.191
G1 X-0.674 Y20.854
G3 X-0.912 Y21.034 R0.382
G1 X-0.974 Y21.05
G3 X-1.369 Y20.996 R0.536
G1 X-1.441 Y20.955
G3 X-1.776 Y20.552 R0.745
G1 X-1.808 Y20.46
G3 X-1.801 Y19.777 R1.009
G1 X-1.772 Y19.699
G3 X-1.256 Y19.072 R1.243
G1 X-1.124 Y18.992
G3 X0.127 Y18.814 R1.592
X0.704 Y19.086 R1.838
G1 X0.718 Y19.096
G3 X1.146 Y19.511 R1.941
G1 X1.164 Y19.535
G3 X1.483 Y20.137 R2.136
G1 X1.499 Y20.185
G3 X1.603 Y20.809 R1.963
G1 X1.604 Y21.279
X1.257 Y21.958
X0.712 Y22.504
X0.014 Y22.86
X-0.757 Y22.98
X-1.51 Y22.861
X-1.567 Y22.835
X-2.203 Y22.51
X-2.758 Y21.958
X-3.104 Y21.279
X-3.23 Y20.489
X-3.157 Y20.032
X-3.11 Y19.733
X-2.76 Y19.047
X-2.208 Y18.492
X-1.517 Y18.14
X-0.759 Y18.02
X0.029 Y18.146
X0.701 Y18.489
X0.774 Y18.558
X1.264 Y19.054
X1.61 Y19.733
X1.73 Y20.489
X1.604 Y21.279
G0 Z5.
X-41.411 Y20.29
Z3.449
G3 X-41.398 Y20.287 Z3.361 R0.925 F720.
X-41.36 Y20.28 Z3.281 R0.925
X-41.301 Y20.273 Z3.216 R0.925
X-41.225 Y20.269 Z3.171 R0.925
X-41.139 Y20.272 Z3.15 R0.925
X-41.295 Y22.116 Z2.896 R0.925
X-41.139 Y20.272 Z2.642 R0.925
X-41.295 Y22.116 Z2.387 R0.925
X-41.139 Y20.272 Z2.133 R0.925
X-41.295 Y22.116 Z1.879 R0.925
X-41.139 Y20.272 Z1.625 R0.925
X-41.295 Y22.116 Z1.37 R0.925
X-41.139 Y20.272 Z1.116 R0.925
X-41.295 Y22.116 Z0.862 R0.925
X-41.139 Y20.272 Z0.608 R0.925
X-41.295 Y22.116 Z0.353 R0.925
X-41.139 Y20.272 Z0.099 R0.925
X-41.295 Y22.116 Z-0.155 R0.925
X-41.139 Y20.272 Z-0.409 R0.925
X-41.295 Y22.116 Z-0.664 R0.925
X-41.139 Y20.272 Z-0.918 R0.925
X-41.295 Y22.116 Z-1.172 R0.925
X-41.139 Y20.272 Z-1.426 R0.925
X-41.295 Y22.116 Z-1.681 R0.925
X-41.139 Y20.272 Z-1.935 R0.925
X-41.295 Y22.116 Z-2.189 R0.925
X-41.139 Y20.272 Z-2.443 R0.925
X-41.295 Y22.116 Z-2.698 R0.925
X-41.139 Y20.272 Z-2.952 R0.925
X-40.635 Y20.475 Z-3. R0.925
G1 X-40.563 Y20.533
G3 X-40.492 Y20.66 R0.197
G1 X-40.482 Y20.732
G3 X-40.571 Y21.027 R0.374
G1 X-40.618 Y21.081
G3 X-40.974 Y21.264 R0.54
G1 X-41.059 Y21.272
G3 X-41.563 Y21.14 R0.759
G1 X-41.633 Y21.092
G3 X-42.02 Y20.558 R0.995
G1 X-42.046 Y20.472
G3 X-41.997 Y19.621 R1.25
G1 X-41.935 Y19.478
G3 X-41.044 Y18.627 R1.572
X-40.464 Y18.511 R1.834
G1 X-40.431 Y18.51
G3 X-39.772 Y18.595 R2.036
G1 X-39.765 Y18.597
G3 X-39.161 Y18.892 R2.085
G1 X-39.116 Y18.924
G3 X-38.665 Y19.368 R1.962
G1 X-38.388 Y19.746
X-38.27 Y20.49
X-38.391 Y21.267
X-38.747 Y21.963
X-39.292 Y22.507
X-39.982 Y22.859
X-40.764 Y22.979
X-41.504 Y22.862
X-42.209 Y22.506
X-42.758 Y21.957
X-43.104 Y21.278
X-43.23 Y20.489
X-43.111 Y19.74
X-43.072 Y19.659
X-42.754 Y19.038
X-42.211 Y18.496
X-42.196 Y18.486
X-41.515 Y18.14
X-40.765 Y18.021
X-39.98 Y18.142
X-39.292 Y18.493
X-38.75 Y19.034
X-38.388 Y19.746
G0 Z5.
X-41.411 Y20.29
Z0.449
G3 X-41.398 Y20.287 Z0.361 R0.925 F720.
X-41.36 Y20.28 Z0.281 R0.925
X-41.301 Y20.273 Z0.216 R0.925
X-41.225 Y20.269 Z0.171 R0.925
X-41.139 Y20.272 Z0.15 R0.925
X-41.295 Y22.116 Z-0.104 R0.925
X-41.139 Y20.272 Z-0.358 R0.925
X-41.295 Y22.116 Z-0.613 R0.925
X-41.139 Y20.272 Z-0.867 R0.925
X-41.295 Y22.116 Z-1.121 R0.925
X-41.139 Y20.272 Z-1.375 R0.925
X-41.295 Y22.116 Z-1.63 R0.925
X-41.139 Y20.272 Z-1.884 R0.925
X-41.295 Y22.116 Z-2.138 R0.925
X-41.139 Y20.272 Z-2.392 R0.925
X-41.295 Y22.116 Z-2.647 R0.925
X-41.139 Y20.272 Z-2.901 R0.925
X-41.295 Y22.116 Z-3.155 R0.925
X-41.139 Y20.272 Z-3.409 R0.925
X-41.295 Y22.116 Z-3.664 R0.925
X-41.139 Y20.272 Z-3.918 R0.925
X-41.295 Y22.116 Z-4.172 R0.925
X-41.139 Y20.272 Z-4.426 R0.925
X-41.295 Y22.116 Z-4.681 R0.925
X-41.139 Y20.272 Z-4.935 R0.925
X-41.295 Y22.116 Z-5.189 R0.925
X-41.139 Y20.272 Z-5.443 R0.925
X-41.295 Y22.116 Z-5.698 R0.925
X-41.139 Y20.272 Z-5.952 R0.925
X-40.635 Y20.475 Z-6. R0.925
G1 X-40.563 Y20.533
G3 X-40.492 Y20.66 R0.197
G1 X-40.482 Y20.732
G3 X-40.571 Y21.027 R0.374
G1 X-40.618 Y21.081
G3 X-40.974 Y21.264 R0.54
G1 X-41.059 Y21.272
G3 X-41.563 Y21.14 R0.759
G1 X-41.633 Y21.092
G3 X-42.02 Y20.558 R0.995
G1 X-42.046 Y20.472
G3 X-41.997 Y19.621 R1.25
G1 X-41.935 Y19.478
G3 X-41.044 Y18.627 R1.572
X-40.464 Y18.511 R1.834
G1 X-40.431 Y18.51
G3 X-39.772 Y18.595 R2.036
G1 X-39.765 Y18.597
G3 X-39.161 Y18.892 R2.085
G1 X-39.116 Y18.924
G3 X-38.665 Y19.368 R1.962
G1 X-38.388 Y19.746
X-38.27 Y20.49
X-38.391 Y21.267
X-38.747 Y21.963
X-39.292 Y22.507
X-39.982 Y22.859
X-40.764 Y22.979
X-41.504 Y22.862
X-42.209 Y22.506
X-42.758 Y21.957
X-43.104 Y21.278
X-43.23 Y20.489
X-43.111 Y19.74
X-43.072 Y19.659
X-42.754 Y19.038
X-42.211 Y18.496
X-42.196 Y18.486
X-41.515 Y18.14
X-40.765 Y18.021
X-39.98 Y18.142
X-39.292 Y18.493
X-38.75 Y19.034
X-38.388 Y19.746
G0 Z5.
X-41.411 Y20.29
Z4.
G1 Z-2.551 F200.
G3 X-41.398 Y20.287 Z-2.639 R0.925 F720.
X-41.36 Y20.28 Z-2.719 R0.925
X-41.301 Y20.273 Z-2.784 R0.925
X-41.225 Y20.269 Z-2.829 R0.925
X-41.139 Y20.272 Z-2.85 R0.925
X-41.295 Y22.116 Z-3.104 R0.925
X-41.139 Y20.272 Z-3.358 R0.925
X-41.295 Y22.116 Z-3.613 R0.925
X-41.139 Y20.272 Z-3.867 R0.925
X-41.295 Y22.116 Z-4.121 R0.925
X-41.139 Y20.272 Z-4.375 R0.925
X-41.295 Y22.116 Z-4.63 R0.925
X-41.139 Y20.272 Z-4.884 R0.925
X-41.295 Y22.116 Z-5.138 R0.925
X-41.139 Y20.272 Z-5.392 R0.925
X-41.295 Y22.116 Z-5.647 R0.925
X-41.139 Y20.272 Z-5.901 R0.925
X-41.295 Y22.116 Z-6.155 R0.925
X-41.139 Y20.272 Z-6.409 R0.925
X-41.295 Y22.116 Z-6.664 R0.925
X-41.139 Y20.272 Z-6.918 R0.925
X-41.295 Y22.116 Z-7.172 R0.925
X-41.139 Y20.272 Z-7.426 R0.925
X-41.295 Y22.116 Z-7.681 R0.925
X-41.139 Y20.272 Z-7.935 R0.925
X-41.295 Y22.116 Z-8.189 R0.925
X-41.139 Y20.272 Z-8.443 R0.925
X-41.295 Y22.116 Z-8.698 R0.925
X-41.139 Y20.272 Z-8.952 R0.925
X-40.635 Y20.475 Z-9. R0.925
G1 X-40.563 Y20.533
G3 X-40.492 Y20.66 R0.197
G1 X-40.482 Y20.732
G3 X-40.571 Y21.027 R0.374
G1 X-40.618 Y21.081
G3 X-40.974 Y21.264 R0.54
G1 X-41.059 Y21.272
G3 X-41.563 Y21.14 R0.759
G1 X-41.633 Y21.092
G3 X-42.02 Y20.558 R0.995
G1 X-42.046 Y20.472
G3 X-41.997 Y19.621 R1.25
G1 X-41.935 Y19.478
G3 X-41.044 Y18.627 R1.572
X-40.464 Y18.511 R1.834
G1 X-40.431 Y18.51
G3 X-39.772 Y18.595 R2.036
G1 X-39.765 Y18.597
G3 X-39.161 Y18.892 R2.085
G1 X-39.116 Y18.924
G3 X-38.665 Y19.368 R1.962
G1 X-38.388 Y19.746
X-38.27 Y20.49
X-38.391 Y21.267
X-38.747 Y21.963
X-39.292 Y22.507
X-39.982 Y22.859
X-40.764 Y22.979
X-41.504 Y22.862
X-42.209 Y22.506
X-42.758 Y21.957
X-43.104 Y21.278
X-43.23 Y20.489
X-43.111 Y19.74
X-43.072 Y19.659
X-42.754 Y19.038
X-42.211 Y18.496
X-42.196 Y18.486
X-41.515 Y18.14
X-40.765 Y18.021
X-39.98 Y18.142
X-39.292 Y18.493
X-38.75 Y19.034
X-38.388 Y19.746
G0 Z5.
X-41.762 Y20.447
G1 Z-5.551 F200.
G3 X-41.751 Y20.439 Z-5.639 R0.925 F720.
X-41.72 Y20.418 Z-5.719 R0.925
X-41.669 Y20.387 Z-5.784 R0.925
X-41.6 Y20.352 Z-5.829 R0.925
X-41.52 Y20.32 Z-5.85 R0.925
X-40.913 Y22.068 Z-6.104 R0.925
X-41.52 Y20.32 Z-6.358 R0.925
X-40.913 Y22.068 Z-6.613 R0.925
X-41.52 Y20.32 Z-6.867 R0.925
X-40.913 Y22.068 Z-7.121 R0.925
X-41.52 Y20.32 Z-7.375 R0.925
X-40.913 Y22.068 Z-7.63 R0.925
X-41.52 Y20.32 Z-7.884 R0.925
X-40.913 Y22.068 Z-8.138 R0.925
X-41.52 Y20.32 Z-8.392 R0.925
X-40.913 Y22.068 Z-8.647 R0.925
X-41.52 Y20.32 Z-8.901 R0.925
X-40.913 Y22.068 Z-9.155 R0.925
X-41.52 Y20.32 Z-9.409 R0.925
X-40.913 Y22.068 Z-9.664 R0.925
X-41.52 Y20.32 Z-9.918 R0.925
X-40.635 Y20.475 Z-10. R0.925
G1 X-40.563 Y20.533
G3 X-40.492 Y20.66 R0.197
G1 X-40.482 Y20.732
G3 X-40.571 Y21.027 R0.374
G1 X-40.618 Y21.081
G3 X-40.974 Y21.264 R0.54
G1 X-41.059 Y21.272
G3 X-41.563 Y21.14 R0.759
G1 X-41.633 Y21.092
G3 X-42.02 Y20.558 R0.995
G1 X-42.046 Y20.472
G3 X-41.997 Y19.621 R1.25
G1 X-41.935 Y19.478
G3 X-41.044 Y18.627 R1.572
X-40.464 Y18.511 R1.834
G1 X-40.431 Y18.51
G3 X-39.772 Y18.595 R2.036
G1 X-39.765 Y18.597
G3 X-39.161 Y18.892 R2.085
G1 X-39.116 Y18.924
G3 X-38.665 Y19.368 R1.962
G1 X-38.388 Y19.746
X-38.27 Y20.49
X-38.391 Y21.267
X-38.747 Y21.963
X-39.292 Y22.507
X-39.982 Y22.859
X-40.764 Y22.979
X-41.504 Y22.862
X-42.209 Y22.506
X-42.758 Y21.957
X-43.104 Y21.278
X-43.23 Y20.489
X-43.111 Y19.74
X-43.072 Y19.659
X-42.754 Y19.038
X-42.211 Y18.496
X-42.196 Y18.486
X-41.515 Y18.14
X-40.765 Y18.021
X-39.98 Y18.142
X-39.292 Y18.493
X-38.75 Y19.034
X-38.388 Y19.746
G0 Z5.
X-41.004 Y-21.14
Z3.449
G3 X-40.994 Y-21.132 Z3.361 R0.925 F720.
X-40.965 Y-21.107 Z3.281 R0.925
X-40.922 Y-21.066 Z3.216 R0.925
X-40.871 Y-21.009 Z3.171 R0.925
X-40.819 Y-20.94 Z3.15 R0.925
X-42.351 Y-19.903 Z2.896 R0.925
X-40.819 Y-20.94 Z2.642 R0.925
X-42.351 Y-19.903 Z2.387 R0.925
X-40.819 Y-20.94 Z2.133 R0.925
X-42.351 Y-19.903 Z1.879 R0.925
X-40.819 Y-20.94 Z1.625 R0.925
X-42.351 Y-19.903 Z1.37 R0.925
X-40.819 Y-20.94 Z1.116 R0.925
X-42.351 Y-19.903 Z0.862 R0.925
X-40.819 Y-20.94 Z0.608 R0.925
X-42.351 Y-19.903 Z0.353 R0.925
X-40.819 Y-20.94 Z0.099 R0.925
X-42.351 Y-19.903 Z-0.155 R0.925
X-40.819 Y-20.94 Z-0.409 R0.925
X-42.351 Y-19.903 Z-0.664 R0.925
X-40.819 Y-20.94 Z-0.918 R0.925
X-42.351 Y-19.903 Z-1.172 R0.925
X-40.819 Y-20.94 Z-1.426 R0.925
X-42.351 Y-19.903 Z-1.681 R0.925
X-40.819 Y-20.94 Z-1.935 R0.925
X-42.351 Y-19.903 Z-2.189 R0.925
X-40.819 Y-20.94 Z-2.443 R0.925
X-42.351 Y-19.903 Z-2.698 R0.925
X-40.819 Y-20.94 Z-2.952 R0.925
X-40.66 Y-20.42 Z-3. R0.925
G1 Y-20.335
G3 X-40.722 Y-20.196 R0.19
G1 X-40.783 Y-20.14
G3 X-41.063 Y-20.04 R0.38
G1 X-41.128 Y-20.044
G3 X-41.489 Y-20.217 R0.535
G1 X-41.547 Y-20.281
G3 X-41.745 Y-20.77 R0.754
G1 X-41.748 Y-20.862
G3 X-41.528 Y-21.518 R1.005
G1 X-41.474 Y-21.584
G3 X-40.779 Y-22.02 R1.243
G1 X-40.616 Y-22.057
G3 X-39.402 Y-21.836 R1.571
X-38.964 Y-21.431 R1.847
G1 X-38.95 Y-21.413
G3 X-38.638 Y-20.838 R1.985
G1 X-38.63 Y-20.815
G3 X-38.514 Y-20.148 R2.131
G1 Y-20.105
G3 X-38.607 Y-19.482 R1.963
G1 X-38.75 Y-19.034
X-39.292 Y-18.493
X-39.98 Y-18.142
X-40.765 Y-18.021
X-41.515 Y-18.14
X-42.209 Y-18.493
X-42.753 Y-19.037
X-43.112 Y-19.747
X-43.23 Y-20.489
X-43.104 Y-21.278
X-42.758 Y-21.957
X-42.215 Y-22.501
X-42.099 Y-22.563
X-41.505 Y-22.862
X-40.764 Y-22.979
X-39.982 Y-22.859
X-39.292 Y-22.507
X-38.747 Y-21.963
X-38.39 Y-21.267
X-38.27 Y-20.49
X-38.388 Y-19.746
X-38.75 Y-19.034
G0 Z5.
X-41.004 Y-21.14
Z0.449
G3 X-40.994 Y-21.132 Z0.361 R0.925 F720.
X-40.965 Y-21.107 Z0.281 R0.925
X-40.922 Y-21.066 Z0.216 R0.925
X-40.871 Y-21.009 Z0.171 R0.925
X-40.819 Y-20.94 Z0.15 R0.925
X-42.351 Y-19.903 Z-0.104 R0.925
X-40.819 Y-20.94 Z-0.358 R0.925
X-42.351 Y-19.903 Z-0.613 R0.925
X-40.819 Y-20.94 Z-0.867 R0.925
X-42.351 Y-19.903 Z-1.121 R0.925
X-40.819 Y-20.94 Z-1.375 R0.925
X-42.351 Y-19.903 Z-1.63 R0.925
X-40.819 Y-20.94 Z-1.884 R0.925
X-42.351 Y-19.903 Z-2.138 R0.925
X-40.819 Y-20.94 Z-2.392 R0.925
X-42.351 Y-19.903 Z-2.647 R0.925
X-40.819 Y-20.94 Z-2.901 R0.925
X-42.351 Y-19.903 Z-3.155 R0.925
X-40.819 Y-20.94 Z-3.409 R0.925
X-42.351 Y-19.903 Z-3.664 R0.925
X-40.819 Y-20.94 Z-3.918 R0.925
X-42.351 Y-19.903 Z-4.172 R0.925
X-40.819 Y-20.94 Z-4.426 R0.925
X-42.351 Y-19.903 Z-4.681 R0.925
X-40.819 Y-20.94 Z-4.935 R0.925
X-42.351 Y-19.903 Z-5.189 R0.925
X-40.819 Y-20.94 Z-5.443 R0.925
X-42.351 Y-19.903 Z-5.698 R0.925
X-40.819 Y-20.94 Z-5.952 R0.925
X-40.66 Y-20.42 Z-6. R0.925
G1 Y-20.335
G3 X-40.722 Y-20.196 R0.19
G1 X-40.783 Y-20.14
G3 X-41.063 Y-20.04 R0.38
G1 X-41.128 Y-20.044
G3 X-41.489 Y-20.217 R0.535
G1 X-41.547 Y-20.281
G3 X-41.745 Y-20.77 R0.754
G1 X-41.748 Y-20.862
G3 X-41.528 Y-21.518 R1.005
G1 X-41.474 Y-21.584
G3 X-40.779 Y-22.02 R1.243
G1 X-40.616 Y-22.057
G3 X-39.402 Y-21.836 R1.571
X-38.964 Y-21.431 R1.847
G1 X-38.95 Y-21.413
G3 X-38.638 Y-20.838 R1.985
G1 X-38.63 Y-20.815
G3 X-38.514 Y-20.148 R2.131
G1 Y-20.105
G3 X-38.607 Y-19.482 R1.963
G1 X-38.75 Y-19.034
X-39.292 Y-18.493
X-39.98 Y-18.142
X-40.765 Y-18.021
X-41.515 Y-18.14
X-42.209 Y-18.493
X-42.753 Y-19.037
X-43.112 Y-19.747
X-43.23 Y-20.489
X-43.104 Y-21.278
X-42.758 Y-21.957
X-42.215 Y-22.501
X-42.099 Y-22.563
X-41.505 Y-22.862
X-40.764 Y-22.979
X-39.982 Y-22.859
X-39.292 Y-22.507
X-38.747 Y-21.963
X-38.39 Y-21.267
X-38.27 Y-20.49
X-38.388 Y-19.746
X-38.75 Y-19.034
G0 Z5.
X-41.004 Y-21.14
Z4.
G1 Z-2.551 F200.
G3 X-40.994 Y-21.132 Z-2.639 R0.925 F720.
X-40.965 Y-21.107 Z-2.719 R0.925
X-40.922 Y-21.066 Z-2.784 R0.925
X-40.871 Y-21.009 Z-2.829 R0.925
X-40.819 Y-20.94 Z-2.85 R0.925
X-42.351 Y-19.903 Z-3.104 R0.925
X-40.819 Y-20.94 Z-3.358 R0.925
X-42.351 Y-19.903 Z-3.613 R0.925
X-40.819 Y-20.94 Z-3.867 R0.925
X-42.351 Y-19.903 Z-4.121 R0.925
X-40.819 Y-20.94 Z-4.375 R0.925
X-42.351 Y-19.903 Z-4.63 R0.925
X-40.819 Y-20.94 Z-4.884 R0.925
X-42.351 Y-19.903 Z-5.138 R0.925
X-40.819 Y-20.94 Z-5.392 R0.925
X-42.351 Y-19.903 Z-5.647 R0.925
X-40.819 Y-20.94 Z-5.901 R0.925
X-42.351 Y-19.903 Z-6.155 R0.925
X-40.819 Y-20.94 Z-6.409 R0.925
X-42.351 Y-19.903 Z-6.664 R0.925
X-40.819 Y-20.94 Z-6.918 R0.925
X-42.351 Y-19.903 Z-7.172 R0.925
X-40.819 Y-20.94 Z-7.426 R0.925
X-42.351 Y-19.903 Z-7.681 R0.925
X-40.819 Y-20.94 Z-7.935 R0.925
X-42.351 Y-19.903 Z-8.189 R0.925
X-40.819 Y-20.94 Z-8.443 R0.925
X-42.351 Y-19.903 Z-8.698 R0.925
X-40.819 Y-20.94 Z-8.952 R0.925
X-40.66 Y-20.42 Z-9. R0.925
G1 Y-20.335
G3 X-40.722 Y-20.196 R0.19
G1 X-40.783 Y-20.14
G3 X-41.063 Y-20.04 R0.38
G1 X-41.128 Y-20.044
G3 X-41.489 Y-20.217 R0.535
G1 X-41.547 Y-20.281
G3 X-41.745 Y-20.77 R0.754
G1 X-41.748 Y-20.862
G3 X-41.528 Y-21.518 R1.005
G1 X-41.474 Y-21.584
G3 X-40.779 Y-22.02 R1.243
G1 X-40.616 Y-22.057
G3 X-39.402 Y-21.836 R1.571
X-38.964 Y-21.431 R1.847
G1 X-38.95 Y-21.413
G3 X-38.638 Y-20.838 R1.985
G1 X-38.63 Y-20.815
G3 X-38.514 Y-20.148 R2.131
G1 Y-20.105
G3 X-38.607 Y-19.482 R1.963
G1 X-38.75 Y-19.034
X-39.292 Y-18.493
X-39.98 Y-18.142
X-40.765 Y-18.021
X-41.515 Y-18.14
X-42.209 Y-18.493
X-42.753 Y-19.037
X-43.112 Y-19.747
X-43.23 Y-20.489
X-43.104 Y-21.278
X-42.758 Y-21.957
X-42.215 Y-22.501
X-42.099 Y-22.563
X-41.505 Y-22.862
X-40.764 Y-22.979
X-39.982 Y-22.859
X-39.292 Y-22.507
X-38.747 Y-21.963
X-38.39 Y-21.267
X-38.27 Y-20.49
X-38.388 Y-19.746
X-38.75 Y-19.034
G0 Z5.
X-41.347 Y-21.315
G1 Z-5.551 F200.
G3 X-41.334 Y-21.311 Z-5.639 R0.925 F720.
X-41.298 Y-21.3 Z-5.719 R0.925
X-41.241 Y-21.28 Z-5.784 R0.925
X-41.172 Y-21.248 Z-5.829 R0.925
X-41.096 Y-21.206 Z-5.85 R0.925
X-42.074 Y-19.636 Z-6.104 R0.925
X-41.096 Y-21.206 Z-6.358 R0.925
X-42.074 Y-19.636 Z-6.613 R0.925
X-41.096 Y-21.206 Z-6.867 R0.925
X-42.074 Y-19.636 Z-7.121 R0.925
X-41.096 Y-21.206 Z-7.375 R0.925
X-42.074 Y-19.636 Z-7.63 R0.925
X-41.096 Y-21.206 Z-7.884 R0.925
X-42.074 Y-19.636 Z-8.138 R0.925
X-41.096 Y-21.206 Z-8.392 R0.925
X-42.074 Y-19.636 Z-8.647 R0.925
X-41.096 Y-21.206 Z-8.901 R0.925
X-42.074 Y-19.636 Z-9.155 R0.925
X-41.096 Y-21.206 Z-9.409 R0.925
X-42.074 Y-19.636 Z-9.664 R0.925
X-41.096 Y-21.206 Z-9.918 R0.925
X-40.66 Y-20.42 Z-10. R0.925
G1 Y-20.335
G3 X-40.722 Y-20.196 R0.19
G1 X-40.783 Y-20.14
G3 X-41.063 Y-20.04 R0.38
G1 X-41.128 Y-20.044
G3 X-41.489 Y-20.217 R0.535
G1 X-41.547 Y-20.281
G3 X-41.745 Y-20.77 R0.754
G1 X-41.748 Y-20.862
G3 X-41.528 Y-21.518 R1.005
G1 X-41.474 Y-21.584
G3 X-40.779 Y-22.02 R1.243
G1 X-40.616 Y-22.057
G3 X-39.402 Y-21.836 R1.571
X-38.964 Y-21.431 R1.847
G1 X-38.95 Y-21.413
G3 X-38.638 Y-20.838 R1.985
G1 X-38.63 Y-20.815
G3 X-38.514 Y-20.148 R2.131
G1 Y-20.105
G3 X-38.607 Y-19.482 R1.963
G1 X-38.75 Y-19.034
X-39.292 Y-18.493
X-39.98 Y-18.142
X-40.765 Y-18.021
X-41.515 Y-18.14
X-42.209 Y-18.493
X-42.753 Y-19.037
X-43.112 Y-19.747
X-43.23 Y-20.489
X-43.104 Y-21.278
X-42.758 Y-21.957
X-42.215 Y-22.501
X-42.099 Y-22.563
X-41.505 Y-22.862
X-40.764 Y-22.979
X-39.982 Y-22.859
X-39.292 Y-22.507
X-38.747 Y-21.963
X-38.39 Y-21.267
X-38.27 Y-20.49
X-38.388 Y-19.746
X-38.75 Y-19.034
G0 Z5.
X-1.334 Y-20.866
Z3.449
G3 X-1.321 Y-20.865 Z3.361 R0.925 F720.
X-1.283 Y-20.862 Z3.281 R0.925
X-1.223 Y-20.854 Z3.216 R0.925
X-1.149 Y-20.838 Z3.171 R0.925
X-1.066 Y-20.813 Z3.15 R0.925
X-1.69 Y-19.071 Z2.896 R0.925
X-1.066 Y-20.813 Z2.642 R0.925
X-1.69 Y-19.071 Z2.387 R0.925
X-1.066 Y-20.813 Z2.133 R0.925
X-1.69 Y-19.071 Z1.879 R0.925
X-1.066 Y-20.813 Z1.625 R0.925
X-1.69 Y-19.071 Z1.37 R0.925
X-1.066 Y-20.813 Z1.116 R0.925
X-1.69 Y-19.071 Z0.862 R0.925
X-1.066 Y-20.813 Z0.608 R0.925
X-1.69 Y-19.071 Z0.353 R0.925
X-1.066 Y-20.813 Z0.099 R0.925
X-1.69 Y-19.071 Z-0.155 R0.925
X-1.066 Y-20.813 Z-0.409 R0.925
X-1.69 Y-19.071 Z-0.664 R0.925
X-1.066 Y-20.813 Z-0.918 R0.925
X-1.69 Y-19.071 Z-1.172 R0.925
X-1.066 Y-20.813 Z-1.426 R0.925
X-1.69 Y-19.071 Z-1.681 R0.925
X-1.066 Y-20.813 Z-1.935 R0.925
X-1.69 Y-19.071 Z-2.189 R0.925
X-1.066 Y-20.813 Z-2.443 R0.925
X-1.69 Y-19.071 Z-2.698 R0.925
X-1.066 Y-20.813 Z-2.952 R0.925
X-0.631 Y-20.488 Z-3. R0.925
G1 X-0.581 Y-20.419
G3 X-0.546 Y-20.271 R0.194
G1 X-0.559 Y-20.198
G3 X-0.726 Y-19.951 R0.366
G1 X-0.791 Y-19.911
G3 X-1.197 Y-19.841 R0.543
G1 X-1.281 Y-19.86
G3 X-1.724 Y-20.145 R0.762
G1 X-1.82 Y-20.273
G3 X-2.006 Y-20.973 R0.96
X-1.692 Y-21.678 R1.347
G1 X-1.591 Y-21.795
G3 X0.13 Y-22.307 R1.659
G1 X0.179 Y-22.293
G3 X0.76 Y-22.016 R1.998
G1 X0.774 Y-22.007
G3 X1.26 Y-21.537 R2.1
G1 X1.291 Y-21.495
G3 X1.582 Y-20.936 R1.963
G1 X1.73 Y-20.489
X1.61 Y-19.733
X1.264 Y-19.054
X0.707 Y-18.492
X0.029 Y-18.146
X-0.759 Y-18.02
X-1.515 Y-18.14
X-1.527 Y-18.145
X-2.208 Y-18.492
X-2.76 Y-19.047
X-3.11 Y-19.733
X-3.23 Y-20.491
X-3.157 Y-20.966
X-3.105 Y-21.275
X-2.758 Y-21.958
X-2.203 Y-22.51
X-1.517 Y-22.86
X-0.757 Y-22.98
X0.014 Y-22.86
X0.712 Y-22.504
X1.257 Y-21.958
X1.604 Y-21.279
X1.73 Y-20.489
G0 Z5.
X-1.334 Y-20.866
Z0.449
G3 X-1.321 Y-20.865 Z0.361 R0.925 F720.
X-1.283 Y-20.862 Z0.281 R0.925
X-1.223 Y-20.854 Z0.216 R0.925
X-1.149 Y-20.838 Z0.171 R0.925
X-1.066 Y-20.813 Z0.15 R0.925
X-1.69 Y-19.071 Z-0.104 R0.925
X-1.066 Y-20.813 Z-0.358 R0.925
X-1.69 Y-19.071 Z-0.613 R0.925
X-1.066 Y-20.813 Z-0.867 R0.925
X-1.69 Y-19.071 Z-1.121 R0.925
X-1.066 Y-20.813 Z-1.375 R0.925
X-1.69 Y-19.071 Z-1.63 R0.925
X-1.066 Y-20.813 Z-1.884 R0.925
X-1.69 Y-19.071 Z-2.138 R0.925
X-1.066 Y-20.813 Z-2.392 R0.925
X-1.69 Y-19.071 Z-2.647 R0.925
X-1.066 Y-20.813 Z-2.901 R0.925
X-1.69 Y-19.071 Z-3.155 R0.925
X-1.066 Y-20.813 Z-3.409 R0.925
X-1.69 Y-19.071 Z-3.664 R0.925
X-1.066 Y-20.813 Z-3.918 R0.925
X-1.69 Y-19.071 Z-4.172 R0.925
X-1.066 Y-20.813 Z-4.426 R0.925
X-1.69 Y-19.071 Z-4.681 R0.925
X-1.066 Y-20.813 Z-4.935 R0.925
X-1.69 Y-19.071 Z-5.189 R0.925
X-1.066 Y-20.813 Z-5.443 R0.925
X-1.69 Y-19.071 Z-5.698 R0.925
X-1.066 Y-20.813 Z-5.952 R0.925
X-0.631 Y-20.488 Z-6. R0.925
G1 X-0.581 Y-20.419
G3 X-0.546 Y-20.271 R0.194
G1 X-0.559 Y-20.198
G3 X-0.726 Y-19.951 R0.366
G1 X-0.791 Y-19.911
G3 X-1.197 Y-19.841 R0.543
G1 X-1.281 Y-19.86
G3 X-1.724 Y-20.145 R0.762
G1 X-1.82 Y-20.273
G3 X-2.006 Y-20.973 R0.96
X-1.692 Y-21.678 R1.347
G1 X-1.591 Y-21.795
G3 X0.13 Y-22.307 R1.659
G1 X0.179 Y-22.293
G3 X0.76 Y-22.016 R1.998
G1 X0.774 Y-22.007
G3 X1.26 Y-21.537 R2.1
G1 X1.291 Y-21.495
G3 X1.582 Y-20.936 R1.963
G1 X1.73 Y-20.489
X1.61 Y-19.733
X1.264 Y-19.054
X0.707 Y-18.492
X0.029 Y-18.146
X-0.759 Y-18.02
X-1.515 Y-18.14
X-1.527 Y-18.145
X-2.208 Y-18.492
X-2.76 Y-19.047
X-3.11 Y-19.733
X-3.23 Y-20.491
X-3.157 Y-20.966
X-3.105 Y-21.275
X-2.758 Y-21.958
X-2.203 Y-22.51
X-1.517 Y-22.86
X-0.757 Y-22.98
X0.014 Y-22.86
X0.712 Y-22.504
X1.257 Y-21.958
X1.604 Y-21.279
X1.73 Y-20.489
G0 Z5.
X-1.334 Y-20.866
Z4.
G1 Z-2.551 F200.
G3 X-1.321 Y-20.865 Z-2.639 R0.925 F720.
X-1.283 Y-20.862 Z-2.719 R0.925
X-1.223 Y-20.854 Z-2.784 R0.925
X-1.149 Y-20.838 Z-2.829 R0.925
X-1.066 Y-20.813 Z-2.85 R0.925
X-1.69 Y-19.071 Z-3.104 R0.925
X-1.066 Y-20.813 Z-3.358 R0.925
X-1.69 Y-19.071 Z-3.613 R0.925
X-1.066 Y-20.813 Z-3.867 R0.925
X-1.69 Y-19.071 Z-4.121 R0.925
X-1.066 Y-20.813 Z-4.375 R0.925
X-1.69 Y-19.071 Z-4.63 R0.925
X-1.066 Y-20.813 Z-4.884 R0.925
X-1.69 Y-19.071 Z-5.138 R0.925
X-1.066 Y-20.813 Z-5.392 R0.925
X-1.69 Y-19.071 Z-5.647 R0.925
X-1.066 Y-20.813 Z-5.901 R0.925
X-1.69 Y-19.071 Z-6.155 R0.925
X-1.066 Y-20.813 Z-6.409 R0.925
X-1.69 Y-19.071 Z-6.664 R0.925
X-1.066 Y-20.813 Z-6.918 R0.925
X-1.69 Y-19.071 Z-7.172 R0.925
X-1.066 Y-20.813 Z-7.426 R0.925
X-1.69 Y-19.071 Z-7.681 R0.925
X-1.066 Y-20.813 Z-7.935 R0.925
X-1.69 Y-19.071 Z-8.189 R0.925
X-1.066 Y-20.813 Z-8.443 R0.925
X-1.69 Y-19.071 Z-8.698 R0.925
X-1.066 Y-20.813 Z-8.952 R0.925
X-0.631 Y-20.488 Z-9. R0.925
G1 X-0.581 Y-20.419
G3 X-0.546 Y-20.271 R0.194
G1 X-0.559 Y-20.198
G3 X-0.726 Y-19.951 R0.366
G1 X-0.791 Y-19.911
G3 X-1.197 Y-19.841 R0.543
G1 X-1.281 Y-19.86
G3 X-1.724 Y-20.145 R0.762
G1 X-1.82 Y-20.273
G3 X-2.006 Y-20.973 R0.96
X-1.692 Y-21.678 R1.347
G1 X-1.591 Y-21.795
G3 X0.13 Y-22.307 R1.659
G1 X0.179 Y-22.293
G3 X0.76 Y-22.016 R1.998
G1 X0.774 Y-22.007
G3 X1.26 Y-21.537 R2.1
G1 X1.291 Y-21.495
G3 X1.582 Y-20.936 R1.963
G1 X1.73 Y-20.489
X1.61 Y-19.733
X1.264 Y-19.054
X0.707 Y-18.492
X0.029 Y-18.146
X-0.759 Y-18.02
X-1.515 Y-18.14
X-1.527 Y-18.145
X-2.208 Y-18.492
X-2.76 Y-19.047
X-3.11 Y-19.733
X-3.23 Y-20.491
X-3.157 Y-20.966
X-3.105 Y-21.275
X-2.758 Y-21.958
X-2.203 Y-22.51
X-1.517 Y-22.86
X-0.757 Y-22.98
X0.014 Y-22.86
X0.712 Y-22.504
X1.257 Y-21.958
X1.604 Y-21.279
X1.73 Y-20.489
G0 Z5.
X-1.714 Y-20.804
G1 Z-5.551 F200.
G3 X-1.702 Y-20.809 Z-5.639 R0.925 F720.
X-1.665 Y-20.821 Z-5.719 R0.925
X-1.608 Y-20.838 Z-5.784 R0.925
X-1.533 Y-20.854 Z-5.829 R0.925
X-1.448 Y-20.865 Z-5.85 R0.925
X-1.308 Y-19.02 Z-6.104 R0.925
X-1.448 Y-20.865 Z-6.358 R0.925
X-1.308 Y-19.02 Z-6.613 R0.925
X-1.448 Y-20.865 Z-6.867 R0.925
X-1.308 Y-19.02 Z-7.121 R0.925
X-1.448 Y-20.865 Z-7.375 R0.925
X-1.308 Y-19.02 Z-7.63 R0.925
X-1.448 Y-20.865 Z-7.884 R0.925
X-1.308 Y-19.02 Z-8.138 R0.925
X-1.448 Y-20.865 Z-8.392 R0.925
X-1.308 Y-19.02 Z-8.647 R0.925
X-1.448 Y-20.865 Z-8.901 R0.925
X-1.308 Y-19.02 Z-9.155 R0.925
X-1.448 Y-20.865 Z-9.409 R0.925
X-1.308 Y-19.02 Z-9.664 R0.925
X-1.448 Y-20.865 Z-9.918 R0.925
X-0.631 Y-20.488 Z-10. R0.925
G1 X-0.581 Y-20.419
G3 X-0.546 Y-20.271 R0.194
G1 X-0.559 Y-20.198
G3 X-0.726 Y-19.951 R0.366
G1 X-0.791 Y-19.911
G3 X-1.197 Y-19.841 R0.543
G1 X-1.281 Y-19.86
G3 X-1.724 Y-20.145 R0.762
G1 X-1.82 Y-20.273
G3 X-2.006 Y-20.973 R0.96
X-1.692 Y-21.678 R1.347
G1 X-1.591 Y-21.795
G3 X0.13 Y-22.307 R1.659
G1 X0.179 Y-22.293
G3 X0.76 Y-22.016 R1.998
G1 X0.774 Y-22.007
G3 X1.26 Y-21.537 R2.1
G1 X1.291 Y-21.495
G3 X1.582 Y-20.936 R1.963
G1 X1.73 Y-20.489
X1.61 Y-19.733
X1.264 Y-19.054
X0.707 Y-18.492
X0.029 Y-18.146
X-0.759 Y-18.02
X-1.515 Y-18.14
X-1.527 Y-18.145
X-2.208 Y-18.492
X-2.76 Y-19.047
X-3.11 Y-19.733
X-3.23 Y-20.491
X-3.157 Y-20.966
X-3.105 Y-21.275
X-2.758 Y-21.958
X-2.203 Y-22.51
X-1.517 Y-22.86
X-0.757 Y-22.98
X0.014 Y-22.86
X0.712 Y-22.504
X1.257 Y-21.958
X1.604 Y-21.279
X1.73 Y-20.489
G0 Z5.
X41.387 Y-8.961
Z3.449
G3 X41.397 Y-8.953 Z3.361 R0.925 F720.
X41.427 Y-8.929 Z3.281 R0.925
X41.471 Y-8.889 Z3.216 R0.925
X41.523 Y-8.833 Z3.171 R0.925
X41.577 Y-8.765 Z3.15 R0.925
X40.072 Y-7.69 Z2.896 R0.925
X41.577 Y-8.765 Z2.642 R0.925
X40.072 Y-7.69 Z2.387 R0.925
X41.577 Y-8.765 Z2.133 R0.925
X40.072 Y-7.69 Z1.879 R0.925
X41.577 Y-8.765 Z1.625 R0.925
X40.072 Y-7.69 Z1.37 R0.925
X41.577 Y-8.765 Z1.116 R0.925
X40.072 Y-7.69 Z0.862 R0.925
X41.577 Y-8.765 Z0.608 R0.925
X40.072 Y-7.69 Z0.353 R0.925
X41.577 Y-8.765 Z0.099 R0.925
X40.072 Y-7.69 Z-0.155 R0.925
X41.577 Y-8.765 Z-0.409 R0.925
X40.072 Y-7.69 Z-0.664 R0.925
X41.577 Y-8.765 Z-0.918 R0.925
X40.072 Y-7.69 Z-1.172 R0.925
X41.577 Y-8.765 Z-1.426 R0.925
X40.072 Y-7.69 Z-1.681 R0.925
X41.577 Y-8.765 Z-1.935 R0.925
X40.072 Y-7.69 Z-2.189 R0.925
X41.577 Y-8.765 Z-2.443 R0.925
X40.072 Y-7.69 Z-2.698 R0.925
X41.577 Y-8.765 Z-2.952 R0.925
X41.749 Y-8.25 Z-3. R0.925
G1 X41.777 Y-7.114
X42.151 Y8.284
G3 X42.147 Y8.62 R4.696
X41.896 Y8.892 R0.288
G1 X41.866 Y8.896
G3 X41.341 Y8.445 R0.466
G1 X40.933 Y-8.325
G3 X42.572 Y-8.365 R0.82
G1 X43.246 Y8.156
G3 X43.242 Y8.838 R7.331
G1 X43.237 Y8.931
G3 X42.248 Y10.021 R1.164
G1 X42.197 Y10.029
G3 X41.53 Y10.06 R3.234
G1 X41.336 Y10.049
G2 X41.222 Y10.047 R1.327
G1 X41.209
G3 X40.156 Y9.038 R1.024
G2 X40.15 Y8.925 R1.31
G1 X40.127 Y8.694
G3 X40.099 Y8.3 R6.739
G1 X39.428 Y-8.115
G3 X39.437 Y-8.883 R7.294
G1 X39.452 Y-9.112
G2 X39.455 Y-9.279 R1.951
G1 Y-9.293
G3 X40.956 Y-10.836 R1.511
G2 X41.122 Y-10.845 R1.933
G1 X41.293 Y-10.86
G3 X42.206 Y-10.875 R5.921
G1 X42.426 Y-10.861
G2 X42.503 Y-10.858 R2.098
G3 X44.151 Y-9.255 R1.694
G2 X44.157 Y-9.181 R2.1
G1 X44.18 Y-8.913
G3 X44.235 Y-8. R15.962
G1 X44.727 Y7.842
G3 X44.715 Y9.152 R16.37
G1 X44.706 Y9.334
G2 X44.703 Y9.405 R2.681
G1 X44.694 Y9.84
G3 X43.094 Y11.493 R1.693
G2 X42.892 Y11.514 R2.097
G1 X42.643 Y11.552
G3 X41.312 Y11.618 R6.448
G1 X40.923 Y11.596
G2 X40.697 Y11.594 R2.66
G1 X40.665 Y11.595
G3 X38.554 Y9.581 R2.049
G2 X38.541 Y9.356 R2.621
G1 X38.498 Y8.938
G3 X38.439 Y8.055 R12.442
G1 X37.94 Y-8.034
G3 X37.953 Y-8.964 R10.336
G1 X37.977 Y-9.377
G3 X38.031 Y-9.901 R6.051
G1 X38.135 Y-10.607
G2 X38.131 Y-11.035 R1.396
G1 X38.125 Y-11.076
G3 X39.179 Y-12.164 R0.945
G2 X39.602 Y-12.177 R1.352
G1 X40.318 Y-12.311
G3 X40.838 Y-12.386 R5.993
G1 X41.001 Y-12.402
G3 X42.499 Y-12.433 R9.711
G1 X42.871 Y-12.412
G2 X42.998 Y-12.407 R3.493
G3 X45.756 Y-9.757 R2.815
G2 X45.765 Y-9.636 R3.487
G1 X45.8 Y-9.268
G3 X45.894 Y-7.686 R23.203
G1 X46.274 Y7.515
G3 X46.247 Y9.478 R25.536
G1 X46.232 Y9.766
G2 X46.228 Y9.874 R4.053
G1 X46.202 Y10.928
G3 X44.182 Y13.003 R2.132
G1 X43.782 Y13.024
G2 X43.475 Y13.055 R3.176
G1 X43.099 Y13.112
G3 X41.09 Y13.205 R9.743
G1 X40.66 Y13.181
G3 X40.008 Y13.115 R7.526
G1 X39.13 Y12.987
G2 X38.599 Y12.992 R1.738
G1 X38.544 Y13.001
G3 X37.191 Y11.694 R1.173
G2 X37.175 Y11.169 R1.678
G1 X37.006 Y10.278
G3 X36.912 Y9.631 R7.449
G1 X36.866 Y9.168
G3 X36.782 Y7.823 R18.046
G1 X36.385 Y-8.064
G3 X36.4 Y-8.934 R10.267
G1 X36.448 Y-9.733
G3 X36.524 Y-10.469 R8.496
G1 X36.671 Y-11.461
G2 X36.667 Y-12.061 R1.959
G1 X36.658 Y-12.116
G3 X38.14 Y-13.645 R1.328
G2 X38.735 Y-13.662 R1.9
G1 X39.74 Y-13.85
G3 X40.471 Y-13.954 R8.419
G1 X40.699 Y-13.976
G3 X42.802 Y-14.018 R13.632
G1 X43.323 Y-13.989
G2 X43.501 Y-13.982 R4.897
G1 X44.004 Y-13.971
G3 X47.336 Y-10.761 R3.408
G1 X47.365 Y-10.263
G2 X47.377 Y-10.093 R4.891
G1 X47.423 Y-9.607
G3 X47.551 Y-7.362 R31.417
G1 X47.865 Y7.687
G3 X47.838 Y9.307 R21.399
G1 X47.814 Y9.746
G3 X47.718 Y10.809 R15.088
G1 X47.576 Y11.929
G2 X47.56 Y12.362 R2.43
G1 X47.593 Y12.986
G3 X46.239 Y14.323 R1.273
G2 X45.871 Y14.339 R1.69
G1 X43.807 Y14.654
G3 X40.615 Y14.793 R15.487
G1 X40.288 Y14.773
G3 X39.418 Y14.683 R10.044
G1 X38.243 Y14.509
G2 X37.532 Y14.514 R2.319
G1 X37.468 Y14.525
G3 X35.658 Y12.77 R1.571
G2 X35.638 Y12.065 R2.249
G1 X35.416 Y10.874
G3 X35.293 Y10.011 R9.952
G1 X35.234 Y9.403
G3 X35.127 Y7.587 R23.874
G1 X34.799 Y-8.079
G3 X34.816 Y-8.918 R10.172
G1 X34.889 Y-10.099
G3 X34.988 Y-11.044 R10.906
G1 X35.18 Y-12.327
G2 X35.175 Y-13.109 R2.528
G1 X35.165 Y-13.173
G3 X37.084 Y-15.148 R1.714
G2 X37.86 Y-15.167 R2.458
G1 X39.159 Y-15.408
G3 X40.097 Y-15.539 R10.812
G1 X40.394 Y-15.568
G3 X43.108 Y-15.618 R17.6
G1 X43.325 Y-15.605
G3 X44.458 Y-15.501 R17.463
G1 X45.808 Y-15.333
G2 X46.337 Y-15.317 R2.849
G1 X46.393 Y-15.32
G3 X48.636 Y-13.142 R2.113
G2 X48.67 Y-12.612 R2.782
G1 X48.889 Y-11.236
G3 X49.035 Y-10.076 R17.371
G1 X49.078 Y-9.601
G3 X49.2 Y-7.377 R30.55
G1 X49.464 Y7.338
G3 X49.419 Y9.655 R30.803
G1 X49.395 Y10.078
G3 X49.272 Y11.403 R18.809
G1 X49.09 Y12.817
G2 X49.069 Y13.367 R3.048
G1 X49.11 Y14.145
G3 X47.399 Y15.825 R1.6
G2 X46.93 Y15.844 R2.129
G1 X44.332 Y16.235
G3 X40.328 Y16.4 R19.442
G1 X39.905 Y16.374
G3 X38.836 Y16.26 R12.315
G1 X37.364 Y16.039
G2 X36.45 Y16.047 R2.899
G1 X35.987 Y16.125
G3 X34.061 Y14.251 R1.665
G1 X34.116 Y13.858
G2 X34.097 Y12.951 R2.821
G1 X33.822 Y11.463
G3 X33.674 Y10.4 R12.208
G1 X33.601 Y9.634
G3 X33.472 Y7.356 R29.703
G1 X33.195 Y-8.086
G3 X33.213 Y-8.912 R10.188
G1 X33.312 Y-10.48
G3 X33.434 Y-11.616 R13.052
G1 X33.673 Y-13.19
G2 X33.663 Y-14.179 R3.099
G1 X33.547 Y-14.857
G3 X35.4 Y-16.757 R1.64
G1 X36.008 Y-16.668
G2 X36.991 Y-16.686 R3.021
G1 X38.581 Y-16.979
G3 X39.711 Y-17.135 R12.94
G1 X40.091 Y-17.171
G3 X43.411 Y-17.226 R21.572
G1 X43.685 Y-17.209
G3 X45.065 Y-17.08 R21.281
G1 X46.72 Y-16.872
G2 X47.371 Y-16.851 R3.485
G1 X47.417 Y-16.854
G3 X50.181 Y-14.166 R2.605
G2 X50.221 Y-13.517 R3.43
G1 X50.485 Y-11.841
G3 X50.658 Y-10.434 R21.308
G1 X50.72 Y-9.748
G3 X50.852 Y-7.235 R34.207
G1 X51.077 Y7.038
G3 X51.017 Y9.954 R40.12
G1 X50.993 Y10.382
G3 X50.861 Y11.894 R25.641
G1 X50.677 Y13.473
G2 X50.651 Y14.095 R4.201
G1 X50.678 Y14.938
G3 X48.19 Y17.457 R2.441
G1 X48.085 Y17.455
G2 X47.614 Y17.48 R3.292
G1 X44.764 Y17.841
G3 X40.054 Y18.021 R24.362
G1 X39.631 Y17.997
G3 X38.444 Y17.883 R16.174
G1 X36.862 Y17.673
G2 X35.779 R4.104
G1 X34.05 Y17.903
G3 X32.287 Y16.191 R1.564
G1 X32.466 Y14.469
G2 X32.435 Y13.388 R4.089
G1 X32.176 Y11.8
G3 X32.028 Y10.618 R16.233
G1 X31.886 Y9.013
G3 X31.832 Y7.98 R14.272
G1 X31.595 Y-7.091
G3 X31.649 Y-9.909 R40.269
G1 X31.687 Y-10.608
G3 X31.792 Y-11.816 R18.693
G1 X31.979 Y-13.38
G2 X31.985 Y-14.477 R4.829
G1 X31.743 Y-16.702
G3 X33.551 Y-18.556 R1.679
G1 X35.762 Y-18.372
G2 X36.874 Y-18.409 R4.806
G1 X38.44 Y-18.644
G3 X39.633 Y-18.783 R18.476
G1 X39.925 Y-18.808
G3 X43.577 Y-18.871 R27.455
G1 X43.898 Y-18.855
G3 X45.019 Y-18.781 R32.329
G1 X46.844 Y-18.627
G2 X47.327 Y-18.606 R5.849
G1 X47.35
G3 X51.958 Y-14.105 R4.615
G2 X51.995 Y-13.576 R5.817
G1 X52.184 Y-11.945
G3 X52.336 Y-10.394 R41.841
G1 X52.389 Y-9.714
G3 X52.502 Y-7.274 R38.002
G1 X52.701 Y6.898
G3 X52.65 Y10.095 R53.019
G1 X52.643 Y10.243
G3 X52.527 Y12.035 R48.624
G1 X52.401 Y13.544
G2 X52.378 Y14.023 R6.643
G1 X52.348 Y16.762
G3 X50.017 Y19.164 R2.431
G1 X47.974 Y19.248
G2 X47.724 Y19.264 R5.729
G1 X45.927 Y19.416
G2 X44.822 Y19.523 R46.721
G1 X44.786 Y19.527
G3 X39.97 Y19.675 R30.975
G1 X39.657 Y19.66
G3 X38.416 Y19.568 R23.369
G1 X36.884 Y19.414
G2 X35.756 Y19.402 R6.269
G1 X32.183 Y19.688
G3 X30.513 Y18.061 R1.549
G1 X30.703 Y14.491
G2 X30.662 Y13.366 R6.258
G1 X30.466 Y11.832
G3 X30.341 Y10.589 R23.45
G1 X30.293 Y9.929
G3 X30.167 Y7.061 R48.25
G1 X29.969 Y-7.046
G3 X30.011 Y-9.954 R50.993
G1 X30.038 Y-10.574
G3 X30.124 Y-11.851 R25.898
G1 X30.265 Y-13.366
G2 X30.278 Y-14.491 R6.989
G1 X29.997 Y-18.592
G3 X31.659 Y-20.295 R1.595
G1 X35.75 Y-20.113
G2 X36.886 Y-20.155 R6.971
G1 X38.402 Y-20.336
G3 X39.67 Y-20.456 R25.682
G1 X39.891 Y-20.471
G3 X43.61 Y-20.529 R34.594
G1 X43.939 Y-20.516
G3 X44.979 Y-20.463 R40.736
G1 X46.924 Y-20.338
G2 X47.247 Y-20.324 R8.237
G1 X47.776 Y-20.311
G3 X53.685 Y-14.534 R6.066
G1 X53.71 Y-14.024
G2 X53.735 Y-13.657 R8.212
G1 X53.877 Y-12.119
G3 X54.026 Y-10.222 R68.656
G1 X54.061 Y-9.689
G3 X54.153 Y-7.301 R46.352
G1 X54.329 Y6.641
G3 X54.182 Y12.335 R74.028
G1 X54.099 Y13.625
G2 X54.084 Y13.941 R9.033
G1 X53.946 Y18.658
G3 X51.914 Y20.752 R2.161
G1 X45.926 Y21.123
G2 X44.823 Y21.209 R59.162
G1 X44.79 Y21.212
G3 X39.969 Y21.336 R39.313
G1 X39.697 Y21.327
G3 X38.375 Y21.252 R31.601
G1 X36.874 Y21.135
G2 X35.767 Y21.122 R8.49
G1 X30.281 Y21.412
G3 X28.798 Y19.965 R1.409
G1 X28.954 Y14.475
G2 X28.914 Y13.381 R8.488
G1 X28.762 Y11.875
G3 X28.655 Y10.547 R31.942
G1 X28.607 Y9.728
G3 X28.519 Y7.264 R53.204
G1 X28.338 Y-7.046
G3 X28.365 Y-9.954 R65.937
G1 X28.384 Y-10.538
G3 X28.452 Y-11.888 R35.359
G1 X28.557 Y-13.395
G2 X28.57 Y-14.462 R9.226
G1 X28.292 Y-20.492
G3 X29.758 Y-21.991 R1.434
G1 X35.785 Y-21.852
G2 X36.853 Y-21.889 R9.216
G1 X38.364 Y-22.03
G3 X39.707 Y-22.129 R35.388
G1 X39.895 Y-22.139
G3 X43.605 Y-22.19 R45.25
G1 X43.941 Y-22.181
G3 X44.978 Y-22.143 R53.455
G1 X49.233 Y-21.963
G3 X55.334 Y-15.994 R6.354
G1 X55.586 Y-12.125
G3 X55.703 Y-10.218 R91.097
G1 X55.731 Y-9.656
G3 X55.804 Y-7.335 R59.795
G1 X55.938 Y4.372
G3 X55.8 Y13.811 R180.272
G1 X55.525 Y20.526
G3 X53.782 Y22.319 R1.874
G1 X47.849 Y22.729
X44.798 Y22.897
G3 X39.967 Y23. R53.817
G1 X39.726 Y22.994
G3 X38.347 Y22.941 R45.254
G1 X36.805 Y22.857
G2 X35.837 Y22.848 R10.806
G1 X28.396 Y23.112
G3 X27.106 Y21.851 R1.246
G1 X27.201 Y14.4
G2 X27.171 Y13.455 R10.814
G1 X27.055 Y11.907
G3 X26.972 Y10.516 R46.301
G1 X26.945 Y9.921
G3 X26.865 Y7.072 R85.89
G1 X26.703 Y-7.044
G3 X26.715 Y-9.957 R93.593
G1 X26.726 Y-10.513
G3 X26.772 Y-11.914 R52.212
G1 X26.845 Y-13.482
G2 X26.852 Y-14.374 R11.557
G1 X26.606 Y-22.374
G3 X27.875 Y-23.67 R1.258
G1 X35.879 Y-23.596
G2 X36.76 Y-23.621 R11.558
G1 X38.336 Y-23.727
G3 X39.734 Y-23.802 R52.942
G1 X39.901 Y-23.809
G3 X43.598 Y-23.855 R65.543
G1 X46.969 Y-23.768
G3 X47.202 Y-23.759 R12.875
G1 X51.444 Y-23.559
G3 X56.91 Y-18.204 R5.751
G1 X57.207 Y-13.841
X57.401 Y-9.616
G3 X57.455 Y-7.373 R85.78
G1 X57.604 Y6.805
G3 X57.561 Y12.156 R143.433
G1 X57.522 Y13.632
G3 X57.51 Y13.935 R13.621
G1 X57.097 Y22.358
G3 X55.613 Y23.881 R1.607
G1 X48.088 Y24.449
G3 X47.611 Y24.476 R12.394
G1 X44.815 Y24.584
G3 X39.96 Y24.666 R85.473
G1 X39.746 Y24.663
G3 X38.327 Y24.633 R74.693
G1 X36.676 Y24.583
G2 X35.966 Y24.58 R13.213
G1 X26.535 Y24.799
G3 X25.425 Y23.715 R1.085
G1 X25.444 Y14.264
G2 X25.429 Y13.59 R13.231
G1 X25.347 Y11.932
G3 X25.29 Y10.492 R78.367
G1 X25.271 Y9.871
G3 X25.215 Y7.123 R137.39
G1 X25.065 Y-7.034
G3 X25.061 Y-9.967 R161.899
G1 X25.126 Y-13.63
G2 X25.127 Y-14.226 R13.979
G1 X24.929 Y-24.234
G3 X26.015 Y-25.341 R1.086
G1 X36.034 Y-25.345
G2 X36.606 Y-25.357 R13.992
G1 X39.916 Y-25.48
G3 X43.583 Y-25.521 R119.191
G1 X46.639 Y-25.493
G3 X47.531 Y-25.473 R39.236
G1 X56.233 Y-25.177
G3 X58.363 Y-23.109 R2.209
G1 X58.927 Y-14.193
G3 X58.96 Y-13.49 R21.856
G1 X59.097 Y-8.254
X59.261 Y8.497
X59.237 Y13.783
X59.023 Y23.251
G3 X56.501 Y25.827 R2.638
G1 X48.46 Y26.18
G3 X47.239 Y26.22 R53.685
G1 X44.863 Y26.272
G3 X39.94 Y26.334 R207.452
G1 X36.484 Y26.317
G2 X36.159 Y26.318 R15.71
G1 X24.434 Y26.482
G3 X23.752 Y25.814 R0.673
G1 X23.685 Y14.064
G2 X23.681 Y13.789 R15.74
G1 X23.574 Y8.25
X23.399 Y-11.214
X23.397 Y-13.928
X23.254 Y-26.468
G3 X23.781 Y-27.004 R0.531
G1 X36.32 Y-27.098
X44.459 Y-27.194
X57.485 Y-27.275
G3 X60.473 Y-24.832 R3.026
X60.544 Y-24.158 R3.772
G1 X60.691 Y-13.842
X60.75 Y-8.254
Y-7.117
Y24.355
X60.73 Y24.824
X60.728 Y24.839
X60.422 Y25.853
X60.41 Y25.878
X59.753 Y26.729
X58.839 Y27.29
X58.806 Y27.303
X57.752 Y27.497
X22.748 Y27.5
Y-27.5
X57.589
X58.067 Y-27.482
X58.081 Y-27.479
X59.116 Y-27.166
X59.143 Y-27.15
X59.976 Y-26.506
X60.537 Y-25.594
X60.551 Y-25.561
X60.745 Y-24.518
X60.75 Y-8.254
G3 X60.606 Y-8.104 R0.15
G1 X52.277 Y-7.745
G2 Y-7.445 R0.15
G3 X52.195 Y-5.597 Z-3.254 R0.925
X52.277 Y-7.445 Z-3.508 R0.925
X52.195 Y-5.597 Z-3.763 R0.925
X52.277 Y-7.445 Z-4.017 R0.925
X52.195 Y-5.597 Z-4.271 R0.925
X52.277 Y-7.445 Z-4.525 R0.925
X52.195 Y-5.597 Z-4.78 R0.925
X52.277 Y-7.445 Z-5.034 R0.925
X52.195 Y-5.597 Z-5.288 R0.925
X52.277 Y-7.445 Z-5.542 R0.925
X52.195 Y-5.597 Z-5.797 R0.925
X51.726 Y-7.293 Z-6. R0.925
G1 X51.885 Y-7.398
X52.245 Y-7.47
X52.615 Y-7.397
X52.935 Y-7.186
X53.149 Y-6.861
X53.221 Y-6.5
X53.147 Y-6.129
X52.936 Y-5.814
X52.631 Y-5.609
X52.242 Y-5.531
X51.885 Y-5.602
X51.563 Y-5.815
X51.356 Y-6.124
X51.34 Y-6.195
X51.279 Y-6.5
X51.353 Y-6.871
X51.563 Y-7.185
X51.726 Y-7.293
G3 X51.882 Y-7.299 R0.15
G1 X53.117 Y-6.608
G3 X53.194 Y-6.47 R0.15
X51.346 Y-6.558 Z-6.254 R0.925
X53.194 Y-6.47 Z-6.508 R0.925
X51.346 Y-6.558 Z-6.763 R0.925
X53.194 Y-6.47 Z-7.017 R0.925
X51.346 Y-6.558 Z-7.271 R0.925
X53.194 Y-6.47 Z-7.525 R0.925
X51.346 Y-6.558 Z-7.78 R0.925
X53.194 Y-6.47 Z-8.034 R0.925
X51.346 Y-6.558 Z-8.288 R0.925
X53.194 Y-6.47 Z-8.542 R0.925
X51.346 Y-6.558 Z-8.797 R0.925
X53.043 Y-7.022 Z-9. R0.925
G1 X53.149 Y-6.861
X53.221 Y-6.5
X53.147 Y-6.129
X52.936 Y-5.814
X52.631 Y-5.609
X52.242 Y-5.531
X51.885 Y-5.602
X51.563 Y-5.815
X51.356 Y-6.124
X51.34 Y-6.195
X51.279 Y-6.5
X51.353 Y-6.871
X51.563 Y-7.185
X51.885 Y-7.398
X52.245 Y-7.47
X52.615 Y-7.397
X52.935 Y-7.186
X53.043 Y-7.022
G3 X52.873 Y-6.797 R0.15
G1 X51.908 Y-7.099
G3 X51.898 Y-7.382 R0.15
X52.575 Y-5.66 Z-9.254 R0.925
X51.898 Y-7.382 Z-9.508 R0.925
X52.575 Y-5.66 Z-9.763 R0.925
X51.726 Y-7.293 Z-10. R0.925
G1 X51.885 Y-7.398
X52.245 Y-7.47
X52.615 Y-7.397
X52.935 Y-7.186
X53.149 Y-6.861
X53.221 Y-6.5
X53.147 Y-6.129
X52.936 Y-5.814
X52.631 Y-5.609
X52.242 Y-5.531
X51.885 Y-5.602
X51.563 Y-5.815
X51.356 Y-6.124
X51.34 Y-6.195
X51.279 Y-6.5
X51.353 Y-6.871
X51.563 Y-7.185
X51.726 Y-7.293
G3 X51.81 Y-7.331 Z-9.985 R0.3
X51.892 Y-7.343 Z-9.943 R0.3
X51.958 Y-7.335 Z-9.876 R0.3
X51.999 Y-7.323 Z-9.793 R0.3
X52.012 Y-7.317 Z-9.7 R0.3
G0 Z5.
X51.994 Y-0.906
Z0.449
G3 X52.006 Y-0.909 Z0.361 R0.925 F720.
X52.043 Y-0.919 Z0.281 R0.925
X52.102 Y-0.932 Z0.216 R0.925
X52.178 Y-0.942 Z0.171 R0.925
X52.264 Y-0.946 Z0.15 R0.925
X52.263 Y0.904 Z-0.104 R0.925
X52.264 Y-0.946 Z-0.358 R0.925
X52.263 Y0.904 Z-0.613 R0.925
X52.264 Y-0.946 Z-0.867 R0.925
X52.263 Y0.904 Z-1.121 R0.925
X52.264 Y-0.946 Z-1.375 R0.925
X52.263 Y0.904 Z-1.63 R0.925
X52.264 Y-0.946 Z-1.884 R0.925
X52.263 Y0.904 Z-2.138 R0.925
X52.264 Y-0.946 Z-2.392 R0.925
X52.263 Y0.904 Z-2.647 R0.925
X52.264 Y-0.946 Z-2.901 R0.925
X52.263 Y0.904 Z-3.155 R0.925
X52.264 Y-0.946 Z-3.409 R0.925
X52.263 Y0.904 Z-3.664 R0.925
X52.264 Y-0.946 Z-3.918 R0.925
X52.263 Y0.904 Z-4.172 R0.925
X52.264 Y-0.946 Z-4.426 R0.925
X52.263 Y0.904 Z-4.681 R0.925
X52.264 Y-0.946 Z-4.935 R0.925
X52.263 Y0.904 Z-5.189 R0.925
X52.264 Y-0.946 Z-5.443 R0.925
X52.263 Y0.904 Z-5.698 R0.925
X52.264 Y-0.946 Z-5.952 R0.925
X52.783 Y-0.786 Z-6. R0.925
G1 X52.942 Y-0.678
X53.147 Y-0.371
X53.221 Y0.
X53.147 Y0.371
X52.942 Y0.678
X52.62 Y0.896
X52.245 Y0.97
X51.885 Y0.898
X51.563 Y0.685
X51.353 Y0.371
X51.279 Y0.
X51.353 Y-0.371
X51.563 Y-0.686
X51.885 Y-0.898
X52.245 Y-0.97
X52.62 Y-0.896
X52.783 Y-0.786
G3 X52.816 Y-0.755 R0.143
G1 X53.112 Y-0.373
G3 X53.134 Y-0.334 R0.143
X51.393 Y0.292 Z-6.254 R0.925
X53.134 Y-0.334 Z-6.508 R0.925
X51.393 Y0.292 Z-6.763 R0.925
X53.134 Y-0.334 Z-7.017 R0.925
X51.393 Y0.292 Z-7.271 R0.925
X53.134 Y-0.334 Z-7.525 R0.925
X51.393 Y0.292 Z-7.78 R0.925
X53.134 Y-0.334 Z-8.034 R0.925
X51.393 Y0.292 Z-8.288 R0.925
X53.134 Y-0.334 Z-8.542 R0.925
X51.393 Y0.292 Z-8.797 R0.925
X52.783 Y-0.786 Z-9. R0.925
G1 X52.942 Y-0.678
X53.147 Y-0.371
X53.221 Y0.
X53.147 Y0.371
X52.942 Y0.678
X52.62 Y0.896
X52.245 Y0.97
X51.885 Y0.898
X51.563 Y0.685
X51.353 Y0.371
X51.279 Y0.
X51.353 Y-0.371
X51.563 Y-0.686
X51.885 Y-0.898
X52.245 Y-0.97
X52.62 Y-0.896
X52.783 Y-0.786
X52.931 Y-0.661
G3 X51.596 Y0.619 Z-9.254 R0.925
X52.931 Y-0.661 Z-9.508 R0.925
X51.596 Y0.619 Z-9.763 R0.925
X52.783 Y-0.786 Z-10. R0.925
G1 X52.942 Y-0.678
X53.147 Y-0.371
X53.221 Y0.
X53.147 Y0.371
X52.942 Y0.678
X52.62 Y0.896
X52.245 Y0.97
X51.885 Y0.898
X51.563 Y0.685
X51.353 Y0.371
X51.279 Y0.
X51.353 Y-0.371
X51.563 Y-0.686
X51.885 Y-0.898
X52.245 Y-0.97
X52.62 Y-0.896
X52.783 Y-0.786
G3 X52.85 Y-0.723 Z-9.985 R0.3
X52.892 Y-0.651 Z-9.943 R0.3
X52.91 Y-0.587 Z-9.876 R0.3
X52.914 Y-0.545 Z-9.793 R0.3
Y-0.53 Z-9.7 R0.3
G0 Z5.
X51.664 Y5.765
Z0.449
G3 X51.674 Y5.757 Z0.361 R0.925 F720.
X51.704 Y5.734 Z0.281 R0.925
X51.753 Y5.699 Z0.216 R0.925
X51.819 Y5.661 Z0.171 R0.925
X51.897 Y5.624 Z0.15 R0.925
X52.612 Y7.33 Z-0.104 R0.925
X51.897 Y5.624 Z-0.358 R0.925
X52.612 Y7.33 Z-0.613 R0.925
X51.897 Y5.624 Z-0.867 R0.925
X52.612 Y7.33 Z-1.121 R0.925
X51.897 Y5.624 Z-1.375 R0.925
X52.612 Y7.33 Z-1.63 R0.925
X51.897 Y5.624 Z-1.884 R0.925
X52.612 Y7.33 Z-2.138 R0.925
X51.897 Y5.624 Z-2.392 R0.925
X52.612 Y7.33 Z-2.647 R0.925
X51.897 Y5.624 Z-2.901 R0.925
X52.612 Y7.33 Z-3.155 R0.925
X51.897 Y5.624 Z-3.409 R0.925
X52.612 Y7.33 Z-3.664 R0.925
X51.897 Y5.624 Z-3.918 R0.925
X52.612 Y7.33 Z-4.172 R0.925
X51.897 Y5.624 Z-4.426 R0.925
X52.612 Y7.33 Z-4.681 R0.925
X51.897 Y5.624 Z-4.935 R0.925
X52.612 Y7.33 Z-5.189 R0.925
X51.897 Y5.624 Z-5.443 R0.925
X52.612 Y7.33 Z-5.698 R0.925
X51.897 Y5.624 Z-5.952 R0.925
X52.438 Y5.57 Z-6. R0.925
G1 X52.631 Y5.609
X52.936 Y5.814
X53.144 Y6.124
X53.16 Y6.195
X53.221 Y6.5
X53.149 Y6.861
X52.935 Y7.186
X52.615 Y7.397
X52.245 Y7.47
X51.885 Y7.398
X51.563 Y7.185
X51.353 Y6.869
X51.279 Y6.5
X51.353 Y6.129
X51.563 Y5.815
X51.885 Y5.602
X52.242 Y5.531
X52.438 Y5.57
G3 X52.48 Y5.586 R0.143
G1 X52.901 Y5.824
G3 X52.936 Y5.852 R0.143
X51.573 Y7.102 Z-6.254 R0.925
X52.936 Y5.852 Z-6.508 R0.925
X51.573 Y7.102 Z-6.763 R0.925
X52.936 Y5.852 Z-7.017 R0.925
X51.573 Y7.102 Z-7.271 R0.925
X52.936 Y5.852 Z-7.525 R0.925
X51.573 Y7.102 Z-7.78 R0.925
X52.936 Y5.852 Z-8.034 R0.925
X51.573 Y7.102 Z-8.288 R0.925
X52.936 Y5.852 Z-8.542 R0.925
X51.573 Y7.102 Z-8.797 R0.925
X52.438 Y5.57 Z-9. R0.925
G1 X52.631 Y5.609
X52.936 Y5.814
X53.144 Y6.124
X53.16 Y6.195
X53.221 Y6.5
X53.149 Y6.861
X52.935 Y7.186
X52.615 Y7.397
X52.245 Y7.47
X51.885 Y7.398
X51.563 Y7.185
X51.353 Y6.869
X51.279 Y6.5
X51.353 Y6.129
X51.563 Y5.815
X51.885 Y5.602
X52.242 Y5.531
X52.438 Y5.57
X52.622 Y5.628
G3 X51.886 Y7.326 Z-9.254 R0.925
X52.622 Y5.628 Z-9.508 R0.925
X51.886 Y7.326 Z-9.763 R0.925
X52.438 Y5.57 Z-10. R0.925
G1 X52.631 Y5.609
X52.936 Y5.814
X53.144 Y6.124
X53.16 Y6.195
X53.221 Y6.5
X53.149 Y6.861
X52.935 Y7.186
X52.615 Y7.397
X52.245 Y7.47
X51.885 Y7.398
X51.563 Y7.185
X51.353 Y6.869
X51.279 Y6.5
X51.353 Y6.129
X51.563 Y5.815
X51.885 Y5.602
X52.242 Y5.531
X52.438 Y5.57
G3 X52.524 Y5.602 Z-9.985 R0.3
X52.591 Y5.653 Z-9.943 R0.3
X52.632 Y5.705 Z-9.876 R0.3
X52.652 Y5.742 Z-9.793 R0.3
X52.658 Y5.756 Z-9.7 R0.3
G0 Z10.

M9
M30
