(_BK12)
(T1  D=3. CR=0. - ZMIN=-10. - FLAT END MILL)
G90 G94 G91.1 G40 G49 G17
G21

(POCKET1)
M5
M9
T1
S10000 M3
G54
M8
G0 X7.272 Y-6.131
G43 Z10. H1
Z2.
G1 Z1.349 F200.
G3 X7.259 Y-6.133 Z1.261 R0.925 F720.
X7.221 Y-6.14 Z1.181 R0.925
X7.163 Y-6.154 Z1.116 R0.925
X7.09 Y-6.177 Z1.071 R0.925
X7.011 Y-6.21 Z1.05 R0.925
X7.807 Y-7.88 Z0.796 R0.925
X7.011 Y-6.21 Z0.542 R0.925
X7.807 Y-7.88 Z0.287 R0.925
X7.011 Y-6.21 Z0.033 R0.925
X7.807 Y-7.88 Z-0.221 R0.925
X7.011 Y-6.21 Z-0.475 R0.925
X7.807 Y-7.88 Z-0.73 R0.925
X8.2 Y-6.567 Z-0.865 R0.925
X6.854 Y-6.305 Z-1. R0.925
X7.147 Y-6.696 R0.244
X6.854 Y-6.305 R0.244
G2 X5.363 Y-6.899 R3.065
G3 X4.676 Y-8.348 R0.945
G1 X4.737 Y-8.443
X5.389 Y-9.012
X6.159 Y-9.364
X6.997 Y-9.484
X7.839 Y-9.364
X7.847 Y-9.361
X8.599 Y-9.017
X8.967 Y-8.705
X9.256 Y-8.454
X9.707 Y-7.752
X9.954 Y-6.924
Y-6.091
X9.718 Y-5.272
X9.26 Y-4.553
X8.615 Y-3.991
X7.841 Y-3.637
X6.991 Y-3.517
X6.174 Y-3.634
X5.947 Y-3.733
X5.399 Y-3.984
X4.75 Y-4.541
X4.282 Y-5.273
X4.046 Y-6.091
Y-6.924
X4.191 Y-7.42
X4.283 Y-7.731
X4.324 Y-7.8
X4.676 Y-8.348
G3 X4.923 Y-8.356 R0.15
G1 X6.478 Y-6.249
G2 X6.693 Y-6.222 R0.15
X6.712 Y-6.437 R0.15
G3 X8.106 Y-7.654 Z-1.254 R0.925
X6.712 Y-6.437 Z-1.508 R0.925
X8.106 Y-7.654 Z-1.763 R0.925
X6.854 Y-6.305 Z-2. R0.925
X7.147 Y-6.696 R0.244
X6.854 Y-6.305 R0.244
G2 X5.363 Y-6.899 R3.065
G3 X4.676 Y-8.348 R0.945
G1 X4.737 Y-8.443
X5.389 Y-9.012
X6.159 Y-9.364
X6.997 Y-9.484
X7.839 Y-9.364
X7.847 Y-9.361
X8.599 Y-9.017
X8.967 Y-8.705
X9.256 Y-8.454
X9.707 Y-7.752
X9.954 Y-6.924
Y-6.091
X9.718 Y-5.272
X9.26 Y-4.553
X8.615 Y-3.991
X7.841 Y-3.637
X6.991 Y-3.517
X6.174 Y-3.634
X5.947 Y-3.733
X5.399 Y-3.984
X4.75 Y-4.541
X4.282 Y-5.273
X4.046 Y-6.091
Y-6.924
X4.191 Y-7.42
X4.283 Y-7.731
X4.324 Y-7.8
X4.676 Y-8.348
G3 X4.923 Y-8.356 R0.15
G1 X6.478 Y-6.249
G2 X6.693 Y-6.222 R0.15
X6.712 Y-6.437 R0.15
G3 X8.106 Y-7.654 Z-2.254 R0.925
X6.712 Y-6.437 Z-2.508 R0.925
X8.106 Y-7.654 Z-2.763 R0.925
X6.854 Y-6.305 Z-3. R0.925
X7.147 Y-6.696 R0.244
X6.854 Y-6.305 R0.244
G2 X5.363 Y-6.899 R3.065
G3 X4.676 Y-8.348 R0.945
G1 X4.737 Y-8.443
X5.389 Y-9.012
X6.159 Y-9.364
X6.997 Y-9.484
X7.839 Y-9.364
X7.847 Y-9.361
X8.599 Y-9.017
X8.967 Y-8.705
X9.256 Y-8.454
X9.707 Y-7.752
X9.954 Y-6.924
Y-6.091
X9.718 Y-5.272
X9.26 Y-4.553
X8.615 Y-3.991
X7.841 Y-3.637
X6.991 Y-3.517
X6.174 Y-3.634
X5.947 Y-3.733
X5.399 Y-3.984
X4.75 Y-4.541
X4.282 Y-5.273
X4.046 Y-6.091
Y-6.924
X4.191 Y-7.42
X4.283 Y-7.731
X4.324 Y-7.8
X4.676 Y-8.348
G3 X4.923 Y-8.356 R0.15
G1 X6.478 Y-6.249
G2 X6.693 Y-6.222 R0.15
X6.712 Y-6.437 R0.15
G3 X8.106 Y-7.654 Z-3.254 R0.925
X6.712 Y-6.437 Z-3.508 R0.925
X8.106 Y-7.654 Z-3.763 R0.925
X6.854 Y-6.305 Z-4. R0.925
X7.147 Y-6.696 R0.244
X6.854 Y-6.305 R0.244
G2 X5.363 Y-6.899 R3.065
G3 X4.676 Y-8.348 R0.945
G1 X4.737 Y-8.443
X5.389 Y-9.012
X6.159 Y-9.364
X6.997 Y-9.484
X7.839 Y-9.364
X7.847 Y-9.361
X8.599 Y-9.017
X8.967 Y-8.705
X9.256 Y-8.454
X9.707 Y-7.752
X9.954 Y-6.924
Y-6.091
X9.718 Y-5.272
X9.26 Y-4.553
X8.615 Y-3.991
X7.841 Y-3.637
X6.991 Y-3.517
X6.174 Y-3.634
X5.947 Y-3.733
X5.399 Y-3.984
X4.75 Y-4.541
X4.282 Y-5.273
X4.046 Y-6.091
Y-6.924
X4.191 Y-7.42
X4.283 Y-7.731
X4.324 Y-7.8
X4.676 Y-8.348
G3 X4.923 Y-8.356 R0.15
G1 X6.478 Y-6.249
G2 X6.693 Y-6.222 R0.15
X6.712 Y-6.437 R0.15
G3 X8.106 Y-7.654 Z-4.254 R0.925
X6.712 Y-6.437 Z-4.508 R0.925
X8.106 Y-7.654 Z-4.763 R0.925
X6.854 Y-6.305 Z-5. R0.925
X7.147 Y-6.696 R0.244
X6.854 Y-6.305 R0.244
G2 X5.363 Y-6.899 R3.065
G3 X4.676 Y-8.348 R0.945
G1 X4.737 Y-8.443
X5.389 Y-9.012
X6.159 Y-9.364
X6.997 Y-9.484
X7.839 Y-9.364
X7.847 Y-9.361
X8.599 Y-9.017
X8.967 Y-8.705
X9.256 Y-8.454
X9.707 Y-7.752
X9.954 Y-6.924
Y-6.091
X9.718 Y-5.272
X9.26 Y-4.553
X8.615 Y-3.991
X7.841 Y-3.637
X6.991 Y-3.517
X6.174 Y-3.634
X5.947 Y-3.733
X5.399 Y-3.984
X4.75 Y-4.541
X4.282 Y-5.273
X4.046 Y-6.091
Y-6.924
X4.191 Y-7.42
X4.283 Y-7.731
X4.324 Y-7.8
X4.676 Y-8.348
G3 X5.691 Y-8.629 Z-5.096 R0.79
G1 X7.679 Y-7.646 Z-5.281
G3 X8.001 Y-6.524 Z-5.39 R0.79
X6.854 Y-6.305 Z-5.5 R0.79
X7.147 Y-6.696 R0.244
X6.854 Y-6.305 R0.244
G2 X5.363 Y-6.899 R3.065
G3 X4.676 Y-8.348 R0.945
G1 X4.737 Y-8.443
X5.389 Y-9.012
X6.159 Y-9.364
X6.997 Y-9.484
X7.839 Y-9.364
X7.847 Y-9.361
X8.599 Y-9.017
X8.967 Y-8.705
X9.256 Y-8.454
X9.707 Y-7.752
X9.954 Y-6.924
Y-6.091
X9.718 Y-5.272
X9.26 Y-4.553
X8.615 Y-3.991
X7.841 Y-3.637
X6.991 Y-3.517
X6.174 Y-3.634
X5.947 Y-3.733
X5.399 Y-3.984
X4.75 Y-4.541
X4.282 Y-5.273
X4.046 Y-6.091
Y-6.924
X4.191 Y-7.42
X4.283 Y-7.731
X4.324 Y-7.8
X4.676 Y-8.348
G3 X4.878 Y-8.396 R0.15
G1 X7.876 Y-6.628
G3 X7.95 Y-6.497 R0.15
X6.1 Y-6.513 Z-5.754 R0.925
X7.95 Y-6.497 Z-6.008 R0.925
X6.1 Y-6.513 Z-6.263 R0.925
X7.931 Y-6.69 Z-6.5 R0.925
G1 X7.97 Y-6.498
X7.897 Y-6.129
X7.686 Y-5.814
X7.372 Y-5.604
X6.998 Y-5.53
X6.633 Y-5.602
X6.313 Y-5.815
X6.106 Y-6.124
X6.09 Y-6.195
X6.03 Y-6.499
X6.106 Y-6.875
X6.265 Y-7.113
X6.314 Y-7.186
X6.624 Y-7.394
X6.999 Y-7.47
X7.366 Y-7.398
X7.44 Y-7.351
X7.686 Y-7.186
X7.893 Y-6.877
X7.931 Y-6.69
X7.95 Y-6.497
G3 X6.1 Y-6.513 Z-6.754 R0.925
X7.95 Y-6.497 Z-7.008 R0.925
X6.1 Y-6.513 Z-7.263 R0.925
X7.931 Y-6.69 Z-7.5 R0.925
G1 X7.97 Y-6.498
X7.897 Y-6.129
X7.686 Y-5.814
X7.372 Y-5.604
X6.998 Y-5.53
X6.633 Y-5.602
X6.313 Y-5.815
X6.106 Y-6.124
X6.09 Y-6.195
X6.03 Y-6.499
X6.106 Y-6.875
X6.265 Y-7.113
X6.314 Y-7.186
X6.624 Y-7.394
X6.999 Y-7.47
X7.366 Y-7.398
X7.44 Y-7.351
X7.686 Y-7.186
X7.893 Y-6.877
X7.931 Y-6.69
X7.95 Y-6.497
G3 X6.1 Y-6.513 Z-7.754 R0.925
X7.95 Y-6.497 Z-8.008 R0.925
X6.1 Y-6.513 Z-8.263 R0.925
X7.931 Y-6.69 Z-8.5 R0.925
G1 X7.97 Y-6.498
X7.897 Y-6.129
X7.686 Y-5.814
X7.372 Y-5.604
X6.998 Y-5.53
X6.633 Y-5.602
X6.313 Y-5.815
X6.106 Y-6.124
X6.09 Y-6.195
X6.03 Y-6.499
X6.106 Y-6.875
X6.265 Y-7.113
X6.314 Y-7.186
X6.624 Y-7.394
X6.999 Y-7.47
X7.366 Y-7.398
X7.44 Y-7.351
X7.686 Y-7.186
X7.893 Y-6.877
X7.931 Y-6.69
X7.95 Y-6.497
G3 X6.1 Y-6.513 Z-8.754 R0.925
X7.95 Y-6.497 Z-9.008 R0.925
X6.1 Y-6.513 Z-9.263 R0.925
X7.931 Y-6.69 Z-9.5 R0.925
G1 X7.97 Y-6.498
X7.897 Y-6.129
X7.686 Y-5.814
X7.372 Y-5.604
X6.998 Y-5.53
X6.633 Y-5.602
X6.313 Y-5.815
X6.106 Y-6.124
X6.09 Y-6.195
X6.03 Y-6.499
X6.106 Y-6.875
X6.265 Y-7.113
X6.314 Y-7.186
X6.624 Y-7.394
X6.999 Y-7.47
X7.366 Y-7.398
X7.44 Y-7.351
X7.686 Y-7.186
X7.893 Y-6.877
X7.931 Y-6.69
G3 X6.119 Y-6.32 Z-9.75 R0.925
X7.931 Y-6.69 Z-10. R0.925
G1 X7.97 Y-6.498
X7.897 Y-6.129
X7.686 Y-5.814
X7.372 Y-5.604
X6.998 Y-5.53
X6.633 Y-5.602
X6.313 Y-5.815
X6.106 Y-6.124
X6.09 Y-6.195
X6.03 Y-6.499
X6.106 Y-6.875
X6.265 Y-7.113
X6.314 Y-7.186
X6.624 Y-7.394
X6.999 Y-7.47
X7.366 Y-7.398
X7.44 Y-7.351
X7.686 Y-7.186
X7.893 Y-6.877
X7.931 Y-6.69
G3 X7.936 Y-6.598 Z-9.985 R0.3
X7.915 Y-6.517 Z-9.943 R0.3
X7.884 Y-6.459 Z-9.876 R0.3
X7.857 Y-6.425 Z-9.793 R0.3
X7.847 Y-6.415 Z-9.7 R0.3
G0 Z5.
X7.133 Y6.061
Z1.349
G3 X7.14 Y6.073 Z1.261 R0.925 F720.
X7.157 Y6.107 Z1.181 R0.925
X7.18 Y6.162 Z1.116 R0.925
X7.205 Y6.234 Z1.071 R0.925
X7.226 Y6.318 Z1.05 R0.925
X5.413 Y6.683 Z0.796 R0.925
X7.226 Y6.318 Z0.542 R0.925
X5.413 Y6.683 Z0.287 R0.925
X7.226 Y6.318 Z0.033 R0.925
X5.413 Y6.683 Z-0.221 R0.925
X7.226 Y6.318 Z-0.475 R0.925
X5.413 Y6.683 Z-0.73 R0.925
X6.228 Y5.58 Z-0.865 R0.925
X7.244 Y6.501 Z-1. R0.925
X6.756 R0.244
X7.244 R0.244
G2 X7.963 Y7.883 R1.689
G3 X7.6 Y9.398 R0.838
G1 X6.997 Y9.484
X6.174 Y9.366
X5.947 Y9.267
X5.389 Y9.012
X4.737 Y8.443
X4.285 Y7.74
X4.046 Y6.925
Y6.09
X4.192 Y5.578
X4.281 Y5.275
X4.75 Y4.541
X5.399 Y3.984
X6.159 Y3.636
X6.991 Y3.517
X7.84 Y3.636
X7.847 Y3.639
X8.615 Y3.991
X9.26 Y4.553
X9.718 Y5.272
X9.954 Y6.091
Y6.924
X9.707 Y7.752
X9.258 Y8.451
X9.244 Y8.465
X8.614 Y9.011
X7.841 Y9.364
X7.6 Y9.398
G3 X7.429 Y9.244 R0.15
G1 X7.521 Y6.73
G2 X7.224 Y6.693 R0.15
G3 X5.415 Y6.308 Z-1.254 R0.925
X7.224 Y6.693 Z-1.508 R0.925
X5.415 Y6.308 Z-1.763 R0.925
X7.244 Y6.501 Z-2. R0.925
X6.756 R0.244
X7.244 R0.244
G2 X7.963 Y7.883 R1.689
G3 X7.6 Y9.398 R0.838
G1 X6.997 Y9.484
X6.174 Y9.366
X5.947 Y9.267
X5.389 Y9.012
X4.737 Y8.443
X4.285 Y7.74
X4.046 Y6.925
Y6.09
X4.192 Y5.578
X4.281 Y5.275
X4.75 Y4.541
X5.399 Y3.984
X6.159 Y3.636
X6.991 Y3.517
X7.84 Y3.636
X7.847 Y3.639
X8.615 Y3.991
X9.26 Y4.553
X9.718 Y5.272
X9.954 Y6.091
Y6.924
X9.707 Y7.752
X9.258 Y8.451
X9.244 Y8.465
X8.614 Y9.011
X7.841 Y9.364
X7.6 Y9.398
G3 X7.429 Y9.244 R0.15
G1 X7.521 Y6.73
G2 X7.224 Y6.693 R0.15
G3 X5.415 Y6.308 Z-2.254 R0.925
X7.224 Y6.693 Z-2.508 R0.925
X5.415 Y6.308 Z-2.763 R0.925
X7.244 Y6.501 Z-3. R0.925
X6.756 R0.244
X7.244 R0.244
G2 X7.963 Y7.883 R1.689
G3 X7.6 Y9.398 R0.838
G1 X6.997 Y9.484
X6.174 Y9.366
X5.947 Y9.267
X5.389 Y9.012
X4.737 Y8.443
X4.285 Y7.74
X4.046 Y6.925
Y6.09
X4.192 Y5.578
X4.281 Y5.275
X4.75 Y4.541
X5.399 Y3.984
X6.159 Y3.636
X6.991 Y3.517
X7.84 Y3.636
X7.847 Y3.639
X8.615 Y3.991
X9.26 Y4.553
X9.718 Y5.272
X9.954 Y6.091
Y6.924
X9.707 Y7.752
X9.258 Y8.451
X9.244 Y8.465
X8.614 Y9.011
X7.841 Y9.364
X7.6 Y9.398
G3 X7.429 Y9.244 R0.15
G1 X7.521 Y6.73
G2 X7.224 Y6.693 R0.15
G3 X5.415 Y6.308 Z-3.254 R0.925
X7.224 Y6.693 Z-3.508 R0.925
X5.415 Y6.308 Z-3.763 R0.925
X7.244 Y6.501 Z-4. R0.925
X6.756 R0.244
X7.244 R0.244
G2 X7.963 Y7.883 R1.689
G3 X7.6 Y9.398 R0.838
G1 X6.997 Y9.484
X6.174 Y9.366
X5.947 Y9.267
X5.389 Y9.012
X4.737 Y8.443
X4.285 Y7.74
X4.046 Y6.925
Y6.09
X4.192 Y5.578
X4.281 Y5.275
X4.75 Y4.541
X5.399 Y3.984
X6.159 Y3.636
X6.991 Y3.517
X7.84 Y3.636
X7.847 Y3.639
X8.615 Y3.991
X9.26 Y4.553
X9.718 Y5.272
X9.954 Y6.091
Y6.924
X9.707 Y7.752
X9.258 Y8.451
X9.244 Y8.465
X8.614 Y9.011
X7.841 Y9.364
X7.6 Y9.398
G3 X7.429 Y9.244 R0.15
G1 X7.521 Y6.73
G2 X7.224 Y6.693 R0.15
G3 X5.415 Y6.308 Z-4.254 R0.925
X7.224 Y6.693 Z-4.508 R0.925
X5.415 Y6.308 Z-4.763 R0.925
X7.244 Y6.501 Z-5. R0.925
X6.756 R0.244
X7.244 R0.244
G2 X7.963 Y7.883 R1.689
G3 X7.6 Y9.398 R0.838
G1 X6.997 Y9.484
X6.174 Y9.366
X5.947 Y9.267
X5.389 Y9.012
X4.737 Y8.443
X4.285 Y7.74
X4.046 Y6.925
Y6.09
X4.192 Y5.578
X4.281 Y5.275
X4.75 Y4.541
X5.399 Y3.984
X6.159 Y3.636
X6.991 Y3.517
X7.84 Y3.636
X7.847 Y3.639
X8.615 Y3.991
X9.26 Y4.553
X9.718 Y5.272
X9.954 Y6.091
Y6.924
X9.707 Y7.752
X9.258 Y8.451
X9.244 Y8.465
X8.614 Y9.011
X7.841 Y9.364
X7.6 Y9.398
G3 X6.669 Y8.947 Z-5.081 R0.925
G1 X5.519 Y6.965 Z-5.25
G3 X7.12 Y6.036 Z-5.464 R0.925
X7.244 Y6.501 Z-5.5 R0.925
X6.756 R0.244
X7.244 R0.244
G2 X7.963 Y7.883 R1.689
G3 X7.6 Y9.398 R0.838
G1 X6.997 Y9.484
X6.174 Y9.366
X5.947 Y9.267
X5.389 Y9.012
X4.737 Y8.443
X4.285 Y7.74
X4.046 Y6.925
Y6.09
X4.192 Y5.578
X4.281 Y5.275
X4.75 Y4.541
X5.399 Y3.984
X6.159 Y3.636
X6.991 Y3.517
X7.84 Y3.636
X7.847 Y3.639
X8.615 Y3.991
X9.26 Y4.553
X9.718 Y5.272
X9.954 Y6.091
Y6.924
X9.707 Y7.752
X9.258 Y8.451
X9.244 Y8.465
X8.614 Y9.011
X7.841 Y9.364
X7.6 Y9.398
G3 X7.433 Y9.286 R0.15
G1 X6.555 Y5.794
G3 X6.646 Y5.618 R0.15
X7.325 Y7.339 Z-5.754 R0.925
X6.646 Y5.618 Z-6.008 R0.925
X7.325 Y7.339 Z-6.263 R0.925
X6.474 Y5.708 Z-6.5 R0.925
G1 X6.633 Y5.602
X6.998 Y5.53
X7.372 Y5.604
X7.686 Y5.814
X7.895 Y6.125
X7.906 Y6.176
X7.97 Y6.498
X7.893 Y6.877
X7.686 Y7.186
X7.372 Y7.396
X6.999 Y7.47
X6.624 Y7.394
X6.314 Y7.186
X6.106 Y6.875
X6.03 Y6.499
X6.103 Y6.129
X6.265 Y5.887
X6.313 Y5.814
X6.474 Y5.708
X6.646 Y5.618
G3 X7.325 Y7.339 Z-6.754 R0.925
X6.646 Y5.618 Z-7.008 R0.925
X7.325 Y7.339 Z-7.263 R0.925
X6.474 Y5.708 Z-7.5 R0.925
G1 X6.633 Y5.602
X6.998 Y5.53
X7.372 Y5.604
X7.686 Y5.814
X7.895 Y6.125
X7.906 Y6.176
X7.97 Y6.498
X7.893 Y6.877
X7.686 Y7.186
X7.372 Y7.396
X6.999 Y7.47
X6.624 Y7.394
X6.314 Y7.186
X6.106 Y6.875
X6.03 Y6.499
X6.103 Y6.129
X6.265 Y5.887
X6.313 Y5.814
X6.474 Y5.708
X6.646 Y5.618
G3 X7.325 Y7.339 Z-7.754 R0.925
X6.646 Y5.618 Z-8.008 R0.925
X7.325 Y7.339 Z-8.263 R0.925
X6.474 Y5.708 Z-8.5 R0.925
G1 X6.633 Y5.602
X6.998 Y5.53
X7.372 Y5.604
X7.686 Y5.814
X7.895 Y6.125
X7.906 Y6.176
X7.97 Y6.498
X7.893 Y6.877
X7.686 Y7.186
X7.372 Y7.396
X6.999 Y7.47
X6.624 Y7.394
X6.314 Y7.186
X6.106 Y6.875
X6.03 Y6.499
X6.103 Y6.129
X6.265 Y5.887
X6.313 Y5.814
X6.474 Y5.708
X6.646 Y5.618
G3 X7.325 Y7.339 Z-8.754 R0.925
X6.646 Y5.618 Z-9.008 R0.925
X7.325 Y7.339 Z-9.263 R0.925
X6.474 Y5.708 Z-9.5 R0.925
G1 X6.633 Y5.602
X6.998 Y5.53
X7.372 Y5.604
X7.686 Y5.814
X7.895 Y6.125
X7.906 Y6.176
X7.97 Y6.498
X7.893 Y6.877
X7.686 Y7.186
X7.372 Y7.396
X6.999 Y7.47
X6.624 Y7.394
X6.314 Y7.186
X6.106 Y6.875
X6.03 Y6.499
X6.103 Y6.129
X6.265 Y5.887
X6.313 Y5.814
X6.474 Y5.708
G3 X7.497 Y7.249 Z-9.75 R0.925
X6.474 Y5.708 Z-10. R0.925
G1 X6.633 Y5.602
X6.998 Y5.53
X7.372 Y5.604
X7.686 Y5.814
X7.895 Y6.125
X7.906 Y6.176
X7.97 Y6.498
X7.893 Y6.877
X7.686 Y7.186
X7.372 Y7.396
X6.999 Y7.47
X6.624 Y7.394
X6.314 Y7.186
X6.106 Y6.875
X6.03 Y6.499
X6.103 Y6.129
X6.265 Y5.887
X6.313 Y5.814
X6.474 Y5.708
G3 X6.558 Y5.669 Z-9.985 R0.3
X6.641 Y5.658 Z-9.943 R0.3
X6.706 Y5.665 Z-9.876 R0.3
X6.747 Y5.677 Z-9.793 R0.3
X6.761 Y5.683 Z-9.7 R0.3
G0 Z5.
X-9.446 Y19.561
Z1.349
G3 X-9.44 Y19.572 Z1.261 R0.925 F720.
X-9.423 Y19.607 Z1.181 R0.925
X-9.399 Y19.662 Z1.116 R0.925
X-9.374 Y19.734 Z1.071 R0.925
X-9.353 Y19.818 Z1.05 R0.925
X-11.167 Y20.183 Z0.796 R0.925
X-9.353 Y19.818 Z0.542 R0.925
X-11.167 Y20.183 Z0.287 R0.925
X-9.353 Y19.818 Z0.033 R0.925
X-11.167 Y20.183 Z-0.221 R0.925
X-9.353 Y19.818 Z-0.475 R0.925
X-11.167 Y20.183 Z-0.73 R0.925
X-10.351 Y19.08 Z-0.865 R0.925
X-9.335 Y20. Z-1. R0.925
X-10.666 R0.665
X-9.335 R0.665
G2 X-8.806 Y21.031 R1.269
G3 X-8.893 Y22.187 R0.678
G1 X-9.225 Y22.355
X-9.992 Y22.48
X-10.089 Y22.467
X-10.775 Y22.356
X-11.449 Y22.012
X-12.009 Y21.455
X-12.36 Y20.767
X-12.481 Y20.004
X-12.357 Y19.228
X-12.35 Y19.214
X-12.005 Y18.54
X-11.447 Y17.987
X-10.76 Y17.639
X-10. Y17.519
X-9.233 Y17.64
X-8.542 Y17.992
X-7.992 Y18.543
X-7.639 Y19.244
X-7.519 Y20.003
X-7.638 Y20.753
X-7.992 Y21.457
X-8.547 Y22.01
X-8.893 Y22.187
G3 X-9.111 Y22.049 R0.15
G1 X-9.058 Y20.228
G2 X-9.355 Y20.193 R0.15
G3 X-11.164 Y19.808 Z-1.254 R0.925
X-9.355 Y20.193 Z-1.508 R0.925
X-11.164 Y19.808 Z-1.763 R0.925
X-9.335 Y20. Z-2. R0.925
X-10.666 R0.665
X-9.335 R0.665
G2 X-8.806 Y21.031 R1.269
G3 X-8.893 Y22.187 R0.678
G1 X-9.225 Y22.355
X-9.992 Y22.48
X-10.089 Y22.467
X-10.775 Y22.356
X-11.449 Y22.012
X-12.009 Y21.455
X-12.36 Y20.767
X-12.481 Y20.004
X-12.357 Y19.228
X-12.35 Y19.214
X-12.005 Y18.54
X-11.447 Y17.987
X-10.76 Y17.639
X-10. Y17.519
X-9.233 Y17.64
X-8.542 Y17.992
X-7.992 Y18.543
X-7.639 Y19.244
X-7.519 Y20.003
X-7.638 Y20.753
X-7.992 Y21.457
X-8.547 Y22.01
X-8.893 Y22.187
G3 X-9.111 Y22.049 R0.15
G1 X-9.058 Y20.228
G2 X-9.355 Y20.193 R0.15
G3 X-11.164 Y19.808 Z-2.254 R0.925
X-9.355 Y20.193 Z-2.508 R0.925
X-11.164 Y19.808 Z-2.763 R0.925
X-9.335 Y20. Z-3. R0.925
X-10.666 R0.665
X-9.335 R0.665
G2 X-8.806 Y21.031 R1.269
G3 X-8.893 Y22.187 R0.678
G1 X-9.225 Y22.355
X-9.992 Y22.48
X-10.089 Y22.467
X-10.775 Y22.356
X-11.449 Y22.012
X-12.009 Y21.455
X-12.36 Y20.767
X-12.481 Y20.004
X-12.357 Y19.228
X-12.35 Y19.214
X-12.005 Y18.54
X-11.447 Y17.987
X-10.76 Y17.639
X-10. Y17.519
X-9.233 Y17.64
X-8.542 Y17.992
X-7.992 Y18.543
X-7.639 Y19.244
X-7.519 Y20.003
X-7.638 Y20.753
X-7.992 Y21.457
X-8.547 Y22.01
X-8.893 Y22.187
G3 X-9.111 Y22.049 R0.15
G1 X-9.058 Y20.228
G2 X-9.355 Y20.193 R0.15
G3 X-11.164 Y19.808 Z-3.254 R0.925
X-9.355 Y20.193 Z-3.508 R0.925
X-11.164 Y19.808 Z-3.763 R0.925
X-9.335 Y20. Z-4. R0.925
X-10.666 R0.665
X-9.335 R0.665
G2 X-8.806 Y21.031 R1.269
G3 X-8.893 Y22.187 R0.678
G1 X-9.225 Y22.355
X-9.992 Y22.48
X-10.089 Y22.467
X-10.775 Y22.356
X-11.449 Y22.012
X-12.009 Y21.455
X-12.36 Y20.767
X-12.481 Y20.004
X-12.357 Y19.228
X-12.35 Y19.214
X-12.005 Y18.54
X-11.447 Y17.987
X-10.76 Y17.639
X-10. Y17.519
X-9.233 Y17.64
X-8.542 Y17.992
X-7.992 Y18.543
X-7.639 Y19.244
X-7.519 Y20.003
X-7.638 Y20.753
X-7.992 Y21.457
X-8.547 Y22.01
X-8.893 Y22.187
G3 X-9.111 Y22.049 R0.15
G1 X-9.058 Y20.228
G2 X-9.355 Y20.193 R0.15
G3 X-11.164 Y19.808 Z-4.254 R0.925
X-9.355 Y20.193 Z-4.508 R0.925
X-11.164 Y19.808 Z-4.763 R0.925
X-9.335 Y20. Z-5. R0.925
X-10.666 R0.665
X-9.335 R0.665
G2 X-8.806 Y21.031 R1.269
G3 X-8.893 Y22.187 R0.678
G1 X-9.225 Y22.355
X-9.992 Y22.48
X-10.089 Y22.467
X-10.775 Y22.356
X-11.449 Y22.012
X-12.009 Y21.455
X-12.36 Y20.767
X-12.481 Y20.004
X-12.357 Y19.228
X-12.35 Y19.214
X-12.005 Y18.54
X-11.447 Y17.987
X-10.76 Y17.639
X-10. Y17.519
X-9.233 Y17.64
X-8.542 Y17.992
X-7.992 Y18.543
X-7.639 Y19.244
X-7.519 Y20.003
X-7.638 Y20.753
X-7.992 Y21.457
X-8.547 Y22.01
X-8.893 Y22.187
G3 X-10.073 Y21.89 Z-5.103 R0.925
G1 X-11.019 Y20.528 Z-5.231
G3 X-9.5 Y19.472 Z-5.456 R0.925
X-9.335 Y20. Z-5.5 R0.925
X-10.666 R0.665
X-9.335 R0.665
G2 X-8.806 Y21.031 R1.269
G3 X-8.893 Y22.187 R0.678
G1 X-9.225 Y22.355
X-9.992 Y22.48
X-10.089 Y22.467
X-10.775 Y22.356
X-11.449 Y22.012
X-12.009 Y21.455
X-12.36 Y20.767
X-12.481 Y20.004
X-12.357 Y19.228
X-12.35 Y19.214
X-12.005 Y18.54
X-11.447 Y17.987
X-10.76 Y17.639
X-10. Y17.519
X-9.233 Y17.64
X-8.542 Y17.992
X-7.992 Y18.543
X-7.639 Y19.244
X-7.519 Y20.003
X-7.638 Y20.753
X-7.992 Y21.457
X-8.547 Y22.01
X-8.893 Y22.187
G3 X-9.111 Y22.049 R0.15
G1 X-9.058 Y20.228
G2 X-9.355 Y20.193 R0.15
G3 X-11.164 Y19.808 Z-5.754 R0.925
X-9.355 Y20.193 Z-6.008 R0.925
X-11.164 Y19.808 Z-6.263 R0.925
X-9.335 Y20. Z-6.5 R0.925
X-10.666 R0.665
X-9.335 R0.665
G2 X-8.806 Y21.031 R1.269
G3 X-8.893 Y22.187 R0.678
G1 X-9.225 Y22.355
X-9.992 Y22.48
X-10.089 Y22.467
X-10.775 Y22.356
X-11.449 Y22.012
X-12.009 Y21.455
X-12.36 Y20.767
X-12.481 Y20.004
X-12.357 Y19.228
X-12.35 Y19.214
X-12.005 Y18.54
X-11.447 Y17.987
X-10.76 Y17.639
X-10. Y17.519
X-9.233 Y17.64
X-8.542 Y17.992
X-7.992 Y18.543
X-7.639 Y19.244
X-7.519 Y20.003
X-7.638 Y20.753
X-7.992 Y21.457
X-8.547 Y22.01
X-8.893 Y22.187
G3 X-9.111 Y22.049 R0.15
G1 X-9.058 Y20.228
G2 X-9.355 Y20.193 R0.15
G3 X-11.164 Y19.808 Z-6.754 R0.925
X-9.355 Y20.193 Z-7.008 R0.925
X-11.164 Y19.808 Z-7.263 R0.925
X-9.335 Y20. Z-7.5 R0.925
X-10.666 R0.665
X-9.335 R0.665
G2 X-8.806 Y21.031 R1.269
G3 X-8.893 Y22.187 R0.678
G1 X-9.225 Y22.355
X-9.992 Y22.48
X-10.089 Y22.467
X-10.775 Y22.356
X-11.449 Y22.012
X-12.009 Y21.455
X-12.36 Y20.767
X-12.481 Y20.004
X-12.357 Y19.228
X-12.35 Y19.214
X-12.005 Y18.54
X-11.447 Y17.987
X-10.76 Y17.639
X-10. Y17.519
X-9.233 Y17.64
X-8.542 Y17.992
X-7.992 Y18.543
X-7.639 Y19.244
X-7.519 Y20.003
X-7.638 Y20.753
X-7.992 Y21.457
X-8.547 Y22.01
X-8.893 Y22.187
G3 X-9.111 Y22.049 R0.15
G1 X-9.058 Y20.228
G2 X-9.355 Y20.193 R0.15
G3 X-11.164 Y19.808 Z-7.754 R0.925
X-9.355 Y20.193 Z-8.008 R0.925
X-11.164 Y19.808 Z-8.263 R0.925
X-9.335 Y20. Z-8.5 R0.925
X-10.666 R0.665
X-9.335 R0.665
G2 X-8.806 Y21.031 R1.269
G3 X-8.893 Y22.187 R0.678
G1 X-9.225 Y22.355
X-9.992 Y22.48
X-10.089 Y22.467
X-10.775 Y22.356
X-11.449 Y22.012
X-12.009 Y21.455
X-12.36 Y20.767
X-12.481 Y20.004
X-12.357 Y19.228
X-12.35 Y19.214
X-12.005 Y18.54
X-11.447 Y17.987
X-10.76 Y17.639
X-10. Y17.519
X-9.233 Y17.64
X-8.542 Y17.992
X-7.992 Y18.543
X-7.639 Y19.244
X-7.519 Y20.003
X-7.638 Y20.753
X-7.992 Y21.457
X-8.547 Y22.01
X-8.893 Y22.187
G3 X-9.111 Y22.049 R0.15
G1 X-9.058 Y20.228
G2 X-9.355 Y20.193 R0.15
G3 X-11.164 Y19.808 Z-8.754 R0.925
X-9.355 Y20.193 Z-9.008 R0.925
X-11.164 Y19.808 Z-9.263 R0.925
X-9.335 Y20. Z-9.5 R0.925
X-10.666 R0.665
X-9.335 R0.665
G2 X-8.806 Y21.031 R1.269
G3 X-8.893 Y22.187 R0.678
G1 X-9.225 Y22.355
X-9.992 Y22.48
X-10.089 Y22.467
X-10.775 Y22.356
X-11.449 Y22.012
X-12.009 Y21.455
X-12.36 Y20.767
X-12.481 Y20.004
X-12.357 Y19.228
X-12.35 Y19.214
X-12.005 Y18.54
X-11.447 Y17.987
X-10.76 Y17.639
X-10. Y17.519
X-9.233 Y17.64
X-8.542 Y17.992
X-7.992 Y18.543
X-7.639 Y19.244
X-7.519 Y20.003
X-7.638 Y20.753
X-7.992 Y21.457
X-8.547 Y22.01
X-8.893 Y22.187
G3 X-10.073 Y21.89 Z-9.603 R0.925
G1 X-11.019 Y20.528 Z-9.731
G3 X-9.5 Y19.472 Z-9.956 R0.925
X-9.335 Y20. Z-10. R0.925
X-10.666 R0.665
X-9.335 R0.665
G2 X-8.806 Y21.031 R1.269
G3 X-8.893 Y22.187 R0.678
G1 X-9.225 Y22.355
X-9.992 Y22.48
X-10.089 Y22.467
X-10.775 Y22.356
X-11.449 Y22.012
X-12.009 Y21.455
X-12.36 Y20.767
X-12.481 Y20.004
X-12.357 Y19.228
X-12.35 Y19.214
X-12.005 Y18.54
X-11.447 Y17.987
X-10.76 Y17.639
X-10. Y17.519
X-9.233 Y17.64
X-8.542 Y17.992
X-7.992 Y18.543
X-7.639 Y19.244
X-7.519 Y20.003
X-7.638 Y20.753
X-7.992 Y21.457
X-8.547 Y22.01
X-8.893 Y22.187
G3 X-8.981 Y22.215 Z-9.985 R0.3
X-9.065 Y22.217 Z-9.943 R0.3
X-9.129 Y22.202 Z-9.876 R0.3
X-9.168 Y22.186 Z-9.793 R0.3
X-9.181 Y22.178 Z-9.7 R0.3
G0 Z5.
X-49.981 Y20.707
Z1.349
G3 X-49.994 Y20.705 Z1.261 R0.925 F720.
X-50.032 Y20.698 Z1.181 R0.925
X-50.09 Y20.684 Z1.116 R0.925
X-50.163 Y20.66 Z1.071 R0.925
X-50.242 Y20.627 Z1.05 R0.925
X-49.446 Y18.957 Z0.796 R0.925
X-50.242 Y20.627 Z0.542 R0.925
X-49.446 Y18.957 Z0.287 R0.925
X-50.242 Y20.627 Z0.033 R0.925
X-49.446 Y18.957 Z-0.221 R0.925
X-50.242 Y20.627 Z-0.475 R0.925
X-49.446 Y18.957 Z-0.73 R0.925
X-49.053 Y20.271 Z-0.865 R0.925
X-50.399 Y20.532 Z-1. R0.925
X-49.601 Y19.467 R0.665
X-50.399 Y20.532 R0.665
G2 X-51.539 Y20.335 R1.27
G3 X-52.414 Y19.579 R0.681
G1 X-52.36 Y19.233
X-52.012 Y18.551
X-51.892 Y18.426
X-51.461 Y17.995
X-50.754 Y17.638
X-50.009 Y17.52
X-49.235 Y17.64
X-48.533 Y18.002
X-47.993 Y18.542
X-47.64 Y19.233
X-47.519 Y20.003
X-47.64 Y20.767
X-47.986 Y21.446
X-48.539 Y22.005
X-49.224 Y22.355
X-50.009 Y22.479
X-50.774 Y22.356
X-51.464 Y22.002
X-52.009 Y21.456
X-52.356 Y20.775
X-52.481 Y20.002
X-52.414 Y19.579
G3 X-52.173 Y19.485 R0.15
G1 X-50.747 Y20.616
G2 X-50.541 Y20.4 R0.15
G3 X-49.147 Y19.183 Z-1.254 R0.925
X-50.541 Y20.4 Z-1.508 R0.925
X-49.147 Y19.183 Z-1.763 R0.925
X-50.399 Y20.532 Z-2. R0.925
X-49.601 Y19.467 R0.665
X-50.399 Y20.532 R0.665
G2 X-51.539 Y20.335 R1.27
G3 X-52.414 Y19.579 R0.681
G1 X-52.36 Y19.233
X-52.012 Y18.551
X-51.892 Y18.426
X-51.461 Y17.995
X-50.754 Y17.638
X-50.009 Y17.52
X-49.235 Y17.64
X-48.533 Y18.002
X-47.993 Y18.542
X-47.64 Y19.233
X-47.519 Y20.003
X-47.64 Y20.767
X-47.986 Y21.446
X-48.539 Y22.005
X-49.224 Y22.355
X-50.009 Y22.479
X-50.774 Y22.356
X-51.464 Y22.002
X-52.009 Y21.456
X-52.356 Y20.775
X-52.481 Y20.002
X-52.414 Y19.579
G3 X-52.173 Y19.485 R0.15
G1 X-50.747 Y20.616
G2 X-50.541 Y20.4 R0.15
G3 X-49.147 Y19.183 Z-2.254 R0.925
X-50.541 Y20.4 Z-2.508 R0.925
X-49.147 Y19.183 Z-2.763 R0.925
X-50.399 Y20.532 Z-3. R0.925
X-49.601 Y19.467 R0.665
X-50.399 Y20.532 R0.665
G2 X-51.539 Y20.335 R1.27
G3 X-52.414 Y19.579 R0.681
G1 X-52.36 Y19.233
X-52.012 Y18.551
X-51.892 Y18.426
X-51.461 Y17.995
X-50.754 Y17.638
X-50.009 Y17.52
X-49.235 Y17.64
X-48.533 Y18.002
X-47.993 Y18.542
X-47.64 Y19.233
X-47.519 Y20.003
X-47.64 Y20.767
X-47.986 Y21.446
X-48.539 Y22.005
X-49.224 Y22.355
X-50.009 Y22.479
X-50.774 Y22.356
X-51.464 Y22.002
X-52.009 Y21.456
X-52.356 Y20.775
X-52.481 Y20.002
X-52.414 Y19.579
G3 X-52.173 Y19.485 R0.15
G1 X-50.747 Y20.616
G2 X-50.541 Y20.4 R0.15
G3 X-49.147 Y19.183 Z-3.254 R0.925
X-50.541 Y20.4 Z-3.508 R0.925
X-49.147 Y19.183 Z-3.763 R0.925
X-50.399 Y20.532 Z-4. R0.925
X-49.601 Y19.467 R0.665
X-50.399 Y20.532 R0.665
G2 X-51.539 Y20.335 R1.27
G3 X-52.414 Y19.579 R0.681
G1 X-52.36 Y19.233
X-52.012 Y18.551
X-51.892 Y18.426
X-51.461 Y17.995
X-50.754 Y17.638
X-50.009 Y17.52
X-49.235 Y17.64
X-48.533 Y18.002
X-47.993 Y18.542
X-47.64 Y19.233
X-47.519 Y20.003
X-47.64 Y20.767
X-47.986 Y21.446
X-48.539 Y22.005
X-49.224 Y22.355
X-50.009 Y22.479
X-50.774 Y22.356
X-51.464 Y22.002
X-52.009 Y21.456
X-52.356 Y20.775
X-52.481 Y20.002
X-52.414 Y19.579
G3 X-52.173 Y19.485 R0.15
G1 X-50.747 Y20.616
G2 X-50.541 Y20.4 R0.15
G3 X-49.147 Y19.183 Z-4.254 R0.925
X-50.541 Y20.4 Z-4.508 R0.925
X-49.147 Y19.183 Z-4.763 R0.925
X-50.399 Y20.532 Z-5. R0.925
X-49.601 Y19.467 R0.665
X-50.399 Y20.532 R0.665
G2 X-51.539 Y20.335 R1.27
G3 X-52.414 Y19.579 R0.681
G1 X-52.36 Y19.233
X-52.012 Y18.551
X-51.892 Y18.426
X-51.461 Y17.995
X-50.754 Y17.638
X-50.009 Y17.52
X-49.235 Y17.64
X-48.533 Y18.002
X-47.993 Y18.542
X-47.64 Y19.233
X-47.519 Y20.003
X-47.64 Y20.767
X-47.986 Y21.446
X-48.539 Y22.005
X-49.224 Y22.355
X-50.009 Y22.479
X-50.774 Y22.356
X-51.464 Y22.002
X-52.009 Y21.456
X-52.356 Y20.775
X-52.481 Y20.002
X-52.414 Y19.579
G3 X-51.462 Y18.799 Z-5.104 R0.925
G1 X-49.806 Y18.868 Z-5.232
G3 X-49.882 Y20.716 Z-5.457 R0.925
X-50.399 Y20.532 Z-5.5 R0.925
X-49.601 Y19.467 R0.665
X-50.399 Y20.532 R0.665
G2 X-51.539 Y20.335 R1.27
G3 X-52.414 Y19.579 R0.681
G1 X-52.36 Y19.233
X-52.012 Y18.551
X-51.892 Y18.426
X-51.461 Y17.995
X-50.754 Y17.638
X-50.009 Y17.52
X-49.235 Y17.64
X-48.533 Y18.002
X-47.993 Y18.542
X-47.64 Y19.233
X-47.519 Y20.003
X-47.64 Y20.767
X-47.986 Y21.446
X-48.539 Y22.005
X-49.224 Y22.355
X-50.009 Y22.479
X-50.774 Y22.356
X-51.464 Y22.002
X-52.009 Y21.456
X-52.356 Y20.775
X-52.481 Y20.002
X-52.414 Y19.579
G3 X-52.173 Y19.485 R0.15
G1 X-50.747 Y20.616
G2 X-50.541 Y20.4 R0.15
G3 X-49.147 Y19.183 Z-5.754 R0.925
X-50.541 Y20.4 Z-6.008 R0.925
X-49.147 Y19.183 Z-6.263 R0.925
X-50.399 Y20.532 Z-6.5 R0.925
X-49.601 Y19.467 R0.665
X-50.399 Y20.532 R0.665
G2 X-51.539 Y20.335 R1.27
G3 X-52.414 Y19.579 R0.681
G1 X-52.36 Y19.233
X-52.012 Y18.551
X-51.892 Y18.426
X-51.461 Y17.995
X-50.754 Y17.638
X-50.009 Y17.52
X-49.235 Y17.64
X-48.533 Y18.002
X-47.993 Y18.542
X-47.64 Y19.233
X-47.519 Y20.003
X-47.64 Y20.767
X-47.986 Y21.446
X-48.539 Y22.005
X-49.224 Y22.355
X-50.009 Y22.479
X-50.774 Y22.356
X-51.464 Y22.002
X-52.009 Y21.456
X-52.356 Y20.775
X-52.481 Y20.002
X-52.414 Y19.579
G3 X-52.173 Y19.485 R0.15
G1 X-50.747 Y20.616
G2 X-50.541 Y20.4 R0.15
G3 X-49.147 Y19.183 Z-6.754 R0.925
X-50.541 Y20.4 Z-7.008 R0.925
X-49.147 Y19.183 Z-7.263 R0.925
X-50.399 Y20.532 Z-7.5 R0.925
X-49.601 Y19.467 R0.665
X-50.399 Y20.532 R0.665
G2 X-51.539 Y20.335 R1.27
G3 X-52.414 Y19.579 R0.681
G1 X-52.36 Y19.233
X-52.012 Y18.551
X-51.892 Y18.426
X-51.461 Y17.995
X-50.754 Y17.638
X-50.009 Y17.52
X-49.235 Y17.64
X-48.533 Y18.002
X-47.993 Y18.542
X-47.64 Y19.233
X-47.519 Y20.003
X-47.64 Y20.767
X-47.986 Y21.446
X-48.539 Y22.005
X-49.224 Y22.355
X-50.009 Y22.479
X-50.774 Y22.356
X-51.464 Y22.002
X-52.009 Y21.456
X-52.356 Y20.775
X-52.481 Y20.002
X-52.414 Y19.579
G3 X-52.173 Y19.485 R0.15
G1 X-50.747 Y20.616
G2 X-50.541 Y20.4 R0.15
G3 X-49.147 Y19.183 Z-7.754 R0.925
X-50.541 Y20.4 Z-8.008 R0.925
X-49.147 Y19.183 Z-8.263 R0.925
X-50.399 Y20.532 Z-8.5 R0.925
X-49.601 Y19.467 R0.665
X-50.399 Y20.532 R0.665
G2 X-51.539 Y20.335 R1.27
G3 X-52.414 Y19.579 R0.681
G1 X-52.36 Y19.233
X-52.012 Y18.551
X-51.892 Y18.426
X-51.461 Y17.995
X-50.754 Y17.638
X-50.009 Y17.52
X-49.235 Y17.64
X-48.533 Y18.002
X-47.993 Y18.542
X-47.64 Y19.233
X-47.519 Y20.003
X-47.64 Y20.767
X-47.986 Y21.446
X-48.539 Y22.005
X-49.224 Y22.355
X-50.009 Y22.479
X-50.774 Y22.356
X-51.464 Y22.002
X-52.009 Y21.456
X-52.356 Y20.775
X-52.481 Y20.002
X-52.414 Y19.579
G3 X-52.236 Y19.456 R0.15
G1 X-49.472 Y20.014
G3 X-49.355 Y20.192 R0.15
X-51.164 Y19.807 Z-8.754 R0.925
X-49.355 Y20.192 Z-9.008 R0.925
X-51.164 Y19.807 Z-9.263 R0.925
X-49.335 Y20. Z-9.5 R0.925
X-50.665 R0.665
X-49.335 R0.665
G2 X-48.806 Y21.03 R1.269
G3 X-48.893 Y22.185 R0.679
G1 X-49.224 Y22.355
X-50.009 Y22.479
X-50.774 Y22.356
X-51.464 Y22.002
X-52.009 Y21.456
X-52.356 Y20.775
X-52.481 Y20.002
X-52.36 Y19.233
X-52.012 Y18.551
X-51.892 Y18.426
X-51.461 Y17.995
X-50.754 Y17.638
X-50.009 Y17.52
X-49.235 Y17.64
X-48.533 Y18.002
X-47.993 Y18.542
X-47.64 Y19.233
X-47.519 Y20.003
X-47.64 Y20.767
X-47.986 Y21.446
X-48.539 Y22.005
X-48.893 Y22.185
G3 X-50.191 Y21.658 Z-9.593 R0.925
G1 X-50.72 Y20.087 Z-9.691
G3 X-48.968 Y19.496 Z-9.862 R0.925
X-50.399 Y20.532 Z-10. R0.925
X-49.601 Y19.467 R0.665
X-50.399 Y20.532 R0.665
G2 X-51.539 Y20.335 R1.27
G3 X-52.414 Y19.579 R0.681
G1 X-52.36 Y19.233
X-52.012 Y18.551
X-51.892 Y18.426
X-51.461 Y17.995
X-50.754 Y17.638
X-50.009 Y17.52
X-49.235 Y17.64
X-48.533 Y18.002
X-47.993 Y18.542
X-47.64 Y19.233
X-47.519 Y20.003
X-47.64 Y20.767
X-47.986 Y21.446
X-48.539 Y22.005
X-49.224 Y22.355
X-50.009 Y22.479
X-50.774 Y22.356
X-51.464 Y22.002
X-52.009 Y21.456
X-52.356 Y20.775
X-52.481 Y20.002
X-52.414 Y19.579
G3 X-52.386 Y19.491 Z-9.985 R0.3
X-52.339 Y19.423 Z-9.943 R0.3
X-52.289 Y19.379 Z-9.876 R0.3
X-52.252 Y19.358 Z-9.793 R0.3
X-52.239 Y19.351 Z-9.7 R0.3
G0 Z5.
X-49.981 Y-19.293
Z1.349
G3 X-49.994 Y-19.295 Z1.261 R0.925 F720.
X-50.032 Y-19.302 Z1.181 R0.925
X-50.09 Y-19.316 Z1.116 R0.925
X-50.163 Y-19.339 Z1.071 R0.925
X-50.242 Y-19.372 Z1.05 R0.925
X-49.446 Y-21.042 Z0.796 R0.925
X-50.242 Y-19.372 Z0.542 R0.925
X-49.446 Y-21.042 Z0.287 R0.925
X-50.242 Y-19.372 Z0.033 R0.925
X-49.446 Y-21.042 Z-0.221 R0.925
X-50.242 Y-19.372 Z-0.475 R0.925
X-49.446 Y-21.042 Z-0.73 R0.925
X-49.053 Y-19.728 Z-0.865 R0.925
X-50.399 Y-19.467 Z-1. R0.925
X-49.601 Y-20.532 R0.665
X-50.399 Y-19.467 R0.665
G2 X-51.539 Y-19.662 R1.266
G3 X-52.413 Y-20.419 R0.679
G1 X-52.356 Y-20.775
X-52.009 Y-21.456
X-51.464 Y-22.002
X-50.774 Y-22.356
X-50.009 Y-22.479
X-49.224 Y-22.355
X-48.539 Y-22.005
X-47.986 Y-21.446
X-47.64 Y-20.767
X-47.519 Y-20.003
X-47.64 Y-19.233
X-47.993 Y-18.542
X-48.533 Y-18.002
X-49.235 Y-17.64
X-50.009 Y-17.52
X-50.754 Y-17.638
X-51.461 Y-17.995
X-52.007 Y-18.542
X-52.36 Y-19.233
X-52.481 Y-20.002
X-52.413 Y-20.419
G3 X-52.172 Y-20.512 R0.15
G1 X-50.747 Y-19.383
G2 X-50.541 Y-19.599 R0.15
G3 X-49.147 Y-20.816 Z-1.254 R0.925
X-50.541 Y-19.599 Z-1.508 R0.925
X-49.147 Y-20.816 Z-1.763 R0.925
X-50.399 Y-19.467 Z-2. R0.925
X-49.601 Y-20.532 R0.665
X-50.399 Y-19.467 R0.665
G2 X-51.539 Y-19.662 R1.266
G3 X-52.413 Y-20.419 R0.679
G1 X-52.356 Y-20.775
X-52.009 Y-21.456
X-51.464 Y-22.002
X-50.774 Y-22.356
X-50.009 Y-22.479
X-49.224 Y-22.355
X-48.539 Y-22.005
X-47.986 Y-21.446
X-47.64 Y-20.767
X-47.519 Y-20.003
X-47.64 Y-19.233
X-47.993 Y-18.542
X-48.533 Y-18.002
X-49.235 Y-17.64
X-50.009 Y-17.52
X-50.754 Y-17.638
X-51.461 Y-17.995
X-52.007 Y-18.542
X-52.36 Y-19.233
X-52.481 Y-20.002
X-52.413 Y-20.419
G3 X-52.172 Y-20.512 R0.15
G1 X-50.747 Y-19.383
G2 X-50.541 Y-19.599 R0.15
G3 X-49.147 Y-20.816 Z-2.254 R0.925
X-50.541 Y-19.599 Z-2.508 R0.925
X-49.147 Y-20.816 Z-2.763 R0.925
X-50.399 Y-19.467 Z-3. R0.925
X-49.601 Y-20.532 R0.665
X-50.399 Y-19.467 R0.665
G2 X-51.539 Y-19.662 R1.266
G3 X-52.413 Y-20.419 R0.679
G1 X-52.356 Y-20.775
X-52.009 Y-21.456
X-51.464 Y-22.002
X-50.774 Y-22.356
X-50.009 Y-22.479
X-49.224 Y-22.355
X-48.539 Y-22.005
X-47.986 Y-21.446
X-47.64 Y-20.767
X-47.519 Y-20.003
X-47.64 Y-19.233
X-47.993 Y-18.542
X-48.533 Y-18.002
X-49.235 Y-17.64
X-50.009 Y-17.52
X-50.754 Y-17.638
X-51.461 Y-17.995
X-52.007 Y-18.542
X-52.36 Y-19.233
X-52.481 Y-20.002
X-52.413 Y-20.419
G3 X-52.172 Y-20.512 R0.15
G1 X-50.747 Y-19.383
G2 X-50.541 Y-19.599 R0.15
G3 X-49.147 Y-20.816 Z-3.254 R0.925
X-50.541 Y-19.599 Z-3.508 R0.925
X-49.147 Y-20.816 Z-3.763 R0.925
X-50.399 Y-19.467 Z-4. R0.925
X-49.601 Y-20.532 R0.665
X-50.399 Y-19.467 R0.665
G2 X-51.539 Y-19.662 R1.266
G3 X-52.413 Y-20.419 R0.679
G1 X-52.356 Y-20.775
X-52.009 Y-21.456
X-51.464 Y-22.002
X-50.774 Y-22.356
X-50.009 Y-22.479
X-49.224 Y-22.355
X-48.539 Y-22.005
X-47.986 Y-21.446
X-47.64 Y-20.767
X-47.519 Y-20.003
X-47.64 Y-19.233
X-47.993 Y-18.542
X-48.533 Y-18.002
X-49.235 Y-17.64
X-50.009 Y-17.52
X-50.754 Y-17.638
X-51.461 Y-17.995
X-52.007 Y-18.542
X-52.36 Y-19.233
X-52.481 Y-20.002
X-52.413 Y-20.419
G3 X-52.172 Y-20.512 R0.15
G1 X-50.747 Y-19.383
G2 X-50.541 Y-19.599 R0.15
G3 X-49.147 Y-20.816 Z-4.254 R0.925
X-50.541 Y-19.599 Z-4.508 R0.925
X-49.147 Y-20.816 Z-4.763 R0.925
X-50.399 Y-19.467 Z-5. R0.925
X-49.601 Y-20.532 R0.665
X-50.399 Y-19.467 R0.665
G2 X-51.539 Y-19.662 R1.266
G3 X-52.413 Y-20.419 R0.679
G1 X-52.356 Y-20.775
X-52.009 Y-21.456
X-51.464 Y-22.002
X-50.774 Y-22.356
X-50.009 Y-22.479
X-49.224 Y-22.355
X-48.539 Y-22.005
X-47.986 Y-21.446
X-47.64 Y-20.767
X-47.519 Y-20.003
X-47.64 Y-19.233
X-47.993 Y-18.542
X-48.533 Y-18.002
X-49.235 Y-17.64
X-50.009 Y-17.52
X-50.754 Y-17.638
X-51.461 Y-17.995
X-52.007 Y-18.542
X-52.36 Y-19.233
X-52.481 Y-20.002
X-52.413 Y-20.419
G3 X-51.465 Y-21.195 Z-5.104 R0.925
G1 X-49.808 Y-21.132 Z-5.232
G3 X-49.88 Y-19.283 Z-5.457 R0.925
X-50.399 Y-19.467 Z-5.5 R0.925
X-49.601 Y-20.532 R0.665
X-50.399 Y-19.467 R0.665
G2 X-51.539 Y-19.662 R1.266
G3 X-52.413 Y-20.419 R0.679
G1 X-52.356 Y-20.775
X-52.009 Y-21.456
X-51.464 Y-22.002
X-50.774 Y-22.356
X-50.009 Y-22.479
X-49.224 Y-22.355
X-48.539 Y-22.005
X-47.986 Y-21.446
X-47.64 Y-20.767
X-47.519 Y-20.003
X-47.64 Y-19.233
X-47.993 Y-18.542
X-48.533 Y-18.002
X-49.235 Y-17.64
X-50.009 Y-17.52
X-50.754 Y-17.638
X-51.461 Y-17.995
X-52.007 Y-18.542
X-52.36 Y-19.233
X-52.481 Y-20.002
X-52.413 Y-20.419
G3 X-52.172 Y-20.512 R0.15
G1 X-50.747 Y-19.383
G2 X-50.541 Y-19.599 R0.15
G3 X-49.147 Y-20.816 Z-5.754 R0.925
X-50.541 Y-19.599 Z-6.008 R0.925
X-49.147 Y-20.816 Z-6.263 R0.925
X-50.399 Y-19.467 Z-6.5 R0.925
X-49.601 Y-20.532 R0.665
X-50.399 Y-19.467 R0.665
G2 X-51.539 Y-19.662 R1.266
G3 X-52.413 Y-20.419 R0.679
G1 X-52.356 Y-20.775
X-52.009 Y-21.456
X-51.464 Y-22.002
X-50.774 Y-22.356
X-50.009 Y-22.479
X-49.224 Y-22.355
X-48.539 Y-22.005
X-47.986 Y-21.446
X-47.64 Y-20.767
X-47.519 Y-20.003
X-47.64 Y-19.233
X-47.993 Y-18.542
X-48.533 Y-18.002
X-49.235 Y-17.64
X-50.009 Y-17.52
X-50.754 Y-17.638
X-51.461 Y-17.995
X-52.007 Y-18.542
X-52.36 Y-19.233
X-52.481 Y-20.002
X-52.413 Y-20.419
G3 X-52.172 Y-20.512 R0.15
G1 X-50.747 Y-19.383
G2 X-50.541 Y-19.599 R0.15
G3 X-49.147 Y-20.816 Z-6.754 R0.925
X-50.541 Y-19.599 Z-7.008 R0.925
X-49.147 Y-20.816 Z-7.263 R0.925
X-50.399 Y-19.467 Z-7.5 R0.925
X-49.601 Y-20.532 R0.665
X-50.399 Y-19.467 R0.665
G2 X-51.539 Y-19.662 R1.266
G3 X-52.413 Y-20.419 R0.679
G1 X-52.356 Y-20.775
X-52.009 Y-21.456
X-51.464 Y-22.002
X-50.774 Y-22.356
X-50.009 Y-22.479
X-49.224 Y-22.355
X-48.539 Y-22.005
X-47.986 Y-21.446
X-47.64 Y-20.767
X-47.519 Y-20.003
X-47.64 Y-19.233
X-47.993 Y-18.542
X-48.533 Y-18.002
X-49.235 Y-17.64
X-50.009 Y-17.52
X-50.754 Y-17.638
X-51.461 Y-17.995
X-52.007 Y-18.542
X-52.36 Y-19.233
X-52.481 Y-20.002
X-52.413 Y-20.419
G3 X-52.172 Y-20.512 R0.15
G1 X-50.747 Y-19.383
G2 X-50.541 Y-19.599 R0.15
G3 X-49.147 Y-20.816 Z-7.754 R0.925
X-50.541 Y-19.599 Z-8.008 R0.925
X-49.147 Y-20.816 Z-8.263 R0.925
X-50.399 Y-19.467 Z-8.5 R0.925
X-49.601 Y-20.532 R0.665
X-50.399 Y-19.467 R0.665
G2 X-51.539 Y-19.662 R1.266
G3 X-52.413 Y-20.419 R0.679
G1 X-52.356 Y-20.775
X-52.009 Y-21.456
X-51.464 Y-22.002
X-50.774 Y-22.356
X-50.009 Y-22.479
X-49.224 Y-22.355
X-48.539 Y-22.005
X-47.986 Y-21.446
X-47.64 Y-20.767
X-47.519 Y-20.003
X-47.64 Y-19.233
X-47.993 Y-18.542
X-48.533 Y-18.002
X-49.235 Y-17.64
X-50.009 Y-17.52
X-50.754 Y-17.638
X-51.461 Y-17.995
X-52.007 Y-18.542
X-52.36 Y-19.233
X-52.481 Y-20.002
X-52.413 Y-20.419
G3 X-52.172 Y-20.512 R0.15
G1 X-50.747 Y-19.383
G2 X-50.541 Y-19.599 R0.15
G3 X-49.147 Y-20.816 Z-8.754 R0.925
X-50.541 Y-19.599 Z-9.008 R0.925
X-49.147 Y-20.816 Z-9.263 R0.925
X-50.399 Y-19.467 Z-9.5 R0.925
X-49.601 Y-20.532 R0.665
X-50.399 Y-19.467 R0.665
G2 X-51.539 Y-19.662 R1.266
G3 X-52.413 Y-20.419 R0.679
G1 X-52.356 Y-20.775
X-52.009 Y-21.456
X-51.464 Y-22.002
X-50.774 Y-22.356
X-50.009 Y-22.479
X-49.224 Y-22.355
X-48.539 Y-22.005
X-47.986 Y-21.446
X-47.64 Y-20.767
X-47.519 Y-20.003
X-47.64 Y-19.233
X-47.993 Y-18.542
X-48.533 Y-18.002
X-49.235 Y-17.64
X-50.009 Y-17.52
X-50.754 Y-17.638
X-51.461 Y-17.995
X-52.007 Y-18.542
X-52.36 Y-19.233
X-52.481 Y-20.002
X-52.413 Y-20.419
G3 X-51.465 Y-21.195 Z-9.604 R0.925
G1 X-49.808 Y-21.132 Z-9.732
G3 X-49.88 Y-19.283 Z-9.957 R0.925
X-50.399 Y-19.467 Z-10. R0.925
X-49.601 Y-20.532 R0.665
X-50.399 Y-19.467 R0.665
G2 X-51.539 Y-19.662 R1.266
G3 X-52.413 Y-20.419 R0.679
G1 X-52.356 Y-20.775
X-52.009 Y-21.456
X-51.464 Y-22.002
X-50.774 Y-22.356
X-50.009 Y-22.479
X-49.224 Y-22.355
X-48.539 Y-22.005
X-47.986 Y-21.446
X-47.64 Y-20.767
X-47.519 Y-20.003
X-47.64 Y-19.233
X-47.993 Y-18.542
X-48.533 Y-18.002
X-49.235 Y-17.64
X-50.009 Y-17.52
X-50.754 Y-17.638
X-51.461 Y-17.995
X-52.007 Y-18.542
X-52.36 Y-19.233
X-52.481 Y-20.002
X-52.413 Y-20.419
G3 X-52.385 Y-20.506 Z-9.985 R0.3
X-52.337 Y-20.575 Z-9.943 R0.3
X-52.287 Y-20.618 Z-9.876 R0.3
X-52.25 Y-20.64 Z-9.793 R0.3
X-52.237 Y-20.646 Z-9.7 R0.3
G0 Z5.
X-9.982 Y-19.293
Z1.349
G3 X-9.994 Y-19.295 Z1.261 R0.925 F720.
X-10.032 Y-19.302 Z1.181 R0.925
X-10.09 Y-19.316 Z1.116 R0.925
X-10.163 Y-19.339 Z1.071 R0.925
X-10.242 Y-19.373 Z1.05 R0.925
X-9.446 Y-21.043 Z0.796 R0.925
X-10.242 Y-19.373 Z0.542 R0.925
X-9.446 Y-21.043 Z0.287 R0.925
X-10.242 Y-19.373 Z0.033 R0.925
X-9.446 Y-21.043 Z-0.221 R0.925
X-10.242 Y-19.373 Z-0.475 R0.925
X-9.446 Y-21.043 Z-0.73 R0.925
X-9.053 Y-19.729 Z-0.865 R0.925
X-10.399 Y-19.468 Z-1. R0.925
X-9.601 Y-20.532 R0.665
X-10.399 Y-19.468 R0.665
G2 X-11.539 Y-19.661 R1.263
G3 X-12.416 Y-20.415 R0.679
G1 X-12.36 Y-20.767
X-12.009 Y-21.455
X-11.449 Y-22.012
X-10.775 Y-22.355
X-10. Y-22.481
X-9.225 Y-22.355
X-8.547 Y-22.01
X-7.992 Y-21.457
X-7.638 Y-20.753
X-7.519 Y-20.003
X-7.639 Y-19.244
X-7.992 Y-18.543
X-8.542 Y-17.992
X-9.231 Y-17.641
X-9.246 Y-17.638
X-9.991 Y-17.52
X-10.09 Y-17.533
X-10.76 Y-17.639
X-11.447 Y-17.987
X-12.005 Y-18.54
X-12.358 Y-19.229
X-12.481 Y-20.004
X-12.416 Y-20.415
G3 X-12.175 Y-20.509 R0.15
G1 X-10.747 Y-19.383
G2 X-10.541 Y-19.599 R0.15
G3 X-9.148 Y-20.816 Z-1.254 R0.925
X-10.541 Y-19.599 Z-1.508 R0.925
X-9.148 Y-20.816 Z-1.763 R0.925
X-10.399 Y-19.468 Z-2. R0.925
X-9.601 Y-20.532 R0.665
X-10.399 Y-19.468 R0.665
G2 X-11.539 Y-19.661 R1.263
G3 X-12.416 Y-20.415 R0.679
G1 X-12.36 Y-20.767
X-12.009 Y-21.455
X-11.449 Y-22.012
X-10.775 Y-22.355
X-10. Y-22.481
X-9.225 Y-22.355
X-8.547 Y-22.01
X-7.992 Y-21.457
X-7.638 Y-20.753
X-7.519 Y-20.003
X-7.639 Y-19.244
X-7.992 Y-18.543
X-8.542 Y-17.992
X-9.231 Y-17.641
X-9.246 Y-17.638
X-9.991 Y-17.52
X-10.09 Y-17.533
X-10.76 Y-17.639
X-11.447 Y-17.987
X-12.005 Y-18.54
X-12.358 Y-19.229
X-12.481 Y-20.004
X-12.416 Y-20.415
G3 X-12.175 Y-20.509 R0.15
G1 X-10.747 Y-19.383
G2 X-10.541 Y-19.599 R0.15
G3 X-9.148 Y-20.816 Z-2.254 R0.925
X-10.541 Y-19.599 Z-2.508 R0.925
X-9.148 Y-20.816 Z-2.763 R0.925
X-10.399 Y-19.468 Z-3. R0.925
X-9.601 Y-20.532 R0.665
X-10.399 Y-19.468 R0.665
G2 X-11.539 Y-19.661 R1.263
G3 X-12.416 Y-20.415 R0.679
G1 X-12.36 Y-20.767
X-12.009 Y-21.455
X-11.449 Y-22.012
X-10.775 Y-22.355
X-10. Y-22.481
X-9.225 Y-22.355
X-8.547 Y-22.01
X-7.992 Y-21.457
X-7.638 Y-20.753
X-7.519 Y-20.003
X-7.639 Y-19.244
X-7.992 Y-18.543
X-8.542 Y-17.992
X-9.231 Y-17.641
X-9.246 Y-17.638
X-9.991 Y-17.52
X-10.09 Y-17.533
X-10.76 Y-17.639
X-11.447 Y-17.987
X-12.005 Y-18.54
X-12.358 Y-19.229
X-12.481 Y-20.004
X-12.416 Y-20.415
G3 X-12.175 Y-20.509 R0.15
G1 X-10.747 Y-19.383
G2 X-10.541 Y-19.599 R0.15
G3 X-9.148 Y-20.816 Z-3.254 R0.925
X-10.541 Y-19.599 Z-3.508 R0.925
X-9.148 Y-20.816 Z-3.763 R0.925
X-10.399 Y-19.468 Z-4. R0.925
X-9.601 Y-20.532 R0.665
X-10.399 Y-19.468 R0.665
G2 X-11.539 Y-19.661 R1.263
G3 X-12.416 Y-20.415 R0.679
G1 X-12.36 Y-20.767
X-12.009 Y-21.455
X-11.449 Y-22.012
X-10.775 Y-22.355
X-10. Y-22.481
X-9.225 Y-22.355
X-8.547 Y-22.01
X-7.992 Y-21.457
X-7.638 Y-20.753
X-7.519 Y-20.003
X-7.639 Y-19.244
X-7.992 Y-18.543
X-8.542 Y-17.992
X-9.231 Y-17.641
X-9.246 Y-17.638
X-9.991 Y-17.52
X-10.09 Y-17.533
X-10.76 Y-17.639
X-11.447 Y-17.987
X-12.005 Y-18.54
X-12.358 Y-19.229
X-12.481 Y-20.004
X-12.416 Y-20.415
G3 X-12.175 Y-20.509 R0.15
G1 X-10.747 Y-19.383
G2 X-10.541 Y-19.599 R0.15
G3 X-9.148 Y-20.816 Z-4.254 R0.925
X-10.541 Y-19.599 Z-4.508 R0.925
X-9.148 Y-20.816 Z-4.763 R0.925
X-10.399 Y-19.468 Z-5. R0.925
X-9.601 Y-20.532 R0.665
X-10.399 Y-19.468 R0.665
G2 X-11.539 Y-19.661 R1.263
G3 X-12.416 Y-20.415 R0.679
G1 X-12.36 Y-20.767
X-12.009 Y-21.455
X-11.449 Y-22.012
X-10.775 Y-22.355
X-10. Y-22.481
X-9.225 Y-22.355
X-8.547 Y-22.01
X-7.992 Y-21.457
X-7.638 Y-20.753
X-7.519 Y-20.003
X-7.639 Y-19.244
X-7.992 Y-18.543
X-8.542 Y-17.992
X-9.231 Y-17.641
X-9.246 Y-17.638
X-9.991 Y-17.52
X-10.09 Y-17.533
X-10.76 Y-17.639
X-11.447 Y-17.987
X-12.005 Y-18.54
X-12.358 Y-19.229
X-12.481 Y-20.004
X-12.416 Y-20.415
G3 X-11.467 Y-21.194 Z-5.104 R0.925
G1 X-9.81 Y-21.132 Z-5.232
G3 X-9.879 Y-19.283 Z-5.457 R0.925
X-10.399 Y-19.468 Z-5.5 R0.925
X-9.601 Y-20.532 R0.665
X-10.399 Y-19.468 R0.665
G2 X-11.539 Y-19.661 R1.263
G3 X-12.416 Y-20.415 R0.679
G1 X-12.36 Y-20.767
X-12.009 Y-21.455
X-11.449 Y-22.012
X-10.775 Y-22.355
X-10. Y-22.481
X-9.225 Y-22.355
X-8.547 Y-22.01
X-7.992 Y-21.457
X-7.638 Y-20.753
X-7.519 Y-20.003
X-7.639 Y-19.244
X-7.992 Y-18.543
X-8.542 Y-17.992
X-9.231 Y-17.641
X-9.246 Y-17.638
X-9.991 Y-17.52
X-10.09 Y-17.533
X-10.76 Y-17.639
X-11.447 Y-17.987
X-12.005 Y-18.54
X-12.358 Y-19.229
X-12.481 Y-20.004
X-12.416 Y-20.415
G3 X-12.175 Y-20.509 R0.15
G1 X-10.747 Y-19.383
G2 X-10.541 Y-19.599 R0.15
G3 X-9.148 Y-20.816 Z-5.754 R0.925
X-10.541 Y-19.599 Z-6.008 R0.925
X-9.148 Y-20.816 Z-6.263 R0.925
X-10.399 Y-19.468 Z-6.5 R0.925
X-9.601 Y-20.532 R0.665
X-10.399 Y-19.468 R0.665
G2 X-11.539 Y-19.661 R1.263
G3 X-12.416 Y-20.415 R0.679
G1 X-12.36 Y-20.767
X-12.009 Y-21.455
X-11.449 Y-22.012
X-10.775 Y-22.355
X-10. Y-22.481
X-9.225 Y-22.355
X-8.547 Y-22.01
X-7.992 Y-21.457
X-7.638 Y-20.753
X-7.519 Y-20.003
X-7.639 Y-19.244
X-7.992 Y-18.543
X-8.542 Y-17.992
X-9.231 Y-17.641
X-9.246 Y-17.638
X-9.991 Y-17.52
X-10.09 Y-17.533
X-10.76 Y-17.639
X-11.447 Y-17.987
X-12.005 Y-18.54
X-12.358 Y-19.229
X-12.481 Y-20.004
X-12.416 Y-20.415
G3 X-12.175 Y-20.509 R0.15
G1 X-10.747 Y-19.383
G2 X-10.541 Y-19.599 R0.15
G3 X-9.148 Y-20.816 Z-6.754 R0.925
X-10.541 Y-19.599 Z-7.008 R0.925
X-9.148 Y-20.816 Z-7.263 R0.925
X-10.399 Y-19.468 Z-7.5 R0.925
X-9.601 Y-20.532 R0.665
X-10.399 Y-19.468 R0.665
G2 X-11.539 Y-19.661 R1.263
G3 X-12.416 Y-20.415 R0.679
G1 X-12.36 Y-20.767
X-12.009 Y-21.455
X-11.449 Y-22.012
X-10.775 Y-22.355
X-10. Y-22.481
X-9.225 Y-22.355
X-8.547 Y-22.01
X-7.992 Y-21.457
X-7.638 Y-20.753
X-7.519 Y-20.003
X-7.639 Y-19.244
X-7.992 Y-18.543
X-8.542 Y-17.992
X-9.231 Y-17.641
X-9.246 Y-17.638
X-9.991 Y-17.52
X-10.09 Y-17.533
X-10.76 Y-17.639
X-11.447 Y-17.987
X-12.005 Y-18.54
X-12.358 Y-19.229
X-12.481 Y-20.004
X-12.416 Y-20.415
G3 X-12.175 Y-20.509 R0.15
G1 X-10.747 Y-19.383
G2 X-10.541 Y-19.599 R0.15
G3 X-9.148 Y-20.816 Z-7.754 R0.925
X-10.541 Y-19.599 Z-8.008 R0.925
X-9.148 Y-20.816 Z-8.263 R0.925
X-10.399 Y-19.468 Z-8.5 R0.925
X-9.601 Y-20.532 R0.665
X-10.399 Y-19.468 R0.665
G2 X-11.539 Y-19.661 R1.263
G3 X-12.416 Y-20.415 R0.679
G1 X-12.36 Y-20.767
X-12.009 Y-21.455
X-11.449 Y-22.012
X-10.775 Y-22.355
X-10. Y-22.481
X-9.225 Y-22.355
X-8.547 Y-22.01
X-7.992 Y-21.457
X-7.638 Y-20.753
X-7.519 Y-20.003
X-7.639 Y-19.244
X-7.992 Y-18.543
X-8.542 Y-17.992
X-9.231 Y-17.641
X-9.246 Y-17.638
X-9.991 Y-17.52
X-10.09 Y-17.533
X-10.76 Y-17.639
X-11.447 Y-17.987
X-12.005 Y-18.54
X-12.358 Y-19.229
X-12.481 Y-20.004
X-12.416 Y-20.415
G3 X-12.238 Y-20.538 R0.15
G1 X-9.472 Y-19.986
G3 X-9.355 Y-19.808 R0.15
X-11.164 Y-20.193 Z-8.754 R0.925
X-9.355 Y-19.808 Z-9.008 R0.925
X-11.164 Y-20.193 Z-9.263 R0.925
X-9.335 Y-20. Z-9.5 R0.925
X-10.666 R0.665
X-9.335 R0.665
G2 X-8.805 Y-18.969 R1.269
G3 X-8.893 Y-17.814 R0.678
G1 X-9.231 Y-17.641
X-9.246 Y-17.638
X-9.991 Y-17.52
X-10.09 Y-17.533
X-10.76 Y-17.639
X-11.447 Y-17.987
X-12.005 Y-18.54
X-12.358 Y-19.229
X-12.481 Y-20.004
X-12.36 Y-20.767
X-12.009 Y-21.455
X-11.449 Y-22.012
X-10.775 Y-22.355
X-10. Y-22.481
X-9.225 Y-22.355
X-8.547 Y-22.01
X-7.992 Y-21.457
X-7.638 Y-20.753
X-7.519 Y-20.003
X-7.639 Y-19.244
X-7.992 Y-18.543
X-8.542 Y-17.992
X-8.893 Y-17.814
G3 X-10.189 Y-18.341 Z-9.593 R0.925
G1 X-10.721 Y-19.911 Z-9.691
G3 X-8.968 Y-20.504 Z-9.862 R0.925
X-10.399 Y-19.468 Z-10. R0.925
X-9.601 Y-20.532 R0.665
X-10.399 Y-19.468 R0.665
G2 X-11.539 Y-19.661 R1.263
G3 X-12.416 Y-20.415 R0.679
G1 X-12.36 Y-20.767
X-12.009 Y-21.455
X-11.449 Y-22.012
X-10.775 Y-22.355
X-10. Y-22.481
X-9.225 Y-22.355
X-8.547 Y-22.01
X-7.992 Y-21.457
X-7.638 Y-20.753
X-7.519 Y-20.003
X-7.639 Y-19.244
X-7.992 Y-18.543
X-8.542 Y-17.992
X-9.231 Y-17.641
X-9.246 Y-17.638
X-9.991 Y-17.52
X-10.09 Y-17.533
X-10.76 Y-17.639
X-11.447 Y-17.987
X-12.005 Y-18.54
X-12.358 Y-19.229
X-12.481 Y-20.004
X-12.416 Y-20.415
G3 X-12.387 Y-20.503 Z-9.985 R0.3
X-12.34 Y-20.571 Z-9.943 R0.3
X-12.29 Y-20.615 Z-9.876 R0.3
X-12.253 Y-20.636 Z-9.793 R0.3
X-12.24 Y-20.642 Z-9.7 R0.3
G0 Z5.
X53.133 Y-6.94
Z1.349
G3 X53.14 Y-6.928 Z1.261 R0.925 F720.
X53.157 Y-6.894 Z1.181 R0.925
X53.18 Y-6.839 Z1.116 R0.925
X53.205 Y-6.767 Z1.071 R0.925
X53.226 Y-6.683 Z1.05 R0.925
X51.413 Y-6.318 Z0.796 R0.925
X53.226 Y-6.683 Z0.542 R0.925
X51.413 Y-6.318 Z0.287 R0.925
X53.226 Y-6.683 Z0.033 R0.925
X51.413 Y-6.318 Z-0.221 R0.925
X53.226 Y-6.683 Z-0.475 R0.925
X51.413 Y-6.318 Z-0.73 R0.925
X52.228 Y-7.421 Z-0.865 R0.925
X53.244 Y-6.5 Z-1. R0.925
X52.756 R0.244
X53.244 R0.244
G2 X53.964 Y-5.118 R1.688
G3 X53.6 Y-3.603 R0.837
G1 X52.989 Y-3.517
X52.175 Y-3.634
X51.394 Y-3.986
X50.75 Y-4.541
X50.282 Y-5.273
X50.046 Y-6.091
Y-6.924
X50.188 Y-7.409
X50.283 Y-7.731
X50.324 Y-7.8
X50.736 Y-8.442
X51.387 Y-9.011
X52.175 Y-9.366
X52.995 Y-9.484
X53.839 Y-9.364
X53.847 Y-9.361
X54.61 Y-9.013
X54.631 Y-8.996
X55.256 Y-8.454
X55.715 Y-7.74
X55.954 Y-6.925
Y-6.091
X55.718 Y-5.272
X55.26 Y-4.552
X54.613 Y-3.989
X53.842 Y-3.637
X53.6 Y-3.603
G3 X53.429 Y-3.757 R0.15
G1 X53.521 Y-6.271
G2 X53.224 Y-6.308 R0.15
G3 X51.415 Y-6.693 Z-1.254 R0.925
X53.224 Y-6.308 Z-1.508 R0.925
X51.415 Y-6.693 Z-1.763 R0.925
X53.244 Y-6.5 Z-2. R0.925
X52.756 R0.244
X53.244 R0.244
G2 X53.964 Y-5.118 R1.688
G3 X53.6 Y-3.603 R0.837
G1 X52.989 Y-3.517
X52.175 Y-3.634
X51.394 Y-3.986
X50.75 Y-4.541
X50.282 Y-5.273
X50.046 Y-6.091
Y-6.924
X50.188 Y-7.409
X50.283 Y-7.731
X50.324 Y-7.8
X50.736 Y-8.442
X51.387 Y-9.011
X52.175 Y-9.366
X52.995 Y-9.484
X53.839 Y-9.364
X53.847 Y-9.361
X54.61 Y-9.013
X54.631 Y-8.996
X55.256 Y-8.454
X55.715 Y-7.74
X55.954 Y-6.925
Y-6.091
X55.718 Y-5.272
X55.26 Y-4.552
X54.613 Y-3.989
X53.842 Y-3.637
X53.6 Y-3.603
G3 X53.429 Y-3.757 R0.15
G1 X53.521 Y-6.271
G2 X53.224 Y-6.308 R0.15
G3 X51.415 Y-6.693 Z-2.254 R0.925
X53.224 Y-6.308 Z-2.508 R0.925
X51.415 Y-6.693 Z-2.763 R0.925
X53.244 Y-6.5 Z-3. R0.925
X52.756 R0.244
X53.244 R0.244
G2 X53.964 Y-5.118 R1.688
G3 X53.6 Y-3.603 R0.837
G1 X52.989 Y-3.517
X52.175 Y-3.634
X51.394 Y-3.986
X50.75 Y-4.541
X50.282 Y-5.273
X50.046 Y-6.091
Y-6.924
X50.188 Y-7.409
X50.283 Y-7.731
X50.324 Y-7.8
X50.736 Y-8.442
X51.387 Y-9.011
X52.175 Y-9.366
X52.995 Y-9.484
X53.839 Y-9.364
X53.847 Y-9.361
X54.61 Y-9.013
X54.631 Y-8.996
X55.256 Y-8.454
X55.715 Y-7.74
X55.954 Y-6.925
Y-6.091
X55.718 Y-5.272
X55.26 Y-4.552
X54.613 Y-3.989
X53.842 Y-3.637
X53.6 Y-3.603
G3 X53.429 Y-3.757 R0.15
G1 X53.521 Y-6.271
G2 X53.224 Y-6.308 R0.15
G3 X51.415 Y-6.693 Z-3.254 R0.925
X53.224 Y-6.308 Z-3.508 R0.925
X51.415 Y-6.693 Z-3.763 R0.925
X53.244 Y-6.5 Z-4. R0.925
X52.756 R0.244
X53.244 R0.244
G2 X53.964 Y-5.118 R1.688
G3 X53.6 Y-3.603 R0.837
G1 X52.989 Y-3.517
X52.175 Y-3.634
X51.394 Y-3.986
X50.75 Y-4.541
X50.282 Y-5.273
X50.046 Y-6.091
Y-6.924
X50.188 Y-7.409
X50.283 Y-7.731
X50.324 Y-7.8
X50.736 Y-8.442
X51.387 Y-9.011
X52.175 Y-9.366
X52.995 Y-9.484
X53.839 Y-9.364
X53.847 Y-9.361
X54.61 Y-9.013
X54.631 Y-8.996
X55.256 Y-8.454
X55.715 Y-7.74
X55.954 Y-6.925
Y-6.091
X55.718 Y-5.272
X55.26 Y-4.552
X54.613 Y-3.989
X53.842 Y-3.637
X53.6 Y-3.603
G3 X53.429 Y-3.757 R0.15
G1 X53.521 Y-6.271
G2 X53.224 Y-6.308 R0.15
G3 X51.415 Y-6.693 Z-4.254 R0.925
X53.224 Y-6.308 Z-4.508 R0.925
X51.415 Y-6.693 Z-4.763 R0.925
X53.244 Y-6.5 Z-5. R0.925
X52.756 R0.244
X53.244 R0.244
G2 X53.964 Y-5.118 R1.688
G3 X53.6 Y-3.603 R0.837
G1 X52.989 Y-3.517
X52.175 Y-3.634
X51.394 Y-3.986
X50.75 Y-4.541
X50.282 Y-5.273
X50.046 Y-6.091
Y-6.924
X50.188 Y-7.409
X50.283 Y-7.731
X50.324 Y-7.8
X50.736 Y-8.442
X51.387 Y-9.011
X52.175 Y-9.366
X52.995 Y-9.484
X53.839 Y-9.364
X53.847 Y-9.361
X54.61 Y-9.013
X54.631 Y-8.996
X55.256 Y-8.454
X55.715 Y-7.74
X55.954 Y-6.925
Y-6.091
X55.718 Y-5.272
X55.26 Y-4.552
X54.613 Y-3.989
X53.842 Y-3.637
X53.6 Y-3.603
G3 X52.672 Y-4.054 Z-5.081 R0.925
G1 X51.52 Y-6.036 Z-5.25
G3 X53.119 Y-6.965 Z-5.464 R0.925
X53.244 Y-6.5 Z-5.5 R0.925
X52.756 R0.244
X53.244 R0.244
G2 X53.964 Y-5.118 R1.688
G3 X53.6 Y-3.603 R0.837
G1 X52.989 Y-3.517
X52.175 Y-3.634
X51.394 Y-3.986
X50.75 Y-4.541
X50.282 Y-5.273
X50.046 Y-6.091
Y-6.924
X50.188 Y-7.409
X50.283 Y-7.731
X50.324 Y-7.8
X50.736 Y-8.442
X51.387 Y-9.011
X52.175 Y-9.366
X52.995 Y-9.484
X53.839 Y-9.364
X53.847 Y-9.361
X54.61 Y-9.013
X54.631 Y-8.996
X55.256 Y-8.454
X55.715 Y-7.74
X55.954 Y-6.925
Y-6.091
X55.718 Y-5.272
X55.26 Y-4.552
X54.613 Y-3.989
X53.842 Y-3.637
X53.6 Y-3.603
G3 X53.429 Y-3.763 R0.15
G1 X53.65 Y-6.51
G3 X53.95 Y-6.497 R0.15
X52.1 Y-6.513 Z-5.754 R0.925
X53.95 Y-6.497 Z-6.008 R0.925
X52.1 Y-6.513 Z-6.263 R0.925
X53.931 Y-6.69 Z-6.5 R0.925
G1 X53.97 Y-6.498
X53.897 Y-6.129
X53.686 Y-5.814
X53.372 Y-5.604
X52.995 Y-5.53
X52.632 Y-5.603
X52.313 Y-5.814
X52.106 Y-6.124
X52.09 Y-6.195
X52.03 Y-6.499
X52.105 Y-6.875
X52.262 Y-7.108
X52.314 Y-7.186
X52.623 Y-7.393
X52.997 Y-7.469
X53.372 Y-7.396
X53.686 Y-7.186
X53.893 Y-6.877
X53.931 Y-6.69
X53.95 Y-6.497
G3 X52.1 Y-6.513 Z-6.754 R0.925
X53.95 Y-6.497 Z-7.008 R0.925
X52.1 Y-6.513 Z-7.263 R0.925
X53.931 Y-6.69 Z-7.5 R0.925
G1 X53.97 Y-6.498
X53.897 Y-6.129
X53.686 Y-5.814
X53.372 Y-5.604
X52.995 Y-5.53
X52.632 Y-5.603
X52.313 Y-5.814
X52.106 Y-6.124
X52.09 Y-6.195
X52.03 Y-6.499
X52.105 Y-6.875
X52.262 Y-7.108
X52.314 Y-7.186
X52.623 Y-7.393
X52.997 Y-7.469
X53.372 Y-7.396
X53.686 Y-7.186
X53.893 Y-6.877
X53.931 Y-6.69
X53.95 Y-6.497
G3 X52.1 Y-6.513 Z-7.754 R0.925
X53.95 Y-6.497 Z-8.008 R0.925
X52.1 Y-6.513 Z-8.263 R0.925
X53.931 Y-6.69 Z-8.5 R0.925
G1 X53.97 Y-6.498
X53.897 Y-6.129
X53.686 Y-5.814
X53.372 Y-5.604
X52.995 Y-5.53
X52.632 Y-5.603
X52.313 Y-5.814
X52.106 Y-6.124
X52.09 Y-6.195
X52.03 Y-6.499
X52.105 Y-6.875
X52.262 Y-7.108
X52.314 Y-7.186
X52.623 Y-7.393
X52.997 Y-7.469
X53.372 Y-7.396
X53.686 Y-7.186
X53.893 Y-6.877
X53.931 Y-6.69
X53.95 Y-6.497
G3 X52.1 Y-6.513 Z-8.754 R0.925
X53.95 Y-6.497 Z-9.008 R0.925
X52.1 Y-6.513 Z-9.263 R0.925
X53.931 Y-6.69 Z-9.5 R0.925
G1 X53.97 Y-6.498
X53.897 Y-6.129
X53.686 Y-5.814
X53.372 Y-5.604
X52.995 Y-5.53
X52.632 Y-5.603
X52.313 Y-5.814
X52.106 Y-6.124
X52.09 Y-6.195
X52.03 Y-6.499
X52.105 Y-6.875
X52.262 Y-7.108
X52.314 Y-7.186
X52.623 Y-7.393
X52.997 Y-7.469
X53.372 Y-7.396
X53.686 Y-7.186
X53.893 Y-6.877
X53.931 Y-6.69
G3 X52.119 Y-6.32 Z-9.75 R0.925
X53.931 Y-6.69 Z-10. R0.925
G1 X53.97 Y-6.498
X53.897 Y-6.129
X53.686 Y-5.814
X53.372 Y-5.604
X52.995 Y-5.53
X52.632 Y-5.603
X52.313 Y-5.814
X52.106 Y-6.124
X52.09 Y-6.195
X52.03 Y-6.499
X52.105 Y-6.875
X52.262 Y-7.108
X52.314 Y-7.186
X52.623 Y-7.393
X52.997 Y-7.469
X53.372 Y-7.396
X53.686 Y-7.186
X53.893 Y-6.877
X53.931 Y-6.69
G3 X53.936 Y-6.598 Z-9.985 R0.3
X53.915 Y-6.517 Z-9.943 R0.3
X53.884 Y-6.458 Z-9.876 R0.3
X53.857 Y-6.425 Z-9.793 R0.3
X53.847 Y-6.415 Z-9.7 R0.3
G0 Z5.
X53.133 Y6.061
Z1.349
G3 X53.14 Y6.073 Z1.261 R0.925 F720.
X53.157 Y6.107 Z1.181 R0.925
X53.18 Y6.162 Z1.116 R0.925
X53.205 Y6.234 Z1.071 R0.925
X53.226 Y6.318 Z1.05 R0.925
X51.413 Y6.683 Z0.796 R0.925
X53.226 Y6.318 Z0.542 R0.925
X51.413 Y6.683 Z0.287 R0.925
X53.226 Y6.318 Z0.033 R0.925
X51.413 Y6.683 Z-0.221 R0.925
X53.226 Y6.318 Z-0.475 R0.925
X51.413 Y6.683 Z-0.73 R0.925
X52.228 Y5.58 Z-0.865 R0.925
X53.244 Y6.5 Z-1. R0.925
X52.756 R0.244
X53.244 R0.244
G2 X53.964 Y7.882 R1.688
G3 X53.601 Y9.398 R0.838
G1 X52.995 Y9.484
X52.175 Y9.366
X51.387 Y9.011
X50.736 Y8.442
X50.285 Y7.74
X50.046 Y6.925
Y6.09
X50.189 Y5.588
X50.281 Y5.274
X50.75 Y4.541
X51.394 Y3.986
X52.175 Y3.634
X52.989 Y3.517
X53.84 Y3.636
X53.846 Y3.639
X54.613 Y3.989
X55.26 Y4.552
X55.718 Y5.272
X55.954 Y6.091
Y6.924
X55.715 Y7.74
X55.258 Y8.451
X55.243 Y8.466
X54.614 Y9.011
X53.841 Y9.363
X53.601 Y9.398
G3 X53.43 Y9.244 R0.15
G1 X53.521 Y6.729
G2 X53.224 Y6.693 R0.15
G3 X51.415 Y6.308 Z-1.254 R0.925
X53.224 Y6.693 Z-1.508 R0.925
X51.415 Y6.308 Z-1.763 R0.925
X53.244 Y6.5 Z-2. R0.925
X52.756 R0.244
X53.244 R0.244
G2 X53.964 Y7.882 R1.688
G3 X53.601 Y9.398 R0.838
G1 X52.995 Y9.484
X52.175 Y9.366
X51.387 Y9.011
X50.736 Y8.442
X50.285 Y7.74
X50.046 Y6.925
Y6.09
X50.189 Y5.588
X50.281 Y5.274
X50.75 Y4.541
X51.394 Y3.986
X52.175 Y3.634
X52.989 Y3.517
X53.84 Y3.636
X53.846 Y3.639
X54.613 Y3.989
X55.26 Y4.552
X55.718 Y5.272
X55.954 Y6.091
Y6.924
X55.715 Y7.74
X55.258 Y8.451
X55.243 Y8.466
X54.614 Y9.011
X53.841 Y9.363
X53.601 Y9.398
G3 X53.43 Y9.244 R0.15
G1 X53.521 Y6.729
G2 X53.224 Y6.693 R0.15
G3 X51.415 Y6.308 Z-2.254 R0.925
X53.224 Y6.693 Z-2.508 R0.925
X51.415 Y6.308 Z-2.763 R0.925
X53.244 Y6.5 Z-3. R0.925
X52.756 R0.244
X53.244 R0.244
G2 X53.964 Y7.882 R1.688
G3 X53.601 Y9.398 R0.838
G1 X52.995 Y9.484
X52.175 Y9.366
X51.387 Y9.011
X50.736 Y8.442
X50.285 Y7.74
X50.046 Y6.925
Y6.09
X50.189 Y5.588
X50.281 Y5.274
X50.75 Y4.541
X51.394 Y3.986
X52.175 Y3.634
X52.989 Y3.517
X53.84 Y3.636
X53.846 Y3.639
X54.613 Y3.989
X55.26 Y4.552
X55.718 Y5.272
X55.954 Y6.091
Y6.924
X55.715 Y7.74
X55.258 Y8.451
X55.243 Y8.466
X54.614 Y9.011
X53.841 Y9.363
X53.601 Y9.398
G3 X53.43 Y9.244 R0.15
G1 X53.521 Y6.729
G2 X53.224 Y6.693 R0.15
G3 X51.415 Y6.308 Z-3.254 R0.925
X53.224 Y6.693 Z-3.508 R0.925
X51.415 Y6.308 Z-3.763 R0.925
X53.244 Y6.5 Z-4. R0.925
X52.756 R0.244
X53.244 R0.244
G2 X53.964 Y7.882 R1.688
G3 X53.601 Y9.398 R0.838
G1 X52.995 Y9.484
X52.175 Y9.366
X51.387 Y9.011
X50.736 Y8.442
X50.285 Y7.74
X50.046 Y6.925
Y6.09
X50.189 Y5.588
X50.281 Y5.274
X50.75 Y4.541
X51.394 Y3.986
X52.175 Y3.634
X52.989 Y3.517
X53.84 Y3.636
X53.846 Y3.639
X54.613 Y3.989
X55.26 Y4.552
X55.718 Y5.272
X55.954 Y6.091
Y6.924
X55.715 Y7.74
X55.258 Y8.451
X55.243 Y8.466
X54.614 Y9.011
X53.841 Y9.363
X53.601 Y9.398
G3 X53.434 Y9.287 R0.15
G1 X52.744 Y6.625
G2 X52.712 Y6.564 R0.15
G3 X54.106 Y5.347 Z-4.254 R0.925
X52.712 Y6.564 Z-4.508 R0.925
X54.106 Y5.347 Z-4.763 R0.925
X52.854 Y6.696 Z-5. R0.925
X53.147 Y6.305 R0.244
X52.854 Y6.696 R0.244
G2 X51.365 Y6.102 R3.073
G3 X50.678 Y4.653 R0.945
G1 X50.75 Y4.541
X51.394 Y3.986
X52.175 Y3.634
X52.989 Y3.517
X53.84 Y3.636
X53.846 Y3.639
X54.613 Y3.989
X55.26 Y4.552
X55.718 Y5.272
X55.954 Y6.091
Y6.924
X55.715 Y7.74
X55.258 Y8.451
X55.243 Y8.466
X54.614 Y9.011
X53.841 Y9.363
X52.995 Y9.484
X52.175 Y9.366
X51.387 Y9.011
X50.736 Y8.442
X50.285 Y7.74
X50.046 Y6.925
Y6.09
X50.189 Y5.588
X50.281 Y5.274
X50.678 Y4.653
G3 X51.797 Y4.306 Z-5.098 R0.908
G1 X53.752 Y5.132 Z-5.262
G3 X54.186 Y6.422 Z-5.381 R0.908
X52.854 Y6.696 Z-5.5 R0.908
X53.147 Y6.305 R0.244
X52.854 Y6.696 R0.244
G2 X51.365 Y6.102 R3.073
G3 X50.678 Y4.653 R0.945
G1 X50.75 Y4.541
X51.394 Y3.986
X52.175 Y3.634
X52.989 Y3.517
X53.84 Y3.636
X53.846 Y3.639
X54.613 Y3.989
X55.26 Y4.552
X55.718 Y5.272
X55.954 Y6.091
Y6.924
X55.715 Y7.74
X55.258 Y8.451
X55.243 Y8.466
X54.614 Y9.011
X53.841 Y9.363
X52.995 Y9.484
X52.175 Y9.366
X51.387 Y9.011
X50.736 Y8.442
X50.285 Y7.74
X50.046 Y6.925
Y6.09
X50.189 Y5.588
X50.281 Y5.274
X50.678 Y4.653
G3 X50.891 Y4.612 R0.15
G1 X53.822 Y6.692
G3 X53.873 Y6.874 R0.15
X52.177 Y6.135 Z-5.754 R0.925
X53.873 Y6.874 Z-6.008 R0.925
X52.177 Y6.135 Z-6.263 R0.925
X53.931 Y6.69 Z-6.5 R0.925
G1 X53.893 Y6.877
X53.686 Y7.186
X53.372 Y7.396
X52.997 Y7.469
X52.623 Y7.393
X52.314 Y7.186
X52.105 Y6.875
X52.03 Y6.499
X52.103 Y6.129
X52.262 Y5.892
X52.313 Y5.814
X52.632 Y5.603
X52.995 Y5.53
X53.372 Y5.604
X53.686 Y5.814
X53.895 Y6.126
X53.905 Y6.169
X53.97 Y6.498
X53.931 Y6.69
X53.873 Y6.874
G3 X52.177 Y6.135 Z-6.754 R0.925
X53.873 Y6.874 Z-7.008 R0.925
X52.177 Y6.135 Z-7.263 R0.925
X53.931 Y6.69 Z-7.5 R0.925
G1 X53.893 Y6.877
X53.686 Y7.186
X53.372 Y7.396
X52.997 Y7.469
X52.623 Y7.393
X52.314 Y7.186
X52.105 Y6.875
X52.03 Y6.499
X52.103 Y6.129
X52.262 Y5.892
X52.313 Y5.814
X52.632 Y5.603
X52.995 Y5.53
X53.372 Y5.604
X53.686 Y5.814
X53.895 Y6.126
X53.905 Y6.169
X53.97 Y6.498
X53.931 Y6.69
X53.873 Y6.874
G3 X52.177 Y6.135 Z-7.754 R0.925
X53.873 Y6.874 Z-8.008 R0.925
X52.177 Y6.135 Z-8.263 R0.925
X53.931 Y6.69 Z-8.5 R0.925
G1 X53.893 Y6.877
X53.686 Y7.186
X53.372 Y7.396
X52.997 Y7.469
X52.623 Y7.393
X52.314 Y7.186
X52.105 Y6.875
X52.03 Y6.499
X52.103 Y6.129
X52.262 Y5.892
X52.313 Y5.814
X52.632 Y5.603
X52.995 Y5.53
X53.372 Y5.604
X53.686 Y5.814
X53.895 Y6.126
X53.905 Y6.169
X53.97 Y6.498
X53.931 Y6.69
X53.873 Y6.874
G3 X52.177 Y6.135 Z-8.754 R0.925
X53.873 Y6.874 Z-9.008 R0.925
X52.177 Y6.135 Z-9.263 R0.925
X53.931 Y6.69 Z-9.5 R0.925
G1 X53.893 Y6.877
X53.686 Y7.186
X53.372 Y7.396
X52.997 Y7.469
X52.623 Y7.393
X52.314 Y7.186
X52.105 Y6.875
X52.03 Y6.499
X52.103 Y6.129
X52.262 Y5.892
X52.313 Y5.814
X52.632 Y5.603
X52.995 Y5.53
X53.372 Y5.604
X53.686 Y5.814
X53.895 Y6.126
X53.905 Y6.169
X53.97 Y6.498
X53.931 Y6.69
G3 X52.119 Y6.32 Z-9.75 R0.925
X53.931 Y6.69 Z-10. R0.925
G1 X53.893 Y6.877
X53.686 Y7.186
X53.372 Y7.396
X52.997 Y7.469
X52.623 Y7.393
X52.314 Y7.186
X52.105 Y6.875
X52.03 Y6.499
X52.103 Y6.129
X52.262 Y5.892
X52.313 Y5.814
X52.632 Y5.603
X52.995 Y5.53
X53.372 Y5.604
X53.686 Y5.814
X53.895 Y6.126
X53.905 Y6.169
X53.97 Y6.498
X53.931 Y6.69
G3 X53.899 Y6.776 Z-9.985 R0.3
X53.849 Y6.843 Z-9.943 R0.3
X53.797 Y6.884 Z-9.876 R0.3
X53.759 Y6.904 Z-9.793 R0.3
X53.746 Y6.91 Z-9.7 R0.3
G0 Z10.

(2D ADAPTIVE1)
M8
G0 X61.861 Y-29.1
Z10.
Z5.
Z2.845
G1 Z2.545 F720.
G3 X62.139 Y-29.904 Z2.428 R0.425
X61.861 Y-29.1 Z2.311 R0.425
X62.139 Y-29.904 Z2.195 R0.425
X61.861 Y-29.1 Z2.078 R0.425
X62.139 Y-29.904 Z1.961 R0.425
X61.861 Y-29.1 Z1.844 R0.425
X62.139 Y-29.904 Z1.727 R0.425
X61.861 Y-29.1 Z1.61 R0.425
X62.139 Y-29.904 Z1.494 R0.425
X61.861 Y-29.1 Z1.377 R0.425
X62.139 Y-29.904 Z1.26 R0.425
X61.861 Y-29.1 Z1.143 R0.425
X62.139 Y-29.904 Z1.026 R0.425
X61.861 Y-29.1 Z0.91 R0.425
X62.139 Y-29.904 Z0.793 R0.425
X61.861 Y-29.1 Z0.676 R0.425
X62.139 Y-29.904 Z0.559 R0.425
X61.861 Y-29.1 Z0.442 R0.425
X62.139 Y-29.904 Z0.326 R0.425
X61.861 Y-29.1 Z0.209 R0.425
X62.139 Y-29.904 Z0.092 R0.425
X61.861 Y-29.1 Z-0.025 R0.425
X62.139 Y-29.904 Z-0.142 R0.425
X61.861 Y-29.1 Z-0.259 R0.425
X62.139 Y-29.904 Z-0.375 R0.425
X61.861 Y-29.1 Z-0.492 R0.425
X62.139 Y-29.904 Z-0.609 R0.425
X61.861 Y-29.1 Z-0.726 R0.425
X62.139 Y-29.904 Z-0.843 R0.425
X61.861 Y-29.1 Z-0.959 R0.425
X62.139 Y-29.904 Z-1.076 R0.425
X61.861 Y-29.1 Z-1.193 R0.425
X62.139 Y-29.904 Z-1.31 R0.425
X61.861 Y-29.1 Z-1.427 R0.425
X62.139 Y-29.904 Z-1.543 R0.425
X61.861 Y-29.1 Z-1.66 R0.425
X62.139 Y-29.904 Z-1.777 R0.425
X61.861 Y-29.1 Z-1.894 R0.425
X62.139 Y-29.904 Z-2.011 R0.425
X61.861 Y-29.1 Z-2.128 R0.425
X62.139 Y-29.904 Z-2.244 R0.425
X61.861 Y-29.1 Z-2.361 R0.425
X62.139 Y-29.904 Z-2.478 R0.425
X61.861 Y-29.1 Z-2.595 R0.425
X62.139 Y-29.904 Z-2.712 R0.425
X61.861 Y-29.1 Z-2.828 R0.425
X62.139 Y-29.904 Z-2.945 R0.425
X61.861 Y-29.1 Z-3.062 R0.425
X62.139 Y-29.904 Z-3.179 R0.425
X61.861 Y-29.1 Z-3.296 R0.425
X62.139 Y-29.904 Z-3.412 R0.425
X61.861 Y-29.1 Z-3.529 R0.425
X62.139 Y-29.904 Z-3.646 R0.425
X61.861 Y-29.1 Z-3.763 R0.425
X62.139 Y-29.904 Z-3.88 R0.425
X61.861 Y-29.1 Z-3.997 R0.425
X62.139 Y-29.904 Z-4.113 R0.425
X61.861 Y-29.1 Z-4.23 R0.425
X62.139 Y-29.904 Z-4.347 R0.425
X61.861 Y-29.1 Z-4.464 R0.425
X62.139 Y-29.904 Z-4.581 R0.425
X61.861 Y-29.1 Z-4.697 R0.425
X62.139 Y-29.904 Z-4.814 R0.425
X61.861 Y-29.1 Z-4.931 R0.425
X62.139 Y-29.904 Z-5.048 R0.425
X61.861 Y-29.1 Z-5.165 R0.425
X62.139 Y-29.904 Z-5.281 R0.425
X61.861 Y-29.1 Z-5.398 R0.425
X62.139 Y-29.904 Z-5.515 R0.425
X61.861 Y-29.1 Z-5.632 R0.425
X62.139 Y-29.904 Z-5.749 R0.425
X61.861 Y-29.1 Z-5.866 R0.425
X62.139 Y-29.904 Z-5.982 R0.425
X61.861 Y-29.1 Z-6.099 R0.425
X62.139 Y-29.904 Z-6.216 R0.425
X61.861 Y-29.1 Z-6.333 R0.425
X62.139 Y-29.904 Z-6.45 R0.425
X61.861 Y-29.1 Z-6.566 R0.425
X62.139 Y-29.904 Z-6.683 R0.425
X61.861 Y-29.1 Z-6.8 R0.425
X62.139 Y-29.904 Z-6.917 R0.425
X61.861 Y-29.1 Z-7.034 R0.425
X62.139 Y-29.904 Z-7.15 R0.425
X61.861 Y-29.1 Z-7.267 R0.425
X62.139 Y-29.904 Z-7.384 R0.425
X61.861 Y-29.1 Z-7.501 R0.425
X62.139 Y-29.904 Z-7.618 R0.425
X61.861 Y-29.1 Z-7.735 R0.425
X62.139 Y-29.904 Z-7.851 R0.425
X61.861 Y-29.1 Z-7.968 R0.425
X62.139 Y-29.904 Z-8.085 R0.425
X61.861 Y-29.1 Z-8.202 R0.425
X62.139 Y-29.904 Z-8.319 R0.425
X61.861 Y-29.1 Z-8.435 R0.425
X62.139 Y-29.904 Z-8.552 R0.425
X61.861 Y-29.1 Z-8.669 R0.425
X62.139 Y-29.904 Z-8.786 R0.425
X61.861 Y-29.1 Z-8.903 R0.425
X62.139 Y-29.904 Z-9.019 R0.425
X61.861 Y-29.1 Z-9.136 R0.425
X62.139 Y-29.904 Z-9.253 R0.425
X61.861 Y-29.1 Z-9.37 R0.425
X62.139 Y-29.904 Z-9.487 R0.425
X61.861 Y-29.1 Z-9.604 R0.425
X62.139 Y-29.904 Z-9.72 R0.425
X61.861 Y-29.1 Z-9.837 R0.425
X62.139 Y-29.904 Z-9.954 R0.425
X62.425 Y-29.502 Z-10. R0.425
X61.575 R0.425
X62.425 R0.425
G1 X62.451 Y-29.202
X62.452 Y-29.067
X62.404 Y-28.941
X62.321 Y-28.834
X62.215 Y-28.751
X62.093 Y-28.692
X61.962 Y-28.66
X61.827 Y-28.653
X61.694 Y-28.67
X61.565 Y-28.71
X61.381 Y-28.844
X61.252 Y-29.032
X61.192 Y-29.251
X61.207 Y-29.478
X61.295 Y-29.688
X61.448 Y-29.857
X61.648 Y-29.966
X61.872 Y-30.004
X62.217 Y-30.002
X62.311 Y-29.977
X62.39 Y-29.925
X62.459 Y-29.843
X62.493 Y-29.756
X62.5 Y-29.521
Y-28.808
X62.493 Y-28.673
X62.446 Y-28.546
X62.372 Y-28.434
X62.278 Y-28.337
X62.168 Y-28.258
X62.048 Y-28.197
X61.92 Y-28.155
X61.777 Y-28.132
X61.564 Y-28.156
X61.368 Y-28.245
X61.208 Y-28.388
X61.039 Y-28.58
X60.984 Y-28.627
X60.887 Y-28.72
X60.8 Y-28.824
X60.729 Y-28.939
X60.664 Y-29.103
X60.634 Y-29.318
X60.672 Y-29.531
X60.773 Y-29.722
X60.927 Y-29.874
X61.121 Y-29.971
X61.334 Y-30.004
X61.872
G3 X62.142 Y-29.809 R0.3
G1 X62.474 Y-28.922
X62.481 Y-28.902
G3 X62.5 Y-28.808 R0.3
G1 Y-28.338
X62.493 Y-28.203
X62.452 Y-28.074
X62.333 Y-27.924
X62.174 Y-27.818
X61.99 Y-27.766
X61.798 Y-27.774
X61.619 Y-27.84
X61.468 Y-27.959
X61.362 Y-28.118
G3 X61.321 Y-28.329 R0.518
X62.5 Y-28.338 R0.59
G1 Y-27.907
X62.493 Y-27.772
X62.446 Y-27.646
X62.321 Y-27.518
X62.161 Y-27.437
X61.984 Y-27.412
X61.808 Y-27.444
X61.652 Y-27.532
X61.532 Y-27.664
X61.461 Y-27.828
G3 X61.454 Y-27.921 R0.341
X61.456 Y-27.946 R0.524
X62.5 Y-27.907 R0.524
G1 Y-27.531
X62.493 Y-27.396
X62.44 Y-27.272
X62.305 Y-27.149
X62.136 Y-27.08
X61.954 Y-27.072
X61.78 Y-27.127
X61.635 Y-27.238
X61.536 Y-27.392
X61.496 Y-27.57
G3 X61.503 Y-27.632 R0.25
X62.5 Y-27.531 R0.506
G1 Y-27.194
X62.493 Y-27.059
X62.443 Y-26.934
X62.362 Y-26.826
X62.188 Y-26.733
X61.992 Y-26.711
X61.801 Y-26.762
X61.642 Y-26.879
X61.537 Y-27.046
X61.5 Y-27.24
X61.496 Y-27.57
G3 X61.686 Y-27.814 R0.248
X62.5 Y-27.194 R0.661
G1 Y-26.79
X62.493 Y-26.656
X62.431 Y-26.536
X62.287 Y-26.424
X62.113 Y-26.367
X61.93 Y-26.372
X61.76 Y-26.438
X61.621 Y-26.557
X61.531 Y-26.716
X61.5 Y-26.896
Y-27.24
G3 X61.725 Y-27.477 R0.246
X62.5 Y-26.79 R0.714
G1 Y-26.455
X62.493 Y-26.32
X62.434 Y-26.199
X62.346 Y-26.096
X62.17 Y-26.014
X61.977 Y-26.
X61.79 Y-26.056
X61.637 Y-26.174
X61.535 Y-26.34
X61.5 Y-26.531
Y-26.896
G3 X61.72 Y-27.133 R0.246
X62.5 Y-26.455 R0.706
G1 Y-26.118
X62.493 Y-25.983
X62.441 Y-25.859
X62.358 Y-25.752
X62.184 Y-25.662
X61.988 Y-25.641
X61.798 Y-25.693
X61.641 Y-25.811
X61.536 Y-25.978
X61.5 Y-26.171
Y-26.531
G3 X61.705 Y-26.766 R0.247
X62.5 Y-26.118 R0.681
G1 Y-25.755
X62.493 Y-25.62
X62.439 Y-25.497
X62.355 Y-25.391
X62.181 Y-25.301
X61.986 Y-25.282
X61.797 Y-25.334
X61.64 Y-25.451
X61.536 Y-25.618
X61.5 Y-25.81
Y-26.171
G3 X61.706 Y-26.406 R0.247
X62.5 Y-25.755 R0.683
G1 Y-25.379
X62.493 Y-25.244
X62.435 Y-25.122
X62.348 Y-25.019
X62.173 Y-24.934
X61.979 Y-24.917
X61.792 Y-24.972
X61.638 Y-25.09
X61.536 Y-25.255
X61.5 Y-25.446
Y-25.81
G3 X61.715 Y-26.046 R0.246
X62.5 Y-25.379 R0.697
G1 Y-25.009
X62.493 Y-24.874
X62.433 Y-24.753
X62.345 Y-24.651
X62.17 Y-24.567
X61.977 Y-24.552
X61.791 Y-24.607
X61.637 Y-24.725
X61.535 Y-24.89
X61.5 Y-25.081
Y-25.446
G3 X61.718 Y-25.683 R0.246
X62.486 Y-25.126 R0.703
X62.5 Y-25.009 R0.703
G1 Y-24.639
X62.493 Y-24.504
X62.432 Y-24.383
X62.344 Y-24.282
X62.168 Y-24.199
X61.975 Y-24.185
X61.79 Y-24.241
X61.636 Y-24.359
X61.535 Y-24.524
X61.5 Y-24.715
Y-25.081
G3 X61.721 Y-25.318 R0.246
X62.5 Y-24.639 R0.707
G1 Y-24.276
X62.493 Y-24.141
X62.433 Y-24.02
X62.345 Y-23.918
X62.17 Y-23.834
X61.977 Y-23.819
X61.791 Y-23.874
X61.637 Y-23.993
X61.535 Y-24.158
X61.5 Y-24.349
Y-24.715
G3 X61.719 Y-24.951 R0.246
X62.486 Y-24.393 R0.704
X62.5 Y-24.276 R0.704
G1 Y-23.933
X62.493 Y-23.798
X62.439 Y-23.674
X62.356 Y-23.568
X62.181 Y-23.479
X61.986 Y-23.459
X61.797 Y-23.512
X61.64 Y-23.63
X61.536 Y-23.796
X61.5 Y-23.989
Y-24.349
G3 X61.707 Y-24.584 R0.247
X62.5 Y-23.933 R0.684
G1 Y-23.563
X62.493 Y-23.428
X62.436 Y-23.305
X62.351 Y-23.201
X62.176 Y-23.115
X61.981 Y-23.097
X61.794 Y-23.151
X61.638 Y-23.268
X61.536 Y-23.434
X61.5 Y-23.626
Y-23.989
G3 X61.712 Y-24.224 R0.246
X62.486 Y-23.679 R0.693
X62.5 Y-23.563 R0.693
G1 Y-23.2
X62.493 Y-23.065
X62.436 Y-22.943
X62.35 Y-22.838
X62.176 Y-22.752
X61.981 Y-22.734
X61.794 Y-22.788
X61.638 Y-22.906
X61.536 Y-23.072
X61.5 Y-23.263
Y-23.626
G3 X61.712 Y-23.861 R0.246
X62.5 Y-23.2 R0.692
G1 Y-22.824
X62.493 Y-22.689
X62.433 Y-22.568
X62.344 Y-22.466
X62.169 Y-22.383
X61.976 Y-22.368
X61.79 Y-22.423
X61.636 Y-22.542
X61.535 Y-22.707
X61.5 Y-22.898
Y-23.263
G3 X61.72 Y-23.5 R0.246
X62.5 Y-22.824 R0.705
G1 Y-22.487
X62.493 Y-22.352
X62.441 Y-22.227
X62.358 Y-22.121
X62.184 Y-22.03
X61.988 Y-22.01
X61.798 Y-22.061
X61.641 Y-22.179
X61.536 Y-22.346
X61.5 Y-22.539
Y-22.898
G3 X61.704 Y-23.132 R0.247
X62.5 Y-22.487 R0.679
G1 Y-22.124
X62.493 Y-21.989
X62.439 Y-21.865
X62.356 Y-21.759
X62.181 Y-21.67
X61.986 Y-21.65
X61.797 Y-21.702
X61.64 Y-21.819
X61.536 Y-21.986
X61.5 Y-22.179
Y-22.539
G3 X61.706 Y-22.774 R0.247
X62.5 Y-22.124 R0.683
G1 Y-21.748
X62.493 Y-21.613
X62.435 Y-21.491
X62.348 Y-21.388
X62.173 Y-21.302
X61.979 Y-21.286
X61.792 Y-21.34
X61.638 Y-21.458
X61.536 Y-21.624
X61.5 Y-21.815
Y-22.179
G3 X61.715 Y-22.414 R0.246
X62.5 Y-21.748 R0.697
G1 Y-21.377
X62.493 Y-21.243
X62.434 Y-21.121
X62.346 Y-21.019
X62.17 Y-20.935
X61.977 Y-20.92
X61.791 Y-20.975
X61.637 Y-21.093
X61.535 Y-21.259
X61.5 Y-21.45
Y-21.815
G3 X61.718 Y-22.051 R0.246
X62.486 Y-21.494 R0.703
X62.5 Y-21.377 R0.703
G1 Y-21.007
X62.493 Y-20.872
X62.432 Y-20.752
X62.344 Y-20.65
X62.168 Y-20.568
X61.975 Y-20.553
X61.79 Y-20.609
X61.636 Y-20.727
X61.535 Y-20.893
X61.5 Y-21.083
Y-21.45
G3 X61.721 Y-21.686 R0.246
X62.486 Y-21.124 R0.707
X62.5 Y-21.007 R0.707
G1 Y-20.644
X62.493 Y-20.51
X62.433 Y-20.389
X62.345 Y-20.286
X62.17 Y-20.203
X61.977 Y-20.188
X61.791 Y-20.243
X61.637 Y-20.361
X61.535 Y-20.527
X61.5 Y-20.717
Y-21.083
G3 X61.719 Y-21.319 R0.246
X62.5 Y-20.644 R0.704
G1 Y-20.301
X62.493 Y-20.167
X62.439 Y-20.043
X62.356 Y-19.937
X62.181 Y-19.848
X61.986 Y-19.828
X61.797 Y-19.881
X61.64 Y-19.998
X61.536 Y-20.165
X61.5 Y-20.357
Y-20.717
G3 X61.707 Y-20.952 R0.247
X62.5 Y-20.301 R0.684
G1 Y-19.931
X62.493 Y-19.796
X62.437 Y-19.674
X62.351 Y-19.57
X62.176 Y-19.483
X61.982 Y-19.466
X61.794 Y-19.519
X61.638 Y-19.637
X61.536 Y-19.803
X61.5 Y-19.994
Y-20.357
G3 X61.712 Y-20.593 R0.246
X62.5 Y-19.931 R0.692
G1 Y-19.568
X62.493 Y-19.434
X62.436 Y-19.311
X62.351 Y-19.207
X62.176 Y-19.121
X61.981 Y-19.103
X61.794 Y-19.157
X61.638 Y-19.274
X61.536 Y-19.44
X61.5 Y-19.632
Y-19.994
G3 X61.712 Y-20.23 R0.246
X62.5 Y-19.568 R0.692
G1 Y-19.192
X62.493 Y-19.057
X62.433 Y-18.937
X62.344 Y-18.835
X62.169 Y-18.752
X61.976 Y-18.737
X61.79 Y-18.792
X61.637 Y-18.91
X61.535 Y-19.075
X61.5 Y-19.266
Y-19.632
G3 X61.72 Y-19.868 R0.246
X62.5 Y-19.192 R0.705
G1 Y-18.855
X62.493 Y-18.72
X62.441 Y-18.596
X62.358 Y-18.489
X62.184 Y-18.399
X61.988 Y-18.378
X61.798 Y-18.43
X61.641 Y-18.547
X61.536 Y-18.714
X61.5 Y-18.908
Y-19.266
G3 X61.704 Y-19.5 R0.247
X62.5 Y-18.855 R0.679
G1 Y-18.492
X62.493 Y-18.358
X62.439 Y-18.234
X62.356 Y-18.128
X62.181 Y-18.039
X61.986 Y-18.019
X61.797 Y-18.071
X61.64 Y-18.188
X61.536 Y-18.354
X61.5 Y-18.547
Y-18.908
G3 X61.706 Y-19.142 R0.247
X62.5 Y-18.492 R0.683
G1 Y-18.116
X62.493 Y-17.981
X62.435 Y-17.86
X62.348 Y-17.756
X62.173 Y-17.671
X61.979 Y-17.654
X61.792 Y-17.709
X61.638 Y-17.826
X61.536 Y-17.992
X61.5 Y-18.183
Y-18.547
G3 X61.715 Y-18.783 R0.246
X62.5 Y-18.116 R0.697
G1 Y-17.746
X62.493 Y-17.611
X62.434 Y-17.49
X62.346 Y-17.388
X62.17 Y-17.304
X61.977 Y-17.289
X61.791 Y-17.344
X61.637 Y-17.462
X61.535 Y-17.627
X61.5 Y-17.818
Y-18.183
G3 X61.718 Y-18.42 R0.246
X62.486 Y-17.863 R0.703
X62.5 Y-17.746 R0.703
G1 Y-17.376
X62.493 Y-17.241
X62.432 Y-17.12
X62.344 Y-17.019
X62.168 Y-16.936
X61.975 Y-16.922
X61.79 Y-16.978
X61.636 Y-17.096
X61.535 Y-17.261
X61.5 Y-17.452
Y-17.818
G3 X61.721 Y-18.055 R0.246
X62.5 Y-17.376 R0.707
G1 Y-17.013
X62.493 Y-16.878
X62.433 Y-16.757
X62.345 Y-16.655
X62.17 Y-16.571
X61.977 Y-16.556
X61.791 Y-16.612
X61.637 Y-16.73
X61.535 Y-16.895
X61.5 Y-17.086
Y-17.452
G3 X61.719 Y-17.688 R0.246
X62.5 Y-17.013 R0.704
G1 Y-16.67
X62.493 Y-16.535
X62.439 Y-16.411
X62.356 Y-16.305
X62.181 Y-16.216
X61.986 Y-16.197
X61.797 Y-16.249
X61.64 Y-16.367
X61.536 Y-16.533
X61.5 Y-16.726
Y-17.086
G3 X61.707 Y-17.321 R0.247
X62.5 Y-16.67 R0.684
G1 Y-16.3
X62.493 Y-16.165
X62.437 Y-16.043
X62.351 Y-15.938
X62.176 Y-15.852
X61.982 Y-15.834
X61.794 Y-15.888
X61.638 Y-16.005
X61.536 Y-16.171
X61.5 Y-16.363
Y-16.726
G3 X61.712 Y-16.962 R0.246
X62.5 Y-16.3 R0.692
G1 Y-15.937
X62.493 Y-15.802
X62.436 Y-15.68
X62.351 Y-15.576
X62.176 Y-15.489
X61.981 Y-15.472
X61.794 Y-15.525
X61.638 Y-15.643
X61.536 Y-15.809
X61.5 Y-16.001
Y-16.363
G3 X61.712 Y-16.599 R0.246
X62.5 Y-15.937 R0.692
G1 Y-15.561
X62.493 Y-15.426
X62.433 Y-15.305
X62.344 Y-15.203
X62.169 Y-15.12
X61.976 Y-15.105
X61.79 Y-15.161
X61.637 Y-15.279
X61.535 Y-15.444
X61.5 Y-15.635
Y-16.001
G3 X61.72 Y-16.237 R0.246
X62.5 Y-15.561 R0.705
G1 Y-15.224
X62.493 Y-15.089
X62.441 Y-14.965
X62.358 Y-14.858
X62.184 Y-14.767
X61.988 Y-14.747
X61.798 Y-14.799
X61.641 Y-14.916
X61.536 Y-15.083
X61.5 Y-15.276
Y-15.635
G3 X61.704 Y-15.869 R0.247
X62.5 Y-15.224 R0.679
G1 Y-14.861
X62.493 Y-14.726
X62.439 Y-14.602
X62.356 Y-14.497
X62.181 Y-14.407
X61.986 Y-14.387
X61.797 Y-14.439
X61.64 Y-14.557
X61.536 Y-14.723
X61.5 Y-14.916
Y-15.276
G3 X61.706 Y-15.511 R0.247
X62.5 Y-14.861 R0.683
G1 Y-14.485
X62.493 Y-14.35
X62.435 Y-14.228
X62.348 Y-14.125
X62.173 Y-14.04
X61.979 Y-14.023
X61.792 Y-14.077
X61.638 Y-14.195
X61.536 Y-14.361
X61.5 Y-14.552
Y-14.916
G3 X61.715 Y-15.152 R0.246
X62.5 Y-14.485 R0.697
G1 Y-14.115
X62.493 Y-13.98
X62.434 Y-13.859
X62.346 Y-13.756
X62.17 Y-13.673
X61.977 Y-13.657
X61.791 Y-13.712
X61.637 Y-13.831
X61.535 Y-13.996
X61.5 Y-14.187
Y-14.552
G3 X61.718 Y-14.788 R0.246
X62.486 Y-14.232 R0.703
X62.5 Y-14.115 R0.703
G1 Y-13.744
X62.493 Y-13.61
X62.432 Y-13.489
X62.344 Y-13.387
X62.168 Y-13.305
X61.975 Y-13.291
X61.79 Y-13.346
X61.636 Y-13.465
X61.535 Y-13.63
X61.5 Y-13.82
Y-14.187
G3 X61.721 Y-14.423 R0.246
X62.5 Y-13.744 R0.707
G1 Y-13.382
X62.493 Y-13.247
X62.433 Y-13.126
X62.345 Y-13.023
X62.17 Y-12.94
X61.977 Y-12.925
X61.791 Y-12.98
X61.637 Y-13.098
X61.535 Y-13.264
X61.5 Y-13.455
Y-13.82
G3 X61.719 Y-14.057 R0.246
X62.5 Y-13.382 R0.704
G1 Y-13.039
X62.493 Y-12.904
X62.439 Y-12.78
X62.356 Y-12.674
X62.181 Y-12.585
X61.986 Y-12.565
X61.797 Y-12.618
X61.64 Y-12.735
X61.536 Y-12.902
X61.5 Y-13.095
Y-13.455
G3 X61.707 Y-13.689 R0.247
X62.5 Y-13.039 R0.684
G1 Y-12.668
X62.493 Y-12.534
X62.437 Y-12.411
X62.351 Y-12.307
X62.176 Y-12.22
X61.982 Y-12.203
X61.794 Y-12.256
X61.638 Y-12.374
X61.536 Y-12.54
X61.5 Y-12.732
Y-13.095
G3 X61.712 Y-13.33 R0.246
X62.5 Y-12.668 R0.692
G1 Y-12.306
X62.493 Y-12.171
X62.436 Y-12.048
X62.351 Y-11.944
X62.176 Y-11.858
X61.981 Y-11.84
X61.794 Y-11.894
X61.638 Y-12.012
X61.536 Y-12.178
X61.5 Y-12.369
Y-12.732
G3 X61.712 Y-12.967 R0.246
X62.5 Y-12.306 R0.692
G1 Y-11.929
X62.493 Y-11.795
X62.433 Y-11.674
X62.344 Y-11.572
X62.169 Y-11.489
X61.976 Y-11.474
X61.79 Y-11.529
X61.637 Y-11.647
X61.535 Y-11.813
X61.5 Y-12.003
Y-12.369
G3 X61.72 Y-12.606 R0.246
X62.5 Y-11.929 R0.705
G1 Y-11.593
X62.493 Y-11.458
X62.441 Y-11.333
X62.358 Y-11.226
X62.184 Y-11.136
X61.988 Y-11.115
X61.798 Y-11.167
X61.641 Y-11.285
X61.536 Y-11.451
X61.5 Y-11.645
Y-12.003
G3 X61.704 Y-12.238 R0.247
X62.5 Y-11.593 R0.679
G1 Y-11.23
X62.493 Y-11.095
X62.439 Y-10.971
X62.356 Y-10.865
X62.181 Y-10.776
X61.986 Y-10.756
X61.797 Y-10.808
X61.64 Y-10.925
X61.536 Y-11.092
X61.5 Y-11.284
Y-11.645
G3 X61.706 Y-11.879 R0.247
X62.5 Y-11.23 R0.683
G1 Y-10.853
X62.493 Y-10.719
X62.435 Y-10.597
X62.348 Y-10.494
X62.173 Y-10.408
X61.979 Y-10.392
X61.792 Y-10.446
X61.638 Y-10.564
X61.536 Y-10.729
X61.5 Y-10.921
Y-11.284
G3 X61.715 Y-11.52 R0.246
X62.5 Y-10.853 R0.697
G1 Y-10.483
X62.493 Y-10.348
X62.434 Y-10.227
X62.346 Y-10.125
X62.17 Y-10.041
X61.977 Y-10.026
X61.791 Y-10.081
X61.637 Y-10.199
X61.535 Y-10.365
X61.5 Y-10.556
Y-10.921
G3 X61.718 Y-11.157 R0.246
X62.486 Y-10.6 R0.703
X62.5 Y-10.483 R0.703
G1 Y-10.113
X62.493 Y-9.978
X62.432 Y-9.858
X62.344 Y-9.756
X62.168 Y-9.674
X61.975 Y-9.659
X61.79 Y-9.715
X61.636 Y-9.833
X61.535 Y-9.999
X61.5 Y-10.189
Y-10.556
G3 X61.721 Y-10.792 R0.246
X62.5 Y-10.113 R0.707
G1 Y-9.75
X62.493 Y-9.615
X62.433 Y-9.494
X62.345 Y-9.392
X62.17 Y-9.309
X61.977 Y-9.294
X61.791 Y-9.349
X61.637 Y-9.467
X61.535 Y-9.633
X61.5 Y-9.823
Y-10.189
G3 X61.719 Y-10.425 R0.246
X62.5 Y-9.75 R0.704
G1 Y-9.407
X62.493 Y-9.272
X62.439 Y-9.149
X62.356 Y-9.043
X62.181 Y-8.954
X61.986 Y-8.934
X61.797 Y-8.986
X61.64 Y-9.104
X61.536 Y-9.271
X61.5 Y-9.463
Y-9.823
G3 X61.707 Y-10.058 R0.247
X62.5 Y-9.407 R0.684
G1 Y-9.037
X62.493 Y-8.902
X62.437 Y-8.78
X62.351 Y-8.676
X62.176 Y-8.589
X61.982 Y-8.571
X61.794 Y-8.625
X61.638 Y-8.743
X61.536 Y-8.909
X61.5 Y-9.1
Y-9.463
G3 X61.712 Y-9.699 R0.246
X62.5 Y-9.037 R0.692
G1 Y-8.674
X62.493 Y-8.539
X62.436 Y-8.417
X62.351 Y-8.313
X62.176 Y-8.226
X61.981 Y-8.209
X61.794 Y-8.262
X61.638 Y-8.38
X61.536 Y-8.546
X61.5 Y-8.738
Y-9.1
G3 X61.712 Y-9.336 R0.246
X62.5 Y-8.674 R0.692
G1 Y-8.298
X62.493 Y-8.163
X62.433 Y-8.042
X62.344 Y-7.941
X62.169 Y-7.857
X61.976 Y-7.843
X61.79 Y-7.898
X61.637 Y-8.016
X61.535 Y-8.181
X61.5 Y-8.372
Y-8.738
G3 X61.72 Y-8.974 R0.246
X62.5 Y-8.298 R0.705
G1 Y-7.961
X62.493 Y-7.826
X62.441 Y-7.702
X62.358 Y-7.595
X62.184 Y-7.505
X61.988 Y-7.484
X61.798 Y-7.536
X61.641 Y-7.653
X61.536 Y-7.82
X61.5 Y-8.013
Y-8.372
G3 X61.704 Y-8.606 R0.247
X62.5 Y-7.961 R0.679
G1 Y-7.598
X62.493 Y-7.464
X62.439 Y-7.34
X62.356 Y-7.234
X62.181 Y-7.144
X61.986 Y-7.124
X61.797 Y-7.177
X61.64 Y-7.294
X61.536 Y-7.46
X61.5 Y-7.653
Y-8.013
G3 X61.706 Y-8.248 R0.247
X62.5 Y-7.598 R0.683
G1 Y-7.222
X62.493 Y-7.087
X62.435 Y-6.965
X62.348 Y-6.862
X62.173 Y-6.777
X61.979 Y-6.76
X61.792 Y-6.815
X61.638 Y-6.932
X61.536 Y-7.098
X61.5 Y-7.289
Y-7.653
G3 X61.715 Y-7.889 R0.246
X62.5 Y-7.222 R0.697
G1 Y-6.852
X62.493 Y-6.717
X62.434 Y-6.596
X62.346 Y-6.494
X62.17 Y-6.41
X61.977 Y-6.395
X61.791 Y-6.45
X61.637 Y-6.568
X61.535 Y-6.733
X61.5 Y-6.924
Y-7.289
G3 X61.718 Y-7.525 R0.246
X62.486 Y-6.969 R0.703
X62.5 Y-6.852 R0.703
G1 Y-6.482
X62.493 Y-6.347
X62.432 Y-6.226
X62.344 Y-6.125
X62.168 Y-6.042
X61.975 Y-6.028
X61.79 Y-6.084
X61.636 Y-6.202
X61.535 Y-6.367
X61.5 Y-6.558
Y-6.924
G3 X61.721 Y-7.161 R0.246
X62.5 Y-6.482 R0.707
G1 Y-6.119
X62.493 Y-5.984
X62.433 Y-5.863
X62.345 Y-5.761
X62.17 Y-5.677
X61.977 Y-5.662
X61.791 Y-5.717
X61.637 Y-5.836
X61.535 Y-6.001
X61.5 Y-6.192
Y-6.558
G3 X61.719 Y-6.794 R0.246
X62.5 Y-6.119 R0.704
G1 Y-5.776
X62.493 Y-5.641
X62.439 Y-5.517
X62.356 Y-5.411
X62.181 Y-5.322
X61.986 Y-5.303
X61.797 Y-5.355
X61.64 Y-5.473
X61.536 Y-5.639
X61.5 Y-5.832
Y-6.192
G3 X61.707 Y-6.427 R0.247
X62.5 Y-5.776 R0.684
G1 Y-5.406
X62.493 Y-5.271
X62.437 Y-5.148
X62.351 Y-5.044
X62.176 Y-4.958
X61.982 Y-4.94
X61.794 Y-4.994
X61.638 Y-5.111
X61.536 Y-5.277
X61.5 Y-5.469
Y-5.832
G3 X61.712 Y-6.067 R0.246
X62.5 Y-5.406 R0.692
G1 Y-5.043
X62.493 Y-4.908
X62.436 Y-4.786
X62.351 Y-4.682
X62.176 Y-4.595
X61.981 Y-4.577
X61.794 Y-4.631
X61.638 Y-4.749
X61.536 Y-4.915
X61.5 Y-5.107
Y-5.469
G3 X61.712 Y-5.704 R0.246
X62.5 Y-5.043 R0.692
G1 Y-4.667
X62.493 Y-4.532
X62.433 Y-4.411
X62.344 Y-4.309
X62.169 Y-4.226
X61.976 Y-4.211
X61.79 Y-4.266
X61.637 Y-4.385
X61.535 Y-4.55
X61.5 Y-4.741
Y-5.107
G3 X61.72 Y-5.343 R0.246
X62.5 Y-4.667 R0.705
G1 Y-4.33
X62.493 Y-4.195
X62.441 Y-4.071
X62.358 Y-3.964
X62.184 Y-3.873
X61.988 Y-3.853
X61.798 Y-3.905
X61.641 Y-4.022
X61.536 Y-4.189
X61.5 Y-4.382
Y-4.741
G3 X61.704 Y-4.975 R0.247
X62.5 Y-4.33 R0.679
G1 Y-3.967
X62.493 Y-3.832
X62.439 Y-3.708
X62.356 Y-3.603
X62.181 Y-3.513
X61.986 Y-3.493
X61.797 Y-3.545
X61.64 Y-3.663
X61.536 Y-3.829
X61.5 Y-4.022
Y-4.382
G3 X61.706 Y-4.617 R0.247
X62.5 Y-3.967 R0.683
G1 Y-3.591
X62.493 Y-3.456
X62.435 Y-3.334
X62.348 Y-3.231
X62.173 Y-3.146
X61.979 Y-3.129
X61.792 Y-3.183
X61.638 Y-3.301
X61.536 Y-3.467
X61.5 Y-3.658
Y-4.022
G3 X61.715 Y-4.257 R0.246
X62.5 Y-3.591 R0.697
G1 Y-3.221
X62.493 Y-3.086
X62.434 Y-2.965
X62.346 Y-2.862
X62.17 Y-2.779
X61.977 Y-2.763
X61.791 Y-2.818
X61.637 Y-2.936
X61.535 Y-3.102
X61.5 Y-3.293
Y-3.658
G3 X61.718 Y-3.894 R0.246
X62.486 Y-3.337 R0.703
X62.5 Y-3.221 R0.703
G1 Y-2.85
X62.493 Y-2.716
X62.432 Y-2.595
X62.344 Y-2.493
X62.168 Y-2.411
X61.975 Y-2.396
X61.79 Y-2.452
X61.636 Y-2.57
X61.535 Y-2.736
X61.5 Y-2.926
Y-3.293
G3 X61.721 Y-3.529 R0.246
X62.5 Y-2.85 R0.707
G1 Y-2.488
X62.493 Y-2.353
X62.433 Y-2.232
X62.345 Y-2.129
X62.17 Y-2.046
X61.977 Y-2.031
X61.791 Y-2.086
X61.637 Y-2.204
X61.535 Y-2.37
X61.5 Y-2.561
Y-2.926
G3 X61.719 Y-3.162 R0.246
X62.5 Y-2.488 R0.704
G1 Y-2.145
X62.493 Y-2.01
X62.439 Y-1.886
X62.356 Y-1.78
X62.181 Y-1.691
X61.986 Y-1.671
X61.797 Y-1.724
X61.64 Y-1.841
X61.536 Y-2.008
X61.5 Y-2.201
Y-2.561
G3 X61.707 Y-2.795 R0.247
X62.5 Y-2.145 R0.684
G1 Y-1.774
X62.493 Y-1.64
X62.437 Y-1.517
X62.351 Y-1.413
X62.176 Y-1.326
X61.982 Y-1.309
X61.794 Y-1.362
X61.638 Y-1.48
X61.536 Y-1.646
X61.5 Y-1.838
Y-2.201
G3 X61.712 Y-2.436 R0.246
X62.5 Y-1.774 R0.692
G1 Y-1.412
X62.493 Y-1.277
X62.436 Y-1.154
X62.351 Y-1.05
X62.176 Y-0.964
X61.981 Y-0.946
X61.794 Y-1.
X61.638 Y-1.117
X61.536 Y-1.283
X61.5 Y-1.475
Y-1.838
G3 X61.712 Y-2.073 R0.246
X62.5 Y-1.412 R0.692
G1 Y-1.035
X62.493 Y-0.901
X62.433 Y-0.78
X62.344 Y-0.678
X62.169 Y-0.595
X61.976 Y-0.58
X61.79 Y-0.635
X61.637 Y-0.753
X61.535 Y-0.919
X61.5 Y-1.109
Y-1.475
G3 X61.72 Y-1.711 R0.246
X62.5 Y-1.035 R0.705
G1 Y-0.698
X62.493 Y-0.564
X62.441 Y-0.439
X62.358 Y-0.332
X62.184 Y-0.242
X61.988 Y-0.221
X61.798 Y-0.273
X61.641 Y-0.391
X61.536 Y-0.557
X61.5 Y-0.751
Y-1.109
G3 X61.704 Y-1.344 R0.247
X62.5 Y-0.698 R0.679
G1 Y-0.336
X62.493 Y-0.201
X62.439 Y-0.077
X62.356 Y0.029
X62.181 Y0.118
X61.986 Y0.138
X61.797 Y0.086
X61.64 Y-0.031
X61.536 Y-0.198
X61.5 Y-0.39
Y-0.751
G3 X61.706 Y-0.985 R0.247
X62.5 Y-0.336 R0.683
G1 Y0.041
X62.493 Y0.175
X62.435 Y0.297
X62.348 Y0.4
X62.173 Y0.486
X61.979 Y0.502
X61.792 Y0.448
X61.638 Y0.33
X61.536 Y0.165
X61.5 Y-0.027
Y-0.39
G3 X61.715 Y-0.626 R0.246
X62.5 Y0.041 R0.697
G1 Y0.411
X62.493 Y0.546
X62.434 Y0.667
X62.346 Y0.769
X62.17 Y0.853
X61.977 Y0.868
X61.791 Y0.813
X61.637 Y0.695
X61.535 Y0.529
X61.5 Y0.339
Y-0.027
G3 X61.718 Y-0.263 R0.246
X62.486 Y0.294 R0.703
X62.5 Y0.411 R0.703
G1 Y0.781
X62.493 Y0.916
X62.432 Y1.036
X62.344 Y1.138
X62.168 Y1.221
X61.975 Y1.235
X61.79 Y1.179
X61.636 Y1.061
X61.535 Y0.896
X61.5 Y0.705
Y0.339
G3 X61.721 Y0.102 R0.246
X62.5 Y0.781 R0.707
G1 Y1.144
X62.493 Y1.279
X62.433 Y1.4
X62.345 Y1.502
X62.17 Y1.585
X61.977 Y1.601
X61.791 Y1.545
X61.637 Y1.427
X61.535 Y1.262
X61.5 Y1.071
Y0.705
G3 X61.719 Y0.469 R0.246
X62.5 Y1.144 R0.704
G1 Y1.487
X62.493 Y1.622
X62.439 Y1.745
X62.356 Y1.851
X62.181 Y1.941
X61.986 Y1.96
X61.797 Y1.908
X61.64 Y1.79
X61.536 Y1.624
X61.5 Y1.431
Y1.071
G3 X61.707 Y0.836 R0.247
X62.5 Y1.487 R0.684
G1 Y1.857
X62.493 Y1.992
X62.437 Y2.114
X62.351 Y2.218
X62.176 Y2.305
X61.982 Y2.323
X61.794 Y2.269
X61.638 Y2.151
X61.536 Y1.986
X61.5 Y1.794
Y1.431
G3 X61.712 Y1.195 R0.246
X62.5 Y1.857 R0.692
G1 Y2.22
X62.493 Y2.355
X62.436 Y2.477
X62.351 Y2.581
X62.176 Y2.668
X61.981 Y2.685
X61.794 Y2.632
X61.638 Y2.514
X61.536 Y2.348
X61.5 Y2.156
Y1.794
G3 X61.712 Y1.558 R0.246
X62.5 Y2.22 R0.692
G1 Y2.596
X62.493 Y2.731
X62.433 Y2.852
X62.344 Y2.954
X62.169 Y3.037
X61.976 Y3.052
X61.79 Y2.996
X61.637 Y2.878
X61.535 Y2.713
X61.5 Y2.522
Y2.156
G3 X61.72 Y1.92 R0.246
X62.5 Y2.596 R0.705
G1 Y2.933
X62.493 Y3.068
X62.441 Y3.192
X62.358 Y3.299
X62.184 Y3.389
X61.988 Y3.41
X61.798 Y3.358
X61.641 Y3.241
X61.536 Y3.074
X61.5 Y2.881
Y2.522
G3 X61.704 Y2.288 R0.247
X62.5 Y2.933 R0.679
G1 Y3.296
X62.493 Y3.431
X62.439 Y3.554
X62.356 Y3.66
X62.181 Y3.75
X61.986 Y3.77
X61.797 Y3.717
X61.64 Y3.6
X61.536 Y3.434
X61.5 Y3.241
Y2.881
G3 X61.706 Y2.646 R0.247
X62.5 Y3.296 R0.683
G1 Y3.672
X62.493 Y3.807
X62.435 Y3.929
X62.348 Y4.032
X62.173 Y4.117
X61.979 Y4.134
X61.792 Y4.08
X61.638 Y3.962
X61.536 Y3.796
X61.5 Y3.605
Y3.241
G3 X61.715 Y3.005 R0.246
X62.5 Y3.672 R0.697
G1 Y4.042
X62.493 Y4.177
X62.434 Y4.298
X62.346 Y4.4
X62.17 Y4.484
X61.977 Y4.499
X61.791 Y4.444
X61.637 Y4.326
X61.535 Y4.161
X61.5 Y3.97
Y3.605
G3 X61.718 Y3.369 R0.246
X62.486 Y3.925 R0.703
X62.5 Y4.042 R0.703
G1 Y4.412
X62.493 Y4.547
X62.432 Y4.668
X62.344 Y4.769
X62.168 Y4.852
X61.975 Y4.866
X61.79 Y4.811
X61.636 Y4.692
X61.535 Y4.527
X61.5 Y4.336
Y3.97
G3 X61.721 Y3.734 R0.246
X62.5 Y4.412 R0.707
G1 Y4.775
X62.493 Y4.91
X62.433 Y5.031
X62.345 Y5.133
X62.17 Y5.217
X61.977 Y5.232
X61.791 Y5.177
X61.637 Y5.058
X61.535 Y4.893
X61.5 Y4.702
Y4.336
G3 X61.719 Y4.1 R0.246
X62.5 Y4.775 R0.704
G1 Y5.118
X62.493 Y5.253
X62.439 Y5.377
X62.356 Y5.483
X62.181 Y5.572
X61.986 Y5.592
X61.797 Y5.539
X61.64 Y5.421
X61.536 Y5.255
X61.5 Y5.062
Y4.702
G3 X61.707 Y4.467 R0.247
X62.5 Y5.118 R0.684
G1 Y5.488
X62.493 Y5.623
X62.437 Y5.746
X62.351 Y5.85
X62.176 Y5.936
X61.982 Y5.954
X61.794 Y5.9
X61.638 Y5.783
X61.536 Y5.617
X61.5 Y5.425
Y5.062
G3 X61.712 Y4.827 R0.246
X62.5 Y5.488 R0.692
G1 Y5.851
X62.493 Y5.986
X62.436 Y6.108
X62.351 Y6.213
X62.176 Y6.299
X61.981 Y6.317
X61.794 Y6.263
X61.638 Y6.145
X61.536 Y5.979
X61.5 Y5.788
Y5.425
G3 X61.712 Y5.19 R0.246
X62.5 Y5.851 R0.692
G1 Y6.227
X62.493 Y6.362
X62.433 Y6.483
X62.344 Y6.585
X62.169 Y6.668
X61.976 Y6.683
X61.79 Y6.628
X61.637 Y6.509
X61.535 Y6.344
X61.5 Y6.153
Y5.788
G3 X61.72 Y5.551 R0.246
X62.5 Y6.227 R0.705
G1 Y6.564
X62.493 Y6.699
X62.441 Y6.824
X62.358 Y6.93
X62.184 Y7.021
X61.988 Y7.041
X61.798 Y6.99
X61.641 Y6.872
X61.536 Y6.705
X61.5 Y6.512
Y6.153
G3 X61.704 Y5.919 R0.247
X62.5 Y6.564 R0.679
G1 Y6.927
X62.493 Y7.062
X62.439 Y7.186
X62.356 Y7.292
X62.181 Y7.381
X61.986 Y7.401
X61.797 Y7.349
X61.64 Y7.232
X61.536 Y7.065
X61.5 Y6.872
Y6.512
G3 X61.706 Y6.277 R0.247
X62.5 Y6.927 R0.683
G1 Y7.303
X62.493 Y7.438
X62.435 Y7.56
X62.348 Y7.663
X62.173 Y7.749
X61.979 Y7.765
X61.792 Y7.711
X61.638 Y7.593
X61.536 Y7.427
X61.5 Y7.236
Y6.872
G3 X61.715 Y6.637 R0.246
X62.5 Y7.303 R0.697
G1 Y7.674
X62.493 Y7.808
X62.434 Y7.929
X62.346 Y8.032
X62.17 Y8.116
X61.977 Y8.131
X61.791 Y8.076
X61.637 Y7.958
X61.535 Y7.792
X61.5 Y7.601
Y7.236
G3 X61.718 Y7. R0.246
X62.486 Y7.557 R0.703
X62.5 Y7.674 R0.703
G1 Y8.044
X62.493 Y8.179
X62.432 Y8.299
X62.344 Y8.401
X62.168 Y8.483
X61.975 Y8.498
X61.79 Y8.442
X61.636 Y8.324
X61.535 Y8.158
X61.5 Y7.968
Y7.601
G3 X61.721 Y7.365 R0.246
X62.5 Y8.044 R0.707
G1 Y8.407
X62.493 Y8.541
X62.433 Y8.662
X62.345 Y8.765
X62.17 Y8.848
X61.977 Y8.863
X61.791 Y8.808
X61.637 Y8.69
X61.535 Y8.524
X61.5 Y8.333
Y7.968
G3 X61.719 Y7.732 R0.246
X62.5 Y8.407 R0.704
G1 Y8.75
X62.493 Y8.884
X62.439 Y9.008
X62.356 Y9.114
X62.181 Y9.203
X61.986 Y9.223
X61.797 Y9.17
X61.64 Y9.053
X61.536 Y8.886
X61.5 Y8.694
Y8.333
G3 X61.707 Y8.099 R0.247
X62.5 Y8.75 R0.684
G1 Y9.12
X62.493 Y9.255
X62.437 Y9.377
X62.351 Y9.481
X62.176 Y9.568
X61.982 Y9.585
X61.794 Y9.532
X61.638 Y9.414
X61.536 Y9.248
X61.5 Y9.057
Y8.694
G3 X61.712 Y8.458 R0.246
X62.5 Y9.12 R0.692
G1 Y9.483
X62.493 Y9.617
X62.436 Y9.74
X62.351 Y9.844
X62.176 Y9.93
X61.981 Y9.948
X61.794 Y9.894
X61.638 Y9.777
X61.536 Y9.611
X61.5 Y9.419
Y9.057
G3 X61.712 Y8.821 R0.246
X62.5 Y9.483 R0.692
G1 Y9.859
X62.493 Y9.994
X62.433 Y10.114
X62.344 Y10.216
X62.169 Y10.299
X61.976 Y10.314
X61.79 Y10.259
X61.637 Y10.141
X61.535 Y9.975
X61.5 Y9.785
Y9.419
G3 X61.72 Y9.183 R0.246
X62.5 Y9.859 R0.705
G1 Y10.196
X62.493 Y10.331
X62.441 Y10.455
X62.358 Y10.562
X62.184 Y10.652
X61.988 Y10.673
X61.798 Y10.621
X61.641 Y10.503
X61.536 Y10.337
X61.5 Y10.143
Y9.785
G3 X61.704 Y9.551 R0.247
X62.5 Y10.196 R0.679
G1 Y10.558
X62.493 Y10.693
X62.439 Y10.817
X62.356 Y10.923
X62.181 Y11.012
X61.986 Y11.032
X61.797 Y10.98
X61.64 Y10.863
X61.536 Y10.697
X61.5 Y10.504
Y10.143
G3 X61.706 Y9.909 R0.247
X62.5 Y10.558 R0.683
G1 Y10.935
X62.493 Y11.07
X62.435 Y11.191
X62.348 Y11.295
X62.173 Y11.38
X61.979 Y11.397
X61.792 Y11.342
X61.638 Y11.225
X61.536 Y11.059
X61.5 Y10.868
Y10.504
G3 X61.715 Y10.268 R0.246
X62.5 Y10.935 R0.697
G1 Y11.305
X62.493 Y11.44
X62.434 Y11.561
X62.346 Y11.663
X62.17 Y11.747
X61.977 Y11.762
X61.791 Y11.707
X61.637 Y11.589
X61.535 Y11.424
X61.5 Y11.233
Y10.868
G3 X61.718 Y10.631 R0.246
X62.486 Y11.188 R0.703
X62.5 Y11.305 R0.703
G1 Y11.675
X62.493 Y11.81
X62.432 Y11.93
X62.344 Y12.032
X62.168 Y12.115
X61.975 Y12.129
X61.79 Y12.073
X61.636 Y11.955
X61.535 Y11.79
X61.5 Y11.599
Y11.233
G3 X61.721 Y10.996 R0.246
X62.5 Y11.675 R0.707
G1 Y12.038
X62.493 Y12.173
X62.433 Y12.294
X62.345 Y12.396
X62.17 Y12.48
X61.977 Y12.495
X61.791 Y12.439
X61.637 Y12.321
X61.535 Y12.156
X61.5 Y11.965
Y11.599
G3 X61.719 Y11.363 R0.246
X62.5 Y12.038 R0.704
G1 Y12.381
X62.493 Y12.516
X62.439 Y12.64
X62.356 Y12.746
X62.181 Y12.835
X61.986 Y12.854
X61.797 Y12.802
X61.64 Y12.684
X61.536 Y12.518
X61.5 Y12.325
Y11.965
G3 X61.707 Y11.73 R0.247
X62.5 Y12.381 R0.684
G1 Y12.751
X62.493 Y12.886
X62.437 Y13.008
X62.351 Y13.113
X62.176 Y13.199
X61.982 Y13.217
X61.794 Y13.163
X61.638 Y13.046
X61.536 Y12.88
X61.5 Y12.688
Y12.325
G3 X61.712 Y12.089 R0.246
X62.5 Y12.751 R0.692
G1 Y13.114
X62.493 Y13.249
X62.436 Y13.371
X62.351 Y13.475
X62.176 Y13.562
X61.981 Y13.579
X61.794 Y13.526
X61.638 Y13.408
X61.536 Y13.242
X61.5 Y13.05
Y12.688
G3 X61.712 Y12.452 R0.246
X62.5 Y13.114 R0.692
G1 Y13.49
X62.493 Y13.625
X62.433 Y13.746
X62.344 Y13.848
X62.169 Y13.931
X61.976 Y13.946
X61.79 Y13.89
X61.637 Y13.772
X61.535 Y13.607
X61.5 Y13.416
Y13.05
G3 X61.72 Y12.814 R0.246
X62.5 Y13.49 R0.705
G1 Y13.827
X62.493 Y13.962
X62.441 Y14.086
X62.358 Y14.193
X62.184 Y14.284
X61.988 Y14.304
X61.798 Y14.252
X61.641 Y14.135
X61.536 Y13.968
X61.5 Y13.775
Y13.416
G3 X61.704 Y13.182 R0.247
X62.5 Y13.827 R0.679
G1 Y14.19
X62.493 Y14.325
X62.439 Y14.448
X62.356 Y14.554
X62.181 Y14.644
X61.986 Y14.664
X61.797 Y14.612
X61.64 Y14.494
X61.536 Y14.328
X61.5 Y14.135
Y13.775
G3 X61.706 Y13.54 R0.247
X62.5 Y14.19 R0.683
G1 Y14.566
X62.493 Y14.701
X62.435 Y14.823
X62.348 Y14.926
X62.173 Y15.011
X61.979 Y15.028
X61.792 Y14.974
X61.638 Y14.856
X61.536 Y14.69
X61.5 Y14.499
Y14.135
G3 X61.715 Y13.899 R0.246
X62.5 Y14.566 R0.697
G1 Y14.936
X62.493 Y15.071
X62.434 Y15.192
X62.346 Y15.295
X62.17 Y15.378
X61.977 Y15.394
X61.791 Y15.338
X61.637 Y15.22
X61.535 Y15.055
X61.5 Y14.864
Y14.499
G3 X61.718 Y14.263 R0.246
X62.5 Y14.936 R0.703
G1 Y15.307
X62.493 Y15.441
X62.432 Y15.562
X62.344 Y15.664
X62.168 Y15.746
X61.975 Y15.76
X61.79 Y15.705
X61.636 Y15.586
X61.535 Y15.421
X61.5 Y15.231
Y14.864
G3 X61.721 Y14.628 R0.246
X62.5 Y15.307 R0.707
G1 Y15.669
X62.493 Y15.804
X62.433 Y15.925
X62.345 Y16.028
X62.17 Y16.111
X61.977 Y16.126
X61.791 Y16.071
X61.637 Y15.953
X61.535 Y15.787
X61.5 Y15.596
Y15.231
G3 X61.719 Y14.994 R0.246
X62.5 Y15.669 R0.704
G1 Y16.012
X62.493 Y16.147
X62.439 Y16.271
X62.356 Y16.377
X62.181 Y16.466
X61.986 Y16.486
X61.797 Y16.433
X61.64 Y16.316
X61.536 Y16.149
X61.5 Y15.956
Y15.596
G3 X61.707 Y15.362 R0.247
X62.5 Y16.012 R0.684
G1 Y16.382
X62.493 Y16.517
X62.437 Y16.64
X62.351 Y16.744
X62.176 Y16.83
X61.982 Y16.848
X61.794 Y16.795
X61.638 Y16.677
X61.536 Y16.511
X61.5 Y16.319
Y15.956
G3 X61.712 Y15.721 R0.246
X62.5 Y16.382 R0.692
G1 Y16.745
X62.493 Y16.88
X62.436 Y17.003
X62.351 Y17.107
X62.176 Y17.193
X61.981 Y17.211
X61.794 Y17.157
X61.638 Y17.039
X61.536 Y16.873
X61.5 Y16.682
Y16.319
G3 X61.712 Y16.084 R0.246
X62.486 Y16.628 R0.692
X62.5 Y16.745 R0.692
G1 Y17.122
X62.493 Y17.256
X62.433 Y17.377
X62.344 Y17.479
X62.169 Y17.562
X61.976 Y17.577
X61.79 Y17.522
X61.637 Y17.404
X61.535 Y17.238
X61.5 Y17.048
Y16.682
G3 X61.72 Y16.445 R0.246
X62.5 Y17.122 R0.705
G1 Y17.458
X62.493 Y17.593
X62.441 Y17.718
X62.358 Y17.825
X62.184 Y17.915
X61.988 Y17.936
X61.798 Y17.884
X61.641 Y17.766
X61.536 Y17.599
X61.5 Y17.406
Y17.048
G3 X61.704 Y16.813 R0.247
X62.5 Y17.458 R0.679
G1 Y17.821
X62.493 Y17.956
X62.439 Y18.08
X62.356 Y18.186
X62.181 Y18.275
X61.986 Y18.295
X61.797 Y18.243
X61.64 Y18.126
X61.536 Y17.959
X61.5 Y17.767
Y17.406
G3 X61.706 Y17.172 R0.247
X62.5 Y17.821 R0.683
G1 Y18.197
X62.493 Y18.332
X62.435 Y18.454
X62.348 Y18.557
X62.173 Y18.643
X61.979 Y18.659
X61.792 Y18.605
X61.638 Y18.487
X61.536 Y18.322
X61.5 Y18.13
Y17.767
G3 X61.715 Y17.531 R0.246
X62.5 Y18.197 R0.697
G1 Y18.568
X62.493 Y18.703
X62.434 Y18.824
X62.346 Y18.926
X62.17 Y19.01
X61.977 Y19.025
X61.791 Y18.97
X61.637 Y18.852
X61.535 Y18.686
X61.5 Y18.495
Y18.13
G3 X61.718 Y17.894 R0.246
X62.486 Y18.451 R0.703
X62.5 Y18.568 R0.703
G1 Y18.938
X62.493 Y19.073
X62.432 Y19.193
X62.344 Y19.295
X62.168 Y19.377
X61.975 Y19.392
X61.79 Y19.336
X61.636 Y19.218
X61.535 Y19.052
X61.5 Y18.862
Y18.495
G3 X61.721 Y18.259 R0.246
X62.5 Y18.938 R0.707
G1 Y19.301
X62.493 Y19.436
X62.433 Y19.557
X62.345 Y19.659
X62.17 Y19.742
X61.977 Y19.757
X61.791 Y19.702
X61.637 Y19.584
X61.535 Y19.418
X61.5 Y19.228
Y18.862
G3 X61.719 Y18.626 R0.246
X62.5 Y19.301 R0.704
G1 Y19.644
X62.493 Y19.778
X62.439 Y19.902
X62.356 Y20.008
X62.181 Y20.097
X61.986 Y20.117
X61.797 Y20.065
X61.64 Y19.947
X61.536 Y19.78
X61.5 Y19.588
Y19.228
G3 X61.707 Y18.993 R0.247
X62.5 Y19.644 R0.684
G1 Y20.014
X62.493 Y20.149
X62.437 Y20.271
X62.351 Y20.375
X62.176 Y20.462
X61.982 Y20.48
X61.794 Y20.426
X61.638 Y20.308
X61.536 Y20.142
X61.5 Y19.951
Y19.588
G3 X61.712 Y19.352 R0.246
X62.5 Y20.014 R0.692
G1 Y20.377
X62.493 Y20.511
X62.436 Y20.634
X62.351 Y20.738
X62.176 Y20.825
X61.981 Y20.842
X61.794 Y20.788
X61.638 Y20.671
X61.536 Y20.505
X61.5 Y20.313
Y19.951
G3 X61.712 Y19.715 R0.246
X62.5 Y20.377 R0.692
G1 Y20.753
X62.493 Y20.888
X62.433 Y21.009
X62.344 Y21.11
X62.169 Y21.194
X61.976 Y21.208
X61.79 Y21.153
X61.637 Y21.035
X61.535 Y20.87
X61.5 Y20.679
Y20.313
G3 X61.72 Y20.077 R0.246
X62.5 Y20.753 R0.705
G1 Y21.09
X62.493 Y21.225
X62.441 Y21.349
X62.358 Y21.456
X62.184 Y21.546
X61.988 Y21.567
X61.798 Y21.515
X61.641 Y21.398
X61.536 Y21.231
X61.5 Y21.038
Y20.679
G3 X61.704 Y20.445 R0.247
X62.5 Y21.09 R0.679
G1 Y21.453
X62.493 Y21.587
X62.439 Y21.711
X62.356 Y21.817
X62.181 Y21.907
X61.986 Y21.927
X61.797 Y21.874
X61.64 Y21.757
X61.536 Y21.591
X61.5 Y21.398
Y21.038
G3 X61.706 Y20.803 R0.247
X62.5 Y21.453 R0.683
G1 Y21.829
X62.493 Y21.964
X62.435 Y22.086
X62.348 Y22.189
X62.173 Y22.274
X61.979 Y22.291
X61.792 Y22.236
X61.638 Y22.119
X61.536 Y21.953
X61.5 Y21.762
Y21.398
G3 X61.715 Y21.162 R0.246
X62.5 Y21.829 R0.697
G1 Y22.199
X62.493 Y22.334
X62.434 Y22.455
X62.346 Y22.557
X62.17 Y22.641
X61.977 Y22.656
X61.791 Y22.601
X61.637 Y22.483
X61.535 Y22.318
X61.5 Y22.127
Y21.762
G3 X61.718 Y21.526 R0.246
X62.486 Y22.082 R0.703
X62.5 Y22.199 R0.703
G1 Y22.569
X62.493 Y22.704
X62.432 Y22.825
X62.344 Y22.926
X62.168 Y23.009
X61.975 Y23.023
X61.79 Y22.967
X61.636 Y22.849
X61.535 Y22.684
X61.5 Y22.493
Y22.127
G3 X61.721 Y21.89 R0.246
X62.5 Y22.569 R0.707
G1 Y22.932
X62.493 Y23.067
X62.433 Y23.188
X62.345 Y23.29
X62.17 Y23.374
X61.977 Y23.389
X61.791 Y23.334
X61.637 Y23.215
X61.535 Y23.05
X61.5 Y22.859
Y22.493
G3 X61.719 Y22.257 R0.246
X62.5 Y22.932 R0.704
G1 Y23.275
X62.493 Y23.41
X62.439 Y23.534
X62.356 Y23.64
X62.181 Y23.729
X61.986 Y23.748
X61.797 Y23.696
X61.64 Y23.578
X61.536 Y23.412
X61.5 Y23.219
Y22.859
G3 X61.707 Y22.624 R0.247
X62.5 Y23.275 R0.684
G1 Y23.645
X62.493 Y23.78
X62.437 Y23.903
X62.351 Y24.007
X62.176 Y24.093
X61.982 Y24.111
X61.794 Y24.057
X61.638 Y23.94
X61.536 Y23.774
X61.5 Y23.582
Y23.219
G3 X61.712 Y22.984 R0.246
X62.5 Y23.645 R0.692
G1 Y24.008
X62.493 Y24.143
X62.436 Y24.265
X62.351 Y24.369
X62.176 Y24.456
X61.981 Y24.474
X61.794 Y24.42
X61.638 Y24.302
X61.536 Y24.136
X61.5 Y23.944
Y23.582
G3 X61.712 Y23.347 R0.246
X62.5 Y24.008 R0.692
G1 Y24.384
X62.493 Y24.519
X62.433 Y24.64
X62.344 Y24.742
X62.169 Y24.825
X61.976 Y24.84
X61.79 Y24.784
X61.637 Y24.666
X61.535 Y24.501
X61.5 Y24.31
Y23.944
G3 X61.72 Y23.708 R0.246
X62.5 Y24.384 R0.705
G1 Y24.721
X62.493 Y24.856
X62.441 Y24.98
X62.358 Y25.087
X62.184 Y25.178
X61.988 Y25.198
X61.798 Y25.146
X61.641 Y25.029
X61.536 Y24.862
X61.5 Y24.669
Y24.31
G3 X61.704 Y24.076 R0.247
X62.5 Y24.721 R0.679
G1 Y25.084
X62.493 Y25.219
X62.439 Y25.343
X62.356 Y25.448
X62.181 Y25.538
X61.986 Y25.558
X61.797 Y25.506
X61.64 Y25.388
X61.536 Y25.222
X61.5 Y25.029
Y24.669
G3 X61.706 Y24.434 R0.247
X62.5 Y25.084 R0.683
G1 Y25.46
X62.493 Y25.595
X62.435 Y25.717
X62.348 Y25.82
X62.173 Y25.905
X61.979 Y25.922
X61.792 Y25.868
X61.638 Y25.75
X61.536 Y25.584
X61.5 Y25.393
Y25.029
G3 X61.715 Y24.794 R0.246
X62.5 Y25.46 R0.697
G1 Y25.83
X62.493 Y25.965
X62.434 Y26.086
X62.346 Y26.189
X62.17 Y26.272
X61.977 Y26.288
X61.791 Y26.233
X61.637 Y26.114
X61.535 Y25.949
X61.5 Y25.758
Y25.393
G3 X61.718 Y25.157 R0.246
X62.5 Y25.83 R0.703
G1 Y26.201
X62.493 Y26.335
X62.432 Y26.456
X62.344 Y26.558
X62.168 Y26.64
X61.975 Y26.654
X61.79 Y26.599
X61.636 Y26.481
X61.535 Y26.315
X61.5 Y26.125
Y25.758
G3 X61.721 Y25.522 R0.246
X62.5 Y26.201 R0.707
G1 Y26.563
X62.493 Y26.698
X62.433 Y26.819
X62.345 Y26.922
X62.17 Y27.005
X61.977 Y27.02
X61.791 Y26.965
X61.637 Y26.847
X61.535 Y26.681
X61.5 Y26.49
Y26.125
G3 X61.719 Y25.888 R0.246
X62.5 Y26.563 R0.704
G1 Y26.906
X62.493 Y27.041
X62.439 Y27.165
X62.356 Y27.271
X62.181 Y27.36
X61.986 Y27.38
X61.797 Y27.327
X61.64 Y27.21
X61.536 Y27.043
X61.5 Y26.85
Y26.49
G3 X61.707 Y26.256 R0.247
X62.5 Y26.906 R0.684
G1 Y27.277
X62.493 Y27.411
X62.437 Y27.534
X62.351 Y27.638
X62.176 Y27.725
X61.982 Y27.742
X61.794 Y27.689
X61.638 Y27.571
X61.536 Y27.405
X61.5 Y27.213
Y26.85
G3 X61.712 Y26.615 R0.246
X62.5 Y27.277 R0.692
G1 Y27.639
X62.493 Y27.774
X62.436 Y27.897
X62.351 Y28.001
X62.171 Y28.089
X61.972 Y28.104
X61.78 Y28.046
X61.624 Y27.92
X61.525 Y27.747
X61.497 Y27.549
X61.5 Y27.213
G3 X61.712 Y26.978 R0.246
X62.5 Y27.639 R0.692
G1 Y28.016
X62.493 Y28.15
X62.433 Y28.271
X62.345 Y28.373
X62.169 Y28.458
X61.975 Y28.477
X61.787 Y28.43
X61.626 Y28.32
X61.512 Y28.162
X61.459 Y27.975
X61.473 Y27.781
G3 X61.865 Y27.583 R0.3
G1 X62.304 Y27.745
G3 X62.5 Y28.016 R0.3
G1 Y28.381
X62.493 Y28.516
X62.435 Y28.637
X62.348 Y28.741
X62.24 Y28.822
X62.109 Y28.884
X61.913 Y28.905
X61.722 Y28.862
X61.554 Y28.761
X61.427 Y28.611
X61.354 Y28.428
X61.344 Y28.232
X61.397 Y28.043
X61.473 Y27.781
G3 X61.737 Y27.595 R0.258
X62.5 Y28.381 R0.816
G1 Y28.756
X62.493 Y28.891
X62.447 Y29.018
X62.372 Y29.13
X62.273 Y29.222
X62.132 Y29.305
X61.923 Y29.355
X61.708 Y29.338
X61.508 Y29.257
X61.343 Y29.119
X61.227 Y28.937
X61.172 Y28.729
X61.183 Y28.514
X61.258 Y28.312
X61.372 Y28.095
X61.397 Y28.043
G3 X61.886 Y27.976 R0.3
G1 X62.422 Y28.564
G3 X62.5 Y28.756 R0.3
G1 Y29.193
X62.493 Y29.328
X62.448 Y29.455
X62.375 Y29.568
X62.281 Y29.665
X62.171 Y29.745
X62.05 Y29.804
X61.922 Y29.847
X61.789 Y29.869
X61.654 Y29.875
X61.52 Y29.863
X61.388 Y29.833
X61.26 Y29.789
X61.104 Y29.708
X60.943 Y29.565
X60.834 Y29.379
X60.786 Y29.169
X60.804 Y28.955
X60.886 Y28.755
X61.026 Y28.591
G3 X61.322 Y28.544 R0.3
G1 X62.308 Y28.923
G3 X62.5 Y29.193 R0.3
G1 Y29.657
X62.492 Y29.758
X62.458 Y29.844
X62.389 Y29.926
X62.311 Y29.977
X62.217 Y30.002
X61.074 Y30.004
X60.939 Y29.997
X60.808 Y29.965
X60.636 Y29.849
X60.508 Y29.686
X60.437 Y29.491
X60.43 Y29.284
X60.487 Y29.085
X60.602 Y28.913
X60.765 Y28.785
G3 X61.193 Y28.98 R0.3
G1 X61.355 Y29.632
G3 X61.074 Y30.004 R0.3
G1 X60.596
X60.462 Y29.997
X60.334 Y29.954
X60.195 Y29.83
X60.104 Y29.669
X60.068 Y29.487
X60.093 Y29.303
X60.174 Y29.136
X60.305 Y29.004
X60.471 Y28.92
G3 X60.587 Y28.905 R0.419
X60.599 Y28.906 R0.419
X60.596 Y30.004 R0.55
G1 X60.193
X60.058 Y29.997
X59.933 Y29.946
X59.809 Y29.813
X59.736 Y29.646
X59.723 Y29.465
X59.771 Y29.29
X59.875 Y29.14
X60.023 Y29.035
X60.198 Y28.985
G3 X60.259 Y28.987 R0.255
X60.193 Y30.004 R0.512
G1 X59.823
X59.688 Y29.997
X59.566 Y29.939
X59.462 Y29.853
X59.374 Y29.679
X59.355 Y29.486
X59.407 Y29.298
X59.523 Y29.141
X59.688 Y29.037
X59.879 Y29.
X60.198 Y28.985
G3 X60.463 Y29.183 R0.252
X59.823 Y30.004 R0.679
G1 X59.46
X59.325 Y29.997
X59.202 Y29.941
X59.098 Y29.855
X59.01 Y29.68
X58.992 Y29.485
X59.045 Y29.296
X59.163 Y29.139
X59.33 Y29.036
X59.523 Y29.
X59.879
G3 X60.118 Y29.21 R0.247
X59.46 Y30.004 R0.69
G1 X59.083
X58.949 Y29.997
X58.827 Y29.938
X58.725 Y29.85
X58.641 Y29.674
X58.625 Y29.479
X58.68 Y29.292
X58.799 Y29.138
X58.965 Y29.036
X59.157 Y29.
X59.523
G3 X59.76 Y29.219 R0.247
X59.083 Y30.004 R0.705
G1 X58.718
X58.583 Y29.997
X58.462 Y29.938
X58.359 Y29.85
X58.275 Y29.674
X58.259 Y29.48
X58.314 Y29.293
X58.433 Y29.138
X58.599 Y29.036
X58.791 Y29.
X59.157
G3 X59.394 Y29.219 R0.247
X58.718 Y30.004 R0.705
G1 X58.343
X58.208 Y29.997
X58.088 Y29.936
X57.987 Y29.846
X57.905 Y29.67
X57.891 Y29.476
X57.947 Y29.29
X58.066 Y29.136
X58.232 Y29.035
X58.423 Y29.
X58.791
G3 X59.028 Y29.224 R0.247
X58.343 Y30.004 R0.714
G1 X58.007
X57.872 Y29.997
X57.748 Y29.944
X57.642 Y29.861
X57.551 Y29.686
X57.531 Y29.49
X57.583 Y29.299
X57.701 Y29.141
X57.869 Y29.037
X58.063 Y29.
X58.423
G3 X58.658 Y29.206 R0.248
X58.007 Y30.004 R0.684
G1 X57.637
X57.502 Y29.997
X57.379 Y29.941
X57.275 Y29.856
X57.187 Y29.68
X57.168 Y29.485
X57.222 Y29.296
X57.34 Y29.14
X57.506 Y29.036
X57.699 Y29.
X58.063
G3 X58.299 Y29.212 R0.247
X57.637 Y30.004 R0.693
G1 X57.267
X57.132 Y29.997
X57.01 Y29.939
X56.906 Y29.852
X56.821 Y29.677
X56.804 Y29.482
X56.858 Y29.294
X56.976 Y29.138
X57.143 Y29.036
X57.335 Y29.
X57.699
G3 X57.936 Y29.216 R0.247
X57.267 Y30.004 R0.7
G1 X56.904
X56.769 Y29.997
X56.647 Y29.94
X56.543 Y29.853
X56.457 Y29.678
X56.44 Y29.483
X56.494 Y29.295
X56.612 Y29.139
X56.779 Y29.036
X56.971 Y29.
X57.335
G3 X57.572 Y29.215 R0.247
X56.904 Y30.004 R0.698
G1 X56.527
X56.393 Y29.997
X56.272 Y29.937
X56.17 Y29.848
X56.087 Y29.672
X56.072 Y29.478
X56.128 Y29.291
X56.246 Y29.137
X56.413 Y29.035
X56.604 Y29.
X56.971
G3 X57.208 Y29.222 R0.247
X56.527 Y30.004 R0.71
G1 X56.19
X56.056 Y29.997
X55.931 Y29.945
X55.824 Y29.862
X55.734 Y29.687
X55.713 Y29.49
X55.765 Y29.3
X55.883 Y29.141
X56.05 Y29.037
X56.244 Y29.
X56.604
G3 X56.839 Y29.205 R0.248
X56.19 Y30.004 R0.683
G1 X55.828
X55.693 Y29.997
X55.569 Y29.943
X55.463 Y29.86
X55.373 Y29.685
X55.352 Y29.489
X55.405 Y29.299
X55.523 Y29.141
X55.69 Y29.036
X55.883 Y29.
X56.244
G3 X56.48 Y29.207 R0.248
X55.828 Y30.004 R0.685
G1 X55.451
X55.316 Y29.997
X55.194 Y29.939
X55.091 Y29.853
X55.005 Y29.677
X54.988 Y29.482
X55.042 Y29.294
X55.16 Y29.139
X55.327 Y29.036
X55.519 Y29.
X55.883
G3 X56.12 Y29.215 R0.247
X55.451 Y30.004 R0.699
G1 X55.081
X54.946 Y29.997
X54.825 Y29.938
X54.722 Y29.85
X54.638 Y29.674
X54.622 Y29.48
X54.677 Y29.293
X54.795 Y29.138
X54.962 Y29.036
X55.154 Y29.
X55.519
G3 X55.756 Y29.219 R0.247
X55.081 Y30.004 R0.704
G1 X54.711
X54.576 Y29.997
X54.455 Y29.937
X54.353 Y29.848
X54.27 Y29.672
X54.255 Y29.478
X54.31 Y29.292
X54.429 Y29.137
X54.595 Y29.035
X54.787 Y29.
X55.154
G3 X55.391 Y29.221 R0.247
X54.711 Y30.004 R0.709
G1 X54.348
X54.213 Y29.997
X54.092 Y29.938
X53.989 Y29.85
X53.905 Y29.674
X53.889 Y29.48
X53.944 Y29.293
X54.063 Y29.138
X54.229 Y29.036
X54.421 Y29.
X54.787
G3 X55.024 Y29.219 R0.247
X54.348 Y30.004 R0.705
G1 X54.005
X53.87 Y29.997
X53.746 Y29.944
X53.639 Y29.861
X53.549 Y29.685
X53.529 Y29.489
X53.581 Y29.299
X53.699 Y29.141
X53.867 Y29.036
X54.06 Y29.
X54.421
G3 X54.656 Y29.206 R0.248
X54.005 Y30.004 R0.685
G1 X53.635
X53.5 Y29.997
X53.377 Y29.941
X53.272 Y29.856
X53.185 Y29.68
X53.166 Y29.485
X53.22 Y29.296
X53.338 Y29.139
X53.504 Y29.036
X53.697 Y29.
X54.06
G3 X54.297 Y29.212 R0.247
X53.635 Y30.004 R0.694
G1 X53.272
X53.137 Y29.997
X53.014 Y29.941
X52.909 Y29.856
X52.822 Y29.68
X52.803 Y29.485
X52.857 Y29.296
X52.975 Y29.139
X53.142 Y29.036
X53.335 Y29.
X53.697
G3 X53.934 Y29.212 R0.247
X53.272 Y30.004 R0.693
G1 X52.895
X52.76 Y29.997
X52.639 Y29.938
X52.537 Y29.85
X52.453 Y29.674
X52.437 Y29.479
X52.492 Y29.292
X52.611 Y29.138
X52.777 Y29.036
X52.969 Y29.
X53.335
G3 X53.572 Y29.219 R0.247
X52.895 Y30.004 R0.706
G1 X52.53
X52.395 Y29.997
X52.274 Y29.938
X52.171 Y29.85
X52.087 Y29.674
X52.071 Y29.48
X52.126 Y29.293
X52.245 Y29.138
X52.411 Y29.036
X52.603 Y29.
X52.969
G3 X53.206 Y29.219 R0.247
X52.53 Y30.004 R0.705
G1 X52.155
X52.02 Y29.997
X51.9 Y29.936
X51.799 Y29.846
X51.716 Y29.67
X51.703 Y29.476
X51.759 Y29.29
X51.878 Y29.136
X52.044 Y29.035
X52.235 Y29.
X52.603
G3 X52.84 Y29.224 R0.247
X52.155 Y30.004 R0.714
G1 X51.819
X51.684 Y29.997
X51.56 Y29.944
X51.453 Y29.861
X51.363 Y29.686
X51.343 Y29.49
X51.395 Y29.299
X51.513 Y29.141
X51.681 Y29.037
