(_BF12)
(T1  D=3. CR=0. - ZMIN=-10. - FLAT END MILL)
G90 G94 G91.1 G40 G49 G17
G21

(POCKET1)
M5
M9
T1
S10000 M3
G54
M8
G0 X6.094 Y5.276
G43 Z10. H1
Z2.
G1 Z1.349 F200.
G3 X6.09 Y5.264 Z1.261 R0.925 F720.
X6.08 Y5.227 Z1.181 R0.925
X6.067 Y5.169 Z1.116 R0.925
X6.056 Y5.093 Z1.071 R0.925
X6.05 Y5.007 Z1.05 R0.925
X7.9 Y4.982 Z0.796 R0.925
X6.05 Y5.007 Z0.542 R0.925
X7.9 Y4.982 Z0.287 R0.925
X6.05 Y5.007 Z0.033 R0.925
X7.9 Y4.982 Z-0.221 R0.925
X6.05 Y5.007 Z-0.475 R0.925
X7.9 Y4.982 Z-0.73 R0.925
X6.896 Y5.916 Z-0.865 R0.925
X6.066 Y4.824 Z-1. R0.925
G1 X6.095 Y4.671
X6.103 Y4.629
X6.271 Y4.378
X6.314 Y4.314
X6.628 Y4.104
X7.004 Y4.03
X7.364 Y4.102
X7.687 Y4.315
X7.897 Y4.629
X7.971 Y5.
X7.897 Y5.369
X7.687 Y5.685
X7.365 Y5.898
X7.006 Y5.969
X6.62 Y5.891
X6.314 Y5.687
X6.103 Y5.369
X6.031 Y5.01
X6.066 Y4.824
X6.121 Y4.639
G3 X7.829 Y5.35 Z-1.254 R0.925
X6.121 Y4.639 Z-1.508 R0.925
X7.829 Y5.35 Z-1.763 R0.925
X6.066 Y4.824 Z-2. R0.925
G1 X6.095 Y4.671
X6.103 Y4.629
X6.271 Y4.378
X6.314 Y4.314
X6.628 Y4.104
X7.004 Y4.03
X7.364 Y4.102
X7.687 Y4.315
X7.897 Y4.629
X7.971 Y5.
X7.897 Y5.369
X7.687 Y5.685
X7.365 Y5.898
X7.006 Y5.969
X6.62 Y5.891
X6.314 Y5.687
X6.103 Y5.369
X6.031 Y5.01
X6.066 Y4.824
X6.121 Y4.639
G3 X7.829 Y5.35 Z-2.254 R0.925
X6.121 Y4.639 Z-2.508 R0.925
X7.829 Y5.35 Z-2.763 R0.925
X6.066 Y4.824 Z-3. R0.925
G1 X6.095 Y4.671
X6.103 Y4.629
X6.271 Y4.378
X6.314 Y4.314
X6.628 Y4.104
X7.004 Y4.03
X7.364 Y4.102
X7.687 Y4.315
X7.897 Y4.629
X7.971 Y5.
X7.897 Y5.369
X7.687 Y5.685
X7.365 Y5.898
X7.006 Y5.969
X6.62 Y5.891
X6.314 Y5.687
X6.103 Y5.369
X6.031 Y5.01
X6.066 Y4.824
X6.121 Y4.639
G3 X7.829 Y5.35 Z-3.254 R0.925
X6.121 Y4.639 Z-3.508 R0.925
X7.829 Y5.35 Z-3.763 R0.925
X6.066 Y4.824 Z-4. R0.925
G1 X6.095 Y4.671
X6.103 Y4.629
X6.271 Y4.378
X6.314 Y4.314
X6.628 Y4.104
X7.004 Y4.03
X7.364 Y4.102
X7.687 Y4.315
X7.897 Y4.629
X7.971 Y5.
X7.897 Y5.369
X7.687 Y5.685
X7.365 Y5.898
X7.006 Y5.969
X6.62 Y5.891
X6.314 Y5.687
X6.103 Y5.369
X6.031 Y5.01
X6.066 Y4.824
X6.121 Y4.639
G3 X7.829 Y5.35 Z-4.254 R0.925
X6.121 Y4.639 Z-4.508 R0.925
X7.829 Y5.35 Z-4.763 R0.925
X6.066 Y4.824 Z-5. R0.925
G1 X6.095 Y4.671
X6.103 Y4.629
X6.271 Y4.378
X6.314 Y4.314
X6.628 Y4.104
X7.004 Y4.03
X7.364 Y4.102
X7.687 Y4.315
X7.897 Y4.629
X7.971 Y5.
X7.897 Y5.369
X7.687 Y5.685
X7.365 Y5.898
X7.006 Y5.969
X6.62 Y5.891
X6.314 Y5.687
X6.103 Y5.369
X6.031 Y5.01
X6.066 Y4.824
G3 X6.169 Y4.709 R0.15
G1 X7.521 Y4.291
G3 X7.672 Y4.329 R0.15
X6.354 Y5.628 Z-5.254 R0.925
X7.672 Y4.329 Z-5.508 R0.925
X6.354 Y5.628 Z-5.763 R0.925
X7.523 Y4.206 Z-6. R0.925
G1 X7.687 Y4.315
X7.897 Y4.629
X7.971 Y5.
X7.897 Y5.369
X7.687 Y5.685
X7.365 Y5.898
X7.006 Y5.969
X6.62 Y5.891
X6.314 Y5.687
X6.103 Y5.369
X6.031 Y5.01
X6.095 Y4.671
X6.103 Y4.629
X6.271 Y4.378
X6.314 Y4.314
X6.628 Y4.104
X7.004 Y4.03
X7.364 Y4.102
X7.523 Y4.206
X7.672 Y4.329
G3 X6.354 Y5.628 Z-6.254 R0.925
X7.672 Y4.329 Z-6.508 R0.925
X6.354 Y5.628 Z-6.763 R0.925
X7.523 Y4.206 Z-7. R0.925
G1 X7.687 Y4.315
X7.897 Y4.629
X7.971 Y5.
X7.897 Y5.369
X7.687 Y5.685
X7.365 Y5.898
X7.006 Y5.969
X6.62 Y5.891
X6.314 Y5.687
X6.103 Y5.369
X6.031 Y5.01
X6.095 Y4.671
X6.103 Y4.629
X6.271 Y4.378
X6.314 Y4.314
X6.628 Y4.104
X7.004 Y4.03
X7.364 Y4.102
X7.523 Y4.206
X7.672 Y4.329
G3 X6.354 Y5.628 Z-7.254 R0.925
X7.672 Y4.329 Z-7.508 R0.925
X6.354 Y5.628 Z-7.763 R0.925
X7.523 Y4.206 Z-8. R0.925
G1 X7.687 Y4.315
X7.897 Y4.629
X7.971 Y5.
X7.897 Y5.369
X7.687 Y5.685
X7.365 Y5.898
X7.006 Y5.969
X6.62 Y5.891
X6.314 Y5.687
X6.103 Y5.369
X6.031 Y5.01
X6.095 Y4.671
X6.103 Y4.629
X6.271 Y4.378
X6.314 Y4.314
X6.628 Y4.104
X7.004 Y4.03
X7.364 Y4.102
X7.523 Y4.206
X7.672 Y4.329
G3 X6.354 Y5.628 Z-8.254 R0.925
X7.672 Y4.329 Z-8.508 R0.925
X6.354 Y5.628 Z-8.763 R0.925
X7.523 Y4.206 Z-9. R0.925
G1 X7.687 Y4.315
X7.897 Y4.629
X7.971 Y5.
X7.897 Y5.369
X7.687 Y5.685
X7.365 Y5.898
X7.006 Y5.969
X6.62 Y5.891
X6.314 Y5.687
X6.103 Y5.369
X6.031 Y5.01
X6.095 Y4.671
X6.103 Y4.629
X6.271 Y4.378
X6.314 Y4.314
X6.628 Y4.104
X7.004 Y4.03
X7.364 Y4.102
X7.523 Y4.206
X7.672 Y4.329
G3 X6.354 Y5.628 Z-9.254 R0.925
X7.672 Y4.329 Z-9.508 R0.925
X6.354 Y5.628 Z-9.763 R0.925
X7.523 Y4.206 Z-10. R0.925
G1 X7.687 Y4.315
X7.897 Y4.629
X7.971 Y5.
X7.897 Y5.369
X7.687 Y5.685
X7.365 Y5.898
X7.006 Y5.969
X6.62 Y5.891
X6.314 Y5.687
X6.103 Y5.369
X6.031 Y5.01
X6.095 Y4.671
X6.103 Y4.629
X6.271 Y4.378
X6.314 Y4.314
X6.628 Y4.104
X7.004 Y4.03
X7.364 Y4.102
X7.523 Y4.206
G3 X7.591 Y4.269 Z-9.985 R0.3
X7.634 Y4.34 Z-9.943 R0.3
X7.653 Y4.404 Z-9.876 R0.3
X7.657 Y4.446 Z-9.793 R0.3
Y4.461 Z-9.7 R0.3
G0 Z5.
X0.019 Y-8.294
Z1.349
G3 X0.006 Y-8.296 Z1.261 R0.925 F720.
X-0.032 Y-8.303 Z1.181 R0.925
X-0.09 Y-8.317 Z1.116 R0.925
X-0.163 Y-8.34 Z1.071 R0.925
X-0.242 Y-8.374 Z1.05 R0.925
X0.554 Y-10.044 Z0.796 R0.925
X-0.242 Y-8.374 Z0.542 R0.925
X0.554 Y-10.044 Z0.287 R0.925
X-0.242 Y-8.374 Z0.033 R0.925
X0.554 Y-10.044 Z-0.221 R0.925
X-0.242 Y-8.374 Z-0.475 R0.925
X0.554 Y-10.044 Z-0.73 R0.925
X0.947 Y-8.73 Z-0.865 R0.925
X-0.399 Y-8.469 Z-1. R0.925
X0.399 Y-9.533 R0.665
X-0.399 Y-8.469 R0.665
G2 X-1.539 Y-8.664 R1.268
G3 X-2.415 Y-9.419 R0.68
G1 X-2.36 Y-9.767
X-2.008 Y-10.458
X-1.451 Y-11.011
X-0.775 Y-11.356
X0. Y-11.481
X0.775 Y-11.356
X1.451 Y-11.011
X2.004 Y-10.461
X2.023 Y-10.428
X2.36 Y-9.767
X2.481 Y-9.005
X2.354 Y-8.223
X2.012 Y-7.551
X1.893 Y-7.427
X1.454 Y-6.99
X0.772 Y-6.643
X0. Y-6.519
X-0.772 Y-6.643
X-1.454 Y-6.99
X-2.005 Y-7.539
X-2.018 Y-7.562
X-2.354 Y-8.223
X-2.481 Y-9.005
X-2.415 Y-9.419
G3 X-2.174 Y-9.514 R0.15
G1 X-0.747 Y-8.384
G2 X-0.541 Y-8.6 R0.15
G3 X0.853 Y-9.817 Z-1.254 R0.925
X-0.541 Y-8.6 Z-1.508 R0.925
X0.853 Y-9.817 Z-1.763 R0.925
X-0.399 Y-8.469 Z-2. R0.925
X0.399 Y-9.533 R0.665
X-0.399 Y-8.469 R0.665
G2 X-1.539 Y-8.664 R1.268
G3 X-2.415 Y-9.419 R0.68
G1 X-2.36 Y-9.767
X-2.008 Y-10.458
X-1.451 Y-11.011
X-0.775 Y-11.356
X0. Y-11.481
X0.775 Y-11.356
X1.451 Y-11.011
X2.004 Y-10.461
X2.023 Y-10.428
X2.36 Y-9.767
X2.481 Y-9.005
X2.354 Y-8.223
X2.012 Y-7.551
X1.893 Y-7.427
X1.454 Y-6.99
X0.772 Y-6.643
X0. Y-6.519
X-0.772 Y-6.643
X-1.454 Y-6.99
X-2.005 Y-7.539
X-2.018 Y-7.562
X-2.354 Y-8.223
X-2.481 Y-9.005
X-2.415 Y-9.419
G3 X-2.174 Y-9.514 R0.15
G1 X-0.747 Y-8.384
G2 X-0.541 Y-8.6 R0.15
G3 X0.853 Y-9.817 Z-2.254 R0.925
X-0.541 Y-8.6 Z-2.508 R0.925
X0.853 Y-9.817 Z-2.763 R0.925
X-0.399 Y-8.469 Z-3. R0.925
X0.399 Y-9.533 R0.665
X-0.399 Y-8.469 R0.665
G2 X-1.539 Y-8.664 R1.268
G3 X-2.415 Y-9.419 R0.68
G1 X-2.36 Y-9.767
X-2.008 Y-10.458
X-1.451 Y-11.011
X-0.775 Y-11.356
X0. Y-11.481
X0.775 Y-11.356
X1.451 Y-11.011
X2.004 Y-10.461
X2.023 Y-10.428
X2.36 Y-9.767
X2.481 Y-9.005
X2.354 Y-8.223
X2.012 Y-7.551
X1.893 Y-7.427
X1.454 Y-6.99
X0.772 Y-6.643
X0. Y-6.519
X-0.772 Y-6.643
X-1.454 Y-6.99
X-2.005 Y-7.539
X-2.018 Y-7.562
X-2.354 Y-8.223
X-2.481 Y-9.005
X-2.415 Y-9.419
G3 X-2.237 Y-9.543 R0.15
G1 X0.528 Y-8.987
G3 X0.645 Y-8.808 R0.15
X-1.164 Y-9.193 Z-3.254 R0.925
X0.645 Y-8.808 Z-3.508 R0.925
X-1.164 Y-9.193 Z-3.763 R0.925
X0.665 Y-9.001 Z-4. R0.925
X-0.665 R0.665
X0.665 R0.665
G2 X1.195 Y-7.97 R1.268
G3 X1.108 Y-6.814 R0.678
G1 X0.772 Y-6.643
X0. Y-6.519
X-0.772 Y-6.643
X-1.454 Y-6.99
X-2.005 Y-7.539
X-2.018 Y-7.562
X-2.354 Y-8.223
X-2.481 Y-9.005
X-2.36 Y-9.767
X-2.008 Y-10.458
X-1.451 Y-11.011
X-0.775 Y-11.356
X0. Y-11.481
X0.775 Y-11.356
X1.451 Y-11.011
X2.004 Y-10.461
X2.023 Y-10.428
X2.36 Y-9.767
X2.481 Y-9.005
X2.354 Y-8.223
X2.012 Y-7.551
X1.893 Y-7.427
X1.454 Y-6.99
X1.108 Y-6.814
G3 X0.89 Y-6.952 R0.15
G1 X0.942 Y-8.773
G2 X0.645 Y-8.808 R0.15
G3 X-1.164 Y-9.193 Z-4.254 R0.925
X0.645 Y-8.808 Z-4.508 R0.925
X-1.164 Y-9.193 Z-4.763 R0.925
X0.665 Y-9.001 Z-5. R0.925
X-0.665 R0.665
X0.665 R0.665
G2 X1.195 Y-7.97 R1.268
G3 X1.108 Y-6.814 R0.678
G1 X0.772 Y-6.643
X0. Y-6.519
X-0.772 Y-6.643
X-1.454 Y-6.99
X-2.005 Y-7.539
X-2.018 Y-7.562
X-2.354 Y-8.223
X-2.481 Y-9.005
X-2.36 Y-9.767
X-2.008 Y-10.458
X-1.451 Y-11.011
X-0.775 Y-11.356
X0. Y-11.481
X0.775 Y-11.356
X1.451 Y-11.011
X2.004 Y-10.461
X2.023 Y-10.428
X2.36 Y-9.767
X2.481 Y-9.005
X2.354 Y-8.223
X2.012 Y-7.551
X1.893 Y-7.427
X1.454 Y-6.99
X1.108 Y-6.814
G3 X0.925 Y-6.851 R0.15
G1 X-0.541 Y-8.6
G3 X0.853 Y-9.817 Z-5.254 R0.925
X-0.541 Y-8.6 Z-5.508 R0.925
X0.853 Y-9.817 Z-5.763 R0.925
X-0.399 Y-8.469 Z-6. R0.925
X0.399 Y-9.533 R0.665
X-0.399 Y-8.469 R0.665
G2 X-1.539 Y-8.664 R1.268
G3 X-2.415 Y-9.419 R0.68
G1 X-2.36 Y-9.767
X-2.008 Y-10.458
X-1.451 Y-11.011
X-0.775 Y-11.356
X0. Y-11.481
X0.775 Y-11.356
X1.451 Y-11.011
X2.004 Y-10.461
X2.023 Y-10.428
X2.36 Y-9.767
X2.481 Y-9.005
X2.354 Y-8.223
X2.012 Y-7.551
X1.893 Y-7.427
X1.454 Y-6.99
X0.772 Y-6.643
X0. Y-6.519
X-0.772 Y-6.643
X-1.454 Y-6.99
X-2.005 Y-7.539
X-2.018 Y-7.562
X-2.354 Y-8.223
X-2.481 Y-9.005
X-2.415 Y-9.419
G3 X-2.174 Y-9.514 R0.15
G1 X-0.747 Y-8.384
G2 X-0.541 Y-8.6 R0.15
G3 X0.853 Y-9.817 Z-6.254 R0.925
X-0.541 Y-8.6 Z-6.508 R0.925
X0.853 Y-9.817 Z-6.763 R0.925
X-0.399 Y-8.469 Z-7. R0.925
X0.399 Y-9.533 R0.665
X-0.399 Y-8.469 R0.665
G2 X-1.539 Y-8.664 R1.268
G3 X-2.415 Y-9.419 R0.68
G1 X-2.36 Y-9.767
X-2.008 Y-10.458
X-1.451 Y-11.011
X-0.775 Y-11.356
X0. Y-11.481
X0.775 Y-11.356
X1.451 Y-11.011
X2.004 Y-10.461
X2.023 Y-10.428
X2.36 Y-9.767
X2.481 Y-9.005
X2.354 Y-8.223
X2.012 Y-7.551
X1.893 Y-7.427
X1.454 Y-6.99
X0.772 Y-6.643
X0. Y-6.519
X-0.772 Y-6.643
X-1.454 Y-6.99
X-2.005 Y-7.539
X-2.018 Y-7.562
X-2.354 Y-8.223
X-2.481 Y-9.005
X-2.415 Y-9.419
G3 X-2.174 Y-9.514 R0.15
G1 X-0.747 Y-8.384
G2 X-0.541 Y-8.6 R0.15
G3 X0.853 Y-9.817 Z-7.254 R0.925
X-0.541 Y-8.6 Z-7.508 R0.925
X0.853 Y-9.817 Z-7.763 R0.925
X-0.399 Y-8.469 Z-8. R0.925
X0.399 Y-9.533 R0.665
X-0.399 Y-8.469 R0.665
G2 X-1.539 Y-8.664 R1.268
G3 X-2.415 Y-9.419 R0.68
G1 X-2.36 Y-9.767
X-2.008 Y-10.458
X-1.451 Y-11.011
X-0.775 Y-11.356
X0. Y-11.481
X0.775 Y-11.356
X1.451 Y-11.011
X2.004 Y-10.461
X2.023 Y-10.428
X2.36 Y-9.767
X2.481 Y-9.005
X2.354 Y-8.223
X2.012 Y-7.551
X1.893 Y-7.427
X1.454 Y-6.99
X0.772 Y-6.643
X0. Y-6.519
X-0.772 Y-6.643
X-1.454 Y-6.99
X-2.005 Y-7.539
X-2.018 Y-7.562
X-2.354 Y-8.223
X-2.481 Y-9.005
X-2.415 Y-9.419
G3 X-2.174 Y-9.514 R0.15
G1 X-0.747 Y-8.384
G2 X-0.541 Y-8.6 R0.15
G3 X0.853 Y-9.817 Z-8.254 R0.925
X-0.541 Y-8.6 Z-8.508 R0.925
X0.853 Y-9.817 Z-8.763 R0.925
X-0.399 Y-8.469 Z-9. R0.925
X0.399 Y-9.533 R0.665
X-0.399 Y-8.469 R0.665
G2 X-1.539 Y-8.664 R1.268
G3 X-2.415 Y-9.419 R0.68
G1 X-2.36 Y-9.767
X-2.008 Y-10.458
X-1.451 Y-11.011
X-0.775 Y-11.356
X0. Y-11.481
X0.775 Y-11.356
X1.451 Y-11.011
X2.004 Y-10.461
X2.023 Y-10.428
X2.36 Y-9.767
X2.481 Y-9.005
X2.354 Y-8.223
X2.012 Y-7.551
X1.893 Y-7.427
X1.454 Y-6.99
X0.772 Y-6.643
X0. Y-6.519
X-0.772 Y-6.643
X-1.454 Y-6.99
X-2.005 Y-7.539
X-2.018 Y-7.562
X-2.354 Y-8.223
X-2.481 Y-9.005
X-2.415 Y-9.419
G3 X-2.174 Y-9.514 R0.15
G1 X-0.747 Y-8.384
G2 X-0.541 Y-8.6 R0.15
G3 X0.853 Y-9.817 Z-9.254 R0.925
X-0.541 Y-8.6 Z-9.508 R0.925
X0.853 Y-9.817 Z-9.763 R0.925
X-0.399 Y-8.469 Z-10. R0.925
X0.399 Y-9.533 R0.665
X-0.399 Y-8.469 R0.665
G2 X-1.539 Y-8.664 R1.268
G3 X-2.415 Y-9.419 R0.68
G1 X-2.36 Y-9.767
X-2.008 Y-10.458
X-1.451 Y-11.011
X-0.775 Y-11.356
X0. Y-11.481
X0.775 Y-11.356
X1.451 Y-11.011
X2.004 Y-10.461
X2.023 Y-10.428
X2.36 Y-9.767
X2.481 Y-9.005
X2.354 Y-8.223
X2.012 Y-7.551
X1.893 Y-7.427
X1.454 Y-6.99
X0.772 Y-6.643
X0. Y-6.519
X-0.772 Y-6.643
X-1.454 Y-6.99
X-2.005 Y-7.539
X-2.018 Y-7.562
X-2.354 Y-8.223
X-2.481 Y-9.005
X-2.415 Y-9.419
G3 X-2.387 Y-9.507 Z-9.985 R0.3
X-2.339 Y-9.576 Z-9.943 R0.3
X-2.289 Y-9.619 Z-9.876 R0.3
X-2.252 Y-9.641 Z-9.793 R0.3
X-2.239 Y-9.647 Z-9.7 R0.3
G0 Z5.
X37.331 Y2.462
Z1.349
G3 X37.337 Y2.473 Z1.261 R0.925 F720.
X37.355 Y2.507 Z1.181 R0.925
X37.379 Y2.562 Z1.116 R0.925
X37.405 Y2.634 Z1.071 R0.925
X37.427 Y2.717 Z1.05 R0.925
X35.619 Y3.109 Z0.796 R0.925
X37.427 Y2.717 Z0.542 R0.925
X35.619 Y3.109 Z0.287 R0.925
X37.427 Y2.717 Z0.033 R0.925
X35.619 Y3.109 Z-0.221 R0.925
X37.427 Y2.717 Z-0.475 R0.925
X35.619 Y3.109 Z-0.73 R0.925
X36.418 Y1.994 Z-0.865 R0.925
X37.448 Y2.899 Z-1. R0.925
G2 X37.449 Y2.96 R14.006
G3 X37.175 Y3.24 R0.275
G1 X37.052
G3 X36.778 Y2.965 R0.275
G1 Y2.355
G3 X37.447 R0.335
G1 Y2.699
G2 X37.448 Y2.899 R14.006
X38.112 Y4.103 R1.463
G3 X37.72 Y5.421 R0.717
G1 X35.495
G3 X34.596 Y4.522 R0.899
G1 Y0.487
G3 X35.506 Y-0.423 R0.91
G1 X38.718
G3 X39.628 Y0.487 R0.91
X39.623 Y2.567 R400.213
G2 X39.789 Y4.64 R12.235
G3 X39.128 Y5.421 R0.671
G1 X37.72
G2 X36.061 Y6.527 R1.797
G3 X34.402 Y7.633 R1.797
G1 X33.283
G3 X32.385 Y6.734 R0.899
G1 X32.384 Y-1.725
G3 X33.294 Y-2.635 R0.91
G1 X40.929 Y-2.634
G3 X41.839 Y-1.724 R0.91
X41.778 Y1.43 R80.407
G2 X42.026 Y4.576 R13.441
G3 X42.03 Y5.392 R2.15
G2 X41.922 Y6.067 R12.558
X41.856 Y6.747 R9.664
G3 X40.914 Y7.633 R0.943
G1 X34.402
G2 X32.744 Y8.739 R1.797
G3 X31.085 Y9.844 R1.797
G1 X31.072
G3 X30.173 Y8.946 R0.899
G1 X30.172 Y-3.936
G3 X31.082 Y-4.847 R0.91
G1 X43.14 Y-4.846
G3 X44.05 Y-3.935 R0.91
X43.932 Y0.159 R70.418
G2 X44.215 Y4.246 R16.157
G3 X44.216 Y5.736 R3.833
G2 X44.055 Y7.331 R8.496
X44.05 Y8.934 R252.468
G3 X43.14 Y9.844 R0.91
G1 X31.085
G2 X29.632 Y10.754 R1.615
G3 X27.962 Y10.37 R0.879
G1 X27.961 Y-6.148
G3 X28.871 Y-7.058 R0.91
G1 X45.351 Y-7.057
G3 X46.261 Y-6.147 R0.91
X46.073 Y-1.226 R64.185
G2 X46.359 Y3.689 R18.349
G3 X46.372 Y6.231 R6.826
G2 X46.205 Y8.686 R10.818
G3 X46.262 Y11.146 R53.866
X45.352 Y12.056 R0.91
G1 X28.861
G3 X27.962 Y11.157 R0.899
G1 Y10.37
G2 X26.856 Y8.711 R1.797
G3 X25.75 Y7.053 R1.797
G1 X25.749 Y-8.378
G3 X26.641 Y-9.27 R0.892
G1 X47.58 Y-9.268
G3 X48.473 Y-8.376 R0.892
G1 X48.427 Y2.696
G2 X48.542 Y3.459 R2.594
X48.815 Y4.181 R6.114
G3 X48.821 Y5.799 R1.977
G2 X48.613 Y6.318 R7.258
X48.475 Y6.86 R3.046
X48.346 Y10.118 R13.86
G3 X48.474 Y13.376 R41.786
X47.583 Y14.268 R0.892
G1 X26.631
G3 X25.75 Y13.387 R0.881
G1 Y7.053
G2 X24.635 Y5.381 R1.811
G3 X23.521 Y3.71 R1.811
G1 X23.52 Y-11.053
G2 X23.508 Y-11.187 R0.75
G1 X23.479 Y-11.349
G2 X23.435 Y-11.499 R0.75
G1 X50.788 Y-11.497
X50.754 Y-11.392
G2 X50.722 Y-11.241 R0.75
G1 X50.705 Y-11.079
G2 X50.7 Y-10.999 R0.75
G1 X50.703 Y2.696
G2 X50.718 Y2.842 R0.75
G1 X50.75 Y3.004
G2 X50.802 Y3.167 R0.75
G1 X50.875 Y3.329
G2 X50.96 Y3.471 R0.75
G1 X51.053 Y3.595
G2 X51.149 Y3.7 R0.75
G1 X51.245 Y3.786
G2 X51.348 Y3.864 R0.75
G1 X51.456 Y3.932
G2 X51.592 Y4. R0.75
G1 X51.755 Y4.061
G2 X51.919 Y4.102 R0.75
G1 X52.082 Y4.124
G2 X52.24 Y4.129 R0.75
G1 X52.403 Y4.116
G2 X52.444 Y4.112 R0.75
G1 X53.026 Y4.035
X53.268 Y4.083
X53.381 Y4.111
X53.694 Y4.326
X53.897 Y4.633
X53.969 Y5.003
X53.895 Y5.369
X53.693 Y5.675
X53.385 Y5.886
X53.262 Y5.918
X53.025 Y5.966
X52.333 Y5.876
G2 X52.191 Y5.871 R0.75
G1 X52.028 Y5.881
G2 X51.864 Y5.909 R0.75
G1 X51.701 Y5.957
G2 X51.565 Y6.011 R0.75
G1 X51.457 Y6.067
G2 X51.347 Y6.137 R0.75
G1 X51.239 Y6.219
G2 X51.145 Y6.304 R0.75
G1 X51.065 Y6.39
G2 X50.989 Y6.486 R0.75
G1 X50.917 Y6.594
G2 X50.847 Y6.729 R0.75
G1 X50.781 Y6.89
G2 X50.736 Y7.053 R0.75
G1 X50.71 Y7.215
G2 X50.701 Y7.333 R0.75
G1 X50.703 Y16.067
G2 X50.718 Y16.216 R0.75
G1 X50.751 Y16.378
G2 X50.785 Y16.496 R0.75
G1 X23.436
G2 X23.439 Y16.486 R0.75
G1 X23.484 Y16.324
G2 X23.511 Y16.166 R0.75
G1 X23.521 Y16.005
G2 X23.522 Y15.959 R0.75
G1 X23.521 Y3.71
G3 X23.664 Y3.56 R0.15
G1 X37.276 Y2.913
G3 X37.431 Y3.092 R0.15
X35.616 Y2.733 Z-1.254 R0.925
X37.431 Y3.092 Z-1.508 R0.925
X35.616 Y2.733 Z-1.763 R0.925
X37.448 Y2.899 Z-2. R0.925
G2 X37.449 Y2.96 R14.006
G3 X37.175 Y3.24 R0.275
G1 X37.052
G3 X36.778 Y2.965 R0.275
G1 Y2.355
G3 X37.447 R0.335
G1 Y2.699
G2 X37.448 Y2.899 R14.006
X38.112 Y4.103 R1.463
G3 X37.72 Y5.421 R0.717
G1 X35.495
G3 X34.596 Y4.522 R0.899
G1 Y0.487
G3 X35.506 Y-0.423 R0.91
G1 X38.718
G3 X39.628 Y0.487 R0.91
X39.623 Y2.567 R400.213
G2 X39.789 Y4.64 R12.235
G3 X39.128 Y5.421 R0.671
G1 X37.72
G2 X36.061 Y6.527 R1.797
G3 X34.402 Y7.633 R1.797
G1 X33.283
G3 X32.385 Y6.734 R0.899
G1 X32.384 Y-1.725
G3 X33.294 Y-2.635 R0.91
G1 X40.929 Y-2.634
G3 X41.839 Y-1.724 R0.91
X41.778 Y1.43 R80.407
G2 X42.026 Y4.576 R13.441
G3 X42.03 Y5.392 R2.15
G2 X41.922 Y6.067 R12.558
X41.856 Y6.747 R9.664
G3 X40.914 Y7.633 R0.943
G1 X34.402
G2 X32.744 Y8.739 R1.797
G3 X31.085 Y9.844 R1.797
G1 X31.072
G3 X30.173 Y8.946 R0.899
G1 X30.172 Y-3.936
G3 X31.082 Y-4.847 R0.91
G1 X43.14 Y-4.846
G3 X44.05 Y-3.935 R0.91
X43.932 Y0.159 R70.418
G2 X44.215 Y4.246 R16.157
G3 X44.216 Y5.736 R3.833
G2 X44.055 Y7.331 R8.496
X44.05 Y8.934 R252.468
G3 X43.14 Y9.844 R0.91
G1 X31.085
G2 X29.632 Y10.754 R1.615
G3 X27.962 Y10.37 R0.879
G1 X27.961 Y-6.148
G3 X28.871 Y-7.058 R0.91
G1 X45.351 Y-7.057
G3 X46.261 Y-6.147 R0.91
X46.073 Y-1.226 R64.185
G2 X46.359 Y3.689 R18.349
G3 X46.372 Y6.231 R6.826
G2 X46.205 Y8.686 R10.818
G3 X46.262 Y11.146 R53.866
X45.352 Y12.056 R0.91
G1 X28.861
G3 X27.962 Y11.157 R0.899
G1 Y10.37
G2 X26.856 Y8.711 R1.797
G3 X25.75 Y7.053 R1.797
G1 X25.749 Y-8.378
G3 X26.641 Y-9.27 R0.892
G1 X47.58 Y-9.268
G3 X48.473 Y-8.376 R0.892
G1 X48.427 Y2.696
G2 X48.542 Y3.459 R2.594
X48.815 Y4.181 R6.114
G3 X48.821 Y5.799 R1.977
G2 X48.613 Y6.318 R7.258
X48.475 Y6.86 R3.046
X48.346 Y10.118 R13.86
G3 X48.474 Y13.376 R41.786
X47.583 Y14.268 R0.892
G1 X26.631
G3 X25.75 Y13.387 R0.881
G1 Y7.053
G2 X24.635 Y5.381 R1.811
G3 X23.521 Y3.71 R1.811
G1 X23.52 Y-11.053
G2 X23.508 Y-11.187 R0.75
G1 X23.479 Y-11.349
G2 X23.435 Y-11.499 R0.75
G1 X50.788 Y-11.497
X50.754 Y-11.392
G2 X50.722 Y-11.241 R0.75
G1 X50.705 Y-11.079
G2 X50.7 Y-10.999 R0.75
G1 X50.703 Y2.696
G2 X50.718 Y2.842 R0.75
G1 X50.75 Y3.004
G2 X50.802 Y3.167 R0.75
G1 X50.875 Y3.329
G2 X50.96 Y3.471 R0.75
G1 X51.053 Y3.595
G2 X51.149 Y3.7 R0.75
G1 X51.245 Y3.786
G2 X51.348 Y3.864 R0.75
G1 X51.456 Y3.932
G2 X51.592 Y4. R0.75
G1 X51.755 Y4.061
G2 X51.919 Y4.102 R0.75
G1 X52.082 Y4.124
G2 X52.24 Y4.129 R0.75
G1 X52.403 Y4.116
G2 X52.444 Y4.112 R0.75
G1 X53.026 Y4.035
X53.268 Y4.083
X53.381 Y4.111
X53.694 Y4.326
X53.897 Y4.633
X53.969 Y5.003
X53.895 Y5.369
X53.693 Y5.675
X53.385 Y5.886
X53.262 Y5.918
X53.025 Y5.966
X52.333 Y5.876
G2 X52.191 Y5.871 R0.75
G1 X52.028 Y5.881
G2 X51.864 Y5.909 R0.75
G1 X51.701 Y5.957
G2 X51.565 Y6.011 R0.75
G1 X51.457 Y6.067
G2 X51.347 Y6.137 R0.75
G1 X51.239 Y6.219
G2 X51.145 Y6.304 R0.75
G1 X51.065 Y6.39
G2 X50.989 Y6.486 R0.75
G1 X50.917 Y6.594
G2 X50.847 Y6.729 R0.75
G1 X50.781 Y6.89
G2 X50.736 Y7.053 R0.75
G1 X50.71 Y7.215
G2 X50.701 Y7.333 R0.75
G1 X50.703 Y16.067
G2 X50.718 Y16.216 R0.75
G1 X50.751 Y16.378
G2 X50.785 Y16.496 R0.75
G1 X23.436
G2 X23.439 Y16.486 R0.75
G1 X23.484 Y16.324
G2 X23.511 Y16.166 R0.75
G1 X23.521 Y16.005
G2 X23.522 Y15.959 R0.75
G1 X23.521 Y3.71
G3 X23.664 Y3.56 R0.15
G1 X37.276 Y2.913
G3 X37.431 Y3.092 R0.15
X35.616 Y2.733 Z-2.254 R0.925
X37.431 Y3.092 Z-2.508 R0.925
X35.616 Y2.733 Z-2.763 R0.925
X37.448 Y2.899 Z-3. R0.925
G2 X37.449 Y2.96 R14.006
G3 X37.175 Y3.24 R0.275
G1 X37.052
G3 X36.778 Y2.965 R0.275
G1 Y2.355
G3 X37.447 R0.335
G1 Y2.699
G2 X37.448 Y2.899 R14.006
X38.112 Y4.103 R1.463
G3 X37.72 Y5.421 R0.717
G1 X35.495
G3 X34.596 Y4.522 R0.899
G1 Y0.487
G3 X35.506 Y-0.423 R0.91
G1 X38.718
G3 X39.628 Y0.487 R0.91
X39.623 Y2.567 R400.213
G2 X39.789 Y4.64 R12.235
G3 X39.128 Y5.421 R0.671
G1 X37.72
G2 X36.061 Y6.527 R1.797
G3 X34.402 Y7.633 R1.797
G1 X33.283
G3 X32.385 Y6.734 R0.899
G1 X32.384 Y-1.725
G3 X33.294 Y-2.635 R0.91
G1 X40.929 Y-2.634
G3 X41.839 Y-1.724 R0.91
X41.778 Y1.43 R80.407
G2 X42.026 Y4.576 R13.441
G3 X42.03 Y5.392 R2.15
G2 X41.922 Y6.067 R12.558
X41.856 Y6.747 R9.664
G3 X40.914 Y7.633 R0.943
G1 X34.402
G2 X32.744 Y8.739 R1.797
G3 X31.085 Y9.844 R1.797
G1 X31.072
G3 X30.173 Y8.946 R0.899
G1 X30.172 Y-3.936
G3 X31.082 Y-4.847 R0.91
G1 X43.14 Y-4.846
G3 X44.05 Y-3.935 R0.91
X43.932 Y0.159 R70.418
G2 X44.215 Y4.246 R16.157
G3 X44.216 Y5.736 R3.833
G2 X44.055 Y7.331 R8.496
X44.05 Y8.934 R252.468
G3 X43.14 Y9.844 R0.91
G1 X31.085
G2 X29.632 Y10.754 R1.615
G3 X27.962 Y10.37 R0.879
G1 X27.961 Y-6.148
G3 X28.871 Y-7.058 R0.91
G1 X45.351 Y-7.057
G3 X46.261 Y-6.147 R0.91
X46.073 Y-1.226 R64.185
G2 X46.359 Y3.689 R18.349
G3 X46.372 Y6.231 R6.826
G2 X46.205 Y8.686 R10.818
G3 X46.262 Y11.146 R53.866
X45.352 Y12.056 R0.91
G1 X28.861
G3 X27.962 Y11.157 R0.899
G1 Y10.37
G2 X26.856 Y8.711 R1.797
G3 X25.75 Y7.053 R1.797
G1 X25.749 Y-8.378
G3 X26.641 Y-9.27 R0.892
G1 X47.58 Y-9.268
G3 X48.473 Y-8.376 R0.892
G1 X48.427 Y2.696
G2 X48.542 Y3.459 R2.594
X48.815 Y4.181 R6.114
G3 X48.821 Y5.799 R1.977
G2 X48.613 Y6.318 R7.258
X48.475 Y6.86 R3.046
X48.346 Y10.118 R13.86
G3 X48.474 Y13.376 R41.786
X47.583 Y14.268 R0.892
G1 X26.631
G3 X25.75 Y13.387 R0.881
G1 Y7.053
G2 X24.635 Y5.381 R1.811
G3 X23.521 Y3.71 R1.811
G1 X23.52 Y-11.053
G2 X23.508 Y-11.187 R0.75
G1 X23.479 Y-11.349
G2 X23.435 Y-11.499 R0.75
G1 X50.788 Y-11.497
X50.754 Y-11.392
G2 X50.722 Y-11.241 R0.75
G1 X50.705 Y-11.079
G2 X50.7 Y-10.999 R0.75
G1 X50.703 Y2.696
G2 X50.718 Y2.842 R0.75
G1 X50.75 Y3.004
G2 X50.802 Y3.167 R0.75
G1 X50.875 Y3.329
G2 X50.96 Y3.471 R0.75
G1 X51.053 Y3.595
G2 X51.149 Y3.7 R0.75
G1 X51.245 Y3.786
G2 X51.348 Y3.864 R0.75
G1 X51.456 Y3.932
G2 X51.592 Y4. R0.75
G1 X51.755 Y4.061
G2 X51.919 Y4.102 R0.75
G1 X52.082 Y4.124
G2 X52.24 Y4.129 R0.75
G1 X52.403 Y4.116
G2 X52.444 Y4.112 R0.75
G1 X53.026 Y4.035
X53.268 Y4.083
X53.381 Y4.111
X53.694 Y4.326
X53.897 Y4.633
X53.969 Y5.003
X53.895 Y5.369
X53.693 Y5.675
X53.385 Y5.886
X53.262 Y5.918
X53.025 Y5.966
X52.333 Y5.876
G2 X52.191 Y5.871 R0.75
G1 X52.028 Y5.881
G2 X51.864 Y5.909 R0.75
G1 X51.701 Y5.957
G2 X51.565 Y6.011 R0.75
G1 X51.457 Y6.067
G2 X51.347 Y6.137 R0.75
G1 X51.239 Y6.219
G2 X51.145 Y6.304 R0.75
G1 X51.065 Y6.39
G2 X50.989 Y6.486 R0.75
G1 X50.917 Y6.594
G2 X50.847 Y6.729 R0.75
G1 X50.781 Y6.89
G2 X50.736 Y7.053 R0.75
G1 X50.71 Y7.215
G2 X50.701 Y7.333 R0.75
G1 X50.703 Y16.067
G2 X50.718 Y16.216 R0.75
G1 X50.751 Y16.378
G2 X50.785 Y16.496 R0.75
G1 X23.436
G2 X23.439 Y16.486 R0.75
G1 X23.484 Y16.324
G2 X23.511 Y16.166 R0.75
G1 X23.521 Y16.005
G2 X23.522 Y15.959 R0.75
G1 X23.521 Y3.71
G3 X23.535 Y3.619 Z-2.985 R0.3
X23.572 Y3.544 Z-2.943 R0.3
X23.614 Y3.493 Z-2.876 R0.3
X23.647 Y3.466 Z-2.793 R0.3
X23.659 Y3.458 Z-2.7 R0.3
G0 Z5.
X52.175 Y4.535
G1 Z-1.651 F200.
G3 X52.182 Y4.523 Z-1.739 R0.925 F720.
X52.201 Y4.49 Z-1.819 R0.925
X52.235 Y4.441 Z-1.884 R0.925
X52.282 Y4.381 Z-1.929 R0.925
X52.341 Y4.318 Z-1.95 R0.925
X53.631 Y5.644 Z-2.204 R0.925
X52.341 Y4.318 Z-2.458 R0.925
X53.631 Y5.644 Z-2.713 R0.925
X52.341 Y4.318 Z-2.967 R0.925
X53.631 Y5.644 Z-3.221 R0.925
X52.341 Y4.318 Z-3.475 R0.925
X53.631 Y5.644 Z-3.73 R0.925
X52.262 Y5.557 Z-3.865 R0.925
X52.484 Y4.203 Z-4. R0.925
G1 X52.646 Y4.099
X52.682 Y4.08
X53.026 Y4.035
X53.268 Y4.083
X53.381 Y4.111
X53.694 Y4.326
X53.897 Y4.633
X53.969 Y5.003
X53.895 Y5.369
X53.693 Y5.675
X53.385 Y5.886
X53.262 Y5.918
X53.026 Y5.965
X52.682 Y5.92
X52.527 Y5.829
X52.349 Y5.71
X52.284 Y5.639
X52.134 Y5.416
X52.098 Y5.327
X52.076 Y5.233
X52.041 Y5.055
X52.043 Y4.934
X52.094 Y4.681
X52.122 Y4.604
X52.292 Y4.351
X52.331 Y4.305
X52.352 Y4.289
X52.484 Y4.203
X52.657 Y4.116
G3 X53.314 Y5.845 Z-4.254 R0.925
X52.657 Y4.116 Z-4.508 R0.925
X53.314 Y5.845 Z-4.763 R0.925
X52.484 Y4.203 Z-5. R0.925
G1 X52.646 Y4.099
X52.682 Y4.08
X53.026 Y4.035
X53.268 Y4.083
X53.381 Y4.111
X53.694 Y4.326
X53.897 Y4.633
X53.969 Y5.003
X53.895 Y5.369
X53.693 Y5.675
X53.385 Y5.886
X53.262 Y5.918
X53.026 Y5.965
X52.682 Y5.92
X52.527 Y5.829
X52.349 Y5.71
X52.284 Y5.639
X52.134 Y5.416
X52.098 Y5.327
X52.076 Y5.233
X52.041 Y5.055
X52.043 Y4.934
X52.094 Y4.681
X52.122 Y4.604
X52.292 Y4.351
X52.331 Y4.305
X52.352 Y4.289
X52.484 Y4.203
X52.657 Y4.116
G3 X53.314 Y5.845 Z-5.254 R0.925
X52.657 Y4.116 Z-5.508 R0.925
X53.314 Y5.845 Z-5.763 R0.925
X52.484 Y4.203 Z-6. R0.925
G1 X52.652 Y4.095
X52.678 Y4.081
X52.687 Y4.079
X53.026 Y4.035
X53.268 Y4.083
X53.381 Y4.111
X53.694 Y4.326
X53.897 Y4.633
X53.969 Y5.003
X53.895 Y5.369
X53.693 Y5.675
X53.385 Y5.886
X53.262 Y5.918
X53.028 Y5.965
X52.675 Y5.916
X52.527 Y5.829
X52.349 Y5.71
X52.284 Y5.639
X52.134 Y5.416
X52.098 Y5.327
X52.076 Y5.233
X52.041 Y5.055
X52.043 Y4.934
X52.094 Y4.681
X52.122 Y4.604
X52.292 Y4.351
X52.331 Y4.305
X52.352 Y4.289
X52.484 Y4.203
X52.657 Y4.116
G3 X53.314 Y5.845 Z-6.254 R0.925
X52.657 Y4.116 Z-6.508 R0.925
X53.314 Y5.845 Z-6.763 R0.925
X52.484 Y4.203 Z-7. R0.925
G1 X52.652 Y4.095
X52.676 Y4.082
X52.686 Y4.08
X53.027 Y4.035
X53.268 Y4.083
X53.381 Y4.111
X53.694 Y4.326
X53.897 Y4.633
X53.969 Y5.003
X53.895 Y5.369
X53.693 Y5.675
X53.385 Y5.886
X53.262 Y5.918
X53.027 Y5.965
X52.695 Y5.921
X52.68 Y5.918
X52.525 Y5.827
X52.349 Y5.71
X52.284 Y5.639
X52.134 Y5.416
X52.098 Y5.327
X52.076 Y5.233
X52.041 Y5.055
X52.043 Y4.934
X52.094 Y4.681
X52.122 Y4.604
X52.292 Y4.351
X52.331 Y4.305
X52.352 Y4.289
X52.484 Y4.203
G3 X52.583 Y4.18 R0.15
G1 X53.592 Y4.297
G3 X53.684 Y4.343 R0.15
X52.342 Y5.617 Z-7.254 R0.925
X53.684 Y4.343 Z-7.508 R0.925
X52.342 Y5.617 Z-7.763 R0.925
X53.537 Y4.217 Z-8. R0.925
G1 X53.694 Y4.326
X53.897 Y4.633
X53.969 Y5.003
X53.895 Y5.369
X53.693 Y5.675
X53.385 Y5.886
X53.262 Y5.918
X53.033 Y5.964
X52.663 Y5.908
X52.525 Y5.827
X52.349 Y5.71
X52.284 Y5.639
X52.134 Y5.416
X52.098 Y5.327
X52.076 Y5.233
X52.041 Y5.055
X52.043 Y4.934
X52.094 Y4.681
X52.122 Y4.604
X52.292 Y4.351
X52.331 Y4.305
X52.352 Y4.289
X52.646 Y4.099
X52.668 Y4.088
X52.688 Y4.084
X53.03 Y4.035
X53.268 Y4.083
X53.381 Y4.111
X53.537 Y4.217
G3 X53.585 Y4.411 R0.15
G1 X52.852 Y5.814
G3 X52.665 Y5.884 R0.15
X53.328 Y4.157 Z-8.254 R0.925
X52.665 Y5.884 Z-8.508 R0.925
X53.328 Y4.157 Z-8.763 R0.925
X52.852 Y5.934 Z-9. R0.925
G1 X52.66 Y5.904
X52.522 Y5.826
X52.349 Y5.71
X52.284 Y5.639
X52.134 Y5.416
X52.098 Y5.327
X52.076 Y5.233
X52.041 Y5.055
X52.043 Y4.934
X52.094 Y4.681
X52.122 Y4.604
X52.292 Y4.351
X52.331 Y4.305
X52.352 Y4.289
X52.648 Y4.097
X52.701 Y4.085
X53.033 Y4.036
X53.268 Y4.083
X53.381 Y4.111
X53.694 Y4.326
X53.897 Y4.633
X53.969 Y5.003
X53.895 Y5.369
X53.693 Y5.675
X53.385 Y5.886
X53.262 Y5.918
X53.036 Y5.963
X52.852 Y5.934
G3 X52.727 Y5.771 R0.15
G1 X52.893 Y4.189
G3 X53.05 Y4.055 R0.15
X52.951 Y5.902 Z-9.254 R0.925
X53.05 Y4.055 Z-9.508 R0.925
X52.951 Y5.902 Z-9.763 R0.925
X52.857 Y4.065 Z-10. R0.925
G1 X53.036 Y4.036
X53.268 Y4.083
X53.381 Y4.111
X53.694 Y4.326
X53.897 Y4.633
X53.969 Y5.003
X53.895 Y5.369
X53.693 Y5.675
X53.385 Y5.886
X53.262 Y5.918
X53.039 Y5.963
X52.641 Y5.896
X52.527 Y5.829
X52.349 Y5.71
X52.284 Y5.639
X52.134 Y5.416
X52.098 Y5.327
X52.076 Y5.233
X52.041 Y5.055
X52.043 Y4.934
X52.094 Y4.681
X52.122 Y4.604
X52.292 Y4.351
X52.331 Y4.305
X52.352 Y4.289
X52.643 Y4.101
X52.696 Y4.09
X52.857 Y4.065
G3 X52.949 Y4.064 Z-9.985 R0.3
X53.029 Y4.088 Z-9.943 R0.3
X53.086 Y4.123 Z-9.876 R0.3
X53.118 Y4.151 Z-9.793 R0.3
X53.128 Y4.162 Z-9.7 R0.3
G0 Z5.
X-39.982 Y-8.293
Z1.349
G3 X-39.994 Y-8.295 Z1.261 R0.925 F720.
X-40.032 Y-8.302 Z1.181 R0.925
X-40.09 Y-8.316 Z1.116 R0.925
X-40.163 Y-8.339 Z1.071 R0.925
X-40.242 Y-8.373 Z1.05 R0.925
X-39.446 Y-10.043 Z0.796 R0.925
X-40.242 Y-8.373 Z0.542 R0.925
X-39.446 Y-10.043 Z0.287 R0.925
X-40.242 Y-8.373 Z0.033 R0.925
X-39.446 Y-10.043 Z-0.221 R0.925
X-40.242 Y-8.373 Z-0.475 R0.925
X-39.446 Y-10.043 Z-0.73 R0.925
X-39.053 Y-8.729 Z-0.865 R0.925
X-40.399 Y-8.468 Z-1. R0.925
X-39.601 Y-9.533 R0.665
X-40.399 Y-8.468 R0.665
G2 X-41.539 Y-8.664 R1.269
G3 X-42.415 Y-9.42 R0.681
G1 X-42.361 Y-9.758
X-42.331 Y-9.823
X-42.002 Y-10.464
X-41.447 Y-11.013
X-40.775 Y-11.356
X-40. Y-11.481
X-39.225 Y-11.356
X-38.545 Y-11.009
X-37.996 Y-10.462
X-37.645 Y-9.776
X-37.52 Y-9.004
X-37.646 Y-8.223
X-37.993 Y-7.542
X-38.541 Y-6.994
X-39.245 Y-6.638
X-40. Y-6.519
X-40.752 Y-6.638
X-41.456 Y-6.992
X-41.478 Y-7.012
X-42.007 Y-7.541
X-42.01 Y-7.546
X-42.36 Y-8.233
X-42.481 Y-9.004
X-42.415 Y-9.42
G3 X-42.174 Y-9.514 R0.15
G1 X-40.747 Y-8.383
G2 X-40.541 Y-8.599 R0.15
G3 X-39.148 Y-9.816 Z-1.254 R0.925
X-40.541 Y-8.599 Z-1.508 R0.925
X-39.148 Y-9.816 Z-1.763 R0.925
X-40.399 Y-8.468 Z-2. R0.925
X-39.601 Y-9.533 R0.665
X-40.399 Y-8.468 R0.665
G2 X-41.539 Y-8.664 R1.269
G3 X-42.415 Y-9.42 R0.681
G1 X-42.361 Y-9.758
X-42.331 Y-9.823
X-42.002 Y-10.464
X-41.447 Y-11.013
X-40.775 Y-11.356
X-40. Y-11.481
X-39.225 Y-11.356
X-38.545 Y-11.009
X-37.996 Y-10.462
X-37.645 Y-9.776
X-37.52 Y-9.004
X-37.646 Y-8.223
X-37.993 Y-7.542
X-38.541 Y-6.994
X-39.245 Y-6.638
X-40. Y-6.519
X-40.752 Y-6.638
X-41.456 Y-6.992
X-41.478 Y-7.012
X-42.007 Y-7.541
X-42.01 Y-7.546
X-42.36 Y-8.233
X-42.481 Y-9.004
X-42.415 Y-9.42
G3 X-42.174 Y-9.514 R0.15
G1 X-40.747 Y-8.383
G2 X-40.541 Y-8.599 R0.15
G3 X-39.148 Y-9.816 Z-2.254 R0.925
X-40.541 Y-8.599 Z-2.508 R0.925
X-39.148 Y-9.816 Z-2.763 R0.925
X-40.399 Y-8.468 Z-3. R0.925
X-39.601 Y-9.533 R0.665
X-40.399 Y-8.468 R0.665
G2 X-41.539 Y-8.664 R1.269
G3 X-42.415 Y-9.42 R0.681
G1 X-42.361 Y-9.758
X-42.331 Y-9.823
X-42.002 Y-10.464
X-41.447 Y-11.013
X-40.775 Y-11.356
X-40. Y-11.481
X-39.225 Y-11.356
X-38.545 Y-11.009
X-37.996 Y-10.462
X-37.645 Y-9.776
X-37.52 Y-9.004
X-37.646 Y-8.223
X-37.993 Y-7.542
X-38.541 Y-6.994
X-39.245 Y-6.638
X-40. Y-6.519
X-40.752 Y-6.638
X-41.456 Y-6.992
X-41.478 Y-7.012
X-42.007 Y-7.541
X-42.01 Y-7.546
X-42.36 Y-8.233
X-42.481 Y-9.004
X-42.415 Y-9.42
G3 X-42.174 Y-9.514 R0.15
G1 X-40.747 Y-8.383
G2 X-40.541 Y-8.599 R0.15
G3 X-39.148 Y-9.816 Z-3.254 R0.925
X-40.541 Y-8.599 Z-3.508 R0.925
X-39.148 Y-9.816 Z-3.763 R0.925
X-40.399 Y-8.468 Z-4. R0.925
X-39.601 Y-9.533 R0.665
X-40.399 Y-8.468 R0.665
G2 X-41.539 Y-8.664 R1.269
G3 X-42.415 Y-9.42 R0.681
G1 X-42.361 Y-9.758
X-42.331 Y-9.823
X-42.002 Y-10.464
X-41.447 Y-11.013
X-40.775 Y-11.356
X-40. Y-11.481
X-39.225 Y-11.356
X-38.545 Y-11.009
X-37.996 Y-10.462
X-37.645 Y-9.776
X-37.52 Y-9.004
X-37.646 Y-8.223
X-37.993 Y-7.542
X-38.541 Y-6.994
X-39.245 Y-6.638
X-40. Y-6.519
X-40.752 Y-6.638
X-41.456 Y-6.992
X-41.478 Y-7.012
X-42.007 Y-7.541
X-42.01 Y-7.546
X-42.36 Y-8.233
X-42.481 Y-9.004
X-42.415 Y-9.42
G3 X-42.174 Y-9.514 R0.15
G1 X-40.747 Y-8.383
G2 X-40.541 Y-8.599 R0.15
G3 X-39.148 Y-9.816 Z-4.254 R0.925
X-40.541 Y-8.599 Z-4.508 R0.925
X-39.148 Y-9.816 Z-4.763 R0.925
X-40.399 Y-8.468 Z-5. R0.925
X-39.601 Y-9.533 R0.665
X-40.399 Y-8.468 R0.665
G2 X-41.539 Y-8.664 R1.269
G3 X-42.415 Y-9.42 R0.681
G1 X-42.361 Y-9.758
X-42.331 Y-9.823
X-42.002 Y-10.464
X-41.447 Y-11.013
X-40.775 Y-11.356
X-40. Y-11.481
X-39.225 Y-11.356
X-38.545 Y-11.009
X-37.996 Y-10.462
X-37.645 Y-9.776
X-37.52 Y-9.004
X-37.646 Y-8.223
X-37.993 Y-7.542
X-38.541 Y-6.994
X-39.245 Y-6.638
X-40. Y-6.519
X-40.752 Y-6.638
X-41.456 Y-6.992
X-41.478 Y-7.012
X-42.007 Y-7.541
X-42.01 Y-7.546
X-42.36 Y-8.233
X-42.481 Y-9.004
X-42.415 Y-9.42
G3 X-42.174 Y-9.514 R0.15
G1 X-40.747 Y-8.383
G2 X-40.541 Y-8.599 R0.15
G3 X-39.148 Y-9.816 Z-5.254 R0.925
X-40.541 Y-8.599 Z-5.508 R0.925
X-39.148 Y-9.816 Z-5.763 R0.925
X-40.399 Y-8.468 Z-6. R0.925
X-39.601 Y-9.533 R0.665
X-40.399 Y-8.468 R0.665
G2 X-41.539 Y-8.664 R1.269
G3 X-42.415 Y-9.42 R0.681
G1 X-42.361 Y-9.758
X-42.331 Y-9.823
X-42.002 Y-10.464
X-41.447 Y-11.013
X-40.775 Y-11.356
X-40. Y-11.481
X-39.225 Y-11.356
X-38.545 Y-11.009
X-37.996 Y-10.462
X-37.645 Y-9.776
X-37.52 Y-9.004
X-37.646 Y-8.223
X-37.993 Y-7.542
X-38.541 Y-6.994
X-39.245 Y-6.638
X-40. Y-6.519
X-40.752 Y-6.638
X-41.456 Y-6.992
X-41.478 Y-7.012
X-42.007 Y-7.541
X-42.01 Y-7.546
X-42.36 Y-8.233
X-42.481 Y-9.004
X-42.415 Y-9.42
G3 X-42.174 Y-9.514 R0.15
G1 X-40.747 Y-8.383
G2 X-40.541 Y-8.599 R0.15
G3 X-39.148 Y-9.816 Z-6.254 R0.925
X-40.541 Y-8.599 Z-6.508 R0.925
X-39.148 Y-9.816 Z-6.763 R0.925
X-40.399 Y-8.468 Z-7. R0.925
X-39.601 Y-9.533 R0.665
X-40.399 Y-8.468 R0.665
G2 X-41.539 Y-8.664 R1.269
G3 X-42.415 Y-9.42 R0.681
G1 X-42.361 Y-9.758
X-42.331 Y-9.823
X-42.002 Y-10.464
X-41.447 Y-11.013
X-40.775 Y-11.356
X-40. Y-11.481
X-39.225 Y-11.356
X-38.545 Y-11.009
X-37.996 Y-10.462
X-37.645 Y-9.776
X-37.52 Y-9.004
X-37.646 Y-8.223
X-37.993 Y-7.542
X-38.541 Y-6.994
X-39.245 Y-6.638
X-40. Y-6.519
X-40.752 Y-6.638
X-41.456 Y-6.992
X-41.478 Y-7.012
X-42.007 Y-7.541
X-42.01 Y-7.546
X-42.36 Y-8.233
X-42.481 Y-9.004
X-42.415 Y-9.42
G3 X-42.174 Y-9.514 R0.15
G1 X-40.747 Y-8.383
G2 X-40.541 Y-8.599 R0.15
G3 X-39.148 Y-9.816 Z-7.254 R0.925
X-40.541 Y-8.599 Z-7.508 R0.925
X-39.148 Y-9.816 Z-7.763 R0.925
X-40.399 Y-8.468 Z-8. R0.925
X-39.601 Y-9.533 R0.665
X-40.399 Y-8.468 R0.665
G2 X-41.539 Y-8.664 R1.269
G3 X-42.415 Y-9.42 R0.681
G1 X-42.361 Y-9.758
X-42.331 Y-9.823
X-42.002 Y-10.464
X-41.447 Y-11.013
X-40.775 Y-11.356
X-40. Y-11.481
X-39.225 Y-11.356
X-38.545 Y-11.009
X-37.996 Y-10.462
X-37.645 Y-9.776
X-37.52 Y-9.004
X-37.646 Y-8.223
X-37.993 Y-7.542
X-38.541 Y-6.994
X-39.245 Y-6.638
X-40. Y-6.519
X-40.752 Y-6.638
X-41.456 Y-6.992
X-41.478 Y-7.012
X-42.007 Y-7.541
X-42.01 Y-7.546
X-42.36 Y-8.233
X-42.481 Y-9.004
X-42.415 Y-9.42
G3 X-42.174 Y-9.514 R0.15
G1 X-40.747 Y-8.383
G2 X-40.541 Y-8.599 R0.15
G3 X-39.148 Y-9.816 Z-8.254 R0.925
X-40.541 Y-8.599 Z-8.508 R0.925
X-39.148 Y-9.816 Z-8.763 R0.925
X-40.399 Y-8.468 Z-9. R0.925
X-39.601 Y-9.533 R0.665
X-40.399 Y-8.468 R0.665
G2 X-41.539 Y-8.664 R1.269
G3 X-42.415 Y-9.42 R0.681
G1 X-42.361 Y-9.758
X-42.331 Y-9.823
X-42.002 Y-10.464
X-41.447 Y-11.013
X-40.775 Y-11.356
X-40. Y-11.481
X-39.225 Y-11.356
X-38.545 Y-11.009
X-37.996 Y-10.462
X-37.645 Y-9.776
X-37.52 Y-9.004
X-37.646 Y-8.223
X-37.993 Y-7.542
X-38.541 Y-6.994
X-39.245 Y-6.638
X-40. Y-6.519
X-40.752 Y-6.638
X-41.456 Y-6.992
X-41.478 Y-7.012
X-42.007 Y-7.541
X-42.01 Y-7.546
X-42.36 Y-8.233
X-42.481 Y-9.004
X-42.415 Y-9.42
G3 X-42.174 Y-9.514 R0.15
G1 X-40.747 Y-8.383
G2 X-40.541 Y-8.599 R0.15
G3 X-39.148 Y-9.816 Z-9.254 R0.925
X-40.541 Y-8.599 Z-9.508 R0.925
X-39.148 Y-9.816 Z-9.763 R0.925
X-40.399 Y-8.468 Z-10. R0.925
X-39.601 Y-9.533 R0.665
X-40.399 Y-8.468 R0.665
G2 X-41.539 Y-8.664 R1.269
G3 X-42.415 Y-9.42 R0.681
G1 X-42.361 Y-9.758
X-42.331 Y-9.823
X-42.002 Y-10.464
X-41.447 Y-11.013
X-40.775 Y-11.356
X-40. Y-11.481
X-39.225 Y-11.356
X-38.545 Y-11.009
X-37.996 Y-10.462
X-37.645 Y-9.776
X-37.52 Y-9.004
X-37.646 Y-8.223
X-37.993 Y-7.542
X-38.541 Y-6.994
X-39.245 Y-6.638
X-40. Y-6.519
X-40.752 Y-6.638
X-41.456 Y-6.992
X-41.478 Y-7.012
X-42.007 Y-7.541
X-42.01 Y-7.546
X-42.36 Y-8.233
X-42.481 Y-9.004
X-42.415 Y-9.42
G3 X-42.387 Y-9.508 Z-9.985 R0.3
X-42.339 Y-9.576 Z-9.943 R0.3
X-42.289 Y-9.619 Z-9.876 R0.3
X-42.252 Y-9.641 Z-9.793 R0.3
X-42.239 Y-9.647 Z-9.7 R0.3
G0 Z10.

(2D ADAPTIVE1)
M8
G0 X-58.139 Y18.449
Z10.
Z5.
Z2.845
G1 Z2.545 F720.
G3 X-57.861 Y17.646 Z2.428 R0.425
X-58.139 Y18.449 Z2.311 R0.425
X-57.861 Y17.646 Z2.195 R0.425
X-58.139 Y18.449 Z2.078 R0.425
X-57.861 Y17.646 Z1.961 R0.425
X-58.139 Y18.449 Z1.844 R0.425
X-57.861 Y17.646 Z1.727 R0.425
X-58.139 Y18.449 Z1.61 R0.425
X-57.861 Y17.646 Z1.494 R0.425
X-58.139 Y18.449 Z1.377 R0.425
X-57.861 Y17.646 Z1.26 R0.425
X-58.139 Y18.449 Z1.143 R0.425
X-57.861 Y17.646 Z1.026 R0.425
X-58.139 Y18.449 Z0.91 R0.425
X-57.861 Y17.646 Z0.793 R0.425
X-58.139 Y18.449 Z0.676 R0.425
X-57.861 Y17.646 Z0.559 R0.425
X-58.139 Y18.449 Z0.442 R0.425
X-57.861 Y17.646 Z0.326 R0.425
X-58.139 Y18.449 Z0.209 R0.425
X-57.861 Y17.646 Z0.092 R0.425
X-58.139 Y18.449 Z-0.025 R0.425
X-57.861 Y17.646 Z-0.142 R0.425
X-58.139 Y18.449 Z-0.259 R0.425
X-57.861 Y17.646 Z-0.375 R0.425
X-58.139 Y18.449 Z-0.492 R0.425
X-57.861 Y17.646 Z-0.609 R0.425
X-58.139 Y18.449 Z-0.726 R0.425
X-57.861 Y17.646 Z-0.843 R0.425
X-58.139 Y18.449 Z-0.959 R0.425
X-57.861 Y17.646 Z-1.076 R0.425
X-58.139 Y18.449 Z-1.193 R0.425
X-57.861 Y17.646 Z-1.31 R0.425
X-58.139 Y18.449 Z-1.427 R0.425
X-57.861 Y17.646 Z-1.543 R0.425
X-58.139 Y18.449 Z-1.66 R0.425
X-57.861 Y17.646 Z-1.777 R0.425
X-58.139 Y18.449 Z-1.894 R0.425
X-57.861 Y17.646 Z-2.011 R0.425
X-58.139 Y18.449 Z-2.128 R0.425
X-57.861 Y17.646 Z-2.244 R0.425
X-58.139 Y18.449 Z-2.361 R0.425
X-57.861 Y17.646 Z-2.478 R0.425
X-58.139 Y18.449 Z-2.595 R0.425
X-57.861 Y17.646 Z-2.712 R0.425
X-58.139 Y18.449 Z-2.828 R0.425
X-57.861 Y17.646 Z-2.945 R0.425
X-58.139 Y18.449 Z-3.062 R0.425
X-57.861 Y17.646 Z-3.179 R0.425
X-58.139 Y18.449 Z-3.296 R0.425
X-57.861 Y17.646 Z-3.412 R0.425
X-58.139 Y18.449 Z-3.529 R0.425
X-57.861 Y17.646 Z-3.646 R0.425
X-58.139 Y18.449 Z-3.763 R0.425
X-57.861 Y17.646 Z-3.88 R0.425
X-58.139 Y18.449 Z-3.997 R0.425
X-57.861 Y17.646 Z-4.113 R0.425
X-58.139 Y18.449 Z-4.23 R0.425
X-57.861 Y17.646 Z-4.347 R0.425
X-58.139 Y18.449 Z-4.464 R0.425
X-57.861 Y17.646 Z-4.581 R0.425
X-58.139 Y18.449 Z-4.697 R0.425
X-57.861 Y17.646 Z-4.814 R0.425
X-58.139 Y18.449 Z-4.931 R0.425
X-57.861 Y17.646 Z-5.048 R0.425
X-58.139 Y18.449 Z-5.165 R0.425
X-57.861 Y17.646 Z-5.281 R0.425
X-58.139 Y18.449 Z-5.398 R0.425
X-57.861 Y17.646 Z-5.515 R0.425
X-58.139 Y18.449 Z-5.632 R0.425
X-57.861 Y17.646 Z-5.749 R0.425
X-58.139 Y18.449 Z-5.866 R0.425
X-57.861 Y17.646 Z-5.982 R0.425
X-58.139 Y18.449 Z-6.099 R0.425
X-57.861 Y17.646 Z-6.216 R0.425
X-58.139 Y18.449 Z-6.333 R0.425
X-57.861 Y17.646 Z-6.45 R0.425
X-58.139 Y18.449 Z-6.566 R0.425
X-57.861 Y17.646 Z-6.683 R0.425
X-58.139 Y18.449 Z-6.8 R0.425
X-57.861 Y17.646 Z-6.917 R0.425
X-58.139 Y18.449 Z-7.034 R0.425
X-57.861 Y17.646 Z-7.15 R0.425
X-58.139 Y18.449 Z-7.267 R0.425
X-57.861 Y17.646 Z-7.384 R0.425
X-58.139 Y18.449 Z-7.501 R0.425
X-57.861 Y17.646 Z-7.618 R0.425
X-58.139 Y18.449 Z-7.735 R0.425
X-57.861 Y17.646 Z-7.851 R0.425
X-58.139 Y18.449 Z-7.968 R0.425
X-57.861 Y17.646 Z-8.085 R0.425
X-58.139 Y18.449 Z-8.202 R0.425
X-57.861 Y17.646 Z-8.319 R0.425
X-58.139 Y18.449 Z-8.435 R0.425
X-57.861 Y17.646 Z-8.552 R0.425
X-58.139 Y18.449 Z-8.669 R0.425
X-57.861 Y17.646 Z-8.786 R0.425
X-58.139 Y18.449 Z-8.903 R0.425
X-57.861 Y17.646 Z-9.019 R0.425
X-58.139 Y18.449 Z-9.136 R0.425
X-57.861 Y17.646 Z-9.253 R0.425
X-58.139 Y18.449 Z-9.37 R0.425
X-57.861 Y17.646 Z-9.487 R0.425
X-58.139 Y18.449 Z-9.604 R0.425
X-57.861 Y17.646 Z-9.72 R0.425
X-58.139 Y18.449 Z-9.837 R0.425
X-57.861 Y17.646 Z-9.954 R0.425
X-57.575 Y18.047 Z-10. R0.425
X-58.425 R0.425
X-57.575 R0.425
G1 X-57.549 Y18.348
X-57.569 Y18.424
X-57.624 Y18.48
X-57.7 Y18.5
X-58.248 Y18.463
X-58.382 Y18.443
X-58.515 Y18.416
X-58.629 Y18.344
X-58.718 Y18.243
X-58.773 Y18.068
X-58.764 Y17.885
X-58.691 Y17.717
X-58.565 Y17.584
X-58.401 Y17.503
X-58.219 Y17.484
X-57.71 Y17.5
X-57.575 Y17.507
X-57.449 Y17.556
X-57.314 Y17.689
X-57.236 Y17.862
X-57.226 Y18.052
X-57.286 Y18.233
X-57.407 Y18.379
X-57.573 Y18.472
X-57.762 Y18.497
X-57.879 Y18.487
X-58.265 Y18.453
X-58.382 Y18.443
X-58.725 Y18.391
X-58.858 Y18.364
X-58.972 Y18.293
X-59.063 Y18.193
X-59.122 Y18.017
X-59.113 Y17.831
X-59.037 Y17.662
X-58.906 Y17.53
X-58.736 Y17.455
X-58.55 Y17.446
X-58.219 Y17.484
G3 X-58.005 Y17.707 R0.24
X-58.725 Y18.391 R0.647
G1 X-59.096 Y18.335
X-59.228 Y18.308
X-59.339 Y18.232
X-59.426 Y18.129
X-59.477 Y17.965
X-59.473 Y17.794
X-59.412 Y17.634
X-59.302 Y17.503
X-59.156 Y17.414
X-58.988 Y17.379
X-58.818 Y17.4
G3 X-58.637 Y17.799 R0.3
G1 X-58.784 Y18.152
G3 X-59.096 Y18.335 R0.3
G1 X-59.241 Y18.309
X-59.532 Y18.186
X-59.654 Y18.126
X-59.745 Y18.027
X-59.809 Y17.908
X-59.822 Y17.712
X-59.762 Y17.526
X-59.638 Y17.375
X-59.467 Y17.28
X-59.273 Y17.255
X-59.084 Y17.302
G3 X-58.963 Y17.725 R0.3
G1 X-59.166 Y18.062
G3 X-59.532 Y18.186 R0.3
G1 X-59.862 Y18.043
X-59.983 Y17.983
X-60.075 Y17.885
X-60.139 Y17.766
X-60.151 Y17.567
X-60.089 Y17.378
X-59.962 Y17.226
X-59.787 Y17.13
X-59.59 Y17.106
X-59.398 Y17.156
X-59.084 Y17.302
G3 X-58.958 Y17.581 R0.244
X-59.862 Y18.043 R0.678
G1 X-60.183 Y17.904
X-60.304 Y17.845
X-60.398 Y17.748
X-60.464 Y17.63
X-60.481 Y17.456
X-60.441 Y17.285
X-60.349 Y17.137
X-60.214 Y17.025
X-60.051 Y16.963
X-59.876 Y16.956
X-59.709 Y17.006
X-59.398 Y17.156
G3 X-59.272 Y17.435 R0.247
X-60.183 Y17.904 R0.683
G1 X-60.299 Y17.851
X-60.57 Y17.64
X-60.672 Y17.551
X-60.742 Y17.435
X-60.779 Y17.306
X-60.755 Y17.125
X-60.668 Y16.964
X-60.529 Y16.845
X-60.357 Y16.783
X-60.175 Y16.786
X-60.005 Y16.854
X-59.991 Y16.864
G3 X-60.57 Y17.64 R0.484
G1 X-60.878 Y17.398
X-60.979 Y17.309
X-61.042 Y17.19
X-61.046 Y17.014
X-60.989 Y16.847
X-60.879 Y16.71
X-60.729 Y16.618
X-60.557 Y16.583
X-60.383 Y16.609
X-60.228 Y16.692
X-60.054 Y16.823
X-60.005 Y16.854
G3 X-59.923 Y17.152 R0.239
X-60.777 Y17.459 R0.638
X-60.878 Y17.398 R0.638
G1 X-61.141 Y17.189
X-61.161 Y17.172
X-61.187 Y17.151
X-61.214 Y17.126
G3 X-61.204 Y16.931 R0.152
X-60.984 Y17.135 R0.15
X-61.187 Y17.151 R0.15
G1 X-61.232 Y17.104
X-61.312 Y16.995
X-61.34 Y16.863
X-61.335 Y16.728
X-61.256 Y16.549
X-61.117 Y16.41
X-60.938 Y16.331
X-60.743 Y16.323
X-60.557 Y16.386
X-60.407 Y16.512
G3 X-60.376 Y16.566 R0.253
X-61.232 Y17.104 R0.512
G1 X-61.454 Y16.81
X-61.53 Y16.698
X-61.562 Y16.567
X-61.56 Y16.432
X-61.477 Y16.256
X-61.337 Y16.121
X-61.157 Y16.046
X-60.962 Y16.041
X-60.778 Y16.107
X-60.631 Y16.234
X-60.407 Y16.512
G3 X-60.418 Y16.828 R0.25
X-61.454 Y16.81 R0.677
G1 X-61.684 Y16.506
X-61.76 Y16.394
X-61.787 Y16.262
X-61.746 Y16.085
X-61.648 Y15.933
X-61.504 Y15.823
X-61.332 Y15.768
X-61.151 Y15.775
X-60.983 Y15.842
X-60.847 Y15.963
X-60.631 Y16.234
G3 X-60.653 Y16.554 R0.247
X-61.684 Y16.506 R0.691
G1 X-61.88 Y16.245
X-61.911 Y16.192
X-61.957 Y16.065
X-61.973 Y15.931
X-61.92 Y15.764
X-61.814 Y15.625
X-61.668 Y15.529
X-61.498 Y15.488
X-61.325 Y15.505
X-61.167 Y15.58
X-61.043 Y15.704
X-60.847 Y15.963
G3 X-60.865 Y16.289 R0.256
X-61.911 Y16.192 R0.661
G1 X-62.06 Y15.828
X-62.105 Y15.701
X-62.107 Y15.566
X-62.072 Y15.435
X-62.009 Y15.316
X-61.879 Y15.208
X-61.72 Y15.151
X-61.551
X-61.392 Y15.209
X-61.262 Y15.317
X-61.177 Y15.463
G3 X-61.166 Y15.5 R1.
X-62.06 Y15.828 R0.478
G1 X-62.208 Y15.465
X-62.253 Y15.338
Y15.203
X-62.168 Y15.034
X-62.027 Y14.907
X-61.85 Y14.84
X-61.661
X-61.485 Y14.909
X-61.345 Y15.037
X-61.261 Y15.207
G3 X-61.503 Y15.574 R0.3
G1 X-61.885 Y15.638
G3 X-62.208 Y15.465 R0.3
G1 X-62.34 Y15.129
X-62.349 Y15.062
X-62.36 Y14.927
X-62.333 Y14.795
X-62.273 Y14.674
X-62.122 Y14.545
X-61.935 Y14.481
X-61.736 Y14.489
X-61.555 Y14.569
X-61.415 Y14.709
X-61.335 Y14.891
X-61.261 Y15.207
G3 X-61.375 Y15.49 R0.262
X-62.318 Y15.175 R0.642
X-62.349 Y15.062 R0.642
G1 X-62.402 Y14.658
X-62.413 Y14.524
X-62.376 Y14.394
X-62.26 Y14.26
X-62.105 Y14.172
X-61.93 Y14.141
X-61.754 Y14.17
X-61.599 Y14.255
X-61.48 Y14.388
X-61.412 Y14.552
X-61.335 Y14.891
G3 X-61.492 Y15.175 R0.254
X-62.373 Y14.772 R0.673
X-62.402 Y14.658 R0.673
G1 X-62.446 Y14.315
X-62.456 Y14.181
X-62.417 Y14.052
X-62.339 Y13.928
X-62.179 Y13.822
X-61.992 Y13.782
X-61.803 Y13.815
X-61.64 Y13.915
X-61.526 Y14.07
X-61.478 Y14.255
X-61.412 Y14.552
G3 X-61.568 Y14.828 R0.246
X-62.446 Y14.315 R0.657
G1 X-62.488 Y13.945
X-62.496 Y13.811
X-62.454 Y13.682
X-62.381 Y13.569
X-62.213 Y13.462
X-62.018 Y13.425
X-61.822 Y13.464
X-61.656 Y13.573
X-61.541 Y13.735
X-61.495 Y13.929
X-61.478 Y14.255
G3 X-61.655 Y14.493 R0.239
X-62.46 Y14.06 R0.667
X-62.488 Y13.945 R0.667
G1 X-62.499 Y13.811
X-62.5 Y13.542
X-62.493 Y13.407
X-62.441 Y13.283
X-62.301 Y13.161
X-62.128 Y13.094
X-61.943 Y13.092
X-61.769 Y13.153
X-61.626 Y13.271
X-61.532 Y13.431
X-61.5 Y13.613
X-61.495 Y13.929
G3 X-61.691 Y14.173 R0.248
X-62.486 Y13.659 R0.669
X-62.5 Y13.542 R0.669
G1 Y13.206
X-62.493 Y13.072
X-62.442 Y12.947
X-62.36 Y12.84
X-62.185 Y12.749
X-61.989 Y12.728
X-61.799 Y12.78
X-61.641 Y12.898
X-61.536 Y13.065
X-61.5 Y13.258
Y13.613
G3 X-61.702 Y13.847 R0.247
X-62.5 Y13.206 R0.676
G1 Y12.836
X-62.493 Y12.701
X-62.438 Y12.578
X-62.353 Y12.474
X-62.178 Y12.386
X-61.983 Y12.367
X-61.795 Y12.42
X-61.639 Y12.538
X-61.536 Y12.704
X-61.5 Y12.896
Y13.258
G3 X-61.71 Y13.493 R0.246
X-62.5 Y12.836 R0.689
G1 Y12.466
X-62.493 Y12.331
X-62.435 Y12.209
X-62.349 Y12.106
X-62.174 Y12.02
X-61.98 Y12.003
X-61.793 Y12.058
X-61.638 Y12.175
X-61.536 Y12.341
X-61.5 Y12.532
Y12.896
G3 X-61.714 Y13.132 R0.246
X-62.5 Y12.466 R0.696
G1 Y12.103
X-62.493 Y11.969
X-62.436 Y11.846
X-62.349 Y11.743
X-62.174 Y11.657
X-61.98 Y11.64
X-61.793 Y11.694
X-61.638 Y11.812
X-61.536 Y11.978
X-61.5 Y12.169
Y12.532
G3 X-61.714 Y12.768 R0.246
X-62.5 Y12.103 R0.695
G1 Y11.727
X-62.493 Y11.592
X-62.433 Y11.472
X-62.344 Y11.37
X-62.168 Y11.288
X-61.975 Y11.273
X-61.79 Y11.329
X-61.636 Y11.447
X-61.535 Y11.612
X-61.5 Y11.803
Y12.169
G3 X-61.721 Y12.406 R0.246
X-62.5 Y11.727 R0.707
G1 Y11.39
X-62.493 Y11.255
X-62.44 Y11.131
X-62.358 Y11.025
X-62.183 Y10.935
X-61.987 Y10.914
X-61.798 Y10.966
X-61.64 Y11.084
X-61.536 Y11.251
X-61.5 Y11.444
Y11.803
G3 X-61.705 Y12.037 R0.247
X-62.486 Y11.507 R0.68
X-62.5 Y11.39 R0.68
G1 Y11.028
X-62.493 Y10.893
X-62.439 Y10.769
X-62.355 Y10.663
X-62.181 Y10.574
X-61.986 Y10.554
X-61.797 Y10.607
X-61.64 Y10.724
X-61.536 Y10.891
X-61.5 Y11.083
Y11.444
G3 X-61.707 Y11.678 R0.247
X-62.5 Y11.028 R0.684
G1 Y10.651
X-62.493 Y10.517
X-62.435 Y10.395
X-62.348 Y10.292
X-62.173 Y10.207
X-61.979 Y10.19
X-61.792 Y10.244
X-61.638 Y10.362
X-61.536 Y10.528
X-61.5 Y10.719
Y11.083
G3 X-61.715 Y11.319 R0.246
X-62.5 Y10.651 R0.697
G1 Y10.281
X-62.493 Y10.146
X-62.433 Y10.025
X-62.345 Y9.923
X-62.17 Y9.84
X-61.977 Y9.824
X-61.791 Y9.88
X-61.637 Y9.998
X-61.535 Y10.163
X-61.5 Y10.354
Y10.719
G3 X-61.719 Y10.955 R0.246
X-62.486 Y10.398 R0.703
X-62.5 Y10.281 R0.703
G1 Y9.911
X-62.493 Y9.776
X-62.432 Y9.656
X-62.343 Y9.554
X-62.168 Y9.472
X-61.975 Y9.457
X-61.79 Y9.513
X-61.636 Y9.632
X-61.535 Y9.797
X-61.5 Y9.987
Y10.354
G3 X-61.721 Y10.59 R0.246
X-62.5 Y9.911 R0.708
G1 Y9.548
X-62.493 Y9.414
X-62.433 Y9.293
X-62.345 Y9.19
X-62.17 Y9.107
X-61.977 Y9.092
X-61.791 Y9.147
X-61.637 Y9.265
X-61.535 Y9.431
X-61.5 Y9.622
Y9.987
G3 X-61.719 Y10.224 R0.246
X-62.5 Y9.548 R0.704
G1 Y9.205
X-62.493 Y9.071
X-62.439 Y8.947
X-62.356 Y8.841
X-62.181 Y8.752
X-61.986 Y8.732
X-61.797 Y8.785
X-61.64 Y8.902
X-61.536 Y9.069
X-61.5 Y9.262
Y9.622
G3 X-61.707 Y9.856 R0.247
X-62.5 Y9.205 R0.684
G1 Y8.835
X-62.493 Y8.7
X-62.437 Y8.578
X-62.351 Y8.474
X-62.176 Y8.387
X-61.982 Y8.37
X-61.794 Y8.423
X-61.638 Y8.541
X-61.536 Y8.707
X-61.5 Y8.899
Y9.262
G3 X-61.712 Y9.497 R0.246
X-62.5 Y8.835 R0.692
G1 Y8.473
X-62.493 Y8.338
X-62.436 Y8.215
X-62.351 Y8.111
X-62.176 Y8.025
X-61.981 Y8.007
X-61.794 Y8.061
X-61.638 Y8.178
X-61.536 Y8.344
X-61.5 Y8.536
Y8.899
G3 X-61.712 Y9.134 R0.246
X-62.486 Y8.589 R0.692
X-62.5 Y8.473 R0.692
G1 Y8.096
X-62.493 Y7.962
X-62.433 Y7.841
X-62.345 Y7.739
X-62.169 Y7.656
X-61.976 Y7.641
X-61.79 Y7.696
X-61.637 Y7.814
X-61.535 Y7.98
X-61.5 Y8.17
Y8.536
G3 X-61.72 Y8.772 R0.246
X-62.5 Y8.096 R0.705
G1 Y7.759
X-62.493 Y7.625
X-62.441 Y7.5
X-62.358 Y7.393
X-62.184 Y7.303
X-61.988 Y7.282
X-61.798 Y7.334
X-61.641 Y7.452
X-61.536 Y7.618
X-61.5 Y7.812
Y8.17
G3 X-61.704 Y8.404 R0.247
X-62.486 Y7.876 R0.679
X-62.5 Y7.759 R0.679
G1 Y7.397
X-62.493 Y7.262
X-62.439 Y7.138
X-62.356 Y7.032
X-62.181 Y6.943
X-61.986 Y6.923
X-61.797 Y6.975
X-61.64 Y7.092
X-61.536 Y7.259
X-61.5 Y7.451
Y7.812
G3 X-61.706 Y8.046 R0.247
X-62.5 Y7.397 R0.683
G1 Y7.021
X-62.493 Y6.886
X-62.435 Y6.764
X-62.348 Y6.661
X-62.173 Y6.575
X-61.979 Y6.559
X-61.793 Y6.613
X-61.638 Y6.731
X-61.536 Y6.896
X-61.5 Y7.088
Y7.451
G3 X-61.715 Y7.687 R0.246
X-62.486 Y7.137 R0.697
X-62.5 Y7.021 R0.697
G1 Y6.65
X-62.493 Y6.516
X-62.434 Y6.394
X-62.346 Y6.292
X-62.17 Y6.208
X-61.977 Y6.193
X-61.791 Y6.248
X-61.637 Y6.366
X-61.535 Y6.532
X-61.5 Y6.723
Y7.088
G3 X-61.718 Y7.324 R0.246
X-62.5 Y6.65 R0.702
G1 Y6.28
X-62.493 Y6.145
X-62.432 Y6.025
X-62.344 Y5.923
X-62.168 Y5.841
X-61.975 Y5.826
X-61.79 Y5.882
X-61.636 Y6.
X-61.535 Y6.166
X-61.5 Y6.356
Y6.723
G3 X-61.721 Y6.959 R0.246
X-62.5 Y6.28 R0.707
G1 Y5.918
X-62.493 Y5.783
X-62.433 Y5.662
X-62.346 Y5.559
X-62.17 Y5.476
X-61.977 Y5.461
X-61.791 Y5.516
X-61.637 Y5.634
X-61.535 Y5.8
X-61.5 Y5.99
Y6.356
G3 X-61.719 Y6.592 R0.246
X-62.5 Y5.918 R0.704
G1 Y5.575
X-62.493 Y5.44
X-62.439 Y5.316
X-62.356 Y5.21
X-62.181 Y5.121
X-61.986 Y5.101
X-61.797 Y5.154
X-61.64 Y5.271
X-61.536 Y5.438
X-61.5 Y5.63
Y5.99
G3 X-61.706 Y6.225 R0.247
X-62.5 Y5.575 R0.683
G1 Y5.204
X-62.493 Y5.07
X-62.437 Y4.947
X-62.351 Y4.843
X-62.176 Y4.756
X-61.982 Y4.739
X-61.794 Y4.792
X-61.638 Y4.91
X-61.536 Y5.076
X-61.5 Y5.268
Y5.63
G3 X-61.712 Y5.866 R0.246
X-62.486 Y5.321 R0.692
X-62.5 Y5.204 R0.692
G1 Y4.842
X-62.493 Y4.707
X-62.436 Y4.584
X-62.351 Y4.48
X-62.176 Y4.394
X-61.981 Y4.376
X-61.794 Y4.43
X-61.638 Y4.547
X-61.536 Y4.713
X-61.5 Y4.905
Y5.268
G3 X-61.712 Y5.503 R0.246
X-62.5 Y4.842 R0.692
G1 Y4.466
X-62.493 Y4.331
X-62.433 Y4.21
X-62.345 Y4.108
X-62.169 Y4.025
X-61.976 Y4.01
X-61.79 Y4.065
X-61.637 Y4.183
X-61.535 Y4.349
X-61.5 Y4.539
Y4.905
G3 X-61.719 Y5.141 R0.246
X-62.5 Y4.466 R0.705
G1 Y4.129
X-62.493 Y3.994
X-62.441 Y3.869
X-62.358 Y3.763
X-62.184 Y3.672
X-61.988 Y3.651
X-61.798 Y3.703
X-61.641 Y3.821
X-61.536 Y3.987
X-61.5 Y4.181
Y4.539
G3 X-61.704 Y4.774 R0.247
X-62.5 Y4.129 R0.679
G1 Y3.766
X-62.493 Y3.631
X-62.439 Y3.507
X-62.356 Y3.401
X-62.181 Y3.312
X-61.986 Y3.292
X-61.797 Y3.344
X-61.64 Y3.461
X-61.536 Y3.628
X-61.5 Y3.82
Y4.181
G3 X-61.706 Y4.415 R0.247
X-62.5 Y3.766 R0.682
G1 Y3.39
X-62.493 Y3.255
X-62.435 Y3.133
X-62.348 Y3.03
X-62.173 Y2.944
X-61.979 Y2.928
X-61.793 Y2.982
X-61.638 Y3.1
X-61.536 Y3.265
X-61.5 Y3.457
Y3.82
G3 X-61.715 Y4.056 R0.246
X-62.5 Y3.39 R0.696
G1 Y3.02
X-62.493 Y2.885
X-62.434 Y2.764
X-62.346 Y2.661
X-62.171 Y2.578
X-61.977 Y2.562
X-61.791 Y2.617
X-61.637 Y2.735
X-61.535 Y2.901
X-61.5 Y3.092
Y3.457
G3 X-61.718 Y3.693 R0.246
X-62.5 Y3.02 R0.702
G1 Y2.649
X-62.493 Y2.515
X-62.432 Y2.394
X-62.344 Y2.292
X-62.168 Y2.21
X-61.975 Y2.195
X-61.79 Y2.251
X-61.636 Y2.369
X-61.535 Y2.535
X-61.5 Y2.725
Y3.092
G3 X-61.721 Y3.328 R0.246
X-62.486 Y2.766 R0.707
X-62.5 Y2.649 R0.707
G1 Y2.287
X-62.493 Y2.152
X-62.433 Y2.031
X-62.346 Y1.928
X-62.17 Y1.845
X-61.977 Y1.83
X-61.791 Y1.885
X-61.637 Y2.003
X-61.535 Y2.169
X-61.5 Y2.36
Y2.725
G3 X-61.719 Y2.961 R0.246
X-62.5 Y2.287 R0.704
G1 Y1.944
X-62.493 Y1.809
X-62.439 Y1.685
X-62.356 Y1.579
X-62.181 Y1.49
X-61.986 Y1.47
X-61.797 Y1.523
X-61.64 Y1.64
X-61.536 Y1.807
X-61.5 Y2.
Y2.36
G3 X-61.706 Y2.594 R0.247
X-62.486 Y2.061 R0.683
X-62.5 Y1.944 R0.683
G1 Y1.574
X-62.493 Y1.439
X-62.437 Y1.316
X-62.351 Y1.212
X-62.176 Y1.126
X-61.982 Y1.108
X-61.794 Y1.161
X-61.638 Y1.279
X-61.536 Y1.445
X-61.5 Y1.637
Y2.
G3 X-61.712 Y2.235 R0.246
X-62.486 Y1.69 R0.692
X-62.5 Y1.574 R0.692
G1 Y1.211
X-62.493 Y1.076
X-62.436 Y0.954
X-62.351 Y0.849
X-62.176 Y0.763
X-61.981 Y0.745
X-61.794 Y0.799
X-61.638 Y0.917
X-61.536 Y1.083
X-61.5 Y1.274
Y1.637
G3 X-61.712 Y1.872 R0.246
X-62.5 Y1.211 R0.692
G1 Y0.835
X-62.493 Y0.7
X-62.433 Y0.579
X-62.345 Y0.477
X-62.169 Y0.394
X-61.976 Y0.379
X-61.79 Y0.434
X-61.637 Y0.552
X-61.535 Y0.718
X-61.5 Y0.908
Y1.274
G3 X-61.719 Y1.511 R0.246
X-62.5 Y0.835 R0.705
G1 Y0.498
X-62.493 Y0.363
X-62.441 Y0.239
X-62.358 Y0.132
X-62.184 Y0.041
X-61.988 Y0.021
X-61.799 Y0.072
X-61.641 Y0.19
X-61.536 Y0.357
X-61.5 Y0.55
Y0.908
G3 X-61.704 Y1.143 R0.247
X-62.5 Y0.498 R0.679
G1 Y0.135
X-62.493 Y0.
X-62.439 Y-0.124
X-62.356 Y-0.229
X-62.181 Y-0.319
X-61.986 Y-0.339
X-61.797 Y-0.287
X-61.64 Y-0.17
X-61.536 Y-0.003
X-61.5 Y0.19
Y0.55
G3 X-61.706 Y0.784 R0.247
X-62.5 Y0.135 R0.682
G1 Y-0.241
X-62.493 Y-0.376
X-62.435 Y-0.498
X-62.348 Y-0.601
X-62.173 Y-0.686
X-61.979 Y-0.703
X-61.793 Y-0.649
X-61.638 Y-0.531
X-61.536 Y-0.365
X-61.5 Y-0.174
Y0.19
G3 X-61.715 Y0.425 R0.246
X-62.5 Y-0.241 R0.696
G1 Y-0.611
X-62.493 Y-0.746
X-62.434 Y-0.867
X-62.346 Y-0.97
X-62.171 Y-1.053
X-61.977 Y-1.069
X-61.791 Y-1.014
X-61.637 Y-0.896
X-61.535 Y-0.73
X-61.5 Y-0.539
Y-0.174
G3 X-61.718 Y0.062 R0.246
X-62.5 Y-0.611 R0.702
G1 Y-0.981
X-62.493 Y-1.116
X-62.432 Y-1.237
X-62.344 Y-1.338
X-62.168 Y-1.421
X-61.975 Y-1.435
X-61.79 Y-1.38
X-61.636 Y-1.261
X-61.535 Y-1.096
X-61.5 Y-0.906
Y-0.539
G3 X-61.721 Y-0.303 R0.246
X-62.5 Y-0.981 R0.707
G1 Y-1.344
X-62.493 Y-1.479
X-62.433 Y-1.6
X-62.346 Y-1.702
X-62.17 Y-1.786
X-61.977 Y-1.801
X-61.791 Y-1.746
X-61.637 Y-1.628
X-61.535 Y-1.462
X-61.5 Y-1.271
Y-0.906
G3 X-61.719 Y-0.669 R0.246
X-62.5 Y-1.344 R0.704
G1 Y-1.687
X-62.493 Y-1.822
X-62.439 Y-1.946
X-62.356 Y-2.052
X-62.181 Y-2.141
X-61.986 Y-2.161
X-61.797 Y-2.108
X-61.64 Y-1.991
X-61.536 Y-1.824
X-61.5 Y-1.631
Y-1.271
G3 X-61.706 Y-1.037 R0.247
X-62.5 Y-1.687 R0.683
G1 Y-2.057
X-62.493 Y-2.192
X-62.437 Y-2.315
X-62.351 Y-2.419
X-62.176 Y-2.505
X-61.982 Y-2.523
X-61.794 Y-2.469
X-61.638 Y-2.352
X-61.536 Y-2.186
X-61.5 Y-1.994
Y-1.631
G3 X-61.712 Y-1.396 R0.246
X-62.486 Y-1.94 R0.692
X-62.5 Y-2.057 R0.692
G1 Y-2.42
X-62.493 Y-2.555
X-62.436 Y-2.677
X-62.351 Y-2.781
X-62.176 Y-2.868
X-61.981 Y-2.886
X-61.794 Y-2.832
X-61.638 Y-2.714
X-61.536 Y-2.548
X-61.5 Y-2.357
Y-1.994
G3 X-61.712 Y-1.759 R0.246
X-62.5 Y-2.42 R0.692
G1 Y-2.796
X-62.493 Y-2.931
X-62.433 Y-3.052
X-62.345 Y-3.154
X-62.169 Y-3.237
X-61.976 Y-3.252
X-61.79 Y-3.197
X-61.637 Y-3.078
X-61.535 Y-2.913
X-61.5 Y-2.722
Y-2.357
G3 X-61.719 Y-2.12 R0.246
X-62.5 Y-2.796 R0.705
G1 Y-3.133
X-62.493 Y-3.268
X-62.441 Y-3.392
X-62.358 Y-3.499
X-62.184 Y-3.59
X-61.988 Y-3.61
X-61.799 Y-3.558
X-61.641 Y-3.441
X-61.536 Y-3.274
X-61.5 Y-3.081
Y-2.722
G3 X-61.704 Y-2.488 R0.247
X-62.5 Y-3.133 R0.679
G1 Y-3.496
X-62.493 Y-3.631
X-62.439 Y-3.754
X-62.356 Y-3.86
X-62.181 Y-3.95
X-61.986 Y-3.97
X-61.797 Y-3.918
X-61.64 Y-3.8
X-61.536 Y-3.634
X-61.5 Y-3.441
Y-3.081
G3 X-61.706 Y-2.846 R0.247
X-62.5 Y-3.496 R0.682
G1 Y-3.872
X-62.493 Y-4.007
X-62.435 Y-4.129
X-62.348 Y-4.232
X-62.173 Y-4.317
X-61.979 Y-4.334
X-61.793 Y-4.28
X-61.638 Y-4.162
X-61.536 Y-3.996
X-61.5 Y-3.805
Y-3.441
G3 X-61.715 Y-3.205 R0.246
X-62.5 Y-3.872 R0.696
G1 Y-4.242
X-62.493 Y-4.377
X-62.434 Y-4.498
X-62.346 Y-4.6
X-62.171 Y-4.684
X-61.977 Y-4.699
X-61.791 Y-4.644
X-61.637 Y-4.526
X-61.535 Y-4.361
X-61.5 Y-4.17
Y-3.805
G3 X-61.718 Y-3.569 R0.246
X-62.5 Y-4.242 R0.702
G1 Y-4.612
X-62.493 Y-4.747
X-62.432 Y-4.868
X-62.344 Y-4.969
X-62.168 Y-5.052
X-61.975 Y-5.066
X-61.79 Y-5.011
X-61.636 Y-4.892
X-61.535 Y-4.727
X-61.5 Y-4.536
Y-4.17
G3 X-61.721 Y-3.934 R0.246
X-62.5 Y-4.612 R0.707
G1 Y-4.975
X-62.493 Y-5.11
X-62.433 Y-5.231
X-62.346 Y-5.333
X-62.17 Y-5.417
X-61.977 Y-5.432
X-61.791 Y-5.377
X-61.637 Y-5.258
X-61.535 Y-5.093
X-61.5 Y-4.902
Y-4.536
G3 X-61.719 Y-4.3 R0.246
X-62.5 Y-4.975 R0.704
G1 Y-5.318
X-62.493 Y-5.453
X-62.439 Y-5.577
X-62.356 Y-5.683
X-62.181 Y-5.772
X-61.986 Y-5.791
X-61.797 Y-5.739
X-61.64 Y-5.621
X-61.536 Y-5.455
X-61.5 Y-5.262
Y-4.902
G3 X-61.706 Y-4.667 R0.247
X-62.5 Y-5.318 R0.683
G1 Y-5.688
X-62.493 Y-5.823
X-62.437 Y-5.945
X-62.351 Y-6.049
X-62.176 Y-6.136
X-61.982 Y-6.154
X-61.794 Y-6.1
X-61.638 Y-5.983
X-61.536 Y-5.817
X-61.5 Y-5.625
Y-5.262
G3 X-61.712 Y-5.027 R0.246
X-62.486 Y-5.571 R0.692
X-62.5 Y-5.688 R0.692
G1 Y-6.051
X-62.493 Y-6.186
X-62.436 Y-6.308
X-62.351 Y-6.412
X-62.176 Y-6.499
X-61.981 Y-6.516
X-61.794 Y-6.463
X-61.638 Y-6.345
X-61.536 Y-6.179
X-61.5 Y-5.987
Y-5.625
G3 X-61.712 Y-5.39 R0.246
X-62.5 Y-6.051 R0.692
G1 Y-6.427
X-62.493 Y-6.562
X-62.433 Y-6.683
X-62.345 Y-6.785
X-62.169 Y-6.868
X-61.976 Y-6.883
X-61.79 Y-6.827
X-61.637 Y-6.709
X-61.535 Y-6.544
X-61.5 Y-6.353
Y-5.987
G3 X-61.719 Y-5.751 R0.246
X-62.5 Y-6.427 R0.705
G1 Y-6.764
X-62.493 Y-6.899
X-62.441 Y-7.023
X-62.358 Y-7.13
X-62.184 Y-7.22
X-61.988 Y-7.241
X-61.799 Y-7.189
X-61.641 Y-7.072
X-61.536 Y-6.905
X-61.5 Y-6.712
Y-6.353
G3 X-61.704 Y-6.119 R0.247
X-62.5 Y-6.764 R0.679
G1 Y-7.127
X-62.493 Y-7.261
X-62.439 Y-7.385
X-62.356 Y-7.491
X-62.181 Y-7.581
X-61.986 Y-7.601
X-61.797 Y-7.548
X-61.64 Y-7.431
X-61.536 Y-7.265
X-61.5 Y-7.072
Y-6.712
G3 X-61.706 Y-6.477 R0.247
X-62.5 Y-7.127 R0.682
G1 Y-7.503
X-62.493 Y-7.638
X-62.435 Y-7.759
X-62.348 Y-7.863
X-62.173 Y-7.948
X-61.979 Y-7.965
X-61.793 Y-7.911
X-61.638 Y-7.793
X-61.536 Y-7.627
X-61.5 Y-7.436
Y-7.072
G3 X-61.715 Y-6.836 R0.246
X-62.5 Y-7.503 R0.696
G1 Y-7.873
X-62.493 Y-8.008
X-62.434 Y-8.129
X-62.346 Y-8.231
X-62.171 Y-8.315
X-61.977 Y-8.33
X-61.791 Y-8.275
X-61.637 Y-8.157
X-61.535 Y-7.992
X-61.5 Y-7.801
Y-7.436
G3 X-61.718 Y-7.2 R0.246
X-62.5 Y-7.873 R0.702
G1 Y-8.243
X-62.493 Y-8.378
X-62.432 Y-8.498
X-62.344 Y-8.6
X-62.168 Y-8.683
X-61.975 Y-8.697
X-61.79 Y-8.641
X-61.636 Y-8.523
X-61.535 Y-8.358
X-61.5 Y-8.167
Y-7.801
G3 X-61.721 Y-7.564 R0.246
X-62.5 Y-8.243 R0.707
G1 Y-8.606
X-62.493 Y-8.741
X-62.433 Y-8.862
X-62.346 Y-8.964
X-62.17 Y-9.048
X-61.977 Y-9.063
X-61.791 Y-9.007
X-61.637 Y-8.889
X-61.535 Y-8.724
X-61.5 Y-8.533
Y-8.167
G3 X-61.719 Y-7.931 R0.246
X-62.5 Y-8.606 R0.704
G1 Y-8.949
X-62.493 Y-9.084
X-62.439 Y-9.207
X-62.356 Y-9.313
X-62.181 Y-9.403
X-61.986 Y-9.422
X-61.797 Y-9.37
X-61.64 Y-9.252
X-61.536 Y-9.086
X-61.5 Y-8.893
Y-8.533
G3 X-61.706 Y-8.298 R0.247
X-62.5 Y-8.949 R0.683
G1 Y-9.319
X-62.493 Y-9.454
X-62.437 Y-9.576
X-62.351 Y-9.68
X-62.176 Y-9.767
X-61.982 Y-9.785
X-61.794 Y-9.731
X-61.638 Y-9.613
X-61.536 Y-9.448
X-61.5 Y-9.256
Y-8.893
G3 X-61.712 Y-8.657 R0.246
X-62.486 Y-9.202 R0.692
X-62.5 Y-9.319 R0.692
G1 Y-9.682
X-62.493 Y-9.816
X-62.436 Y-9.939
X-62.351 Y-10.043
X-62.176 Y-10.13
X-61.981 Y-10.147
X-61.794 Y-10.094
X-61.638 Y-9.976
X-61.536 Y-9.81
X-61.5 Y-9.618
Y-9.256
G3 X-61.712 Y-9.02 R0.246
X-62.5 Y-9.682 R0.692
G1 Y-10.058
X-62.493 Y-10.193
X-62.433 Y-10.313
X-62.345 Y-10.415
X-62.169 Y-10.499
X-61.976 Y-10.513
X-61.79 Y-10.458
X-61.637 Y-10.34
X-61.535 Y-10.175
X-61.5 Y-9.984
Y-9.618
G3 X-61.719 Y-9.382 R0.246
X-62.5 Y-10.058 R0.705
G1 Y-10.395
X-62.493 Y-10.529
X-62.441 Y-10.654
X-62.358 Y-10.761
X-62.184 Y-10.851
X-61.988 Y-10.872
X-61.799 Y-10.82
X-61.641 Y-10.703
X-61.536 Y-10.536
X-61.5 Y-10.343
Y-9.984
G3 X-61.704 Y-9.75 R0.247
X-62.5 Y-10.395 R0.679
G1 Y-10.757
X-62.493 Y-10.892
X-62.439 Y-11.016
X-62.356 Y-11.122
X-62.181 Y-11.211
X-61.986 Y-11.232
X-61.797 Y-11.179
X-61.64 Y-11.062
X-61.536 Y-10.896
X-61.5 Y-10.703
Y-10.343
G3 X-61.706 Y-10.108 R0.247
X-62.5 Y-10.757 R0.682
G1 Y-11.134
X-62.493 Y-11.268
X-62.435 Y-11.39
X-62.348 Y-11.494
X-62.173 Y-11.579
X-61.979 Y-11.596
X-61.793 Y-11.541
X-61.638 Y-11.424
X-61.536 Y-11.258
X-61.5 Y-11.067
Y-10.703
G3 X-61.715 Y-10.467 R0.246
X-62.5 Y-11.134 R0.696
G1 Y-11.504
X-62.493 Y-11.639
X-62.434 Y-11.76
X-62.346 Y-11.862
X-62.171 Y-11.946
X-61.977 Y-11.961
X-61.791 Y-11.906
X-61.637 Y-11.788
X-61.535 Y-11.623
X-61.5 Y-11.432
Y-11.067
G3 X-61.718 Y-10.83 R0.246
X-62.5 Y-11.504 R0.702
G1 Y-11.874
X-62.493 Y-12.009
X-62.432 Y-12.129
X-62.344 Y-12.231
X-62.168 Y-12.313
X-61.975 Y-12.328
X-61.79 Y-12.272
X-61.636 Y-12.154
X-61.535 Y-11.989
X-61.5 Y-11.798
Y-11.432
G3 X-61.721 Y-11.195 R0.246
X-62.5 Y-11.874 R0.707
G1 Y-12.237
X-62.493 Y-12.371
X-62.433 Y-12.492
X-62.346 Y-12.595
X-62.17 Y-12.678
X-61.977 Y-12.693
X-61.791 Y-12.638
X-61.637 Y-12.52
X-61.535 Y-12.355
X-61.5 Y-12.164
Y-11.798
G3 X-61.719 Y-11.562 R0.246
X-62.5 Y-12.237 R0.704
G1 Y-12.58
X-62.493 Y-12.714
X-62.439 Y-12.838
X-62.356 Y-12.944
X-62.181 Y-13.033
X-61.986 Y-13.053
X-61.797 Y-13.001
X-61.64 Y-12.883
X-61.536 Y-12.717
X-61.5 Y-12.524
Y-12.164
G3 X-61.706 Y-11.929 R0.247
X-62.5 Y-12.58 R0.683
G1 Y-12.95
X-62.493 Y-13.085
X-62.437 Y-13.207
X-62.351 Y-13.311
X-62.176 Y-13.398
X-61.982 Y-13.416
X-61.794 Y-13.362
X-61.638 Y-13.244
X-61.536 Y-13.078
X-61.5 Y-12.887
Y-12.524
G3 X-61.712 Y-12.288 R0.246
X-62.486 Y-12.833 R0.692
X-62.5 Y-12.95 R0.692
G1 Y-13.312
X-62.493 Y-13.447
X-62.436 Y-13.57
X-62.351 Y-13.674
X-62.176 Y-13.76
X-61.981 Y-13.778
X-61.794 Y-13.724
X-61.638 Y-13.607
X-61.536 Y-13.441
X-61.5 Y-13.249
Y-12.887
G3 X-61.712 Y-12.651 R0.246
X-62.5 Y-13.312 R0.692
G1 Y-13.689
X-62.493 Y-13.823
X-62.433 Y-13.944
X-62.345 Y-14.046
X-62.169 Y-14.129
X-61.976 Y-14.144
X-61.79 Y-14.089
X-61.637 Y-13.971
X-61.535 Y-13.805
X-61.5 Y-13.615
Y-13.249
G3 X-61.719 Y-13.013 R0.246
X-62.5 Y-13.689 R0.705
G1 X-62.498 Y-13.85
X-62.475 Y-14.092
X-62.456 Y-14.226
X-62.387 Y-14.342
X-62.24 Y-14.442
X-62.067 Y-14.488
X-61.89 Y-14.473
X-61.727 Y-14.401
X-61.598 Y-14.278
X-61.518 Y-14.119
X-61.495 Y-13.942
X-61.5 Y-13.615
G3 X-61.724 Y-13.374 R0.251
X-62.475 Y-14.092 R0.68
G1 X-62.436 Y-14.429
X-62.409 Y-14.561
X-62.341 Y-14.678
X-62.245 Y-14.773
X-62.068 Y-14.836
X-61.881 Y-14.832
X-61.708 Y-14.761
X-61.572 Y-14.632
X-61.492 Y-14.462
X-61.478 Y-14.275
X-61.495 Y-13.942
G3 X-61.709 Y-13.715 R0.248
X-62.436 Y-14.429 R0.646
G1 X-62.381 Y-14.792
X-62.354 Y-14.924
X-62.283 Y-15.039
X-62.136 Y-15.133
X-61.966 Y-15.172
X-61.793 Y-15.15
X-61.638 Y-15.071
X-61.519 Y-14.943
X-61.45 Y-14.783
X-61.44 Y-14.609
X-61.478 Y-14.275
G3 X-61.701 Y-14.072 R0.239
X-62.384 Y-14.674 R0.647
X-62.381 Y-14.792 R0.647
G1 X-62.329 Y-15.135
X-62.324 Y-15.168
X-62.32 Y-15.195
X-62.278 Y-15.318
X-62.253 Y-15.327
G3 X-62.213 Y-15.313 R0.034
X-62.195 Y-15.272 R0.157
X-62.207 Y-15.161 R0.157
X-62.32 Y-15.195 R0.06
G1 X-62.283 Y-15.306
X-62.273 Y-15.33
X-62.243 Y-15.39
X-62.141 Y-15.478
X-61.973 Y-15.531
X-61.797 Y-15.526
X-61.632 Y-15.464
X-61.497 Y-15.352
X-61.405 Y-15.202
X-61.367 Y-15.03
X-61.388 Y-14.855
G3 X-61.468 Y-14.739 R0.25
X-62.273 Y-15.33 R0.517
G1 X-62.169 Y-15.571
X-62.109 Y-15.692
X-62.011 Y-15.786
X-61.893 Y-15.85
X-61.697 Y-15.864
X-61.509 Y-15.803
X-61.358 Y-15.678
X-61.263 Y-15.505
X-61.239 Y-15.31
X-61.289 Y-15.12
G3 X-61.711 Y-15.002 R0.3
G1 X-62.045 Y-15.206
G3 X-62.169 Y-15.571 R0.3
G1 X-62.026 Y-15.901
X-61.967 Y-16.022
X-61.868 Y-16.115
X-61.75 Y-16.179
X-61.55 Y-16.191
X-61.361 Y-16.129
X-61.207 Y-16.001
X-61.112 Y-15.825
X-61.088 Y-15.627
X-61.139 Y-15.434
X-61.289 Y-15.12
G3 X-61.567 Y-14.997 R0.244
X-62.026 Y-15.901 R0.679
G1 X-61.88 Y-16.239
X-61.866 Y-16.271
X-61.847 Y-16.304
X-61.762 Y-16.409
X-61.65 Y-16.485
X-61.472 Y-16.514
X-61.295 Y-16.483
X-61.138 Y-16.395
X-61.018 Y-16.26
X-60.95 Y-16.093
X-60.94 Y-15.913
X-60.991 Y-15.74
X-61.139 Y-15.434
G3 X-61.452 Y-15.31 R0.257
X-61.847 Y-16.304 R0.71
G1 X-61.611 Y-16.607
X-61.522 Y-16.709
X-61.405 Y-16.776
X-61.236 Y-16.791
X-61.071 Y-16.748
X-60.93 Y-16.655
X-60.827 Y-16.519
X-60.775 Y-16.358
X-60.779 Y-16.188
X-60.839 Y-16.029
X-60.991 Y-15.74
G3 X-61.297 Y-15.618 R0.254
X-61.611 Y-16.607 R0.643
G1 X-61.394 Y-16.883
X-61.306 Y-16.985
X-61.186 Y-17.047
X-61.054 Y-17.077
X-60.872 Y-17.039
X-60.715 Y-16.938
X-60.606 Y-16.787
X-60.56 Y-16.607
X-60.582 Y-16.422
X-60.669 Y-16.257
X-60.823 Y-16.056
X-60.839 Y-16.029
G3 X-61.133 Y-15.937 R0.238
X-61.394 Y-16.883 R0.626
G1 X-61.164 Y-17.171
X-61.144 Y-17.194
X-61.128 Y-17.212
X-61.019 Y-17.291
X-60.892 Y-17.338
X-60.703 Y-17.318
X-60.532 Y-17.232
X-60.403 Y-17.093
X-60.331 Y-16.917
X-60.325 Y-16.726
X-60.387 Y-16.546
X-60.508 Y-16.4
G3 X-60.623 Y-16.349 R0.251
X-61.128 Y-17.212 R0.536
G1 X-60.831 Y-17.439
X-60.719 Y-17.514
X-60.589 Y-17.551
X-60.454 Y-17.554
X-60.275 Y-17.475
X-60.136 Y-17.336
X-60.057 Y-17.157
X-60.049 Y-16.961
X-60.113 Y-16.776
X-60.24 Y-16.626
X-60.508 Y-16.4
G3 X-60.819 Y-16.398 R0.253
X-60.831 Y-17.439 R0.664
G1 X-60.535 Y-17.662
X-60.423 Y-17.738
X-60.292 Y-17.772
X-60.157 Y-17.77
X-59.982 Y-17.689
X-59.848 Y-17.55
X-59.773 Y-17.371
X-59.768 Y-17.178
X-59.833 Y-16.996
X-59.959 Y-16.85
X-60.24 Y-16.626
G3 X-60.551 Y-16.636 R0.248
X-60.535 Y-17.662 R0.669
G1 X-60.239 Y-17.885
X-60.185 Y-17.914
X-60.058 Y-17.96
X-59.924 Y-17.976
X-59.756 Y-17.918
X-59.618 Y-17.807
X-59.525 Y-17.656
X-59.488 Y-17.483
X-59.511 Y-17.308
X-59.592 Y-17.15
X-59.721 Y-17.029
G3 X-59.791 Y-16.999 R0.25
X-60.117 Y-17.942 R0.501
G1 X-59.821 Y-18.063
X-59.694 Y-18.108
X-59.559 Y-18.107
X-59.403 Y-18.032
X-59.282 Y-17.909
X-59.21 Y-17.751
X-59.195 Y-17.579
X-59.239 Y-17.412
X-59.337 Y-17.27
X-59.478 Y-17.169
G3 X-59.525 Y-17.154 R0.239
X-59.821 Y-18.063 R0.481
G1 X-59.486 Y-18.2
X-59.358 Y-18.245
X-59.224 Y-18.234
X-59.096 Y-18.19
X-58.952 Y-18.052
X-58.869 Y-17.871
X-58.861 Y-17.671
X-58.928 Y-17.483
X-59.06 Y-17.334
X-59.239 Y-17.245
G3 X-59.606 Y-17.495 R0.3
G1 X-59.66 Y-17.885
G3 X-59.486 Y-18.2 R0.3
G1 X-59.156 Y-18.333
X-59.122 Y-18.341
X-58.988 Y-18.353
X-58.854 Y-18.336
X-58.727 Y-18.283
X-58.604 Y-18.159
X-58.527 Y-18.003
X-58.505 Y-17.83
X-58.54 Y-17.659
X-58.628 Y-17.509
X-58.759 Y-17.395
X-58.92 Y-17.329
X-59.239 Y-17.245
G3 X-59.52 Y-17.365 R0.257
X-59.122 Y-18.341 R0.665
G1 X-58.679 Y-18.399
X-58.544 Y-18.41
X-58.415 Y-18.37
X-58.3 Y-18.3
X-58.192 Y-18.146
X-58.146 Y-17.964
X-58.166 Y-17.777
X-58.25 Y-17.609
X-58.387 Y-17.481
X-58.561 Y-17.409
X-58.92 Y-17.329
G3 X-59.207 Y-17.49 R0.254
X-58.679 Y-18.399 R0.682
G1 X-58.308 Y-18.447
X-58.174 Y-18.458
X-58.045 Y-18.417
X-57.917 Y-18.299
X-57.836 Y-18.145
X-57.81 Y-17.973
X-57.843 Y-17.802
X-57.93 Y-17.652
X-58.063 Y-17.539
X-58.225 Y-17.477
X-58.561 Y-17.409
G3 X-58.838 Y-17.575 R0.246
X-58.308 Y-18.447 R0.673
G1 X-57.979 Y-18.48
X-57.844 Y-18.485
X-57.714 Y-18.447
X-57.6 Y-18.375
X-57.493 Y-18.207
X-57.457 Y-18.011
X-57.497 Y-17.816
X-57.607 Y-17.65
X-57.772 Y-17.537
X-57.966 Y-17.495
G3 X-58.262 Y-17.811 R0.3
G1 X-58.241 Y-18.198
G3 X-57.979 Y-18.48 R0.3
G1 X-57.71 Y-18.5
X-57.575
X-57.44 Y-18.493
X-57.316 Y-18.441
X-57.193 Y-18.302
X-57.126 Y-18.13
X-57.122 Y-17.944
X-57.183 Y-17.769
X-57.301 Y-17.626
X-57.461 Y-17.533
X-57.643 Y-17.5
X-57.966 Y-17.495
G3 X-58.205 Y-17.69 R0.248
X-57.575 Y-18.5 R0.669
G1 X-57.232
X-57.097 Y-18.493
X-56.973 Y-18.441
X-56.867 Y-18.357
X-56.778 Y-18.182
X-56.758 Y-17.987
X-56.811 Y-17.797
X-56.928 Y-17.64
X-57.095 Y-17.536
X-57.288 Y-17.5
X-57.643
G3 X-57.877 Y-17.704 R0.247
X-57.232 Y-18.5 R0.679
G1 X-56.862
X-56.727 Y-18.493
X-56.604 Y-18.437
X-56.5 Y-18.351
X-56.414 Y-18.176
X-56.396 Y-17.982
X-56.449 Y-17.794
X-56.567 Y-17.638
X-56.733 Y-17.536
X-56.925 Y-17.5
X-57.288
G3 X-57.524 Y-17.712 R0.246
X-56.862 Y-18.5 R0.693
G1 X-56.499
X-56.364 Y-18.493
X-56.242 Y-18.436
X-56.137 Y-18.351
X-56.051 Y-18.176
X-56.033 Y-17.982
X-56.087 Y-17.794
X-56.205 Y-17.638
X-56.371 Y-17.536
X-56.562 Y-17.5
X-56.925
G3 X-57.16 Y-17.712 R0.246
X-56.499 Y-18.5 R0.692
G1 X-56.123
X-55.988 Y-18.493
X-55.867 Y-18.433
X-55.765 Y-18.345
X-55.682 Y-18.169
X-55.667 Y-17.976
X-55.722 Y-17.79
X-55.84 Y-17.637
X-56.006 Y-17.535
X-56.196 Y-17.5
X-56.562
G3 X-56.799 Y-17.72 R0.246
X-56.123 Y-18.5 R0.705
G1 X-55.786
X-55.651 Y-18.493
X-55.526 Y-18.441
X-55.42 Y-18.358
X-55.329 Y-18.184
X-55.309 Y-17.988
X-55.36 Y-17.798
X-55.478 Y-17.641
X-55.645 Y-17.536
X-55.838 Y-17.5
X-56.196
G3 X-56.431 Y-17.704 R0.247
X-55.786 Y-18.5 R0.679
G1 X-55.423
X-55.288 Y-18.493
X-55.164 Y-18.439
X-55.058 Y-18.356
X-54.969 Y-18.181
X-54.949 Y-17.986
X-55.001 Y-17.797
X-55.118 Y-17.64
X-55.285 Y-17.536
X-55.477 Y-17.5
X-55.838
G3 X-56.072 Y-17.706 R0.247
X-55.423 Y-18.5 R0.683
G1 X-55.046
X-54.912 Y-18.493
X-54.79 Y-18.435
X-54.687 Y-18.348
X-54.601 Y-18.173
X-54.585 Y-17.979
X-54.639 Y-17.792
X-54.757 Y-17.638
X-54.922 Y-17.536
X-55.114 Y-17.5
X-55.477
G3 X-55.713 Y-17.715 R0.246
X-55.046 Y-18.5 R0.697
G1 X-54.676
X-54.541 Y-18.493
X-54.42 Y-18.434
X-54.318 Y-18.345
X-54.234 Y-18.17
X-54.219 Y-17.977
X-54.274 Y-17.791
X-54.392 Y-17.637
X-54.558 Y-17.535
X-54.749 Y-17.5
X-55.114
G3 X-55.35 Y-17.718 R0.246
X-54.676 Y-18.5 R0.703
G1 X-54.306
X-54.171 Y-18.493
X-54.051 Y-18.432
X-53.949 Y-18.344
X-53.867 Y-18.168
X-53.852 Y-17.975
X-53.908 Y-17.79
X-54.026 Y-17.636
X-54.192 Y-17.535
X-54.382 Y-17.5
X-54.749
G3 X-54.985 Y-17.721 R0.246
X-54.306 Y-18.5 R0.707
G1 X-53.943
X-53.808 Y-18.493
X-53.687 Y-18.433
X-53.585 Y-18.345
X-53.502 Y-18.17
X-53.486 Y-17.977
X-53.542 Y-17.791
X-53.66 Y-17.637
X-53.825 Y-17.535
X-54.016 Y-17.5
X-54.382
G3 X-54.618 Y-17.719 R0.246
X-53.943 Y-18.5 R0.704
G1 X-53.6
X-53.465 Y-18.493
X-53.341 Y-18.439
X-53.235 Y-18.356
X-53.146 Y-18.181
X-53.127 Y-17.986
X-53.179 Y-17.797
X-53.297 Y-17.64
X-53.463 Y-17.536
X-53.656 Y-17.5
X-54.016
G3 X-54.251 Y-17.707 R0.247
X-53.6 Y-18.5 R0.684
G1 X-53.23
X-53.095 Y-18.493
X-52.972 Y-18.436
X-52.868 Y-18.35
X-52.782 Y-18.176
X-52.764 Y-17.981
X-52.818 Y-17.794
X-52.936 Y-17.638
X-53.101 Y-17.536
X-53.293 Y-17.5
X-53.656
G3 X-53.892 Y-17.712 R0.246
X-53.23 Y-18.5 R0.693
G1 X-52.867
X-52.732 Y-18.493
X-52.61 Y-18.436
X-52.505 Y-18.35
X-52.419 Y-18.176
X-52.402 Y-17.981
X-52.455 Y-17.794
X-52.573 Y-17.638
X-52.739 Y-17.536
X-52.931 Y-17.5
X-53.293
G3 X-53.529 Y-17.712 R0.246
X-52.867 Y-18.5 R0.693
G1 X-52.491
X-52.356 Y-18.493
X-52.235 Y-18.433
X-52.133 Y-18.344
X-52.05 Y-18.169
X-52.035 Y-17.976
X-52.091 Y-17.79
X-52.209 Y-17.636
X-52.374 Y-17.535
X-52.565 Y-17.5
X-52.931
G3 X-53.167 Y-17.72 R0.246
X-52.491 Y-18.5 R0.705
G1 X-52.154
X-52.019 Y-18.493
X-51.894 Y-18.441
X-51.788 Y-18.358
X-51.697 Y-18.184
X-51.677 Y-17.988
X-51.729 Y-17.798
X-51.846 Y-17.641
X-52.013 Y-17.536
X-52.206 Y-17.5
X-52.565
G3 X-52.799 Y-17.704 R0.247
X-52.154 Y-18.5 R0.679
G1 X-51.791
X-51.656 Y-18.493
X-51.532 Y-18.439
X-51.426 Y-18.356
X-51.337 Y-18.181
X-51.317 Y-17.986
X-51.369 Y-17.797
X-51.486 Y-17.64
X-51.653 Y-17.536
X-51.846 Y-17.5
X-52.206
G3 X-52.441 Y-17.706 R0.247
X-51.791 Y-18.5 R0.683
G1 X-51.414
X-51.279 Y-18.493
X-51.158 Y-18.435
X-51.055 Y-18.348
X-50.969 Y-18.173
X-50.953 Y-17.979
X-51.007 Y-17.792
X-51.125 Y-17.638
X-51.29 Y-17.536
X-51.482 Y-17.5
X-51.846
G3 X-52.081 Y-17.715 R0.246
X-51.414 Y-18.5 R0.697
G1 X-51.044
X-50.909 Y-18.493
X-50.788 Y-18.433
X-50.686 Y-18.345
X-50.602 Y-18.17
X-50.587 Y-17.977
X-50.642 Y-17.791
X-50.76 Y-17.637
X-50.926 Y-17.535
X-51.117 Y-17.5
X-51.482
G3 X-51.718 Y-17.718 R0.246
X-51.044 Y-18.5 R0.703
G1 X-50.674
X-50.539 Y-18.493
X-50.418 Y-18.432
X-50.317 Y-18.344
X-50.234 Y-18.168
X-50.22 Y-17.975
X-50.276 Y-17.79
X-50.394 Y-17.636
X-50.559 Y-17.535
X-50.75 Y-17.5
X-51.117
G3 X-51.353 Y-17.721 R0.246
X-50.674 Y-18.5 R0.707
G1 X-50.311
X-50.176 Y-18.493
X-50.055 Y-18.433
X-49.953 Y-18.345
X-49.869 Y-18.17
X-49.854 Y-17.977
X-49.91 Y-17.791
X-50.028 Y-17.637
X-50.193 Y-17.535
X-50.384 Y-17.5
X-50.75
G3 X-50.986 Y-17.719 R0.246
X-50.311 Y-18.5 R0.704
G1 X-49.968
X-49.833 Y-18.493
X-49.709 Y-18.439
X-49.603 Y-18.356
X-49.514 Y-18.181
X-49.495 Y-17.986
X-49.547 Y-17.797
X-49.665 Y-17.64
X-49.831 Y-17.536
X-50.024 Y-17.5
X-50.384
G3 X-50.619 Y-17.707 R0.247
X-49.968 Y-18.5 R0.684
G1 X-49.598
X-49.463 Y-18.493
X-49.34 Y-18.436
X-49.236 Y-18.35
X-49.15 Y-18.176
X-49.132 Y-17.981
X-49.186 Y-17.794
X-49.303 Y-17.638
X-49.469 Y-17.536
X-49.661 Y-17.5
X-50.024
G3 X-50.26 Y-17.712 R0.246
X-49.598 Y-18.5 R0.693
G1 X-49.235
X-49.1 Y-18.493
X-48.977 Y-18.436
X-48.873 Y-18.35
X-48.787 Y-18.176
X-48.769 Y-17.981
X-48.823 Y-17.794
X-48.941 Y-17.638
X-49.107 Y-17.536
X-49.299 Y-17.5
X-49.661
G3 X-49.897 Y-17.712 R0.246
X-49.235 Y-18.5 R0.693
G1 X-48.858
X-48.724 Y-18.493
X-48.603 Y-18.433
X-48.501 Y-18.344
X-48.418 Y-18.169
X-48.403 Y-17.976
X-48.458 Y-17.79
X-48.577 Y-17.636
X-48.742 Y-17.535
X-48.933 Y-17.5
X-49.299
G3 X-49.535 Y-17.72 R0.246
X-48.858 Y-18.5 R0.705
G1 X-48.521
X-48.387 Y-18.493
X-48.262 Y-18.441
X-48.155 Y-18.358
X-48.065 Y-18.184
X-48.044 Y-17.988
X-48.096 Y-17.798
X-48.214 Y-17.641
X-48.381 Y-17.536
X-48.574 Y-17.5
X-48.933
G3 X-49.167 Y-17.704 R0.247
X-48.521 Y-18.5 R0.679
G1 X-48.159
X-48.024 Y-18.493
X-47.9 Y-18.439
X-47.794 Y-18.355
X-47.705 Y-18.181
X-47.685 Y-17.986
X-47.737 Y-17.797
X-47.854 Y-17.64
X-48.021 Y-17.536
X-48.213 Y-17.5
X-48.574
G3 X-48.808 Y-17.706 R0.247
X-48.159 Y-18.5 R0.683
G1 X-47.782
X-47.647 Y-18.493
X-47.526 Y-18.435
X-47.422 Y-18.348
X-47.337 Y-18.173
X-47.321 Y-17.979
X-47.375 Y-17.792
X-47.493 Y-17.638
X-47.658 Y-17.536
X-47.85 Y-17.5
X-48.213
G3 X-48.449 Y-17.715 R0.246
X-47.782 Y-18.5 R0.697
G1 X-47.412
X-47.277 Y-18.493
X-47.156 Y-18.433
X-47.054 Y-18.345
X-46.97 Y-18.17
X-46.955 Y-17.977
X-47.01 Y-17.791
X-47.128 Y-17.637
X-47.294 Y-17.535
X-47.484 Y-17.5
X-47.85
G3 X-48.086 Y-17.718 R0.246
X-47.412 Y-18.5 R0.703
G1 X-47.042
X-46.907 Y-18.493
X-46.786 Y-18.432
X-46.685 Y-18.344
X-46.602 Y-18.168
X-46.588 Y-17.975
X-46.644 Y-17.79
X-46.762 Y-17.636
X-46.927 Y-17.535
X-47.118 Y-17.5
X-47.484
G3 X-47.721 Y-17.721 R0.246
X-47.042 Y-18.5 R0.707
G1 X-46.679
X-46.544 Y-18.493
X-46.423 Y-18.433
X-46.321 Y-18.345
X-46.237 Y-18.17
X-46.222 Y-17.977
X-46.278 Y-17.791
X-46.396 Y-17.637
X-46.561 Y-17.535
X-46.752 Y-17.5
X-47.118
G3 X-47.354 Y-17.719 R0.246
X-46.679 Y-18.5 R0.704
G1 X-46.336
X-46.201 Y-18.493
X-46.077 Y-18.439
X-45.971 Y-18.356
X-45.882 Y-18.181
X-45.863 Y-17.986
X-45.915 Y-17.797
X-46.033 Y-17.64
X-46.199 Y-17.536
X-46.392 Y-17.5
X-46.752
G3 X-46.987 Y-17.707 R0.247
X-46.336 Y-18.5 R0.684
G1 X-45.965
X-45.831 Y-18.493
X-45.708 Y-18.436
X-45.604 Y-18.35
X-45.518 Y-18.176
X-45.5 Y-17.981
X-45.554 Y-17.794
X-45.671 Y-17.638
X-45.837 Y-17.536
X-46.029 Y-17.5
X-46.392
G3 X-46.627 Y-17.712 R0.246
X-45.965 Y-18.5 R0.693
G1 X-45.603
X-45.468 Y-18.493
X-45.345 Y-18.436
X-45.241 Y-18.35
X-45.155 Y-18.176
X-45.137 Y-17.981
X-45.191 Y-17.794
X-45.309 Y-17.638
X-45.475 Y-17.536
X-45.666 Y-17.5
X-46.029
G3 X-46.264 Y-17.712 R0.246
X-45.603 Y-18.5 R0.693
G1 X-45.226
X-45.091 Y-18.493
X-44.971 Y-18.433
X-44.869 Y-18.344
X-44.786 Y-18.169
X-44.771 Y-17.976
X-44.826 Y-17.79
X-44.944 Y-17.636
X-45.11 Y-17.535
X-45.3 Y-17.5
X-45.666
G3 X-45.903 Y-17.72 R0.246
X-45.226 Y-18.5 R0.705
G1 X-44.889
X-44.754 Y-18.493
X-44.63 Y-18.441
X-44.523 Y-18.358
X-44.433 Y-18.184
X-44.412 Y-17.988
X-44.464 Y-17.798
X-44.582 Y-17.641
X-44.749 Y-17.536
X-44.942 Y-17.5
X-45.3
G3 X-45.535 Y-17.704 R0.247
X-44.889 Y-18.5 R0.679
G1 X-44.526
X-44.392 Y-18.493
X-44.268 Y-18.439
X-44.162 Y-18.355
X-44.073 Y-18.181
X-44.053 Y-17.986
X-44.105 Y-17.797
X-44.222 Y-17.64
X-44.389 Y-17.536
X-44.581 Y-17.5
X-44.942
G3 X-45.176 Y-17.706 R0.247
X-44.526 Y-18.5 R0.683
G1 X-44.15
X-44.015 Y-18.493
X-43.893 Y-18.435
X-43.79 Y-18.348
X-43.705 Y-18.173
X-43.689 Y-17.979
X-43.743 Y-17.792
X-43.861 Y-17.638
X-44.026 Y-17.536
X-44.218 Y-17.5
X-44.581
G3 X-44.817 Y-17.715 R0.246
X-44.15 Y-18.5 R0.697
G1 X-43.78
X-43.645 Y-18.493
X-43.524 Y-18.433
X-43.422 Y-18.345
X-43.338 Y-18.17
X-43.323 Y-17.977
X-43.378 Y-17.791
X-43.496 Y-17.637
X-43.661 Y-17.535
X-43.852 Y-17.5
X-44.218
G3 X-44.454 Y-17.718 R0.246
X-43.78 Y-18.5 R0.703
G1 X-43.41
X-43.275 Y-18.493
X-43.154 Y-18.432
X-43.053 Y-18.344
X-42.97 Y-18.168
X-42.956 Y-17.975
X-43.012 Y-17.79
X-43.13 Y-17.636
X-43.295 Y-17.535
X-43.486 Y-17.5
X-43.852
G3 X-44.089 Y-17.721 R0.246
X-43.41 Y-18.5 R0.707
G1 X-43.047
X-42.912 Y-18.493
X-42.791 Y-18.433
X-42.689 Y-18.345
X-42.605 Y-18.17
X-42.59 Y-17.977
X-42.645 Y-17.791
X-42.764 Y-17.637
X-42.929 Y-17.535
X-43.12 Y-17.5
X-43.486
G3 X-43.722 Y-17.719 R0.246
X-43.047 Y-18.5 R0.704
G1 X-42.704
X-42.569 Y-18.493
X-42.445 Y-18.439
X-42.339 Y-18.356
X-42.25 Y-18.181
X-42.23 Y-17.986
X-42.283 Y-17.797
X-42.401 Y-17.64
X-42.567 Y-17.536
X-42.76 Y-17.5
X-43.12
G3 X-43.355 Y-17.707 R0.247
X-42.704 Y-18.5 R0.684
G1 X-42.333
X-42.199 Y-18.493
X-42.076 Y-18.436
X-41.972 Y-18.35
X-41.885 Y-18.176
X-41.868 Y-17.981
X-41.922 Y-17.794
X-42.039 Y-17.638
X-42.205 Y-17.536
X-42.397 Y-17.5
X-42.76
G3 X-42.995 Y-17.712 R0.246
X-42.333 Y-18.5 R0.693
G1 X-41.97
X-41.836 Y-18.493
X-41.713 Y-18.436
X-41.609 Y-18.35
X-41.523 Y-18.176
X-41.505 Y-17.981
X-41.559 Y-17.794
X-41.677 Y-17.638
X-41.843 Y-17.536
X-42.034 Y-17.5
X-42.397
G3 X-42.632 Y-17.712 R0.246
X-41.97 Y-18.5 R0.693
G1 X-41.594
X-41.459 Y-18.493
X-41.339 Y-18.433
X-41.237 Y-18.344
X-41.154 Y-18.169
X-41.139 Y-17.976
X-41.194 Y-17.79
X-41.312 Y-17.636
X-41.478 Y-17.535
X-41.668 Y-17.5
X-42.034
G3 X-42.271 Y-17.72 R0.246
X-41.594 Y-18.5 R0.705
G1 X-41.257
X-41.122 Y-18.493
X-40.998 Y-18.441
X-40.891 Y-18.358
X-40.801 Y-18.184
X-40.78 Y-17.988
X-40.832 Y-17.798
X-40.95 Y-17.641
X-41.116 Y-17.536
X-41.31 Y-17.5
X-41.668
G3 X-41.903 Y-17.704 R0.247
X-41.257 Y-18.5 R0.679
G1 X-40.894
X-40.759 Y-18.493
X-40.636 Y-18.439
X-40.53 Y-18.355
X-40.44 Y-18.181
X-40.421 Y-17.986
X-40.473 Y-17.797
X-40.59 Y-17.64
X-40.757 Y-17.536
X-40.949 Y-17.5
X-41.31
G3 X-41.544 Y-17.706 R0.247
X-40.894 Y-18.5 R0.683
G1 X-40.518
X-40.383 Y-18.493
X-40.261 Y-18.435
X-40.158 Y-18.348
X-40.073 Y-18.173
X-40.056 Y-17.979
X-40.111 Y-17.792
X-40.228 Y-17.638
X-40.394 Y-17.536
X-40.585 Y-17.5
X-40.949
G3 X-41.185 Y-17.715 R0.246
X-40.518 Y-18.5 R0.697
G1 X-40.148
X-40.013 Y-18.493
X-39.892 Y-18.433
X-39.79 Y-18.345
X-39.706 Y-18.17
X-39.691 Y-17.977
X-39.746 Y-17.791
X-39.864 Y-17.637
X-40.029 Y-17.535
X-40.22 Y-17.5
X-40.585
G3 X-40.822 Y-17.718 R0.246
X-40.148 Y-18.5 R0.703
G1 X-39.777
X-39.643 Y-18.493
X-39.522 Y-18.432
X-39.42 Y-18.344
X-39.338 Y-18.168
X-39.324 Y-17.975
X-39.379 Y-17.79
X-39.498 Y-17.636
X-39.663 Y-17.535
X-39.854 Y-17.5
X-40.22
G3 X-40.457 Y-17.721 R0.246
X-39.777 Y-18.5 R0.707
G1 X-39.415
X-39.28 Y-18.493
X-39.159 Y-18.433
X-39.056 Y-18.345
X-38.973 Y-18.17
X-38.958 Y-17.977
X-39.013 Y-17.791
X-39.132 Y-17.637
X-39.297 Y-17.535
X-39.488 Y-17.5
X-39.854
G3 X-40.09 Y-17.719 R0.246
X-39.415 Y-18.5 R0.704
G1 X-39.072
X-38.937 Y-18.493
X-38.813 Y-18.439
X-38.707 Y-18.356
X-38.618 Y-18.181
X-38.598 Y-17.986
X-38.651 Y-17.797
X-38.768 Y-17.64
X-38.935 Y-17.536
X-39.128 Y-17.5
X-39.488
G3 X-39.723 Y-17.707 R0.247
X-39.072 Y-18.5 R0.684
G1 X-38.701
X-38.566 Y-18.493
X-38.444 Y-18.436
X-38.34 Y-18.35
X-38.253 Y-18.176
X-38.236 Y-17.981
X-38.289 Y-17.794
X-38.407 Y-17.638
X-38.573 Y-17.536
X-38.765 Y-17.5
X-39.128
G3 X-39.363 Y-17.712 R0.246
X-38.701 Y-18.5 R0.693
G1 X-38.338
X-38.204 Y-18.493
X-38.081 Y-18.436
X-37.977 Y-18.35
X-37.891 Y-18.176
X-37.873 Y-17.981
X-37.927 Y-17.794
X-38.045 Y-17.638
X-38.21 Y-17.536
X-38.402 Y-17.5
X-38.765
G3 X-39. Y-17.712 R0.246
X-38.338 Y-18.5 R0.693
G1 X-37.962
X-37.827 Y-18.493
X-37.706 Y-18.433
X-37.605 Y-18.344
X-37.522 Y-18.169
X-37.507 Y-17.976
X-37.562 Y-17.79
X-37.68 Y-17.636
X-37.846 Y-17.535
X-38.036 Y-17.5
X-38.402
G3 X-38.638 Y-17.72 R0.246
X-37.962 Y-18.5 R0.705
G1 X-37.625
X-37.49 Y-18.493
X-37.366 Y-18.441
X-37.259 Y-18.358
X-37.169 Y-18.184
X-37.148 Y-17.988
X-37.2 Y-17.798
X-37.318 Y-17.641
X-37.484 Y-17.536
X-37.678 Y-17.5
X-38.036
G3 X-38.27 Y-17.704 R0.247
X-37.625 Y-18.5 R0.679
G1 X-37.262
X-37.127 Y-18.493
X-37.004 Y-18.439
X-36.898 Y-18.355
X-36.808 Y-18.181
X-36.788 Y-17.986
X-36.841 Y-17.797
X-36.958 Y-17.64
X-37.124 Y-17.536
X-37.317 Y-17.5
X-37.678
G3 X-37.912 Y-17.706 R0.247
X-37.262 Y-18.5 R0.683
G1 X-36.886
X-36.751 Y-18.493
X-36.629 Y-18.435
X-36.526 Y-18.348
X-36.441 Y-18.173
X-36.424 Y-17.979
X-36.479 Y-17.792
X-36.596 Y-17.638
X-36.762 Y-17.536
X-36.953 Y-17.5
X-37.317
G3 X-37.553 Y-17.715 R0.246
X-36.886 Y-18.5 R0.697
G1 X-36.516
X-36.381 Y-18.493
X-36.26 Y-18.433
X-36.157 Y-18.345
X-36.074 Y-18.17
X-36.059 Y-17.977
X-36.114 Y-17.791
X-36.232 Y-17.637
X-36.397 Y-17.535
X-36.588 Y-17.5
X-36.953
G3 X-37.189 Y-17.718 R0.246
X-36.516 Y-18.5 R0.703
G1 X-36.145
X-36.01 Y-18.493
X-35.89 Y-18.432
X-35.788 Y-18.344
X-35.706 Y-18.168
X-35.692 Y-17.975
X-35.747 Y-17.79
X-35.866 Y-17.636
X-36.031 Y-17.535
X-36.221 Y-17.5
X-36.588
G3 X-36.824 Y-17.721 R0.246
X-36.145 Y-18.5 R0.707
G1 X-35.782
X-35.648 Y-18.493
X-35.527 Y-18.433
X-35.424 Y-18.345
X-35.341 Y-18.17
X-35.326 Y-17.977
X-35.381 Y-17.791
X-35.499 Y-17.637
X-35.665 Y-17.535
X-35.856 Y-17.5
X-36.221
G3 X-36.458 Y-17.719 R0.246
X-35.782 Y-18.5 R0.704
G1 X-35.439
X-35.305 Y-18.493
X-35.181 Y-18.439
X-35.075 Y-18.356
X-34.986 Y-18.181
X-34.966 Y-17.986
X-35.019 Y-17.797
X-35.136 Y-17.64
X-35.303 Y-17.536
X-35.496 Y-17.5
X-35.856
G3 X-36.09 Y-17.707 R0.247
X-35.439 Y-18.5 R0.684
G1 X-35.069
X-34.934 Y-18.493
X-34.812 Y-18.436
X-34.708 Y-18.35
X-34.621 Y-18.176
X-34.604 Y-17.981
X-34.657 Y-17.794
X-34.775 Y-17.638
X-34.941 Y-17.536
X-35.133 Y-17.5
X-35.496
G3 X-35.731 Y-17.712 R0.246
X-35.069 Y-18.5 R0.693
G1 X-34.706
X-34.571 Y-18.493
X-34.449 Y-18.436
X-34.345 Y-18.35
X-34.258 Y-18.176
X-34.241 Y-17.981
X-34.295 Y-17.794
X-34.412 Y-17.638
X-34.578 Y-17.536
X-34.77 Y-17.5
X-35.133
G3 X-35.368 Y-17.712 R0.246
X-34.706 Y-18.5 R0.693
G1 X-34.33
X-34.195 Y-18.493
X-34.074 Y-18.433
X-33.972 Y-18.344
X-33.889 Y-18.169
X-33.875 Y-17.976
X-33.93 Y-17.79
X-34.048 Y-17.636
X-34.213 Y-17.535
X-34.404 Y-17.5
X-34.77
G3 X-35.006 Y-17.72 R0.246
X-34.33 Y-18.5 R0.705
G1 X-33.993
X-33.858 Y-18.493
X-33.734 Y-18.441
X-33.627 Y-18.358
X-33.537 Y-18.184
X-33.516 Y-17.988
X-33.568 Y-17.798
X-33.685 Y-17.641
X-33.852 Y-17.536
X-34.045 Y-17.5
X-34.404
G3 X-34.638 Y-17.704 R0.247
X-33.993 Y-18.5 R0.679
G1 X-33.63
X-33.495 Y-18.493
X-33.371 Y-18.439
X-33.266 Y-18.355
X-33.176 Y-18.181
X-33.156 Y-17.986
X-33.209 Y-17.797
X-33.326 Y-17.64
X-33.492 Y-17.536
X-33.685 Y-17.5
X-34.045
G3 X-34.28 Y-17.706 R0.247
X-33.63 Y-18.5 R0.683
G1 X-33.254
X-33.119 Y-18.493
X-32.997 Y-18.435
X-32.894 Y-18.348
X-32.809 Y-18.173
X-32.792 Y-17.979
X-32.846 Y-17.792
X-32.964 Y-17.638
X-33.13 Y-17.536
X-33.321 Y-17.5
X-33.685
G3 X-33.921 Y-17.715 R0.246
X-33.254 Y-18.5 R0.697
G1 X-32.883
X-32.749 Y-18.493
X-32.628 Y-18.433
X-32.525 Y-18.345
X-32.442 Y-18.17
X-32.426 Y-17.977
X-32.482 Y-17.791
X-32.6 Y-17.637
X-32.765 Y-17.535
X-32.956 Y-17.5
X-33.321
G3 X-33.557 Y-17.718 R0.246
X-32.883 Y-18.5 R0.703
G1 X-32.513
X-32.378 Y-18.493
X-32.258 Y-18.432
X-32.156 Y-18.344
X-32.074 Y-18.168
X-32.06 Y-17.975
X-32.115 Y-17.79
X-32.234 Y-17.636
X-32.399 Y-17.535
X-32.589 Y-17.5
X-32.956
G3 X-33.192 Y-17.721 R0.246
X-32.513 Y-18.5 R0.707
G1 X-32.15
X-32.015 Y-18.493
X-31.895 Y-18.433
X-31.792 Y-18.345
X-31.709 Y-18.17
X-31.694 Y-17.977
X-31.749 Y-17.791
X-31.867 Y-17.637
X-32.033 Y-17.535
X-32.224 Y-17.5
X-32.589
G3 X-32.826 Y-17.719 R0.246
X-32.15 Y-18.5 R0.704
G1 X-31.807
X-31.672 Y-18.493
X-31.549 Y-18.439
X-31.443 Y-18.356
X-31.354 Y-18.181
X-31.334 Y-17.986
X-31.387 Y-17.797
X-31.504 Y-17.64
X-31.671 Y-17.536
X-31.864 Y-17.5
X-32.224
G3 X-32.458 Y-17.707 R0.247
X-31.807 Y-18.5 R0.684
G1 X-31.437
X-31.302 Y-18.493
X-31.18 Y-18.436
X-31.076 Y-18.35
X-30.989 Y-18.176
X-30.972 Y-17.981
X-31.025 Y-17.794
X-31.143 Y-17.638
X-31.309 Y-17.536
X-31.5 Y-17.5
X-31.864
G3 X-32.099 Y-17.712 R0.246
X-31.437 Y-18.5 R0.693
G1 X-31.074
X-30.939 Y-18.493
X-30.817 Y-18.436
X-30.713 Y-18.35
X-30.626 Y-18.176
X-30.609 Y-17.981
X-30.663 Y-17.794
X-30.78 Y-17.638
X-30.946 Y-17.536
X-31.138 Y-17.5
X-31.5
G3 X-31.736 Y-17.712 R0.246
X-31.074 Y-18.5 R0.693
G1 X-30.698
X-30.563 Y-18.493
X-30.442 Y-18.433
X-30.34 Y-18.344
X-30.257 Y-18.169
X-30.242 Y-17.976
X-30.298 Y-17.79
X-30.416 Y-17.636
X-30.581 Y-17.535
X-30.772 Y-17.5
X-31.138
G3 X-31.374 Y-17.72 R0.246
X-30.698 Y-18.5 R0.705
G1 X-30.361
X-30.226 Y-18.493
X-30.102 Y-18.441
X-29.995 Y-18.358
X-29.904 Y-18.184
X-29.884 Y-17.988
X-29.936 Y-17.798
X-30.053 Y-17.641
X-30.22 Y-17.536
X-30.413 Y-17.5
X-30.772
G3 X-31.006 Y-17.704 R0.247
X-30.361 Y-18.5 R0.679
G1 X-29.998
X-29.863 Y-18.493
X-29.739 Y-18.439
X-29.634 Y-18.355
X-29.544 Y-18.181
X-29.524 Y-17.986
X-29.576 Y-17.797
X-29.694 Y-17.64
X-29.86 Y-17.536
X-30.053 Y-17.5
X-30.413
G3 X-30.648 Y-17.706 R0.247
X-29.998 Y-18.5 R0.683
G1 X-29.622
X-29.487 Y-18.493
X-29.365 Y-18.435
X-29.262 Y-18.348
X-29.177 Y-18.173
X-29.16 Y-17.979
X-29.214 Y-17.792
X-29.332 Y-17.638
X-29.498 Y-17.536
X-29.689 Y-17.5
X-30.053
G3 X-30.289 Y-17.715 R0.246
X-29.622 Y-18.5 R0.697
G1 X-29.251
X-29.117 Y-18.493
X-28.995 Y-18.433
X-28.893 Y-18.345
X-28.81 Y-18.17
X-28.794 Y-17.977
X-28.849 Y-17.791
X-28.968 Y-17.637
X-29.133 Y-17.535
X-29.324 Y-17.5
X-29.689
G3 X-29.925 Y-17.718 R0.246
X-29.251 Y-18.5 R0.703
G1 X-28.881
X-28.746 Y-18.493
X-28.626 Y-18.432
X-28.524 Y-18.344
X-28.442 Y-18.168
X-28.427 Y-17.975
X-28.483 Y-17.79
X-28.601 Y-17.636
X-28.767 Y-17.535
X-28.957 Y-17.5
X-29.324
G3 X-29.56 Y-17.721 R0.246
X-28.881 Y-18.5 R0.707
G1 X-28.518
X-28.383 Y-18.493
X-28.262 Y-18.433
X-28.16 Y-18.345
X-28.077 Y-18.17
X-28.062 Y-17.977
X-28.117 Y-17.791
X-28.235 Y-17.637
X-28.401 Y-17.535
X-28.592 Y-17.5
X-28.957
G3 X-29.193 Y-17.719 R0.246
X-28.518 Y-18.5 R0.704
G1 X-28.175
X-28.04 Y-18.493
X-27.917 Y-18.439
X-27.811 Y-18.356
X-27.722 Y-18.181
X-27.702 Y-17.986
X-27.755 Y-17.797
X-27.872 Y-17.64
X-28.039 Y-17.536
X-28.231 Y-17.5
X-28.592
G3 X-28.826 Y-17.707 R0.247
X-28.175 Y-18.5 R0.684
G1 X-27.805
X-27.67 Y-18.493
X-27.548 Y-18.436
X-27.444 Y-18.35
X-27.357 Y-18.176
X-27.339 Y-17.981
X-27.393 Y-17.794
X-27.511 Y-17.638
X-27.677 Y-17.536
X-27.868 Y-17.5
X-28.231
G3 X-28.467 Y-17.712 R0.246
X-27.805 Y-18.5 R0.693
G1 X-27.442
X-27.307 Y-18.493
X-27.185 Y-18.436
X-27.081 Y-18.35
X-26.994 Y-18.176
X-26.977 Y-17.981
X-27.03 Y-17.794
X-27.148 Y-17.638
X-27.314 Y-17.536
X-27.506 Y-17.5
X-27.868
G3 X-28.104 Y-17.712 R0.246
X-27.442 Y-18.5 R0.693
G1 X-27.066
X-26.931 Y-18.493
X-26.81 Y-18.433
X-26.708 Y-18.344
X-26.625 Y-18.169
X-26.61 Y-17.976
X-26.666 Y-17.79
X-26.784 Y-17.636
X-26.949 Y-17.535
X-27.14 Y-17.5
X-27.506
G3 X-27.742 Y-17.72 R0.246
X-27.066 Y-18.5 R0.705
G1 X-26.729
X-26.594 Y-18.493
X-26.469 Y-18.441
X-26.363 Y-18.358
X-26.272 Y-18.184
X-26.252 Y-17.988
X-26.304 Y-17.798
X-26.421 Y-17.641
X-26.588 Y-17.536
X-26.781 Y-17.5
X-27.14
G3 X-27.374 Y-17.704 R0.247
X-26.729 Y-18.5 R0.679
G1 X-26.366
X-26.231 Y-18.493
X-26.107 Y-18.439
X-26.001 Y-18.355
X-25.912 Y-18.181
X-25.892 Y-17.986
X-25.944 Y-17.797
X-26.062 Y-17.64
X-26.228 Y-17.536
X-26.421 Y-17.5
X-26.781
G3 X-27.016 Y-17.706 R0.247
X-26.366 Y-18.5 R0.683
G1 X-25.99
X-25.855 Y-18.493
X-25.733 Y-18.435
X-25.63 Y-18.348
X-25.545 Y-18.173
X-25.528 Y-17.979
X-25.582 Y-17.792
X-25.7 Y-17.638
X-25.866 Y-17.536
X-26.057 Y-17.5
X-26.421
G3 X-26.657 Y-17.715 R0.246
X-25.99 Y-18.5 R0.697
G1 X-25.619
X-25.484 Y-18.493
X-25.363 Y-18.433
X-25.261 Y-18.345
X-25.177 Y-18.17
X-25.162 Y-17.977
X-25.217 Y-17.791
X-25.335 Y-17.637
X-25.501 Y-17.535
X-25.692 Y-17.5
X-26.057
G3 X-26.293 Y-17.718 R0.246
X-25.619 Y-18.5 R0.703
G1 X-25.249
X-25.114 Y-18.493
X-24.994 Y-18.432
X-24.892 Y-18.344
X-24.81 Y-18.168
X-24.795 Y-17.975
X-24.851 Y-17.79
X-24.969 Y-17.636
X-25.135 Y-17.535
X-25.325 Y-17.5
X-25.692
G3 X-25.928 Y-17.721 R0.246
X-25.249 Y-18.5 R0.707
G1 X-24.886
X-24.751 Y-18.493
X-24.63 Y-18.433
X-24.528 Y-18.345
X-24.445 Y-18.17
X-24.43 Y-17.977
X-24.485 Y-17.791
X-24.603 Y-17.637
X-24.769 Y-17.535
X-24.959 Y-17.5
X-25.325
G3 X-25.561 Y-17.719 R0.246
X-24.886 Y-18.5 R0.704
G1 X-24.543
X-24.408 Y-18.493
X-24.284 Y-18.439
X-24.178 Y-18.356
X-24.089 Y-18.181
X-24.07 Y-17.986
X-24.122 Y-17.797
X-24.24 Y-17.64
X-24.407 Y-17.536
X-24.599 Y-17.5
X-24.959
G3 X-25.194 Y-17.707 R0.247
X-24.543 Y-18.5 R0.684
G1 X-24.173
X-24.038 Y-18.493
X-23.915 Y-18.436
X-23.811 Y-18.35
X-23.725 Y-18.176
X-23.707 Y-17.981
X-23.761 Y-17.794
X-23.879 Y-17.638
X-24.045 Y-17.536
X-24.236 Y-17.5
X-24.599
G3 X-24.835 Y-17.712 R0.246
X-24.173 Y-18.5 R0.693
G1 X-23.81
X-23.675 Y-18.493
X-23.553 Y-18.436
X-23.449 Y-18.35
X-23.362 Y-18.176
X-23.345 Y-17.981
X-23.398 Y-17.794
X-23.516 Y-17.638
X-23.682 Y-17.536
X-23.874 Y-17.5
X-24.236
G3 X-24.472 Y-17.712 R0.246
X-23.81 Y-18.5 R0.693
G1 X-23.434
X-23.299 Y-18.493
X-23.178 Y-18.433
X-23.076 Y-18.344
X-22.993 Y-18.169
X-22.978 Y-17.976
X-23.034 Y-17.79
X-23.152 Y-17.636
X-23.317 Y-17.535
X-23.508 Y-17.5
X-23.874
G3 X-24.11 Y-17.72 R0.246
X-23.434 Y-18.5 R0.705
G1 X-23.097
X-22.962 Y-18.493
X-22.837 Y-18.441
X-22.731 Y-18.358
X-22.64 Y-18.184
X-22.62 Y-17.988
X-22.672 Y-17.798
X-22.789 Y-17.641
X-22.956 Y-17.536
X-23.149 Y-17.5
X-23.508
G3 X-23.742 Y-17.704 R0.247
X-23.097 Y-18.5 R0.679
G1 X-22.734
X-22.599 Y-18.493
X-22.475 Y-18.439
X-22.369 Y-18.355
X-22.28 Y-18.181
X-22.26 Y-17.986
X-22.312 Y-17.797
X-22.43 Y-17.64
X-22.596 Y-17.536
X-22.789 Y-17.5
X-23.149
G3 X-23.384 Y-17.706 R0.247
X-22.734 Y-18.5 R0.683
G1 X-22.357
X-22.223 Y-18.493
X-22.101 Y-18.435
X-21.998 Y-18.348
X-21.912 Y-18.173
X-21.896 Y-17.979
X-21.95 Y-17.792
X-22.068 Y-17.638
X-22.234 Y-17.536
X-22.425 Y-17.5
X-22.789
G3 X-23.024 Y-17.715 R0.246
X-22.357 Y-18.5 R0.697
G1 X-21.987
X-21.852 Y-18.493
X-21.731 Y-18.433
X-21.629 Y-18.345
X-21.545 Y-18.17
X-21.53 Y-17.977
X-21.585 Y-17.791
X-21.703 Y-17.637
X-21.869 Y-17.535
X-22.06 Y-17.5
X-22.425
G3 X-22.661 Y-17.718 R0.246
X-21.987 Y-18.5 R0.703
G1 X-21.617
X-21.482 Y-18.493
X-21.362 Y-18.432
X-21.26 Y-18.344
X-21.178 Y-18.168
X-21.163 Y-17.975
X-21.219 Y-17.79
X-21.337 Y-17.636
X-21.503 Y-17.535
X-21.693 Y-17.5
X-22.06
G3 X-22.296 Y-17.721 R0.246
X-21.617 Y-18.5 R0.707
G1 X-21.254
X-21.119 Y-18.493
X-20.998 Y-18.433
X-20.896 Y-18.345
X-20.813 Y-18.17
X-20.797 Y-17.977
X-20.853 Y-17.791
X-20.971 Y-17.637
X-21.136 Y-17.535
X-21.327 Y-17.5
X-21.693
G3 X-21.929 Y-17.719 R0.246
X-21.254 Y-18.5 R0.704
G1 X-20.911
X-20.776 Y-18.493
X-20.652 Y-18.439
X-20.546 Y-18.356
X-20.457 Y-18.181
X-20.438 Y-17.986
X-20.49 Y-17.797
X-20.608 Y-17.64
X-20.774 Y-17.536
X-20.967 Y-17.5
X-21.327
G3 X-21.562 Y-17.707 R0.247
X-20.911 Y-18.5 R0.684
G1 X-20.541
X-20.406 Y-18.493
X-20.283 Y-18.436
X-20.179 Y-18.35
X-20.093 Y-18.176
X-20.075 Y-17.981
X-20.129 Y-17.794
X-20.247 Y-17.638
X-20.412 Y-17.536
X-20.604 Y-17.5
X-20.967
G3 X-21.203 Y-17.712 R0.246
X-20.541 Y-18.5 R0.693
G1 X-20.178
X-20.043 Y-18.493
X-19.921 Y-18.436
X-19.816 Y-18.35
X-19.73 Y-18.176
X-19.712 Y-17.981
X-19.766 Y-17.794
X-19.884 Y-17.638
X-20.05 Y-17.536
X-20.242 Y-17.5
X-20.604
G3 X-20.84 Y-17.712 R0.246
X-20.178 Y-18.5 R0.693
G1 X-19.801
X-19.667 Y-18.493
X-19.546 Y-18.433
X-19.444 Y-18.344
X-19.361 Y-18.169
X-19.346 Y-17.976
X-19.401 Y-17.79
X-19.52 Y-17.636
X-19.685 Y-17.535
X-19.876 Y-17.5
X-20.242
G3 X-20.478 Y-17.72 R0.246
X-19.801 Y-18.5 R0.705
G1 X-19.464
X-19.33 Y-18.493
X-19.205 Y-18.441
X-19.098 Y-18.358
X-19.008 Y-18.184
X-18.988 Y-17.988
X-19.04 Y-17.798
X-19.157 Y-17.641
X-19.324 Y-17.536
X-19.517 Y-17.5
X-19.876
G3 X-20.11 Y-17.704 R0.247
X-19.464 Y-18.5 R0.679
G1 X-19.102
X-18.967 Y-18.493
X-18.843 Y-18.439
X-18.737 Y-18.355
X-18.648 Y-18.181
X-18.628 Y-17.986
X-18.68 Y-17.797
X-18.797 Y-17.64
X-18.964 Y-17.536
X-19.157 Y-17.5
X-19.517
G3 X-19.752 Y-17.706 R0.247
X-19.102 Y-18.5 R0.683
G1 X-18.725
X-18.59 Y-18.493
X-18.469 Y-18.435
X-18.366 Y-18.348
X-18.28 Y-18.173
X-18.264 Y-17.979
X-18.318 Y-17.792
X-18.436 Y-17.638
X-18.601 Y-17.536
X-18.793 Y-17.5
X-19.157
G3 X-19.392 Y-17.715 R0.246
X-18.725 Y-18.5 R0.697
G1 X-18.355
X-18.22 Y-18.493
X-18.099 Y-18.433
X-17.997 Y-18.345
X-17.913 Y-18.17
X-17.898 Y-17.977
X-17.953 Y-17.791
X-18.071 Y-17.637
X-18.237 Y-17.535
X-18.427 Y-17.5
X-18.793
G3 X-19.029 Y-17.718 R0.246
X-18.355 Y-18.5 R0.703
G1 X-17.985
X-17.85 Y-18.493
X-17.729 Y-18.432
X-17.628 Y-18.344
X-17.545 Y-18.168
X-17.531 Y-17.975
X-17.587 Y-17.79
X-17.705 Y-17.636
X-17.87 Y-17.535
X-18.061 Y-17.5
X-18.427
G3 X-18.664 Y-17.721 R0.246
X-17.985 Y-18.5 R0.707
G1 X-17.622
X-17.487 Y-18.493
X-17.366 Y-18.433
X-17.264 Y-18.345
X-17.18 Y-18.17
X-17.165 Y-17.977
X-17.221 Y-17.791
X-17.339 Y-17.637
X-17.504 Y-17.535
X-17.695 Y-17.5
X-18.061
G3 X-18.297 Y-17.719 R0.246
X-17.622 Y-18.5 R0.704
G1 X-17.279
X-17.144 Y-18.493
X-17.02 Y-18.439
X-16.914 Y-18.356
X-16.825 Y-18.181
X-16.806 Y-17.986
X-16.858 Y-17.797
X-16.976 Y-17.64
X-17.142 Y-17.536
X-17.335 Y-17.5
X-17.695
G3 X-17.93 Y-17.707 R0.247
X-17.279 Y-18.5 R0.684
G1 X-16.909
X-16.774 Y-18.493
X-16.651 Y-18.436
X-16.547 Y-18.35
X-16.461 Y-18.176
X-16.443 Y-17.981
X-16.497 Y-17.794
X-16.614 Y-17.638
X-16.78 Y-17.536
X-16.972 Y-17.5
X-17.335
G3 X-17.571 Y-17.712 R0.246
X-16.909 Y-18.5 R0.693
G1 X-16.546
X-16.411 Y-18.493
X-16.288 Y-18.436
X-16.184 Y-18.35
X-16.098 Y-18.176
X-16.08 Y-17.981
X-16.134 Y-17.794
X-16.252 Y-17.638
X-16.418 Y-17.536
X-16.609 Y-17.5
X-16.972
G3 X-17.207 Y-17.712 R0.246
X-16.546 Y-18.5 R0.693
G1 X-16.169
X-16.035 Y-18.493
X-15.914 Y-18.433
X-15.812 Y-18.344
X-15.729 Y-18.169
X-15.714 Y-17.976
X-15.769 Y-17.79
X-15.888 Y-17.636
X-16.053 Y-17.535
X-16.244 Y-17.5
X-16.609
G3 X-16.846 Y-17.72 R0.246
X-16.169 Y-18.5 R0.705
G1 X-15.832
X-15.698 Y-18.493
X-15.573 Y-18.441
X-15.466 Y-18.358
X-15.376 Y-18.184
X-15.355 Y-17.988
X-15.407 Y-17.798
X-15.525 Y-17.641
X-15.692 Y-17.536
X-15.885 Y-17.5
X-16.244
G3 X-16.478 Y-17.704 R0.247
X-15.832 Y-18.5 R0.679
G1 X-15.47
X-15.335 Y-18.493
X-15.211 Y-18.439
X-15.105 Y-18.355
X-15.016 Y-18.181
X-14.996 Y-17.986
X-15.048 Y-17.797
X-15.165 Y-17.64
X-15.332 Y-17.536
X-15.524 Y-17.5
X-15.885
G3 X-16.119 Y-17.706 R0.247
X-15.47 Y-18.5 R0.683
G1 X-15.093
X-14.958 Y-18.493
X-14.837 Y-18.435
X-14.733 Y-18.348
X-14.648 Y-18.173
X-14.632 Y-17.979
X-14.686 Y-17.792
X-14.804 Y-17.638
X-14.969 Y-17.536
X-15.161 Y-17.5
X-15.524
G3 X-15.76 Y-17.715 R0.246
X-15.093 Y-18.5 R0.697
G1 X-14.723
X-14.588 Y-18.493
X-14.467 Y-18.433
X-14.365 Y-18.345
X-14.281 Y-18.17
X-14.266 Y-17.977
X-14.321 Y-17.791
X-14.439 Y-17.637
X-14.605 Y-17.535
X-14.795 Y-17.5
X-15.161
G3 X-15.397 Y-17.718 R0.246
X-14.723 Y-18.5 R0.703
G1 X-14.353
X-14.218 Y-18.493
X-14.097 Y-18.432
X-13.996 Y-18.344
X-13.913 Y-18.168
X-13.899 Y-17.975
X-13.955 Y-17.79
X-14.073 Y-17.636
X-14.238 Y-17.535
X-14.429 Y-17.5
X-14.795
G3 X-15.032 Y-17.721 R0.246
X-14.353 Y-18.5 R0.707
G1 X-13.99
X-13.855 Y-18.493
X-13.734 Y-18.433
X-13.632 Y-18.345
X-13.548 Y-18.17
X-13.533 Y-17.977
X-13.589 Y-17.791
X-13.707 Y-17.637
X-13.872 Y-17.535
X-14.063 Y-17.5
X-14.429
G3 X-14.665 Y-17.719 R0.246
X-13.99 Y-18.5 R0.704
G1 X-13.647
X-13.512 Y-18.493
X-13.388 Y-18.439
X-13.282 Y-18.356
X-13.193 Y-18.181
X-13.174 Y-17.986
X-13.226 Y-17.797
X-13.344 Y-17.64
X-13.51 Y-17.536
X-13.703 Y-17.5
X-14.063
G3 X-14.298 Y-17.707 R0.247
X-13.647 Y-18.5 R0.684
G1 X-13.276
X-13.142 Y-18.493
X-13.019 Y-18.436
X-12.915 Y-18.35
X-12.829 Y-18.176
X-12.811 Y-17.981
X-12.865 Y-17.794
X-12.982 Y-17.638
X-13.148 Y-17.536
X-13.34 Y-17.5
X-13.703
G3 X-13.938 Y-17.712 R0.246
X-13.276 Y-18.5 R0.693
G1 X-12.914
X-12.779 Y-18.493
X-12.656 Y-18.436
X-12.552 Y-18.35
X-12.466 Y-18.176
X-12.448 Y-17.981
X-12.502 Y-17.794
X-12.62 Y-17.638
X-12.786 Y-17.536
X-12.977 Y-17.5
X-13.34
G3 X-13.575 Y-17.712 R0.246
X-12.914 Y-18.5 R0.693
G1 X-12.537
X-12.402 Y-18.493
X-12.282 Y-18.433
X-12.18 Y-18.344
X-12.097 Y-18.169
X-12.082 Y-17.976
X-12.137 Y-17.79
X-12.255 Y-17.636
X-12.421 Y-17.535
X-12.611 Y-17.5
X-12.977
G3 X-13.214 Y-17.72 R0.246
X-12.537 Y-18.5 R0.705
G1 X-12.2
X-12.065 Y-18.493
X-11.941 Y-18.441
X-11.834 Y-18.358
X-11.744 Y-18.184
X-11.723 Y-17.988
X-11.775 Y-17.798
X-11.893 Y-17.641
X-12.059 Y-17.536
X-12.253 Y-17.5
X-12.611
G3 X-12.846 Y-17.704 R0.247
X-12.2 Y-18.5 R0.679
G1 X-11.837
X-11.703 Y-18.493
X-11.579 Y-18.439
X-11.473 Y-18.355
X-11.384 Y-18.181
X-11.364 Y-17.986
X-11.416 Y-17.797
X-11.533 Y-17.64
X-11.7 Y-17.536
X-11.892 Y-17.5
X-12.253
G3 X-12.487 Y-17.706 R0.247
X-11.837 Y-18.5 R0.683
G1 X-11.461
X-11.326 Y-18.493
X-11.204 Y-18.435
X-11.101 Y-18.348
X-11.016 Y-18.173
X-10.999 Y-17.979
X-11.054 Y-17.792
X-11.172 Y-17.638
X-11.337 Y-17.536
X-11.528 Y-17.5
X-11.892
G3 X-12.128 Y-17.715 R0.246
X-11.461 Y-18.5 R0.697
G1 X-11.091
X-10.956 Y-18.493
X-10.835 Y-18.433
X-10.733 Y-18.345
X-10.649 Y-18.17
X-10.634 Y-17.977
X-10.689 Y-17.791
X-10.807 Y-17.637
X-10.972 Y-17.535
X-11.163 Y-17.5
X-11.528
G3 X-11.765 Y-17.718 R0.246
X-11.091 Y-18.5 R0.703
G1 X-10.721
X-10.586 Y-18.493
X-10.465 Y-18.432
X-10.364 Y-18.344
X-10.281 Y-18.168
X-10.267 Y-17.975
X-10.323 Y-17.79
X-10.441 Y-17.636
X-10.606 Y-17.535
X-10.797 Y-17.5
X-11.163
G3 X-11.4 Y-17.721 R0.246
X-10.721 Y-18.5 R0.707
G1 X-10.358
X-10.223 Y-18.493
X-10.102 Y-18.433
X-9.999 Y-18.345
X-9.916 Y-18.17
X-9.901 Y-17.977
X-9.956 Y-17.791
X-10.075 Y-17.637
X-10.24 Y-17.535
X-10.431 Y-17.5
X-10.797
G3 X-11.033 Y-17.719 R0.246
X-10.358 Y-18.5 R0.704
G1 X-10.015
X-9.88 Y-18.493
X-9.756 Y-18.439
X-9.65 Y-18.356
X-9.561 Y-18.181
X-9.541 Y-17.986
X-9.594 Y-17.797
X-9.712 Y-17.64
X-9.878 Y-17.536
X-10.071 Y-17.5
X-10.431
G3 X-10.666 Y-17.707 R0.247
X-10.015 Y-18.5 R0.684
G1 X-9.644
X-9.51 Y-18.493
X-9.387 Y-18.436
X-9.283 Y-18.35
X-9.196 Y-18.176
X-9.179 Y-17.981
X-9.232 Y-17.794
X-9.35 Y-17.638
X-9.516 Y-17.536
X-9.708 Y-17.5
X-10.071
G3 X-10.306 Y-17.712 R0.246
X-9.644 Y-18.5 R0.693
G1 X-9.281
X-9.147 Y-18.493
X-9.024 Y-18.436
X-8.92 Y-18.35
X-8.834 Y-18.176
X-8.816 Y-17.981
X-8.87 Y-17.794
X-8.988 Y-17.638
X-9.154 Y-17.536
X-9.345 Y-17.5
X-9.708
G3 X-9.943 Y-17.712 R0.246
X-9.281 Y-18.5 R0.693
G1 X-8.905
X-8.77 Y-18.493
X-8.65 Y-18.433
X-8.548 Y-18.344
X-8.465 Y-18.169
X-8.45 Y-17.976
X-8.505 Y-17.79
X-8.623 Y-17.636
X-8.789 Y-17.535
X-8.979 Y-17.5
X-9.345
G3 X-9.582 Y-17.72 R0.246
X-8.905 Y-18.5 R0.705
G1 X-8.568
X-8.433 Y-18.493
X-8.309 Y-18.441
X-8.202 Y-18.358
X-8.112 Y-18.184
X-8.091 Y-17.988
X-8.143 Y-17.798
X-8.261 Y-17.641
X-8.427 Y-17.536
X-8.621 Y-17.5
X-8.979
G3 X-9.214 Y-17.704 R0.247
X-8.568 Y-18.5 R0.679
G1 X-8.205
X-8.07 Y-18.493
X-7.947 Y-18.439
X-7.841 Y-18.355
X-7.751 Y-18.181
X-7.732 Y-17.986
X-7.784 Y-17.797
X-7.901 Y-17.64
X-8.067 Y-17.536
X-8.26 Y-17.5
X-8.621
G3 X-8.855 Y-17.706 R0.247
X-8.205 Y-18.5 R0.683
G1 X-7.829
X-7.694 Y-18.493
X-7.572 Y-18.435
X-7.469 Y-18.348
X-7.384 Y-18.173
X-7.367 Y-17.979
X-7.422 Y-17.792
X-7.539 Y-17.638
X-7.705 Y-17.536
X-7.896 Y-17.5
X-8.26
G3 X-8.496 Y-17.715 R0.246
X-7.829 Y-18.5 R0.697
G1 X-7.459
X-7.324 Y-18.493
X-7.203 Y-18.433
X-7.1 Y-18.345
X-7.017 Y-18.17
X-7.002 Y-17.977
X-7.057 Y-17.791
X-7.175 Y-17.637
X-7.34 Y-17.535
X-7.531 Y-17.5
X-7.896
G3 X-8.133 Y-17.718 R0.246
X-7.459 Y-18.5 R0.703
G1 X-7.088
X-6.954 Y-18.493
X-6.833 Y-18.432
X-6.731 Y-18.344
X-6.649 Y-18.168
X-6.635 Y-17.975
X-6.69 Y-17.79
X-6.809 Y-17.636
X-6.974 Y-17.535
X-7.165 Y-17.5
X-7.531
G3 X-7.768 Y-17.721 R0.246
X-7.088 Y-18.5 R0.707
G1 X-6.726
X-6.591 Y-18.493
X-6.47 Y-18.433
X-6.367 Y-18.345
X-6.284 Y-18.17
X-6.269 Y-17.977
X-6.324 Y-17.791
X-6.443 Y-17.637
X-6.608 Y-17.535
X-6.799 Y-17.5
X-7.165
G3 X-7.401 Y-17.719 R0.246
X-6.726 Y-18.5 R0.704
G1 X-6.382
X-6.248 Y-18.493
X-6.124 Y-18.439
X-6.018 Y-18.356
X-5.929 Y-18.181
X-5.909 Y-17.986
X-5.962 Y-17.797
X-6.079 Y-17.64
X-6.246 Y-17.536
X-6.439 Y-17.5
X-6.799
G3 X-7.034 Y-17.707 R0.247
X-6.382 Y-18.5 R0.684
G1 X-6.012
X-5.877 Y-18.493
X-5.755 Y-18.436
X-5.651 Y-18.35
X-5.564 Y-18.176
X-5.547 Y-17.981
X-5.6 Y-17.794
X-5.718 Y-17.638
X-5.884 Y-17.536
X-6.076 Y-17.5
X-6.439
G3 X-6.674 Y-17.712 R0.246
X-6.012 Y-18.5 R0.693
G1 X-5.649
X-5.515 Y-18.493
X-5.392 Y-18.436
X-5.288 Y-18.35
X-5.202 Y-18.176
X-5.184 Y-17.981
X-5.238 Y-17.794
X-5.356 Y-17.638
X-5.521 Y-17.536
X-5.713 Y-17.5
X-6.076
G3 X-6.311 Y-17.712 R0.246
X-5.649 Y-18.5 R0.693
G1 X-5.273
X-5.138 Y-18.493
X-5.017 Y-18.433
X-4.916 Y-18.344
X-4.833 Y-18.169
X-4.818 Y-17.976
X-4.873 Y-17.79
X-4.991 Y-17.636
X-5.157 Y-17.535
X-5.347 Y-17.5
X-5.713
G3 X-5.949 Y-17.72 R0.246
X-5.273 Y-18.5 R0.705
G1 X-4.936
X-4.801 Y-18.493
X-4.677 Y-18.441
X-4.57 Y-18.358
X-4.48 Y-18.184
X-4.459 Y-17.988
X-4.511 Y-17.798
X-4.628 Y-17.641
X-4.795 Y-17.536
X-4.988 Y-17.5
X-5.347
G3 X-5.581 Y-17.704 R0.247
X-4.936 Y-18.5 R0.679
G1 X-4.573
X-4.438 Y-18.493
X-4.315 Y-18.439
X-4.209 Y-18.355
X-4.119 Y-18.181
X-4.099 Y-17.986
X-4.152 Y-17.797
X-4.269 Y-17.64
X-4.435 Y-17.536
X-4.628 Y-17.5
X-4.988
G3 X-5.223 Y-17.706 R0.247
X-4.573 Y-18.5 R0.683
G1 X-4.197
X-4.062 Y-18.493
X-3.94 Y-18.435
X-3.837 Y-18.348
X-3.752 Y-18.173
X-3.735 Y-17.979
X-3.789 Y-17.792
X-3.907 Y-17.638
X-4.073 Y-17.536
X-4.264 Y-17.5
X-4.628
G3 X-4.864 Y-17.715 R0.246
X-4.197 Y-18.5 R0.697
G1 X-3.827
X-3.692 Y-18.493
X-3.571 Y-18.433
X-3.468 Y-18.345
X-3.385 Y-18.17
X-3.37 Y-17.977
X-3.425 Y-17.791
X-3.543 Y-17.637
X-3.708 Y-17.535
X-3.899 Y-17.5
X-4.264
G3 X-4.5 Y-17.718 R0.246
X-3.827 Y-18.5 R0.703
G1 X-3.456
X-3.321 Y-18.493
X-3.201 Y-18.432
X-3.099 Y-18.344
X-3.017 Y-18.168
X-3.003 Y-17.975
X-3.058 Y-17.79
X-3.177 Y-17.636
X-3.342 Y-17.535
X-3.532 Y-17.5
X-3.899
G3 X-4.135 Y-17.721 R0.246
X-3.456 Y-18.5 R0.707
G1 X-3.093
X-2.959 Y-18.493
X-2.838 Y-18.433
X-2.735 Y-18.345
X-2.652 Y-18.17
X-2.637 Y-17.977
X-2.692 Y-17.791
X-2.81 Y-17.637
X-2.976 Y-17.535
X-3.167 Y-17.5
X-3.532
G3 X-3.769 Y-17.719 R0.246
X-3.093 Y-18.5 R0.704
G1 X-2.75
X-2.616 Y-18.493
X-2.492 Y-18.439
X-2.386 Y-18.356
X-2.297 Y-18.181
X-2.277 Y-17.986
X-2.33 Y-17.797
X-2.447 Y-17.64
X-2.614 Y-17.536
X-2.807 Y-17.5
X-3.167
G3 X-3.401 Y-17.707 R0.247
X-2.75 Y-18.5 R0.684
G1 X-2.38
X-2.245 Y-18.493
X-2.123 Y-18.436
X-2.019 Y-18.35
X-1.932 Y-18.176
X-1.915 Y-17.981
X-1.968 Y-17.794
X-2.086 Y-17.638
X-2.252 Y-17.536
X-2.444 Y-17.5
X-2.807
G3 X-3.042 Y-17.712 R0.246
X-2.38 Y-18.5 R0.693
G1 X-2.017
X-1.882 Y-18.493
X-1.76 Y-18.436
X-1.656 Y-18.35
X-1.569 Y-18.176
X-1.552 Y-17.981
X-1.606 Y-17.794
X-1.723 Y-17.638
X-1.889 Y-17.536
X-2.081 Y-17.5
X-2.444
G3 X-2.679 Y-17.712 R0.246
X-2.017 Y-18.5 R0.693
G1 X-1.641
X-1.506 Y-18.493
X-1.385 Y-18.433
X-1.283 Y-18.344
X-1.2 Y-18.169
X-1.186 Y-17.976
X-1.241 Y-17.79
X-1.359 Y-17.636
X-1.524 Y-17.535
X-1.715 Y-17.5
X-2.081
G3 X-2.317 Y-17.72 R0.246
X-1.641 Y-18.5 R0.705
G1 X-1.304
X-1.169 Y-18.493
X-1.045 Y-18.441
X-0.938 Y-18.358
X-0.848 Y-18.184
X-0.827 Y-17.988
X-0.879 Y-17.798
X-0.996 Y-17.641
X-1.163 Y-17.536
X-1.356 Y-17.5
X-1.715
G3 X-1.949 Y-17.704 R0.247
X-1.304 Y-18.5 R0.679
G1 X-0.941
X-0.806 Y-18.493
X-0.682 Y-18.439
X-0.577 Y-18.355
X-0.487 Y-18.181
X-0.467 Y-17.986
X-0.52 Y-17.797
X-0.637 Y-17.64
X-0.803 Y-17.536
X-0.996 Y-17.5
X-1.356
G3 X-1.591 Y-17.706 R0.247
X-0.941 Y-18.5 R0.683
G1 X-0.565
X-0.43 Y-18.493
X-0.308 Y-18.435
X-0.205 Y-18.348
X-0.12 Y-18.173
X-0.103 Y-17.979
X-0.157 Y-17.792
X-0.275 Y-17.638
X-0.441 Y-17.536
X-0.632 Y-17.5
X-0.996
G3 X-1.232 Y-17.715 R0.246
X-0.565 Y-18.5 R0.697
G1 X-0.194
X-0.06 Y-18.493
X0.061 Y-18.433
X0.164 Y-18.345
