(_BK12_1)
(T1  D=3. CR=0. - ZMIN=-10. - FLAT END MILL)
G90 G94 G91.1 G40 G49 G17
G21

(POCKET1)
M5
M9
T1
S10000 M3
G54
M8
G0 X6.886 Y-0.696
G43 Z11. H1
G1 Z1.445 F200.
G3 X6.898 Y-0.686 Z1.349 R0.75 F720.
X6.932 Y-0.656 Z1.263 R0.75
X6.981 Y-0.604 Z1.196 R0.75
X7.035 Y-0.534 Z1.156 R0.75
X7.05 Y-0.512 Z1.15 R0.75
X5.78 Y0.287 Z0.735 R0.75
X7.05 Y-0.512 Z0.319 R0.75
X5.78 Y0.287 Z-0.096 R0.75
X7.05 Y-0.512 Z-0.512 R0.75
X5.78 Y0.287 Z-0.927 R0.75
X7.05 Y-0.512 Z-1.343 R0.75
X5.78 Y0.287 Z-1.758 R0.75
X7.05 Y-0.512 Z-2.174 R0.75
X5.78 Y0.287 Z-2.589 R0.75
X7.035 Y-0.534 Z-3. R0.75
G1 X7.147 Y-0.369
X7.221 Y0.
X7.147 Y0.37
X6.929 Y0.692
X6.621 Y0.897
X6.25 Y0.971
X5.877 Y0.896
X5.564 Y0.686
X5.353 Y0.371
X5.279 Y0.
X5.353 Y-0.371
X5.564 Y-0.686
X5.877 Y-0.896
X6.25 Y-0.971
X6.621 Y-0.897
X6.928 Y-0.692
X7.035 Y-0.534
G3 X7.049 Y-0.39 R0.15
G1 X6.773 Y0.246
G3 X5.331 Y-0.167 Z-3.415 R0.75
X6.773 Y0.246 Z-3.831 R0.75
X5.331 Y-0.167 Z-4.246 R0.75
X6.773 Y0.246 Z-4.662 R0.75
X5.331 Y-0.167 Z-5.077 R0.75
X6.773 Y0.246 Z-5.493 R0.75
X5.331 Y-0.167 Z-5.908 R0.75
X6.773 Y0.246 Z-6.324 R0.75
X5.331 Y-0.167 Z-6.739 R0.75
X6.773 Y0.246 Z-7.155 R0.75
X5.331 Y-0.167 Z-7.57 R0.75
X6.773 Y0.246 Z-7.986 R0.75
X5.331 Y-0.167 Z-8.401 R0.75
X6.773 Y0.246 Z-8.816 R0.75
X5.331 Y-0.167 Z-9.232 R0.75
X6.773 Y0.246 Z-9.647 R0.75
X5.316 Y0.186 Z-10. R0.75
G1 X5.279 Y0.
X5.353 Y-0.371
X5.564 Y-0.686
X5.877 Y-0.896
X6.25 Y-0.971
X6.621 Y-0.897
X6.928 Y-0.692
X7.147 Y-0.369
X7.221 Y0.
X7.147 Y0.37
X6.929 Y0.692
X6.621 Y0.897
X6.25 Y0.971
X5.877 Y0.896
X5.564 Y0.686
X5.353 Y0.371
X5.316 Y0.186
G3 X5.312 Y0.093 Z-9.985 R0.3
X5.333 Y0.013 Z-9.943 R0.3
X5.365 Y-0.045 Z-9.876 R0.3
X5.392 Y-0.078 Z-9.793 R0.3
X5.402 Y-0.089 Z-9.7 R0.3
G0 Z11.
X7.109 Y-6.894
Z1.445
G3 X7.116 Y-6.88 Z1.349 R0.75 F720.
X7.136 Y-6.838 Z1.263 R0.75
X7.161 Y-6.772 Z1.196 R0.75
X7.184 Y-6.686 Z1.156 R0.75
X7.188 Y-6.66 Z1.15 R0.75
X5.708 Y-6.419 Z0.735 R0.75
X7.188 Y-6.66 Z0.319 R0.75
X5.708 Y-6.419 Z-0.096 R0.75
X7.188 Y-6.66 Z-0.512 R0.75
X5.708 Y-6.419 Z-0.927 R0.75
X7.188 Y-6.66 Z-1.343 R0.75
X5.708 Y-6.419 Z-1.758 R0.75
X7.188 Y-6.66 Z-2.174 R0.75
X5.708 Y-6.419 Z-2.589 R0.75
X7.184 Y-6.686 Z-3. R0.75
G1 X7.221 Y-6.5
X7.147 Y-6.129
X6.936 Y-5.814
X6.621 Y-5.603
X6.25 Y-5.529
X5.886 Y-5.602
X5.57 Y-5.811
X5.356 Y-6.127
X5.34 Y-6.195
X5.28 Y-6.498
X5.358 Y-6.878
X5.564 Y-7.186
X5.879 Y-7.397
X6.25 Y-7.471
X6.621 Y-7.397
X6.936 Y-7.186
X7.147 Y-6.871
X7.184 Y-6.686
G3 X7.03 Y-6.507 R0.15
G1 X5.865 Y-6.555
G3 X5.727 Y-6.746 R0.15
X7.169 Y-6.333 Z-3.415 R0.75
X5.727 Y-6.746 Z-3.831 R0.75
X7.169 Y-6.333 Z-4.246 R0.75
X5.727 Y-6.746 Z-4.662 R0.75
X7.169 Y-6.333 Z-5.077 R0.75
X5.727 Y-6.746 Z-5.493 R0.75
X7.169 Y-6.333 Z-5.908 R0.75
X5.727 Y-6.746 Z-6.324 R0.75
X7.169 Y-6.333 Z-6.739 R0.75
X5.727 Y-6.746 Z-7.155 R0.75
X7.169 Y-6.333 Z-7.57 R0.75
X5.727 Y-6.746 Z-7.986 R0.75
X7.169 Y-6.333 Z-8.401 R0.75
X5.727 Y-6.746 Z-8.816 R0.75
X7.169 Y-6.333 Z-9.232 R0.75
X5.727 Y-6.746 Z-9.647 R0.75
X7.184 Y-6.686 Z-10. R0.75
G1 X7.221 Y-6.5
X7.147 Y-6.129
X6.936 Y-5.814
X6.621 Y-5.603
X6.25 Y-5.529
X5.886 Y-5.602
X5.57 Y-5.811
X5.356 Y-6.127
X5.34 Y-6.195
X5.28 Y-6.498
X5.358 Y-6.878
X5.564 Y-7.186
X5.879 Y-7.397
X6.25 Y-7.471
X6.621 Y-7.397
X6.936 Y-7.186
X7.147 Y-6.871
X7.184 Y-6.686
G3 X7.188 Y-6.594 Z-9.985 R0.3
X7.167 Y-6.513 Z-9.943 R0.3
X7.135 Y-6.455 Z-9.876 R0.3
X7.108 Y-6.422 Z-9.793 R0.3
X7.098 Y-6.411 Z-9.7 R0.3
G0 Z11.
X5.562 Y5.855
Z1.445
G3 X5.572 Y5.842 Z1.349 R0.75 F720.
X5.604 Y5.809 Z1.263 R0.75
X5.656 Y5.76 Z1.196 R0.75
X5.727 Y5.707 Z1.156 R0.75
X5.749 Y5.693 Z1.15 R0.75
X6.531 Y6.973 Z0.735 R0.75
X5.749 Y5.693 Z0.319 R0.75
X6.531 Y6.973 Z-0.096 R0.75
X5.749 Y5.693 Z-0.512 R0.75
X6.531 Y6.973 Z-0.927 R0.75
X5.749 Y5.693 Z-1.343 R0.75
X6.531 Y6.973 Z-1.758 R0.75
X5.749 Y5.693 Z-2.174 R0.75
X6.531 Y6.973 Z-2.589 R0.75
X5.727 Y5.707 Z-3. R0.75
G1 X5.886 Y5.602
X6.25 Y5.529
X6.621 Y5.603
X6.936 Y5.814
X7.144 Y6.124
X7.16 Y6.195
X7.221 Y6.5
X7.149 Y6.862
X6.97 Y7.135
X6.942 Y7.178
X6.678 Y7.359
X6.621 Y7.397
X6.25 Y7.471
X5.879 Y7.397
X5.564 Y7.186
X5.358 Y6.878
X5.28 Y6.498
X5.353 Y6.129
X5.386 Y6.08
X5.569 Y5.811
X5.727 Y5.707
G3 X5.884 Y5.78 R0.102
G1 X5.895 Y5.881
G2 X6.047 Y5.958 R0.102
G3 X6.789 Y7.261 Z-3.415 R0.75
X6.047 Y5.958 Z-3.831 R0.75
X6.789 Y7.261 Z-4.246 R0.75
X6.047 Y5.958 Z-4.662 R0.75
X6.789 Y7.261 Z-5.077 R0.75
X6.047 Y5.958 Z-5.493 R0.75
X6.789 Y7.261 Z-5.908 R0.75
X6.047 Y5.958 Z-6.324 R0.75
X6.789 Y7.261 Z-6.739 R0.75
X6.047 Y5.958 Z-7.155 R0.75
X6.789 Y7.261 Z-7.57 R0.75
X6.047 Y5.958 Z-7.986 R0.75
X6.789 Y7.261 Z-8.401 R0.75
X6.047 Y5.958 Z-8.816 R0.75
X6.789 Y7.261 Z-9.232 R0.75
X6.047 Y5.958 Z-9.647 R0.75
X7.046 Y7.019 Z-10. R0.75
G1 X6.97 Y7.135
X6.942 Y7.178
X6.678 Y7.359
X6.621 Y7.397
X6.25 Y7.471
X5.879 Y7.397
X5.564 Y7.186
X5.358 Y6.878
X5.28 Y6.498
X5.353 Y6.129
X5.386 Y6.08
X5.569 Y5.811
X5.886 Y5.602
X6.25 Y5.529
X6.621 Y5.603
X6.936 Y5.814
X7.144 Y6.124
X7.16 Y6.195
X7.221 Y6.5
X7.149 Y6.862
X7.046 Y7.019
G3 X6.985 Y7.088 Z-9.985 R0.3
X6.913 Y7.131 Z-9.943 R0.3
X6.85 Y7.15 Z-9.876 R0.3
X6.808 Y7.155 Z-9.793 R0.3
X6.793 Z-9.7 R0.3
G0 Z11.
X-0.844 Y20.34
Z1.445
G3 X-0.833 Y20.352 Z1.349 R0.75 F720.
X-0.804 Y20.387 Z1.263 R0.75
X-0.763 Y20.445 Z1.196 R0.75
X-0.719 Y20.523 Z1.156 R0.75
X-0.708 Y20.546 Z1.15 R0.75
X-2.079 Y21.156 Z0.735 R0.75
X-0.708 Y20.546 Z0.319 R0.75
X-2.079 Y21.156 Z-0.096 R0.75
X-0.708 Y20.546 Z-0.512 R0.75
X-2.079 Y21.156 Z-0.927 R0.75
X-0.708 Y20.546 Z-1.343 R0.75
X-2.079 Y21.156 Z-1.758 R0.75
X-0.708 Y20.546 Z-2.174 R0.75
X-2.079 Y21.156 Z-2.589 R0.75
X-0.719 Y20.523 Z-3. R0.75
G1 X-0.711 Y20.539
G3 X-0.733 Y20.632 R0.076
G1 X-0.758 Y20.652
G3 X-0.882 Y20.683 R0.159
G1 X-0.903 Y20.68
G3 X-1.034 Y20.601 R0.208
G1 X-1.056 Y20.572
G3 X-1.119 Y20.386 R0.306
G1 Y20.364
G3 X-1.038 Y20.141 R0.359
G1 X-1.017 Y20.115
G3 X-0.758 Y19.959 R0.452
G1 X-0.728 Y19.953
G3 X-0.382 Y19.996 R0.542
G1 X-0.36 Y20.006
G3 X-0.084 Y20.274 R0.616
G1 X-0.074 Y20.291
G3 X-0.004 Y20.708 R0.677
G1 X-0.009 Y20.745
G3 X-0.241 Y21.195 R0.789
G1 X-0.255 Y21.209
G3 X-0.737 Y21.44 R0.847
G1 X-0.764 Y21.443
G3 X-1.338 Y21.331 R0.93
G1 X-1.36 Y21.318
G3 X-1.789 Y20.847 R1.009
G1 X-1.825 Y20.765
G3 X-1.56 Y19.549 R1.056
G1 X-1.506 Y19.501
G3 X0.085 Y19.36 R1.34
G1 X0.104 Y19.372
G3 X0.668 Y20.032 R1.412
G1 X0.701 Y20.11
G3 X0.451 Y21.695 R1.53
G1 X0.447 Y21.699
G3 X0.045 Y22.04 R1.677
G1 X0.036 Y22.046
G3 X-0.476 Y22.254 R1.744
G1 X-0.482 Y22.256
G3 X-1.036 Y22.296 R1.787
X-1.591 Y22.158 R1.793
G1 X-1.597 Y22.155
G3 X-2.082 Y21.851 R1.833
G1 X-2.093 Y21.842
G3 X-2.698 Y20.827 R1.904
G1 X-2.703 Y20.804
G3 X-2.587 Y19.564 R2.007
X-2.244 Y19.023 R2.055
G1 X-2.237 Y19.015
G3 X-1.72 Y18.588 R2.119
X-1.097 Y18.344 R2.129
X-0.418 Y18.304 R2.146
G1 X-0.394 Y18.306
G3 X0.296 Y18.488 R2.292
G1 X0.485 Y18.571
G3 X0.718 Y18.722 R0.863
G1 X0.893 Y18.881
G3 X1.609 Y20.123 R2.338
G1 X1.61 Y20.129
G3 X1.648 Y20.854 R2.309
G1 X1.604 Y21.279
X1.257 Y21.958
X0.712 Y22.504
X0.014 Y22.86
X-0.757 Y22.98
X-1.51 Y22.861
X-1.567 Y22.835
X-2.203 Y22.51
X-2.758 Y21.958
X-3.104 Y21.279
X-3.23 Y20.489
X-3.157 Y20.032
X-3.11 Y19.733
X-2.76 Y19.047
X-2.208 Y18.492
X-1.517 Y18.14
X-0.759 Y18.02
X0.029 Y18.146
X0.701 Y18.489
X0.774 Y18.558
X1.264 Y19.054
X1.61 Y19.733
X1.73 Y20.489
X1.604 Y21.279
G0 Z11.
X-0.709 Y21.157
G1 Z-1.555 F200.
G3 X-0.716 Y21.173 Z-1.657 R0.75 F720.
X-0.74 Y21.22 Z-1.747 R0.75
X-0.783 Y21.287 Z-1.814 R0.75
X-0.845 Y21.363 Z-1.85 R0.75
X-1.942 Y20.34 Z-2.265 R0.75
X-0.845 Y21.363 Z-2.681 R0.75
X-1.942 Y20.34 Z-3.096 R0.75
X-0.845 Y21.363 Z-3.512 R0.75
X-1.942 Y20.34 Z-3.927 R0.75
X-0.845 Y21.363 Z-4.343 R0.75
X-1.942 Y20.34 Z-4.758 R0.75
X-0.845 Y21.363 Z-5.174 R0.75
X-1.942 Y20.34 Z-5.589 R0.75
X-0.845 Y21.363 Z-6.005 R0.75
X-1.942 Y20.34 Z-6.42 R0.75
X-0.845 Y21.363 Z-6.836 R0.75
X-1.942 Y20.34 Z-7.251 R0.75
X-0.845 Y21.363 Z-7.666 R0.75
X-1.942 Y20.34 Z-8.082 R0.75
X-0.845 Y21.363 Z-8.497 R0.75
X-1.942 Y20.34 Z-8.913 R0.75
X-0.845 Y21.363 Z-9.328 R0.75
X-1.942 Y20.34 Z-9.744 R0.75
X-0.719 Y20.523 Z-10. R0.75
G1 X-0.711 Y20.539
G3 X-0.733 Y20.632 R0.076
G1 X-0.758 Y20.652
G3 X-0.882 Y20.683 R0.159
G1 X-0.903 Y20.68
G3 X-1.034 Y20.601 R0.208
G1 X-1.056 Y20.572
G3 X-1.119 Y20.386 R0.306
G1 Y20.364
G3 X-1.038 Y20.141 R0.359
G1 X-1.017 Y20.115
G3 X-0.758 Y19.959 R0.452
G1 X-0.728 Y19.953
G3 X-0.382 Y19.996 R0.542
G1 X-0.36 Y20.006
G3 X-0.084 Y20.274 R0.616
G1 X-0.074 Y20.291
G3 X-0.004 Y20.708 R0.677
G1 X-0.009 Y20.745
G3 X-0.241 Y21.195 R0.789
G1 X-0.255 Y21.209
G3 X-0.737 Y21.44 R0.847
G1 X-0.764 Y21.443
G3 X-1.338 Y21.331 R0.93
G1 X-1.36 Y21.318
G3 X-1.789 Y20.847 R1.009
G1 X-1.825 Y20.765
G3 X-1.56 Y19.549 R1.056
G1 X-1.506 Y19.501
G3 X0.085 Y19.36 R1.34
G1 X0.104 Y19.372
G3 X0.668 Y20.032 R1.412
G1 X0.701 Y20.11
G3 X0.451 Y21.695 R1.53
G1 X0.447 Y21.699
G3 X0.045 Y22.04 R1.677
G1 X0.036 Y22.046
G3 X-0.476 Y22.254 R1.744
G1 X-0.482 Y22.256
G3 X-1.036 Y22.296 R1.787
X-1.591 Y22.158 R1.793
G1 X-1.597 Y22.155
G3 X-2.082 Y21.851 R1.833
G1 X-2.093 Y21.842
G3 X-2.698 Y20.827 R1.904
G1 X-2.703 Y20.804
G3 X-2.587 Y19.564 R2.007
X-2.244 Y19.023 R2.055
G1 X-2.237 Y19.015
G3 X-1.72 Y18.588 R2.119
X-1.097 Y18.344 R2.129
X-0.418 Y18.304 R2.146
G1 X-0.394 Y18.306
G3 X0.296 Y18.488 R2.292
G1 X0.485 Y18.571
G3 X0.718 Y18.722 R0.863
G1 X0.893 Y18.881
G3 X1.609 Y20.123 R2.338
G1 X1.61 Y20.129
G3 X1.648 Y20.854 R2.309
G1 X1.604 Y21.279
X1.257 Y21.958
X0.712 Y22.504
X0.014 Y22.86
X-0.757 Y22.98
X-1.51 Y22.861
X-1.567 Y22.835
X-2.203 Y22.51
X-2.758 Y21.958
X-3.104 Y21.279
X-3.23 Y20.489
X-3.157 Y20.032
X-3.11 Y19.733
X-2.76 Y19.047
X-2.208 Y18.492
X-1.517 Y18.14
X-0.759 Y18.02
X0.029 Y18.146
X0.701 Y18.489
X0.774 Y18.558
X1.264 Y19.054
X1.61 Y19.733
X1.73 Y20.489
X1.604 Y21.279
G0 Z11.
X-40.908 Y20.393
Z1.445
G3 X-40.893 Y20.399 Z1.349 R0.75 F720.
X-40.851 Y20.416 Z1.263 R0.75
X-40.788 Y20.449 Z1.196 R0.75
X-40.713 Y20.498 Z1.156 R0.75
X-40.693 Y20.514 Z1.15 R0.75
X-41.63 Y21.685 Z0.735 R0.75
X-40.693 Y20.514 Z0.319 R0.75
X-41.63 Y21.685 Z-0.096 R0.75
X-40.693 Y20.514 Z-0.512 R0.75
X-41.63 Y21.685 Z-0.927 R0.75
X-40.693 Y20.514 Z-1.343 R0.75
X-41.63 Y21.685 Z-1.758 R0.75
X-40.693 Y20.514 Z-2.174 R0.75
X-41.63 Y21.685 Z-2.589 R0.75
X-40.713 Y20.498 Z-3. R0.75
G1 X-40.694 Y20.512
G3 X-40.67 Y20.551 R0.064
G1 X-40.665 Y20.574
G3 X-40.694 Y20.676 R0.12
G1 X-40.711 Y20.695
G3 X-40.829 Y20.754 R0.176
G1 X-40.86 Y20.756
G3 X-41.02 Y20.713 R0.254
G1 X-41.039 Y20.701
G3 X-41.166 Y20.528 R0.318
G1 X-41.177 Y20.492
G3 X-41.162 Y20.211 R0.422
G1 X-41.153 Y20.189
G3 X-40.944 Y19.95 R0.492
G1 X-40.924 Y19.938
G3 X-40.574 Y19.867 R0.561
G1 X-40.541 Y19.871
G3 X-40.153 Y20.063 R0.659
G1 X-40.133 Y20.083
G3 X-39.927 Y20.498 R0.743
G1 X-39.924 Y20.519
G3 X-40.013 Y21.016 R0.805
G1 X-40.026 Y21.041
G3 X-40.437 Y21.426 R0.888
G1 X-40.466 Y21.439
G3 X-41.077 Y21.508 R0.983
G1 X-41.099 Y21.503
G3 X-41.662 Y21.181 R1.051
G1 X-41.677 Y21.164
G3 X-41.96 Y20.53 R1.118
G1 X-41.964 Y20.495
G3 X-41.8 Y19.744 R1.225
G1 X-41.79 Y19.726
G3 X-41.189 Y19.198 R1.287
G1 X-41.168 Y19.189
G3 X-40.332 Y19.114 R1.356
G1 X-40.3 Y19.121
G3 X-39.514 Y19.601 R1.454
G1 X-39.448 Y19.678
G3 X-39.204 Y21.285 R1.554
G1 X-39.209 Y21.297
G3 X-39.494 Y21.756 R1.732
G1 X-39.498 Y21.759
G3 X-39.921 Y22.116 R1.763
X-40.456 Y22.332 R1.789
G1 X-40.473 Y22.336
G3 X-41.614 Y22.233 R1.871
G1 X-41.625 Y22.228
G3 X-42.549 Y21.42 R1.968
X-42.778 Y20.844 R1.978
G1 X-42.782 Y20.827
G3 X-42.82 Y20.144 R2.084
G1 X-42.819 Y20.132
G3 X-42.295 Y18.955 R2.118
X-41.764 Y18.52 R2.177
G1 X-41.757 Y18.515
G3 X-40.416 Y18.222 R2.231
G1 X-40.394 Y18.224
G3 X-39.063 Y18.809 R2.331
G1 X-39.059 Y18.813
G3 X-38.601 Y19.377 R2.308
G1 X-38.388 Y19.746
X-38.27 Y20.49
X-38.391 Y21.267
X-38.747 Y21.963
X-39.292 Y22.507
X-39.982 Y22.859
X-40.764 Y22.979
X-41.504 Y22.862
X-42.209 Y22.506
X-42.758 Y21.957
X-43.104 Y21.278
X-43.23 Y20.489
X-43.111 Y19.74
X-43.072 Y19.659
X-42.754 Y19.038
X-42.211 Y18.496
X-42.196 Y18.486
X-41.515 Y18.14
X-40.765 Y18.021
X-39.98 Y18.142
X-39.292 Y18.493
X-38.75 Y19.034
X-38.388 Y19.746
G0 Z11.
X-40.413 Y21.056
G1 Z-1.555 F200.
G3 X-40.412 Y21.074 Z-1.657 R0.75 F720.
Y21.126 Z-1.747 R0.75
X-40.419 Y21.206 Z-1.814 R0.75
X-40.439 Y21.301 Z-1.85 R0.75
X-41.884 Y20.897 Z-2.265 R0.75
X-40.439 Y21.301 Z-2.681 R0.75
X-41.884 Y20.897 Z-3.096 R0.75
X-40.439 Y21.301 Z-3.512 R0.75
X-41.884 Y20.897 Z-3.927 R0.75
X-40.439 Y21.301 Z-4.343 R0.75
X-41.884 Y20.897 Z-4.758 R0.75
X-40.439 Y21.301 Z-5.174 R0.75
X-41.884 Y20.897 Z-5.589 R0.75
X-40.439 Y21.301 Z-6.005 R0.75
X-41.884 Y20.897 Z-6.42 R0.75
X-40.439 Y21.301 Z-6.836 R0.75
X-41.884 Y20.897 Z-7.251 R0.75
X-40.439 Y21.301 Z-7.666 R0.75
X-41.884 Y20.897 Z-8.082 R0.75
X-40.439 Y21.301 Z-8.497 R0.75
X-41.884 Y20.897 Z-8.913 R0.75
X-40.439 Y21.301 Z-9.328 R0.75
X-41.884 Y20.897 Z-9.744 R0.75
X-40.713 Y20.498 Z-10. R0.75
G1 X-40.694 Y20.512
G3 X-40.67 Y20.551 R0.064
G1 X-40.665 Y20.574
G3 X-40.694 Y20.676 R0.12
G1 X-40.711 Y20.695
G3 X-40.829 Y20.754 R0.176
G1 X-40.86 Y20.756
G3 X-41.02 Y20.713 R0.254
G1 X-41.039 Y20.701
G3 X-41.166 Y20.528 R0.318
G1 X-41.177 Y20.492
G3 X-41.162 Y20.211 R0.422
G1 X-41.153 Y20.189
G3 X-40.944 Y19.95 R0.492
G1 X-40.924 Y19.938
G3 X-40.574 Y19.867 R0.561
G1 X-40.541 Y19.871
G3 X-40.153 Y20.063 R0.659
G1 X-40.133 Y20.083
G3 X-39.927 Y20.498 R0.743
G1 X-39.924 Y20.519
G3 X-40.013 Y21.016 R0.805
G1 X-40.026 Y21.041
G3 X-40.437 Y21.426 R0.888
G1 X-40.466 Y21.439
G3 X-41.077 Y21.508 R0.983
G1 X-41.099 Y21.503
G3 X-41.662 Y21.181 R1.051
G1 X-41.677 Y21.164
G3 X-41.96 Y20.53 R1.118
G1 X-41.964 Y20.495
G3 X-41.8 Y19.744 R1.225
G1 X-41.79 Y19.726
G3 X-41.189 Y19.198 R1.287
G1 X-41.168 Y19.189
G3 X-40.332 Y19.114 R1.356
G1 X-40.3 Y19.121
G3 X-39.514 Y19.601 R1.454
G1 X-39.448 Y19.678
G3 X-39.204 Y21.285 R1.554
G1 X-39.209 Y21.297
G3 X-39.494 Y21.756 R1.732
G1 X-39.498 Y21.759
G3 X-39.921 Y22.116 R1.763
X-40.456 Y22.332 R1.789
G1 X-40.473 Y22.336
G3 X-41.614 Y22.233 R1.871
G1 X-41.625 Y22.228
G3 X-42.549 Y21.42 R1.968
X-42.778 Y20.844 R1.978
G1 X-42.782 Y20.827
G3 X-42.82 Y20.144 R2.084
G1 X-42.819 Y20.132
G3 X-42.295 Y18.955 R2.118
X-41.764 Y18.52 R2.177
G1 X-41.757 Y18.515
G3 X-40.416 Y18.222 R2.231
G1 X-40.394 Y18.224
G3 X-39.063 Y18.809 R2.331
G1 X-39.059 Y18.813
G3 X-38.601 Y19.377 R2.308
G1 X-38.388 Y19.746
X-38.27 Y20.49
X-38.391 Y21.267
X-38.747 Y21.963
X-39.292 Y22.507
X-39.982 Y22.859
X-40.764 Y22.979
X-41.504 Y22.862
X-42.209 Y22.506
X-42.758 Y21.957
X-43.104 Y21.278
X-43.23 Y20.489
X-43.111 Y19.74
X-43.072 Y19.659
X-42.754 Y19.038
X-42.211 Y18.496
X-42.196 Y18.486
X-41.515 Y18.14
X-40.765 Y18.021
X-39.98 Y18.142
X-39.292 Y18.493
X-38.75 Y19.034
X-38.388 Y19.746
G0 Z11.
X-40.811 Y-20.673
Z1.445
G3 X-40.803 Y-20.659 Z1.349 R0.75 F720.
X-40.782 Y-20.619 Z1.263 R0.75
X-40.754 Y-20.553 Z1.196 R0.75
X-40.727 Y-20.469 Z1.156 R0.75
X-40.721 Y-20.443 Z1.15 R0.75
X-42.19 Y-20.136 Z0.735 R0.75
X-40.721 Y-20.443 Z0.319 R0.75
X-42.19 Y-20.136 Z-0.096 R0.75
X-40.721 Y-20.443 Z-0.512 R0.75
X-42.19 Y-20.136 Z-0.927 R0.75
X-40.721 Y-20.443 Z-1.343 R0.75
X-42.19 Y-20.136 Z-1.758 R0.75
X-40.721 Y-20.443 Z-2.174 R0.75
X-42.19 Y-20.136 Z-2.589 R0.75
X-40.727 Y-20.469 Z-3. R0.75
G1 X-40.725 Y-20.458
G3 X-40.738 Y-20.407 R0.054
G1 X-40.763 Y-20.383
G3 X-40.848 Y-20.347 R0.12
G1 X-40.873
G3 X-40.988 Y-20.398 R0.168
G1 X-41.009 Y-20.42
G3 X-41.078 Y-20.583 R0.244
G1 X-41.079 Y-20.617
G3 X-41.006 Y-20.836 R0.335
G1 X-40.988 Y-20.859
G3 X-40.755 Y-21.004 R0.415
G1 X-40.727 Y-21.011
G3 X-40.415 Y-20.979 R0.496
G1 X-40.395 Y-20.969
G3 X-40.129 Y-20.721 R0.563
G1 X-40.113 Y-20.692
G3 X-40.045 Y-20.272 R0.66
G1 X-40.05 Y-20.244
G3 X-40.262 Y-19.836 R0.744
G1 X-40.275 Y-19.824
G3 X-40.724 Y-19.603 R0.798
G1 X-40.758 Y-19.598
G3 X-41.318 Y-19.701 R0.904
G1 X-41.336 Y-19.711
G3 X-41.746 Y-20.149 R0.966
G1 X-41.758 Y-20.174
G3 X-41.835 Y-20.828 R1.049
G1 X-41.829 Y-20.856
G3 X-41.469 Y-21.478 R1.134
G1 X-41.449 Y-21.496
G3 X-40.752 Y-21.795 R1.215
G1 X-40.729 Y-21.798
G3 X-39.953 Y-21.619 R1.288
G1 X-39.933 Y-21.607
G3 X-39.378 Y-20.966 R1.358
G1 X-39.365 Y-20.936
G3 X-39.295 Y-20.025 R1.457
G1 X-39.319 Y-19.93
G3 X-40.477 Y-18.79 R1.551
G1 X-40.49 Y-18.786
G3 X-41.572 Y-18.88 R1.762
G1 X-41.577 Y-18.882
G3 X-42.062 Y-19.185 R1.817
X-42.433 Y-19.629 R1.821
G1 X-42.444 Y-19.648
G3 X-42.705 Y-20.798 R1.914
G1 X-42.704 Y-20.811
G3 X-42.185 Y-21.971 R1.956
G1 X-42.16 Y-21.998
G3 X-40.426 Y-22.657 R2.104
G1 X-40.417 Y-22.656
G3 X-39.149 Y-22.103 R2.215
X-38.702 Y-21.558 R2.252
G1 X-38.697 Y-21.551
G3 X-38.432 Y-20.863 R2.306
G1 X-38.429 Y-20.848
G3 X-38.391 Y-20.127 R2.33
X-38.577 Y-19.425 R2.308
G1 X-38.75 Y-19.034
X-39.292 Y-18.493
X-39.98 Y-18.142
X-40.765 Y-18.021
X-41.515 Y-18.14
X-42.209 Y-18.493
X-42.753 Y-19.037
X-43.112 Y-19.747
X-43.23 Y-20.489
X-43.104 Y-21.278
X-42.758 Y-21.957
X-42.215 Y-22.501
X-42.099 Y-22.563
X-41.505 Y-22.862
X-40.764 Y-22.979
X-39.982 Y-22.859
X-39.292 Y-22.507
X-38.747 Y-21.963
X-38.39 Y-21.267
X-38.27 Y-20.49
X-38.388 Y-19.746
X-38.75 Y-19.034
G0 Z11.
X-40.851 Y-19.846
G1 Z-1.555 F200.
G3 X-40.861 Y-19.832 Z-1.657 R0.75 F720.
X-40.895 Y-19.792 Z-1.747 R0.75
X-40.951 Y-19.735 Z-1.814 R0.75
X-41.027 Y-19.674 Z-1.85 R0.75
X-41.884 Y-20.905 Z-2.265 R0.75
X-41.027 Y-19.674 Z-2.681 R0.75
X-41.884 Y-20.905 Z-3.096 R0.75
X-41.027 Y-19.674 Z-3.512 R0.75
X-41.884 Y-20.905 Z-3.927 R0.75
X-41.027 Y-19.674 Z-4.343 R0.75
X-41.884 Y-20.905 Z-4.758 R0.75
X-41.027 Y-19.674 Z-5.174 R0.75
X-41.884 Y-20.905 Z-5.589 R0.75
X-41.027 Y-19.674 Z-6.005 R0.75
X-41.884 Y-20.905 Z-6.42 R0.75
X-41.027 Y-19.674 Z-6.836 R0.75
X-41.884 Y-20.905 Z-7.251 R0.75
X-41.027 Y-19.674 Z-7.666 R0.75
X-41.884 Y-20.905 Z-8.082 R0.75
X-41.027 Y-19.674 Z-8.497 R0.75
X-41.884 Y-20.905 Z-8.913 R0.75
X-41.027 Y-19.674 Z-9.328 R0.75
X-41.884 Y-20.905 Z-9.744 R0.75
X-40.727 Y-20.469 Z-10. R0.75
G1 X-40.725 Y-20.458
G3 X-40.738 Y-20.407 R0.054
G1 X-40.763 Y-20.383
G3 X-40.848 Y-20.347 R0.12
G1 X-40.873
G3 X-40.988 Y-20.398 R0.168
G1 X-41.009 Y-20.42
G3 X-41.078 Y-20.583 R0.244
G1 X-41.079 Y-20.617
G3 X-41.006 Y-20.836 R0.335
G1 X-40.988 Y-20.859
G3 X-40.755 Y-21.004 R0.415
G1 X-40.727 Y-21.011
G3 X-40.415 Y-20.979 R0.496
G1 X-40.395 Y-20.969
G3 X-40.129 Y-20.721 R0.563
G1 X-40.113 Y-20.692
G3 X-40.045 Y-20.272 R0.66
G1 X-40.05 Y-20.244
G3 X-40.262 Y-19.836 R0.744
G1 X-40.275 Y-19.824
G3 X-40.724 Y-19.603 R0.798
G1 X-40.758 Y-19.598
G3 X-41.318 Y-19.701 R0.904
G1 X-41.336 Y-19.711
G3 X-41.746 Y-20.149 R0.966
G1 X-41.758 Y-20.174
G3 X-41.835 Y-20.828 R1.049
G1 X-41.829 Y-20.856
G3 X-41.469 Y-21.478 R1.134
G1 X-41.449 Y-21.496
G3 X-40.752 Y-21.795 R1.215
G1 X-40.729 Y-21.798
G3 X-39.953 Y-21.619 R1.288
G1 X-39.933 Y-21.607
G3 X-39.378 Y-20.966 R1.358
G1 X-39.365 Y-20.936
G3 X-39.295 Y-20.025 R1.457
G1 X-39.319 Y-19.93
G3 X-40.477 Y-18.79 R1.551
G1 X-40.49 Y-18.786
G3 X-41.572 Y-18.88 R1.762
G1 X-41.577 Y-18.882
G3 X-42.062 Y-19.185 R1.817
X-42.433 Y-19.629 R1.821
G1 X-42.444 Y-19.648
G3 X-42.705 Y-20.798 R1.914
G1 X-42.704 Y-20.811
G3 X-42.185 Y-21.971 R1.956
G1 X-42.16 Y-21.998
G3 X-40.426 Y-22.657 R2.104
G1 X-40.417 Y-22.656
G3 X-39.149 Y-22.103 R2.215
X-38.702 Y-21.558 R2.252
G1 X-38.697 Y-21.551
G3 X-38.432 Y-20.863 R2.306
G1 X-38.429 Y-20.848
G3 X-38.391 Y-20.127 R2.33
X-38.577 Y-19.425 R2.308
G1 X-38.75 Y-19.034
X-39.292 Y-18.493
X-39.98 Y-18.142
X-40.765 Y-18.021
X-41.515 Y-18.14
X-42.209 Y-18.493
X-42.753 Y-19.037
X-43.112 Y-19.747
X-43.23 Y-20.489
X-43.104 Y-21.278
X-42.758 Y-21.957
X-42.215 Y-22.501
X-42.099 Y-22.563
X-41.505 Y-22.862
X-40.764 Y-22.979
X-39.982 Y-22.859
X-39.292 Y-22.507
X-38.747 Y-21.963
X-38.39 Y-21.267
X-38.27 Y-20.49
X-38.388 Y-19.746
X-38.75 Y-19.034
G0 Z11.
X-0.901 Y-20.606
Z1.445
G3 X-0.886 Y-20.6 Z1.349 R0.75 F720.
X-0.845 Y-20.579 Z1.263 R0.75
X-0.784 Y-20.542 Z1.196 R0.75
X-0.714 Y-20.488 Z1.156 R0.75
X-0.694 Y-20.471 Z1.15 R0.75
X-1.714 Y-19.37 Z0.735 R0.75
X-0.694 Y-20.471 Z0.319 R0.75
X-1.714 Y-19.37 Z-0.096 R0.75
X-0.694 Y-20.471 Z-0.512 R0.75
X-1.714 Y-19.37 Z-0.927 R0.75
X-0.694 Y-20.471 Z-1.343 R0.75
X-1.714 Y-19.37 Z-1.758 R0.75
X-0.694 Y-20.471 Z-2.174 R0.75
X-1.714 Y-19.37 Z-2.589 R0.75
X-0.714 Y-20.488 Z-3. R0.75
G1 X-0.705 Y-20.48
G3 X-0.685 Y-20.436 R0.058
G1 X-0.687 Y-20.408
G3 X-0.737 Y-20.323 R0.108
G1 X-0.765 Y-20.306
G3 X-0.896 Y-20.283 R0.176
G1 X-0.927 Y-20.289
G3 X-1.076 Y-20.385 R0.256
G1 X-1.091 Y-20.405
G3 X-1.158 Y-20.613 R0.326
G1 X-1.156 Y-20.644
G3 X-1.057 Y-20.899 R0.413
G1 X-1.039 Y-20.92
G3 X-0.762 Y-21.083 R0.495
G1 X-0.736 Y-21.089
G3 X-0.373 Y-21.043 R0.572
G1 X-0.349 Y-21.032
G3 X-0.051 Y-20.738 R0.65
G1 X-0.036 Y-20.707
G3 X0.034 Y-20.246 R0.753
G1 X0.032 Y-20.232
G3 X-0.197 Y-19.794 R0.796
G1 X-0.22 Y-19.772
G3 X-0.728 Y-19.525 R0.892
G1 X-0.757 Y-19.522
G3 X-1.367 Y-19.641 R0.979
G1 X-1.388 Y-19.653
G3 X-1.83 Y-20.14 R1.054
G1 X-1.863 Y-20.212
G3 X-1.586 Y-21.483 R1.097
G1 X-1.527 Y-21.535
G3 X0.097 Y-21.679 R1.377
G1 X0.112 Y-21.67
G3 X0.701 Y-20.981 R1.444
G1 X0.741 Y-20.883
G3 X0.484 Y-19.285 R1.555
G1 X0.478 Y-19.278
G3 X-0.452 Y-18.713 R1.743
G1 X-0.468 Y-18.709
G3 X-1.614 Y-18.809 R1.849
X-2.117 Y-19.126 R1.882
G1 X-2.126 Y-19.134
G3 X-2.517 Y-19.605 R1.958
X-2.745 Y-20.179 R1.964
G1 X-2.747 Y-20.186
G3 X-2.788 Y-20.805 R2.016
G1 X-2.782 Y-20.882
G3 X-2.653 Y-21.387 R1.623
G1 X-2.624 Y-21.454
G3 X-2.266 Y-22.014 R2.104
G1 X-2.26 Y-22.021
G3 X-1.739 Y-22.448 R2.159
X-1.103 Y-22.697 R2.172
G1 X-1.097 Y-22.698
G3 X-0.41 Y-22.739 R2.209
G1 X-0.4 Y-22.738
G3 X0.296 Y-22.555 R2.272
G1 X0.302 Y-22.552
G3 X0.912 Y-22.158 R2.316
X1.376 Y-21.589 R2.332
G1 X1.38 Y-21.582
G3 X1.64 Y-20.907 R2.309
G1 X1.73 Y-20.489
X1.61 Y-19.733
X1.264 Y-19.054
X0.707 Y-18.492
X0.029 Y-18.146
X-0.759 Y-18.02
X-1.515 Y-18.14
X-1.527 Y-18.145
X-2.208 Y-18.492
X-2.76 Y-19.047
X-3.11 Y-19.733
X-3.23 Y-20.491
X-3.157 Y-20.966
X-3.105 Y-21.275
X-2.758 Y-21.958
X-2.203 Y-22.51
X-1.517 Y-22.86
X-0.757 Y-22.98
X0.014 Y-22.86
X0.712 Y-22.504
X1.257 Y-21.958
X1.604 Y-21.279
X1.73 Y-20.489
G0 Z11.
X-0.454 Y-19.909
G1 Z-1.555 F200.
G3 X-0.455 Y-19.891 Z-1.657 R0.75 F720.
X-0.459 Y-19.839 Z-1.747 R0.75
X-0.471 Y-19.761 Z-1.814 R0.75
X-0.498 Y-19.666 Z-1.85 R0.75
X-1.91 Y-20.174 Z-2.265 R0.75
X-0.498 Y-19.666 Z-2.681 R0.75
X-1.91 Y-20.174 Z-3.096 R0.75
X-0.498 Y-19.666 Z-3.512 R0.75
X-1.91 Y-20.174 Z-3.927 R0.75
X-0.498 Y-19.666 Z-4.343 R0.75
X-1.91 Y-20.174 Z-4.758 R0.75
X-0.498 Y-19.666 Z-5.174 R0.75
X-1.91 Y-20.174 Z-5.589 R0.75
X-0.498 Y-19.666 Z-6.005 R0.75
X-1.91 Y-20.174 Z-6.42 R0.75
X-0.498 Y-19.666 Z-6.836 R0.75
X-1.91 Y-20.174 Z-7.251 R0.75
X-0.498 Y-19.666 Z-7.666 R0.75
X-1.91 Y-20.174 Z-8.082 R0.75
X-0.498 Y-19.666 Z-8.497 R0.75
X-1.91 Y-20.174 Z-8.913 R0.75
X-0.498 Y-19.666 Z-9.328 R0.75
X-1.91 Y-20.174 Z-9.744 R0.75
X-0.714 Y-20.488 Z-10. R0.75
G1 X-0.705 Y-20.48
G3 X-0.685 Y-20.436 R0.058
G1 X-0.687 Y-20.408
G3 X-0.737 Y-20.323 R0.108
G1 X-0.765 Y-20.306
G3 X-0.896 Y-20.283 R0.176
G1 X-0.927 Y-20.289
G3 X-1.076 Y-20.385 R0.256
G1 X-1.091 Y-20.405
G3 X-1.158 Y-20.613 R0.326
G1 X-1.156 Y-20.644
G3 X-1.057 Y-20.899 R0.413
G1 X-1.039 Y-20.92
G3 X-0.762 Y-21.083 R0.495
G1 X-0.736 Y-21.089
G3 X-0.373 Y-21.043 R0.572
G1 X-0.349 Y-21.032
G3 X-0.051 Y-20.738 R0.65
G1 X-0.036 Y-20.707
G3 X0.034 Y-20.246 R0.753
G1 X0.032 Y-20.232
G3 X-0.197 Y-19.794 R0.796
G1 X-0.22 Y-19.772
G3 X-0.728 Y-19.525 R0.892
G1 X-0.757 Y-19.522
G3 X-1.367 Y-19.641 R0.979
G1 X-1.388 Y-19.653
G3 X-1.83 Y-20.14 R1.054
G1 X-1.863 Y-20.212
G3 X-1.586 Y-21.483 R1.097
G1 X-1.527 Y-21.535
G3 X0.097 Y-21.679 R1.377
G1 X0.112 Y-21.67
G3 X0.701 Y-20.981 R1.444
G1 X0.741 Y-20.883
G3 X0.484 Y-19.285 R1.555
G1 X0.478 Y-19.278
G3 X-0.452 Y-18.713 R1.743
G1 X-0.468 Y-18.709
G3 X-1.614 Y-18.809 R1.849
X-2.117 Y-19.126 R1.882
G1 X-2.126 Y-19.134
G3 X-2.517 Y-19.605 R1.958
X-2.745 Y-20.179 R1.964
G1 X-2.747 Y-20.186
G3 X-2.788 Y-20.805 R2.016
G1 X-2.782 Y-20.882
G3 X-2.653 Y-21.387 R1.623
G1 X-2.624 Y-21.454
G3 X-2.266 Y-22.014 R2.104
G1 X-2.26 Y-22.021
G3 X-1.739 Y-22.448 R2.159
X-1.103 Y-22.697 R2.172
G1 X-1.097 Y-22.698
G3 X-0.41 Y-22.739 R2.209
G1 X-0.4 Y-22.738
G3 X0.296 Y-22.555 R2.272
G1 X0.302 Y-22.552
G3 X0.912 Y-22.158 R2.316
X1.376 Y-21.589 R2.332
G1 X1.38 Y-21.582
G3 X1.64 Y-20.907 R2.309
G1 X1.73 Y-20.489
X1.61 Y-19.733
X1.264 Y-19.054
X0.707 Y-18.492
X0.029 Y-18.146
X-0.759 Y-18.02
X-1.515 Y-18.14
X-1.527 Y-18.145
X-2.208 Y-18.492
X-2.76 Y-19.047
X-3.11 Y-19.733
X-3.23 Y-20.491
X-3.157 Y-20.966
X-3.105 Y-21.275
X-2.758 Y-21.958
X-2.203 Y-22.51
X-1.517 Y-22.86
X-0.757 Y-22.98
X0.014 Y-22.86
X0.712 Y-22.504
X1.257 Y-21.958
X1.604 Y-21.279
X1.73 Y-20.489
G0 Z11.
X41.714 Y-8.717
Z1.445
G3 X41.719 Y-8.702 Z1.349 R0.75 F720.
X41.73 Y-8.658 Z1.263 R0.75
X41.743 Y-8.588 Z1.196 R0.75
X41.749 Y-8.499 Z1.156 R0.75
Y-8.473 Z1.15 R0.75
X40.249 Y-8.51 Z0.735 R0.75
X41.749 Y-8.473 Z0.319 R0.75
X40.249 Y-8.51 Z-0.096 R0.75
X41.749 Y-8.473 Z-0.512 R0.75
X40.249 Y-8.51 Z-0.927 R0.75
X41.749 Y-8.473 Z-1.343 R0.75
X40.249 Y-8.51 Z-1.758 R0.75
X41.749 Y-8.473 Z-2.174 R0.75
X40.249 Y-8.51 Z-2.589 R0.75
X41.749 Y-8.499 Z-3. R0.75
G1 X41.927 Y8.389
G3 X41.633 Y8.663 R0.272
X41.583 Y8.614 R0.054
G1 X41.582 Y8.596
G2 X41.58 Y8.585 R0.112
G1 X41.576 Y8.563
G3 X41.57 Y8.491 R0.454
G1 X41.391 Y-8.474
G3 X41.403 Y-8.629 R0.874
X41.406 Y-8.646 R0.805
X41.602 Y-8.845 R0.25
X41.691 Y-8.854 R0.436
X42.128 Y-8.427 R0.436
G1 X42.458 Y8.464
G3 Y8.531 R1.647
X42.453 Y8.633 R1.536
X42.444 Y8.713 R1.532
G2 X42.433 Y8.814 R1.532
G1 X42.432 Y8.835
G3 X42.428 Y8.88 R2.182
G1 X42.424 Y8.931
G3 X42.182 Y9.178 R0.274
G1 X42.165 Y9.18
G3 X42.099 Y9.186 R1.504
G2 X41.975 Y9.2 R1.477
G1 X41.942 Y9.205
G3 X41.012 Y8.41 R0.818
G1 X40.682 Y-8.419
G3 X40.715 Y-8.888 R2.601
G1 X40.717 Y-8.896
G3 X40.724 Y-8.939 R2.418
X41.312 Y-9.537 R0.745
G1 X41.354 Y-9.545
G3 X42.079 Y-9.569 R2.233
G2 X42.237 Y-9.554 R2.364
G1 X42.279 Y-9.552
G3 X42.818 Y-9.028 R0.578
G1 X42.82 Y-9.005
G2 X42.841 Y-8.837 R2.36
G3 X42.858 Y-8.72 R2.36
X42.871 Y-8.558 R2.462
G1 X42.872 Y-8.544
G3 X42.875 Y-8.455 R2.881
G1 X43.164 Y8.436
G3 Y8.558 R3.468
G1 X43.163 Y8.571
G3 X43.153 Y8.768 R3.065
X43.136 Y8.927 R3.062
G2 X43.116 Y9.129 R3.061
G1 X43.113 Y9.173
G3 X43.106 Y9.262 R4.365
G1 X43.096 Y9.365
G3 X42.616 Y9.859 R0.546
G1 X42.581 Y9.864
G3 X42.45 Y9.876 R3.004
G2 X42.202 Y9.905 R2.954
G1 X42.144 Y9.913
G3 X41.247 Y9.907 R3.04
G1 X41.189 Y9.898
G2 X40.753 Y9.846 R5.987
G1 X40.748 Y9.845
G3 X40.393 Y9.499 R0.389
G2 X40.33 Y9.068 R5.887
G1 X40.324 Y9.035
G3 X40.265 Y8.432 R3.709
G1 X39.977 Y-8.383
G3 X40.031 Y-9.146 R4.376
G1 X40.036 Y-9.18
G2 X40.103 Y-9.723 R7.662
G1 X40.106 Y-9.761
G3 X40.487 Y-10.153 R0.431
G1 X40.504 Y-10.155
G3 X40.586 Y-10.163 R4.207
G2 X41.005 Y-10.224 R4.203
G1 X41.091 Y-10.241
G3 X42.298 Y-10.279 R3.715
G2 X42.561 Y-10.253 R3.928
G1 X42.61 Y-10.25
G3 X42.734 Y-10.241 R5.397
G1 X42.903 Y-10.226
G2 X42.938 Y-10.224 R0.702
G1 X42.962 Y-10.223
G3 X43.486 Y-9.713 R0.546
G2 X43.489 Y-9.678 R0.671
G1 X43.509 Y-9.514
G3 X43.523 Y-9.377 R5.011
G1 X43.527 Y-9.338
G2 X43.562 Y-9.06 R3.918
G3 X43.589 Y-8.865 R3.919
X43.61 Y-8.596 R4.087
G1 X43.611 Y-8.574
G3 X43.616 Y-8.426 R4.772
G1 X43.871 Y8.409
G3 Y8.586 R5.295
G1 Y8.608
G3 X43.856 Y8.904 R4.597
X43.83 Y9.142 R4.593
G2 X43.799 Y9.445 R4.592
G1 X43.795 Y9.51
G3 X43.784 Y9.644 R6.547
G1 X43.766 Y9.851
G2 X43.763 Y9.884 R0.829
G1 X43.76 Y9.948
G3 X43.201 Y10.523 R0.606
G2 X43.172 Y10.526 R0.74
G1 X42.997 Y10.547
G3 X42.8 Y10.565 R4.506
G2 X42.428 Y10.608 R4.431
G1 X42.342 Y10.621
G3 X40.995 Y10.611 R4.56
G1 X40.908 Y10.598
G2 X40.255 Y10.52 R8.976
G1 X40.247 Y10.519
G3 X39.716 Y10. R0.583
G2 X39.622 Y9.353 R8.829
G1 X39.613 Y9.304
G3 X39.523 Y8.391 R5.548
G1 X39.269 Y-8.348
G3 X39.344 Y-9.404 R6.15
G1 X39.352 Y-9.451
G2 X39.444 Y-10.212 R10.733
G1 X39.449 Y-10.268
G3 X39.98 Y-10.813 R0.6
G1 X40.006 Y-10.816
G3 X40.121 Y-10.828 R5.896
G2 X40.708 Y-10.912 R5.891
G1 X40.83 Y-10.936
G3 X42.516 Y-10.987 R5.193
G2 X42.884 Y-10.95 R5.487
G1 X42.953 Y-10.946
G3 X43.125 Y-10.932 R7.533
G1 X43.361 Y-10.911
G2 X43.411 Y-10.908 R0.98
G1 X43.442 Y-10.907
G3 X44.174 Y-10.194 R0.763
G2 X44.178 Y-10.145 R0.937
G1 X44.205 Y-9.915
G3 X44.225 Y-9.724 R6.998
G1 X44.23 Y-9.67
G2 X44.278 Y-9.282 R5.468
G3 X44.315 Y-9.01 R5.469
G1 X44.316 Y-9.004
G3 X44.344 Y-8.634 R5.703
G1 X44.346 Y-8.603
G3 X44.352 Y-8.397 R6.649
G1 X44.581 Y8.381
G3 Y8.614 R7.124
G1 X44.58 Y8.645
G3 X44.56 Y9.04 R6.133
X44.525 Y9.357 R6.125
G2 X44.483 Y9.762 R6.124
G1 X44.477 Y9.848
G3 X44.463 Y10.027 R8.729
G1 X44.438 Y10.303
G2 X44.435 Y10.347 R1.105
G1 X44.431 Y10.432
G3 X43.685 Y11.198 R0.809
G2 X43.646 Y11.202 R0.987
G1 X43.412 Y11.229
G3 X43.15 Y11.254 R6.01
G2 X42.654 Y11.311 R5.908
G1 X42.539 Y11.328
G3 X40.745 Y11.313 R6.077
G1 X40.629 Y11.295
G2 X39.759 Y11.191 R11.945
G1 X39.652 Y11.182
G3 X39.052 Y10.596 R0.658
G1 X39.041 Y10.498
G2 X38.917 Y9.636 R11.759
G1 X38.906 Y9.571
G3 X38.787 Y8.351 R7.377
G1 X38.559 Y-8.312
G3 X38.657 Y-9.663 R7.925
G1 X38.666 Y-9.723
G2 X38.786 Y-10.702 R13.797
G1 X38.799 Y-10.861
G3 X39.388 Y-11.464 R0.664
G1 X39.509 Y-11.478
G3 X39.657 Y-11.493 R7.587
G2 X40.412 Y-11.6 R7.581
G1 X40.568 Y-11.63
G3 X42.733 Y-11.693 R6.669
G2 X43.206 Y-11.645 R7.041
G1 X43.294 Y-11.64
G3 X43.515 Y-11.622 R9.663
G1 X43.818 Y-11.595
G2 X43.882 Y-11.591 R1.256
G1 X43.92 Y-11.589
G3 X44.859 Y-10.672 R0.979
G2 X44.865 Y-10.609 R1.204
G1 X44.899 Y-10.315
G3 X44.924 Y-10.07 R8.98
G1 X44.93 Y-10.
G2 X44.991 Y-9.503 R7.013
G3 X45.038 Y-9.154 R7.015
G1 X45.039 Y-9.146
G3 X45.075 Y-8.672 R7.312
G1 X45.077 Y-8.633
G3 X45.085 Y-8.368 R8.516
G1 X45.292 Y8.353
G3 X45.291 Y8.641 R8.952
G1 X45.29 Y8.683
G3 X45.265 Y9.176 R7.67
X45.221 Y9.573 R7.658
G2 X45.168 Y10.079 R7.657
G1 X45.161 Y10.187
G3 X45.143 Y10.41 R10.91
G1 X45.112 Y10.755
G2 X45.108 Y10.81 R1.38
G1 X45.102 Y10.915
G3 X44.169 Y11.873 R1.012
G2 X44.12 Y11.877 R1.234
G1 X43.828 Y11.911
G3 X43.499 Y11.942 R7.514
G1 X43.494 Y11.943
G2 X42.88 Y12.013 R7.384
G1 X42.736 Y12.034
G3 X40.494 Y12.014 R7.593
G1 X40.35 Y11.991
G2 X39.264 Y11.86 R14.9
G1 X38.874 Y11.828
G3 X38.41 Y11.373 R0.51
G1 X38.37 Y10.994
G2 X38.216 Y9.918 R14.683
G1 X38.201 Y9.837
G3 X38.054 Y8.312 R9.199
G1 X37.848 Y-8.275
G3 X37.968 Y-9.922 R9.701
G1 X37.98 Y-9.996
G2 X38.127 Y-11.192 R16.855
G1 X38.164 Y-11.624
G3 X38.626 Y-12.097 R0.52
G1 X39.012 Y-12.139
G3 X39.192 Y-12.157 R9.279
G2 X40.116 Y-12.288 R9.272
G1 X40.307 Y-12.325
G3 X42.951 Y-12.398 R8.143
G2 X43.527 Y-12.34 R8.592
G1 X43.635 Y-12.332
G3 X43.905 Y-12.311 R11.786
G1 X44.274 Y-12.277
G2 X44.352 Y-12.272 R1.531
G1 X44.397 Y-12.27
G3 X45.542 Y-11.15 R1.195
G2 X45.549 Y-11.073 R1.469
G1 X45.59 Y-10.714
G3 X45.62 Y-10.415 R10.958
G1 X45.628 Y-10.33
G2 X45.702 Y-9.723 R8.554
G3 X45.759 Y-9.297 R8.556
G1 X45.76 Y-9.288
G3 X45.804 Y-8.709 R8.917
G1 X45.806 Y-8.662
G3 X45.815 Y-8.339 R10.376
G1 X46.004 Y8.325
G3 X46.003 Y8.669 R10.781
G1 X46.002 Y8.72
G3 X45.97 Y9.312 R9.209
X45.917 Y9.788 R9.192
G2 X45.854 Y10.396 R9.191
G1 X45.845 Y10.526
G3 X45.823 Y10.793 R13.09
G1 X45.785 Y11.208
G2 X45.781 Y11.273 R1.656
G1 X45.77 Y11.482
G3 X44.736 Y12.541 R1.12
G1 X44.652 Y12.547
G2 X44.594 Y12.553 R1.481
G1 X44.243 Y12.593
G3 X43.849 Y12.63 R9.019
G1 X43.842 Y12.631
G2 X43.106 Y12.714 R8.861
G1 X42.933 Y12.739
G3 X40.244 Y12.714 R9.107
G1 X40.072 Y12.686
G2 X38.771 Y12.528 R17.844
G1 X38.232 Y12.483
G2 X38.192 Y12.481 R0.551
G1 X38.185
G3 X37.758 Y12.062 R0.433
G2 X37.755 Y12.022 R0.542
G1 X37.7 Y11.489
G2 X37.516 Y10.199 R17.601
G1 X37.498 Y10.103
G3 X37.324 Y8.272 R11.017
G1 X37.136 Y-8.259
G3 X37.276 Y-10.161 R11.24
G1 X37.293 Y-10.269
G2 X37.467 Y-11.682 R19.91
G1 X37.516 Y-12.238
G2 X37.518 Y-12.275 R0.592
G1 X37.519 Y-12.311
G3 X37.937 Y-12.739 R0.439
G2 X37.971 Y-12.741 R0.545
G1 X38.514 Y-12.8
G3 X38.728 Y-12.822 R10.974
G2 X39.82 Y-12.975 R10.965
G1 X40.046 Y-13.018
G3 X43.168 Y-13.103 R9.615
G2 X43.849 Y-13.033 R10.141
G1 X43.975 Y-13.024
G3 X44.293 Y-12.999 R13.906
G1 X44.729 Y-12.959
G2 X44.821 Y-12.953 R1.806
G1 X45.169 Y-12.938
G3 X46.206 Y-11.922 R1.083
G1 X46.224 Y-11.626
G2 X46.232 Y-11.535 R1.735
G1 X46.28 Y-11.111
G3 X46.316 Y-10.759 R12.933
G1 X46.324 Y-10.658
G2 X46.412 Y-9.943 R10.092
G3 X46.478 Y-9.44 R10.094
G1 X46.479 Y-9.43
G3 X46.53 Y-8.747 R10.518
G1 X46.533 Y-8.691
G3 X46.543 Y-8.31 R12.231
G1 X46.717 Y8.297
G3 X46.715 Y8.697 R12.61
G1 X46.714 Y8.757
G3 X46.677 Y9.448 R10.749
X46.614 Y10.004 R10.726
G2 X46.54 Y10.714 R10.725
G1 X46.529 Y10.865
G3 X46.504 Y11.177 R15.271
G1 X46.459 Y11.66
G2 X46.454 Y11.736 R1.931
G1 X46.424 Y12.308
G3 X45.561 Y13.19 R0.933
G1 X45.136 Y13.222
G2 X45.067 Y13.228 R1.729
G1 X44.658 Y13.275
G3 X44.198 Y13.318 R10.525
G1 X44.19
G2 X43.331 Y13.415 R10.337
G1 X43.13 Y13.444
G3 X39.994 Y13.412 R10.62
G1 X39.794 Y13.38
G2 X38.278 Y13.195 R20.78
G1 X37.65 Y13.142
G2 X37.604 Y13.139 R0.642
G1 X37.596
G3 X37.099 Y12.651 R0.504
G2 X37.096 Y12.605 R0.632
G1 X37.031 Y11.983
G2 X36.818 Y10.479 R20.515
G1 X36.798 Y10.367
G3 X36.596 Y8.232 R12.83
G1 X36.423 Y-8.259
G3 X36.581 Y-10.384 R12.587
G1 X36.606 Y-10.542
G2 X36.808 Y-12.172 R22.963
G1 X36.864 Y-12.813
G2 X36.867 Y-12.856 R0.683
G1 Y-12.897
G3 X37.351 Y-13.391 R0.506
G2 X37.39 Y-13.394 R0.629
G1 X38.017 Y-13.462
G3 X38.263 Y-13.486 R12.669
G2 X39.524 Y-13.662 R12.658
G1 X39.786 Y-13.712
G3 X43.385 Y-13.807 R11.087
G2 X44.17 Y-13.725 R11.688
G1 X44.316 Y-13.715
G3 X44.681 Y-13.686 R15.94
G1 X45.063 Y-13.65
G3 X45.408 Y-13.606 R4.971
G1 X45.857 Y-13.533
G2 X46.057 Y-13.523 R0.9
G1 X46.117 Y-13.526
G3 X46.779 Y-12.869 R0.625
G2 X46.792 Y-12.673 R0.828
G1 X46.877 Y-12.216
G3 X46.927 Y-11.881 R4.733
G1 X46.969 Y-11.508
G3 X47.009 Y-11.103 R14.905
G1 X47.019 Y-10.986
G2 X47.119 Y-10.162 R11.627
G3 X47.196 Y-9.583 R11.63
G1 X47.197 Y-9.571
G3 X47.255 Y-8.785 R12.115
G1 X47.258 Y-8.721
G3 X47.269 Y-8.281 R14.082
G1 X47.43 Y8.269
G3 X47.428 Y8.725 R14.439
G1 X47.426 Y8.795
G3 X47.383 Y9.585 R12.29
X47.312 Y10.22 R12.261
G2 X47.226 Y11.031 R12.259
G1 X47.214 Y11.204
G3 X47.184 Y11.561 R17.451
G1 X47.133 Y12.116
G2 X47.127 Y12.197 R2.037
G1 X47.076 Y13.165
G3 X46.417 Y13.76 R0.629
G2 X46.227 Y13.774 R0.796
G1 X45.761 Y13.864
G3 X45.397 Y13.92 R4.755
G1 X45.073 Y13.957
G3 X44.547 Y14.005 R12.031
G1 X44.538 Y14.006
G2 X43.557 Y14.116 R11.814
G1 X43.327 Y14.149
G3 X39.745 Y14.11 R12.133
G1 X39.516 Y14.074
G2 X37.786 Y13.861 R23.71
G1 X37.069 Y13.8
G2 X37.017 Y13.797 R0.733
G1 X37.009
G3 X36.44 Y13.239 R0.576
G2 X36.437 Y13.186 R0.722
G1 X36.363 Y12.477
G2 X36.121 Y10.759 R23.426
G1 X36.098 Y10.631
G3 X35.87 Y8.193 R14.64
G1 X35.709 Y-8.259
G3 X35.885 Y-10.607 R13.93
G1 X35.919 Y-10.815
G2 X36.148 Y-12.663 R26.013
G1 X36.212 Y-13.389
G2 X36.215 Y-13.438 R0.774
G1 X36.216 Y-13.484
G3 X36.764 Y-14.043 R0.574
G2 X36.808 Y-14.046 R0.713
G1 X37.52 Y-14.123
G3 X37.799 Y-14.15 R14.364
G2 X39.228 Y-14.349 R14.353
G1 X39.525 Y-14.405
G3 X43.602 Y-14.51 R12.557
G2 X44.49 Y-14.417 R13.233
G1 X44.656 Y-14.406
G3 X45.069 Y-14.372 R18.039
G1 X45.502 Y-14.332
G3 X45.892 Y-14.281 R5.624
G1 X46.4 Y-14.198
G2 X46.627 Y-14.186 R1.018
G1 X46.694 Y-14.191
G3 X47.443 Y-13.446 R0.708
G2 X47.458 Y-13.224 R0.938
G1 X47.554 Y-12.707
G3 X47.61 Y-12.327 R5.361
G1 X47.657 Y-11.905
G3 X47.702 Y-11.446 R16.875
G1 X47.714 Y-11.314
G2 X47.826 Y-10.381 R13.16
G3 X47.912 Y-9.726 R13.163
G1 X47.914 Y-9.712
G3 X47.979 Y-8.822 R13.711
G1 X47.982 Y-8.75
G3 X47.994 Y-8.252 R15.93
G1 X48.144 Y8.241
G3 X48.141 Y8.754 R16.269
G1 X48.139 Y8.832
G3 X48.091 Y9.721 R13.832
X48.01 Y10.436 R13.796
G2 X47.913 Y11.349 R13.794
G1 X47.898 Y11.547
G3 X47.866 Y11.94 R19.175
G1 X47.823 Y12.396
G3 X47.767 Y12.831 R6.216
G1 X47.681 Y13.356
G2 X47.667 Y13.573 R1.056
G1 X47.675 Y13.742
G3 X46.995 Y14.418 R0.648
G2 X46.792 Y14.432 R0.851
G1 X46.262 Y14.534
G3 X45.852 Y14.597 R5.352
G1 X45.487 Y14.638
G3 X44.897 Y14.692 R13.538
G1 X44.886 Y14.693
G2 X43.782 Y14.816 R13.29
G1 X43.523 Y14.854
G3 X39.495 Y14.808 R13.644
G1 X39.238 Y14.766
G2 X37.294 Y14.527 R26.629
G1 X36.489 Y14.457
G2 X36.43 Y14.454 R0.823
G1 X36.421
G3 X35.783 Y13.826 R0.648
G2 X35.779 Y13.767 R0.812
G1 X35.697 Y12.969
G2 X35.425 Y11.039 R26.329
G1 X35.394 Y10.86
G3 X35.145 Y8.189 R16.028
G1 X34.995 Y-8.259
G3 X34.999 Y-8.74 R14.295
G1 X35. Y-8.786
G3 X35.188 Y-10.825 R15.127
G1 X35.232 Y-11.098
G2 X35.488 Y-13.144 R28.796
G1 X35.56 Y-13.963
G2 X35.563 Y-14.021 R0.86
G1 X35.564 Y-14.072
G3 X36.176 Y-14.695 R0.636
G2 X36.229 Y-14.699 R0.793
G1 X37.023 Y-14.784
G3 X37.335 Y-14.814 R16.061
G2 X38.932 Y-15.035 R16.048
G1 X39.265 Y-15.099
G3 X43.818 Y-15.213 R14.027
G2 X44.811 Y-15.109 R14.778
G1 X44.996 Y-15.096
G3 X45.457 Y-15.058 R20.135
G1 X45.942 Y-15.012
G3 X46.374 Y-14.957 R6.218
G1 X46.941 Y-14.863
G2 X47.197 Y-14.85 R1.134
G1 X47.271 Y-14.855
G3 X48.107 Y-14.023 R0.788
G2 X48.123 Y-13.772 R1.046
G1 X48.23 Y-13.194
G3 X48.292 Y-12.774 R5.934
G1 X48.345 Y-12.301
G3 X48.395 Y-11.789 R18.844
G1 X48.407 Y-11.641
G2 X48.532 Y-10.599 R14.692
G3 X48.628 Y-9.868 R14.695
G1 X48.63 Y-9.853
G3 X48.702 Y-8.859 R15.305
G1 X48.705 Y-8.779
G3 X48.719 Y-8.223 R17.775
G1 X48.859 Y8.213
G3 X48.855 Y8.782 R18.098
G1 X48.853 Y8.869
G3 X48.798 Y9.857 R15.374
X48.707 Y10.652 R15.331
G2 X48.599 Y11.667 R15.329
G1 X48.583 Y11.887
G3 X48.547 Y12.323 R21.3
G1 X48.499 Y12.835
G3 X48.438 Y13.308 R6.753
G1 X48.341 Y13.893
G2 X48.327 Y14.14 R1.168
G1 X48.336 Y14.328
G3 X47.581 Y15.076 R0.715
G2 X47.349 Y15.092 R0.943
G1 X46.758 Y15.205
G3 X46.313 Y15.273 R5.814
G1 X45.902 Y15.32
G3 X45.246 Y15.379 R15.044
G1 X45.234 Y15.38
G2 X44.007 Y15.516 R14.766
G1 X43.72 Y15.558
G3 X39.246 Y15.505 R15.155
G1 X38.925 Y15.453
G2 X36.839 Y15.195 R28.58
G1 X35.922 Y15.115
G2 X35.831 Y15.112 R0.89
G1 X35.821
G3 X35.125 Y14.427 R0.686
G2 X35.12 Y14.334 R0.878
G1 X34.999 Y13.137
G2 X34.763 Y11.485 R16.484
G1 X34.677 Y11.019
G3 X34.436 Y8.798 R16.483
G1 X34.432 Y8.703
G3 X34.422 Y8.292 R12.827
G1 X34.281 Y-8.259
G3 X34.285 Y-8.74 R14.364
G1 X34.286 Y-8.816
G3 X34.496 Y-11.071 R16.738
G1 X34.529 Y-11.275
G3 X34.58 Y-11.574 R16.928
G2 X34.797 Y-13.264 R16.914
G1 X34.906 Y-14.519
G2 X34.91 Y-14.623 R0.912
G1 X34.908 Y-14.68
G3 X35.569 Y-15.349 R0.653
G2 X35.668 Y-15.354 R0.842
G1 X36.545 Y-15.447
G3 X36.851 Y-15.477 R15.74
G1 X36.87 Y-15.479
G2 X38.637 Y-15.722 R17.744
G1 X39.005 Y-15.792
G3 X44.035 Y-15.915 R15.495
G2 X45.131 Y-15.8 R16.32
G1 X45.335 Y-15.785
G3 X45.844 Y-15.743 R22.229
G1 X46.388 Y-15.692
G3 X46.849 Y-15.632 R6.629
G1 X47.477 Y-15.528
G2 X47.771 Y-15.515 R1.246
G1 X47.852 Y-15.521
G3 X48.772 Y-14.604 R0.859
G2 X48.788 Y-14.316 R1.15
G1 X48.906 Y-13.676
G3 X48.972 Y-13.227 R6.33
G1 X49.031 Y-12.697
G3 X49.086 Y-12.131 R20.811
G1 X49.1 Y-11.968
G2 X49.237 Y-10.818 R16.222
G3 X49.343 Y-10.01 R16.226
G1 X49.344 Y-9.994
G3 X49.424 Y-8.897 R16.896
G1 X49.427 Y-8.808
G3 X49.442 Y-8.194 R19.618
G1 X49.573 Y8.185
G3 X49.568 Y8.81 R19.926
G1 X49.566 Y8.907
G3 X49.505 Y9.994 R16.915
X49.405 Y10.868 R16.865
G2 X49.286 Y11.985 R16.863
G1 X49.268 Y12.227
G3 X49.228 Y12.706 R23.424
G1 X49.174 Y13.282
G3 X49.109 Y13.777 R7.064
G1 X49.002 Y14.425
G2 X48.987 Y14.713 R1.273
G1 X49. Y14.918
G3 X48.172 Y15.736 R0.772
G2 X47.9 Y15.752 R1.031
G1 X47.246 Y15.878
G3 X46.781 Y15.948 R6.078
G1 X46.317 Y16.001
G3 X45.595 Y16.066 R16.551
G1 X45.582 Y16.067
G2 X44.232 Y16.216 R16.242
G1 X43.916 Y16.261
G3 X38.997 Y16.201 R16.665
G1 X38.491 Y16.116
G2 X36.677 Y15.885 R18.169
G1 X35.374 Y15.774
G2 X35.215 R0.939
G1 X35.204
G3 X34.463 Y15.042 R0.687
G2 X34.46 Y14.883 R0.926
G1 X34.331 Y13.596
G2 X34.072 Y11.781 R18.119
G1 X33.999 Y11.385
G3 X33.697 Y8.112 R19.615
G1 X33.566 Y-8.259
G3 X33.57 Y-8.74 R14.423
G1 X33.573 Y-8.845
G3 X33.804 Y-11.318 R18.348
G1 X33.84 Y-11.54
G3 X33.896 Y-11.867 R18.538
G2 X34.135 Y-13.718 R18.523
G1 X34.252 Y-15.058
G2 X34.251 Y-15.24 R0.957
G1 X34.244 Y-15.302
G3 X34.946 Y-16.009 R0.645
G2 X35.123 Y-16.01 R0.886
G1 X36.112 Y-16.115
G3 X36.323 Y-16.135 R10.85
G1 X36.406 Y-16.143
G2 X38.341 Y-16.408 R19.44
G1 X38.745 Y-16.484
G3 X44.251 Y-16.617 R16.963
G2 X45.451 Y-16.49 R17.862
G1 X45.675 Y-16.474
G3 X46.231 Y-16.428 R24.32
G1 X46.839 Y-16.37
G3 X47.318 Y-16.308 R6.893
G1 X48.008 Y-16.193
G2 X48.349 Y-16.18 R1.354
G1 X48.437 Y-16.188
G3 X49.437 Y-15.19 R0.922
G2 X49.453 Y-14.855 R1.252
G1 X49.583 Y-14.151
G3 X49.651 Y-13.685 R6.587
G1 X49.717 Y-13.092
G3 X49.777 Y-12.473 R22.777
G1 X49.792 Y-12.294
G2 X49.942 Y-11.036 R17.751
G3 X50.056 Y-10.152 R17.755
G1 X50.058 Y-10.134
G3 X50.144 Y-8.934 R18.487
G1 X50.149 Y-8.817
G3 X50.164 Y-8.187 R20.115
G1 X50.287 Y8.156
G3 X50.281 Y8.838 R21.753
G1 X50.279 Y8.944
G3 X50.212 Y10.13 R18.456
X50.103 Y11.084 R18.398
G2 X49.972 Y12.302 R18.395
G1 X49.952 Y12.566
G3 X49.908 Y13.089 R25.544
G1 X49.847 Y13.734
G3 X49.781 Y14.241 R7.22
G1 X49.663 Y14.951
G2 X49.649 Y15.29 R1.375
G1 X49.667 Y15.513
G3 X48.767 Y16.398 R0.823
G2 X48.447 Y16.413 R1.118
G1 X47.729 Y16.55
G3 X47.254 Y16.622 R6.211
G1 X46.731 Y16.681
G3 X45.943 Y16.752 R18.057
G1 X45.929 Y16.753
G2 X44.457 Y16.915 R17.716
G1 X44.113 Y16.964
G3 X38.748 Y16.896 R18.173
G1 X38.197 Y16.804
G2 X36.22 Y16.551 R19.803
G1 X34.838 Y16.432
G2 X34.59 Y16.442 R1.003
G1 X34.577 Y16.444
G3 X33.794 Y15.669 R0.682
G2 X33.8 Y15.421 R0.989
G1 X33.663 Y14.055
G2 X33.381 Y12.076 R19.754
G1 X33.309 Y11.685
G3 X32.975 Y8.036 R21.86
G1 X32.852 Y-8.258
G3 X32.857 Y-8.74 R14.474
G1 X32.86 Y-8.875
G3 X33.112 Y-11.564 R19.958
G1 X33.151 Y-11.805
G3 X33.212 Y-12.161 R20.147
G2 X33.472 Y-14.172 R20.13
G1 X33.563 Y-15.505
G2 X33.555 Y-15.744 R1.209
G1 X33.549 Y-15.79
G3 X34.46 Y-16.714 R0.821
G2 X34.691 Y-16.709 R1.159
G1 X35.811 Y-16.799
G2 X38.186 Y-17.12 R22.81
G1 X38.509 Y-17.181
G3 X44.443 Y-17.321 R18.28
G2 X45.795 Y-17.182 R18.442
G1 X47.105 Y-17.086
G3 X47.704 Y-17.018 R8.318
G1 X48.356 Y-16.92
G2 X48.721 Y-16.903 R1.808
G1 X48.792 Y-16.907
G3 X50.169 Y-15.544 R1.309
G2 X50.191 Y-15.187 R1.722
G1 X50.302 Y-14.524
G3 X50.381 Y-13.915 R8.185
G1 X50.437 Y-13.29
G3 X50.472 Y-12.864 R22.765
G1 X50.487 Y-12.658
G2 X50.65 Y-11.215 R17.727
G3 X50.765 Y-10.333 R17.733
G1 X50.771 Y-10.274
G3 X50.864 Y-8.971 R20.076
G1 X50.87 Y-8.807
G3 X50.884 Y-8.197 R19.489
G1 X51. Y8.134
G3 X50.994 Y8.861 R23.237
G1 X50.991 Y8.986
G3 X50.919 Y10.262 R20.07
G1 X50.913 Y10.329
G3 X50.815 Y11.194 R17.377
G2 X50.678 Y12.603 R17.371
G1 X50.603 Y13.79
G3 X50.527 Y14.529 R10.208
G1 X50.443 Y15.13
G2 X50.422 Y15.459 R2.182
G1 X50.424 Y15.655
G3 X48.909 Y17.189 R1.516
G2 X48.593 Y17.214 R1.935
G1 X48. Y17.311
G3 X47.244 Y17.403 R9.307
G1 X46.795 Y17.439
G3 X46.202 Y17.476 R16.182
G1 X46.186 Y17.477
G2 X44.569 Y17.63 R15.87
G1 X44.285 Y17.67
G3 X38.559 Y17.602 R19.823
G1 X38.082 Y17.525
G2 X35.902 Y17.294 R17.183
G1 X34.719 Y17.251
G2 X34.529 Y17.254 R1.948
G3 X34.435 Y17.257 R1.463
X32.974 Y15.721 R1.463
G2 X32.973 Y15.525 R1.943
G1 X32.913 Y14.345
G2 X32.652 Y12.167 R17.42
G1 X32.6 Y11.87
G3 X32.254 Y7.973 R24.06
G1 X32.139 Y-8.256
G3 X32.143 Y-8.742 R15.259
G1 X32.147 Y-8.893
G3 X32.393 Y-11.655 R21.654
G1 X32.471 Y-12.156
G2 X32.689 Y-14.357 R16.871
G1 X32.723 Y-15.547
G2 X32.722 Y-15.702 R2.322
G1 X32.72 Y-15.752
G3 X34.497 Y-17.553 R1.735
G2 X34.654 Y-17.554 R2.261
G1 X35.814 Y-17.605
G2 X38.053 Y-17.838 R17.221
G1 X38.48 Y-17.913
G3 X43.527 Y-18.147 R19.501
G1 X43.628 Y-18.139
G3 X44.394 Y-18.057 R16.948
G2 X45.898 Y-17.929 R16.939
G1 X46.944 Y-17.881
G3 X47.865 Y-17.802 R13.132
G1 X48.387 Y-17.738
G2 X48.689 Y-17.718 R2.938
G1 X48.758 Y-17.716
G3 X50.995 Y-15.512 R2.278
G2 X51.019 Y-15.218 R2.847
G1 X51.091 Y-14.691
G3 X51.186 Y-13.747 R13.111
G1 X51.245 Y-12.719
G2 X51.393 Y-11.154 R16.763
G3 X51.481 Y-10.423 R16.773
G1 X51.492 Y-10.31
G3 X51.581 Y-8.979 R21.94
G1 X51.589 Y-8.763
G3 X51.601 Y-8.241 R17.605
G1 X51.711 Y8.125
G3 X51.705 Y8.869 R25.708
G1 X51.702 Y8.984
G3 X51.635 Y10.274 R21.824
G1 X51.626 Y10.384
G3 X51.548 Y11.139 R16.909
G2 X51.424 Y12.657 R16.901
G1 X51.385 Y13.613
G3 X51.3 Y14.705 R15.577
G1 X51.247 Y15.168
G2 X51.228 Y15.42 R3.334
G1 X51.221 Y15.616
G3 X48.871 Y18.009 R2.489
G2 X48.628 Y18.032 R3.068
G1 X48.184 Y18.092
G3 X47.06 Y18.2 R14.347
G1 X46.77 Y18.216
G3 X46.227 Y18.237 R15.456
G2 X44.528 Y18.367 R15.441
G1 X44.339 Y18.39
G3 X38.501 Y18.327 R21.8
G1 X38.134 Y18.273
G2 X35.744 Y18.08 R16.99
G1 X34.668 Y18.069
G2 X34.58 R3.068
G3 X34.534 R2.385
X32.148 Y15.67 R2.385
G2 Y15.577 R3.064
G1 X32.121 Y14.489
G2 X31.897 Y12.115 R17.1
G1 X31.859 Y11.877
G3 X31.537 Y7.967 R26.044
G1 X31.43 Y-8.056
G3 X31.681 Y-11.789 R25.3
G1 X31.713 Y-12.015
G2 X31.912 Y-14.684 R20.016
G1 X31.917 Y-15.784
G3 X34.464 Y-18.367 R2.558
G1 X34.545
G2 X34.607 Y-18.368 R3.365
G1 X35.815 Y-18.395
G2 X38.249 Y-18.613 R16.639
G1 X38.468 Y-18.649
G3 X43.535 Y-18.867 R21.18
G1 X43.667 Y-18.857
G3 X44.355 Y-18.79 R16.968
G2 X45.937 Y-18.677 R16.958
G1 X46.774 Y-18.653
G3 X48.035 Y-18.568 R18.759
G1 X48.428 Y-18.528
G2 X48.647 Y-18.512 R4.068
G1 X49.058 Y-18.493
G3 X51.777 Y-15.814 R2.858
G1 X51.798 Y-15.471
G2 X51.817 Y-15.259 R3.975
G1 X51.862 Y-14.865
G3 X51.966 Y-13.574 R18.858
G1 X51.999 Y-12.756
G2 X52.131 Y-11.118 R16.854
G3 X52.203 Y-10.461 R16.865
G1 X52.216 Y-10.319
G3 X52.3 Y-8.971 R24.1
G1 X52.307 Y-8.765
G3 X52.318 Y-8.239 R19.225
G1 X52.422 Y8.125
G3 X52.417 Y8.869 R27.895
G1 X52.415 Y8.978
G3 X52.352 Y10.281 R23.906
G1 X52.342 Y10.416
G3 X52.276 Y11.108 R17.185
G2 X52.167 Y12.688 R17.175
G1 X52.147 Y13.443
G3 X52.057 Y14.875 R21.443
G1 X52.025 Y15.207
G2 X52.012 Y15.381 R4.449
G1 X51.978 Y15.974
G3 X49.23 Y18.772 R2.976
G1 X48.835 Y18.802
G2 X48.663 Y18.818 R4.173
G1 X48.346 Y18.855
G3 X46.898 Y18.971 R19.597
G1 X46.765 Y18.976
G3 X46.233 Y18.99 R15.56
G2 X44.521 Y19.098 R15.546
G1 X44.381 Y19.114
G3 X38.458 Y19.056 R24.008
G1 X38.239 Y19.027
G2 X35.638 Y18.855 R19.368
G1 X33.968 Y18.859
G3 X31.358 Y16.28 R2.597
G1 X31.341 Y14.614
G2 X31.135 Y12.003 R19.759
G1 X31.114 Y11.86
G3 X30.82 Y7.988 R28.024
G1 X30.718 Y-8.051
G3 X30.949 Y-11.796 R27.603
G1 X30.976 Y-11.999
G2 X31.144 Y-14.585 R20.071
G1 X31.142 Y-16.517
G3 X33.731 Y-19.14 R2.617
G1 X35.839 Y-19.168
G2 X38.263 Y-19.357 R16.93
G1 X38.459 Y-19.386
G3 X43.54 Y-19.588 R23.136
G1 X43.685 Y-19.578
G3 X44.337 Y-19.52 R17.831
G2 X45.954 Y-19.42 R17.821
G1 X46.652 Y-19.405
G3 X48.157 Y-19.319 R23.823
G1 X48.456 Y-19.292
G2 X48.62 Y-19.28 R5.13
G1 X49.716 Y-19.217
G3 X52.499 Y-16.471 R2.96
G1 X52.572 Y-15.445
G2 X52.585 Y-15.285 R5.034
G1 X52.616 Y-14.984
G3 X52.725 Y-13.455 R23.963
G1 X52.747 Y-12.771
G2 X52.865 Y-11.102 R17.813
G3 X52.928 Y-10.477 R17.824
G1 X52.941 Y-10.324
G3 X53.018 Y-8.966 R26.499
G1 X53.025 Y-8.767
G3 X53.035 Y-8.238 R21.135
G1 X53.134 Y8.22
G3 X53.131 Y8.774 R22.745
G1 X53.127 Y8.975
G3 X53.071 Y10.284 R26.242
G1 X53.061 Y10.428
G3 X53.003 Y11.097 R18.354
G2 X52.905 Y12.699 R18.344
G1 X52.891 Y13.345
G3 X52.8 Y14.974 R26.312
G1 X52.778 Y15.227
G2 X52.768 Y15.36 R5.482
G1 X52.687 Y16.649
G3 X49.904 Y19.478 R3.028
G1 X48.819 Y19.564
G2 X48.68 Y19.577 R5.199
G1 X48.375 Y19.609
G3 X46.869 Y19.717 R22.235
G1 X46.774 Y19.721
G3 X46.224 Y19.733 R16.528
G2 X44.529 Y19.828 R16.515
G1 X44.4 Y19.842
G3 X38.438 Y19.79 R26.437
G1 X38.214 Y19.762
G2 X35.744 Y19.613 R20.143
G1 X33.212 Y19.62
G3 X30.598 Y17.035 R2.604
G1 X30.575 Y14.525
G2 X30.394 Y12.023 R20.766
G1 X30.346 Y11.665
G3 X30.118 Y8.886 R27.409
G1 X30.11 Y8.625
G3 X30.106 Y8.369 R10.319
G1 X30.006 Y-8.046
G3 X30.217 Y-11.804 R30.386
G1 X30.241 Y-12.011
G2 X30.391 Y-14.53 R21.576
G1 X30.387 Y-17.276
G3 X32.972 Y-19.893 R2.61
G1 X35.848 Y-19.926
G2 X38.264 Y-20.098 R18.472
G1 X38.455 Y-20.125
G3 X43.541 Y-20.31 R25.444
G1 X43.687 Y-20.301
G3 X44.336 Y-20.248 R19.556
G2 X45.954 Y-20.158 R19.546
G1 X46.568 Y-20.147
G3 X48.242 Y-20.059 R29.207
G1 X48.475 Y-20.04
G2 X48.6 Y-20.031 R6.151
G1 X50.398 Y-19.922
G3 X53.202 Y-17.154 R2.994
G1 X53.33 Y-15.425
G2 X53.34 Y-15.305 R6.057
G1 X53.362 Y-15.073
G3 X53.472 Y-13.367 R29.509
G1 X53.489 Y-12.771
G2 X53.597 Y-11.102 R19.591
G3 X53.654 Y-10.478 R19.601
G1 X53.666 Y-10.325
G3 X53.737 Y-8.967 R29.189
G1 X53.742 Y-8.769
G3 X53.752 Y-8.237 R23.413
G1 X53.846 Y8.169
G3 X53.843 Y8.826 R29.747
G1 X53.84 Y8.975
G3 X53.789 Y10.284 R28.926
G1 X53.781 Y10.428
G3 X53.728 Y11.097 R20.218
G2 X53.64 Y12.698 R20.209
G1 X53.63 Y13.247
G3 X53.538 Y15.072 R32.483
G1 X53.388 Y17.334
G3 X50.59 Y20.176 R3.049
G1 X48.376 Y20.359
G3 X46.869 Y20.458 R24.557
G1 X46.774 Y20.462
G3 X46.224 Y20.472 R18.262
G2 X44.528 Y20.559 R18.251
G1 X44.4 Y20.571
G3 X38.437 Y20.526 R29.196
G1 X38.213 Y20.501
G2 X35.746 Y20.367 R22.214
G1 X32.021 Y20.38
G3 X29.843 Y18.226 R2.169
G1 X29.814 Y14.524
G2 X29.65 Y12.023 R22.96
G1 X29.642 Y11.954
G3 X29.386 Y7.899 R35.557
G1 X29.294 Y-8.038
G3 X29.483 Y-11.814 R33.811
G1 X29.504 Y-12.011
G2 X29.639 Y-14.528 R23.869
G1 X29.63 Y-18.452
G3 X31.796 Y-20.644 R2.185
G1 X35.848 Y-20.684
G2 X38.266 Y-20.84 R20.512
G1 X38.451 Y-20.863
G3 X43.541 Y-21.032 R28.261
G1 X43.687 Y-21.024
G3 X44.336 Y-20.977 R21.7
G2 X45.953 Y-20.896 R21.691
G1 X46.444 Y-20.889
G3 X48.366 Y-20.799 R37.249
G1 X51.082 Y-20.625
G3 X53.904 Y-17.838 R3.021
G1 X54.11 Y-15.144
G3 X54.218 Y-13.296 R35.547
G1 X54.231 Y-12.77
G2 X54.329 Y-11.102 R21.779
G3 X54.38 Y-10.478 R21.788
G1 X54.391 Y-10.325
G3 X54.455 Y-8.967 R32.466
G1 X54.46 Y-8.77
G3 X54.469 Y-8.236 R26.171
G1 X54.56 Y8.285
G3 X54.558 Y8.71 R21.47
G1 X54.554 Y8.976
G3 X54.509 Y10.283 R32.229
G1 X54.501 Y10.428
G3 X54.454 Y11.097 R22.509
G2 X54.376 Y12.697 R22.501
G1 X54.369 Y13.15
G3 X54.278 Y15.17 R40.075
G1 X54.064 Y18.377
G3 X51.632 Y20.844 R2.652
G1 X48.377 Y21.11
G3 X46.869 Y21.199 R27.426
G1 X46.774 Y21.202
G3 X46.224 Y21.212 R20.403
G2 X44.527 Y21.29 R20.393
G1 X44.4 Y21.301
G3 X38.437 Y21.263 R32.607
G1 X38.213 Y21.241
G2 X35.749 Y21.122 R24.777
G1 X30.902 Y21.14
G3 X29.088 Y19.345 R1.807
G1 X29.053 Y14.523
G2 X28.906 Y12.022 R25.693
G1 X28.891 Y11.883
G3 X28.669 Y7.974 R38.358
G1 X28.581 Y-8.029
G3 X28.75 Y-11.825 R38.119
G1 X28.767 Y-12.012
G2 X28.886 Y-14.525 R26.727
G1 X28.871 Y-19.571
G3 X30.677 Y-21.397 R1.819
G1 X35.848 Y-21.442
G2 X38.268 Y-21.582 R23.065
G1 X38.447 Y-21.601
G3 X43.54 Y-21.754 R31.789
G1 X43.687 Y-21.747
G3 X44.336 Y-21.705 R24.389
G2 X45.953 Y-21.634 R24.381
G1 X46.435 Y-21.628
G3 X48.375 Y-21.548 R42.312
G1 X52.027 Y-21.309
G3 X54.584 Y-18.783 R2.744
G1 X54.865 Y-15.145
G3 X54.961 Y-13.296 R40.079
G1 X54.973 Y-12.769
G2 X55.061 Y-11.103 R24.536
G3 X55.107 Y-10.478 R24.544
G1 X55.116 Y-10.325
G3 X55.173 Y-8.968 R36.589
G1 X55.178 Y-8.77
G3 X55.185 Y-8.236 R29.58
G1 X55.273 Y8.357
G3 X55.272 Y8.638 R16.04
G1 X55.268 Y8.976
G3 X55.229 Y10.283 R36.403
G1 X55.222 Y10.428
G3 X55.181 Y11.097 R25.405
G2 X55.112 Y12.696 R25.398
G1 X55.105 Y13.168
G3 X55.028 Y15.152 R44.474
G1 X54.736 Y19.448
G3 X52.703 Y21.509 R2.22
G1 X48.378 Y21.861
G3 X46.869 Y21.94 R31.06
G1 X46.774 Y21.943
G3 X46.224 Y21.952 R23.117
G2 X44.526 Y22.022 R23.108
G1 X44.4 Y22.031
G3 X38.437 Y22. R36.933
G1 X38.213 Y21.981
G2 X35.751 Y21.877 R28.029
G1 X29.847 Y21.9
G3 X28.331 Y20.401 R1.509
G1 X28.293 Y14.522
G2 X28.162 Y12.022 R29.19
G1 X28.152 Y11.918
G3 X27.952 Y7.942 R44.318
G1 X27.866 Y-8.499
X27.87 Y-8.889
G3 X28.001 Y-11.668 R39.544
G1 X28.03 Y-12.012
G2 X28.132 Y-14.524 R30.384
G1 X28.113 Y-20.63
G3 X29.618 Y-22.152 R1.516
G1 X35.848 Y-22.2
G2 X38.269 Y-22.323 R26.351
G1 X38.444 Y-22.34
G3 X43.54 Y-22.476 R36.333
G1 X43.687 Y-22.47
G3 X44.336 Y-22.434 R27.859
G2 X45.952 Y-22.373 R27.852
G1 X46.525 Y-22.366
G3 X48.286 Y-22.304 R43.928
G1 X53.11 Y-21.983
G3 X55.251 Y-19.866 R2.303
G1 X55.623 Y-15.099
G3 X55.704 Y-13.344 R43.609
G1 X55.715 Y-12.768
G2 X55.792 Y-11.103 R28.111
G3 X55.833 Y-10.478 R28.118
G1 X55.841 Y-10.324
G3 X55.891 Y-8.969 R41.933
G1 X55.908 Y-7.114
X55.987 Y8.497
X55.982 Y8.976
G3 X55.949 Y10.283 R41.84
G1 X55.943 Y10.428
G3 X55.907 Y11.097 R29.179
G2 X55.848 Y12.696 R29.173
G1 X55.84 Y13.358
G3 X55.786 Y14.963 R41.356
G1 X55.412 Y20.458
G3 X53.712 Y22.179 R1.856
G1 X48.379 Y22.612
G3 X46.869 Y22.681 R35.813
G1 X46.774 Y22.684
G3 X46.224 Y22.692 R26.669
G2 X44.526 Y22.753 R26.661
G1 X44.4 Y22.761
G3 X38.438 Y22.738 R42.599
G1 X38.212 Y22.721
G2 X35.754 Y22.632 R32.287
G1 X28.838 Y22.661
G3 X27.574 Y21.41 R1.258
G1 X27.533 Y14.522
G2 X27.418 Y12.021 R33.819
G1 X27.39 Y11.673
G3 X27.246 Y8.885 R44.691
G1 X27.156 Y-8.889
G3 X27.267 Y-11.669 R45.943
G1 X27.292 Y-12.013
G2 X27.379 Y-14.521 R35.228
G1 X27.354 Y-21.64
G3 X28.608 Y-22.908 R1.263
G1 X35.848 Y-22.958
G2 X38.27 Y-23.065 R30.739
G1 X38.44 Y-23.079
G3 X43.54 Y-23.199 R42.407
G1 X43.687 Y-23.193
G3 X44.336 Y-23.163 R32.504
G2 X45.952 Y-23.111 R32.498
G1 X46.708 Y-23.104
G3 X48.104 Y-23.062 R40.663
G1 X48.43 Y-23.047
G3 X48.645 Y-23.034 R10.066
G1 X54.133 Y-22.659
G3 X55.922 Y-20.889 R1.927
G1 X56.353 Y-15.477
G3 X56.368 Y-15.255 R9.965
G1 X56.387 Y-14.916
G3 X56.443 Y-13.527 R40.421
G1 X56.457 Y-12.768
G2 X56.524 Y-11.104 R32.929
G3 X56.559 Y-10.478 R32.935
G1 X56.566 Y-10.324
G3 X56.609 Y-8.97 R49.128
G1 X56.654 Y-1.196
X56.697 Y8.976
G3 X56.669 Y10.283 R49.213
G1 X56.664 Y10.429
G3 X56.634 Y11.097 R34.296
G2 X56.585 Y12.695 R34.291
G1 X56.577 Y13.522
G3 X56.541 Y14.799 R38.756
G1 X56.525 Y15.162
G3 X56.51 Y15.425 R10.343
G1 X56.09 Y21.414
G3 X54.669 Y22.854 R1.553
G1 X48.874 Y23.331
G3 X48.625 Y23.348 R10.076
G1 X48.289 Y23.368
G3 X46.959 Y23.42 R37.249
G1 X46.774 Y23.424
G3 X46.224 Y23.431 R31.517
G2 X44.525 Y23.485 R31.51
G1 X44.399 Y23.492
G3 X38.439 Y23.475 R50.337
G1 X38.211 Y23.461
G2 X35.757 Y23.388 R38.1
G1 X27.872 Y23.421
G3 X26.817 Y22.376 R1.051
G1 X26.772 Y14.523
G2 X26.675 Y12.02 R40.23
G1 X26.65 Y11.675
G3 X26.528 Y8.885 R53.114
G1 X26.442 Y-8.889
G3 X26.533 Y-11.669 R54.836
G1 X26.553 Y-12.014
G2 X26.624 Y-14.518 R41.944
G1 X26.594 Y-22.608
G3 X27.64 Y-23.664 R1.052
G1 X35.848 Y-23.716
G2 X38.271 Y-23.806 R36.892
G1 X38.436 Y-23.818
G3 X43.54 Y-23.921 R50.935
G1 X44.336 Y-23.892
G2 X45.952 Y-23.85 R39.032
G1 X46.864 Y-23.843
G3 X47.948 Y-23.817 R37.977
G1 X48.367 Y-23.8
G3 X48.708 Y-23.782 R10.972
G1 X55.101 Y-23.337
G3 X56.597 Y-21.857 R1.613
G1 X57.104 Y-15.54
G3 X57.126 Y-15.192 R10.87
G1 X57.147 Y-14.76
G3 X57.183 Y-13.684 R37.791
G1 X57.199 Y-12.767
G2 X57.255 Y-11.104 R39.77
G1 X57.291 Y-10.324
G3 X57.328 Y-8.971 R59.336
G1 X57.412 Y8.976
G3 X57.39 Y10.283 R59.775
G1 X57.362 Y11.096
G2 X57.322 Y12.695 R41.621
G1 X57.315 Y13.665
G3 X57.293 Y14.656 R36.537
G1 X57.277 Y15.097
G3 X57.256 Y15.489 R11.243
G1 X56.772 Y22.325
G3 X55.58 Y23.531 R1.303
G1 X48.939 Y24.08
G3 X48.56 Y24.105 R10.975
G1 X48.14 Y24.125
G3 X47.109 Y24.159 R35.231
G1 X46.224 Y24.171
G2 X44.525 Y24.216 R38.521
G1 X44.398 Y24.222
G3 X38.443 Y24.213 R61.534
G1 X38.21 Y24.202
G2 X35.76 Y24.144 R46.502
G1 X26.94 Y24.181
G3 X26.059 Y23.308 R0.877
G1 X26.012 Y14.525
G2 X25.931 Y12.019 R49.687
G1 X25.925 Y11.922
G3 X25.802 Y7.946 R75.122
G1 X25.727 Y-8.889
G3 X25.798 Y-11.67 R68.03
G1 X25.814 Y-12.015
G2 X25.87 Y-14.514 R51.865
G1 X25.835 Y-23.539
G3 X26.709 Y-24.421 R0.879
G1 X35.848 Y-24.474
G2 X38.27 Y-24.548 R46.141
G1 X38.431 Y-24.557
G3 X43.541 Y-24.644 R63.779
G1 X44.335 Y-24.621
G2 X45.952 Y-24.589 R48.892
G1 X47. Y-24.583
G3 X47.812 Y-24.568 R35.709
G1 X48.296 Y-24.554
G3 X48.778 Y-24.529 R11.866
G1 X56.026 Y-24.018
G3 X57.275 Y-22.782 R1.348
G1 X57.855 Y-15.612
G3 X57.884 Y-15.121 R11.764
G1 X57.903 Y-14.624
G3 X57.925 Y-13.822 R35.566
G1 X57.941 Y-12.766
G2 X57.987 Y-11.105 R50.24
G1 X58.015 Y-10.324
G3 X58.046 Y-8.972 R74.938
G1 X58.129 Y8.497
X58.125 Y9.63
X58.09 Y11.096
G2 X58.06 Y12.695 R52.98
G1 X58.054 Y13.793
G3 X58.042 Y14.529 R34.609
G1 X58.028 Y15.026
G3 X58.002 Y15.561 R12.133
G1 X57.455 Y23.202
G3 X56.456 Y24.212 R1.092
G1 X49.013 Y24.828
G3 X48.486 Y24.86 R11.862
G1 X48.006 Y24.879
G3 X47.243 Y24.899 R33.456
G1 X46.224 Y24.912
G2 X44.525 Y24.948 R49.554
G1 X44.397 Y24.953
G3 X38.448 Y24.951 R79.172
G1 X38.207 Y24.942
G2 X35.765 Y24.9 R59.704
G1 X26.04 Y24.941
G3 X25.3 Y24.208 R0.737
G1 X25.252 Y14.527
G2 X25.188 Y12.018 R64.937
G1 X25.183 Y11.909
G3 X25.085 Y7.961 R97.24
G1 X25.012 Y-8.89
G3 X25.063 Y-11.669 R89.629
G1 X25.075 Y-12.018
G2 X25.115 Y-14.508 R67.991
G1 X25.076 Y-24.443
G3 X25.805 Y-25.179 R0.733
G1 X35.848 Y-25.231
G2 X38.269 Y-25.29 R61.6
G1 X38.424 Y-25.296
G3 X43.541 Y-25.367 R85.313
G1 X44.335 Y-25.35
G2 X45.952 Y-25.328 R65.469
G1 X47.836 Y-25.314
G3 X49.238 Y-25.258 R37.877
G1 X56.563 Y-24.831
G3 X58.106 Y-23.3 R1.642
G1 X58.57 Y-16.277
G3 X58.671 Y-13.736 R48.032
G1 X58.683 Y-12.765
G2 X58.718 Y-11.106 R68.253
G1 X58.757 Y-9.648
X58.786 Y-4.783
X58.843 Y8.497
X58.841 Y9.63
X58.818 Y11.095
G2 X58.798 Y12.696 R72.934
G1 X58.787 Y14.519
G3 X58.732 Y16.067 R45.966
G1 X58.339 Y23.568
G3 X56.802 Y25.118 R1.638
G1 X49.51 Y25.559
G3 X47.229 Y25.642 R47.227
G1 X46.224 Y25.652
G2 X44.525 Y25.68 R69.462
G1 X44.395 Y25.683
G3 X38.458 Y25.69 R111.045
G1 X38.203 Y25.683
G2 X35.774 Y25.656 R83.448
G1 X25.164 Y25.701
G3 X24.542 Y25.084 R0.62
G1 X24.492 Y14.522
G2 X24.444 Y12.027 R92.97
G1 X24.433 Y11.681
G3 X24.374 Y8.884 R122.7
G1 X24.297 Y-8.89
G3 X24.328 Y-11.667 R131.405
G1 X24.336 Y-12.024
G2 X24.359 Y-14.498 R98.756
G1 X24.316 Y-25.324
G3 X24.925 Y-25.937 R0.611
G1 X35.848 Y-25.989
G2 X38.266 Y-26.031 R92.677
G1 X38.412 Y-26.036
G3 X43.542 Y-26.089 R128.851
G1 X45.143 Y-26.067
X46.934
G3 X49.419 Y-26.02 R71.158
G1 X56.808 Y-25.751
G3 X59.026 Y-23.55 R2.304
G1 X59.348 Y-16.246
G3 X59.415 Y-13.77 R72.507
G1 X59.431 Y-11.936
X59.477 Y-9.648
X59.559 Y9.63
X59.535 Y11.895
X59.536 Y13.78
G3 X59.5 Y16.085 R77.063
G1 X59.268 Y23.735
G3 X56.977 Y26.045 R2.384
G1 X49.526 Y26.33
G3 X47.221 Y26.385 R78.475
G1 X45.374 Y26.396
X44.063 Y26.42
G3 X41.199 Y26.448 R163.673
G1 X39.375 Y26.44
X37. Y26.408
X24.303 Y26.461
G3 X23.782 Y25.945 R0.519
G1 X23.726 Y13.248
X23.661 Y9.685
X23.58 Y-9.687
X23.608 Y-13.249
X23.557 Y-26.177
G3 X24.071 Y-26.696 R0.516
G1 X36.941 Y-26.752
X40.843 Y-26.807
X44.012 Y-26.811
X48.538 Y-26.804
X57.094 Y-26.679
G3 X59.951 Y-23.845 R2.9
G1 X60.144 Y-15.367
X60.205 Y-8.276
X60.276 Y9.63
Y15.294
X60.2 Y24.255
G3 X58.022 Y26.902 R2.725
X57.378 Y26.972 R3.502
G1 X48.75 Y27.115
X40.563 Y27.167
X35.812 Y27.17
X23.263 Y27.222
G3 X23.024 Y26.985 R0.238
G1 X22.957 Y12.06
X22.877 Y-5.978
X22.796 Y-27.338
G3 X22.91 Y-27.453 R0.115
G1 X34.576 Y-27.5
X57.589
X58.067 Y-27.482
X58.081 Y-27.479
X59.116 Y-27.166
X59.143 Y-27.15
X59.976 Y-26.506
X60.537 Y-25.594
X60.551 Y-25.561
X60.745 Y-24.518
X60.75 Y-7.117
Y24.355
X60.73 Y24.824
X60.728 Y24.839
X60.422 Y25.853
X60.41 Y25.878
X59.753 Y26.729
X58.839 Y27.29
X58.806 Y27.303
X57.752 Y27.497
X22.748 Y27.5
Y-27.5
X34.576
G3 X34.667 Y-27.486 Z-2.985 R0.3
X34.742 Y-27.45 Z-2.943 R0.3
X34.793 Y-27.407 Z-2.876 R0.3
X34.82 Y-27.374 Z-2.793 R0.3
X34.828 Y-27.362 Z-2.7 R0.3
G0 Z11.
X52.353 Y-7.386
G1 Z-1.555 F200.
G3 X52.371 Y-7.381 Z-1.657 R0.75 F720.
X52.42 Y-7.363 Z-1.747 R0.75
X52.492 Y-7.329 Z-1.814 R0.75
X52.575 Y-7.278 Z-1.85 R0.75
X51.704 Y-6.057 Z-2.265 R0.75
X52.575 Y-7.278 Z-2.681 R0.75
X51.704 Y-6.057 Z-3.096 R0.75
X52.575 Y-7.278 Z-3.512 R0.75
X51.704 Y-6.057 Z-3.927 R0.75
X52.575 Y-7.278 Z-4.343 R0.75
X51.704 Y-6.057 Z-4.758 R0.75
X52.575 Y-7.278 Z-5.174 R0.75
X51.704 Y-6.057 Z-5.589 R0.75
X52.575 Y-7.278 Z-6.005 R0.75
X51.704 Y-6.057 Z-6.42 R0.75
X52.575 Y-7.278 Z-6.836 R0.75
X51.704 Y-6.057 Z-7.251 R0.75
X52.575 Y-7.278 Z-7.666 R0.75
X51.704 Y-6.057 Z-8.082 R0.75
X52.575 Y-7.278 Z-8.497 R0.75
X51.704 Y-6.057 Z-8.913 R0.75
X52.575 Y-7.278 Z-9.328 R0.75
X51.704 Y-6.057 Z-9.744 R0.75
X51.726 Y-7.293 Z-10. R0.75
G1 X51.885 Y-7.398
X52.245 Y-7.47
X52.615 Y-7.397
X52.935 Y-7.186
X53.149 Y-6.861
X53.221 Y-6.5
X53.147 Y-6.129
X52.936 Y-5.814
X52.631 Y-5.609
X52.242 Y-5.531
X51.885 Y-5.602
X51.563 Y-5.815
X51.356 Y-6.124
X51.34 Y-6.195
X51.279 Y-6.5
X51.353 Y-6.871
X51.563 Y-7.185
X51.726 Y-7.293
G3 X51.81 Y-7.331 Z-9.985 R0.3
X51.892 Y-7.343 Z-9.943 R0.3
X51.958 Y-7.335 Z-9.876 R0.3
X51.999 Y-7.323 Z-9.793 R0.3
X52.012 Y-7.317 Z-9.7 R0.3
G0 Z11.
X53.108 Y-0.241
G1 Z-1.555 F200.
G3 X53.109 Y-0.223 Z-1.657 R0.75 F720.
X53.111 Y-0.171 Z-1.747 R0.75
X53.108 Y-0.091 Z-1.814 R0.75
X53.092 Y0.005 Z-1.85 R0.75
X51.631 Y-0.336 Z-2.265 R0.75
X53.092 Y0.005 Z-2.681 R0.75
X51.631 Y-0.336 Z-3.096 R0.75
X53.092 Y0.005 Z-3.512 R0.75
X51.631 Y-0.336 Z-3.927 R0.75
X53.092 Y0.005 Z-4.343 R0.75
X51.631 Y-0.336 Z-4.758 R0.75
X53.092 Y0.005 Z-5.174 R0.75
X51.631 Y-0.336 Z-5.589 R0.75
X53.092 Y0.005 Z-6.005 R0.75
X51.631 Y-0.336 Z-6.42 R0.75
X53.092 Y0.005 Z-6.836 R0.75
X51.631 Y-0.336 Z-7.251 R0.75
X53.092 Y0.005 Z-7.666 R0.75
X51.631 Y-0.336 Z-8.082 R0.75
X53.092 Y0.005 Z-8.497 R0.75
X51.631 Y-0.336 Z-8.913 R0.75
X53.092 Y0.005 Z-9.328 R0.75
X51.631 Y-0.336 Z-9.744 R0.75
X52.783 Y-0.786 Z-10. R0.75
G1 X52.942 Y-0.678
X53.147 Y-0.371
X53.184 Y-0.185
X53.221 Y0.
X53.147 Y0.371
X52.942 Y0.678
X52.62 Y0.896
X52.245 Y0.97
X51.885 Y0.898
X51.563 Y0.685
X51.353 Y0.371
X51.279 Y0.
X51.353 Y-0.371
X51.563 Y-0.686
X51.885 Y-0.898
X52.245 Y-0.97
X52.62 Y-0.896
X52.783 Y-0.786
G3 X52.85 Y-0.723 Z-9.985 R0.3
X52.892 Y-0.651 Z-9.943 R0.3
X52.91 Y-0.587 Z-9.876 R0.3
X52.914 Y-0.545 Z-9.793 R0.3
Y-0.53 Z-9.7 R0.3
G0 Z11.
X52.948 Y5.947
G1 Z-1.555 F200.
G3 X52.956 Y5.963 Z-1.657 R0.75 F720.
X52.979 Y6.011 Z-1.747 R0.75
X53.006 Y6.085 Z-1.814 R0.75
X53.029 Y6.181 Z-1.85 R0.75
X51.549 Y6.43 Z-2.265 R0.75
X53.029 Y6.181 Z-2.681 R0.75
X51.549 Y6.43 Z-3.096 R0.75
X53.029 Y6.181 Z-3.512 R0.75
X51.549 Y6.43 Z-3.927 R0.75
X53.029 Y6.181 Z-4.343 R0.75
X51.549 Y6.43 Z-4.758 R0.75
X53.029 Y6.181 Z-5.174 R0.75
X51.549 Y6.43 Z-5.589 R0.75
X53.029 Y6.181 Z-6.005 R0.75
X51.549 Y6.43 Z-6.42 R0.75
X53.029 Y6.181 Z-6.836 R0.75
X51.549 Y6.43 Z-7.251 R0.75
X53.029 Y6.181 Z-7.666 R0.75
X51.549 Y6.43 Z-8.082 R0.75
X53.029 Y6.181 Z-8.497 R0.75
X51.549 Y6.43 Z-8.913 R0.75
X53.029 Y6.181 Z-9.328 R0.75
X51.549 Y6.43 Z-9.744 R0.75
X52.438 Y5.57 Z-10. R0.75
G1 X52.631 Y5.609
X52.936 Y5.814
X53.144 Y6.124
X53.16 Y6.195
X53.221 Y6.5
X53.149 Y6.861
X53.046 Y7.017
X52.935 Y7.186
X52.615 Y7.397
X52.245 Y7.47
X51.885 Y7.398
X51.563 Y7.185
X51.353 Y6.869
X51.279 Y6.5
X51.353 Y6.129
X51.563 Y5.815
X51.885 Y5.602
X52.242 Y5.531
X52.438 Y5.57
G3 X52.524 Y5.602 Z-9.985 R0.3
X52.591 Y5.653 Z-9.943 R0.3
X52.632 Y5.705 Z-9.876 R0.3
X52.652 Y5.742 Z-9.793 R0.3
X52.658 Y5.756 Z-9.7 R0.3
G0 Z11.

M9
M30
