(_BK12_2)
(T1  D=3. CR=0. - ZMIN=-0.2 - FLAT END MILL)
G90 G94 G91.1 G40 G49 G17
G21

(2D CONTOUR1)
M5
M9
T1
S10000 M3
G54
M8
G0 X-60.3 Y29.9
G43 Z10. H1
Z5.
G1 Z1. F200.
Z0.1
G19 G2 Y29.6 Z-0.2 R0.3
G1 Y29.3 F720.
G17 G3 X-60. Y29. R0.3
G1 X60.
G2 X61.5 Y27.5 R1.5
G1 Y-27.5
G2 X60. Y-29. R1.5
G1 X-60.
G2 X-61.5 Y-27.5 R1.5
G1 Y27.5
G2 X-60. Y29. R1.5
G3 X-59.7 Y29.3 R0.3
G1 Y29.6
G19 G3 Y29.9 Z0.1 R0.3
G0 Z10.
G17

M9
M30
