(__2_1_2)
(T1  D=3. CR=0. - ZMIN=-10. - FLAT END MILL)
G90 G94 G91.1 G40 G49 G17
G21

(2D ADAPTIVE1)
M5
M9
T1
S10000 M3
G54
M8
G0 X-58.488 Y29.134
G43 Z10. H1
Z5.
Z0.845
G1 Z0.545 F720.
G3 X-59.012 Y29.866 Z0.296 R0.45
X-58.488 Y29.134 Z0.046 R0.45
X-59.012 Y29.866 Z-0.203 R0.45
X-58.488 Y29.134 Z-0.452 R0.45
X-59.012 Y29.866 Z-0.701 R0.45
X-58.488 Y29.134 Z-0.951 R0.45
X-59.012 Y29.866 Z-1.2 R0.45
X-58.488 Y29.134 Z-1.449 R0.45
X-59.012 Y29.866 Z-1.698 R0.45
X-58.488 Y29.134 Z-1.948 R0.45
X-59.012 Y29.866 Z-2.197 R0.45
X-58.488 Y29.134 Z-2.446 R0.45
X-59.012 Y29.866 Z-2.696 R0.45
X-58.488 Y29.134 Z-2.945 R0.45
X-59.012 Y29.866 Z-3.194 R0.45
X-58.488 Y29.134 Z-3.443 R0.45
X-59.012 Y29.866 Z-3.693 R0.45
X-58.488 Y29.134 Z-3.942 R0.45
X-59.012 Y29.866 Z-4.191 R0.45
X-58.488 Y29.134 Z-4.441 R0.45
X-59.012 Y29.866 Z-4.69 R0.45
X-58.488 Y29.134 Z-4.939 R0.45
X-59.012 Y29.866 Z-5.188 R0.45
X-58.488 Y29.134 Z-5.438 R0.45
X-59.012 Y29.866 Z-5.687 R0.45
X-58.488 Y29.134 Z-5.936 R0.45
X-59.012 Y29.866 Z-6.185 R0.45
X-58.488 Y29.134 Z-6.435 R0.45
X-59.012 Y29.866 Z-6.684 R0.45
X-58.488 Y29.134 Z-6.933 R0.45
X-59.012 Y29.866 Z-7.183 R0.45
X-58.488 Y29.134 Z-7.432 R0.45
X-59.012 Y29.866 Z-7.681 R0.45
X-58.488 Y29.134 Z-7.93 R0.45
X-59.012 Y29.866 Z-8.18 R0.45
X-58.488 Y29.134 Z-8.429 R0.45
X-59.012 Y29.866 Z-8.678 R0.45
X-58.488 Y29.134 Z-8.928 R0.45
X-59.012 Y29.866 Z-9.177 R0.45
X-58.488 Y29.134 Z-9.426 R0.45
X-59.012 Y29.866 Z-9.675 R0.45
X-58.488 Y29.134 Z-9.925 R0.45
X-58.3 Y29.5 Z-10. R0.45
X-59.2 R0.45
X-58.3 R0.45
G1 X-58.271 Y29.815
X-58.295 Y29.907
X-58.363 Y29.975
X-58.455 Y30.
X-58.995 Y29.963
X-59.17 Y29.937
X-59.302 Y29.91
X-59.415 Y29.836
X-59.507 Y29.688
X-59.545 Y29.519
X-59.524 Y29.346
X-59.446 Y29.19
X-59.321 Y29.07
X-59.163 Y28.997
X-58.99 Y28.982
X-58.726 Y28.995
X-58.417 Y29.
X-58.282 Y29.007
X-58.157 Y29.059
X-58.026 Y29.191
X-57.951 Y29.361
X-57.94 Y29.547
X-57.996 Y29.724
X-58.11 Y29.87
X-58.27 Y29.967
X-58.453 Y30.
X-58.57 Y29.99
X-59.053 Y29.947
X-59.17 Y29.937
X-59.506 Y29.886
X-59.639 Y29.859
X-59.751 Y29.785
X-59.841 Y29.684
X-59.895 Y29.507
X-59.883 Y29.323
X-59.806 Y29.155
X-59.674 Y29.026
X-59.505 Y28.952
X-59.32 Y28.943
X-58.99 Y28.982
G3 X-58.779 Y29.21 R0.239
X-59.506 Y29.886 R0.653
G1 X-59.843 Y29.835
X-59.976 Y29.809
X-60.091 Y29.738
X-60.183 Y29.639
X-60.24 Y29.476
X-60.239 Y29.302
X-60.181 Y29.139
X-60.073 Y29.004
X-59.926 Y28.913
X-59.757 Y28.875
X-59.585 Y28.895
G3 X-59.397 Y29.282 R0.3
G1 X-59.527 Y29.64
G3 X-59.843 Y29.835 R0.3
G1 X-59.991 Y29.81
X-60.28 Y29.686
X-60.401 Y29.627
X-60.497 Y29.531
X-60.564 Y29.414
X-60.582 Y29.218
X-60.525 Y29.029
X-60.403 Y28.874
X-60.231 Y28.776
X-60.036 Y28.749
X-59.844 Y28.797
G3 X-59.718 Y29.211 R0.3
G1 X-59.909 Y29.554
G3 X-60.28 Y29.686 R0.3
G1 X-60.641 Y29.531
X-60.762 Y29.471
X-60.85 Y29.368
X-60.909 Y29.247
X-60.916 Y29.05
X-60.851 Y28.864
X-60.722 Y28.715
X-60.549 Y28.622
X-60.353 Y28.599
X-60.162 Y28.649
X-59.844 Y28.797
G3 X-59.721 Y29.086 R0.244
X-60.641 Y29.531 R0.697
G1 X-60.958 Y29.394
X-60.977 Y29.385
X-61.014 Y29.369
X-61.113 Y29.303
X-61.112 Y29.304
X-61.014 Y29.369
X-61.127 Y29.292
X-61.229 Y29.203
X-61.264 Y29.018
X-61.236 Y28.831
X-61.147 Y28.664
X-61.007 Y28.536
X-60.833 Y28.463
X-60.645 Y28.452
X-60.463 Y28.504
X-60.162 Y28.649
G3 X-60.038 Y29.004 R0.274
X-61.127 Y29.292 R0.725
G1 X-61.351 Y29.116
X-61.452 Y29.027
X-61.518 Y28.91
X-61.53 Y28.738
X-61.483 Y28.571
X-61.384 Y28.43
X-61.243 Y28.33
X-61.077 Y28.283
X-60.905 Y28.293
X-60.746 Y28.36
G3 X-60.704 Y28.396 R0.242
X-61.351 Y29.116 R0.486
G1 X-61.626 Y28.9
X-61.728 Y28.811
X-61.788 Y28.69
X-61.816 Y28.558
X-61.776 Y28.375
X-61.67 Y28.219
X-61.515 Y28.112
X-61.332 Y28.07
X-61.146 Y28.099
X-60.983 Y28.193
G3 Y28.632 R0.3
G1 X-61.243 Y28.876
G3 X-61.626 Y28.9 R0.3
G1 X-61.914 Y28.671
X-61.937 Y28.652
X-61.955 Y28.636
X-62.035 Y28.527
X-62.08 Y28.398
X-62.059 Y28.21
X-61.974 Y28.042
X-61.835 Y27.915
X-61.66 Y27.844
X-61.472 Y27.839
X-61.294 Y27.9
X-61.148 Y28.019
X-60.983 Y28.193
G3 X-60.959 Y28.513 R0.237
X-61.955 Y28.636 R0.713
G1 X-62.185 Y28.336
X-62.26 Y28.225
X-62.295 Y28.094
X-62.296 Y27.959
X-62.215 Y27.781
X-62.075 Y27.643
X-61.894 Y27.566
X-61.698 Y27.56
X-61.514 Y27.626
X-61.365 Y27.754
X-61.148 Y28.019
G3 Y28.331 R0.251
X-62.185 Y28.336 R0.664
G1 X-62.408 Y28.04
X-62.484 Y27.929
X-62.516 Y27.797
X-62.513 Y27.662
X-62.43 Y27.488
X-62.291 Y27.355
X-62.112 Y27.282
X-61.92 Y27.277
X-61.738 Y27.342
X-61.592 Y27.469
X-61.365 Y27.754
G3 X-61.38 Y28.067 R0.248
X-62.408 Y28.04 R0.676
G1 X-62.628 Y27.748
X-62.647 Y27.72
X-62.661 Y27.692
X-62.707 Y27.565
X-62.721 Y27.431
X-62.663 Y27.265
X-62.554 Y27.128
X-62.404 Y27.036
X-62.233 Y26.998
X-62.058 Y27.02
X-61.901 Y27.099
X-61.78 Y27.226
G3 X-61.751 Y27.286 R0.263
X-62.681 Y27.643 R0.499
G1 X-62.811 Y27.327
X-62.855 Y27.2
X-62.854 Y27.065
X-62.778 Y26.911
X-62.655 Y26.791
X-62.499 Y26.72
X-62.328 Y26.705
X-62.161 Y26.748
X-62.019 Y26.844
X-61.918 Y26.982
G3 X-61.901 Y27.034 R0.239
X-61.892 Y27.097 R0.481
X-62.75 Y27.428 R0.481
X-62.811 Y27.327 R0.481
G1 X-62.934 Y27.025
X-62.979 Y26.898
Y26.763
X-62.942 Y26.633
X-62.832 Y26.499
X-62.683 Y26.41
X-62.514 Y26.374
X-62.342 Y26.395
X-62.187 Y26.472
X-62.065 Y26.595
X-61.991 Y26.752
G3 X-62.221 Y27.117 R0.3
G1 X-62.6 Y27.196
G3 X-62.934 Y27.025 R0.3
G1 X-63.08 Y26.658
X-63.089 Y26.628
X-63.103 Y26.494
X-63.083 Y26.36
X-63.029 Y26.237
X-62.88 Y26.101
X-62.692 Y26.029
X-62.491 Y26.031
X-62.304 Y26.108
X-62.159 Y26.248
X-62.076 Y26.431
X-61.991 Y26.752
G3 X-62.13 Y27.039 R0.25
X-63.089 Y26.628 R0.707
G1 X-63.144 Y26.218
X-63.155 Y26.083
X-63.123 Y25.952
X-63.008 Y25.814
X-62.854 Y25.723
X-62.677 Y25.689
X-62.5 Y25.715
X-62.342 Y25.8
X-62.221 Y25.933
X-62.152 Y26.098
X-62.076 Y26.431
G3 X-62.223 Y26.715 R0.255
X-63.115 Y26.332 R0.662
X-63.144 Y26.218 R0.662
G1 X-63.192 Y25.848
X-63.203 Y25.713
X-63.159 Y25.586
X-63.041 Y25.458
X-62.888 Y25.377
X-62.716 Y25.352
X-62.546 Y25.385
X-62.396 Y25.473
X-62.284 Y25.606
X-62.223 Y25.768
X-62.152 Y26.098
G3 X-62.318 Y26.379 R0.246
X-63.192 Y25.848 R0.674
G1 X-63.228 Y25.512
X-63.234 Y25.377
X-63.192 Y25.249
X-63.118 Y25.136
X-62.951 Y25.031
X-62.756 Y24.997
X-62.562 Y25.037
X-62.398 Y25.147
X-62.286 Y25.31
X-62.243 Y25.503
G3 X-62.564 Y25.8 R0.3
G1 X-62.951 Y25.773
G3 X-63.228 Y25.512 R0.3
G1 X-63.25 Y25.216
Y25.109
X-63.243 Y24.974
X-63.189 Y24.85
X-63.05 Y24.729
X-62.877 Y24.663
X-62.692 Y24.661
X-62.518 Y24.723
X-62.375 Y24.841
X-62.282 Y25.001
X-62.25 Y25.183
X-62.243 Y25.503
G3 X-62.441 Y25.744 R0.248
X-63.25 Y25.109 R0.673
G1 Y24.772
X-63.243 Y24.637
X-63.191 Y24.513
X-63.108 Y24.406
X-62.933 Y24.317
X-62.737 Y24.297
X-62.548 Y24.349
X-62.39 Y24.467
X-62.286 Y24.634
X-62.25 Y24.827
Y25.183
G3 X-62.454 Y25.417 R0.247
X-63.25 Y24.772 R0.679
G1 Y24.409
X-63.243 Y24.274
X-63.189 Y24.151
X-63.105 Y24.045
X-62.93 Y23.956
X-62.735 Y23.937
X-62.547 Y23.989
X-62.39 Y24.107
X-62.286 Y24.273
X-62.25 Y24.466
Y24.827
G3 X-62.458 Y25.062 R0.247
X-63.25 Y24.409 R0.685
G1 Y24.033
X-63.243 Y23.898
X-63.185 Y23.776
X-63.097 Y23.674
X-62.923 Y23.589
X-62.729 Y23.572
X-62.542 Y23.627
X-62.387 Y23.745
X-62.286 Y23.91
X-62.25 Y24.101
Y24.466
G3 X-62.466 Y24.701 R0.246
X-63.236 Y24.15 R0.698
X-63.25 Y24.033 R0.698
G1 Y23.663
X-63.243 Y23.528
X-63.183 Y23.407
X-63.095 Y23.305
X-62.92 Y23.221
X-62.727 Y23.206
X-62.541 Y23.262
X-62.387 Y23.38
X-62.285 Y23.545
X-62.25 Y23.736
Y24.101
G3 X-62.469 Y24.338 R0.246
X-63.236 Y23.78 R0.704
X-63.25 Y23.663 R0.704
G1 Y23.293
X-63.243 Y23.158
X-63.182 Y23.037
X-63.093 Y22.936
X-62.918 Y22.854
X-62.725 Y22.839
X-62.539 Y22.895
X-62.386 Y23.013
X-62.285 Y23.179
X-62.25 Y23.369
Y23.736
G3 X-62.471 Y23.972 R0.246
X-63.25 Y23.293 R0.708
G1 Y22.93
X-63.243 Y22.795
X-63.183 Y22.674
X-63.095 Y22.572
X-62.92 Y22.489
X-62.726 Y22.474
X-62.54 Y22.529
X-62.387 Y22.647
X-62.285 Y22.813
X-62.25 Y23.003
Y23.369
G3 X-62.469 Y23.605 R0.246
X-63.25 Y22.93 R0.704
G1 Y22.587
X-63.243 Y22.452
X-63.189 Y22.328
X-63.106 Y22.222
X-62.931 Y22.133
X-62.736 Y22.114
X-62.547 Y22.166
X-62.39 Y22.284
X-62.286 Y22.45
X-62.25 Y22.643
Y23.003
G3 X-62.457 Y23.238 R0.247
X-63.25 Y22.587 R0.684
G1 Y22.217
X-63.243 Y22.082
X-63.186 Y21.96
X-63.1 Y21.855
X-62.926 Y21.769
X-62.731 Y21.751
X-62.544 Y21.805
X-62.388 Y21.923
X-62.286 Y22.088
X-62.25 Y22.28
Y22.643
G3 X-62.462 Y22.879 R0.246
X-63.25 Y22.217 R0.693
G1 Y21.854
X-63.243 Y21.719
X-63.186 Y21.597
X-63.1 Y21.493
X-62.926 Y21.406
X-62.731 Y21.389
X-62.544 Y21.442
X-62.388 Y21.56
X-62.286 Y21.726
X-62.25 Y21.918
Y22.28
G3 X-62.462 Y22.516 R0.246
X-63.25 Y21.854 R0.692
G1 Y21.478
X-63.243 Y21.343
X-63.183 Y21.222
X-63.094 Y21.12
X-62.919 Y21.037
X-62.726 Y21.022
X-62.54 Y21.078
X-62.386 Y21.196
X-62.285 Y21.361
X-62.25 Y21.552
Y21.918
G3 X-62.47 Y22.154 R0.246
X-63.25 Y21.478 R0.705
G1 Y21.141
X-63.243 Y21.006
X-63.191 Y20.882
X-63.108 Y20.775
X-62.934 Y20.684
X-62.738 Y20.664
X-62.548 Y20.716
X-62.391 Y20.833
X-62.286 Y21.
X-62.25 Y21.193
Y21.552
G3 X-62.454 Y21.786 R0.247
X-63.25 Y21.141 R0.679
G1 Y20.778
X-63.243 Y20.643
X-63.189 Y20.52
X-63.106 Y20.414
X-62.931 Y20.324
X-62.736 Y20.304
X-62.547 Y20.356
X-62.39 Y20.474
X-62.286 Y20.64
X-62.25 Y20.833
Y21.193
G3 X-62.456 Y21.428 R0.247
X-63.25 Y20.778 R0.683
G1 Y20.402
X-63.243 Y20.267
X-63.185 Y20.145
X-63.098 Y20.042
X-62.923 Y19.957
X-62.729 Y19.94
X-62.543 Y19.994
X-62.388 Y20.112
X-62.286 Y20.278
X-62.25 Y20.469
Y20.833
G3 X-62.465 Y21.069 R0.246
X-63.25 Y20.402 R0.697
G1 Y20.032
X-63.243 Y19.897
X-63.184 Y19.776
X-63.096 Y19.674
X-62.92 Y19.59
X-62.727 Y19.575
X-62.541 Y19.63
X-62.387 Y19.748
X-62.285 Y19.913
X-62.25 Y20.104
Y20.469
G3 X-62.468 Y20.705 R0.246
X-63.25 Y20.032 R0.703
G1 Y19.662
X-63.243 Y19.527
X-63.182 Y19.406
X-63.094 Y19.305
X-62.918 Y19.222
X-62.725 Y19.208
X-62.54 Y19.263
X-62.386 Y19.382
X-62.285 Y19.547
X-62.25 Y19.737
Y20.104
G3 X-62.471 Y20.34 R0.246
X-63.25 Y19.662 R0.707
G1 Y19.299
X-63.243 Y19.164
X-63.183 Y19.043
X-63.095 Y18.941
X-62.92 Y18.857
X-62.727 Y18.842
X-62.541 Y18.897
X-62.387 Y19.016
X-62.285 Y19.181
X-62.25 Y19.372
Y19.737
G3 X-62.469 Y19.974 R0.246
X-63.25 Y19.299 R0.704
G1 Y18.956
X-63.243 Y18.821
X-63.189 Y18.697
X-63.106 Y18.591
X-62.931 Y18.502
X-62.736 Y18.482
X-62.547 Y18.535
X-62.39 Y18.653
X-62.286 Y18.819
X-62.25 Y19.012
Y19.372
G3 X-62.457 Y19.607 R0.247
X-63.25 Y18.956 R0.683
G1 Y18.586
X-63.243 Y18.451
X-63.187 Y18.328
X-63.101 Y18.224
X-62.926 Y18.138
X-62.732 Y18.12
X-62.544 Y18.174
X-62.388 Y18.291
X-62.286 Y18.457
X-62.25 Y18.649
Y19.012
G3 X-62.462 Y19.247 R0.246
X-63.25 Y18.586 R0.692
G1 Y18.223
X-63.243 Y18.088
X-63.186 Y17.966
X-63.101 Y17.862
X-62.926 Y17.775
X-62.731 Y17.757
X-62.544 Y17.811
X-62.388 Y17.929
X-62.286 Y18.095
X-62.25 Y18.286
Y18.649
G3 X-62.462 Y18.884 R0.246
X-63.25 Y18.223 R0.692
G1 Y17.847
X-63.243 Y17.712
X-63.183 Y17.591
X-63.095 Y17.489
X-62.919 Y17.406
X-62.726 Y17.391
X-62.54 Y17.446
X-62.387 Y17.565
X-62.285 Y17.73
X-62.25 Y17.921
Y18.286
G3 X-62.47 Y18.523 R0.246
X-63.25 Y17.847 R0.705
G1 Y17.51
X-63.243 Y17.375
X-63.191 Y17.251
X-63.108 Y17.144
X-62.934 Y17.053
X-62.738 Y17.033
X-62.548 Y17.085
X-62.391 Y17.202
X-62.286 Y17.369
X-62.25 Y17.562
Y17.921
G3 X-62.454 Y18.155 R0.247
X-63.236 Y17.627 R0.679
X-63.25 Y17.51 R0.679
G1 Y17.147
X-63.243 Y17.012
X-63.189 Y16.889
X-63.106 Y16.783
X-62.931 Y16.693
X-62.736 Y16.673
X-62.547 Y16.725
X-62.39 Y16.843
X-62.286 Y17.009
X-62.25 Y17.202
Y17.562
G3 X-62.456 Y17.797 R0.247
X-63.236 Y17.264 R0.683
X-63.25 Y17.147 R0.683
G1 Y16.771
X-63.243 Y16.636
X-63.185 Y16.514
X-63.098 Y16.411
X-62.923 Y16.326
X-62.729 Y16.309
X-62.543 Y16.363
X-62.388 Y16.481
X-62.286 Y16.647
X-62.25 Y16.838
Y17.202
G3 X-62.465 Y17.437 R0.246
X-63.236 Y16.888 R0.697
X-63.25 Y16.771 R0.697
G1 Y16.401
X-63.243 Y16.266
X-63.184 Y16.145
X-63.096 Y16.042
X-62.92 Y15.959
X-62.727 Y15.943
X-62.541 Y15.998
X-62.387 Y16.117
X-62.285 Y16.282
X-62.25 Y16.473
Y16.838
G3 X-62.468 Y17.074 R0.246
X-63.25 Y16.401 R0.702
G1 Y16.031
X-63.243 Y15.896
X-63.182 Y15.775
X-63.094 Y15.674
X-62.918 Y15.591
X-62.725 Y15.577
X-62.54 Y15.632
X-62.386 Y15.751
X-62.285 Y15.916
X-62.25 Y16.106
Y16.473
G3 X-62.471 Y16.709 R0.246
X-63.25 Y16.031 R0.707
G1 Y15.668
X-63.243 Y15.533
X-63.183 Y15.412
X-63.095 Y15.31
X-62.92 Y15.226
X-62.727 Y15.211
X-62.541 Y15.266
X-62.387 Y15.384
X-62.285 Y15.55
X-62.25 Y15.741
Y16.106
G3 X-62.469 Y16.343 R0.246
X-63.236 Y15.785 R0.704
X-63.25 Y15.668 R0.704
G1 Y15.325
X-63.243 Y15.19
X-63.189 Y15.066
X-63.106 Y14.96
X-62.931 Y14.871
X-62.736 Y14.851
X-62.547 Y14.904
X-62.39 Y15.021
X-62.286 Y15.188
X-62.25 Y15.381
Y15.741
G3 X-62.457 Y15.975 R0.247
X-63.25 Y15.325 R0.683
G1 Y14.955
X-63.243 Y14.82
X-63.187 Y14.697
X-63.101 Y14.593
X-62.926 Y14.507
X-62.732 Y14.489
X-62.544 Y14.543
X-62.388 Y14.66
X-62.286 Y14.826
X-62.25 Y15.018
Y15.381
G3 X-62.462 Y15.616 R0.246
X-63.25 Y14.955 R0.692
G1 Y14.592
X-63.243 Y14.457
X-63.186 Y14.335
X-63.101 Y14.231
X-62.926 Y14.144
X-62.731 Y14.126
X-62.544 Y14.18
X-62.388 Y14.298
X-62.286 Y14.464
X-62.25 Y14.655
Y15.018
G3 X-62.462 Y15.253 R0.246
X-63.25 Y14.592 R0.692
G1 Y14.216
X-63.243 Y14.081
X-63.183 Y13.96
X-63.095 Y13.858
X-62.919 Y13.775
X-62.726 Y13.76
X-62.54 Y13.815
X-62.387 Y13.934
X-62.285 Y14.099
X-62.25 Y14.29
Y14.655
G3 X-62.47 Y14.892 R0.246
X-63.25 Y14.216 R0.705
G1 Y13.879
X-63.243 Y13.744
X-63.191 Y13.62
X-63.108 Y13.513
X-62.934 Y13.422
X-62.738 Y13.402
X-62.548 Y13.454
X-62.391 Y13.571
X-62.286 Y13.738
X-62.25 Y13.931
Y14.29
G3 X-62.454 Y14.524 R0.247
X-63.236 Y13.996 R0.679
X-63.25 Y13.879 R0.679
G1 Y13.516
X-63.243 Y13.381
X-63.189 Y13.257
X-63.106 Y13.152
X-62.931 Y13.062
X-62.736 Y13.042
X-62.547 Y13.094
X-62.39 Y13.212
X-62.286 Y13.378
X-62.25 Y13.571
Y13.931
G3 X-62.456 Y14.166 R0.247
X-63.236 Y13.633 R0.683
X-63.25 Y13.516 R0.683
G1 Y13.14
X-63.243 Y13.005
X-63.185 Y12.883
X-63.098 Y12.78
X-62.923 Y12.695
X-62.729 Y12.678
X-62.543 Y12.732
X-62.388 Y12.85
X-62.286 Y13.016
X-62.25 Y13.207
Y13.571
G3 X-62.465 Y13.806 R0.246
X-63.236 Y13.257 R0.697
X-63.25 Y13.14 R0.697
G1 Y12.77
X-63.243 Y12.635
X-63.184 Y12.514
X-63.096 Y12.411
X-62.92 Y12.328
X-62.727 Y12.312
X-62.541 Y12.367
X-62.387 Y12.486
X-62.285 Y12.651
X-62.25 Y12.842
Y13.207
G3 X-62.468 Y13.443 R0.246
X-63.25 Y12.77 R0.702
G1 Y12.4
X-63.243 Y12.265
X-63.182 Y12.144
X-63.094 Y12.043
X-62.918 Y11.96
X-62.725 Y11.946
X-62.54 Y12.001
X-62.386 Y12.12
X-62.285 Y12.285
X-62.25 Y12.475
Y12.842
G3 X-62.471 Y13.078 R0.246
X-63.25 Y12.4 R0.707
G1 Y12.037
X-63.243 Y11.902
X-63.183 Y11.781
X-63.095 Y11.679
X-62.92 Y11.595
X-62.727 Y11.58
X-62.541 Y11.635
X-62.387 Y11.753
X-62.285 Y11.919
X-62.25 Y12.11
Y12.475
G3 X-62.469 Y12.712 R0.246
X-63.236 Y12.154 R0.704
X-63.25 Y12.037 R0.704
G1 Y11.694
X-63.243 Y11.559
X-63.189 Y11.435
X-63.106 Y11.329
X-62.931 Y11.24
X-62.736 Y11.22
X-62.547 Y11.273
X-62.39 Y11.39
X-62.286 Y11.557
X-62.25 Y11.75
Y12.11
G3 X-62.457 Y12.344 R0.247
X-63.25 Y11.694 R0.683
G1 Y11.324
X-63.243 Y11.189
X-63.187 Y11.066
X-63.101 Y10.962
X-62.926 Y10.876
X-62.732 Y10.858
X-62.544 Y10.911
X-62.388 Y11.029
X-62.286 Y11.195
X-62.25 Y11.387
Y11.75
G3 X-62.462 Y11.985 R0.246
X-63.25 Y11.324 R0.692
G1 Y10.961
X-63.243 Y10.826
X-63.186 Y10.704
X-63.101 Y10.599
X-62.926 Y10.513
X-62.731 Y10.495
X-62.544 Y10.549
X-62.388 Y10.667
X-62.286 Y10.833
X-62.25 Y11.024
Y11.387
G3 X-62.462 Y11.622 R0.246
X-63.25 Y10.961 R0.692
G1 Y10.585
X-63.243 Y10.45
X-63.183 Y10.329
X-63.095 Y10.227
X-62.919 Y10.144
X-62.726 Y10.129
X-62.54 Y10.184
X-62.387 Y10.303
X-62.285 Y10.468
X-62.25 Y10.659
Y11.024
G3 X-62.47 Y11.261 R0.246
X-63.25 Y10.585 R0.705
G1 Y10.248
X-63.243 Y10.113
X-63.191 Y9.989
X-63.108 Y9.882
X-62.934 Y9.791
X-62.738 Y9.771
X-62.548 Y9.823
X-62.391 Y9.94
X-62.286 Y10.107
X-62.25 Y10.3
Y10.659
G3 X-62.454 Y10.893 R0.247
X-63.236 Y10.365 R0.679
X-63.25 Y10.248 R0.679
G1 Y9.885
X-63.243 Y9.75
X-63.189 Y9.626
X-63.106 Y9.521
X-62.931 Y9.431
X-62.736 Y9.411
X-62.547 Y9.463
X-62.39 Y9.581
X-62.286 Y9.747
X-62.25 Y9.94
Y10.3
G3 X-62.456 Y10.535 R0.247
X-63.236 Y10.002 R0.683
X-63.25 Y9.885 R0.683
G1 Y9.509
X-63.243 Y9.374
X-63.185 Y9.252
X-63.098 Y9.149
X-62.923 Y9.064
X-62.729 Y9.047
X-62.543 Y9.101
X-62.388 Y9.219
X-62.286 Y9.385
X-62.25 Y9.576
Y9.94
G3 X-62.465 Y10.175 R0.246
X-63.236 Y9.626 R0.697
X-63.25 Y9.509 R0.697
G1 Y9.139
X-63.243 Y9.004
X-63.184 Y8.883
X-63.096 Y8.78
X-62.92 Y8.697
X-62.727 Y8.681
X-62.541 Y8.736
X-62.387 Y8.855
X-62.285 Y9.02
X-62.25 Y9.211
Y9.576
G3 X-62.468 Y9.812 R0.246
X-63.25 Y9.139 R0.702
G1 Y8.769
X-63.243 Y8.634
X-63.182 Y8.513
X-63.094 Y8.411
X-62.918 Y8.329
X-62.725 Y8.315
X-62.54 Y8.37
X-62.386 Y8.489
X-62.285 Y8.654
X-62.25 Y8.844
Y9.211
G3 X-62.471 Y9.447 R0.246
X-63.25 Y8.769 R0.707
G1 Y8.406
X-63.243 Y8.271
X-63.183 Y8.15
X-63.095 Y8.047
X-62.92 Y7.964
X-62.727 Y7.949
X-62.541 Y8.004
X-62.387 Y8.122
X-62.285 Y8.288
X-62.25 Y8.479
Y8.844
G3 X-62.469 Y9.081 R0.246
X-63.236 Y8.523 R0.704
X-63.25 Y8.406 R0.704
G1 Y8.063
X-63.243 Y7.928
X-63.189 Y7.804
X-63.106 Y7.698
X-62.931 Y7.609
X-62.736 Y7.589
X-62.547 Y7.642
X-62.39 Y7.759
X-62.286 Y7.926
X-62.25 Y8.119
Y8.479
G3 X-62.457 Y8.713 R0.247
X-63.25 Y8.063 R0.683
G1 Y7.693
X-63.243 Y7.558
X-63.187 Y7.435
X-63.101 Y7.331
X-62.926 Y7.245
X-62.732 Y7.227
X-62.544 Y7.28
X-62.388 Y7.398
X-62.286 Y7.564
X-62.25 Y7.756
Y8.119
G3 X-62.462 Y8.354 R0.246
X-63.25 Y7.693 R0.692
G1 Y7.33
X-63.243 Y7.195
X-63.186 Y7.073
X-63.101 Y6.968
X-62.926 Y6.882
X-62.731 Y6.864
X-62.544 Y6.918
X-62.388 Y7.036
X-62.286 Y7.202
X-62.25 Y7.393
Y7.756
G3 X-62.462 Y7.991 R0.246
X-63.25 Y7.33 R0.692
G1 Y6.954
X-63.243 Y6.819
X-63.183 Y6.698
X-63.095 Y6.596
X-62.919 Y6.513
X-62.726 Y6.498
X-62.54 Y6.553
X-62.387 Y6.672
X-62.285 Y6.837
X-62.25 Y7.028
Y7.393
G3 X-62.47 Y7.63 R0.246
X-63.25 Y6.954 R0.705
G1 Y6.617
X-63.243 Y6.482
X-63.191 Y6.358
X-63.108 Y6.251
X-62.934 Y6.16
X-62.738 Y6.14
X-62.548 Y6.191
X-62.391 Y6.309
X-62.286 Y6.476
X-62.25 Y6.669
Y7.028
G3 X-62.454 Y7.262 R0.247
X-63.236 Y6.734 R0.679
X-63.25 Y6.617 R0.679
G1 Y6.254
X-63.243 Y6.119
X-63.189 Y5.995
X-63.106 Y5.89
X-62.931 Y5.8
X-62.736 Y5.78
X-62.547 Y5.832
X-62.39 Y5.95
X-62.286 Y6.116
X-62.25 Y6.309
Y6.669
G3 X-62.456 Y6.904 R0.247
X-63.236 Y6.371 R0.683
X-63.25 Y6.254 R0.683
G1 Y5.878
X-63.243 Y5.743
X-63.185 Y5.621
X-63.098 Y5.518
X-62.923 Y5.433
X-62.729 Y5.416
X-62.543 Y5.47
X-62.388 Y5.588
X-62.286 Y5.754
X-62.25 Y5.945
Y6.309
G3 X-62.465 Y6.544 R0.246
X-63.236 Y5.995 R0.697
X-63.25 Y5.878 R0.697
G1 Y5.508
X-63.243 Y5.373
X-63.184 Y5.252
X-63.096 Y5.149
X-62.92 Y5.066
X-62.727 Y5.05
X-62.541 Y5.105
X-62.387 Y5.223
X-62.285 Y5.389
X-62.25 Y5.58
Y5.945
G3 X-62.468 Y6.181 R0.246
X-63.25 Y5.508 R0.702
G1 Y5.138
X-63.243 Y5.003
X-63.182 Y4.882
X-63.094 Y4.78
X-62.918 Y4.698
X-62.725 Y4.684
X-62.54 Y4.739
X-62.386 Y4.858
X-62.285 Y5.023
X-62.25 Y5.213
Y5.58
G3 X-62.471 Y5.816 R0.246
X-63.25 Y5.138 R0.707
G1 Y4.775
X-63.243 Y4.64
X-63.183 Y4.519
X-63.095 Y4.416
X-62.92 Y4.333
X-62.727 Y4.318
X-62.541 Y4.373
X-62.387 Y4.491
X-62.285 Y4.657
X-62.25 Y4.848
Y5.213
G3 X-62.469 Y5.45 R0.246
X-63.25 Y4.775 R0.704
G1 Y4.432
X-63.243 Y4.297
X-63.189 Y4.173
X-63.106 Y4.067
X-62.931 Y3.978
X-62.736 Y3.958
X-62.547 Y4.011
X-62.39 Y4.128
X-62.286 Y4.295
X-62.25 Y4.488
Y4.848
G3 X-62.457 Y5.082 R0.247
X-63.25 Y4.432 R0.683
G1 Y4.062
X-63.243 Y3.927
X-63.187 Y3.804
X-63.101 Y3.7
X-62.926 Y3.614
X-62.732 Y3.596
X-62.544 Y3.649
X-62.388 Y3.767
X-62.286 Y3.933
X-62.25 Y4.125
Y4.488
G3 X-62.462 Y4.723 R0.246
X-63.25 Y4.062 R0.692
G1 Y3.699
X-63.243 Y3.564
X-63.186 Y3.442
X-63.101 Y3.337
X-62.926 Y3.251
X-62.731 Y3.233
X-62.544 Y3.287
X-62.388 Y3.405
X-62.286 Y3.571
X-62.25 Y3.762
Y4.125
G3 X-62.462 Y4.36 R0.246
X-63.25 Y3.699 R0.692
G1 Y3.323
X-63.243 Y3.188
X-63.183 Y3.067
X-63.095 Y2.965
X-62.919 Y2.882
X-62.726 Y2.867
X-62.54 Y2.922
X-62.387 Y3.04
X-62.285 Y3.206
X-62.25 Y3.397
Y3.762
G3 X-62.47 Y3.999 R0.246
X-63.25 Y3.323 R0.705
G1 Y2.986
X-63.243 Y2.851
X-63.191 Y2.727
X-63.108 Y2.62
X-62.934 Y2.529
X-62.738 Y2.509
X-62.548 Y2.56
X-62.391 Y2.678
X-62.286 Y2.845
X-62.25 Y3.038
Y3.397
G3 X-62.454 Y3.631 R0.247
X-63.236 Y3.103 R0.679
X-63.25 Y2.986 R0.679
G1 Y2.623
X-63.243 Y2.488
X-63.189 Y2.364
X-63.106 Y2.258
X-62.931 Y2.169
X-62.736 Y2.149
X-62.547 Y2.201
X-62.39 Y2.318
X-62.286 Y2.485
X-62.25 Y2.678
Y3.038
G3 X-62.456 Y3.273 R0.247
X-63.236 Y2.74 R0.683
X-63.25 Y2.623 R0.683
G1 Y2.247
X-63.243 Y2.112
X-63.185 Y1.99
X-63.098 Y1.887
X-62.923 Y1.802
X-62.729 Y1.785
X-62.543 Y1.839
X-62.388 Y1.957
X-62.286 Y2.123
X-62.25 Y2.314
Y2.678
G3 X-62.465 Y2.913 R0.246
X-63.236 Y2.364 R0.697
X-63.25 Y2.247 R0.697
G1 Y1.877
X-63.243 Y1.742
X-63.184 Y1.621
X-63.096 Y1.518
X-62.92 Y1.435
X-62.727 Y1.419
X-62.541 Y1.474
X-62.387 Y1.592
X-62.285 Y1.758
X-62.25 Y1.949
Y2.314
G3 X-62.468 Y2.55 R0.246
X-63.25 Y1.877 R0.702
G1 Y1.506
X-63.243 Y1.372
X-63.182 Y1.251
X-63.094 Y1.149
X-62.918 Y1.067
X-62.725 Y1.053
X-62.54 Y1.108
X-62.386 Y1.226
X-62.285 Y1.392
X-62.25 Y1.582
Y1.949
G3 X-62.471 Y2.185 R0.246
X-63.25 Y1.506 R0.707
G1 Y1.144
X-63.243 Y1.009
X-63.183 Y0.888
X-63.095 Y0.785
X-62.92 Y0.702
X-62.727 Y0.687
X-62.541 Y0.742
X-62.387 Y0.86
X-62.285 Y1.026
X-62.25 Y1.217
Y1.582
G3 X-62.469 Y1.819 R0.246
X-63.236 Y1.261 R0.704
X-63.25 Y1.144 R0.704
G1 Y0.801
X-63.243 Y0.666
X-63.189 Y0.542
X-63.106 Y0.436
X-62.931 Y0.347
X-62.736 Y0.327
X-62.547 Y0.38
X-62.39 Y0.497
X-62.286 Y0.664
X-62.25 Y0.857
Y1.217
G3 X-62.457 Y1.451 R0.247
X-63.25 Y0.801 R0.683
G1 Y0.431
X-63.243 Y0.296
X-63.187 Y0.173
X-63.101 Y0.069
X-62.926 Y-0.017
X-62.732 Y-0.035
X-62.544 Y0.018
X-62.388 Y0.136
X-62.286 Y0.302
X-62.25 Y0.494
Y0.857
G3 X-62.462 Y1.092 R0.246
X-63.25 Y0.431 R0.692
G1 Y0.068
X-63.243 Y-0.067
X-63.186 Y-0.189
X-63.101 Y-0.294
X-62.926 Y-0.38
X-62.731 Y-0.398
X-62.544 Y-0.344
X-62.388 Y-0.226
X-62.286 Y-0.06
X-62.25 Y0.131
Y0.494
G3 X-62.462 Y0.729 R0.246
X-63.25 Y0.068 R0.692
G1 Y-0.308
X-63.243 Y-0.443
X-63.183 Y-0.564
X-63.095 Y-0.666
X-62.919 Y-0.749
X-62.726 Y-0.764
X-62.54 Y-0.709
X-62.387 Y-0.591
X-62.285 Y-0.425
X-62.25 Y-0.235
Y0.131
G3 X-62.47 Y0.368 R0.246
X-63.25 Y-0.308 R0.705
G1 Y-0.645
X-63.243 Y-0.78
X-63.191 Y-0.905
X-63.108 Y-1.011
X-62.934 Y-1.102
X-62.738 Y-1.122
X-62.548 Y-1.071
X-62.391 Y-0.953
X-62.286 Y-0.786
X-62.25 Y-0.593
Y-0.235
G3 X-62.454 Y0. R0.247
X-63.236 Y-0.528 R0.679
X-63.25 Y-0.645 R0.679
G1 Y-1.008
X-63.243 Y-1.143
X-63.189 Y-1.267
X-63.106 Y-1.373
X-62.931 Y-1.462
X-62.736 Y-1.482
X-62.547 Y-1.43
X-62.39 Y-1.313
X-62.286 Y-1.146
X-62.25 Y-0.953
Y-0.593
G3 X-62.456 Y-0.359 R0.247
X-63.236 Y-0.891 R0.683
X-63.25 Y-1.008 R0.683
G1 Y-1.384
X-63.243 Y-1.519
X-63.185 Y-1.641
X-63.098 Y-1.744
X-62.923 Y-1.829
X-62.729 Y-1.846
X-62.543 Y-1.792
X-62.388 Y-1.674
X-62.286 Y-1.508
X-62.25 Y-1.317
Y-0.953
G3 X-62.465 Y-0.718 R0.246
X-63.236 Y-1.267 R0.697
X-63.25 Y-1.384 R0.697
G1 Y-1.754
X-63.243 Y-1.889
X-63.184 Y-2.01
X-63.096 Y-2.113
X-62.92 Y-2.196
X-62.727 Y-2.212
X-62.541 Y-2.157
X-62.387 Y-2.039
X-62.285 Y-1.873
X-62.25 Y-1.682
Y-1.317
G3 X-62.468 Y-1.081 R0.246
X-63.25 Y-1.754 R0.702
G1 Y-2.125
X-63.243 Y-2.259
X-63.182 Y-2.38
X-63.094 Y-2.482
X-62.918 Y-2.564
X-62.725 Y-2.578
X-62.54 Y-2.523
X-62.386 Y-2.405
X-62.285 Y-2.239
X-62.25 Y-2.049
Y-1.682
G3 X-62.471 Y-1.446 R0.246
X-63.25 Y-2.125 R0.707
G1 Y-2.487
X-63.243 Y-2.622
X-63.183 Y-2.743
X-63.095 Y-2.846
X-62.92 Y-2.929
X-62.727 Y-2.944
X-62.541 Y-2.889
X-62.387 Y-2.771
X-62.285 Y-2.605
X-62.25 Y-2.414
Y-2.049
G3 X-62.469 Y-1.813 R0.246
X-63.25 Y-2.487 R0.704
G1 Y-2.83
X-63.243 Y-2.965
X-63.189 Y-3.089
X-63.106 Y-3.195
X-62.931 Y-3.284
X-62.736 Y-3.304
X-62.547 Y-3.251
X-62.39 Y-3.134
X-62.286 Y-2.967
X-62.25 Y-2.774
Y-2.414
G3 X-62.457 Y-2.18 R0.247
X-63.25 Y-2.83 R0.683
G1 Y-3.2
X-63.243 Y-3.335
X-63.187 Y-3.458
X-63.101 Y-3.562
X-62.926 Y-3.649
X-62.732 Y-3.666
X-62.544 Y-3.613
X-62.388 Y-3.495
X-62.286 Y-3.329
X-62.25 Y-3.137
Y-2.774
G3 X-62.462 Y-2.539 R0.246
X-63.25 Y-3.2 R0.692
G1 Y-3.563
X-63.243 Y-3.698
X-63.186 Y-3.82
X-63.101 Y-3.925
X-62.926 Y-4.011
X-62.731 Y-4.029
X-62.544 Y-3.975
X-62.388 Y-3.857
X-62.286 Y-3.691
X-62.25 Y-3.5
Y-3.137
G3 X-62.462 Y-2.902 R0.246
X-63.25 Y-3.563 R0.692
G1 Y-3.939
X-63.243 Y-4.074
X-63.183 Y-4.195
X-63.095 Y-4.297
X-62.919 Y-4.38
X-62.726 Y-4.395
X-62.54 Y-4.34
X-62.387 Y-4.222
X-62.285 Y-4.056
X-62.25 Y-3.866
Y-3.5
G3 X-62.47 Y-3.263 R0.246
X-63.25 Y-3.939 R0.705
G1 Y-4.276
X-63.243 Y-4.411
X-63.191 Y-4.536
X-63.108 Y-4.642
X-62.934 Y-4.733
X-62.738 Y-4.754
X-62.548 Y-4.702
X-62.391 Y-4.584
X-62.286 Y-4.417
X-62.25 Y-4.224
Y-3.866
G3 X-62.454 Y-3.631 R0.247
X-63.236 Y-4.159 R0.679
X-63.25 Y-4.276 R0.679
G1 Y-4.639
X-63.243 Y-4.774
X-63.189 Y-4.898
X-63.106 Y-5.004
X-62.931 Y-5.093
X-62.736 Y-5.113
X-62.547 Y-5.061
X-62.39 Y-4.944
X-62.286 Y-4.777
X-62.25 Y-4.584
Y-4.224
G3 X-62.456 Y-3.99 R0.247
X-63.236 Y-4.522 R0.683
X-63.25 Y-4.639 R0.683
G1 Y-5.015
X-63.243 Y-5.15
X-63.185 Y-5.272
X-63.098 Y-5.375
X-62.923 Y-5.46
X-62.729 Y-5.477
X-62.543 Y-5.423
X-62.388 Y-5.305
X-62.286 Y-5.139
X-62.25 Y-4.948
Y-4.584
G3 X-62.465 Y-4.349 R0.246
X-63.236 Y-4.898 R0.697
X-63.25 Y-5.015 R0.697
G1 Y-5.385
X-63.243 Y-5.52
X-63.184 Y-5.641
X-63.096 Y-5.744
X-62.92 Y-5.827
X-62.727 Y-5.843
X-62.541 Y-5.788
X-62.387 Y-5.67
X-62.285 Y-5.504
X-62.25 Y-5.313
Y-4.948
G3 X-62.468 Y-4.712 R0.246
X-63.25 Y-5.385 R0.702
G1 Y-5.756
X-63.243 Y-5.89
X-63.182 Y-6.011
X-63.094 Y-6.113
X-62.918 Y-6.195
X-62.725 Y-6.21
X-62.54 Y-6.154
X-62.386 Y-6.036
X-62.285 Y-5.87
X-62.25 Y-5.68
Y-5.313
G3 X-62.471 Y-5.077 R0.246
X-63.25 Y-5.756 R0.707
G1 Y-6.118
X-63.243 Y-6.253
X-63.183 Y-6.374
X-63.095 Y-6.477
X-62.92 Y-6.56
X-62.727 Y-6.575
X-62.541 Y-6.52
X-62.387 Y-6.402
X-62.285 Y-6.236
X-62.25 Y-6.045
Y-5.68
G3 X-62.469 Y-5.444 R0.246
X-63.25 Y-6.118 R0.704
G1 Y-6.461
X-63.243 Y-6.596
X-63.189 Y-6.72
X-63.106 Y-6.826
X-62.931 Y-6.915
X-62.736 Y-6.935
X-62.547 Y-6.882
X-62.39 Y-6.765
X-62.286 Y-6.598
X-62.25 Y-6.405
Y-6.045
G3 X-62.457 Y-5.811 R0.247
X-63.25 Y-6.461 R0.683
G1 Y-6.831
X-63.243 Y-6.966
X-63.187 Y-7.089
X-63.101 Y-7.193
X-62.926 Y-7.28
X-62.732 Y-7.297
X-62.544 Y-7.244
X-62.388 Y-7.126
X-62.286 Y-6.96
X-62.25 Y-6.768
Y-6.405
G3 X-62.462 Y-6.17 R0.246
X-63.25 Y-6.831 R0.692
G1 Y-7.194
X-63.243 Y-7.329
X-63.186 Y-7.451
X-63.101 Y-7.556
X-62.926 Y-7.642
X-62.731 Y-7.66
X-62.544 Y-7.606
X-62.388 Y-7.488
X-62.286 Y-7.323
X-62.25 Y-7.131
Y-6.768
G3 X-62.462 Y-6.533 R0.246
X-63.25 Y-7.194 R0.692
G1 Y-7.57
X-63.243 Y-7.705
X-63.183 Y-7.826
X-63.095 Y-7.928
X-62.919 Y-8.011
X-62.726 Y-8.026
X-62.54 Y-7.971
X-62.387 Y-7.853
X-62.285 Y-7.687
X-62.25 Y-7.497
Y-7.131
G3 X-62.47 Y-6.894 R0.246
X-63.25 Y-7.57 R0.705
G1 Y-7.907
X-63.243 Y-8.042
X-63.191 Y-8.167
X-63.108 Y-8.273
X-62.934 Y-8.364
X-62.738 Y-8.385
X-62.548 Y-8.333
X-62.391 Y-8.215
X-62.286 Y-8.048
X-62.25 Y-7.855
Y-7.497
G3 X-62.454 Y-7.262 R0.247
X-63.236 Y-7.791 R0.679
X-63.25 Y-7.907 R0.679
G1 Y-8.27
X-63.243 Y-8.405
X-63.189 Y-8.529
X-63.106 Y-8.635
X-62.931 Y-8.724
X-62.736 Y-8.744
X-62.547 Y-8.692
X-62.39 Y-8.575
X-62.286 Y-8.408
X-62.25 Y-8.216
Y-7.855
G3 X-62.456 Y-7.621 R0.247
X-63.236 Y-8.153 R0.683
X-63.25 Y-8.27 R0.683
G1 Y-8.646
X-63.243 Y-8.781
X-63.185 Y-8.903
X-63.098 Y-9.006
X-62.923 Y-9.092
X-62.729 Y-9.108
X-62.543 Y-9.054
X-62.388 Y-8.936
X-62.286 Y-8.771
X-62.25 Y-8.579
Y-8.216
G3 X-62.465 Y-7.98 R0.246
X-63.236 Y-8.529 R0.697
X-63.25 Y-8.646 R0.697
G1 Y-9.016
X-63.243 Y-9.151
X-63.184 Y-9.272
X-63.096 Y-9.375
X-62.92 Y-9.458
X-62.727 Y-9.474
X-62.541 Y-9.419
X-62.387 Y-9.301
X-62.285 Y-9.135
X-62.25 Y-8.944
Y-8.579
G3 X-62.468 Y-8.343 R0.246
X-63.25 Y-9.016 R0.702
G1 Y-9.387
X-63.243 Y-9.521
X-63.182 Y-9.642
X-63.094 Y-9.744
X-62.918 Y-9.826
X-62.725 Y-9.841
X-62.54 Y-9.785
X-62.386 Y-9.667
X-62.285 Y-9.501
X-62.25 Y-9.311
Y-8.944
G3 X-62.471 Y-8.708 R0.246
X-63.25 Y-9.387 R0.707
G1 Y-9.749
X-63.243 Y-9.884
X-63.183 Y-10.005
X-63.095 Y-10.108
X-62.92 Y-10.191
X-62.727 Y-10.206
X-62.541 Y-10.151
X-62.387 Y-10.033
X-62.285 Y-9.867
X-62.25 Y-9.676
Y-9.311
G3 X-62.469 Y-9.075 R0.246
X-63.236 Y-9.633 R0.704
X-63.25 Y-9.749 R0.704
G1 Y-10.092
X-63.243 Y-10.227
X-63.189 Y-10.351
X-63.106 Y-10.457
X-62.931 Y-10.546
X-62.736 Y-10.566
X-62.547 Y-10.513
X-62.39 Y-10.396
X-62.286 Y-10.229
X-62.25 Y-10.036
Y-9.676
G3 X-62.457 Y-9.442 R0.247
X-63.25 Y-10.092 R0.683
G1 Y-10.462
X-63.243 Y-10.597
X-63.187 Y-10.72
X-63.101 Y-10.824
X-62.926 Y-10.911
X-62.732 Y-10.928
X-62.544 Y-10.875
X-62.388 Y-10.757
X-62.286 Y-10.591
X-62.25 Y-10.399
Y-10.036
G3 X-62.462 Y-9.801 R0.246
X-63.25 Y-10.462 R0.692
G1 Y-10.825
X-63.243 Y-10.96
X-63.186 Y-11.083
X-63.101 Y-11.187
X-62.926 Y-11.273
X-62.731 Y-11.291
X-62.544 Y-11.237
X-62.388 Y-11.119
X-62.286 Y-10.954
X-62.25 Y-10.762
Y-10.399
G3 X-62.462 Y-10.164 R0.246
X-63.25 Y-10.825 R0.692
G1 Y-11.201
X-63.243 Y-11.336
X-63.183 Y-11.457
X-63.095 Y-11.559
X-62.919 Y-11.642
X-62.726 Y-11.657
X-62.54 Y-11.602
X-62.387 Y-11.484
X-62.285 Y-11.318
X-62.25 Y-11.128
Y-10.762
G3 X-62.47 Y-10.526 R0.246
X-63.25 Y-11.201 R0.705
G1 Y-11.538
X-63.243 Y-11.673
X-63.191 Y-11.798
X-63.108 Y-11.904
X-62.934 Y-11.995
X-62.738 Y-12.016
X-62.548 Y-11.964
X-62.391 Y-11.846
X-62.286 Y-11.679
X-62.25 Y-11.486
Y-11.128
G3 X-62.454 Y-10.893 R0.247
X-63.236 Y-11.422 R0.679
X-63.25 Y-11.538 R0.679
G1 Y-11.901
X-63.243 Y-12.036
X-63.189 Y-12.16
X-63.106 Y-12.266
X-62.931 Y-12.355
X-62.736 Y-12.375
X-62.547 Y-12.323
X-62.39 Y-12.206
X-62.286 Y-12.039
X-62.25 Y-11.847
Y-11.486
G3 X-62.456 Y-11.252 R0.247
X-63.236 Y-11.784 R0.683
X-63.25 Y-11.901 R0.683
G1 Y-12.277
X-63.243 Y-12.412
X-63.185 Y-12.534
X-63.098 Y-12.637
X-62.923 Y-12.723
X-62.729 Y-12.739
X-62.543 Y-12.685
X-62.388 Y-12.567
X-62.286 Y-12.402
X-62.25 Y-12.21
Y-11.847
G3 X-62.465 Y-11.611 R0.246
X-63.236 Y-12.16 R0.697
X-63.25 Y-12.277 R0.697
G1 Y-12.647
X-63.243 Y-12.782
X-63.184 Y-12.903
X-63.096 Y-13.006
X-62.92 Y-13.089
X-62.727 Y-13.105
X-62.541 Y-13.05
X-62.387 Y-12.932
X-62.285 Y-12.766
X-62.25 Y-12.575
Y-12.21
G3 X-62.468 Y-11.974 R0.246
X-63.25 Y-12.647 R0.702
G1 Y-13.018
X-63.243 Y-13.152
X-63.182 Y-13.273
X-63.094 Y-13.375
X-62.918 Y-13.457
X-62.725 Y-13.472
X-62.54 Y-13.416
X-62.386 Y-13.298
X-62.285 Y-13.132
X-62.25 Y-12.942
Y-12.575
G3 X-62.471 Y-12.339 R0.246
X-63.25 Y-13.018 R0.707
G1 Y-13.38
X-63.243 Y-13.515
X-63.183 Y-13.636
X-63.095 Y-13.739
X-62.92 Y-13.822
X-62.727 Y-13.837
X-62.541 Y-13.782
X-62.387 Y-13.664
X-62.285 Y-13.498
X-62.25 Y-13.307
Y-12.942
G3 X-62.469 Y-12.706 R0.246
X-63.236 Y-13.264 R0.704
X-63.25 Y-13.38 R0.704
G1 Y-13.723
X-63.243 Y-13.858
X-63.189 Y-13.982
X-63.106 Y-14.088
X-62.931 Y-14.177
X-62.736 Y-14.197
X-62.547 Y-14.144
X-62.39 Y-14.027
X-62.286 Y-13.86
X-62.25 Y-13.667
Y-13.307
G3 X-62.457 Y-13.073 R0.247
X-63.25 Y-13.723 R0.683
G1 Y-14.094
X-63.243 Y-14.228
X-63.187 Y-14.351
X-63.101 Y-14.455
X-62.926 Y-14.542
X-62.732 Y-14.559
X-62.544 Y-14.506
X-62.388 Y-14.388
X-62.286 Y-14.222
X-62.25 Y-14.03
Y-13.667
G3 X-62.462 Y-13.432 R0.246
X-63.25 Y-14.094 R0.692
G1 Y-14.456
X-63.243 Y-14.591
X-63.186 Y-14.714
X-63.101 Y-14.818
X-62.926 Y-14.904
X-62.731 Y-14.922
X-62.544 Y-14.868
X-62.388 Y-14.75
X-62.286 Y-14.585
X-62.25 Y-14.393
Y-14.03
G3 X-62.462 Y-13.795 R0.246
X-63.25 Y-14.456 R0.692
G1 Y-14.832
X-63.243 Y-14.967
X-63.183 Y-15.088
X-63.095 Y-15.19
X-62.919 Y-15.273
X-62.726 Y-15.288
X-62.54 Y-15.233
X-62.387 Y-15.115
X-62.285 Y-14.949
X-62.25 Y-14.759
Y-14.393
G3 X-62.47 Y-14.157 R0.246
X-63.25 Y-14.832 R0.705
G1 Y-15.169
X-63.243 Y-15.304
X-63.191 Y-15.429
X-63.108 Y-15.535
X-62.934 Y-15.626
X-62.738 Y-15.647
X-62.548 Y-15.595
X-62.391 Y-15.477
X-62.286 Y-15.311
X-62.25 Y-15.117
Y-14.759
G3 X-62.454 Y-14.524 R0.247
X-63.236 Y-15.053 R0.679
X-63.25 Y-15.169 R0.679
G1 Y-15.532
X-63.243 Y-15.667
X-63.189 Y-15.791
X-63.106 Y-15.897
X-62.931 Y-15.986
X-62.736 Y-16.006
X-62.547 Y-15.954
X-62.39 Y-15.837
X-62.286 Y-15.67
X-62.25 Y-15.478
Y-15.117
G3 X-62.456 Y-14.883 R0.247
X-63.236 Y-15.415 R0.683
X-63.25 Y-15.532 R0.683
G1 Y-15.908
X-63.243 Y-16.043
X-63.185 Y-16.165
X-63.098 Y-16.268
X-62.923 Y-16.354
X-62.729 Y-16.37
X-62.543 Y-16.316
X-62.388 Y-16.198
X-62.286 Y-16.033
X-62.25 Y-15.841
Y-15.478
G3 X-62.465 Y-15.242 R0.246
X-63.236 Y-15.792 R0.697
X-63.25 Y-15.908 R0.697
G1 Y-16.279
X-63.243 Y-16.413
X-63.184 Y-16.534
X-63.096 Y-16.637
X-62.92 Y-16.721
X-62.727 Y-16.736
X-62.541 Y-16.681
X-62.387 Y-16.563
X-62.285 Y-16.397
X-62.25 Y-16.206
Y-15.841
G3 X-62.468 Y-15.605 R0.246
X-63.25 Y-16.279 R0.702
G1 Y-16.649
X-63.243 Y-16.784
X-63.182 Y-16.904
X-63.094 Y-17.006
X-62.918 Y-17.088
X-62.725 Y-17.103
X-62.54 Y-17.047
X-62.386 Y-16.929
X-62.285 Y-16.763
X-62.25 Y-16.573
Y-16.206
G3 X-62.471 Y-15.97 R0.246
X-63.25 Y-16.649 R0.707
G1 Y-17.011
X-63.243 Y-17.146
X-63.183 Y-17.267
X-63.095 Y-17.37
X-62.92 Y-17.453
X-62.727 Y-17.468
X-62.541 Y-17.413
X-62.387 Y-17.295
X-62.285 Y-17.129
X-62.25 Y-16.938
Y-16.573
G3 X-62.469 Y-16.337 R0.246
X-63.236 Y-16.895 R0.704
X-63.25 Y-17.011 R0.704
G1 Y-17.354
X-63.243 Y-17.489
X-63.189 Y-17.613
X-63.106 Y-17.719
X-62.931 Y-17.808
X-62.736 Y-17.828
X-62.547 Y-17.775
X-62.39 Y-17.658
X-62.286 Y-17.491
X-62.25 Y-17.298
Y-16.938
G3 X-62.457 Y-16.704 R0.247
X-63.25 Y-17.354 R0.683
G1 Y-17.725
X-63.243 Y-17.859
X-63.187 Y-17.982
X-63.101 Y-18.086
X-62.926 Y-18.173
X-62.732 Y-18.19
X-62.544 Y-18.137
X-62.388 Y-18.019
X-62.286 Y-17.853
X-62.25 Y-17.661
Y-17.298
G3 X-62.462 Y-17.063 R0.246
X-63.25 Y-17.725 R0.692
G1 Y-18.087
X-63.243 Y-18.222
X-63.186 Y-18.345
X-63.101 Y-18.449
X-62.926 Y-18.535
X-62.731 Y-18.553
X-62.544 Y-18.499
X-62.388 Y-18.382
X-62.286 Y-18.216
X-62.25 Y-18.024
Y-17.661
G3 X-62.462 Y-17.426 R0.246
X-63.25 Y-18.087 R0.692
G1 Y-18.464
X-63.243 Y-18.598
X-63.183 Y-18.719
X-63.095 Y-18.821
X-62.919 Y-18.904
X-62.726 Y-18.919
X-62.54 Y-18.864
X-62.387 Y-18.746
X-62.285 Y-18.58
X-62.25 Y-18.39
Y-18.024
G3 X-62.47 Y-17.788 R0.246
X-63.25 Y-18.464 R0.705
G1 Y-18.8
X-63.243 Y-18.935
X-63.191 Y-19.06
X-63.108 Y-19.167
X-62.934 Y-19.257
X-62.738 Y-19.278
X-62.548 Y-19.226
X-62.391 Y-19.108
X-62.286 Y-18.942
X-62.25 Y-18.748
Y-18.39
G3 X-62.454 Y-18.155 R0.247
X-63.236 Y-18.684 R0.679
X-63.25 Y-18.8 R0.679
G1 Y-19.163
X-63.243 Y-19.298
X-63.189 Y-19.422
X-63.106 Y-19.528
X-62.931 Y-19.617
X-62.736 Y-19.637
X-62.547 Y-19.585
X-62.39 Y-19.468
X-62.286 Y-19.301
X-62.25 Y-19.109
Y-18.748
G3 X-62.456 Y-18.514 R0.247
X-63.236 Y-19.046 R0.683
X-63.25 Y-19.163 R0.683
G1 Y-19.539
X-63.243 Y-19.674
X-63.185 Y-19.796
X-63.098 Y-19.899
X-62.923 Y-19.985
X-62.729 Y-20.001
X-62.543 Y-19.947
X-62.388 Y-19.829
X-62.286 Y-19.664
X-62.25 Y-19.472
Y-19.109
G3 X-62.465 Y-18.873 R0.246
X-63.236 Y-19.423 R0.697
X-63.25 Y-19.539 R0.697
G1 Y-19.91
X-63.243 Y-20.044
X-63.184 Y-20.165
X-63.096 Y-20.268
X-62.92 Y-20.352
X-62.727 Y-20.367
X-62.541 Y-20.312
X-62.387 Y-20.194
X-62.285 Y-20.028
X-62.25 Y-19.837
Y-19.472
G3 X-62.468 Y-19.236 R0.246
X-63.25 Y-19.91 R0.702
G1 Y-20.28
X-63.243 Y-20.415
X-63.182 Y-20.535
X-63.094 Y-20.637
X-62.918 Y-20.719
X-62.725 Y-20.734
X-62.54 Y-20.678
X-62.386 Y-20.56
X-62.285 Y-20.394
X-62.25 Y-20.204
Y-19.837
G3 X-62.471 Y-19.601 R0.246
X-63.25 Y-20.28 R0.707
G1 Y-20.642
X-63.243 Y-20.777
X-63.183 Y-20.898
X-63.095 Y-21.001
X-62.92 Y-21.084
X-62.727 Y-21.099
X-62.541 Y-21.044
X-62.387 Y-20.926
X-62.285 Y-20.76
X-62.25 Y-20.57
Y-20.204
G3 X-62.469 Y-19.968 R0.246
X-63.236 Y-20.526 R0.704
X-63.25 Y-20.642 R0.704
G1 Y-20.985
X-63.243 Y-21.12
X-63.189 Y-21.244
X-63.106 Y-21.35
X-62.931 Y-21.439
X-62.736 Y-21.459
X-62.547 Y-21.406
X-62.39 Y-21.289
X-62.286 Y-21.122
X-62.25 Y-20.93
Y-20.57
G3 X-62.457 Y-20.335 R0.247
X-63.25 Y-20.985 R0.683
G1 Y-21.356
X-63.243 Y-21.49
X-63.187 Y-21.613
X-63.101 Y-21.717
X-62.926 Y-21.804
X-62.732 Y-21.821
X-62.544 Y-21.768
X-62.388 Y-21.65
X-62.286 Y-21.484
X-62.25 Y-21.292
Y-20.93
G3 X-62.462 Y-20.694 R0.246
X-63.25 Y-21.356 R0.692
G1 Y-21.718
X-63.243 Y-21.853
X-63.186 Y-21.976
X-63.101 Y-22.08
X-62.926 Y-22.166
X-62.731 Y-22.184
X-62.544 Y-22.13
X-62.388 Y-22.013
X-62.286 Y-21.847
X-62.25 Y-21.655
Y-21.292
G3 X-62.462 Y-21.057 R0.246
X-63.25 Y-21.718 R0.692
G1 Y-22.095
X-63.243 Y-22.229
X-63.183 Y-22.35
X-63.095 Y-22.452
X-62.919 Y-22.535
X-62.726 Y-22.55
X-62.54 Y-22.495
X-62.387 Y-22.377
X-62.285 Y-22.211
X-62.25 Y-22.021
Y-21.655
G3 X-62.47 Y-21.419 R0.246
X-63.25 Y-22.095 R0.705
G1 Y-22.431
X-63.243 Y-22.566
X-63.191 Y-22.691
X-63.108 Y-22.798
X-62.934 Y-22.888
X-62.738 Y-22.909
X-62.548 Y-22.857
X-62.391 Y-22.739
X-62.286 Y-22.573
X-62.25 Y-22.379
Y-22.021
G3 X-62.454 Y-21.786 R0.247
X-63.236 Y-22.315 R0.679
X-63.25 Y-22.431 R0.679
G1 Y-22.794
X-63.243 Y-22.929
X-63.189 Y-23.053
X-63.106 Y-23.159
X-62.931 Y-23.248
X-62.736 Y-23.268
X-62.547 Y-23.216
X-62.39 Y-23.099
X-62.286 Y-22.932
X-62.25 Y-22.74
Y-22.379
G3 X-62.456 Y-22.145 R0.247
X-63.236 Y-22.677 R0.683
X-63.25 Y-22.794 R0.683
G1 Y-23.17
X-63.243 Y-23.305
X-63.185 Y-23.427
X-63.098 Y-23.53
X-62.923 Y-23.616
X-62.729 Y-23.632
X-62.543 Y-23.578
X-62.388 Y-23.46
X-62.286 Y-23.295
X-62.25 Y-23.103
Y-22.74
G3 X-62.465 Y-22.504 R0.246
X-63.236 Y-23.054 R0.697
X-63.25 Y-23.17 R0.697
G1 Y-23.541
X-63.243 Y-23.675
X-63.184 Y-23.797
X-63.096 Y-23.899
X-62.92 Y-23.983
X-62.727 Y-23.998
X-62.541 Y-23.943
X-62.387 Y-23.825
X-62.285 Y-23.659
X-62.25 Y-23.468
Y-23.103
G3 X-62.468 Y-22.867 R0.246
X-63.25 Y-23.541 R0.702
G1 Y-23.911
X-63.243 Y-24.046
X-63.182 Y-24.166
X-63.094 Y-24.268
X-62.918 Y-24.35
X-62.725 Y-24.365
X-62.54 Y-24.309
X-62.386 Y-24.191
X-62.285 Y-24.025
X-62.25 Y-23.835
Y-23.468
G3 X-62.471 Y-23.232 R0.246
X-63.25 Y-23.911 R0.707
G1 Y-24.273
X-63.243 Y-24.408
X-63.183 Y-24.529
X-63.095 Y-24.632
X-62.92 Y-24.715
X-62.727 Y-24.73
X-62.541 Y-24.675
X-62.387 Y-24.557
X-62.285 Y-24.391
X-62.25 Y-24.201
Y-23.835
G3 X-62.469 Y-23.599 R0.246
X-63.236 Y-24.157 R0.704
X-63.25 Y-24.273 R0.704
G1 Y-24.616
X-63.243 Y-24.751
X-63.189 Y-24.875
X-63.106 Y-24.981
X-62.931 Y-25.07
X-62.736 Y-25.09
X-62.547 Y-25.037
X-62.39 Y-24.92
X-62.286 Y-24.753
X-62.25 Y-24.561
Y-24.201
G3 X-62.457 Y-23.966 R0.247
X-63.25 Y-24.616 R0.683
G1 Y-24.987
X-63.243 Y-25.121
X-63.187 Y-25.244
X-63.101 Y-25.348
X-62.926 Y-25.435
X-62.732 Y-25.452
X-62.544 Y-25.399
X-62.388 Y-25.281
X-62.286 Y-25.115
X-62.25 Y-24.923
Y-24.561
G3 X-62.462 Y-24.325 R0.246
X-63.25 Y-24.987 R0.692
G1 X-63.244 Y-25.349
X-63.227 Y-25.483
X-63.171 Y-25.606
X-63.084 Y-25.71
X-62.911 Y-25.794
X-62.718 Y-25.81
X-62.533 Y-25.755
X-62.38 Y-25.636
X-62.281 Y-25.47
X-62.249 Y-25.279
X-62.25 Y-24.923
G3 X-62.453 Y-24.687 R0.25
X-63.244 Y-25.349 R0.668
G1 X-63.214 Y-25.726
X-63.212 Y-25.753
X-63.185 Y-25.885
X-63.118 Y-26.002
X-62.975 Y-26.101
X-62.807 Y-26.147
X-62.633 Y-26.134
X-62.473 Y-26.064
X-62.346 Y-25.945
X-62.265 Y-25.791
X-62.24 Y-25.618
X-62.249 Y-25.279
G3 X-62.471 Y-25.047 R0.246
X-63.212 Y-25.753 R0.676
G1 X-63.158 Y-26.112
X-63.131 Y-26.244
X-63.056 Y-26.356
X-62.908 Y-26.448
X-62.737 Y-26.485
X-62.564 Y-26.461
X-62.41 Y-26.381
X-62.291 Y-26.253
X-62.222 Y-26.092
X-62.212 Y-25.918
X-62.24 Y-25.618
G3 X-62.463 Y-25.392 R0.242
X-63.161 Y-25.994 R0.648
X-63.158 Y-26.112 R0.648
G1 X-63.111 Y-26.425
X-63.084 Y-26.558
X-63.016 Y-26.674
X-62.918 Y-26.767
X-62.737 Y-26.827
X-62.547 Y-26.816
X-62.374 Y-26.737
X-62.242 Y-26.599
X-62.171 Y-26.422
X-62.169 Y-26.231
X-62.212 Y-25.918
G3 X-62.43 Y-25.716 R0.238
X-63.111 Y-26.425 R0.638
G1 X-63.055 Y-26.752
X-63.006 Y-26.869
X-62.946 Y-26.99
X-62.854 Y-27.088
X-62.686 Y-27.152
X-62.507 Y-27.155
X-62.338 Y-27.096
X-62.199 Y-26.983
X-62.107 Y-26.83
X-62.072 Y-26.654
X-62.1 Y-26.477
G3 X-62.117 Y-26.441 R0.247
X-63.006 Y-26.869 R0.495
G1 X-62.859 Y-27.21
X-62.799 Y-27.331
X-62.698 Y-27.421
X-62.578 Y-27.482
X-62.382 Y-27.492
X-62.196 Y-27.43
X-62.046 Y-27.304
X-61.952 Y-27.131
X-61.928 Y-26.936
X-61.977 Y-26.746
X-62.1 Y-26.477
G3 X-62.375 Y-26.325 R0.243
X-62.892 Y-27.097 R0.658
X-62.859 Y-27.21 R0.658
G1 X-62.715 Y-27.542
X-62.656 Y-27.663
X-62.555 Y-27.753
X-62.435 Y-27.814
X-62.235 Y-27.824
X-62.045 Y-27.759
X-61.893 Y-27.629
X-61.799 Y-27.452
X-61.776 Y-27.253
X-61.828 Y-27.059
X-61.977 Y-26.746
G3 X-62.264 Y-26.623 R0.245
X-62.749 Y-27.429 R0.694
X-62.715 Y-27.542 R0.694
G1 X-62.597 Y-27.804
X-62.494 Y-27.939
X-62.405 Y-28.04
X-62.29 Y-28.111
X-62.117 Y-28.131
X-61.948 Y-28.093
X-61.8 Y-28.002
X-61.69 Y-27.867
X-61.63 Y-27.704
X-61.626 Y-27.53
X-61.68 Y-27.365
X-61.828 Y-27.059
G3 X-62.127 Y-26.926 R0.265
X-62.554 Y-27.838 R0.649
X-62.494 Y-27.939 R0.649
G1 X-62.262 Y-28.232
X-62.174 Y-28.334
X-62.054 Y-28.396
X-61.879 Y-28.403
X-61.713 Y-28.35
X-61.574 Y-28.244
X-61.481 Y-28.097
X-61.442 Y-27.926
X-61.464 Y-27.753
X-61.544 Y-27.598
G3 X-61.59 Y-27.555 R0.239
X-62.262 Y-28.232 R0.483
G1 X-62.06 Y-28.49
X-61.971 Y-28.591
X-61.853 Y-28.656
X-61.721 Y-28.686
X-61.55 Y-28.652
X-61.4 Y-28.563
X-61.289 Y-28.429
X-61.228 Y-28.266
X-61.226 Y-28.091
X-61.282 Y-27.926
X-61.39 Y-27.789
G3 X-61.817 Y-27.831 R0.3
G1 X-62.052 Y-28.125
G3 X-62.06 Y-28.49 R0.3
G1 X-61.88 Y-28.711
X-61.757 Y-28.806
X-61.645 Y-28.882
X-61.517 Y-28.924
X-61.377 Y-28.93
X-61.192 Y-28.856
X-61.048 Y-28.719
X-60.965 Y-28.539
X-60.955 Y-28.34
X-61.019 Y-28.152
X-61.148 Y-28.001
X-61.39 Y-27.789
G3 X-61.687 Y-27.766 R0.255
X-61.841 Y-28.724 R0.638
X-61.757 Y-28.806 R0.638
G1 X-61.439 Y-29.046
X-61.327 Y-29.121
X-61.196 Y-29.154
X-61.017 Y-29.117
X-60.86 Y-29.021
X-60.746 Y-28.878
X-60.688 Y-28.704
X-60.693 Y-28.521
X-60.76 Y-28.35
X-60.882 Y-28.213
X-61.148 Y-28.001
G3 X-61.461 Y-28.014 R0.249
X-61.439 Y-29.046 R0.676
G1 X-61.169 Y-29.249
X-61.057 Y-29.325
X-60.926 Y-29.359
X-60.791 Y-29.357
X-60.618 Y-29.274
X-60.485 Y-29.134
X-60.412 Y-28.956
X-60.408 Y-28.763
X-60.474 Y-28.582
X-60.6 Y-28.436
X-60.882 Y-28.213
G3 X-61.192 Y-28.227 R0.247
X-61.169 Y-29.249 R0.671
G1 X-60.989 Y-29.384
X-60.879 Y-29.437
X-60.772 Y-29.481
X-60.644 Y-29.526
X-60.509 Y-29.532
X-60.35 Y-29.464
X-60.222 Y-29.346
X-60.142 Y-29.193
X-60.118 Y-29.021
X-60.152 Y-28.851
X-60.242 Y-28.703
X-60.377 Y-28.593
G3 X-60.405 Y-28.581 R0.243
X-60.772 Y-29.481 R0.486
G1 X-60.438 Y-29.617
X-60.311 Y-29.662
X-60.176 Y-29.659
X-60.046 Y-29.621
X-59.901 Y-29.496
X-59.813 Y-29.325
X-59.795 Y-29.135
X-59.849 Y-28.951
X-59.968 Y-28.8
X-60.134 Y-28.705
G3 X-60.512 Y-28.915 R0.3
G1 X-60.605 Y-29.267
G3 X-60.438 Y-29.617 R0.3
G1 X-60.099 Y-29.756
X-59.972 Y-29.8
X-59.837 Y-29.794
X-59.708 Y-29.753
X-59.575 Y-29.637
X-59.487 Y-29.484
X-59.454 Y-29.311
X-59.479 Y-29.136
X-59.56 Y-28.979
X-59.688 Y-28.857
X-59.848 Y-28.784
X-60.134 Y-28.705
G3 X-60.41 Y-28.816 R0.237
X-60.099 Y-29.756 R0.672
G1 X-59.904 Y-29.833
X-59.668 Y-29.868
X-59.534 Y-29.879
X-59.402 Y-29.85
X-59.282 Y-29.787
X-59.161 Y-29.635
X-59.103 Y-29.449
X-59.115 Y-29.255
X-59.196 Y-29.078
X-59.335 Y-28.942
X-59.514 Y-28.864
X-59.848 Y-28.784
G3 X-60.136 Y-28.914 R0.26
X-59.668 Y-29.868 R0.653
G1 X-59.265 Y-29.921
X-59.13 Y-29.931
X-59.001 Y-29.891
X-58.872 Y-29.771
X-58.79 Y-29.616
X-58.763 Y-29.442
X-58.796 Y-29.269
X-58.884 Y-29.116
X-59.018 Y-29.002
X-59.182 Y-28.938
X-59.514 Y-28.864
G3 X-59.798 Y-29.03 R0.25
X-59.265 Y-29.921 R0.681
G1 X-58.921 Y-29.963
X-58.787 Y-29.969
X-58.659 Y-29.926
X-58.546 Y-29.852
X-58.443 Y-29.689
X-58.408 Y-29.499
X-58.446 Y-29.31
X-58.551 Y-29.148
X-58.709 Y-29.036
X-58.897 Y-28.991
G3 X-59.2 Y-29.306 R0.3
G1 X-59.181 Y-29.68
G3 X-58.921 Y-29.963 R0.3
G1 X-58.551 Y-29.994
X-58.416 Y-29.996
X-58.289 Y-29.949
X-58.179 Y-29.872
X-58.079 Y-29.7
X-58.05 Y-29.504
X-58.095 Y-29.311
X-58.208 Y-29.148
X-58.374 Y-29.039
X-58.568 Y-28.998
X-58.897 Y-28.991
G3 X-59.134 Y-29.178 R0.241
X-58.551 Y-29.994 R0.668
G1 X-58.148 Y-30.
X-58.013 Y-29.993
X-57.891 Y-29.936
X-57.774 Y-29.794
X-57.712 Y-29.62
X-57.714 Y-29.436
X-57.777 Y-29.264
X-57.896 Y-29.123
X-58.056 Y-29.032
X-58.237 Y-29.
X-58.568 Y-28.998
G3 X-58.807 Y-29.209 R0.247
X-58.148 Y-30. R0.691
G1 X-57.812
X-57.677 Y-29.993
X-57.554 Y-29.938
X-57.449 Y-29.853
X-57.363 Y-29.677
X-57.346 Y-29.482
X-57.4 Y-29.294
X-57.518 Y-29.139
X-57.684 Y-29.036
X-57.877 Y-29.
X-58.237
G3 X-58.472 Y-29.211 R0.246
X-57.812 Y-30. R0.691
G1 X-57.442
X-57.307 Y-29.993
X-57.185 Y-29.935
X-57.082 Y-29.847
X-56.998 Y-29.672
X-56.981 Y-29.478
X-57.036 Y-29.292
X-57.154 Y-29.137
X-57.32 Y-29.036
X-57.511 Y-29.
X-57.877
G3 X-58.113 Y-29.217 R0.246
X-57.442 Y-30. R0.7
G1 X-57.071
X-56.936 Y-29.993
X-56.816 Y-29.933
X-56.713 Y-29.845
X-56.63 Y-29.67
X-56.615 Y-29.476
X-56.671 Y-29.29
X-56.789 Y-29.137
X-56.954 Y-29.035
X-57.145 Y-29.
X-57.511
G3 X-57.747 Y-29.22 R0.246
X-57.071 Y-30. R0.705
G1 X-56.708
X-56.573 Y-29.993
X-56.452 Y-29.934
X-56.35 Y-29.846
X-56.266 Y-29.671
X-56.25 Y-29.477
X-56.305 Y-29.291
X-56.423 Y-29.137
X-56.589 Y-29.035
X-56.78 Y-29.
X-57.145
G3 X-57.381 Y-29.218 R0.246
X-56.708 Y-30. R0.702
G1 X-56.365
X-56.23 Y-29.993
X-56.106 Y-29.94
X-56. Y-29.856
X-55.911 Y-29.682
X-55.891 Y-29.486
X-55.943 Y-29.297
X-56.061 Y-29.14
X-56.227 Y-29.036
X-56.42 Y-29.
X-56.78
G3 X-57.014 Y-29.206 R0.247
X-56.365 Y-30. R0.682
G1 X-55.995
X-55.86 Y-29.993
X-55.737 Y-29.937
X-55.633 Y-29.851
X-55.546 Y-29.676
X-55.529 Y-29.482
X-55.582 Y-29.294
X-55.7 Y-29.139
X-55.866 Y-29.036
X-56.057 Y-29.
X-56.42
G3 X-56.656 Y-29.212 R0.246
X-55.995 Y-30. R0.692
G1 X-55.632
X-55.497 Y-29.993
X-55.375 Y-29.937
X-55.27 Y-29.851
X-55.184 Y-29.676
X-55.166 Y-29.482
X-55.22 Y-29.294
X-55.337 Y-29.138
X-55.503 Y-29.036
X-55.695 Y-29.
X-56.057
G3 X-56.293 Y-29.212 R0.246
X-55.632 Y-30. R0.692
G1 X-55.256
X-55.121 Y-29.993
X-55. Y-29.933
X-54.898 Y-29.845
X-54.815 Y-29.669
X-54.8 Y-29.476
X-54.855 Y-29.29
X-54.973 Y-29.137
X-55.139 Y-29.035
X-55.329 Y-29.
X-55.695
G3 X-55.931 Y-29.219 R0.246
X-55.256 Y-30. R0.705
G1 X-54.919
X-54.784 Y-29.993
X-54.659 Y-29.941
X-54.552 Y-29.858
X-54.462 Y-29.684
X-54.441 Y-29.488
X-54.493 Y-29.298
X-54.611 Y-29.141
X-54.777 Y-29.036
X-54.971 Y-29.
X-55.329
G3 X-55.564 Y-29.204 R0.247
X-54.919 Y-30. R0.679
G1 X-54.556
X-54.421 Y-29.993
X-54.297 Y-29.939
X-54.191 Y-29.856
X-54.102 Y-29.681
X-54.082 Y-29.486
X-54.134 Y-29.297
X-54.251 Y-29.14
X-54.418 Y-29.036
X-54.61 Y-29.
X-54.971
G3 X-55.205 Y-29.206 R0.247
X-54.556 Y-30. R0.683
G1 X-54.179
X-54.044 Y-29.993
X-53.923 Y-29.935
X-53.819 Y-29.848
X-53.734 Y-29.673
X-53.718 Y-29.479
X-53.772 Y-29.292
X-53.89 Y-29.138
X-54.055 Y-29.036
X-54.247 Y-29.
X-54.61
G3 X-54.846 Y-29.215 R0.246
X-54.179 Y-30. R0.697
G1 X-53.809
X-53.674 Y-29.993
X-53.553 Y-29.933
X-53.451 Y-29.845
X-53.367 Y-29.67
X-53.352 Y-29.477
X-53.407 Y-29.291
X-53.525 Y-29.137
X-53.691 Y-29.035
X-53.881 Y-29.
X-54.247
G3 X-54.483 Y-29.218 R0.246
X-53.809 Y-30. R0.703
G1 X-53.439
X-53.304 Y-29.993
X-53.183 Y-29.932
X-53.082 Y-29.843
X-52.999 Y-29.668
X-52.985 Y-29.475
X-53.041 Y-29.29
X-53.159 Y-29.136
X-53.324 Y-29.035
X-53.515 Y-29.
X-53.881
G3 X-54.118 Y-29.221 R0.246
X-53.439 Y-30. R0.708
G1 X-53.076
X-52.941 Y-29.993
X-52.82 Y-29.933
X-52.718 Y-29.845
X-52.634 Y-29.67
X-52.619 Y-29.477
X-52.675 Y-29.291
X-52.793 Y-29.137
X-52.958 Y-29.035
X-53.149 Y-29.
X-53.515
G3 X-53.751 Y-29.219 R0.246
X-53.076 Y-30. R0.704
G1 X-52.733
X-52.598 Y-29.993
X-52.474 Y-29.939
X-52.368 Y-29.856
X-52.279 Y-29.681
X-52.259 Y-29.486
X-52.312 Y-29.297
X-52.43 Y-29.14
X-52.596 Y-29.036
X-52.789 Y-29.
X-53.149
G3 X-53.384 Y-29.207 R0.247
X-52.733 Y-30. R0.684
G1 X-52.362
X-52.227 Y-29.993
X-52.105 Y-29.936
X-52.001 Y-29.85
X-51.914 Y-29.676
X-51.897 Y-29.481
X-51.951 Y-29.294
X-52.068 Y-29.138
X-52.234 Y-29.036
X-52.426 Y-29.
X-52.789
G3 X-53.024 Y-29.212 R0.246
X-52.362 Y-30. R0.693
G1 X-51.999
X-51.865 Y-29.993
X-51.742 Y-29.936
X-51.638 Y-29.85
X-51.552 Y-29.675
X-51.534 Y-29.481
X-51.588 Y-29.294
X-51.706 Y-29.138
X-51.872 Y-29.036
X-52.063 Y-29.
X-52.426
G3 X-52.661 Y-29.212 R0.246
X-51.999 Y-30. R0.693
G1 X-51.623
X-51.488 Y-29.993
X-51.367 Y-29.933
X-51.266 Y-29.844
X-51.183 Y-29.669
X-51.168 Y-29.476
X-51.223 Y-29.29
X-51.341 Y-29.136
X-51.507 Y-29.035
X-51.697 Y-29.
X-52.063
G3 X-52.3 Y-29.22 R0.246
X-51.623 Y-30. R0.705
G1 X-51.286
X-51.151 Y-29.993
X-51.027 Y-29.941
X-50.92 Y-29.858
X-50.83 Y-29.683
X-50.809 Y-29.488
X-50.861 Y-29.298
X-50.979 Y-29.141
X-51.145 Y-29.036
X-51.339 Y-29.
X-51.697
G3 X-51.932 Y-29.204 R0.247
X-51.286 Y-30. R0.679
G1 X-50.923
X-50.788 Y-29.993
X-50.664 Y-29.939
X-50.559 Y-29.855
X-50.469 Y-29.681
X-50.449 Y-29.486
X-50.502 Y-29.297
X-50.619 Y-29.14
X-50.785 Y-29.036
X-50.978 Y-29.
X-51.339
G3 X-51.573 Y-29.206 R0.247
X-50.923 Y-30. R0.683
G1 X-50.547
X-50.412 Y-29.993
X-50.29 Y-29.935
X-50.187 Y-29.848
X-50.102 Y-29.673
X-50.085 Y-29.479
X-50.139 Y-29.292
X-50.257 Y-29.138
X-50.423 Y-29.036
X-50.614 Y-29.
X-50.978
G3 X-51.214 Y-29.215 R0.246
X-50.547 Y-30. R0.697
G1 X-50.176
X-50.042 Y-29.993
X-49.92 Y-29.933
X-49.818 Y-29.845
X-49.735 Y-29.67
X-49.719 Y-29.477
X-49.775 Y-29.291
X-49.893 Y-29.137
X-50.058 Y-29.035
X-50.249 Y-29.
X-50.614
G3 X-50.85 Y-29.219 R0.246
X-50.176 Y-30. R0.703
G1 X-49.806
X-49.671 Y-29.993
X-49.551 Y-29.932
X-49.449 Y-29.843
X-49.367 Y-29.668
X-49.353 Y-29.475
X-49.408 Y-29.289
X-49.527 Y-29.136
X-49.692 Y-29.035
X-49.882 Y-29.
X-50.249
G3 X-50.485 Y-29.221 R0.246
X-49.806 Y-30. R0.708
G1 X-49.443
X-49.308 Y-29.993
X-49.187 Y-29.933
X-49.085 Y-29.845
X-49.002 Y-29.67
X-48.987 Y-29.477
X-49.042 Y-29.291
X-49.16 Y-29.137
X-49.326 Y-29.035
X-49.517 Y-29.
X-49.882
G3 X-50.119 Y-29.219 R0.246
X-49.443 Y-30. R0.704
G1 X-49.1
X-48.965 Y-29.993
X-48.841 Y-29.939
X-48.735 Y-29.856
X-48.646 Y-29.681
X-48.627 Y-29.486
X-48.68 Y-29.297
X-48.797 Y-29.14
X-48.964 Y-29.036
X-49.156 Y-29.
X-49.517
G3 X-49.751 Y-29.207 R0.247
X-49.1 Y-30. R0.684
G1 X-48.73
X-48.595 Y-29.993
X-48.472 Y-29.936
X-48.368 Y-29.85
X-48.282 Y-29.676
X-48.264 Y-29.481
X-48.318 Y-29.294
X-48.436 Y-29.138
X-48.602 Y-29.036
X-48.793 Y-29.
X-49.156
G3 X-49.392 Y-29.212 R0.246
X-48.73 Y-30. R0.693
G1 X-48.367
X-48.232 Y-29.993
X-48.11 Y-29.936
X-48.005 Y-29.85
X-47.919 Y-29.675
X-47.902 Y-29.481
X-47.955 Y-29.294
X-48.073 Y-29.138
X-48.239 Y-29.036
X-48.431 Y-29.
X-48.793
G3 X-49.029 Y-29.212 R0.246
X-48.367 Y-30. R0.693
G1 X-47.99
X-47.856 Y-29.993
X-47.735 Y-29.933
X-47.633 Y-29.844
X-47.55 Y-29.669
X-47.535 Y-29.476
X-47.591 Y-29.29
X-47.709 Y-29.136
X-47.874 Y-29.035
X-48.065 Y-29.
X-48.431
G3 X-48.667 Y-29.22 R0.246
X-47.99 Y-30. R0.705
G1 X-47.653
X-47.519 Y-29.993
X-47.394 Y-29.941
X-47.287 Y-29.858
X-47.197 Y-29.683
X-47.177 Y-29.488
X-47.229 Y-29.298
X-47.346 Y-29.141
X-47.513 Y-29.036
X-47.706 Y-29.
X-48.065
G3 X-48.299 Y-29.204 R0.247
X-47.653 Y-30. R0.679
G1 X-47.29
X-47.156 Y-29.993
X-47.032 Y-29.939
X-46.926 Y-29.855
X-46.837 Y-29.681
X-46.817 Y-29.486
X-46.869 Y-29.297
X-46.986 Y-29.14
X-47.153 Y-29.036
X-47.345 Y-29.
X-47.706
G3 X-47.941 Y-29.206 R0.247
X-47.29 Y-30. R0.683
G1 X-46.914
X-46.779 Y-29.993
X-46.657 Y-29.935
X-46.554 Y-29.848
X-46.469 Y-29.673
X-46.453 Y-29.479
X-46.507 Y-29.292
X-46.625 Y-29.138
X-46.79 Y-29.036
X-46.982 Y-29.
X-47.345
G3 X-47.581 Y-29.215 R0.246
X-46.914 Y-30. R0.697
G1 X-46.544
X-46.409 Y-29.993
X-46.288 Y-29.933
X-46.186 Y-29.845
X-46.102 Y-29.67
X-46.087 Y-29.477
X-46.142 Y-29.291
X-46.26 Y-29.137
X-46.426 Y-29.035
X-46.616 Y-29.
X-46.982
G3 X-47.218 Y-29.219 R0.246
X-46.544 Y-30. R0.703
G1 X-46.173
X-46.039 Y-29.993
X-45.918 Y-29.932
X-45.817 Y-29.843
X-45.734 Y-29.668
X-45.72 Y-29.475
X-45.776 Y-29.289
X-45.894 Y-29.136
X-46.059 Y-29.035
X-46.25 Y-29.
X-46.616
G3 X-46.853 Y-29.221 R0.246
X-46.173 Y-30. R0.708
G1 X-45.81
X-45.676 Y-29.993
X-45.555 Y-29.933
X-45.452 Y-29.845
X-45.369 Y-29.67
X-45.354 Y-29.476
X-45.409 Y-29.291
X-45.528 Y-29.137
X-45.693 Y-29.035
X-45.884 Y-29.
X-46.25
G3 X-46.486 Y-29.219 R0.246
X-45.81 Y-30. R0.704
G1 X-45.467
X-45.333 Y-29.993
X-45.209 Y-29.939
X-45.103 Y-29.856
X-45.014 Y-29.681
X-44.994 Y-29.486
X-45.047 Y-29.297
X-45.165 Y-29.14
X-45.331 Y-29.036
X-45.524 Y-29.
X-45.884
G3 X-46.119 Y-29.207 R0.247
X-45.467 Y-30. R0.684
G1 X-45.097
X-44.962 Y-29.993
X-44.84 Y-29.936
X-44.736 Y-29.85
X-44.649 Y-29.676
X-44.632 Y-29.481
X-44.685 Y-29.294
X-44.803 Y-29.138
X-44.969 Y-29.036
X-45.161 Y-29.
X-45.524
G3 X-45.759 Y-29.212 R0.246
X-45.097 Y-30. R0.693
G1 X-44.734
X-44.599 Y-29.993
X-44.477 Y-29.936
X-44.373 Y-29.85
X-44.286 Y-29.675
X-44.269 Y-29.481
X-44.323 Y-29.294
X-44.441 Y-29.138
X-44.606 Y-29.036
X-44.798 Y-29.
X-45.161
G3 X-45.396 Y-29.212 R0.246
X-44.734 Y-30. R0.693
G1 X-44.358
X-44.223 Y-29.993
X-44.102 Y-29.933
X-44. Y-29.844
X-43.917 Y-29.669
X-43.903 Y-29.476
X-43.958 Y-29.29
X-44.076 Y-29.136
X-44.242 Y-29.035
X-44.432 Y-29.
X-44.798
G3 X-45.034 Y-29.22 R0.246
X-44.358 Y-30. R0.705
G1 X-44.021
X-43.886 Y-29.993
X-43.762 Y-29.941
X-43.655 Y-29.858
X-43.565 Y-29.683
X-43.544 Y-29.488
X-43.596 Y-29.298
X-43.713 Y-29.141
X-43.88 Y-29.036
X-44.073 Y-29.
X-44.432
G3 X-44.666 Y-29.204 R0.247
X-44.021 Y-30. R0.679
G1 X-43.658
X-43.523 Y-29.993
X-43.399 Y-29.939
X-43.293 Y-29.855
X-43.204 Y-29.681
X-43.184 Y-29.486
X-43.237 Y-29.297
X-43.354 Y-29.14
X-43.52 Y-29.036
X-43.713 Y-29.
X-44.073
G3 X-44.308 Y-29.206 R0.247
X-43.658 Y-30. R0.683
G1 X-43.281
X-43.147 Y-29.993
X-43.025 Y-29.935
X-42.922 Y-29.848
X-42.837 Y-29.673
X-42.82 Y-29.479
X-42.874 Y-29.292
X-42.992 Y-29.138
X-43.158 Y-29.036
X-43.349 Y-29.
X-43.713
G3 X-43.949 Y-29.215 R0.246
X-43.281 Y-30. R0.697
G1 X-42.911
X-42.776 Y-29.993
X-42.655 Y-29.933
X-42.553 Y-29.845
X-42.469 Y-29.67
X-42.454 Y-29.477
X-42.509 Y-29.291
X-42.628 Y-29.137
X-42.793 Y-29.035
X-42.984 Y-29.
X-43.349
G3 X-43.585 Y-29.219 R0.246
X-42.911 Y-30. R0.703
G1 X-42.541
X-42.406 Y-29.993
X-42.286 Y-29.932
X-42.184 Y-29.843
X-42.102 Y-29.668
X-42.087 Y-29.475
X-42.143 Y-29.289
X-42.261 Y-29.136
X-42.427 Y-29.035
X-42.617 Y-29.
X-42.984
G3 X-43.22 Y-29.221 R0.246
X-42.541 Y-30. R0.708
G1 X-42.178
X-42.043 Y-29.993
X-41.922 Y-29.933
X-41.82 Y-29.845
X-41.737 Y-29.67
X-41.722 Y-29.476
X-41.777 Y-29.291
X-41.895 Y-29.137
X-42.061 Y-29.035
X-42.251 Y-29.
X-42.617
G3 X-42.853 Y-29.219 R0.246
X-42.178 Y-30. R0.704
G1 X-41.835
X-41.7 Y-29.993
X-41.576 Y-29.939
X-41.47 Y-29.856
X-41.381 Y-29.681
X-41.362 Y-29.486
X-41.414 Y-29.297
X-41.532 Y-29.14
X-41.698 Y-29.036
X-41.891 Y-29.
X-42.251
G3 X-42.486 Y-29.207 R0.247
X-41.835 Y-30. R0.684
G1 X-41.464
X-41.33 Y-29.993
X-41.207 Y-29.936
X-41.103 Y-29.85
X-41.017 Y-29.676
X-40.999 Y-29.481
X-41.053 Y-29.294
X-41.171 Y-29.138
X-41.336 Y-29.036
X-41.528 Y-29.
X-41.891
G3 X-42.127 Y-29.212 R0.246
X-41.464 Y-30. R0.693
G1 X-41.102
X-40.967 Y-29.993
X-40.844 Y-29.936
X-40.74 Y-29.85
X-40.654 Y-29.675
X-40.636 Y-29.481
X-40.69 Y-29.294
X-40.808 Y-29.138
X-40.974 Y-29.036
X-41.166 Y-29.
X-41.528
G3 X-41.764 Y-29.212 R0.246
X-41.102 Y-30. R0.693
G1 X-40.725
X-40.59 Y-29.993
X-40.47 Y-29.933
X-40.368 Y-29.844
X-40.285 Y-29.669
X-40.27 Y-29.476
X-40.325 Y-29.29
X-40.444 Y-29.136
X-40.609 Y-29.035
X-40.8 Y-29.
X-41.166
G3 X-41.402 Y-29.22 R0.246
X-40.725 Y-30. R0.705
G1 X-40.388
X-40.253 Y-29.993
X-40.129 Y-29.941
X-40.022 Y-29.858
X-39.932 Y-29.683
X-39.911 Y-29.488
X-39.963 Y-29.298
X-40.081 Y-29.141
X-40.248 Y-29.036
X-40.441 Y-29.
X-40.8
G3 X-41.034 Y-29.204 R0.247
X-40.388 Y-30. R0.679
G1 X-40.025
X-39.89 Y-29.993
X-39.767 Y-29.939
X-39.661 Y-29.855
X-39.572 Y-29.681
X-39.552 Y-29.486
X-39.604 Y-29.297
X-39.721 Y-29.14
X-39.888 Y-29.036
X-40.08 Y-29.
X-40.441
G3 X-40.675 Y-29.206 R0.247
X-40.025 Y-30. R0.683
G1 X-39.649
X-39.514 Y-29.993
X-39.392 Y-29.935
X-39.289 Y-29.848
X-39.204 Y-29.673
X-39.187 Y-29.479
X-39.242 Y-29.292
X-39.36 Y-29.138
X-39.525 Y-29.036
X-39.716 Y-29.
X-40.08
G3 X-40.316 Y-29.215 R0.246
X-39.649 Y-30. R0.697
G1 X-39.279
X-39.144 Y-29.993
X-39.023 Y-29.933
X-38.92 Y-29.845
X-38.837 Y-29.67
X-38.822 Y-29.477
X-38.877 Y-29.291
X-38.995 Y-29.137
X-39.16 Y-29.035
X-39.351 Y-29.
X-39.716
G3 X-39.953 Y-29.219 R0.246
X-39.279 Y-30. R0.703
G1 X-38.908
X-38.773 Y-29.993
X-38.653 Y-29.932
X-38.551 Y-29.843
X-38.469 Y-29.668
X-38.455 Y-29.475
X-38.51 Y-29.289
X-38.629 Y-29.136
X-38.794 Y-29.035
X-38.985 Y-29.
X-39.351
G3 X-39.588 Y-29.221 R0.246
X-38.908 Y-30. R0.708
G1 X-38.545
X-38.41 Y-29.993
X-38.29 Y-29.933
X-38.187 Y-29.845
X-38.104 Y-29.67
X-38.089 Y-29.476
X-38.144 Y-29.291
X-38.262 Y-29.137
X-38.428 Y-29.035
X-38.619 Y-29.
X-38.985
G3 X-39.221 Y-29.219 R0.246
X-38.545 Y-30. R0.704
G1 X-38.202
X-38.067 Y-29.993
X-37.944 Y-29.939
X-37.838 Y-29.856
X-37.749 Y-29.681
X-37.729 Y-29.486
X-37.782 Y-29.297
X-37.899 Y-29.14
X-38.066 Y-29.036
X-38.259 Y-29.
X-38.619
G3 X-38.853 Y-29.207 R0.247
X-38.202 Y-30. R0.684
G1 X-37.832
X-37.697 Y-29.993
X-37.575 Y-29.936
X-37.471 Y-29.85
X-37.384 Y-29.676
X-37.367 Y-29.481
X-37.42 Y-29.294
X-37.538 Y-29.138
X-37.704 Y-29.036
X-37.895 Y-29.
X-38.259
G3 X-38.494 Y-29.212 R0.246
X-37.832 Y-30. R0.693
G1 X-37.469
X-37.334 Y-29.993
X-37.212 Y-29.936
X-37.108 Y-29.85
X-37.021 Y-29.675
X-37.004 Y-29.481
X-37.058 Y-29.294
X-37.175 Y-29.138
X-37.341 Y-29.036
X-37.533 Y-29.
X-37.895
G3 X-38.131 Y-29.212 R0.246
X-37.469 Y-30. R0.693
G1 X-37.093
X-36.958 Y-29.993
X-36.837 Y-29.933
X-36.735 Y-29.844
X-36.652 Y-29.669
X-36.637 Y-29.476
X-36.693 Y-29.29
X-36.811 Y-29.136
X-36.976 Y-29.035
X-37.167 Y-29.
X-37.533
G3 X-37.769 Y-29.22 R0.246
X-37.093 Y-30. R0.705
G1 X-36.756
X-36.621 Y-29.993
X-36.496 Y-29.941
X-36.39 Y-29.858
X-36.299 Y-29.683
X-36.279 Y-29.488
X-36.331 Y-29.298
X-36.448 Y-29.141
X-36.615 Y-29.036
X-36.808 Y-29.
X-37.167
G3 X-37.401 Y-29.204 R0.247
X-36.756 Y-30. R0.679
G1 X-36.393
X-36.258 Y-29.993
X-36.134 Y-29.939
X-36.028 Y-29.855
X-35.939 Y-29.681
X-35.919 Y-29.486
X-35.971 Y-29.297
X-36.089 Y-29.14
X-36.255 Y-29.036
X-36.448 Y-29.
X-36.808
G3 X-37.043 Y-29.206 R0.247
X-36.393 Y-30. R0.683
G1 X-36.016
X-35.881 Y-29.993
X-35.76 Y-29.935
X-35.657 Y-29.848
X-35.571 Y-29.673
X-35.555 Y-29.479
X-35.609 Y-29.292
X-35.727 Y-29.138
X-35.893 Y-29.036
X-36.084 Y-29.
X-36.448
G3 X-36.683 Y-29.215 R0.246
X-36.016 Y-30. R0.697
G1 X-35.646
X-35.511 Y-29.993
X-35.39 Y-29.933
X-35.288 Y-29.845
X-35.204 Y-29.67
X-35.189 Y-29.477
X-35.244 Y-29.291
X-35.362 Y-29.137
X-35.528 Y-29.035
X-35.719 Y-29.
X-36.084
G3 X-36.32 Y-29.219 R0.246
X-35.646 Y-30. R0.703
G1 X-35.276
X-35.141 Y-29.993
X-35.02 Y-29.932
X-34.919 Y-29.843
X-34.836 Y-29.668
X-34.822 Y-29.475
X-34.878 Y-29.289
X-34.996 Y-29.136
X-35.161 Y-29.035
X-35.352 Y-29.
X-35.719
G3 X-35.955 Y-29.221 R0.246
X-35.276 Y-30. R0.708
G1 X-34.913
X-34.778 Y-29.993
X-34.657 Y-29.933
X-34.555 Y-29.845
X-34.471 Y-29.67
X-34.456 Y-29.476
X-34.512 Y-29.291
X-34.63 Y-29.137
X-34.795 Y-29.035
X-34.986 Y-29.
X-35.352
G3 X-35.588 Y-29.219 R0.246
X-34.913 Y-30. R0.704
G1 X-34.57
X-34.435 Y-29.993
X-34.311 Y-29.939
X-34.205 Y-29.856
X-34.116 Y-29.681
X-34.097 Y-29.486
X-34.149 Y-29.297
X-34.267 Y-29.14
X-34.433 Y-29.036
X-34.626 Y-29.
X-34.986
G3 X-35.221 Y-29.207 R0.247
X-34.57 Y-30. R0.684
G1 X-34.199
X-34.064 Y-29.993
X-33.942 Y-29.936
X-33.838 Y-29.85
X-33.752 Y-29.676
X-33.734 Y-29.481
X-33.788 Y-29.294
X-33.905 Y-29.138
X-34.071 Y-29.036
X-34.263 Y-29.
X-34.626
G3 X-34.861 Y-29.212 R0.246
X-34.199 Y-30. R0.693
G1 X-33.836
X-33.702 Y-29.993
X-33.579 Y-29.936
X-33.475 Y-29.85
X-33.389 Y-29.675
X-33.371 Y-29.481
X-33.425 Y-29.294
X-33.543 Y-29.138
X-33.709 Y-29.036
X-33.9 Y-29.
X-34.263
G3 X-34.498 Y-29.212 R0.246
X-33.836 Y-30. R0.693
G1 X-33.46
X-33.325 Y-29.993
X-33.204 Y-29.933
X-33.103 Y-29.844
X-33.02 Y-29.669
X-33.005 Y-29.476
X-33.06 Y-29.29
X-33.178 Y-29.136
X-33.344 Y-29.035
X-33.534 Y-29.
X-33.9
G3 X-34.137 Y-29.22 R0.246
X-33.46 Y-30. R0.705
G1 X-33.123
X-32.988 Y-29.993
X-32.864 Y-29.941
X-32.757 Y-29.858
X-32.667 Y-29.683
X-32.646 Y-29.488
X-32.698 Y-29.298
X-32.816 Y-29.141
X-32.982 Y-29.036
X-33.176 Y-29.
X-33.534
G3 X-33.769 Y-29.204 R0.247
X-33.123 Y-30. R0.679
G1 X-32.76
X-32.625 Y-29.993
X-32.501 Y-29.939
X-32.396 Y-29.855
X-32.306 Y-29.681
X-32.286 Y-29.486
X-32.339 Y-29.297
X-32.456 Y-29.14
X-32.622 Y-29.036
X-32.815 Y-29.
X-33.176
G3 X-33.41 Y-29.206 R0.247
X-32.76 Y-30. R0.683
G1 X-32.384
X-32.249 Y-29.993
X-32.127 Y-29.935
X-32.024 Y-29.848
X-31.939 Y-29.673
X-31.922 Y-29.479
X-31.977 Y-29.292
X-32.094 Y-29.138
X-32.26 Y-29.036
X-32.451 Y-29.
X-32.815
G3 X-33.051 Y-29.215 R0.246
X-32.384 Y-30. R0.697
G1 X-32.013
X-31.879 Y-29.993
X-31.757 Y-29.933
X-31.655 Y-29.845
X-31.572 Y-29.67
X-31.556 Y-29.477
X-31.612 Y-29.291
X-31.73 Y-29.137
X-31.895 Y-29.035
X-32.086 Y-29.
X-32.451
G3 X-32.687 Y-29.219 R0.246
X-32.013 Y-30. R0.703
G1 X-31.643
X-31.508 Y-29.993
X-31.388 Y-29.932
X-31.286 Y-29.843
X-31.204 Y-29.668
X-31.19 Y-29.475
X-31.245 Y-29.289
X-31.364 Y-29.136
X-31.529 Y-29.035
X-31.719 Y-29.
X-32.086
G3 X-32.322 Y-29.221 R0.246
X-31.643 Y-30. R0.708
G1 X-31.28
X-31.145 Y-29.993
X-31.024 Y-29.933
X-30.922 Y-29.845
X-30.839 Y-29.67
X-30.824 Y-29.476
X-30.879 Y-29.291
X-30.997 Y-29.137
X-31.163 Y-29.035
X-31.354 Y-29.
X-31.719
G3 X-31.956 Y-29.219 R0.246
X-31.28 Y-30. R0.704
G1 X-30.937
X-30.802 Y-29.993
X-30.678 Y-29.939
X-30.572 Y-29.856
X-30.483 Y-29.681
X-30.464 Y-29.486
X-30.517 Y-29.297
X-30.634 Y-29.14
X-30.801 Y-29.036
X-30.993 Y-29.
X-31.354
G3 X-31.588 Y-29.207 R0.247
X-30.937 Y-30. R0.684
G1 X-30.567
X-30.432 Y-29.993
X-30.309 Y-29.936
X-30.205 Y-29.85
X-30.119 Y-29.676
X-30.101 Y-29.481
X-30.155 Y-29.294
X-30.273 Y-29.138
X-30.439 Y-29.036
X-30.63 Y-29.
X-30.993
G3 X-31.229 Y-29.212 R0.246
X-30.567 Y-30. R0.693
G1 X-30.204
X-30.069 Y-29.993
X-29.947 Y-29.936
X-29.842 Y-29.85
X-29.756 Y-29.675
X-29.739 Y-29.481
X-29.792 Y-29.294
X-29.91 Y-29.138
X-30.076 Y-29.036
X-30.268 Y-29.
X-30.63
G3 X-30.866 Y-29.212 R0.246
X-30.204 Y-30. R0.693
G1 X-29.827
X-29.693 Y-29.993
X-29.572 Y-29.933
X-29.47 Y-29.844
X-29.387 Y-29.669
X-29.372 Y-29.476
X-29.428 Y-29.29
X-29.546 Y-29.136
X-29.711 Y-29.035
X-29.902 Y-29.
X-30.268
G3 X-30.504 Y-29.22 R0.246
X-29.827 Y-30. R0.705
G1 X-29.49
X-29.356 Y-29.993
X-29.231 Y-29.941
X-29.124 Y-29.858
X-29.034 Y-29.683
X-29.014 Y-29.488
X-29.066 Y-29.298
X-29.183 Y-29.141
X-29.35 Y-29.036
X-29.543 Y-29.
X-29.902
G3 X-30.136 Y-29.204 R0.247
X-29.49 Y-30. R0.679
G1 X-29.127
X-28.993 Y-29.993
X-28.869 Y-29.939
X-28.763 Y-29.855
X-28.674 Y-29.681
X-28.654 Y-29.486
X-28.706 Y-29.297
X-28.823 Y-29.14
X-28.99 Y-29.036
X-29.182 Y-29.
X-29.543
G3 X-29.778 Y-29.206 R0.247
X-29.127 Y-30. R0.683
G1 X-28.751
X-28.616 Y-29.993
X-28.494 Y-29.935
X-28.391 Y-29.848
X-28.306 Y-29.673
X-28.29 Y-29.479
X-28.344 Y-29.292
X-28.462 Y-29.138
X-28.627 Y-29.036
X-28.819 Y-29.
X-29.182
G3 X-29.418 Y-29.215 R0.246
X-28.751 Y-30. R0.697
G1 X-28.381
X-28.246 Y-29.993
X-28.125 Y-29.933
X-28.023 Y-29.845
X-27.939 Y-29.67
X-27.924 Y-29.477
X-27.979 Y-29.291
X-28.097 Y-29.137
X-28.263 Y-29.035
X-28.453 Y-29.
X-28.819
G3 X-29.055 Y-29.219 R0.246
X-28.381 Y-30. R0.703
G1 X-28.01
X-27.876 Y-29.993
X-27.755 Y-29.932
X-27.654 Y-29.843
X-27.571 Y-29.668
X-27.557 Y-29.475
X-27.613 Y-29.289
X-27.731 Y-29.136
X-27.896 Y-29.035
X-28.087 Y-29.
X-28.453
G3 X-28.69 Y-29.221 R0.246
X-28.01 Y-30. R0.708
G1 X-27.648
X-27.513 Y-29.993
X-27.392 Y-29.933
X-27.289 Y-29.845
X-27.206 Y-29.67
X-27.191 Y-29.476
X-27.246 Y-29.291
X-27.365 Y-29.137
X-27.53 Y-29.035
X-27.721 Y-29.
X-28.087
G3 X-28.323 Y-29.219 R0.246
X-27.648 Y-30. R0.704
G1 X-27.304
X-27.17 Y-29.993
X-27.046 Y-29.939
X-26.94 Y-29.856
X-26.851 Y-29.681
X-26.831 Y-29.486
X-26.884 Y-29.297
X-27.002 Y-29.14
X-27.168 Y-29.036
X-27.361 Y-29.
X-27.721
G3 X-27.956 Y-29.207 R0.247
X-27.304 Y-30. R0.684
G1 X-26.934
X-26.799 Y-29.993
X-26.677 Y-29.936
X-26.573 Y-29.85
X-26.486 Y-29.676
X-26.469 Y-29.481
X-26.522 Y-29.294
X-26.64 Y-29.138
X-26.806 Y-29.036
X-26.998 Y-29.
X-27.361
G3 X-27.596 Y-29.212 R0.246
X-26.934 Y-30. R0.693
G1 X-26.571
X-26.436 Y-29.993
X-26.314 Y-29.936
X-26.21 Y-29.85
X-26.123 Y-29.675
X-26.106 Y-29.481
X-26.16 Y-29.294
X-26.278 Y-29.138
X-26.443 Y-29.036
X-26.635 Y-29.
X-26.998
G3 X-27.233 Y-29.212 R0.246
X-26.571 Y-30. R0.693
G1 X-26.195
X-26.06 Y-29.993
X-25.939 Y-29.933
X-25.837 Y-29.844
X-25.754 Y-29.669
X-25.74 Y-29.476
X-25.795 Y-29.29
X-25.913 Y-29.136
X-26.079 Y-29.035
X-26.269 Y-29.
X-26.635
G3 X-26.871 Y-29.22 R0.246
X-26.195 Y-30. R0.705
G1 X-25.858
X-25.723 Y-29.993
X-25.599 Y-29.941
X-25.492 Y-29.858
X-25.402 Y-29.683
X-25.381 Y-29.488
X-25.433 Y-29.298
X-25.55 Y-29.141
X-25.717 Y-29.036
X-25.91 Y-29.
X-26.269
G3 X-26.503 Y-29.204 R0.247
X-25.858 Y-30. R0.679
G1 X-25.495
X-25.36 Y-29.993
X-25.236 Y-29.939
X-25.13 Y-29.855
X-25.041 Y-29.681
X-25.021 Y-29.486
X-25.074 Y-29.297
X-25.191 Y-29.14
X-25.357 Y-29.036
X-25.55 Y-29.
X-25.91
G3 X-26.145 Y-29.206 R0.247
X-25.495 Y-30. R0.683
G1 X-25.118
X-24.984 Y-29.993
X-24.862 Y-29.935
X-24.759 Y-29.848
X-24.674 Y-29.673
X-24.657 Y-29.479
X-24.711 Y-29.292
X-24.829 Y-29.138
X-24.995 Y-29.036
X-25.186 Y-29.
X-25.55
G3 X-25.786 Y-29.215 R0.246
X-25.118 Y-30. R0.697
G1 X-24.748
X-24.613 Y-29.993
X-24.492 Y-29.933
X-24.39 Y-29.845
X-24.306 Y-29.67
X-24.291 Y-29.477
X-24.346 Y-29.291
X-24.465 Y-29.137
X-24.63 Y-29.035
X-24.821 Y-29.
X-25.186
G3 X-25.422 Y-29.219 R0.246
X-24.748 Y-30. R0.703
G1 X-24.378
X-24.243 Y-29.993
X-24.123 Y-29.932
X-24.021 Y-29.843
X-23.939 Y-29.668
X-23.924 Y-29.475
X-23.98 Y-29.289
X-24.098 Y-29.136
X-24.264 Y-29.035
X-24.454 Y-29.
X-24.821
G3 X-25.057 Y-29.221 R0.246
X-24.378 Y-30. R0.708
G1 X-24.015
X-23.88 Y-29.993
X-23.759 Y-29.933
X-23.657 Y-29.845
X-23.574 Y-29.67
X-23.559 Y-29.476
X-23.614 Y-29.291
X-23.732 Y-29.137
X-23.898 Y-29.035
X-24.088 Y-29.
X-24.454
G3 X-24.69 Y-29.219 R0.246
X-24.015 Y-30. R0.704
G1 X-23.672
X-23.537 Y-29.993
X-23.413 Y-29.939
X-23.307 Y-29.856
X-23.218 Y-29.681
X-23.199 Y-29.486
X-23.251 Y-29.297
X-23.369 Y-29.14
X-23.535 Y-29.036
X-23.728 Y-29.
X-24.088
G3 X-24.323 Y-29.207 R0.247
X-23.672 Y-30. R0.684
G1 X-23.302
X-23.167 Y-29.993
X-23.044 Y-29.936
X-22.94 Y-29.85
X-22.854 Y-29.676
X-22.836 Y-29.481
X-22.89 Y-29.294
X-23.008 Y-29.138
X-23.173 Y-29.036
X-23.365 Y-29.
X-23.728
G3 X-23.964 Y-29.212 R0.246
X-23.302 Y-30. R0.693
G1 X-22.939
X-22.804 Y-29.993
X-22.681 Y-29.936
X-22.577 Y-29.85
X-22.491 Y-29.675
X-22.473 Y-29.481
X-22.527 Y-29.294
X-22.645 Y-29.138
X-22.811 Y-29.036
X-23.003 Y-29.
X-23.365
G3 X-23.601 Y-29.212 R0.246
X-22.939 Y-30. R0.693
G1 X-22.562
X-22.427 Y-29.993
X-22.307 Y-29.933
X-22.205 Y-29.844
X-22.122 Y-29.669
X-22.107 Y-29.476
X-22.162 Y-29.29
X-22.281 Y-29.136
X-22.446 Y-29.035
X-22.637 Y-29.
X-23.003
G3 X-23.239 Y-29.22 R0.246
X-22.562 Y-30. R0.705
G1 X-22.225
X-22.09 Y-29.993
X-21.966 Y-29.941
X-21.859 Y-29.858
X-21.769 Y-29.683
X-21.748 Y-29.488
X-21.8 Y-29.298
X-21.918 Y-29.141
X-22.085 Y-29.036
X-22.278 Y-29.
X-22.637
G3 X-22.871 Y-29.204 R0.247
X-22.225 Y-30. R0.679
G1 X-21.862
X-21.727 Y-29.993
X-21.604 Y-29.939
X-21.498 Y-29.855
X-21.409 Y-29.681
X-21.389 Y-29.486
X-21.441 Y-29.297
X-21.558 Y-29.14
X-21.725 Y-29.036
X-21.917 Y-29.
X-22.278
G3 X-22.512 Y-29.206 R0.247
X-21.862 Y-30. R0.683
G1 X-21.486
X-21.351 Y-29.993
X-21.229 Y-29.935
X-21.126 Y-29.848
X-21.041 Y-29.673
X-21.024 Y-29.479
X-21.079 Y-29.292
X-21.197 Y-29.138
X-21.362 Y-29.036
X-21.553 Y-29.
X-21.917
G3 X-22.153 Y-29.215 R0.246
X-21.486 Y-30. R0.697
G1 X-21.116
X-20.981 Y-29.993
X-20.86 Y-29.933
X-20.757 Y-29.845
X-20.674 Y-29.67
X-20.659 Y-29.477
X-20.714 Y-29.291
X-20.832 Y-29.137
X-20.997 Y-29.035
X-21.188 Y-29.
X-21.553
G3 X-21.79 Y-29.219 R0.246
X-21.116 Y-30. R0.703
G1 X-20.745
X-20.61 Y-29.993
X-20.49 Y-29.932
X-20.388 Y-29.843
X-20.306 Y-29.668
X-20.292 Y-29.475
X-20.347 Y-29.289
X-20.466 Y-29.136
X-20.631 Y-29.035
X-20.822 Y-29.
X-21.188
G3 X-21.425 Y-29.221 R0.246
X-20.745 Y-30. R0.708
G1 X-20.382
X-20.247 Y-29.993
X-20.127 Y-29.933
X-20.024 Y-29.845
X-19.941 Y-29.67
X-19.926 Y-29.476
X-19.981 Y-29.291
X-20.099 Y-29.137
X-20.265 Y-29.035
X-20.456 Y-29.
X-20.822
G3 X-21.058 Y-29.219 R0.246
X-20.382 Y-30. R0.704
G1 X-20.039
X-19.904 Y-29.993
X-19.781 Y-29.939
X-19.675 Y-29.856
X-19.586 Y-29.681
X-19.566 Y-29.486
X-19.619 Y-29.297
X-19.736 Y-29.14
X-19.903 Y-29.036
X-20.096 Y-29.
X-20.456
G3 X-20.69 Y-29.207 R0.247
X-20.039 Y-30. R0.684
G1 X-19.669
X-19.534 Y-29.993
X-19.412 Y-29.936
X-19.308 Y-29.85
X-19.221 Y-29.676
X-19.204 Y-29.481
X-19.257 Y-29.294
X-19.375 Y-29.138
X-19.541 Y-29.036
X-19.732 Y-29.
X-20.096
G3 X-20.331 Y-29.212 R0.246
X-19.669 Y-30. R0.693
G1 X-19.306
X-19.171 Y-29.993
X-19.049 Y-29.936
X-18.945 Y-29.85
X-18.858 Y-29.675
X-18.841 Y-29.481
X-18.895 Y-29.294
X-19.012 Y-29.138
X-19.178 Y-29.036
X-19.37 Y-29.
X-19.732
G3 X-19.968 Y-29.212 R0.246
X-19.306 Y-30. R0.693
G1 X-18.93
X-18.795 Y-29.993
X-18.674 Y-29.933
X-18.572 Y-29.844
X-18.489 Y-29.669
X-18.474 Y-29.476
X-18.53 Y-29.29
X-18.648 Y-29.136
X-18.813 Y-29.035
X-19.004 Y-29.
X-19.37
G3 X-19.606 Y-29.22 R0.246
X-18.93 Y-30. R0.705
G1 X-18.593
X-18.458 Y-29.993
X-18.333 Y-29.941
X-18.227 Y-29.858
X-18.136 Y-29.683
X-18.116 Y-29.488
X-18.168 Y-29.298
X-18.285 Y-29.141
X-18.452 Y-29.036
X-18.645 Y-29.
X-19.004
G3 X-19.238 Y-29.204 R0.247
X-18.593 Y-30. R0.679
G1 X-18.23
X-18.095 Y-29.993
X-17.971 Y-29.939
X-17.865 Y-29.855
X-17.776 Y-29.681
X-17.756 Y-29.486
X-17.808 Y-29.297
X-17.926 Y-29.14
X-18.092 Y-29.036
X-18.285 Y-29.
X-18.645
G3 X-18.88 Y-29.206 R0.247
X-18.23 Y-30. R0.683
G1 X-17.853
X-17.718 Y-29.993
X-17.597 Y-29.935
X-17.494 Y-29.848
X-17.408 Y-29.673
X-17.392 Y-29.479
X-17.446 Y-29.292
X-17.564 Y-29.138
X-17.73 Y-29.036
X-17.921 Y-29.
X-18.285
G3 X-18.52 Y-29.215 R0.246
X-17.853 Y-30. R0.697
G1 X-17.483
X-17.348 Y-29.993
X-17.227 Y-29.933
X-17.125 Y-29.845
X-17.041 Y-29.67
X-17.026 Y-29.477
X-17.081 Y-29.291
X-17.199 Y-29.137
X-17.365 Y-29.035
X-17.556 Y-29.
X-17.921
G3 X-18.157 Y-29.219 R0.246
X-17.483 Y-30. R0.703
G1 X-17.113
X-16.978 Y-29.993
X-16.857 Y-29.932
X-16.756 Y-29.843
X-16.673 Y-29.668
X-16.659 Y-29.475
X-16.715 Y-29.289
X-16.833 Y-29.136
X-16.998 Y-29.035
X-17.189 Y-29.
X-17.556
G3 X-17.792 Y-29.221 R0.246
X-17.113 Y-30. R0.708
G1 X-16.75
X-16.615 Y-29.993
X-16.494 Y-29.933
X-16.392 Y-29.845
X-16.308 Y-29.67
X-16.293 Y-29.476
X-16.349 Y-29.291
X-16.467 Y-29.137
X-16.632 Y-29.035
X-16.823 Y-29.
X-17.189
G3 X-17.425 Y-29.219 R0.246
X-16.75 Y-30. R0.704
G1 X-16.407
X-16.272 Y-29.993
X-16.148 Y-29.939
X-16.042 Y-29.856
X-15.953 Y-29.681
X-15.934 Y-29.486
X-15.986 Y-29.297
X-16.104 Y-29.14
X-16.27 Y-29.036
X-16.463 Y-29.
X-16.823
G3 X-17.058 Y-29.207 R0.247
X-16.407 Y-30. R0.684
G1 X-16.036
X-15.901 Y-29.993
X-15.779 Y-29.936
X-15.675 Y-29.85
X-15.589 Y-29.676
X-15.571 Y-29.481
X-15.625 Y-29.294
X-15.742 Y-29.138
X-15.908 Y-29.036
X-16.1 Y-29.
X-16.463
G3 X-16.698 Y-29.212 R0.246
X-16.036 Y-30. R0.693
G1 X-15.673
X-15.539 Y-29.993
X-15.416 Y-29.936
X-15.312 Y-29.85
X-15.226 Y-29.675
X-15.208 Y-29.481
X-15.262 Y-29.294
X-15.38 Y-29.138
X-15.546 Y-29.036
X-15.737 Y-29.
X-16.1
G3 X-16.335 Y-29.212 R0.246
X-15.673 Y-30. R0.693
G1 X-15.297
X-15.162 Y-29.993
X-15.041 Y-29.933
X-14.94 Y-29.844
X-14.857 Y-29.669
X-14.842 Y-29.476
X-14.897 Y-29.29
X-15.015 Y-29.136
X-15.181 Y-29.035
X-15.371 Y-29.
X-15.737
G3 X-15.974 Y-29.22 R0.246
X-15.297 Y-30. R0.705
G1 X-14.96
X-14.825 Y-29.993
X-14.701 Y-29.941
X-14.594 Y-29.858
X-14.504 Y-29.683
X-14.483 Y-29.488
X-14.535 Y-29.298
X-14.653 Y-29.141
X-14.819 Y-29.036
X-15.013 Y-29.
X-15.371
G3 X-15.606 Y-29.204 R0.247
X-14.96 Y-30. R0.679
G1 X-14.597
X-14.462 Y-29.993
X-14.338 Y-29.939
X-14.233 Y-29.855
X-14.143 Y-29.681
X-14.123 Y-29.486
X-14.176 Y-29.297
X-14.293 Y-29.14
X-14.459 Y-29.036
X-14.652 Y-29.
X-15.013
G3 X-15.247 Y-29.206 R0.247
X-14.597 Y-30. R0.683
G1 X-14.221
X-14.086 Y-29.993
X-13.964 Y-29.935
X-13.861 Y-29.848
X-13.776 Y-29.673
X-13.759 Y-29.479
X-13.814 Y-29.292
X-13.931 Y-29.138
X-14.097 Y-29.036
X-14.288 Y-29.
X-14.652
G3 X-14.888 Y-29.215 R0.246
X-14.221 Y-30. R0.697
G1 X-13.85
X-13.716 Y-29.993
X-13.594 Y-29.933
X-13.492 Y-29.845
X-13.409 Y-29.67
X-13.393 Y-29.477
X-13.449 Y-29.291
X-13.567 Y-29.137
X-13.732 Y-29.035
X-13.923 Y-29.
X-14.288
G3 X-14.524 Y-29.219 R0.246
X-13.85 Y-30. R0.703
G1 X-13.48
X-13.345 Y-29.993
X-13.225 Y-29.932
X-13.123 Y-29.843
X-13.041 Y-29.668
X-13.027 Y-29.475
X-13.082 Y-29.289
X-13.201 Y-29.136
X-13.366 Y-29.035
X-13.556 Y-29.
X-13.923
G3 X-14.159 Y-29.221 R0.246
X-13.48 Y-30. R0.708
G1 X-13.117
X-12.982 Y-29.993
X-12.861 Y-29.933
X-12.759 Y-29.845
X-12.676 Y-29.67
X-12.661 Y-29.476
X-12.716 Y-29.291
X-12.834 Y-29.137
X-13. Y-29.035
X-13.191 Y-29.
X-13.556
G3 X-13.793 Y-29.219 R0.246
X-13.117 Y-30. R0.704
G1 X-12.774
X-12.639 Y-29.993
X-12.515 Y-29.939
X-12.409 Y-29.856
X-12.32 Y-29.681
X-12.301 Y-29.486
X-12.354 Y-29.297
X-12.471 Y-29.14
X-12.638 Y-29.036
X-12.83 Y-29.
X-13.191
G3 X-13.425 Y-29.207 R0.247
X-12.774 Y-30. R0.684
G1 X-12.404
X-12.269 Y-29.993
X-12.146 Y-29.936
X-12.042 Y-29.85
X-11.956 Y-29.676
X-11.938 Y-29.481
X-11.992 Y-29.294
X-12.11 Y-29.138
X-12.276 Y-29.036
X-12.467 Y-29.
X-12.83
G3 X-13.066 Y-29.212 R0.246
X-12.404 Y-30. R0.693
G1 X-12.041
X-11.906 Y-29.993
X-11.784 Y-29.936
X-11.679 Y-29.85
X-11.593 Y-29.675
X-11.576 Y-29.481
X-11.629 Y-29.294
X-11.747 Y-29.138
X-11.913 Y-29.036
X-12.105 Y-29.
X-12.467
G3 X-12.703 Y-29.212 R0.246
X-12.041 Y-30. R0.693
G1 X-11.664
X-11.53 Y-29.993
X-11.409 Y-29.933
X-11.307 Y-29.844
X-11.224 Y-29.669
X-11.209 Y-29.476
X-11.265 Y-29.29
X-11.383 Y-29.136
X-11.548 Y-29.035
X-11.739 Y-29.
X-12.105
G3 X-12.341 Y-29.22 R0.246
X-11.664 Y-30. R0.705
G1 X-11.327
X-11.193 Y-29.993
X-11.068 Y-29.941
X-10.961 Y-29.858
X-10.871 Y-29.683
X-10.851 Y-29.488
X-10.903 Y-29.298
X-11.02 Y-29.141
X-11.187 Y-29.036
X-11.38 Y-29.
X-11.739
G3 X-11.973 Y-29.204 R0.247
X-11.327 Y-30. R0.679
G1 X-10.964
X-10.83 Y-29.993
X-10.706 Y-29.939
X-10.6 Y-29.855
X-10.511 Y-29.681
X-10.491 Y-29.486
X-10.543 Y-29.297
X-10.66 Y-29.14
X-10.827 Y-29.036
X-11.019 Y-29.
X-11.38
G3 X-11.615 Y-29.206 R0.247
X-10.964 Y-30. R0.683
G1 X-10.588
X-10.453 Y-29.993
X-10.331 Y-29.935
X-10.228 Y-29.848
X-10.143 Y-29.673
X-10.127 Y-29.479
X-10.181 Y-29.292
X-10.299 Y-29.138
X-10.464 Y-29.036
X-10.656 Y-29.
X-11.019
G3 X-11.255 Y-29.215 R0.246
X-10.588 Y-30. R0.697
G1 X-10.218
X-10.083 Y-29.993
X-9.962 Y-29.933
X-9.86 Y-29.845
X-9.776 Y-29.67
X-9.761 Y-29.477
X-9.816 Y-29.291
X-9.934 Y-29.137
X-10.1 Y-29.035
X-10.29 Y-29.
X-10.656
G3 X-10.892 Y-29.219 R0.246
X-10.218 Y-30. R0.703
G1 X-9.847
X-9.713 Y-29.993
X-9.592 Y-29.932
X-9.491 Y-29.843
X-9.408 Y-29.668
X-9.394 Y-29.475
X-9.45 Y-29.289
X-9.568 Y-29.136
X-9.733 Y-29.035
X-9.924 Y-29.
X-10.29
G3 X-10.527 Y-29.221 R0.246
X-9.847 Y-30. R0.708
G1 X-9.485
X-9.35 Y-29.993
X-9.229 Y-29.933
X-9.126 Y-29.845
X-9.043 Y-29.67
X-9.028 Y-29.476
X-9.083 Y-29.291
X-9.202 Y-29.137
X-9.367 Y-29.035
X-9.558 Y-29.
X-9.924
G3 X-10.16 Y-29.219 R0.246
X-9.485 Y-30. R0.704
G1 X-9.141
X-9.007 Y-29.993
X-8.883 Y-29.939
X-8.777 Y-29.856
X-8.688 Y-29.681
X-8.668 Y-29.486
X-8.721 Y-29.297
X-8.839 Y-29.14
X-9.005 Y-29.036
X-9.198 Y-29.
X-9.558
G3 X-9.793 Y-29.207 R0.247
X-9.141 Y-30. R0.684
G1 X-8.771
X-8.636 Y-29.993
X-8.514 Y-29.936
X-8.41 Y-29.85
X-8.323 Y-29.676
X-8.306 Y-29.481
X-8.359 Y-29.294
X-8.477 Y-29.138
X-8.643 Y-29.036
X-8.835 Y-29.
X-9.198
G3 X-9.433 Y-29.212 R0.246
X-8.771 Y-30. R0.693
G1 X-8.408
X-8.273 Y-29.993
X-8.151 Y-29.936
X-8.047 Y-29.85
X-7.96 Y-29.675
X-7.943 Y-29.481
X-7.997 Y-29.294
X-8.115 Y-29.138
X-8.28 Y-29.036
X-8.472 Y-29.
X-8.835
G3 X-9.07 Y-29.212 R0.246
X-8.408 Y-30. R0.693
G1 X-8.032
X-7.897 Y-29.993
X-7.776 Y-29.933
X-7.674 Y-29.844
X-7.591 Y-29.669
X-7.577 Y-29.476
X-7.632 Y-29.29
X-7.75 Y-29.136
X-7.916 Y-29.035
X-8.106 Y-29.
X-8.472
G3 X-8.708 Y-29.22 R0.246
X-8.032 Y-30. R0.705
G1 X-7.695
X-7.56 Y-29.993
X-7.436 Y-29.941
X-7.329 Y-29.858
X-7.239 Y-29.683
X-7.218 Y-29.488
X-7.27 Y-29.298
X-7.387 Y-29.141
X-7.554 Y-29.036
X-7.747 Y-29.
X-8.106
G3 X-8.34 Y-29.204 R0.247
X-7.695 Y-30. R0.679
G1 X-7.332
X-7.197 Y-29.993
X-7.073 Y-29.939
X-6.967 Y-29.855
X-6.878 Y-29.681
X-6.858 Y-29.486
X-6.911 Y-29.297
X-7.028 Y-29.14
X-7.194 Y-29.036
X-7.387 Y-29.
X-7.747
G3 X-7.982 Y-29.206 R0.247
X-7.332 Y-30. R0.683
G1 X-6.955
X-6.821 Y-29.993
X-6.699 Y-29.935
X-6.596 Y-29.848
X-6.511 Y-29.673
X-6.494 Y-29.479
X-6.548 Y-29.292
X-6.666 Y-29.138
X-6.832 Y-29.036
X-7.023 Y-29.
X-7.387
G3 X-7.623 Y-29.215 R0.246
X-6.955 Y-30. R0.697
G1 X-6.585
X-6.45 Y-29.993
X-6.329 Y-29.933
X-6.227 Y-29.845
X-6.143 Y-29.67
X-6.128 Y-29.477
X-6.183 Y-29.291
X-6.302 Y-29.137
X-6.467 Y-29.035
X-6.658 Y-29.
X-7.023
G3 X-7.259 Y-29.219 R0.246
X-6.585 Y-30. R0.703
G1 X-6.215
X-6.08 Y-29.993
X-5.96 Y-29.932
X-5.858 Y-29.843
X-5.776 Y-29.668
X-5.761 Y-29.475
X-5.817 Y-29.289
X-5.935 Y-29.136
X-6.101 Y-29.035
X-6.291 Y-29.
X-6.658
G3 X-6.894 Y-29.221 R0.246
X-6.215 Y-30. R0.708
G1 X-5.852
X-5.717 Y-29.993
X-5.596 Y-29.933
X-5.494 Y-29.845
X-5.411 Y-29.67
X-5.396 Y-29.476
X-5.451 Y-29.291
X-5.569 Y-29.137
X-5.735 Y-29.035
X-5.925 Y-29.
X-6.291
G3 X-6.527 Y-29.219 R0.246
X-5.852 Y-30. R0.704
G1 X-5.509
X-5.374 Y-29.993
X-5.25 Y-29.939
X-5.144 Y-29.856
X-5.055 Y-29.681
X-5.036 Y-29.486
X-5.088 Y-29.297
X-5.206 Y-29.14
X-5.372 Y-29.036
X-5.565 Y-29.
X-5.925
G3 X-6.16 Y-29.207 R0.247
X-5.509 Y-30. R0.684
G1 X-5.139
X-5.004 Y-29.993
X-4.881 Y-29.936
X-4.777 Y-29.85
X-4.691 Y-29.676
X-4.673 Y-29.481
X-4.727 Y-29.294
X-4.845 Y-29.138
X-5.01 Y-29.036
X-5.202 Y-29.
X-5.565
G3 X-5.801 Y-29.212 R0.246
X-5.139 Y-30. R0.693
G1 X-4.776
X-4.641 Y-29.993
X-4.518 Y-29.936
X-4.414 Y-29.85
X-4.328 Y-29.675
X-4.31 Y-29.481
X-4.364 Y-29.294
X-4.482 Y-29.138
X-4.648 Y-29.036
X-4.84 Y-29.
X-5.202
G3 X-5.438 Y-29.212 R0.246
X-4.776 Y-30. R0.693
G1 X-4.399
X-4.264 Y-29.993
X-4.144 Y-29.933
X-4.042 Y-29.844
X-3.959 Y-29.669
X-3.944 Y-29.476
X-3.999 Y-29.29
X-4.118 Y-29.136
X-4.283 Y-29.035
X-4.474 Y-29.
X-4.84
G3 X-5.076 Y-29.22 R0.246
X-4.399 Y-30. R0.705
G1 X-4.062
X-3.927 Y-29.993
X-3.803 Y-29.941
X-3.696 Y-29.858
X-3.606 Y-29.683
X-3.585 Y-29.488
X-3.637 Y-29.298
X-3.755 Y-29.141
X-3.922 Y-29.036
X-4.115 Y-29.
X-4.474
G3 X-4.708 Y-29.204 R0.247
X-4.062 Y-30. R0.679
G1 X-3.699
X-3.564 Y-29.993
X-3.441 Y-29.939
X-3.335 Y-29.855
X-3.246 Y-29.681
X-3.226 Y-29.486
X-3.278 Y-29.297
X-3.395 Y-29.14
X-3.562 Y-29.036
X-3.754 Y-29.
X-4.115
G3 X-4.349 Y-29.206 R0.247
X-3.699 Y-30. R0.683
G1 X-3.323
X-3.188 Y-29.993
X-3.066 Y-29.935
X-2.963 Y-29.848
X-2.878 Y-29.673
X-2.861 Y-29.479
X-2.916 Y-29.292
X-3.034 Y-29.138
X-3.199 Y-29.036
X-3.39 Y-29.
X-3.754
G3 X-3.99 Y-29.215 R0.246
X-3.323 Y-30. R0.697
G1 X-2.953
X-2.818 Y-29.993
X-2.697 Y-29.933
X-2.594 Y-29.845
X-2.511 Y-29.67
X-2.496 Y-29.477
X-2.551 Y-29.291
X-2.669 Y-29.137
X-2.834 Y-29.035
X-3.025 Y-29.
X-3.39
G3 X-3.627 Y-29.219 R0.246
X-2.953 Y-30. R0.703
G1 X-2.582
X-2.447 Y-29.993
X-2.327 Y-29.932
X-2.225 Y-29.843
X-2.143 Y-29.668
X-2.129 Y-29.475
X-2.184 Y-29.289
X-2.303 Y-29.136
X-2.468 Y-29.035
X-2.659 Y-29.
X-3.025
G3 X-3.262 Y-29.221 R0.246
X-2.582 Y-30. R0.708
G1 X-2.219
X-2.084 Y-29.993
X-1.964 Y-29.933
X-1.861 Y-29.845
X-1.778 Y-29.67
X-1.763 Y-29.476
X-1.818 Y-29.291
X-1.936 Y-29.137
X-2.102 Y-29.035
X-2.293 Y-29.
X-2.659
G3 X-2.895 Y-29.219 R0.246
X-2.219 Y-30. R0.704
G1 X-1.876
X-1.741 Y-29.993
X-1.618 Y-29.939
X-1.512 Y-29.856
X-1.423 Y-29.681
X-1.403 Y-29.486
X-1.456 Y-29.297
X-1.573 Y-29.14
X-1.74 Y-29.036
X-1.933 Y-29.
X-2.293
G3 X-2.527 Y-29.207 R0.247
X-1.876 Y-30. R0.684
G1 X-1.506
X-1.371 Y-29.993
X-1.249 Y-29.936
X-1.145 Y-29.85
X-1.058 Y-29.676
X-1.041 Y-29.481
X-1.094 Y-29.294
X-1.212 Y-29.138
X-1.378 Y-29.036
X-1.569 Y-29.
X-1.933
G3 X-2.168 Y-29.212 R0.246
X-1.506 Y-30. R0.693
G1 X-1.143
X-1.008 Y-29.993
X-0.886 Y-29.936
X-0.782 Y-29.85
X-0.695 Y-29.675
X-0.678 Y-29.481
X-0.732 Y-29.294
X-0.849 Y-29.138
X-1.015 Y-29.036
X-1.207 Y-29.
X-1.569
G3 X-1.805 Y-29.212 R0.246
X-1.143 Y-30. R0.693
G1 X-0.767
X-0.632 Y-29.993
X-0.511 Y-29.933
X-0.409 Y-29.844
X-0.326 Y-29.669
X-0.311 Y-29.476
X-0.367 Y-29.29
X-0.485 Y-29.136
X-0.65 Y-29.035
X-0.841 Y-29.
X-1.207
G3 X-1.443 Y-29.22 R0.246
X-0.767 Y-30. R0.705
G1 X-0.43
X-0.295 Y-29.993
X-0.17 Y-29.941
X-0.064 Y-29.858
X0.027 Y-29.683
X0.047 Y-29.488
X-0.005 Y-29.298
X-0.122 Y-29.141
X-0.289 Y-29.036
X-0.482 Y-29.
X-0.841
G3 X-1.075 Y-29.204 R0.247
X-0.43 Y-30. R0.679
G1 X-0.067
X0.068 Y-29.993
X0.192 Y-29.939
X0.298 Y-29.855
X0.387 Y-29.681
X0.407 Y-29.486
X0.355 Y-29.297
X0.237 Y-29.14
X0.071 Y-29.036
X-0.122 Y-29.
X-0.482
G3 X-0.717 Y-29.206 R0.247
X-0.067 Y-30. R0.683
G1 X0.31
X0.445 Y-29.993
X0.566 Y-29.935
X0.669 Y-29.848
X0.755 Y-29.673
X0.771 Y-29.479
X0.717 Y-29.292
X0.599 Y-29.138
X0.433 Y-29.036
X0.242 Y-29.
X-0.122
G3 X-0.357 Y-29.215 R0.246
X0.31 Y-30. R0.697
G1 X0.68
X0.815 Y-29.993
X0.936 Y-29.933
X1.038 Y-29.845
X1.122 Y-29.67
X1.137 Y-29.477
X1.082 Y-29.291
X0.964 Y-29.137
X0.798 Y-29.035
X0.607 Y-29.
X0.242
G3 X0.006 Y-29.219 R0.246
X0.68 Y-30. R0.703
G1 X1.05
X1.185 Y-29.993
X1.306 Y-29.932
X1.407 Y-29.843
X1.49 Y-29.668
X1.504 Y-29.475
X1.448 Y-29.289
X1.33 Y-29.136
X1.165 Y-29.035
X0.974 Y-29.
X0.607
G3 X0.371 Y-29.221 R0.246
X1.05 Y-30. R0.708
G1 X1.413
X1.548 Y-29.993
X1.669 Y-29.933
X1.771 Y-29.845
X1.855 Y-29.67
X1.87 Y-29.476
X1.814 Y-29.291
X1.696 Y-29.137
X1.531 Y-29.035
X1.34 Y-29.
X0.974
G3 X0.738 Y-29.219 R0.246
X1.413 Y-30. R0.704
G1 X1.756
X1.891 Y-29.993
X2.015 Y-29.939
X2.121 Y-29.856
X2.21 Y-29.681
X2.229 Y-29.486
X2.177 Y-29.297
X2.059 Y-29.14
X1.893 Y-29.036
X1.7 Y-29.
X1.34
G3 X1.105 Y-29.207 R0.247
X1.756 Y-30. R0.684
G1 X2.127
X2.262 Y-29.993
X2.384 Y-29.936
X2.488 Y-29.85
X2.574 Y-29.676
X2.592 Y-29.481
X2.538 Y-29.294
X2.421 Y-29.138
X2.255 Y-29.036
X2.063 Y-29.
X1.7
G3 X1.465 Y-29.212 R0.246
X2.127 Y-30. R0.693
G1 X2.49
X2.624 Y-29.993
X2.747 Y-29.936
X2.851 Y-29.85
X2.937 Y-29.675
X2.955 Y-29.481
X2.901 Y-29.294
X2.783 Y-29.138
X2.617 Y-29.036
X2.426 Y-29.
X2.063
G3 X1.828 Y-29.212 R0.246
X2.49 Y-30. R0.693
G1 X2.866
X3.001 Y-29.993
X3.122 Y-29.933
X3.223 Y-29.844
X3.306 Y-29.669
X3.321 Y-29.476
X3.266 Y-29.29
X3.148 Y-29.136
X2.982 Y-29.035
X2.792 Y-29.
X2.426
G3 X2.189 Y-29.22 R0.246
X2.866 Y-30. R0.705
G1 X3.203
X3.338 Y-29.993
X3.462 Y-29.941
X3.569 Y-29.858
X3.659 Y-29.683
X3.68 Y-29.488
X3.628 Y-29.298
X3.51 Y-29.141
X3.344 Y-29.036
X3.15 Y-29.
X2.792
G3 X2.557 Y-29.204 R0.247
X3.203 Y-30. R0.679
G1 X3.566
X3.701 Y-29.993
X3.825 Y-29.939
X3.93 Y-29.855
X4.02 Y-29.681
X4.04 Y-29.486
X3.987 Y-29.297
X3.87 Y-29.14
X3.704 Y-29.036
X3.511 Y-29.
X3.15
G3 X2.916 Y-29.206 R0.247
X3.566 Y-30. R0.683
G1 X3.942
X4.077 Y-29.993
X4.199 Y-29.935
X4.302 Y-29.848
X4.387 Y-29.673
X4.404 Y-29.479
X4.349 Y-29.292
X4.232 Y-29.138
X4.066 Y-29.036
X3.875 Y-29.
X3.511
G3 X3.275 Y-29.215 R0.246
X3.942 Y-30. R0.697
G1 X4.313
X4.447 Y-29.993
X4.569 Y-29.933
X4.671 Y-29.845
X4.754 Y-29.67
X4.77 Y-29.477
X4.714 Y-29.291
X4.596 Y-29.137
X4.431 Y-29.035
X4.24 Y-29.
X3.875
G3 X3.639 Y-29.219 R0.246
X4.313 Y-30. R0.703
G1 X4.683
X4.818 Y-29.993
X4.938 Y-29.932
X5.04 Y-29.843
X5.122 Y-29.668
X5.136 Y-29.475
X5.081 Y-29.289
X4.962 Y-29.136
X4.797 Y-29.035
X4.607 Y-29.
X4.24
G3 X4.004 Y-29.221 R0.246
X4.683 Y-30. R0.708
G1 X5.046
X5.181 Y-29.993
X5.302 Y-29.933
X5.404 Y-29.845
X5.487 Y-29.67
X5.502 Y-29.476
X5.447 Y-29.291
X5.329 Y-29.137
X5.163 Y-29.035
X4.972 Y-29.
X4.607
G3 X4.37 Y-29.219 R0.246
X5.046 Y-30. R0.704
G1 X5.389
X5.524 Y-29.993
X5.648 Y-29.939
X5.754 Y-29.856
X5.843 Y-29.681
X5.862 Y-29.486
X5.809 Y-29.297
X5.692 Y-29.14
X5.525 Y-29.036
X5.333 Y-29.
X4.972
G3 X4.738 Y-29.207 R0.247
X5.389 Y-30. R0.684
G1 X5.759
X5.894 Y-29.993
X6.017 Y-29.936
X6.121 Y-29.85
X6.207 Y-29.676
X6.225 Y-29.481
X6.171 Y-29.294
X6.053 Y-29.138
X5.887 Y-29.036
X5.696 Y-29.
X5.333
G3 X5.097 Y-29.212 R0.246
X5.759 Y-30. R0.693
G1 X6.122
X6.257 Y-29.993
X6.379 Y-29.936
X6.484 Y-29.85
X6.57 Y-29.675
X6.587 Y-29.481
X6.534 Y-29.294
X6.416 Y-29.138
X6.25 Y-29.036
X6.058 Y-29.
X5.696
G3 X5.46 Y-29.212 R0.246
X6.122 Y-30. R0.693
G1 X6.499
X6.633 Y-29.993
X6.754 Y-29.933
X6.856 Y-29.844
X6.939 Y-29.669
X6.954 Y-29.476
X6.898 Y-29.29
X6.78 Y-29.136
X6.615 Y-29.035
X6.424 Y-29.
X6.058
G3 X5.822 Y-29.22 R0.246
X6.499 Y-30. R0.705
G1 X6.836
X6.97 Y-29.993
X7.095 Y-29.941
X7.202 Y-29.858
X7.292 Y-29.683
X7.312 Y-29.488
X7.26 Y-29.298
X7.143 Y-29.141
X6.976 Y-29.036
X6.783 Y-29.
X6.424
G3 X6.19 Y-29.204 R0.247
X6.836 Y-30. R0.679
G1 X7.199
X7.333 Y-29.993
X7.457 Y-29.939
X7.563 Y-29.855
X7.652 Y-29.681
X7.672 Y-29.486
X7.62 Y-29.297
X7.503 Y-29.14
X7.336 Y-29.036
X7.144 Y-29.
X6.783
G3 X6.548 Y-29.206 R0.247
X7.199 Y-30. R0.683
G1 X7.575
X7.71 Y-29.993
X7.832 Y-29.935
X7.935 Y-29.848
X8.02 Y-29.673
X8.036 Y-29.479
X7.982 Y-29.292
X7.864 Y-29.138
X7.699 Y-29.036
X7.507 Y-29.
X7.144
G3 X6.908 Y-29.215 R0.246
X7.575 Y-30. R0.697
G1 X7.945
X8.08 Y-29.993
X8.201 Y-29.933
X8.303 Y-29.845
X8.387 Y-29.67
X8.402 Y-29.477
X8.347 Y-29.291
X8.229 Y-29.137
X8.063 Y-29.035
X7.873 Y-29.
X7.507
G3 X7.271 Y-29.219 R0.246
X7.945 Y-30. R0.703
G1 X8.316
X8.45 Y-29.993
X8.571 Y-29.932
X8.672 Y-29.843
X8.755 Y-29.668
X8.769 Y-29.475
X8.713 Y-29.289
X8.595 Y-29.136
X8.43 Y-29.035
X8.239 Y-29.
X7.873
G3 X7.636 Y-29.221 R0.246
X8.316 Y-30. R0.708
G1 X8.678
X8.813 Y-29.993
X8.934 Y-29.933
X9.037 Y-29.845
X9.12 Y-29.67
X9.135 Y-29.476
X9.08 Y-29.291
X8.961 Y-29.137
X8.796 Y-29.035
X8.605 Y-29.
X8.239
G3 X8.003 Y-29.219 R0.246
X8.678 Y-30. R0.704
G1 X9.022
X9.156 Y-29.993
X9.28 Y-29.939
X9.386 Y-29.856
X9.475 Y-29.681
X9.495 Y-29.486
X9.442 Y-29.297
X9.324 Y-29.14
X9.158 Y-29.036
X8.965 Y-29.
X8.605
G3 X8.37 Y-29.207 R0.247
X9.022 Y-30. R0.684
G1 X9.392
X9.527 Y-29.993
X9.649 Y-29.936
X9.753 Y-29.85
X9.84 Y-29.676
X9.857 Y-29.481
X9.804 Y-29.294
X9.686 Y-29.138
X9.52 Y-29.036
X9.328 Y-29.
X8.965
G3 X8.73 Y-29.212 R0.246
X9.392 Y-30. R0.693
G1 X9.755
X9.89 Y-29.993
X10.012 Y-29.936
X10.116 Y-29.85
X10.203 Y-29.675
X10.22 Y-29.481
X10.166 Y-29.294
X10.048 Y-29.138
X9.883 Y-29.036
X9.691 Y-29.
X9.328
G3 X9.093 Y-29.212 R0.246
X9.755 Y-30. R0.693
G1 X10.131
X10.266 Y-29.993
X10.387 Y-29.933
X10.489 Y-29.844
X10.572 Y-29.669
X10.586 Y-29.476
X10.531 Y-29.29
X10.413 Y-29.136
X10.247 Y-29.035
X10.057 Y-29.
X9.691
G3 X9.455 Y-29.22 R0.246
X10.131 Y-30. R0.705
G1 X10.468
X10.603 Y-29.993
X10.727 Y-29.941
X10.834 Y-29.858
X10.924 Y-29.683
X10.945 Y-29.488
X10.893 Y-29.298
X10.776 Y-29.141
X10.609 Y-29.036
X10.416 Y-29.
X10.057
G3 X9.823 Y-29.204 R0.247
X10.468 Y-30. R0.679
G1 X10.831
X10.966 Y-29.993
X11.09 Y-29.939
X11.196 Y-29.855
X11.285 Y-29.681
X11.305 Y-29.486
X11.252 Y-29.297
X11.135 Y-29.14
X10.969 Y-29.036
X10.776 Y-29.
X10.416
G3 X10.181 Y-29.206 R0.247
X10.831 Y-30. R0.683
G1 X11.208
X11.342 Y-29.993
X11.464 Y-29.935
X11.567 Y-29.848
X11.652 Y-29.673
X11.669 Y-29.479
X11.615 Y-29.292
X11.497 Y-29.138
X11.331 Y-29.036
X11.14 Y-29.
X10.776
G3 X10.54 Y-29.215 R0.246
X11.208 Y-30. R0.697
G1 X11.578
X11.713 Y-29.993
X11.834 Y-29.933
X11.936 Y-29.845
X12.02 Y-29.67
X12.035 Y-29.477
X11.98 Y-29.291
X11.861 Y-29.137
X11.696 Y-29.035
X11.505 Y-29.
X11.14
G3 X10.904 Y-29.219 R0.246
X11.578 Y-30. R0.703
G1 X11.948
X12.083 Y-29.993
X12.203 Y-29.932
X12.305 Y-29.843
X12.387 Y-29.668
X12.402 Y-29.475
X12.346 Y-29.289
X12.228 Y-29.136
X12.062 Y-29.035
X11.872 Y-29.
X11.505
G3 X11.269 Y-29.221 R0.246
X11.948 Y-30. R0.708
G1 X12.311
X12.446 Y-29.993
X12.567 Y-29.933
X12.669 Y-29.845
X12.752 Y-29.67
X12.767 Y-29.476
X12.712 Y-29.291
X12.594 Y-29.137
X12.428 Y-29.035
X12.238 Y-29.
X11.872
G3 X11.636 Y-29.219 R0.246
X12.311 Y-30. R0.704
G1 X12.654
X12.789 Y-29.993
X12.913 Y-29.939
X13.019 Y-29.856
X13.108 Y-29.681
X13.127 Y-29.486
X13.075 Y-29.297
X12.957 Y-29.14
X12.791 Y-29.036
X12.598 Y-29.
X12.238
G3 X12.003 Y-29.207 R0.247
X12.654 Y-30. R0.684
G1 X13.024
X13.159 Y-29.993
X13.282 Y-29.936
X13.386 Y-29.85
X13.472 Y-29.676
X13.49 Y-29.481
X13.436 Y-29.294
X13.318 Y-29.138
X13.153 Y-29.036
X12.961 Y-29.
X12.598
G3 X12.362 Y-29.212 R0.246
X13.024 Y-30. R0.693
G1 X13.387
X13.522 Y-29.993
X13.645 Y-29.936
X13.749 Y-29.85
X13.835 Y-29.675
X13.853 Y-29.481
X13.799 Y-29.294
X13.681 Y-29.138
X13.515 Y-29.036
X13.323 Y-29.
X12.961
G3 X12.725 Y-29.212 R0.246
X13.387 Y-30. R0.693
G1 X13.764
X13.899 Y-29.993
X14.019 Y-29.933
X14.121 Y-29.844
X14.204 Y-29.669
X14.219 Y-29.476
X14.164 Y-29.29
X14.045 Y-29.136
X13.88 Y-29.035
X13.689 Y-29.
X13.323
G3 X13.087 Y-29.22 R0.246
X13.764 Y-30. R0.705
G1 X14.101
X14.236 Y-29.993
X14.36 Y-29.941
X14.467 Y-29.858
X14.557 Y-29.683
X14.578 Y-29.488
X14.526 Y-29.298
X14.408 Y-29.141
X14.241 Y-29.036
X14.048 Y-29.
X13.689
G3 X13.455 Y-29.204 R0.247
X14.101 Y-30. R0.679
G1 X14.464
X14.599 Y-29.993
X14.722 Y-29.939
X14.828 Y-29.855
X14.917 Y-29.681
X14.937 Y-29.486
X14.885 Y-29.297
X14.768 Y-29.14
X14.601 Y-29.036
X14.409 Y-29.
X14.048
G3 X13.814 Y-29.206 R0.247
X14.464 Y-30. R0.683
G1 X14.84
X14.975 Y-29.993
X15.097 Y-29.935
X15.2 Y-29.848
X15.285 Y-29.673
X15.302 Y-29.479
X15.247 Y-29.292
X15.129 Y-29.138
X14.964 Y-29.036
X14.773 Y-29.
X14.409
G3 X14.173 Y-29.215 R0.246
X14.84 Y-30. R0.697
G1 X15.21
X15.345 Y-29.993
X15.466 Y-29.933
X15.569 Y-29.845
X15.652 Y-29.67
X15.667 Y-29.477
X15.612 Y-29.291
X15.494 Y-29.137
X15.329 Y-29.035
X15.138 Y-29.
X14.773
G3 X14.536 Y-29.219 R0.246
X15.21 Y-30. R0.703
G1 X15.581
X15.716 Y-29.993
X15.836 Y-29.932
X15.938 Y-29.843
X16.02 Y-29.668
X16.034 Y-29.475
X15.979 Y-29.289
X15.86 Y-29.136
X15.695 Y-29.035
X15.504 Y-29.
X15.138
G3 X14.901 Y-29.221 R0.246
X15.581 Y-30. R0.708
G1 X15.944
X16.079 Y-29.993
X16.199 Y-29.933
X16.302 Y-29.845
X16.385 Y-29.67
X16.4 Y-29.476
X16.345 Y-29.291
X16.227 Y-29.137
X16.061 Y-29.035
X15.87 Y-29.
X15.504
G3 X15.268 Y-29.219 R0.246
X15.944 Y-30. R0.704
G1 X16.287
X16.422 Y-29.993
X16.545 Y-29.939
X16.651 Y-29.856
X16.74 Y-29.681
X16.76 Y-29.486
X16.707 Y-29.297
X16.59 Y-29.14
X16.423 Y-29.036
X16.23 Y-29.
X15.87
G3 X15.636 Y-29.207 R0.247
X16.287 Y-30. R0.684
G1 X16.657
X16.792 Y-29.993
X16.914 Y-29.936
X17.018 Y-29.85
X17.105 Y-29.676
X17.122 Y-29.481
X17.069 Y-29.294
X16.951 Y-29.138
X16.785 Y-29.036
X16.593 Y-29.
X16.23
G3 X15.995 Y-29.212 R0.246
X16.657 Y-30. R0.693
G1 X17.02
X17.155 Y-29.993
X17.277 Y-29.936
X17.381 Y-29.85
X17.468 Y-29.675
X17.485 Y-29.481
X17.431 Y-29.294
X17.314 Y-29.138
X17.148 Y-29.036
X16.956 Y-29.
X16.593
G3 X16.358 Y-29.212 R0.246
X17.02 Y-30. R0.693
G1 X17.396
X17.531 Y-29.993
X17.652 Y-29.933
X17.754 Y-29.844
X17.837 Y-29.669
X17.852 Y-29.476
X17.796 Y-29.29
X17.678 Y-29.136
X17.513 Y-29.035
X17.322 Y-29.
X16.956
G3 X16.72 Y-29.22 R0.246
X17.396 Y-30. R0.705
G1 X17.733
X17.868 Y-29.993
X17.993 Y-29.941
X18.099 Y-29.858
X18.19 Y-29.683
X18.21 Y-29.488
X18.158 Y-29.298
X18.041 Y-29.141
X17.874 Y-29.036
X17.681 Y-29.
X17.322
G3 X17.088 Y-29.204 R0.247
X17.733 Y-30. R0.679
G1 X18.096
X18.231 Y-29.993
X18.355 Y-29.939
X18.461 Y-29.855
X18.55 Y-29.681
X18.57 Y-29.486
X18.518 Y-29.297
X18.4 Y-29.14
X18.234 Y-29.036
X18.041 Y-29.
X17.681
G3 X17.446 Y-29.206 R0.247
X18.096 Y-30. R0.683
G1 X18.473
X18.608 Y-29.993
X18.729 Y-29.935
X18.832 Y-29.848
X18.918 Y-29.673
X18.934 Y-29.479
X18.88 Y-29.292
X18.762 Y-29.138
X18.596 Y-29.036
X18.405 Y-29.
X18.041
G3 X17.806 Y-29.215 R0.246
X18.473 Y-30. R0.697
G1 X18.843
X18.978 Y-29.993
X19.099 Y-29.933
X19.201 Y-29.845
X19.285 Y-29.67
X19.3 Y-29.477
X19.245 Y-29.291
X19.127 Y-29.137
X18.961 Y-29.035
X18.77 Y-29.
X18.405
G3 X18.169 Y-29.219 R0.246
X18.843 Y-30. R0.703
G1 X19.213
X19.348 Y-29.993
X19.469 Y-29.932
X19.57 Y-29.843
X19.653 Y-29.668
X19.667 Y-29.475
X19.611 Y-29.289
X19.493 Y-29.136
X19.328 Y-29.035
X19.137 Y-29.
X18.77
G3 X18.534 Y-29.221 R0.246
X19.213 Y-30. R0.708
G1 X19.576
X19.711 Y-29.993
X19.832 Y-29.933
X19.934 Y-29.845
X20.018 Y-29.67
X20.033 Y-29.476
X19.977 Y-29.291
X19.859 Y-29.137
X19.694 Y-29.035
X19.503 Y-29.
X19.137
G3 X18.901 Y-29.219 R0.246
X19.576 Y-30. R0.704
G1 X19.919
X20.054 Y-29.993
X20.178 Y-29.939
X20.284 Y-29.856
X20.373 Y-29.681
X20.392 Y-29.486
X20.34 Y-29.297
X20.222 Y-29.14
X20.056 Y-29.036
X19.863 Y-29.
X19.503
G3 X19.268 Y-29.207 R0.247
X19.919 Y-30. R0.684
G1 X20.29
X20.425 Y-29.993
X20.547 Y-29.936
X20.651 Y-29.85
X20.737 Y-29.676
X20.755 Y-29.481
X20.701 Y-29.294
X20.584 Y-29.138
X20.418 Y-29.036
X20.226 Y-29.
X19.863
G3 X19.628 Y-29.212 R0.246
X20.29 Y-30. R0.693
G1 X20.653
X20.787 Y-29.993
X20.91 Y-29.936
X21.014 Y-29.85
X21.1 Y-29.675
X21.118 Y-29.481
X21.064 Y-29.294
X20.946 Y-29.138
X20.78 Y-29.036
X20.589 Y-29.
X20.226
G3 X19.991 Y-29.212 R0.246
X20.653 Y-30. R0.693
G1 X21.029
X21.164 Y-29.993
X21.285 Y-29.933
X21.386 Y-29.844
X21.469 Y-29.669
X21.484 Y-29.476
X21.429 Y-29.29
X21.311 Y-29.136
X21.145 Y-29.035
X20.955 Y-29.
X20.589
G3 X20.352 Y-29.22 R0.246
X21.029 Y-30. R0.705
G1 X21.366
X21.501 Y-29.993
X21.625 Y-29.941
X21.732 Y-29.858
X21.822 Y-29.683
X21.843 Y-29.488
X21.791 Y-29.298
X21.673 Y-29.141
X21.507 Y-29.036
X21.313 Y-29.
X20.955
G3 X20.72 Y-29.204 R0.247
X21.366 Y-30. R0.679
G1 X21.729
X21.864 Y-29.993
X21.988 Y-29.939
X22.093 Y-29.855
X22.183 Y-29.681
X22.203 Y-29.486
X22.15 Y-29.297
X22.033 Y-29.14
X21.867 Y-29.036
X21.674 Y-29.
X21.313
G3 X21.079 Y-29.206 R0.247
X21.729 Y-30. R0.683
G1 X22.105
X22.24 Y-29.993
X22.362 Y-29.935
X22.465 Y-29.848
X22.55 Y-29.673
X22.567 Y-29.479
X22.512 Y-29.292
X22.395 Y-29.138
X22.229 Y-29.036
X22.038 Y-29.
X21.674
G3 X21.438 Y-29.215 R0.246
X22.105 Y-30. R0.697
G1 X22.476
X22.61 Y-29.993
X22.732 Y-29.933
X22.834 Y-29.845
X22.917 Y-29.67
X22.933 Y-29.477
X22.877 Y-29.291
X22.759 Y-29.137
X22.594 Y-29.035
X22.403 Y-29.
X22.038
G3 X21.802 Y-29.219 R0.246
X22.476 Y-30. R0.703
G1 X22.846
X22.981 Y-29.993
X23.101 Y-29.932
X23.203 Y-29.843
X23.285 Y-29.668
X23.299 Y-29.475
X23.244 Y-29.289
X23.125 Y-29.136
X22.96 Y-29.035
X22.77 Y-29.
X22.403
G3 X22.167 Y-29.221 R0.246
X22.846 Y-30. R0.708
G1 X23.209
X23.344 Y-29.993
X23.465 Y-29.933
X23.567 Y-29.845
X23.65 Y-29.67
X23.665 Y-29.476
X23.61 Y-29.291
X23.492 Y-29.137
X23.326 Y-29.035
X23.135 Y-29.
X22.77
G3 X22.533 Y-29.219 R0.246
X23.209 Y-30. R0.704
G1 X23.552
X23.687 Y-29.993
X23.811 Y-29.939
X23.917 Y-29.856
X24.006 Y-29.681
X24.025 Y-29.486
X23.972 Y-29.297
X23.855 Y-29.14
X23.688 Y-29.036
X23.496 Y-29.
X23.135
G3 X22.901 Y-29.207 R0.247
X23.552 Y-30. R0.684
G1 X23.922
X24.057 Y-29.993
X24.18 Y-29.936
X24.284 Y-29.85
X24.37 Y-29.676
X24.388 Y-29.481
X24.334 Y-29.294
X24.216 Y-29.138
X24.05 Y-29.036
X23.859 Y-29.
X23.496
G3 X23.26 Y-29.212 R0.246
X23.922 Y-30. R0.693
G1 X24.285
X24.42 Y-29.993
X24.542 Y-29.936
X24.647 Y-29.85
X24.733 Y-29.675
X24.75 Y-29.481
X24.697 Y-29.294
X24.579 Y-29.138
X24.413 Y-29.036
X24.221 Y-29.
X23.859
G3 X23.623 Y-29.212 R0.246
X24.285 Y-30. R0.693
G1 X24.662
X24.796 Y-29.993
X24.917 Y-29.933
X25.019 Y-29.844
X25.102 Y-29.669
X25.117 Y-29.476
X25.061 Y-29.29
X24.943 Y-29.136
X24.778 Y-29.035
X24.587 Y-29.
X24.221
G3 X23.985 Y-29.22 R0.246
X24.662 Y-30. R0.705
G1 X24.999
X25.133 Y-29.993
X25.258 Y-29.941
X25.365 Y-29.858
X25.455 Y-29.683
X25.475 Y-29.488
X25.423 Y-29.298
X25.306 Y-29.141
X25.139 Y-29.036
X24.946 Y-29.
X24.587
G3 X24.353 Y-29.204 R0.247
X24.999 Y-30. R0.679
G1 X25.362
X25.496 Y-29.993
X25.62 Y-29.939
X25.726 Y-29.855
X25.815 Y-29.681
X25.835 Y-29.486
X25.783 Y-29.297
X25.666 Y-29.14
X25.499 Y-29.036
X25.307 Y-29.
X24.946
G3 X24.711 Y-29.206 R0.247
X25.362 Y-30. R0.683
G1 X25.738
X25.873 Y-29.993
X25.995 Y-29.935
X26.098 Y-29.848
X26.183 Y-29.673
X26.199 Y-29.479
X26.145 Y-29.292
X26.027 Y-29.138
X25.862 Y-29.036
X25.67 Y-29.
X25.307
G3 X25.071 Y-29.215 R0.246
X25.738 Y-30. R0.697
G1 X26.108
X26.243 Y-29.993
X26.364 Y-29.933
X26.466 Y-29.845
X26.55 Y-29.67
X26.565 Y-29.477
X26.51 Y-29.291
X26.392 Y-29.137
X26.226 Y-29.035
X26.036 Y-29.
X25.67
G3 X25.434 Y-29.219 R0.246
X26.108 Y-30. R0.703
G1 X26.479
X26.613 Y-29.993
X26.734 Y-29.932
X26.835 Y-29.843
X26.918 Y-29.668
X26.932 Y-29.475
X26.876 Y-29.289
X26.758 Y-29.136
X26.593 Y-29.035
X26.402 Y-29.
X26.036
G3 X25.799 Y-29.221 R0.246
X26.479 Y-30. R0.708
G1 X26.841
X26.976 Y-29.993
X27.097 Y-29.933
X27.2 Y-29.845
X27.283 Y-29.67
X27.298 Y-29.476
X27.243 Y-29.291
X27.124 Y-29.137
X26.959 Y-29.035
X26.768 Y-29.
X26.402
G3 X26.166 Y-29.219 R0.246
X26.841 Y-30. R0.704
G1 X27.185
X27.319 Y-29.993
X27.443 Y-29.939
X27.549 Y-29.856
X27.638 Y-29.681
X27.658 Y-29.486
X27.605 Y-29.297
X27.487 Y-29.14
X27.321 Y-29.036
X27.128 Y-29.
X26.768
G3 X26.533 Y-29.207 R0.247
X27.185 Y-30. R0.684
G1 X27.555
X27.69 Y-29.993
X27.812 Y-29.936
X27.916 Y-29.85
X28.003 Y-29.676
X28.02 Y-29.481
X27.967 Y-29.294
X27.849 Y-29.138
X27.683 Y-29.036
X27.491 Y-29.
X27.128
G3 X26.893 Y-29.212 R0.246
X27.555 Y-30. R0.693
G1 X27.918
X28.053 Y-29.993
X28.175 Y-29.936
X28.279 Y-29.85
X28.365 Y-29.675
X28.383 Y-29.481
X28.329 Y-29.294
X28.211 Y-29.138
X28.046 Y-29.036
X27.854 Y-29.
X27.491
G3 X27.256 Y-29.212 R0.246
X27.918 Y-30. R0.693
G1 X28.294
X28.429 Y-29.993
X28.55 Y-29.933
X28.652 Y-29.844
X28.735 Y-29.669
X28.749 Y-29.476
X28.694 Y-29.29
X28.576 Y-29.136
X28.41 Y-29.035
X28.22 Y-29.
X27.854
G3 X27.618 Y-29.22 R0.246
X28.294 Y-30. R0.705
G1 X28.631
X28.766 Y-29.993
X28.89 Y-29.941
X28.997 Y-29.858
X29.087 Y-29.683
X29.108 Y-29.488
X29.056 Y-29.298
X28.939 Y-29.141
X28.772 Y-29.036
X28.579 Y-29.
X28.22
G3 X27.986 Y-29.204 R0.247
X28.631 Y-30. R0.679
G1 X28.994
X29.129 Y-29.993
X29.253 Y-29.939
X29.359 Y-29.855
X29.448 Y-29.681
X29.468 Y-29.486
X29.415 Y-29.297
X29.298 Y-29.14
X29.132 Y-29.036
X28.939 Y-29.
X28.579
G3 X28.344 Y-29.206 R0.247
X28.994 Y-30. R0.683
G1 X29.371
X29.505 Y-29.993
X29.627 Y-29.935
X29.73 Y-29.848
X29.815 Y-29.673
X29.832 Y-29.479
X29.778 Y-29.292
X29.66 Y-29.138
X29.494 Y-29.036
X29.303 Y-29.
X28.939
G3 X28.703 Y-29.215 R0.246
X29.371 Y-30. R0.697
G1 X29.741
X29.876 Y-29.993
X29.997 Y-29.933
X30.099 Y-29.845
X30.183 Y-29.67
X30.198 Y-29.477
X30.143 Y-29.291
X30.024 Y-29.137
X29.859 Y-29.035
X29.668 Y-29.
X29.303
G3 X29.067 Y-29.219 R0.246
X29.741 Y-30. R0.703
G1 X30.111
X30.246 Y-29.993
X30.366 Y-29.932
X30.468 Y-29.843
X30.55 Y-29.668
X30.565 Y-29.475
X30.509 Y-29.289
X30.391 Y-29.136
X30.225 Y-29.035
X30.035 Y-29.
X29.668
G3 X29.432 Y-29.221 R0.246
X30.111 Y-30. R0.708
G1 X30.474
X30.609 Y-29.993
X30.73 Y-29.933
X30.832 Y-29.845
X30.915 Y-29.67
X30.93 Y-29.476
X30.875 Y-29.291
X30.757 Y-29.137
X30.591 Y-29.035
X30.401 Y-29.
X30.035
G3 X29.799 Y-29.219 R0.246
X30.474 Y-30. R0.704
G1 X30.817
X30.952 Y-29.993
X31.076 Y-29.939
X31.182 Y-29.856
X31.271 Y-29.681
X31.29 Y-29.486
X31.238 Y-29.297
X31.12 Y-29.14
X30.954 Y-29.036
X30.761 Y-29.
X30.401
G3 X30.166 Y-29.207 R0.247
X30.817 Y-30. R0.684
G1 X31.187
X31.322 Y-29.993
X31.445 Y-29.936
X31.549 Y-29.85
X31.635 Y-29.676
X31.653 Y-29.481
X31.599 Y-29.294
X31.481 Y-29.138
X31.316 Y-29.036
X31.124 Y-29.
X30.761
G3 X30.525 Y-29.212 R0.246
X31.187 Y-30. R0.693
G1 X31.55
X31.685 Y-29.993
X31.808 Y-29.936
X31.912 Y-29.85
X31.998 Y-29.675
X32.016 Y-29.481
X31.962 Y-29.294
X31.844 Y-29.138
X31.678 Y-29.036
X31.486 Y-29.
X31.124
G3 X30.888 Y-29.212 R0.246
X31.55 Y-30. R0.693
G1 X31.927
X32.062 Y-29.993
X32.182 Y-29.933
X32.284 Y-29.844
X32.367 Y-29.669
X32.382 Y-29.476
X32.327 Y-29.29
X32.208 Y-29.136
X32.043 Y-29.035
X31.852 Y-29.
X31.486
G3 X31.25 Y-29.22 R0.246
X31.927 Y-30. R0.705
G1 X32.264
X32.399 Y-29.993
X32.523 Y-29.941
X32.63 Y-29.858
X32.72 Y-29.683
X32.741 Y-29.488
X32.689 Y-29.298
X32.571 Y-29.141
X32.404 Y-29.036
X32.211 Y-29.
X31.852
G3 X31.618 Y-29.204 R0.247
X32.264 Y-30. R0.679
G1 X32.627
X32.762 Y-29.993
X32.885 Y-29.939
X32.991 Y-29.855
X33.08 Y-29.681
X33.1 Y-29.486
X33.048 Y-29.297
X32.931 Y-29.14
X32.764 Y-29.036
X32.572 Y-29.
X32.211
G3 X31.977 Y-29.206 R0.247
X32.627 Y-30. R0.683
G1 X33.003
X33.138 Y-29.993
X33.26 Y-29.935
X33.363 Y-29.848
X33.448 Y-29.673
X33.465 Y-29.479
X33.41 Y-29.292
X33.292 Y-29.138
X33.127 Y-29.036
X32.936 Y-29.
X32.572
G3 X32.336 Y-29.215 R0.246
X33.003 Y-30. R0.697
G1 X33.373
X33.508 Y-29.993
X33.629 Y-29.933
X33.732 Y-29.845
X33.815 Y-29.67
X33.83 Y-29.477
X33.775 Y-29.291
X33.657 Y-29.137
X33.492 Y-29.035
X33.301 Y-29.
X32.936
G3 X32.699 Y-29.219 R0.246
X33.373 Y-30. R0.703
G1 X33.744
X33.879 Y-29.993
X33.999 Y-29.932
X34.101 Y-29.843
X34.183 Y-29.668
X34.197 Y-29.475
X34.142 Y-29.289
X34.023 Y-29.136
X33.858 Y-29.035
X33.667 Y-29.
X33.301
G3 X33.064 Y-29.221 R0.246
X33.744 Y-30. R0.708
G1 X34.107
X34.242 Y-29.993
X34.362 Y-29.933
X34.465 Y-29.845
X34.548 Y-29.67
X34.563 Y-29.476
X34.508 Y-29.291
X34.39 Y-29.137
X34.224 Y-29.035
X34.033 Y-29.
X33.667
G3 X33.431 Y-29.219 R0.246
X34.107 Y-30. R0.704
G1 X34.45
X34.585 Y-29.993
X34.708 Y-29.939
X34.814 Y-29.856
X34.903 Y-29.681
X34.923 Y-29.486
X34.87 Y-29.297
X34.753 Y-29.14
X34.586 Y-29.036
X34.393 Y-29.
X34.033
G3 X33.799 Y-29.207 R0.247
X34.45 Y-30. R0.684
G1 X34.82
X34.955 Y-29.993
X35.077 Y-29.936
X35.181 Y-29.85
X35.268 Y-29.676
X35.285 Y-29.481
X35.232 Y-29.294
X35.114 Y-29.138
X34.948 Y-29.036
X34.756 Y-29.
X34.393
G3 X34.158 Y-29.212 R0.246
X34.82 Y-30. R0.693
G1 X35.183
X35.318 Y-29.993
X35.44 Y-29.936
X35.544 Y-29.85
X35.631 Y-29.675
X35.648 Y-29.481
X35.594 Y-29.294
X35.477 Y-29.138
X35.311 Y-29.036
