%
(????_?????????)
(T1  D=3.175 CR=0 - ZMIN=-20 - flat end mill)
G90 G94
G17
G21

(Pocket1)
M9
T1 M6
S10000 M3
G54
M8
G0 X-41.167 Y23.49
Z10
Z3
G1 Z2.413 F762
G3 X-41.17 Y23.509 Z2.304 I-1.498 J-0.175
X-41.178 Y23.564 Z2.209 I-1.496 J-0.194
X-41.194 Y23.647 Z2.138 I-1.488 J-0.248
X-41.22 Y23.747 Z2.1 I-1.471 J-0.331
X-44.111 Y22.885 Z1.265 I-1.445 J-0.431
X-41.22 Y23.747 Z0.429 I1.445 J0.431
X-44.111 Y22.885 Z-0.406 I-1.445 J-0.431
X-41.22 Y23.747 Z-1.242 I1.445 J0.431
X-44.174 Y23.316 Z-2 I-1.445 J-0.431
G1 Y23.17
G3 X-43.464 Y22.461 I0.71
G1 X43.463
G3 X44.173 Y23.17 J0.71
G1 X44.172 Y23.462
G3 X43.463 Y24.171 I-0.71
G1 X-43.464
G3 X-44.174 Y23.462 J-0.71
G1 Y23.316
G2 X-45.151 Y22.245 I-1.076
G3 X-45.474 Y20.831 I0.07 J-0.76
X-44.977 Y20.693 I0.496 J0.826
G1 X44.977
G3 X45.94 Y21.657 J0.963
G1 Y24.975
G3 X44.976 Y25.938 I-0.963
G1 X-44.978
G3 X-45.941 Y24.975 J-0.963
G1 Y21.657
G3 X-45.474 Y20.831 I0.963
G2 X-44.219 Y19.398 I-1.608 J-2.675
G3 X-42.626 Y18.353 I1.593 J0.691
G1 X47.318
G3 X48.281 Y19.316 J0.963
G1 X48.28 Y27.316
G3 X47.317 Y28.279 I-0.963
G1 X-47.318
G3 X-48.281 Y27.316 J-0.963
G1 Y19.316
G3 X-47.318 Y18.353 I0.963
G1 X-42.626
G2 X-40.871 Y17.182 J-1.902
G3 X-39.115 Y16.012 I1.755 J0.731
G1 X49.658
G3 X50.621 Y16.975 J0.963
G1 X50.62 Y29.656
G3 X49.657 Y30.62 I-0.963
G1 X-49.659
G3 X-50.622 Y29.656 J-0.963
G1 Y16.975
G3 X-49.658 Y16.012 I0.963
G1 X-39.115
G2 X-37.36 Y14.842 J-1.902
G3 X-35.604 Y13.672 I1.755 J0.731
G1 X51.999
G3 X52.962 Y14.635 J0.963
G1 X52.961 Y31.997
G3 X51.997 Y32.96 I-0.963
G1 X-52
G3 X-52.963 Y31.997 J-0.963
G1 X-52.962 Y14.635
G3 X-51.999 Y13.672 I0.963
G1 X-35.604
G2 X-33.849 Y12.501 J-1.902
G3 X-32.093 Y11.331 I1.755 J0.731
G1 X54.34
G3 X55.303 Y12.294 J0.963
G1 X55.301 Y34.338
G3 X54.338 Y35.301 I-0.963
G1 X-54.34
G3 X-55.303 Y34.338 J-0.963
G1 Y12.294
G3 X-54.34 Y11.331 I0.963
G1 X-32.093
G2 X-30.338 Y10.161 J-1.902
G3 X-28.583 Y8.99 I1.755 J0.731
G1 X56.681
G3 X57.644 Y9.954 J0.963
G1 X57.642 Y36.678
G3 X56.678 Y37.641 I-0.963
G1 X-56.681
G3 X-57.644 Y36.678 J-0.963
G1 X-57.643 Y9.954
G3 X-56.68 Y8.99 I0.963
G1 X-28.583
G2 X-26.816 Y7.812 J-1.914
G3 X-25.049 Y6.635 I1.767 J0.736
G1 X60
X59.997 Y39.992
X59.991 Y39.997
X-59.991
X-59.996 Y39.996
X-60 Y39.965
X-59.999 Y6.635
X-25.049
G3 X-24.965 Y6.648 Z-1.986 J0.277
X-24.895 Y6.681 Z-1.947 I-0.084 J0.264
X-24.848 Y6.721 Z-1.886 I-0.154 J0.231
X-24.823 Y6.751 Z-1.808 I-0.201 J0.192
X-24.815 Y6.762 Z-1.723 I-0.226 J0.161
G0 Z5
X-41.167 Y23.49
Z0.413
G3 X-41.17 Y23.509 Z0.304 I-1.498 J-0.175 F762
X-41.178 Y23.564 Z0.209 I-1.496 J-0.194
X-41.194 Y23.647 Z0.138 I-1.488 J-0.248
X-41.22 Y23.747 Z0.1 I-1.471 J-0.331
X-44.111 Y22.885 Z-0.735 I-1.445 J-0.431
X-41.22 Y23.747 Z-1.571 I1.445 J0.431
X-44.111 Y22.885 Z-2.406 I-1.445 J-0.431
X-41.22 Y23.747 Z-3.242 I1.445 J0.431
X-44.174 Y23.316 Z-4 I-1.445 J-0.431
G1 Y23.17
G3 X-43.464 Y22.461 I0.71
G1 X43.463
G3 X44.173 Y23.17 J0.71
G1 X44.172 Y23.462
G3 X43.463 Y24.171 I-0.71
G1 X-43.464
G3 X-44.174 Y23.462 J-0.71
G1 Y23.316
G2 X-45.151 Y22.245 I-1.076
G3 X-45.474 Y20.831 I0.07 J-0.76
X-44.977 Y20.693 I0.496 J0.826
G1 X44.977
G3 X45.94 Y21.657 J0.963
G1 Y24.975
G3 X44.976 Y25.938 I-0.963
G1 X-44.978
G3 X-45.941 Y24.975 J-0.963
G1 Y21.657
G3 X-45.474 Y20.831 I0.963
G2 X-44.219 Y19.398 I-1.608 J-2.675
G3 X-42.626 Y18.353 I1.593 J0.691
G1 X47.318
G3 X48.281 Y19.316 J0.963
G1 X48.28 Y27.316
G3 X47.317 Y28.279 I-0.963
G1 X-47.318
G3 X-48.281 Y27.316 J-0.963
G1 Y19.316
G3 X-47.318 Y18.353 I0.963
G1 X-42.626
G2 X-40.871 Y17.182 J-1.902
G3 X-39.115 Y16.012 I1.755 J0.731
G1 X49.658
G3 X50.621 Y16.975 J0.963
G1 X50.62 Y29.656
G3 X49.657 Y30.62 I-0.963
G1 X-49.659
G3 X-50.622 Y29.656 J-0.963
G1 Y16.975
G3 X-49.658 Y16.012 I0.963
G1 X-39.115
G2 X-37.36 Y14.842 J-1.902
G3 X-35.604 Y13.672 I1.755 J0.731
G1 X51.999
G3 X52.962 Y14.635 J0.963
G1 X52.961 Y31.997
G3 X51.997 Y32.96 I-0.963
G1 X-52
G3 X-52.963 Y31.997 J-0.963
G1 X-52.962 Y14.635
G3 X-51.999 Y13.672 I0.963
G1 X-35.604
G2 X-33.849 Y12.501 J-1.902
G3 X-32.093 Y11.331 I1.755 J0.731
G1 X54.34
G3 X55.303 Y12.294 J0.963
G1 X55.301 Y34.338
G3 X54.338 Y35.301 I-0.963
G1 X-54.34
G3 X-55.303 Y34.338 J-0.963
G1 Y12.294
G3 X-54.34 Y11.331 I0.963
G1 X-32.093
G2 X-30.338 Y10.161 J-1.902
G3 X-28.583 Y8.99 I1.755 J0.731
G1 X56.681
G3 X57.644 Y9.954 J0.963
G1 X57.642 Y36.678
G3 X56.678 Y37.641 I-0.963
G1 X-56.681
G3 X-57.644 Y36.678 J-0.963
G1 X-57.643 Y9.954
G3 X-56.68 Y8.99 I0.963
G1 X-28.583
G2 X-26.816 Y7.812 J-1.914
G3 X-25.049 Y6.635 I1.767 J0.736
G1 X60
X59.997 Y39.992
X59.991 Y39.997
X-59.991
X-59.996 Y39.996
X-60 Y39.965
X-59.999 Y6.635
X-25.049
G3 X-24.965 Y6.648 Z-3.986 J0.277
X-24.895 Y6.681 Z-3.947 I-0.084 J0.264
X-24.848 Y6.721 Z-3.886 I-0.154 J0.231
X-24.823 Y6.751 Z-3.808 I-0.201 J0.192
X-24.815 Y6.762 Z-3.723 I-0.226 J0.161
G0 Z5
X-43.784 Y22.305
Z3
G1 Z-1.587 F762
G3 X-43.771 Y22.291 Z-1.696 I1.119 J1.011
X-43.733 Y22.251 Z-1.791 I1.106 J1.025
X-43.672 Y22.193 Z-1.862 I1.068 J1.065
X-43.592 Y22.126 Z-1.9 I1.006 J1.123
X-41.738 Y24.506 Z-2.735 I0.927 J1.19
X-43.592 Y22.126 Z-3.571 I-0.927 J-1.19
X-41.738 Y24.506 Z-4.406 I0.927 J1.19
X-44.174 Y23.316 Z-5 I-0.927 J-1.19
G1 Y23.17
G3 X-43.464 Y22.461 I0.71
G1 X43.463
G3 X44.173 Y23.17 J0.71
G1 X44.172 Y23.462
G3 X43.463 Y24.171 I-0.71
G1 X-43.464
G3 X-44.174 Y23.462 J-0.71
G1 Y23.316
G2 X-45.151 Y22.245 I-1.076
G3 X-45.474 Y20.831 I0.07 J-0.76
X-44.977 Y20.693 I0.496 J0.826
G1 X44.977
G3 X45.94 Y21.657 J0.963
G1 Y24.975
G3 X44.976 Y25.938 I-0.963
G1 X-44.978
G3 X-45.941 Y24.975 J-0.963
G1 Y21.657
G3 X-45.474 Y20.831 I0.963
G2 X-44.219 Y19.398 I-1.608 J-2.675
G3 X-42.626 Y18.353 I1.593 J0.691
G1 X47.318
G3 X48.281 Y19.316 J0.963
G1 X48.28 Y27.316
G3 X47.317 Y28.279 I-0.963
G1 X-47.318
G3 X-48.281 Y27.316 J-0.963
G1 Y19.316
G3 X-47.318 Y18.353 I0.963
G1 X-42.626
G2 X-40.871 Y17.182 J-1.902
G3 X-39.115 Y16.012 I1.755 J0.731
G1 X49.658
G3 X50.621 Y16.975 J0.963
G1 X50.62 Y29.656
G3 X49.657 Y30.62 I-0.963
G1 X-49.659
G3 X-50.622 Y29.656 J-0.963
G1 Y16.975
G3 X-49.658 Y16.012 I0.963
G1 X-39.115
G2 X-37.36 Y14.842 J-1.902
G3 X-35.604 Y13.672 I1.755 J0.731
G1 X51.999
G3 X52.962 Y14.635 J0.963
G1 X52.961 Y31.997
G3 X51.997 Y32.96 I-0.963
G1 X-52
G3 X-52.963 Y31.997 J-0.963
G1 X-52.962 Y14.635
G3 X-51.999 Y13.672 I0.963
G1 X-35.604
G2 X-33.849 Y12.501 J-1.902
G3 X-32.093 Y11.331 I1.755 J0.731
G1 X54.34
G3 X55.303 Y12.294 J0.963
G1 X55.301 Y34.338
G3 X54.338 Y35.301 I-0.963
G1 X-54.34
G3 X-55.303 Y34.338 J-0.963
G1 Y12.294
G3 X-54.34 Y11.331 I0.963
G1 X-32.093
G2 X-30.338 Y10.161 J-1.902
G3 X-28.583 Y8.99 I1.755 J0.731
G1 X56.681
G3 X57.644 Y9.954 J0.963
G1 X57.642 Y36.678
G3 X56.678 Y37.641 I-0.963
G1 X-56.681
G3 X-57.644 Y36.678 J-0.963
G1 X-57.643 Y9.954
G3 X-56.68 Y8.99 I0.963
G1 X-28.583
G2 X-26.816 Y7.812 J-1.914
G3 X-25.049 Y6.635 I1.767 J0.736
G1 X60
X59.997 Y39.992
X59.991 Y39.997
X-59.991
X-59.996 Y39.996
X-60 Y39.965
X-59.999 Y6.635
X-25.049
G3 X-24.965 Y6.648 Z-4.986 J0.277
X-24.895 Y6.681 Z-4.947 I-0.084 J0.264
X-24.848 Y6.721 Z-4.886 I-0.154 J0.231
X-24.823 Y6.751 Z-4.808 I-0.201 J0.192
X-24.815 Y6.762 Z-4.723 I-0.226 J0.161
G0 Z5
X1.055 Y12.7
Z-2.587
G3 X1.053 Y12.719 Z-2.696 I-1.498 J-0.175 F762
X1.045 Y12.773 Z-2.791 I-1.496 J-0.194
X1.028 Y12.856 Z-2.862 I-1.488 J-0.248
X1.002 Y12.956 Z-2.9 I-1.471 J-0.331
X-1.888 Y12.094 Z-3.735 I-1.445 J-0.431
X1.002 Y12.956 Z-4.571 I1.445 J0.431
X-1.888 Y12.094 Z-5.406 I-1.445 J-0.431
X1.002 Y12.956 Z-6.242 I1.445 J0.431
X-1.951 Y12.525 Z-7 I-1.445 J-0.431
X0.496 I1.224
X-0.497 I-0.496
X0.496 I0.496
G2 X0.933 Y13.36 I1.017
G3 X0.839 Y14.298 I-0.308 J0.443
G1 X0.475 Y14.456
X-0.158 Y14.508
X-0.796 Y14.348
X-1.342 Y13.993
X-1.753 Y13.466
X-1.963 Y12.853
Y12.197
X-1.751 Y11.578
X-1.348 Y11.061
X-0.8 Y10.702
X-0.158 Y10.542
X0.475 Y10.594
X1.09 Y10.86
X1.569 Y11.301
X1.883 Y11.879
X1.988 Y12.512
X1.882 Y13.173
X1.572 Y13.746
X1.081 Y14.194
X0.839 Y14.298
G3 X0.744 Y14.308 I-0.063 J-0.146
G1 X-0.936 Y13.95
G3 X0.05 Y11.1 Z-7.835 I0.493 J-1.425
X-0.936 Y13.95 Z-8.671 I-0.493 J1.425
X-1.951 Y12.525 Z-9 I0.493 J-1.425
X0.496 I1.224
X-0.497 I-0.496
X0.496 I0.496
G2 X0.933 Y13.36 I1.017
G3 X0.839 Y14.298 I-0.308 J0.443
G1 X0.475 Y14.456
X-0.158 Y14.508
X-0.796 Y14.348
X-1.342 Y13.993
X-1.753 Y13.466
X-1.963 Y12.853
Y12.197
X-1.751 Y11.578
X-1.348 Y11.061
X-0.8 Y10.702
X-0.158 Y10.542
X0.475 Y10.594
X1.09 Y10.86
X1.569 Y11.301
X1.883 Y11.879
X1.988 Y12.512
X1.882 Y13.173
X1.572 Y13.746
X1.081 Y14.194
X0.839 Y14.298
G3 X0.744 Y14.308 I-0.063 J-0.146
G1 X-0.936 Y13.95
G3 X0.05 Y11.1 Z-9.835 I0.493 J-1.425
X-0.936 Y13.95 Z-10.671 I-0.493 J1.425
X-1.951 Y12.525 Z-11 I0.493 J-1.425
X0.496 I1.224
X-0.497 I-0.496
X0.496 I0.496
G2 X0.933 Y13.36 I1.017
G3 X0.839 Y14.298 I-0.308 J0.443
G1 X0.475 Y14.456
X-0.158 Y14.508
X-0.796 Y14.348
X-1.342 Y13.993
X-1.753 Y13.466
X-1.963 Y12.853
Y12.197
X-1.751 Y11.578
X-1.348 Y11.061
X-0.8 Y10.702
X-0.158 Y10.542
X0.475 Y10.594
X1.09 Y10.86
X1.569 Y11.301
X1.883 Y11.879
X1.988 Y12.512
X1.882 Y13.173
X1.572 Y13.746
X1.081 Y14.194
X0.839 Y14.298
G3 X0.63 Y14.213 I-0.063 J-0.146
G1 X-0.637 Y11.113
G3 X-0.579 Y10.921 I0.147 J-0.06
X1.11 Y13.42 Z-11.835 I0.844 J1.25
X-0.579 Y10.921 Z-12.671 I-0.844 J-1.25
X1.17 Y10.964 Z-13 I0.844 J1.25
X1.415 Y12.677 I-0.734 J0.979
X-0.298 Y12.922 I-0.979 J-0.734
X0.298 Y12.128 I0.298 J-0.397
X-0.298 Y12.922 I-0.298 J0.397
G2 X-1.245 Y12.616 I-0.919 J1.225
G3 X-1.831 Y11.811 I-0.011 J-0.607
G1 X-1.751 Y11.578
X-1.348 Y11.061
X-0.8 Y10.702
X-0.158 Y10.542
X0.475 Y10.594
X1.09 Y10.86
X1.569 Y11.301
X1.883 Y11.879
X1.988 Y12.512
X1.882 Y13.173
X1.572 Y13.746
X1.081 Y14.194
X0.475 Y14.456
X-0.158 Y14.508
X-0.796 Y14.348
X-1.342 Y13.993
X-1.753 Y13.466
X-1.963 Y12.853
Y12.197
X-1.831 Y11.811
G3 X-1.77 Y11.732 I0.15 J0.052
G1 X-0.579 Y10.921
G3 X1.11 Y13.42 Z-13.835 I0.844 J1.25
X-0.579 Y10.921 Z-14.671 I-0.844 J-1.25
X1.17 Y10.964 Z-15 I0.844 J1.25
X1.415 Y12.677 I-0.734 J0.979
X-0.298 Y12.922 I-0.979 J-0.734
X0.298 Y12.128 I0.298 J-0.397
X-0.298 Y12.922 I-0.298 J0.397
G2 X-1.245 Y12.616 I-0.919 J1.225
G3 X-1.831 Y11.811 I-0.011 J-0.607
G1 X-1.751 Y11.578
X-1.348 Y11.061
X-0.8 Y10.702
X-0.158 Y10.542
X0.475 Y10.594
X1.09 Y10.86
X1.569 Y11.301
X1.883 Y11.879
X1.988 Y12.512
X1.882 Y13.173
X1.572 Y13.746
X1.081 Y14.194
X0.475 Y14.456
X-0.158 Y14.508
X-0.796 Y14.348
X-1.342 Y13.993
X-1.753 Y13.466
X-1.963 Y12.853
Y12.197
X-1.831 Y11.811
G3 X-1.77 Y11.732 I0.15 J0.052
G1 X-0.579 Y10.921
G3 X1.11 Y13.42 Z-15.835 I0.844 J1.25
X-0.579 Y10.921 Z-16.671 I-0.844 J-1.25
X1.17 Y10.964 Z-17 I0.844 J1.25
X1.415 Y12.677 I-0.734 J0.979
X-0.298 Y12.922 I-0.979 J-0.734
X0.298 Y12.128 I0.298 J-0.397
X-0.298 Y12.922 I-0.298 J0.397
G2 X-1.245 Y12.616 I-0.919 J1.225
G3 X-1.831 Y11.811 I-0.011 J-0.607
G1 X-1.751 Y11.578
X-1.348 Y11.061
X-0.8 Y10.702
X-0.158 Y10.542
X0.475 Y10.594
X1.09 Y10.86
X1.569 Y11.301
X1.883 Y11.879
X1.988 Y12.512
X1.882 Y13.173
X1.572 Y13.746
X1.081 Y14.194
X0.475 Y14.456
X-0.158 Y14.508
X-0.796 Y14.348
X-1.342 Y13.993
X-1.753 Y13.466
X-1.963 Y12.853
Y12.197
X-1.831 Y11.811
G3 X-1.534 Y11.802 I0.15 J0.052
G1 X-0.737 Y13.74
G3 X-0.936 Y13.95 I-0.147 J0.06
X0.05 Y11.1 Z-17.835 I0.493 J-1.425
X-0.936 Y13.95 Z-18.671 I-0.493 J1.425
X-1.951 Y12.525 Z-19 I0.493 J-1.425
X0.496 I1.224
X-0.497 I-0.496
X0.496 I0.496
G2 X0.933 Y13.36 I1.017
G3 X0.839 Y14.298 I-0.308 J0.443
G1 X0.475 Y14.456
X-0.158 Y14.508
X-0.796 Y14.348
X-1.342 Y13.993
X-1.753 Y13.466
X-1.963 Y12.853
Y12.197
X-1.751 Y11.578
X-1.348 Y11.061
X-0.8 Y10.702
X-0.158 Y10.542
X0.475 Y10.594
X1.09 Y10.86
X1.569 Y11.301
X1.883 Y11.879
X1.988 Y12.512
X1.882 Y13.173
X1.572 Y13.746
X1.081 Y14.194
X0.839 Y14.298
G3 X0.618 Y14.161 I-0.063 J-0.146
G1 X0.498 Y11.75
G3 X0.786 Y11.65 I0.159 J-0.008
X-1.671 Y13.4 Z-19.835 I-1.228 J0.875
X-1.951 Y12.525 Z-20 I1.228 J-0.875
X0.496 I1.224
X-0.497 I-0.496
X0.496 I0.496
G2 X0.933 Y13.36 I1.017
G3 X0.839 Y14.298 I-0.308 J0.443
G1 X0.475 Y14.456
X-0.158 Y14.508
X-0.796 Y14.348
X-1.342 Y13.993
X-1.753 Y13.466
X-1.963 Y12.853
Y12.197
X-1.751 Y11.578
X-1.348 Y11.061
X-0.8 Y10.702
X-0.158 Y10.542
X0.475 Y10.594
X1.09 Y10.86
X1.569 Y11.301
X1.883 Y11.879
X1.988 Y12.512
X1.882 Y13.173
X1.572 Y13.746
X1.081 Y14.194
X0.839 Y14.298
G3 X0.757 Y14.32 Z-19.986 I-0.11 J-0.255
X0.68 Y14.317 Z-19.947 I-0.027 J-0.276
X0.621 Y14.299 Z-19.886 I0.05 J-0.273
X0.586 Y14.281 Z-19.808 I0.108 J-0.255
X0.575 Y14.274 Z-19.722 I0.143 J-0.238
G0 Z5
X-53.143 Y-15.677
Z2.413
G3 X-53.124 Y-15.675 Z2.304 I-0.175 J1.498 F762
X-53.069 Y-15.667 Z2.209 I-0.194 J1.496
X-52.986 Y-15.65 Z2.138 I-0.248 J1.488
X-52.886 Y-15.624 Z2.1 I-0.331 J1.471
X-53.748 Y-12.734 Z1.265 I-0.431 J1.445
X-52.886 Y-15.624 Z0.429 I0.431 J-1.445
X-53.748 Y-12.734 Z-0.406 I-0.431 J1.445
X-52.886 Y-15.624 Z-1.242 I0.431 J-1.445
X-53.317 Y-12.671 Z-2 I-0.431 J1.445
G1 X-53.434
G3 X-53.962 Y-13.2 J-0.528
G1 Y-13.433
G3 X-53.434 Y-13.961 I0.528
G1 X53.149
G3 Y-12.673 J0.644
G1 X-53.317 Y-12.671
G2 X-54.125 Y-11.988 J0.82
G3 X-55.165 Y-11.789 I-0.557 J-0.094
X-55.302 Y-12.282 I0.814 J-0.493
G1 Y-14.338
G3 X-54.339 Y-15.301 I0.963
G1 X54.341
G3 X55.304 Y-14.338 J0.963
G1 Y-12.297
G3 X54.341 Y-11.333 I-0.963
G1 X-54.351 Y-11.331
G3 X-55.165 Y-11.789 J-0.951
G2 X-56.599 Y-13.042 I-2.686 J1.627
G3 X-57.642 Y-14.635 I0.692 J-1.592
G1 Y-16.678
G3 X-56.679 Y-17.642 I0.963
G1 X56.681
G3 X57.644 Y-16.678 J0.963
G1 Y-9.956
G3 X56.681 Y-8.993 I-0.963
G1 X-56.692 Y-8.99
G3 X-57.643 Y-9.942 J-0.951
G1 X-57.642 Y-14.635
G2 X-58.82 Y-16.402 I-1.914
G3 X-59.997 Y-18.168 I0.736 J-1.767
G1 Y-19.992
X-59.991 Y-19.997
X59.991
X59.996 Y-19.996
X60 Y-19.965
Y-6.637
X-60 Y-6.635
X-59.997 Y-18.168
G3 X-57.568 Y-19.362 Z-2.493 I1.508
G1 X-52.396 Y-15.373 Z-3.451
G3 X-53.317 Y-12.671 Z-4 I-0.921 J1.194
G1 X-53.434
G3 X-53.962 Y-13.2 J-0.528
G1 Y-13.433
G3 X-53.434 Y-13.961 I0.528
G1 X53.149
G3 Y-12.673 J0.644
G1 X-53.317 Y-12.671
G2 X-54.125 Y-11.988 J0.82
G3 X-55.165 Y-11.789 I-0.557 J-0.094
X-55.302 Y-12.282 I0.814 J-0.493
G1 Y-14.338
G3 X-54.339 Y-15.301 I0.963
G1 X54.341
G3 X55.304 Y-14.338 J0.963
G1 Y-12.297
G3 X54.341 Y-11.333 I-0.963
G1 X-54.351 Y-11.331
G3 X-55.165 Y-11.789 J-0.951
G2 X-56.599 Y-13.042 I-2.686 J1.627
G3 X-57.642 Y-14.635 I0.692 J-1.592
G1 Y-16.678
G3 X-56.679 Y-17.642 I0.963
G1 X56.681
G3 X57.644 Y-16.678 J0.963
G1 Y-9.956
G3 X56.681 Y-8.993 I-0.963
G1 X-56.692 Y-8.99
G3 X-57.643 Y-9.942 J-0.951
G1 X-57.642 Y-14.635
G2 X-58.82 Y-16.402 I-1.914
G3 X-59.997 Y-18.168 I0.736 J-1.767
G1 Y-19.992
X-59.991 Y-19.997
X59.991
X59.996 Y-19.996
X60 Y-19.965
Y-6.637
X-60 Y-6.635
X-59.997 Y-18.168
G3 X-57.568 Y-19.362 Z-4.246 I1.508
G1 X-52.396 Y-15.373 Z-4.725
G3 X-53.317 Y-12.671 Z-5 I-0.921 J1.194
G1 X-53.434
G3 X-53.962 Y-13.2 J-0.528
G1 Y-13.433
G3 X-53.434 Y-13.961 I0.528
G1 X53.149
G3 Y-12.673 J0.644
G1 X-53.317 Y-12.671
G2 X-54.125 Y-11.988 J0.82
G3 X-55.165 Y-11.789 I-0.557 J-0.094
X-55.302 Y-12.282 I0.814 J-0.493
G1 Y-14.338
G3 X-54.339 Y-15.301 I0.963
G1 X54.341
G3 X55.304 Y-14.338 J0.963
G1 Y-12.297
G3 X54.341 Y-11.333 I-0.963
G1 X-54.351 Y-11.331
G3 X-55.165 Y-11.789 J-0.951
G2 X-56.599 Y-13.042 I-2.686 J1.627
G3 X-57.642 Y-14.635 I0.692 J-1.592
G1 Y-16.678
G3 X-56.679 Y-17.642 I0.963
G1 X56.681
G3 X57.644 Y-16.678 J0.963
G1 Y-9.956
G3 X56.681 Y-8.993 I-0.963
G1 X-56.692 Y-8.99
G3 X-57.643 Y-9.942 J-0.951
G1 X-57.642 Y-14.635
G2 X-58.82 Y-16.402 I-1.914
G3 X-59.997 Y-18.168 I0.736 J-1.767
G1 Y-19.992
X-59.991 Y-19.997
X59.991
X59.996 Y-19.996
X60 Y-19.965
Y-6.637
X-60 Y-6.635
X-59.997 Y-18.168
G3 X-59.984 Y-18.253 Z-4.986 I0.278
X-59.951 Y-18.322 Z-4.947 I0.264 J0.084
X-59.911 Y-18.369 Z-4.886 I0.231 J0.154
X-59.881 Y-18.394 Z-4.808 I0.191 J0.201
X-59.87 Y-18.402 Z-4.723 I0.161 J0.226
G0 Z5
X-0.774 Y-11.785
Z-2.587
G3 X-0.788 Y-11.799 Z-2.696 I1.038 J-1.094 F762
X-0.827 Y-11.838 Z-2.791 I1.052 J-1.08
X-0.883 Y-11.901 Z-2.862 I1.091 J-1.041
X-0.948 Y-11.982 Z-2.9 I1.148 J-0.978
X1.476 Y-13.776 Z-3.735 I1.212 J-0.897
X-0.948 Y-11.982 Z-4.571 I-1.212 J0.897
X1.476 Y-13.776 Z-5.406 I1.212 J-0.897
X-0.948 Y-11.982 Z-6.242 I-1.212 J0.897
X1.169 Y-14.086 Z-7 I1.212 J-0.897
X-0.299 Y-12.128 I-0.734 J0.979
X0.297 Y-12.922 I0.298 J-0.397
X-0.299 Y-12.128 I-0.298 J0.397
G2 X-1.246 Y-12.434 I-0.92 J1.227
G3 X-1.831 Y-13.239 I-0.011 J-0.607
G1 X-1.751 Y-13.472
X-1.343 Y-13.993
X-0.802 Y-14.346
X-0.158 Y-14.508
X0.475 Y-14.456
X1.09 Y-14.19
X1.573 Y-13.743
X1.883 Y-13.17
X1.989 Y-12.536
X1.883 Y-11.885
X1.836 Y-11.792
X1.577 Y-11.313
X1.089 Y-10.859
X0.475 Y-10.594
X-0.158 Y-10.542
X-0.8 Y-10.703
X-1.348 Y-11.06
X-1.752 Y-11.582
X-1.963 Y-12.197
Y-12.852
X-1.931 Y-12.947
X-1.831 Y-13.239
G3 X-1.77 Y-13.319 I0.15 J0.052
G1 X-0.58 Y-14.129
G3 X1.109 Y-11.63 Z-7.835 I0.844 J1.25
X-0.58 Y-14.129 Z-8.671 I-0.844 J-1.25
X1.169 Y-14.086 Z-9 I0.844 J1.25
X-0.299 Y-12.128 I-0.734 J0.979
X0.297 Y-12.922 I0.298 J-0.397
X-0.299 Y-12.128 I-0.298 J0.397
G2 X-1.246 Y-12.434 I-0.92 J1.227
G3 X-1.831 Y-13.239 I-0.011 J-0.607
G1 X-1.751 Y-13.472
X-1.343 Y-13.993
X-0.802 Y-14.346
X-0.158 Y-14.508
X0.475 Y-14.456
X1.09 Y-14.19
X1.573 Y-13.743
X1.883 Y-13.17
X1.989 Y-12.536
X1.883 Y-11.885
X1.836 Y-11.792
X1.577 Y-11.313
X1.089 Y-10.859
X0.475 Y-10.594
X-0.158 Y-10.542
X-0.8 Y-10.703
X-1.348 Y-11.06
X-1.752 Y-11.582
X-1.963 Y-12.197
Y-12.852
X-1.931 Y-12.947
X-1.831 Y-13.239
G3 X-1.77 Y-13.319 I0.15 J0.052
G1 X-0.58 Y-14.129
G3 X1.109 Y-11.63 Z-9.835 I0.844 J1.25
X-0.58 Y-14.129 Z-10.671 I-0.844 J-1.25
X1.169 Y-14.086 Z-11 I0.844 J1.25
X-0.299 Y-12.128 I-0.734 J0.979
X0.297 Y-12.922 I0.298 J-0.397
X-0.299 Y-12.128 I-0.298 J0.397
G2 X-1.246 Y-12.434 I-0.92 J1.227
G3 X-1.831 Y-13.239 I-0.011 J-0.607
G1 X-1.751 Y-13.472
X-1.343 Y-13.993
X-0.802 Y-14.346
X-0.158 Y-14.508
X0.475 Y-14.456
X1.09 Y-14.19
X1.573 Y-13.743
X1.883 Y-13.17
X1.989 Y-12.536
X1.883 Y-11.885
X1.836 Y-11.792
X1.577 Y-11.313
X1.089 Y-10.859
X0.475 Y-10.594
X-0.158 Y-10.542
X-0.8 Y-10.703
X-1.348 Y-11.06
X-1.752 Y-11.582
X-1.963 Y-12.197
Y-12.852
X-1.931 Y-12.947
X-1.831 Y-13.239
G3 X0.535 Y-12.591 Z-11.645 I1.162 J0.399
G1 X0.47 Y-12.276 Z-11.7
G3 X-1.937 Y-12.774 Z-12.372 I-1.203 J-0.249
X0.495 Y-12.525 Z-13 I1.203 J0.249
X-0.498 I-0.496
X0.495 I0.496
G2 X0.932 Y-11.689 I1.019
G3 X0.837 Y-10.751 I-0.308 J0.443
G1 X0.475 Y-10.594
X-0.158 Y-10.542
X-0.8 Y-10.703
X-1.348 Y-11.06
X-1.752 Y-11.582
X-1.963 Y-12.197
Y-12.852
X-1.931 Y-12.947
X-1.751 Y-13.472
X-1.343 Y-13.993
X-0.802 Y-14.346
X-0.158 Y-14.508
X0.475 Y-14.456
X1.09 Y-14.19
X1.573 Y-13.743
X1.883 Y-13.17
X1.989 Y-12.536
X1.883 Y-11.885
X1.836 Y-11.792
X1.577 Y-11.313
X1.089 Y-10.859
X0.837 Y-10.751
G3 X0.627 Y-10.836 I-0.063 J-0.146
G1 X-0.638 Y-13.937
G3 X-0.58 Y-14.129 I0.147 J-0.06
X1.109 Y-11.63 Z-13.835 I0.844 J1.25
X-0.58 Y-14.129 Z-14.671 I-0.844 J-1.25
X1.169 Y-14.086 Z-15 I0.844 J1.25
X-0.299 Y-12.128 I-0.734 J0.979
X0.297 Y-12.922 I0.298 J-0.397
X-0.299 Y-12.128 I-0.298 J0.397
G2 X-1.246 Y-12.434 I-0.92 J1.227
G3 X-1.831 Y-13.239 I-0.011 J-0.607
G1 X-1.751 Y-13.472
X-1.343 Y-13.993
X-0.802 Y-14.346
X-0.158 Y-14.508
X0.475 Y-14.456
X1.09 Y-14.19
X1.573 Y-13.743
X1.883 Y-13.17
X1.989 Y-12.536
X1.883 Y-11.885
X1.836 Y-11.792
X1.577 Y-11.313
X1.089 Y-10.859
X0.475 Y-10.594
X-0.158 Y-10.542
X-0.8 Y-10.703
X-1.348 Y-11.06
X-1.752 Y-11.582
X-1.963 Y-12.197
Y-12.852
X-1.931 Y-12.947
X-1.831 Y-13.239
G3 X-1.77 Y-13.319 I0.15 J0.052
G1 X-0.58 Y-14.129
G3 X1.109 Y-11.63 Z-15.835 I0.844 J1.25
X-0.58 Y-14.129 Z-16.671 I-0.844 J-1.25
X1.169 Y-14.086 Z-17 I0.844 J1.25
X-0.299 Y-12.128 I-0.734 J0.979
X0.297 Y-12.922 I0.298 J-0.397
X-0.299 Y-12.128 I-0.298 J0.397
G2 X-1.246 Y-12.434 I-0.92 J1.227
G3 X-1.831 Y-13.239 I-0.011 J-0.607
G1 X-1.751 Y-13.472
X-1.343 Y-13.993
X-0.802 Y-14.346
X-0.158 Y-14.508
X0.475 Y-14.456
X1.09 Y-14.19
X1.573 Y-13.743
X1.883 Y-13.17
X1.989 Y-12.536
X1.883 Y-11.885
X1.836 Y-11.792
X1.577 Y-11.313
X1.089 Y-10.859
X0.475 Y-10.594
X-0.158 Y-10.542
X-0.8 Y-10.703
X-1.348 Y-11.06
X-1.752 Y-11.582
X-1.963 Y-12.197
Y-12.852
X-1.931 Y-12.947
X-1.831 Y-13.239
G3 X-1.77 Y-13.319 I0.15 J0.052
G1 X-0.58 Y-14.129
G3 X1.109 Y-11.63 Z-17.835 I0.844 J1.25
X-0.58 Y-14.129 Z-18.671 I-0.844 J-1.25
X1.169 Y-14.086 Z-19 I0.844 J1.25
X-0.299 Y-12.128 I-0.734 J0.979
X0.297 Y-12.922 I0.298 J-0.397
X-0.299 Y-12.128 I-0.298 J0.397
G2 X-1.246 Y-12.434 I-0.92 J1.227
G3 X-1.831 Y-13.239 I-0.011 J-0.607
G1 X-1.751 Y-13.472
X-1.343 Y-13.993
X-0.802 Y-14.346
X-0.158 Y-14.508
X0.475 Y-14.456
X1.09 Y-14.19
X1.573 Y-13.743
X1.883 Y-13.17
X1.989 Y-12.536
X1.883 Y-11.885
X1.836 Y-11.792
X1.577 Y-11.313
X1.089 Y-10.859
X0.475 Y-10.594
X-0.158 Y-10.542
X-0.8 Y-10.703
X-1.348 Y-11.06
X-1.752 Y-11.582
X-1.963 Y-12.197
Y-12.852
X-1.931 Y-12.947
X-1.831 Y-13.239
G3 X-1.577 Y-13.307 I0.15 J0.052
G1 X0.335 Y-11.65
G3 X0.227 Y-11.371 I-0.104 J0.12
X0.301 Y-14.387 Z-19.835 I0.037 J-1.508
X1.169 Y-14.086 Z-20 I-0.037 J1.508
X-0.299 Y-12.128 I-0.734 J0.979
X0.297 Y-12.922 I0.298 J-0.397
X-0.299 Y-12.128 I-0.298 J0.397
G2 X-1.246 Y-12.434 I-0.92 J1.227
G3 X-1.831 Y-13.239 I-0.011 J-0.607
G1 X-1.751 Y-13.472
X-1.343 Y-13.993
X-0.802 Y-14.346
X-0.158 Y-14.508
X0.475 Y-14.456
X1.09 Y-14.19
X1.573 Y-13.743
X1.883 Y-13.17
X1.989 Y-12.536
X1.883 Y-11.885
X1.836 Y-11.792
X1.577 Y-11.313
X1.089 Y-10.859
X0.475 Y-10.594
X-0.158 Y-10.542
X-0.8 Y-10.703
X-1.348 Y-11.06
X-1.752 Y-11.582
X-1.963 Y-12.197
Y-12.852
X-1.931 Y-12.947
X-1.831 Y-13.239
G3 X-1.791 Y-13.315 Z-19.986 I0.262 J0.09
X-1.737 Y-13.369 Z-19.947 I0.223 J0.166
X-1.684 Y-13.401 Z-19.886 I0.168 J0.221
X-1.647 Y-13.415 Z-19.808 I0.116 J0.252
X-1.634 Y-13.418 Z-19.722 I0.079 J0.266
G0 Z5
X-39.298 Y-0.244
Z2.413
G3 X-39.296 Y-0.263 Z2.304 I1.498 J0.175 F762
X-39.288 Y-0.318 Z2.209 I1.496 J0.194
X-39.271 Y-0.401 Z2.138 I1.488 J0.248
X-39.245 Y-0.501 Z2.1 I1.471 J0.331
X-36.355 Y0.361 Z1.265 I1.445 J0.431
X-39.245 Y-0.501 Z0.429 I-1.445 J-0.431
X-36.355 Y0.361 Z-0.406 I1.445 J0.431
X-39.245 Y-0.501 Z-1.242 I-1.445 J-0.431
X-36.292 Y-0.07 Z-2 I1.445 J0.431
X-37.713 I-0.711
X-36.292 I0.711
G2 X-35.743 Y1.037 I1.389
G3 X-35.825 Y2.269 I-0.447 J0.589
G1 X-35.937 Y2.333
X-36.162 Y2.422
X-36.691 Y2.539
X-36.893 Y2.561
X-37.48 Y2.516
X-37.629 Y2.494
X-38.307 Y2.227
X-38.914 Y1.747
X-39.135 Y1.442
X-39.34 Y1.141
X-39.432 Y0.919
X-39.586 Y0.405
X-39.615 Y0.186
Y-0.319
X-39.575 Y-0.592
X-39.475 Y-0.917
X-39.414 Y-1.104
X-39.342 Y-1.276
X-38.977 Y-1.806
X-38.92 Y-1.881
X-38.322 Y-2.359
X-37.625 Y-2.633
X-37.462 Y-2.657
X-36.894 Y-2.699
X-36.682 Y-2.675
X-36.119 Y-2.546
X-35.895 Y-2.45
X-35.459 Y-2.196
X-35.273 Y-2.052
X-34.916 Y-1.666
X-34.782 Y-1.487
X-34.47 Y-0.814
X-34.356 Y-0.069
X-34.472 Y0.691
X-34.497 Y0.752
X-34.78 Y1.347
X-34.807 Y1.386
X-34.932 Y1.547
X-35.291 Y1.929
X-35.496 Y2.082
X-35.825 Y2.269
G3 X-36.05 Y2.192 I-0.078 J-0.138
G1 X-37.505 Y-1.284
G3 X-37.307 Y-1.495 I0.146 J-0.061
X-38.293 Y1.355 Z-2.835 I-0.493 J1.425
X-37.307 Y-1.495 Z-3.671 I0.493 J-1.425
X-36.292 Y-0.07 Z-4 I-0.493 J1.425
X-37.713 I-0.711
X-36.292 I0.711
G2 X-35.743 Y1.037 I1.389
G3 X-35.825 Y2.269 I-0.447 J0.589
G1 X-35.937 Y2.333
X-36.162 Y2.422
X-36.691 Y2.539
X-36.893 Y2.561
X-37.48 Y2.516
X-37.629 Y2.494
X-38.307 Y2.227
X-38.914 Y1.747
X-39.135 Y1.442
X-39.34 Y1.141
X-39.432 Y0.919
X-39.586 Y0.405
X-39.615 Y0.186
Y-0.319
X-39.575 Y-0.592
X-39.475 Y-0.917
X-39.414 Y-1.104
X-39.342 Y-1.276
X-38.977 Y-1.806
X-38.92 Y-1.881
X-38.322 Y-2.359
X-37.625 Y-2.633
X-37.462 Y-2.657
X-36.894 Y-2.699
X-36.682 Y-2.675
X-36.119 Y-2.546
X-35.895 Y-2.45
X-35.459 Y-2.196
X-35.273 Y-2.052
X-34.916 Y-1.666
X-34.782 Y-1.487
X-34.47 Y-0.814
X-34.356 Y-0.069
X-34.472 Y0.691
X-34.497 Y0.752
X-34.78 Y1.347
X-34.807 Y1.386
X-34.932 Y1.547
X-35.291 Y1.929
X-35.496 Y2.082
X-35.825 Y2.269
G3 X-37.536 Y2.115 Z-4.193 I-0.745 J-1.311
G1 X-38.767 Y1.088 Z-4.362
G3 X-36.833 Y-1.227 Z-4.861 I0.967 J-1.158
X-36.292 Y-0.07 Z-5 I-0.967 J1.158
X-37.713 I-0.711
X-36.292 I0.711
G2 X-35.743 Y1.037 I1.389
G3 X-35.825 Y2.269 I-0.447 J0.589
G1 X-35.937 Y2.333
X-36.162 Y2.422
X-36.691 Y2.539
X-36.893 Y2.561
X-37.48 Y2.516
X-37.629 Y2.494
X-38.307 Y2.227
X-38.914 Y1.747
X-39.135 Y1.442
X-39.34 Y1.141
X-39.432 Y0.919
X-39.586 Y0.405
X-39.615 Y0.186
Y-0.319
X-39.575 Y-0.592
X-39.475 Y-0.917
X-39.414 Y-1.104
X-39.342 Y-1.276
X-38.977 Y-1.806
X-38.92 Y-1.881
X-38.322 Y-2.359
X-37.625 Y-2.633
X-37.462 Y-2.657
X-36.894 Y-2.699
X-36.682 Y-2.675
X-36.119 Y-2.546
X-35.895 Y-2.45
X-35.459 Y-2.196
X-35.273 Y-2.052
X-34.916 Y-1.666
X-34.782 Y-1.487
X-34.47 Y-0.814
X-34.356 Y-0.069
X-34.472 Y0.691
X-34.497 Y0.752
X-34.78 Y1.347
X-34.807 Y1.386
X-34.932 Y1.547
X-35.291 Y1.929
X-35.496 Y2.082
X-35.825 Y2.269
G3 X-36.05 Y2.192 I-0.078 J-0.138
G1 X-37.505 Y-1.284
G3 X-37.307 Y-1.495 I0.146 J-0.061
X-38.293 Y1.355 Z-5.835 I-0.493 J1.425
X-37.307 Y-1.495 Z-6.671 I0.493 J-1.425
X-36.292 Y-0.07 Z-7 I-0.493 J1.425
X-37.713 I-0.711
X-36.292 I0.711
G2 X-35.743 Y1.037 I1.389
G3 X-35.825 Y2.269 I-0.447 J0.589
G1 X-35.937 Y2.333
X-36.162 Y2.422
X-36.691 Y2.539
X-36.893 Y2.561
X-37.48 Y2.516
X-37.629 Y2.494
X-38.307 Y2.227
X-38.914 Y1.747
X-39.135 Y1.442
X-39.34 Y1.141
X-39.432 Y0.919
X-39.586 Y0.405
X-39.615 Y0.186
Y-0.319
X-39.575 Y-0.592
X-39.475 Y-0.917
X-39.414 Y-1.104
X-39.342 Y-1.276
X-38.977 Y-1.806
X-38.92 Y-1.881
X-38.322 Y-2.359
X-37.625 Y-2.633
X-37.462 Y-2.657
X-36.894 Y-2.699
X-36.682 Y-2.675
X-36.119 Y-2.546
X-35.895 Y-2.45
X-35.459 Y-2.196
X-35.273 Y-2.052
X-34.916 Y-1.666
X-34.782 Y-1.487
X-34.47 Y-0.814
X-34.356 Y-0.069
X-34.472 Y0.691
X-34.497 Y0.752
X-34.78 Y1.347
X-34.807 Y1.386
X-34.932 Y1.547
X-35.291 Y1.929
X-35.496 Y2.082
X-35.825 Y2.269
G3 X-36.05 Y2.192 I-0.078 J-0.138
G1 X-37.505 Y-1.284
G3 X-37.307 Y-1.495 I0.146 J-0.061
X-38.293 Y1.355 Z-7.835 I-0.493 J1.425
X-37.307 Y-1.495 Z-8.671 I0.493 J-1.425
X-36.292 Y-0.07 Z-9 I-0.493 J1.425
X-37.713 I-0.711
X-36.292 I0.711
G2 X-35.743 Y1.037 I1.389
G3 X-35.825 Y2.269 I-0.447 J0.589
G1 X-35.937 Y2.333
X-36.162 Y2.422
X-36.691 Y2.539
X-36.893 Y2.561
X-37.48 Y2.516
X-37.629 Y2.494
X-38.307 Y2.227
X-38.914 Y1.747
X-39.135 Y1.442
X-39.34 Y1.141
X-39.432 Y0.919
X-39.586 Y0.405
X-39.615 Y0.186
Y-0.319
X-39.575 Y-0.592
X-39.475 Y-0.917
X-39.414 Y-1.104
X-39.342 Y-1.276
X-38.977 Y-1.806
X-38.92 Y-1.881
X-38.322 Y-2.359
X-37.625 Y-2.633
X-37.462 Y-2.657
X-36.894 Y-2.699
X-36.682 Y-2.675
X-36.119 Y-2.546
X-35.895 Y-2.45
X-35.459 Y-2.196
X-35.273 Y-2.052
X-34.916 Y-1.666
X-34.782 Y-1.487
X-34.47 Y-0.814
X-34.356 Y-0.069
X-34.472 Y0.691
X-34.497 Y0.752
X-34.78 Y1.347
X-34.807 Y1.386
X-34.932 Y1.547
X-35.291 Y1.929
X-35.496 Y2.082
X-35.825 Y2.269
G3 X-36.05 Y2.192 I-0.078 J-0.138
G1 X-37.505 Y-1.284
G3 X-37.307 Y-1.495 I0.146 J-0.061
X-38.293 Y1.355 Z-9.835 I-0.493 J1.425
X-37.307 Y-1.495 Z-10.671 I0.493 J-1.425
X-36.292 Y-0.07 Z-11 I-0.493 J1.425
X-37.713 I-0.711
X-36.292 I0.711
G2 X-35.743 Y1.037 I1.389
G3 X-35.825 Y2.269 I-0.447 J0.589
G1 X-35.937 Y2.333
X-36.162 Y2.422
X-36.691 Y2.539
X-36.893 Y2.561
X-37.48 Y2.516
X-37.629 Y2.494
X-38.307 Y2.227
X-38.914 Y1.747
X-39.135 Y1.442
X-39.34 Y1.141
X-39.432 Y0.919
X-39.586 Y0.405
X-39.615 Y0.186
Y-0.319
X-39.575 Y-0.592
X-39.475 Y-0.917
X-39.414 Y-1.104
X-39.342 Y-1.276
X-38.977 Y-1.806
X-38.92 Y-1.881
X-38.322 Y-2.359
X-37.625 Y-2.633
X-37.462 Y-2.657
X-36.894 Y-2.699
X-36.682 Y-2.675
X-36.119 Y-2.546
X-35.895 Y-2.45
X-35.459 Y-2.196
X-35.273 Y-2.052
X-34.916 Y-1.666
X-34.782 Y-1.487
X-34.47 Y-0.814
X-34.356 Y-0.069
X-34.472 Y0.691
X-34.497 Y0.752
X-34.78 Y1.347
X-34.807 Y1.386
X-34.932 Y1.547
X-35.291 Y1.929
X-35.496 Y2.082
X-35.825 Y2.269
G3 X-36.05 Y2.192 I-0.078 J-0.138
G1 X-37.505 Y-1.284
G3 X-37.307 Y-1.495 I0.146 J-0.061
X-38.293 Y1.355 Z-11.835 I-0.493 J1.425
X-37.307 Y-1.495 Z-12.671 I0.493 J-1.425
X-36.292 Y-0.07 Z-13 I-0.493 J1.425
X-37.713 I-0.711
X-36.292 I0.711
G2 X-35.743 Y1.037 I1.389
G3 X-35.825 Y2.269 I-0.447 J0.589
G1 X-35.937 Y2.333
X-36.162 Y2.422
X-36.691 Y2.539
X-36.893 Y2.561
X-37.48 Y2.516
X-37.629 Y2.494
X-38.307 Y2.227
X-38.914 Y1.747
X-39.135 Y1.442
X-39.34 Y1.141
X-39.432 Y0.919
X-39.586 Y0.405
X-39.615 Y0.186
Y-0.319
X-39.575 Y-0.592
X-39.475 Y-0.917
X-39.414 Y-1.104
X-39.342 Y-1.276
X-38.977 Y-1.806
X-38.92 Y-1.881
X-38.322 Y-2.359
X-37.625 Y-2.633
X-37.462 Y-2.657
X-36.894 Y-2.699
X-36.682 Y-2.675
X-36.119 Y-2.546
X-35.895 Y-2.45
X-35.459 Y-2.196
X-35.273 Y-2.052
X-34.916 Y-1.666
X-34.782 Y-1.487
X-34.47 Y-0.814
X-34.356 Y-0.069
X-34.472 Y0.691
X-34.497 Y0.752
X-34.78 Y1.347
X-34.807 Y1.386
X-34.932 Y1.547
X-35.291 Y1.929
X-35.496 Y2.082
X-35.825 Y2.269
G3 X-36.05 Y2.192 I-0.078 J-0.138
G1 X-37.505 Y-1.284
G3 X-37.307 Y-1.495 I0.146 J-0.061
X-38.293 Y1.355 Z-13.835 I-0.493 J1.425
X-37.307 Y-1.495 Z-14.671 I0.493 J-1.425
X-36.292 Y-0.07 Z-15 I-0.493 J1.425
X-37.713 I-0.711
X-36.292 I0.711
G2 X-35.743 Y1.037 I1.389
G3 X-35.825 Y2.269 I-0.447 J0.589
G1 X-35.937 Y2.333
X-36.162 Y2.422
X-36.691 Y2.539
X-36.893 Y2.561
X-37.48 Y2.516
X-37.629 Y2.494
X-38.307 Y2.227
X-38.914 Y1.747
X-39.135 Y1.442
X-39.34 Y1.141
X-39.432 Y0.919
X-39.586 Y0.405
X-39.615 Y0.186
Y-0.319
X-39.575 Y-0.592
X-39.475 Y-0.917
X-39.414 Y-1.104
X-39.342 Y-1.276
X-38.977 Y-1.806
X-38.92 Y-1.881
X-38.322 Y-2.359
X-37.625 Y-2.633
X-37.462 Y-2.657
X-36.894 Y-2.699
X-36.682 Y-2.675
X-36.119 Y-2.546
X-35.895 Y-2.45
X-35.459 Y-2.196
X-35.273 Y-2.052
X-34.916 Y-1.666
X-34.782 Y-1.487
X-34.47 Y-0.814
X-34.356 Y-0.069
X-34.472 Y0.691
X-34.497 Y0.752
X-34.78 Y1.347
X-34.807 Y1.386
X-34.932 Y1.547
X-35.291 Y1.929
X-35.496 Y2.082
X-35.825 Y2.269
G3 X-36.05 Y2.192 I-0.078 J-0.138
G1 X-37.505 Y-1.284
G3 X-37.307 Y-1.495 I0.146 J-0.061
X-38.293 Y1.355 Z-15.835 I-0.493 J1.425
X-37.307 Y-1.495 Z-16.671 I0.493 J-1.425
X-36.292 Y-0.07 Z-17 I-0.493 J1.425
X-37.713 I-0.711
X-36.292 I0.711
G2 X-35.743 Y1.037 I1.389
G3 X-35.825 Y2.269 I-0.447 J0.589
G1 X-35.937 Y2.333
X-36.162 Y2.422
X-36.691 Y2.539
X-36.893 Y2.561
X-37.48 Y2.516
X-37.629 Y2.494
X-38.307 Y2.227
X-38.914 Y1.747
X-39.135 Y1.442
X-39.34 Y1.141
X-39.432 Y0.919
X-39.586 Y0.405
X-39.615 Y0.186
Y-0.319
X-39.575 Y-0.592
X-39.475 Y-0.917
X-39.414 Y-1.104
X-39.342 Y-1.276
X-38.977 Y-1.806
X-38.92 Y-1.881
X-38.322 Y-2.359
X-37.625 Y-2.633
X-37.462 Y-2.657
X-36.894 Y-2.699
X-36.682 Y-2.675
X-36.119 Y-2.546
X-35.895 Y-2.45
X-35.459 Y-2.196
X-35.273 Y-2.052
X-34.916 Y-1.666
X-34.782 Y-1.487
X-34.47 Y-0.814
X-34.356 Y-0.069
X-34.472 Y0.691
X-34.497 Y0.752
X-34.78 Y1.347
X-34.807 Y1.386
X-34.932 Y1.547
X-35.291 Y1.929
X-35.496 Y2.082
X-35.825 Y2.269
G3 X-36.05 Y2.192 I-0.078 J-0.138
G1 X-37.505 Y-1.284
G3 X-37.307 Y-1.495 I0.146 J-0.061
X-38.293 Y1.355 Z-17.835 I-0.493 J1.425
X-37.307 Y-1.495 Z-18.671 I0.493 J-1.425
X-36.292 Y-0.07 Z-19 I-0.493 J1.425
X-37.713 I-0.711
X-36.292 I0.711
G2 X-35.743 Y1.037 I1.389
G3 X-35.825 Y2.269 I-0.447 J0.589
G1 X-35.937 Y2.333
X-36.162 Y2.422
X-36.691 Y2.539
X-36.893 Y2.561
X-37.48 Y2.516
X-37.629 Y2.494
X-38.307 Y2.227
X-38.914 Y1.747
X-39.135 Y1.442
X-39.34 Y1.141
X-39.432 Y0.919
X-39.586 Y0.405
X-39.615 Y0.186
Y-0.319
X-39.575 Y-0.592
X-39.475 Y-0.917
X-39.414 Y-1.104
X-39.342 Y-1.276
X-38.977 Y-1.806
X-38.92 Y-1.881
X-38.322 Y-2.359
X-37.625 Y-2.633
X-37.462 Y-2.657
X-36.894 Y-2.699
X-36.682 Y-2.675
X-36.119 Y-2.546
X-35.895 Y-2.45
X-35.459 Y-2.196
X-35.273 Y-2.052
X-34.916 Y-1.666
X-34.782 Y-1.487
X-34.47 Y-0.814
X-34.356 Y-0.069
X-34.472 Y0.691
X-34.497 Y0.752
X-34.78 Y1.347
X-34.807 Y1.386
X-34.932 Y1.547
X-35.291 Y1.929
X-35.496 Y2.082
X-35.825 Y2.269
G3 X-37.536 Y2.115 Z-19.193 I-0.745 J-1.311
G1 X-38.767 Y1.088 Z-19.362
G3 X-36.833 Y-1.227 Z-19.861 I0.967 J-1.158
X-36.292 Y-0.07 Z-20 I-0.967 J1.158
X-37.713 I-0.711
X-36.292 I0.711
G2 X-35.743 Y1.037 I1.389
G3 X-35.825 Y2.269 I-0.447 J0.589
G1 X-35.937 Y2.333
X-36.162 Y2.422
X-36.691 Y2.539
X-36.893 Y2.561
X-37.48 Y2.516
X-37.629 Y2.494
X-38.307 Y2.227
X-38.914 Y1.747
X-39.135 Y1.442
X-39.34 Y1.141
X-39.432 Y0.919
X-39.586 Y0.405
X-39.615 Y0.186
Y-0.319
X-39.575 Y-0.592
X-39.475 Y-0.917
X-39.414 Y-1.104
X-39.342 Y-1.276
X-38.977 Y-1.806
X-38.92 Y-1.881
X-38.322 Y-2.359
X-37.625 Y-2.633
X-37.462 Y-2.657
X-36.894 Y-2.699
X-36.682 Y-2.675
X-36.119 Y-2.546
X-35.895 Y-2.45
X-35.459 Y-2.196
X-35.273 Y-2.052
X-34.916 Y-1.666
X-34.782 Y-1.487
X-34.47 Y-0.814
X-34.356 Y-0.069
X-34.472 Y0.691
X-34.497 Y0.752
X-34.78 Y1.347
X-34.807 Y1.386
X-34.932 Y1.547
X-35.291 Y1.929
X-35.496 Y2.082
X-35.825 Y2.269
G3 X-35.905 Y2.299 Z-19.986 I-0.137 J-0.241
X-35.982 Y2.304 Z-19.947 I-0.057 J-0.272
X-36.042 Y2.293 Z-19.886 I0.02 J-0.277
X-36.079 Y2.279 Z-19.808 I0.08 J-0.266
X-36.091 Y2.273 Z-19.722 I0.117 J-0.252
G0 Z5
X-48.485 Y-1.798
Z2.413
G3 X-48.471 Y-1.785 Z2.304 I-1.038 J1.094 F762
X-48.432 Y-1.746 Z2.209 I-1.052 J1.08
X-48.375 Y-1.683 Z2.138 I-1.091 J1.041
X-48.311 Y-1.602 Z2.1 I-1.148 J0.978
X-50.735 Y0.193 Z1.265 I-1.212 J0.897
X-48.311 Y-1.602 Z0.429 I1.212 J-0.897
X-50.735 Y0.193 Z-0.406 I-1.212 J0.897
X-48.311 Y-1.602 Z-1.242 I1.212 J-0.897
X-50.428 Y0.502 Z-2 I-1.212 J0.897
X-49.575 Y-0.636 I0.427 J-0.569
X-50.428 Y0.502 I-0.427 J0.569
G2 X-51.645 Y0.306 I-0.795 J1.061
G3 X-52.591 Y-0.485 I-0.23 J-0.686
G1 X-52.575 Y-0.592
X-52.445 Y-1.014
X-52.342 Y-1.274
X-51.966 Y-1.82
X-51.91 Y-1.891
X-51.323 Y-2.359
X-50.625 Y-2.633
X-50.431 Y-2.659
X-49.87 Y-2.7
X-49.617 Y-2.664
X-49.136 Y-2.553
X-48.91 Y-2.459
X-48.477 Y-2.209
X-48.3 Y-2.074
X-48.179 Y-1.951
X-47.899 Y-1.645
X-47.791 Y-1.504
X-47.773 Y-1.47
X-47.471 Y-0.815
X-47.356 Y-0.069
X-47.472 Y0.691
X-47.497 Y0.752
X-47.78 Y1.347
X-47.805 Y1.384
X-47.95 Y1.566
X-48.276 Y1.918
X-48.482 Y2.075
X-48.91 Y2.321
X-49.134 Y2.415
X-49.681 Y2.538
X-49.865 Y2.562
X-50.489 Y2.516
X-50.614 Y2.499
X-51.322 Y2.221
X-51.914 Y1.748
X-52.099 Y1.494
X-52.337 Y1.145
X-52.445 Y0.877
X-52.586 Y0.405
X-52.615 Y0.186
Y-0.319
X-52.591 Y-0.485
G3 X-52.397 Y-0.616 I0.157 J0.023
G1 X-48.731 Y0.259
G3 X-48.679 Y0.545 I-0.037 J0.154
X-50.367 Y-1.954 Z-2.835 I-0.844 J-1.25
X-48.679 Y0.545 Z-3.671 I0.844 J1.25
X-50.428 Y0.502 Z-4 I-0.844 J-1.25
X-49.575 Y-0.636 I0.427 J-0.569
X-50.428 Y0.502 I-0.427 J0.569
G2 X-51.645 Y0.306 I-0.795 J1.061
G3 X-52.591 Y-0.485 I-0.23 J-0.686
G1 X-52.575 Y-0.592
X-52.445 Y-1.014
X-52.342 Y-1.274
X-51.966 Y-1.82
X-51.91 Y-1.891
X-51.323 Y-2.359
X-50.625 Y-2.633
X-50.431 Y-2.659
X-49.87 Y-2.7
X-49.617 Y-2.664
X-49.136 Y-2.553
X-48.91 Y-2.459
X-48.477 Y-2.209
X-48.3 Y-2.074
X-48.179 Y-1.951
X-47.899 Y-1.645
X-47.791 Y-1.504
X-47.773 Y-1.47
X-47.471 Y-0.815
X-47.356 Y-0.069
X-47.472 Y0.691
X-47.497 Y0.752
X-47.78 Y1.347
X-47.805 Y1.384
X-47.95 Y1.566
X-48.276 Y1.918
X-48.482 Y2.075
X-48.91 Y2.321
X-49.134 Y2.415
X-49.681 Y2.538
X-49.865 Y2.562
X-50.489 Y2.516
X-50.614 Y2.499
X-51.322 Y2.221
X-51.914 Y1.748
X-52.099 Y1.494
X-52.337 Y1.145
X-52.445 Y0.877
X-52.586 Y0.405
X-52.615 Y0.186
Y-0.319
X-52.591 Y-0.485
G3 X-51.489 Y-1.652 Z-4.191 I1.383 J0.201
G1 X-49.871 Y-1.985 Z-4.376
G3 X-49.308 Y0.753 Z-4.868 I0.281 J1.369
X-50.428 Y0.502 Z-5 I-0.281 J-1.369
X-49.575 Y-0.636 I0.427 J-0.569
X-50.428 Y0.502 I-0.427 J0.569
G2 X-51.645 Y0.306 I-0.795 J1.061
G3 X-52.591 Y-0.485 I-0.23 J-0.686
G1 X-52.575 Y-0.592
X-52.445 Y-1.014
X-52.342 Y-1.274
X-51.966 Y-1.82
X-51.91 Y-1.891
X-51.323 Y-2.359
X-50.625 Y-2.633
X-50.431 Y-2.659
X-49.87 Y-2.7
X-49.617 Y-2.664
X-49.136 Y-2.553
X-48.91 Y-2.459
X-48.477 Y-2.209
X-48.3 Y-2.074
X-48.179 Y-1.951
X-47.899 Y-1.645
X-47.791 Y-1.504
X-47.773 Y-1.47
X-47.471 Y-0.815
X-47.356 Y-0.069
X-47.472 Y0.691
X-47.497 Y0.752
X-47.78 Y1.347
X-47.805 Y1.384
X-47.95 Y1.566
X-48.276 Y1.918
X-48.482 Y2.075
X-48.91 Y2.321
X-49.134 Y2.415
X-49.681 Y2.538
X-49.865 Y2.562
X-50.489 Y2.516
X-50.614 Y2.499
X-51.322 Y2.221
X-51.914 Y1.748
X-52.099 Y1.494
X-52.337 Y1.145
X-52.445 Y0.877
X-52.586 Y0.405
X-52.615 Y0.186
Y-0.319
X-52.591 Y-0.485
G3 X-52.397 Y-0.616 I0.157 J0.023
G1 X-48.731 Y0.259
G3 X-48.679 Y0.545 I-0.037 J0.154
X-50.367 Y-1.954 Z-5.835 I-0.844 J-1.25
X-48.679 Y0.545 Z-6.671 I0.844 J1.25
X-50.428 Y0.502 Z-7 I-0.844 J-1.25
X-49.575 Y-0.636 I0.427 J-0.569
X-50.428 Y0.502 I-0.427 J0.569
G2 X-51.645 Y0.306 I-0.795 J1.061
G3 X-52.591 Y-0.485 I-0.23 J-0.686
G1 X-52.575 Y-0.592
X-52.445 Y-1.014
X-52.342 Y-1.274
X-51.966 Y-1.82
X-51.91 Y-1.891
X-51.323 Y-2.359
X-50.625 Y-2.633
X-50.431 Y-2.659
X-49.87 Y-2.7
X-49.617 Y-2.664
X-49.136 Y-2.553
X-48.91 Y-2.459
X-48.477 Y-2.209
X-48.3 Y-2.074
X-48.179 Y-1.951
X-47.899 Y-1.645
X-47.791 Y-1.504
X-47.773 Y-1.47
X-47.471 Y-0.815
X-47.356 Y-0.069
X-47.472 Y0.691
X-47.497 Y0.752
X-47.78 Y1.347
X-47.805 Y1.384
X-47.95 Y1.566
X-48.276 Y1.918
X-48.482 Y2.075
X-48.91 Y2.321
X-49.134 Y2.415
X-49.681 Y2.538
X-49.865 Y2.562
X-50.489 Y2.516
X-50.614 Y2.499
X-51.322 Y2.221
X-51.914 Y1.748
X-52.099 Y1.494
X-52.337 Y1.145
X-52.445 Y0.877
X-52.586 Y0.405
X-52.615 Y0.186
Y-0.319
X-52.591 Y-0.485
G3 X-52.397 Y-0.616 I0.157 J0.023
G1 X-48.731 Y0.259
G3 X-48.679 Y0.545 I-0.037 J0.154
X-50.367 Y-1.954 Z-7.835 I-0.844 J-1.25
X-48.679 Y0.545 Z-8.671 I0.844 J1.25
X-50.428 Y0.502 Z-9 I-0.844 J-1.25
X-49.575 Y-0.636 I0.427 J-0.569
X-50.428 Y0.502 I-0.427 J0.569
G2 X-51.645 Y0.306 I-0.795 J1.061
G3 X-52.591 Y-0.485 I-0.23 J-0.686
G1 X-52.575 Y-0.592
X-52.445 Y-1.014
X-52.342 Y-1.274
X-51.966 Y-1.82
X-51.91 Y-1.891
X-51.323 Y-2.359
X-50.625 Y-2.633
X-50.431 Y-2.659
X-49.87 Y-2.7
X-49.617 Y-2.664
X-49.136 Y-2.553
X-48.91 Y-2.459
X-48.477 Y-2.209
X-48.3 Y-2.074
X-48.179 Y-1.951
X-47.899 Y-1.645
X-47.791 Y-1.504
X-47.773 Y-1.47
X-47.471 Y-0.815
X-47.356 Y-0.069
X-47.472 Y0.691
X-47.497 Y0.752
X-47.78 Y1.347
X-47.805 Y1.384
X-47.95 Y1.566
X-48.276 Y1.918
X-48.482 Y2.075
X-48.91 Y2.321
X-49.134 Y2.415
X-49.681 Y2.538
X-49.865 Y2.562
X-50.489 Y2.516
X-50.614 Y2.499
X-51.322 Y2.221
X-51.914 Y1.748
X-52.099 Y1.494
X-52.337 Y1.145
X-52.445 Y0.877
X-52.586 Y0.405
X-52.615 Y0.186
Y-0.319
X-52.591 Y-0.485
G3 X-52.397 Y-0.616 I0.157 J0.023
G1 X-48.731 Y0.259
G3 X-48.679 Y0.545 I-0.037 J0.154
X-50.367 Y-1.954 Z-9.835 I-0.844 J-1.25
X-48.679 Y0.545 Z-10.671 I0.844 J1.25
X-50.428 Y0.502 Z-11 I-0.844 J-1.25
X-49.575 Y-0.636 I0.427 J-0.569
X-50.428 Y0.502 I-0.427 J0.569
G2 X-51.645 Y0.306 I-0.795 J1.061
G3 X-52.591 Y-0.485 I-0.23 J-0.686
G1 X-52.575 Y-0.592
X-52.445 Y-1.014
X-52.342 Y-1.274
X-51.966 Y-1.82
X-51.91 Y-1.891
X-51.323 Y-2.359
X-50.625 Y-2.633
X-50.431 Y-2.659
X-49.87 Y-2.7
X-49.617 Y-2.664
X-49.136 Y-2.553
X-48.91 Y-2.459
X-48.477 Y-2.209
X-48.3 Y-2.074
X-48.179 Y-1.951
X-47.899 Y-1.645
X-47.791 Y-1.504
X-47.773 Y-1.47
X-47.471 Y-0.815
X-47.356 Y-0.069
X-47.472 Y0.691
X-47.497 Y0.752
X-47.78 Y1.347
X-47.805 Y1.384
X-47.95 Y1.566
X-48.276 Y1.918
X-48.482 Y2.075
X-48.91 Y2.321
X-49.134 Y2.415
X-49.681 Y2.538
X-49.865 Y2.562
X-50.489 Y2.516
X-50.614 Y2.499
X-51.322 Y2.221
X-51.914 Y1.748
X-52.099 Y1.494
X-52.337 Y1.145
X-52.445 Y0.877
X-52.586 Y0.405
X-52.615 Y0.186
Y-0.319
X-52.591 Y-0.485
G3 X-52.397 Y-0.616 I0.157 J0.023
G1 X-48.731 Y0.259
G3 X-48.679 Y0.545 I-0.037 J0.154
X-50.367 Y-1.954 Z-11.835 I-0.844 J-1.25
X-48.679 Y0.545 Z-12.671 I0.844 J1.25
X-50.428 Y0.502 Z-13 I-0.844 J-1.25
X-49.575 Y-0.636 I0.427 J-0.569
X-50.428 Y0.502 I-0.427 J0.569
G2 X-51.645 Y0.306 I-0.795 J1.061
G3 X-52.591 Y-0.485 I-0.23 J-0.686
G1 X-52.575 Y-0.592
X-52.445 Y-1.014
X-52.342 Y-1.274
X-51.966 Y-1.82
X-51.91 Y-1.891
X-51.323 Y-2.359
X-50.625 Y-2.633
X-50.431 Y-2.659
X-49.87 Y-2.7
X-49.617 Y-2.664
X-49.136 Y-2.553
X-48.91 Y-2.459
X-48.477 Y-2.209
X-48.3 Y-2.074
X-48.179 Y-1.951
X-47.899 Y-1.645
X-47.791 Y-1.504
X-47.773 Y-1.47
X-47.471 Y-0.815
X-47.356 Y-0.069
X-47.472 Y0.691
X-47.497 Y0.752
X-47.78 Y1.347
X-47.805 Y1.384
X-47.95 Y1.566
X-48.276 Y1.918
X-48.482 Y2.075
X-48.91 Y2.321
X-49.134 Y2.415
X-49.681 Y2.538
X-49.865 Y2.562
X-50.489 Y2.516
X-50.614 Y2.499
X-51.322 Y2.221
X-51.914 Y1.748
X-52.099 Y1.494
X-52.337 Y1.145
X-52.445 Y0.877
X-52.586 Y0.405
X-52.615 Y0.186
Y-0.319
X-52.591 Y-0.485
G3 X-52.397 Y-0.616 I0.157 J0.023
G1 X-48.731 Y0.259
G3 X-48.679 Y0.545 I-0.037 J0.154
X-50.367 Y-1.954 Z-13.835 I-0.844 J-1.25
X-48.679 Y0.545 Z-14.671 I0.844 J1.25
X-50.428 Y0.502 Z-15 I-0.844 J-1.25
X-49.575 Y-0.636 I0.427 J-0.569
X-50.428 Y0.502 I-0.427 J0.569
G2 X-51.645 Y0.306 I-0.795 J1.061
G3 X-52.591 Y-0.485 I-0.23 J-0.686
G1 X-52.575 Y-0.592
X-52.445 Y-1.014
X-52.342 Y-1.274
X-51.966 Y-1.82
X-51.91 Y-1.891
X-51.323 Y-2.359
X-50.625 Y-2.633
X-50.431 Y-2.659
X-49.87 Y-2.7
X-49.617 Y-2.664
X-49.136 Y-2.553
X-48.91 Y-2.459
X-48.477 Y-2.209
X-48.3 Y-2.074
X-48.179 Y-1.951
X-47.899 Y-1.645
X-47.791 Y-1.504
X-47.773 Y-1.47
X-47.471 Y-0.815
X-47.356 Y-0.069
X-47.472 Y0.691
X-47.497 Y0.752
X-47.78 Y1.347
X-47.805 Y1.384
X-47.95 Y1.566
X-48.276 Y1.918
X-48.482 Y2.075
X-48.91 Y2.321
X-49.134 Y2.415
X-49.681 Y2.538
X-49.865 Y2.562
X-50.489 Y2.516
X-50.614 Y2.499
X-51.322 Y2.221
X-51.914 Y1.748
X-52.099 Y1.494
X-52.337 Y1.145
X-52.445 Y0.877
X-52.586 Y0.405
X-52.615 Y0.186
Y-0.319
X-52.591 Y-0.485
G3 X-52.397 Y-0.616 I0.157 J0.023
G1 X-48.731 Y0.259
G3 X-48.679 Y0.545 I-0.037 J0.154
X-50.367 Y-1.954 Z-15.835 I-0.844 J-1.25
X-48.679 Y0.545 Z-16.671 I0.844 J1.25
X-50.428 Y0.502 Z-17 I-0.844 J-1.25
X-49.575 Y-0.636 I0.427 J-0.569
X-50.428 Y0.502 I-0.427 J0.569
G2 X-51.645 Y0.306 I-0.795 J1.061
G3 X-52.591 Y-0.485 I-0.23 J-0.686
G1 X-52.575 Y-0.592
X-52.445 Y-1.014
X-52.342 Y-1.274
X-51.966 Y-1.82
X-51.91 Y-1.891
X-51.323 Y-2.359
X-50.625 Y-2.633
X-50.431 Y-2.659
X-49.87 Y-2.7
X-49.617 Y-2.664
X-49.136 Y-2.553
X-48.91 Y-2.459
X-48.477 Y-2.209
X-48.3 Y-2.074
X-48.179 Y-1.951
X-47.899 Y-1.645
X-47.791 Y-1.504
X-47.773 Y-1.47
X-47.471 Y-0.815
X-47.356 Y-0.069
X-47.472 Y0.691
X-47.497 Y0.752
X-47.78 Y1.347
X-47.805 Y1.384
X-47.95 Y1.566
X-48.276 Y1.918
X-48.482 Y2.075
X-48.91 Y2.321
X-49.134 Y2.415
X-49.681 Y2.538
X-49.865 Y2.562
X-50.489 Y2.516
X-50.614 Y2.499
X-51.322 Y2.221
X-51.914 Y1.748
X-52.099 Y1.494
X-52.337 Y1.145
X-52.445 Y0.877
X-52.586 Y0.405
X-52.615 Y0.186
Y-0.319
X-52.591 Y-0.485
G3 X-52.397 Y-0.616 I0.157 J0.023
G1 X-48.731 Y0.259
G3 X-48.679 Y0.545 I-0.037 J0.154
X-50.367 Y-1.954 Z-17.835 I-0.844 J-1.25
X-48.679 Y0.545 Z-18.671 I0.844 J1.25
X-50.428 Y0.502 Z-19 I-0.844 J-1.25
X-49.575 Y-0.636 I0.427 J-0.569
X-50.428 Y0.502 I-0.427 J0.569
G2 X-51.645 Y0.306 I-0.795 J1.061
G3 X-52.591 Y-0.485 I-0.23 J-0.686
G1 X-52.575 Y-0.592
X-52.445 Y-1.014
X-52.342 Y-1.274
X-51.966 Y-1.82
X-51.91 Y-1.891
X-51.323 Y-2.359
X-50.625 Y-2.633
X-50.431 Y-2.659
X-49.87 Y-2.7
X-49.617 Y-2.664
X-49.136 Y-2.553
X-48.91 Y-2.459
X-48.477 Y-2.209
X-48.3 Y-2.074
X-48.179 Y-1.951
X-47.899 Y-1.645
X-47.791 Y-1.504
X-47.773 Y-1.47
X-47.471 Y-0.815
X-47.356 Y-0.069
X-47.472 Y0.691
X-47.497 Y0.752
X-47.78 Y1.347
X-47.805 Y1.384
X-47.95 Y1.566
X-48.276 Y1.918
X-48.482 Y2.075
X-48.91 Y2.321
X-49.134 Y2.415
X-49.681 Y2.538
X-49.865 Y2.562
X-50.489 Y2.516
X-50.614 Y2.499
X-51.322 Y2.221
X-51.914 Y1.748
X-52.099 Y1.494
X-52.337 Y1.145
X-52.445 Y0.877
X-52.586 Y0.405
X-52.615 Y0.186
Y-0.319
X-52.591 Y-0.485
G3 X-51.489 Y-1.652 Z-19.191 I1.383 J0.201
G1 X-49.871 Y-1.985 Z-19.376
G3 X-49.308 Y0.753 Z-19.868 I0.281 J1.369
X-50.428 Y0.502 Z-20 I-0.281 J-1.369
X-49.575 Y-0.636 I0.427 J-0.569
X-50.428 Y0.502 I-0.427 J0.569
G2 X-51.645 Y0.306 I-0.795 J1.061
G3 X-52.591 Y-0.485 I-0.23 J-0.686
G1 X-52.575 Y-0.592
X-52.445 Y-1.014
X-52.342 Y-1.274
X-51.966 Y-1.82
X-51.91 Y-1.891
X-51.323 Y-2.359
X-50.625 Y-2.633
X-50.431 Y-2.659
X-49.87 Y-2.7
X-49.617 Y-2.664
X-49.136 Y-2.553
X-48.91 Y-2.459
X-48.477 Y-2.209
X-48.3 Y-2.074
X-48.179 Y-1.951
X-47.899 Y-1.645
X-47.791 Y-1.504
X-47.773 Y-1.47
X-47.471 Y-0.815
X-47.356 Y-0.069
X-47.472 Y0.691
X-47.497 Y0.752
X-47.78 Y1.347
X-47.805 Y1.384
X-47.95 Y1.566
X-48.276 Y1.918
X-48.482 Y2.075
X-48.91 Y2.321
X-49.134 Y2.415
X-49.681 Y2.538
X-49.865 Y2.562
X-50.489 Y2.516
X-50.614 Y2.499
X-51.322 Y2.221
X-51.914 Y1.748
X-52.099 Y1.494
X-52.337 Y1.145
X-52.445 Y0.877
X-52.586 Y0.405
X-52.615 Y0.186
Y-0.319
X-52.591 Y-0.485
G3 X-52.566 Y-0.566 Z-19.986 I0.275 J0.04
X-52.523 Y-0.63 Z-19.947 I0.249 J0.122
X-52.477 Y-0.671 Z-19.886 I0.206 J0.186
X-52.443 Y-0.691 Z-19.808 I0.161 J0.226
X-52.431 Y-0.697 Z-19.722 I0.127 J0.247
G0 Z5
X34.705 Y-0.243
Z2.413
G3 X34.707 Y-0.262 Z2.304 I1.498 J0.175 F762
X34.715 Y-0.317 Z2.209 I1.496 J0.194
X34.731 Y-0.4 Z2.138 I1.488 J0.248
X34.758 Y-0.5 Z2.1 I1.471 J0.331
X37.648 Y0.362 Z1.265 I1.445 J0.431
X34.758 Y-0.5 Z0.429 I-1.445 J-0.431
X37.648 Y0.362 Z-0.406 I1.445 J0.431
X34.758 Y-0.5 Z-1.242 I-1.445 J-0.431
X37.711 Y-0.069 Z-2 I1.445 J0.431
X36.289 I-0.711
X37.711 I0.711
G2 X38.256 Y1.038 I1.397
G3 X38.179 Y2.269 I-0.454 J0.59
G1 X38.088 Y2.322
X37.868 Y2.414
X37.289 Y2.542
X37.134 Y2.562
X36.511 Y2.516
X36.403 Y2.501
X36.047 Y2.366
X35.679 Y2.222
X35.085 Y1.746
X34.91 Y1.508
X34.66 Y1.141
X34.568 Y0.919
X34.414 Y0.405
X34.385 Y0.186
Y-0.319
X34.424 Y-0.589
X34.588 Y-1.109
X34.656 Y-1.272
X35.054 Y-1.846
X35.092 Y-1.892
X35.672 Y-2.354
X36.364 Y-2.628
X36.73 Y-2.671
X37.128 Y-2.7
X37.402 Y-2.659
X37.865 Y-2.553
X38.088 Y-2.46
X38.552 Y-2.187
X38.74 Y-2.038
X39.092 Y-1.656
X39.209 Y-1.504
X39.228 Y-1.468
X39.524 Y-0.837
X39.527 Y-0.831
X39.644 Y-0.068
X39.529 Y0.687
X39.503 Y0.752
X39.218 Y1.351
X39.053 Y1.563
X38.741 Y1.9
X38.552 Y2.049
X38.179 Y2.269
G3 X37.952 Y2.193 I-0.08 J-0.137
G1 X36.497 Y-1.283
G3 X36.696 Y-1.494 I0.146 J-0.061
X35.71 Y1.356 Z-2.835 I-0.493 J1.425
X36.696 Y-1.494 Z-3.671 I0.493 J-1.425
X37.711 Y-0.069 Z-4 I-0.493 J1.425
X36.289 I-0.711
X37.711 I0.711
G2 X38.256 Y1.038 I1.397
G3 X38.179 Y2.269 I-0.454 J0.59
G1 X38.088 Y2.322
X37.868 Y2.414
X37.289 Y2.542
X37.134 Y2.562
X36.511 Y2.516
X36.403 Y2.501
X36.047 Y2.366
X35.679 Y2.222
X35.085 Y1.746
X34.91 Y1.508
X34.66 Y1.141
X34.568 Y0.919
X34.414 Y0.405
X34.385 Y0.186
Y-0.319
X34.424 Y-0.589
X34.588 Y-1.109
X34.656 Y-1.272
X35.054 Y-1.846
X35.092 Y-1.892
X35.672 Y-2.354
X36.364 Y-2.628
X36.73 Y-2.671
X37.128 Y-2.7
X37.402 Y-2.659
X37.865 Y-2.553
X38.088 Y-2.46
X38.552 Y-2.187
X38.74 Y-2.038
X39.092 Y-1.656
X39.209 Y-1.504
X39.228 Y-1.468
X39.524 Y-0.837
X39.527 Y-0.831
X39.644 Y-0.068
X39.529 Y0.687
X39.503 Y0.752
X39.218 Y1.351
X39.053 Y1.563
X38.741 Y1.9
X38.552 Y2.049
X38.179 Y2.269
G3 X36.434 Y2.114 Z-4.197 I-0.764 J-1.3
G1 X35.222 Y1.077 Z-4.365
G3 X37.184 Y-1.214 Z-4.863 I0.981 J-1.146
X37.711 Y-0.069 Z-5 I-0.981 J1.146
X36.289 I-0.711
X37.711 I0.711
G2 X38.256 Y1.038 I1.397
G3 X38.179 Y2.269 I-0.454 J0.59
G1 X38.088 Y2.322
X37.868 Y2.414
X37.289 Y2.542
X37.134 Y2.562
X36.511 Y2.516
X36.403 Y2.501
X36.047 Y2.366
X35.679 Y2.222
X35.085 Y1.746
X34.91 Y1.508
X34.66 Y1.141
X34.568 Y0.919
X34.414 Y0.405
X34.385 Y0.186
Y-0.319
X34.424 Y-0.589
X34.588 Y-1.109
X34.656 Y-1.272
X35.054 Y-1.846
X35.092 Y-1.892
X35.672 Y-2.354
X36.364 Y-2.628
X36.73 Y-2.671
X37.128 Y-2.7
X37.402 Y-2.659
X37.865 Y-2.553
X38.088 Y-2.46
X38.552 Y-2.187
X38.74 Y-2.038
X39.092 Y-1.656
X39.209 Y-1.504
X39.228 Y-1.468
X39.524 Y-0.837
X39.527 Y-0.831
X39.644 Y-0.068
X39.529 Y0.687
X39.503 Y0.752
X39.218 Y1.351
X39.053 Y1.563
X38.741 Y1.9
X38.552 Y2.049
X38.179 Y2.269
G3 X37.952 Y2.193 I-0.08 J-0.137
G1 X36.497 Y-1.283
G3 X36.696 Y-1.494 I0.146 J-0.061
X35.71 Y1.356 Z-5.835 I-0.493 J1.425
X36.696 Y-1.494 Z-6.671 I0.493 J-1.425
X37.711 Y-0.069 Z-7 I-0.493 J1.425
X36.289 I-0.711
X37.711 I0.711
G2 X38.256 Y1.038 I1.397
G3 X38.179 Y2.269 I-0.454 J0.59
G1 X38.088 Y2.322
X37.868 Y2.414
X37.289 Y2.542
X37.134 Y2.562
X36.511 Y2.516
X36.403 Y2.501
X36.047 Y2.366
X35.679 Y2.222
X35.085 Y1.746
X34.91 Y1.508
X34.66 Y1.141
X34.568 Y0.919
X34.414 Y0.405
X34.385 Y0.186
Y-0.319
X34.424 Y-0.589
X34.588 Y-1.109
X34.656 Y-1.272
X35.054 Y-1.846
X35.092 Y-1.892
X35.672 Y-2.354
X36.364 Y-2.628
X36.73 Y-2.671
X37.128 Y-2.7
X37.402 Y-2.659
X37.865 Y-2.553
X38.088 Y-2.46
X38.552 Y-2.187
X38.74 Y-2.038
X39.092 Y-1.656
X39.209 Y-1.504
X39.228 Y-1.468
X39.524 Y-0.837
X39.527 Y-0.831
X39.644 Y-0.068
X39.529 Y0.687
X39.503 Y0.752
X39.218 Y1.351
X39.053 Y1.563
X38.741 Y1.9
X38.552 Y2.049
X38.179 Y2.269
G3 X37.952 Y2.193 I-0.08 J-0.137
G1 X36.497 Y-1.283
G3 X36.696 Y-1.494 I0.146 J-0.061
X35.71 Y1.356 Z-7.835 I-0.493 J1.425
X36.696 Y-1.494 Z-8.671 I0.493 J-1.425
X37.711 Y-0.069 Z-9 I-0.493 J1.425
X36.289 I-0.711
X37.711 I0.711
G2 X38.256 Y1.038 I1.397
G3 X38.179 Y2.269 I-0.454 J0.59
G1 X38.088 Y2.322
X37.868 Y2.414
X37.289 Y2.542
X37.134 Y2.562
X36.511 Y2.516
X36.403 Y2.501
X36.047 Y2.366
X35.679 Y2.222
X35.085 Y1.746
X34.91 Y1.508
X34.66 Y1.141
X34.568 Y0.919
X34.414 Y0.405
X34.385 Y0.186
Y-0.319
X34.424 Y-0.589
X34.588 Y-1.109
X34.656 Y-1.272
X35.054 Y-1.846
X35.092 Y-1.892
X35.672 Y-2.354
X36.364 Y-2.628
X36.73 Y-2.671
X37.128 Y-2.7
X37.402 Y-2.659
X37.865 Y-2.553
X38.088 Y-2.46
X38.552 Y-2.187
X38.74 Y-2.038
X39.092 Y-1.656
X39.209 Y-1.504
X39.228 Y-1.468
X39.524 Y-0.837
X39.527 Y-0.831
X39.644 Y-0.068
X39.529 Y0.687
X39.503 Y0.752
X39.218 Y1.351
X39.053 Y1.563
X38.741 Y1.9
X38.552 Y2.049
X38.179 Y2.269
G3 X37.952 Y2.193 I-0.08 J-0.137
G1 X36.497 Y-1.283
G3 X36.696 Y-1.494 I0.146 J-0.061
X35.71 Y1.356 Z-9.835 I-0.493 J1.425
X36.696 Y-1.494 Z-10.671 I0.493 J-1.425
X37.711 Y-0.069 Z-11 I-0.493 J1.425
X36.289 I-0.711
X37.711 I0.711
G2 X38.256 Y1.038 I1.397
G3 X38.179 Y2.269 I-0.454 J0.59
G1 X38.088 Y2.322
X37.868 Y2.414
X37.289 Y2.542
X37.134 Y2.562
X36.511 Y2.516
X36.403 Y2.501
X36.047 Y2.366
X35.679 Y2.222
X35.085 Y1.746
X34.91 Y1.508
X34.66 Y1.141
X34.568 Y0.919
X34.414 Y0.405
X34.385 Y0.186
Y-0.319
X34.424 Y-0.589
X34.588 Y-1.109
X34.656 Y-1.272
X35.054 Y-1.846
X35.092 Y-1.892
X35.672 Y-2.354
X36.364 Y-2.628
X36.73 Y-2.671
X37.128 Y-2.7
X37.402 Y-2.659
X37.865 Y-2.553
X38.088 Y-2.46
X38.552 Y-2.187
X38.74 Y-2.038
X39.092 Y-1.656
X39.209 Y-1.504
X39.228 Y-1.468
X39.524 Y-0.837
X39.527 Y-0.831
X39.644 Y-0.068
X39.529 Y0.687
X39.503 Y0.752
X39.218 Y1.351
X39.053 Y1.563
X38.741 Y1.9
X38.552 Y2.049
X38.179 Y2.269
G3 X37.952 Y2.193 I-0.08 J-0.137
G1 X36.497 Y-1.283
G3 X36.696 Y-1.494 I0.146 J-0.061
X35.71 Y1.356 Z-11.835 I-0.493 J1.425
X36.696 Y-1.494 Z-12.671 I0.493 J-1.425
X37.711 Y-0.069 Z-13 I-0.493 J1.425
X36.289 I-0.711
X37.711 I0.711
G2 X38.256 Y1.038 I1.397
G3 X38.179 Y2.269 I-0.454 J0.59
G1 X38.088 Y2.322
X37.868 Y2.414
X37.289 Y2.542
X37.134 Y2.562
X36.511 Y2.516
X36.403 Y2.501
X36.047 Y2.366
X35.679 Y2.222
X35.085 Y1.746
X34.91 Y1.508
X34.66 Y1.141
X34.568 Y0.919
X34.414 Y0.405
X34.385 Y0.186
Y-0.319
X34.424 Y-0.589
X34.588 Y-1.109
X34.656 Y-1.272
X35.054 Y-1.846
X35.092 Y-1.892
X35.672 Y-2.354
X36.364 Y-2.628
X36.73 Y-2.671
X37.128 Y-2.7
X37.402 Y-2.659
X37.865 Y-2.553
X38.088 Y-2.46
X38.552 Y-2.187
X38.74 Y-2.038
X39.092 Y-1.656
X39.209 Y-1.504
X39.228 Y-1.468
X39.524 Y-0.837
X39.527 Y-0.831
X39.644 Y-0.068
X39.529 Y0.687
X39.503 Y0.752
X39.218 Y1.351
X39.053 Y1.563
X38.741 Y1.9
X38.552 Y2.049
X38.179 Y2.269
G3 X37.952 Y2.193 I-0.08 J-0.137
G1 X36.497 Y-1.283
G3 X36.696 Y-1.494 I0.146 J-0.061
X35.71 Y1.356 Z-13.835 I-0.493 J1.425
X36.696 Y-1.494 Z-14.671 I0.493 J-1.425
X37.711 Y-0.069 Z-15 I-0.493 J1.425
X36.289 I-0.711
X37.711 I0.711
G2 X38.256 Y1.038 I1.397
G3 X38.179 Y2.269 I-0.454 J0.59
G1 X38.088 Y2.322
X37.868 Y2.414
X37.289 Y2.542
X37.134 Y2.562
X36.511 Y2.516
X36.403 Y2.501
X36.047 Y2.366
X35.679 Y2.222
X35.085 Y1.746
X34.91 Y1.508
X34.66 Y1.141
X34.568 Y0.919
X34.414 Y0.405
X34.385 Y0.186
Y-0.319
X34.424 Y-0.589
X34.588 Y-1.109
X34.656 Y-1.272
X35.054 Y-1.846
X35.092 Y-1.892
X35.672 Y-2.354
X36.364 Y-2.628
X36.73 Y-2.671
X37.128 Y-2.7
X37.402 Y-2.659
X37.865 Y-2.553
X38.088 Y-2.46
X38.552 Y-2.187
X38.74 Y-2.038
X39.092 Y-1.656
X39.209 Y-1.504
X39.228 Y-1.468
X39.524 Y-0.837
X39.527 Y-0.831
X39.644 Y-0.068
X39.529 Y0.687
X39.503 Y0.752
X39.218 Y1.351
X39.053 Y1.563
X38.741 Y1.9
X38.552 Y2.049
X38.179 Y2.269
G3 X37.952 Y2.193 I-0.08 J-0.137
G1 X36.497 Y-1.283
G3 X36.696 Y-1.494 I0.146 J-0.061
X35.71 Y1.356 Z-15.835 I-0.493 J1.425
X36.696 Y-1.494 Z-16.671 I0.493 J-1.425
X37.711 Y-0.069 Z-17 I-0.493 J1.425
X36.289 I-0.711
X37.711 I0.711
G2 X38.256 Y1.038 I1.397
G3 X38.179 Y2.269 I-0.454 J0.59
G1 X38.088 Y2.322
X37.868 Y2.414
X37.289 Y2.542
X37.134 Y2.562
X36.511 Y2.516
X36.403 Y2.501
X36.047 Y2.366
X35.679 Y2.222
X35.085 Y1.746
X34.91 Y1.508
X34.66 Y1.141
X34.568 Y0.919
X34.414 Y0.405
X34.385 Y0.186
Y-0.319
X34.424 Y-0.589
X34.588 Y-1.109
X34.656 Y-1.272
X35.054 Y-1.846
X35.092 Y-1.892
X35.672 Y-2.354
X36.364 Y-2.628
X36.73 Y-2.671
X37.128 Y-2.7
X37.402 Y-2.659
X37.865 Y-2.553
X38.088 Y-2.46
X38.552 Y-2.187
X38.74 Y-2.038
X39.092 Y-1.656
X39.209 Y-1.504
X39.228 Y-1.468
X39.524 Y-0.837
X39.527 Y-0.831
X39.644 Y-0.068
X39.529 Y0.687
X39.503 Y0.752
X39.218 Y1.351
X39.053 Y1.563
X38.741 Y1.9
X38.552 Y2.049
X38.179 Y2.269
G3 X37.952 Y2.193 I-0.08 J-0.137
G1 X36.497 Y-1.283
G3 X36.696 Y-1.494 I0.146 J-0.061
X35.71 Y1.356 Z-17.835 I-0.493 J1.425
X36.696 Y-1.494 Z-18.671 I0.493 J-1.425
X37.711 Y-0.069 Z-19 I-0.493 J1.425
X36.289 I-0.711
X37.711 I0.711
G2 X38.256 Y1.038 I1.397
G3 X38.179 Y2.269 I-0.454 J0.59
G1 X38.088 Y2.322
X37.868 Y2.414
X37.289 Y2.542
X37.134 Y2.562
X36.511 Y2.516
X36.403 Y2.501
X36.047 Y2.366
X35.679 Y2.222
X35.085 Y1.746
X34.91 Y1.508
X34.66 Y1.141
X34.568 Y0.919
X34.414 Y0.405
X34.385 Y0.186
Y-0.319
X34.424 Y-0.589
X34.588 Y-1.109
X34.656 Y-1.272
X35.054 Y-1.846
X35.092 Y-1.892
X35.672 Y-2.354
X36.364 Y-2.628
X36.73 Y-2.671
X37.128 Y-2.7
X37.402 Y-2.659
X37.865 Y-2.553
X38.088 Y-2.46
X38.552 Y-2.187
X38.74 Y-2.038
X39.092 Y-1.656
X39.209 Y-1.504
X39.228 Y-1.468
X39.524 Y-0.837
X39.527 Y-0.831
X39.644 Y-0.068
X39.529 Y0.687
X39.503 Y0.752
X39.218 Y1.351
X39.053 Y1.563
X38.741 Y1.9
X38.552 Y2.049
X38.179 Y2.269
G3 X36.434 Y2.114 Z-19.197 I-0.764 J-1.3
G1 X35.222 Y1.077 Z-19.365
G3 X37.184 Y-1.214 Z-19.863 I0.981 J-1.146
X37.711 Y-0.069 Z-20 I-0.981 J1.146
X36.289 I-0.711
X37.711 I0.711
G2 X38.256 Y1.038 I1.397
G3 X38.179 Y2.269 I-0.454 J0.59
G1 X38.088 Y2.322
X37.868 Y2.414
X37.289 Y2.542
X37.134 Y2.562
X36.511 Y2.516
X36.403 Y2.501
X36.047 Y2.366
X35.679 Y2.222
X35.085 Y1.746
X34.91 Y1.508
X34.66 Y1.141
X34.568 Y0.919
X34.414 Y0.405
X34.385 Y0.186
Y-0.319
X34.424 Y-0.589
X34.588 Y-1.109
X34.656 Y-1.272
X35.054 Y-1.846
X35.092 Y-1.892
X35.672 Y-2.354
X36.364 Y-2.628
X36.73 Y-2.671
X37.128 Y-2.7
X37.402 Y-2.659
X37.865 Y-2.553
X38.088 Y-2.46
X38.552 Y-2.187
X38.74 Y-2.038
X39.092 Y-1.656
X39.209 Y-1.504
X39.228 Y-1.468
X39.524 Y-0.837
X39.527 Y-0.831
X39.644 Y-0.068
X39.529 Y0.687
X39.503 Y0.752
X39.218 Y1.351
X39.053 Y1.563
X38.741 Y1.9
X38.552 Y2.049
X38.179 Y2.269
G3 X38.099 Y2.3 Z-19.986 I-0.141 J-0.239
X38.022 Y2.307 Z-19.947 I-0.061 J-0.271
X37.962 Y2.296 Z-19.886 I0.016 J-0.277
X37.925 Y2.283 Z-19.808 I0.076 J-0.267
X37.913 Y2.277 Z-19.722 I0.113 J-0.253
G0 Z5
X47.705 Y-0.243
Z2.413
G3 X47.707 Y-0.262 Z2.304 I1.498 J0.175 F762
X47.715 Y-0.316 Z2.209 I1.496 J0.194
X47.731 Y-0.399 Z2.138 I1.488 J0.248
X47.758 Y-0.499 Z2.1 I1.471 J0.331
X50.648 Y0.363 Z1.265 I1.445 J0.431
X47.758 Y-0.499 Z0.429 I-1.445 J-0.431
X50.648 Y0.363 Z-0.406 I1.445 J0.431
X47.758 Y-0.499 Z-1.242 I-1.445 J-0.431
X50.711 Y-0.068 Z-2 I1.445 J0.431
X49.288 I-0.711
X50.711 I0.711
G2 X51.259 Y1.037 I1.388
G3 X51.177 Y2.268 I-0.447 J0.588
G1 X51.063 Y2.333
X50.837 Y2.422
X50.325 Y2.537
X50.107 Y2.561
X49.518 Y2.516
X49.376 Y2.496
X48.679 Y2.222
X48.092 Y1.754
X48.021 Y1.666
X47.66 Y1.141
X47.565 Y0.908
X47.414 Y0.405
X47.385 Y0.186
Y-0.319
X47.424 Y-0.589
X47.588 Y-1.109
X47.656 Y-1.273
X48.026 Y-1.81
X48.081 Y-1.882
X48.679 Y-2.36
X49.377 Y-2.634
X49.485 Y-2.649
X50.108 Y-2.699
X50.322 Y-2.675
X50.881 Y-2.546
X51.106 Y-2.45
X51.524 Y-2.208
X51.709 Y-2.067
X52.103 Y-1.642
X52.209 Y-1.504
X52.23 Y-1.465
X52.47 Y-0.966
X52.527 Y-0.83
X52.644 Y-0.069
X52.528 Y0.691
X52.47 Y0.829
X52.222 Y1.345
X52.195 Y1.384
X52.055 Y1.561
X51.711 Y1.928
X51.527 Y2.069
X51.177 Y2.268
G3 X50.952 Y2.191 I-0.078 J-0.138
G1 X49.497 Y-1.282
G3 X49.696 Y-1.493 I0.146 J-0.061
X48.71 Y1.357 Z-2.835 I-0.493 J1.425
X49.696 Y-1.493 Z-3.671 I0.493 J-1.425
X50.711 Y-0.068 Z-4 I-0.493 J1.425
X49.288 I-0.711
X50.711 I0.711
G2 X51.259 Y1.037 I1.388
G3 X51.177 Y2.268 I-0.447 J0.588
G1 X51.063 Y2.333
X50.837 Y2.422
X50.325 Y2.537
X50.107 Y2.561
X49.518 Y2.516
X49.376 Y2.496
X48.679 Y2.222
X48.092 Y1.754
X48.021 Y1.666
X47.66 Y1.141
X47.565 Y0.908
X47.414 Y0.405
X47.385 Y0.186
Y-0.319
X47.424 Y-0.589
X47.588 Y-1.109
X47.656 Y-1.273
X48.026 Y-1.81
X48.081 Y-1.882
X48.679 Y-2.36
X49.377 Y-2.634
X49.485 Y-2.649
X50.108 Y-2.699
X50.322 Y-2.675
X50.881 Y-2.546
X51.106 Y-2.45
X51.524 Y-2.208
X51.709 Y-2.067
X52.103 Y-1.642
X52.209 Y-1.504
X52.23 Y-1.465
X52.47 Y-0.966
X52.527 Y-0.83
X52.644 Y-0.069
X52.528 Y0.691
X52.47 Y0.829
X52.222 Y1.345
X52.195 Y1.384
X52.055 Y1.561
X51.711 Y1.928
X51.527 Y2.069
X51.177 Y2.268
G3 X49.466 Y2.115 Z-4.193 I-0.745 J-1.311
G1 X48.237 Y1.091 Z-4.361
G3 X50.168 Y-1.227 Z-4.861 I0.966 J-1.159
X50.711 Y-0.068 Z-5 I-0.966 J1.159
X49.288 I-0.711
X50.711 I0.711
G2 X51.259 Y1.037 I1.388
G3 X51.177 Y2.268 I-0.447 J0.588
G1 X51.063 Y2.333
X50.837 Y2.422
X50.325 Y2.537
X50.107 Y2.561
X49.518 Y2.516
X49.376 Y2.496
X48.679 Y2.222
X48.092 Y1.754
X48.021 Y1.666
X47.66 Y1.141
X47.565 Y0.908
X47.414 Y0.405
X47.385 Y0.186
Y-0.319
X47.424 Y-0.589
X47.588 Y-1.109
X47.656 Y-1.273
X48.026 Y-1.81
X48.081 Y-1.882
X48.679 Y-2.36
X49.377 Y-2.634
X49.485 Y-2.649
X50.108 Y-2.699
X50.322 Y-2.675
X50.881 Y-2.546
X51.106 Y-2.45
X51.524 Y-2.208
X51.709 Y-2.067
X52.103 Y-1.642
X52.209 Y-1.504
X52.23 Y-1.465
X52.47 Y-0.966
X52.527 Y-0.83
X52.644 Y-0.069
X52.528 Y0.691
X52.47 Y0.829
X52.222 Y1.345
X52.195 Y1.384
X52.055 Y1.561
X51.711 Y1.928
X51.527 Y2.069
X51.177 Y2.268
G3 X50.952 Y2.191 I-0.078 J-0.138
G1 X49.497 Y-1.282
G3 X49.696 Y-1.493 I0.146 J-0.061
X48.71 Y1.357 Z-5.835 I-0.493 J1.425
X49.696 Y-1.493 Z-6.671 I0.493 J-1.425
X50.711 Y-0.068 Z-7 I-0.493 J1.425
X49.288 I-0.711
X50.711 I0.711
G2 X51.259 Y1.037 I1.388
G3 X51.177 Y2.268 I-0.447 J0.588
G1 X51.063 Y2.333
X50.837 Y2.422
X50.325 Y2.537
X50.107 Y2.561
X49.518 Y2.516
X49.376 Y2.496
X48.679 Y2.222
X48.092 Y1.754
X48.021 Y1.666
X47.66 Y1.141
X47.565 Y0.908
X47.414 Y0.405
X47.385 Y0.186
Y-0.319
X47.424 Y-0.589
X47.588 Y-1.109
X47.656 Y-1.273
X48.026 Y-1.81
X48.081 Y-1.882
X48.679 Y-2.36
X49.377 Y-2.634
X49.485 Y-2.649
X50.108 Y-2.699
X50.322 Y-2.675
X50.881 Y-2.546
X51.106 Y-2.45
X51.524 Y-2.208
X51.709 Y-2.067
X52.103 Y-1.642
X52.209 Y-1.504
X52.23 Y-1.465
X52.47 Y-0.966
X52.527 Y-0.83
X52.644 Y-0.069
X52.528 Y0.691
X52.47 Y0.829
X52.222 Y1.345
X52.195 Y1.384
X52.055 Y1.561
X51.711 Y1.928
X51.527 Y2.069
X51.177 Y2.268
G3 X50.952 Y2.191 I-0.078 J-0.138
G1 X49.497 Y-1.282
G3 X49.696 Y-1.493 I0.146 J-0.061
X48.71 Y1.357 Z-7.835 I-0.493 J1.425
X49.696 Y-1.493 Z-8.671 I0.493 J-1.425
X50.711 Y-0.068 Z-9 I-0.493 J1.425
X49.288 I-0.711
X50.711 I0.711
G2 X51.259 Y1.037 I1.388
G3 X51.177 Y2.268 I-0.447 J0.588
G1 X51.063 Y2.333
X50.837 Y2.422
X50.325 Y2.537
X50.107 Y2.561
X49.518 Y2.516
X49.376 Y2.496
X48.679 Y2.222
X48.092 Y1.754
X48.021 Y1.666
X47.66 Y1.141
X47.565 Y0.908
X47.414 Y0.405
X47.385 Y0.186
Y-0.319
X47.424 Y-0.589
X47.588 Y-1.109
X47.656 Y-1.273
X48.026 Y-1.81
X48.081 Y-1.882
X48.679 Y-2.36
X49.377 Y-2.634
X49.485 Y-2.649
X50.108 Y-2.699
X50.322 Y-2.675
X50.881 Y-2.546
X51.106 Y-2.45
X51.524 Y-2.208
X51.709 Y-2.067
X52.103 Y-1.642
X52.209 Y-1.504
X52.23 Y-1.465
X52.47 Y-0.966
X52.527 Y-0.83
X52.644 Y-0.069
X52.528 Y0.691
X52.47 Y0.829
X52.222 Y1.345
X52.195 Y1.384
X52.055 Y1.561
X51.711 Y1.928
X51.527 Y2.069
X51.177 Y2.268
G3 X50.952 Y2.191 I-0.078 J-0.138
G1 X49.497 Y-1.282
G3 X49.696 Y-1.493 I0.146 J-0.061
X48.71 Y1.357 Z-9.835 I-0.493 J1.425
X49.696 Y-1.493 Z-10.671 I0.493 J-1.425
X50.711 Y-0.068 Z-11 I-0.493 J1.425
X49.288 I-0.711
X50.711 I0.711
G2 X51.259 Y1.037 I1.388
G3 X51.177 Y2.268 I-0.447 J0.588
G1 X51.063 Y2.333
X50.837 Y2.422
X50.325 Y2.537
X50.107 Y2.561
X49.518 Y2.516
X49.376 Y2.496
X48.679 Y2.222
X48.092 Y1.754
X48.021 Y1.666
X47.66 Y1.141
X47.565 Y0.908
X47.414 Y0.405
X47.385 Y0.186
Y-0.319
X47.424 Y-0.589
X47.588 Y-1.109
X47.656 Y-1.273
X48.026 Y-1.81
X48.081 Y-1.882
X48.679 Y-2.36
X49.377 Y-2.634
X49.485 Y-2.649
X50.108 Y-2.699
X50.322 Y-2.675
X50.881 Y-2.546
X51.106 Y-2.45
X51.524 Y-2.208
X51.709 Y-2.067
X52.103 Y-1.642
X52.209 Y-1.504
X52.23 Y-1.465
X52.47 Y-0.966
X52.527 Y-0.83
X52.644 Y-0.069
X52.528 Y0.691
X52.47 Y0.829
X52.222 Y1.345
X52.195 Y1.384
X52.055 Y1.561
X51.711 Y1.928
X51.527 Y2.069
X51.177 Y2.268
G3 X50.952 Y2.191 I-0.078 J-0.138
G1 X49.497 Y-1.282
G3 X49.696 Y-1.493 I0.146 J-0.061
X48.71 Y1.357 Z-11.835 I-0.493 J1.425
X49.696 Y-1.493 Z-12.671 I0.493 J-1.425
X50.711 Y-0.068 Z-13 I-0.493 J1.425
X49.288 I-0.711
X50.711 I0.711
G2 X51.259 Y1.037 I1.388
G3 X51.177 Y2.268 I-0.447 J0.588
G1 X51.063 Y2.333
X50.837 Y2.422
X50.325 Y2.537
X50.107 Y2.561
X49.518 Y2.516
X49.376 Y2.496
X48.679 Y2.222
X48.092 Y1.754
X48.021 Y1.666
X47.66 Y1.141
X47.565 Y0.908
X47.414 Y0.405
X47.385 Y0.186
Y-0.319
X47.424 Y-0.589
X47.588 Y-1.109
X47.656 Y-1.273
X48.026 Y-1.81
X48.081 Y-1.882
X48.679 Y-2.36
X49.377 Y-2.634
X49.485 Y-2.649
X50.108 Y-2.699
X50.322 Y-2.675
X50.881 Y-2.546
X51.106 Y-2.45
X51.524 Y-2.208
X51.709 Y-2.067
X52.103 Y-1.642
X52.209 Y-1.504
X52.23 Y-1.465
X52.47 Y-0.966
X52.527 Y-0.83
X52.644 Y-0.069
X52.528 Y0.691
X52.47 Y0.829
X52.222 Y1.345
X52.195 Y1.384
X52.055 Y1.561
X51.711 Y1.928
X51.527 Y2.069
X51.177 Y2.268
G3 X50.952 Y2.191 I-0.078 J-0.138
G1 X49.497 Y-1.282
G3 X49.696 Y-1.493 I0.146 J-0.061
X48.71 Y1.357 Z-13.835 I-0.493 J1.425
X49.696 Y-1.493 Z-14.671 I0.493 J-1.425
X50.711 Y-0.068 Z-15 I-0.493 J1.425
X49.288 I-0.711
X50.711 I0.711
G2 X51.259 Y1.037 I1.388
G3 X51.177 Y2.268 I-0.447 J0.588
G1 X51.063 Y2.333
X50.837 Y2.422
X50.325 Y2.537
X50.107 Y2.561
X49.518 Y2.516
X49.376 Y2.496
X48.679 Y2.222
X48.092 Y1.754
X48.021 Y1.666
X47.66 Y1.141
X47.565 Y0.908
X47.414 Y0.405
X47.385 Y0.186
Y-0.319
X47.424 Y-0.589
X47.588 Y-1.109
X47.656 Y-1.273
X48.026 Y-1.81
X48.081 Y-1.882
X48.679 Y-2.36
X49.377 Y-2.634
X49.485 Y-2.649
X50.108 Y-2.699
X50.322 Y-2.675
X50.881 Y-2.546
X51.106 Y-2.45
X51.524 Y-2.208
X51.709 Y-2.067
X52.103 Y-1.642
X52.209 Y-1.504
X52.23 Y-1.465
X52.47 Y-0.966
X52.527 Y-0.83
X52.644 Y-0.069
X52.528 Y0.691
X52.47 Y0.829
X52.222 Y1.345
X52.195 Y1.384
X52.055 Y1.561
X51.711 Y1.928
X51.527 Y2.069
X51.177 Y2.268
G3 X50.952 Y2.191 I-0.078 J-0.138
G1 X49.497 Y-1.282
G3 X49.696 Y-1.493 I0.146 J-0.061
X48.71 Y1.357 Z-15.835 I-0.493 J1.425
X49.696 Y-1.493 Z-16.671 I0.493 J-1.425
X50.711 Y-0.068 Z-17 I-0.493 J1.425
X49.288 I-0.711
X50.711 I0.711
G2 X51.259 Y1.037 I1.388
G3 X51.177 Y2.268 I-0.447 J0.588
G1 X51.063 Y2.333
X50.837 Y2.422
X50.325 Y2.537
X50.107 Y2.561
X49.518 Y2.516
X49.376 Y2.496
X48.679 Y2.222
X48.092 Y1.754
X48.021 Y1.666
X47.66 Y1.141
X47.565 Y0.908
X47.414 Y0.405
X47.385 Y0.186
Y-0.319
X47.424 Y-0.589
X47.588 Y-1.109
X47.656 Y-1.273
X48.026 Y-1.81
X48.081 Y-1.882
X48.679 Y-2.36
X49.377 Y-2.634
X49.485 Y-2.649
X50.108 Y-2.699
X50.322 Y-2.675
X50.881 Y-2.546
X51.106 Y-2.45
X51.524 Y-2.208
X51.709 Y-2.067
X52.103 Y-1.642
X52.209 Y-1.504
X52.23 Y-1.465
X52.47 Y-0.966
X52.527 Y-0.83
X52.644 Y-0.069
X52.528 Y0.691
X52.47 Y0.829
X52.222 Y1.345
X52.195 Y1.384
X52.055 Y1.561
X51.711 Y1.928
X51.527 Y2.069
X51.177 Y2.268
G3 X50.952 Y2.191 I-0.078 J-0.138
G1 X49.497 Y-1.282
G3 X49.696 Y-1.493 I0.146 J-0.061
X48.71 Y1.357 Z-17.835 I-0.493 J1.425
X49.696 Y-1.493 Z-18.671 I0.493 J-1.425
X50.711 Y-0.068 Z-19 I-0.493 J1.425
X49.288 I-0.711
X50.711 I0.711
G2 X51.259 Y1.037 I1.388
G3 X51.177 Y2.268 I-0.447 J0.588
G1 X51.063 Y2.333
X50.837 Y2.422
X50.325 Y2.537
X50.107 Y2.561
X49.518 Y2.516
X49.376 Y2.496
X48.679 Y2.222
X48.092 Y1.754
X48.021 Y1.666
X47.66 Y1.141
X47.565 Y0.908
X47.414 Y0.405
X47.385 Y0.186
Y-0.319
X47.424 Y-0.589
X47.588 Y-1.109
X47.656 Y-1.273
X48.026 Y-1.81
X48.081 Y-1.882
X48.679 Y-2.36
X49.377 Y-2.634
X49.485 Y-2.649
X50.108 Y-2.699
X50.322 Y-2.675
X50.881 Y-2.546
X51.106 Y-2.45
X51.524 Y-2.208
X51.709 Y-2.067
X52.103 Y-1.642
X52.209 Y-1.504
X52.23 Y-1.465
X52.47 Y-0.966
X52.527 Y-0.83
X52.644 Y-0.069
X52.528 Y0.691
X52.47 Y0.829
X52.222 Y1.345
X52.195 Y1.384
X52.055 Y1.561
X51.711 Y1.928
X51.527 Y2.069
X51.177 Y2.268
G3 X49.466 Y2.115 Z-19.193 I-0.745 J-1.311
G1 X48.237 Y1.091 Z-19.361
G3 X50.168 Y-1.227 Z-19.861 I0.966 J-1.159
X50.711 Y-0.068 Z-20 I-0.966 J1.159
X49.288 I-0.711
X50.711 I0.711
G2 X51.259 Y1.037 I1.388
G3 X51.177 Y2.268 I-0.447 J0.588
G1 X51.063 Y2.333
X50.837 Y2.422
X50.325 Y2.537
X50.107 Y2.561
X49.518 Y2.516
X49.376 Y2.496
X48.679 Y2.222
X48.092 Y1.754
X48.021 Y1.666
X47.66 Y1.141
X47.565 Y0.908
X47.414 Y0.405
X47.385 Y0.186
Y-0.319
X47.424 Y-0.589
X47.588 Y-1.109
X47.656 Y-1.273
X48.026 Y-1.81
X48.081 Y-1.882
X48.679 Y-2.36
X49.377 Y-2.634
X49.485 Y-2.649
X50.108 Y-2.699
X50.322 Y-2.675
X50.881 Y-2.546
X51.106 Y-2.45
X51.524 Y-2.208
X51.709 Y-2.067
X52.103 Y-1.642
X52.209 Y-1.504
X52.23 Y-1.465
X52.47 Y-0.966
X52.527 Y-0.83
X52.644 Y-0.069
X52.528 Y0.691
X52.47 Y0.829
X52.222 Y1.345
X52.195 Y1.384
X52.055 Y1.561
X51.711 Y1.928
X51.527 Y2.069
X51.177 Y2.268
G3 X51.097 Y2.298 Z-19.986 I-0.137 J-0.241
X51.02 Y2.303 Z-19.947 I-0.057 J-0.272
X50.96 Y2.292 Z-19.886 I0.02 J-0.277
X50.923 Y2.278 Z-19.808 I0.08 J-0.266
X50.911 Y2.272 Z-19.722 I0.117 J-0.252
G0 Z10

(2D Contour1)
M8
X25.521 Y-21.587
Z10
Z5
G1 Z3 F762
Z2.5
X0 Z-2
X-60
G2 X-61.588 Y-20 J1.587
G1 Y40
G2 X-60 Y41.588 I1.588
G1 X60
G2 X61.588 Y40 J-1.588
G1 Y-20
G2 X60 Y-21.587 I-1.588
G1 X0
X-58.264 Z-4
X-60
G2 X-61.588 Y-20 J1.587
G1 Y40
G2 X-60 Y41.588 I1.588
G1 X60
G2 X61.588 Y40 J-1.588
G1 Y-20
G2 X60 Y-21.587 I-1.588
G1 X0
X-58.264
X-60 Z-4.06
G2 X-61.588 Y-20 Z-4.145 J1.587
G1 Y34.034 Z-6
Y40
G2 X-60 Y41.588 I1.588
G1 X60
G2 X61.588 Y40 J-1.588
G1 Y-20
G2 X60 Y-21.587 I-1.588
G1 X-58.264
X-60
G2 X-61.588 Y-20 J1.587
G1 Y34.034
Y40 Z-6.205
G2 X-60 Y41.588 Z-6.29 I1.588
G1 X-10.196 Z-8
X60
G2 X61.588 Y40 J-1.588
G1 Y-20
G2 X60 Y-21.587 I-1.588
G1 X-60
G2 X-61.588 Y-20 J1.587
G1 Y34.034
Y40
G2 X-60 Y41.588 I1.588
G1 X-10.196
X48.068 Z-10
X60
G2 X61.588 Y40 J-1.588
G1 Y-20
G2 X60 Y-21.587 I-1.588
G1 X-60
G2 X-61.588 Y-20 J1.587
G1 Y40
G2 X-60 Y41.588 I1.588
G1 X48.068
X60 Z-10.41
G2 X61.588 Y40 Z-10.495 J-1.588
G1 Y-3.838 Z-12
Y-20
G2 X60 Y-21.587 I-1.588
G1 X-60
G2 X-61.588 Y-20 J1.587
G1 Y40
G2 X-60 Y41.588 I1.588
G1 X48.068
X60
G2 X61.588 Y40 J-1.588
G1 Y-3.838
Y-20 Z-12.555
G2 X60 Y-21.587 Z-12.64 I-1.588
G1 X20.392 Z-14
X-60
G2 X-61.588 Y-20 J1.587
G1 Y40
G2 X-60 Y41.588 I1.588
G1 X60
G2 X61.588 Y40 J-1.588
G1 Y-3.838
Y-20
G2 X60 Y-21.587 I-1.588
G1 X20.392
X-37.871 Z-16
X-60
G2 X-61.588 Y-20 J1.587
G1 Y40
G2 X-60 Y41.588 I1.588
G1 X60
G2 X61.588 Y40 J-1.588
G1 Y-20
G2 X60 Y-21.587 I-1.588
G1 X-37.871
X-60 Z-16.76
G2 X-61.588 Y-20 Z-16.845 J1.587
G1 Y13.641 Z-18
Y40
G2 X-60 Y41.588 I1.588
G1 X60
G2 X61.588 Y40 J-1.588
G1 Y-20
G2 X60 Y-21.587 I-1.588
G1 X-37.871
X-60
G2 X-61.588 Y-20 J1.587
G1 Y13.641
Y40 Z-18.905
G2 X-60 Y41.588 Z-18.99 I1.588
G1 X-30.588 Z-20
X60
G2 X61.588 Y40 J-1.588
G1 Y-20
G2 X60 Y-21.587 I-1.588
G1 X-60
G2 X-61.588 Y-20 J1.587
G1 Y13.641
Y40
G2 X-60 Y41.588 I1.588
G1 X-30.588
G3 X-30.271 Y41.905 J0.317
G1 Y42.222
G19 G3 Y42.54 Z-19.683 K0.317
G0 Z10
G17
M9
M30
%
