(_40_80_160_)
(T1  D=4. CR=0. - ZMIN=-27.49 - FLAT END MILL)
G90 G94 G91.1 G40 G49 G17
G21

(ADAPTIVE1)
M5
M9
T1
S2670 M3
G54
M8
G0 X21.401 Y20.003
G43 Z10. H1
Z5.
Z0.91
G1 Z0.51 F400.
G3 X18.601 Y19.997 Z-0.266 R1.4
X21.401 Y20.003 Z-1.041 R1.4
X18.601 Y19.997 Z-1.817 R1.4
X21.401 Y20.003 Z-2.592 R1.4
X18.601 Y19.997 Z-3.368 R1.4
X21.401 Y20.003 Z-4.143 R1.4
X18.601 Y19.997 Z-4.919 R1.4
X21.401 Y20.003 Z-5.694 R1.4
X18.601 Y19.997 Z-6.47 R1.4
X21.401 Y20.003 Z-7.245 R1.4
X18.601 Y19.997 Z-8.021 R1.4
X21.401 Y20.003 Z-8.796 R1.4
X18.601 Y19.997 Z-9.572 R1.4
X21.401 Y20.003 Z-10.347 R1.4
X18.601 Y19.997 Z-11.123 R1.4
X21.401 Y20.003 Z-11.898 R1.4
X18.601 Y19.997 Z-12.674 R1.4
X21.401 Y20.003 Z-13.449 R1.4
X18.601 Y19.997 Z-14.225 R1.4
X21.401 Y20. Z-15. R1.4
X18.601 R1.4
X21.401 R1.4
G1 X21.438 Y20.77
X21.431 Y20.905
X21.403 Y21.037
X21.357 Y21.164
X21.297 Y21.285
X21.223 Y21.398
X21.139 Y21.503
X21.044 Y21.6
X20.941 Y21.687
X20.831 Y21.765
X20.715 Y21.833
X20.593 Y21.892
X20.467 Y21.94
X20.338 Y21.979
X20.206 Y22.007
X19.937 Y22.034
X19.668 Y22.022
X19.402 Y21.972
X19.147 Y21.885
X18.906 Y21.764
X18.683 Y21.612
X18.482 Y21.432
X18.307 Y21.226
X18.161 Y21.
X18.045 Y20.756
X17.962 Y20.499
X17.914 Y20.234
X17.9 Y19.964
X17.92 Y19.695
X17.976 Y19.431
X18.065 Y19.176
X18.186 Y18.935
X18.336 Y18.711
X18.515 Y18.509
X18.718 Y18.33
X18.941 Y18.18
X19.183 Y18.059
X19.438 Y17.97
X19.702 Y17.915
X19.971 Y17.894
X20.24 Y17.907
X20.506 Y17.955
X20.763 Y18.036
X21.008 Y18.15
X21.236 Y18.294
X21.444 Y18.466
X21.629 Y18.663
X21.792 Y18.891
X21.883 Y19.047
X21.983 Y19.247
X22.073 Y19.461
X22.159 Y19.716
X22.188 Y19.851
X22.202 Y19.989
X22.199 Y20.128
X22.173 Y20.464
X22.153 Y20.542
X21.94 Y21.081
X21.888 Y21.164
X21.509 Y21.631
X21.006 Y21.979
X20.929 Y22.017
X20.384 Y22.186
X20.306 Y22.2
X19.683
X19.45 Y22.135
X19.061 Y22.014
X18.94 Y21.943
X18.492 Y21.631
X18.112 Y21.164
X18.049 Y21.057
X17.847 Y20.542
X17.827 Y20.464
X17.783 Y19.841
X17.866 Y19.452
X17.934 Y19.18
X18.248 Y18.635
X18.36 Y18.517
X18.728 Y18.179
X18.827 Y18.12
X19.294 Y17.896
X19.372 Y17.869
X19.995 Y17.778
X20.228 Y17.807
X20.656 Y17.877
X21.234 Y18.152
X21.318 Y18.218
X21.722 Y18.596
X21.785 Y18.686
X22.065 Y19.177
X22.17 Y19.608
X22.217 Y19.841
X22.199 Y20.128
X22.185 Y20.174 Z-14.992
X22.171 Y20.215 Z-14.97
X22.161 Y20.248 Z-14.935
X22.154 Y20.269 Z-14.891
X22.152 Y20.276 Z-14.843
G0 Z5.
X21.4 Y60.002
Z0.91
G1 Z0.51 F400.
G3 X18.6 Y59.996 Z-0.266 R1.4
X21.4 Y60.002 Z-1.041 R1.4
X18.6 Y59.996 Z-1.817 R1.4
X21.4 Y60.002 Z-2.592 R1.4
X18.6 Y59.996 Z-3.368 R1.4
X21.4 Y60.002 Z-4.143 R1.4
X18.6 Y59.996 Z-4.919 R1.4
X21.4 Y60.002 Z-5.694 R1.4
X18.6 Y59.996 Z-6.47 R1.4
X21.4 Y60.002 Z-7.245 R1.4
X18.6 Y59.996 Z-8.021 R1.4
X21.4 Y60.002 Z-8.796 R1.4
X18.6 Y59.996 Z-9.572 R1.4
X21.4 Y60.002 Z-10.347 R1.4
X18.6 Y59.996 Z-11.123 R1.4
X21.4 Y60.002 Z-11.898 R1.4
X18.6 Y59.996 Z-12.674 R1.4
X21.4 Y60.002 Z-13.449 R1.4
X18.6 Y59.996 Z-14.225 R1.4
X21.4 Y59.999 Z-15. R1.4
X18.6 R1.4
X21.4 R1.4
G1 X21.437 Y60.769
X21.43 Y60.904
X21.402 Y61.036
X21.357 Y61.163
X21.296 Y61.284
X21.223 Y61.397
X21.138 Y61.502
X21.044 Y61.599
X20.941 Y61.686
X20.831 Y61.764
X20.714 Y61.833
X20.593 Y61.891
X20.467 Y61.939
X20.337 Y61.978
X20.205 Y62.006
X19.937 Y62.033
X19.667 Y62.021
X19.402 Y61.971
X19.147 Y61.884
X18.905 Y61.764
X18.682 Y61.611
X18.482 Y61.431
X18.307 Y61.226
X18.16 Y60.999
X18.045 Y60.755
X17.962 Y60.498
X17.913 Y60.233
X17.899 Y59.963
X17.92 Y59.694
X17.975 Y59.43
X18.064 Y59.175
X18.185 Y58.934
X18.336 Y58.71
X18.514 Y58.508
X18.717 Y58.33
X18.941 Y58.179
X19.183 Y58.058
X19.437 Y57.97
X19.701 Y57.914
X19.971 Y57.893
X20.24 Y57.906
X20.506 Y57.954
X20.763 Y58.036
X21.008 Y58.149
X21.236 Y58.293
X21.444 Y58.465
X21.628 Y58.662
X21.792 Y58.89
X21.883 Y59.046
X21.982 Y59.246
X22.073 Y59.461
X22.159 Y59.716
X22.188 Y59.852
X22.202 Y59.989
X22.199 Y60.128
X22.164 Y60.509
X21.94 Y61.081
X21.884 Y61.17
X21.502 Y61.637
X20.968 Y62.
X20.384 Y62.186
X20.306 Y62.2
X19.683 Y62.199
X19.606 Y62.183
X19.061 Y62.014
X18.948 Y61.949
X18.497 Y61.637
X18.36 Y61.476
X18.076 Y61.114
X17.837 Y60.509
X17.809 Y60.236
X17.784 Y59.847
X17.793 Y59.77
X17.932 Y59.186
X18.243 Y58.641
X18.36 Y58.517
X18.723 Y58.182
X18.827 Y58.12
X19.294 Y57.896
X19.372 Y57.869
X19.995 Y57.778
X20.228 Y57.807
X20.656 Y57.877
X21.237 Y58.154
X21.318 Y58.218
X21.726 Y58.602
X21.785 Y58.686
X22.05 Y59.147
X22.079 Y59.216
X22.207 Y59.77
X22.216 Y59.847
X22.199 Y60.128
X22.185 Y60.174 Z-14.992
X22.171 Y60.215 Z-14.97
X22.161 Y60.248 Z-14.935
X22.154 Y60.269 Z-14.891
X22.152 Y60.277 Z-14.843
G0 Z5.
X61.4 Y20.003
Z0.91
G1 Z0.51 F400.
G3 X58.6 Y19.997 Z-0.266 R1.4
X61.4 Y20.003 Z-1.041 R1.4
X58.6 Y19.997 Z-1.817 R1.4
X61.4 Y20.003 Z-2.592 R1.4
X58.6 Y19.997 Z-3.368 R1.4
X61.4 Y20.003 Z-4.143 R1.4
X58.6 Y19.997 Z-4.919 R1.4
X61.4 Y20.003 Z-5.694 R1.4
X58.6 Y19.997 Z-6.47 R1.4
X61.4 Y20.003 Z-7.245 R1.4
X58.6 Y19.997 Z-8.021 R1.4
X61.4 Y20.003 Z-8.796 R1.4
X58.6 Y19.997 Z-9.572 R1.4
X61.4 Y20.003 Z-10.347 R1.4
X58.6 Y19.997 Z-11.123 R1.4
X61.4 Y20.003 Z-11.898 R1.4
X58.6 Y19.997 Z-12.674 R1.4
X61.4 Y20.003 Z-13.449 R1.4
X58.6 Y19.997 Z-14.225 R1.4
X61.4 Y20. Z-15. R1.4
X58.6 R1.4
X61.4 R1.4
G1 X61.437 Y20.77
X61.43 Y20.905
X61.402 Y21.037
X61.357 Y21.164
X61.296 Y21.285
X61.223 Y21.398
X61.138 Y21.503
X61.044 Y21.6
X60.941 Y21.687
X60.831 Y21.765
X60.714 Y21.833
X60.593 Y21.892
X60.467 Y21.94
X60.337 Y21.979
X60.205 Y22.007
X59.937 Y22.034
X59.667 Y22.022
X59.402 Y21.972
X59.147 Y21.885
X58.905 Y21.764
X58.682 Y21.612
X58.482 Y21.432
X58.307 Y21.226
X58.16 Y21.
X58.045 Y20.756
X57.962 Y20.499
X57.913 Y20.233
X57.899 Y19.964
X57.92 Y19.695
X57.975 Y19.431
X58.064 Y19.176
X58.185 Y18.935
X58.336 Y18.711
X58.514 Y18.508
X58.717 Y18.33
X58.941 Y18.18
X59.183 Y18.059
X59.437 Y17.97
X59.701 Y17.915
X59.97 Y17.894
X60.24 Y17.907
X60.506 Y17.955
X60.763 Y18.036
X61.008 Y18.15
X61.236 Y18.294
X61.444 Y18.466
X61.628 Y18.663
X61.792 Y18.891
X61.883 Y19.047
X61.982 Y19.247
X62.073 Y19.461
X62.159 Y19.717
X62.188 Y19.852
X62.201 Y19.99
X62.199 Y20.128
X62.173 Y20.464
X62.153 Y20.542
X61.944 Y21.074
X61.888 Y21.164
X61.509 Y21.631
X61.01 Y21.977
X60.932 Y22.016
X60.387 Y22.185
X60.31 Y22.2
X59.687
X59.609 Y22.184
X59.064 Y22.015
X58.94 Y21.943
X58.49 Y21.631
X58.077 Y21.115
X57.847 Y20.542
X57.827 Y20.464
X57.783 Y19.841
X57.866 Y19.452
X57.934 Y19.18
X58.247 Y18.635
X58.364 Y18.514
X58.728 Y18.178
X58.831 Y18.118
X59.298 Y17.894
X59.376 Y17.868
X59.998 Y17.778
X60.387 Y17.831
X60.66 Y17.878
X61.236 Y18.153
X61.321 Y18.221
X61.722 Y18.596
X61.788 Y18.692
X62.066 Y19.18
X62.205 Y19.763
X62.217 Y19.841
X62.199 Y20.128
X62.185 Y20.175 Z-14.992
X62.171 Y20.216 Z-14.97
X62.161 Y20.249 Z-14.935
X62.154 Y20.27 Z-14.891
X62.152 Y20.277 Z-14.843
G0 Z5.
X61.4 Y60.003
Z0.91
G1 Z0.51 F400.
G3 X58.6 Y59.997 Z-0.266 R1.4
X61.4 Y60.003 Z-1.041 R1.4
X58.6 Y59.997 Z-1.817 R1.4
X61.4 Y60.003 Z-2.592 R1.4
X58.6 Y59.997 Z-3.368 R1.4
X61.4 Y60.003 Z-4.143 R1.4
X58.6 Y59.997 Z-4.919 R1.4
X61.4 Y60.003 Z-5.694 R1.4
X58.6 Y59.997 Z-6.47 R1.4
X61.4 Y60.003 Z-7.245 R1.4
X58.6 Y59.997 Z-8.021 R1.4
X61.4 Y60.003 Z-8.796 R1.4
X58.6 Y59.997 Z-9.572 R1.4
X61.4 Y60.003 Z-10.347 R1.4
X58.6 Y59.997 Z-11.123 R1.4
X61.4 Y60.003 Z-11.898 R1.4
X58.6 Y59.997 Z-12.674 R1.4
X61.4 Y60.003 Z-13.449 R1.4
X58.6 Y59.997 Z-14.225 R1.4
X61.4 Y60. Z-15. R1.4
X58.6 R1.4
X61.4 R1.4
G1 X61.437 Y60.77
X61.43 Y60.905
X61.402 Y61.037
X61.356 Y61.164
X61.296 Y61.284
X61.222 Y61.398
X61.138 Y61.503
X61.043 Y61.599
X60.94 Y61.687
X60.83 Y61.765
X60.714 Y61.833
X60.592 Y61.891
X60.466 Y61.94
X60.337 Y61.978
X60.205 Y62.007
X59.936 Y62.034
X59.667 Y62.022
X59.402 Y61.971
X59.146 Y61.885
X58.905 Y61.764
X58.682 Y61.612
X58.481 Y61.432
X58.306 Y61.226
X58.16 Y60.999
X58.044 Y60.755
X57.961 Y60.499
X57.913 Y60.233
X57.899 Y59.964
X57.92 Y59.695
X57.975 Y59.431
X58.064 Y59.176
X58.185 Y58.934
X58.336 Y58.711
X58.514 Y58.508
X58.717 Y58.33
X58.941 Y58.18
X59.182 Y58.059
X59.437 Y57.97
X59.701 Y57.915
X59.97 Y57.894
X60.239 Y57.907
X60.505 Y57.955
X60.762 Y58.036
X61.007 Y58.15
X61.235 Y58.294
X61.443 Y58.466
X61.628 Y58.663
X61.791 Y58.891
X61.882 Y59.047
X61.982 Y59.246
X62.073 Y59.461
X62.158 Y59.719
X62.188 Y59.854
X62.201 Y59.991
X62.199 Y60.13
X62.164 Y60.509
X61.944 Y61.074
X61.884 Y61.17
X61.541 Y61.599
X61.477 Y61.658
X61.01 Y61.977
X60.932 Y62.016
X60.387 Y62.185
X60.31 Y62.2
X59.687
X59.609 Y62.184
X59.064 Y62.015
X58.948 Y61.949
X58.497 Y61.637
X58.364 Y61.481
X58.08 Y61.118
X57.971 Y60.859
X57.849 Y60.548
X57.828 Y60.47
X57.784 Y59.847
X57.793 Y59.77
X57.932 Y59.186
X58.243 Y58.641
X58.364 Y58.514
X58.688 Y58.213
X58.759 Y58.157
X59.298 Y57.894
X59.376 Y57.869
X59.998 Y57.778
X60.387 Y57.831
X60.621 Y57.868
X60.719 Y57.902
X61.239 Y58.155
X61.321 Y58.221
X61.727 Y58.602
X61.788 Y58.692
X62.05 Y59.147
X62.081 Y59.224
X62.207 Y59.77
X62.216 Y59.847
X62.199 Y60.13
X62.184 Y60.176 Z-14.992
X62.171 Y60.217 Z-14.97
X62.161 Y60.25 Z-14.935
X62.154 Y60.271 Z-14.891
X62.152 Y60.279 Z-14.843
G0 Z5.
X101.4 Y20.004
Z0.91
G1 Z0.51 F400.
G3 X98.6 Y19.998 Z-0.266 R1.4
X101.4 Y20.004 Z-1.041 R1.4
X98.6 Y19.998 Z-1.817 R1.4
X101.4 Y20.004 Z-2.592 R1.4
X98.6 Y19.998 Z-3.368 R1.4
X101.4 Y20.004 Z-4.143 R1.4
X98.6 Y19.998 Z-4.919 R1.4
X101.4 Y20.004 Z-5.694 R1.4
X98.6 Y19.998 Z-6.47 R1.4
X101.4 Y20.004 Z-7.245 R1.4
X98.6 Y19.998 Z-8.021 R1.4
X101.4 Y20.004 Z-8.796 R1.4
X98.6 Y19.998 Z-9.572 R1.4
X101.4 Y20.004 Z-10.347 R1.4
X98.6 Y19.998 Z-11.123 R1.4
X101.4 Y20.004 Z-11.898 R1.4
X98.6 Y19.998 Z-12.674 R1.4
X101.4 Y20.004 Z-13.449 R1.4
X98.6 Y19.998 Z-14.225 R1.4
X101.4 Y20.001 Z-15. R1.4
X98.6 R1.4
X101.4 R1.4
G1 X101.437 Y20.771
X101.43 Y20.906
X101.402 Y21.038
X101.357 Y21.165
X101.296 Y21.285
X101.223 Y21.399
X101.138 Y21.504
X101.044 Y21.6
X100.941 Y21.688
X100.831 Y21.766
X100.714 Y21.834
X100.593 Y21.892
X100.467 Y21.941
X100.337 Y21.979
X100.205 Y22.008
X99.937 Y22.035
X99.667 Y22.023
X99.402 Y21.972
X99.147 Y21.886
X98.905 Y21.765
X98.682 Y21.613
X98.482 Y21.432
X98.307 Y21.227
X98.16 Y21.
X98.045 Y20.756
X97.962 Y20.5
X97.913 Y20.234
X97.899 Y19.965
X97.92 Y19.696
X97.975 Y19.432
X98.064 Y19.177
X98.185 Y18.935
X98.336 Y18.712
X98.514 Y18.509
X98.717 Y18.331
X98.941 Y18.181
X99.183 Y18.06
X99.437 Y17.971
X99.701 Y17.916
X99.971 Y17.894
X100.24 Y17.908
X100.506 Y17.956
X100.763 Y18.037
X101.008 Y18.151
X101.236 Y18.295
X101.444 Y18.467
X101.628 Y18.664
X101.792 Y18.892
X101.883 Y19.048
X101.982 Y19.247
X102.073 Y19.462
X102.159 Y19.718
X102.188 Y19.853
X102.201 Y19.991
X102.199 Y20.129
X102.165 Y20.503
X101.947 Y21.065
X101.888 Y21.164
X101.51 Y21.631
X100.975 Y21.998
X100.547 Y22.136
X100.391 Y22.184
X100.313 Y22.2
X99.69
X99.613 Y22.185
X99.068 Y22.016
X98.94 Y21.943
X98.491 Y21.631
X98.08 Y21.119
X97.908 Y20.697
X97.847 Y20.542
X97.827 Y20.464
X97.783 Y19.841
X97.866 Y19.452
X97.934 Y19.18
X98.247 Y18.635
X98.367 Y18.51
X98.729 Y18.177
X98.834 Y18.117
X99.34 Y17.878
X99.924 Y17.784
X100.002 Y17.778
X100.624 Y17.868
X100.706 Y17.896
X101.237 Y18.154
X101.325 Y18.225
X101.722 Y18.596
X101.792 Y18.698
X102.066 Y19.18
X102.17 Y19.608
X102.217 Y19.841
X102.199 Y20.129
X102.184 Y20.175 Z-14.992
X102.171 Y20.216 Z-14.97
X102.161 Y20.249 Z-14.935
X102.154 Y20.27 Z-14.891
X102.152 Y20.278 Z-14.843
G0 Z5.
X101.4 Y60.003
Z0.91
G1 Z0.51 F400.
G3 X98.6 Y59.997 Z-0.266 R1.4
X101.4 Y60.003 Z-1.041 R1.4
X98.6 Y59.997 Z-1.817 R1.4
X101.4 Y60.003 Z-2.592 R1.4
X98.6 Y59.997 Z-3.368 R1.4
X101.4 Y60.003 Z-4.143 R1.4
X98.6 Y59.997 Z-4.919 R1.4
X101.4 Y60.003 Z-5.694 R1.4
X98.6 Y59.997 Z-6.47 R1.4
X101.4 Y60.003 Z-7.245 R1.4
X98.6 Y59.997 Z-8.021 R1.4
X101.4 Y60.003 Z-8.796 R1.4
X98.6 Y59.997 Z-9.572 R1.4
X101.4 Y60.003 Z-10.347 R1.4
X98.6 Y59.997 Z-11.123 R1.4
X101.4 Y60.003 Z-11.898 R1.4
X98.6 Y59.997 Z-12.674 R1.4
X101.4 Y60.003 Z-13.449 R1.4
X98.6 Y59.997 Z-14.225 R1.4
X101.4 Y60. Z-15. R1.4
X98.6 R1.4
X101.4 R1.4
G1 X101.437 Y60.77
X101.43 Y60.905
X101.402 Y61.037
X101.357 Y61.164
X101.296 Y61.285
X101.223 Y61.398
X101.138 Y61.503
X101.044 Y61.6
X100.941 Y61.687
X100.831 Y61.765
X100.714 Y61.833
X100.592 Y61.892
X100.466 Y61.94
X100.337 Y61.979
X100.205 Y62.007
X99.937 Y62.034
X99.667 Y62.022
X99.402 Y61.972
X99.146 Y61.885
X98.905 Y61.764
X98.682 Y61.612
X98.482 Y61.432
X98.307 Y61.226
X98.16 Y61.
X98.045 Y60.756
X97.962 Y60.499
X97.913 Y60.234
X97.899 Y59.964
X97.92 Y59.695
X97.975 Y59.431
X98.064 Y59.176
X98.185 Y58.935
X98.336 Y58.711
X98.514 Y58.508
X98.717 Y58.33
X98.941 Y58.18
X99.182 Y58.059
X99.437 Y57.97
X99.701 Y57.915
X99.97 Y57.894
X100.24 Y57.907
X100.505 Y57.955
X100.763 Y58.036
X101.008 Y58.15
X101.236 Y58.294
X101.444 Y58.466
X101.628 Y58.663
X101.792 Y58.891
X101.883 Y59.047
X101.982 Y59.247
X102.073 Y59.461
X102.159 Y59.718
X102.188 Y59.853
X102.201 Y59.991
X102.199 Y60.129
X102.172 Y60.47
X102.151 Y60.548
X101.947 Y61.066
X101.884 Y61.17
X101.542 Y61.599
X101.481 Y61.656
X101.014 Y61.974
X100.936 Y62.015
X100.391 Y62.184
X100.313 Y62.2
X99.69
X99.613 Y62.185
X99.068 Y62.016
X98.948 Y61.949
X98.497 Y61.637
X98.365 Y61.482
X98.082 Y61.122
X98.032 Y61.015
X97.836 Y60.509
X97.809 Y60.236
X97.784 Y59.847
X97.793 Y59.77
X97.919 Y59.224
X97.95 Y59.147
X98.243 Y58.641
X98.367 Y58.51
X98.725 Y58.181
X98.834 Y58.117
X99.301 Y57.892
X99.379 Y57.868
X99.924 Y57.784
X100.002 Y57.778
X100.624 Y57.869
X100.719 Y57.902
X101.241 Y58.157
X101.325 Y58.225
X101.726 Y58.602
X101.792 Y58.698
X102.068 Y59.186
X102.207 Y59.77
X102.216 Y59.847
X102.199 Y60.129
X102.184 Y60.175 Z-14.992
X102.171 Y60.217 Z-14.97
X102.161 Y60.249 Z-14.935
X102.154 Y60.271 Z-14.891
X102.152 Y60.278 Z-14.843
G0 Z5.
X141.4 Y20.003
Z0.91
G1 Z0.51 F400.
G3 X138.6 Y19.997 Z-0.266 R1.4
X139.012 Y19.008 Z-0.459 R1.4
X141.294 Y19.466 Z-0.944 R1.4
X138.705 Y20.533 Z-1.72 R1.4
X138.708 Y19.462 Z-1.913 R1.4
X141.292 Y20.538 Z-2.689 R1.4
X140.534 Y21.294 Z-2.883 R1.4
X138.6 Y19.997 Z-3.368 R1.4
X141.4 Y20.002 Z-4.143 R1.4
X138.6 Y19.997 Z-4.919 R1.4
X141.4 Y20.002 Z-5.694 R1.4
X138.6 Y19.997 Z-6.47 R1.4
X141.4 Y20.002 Z-7.245 R1.4
X138.6 Y19.997 Z-8.021 R1.4
X141.4 Y20.002 Z-8.796 R1.4
X138.6 Y19.997 Z-9.572 R1.4
X141.4 Y20.002 Z-10.347 R1.4
X138.6 Y19.997 Z-11.123 R1.4
X141.4 Y20.002 Z-11.898 R1.4
X138.6 Y19.997 Z-12.674 R1.4
X141.4 Y20.002 Z-13.449 R1.4
X138.6 Y19.997 Z-14.225 R1.4
X141.4 Y20. Z-15. R1.4
X138.6 R1.4
X141.4 R1.4
G1 X141.437 Y20.77
X141.43 Y20.905
X141.402 Y21.037
X141.357 Y21.164
X141.296 Y21.285
X141.223 Y21.398
X141.138 Y21.503
X141.044 Y21.599
X140.941 Y21.687
X140.831 Y21.765
X140.714 Y21.833
X140.592 Y21.892
X140.466 Y21.94
X140.337 Y21.979
X140.205 Y22.007
X139.937 Y22.034
X139.667 Y22.022
X139.402 Y21.971
X139.146 Y21.885
X138.905 Y21.764
X138.682 Y21.612
X138.481 Y21.432
X138.307 Y21.226
X138.16 Y20.999
X138.045 Y20.756
X137.962 Y20.499
X137.913 Y20.233
X137.899 Y19.964
X137.92 Y19.695
X137.975 Y19.431
X138.064 Y19.176
X138.185 Y18.935
X138.336 Y18.711
X138.514 Y18.508
X138.717 Y18.33
X138.941 Y18.18
X139.182 Y18.059
X139.437 Y17.97
X139.701 Y17.915
X139.97 Y17.894
X140.24 Y17.907
X140.505 Y17.955
X140.763 Y18.036
X141.008 Y18.15
X141.236 Y18.294
X141.444 Y18.466
X141.628 Y18.663
X141.792 Y18.891
X141.883 Y19.047
X141.982 Y19.246
X142.073 Y19.461
X142.159 Y19.718
X142.188 Y19.853
X142.201 Y19.991
X142.199 Y20.129
X142.173 Y20.464
X142.153 Y20.542
X141.951 Y21.057
X141.888 Y21.164
X141.508 Y21.631
X141.017 Y21.972
X140.939 Y22.014
X140.394 Y22.183
X140.317 Y22.2
X139.694
X139.616 Y22.186
X139.071 Y22.017
X138.94 Y21.943
X138.491 Y21.631
X138.083 Y21.123
X137.969 Y20.853
X137.847 Y20.542
X137.827 Y20.464
X137.783 Y19.841
X137.866 Y19.452
X137.935 Y19.177
X138.247 Y18.635
X138.371 Y18.507
X138.73 Y18.177
X138.838 Y18.115
X139.344 Y17.877
X139.966 Y17.779
X140.083 Y17.785
X140.628 Y17.869
X140.706 Y17.896
X141.239 Y18.156
X141.328 Y18.228
X141.721 Y18.596
X141.795 Y18.705
X142.066 Y19.18
X142.205 Y19.763
X142.217 Y19.841
X142.199 Y20.129
X142.184 Y20.175 Z-14.992
X142.171 Y20.216 Z-14.97
X142.161 Y20.249 Z-14.935
X142.154 Y20.27 Z-14.891
X142.152 Y20.278 Z-14.843
G0 Z5.
X141.4 Y60.003
Z0.91
G1 Z0.51 F400.
G3 X138.6 Y59.997 Z-0.266 R1.4
X139.012 Y59.008 Z-0.459 R1.4
X141.294 Y59.466 Z-0.944 R1.4
X138.706 Y60.533 Z-1.72 R1.4
X138.708 Y59.461 Z-1.913 R1.4
X141.292 Y60.538 Z-2.689 R1.4
X140.534 Y61.294 Z-2.883 R1.4
X138.6 Y59.997 Z-3.368 R1.4
X141.4 Y60.002 Z-4.143 R1.4
X138.6 Y59.997 Z-4.919 R1.4
X141.4 Y60.002 Z-5.694 R1.4
X138.6 Y59.997 Z-6.47 R1.4
X141.4 Y60.002 Z-7.245 R1.4
X138.6 Y59.997 Z-8.021 R1.4
X141.4 Y60.002 Z-8.796 R1.4
X138.6 Y59.997 Z-9.572 R1.4
X141.4 Y60.002 Z-10.347 R1.4
X138.6 Y59.997 Z-11.123 R1.4
X141.4 Y60.002 Z-11.898 R1.4
X138.6 Y59.997 Z-12.674 R1.4
X141.4 Y60.002 Z-13.449 R1.4
X138.6 Y59.997 Z-14.225 R1.4
X141.4 Y60. Z-15. R1.4
X138.6 R1.4
X141.4 R1.4
G1 X141.437 Y60.77
X141.43 Y60.905
X141.402 Y61.037
X141.357 Y61.164
X141.296 Y61.284
X141.223 Y61.398
X141.138 Y61.503
X141.044 Y61.599
X140.941 Y61.687
X140.831 Y61.765
X140.714 Y61.833
X140.592 Y61.891
X140.466 Y61.94
X140.337 Y61.978
X140.205 Y62.007
X139.937 Y62.034
X139.667 Y62.022
X139.402 Y61.971
X139.146 Y61.885
X138.905 Y61.764
X138.682 Y61.612
X138.481 Y61.431
X138.307 Y61.226
X138.16 Y60.999
X138.045 Y60.755
X137.962 Y60.499
X137.913 Y60.233
X137.899 Y59.964
X137.92 Y59.695
X137.975 Y59.431
X138.064 Y59.176
X138.185 Y58.934
X138.336 Y58.711
X138.514 Y58.508
X138.717 Y58.33
X138.941 Y58.18
X139.182 Y58.059
X139.437 Y57.97
X139.701 Y57.915
X139.97 Y57.893
X140.24 Y57.907
X140.505 Y57.955
X140.763 Y58.036
X141.008 Y58.15
X141.236 Y58.294
X141.444 Y58.466
X141.628 Y58.663
X141.792 Y58.891
X141.883 Y59.047
X141.982 Y59.246
X142.073 Y59.461
X142.159 Y59.718
X142.188 Y59.853
X142.201 Y59.99
X142.199 Y60.129
X142.163 Y60.509
X141.924 Y61.114
X141.541 Y61.599
X141.484 Y61.653
X141.017 Y61.972
X140.939 Y62.014
X140.394 Y62.183
X140.317 Y62.199
X139.694 Y62.2
X139.616 Y62.186
X139.032 Y62.
X138.498 Y61.637
X138.116 Y61.17
X138.06 Y61.081
X137.837 Y60.509
X137.809 Y60.236
X137.784 Y59.847
X137.793 Y59.77
X137.921 Y59.216
X137.95 Y59.147
X138.243 Y58.641
X138.371 Y58.507
X138.725 Y58.181
X138.838 Y58.115
X139.344 Y57.877
X139.966 Y57.779
X140.083 Y57.785
X140.628 Y57.869
X140.719 Y57.902
X141.242 Y58.158
X141.328 Y58.228
X141.726 Y58.602
X141.795 Y58.705
X142.068 Y59.186
X142.207 Y59.77
X142.216 Y59.847
X142.199 Y60.129
X142.184 Y60.175 Z-14.992
X142.171 Y60.216 Z-14.97
X142.161 Y60.249 Z-14.935
X142.154 Y60.27 Z-14.891
X142.152 Y60.278 Z-14.843
G0 Z5.
X20.36 Y20.457
Z-11.2
G1 Z-11.6 F400.
X20.359 Y20.45 Z-11.678
X20.356 Y20.427 Z-11.753
X20.351 Y20.39 Z-11.822
X20.345 Y20.341 Z-11.883
X20.337 Y20.281 Z-11.933
X20.328 Y20.212 Z-11.97
X20.318 Y20.138 Z-11.992
X20.308 Y20.061 Z-12.
G3 X20.26 Y17.861 R10.212
G1 X20.268 Y17.794
X20.355 Y17.691
X20.471 Y17.622
X20.599 Y17.579
X20.731 Y17.551
X20.865 Y17.539
X21. Y17.542
X21.134 Y17.559
X21.397 Y17.622
X21.524 Y17.667
X21.647 Y17.723
X21.912 Y17.879
X22.135 Y18.052
X22.341 Y18.259
X22.458 Y18.402
X22.56 Y18.545
X22.712 Y18.806
X22.782 Y18.959
X22.854 Y19.145
X22.91 Y19.326
X22.95 Y19.49
X22.977 Y19.644
X22.997 Y19.821
X23.006 Y20.033
X23.003 Y20.229
X22.989 Y20.4
X22.965 Y20.56
X22.926 Y20.746
X22.867 Y20.954
X22.801 Y21.142
X22.735 Y21.298
X22.659 Y21.448
X22.556 Y21.624
X22.434 Y21.805
X22.318 Y21.955
X22.207 Y22.081
X22.081 Y22.207
X21.918 Y22.35
X21.752 Y22.478
X21.598 Y22.582
X21.454 Y22.666
X21.284 Y22.751
X21.079 Y22.838
X20.886 Y22.906
X20.716 Y22.953
X20.55 Y22.988
X20.35 Y23.017
X20.125 Y23.035
X19.936 Y23.039
X19.762 Y23.03
X19.585 Y23.01
X19.374 Y22.973
X19.163 Y22.921
X18.99 Y22.867
X18.83 Y22.806
X18.657 Y22.726
X18.46 Y22.619
X18.287 Y22.511
X18.141 Y22.406
X18.011 Y22.299
X17.863 Y22.161
X17.709 Y21.997
X17.584 Y21.846
X17.485 Y21.708
X17.39 Y21.558
X17.287 Y21.369
X17.195 Y21.171
X17.129 Y21.001
X17.077 Y20.838
X17.032 Y20.655
X16.992 Y20.433
X16.968 Y20.229
X16.959 Y20.051
X16.962 Y19.883
X16.977 Y19.682
X17.009 Y19.459
X17.049 Y19.267
X17.094 Y19.103
X17.153 Y18.934
X17.236 Y18.736
X17.333 Y18.541
X17.426 Y18.381
X17.52 Y18.24
X17.634 Y18.091
X17.782 Y17.922
X17.926 Y17.777
X18.061 Y17.658
X18.195 Y17.553
X18.361 Y17.441
X18.769 Y17.2
X19.118 Y17.023
X19.393 Y16.905
X19.631 Y16.821
X19.853 Y16.758
X20.069 Y16.711
X20.28 Y16.679
X20.485 Y16.662
X20.683 Y16.658
X20.878 Y16.666
X21.073 Y16.687
X21.269 Y16.721
X21.461 Y16.767
X21.649 Y16.825
X21.832 Y16.895
X22.013 Y16.977
X22.192 Y17.073
X22.368 Y17.183
X22.537 Y17.303
X22.697 Y17.433
X22.85 Y17.575
X22.999 Y17.732
X23.139 Y17.9
X23.269 Y18.078
X23.387 Y18.263
X23.493 Y18.456
X23.59 Y18.663
X23.675 Y18.878
X23.745 Y19.097
X23.801 Y19.319
X23.844 Y19.547
X23.872 Y19.781
X23.885 Y20.02
X23.883 Y20.259
X23.865 Y20.496
X23.833 Y20.732
X23.784 Y20.969
X23.72 Y21.206
X23.641 Y21.438
X23.548 Y21.661
X23.441 Y21.879
X23.318 Y22.094
X23.18 Y22.302
X23.029 Y22.5
X22.869 Y22.685
X22.697 Y22.86
X22.509 Y23.027
X22.311 Y23.183
X22.105 Y23.324
X21.893 Y23.451
X21.672 Y23.564
X21.439 Y23.665
X21.201 Y23.75
X20.961 Y23.82
X20.72 Y23.873
X20.472 Y23.911
X20.217 Y23.934
X19.965 Y23.94
X19.716 Y23.931
X19.469 Y23.905
X19.219 Y23.863
X18.97 Y23.804
X18.728 Y23.731
X18.496 Y23.644
X18.268 Y23.541
X18.042 Y23.421
X17.825 Y23.288
X17.62 Y23.143
X17.427 Y22.987
X17.241 Y22.817
X17.064 Y22.631
X16.901 Y22.437
X16.753 Y22.237
X16.618 Y22.027
X16.495 Y21.805
X16.385 Y21.573
X16.291 Y21.339
X16.214 Y21.103
X16.152 Y20.86
X16.104 Y20.609
X16.073 Y20.356
X16.058 Y20.106
X16.059 Y19.857
X16.077 Y19.605
X16.111 Y19.351
X16.16 Y19.102
X16.225 Y18.861
X16.304 Y18.625
X16.401 Y18.39
X16.513 Y18.16
X16.637 Y17.94
X16.774 Y17.732
X16.924 Y17.532
X17.117 Y17.308
X17.329 Y17.091
X17.571 Y16.872
X17.833 Y16.665
X18.105 Y16.477
X18.381 Y16.31
X18.66 Y16.166
X18.938 Y16.044
X19.215 Y15.943
X19.49 Y15.862
X19.765 Y15.8
X20.039 Y15.757
X20.312 Y15.731
X20.582 Y15.723
X20.851 Y15.733
X21.116 Y15.759
X21.378 Y15.802
X21.637 Y15.862
X21.892 Y15.938
X22.141 Y16.03
X22.384 Y16.138
X22.621 Y16.262
X22.851 Y16.402
X23.073 Y16.558
X23.285 Y16.728
X23.487 Y16.912
X23.679 Y17.11
X23.859 Y17.322
X24.024 Y17.555
X24.054 Y17.61
X24.368 Y18.207
X24.438 Y18.363
X24.668 Y19.297
X24.7 Y19.452
Y20.542
X24.631 Y20.853
X24.431 Y21.659
X24.208 Y22.098
X23.898 Y22.682
X23.142 Y23.538
X22.213 Y24.183
X21.152 Y24.589
X20.539 Y24.67
X19.995 Y24.732
X18.983 Y24.612
X18.827 Y24.582
X17.815 Y24.197
X17.426 Y23.935
X16.855 Y23.535
X16.102 Y22.682
X15.573 Y21.67
X15.311 Y20.62
X15.3 Y20.542
Y19.452
X15.447 Y18.83
X15.575 Y18.324
X16.106 Y17.312
X16.859 Y16.461
X17.738 Y15.85
X17.815 Y15.803
X18.872 Y15.405
X19.995 Y15.268
X21.128 Y15.405
X22.174 Y15.798
X22.294 Y15.872
X23.138 Y16.458
X23.894 Y17.312
X24.054 Y17.61
X24.066 Y17.657 Z-11.992
X24.077 Y17.699 Z-11.97
X24.086 Y17.732 Z-11.935
X24.091 Y17.754 Z-11.891
X24.093 Y17.761 Z-11.843
G0 Z5.
X19.503 Y60.302
Z-11.2
G1 Z-11.6 F400.
X19.51 Z-11.678
X19.533 Z-11.753
X19.57 Z-11.822
X19.62 Y60.301 Z-11.883
X19.681 Z-11.933
X19.75 Y60.3 Z-11.97
X19.825 Y60.299 Z-11.992
X19.903 Z-12.
G3 X22.092 Y60.516 R10.212
G1 X22.158 Y60.532
X22.252 Y60.629
X22.306 Y60.752
X22.336 Y60.884
X22.345 Y61.019
X22.339 Y61.153
X22.321 Y61.287
X22.291 Y61.419
X22.247 Y61.546
X22.132 Y61.792
X21.987 Y62.019
X21.795 Y62.24
X21.673 Y62.356
X21.441 Y62.539
X21.174 Y62.697
X21. Y62.779
X20.836 Y62.844
X20.537 Y62.93
X20.362 Y62.963
X20.155 Y62.988
X19.971 Y62.998
X19.803 Y62.997
X19.643 Y62.986
X19.455 Y62.96
X19.241 Y62.917
X19.061 Y62.868
X18.901 Y62.814
X18.746 Y62.75
X18.563 Y62.66
X18.374 Y62.553
X18.22 Y62.45
X18.086 Y62.349
X17.951 Y62.233
X17.796 Y62.081
X17.655 Y61.924
X17.543 Y61.782
X17.449 Y61.646
X17.352 Y61.482
X17.251 Y61.286
X17.169 Y61.099
X17.109 Y60.932
X17.062 Y60.769
X17.017 Y60.571
X16.983 Y60.349
X16.965 Y60.157
X16.961 Y59.988
X16.967 Y59.81
X16.989 Y59.594
X17.024 Y59.383
X17.066 Y59.204
X17.116 Y59.041
X17.182 Y58.864
X17.274 Y58.658
X17.369 Y58.478
X17.461 Y58.328
X17.56 Y58.187
X17.687 Y58.03
X17.838 Y57.865
X17.979 Y57.729
X18.109 Y57.619
X18.252 Y57.513
X18.434 Y57.396
X18.623 Y57.29
X18.791 Y57.21
X18.946 Y57.148
X19.126 Y57.089
X19.343 Y57.033
X19.546 Y56.994
X19.723 Y56.972
X19.891 Y56.961
X20.092 Y56.962
X20.318 Y56.977
X20.511 Y57.003
X20.68 Y57.036
X20.85 Y57.081
X21.053 Y57.149
X21.255 Y57.231
X21.424 Y57.313
X21.57 Y57.396
X21.727 Y57.499
X21.907 Y57.634
X22.062 Y57.766
X22.192 Y57.892
X22.305 Y58.018
X22.43 Y58.175
X22.558 Y58.358
X22.66 Y58.528
X22.74 Y58.681
X22.926 Y59.102
X23.058 Y59.463
X23.142 Y59.75
X23.2 Y60.005
X23.238 Y60.238
X23.258 Y60.454
X23.265 Y60.662
X23.258 Y60.868
X23.239 Y61.069
X23.207 Y61.266
X23.163 Y61.455
X23.108 Y61.642
X23.04 Y61.826
X22.959 Y62.009
X22.866 Y62.187
X22.763 Y62.357
X22.649 Y62.521
X22.523 Y62.679
X22.383 Y62.833
X22.23 Y62.981
X22.069 Y63.118
X21.9 Y63.244
X21.72 Y63.362
X21.527 Y63.47
X21.326 Y63.568
X21.118 Y63.652
X20.906 Y63.722
X20.688 Y63.78
X20.459 Y63.825
X20.227 Y63.855
X19.994 Y63.87
X19.762
X19.527 Y63.856
X19.29 Y63.825
X19.052 Y63.78
X18.819 Y63.719
X18.592 Y63.644
X18.369 Y63.554
X18.148 Y63.448
X17.932 Y63.327
X17.726 Y63.193
X17.531 Y63.048
X17.344 Y62.89
X17.165 Y62.718
X16.995 Y62.532
X16.84 Y62.339
X16.699 Y62.138
X16.57 Y61.926
X16.452 Y61.702
X16.349 Y61.471
X16.263 Y61.238
X16.192 Y61.002
X16.135 Y60.757
X16.094 Y60.506
X16.069 Y60.255
X16.06 Y60.007
X16.067 Y59.759
X16.091 Y59.506
X16.13 Y59.254
X16.185 Y59.009
X16.255 Y58.771
X16.34 Y58.536
X16.443 Y58.302
X16.56 Y58.075
X16.689 Y57.861
X16.83 Y57.656
X16.986 Y57.458
X17.158 Y57.268
X17.339 Y57.091
X17.528 Y56.928
X17.727 Y56.778
X17.939 Y56.639
X18.162 Y56.512
X18.389 Y56.401
X18.619 Y56.307
X18.856 Y56.227
X19.103 Y56.16
X19.353 Y56.11
X19.602 Y56.077
X19.849 Y56.06
X20.101 Y56.058
X20.357 Y56.073
X20.61 Y56.104
X20.855 Y56.15
X21.096 Y56.212
X21.338 Y56.291
X21.576 Y56.385
X21.804 Y56.493
X22.022 Y56.614
X22.232 Y56.749
X22.438 Y56.901
X22.633 Y57.065
X22.815 Y57.239
X23.015 Y57.456
X23.205 Y57.691
X23.393 Y57.956
X23.566 Y58.238
X23.721 Y58.529
X23.854 Y58.825
X23.965 Y59.118
X24.053 Y59.408
X24.121 Y59.695
X24.169 Y59.978
X24.198 Y60.258
X24.209 Y60.535
X24.203 Y60.809
X24.179 Y61.079
X24.138 Y61.345
X24.081 Y61.606
X24.007 Y61.861
X23.918 Y62.111
X23.812 Y62.354
X23.691 Y62.591
X23.555 Y62.821
X23.404 Y63.041
X23.238 Y63.253
X23.058 Y63.455
X22.864 Y63.646
X22.657 Y63.826
X22.437 Y63.992
X22.206 Y64.146
X21.947 Y64.287
X21.888 Y64.311
X21.318 Y64.528
X21.128 Y64.595
X19.995 Y64.732
X18.872 Y64.595
X17.815 Y64.197
X17.426 Y63.935
X16.859 Y63.539
X16.106 Y62.688
X15.575 Y61.676
X15.332 Y60.703
X15.3 Y60.548
Y59.458
X15.33 Y59.303
X15.573 Y58.33
X16.102 Y57.318
X16.855 Y56.465
X17.738 Y55.85
X17.815 Y55.803
X18.85 Y55.411
X19.294 Y55.35
X19.995 Y55.268
X21.006 Y55.387
X21.162 Y55.414
X22.213 Y55.817
X23.142 Y56.462
X23.898 Y57.318
X24.371 Y58.213
X24.439 Y58.369
X24.67 Y59.303
X24.7 Y59.458
Y60.548
X24.553 Y61.17
X24.431 Y61.659
X24.204 Y62.104
X23.894 Y62.688
X23.138 Y63.542
X22.213 Y64.182
X21.888 Y64.311
X21.85 Y64.318 Z-11.995
X21.815 Y64.324 Z-11.981
X21.784 Y64.329 Z-11.959
X21.759 Y64.333 Z-11.93
X21.74 Y64.332 Z-11.888
X21.733 Z-11.843
G0 Z5.
X59.427 Y19.896
Z-11.2
G1 Z-11.6 F400.
X59.433 Y19.902 Z-11.678
X59.45 Y19.916 Z-11.753
X59.478 Y19.941 Z-11.822
X59.516 Y19.973 Z-11.883
X59.562 Y20.013 Z-11.933
X59.614 Y20.059 Z-11.97
X59.67 Y20.108 Z-11.992
X59.729 Y20.159 Z-12.
G3 X61.224 Y21.773 R10.212
G1 X61.262 Y21.829
X61.269 Y21.964
X61.225 Y22.091
X61.159 Y22.209
X61.078 Y22.318
X60.986 Y22.416
X60.882 Y22.502
X60.654 Y22.647
X60.533 Y22.707
X60.408 Y22.756
X60.128 Y22.83
X59.837 Y22.869
X59.562 Y22.87
X59.395 Y22.854
X59.212 Y22.824
X58.913 Y22.747
X58.767 Y22.694
X58.602 Y22.621
X58.424 Y22.528
X58.269 Y22.435
X58.137 Y22.343
X58.012 Y22.244
X57.87 Y22.116
X57.722 Y21.963
X57.602 Y21.822
X57.504 Y21.692
X57.411 Y21.55
X57.31 Y21.372
X57.217 Y21.18
X57.149 Y21.012
X57.095 Y20.853
X57.05 Y20.68
X57.008 Y20.468
X56.98 Y20.26
X56.968 Y20.081
Y19.915
X56.979 Y19.724
X57.007 Y19.502
X57.045 Y19.306
X57.088 Y19.138
X57.142 Y18.975
X57.218 Y18.785
X57.314 Y18.583
X57.407 Y18.416
X57.499 Y18.274
X57.605 Y18.13
X57.746 Y17.964
X57.892 Y17.812
X58.031 Y17.685
X58.161 Y17.58
X58.316 Y17.471
X58.506 Y17.354
X58.688 Y17.258
X58.85 Y17.186
X59.01 Y17.126
X59.204 Y17.067
X59.423 Y17.016
X59.614 Y16.985
X59.784 Y16.967
X59.962 Y16.961
X60.178 Y16.966
X60.395 Y16.986
X60.578 Y17.015
X60.74 Y17.051
X60.922 Y17.104
X61.133 Y17.18
X61.322 Y17.262
X61.48 Y17.343
X61.626 Y17.431
X61.792 Y17.545
X61.97 Y17.685
X62.115 Y17.815
X62.234 Y17.937
X62.35 Y18.071
X62.481 Y18.244
X62.599 Y18.424
X62.691 Y18.585
X62.766 Y18.737
X62.838 Y18.911
X62.91 Y19.124
X62.963 Y19.32
X62.999 Y19.498
X63.022 Y19.665
X63.036 Y19.867
X63.038 Y20.093
X63.027 Y20.288
X63.006 Y20.457
X62.974 Y20.631
X62.923 Y20.834
X62.778 Y21.282
X62.634 Y21.644
X62.508 Y21.913
X62.386 Y22.134
X62.261 Y22.329
X62.129 Y22.508
X61.993 Y22.671
X61.852 Y22.819
X61.707 Y22.953
X61.555 Y23.077
X61.393 Y23.191
X61.225 Y23.296
X61.051 Y23.389
X60.873 Y23.469
X60.689 Y23.539
X60.498 Y23.597
X60.299 Y23.645
X60.095 Y23.68
X59.891 Y23.701
X59.685 Y23.71
X59.475 Y23.705
X59.26 Y23.686
X59.043 Y23.653
X58.829 Y23.607
X58.619 Y23.547
X58.409 Y23.472
X58.199 Y23.382
X57.993 Y23.277
X57.796 Y23.16
X57.607 Y23.031
X57.424 Y22.888
X57.247 Y22.731
X57.079 Y22.561
X56.923 Y22.382
X56.779 Y22.194
X56.646 Y21.994
X56.525 Y21.784
X56.416 Y21.564
X56.322 Y21.339
X56.243 Y21.111
X56.179 Y20.876
X56.128 Y20.632
X56.094 Y20.385
X56.075 Y20.139
X56.072 Y19.895
X56.085 Y19.648
X56.114 Y19.397
X56.159 Y19.149
X56.219 Y18.909
X56.294 Y18.674
X56.385 Y18.441
X56.493 Y18.211
X56.614 Y17.989
X56.746 Y17.78
X56.892 Y17.579
X57.054 Y17.385
X57.229 Y17.199
X57.413 Y17.028
X57.604 Y16.871
X57.808 Y16.725
X58.024 Y16.59
X58.248 Y16.469
X58.476 Y16.365
X58.708 Y16.276
X58.948 Y16.201
X59.197 Y16.14
X59.447 Y16.096
X59.695 Y16.069
X59.943 Y16.058
X60.198 Y16.062
X60.453 Y16.083
X60.702 Y16.12
X60.945 Y16.172
X61.186 Y16.24
X61.427 Y16.325
X61.662 Y16.425
X61.886 Y16.537
X62.101 Y16.663
X62.31 Y16.804
X62.512 Y16.961
X62.703 Y17.129
X62.879 Y17.305
X63.043 Y17.492
X63.199 Y17.694
X63.341 Y17.906
X63.469 Y18.125
X63.58 Y18.347
X63.678 Y18.577
X63.762 Y18.819
X63.831 Y19.065
X63.883 Y19.311
X63.918 Y19.557
X63.939 Y19.807
X63.943 Y20.103
X63.929 Y20.406
X63.892 Y20.731
X63.834 Y21.06
X63.755 Y21.38
X63.659 Y21.688
X63.546 Y21.981
X63.418 Y22.257
X63.278 Y22.516
X63.126 Y22.759
X62.962 Y22.987
X62.785 Y23.201
X62.598 Y23.402
X62.401 Y23.587
X62.194 Y23.758
X61.978 Y23.914
X61.753 Y24.056
X61.519 Y24.183
X61.278 Y24.295
X61.031 Y24.391
X60.777 Y24.471
X60.518 Y24.536
X60.253 Y24.583
X59.984 Y24.614
X59.712 Y24.628
X59.439 Y24.624
X59.164 Y24.603
X58.888 Y24.563
X58.61 Y24.499
X58.551 Y24.478
X57.819 Y24.199
X57.586 Y24.045
X56.856 Y23.536
X56.101 Y22.682
X55.59 Y21.712
X55.561 Y21.631
X55.33 Y20.697
X55.3 Y20.542
Y19.452
X55.447 Y18.83
X55.575 Y18.324
X56.106 Y17.312
X56.86 Y16.46
X57.741 Y15.847
X57.819 Y15.801
X58.873 Y15.405
X59.998 Y15.268
X61.127 Y15.405
X62.177 Y15.8
X62.411 Y15.952
X63.139 Y16.459
X63.894 Y17.312
X64.422 Y18.315
X64.668 Y19.297
X64.7 Y19.452
Y20.542
X64.631 Y20.853
X64.434 Y21.649
X64.371 Y21.787
X63.898 Y22.682
X63.143 Y23.537
X62.216 Y24.181
X61.477 Y24.467
X61.151 Y24.589
X60.543 Y24.669
X59.998 Y24.731
X58.986 Y24.612
X58.831 Y24.584
X58.551 Y24.478
X58.511 Y24.451 Z-11.992
X58.475 Y24.426 Z-11.97
X58.446 Y24.407 Z-11.935
X58.428 Y24.395 Z-11.891
X58.421 Y24.391 Z-11.843
G0 Z5.
X60.497 Y59.698
Z-11.2
G1 Z-11.6 F400.
X60.489 Z-11.678
X60.467 Z-11.753
X60.43 Z-11.822
X60.38 Y59.699 Z-11.883
X60.319 Z-11.933
X60.25 Y59.7 Z-11.97
X60.175 Y59.701 Z-11.992
X60.097 Z-12.
G3 X57.908 Y59.484 R10.212
G1 X57.842 Y59.468
X57.746 Y59.373
X57.695 Y59.248
X57.666 Y59.117
X57.654 Y58.982
X57.659 Y58.847
X57.68 Y58.714
X57.711 Y58.583
X57.753 Y58.454
X57.804 Y58.329
X57.866 Y58.209
X58.028 Y57.964
X58.211 Y57.753
X58.422 Y57.564
X58.565 Y57.459
X58.713 Y57.365
X58.984 Y57.226
X59.131 Y57.169
X59.312 Y57.11
X59.501 Y57.062
X59.671 Y57.031
X59.826 Y57.012
X59.994 Y57.003
X60.197 Y57.005
X60.401 Y57.019
X60.575 Y57.043
X60.732 Y57.075
X60.905 Y57.122
X61.106 Y57.19
X61.296 Y57.269
X61.455 Y57.347
X61.597 Y57.429
X61.756 Y57.534
X61.933 Y57.668
X62.082 Y57.797
X62.206 Y57.919
X62.319 Y58.045
X62.445 Y58.206
X62.568 Y58.385
X62.668 Y58.552
X62.745 Y58.703
X62.816 Y58.866
X62.89 Y59.07
X62.949 Y59.276
X62.989 Y59.455
X63.014 Y59.62
X63.032 Y59.809
X63.037 Y60.035
X63.03 Y60.237
X63.012 Y60.412
X62.983 Y60.58
X62.937 Y60.778
X62.872 Y60.994
X62.804 Y61.175
X62.734 Y61.33
X62.651 Y61.487
X62.537 Y61.672
X62.415 Y61.845
X62.296 Y61.992
X62.183 Y62.116
X62.046 Y62.247
X61.874 Y62.392
X61.71 Y62.514
X61.561 Y62.609
X61.412 Y62.693
X61.229 Y62.78
X61.019 Y62.863
X60.837 Y62.923
X60.668 Y62.966
X60.494 Y62.999
X60.281 Y63.026
X60.064 Y63.039
X59.879 Y63.038
X59.71 Y63.027
X59.523 Y63.002
X59.301 Y62.958
X59.104 Y62.905
X58.935 Y62.848
X58.779 Y62.785
X58.597 Y62.696
X58.402 Y62.586
X58.239 Y62.479
X58.1 Y62.375
X57.966 Y62.26
X57.812 Y62.11
X57.668 Y61.95
X57.55 Y61.801
X57.455 Y61.664
X57.358 Y61.502
X57.256 Y61.306
X57.073 Y60.89
X56.939 Y60.522
X56.856 Y60.24
X56.8 Y59.993
X56.763 Y59.762
X56.742 Y59.541
X56.736 Y59.328
X56.743 Y59.125
X56.762 Y58.929
X56.794 Y58.734
X56.838 Y58.541
X56.895 Y58.352
X56.963 Y58.167
X57.042 Y57.989
X57.134 Y57.814
X57.238 Y57.643
X57.355 Y57.475
X57.483 Y57.314
X57.621 Y57.163
X57.769 Y57.02
X57.931 Y56.883
X58.105 Y56.753
X58.288 Y56.634
X58.478 Y56.527
X58.674 Y56.432
X58.882 Y56.348
X59.1 Y56.276
X59.322 Y56.218
X59.546 Y56.174
X59.773 Y56.145
X60.006 Y56.13
X60.243
X60.481 Y56.145
X60.716 Y56.175
X60.948 Y56.221
X61.181 Y56.281
X61.412 Y56.358
X61.639 Y56.45
X61.857 Y56.555
X62.068 Y56.673
X62.274 Y56.806
X62.473 Y56.955
X62.663 Y57.116
X62.839 Y57.287
X63.004 Y57.468
X63.16 Y57.662
X63.305 Y57.869
X63.435 Y58.083
X63.549 Y58.302
X63.65 Y58.527
X63.737 Y58.764
X63.81 Y59.008
X63.866 Y59.252
X63.906 Y59.496
X63.931 Y59.744
X63.94 Y59.998
X63.932 Y60.252
X63.909 Y60.501
X63.87 Y60.746
X63.814 Y60.991
X63.743 Y61.236
X63.656 Y61.474
X63.556 Y61.702
X63.441 Y61.923
X63.31 Y62.141
X63.164 Y62.351
X63.008 Y62.549
X62.842 Y62.733
X62.662 Y62.908
X62.468 Y63.074
X62.265 Y63.228
X62.055 Y63.365
X61.839 Y63.488
X61.612 Y63.598
X61.375 Y63.695
X61.134 Y63.776
X60.893 Y63.841
X60.649 Y63.889
X60.396 Y63.923
X60.141 Y63.941
X59.888 Y63.942
X59.64 Y63.927
X59.392 Y63.896
X59.141 Y63.848
X58.894 Y63.785
X58.655 Y63.707
X58.424 Y63.615
X58.197 Y63.507
X57.973 Y63.382
X57.759 Y63.245
X57.558 Y63.096
X57.368 Y62.936
X57.184 Y62.76
X56.984 Y62.543
X56.794 Y62.307
X56.605 Y62.04
X56.431 Y61.756
X56.277 Y61.465
X56.144 Y61.171
X56.034 Y60.877
X55.946 Y60.586
X55.879 Y60.299
X55.831 Y60.017
X55.802 Y59.737
X55.791 Y59.459
X55.798 Y59.185
X55.822 Y58.916
X55.863 Y58.651
X55.921 Y58.39
X55.995 Y58.134
X56.085 Y57.884
X56.191 Y57.641
X56.312 Y57.405
X56.448 Y57.176
X56.599 Y56.955
X56.766 Y56.743
X56.946 Y56.542
X57.14 Y56.351
X57.347 Y56.172
X57.567 Y56.005
X57.799 Y55.851
X58.055 Y55.712
X58.114 Y55.688
X58.675 Y55.475
X58.849 Y55.411
X59.453 Y55.331
X59.998 Y55.269
X61.01 Y55.387
X61.166 Y55.415
X62.177 Y55.799
X62.411 Y55.952
X63.143 Y56.463
X63.898 Y57.318
X64.407 Y58.282
X64.439 Y58.369
X64.67 Y59.303
X64.7 Y59.458
Y60.548
X64.553 Y61.17
X64.422 Y61.685
X63.894 Y62.688
X63.139 Y63.541
X62.255 Y64.155
X62.177 Y64.2
X61.127 Y64.595
X59.998 Y64.732
X58.873 Y64.595
X57.819 Y64.199
X57.48 Y63.972
X56.86 Y63.54
X56.106 Y62.688
X55.575 Y61.676
X55.332 Y60.703
X55.3 Y60.548
Y59.458
X55.369 Y59.147
X55.562 Y58.363
X55.629 Y58.213
X56.101 Y57.318
X56.856 Y56.464
X57.78 Y55.822
X58.114 Y55.688
X58.151 Y55.682 Z-11.995
X58.187 Y55.676 Z-11.981
X58.218 Y55.671 Z-11.959
X58.242 Y55.667 Z-11.93
X58.262 Z-11.888
X58.268 Y55.668 Z-11.843
G0 Z5.
X100.459 Y20.358
Z-11.2
G1 Z-11.6 F400.
X100.456 Y20.35 Z-11.678
X100.448 Y20.329 Z-11.753
X100.434 Y20.295 Z-11.822
X100.416 Y20.248 Z-11.883
X100.394 Y20.192 Z-11.933
X100.369 Y20.128 Z-11.97
X100.342 Y20.058 Z-11.992
X100.314 Y19.985 Z-12.
G3 X99.74 Y17.861 R10.212
G1 X99.732 Y17.794
X99.786 Y17.67
X99.885 Y17.578
X99.997 Y17.504
X100.119 Y17.445
X100.247 Y17.403
X100.379 Y17.374
X100.513 Y17.357
X100.648 Y17.35
X100.783 Y17.354
X100.917 Y17.369
X101.206 Y17.434
X101.467 Y17.529
X101.722 Y17.663
X101.874 Y17.762
X102.012 Y17.865
X102.232 Y18.065
X102.342 Y18.186
X102.465 Y18.34
X102.573 Y18.496
X102.659 Y18.637
X102.731 Y18.776
X102.802 Y18.936
X102.874 Y19.133
X102.931 Y19.322
X102.969 Y19.489
X102.994 Y19.647
X103.012 Y19.833
X103.019 Y20.051
X103.013 Y20.248
X102.997 Y20.418
X102.97 Y20.582
X102.927 Y20.775
X102.864 Y20.987
X102.797 Y21.169
X102.729 Y21.323
X102.649 Y21.478
X102.539 Y21.66
X102.414 Y21.838
X102.299 Y21.983
X102.188 Y22.105
X102.055 Y22.235
X101.886 Y22.38
X101.721 Y22.503
X101.572 Y22.6
X101.424 Y22.684
X101.246 Y22.77
X101.037 Y22.855
X100.853 Y22.917
X100.683 Y22.962
X100.512 Y22.996
X100.303 Y23.023
X100.084 Y23.038
X99.896
X99.727 Y23.028
X99.544 Y23.005
X99.324 Y22.962
X99.122 Y22.91
X98.957 Y22.856
X98.795 Y22.791
X98.617 Y22.706
X98.42 Y22.596
X98.253 Y22.488
X98.114 Y22.385
X97.981 Y22.272
X97.829 Y22.127
X97.682 Y21.965
X97.561 Y21.815
X97.464 Y21.678
X97.368 Y21.521
X97.265 Y21.325
X97.179 Y21.132
X97.116 Y20.964
X97.067 Y20.802
X97.023 Y20.611
X96.985 Y20.386
X96.965 Y20.188
X96.959 Y20.016
X96.964 Y19.843
X96.983 Y19.633
X97.017 Y19.414
X97.058 Y19.23
X97.105 Y19.068
X97.168 Y18.895
X97.257 Y18.691
X97.353 Y18.504
X97.446 Y18.349
X97.542 Y18.21
X97.663 Y18.056
X97.815 Y17.887
X98.139 Y17.57
X98.432 Y17.318
X98.665 Y17.141
X98.875 Y17.002
X99.079 Y16.886
X99.279 Y16.788
X99.475 Y16.707
X99.666 Y16.642
X99.857 Y16.591
X100.051 Y16.552
X100.248 Y16.525
X100.445 Y16.511
X100.641 Y16.51
X100.836 Y16.521
X101.032 Y16.545
X101.23 Y16.582
X101.428 Y16.633
X101.624 Y16.696
X101.814 Y16.771
X102. Y16.859
X102.186 Y16.962
X102.369 Y17.079
X102.545 Y17.208
X102.711 Y17.347
X102.869 Y17.498
X103.022 Y17.664
X103.166 Y17.842
X103.299 Y18.029
X103.418 Y18.222
X103.526 Y18.425
X103.623 Y18.639
X103.707 Y18.861
X103.777 Y19.088
X103.831 Y19.318
X103.871 Y19.551
X103.896 Y19.791
X103.907 Y20.035
X103.901 Y20.279
X103.88 Y20.52
X103.844 Y20.759
X103.791 Y20.999
X103.722 Y21.24
X103.639 Y21.473
X103.542 Y21.698
X103.431 Y21.916
X103.303 Y22.131
X103.161 Y22.34
X103.007 Y22.536
X102.844 Y22.72
X102.668 Y22.894
X102.476 Y23.06
X102.275 Y23.214
X102.067 Y23.352
X101.853 Y23.476
X101.628 Y23.587
X101.393 Y23.685
X101.154 Y23.768
X100.913 Y23.833
X100.67 Y23.884
X100.419 Y23.919
X100.164 Y23.938
X99.913 Y23.941
X99.665 Y23.928
X99.417 Y23.899
X99.166 Y23.853
X98.918 Y23.791
X98.679 Y23.714
X98.447 Y23.624
X98.22 Y23.518
X97.995 Y23.395
X97.78 Y23.258
X97.578 Y23.111
X97.387 Y22.953
X97.203 Y22.778
X97.028 Y22.591
X96.868 Y22.395
X96.723 Y22.193
X96.591 Y21.981
X96.47 Y21.756
X96.363 Y21.523
X96.273 Y21.288
X96.199 Y21.051
X96.14 Y20.807
X96.096 Y20.555
X96.068 Y20.301
X96.057 Y20.052
X96.061 Y19.803
X96.082 Y19.55
X96.12 Y19.297
X96.173 Y19.049
X96.24 Y18.81
X96.323 Y18.574
X96.423 Y18.339
X96.557 Y18.074
X96.71 Y17.813
X96.894 Y17.542
X97.097 Y17.279
X97.315 Y17.032
X97.543 Y16.805
X97.78 Y16.597
X98.02 Y16.412
X98.264 Y16.248
X98.512 Y16.104
X98.763 Y15.978
X99.019 Y15.87
X99.278 Y15.78
X99.538 Y15.707
X99.801 Y15.652
X100.065 Y15.614
X100.33 Y15.593
X100.596 Y15.588
X100.861 Y15.601
X101.125 Y15.631
X101.387 Y15.678
X101.647 Y15.742
X101.904 Y15.822
X102.157 Y15.92
X102.403 Y16.034
X102.644 Y16.164
X102.878 Y16.311
X103.104 Y16.474
X103.318 Y16.658
X103.361 Y16.704
X103.726 Y17.117
X103.894 Y17.312
X104.425 Y18.324
X104.668 Y19.297
X104.7 Y19.452
Y20.542
X104.631 Y20.853
X104.438 Y21.637
X104.371 Y21.787
X103.899 Y22.682
X103.144 Y23.536
X102.22 Y24.178
X101.792 Y24.348
X101.151 Y24.589
X100.547 Y24.669
X100.002 Y24.731
X98.99 Y24.613
X98.834 Y24.585
X97.823 Y24.201
X97.589 Y24.048
X96.857 Y23.537
X96.102 Y22.682
X95.593 Y21.718
X95.561 Y21.631
X95.33 Y20.697
X95.3 Y20.542
Y19.452
X95.447 Y18.83
X95.578 Y18.315
X96.106 Y17.312
X96.861 Y16.459
X97.745 Y15.845
X97.823 Y15.8
X98.873 Y15.405
X100.002 Y15.268
X101.127 Y15.405
X102.181 Y15.801
X102.52 Y16.028
X103.14 Y16.46
X103.361 Y16.704
X103.383 Y16.747 Z-11.992
X103.404 Y16.785 Z-11.97
X103.42 Y16.816 Z-11.935
X103.431 Y16.835 Z-11.891
X103.435 Y16.842 Z-11.843
G0 Z5.
X99.469 Y59.763
Z-11.2
G1 Z-11.6 F400.
X99.473 Y59.769 Z-11.678
X99.486 Y59.788 Z-11.753
X99.508 Y59.818 Z-11.822
X99.536 Y59.858 Z-11.883
X99.571 Y59.908 Z-11.933
X99.611 Y59.965 Z-11.97
X99.654 Y60.026 Z-11.992
X99.699 Y60.09 Z-12.
G3 X100.764 Y62.015 R10.212
G1 X100.788 Y62.078
X100.756 Y62.209
X100.687 Y62.325
X100.593 Y62.422
X100.489 Y62.508
X100.376 Y62.581
X100.255 Y62.642
X100.128 Y62.689
X99.867 Y62.754
X99.598 Y62.781
X99.304 Y62.767
X99.005 Y62.714
X98.741 Y62.631
X98.583 Y62.564
X98.415 Y62.48
X98.27 Y62.396
X98.022 Y62.217
X97.885 Y62.096
X97.739 Y61.951
X97.62 Y61.816
X97.522 Y61.69
X97.431 Y61.555
X97.332 Y61.386
X97.238 Y61.198
X97.166 Y61.03
X97.11 Y60.871
X97.064 Y60.706
X97.021 Y60.503
X96.99 Y60.294
X96.975 Y60.111
X96.972 Y59.947
X96.98 Y59.764
X97.004 Y59.546
X97.04 Y59.344
X97.082 Y59.172
X97.132 Y59.01
X97.202 Y58.829
X97.295 Y58.625
X97.389 Y58.45
X97.48 Y58.305
X97.581 Y58.164
X97.713 Y58.003
X97.863 Y57.842
X98.001 Y57.712
X98.131 Y57.604
X98.278 Y57.497
X98.464 Y57.379
X98.649 Y57.278
X98.812 Y57.202
X98.971 Y57.14
X99.156 Y57.081
X99.375 Y57.027
X99.569 Y56.991
X99.747 Y56.97
X99.918 Y56.962
X100.125 Y56.964
X100.347 Y56.981
X100.533 Y57.007
X100.703 Y57.042
X100.878 Y57.09
X101.082 Y57.161
X101.281 Y57.244
X101.446 Y57.326
X101.591 Y57.409
X101.751 Y57.516
X101.932 Y57.654
X102.084 Y57.786
X102.208 Y57.91
X102.322 Y58.037
X102.449 Y58.2
X102.573 Y58.382
X102.672 Y58.549
X102.75 Y58.702
X102.821 Y58.867
X102.894 Y59.073
X102.953 Y59.279
X102.992 Y59.458
X103.017 Y59.624
X103.034 Y59.816
X103.039 Y60.043
X103.03 Y60.244
X103.012 Y60.419
X102.983 Y60.588
X102.935 Y60.788
X102.87 Y61.002
X102.801 Y61.183
X102.732 Y61.336
X102.647 Y61.496
X102.397 Y61.899
X102.17 Y62.219
X101.979 Y62.453
X101.805 Y62.643
X101.638 Y62.802
X101.47 Y62.942
X101.299 Y63.067
X101.125 Y63.178
X100.949 Y63.276
X100.773 Y63.359
X100.591 Y63.431
X100.403 Y63.491
X100.211 Y63.54
X100.016 Y63.577
X99.82 Y63.6
X99.623 Y63.611
X99.422 Y63.61
X99.216 Y63.595
X99.009 Y63.567
X98.804 Y63.526
X98.603 Y63.471
X98.402 Y63.403
X98.199 Y63.319
X98. Y63.222
X97.809 Y63.112
X97.625 Y62.991
X97.445 Y62.855
X97.271 Y62.704
X97.105 Y62.542
X96.951 Y62.37
X96.808 Y62.189
X96.675 Y61.996
X96.553 Y61.791
X96.443 Y61.577
X96.348 Y61.358
X96.267 Y61.135
X96.2 Y60.904
X96.147 Y60.665
X96.109 Y60.422
X96.087 Y60.179
X96.08 Y59.936
X96.089 Y59.692
X96.115 Y59.444
X96.156 Y59.196
X96.212 Y58.956
X96.283 Y58.722
X96.37 Y58.489
X96.473 Y58.259
X96.59 Y58.036
X96.72 Y57.825
X96.862 Y57.623
X97.02 Y57.427
X97.191 Y57.24
X97.373 Y57.065
X97.562 Y56.906
X97.762 Y56.758
X97.975 Y56.62
X98.198 Y56.496
X98.424 Y56.388
X98.655 Y56.296
X98.893 Y56.218
X99.14 Y56.154
X99.389 Y56.106
X99.638 Y56.075
X99.885 Y56.06
X100.138
X100.393 Y56.078
X100.645 Y56.111
X100.889 Y56.159
X101.13 Y56.223
X101.372 Y56.304
X101.609 Y56.401
X101.836 Y56.511
X102.052 Y56.633
X102.262 Y56.77
X102.466 Y56.923
X102.66 Y57.089
X102.839 Y57.264
X103.006 Y57.448
X103.163 Y57.646
X103.309 Y57.857
X103.441 Y58.074
X103.555 Y58.295
X103.656 Y58.523
X103.744 Y58.763
X103.816 Y59.008
X103.872 Y59.254
X103.911 Y59.499
X103.935 Y59.749
X103.943 Y60.005
X103.935 Y60.26
X103.91 Y60.509
X103.871 Y60.754
X103.805 Y61.042
X103.719 Y61.331
X103.606 Y61.637
X103.471 Y61.942
X103.318 Y62.235
X103.15 Y62.511
X102.971 Y62.769
X102.781 Y63.006
X102.583 Y63.225
X102.377 Y63.424
X102.162 Y63.607
X101.94 Y63.773
X101.711 Y63.922
X101.474 Y64.056
X101.232 Y64.172
X100.985 Y64.273
X100.733 Y64.357
X100.476 Y64.424
X100.215 Y64.475
X99.951 Y64.509
X99.686 Y64.527
X99.419
X99.15 Y64.51
X98.882 Y64.476
X98.614 Y64.424
X98.349 Y64.355
X98.088 Y64.269
X97.83 Y64.165
X97.572 Y64.034
X97.519 Y64.
X97.122 Y63.725
X96.861 Y63.541
X96.106 Y62.688
X95.578 Y61.685
X95.332 Y60.703
X95.3 Y60.548
Y59.458
X95.369 Y59.147
X95.566 Y58.351
X95.629 Y58.213
X96.102 Y57.318
X96.857 Y56.463
X97.784 Y55.819
X98.523 Y55.533
X98.849 Y55.411
X99.457 Y55.331
X100.002 Y55.269
X101.014 Y55.388
X101.169 Y55.416
X102.181 Y55.801
X102.414 Y55.955
X103.144 Y56.464
X103.899 Y57.318
X104.41 Y58.288
X104.439 Y58.369
X104.67 Y59.303
X104.7 Y59.458
Y60.548
X104.553 Y61.17
X104.425 Y61.676
X103.894 Y62.688
X103.14 Y63.54
X102.259 Y64.153
X102.181 Y64.199
X101.127 Y64.595
X100.002 Y64.732
X98.873 Y64.595
X97.823 Y64.2
X97.589 Y64.048
X97.519 Y64.
X97.487 Y63.964 Z-11.992
X97.458 Y63.932 Z-11.97
X97.435 Y63.906 Z-11.935
X97.42 Y63.89 Z-11.891
X97.415 Y63.884 Z-11.843
G0 Z5.
X139.541 Y19.642
Z-11.2
G1 Z-11.6 F400.
X139.544 Y19.649 Z-11.678
X139.552 Y19.671 Z-11.753
X139.566 Y19.705 Z-11.822
X139.584 Y19.751 Z-11.883
X139.606 Y19.808 Z-11.933
X139.631 Y19.872 Z-11.97
X139.658 Y19.942 Z-11.992
X139.686 Y20.015 Z-12.
G3 X140.26 Y22.139 R10.212
G1 X140.268 Y22.206
X140.207 Y22.326
X140.111 Y22.422
X139.998 Y22.496
X139.875 Y22.552
X139.748 Y22.595
X139.616 Y22.626
X139.482 Y22.643
X139.347 Y22.648
X139.076 Y22.627
X138.943 Y22.604
X138.684 Y22.529
X138.533 Y22.467
X138.384 Y22.396
X138.138 Y22.248
X138.022 Y22.161
X137.889 Y22.048
X137.752 Y21.915
X137.636 Y21.788
X137.451 Y21.541
X137.354 Y21.382
X137.259 Y21.2
X137.185 Y21.034
X137.128 Y20.881
X137.082 Y20.724
X137.037 Y20.531
X137.003 Y20.319
X136.985 Y20.137
X136.979 Y19.974
X136.984 Y19.8
X137.004 Y19.589
X137.037 Y19.381
X137.077 Y19.204
X137.124 Y19.046
X137.187 Y18.872
X137.276 Y18.67
X137.37 Y18.489
X137.461 Y18.338
X137.557 Y18.199
X137.68 Y18.044
X137.831 Y17.877
X137.97 Y17.741
X138.1 Y17.63
X138.24 Y17.525
X138.417 Y17.409
X138.607 Y17.301
X138.774 Y17.219
X138.932 Y17.155
X139.106 Y17.096
X139.32 Y17.039
X139.524 Y16.999
X139.705 Y16.975
X139.872 Y16.963
X140.069 Y16.962
X140.294 Y16.976
X140.492 Y17.
X140.663 Y17.033
X140.83 Y17.076
X141.03 Y17.141
X141.235 Y17.223
X141.407 Y17.305
X141.554 Y17.387
X141.708 Y17.486
X141.888 Y17.618
X142.049 Y17.754
X142.179 Y17.879
X142.292 Y18.002
X142.415 Y18.155
X142.544 Y18.337
X142.65 Y18.51
X142.731 Y18.663
X142.803 Y18.822
X142.876 Y19.018
X142.941 Y19.231
X142.984 Y19.414
X143.012 Y19.581
X143.031 Y19.764
X143.039 Y19.986
X143.034 Y20.195
X143.017 Y20.377
X142.992 Y20.543
X142.95 Y20.734
X142.888 Y20.945
X142.818 Y21.139
X142.749 Y21.299
X142.67 Y21.454
X142.563 Y21.633
X142.439 Y21.813
X142.319 Y21.967
X142.207 Y22.092
X141.88 Y22.413
X141.586 Y22.667
X141.345 Y22.85
X141.127 Y22.994
X140.923 Y23.111
X140.729 Y23.207
X140.535 Y23.287
X140.34 Y23.354
X140.144 Y23.407
X139.95 Y23.446
X139.758 Y23.473
X139.564 Y23.487
X139.366 Y23.488
X139.167 Y23.477
X138.968 Y23.454
X138.773 Y23.417
X138.579 Y23.368
X138.386 Y23.306
X138.192 Y23.23
X138. Y23.14
X137.815 Y23.038
X137.638 Y22.924
X137.464 Y22.797
X137.294 Y22.655
X137.132 Y22.501
X136.98 Y22.337
X136.839 Y22.165
X136.708 Y21.98
X136.585 Y21.782
X136.474 Y21.575
X136.378 Y21.364
X136.296 Y21.147
X136.226 Y20.921
X136.171 Y20.688
X136.129 Y20.45
X136.104 Y20.211
X136.094 Y19.973
X136.099 Y19.732
X136.12 Y19.487
X136.156 Y19.242
X136.208 Y19.003
X136.275 Y18.77
X136.357 Y18.539
X136.456 Y18.308
X136.569 Y18.085
X136.695 Y17.872
X136.833 Y17.669
X136.985 Y17.473
X137.154 Y17.283
X137.332 Y17.106
X137.519 Y16.943
X137.715 Y16.793
X137.925 Y16.653
X138.145 Y16.526
X138.37 Y16.413
X138.599 Y16.318
X138.834 Y16.236
X139.079 Y16.169
X139.329 Y16.117
X139.577 Y16.081
X139.825 Y16.062
X140.076 Y16.059
X140.331 Y16.072
X140.583 Y16.101
X140.829 Y16.146
X141.07 Y16.206
X141.312 Y16.282
X141.551 Y16.375
X141.78 Y16.482
X141.998 Y16.601
X142.209 Y16.734
X142.415 Y16.884
X142.612 Y17.047
X142.796 Y17.219
X142.965 Y17.401
X143.125 Y17.595
X143.274 Y17.803
X143.409 Y18.019
X143.528 Y18.239
X143.632 Y18.465
X143.723 Y18.701
X143.8 Y18.946
X143.86 Y19.192
X143.903 Y19.437
X143.931 Y19.685
X143.943 Y19.939
X143.938 Y20.195
X143.918 Y20.446
X143.882 Y20.692
X143.83 Y20.938
X143.761 Y21.184
X143.677 Y21.425
X143.579 Y21.656
X143.447 Y21.918
X143.295 Y22.179
X143.113 Y22.448
X142.91 Y22.711
X142.692 Y22.959
X142.463 Y23.188
X142.228 Y23.395
X141.988 Y23.581
X141.743 Y23.746
X141.495 Y23.891
X141.243 Y24.017
X140.988 Y24.125
X140.73 Y24.216
X140.469 Y24.289
X140.206 Y24.345
X139.941 Y24.384
X139.676 Y24.406
X139.411 Y24.41
X139.146 Y24.398
X138.881 Y24.368
X138.619 Y24.322
X138.359 Y24.259
X138.103 Y24.179
X137.85 Y24.082
X137.603 Y23.968
X137.361 Y23.838
X137.128 Y23.691
X136.903 Y23.53
X136.678 Y23.337
X136.635 Y23.291
X136.268 Y22.877
X136.102 Y22.682
X135.629 Y21.787
X135.561 Y21.631
X135.33 Y20.697
X135.3 Y20.542
Y19.452
X135.447 Y18.83
X135.569 Y18.341
X135.796 Y17.896
X136.106 Y17.312
X136.862 Y16.458
X137.787 Y15.818
X138.45 Y15.561
X138.872 Y15.405
X140.005 Y15.268
X141.128 Y15.405
X142.185 Y15.803
X142.574 Y16.065
X143.141 Y16.461
X143.894 Y17.312
X144.425 Y18.324
X144.668 Y19.297
X144.7 Y19.452
Y20.542
X144.67 Y20.697
X144.427 Y21.67
X143.898 Y22.682
X143.145 Y23.535
X142.262 Y24.15
X142.185 Y24.197
X141.15 Y24.589
X140.706 Y24.65
X140.005 Y24.732
X138.994 Y24.613
X138.838 Y24.586
X137.787 Y24.183
X136.858 Y23.538
X136.635 Y23.291
X136.612 Y23.248 Z-11.992
X136.592 Y23.21 Z-11.97
X136.575 Y23.179 Z-11.935
X136.565 Y23.16 Z-11.891
X136.561 Y23.153 Z-11.843
G0 Z5.
X140.459 Y60.358
Z-11.2
G1 Z-11.6 F400.
X140.456 Y60.351 Z-11.678
X140.448 Y60.329 Z-11.753
X140.434 Y60.295 Z-11.822
X140.416 Y60.249 Z-11.883
X140.394 Y60.192 Z-11.933
X140.369 Y60.128 Z-11.97
X140.342 Y60.058 Z-11.992
X140.314 Y59.985 Z-12.
G3 X139.74 Y57.861 R10.212
G1 X139.732 Y57.794
X139.785 Y57.67
X139.885 Y57.578
X139.997 Y57.504
X140.119 Y57.445
X140.247 Y57.403
X140.379 Y57.374
X140.513 Y57.357
X140.648 Y57.35
X140.782 Y57.354
X140.917 Y57.369
X141.204 Y57.434
X141.465 Y57.529
X141.721 Y57.662
X141.874 Y57.762
X142.011 Y57.864
X142.231 Y58.063
X142.341 Y58.184
X142.464 Y58.339
X142.571 Y58.492
X142.658 Y58.636
X142.73 Y58.774
X142.801 Y58.934
X142.873 Y59.129
X142.93 Y59.319
X142.968 Y59.487
X142.994 Y59.645
X143.012 Y59.83
X143.019 Y60.048
X143.013 Y60.246
X142.997 Y60.416
X142.971 Y60.58
X142.927 Y60.774
X142.864 Y60.986
X142.798 Y61.167
X142.731 Y61.32
X142.65 Y61.476
X142.54 Y61.657
X142.419 Y61.831
X142.301 Y61.981
X142.189 Y62.104
X142.057 Y62.233
X141.888 Y62.378
X141.723 Y62.502
X141.574 Y62.599
X141.426 Y62.683
X141.248 Y62.769
X141.039 Y62.854
X140.856 Y62.916
X140.685 Y62.961
X140.515 Y62.995
X140.305 Y63.023
X140.086 Y63.037
X139.898 Y63.038
X139.729 Y63.028
X139.546 Y63.005
X139.327 Y62.963
X139.125 Y62.911
X138.961 Y62.857
X138.797 Y62.792
X138.619 Y62.707
X138.422 Y62.597
X138.256 Y62.49
X138.116 Y62.386
X137.983 Y62.274
X137.831 Y62.128
X137.681 Y61.964
X137.562 Y61.817
X137.466 Y61.68
X137.37 Y61.524
X137.267 Y61.329
X137.18 Y61.136
X137.117 Y60.966
X137.068 Y60.805
X137.023 Y60.614
X136.986 Y60.39
X136.966 Y60.195
X136.959 Y60.018
X136.964 Y59.845
X136.983 Y59.636
X137.017 Y59.417
X137.058 Y59.233
X137.105 Y59.07
X137.167 Y58.897
X137.256 Y58.694
X137.352 Y58.507
X137.445 Y58.351
X137.541 Y58.212
X137.662 Y58.058
X137.813 Y57.889
X138.135 Y57.574
X138.428 Y57.32
X138.662 Y57.143
X138.873 Y57.004
X139.076 Y56.887
X139.276 Y56.789
X139.472 Y56.708
X139.664 Y56.643
X139.854 Y56.592
X140.048 Y56.552
X140.245 Y56.526
X140.442 Y56.511
X140.638 Y56.51
X140.833 Y56.521
X141.029 Y56.545
X141.227 Y56.582
X141.426 Y56.632
X141.621 Y56.695
X141.811 Y56.77
X141.997 Y56.858
X142.184 Y56.961
X142.366 Y57.077
X142.542 Y57.206
X142.708 Y57.345
X142.867 Y57.496
X143.02 Y57.661
X143.164 Y57.839
X143.297 Y58.026
X143.417 Y58.219
X143.525 Y58.422
X143.622 Y58.636
X143.706 Y58.858
X143.776 Y59.085
X143.831 Y59.315
X143.871 Y59.548
X143.896 Y59.788
X143.906 Y60.032
X143.901 Y60.276
X143.88 Y60.517
X143.844 Y60.756
X143.792 Y60.996
X143.724 Y61.235
X143.64 Y61.469
X143.544 Y61.694
X143.432 Y61.913
X143.305 Y62.128
X143.163 Y62.337
X143.01 Y62.533
X142.846 Y62.717
X142.67 Y62.892
X142.479 Y63.058
X142.278 Y63.212
X142.07 Y63.35
X141.856 Y63.474
X141.631 Y63.585
X141.396 Y63.684
X141.157 Y63.767
X140.916 Y63.833
X140.674 Y63.883
X140.423 Y63.918
X140.168 Y63.938
X139.917 Y63.941
X139.668 Y63.928
X139.42 Y63.899
X139.169 Y63.853
X138.921 Y63.792
X138.682 Y63.716
X138.451 Y63.625
X138.223 Y63.519
X137.998 Y63.396
X137.783 Y63.26
X137.581 Y63.113
X137.389 Y62.955
X137.205 Y62.781
X137.03 Y62.594
X136.87 Y62.398
X136.725 Y62.196
X136.592 Y61.984
X136.471 Y61.759
X136.365 Y61.527
X136.275 Y61.292
X136.201 Y61.055
X136.141 Y60.811
X136.097 Y60.558
X136.069 Y60.305
X136.057 Y60.056
X136.062 Y59.807
X136.082 Y59.554
X136.119 Y59.301
X136.172 Y59.053
X136.24 Y58.813
X136.322 Y58.578
X136.422 Y58.343
X136.555 Y58.078
X136.708 Y57.816
X136.891 Y57.546
X137.095 Y57.282
X137.312 Y57.035
X137.54 Y56.807
X137.777 Y56.6
X138.017 Y56.415
X138.261 Y56.25
X138.508 Y56.106
X138.76 Y55.98
X139.015 Y55.872
X139.274 Y55.781
X139.534 Y55.708
X139.797 Y55.653
X140.061 Y55.614
X140.327 Y55.593
X140.592 Y55.589
X140.858 Y55.601
X141.121 Y55.631
X141.384 Y55.677
X141.644 Y55.741
X141.901 Y55.821
X142.153 Y55.919
X142.4 Y56.032
X142.641 Y56.162
X142.875 Y56.309
X143.101 Y56.472
X143.318 Y56.659
X143.361 Y56.705
X143.663 Y57.046
X143.898 Y57.318
X144.427 Y58.33
X144.689 Y59.38
X144.7 Y59.458
Y60.548
X144.553 Y61.17
X144.425 Y61.676
X143.894 Y62.688
X143.141 Y63.539
X142.262 Y64.15
X142.185 Y64.197
X141.128 Y64.595
X140.005 Y64.732
X138.872 Y64.595
X137.826 Y64.202
X137.706 Y64.128
X136.862 Y63.542
X136.106 Y62.688
X135.632 Y61.793
X135.562 Y61.637
X135.332 Y60.703
X135.3 Y60.548
Y59.458
X135.369 Y59.147
X135.569 Y58.341
X135.792 Y57.902
X136.102 Y57.318
X136.858 Y56.462
X137.787 Y55.817
X138.848 Y55.411
X139.461 Y55.33
X140.005 Y55.268
X141.017 Y55.388
X141.173 Y55.418
X142.185 Y55.803
X142.574 Y56.065
X143.145 Y56.465
X143.361 Y56.705
X143.384 Y56.747 Z-11.992
X143.404 Y56.786 Z-11.97
X143.421 Y56.816 Z-11.935
X143.431 Y56.836 Z-11.891
X143.435 Y56.842 Z-11.843
G0 Z5.
X19.011 Y19.01
Z-14.1
G1 Z-14.5 F400.
G3 X20.99 Y20.99 Z-15.276 R1.4
X19.011 Y19.01 Z-16.051 R1.4
X20.99 Y20.99 Z-16.827 R1.4
X19.011 Y19.01 Z-17.602 R1.4
X20.99 Y20.99 Z-18.378 R1.4
X19.011 Y19.01 Z-19.153 R1.4
X20.99 Y20.99 Z-19.929 R1.4
X19.011 Y19.01 Z-20.704 R1.4
X20.99 Y20.99 Z-21.48 R1.4
X19.011 Y19.01 Z-22.255 R1.4
X20.99 Y20.99 Z-23.031 R1.4
X19.011 Y19.01 Z-23.806 R1.4
X20.99 Y20.99 Z-24.582 R1.4
X19.011 Y19.01 Z-25.357 R1.4
X20.99 Y20.99 Z-26.133 R1.4
X19.011 Y19.01 Z-26.908 R1.4
X21.401 Y20. Z-27.49 R1.4
X18.601 R1.4
X21.401 R1.4
G1 X21.438 Y20.77
X21.431 Y20.905
X21.403 Y21.037
X21.357 Y21.164
X21.297 Y21.285
X21.223 Y21.398
X21.139 Y21.503
X21.044 Y21.6
X20.941 Y21.687
X20.831 Y21.765
X20.715 Y21.833
X20.593 Y21.892
X20.467 Y21.94
X20.338 Y21.979
X20.206 Y22.007
X19.937 Y22.034
X19.668 Y22.022
X19.402 Y21.972
X19.147 Y21.885
X18.906 Y21.764
X18.683 Y21.612
X18.482 Y21.432
X18.307 Y21.226
X18.161 Y21.
X18.045 Y20.756
X17.962 Y20.499
X17.914 Y20.234
X17.9 Y19.964
X17.92 Y19.695
X17.976 Y19.431
X18.065 Y19.176
X18.186 Y18.935
X18.336 Y18.711
X18.515 Y18.509
X18.718 Y18.33
X18.941 Y18.18
X19.183 Y18.059
X19.438 Y17.97
X19.702 Y17.915
X19.971 Y17.894
X20.24 Y17.907
X20.506 Y17.955
X20.763 Y18.036
X21.008 Y18.15
X21.236 Y18.294
X21.444 Y18.466
X21.629 Y18.663
X21.792 Y18.891
X21.883 Y19.047
X21.983 Y19.247
X22.073 Y19.461
X22.159 Y19.716
X22.188 Y19.851
X22.202 Y19.989
X22.199 Y20.128
X22.173 Y20.464
X22.153 Y20.542
X21.94 Y21.081
X21.888 Y21.164
X21.509 Y21.631
X21.006 Y21.979
X20.929 Y22.017
X20.384 Y22.186
X20.306 Y22.2
X19.683
X19.45 Y22.135
X19.061 Y22.014
X18.94 Y21.943
X18.492 Y21.631
X18.112 Y21.164
X18.049 Y21.057
X17.847 Y20.542
X17.827 Y20.464
X17.783 Y19.841
X17.866 Y19.452
X17.934 Y19.18
X18.248 Y18.635
X18.36 Y18.517
X18.728 Y18.179
X18.827 Y18.12
X19.294 Y17.896
X19.372 Y17.869
X19.995 Y17.778
X20.228 Y17.807
X20.656 Y17.877
X21.234 Y18.152
X21.318 Y18.218
X21.722 Y18.596
X21.785 Y18.686
X22.065 Y19.177
X22.17 Y19.608
X22.217 Y19.841
X22.199 Y20.128
X22.185 Y20.174 Z-27.482
X22.171 Y20.215 Z-27.46
X22.161 Y20.248 Z-27.425
X22.154 Y20.269 Z-27.381
X22.152 Y20.276 Z-27.333
G0 Z5.
X19.011 Y59.009
Z-14.1
G1 Z-14.5 F400.
G3 X20.99 Y60.989 Z-15.276 R1.4
X19.011 Y59.009 Z-16.051 R1.4
X20.99 Y60.989 Z-16.827 R1.4
X19.011 Y59.009 Z-17.602 R1.4
X20.99 Y60.989 Z-18.378 R1.4
X19.011 Y59.009 Z-19.153 R1.4
X20.99 Y60.989 Z-19.929 R1.4
X19.011 Y59.009 Z-20.704 R1.4
X20.99 Y60.989 Z-21.48 R1.4
X19.011 Y59.009 Z-22.255 R1.4
X20.99 Y60.989 Z-23.031 R1.4
X19.011 Y59.009 Z-23.806 R1.4
X20.99 Y60.989 Z-24.582 R1.4
X19.011 Y59.009 Z-25.357 R1.4
X20.99 Y60.989 Z-26.133 R1.4
X19.011 Y59.009 Z-26.908 R1.4
X21.4 Y59.999 Z-27.49 R1.4
X18.6 R1.4
X21.4 R1.4
G1 X21.437 Y60.769
X21.43 Y60.904
X21.402 Y61.036
X21.357 Y61.163
X21.296 Y61.284
X21.223 Y61.397
X21.138 Y61.502
X21.044 Y61.599
X20.941 Y61.686
X20.831 Y61.764
X20.714 Y61.833
X20.593 Y61.891
X20.467 Y61.939
X20.337 Y61.978
X20.205 Y62.006
X19.937 Y62.033
X19.667 Y62.021
X19.402 Y61.971
X19.147 Y61.884
X18.905 Y61.764
X18.682 Y61.611
X18.482 Y61.431
X18.307 Y61.226
X18.16 Y60.999
X18.045 Y60.755
X17.962 Y60.498
X17.913 Y60.233
X17.899 Y59.963
X17.92 Y59.694
X17.975 Y59.43
X18.064 Y59.175
X18.185 Y58.934
X18.336 Y58.71
X18.514 Y58.508
X18.717 Y58.33
X18.941 Y58.179
X19.183 Y58.058
X19.437 Y57.97
X19.701 Y57.914
X19.971 Y57.893
X20.24 Y57.906
X20.506 Y57.954
X20.763 Y58.036
X21.008 Y58.149
X21.236 Y58.293
X21.444 Y58.465
X21.628 Y58.662
X21.792 Y58.89
X21.883 Y59.046
X21.982 Y59.246
X22.073 Y59.461
X22.159 Y59.716
X22.188 Y59.852
X22.202 Y59.989
X22.199 Y60.128
X22.164 Y60.509
X21.94 Y61.081
X21.884 Y61.17
X21.502 Y61.637
X20.968 Y62.
X20.384 Y62.186
X20.306 Y62.2
X19.683 Y62.199
X19.606 Y62.183
X19.061 Y62.014
X18.948 Y61.949
X18.497 Y61.637
X18.36 Y61.476
X18.076 Y61.114
X17.837 Y60.509
X17.809 Y60.236
X17.784 Y59.847
X17.793 Y59.77
X17.932 Y59.186
X18.243 Y58.641
X18.36 Y58.517
X18.723 Y58.182
X18.827 Y58.12
X19.294 Y57.896
X19.372 Y57.869
X19.995 Y57.778
X20.228 Y57.807
X20.656 Y57.877
X21.237 Y58.154
X21.318 Y58.218
X21.726 Y58.602
X21.785 Y58.686
X22.05 Y59.147
X22.079 Y59.216
X22.207 Y59.77
X22.216 Y59.847
X22.199 Y60.128
X22.185 Y60.174 Z-27.482
X22.171 Y60.215 Z-27.46
X22.161 Y60.248 Z-27.425
X22.154 Y60.269 Z-27.381
X22.152 Y60.277 Z-27.333
G0 Z5.
X59.01 Y19.01
Z-14.1
G1 Z-14.5 F400.
G3 X60.99 Y20.99 Z-15.276 R1.4
X59.01 Y19.01 Z-16.051 R1.4
X60.99 Y20.99 Z-16.827 R1.4
X59.01 Y19.01 Z-17.602 R1.4
X60.99 Y20.99 Z-18.378 R1.4
X59.01 Y19.01 Z-19.153 R1.4
X60.99 Y20.99 Z-19.929 R1.4
X59.01 Y19.01 Z-20.704 R1.4
X60.99 Y20.99 Z-21.48 R1.4
X59.01 Y19.01 Z-22.255 R1.4
X60.99 Y20.99 Z-23.031 R1.4
X59.01 Y19.01 Z-23.806 R1.4
X60.99 Y20.99 Z-24.582 R1.4
X59.01 Y19.01 Z-25.357 R1.4
X60.99 Y20.99 Z-26.133 R1.4
X59.01 Y19.01 Z-26.908 R1.4
X61.4 Y20. Z-27.49 R1.4
X58.6 R1.4
X61.4 R1.4
G1 X61.437 Y20.77
X61.43 Y20.905
X61.402 Y21.037
X61.357 Y21.164
X61.296 Y21.285
X61.223 Y21.398
X61.138 Y21.503
X61.044 Y21.6
X60.941 Y21.687
X60.831 Y21.765
X60.714 Y21.833
X60.593 Y21.892
X60.467 Y21.94
X60.337 Y21.979
X60.205 Y22.007
X59.937 Y22.034
X59.667 Y22.022
X59.402 Y21.972
X59.147 Y21.885
X58.905 Y21.764
X58.682 Y21.612
X58.482 Y21.432
X58.307 Y21.226
X58.16 Y21.
X58.045 Y20.756
X57.962 Y20.499
X57.913 Y20.233
X57.899 Y19.964
X57.92 Y19.695
X57.975 Y19.431
X58.064 Y19.176
X58.185 Y18.935
X58.336 Y18.711
X58.514 Y18.508
X58.717 Y18.33
X58.941 Y18.18
X59.183 Y18.059
X59.437 Y17.97
X59.701 Y17.915
X59.97 Y17.894
X60.24 Y17.907
X60.506 Y17.955
X60.763 Y18.036
X61.008 Y18.15
X61.236 Y18.294
X61.444 Y18.466
X61.628 Y18.663
X61.792 Y18.891
X61.883 Y19.047
X61.982 Y19.247
X62.073 Y19.461
X62.159 Y19.717
X62.188 Y19.852
X62.201 Y19.99
X62.199 Y20.128
X62.173 Y20.464
X62.153 Y20.542
X61.944 Y21.074
X61.888 Y21.164
X61.509 Y21.631
X61.01 Y21.977
X60.932 Y22.016
X60.387 Y22.185
X60.31 Y22.2
X59.687
X59.609 Y22.184
X59.064 Y22.015
X58.94 Y21.943
X58.49 Y21.631
X58.077 Y21.115
X57.847 Y20.542
X57.827 Y20.464
X57.783 Y19.841
X57.866 Y19.452
X57.934 Y19.18
X58.247 Y18.635
X58.364 Y18.514
X58.728 Y18.178
X58.831 Y18.118
X59.298 Y17.894
X59.376 Y17.868
X59.998 Y17.778
X60.387 Y17.831
X60.66 Y17.878
X61.236 Y18.153
X61.321 Y18.221
X61.722 Y18.596
X61.788 Y18.692
X62.066 Y19.18
X62.205 Y19.763
X62.217 Y19.841
X62.199 Y20.128
X62.185 Y20.175 Z-27.482
X62.171 Y20.216 Z-27.46
X62.161 Y20.249 Z-27.425
X62.154 Y20.27 Z-27.381
X62.152 Y20.277 Z-27.333
G0 Z5.
X59.01 Y59.009
Z-14.1
G1 Z-14.5 F400.
G3 X60.989 Y60.99 Z-15.276 R1.4
X59.01 Y59.009 Z-16.051 R1.4
X60.989 Y60.99 Z-16.827 R1.4
X59.01 Y59.009 Z-17.602 R1.4
X60.989 Y60.99 Z-18.378 R1.4
X59.01 Y59.009 Z-19.153 R1.4
X60.989 Y60.99 Z-19.929 R1.4
X59.01 Y59.009 Z-20.704 R1.4
X60.989 Y60.99 Z-21.48 R1.4
X59.01 Y59.009 Z-22.255 R1.4
X60.989 Y60.99 Z-23.031 R1.4
X59.01 Y59.009 Z-23.806 R1.4
X60.989 Y60.99 Z-24.582 R1.4
X59.01 Y59.009 Z-25.357 R1.4
X60.989 Y60.99 Z-26.133 R1.4
X59.01 Y59.009 Z-26.908 R1.4
X61.4 Y60. Z-27.49 R1.4
X58.6 R1.4
X61.4 R1.4
G1 X61.437 Y60.77
X61.43 Y60.905
X61.402 Y61.037
X61.356 Y61.164
X61.296 Y61.284
X61.222 Y61.398
X61.138 Y61.503
X61.043 Y61.599
X60.94 Y61.687
X60.83 Y61.765
X60.714 Y61.833
X60.592 Y61.891
X60.466 Y61.94
X60.337 Y61.978
X60.205 Y62.007
X59.936 Y62.034
X59.667 Y62.022
X59.402 Y61.971
X59.146 Y61.885
X58.905 Y61.764
X58.682 Y61.612
X58.481 Y61.432
X58.306 Y61.226
X58.16 Y60.999
X58.044 Y60.755
X57.961 Y60.499
X57.913 Y60.233
X57.899 Y59.964
X57.92 Y59.695
X57.975 Y59.431
X58.064 Y59.176
X58.185 Y58.934
X58.336 Y58.711
X58.514 Y58.508
X58.717 Y58.33
X58.941 Y58.18
X59.182 Y58.059
X59.437 Y57.97
X59.701 Y57.915
X59.97 Y57.894
X60.239 Y57.907
X60.505 Y57.955
X60.762 Y58.036
X61.007 Y58.15
X61.235 Y58.294
X61.443 Y58.466
X61.628 Y58.663
X61.791 Y58.891
X61.882 Y59.047
X61.982 Y59.246
X62.073 Y59.461
X62.158 Y59.719
X62.188 Y59.854
X62.201 Y59.991
X62.199 Y60.13
X62.164 Y60.509
X61.944 Y61.074
X61.884 Y61.17
X61.541 Y61.599
X61.477 Y61.658
X61.01 Y61.977
X60.932 Y62.016
X60.387 Y62.185
X60.31 Y62.2
X59.687
X59.609 Y62.184
X59.064 Y62.015
X58.948 Y61.949
X58.497 Y61.637
X58.364 Y61.481
X58.08 Y61.118
X57.971 Y60.859
X57.849 Y60.548
X57.828 Y60.47
X57.784 Y59.847
X57.793 Y59.77
X57.932 Y59.186
X58.243 Y58.641
X58.364 Y58.514
X58.688 Y58.213
X58.759 Y58.157
X59.298 Y57.894
X59.376 Y57.869
X59.998 Y57.778
X60.387 Y57.831
X60.621 Y57.868
X60.719 Y57.902
X61.239 Y58.155
X61.321 Y58.221
X61.727 Y58.602
X61.788 Y58.692
X62.05 Y59.147
X62.081 Y59.224
X62.207 Y59.77
X62.216 Y59.847
X62.199 Y60.13
X62.184 Y60.176 Z-27.482
X62.171 Y60.217 Z-27.46
X62.161 Y60.25 Z-27.425
X62.154 Y60.271 Z-27.381
X62.152 Y60.279 Z-27.333
G0 Z5.
X99.011 Y19.01
Z-14.1
G1 Z-14.5 F400.
G3 X100.99 Y20.991 Z-15.276 R1.4
X99.011 Y19.01 Z-16.051 R1.4
X100.99 Y20.991 Z-16.827 R1.4
X99.011 Y19.01 Z-17.602 R1.4
X100.99 Y20.991 Z-18.378 R1.4
X99.011 Y19.01 Z-19.153 R1.4
X100.99 Y20.991 Z-19.929 R1.4
X99.011 Y19.01 Z-20.704 R1.4
X100.99 Y20.991 Z-21.48 R1.4
X99.011 Y19.01 Z-22.255 R1.4
X100.99 Y20.991 Z-23.031 R1.4
X99.011 Y19.01 Z-23.806 R1.4
X100.99 Y20.991 Z-24.582 R1.4
X99.011 Y19.01 Z-25.357 R1.4
X100.99 Y20.991 Z-26.133 R1.4
X99.011 Y19.01 Z-26.908 R1.4
X101.4 Y20.001 Z-27.49 R1.4
X98.6 R1.4
X101.4 R1.4
G1 X101.437 Y20.771
X101.43 Y20.906
X101.402 Y21.038
X101.357 Y21.165
X101.296 Y21.285
X101.223 Y21.399
X101.138 Y21.504
X101.044 Y21.6
X100.941 Y21.688
X100.831 Y21.766
X100.714 Y21.834
X100.593 Y21.892
X100.467 Y21.941
X100.337 Y21.979
X100.205 Y22.008
X99.937 Y22.035
X99.667 Y22.023
X99.402 Y21.972
X99.147 Y21.886
X98.905 Y21.765
X98.682 Y21.613
X98.482 Y21.432
X98.307 Y21.227
X98.16 Y21.
X98.045 Y20.756
X97.962 Y20.5
X97.913 Y20.234
X97.899 Y19.965
X97.92 Y19.696
X97.975 Y19.432
X98.064 Y19.177
X98.185 Y18.935
X98.336 Y18.712
X98.514 Y18.509
X98.717 Y18.331
X98.941 Y18.181
X99.183 Y18.06
X99.437 Y17.971
X99.701 Y17.916
X99.971 Y17.894
X100.24 Y17.908
X100.506 Y17.956
X100.763 Y18.037
X101.008 Y18.151
X101.236 Y18.295
X101.444 Y18.467
X101.628 Y18.664
X101.792 Y18.892
X101.883 Y19.048
X101.982 Y19.247
X102.073 Y19.462
X102.159 Y19.718
X102.188 Y19.853
X102.201 Y19.991
X102.199 Y20.129
X102.165 Y20.503
X101.947 Y21.065
X101.888 Y21.164
X101.51 Y21.631
X100.975 Y21.998
X100.547 Y22.136
X100.391 Y22.184
X100.313 Y22.2
X99.69
X99.613 Y22.185
X99.068 Y22.016
X98.94 Y21.943
X98.491 Y21.631
X98.08 Y21.119
X97.908 Y20.697
X97.847 Y20.542
X97.827 Y20.464
X97.783 Y19.841
X97.866 Y19.452
X97.934 Y19.18
X98.247 Y18.635
X98.367 Y18.51
X98.729 Y18.177
X98.834 Y18.117
X99.34 Y17.878
X99.924 Y17.784
X100.002 Y17.778
X100.624 Y17.868
X100.706 Y17.896
X101.237 Y18.154
X101.325 Y18.225
X101.722 Y18.596
X101.792 Y18.698
X102.066 Y19.18
X102.17 Y19.608
X102.217 Y19.841
X102.199 Y20.129
X102.184 Y20.175 Z-27.482
X102.171 Y20.216 Z-27.46
X102.161 Y20.249 Z-27.425
X102.154 Y20.27 Z-27.381
X102.152 Y20.278 Z-27.333
G0 Z5.
X99.01 Y59.01
Z-14.1
G1 Z-14.5 F400.
G3 X100.99 Y60.99 Z-15.276 R1.4
X99.01 Y59.01 Z-16.051 R1.4
X100.99 Y60.99 Z-16.827 R1.4
X99.01 Y59.01 Z-17.602 R1.4
X100.99 Y60.99 Z-18.378 R1.4
X99.01 Y59.01 Z-19.153 R1.4
X100.99 Y60.99 Z-19.929 R1.4
X99.01 Y59.01 Z-20.704 R1.4
X100.99 Y60.99 Z-21.48 R1.4
X99.01 Y59.01 Z-22.255 R1.4
X100.99 Y60.99 Z-23.031 R1.4
X99.01 Y59.01 Z-23.806 R1.4
X100.99 Y60.99 Z-24.582 R1.4
X99.01 Y59.01 Z-25.357 R1.4
X100.99 Y60.99 Z-26.133 R1.4
X99.01 Y59.01 Z-26.908 R1.4
X101.4 Y60. Z-27.49 R1.4
X98.6 R1.4
X101.4 R1.4
G1 X101.437 Y60.77
X101.43 Y60.905
X101.402 Y61.037
X101.357 Y61.164
X101.296 Y61.285
X101.223 Y61.398
X101.138 Y61.503
X101.044 Y61.6
X100.941 Y61.687
X100.831 Y61.765
X100.714 Y61.833
X100.592 Y61.892
X100.466 Y61.94
X100.337 Y61.979
X100.205 Y62.007
X99.937 Y62.034
X99.667 Y62.022
X99.402 Y61.972
X99.146 Y61.885
X98.905 Y61.764
X98.682 Y61.612
X98.482 Y61.432
X98.307 Y61.226
X98.16 Y61.
X98.045 Y60.756
X97.962 Y60.499
X97.913 Y60.234
X97.899 Y59.964
X97.92 Y59.695
X97.975 Y59.431
X98.064 Y59.176
X98.185 Y58.935
X98.336 Y58.711
X98.514 Y58.508
X98.717 Y58.33
X98.941 Y58.18
X99.182 Y58.059
X99.437 Y57.97
X99.701 Y57.915
X99.97 Y57.894
X100.24 Y57.907
X100.505 Y57.955
X100.763 Y58.036
X101.008 Y58.15
X101.236 Y58.294
X101.444 Y58.466
X101.628 Y58.663
X101.792 Y58.891
X101.883 Y59.047
X101.982 Y59.247
X102.073 Y59.461
X102.159 Y59.718
X102.188 Y59.853
X102.201 Y59.991
X102.199 Y60.129
X102.172 Y60.47
X102.151 Y60.548
X101.947 Y61.066
X101.884 Y61.17
X101.542 Y61.599
X101.481 Y61.656
X101.014 Y61.974
X100.936 Y62.015
X100.391 Y62.184
X100.313 Y62.2
X99.69
X99.613 Y62.185
X99.068 Y62.016
X98.948 Y61.949
X98.497 Y61.637
X98.365 Y61.482
X98.082 Y61.122
X98.032 Y61.015
X97.836 Y60.509
X97.809 Y60.236
X97.784 Y59.847
X97.793 Y59.77
X97.919 Y59.224
X97.95 Y59.147
X98.243 Y58.641
X98.367 Y58.51
X98.725 Y58.181
X98.834 Y58.117
X99.301 Y57.892
X99.379 Y57.868
X99.924 Y57.784
X100.002 Y57.778
X100.624 Y57.869
X100.719 Y57.902
X101.241 Y58.157
X101.325 Y58.225
X101.726 Y58.602
X101.792 Y58.698
X102.068 Y59.186
X102.207 Y59.77
X102.216 Y59.847
X102.199 Y60.129
X102.184 Y60.175 Z-27.482
X102.171 Y60.217 Z-27.46
X102.161 Y60.249 Z-27.425
X102.154 Y60.271 Z-27.381
X102.152 Y60.278 Z-27.333
G0 Z5.
X139.01 Y19.009
Z-14.1
G1 Z-14.5 F400.
G3 X141.244 Y19.357 Z-14.964 R1.4
X138.756 Y20.642 Z-15.739 R1.4
X138.614 Y19.804 Z-15.892 R1.4
X141.386 Y20.196 Z-16.667 R1.4
X138.614 Y19.804 Z-17.443 R1.4
X141.386 Y20.196 Z-18.218 R1.4
X138.614 Y19.804 Z-18.994 R1.4
X141.386 Y20.196 Z-19.769 R1.4
X138.614 Y19.804 Z-20.545 R1.4
X141.386 Y20.196 Z-21.32 R1.4
X138.614 Y19.804 Z-22.096 R1.4
X141.386 Y20.196 Z-22.872 R1.4
X138.614 Y19.804 Z-23.647 R1.4
X141.386 Y20.196 Z-24.423 R1.4
X138.614 Y19.804 Z-25.198 R1.4
X141.386 Y20.196 Z-25.974 R1.4
X138.614 Y19.804 Z-26.749 R1.4
X141.4 Y20. Z-27.49 R1.4
X138.6 R1.4
X141.4 R1.4
G1 X141.437 Y20.77
X141.43 Y20.905
X141.402 Y21.037
X141.357 Y21.164
X141.296 Y21.285
X141.223 Y21.398
X141.138 Y21.503
X141.044 Y21.599
X140.941 Y21.687
X140.831 Y21.765
X140.714 Y21.833
X140.592 Y21.892
X140.466 Y21.94
X140.337 Y21.979
X140.205 Y22.007
X139.937 Y22.034
X139.667 Y22.022
X139.402 Y21.971
X139.146 Y21.885
X138.905 Y21.764
X138.682 Y21.612
X138.481 Y21.432
X138.307 Y21.226
X138.16 Y20.999
X138.045 Y20.756
X137.962 Y20.499
X137.913 Y20.233
X137.899 Y19.964
X137.92 Y19.695
X137.975 Y19.431
X138.064 Y19.176
X138.185 Y18.935
X138.336 Y18.711
X138.514 Y18.508
X138.717 Y18.33
X138.941 Y18.18
X139.182 Y18.059
X139.437 Y17.97
X139.701 Y17.915
X139.97 Y17.894
X140.24 Y17.907
X140.505 Y17.955
X140.763 Y18.036
X141.008 Y18.15
X141.236 Y18.294
X141.444 Y18.466
X141.628 Y18.663
X141.792 Y18.891
X141.883 Y19.047
X141.982 Y19.246
X142.073 Y19.461
X142.159 Y19.718
X142.188 Y19.853
X142.201 Y19.991
X142.199 Y20.129
X142.173 Y20.464
X142.153 Y20.542
X141.951 Y21.057
X141.888 Y21.164
X141.508 Y21.631
X141.017 Y21.972
X140.939 Y22.014
X140.394 Y22.183
X140.317 Y22.2
X139.694
X139.616 Y22.186
X139.071 Y22.017
X138.94 Y21.943
X138.491 Y21.631
X138.083 Y21.123
X137.969 Y20.853
X137.847 Y20.542
X137.827 Y20.464
X137.783 Y19.841
X137.866 Y19.452
X137.935 Y19.177
X138.247 Y18.635
X138.371 Y18.507
X138.73 Y18.177
X138.838 Y18.115
X139.344 Y17.877
X139.966 Y17.779
X140.083 Y17.785
X140.628 Y17.869
X140.706 Y17.896
X141.239 Y18.156
X141.328 Y18.228
X141.721 Y18.596
X141.795 Y18.705
X142.066 Y19.18
X142.205 Y19.763
X142.217 Y19.841
X142.199 Y20.129
X142.184 Y20.175 Z-27.482
X142.171 Y20.216 Z-27.46
X142.161 Y20.249 Z-27.425
X142.154 Y20.27 Z-27.381
X142.152 Y20.278 Z-27.333
G0 Z5.
X139.01 Y59.009
Z-14.1
G1 Z-14.5 F400.
G3 X141.244 Y59.357 Z-14.964 R1.4
X138.756 Y60.642 Z-15.739 R1.4
X138.614 Y59.804 Z-15.892 R1.4
X141.386 Y60.196 Z-16.667 R1.4
X138.614 Y59.804 Z-17.443 R1.4
X141.386 Y60.196 Z-18.218 R1.4
X138.614 Y59.804 Z-18.994 R1.4
X141.386 Y60.196 Z-19.769 R1.4
X138.614 Y59.804 Z-20.545 R1.4
X141.386 Y60.196 Z-21.32 R1.4
X141.07 Y60.903 Z-21.459 R1.4
X138.814 Y60.744 Z-21.923 R1.4
X141.186 Y59.255 Z-22.698 R1.4
X138.814 Y60.744 Z-23.474 R1.4
X141.186 Y59.255 Z-24.249 R1.4
X138.814 Y60.744 Z-25.025 R1.4
X138.601 Y59.96 Z-25.17 R1.4
X141.399 Y60.039 Z-25.946 R1.4
X141.119 Y60.841 Z-26.098 R1.4
X138.858 Y60.81 Z-26.562 R1.4
X141.142 Y59.189 Z-27.338 R1.4
X141.4 Y60. Z-27.49 R1.4
X138.6 R1.4
X141.4 R1.4
G1 X141.437 Y60.77
X141.43 Y60.905
X141.402 Y61.037
X141.357 Y61.164
X141.296 Y61.284
X141.223 Y61.398
X141.138 Y61.503
X141.044 Y61.599
X140.941 Y61.687
X140.831 Y61.765
X140.714 Y61.833
X140.592 Y61.891
X140.466 Y61.94
X140.337 Y61.978
X140.205 Y62.007
X139.937 Y62.034
X139.667 Y62.022
X139.402 Y61.971
X139.146 Y61.885
X138.905 Y61.764
X138.682 Y61.612
X138.481 Y61.431
X138.307 Y61.226
X138.16 Y60.999
X138.045 Y60.755
X137.962 Y60.499
X137.913 Y60.233
X137.899 Y59.964
X137.92 Y59.695
X137.975 Y59.431
X138.064 Y59.176
X138.185 Y58.934
X138.336 Y58.711
X138.514 Y58.508
X138.717 Y58.33
X138.941 Y58.18
X139.182 Y58.059
X139.437 Y57.97
X139.701 Y57.915
X139.97 Y57.893
X140.24 Y57.907
X140.505 Y57.955
X140.763 Y58.036
X141.008 Y58.15
X141.236 Y58.294
X141.444 Y58.466
X141.628 Y58.663
X141.792 Y58.891
X141.883 Y59.047
X141.982 Y59.246
X142.073 Y59.461
X142.159 Y59.718
X142.188 Y59.853
X142.201 Y59.99
X142.199 Y60.129
X142.163 Y60.509
X141.924 Y61.114
X141.541 Y61.599
X141.484 Y61.653
X141.017 Y61.972
X140.939 Y62.014
X140.394 Y62.183
X140.317 Y62.199
X139.694 Y62.2
X139.616 Y62.186
X139.032 Y62.
X138.498 Y61.637
X138.116 Y61.17
X138.06 Y61.081
X137.837 Y60.509
X137.809 Y60.236
X137.784 Y59.847
X137.793 Y59.77
X137.921 Y59.216
X137.95 Y59.147
X138.243 Y58.641
X138.371 Y58.507
X138.725 Y58.181
X138.838 Y58.115
X139.344 Y57.877
X139.966 Y57.779
X140.083 Y57.785
X140.628 Y57.869
X140.719 Y57.902
X141.242 Y58.158
X141.328 Y58.228
X141.726 Y58.602
X141.795 Y58.705
X142.068 Y59.186
X142.207 Y59.77
X142.216 Y59.847
X142.199 Y60.129
G3 X142.152 Y60.278 R0.4
G1 X142.114 Y60.346 Z-27.482
X142.078 Y60.412 Z-27.46
X142.045 Y60.472 Z-27.423
X142.016 Y60.525 Z-27.373
X141.992 Y60.569 Z-27.312
X141.974 Y60.601 Z-27.243
X141.963 Y60.621 Z-27.168
X141.959 Y60.628 Z-27.09
G0 Z10.

M9
M30
