(_40_80_160_ 6)
(T2  D=6. CR=0. - ZMIN=-27.49 - FLAT END MILL)
G90 G94 G91.1 G40 G49 G17
G21

(ADAPTIVE3)
M5
M9
T2
S10000 M3
G54
M8
G0 X19.208 Y20.428
G43 Z10. H2
Z5.
Z1.11
G1 Z0.51 F440.
G3 X20.791 Y19.572 Z0.312 R0.9
X19.208 Y20.428 Z0.115 R0.9
X20.791 Y19.572 Z-0.083 R0.9
X19.208 Y20.428 Z-0.281 R0.9
X20.791 Y19.572 Z-0.479 R0.9
X19.208 Y20.428 Z-0.676 R0.9
X20.791 Y19.572 Z-0.874 R0.9
X19.208 Y20.428 Z-1.072 R0.9
X20.791 Y19.572 Z-1.269 R0.9
X19.208 Y20.428 Z-1.467 R0.9
X20.791 Y19.572 Z-1.665 R0.9
X19.208 Y20.428 Z-1.863 R0.9
X20.791 Y19.572 Z-2.06 R0.9
X19.208 Y20.428 Z-2.258 R0.9
X20.791 Y19.572 Z-2.456 R0.9
X19.208 Y20.428 Z-2.653 R0.9
X20.791 Y19.572 Z-2.851 R0.9
X19.208 Y20.428 Z-3.049 R0.9
X20.791 Y19.572 Z-3.247 R0.9
X19.208 Y20.428 Z-3.444 R0.9
X20.791 Y19.572 Z-3.642 R0.9
X19.208 Y20.428 Z-3.84 R0.9
X20.791 Y19.572 Z-4.037 R0.9
X19.208 Y20.428 Z-4.235 R0.9
X20.791 Y19.572 Z-4.433 R0.9
X19.208 Y20.428 Z-4.631 R0.9
X20.791 Y19.572 Z-4.828 R0.9
X19.208 Y20.428 Z-5.026 R0.9
X20.791 Y19.572 Z-5.224 R0.9
X19.208 Y20.428 Z-5.421 R0.9
X20.791 Y19.572 Z-5.619 R0.9
X19.208 Y20.428 Z-5.817 R0.9
X20.791 Y19.572 Z-6.015 R0.9
X19.208 Y20.428 Z-6.212 R0.9
X20.791 Y19.572 Z-6.41 R0.9
X19.208 Y20.428 Z-6.608 R0.9
X20.791 Y19.572 Z-6.805 R0.9
X19.208 Y20.428 Z-7.003 R0.9
X20.791 Y19.572 Z-7.201 R0.9
X19.208 Y20.428 Z-7.399 R0.9
X20.791 Y19.572 Z-7.596 R0.9
X19.208 Y20.428 Z-7.794 R0.9
X20.791 Y19.572 Z-7.992 R0.9
X19.208 Y20.428 Z-8.189 R0.9
X20.791 Y19.572 Z-8.387 R0.9
X19.208 Y20.428 Z-8.585 R0.9
X20.791 Y19.572 Z-8.783 R0.9
X19.208 Y20.428 Z-8.98 R0.9
X20.791 Y19.572 Z-9.178 R0.9
X19.208 Y20.428 Z-9.376 R0.9
X20.791 Y19.572 Z-9.573 R0.9
X19.208 Y20.428 Z-9.771 R0.9
X20.791 Y19.572 Z-9.969 R0.9
X20.9 Y20. Z-10. R0.9
X19.1 R0.9
X20.9 R0.9
G1 X20.917 Y20.486
X20.884 Y20.617
X20.826 Y20.739
X20.748 Y20.849
X20.654 Y20.947
X20.548 Y21.03
X20.431 Y21.097
X20.306 Y21.149
X20.176 Y21.185
X20.043 Y21.204
X19.908 Y21.208
X19.773 Y21.195
X19.641 Y21.166
X19.513 Y21.123
X19.391 Y21.065
X19.277 Y20.994
X19.171 Y20.911
X19.075 Y20.816
X18.99 Y20.711
X18.917 Y20.597
X18.858 Y20.476
X18.812 Y20.349
X18.78 Y20.218
X18.763 Y20.084
X18.761 Y19.949
X18.773 Y19.814
X18.8 Y19.682
X18.841 Y19.553
X18.897 Y19.43
X18.965 Y19.314
X19.045 Y19.205
X19.137 Y19.106
X19.239 Y19.018
X19.35 Y18.941
X19.469 Y18.877
X19.593 Y18.825
X19.723 Y18.788
X19.856 Y18.765
X19.991 Y18.757
X20.126 Y18.763
X20.259 Y18.784
X20.39 Y18.82
X20.515 Y18.869
X20.635 Y18.931
X20.747 Y19.007
X20.85 Y19.093
X20.944 Y19.191
X21.026 Y19.298
X21.161 Y19.531
X21.217 Y19.654
X21.263 Y19.781
X21.298 Y19.912
X21.321 Y20.045
X21.332 Y20.179
X21.329 Y20.314
X21.313 Y20.448
X21.284 Y20.58
X21.241 Y20.708
X21.185 Y20.831
X21.118 Y20.948
X21.039 Y21.057
X20.949 Y21.158
X20.85 Y21.25
X20.742 Y21.332
X20.627 Y21.402
X20.506 Y21.462
X20.38 Y21.51
X20.25 Y21.546
X20.117 Y21.569
X19.982 Y21.581
X19.847 Y21.58
X19.713 Y21.568
X19.58 Y21.543
X19.45 Y21.507
X19.324 Y21.46
X19.202 Y21.401
X19.086 Y21.333
X18.976 Y21.254
X18.873 Y21.167
X18.778 Y21.071
X18.691 Y20.967
X18.614 Y20.857
X18.546 Y20.74
X18.488 Y20.618
X18.441 Y20.492
X18.404 Y20.362
X18.379 Y20.229
X18.364 Y20.095
X18.361 Y19.96
X18.369 Y19.825
X18.388 Y19.692
X18.418 Y19.56
X18.459 Y19.431
X18.51 Y19.306
X18.572 Y19.186
X18.643 Y19.072
X18.724 Y18.963
X18.813 Y18.862
X18.91 Y18.768
X19.014 Y18.682
X19.125 Y18.606
X19.243 Y18.539
X19.365 Y18.481
X19.491 Y18.434
X19.621 Y18.398
X19.754 Y18.372
X19.888 Y18.357
X20.023 Y18.353
X20.158 Y18.361
X20.291 Y18.379
X20.423 Y18.408
X20.552 Y18.448
X20.677 Y18.499
X20.798 Y18.559
X20.914 Y18.629
X21.128 Y18.793
X21.316 Y18.986
X21.476 Y19.203
X21.604 Y19.441
X21.696 Y19.695
X21.728 Y19.826
X21.751 Y19.959
X21.766 Y20.228
X21.759 Y20.363
X21.741 Y20.497
X21.676 Y20.759
X21.629 Y20.885
X21.573 Y21.008
X21.434 Y21.239
X21.352 Y21.346
X21.262 Y21.447
X21.061 Y21.627
X20.836 Y21.776
X20.592 Y21.891
X20.334 Y21.97
X20.067 Y22.012
X19.797 Y22.016
X19.53 Y21.983
X19.269 Y21.913
X19.02 Y21.808
X18.788 Y21.671
X18.576 Y21.504
X18.388 Y21.31
X18.228 Y21.093
X18.098 Y20.856
X18. Y20.605
X17.935 Y20.343
X17.906 Y20.075
X17.911 Y19.805
X17.951 Y19.538
X18.026 Y19.279
X18.133 Y19.031
X18.272 Y18.799
X18.439 Y18.587
X18.631 Y18.399
X18.847 Y18.236
X19.081 Y18.103
X19.331 Y18.001
X19.592 Y17.931
X19.859 Y17.896
X20.129 Y17.895
X20.397 Y17.928
X20.659 Y17.994
X20.91 Y18.092
X21.148 Y18.219
X21.37 Y18.374
X21.571 Y18.553
X21.751 Y18.754
X21.906 Y18.975
X22.034 Y19.213
X22.134 Y19.463
X22.204 Y19.724
X22.243 Y19.991
X22.251 Y20.261
X22.227 Y20.53
X22.171 Y20.794
X22.085 Y21.05
X21.97 Y21.293
X21.827 Y21.522
X21.658 Y21.733
X21.466 Y21.923
X21.253 Y22.089
X21.023 Y22.23
X20.778 Y22.343
X20.522 Y22.429
X20.258 Y22.485
X19.99 Y22.511
X19.72 Y22.507
X19.452 Y22.473
X19.19 Y22.41
X18.936 Y22.319
X18.693 Y22.201
X18.464 Y22.057
X18.253 Y21.89
X18.06 Y21.701
X17.889 Y21.492
X17.741 Y21.267
X17.617 Y21.027
X17.52 Y20.775
X17.449 Y20.514
X17.407 Y20.248
X17.392 Y19.978
X17.406 Y19.709
X17.448 Y19.442
X17.517 Y19.181
X17.613 Y18.929
X17.735 Y18.688
X17.881 Y18.461
X18.05 Y18.25
X18.239 Y18.058
X18.448 Y17.887
X18.673 Y17.738
X18.912 Y17.613
X19.163 Y17.513
X19.422 Y17.44
X19.688 Y17.393
X19.958 Y17.374
X20.227 Y17.382
X20.495 Y17.417
X20.758 Y17.479
X21.013 Y17.566
X21.259 Y17.678
X21.493 Y17.813
X21.713 Y17.969
X21.916 Y18.147
X22.102 Y18.342
X22.268 Y18.555
X22.413 Y18.783
X22.536 Y19.023
X22.636 Y19.274
X22.711 Y19.533
X22.761 Y19.798
X22.785 Y20.067
X22.784 Y20.337
X22.757 Y20.606
X22.705 Y20.871
X22.628 Y21.129
X22.527 Y21.379
X22.402 Y21.619
X22.256 Y21.846
X22.089 Y22.058
X21.902 Y22.253
X21.698 Y22.43
X21.479 Y22.587
X21.246 Y22.723
X21.001 Y22.837
X20.747 Y22.928
X20.486 Y22.996
X20.219 Y23.039
X19.95 Y23.057
X19.68 Y23.052
X19.412 Y23.022
X19.147 Y22.967
X18.889 Y22.89
X18.638 Y22.79
X18.398 Y22.667
X18.169 Y22.524
X17.953 Y22.362
X17.753 Y22.18
X17.57 Y21.983
X17.404 Y21.769
X17.257 Y21.542
X17.132 Y21.303
X17.027 Y21.053
X16.943 Y20.794
X16.883 Y20.531
X16.846 Y20.261
X16.833 Y19.988
X16.843 Y19.717
X16.876 Y19.445
X16.934 Y19.176
X17.014 Y18.916
X17.117 Y18.662
X17.243 Y18.416
X17.388 Y18.184
X17.553 Y17.964
X17.738 Y17.759
X17.939 Y17.571
X18.156 Y17.402
X18.389 Y17.25
X18.633 Y17.12
X18.887 Y17.012
X19.153 Y16.925
X19.426 Y16.861
X19.704 Y16.821
X19.985 Y16.806
X20.27 Y16.815
X20.555 Y16.849
X20.835 Y16.907
X21.11 Y16.99
X21.38 Y17.098
X21.641 Y17.229
X21.889 Y17.383
X22.124 Y17.558
X22.342 Y17.752
X22.544 Y17.966
X22.728 Y18.198
X22.891 Y18.446
X23.031 Y18.705
X23.148 Y18.976
X23.241 Y19.256
X23.31 Y19.545
X23.354 Y19.84
X23.372 Y20.136
X23.364 Y20.433
X23.33 Y20.727
X23.271 Y21.019
X23.186 Y21.306
X23.077 Y21.585
X22.943 Y21.854
X22.787 Y22.109
X22.609 Y22.351
X22.41 Y22.577
X22.191 Y22.785
X21.954 Y22.975
X21.7 Y23.144
X21.432 Y23.29
X21.152 Y23.413
X20.861 Y23.512
X20.562 Y23.585
X20.257 Y23.632
X19.948 Y23.652
X19.638 Y23.645
X19.328 Y23.612
X19.02 Y23.551
X18.719 Y23.463
X18.425 Y23.35
X18.167 Y23.222
X18.001 Y23.117
X17.853 Y23.014
X17.776 Y22.962
X17.742 Y22.938
X17.502 Y22.745
X17.344 Y22.583
G3 X18.207 Y21.754 R0.6
G1 X18.466 Y21.986
G3 X17.742 Y22.938 R0.6
G1 X17.523 Y22.78
X17.141 Y22.354
X16.936 Y22.112
X16.568 Y21.424
X16.503 Y21.265
X16.315 Y20.505
X16.303 Y20.438
X16.301 Y19.579
X16.386 Y19.198
X16.517 Y18.692
X16.568 Y18.576
X16.902 Y17.95
X16.953 Y17.862
X17.523 Y17.22
X18.216 Y16.737
X18.287 Y16.695
X19.081 Y16.395
X19.147 Y16.377
X19.816 Y16.294
X20.007 Y16.278
X20.867 Y16.379
X20.962 Y16.407
X21.726 Y16.701
X22.311 Y17.098
X22.491 Y17.233
X23.064 Y17.885
X23.457 Y18.625
X23.495 Y18.72
X23.661 Y19.388
X23.699 Y19.579
X23.697 Y20.438
X23.586 Y20.915
X23.489 Y21.297
X23.399 Y21.488
X23.064 Y22.115
X22.491 Y22.767
X22.3 Y22.909
X21.726 Y23.298
X20.962 Y23.593
X20.867 Y23.621
X20.007 Y23.722
X19.243 Y23.636
X19.147 Y23.623
X19.022 Y23.587
X18.287 Y23.305
X18.001 Y23.117
X17.963 Y23.077 Z-9.993
X17.928 Y23.039 Z-9.974
X17.897 Y23.005 Z-9.943
X17.871 Y22.978 Z-9.902
X17.853 Y22.958 Z-9.853
X17.846 Y22.947 Z-9.81
X17.844 Y22.943 Z-9.764
G0 Z5.
X19.15 Y20.297
Z-8.9
G1 Z-9.5 F440.
G3 X20.849 Y19.703 Z-9.698 R0.9
X19.15 Y20.297 Z-9.895 R0.9
X20.849 Y19.703 Z-10.093 R0.9
X19.15 Y20.297 Z-10.291 R0.9
X20.849 Y19.703 Z-10.489 R0.9
X19.15 Y20.297 Z-10.686 R0.9
X20.849 Y19.703 Z-10.884 R0.9
X19.15 Y20.297 Z-11.082 R0.9
X20.849 Y19.703 Z-11.279 R0.9
X19.15 Y20.297 Z-11.477 R0.9
X20.849 Y19.703 Z-11.675 R0.9
X19.15 Y20.297 Z-11.873 R0.9
X20.849 Y19.703 Z-12.07 R0.9
X19.15 Y20.297 Z-12.268 R0.9
X20.849 Y19.703 Z-12.466 R0.9
X19.15 Y20.297 Z-12.663 R0.9
X20.849 Y19.703 Z-12.861 R0.9
X19.15 Y20.297 Z-13.059 R0.9
X20.849 Y19.703 Z-13.257 R0.9
X19.15 Y20.297 Z-13.454 R0.9
X20.849 Y19.703 Z-13.652 R0.9
X19.15 Y20.297 Z-13.85 R0.9
X20.849 Y19.703 Z-14.047 R0.9
X19.15 Y20.297 Z-14.245 R0.9
X20.849 Y19.703 Z-14.443 R0.9
X19.15 Y20.297 Z-14.641 R0.9
X20.849 Y19.703 Z-14.838 R0.9
X19.15 Y20.297 Z-15.036 R0.9
X20.849 Y19.703 Z-15.234 R0.9
X19.15 Y20.297 Z-15.431 R0.9
X20.849 Y19.703 Z-15.629 R0.9
X19.15 Y20.297 Z-15.827 R0.9
X20.849 Y19.703 Z-16.025 R0.9
X19.15 Y20.297 Z-16.222 R0.9
X20.849 Y19.703 Z-16.42 R0.9
X19.15 Y20.297 Z-16.618 R0.9
X20.849 Y19.703 Z-16.815 R0.9
X19.15 Y20.297 Z-17.013 R0.9
X20.849 Y19.703 Z-17.211 R0.9
X19.15 Y20.297 Z-17.409 R0.9
X20.849 Y19.703 Z-17.606 R0.9
X19.15 Y20.297 Z-17.804 R0.9
X20.849 Y19.703 Z-18.002 R0.9
X19.15 Y20.297 Z-18.199 R0.9
X20.849 Y19.703 Z-18.397 R0.9
X19.15 Y20.297 Z-18.595 R0.9
X20.849 Y19.703 Z-18.793 R0.9
X19.15 Y20.297 Z-18.99 R0.9
X20.849 Y19.703 Z-19.188 R0.9
X19.15 Y20.297 Z-19.386 R0.9
X20.849 Y19.703 Z-19.583 R0.9
X19.15 Y20.297 Z-19.781 R0.9
X20.849 Y19.703 Z-19.979 R0.9
X20.9 Y20. Z-20. R0.9
X19.1 R0.9
X20.9 R0.9
G1 X20.917 Y20.486
X20.883 Y20.617
X20.825 Y20.739
X20.748 Y20.85
X20.654 Y20.947
X20.548 Y21.03
X20.431 Y21.097
X20.306 Y21.149
X20.176 Y21.185
X20.001 Y21.2
X19.914 Y21.199
X19.884 Y21.198
X19.847 Y21.196
X19.816 Y21.195
X19.449 Y21.068
X19.37 Y21.024
X19.22 Y20.921
G3 X19.924 Y19.953 R0.6
G1 X20.138 Y20.088
G3 X19.816 Y21.195 R0.6
G1 X19.514 Y21.106
X19.434 Y21.067
X19.212 Y20.915
X19.122 Y20.827
X19.052 Y20.739
X18.973 Y20.63
X18.853 Y20.361
X18.903 Y19.498
G3 X19.396 Y19.581 R0.26
G1 X19.507 Y20.54
G3 X19.052 Y20.739 R0.26
G1 X18.94 Y20.581
X18.843 Y20.343
X18.817 Y20.247
X18.793 Y19.961
X18.8 Y19.865
X18.867 Y19.579
X18.91 Y19.484
X18.965 Y19.388
X18.991 Y19.347
X19.069 Y19.237
X19.129 Y19.169
X19.262 Y19.047
G3 X20.066 Y19.931 R0.6
G1 X19.95 Y20.057
G3 X18.991 Y19.347 R0.6
G1 X19.052 Y19.252
X19.098 Y19.198
X19.263 Y19.045
X19.29 Y19.024
X19.311 Y19.007
X19.513 Y18.906
X19.64 Y18.858
X19.771 Y18.823
X19.906 Y18.803
G3 X20.085 Y19.985 R0.6
G1 X19.845 Y20.042
G3 X19.311 Y19.007 R0.6
G1 X19.434 Y18.938
X19.625 Y18.851
X19.788 Y18.816
X19.921 Y18.801
X19.947 Y18.798
X19.98 Y18.795
X20.05 Y18.797
G3 X19.972 Y19.326 R0.267
X19.881 Y18.828 R0.267
X19.98 Y18.795 R0.282
G1 X20.159 Y18.809
X20.198 Y18.814
X20.212 Y18.816
X20.344 Y18.845
X20.606 Y18.962
X20.832 Y19.138
X21.011 Y19.363
X21.131 Y19.623
X21.186 Y19.905
X21.173 Y20.192
X21.093 Y20.467
X20.949 Y20.716
X20.751 Y20.923
X20.509 Y21.078
X20.237 Y21.171
X19.951 Y21.197
X19.667 Y21.154
G3 X19.265 Y20.434 R0.6
G1 X19.562 Y19.264
G3 X20.212 Y18.816 R0.6
G1 X20.3 Y18.831
X20.389 Y18.857
X20.58 Y18.945
X20.688 Y19.007
X20.902 Y19.198
X20.962 Y19.269
X21.09 Y19.484
X21.133 Y19.579
X21.201 Y19.865
X21.207 Y19.961
X21.183 Y20.247
X21.153 Y20.353
X21.06 Y20.581
X20.96 Y20.724
X20.836 Y20.873
X20.771 Y20.928
X20.58 Y21.059
X20.487 Y21.106
X20.198 Y21.192
X20.102 Y21.202
X19.914 Y21.199
X19.86 Y21.185 Z-19.993
X19.81 Y21.172 Z-19.974
X19.766 Y21.16 Z-19.943
X19.73 Y21.151 Z-19.902
X19.704 Y21.144 Z-19.853
X19.692 Y21.139 Z-19.81
X19.688 Y21.137 Z-19.764
G0 Z5.
X19.242 Y20.831
Z-10.8
G1 Z-11.4 F440.
X19.247 Y20.826 Z-11.494
X19.264 Y20.812 Z-11.585
X19.29 Y20.788 Z-11.672
X19.327 Y20.755 Z-11.753
X19.372 Y20.714 Z-11.824
X19.425 Y20.666 Z-11.885
X19.485 Y20.612 Z-11.935
X19.55 Y20.554 Z-11.971
X19.618 Y20.492 Z-11.993
X19.687 Y20.429 Z-12.
G3 X21.024 Y19.462 R7.659
G1 X21.082 Y19.432
X21.205 Y19.487
X21.299 Y19.584
X21.371 Y19.699
X21.425 Y19.822
X21.461 Y19.952
X21.481 Y20.086
X21.485 Y20.221
X21.474 Y20.355
X21.449 Y20.488
X21.411 Y20.617
X21.359 Y20.742
X21.296 Y20.861
X21.222 Y20.975
X21.138 Y21.08
X21.044 Y21.177
X20.942 Y21.266
X20.833 Y21.345
X20.716 Y21.413
X20.594 Y21.471
X20.468 Y21.519
X20.338 Y21.555
X20.205 Y21.58
X20.071 Y21.593
X19.936 Y21.595
X19.801 Y21.585
X19.668 Y21.563
X19.537 Y21.531
X19.409 Y21.487
X19.286 Y21.432
X19.167 Y21.368
X19.055 Y21.293
X18.949 Y21.209
X18.851 Y21.117
X18.76 Y21.017
X18.679 Y20.909
X18.607 Y20.794
X18.545 Y20.675
X18.493 Y20.55
X18.453 Y20.421
X18.422 Y20.29
X18.403 Y20.156
X18.396 Y20.021
X18.4 Y19.886
X18.415 Y19.752
X18.441 Y19.62
X18.479 Y19.49
X18.527 Y19.364
X18.586 Y19.242
X18.655 Y19.126
X18.733 Y19.016
X18.82 Y18.913
X18.915 Y18.817
X19.019 Y18.731
X19.129 Y18.653
X19.245 Y18.584
X19.367 Y18.526
X19.494 Y18.478
X19.623 Y18.441
X19.756 Y18.414
X19.89 Y18.4
X20.025 Y18.397
X20.16 Y18.404
X20.293 Y18.423
X20.554 Y18.494
X20.805 Y18.592
X21.044 Y18.718
X21.264 Y18.874
X21.365 Y18.963
X21.459 Y19.06
X21.546 Y19.164
X21.624 Y19.274
X21.693 Y19.39
X21.752 Y19.511
X21.801 Y19.637
X21.84 Y19.766
X21.869 Y19.898
X21.887 Y20.032
X21.894 Y20.167
X21.891 Y20.302
X21.877 Y20.436
X21.853 Y20.569
X21.819 Y20.7
X21.723 Y20.952
X21.661 Y21.071
X21.511 Y21.296
X21.331 Y21.497
X21.124 Y21.67
X20.895 Y21.813
X20.648 Y21.922
X20.389 Y21.997
X20.122 Y22.036
X19.852 Y22.038
X19.584 Y22.004
X19.324 Y21.935
X19.074 Y21.832
X18.841 Y21.696
X18.628 Y21.531
X18.438 Y21.339
X18.276 Y21.123
X18.143 Y20.888
X18.042 Y20.638
X17.975 Y20.377
X17.942 Y20.109
X17.946 Y19.839
X17.984 Y19.572
X18.057 Y19.312
X18.163 Y19.064
X18.301 Y18.832
X18.468 Y18.62
X18.662 Y18.432
X18.878 Y18.271
X19.113 Y18.139
X19.364 Y18.039
X19.626 Y17.973
X19.893 Y17.94
X20.163 Y17.939
X20.432 Y17.968
X20.695 Y18.027
X20.95 Y18.114
X21.194 Y18.23
X21.423 Y18.373
X21.634 Y18.542
X21.823 Y18.734
X21.988 Y18.948
X22.125 Y19.18
X22.233 Y19.428
X22.311 Y19.686
X22.357 Y19.952
X22.37 Y20.222
X22.351 Y20.491
X22.3 Y20.756
X22.219 Y21.013
X22.107 Y21.259
X21.969 Y21.49
X21.804 Y21.705
X21.616 Y21.898
X21.408 Y22.07
X21.182 Y22.217
X20.941 Y22.338
X20.688 Y22.432
X20.426 Y22.498
X20.158 Y22.534
X19.889 Y22.542
X19.62 Y22.519
X19.354 Y22.469
X19.096 Y22.39
X18.848 Y22.284
X18.613 Y22.152
X18.393 Y21.995
X18.191 Y21.816
X18.009 Y21.617
X17.849 Y21.4
X17.712 Y21.167
X17.602 Y20.921
X17.518 Y20.664
X17.461 Y20.4
X17.432 Y20.132
Y19.862
X17.46 Y19.594
X17.517 Y19.33
X17.6 Y19.073
X17.71 Y18.827
X17.846 Y18.593
X18.005 Y18.375
X18.186 Y18.175
X18.387 Y17.995
X18.606 Y17.837
X18.84 Y17.702
X19.087 Y17.593
X19.343 Y17.509
X19.606 Y17.45
X19.874 Y17.417
X20.144 Y17.41
X20.413 Y17.428
X20.68 Y17.472
X20.941 Y17.541
X21.194 Y17.634
X21.437 Y17.751
X21.669 Y17.89
X21.885 Y18.051
X22.085 Y18.232
X22.267 Y18.432
X22.428 Y18.648
X22.568 Y18.879
X22.685 Y19.123
X22.777 Y19.377
X22.844 Y19.638
X22.886 Y19.905
X22.901 Y20.174
X22.891 Y20.444
X22.855 Y20.711
X22.794 Y20.974
X22.708 Y21.23
X22.598 Y21.477
X22.465 Y21.712
X22.312 Y21.934
X22.138 Y22.14
X21.946 Y22.33
X21.737 Y22.501
X21.514 Y22.652
X21.277 Y22.783
X21.03 Y22.891
X20.774 Y22.977
X20.512 Y23.039
X20.244 Y23.078
X19.975 Y23.092
X19.705 Y23.083
X19.437 Y23.05
X19.173 Y22.993
X18.916 Y22.913
X18.666 Y22.811
X18.426 Y22.687
X18.198 Y22.542
X17.983 Y22.379
X17.783 Y22.196
X17.6 Y21.998
X17.436 Y21.784
X17.289 Y21.555
X17.164 Y21.316
X17.06 Y21.066
X16.977 Y20.806
X16.918 Y20.543
X16.882 Y20.274
X16.869 Y20.002
X16.872 Y19.867
X16.894 Y19.597
X16.941 Y19.328
X17.01 Y19.066
X17.102 Y18.811
X17.216 Y18.562
X17.35 Y18.327
X17.505 Y18.104
X17.681 Y17.892
X17.873 Y17.698
X18.083 Y17.52
X18.311 Y17.358
X18.555 Y17.215
X18.81 Y17.094
X19.077 Y16.994
X19.356 Y16.917
X19.643 Y16.864
X19.934 Y16.837
X20.227 Y16.834
X20.518 Y16.857
X20.808 Y16.906
X21.095 Y16.98
X21.373 Y17.078
X21.64 Y17.199
X21.895 Y17.343
X22.136 Y17.509
X22.364 Y17.695
X22.574 Y17.901
X22.764 Y18.122
X22.934 Y18.359
X23.083 Y18.611
X23.21 Y18.876
X23.314 Y19.15
X23.394 Y19.432
X23.448 Y19.72
X23.478 Y20.013
X23.482 Y20.31
X23.46 Y20.606
X23.412 Y20.9
X23.339 Y21.189
X23.242 Y21.471
X23.119 Y21.745
X22.971 Y22.009
X22.801 Y22.261
X22.609 Y22.497
X22.396 Y22.717
X22.164 Y22.918
X21.915 Y23.099
X21.651 Y23.258
X21.372 Y23.393
X21.082 Y23.505
X20.782 Y23.591
X20.475 Y23.651
X20.162 Y23.684
X19.847 Y23.69
X19.532 Y23.669
X19.219 Y23.62
X18.935 Y23.549
X18.79 Y23.499
X18.67 Y23.453
X18.587 Y23.422
X18.549 Y23.408
X18.226 Y23.257
X18.018 Y23.129
G3 X18.655 Y22.116 R0.6
G1 X19.021 Y22.309
G3 X18.549 Y23.408 R0.6
G1 X18.287 Y23.305
X17.853 Y23.014
X17.776 Y22.962
X17.742 Y22.938
X17.492 Y22.733
X17.331 Y22.569
G3 X18.197 Y21.742 R0.6
G1 X18.469 Y21.989
G3 X17.742 Y22.938 R0.6
G1 X17.523 Y22.78
X17.219 Y22.442
X17.141 Y22.354
X17.114 Y22.323
X16.976 Y22.147
X16.85 Y21.955
X16.794 Y21.854
G3 X17.831 Y21.257 R0.6
G1 X18.045 Y21.572
G3 X17.114 Y22.323 R0.6
G1 X16.95 Y22.135
X16.902 Y22.06
X16.701 Y21.679
X16.646 Y21.574
X16.633 Y21.548
X16.511 Y21.26
X16.445 Y21.04
G3 X17.595 Y20.711 R0.6
G1 X17.717 Y21.044
G3 X16.633 Y21.548 R0.6
G1 X16.511 Y21.297
X16.377 Y20.764
X16.367 Y20.724
X16.359 Y20.693
X16.311 Y20.391
X16.299 Y20.161
G3 X17.495 Y20.118 R0.6
G1 X17.533 Y20.464
G3 X16.359 Y20.693 R0.6
G1 X16.303 Y20.438
X16.299 Y19.961
Y19.856
Y19.83
X16.312 Y19.604
X16.345 Y19.376
X16.37 Y19.263
G3 X17.543 Y19.502 R0.6
G1 X17.494 Y19.884
G3 X16.299 Y19.83 R0.6
G1 X16.301 Y19.579
X16.386 Y19.198
X16.433 Y19.007
X16.448 Y18.949
X16.457 Y18.909
X16.549 Y18.636
X16.646 Y18.427
G3 X17.724 Y18.947 R0.6
G1 X17.602 Y19.254
G3 X16.457 Y18.909 R0.6
G1 X16.505 Y18.72
X16.568 Y18.576
X16.742 Y18.243
X16.759 Y18.212
X16.805 Y18.124
X16.978 Y17.848
X17.113 Y17.678
G3 X18.045 Y18.429 R0.6
G1 X17.839 Y18.726
G3 X16.805 Y18.124 R0.6
G1 X16.953 Y17.862
X17.288 Y17.48
X17.332 Y17.431
X17.353 Y17.407
X17.494 Y17.264
X17.67 Y17.115
X17.763 Y17.047
G3 X18.481 Y18.005 R0.6
G1 X18.21 Y18.241
G3 X17.353 Y17.407 R0.6
G1 X17.523 Y17.22
X17.966 Y16.907
X18.038 Y16.858
X18.07 Y16.835
X18.317 Y16.69
X18.488 Y16.615
G3 X18.961 Y17.714 R0.6
G1 X18.708 Y17.848
G3 X18.07 Y16.835 R0.6
G1 X18.287 Y16.695
X18.861 Y16.474
X19.081 Y16.395
X19.147 Y16.377
X19.816 Y16.294
X20.007 Y16.278
X20.867 Y16.379
X20.962 Y16.407
X21.726 Y16.701
X22.311 Y17.098
X22.491 Y17.233
X23.064 Y17.885
X23.457 Y18.625
X23.495 Y18.72
X23.661 Y19.388
X23.699 Y19.579
X23.697 Y20.438
X23.586 Y20.915
X23.489 Y21.297
X23.399 Y21.488
X23.064 Y22.115
X22.491 Y22.767
X22.3 Y22.909
X21.726 Y23.298
X20.962 Y23.593
X20.867 Y23.621
X20.007 Y23.722
X19.243 Y23.636
X19.147 Y23.623
X19.022 Y23.587
X18.79 Y23.499
X18.744 Y23.469 Z-11.993
X18.701 Y23.441 Z-11.974
X18.662 Y23.416 Z-11.943
X18.631 Y23.395 Z-11.902
X18.609 Y23.38 Z-11.853
X18.599 Y23.371 Z-11.81
X18.596 Y23.368 Z-11.764
G0 Z5.
X20.245 Y19.134
Z-18.9
G1 Z-19.5 F440.
G3 X19.754 Y20.866 Z-19.698 R0.9
X20.245 Y19.134 Z-19.895 R0.9
X19.754 Y20.866 Z-20.093 R0.9
X20.245 Y19.134 Z-20.291 R0.9
X19.754 Y20.866 Z-20.489 R0.9
X20.245 Y19.134 Z-20.686 R0.9
X19.754 Y20.866 Z-20.884 R0.9
X20.245 Y19.134 Z-21.082 R0.9
X19.754 Y20.866 Z-21.279 R0.9
X20.245 Y19.134 Z-21.477 R0.9
X19.754 Y20.866 Z-21.675 R0.9
X20.245 Y19.134 Z-21.873 R0.9
X19.754 Y20.866 Z-22.07 R0.9
X20.245 Y19.134 Z-22.268 R0.9
X19.754 Y20.866 Z-22.466 R0.9
X20.245 Y19.134 Z-22.663 R0.9
X19.754 Y20.866 Z-22.861 R0.9
X20.245 Y19.134 Z-23.059 R0.9
X19.754 Y20.866 Z-23.257 R0.9
X20.245 Y19.134 Z-23.454 R0.9
X19.754 Y20.866 Z-23.652 R0.9
X20.245 Y19.134 Z-23.85 R0.9
X19.754 Y20.866 Z-24.047 R0.9
X20.245 Y19.134 Z-24.245 R0.9
X19.754 Y20.866 Z-24.443 R0.9
X20.245 Y19.134 Z-24.641 R0.9
X19.754 Y20.866 Z-24.838 R0.9
X20.245 Y19.134 Z-25.036 R0.9
X19.754 Y20.866 Z-25.234 R0.9
X20.245 Y19.134 Z-25.431 R0.9
X19.754 Y20.866 Z-25.629 R0.9
X20.245 Y19.134 Z-25.827 R0.9
X19.754 Y20.866 Z-26.025 R0.9
X20.245 Y19.134 Z-26.222 R0.9
X19.754 Y20.866 Z-26.42 R0.9
X20.245 Y19.134 Z-26.618 R0.9
X19.754 Y20.866 Z-26.815 R0.9
X20.245 Y19.134 Z-27.013 R0.9
X19.754 Y20.866 Z-27.211 R0.9
X20.245 Y19.134 Z-27.409 R0.9
X20.9 Y20. Z-27.49 R0.9
X19.1 R0.9
X20.9 R0.9
G1 X20.917 Y20.486
X20.883 Y20.617
X20.825 Y20.739
X20.748 Y20.85
X20.654 Y20.947
X20.548 Y21.03
X20.431 Y21.097
X20.306 Y21.149
X20.176 Y21.185
X20.001 Y21.2
X19.914 Y21.199
X19.884 Y21.198
X19.847 Y21.196
X19.816 Y21.195
X19.449 Y21.068
X19.37 Y21.024
X19.22 Y20.921
G3 X19.924 Y19.953 R0.6
G1 X20.138 Y20.088
G3 X19.816 Y21.195 R0.6
G1 X19.514 Y21.106
X19.434 Y21.067
X19.212 Y20.915
X19.122 Y20.827
X19.052 Y20.739
X18.973 Y20.63
X18.853 Y20.361
X18.903 Y19.498
G3 X19.396 Y19.581 R0.26
G1 X19.507 Y20.54
G3 X19.052 Y20.739 R0.26
G1 X18.94 Y20.581
X18.843 Y20.343
X18.817 Y20.247
X18.793 Y19.961
X18.8 Y19.865
X18.867 Y19.579
X18.91 Y19.484
X18.965 Y19.388
X18.991 Y19.347
X19.069 Y19.237
X19.129 Y19.169
X19.262 Y19.047
G3 X20.066 Y19.931 R0.6
G1 X19.95 Y20.057
G3 X18.991 Y19.347 R0.6
G1 X19.052 Y19.252
X19.098 Y19.198
X19.263 Y19.045
X19.29 Y19.024
X19.311 Y19.007
X19.513 Y18.906
X19.64 Y18.858
X19.771 Y18.823
X19.906 Y18.803
G3 X20.085 Y19.985 R0.6
G1 X19.845 Y20.042
G3 X19.311 Y19.007 R0.6
G1 X19.434 Y18.938
X19.625 Y18.851
X19.788 Y18.816
X19.921 Y18.801
X19.947 Y18.798
X19.98 Y18.795
X20.05 Y18.797
G3 X19.972 Y19.326 R0.267
X19.881 Y18.828 R0.267
X19.98 Y18.795 R0.282
G1 X20.159 Y18.809
X20.198 Y18.814
X20.212 Y18.816
X20.344 Y18.845
X20.606 Y18.962
X20.832 Y19.138
X21.011 Y19.363
X21.131 Y19.623
X21.186 Y19.905
X21.173 Y20.192
X21.093 Y20.467
X20.949 Y20.716
X20.751 Y20.923
X20.509 Y21.078
X20.237 Y21.171
X19.951 Y21.197
X19.667 Y21.154
G3 X19.265 Y20.434 R0.6
G1 X19.562 Y19.264
G3 X20.212 Y18.816 R0.6
G1 X20.3 Y18.831
X20.389 Y18.857
X20.58 Y18.945
X20.688 Y19.007
X20.902 Y19.198
X20.962 Y19.269
X21.09 Y19.484
X21.133 Y19.579
X21.201 Y19.865
X21.207 Y19.961
X21.183 Y20.247
X21.153 Y20.353
X21.06 Y20.581
X20.96 Y20.724
X20.836 Y20.873
X20.771 Y20.928
X20.58 Y21.059
X20.487 Y21.106
X20.198 Y21.192
X20.102 Y21.202
X19.914 Y21.199
X19.86 Y21.185 Z-27.483
X19.81 Y21.172 Z-27.464
X19.766 Y21.16 Z-27.433
X19.73 Y21.151 Z-27.392
X19.704 Y21.144 Z-27.343
X19.692 Y21.139 Z-27.3
X19.688 Y21.137 Z-27.254
G0 Z5.
X59.208 Y20.429
Z1.11
G1 Z0.51 F440.
G3 X60.792 Y19.573 Z0.312 R0.9
X59.208 Y20.429 Z0.115 R0.9
X60.792 Y19.573 Z-0.083 R0.9
X59.208 Y20.429 Z-0.281 R0.9
X60.792 Y19.573 Z-0.479 R0.9
X59.208 Y20.429 Z-0.676 R0.9
X60.792 Y19.573 Z-0.874 R0.9
X59.208 Y20.429 Z-1.072 R0.9
X60.792 Y19.573 Z-1.269 R0.9
X59.208 Y20.429 Z-1.467 R0.9
X60.792 Y19.573 Z-1.665 R0.9
X59.208 Y20.429 Z-1.863 R0.9
X60.792 Y19.573 Z-2.06 R0.9
X59.208 Y20.429 Z-2.258 R0.9
X60.792 Y19.573 Z-2.456 R0.9
X59.208 Y20.429 Z-2.653 R0.9
X60.792 Y19.573 Z-2.851 R0.9
X59.208 Y20.429 Z-3.049 R0.9
X60.792 Y19.573 Z-3.247 R0.9
X59.208 Y20.429 Z-3.444 R0.9
X60.792 Y19.573 Z-3.642 R0.9
X59.208 Y20.429 Z-3.84 R0.9
X60.792 Y19.573 Z-4.037 R0.9
X59.208 Y20.429 Z-4.235 R0.9
X60.792 Y19.573 Z-4.433 R0.9
X59.208 Y20.429 Z-4.631 R0.9
X60.792 Y19.573 Z-4.828 R0.9
X59.208 Y20.429 Z-5.026 R0.9
X60.792 Y19.573 Z-5.224 R0.9
X59.208 Y20.429 Z-5.421 R0.9
X60.792 Y19.573 Z-5.619 R0.9
X59.208 Y20.429 Z-5.817 R0.9
X60.792 Y19.573 Z-6.015 R0.9
X59.208 Y20.429 Z-6.212 R0.9
X60.792 Y19.573 Z-6.41 R0.9
X59.208 Y20.429 Z-6.608 R0.9
X60.792 Y19.573 Z-6.805 R0.9
X59.208 Y20.429 Z-7.003 R0.9
X60.792 Y19.573 Z-7.201 R0.9
X59.208 Y20.429 Z-7.399 R0.9
X60.792 Y19.573 Z-7.596 R0.9
X59.208 Y20.429 Z-7.794 R0.9
X60.792 Y19.573 Z-7.992 R0.9
X59.208 Y20.429 Z-8.189 R0.9
X60.792 Y19.573 Z-8.387 R0.9
X59.208 Y20.429 Z-8.585 R0.9
X60.792 Y19.573 Z-8.783 R0.9
X59.208 Y20.429 Z-8.98 R0.9
X60.792 Y19.573 Z-9.178 R0.9
X59.208 Y20.429 Z-9.376 R0.9
X60.792 Y19.573 Z-9.573 R0.9
X59.208 Y20.429 Z-9.771 R0.9
X60.792 Y19.573 Z-9.969 R0.9
X60.9 Y20.001 Z-10. R0.9
X59.1 R0.9
X60.9 R0.9
G1 X60.917 Y20.487
X60.884 Y20.618
X60.826 Y20.74
X60.748 Y20.85
X60.654 Y20.947
X60.548 Y21.03
X60.431 Y21.098
X60.306 Y21.15
X60.176 Y21.186
X60.043 Y21.205
X59.908 Y21.208
X59.773 Y21.196
X59.641 Y21.167
X59.514 Y21.124
X59.391 Y21.066
X59.277 Y20.995
X59.171 Y20.911
X59.075 Y20.816
X58.99 Y20.711
X58.917 Y20.598
X58.858 Y20.476
X58.812 Y20.35
X58.78 Y20.218
X58.763 Y20.084
X58.761 Y19.949
X58.773 Y19.815
X58.8 Y19.683
X58.842 Y19.554
X58.897 Y19.431
X58.965 Y19.314
X59.045 Y19.206
X59.137 Y19.107
X59.239 Y19.019
X59.35 Y18.942
X59.469 Y18.877
X59.594 Y18.826
X59.723 Y18.789
X59.856 Y18.766
X59.991 Y18.758
X60.126 Y18.764
X60.259 Y18.785
X60.39 Y18.82
X60.515 Y18.87
X60.635 Y18.932
X60.747 Y19.007
X60.851 Y19.094
X60.944 Y19.192
X61.026 Y19.299
X61.162 Y19.532
X61.217 Y19.655
X61.263 Y19.782
X61.298 Y19.913
X61.321 Y20.046
X61.332 Y20.18
X61.329 Y20.315
X61.313 Y20.449
X61.284 Y20.581
X61.241 Y20.709
X61.185 Y20.832
X61.118 Y20.949
X61.039 Y21.058
X60.949 Y21.159
X60.85 Y21.251
X60.742 Y21.332
X60.627 Y21.403
X60.506 Y21.463
X60.38 Y21.51
X60.25 Y21.546
X60.117 Y21.57
X59.982 Y21.582
X59.847 Y21.581
X59.713 Y21.568
X59.58 Y21.544
X59.45 Y21.508
X59.324 Y21.46
X59.202 Y21.402
X59.086 Y21.333
X58.976 Y21.255
X58.873 Y21.168
X58.778 Y21.072
X58.691 Y20.968
X58.614 Y20.858
X58.546 Y20.741
X58.488 Y20.619
X58.441 Y20.492
X58.404 Y20.362
X58.379 Y20.23
X58.364 Y20.096
X58.361 Y19.961
X58.369 Y19.826
X58.388 Y19.692
X58.418 Y19.561
X58.459 Y19.432
X58.511 Y19.307
X58.572 Y19.187
X58.643 Y19.072
X58.724 Y18.964
X58.813 Y18.862
X58.91 Y18.769
X59.014 Y18.683
X59.126 Y18.607
X59.243 Y18.54
X59.365 Y18.482
X59.491 Y18.435
X59.621 Y18.399
X59.754 Y18.373
X59.888 Y18.358
X60.023 Y18.354
X60.158 Y18.362
X60.291 Y18.38
X60.423 Y18.409
X60.552 Y18.449
X60.677 Y18.499
X60.798 Y18.56
X60.914 Y18.63
X61.128 Y18.794
X61.317 Y18.987
X61.476 Y19.204
X61.604 Y19.442
X61.696 Y19.695
X61.729 Y19.827
X61.751 Y19.96
X61.766 Y20.229
X61.759 Y20.364
X61.741 Y20.498
X61.676 Y20.76
X61.63 Y20.886
X61.573 Y21.009
X61.434 Y21.24
X61.352 Y21.347
X61.262 Y21.448
X61.061 Y21.628
X60.836 Y21.777
X60.592 Y21.892
X60.334 Y21.971
X60.067 Y22.013
X59.798 Y22.017
X59.53 Y21.983
X59.269 Y21.913
X59.02 Y21.809
X58.788 Y21.672
X58.576 Y21.504
X58.388 Y21.311
X58.228 Y21.093
X58.098 Y20.857
X58. Y20.606
X57.935 Y20.344
X57.906 Y20.076
X57.911 Y19.806
X57.951 Y19.539
X58.026 Y19.28
X58.133 Y19.032
X58.272 Y18.8
X58.439 Y18.588
X58.631 Y18.399
X58.847 Y18.237
X59.082 Y18.104
X59.331 Y18.001
X59.592 Y17.932
X59.86 Y17.896
X60.129 Y17.895
X60.397 Y17.929
X60.659 Y17.995
X60.91 Y18.093
X61.148 Y18.22
X61.37 Y18.375
X61.571 Y18.554
X61.751 Y18.755
X61.906 Y18.976
X62.035 Y19.213
X62.134 Y19.464
X62.205 Y19.725
X62.243 Y19.992
X62.251 Y20.262
X62.227 Y20.53
X62.171 Y20.795
X62.085 Y21.05
X61.97 Y21.294
X61.827 Y21.523
X61.658 Y21.734
X61.466 Y21.923
X61.254 Y22.09
X61.023 Y22.23
X60.779 Y22.344
X60.522 Y22.429
X60.258 Y22.485
X59.99 Y22.512
X59.72 Y22.508
X59.452 Y22.474
X59.19 Y22.411
X58.936 Y22.32
X58.693 Y22.202
X58.464 Y22.058
X58.253 Y21.891
X58.06 Y21.702
X57.889 Y21.493
X57.741 Y21.267
X57.617 Y21.027
X57.52 Y20.776
X57.45 Y20.515
X57.407 Y20.249
X57.392 Y19.979
X57.406 Y19.709
X57.448 Y19.443
X57.517 Y19.182
X57.613 Y18.93
X57.735 Y18.689
X57.881 Y18.462
X58.05 Y18.251
X58.239 Y18.059
X58.448 Y17.888
X58.673 Y17.739
X58.912 Y17.613
X59.163 Y17.514
X59.423 Y17.44
X59.688 Y17.394
X59.958 Y17.375
X60.228 Y17.383
X60.495 Y17.418
X60.758 Y17.48
X61.013 Y17.567
X61.259 Y17.679
X61.493 Y17.813
X61.713 Y17.97
X61.916 Y18.147
X62.102 Y18.343
X62.268 Y18.556
X62.413 Y18.783
X62.536 Y19.024
X62.636 Y19.275
X62.711 Y19.534
X62.761 Y19.799
X62.785 Y20.068
X62.784 Y20.338
X62.758 Y20.607
X62.705 Y20.871
X62.628 Y21.13
X62.527 Y21.38
X62.402 Y21.62
X62.256 Y21.846
X62.089 Y22.058
X61.902 Y22.254
X61.699 Y22.431
X61.479 Y22.588
X61.246 Y22.724
X61.001 Y22.838
X60.747 Y22.929
X60.486 Y22.996
X60.219 Y23.04
X59.95 Y23.058
X59.68 Y23.052
X59.412 Y23.022
X59.148 Y22.968
X58.889 Y22.891
X58.638 Y22.79
X58.398 Y22.668
X58.169 Y22.525
X57.954 Y22.362
X57.753 Y22.181
X57.57 Y21.983
X57.404 Y21.77
X57.258 Y21.543
X57.132 Y21.304
X57.027 Y21.054
X56.943 Y20.795
X56.883 Y20.532
X56.846 Y20.262
X56.833 Y19.989
X56.843 Y19.718
X56.877 Y19.446
X56.934 Y19.177
X57.014 Y18.917
X57.117 Y18.663
X57.243 Y18.417
X57.388 Y18.185
X57.553 Y17.965
X57.739 Y17.759
X57.939 Y17.572
X58.156 Y17.402
X58.389 Y17.251
X58.633 Y17.121
X58.887 Y17.012
X59.153 Y16.925
X59.426 Y16.862
X59.704 Y16.822
X59.985 Y16.806
X60.271 Y16.816
X60.555 Y16.849
X60.835 Y16.908
X61.11 Y16.991
X61.38 Y17.098
X61.641 Y17.23
X61.89 Y17.384
X62.124 Y17.558
X62.342 Y17.753
X62.544 Y17.967
X62.728 Y18.199
X62.891 Y18.446
X63.031 Y18.706
X63.148 Y18.977
X63.241 Y19.257
X63.31 Y19.546
X63.354 Y19.84
X63.372 Y20.137
X63.364 Y20.433
X63.33 Y20.728
X63.271 Y21.02
X63.186 Y21.307
X63.077 Y21.586
X62.943 Y21.854
X62.787 Y22.11
X62.609 Y22.352
X62.41 Y22.577
X62.191 Y22.786
X61.954 Y22.975
X61.7 Y23.144
X61.432 Y23.291
X61.152 Y23.414
X60.861 Y23.513
X60.562 Y23.586
X60.257 Y23.632
X59.948 Y23.653
X59.638 Y23.646
X59.328 Y23.612
X59.02 Y23.552
X58.719 Y23.464
X58.425 Y23.351
X58.171 Y23.224
X58.005 Y23.12
X57.853 Y23.014
X57.837 Y23.004
X57.732 Y22.931
X57.504 Y22.747
X57.349 Y22.588
G3 X58.213 Y21.76 R0.6
G1 X58.457 Y21.98
G3 X57.732 Y22.931 R0.6
G1 X57.516 Y22.772
X57.139 Y22.351
X57.102 Y22.31
X57.073 Y22.277
X56.919 Y22.076
X56.835 Y21.932
G3 X57.869 Y21.331 R0.6
G1 X58.001 Y21.522
G3 X57.073 Y22.277 R0.6
G1 X56.966 Y22.156
X56.882 Y22.022
X56.641 Y21.564
X56.5 Y21.26
X56.308 Y20.481
X56.299 Y20.343
X56.305 Y19.546
X56.513 Y18.705
X56.543 Y18.625
X56.903 Y17.943
X56.954 Y17.862
X57.486 Y17.261
X57.552 Y17.195
X58.246 Y16.716
X58.601 Y16.573
X59.108 Y16.387
X59.365 Y16.349
X59.968 Y16.279
X60.034 Y16.278
X60.894 Y16.387
X61.658 Y16.671
X61.753 Y16.716
X62.422 Y17.176
X62.542 Y17.289
X63.047 Y17.862
X63.258 Y18.243
X63.457 Y18.625
X63.495 Y18.72
X63.661 Y19.388
X63.699 Y19.579
X63.697 Y20.438
X63.569 Y20.985
X63.489 Y21.297
X63.299 Y21.679
X63.098 Y22.06
X62.996 Y22.2
X62.475 Y22.781
X61.849 Y23.22
X61.754 Y23.284
X61.658 Y23.329
X60.894 Y23.613
X60.034 Y23.722
X59.939 Y23.72
X59.174 Y23.627
X59.022 Y23.587
X58.315 Y23.318
X58.219 Y23.267
X58.005 Y23.12
X57.968 Y23.08 Z-9.993
X57.932 Y23.042 Z-9.974
X57.901 Y23.008 Z-9.943
X57.875 Y22.981 Z-9.902
X57.857 Y22.961 Z-9.853
X57.85 Y22.95 Z-9.81
X57.848 Y22.946 Z-9.764
G0 Z5.
X59.15 Y20.297
Z-8.9
G1 Z-9.5 F440.
G3 X60.849 Y19.702 Z-9.698 R0.9
X59.15 Y20.297 Z-9.895 R0.9
X60.849 Y19.702 Z-10.093 R0.9
X59.15 Y20.297 Z-10.291 R0.9
X60.849 Y19.702 Z-10.489 R0.9
X59.15 Y20.297 Z-10.686 R0.9
X60.849 Y19.702 Z-10.884 R0.9
X59.15 Y20.297 Z-11.082 R0.9
X60.849 Y19.702 Z-11.279 R0.9
X59.15 Y20.297 Z-11.477 R0.9
X60.849 Y19.702 Z-11.675 R0.9
X59.15 Y20.297 Z-11.873 R0.9
X60.849 Y19.702 Z-12.07 R0.9
X59.15 Y20.297 Z-12.268 R0.9
X60.849 Y19.702 Z-12.466 R0.9
X59.15 Y20.297 Z-12.663 R0.9
X60.849 Y19.702 Z-12.861 R0.9
X59.15 Y20.297 Z-13.059 R0.9
X60.849 Y19.702 Z-13.257 R0.9
X59.15 Y20.297 Z-13.454 R0.9
X60.849 Y19.702 Z-13.652 R0.9
X59.15 Y20.297 Z-13.85 R0.9
X60.849 Y19.702 Z-14.047 R0.9
X59.15 Y20.297 Z-14.245 R0.9
X60.849 Y19.702 Z-14.443 R0.9
X59.15 Y20.297 Z-14.641 R0.9
X60.849 Y19.702 Z-14.838 R0.9
X59.15 Y20.297 Z-15.036 R0.9
X60.849 Y19.702 Z-15.234 R0.9
X59.15 Y20.297 Z-15.431 R0.9
X60.849 Y19.702 Z-15.629 R0.9
X59.15 Y20.297 Z-15.827 R0.9
X60.849 Y19.702 Z-16.025 R0.9
X59.15 Y20.297 Z-16.222 R0.9
X60.849 Y19.702 Z-16.42 R0.9
X59.15 Y20.297 Z-16.618 R0.9
X60.849 Y19.702 Z-16.815 R0.9
X59.15 Y20.297 Z-17.013 R0.9
X60.849 Y19.702 Z-17.211 R0.9
X59.15 Y20.297 Z-17.409 R0.9
X60.849 Y19.702 Z-17.606 R0.9
X59.15 Y20.297 Z-17.804 R0.9
X60.849 Y19.702 Z-18.002 R0.9
X59.15 Y20.297 Z-18.199 R0.9
X60.849 Y19.702 Z-18.397 R0.9
X59.15 Y20.297 Z-18.595 R0.9
X60.849 Y19.702 Z-18.793 R0.9
X59.15 Y20.297 Z-18.99 R0.9
X60.849 Y19.702 Z-19.188 R0.9
X59.15 Y20.297 Z-19.386 R0.9
X60.849 Y19.702 Z-19.583 R0.9
X59.15 Y20.297 Z-19.781 R0.9
X60.849 Y19.702 Z-19.979 R0.9
X60.899 Y20. Z-20. R0.9
X59.099 R0.9
X60.899 R0.9
G1 X60.917 Y20.486
X60.883 Y20.617
X60.825 Y20.739
X60.748 Y20.849
X60.654 Y20.946
X60.548 Y21.029
X60.431 Y21.097
X60.306 Y21.149
X60.176 Y21.185
X59.946 Y21.202
X59.939 Y21.203
X59.91 Y21.201
X59.873 Y21.2
X59.829 Y21.196
G3 X59.669 Y20.975 R0.207
X60.08 Y21.013 R0.206
X59.873 Y21.2 R0.206
G1 X59.748 Y21.18
X59.642 Y21.148
X59.616 Y21.14
X59.583 Y21.13
X59.44 Y21.071
G3 X59.272 Y20.5 R0.475
X60.137 Y20.856 R0.468
X59.583 Y21.13 R0.468
G1 X59.44 Y21.071
X59.281 Y20.964
X59.26 Y20.949
X59.234 Y20.93
X59.174 Y20.883
G3 X59.175 Y20.564 R0.256
X59.566 Y20.877 R0.25
X59.234 Y20.93 R0.25
G1 X59.174 Y20.883
X59.067 Y20.756
X59.04 Y20.724
X59.023 Y20.702
X58.943 Y20.586
G3 X59.136 Y19.909 R0.55
X59.748 Y20.806 R0.543
X59.023 Y20.702 R0.543
G1 X58.946 Y20.592
X58.918 Y20.533
X58.877 Y20.428
X58.866 Y20.403
X58.817 Y20.247
G3 X59.196 Y19.68 R0.545
X59.519 Y20.7 R0.535
X58.866 Y20.403 R0.535
G1 X58.817 Y20.247
X58.805 Y20.152
X58.798 Y20.047
X58.797 Y20.021
X58.8 Y19.865
G3 X59.294 Y19.483 R0.496
X59.272 Y20.46 R0.489
X58.797 Y20.021 R0.489
G1 X58.793 Y19.961
X58.8 Y19.865
X58.819 Y19.77
X58.846 Y19.665
X58.852 Y19.639
X58.91 Y19.484
G3 X59.51 Y19.278 R0.502
X59.165 Y20.209 R0.497
X58.852 Y19.639 R0.497
G1 X58.867 Y19.579
X58.91 Y19.484
X58.965 Y19.388
X58.983 Y19.356
X58.998 Y19.332
X59.098 Y19.198
G3 X59.782 Y19.169 R0.543
X59.143 Y20.027 R0.535
X58.998 Y19.332 R0.535
G1 X59.033 Y19.277
X59.098 Y19.198
X59.174 Y19.126
X59.216 Y19.09
X59.245 Y19.065
X59.377 Y18.967
X59.39 Y18.96
G3 X60.092 Y19.15 R0.575
X59.17 Y19.813 R0.568
X59.245 Y19.065 R0.568
G1 X59.312 Y19.007
X59.471 Y18.921
X59.497 Y18.908
X59.53 Y18.892
X59.635 Y18.849
G3 X59.817 Y19.336 R0.26
G1 X59.749 Y19.363
G3 X59.53 Y18.892 R0.26
G1 X59.652 Y18.842
X59.871 Y18.804
X59.908 Y18.799
X59.964 Y18.794
G3 X60.271 Y19.076 R0.31
X59.653 Y19.132 R0.31
X59.908 Y18.799 R0.31
G1 X59.991 Y18.793
X60.13 Y18.803
X60.212 Y18.816
X60.245 Y18.822
X60.359 Y18.853
X60.469 Y18.895
X60.575 Y18.946
G3 X60.037 Y20.016 R0.6
G1 X59.923 Y19.967
G3 X60.245 Y18.822 R0.6
G1 X60.321 Y18.835
X60.416 Y18.867
X60.603 Y18.96
X60.629 Y18.974
X60.662 Y18.992
X60.703 Y19.017
G3 X60.757 Y19.316 R0.23
X60.364 Y19.08 R0.229
X60.662 Y18.992 R0.229
G1 X60.703 Y19.017
X60.808 Y19.112
X60.834 Y19.136
X60.929 Y19.231
X61.084 Y19.477
X61.177 Y19.753
X61.16 Y20.33
G3 X60.661 Y20.321 R0.26
G1 X60.415 Y19.401
G3 X60.834 Y19.136 R0.26
G1 X60.945 Y19.245
X61.085 Y19.474
X61.133 Y19.579
X61.201 Y19.865
X61.208 Y19.961
X61.183 Y20.247
X61.157 Y20.343
X61.06 Y20.581
X60.96 Y20.724
X60.847 Y20.861
X60.789 Y20.915
X60.512 Y21.095
X60.225 Y21.187
X60.13 Y21.201
X59.946 Y21.202
X59.892 Y21.191 Z-19.993
X59.841 Y21.181 Z-19.974
X59.796 Y21.171 Z-19.943
X59.759 Y21.163 Z-19.902
X59.733 Y21.158 Z-19.853
X59.721 Y21.153 Z-19.81
X59.717 Y21.151 Z-19.764
G0 Z5.
X58.942 Y20.384
Z-10.8
G1 Z-11.4 F440.
X58.949 Y20.382 Z-11.494
X58.971 Y20.376 Z-11.585
X59.006 Y20.368 Z-11.672
X59.053 Y20.355 Z-11.753
X59.112 Y20.34 Z-11.824
X59.182 Y20.322 Z-11.885
X59.26 Y20.302 Z-11.935
X59.344 Y20.281 Z-11.971
X59.432 Y20.258 Z-11.993
X59.523 Y20.235 Z-12.
G3 X61.157 Y20. R7.659
G1 X61.221
X61.302 Y20.108
X61.34 Y20.237
X61.352 Y20.372
X61.342 Y20.506
X61.314 Y20.638
X61.269 Y20.766
X61.209 Y20.887
X61.138 Y21.001
X61.053 Y21.106
X60.959 Y21.203
X60.856 Y21.29
X60.744 Y21.366
X60.626 Y21.431
X60.502 Y21.486
X60.374 Y21.528
X60.243 Y21.558
X60.109 Y21.577
X59.974 Y21.585
X59.839 Y21.579
X59.705 Y21.562
X59.573 Y21.534
X59.445 Y21.493
X59.32 Y21.442
X59.199 Y21.381
X59.085 Y21.309
X58.977 Y21.228
X58.877 Y21.138
X58.784 Y21.04
X58.7 Y20.934
X58.626 Y20.821
X58.561 Y20.703
X58.506 Y20.579
X58.463 Y20.451
X58.43 Y20.32
X58.408 Y20.187
X58.397 Y20.053
X58.399 Y19.918
X58.411 Y19.783
X58.434 Y19.65
X58.47 Y19.52
X58.516 Y19.393
X58.572 Y19.27
X58.638 Y19.152
X58.714 Y19.041
X58.799 Y18.936
X58.892 Y18.839
X58.994 Y18.75
X59.103 Y18.67
X59.218 Y18.599
X59.338 Y18.538
X59.463 Y18.488
X59.592 Y18.448
X59.724 Y18.419
X59.858 Y18.401
X59.993 Y18.396
X60.128 Y18.4
X60.262 Y18.417
X60.394 Y18.445
X60.523 Y18.483
X60.649 Y18.532
X60.77 Y18.592
X60.886 Y18.662
X60.995 Y18.741
X61.098 Y18.829
X61.283 Y19.025
X61.448 Y19.238
X61.586 Y19.471
X61.69 Y19.719
X61.728 Y19.849
X61.756 Y19.981
X61.774 Y20.115
X61.781 Y20.25
X61.776 Y20.385
X61.762 Y20.519
X61.736 Y20.651
X61.7 Y20.781
X61.653 Y20.908
X61.597 Y21.031
X61.531 Y21.149
X61.456 Y21.261
X61.373 Y21.368
X61.282 Y21.467
X61.079 Y21.645
X60.852 Y21.791
X60.606 Y21.902
X60.347 Y21.978
X60.08 Y22.016
X59.81
X59.543 Y21.98
X59.283 Y21.907
X59.036 Y21.799
X58.805 Y21.66
X58.595 Y21.49
X58.409 Y21.294
X58.251 Y21.075
X58.124 Y20.838
X58.029 Y20.585
X57.968 Y20.322
X57.943 Y20.054
X57.952 Y19.784
X57.998 Y19.518
X58.077 Y19.26
X58.19 Y19.015
X58.334 Y18.787
X58.507 Y18.579
X58.705 Y18.396
X58.925 Y18.24
X59.164 Y18.115
X59.418 Y18.022
X59.681 Y17.963
X59.95 Y17.938
X60.219 Y17.949
X60.485 Y17.996
X60.743 Y18.076
X60.989 Y18.187
X61.22 Y18.325
X61.435 Y18.489
X61.631 Y18.675
X61.804 Y18.881
X61.953 Y19.106
X62.075 Y19.347
X62.168 Y19.601
X62.229 Y19.864
X62.259 Y20.132
X62.256 Y20.402
X62.22 Y20.669
X62.152 Y20.93
X62.053 Y21.181
X61.924 Y21.419
X61.768 Y21.639
X61.587 Y21.839
X61.384 Y22.017
X61.162 Y22.17
X60.924 Y22.297
X60.672 Y22.395
X60.411 Y22.464
X60.144 Y22.504
X59.875 Y22.513
X59.606 Y22.493
X59.34 Y22.443
X59.082 Y22.364
X58.834 Y22.258
X58.599 Y22.126
X58.38 Y21.968
X58.178 Y21.789
X57.997 Y21.588
X57.839 Y21.37
X57.705 Y21.136
X57.596 Y20.888
X57.514 Y20.631
X57.46 Y20.367
X57.435 Y20.098
X57.437 Y19.828
X57.469 Y19.56
X57.528 Y19.297
X57.615 Y19.041
X57.728 Y18.796
X57.866 Y18.564
X58.028 Y18.348
X58.212 Y18.151
X58.415 Y17.973
X58.636 Y17.818
X58.872 Y17.687
X59.12 Y17.581
X59.378 Y17.502
X59.643 Y17.451
X59.912 Y17.427
X60.182 Y17.432
X60.45 Y17.463
X60.714 Y17.522
X60.97 Y17.605
X61.218 Y17.713
X61.454 Y17.844
X61.676 Y17.997
X61.883 Y18.17
X62.073 Y18.362
X62.244 Y18.571
X62.394 Y18.796
X62.521 Y19.034
X62.626 Y19.282
X62.706 Y19.54
X62.76 Y19.805
X62.789 Y20.073
X62.791 Y20.343
X62.768 Y20.612
X62.718 Y20.877
X62.643 Y21.136
X62.543 Y21.387
X62.419 Y21.627
X62.273 Y21.854
X62.106 Y22.066
X61.919 Y22.261
X61.715 Y22.438
X61.496 Y22.594
X61.262 Y22.73
X61.017 Y22.843
X60.762 Y22.933
X60.501 Y22.999
X60.234 Y23.04
X59.965 Y23.057
X59.695 Y23.05
X59.427 Y23.018
X59.163 Y22.963
X58.904 Y22.884
X58.655 Y22.782
X58.415 Y22.658
X58.187 Y22.513
X57.973 Y22.349
X57.774 Y22.166
X57.592 Y21.967
X57.428 Y21.752
X57.284 Y21.524
X57.16 Y21.284
X57.057 Y21.034
X56.977 Y20.776
X56.919 Y20.512
X56.885 Y20.244
X56.874 Y19.973
X56.887 Y19.704
X56.924 Y19.434
X56.983 Y19.17
X57.065 Y18.912
X57.171 Y18.66
X57.296 Y18.421
X57.442 Y18.193
X57.609 Y17.976
X57.793 Y17.777
X57.993 Y17.594
X58.21 Y17.428
X58.439 Y17.282
X58.68 Y17.157
X58.934 Y17.052
X59.195 Y16.97
X59.464 Y16.911
X59.741 Y16.874
X60.023 Y16.862
X60.306 Y16.874
X60.588 Y16.911
X60.87 Y16.973
X61.149 Y17.06
X61.419 Y17.171
X61.679 Y17.306
X61.926 Y17.462
X62.16 Y17.641
X62.378 Y17.84
X62.578 Y18.056
X62.758 Y18.289
X62.916 Y18.535
X63.052 Y18.794
X63.166 Y19.066
X63.256 Y19.345
X63.32 Y19.63
X63.36 Y19.919
X63.374 Y20.211
X63.363 Y20.505
X63.327 Y20.796
X63.265 Y21.083
X63.179 Y21.363
X63.068 Y21.636
X62.933 Y21.9
X62.776 Y22.152
X62.596 Y22.389
X62.397 Y22.611
X62.179 Y22.814
X61.942 Y22.999
X61.688 Y23.164
X61.421 Y23.307
X61.14 Y23.426
X60.849 Y23.521
X60.551 Y23.591
X60.246 Y23.634
X59.938 Y23.651
X59.628 Y23.641
X59.32 Y23.604
X59.014 Y23.54
X58.715 Y23.45
X58.423 Y23.333
X58.141 Y23.191
X57.873 Y23.025
X57.619 Y22.835
X57.402 Y22.642
X57.3 Y22.533
X57.219 Y22.442
X57.139 Y22.351
X57.119 Y22.329
X56.919 Y22.066
X56.794 Y21.856
G3 X57.83 Y21.257 R0.6
G1 X58.049 Y21.577
G3 X57.119 Y22.329 R0.6
G1 X56.966 Y22.156
X56.882 Y22.022
X56.701 Y21.679
X56.691 Y21.658
X56.664 Y21.606
X56.512 Y21.26
X56.442 Y21.027
G3 X57.589 Y20.688 R0.6
G1 X57.745 Y21.094
G3 X56.664 Y21.606 R0.6
G1 X56.511 Y21.297
X56.388 Y20.81
X56.377 Y20.763
X56.367 Y20.724
X56.325 Y20.493
X56.302 Y20.264
X56.299 Y20.149
X56.311 Y20.095 Z-11.993
X56.322 Y20.044 Z-11.974
X56.332 Y20. Z-11.943
X56.34 Y19.963 Z-11.902
X56.346 Y19.937 Z-11.853
X56.351 Y19.925 Z-11.81
X56.353 Y19.921 Z-11.764
G0 Z5.
X58.591 Y22.647
Z-3.8
G1 Z-4.4 F440.
X58.585 Y22.643 Z-4.494
X58.565 Y22.633 Z-4.585
X58.533 Y22.617 Z-4.672
X58.489 Y22.594 Z-4.753
X58.435 Y22.567 Z-4.824
X58.371 Y22.534 Z-4.885
X58.3 Y22.497 Z-4.935
X58.222 Y22.458 Z-4.971
X58.141 Y22.416 Z-4.993
X58.057 Y22.373 Z-5.
G3 X56.301 Y19.579 R3.229
G1 X56.339 Y19.388
X56.364 Y19.339 Z-4.993
X56.387 Y19.293 Z-4.974
X56.407 Y19.251 Z-4.943
X56.423 Y19.218 Z-4.902
X56.435 Y19.194 Z-4.853
X56.443 Y19.183 Z-4.81
X56.446 Y19.18 Z-4.764
G0 Z5.
X56.474 Y20.933
Z-11.4
G1 Z-12. F440.
G3 X56.367 Y20.724 R0.6
G1 X56.308 Y20.481
X56.299 Y20.343
Y19.961
Y19.856
Y19.83
X56.313 Y19.602
X56.346 Y19.374
X56.371 Y19.261
G3 X57.543 Y19.501 R0.6
G1 X57.494 Y19.885
G3 X56.299 Y19.83 R0.6
G1 X56.301 Y19.579
X56.339 Y19.388
X56.433 Y19.007
X56.448 Y18.949
X56.457 Y18.909
X56.549 Y18.635
X56.646 Y18.427
G3 X57.725 Y18.946 R0.6
G1 X57.602 Y19.254
G3 X56.457 Y18.909 R0.6
G1 X56.5 Y18.74
X56.543 Y18.625
X56.742 Y18.243
X56.798 Y18.138
X56.811 Y18.112
X56.98 Y17.845
X57.124 Y17.665
G3 X58.05 Y18.424 R0.6
G1 X57.842 Y18.718
G3 X56.811 Y18.112 R0.6
G1 X56.954 Y17.862
X57.264 Y17.508
X57.288 Y17.48
X57.339 Y17.423
X57.504 Y17.257
X57.679 Y17.108
X57.773 Y17.041
G3 X58.492 Y17.997 R0.6
G1 X58.198 Y18.256
G3 X57.228 Y17.629 R0.6
X57.339 Y17.423 R0.6
G1 X57.552 Y17.195
X57.966 Y16.907
X58.028 Y16.864
X58.06 Y16.843
X58.327 Y16.688
X58.536 Y16.597
G3 X59.002 Y17.7 R0.6
G1 X58.69 Y17.859
G3 X58.06 Y16.843 R0.6
G1 X58.246 Y16.716
X58.601 Y16.573
X58.725 Y16.526
X58.792 Y16.5
X58.85 Y16.478
X59.056 Y16.412
X59.281 Y16.362
X59.395 Y16.346
G3 X59.587 Y17.526 R0.6
G1 X59.223 Y17.615
G3 X58.85 Y16.478 R0.6
G1 X59.079 Y16.393
X59.174 Y16.373
X59.748 Y16.303
X59.779 Y16.299
X59.806 Y16.296
X60.044 Y16.285
X60.206 Y16.297
G3 X60.11 Y17.49 R0.6
G1 X59.894 Y17.489
G3 X59.806 Y16.296 R0.6
G1 X59.939 Y16.28
X60.034 Y16.278
X60.703 Y16.357
X60.894 Y16.387
X61.687 Y16.685
X61.753 Y16.716
X62.422 Y17.176
X62.542 Y17.289
X63.047 Y17.862
X63.258 Y18.243
X63.457 Y18.625
X63.495 Y18.72
X63.661 Y19.388
X63.699 Y19.579
X63.697 Y20.438
X63.569 Y20.985
X63.489 Y21.297
X63.299 Y21.679
X63.098 Y22.06
X62.996 Y22.2
X62.475 Y22.781
X61.849 Y23.22
X61.754 Y23.284
X61.658 Y23.329
X60.894 Y23.613
X60.034 Y23.722
X59.939 Y23.72
X59.174 Y23.627
X59.022 Y23.587
X58.315 Y23.318
X58.219 Y23.267
X57.577 Y22.824
X57.455 Y22.708
X57.3 Y22.533
X57.273 Y22.485 Z-11.993
X57.248 Y22.44 Z-11.974
X57.226 Y22.4 Z-11.943
X57.207 Y22.367 Z-11.902
X57.194 Y22.344 Z-11.853
X57.19 Y22.331 Z-11.81
X57.189 Y22.327 Z-11.764
G0 Z5.
X60.245 Y19.134
Z-18.9
G1 Z-19.5 F440.
G3 X59.754 Y20.866 Z-19.698 R0.9
X60.245 Y19.134 Z-19.895 R0.9
X59.754 Y20.866 Z-20.093 R0.9
X60.245 Y19.134 Z-20.291 R0.9
X59.754 Y20.866 Z-20.489 R0.9
X60.245 Y19.134 Z-20.686 R0.9
X59.754 Y20.866 Z-20.884 R0.9
X60.245 Y19.134 Z-21.082 R0.9
X59.754 Y20.866 Z-21.279 R0.9
X60.245 Y19.134 Z-21.477 R0.9
X59.754 Y20.866 Z-21.675 R0.9
X60.245 Y19.134 Z-21.873 R0.9
X59.754 Y20.866 Z-22.07 R0.9
X60.245 Y19.134 Z-22.268 R0.9
X59.754 Y20.866 Z-22.466 R0.9
X60.245 Y19.134 Z-22.663 R0.9
X59.754 Y20.866 Z-22.861 R0.9
X60.245 Y19.134 Z-23.059 R0.9
X59.754 Y20.866 Z-23.257 R0.9
X60.245 Y19.134 Z-23.454 R0.9
X59.754 Y20.866 Z-23.652 R0.9
X60.245 Y19.134 Z-23.85 R0.9
X59.754 Y20.866 Z-24.047 R0.9
X60.245 Y19.134 Z-24.245 R0.9
X59.754 Y20.866 Z-24.443 R0.9
X60.245 Y19.134 Z-24.641 R0.9
X59.754 Y20.866 Z-24.838 R0.9
X60.245 Y19.134 Z-25.036 R0.9
X59.754 Y20.866 Z-25.234 R0.9
X60.245 Y19.134 Z-25.431 R0.9
X59.754 Y20.866 Z-25.629 R0.9
X60.245 Y19.134 Z-25.827 R0.9
X59.754 Y20.866 Z-26.025 R0.9
X60.245 Y19.134 Z-26.222 R0.9
X59.754 Y20.866 Z-26.42 R0.9
X60.245 Y19.134 Z-26.618 R0.9
X59.754 Y20.866 Z-26.815 R0.9
X60.245 Y19.134 Z-27.013 R0.9
X59.754 Y20.866 Z-27.211 R0.9
X60.245 Y19.134 Z-27.409 R0.9
X60.899 Y20. Z-27.49 R0.9
X59.099 R0.9
X60.899 R0.9
G1 X60.917 Y20.486
X60.883 Y20.617
X60.825 Y20.739
X60.748 Y20.849
X60.654 Y20.946
X60.548 Y21.029
X60.431 Y21.097
X60.306 Y21.149
X60.176 Y21.185
X59.946 Y21.202
X59.939 Y21.203
X59.91 Y21.201
X59.873 Y21.2
X59.829 Y21.196
G3 X59.669 Y20.975 R0.207
X60.08 Y21.013 R0.206
X59.873 Y21.2 R0.206
G1 X59.748 Y21.18
X59.642 Y21.148
X59.616 Y21.14
X59.583 Y21.13
X59.44 Y21.071
G3 X59.272 Y20.5 R0.475
X60.137 Y20.856 R0.468
X59.583 Y21.13 R0.468
G1 X59.44 Y21.071
X59.281 Y20.964
X59.26 Y20.949
X59.234 Y20.93
X59.174 Y20.883
G3 X59.175 Y20.564 R0.256
X59.566 Y20.877 R0.25
X59.234 Y20.93 R0.25
G1 X59.174 Y20.883
X59.067 Y20.756
X59.04 Y20.724
X59.023 Y20.702
X58.943 Y20.586
G3 X59.136 Y19.909 R0.55
X59.748 Y20.806 R0.543
X59.023 Y20.702 R0.543
G1 X58.946 Y20.592
X58.918 Y20.533
X58.877 Y20.428
X58.866 Y20.403
X58.817 Y20.247
G3 X59.196 Y19.68 R0.545
X59.519 Y20.7 R0.535
X58.866 Y20.403 R0.535
G1 X58.817 Y20.247
X58.805 Y20.152
X58.798 Y20.047
X58.797 Y20.021
X58.8 Y19.865
G3 X59.294 Y19.483 R0.496
X59.272 Y20.46 R0.489
X58.797 Y20.021 R0.489
G1 X58.793 Y19.961
X58.8 Y19.865
X58.819 Y19.77
X58.846 Y19.665
X58.852 Y19.639
X58.91 Y19.484
G3 X59.51 Y19.278 R0.502
X59.165 Y20.209 R0.497
X58.852 Y19.639 R0.497
G1 X58.867 Y19.579
X58.91 Y19.484
X58.965 Y19.388
X58.983 Y19.356
X58.998 Y19.332
X59.098 Y19.198
G3 X59.782 Y19.169 R0.543
X59.143 Y20.027 R0.535
X58.998 Y19.332 R0.535
G1 X59.033 Y19.277
X59.098 Y19.198
X59.174 Y19.126
X59.216 Y19.09
X59.245 Y19.065
X59.377 Y18.967
X59.39 Y18.96
G3 X60.092 Y19.15 R0.575
X59.17 Y19.813 R0.568
X59.245 Y19.065 R0.568
G1 X59.312 Y19.007
X59.471 Y18.921
X59.497 Y18.908
X59.53 Y18.892
X59.635 Y18.849
G3 X59.817 Y19.336 R0.26
G1 X59.749 Y19.363
G3 X59.53 Y18.892 R0.26
G1 X59.652 Y18.842
X59.871 Y18.804
X59.908 Y18.799
X59.964 Y18.794
G3 X60.271 Y19.076 R0.31
X59.653 Y19.132 R0.31
X59.908 Y18.799 R0.31
G1 X59.991 Y18.793
X60.13 Y18.803
X60.212 Y18.816
X60.245 Y18.822
X60.359 Y18.853
X60.469 Y18.895
X60.575 Y18.946
G3 X60.037 Y20.016 R0.6
G1 X59.923 Y19.967
G3 X60.245 Y18.822 R0.6
G1 X60.321 Y18.835
X60.416 Y18.867
X60.603 Y18.96
X60.629 Y18.974
X60.662 Y18.992
X60.703 Y19.017
G3 X60.757 Y19.316 R0.23
X60.364 Y19.08 R0.229
X60.662 Y18.992 R0.229
G1 X60.703 Y19.017
X60.808 Y19.112
X60.834 Y19.136
X60.929 Y19.231
X61.084 Y19.477
X61.177 Y19.753
X61.16 Y20.33
G3 X60.661 Y20.321 R0.26
G1 X60.415 Y19.401
G3 X60.834 Y19.136 R0.26
G1 X60.945 Y19.245
X61.085 Y19.474
X61.133 Y19.579
X61.201 Y19.865
X61.208 Y19.961
X61.183 Y20.247
X61.157 Y20.343
X61.06 Y20.581
X60.96 Y20.724
X60.847 Y20.861
X60.789 Y20.915
X60.512 Y21.095
X60.225 Y21.187
X60.13 Y21.201
X59.946 Y21.202
X59.892 Y21.191 Z-27.483
X59.841 Y21.181 Z-27.464
X59.796 Y21.171 Z-27.433
X59.759 Y21.163 Z-27.392
X59.733 Y21.158 Z-27.343
X59.721 Y21.153 Z-27.3
X59.717 Y21.151 Z-27.254
G0 Z5.
X99.208 Y20.428
Z1.11
G1 Z0.51 F440.
G3 X100.792 Y19.572 Z0.312 R0.9
X99.208 Y20.428 Z0.115 R0.9
X100.792 Y19.572 Z-0.083 R0.9
X99.208 Y20.428 Z-0.281 R0.9
X100.792 Y19.572 Z-0.479 R0.9
X99.208 Y20.428 Z-0.676 R0.9
X100.792 Y19.572 Z-0.874 R0.9
X99.208 Y20.428 Z-1.072 R0.9
X100.792 Y19.572 Z-1.269 R0.9
X99.208 Y20.428 Z-1.467 R0.9
X100.792 Y19.572 Z-1.665 R0.9
X99.208 Y20.428 Z-1.863 R0.9
X100.792 Y19.572 Z-2.06 R0.9
X99.208 Y20.428 Z-2.258 R0.9
X100.792 Y19.572 Z-2.456 R0.9
X99.208 Y20.428 Z-2.653 R0.9
X100.792 Y19.572 Z-2.851 R0.9
X99.208 Y20.428 Z-3.049 R0.9
X100.792 Y19.572 Z-3.247 R0.9
X99.208 Y20.428 Z-3.444 R0.9
X100.792 Y19.572 Z-3.642 R0.9
X99.208 Y20.428 Z-3.84 R0.9
X100.792 Y19.572 Z-4.037 R0.9
X99.208 Y20.428 Z-4.235 R0.9
X100.792 Y19.572 Z-4.433 R0.9
X99.208 Y20.428 Z-4.631 R0.9
X100.792 Y19.572 Z-4.828 R0.9
X99.208 Y20.428 Z-5.026 R0.9
X100.792 Y19.572 Z-5.224 R0.9
X99.208 Y20.428 Z-5.421 R0.9
X100.792 Y19.572 Z-5.619 R0.9
X99.208 Y20.428 Z-5.817 R0.9
X100.792 Y19.572 Z-6.015 R0.9
X99.208 Y20.428 Z-6.212 R0.9
X100.792 Y19.572 Z-6.41 R0.9
X99.208 Y20.428 Z-6.608 R0.9
X100.792 Y19.572 Z-6.805 R0.9
X99.208 Y20.428 Z-7.003 R0.9
X100.792 Y19.572 Z-7.201 R0.9
X99.208 Y20.428 Z-7.399 R0.9
X100.792 Y19.572 Z-7.596 R0.9
X99.208 Y20.428 Z-7.794 R0.9
X100.792 Y19.572 Z-7.992 R0.9
X99.208 Y20.428 Z-8.189 R0.9
X100.792 Y19.572 Z-8.387 R0.9
X99.208 Y20.428 Z-8.585 R0.9
X100.792 Y19.572 Z-8.783 R0.9
X99.208 Y20.428 Z-8.98 R0.9
X100.792 Y19.572 Z-9.178 R0.9
X99.208 Y20.428 Z-9.376 R0.9
X100.792 Y19.572 Z-9.573 R0.9
X99.208 Y20.428 Z-9.771 R0.9
X100.792 Y19.572 Z-9.969 R0.9
X100.9 Y20. Z-10. R0.9
X99.1 R0.9
X100.9 R0.9
G1 X100.917 Y20.486
X100.884 Y20.617
X100.826 Y20.739
X100.748 Y20.85
X100.655 Y20.947
X100.548 Y21.03
X100.431 Y21.097
X100.307 Y21.149
X100.177 Y21.185
X100.043 Y21.205
X99.908 Y21.208
X99.774 Y21.195
X99.642 Y21.167
X99.514 Y21.123
X99.392 Y21.066
X99.277 Y20.994
X99.171 Y20.911
X99.075 Y20.816
X98.99 Y20.711
X98.918 Y20.597
X98.858 Y20.476
X98.812 Y20.349
X98.78 Y20.218
X98.763 Y20.084
X98.761 Y19.949
X98.773 Y19.814
X98.8 Y19.682
X98.842 Y19.554
X98.897 Y19.43
X98.965 Y19.314
X99.045 Y19.205
X99.137 Y19.106
X99.239 Y19.018
X99.35 Y18.941
X99.469 Y18.877
X99.594 Y18.826
X99.724 Y18.788
X99.857 Y18.766
X99.991 Y18.757
X100.126 Y18.764
X100.26 Y18.784
X100.39 Y18.82
X100.516 Y18.869
X100.635 Y18.932
X100.747 Y19.007
X100.851 Y19.094
X100.944 Y19.191
X101.026 Y19.298
X101.162 Y19.532
X101.217 Y19.655
X101.263 Y19.782
X101.298 Y19.912
X101.321 Y20.045
X101.332 Y20.179
X101.329 Y20.314
X101.314 Y20.449
X101.284 Y20.58
X101.241 Y20.708
X101.186 Y20.831
X101.118 Y20.948
X101.039 Y21.058
X100.949 Y21.158
X100.85 Y21.25
X100.742 Y21.332
X100.628 Y21.403
X100.506 Y21.462
X100.38 Y21.51
X100.25 Y21.546
X100.117 Y21.57
X99.983 Y21.581
X99.848 Y21.58
X99.713 Y21.568
X99.58 Y21.543
X99.45 Y21.507
X99.324 Y21.46
X99.202 Y21.401
X99.086 Y21.333
X98.976 Y21.255
X98.873 Y21.167
X98.778 Y21.071
X98.692 Y20.967
X98.614 Y20.857
X98.546 Y20.74
X98.489 Y20.618
X98.441 Y20.492
X98.405 Y20.362
X98.379 Y20.229
X98.365 Y20.095
X98.361 Y19.96
X98.369 Y19.825
X98.388 Y19.692
X98.418 Y19.56
X98.459 Y19.431
X98.511 Y19.307
X98.572 Y19.186
X98.643 Y19.072
X98.724 Y18.963
X98.813 Y18.862
X98.91 Y18.768
X99.015 Y18.683
X99.126 Y18.606
X99.243 Y18.539
X99.365 Y18.481
X99.492 Y18.434
X99.622 Y18.398
X99.754 Y18.372
X99.888 Y18.357
X100.023 Y18.353
X100.158 Y18.361
X100.292 Y18.379
X100.424 Y18.408
X100.552 Y18.448
X100.678 Y18.499
X100.798 Y18.559
X100.914 Y18.629
X101.128 Y18.793
X101.317 Y18.986
X101.476 Y19.204
X101.604 Y19.441
X101.697 Y19.695
X101.729 Y19.826
X101.751 Y19.959
X101.766 Y20.228
X101.759 Y20.363
X101.742 Y20.497
X101.677 Y20.759
X101.63 Y20.886
X101.573 Y21.008
X101.434 Y21.239
X101.352 Y21.346
X101.262 Y21.447
X101.061 Y21.627
X100.836 Y21.776
X100.592 Y21.891
X100.334 Y21.97
X100.068 Y22.012
X99.798 Y22.016
X99.53 Y21.983
X99.269 Y21.913
X99.021 Y21.808
X98.788 Y21.671
X98.576 Y21.504
X98.389 Y21.31
X98.229 Y21.093
X98.098 Y20.857
X98. Y20.605
X97.936 Y20.343
X97.906 Y20.075
X97.911 Y19.805
X97.952 Y19.538
X98.026 Y19.279
X98.133 Y19.031
X98.272 Y18.8
X98.439 Y18.588
X98.632 Y18.399
X98.847 Y18.237
X99.082 Y18.103
X99.332 Y18.001
X99.592 Y17.931
X99.86 Y17.896
X100.13 Y17.895
X100.397 Y17.928
X100.659 Y17.994
X100.911 Y18.092
X101.149 Y18.219
X101.37 Y18.374
X101.572 Y18.553
X101.751 Y18.755
X101.906 Y18.975
X102.035 Y19.213
X102.135 Y19.464
X102.205 Y19.724
X102.244 Y19.991
X102.251 Y20.261
X102.227 Y20.53
X102.172 Y20.794
X102.086 Y21.05
X101.97 Y21.294
X101.827 Y21.523
X101.658 Y21.733
X101.466 Y21.923
X101.254 Y22.089
X101.023 Y22.23
X100.779 Y22.344
X100.523 Y22.429
X100.259 Y22.485
X99.99 Y22.511
X99.72 Y22.507
X99.452 Y22.473
X99.19 Y22.411
X98.936 Y22.319
X98.693 Y22.201
X98.465 Y22.058
X98.253 Y21.89
X98.06 Y21.701
X97.889 Y21.492
X97.741 Y21.267
X97.618 Y21.027
X97.52 Y20.775
X97.45 Y20.515
X97.407 Y20.248
X97.393 Y19.978
X97.406 Y19.709
X97.448 Y19.442
X97.518 Y19.181
X97.614 Y18.929
X97.735 Y18.688
X97.881 Y18.461
X98.05 Y18.251
X98.24 Y18.058
X98.448 Y17.887
X98.673 Y17.738
X98.912 Y17.613
X99.163 Y17.513
X99.423 Y17.44
X99.689 Y17.393
X99.958 Y17.374
X100.228 Y17.382
X100.495 Y17.418
X100.758 Y17.479
X101.014 Y17.566
X101.259 Y17.678
X101.493 Y17.813
X101.713 Y17.97
X101.917 Y18.147
X102.102 Y18.343
X102.269 Y18.555
X102.414 Y18.783
X102.537 Y19.023
X102.636 Y19.274
X102.711 Y19.533
X102.761 Y19.799
X102.786 Y20.067
X102.785 Y20.337
X102.758 Y20.606
X102.706 Y20.871
X102.629 Y21.129
X102.527 Y21.38
X102.403 Y21.619
X102.256 Y21.846
X102.089 Y22.058
X101.903 Y22.253
X101.699 Y22.43
X101.479 Y22.587
X101.246 Y22.723
X101.002 Y22.837
X100.748 Y22.928
X100.486 Y22.996
X100.22 Y23.039
X99.95 Y23.058
X99.681 Y23.052
X99.412 Y23.022
X99.148 Y22.968
X98.889 Y22.89
X98.639 Y22.79
X98.398 Y22.667
X98.169 Y22.524
X97.954 Y22.362
X97.754 Y22.181
X97.57 Y21.983
X97.404 Y21.769
X97.258 Y21.542
X97.132 Y21.303
X97.027 Y21.054
X96.944 Y20.794
X96.884 Y20.531
X96.847 Y20.261
X96.833 Y19.988
X96.843 Y19.717
X96.877 Y19.445
X96.934 Y19.177
X97.014 Y18.916
X97.117 Y18.662
X97.243 Y18.416
X97.388 Y18.184
X97.553 Y17.965
X97.739 Y17.759
X97.939 Y17.572
X98.156 Y17.402
X98.389 Y17.25
X98.633 Y17.12
X98.887 Y17.012
X99.153 Y16.925
X99.427 Y16.861
X99.704 Y16.821
X99.986 Y16.806
X100.271 Y16.815
X100.555 Y16.849
X100.836 Y16.907
X101.111 Y16.99
X101.38 Y17.098
X101.641 Y17.229
X101.89 Y17.383
X102.124 Y17.558
X102.343 Y17.752
X102.544 Y17.967
X102.728 Y18.199
X102.891 Y18.446
X103.031 Y18.705
X103.148 Y18.976
X103.242 Y19.257
X103.31 Y19.545
X103.354 Y19.84
X103.372 Y20.137
X103.364 Y20.433
X103.331 Y20.728
X103.271 Y21.019
X103.187 Y21.306
X103.077 Y21.585
X102.943 Y21.854
X102.787 Y22.109
X102.609 Y22.351
X102.41 Y22.577
X102.191 Y22.785
X101.954 Y22.975
X101.7 Y23.144
X101.432 Y23.29
X101.152 Y23.413
X100.861 Y23.512
X100.563 Y23.585
X100.258 Y23.632
X99.948 Y23.652
X99.638 Y23.646
X99.328 Y23.612
X99.021 Y23.551
X98.719 Y23.464
X98.425 Y23.35
X98.167 Y23.222
X98.001 Y23.117
X97.853 Y23.014
X97.769 Y22.957
X97.737 Y22.935
X97.5 Y22.743
X97.347 Y22.586
G3 X98.21 Y21.757 R0.6
G1 X98.462 Y21.983
G3 X97.737 Y22.935 R0.6
G1 X97.525 Y22.781
X97.116 Y22.325
X96.934 Y22.109
X96.701 Y21.679
X96.511 Y21.297
X96.315 Y20.505
X96.303 Y20.438
X96.301 Y19.579
X96.386 Y19.198
X96.517 Y18.692
X96.543 Y18.625
X96.904 Y17.947
X96.953 Y17.862
X97.518 Y17.226
X97.689 Y17.098
X98.247 Y16.716
X98.342 Y16.671
X99.106 Y16.387
X99.966 Y16.278
X100.061 Y16.28
X100.826 Y16.373
X100.921 Y16.393
X101.59 Y16.645
X101.781 Y16.733
X102.448 Y17.195
X102.545 Y17.292
X103.046 Y17.862
X103.157 Y18.052
X103.457 Y18.625
X103.5 Y18.74
X103.692 Y19.519
X103.699 Y19.579
X103.701 Y20.343
X103.692 Y20.481
X103.489 Y21.297
X103.299 Y21.679
X103.098 Y22.06
X103.034 Y22.156
X102.484 Y22.772
X102.354 Y22.872
X101.781 Y23.267
X101.685 Y23.318
X100.902 Y23.612
X100.443 Y23.674
X100.061 Y23.72
X99.966 Y23.722
X99.106 Y23.613
X98.342 Y23.329
X98.246 Y23.284
X98.001 Y23.117
X97.964 Y23.077 Z-9.993
X97.928 Y23.039 Z-9.974
X97.897 Y23.005 Z-9.943
X97.871 Y22.978 Z-9.902
X97.853 Y22.958 Z-9.853
X97.846 Y22.947 Z-9.81
X97.844 Y22.943 Z-9.764
G0 Z5.
X99.15 Y20.297
Z-8.9
G1 Z-9.5 F440.
G3 X100.849 Y19.702 Z-9.698 R0.9
X99.15 Y20.297 Z-9.895 R0.9
X100.849 Y19.702 Z-10.093 R0.9
X99.15 Y20.297 Z-10.291 R0.9
X100.849 Y19.702 Z-10.489 R0.9
X99.15 Y20.297 Z-10.686 R0.9
X100.849 Y19.702 Z-10.884 R0.9
X99.15 Y20.297 Z-11.082 R0.9
X100.849 Y19.702 Z-11.279 R0.9
X99.15 Y20.297 Z-11.477 R0.9
X100.849 Y19.702 Z-11.675 R0.9
X99.15 Y20.297 Z-11.873 R0.9
X100.849 Y19.702 Z-12.07 R0.9
X99.15 Y20.297 Z-12.268 R0.9
X100.849 Y19.702 Z-12.466 R0.9
X99.15 Y20.297 Z-12.663 R0.9
X100.849 Y19.702 Z-12.861 R0.9
X99.15 Y20.297 Z-13.059 R0.9
X100.849 Y19.702 Z-13.257 R0.9
X99.15 Y20.297 Z-13.454 R0.9
X100.849 Y19.702 Z-13.652 R0.9
X99.15 Y20.297 Z-13.85 R0.9
X100.849 Y19.702 Z-14.047 R0.9
X99.15 Y20.297 Z-14.245 R0.9
X100.849 Y19.702 Z-14.443 R0.9
X99.15 Y20.297 Z-14.641 R0.9
X100.849 Y19.702 Z-14.838 R0.9
X99.15 Y20.297 Z-15.036 R0.9
X100.849 Y19.702 Z-15.234 R0.9
X99.15 Y20.297 Z-15.431 R0.9
X100.849 Y19.702 Z-15.629 R0.9
X99.15 Y20.297 Z-15.827 R0.9
X100.849 Y19.702 Z-16.025 R0.9
X99.15 Y20.297 Z-16.222 R0.9
X100.849 Y19.702 Z-16.42 R0.9
X99.15 Y20.297 Z-16.618 R0.9
X100.849 Y19.702 Z-16.815 R0.9
X99.15 Y20.297 Z-17.013 R0.9
X100.849 Y19.702 Z-17.211 R0.9
X99.15 Y20.297 Z-17.409 R0.9
X100.849 Y19.702 Z-17.606 R0.9
X99.15 Y20.297 Z-17.804 R0.9
X100.849 Y19.702 Z-18.002 R0.9
X99.15 Y20.297 Z-18.199 R0.9
X100.849 Y19.702 Z-18.397 R0.9
X99.15 Y20.297 Z-18.595 R0.9
X100.849 Y19.702 Z-18.793 R0.9
X99.15 Y20.297 Z-18.99 R0.9
X100.849 Y19.702 Z-19.188 R0.9
X99.15 Y20.297 Z-19.386 R0.9
X100.849 Y19.702 Z-19.583 R0.9
X99.15 Y20.297 Z-19.781 R0.9
X100.849 Y19.702 Z-19.979 R0.9
X100.9 Y19.999 Z-20. R0.9
X99.1 R0.9
X100.9 R0.9
G1 X100.917 Y20.486
X100.884 Y20.616
X100.826 Y20.738
X100.748 Y20.849
X100.655 Y20.946
X100.548 Y21.029
X100.431 Y21.097
X100.307 Y21.148
X100.176 Y21.184
X99.925 Y21.201
X99.895
X99.87
X99.746 Y21.179
X99.629 Y21.143
X99.448 Y21.07
G3 X99.201 Y20.267 R0.666
X100.416 Y20.759 R0.655
X99.629 Y21.143 R0.655
G1 X99.488 Y21.095
X99.336 Y21.
X99.315 Y20.987
X99.297 Y20.976
X99.191 Y20.893
X99.038 Y20.723
G3 X98.945 Y20.508 R0.6
X99.987 Y19.99 R0.6
G1 X100.051 Y20.065
G3 X99.297 Y20.976 R0.6
G1 X99.211 Y20.915
X99.106 Y20.808
X99.018 Y20.695
X99.003 Y20.675
X98.984 Y20.65
X98.94 Y20.581
G3 X99.059 Y20.196 R0.311
X99.39 Y20.717 R0.309
X98.984 Y20.65 R0.309
G1 X98.915 Y20.527
X98.875 Y20.426
X98.866 Y20.4
X98.853 Y20.369
X98.837 Y20.32
G3 X99.025 Y19.983 R0.287
X99.208 Y20.527 R0.287
X98.853 Y20.369 R0.287
G1 X98.829 Y20.29
X98.805 Y20.152
X98.798 Y20.047
X98.796 Y19.912
G3 X99.444 Y19.318 R0.663
X99.468 Y20.639 R0.661
X98.863 Y20.272 R0.661
X98.798 Y20.047 R0.661
G1 X98.796 Y19.908
X98.819 Y19.77
X98.833 Y19.712
X98.843 Y19.672
X98.899 Y19.521
X99.055 Y19.245
G3 X100.04 Y19.895 R0.6
G1 X99.983 Y20.031
G3 X98.843 Y19.672 R0.6
G1 X98.867 Y19.579
X98.965 Y19.388
X99.055 Y19.245
X99.211 Y19.095
X99.316 Y19.009
X99.571 Y18.878
X99.851 Y18.81
X100.138 Y18.811
X100.417 Y18.88
X100.672 Y19.013
X100.887 Y19.203
X101.052 Y19.439
X101.156 Y19.706
X101.194 Y19.991
X101.164 Y20.277
X101.066 Y20.547
X100.907 Y20.787
G3 X100.857 Y20.838 R0.815
X100.729 Y20.94 R1.199
X99.211 Y19.095 R1.199
G1 X99.311 Y19.007
X99.584 Y18.867
X99.679 Y18.835
X99.966 Y18.792
X100.061 Y18.795
X100.348 Y18.842
X100.443 Y18.879
X100.635 Y18.973
X100.688 Y19.007
X100.902 Y19.198
X100.967 Y19.277
X101.09 Y19.484
X101.133 Y19.579
X101.2 Y19.865
X101.207 Y19.961
X101.183 Y20.247
X101.157 Y20.343
X101.054 Y20.592
X100.96 Y20.724
X100.826 Y20.883
X100.56 Y21.071
X100.443 Y21.122
X100.252 Y21.18
X100.157 Y21.199
X99.925 Y21.201
X99.871 Y21.189 Z-19.993
X99.821 Y21.177 Z-19.974
X99.776 Y21.167 Z-19.943
X99.74 Y21.158 Z-19.902
X99.713 Y21.152 Z-19.853
X99.702 Y21.147 Z-19.81
X99.697 Y21.145 Z-19.764
G0 Z5.
X99.984 Y21.125
Z-10.8
G1 Z-11.4 F440.
X99.985 Y21.118 Z-11.494
X99.987 Y21.096 Z-11.585
X99.991 Y21.06 Z-11.672
X99.997 Y21.011 Z-11.753
X100.003 Y20.95 Z-11.824
X100.011 Y20.879 Z-11.885
X100.02 Y20.799 Z-11.935
X100.03 Y20.713 Z-11.971
X100.04 Y20.622 Z-11.993
X100.051 Y20.529 Z-12.
G3 X100.41 Y18.918 R7.659
G1 X100.433 Y18.859
X100.562 Y18.82
X100.697 Y18.831
X100.827 Y18.867
X100.949 Y18.925
X101.063 Y18.997
X101.166 Y19.085
X101.258 Y19.183
X101.339 Y19.291
X101.408 Y19.408
X101.465 Y19.53
X101.509 Y19.657
X101.541 Y19.789
X101.56 Y19.922
X101.567 Y20.057
X101.562 Y20.192
X101.543 Y20.326
X101.513 Y20.457
X101.472 Y20.586
X101.419 Y20.71
X101.356 Y20.829
X101.282 Y20.943
X101.199 Y21.049
X101.107 Y21.147
X101.007 Y21.238
X100.9 Y21.32
X100.785 Y21.392
X100.665 Y21.454
X100.541 Y21.506
X100.412 Y21.547
X100.28 Y21.576
X100.147 Y21.595
X100.012 Y21.602
X99.877 Y21.597
X99.743 Y21.582
X99.611 Y21.555
X99.481 Y21.517
X99.355 Y21.468
X99.234 Y21.409
X99.118 Y21.34
X99.008 Y21.261
X98.906 Y21.173
X98.811 Y21.077
X98.724 Y20.973
X98.647 Y20.862
X98.579 Y20.746
X98.521 Y20.624
X98.474 Y20.497
X98.438 Y20.367
X98.412 Y20.235
X98.398 Y20.101
X98.396 Y19.966
X98.404 Y19.831
X98.424 Y19.697
X98.455 Y19.566
X98.497 Y19.438
X98.549 Y19.313
X98.612 Y19.194
X98.685 Y19.08
X98.767 Y18.973
X98.858 Y18.873
X98.956 Y18.781
X99.063 Y18.698
X99.175 Y18.623
X99.294 Y18.558
X99.543 Y18.454
X99.801 Y18.376
X100.067 Y18.33
X100.337 Y18.32
X100.471 Y18.33
X100.605 Y18.351
X100.736 Y18.382
X100.865 Y18.424
X100.989 Y18.475
X101.109 Y18.537
X101.224 Y18.608
X101.333 Y18.688
X101.435 Y18.776
X101.53 Y18.873
X101.617 Y18.976
X101.695 Y19.086
X101.766 Y19.201
X101.827 Y19.321
X101.878 Y19.446
X101.954 Y19.705
X101.977 Y19.838
X101.994 Y20.107
X101.972 Y20.376
X101.913 Y20.64
X101.818 Y20.892
X101.689 Y21.129
X101.529 Y21.346
X101.341 Y21.54
X101.128 Y21.706
X100.895 Y21.842
X100.646 Y21.946
X100.386 Y22.016
X100.118 Y22.051
X99.848 Y22.05
X99.581 Y22.014
X99.32 Y21.943
X99.072 Y21.838
X98.839 Y21.701
X98.626 Y21.536
X98.437 Y21.343
X98.275 Y21.128
X98.142 Y20.893
X98.041 Y20.642
X97.973 Y20.381
X97.941 Y20.113
X97.944 Y19.843
X97.982 Y19.576
X98.054 Y19.316
X98.16 Y19.068
X98.298 Y18.836
X98.464 Y18.623
X98.655 Y18.433
X98.867 Y18.265
X99.096 Y18.122
X99.339 Y18.005
X99.594 Y17.917
X99.857 Y17.857
X100.125 Y17.829
X100.395 Y17.832
X100.663 Y17.867
X100.924 Y17.935
X101.175 Y18.033
X101.413 Y18.162
X101.633 Y18.318
X101.832 Y18.5
X102.009 Y18.704
X102.159 Y18.928
X102.283 Y19.168
X102.377 Y19.421
X102.441 Y19.683
X102.475 Y19.951
X102.478 Y20.22
X102.45 Y20.489
X102.392 Y20.753
X102.305 Y21.008
X102.191 Y21.253
X102.05 Y21.483
X101.885 Y21.696
X101.698 Y21.891
X101.491 Y22.064
X101.266 Y22.213
X101.026 Y22.338
X100.775 Y22.436
X100.514 Y22.506
X100.248 Y22.549
X99.978 Y22.563
X99.709 Y22.548
X99.442 Y22.505
X99.182 Y22.433
X98.931 Y22.335
X98.691 Y22.211
X98.466 Y22.062
X98.258 Y21.89
X98.069 Y21.698
X97.901 Y21.486
X97.756 Y21.258
X97.636 Y21.017
X97.543 Y20.763
X97.476 Y20.502
X97.437 Y20.235
X97.426 Y19.965
X97.444 Y19.696
X97.49 Y19.43
X97.563 Y19.17
X97.663 Y18.919
X97.788 Y18.68
X97.936 Y18.454
X98.105 Y18.244
X98.293 Y18.051
X98.5 Y17.877
X98.721 Y17.723
X98.957 Y17.591
X99.204 Y17.481
X99.46 Y17.396
X99.723 Y17.335
X99.99 Y17.3
X100.26 Y17.29
X100.529 Y17.307
X100.796 Y17.35
X101.057 Y17.418
X101.31 Y17.512
X101.553 Y17.629
X101.784 Y17.77
X101.999 Y17.932
X102.198 Y18.114
X102.379 Y18.315
X102.539 Y18.532
X102.678 Y18.763
X102.795 Y19.007
X102.888 Y19.26
X102.956 Y19.521
X103. Y19.788
X103.019 Y20.057
X103.012 Y20.327
X102.981 Y20.595
X102.926 Y20.859
X102.846 Y21.117
X102.744 Y21.367
X102.619 Y21.606
X102.473 Y21.833
X102.308 Y22.047
X102.124 Y22.244
X101.923 Y22.425
X101.707 Y22.586
X101.477 Y22.729
X101.236 Y22.85
X100.985 Y22.949
X100.727 Y23.026
X100.462 Y23.08
X100.194 Y23.111
X99.924 Y23.118
X99.654 Y23.102
X99.387 Y23.062
X99.123 Y22.999
X98.867 Y22.913
X98.619 Y22.806
X98.38 Y22.676
X98.154 Y22.526
X97.942 Y22.358
X97.744 Y22.171
X97.564 Y21.968
X97.403 Y21.751
X97.26 Y21.518
X97.138 Y21.276
X97.039 Y21.024
X96.96 Y20.761
X96.905 Y20.496
X96.874 Y20.226
X96.866 Y19.951
X96.881 Y19.678
X96.921 Y19.406
X96.985 Y19.134
X97.073 Y18.866
X97.185 Y18.606
X97.32 Y18.355
X97.478 Y18.113
X97.658 Y17.884
X97.858 Y17.671
X98.076 Y17.475
X98.31 Y17.3
X98.56 Y17.144
X98.823 Y17.011
X99.097 Y16.901
X99.378 Y16.815
X99.664 Y16.754
X99.955 Y16.719
X100.249 Y16.708
X100.542 Y16.724
X100.831 Y16.764
X101.115 Y16.83
X101.394 Y16.92
X101.664 Y17.034
X101.924 Y17.172
X102.17 Y17.331
X102.401 Y17.51
X102.617 Y17.711
X102.817 Y17.931
X102.996 Y18.168
X103.155 Y18.419
X103.291 Y18.684
X103.404 Y18.961
X103.493 Y19.248
X103.557 Y19.543
X103.596 Y19.844
X103.608 Y20.149
X103.594 Y20.455
X103.553 Y20.758
X103.485 Y21.058
X103.392 Y21.353
X103.273 Y21.638
X103.129 Y21.914
X102.961 Y22.177
X102.77 Y22.425
X102.557 Y22.656
X102.325 Y22.869
X102.074 Y23.061
X101.807 Y23.232
X101.549 Y23.366
X101.411 Y23.423
X101.208 Y23.5
X101.176 Y23.512
X101.149 Y23.522
X100.841 Y23.613
X100.601 Y23.655
G3 X100.409 Y22.474 R0.6
G1 X100.777 Y22.385
G3 X101.343 Y23.391 R0.6
X101.149 Y23.522 R0.6
G1 X100.902 Y23.612
X100.443 Y23.674
X100.338 Y23.687
X100.312 Y23.69
X99.944 Y23.708
X99.701 Y23.692
G3 X99.792 Y22.499 R0.6
G1 X100.217 Y22.497
G3 X100.312 Y23.69 R0.6
G1 X100.061 Y23.72
X99.966 Y23.722
X99.488 Y23.666
X99.43 Y23.659
X99.39 Y23.654
X99.158 Y23.611
X98.935 Y23.551
X98.827 Y23.513
G3 X98.632 Y23.382 R0.6
X99.205 Y22.378 R0.6
G1 X99.588 Y22.474
G3 X99.39 Y23.654 R0.6
G1 X99.106 Y23.613
X98.533 Y23.402
X98.519 Y23.396
X98.489 Y23.385
X98.227 Y23.26
X98.034 Y23.14
G3 X98.68 Y22.132 R0.6
G1 X98.97 Y22.29
G3 X98.489 Y23.385 R0.6
G1 X98.342 Y23.329
X98.246 Y23.284
X97.853 Y23.014
X97.769 Y22.957
X97.737 Y22.935
X97.495 Y22.736
X97.336 Y22.573
G3 X97.225 Y22.367 R0.6
X98.201 Y21.747 R0.6
G1 X98.464 Y21.985
G3 X97.737 Y22.935 R0.6
G1 X97.525 Y22.781
X97.195 Y22.415
X97.116 Y22.325
X97.096 Y22.303
X96.916 Y22.063
X96.799 Y21.864
G3 X97.838 Y21.27 R0.6
G1 X98.029 Y21.555
G3 X97.096 Y22.303 R0.6
G1 X96.948 Y22.13
X96.902 Y22.06
X96.701 Y21.679
X96.658 Y21.596
X96.638 Y21.558
X96.552 Y21.367
X96.475 Y21.15
X96.445 Y21.039
G3 X97.594 Y20.707 R0.6
G1 X97.722 Y21.053
G3 X96.638 Y21.558 R0.6
G1 X96.511 Y21.297
X96.367 Y20.724
X96.359 Y20.693
X96.353 Y20.666
X96.31 Y20.401
X96.299 Y20.175
G3 X97.496 Y20.135 R0.6
G1 X97.527 Y20.442
G3 X96.353 Y20.666 R0.6
G1 X96.303 Y20.438
X96.299 Y19.856
Y19.809
Y19.77
X96.323 Y19.495
X96.362 Y19.294
G3 X97.534 Y19.541 R0.6
G1 X97.493 Y19.832
G3 X96.299 Y19.77 R0.6
G1 X96.301 Y19.579
X96.386 Y19.198
X96.431 Y19.015
X96.517 Y18.692
X96.543 Y18.625
X96.904 Y17.947
X96.953 Y17.862
X97.518 Y17.226
X97.689 Y17.098
X98.247 Y16.716
X98.342 Y16.671
X99.106 Y16.387
X99.966 Y16.278
X100.061 Y16.28
X100.826 Y16.373
X100.921 Y16.393
X101.59 Y16.645
X101.781 Y16.733
X102.448 Y17.195
X102.545 Y17.292
X103.046 Y17.862
X103.157 Y18.052
X103.457 Y18.625
X103.5 Y18.74
X103.692 Y19.519
X103.699 Y19.579
X103.701 Y20.343
X103.692 Y20.481
X103.489 Y21.297
X103.299 Y21.679
X103.098 Y22.06
X103.034 Y22.156
X102.484 Y22.772
X102.354 Y22.872
X101.781 Y23.267
X101.685 Y23.318
X101.411 Y23.423
X101.354 Y23.432 Z-11.993
X101.301 Y23.441 Z-11.972
X101.255 Y23.449 Z-11.938
X101.218 Y23.455 Z-11.894
X101.196 Y23.454 Z-11.854
X101.183 Z-11.81
X101.179 Z-11.764
G0 Z5.
X100.246 Y19.133
Z-18.9
G1 Z-19.5 F440.
G3 X99.754 Y20.865 Z-19.698 R0.9
X100.246 Y19.133 Z-19.895 R0.9
X99.754 Y20.865 Z-20.093 R0.9
X100.246 Y19.133 Z-20.291 R0.9
X99.754 Y20.865 Z-20.489 R0.9
X100.246 Y19.133 Z-20.686 R0.9
X99.754 Y20.865 Z-20.884 R0.9
X100.246 Y19.133 Z-21.082 R0.9
X99.754 Y20.865 Z-21.279 R0.9
X100.246 Y19.133 Z-21.477 R0.9
X99.754 Y20.865 Z-21.675 R0.9
X100.246 Y19.133 Z-21.873 R0.9
X99.754 Y20.865 Z-22.07 R0.9
X100.246 Y19.133 Z-22.268 R0.9
X99.754 Y20.865 Z-22.466 R0.9
X100.246 Y19.133 Z-22.663 R0.9
X99.754 Y20.865 Z-22.861 R0.9
X100.246 Y19.133 Z-23.059 R0.9
X99.754 Y20.865 Z-23.257 R0.9
X100.246 Y19.133 Z-23.454 R0.9
X99.754 Y20.865 Z-23.652 R0.9
X100.246 Y19.133 Z-23.85 R0.9
X99.754 Y20.865 Z-24.047 R0.9
X100.246 Y19.133 Z-24.245 R0.9
X99.754 Y20.865 Z-24.443 R0.9
X100.246 Y19.133 Z-24.641 R0.9
X99.754 Y20.865 Z-24.838 R0.9
X100.246 Y19.133 Z-25.036 R0.9
X99.754 Y20.865 Z-25.234 R0.9
X100.246 Y19.133 Z-25.431 R0.9
X99.754 Y20.865 Z-25.629 R0.9
X100.246 Y19.133 Z-25.827 R0.9
X99.754 Y20.865 Z-26.025 R0.9
X100.246 Y19.133 Z-26.222 R0.9
X99.754 Y20.865 Z-26.42 R0.9
X100.246 Y19.133 Z-26.618 R0.9
X99.754 Y20.865 Z-26.815 R0.9
X100.246 Y19.133 Z-27.013 R0.9
X99.754 Y20.865 Z-27.211 R0.9
X100.246 Y19.133 Z-27.409 R0.9
X100.9 Y19.999 Z-27.49 R0.9
X99.1 R0.9
X100.9 R0.9
G1 X100.917 Y20.486
X100.884 Y20.616
X100.826 Y20.738
X100.748 Y20.849
X100.655 Y20.946
X100.548 Y21.029
X100.431 Y21.097
X100.307 Y21.148
X100.176 Y21.184
X99.925 Y21.201
X99.895
X99.87
X99.746 Y21.179
X99.629 Y21.143
X99.448 Y21.07
G3 X99.201 Y20.267 R0.666
X100.416 Y20.759 R0.655
X99.629 Y21.143 R0.655
G1 X99.488 Y21.095
X99.336 Y21.
X99.315 Y20.987
X99.297 Y20.976
X99.191 Y20.893
X99.038 Y20.723
G3 X98.945 Y20.508 R0.6
X99.987 Y19.99 R0.6
G1 X100.051 Y20.065
G3 X99.297 Y20.976 R0.6
G1 X99.211 Y20.915
X99.106 Y20.808
X99.018 Y20.695
X99.003 Y20.675
X98.984 Y20.65
X98.94 Y20.581
G3 X99.059 Y20.196 R0.311
X99.39 Y20.717 R0.309
X98.984 Y20.65 R0.309
G1 X98.915 Y20.527
X98.875 Y20.426
X98.866 Y20.4
X98.853 Y20.369
X98.837 Y20.32
G3 X99.025 Y19.983 R0.287
X99.208 Y20.527 R0.287
X98.853 Y20.369 R0.287
G1 X98.829 Y20.29
X98.805 Y20.152
X98.798 Y20.047
X98.796 Y19.912
G3 X99.444 Y19.318 R0.663
X99.468 Y20.639 R0.661
X98.863 Y20.272 R0.661
X98.798 Y20.047 R0.661
G1 X98.796 Y19.908
X98.819 Y19.77
X98.833 Y19.712
X98.843 Y19.672
X98.899 Y19.521
X99.055 Y19.245
G3 X100.04 Y19.895 R0.6
G1 X99.983 Y20.031
G3 X98.843 Y19.672 R0.6
G1 X98.867 Y19.579
X98.965 Y19.388
X99.055 Y19.245
X99.211 Y19.095
X99.316 Y19.009
X99.571 Y18.878
X99.851 Y18.81
X100.138 Y18.811
X100.417 Y18.88
X100.672 Y19.013
X100.887 Y19.203
X101.052 Y19.439
X101.156 Y19.706
X101.194 Y19.991
X101.164 Y20.277
X101.066 Y20.547
X100.907 Y20.787
G3 X100.857 Y20.838 R0.815
X100.729 Y20.94 R1.199
X99.211 Y19.095 R1.199
G1 X99.311 Y19.007
X99.584 Y18.867
X99.679 Y18.835
X99.966 Y18.792
X100.061 Y18.795
X100.348 Y18.842
X100.443 Y18.879
X100.635 Y18.973
X100.688 Y19.007
X100.902 Y19.198
X100.967 Y19.277
X101.09 Y19.484
X101.133 Y19.579
X101.2 Y19.865
X101.207 Y19.961
X101.183 Y20.247
X101.157 Y20.343
X101.054 Y20.592
X100.96 Y20.724
X100.826 Y20.883
X100.56 Y21.071
X100.443 Y21.122
X100.252 Y21.18
X100.157 Y21.199
X99.925 Y21.201
X99.871 Y21.189 Z-27.483
X99.821 Y21.177 Z-27.464
X99.776 Y21.167 Z-27.433
X99.74 Y21.158 Z-27.392
X99.713 Y21.152 Z-27.343
X99.702 Y21.147 Z-27.3
X99.697 Y21.145 Z-27.254
G0 Z5.
X99.208 Y60.428
Z1.11
G1 Z0.51 F440.
G3 X100.791 Y59.572 Z0.312 R0.9
X99.208 Y60.428 Z0.115 R0.9
X100.791 Y59.572 Z-0.083 R0.9
X99.208 Y60.428 Z-0.281 R0.9
X100.791 Y59.572 Z-0.479 R0.9
X99.208 Y60.428 Z-0.676 R0.9
X100.791 Y59.572 Z-0.874 R0.9
X99.208 Y60.428 Z-1.072 R0.9
X100.791 Y59.572 Z-1.269 R0.9
X99.208 Y60.428 Z-1.467 R0.9
X100.791 Y59.572 Z-1.665 R0.9
X99.208 Y60.428 Z-1.863 R0.9
X100.791 Y59.572 Z-2.06 R0.9
X99.208 Y60.428 Z-2.258 R0.9
X100.791 Y59.572 Z-2.456 R0.9
X99.208 Y60.428 Z-2.653 R0.9
X100.791 Y59.572 Z-2.851 R0.9
X99.208 Y60.428 Z-3.049 R0.9
X100.791 Y59.572 Z-3.247 R0.9
X99.208 Y60.428 Z-3.444 R0.9
X100.791 Y59.572 Z-3.642 R0.9
X99.208 Y60.428 Z-3.84 R0.9
X100.791 Y59.572 Z-4.037 R0.9
X99.208 Y60.428 Z-4.235 R0.9
X100.791 Y59.572 Z-4.433 R0.9
X99.208 Y60.428 Z-4.631 R0.9
X100.791 Y59.572 Z-4.828 R0.9
X99.208 Y60.428 Z-5.026 R0.9
X100.791 Y59.572 Z-5.224 R0.9
X99.208 Y60.428 Z-5.421 R0.9
X100.791 Y59.572 Z-5.619 R0.9
X99.208 Y60.428 Z-5.817 R0.9
X100.791 Y59.572 Z-6.015 R0.9
X99.208 Y60.428 Z-6.212 R0.9
X100.791 Y59.572 Z-6.41 R0.9
X99.208 Y60.428 Z-6.608 R0.9
X100.791 Y59.572 Z-6.805 R0.9
X99.208 Y60.428 Z-7.003 R0.9
X100.791 Y59.572 Z-7.201 R0.9
X99.208 Y60.428 Z-7.399 R0.9
X100.791 Y59.572 Z-7.596 R0.9
X99.208 Y60.428 Z-7.794 R0.9
X100.791 Y59.572 Z-7.992 R0.9
X99.208 Y60.428 Z-8.189 R0.9
X100.791 Y59.572 Z-8.387 R0.9
X99.208 Y60.428 Z-8.585 R0.9
X100.791 Y59.572 Z-8.783 R0.9
X99.208 Y60.428 Z-8.98 R0.9
X100.791 Y59.572 Z-9.178 R0.9
X99.208 Y60.428 Z-9.376 R0.9
X100.791 Y59.572 Z-9.573 R0.9
X99.208 Y60.428 Z-9.771 R0.9
X100.791 Y59.572 Z-9.969 R0.9
X100.9 Y60. Z-10. R0.9
X99.1 R0.9
X100.9 R0.9
G1 X100.917 Y60.486
X100.883 Y60.617
X100.826 Y60.739
X100.748 Y60.85
X100.654 Y60.947
X100.548 Y61.03
X100.431 Y61.097
X100.306 Y61.149
X100.176 Y61.185
X100.042 Y61.204
X99.908 Y61.208
X99.773 Y61.195
X99.641 Y61.167
X99.513 Y61.123
X99.391 Y61.066
X99.277 Y60.994
X99.171 Y60.911
X99.075 Y60.816
X98.99 Y60.711
X98.917 Y60.597
X98.858 Y60.476
X98.812 Y60.349
X98.78 Y60.218
X98.763 Y60.084
X98.761 Y59.949
X98.773 Y59.814
X98.8 Y59.682
X98.841 Y59.554
X98.896 Y59.43
X98.965 Y59.314
X99.045 Y59.205
X99.137 Y59.106
X99.239 Y59.018
X99.35 Y58.941
X99.468 Y58.877
X99.593 Y58.826
X99.723 Y58.788
X99.856 Y58.765
X99.991 Y58.757
X100.126 Y58.763
X100.259 Y58.784
X100.389 Y58.82
X100.515 Y58.869
X100.635 Y58.931
X100.747 Y59.007
X100.85 Y59.094
X100.944 Y59.191
X101.026 Y59.298
X101.161 Y59.532
X101.217 Y59.654
X101.263 Y59.781
X101.298 Y59.912
X101.321 Y60.045
X101.332 Y60.179
X101.329 Y60.314
X101.313 Y60.448
X101.284 Y60.58
X101.241 Y60.708
X101.185 Y60.831
X101.118 Y60.948
X101.038 Y61.058
X100.949 Y61.158
X100.85 Y61.25
X100.742 Y61.332
X100.627 Y61.403
X100.506 Y61.462
X100.38 Y61.51
X100.25 Y61.546
X100.117 Y61.57
X99.982 Y61.581
X99.847 Y61.58
X99.713 Y61.568
X99.58 Y61.543
X99.45 Y61.507
X99.324 Y61.46
X99.202 Y61.401
X99.086 Y61.333
X98.975 Y61.255
X98.873 Y61.167
X98.778 Y61.071
X98.691 Y60.967
X98.614 Y60.857
X98.546 Y60.74
X98.488 Y60.618
X98.441 Y60.492
X98.404 Y60.362
X98.378 Y60.229
X98.364 Y60.095
X98.361 Y59.96
X98.369 Y59.825
X98.388 Y59.692
X98.418 Y59.56
X98.459 Y59.431
X98.51 Y59.307
X98.572 Y59.186
X98.643 Y59.072
X98.724 Y58.963
X98.813 Y58.862
X98.91 Y58.768
X99.014 Y58.683
X99.125 Y58.606
X99.242 Y58.539
X99.365 Y58.481
X99.491 Y58.434
X99.621 Y58.398
X99.754 Y58.372
X99.888 Y58.357
X100.023 Y58.353
X100.158 Y58.361
X100.291 Y58.379
X100.423 Y58.408
X100.552 Y58.448
X100.677 Y58.499
X100.798 Y58.559
X100.914 Y58.629
X101.128 Y58.793
X101.316 Y58.986
X101.476 Y59.204
X101.604 Y59.441
X101.696 Y59.695
X101.728 Y59.826
X101.751 Y59.959
X101.766 Y60.228
X101.759 Y60.363
X101.741 Y60.497
X101.676 Y60.759
X101.629 Y60.886
X101.573 Y61.008
X101.434 Y61.239
X101.351 Y61.346
X101.262 Y61.447
X101.061 Y61.627
X100.836 Y61.776
X100.592 Y61.891
X100.334 Y61.97
X100.067 Y62.012
X99.797 Y62.016
X99.53 Y61.983
X99.269 Y61.913
X99.02 Y61.808
X98.788 Y61.671
X98.576 Y61.504
X98.388 Y61.31
X98.228 Y61.093
X98.098 Y60.857
X98. Y60.605
X97.935 Y60.343
X97.905 Y60.075
X97.911 Y59.805
X97.951 Y59.538
X98.026 Y59.279
X98.133 Y59.031
X98.271 Y58.8
X98.438 Y58.588
X98.631 Y58.399
X98.847 Y58.236
X99.081 Y58.103
X99.331 Y58.001
X99.592 Y57.931
X99.859 Y57.896
X100.129 Y57.895
X100.397 Y57.928
X100.659 Y57.994
X100.91 Y58.092
X101.148 Y58.219
X101.369 Y58.374
X101.571 Y58.553
X101.751 Y58.755
X101.906 Y58.975
X102.034 Y59.213
X102.134 Y59.464
X102.204 Y59.724
X102.243 Y59.991
X102.251 Y60.261
X102.227 Y60.53
X102.171 Y60.794
X102.085 Y61.05
X101.97 Y61.294
X101.827 Y61.522
X101.658 Y61.733
X101.466 Y61.923
X101.253 Y62.089
X101.023 Y62.23
X100.778 Y62.344
X100.522 Y62.429
X100.258 Y62.485
X99.99 Y62.511
X99.72 Y62.507
X99.452 Y62.473
X99.189 Y62.411
X98.935 Y62.319
X98.693 Y62.201
X98.464 Y62.058
X98.253 Y61.89
X98.06 Y61.701
X97.889 Y61.492
X97.741 Y61.267
X97.617 Y61.027
X97.52 Y60.775
X97.449 Y60.514
X97.407 Y60.248
X97.392 Y59.978
X97.406 Y59.709
X97.448 Y59.442
X97.517 Y59.181
X97.613 Y58.929
X97.735 Y58.688
X97.881 Y58.461
X98.05 Y58.251
X98.239 Y58.058
X98.448 Y57.887
X98.673 Y57.738
X98.912 Y57.613
X99.163 Y57.513
X99.422 Y57.44
X99.688 Y57.393
X99.958 Y57.374
X100.227 Y57.382
X100.495 Y57.418
X100.758 Y57.479
X101.013 Y57.566
X101.259 Y57.678
X101.493 Y57.813
X101.713 Y57.97
X101.916 Y58.147
X102.102 Y58.343
X102.268 Y58.555
X102.413 Y58.783
X102.536 Y59.023
X102.636 Y59.274
X102.711 Y59.533
X102.761 Y59.799
X102.785 Y60.067
X102.784 Y60.337
X102.757 Y60.606
X102.705 Y60.871
X102.628 Y61.129
X102.527 Y61.38
X102.402 Y61.619
X102.256 Y61.846
X102.089 Y62.058
X101.902 Y62.253
X101.698 Y62.43
X101.479 Y62.587
X101.246 Y62.723
X101.001 Y62.837
X100.747 Y62.928
X100.486 Y62.996
X100.219 Y63.039
X99.95 Y63.057
X99.68 Y63.052
X99.412 Y63.022
X99.147 Y62.968
X98.889 Y62.89
X98.638 Y62.79
X98.398 Y62.667
X98.169 Y62.524
X97.953 Y62.362
X97.753 Y62.181
X97.57 Y61.983
X97.404 Y61.769
X97.257 Y61.542
X97.131 Y61.303
X97.027 Y61.053
X96.943 Y60.794
X96.883 Y60.531
X96.846 Y60.261
X96.832 Y59.988
X96.842 Y59.717
X96.876 Y59.445
X96.934 Y59.177
X97.014 Y58.916
X97.117 Y58.662
X97.243 Y58.416
X97.387 Y58.184
X97.553 Y57.965
X97.738 Y57.759
X97.939 Y57.571
X98.156 Y57.402
X98.389 Y57.25
X98.633 Y57.12
X98.887 Y57.012
X99.153 Y56.925
X99.426 Y56.861
X99.703 Y56.821
X99.985 Y56.806
X100.27 Y56.815
X100.555 Y56.849
X100.835 Y56.907
X101.11 Y56.99
X101.38 Y57.098
X101.641 Y57.229
X101.889 Y57.383
X102.124 Y57.558
X102.342 Y57.752
X102.544 Y57.966
X102.728 Y58.198
X102.89 Y58.446
X103.031 Y58.705
X103.148 Y58.976
X103.241 Y59.257
X103.31 Y59.545
X103.354 Y59.84
X103.372 Y60.137
X103.364 Y60.433
X103.33 Y60.728
X103.271 Y61.019
X103.186 Y61.306
X103.076 Y61.585
X102.943 Y61.854
X102.787 Y62.109
X102.609 Y62.351
X102.41 Y62.577
X102.191 Y62.785
X101.954 Y62.975
X101.7 Y63.144
X101.432 Y63.29
X101.152 Y63.413
X100.861 Y63.512
X100.562 Y63.585
X100.257 Y63.632
X99.948 Y63.652
X99.638 Y63.645
X99.327 Y63.612
X99.02 Y63.551
X98.719 Y63.464
X98.425 Y63.35
X98.168 Y63.222
X98.002 Y63.118
X97.769 Y62.957
X97.745 Y62.94
X97.714 Y62.919
X97.507 Y62.751
X97.355 Y62.595
G3 X98.222 Y61.77 R0.6
G1 X98.442 Y61.97
G3 X97.714 Y62.919 R0.6
G1 X97.518 Y62.774
X97.119 Y62.329
X96.953 Y62.138
X96.742 Y61.757
X96.531 Y61.346
X96.48 Y61.184
X96.339 Y60.612
X96.301 Y60.421
X96.303 Y59.562
X96.431 Y59.015
X96.511 Y58.703
X96.701 Y58.321
X96.916 Y57.919
X97.004 Y57.8
X97.525 Y57.219
X98.227 Y56.729
X98.342 Y56.671
X99.106 Y56.387
X99.966 Y56.278
X100.061 Y56.28
X100.826 Y56.373
X100.978 Y56.413
X101.685 Y56.682
X101.781 Y56.733
X102.423 Y57.176
X102.545 Y57.292
X103.034 Y57.844
X103.118 Y57.978
X103.399 Y58.512
X103.5 Y58.74
X103.692 Y59.519
X103.701 Y59.657
X103.699 Y60.421
X103.661 Y60.612
X103.5 Y61.26
X103.457 Y61.375
X103.118 Y62.022
X103.046 Y62.138
X102.542 Y62.711
X102.448 Y62.805
X101.754 Y63.284
X101.399 Y63.427
X100.921 Y63.607
X100.826 Y63.627
X100.061 Y63.72
X99.966 Y63.722
X99.106 Y63.613
X98.342 Y63.329
X98.247 Y63.284
X98.002 Y63.118
X97.964 Y63.077 Z-9.993
X97.929 Y63.039 Z-9.974
X97.898 Y63.006 Z-9.943
X97.872 Y62.978 Z-9.902
X97.854 Y62.959 Z-9.853
X97.847 Y62.948 Z-9.81
X97.845 Y62.944 Z-9.764
G0 Z5.
X99.151 Y60.296
Z-8.9
G1 Z-9.5 F440.
G3 X100.85 Y59.702 Z-9.698 R0.9
X99.151 Y60.296 Z-9.895 R0.9
X100.85 Y59.702 Z-10.093 R0.9
X99.151 Y60.296 Z-10.291 R0.9
X100.85 Y59.702 Z-10.489 R0.9
X99.151 Y60.296 Z-10.686 R0.9
X100.85 Y59.702 Z-10.884 R0.9
X99.151 Y60.296 Z-11.082 R0.9
X100.85 Y59.702 Z-11.279 R0.9
X99.151 Y60.296 Z-11.477 R0.9
X100.85 Y59.702 Z-11.675 R0.9
X99.151 Y60.296 Z-11.873 R0.9
X100.85 Y59.702 Z-12.07 R0.9
X99.151 Y60.296 Z-12.268 R0.9
X100.85 Y59.702 Z-12.466 R0.9
X99.151 Y60.296 Z-12.663 R0.9
X100.85 Y59.702 Z-12.861 R0.9
X99.151 Y60.296 Z-13.059 R0.9
X100.85 Y59.702 Z-13.257 R0.9
X99.151 Y60.296 Z-13.454 R0.9
X100.85 Y59.702 Z-13.652 R0.9
X99.151 Y60.296 Z-13.85 R0.9
X100.85 Y59.702 Z-14.047 R0.9
X99.151 Y60.296 Z-14.245 R0.9
X100.85 Y59.702 Z-14.443 R0.9
X99.151 Y60.296 Z-14.641 R0.9
X100.85 Y59.702 Z-14.838 R0.9
X99.151 Y60.296 Z-15.036 R0.9
X100.85 Y59.702 Z-15.234 R0.9
X99.151 Y60.296 Z-15.431 R0.9
X100.85 Y59.702 Z-15.629 R0.9
X99.151 Y60.296 Z-15.827 R0.9
X100.85 Y59.702 Z-16.025 R0.9
X99.151 Y60.296 Z-16.222 R0.9
X100.85 Y59.702 Z-16.42 R0.9
X99.151 Y60.296 Z-16.618 R0.9
X100.85 Y59.702 Z-16.815 R0.9
X99.151 Y60.296 Z-17.013 R0.9
X100.85 Y59.702 Z-17.211 R0.9
X99.151 Y60.296 Z-17.409 R0.9
X100.85 Y59.702 Z-17.606 R0.9
X99.151 Y60.296 Z-17.804 R0.9
X100.85 Y59.702 Z-18.002 R0.9
X99.151 Y60.296 Z-18.199 R0.9
X100.85 Y59.702 Z-18.397 R0.9
X99.151 Y60.296 Z-18.595 R0.9
X100.85 Y59.702 Z-18.793 R0.9
X99.151 Y60.296 Z-18.99 R0.9
X100.85 Y59.702 Z-19.188 R0.9
X99.151 Y60.296 Z-19.386 R0.9
X100.85 Y59.702 Z-19.583 R0.9
X99.151 Y60.296 Z-19.781 R0.9
X100.85 Y59.702 Z-19.979 R0.9
X100.9 Y59.999 Z-20. R0.9
X99.1 R0.9
X100.9 R0.9
G1 X100.917 Y60.485
X100.884 Y60.616
X100.826 Y60.738
X100.748 Y60.848
X100.655 Y60.946
X100.548 Y61.028
X100.431 Y61.096
X100.307 Y61.148
X100.177 Y61.184
X99.919 Y61.201
X99.892
X99.87
X99.739 Y61.177
X99.679 Y61.16
X99.45 Y61.064
X99.322 Y60.993
G3 X99.164 Y60.821 R0.6
X99.928 Y59.965 R0.6
G1 X100.075 Y60.032
G3 X99.679 Y61.16 R0.6
G1 X99.488 Y61.095
X99.297 Y60.976
X99.268 Y60.955
X99.248 Y60.94
X99.176 Y60.882
G3 X99.148 Y60.26 R0.468
X99.873 Y60.848 R0.467
X99.248 Y60.94 R0.467
G1 X99.15 Y60.857
X99.023 Y60.698
X99.003 Y60.672
X98.978 Y60.639
X98.952 Y60.6
G3 X98.986 Y60.38 R0.2
X99.021 Y60.35 R0.2
X99.244 Y60.678 R0.198
X98.978 Y60.639 R0.198
G1 X98.915 Y60.527
X98.873 Y60.421
X98.862 Y60.392
X98.83 Y60.274
X98.808 Y60.154
X98.797 Y60.032
G3 X99.991 Y59.942 R0.6
G1 X100.01 Y60.077
G3 X98.862 Y60.392 R0.6
G1 X98.837 Y60.325
X98.814 Y60.23
X98.796 Y60.01
X98.794 Y59.974
X98.793 Y59.944
X98.835 Y59.701
G3 X98.937 Y59.491 R0.6
X99.929 Y60.162 R0.6
G1 X99.905 Y60.204
G3 X98.857 Y60.169 R0.6
X98.793 Y59.944 R0.6
G1 X98.802 Y59.848
X98.836 Y59.696
X98.845 Y59.657
X98.853 Y59.63
X98.915 Y59.474
G3 X99.075 Y59.303 R0.581
X99.627 Y59.238 R0.581
X99.198 Y60.31 R0.578
X98.853 Y59.63 R0.578
G1 X98.896 Y59.516
X98.982 Y59.362
X98.997 Y59.336
X99.017 Y59.303
X99.066 Y59.232
G3 X99.472 Y59.196 R0.317
X99.112 Y59.711 R0.314
X99.017 Y59.303 R0.314
G1 X99.106 Y59.189
X99.196 Y59.106
X99.218 Y59.085
X99.242 Y59.064
X99.393 Y58.958
G3 X100.113 Y59.157 R0.589
X99.161 Y59.829 R0.583
X99.242 Y59.064 R0.583
G1 X99.297 Y59.017
X99.393 Y58.958
X99.488 Y58.912
X99.525 Y58.894
X99.548 Y58.884
X99.649 Y58.844
G3 X100.382 Y59.21 R0.608
X99.249 Y59.649 R0.608
X99.548 Y58.884 R0.608
G1 X99.679 Y58.835
X99.832 Y58.81
X99.87 Y58.803
X100.005 Y58.794
X100.301 Y58.835
X100.579 Y58.947
X100.822 Y59.122
G3 X99.332 Y60.655 R1.069
X99.144 Y60.418 R1.069
X99.87 Y58.803 R1.088
G1 X99.966 Y58.792
X100.061 Y58.794
X100.348 Y58.843
X100.475 Y58.894
X100.635 Y58.973
X100.708 Y59.021
X100.826 Y59.126
X100.85 Y59.148
X100.88 Y59.177
X100.919 Y59.218
G3 X100.889 Y59.598 R0.287
X100.493 Y59.185 R0.286
X100.88 Y59.177 R0.286
G1 X100.939 Y59.242
X101.017 Y59.356
X101.127 Y59.562
X101.197 Y59.848
X101.207 Y59.944
X101.186 Y60.23
X101.163 Y60.325
X101.042 Y60.612
X100.898 Y60.802
X100.826 Y60.883
X100.635 Y61.023
X100.539 Y61.082
X100.443 Y61.121
X100.236 Y61.184
X100.149 Y61.2
X99.919 Y61.201
X99.866 Y61.189 Z-19.993
X99.815 Y61.177 Z-19.974
X99.77 Y61.167 Z-19.943
X99.734 Y61.159 Z-19.902
X99.708 Y61.153 Z-19.853
X99.696 Y61.147 Z-19.81
X99.692 Y61.145 Z-19.764
G0 Z5.
X100.285 Y58.911
Z-10.8
G1 Z-11.4 F440.
X100.282 Y58.918 Z-11.494
X100.275 Y58.939 Z-11.585
X100.262 Y58.973 Z-11.672
X100.245 Y59.019 Z-11.753
X100.224 Y59.076 Z-11.824
X100.199 Y59.144 Z-11.885
X100.172 Y59.219 Z-11.935
X100.142 Y59.3 Z-11.971
X100.11 Y59.386 Z-11.993
X100.077 Y59.474 Z-12.
G3 X99.343 Y60.952 R7.659
G1 X99.306 Y61.005
X99.171 Y61.013
X99.043 Y60.971
X98.926 Y60.903
X98.821 Y60.819
X98.728 Y60.721
X98.649 Y60.612
X98.582 Y60.494
X98.53 Y60.37
X98.491 Y60.241
X98.464 Y60.108
X98.452 Y59.974
Y59.839
X98.465 Y59.704
X98.491 Y59.572
X98.529 Y59.442
X98.578 Y59.317
X98.638 Y59.196
X98.709 Y59.081
X98.79 Y58.973
X98.88 Y58.872
X98.978 Y58.78
X99.084 Y58.696
X99.197 Y58.622
X99.316 Y58.558
X99.44 Y58.504
X99.568 Y58.462
X99.699 Y58.429
X99.832 Y58.409
X99.967 Y58.4
X100.102 Y58.402
X100.236 Y58.416
X100.369 Y58.441
X100.499 Y58.477
X100.626 Y58.524
X100.748 Y58.582
X100.864 Y58.65
X100.975 Y58.727
X101.079 Y58.813
X101.175 Y58.908
X101.263 Y59.011
X101.342 Y59.12
X101.411 Y59.236
X101.47 Y59.358
X101.519 Y59.483
X101.557 Y59.613
X101.584 Y59.745
X101.599 Y59.879
X101.604 Y60.014
X101.597 Y60.149
X101.579 Y60.283
X101.55 Y60.415
X101.51 Y60.544
X101.458 Y60.668
X101.397 Y60.788
X101.326 Y60.903
X101.245 Y61.012
X101.156 Y61.113
X101.058 Y61.206
X100.953 Y61.291
X100.841 Y61.367
X100.723 Y61.432
X100.601 Y61.488
X100.473 Y61.534
X100.21 Y61.592
X99.942 Y61.621
X99.672 Y61.62
X99.404 Y61.584
X99.273 Y61.552
X99.145 Y61.51
X99.02 Y61.459
X98.9 Y61.397
X98.785 Y61.326
X98.676 Y61.247
X98.574 Y61.158
X98.479 Y61.062
X98.393 Y60.958
X98.315 Y60.848
X98.246 Y60.732
X98.186 Y60.611
X98.135 Y60.486
X98.094 Y60.357
X98.064 Y60.226
X98.032 Y59.958
Y59.823
X98.06 Y59.555
X98.126 Y59.293
X98.228 Y59.043
X98.365 Y58.811
X98.532 Y58.599
X98.727 Y58.412
X98.946 Y58.254
X99.184 Y58.126
X99.436 Y58.032
X99.699 Y57.972
X99.968 Y57.948
X100.238 Y57.96
X100.504 Y58.007
X100.761 Y58.089
X101.005 Y58.204
X101.232 Y58.35
X101.437 Y58.525
X101.618 Y58.725
X101.771 Y58.947
X101.894 Y59.188
X101.984 Y59.442
X102.04 Y59.706
X102.061 Y59.975
X102.047 Y60.244
X101.998 Y60.51
X101.914 Y60.766
X101.798 Y61.01
X101.651 Y61.236
X101.475 Y61.441
X101.274 Y61.621
X101.052 Y61.775
X100.814 Y61.901
X100.563 Y62.
X100.302 Y62.07
X100.035 Y62.111
X99.766 Y62.122
X99.497 Y62.102
X99.232 Y62.05
X98.975 Y61.968
X98.73 Y61.855
X98.5 Y61.714
X98.289 Y61.545
X98.1 Y61.352
X97.936 Y61.138
X97.799 Y60.906
X97.69 Y60.659
X97.612 Y60.4
X97.565 Y60.135
X97.549 Y59.865
X97.564 Y59.596
X97.61 Y59.33
X97.686 Y59.071
X97.791 Y58.822
X97.923 Y58.586
X98.08 Y58.367
X98.26 Y58.166
X98.462 Y57.987
X98.681 Y57.83
X98.917 Y57.698
X99.165 Y57.593
X99.424 Y57.514
X99.689 Y57.464
X99.958 Y57.443
X100.228 Y57.45
X100.495 Y57.486
X100.757 Y57.551
X101.011 Y57.642
X101.254 Y57.76
X101.483 Y57.903
X101.695 Y58.07
X101.889 Y58.258
X102.062 Y58.465
X102.212 Y58.689
X102.338 Y58.928
X102.437 Y59.179
X102.51 Y59.439
X102.556 Y59.705
X102.573 Y59.974
X102.562 Y60.244
X102.522 Y60.511
X102.455 Y60.772
X102.361 Y61.025
X102.24 Y61.267
X102.096 Y61.495
X101.928 Y61.707
X101.741 Y61.9
X101.535 Y62.075
X101.313 Y62.229
X101.077 Y62.361
X100.83 Y62.469
X100.574 Y62.555
X100.311 Y62.615
X100.043 Y62.65
X99.774 Y62.66
X99.504 Y62.644
X99.238 Y62.602
X98.976 Y62.535
X98.723 Y62.442
X98.479 Y62.326
X98.248 Y62.186
X98.032 Y62.025
X97.832 Y61.843
X97.651 Y61.643
X97.49 Y61.427
X97.351 Y61.195
X97.234 Y60.952
X97.142 Y60.698
X97.074 Y60.437
X97.031 Y60.171
X97.013 Y59.901
X97.021 Y59.631
X97.054 Y59.363
X97.112 Y59.1
X97.194 Y58.843
X97.299 Y58.594
X97.426 Y58.356
X97.575 Y58.131
X97.743 Y57.92
X97.93 Y57.725
X98.133 Y57.547
X98.352 Y57.389
X98.584 Y57.251
X98.827 Y57.134
X99.08 Y57.038
X99.34 Y56.966
X99.605 Y56.917
X99.874 Y56.891
X100.144 Y56.889
X100.413 Y56.911
X100.679 Y56.956
X100.941 Y57.025
X101.195 Y57.116
X101.44 Y57.228
X101.676 Y57.363
X101.899 Y57.516
X102.107 Y57.689
X102.301 Y57.88
X102.476 Y58.086
X102.633 Y58.307
X102.771 Y58.542
X102.831 Y58.663
X102.937 Y58.912
X103.021 Y59.172
X103.082 Y59.436
X103.119 Y59.705
X103.133 Y59.978
X103.124 Y60.249
X103.091 Y60.519
X103.034 Y60.788
X102.954 Y61.049
X102.851 Y61.304
X102.725 Y61.554
X102.575 Y61.793
X102.406 Y62.02
X102.215 Y62.232
X102.004 Y62.43
X101.775 Y62.61
X101.53 Y62.77
X101.272 Y62.908
X101.004 Y63.023
X100.724 Y63.115
X100.437 Y63.183
X100.145 Y63.225
X99.852 Y63.242
X99.559 Y63.233
X99.268 Y63.199
X98.98 Y63.14
X98.698 Y63.056
X98.427 Y62.948
X98.167 Y62.817
X97.917 Y62.664
X97.681 Y62.489
X97.461 Y62.294
X97.26 Y62.081
X97.078 Y61.852
X96.915 Y61.606
X96.774 Y61.345
X96.655 Y61.073
X96.561 Y60.79
X96.491 Y60.501
X96.446 Y60.206
X96.428 Y59.906
X96.435 Y59.603
X96.469 Y59.302
X96.529 Y59.003
X96.615 Y58.709
X96.727 Y58.424
X96.863 Y58.148
X97.023 Y57.884
X97.207 Y57.635
X97.412 Y57.401
X97.637 Y57.185
X97.881 Y56.989
X98.143 Y56.814
X98.419 Y56.662
X98.708 Y56.535
X99.008 Y56.433
X99.293 Y56.363
X99.445 Y56.339
X99.679 Y56.311
X99.711 Y56.307
X99.738 Y56.304
X100.043 Y56.29
X100.286 Y56.307
G3 X100.188 Y57.5 R0.6
G1 X99.826 Y57.497
G3 X99.738 Y56.304 R0.6
G1 X99.966 Y56.278
X100.061 Y56.28
X100.549 Y56.339
X100.596 Y56.344
X100.635 Y56.349
X100.953 Y56.415
X101.17 Y56.486
G3 X101.364 Y56.617 R0.6
X100.787 Y57.62 R0.6
G1 X100.432 Y57.528
G3 X100.635 Y56.349 R0.6
G1 X100.902 Y56.388
X101.399 Y56.573
X101.444 Y56.59
X101.481 Y56.604
X101.78 Y56.746
X101.976 Y56.867
G3 X101.335 Y57.878 R0.6
G1 X101.005 Y57.701
G3 X101.481 Y56.604 R0.6
G1 X101.685 Y56.682
X101.781 Y56.733
X102.147 Y56.986
X102.163 Y56.996
X102.221 Y57.036
X102.428 Y57.198
X102.597 Y57.354
X102.675 Y57.439
G3 X101.814 Y58.27 R0.6
G1 X101.499 Y57.991
G3 X102.221 Y57.036 R0.6
G1 X102.423 Y57.176
X102.545 Y57.292
X102.861 Y57.649
X102.881 Y57.671
X102.907 Y57.7
X103.084 Y57.937
X103.201 Y58.135
G3 X102.161 Y58.729 R0.6
G1 X101.973 Y58.447
G3 X102.907 Y57.7 R0.6
G1 X103.034 Y57.844
X103.118 Y57.978
X103.299 Y58.321
X103.309 Y58.342
X103.359 Y58.436
X103.449 Y58.635
X103.526 Y58.853
X103.556 Y58.964
G3 X103.559 Y59.198 R0.6
X102.407 Y59.296 R0.6
G1 X102.275 Y58.942
G3 X103.359 Y58.436 R0.6
G1 X103.5 Y58.74
X103.633 Y59.276
X103.641 Y59.307
X103.647 Y59.334
X103.69 Y59.602
X103.701 Y59.826
G3 X102.504 Y59.865 R0.6
G1 X102.473 Y59.558
G3 X103.647 Y59.334 R0.6
G1 X103.692 Y59.519
X103.701 Y59.657
Y60.039
Y60.144
Y60.17
X103.688 Y60.394
X103.655 Y60.622
X103.63 Y60.735
G3 X102.458 Y60.496 R0.6
G1 X102.506 Y60.116
G3 X103.701 Y60.17 R0.6
G1 X103.699 Y60.421
X103.661 Y60.612
X103.567 Y60.993
X103.552 Y61.051
X103.543 Y61.091
X103.454 Y61.358
X103.358 Y61.564
G3 X102.279 Y61.047 R0.6
G1 X102.397 Y60.748
G3 X103.543 Y61.091 R0.6
G1 X103.5 Y61.26
X103.457 Y61.375
X103.202 Y61.862
X103.118 Y62.022
X103.027 Y62.161
X102.514 Y62.739
X102.448 Y62.805
X101.754 Y63.284
X101.399 Y63.427
X100.921 Y63.607
X100.826 Y63.627
X100.061 Y63.72
X99.966 Y63.722
X99.106 Y63.613
X98.342 Y63.329
X98.247 Y63.284
X97.578 Y62.824
X97.458 Y62.711
X96.953 Y62.138
X96.742 Y61.757
X96.543 Y61.375
X96.505 Y61.28
X96.339 Y60.612
X96.301 Y60.421
X96.303 Y59.562
X96.431 Y59.015
X96.511 Y58.703
X96.701 Y58.321
X96.902 Y57.94
X97.004 Y57.8
X97.525 Y57.219
X98.151 Y56.78
X98.246 Y56.716
X98.342 Y56.671
X99.106 Y56.387
X99.445 Y56.339
X99.497 Y56.337 Z-11.994
X99.546 Y56.345 Z-11.977
X99.59 Y56.352 Z-11.949
X99.627 Y56.357 Z-11.911
X99.655 Y56.362 Z-11.867
X99.672 Y56.364 Z-11.817
X99.678 Y56.365 Z-11.764
G0 Z5.
X100.246 Y59.133
Z-18.9
G1 Z-19.5 F440.
G3 X99.755 Y60.865 Z-19.698 R0.9
X100.246 Y59.133 Z-19.895 R0.9
X99.755 Y60.865 Z-20.093 R0.9
X100.246 Y59.133 Z-20.291 R0.9
X99.755 Y60.865 Z-20.489 R0.9
X100.246 Y59.133 Z-20.686 R0.9
X99.755 Y60.865 Z-20.884 R0.9
X100.246 Y59.133 Z-21.082 R0.9
X99.755 Y60.865 Z-21.279 R0.9
X100.246 Y59.133 Z-21.477 R0.9
X99.755 Y60.865 Z-21.675 R0.9
X100.246 Y59.133 Z-21.873 R0.9
X99.755 Y60.865 Z-22.07 R0.9
X100.246 Y59.133 Z-22.268 R0.9
X99.755 Y60.865 Z-22.466 R0.9
X100.246 Y59.133 Z-22.663 R0.9
X99.755 Y60.865 Z-22.861 R0.9
X100.246 Y59.133 Z-23.059 R0.9
X99.755 Y60.865 Z-23.257 R0.9
X100.246 Y59.133 Z-23.454 R0.9
X99.755 Y60.865 Z-23.652 R0.9
X100.246 Y59.133 Z-23.85 R0.9
X99.755 Y60.865 Z-24.047 R0.9
X100.246 Y59.133 Z-24.245 R0.9
X99.755 Y60.865 Z-24.443 R0.9
X100.246 Y59.133 Z-24.641 R0.9
X99.755 Y60.865 Z-24.838 R0.9
X100.246 Y59.133 Z-25.036 R0.9
X99.755 Y60.865 Z-25.234 R0.9
X100.246 Y59.133 Z-25.431 R0.9
X99.755 Y60.865 Z-25.629 R0.9
X100.246 Y59.133 Z-25.827 R0.9
X99.755 Y60.865 Z-26.025 R0.9
X100.246 Y59.133 Z-26.222 R0.9
X99.755 Y60.865 Z-26.42 R0.9
X100.246 Y59.133 Z-26.618 R0.9
X99.755 Y60.865 Z-26.815 R0.9
X100.246 Y59.133 Z-27.013 R0.9
X99.755 Y60.865 Z-27.211 R0.9
X100.246 Y59.133 Z-27.409 R0.9
X100.9 Y59.999 Z-27.49 R0.9
X99.1 R0.9
X100.9 R0.9
G1 X100.917 Y60.485
X100.884 Y60.616
X100.826 Y60.738
X100.748 Y60.848
X100.655 Y60.946
X100.548 Y61.028
X100.431 Y61.096
X100.307 Y61.148
X100.177 Y61.184
X99.919 Y61.201
X99.892
X99.87
X99.739 Y61.177
X99.679 Y61.16
X99.45 Y61.064
X99.322 Y60.993
G3 X99.164 Y60.821 R0.6
X99.928 Y59.965 R0.6
G1 X100.075 Y60.032
G3 X99.679 Y61.16 R0.6
G1 X99.488 Y61.095
X99.297 Y60.976
X99.268 Y60.955
X99.248 Y60.94
X99.176 Y60.882
G3 X99.148 Y60.26 R0.468
X99.873 Y60.848 R0.467
X99.248 Y60.94 R0.467
G1 X99.15 Y60.857
X99.023 Y60.698
X99.003 Y60.672
X98.978 Y60.639
X98.952 Y60.6
G3 X98.986 Y60.38 R0.2
X99.021 Y60.35 R0.2
X99.244 Y60.678 R0.198
X98.978 Y60.639 R0.198
G1 X98.915 Y60.527
X98.873 Y60.421
X98.862 Y60.392
X98.825 Y60.277
G3 X98.82 Y60.043 R0.641
X99.255 Y59.536 R0.641
X99.649 Y60.752 R0.639
X98.991 Y60.588 R0.639
X98.862 Y60.392 R0.639
G1 X98.824 Y60.273
X98.814 Y60.23
X98.8 Y60.078
Y59.87
G3 X98.876 Y59.648 R0.6
X99.994 Y59.933 R0.6
G1 X99.996 Y59.989
G3 X98.8 Y60.078 R0.6
G1 X98.793 Y59.944
X98.802 Y59.848
X98.825 Y59.743
X98.836 Y59.696
X98.875 Y59.56
G3 X99.479 Y59.298 R0.521
X99.2 Y60.283 R0.512
X98.836 Y59.696 R0.512
G1 X98.872 Y59.566
X98.919 Y59.467
X98.982 Y59.362
X98.997 Y59.336
X99.017 Y59.303
X99.066 Y59.232
G3 X99.472 Y59.196 R0.317
X99.112 Y59.711 R0.314
X99.017 Y59.303 R0.314
G1 X99.106 Y59.189
X99.196 Y59.106
X99.218 Y59.085
X99.242 Y59.064
X99.393 Y58.958
G3 X100.113 Y59.157 R0.589
X99.161 Y59.829 R0.583
X99.242 Y59.064 R0.583
G1 X99.297 Y59.017
X99.393 Y58.958
X99.488 Y58.912
X99.525 Y58.894
X99.548 Y58.884
X99.649 Y58.844
G3 X100.382 Y59.21 R0.608
X99.249 Y59.649 R0.608
X99.548 Y58.884 R0.608
G1 X99.679 Y58.835
X99.832 Y58.81
X99.87 Y58.803
X100.005 Y58.794
X100.301 Y58.835
X100.579 Y58.947
X100.822 Y59.122
G3 X99.332 Y60.655 R1.069
X99.144 Y60.418 R1.069
X99.87 Y58.803 R1.088
G1 X99.966 Y58.792
X100.061 Y58.794
X100.348 Y58.843
X100.475 Y58.894
X100.635 Y58.973
X100.708 Y59.021
X100.826 Y59.126
X100.85 Y59.148
X100.88 Y59.177
X100.919 Y59.218
G3 X100.889 Y59.598 R0.287
X100.493 Y59.185 R0.286
X100.88 Y59.177 R0.286
G1 X100.939 Y59.242
X101.017 Y59.356
X101.127 Y59.562
X101.197 Y59.848
X101.207 Y59.944
X101.186 Y60.23
X101.163 Y60.325
X101.042 Y60.612
X100.898 Y60.802
X100.826 Y60.883
X100.635 Y61.023
X100.539 Y61.082
X100.443 Y61.121
X100.236 Y61.184
X100.149 Y61.2
X99.919 Y61.201
X99.866 Y61.189 Z-27.483
X99.815 Y61.177 Z-27.464
X99.77 Y61.167 Z-27.433
X99.734 Y61.159 Z-27.392
X99.708 Y61.153 Z-27.343
X99.696 Y61.147 Z-27.3
X99.692 Y61.145 Z-27.254
G0 Z5.
X139.208 Y60.428
Z1.11
G1 Z0.51 F440.
G3 X140.791 Y59.572 Z0.312 R0.9
X140.815 Y60.38 Z0.254 R0.9
X139.293 Y60.558 Z0.125 R0.9
X140.705 Y59.442 Z-0.072 R0.9
X139.293 Y60.558 Z-0.27 R0.9
X140.705 Y59.442 Z-0.468 R0.9
X139.293 Y60.558 Z-0.665 R0.9
X140.705 Y59.442 Z-0.863 R0.9
X139.293 Y60.558 Z-1.061 R0.9
X140.705 Y59.442 Z-1.259 R0.9
X139.293 Y60.558 Z-1.456 R0.9
X140.705 Y59.442 Z-1.654 R0.9
X139.293 Y60.558 Z-1.852 R0.9
X140.705 Y59.442 Z-2.049 R0.9
X139.293 Y60.558 Z-2.247 R0.9
X140.705 Y59.442 Z-2.445 R0.9
X139.293 Y60.558 Z-2.642 R0.9
X140.705 Y59.442 Z-2.84 R0.9
X139.293 Y60.558 Z-3.038 R0.9
X140.705 Y59.442 Z-3.236 R0.9
X139.293 Y60.558 Z-3.433 R0.9
X140.705 Y59.442 Z-3.631 R0.9
X139.293 Y60.558 Z-3.829 R0.9
X140.705 Y59.442 Z-4.026 R0.9
X139.293 Y60.558 Z-4.224 R0.9
X140.705 Y59.442 Z-4.422 R0.9
X139.293 Y60.558 Z-4.62 R0.9
X140.705 Y59.442 Z-4.817 R0.9
X139.293 Y60.558 Z-5.015 R0.9
X140.705 Y59.442 Z-5.213 R0.9
X139.293 Y60.558 Z-5.41 R0.9
X140.705 Y59.442 Z-5.608 R0.9
X139.293 Y60.558 Z-5.806 R0.9
X140.705 Y59.442 Z-6.004 R0.9
X139.293 Y60.558 Z-6.201 R0.9
X140.705 Y59.442 Z-6.399 R0.9
X139.293 Y60.558 Z-6.597 R0.9
X140.705 Y59.442 Z-6.794 R0.9
X139.293 Y60.558 Z-6.992 R0.9
X140.705 Y59.442 Z-7.19 R0.9
X139.293 Y60.558 Z-7.388 R0.9
X140.705 Y59.442 Z-7.585 R0.9
X139.293 Y60.558 Z-7.783 R0.9
X140.705 Y59.442 Z-7.981 R0.9
X139.293 Y60.558 Z-8.178 R0.9
X140.705 Y59.442 Z-8.376 R0.9
X139.293 Y60.558 Z-8.574 R0.9
X140.705 Y59.442 Z-8.772 R0.9
X139.293 Y60.558 Z-8.969 R0.9
X140.705 Y59.442 Z-9.167 R0.9
X139.293 Y60.558 Z-9.365 R0.9
X140.705 Y59.442 Z-9.562 R0.9
X139.293 Y60.558 Z-9.76 R0.9
X140.705 Y59.442 Z-9.958 R0.9
X140.899 Y60. Z-10. R0.9
X139.099 R0.9
X140.899 R0.9
G1 X140.916 Y60.486
X140.883 Y60.617
X140.825 Y60.739
X140.748 Y60.849
X140.654 Y60.947
X140.548 Y61.029
X140.431 Y61.097
X140.306 Y61.149
X140.176 Y61.185
X140.042 Y61.204
X139.907 Y61.207
X139.773 Y61.195
X139.641 Y61.166
X139.513 Y61.123
X139.391 Y61.065
X139.276 Y60.994
X139.17 Y60.911
X139.074 Y60.816
X138.99 Y60.711
X138.917 Y60.597
X138.857 Y60.476
X138.811 Y60.349
X138.78 Y60.217
X138.763 Y60.084
X138.76 Y59.949
X138.773 Y59.814
X138.8 Y59.682
X138.841 Y59.553
X138.896 Y59.43
X138.964 Y59.314
X139.045 Y59.205
X139.137 Y59.106
X139.239 Y59.018
X139.35 Y58.941
X139.468 Y58.876
X139.593 Y58.825
X139.723 Y58.788
X139.856 Y58.765
X139.991 Y58.757
X140.126 Y58.763
X140.259 Y58.784
X140.389 Y58.82
X140.515 Y58.869
X140.635 Y58.931
X140.747 Y59.006
X140.85 Y59.093
X140.943 Y59.191
X141.026 Y59.298
X141.161 Y59.531
X141.217 Y59.654
X141.263 Y59.781
X141.298 Y59.912
X141.321 Y60.045
X141.331 Y60.179
X141.329 Y60.314
X141.313 Y60.448
X141.283 Y60.58
X141.24 Y60.708
X141.185 Y60.831
X141.117 Y60.948
X141.038 Y61.057
X140.949 Y61.158
X140.849 Y61.25
X140.742 Y61.331
X140.627 Y61.402
X140.506 Y61.462
X140.379 Y61.509
X140.249 Y61.545
X140.117 Y61.569
X139.982 Y61.581
X139.847 Y61.58
X139.713 Y61.567
X139.58 Y61.543
X139.45 Y61.507
X139.323 Y61.459
X139.202 Y61.401
X139.085 Y61.333
X138.975 Y61.254
X138.872 Y61.167
X138.778 Y61.071
X138.691 Y60.967
X138.613 Y60.857
X138.546 Y60.74
X138.488 Y60.618
X138.441 Y60.491
X138.404 Y60.362
X138.378 Y60.229
X138.364 Y60.095
X138.361 Y59.96
X138.369 Y59.825
X138.388 Y59.691
X138.418 Y59.56
X138.459 Y59.431
X138.51 Y59.306
X138.572 Y59.186
X138.643 Y59.071
X138.723 Y58.963
X138.812 Y58.862
X138.909 Y58.768
X139.014 Y58.682
X139.125 Y58.606
X139.242 Y58.539
X139.364 Y58.481
X139.491 Y58.434
X139.621 Y58.398
X139.753 Y58.372
X139.888 Y58.357
X140.023 Y58.353
X140.157 Y58.361
X140.291 Y58.379
X140.423 Y58.408
X140.552 Y58.448
X140.677 Y58.499
X140.798 Y58.559
X140.913 Y58.629
X141.127 Y58.793
X141.316 Y58.986
X141.476 Y59.203
X141.604 Y59.441
X141.696 Y59.695
X141.728 Y59.826
X141.751 Y59.959
X141.766 Y60.228
X141.758 Y60.363
X141.741 Y60.497
X141.676 Y60.759
X141.629 Y60.885
X141.573 Y61.008
X141.433 Y61.239
X141.351 Y61.346
X141.261 Y61.447
X141.061 Y61.627
X140.836 Y61.776
X140.592 Y61.891
X140.333 Y61.97
X140.067 Y62.012
X139.797 Y62.016
X139.529 Y61.983
X139.269 Y61.913
X139.02 Y61.808
X138.788 Y61.671
X138.576 Y61.504
X138.388 Y61.31
X138.228 Y61.093
X138.098 Y60.856
X137.999 Y60.605
X137.935 Y60.343
X137.905 Y60.075
X137.911 Y59.805
X137.951 Y59.538
X138.026 Y59.279
X138.133 Y59.031
X138.271 Y58.799
X138.438 Y58.587
X138.631 Y58.399
X138.847 Y58.236
X139.081 Y58.103
X139.331 Y58.001
X139.592 Y57.931
X139.859 Y57.895
X140.129 Y57.894
X140.397 Y57.928
X140.658 Y57.994
X140.91 Y58.092
X141.148 Y58.219
X141.369 Y58.374
X141.571 Y58.553
X141.751 Y58.754
X141.906 Y58.975
X142.034 Y59.213
X142.134 Y59.463
X142.204 Y59.724
X142.243 Y59.991
X142.251 Y60.261
X142.227 Y60.53
X142.171 Y60.794
X142.085 Y61.049
X141.969 Y61.293
X141.826 Y61.522
X141.658 Y61.733
X141.466 Y61.922
X141.253 Y62.089
X141.023 Y62.23
X140.778 Y62.343
X140.522 Y62.429
X140.258 Y62.485
X139.989 Y62.511
X139.72 Y62.507
X139.452 Y62.473
X139.189 Y62.41
X138.935 Y62.319
X138.693 Y62.201
X138.464 Y62.057
X138.252 Y61.89
X138.06 Y61.701
X137.889 Y61.492
X137.74 Y61.267
X137.617 Y61.027
X137.52 Y60.775
X137.449 Y60.514
X137.407 Y60.248
X137.392 Y59.978
X137.406 Y59.709
X137.448 Y59.442
X137.517 Y59.181
X137.613 Y58.929
X137.735 Y58.688
X137.881 Y58.461
X138.049 Y58.25
X138.239 Y58.058
X138.447 Y57.887
X138.672 Y57.738
X138.912 Y57.613
X139.162 Y57.513
X139.422 Y57.439
X139.688 Y57.393
X139.957 Y57.374
X140.227 Y57.382
X140.495 Y57.417
X140.758 Y57.479
X141.013 Y57.566
X141.259 Y57.678
X141.493 Y57.813
X141.712 Y57.969
X141.916 Y58.147
X142.102 Y58.342
X142.268 Y58.555
X142.413 Y58.783
X142.536 Y59.023
X142.635 Y59.274
X142.71 Y59.533
X142.761 Y59.798
X142.785 Y60.067
X142.784 Y60.337
X142.757 Y60.606
X142.705 Y60.87
X142.628 Y61.129
X142.527 Y61.379
X142.402 Y61.619
X142.256 Y61.846
X142.088 Y62.057
X141.902 Y62.253
X141.698 Y62.43
X141.479 Y62.587
X141.246 Y62.723
X141.001 Y62.837
X140.747 Y62.928
X140.486 Y62.995
X140.219 Y63.039
X139.95 Y63.057
X139.68 Y63.052
X139.412 Y63.021
X139.147 Y62.967
X138.889 Y62.89
X138.638 Y62.789
X138.397 Y62.667
X138.168 Y62.524
X137.953 Y62.361
X137.753 Y62.18
X137.569 Y61.982
X137.404 Y61.769
X137.257 Y61.542
X137.131 Y61.303
X137.026 Y61.053
X136.943 Y60.794
X136.883 Y60.531
X136.846 Y60.261
X136.832 Y59.988
X136.842 Y59.717
X136.876 Y59.445
X136.934 Y59.176
X137.014 Y58.916
X137.117 Y58.662
X137.242 Y58.416
X137.387 Y58.184
X137.553 Y57.964
X137.738 Y57.759
X137.939 Y57.571
X138.156 Y57.402
X138.389 Y57.25
X138.632 Y57.12
X138.887 Y57.012
X139.153 Y56.924
X139.426 Y56.861
X139.703 Y56.821
X139.985 Y56.806
X140.27 Y56.815
X140.554 Y56.849
X140.835 Y56.907
X141.11 Y56.99
X141.379 Y57.098
X141.641 Y57.229
X141.889 Y57.383
X142.123 Y57.557
X142.342 Y57.752
X142.544 Y57.966
X142.727 Y58.198
X142.89 Y58.446
X143.03 Y58.705
X143.147 Y58.976
X143.241 Y59.256
X143.31 Y59.545
X143.354 Y59.84
X143.371 Y60.136
X143.364 Y60.433
X143.33 Y60.727
X143.271 Y61.019
X143.186 Y61.306
X143.076 Y61.585
X142.943 Y61.854
X142.786 Y62.109
X142.608 Y62.351
X142.409 Y62.576
X142.191 Y62.785
X141.954 Y62.975
X141.7 Y63.144
X141.432 Y63.29
X141.151 Y63.413
X140.861 Y63.512
X140.562 Y63.585
X140.257 Y63.632
