(__Y_1)
(T4  D=6. CR=0. - ZMIN=-27.5 - FLAT END MILL)
G90 G94 G91.1 G40 G49 G17
G21

(POCKET1)
M5
M9
T4
S10000 M3
G54
M8
G0 X100.829 Y61.057
G43 Z16. H4
G1 Z1.098 F200.
X100.828 Y61.059 Z1.041 F440.
G3 X100.814 Y61.085 Z0.906 R0.75
X100.783 Y61.135 Z0.78 R0.75
X100.732 Y61.204 Z0.672 R0.75
X100.655 Y61.282 Z0.586 R0.75
X100.555 Y61.357 Z0.528 R0.75
X100.433 Y61.418 Z0.5 R0.75
X99.884 Y60.022 Z0.294 R0.75
X100.433 Y61.418 Z0.088 R0.75
X99.884 Y60.022 Z-0.118 R0.75
X100.433 Y61.418 Z-0.325 R0.75
X99.884 Y60.022 Z-0.531 R0.75
X100.433 Y61.418 Z-0.737 R0.75
X99.884 Y60.022 Z-0.943 R0.75
X100.433 Y61.418 Z-1.149 R0.75
X99.884 Y60.022 Z-1.355 R0.75
X100.433 Y61.418 Z-1.561 R0.75
X99.884 Y60.022 Z-1.768 R0.75
X100.433 Y61.418 Z-1.974 R0.75
X99.884 Y60.022 Z-2.18 R0.75
X100.433 Y61.418 Z-2.386 R0.75
X99.884 Y60.022 Z-2.592 R0.75
X100.433 Y61.418 Z-2.798 R0.75
X99.884 Y60.022 Z-3.004 R0.75
X100.433 Y61.418 Z-3.211 R0.75
X99.884 Y60.022 Z-3.417 R0.75
X100.433 Y61.418 Z-3.623 R0.75
X99.884 Y60.022 Z-3.829 R0.75
X100.433 Y61.418 Z-4.035 R0.75
X99.884 Y60.022 Z-4.241 R0.75
X100.433 Y61.418 Z-4.447 R0.75
X99.884 Y60.022 Z-4.654 R0.75
X100.433 Y61.418 Z-4.86 R0.75
X99.884 Y60.022 Z-5.066 R0.75
X100.433 Y61.418 Z-5.272 R0.75
X99.884 Y60.022 Z-5.478 R0.75
X100.433 Y61.418 Z-5.684 R0.75
X99.884 Y60.022 Z-5.89 R0.75
X100.433 Y61.418 Z-6.096 R0.75
X99.884 Y60.022 Z-6.303 R0.75
X100.433 Y61.418 Z-6.509 R0.75
X99.884 Y60.022 Z-6.715 R0.75
X100.433 Y61.418 Z-6.921 R0.75
X99.884 Y60.022 Z-7.127 R0.75
X100.433 Y61.418 Z-7.333 R0.75
X99.884 Y60.022 Z-7.539 R0.75
X100.433 Y61.418 Z-7.746 R0.75
X99.884 Y60.022 Z-7.952 R0.75
X100.433 Y61.418 Z-8.158 R0.75
X99.884 Y60.022 Z-8.364 R0.75
X100.433 Y61.418 Z-8.57 R0.75
X99.884 Y60.022 Z-8.776 R0.75
X100.433 Y61.418 Z-8.982 R0.75
X99.884 Y60.022 Z-9.189 R0.75
X100.433 Y61.418 Z-9.395 R0.75
X99.884 Y60.022 Z-9.601 R0.75
X100.433 Y61.418 Z-9.807 R0.75
X99.884 Y60.022 Z-10.013 R0.75
X100.433 Y61.418 Z-10.219 R0.75
X99.884 Y60.022 Z-10.425 R0.75
X100.433 Y61.418 Z-10.632 R0.75
X99.884 Y60.022 Z-10.838 R0.75
X100.433 Y61.418 Z-11.044 R0.75
X99.884 Y60.022 Z-11.25 R0.75
X100.433 Y61.418 Z-11.456 R0.75
X99.884 Y60.022 Z-11.662 R0.75
X100.433 Y61.418 Z-11.868 R0.75
X99.884 Y60.022 Z-12.075 R0.75
X100.433 Y61.418 Z-12.281 R0.75
X99.437 Y60.924 Z-12.39 R0.75
X100.029 Y59.982 Z-12.5 R0.75
G1 X100.043 Y59.979
G3 X100.086 Y59.985 R0.07
G1 X100.099 Y59.992
G3 X100.155 Y60.056 R0.111
G1 X100.16 Y60.073
G3 Y60.17 R0.156
G1 X100.154 Y60.19
G3 X100.08 Y60.293 R0.218
G1 X100.064 Y60.306
G3 X99.91 Y60.366 R0.288
G1 X99.885 Y60.367
G3 X99.704 Y60.336 R0.372
G1 X99.691 Y60.33
G3 X99.522 Y60.194 R0.428
G1 X99.512 Y60.18
G3 X99.42 Y59.954 R0.492
G1 X99.419 Y59.947
G3 X99.486 Y59.619 R0.51
G1 X99.519 Y59.564
G3 X99.917 Y59.256 R0.686
G1 X99.939 Y59.249
G3 X100.476 Y59.295 R0.747
G1 X100.507 Y59.31
G3 X100.916 Y59.749 R0.837
G1 X100.944 Y59.818
G3 X100.756 Y60.871 R1.007
G1 X100.749 Y60.879
G3 X100.313 Y61.173 R1.105
G1 X100.286 Y61.183
G3 X99.691 Y61.246 R1.22
G1 X99.672 Y61.244
G3 X99.097 Y61.013 R1.299
G1 X99.09 Y61.007
G3 X98.673 Y60.518 R1.339
X98.529 Y59.914 R1.346
X98.532 Y59.834 R1.346
G1 X98.537 Y59.751
G3 X99.228 Y58.562 R1.524
X100.003 Y58.299 R1.668
G1 X100.015 Y58.298
G3 X100.833 Y58.434 R1.715
G1 X100.843 Y58.438
G3 X101.512 Y58.946 R1.76
G1 X101.524 Y58.961
G3 X101.898 Y59.759 R1.837
G1 X101.901 Y59.776
G3 X101.86 Y60.685 R1.905
G1 X101.795 Y60.905
G3 X101.469 Y61.447 R1.251
X97.62 Y59.691 R2.268
G1 X97.634 Y59.449
G3 X97.878 Y58.702 R1.543
X102.566 Y61.46 R2.722
G1 X102.482 Y61.618
G3 X101.727 Y62.505 R2.736
X100.401 Y63.084 R3.047
G1 X100.387 Y63.087
G3 X98.863 Y62.973 R3.133
G1 X98.854 Y62.97
G3 X97.065 Y61.459 R3.155
G1 X97.024 Y61.382
G3 X96.702 Y59.179 R3.302
G1 X96.718 Y59.098
G3 X96.929 Y58.467 R2.682
G1 X96.951 Y58.423
G3 X100.455 Y56.418 R3.554
G1 X100.467 Y56.419
G3 X101.294 Y56.59 R3.561
G1 X101.303 Y56.593
G3 X102.05 Y56.946 R3.482
G1 X102.474 Y57.211
X103.068 Y57.882
X103.486 Y58.678
X103.701 Y59.551
Y60.441
X103.485 Y61.323
X103.076 Y62.103
X102.863 Y62.349
X102.472 Y62.79
X101.733 Y63.301
X100.908 Y63.614
X99.999 Y63.728
X99.103 Y63.617
X98.253 Y63.291
X97.528 Y62.79
X96.932 Y62.118
X96.52 Y61.333
X96.466 Y61.126
X96.303 Y60.466
X96.3 Y59.549
X96.514 Y58.678
X96.683 Y58.356
X96.94 Y57.873
X97.518 Y57.221
X98.27 Y56.698
X99.1 Y56.383
X100. Y56.272
X100.908 Y56.386
X101.715 Y56.692
X102.474 Y57.211
G0 Z16.
X100.311 Y59.313
G1 Z-11.402 F200.
G3 X100.318 Y59.324 Z-11.528 R0.75 F440.
X100.339 Y59.357 Z-11.648 R0.75
X100.368 Y59.413 Z-11.757 R0.75
X100.4 Y59.492 Z-11.85 R0.75
X100.426 Y59.591 Z-11.924 R0.75
X100.439 Y59.708 Z-11.975 R0.75
X100.433 Y59.834 Z-12. R0.75
X98.947 Y59.63 Z-12.206 R0.75
X100.433 Y59.834 Z-12.412 R0.75
X98.947 Y59.63 Z-12.618 R0.75
X100.433 Y59.834 Z-12.825 R0.75
X98.947 Y59.63 Z-13.031 R0.75
X100.433 Y59.834 Z-13.237 R0.75
X98.947 Y59.63 Z-13.443 R0.75
X100.433 Y59.834 Z-13.649 R0.75
X98.947 Y59.63 Z-13.855 R0.75
X100.433 Y59.834 Z-14.061 R0.75
X98.947 Y59.63 Z-14.268 R0.75
X100.433 Y59.834 Z-14.474 R0.75
X98.947 Y59.63 Z-14.68 R0.75
X100.433 Y59.834 Z-14.886 R0.75
X98.947 Y59.63 Z-15.092 R0.75
X100.433 Y59.834 Z-15.298 R0.75
X98.947 Y59.63 Z-15.504 R0.75
X100.433 Y59.834 Z-15.711 R0.75
X98.947 Y59.63 Z-15.917 R0.75
X100.433 Y59.834 Z-16.123 R0.75
X98.947 Y59.63 Z-16.329 R0.75
X100.433 Y59.834 Z-16.535 R0.75
X98.947 Y59.63 Z-16.741 R0.75
X100.433 Y59.834 Z-16.947 R0.75
X98.947 Y59.63 Z-17.154 R0.75
X100.433 Y59.834 Z-17.36 R0.75
X98.947 Y59.63 Z-17.566 R0.75
X100.433 Y59.834 Z-17.772 R0.75
X98.947 Y59.63 Z-17.978 R0.75
X100.433 Y59.834 Z-18.184 R0.75
X98.947 Y59.63 Z-18.39 R0.75
X100.433 Y59.834 Z-18.596 R0.75
X98.947 Y59.63 Z-18.803 R0.75
X100.433 Y59.834 Z-19.009 R0.75
X98.947 Y59.63 Z-19.215 R0.75
X100.433 Y59.834 Z-19.421 R0.75
X98.947 Y59.63 Z-19.627 R0.75
X100.433 Y59.834 Z-19.833 R0.75
X98.947 Y59.63 Z-20.039 R0.75
X100.433 Y59.834 Z-20.246 R0.75
X98.947 Y59.63 Z-20.452 R0.75
X100.433 Y59.834 Z-20.658 R0.75
X98.947 Y59.63 Z-20.864 R0.75
X100.433 Y59.834 Z-21.07 R0.75
X98.947 Y59.63 Z-21.276 R0.75
X100.433 Y59.834 Z-21.482 R0.75
X98.947 Y59.63 Z-21.689 R0.75
X100.433 Y59.834 Z-21.895 R0.75
X98.947 Y59.63 Z-22.101 R0.75
X100.433 Y59.834 Z-22.307 R0.75
X98.947 Y59.63 Z-22.513 R0.75
X100.433 Y59.834 Z-22.719 R0.75
X98.947 Y59.63 Z-22.925 R0.75
X100.433 Y59.834 Z-23.132 R0.75
X98.947 Y59.63 Z-23.338 R0.75
X100.433 Y59.834 Z-23.544 R0.75
X98.947 Y59.63 Z-23.75 R0.75
X100.433 Y59.834 Z-23.956 R0.75
X98.947 Y59.63 Z-24.162 R0.75
X100.433 Y59.834 Z-24.368 R0.75
X98.947 Y59.63 Z-24.575 R0.75
X100.433 Y59.834 Z-24.781 R0.75
X98.947 Y59.63 Z-24.987 R0.75
X100.433 Y59.834 Z-25.193 R0.75
X98.947 Y59.63 Z-25.399 R0.75
X100.433 Y59.834 Z-25.605 R0.75
X98.947 Y59.63 Z-25.811 R0.75
X100.433 Y59.834 Z-26.018 R0.75
X98.947 Y59.63 Z-26.224 R0.75
X100.433 Y59.834 Z-26.43 R0.75
X98.947 Y59.63 Z-26.636 R0.75
X100.433 Y59.834 Z-26.842 R0.75
X98.947 Y59.63 Z-27.048 R0.75
X100.433 Y59.834 Z-27.254 R0.75
X98.947 Y59.63 Z-27.461 R0.75
X99.135 Y59.228 Z-27.5 R0.75
X99.969 Y59.194 R0.591
X100.003 Y60.029 R0.591
G1 X99.993 Y60.04
G3 X99.983 Y60.048 R0.034
G1 X99.976 Y60.051
G3 X99.916 Y60.054 R0.074
G1 X99.902 Y60.049
G3 X99.841 Y59.989 R0.109
G1 X99.834 Y59.973
G3 X99.829 Y59.869 R0.153
G1 X99.834 Y59.851
G3 X99.912 Y59.743 R0.206
G1 X99.926 Y59.733
G3 X100.085 Y59.685 R0.259
G1 X100.106 Y59.686
G3 X100.295 Y59.755 R0.323
G1 X100.307 Y59.764
G3 X100.434 Y59.953 R0.371
G1 X100.44 Y59.974
G3 X100.432 Y60.242 R0.437
G1 X100.426 Y60.257
G3 X100.247 Y60.491 R0.486
G1 X100.231 Y60.502
G3 X99.918 Y60.6 R0.547
G1 X99.9
G3 X99.557 Y60.491 R0.599
G1 X99.541 Y60.48
G3 X99.302 Y60.168 R0.66
G1 X99.297 Y60.154
G3 X99.276 Y59.735 R0.707
G1 X99.29 Y59.683
G3 X99.86 Y59.11 R0.796
G1 X99.867 Y59.108
G3 X100.134 Y59.081 R0.88
G1 X100.144
G3 X100.669 Y59.274 R0.945
G1 X100.673 Y59.278
G3 X100.879 Y59.49 R0.983
X101.016 Y59.763 R0.995
G1 X101.019 Y59.774
G3 X101.026 Y60.401 R1.062
X100.885 Y60.703 R1.098
X100.655 Y60.956 R1.127
G1 X100.646 Y60.963
G3 X100.373 Y61.124 R1.069
G1 X100.18 Y61.202
X99.812 Y61.2
X99.472 Y61.096
X99.183 Y60.898
X98.983 Y60.653
X98.947 Y60.608
X98.814 Y60.271
X98.788 Y59.916
X98.869 Y59.554
X99.046 Y59.247
X99.316 Y58.995
X99.644 Y58.838
X99.998 Y58.784
X100.363 Y58.84
X100.685 Y58.995
X100.951 Y59.242
X101.131 Y59.554
X101.212 Y59.916
X101.186 Y60.271
X101.053 Y60.608
X100.827 Y60.891
X100.535 Y61.091
X100.18 Y61.202
G0 Z16.
X58.707 Y59.687
Z1.098
G1 Y59.685 Z1.041 F440.
G3 X58.701 Y59.656 Z0.906 R0.75
X58.694 Y59.597 Z0.78 R0.75
X58.692 Y59.511 Z0.672 R0.75
X58.703 Y59.403 Z0.586 R0.75
X58.735 Y59.281 Z0.528 R0.75
X58.792 Y59.158 Z0.5 R0.75
X60.09 Y59.91 Z0.294 R0.75
X58.792 Y59.158 Z0.088 R0.75
X60.09 Y59.91 Z-0.118 R0.75
X58.792 Y59.158 Z-0.325 R0.75
X60.09 Y59.91 Z-0.531 R0.75
X58.792 Y59.158 Z-0.737 R0.75
X60.09 Y59.91 Z-0.943 R0.75
X58.792 Y59.158 Z-1.149 R0.75
X60.09 Y59.91 Z-1.355 R0.75
X58.792 Y59.158 Z-1.561 R0.75
X60.09 Y59.91 Z-1.768 R0.75
X58.792 Y59.158 Z-1.974 R0.75
X60.09 Y59.91 Z-2.18 R0.75
X58.792 Y59.158 Z-2.386 R0.75
X60.09 Y59.91 Z-2.592 R0.75
X58.792 Y59.158 Z-2.798 R0.75
X60.09 Y59.91 Z-3.004 R0.75
X58.792 Y59.158 Z-3.211 R0.75
X60.09 Y59.91 Z-3.417 R0.75
X58.792 Y59.158 Z-3.623 R0.75
X60.09 Y59.91 Z-3.829 R0.75
X58.792 Y59.158 Z-4.035 R0.75
X60.09 Y59.91 Z-4.241 R0.75
X58.792 Y59.158 Z-4.447 R0.75
X60.09 Y59.91 Z-4.654 R0.75
X58.792 Y59.158 Z-4.86 R0.75
X60.09 Y59.91 Z-5.066 R0.75
X58.792 Y59.158 Z-5.272 R0.75
X60.09 Y59.91 Z-5.478 R0.75
X58.792 Y59.158 Z-5.684 R0.75
X60.09 Y59.91 Z-5.89 R0.75
X58.792 Y59.158 Z-6.096 R0.75
X60.09 Y59.91 Z-6.303 R0.75
X58.792 Y59.158 Z-6.509 R0.75
X60.09 Y59.91 Z-6.715 R0.75
X58.792 Y59.158 Z-6.921 R0.75
X60.09 Y59.91 Z-7.127 R0.75
X58.792 Y59.158 Z-7.333 R0.75
X60.09 Y59.91 Z-7.539 R0.75
X58.792 Y59.158 Z-7.746 R0.75
X60.09 Y59.91 Z-7.952 R0.75
X58.792 Y59.158 Z-8.158 R0.75
X60.09 Y59.91 Z-8.364 R0.75
X58.792 Y59.158 Z-8.57 R0.75
X60.09 Y59.91 Z-8.776 R0.75
X58.792 Y59.158 Z-8.982 R0.75
X60.09 Y59.91 Z-9.189 R0.75
X58.792 Y59.158 Z-9.395 R0.75
X60.09 Y59.91 Z-9.601 R0.75
X58.792 Y59.158 Z-9.807 R0.75
X60.09 Y59.91 Z-10.013 R0.75
X58.792 Y59.158 Z-10.219 R0.75
X60.09 Y59.91 Z-10.425 R0.75
X58.792 Y59.158 Z-10.632 R0.75
X60.09 Y59.91 Z-10.838 R0.75
X58.792 Y59.158 Z-11.044 R0.75
X60.09 Y59.91 Z-11.25 R0.75
X58.792 Y59.158 Z-11.456 R0.75
X60.09 Y59.91 Z-11.662 R0.75
X58.792 Y59.158 Z-11.868 R0.75
X60.09 Y59.91 Z-12.075 R0.75
X58.792 Y59.158 Z-12.281 R0.75
X59.88 Y58.926 Z-12.39 R0.75
X60.002 Y60.032 Z-12.5 R0.75
G1 X59.975 Y60.063
G3 X59.909 Y60.096 R0.099
G1 X59.898 Y60.097
G3 X59.817 Y60.077 R0.13
G1 X59.805 Y60.07
G3 X59.737 Y59.986 R0.17
G1 X59.723 Y59.948
G3 X59.735 Y59.758 R0.234
G1 X59.744 Y59.74
G3 X59.942 Y59.557 R0.398
G1 X59.959 Y59.55
G3 X60.291 Y59.544 R0.445
G1 X60.326 Y59.557
G3 X60.621 Y59.833 R0.536
G1 X60.639 Y59.871
G3 X60.667 Y60.338 R0.642
G1 X60.656 Y60.373
G3 X60.324 Y60.783 R0.736
G1 X60.292 Y60.802
G3 X59.693 Y60.895 R0.833
G1 X59.616 Y60.877
G3 X58.864 Y60.141 R0.996
G1 X58.86 Y60.124
G3 X58.862 Y59.569 R1.151
G1 X58.865 Y59.56
G3 X59.143 Y59.046 R1.19
G1 X59.161 Y59.026
G3 X59.685 Y58.682 R1.294
G1 X59.698 Y58.677
G3 X60.339 Y58.614 R1.353
G1 X60.353 Y58.616
G3 X60.987 Y58.876 R1.409
G1 X61.002 Y58.887
G3 X61.457 Y59.434 R1.484
G1 X61.466 Y59.451
G3 X61.622 Y60.184 R1.561
G1 X61.621 Y60.203
G3 X61.405 Y60.963 R1.633
G1 X61.398 Y60.975
G3 X60.83 Y61.564 R1.689
G1 X60.811 Y61.576
G3 X59.996 Y61.843 R1.781
G1 X59.983 Y61.844
G3 X59.12 Y61.698 R1.833
G1 X59.104 Y61.691
G3 X58.373 Y61.132 R1.902
G1 X58.359 Y61.114
G3 X57.957 Y60.233 R1.994
G1 X57.952 Y60.204
G3 X58.906 Y58.066 R2.067
G1 X58.943 Y58.043
G3 X61.099 Y57.906 R2.314
G1 X61.104 Y57.908
G3 X62.002 Y58.613 R2.365
G1 X62.009 Y58.623
G3 X62.483 Y59.691 R2.416
G1 X62.488 Y59.717
G3 X62.406 Y60.92 R2.525
G1 X62.403 Y60.928
G3 X61.765 Y61.969 R2.558
G1 X61.752 Y61.982
G3 X60.677 Y62.625 R2.632
G1 X60.546 Y62.665
G3 X58.35 Y62.385 R2.678
X57.36 Y61.341 R2.811
G1 X57.31 Y61.25
G3 X56.96 Y60.01 R2.893
X57.639 Y57.917 R3.086
X58.19 Y57.383 R3.113
G1 X58.206 Y57.372
G3 X59.615 Y56.769 R3.2
G1 X59.622 Y56.768
G3 X61.173 Y56.888 R3.281
G1 X61.34 Y56.943
G3 X61.774 Y57.146 R1.963
G1 X61.833 Y57.183
G3 X62.075 Y62.999 R3.533
G1 X62.064 Y63.007
G3 X61.34 Y63.426 R3.487
G1 X60.884 Y63.621
X60.015 Y63.726
X59.107 Y63.619
X58.264 Y63.299
X57.528 Y62.79
X56.932 Y62.118
X56.52 Y61.333
X56.466 Y61.126
X56.303 Y60.466
X56.3 Y59.549
X56.514 Y58.678
X56.736 Y58.255
X56.932 Y57.882
X57.526 Y57.211
X58.285 Y56.692
X59.106 Y56.381
X60.015 Y56.274
X60.886 Y56.38
X61.721 Y56.695
X61.938 Y56.841
X62.472 Y57.21
X63.065 Y57.879
X63.083 Y57.911
X63.486 Y58.678
X63.698 Y59.541
X63.701 Y59.663
X63.697 Y60.465
X63.486 Y61.322
X63.068 Y62.118
X62.472 Y62.79
X61.744 Y63.293
X60.884 Y63.621
G0 Z16.
X60.075 Y59.249
G1 Z-11.402 F200.
G3 X60.086 Y59.257 Z-11.528 R0.75 F440.
X60.116 Y59.282 Z-11.648 R0.75
X60.161 Y59.327 Z-11.757 R0.75
X60.216 Y59.391 Z-11.85 R0.75
X60.272 Y59.477 Z-11.924 R0.75
X60.322 Y59.584 Z-11.975 R0.75
X60.355 Y59.706 Z-12. R0.75
X58.88 Y59.98 Z-12.206 R0.75
X60.355 Y59.706 Z-12.412 R0.75
X58.88 Y59.98 Z-12.618 R0.75
X60.355 Y59.706 Z-12.825 R0.75
X58.88 Y59.98 Z-13.031 R0.75
X60.355 Y59.706 Z-13.237 R0.75
X58.88 Y59.98 Z-13.443 R0.75
X60.355 Y59.706 Z-13.649 R0.75
X58.88 Y59.98 Z-13.855 R0.75
X60.355 Y59.706 Z-14.061 R0.75
X58.88 Y59.98 Z-14.268 R0.75
X60.355 Y59.706 Z-14.474 R0.75
X58.88 Y59.98 Z-14.68 R0.75
X60.355 Y59.706 Z-14.886 R0.75
X58.88 Y59.98 Z-15.092 R0.75
X60.355 Y59.706 Z-15.298 R0.75
X58.88 Y59.98 Z-15.504 R0.75
X60.355 Y59.706 Z-15.711 R0.75
X58.88 Y59.98 Z-15.917 R0.75
X60.355 Y59.706 Z-16.123 R0.75
X58.88 Y59.98 Z-16.329 R0.75
X60.355 Y59.706 Z-16.535 R0.75
X58.88 Y59.98 Z-16.741 R0.75
X60.355 Y59.706 Z-16.947 R0.75
X58.88 Y59.98 Z-17.154 R0.75
X60.355 Y59.706 Z-17.36 R0.75
X58.88 Y59.98 Z-17.566 R0.75
X60.355 Y59.706 Z-17.772 R0.75
X58.88 Y59.98 Z-17.978 R0.75
X60.355 Y59.706 Z-18.184 R0.75
X58.88 Y59.98 Z-18.39 R0.75
X60.355 Y59.706 Z-18.596 R0.75
X58.88 Y59.98 Z-18.803 R0.75
X60.355 Y59.706 Z-19.009 R0.75
X58.88 Y59.98 Z-19.215 R0.75
X60.355 Y59.706 Z-19.421 R0.75
X58.88 Y59.98 Z-19.627 R0.75
X60.355 Y59.706 Z-19.833 R0.75
X58.88 Y59.98 Z-20.039 R0.75
X60.355 Y59.706 Z-20.246 R0.75
X58.88 Y59.98 Z-20.452 R0.75
X60.355 Y59.706 Z-20.658 R0.75
X58.88 Y59.98 Z-20.864 R0.75
X60.355 Y59.706 Z-21.07 R0.75
X58.88 Y59.98 Z-21.276 R0.75
X60.355 Y59.706 Z-21.482 R0.75
X58.88 Y59.98 Z-21.689 R0.75
X60.355 Y59.706 Z-21.895 R0.75
X58.88 Y59.98 Z-22.101 R0.75
X60.355 Y59.706 Z-22.307 R0.75
X58.88 Y59.98 Z-22.513 R0.75
X60.355 Y59.706 Z-22.719 R0.75
X58.88 Y59.98 Z-22.925 R0.75
X60.355 Y59.706 Z-23.132 R0.75
X58.88 Y59.98 Z-23.338 R0.75
X60.355 Y59.706 Z-23.544 R0.75
X58.88 Y59.98 Z-23.75 R0.75
X60.355 Y59.706 Z-23.956 R0.75
X58.88 Y59.98 Z-24.162 R0.75
X60.355 Y59.706 Z-24.368 R0.75
X58.88 Y59.98 Z-24.575 R0.75
X60.355 Y59.706 Z-24.781 R0.75
X58.88 Y59.98 Z-24.987 R0.75
X60.355 Y59.706 Z-25.193 R0.75
X58.88 Y59.98 Z-25.399 R0.75
X60.355 Y59.706 Z-25.605 R0.75
X58.88 Y59.98 Z-25.811 R0.75
X60.355 Y59.706 Z-26.018 R0.75
X58.88 Y59.98 Z-26.224 R0.75
X60.355 Y59.706 Z-26.43 R0.75
X58.88 Y59.98 Z-26.636 R0.75
X60.355 Y59.706 Z-26.842 R0.75
X58.88 Y59.98 Z-27.048 R0.75
X60.355 Y59.706 Z-27.254 R0.75
X58.88 Y59.98 Z-27.461 R0.75
X58.932 Y59.539 Z-27.5 R0.75
X60.006 Y60.025 R0.59
G1 X59.999 Y60.04
G3 X59.972 Y60.066 R0.048
G1 X59.957 Y60.071
G3 X59.89 Y60.067 R0.085
G1 X59.876 Y60.06
G3 X59.816 Y59.993 R0.123
G1 X59.809 Y59.973
G3 X59.807 Y59.854 R0.179
G1 X59.812 Y59.838
G3 X59.905 Y59.719 R0.227
G1 X59.925 Y59.706
G3 X60.105 Y59.659 R0.298
G1 X60.12 Y59.66
G3 X60.314 Y59.736 R0.343
G1 X60.328 Y59.747
G3 X60.462 Y59.952 R0.4
G1 X60.467 Y59.972
G3 X60.456 Y60.255 R0.465
G1 X60.451 Y60.267
G3 X60.264 Y60.509 R0.506
G1 X60.244 Y60.523
G3 X59.906 Y60.627 R0.584
G1 X59.894
G3 X59.54 Y60.512 R0.621
G1 X59.523 Y60.5
G3 X59.276 Y60.174 R0.686
G1 X59.26 Y60.129
G3 X59.402 Y59.366 R0.767
G1 X59.409 Y59.358
G3 X59.606 Y59.19 R0.862
X59.859 Y59.083 R0.878
G1 X59.872 Y59.08
G3 X60.611 Y59.212 R0.92
G1 X60.632 Y59.226
G3 X61.053 Y60.41 R1.063
G1 X61.051 Y60.415
G3 X60.907 Y60.721 R1.126
G1 X60.903 Y60.727
G3 X60.678 Y60.971 R1.084
G1 X60.518 Y61.098
X60.177 Y61.203
X59.819
X59.472 Y61.096
X59.173 Y60.891
X58.947 Y60.608
X58.814 Y60.271
X58.788 Y59.916
X58.869 Y59.555
X59.051 Y59.24
X59.315 Y58.995
X59.641 Y58.838
X60.011 Y58.786
X60.347 Y58.836
X60.592 Y58.951
X60.69 Y59.
X60.951 Y59.242
X61.131 Y59.554
X61.212 Y59.916
X61.186 Y60.271
X61.053 Y60.608
X60.83 Y60.888
X60.518 Y61.098
G0 Z16.
X59.419 Y21.205
Z1.098
G1 X59.416 Z1.041 F440.
G3 X59.387 Y21.204 Z0.906 R0.75
X59.328 Y21.199 Z0.78 R0.75
X59.243 Y21.183 Z0.672 R0.75
X59.14 Y21.149 Z0.586 R0.75
X59.028 Y21.091 Z0.528 R0.75
X58.92 Y21.009 Z0.5 R0.75
X59.931 Y19.901 Z0.294 R0.75
X58.92 Y21.009 Z0.088 R0.75
X59.931 Y19.901 Z-0.118 R0.75
X58.92 Y21.009 Z-0.325 R0.75
X59.931 Y19.901 Z-0.531 R0.75
X58.92 Y21.009 Z-0.737 R0.75
X59.931 Y19.901 Z-0.943 R0.75
X58.92 Y21.009 Z-1.149 R0.75
X59.931 Y19.901 Z-1.355 R0.75
X58.92 Y21.009 Z-1.561 R0.75
X59.931 Y19.901 Z-1.768 R0.75
X58.92 Y21.009 Z-1.974 R0.75
X59.931 Y19.901 Z-2.18 R0.75
X58.92 Y21.009 Z-2.386 R0.75
X59.931 Y19.901 Z-2.592 R0.75
X58.92 Y21.009 Z-2.798 R0.75
X59.931 Y19.901 Z-3.004 R0.75
X58.92 Y21.009 Z-3.211 R0.75
X59.931 Y19.901 Z-3.417 R0.75
X58.92 Y21.009 Z-3.623 R0.75
X59.931 Y19.901 Z-3.829 R0.75
X58.92 Y21.009 Z-4.035 R0.75
X59.931 Y19.901 Z-4.241 R0.75
X58.92 Y21.009 Z-4.447 R0.75
X59.931 Y19.901 Z-4.654 R0.75
X58.92 Y21.009 Z-4.86 R0.75
X59.931 Y19.901 Z-5.066 R0.75
X58.92 Y21.009 Z-5.272 R0.75
X59.931 Y19.901 Z-5.478 R0.75
X58.92 Y21.009 Z-5.684 R0.75
X59.931 Y19.901 Z-5.89 R0.75
X58.92 Y21.009 Z-6.096 R0.75
X59.931 Y19.901 Z-6.303 R0.75
X58.92 Y21.009 Z-6.509 R0.75
X59.931 Y19.901 Z-6.715 R0.75
X58.92 Y21.009 Z-6.921 R0.75
X59.931 Y19.901 Z-7.127 R0.75
X58.92 Y21.009 Z-7.333 R0.75
X59.931 Y19.901 Z-7.539 R0.75
X58.92 Y21.009 Z-7.746 R0.75
X59.931 Y19.901 Z-7.952 R0.75
X58.92 Y21.009 Z-8.158 R0.75
X59.931 Y19.901 Z-8.364 R0.75
X58.92 Y21.009 Z-8.57 R0.75
X59.931 Y19.901 Z-8.776 R0.75
X58.92 Y21.009 Z-8.982 R0.75
X59.931 Y19.901 Z-9.189 R0.75
X58.92 Y21.009 Z-9.395 R0.75
X59.931 Y19.901 Z-9.601 R0.75
X58.92 Y21.009 Z-9.807 R0.75
X59.931 Y19.901 Z-10.013 R0.75
X58.92 Y21.009 Z-10.219 R0.75
X59.931 Y19.901 Z-10.425 R0.75
X58.92 Y21.009 Z-10.632 R0.75
X59.931 Y19.901 Z-10.838 R0.75
X58.92 Y21.009 Z-11.044 R0.75
X59.931 Y19.901 Z-11.25 R0.75
X58.92 Y21.009 Z-11.456 R0.75
X59.931 Y19.901 Z-11.662 R0.75
X58.92 Y21.009 Z-11.868 R0.75
X59.931 Y19.901 Z-12.075 R0.75
X58.92 Y21.009 Z-12.281 R0.75
X58.925 Y19.897 Z-12.39 R0.75
X60.032 Y20.013 Z-12.5 R0.75
G1 X60.047 Y20.035
G3 X60.06 Y20.117 R0.089
G1 X60.054 Y20.133
G3 X60.002 Y20.199 R0.128
G1 X59.984 Y20.211
G3 X59.869 Y20.241 R0.192
G1 X59.85 Y20.24
G3 X59.723 Y20.199 R0.255
G1 X59.709 Y20.189
G3 X59.595 Y20.056 R0.317
G1 X59.583 Y20.031
G3 X59.646 Y19.601 R0.401
G1 X59.7 Y19.539
G3 X60.359 Y19.392 R0.57
G1 X60.397 Y19.409
G3 X60.796 Y19.815 R0.767
G1 X60.802 Y19.832
G3 X60.819 Y20.415 R0.814
G1 X60.798 Y20.476
G3 X60.007 Y21.111 R0.962
G1 X59.984 Y21.114
G3 X59.454 Y21.047 R1.099
G1 X59.436 Y21.04
G3 X58.973 Y20.715 R1.177
G1 X58.964 Y20.704
G3 X58.692 Y20.168 R1.234
G1 X58.684 Y20.132
G3 X58.941 Y19.051 R1.26
G1 X58.985 Y18.998
G3 X61.099 Y18.744 R1.543
G1 X61.117 Y18.758
G3 X61.622 Y19.372 R1.658
G1 X61.628 Y19.385
G3 X61.794 Y20.188 R1.717
G1 X61.793 Y20.216
G3 X61.545 Y21.069 R1.828
G1 X61.542 Y21.074
G3 X60.92 Y21.714 R1.852
G1 X60.898 Y21.728
G3 X59.998 Y22.018 R1.956
G1 X59.985
G3 X59.035 Y21.85 R2.007
G1 X59.017 Y21.842
G3 X58.228 Y21.23 R2.087
G1 X58.219 Y21.219
G3 X57.792 Y20.276 R2.144
G1 X57.784 Y20.233
G3 X58.824 Y17.913 R2.241
G1 X58.858 Y17.892
G3 X61.18 Y17.753 R2.492
X62.146 Y18.515 R2.548
G1 X62.332 Y18.756
G3 X62.624 Y19.425 R1.488
G1 X62.65 Y19.584
G3 X62.539 Y21.071 R3.173
G1 X62.534 Y21.088
G3 X61.031 Y22.749 R2.721
X59.663 Y22.985 R2.921
G1 X59.645 Y22.983
G3 X58.264 Y22.539 R3.022
G1 X58.257 Y22.535
G3 X57.202 Y21.435 R3.051
G1 X57.182 Y21.398
G3 X56.782 Y20.012 R3.141
X57.979 Y17.339 R3.234
G1 X58.012 Y17.313
G3 X61.248 Y16.727 R3.424
X62.678 Y17.63 R3.535
X63.197 Y18.32 R3.573
G1 X63.3 Y18.499
G3 X63.485 Y18.932 R1.947
G1 X63.545 Y19.138
G3 X63.678 Y19.952 R3.482
G1 X63.7 Y20.452
X63.486 Y21.322
X63.068 Y22.118
X62.474 Y22.788
X61.72 Y23.305
X60.886 Y23.62
X60.015 Y23.726
X59.106 Y23.619
X58.281 Y23.306
X57.527 Y22.789
X56.932 Y22.118
X56.519 Y21.332
X56.484 Y21.201
X56.304 Y20.467
X56.3 Y19.548
X56.514 Y18.678
X56.736 Y18.255
X56.923 Y17.899
X57.414 Y17.338
X57.528 Y17.21
X58.266 Y16.7
X59.106 Y16.381
X60.015 Y16.274
X60.884 Y16.379
X61.742 Y16.706
X62.472 Y17.21
X63.068 Y17.882
X63.479 Y18.666
X63.534 Y18.873
X63.696 Y19.533
X63.7 Y20.452
G0 Z16.
X59.338 Y19.639
G1 Z-11.402 F200.
G3 X59.35 Y19.632 Z-11.528 R0.75 F440.
X59.384 Y19.615 Z-11.648 R0.75
X59.443 Y19.59 Z-11.757 R0.75
X59.524 Y19.564 Z-11.85 R0.75
X59.625 Y19.546 Z-11.924 R0.75
X59.742 Y19.542 Z-11.975 R0.75
X59.867 Y19.558 Z-12. R0.75
X59.548 Y21.024 Z-12.206 R0.75
X59.867 Y19.558 Z-12.412 R0.75
X59.548 Y21.024 Z-12.618 R0.75
X59.867 Y19.558 Z-12.825 R0.75
X59.548 Y21.024 Z-13.031 R0.75
X59.867 Y19.558 Z-13.237 R0.75
X59.548 Y21.024 Z-13.443 R0.75
X59.867 Y19.558 Z-13.649 R0.75
X59.548 Y21.024 Z-13.855 R0.75
X59.867 Y19.558 Z-14.061 R0.75
X59.548 Y21.024 Z-14.268 R0.75
X59.867 Y19.558 Z-14.474 R0.75
X59.548 Y21.024 Z-14.68 R0.75
X59.867 Y19.558 Z-14.886 R0.75
X59.548 Y21.024 Z-15.092 R0.75
X59.867 Y19.558 Z-15.298 R0.75
X59.548 Y21.024 Z-15.504 R0.75
X59.867 Y19.558 Z-15.711 R0.75
X59.548 Y21.024 Z-15.917 R0.75
X59.867 Y19.558 Z-16.123 R0.75
X59.548 Y21.024 Z-16.329 R0.75
X59.867 Y19.558 Z-16.535 R0.75
X59.548 Y21.024 Z-16.741 R0.75
X59.867 Y19.558 Z-16.947 R0.75
X59.548 Y21.024 Z-17.154 R0.75
X59.867 Y19.558 Z-17.36 R0.75
X59.548 Y21.024 Z-17.566 R0.75
X59.867 Y19.558 Z-17.772 R0.75
X59.548 Y21.024 Z-17.978 R0.75
X59.867 Y19.558 Z-18.184 R0.75
X59.548 Y21.024 Z-18.39 R0.75
X59.867 Y19.558 Z-18.596 R0.75
X59.548 Y21.024 Z-18.803 R0.75
X59.867 Y19.558 Z-19.009 R0.75
X59.548 Y21.024 Z-19.215 R0.75
X59.867 Y19.558 Z-19.421 R0.75
X59.548 Y21.024 Z-19.627 R0.75
X59.867 Y19.558 Z-19.833 R0.75
X59.548 Y21.024 Z-20.039 R0.75
X59.867 Y19.558 Z-20.246 R0.75
X59.548 Y21.024 Z-20.452 R0.75
X59.867 Y19.558 Z-20.658 R0.75
X59.548 Y21.024 Z-20.864 R0.75
X59.867 Y19.558 Z-21.07 R0.75
X59.548 Y21.024 Z-21.276 R0.75
X59.867 Y19.558 Z-21.482 R0.75
X59.548 Y21.024 Z-21.689 R0.75
X59.867 Y19.558 Z-21.895 R0.75
X59.548 Y21.024 Z-22.101 R0.75
X59.867 Y19.558 Z-22.307 R0.75
X59.548 Y21.024 Z-22.513 R0.75
X59.867 Y19.558 Z-22.719 R0.75
X59.548 Y21.024 Z-22.925 R0.75
X59.867 Y19.558 Z-23.132 R0.75
X59.548 Y21.024 Z-23.338 R0.75
X59.867 Y19.558 Z-23.544 R0.75
X59.548 Y21.024 Z-23.75 R0.75
X59.867 Y19.558 Z-23.956 R0.75
X59.548 Y21.024 Z-24.162 R0.75
X59.867 Y19.558 Z-24.368 R0.75
X59.548 Y21.024 Z-24.575 R0.75
X59.867 Y19.558 Z-24.781 R0.75
X59.548 Y21.024 Z-24.987 R0.75
X59.867 Y19.558 Z-25.193 R0.75
X59.548 Y21.024 Z-25.399 R0.75
X59.867 Y19.558 Z-25.605 R0.75
X59.548 Y21.024 Z-25.811 R0.75
X59.867 Y19.558 Z-26.018 R0.75
X59.548 Y21.024 Z-26.224 R0.75
X59.867 Y19.558 Z-26.43 R0.75
X59.548 Y21.024 Z-26.636 R0.75
X59.867 Y19.558 Z-26.842 R0.75
X59.548 Y21.024 Z-27.048 R0.75
X59.867 Y19.558 Z-27.254 R0.75
X59.548 Y21.024 Z-27.461 R0.75
X59.162 Y20.805 Z-27.5 R0.75
X60.027 Y20.004 R0.59
G1 X60.042 Y20.02
G3 X60.051 Y20.079 R0.052
G1 X60.039 Y20.102
G3 X59.977 Y20.158 R0.116
G1 X59.966 Y20.162
G3 X59.863 R0.146
G1 X59.842 Y20.154
G3 X59.739 Y20.069 R0.206
G1 X59.73 Y20.056
G3 X59.694 Y19.898 R0.252
G1 X59.697 Y19.873
G3 X59.782 Y19.684 R0.328
G1 X59.792 Y19.674
G3 X59.989 Y19.562 R0.371
G1 X60.025 Y19.554
G3 X60.38 Y19.649 R0.409
G1 X60.399 Y19.666
G3 X60.552 Y20.315 R0.58
G1 X60.549 Y20.324
G3 X60.31 Y20.614 R0.618
G1 X60.29 Y20.627
G3 X59.893 Y20.737 R0.694
G1 X59.846 Y20.736
G3 X59.192 Y20.326 R0.765
G1 X59.187 Y20.316
G3 X59.102 Y20.07 R0.868
X59.094 Y19.808 R0.876
G1 X59.095 Y19.796
G3 X59.329 Y19.277 R0.951
X59.556 Y19.087 R0.978
X59.844 Y18.967 R1.008
X60.093 Y18.937 R1.037
X60.156 Y18.939 R1.037
X60.459 Y19.002 R1.059
G1 X60.529 Y19.027
G3 X60.72 Y19.134 R0.703
G1 X60.767 Y19.17
G3 X60.997 Y19.413 R1.127
G1 X61.008 Y19.429
G3 X61.153 Y19.725 R1.069
G1 X61.212 Y19.918
X61.186 Y20.271
X61.055 Y20.603
X61.017 Y20.653
X60.828 Y20.89
X60.518 Y21.098
X60.177 Y21.203
X59.819
X59.473 Y21.096
X59.171 Y20.89
X58.947 Y20.608
X58.814 Y20.271
X58.788 Y19.918
X58.869 Y19.554
X59.051 Y19.24
X59.315 Y18.995
X59.641 Y18.838
X59.649 Y18.837
X60. Y18.784
X60.347 Y18.836
X60.592 Y18.951
X60.69 Y19.
X60.946 Y19.238
X61.131 Y19.555
X61.212 Y19.918
G0 Z16.
X19.83 Y21.317
Z1.098
G1 X19.828 Y21.318 Z1.041 F440.
G3 X19.8 Y21.326 Z0.906 R0.75
X19.742 Y21.34 Z0.78 R0.75
X19.657 Y21.351 Z0.672 R0.75
X19.548 Y21.352 Z0.586 R0.75
X19.424 Y21.333 Z0.528 R0.75
X19.295 Y21.29 Z0.5 R0.75
X19.901 Y19.918 Z0.294 R0.75
X19.295 Y21.29 Z0.088 R0.75
X19.901 Y19.918 Z-0.118 R0.75
X19.295 Y21.29 Z-0.325 R0.75
X19.901 Y19.918 Z-0.531 R0.75
X19.295 Y21.29 Z-0.737 R0.75
X19.901 Y19.918 Z-0.943 R0.75
X19.295 Y21.29 Z-1.149 R0.75
X19.901 Y19.918 Z-1.355 R0.75
X19.295 Y21.29 Z-1.561 R0.75
X19.901 Y19.918 Z-1.768 R0.75
X19.295 Y21.29 Z-1.974 R0.75
X19.901 Y19.918 Z-2.18 R0.75
X19.295 Y21.29 Z-2.386 R0.75
X19.901 Y19.918 Z-2.592 R0.75
X19.295 Y21.29 Z-2.798 R0.75
X19.901 Y19.918 Z-3.004 R0.75
X19.295 Y21.29 Z-3.211 R0.75
X19.901 Y19.918 Z-3.417 R0.75
X19.295 Y21.29 Z-3.623 R0.75
X19.901 Y19.918 Z-3.829 R0.75
X19.295 Y21.29 Z-4.035 R0.75
X19.901 Y19.918 Z-4.241 R0.75
X19.295 Y21.29 Z-4.447 R0.75
X19.901 Y19.918 Z-4.654 R0.75
X19.295 Y21.29 Z-4.86 R0.75
X19.901 Y19.918 Z-5.066 R0.75
X19.295 Y21.29 Z-5.272 R0.75
X19.901 Y19.918 Z-5.478 R0.75
X19.295 Y21.29 Z-5.684 R0.75
X19.901 Y19.918 Z-5.89 R0.75
X19.295 Y21.29 Z-6.096 R0.75
X19.901 Y19.918 Z-6.303 R0.75
X19.295 Y21.29 Z-6.509 R0.75
X19.901 Y19.918 Z-6.715 R0.75
X19.295 Y21.29 Z-6.921 R0.75
X19.901 Y19.918 Z-7.127 R0.75
X19.295 Y21.29 Z-7.333 R0.75
X19.901 Y19.918 Z-7.539 R0.75
X19.295 Y21.29 Z-7.746 R0.75
X19.901 Y19.918 Z-7.952 R0.75
X19.295 Y21.29 Z-8.158 R0.75
X19.901 Y19.918 Z-8.364 R0.75
X19.295 Y21.29 Z-8.57 R0.75
X19.901 Y19.918 Z-8.776 R0.75
X19.295 Y21.29 Z-8.982 R0.75
X19.901 Y19.918 Z-9.189 R0.75
X19.295 Y21.29 Z-9.395 R0.75
X19.901 Y19.918 Z-9.601 R0.75
X19.295 Y21.29 Z-9.807 R0.75
X19.901 Y19.918 Z-10.013 R0.75
X19.295 Y21.29 Z-10.219 R0.75
X19.901 Y19.918 Z-10.425 R0.75
X19.295 Y21.29 Z-10.632 R0.75
X19.901 Y19.918 Z-10.838 R0.75
X19.295 Y21.29 Z-11.044 R0.75
X19.901 Y19.918 Z-11.25 R0.75
X19.295 Y21.29 Z-11.456 R0.75
X19.901 Y19.918 Z-11.662 R0.75
X19.295 Y21.29 Z-11.868 R0.75
X19.901 Y19.918 Z-12.075 R0.75
X19.295 Y21.29 Z-12.281 R0.75
X18.946 Y20.233 Z-12.39 R0.75
X20.032 Y19.992 Z-12.5 R0.75
G1 X20.068 Y20.017
G3 X20.108 Y20.076 R0.102
G1 X20.11 Y20.084
G3 X20.1 Y20.168 R0.121
G1 X20.089 Y20.189
G3 X20.013 Y20.267 R0.186
G1 X19.999 Y20.275
G3 X19.857 Y20.301 R0.236
G1 X19.833 Y20.298
G3 X19.653 Y20.211 R0.31
G1 X19.626 Y20.183
G3 X19.502 Y19.895 R0.419
G1 X19.501 Y19.845
G3 X19.859 Y19.342 R0.516
G1 X19.92 Y19.323
G3 X20.451 Y19.356 R0.732
G1 X20.488 Y19.373
G3 X20.93 Y20.145 R0.769
G1 X20.92 Y20.257
G3 X20.258 Y21.119 R1.027
X19.716 Y21.182 R1.135
G1 X19.702 Y21.181
G3 X19.169 Y20.974 R1.193
G1 X19.147 Y20.959
G3 X18.733 Y20.482 R1.298
G1 X18.729 Y20.474
G3 X18.586 Y19.845 R1.335
G1 Y19.823
G3 X18.767 Y19.155 R1.424
G1 X18.774 Y19.143
G3 X19.267 Y18.62 R1.479
G1 X19.287 Y18.607
G3 X20.005 Y18.364 R1.574
G1 X20.016 Y18.363
G3 X20.782 Y18.486 R1.618
G1 X20.802 Y18.495
G3 X21.454 Y18.983 R1.705
G1 X21.465 Y18.996
G3 X21.834 Y19.784 R1.769
G1 X21.837 Y19.799
G3 X21.793 Y20.669 R1.833
G1 X21.788 Y20.685
G3 X21.321 Y21.474 R1.898
G1 X21.304 Y21.492
G3 X20.483 Y21.995 R2.
G1 X20.473 Y21.998
G3 X19.499 Y22.063 R2.044
G1 X19.486 Y22.06
G3 X18.57 Y21.655 R2.1
G1 X18.548 Y21.639
G3 X17.885 Y20.802 R2.21
G1 X17.882 Y20.795
G3 X17.685 Y19.738 R2.241
G1 X17.687 Y19.714
G3 X18.022 Y18.64 R2.335
G1 X18.028 Y18.63
G3 X18.845 Y17.819 R2.384
G1 X18.867 Y17.806
G3 X20.007 Y17.459 R2.487
G1 X20.016 Y17.458
G3 X21.202 Y17.684 R2.522
G1 X21.221 Y17.692
G3 X22.2 Y18.471 R2.606
G1 X22.325 Y18.634
G3 X22.717 Y19.542 R2.012
X17.146 Y21.478 R2.995
G1 X17.111 Y21.415
G3 X16.708 Y20.003 R3.193
X17.962 Y17.256 R3.308
G1 X17.992 Y17.233
G3 X22.048 Y17.027 R3.505
G1 X22.073 Y17.043
G3 X22.731 Y17.582 R3.573
G1 X22.735 Y17.586
G3 X23.24 Y18.255 R3.53
G1 X23.48 Y18.668
X23.534 Y18.873
X23.696 Y19.533
X23.7 Y20.452
X23.486 Y21.322
X23.07 Y22.115
X22.473 Y22.789
X21.719 Y23.306
X20.893 Y23.619
X19.993 Y23.727
X19.122 Y23.621
X18.28 Y23.305
X17.519 Y22.78
X16.932 Y22.118
X16.519 Y21.332
X16.484 Y21.201
X16.301 Y20.456
X16.299 Y19.552
X16.305 Y19.526
X16.514 Y18.678
X16.923 Y17.899
X17.44 Y17.309
X17.523 Y17.215
X17.561 Y17.187
X18.275 Y16.697
X19.122 Y16.379
X19.993 Y16.273
X20.893 Y16.381
X21.732 Y16.699
X22.469 Y17.207
X22.486 Y17.226
X23.057 Y17.87
X23.48 Y18.668
G0 Z16.
X20.35 Y19.306
G1 Z-11.402 F200.
G3 X20.357 Y19.318 Z-11.528 R0.75 F440.
X20.374 Y19.353 Z-11.648 R0.75
X20.399 Y19.411 Z-11.757 R0.75
X20.424 Y19.492 Z-11.85 R0.75
X20.441 Y19.593 Z-11.924 R0.75
X20.444 Y19.711 Z-11.975 R0.75
X20.427 Y19.836 Z-12. R0.75
X18.964 Y19.507 Z-12.206 R0.75
X20.427 Y19.836 Z-12.412 R0.75
X18.964 Y19.507 Z-12.618 R0.75
X20.427 Y19.836 Z-12.825 R0.75
X18.964 Y19.507 Z-13.031 R0.75
X20.427 Y19.836 Z-13.237 R0.75
X18.964 Y19.507 Z-13.443 R0.75
X20.427 Y19.836 Z-13.649 R0.75
X18.964 Y19.507 Z-13.855 R0.75
X20.427 Y19.836 Z-14.061 R0.75
X18.964 Y19.507 Z-14.268 R0.75
X20.427 Y19.836 Z-14.474 R0.75
X18.964 Y19.507 Z-14.68 R0.75
X20.427 Y19.836 Z-14.886 R0.75
X18.964 Y19.507 Z-15.092 R0.75
X20.427 Y19.836 Z-15.298 R0.75
X18.964 Y19.507 Z-15.504 R0.75
X20.427 Y19.836 Z-15.711 R0.75
X18.964 Y19.507 Z-15.917 R0.75
X20.427 Y19.836 Z-16.123 R0.75
X18.964 Y19.507 Z-16.329 R0.75
X20.427 Y19.836 Z-16.535 R0.75
X18.964 Y19.507 Z-16.741 R0.75
X20.427 Y19.836 Z-16.947 R0.75
X18.964 Y19.507 Z-17.154 R0.75
X20.427 Y19.836 Z-17.36 R0.75
X18.964 Y19.507 Z-17.566 R0.75
X20.427 Y19.836 Z-17.772 R0.75
X18.964 Y19.507 Z-17.978 R0.75
X20.427 Y19.836 Z-18.184 R0.75
X18.964 Y19.507 Z-18.39 R0.75
X20.427 Y19.836 Z-18.596 R0.75
X18.964 Y19.507 Z-18.803 R0.75
X20.427 Y19.836 Z-19.009 R0.75
X18.964 Y19.507 Z-19.215 R0.75
X20.427 Y19.836 Z-19.421 R0.75
X18.964 Y19.507 Z-19.627 R0.75
X20.427 Y19.836 Z-19.833 R0.75
X18.964 Y19.507 Z-20.039 R0.75
X20.427 Y19.836 Z-20.246 R0.75
X18.964 Y19.507 Z-20.452 R0.75
X20.427 Y19.836 Z-20.658 R0.75
X18.964 Y19.507 Z-20.864 R0.75
X20.427 Y19.836 Z-21.07 R0.75
X18.964 Y19.507 Z-21.276 R0.75
X20.427 Y19.836 Z-21.482 R0.75
X18.964 Y19.507 Z-21.689 R0.75
X20.427 Y19.836 Z-21.895 R0.75
X18.964 Y19.507 Z-22.101 R0.75
X20.427 Y19.836 Z-22.307 R0.75
X18.964 Y19.507 Z-22.513 R0.75
X20.427 Y19.836 Z-22.719 R0.75
X18.964 Y19.507 Z-22.925 R0.75
X20.427 Y19.836 Z-23.132 R0.75
X18.964 Y19.507 Z-23.338 R0.75
X20.427 Y19.836 Z-23.544 R0.75
X18.964 Y19.507 Z-23.75 R0.75
X20.427 Y19.836 Z-23.956 R0.75
X18.964 Y19.507 Z-24.162 R0.75
X20.427 Y19.836 Z-24.368 R0.75
X18.964 Y19.507 Z-24.575 R0.75
X20.427 Y19.836 Z-24.781 R0.75
X18.964 Y19.507 Z-24.987 R0.75
X20.427 Y19.836 Z-25.193 R0.75
X18.964 Y19.507 Z-25.399 R0.75
X20.427 Y19.836 Z-25.605 R0.75
X18.964 Y19.507 Z-25.811 R0.75
X20.427 Y19.836 Z-26.018 R0.75
X18.964 Y19.507 Z-26.224 R0.75
X20.427 Y19.836 Z-26.43 R0.75
X18.964 Y19.507 Z-26.636 R0.75
X20.427 Y19.836 Z-26.842 R0.75
X18.964 Y19.507 Z-27.048 R0.75
X20.427 Y19.836 Z-27.254 R0.75
X18.964 Y19.507 Z-27.461 R0.75
X19.185 Y19.122 Z-27.5 R0.75
G1 X19.329 Y18.988
X19.642 Y18.838
X20. Y18.784
X20.358 Y18.838
X20.675 Y18.99
X20.955 Y19.249
X21.131 Y19.553
X21.212 Y19.918
X21.186 Y20.271
X21.053 Y20.608
X20.827 Y20.891
X20.528 Y21.096
X20.181 Y21.203
X19.83
X19.469 Y21.094
X19.173 Y20.891
X18.947 Y20.608
X18.815 Y20.273
X18.789 Y19.903
X18.868 Y19.556
X19.041 Y19.256
X19.185 Y19.122
G3 X19.292 Y19.043 Z-27.485 R0.6
X19.408 Y18.991 Z-27.441 R0.6
X19.519 Y18.966 Z-27.369 R0.6
X19.614 Y18.962 Z-27.274 R0.6
X19.685 Y18.969 Z-27.16 R0.6
X19.728 Y18.977 Z-27.034 R0.6
X19.743 Y18.981 Z-26.9 R0.6
G0 Z16.
X19.041 Y60.939
Z1.098
G1 X19.038 Y60.938 Z1.041 F440.
G3 X19.012 Y60.927 Z0.906 R0.75
X18.958 Y60.902 Z0.78 R0.75
X18.884 Y60.858 Z0.672 R0.75
X18.798 Y60.791 Z0.586 R0.75
X18.712 Y60.699 Z0.528 R0.75
X18.638 Y60.586 Z0.5 R0.75
X19.965 Y59.886 Z0.294 R0.75
X18.638 Y60.586 Z0.088 R0.75
X19.965 Y59.886 Z-0.118 R0.75
X18.638 Y60.586 Z-0.325 R0.75
X19.965 Y59.886 Z-0.531 R0.75
X18.638 Y60.586 Z-0.737 R0.75
X19.965 Y59.886 Z-0.943 R0.75
X18.638 Y60.586 Z-1.149 R0.75
X19.965 Y59.886 Z-1.355 R0.75
X18.638 Y60.586 Z-1.561 R0.75
X19.965 Y59.886 Z-1.768 R0.75
X18.638 Y60.586 Z-1.974 R0.75
X19.965 Y59.886 Z-2.18 R0.75
X18.638 Y60.586 Z-2.386 R0.75
X19.965 Y59.886 Z-2.592 R0.75
X18.638 Y60.586 Z-2.798 R0.75
X19.965 Y59.886 Z-3.004 R0.75
X18.638 Y60.586 Z-3.211 R0.75
X19.965 Y59.886 Z-3.417 R0.75
X18.638 Y60.586 Z-3.623 R0.75
X19.965 Y59.886 Z-3.829 R0.75
X18.638 Y60.586 Z-4.035 R0.75
X19.965 Y59.886 Z-4.241 R0.75
X18.638 Y60.586 Z-4.447 R0.75
X19.965 Y59.886 Z-4.654 R0.75
X18.638 Y60.586 Z-4.86 R0.75
X19.965 Y59.886 Z-5.066 R0.75
X18.638 Y60.586 Z-5.272 R0.75
X19.965 Y59.886 Z-5.478 R0.75
X18.638 Y60.586 Z-5.684 R0.75
X19.965 Y59.886 Z-5.89 R0.75
X18.638 Y60.586 Z-6.096 R0.75
X19.965 Y59.886 Z-6.303 R0.75
X18.638 Y60.586 Z-6.509 R0.75
X19.965 Y59.886 Z-6.715 R0.75
X18.638 Y60.586 Z-6.921 R0.75
X19.965 Y59.886 Z-7.127 R0.75
X18.638 Y60.586 Z-7.333 R0.75
X19.965 Y59.886 Z-7.539 R0.75
X18.638 Y60.586 Z-7.746 R0.75
X19.965 Y59.886 Z-7.952 R0.75
X18.638 Y60.586 Z-8.158 R0.75
X19.965 Y59.886 Z-8.364 R0.75
X18.638 Y60.586 Z-8.57 R0.75
X19.965 Y59.886 Z-8.776 R0.75
X18.638 Y60.586 Z-8.982 R0.75
X19.965 Y59.886 Z-9.189 R0.75
X18.638 Y60.586 Z-9.395 R0.75
X19.965 Y59.886 Z-9.601 R0.75
X18.638 Y60.586 Z-9.807 R0.75
X19.965 Y59.886 Z-10.013 R0.75
X18.638 Y60.586 Z-10.219 R0.75
X19.965 Y59.886 Z-10.425 R0.75
X18.638 Y60.586 Z-10.632 R0.75
X19.965 Y59.886 Z-10.838 R0.75
X18.638 Y60.586 Z-11.044 R0.75
X19.965 Y59.886 Z-11.25 R0.75
X18.638 Y60.586 Z-11.456 R0.75
X19.965 Y59.886 Z-11.662 R0.75
X18.638 Y60.586 Z-11.868 R0.75
X19.965 Y59.886 Z-12.075 R0.75
X18.638 Y60.586 Z-12.281 R0.75
X19.02 Y59.541 Z-12.39 R0.75
X20.022 Y60.025 Z-12.5 R0.75
G1 X20.027 Y60.045
G3 X19.977 Y60.152 R0.09
G1 X19.951 Y60.164
G3 X19.841 Y60.176 R0.187
G1 X19.832 Y60.174
G3 X19.718 Y60.114 R0.217
G1 X19.709 Y60.104
G3 X19.636 Y59.949 R0.258
G1 X19.63 Y59.89
G3 X19.888 Y59.476 R0.398
G1 X19.94 Y59.457
G3 X20.371 Y59.468 R0.581
G1 X20.389 Y59.476
G3 X20.718 Y59.804 R0.631
G1 X20.737 Y59.846
G3 X20.757 Y60.387 R0.747
G1 X20.746 Y60.418
G3 X20.357 Y60.877 R0.832
G1 X20.287 Y60.915
G3 X19.245 Y60.861 R0.999
G1 X19.235 Y60.854
G3 X18.867 Y60.436 R1.134
G1 X18.857 Y60.417
G3 X18.723 Y59.846 R1.218
G1 Y59.833
G3 X18.879 Y59.24 R1.27
G1 X18.887 Y59.225
G3 X19.332 Y58.744 R1.341
G1 X19.352 Y58.731
G3 X20.005 Y58.505 R1.436
G1 X20.015 Y58.504
G3 X20.718 Y58.61 R1.48
G1 X20.735 Y58.617
G3 X21.339 Y59.064 R1.555
G1 X21.349 Y59.077
G3 X21.688 Y59.788 R1.622
G1 X21.692 Y59.809
G3 X21.655 Y60.636 R1.708
G1 X21.65 Y60.651
G3 X21.222 Y61.38 R1.774
G1 X21.214 Y61.389
G3 X20.469 Y61.852 R1.823
G1 X20.446 Y61.86
G3 X19.526 Y61.925 R1.919
G1 X19.513 Y61.923
G3 X18.651 Y61.545 R1.973
G1 X18.637 Y61.534
G3 X18.017 Y60.755 R2.045
G1 X18.009 Y60.736
G3 X17.823 Y59.733 R2.127
G1 X17.824 Y59.721
G3 X18.131 Y58.728 R2.176
G1 X18.141 Y58.713
G3 X18.908 Y57.945 R2.248
G1 X18.93 Y57.932
G3 X20.009 Y57.599 R2.352
G1 X20.016 Y57.598
G3 X21.137 Y57.808 R2.382
G1 X21.155 Y57.816
G3 X22.085 Y58.55 R2.465
G1 X22.094 Y58.562
G3 X22.587 Y59.68 R2.526
G1 X22.591 Y59.702
G3 X22.5 Y60.959 R2.617
G1 X22.495 Y60.975
G3 X21.824 Y62.059 R2.686
G1 X21.735 Y62.145
G3 X19.646 Y62.914 R2.705
X18.972 Y62.784 R2.888
G1 X18.957 Y62.779
G3 X17.256 Y61.37 R2.964
G1 X17.229 Y61.32
G3 X17.145 Y58.512 R3.117
G1 X17.148 Y58.506
G3 X17.545 Y57.868 R3.187
G1 X17.551 Y57.86
G3 X18.115 Y57.307 R3.268
X18.834 Y56.886 R3.307
X20.143 Y56.617 R3.326
X20.396 Y56.627 R3.326
G1 X20.406 Y56.628
G3 X21.223 Y56.792 R3.428
G1 X21.326 Y56.826
G3 X21.879 Y57.087 R2.521
G1 X21.948 Y57.131
G3 X23.476 Y59.16 R3.581
G1 X23.546 Y59.399
G3 X23.6 Y59.74 R1.401
G1 X23.611 Y60.03
G3 X23.541 Y60.874 R3.582
G1 X23.538 Y60.888
G3 X23.267 Y61.692 R3.468
G1 X23.058 Y62.129
X22.472 Y62.79
X21.74 Y63.296
X21.668 Y63.326
X20.893 Y63.619
X19.993 Y63.727
X19.122 Y63.621
X18.273 Y63.302
X17.527 Y62.79
X16.932 Y62.118
X16.52 Y61.333
X16.467 Y61.13
X16.3 Y60.433
X16.301 Y59.543
X16.514 Y58.678
X16.923 Y57.899
X17.478 Y57.266
X17.523 Y57.216
X18.267 Y56.7
X19.122 Y56.379
X19.993 Y56.273
X20.893 Y56.381
X21.719 Y56.694
X21.989 Y56.876
X22.472 Y57.21
X23.069 Y57.884
X23.486 Y58.678
X23.698 Y59.541
X23.701 Y59.663
X23.697 Y60.465
X23.486 Y61.32
X23.058 Y62.129
G0 Z16.
X19.235 Y59.904
G1 Z-11.402 F200.
G3 X19.244 Y59.894 Z-11.528 R0.75 F440.
X19.271 Y59.866 Z-11.648 R0.75
X19.319 Y59.824 Z-11.757 R0.75
X19.387 Y59.774 Z-11.85 R0.75
X19.477 Y59.724 Z-11.924 R0.75
X19.588 Y59.683 Z-11.975 R0.75
X19.711 Y59.659 Z-12. R0.75
X19.875 Y61.15 Z-12.206 R0.75
X19.711 Y59.659 Z-12.412 R0.75
X19.875 Y61.15 Z-12.618 R0.75
X19.711 Y59.659 Z-12.825 R0.75
X19.875 Y61.15 Z-13.031 R0.75
X19.711 Y59.659 Z-13.237 R0.75
X19.875 Y61.15 Z-13.443 R0.75
X19.711 Y59.659 Z-13.649 R0.75
X19.875 Y61.15 Z-13.855 R0.75
X19.711 Y59.659 Z-14.061 R0.75
X19.875 Y61.15 Z-14.268 R0.75
X19.711 Y59.659 Z-14.474 R0.75
X19.875 Y61.15 Z-14.68 R0.75
X19.711 Y59.659 Z-14.886 R0.75
X19.875 Y61.15 Z-15.092 R0.75
X19.711 Y59.659 Z-15.298 R0.75
X19.875 Y61.15 Z-15.504 R0.75
X19.711 Y59.659 Z-15.711 R0.75
X19.875 Y61.15 Z-15.917 R0.75
X19.711 Y59.659 Z-16.123 R0.75
X19.875 Y61.15 Z-16.329 R0.75
X19.711 Y59.659 Z-16.535 R0.75
X19.875 Y61.15 Z-16.741 R0.75
X19.711 Y59.659 Z-16.947 R0.75
X19.875 Y61.15 Z-17.154 R0.75
X19.711 Y59.659 Z-17.36 R0.75
X19.875 Y61.15 Z-17.566 R0.75
X19.711 Y59.659 Z-17.772 R0.75
X19.875 Y61.15 Z-17.978 R0.75
X19.711 Y59.659 Z-18.184 R0.75
X19.875 Y61.15 Z-18.39 R0.75
X19.711 Y59.659 Z-18.596 R0.75
X19.875 Y61.15 Z-18.803 R0.75
X19.711 Y59.659 Z-19.009 R0.75
X19.875 Y61.15 Z-19.215 R0.75
X19.711 Y59.659 Z-19.421 R0.75
X19.875 Y61.15 Z-19.627 R0.75
X19.711 Y59.659 Z-19.833 R0.75
X19.875 Y61.15 Z-20.039 R0.75
X19.711 Y59.659 Z-20.246 R0.75
X19.875 Y61.15 Z-20.452 R0.75
X19.711 Y59.659 Z-20.658 R0.75
X19.875 Y61.15 Z-20.864 R0.75
X19.711 Y59.659 Z-21.07 R0.75
X19.875 Y61.15 Z-21.276 R0.75
X19.711 Y59.659 Z-21.482 R0.75
X19.875 Y61.15 Z-21.689 R0.75
X19.711 Y59.659 Z-21.895 R0.75
X19.875 Y61.15 Z-22.101 R0.75
X19.711 Y59.659 Z-22.307 R0.75
X19.875 Y61.15 Z-22.513 R0.75
X19.711 Y59.659 Z-22.719 R0.75
X19.875 Y61.15 Z-22.925 R0.75
X19.711 Y59.659 Z-23.132 R0.75
X19.875 Y61.15 Z-23.338 R0.75
X19.711 Y59.659 Z-23.544 R0.75
X19.875 Y61.15 Z-23.75 R0.75
X19.711 Y59.659 Z-23.956 R0.75
X19.875 Y61.15 Z-24.162 R0.75
X19.711 Y59.659 Z-24.368 R0.75
X19.875 Y61.15 Z-24.575 R0.75
X19.711 Y59.659 Z-24.781 R0.75
X19.875 Y61.15 Z-24.987 R0.75
X19.711 Y59.659 Z-25.193 R0.75
X19.875 Y61.15 Z-25.399 R0.75
X19.711 Y59.659 Z-25.605 R0.75
X19.875 Y61.15 Z-25.811 R0.75
X19.711 Y59.659 Z-26.018 R0.75
X19.875 Y61.15 Z-26.224 R0.75
X19.711 Y59.659 Z-26.43 R0.75
X19.875 Y61.15 Z-26.636 R0.75
X19.711 Y59.659 Z-26.842 R0.75
X19.875 Y61.15 Z-27.048 R0.75
X19.711 Y59.659 Z-27.254 R0.75
X19.875 Y61.15 Z-27.461 R0.75
X19.438 Y61.066 Z-27.5 R0.75
X20.024 Y59.987 R0.614
G1 X20.06 Y60.006
G3 X20.093 Y60.082 R0.067
G1 X20.088 Y60.104
G3 X20.031 Y60.186 R0.142
G1 X20.024 Y60.191
G3 X19.913 Y60.221 R0.167
G1 X19.887 Y60.218
G3 X19.743 Y60.154 R0.24
G1 X19.731 Y60.143
G3 X19.645 Y59.983 R0.288
G1 X19.642 Y59.965
G3 X19.672 Y59.756 R0.343
G1 X19.681 Y59.737
G3 X19.855 Y59.556 R0.409
G1 X19.868 Y59.549
G3 X20.138 Y59.498 R0.456
G1 X20.157 Y59.5
G3 X20.44 Y59.629 R0.515
G1 X20.454 Y59.641
G3 X20.63 Y59.944 R0.575
G1 X20.634 Y59.96
G3 X20.599 Y60.338 R0.625
G1 X20.591 Y60.357
G3 X20.326 Y60.67 R0.69
G1 X20.274 Y60.703
G3 X19.753 Y60.805 R0.725
X19.295 Y60.562 R0.865
X19.135 Y60.342 R0.896
X19.044 Y60.074 R0.924
X19.029 Y59.905 R0.954
X19.037 Y59.783 R0.954
X19.119 Y59.497 R0.971
G1 X19.123 Y59.487
G3 X19.531 Y59.035 R1.031
G1 X19.536 Y59.032
G3 X19.835 Y58.911 R1.073
X20.089 Y58.88 R1.083
X20.157 Y58.882 R1.083
G1 X20.172 Y58.883
G3 X20.504 Y58.956 R1.122
G1 X20.509 Y58.958
G3 X20.788 Y59.116 R1.082
G1 X20.952 Y59.244
X21.131 Y59.554
X21.212 Y59.916
X21.186 Y60.271
X21.054 Y60.607
X20.822 Y60.895
X20.528 Y61.096
X20.181 Y61.203
X19.83
X19.469 Y61.094
X19.173 Y60.891
X18.947 Y60.608
X18.814 Y60.271
X18.787 Y59.909
X18.868 Y59.558
X19.054 Y59.238
X19.314 Y58.996
X19.642 Y58.838
X19.994 Y58.785
X20.36 Y58.839
X20.677 Y58.991
X20.952 Y59.244
G0 Z16.
X101.195 Y20.607
Z1.098
G1 Y20.61 Z1.041 F440.
G3 X101.194 Y20.638 Z0.906 R0.75
X101.187 Y20.697 Z0.78 R0.75
X101.169 Y20.782 Z0.672 R0.75
X101.133 Y20.884 Z0.586 R0.75
X101.073 Y20.995 Z0.528 R0.75
X100.989 Y21.101 Z0.5 R0.75
X99.902 Y20.068 Z0.294 R0.75
X100.989 Y21.101 Z0.088 R0.75
X99.902 Y20.068 Z-0.118 R0.75
X100.989 Y21.101 Z-0.325 R0.75
X99.902 Y20.068 Z-0.531 R0.75
X100.989 Y21.101 Z-0.737 R0.75
X99.902 Y20.068 Z-0.943 R0.75
X100.989 Y21.101 Z-1.149 R0.75
X99.902 Y20.068 Z-1.355 R0.75
X100.989 Y21.101 Z-1.561 R0.75
X99.902 Y20.068 Z-1.768 R0.75
X100.989 Y21.101 Z-1.974 R0.75
X99.902 Y20.068 Z-2.18 R0.75
X100.989 Y21.101 Z-2.386 R0.75
X99.902 Y20.068 Z-2.592 R0.75
X100.989 Y21.101 Z-2.798 R0.75
X99.902 Y20.068 Z-3.004 R0.75
X100.989 Y21.101 Z-3.211 R0.75
X99.902 Y20.068 Z-3.417 R0.75
X100.989 Y21.101 Z-3.623 R0.75
X99.902 Y20.068 Z-3.829 R0.75
X100.989 Y21.101 Z-4.035 R0.75
X99.902 Y20.068 Z-4.241 R0.75
X100.989 Y21.101 Z-4.447 R0.75
X99.902 Y20.068 Z-4.654 R0.75
X100.989 Y21.101 Z-4.86 R0.75
X99.902 Y20.068 Z-5.066 R0.75
X100.989 Y21.101 Z-5.272 R0.75
X99.902 Y20.068 Z-5.478 R0.75
X100.989 Y21.101 Z-5.684 R0.75
X99.902 Y20.068 Z-5.89 R0.75
X100.989 Y21.101 Z-6.096 R0.75
X99.902 Y20.068 Z-6.303 R0.75
X100.989 Y21.101 Z-6.509 R0.75
X99.902 Y20.068 Z-6.715 R0.75
X100.989 Y21.101 Z-6.921 R0.75
X99.902 Y20.068 Z-7.127 R0.75
X100.989 Y21.101 Z-7.333 R0.75
X99.902 Y20.068 Z-7.539 R0.75
X100.989 Y21.101 Z-7.746 R0.75
X99.902 Y20.068 Z-7.952 R0.75
X100.989 Y21.101 Z-8.158 R0.75
X99.902 Y20.068 Z-8.364 R0.75
X100.989 Y21.101 Z-8.57 R0.75
X99.902 Y20.068 Z-8.776 R0.75
X100.989 Y21.101 Z-8.982 R0.75
X99.902 Y20.068 Z-9.189 R0.75
X100.989 Y21.101 Z-9.395 R0.75
X99.902 Y20.068 Z-9.601 R0.75
X100.989 Y21.101 Z-9.807 R0.75
X99.902 Y20.068 Z-10.013 R0.75
X100.989 Y21.101 Z-10.219 R0.75
X99.902 Y20.068 Z-10.425 R0.75
X100.989 Y21.101 Z-10.632 R0.75
X99.902 Y20.068 Z-10.838 R0.75
X100.989 Y21.101 Z-11.044 R0.75
X99.902 Y20.068 Z-11.25 R0.75
X100.989 Y21.101 Z-11.456 R0.75
X99.902 Y20.068 Z-11.662 R0.75
X100.989 Y21.101 Z-11.868 R0.75
X99.902 Y20.068 Z-12.075 R0.75
X100.989 Y21.101 Z-12.281 R0.75
X99.877 Y21.074 Z-12.39 R0.75
X100.016 Y19.97 Z-12.5 R0.75
G1 X100.03 Y19.96
G3 X100.069 Y19.948 R0.069
G1 X100.084
G3 X100.166 Y19.98 R0.116
G1 X100.176 Y19.99
G3 X100.221 Y20.076 R0.154
G1 X100.224 Y20.096
G3 X100.207 Y20.223 R0.216
G1 X100.196 Y20.245
G3 X100.089 Y20.368 R0.295
G1 X100.072 Y20.378
G3 X99.905 Y20.435 R0.366
G1 X99.894 Y20.436
G3 X99.687 Y20.399 R0.409
G1 X99.661 Y20.387
G3 X99.458 Y20.218 R0.515
G1 X99.451 Y20.208
G3 X99.351 Y19.943 R0.561
G1 X99.35 Y19.936
G3 X99.432 Y19.572 R0.581
G1 X99.475 Y19.501
G3 X100.261 Y19.163 R0.738
G1 X100.346 Y19.181
G3 X101.071 Y19.877 R0.957
X101.074 Y20.4 R1.07
G1 X101.071 Y20.414
G3 X100.811 Y20.904 R1.13
G1 X100.795 Y20.921
G3 X100.305 Y21.249 R1.22
G1 X100.291 Y21.254
G3 X99.686 Y21.318 R1.279
G1 X99.674 Y21.316
G3 X99.085 Y21.084 R1.328
G1 X99.063 Y21.069
G3 X98.467 Y19.813 R1.419
G1 X98.473 Y19.723
G3 X99.204 Y18.494 R1.585
X100.004 Y18.229 R1.733
G1 X100.019 Y18.228
G3 X100.863 Y18.369 R1.792
G1 X100.871 Y18.373
G3 X101.568 Y18.901 R1.827
G1 X101.581 Y18.918
G3 X101.972 Y19.761 R1.91
G1 X101.974 Y19.775
G3 X101.924 Y20.714 R1.966
G1 X101.918 Y20.734
G3 X101.41 Y21.583 R2.047
G1 X101.395 Y21.598
G3 X100.519 Y22.129 R2.135
G1 X100.508 Y22.133
G3 X99.471 Y22.198 R2.183
G1 X99.457 Y22.196
G3 X98.483 Y21.763 R2.239
G1 X98.463 Y21.747
G3 X97.762 Y20.862 R2.344
G1 X97.759 Y20.854
G3 X97.55 Y19.729 R2.38
G1 X97.567 Y19.439
G3 X97.825 Y18.655 R1.611
X102.919 Y20.721 R2.8
X102.694 Y21.412 R3.01
X102.305 Y22.039 R3.044
X101.768 Y22.56 R3.046
G1 X101.757 Y22.569
G3 X100.404 Y23.155 R3.119
G1 X100.396 Y23.156
G3 X98.145 Y22.713 R3.211
G1 X98.13 Y22.703
G3 X97.018 Y21.532 R3.243
G1 X96.995 Y21.49
G3 X96.634 Y19.162 R3.402
G1 X96.648 Y19.088
G3 X96.863 Y18.442 R2.813
G1 X96.886 Y18.393
G3 X99.556 Y16.382 R3.6
G1 X99.575 Y16.379
G3 X100.429 Y16.345 R3.452
G1 X100.908 Y16.386
X101.731 Y16.698
X102.472 Y17.21
X103.068 Y17.882
X103.479 Y18.666
X103.533 Y18.872
X103.701 Y19.558
Y20.449
X103.486 Y21.322
X103.068 Y22.118
X102.474 Y22.788
X102.464 Y22.796
X101.72 Y23.306
X100.908 Y23.614
X99.999 Y23.728
X99.1 Y23.617
X98.283 Y23.307
X97.516 Y22.777
X96.94 Y22.127
X96.519 Y21.33
X96.484 Y21.201
X96.304 Y20.467
X96.3 Y19.548
X96.514 Y18.678
X96.932 Y17.882
X97.528 Y17.21
X98.255 Y16.708
X99.103 Y16.383
X100. Y16.272
X100.908 Y16.386
G0 Z16.
X99.39 Y20.442
G1 Z-11.402 F200.
G3 X99.389 Y20.429 Z-11.528 R0.75 F440.
X99.388 Y20.39 Z-11.648 R0.75
X99.391 Y20.327 Z-11.757 R0.75
X99.403 Y20.243 Z-11.85 R0.75
X99.431 Y20.144 Z-11.924 R0.75
X99.479 Y20.036 Z-11.975 R0.75
X99.548 Y19.931 Z-12. R0.75
X100.728 Y20.856 Z-12.206 R0.75
X99.548 Y19.931 Z-12.412 R0.75
X100.728 Y20.856 Z-12.618 R0.75
X99.548 Y19.931 Z-12.825 R0.75
X100.728 Y20.856 Z-13.031 R0.75
X99.548 Y19.931 Z-13.237 R0.75
X100.728 Y20.856 Z-13.443 R0.75
X99.548 Y19.931 Z-13.649 R0.75
X100.728 Y20.856 Z-13.855 R0.75
X99.548 Y19.931 Z-14.061 R0.75
X100.728 Y20.856 Z-14.268 R0.75
X99.548 Y19.931 Z-14.474 R0.75
X100.728 Y20.856 Z-14.68 R0.75
X99.548 Y19.931 Z-14.886 R0.75
X100.728 Y20.856 Z-15.092 R0.75
X99.548 Y19.931 Z-15.298 R0.75
X100.728 Y20.856 Z-15.504 R0.75
X99.548 Y19.931 Z-15.711 R0.75
X100.728 Y20.856 Z-15.917 R0.75
X99.548 Y19.931 Z-16.123 R0.75
X100.728 Y20.856 Z-16.329 R0.75
X99.548 Y19.931 Z-16.535 R0.75
X100.728 Y20.856 Z-16.741 R0.75
X99.548 Y19.931 Z-16.947 R0.75
X100.728 Y20.856 Z-17.154 R0.75
X99.548 Y19.931 Z-17.36 R0.75
X100.728 Y20.856 Z-17.566 R0.75
X99.548 Y19.931 Z-17.772 R0.75
X100.728 Y20.856 Z-17.978 R0.75
X99.548 Y19.931 Z-18.184 R0.75
X100.728 Y20.856 Z-18.39 R0.75
X99.548 Y19.931 Z-18.596 R0.75
X100.728 Y20.856 Z-18.803 R0.75
X99.548 Y19.931 Z-19.009 R0.75
X100.728 Y20.856 Z-19.215 R0.75
X99.548 Y19.931 Z-19.421 R0.75
X100.728 Y20.856 Z-19.627 R0.75
X99.548 Y19.931 Z-19.833 R0.75
X100.728 Y20.856 Z-20.039 R0.75
X99.548 Y19.931 Z-20.246 R0.75
X100.728 Y20.856 Z-20.452 R0.75
X99.548 Y19.931 Z-20.658 R0.75
X100.728 Y20.856 Z-20.864 R0.75
X99.548 Y19.931 Z-21.07 R0.75
X100.728 Y20.856 Z-21.276 R0.75
X99.548 Y19.931 Z-21.482 R0.75
X100.728 Y20.856 Z-21.689 R0.75
X99.548 Y19.931 Z-21.895 R0.75
X100.728 Y20.856 Z-22.101 R0.75
X99.548 Y19.931 Z-22.307 R0.75
X100.728 Y20.856 Z-22.513 R0.75
X99.548 Y19.931 Z-22.719 R0.75
X100.728 Y20.856 Z-22.925 R0.75
X99.548 Y19.931 Z-23.132 R0.75
X100.728 Y20.856 Z-23.338 R0.75
X99.548 Y19.931 Z-23.544 R0.75
X100.728 Y20.856 Z-23.75 R0.75
X99.548 Y19.931 Z-23.956 R0.75
X100.728 Y20.856 Z-24.162 R0.75
X99.548 Y19.931 Z-24.368 R0.75
X100.728 Y20.856 Z-24.575 R0.75
X99.548 Y19.931 Z-24.781 R0.75
X100.728 Y20.856 Z-24.987 R0.75
X99.548 Y19.931 Z-25.193 R0.75
X100.728 Y20.856 Z-25.399 R0.75
X99.548 Y19.931 Z-25.605 R0.75
X100.728 Y20.856 Z-25.811 R0.75
X99.548 Y19.931 Z-26.018 R0.75
X100.728 Y20.856 Z-26.224 R0.75
X99.548 Y19.931 Z-26.43 R0.75
X100.728 Y20.856 Z-26.636 R0.75
X99.548 Y19.931 Z-26.842 R0.75
X100.728 Y20.856 Z-27.048 R0.75
X99.548 Y19.931 Z-27.254 R0.75
X100.728 Y20.856 Z-27.461 R0.75
X100.363 Y21.109 Z-27.5 R0.75
X100.021 Y19.984 R0.588
G1 X100.028 Y19.981
G3 X100.065 Y19.988 R0.039
G1 X100.082 Y20.002
G3 X100.113 Y20.062 R0.082
G1 Y20.08
G3 X100.085 Y20.164 R0.124
G1 X100.073 Y20.18
G3 X99.972 Y20.24 R0.176
G1 X99.952 Y20.244
G3 X99.804 Y20.225 R0.232
G1 X99.786 Y20.216
G3 X99.656 Y20.088 R0.291
G1 X99.649 Y20.074
G3 X99.615 Y19.868 R0.338
G1 X99.619 Y19.845
G3 X99.734 Y19.617 R0.41
G1 X99.745 Y19.606
G3 X99.993 Y19.479 R0.458
G1 X100.01 Y19.476
G3 X100.312 Y19.517 R0.512
G1 X100.329 Y19.525
G3 X100.587 Y19.765 R0.573
G1 X100.597 Y19.783
G3 X100.675 Y20.152 R0.639
G1 X100.674 Y20.163
G3 X100.515 Y20.541 R0.675
G1 X100.482 Y20.58
G3 X99.751 Y20.835 R0.769
G1 X99.739 Y20.833
G3 X99.496 Y20.746 R0.857
G1 X99.491 Y20.743
G3 X99.275 Y20.581 R0.895
X99.109 Y20.352 R0.923
X99.016 Y20.076 R0.955
X99.002 Y19.911 R0.961
X99.01 Y19.789 R0.961
G1 X99.012 Y19.776
G3 X99.27 Y19.214 R1.035
X99.52 Y19.01 R1.062
G1 X99.526 Y19.006
G3 X99.833 Y18.882 R1.108
X100.167 Y18.855 R1.109
G1 X100.183 Y18.856
G3 X100.504 Y18.929 R1.084
G1 X100.694 Y19.003
X100.951 Y19.242
X101.131 Y19.553
X101.212 Y19.918
X101.186 Y20.271
X101.055 Y20.603
X101.019 Y20.651
X100.824 Y20.894
X100.535 Y21.091
X100.18 Y21.202
X99.812 Y21.2
X99.472 Y21.096
X99.173 Y20.891
X98.947 Y20.608
X98.814 Y20.271
X98.788 Y19.918
X98.869 Y19.553
X99.049 Y19.242
X99.314 Y18.996
X99.644 Y18.838
X99.998 Y18.784
X100.358 Y18.839
X100.694 Y19.003
G0 Z16.
X138.69 Y20.281
Z1.098
G1 X138.689 Y20.279 Z1.041 F440.
G3 X138.671 Y20.255 Z0.906 R0.75
X138.639 Y20.205 Z0.78 R0.75
X138.6 Y20.129 Z0.672 R0.75
X138.563 Y20.026 Z0.586 R0.75
X138.54 Y19.903 Z0.528 R0.75
X138.538 Y19.767 Z0.5 R0.75
X140.034 Y19.884 Z0.294 R0.75
X138.538 Y19.767 Z0.088 R0.75
X140.034 Y19.884 Z-0.118 R0.75
X138.538 Y19.767 Z-0.325 R0.75
X140.034 Y19.884 Z-0.531 R0.75
X138.538 Y19.767 Z-0.737 R0.75
X140.034 Y19.884 Z-0.943 R0.75
X138.538 Y19.767 Z-1.149 R0.75
X140.034 Y19.884 Z-1.355 R0.75
X138.538 Y19.767 Z-1.561 R0.75
X140.034 Y19.884 Z-1.768 R0.75
X138.538 Y19.767 Z-1.974 R0.75
X140.034 Y19.884 Z-2.18 R0.75
X138.538 Y19.767 Z-2.386 R0.75
X140.034 Y19.884 Z-2.592 R0.75
X138.538 Y19.767 Z-2.798 R0.75
X140.034 Y19.884 Z-3.004 R0.75
X138.538 Y19.767 Z-3.211 R0.75
X140.034 Y19.884 Z-3.417 R0.75
X138.538 Y19.767 Z-3.623 R0.75
X140.034 Y19.884 Z-3.829 R0.75
X138.538 Y19.767 Z-4.035 R0.75
X140.034 Y19.884 Z-4.241 R0.75
X138.538 Y19.767 Z-4.447 R0.75
X140.034 Y19.884 Z-4.654 R0.75
X138.538 Y19.767 Z-4.86 R0.75
X140.034 Y19.884 Z-5.066 R0.75
X138.538 Y19.767 Z-5.272 R0.75
X140.034 Y19.884 Z-5.478 R0.75
X138.538 Y19.767 Z-5.684 R0.75
X140.034 Y19.884 Z-5.89 R0.75
X138.538 Y19.767 Z-6.096 R0.75
X140.034 Y19.884 Z-6.303 R0.75
X138.538 Y19.767 Z-6.509 R0.75
X140.034 Y19.884 Z-6.715 R0.75
X138.538 Y19.767 Z-6.921 R0.75
X140.034 Y19.884 Z-7.127 R0.75
X138.538 Y19.767 Z-7.333 R0.75
X140.034 Y19.884 Z-7.539 R0.75
X138.538 Y19.767 Z-7.746 R0.75
X140.034 Y19.884 Z-7.952 R0.75
X138.538 Y19.767 Z-8.158 R0.75
X140.034 Y19.884 Z-8.364 R0.75
X138.538 Y19.767 Z-8.57 R0.75
X140.034 Y19.884 Z-8.776 R0.75
X138.538 Y19.767 Z-8.982 R0.75
X140.034 Y19.884 Z-9.189 R0.75
X138.538 Y19.767 Z-9.395 R0.75
X140.034 Y19.884 Z-9.601 R0.75
X138.538 Y19.767 Z-9.807 R0.75
X140.034 Y19.884 Z-10.013 R0.75
X138.538 Y19.767 Z-10.219 R0.75
X140.034 Y19.884 Z-10.425 R0.75
X138.538 Y19.767 Z-10.632 R0.75
X140.034 Y19.884 Z-10.838 R0.75
X138.538 Y19.767 Z-11.044 R0.75
X140.034 Y19.884 Z-11.25 R0.75
X138.538 Y19.767 Z-11.456 R0.75
X140.034 Y19.884 Z-11.662 R0.75
X138.538 Y19.767 Z-11.868 R0.75
X140.034 Y19.884 Z-12.075 R0.75
X138.538 Y19.767 Z-12.281 R0.75
X139.419 Y19.087 Z-12.39 R0.75
X140.007 Y20.032 Z-12.5 R0.75
G1 X139.998 Y20.064
G3 X139.871 Y20.128 R0.097
G1 X139.825 Y20.11
G3 X139.734 Y20.036 R0.186
G1 X139.72 Y20.014
G3 X139.679 Y19.878 R0.268
G1 X139.678 Y19.865
G3 X139.717 Y19.705 R0.314
G1 X139.727 Y19.687
G3 X139.87 Y19.54 R0.39
G1 X139.889 Y19.529
G3 X140.401 Y19.552 R0.467
G1 X140.454 Y19.591
G3 X140.715 Y20.007 R0.656
G1 X140.718 Y20.025
G3 X140.615 Y20.531 R0.702
G1 X140.59 Y20.569
G3 X140.12 Y20.911 R0.818
G1 X140.061 Y20.927
G3 X139.098 Y20.644 R0.959
G1 X139.082 Y20.627
G3 X138.829 Y20.147 R1.101
G1 X138.825 Y20.128
G3 X138.829 Y19.556 R1.181
G1 X138.832 Y19.544
G3 X139.114 Y19.022 R1.234
G1 X139.127 Y19.007
G3 X139.652 Y18.656 R1.312
G1 X139.67 Y18.649
G3 X140.337 Y18.58 R1.389
G1 X140.35 Y18.582
G3 X140.997 Y18.844 R1.443
G1 X141.016 Y18.858
G3 X141.495 Y19.429 R1.539
G1 X141.497 Y19.435
G3 X141.654 Y20.172 R1.566
G1 X141.653 Y20.204
G3 X141.428 Y20.994 R1.694
X140.861 Y21.586 R1.708
G1 X140.838 Y21.601
G3 X140.006 Y21.878 R1.817
G1 X139.997 Y21.879
G3 X139.119 Y21.733 R1.856
G1 X139.097 Y21.723
G3 X138.347 Y21.154 R1.953
G1 X138.338 Y21.142
G3 X137.929 Y20.255 R2.012
G1 X137.926 Y20.238
G3 X137.981 Y19.238 R2.083
G1 X137.986 Y19.223
G3 X138.516 Y18.34 R2.147
G1 X138.529 Y18.328
G3 X139.436 Y17.776 R2.22
G1 X139.454 Y17.77
G3 X140.552 Y17.701 R2.296
G1 X140.566 Y17.703
G3 X141.596 Y18.165 R2.352
G1 X141.615 Y18.18
G3 X142.342 Y19.109 R2.449
G1 X142.344 Y19.114
G3 X142.554 Y20.278 R2.47
G1 X142.552 Y20.311
G3 X142.173 Y21.508 R2.603
X141.283 Y22.388 R2.614
G1 X141.259 Y22.402
G3 X140.004 Y22.784 R2.728
G1 X139.88 Y22.79
G3 X137.781 Y21.972 R2.737
X137.328 Y21.372 R2.941
G1 X137.315 Y21.349
G3 X137.013 Y19.18 R2.951
G1 X137.038 Y19.08
G3 X138.836 Y16.962 R3.114
G1 X138.858 Y16.953
G3 X140.394 Y16.698 R3.277
X141.912 Y17.195 R3.332
G1 X141.922 Y17.201
G3 X143.072 Y18.388 R3.429
G1 X143.174 Y18.564
G3 X143.347 Y18.97 R1.821
G1 X143.373 Y19.059
G3 X142.688 Y22.466 R3.756
G1 X142.503 Y22.696
G3 X142.395 Y22.8 R0.602
G1 X141.718 Y23.306
X140.893 Y23.619
X139.993 Y23.727
X139.122 Y23.621
X138.279 Y23.305
X137.536 Y22.795
X136.926 Y22.107
X136.519 Y21.332
X136.484 Y21.201
X136.304 Y20.467
X136.3 Y19.548
X136.514 Y18.678
X136.633 Y18.451
X136.935 Y17.879
X137.536 Y17.204
X138.266 Y16.7
X139.122 Y16.379
X139.993 Y16.273
X140.893 Y16.381
X141.72 Y16.694
X142.473 Y17.211
X143.068 Y17.882
X143.479 Y18.666
X143.534 Y18.873
X143.697 Y19.534
X143.7 Y20.436
X143.485 Y21.324
X143.077 Y22.101
X142.518 Y22.738
X142.479 Y22.783
X141.718 Y23.306
G0 Z16.
X139.415 Y19.498
G1 Z-11.402 F200.
G3 X139.427 Y19.495 Z-11.528 R0.75 F440.
X139.466 Y19.487 Z-11.648 R0.75
X139.529 Y19.478 Z-11.757 R0.75
X139.613 Y19.474 Z-11.85 R0.75
X139.716 Y19.482 Z-11.924 R0.75
X139.83 Y19.509 Z-11.975 R0.75
X139.947 Y19.557 Z-12. R0.75
X139.26 Y20.891 Z-12.206 R0.75
X139.947 Y19.557 Z-12.412 R0.75
X139.26 Y20.891 Z-12.618 R0.75
X139.947 Y19.557 Z-12.825 R0.75
X139.26 Y20.891 Z-13.031 R0.75
X139.947 Y19.557 Z-13.237 R0.75
X139.26 Y20.891 Z-13.443 R0.75
X139.947 Y19.557 Z-13.649 R0.75
X139.26 Y20.891 Z-13.855 R0.75
X139.947 Y19.557 Z-14.061 R0.75
X139.26 Y20.891 Z-14.268 R0.75
X139.947 Y19.557 Z-14.474 R0.75
X139.26 Y20.891 Z-14.68 R0.75
X139.947 Y19.557 Z-14.886 R0.75
X139.26 Y20.891 Z-15.092 R0.75
X139.947 Y19.557 Z-15.298 R0.75
X139.26 Y20.891 Z-15.504 R0.75
X139.947 Y19.557 Z-15.711 R0.75
X139.26 Y20.891 Z-15.917 R0.75
X139.947 Y19.557 Z-16.123 R0.75
X139.26 Y20.891 Z-16.329 R0.75
X139.947 Y19.557 Z-16.535 R0.75
X139.26 Y20.891 Z-16.741 R0.75
X139.947 Y19.557 Z-16.947 R0.75
X139.26 Y20.891 Z-17.154 R0.75
X139.947 Y19.557 Z-17.36 R0.75
X139.26 Y20.891 Z-17.566 R0.75
X139.947 Y19.557 Z-17.772 R0.75
X139.26 Y20.891 Z-17.978 R0.75
X139.947 Y19.557 Z-18.184 R0.75
X139.26 Y20.891 Z-18.39 R0.75
X139.947 Y19.557 Z-18.596 R0.75
X139.26 Y20.891 Z-18.803 R0.75
X139.947 Y19.557 Z-19.009 R0.75
X139.26 Y20.891 Z-19.215 R0.75
X139.947 Y19.557 Z-19.421 R0.75
X139.26 Y20.891 Z-19.627 R0.75
X139.947 Y19.557 Z-19.833 R0.75
X139.26 Y20.891 Z-20.039 R0.75
X139.947 Y19.557 Z-20.246 R0.75
X139.26 Y20.891 Z-20.452 R0.75
X139.947 Y19.557 Z-20.658 R0.75
X139.26 Y20.891 Z-20.864 R0.75
X139.947 Y19.557 Z-21.07 R0.75
X139.26 Y20.891 Z-21.276 R0.75
X139.947 Y19.557 Z-21.482 R0.75
X139.26 Y20.891 Z-21.689 R0.75
X139.947 Y19.557 Z-21.895 R0.75
X139.26 Y20.891 Z-22.101 R0.75
X139.947 Y19.557 Z-22.307 R0.75
X139.26 Y20.891 Z-22.513 R0.75
X139.947 Y19.557 Z-22.719 R0.75
X139.26 Y20.891 Z-22.925 R0.75
X139.947 Y19.557 Z-23.132 R0.75
X139.26 Y20.891 Z-23.338 R0.75
X139.947 Y19.557 Z-23.544 R0.75
X139.26 Y20.891 Z-23.75 R0.75
X139.947 Y19.557 Z-23.956 R0.75
X139.26 Y20.891 Z-24.162 R0.75
X139.947 Y19.557 Z-24.368 R0.75
X139.26 Y20.891 Z-24.575 R0.75
X139.947 Y19.557 Z-24.781 R0.75
X139.26 Y20.891 Z-24.987 R0.75
X139.947 Y19.557 Z-25.193 R0.75
X139.26 Y20.891 Z-25.399 R0.75
X139.947 Y19.557 Z-25.605 R0.75
X139.26 Y20.891 Z-25.811 R0.75
X139.947 Y19.557 Z-26.018 R0.75
X139.26 Y20.891 Z-26.224 R0.75
X139.947 Y19.557 Z-26.43 R0.75
X139.26 Y20.891 Z-26.636 R0.75
X139.947 Y19.557 Z-26.842 R0.75
X139.26 Y20.891 Z-27.048 R0.75
X139.947 Y19.557 Z-27.254 R0.75
X139.26 Y20.891 Z-27.461 R0.75
X138.943 Y20.579 Z-27.5 R0.75
X140.026 Y20.003 R0.613
G1 X140.042 Y20.033
G3 X140.044 Y20.093 R0.067
G1 X140.038 Y20.105
G3 X139.983 Y20.154 R0.094
G1 X139.961 Y20.161
G3 X139.852 Y20.158 R0.152
G1 X139.833 Y20.149
G3 X139.737 Y20.066 R0.209
G1 X139.729 Y20.055
G3 X139.694 Y19.9 R0.251
G1 X139.696 Y19.875
G3 X139.781 Y19.686 R0.324
G1 X139.793 Y19.673
G3 X139.993 Y19.561 R0.375
G1 X140.009 Y19.558
G3 X140.271 Y19.587 R0.428
G1 X140.288 Y19.595
G3 X140.509 Y19.794 R0.486
G1 X140.52 Y19.814
G3 X140.593 Y20.133 R0.557
G1 X140.592 Y20.145
G3 X140.455 Y20.484 R0.594
G1 X140.443 Y20.498
G3 X140.121 Y20.707 R0.654
G1 X140.104 Y20.711
G3 X139.686 Y20.702 R0.711
G1 X139.638 Y20.686
G3 X139.102 Y20.071 R0.8
X139.088 Y19.911 R0.873
X139.094 Y19.808 R0.873
G1 X139.095 Y19.795
G3 X139.328 Y19.277 R0.949
X139.552 Y19.09 R0.97
G1 X139.56 Y19.086
G3 X139.847 Y18.967 R1.029
X140.157 Y18.939 R1.032
G1 X140.162
G3 X140.476 Y19.007 R1.068
X140.766 Y19.17 R1.092
G1 X140.772 Y19.175
G3 X141.004 Y19.421 R1.132
G1 X141.008 Y19.427
G3 X141.152 Y19.723 R1.081
G1 X141.212 Y19.918
X141.186 Y20.266
X141.054 Y20.604
X141.017 Y20.653
X140.827 Y20.891
X140.528 Y21.096
X140.181 Y21.203
X139.83
X139.469 Y21.094
X139.184 Y20.899
X138.945 Y20.604
X138.814 Y20.271
X138.788 Y19.918
X138.869 Y19.553
X139.049 Y19.242
X139.312 Y18.998
X139.643 Y18.838
X140. Y18.784
X140.358 Y18.838
X140.684 Y18.995
X140.952 Y19.244
X141.131 Y19.553
X141.212 Y19.918
G0 Z16.
X139.077 Y59.036
Z1.098
G1 X139.078 Y59.033 Z1.041 F440.
G3 X139.089 Y59.007 Z0.906 R0.75
X139.115 Y58.953 Z0.78 R0.75
X139.16 Y58.88 Z0.672 R0.75
X139.228 Y58.795 Z0.586 R0.75
X139.321 Y58.71 Z0.528 R0.75
X139.435 Y58.638 Z0.5 R0.75
X140.12 Y59.972 Z0.294 R0.75
X139.435 Y58.638 Z0.088 R0.75
X140.12 Y59.972 Z-0.118 R0.75
X139.435 Y58.638 Z-0.325 R0.75
X140.12 Y59.972 Z-0.531 R0.75
X139.435 Y58.638 Z-0.737 R0.75
X140.12 Y59.972 Z-0.943 R0.75
X139.435 Y58.638 Z-1.149 R0.75
X140.12 Y59.972 Z-1.355 R0.75
X139.435 Y58.638 Z-1.561 R0.75
X140.12 Y59.972 Z-1.768 R0.75
X139.435 Y58.638 Z-1.974 R0.75
X140.12 Y59.972 Z-2.18 R0.75
X139.435 Y58.638 Z-2.386 R0.75
X140.12 Y59.972 Z-2.592 R0.75
X139.435 Y58.638 Z-2.798 R0.75
X140.12 Y59.972 Z-3.004 R0.75
X139.435 Y58.638 Z-3.211 R0.75
X140.12 Y59.972 Z-3.417 R0.75
X139.435 Y58.638 Z-3.623 R0.75
X140.12 Y59.972 Z-3.829 R0.75
X139.435 Y58.638 Z-4.035 R0.75
X140.12 Y59.972 Z-4.241 R0.75
X139.435 Y58.638 Z-4.447 R0.75
X140.12 Y59.972 Z-4.654 R0.75
X139.435 Y58.638 Z-4.86 R0.75
X140.12 Y59.972 Z-5.066 R0.75
X139.435 Y58.638 Z-5.272 R0.75
X140.12 Y59.972 Z-5.478 R0.75
X139.435 Y58.638 Z-5.684 R0.75
X140.12 Y59.972 Z-5.89 R0.75
X139.435 Y58.638 Z-6.096 R0.75
X140.12 Y59.972 Z-6.303 R0.75
X139.435 Y58.638 Z-6.509 R0.75
X140.12 Y59.972 Z-6.715 R0.75
X139.435 Y58.638 Z-6.921 R0.75
X140.12 Y59.972 Z-7.127 R0.75
X139.435 Y58.638 Z-7.333 R0.75
X140.12 Y59.972 Z-7.539 R0.75
X139.435 Y58.638 Z-7.746 R0.75
X140.12 Y59.972 Z-7.952 R0.75
X139.435 Y58.638 Z-8.158 R0.75
X140.12 Y59.972 Z-8.364 R0.75
X139.435 Y58.638 Z-8.57 R0.75
X140.12 Y59.972 Z-8.776 R0.75
X139.435 Y58.638 Z-8.982 R0.75
X140.12 Y59.972 Z-9.189 R0.75
X139.435 Y58.638 Z-9.395 R0.75
X140.12 Y59.972 Z-9.601 R0.75
X139.435 Y58.638 Z-9.807 R0.75
X140.12 Y59.972 Z-10.013 R0.75
X139.435 Y58.638 Z-10.219 R0.75
X140.12 Y59.972 Z-10.425 R0.75
X139.435 Y58.638 Z-10.632 R0.75
X140.12 Y59.972 Z-10.838 R0.75
X139.435 Y58.638 Z-11.044 R0.75
X140.12 Y59.972 Z-11.25 R0.75
X139.435 Y58.638 Z-11.456 R0.75
X140.12 Y59.972 Z-11.662 R0.75
X139.435 Y58.638 Z-11.868 R0.75
X140.12 Y59.972 Z-12.075 R0.75
X139.435 Y58.638 Z-12.281 R0.75
X140.476 Y59.031 Z-12.39 R0.75
X139.98 Y60.027 Z-12.5 R0.75
G1 X139.954 Y60.034
G3 X139.926 Y60.037 R0.081
G1 X139.912 Y60.036
G3 X139.842 Y59.994 R0.089
G1 X139.828 Y59.971
G3 X139.806 Y59.87 R0.161
G1 X139.808 Y59.846
G3 X139.861 Y59.722 R0.232
G1 X139.867 Y59.715
G3 X140.007 Y59.63 R0.257
G1 X140.062 Y59.618
G3 X140.336 Y59.649 R0.421
G1 X140.342 Y59.652
G3 X140.517 Y59.802 R0.448
X140.599 Y60.063 R0.455
Y60.077 R0.455
G1 X140.597 Y60.147
G3 X140.406 Y60.591 R0.659
G1 X140.395 Y60.602
G3 X139.924 Y60.809 R0.7
G1 X139.879 Y60.81
G3 X139.32 Y60.616 R0.815
G1 X139.269 Y60.572
G3 X138.957 Y59.612 R0.966
G1 X138.96 Y59.598
G3 X139.198 Y59.137 R1.081
G1 X139.216 Y59.117
G3 X139.691 Y58.789 R1.186
G1 X139.705 Y58.784
G3 X140.302 Y58.715 R1.244
G1 X140.314 Y58.717
G3 X140.9 Y58.949 R1.29
G1 X140.926 Y58.968
G3 X141.373 Y59.497 R1.419
X141.52 Y60.13 R1.435
X141.519 Y60.172 R1.435
G1 Y60.194
G3 X141.322 Y60.901 R1.525
G1 X141.314 Y60.915
G3 X140.788 Y61.47 R1.59
G1 X140.771 Y61.481
G3 X140.01 Y61.739 R1.67
G1 X139.997 Y61.74
G3 X139.183 Y61.611 R1.724
G1 X139.162 Y61.602
G3 X138.461 Y61.077 R1.815
G1 X138.452 Y61.065
G3 X138.063 Y60.234 R1.875
G1 X138.06 Y60.218
G3 X138.108 Y59.29 R1.941
G1 X138.112 Y59.277
G3 X138.598 Y58.457 R1.995
G1 X138.616 Y58.438
G3 X139.476 Y57.909 R2.1
G1 X139.488 Y57.905
G3 X140.518 Y57.835 R2.153
G1 X140.528 Y57.837
G3 X141.499 Y58.269 R2.197
G1 X141.525 Y58.29
G3 X142.221 Y59.181 R2.33
X142.419 Y60.283 R2.344
G1 X142.417 Y60.304
G3 X142.067 Y61.414 R2.429
G1 X142.058 Y61.429
G3 X141.207 Y62.273 R2.499
G1 X141.191 Y62.283
G3 X140.01 Y62.645 R2.577
G1 X139.997
G3 X138.764 Y62.413 R2.628
G1 X138.743 Y62.404
G3 X137.717 Y61.591 R2.723
G1 X137.54 Y61.363
G3 X137.192 Y60.559 R1.767
X143.265 Y59.202 R3.117
X143.396 Y60.012 R3.38
G1 X143.397 Y60.019
G3 X143.073 Y61.611 R3.416
G1 X143.024 Y61.714
G3 X142.692 Y62.241 R2.568
G1 X142.633 Y62.313
G3 X140.428 Y63.586 R3.581
G1 X140.422 Y63.587
G3 X139.561 Y63.621 R3.594
G1 X139.545 Y63.619
G3 X138.736 Y63.455 R3.463
G1 X138.266 Y63.3
X137.536 Y62.796
X136.935 Y62.12
X136.52 Y61.332
X136.466 Y61.126
X136.303 Y60.466
X136.3 Y59.549
X136.514 Y58.678
X136.927 Y57.892
X137.537 Y57.203
X138.266 Y56.7
X139.122 Y56.379
X139.993 Y56.273
X140.893 Y56.381
X141.715 Y56.692
X142.471 Y57.209
X143.076 Y57.898
X143.485 Y58.677
X143.7 Y59.563
X143.697 Y60.465
X143.486 Y61.322
X143.076 Y62.103
X142.863 Y62.349
X142.473 Y62.789
X141.722 Y63.305
X140.893 Y63.619
X139.993 Y63.727
X139.122 Y63.621
X138.266 Y63.3
G0 Z16.
X139.343 Y59.629
G1 Z-11.402 F200.
G3 X139.354 Y59.623 Z-11.528 R0.75 F440.
X139.39 Y59.605 Z-11.648 R0.75
X139.448 Y59.581 Z-11.757 R0.75
X139.53 Y59.557 Z-11.85 R0.75
X139.631 Y59.54 Z-11.924 R0.75
X139.749 Y59.538 Z-11.975 R0.75
X139.873 Y59.556 Z-12. R0.75
X140.441 Y60.425 Z-12.1 R0.75
X139.151 Y60.793 Z-12.246 R0.75
X140.257 Y59.78 Z-12.452 R0.75
X140.441 Y60.425 Z-12.513 R0.75
X139.151 Y60.793 Z-12.658 R0.75
X140.257 Y59.78 Z-12.864 R0.75
X140.441 Y60.425 Z-12.925 R0.75
X139.151 Y60.793 Z-13.07 R0.75
X140.257 Y59.78 Z-13.276 R0.75
X140.441 Y60.425 Z-13.337 R0.75
X139.151 Y60.793 Z-13.482 R0.75
X140.257 Y59.78 Z-13.689 R0.75
X140.441 Y60.425 Z-13.749 R0.75
X139.151 Y60.793 Z-13.895 R0.75
X140.257 Y59.78 Z-14.101 R0.75
X140.441 Y60.425 Z-14.162 R0.75
X139.151 Y60.793 Z-14.307 R0.75
X140.257 Y59.78 Z-14.513 R0.75
X140.441 Y60.425 Z-14.574 R0.75
X139.151 Y60.793 Z-14.719 R0.75
X140.257 Y59.78 Z-14.925 R0.75
X140.441 Y60.425 Z-14.986 R0.75
X139.151 Y60.793 Z-15.132 R0.75
X140.257 Y59.78 Z-15.338 R0.75
X140.441 Y60.425 Z-15.399 R0.75
X139.151 Y60.793 Z-15.544 R0.75
X140.257 Y59.78 Z-15.75 R0.75
X140.441 Y60.425 Z-15.811 R0.75
X139.151 Y60.793 Z-15.956 R0.75
X140.257 Y59.78 Z-16.162 R0.75
X140.441 Y60.425 Z-16.223 R0.75
X139.151 Y60.793 Z-16.368 R0.75
X140.257 Y59.78 Z-16.575 R0.75
X140.441 Y60.425 Z-16.635 R0.75
X139.151 Y60.793 Z-16.781 R0.75
X140.257 Y59.78 Z-16.987 R0.75
X140.441 Y60.425 Z-17.048 R0.75
X139.151 Y60.793 Z-17.193 R0.75
X140.257 Y59.78 Z-17.399 R0.75
X140.441 Y60.425 Z-17.46 R0.75
X139.151 Y60.793 Z-17.605 R0.75
X140.257 Y59.78 Z-17.811 R0.75
X140.441 Y60.425 Z-17.872 R0.75
X139.151 Y60.793 Z-18.018 R0.75
X140.257 Y59.78 Z-18.224 R0.75
X140.441 Y60.425 Z-18.285 R0.75
X139.151 Y60.793 Z-18.43 R0.75
X140.257 Y59.78 Z-18.636 R0.75
X140.441 Y60.425 Z-18.697 R0.75
X139.151 Y60.793 Z-18.842 R0.75
X140.257 Y59.78 Z-19.048 R0.75
X140.441 Y60.425 Z-19.109 R0.75
X139.151 Y60.793 Z-19.254 R0.75
X140.257 Y59.78 Z-19.461 R0.75
X140.441 Y60.425 Z-19.521 R0.75
X139.151 Y60.793 Z-19.667 R0.75
X140.257 Y59.78 Z-19.873 R0.75
X140.441 Y60.425 Z-19.934 R0.75
X139.151 Y60.793 Z-20.079 R0.75
X140.257 Y59.78 Z-20.285 R0.75
X140.441 Y60.425 Z-20.346 R0.75
X139.151 Y60.793 Z-20.491 R0.75
X140.257 Y59.78 Z-20.697 R0.75
X140.441 Y60.425 Z-20.758 R0.75
X139.151 Y60.793 Z-20.904 R0.75
X140.257 Y59.78 Z-21.11 R0.75
X140.441 Y60.425 Z-21.17 R0.75
X139.151 Y60.793 Z-21.316 R0.75
X140.257 Y59.78 Z-21.522 R0.75
X140.441 Y60.425 Z-21.583 R0.75
X139.151 Y60.793 Z-21.728 R0.75
X140.257 Y59.78 Z-21.934 R0.75
X140.441 Y60.425 Z-21.995 R0.75
X139.151 Y60.793 Z-22.14 R0.75
X140.257 Y59.78 Z-22.346 R0.75
X140.441 Y60.425 Z-22.407 R0.75
X139.151 Y60.793 Z-22.553 R0.75
X140.257 Y59.78 Z-22.759 R0.75
X140.441 Y60.425 Z-22.82 R0.75
X139.151 Y60.793 Z-22.965 R0.75
X140.257 Y59.78 Z-23.171 R0.75
X140.441 Y60.425 Z-23.232 R0.75
X139.151 Y60.793 Z-23.377 R0.75
X140.257 Y59.78 Z-23.583 R0.75
X140.441 Y60.425 Z-23.644 R0.75
X139.151 Y60.793 Z-23.789 R0.75
X140.257 Y59.78 Z-23.996 R0.75
X140.441 Y60.425 Z-24.056 R0.75
X139.151 Y60.793 Z-24.202 R0.75
X140.257 Y59.78 Z-24.408 R0.75
X140.441 Y60.425 Z-24.469 R0.75
X139.151 Y60.793 Z-24.614 R0.75
X140.257 Y59.78 Z-24.82 R0.75
X140.441 Y60.425 Z-24.881 R0.75
X139.151 Y60.793 Z-25.026 R0.75
X140.257 Y59.78 Z-25.232 R0.75
X140.441 Y60.425 Z-25.293 R0.75
X139.151 Y60.793 Z-25.439 R0.75
X140.257 Y59.78 Z-25.645 R0.75
X140.441 Y60.425 Z-25.706 R0.75
X139.151 Y60.793 Z-25.851 R0.75
X140.257 Y59.78 Z-26.057 R0.75
X140.441 Y60.425 Z-26.118 R0.75
X139.151 Y60.793 Z-26.263 R0.75
X140.257 Y59.78 Z-26.469 R0.75
X140.441 Y60.425 Z-26.53 R0.75
X139.151 Y60.793 Z-26.675 R0.75
X140.257 Y59.78 Z-26.882 R0.75
X140.441 Y60.425 Z-26.942 R0.75
X139.151 Y60.793 Z-27.088 R0.75
X140.257 Y59.78 Z-27.294 R0.75
X140.441 Y60.425 Z-27.355 R0.75
X139.151 Y60.793 Z-27.5 R0.75
X140.027 Y60.003 R0.59
G1 X140.038 Y60.016
G3 X140.051 Y60.047 R0.047
G1 X140.05 Y60.066
G3 X140.023 Y60.129 R0.091
G1 X140.016 Y60.136
G3 X139.936 Y60.169 R0.116
G1 X139.912
G3 X139.796 Y60.128 R0.178
G1 X139.781 Y60.116
G3 X139.703 Y59.985 R0.231
G1 X139.698 Y59.964
G3 X139.719 Y59.782 R0.294
G1 X139.726 Y59.766
G3 X139.871 Y59.609 R0.347
G1 X139.885 Y59.601
G3 X140.122 Y59.551 R0.399
G1 X140.142 Y59.553
G3 X140.4 Y59.666 R0.461
G1 X140.413 Y59.677
G3 X140.574 Y59.945 R0.515
G1 X140.578 Y59.964
G3 X140.552 Y60.311 R0.575
G1 X140.546 Y60.326
G3 X140.307 Y60.617 R0.626
G1 X140.292 Y60.626
G3 X139.897 Y60.736 R0.681
G1 X139.842 Y60.734
G3 X139.191 Y60.325 R0.764
G1 X139.186 Y60.316
G3 X139.102 Y60.071 R0.861
X139.087 Y59.91 R0.879
X139.094 Y59.806 R0.879
G1 X139.095 Y59.794
G3 X139.328 Y59.278 R0.945
G1 X139.331 Y59.274
G3 X139.56 Y59.085 R0.99
X139.841 Y58.968 R1.007
X140.089 Y58.938 R1.028
X140.149 Y58.939 R1.028
G1 X140.159 Y58.94
G3 X140.76 Y59.166 R1.082
G1 X140.77 Y59.174
G3 X141.005 Y59.422 R1.127
G1 X141.009 Y59.428
G3 X141.152 Y59.722 R1.075
G1 X141.212 Y59.916
X141.186 Y60.271
X141.053 Y60.608
X140.827 Y60.891
X140.528 Y61.096
X140.181 Y61.203
X139.83
X139.469 Y61.094
X139.176 Y60.894
X138.946 Y60.607
X138.814 Y60.271
X138.788 Y59.916
X138.869 Y59.554
X139.049 Y59.242
X139.317 Y58.994
X139.642 Y58.838
X139.994 Y58.785
X140.36 Y58.839
X140.68 Y58.993
X140.952 Y59.244
X141.131 Y59.554
X141.212 Y59.916
G0 Z16.

(DRILL5)
M8
G0 X170. Y60.
Z10.
Z5.
G98 G73 X170. Y60. Z-27.5 R-12.5 Q0.25 F200.
Y20.
X230.
Y60.
G80
Z10.

M9
M30
