(_40_80_80_)
(T1  D=4. CR=0. - ZMIN=-27.49 - FLAT END MILL)
G90 G94 G91.1 G40 G49 G17
G21

(ADAPTIVE1)
M5
M9
T1
S2670 M3
G54
M8
G0 X21.4 Y60.259
G43 Z10. H1
Z5.
Z0.91
G1 Z0.51 F400.
G3 X18.6 Y60.253 Z-0.266 R1.4
X21.4 Y60.259 Z-1.041 R1.4
X18.6 Y60.253 Z-1.817 R1.4
X21.4 Y60.259 Z-2.592 R1.4
X18.6 Y60.253 Z-3.368 R1.4
X21.4 Y60.259 Z-4.143 R1.4
X18.6 Y60.253 Z-4.919 R1.4
X21.4 Y60.259 Z-5.694 R1.4
X18.6 Y60.253 Z-6.47 R1.4
X21.4 Y60.259 Z-7.245 R1.4
X18.6 Y60.253 Z-8.021 R1.4
X21.4 Y60.259 Z-8.796 R1.4
X18.6 Y60.253 Z-9.572 R1.4
X21.4 Y60.259 Z-10.347 R1.4
X18.6 Y60.253 Z-11.123 R1.4
X21.4 Y60.259 Z-11.898 R1.4
X18.6 Y60.253 Z-12.674 R1.4
X21.4 Y60.259 Z-13.449 R1.4
X18.6 Y60.253 Z-14.225 R1.4
X21.4 Y60.256 Z-15. R1.4
X18.6 R1.4
X21.4 R1.4
G1 X21.437 Y61.027
X21.43 Y61.161
X21.402 Y61.293
X21.357 Y61.421
X21.296 Y61.541
X21.223 Y61.655
X21.138 Y61.76
X21.044 Y61.856
X20.941 Y61.944
X20.831 Y62.022
X20.714 Y62.09
X20.592 Y62.148
X20.466 Y62.197
X20.337 Y62.235
X20.205 Y62.264
X19.937 Y62.291
X19.667 Y62.279
X19.402 Y62.228
X19.146 Y62.142
X18.905 Y62.021
X18.682 Y61.869
X18.482 Y61.688
X18.307 Y61.483
X18.16 Y61.256
X18.045 Y61.012
X17.962 Y60.756
X17.913 Y60.49
X17.899 Y60.221
X17.92 Y59.952
X17.975 Y59.687
X18.064 Y59.433
X18.185 Y59.191
X18.336 Y58.968
X18.514 Y58.765
X18.717 Y58.587
X18.941 Y58.436
X19.182 Y58.316
X19.437 Y58.227
X19.701 Y58.172
X19.97 Y58.15
X20.24 Y58.164
X20.505 Y58.212
X20.763 Y58.293
X21.008 Y58.406
X21.236 Y58.55
X21.444 Y58.722
X21.628 Y58.92
X21.792 Y59.148
X21.883 Y59.304
X21.982 Y59.503
X22.073 Y59.718
X22.158 Y59.974
X22.188 Y60.109
X22.201 Y60.247
X22.199 Y60.385
X22.174 Y60.703
X22.159 Y60.781
X21.923 Y61.37
X21.541 Y61.854
X21.476 Y61.915
X20.962 Y62.26
X20.347 Y62.452
X20.075 Y62.459
X19.686 Y62.455
X19.528 Y62.416
X19.039 Y62.26
X18.518 Y61.91
X18.456 Y61.852
X18.074 Y61.365
X17.841 Y60.781
X17.826 Y60.703
X17.784 Y60.081
X17.927 Y59.458
X18.097 Y59.147
X18.244 Y58.896
X18.294 Y58.836
X18.752 Y58.417
X19.335 Y58.136
X19.813 Y58.057
X19.997 Y58.034
X20.62 Y58.123
X20.697 Y58.148
X21.242 Y58.415
X21.371 Y58.524
X21.732 Y58.863
X21.993 Y59.303
X22.073 Y59.458
X22.215 Y60.081
X22.199 Y60.385
X22.184 Y60.432 Z-14.992
X22.171 Y60.473 Z-14.97
X22.161 Y60.506 Z-14.935
X22.154 Y60.527 Z-14.891
X22.152 Y60.534 Z-14.843
G0 Z5.
X61.4 Y20.259
Z0.91
G1 Z0.51 F400.
G3 X58.6 Y20.253 Z-0.266 R1.4
X61.4 Y20.259 Z-1.041 R1.4
X58.6 Y20.253 Z-1.817 R1.4
X61.4 Y20.259 Z-2.592 R1.4
X58.6 Y20.253 Z-3.368 R1.4
X61.4 Y20.259 Z-4.143 R1.4
X58.6 Y20.253 Z-4.919 R1.4
X61.4 Y20.259 Z-5.694 R1.4
X58.6 Y20.253 Z-6.47 R1.4
X61.4 Y20.259 Z-7.245 R1.4
X58.6 Y20.253 Z-8.021 R1.4
X61.4 Y20.259 Z-8.796 R1.4
X58.6 Y20.253 Z-9.572 R1.4
X61.4 Y20.259 Z-10.347 R1.4
X58.6 Y20.253 Z-11.123 R1.4
X61.4 Y20.259 Z-11.898 R1.4
X58.6 Y20.253 Z-12.674 R1.4
X61.4 Y20.259 Z-13.449 R1.4
X58.6 Y20.253 Z-14.225 R1.4
X61.4 Y20.256 Z-15. R1.4
X58.6 R1.4
X61.4 R1.4
G1 X61.437 Y21.026
X61.43 Y21.161
X61.402 Y21.293
X61.357 Y21.42
X61.296 Y21.541
X61.223 Y21.654
X61.138 Y21.759
X61.044 Y21.856
X60.941 Y21.943
X60.831 Y22.021
X60.714 Y22.089
X60.592 Y22.148
X60.466 Y22.196
X60.337 Y22.235
X60.205 Y22.263
X59.937 Y22.29
X59.667 Y22.278
X59.402 Y22.228
X59.146 Y22.141
X58.905 Y22.02
X58.682 Y21.868
X58.482 Y21.688
X58.307 Y21.482
X58.16 Y21.255
X58.045 Y21.012
X57.962 Y20.755
X57.913 Y20.489
X57.899 Y20.22
X57.92 Y19.951
X57.975 Y19.687
X58.064 Y19.432
X58.185 Y19.191
X58.336 Y18.967
X58.514 Y18.764
X58.717 Y18.586
X58.941 Y18.436
X59.182 Y18.315
X59.437 Y18.226
X59.701 Y18.171
X59.97 Y18.15
X60.24 Y18.163
X60.505 Y18.211
X60.763 Y18.292
X61.008 Y18.406
X61.236 Y18.55
X61.444 Y18.722
X61.628 Y18.919
X61.792 Y19.147
X61.883 Y19.303
X61.982 Y19.502
X62.073 Y19.717
X62.159 Y19.974
X62.188 Y20.109
X62.201 Y20.246
X62.199 Y20.385
X62.17 Y20.736
X62.071 Y21.009
X61.929 Y21.359
X61.637 Y21.736
X61.546 Y21.849
X61.436 Y21.943
X60.973 Y22.254
X60.859 Y22.296
X60.353 Y22.45
X60.236 Y22.459
X59.692 Y22.457
X59.614 Y22.442
X59.087 Y22.28
X58.991 Y22.234
X58.49 Y21.887
X58.099 Y21.404
X58.052 Y21.32
X57.84 Y20.775
X57.824 Y20.697
X57.784 Y20.153
X57.786 Y20.075
X57.928 Y19.452
X58.213 Y18.947
X58.25 Y18.888
X58.369 Y18.766
X58.719 Y18.442
X58.856 Y18.363
X59.303 Y18.148
X59.38 Y18.123
X60.003 Y18.034
X60.626 Y18.124
X60.703 Y18.151
X61.248 Y18.418
X61.533 Y18.674
X61.7 Y18.83
X61.754 Y18.893
X61.989 Y19.297
X62.072 Y19.452
X62.214 Y20.075
X62.211 Y20.23
X62.199 Y20.385
X62.185 Y20.431 Z-14.992
X62.171 Y20.472 Z-14.97
X62.161 Y20.505 Z-14.935
X62.154 Y20.526 Z-14.891
X62.152 Y20.534 Z-14.843
G0 Z5.
X21.4 Y20.259
Z0.91
G1 Z0.51 F400.
G3 X18.6 Y20.253 Z-0.266 R1.4
X21.4 Y20.259 Z-1.041 R1.4
X18.6 Y20.253 Z-1.817 R1.4
X21.4 Y20.259 Z-2.592 R1.4
X18.6 Y20.253 Z-3.368 R1.4
X21.4 Y20.259 Z-4.143 R1.4
X18.6 Y20.253 Z-4.919 R1.4
X21.4 Y20.259 Z-5.694 R1.4
X18.6 Y20.253 Z-6.47 R1.4
X21.4 Y20.259 Z-7.245 R1.4
X18.6 Y20.253 Z-8.021 R1.4
X21.4 Y20.259 Z-8.796 R1.4
X18.6 Y20.253 Z-9.572 R1.4
X21.4 Y20.259 Z-10.347 R1.4
X18.6 Y20.253 Z-11.123 R1.4
X21.4 Y20.259 Z-11.898 R1.4
X18.6 Y20.253 Z-12.674 R1.4
X21.4 Y20.259 Z-13.449 R1.4
X18.6 Y20.253 Z-14.225 R1.4
X21.4 Y20.256 Z-15. R1.4
X18.6 R1.4
X21.4 R1.4
G1 X21.437 Y21.026
X21.43 Y21.161
X21.402 Y21.293
X21.356 Y21.42
X21.296 Y21.541
X21.223 Y21.654
X21.138 Y21.76
X21.043 Y21.856
X20.941 Y21.943
X20.83 Y22.021
X20.714 Y22.09
X20.592 Y22.148
X20.466 Y22.197
X20.337 Y22.235
X20.205 Y22.264
X19.936 Y22.291
X19.667 Y22.278
X19.402 Y22.228
X19.146 Y22.141
X18.905 Y22.021
X18.682 Y21.869
X18.481 Y21.688
X18.306 Y21.483
X18.16 Y21.256
X18.044 Y21.012
X17.962 Y20.755
X17.913 Y20.49
X17.899 Y20.22
X17.92 Y19.951
X17.975 Y19.687
X18.064 Y19.432
X18.185 Y19.191
X18.336 Y18.967
X18.514 Y18.765
X18.717 Y18.587
X18.941 Y18.436
X19.182 Y18.316
X19.437 Y18.227
X19.701 Y18.171
X19.97 Y18.15
X20.24 Y18.164
X20.505 Y18.211
X20.763 Y18.293
X21.007 Y18.406
X21.236 Y18.55
X21.444 Y18.722
X21.628 Y18.919
X21.792 Y19.148
X21.882 Y19.304
X21.982 Y19.503
X22.073 Y19.718
X22.158 Y19.975
X22.188 Y20.11
X22.201 Y20.248
X22.199 Y20.386
X22.17 Y20.736
X22.071 Y21.009
X21.943 Y21.332
X21.901 Y21.404
X21.51 Y21.887
X20.972 Y22.254
X20.853 Y22.298
X20.347 Y22.452
X20.075 Y22.459
X19.686 Y22.455
X19.509 Y22.41
X19.084 Y22.279
X18.985 Y22.23
X18.518 Y21.91
X18.454 Y21.849
X18.095 Y21.398
X18.051 Y21.319
X17.84 Y20.775
X17.824 Y20.697
X17.784 Y20.153
X17.786 Y20.075
X17.928 Y19.452
X18.207 Y18.957
X18.246 Y18.893
X18.3 Y18.83
X18.674 Y18.482
X18.752 Y18.418
X19.335 Y18.136
X19.852 Y18.051
X19.997 Y18.034
X20.62 Y18.123
X20.697 Y18.148
X21.242 Y18.414
X21.476 Y18.621
X21.7 Y18.83
X21.75 Y18.888
X21.989 Y19.297
X22.072 Y19.452
X22.214 Y20.075
X22.211 Y20.23
X22.199 Y20.386
X22.184 Y20.432 Z-14.992
X22.171 Y20.473 Z-14.97
X22.161 Y20.506 Z-14.935
X22.154 Y20.527 Z-14.891
X22.152 Y20.535 Z-14.843
G0 Z5.
X61.4 Y60.259
Z0.91
G1 Z0.51 F400.
G3 X58.6 Y60.253 Z-0.266 R1.4
X61.4 Y60.259 Z-1.041 R1.4
X58.6 Y60.253 Z-1.817 R1.4
X61.4 Y60.259 Z-2.592 R1.4
X58.6 Y60.253 Z-3.368 R1.4
X61.4 Y60.259 Z-4.143 R1.4
X58.6 Y60.253 Z-4.919 R1.4
X61.4 Y60.259 Z-5.694 R1.4
X58.6 Y60.253 Z-6.47 R1.4
X61.4 Y60.259 Z-7.245 R1.4
X58.6 Y60.253 Z-8.021 R1.4
X61.4 Y60.259 Z-8.796 R1.4
X58.6 Y60.253 Z-9.572 R1.4
X61.4 Y60.259 Z-10.347 R1.4
X58.6 Y60.253 Z-11.123 R1.4
X61.4 Y60.259 Z-11.898 R1.4
X58.6 Y60.253 Z-12.674 R1.4
X61.4 Y60.259 Z-13.449 R1.4
X58.6 Y60.253 Z-14.225 R1.4
X61.4 Y60.256 Z-15. R1.4
X58.6 R1.4
X61.4 R1.4
G1 X61.437 Y61.027
X61.43 Y61.161
X61.402 Y61.293
X61.357 Y61.421
X61.296 Y61.541
X61.223 Y61.655
X61.138 Y61.76
X61.044 Y61.856
X60.941 Y61.944
X60.831 Y62.022
X60.714 Y62.09
X60.593 Y62.148
X60.467 Y62.197
X60.337 Y62.235
X60.205 Y62.264
X59.937 Y62.291
X59.667 Y62.278
X59.402 Y62.228
X59.147 Y62.142
X58.905 Y62.021
X58.682 Y61.869
X58.482 Y61.688
X58.307 Y61.483
X58.16 Y61.256
X58.045 Y61.012
X57.962 Y60.755
X57.913 Y60.49
X57.899 Y60.221
X57.92 Y59.952
X57.976 Y59.687
X58.064 Y59.433
X58.185 Y59.191
X58.336 Y58.968
X58.514 Y58.765
X58.717 Y58.587
X58.941 Y58.436
X59.183 Y58.316
X59.437 Y58.227
X59.702 Y58.172
X59.971 Y58.15
X60.24 Y58.164
X60.506 Y58.212
X60.763 Y58.293
X61.008 Y58.406
X61.236 Y58.55
X61.444 Y58.722
X61.628 Y58.92
X61.792 Y59.148
X61.883 Y59.304
X61.983 Y59.503
X62.073 Y59.718
X62.159 Y59.973
X62.188 Y60.109
X62.201 Y60.246
X62.199 Y60.385
X62.174 Y60.703
X62.159 Y60.781
X61.926 Y61.365
X61.544 Y61.852
X61.428 Y61.949
X60.961 Y62.26
X60.353 Y62.45
X60.236 Y62.459
X59.692 Y62.457
X59.528 Y62.416
X59.038 Y62.26
X58.491 Y61.888
X58.102 Y61.407
X58.054 Y61.326
X57.841 Y60.781
X57.826 Y60.703
X57.79 Y60.236
X57.785 Y60.081
X57.927 Y59.458
X58.097 Y59.147
X58.268 Y58.863
X58.719 Y58.442
X58.844 Y58.369
X59.341 Y58.134
X59.925 Y58.04
X60.003 Y58.034
X60.626 Y58.124
X60.703 Y58.151
X61.248 Y58.417
X61.706 Y58.836
X61.793 Y58.957
X61.993 Y59.303
X62.073 Y59.458
X62.216 Y60.081
X62.199 Y60.385
X62.185 Y60.431 Z-14.992
X62.171 Y60.472 Z-14.97
X62.161 Y60.505 Z-14.935
X62.154 Y60.526 Z-14.891
X62.152 Y60.534 Z-14.843
G0 Z5.
X19.419 Y60.293
Z-11.2
G1 Z-11.6 F400.
X19.426 Y60.296 Z-11.678
X19.446 Y60.307 Z-11.753
X19.479 Y60.324 Z-11.822
X19.524 Y60.346 Z-11.883
X19.578 Y60.374 Z-11.933
X19.639 Y60.406 Z-11.97
X19.706 Y60.44 Z-11.992
X19.775 Y60.476 Z-12.
G3 X21.613 Y61.685 R10.212
G1 X21.663 Y61.73
X21.708 Y61.857
X21.695 Y61.992
X21.661 Y62.122
X21.609 Y62.247
X21.54 Y62.363
X21.46 Y62.472
X21.372 Y62.574
X21.276 Y62.669
X21.172 Y62.755
X20.935 Y62.908
X20.677 Y63.03
X20.42 Y63.113
X20.26 Y63.148
X20.083 Y63.175
X19.77 Y63.192
X19.625 Y63.186
X19.451 Y63.167
X19.254 Y63.133
X19.082 Y63.092
X18.925 Y63.044
X18.779 Y62.988
X18.609 Y62.911
X18.423 Y62.811
X18.264 Y62.713
X18.129 Y62.617
X18.001 Y62.513
X17.855 Y62.378
X17.706 Y62.221
X17.588 Y62.08
X17.489 Y61.945
X17.395 Y61.797
X17.295 Y61.615
X17.203 Y61.419
X17.136 Y61.249
X17.085 Y61.091
X17.039 Y60.911
X16.999 Y60.697
X16.975 Y60.49
X16.965 Y60.32
X16.967 Y60.143
X16.981 Y59.946
X17.011 Y59.724
X17.05 Y59.534
X17.096 Y59.366
X17.152 Y59.201
X17.233 Y59.005
X17.33 Y58.809
X17.422 Y58.646
X17.515 Y58.506
X17.627 Y58.359
X17.773 Y58.19
X17.919 Y58.041
X18.053 Y57.921
X18.185 Y57.818
X18.347 Y57.706
X18.54 Y57.591
X18.718 Y57.5
X18.877 Y57.431
X19.041 Y57.372
X19.243 Y57.313
X19.459 Y57.265
X19.645 Y57.237
X19.813 Y57.222
X19.998 Y57.217
X20.217 Y57.225
X20.428 Y57.247
X20.608 Y57.277
X20.771 Y57.315
X20.959 Y57.372
X21.172 Y57.452
X21.353 Y57.533
X21.505 Y57.614
X21.654 Y57.705
X21.824 Y57.825
X21.995 Y57.963
X22.137 Y58.094
X22.254 Y58.216
X22.373 Y58.356
X22.501 Y58.531
X22.618 Y58.713
X22.703 Y58.865
X22.779 Y59.023
X22.851 Y59.205
X22.921 Y59.42
X22.971 Y59.613
X23.003 Y59.783
X23.025 Y59.956
X23.037 Y60.164
Y60.387
X23.006 Y60.833
X22.955 Y61.217
X22.898 Y61.502
X22.833 Y61.747
X22.758 Y61.971
X22.674 Y62.177
X22.582 Y62.366
X22.482 Y62.541
X22.374 Y62.707
X22.254 Y62.866
X22.125 Y63.017
X21.987 Y63.158
X21.843 Y63.288
X21.69 Y63.41
X21.527 Y63.523
X21.353 Y63.627
X21.172 Y63.721
X20.985 Y63.804
X20.794 Y63.873
X20.595 Y63.932
X20.386 Y63.979
X20.173 Y64.013
X19.957 Y64.033
X19.741 Y64.04
X19.521 Y64.032
X19.296 Y64.01
X19.07 Y63.973
X18.847 Y63.922
X18.63 Y63.857
X18.414 Y63.777
X18.198 Y63.682
X17.988 Y63.572
X17.786 Y63.449
X17.593 Y63.314
X17.407 Y63.166
X17.229 Y63.003
X17.059 Y62.827
X16.901 Y62.642
X16.757 Y62.449
X16.625 Y62.245
X16.504 Y62.03
X16.396 Y61.806
X16.304 Y61.578
X16.227 Y61.346
X16.164 Y61.107
X16.116 Y60.86
X16.084 Y60.611
X16.068 Y60.363
Y60.117
X16.084 Y59.868
X16.116 Y59.615
X16.165 Y59.368
X16.227 Y59.128
X16.305 Y58.893
X16.4 Y58.658
X16.51 Y58.429
X16.634 Y58.209
X16.769 Y58.001
X16.917 Y57.801
X17.082 Y57.607
X17.259 Y57.424
X17.445 Y57.255
X17.638 Y57.1
X17.844 Y56.956
X18.063 Y56.823
X18.288 Y56.705
X18.516 Y56.604
X18.749 Y56.518
X18.992 Y56.445
X19.241 Y56.388
X19.491 Y56.347
X19.739 Y56.322
X19.988 Y56.314
X20.243 Y56.321
X20.498 Y56.345
X20.746 Y56.384
X20.988 Y56.439
X21.229 Y56.51
X21.469 Y56.597
X21.703 Y56.7
X21.925 Y56.815
X22.138 Y56.943
X22.346 Y57.087
X22.547 Y57.247
X22.735 Y57.416
X22.909 Y57.594
X23.071 Y57.784
X23.225 Y57.988
X23.365 Y58.202
X23.49 Y58.421
X23.598 Y58.644
X23.694 Y58.877
X23.775 Y59.12
X23.852 Y59.406
X23.911 Y59.703
X23.954 Y60.028
X23.977 Y60.359
X23.979 Y60.688
X23.959 Y61.01
X23.921 Y61.322
X23.864 Y61.62
X23.791 Y61.904
X23.702 Y62.176
X23.598 Y62.438
X23.479 Y62.689
X23.346 Y62.928
X23.199 Y63.155
X23.04 Y63.371
X22.868 Y63.575
X22.684 Y63.768
X22.488 Y63.948
X22.282 Y64.114
X22.065 Y64.267
X21.838 Y64.407
X21.601 Y64.532
X21.355 Y64.643
X21.102 Y64.738
X20.842 Y64.816
X20.576 Y64.879
X20.303 Y64.925
X20.027 Y64.954
X19.737 Y64.958
X19.673 Y64.952
X19.141 Y64.887
X18.868 Y64.851
X17.896 Y64.486
X17.79 Y64.439
X16.884 Y63.817
X16.736 Y63.661
X16.117 Y62.96
X15.906 Y62.571
X15.581 Y61.949
X15.307 Y60.859
X15.299 Y60.703
X15.302 Y59.692
X15.577 Y58.575
X16.092 Y57.59
X16.358 Y57.279
X16.873 Y56.705
X17.809 Y56.062
X18.868 Y55.661
X19.997 Y55.524
X21.087 Y55.653
X21.164 Y55.671
X22.188 Y56.06
X23.124 Y56.702
X23.504 Y57.123
X23.811 Y57.469
X23.908 Y57.59
X24.418 Y58.564
X24.589 Y59.233
X24.698 Y59.692
X24.699 Y60.82
X24.433 Y61.908
X24.176 Y62.416
X23.883 Y62.961
X23.188 Y63.747
X23.115 Y63.817
X22.212 Y64.439
X21.164 Y64.841
X21.009 Y64.869
X19.997 Y64.988
X19.673 Y64.952
X19.628 Y64.935 Z-11.992
X19.587 Y64.92 Z-11.97
X19.555 Y64.908 Z-11.935
X19.534 Y64.901 Z-11.891
X19.527 Y64.898 Z-11.843
G0 Z5.
X59.541 Y19.899
Z-11.2
G1 Z-11.6 F400.
X59.544 Y19.906 Z-11.678
X59.552 Y19.927 Z-11.753
X59.566 Y19.961 Z-11.822
X59.584 Y20.008 Z-11.883
X59.606 Y20.064 Z-11.933
X59.631 Y20.129 Z-11.97
X59.658 Y20.199 Z-11.992
X59.686 Y20.271 Z-12.
G3 X60.26 Y22.395 R10.212
G1 X60.268 Y22.462
X60.207 Y22.583
X60.111 Y22.678
X59.998 Y22.752
X59.876 Y22.808
X59.748 Y22.852
X59.616 Y22.883
X59.483 Y22.9
X59.348 Y22.904
X59.077 Y22.884
X58.813 Y22.828
X58.535 Y22.725
X58.386 Y22.654
X58.138 Y22.504
X58.022 Y22.418
X57.889 Y22.305
X57.751 Y22.171
X57.635 Y22.044
X57.451 Y21.798
X57.354 Y21.639
X57.26 Y21.458
X57.185 Y21.29
X57.13 Y21.141
X57.082 Y20.98
X57.037 Y20.787
X57.003 Y20.577
X56.985 Y20.396
X56.98 Y20.233
X56.985 Y20.056
X57.005 Y19.846
X57.038 Y19.638
X57.078 Y19.46
X57.124 Y19.302
X57.188 Y19.128
X57.277 Y18.925
X57.371 Y18.744
X57.461 Y18.595
X57.557 Y18.455
X57.68 Y18.301
X57.83 Y18.134
X57.97 Y17.998
X58.101 Y17.886
X58.24 Y17.781
X58.417 Y17.665
X58.607 Y17.557
X58.775 Y17.475
X58.932 Y17.411
X59.106 Y17.353
X59.321 Y17.295
X59.527 Y17.254
X59.705 Y17.231
X59.872 Y17.219
X60.069 Y17.218
X60.291 Y17.232
X60.491 Y17.257
X60.662 Y17.289
X60.831 Y17.333
X61.03 Y17.398
X61.233 Y17.479
X61.407 Y17.561
X61.554 Y17.643
X61.709 Y17.743
X61.881 Y17.87
X62.048 Y18.011
X62.177 Y18.134
X62.292 Y18.26
X62.416 Y18.413
X62.545 Y18.596
X62.649 Y18.765
X62.732 Y18.922
X62.802 Y19.079
X62.876 Y19.275
X62.941 Y19.488
X62.984 Y19.672
X63.012 Y19.838
X63.03 Y20.02
X63.039 Y20.242
X63.034 Y20.452
X63.017 Y20.633
X62.992 Y20.799
X62.949 Y20.99
X62.887 Y21.207
X62.819 Y21.394
X62.749 Y21.555
X62.67 Y21.71
X62.563 Y21.889
X62.437 Y22.072
X62.32 Y22.221
X62.207 Y22.348
X61.88 Y22.669
X61.586 Y22.924
X61.345 Y23.107
X61.127 Y23.251
X60.923 Y23.368
X60.729 Y23.464
X60.535 Y23.544
X60.34 Y23.61
X60.144 Y23.663
X59.95 Y23.703
X59.758 Y23.729
X59.563 Y23.743
X59.366 Y23.745
X59.167 Y23.734
X58.969 Y23.71
X58.773 Y23.674
X58.58 Y23.625
X58.386 Y23.563
X58.192 Y23.486
X58. Y23.396
X57.815 Y23.294
X57.638 Y23.181
X57.464 Y23.054
X57.294 Y22.912
X57.132 Y22.758
X56.98 Y22.595
X56.84 Y22.422
X56.708 Y22.237
X56.585 Y22.039
X56.475 Y21.833
X56.379 Y21.621
X56.296 Y21.404
X56.227 Y21.179
X56.171 Y20.945
X56.13 Y20.707
X56.104 Y20.468
X56.094 Y20.23
X56.099 Y19.988
X56.12 Y19.743
X56.157 Y19.499
X56.209 Y19.26
X56.275 Y19.026
X56.357 Y18.795
X56.456 Y18.565
X56.569 Y18.341
X56.695 Y18.129
X56.833 Y17.926
X56.986 Y17.729
X57.154 Y17.54
X57.333 Y17.363
X57.519 Y17.2
X57.715 Y17.05
X57.925 Y16.909
X58.146 Y16.782
X58.371 Y16.67
X58.599 Y16.574
X58.834 Y16.493
X59.079 Y16.425
X59.328 Y16.373
X59.577 Y16.338
X59.824 Y16.319
X60.075 Y16.316
X60.33 Y16.329
X60.583 Y16.358
X60.829 Y16.402
X61.07 Y16.462
X61.31 Y16.538
X61.549 Y16.631
X61.779 Y16.738
X61.997 Y16.857
X62.208 Y16.991
X62.415 Y17.14
X62.612 Y17.303
X62.795 Y17.476
X62.965 Y17.657
X63.124 Y17.852
X63.274 Y18.06
X63.409 Y18.276
X63.528 Y18.496
X63.632 Y18.721
X63.723 Y18.958
X63.799 Y19.203
X63.859 Y19.449
X63.903 Y19.694
X63.931 Y19.942
X63.943 Y20.196
X63.938 Y20.452
X63.918 Y20.703
X63.882 Y20.949
X63.83 Y21.194
X63.761 Y21.441
X63.677 Y21.682
X63.579 Y21.912
X63.447 Y22.175
X63.295 Y22.435
X63.113 Y22.704
X62.911 Y22.967
X62.692 Y23.215
X62.463 Y23.444
X62.228 Y23.652
X61.988 Y23.837
X61.743 Y24.002
X61.495 Y24.147
X61.243 Y24.274
X60.988 Y24.382
X60.73 Y24.473
X60.469 Y24.546
X60.206 Y24.602
X59.941 Y24.641
X59.676 Y24.662
X59.411 Y24.667
X59.146 Y24.654
X58.882 Y24.625
X58.619 Y24.579
X58.359 Y24.515
X58.103 Y24.435
X57.85 Y24.338
X57.603 Y24.225
X57.362 Y24.094
X57.128 Y23.948
X56.903 Y23.787
X56.68 Y23.595
X56.636 Y23.548
X56.113 Y22.955
X55.658 Y22.098
X55.567 Y21.909
X55.307 Y20.853
X55.299 Y20.542
X55.303 Y19.686
X55.567 Y18.605
X55.603 Y18.518
X56.095 Y17.584
X56.639 Y16.962
X56.812 Y16.766
X56.881 Y16.699
X57.783 Y16.076
X58.305 Y15.872
X58.836 Y15.671
X58.991 Y15.644
X60.003 Y15.524
X61.132 Y15.661
X62.183 Y16.059
X62.571 Y16.319
X63.122 Y16.701
X63.361 Y16.962
X63.905 Y17.584
X64.422 Y18.572
X64.698 Y19.686
X64.701 Y20.775
X64.694 Y20.853
X64.421 Y21.943
X63.934 Y22.877
X63.886 Y22.955
X63.194 Y23.74
X63.123 Y23.811
X62.221 Y24.433
X62.104 Y24.486
X61.17 Y24.84
X61.015 Y24.868
X60.003 Y24.988
X58.913 Y24.86
X58.836 Y24.841
X57.84 Y24.465
X57.746 Y24.412
X56.877 Y23.811
X56.636 Y23.548
X56.613 Y23.506 Z-11.992
X56.593 Y23.467 Z-11.97
X56.576 Y23.437 Z-11.935
X56.566 Y23.418 Z-11.891
X56.562 Y23.411 Z-11.843
G0 Z5.
X59.445 Y60.431
Z-11.2
G1 Z-11.6 F400.
X59.452 Y60.433 Z-11.678
X59.475 Y60.438 Z-11.753
X59.511 Y60.446 Z-11.822
X59.559 Y60.458 Z-11.883
X59.618 Y60.472 Z-11.933
X59.685 Y60.488 Z-11.97
X59.758 Y60.505 Z-11.992
X59.834 Y60.523 Z-12.
G3 X61.908 Y61.258 R10.212
G1 X61.968 Y61.289
X62.048 Y61.398
X62.068 Y61.531
X62.066 Y61.666
X62.043 Y61.799
X62.005 Y61.929
X61.955 Y62.054
X61.895 Y62.175
X61.823 Y62.29
X61.742 Y62.397
X61.548 Y62.605
X61.34 Y62.777
X61.089 Y62.932
X60.93 Y63.01
X60.644 Y63.118
X60.341 Y63.19
X60.148 Y63.216
X59.965 Y63.23
X59.805 Y63.231
X59.652 Y63.223
X59.472 Y63.201
X59.265 Y63.163
X59.083 Y63.117
X58.925 Y63.066
X58.774 Y63.007
X58.599 Y62.925
X58.409 Y62.821
X58.249 Y62.718
X58.114 Y62.62
X57.983 Y62.511
X57.833 Y62.369
X57.686 Y62.21
X57.57 Y62.067
X57.473 Y61.931
X57.377 Y61.777
X57.277 Y61.59
X57.188 Y61.393
X57.124 Y61.227
X57.074 Y61.066
X57.03 Y60.878
X56.992 Y60.659
X56.97 Y60.46
X56.963 Y60.291
X56.966 Y60.112
X56.984 Y59.907
X57.017 Y59.686
X57.057 Y59.5
X57.103 Y59.338
X57.163 Y59.168
X57.249 Y58.967
X57.345 Y58.778
X57.438 Y58.621
X57.534 Y58.48
X57.651 Y58.329
X57.801 Y58.16
X57.945 Y58.017
X58.077 Y57.901
X58.212 Y57.798
X58.383 Y57.684
X58.575 Y57.572
X58.749 Y57.485
X58.906 Y57.419
X59.076 Y57.361
X59.285 Y57.303
X59.496 Y57.259
X59.678 Y57.233
X59.845 Y57.22
X60.037 Y57.217
X60.26 Y57.228
X60.466 Y57.252
X60.636 Y57.283
X60.804 Y57.324
X60.999 Y57.386
X61.207 Y57.467
X61.383 Y57.549
X61.533 Y57.63
X61.684 Y57.726
X61.855 Y57.85
X62.025 Y57.99
X62.16 Y58.117
X62.276 Y58.241
X62.397 Y58.388
X62.527 Y58.569
X62.637 Y58.744
X62.718 Y58.894
X62.792 Y59.055
X62.865 Y59.244
X62.932 Y59.458
X62.979 Y59.648
X63.06 Y60.104
X63.101 Y60.475
X63.115 Y60.764
X63.111 Y61.022
X63.092 Y61.257
X63.06 Y61.475
X63.017 Y61.677
X62.963 Y61.872
X62.897 Y62.062
X62.819 Y62.246
X62.73 Y62.422
X62.632 Y62.59
X62.524 Y62.752
X62.403 Y62.908
X62.27 Y63.059
X62.127 Y63.203
X61.976 Y63.336
X61.816 Y63.459
X61.647 Y63.574
X61.465 Y63.68
X61.273 Y63.777
X61.075 Y63.861
X60.874 Y63.932
X60.665 Y63.991
X60.446 Y64.037
X60.221 Y64.07
X59.996 Y64.089
X59.771 Y64.093
X59.542 Y64.082
X59.31 Y64.057
X59.077 Y64.016
X58.849 Y63.96
X58.625 Y63.89
X58.404 Y63.806
X58.186 Y63.705
X57.971 Y63.59
X57.766 Y63.462
X57.571 Y63.322
X57.384 Y63.169
X57.205 Y63.001
X57.034 Y62.82
X56.877 Y62.631
X56.733 Y62.433
X56.602 Y62.226
X56.482 Y62.006
X56.376 Y61.778
X56.286 Y61.548
X56.211 Y61.313
X56.151 Y61.072
X56.106 Y60.822
X56.076 Y60.571
X56.063 Y60.323
X56.066 Y60.076
X56.085 Y59.825
X56.121 Y59.572
X56.172 Y59.325
X56.238 Y59.086
X56.319 Y58.851
X56.417 Y58.617
X56.53 Y58.388
X56.656 Y58.17
X56.794 Y57.964
X56.946 Y57.765
X57.113 Y57.572
X57.293 Y57.391
X57.48 Y57.225
X57.675 Y57.072
X57.884 Y56.93
X58.104 Y56.8
X58.33 Y56.685
X58.559 Y56.586
X58.794 Y56.503
X59.038 Y56.433
X59.289 Y56.378
X59.538 Y56.341
X59.785 Y56.319
X60.036 Y56.314
X60.291 Y56.324
X60.545 Y56.351
X60.792 Y56.394
X61.034 Y56.451
X61.275 Y56.525
X61.514 Y56.616
X61.745 Y56.721
X61.966 Y56.838
X62.178 Y56.969
X62.385 Y57.117
X62.584 Y57.278
X62.769 Y57.449
X62.94 Y57.629
X63.101 Y57.822
X63.253 Y58.028
X63.39 Y58.244
X63.534 Y58.504
X63.664 Y58.779
X63.784 Y59.082
X63.886 Y59.398
X63.966 Y59.716
X64.026 Y60.034
X64.063 Y60.345
X64.08 Y60.647
X64.078 Y60.94
X64.058 Y61.226
X64.02 Y61.505
X63.965 Y61.777
X63.893 Y62.041
X63.806 Y62.297
X63.704 Y62.545
X63.586 Y62.785
X63.454 Y63.016
X63.307 Y63.238
X63.148 Y63.449
X62.974 Y63.65
X62.787 Y63.841
X62.587 Y64.02
X62.376 Y64.186
X62.154 Y64.339
X61.92 Y64.479
X61.676 Y64.604
X61.423 Y64.714
X61.161 Y64.809
X60.88 Y64.883
X60.816 Y64.893
X60.236 Y64.963
X60.003 Y64.988
X58.913 Y64.86
X58.836 Y64.841
X57.788 Y64.439
X56.885 Y63.817
X56.736 Y63.661
X56.117 Y62.961
X55.824 Y62.416
X55.567 Y61.908
X55.301 Y60.82
X55.302 Y59.692
X55.567 Y58.605
X55.6 Y58.524
X56.092 Y57.59
X56.358 Y57.279
X56.812 Y56.766
X56.876 Y56.702
X57.812 Y56.06
X58.836 Y55.671
X58.991 Y55.644
X60.003 Y55.524
X61.132 Y55.661
X62.191 Y56.062
X63.127 Y56.705
X63.817 Y57.476
X63.908 Y57.59
X64.423 Y58.575
X64.698 Y59.692
Y60.82
X64.439 Y61.887
X64.419 Y61.949
X63.93 Y62.883
X63.883 Y62.96
X63.155 Y63.783
X62.883 Y63.978
X62.21 Y64.439
X61.406 Y64.751
X61.132 Y64.851
X60.816 Y64.893
X60.782 Y64.894 Z-11.996
X60.743 Y64.888 Z-11.981
X60.709 Y64.883 Z-11.957
X60.683 Y64.879 Z-11.924
X60.667 Y64.876 Z-11.885
X60.661 Y64.875 Z-11.843
G0 Z5.
X19.894 Y19.684
Z-11.2
G1 Z-11.6 F400.
X19.891 Y19.691 Z-11.678
X19.883 Y19.713 Z-11.753
X19.87 Y19.748 Z-11.822
X19.853 Y19.794 Z-11.883
X19.832 Y19.851 Z-11.933
X19.808 Y19.916 Z-11.97
X19.782 Y19.986 Z-11.992
X19.755 Y20.06 Z-12.
G3 X18.776 Y22.03 R10.212
G1 X18.738 Y22.085
X18.614 Y22.14
X18.479 Y22.143
X18.346 Y22.124
X18.216 Y22.088
X18.091 Y22.035
X17.974 Y21.969
X17.757 Y21.808
X17.658 Y21.716
X17.568 Y21.616
X17.398 Y21.379
X17.262 Y21.129
X17.162 Y20.867
X17.117 Y20.702
X17.08 Y20.522
X17.046 Y20.22
X17.044 Y20.062
X17.054 Y19.877
X17.077 Y19.678
X17.108 Y19.508
X17.147 Y19.352
X17.196 Y19.197
X17.268 Y19.012
X17.355 Y18.826
X17.442 Y18.667
X17.53 Y18.528
X17.632 Y18.388
X17.766 Y18.226
X17.91 Y18.073
X18.041 Y17.951
X18.167 Y17.848
X18.317 Y17.74
X18.502 Y17.624
X18.683 Y17.526
X18.842 Y17.453
X18.999 Y17.393
X19.187 Y17.334
X19.405 Y17.281
X19.595 Y17.248
X19.767 Y17.229
X19.941 Y17.221
X20.152 Y17.224
X20.371 Y17.242
X20.557 Y17.269
X20.72 Y17.304
X20.897 Y17.354
X21.107 Y17.428
X21.297 Y17.508
X21.458 Y17.589
X21.605 Y17.675
X21.768 Y17.785
X21.943 Y17.92
X22.096 Y18.056
X22.217 Y18.176
X22.333 Y18.308
X22.46 Y18.473
X22.584 Y18.658
X22.679 Y18.82
X22.756 Y18.973
X22.827 Y19.142
X22.901 Y19.352
X22.957 Y19.554
X22.995 Y19.73
X23.019 Y19.897
X23.035 Y20.092
X23.038 Y20.318
X23.029 Y20.514
X23.01 Y20.69
X22.979 Y20.861
X22.93 Y21.064
X22.863 Y21.276
X22.795 Y21.453
X22.724 Y21.607
X22.637 Y21.768
X22.52 Y21.956
X22.397 Y22.126
X22.281 Y22.267
X22.167 Y22.39
X22.025 Y22.523
X21.85 Y22.668
X21.687 Y22.786
X21.541 Y22.878
X21.389 Y22.961
X21.2 Y23.049
X20.993 Y23.129
X20.81 Y23.187
X20.646 Y23.228
X20.467 Y23.26
X20.247 Y23.286
X19.794 Y23.309
X19.401 Y23.303
X19.105 Y23.281
X18.855 Y23.245
X18.627 Y23.198
X18.413 Y23.138
X18.212 Y23.069
X18.024 Y22.99
X17.847 Y22.902
X17.677 Y22.803
X17.512 Y22.693
X17.355 Y22.573
X17.207 Y22.444
X17.069 Y22.306
X16.938 Y22.159
X16.815 Y22.001
X16.7 Y21.832
X16.595 Y21.654
X16.503 Y21.471
X16.421 Y21.282
X16.351 Y21.083
X16.291 Y20.874
X16.245 Y20.661
X16.213 Y20.445
X16.194 Y20.227
X16.189 Y20.004
X16.199 Y19.775
X16.224 Y19.547
X16.263 Y19.321
X16.316 Y19.099
X16.385 Y18.875
X16.469 Y18.653
X16.568 Y18.436
X16.68 Y18.227
X16.805 Y18.026
X16.944 Y17.831
X17.098 Y17.642
X17.264 Y17.462
X17.44 Y17.295
X17.626 Y17.14
X17.823 Y16.996
X18.033 Y16.862
X18.251 Y16.742
X18.474 Y16.638
X18.701 Y16.548
X18.937 Y16.472
X19.182 Y16.41
X19.43 Y16.364
X19.675 Y16.335
X19.921 Y16.321
X20.173 Y16.324
X20.426 Y16.342
X20.675 Y16.376
X20.917 Y16.426
X21.157 Y16.491
X21.397 Y16.573
X21.632 Y16.67
X21.857 Y16.781
X22.072 Y16.904
X22.281 Y17.043
X22.485 Y17.197
X22.677 Y17.363
X22.855 Y17.539
X23.021 Y17.724
X23.177 Y17.923
X23.322 Y18.134
X23.452 Y18.352
X23.565 Y18.573
X23.664 Y18.802
X23.751 Y19.042
X23.822 Y19.287
X23.876 Y19.533
X23.914 Y19.778
X23.936 Y20.028
X23.943 Y20.284
X23.933 Y20.539
X23.907 Y20.788
X23.866 Y21.033
X23.808 Y21.28
X23.733 Y21.525
X23.644 Y21.762
X23.542 Y21.989
X23.426 Y22.209
X23.292 Y22.427
X23.144 Y22.636
X22.986 Y22.832
X22.818 Y23.015
X22.637 Y23.188
X22.441 Y23.353
X22.236 Y23.505
X22.026 Y23.64
X21.808 Y23.761
X21.579 Y23.87
X21.305 Y23.979
X21.017 Y24.073
X20.7 Y24.154
X20.373 Y24.217
X20.046 Y24.257
X19.724 Y24.276
X19.41 Y24.275
X19.106 Y24.254
X18.815 Y24.215
X18.533 Y24.159
X18.261 Y24.087
X17.998 Y23.998
X17.745 Y23.894
X17.501 Y23.776
X17.268 Y23.643
X17.045 Y23.497
X16.833 Y23.337
X16.631 Y23.164
X16.441 Y22.979
X16.263 Y22.782
X16.098 Y22.573
X15.945 Y22.353
X15.806 Y22.122
X15.682 Y21.882
X15.573 Y21.633
X15.479 Y21.376
X15.401 Y21.111
X15.34 Y20.84
X15.301 Y20.553
X15.299 Y20.49
Y19.919
X15.302 Y19.686
X15.578 Y18.572
X16.095 Y17.584
X16.806 Y16.773
X16.878 Y16.701
X17.74 Y16.105
X17.817 Y16.059
X18.868 Y15.661
X19.997 Y15.524
X21.087 Y15.653
X21.164 Y15.671
X22.18 Y16.057
X22.41 Y16.208
X23.119 Y16.699
X23.223 Y16.806
X23.811 Y17.469
X23.905 Y17.584
X24.397 Y18.518
X24.433 Y18.605
X24.697 Y19.686
X24.701 Y20.697
X24.693 Y20.853
X24.421 Y21.943
X23.934 Y22.877
X23.887 Y22.955
X23.188 Y23.747
X23.123 Y23.811
X22.221 Y24.433
X22.098 Y24.488
X21.164 Y24.841
X21.009 Y24.869
X19.997 Y24.988
X18.907 Y24.859
X18.83 Y24.84
X17.837 Y24.463
X17.74 Y24.408
X16.877 Y23.811
X16.455 Y23.344
X16.114 Y22.955
X15.821 Y22.41
X15.579 Y21.943
X15.306 Y20.853
X15.299 Y20.697
Y20.49
X15.31 Y20.443 Z-11.992
X15.32 Y20.4 Z-11.97
X15.328 Y20.367 Z-11.935
X15.333 Y20.345 Z-11.891
X15.335 Y20.338 Z-11.843
G0 Z5.
X19.01 Y59.266
Z-14.1
G1 Z-14.5 F400.
G3 X20.99 Y61.247 Z-15.276 R1.4
X19.01 Y59.266 Z-16.051 R1.4
X20.99 Y61.247 Z-16.827 R1.4
X19.01 Y59.266 Z-17.602 R1.4
X20.99 Y61.247 Z-18.378 R1.4
X19.01 Y59.266 Z-19.153 R1.4
X20.99 Y61.247 Z-19.929 R1.4
X19.01 Y59.266 Z-20.704 R1.4
X20.99 Y61.247 Z-21.48 R1.4
X19.01 Y59.266 Z-22.255 R1.4
X20.99 Y61.247 Z-23.031 R1.4
X19.01 Y59.266 Z-23.806 R1.4
X20.99 Y61.247 Z-24.582 R1.4
X19.01 Y59.266 Z-25.357 R1.4
X20.99 Y61.247 Z-26.133 R1.4
X19.01 Y59.266 Z-26.908 R1.4
X21.4 Y60.256 Z-27.49 R1.4
X18.6 R1.4
X21.4 R1.4
G1 X21.437 Y61.027
X21.43 Y61.161
X21.402 Y61.293
X21.357 Y61.421
X21.296 Y61.541
X21.223 Y61.655
X21.138 Y61.76
X21.044 Y61.856
X20.941 Y61.944
X20.831 Y62.022
X20.714 Y62.09
X20.592 Y62.148
X20.466 Y62.197
X20.337 Y62.235
X20.205 Y62.264
X19.937 Y62.291
X19.667 Y62.279
X19.402 Y62.228
X19.146 Y62.142
X18.905 Y62.021
X18.682 Y61.869
X18.482 Y61.688
X18.307 Y61.483
X18.16 Y61.256
X18.045 Y61.012
X17.962 Y60.756
X17.913 Y60.49
X17.899 Y60.221
X17.92 Y59.952
X17.975 Y59.687
X18.064 Y59.433
X18.185 Y59.191
X18.336 Y58.968
X18.514 Y58.765
X18.717 Y58.587
X18.941 Y58.436
X19.182 Y58.316
X19.437 Y58.227
X19.701 Y58.172
X19.97 Y58.15
X20.24 Y58.164
X20.505 Y58.212
X20.763 Y58.293
X21.008 Y58.406
X21.236 Y58.55
X21.444 Y58.722
X21.628 Y58.92
X21.792 Y59.148
X21.883 Y59.304
X21.982 Y59.503
X22.073 Y59.718
X22.158 Y59.974
X22.188 Y60.109
X22.201 Y60.247
X22.199 Y60.385
X22.174 Y60.703
X22.159 Y60.781
X21.923 Y61.37
X21.541 Y61.854
X21.476 Y61.915
X20.962 Y62.26
X20.347 Y62.452
X20.075 Y62.459
X19.686 Y62.455
X19.528 Y62.416
X19.039 Y62.26
X18.518 Y61.91
X18.456 Y61.852
X18.074 Y61.365
X17.841 Y60.781
X17.826 Y60.703
X17.784 Y60.081
X17.927 Y59.458
X18.097 Y59.147
X18.244 Y58.896
X18.294 Y58.836
X18.752 Y58.417
X19.335 Y58.136
X19.813 Y58.057
X19.997 Y58.034
X20.62 Y58.123
X20.697 Y58.148
X21.242 Y58.415
X21.371 Y58.524
X21.732 Y58.863
X21.993 Y59.303
X22.073 Y59.458
X22.215 Y60.081
X22.199 Y60.385
X22.184 Y60.432 Z-27.482
X22.171 Y60.473 Z-27.46
X22.161 Y60.506 Z-27.425
X22.154 Y60.527 Z-27.381
X22.152 Y60.534 Z-27.333
G0 Z5.
X59.01 Y19.266
Z-14.1
G1 Z-14.5 F400.
G3 X60.99 Y21.246 Z-15.276 R1.4
X59.01 Y19.266 Z-16.051 R1.4
X60.99 Y21.246 Z-16.827 R1.4
X59.01 Y19.266 Z-17.602 R1.4
X60.99 Y21.246 Z-18.378 R1.4
X59.01 Y19.266 Z-19.153 R1.4
X60.99 Y21.246 Z-19.929 R1.4
X59.01 Y19.266 Z-20.704 R1.4
X60.99 Y21.246 Z-21.48 R1.4
X59.01 Y19.266 Z-22.255 R1.4
X60.99 Y21.246 Z-23.031 R1.4
X59.01 Y19.266 Z-23.806 R1.4
X60.99 Y21.246 Z-24.582 R1.4
X59.01 Y19.266 Z-25.357 R1.4
X60.99 Y21.246 Z-26.133 R1.4
X59.01 Y19.266 Z-26.908 R1.4
X61.4 Y20.256 Z-27.49 R1.4
X58.6 R1.4
X61.4 R1.4
G1 X61.437 Y21.026
X61.43 Y21.161
X61.402 Y21.293
X61.357 Y21.42
X61.296 Y21.541
X61.223 Y21.654
X61.138 Y21.759
X61.044 Y21.856
X60.941 Y21.943
X60.831 Y22.021
X60.714 Y22.089
X60.592 Y22.148
X60.466 Y22.196
X60.337 Y22.235
X60.205 Y22.263
X59.937 Y22.29
X59.667 Y22.278
X59.402 Y22.228
X59.146 Y22.141
X58.905 Y22.02
X58.682 Y21.868
X58.482 Y21.688
X58.307 Y21.482
X58.16 Y21.255
X58.045 Y21.012
X57.962 Y20.755
X57.913 Y20.489
X57.899 Y20.22
X57.92 Y19.951
X57.975 Y19.687
X58.064 Y19.432
X58.185 Y19.191
X58.336 Y18.967
X58.514 Y18.764
X58.717 Y18.586
X58.941 Y18.436
X59.182 Y18.315
X59.437 Y18.226
X59.701 Y18.171
X59.97 Y18.15
X60.24 Y18.163
X60.505 Y18.211
X60.763 Y18.292
X61.008 Y18.406
X61.236 Y18.55
X61.444 Y18.722
X61.628 Y18.919
X61.792 Y19.147
X61.883 Y19.303
X61.982 Y19.502
X62.073 Y19.717
X62.159 Y19.974
X62.188 Y20.109
X62.201 Y20.246
X62.199 Y20.385
X62.17 Y20.736
X62.071 Y21.009
X61.929 Y21.359
X61.637 Y21.736
X61.546 Y21.849
X61.436 Y21.943
X60.973 Y22.254
X60.859 Y22.296
X60.353 Y22.45
X60.236 Y22.459
X59.692 Y22.457
X59.614 Y22.442
X59.087 Y22.28
X58.991 Y22.234
X58.49 Y21.887
X58.099 Y21.404
X58.052 Y21.32
X57.84 Y20.775
X57.824 Y20.697
X57.784 Y20.153
X57.786 Y20.075
X57.928 Y19.452
X58.213 Y18.947
X58.25 Y18.888
X58.369 Y18.766
X58.719 Y18.442
X58.856 Y18.363
X59.303 Y18.148
X59.38 Y18.123
X60.003 Y18.034
X60.626 Y18.124
X60.703 Y18.151
X61.248 Y18.418
X61.533 Y18.674
X61.7 Y18.83
X61.754 Y18.893
X61.989 Y19.297
X62.072 Y19.452
X62.214 Y20.075
X62.211 Y20.23
X62.199 Y20.385
X62.185 Y20.431 Z-27.482
X62.171 Y20.472 Z-27.46
X62.161 Y20.505 Z-27.425
X62.154 Y20.526 Z-27.381
X62.152 Y20.534 Z-27.333
G0 Z5.
X59.01 Y59.266
Z-14.1
G1 Z-14.5 F400.
G3 X60.989 Y61.247 Z-15.276 R1.4
X59.01 Y59.266 Z-16.051 R1.4
X60.989 Y61.247 Z-16.827 R1.4
X59.01 Y59.266 Z-17.602 R1.4
X60.989 Y61.247 Z-18.378 R1.4
X59.01 Y59.266 Z-19.153 R1.4
X60.989 Y61.247 Z-19.929 R1.4
X59.01 Y59.266 Z-20.704 R1.4
X60.989 Y61.247 Z-21.48 R1.4
X59.01 Y59.266 Z-22.255 R1.4
X60.989 Y61.247 Z-23.031 R1.4
X59.01 Y59.266 Z-23.806 R1.4
X60.989 Y61.247 Z-24.582 R1.4
X59.01 Y59.266 Z-25.357 R1.4
X60.989 Y61.247 Z-26.133 R1.4
X59.01 Y59.266 Z-26.908 R1.4
X61.4 Y60.256 Z-27.49 R1.4
X58.6 R1.4
X61.4 R1.4
G1 X61.437 Y61.027
X61.43 Y61.161
X61.402 Y61.293
X61.356 Y61.42
X61.296 Y61.541
X61.222 Y61.655
X61.138 Y61.76
X61.043 Y61.856
X60.94 Y61.944
X60.83 Y62.022
X60.714 Y62.09
X60.592 Y62.148
X60.466 Y62.197
X60.337 Y62.235
X60.205 Y62.264
X59.936 Y62.291
X59.667 Y62.278
X59.401 Y62.228
X59.146 Y62.142
X58.905 Y62.021
X58.682 Y61.869
X58.481 Y61.688
X58.306 Y61.483
X58.16 Y61.256
X58.044 Y61.012
X57.961 Y60.755
X57.913 Y60.49
X57.899 Y60.22
X57.919 Y59.951
X57.975 Y59.687
X58.064 Y59.433
X58.185 Y59.191
X58.335 Y58.967
X58.514 Y58.765
X58.717 Y58.587
X58.94 Y58.436
X59.182 Y58.316
X59.437 Y58.227
X59.701 Y58.171
X59.97 Y58.15
X60.239 Y58.164
X60.505 Y58.211
X60.762 Y58.293
X61.007 Y58.406
X61.235 Y58.55
X61.443 Y58.722
X61.628 Y58.919
X61.791 Y59.148
X61.882 Y59.304
X61.982 Y59.503
X62.072 Y59.718
X62.158 Y59.975
X62.188 Y60.111
X62.201 Y60.248
X62.199 Y60.387
X62.174 Y60.703
X62.159 Y60.781
X61.926 Y61.365
X61.544 Y61.852
X61.428 Y61.949
X60.961 Y62.26
X60.353 Y62.45
X60.236 Y62.459
X59.692 Y62.457
X59.528 Y62.416
X59.038 Y62.26
X58.491 Y61.888
X58.102 Y61.407
X58.054 Y61.326
X57.841 Y60.781
X57.826 Y60.703
X57.79 Y60.236
X57.785 Y60.081
X57.927 Y59.458
X58.097 Y59.147
X58.268 Y58.863
X58.719 Y58.442
X58.844 Y58.369
X59.341 Y58.134
X59.925 Y58.04
X60.003 Y58.034
X60.626 Y58.124
X60.703 Y58.151
X61.248 Y58.417
X61.706 Y58.836
X61.793 Y58.957
X61.993 Y59.303
X62.073 Y59.458
X62.216 Y60.081
X62.199 Y60.387
X62.184 Y60.433 Z-27.482
X62.171 Y60.474 Z-27.46
X62.161 Y60.507 Z-27.425
X62.154 Y60.528 Z-27.381
X62.152 Y60.536 Z-27.333
G0 Z5.
X19.01 Y19.266
Z-14.1
G1 Z-14.5 F400.
G3 X20.989 Y21.246 Z-15.276 R1.4
X19.01 Y19.266 Z-16.051 R1.4
X20.989 Y21.246 Z-16.827 R1.4
X19.01 Y19.266 Z-17.602 R1.4
X20.989 Y21.246 Z-18.378 R1.4
X19.01 Y19.266 Z-19.153 R1.4
X20.989 Y21.246 Z-19.929 R1.4
X19.01 Y19.266 Z-20.704 R1.4
X20.989 Y21.246 Z-21.48 R1.4
X19.01 Y19.266 Z-22.255 R1.4
X20.989 Y21.246 Z-23.031 R1.4
X19.01 Y19.266 Z-23.806 R1.4
X20.989 Y21.246 Z-24.582 R1.4
X19.01 Y19.266 Z-25.357 R1.4
X20.989 Y21.246 Z-26.133 R1.4
X19.01 Y19.266 Z-26.908 R1.4
X21.4 Y20.256 Z-27.49 R1.4
X18.6 R1.4
X21.4 R1.4
G1 X21.437 Y21.026
X21.43 Y21.161
X21.402 Y21.293
X21.356 Y21.42
X21.296 Y21.541
X21.223 Y21.654
X21.138 Y21.76
X21.043 Y21.856
X20.941 Y21.943
X20.83 Y22.021
X20.714 Y22.09
X20.592 Y22.148
X20.466 Y22.197
X20.337 Y22.235
X20.205 Y22.264
X19.936 Y22.291
X19.667 Y22.278
X19.402 Y22.228
X19.146 Y22.141
X18.905 Y22.021
X18.682 Y21.869
X18.481 Y21.688
X18.306 Y21.483
X18.16 Y21.256
X18.044 Y21.012
X17.962 Y20.755
X17.913 Y20.49
X17.899 Y20.22
X17.92 Y19.951
X17.975 Y19.687
X18.064 Y19.432
X18.185 Y19.191
X18.336 Y18.967
X18.514 Y18.765
X18.717 Y18.587
X18.941 Y18.436
X19.182 Y18.316
X19.437 Y18.227
X19.701 Y18.171
X19.97 Y18.15
X20.24 Y18.164
X20.505 Y18.211
X20.763 Y18.293
X21.007 Y18.406
X21.236 Y18.55
X21.444 Y18.722
X21.628 Y18.919
X21.792 Y19.148
X21.882 Y19.304
X21.982 Y19.503
X22.073 Y19.718
X22.158 Y19.975
X22.188 Y20.11
X22.201 Y20.248
X22.199 Y20.386
X22.17 Y20.736
X22.071 Y21.009
X21.943 Y21.332
X21.901 Y21.404
X21.51 Y21.887
X20.972 Y22.254
X20.853 Y22.298
X20.347 Y22.452
X20.075 Y22.459
X19.686 Y22.455
X19.509 Y22.41
X19.084 Y22.279
X18.985 Y22.23
X18.518 Y21.91
X18.454 Y21.849
X18.095 Y21.398
X18.051 Y21.319
X17.84 Y20.775
X17.824 Y20.697
X17.784 Y20.153
X17.786 Y20.075
X17.928 Y19.452
X18.207 Y18.957
X18.246 Y18.893
X18.3 Y18.83
X18.674 Y18.482
X18.752 Y18.418
X19.335 Y18.136
X19.852 Y18.051
X19.997 Y18.034
X20.62 Y18.123
X20.697 Y18.148
X21.242 Y18.414
X21.476 Y18.621
X21.7 Y18.83
X21.75 Y18.888
X21.989 Y19.297
X22.072 Y19.452
X22.214 Y20.075
X22.211 Y20.23
X22.199 Y20.386
G3 X22.152 Y20.535 R0.4
G1 X22.114 Y20.603 Z-27.482
X22.078 Y20.669 Z-27.46
X22.045 Y20.73 Z-27.423
X22.016 Y20.783 Z-27.373
X21.992 Y20.826 Z-27.312
X21.974 Y20.859 Z-27.243
X21.963 Y20.879 Z-27.168
X21.959 Y20.885 Z-27.09
G0 Z10.

M9
M30
