(_40_80_160_)
(T1  D=4. CR=0. - ZMIN=-13.5 - FLAT END MILL)
G90 G94 G91.1 G40 G49 G17
G21

(ADAPTIVE2)
M5
M9
T1
S2670 M3
G54
M8
G0 X21.091 Y60.878
G43 Z10. H1
Z5.
Z0.91
G1 Z0.51 F400.
G3 X18.91 Y59.122 Z0.125 R1.4
X21.091 Y60.878 Z-0.26 R1.4
X18.91 Y59.122 Z-0.644 R1.4
X21.091 Y60.878 Z-1.029 R1.4
X18.91 Y59.122 Z-1.414 R1.4
X21.091 Y60.878 Z-1.799 R1.4
X18.91 Y59.122 Z-2.184 R1.4
X21.091 Y60.878 Z-2.568 R1.4
X18.91 Y59.122 Z-2.953 R1.4
X21.091 Y60.878 Z-3.338 R1.4
X18.91 Y59.122 Z-3.723 R1.4
X21.091 Y60.878 Z-4.108 R1.4
X18.91 Y59.122 Z-4.492 R1.4
X21.091 Y60.878 Z-4.877 R1.4
X18.91 Y59.122 Z-5.262 R1.4
X21.091 Y60.878 Z-5.647 R1.4
X18.91 Y59.122 Z-6.032 R1.4
X21.091 Y60.878 Z-6.416 R1.4
X18.91 Y59.122 Z-6.801 R1.4
X21.091 Y60.878 Z-7.186 R1.4
X18.91 Y59.122 Z-7.571 R1.4
X21.091 Y60.878 Z-7.955 R1.4
X18.91 Y59.122 Z-8.34 R1.4
X21.091 Y60.878 Z-8.725 R1.4
X18.91 Y59.122 Z-9.11 R1.4
X21.091 Y60.878 Z-9.495 R1.4
X18.91 Y59.122 Z-9.879 R1.4
X21.091 Y60.878 Z-10.264 R1.4
X18.91 Y59.122 Z-10.649 R1.4
X21.091 Y60.878 Z-11.034 R1.4
X18.91 Y59.122 Z-11.419 R1.4
X21.091 Y60.878 Z-11.803 R1.4
X18.91 Y59.122 Z-12.188 R1.4
X21.4 Y60. Z-12.49 R1.4
X18.6 R1.4
X21.4 R1.4
G1 X21.438 Y60.77
X21.43 Y60.905
X21.402 Y61.037
X21.357 Y61.164
X21.296 Y61.285
X21.223 Y61.398
X21.138 Y61.503
X21.044 Y61.6
X20.941 Y61.687
X20.831 Y61.765
X20.714 Y61.833
X20.593 Y61.892
X20.467 Y61.94
X20.337 Y61.979
X20.205 Y62.007
X19.937 Y62.034
X19.667 Y62.022
X19.402 Y61.972
X19.147 Y61.885
X18.905 Y61.764
X18.682 Y61.612
X18.482 Y61.432
X18.307 Y61.226
X18.161 Y61.
X18.045 Y60.756
X17.962 Y60.499
X17.913 Y60.233
X17.899 Y59.964
X17.92 Y59.695
X17.976 Y59.431
X18.065 Y59.176
X18.185 Y58.935
X18.336 Y58.711
X18.515 Y58.508
X18.717 Y58.33
X18.941 Y58.18
X19.183 Y58.059
X19.438 Y57.97
X19.702 Y57.915
X19.971 Y57.894
X20.24 Y57.907
X20.506 Y57.955
X20.763 Y58.036
X21.008 Y58.15
X21.236 Y58.294
X21.444 Y58.466
X21.628 Y58.663
X21.792 Y58.891
X21.883 Y59.047
X21.983 Y59.247
X22.073 Y59.461
X22.144 Y59.664
X22.194 Y59.844
X22.23 Y60.016
X22.254 Y60.184
X22.267 Y60.34
X22.262 Y60.65
X22.219 Y60.94
X22.141 Y61.222
X22.027 Y61.489
X21.88 Y61.741
X21.699 Y61.975
X21.487 Y62.188
X21.247 Y62.373
X21.115 Y62.456
X20.977 Y62.531
X20.833 Y62.598
X20.685 Y62.655
X20.532 Y62.703
X20.376 Y62.742
X20.215 Y62.77
X20.051 Y62.789
X19.885 Y62.797
X19.717 Y62.795
X19.548 Y62.782
X19.379 Y62.757
X19.211 Y62.722
X19.046 Y62.676
X18.882 Y62.619
X18.722 Y62.552
X18.565 Y62.474
X18.413 Y62.385
X18.267 Y62.287
X18.126 Y62.179
X17.992 Y62.061
X17.865 Y61.935
X17.746 Y61.8
X17.635 Y61.658
X17.534 Y61.508
X17.442 Y61.352
X17.36 Y61.189
X17.288 Y61.022
X17.227 Y60.849
X17.177 Y60.673
X17.139 Y60.494
X17.112 Y60.312
X17.096 Y60.129
X17.093 Y59.944
X17.101 Y59.76
X17.121 Y59.576
X17.153 Y59.394
X17.196 Y59.214
X17.251 Y59.037
X17.317 Y58.864
X17.394 Y58.695
X17.482 Y58.532
X17.58 Y58.374
X17.688 Y58.223
X17.806 Y58.079
X17.933 Y57.942
X18.068 Y57.814
X18.211 Y57.695
X18.362 Y57.585
X18.519 Y57.485
X18.682 Y57.396
X18.851 Y57.317
X19.025 Y57.249
X19.203 Y57.192
X19.384 Y57.146
X19.567 Y57.113
X19.753 Y57.091
X19.939 Y57.081
X20.126 Y57.082
X20.312 Y57.096
X20.497 Y57.122
X20.68 Y57.16
X20.86 Y57.209
X21.037 Y57.269
X21.209 Y57.341
X21.377 Y57.424
X21.54 Y57.518
X21.7 Y57.624
X21.857 Y57.743
X22.012 Y57.878
X22.167 Y58.031
X22.317 Y58.199
X22.457 Y58.378
X22.586 Y58.567
X22.703 Y58.763
X22.805 Y58.964
X22.894 Y59.169
X22.969 Y59.378
X23.029 Y59.588
X23.075 Y59.799
X23.108 Y60.011
X23.127 Y60.222
X23.132 Y60.433
X23.123 Y60.641
X23.102 Y60.848
X23.067 Y61.052
X23.02 Y61.252
X22.96 Y61.448
X22.887 Y61.64
X22.803 Y61.827
X22.707 Y62.008
X22.599 Y62.183
X22.48 Y62.351
X22.35 Y62.512
X22.209 Y62.664
X22.059 Y62.808
X21.899 Y62.943
X21.729 Y63.067
X21.552 Y63.181
X21.366 Y63.284
X21.173 Y63.376
X20.973 Y63.455
X20.767 Y63.522
X20.556 Y63.576
X20.341 Y63.616
X20.123 Y63.643
X19.902 Y63.656
X19.679 Y63.654
X19.456 Y63.639
X19.233 Y63.609
X19.012 Y63.564
X18.793 Y63.506
X18.577 Y63.433
X18.365 Y63.345
X18.158 Y63.245
X17.958 Y63.13
X17.764 Y63.003
X17.579 Y62.863
X17.402 Y62.711
X17.234 Y62.547
X17.077 Y62.372
X16.931 Y62.187
X16.797 Y61.993
X16.675 Y61.79
X16.566 Y61.579
X16.471 Y61.361
X16.389 Y61.137
X16.322 Y60.907
X16.27 Y60.674
X16.233 Y60.437
X16.211 Y60.198
X16.204 Y59.958
X16.212 Y59.717
X16.236 Y59.477
X16.276 Y59.239
X16.33 Y59.004
X16.4 Y58.772
X16.484 Y58.545
X16.583 Y58.324
X16.696 Y58.11
X16.822 Y57.903
X16.962 Y57.704
X17.114 Y57.515
X17.277 Y57.335
X17.453 Y57.167
X17.638 Y57.009
X17.833 Y56.864
X18.038 Y56.732
X18.25 Y56.613
X18.47 Y56.508
X18.696 Y56.417
X18.927 Y56.341
X19.163 Y56.28
X19.402 Y56.233
X19.644 Y56.203
X19.888 Y56.187
X20.131 Y56.188
X20.375 Y56.204
X20.617 Y56.235
X20.857 Y56.282
X21.094 Y56.345
X21.328 Y56.423
X21.559 Y56.517
X21.787 Y56.627
X22.013 Y56.754
X22.233 Y56.898
X22.447 Y57.058
X22.653 Y57.233
X22.848 Y57.423
X23.033 Y57.626
X23.204 Y57.842
X23.362 Y58.068
X23.505 Y58.304
X23.632 Y58.548
X23.744 Y58.799
X23.838 Y59.057
X23.916 Y59.318
X23.977 Y59.583
X24.02 Y59.851
X24.046 Y60.119
X24.055 Y60.388
X24.046 Y60.656
X24.021 Y60.922
X23.978 Y61.186
X23.919 Y61.445
X23.844 Y61.701
X23.752 Y61.95
X23.645 Y62.194
X23.522 Y62.43
X23.384 Y62.658
X23.232 Y62.877
X23.065 Y63.086
X22.886 Y63.285
X22.693 Y63.472
X22.488 Y63.647
X22.271 Y63.809
X22.044 Y63.958
X21.807 Y64.092
X21.56 Y64.211
X21.306 Y64.315
X21.044 Y64.403
X20.776 Y64.474
X20.503 Y64.528
X20.226 Y64.564
X19.946 Y64.583
X19.664
X19.382 Y64.566
X19.1 Y64.531
X18.82 Y64.477
X18.542 Y64.405
X18.269 Y64.315
X18.002 Y64.208
X17.741 Y64.083
X17.487 Y63.942
X17.243 Y63.784
X17.008 Y63.61
X16.784 Y63.421
X16.501 Y63.139
X16.493 Y63.13
X16.492
X16.106 Y62.688
X15.575 Y61.676
X15.332 Y60.703
X15.3 Y60.522
Y59.458
X15.33 Y59.303
X15.573 Y58.33
X16.102 Y57.318
X16.855 Y56.465
X17.738 Y55.85
X17.839 Y55.794
X18.85 Y55.411
X19.294 Y55.35
X19.995 Y55.268
X21.006 Y55.387
X21.162 Y55.414
X22.213 Y55.817
X23.142 Y56.462
X23.898 Y57.318
X24.371 Y58.213
X24.439 Y58.369
X24.67 Y59.303
X24.7 Y59.458
Y60.548
X24.553 Y61.17
X24.431 Y61.659
X24.204 Y62.104
X23.894 Y62.688
X23.138 Y63.542
X22.213 Y64.182
X21.55 Y64.439
X21.128 Y64.595
X19.995 Y64.732
X18.872 Y64.595
X17.815 Y64.197
X17.426 Y63.935
X16.859 Y63.539
X16.493 Y63.13
X16.47 Y63.087 Z-12.482
X16.449 Y63.049 Z-12.46
X16.433 Y63.019 Z-12.425
X16.422 Y62.999 Z-12.381
X16.419 Y62.992 Z-12.333
G0 Z5.
X61.09 Y20.878
Z0.91
G1 Z0.51 F400.
G3 X58.909 Y19.122 Z0.125 R1.4
X61.09 Y20.878 Z-0.26 R1.4
X58.909 Y19.122 Z-0.644 R1.4
X61.09 Y20.878 Z-1.029 R1.4
X58.909 Y19.122 Z-1.414 R1.4
X61.09 Y20.878 Z-1.799 R1.4
X58.909 Y19.122 Z-2.184 R1.4
X61.09 Y20.878 Z-2.568 R1.4
X58.909 Y19.122 Z-2.953 R1.4
X61.09 Y20.878 Z-3.338 R1.4
X58.909 Y19.122 Z-3.723 R1.4
X61.09 Y20.878 Z-4.108 R1.4
X58.909 Y19.122 Z-4.492 R1.4
X61.09 Y20.878 Z-4.877 R1.4
X58.909 Y19.122 Z-5.262 R1.4
X61.09 Y20.878 Z-5.647 R1.4
X58.909 Y19.122 Z-6.032 R1.4
X61.09 Y20.878 Z-6.416 R1.4
X58.909 Y19.122 Z-6.801 R1.4
X61.09 Y20.878 Z-7.186 R1.4
X58.909 Y19.122 Z-7.571 R1.4
X61.09 Y20.878 Z-7.955 R1.4
X58.909 Y19.122 Z-8.34 R1.4
X61.09 Y20.878 Z-8.725 R1.4
X58.909 Y19.122 Z-9.11 R1.4
X61.09 Y20.878 Z-9.495 R1.4
X58.909 Y19.122 Z-9.879 R1.4
X61.09 Y20.878 Z-10.264 R1.4
X58.909 Y19.122 Z-10.649 R1.4
X61.09 Y20.878 Z-11.034 R1.4
X58.909 Y19.122 Z-11.419 R1.4
X61.09 Y20.878 Z-11.803 R1.4
X58.909 Y19.122 Z-12.188 R1.4
X61.4 Y20. Z-12.49 R1.4
X58.6 R1.4
X61.4 R1.4
G1 X61.437 Y20.77
X61.43 Y20.905
X61.402 Y21.037
X61.356 Y21.164
X61.296 Y21.285
X61.222 Y21.398
X61.138 Y21.504
X61.043 Y21.6
X60.941 Y21.687
X60.83 Y21.765
X60.714 Y21.834
X60.592 Y21.892
X60.466 Y21.941
X60.337 Y21.979
X60.205 Y22.008
X59.936 Y22.035
X59.667 Y22.022
X59.402 Y21.972
X59.146 Y21.885
X58.905 Y21.765
X58.682 Y21.613
X58.481 Y21.432
X58.306 Y21.227
X58.16 Y21.
X58.044 Y20.756
X57.962 Y20.499
X57.913 Y20.234
X57.899 Y19.964
X57.92 Y19.695
X57.975 Y19.431
X58.064 Y19.176
X58.185 Y18.935
X58.336 Y18.711
X58.514 Y18.509
X58.717 Y18.331
X58.941 Y18.18
X59.182 Y18.06
X59.437 Y17.971
X59.701 Y17.915
X59.97 Y17.894
X60.24 Y17.908
X60.505 Y17.955
X60.762 Y18.037
X61.007 Y18.15
X61.236 Y18.294
X61.444 Y18.466
X61.628 Y18.663
X61.791 Y18.892
X61.882 Y19.048
X61.982 Y19.247
X62.073 Y19.462
X62.143 Y19.665
X62.193 Y19.845
X62.23 Y20.016
X62.254 Y20.184
X62.266 Y20.34
X62.261 Y20.65
X62.219 Y20.941
X62.14 Y21.222
X62.026 Y21.49
X61.879 Y21.742
X61.699 Y21.975
X61.486 Y22.188
X61.246 Y22.374
X61.115 Y22.456
X60.976 Y22.531
X60.832 Y22.598
X60.684 Y22.655
X60.531 Y22.704
X60.375 Y22.742
X60.215 Y22.771
X60.051 Y22.79
X59.884 Y22.798
X59.716 Y22.795
X59.547 Y22.782
X59.378 Y22.758
X59.211 Y22.723
X59.045 Y22.677
X58.881 Y22.62
X58.721 Y22.552
X58.565 Y22.474
X58.413 Y22.386
X58.266 Y22.287
X58.125 Y22.179
X57.991 Y22.062
X57.864 Y21.936
X57.745 Y21.801
X57.635 Y21.658
X57.533 Y21.509
X57.441 Y21.352
X57.359 Y21.19
X57.287 Y21.022
X57.227 Y20.85
X57.177 Y20.674
X57.138 Y20.494
X57.111 Y20.312
X57.096 Y20.129
X57.092 Y19.945
X57.1 Y19.76
X57.12 Y19.577
X57.152 Y19.395
X57.196 Y19.215
X57.25 Y19.038
X57.317 Y18.864
X57.394 Y18.696
X57.481 Y18.532
X57.58 Y18.374
X57.688 Y18.223
X57.805 Y18.079
X57.932 Y17.943
X58.067 Y17.815
X58.21 Y17.696
X58.361 Y17.586
X58.518 Y17.486
X58.682 Y17.396
X58.851 Y17.317
X59.024 Y17.249
X59.202 Y17.192
X59.383 Y17.147
X59.567 Y17.113
X59.752 Y17.091
X59.938 Y17.081
X60.125 Y17.083
X60.311 Y17.097
X60.496 Y17.123
X60.679 Y17.16
X60.86 Y17.209
X61.036 Y17.27
X61.209 Y17.342
X61.376 Y17.424
X61.539 Y17.518
X61.7 Y17.625
X61.856 Y17.744
X62.012 Y17.879
X62.166 Y18.032
X62.316 Y18.2
X62.457 Y18.379
X62.586 Y18.567
X62.702 Y18.763
X62.805 Y18.964
X62.893 Y19.169
X62.968 Y19.378
X63.028 Y19.588
X63.075 Y19.8
X63.107 Y20.012
X63.126 Y20.223
X63.131 Y20.433
X63.123 Y20.642
X63.101 Y20.849
X63.066 Y21.052
X63.019 Y21.252
X62.959 Y21.449
X62.887 Y21.641
X62.802 Y21.828
X62.706 Y22.009
X62.598 Y22.183
X62.479 Y22.351
X62.349 Y22.512
X62.209 Y22.665
X62.058 Y22.809
X61.898 Y22.943
X61.729 Y23.068
X61.551 Y23.182
X61.365 Y23.285
X61.172 Y23.376
X60.972 Y23.455
X60.767 Y23.522
X60.556 Y23.576
X60.341 Y23.617
X60.122 Y23.643
X59.901 Y23.656
X59.679 Y23.655
X59.456 Y23.639
X59.233 Y23.609
X59.011 Y23.565
X58.792 Y23.506
X58.576 Y23.433
X58.364 Y23.346
X58.158 Y23.245
X57.957 Y23.131
X57.764 Y23.003
X57.578 Y22.863
X57.401 Y22.711
X57.234 Y22.547
X57.076 Y22.373
X56.93 Y22.188
X56.796 Y21.993
X56.674 Y21.79
X56.565 Y21.579
X56.47 Y21.361
X56.389 Y21.137
X56.322 Y20.908
X56.269 Y20.674
X56.232 Y20.438
X56.21 Y20.198
X56.203 Y19.958
X56.212 Y19.718
X56.236 Y19.478
X56.275 Y19.24
X56.33 Y19.004
X56.399 Y18.773
X56.484 Y18.546
X56.582 Y18.325
X56.695 Y18.11
X56.822 Y17.903
X56.961 Y17.705
X57.113 Y17.515
X57.277 Y17.336
X57.452 Y17.167
X57.637 Y17.01
X57.833 Y16.865
X58.037 Y16.733
X58.249 Y16.614
X58.469 Y16.509
X58.695 Y16.418
X58.926 Y16.341
X59.162 Y16.28
X59.402 Y16.234
X59.644 Y16.203
X59.887 Y16.188
X60.131
X60.374 Y16.204
X60.616 Y16.236
X60.856 Y16.283
X61.093 Y16.345
X61.327 Y16.423
X61.558 Y16.517
X61.787 Y16.628
X62.012 Y16.755
X62.232 Y16.898
X62.446 Y17.058
X62.652 Y17.234
X62.848 Y17.423
X63.032 Y17.627
X63.204 Y17.842
X63.361 Y18.068
X63.504 Y18.304
X63.632 Y18.549
X63.743 Y18.8
X63.838 Y19.057
X63.915 Y19.319
X63.976 Y19.584
X64.019 Y19.851
X64.045 Y20.12
X64.054 Y20.389
X64.046 Y20.657
X64.02 Y20.923
X63.978 Y21.186
X63.919 Y21.446
X63.843 Y21.701
X63.752 Y21.951
X63.644 Y22.194
X63.521 Y22.43
X63.384 Y22.658
X63.231 Y22.877
X63.065 Y23.087
X62.885 Y23.285
X62.692 Y23.472
X62.487 Y23.648
X62.271 Y23.81
X62.043 Y23.958
X61.806 Y24.093
X61.56 Y24.212
X61.305 Y24.316
X61.043 Y24.403
X60.776 Y24.474
X60.502 Y24.528
X60.225 Y24.564
X59.945 Y24.583
X59.663 Y24.584
X59.381 Y24.567
X59.099 Y24.531
X58.819 Y24.477
X58.542 Y24.406
X58.269 Y24.316
X58.001 Y24.209
X57.74 Y24.084
X57.487 Y23.942
X57.242 Y23.784
X57.007 Y23.61
X56.784 Y23.421
X56.524 Y23.165
X56.496 Y23.134
X56.406 Y23.032
X56.34 Y22.958
X56.181 Y22.759
X56.003 Y22.497
X55.978 Y22.452
G3 X56.663 Y22.044 R0.4
G1 X56.954 Y22.448
G3 X56.34 Y22.958 R0.4
G1 X56.101 Y22.682
X55.792 Y22.098
X55.575 Y21.671
X55.33 Y20.697
X55.3 Y20.516
Y19.452
X55.447 Y18.83
X55.575 Y18.324
X56.106 Y17.312
X56.86 Y16.46
X57.765 Y15.833
X57.819 Y15.801
X58.873 Y15.405
X59.998 Y15.268
X61.127 Y15.405
X62.177 Y15.8
X62.411 Y15.952
X63.139 Y16.459
X63.894 Y17.312
X64.422 Y18.315
X64.668 Y19.297
X64.7 Y19.452
Y20.542
X64.631 Y20.853
X64.434 Y21.649
X64.371 Y21.787
X63.898 Y22.682
X63.143 Y23.537
X62.216 Y24.181
X61.477 Y24.467
X61.151 Y24.589
X60.543 Y24.669
X59.998 Y24.731
X58.986 Y24.612
X58.831 Y24.584
X57.819 Y24.199
X57.586 Y24.045
X56.856 Y23.536
X56.524 Y23.165
X56.501 Y23.122 Z-12.482
X56.48 Y23.084 Z-12.46
X56.464 Y23.054 Z-12.425
X56.453 Y23.034 Z-12.381
X56.45 Y23.028 Z-12.333
G0 Z5.
X61.09 Y60.878
Z0.91
G1 Z0.51 F400.
G3 X58.909 Y59.122 Z0.125 R1.4
X61.09 Y60.878 Z-0.26 R1.4
X58.909 Y59.122 Z-0.644 R1.4
X61.09 Y60.878 Z-1.029 R1.4
X58.909 Y59.122 Z-1.414 R1.4
X61.09 Y60.878 Z-1.799 R1.4
X58.909 Y59.122 Z-2.184 R1.4
X61.09 Y60.878 Z-2.568 R1.4
X58.909 Y59.122 Z-2.953 R1.4
X61.09 Y60.878 Z-3.338 R1.4
X58.909 Y59.122 Z-3.723 R1.4
X61.09 Y60.878 Z-4.108 R1.4
X58.909 Y59.122 Z-4.492 R1.4
X61.09 Y60.878 Z-4.877 R1.4
X58.909 Y59.122 Z-5.262 R1.4
X61.09 Y60.878 Z-5.647 R1.4
X58.909 Y59.122 Z-6.032 R1.4
X61.09 Y60.878 Z-6.416 R1.4
X58.909 Y59.122 Z-6.801 R1.4
X61.09 Y60.878 Z-7.186 R1.4
X58.909 Y59.122 Z-7.571 R1.4
X61.09 Y60.878 Z-7.955 R1.4
X58.909 Y59.122 Z-8.34 R1.4
X61.09 Y60.878 Z-8.725 R1.4
X58.909 Y59.122 Z-9.11 R1.4
X61.09 Y60.878 Z-9.495 R1.4
X58.909 Y59.122 Z-9.879 R1.4
X61.09 Y60.878 Z-10.264 R1.4
X58.909 Y59.122 Z-10.649 R1.4
X61.09 Y60.878 Z-11.034 R1.4
X58.909 Y59.122 Z-11.419 R1.4
X61.09 Y60.878 Z-11.803 R1.4
X58.909 Y59.122 Z-12.188 R1.4
X61.4 Y60. Z-12.49 R1.4
X58.6 R1.4
X61.4 R1.4
G1 X61.437 Y60.77
X61.43 Y60.905
X61.402 Y61.037
X61.356 Y61.164
X61.296 Y61.285
X61.223 Y61.398
X61.138 Y61.503
X61.044 Y61.6
X60.941 Y61.687
X60.83 Y61.765
X60.714 Y61.833
X60.592 Y61.892
X60.466 Y61.94
X60.337 Y61.979
X60.205 Y62.007
X59.936 Y62.034
X59.667 Y62.022
X59.402 Y61.972
X59.146 Y61.885
X58.905 Y61.764
X58.682 Y61.612
X58.481 Y61.432
X58.306 Y61.226
X58.16 Y61.
X58.045 Y60.756
X57.962 Y60.499
X57.913 Y60.234
X57.899 Y59.964
X57.92 Y59.695
X57.975 Y59.431
X58.064 Y59.176
X58.185 Y58.935
X58.336 Y58.711
X58.514 Y58.509
X58.717 Y58.331
X58.941 Y58.18
X59.182 Y58.059
X59.437 Y57.97
X59.701 Y57.915
X59.97 Y57.894
X60.24 Y57.907
X60.505 Y57.955
X60.763 Y58.036
X61.007 Y58.15
X61.236 Y58.294
X61.444 Y58.466
X61.628 Y58.663
X61.792 Y58.891
X61.883 Y59.047
X61.982 Y59.247
X62.073 Y59.461
X62.144 Y59.665
X62.194 Y59.844
X62.23 Y60.016
X62.254 Y60.184
X62.266 Y60.34
X62.261 Y60.65
X62.219 Y60.94
X62.14 Y61.222
X62.027 Y61.49
X61.879 Y61.741
X61.699 Y61.975
X61.486 Y62.188
X61.246 Y62.373
X61.115 Y62.456
X60.976 Y62.531
X60.833 Y62.598
X60.684 Y62.655
X60.532 Y62.703
X60.375 Y62.742
X60.215 Y62.771
X60.051 Y62.789
X59.884 Y62.798
X59.716 Y62.795
X59.547 Y62.782
X59.379 Y62.758
X59.211 Y62.722
X59.045 Y62.676
X58.882 Y62.619
X58.721 Y62.552
X58.565 Y62.474
X58.413 Y62.385
X58.266 Y62.287
X58.126 Y62.179
X57.991 Y62.062
X57.864 Y61.935
X57.745 Y61.801
X57.635 Y61.658
X57.533 Y61.508
X57.441 Y61.352
X57.359 Y61.189
X57.288 Y61.022
X57.227 Y60.849
X57.177 Y60.673
X57.138 Y60.494
X57.111 Y60.312
X57.096 Y60.129
X57.092 Y59.945
X57.101 Y59.76
X57.121 Y59.577
X57.152 Y59.394
X57.196 Y59.214
X57.251 Y59.037
X57.317 Y58.864
X57.394 Y58.695
X57.482 Y58.532
X57.58 Y58.374
X57.688 Y58.223
X57.806 Y58.079
X57.932 Y57.942
X58.067 Y57.814
X58.211 Y57.695
X58.361 Y57.586
X58.518 Y57.486
X58.682 Y57.396
X58.851 Y57.317
X59.024 Y57.249
X59.202 Y57.192
X59.383 Y57.146
X59.567 Y57.113
X59.752 Y57.091
X59.939 Y57.081
X60.125 Y57.083
X60.312 Y57.096
X60.497 Y57.122
X60.68 Y57.16
X60.86 Y57.209
X61.036 Y57.27
X61.209 Y57.341
X61.377 Y57.424
X61.54 Y57.518
X61.7 Y57.624
X61.856 Y57.744
X62.012 Y57.878
X62.167 Y58.031
X62.316 Y58.199
X62.457 Y58.379
X62.586 Y58.567
X62.702 Y58.763
X62.805 Y58.964
X62.893 Y59.169
X62.968 Y59.378
X63.029 Y59.588
X63.075 Y59.799
X63.107 Y60.011
X63.126 Y60.223
X63.131 Y60.433
X63.123 Y60.642
X63.101 Y60.848
X63.067 Y61.052
X63.019 Y61.252
X62.959 Y61.448
X62.887 Y61.64
X62.802 Y61.827
X62.706 Y62.008
X62.599 Y62.183
X62.48 Y62.351
X62.35 Y62.512
X62.209 Y62.664
X62.058 Y62.808
X61.898 Y62.943
X61.729 Y63.067
X61.551 Y63.181
X61.365 Y63.284
X61.172 Y63.376
X60.972 Y63.455
X60.767 Y63.522
X60.556 Y63.576
X60.341 Y63.616
X60.122 Y63.643
X59.901 Y63.656
X59.679 Y63.655
X59.456 Y63.639
X59.233 Y63.609
X59.012 Y63.565
X58.792 Y63.506
X58.576 Y63.433
X58.365 Y63.346
X58.158 Y63.245
X57.957 Y63.13
X57.764 Y63.003
X57.578 Y62.863
X57.401 Y62.711
X57.234 Y62.547
X57.077 Y62.372
X56.931 Y62.187
X56.796 Y61.993
X56.675 Y61.79
X56.566 Y61.579
X56.47 Y61.361
X56.389 Y61.137
X56.322 Y60.908
X56.27 Y60.674
X56.232 Y60.437
X56.21 Y60.198
X56.203 Y59.958
X56.212 Y59.717
X56.236 Y59.477
X56.275 Y59.239
X56.33 Y59.004
X56.4 Y58.772
X56.484 Y58.546
X56.583 Y58.324
X56.695 Y58.11
X56.822 Y57.903
X56.961 Y57.704
X57.113 Y57.515
X57.277 Y57.335
X57.452 Y57.167
X57.638 Y57.01
X57.833 Y56.865
X58.037 Y56.732
X58.25 Y56.613
X58.469 Y56.508
X58.695 Y56.417
X58.927 Y56.341
X59.163 Y56.28
X59.402 Y56.234
X59.644 Y56.203
X59.887 Y56.188
X60.131
X60.374 Y56.204
X60.616 Y56.236
X60.856 Y56.283
X61.093 Y56.345
X61.328 Y56.423
X61.559 Y56.517
X61.787 Y56.627
X62.012 Y56.754
X62.232 Y56.898
X62.446 Y57.058
X62.652 Y57.233
X62.848 Y57.423
X63.032 Y57.626
X63.204 Y57.842
X63.362 Y58.068
X63.505 Y58.304
X63.632 Y58.548
X63.743 Y58.8
X63.838 Y59.057
X63.916 Y59.318
X63.976 Y59.583
X64.019 Y59.851
X64.045 Y60.119
X64.054 Y60.388
X64.046 Y60.656
X64.02 Y60.922
X63.978 Y61.186
X63.919 Y61.446
X63.843 Y61.701
X63.752 Y61.95
X63.644 Y62.194
X63.522 Y62.43
X63.384 Y62.658
X63.231 Y62.877
X63.065 Y63.086
X62.885 Y63.285
X62.692 Y63.472
X62.487 Y63.647
X62.271 Y63.809
X62.044 Y63.958
X61.806 Y64.092
X61.56 Y64.212
X61.305 Y64.315
X61.044 Y64.403
X60.776 Y64.474
X60.503 Y64.528
X60.225 Y64.564
X59.945 Y64.583
X59.664 Y64.584
X59.381 Y64.566
X59.099 Y64.531
X58.819 Y64.477
X58.542 Y64.405
X58.269 Y64.316
X58.001 Y64.208
X57.74 Y64.084
X57.487 Y63.942
X57.242 Y63.784
X57.008 Y63.61
X56.784 Y63.421
X56.511 Y63.15
X56.496 Y63.134
X56.106 Y62.688
X55.575 Y61.676
X55.332 Y60.703
X55.3 Y60.522
Y59.458
X55.369 Y59.147
X55.562 Y58.363
X55.629 Y58.213
X56.101 Y57.318
X56.856 Y56.464
X57.78 Y55.822
X58.208 Y55.652
X58.849 Y55.411
X59.453 Y55.331
X59.998 Y55.269
X61.01 Y55.387
X61.166 Y55.415
X62.177 Y55.799
X62.411 Y55.952
X63.143 Y56.463
X63.898 Y57.318
X64.407 Y58.282
X64.439 Y58.369
X64.67 Y59.303
X64.7 Y59.458
Y60.548
X64.553 Y61.17
X64.422 Y61.685
X63.894 Y62.688
X63.139 Y63.541
X62.255 Y64.155
X62.177 Y64.2
X61.127 Y64.595
X59.998 Y64.732
X58.873 Y64.595
X57.819 Y64.199
X57.48 Y63.972
X56.86 Y63.54
X56.511 Y63.15
X56.488 Y63.108 Z-12.482
X56.467 Y63.069 Z-12.46
X56.451 Y63.039 Z-12.425
X56.44 Y63.019 Z-12.381
X56.437 Y63.013 Z-12.333
G0 Z5.
X101.09 Y20.878
Z0.91
G1 Z0.51 F400.
G3 X98.91 Y19.121 Z0.125 R1.4
X101.09 Y20.878 Z-0.26 R1.4
X98.91 Y19.121 Z-0.644 R1.4
X101.09 Y20.878 Z-1.029 R1.4
X98.91 Y19.121 Z-1.414 R1.4
X101.09 Y20.878 Z-1.799 R1.4
X98.91 Y19.121 Z-2.184 R1.4
X101.09 Y20.878 Z-2.568 R1.4
X98.91 Y19.121 Z-2.953 R1.4
X101.09 Y20.878 Z-3.338 R1.4
X98.91 Y19.121 Z-3.723 R1.4
X101.09 Y20.878 Z-4.108 R1.4
X98.91 Y19.121 Z-4.492 R1.4
X101.09 Y20.878 Z-4.877 R1.4
X98.91 Y19.121 Z-5.262 R1.4
X101.09 Y20.878 Z-5.647 R1.4
X98.91 Y19.121 Z-6.032 R1.4
X101.09 Y20.878 Z-6.416 R1.4
X98.91 Y19.121 Z-6.801 R1.4
X101.09 Y20.878 Z-7.186 R1.4
X98.91 Y19.121 Z-7.571 R1.4
X101.09 Y20.878 Z-7.955 R1.4
X98.91 Y19.121 Z-8.34 R1.4
X101.09 Y20.878 Z-8.725 R1.4
X98.91 Y19.121 Z-9.11 R1.4
X101.09 Y20.878 Z-9.495 R1.4
X98.91 Y19.121 Z-9.879 R1.4
X101.09 Y20.878 Z-10.264 R1.4
X98.91 Y19.121 Z-10.649 R1.4
X101.09 Y20.878 Z-11.034 R1.4
X98.91 Y19.121 Z-11.419 R1.4
X101.09 Y20.878 Z-11.803 R1.4
X98.91 Y19.121 Z-12.188 R1.4
X101.4 Y19.999 Z-12.49 R1.4
X98.6 R1.4
X101.4 R1.4
G1 X101.437 Y20.77
X101.43 Y20.904
X101.402 Y21.036
X101.357 Y21.164
X101.296 Y21.284
X101.223 Y21.398
X101.138 Y21.503
X101.044 Y21.599
X100.941 Y21.687
X100.831 Y21.765
X100.714 Y21.833
X100.592 Y21.891
X100.466 Y21.94
X100.337 Y21.978
X100.205 Y22.007
X99.937 Y22.034
X99.667 Y22.022
X99.402 Y21.971
X99.146 Y21.885
X98.905 Y21.764
X98.682 Y21.612
X98.482 Y21.431
X98.307 Y21.226
X98.16 Y20.999
X98.045 Y20.755
X97.962 Y20.499
X97.913 Y20.233
X97.899 Y19.964
X97.92 Y19.695
X97.975 Y19.43
X98.064 Y19.176
X98.185 Y18.934
X98.336 Y18.711
X98.514 Y18.508
X98.717 Y18.33
X98.941 Y18.179
X99.182 Y18.059
X99.437 Y17.97
X99.701 Y17.915
X99.97 Y17.893
X100.24 Y17.907
X100.506 Y17.955
X100.763 Y18.036
X101.008 Y18.149
X101.236 Y18.293
X101.444 Y18.465
X101.628 Y18.663
X101.792 Y18.891
X101.883 Y19.047
X101.982 Y19.246
X102.073 Y19.461
X102.144 Y19.664
X102.194 Y19.844
X102.23 Y20.015
X102.254 Y20.183
X102.266 Y20.34
X102.261 Y20.649
X102.219 Y20.94
X102.14 Y21.221
X102.027 Y21.489
X101.88 Y21.741
X101.699 Y21.975
X101.486 Y22.188
X101.246 Y22.373
X101.115 Y22.456
X100.977 Y22.531
X100.833 Y22.597
X100.684 Y22.655
X100.532 Y22.703
X100.375 Y22.741
X100.215 Y22.77
X100.051 Y22.789
X99.885 Y22.797
X99.716 Y22.795
X99.547 Y22.781
X99.379 Y22.757
X99.211 Y22.722
X99.045 Y22.676
X98.882 Y22.619
X98.721 Y22.551
X98.565 Y22.473
X98.413 Y22.385
X98.267 Y22.287
X98.126 Y22.179
X97.992 Y22.061
X97.865 Y21.935
X97.746 Y21.8
X97.635 Y21.658
X97.533 Y21.508
X97.441 Y21.351
X97.359 Y21.189
X97.288 Y21.021
X97.227 Y20.849
X97.177 Y20.673
X97.139 Y20.493
X97.111 Y20.312
X97.096 Y20.128
X97.093 Y19.944
X97.101 Y19.76
X97.121 Y19.576
X97.152 Y19.394
X97.196 Y19.214
X97.251 Y19.037
X97.317 Y18.864
X97.394 Y18.695
X97.482 Y18.531
X97.58 Y18.374
X97.688 Y18.222
X97.806 Y18.078
X97.932 Y17.942
X98.068 Y17.814
X98.211 Y17.695
X98.361 Y17.585
X98.519 Y17.485
X98.682 Y17.395
X98.851 Y17.316
X99.025 Y17.248
X99.202 Y17.191
X99.383 Y17.146
X99.567 Y17.112
X99.752 Y17.09
X99.939 Y17.08
X100.125 Y17.082
X100.312 Y17.096
X100.497 Y17.122
X100.68 Y17.159
X100.86 Y17.208
X101.037 Y17.269
X101.209 Y17.341
X101.377 Y17.424
X101.54 Y17.518
X101.7 Y17.624
X101.856 Y17.743
X102.012 Y17.878
X102.167 Y18.031
X102.317 Y18.199
X102.457 Y18.378
X102.586 Y18.566
X102.702 Y18.762
X102.805 Y18.963
X102.894 Y19.169
X102.968 Y19.377
X103.029 Y19.587
X103.075 Y19.799
X103.108 Y20.011
X103.126 Y20.222
X103.131 Y20.432
X103.123 Y20.641
X103.101 Y20.848
X103.067 Y21.051
X103.019 Y21.252
X102.959 Y21.448
X102.887 Y21.64
X102.803 Y21.827
X102.706 Y22.008
X102.599 Y22.183
X102.48 Y22.351
X102.35 Y22.511
X102.209 Y22.664
X102.058 Y22.808
X101.898 Y22.942
X101.729 Y23.067
X101.551 Y23.181
X101.366 Y23.284
X101.172 Y23.375
X100.973 Y23.455
X100.767 Y23.521
X100.556 Y23.575
X100.341 Y23.616
X100.122 Y23.643
X99.901 Y23.655
X99.679 Y23.654
X99.456 Y23.639
X99.233 Y23.608
X99.012 Y23.564
X98.793 Y23.505
X98.577 Y23.432
X98.365 Y23.345
X98.158 Y23.244
X97.958 Y23.13
X97.764 Y23.002
X97.578 Y22.862
X97.401 Y22.71
X97.234 Y22.546
X97.077 Y22.372
X96.931 Y22.187
X96.797 Y21.993
X96.675 Y21.789
X96.566 Y21.579
X96.47 Y21.361
X96.389 Y21.136
X96.322 Y20.907
X96.27 Y20.674
X96.232 Y20.437
X96.21 Y20.198
X96.204 Y19.957
X96.212 Y19.717
X96.236 Y19.477
X96.276 Y19.239
X96.33 Y19.004
X96.4 Y18.772
X96.484 Y18.545
X96.583 Y18.324
X96.696 Y18.109
X96.822 Y17.902
X96.961 Y17.704
X97.113 Y17.514
X97.277 Y17.335
X97.452 Y17.166
X97.638 Y17.009
X97.833 Y16.864
X98.037 Y16.732
X98.25 Y16.613
X98.469 Y16.508
X98.695 Y16.417
X98.927 Y16.341
X99.163 Y16.279
X99.402 Y16.233
X99.644 Y16.202
X99.887 Y16.187
X100.131
X100.375 Y16.203
X100.617 Y16.235
X100.856 Y16.282
X101.094 Y16.345
X101.328 Y16.423
X101.559 Y16.516
X101.787 Y16.627
X102.012 Y16.754
X102.233 Y16.898
X102.446 Y17.057
X102.652 Y17.233
X102.848 Y17.423
X103.032 Y17.626
X103.204 Y17.841
X103.362 Y18.068
X103.505 Y18.303
X103.632 Y18.548
X103.743 Y18.799
X103.838 Y19.056
X103.916 Y19.318
X103.976 Y19.583
X104.02 Y19.85
X104.046 Y20.119
X104.054 Y20.388
X104.046 Y20.656
X104.02 Y20.922
X103.978 Y21.185
X103.919 Y21.445
X103.844 Y21.7
X103.752 Y21.95
X103.645 Y22.193
X103.522 Y22.429
X103.384 Y22.657
X103.232 Y22.876
X103.065 Y23.086
X102.885 Y23.284
X102.693 Y23.472
X102.488 Y23.647
X102.271 Y23.809
X102.044 Y23.958
X101.806 Y24.092
X101.56 Y24.211
X101.306 Y24.315
X101.044 Y24.402
X100.776 Y24.473
X100.503 Y24.527
X100.226 Y24.564
X99.946 Y24.582
X99.664 Y24.583
X99.381 Y24.566
X99.099 Y24.53
X98.819 Y24.477
X98.542 Y24.405
X98.269 Y24.315
X98.002 Y24.208
X97.74 Y24.083
X97.487 Y23.941
X97.242 Y23.784
X97.008 Y23.61
X96.784 Y23.421
X96.501 Y23.139
X96.492 Y23.129
X96.406 Y23.032
X96.102 Y22.682
X95.578 Y21.68
X95.33 Y20.697
X95.3 Y20.516
Y19.452
X95.447 Y18.83
X95.578 Y18.315
X96.106 Y17.312
X96.861 Y16.459
X97.768 Y15.831
X97.823 Y15.8
X98.873 Y15.405
X100.002 Y15.268
X101.127 Y15.405
X102.181 Y15.801
X102.52 Y16.028
X103.14 Y16.46
X103.894 Y17.312
X104.425 Y18.324
X104.668 Y19.297
X104.7 Y19.452
Y20.542
X104.631 Y20.853
X104.438 Y21.637
X104.371 Y21.787
X103.899 Y22.682
X103.144 Y23.536
X102.22 Y24.178
X101.792 Y24.348
X101.151 Y24.589
X100.547 Y24.669
X100.002 Y24.731
X98.99 Y24.613
X98.834 Y24.585
X97.823 Y24.201
X97.589 Y24.048
X96.857 Y23.537
X96.492 Y23.129
X96.469 Y23.087 Z-12.482
X96.449 Y23.048 Z-12.46
X96.432 Y23.018 Z-12.425
X96.422 Y22.999 Z-12.381
X96.418 Y22.992 Z-12.333
G0 Z5.
X21.09 Y20.878
Z0.91
G1 Z0.51 F400.
G3 X18.909 Y19.122 Z0.125 R1.4
X21.09 Y20.878 Z-0.26 R1.4
X18.909 Y19.122 Z-0.644 R1.4
X21.09 Y20.878 Z-1.029 R1.4
X18.909 Y19.122 Z-1.414 R1.4
X21.09 Y20.878 Z-1.799 R1.4
X18.909 Y19.122 Z-2.184 R1.4
X21.09 Y20.878 Z-2.568 R1.4
X18.909 Y19.122 Z-2.953 R1.4
X21.09 Y20.878 Z-3.338 R1.4
X18.909 Y19.122 Z-3.723 R1.4
X21.09 Y20.878 Z-4.108 R1.4
X18.909 Y19.122 Z-4.492 R1.4
X21.09 Y20.878 Z-4.877 R1.4
X18.909 Y19.122 Z-5.262 R1.4
X21.09 Y20.878 Z-5.647 R1.4
X18.909 Y19.122 Z-6.032 R1.4
X21.09 Y20.878 Z-6.416 R1.4
X18.909 Y19.122 Z-6.801 R1.4
X21.09 Y20.878 Z-7.186 R1.4
X18.909 Y19.122 Z-7.571 R1.4
X21.09 Y20.878 Z-7.955 R1.4
X18.909 Y19.122 Z-8.34 R1.4
X21.09 Y20.878 Z-8.725 R1.4
X18.909 Y19.122 Z-9.11 R1.4
X21.09 Y20.878 Z-9.495 R1.4
X18.909 Y19.122 Z-9.879 R1.4
X21.09 Y20.878 Z-10.264 R1.4
X18.909 Y19.122 Z-10.649 R1.4
X21.09 Y20.878 Z-11.034 R1.4
X18.909 Y19.122 Z-11.419 R1.4
X21.09 Y20.878 Z-11.803 R1.4
X18.909 Y19.122 Z-12.188 R1.4
X21.4 Y20. Z-12.49 R1.4
X18.6 R1.4
X21.4 R1.4
G1 X21.437 Y20.77
X21.43 Y20.905
X21.402 Y21.037
X21.356 Y21.164
X21.296 Y21.285
X21.222 Y21.398
X21.138 Y21.504
X21.043 Y21.6
X20.94 Y21.688
X20.83 Y21.765
X20.714 Y21.834
X20.592 Y21.892
X20.466 Y21.941
X20.337 Y21.979
X20.205 Y22.008
X19.936 Y22.035
X19.667 Y22.022
X19.402 Y21.972
X19.146 Y21.886
X18.905 Y21.765
X18.682 Y21.613
X18.481 Y21.432
X18.306 Y21.227
X18.16 Y21.
X18.044 Y20.756
X17.962 Y20.499
X17.913 Y20.234
X17.899 Y19.964
X17.92 Y19.695
X17.975 Y19.431
X18.064 Y19.176
X18.185 Y18.935
X18.336 Y18.711
X18.514 Y18.509
X18.717 Y18.331
X18.941 Y18.18
X19.182 Y18.06
X19.437 Y17.971
X19.701 Y17.915
X19.97 Y17.894
X20.24 Y17.908
X20.505 Y17.955
X20.762 Y18.037
X21.007 Y18.15
X21.235 Y18.294
X21.443 Y18.466
X21.628 Y18.663
X21.791 Y18.892
X21.882 Y19.048
X21.982 Y19.247
X22.073 Y19.462
X22.143 Y19.665
X22.193 Y19.845
X22.229 Y20.016
X22.254 Y20.184
X22.266 Y20.34
X22.261 Y20.65
X22.219 Y20.941
X22.14 Y21.222
X22.026 Y21.49
X21.879 Y21.742
X21.699 Y21.975
X21.486 Y22.188
X21.246 Y22.374
X21.115 Y22.456
X20.976 Y22.532
X20.832 Y22.598
X20.684 Y22.656
X20.531 Y22.704
X20.375 Y22.742
X20.214 Y22.771
X20.051 Y22.79
X19.884 Y22.798
X19.716 Y22.795
X19.547 Y22.782
X19.378 Y22.758
X19.211 Y22.723
X19.045 Y22.677
X18.881 Y22.62
X18.721 Y22.552
X18.565 Y22.474
X18.413 Y22.386
X18.266 Y22.287
X18.125 Y22.179
X17.991 Y22.062
X17.864 Y21.936
X17.745 Y21.801
X17.635 Y21.658
X17.533 Y21.509
X17.441 Y21.352
X17.359 Y21.19
X17.287 Y21.022
X17.226 Y20.85
X17.177 Y20.674
X17.138 Y20.494
X17.111 Y20.313
X17.096 Y20.129
X17.092 Y19.945
X17.1 Y19.761
X17.12 Y19.577
X17.152 Y19.395
X17.195 Y19.215
X17.25 Y19.038
X17.316 Y18.865
X17.394 Y18.696
X17.481 Y18.532
X17.58 Y18.374
X17.688 Y18.223
X17.805 Y18.079
X17.932 Y17.943
X18.067 Y17.815
X18.21 Y17.696
X18.361 Y17.586
X18.518 Y17.486
X18.682 Y17.396
X18.851 Y17.317
X19.024 Y17.249
X19.202 Y17.192
X19.383 Y17.147
X19.566 Y17.113
X19.752 Y17.091
X19.938 Y17.081
X20.125 Y17.083
X20.311 Y17.097
X20.496 Y17.123
X20.679 Y17.16
X20.86 Y17.209
X21.036 Y17.27
X21.209 Y17.342
X21.376 Y17.424
X21.539 Y17.518
X21.7 Y17.625
X21.856 Y17.744
X22.012 Y17.879
X22.166 Y18.032
X22.316 Y18.2
X22.457 Y18.379
X22.585 Y18.567
X22.702 Y18.763
X22.804 Y18.964
X22.893 Y19.169
X22.968 Y19.378
X23.028 Y19.588
X23.075 Y19.8
X23.107 Y20.012
X23.126 Y20.223
X23.131 Y20.433
X23.122 Y20.642
X23.101 Y20.849
X23.066 Y21.052
X23.019 Y21.252
X22.959 Y21.449
X22.887 Y21.641
X22.802 Y21.828
X22.706 Y22.009
X22.598 Y22.184
X22.479 Y22.351
X22.349 Y22.512
X22.209 Y22.665
X22.058 Y22.809
X21.898 Y22.943
X21.729 Y23.068
X21.551 Y23.182
X21.365 Y23.285
X21.172 Y23.376
X20.972 Y23.455
X20.766 Y23.522
X20.556 Y23.576
X20.34 Y23.617
X20.122 Y23.643
X19.901 Y23.656
X19.679 Y23.655
X19.455 Y23.639
X19.233 Y23.609
X19.011 Y23.565
X18.792 Y23.506
X18.576 Y23.433
X18.364 Y23.346
X18.158 Y23.245
X17.957 Y23.131
X17.764 Y23.003
X17.578 Y22.863
X17.401 Y22.711
X17.233 Y22.547
X17.076 Y22.373
X16.93 Y22.188
X16.796 Y21.993
X16.674 Y21.79
X16.565 Y21.579
X16.47 Y21.361
X16.389 Y21.137
X16.322 Y20.908
X16.269 Y20.674
X16.232 Y20.438
X16.21 Y20.199
X16.203 Y19.958
X16.212 Y19.718
X16.236 Y19.478
X16.275 Y19.24
X16.33 Y19.004
X16.399 Y18.773
X16.484 Y18.546
X16.582 Y18.325
X16.695 Y18.11
X16.822 Y17.903
X16.961 Y17.705
X17.113 Y17.515
X17.277 Y17.336
X17.452 Y17.167
X17.637 Y17.01
X17.833 Y16.865
X18.037 Y16.733
X18.249 Y16.614
X18.469 Y16.509
X18.695 Y16.418
X18.926 Y16.341
X19.162 Y16.28
X19.402 Y16.234
X19.643 Y16.203
X19.887 Y16.188
X20.131
X20.374 Y16.204
X20.616 Y16.236
X20.856 Y16.283
X21.093 Y16.345
X21.327 Y16.424
X21.558 Y16.517
X21.787 Y16.628
X22.012 Y16.755
X22.232 Y16.898
X22.446 Y17.058
X22.652 Y17.234
X22.848 Y17.423
X23.032 Y17.627
X23.204 Y17.842
X23.361 Y18.068
X23.504 Y18.304
X23.632 Y18.549
X23.743 Y18.8
X23.838 Y19.057
X23.915 Y19.319
X23.976 Y19.584
X24.019 Y19.851
X24.045 Y20.12
X24.054 Y20.389
X24.046 Y20.657
X24.02 Y20.923
X23.978 Y21.186
X23.919 Y21.446
X23.843 Y21.701
X23.752 Y21.951
X23.644 Y22.194
X23.521 Y22.43
X23.384 Y22.658
X23.231 Y22.877
X23.065 Y23.087
X22.885 Y23.285
X22.692 Y23.472
X22.487 Y23.648
X22.271 Y23.81
X22.043 Y23.958
X21.806 Y24.093
X21.56 Y24.212
X21.305 Y24.316
X21.043 Y24.403
X20.775 Y24.474
X20.502 Y24.528
X20.225 Y24.564
X19.945 Y24.583
X19.663 Y24.584
X19.381 Y24.567
X19.099 Y24.531
X18.819 Y24.477
X18.542 Y24.406
X18.269 Y24.316
X18.001 Y24.209
X17.74 Y24.084
X17.487 Y23.942
X17.242 Y23.784
X17.007 Y23.611
X16.784 Y23.421
X16.527 Y23.169
X16.492 Y23.13
X16.406 Y23.032
X16.337 Y22.954
X16.181 Y22.76
X16.004 Y22.498
X15.979 Y22.454
G3 X16.664 Y22.046 R0.4
G1 X16.951 Y22.444
G3 X16.337 Y22.954 R0.4
G1 X16.102 Y22.682
X15.792 Y22.098
X15.573 Y21.67
X15.305 Y20.577
X15.299 Y19.608
X15.305 Y19.426
X15.563 Y18.363
X15.592 Y18.285
X16.106 Y17.312
X16.859 Y16.461
X17.738 Y15.85
X17.839 Y15.794
X18.872 Y15.405
X19.995 Y15.268
X21.128 Y15.405
X22.174 Y15.798
X22.294 Y15.872
X23.138 Y16.458
X23.894 Y17.312
X24.368 Y18.207
X24.438 Y18.363
X24.668 Y19.297
X24.7 Y19.452
Y20.542
X24.631 Y20.853
X24.431 Y21.659
X24.208 Y22.098
X23.898 Y22.682
X23.142 Y23.538
X22.213 Y24.183
X21.152 Y24.589
X20.539 Y24.67
X19.995 Y24.732
X18.983 Y24.612
X18.827 Y24.582
X17.815 Y24.197
X17.426 Y23.935
X16.855 Y23.535
X16.527 Y23.169
X16.505 Y23.127 Z-12.482
X16.484 Y23.088 Z-12.46
X16.468 Y23.058 Z-12.425
X16.457 Y23.038 Z-12.381
X16.453 Y23.032 Z-12.333
G0 Z5.
X101.091 Y60.878
Z0.91
G1 Z0.51 F400.
G3 X98.91 Y59.122 Z0.125 R1.4
X101.091 Y60.878 Z-0.26 R1.4
X98.91 Y59.122 Z-0.644 R1.4
X101.091 Y60.878 Z-1.029 R1.4
X98.91 Y59.122 Z-1.414 R1.4
X101.091 Y60.878 Z-1.799 R1.4
X98.91 Y59.122 Z-2.184 R1.4
X101.091 Y60.878 Z-2.568 R1.4
X98.91 Y59.122 Z-2.953 R1.4
X101.091 Y60.878 Z-3.338 R1.4
X98.91 Y59.122 Z-3.723 R1.4
X101.091 Y60.878 Z-4.108 R1.4
X98.91 Y59.122 Z-4.492 R1.4
X101.091 Y60.878 Z-4.877 R1.4
X98.91 Y59.122 Z-5.262 R1.4
X101.091 Y60.878 Z-5.647 R1.4
X98.91 Y59.122 Z-6.032 R1.4
X101.091 Y60.878 Z-6.416 R1.4
X98.91 Y59.122 Z-6.801 R1.4
X101.091 Y60.878 Z-7.186 R1.4
X98.91 Y59.122 Z-7.571 R1.4
X101.091 Y60.878 Z-7.955 R1.4
X98.91 Y59.122 Z-8.34 R1.4
X101.091 Y60.878 Z-8.725 R1.4
X98.91 Y59.122 Z-9.11 R1.4
X101.091 Y60.878 Z-9.495 R1.4
X98.91 Y59.122 Z-9.879 R1.4
X101.091 Y60.878 Z-10.264 R1.4
X98.91 Y59.122 Z-10.649 R1.4
X101.091 Y60.878 Z-11.034 R1.4
X98.91 Y59.122 Z-11.419 R1.4
X101.091 Y60.878 Z-11.803 R1.4
X98.91 Y59.122 Z-12.188 R1.4
X101.4 Y60. Z-12.49 R1.4
X98.6 R1.4
X101.4 R1.4
G1 X101.437 Y60.77
X101.43 Y60.905
X101.402 Y61.037
X101.357 Y61.164
X101.296 Y61.285
X101.223 Y61.398
X101.138 Y61.503
X101.044 Y61.6
X100.941 Y61.687
X100.831 Y61.765
X100.714 Y61.833
X100.593 Y61.892
X100.467 Y61.94
X100.337 Y61.979
X100.205 Y62.007
X99.937 Y62.034
X99.667 Y62.022
X99.402 Y61.972
X99.147 Y61.885
X98.905 Y61.764
X98.682 Y61.612
X98.482 Y61.432
X98.307 Y61.226
X98.16 Y61.
X98.045 Y60.756
X97.962 Y60.499
X97.913 Y60.234
X97.899 Y59.964
X97.92 Y59.695
X97.976 Y59.431
X98.064 Y59.176
X98.185 Y58.935
X98.336 Y58.711
X98.514 Y58.508
X98.717 Y58.33
X98.941 Y58.18
X99.183 Y58.059
X99.437 Y57.97
X99.702 Y57.915
X99.971 Y57.894
X100.24 Y57.907
X100.506 Y57.955
X100.763 Y58.036
X101.008 Y58.15
X101.236 Y58.294
X101.444 Y58.466
X101.628 Y58.663
X101.792 Y58.891
X101.883 Y59.047
X101.983 Y59.247
X102.073 Y59.461
X102.144 Y59.664
X102.194 Y59.844
X102.23 Y60.016
X102.254 Y60.184
X102.267 Y60.34
X102.262 Y60.65
X102.219 Y60.94
X102.14 Y61.222
X102.027 Y61.49
X101.88 Y61.741
X101.699 Y61.975
X101.486 Y62.188
X101.246 Y62.373
X101.115 Y62.456
X100.977 Y62.531
X100.833 Y62.598
X100.685 Y62.655
X100.532 Y62.703
X100.376 Y62.742
X100.215 Y62.771
X100.051 Y62.789
X99.885 Y62.797
X99.717 Y62.795
X99.548 Y62.782
X99.379 Y62.757
X99.211 Y62.722
X99.045 Y62.676
X98.882 Y62.619
X98.722 Y62.552
X98.565 Y62.474
X98.413 Y62.385
X98.267 Y62.287
X98.126 Y62.179
X97.992 Y62.062
X97.865 Y61.935
X97.746 Y61.801
X97.635 Y61.658
X97.534 Y61.508
X97.442 Y61.352
X97.36 Y61.189
X97.288 Y61.022
X97.227 Y60.849
X97.177 Y60.673
X97.139 Y60.494
X97.112 Y60.312
X97.096 Y60.129
X97.093 Y59.944
X97.101 Y59.76
X97.121 Y59.576
X97.153 Y59.394
X97.196 Y59.214
X97.251 Y59.037
X97.317 Y58.864
X97.394 Y58.695
X97.482 Y58.532
X97.58 Y58.374
X97.688 Y58.223
X97.806 Y58.079
X97.933 Y57.942
X98.068 Y57.814
X98.211 Y57.695
X98.362 Y57.585
X98.519 Y57.486
X98.682 Y57.396
X98.851 Y57.317
X99.025 Y57.249
X99.202 Y57.192
X99.383 Y57.146
X99.567 Y57.113
X99.752 Y57.091
X99.939 Y57.081
X100.126 Y57.083
X100.312 Y57.096
X100.497 Y57.122
X100.68 Y57.16
X100.86 Y57.209
X101.037 Y57.27
X101.209 Y57.341
X101.377 Y57.424
X101.54 Y57.518
X101.7 Y57.624
X101.857 Y57.744
X102.012 Y57.878
X102.167 Y58.031
X102.317 Y58.199
X102.457 Y58.379
X102.586 Y58.567
X102.702 Y58.763
X102.805 Y58.964
X102.894 Y59.169
X102.969 Y59.378
X103.029 Y59.588
X103.075 Y59.799
X103.108 Y60.011
X103.126 Y60.223
X103.131 Y60.433
X103.123 Y60.642
X103.101 Y60.848
X103.067 Y61.052
X103.02 Y61.252
X102.96 Y61.448
X102.887 Y61.64
X102.803 Y61.827
X102.707 Y62.008
X102.599 Y62.183
X102.48 Y62.351
X102.35 Y62.512
X102.209 Y62.664
X102.059 Y62.808
X101.898 Y62.943
X101.729 Y63.067
X101.551 Y63.181
X101.366 Y63.284
X101.173 Y63.376
X100.973 Y63.455
X100.767 Y63.522
X100.556 Y63.576
X100.341 Y63.616
X100.123 Y63.643
X99.902 Y63.656
X99.679 Y63.655
X99.456 Y63.639
X99.233 Y63.609
X99.012 Y63.564
X98.793 Y63.506
X98.577 Y63.433
X98.365 Y63.346
X98.158 Y63.245
X97.958 Y63.13
X97.764 Y63.003
X97.578 Y62.863
X97.401 Y62.711
X97.234 Y62.547
X97.077 Y62.372
X96.931 Y62.187
X96.797 Y61.993
X96.675 Y61.79
X96.566 Y61.579
X96.471 Y61.361
X96.389 Y61.137
X96.322 Y60.908
X96.27 Y60.674
X96.233 Y60.437
X96.211 Y60.198
X96.204 Y59.958
X96.212 Y59.717
X96.236 Y59.477
X96.276 Y59.239
X96.33 Y59.004
X96.4 Y58.772
X96.484 Y58.546
X96.583 Y58.324
X96.696 Y58.11
X96.822 Y57.903
X96.962 Y57.704
X97.113 Y57.515
X97.277 Y57.335
X97.452 Y57.167
X97.638 Y57.01
X97.833 Y56.865
X98.038 Y56.732
X98.25 Y56.613
X98.47 Y56.508
X98.696 Y56.417
X98.927 Y56.341
X99.163 Y56.28
X99.402 Y56.233
X99.644 Y56.203
X99.887 Y56.188
X100.131
X100.375 Y56.204
X100.617 Y56.235
X100.857 Y56.283
X101.094 Y56.345
X101.328 Y56.423
X101.559 Y56.517
X101.787 Y56.627
X102.012 Y56.754
X102.233 Y56.898
X102.447 Y57.058
X102.652 Y57.233
X102.848 Y57.423
X103.033 Y57.626
X103.204 Y57.842
X103.362 Y58.068
X103.505 Y58.304
X103.632 Y58.548
X103.744 Y58.8
X103.838 Y59.057
X103.916 Y59.318
X103.976 Y59.583
X104.02 Y59.851
X104.046 Y60.119
X104.055 Y60.388
X104.046 Y60.656
X104.021 Y60.922
X103.978 Y61.186
X103.919 Y61.446
X103.844 Y61.701
X103.752 Y61.95
X103.645 Y62.194
X103.522 Y62.43
X103.384 Y62.658
X103.232 Y62.877
X103.065 Y63.086
X102.886 Y63.285
X102.693 Y63.472
X102.488 Y63.647
X102.271 Y63.809
X102.044 Y63.958
X101.807 Y64.092
X101.56 Y64.212
X101.306 Y64.315
X101.044 Y64.403
X100.776 Y64.474
X100.503 Y64.528
X100.226 Y64.564
X99.946 Y64.583
X99.664 Y64.584
X99.382 Y64.566
X99.1 Y64.531
X98.82 Y64.477
X98.542 Y64.405
X98.269 Y64.316
X98.002 Y64.208
X97.741 Y64.084
X97.487 Y63.942
X97.243 Y63.784
X97.008 Y63.61
X96.784 Y63.421
X96.503 Y63.141
X96.499 Y63.137
X96.412 Y63.038
X96.344 Y62.962
X96.323 Y62.938
X96.183 Y62.764
X96.006 Y62.504
X95.982 Y62.459
G3 X96.667 Y62.052 R0.4
G1 X96.938 Y62.429
G3 X96.323 Y62.938 R0.4
G1 X96.106 Y62.688
X95.796 Y62.104
X95.578 Y61.685
X95.332 Y60.703
X95.3 Y60.522
Y59.458
X95.369 Y59.147
X95.566 Y58.351
X95.629 Y58.213
X96.102 Y57.318
X96.857 Y56.463
X97.784 Y55.819
X98.523 Y55.533
X98.849 Y55.411
X99.457 Y55.331
X100.002 Y55.269
X101.014 Y55.388
X101.169 Y55.416
X102.181 Y55.801
X102.414 Y55.955
X103.144 Y56.464
X103.899 Y57.318
X104.41 Y58.288
X104.439 Y58.369
X104.67 Y59.303
X104.7 Y59.458
Y60.548
X104.553 Y61.17
X104.425 Y61.676
X103.894 Y62.688
X103.14 Y63.54
X102.259 Y64.153
X102.181 Y64.199
X101.127 Y64.595
X100.002 Y64.732
X98.873 Y64.595
X97.823 Y64.2
X97.589 Y64.048
X96.861 Y63.541
X96.499 Y63.137
X96.476 Y63.094 Z-12.482
X96.455 Y63.056 Z-12.46
X96.439 Y63.025 Z-12.425
X96.428 Y63.006 Z-12.381
X96.425 Y62.999 Z-12.333
G0 Z5.
X141.09 Y20.878
Z0.91
G1 Z0.51 F400.
G3 X138.746 Y20.623 Z0.265 R1.4
X141.253 Y19.377 Z-0.12 R1.4
X138.746 Y20.623 Z-0.505 R1.4
X141.253 Y19.377 Z-0.89 R1.4
X138.746 Y20.623 Z-1.274 R1.4
X141.253 Y19.377 Z-1.659 R1.4
X138.746 Y20.623 Z-2.044 R1.4
X141.253 Y19.377 Z-2.429 R1.4
X138.746 Y20.623 Z-2.814 R1.4
X141.253 Y19.377 Z-3.198 R1.4
X138.746 Y20.623 Z-3.583 R1.4
X141.253 Y19.377 Z-3.968 R1.4
X138.746 Y20.623 Z-4.353 R1.4
X141.253 Y19.377 Z-4.738 R1.4
X138.746 Y20.623 Z-5.122 R1.4
X141.253 Y19.377 Z-5.507 R1.4
X138.746 Y20.623 Z-5.892 R1.4
X141.253 Y19.377 Z-6.277 R1.4
X141.371 Y20.279 Z-6.358 R1.4
X139.171 Y21.128 Z-6.603 R1.4
X140.828 Y18.871 Z-6.988 R1.4
X141.396 Y19.896 Z-7.094 R1.4
X138.604 Y20.103 Z-7.479 R1.4
X139.014 Y19.006 Z-7.584 R1.4
X141.315 Y19.52 Z-7.83 R1.4
X138.684 Y20.479 Z-8.214 R1.4
X141.315 Y19.52 Z-8.599 R1.4
X138.684 Y20.479 Z-8.984 R1.4
X141.315 Y19.52 Z-9.369 R1.4
X138.684 Y20.479 Z-9.754 R1.4
X141.315 Y19.52 Z-10.138 R1.4
X138.684 Y20.479 Z-10.523 R1.4
X141.315 Y19.52 Z-10.908 R1.4
X138.684 Y20.479 Z-11.293 R1.4
X141.315 Y19.52 Z-11.678 R1.4
X138.684 Y20.479 Z-12.062 R1.4
X141.315 Y19.52 Z-12.447 R1.4
X141.4 Y20. Z-12.49 R1.4
X138.6 R1.4
X141.4 R1.4
G1 X141.437 Y20.77
X141.43 Y20.905
X141.402 Y21.037
X141.356 Y21.164
X141.296 Y21.284
X141.222 Y21.398
X141.138 Y21.503
X141.043 Y21.599
X140.94 Y21.687
X140.83 Y21.765
X140.714 Y21.833
X140.592 Y21.891
X140.466 Y21.94
X140.337 Y21.978
X140.205 Y22.007
X139.936 Y22.034
X139.667 Y22.022
X139.402 Y21.971
X139.146 Y21.885
X138.905 Y21.764
X138.682 Y21.612
X138.481 Y21.432
X138.306 Y21.226
X138.16 Y20.999
X138.044 Y20.756
X137.962 Y20.499
X137.913 Y20.233
X137.899 Y19.964
X137.92 Y19.695
X137.975 Y19.431
X138.064 Y19.176
X138.185 Y18.935
X138.336 Y18.711
X138.514 Y18.508
X138.717 Y18.33
X138.941 Y18.18
X139.182 Y18.059
X139.437 Y17.97
X139.701 Y17.915
X139.97 Y17.894
X140.24 Y17.907
X140.505 Y17.955
X140.762 Y18.036
X141.007 Y18.15
X141.235 Y18.294
X141.443 Y18.466
X141.628 Y18.663
X141.791 Y18.891
X141.882 Y19.047
X141.982 Y19.246
X142.073 Y19.461
X142.143 Y19.664
X142.193 Y19.844
X142.229 Y20.015
X142.254 Y20.184
X142.266 Y20.34
X142.261 Y20.649
X142.219 Y20.94
X142.14 Y21.222
X142.026 Y21.489
X141.879 Y21.741
X141.699 Y21.975
X141.486 Y22.188
X141.246 Y22.373
X141.115 Y22.456
X140.976 Y22.531
X140.832 Y22.597
X140.684 Y22.655
X140.531 Y22.703
X140.375 Y22.742
X140.214 Y22.77
X140.051 Y22.789
X139.884 Y22.797
X139.716 Y22.795
X139.547 Y22.781
X139.378 Y22.757
X139.211 Y22.722
X139.045 Y22.676
X138.881 Y22.619
X138.721 Y22.552
X138.565 Y22.474
X138.413 Y22.385
X138.266 Y22.287
X138.125 Y22.179
X137.991 Y22.061
X137.864 Y21.935
X137.745 Y21.8
X137.635 Y21.658
X137.533 Y21.508
X137.441 Y21.352
X137.359 Y21.189
X137.287 Y21.021
X137.227 Y20.849
X137.177 Y20.673
X137.138 Y20.494
X137.111 Y20.312
X137.096 Y20.128
X137.092 Y19.944
X137.1 Y19.76
X137.12 Y19.576
X137.152 Y19.394
X137.195 Y19.214
X137.25 Y19.037
X137.316 Y18.864
X137.394 Y18.695
X137.481 Y18.531
X137.58 Y18.374
X137.688 Y18.222
X137.805 Y18.078
X137.932 Y17.942
X138.067 Y17.814
X138.21 Y17.695
X138.361 Y17.585
X138.518 Y17.485
X138.682 Y17.396
X138.851 Y17.316
X139.024 Y17.248
X139.202 Y17.191
X139.383 Y17.146
X139.566 Y17.112
X139.752 Y17.09
X139.938 Y17.08
X140.125 Y17.082
X140.311 Y17.096
X140.496 Y17.122
X140.679 Y17.159
X140.86 Y17.209
X141.036 Y17.269
X141.209 Y17.341
X141.376 Y17.424
X141.539 Y17.518
X141.7 Y17.624
X141.856 Y17.743
X142.012 Y17.878
X142.166 Y18.031
X142.316 Y18.199
X142.457 Y18.378
X142.585 Y18.567
X142.702 Y18.762
X142.804 Y18.963
X142.893 Y19.169
X142.968 Y19.377
X143.028 Y19.588
X143.075 Y19.799
X143.107 Y20.011
X143.126 Y20.222
X143.131 Y20.432
X143.122 Y20.641
X143.101 Y20.848
X143.066 Y21.052
X143.019 Y21.252
X142.959 Y21.448
X142.887 Y21.64
X142.802 Y21.827
X142.706 Y22.008
X142.598 Y22.183
X142.479 Y22.351
X142.349 Y22.511
X142.209 Y22.664
X142.058 Y22.808
X141.898 Y22.942
X141.729 Y23.067
X141.551 Y23.181
X141.365 Y23.284
X141.172 Y23.375
X140.972 Y23.455
X140.766 Y23.522
X140.556 Y23.575
X140.34 Y23.616
X140.122 Y23.643
X139.901 Y23.656
X139.679 Y23.654
X139.455 Y23.639
X139.233 Y23.609
X139.011 Y23.564
X138.792 Y23.505
X138.576 Y23.432
X138.364 Y23.345
X138.158 Y23.244
X137.957 Y23.13
X137.764 Y23.003
X137.578 Y22.863
X137.401 Y22.71
X137.233 Y22.547
X137.076 Y22.372
X136.93 Y22.187
X136.796 Y21.993
X136.674 Y21.79
X136.565 Y21.579
X136.47 Y21.361
X136.389 Y21.137
X136.322 Y20.907
X136.269 Y20.674
X136.232 Y20.437
X136.21 Y20.198
X136.203 Y19.958
X136.212 Y19.717
X136.236 Y19.477
X136.275 Y19.239
X136.33 Y19.004
X136.399 Y18.772
X136.484 Y18.545
X136.582 Y18.324
X136.695 Y18.11
X136.822 Y17.903
X136.961 Y17.704
X137.113 Y17.514
X137.277 Y17.335
X137.452 Y17.166
X137.637 Y17.009
X137.833 Y16.864
X138.037 Y16.732
X138.249 Y16.613
X138.469 Y16.508
X138.695 Y16.417
X138.926 Y16.341
X139.162 Y16.279
X139.402 Y16.233
X139.644 Y16.202
X139.887 Y16.187
X140.131 Y16.188
X140.374 Y16.204
X140.616 Y16.235
X140.856 Y16.282
X141.093 Y16.345
X141.327 Y16.423
X141.558 Y16.517
X141.787 Y16.627
X142.012 Y16.754
X142.232 Y16.898
X142.446 Y17.058
X142.652 Y17.233
X142.848 Y17.423
X143.032 Y17.626
X143.204 Y17.841
X143.361 Y18.068
X143.504 Y18.304
X143.632 Y18.548
X143.743 Y18.799
X143.838 Y19.056
X143.915 Y19.318
X143.976 Y19.583
X144.019 Y19.851
X144.045 Y20.119
X144.054 Y20.388
X144.046 Y20.656
X144.02 Y20.922
X143.978 Y21.186
X143.919 Y21.445
X143.843 Y21.7
X143.752 Y21.95
X143.644 Y22.193
X143.521 Y22.43
X143.384 Y22.658
X143.231 Y22.877
X143.065 Y23.086
X142.885 Y23.285
X142.692 Y23.472
X142.487 Y23.647
X142.271 Y23.809
X142.043 Y23.958
X141.806 Y24.092
X141.56 Y24.211
X141.305 Y24.315
X141.043 Y24.403
X140.775 Y24.473
X140.502 Y24.527
X140.225 Y24.564
X139.945 Y24.583
X139.663
X139.381 Y24.566
X139.099 Y24.53
X138.819 Y24.477
X138.542 Y24.405
X138.269 Y24.315
X138.001 Y24.208
X137.74 Y24.083
X137.487 Y23.942
X137.242 Y23.784
X137.007 Y23.61
X136.784 Y23.421
X136.508 Y23.147
X136.503 Y23.142
X136.102 Y22.682
X135.629 Y21.787
X135.561 Y21.631
X135.33 Y20.697
X135.3 Y20.516
Y19.452
X135.447 Y18.83
X135.569 Y18.341
X135.796 Y17.896
X136.106 Y17.312
X136.862 Y16.458
X137.787 Y15.818
X138.45 Y15.561
X138.872 Y15.405
X140.005 Y15.268
X141.128 Y15.405
X142.185 Y15.803
X142.574 Y16.065
X143.141 Y16.461
X143.894 Y17.312
X144.425 Y18.324
X144.668 Y19.297
X144.7 Y19.452
Y20.542
X144.67 Y20.697
X144.427 Y21.67
X143.898 Y22.682
X143.145 Y23.535
X142.262 Y24.15
X142.185 Y24.197
X141.15 Y24.589
X140.706 Y24.65
X140.005 Y24.732
X138.994 Y24.613
X138.838 Y24.586
X137.787 Y24.183
X136.858 Y23.538
X136.508 Y23.147
X136.485 Y23.105 Z-12.482
X136.465 Y23.067 Z-12.46
X136.448 Y23.036 Z-12.425
X136.438 Y23.017 Z-12.381
X136.434 Y23.01 Z-12.333
G0 Z5.
X141.091 Y60.878
Z0.91
G1 Z0.51 F400.
G3 X138.91 Y59.122 Z0.125 R1.4
X141.091 Y60.878 Z-0.26 R1.4
X138.91 Y59.122 Z-0.644 R1.4
X141.091 Y60.878 Z-1.029 R1.4
X138.91 Y59.122 Z-1.414 R1.4
X141.091 Y60.878 Z-1.799 R1.4
X138.91 Y59.122 Z-2.184 R1.4
X141.091 Y60.878 Z-2.568 R1.4
X138.91 Y59.122 Z-2.953 R1.4
X141.091 Y60.878 Z-3.338 R1.4
X138.91 Y59.122 Z-3.723 R1.4
X141.091 Y60.878 Z-4.108 R1.4
X138.91 Y59.122 Z-4.492 R1.4
X141.091 Y60.878 Z-4.877 R1.4
X138.91 Y59.122 Z-5.262 R1.4
X141.091 Y60.878 Z-5.647 R1.4
X138.91 Y59.122 Z-6.032 R1.4
X141.091 Y60.878 Z-6.416 R1.4
X138.91 Y59.122 Z-6.801 R1.4
X141.091 Y60.878 Z-7.186 R1.4
X138.91 Y59.122 Z-7.571 R1.4
X141.091 Y60.878 Z-7.955 R1.4
X138.91 Y59.122 Z-8.34 R1.4
X141.091 Y60.878 Z-8.725 R1.4
X138.91 Y59.122 Z-9.11 R1.4
X141.091 Y60.878 Z-9.495 R1.4
X138.91 Y59.122 Z-9.879 R1.4
X141.091 Y60.878 Z-10.264 R1.4
X138.91 Y59.122 Z-10.649 R1.4
X141.091 Y60.878 Z-11.034 R1.4
X138.91 Y59.122 Z-11.419 R1.4
X141.091 Y60.878 Z-11.803 R1.4
X138.91 Y59.122 Z-12.188 R1.4
X141.401 Y60. Z-12.49 R1.4
X138.601 R1.4
X141.401 R1.4
G1 X141.438 Y60.77
X141.431 Y60.905
X141.403 Y61.037
X141.357 Y61.164
X141.297 Y61.285
X141.223 Y61.398
X141.139 Y61.503
X141.044 Y61.6
X140.941 Y61.687
X140.831 Y61.765
X140.715 Y61.833
X140.593 Y61.892
X140.467 Y61.94
X140.338 Y61.979
X140.206 Y62.007
X139.937 Y62.034
X139.668 Y62.022
X139.403 Y61.972
X139.147 Y61.885
X138.906 Y61.764
X138.683 Y61.612
X138.482 Y61.432
X138.307 Y61.226
X138.161 Y61.
X138.045 Y60.756
X137.962 Y60.499
X137.914 Y60.233
X137.9 Y59.964
X137.921 Y59.695
X137.976 Y59.431
X138.065 Y59.176
X138.186 Y58.935
X138.337 Y58.711
X138.515 Y58.508
X138.718 Y58.33
X138.942 Y58.18
X139.183 Y58.059
X139.438 Y57.97
X139.702 Y57.915
X139.971 Y57.894
X140.241 Y57.907
X140.506 Y57.955
X140.763 Y58.036
X141.008 Y58.15
X141.236 Y58.294
X141.444 Y58.466
X141.629 Y58.663
X141.792 Y58.891
X141.883 Y59.047
X141.983 Y59.247
X142.074 Y59.461
X142.144 Y59.664
X142.194 Y59.844
X142.23 Y60.016
X142.255 Y60.184
X142.267 Y60.34
X142.262 Y60.65
X142.22 Y60.94
X142.141 Y61.222
X142.027 Y61.489
X141.88 Y61.741
X141.7 Y61.975
X141.487 Y62.188
X141.247 Y62.373
X141.116 Y62.456
X140.977 Y62.531
X140.833 Y62.598
X140.685 Y62.655
X140.532 Y62.703
X140.376 Y62.742
X140.215 Y62.771
X140.052 Y62.789
X139.885 Y62.797
X139.717 Y62.795
X139.548 Y62.782
X139.379 Y62.757
X139.212 Y62.722
X139.046 Y62.676
X138.882 Y62.619
X138.722 Y62.552
X138.566 Y62.474
X138.414 Y62.385
X138.267 Y62.287
X138.126 Y62.179
X137.992 Y62.061
X137.865 Y61.935
X137.746 Y61.8
X137.636 Y61.658
X137.534 Y61.508
X137.442 Y61.352
X137.36 Y61.189
X137.288 Y61.022
X137.227 Y60.849
X137.178 Y60.673
X137.139 Y60.494
X137.112 Y60.312
X137.097 Y60.129
X137.093 Y59.944
X137.101 Y59.76
X137.121 Y59.576
X137.153 Y59.394
X137.196 Y59.214
X137.251 Y59.037
X137.317 Y58.864
X137.395 Y58.695
X137.482 Y58.532
X137.581 Y58.374
X137.689 Y58.223
X137.806 Y58.079
X137.933 Y57.942
X138.068 Y57.814
X138.211 Y57.695
X138.362 Y57.585
X138.519 Y57.485
X138.683 Y57.396
X138.852 Y57.317
X139.025 Y57.249
X139.203 Y57.192
X139.384 Y57.146
X139.567 Y57.113
X139.753 Y57.091
X139.939 Y57.081
X140.126 Y57.083
X140.312 Y57.096
X140.497 Y57.122
X140.68 Y57.16
X140.861 Y57.209
X141.037 Y57.269
X141.21 Y57.341
X141.377 Y57.424
X141.54 Y57.518
X141.701 Y57.624
X141.857 Y57.743
X142.012 Y57.878
X142.167 Y58.031
X142.317 Y58.199
X142.458 Y58.378
X142.586 Y58.567
X142.703 Y58.763
X142.805 Y58.964
X142.894 Y59.169
X142.969 Y59.378
X143.029 Y59.588
X143.076 Y59.799
X143.108 Y60.011
X143.127 Y60.223
X143.132 Y60.433
X143.123 Y60.641
X143.102 Y60.848
X143.067 Y61.052
X143.02 Y61.252
X142.96 Y61.448
X142.888 Y61.64
X142.803 Y61.827
X142.707 Y62.008
X142.599 Y62.183
X142.48 Y62.351
X142.35 Y62.512
X142.21 Y62.664
X142.059 Y62.808
X141.899 Y62.943
X141.73 Y63.067
X141.552 Y63.181
X141.366 Y63.284
X141.173 Y63.376
X140.973 Y63.455
X140.767 Y63.522
X140.557 Y63.576
X140.341 Y63.616
X140.123 Y63.643
X139.902 Y63.656
X139.68 Y63.655
X139.456 Y63.639
X139.234 Y63.609
X139.012 Y63.564
X138.793 Y63.506
X138.577 Y63.433
X138.365 Y63.346
X138.159 Y63.245
X137.958 Y63.13
X137.765 Y63.003
X137.579 Y62.863
X137.402 Y62.711
X137.234 Y62.547
X137.077 Y62.372
X136.931 Y62.187
X136.797 Y61.993
X136.675 Y61.79
X136.566 Y61.579
X136.471 Y61.361
X136.39 Y61.137
X136.323 Y60.907
X136.27 Y60.674
X136.233 Y60.437
X136.211 Y60.198
X136.204 Y59.958
X136.213 Y59.717
X136.237 Y59.477
X136.276 Y59.239
X136.331 Y59.004
X136.4 Y58.772
X136.485 Y58.545
X136.583 Y58.324
X136.696 Y58.11
X136.823 Y57.903
X136.962 Y57.704
X137.114 Y57.515
X137.278 Y57.335
X137.453 Y57.167
X137.638 Y57.01
X137.834 Y56.865
X138.038 Y56.732
X138.25 Y56.613
X138.47 Y56.508
X138.696 Y56.417
X138.927 Y56.341
X139.163 Y56.28
X139.403 Y56.233
X139.644 Y56.203
X139.888 Y56.187
X140.132 Y56.188
X140.375 Y56.204
X140.617 Y56.235
X140.857 Y56.282
X141.094 Y56.345
X141.328 Y56.423
X141.559 Y56.517
X141.788 Y56.627
X142.013 Y56.754
X142.233 Y56.898
X142.447 Y57.058
X142.653 Y57.233
X142.849 Y57.423
X143.033 Y57.626
X143.205 Y57.842
X143.362 Y58.068
X143.505 Y58.304
X143.633 Y58.548
X143.744 Y58.799
X143.839 Y59.057
X143.916 Y59.318
X143.977 Y59.583
X144.02 Y59.851
X144.046 Y60.119
X144.055 Y60.388
X144.047 Y60.656
X144.021 Y60.922
X143.979 Y61.186
X143.92 Y61.445
X143.844 Y61.701
X143.753 Y61.95
X143.645 Y62.194
X143.522 Y62.43
X143.385 Y62.658
X143.232 Y62.877
X143.066 Y63.086
X142.886 Y63.285
X142.693 Y63.472
X142.488 Y63.647
X142.272 Y63.809
X142.044 Y63.958
X141.807 Y64.092
X141.561 Y64.211
X141.306 Y64.315
X141.044 Y64.403
X140.776 Y64.474
X140.503 Y64.528
X140.226 Y64.564
X139.946 Y64.583
X139.664
X139.382 Y64.566
X139.1 Y64.531
X138.82 Y64.477
X138.543 Y64.405
X138.27 Y64.315
X138.002 Y64.208
X137.741 Y64.083
X137.488 Y63.942
X137.243 Y63.784
X137.008 Y63.61
X136.785 Y63.421
X136.573 Y63.217
X136.485 Y63.121
X136.412 Y63.038
X136.347 Y62.966
X136.325 Y62.941
X136.184 Y62.764
X136.006 Y62.502
X135.981 Y62.457
G3 X136.666 Y62.051 R0.4
G1 X136.94 Y62.432
G3 X136.453 Y63.031 R0.4
X136.325 Y62.941 R0.4
G1 X136.106 Y62.688
X135.796 Y62.104
X135.569 Y61.659
X135.332 Y60.703
X135.3 Y60.522
Y59.458
X135.369 Y59.147
X135.569 Y58.341
X135.792 Y57.902
X136.102 Y57.318
X136.858 Y56.462
X137.787 Y55.817
X138.848 Y55.411
X139.461 Y55.33
X140.005 Y55.268
X141.017 Y55.388
X141.173 Y55.418
X142.185 Y55.803
X142.574 Y56.065
X143.145 Y56.465
X143.898 Y57.318
X144.427 Y58.33
X144.689 Y59.38
X144.7 Y59.458
Y60.548
X144.553 Y61.17
X144.425 Y61.676
X143.894 Y62.688
X143.141 Y63.539
X142.262 Y64.15
X142.185 Y64.197
X141.128 Y64.595
X140.005 Y64.732
X138.872 Y64.595
X137.826 Y64.202
X137.706 Y64.128
X136.862 Y63.542
X136.485 Y63.121
G3 X136.411 Y62.983 R0.4
G1 X136.388 Y62.909 Z-12.482
X136.366 Y62.837 Z-12.46
X136.345 Y62.771 Z-12.423
X136.328 Y62.713 Z-12.373
X136.313 Y62.665 Z-12.312
X136.302 Y62.63 Z-12.243
X136.296 Y62.608 Z-12.168
X136.293 Y62.601 Z-12.09
G0 Z10.

(DRILL1)
M8
G0 X140. Y20.
Z4.
Z2.
G98 G73 X140. Y20. Z-13.5 R-7.5 Q0.2 F200.
X100.
X60.
X20.
Y60.
X60.
X100.
X140.
G80
Z4.

M9
M30
