(_40_80_420_)
(T4  D=6. CR=0. - ZMIN=-27.5 - FLAT END MILL)
G90 G94 G91.1 G40 G49 G17
G21

(DRILL5)
M5
M9
T4
S10000 M3
G54
M8
G0 X70. Y60.
G43 Z10. H4
Z5.
G98 G73 X70. Y60. Z-27.5 R-7.5 Q0.25 F200.
Y20.
X10.
Y60.
G80
Z10.

(2D POCKET1)
M8
G0 X99.157 Y60.805
Z10.
Z5.
G1 Z0.5 F440.
G3 X100.343 Y59.195 Z0.225 R1.
X99.157 Y60.805 Z-0.05 R1.
X100.343 Y59.195 Z-0.325 R1.
X99.157 Y60.805 Z-0.599 R1.
X100.343 Y59.195 Z-0.874 R1.
X99.157 Y60.805 Z-1.149 R1.
X100.343 Y59.195 Z-1.424 R1.
X99.157 Y60.805 Z-1.699 R1.
X100.343 Y59.195 Z-1.974 R1.
X99.157 Y60.805 Z-2.249 R1.
X100.343 Y59.195 Z-2.523 R1.
X99.157 Y60.805 Z-2.798 R1.
X100.343 Y59.195 Z-3.073 R1.
X99.157 Y60.805 Z-3.348 R1.
X100.343 Y59.195 Z-3.623 R1.
X99.157 Y60.805 Z-3.898 R1.
X100.343 Y59.195 Z-4.173 R1.
X99.157 Y60.805 Z-4.447 R1.
X100.343 Y59.195 Z-4.722 R1.
X99.157 Y60.805 Z-4.997 R1.
X100.343 Y59.195 Z-5.272 R1.
X99.157 Y60.805 Z-5.547 R1.
X100.343 Y59.195 Z-5.822 R1.
X99.157 Y60.805 Z-6.096 R1.
X100.343 Y59.195 Z-6.371 R1.
X99.157 Y60.805 Z-6.646 R1.
X100.343 Y59.195 Z-6.921 R1.
X99.157 Y60.805 Z-7.196 R1.
X100.343 Y59.195 Z-7.471 R1.
X99.157 Y60.805 Z-7.746 R1.
X100.343 Y59.195 Z-8.02 R1.
X99.157 Y60.805 Z-8.295 R1.
X100.343 Y59.195 Z-8.57 R1.
X99.157 Y60.805 Z-8.845 R1.
X100.343 Y59.195 Z-9.12 R1.
X99.157 Y60.805 Z-9.395 R1.
X100.343 Y59.195 Z-9.67 R1.
X99.157 Y60.805 Z-9.944 R1.
X100.343 Y59.195 Z-10.219 R1.
X99.157 Y60.805 Z-10.494 R1.
X100.343 Y59.195 Z-10.769 R1.
X99.157 Y60.805 Z-11.044 R1.
X100.343 Y59.195 Z-11.319 R1.
X99.157 Y60.805 Z-11.594 R1.
X100.343 Y59.195 Z-11.868 R1.
X99.157 Y60.805 Z-12.143 R1.
X100.343 Y59.195 Z-12.418 R1.
X100.75 Y60. Z-12.5 R1.
X99.25 R0.75
X102.25 R1.5
X97.75 R2.25
X103.75 R3.
X96.25 R3.75
X103.75 R3.75
G1 X103.45 Z-12.47
G0 Z5.
X99.157 Y20.805
G1 Z0.5 F440.
G3 X100.343 Y19.195 Z0.225 R1.
X99.157 Y20.805 Z-0.05 R1.
X100.343 Y19.195 Z-0.325 R1.
X99.157 Y20.805 Z-0.599 R1.
X100.343 Y19.195 Z-0.874 R1.
X99.157 Y20.805 Z-1.149 R1.
X100.343 Y19.195 Z-1.424 R1.
X99.157 Y20.805 Z-1.699 R1.
X100.343 Y19.195 Z-1.974 R1.
X99.157 Y20.805 Z-2.249 R1.
X100.343 Y19.195 Z-2.523 R1.
X99.157 Y20.805 Z-2.798 R1.
X100.343 Y19.195 Z-3.073 R1.
X99.157 Y20.805 Z-3.348 R1.
X100.343 Y19.195 Z-3.623 R1.
X99.157 Y20.805 Z-3.898 R1.
X100.343 Y19.195 Z-4.173 R1.
X99.157 Y20.805 Z-4.447 R1.
X100.343 Y19.195 Z-4.722 R1.
X99.157 Y20.805 Z-4.997 R1.
X100.343 Y19.195 Z-5.272 R1.
X99.157 Y20.805 Z-5.547 R1.
X100.343 Y19.195 Z-5.822 R1.
X99.157 Y20.805 Z-6.096 R1.
X100.343 Y19.195 Z-6.371 R1.
X99.157 Y20.805 Z-6.646 R1.
X100.343 Y19.195 Z-6.921 R1.
X99.157 Y20.805 Z-7.196 R1.
X100.343 Y19.195 Z-7.471 R1.
X99.157 Y20.805 Z-7.746 R1.
X100.343 Y19.195 Z-8.02 R1.
X99.157 Y20.805 Z-8.295 R1.
X100.343 Y19.195 Z-8.57 R1.
X99.157 Y20.805 Z-8.845 R1.
X100.343 Y19.195 Z-9.12 R1.
X99.157 Y20.805 Z-9.395 R1.
X100.343 Y19.195 Z-9.67 R1.
X99.157 Y20.805 Z-9.944 R1.
X100.343 Y19.195 Z-10.219 R1.
X99.157 Y20.805 Z-10.494 R1.
X100.343 Y19.195 Z-10.769 R1.
X99.157 Y20.805 Z-11.044 R1.
X100.343 Y19.195 Z-11.319 R1.
X99.157 Y20.805 Z-11.594 R1.
X100.343 Y19.195 Z-11.868 R1.
X99.157 Y20.805 Z-12.143 R1.
X100.343 Y19.195 Z-12.418 R1.
X100.75 Y20. Z-12.5 R1.
X99.25 R0.75
X102.25 R1.5
X97.75 R2.25
X103.75 R3.
X96.25 R3.75
X103.75 R3.75
G1 X103.45 Z-12.47
G0 Z5.
X139.157 Y20.805
G1 Z0.5 F440.
G3 X140.343 Y19.195 Z0.225 R1.
X139.157 Y20.805 Z-0.05 R1.
X140.343 Y19.195 Z-0.325 R1.
X139.157 Y20.805 Z-0.599 R1.
X140.343 Y19.195 Z-0.874 R1.
X139.157 Y20.805 Z-1.149 R1.
X140.343 Y19.195 Z-1.424 R1.
X139.157 Y20.805 Z-1.699 R1.
X140.343 Y19.195 Z-1.974 R1.
X139.157 Y20.805 Z-2.249 R1.
X140.343 Y19.195 Z-2.523 R1.
X139.157 Y20.805 Z-2.798 R1.
X140.343 Y19.195 Z-3.073 R1.
X139.157 Y20.805 Z-3.348 R1.
X140.343 Y19.195 Z-3.623 R1.
X139.157 Y20.805 Z-3.898 R1.
X140.343 Y19.195 Z-4.173 R1.
X139.157 Y20.805 Z-4.447 R1.
X140.343 Y19.195 Z-4.722 R1.
X139.157 Y20.805 Z-4.997 R1.
X140.343 Y19.195 Z-5.272 R1.
X139.157 Y20.805 Z-5.547 R1.
X140.343 Y19.195 Z-5.822 R1.
X139.157 Y20.805 Z-6.096 R1.
X140.343 Y19.195 Z-6.371 R1.
X139.157 Y20.805 Z-6.646 R1.
X140.343 Y19.195 Z-6.921 R1.
X139.157 Y20.805 Z-7.196 R1.
X140.343 Y19.195 Z-7.471 R1.
X139.157 Y20.805 Z-7.746 R1.
X140.343 Y19.195 Z-8.02 R1.
X139.157 Y20.805 Z-8.295 R1.
X140.343 Y19.195 Z-8.57 R1.
X139.157 Y20.805 Z-8.845 R1.
X140.343 Y19.195 Z-9.12 R1.
X139.157 Y20.805 Z-9.395 R1.
X140.343 Y19.195 Z-9.67 R1.
X139.157 Y20.805 Z-9.944 R1.
X140.343 Y19.195 Z-10.219 R1.
X139.157 Y20.805 Z-10.494 R1.
X140.343 Y19.195 Z-10.769 R1.
X139.157 Y20.805 Z-11.044 R1.
X140.343 Y19.195 Z-11.319 R1.
X139.157 Y20.805 Z-11.594 R1.
X140.343 Y19.195 Z-11.868 R1.
X139.157 Y20.805 Z-12.143 R1.
X140.343 Y19.195 Z-12.418 R1.
X140.75 Y20. Z-12.5 R1.
X139.25 R0.75
X142.25 R1.5
X137.75 R2.25
X143.75 R3.
X136.25 R3.75
X143.75 R3.75
G1 X143.45 Z-12.47
G0 Z5.
X139.157 Y60.805
G1 Z0.5 F440.
G3 X140.343 Y59.195 Z0.225 R1.
X139.157 Y60.805 Z-0.05 R1.
X140.343 Y59.195 Z-0.325 R1.
X139.157 Y60.805 Z-0.599 R1.
X140.343 Y59.195 Z-0.874 R1.
X139.157 Y60.805 Z-1.149 R1.
X140.343 Y59.195 Z-1.424 R1.
X139.157 Y60.805 Z-1.699 R1.
X140.343 Y59.195 Z-1.974 R1.
X139.157 Y60.805 Z-2.249 R1.
X140.343 Y59.195 Z-2.523 R1.
X139.157 Y60.805 Z-2.798 R1.
X140.343 Y59.195 Z-3.073 R1.
X139.157 Y60.805 Z-3.348 R1.
X140.343 Y59.195 Z-3.623 R1.
X139.157 Y60.805 Z-3.898 R1.
X140.343 Y59.195 Z-4.173 R1.
X139.157 Y60.805 Z-4.447 R1.
X140.343 Y59.195 Z-4.722 R1.
X139.157 Y60.805 Z-4.997 R1.
X140.343 Y59.195 Z-5.272 R1.
X139.157 Y60.805 Z-5.547 R1.
X140.343 Y59.195 Z-5.822 R1.
X139.157 Y60.805 Z-6.096 R1.
X140.343 Y59.195 Z-6.371 R1.
X139.157 Y60.805 Z-6.646 R1.
X140.343 Y59.195 Z-6.921 R1.
X139.157 Y60.805 Z-7.196 R1.
X140.343 Y59.195 Z-7.471 R1.
X139.157 Y60.805 Z-7.746 R1.
X140.343 Y59.195 Z-8.02 R1.
X139.157 Y60.805 Z-8.295 R1.
X140.343 Y59.195 Z-8.57 R1.
X139.157 Y60.805 Z-8.845 R1.
X140.343 Y59.195 Z-9.12 R1.
X139.157 Y60.805 Z-9.395 R1.
X140.343 Y59.195 Z-9.67 R1.
X139.157 Y60.805 Z-9.944 R1.
X140.343 Y59.195 Z-10.219 R1.
X139.157 Y60.805 Z-10.494 R1.
X140.343 Y59.195 Z-10.769 R1.
X139.157 Y60.805 Z-11.044 R1.
X140.343 Y59.195 Z-11.319 R1.
X139.157 Y60.805 Z-11.594 R1.
X140.343 Y59.195 Z-11.868 R1.
X139.157 Y60.805 Z-12.143 R1.
X140.343 Y59.195 Z-12.418 R1.
X140.75 Y60. Z-12.5 R1.
X139.25 R0.75
X142.25 R1.5
X137.75 R2.25
X143.75 R3.
X136.25 R3.75
X143.75 R3.75
G1 X143.45 Z-12.47
G0 Z5.
X179.157 Y60.805
G1 Z0.5 F440.
G3 X180.343 Y59.195 Z0.225 R1.
X179.157 Y60.805 Z-0.05 R1.
X180.343 Y59.195 Z-0.325 R1.
X179.157 Y60.805 Z-0.599 R1.
X180.343 Y59.195 Z-0.874 R1.
X179.157 Y60.805 Z-1.149 R1.
X180.343 Y59.195 Z-1.424 R1.
X179.157 Y60.805 Z-1.699 R1.
X180.343 Y59.195 Z-1.974 R1.
X179.157 Y60.805 Z-2.249 R1.
X180.343 Y59.195 Z-2.523 R1.
X179.157 Y60.805 Z-2.798 R1.
X180.343 Y59.195 Z-3.073 R1.
X179.157 Y60.805 Z-3.348 R1.
X180.343 Y59.195 Z-3.623 R1.
X179.157 Y60.805 Z-3.898 R1.
X180.343 Y59.195 Z-4.173 R1.
X179.157 Y60.805 Z-4.447 R1.
X180.343 Y59.195 Z-4.722 R1.
X179.157 Y60.805 Z-4.997 R1.
X180.343 Y59.195 Z-5.272 R1.
X179.157 Y60.805 Z-5.547 R1.
X180.343 Y59.195 Z-5.822 R1.
X179.157 Y60.805 Z-6.096 R1.
X180.343 Y59.195 Z-6.371 R1.
X179.157 Y60.805 Z-6.646 R1.
X180.343 Y59.195 Z-6.921 R1.
X179.157 Y60.805 Z-7.196 R1.
X180.343 Y59.195 Z-7.471 R1.
X179.157 Y60.805 Z-7.746 R1.
X180.343 Y59.195 Z-8.02 R1.
X179.157 Y60.805 Z-8.295 R1.
X180.343 Y59.195 Z-8.57 R1.
X179.157 Y60.805 Z-8.845 R1.
X180.343 Y59.195 Z-9.12 R1.
X179.157 Y60.805 Z-9.395 R1.
X180.343 Y59.195 Z-9.67 R1.
X179.157 Y60.805 Z-9.944 R1.
X180.343 Y59.195 Z-10.219 R1.
X179.157 Y60.805 Z-10.494 R1.
X180.343 Y59.195 Z-10.769 R1.
X179.157 Y60.805 Z-11.044 R1.
X180.343 Y59.195 Z-11.319 R1.
X179.157 Y60.805 Z-11.594 R1.
X180.343 Y59.195 Z-11.868 R1.
X179.157 Y60.805 Z-12.143 R1.
X180.343 Y59.195 Z-12.418 R1.
X180.75 Y60. Z-12.5 R1.
X179.25 R0.75
X182.25 R1.5
X177.75 R2.25
X183.75 R3.
X176.25 R3.75
X183.75 R3.75
G1 X183.45 Z-12.47
G0 Z5.
X179.157 Y20.805
G1 Z0.5 F440.
G3 X180.343 Y19.195 Z0.225 R1.
X179.157 Y20.805 Z-0.05 R1.
X180.343 Y19.195 Z-0.325 R1.
X179.157 Y20.805 Z-0.599 R1.
X180.343 Y19.195 Z-0.874 R1.
X179.157 Y20.805 Z-1.149 R1.
X180.343 Y19.195 Z-1.424 R1.
X179.157 Y20.805 Z-1.699 R1.
X180.343 Y19.195 Z-1.974 R1.
X179.157 Y20.805 Z-2.249 R1.
X180.343 Y19.195 Z-2.523 R1.
X179.157 Y20.805 Z-2.798 R1.
X180.343 Y19.195 Z-3.073 R1.
X179.157 Y20.805 Z-3.348 R1.
X180.343 Y19.195 Z-3.623 R1.
X179.157 Y20.805 Z-3.898 R1.
X180.343 Y19.195 Z-4.173 R1.
X179.157 Y20.805 Z-4.447 R1.
X180.343 Y19.195 Z-4.722 R1.
X179.157 Y20.805 Z-4.997 R1.
X180.343 Y19.195 Z-5.272 R1.
X179.157 Y20.805 Z-5.547 R1.
X180.343 Y19.195 Z-5.822 R1.
X179.157 Y20.805 Z-6.096 R1.
X180.343 Y19.195 Z-6.371 R1.
X179.157 Y20.805 Z-6.646 R1.
X180.343 Y19.195 Z-6.921 R1.
X179.157 Y20.805 Z-7.196 R1.
X180.343 Y19.195 Z-7.471 R1.
X179.157 Y20.805 Z-7.746 R1.
X180.343 Y19.195 Z-8.02 R1.
X179.157 Y20.805 Z-8.295 R1.
X180.343 Y19.195 Z-8.57 R1.
X179.157 Y20.805 Z-8.845 R1.
X180.343 Y19.195 Z-9.12 R1.
X179.157 Y20.805 Z-9.395 R1.
X180.343 Y19.195 Z-9.67 R1.
X179.157 Y20.805 Z-9.944 R1.
X180.343 Y19.195 Z-10.219 R1.
X179.157 Y20.805 Z-10.494 R1.
X180.343 Y19.195 Z-10.769 R1.
X179.157 Y20.805 Z-11.044 R1.
X180.343 Y19.195 Z-11.319 R1.
X179.157 Y20.805 Z-11.594 R1.
X180.343 Y19.195 Z-11.868 R1.
X179.157 Y20.805 Z-12.143 R1.
X180.343 Y19.195 Z-12.418 R1.
X180.75 Y20. Z-12.5 R1.
X179.25 R0.75
X182.25 R1.5
X177.75 R2.25
X183.75 R3.
X176.25 R3.75
X183.75 R3.75
G1 X183.45 Z-12.47
G0 Z5.
X219.157 Y20.805
G1 Z0.5 F440.
G3 X220.343 Y19.195 Z0.225 R1.
X219.157 Y20.805 Z-0.05 R1.
X220.343 Y19.195 Z-0.325 R1.
X219.157 Y20.805 Z-0.599 R1.
X220.343 Y19.195 Z-0.874 R1.
X219.157 Y20.805 Z-1.149 R1.
X220.343 Y19.195 Z-1.424 R1.
X219.157 Y20.805 Z-1.699 R1.
X220.343 Y19.195 Z-1.974 R1.
X219.157 Y20.805 Z-2.249 R1.
X220.343 Y19.195 Z-2.523 R1.
X219.157 Y20.805 Z-2.798 R1.
X220.343 Y19.195 Z-3.073 R1.
X219.157 Y20.805 Z-3.348 R1.
X220.343 Y19.195 Z-3.623 R1.
X219.157 Y20.805 Z-3.898 R1.
X220.343 Y19.195 Z-4.173 R1.
X219.157 Y20.805 Z-4.447 R1.
X220.343 Y19.195 Z-4.722 R1.
X219.157 Y20.805 Z-4.997 R1.
X220.343 Y19.195 Z-5.272 R1.
X219.157 Y20.805 Z-5.547 R1.
X220.343 Y19.195 Z-5.822 R1.
X219.157 Y20.805 Z-6.096 R1.
X220.343 Y19.195 Z-6.371 R1.
X219.157 Y20.805 Z-6.646 R1.
X220.343 Y19.195 Z-6.921 R1.
X219.157 Y20.805 Z-7.196 R1.
X220.343 Y19.195 Z-7.471 R1.
X219.157 Y20.805 Z-7.746 R1.
X220.343 Y19.195 Z-8.02 R1.
X219.157 Y20.805 Z-8.295 R1.
X220.343 Y19.195 Z-8.57 R1.
X219.157 Y20.805 Z-8.845 R1.
X220.343 Y19.195 Z-9.12 R1.
X219.157 Y20.805 Z-9.395 R1.
X220.343 Y19.195 Z-9.67 R1.
X219.157 Y20.805 Z-9.944 R1.
X220.343 Y19.195 Z-10.219 R1.
X219.157 Y20.805 Z-10.494 R1.
X220.343 Y19.195 Z-10.769 R1.
X219.157 Y20.805 Z-11.044 R1.
X220.343 Y19.195 Z-11.319 R1.
X219.157 Y20.805 Z-11.594 R1.
X220.343 Y19.195 Z-11.868 R1.
X219.157 Y20.805 Z-12.143 R1.
X220.343 Y19.195 Z-12.418 R1.
X220.75 Y20. Z-12.5 R1.
X219.25 R0.75
X222.25 R1.5
X217.75 R2.25
X223.75 R3.
X216.25 R3.75
X223.75 R3.75
G1 X223.45 Z-12.47
G0 Z5.
X219.157 Y60.805
G1 Z0.5 F440.
G3 X220.343 Y59.195 Z0.225 R1.
X219.157 Y60.805 Z-0.05 R1.
X220.343 Y59.195 Z-0.325 R1.
X219.157 Y60.805 Z-0.599 R1.
X220.343 Y59.195 Z-0.874 R1.
X219.157 Y60.805 Z-1.149 R1.
X220.343 Y59.195 Z-1.424 R1.
X219.157 Y60.805 Z-1.699 R1.
X220.343 Y59.195 Z-1.974 R1.
X219.157 Y60.805 Z-2.249 R1.
X220.343 Y59.195 Z-2.523 R1.
X219.157 Y60.805 Z-2.798 R1.
X220.343 Y59.195 Z-3.073 R1.
X219.157 Y60.805 Z-3.348 R1.
X220.343 Y59.195 Z-3.623 R1.
X219.157 Y60.805 Z-3.898 R1.
X220.343 Y59.195 Z-4.173 R1.
X219.157 Y60.805 Z-4.447 R1.
X220.343 Y59.195 Z-4.722 R1.
X219.157 Y60.805 Z-4.997 R1.
X220.343 Y59.195 Z-5.272 R1.
X219.157 Y60.805 Z-5.547 R1.
X220.343 Y59.195 Z-5.822 R1.
X219.157 Y60.805 Z-6.096 R1.
X220.343 Y59.195 Z-6.371 R1.
X219.157 Y60.805 Z-6.646 R1.
X220.343 Y59.195 Z-6.921 R1.
X219.157 Y60.805 Z-7.196 R1.
X220.343 Y59.195 Z-7.471 R1.
X219.157 Y60.805 Z-7.746 R1.
X220.343 Y59.195 Z-8.02 R1.
X219.157 Y60.805 Z-8.295 R1.
X220.343 Y59.195 Z-8.57 R1.
X219.157 Y60.805 Z-8.845 R1.
X220.343 Y59.195 Z-9.12 R1.
X219.157 Y60.805 Z-9.395 R1.
X220.343 Y59.195 Z-9.67 R1.
X219.157 Y60.805 Z-9.944 R1.
X220.343 Y59.195 Z-10.219 R1.
X219.157 Y60.805 Z-10.494 R1.
X220.343 Y59.195 Z-10.769 R1.
X219.157 Y60.805 Z-11.044 R1.
X220.343 Y59.195 Z-11.319 R1.
X219.157 Y60.805 Z-11.594 R1.
X220.343 Y59.195 Z-11.868 R1.
X219.157 Y60.805 Z-12.143 R1.
X220.343 Y59.195 Z-12.418 R1.
X220.75 Y60. Z-12.5 R1.
X219.25 R0.75
X222.25 R1.5
X217.75 R2.25
X223.75 R3.
X216.25 R3.75
X223.75 R3.75
G1 X223.45 Z-12.47
G0 Z5.
X259.157 Y60.805
G1 Z0.5 F440.
G3 X260.343 Y59.195 Z0.225 R1.
X259.157 Y60.805 Z-0.05 R1.
X260.343 Y59.195 Z-0.325 R1.
X259.157 Y60.805 Z-0.599 R1.
X260.343 Y59.195 Z-0.874 R1.
X259.157 Y60.805 Z-1.149 R1.
X260.343 Y59.195 Z-1.424 R1.
X259.157 Y60.805 Z-1.699 R1.
X260.343 Y59.195 Z-1.974 R1.
X259.157 Y60.805 Z-2.249 R1.
X260.343 Y59.195 Z-2.523 R1.
X259.157 Y60.805 Z-2.798 R1.
X260.343 Y59.195 Z-3.073 R1.
X259.157 Y60.805 Z-3.348 R1.
X260.343 Y59.195 Z-3.623 R1.
X259.157 Y60.805 Z-3.898 R1.
X260.343 Y59.195 Z-4.173 R1.
X259.157 Y60.805 Z-4.447 R1.
X260.343 Y59.195 Z-4.722 R1.
X259.157 Y60.805 Z-4.997 R1.
X260.343 Y59.195 Z-5.272 R1.
X259.157 Y60.805 Z-5.547 R1.
X260.343 Y59.195 Z-5.822 R1.
X259.157 Y60.805 Z-6.096 R1.
X260.343 Y59.195 Z-6.371 R1.
X259.157 Y60.805 Z-6.646 R1.
X260.343 Y59.195 Z-6.921 R1.
X259.157 Y60.805 Z-7.196 R1.
X260.343 Y59.195 Z-7.471 R1.
X259.157 Y60.805 Z-7.746 R1.
X260.343 Y59.195 Z-8.02 R1.
X259.157 Y60.805 Z-8.295 R1.
X260.343 Y59.195 Z-8.57 R1.
X259.157 Y60.805 Z-8.845 R1.
X260.343 Y59.195 Z-9.12 R1.
X259.157 Y60.805 Z-9.395 R1.
X260.343 Y59.195 Z-9.67 R1.
X259.157 Y60.805 Z-9.944 R1.
X260.343 Y59.195 Z-10.219 R1.
X259.157 Y60.805 Z-10.494 R1.
X260.343 Y59.195 Z-10.769 R1.
X259.157 Y60.805 Z-11.044 R1.
X260.343 Y59.195 Z-11.319 R1.
X259.157 Y60.805 Z-11.594 R1.
X260.343 Y59.195 Z-11.868 R1.
X259.157 Y60.805 Z-12.143 R1.
X260.343 Y59.195 Z-12.418 R1.
X260.75 Y60. Z-12.5 R1.
X259.25 R0.75
X262.25 R1.5
X257.75 R2.25
X263.75 R3.
X256.25 R3.75
X263.75 R3.75
G1 X263.45 Z-12.47
G0 Z5.
X259.157 Y20.805
G1 Z0.5 F440.
G3 X260.343 Y19.195 Z0.225 R1.
X259.157 Y20.805 Z-0.05 R1.
X260.343 Y19.195 Z-0.325 R1.
X259.157 Y20.805 Z-0.599 R1.
X260.343 Y19.195 Z-0.874 R1.
X259.157 Y20.805 Z-1.149 R1.
X260.343 Y19.195 Z-1.424 R1.
X259.157 Y20.805 Z-1.699 R1.
X260.343 Y19.195 Z-1.974 R1.
X259.157 Y20.805 Z-2.249 R1.
X260.343 Y19.195 Z-2.523 R1.
X259.157 Y20.805 Z-2.798 R1.
X260.343 Y19.195 Z-3.073 R1.
X259.157 Y20.805 Z-3.348 R1.
X260.343 Y19.195 Z-3.623 R1.
X259.157 Y20.805 Z-3.898 R1.
X260.343 Y19.195 Z-4.173 R1.
X259.157 Y20.805 Z-4.447 R1.
X260.343 Y19.195 Z-4.722 R1.
X259.157 Y20.805 Z-4.997 R1.
X260.343 Y19.195 Z-5.272 R1.
X259.157 Y20.805 Z-5.547 R1.
X260.343 Y19.195 Z-5.822 R1.
X259.157 Y20.805 Z-6.096 R1.
X260.343 Y19.195 Z-6.371 R1.
X259.157 Y20.805 Z-6.646 R1.
X260.343 Y19.195 Z-6.921 R1.
X259.157 Y20.805 Z-7.196 R1.
X260.343 Y19.195 Z-7.471 R1.
X259.157 Y20.805 Z-7.746 R1.
X260.343 Y19.195 Z-8.02 R1.
X259.157 Y20.805 Z-8.295 R1.
X260.343 Y19.195 Z-8.57 R1.
X259.157 Y20.805 Z-8.845 R1.
X260.343 Y19.195 Z-9.12 R1.
X259.157 Y20.805 Z-9.395 R1.
X260.343 Y19.195 Z-9.67 R1.
X259.157 Y20.805 Z-9.944 R1.
X260.343 Y19.195 Z-10.219 R1.
X259.157 Y20.805 Z-10.494 R1.
X260.343 Y19.195 Z-10.769 R1.
X259.157 Y20.805 Z-11.044 R1.
X260.343 Y19.195 Z-11.319 R1.
X259.157 Y20.805 Z-11.594 R1.
X260.343 Y19.195 Z-11.868 R1.
X259.157 Y20.805 Z-12.143 R1.
X260.343 Y19.195 Z-12.418 R1.
X260.75 Y20. Z-12.5 R1.
X259.25 R0.75
X262.25 R1.5
X257.75 R2.25
X263.75 R3.
X256.25 R3.75
X263.75 R3.75
G1 X263.45 Z-12.47
G0 Z5.
X299.157 Y20.805
G1 Z0.5 F440.
G3 X300.343 Y19.195 Z0.225 R1.
X299.157 Y20.805 Z-0.05 R1.
X300.343 Y19.195 Z-0.325 R1.
X299.157 Y20.805 Z-0.599 R1.
X300.343 Y19.195 Z-0.874 R1.
X299.157 Y20.805 Z-1.149 R1.
X300.343 Y19.195 Z-1.424 R1.
X299.157 Y20.805 Z-1.699 R1.
X300.343 Y19.195 Z-1.974 R1.
X299.157 Y20.805 Z-2.249 R1.
X300.343 Y19.195 Z-2.523 R1.
X299.157 Y20.805 Z-2.798 R1.
X300.343 Y19.195 Z-3.073 R1.
X299.157 Y20.805 Z-3.348 R1.
X300.343 Y19.195 Z-3.623 R1.
X299.157 Y20.805 Z-3.898 R1.
X300.343 Y19.195 Z-4.173 R1.
X299.157 Y20.805 Z-4.447 R1.
X300.343 Y19.195 Z-4.722 R1.
X299.157 Y20.805 Z-4.997 R1.
X300.343 Y19.195 Z-5.272 R1.
X299.157 Y20.805 Z-5.547 R1.
X300.343 Y19.195 Z-5.822 R1.
X299.157 Y20.805 Z-6.096 R1.
X300.343 Y19.195 Z-6.371 R1.
X299.157 Y20.805 Z-6.646 R1.
X300.343 Y19.195 Z-6.921 R1.
X299.157 Y20.805 Z-7.196 R1.
X300.343 Y19.195 Z-7.471 R1.
X299.157 Y20.805 Z-7.746 R1.
X300.343 Y19.195 Z-8.02 R1.
X299.157 Y20.805 Z-8.295 R1.
X300.343 Y19.195 Z-8.57 R1.
X299.157 Y20.805 Z-8.845 R1.
X300.343 Y19.195 Z-9.12 R1.
X299.157 Y20.805 Z-9.395 R1.
X300.343 Y19.195 Z-9.67 R1.
X299.157 Y20.805 Z-9.944 R1.
X300.343 Y19.195 Z-10.219 R1.
X299.157 Y20.805 Z-10.494 R1.
X300.343 Y19.195 Z-10.769 R1.
X299.157 Y20.805 Z-11.044 R1.
X300.343 Y19.195 Z-11.319 R1.
X299.157 Y20.805 Z-11.594 R1.
X300.343 Y19.195 Z-11.868 R1.
X299.157 Y20.805 Z-12.143 R1.
X300.343 Y19.195 Z-12.418 R1.
X300.75 Y20. Z-12.5 R1.
X299.25 R0.75
X302.25 R1.5
X297.75 R2.25
X303.75 R3.
X296.25 R3.75
X303.75 R3.75
G1 X303.45 Z-12.47
G0 Z5.
X299.157 Y60.805
G1 Z0.5 F440.
G3 X300.343 Y59.195 Z0.225 R1.
X299.157 Y60.805 Z-0.05 R1.
X300.343 Y59.195 Z-0.325 R1.
X299.157 Y60.805 Z-0.599 R1.
X300.343 Y59.195 Z-0.874 R1.
X299.157 Y60.805 Z-1.149 R1.
X300.343 Y59.195 Z-1.424 R1.
X299.157 Y60.805 Z-1.699 R1.
X300.343 Y59.195 Z-1.974 R1.
X299.157 Y60.805 Z-2.249 R1.
X300.343 Y59.195 Z-2.523 R1.
X299.157 Y60.805 Z-2.798 R1.
X300.343 Y59.195 Z-3.073 R1.
X299.157 Y60.805 Z-3.348 R1.
X300.343 Y59.195 Z-3.623 R1.
X299.157 Y60.805 Z-3.898 R1.
X300.343 Y59.195 Z-4.173 R1.
X299.157 Y60.805 Z-4.447 R1.
X300.343 Y59.195 Z-4.722 R1.
X299.157 Y60.805 Z-4.997 R1.
X300.343 Y59.195 Z-5.272 R1.
X299.157 Y60.805 Z-5.547 R1.
X300.343 Y59.195 Z-5.822 R1.
X299.157 Y60.805 Z-6.096 R1.
X300.343 Y59.195 Z-6.371 R1.
X299.157 Y60.805 Z-6.646 R1.
X300.343 Y59.195 Z-6.921 R1.
X299.157 Y60.805 Z-7.196 R1.
X300.343 Y59.195 Z-7.471 R1.
X299.157 Y60.805 Z-7.746 R1.
X300.343 Y59.195 Z-8.02 R1.
X299.157 Y60.805 Z-8.295 R1.
X300.343 Y59.195 Z-8.57 R1.
X299.157 Y60.805 Z-8.845 R1.
X300.343 Y59.195 Z-9.12 R1.
X299.157 Y60.805 Z-9.395 R1.
X300.343 Y59.195 Z-9.67 R1.
X299.157 Y60.805 Z-9.944 R1.
X300.343 Y59.195 Z-10.219 R1.
X299.157 Y60.805 Z-10.494 R1.
X300.343 Y59.195 Z-10.769 R1.
X299.157 Y60.805 Z-11.044 R1.
X300.343 Y59.195 Z-11.319 R1.
X299.157 Y60.805 Z-11.594 R1.
X300.343 Y59.195 Z-11.868 R1.
X299.157 Y60.805 Z-12.143 R1.
X300.343 Y59.195 Z-12.418 R1.
X300.75 Y60. Z-12.5 R1.
X299.25 R0.75
X302.25 R1.5
X297.75 R2.25
X303.75 R3.
X296.25 R3.75
X303.75 R3.75
G1 X303.45 Z-12.47
G0 Z5.
X339.157 Y60.805
G1 Z0.5 F440.
G3 X340.343 Y59.195 Z0.225 R1.
X339.157 Y60.805 Z-0.05 R1.
X340.343 Y59.195 Z-0.325 R1.
X339.157 Y60.805 Z-0.599 R1.
X340.343 Y59.195 Z-0.874 R1.
X339.157 Y60.805 Z-1.149 R1.
X340.343 Y59.195 Z-1.424 R1.
X339.157 Y60.805 Z-1.699 R1.
X340.343 Y59.195 Z-1.974 R1.
X339.157 Y60.805 Z-2.249 R1.
X340.343 Y59.195 Z-2.523 R1.
X339.157 Y60.805 Z-2.798 R1.
X340.343 Y59.195 Z-3.073 R1.
X339.157 Y60.805 Z-3.348 R1.
X340.343 Y59.195 Z-3.623 R1.
X339.157 Y60.805 Z-3.898 R1.
X340.343 Y59.195 Z-4.173 R1.
X339.157 Y60.805 Z-4.447 R1.
X340.343 Y59.195 Z-4.722 R1.
X339.157 Y60.805 Z-4.997 R1.
X340.343 Y59.195 Z-5.272 R1.
X339.157 Y60.805 Z-5.547 R1.
X340.343 Y59.195 Z-5.822 R1.
X339.157 Y60.805 Z-6.096 R1.
X340.343 Y59.195 Z-6.371 R1.
X339.157 Y60.805 Z-6.646 R1.
X340.343 Y59.195 Z-6.921 R1.
X339.157 Y60.805 Z-7.196 R1.
X340.343 Y59.195 Z-7.471 R1.
X339.157 Y60.805 Z-7.746 R1.
X340.343 Y59.195 Z-8.02 R1.
X339.157 Y60.805 Z-8.295 R1.
X340.343 Y59.195 Z-8.57 R1.
X339.157 Y60.805 Z-8.845 R1.
X340.343 Y59.195 Z-9.12 R1.
X339.157 Y60.805 Z-9.395 R1.
X340.343 Y59.195 Z-9.67 R1.
X339.157 Y60.805 Z-9.944 R1.
X340.343 Y59.195 Z-10.219 R1.
X339.157 Y60.805 Z-10.494 R1.
X340.343 Y59.195 Z-10.769 R1.
X339.157 Y60.805 Z-11.044 R1.
X340.343 Y59.195 Z-11.319 R1.
X339.157 Y60.805 Z-11.594 R1.
X340.343 Y59.195 Z-11.868 R1.
X339.157 Y60.805 Z-12.143 R1.
X340.343 Y59.195 Z-12.418 R1.
X340.75 Y60. Z-12.5 R1.
X339.25 R0.75
X342.25 R1.5
X337.75 R2.25
X343.75 R3.
X336.25 R3.75
X343.75 R3.75
G1 X343.45 Z-12.47
G0 Z5.
X339.157 Y20.805
G1 Z0.5 F440.
G3 X340.343 Y19.195 Z0.225 R1.
X339.157 Y20.805 Z-0.05 R1.
X340.343 Y19.195 Z-0.325 R1.
X339.157 Y20.805 Z-0.599 R1.
X340.343 Y19.195 Z-0.874 R1.
X339.157 Y20.805 Z-1.149 R1.
X340.343 Y19.195 Z-1.424 R1.
X339.157 Y20.805 Z-1.699 R1.
X340.343 Y19.195 Z-1.974 R1.
X339.157 Y20.805 Z-2.249 R1.
X340.343 Y19.195 Z-2.523 R1.
X339.157 Y20.805 Z-2.798 R1.
X340.343 Y19.195 Z-3.073 R1.
X339.157 Y20.805 Z-3.348 R1.
X340.343 Y19.195 Z-3.623 R1.
X339.157 Y20.805 Z-3.898 R1.
X340.343 Y19.195 Z-4.173 R1.
X339.157 Y20.805 Z-4.447 R1.
X340.343 Y19.195 Z-4.722 R1.
X339.157 Y20.805 Z-4.997 R1.
X340.343 Y19.195 Z-5.272 R1.
X339.157 Y20.805 Z-5.547 R1.
X340.343 Y19.195 Z-5.822 R1.
X339.157 Y20.805 Z-6.096 R1.
X340.343 Y19.195 Z-6.371 R1.
X339.157 Y20.805 Z-6.646 R1.
X340.343 Y19.195 Z-6.921 R1.
X339.157 Y20.805 Z-7.196 R1.
X340.343 Y19.195 Z-7.471 R1.
X339.157 Y20.805 Z-7.746 R1.
X340.343 Y19.195 Z-8.02 R1.
X339.157 Y20.805 Z-8.295 R1.
X340.343 Y19.195 Z-8.57 R1.
X339.157 Y20.805 Z-8.845 R1.
X340.343 Y19.195 Z-9.12 R1.
X339.157 Y20.805 Z-9.395 R1.
X340.343 Y19.195 Z-9.67 R1.
X339.157 Y20.805 Z-9.944 R1.
X340.343 Y19.195 Z-10.219 R1.
X339.157 Y20.805 Z-10.494 R1.
X340.343 Y19.195 Z-10.769 R1.
X339.157 Y20.805 Z-11.044 R1.
X340.343 Y19.195 Z-11.319 R1.
X339.157 Y20.805 Z-11.594 R1.
X340.343 Y19.195 Z-11.868 R1.
X339.157 Y20.805 Z-12.143 R1.
X340.343 Y19.195 Z-12.418 R1.
X340.75 Y20. Z-12.5 R1.
X339.25 R0.75
X342.25 R1.5
X337.75 R2.25
X343.75 R3.
X336.25 R3.75
X343.75 R3.75
G1 X343.45 Z-12.47
G0 Z5.
X379.157 Y20.805
G1 Z0.5 F440.
G3 X380.343 Y19.195 Z0.225 R1.
X379.157 Y20.805 Z-0.05 R1.
X380.343 Y19.195 Z-0.325 R1.
X379.157 Y20.805 Z-0.599 R1.
X380.343 Y19.195 Z-0.874 R1.
X379.157 Y20.805 Z-1.149 R1.
X380.343 Y19.195 Z-1.424 R1.
X379.157 Y20.805 Z-1.699 R1.
X380.343 Y19.195 Z-1.974 R1.
X379.157 Y20.805 Z-2.249 R1.
X380.343 Y19.195 Z-2.523 R1.
X379.157 Y20.805 Z-2.798 R1.
X380.343 Y19.195 Z-3.073 R1.
X379.157 Y20.805 Z-3.348 R1.
X380.343 Y19.195 Z-3.623 R1.
X379.157 Y20.805 Z-3.898 R1.
X380.343 Y19.195 Z-4.173 R1.
X379.157 Y20.805 Z-4.447 R1.
X380.343 Y19.195 Z-4.722 R1.
X379.157 Y20.805 Z-4.997 R1.
X380.343 Y19.195 Z-5.272 R1.
X379.157 Y20.805 Z-5.547 R1.
X380.343 Y19.195 Z-5.822 R1.
X379.157 Y20.805 Z-6.096 R1.
X380.343 Y19.195 Z-6.371 R1.
X379.157 Y20.805 Z-6.646 R1.
X380.343 Y19.195 Z-6.921 R1.
X379.157 Y20.805 Z-7.196 R1.
X380.343 Y19.195 Z-7.471 R1.
X379.157 Y20.805 Z-7.746 R1.
X380.343 Y19.195 Z-8.02 R1.
X379.157 Y20.805 Z-8.295 R1.
X380.343 Y19.195 Z-8.57 R1.
X379.157 Y20.805 Z-8.845 R1.
X380.343 Y19.195 Z-9.12 R1.
X379.157 Y20.805 Z-9.395 R1.
X380.343 Y19.195 Z-9.67 R1.
X379.157 Y20.805 Z-9.944 R1.
X380.343 Y19.195 Z-10.219 R1.
X379.157 Y20.805 Z-10.494 R1.
X380.343 Y19.195 Z-10.769 R1.
X379.157 Y20.805 Z-11.044 R1.
X380.343 Y19.195 Z-11.319 R1.
X379.157 Y20.805 Z-11.594 R1.
X380.343 Y19.195 Z-11.868 R1.
X379.157 Y20.805 Z-12.143 R1.
X380.343 Y19.195 Z-12.418 R1.
X380.75 Y20. Z-12.5 R1.
X379.25 R0.75
X382.25 R1.5
X377.75 R2.25
X383.75 R3.
X376.25 R3.75
X383.75 R3.75
G1 X383.45 Z-12.47
G0 Z5.
X379.157 Y60.805
G1 Z0.5 F440.
G3 X380.343 Y59.195 Z0.225 R1.
X379.157 Y60.805 Z-0.05 R1.
X380.343 Y59.195 Z-0.325 R1.
X379.157 Y60.805 Z-0.599 R1.
X380.343 Y59.195 Z-0.874 R1.
X379.157 Y60.805 Z-1.149 R1.
X380.343 Y59.195 Z-1.424 R1.
X379.157 Y60.805 Z-1.699 R1.
X380.343 Y59.195 Z-1.974 R1.
X379.157 Y60.805 Z-2.249 R1.
X380.343 Y59.195 Z-2.523 R1.
X379.157 Y60.805 Z-2.798 R1.
X380.343 Y59.195 Z-3.073 R1.
X379.157 Y60.805 Z-3.348 R1.
X380.343 Y59.195 Z-3.623 R1.
X379.157 Y60.805 Z-3.898 R1.
X380.343 Y59.195 Z-4.173 R1.
X379.157 Y60.805 Z-4.447 R1.
X380.343 Y59.195 Z-4.722 R1.
X379.157 Y60.805 Z-4.997 R1.
X380.343 Y59.195 Z-5.272 R1.
X379.157 Y60.805 Z-5.547 R1.
X380.343 Y59.195 Z-5.822 R1.
X379.157 Y60.805 Z-6.096 R1.
X380.343 Y59.195 Z-6.371 R1.
X379.157 Y60.805 Z-6.646 R1.
X380.343 Y59.195 Z-6.921 R1.
X379.157 Y60.805 Z-7.196 R1.
X380.343 Y59.195 Z-7.471 R1.
X379.157 Y60.805 Z-7.746 R1.
X380.343 Y59.195 Z-8.02 R1.
X379.157 Y60.805 Z-8.295 R1.
X380.343 Y59.195 Z-8.57 R1.
X379.157 Y60.805 Z-8.845 R1.
X380.343 Y59.195 Z-9.12 R1.
X379.157 Y60.805 Z-9.395 R1.
X380.343 Y59.195 Z-9.67 R1.
X379.157 Y60.805 Z-9.944 R1.
X380.343 Y59.195 Z-10.219 R1.
X379.157 Y60.805 Z-10.494 R1.
X380.343 Y59.195 Z-10.769 R1.
X379.157 Y60.805 Z-11.044 R1.
X380.343 Y59.195 Z-11.319 R1.
X379.157 Y60.805 Z-11.594 R1.
X380.343 Y59.195 Z-11.868 R1.
X379.157 Y60.805 Z-12.143 R1.
X380.343 Y59.195 Z-12.418 R1.
X380.75 Y60. Z-12.5 R1.
X379.25 R0.75
X382.25 R1.5
X377.75 R2.25
X383.75 R3.
X376.25 R3.75
X383.75 R3.75
G1 X383.45 Z-12.47
G0 Z10.

(2D POCKET2)
M8
G0 X99.435 Y60.945
Z10.
Z-7.5
G1 Z-12. F440.
G3 X100.09 Y59.055 Z-12.275 R1.
X99.435 Y60.945 Z-12.55 R1.
X100.09 Y59.055 Z-12.825 R1.
X99.435 Y60.945 Z-13.099 R1.
X100.09 Y59.055 Z-13.374 R1.
X99.435 Y60.945 Z-13.649 R1.
X100.09 Y59.055 Z-13.924 R1.
X99.435 Y60.945 Z-14.199 R1.
X100.09 Y59.055 Z-14.474 R1.
X99.435 Y60.945 Z-14.749 R1.
X100.09 Y59.055 Z-15.023 R1.
X99.435 Y60.945 Z-15.298 R1.
X100.09 Y59.055 Z-15.573 R1.
X99.435 Y60.945 Z-15.848 R1.
X100.09 Y59.055 Z-16.123 R1.
X99.435 Y60.945 Z-16.398 R1.
X100.09 Y59.055 Z-16.673 R1.
X99.435 Y60.945 Z-16.947 R1.
X100.09 Y59.055 Z-17.222 R1.
X99.435 Y60.945 Z-17.497 R1.
X100.09 Y59.055 Z-17.772 R1.
X99.435 Y60.945 Z-18.047 R1.
X100.09 Y59.055 Z-18.322 R1.
X99.435 Y60.945 Z-18.596 R1.
X100.09 Y59.055 Z-18.871 R1.
X99.435 Y60.945 Z-19.146 R1.
X100.09 Y59.055 Z-19.421 R1.
X99.435 Y60.945 Z-19.696 R1.
X100.09 Y59.055 Z-19.971 R1.
X99.435 Y60.945 Z-20.246 R1.
X100.09 Y59.055 Z-20.52 R1.
X99.435 Y60.945 Z-20.795 R1.
X100.09 Y59.055 Z-21.07 R1.
X99.435 Y60.945 Z-21.345 R1.
X100.09 Y59.055 Z-21.62 R1.
X99.435 Y60.945 Z-21.895 R1.
X100.09 Y59.055 Z-22.17 R1.
X99.435 Y60.945 Z-22.444 R1.
X100.09 Y59.055 Z-22.719 R1.
X99.435 Y60.945 Z-22.994 R1.
X100.09 Y59.055 Z-23.269 R1.
X99.435 Y60.945 Z-23.544 R1.
X100.09 Y59.055 Z-23.819 R1.
X99.435 Y60.945 Z-24.094 R1.
X100.09 Y59.055 Z-24.368 R1.
X99.435 Y60.945 Z-24.643 R1.
X100.09 Y59.055 Z-24.918 R1.
X99.435 Y60.945 Z-25.193 R1.
X100.09 Y59.055 Z-25.468 R1.
X99.435 Y60.945 Z-25.743 R1.
X100.09 Y59.055 Z-26.018 R1.
X99.435 Y60.945 Z-26.292 R1.
X100.09 Y59.055 Z-26.567 R1.
X99.435 Y60.945 Z-26.842 R1.
X100.09 Y59.055 Z-27.117 R1.
X99.435 Y60.945 Z-27.392 R1.
X98.762 Y60. Z-27.5 R1.
X100.05 R0.644
X99.95 R0.05
X101.25 R0.65
X98.75 R1.25
X101.25 R1.25
G1 X100.95 Z-27.47
G0 Z5.
X99.435 Y20.945
Z-7.5
G1 Z-12. F440.
G3 X100.09 Y19.055 Z-12.275 R1.
X99.435 Y20.945 Z-12.55 R1.
X100.09 Y19.055 Z-12.825 R1.
X99.435 Y20.945 Z-13.099 R1.
X100.09 Y19.055 Z-13.374 R1.
X99.435 Y20.945 Z-13.649 R1.
X100.09 Y19.055 Z-13.924 R1.
X99.435 Y20.945 Z-14.199 R1.
X100.09 Y19.055 Z-14.474 R1.
X99.435 Y20.945 Z-14.749 R1.
X100.09 Y19.055 Z-15.023 R1.
X99.435 Y20.945 Z-15.298 R1.
X100.09 Y19.055 Z-15.573 R1.
X99.435 Y20.945 Z-15.848 R1.
X100.09 Y19.055 Z-16.123 R1.
X99.435 Y20.945 Z-16.398 R1.
X100.09 Y19.055 Z-16.673 R1.
X99.435 Y20.945 Z-16.947 R1.
X100.09 Y19.055 Z-17.222 R1.
X99.435 Y20.945 Z-17.497 R1.
X100.09 Y19.055 Z-17.772 R1.
X99.435 Y20.945 Z-18.047 R1.
X100.09 Y19.055 Z-18.322 R1.
X99.435 Y20.945 Z-18.596 R1.
X100.09 Y19.055 Z-18.871 R1.
X99.435 Y20.945 Z-19.146 R1.
X100.09 Y19.055 Z-19.421 R1.
X99.435 Y20.945 Z-19.696 R1.
X100.09 Y19.055 Z-19.971 R1.
X99.435 Y20.945 Z-20.246 R1.
X100.09 Y19.055 Z-20.52 R1.
X99.435 Y20.945 Z-20.795 R1.
X100.09 Y19.055 Z-21.07 R1.
X99.435 Y20.945 Z-21.345 R1.
X100.09 Y19.055 Z-21.62 R1.
X99.435 Y20.945 Z-21.895 R1.
X100.09 Y19.055 Z-22.17 R1.
X99.435 Y20.945 Z-22.444 R1.
X100.09 Y19.055 Z-22.719 R1.
X99.435 Y20.945 Z-22.994 R1.
X100.09 Y19.055 Z-23.269 R1.
X99.435 Y20.945 Z-23.544 R1.
X100.09 Y19.055 Z-23.819 R1.
X99.435 Y20.945 Z-24.094 R1.
X100.09 Y19.055 Z-24.368 R1.
X99.435 Y20.945 Z-24.643 R1.
X100.09 Y19.055 Z-24.918 R1.
X99.435 Y20.945 Z-25.193 R1.
X100.09 Y19.055 Z-25.468 R1.
X99.435 Y20.945 Z-25.743 R1.
X100.09 Y19.055 Z-26.018 R1.
X99.435 Y20.945 Z-26.292 R1.
X100.09 Y19.055 Z-26.567 R1.
X99.435 Y20.945 Z-26.842 R1.
X100.09 Y19.055 Z-27.117 R1.
X99.435 Y20.945 Z-27.392 R1.
X98.762 Y20. Z-27.5 R1.
X100.05 R0.644
X99.95 R0.05
X101.25 R0.65
X98.75 R1.25
X101.25 R1.25
G1 X100.95 Z-27.47
G0 Z5.
X139.435 Y20.945
Z-7.5
G1 Z-12. F440.
G3 X140.09 Y19.055 Z-12.275 R1.
X139.435 Y20.945 Z-12.55 R1.
X140.09 Y19.055 Z-12.825 R1.
X139.435 Y20.945 Z-13.099 R1.
X140.09 Y19.055 Z-13.374 R1.
X139.435 Y20.945 Z-13.649 R1.
X140.09 Y19.055 Z-13.924 R1.
X139.435 Y20.945 Z-14.199 R1.
X140.09 Y19.055 Z-14.474 R1.
X139.435 Y20.945 Z-14.749 R1.
X140.09 Y19.055 Z-15.023 R1.
X139.435 Y20.945 Z-15.298 R1.
X140.09 Y19.055 Z-15.573 R1.
X139.435 Y20.945 Z-15.848 R1.
X140.09 Y19.055 Z-16.123 R1.
X139.435 Y20.945 Z-16.398 R1.
X140.09 Y19.055 Z-16.673 R1.
X139.435 Y20.945 Z-16.947 R1.
X140.09 Y19.055 Z-17.222 R1.
X139.435 Y20.945 Z-17.497 R1.
X140.09 Y19.055 Z-17.772 R1.
X139.435 Y20.945 Z-18.047 R1.
X140.09 Y19.055 Z-18.322 R1.
X139.435 Y20.945 Z-18.596 R1.
X140.09 Y19.055 Z-18.871 R1.
X139.435 Y20.945 Z-19.146 R1.
X140.09 Y19.055 Z-19.421 R1.
X139.435 Y20.945 Z-19.696 R1.
X140.09 Y19.055 Z-19.971 R1.
X139.435 Y20.945 Z-20.246 R1.
X140.09 Y19.055 Z-20.52 R1.
X139.435 Y20.945 Z-20.795 R1.
X140.09 Y19.055 Z-21.07 R1.
X139.435 Y20.945 Z-21.345 R1.
X140.09 Y19.055 Z-21.62 R1.
X139.435 Y20.945 Z-21.895 R1.
X140.09 Y19.055 Z-22.17 R1.
X139.435 Y20.945 Z-22.444 R1.
X140.09 Y19.055 Z-22.719 R1.
X139.435 Y20.945 Z-22.994 R1.
X140.09 Y19.055 Z-23.269 R1.
X139.435 Y20.945 Z-23.544 R1.
X140.09 Y19.055 Z-23.819 R1.
X139.435 Y20.945 Z-24.094 R1.
X140.09 Y19.055 Z-24.368 R1.
X139.435 Y20.945 Z-24.643 R1.
X140.09 Y19.055 Z-24.918 R1.
X139.435 Y20.945 Z-25.193 R1.
X140.09 Y19.055 Z-25.468 R1.
X139.435 Y20.945 Z-25.743 R1.
X140.09 Y19.055 Z-26.018 R1.
X139.435 Y20.945 Z-26.292 R1.
X140.09 Y19.055 Z-26.567 R1.
X139.435 Y20.945 Z-26.842 R1.
X140.09 Y19.055 Z-27.117 R1.
X139.435 Y20.945 Z-27.392 R1.
X138.762 Y20. Z-27.5 R1.
X140.05 R0.644
X139.95 R0.05
X141.25 R0.65
X138.75 R1.25
X141.25 R1.25
G1 X140.95 Z-27.47
G0 Z5.
X139.435 Y60.945
Z-7.5
G1 Z-12. F440.
G3 X140.09 Y59.055 Z-12.275 R1.
X139.435 Y60.945 Z-12.55 R1.
X140.09 Y59.055 Z-12.825 R1.
X139.435 Y60.945 Z-13.099 R1.
X140.09 Y59.055 Z-13.374 R1.
X139.435 Y60.945 Z-13.649 R1.
X140.09 Y59.055 Z-13.924 R1.
X139.435 Y60.945 Z-14.199 R1.
X140.09 Y59.055 Z-14.474 R1.
X139.435 Y60.945 Z-14.749 R1.
X140.09 Y59.055 Z-15.023 R1.
X139.435 Y60.945 Z-15.298 R1.
X140.09 Y59.055 Z-15.573 R1.
X139.435 Y60.945 Z-15.848 R1.
X140.09 Y59.055 Z-16.123 R1.
X139.435 Y60.945 Z-16.398 R1.
X140.09 Y59.055 Z-16.673 R1.
X139.435 Y60.945 Z-16.947 R1.
X140.09 Y59.055 Z-17.222 R1.
X139.435 Y60.945 Z-17.497 R1.
X140.09 Y59.055 Z-17.772 R1.
X139.435 Y60.945 Z-18.047 R1.
X140.09 Y59.055 Z-18.322 R1.
X139.435 Y60.945 Z-18.596 R1.
X140.09 Y59.055 Z-18.871 R1.
X139.435 Y60.945 Z-19.146 R1.
X140.09 Y59.055 Z-19.421 R1.
X139.435 Y60.945 Z-19.696 R1.
X140.09 Y59.055 Z-19.971 R1.
X139.435 Y60.945 Z-20.246 R1.
X140.09 Y59.055 Z-20.52 R1.
X139.435 Y60.945 Z-20.795 R1.
X140.09 Y59.055 Z-21.07 R1.
X139.435 Y60.945 Z-21.345 R1.
X140.09 Y59.055 Z-21.62 R1.
X139.435 Y60.945 Z-21.895 R1.
X140.09 Y59.055 Z-22.17 R1.
X139.435 Y60.945 Z-22.444 R1.
X140.09 Y59.055 Z-22.719 R1.
X139.435 Y60.945 Z-22.994 R1.
X140.09 Y59.055 Z-23.269 R1.
X139.435 Y60.945 Z-23.544 R1.
X140.09 Y59.055 Z-23.819 R1.
X139.435 Y60.945 Z-24.094 R1.
X140.09 Y59.055 Z-24.368 R1.
X139.435 Y60.945 Z-24.643 R1.
X140.09 Y59.055 Z-24.918 R1.
X139.435 Y60.945 Z-25.193 R1.
X140.09 Y59.055 Z-25.468 R1.
X139.435 Y60.945 Z-25.743 R1.
X140.09 Y59.055 Z-26.018 R1.
X139.435 Y60.945 Z-26.292 R1.
X140.09 Y59.055 Z-26.567 R1.
X139.435 Y60.945 Z-26.842 R1.
X140.09 Y59.055 Z-27.117 R1.
X139.435 Y60.945 Z-27.392 R1.
X138.762 Y60. Z-27.5 R1.
X140.05 R0.644
X139.95 R0.05
X141.25 R0.65
X138.75 R1.25
X141.25 R1.25
G1 X140.95 Z-27.47
G0 Z5.
X179.435 Y60.945
Z-7.5
G1 Z-12. F440.
G3 X180.09 Y59.055 Z-12.275 R1.
X179.435 Y60.945 Z-12.55 R1.
X180.09 Y59.055 Z-12.825 R1.
X179.435 Y60.945 Z-13.099 R1.
X180.09 Y59.055 Z-13.374 R1.
X179.435 Y60.945 Z-13.649 R1.
X180.09 Y59.055 Z-13.924 R1.
X179.435 Y60.945 Z-14.199 R1.
X180.09 Y59.055 Z-14.474 R1.
X179.435 Y60.945 Z-14.749 R1.
X180.09 Y59.055 Z-15.023 R1.
X179.435 Y60.945 Z-15.298 R1.
X180.09 Y59.055 Z-15.573 R1.
X179.435 Y60.945 Z-15.848 R1.
X180.09 Y59.055 Z-16.123 R1.
X179.435 Y60.945 Z-16.398 R1.
X180.09 Y59.055 Z-16.673 R1.
X179.435 Y60.945 Z-16.947 R1.
X180.09 Y59.055 Z-17.222 R1.
X179.435 Y60.945 Z-17.497 R1.
X180.09 Y59.055 Z-17.772 R1.
X179.435 Y60.945 Z-18.047 R1.
X180.09 Y59.055 Z-18.322 R1.
X179.435 Y60.945 Z-18.596 R1.
X180.09 Y59.055 Z-18.871 R1.
X179.435 Y60.945 Z-19.146 R1.
X180.09 Y59.055 Z-19.421 R1.
X179.435 Y60.945 Z-19.696 R1.
X180.09 Y59.055 Z-19.971 R1.
X179.435 Y60.945 Z-20.246 R1.
X180.09 Y59.055 Z-20.52 R1.
X179.435 Y60.945 Z-20.795 R1.
X180.09 Y59.055 Z-21.07 R1.
X179.435 Y60.945 Z-21.345 R1.
X180.09 Y59.055 Z-21.62 R1.
X179.435 Y60.945 Z-21.895 R1.
X180.09 Y59.055 Z-22.17 R1.
X179.435 Y60.945 Z-22.444 R1.
X180.09 Y59.055 Z-22.719 R1.
X179.435 Y60.945 Z-22.994 R1.
X180.09 Y59.055 Z-23.269 R1.
X179.435 Y60.945 Z-23.544 R1.
X180.09 Y59.055 Z-23.819 R1.
X179.435 Y60.945 Z-24.094 R1.
X180.09 Y59.055 Z-24.368 R1.
X179.435 Y60.945 Z-24.643 R1.
X180.09 Y59.055 Z-24.918 R1.
X179.435 Y60.945 Z-25.193 R1.
X180.09 Y59.055 Z-25.468 R1.
X179.435 Y60.945 Z-25.743 R1.
X180.09 Y59.055 Z-26.018 R1.
X179.435 Y60.945 Z-26.292 R1.
X180.09 Y59.055 Z-26.567 R1.
X179.435 Y60.945 Z-26.842 R1.
X180.09 Y59.055 Z-27.117 R1.
X179.435 Y60.945 Z-27.392 R1.
X178.762 Y60. Z-27.5 R1.
X180.05 R0.644
X179.95 R0.05
X181.25 R0.65
X178.75 R1.25
X181.25 R1.25
G1 X180.95 Z-27.47
G0 Z5.
X179.435 Y20.945
Z-7.5
G1 Z-12. F440.
G3 X180.09 Y19.055 Z-12.275 R1.
X179.435 Y20.945 Z-12.55 R1.
X180.09 Y19.055 Z-12.825 R1.
X179.435 Y20.945 Z-13.099 R1.
X180.09 Y19.055 Z-13.374 R1.
X179.435 Y20.945 Z-13.649 R1.
X180.09 Y19.055 Z-13.924 R1.
X179.435 Y20.945 Z-14.199 R1.
X180.09 Y19.055 Z-14.474 R1.
X179.435 Y20.945 Z-14.749 R1.
X180.09 Y19.055 Z-15.023 R1.
X179.435 Y20.945 Z-15.298 R1.
X180.09 Y19.055 Z-15.573 R1.
X179.435 Y20.945 Z-15.848 R1.
X180.09 Y19.055 Z-16.123 R1.
X179.435 Y20.945 Z-16.398 R1.
X180.09 Y19.055 Z-16.673 R1.
X179.435 Y20.945 Z-16.947 R1.
X180.09 Y19.055 Z-17.222 R1.
X179.435 Y20.945 Z-17.497 R1.
X180.09 Y19.055 Z-17.772 R1.
X179.435 Y20.945 Z-18.047 R1.
X180.09 Y19.055 Z-18.322 R1.
X179.435 Y20.945 Z-18.596 R1.
X180.09 Y19.055 Z-18.871 R1.
X179.435 Y20.945 Z-19.146 R1.
X180.09 Y19.055 Z-19.421 R1.
X179.435 Y20.945 Z-19.696 R1.
X180.09 Y19.055 Z-19.971 R1.
X179.435 Y20.945 Z-20.246 R1.
X180.09 Y19.055 Z-20.52 R1.
X179.435 Y20.945 Z-20.795 R1.
X180.09 Y19.055 Z-21.07 R1.
X179.435 Y20.945 Z-21.345 R1.
X180.09 Y19.055 Z-21.62 R1.
X179.435 Y20.945 Z-21.895 R1.
X180.09 Y19.055 Z-22.17 R1.
X179.435 Y20.945 Z-22.444 R1.
X180.09 Y19.055 Z-22.719 R1.
X179.435 Y20.945 Z-22.994 R1.
X180.09 Y19.055 Z-23.269 R1.
X179.435 Y20.945 Z-23.544 R1.
X180.09 Y19.055 Z-23.819 R1.
X179.435 Y20.945 Z-24.094 R1.
X180.09 Y19.055 Z-24.368 R1.
X179.435 Y20.945 Z-24.643 R1.
X180.09 Y19.055 Z-24.918 R1.
X179.435 Y20.945 Z-25.193 R1.
X180.09 Y19.055 Z-25.468 R1.
X179.435 Y20.945 Z-25.743 R1.
X180.09 Y19.055 Z-26.018 R1.
X179.435 Y20.945 Z-26.292 R1.
X180.09 Y19.055 Z-26.567 R1.
X179.435 Y20.945 Z-26.842 R1.
X180.09 Y19.055 Z-27.117 R1.
X179.435 Y20.945 Z-27.392 R1.
X178.762 Y20. Z-27.5 R1.
X180.05 R0.644
X179.95 R0.05
X181.25 R0.65
X178.75 R1.25
X181.25 R1.25
G1 X180.95 Z-27.47
G0 Z5.
X219.435 Y20.945
Z-7.5
G1 Z-12. F440.
G3 X220.09 Y19.055 Z-12.275 R1.
X219.435 Y20.945 Z-12.55 R1.
X220.09 Y19.055 Z-12.825 R1.
X219.435 Y20.945 Z-13.099 R1.
X220.09 Y19.055 Z-13.374 R1.
X219.435 Y20.945 Z-13.649 R1.
X220.09 Y19.055 Z-13.924 R1.
X219.435 Y20.945 Z-14.199 R1.
X220.09 Y19.055 Z-14.474 R1.
X219.435 Y20.945 Z-14.749 R1.
X220.09 Y19.055 Z-15.023 R1.
X219.435 Y20.945 Z-15.298 R1.
X220.09 Y19.055 Z-15.573 R1.
X219.435 Y20.945 Z-15.848 R1.
X220.09 Y19.055 Z-16.123 R1.
X219.435 Y20.945 Z-16.398 R1.
X220.09 Y19.055 Z-16.673 R1.
X219.435 Y20.945 Z-16.947 R1.
X220.09 Y19.055 Z-17.222 R1.
X219.435 Y20.945 Z-17.497 R1.
X220.09 Y19.055 Z-17.772 R1.
X219.435 Y20.945 Z-18.047 R1.
X220.09 Y19.055 Z-18.322 R1.
X219.435 Y20.945 Z-18.596 R1.
X220.09 Y19.055 Z-18.871 R1.
X219.435 Y20.945 Z-19.146 R1.
X220.09 Y19.055 Z-19.421 R1.
X219.435 Y20.945 Z-19.696 R1.
X220.09 Y19.055 Z-19.971 R1.
X219.435 Y20.945 Z-20.246 R1.
X220.09 Y19.055 Z-20.52 R1.
X219.435 Y20.945 Z-20.795 R1.
X220.09 Y19.055 Z-21.07 R1.
X219.435 Y20.945 Z-21.345 R1.
X220.09 Y19.055 Z-21.62 R1.
X219.435 Y20.945 Z-21.895 R1.
X220.09 Y19.055 Z-22.17 R1.
X219.435 Y20.945 Z-22.444 R1.
X220.09 Y19.055 Z-22.719 R1.
X219.435 Y20.945 Z-22.994 R1.
X220.09 Y19.055 Z-23.269 R1.
X219.435 Y20.945 Z-23.544 R1.
X220.09 Y19.055 Z-23.819 R1.
X219.435 Y20.945 Z-24.094 R1.
X220.09 Y19.055 Z-24.368 R1.
X219.435 Y20.945 Z-24.643 R1.
X220.09 Y19.055 Z-24.918 R1.
X219.435 Y20.945 Z-25.193 R1.
X220.09 Y19.055 Z-25.468 R1.
X219.435 Y20.945 Z-25.743 R1.
X220.09 Y19.055 Z-26.018 R1.
X219.435 Y20.945 Z-26.292 R1.
X220.09 Y19.055 Z-26.567 R1.
X219.435 Y20.945 Z-26.842 R1.
X220.09 Y19.055 Z-27.117 R1.
X219.435 Y20.945 Z-27.392 R1.
X218.762 Y20. Z-27.5 R1.
X220.05 R0.644
X219.95 R0.05
X221.25 R0.65
X218.75 R1.25
X221.25 R1.25
G1 X220.95 Z-27.47
G0 Z5.
X219.435 Y60.945
Z-7.5
G1 Z-12. F440.
G3 X220.09 Y59.055 Z-12.275 R1.
X219.435 Y60.945 Z-12.55 R1.
X220.09 Y59.055 Z-12.825 R1.
X219.435 Y60.945 Z-13.099 R1.
X220.09 Y59.055 Z-13.374 R1.
X219.435 Y60.945 Z-13.649 R1.
X220.09 Y59.055 Z-13.924 R1.
X219.435 Y60.945 Z-14.199 R1.
X220.09 Y59.055 Z-14.474 R1.
X219.435 Y60.945 Z-14.749 R1.
X220.09 Y59.055 Z-15.023 R1.
X219.435 Y60.945 Z-15.298 R1.
X220.09 Y59.055 Z-15.573 R1.
X219.435 Y60.945 Z-15.848 R1.
X220.09 Y59.055 Z-16.123 R1.
X219.435 Y60.945 Z-16.398 R1.
X220.09 Y59.055 Z-16.673 R1.
X219.435 Y60.945 Z-16.947 R1.
X220.09 Y59.055 Z-17.222 R1.
X219.435 Y60.945 Z-17.497 R1.
X220.09 Y59.055 Z-17.772 R1.
X219.435 Y60.945 Z-18.047 R1.
X220.09 Y59.055 Z-18.322 R1.
X219.435 Y60.945 Z-18.596 R1.
X220.09 Y59.055 Z-18.871 R1.
X219.435 Y60.945 Z-19.146 R1.
X220.09 Y59.055 Z-19.421 R1.
X219.435 Y60.945 Z-19.696 R1.
X220.09 Y59.055 Z-19.971 R1.
X219.435 Y60.945 Z-20.246 R1.
X220.09 Y59.055 Z-20.52 R1.
X219.435 Y60.945 Z-20.795 R1.
X220.09 Y59.055 Z-21.07 R1.
X219.435 Y60.945 Z-21.345 R1.
X220.09 Y59.055 Z-21.62 R1.
X219.435 Y60.945 Z-21.895 R1.
X220.09 Y59.055 Z-22.17 R1.
X219.435 Y60.945 Z-22.444 R1.
X220.09 Y59.055 Z-22.719 R1.
X219.435 Y60.945 Z-22.994 R1.
X220.09 Y59.055 Z-23.269 R1.
X219.435 Y60.945 Z-23.544 R1.
X220.09 Y59.055 Z-23.819 R1.
X219.435 Y60.945 Z-24.094 R1.
X220.09 Y59.055 Z-24.368 R1.
X219.435 Y60.945 Z-24.643 R1.
X220.09 Y59.055 Z-24.918 R1.
X219.435 Y60.945 Z-25.193 R1.
X220.09 Y59.055 Z-25.468 R1.
X219.435 Y60.945 Z-25.743 R1.
X220.09 Y59.055 Z-26.018 R1.
X219.435 Y60.945 Z-26.292 R1.
X220.09 Y59.055 Z-26.567 R1.
X219.435 Y60.945 Z-26.842 R1.
X220.09 Y59.055 Z-27.117 R1.
X219.435 Y60.945 Z-27.392 R1.
X218.762 Y60. Z-27.5 R1.
X220.05 R0.644
X219.95 R0.05
X221.25 R0.65
X218.75 R1.25
X221.25 R1.25
G1 X220.95 Z-27.47
G0 Z5.
X259.435 Y60.945
Z-7.5
G1 Z-12. F440.
G3 X260.091 Y59.055 Z-12.275 R1.
X260.362 Y60.8 Z-12.464 R1.
X258.763 Y60. Z-12.658 R1.
X260.763 Z-12.933 R1.
X260.362 Y60.8 Z-13.014 R1.
X258.763 Y60. Z-13.208 R1.
X260.763 Z-13.482 R1.
X260.362 Y60.8 Z-13.564 R1.
X258.763 Y60. Z-13.757 R1.
X260.763 Z-14.032 R1.
X260.362 Y60.8 Z-14.113 R1.
X258.763 Y60. Z-14.307 R1.
X260.763 Z-14.582 R1.
X260.362 Y60.8 Z-14.663 R1.
X258.763 Y60. Z-14.857 R1.
X260.763 Z-15.132 R1.
X260.362 Y60.8 Z-15.213 R1.
X258.763 Y60. Z-15.406 R1.
X260.763 Z-15.681 R1.
X260.362 Y60.8 Z-15.762 R1.
X258.763 Y60. Z-15.956 R1.
X260.763 Z-16.231 R1.
X260.362 Y60.8 Z-16.312 R1.
X258.763 Y60. Z-16.506 R1.
X260.763 Z-16.781 R1.
X260.362 Y60.8 Z-16.862 R1.
X258.763 Y60. Z-17.056 R1.
X260.763 Z-17.33 R1.
X260.362 Y60.8 Z-17.412 R1.
X258.763 Y60. Z-17.605 R1.
X260.763 Z-17.88 R1.
X260.362 Y60.8 Z-17.961 R1.
X258.763 Y60. Z-18.155 R1.
X260.763 Z-18.43 R1.
X260.362 Y60.8 Z-18.511 R1.
X258.763 Y60. Z-18.705 R1.
X260.763 Z-18.98 R1.
X260.362 Y60.8 Z-19.061 R1.
X258.763 Y60. Z-19.254 R1.
X260.763 Z-19.529 R1.
X260.362 Y60.8 Z-19.61 R1.
X258.763 Y60. Z-19.804 R1.
X260.763 Z-20.079 R1.
X260.362 Y60.8 Z-20.16 R1.
X258.763 Y60. Z-20.354 R1.
X260.763 Z-20.629 R1.
X260.362 Y60.8 Z-20.71 R1.
X258.763 Y60. Z-20.904 R1.
X260.763 Z-21.178 R1.
X260.362 Y60.8 Z-21.259 R1.
X258.763 Y60. Z-21.453 R1.
X260.763 Z-21.728 R1.
X260.362 Y60.8 Z-21.809 R1.
X258.763 Y60. Z-22.003 R1.
X260.763 Z-22.278 R1.
X260.362 Y60.8 Z-22.359 R1.
X258.763 Y60. Z-22.553 R1.
X260.763 Z-22.827 R1.
X260.362 Y60.8 Z-22.909 R1.
X258.763 Y60. Z-23.102 R1.
X260.763 Z-23.377 R1.
X260.362 Y60.8 Z-23.458 R1.
X258.763 Y60. Z-23.652 R1.
X260.763 Z-23.927 R1.
X260.362 Y60.8 Z-24.008 R1.
X258.763 Y60. Z-24.202 R1.
X260.763 Z-24.477 R1.
X260.362 Y60.8 Z-24.558 R1.
X258.763 Y60. Z-24.751 R1.
X260.763 Z-25.026 R1.
X260.362 Y60.8 Z-25.107 R1.
X258.763 Y60. Z-25.301 R1.
X260.763 Z-25.576 R1.
X260.362 Y60.8 Z-25.657 R1.
X258.763 Y60. Z-25.851 R1.
X260.763 Z-26.126 R1.
X260.362 Y60.8 Z-26.207 R1.
X258.763 Y60. Z-26.401 R1.
X260.763 Z-26.675 R1.
X260.362 Y60.8 Z-26.757 R1.
X258.763 Y60. Z-26.95 R1.
X260.763 Z-27.225 R1.
X260.362 Y60.8 Z-27.306 R1.
X258.763 Y60. Z-27.5 R1.
X260.05 R0.644
X259.95 R0.05
X261.25 R0.65
X258.75 R1.25
X261.25 R1.25
G1 X260.95 Z-27.47
G0 Z5.
X259.435 Y20.945
Z-7.5
G1 Z-12. F440.
G3 X260.091 Y19.055 Z-12.275 R1.
X260.362 Y20.8 Z-12.464 R1.
X258.763 Y20. Z-12.658 R1.
X260.763 Z-12.933 R1.
X260.362 Y20.8 Z-13.014 R1.
X258.763 Y20. Z-13.208 R1.
X260.763 Z-13.482 R1.
X260.362 Y20.8 Z-13.564 R1.
X258.763 Y20. Z-13.757 R1.
X260.763 Z-14.032 R1.
X260.362 Y20.8 Z-14.113 R1.
X258.763 Y20. Z-14.307 R1.
X260.763 Z-14.582 R1.
X260.362 Y20.8 Z-14.663 R1.
X258.763 Y20. Z-14.857 R1.
X260.763 Z-15.132 R1.
X260.362 Y20.8 Z-15.213 R1.
X258.763 Y20. Z-15.406 R1.
X260.763 Z-15.681 R1.
X260.362 Y20.8 Z-15.762 R1.
X258.763 Y20. Z-15.956 R1.
X260.763 Z-16.231 R1.
X260.362 Y20.8 Z-16.312 R1.
X258.763 Y20. Z-16.506 R1.
X260.763 Z-16.781 R1.
X260.362 Y20.8 Z-16.862 R1.
X258.763 Y20. Z-17.056 R1.
X260.763 Z-17.33 R1.
X260.362 Y20.8 Z-17.412 R1.
X258.763 Y20. Z-17.605 R1.
X260.763 Z-17.88 R1.
X260.362 Y20.8 Z-17.961 R1.
X258.763 Y20. Z-18.155 R1.
X260.763 Z-18.43 R1.
X260.362 Y20.8 Z-18.511 R1.
X258.763 Y20. Z-18.705 R1.
X260.763 Z-18.98 R1.
X260.362 Y20.8 Z-19.061 R1.
X258.763 Y20. Z-19.254 R1.
X260.763 Z-19.529 R1.
X260.362 Y20.8 Z-19.61 R1.
X258.763 Y20. Z-19.804 R1.
X260.763 Z-20.079 R1.
X260.362 Y20.8 Z-20.16 R1.
X258.763 Y20. Z-20.354 R1.
X260.763 Z-20.629 R1.
X260.362 Y20.8 Z-20.71 R1.
X258.763 Y20. Z-20.904 R1.
X260.763 Z-21.178 R1.
X260.362 Y20.8 Z-21.259 R1.
X258.763 Y20. Z-21.453 R1.
X260.763 Z-21.728 R1.
X260.362 Y20.8 Z-21.809 R1.
X258.763 Y20. Z-22.003 R1.
X260.763 Z-22.278 R1.
X260.362 Y20.8 Z-22.359 R1.
X258.763 Y20. Z-22.553 R1.
X260.763 Z-22.827 R1.
X260.362 Y20.8 Z-22.909 R1.
X258.763 Y20. Z-23.102 R1.
X260.763 Z-23.377 R1.
X260.362 Y20.8 Z-23.458 R1.
X258.763 Y20. Z-23.652 R1.
X260.763 Z-23.927 R1.
X260.362 Y20.8 Z-24.008 R1.
X258.763 Y20. Z-24.202 R1.
X260.763 Z-24.477 R1.
X260.362 Y20.8 Z-24.558 R1.
X258.763 Y20. Z-24.751 R1.
X260.763 Z-25.026 R1.
X260.362 Y20.8 Z-25.107 R1.
X258.763 Y20. Z-25.301 R1.
X260.763 Z-25.576 R1.
X260.362 Y20.8 Z-25.657 R1.
X258.763 Y20. Z-25.851 R1.
X260.763 Z-26.126 R1.
X260.362 Y20.8 Z-26.207 R1.
X258.763 Y20. Z-26.401 R1.
X260.763 Z-26.675 R1.
X260.362 Y20.8 Z-26.757 R1.
X258.763 Y20. Z-26.95 R1.
X260.763 Z-27.225 R1.
X260.362 Y20.8 Z-27.306 R1.
X258.763 Y20. Z-27.5 R1.
X260.05 R0.644
X259.95 R0.05
X261.25 R0.65
X258.75 R1.25
X261.25 R1.25
G1 X260.95 Z-27.47
G0 Z5.
X299.435 Y20.945
Z-7.5
G1 Z-12. F440.
G3 X300.091 Y19.055 Z-12.275 R1.
X300.362 Y20.8 Z-12.464 R1.
X298.763 Y20. Z-12.658 R1.
X300.763 Z-12.933 R1.
X300.362 Y20.8 Z-13.014 R1.
X298.763 Y20. Z-13.208 R1.
X300.763 Z-13.482 R1.
X300.362 Y20.8 Z-13.564 R1.
X298.763 Y20. Z-13.757 R1.
X300.763 Z-14.032 R1.
X300.362 Y20.8 Z-14.113 R1.
X298.763 Y20. Z-14.307 R1.
X300.763 Z-14.582 R1.
X300.362 Y20.8 Z-14.663 R1.
X298.763 Y20. Z-14.857 R1.
X300.763 Z-15.132 R1.
X300.362 Y20.8 Z-15.213 R1.
X298.763 Y20. Z-15.406 R1.
X300.763 Z-15.681 R1.
X300.362 Y20.8 Z-15.762 R1.
X298.763 Y20. Z-15.956 R1.
X300.763 Z-16.231 R1.
X300.362 Y20.8 Z-16.312 R1.
X298.763 Y20. Z-16.506 R1.
X300.763 Z-16.781 R1.
X300.362 Y20.8 Z-16.862 R1.
X298.763 Y20. Z-17.056 R1.
X300.763 Z-17.33 R1.
X300.362 Y20.8 Z-17.412 R1.
X298.763 Y20. Z-17.605 R1.
X300.763 Z-17.88 R1.
X300.362 Y20.8 Z-17.961 R1.
X298.763 Y20. Z-18.155 R1.
X300.763 Z-18.43 R1.
X300.362 Y20.8 Z-18.511 R1.
X298.763 Y20. Z-18.705 R1.
X300.763 Z-18.98 R1.
X300.362 Y20.8 Z-19.061 R1.
X298.763 Y20. Z-19.254 R1.
X300.763 Z-19.529 R1.
X300.362 Y20.8 Z-19.61 R1.
X298.763 Y20. Z-19.804 R1.
X300.763 Z-20.079 R1.
X300.362 Y20.8 Z-20.16 R1.
X298.763 Y20. Z-20.354 R1.
X300.763 Z-20.629 R1.
X300.362 Y20.8 Z-20.71 R1.
X298.763 Y20. Z-20.904 R1.
X300.763 Z-21.178 R1.
X300.362 Y20.8 Z-21.259 R1.
X298.763 Y20. Z-21.453 R1.
X300.763 Z-21.728 R1.
X300.362 Y20.8 Z-21.809 R1.
X298.763 Y20. Z-22.003 R1.
X300.763 Z-22.278 R1.
X300.362 Y20.8 Z-22.359 R1.
X298.763 Y20. Z-22.553 R1.
X300.763 Z-22.827 R1.
X300.362 Y20.8 Z-22.909 R1.
X298.763 Y20. Z-23.102 R1.
X300.763 Z-23.377 R1.
X300.362 Y20.8 Z-23.458 R1.
X298.763 Y20. Z-23.652 R1.
X300.763 Z-23.927 R1.
X300.362 Y20.8 Z-24.008 R1.
X298.763 Y20. Z-24.202 R1.
X300.763 Z-24.477 R1.
X300.362 Y20.8 Z-24.558 R1.
X298.763 Y20. Z-24.751 R1.
X300.763 Z-25.026 R1.
X300.362 Y20.8 Z-25.107 R1.
X298.763 Y20. Z-25.301 R1.
X300.763 Z-25.576 R1.
X300.362 Y20.8 Z-25.657 R1.
X298.763 Y20. Z-25.851 R1.
X300.763 Z-26.126 R1.
X300.362 Y20.8 Z-26.207 R1.
X298.763 Y20. Z-26.401 R1.
X300.763 Z-26.675 R1.
X300.362 Y20.8 Z-26.757 R1.
X298.763 Y20. Z-26.95 R1.
X300.763 Z-27.225 R1.
X300.362 Y20.8 Z-27.306 R1.
X298.763 Y20. Z-27.5 R1.
X300.05 R0.644
X299.95 R0.05
X301.25 R0.65
X298.75 R1.25
X301.25 R1.25
G1 X300.95 Z-27.47
G0 Z5.
X299.435 Y60.945
Z-7.5
G1 Z-12. F440.
G3 X300.091 Y59.055 Z-12.275 R1.
X300.362 Y60.8 Z-12.464 R1.
X298.763 Y60. Z-12.658 R1.
X300.763 Z-12.933 R1.
X300.362 Y60.8 Z-13.014 R1.
X298.763 Y60. Z-13.208 R1.
X300.763 Z-13.482 R1.
X300.362 Y60.8 Z-13.564 R1.
X298.763 Y60. Z-13.757 R1.
X300.763 Z-14.032 R1.
X300.362 Y60.8 Z-14.113 R1.
X298.763 Y60. Z-14.307 R1.
X300.763 Z-14.582 R1.
X300.362 Y60.8 Z-14.663 R1.
X298.763 Y60. Z-14.857 R1.
X300.763 Z-15.132 R1.
X300.362 Y60.8 Z-15.213 R1.
X298.763 Y60. Z-15.406 R1.
X300.763 Z-15.681 R1.
X300.362 Y60.8 Z-15.762 R1.
X298.763 Y60. Z-15.956 R1.
X300.763 Z-16.231 R1.
X300.362 Y60.8 Z-16.312 R1.
X298.763 Y60. Z-16.506 R1.
X300.763 Z-16.781 R1.
X300.362 Y60.8 Z-16.862 R1.
X298.763 Y60. Z-17.056 R1.
X300.763 Z-17.33 R1.
X300.362 Y60.8 Z-17.412 R1.
X298.763 Y60. Z-17.605 R1.
X300.763 Z-17.88 R1.
X300.362 Y60.8 Z-17.961 R1.
X298.763 Y60. Z-18.155 R1.
X300.763 Z-18.43 R1.
X300.362 Y60.8 Z-18.511 R1.
X298.763 Y60. Z-18.705 R1.
X300.763 Z-18.98 R1.
X300.362 Y60.8 Z-19.061 R1.
X298.763 Y60. Z-19.254 R1.
X300.763 Z-19.529 R1.
X300.362 Y60.8 Z-19.61 R1.
X298.763 Y60. Z-19.804 R1.
X300.763 Z-20.079 R1.
X300.362 Y60.8 Z-20.16 R1.
X298.763 Y60. Z-20.354 R1.
X300.763 Z-20.629 R1.
X300.362 Y60.8 Z-20.71 R1.
X298.763 Y60. Z-20.904 R1.
X300.763 Z-21.178 R1.
X300.362 Y60.8 Z-21.259 R1.
X298.763 Y60. Z-21.453 R1.
X300.763 Z-21.728 R1.
X300.362 Y60.8 Z-21.809 R1.
X298.763 Y60. Z-22.003 R1.
X300.763 Z-22.278 R1.
X300.362 Y60.8 Z-22.359 R1.
X298.763 Y60. Z-22.553 R1.
X300.763 Z-22.827 R1.
X300.362 Y60.8 Z-22.909 R1.
X298.763 Y60. Z-23.102 R1.
X300.763 Z-23.377 R1.
X300.362 Y60.8 Z-23.458 R1.
X298.763 Y60. Z-23.652 R1.
X300.763 Z-23.927 R1.
X300.362 Y60.8 Z-24.008 R1.
X298.763 Y60. Z-24.202 R1.
X300.763 Z-24.477 R1.
X300.362 Y60.8 Z-24.558 R1.
X298.763 Y60. Z-24.751 R1.
X300.763 Z-25.026 R1.
X300.362 Y60.8 Z-25.107 R1.
X298.763 Y60. Z-25.301 R1.
X300.763 Z-25.576 R1.
X300.362 Y60.8 Z-25.657 R1.
X298.763 Y60. Z-25.851 R1.
X300.763 Z-26.126 R1.
X300.362 Y60.8 Z-26.207 R1.
X298.763 Y60. Z-26.401 R1.
X300.763 Z-26.675 R1.
X300.362 Y60.8 Z-26.757 R1.
X298.763 Y60. Z-26.95 R1.
X300.763 Z-27.225 R1.
X300.362 Y60.8 Z-27.306 R1.
X298.763 Y60. Z-27.5 R1.
X300.05 R0.644
X299.95 R0.05
X301.25 R0.65
X298.75 R1.25
X301.25 R1.25
G1 X300.95 Z-27.47
G0 Z5.
X339.435 Y60.945
Z-7.5
G1 Z-12. F440.
G3 X340.091 Y59.055 Z-12.275 R1.
X340.362 Y60.8 Z-12.464 R1.
X338.763 Y60. Z-12.658 R1.
X340.763 Z-12.933 R1.
X340.362 Y60.8 Z-13.014 R1.
X338.763 Y60. Z-13.208 R1.
X340.763 Z-13.482 R1.
X340.362 Y60.8 Z-13.564 R1.
X338.763 Y60. Z-13.757 R1.
X340.763 Z-14.032 R1.
X340.362 Y60.8 Z-14.113 R1.
X338.763 Y60. Z-14.307 R1.
X340.763 Z-14.582 R1.
X340.362 Y60.8 Z-14.663 R1.
X338.763 Y60. Z-14.857 R1.
X340.763 Z-15.132 R1.
X340.362 Y60.8 Z-15.213 R1.
X338.763 Y60. Z-15.406 R1.
X340.763 Z-15.681 R1.
X340.362 Y60.8 Z-15.762 R1.
X338.763 Y60. Z-15.956 R1.
X340.763 Z-16.231 R1.
X340.362 Y60.8 Z-16.312 R1.
X338.763 Y60. Z-16.506 R1.
X340.763 Z-16.781 R1.
X340.362 Y60.8 Z-16.862 R1.
X338.763 Y60. Z-17.056 R1.
X340.763 Z-17.33 R1.
X340.362 Y60.8 Z-17.412 R1.
X338.763 Y60. Z-17.605 R1.
X340.763 Z-17.88 R1.
X340.362 Y60.8 Z-17.961 R1.
X338.763 Y60. Z-18.155 R1.
X340.763 Z-18.43 R1.
X340.362 Y60.8 Z-18.511 R1.
X338.763 Y60. Z-18.705 R1.
X340.763 Z-18.98 R1.
X340.362 Y60.8 Z-19.061 R1.
X338.763 Y60. Z-19.254 R1.
X340.763 Z-19.529 R1.
X340.362 Y60.8 Z-19.61 R1.
X338.763 Y60. Z-19.804 R1.
X340.763 Z-20.079 R1.
X340.362 Y60.8 Z-20.16 R1.
X338.763 Y60. Z-20.354 R1.
X340.763 Z-20.629 R1.
X340.362 Y60.8 Z-20.71 R1.
X338.763 Y60. Z-20.904 R1.
X340.763 Z-21.178 R1.
X340.362 Y60.8 Z-21.259 R1.
X338.763 Y60. Z-21.453 R1.
X340.763 Z-21.728 R1.
X340.362 Y60.8 Z-21.809 R1.
X338.763 Y60. Z-22.003 R1.
X340.763 Z-22.278 R1.
X340.362 Y60.8 Z-22.359 R1.
X338.763 Y60. Z-22.553 R1.
X340.763 Z-22.827 R1.
X340.362 Y60.8 Z-22.909 R1.
X338.763 Y60. Z-23.102 R1.
X340.763 Z-23.377 R1.
X340.362 Y60.8 Z-23.458 R1.
X338.763 Y60. Z-23.652 R1.
X340.763 Z-23.927 R1.
X340.362 Y60.8 Z-24.008 R1.
X338.763 Y60. Z-24.202 R1.
X340.763 Z-24.477 R1.
X340.362 Y60.8 Z-24.558 R1.
X338.763 Y60. Z-24.751 R1.
X340.763 Z-25.026 R1.
X340.362 Y60.8 Z-25.107 R1.
X338.763 Y60. Z-25.301 R1.
X340.763 Z-25.576 R1.
X340.362 Y60.8 Z-25.657 R1.
X338.763 Y60. Z-25.851 R1.
X340.763 Z-26.126 R1.
X340.362 Y60.8 Z-26.207 R1.
X338.763 Y60. Z-26.401 R1.
X340.763 Z-26.675 R1.
X340.362 Y60.8 Z-26.757 R1.
X338.763 Y60. Z-26.95 R1.
X340.763 Z-27.225 R1.
X340.362 Y60.8 Z-27.306 R1.
X338.763 Y60. Z-27.5 R1.
X340.05 R0.644
X339.95 R0.05
X341.25 R0.65
X338.75 R1.25
X341.25 R1.25
G1 X340.95 Z-27.47
G0 Z5.
X339.435 Y20.945
Z-7.5
G1 Z-12. F440.
G3 X340.091 Y19.055 Z-12.275 R1.
X340.362 Y20.8 Z-12.464 R1.
X338.763 Y20. Z-12.658 R1.
X340.763 Z-12.933 R1.
X340.362 Y20.8 Z-13.014 R1.
X338.763 Y20. Z-13.208 R1.
X340.763 Z-13.482 R1.
X340.362 Y20.8 Z-13.564 R1.
X338.763 Y20. Z-13.757 R1.
X340.763 Z-14.032 R1.
X340.362 Y20.8 Z-14.113 R1.
X338.763 Y20. Z-14.307 R1.
X340.763 Z-14.582 R1.
X340.362 Y20.8 Z-14.663 R1.
X338.763 Y20. Z-14.857 R1.
X340.763 Z-15.132 R1.
X340.362 Y20.8 Z-15.213 R1.
X338.763 Y20. Z-15.406 R1.
X340.763 Z-15.681 R1.
X340.362 Y20.8 Z-15.762 R1.
X338.763 Y20. Z-15.956 R1.
X340.763 Z-16.231 R1.
X340.362 Y20.8 Z-16.312 R1.
X338.763 Y20. Z-16.506 R1.
X340.763 Z-16.781 R1.
X340.362 Y20.8 Z-16.862 R1.
X338.763 Y20. Z-17.056 R1.
X340.763 Z-17.33 R1.
X340.362 Y20.8 Z-17.412 R1.
X338.763 Y20. Z-17.605 R1.
X340.763 Z-17.88 R1.
X340.362 Y20.8 Z-17.961 R1.
X338.763 Y20. Z-18.155 R1.
X340.763 Z-18.43 R1.
X340.362 Y20.8 Z-18.511 R1.
X338.763 Y20. Z-18.705 R1.
X340.763 Z-18.98 R1.
X340.362 Y20.8 Z-19.061 R1.
X338.763 Y20. Z-19.254 R1.
X340.763 Z-19.529 R1.
X340.362 Y20.8 Z-19.61 R1.
X338.763 Y20. Z-19.804 R1.
X340.763 Z-20.079 R1.
X340.362 Y20.8 Z-20.16 R1.
X338.763 Y20. Z-20.354 R1.
X340.763 Z-20.629 R1.
X340.362 Y20.8 Z-20.71 R1.
X338.763 Y20. Z-20.904 R1.
X340.763 Z-21.178 R1.
X340.362 Y20.8 Z-21.259 R1.
X338.763 Y20. Z-21.453 R1.
X340.763 Z-21.728 R1.
X340.362 Y20.8 Z-21.809 R1.
X338.763 Y20. Z-22.003 R1.
X340.763 Z-22.278 R1.
X340.362 Y20.8 Z-22.359 R1.
X338.763 Y20. Z-22.553 R1.
X340.763 Z-22.827 R1.
X340.362 Y20.8 Z-22.909 R1.
X338.763 Y20. Z-23.102 R1.
X340.763 Z-23.377 R1.
X340.362 Y20.8 Z-23.458 R1.
X338.763 Y20. Z-23.652 R1.
X340.763 Z-23.927 R1.
X340.362 Y20.8 Z-24.008 R1.
X338.763 Y20. Z-24.202 R1.
X340.763 Z-24.477 R1.
X340.362 Y20.8 Z-24.558 R1.
X338.763 Y20. Z-24.751 R1.
X340.763 Z-25.026 R1.
X340.362 Y20.8 Z-25.107 R1.
X338.763 Y20. Z-25.301 R1.
X340.763 Z-25.576 R1.
X340.362 Y20.8 Z-25.657 R1.
X338.763 Y20. Z-25.851 R1.
X340.763 Z-26.126 R1.
X340.362 Y20.8 Z-26.207 R1.
X338.763 Y20. Z-26.401 R1.
X340.763 Z-26.675 R1.
X340.362 Y20.8 Z-26.757 R1.
X338.763 Y20. Z-26.95 R1.
X340.763 Z-27.225 R1.
X340.362 Y20.8 Z-27.306 R1.
X338.763 Y20. Z-27.5 R1.
X340.05 R0.644
X339.95 R0.05
X341.25 R0.65
X338.75 R1.25
X341.25 R1.25
G1 X340.95 Z-27.47
G0 Z5.
X379.435 Y20.945
Z-7.5
G1 Z-12. F440.
G3 X380.091 Y19.055 Z-12.275 R1.
X380.362 Y20.8 Z-12.464 R1.
X378.763 Y20. Z-12.658 R1.
X380.763 Z-12.933 R1.
X380.362 Y20.8 Z-13.014 R1.
X378.763 Y20. Z-13.208 R1.
X380.763 Z-13.482 R1.
X380.362 Y20.8 Z-13.564 R1.
X378.763 Y20. Z-13.757 R1.
X380.763 Z-14.032 R1.
X380.362 Y20.8 Z-14.113 R1.
X378.763 Y20. Z-14.307 R1.
X380.763 Z-14.582 R1.
X380.362 Y20.8 Z-14.663 R1.
X378.763 Y20. Z-14.857 R1.
X380.763 Z-15.132 R1.
X380.362 Y20.8 Z-15.213 R1.
X378.763 Y20. Z-15.406 R1.
X380.763 Z-15.681 R1.
X380.362 Y20.8 Z-15.762 R1.
X378.763 Y20. Z-15.956 R1.
X380.763 Z-16.231 R1.
X380.362 Y20.8 Z-16.312 R1.
X378.763 Y20. Z-16.506 R1.
X380.763 Z-16.781 R1.
X380.362 Y20.8 Z-16.862 R1.
X378.763 Y20. Z-17.056 R1.
X380.763 Z-17.33 R1.
X380.362 Y20.8 Z-17.412 R1.
X378.763 Y20. Z-17.605 R1.
X380.763 Z-17.88 R1.
X380.362 Y20.8 Z-17.961 R1.
X378.763 Y20. Z-18.155 R1.
X380.763 Z-18.43 R1.
X380.362 Y20.8 Z-18.511 R1.
X378.763 Y20. Z-18.705 R1.
X380.763 Z-18.98 R1.
X380.362 Y20.8 Z-19.061 R1.
X378.763 Y20. Z-19.254 R1.
X380.763 Z-19.529 R1.
X380.362 Y20.8 Z-19.61 R1.
X378.763 Y20. Z-19.804 R1.
X380.763 Z-20.079 R1.
X380.362 Y20.8 Z-20.16 R1.
X378.763 Y20. Z-20.354 R1.
X380.763 Z-20.629 R1.
X380.362 Y20.8 Z-20.71 R1.
X378.763 Y20. Z-20.904 R1.
X380.763 Z-21.178 R1.
X380.362 Y20.8 Z-21.259 R1.
X378.763 Y20. Z-21.453 R1.
X380.763 Z-21.728 R1.
X380.362 Y20.8 Z-21.809 R1.
X378.763 Y20. Z-22.003 R1.
X380.763 Z-22.278 R1.
X380.362 Y20.8 Z-22.359 R1.
X378.763 Y20. Z-22.553 R1.
X380.763 Z-22.827 R1.
X380.362 Y20.8 Z-22.909 R1.
X378.763 Y20. Z-23.102 R1.
X380.763 Z-23.377 R1.
X380.362 Y20.8 Z-23.458 R1.
X378.763 Y20. Z-23.652 R1.
X380.763 Z-23.927 R1.
X380.362 Y20.8 Z-24.008 R1.
X378.763 Y20. Z-24.202 R1.
X380.763 Z-24.477 R1.
X380.362 Y20.8 Z-24.558 R1.
X378.763 Y20. Z-24.751 R1.
X380.763 Z-25.026 R1.
X380.362 Y20.8 Z-25.107 R1.
X378.763 Y20. Z-25.301 R1.
X380.763 Z-25.576 R1.
X380.362 Y20.8 Z-25.657 R1.
X378.763 Y20. Z-25.851 R1.
X380.763 Z-26.126 R1.
X380.362 Y20.8 Z-26.207 R1.
X378.763 Y20. Z-26.401 R1.
X380.763 Z-26.675 R1.
X380.362 Y20.8 Z-26.757 R1.
X378.763 Y20. Z-26.95 R1.
X380.763 Z-27.225 R1.
X380.362 Y20.8 Z-27.306 R1.
X378.763 Y20. Z-27.5 R1.
X380.05 R0.644
X379.95 R0.05
X381.25 R0.65
X378.75 R1.25
X381.25 R1.25
G1 X380.95 Z-27.47
G0 Z5.
X379.435 Y60.945
Z-7.5
G1 Z-12. F440.
G3 X380.091 Y59.055 Z-12.275 R1.
X380.362 Y60.8 Z-12.464 R1.
X378.763 Y60. Z-12.658 R1.
X380.763 Z-12.933 R1.
X380.362 Y60.8 Z-13.014 R1.
X378.763 Y60. Z-13.208 R1.
X380.763 Z-13.482 R1.
X380.362 Y60.8 Z-13.564 R1.
X378.763 Y60. Z-13.757 R1.
X380.763 Z-14.032 R1.
X380.362 Y60.8 Z-14.113 R1.
X378.763 Y60. Z-14.307 R1.
X380.763 Z-14.582 R1.
X380.362 Y60.8 Z-14.663 R1.
X378.763 Y60. Z-14.857 R1.
X380.763 Z-15.132 R1.
X380.362 Y60.8 Z-15.213 R1.
X378.763 Y60. Z-15.406 R1.
X380.763 Z-15.681 R1.
X380.362 Y60.8 Z-15.762 R1.
X378.763 Y60. Z-15.956 R1.
X380.763 Z-16.231 R1.
X380.362 Y60.8 Z-16.312 R1.
X378.763 Y60. Z-16.506 R1.
X380.763 Z-16.781 R1.
X380.362 Y60.8 Z-16.862 R1.
X378.763 Y60. Z-17.056 R1.
X380.763 Z-17.33 R1.
X380.362 Y60.8 Z-17.412 R1.
X378.763 Y60. Z-17.605 R1.
X380.763 Z-17.88 R1.
X380.362 Y60.8 Z-17.961 R1.
X378.763 Y60. Z-18.155 R1.
X380.763 Z-18.43 R1.
X380.362 Y60.8 Z-18.511 R1.
X378.763 Y60. Z-18.705 R1.
X380.763 Z-18.98 R1.
X380.362 Y60.8 Z-19.061 R1.
X378.763 Y60. Z-19.254 R1.
X380.763 Z-19.529 R1.
X380.362 Y60.8 Z-19.61 R1.
X378.763 Y60. Z-19.804 R1.
X380.763 Z-20.079 R1.
X380.362 Y60.8 Z-20.16 R1.
X378.763 Y60. Z-20.354 R1.
X380.763 Z-20.629 R1.
X380.362 Y60.8 Z-20.71 R1.
X378.763 Y60. Z-20.904 R1.
X380.763 Z-21.178 R1.
X380.362 Y60.8 Z-21.259 R1.
X378.763 Y60. Z-21.453 R1.
X380.763 Z-21.728 R1.
X380.362 Y60.8 Z-21.809 R1.
X378.763 Y60. Z-22.003 R1.
X380.763 Z-22.278 R1.
X380.362 Y60.8 Z-22.359 R1.
X378.763 Y60. Z-22.553 R1.
X380.763 Z-22.827 R1.
X380.362 Y60.8 Z-22.909 R1.
X378.763 Y60. Z-23.102 R1.
X380.763 Z-23.377 R1.
X380.362 Y60.8 Z-23.458 R1.
X378.763 Y60. Z-23.652 R1.
X380.763 Z-23.927 R1.
X380.362 Y60.8 Z-24.008 R1.
X378.763 Y60. Z-24.202 R1.
X380.763 Z-24.477 R1.
X380.362 Y60.8 Z-24.558 R1.
X378.763 Y60. Z-24.751 R1.
X380.763 Z-25.026 R1.
X380.362 Y60.8 Z-25.107 R1.
X378.763 Y60. Z-25.301 R1.
X380.763 Z-25.576 R1.
X380.362 Y60.8 Z-25.657 R1.
X378.763 Y60. Z-25.851 R1.
X380.763 Z-26.126 R1.
X380.362 Y60.8 Z-26.207 R1.
X378.763 Y60. Z-26.401 R1.
X380.763 Z-26.675 R1.
X380.362 Y60.8 Z-26.757 R1.
X378.763 Y60. Z-26.95 R1.
X380.763 Z-27.225 R1.
X380.362 Y60.8 Z-27.306 R1.
X378.763 Y60. Z-27.5 R1.
X380.05 R0.644
X379.95 R0.05
X381.25 R0.65
X378.75 R1.25
X381.25 R1.25
G1 X380.95 Z-27.47
G0 Z10.

M9
M30
