(__Y_2)
(T4  D=6. CR=0. - ZMIN=-27.5 - FLAT END MILL)
G90 G94 G91.1 G40 G49 G17
G21

(POCKET2)
M5
M9
T4
S10000 M3
G54
M8
G0 X140.923 Y60.976
G43 Z16. H4
G1 Z1.098 F200.
X140.922 Y60.978 Z1.041 F440.
G3 X140.91 Y61.005 Z0.906 R0.75
X140.884 Y61.058 Z0.78 R0.75
X140.839 Y61.132 Z0.672 R0.75
X140.77 Y61.216 Z0.586 R0.75
X140.677 Y61.3 Z0.528 R0.75
X140.562 Y61.372 Z0.5 R0.75
X139.886 Y60.033 Z0.294 R0.75
X140.562 Y61.372 Z0.088 R0.75
X139.886 Y60.033 Z-0.118 R0.75
X140.562 Y61.372 Z-0.325 R0.75
X139.886 Y60.033 Z-0.531 R0.75
X140.562 Y61.372 Z-0.737 R0.75
X139.886 Y60.033 Z-0.943 R0.75
X140.562 Y61.372 Z-1.149 R0.75
X139.886 Y60.033 Z-1.355 R0.75
X140.562 Y61.372 Z-1.561 R0.75
X139.886 Y60.033 Z-1.768 R0.75
X140.562 Y61.372 Z-1.974 R0.75
X139.886 Y60.033 Z-2.18 R0.75
X140.562 Y61.372 Z-2.386 R0.75
X139.886 Y60.033 Z-2.592 R0.75
X140.562 Y61.372 Z-2.798 R0.75
X139.886 Y60.033 Z-3.004 R0.75
X140.562 Y61.372 Z-3.211 R0.75
X139.886 Y60.033 Z-3.417 R0.75
X140.562 Y61.372 Z-3.623 R0.75
X139.886 Y60.033 Z-3.829 R0.75
X140.562 Y61.372 Z-4.035 R0.75
X139.886 Y60.033 Z-4.241 R0.75
X140.562 Y61.372 Z-4.447 R0.75
X139.886 Y60.033 Z-4.654 R0.75
X140.562 Y61.372 Z-4.86 R0.75
X139.886 Y60.033 Z-5.066 R0.75
X140.562 Y61.372 Z-5.272 R0.75
X139.886 Y60.033 Z-5.478 R0.75
X140.562 Y61.372 Z-5.684 R0.75
X139.886 Y60.033 Z-5.89 R0.75
X140.562 Y61.372 Z-6.096 R0.75
X139.886 Y60.033 Z-6.303 R0.75
X140.562 Y61.372 Z-6.509 R0.75
X139.886 Y60.033 Z-6.715 R0.75
X140.562 Y61.372 Z-6.921 R0.75
X139.886 Y60.033 Z-7.127 R0.75
X140.562 Y61.372 Z-7.333 R0.75
X139.886 Y60.033 Z-7.539 R0.75
X140.562 Y61.372 Z-7.746 R0.75
X139.886 Y60.033 Z-7.952 R0.75
X140.562 Y61.372 Z-8.158 R0.75
X139.886 Y60.033 Z-8.364 R0.75
X140.562 Y61.372 Z-8.57 R0.75
X139.886 Y60.033 Z-8.776 R0.75
X140.562 Y61.372 Z-8.982 R0.75
X139.886 Y60.033 Z-9.189 R0.75
X140.562 Y61.372 Z-9.395 R0.75
X139.886 Y60.033 Z-9.601 R0.75
X140.562 Y61.372 Z-9.807 R0.75
X139.886 Y60.033 Z-10.013 R0.75
X140.562 Y61.372 Z-10.219 R0.75
X139.886 Y60.033 Z-10.425 R0.75
X140.562 Y61.372 Z-10.632 R0.75
X139.886 Y60.033 Z-10.838 R0.75
X140.562 Y61.372 Z-11.044 R0.75
X139.886 Y60.033 Z-11.25 R0.75
X140.562 Y61.372 Z-11.456 R0.75
X139.886 Y60.033 Z-11.662 R0.75
X140.562 Y61.372 Z-11.868 R0.75
X139.886 Y60.033 Z-12.075 R0.75
X140.562 Y61.372 Z-12.281 R0.75
X139.524 Y60.971 Z-12.39 R0.75
X140.027 Y59.979 Z-12.5 R0.75
G1 X140.04 Y59.975
G3 X140.093 Y59.985 R0.063
G1 X140.111 Y59.997
G3 X140.153 Y60.054 R0.113
G1 X140.158 Y60.069
G3 Y60.173 R0.162
G1 X140.151 Y60.192
G3 X140.077 Y60.296 R0.224
G1 X140.062 Y60.308
G3 X139.92 Y60.367 R0.29
G1 X139.902 Y60.369
G3 X139.718 Y60.343 R0.354
G1 X139.698 Y60.335
G3 X139.524 Y60.197 R0.432
X139.436 Y59.935 R0.434
G1 Y59.869
G3 X139.608 Y59.444 R0.618
G1 X139.621 Y59.43
G3 X140.065 Y59.225 R0.668
G1 X140.104 Y59.223
G3 X140.636 Y59.395 R0.769
G1 X140.692 Y59.441
G3 X141.008 Y60.377 R0.931
G1 X141.004 Y60.393
G3 X140.767 Y60.849 R1.053
G1 X140.751 Y60.867
G3 X140.294 Y61.18 R1.148
G1 X140.28 Y61.185
G3 X139.702 Y61.251 R1.208
G1 X139.686 Y61.249
G3 X139.116 Y61.025 R1.27
G1 X139.099 Y61.013
G3 X138.673 Y60.517 R1.355
G1 X138.667 Y60.506
G3 X138.517 Y59.843 R1.406
G1 X138.518 Y59.82
G3 X138.714 Y59.111 R1.499
G1 X138.722 Y59.097
G3 X139.236 Y58.554 R1.565
G1 X139.243 Y58.55
G3 X139.974 Y58.302 R1.596
G1 X140.007 Y58.3
G3 X140.839 Y58.438 R1.728
G1 X140.848 Y58.441
G3 X141.513 Y58.948 R1.766
G1 X141.521 Y58.957
G3 X141.892 Y59.748 R1.813
G1 X141.897 Y59.778
G3 X141.852 Y60.71 R1.935
G1 X141.85 Y60.715
G3 X141.369 Y61.526 R1.957
G1 X141.351 Y61.544
G3 X140.51 Y62.059 R2.058
G1 X140.496 Y62.064
G3 X139.486 Y62.13 R2.115
G1 X139.471 Y62.128
G3 X138.516 Y61.704 R2.178
G1 X138.499 Y61.69
G3 X137.825 Y60.836 R2.266
G1 X137.82 Y60.827
G3 X137.618 Y59.738 R2.31
G1 X137.619 Y59.713
G3 X137.969 Y58.595 R2.411
G1 X137.977 Y58.583
G3 X138.814 Y57.753 R2.469
G1 X138.821 Y57.749
G3 X139.972 Y57.397 R2.501
G1 X140.007 Y57.395
G3 X141.263 Y57.638 R2.64
G1 X141.271 Y57.642
G3 X142.26 Y58.434 R2.677
G1 X142.334 Y58.53
G3 X142.847 Y60.716 R2.713
X142.253 Y61.99 R2.955
X141.729 Y62.501 R2.993
G1 X141.722 Y62.507
G3 X140.399 Y63.084 R3.046
G1 X140.39 Y63.086
G3 X139.605 Y63.123 R3.147
X138.182 Y62.655 R3.148
G1 X138.174 Y62.65
G3 X137.087 Y61.528 R3.229
G1 X137.081 Y61.518
G3 X136.641 Y60.02 R3.299
G1 Y60.01
G3 X136.927 Y58.498 R3.315
G1 X136.937 Y58.474
G3 X139.553 Y56.455 R3.497
X140.148 Y56.406 R3.603
X140.451 Y56.419 R3.603
G1 X140.467 Y56.42
G3 X141.293 Y56.59 R3.554
G1 X141.303 Y56.593
G3 X142.066 Y56.957 R3.473
G1 X142.482 Y57.221
X143.074 Y57.894
X143.481 Y58.669
X143.698 Y59.543
X143.701 Y59.663
X143.697 Y60.463
X143.481 Y61.331
X143.068 Y62.118
X142.473 Y62.79
X141.726 Y63.303
X140.908 Y63.614
X140. Y63.727
X139.094 Y63.614
X138.275 Y63.304
X137.526 Y62.789
X136.933 Y62.119
X136.511 Y61.309
X136.303 Y60.466
X136.3 Y59.549
X136.488 Y58.783
X136.514 Y58.678
X136.927 Y57.893
X137.532 Y57.207
X138.268 Y56.699
X139.094 Y56.386
X140.001 Y56.272
X140.908 Y56.386
X141.724 Y56.696
X142.482 Y57.221
G0 Z16.
X140.469 Y59.409
G1 Z-11.402 F200.
G3 X140.473 Y59.422 Z-11.528 R0.75 F440.
X140.485 Y59.459 Z-11.648 R0.75
X140.499 Y59.521 Z-11.757 R0.75
X140.511 Y59.605 Z-11.85 R0.75
X140.512 Y59.708 Z-11.924 R0.75
X140.496 Y59.824 Z-11.975 R0.75
X140.458 Y59.945 Z-12. R0.75
X139.068 Y59.381 Z-12.206 R0.75
X140.458 Y59.945 Z-12.412 R0.75
X139.068 Y59.381 Z-12.618 R0.75
X140.458 Y59.945 Z-12.825 R0.75
X139.068 Y59.381 Z-13.031 R0.75
X140.458 Y59.945 Z-13.237 R0.75
X139.068 Y59.381 Z-13.443 R0.75
X140.458 Y59.945 Z-13.649 R0.75
X139.068 Y59.381 Z-13.855 R0.75
X140.458 Y59.945 Z-14.061 R0.75
X139.068 Y59.381 Z-14.268 R0.75
X140.458 Y59.945 Z-14.474 R0.75
X139.068 Y59.381 Z-14.68 R0.75
X140.458 Y59.945 Z-14.886 R0.75
X139.068 Y59.381 Z-15.092 R0.75
X140.458 Y59.945 Z-15.298 R0.75
X139.068 Y59.381 Z-15.504 R0.75
X140.458 Y59.945 Z-15.711 R0.75
X139.068 Y59.381 Z-15.917 R0.75
X140.458 Y59.945 Z-16.123 R0.75
X139.068 Y59.381 Z-16.329 R0.75
X140.458 Y59.945 Z-16.535 R0.75
X139.068 Y59.381 Z-16.741 R0.75
X140.458 Y59.945 Z-16.947 R0.75
X139.068 Y59.381 Z-17.154 R0.75
X140.458 Y59.945 Z-17.36 R0.75
X139.068 Y59.381 Z-17.566 R0.75
X140.458 Y59.945 Z-17.772 R0.75
X139.068 Y59.381 Z-17.978 R0.75
X140.458 Y59.945 Z-18.184 R0.75
X139.068 Y59.381 Z-18.39 R0.75
X140.458 Y59.945 Z-18.596 R0.75
X139.068 Y59.381 Z-18.803 R0.75
X140.458 Y59.945 Z-19.009 R0.75
X139.068 Y59.381 Z-19.215 R0.75
X140.458 Y59.945 Z-19.421 R0.75
X139.068 Y59.381 Z-19.627 R0.75
X140.458 Y59.945 Z-19.833 R0.75
X139.068 Y59.381 Z-20.039 R0.75
X140.458 Y59.945 Z-20.246 R0.75
X139.068 Y59.381 Z-20.452 R0.75
X140.458 Y59.945 Z-20.658 R0.75
X139.068 Y59.381 Z-20.864 R0.75
X140.458 Y59.945 Z-21.07 R0.75
X139.068 Y59.381 Z-21.276 R0.75
X140.458 Y59.945 Z-21.482 R0.75
X139.068 Y59.381 Z-21.689 R0.75
X140.458 Y59.945 Z-21.895 R0.75
X139.068 Y59.381 Z-22.101 R0.75
X140.458 Y59.945 Z-22.307 R0.75
X139.068 Y59.381 Z-22.513 R0.75
X140.458 Y59.945 Z-22.719 R0.75
X139.068 Y59.381 Z-22.925 R0.75
X140.458 Y59.945 Z-23.132 R0.75
X139.068 Y59.381 Z-23.338 R0.75
X140.458 Y59.945 Z-23.544 R0.75
X139.068 Y59.381 Z-23.75 R0.75
X140.458 Y59.945 Z-23.956 R0.75
X139.068 Y59.381 Z-24.162 R0.75
X140.458 Y59.945 Z-24.368 R0.75
X139.068 Y59.381 Z-24.575 R0.75
X140.458 Y59.945 Z-24.781 R0.75
X139.068 Y59.381 Z-24.987 R0.75
X140.458 Y59.945 Z-25.193 R0.75
X139.068 Y59.381 Z-25.399 R0.75
X140.458 Y59.945 Z-25.605 R0.75
X139.068 Y59.381 Z-25.811 R0.75
X140.458 Y59.945 Z-26.018 R0.75
X139.068 Y59.381 Z-26.224 R0.75
X140.458 Y59.945 Z-26.43 R0.75
X139.068 Y59.381 Z-26.636 R0.75
X140.458 Y59.945 Z-26.842 R0.75
X139.068 Y59.381 Z-27.048 R0.75
X140.458 Y59.945 Z-27.254 R0.75
X139.068 Y59.381 Z-27.461 R0.75
X139.349 Y59.037 Z-27.5 R0.75
X139.992 Y60.027 R0.59
G1 X139.982 Y60.033
G3 X139.972 Y60.038 R0.033
G1 X139.963 Y60.04
G3 X139.903 Y60.027 R0.075
G1 X139.893 Y60.02
G3 X139.851 Y59.951 R0.103
G1 X139.849 Y59.931
G3 X139.872 Y59.828 R0.151
G1 X139.883 Y59.812
G3 X139.99 Y59.731 R0.203
G1 X140.011 Y59.724
G3 X140.181 Y59.726 R0.266
G1 X140.195 Y59.731
G3 X140.352 Y59.852 R0.313
G1 X140.365 Y59.872
G3 X140.431 Y60.095 R0.386
G1 Y60.106
G3 X140.35 Y60.344 R0.42
G1 X140.337 Y60.362
G3 X140.092 Y60.54 R0.489
G1 X140.073 Y60.546
G3 X139.74 Y60.548 R0.552
G1 X139.727 Y60.544
G3 X139.433 Y60.338 R0.593
G1 X139.42 Y60.321
G3 X139.284 Y59.95 R0.661
G1 X139.283 Y59.937
G3 X139.392 Y59.526 R0.704
G1 X139.425 Y59.475
G3 X140.13 Y59.109 R0.791
G1 X140.139
G3 X140.405 Y59.162 R0.906
X140.65 Y59.295 R0.919
G1 X140.654 Y59.299
G3 X140.854 Y59.504 R0.955
X140.988 Y59.769 R0.967
G1 X140.991 Y59.78
G3 X141. Y60.39 R1.034
X140.87 Y60.671 R1.046
G1 X140.862 Y60.683
G3 X140.35 Y61.103 R1.113
G1 X140.335 Y61.109
G3 X140.026 Y61.183 R1.068
G1 X139.817 Y61.201
X139.467 Y61.092
X139.173 Y60.891
X138.952 Y60.615
X138.814 Y60.268
X138.788 Y59.916
X138.869 Y59.556
X139.053 Y59.24
X139.324 Y58.991
X139.64 Y58.839
X140. Y58.784
X140.361 Y58.839
X140.685 Y58.995
X140.951 Y59.242
X141.131 Y59.554
X141.212 Y59.916
X141.186 Y60.271
X141.057 Y60.599
X140.824 Y60.893
X140.534 Y61.091
X140.19 Y61.199
X139.817 Y61.201
G0 Z16.
X100.783 Y61.078
Z1.098
G1 X100.782 Y61.081 Z1.041 F440.
G3 X100.768 Y61.106 Z0.906 R0.75
X100.735 Y61.155 Z0.78 R0.75
X100.68 Y61.222 Z0.672 R0.75
X100.601 Y61.297 Z0.586 R0.75
X100.498 Y61.368 Z0.528 R0.75
X100.374 Y61.424 Z0.5 R0.75
X99.879 Y60.008 Z0.294 R0.75
X100.374 Y61.424 Z0.088 R0.75
X99.879 Y60.008 Z-0.118 R0.75
X100.374 Y61.424 Z-0.325 R0.75
X99.879 Y60.008 Z-0.531 R0.75
X100.374 Y61.424 Z-0.737 R0.75
X99.879 Y60.008 Z-0.943 R0.75
X100.374 Y61.424 Z-1.149 R0.75
X99.879 Y60.008 Z-1.355 R0.75
X100.374 Y61.424 Z-1.561 R0.75
X99.879 Y60.008 Z-1.768 R0.75
X100.374 Y61.424 Z-1.974 R0.75
X99.879 Y60.008 Z-2.18 R0.75
X100.374 Y61.424 Z-2.386 R0.75
X99.879 Y60.008 Z-2.592 R0.75
X100.374 Y61.424 Z-2.798 R0.75
X99.879 Y60.008 Z-3.004 R0.75
X100.374 Y61.424 Z-3.211 R0.75
X99.879 Y60.008 Z-3.417 R0.75
X100.374 Y61.424 Z-3.623 R0.75
X99.879 Y60.008 Z-3.829 R0.75
X100.374 Y61.424 Z-4.035 R0.75
X99.879 Y60.008 Z-4.241 R0.75
X100.374 Y61.424 Z-4.447 R0.75
X99.879 Y60.008 Z-4.654 R0.75
X100.374 Y61.424 Z-4.86 R0.75
X99.879 Y60.008 Z-5.066 R0.75
X100.374 Y61.424 Z-5.272 R0.75
X99.879 Y60.008 Z-5.478 R0.75
X100.374 Y61.424 Z-5.684 R0.75
X99.879 Y60.008 Z-5.89 R0.75
X100.374 Y61.424 Z-6.096 R0.75
X99.879 Y60.008 Z-6.303 R0.75
X100.374 Y61.424 Z-6.509 R0.75
X99.879 Y60.008 Z-6.715 R0.75
X100.374 Y61.424 Z-6.921 R0.75
X99.879 Y60.008 Z-7.127 R0.75
X100.374 Y61.424 Z-7.333 R0.75
X99.879 Y60.008 Z-7.539 R0.75
X100.374 Y61.424 Z-7.746 R0.75
X99.879 Y60.008 Z-7.952 R0.75
X100.374 Y61.424 Z-8.158 R0.75
X99.879 Y60.008 Z-8.364 R0.75
X100.374 Y61.424 Z-8.57 R0.75
X99.879 Y60.008 Z-8.776 R0.75
X100.374 Y61.424 Z-8.982 R0.75
X99.879 Y60.008 Z-9.189 R0.75
X100.374 Y61.424 Z-9.395 R0.75
X99.879 Y60.008 Z-9.601 R0.75
X100.374 Y61.424 Z-9.807 R0.75
X99.879 Y60.008 Z-10.013 R0.75
X100.374 Y61.424 Z-10.219 R0.75
X99.879 Y60.008 Z-10.425 R0.75
X100.374 Y61.424 Z-10.632 R0.75
X99.879 Y60.008 Z-10.838 R0.75
X100.374 Y61.424 Z-11.044 R0.75
X99.879 Y60.008 Z-11.25 R0.75
X100.374 Y61.424 Z-11.456 R0.75
X99.879 Y60.008 Z-11.662 R0.75
X100.374 Y61.424 Z-11.868 R0.75
X99.879 Y60.008 Z-12.075 R0.75
X100.374 Y61.424 Z-12.281 R0.75
X99.397 Y60.892 Z-12.39 R0.75
X100.025 Y59.973 Z-12.5 R0.75
G1 X100.05 Y59.97
G3 X100.077 Y59.971 R0.071
X100.13 Y60.008 R0.085
G1 X100.144 Y60.028
G3 X100.168 Y60.109 R0.149
G1 Y60.123
G3 X100.132 Y60.238 R0.197
G1 X100.121 Y60.253
G3 X100.008 Y60.343 R0.257
G1 X99.991 Y60.349
G3 X99.816 Y60.368 R0.32
G1 X99.79 Y60.364
G3 X99.459 Y60.049 R0.41
G1 X99.446 Y59.993
G3 X99.512 Y59.576 R0.572
G1 X99.528 Y59.549
G3 X99.906 Y59.256 R0.651
G1 X99.938 Y59.247
G3 X100.471 Y59.294 R0.737
G1 X100.538 Y59.327
G3 X101.035 Y60.113 R0.894
G1 Y60.133
G3 X100.919 Y60.629 R1.045
G1 X100.913 Y60.64
G3 X100.561 Y61.039 R1.096
G1 X100.544 Y61.051
G3 X100.006 Y61.252 R1.179
G1 X99.992 Y61.254
G3 X99.395 Y61.173 R1.235
G1 X99.386 Y61.169
G3 X98.856 Y60.771 R1.27
G1 X98.801 Y60.7
G3 X98.665 Y59.232 R1.366
X101.505 Y58.938 R1.708
G1 X101.517 Y58.953
G3 X101.898 Y59.77 R1.843
G1 X101.902 Y59.789
G3 X101.855 Y60.706 R1.922
G1 X101.852 Y60.716
G3 X101.371 Y61.528 R1.965
G1 X101.355 Y61.544
G3 X100.514 Y62.06 R2.053
G1 X100.499 Y62.065
G3 X99.484 Y62.131 R2.117
G1 X99.468 Y62.128
G3 X98.51 Y61.701 R2.185
G1 X98.494 Y61.689
G3 X97.822 Y60.834 R2.267
G1 X97.811 Y60.81
G3 X98.298 Y58.172 R2.351
G1 X98.319 Y58.151
G3 X101.78 Y57.956 R2.614
G1 X101.87 Y58.027
G3 X102.855 Y60.689 R2.724
G1 X102.851 Y60.71
G3 X102.634 Y61.378 R2.919
G1 X102.631 Y61.384
G3 X102.253 Y61.992 R2.972
X101.735 Y62.499 R2.999
G1 X101.729 Y62.504
G3 X101.089 Y62.88 R3.061
X100.378 Y63.091 R3.066
G1 X100.373 Y63.092
G3 X99.623 Y63.127 R3.11
X98.875 Y62.98 R3.144
X97.548 Y62.135 R3.155
G1 X97.491 Y62.074
G3 X97.071 Y61.508 R3.136
G1 X97.05 Y61.473
G3 X96.786 Y60.856 R2.775
X99.563 Y56.45 R3.476
X100.135 Y56.404 R3.532
X100.405 Y56.414 R3.532
G1 X100.439 Y56.417
G3 X101.294 Y56.589 R3.559
G1 X101.308 Y56.594
G3 X102.047 Y56.943 R3.445
G1 X102.46 Y57.202
X103.069 Y57.884
X103.481 Y58.669
X103.515 Y58.797
X103.698 Y59.541
X103.701 Y59.663
X103.697 Y60.465
X103.485 Y61.324
X103.068 Y62.118
X102.475 Y62.787
X101.732 Y63.301
X100.892 Y63.62
X100. Y63.728
X99.109 Y63.62
X98.269 Y63.301
X97.521 Y62.783
X96.938 Y62.125
X96.878 Y62.014
X96.522 Y61.336
X96.428 Y60.97
X96.303 Y60.466
X96.3 Y59.549
X96.429 Y59.023
X96.514 Y58.678
X96.924 Y57.898
X97.527 Y57.212
X97.555 Y57.191
X98.285 Y56.693
X99.109 Y56.38
X99.983 Y56.274
X100.894 Y56.381
X101.715 Y56.692
X102.46 Y57.202
G0 Z16.
X99.858 Y60.741
G1 Z-11.402 F200.
G3 X99.848 Y60.732 Z-11.528 R0.75 F440.
X99.82 Y60.704 Z-11.648 R0.75
X99.779 Y60.656 Z-11.757 R0.75
X99.731 Y60.586 Z-11.85 R0.75
X99.683 Y60.496 Z-11.924 R0.75
X99.644 Y60.384 Z-11.975 R0.75
X99.622 Y60.26 Z-12. R0.75
X101.116 Y60.124 Z-12.206 R0.75
X99.622 Y60.26 Z-12.412 R0.75
X101.116 Y60.124 Z-12.618 R0.75
X99.622 Y60.26 Z-12.825 R0.75
X101.116 Y60.124 Z-13.031 R0.75
X99.622 Y60.26 Z-13.237 R0.75
X101.116 Y60.124 Z-13.443 R0.75
X99.622 Y60.26 Z-13.649 R0.75
X101.116 Y60.124 Z-13.855 R0.75
X99.622 Y60.26 Z-14.061 R0.75
X101.116 Y60.124 Z-14.268 R0.75
X99.622 Y60.26 Z-14.474 R0.75
X101.116 Y60.124 Z-14.68 R0.75
X99.622 Y60.26 Z-14.886 R0.75
X101.116 Y60.124 Z-15.092 R0.75
X99.622 Y60.26 Z-15.298 R0.75
X101.116 Y60.124 Z-15.504 R0.75
X99.622 Y60.26 Z-15.711 R0.75
X101.116 Y60.124 Z-15.917 R0.75
X99.622 Y60.26 Z-16.123 R0.75
X101.116 Y60.124 Z-16.329 R0.75
X99.622 Y60.26 Z-16.535 R0.75
X101.116 Y60.124 Z-16.741 R0.75
X99.622 Y60.26 Z-16.947 R0.75
X101.116 Y60.124 Z-17.154 R0.75
X99.622 Y60.26 Z-17.36 R0.75
X101.116 Y60.124 Z-17.566 R0.75
X99.622 Y60.26 Z-17.772 R0.75
X101.116 Y60.124 Z-17.978 R0.75
X99.622 Y60.26 Z-18.184 R0.75
X101.116 Y60.124 Z-18.39 R0.75
X99.622 Y60.26 Z-18.596 R0.75
X101.116 Y60.124 Z-18.803 R0.75
X99.622 Y60.26 Z-19.009 R0.75
X101.116 Y60.124 Z-19.215 R0.75
X99.622 Y60.26 Z-19.421 R0.75
X101.116 Y60.124 Z-19.627 R0.75
X99.622 Y60.26 Z-19.833 R0.75
X101.116 Y60.124 Z-20.039 R0.75
X99.622 Y60.26 Z-20.246 R0.75
X101.116 Y60.124 Z-20.452 R0.75
X99.622 Y60.26 Z-20.658 R0.75
X101.116 Y60.124 Z-20.864 R0.75
X99.622 Y60.26 Z-21.07 R0.75
X101.116 Y60.124 Z-21.276 R0.75
X99.622 Y60.26 Z-21.482 R0.75
X101.116 Y60.124 Z-21.689 R0.75
X99.622 Y60.26 Z-21.895 R0.75
X101.116 Y60.124 Z-22.101 R0.75
X99.622 Y60.26 Z-22.307 R0.75
X101.116 Y60.124 Z-22.513 R0.75
X99.622 Y60.26 Z-22.719 R0.75
X101.116 Y60.124 Z-22.925 R0.75
X99.622 Y60.26 Z-23.132 R0.75
X101.116 Y60.124 Z-23.338 R0.75
X99.622 Y60.26 Z-23.544 R0.75
X101.116 Y60.124 Z-23.75 R0.75
X99.622 Y60.26 Z-23.956 R0.75
X101.116 Y60.124 Z-24.162 R0.75
X99.622 Y60.26 Z-24.368 R0.75
X101.116 Y60.124 Z-24.575 R0.75
X99.622 Y60.26 Z-24.781 R0.75
X101.116 Y60.124 Z-24.987 R0.75
X99.622 Y60.26 Z-25.193 R0.75
X101.116 Y60.124 Z-25.399 R0.75
X99.622 Y60.26 Z-25.605 R0.75
X101.116 Y60.124 Z-25.811 R0.75
X99.622 Y60.26 Z-26.018 R0.75
X101.116 Y60.124 Z-26.224 R0.75
X99.622 Y60.26 Z-26.43 R0.75
X101.116 Y60.124 Z-26.636 R0.75
X99.622 Y60.26 Z-26.842 R0.75
X101.116 Y60.124 Z-27.048 R0.75
X99.622 Y60.26 Z-27.254 R0.75
X101.116 Y60.124 Z-27.461 R0.75
X101.023 Y60.559 Z-27.5 R0.75
X100.001 Y59.974 R0.589
G1 X100.009 Y59.961
G3 X100.067 Y59.933 R0.056
G1 X100.085 Y59.936
G3 X100.155 Y59.982 R0.105
G1 X100.165 Y59.998
G3 X100.188 Y60.101 R0.149
G1 X100.185 Y60.121
G3 X100.124 Y60.24 R0.206
G1 X100.11 Y60.254
G3 X99.961 Y60.324 R0.261
G1 X99.944 Y60.326
G3 X99.753 Y60.288 R0.312
G1 X99.734 Y60.277
G3 X99.574 Y60.103 R0.382
G1 X99.568 Y60.092
G3 X99.537 Y59.836 R0.422
G1 X99.541 Y59.816
G3 X99.689 Y59.55 R0.487
G1 X99.705 Y59.535
G3 X100.002 Y59.393 R0.556
G1 X100.012 Y59.392
G3 X100.362 Y59.449 R0.587
G1 X100.382 Y59.459
G3 X100.666 Y59.737 R0.659
G1 X100.675 Y59.753
G3 X100.755 Y60.168 R0.716
G1 X100.749 Y60.216
G3 X100.274 Y60.857 R0.792
G1 X100.263 Y60.862
G3 X100.002 Y60.929 R0.896
X99.905 Y60.934 R0.921
X99.722 Y60.916 R0.921
X99.455 Y60.819 R0.942
G1 X99.446 Y60.814
G3 X99.029 Y60.383 R1.003
X98.931 Y60.082 R1.04
X98.916 Y59.909 R1.052
X98.926 Y59.768 R1.052
G1 X98.928 Y59.757
G3 X99.21 Y59.153 R1.118
X99.474 Y58.94 R1.1
G1 X99.654 Y58.836
X99.999 Y58.784
X100.007 Y58.785
X100.358 Y58.838
X100.683 Y58.994
X100.954 Y59.247
X101.131 Y59.554
X101.212 Y59.916
X101.186 Y60.271
X101.054 Y60.605
X100.826 Y60.892
X100.528 Y61.096
X100.181 Y61.203
X99.821
X99.479 Y61.098
X99.171 Y60.889
X98.947 Y60.608
X98.814 Y60.271
X98.788 Y59.916
X98.869 Y59.554
X99.049 Y59.242
X99.31 Y59.
X99.654 Y58.836
G0 Z16.
X101.071 Y20.812
Z1.098
G1 X101.07 Y20.815 Z1.041 F440.
G3 X101.064 Y20.843 Z0.906 R0.75
X101.047 Y20.9 Z0.78 R0.75
X101.014 Y20.98 Z0.672 R0.75
X100.96 Y21.075 Z0.586 R0.75
X100.882 Y21.173 Z0.528 R0.75
X100.78 Y21.262 Z0.5 R0.75
X99.894 Y20.052 Z0.294 R0.75
X100.78 Y21.262 Z0.088 R0.75
X99.894 Y20.052 Z-0.118 R0.75
X100.78 Y21.262 Z-0.325 R0.75
X99.894 Y20.052 Z-0.531 R0.75
X100.78 Y21.262 Z-0.737 R0.75
X99.894 Y20.052 Z-0.943 R0.75
X100.78 Y21.262 Z-1.149 R0.75
X99.894 Y20.052 Z-1.355 R0.75
X100.78 Y21.262 Z-1.561 R0.75
X99.894 Y20.052 Z-1.768 R0.75
X100.78 Y21.262 Z-1.974 R0.75
X99.894 Y20.052 Z-2.18 R0.75
X100.78 Y21.262 Z-2.386 R0.75
X99.894 Y20.052 Z-2.592 R0.75
X100.78 Y21.262 Z-2.798 R0.75
X99.894 Y20.052 Z-3.004 R0.75
X100.78 Y21.262 Z-3.211 R0.75
X99.894 Y20.052 Z-3.417 R0.75
X100.78 Y21.262 Z-3.623 R0.75
X99.894 Y20.052 Z-3.829 R0.75
X100.78 Y21.262 Z-4.035 R0.75
X99.894 Y20.052 Z-4.241 R0.75
X100.78 Y21.262 Z-4.447 R0.75
X99.894 Y20.052 Z-4.654 R0.75
X100.78 Y21.262 Z-4.86 R0.75
X99.894 Y20.052 Z-5.066 R0.75
X100.78 Y21.262 Z-5.272 R0.75
X99.894 Y20.052 Z-5.478 R0.75
X100.78 Y21.262 Z-5.684 R0.75
X99.894 Y20.052 Z-5.89 R0.75
X100.78 Y21.262 Z-6.096 R0.75
X99.894 Y20.052 Z-6.303 R0.75
X100.78 Y21.262 Z-6.509 R0.75
X99.894 Y20.052 Z-6.715 R0.75
X100.78 Y21.262 Z-6.921 R0.75
X99.894 Y20.052 Z-7.127 R0.75
X100.78 Y21.262 Z-7.333 R0.75
X99.894 Y20.052 Z-7.539 R0.75
X100.78 Y21.262 Z-7.746 R0.75
X99.894 Y20.052 Z-7.952 R0.75
X100.78 Y21.262 Z-8.158 R0.75
X99.894 Y20.052 Z-8.364 R0.75
X100.78 Y21.262 Z-8.57 R0.75
X99.894 Y20.052 Z-8.776 R0.75
X100.78 Y21.262 Z-8.982 R0.75
X99.894 Y20.052 Z-9.189 R0.75
X100.78 Y21.262 Z-9.395 R0.75
X99.894 Y20.052 Z-9.601 R0.75
X100.78 Y21.262 Z-9.807 R0.75
X99.894 Y20.052 Z-10.013 R0.75
X100.78 Y21.262 Z-10.219 R0.75
X99.894 Y20.052 Z-10.425 R0.75
X100.78 Y21.262 Z-10.632 R0.75
X99.894 Y20.052 Z-10.838 R0.75
X100.78 Y21.262 Z-11.044 R0.75
X99.894 Y20.052 Z-11.25 R0.75
X100.78 Y21.262 Z-11.456 R0.75
X99.894 Y20.052 Z-11.662 R0.75
X100.78 Y21.262 Z-11.868 R0.75
X99.894 Y20.052 Z-12.075 R0.75
X100.78 Y21.262 Z-12.281 R0.75
X99.691 Y21.038 Z-12.39 R0.75
X100.023 Y19.976 Z-12.5 R0.75
G1 X100.036 Y19.97
G3 X100.08 Y19.965 R0.076
G1 X100.09 Y19.966
G3 X100.16 Y20.013 R0.104
G1 X100.171 Y20.032
G3 X100.195 Y20.127 R0.156
G1 X100.193 Y20.149
G3 X100.149 Y20.267 R0.226
G1 X100.146 Y20.271
G3 X100.006 Y20.363 R0.242
G1 X99.938 Y20.378
G3 X99.492 Y20.21 R0.429
G1 X99.489 Y20.206
G3 X99.405 Y19.935 R0.452
G1 X99.407 Y19.861
G3 X99.601 Y19.404 R0.664
G1 X99.609 Y19.396
G3 X100.08 Y19.193 R0.694
G1 X100.128 Y19.191
G3 X100.683 Y19.386 R0.819
G1 X100.729 Y19.426
G3 X101.042 Y20.385 R0.964
G1 X101.038 Y20.401
G3 X100.793 Y20.869 R1.078
G1 X100.775 Y20.89
G3 X100.29 Y21.216 R1.19
G1 X100.276 Y21.221
G3 X99.685 Y21.284 R1.25
G1 X99.676 Y21.282
G3 X99.101 Y21.055 R1.288
G1 X99.077 Y21.038
G3 X98.635 Y20.52 R1.404
G1 X98.629 Y20.507
G3 X98.639 Y19.212 R1.433
G1 X98.669 Y19.152
G3 X100.007 Y18.261 R1.657
X100.821 Y18.393 R1.718
G1 X100.844 Y18.402
G3 X101.544 Y18.932 R1.817
G1 X101.551 Y18.94
G3 X101.929 Y19.754 R1.858
G1 X101.934 Y19.778
G3 X101.887 Y20.714 R1.957
G1 X101.884 Y20.722
G3 X101.392 Y21.549 R1.99
G1 X101.374 Y21.568
G3 X100.506 Y22.095 R2.097
G1 X100.491 Y22.1
G3 X99.466 Y22.163 R2.161
G1 X99.459 Y22.161
G3 X98.503 Y21.735 R2.194
G1 X98.479 Y21.717
G3 X97.787 Y20.839 R2.317
G1 X97.779 Y20.821
G3 X98.277 Y18.138 R2.39
G1 X98.294 Y18.122
G3 X100.661 Y17.406 R2.644
X101.831 Y17.947 R2.711
G1 X101.95 Y18.042
G3 X102.93 Y19.944 R2.61
G1 X102.932 Y19.99
G3 X102.276 Y22.015 R2.969
G1 X102.27 Y22.023
G3 X101.737 Y22.539 R3.067
X100.378 Y23.124 R3.072
G1 X100.364 Y23.126
G3 X98.171 Y22.689 R3.176
G1 X98.158 Y22.681
G3 X97.044 Y21.509 R3.209
G1 X97.022 Y21.468
G3 X96.667 Y19.176 R3.365
G1 X96.685 Y19.089
G3 X96.888 Y18.474 R2.674
G1 X96.929 Y18.387
G3 X97.376 Y17.677 R3.472
X97.978 Y17.096 R3.483
G1 X97.986 Y17.09
G3 X99.572 Y16.416 R3.546
G1 X99.601 Y16.412
G3 X100.442 Y16.38 R3.558
G1 X100.452 Y16.381
G3 X101.288 Y16.554 R3.48
G1 X101.748 Y16.71
X102.473 Y17.211
X103.062 Y17.875
X103.121 Y17.984
X103.485 Y18.676
X103.696 Y19.533
X103.7 Y20.452
X103.486 Y21.322
X103.068 Y22.117
X102.461 Y22.798
X101.719 Y23.306
X100.893 Y23.619
X99.983 Y23.726
X99.109 Y23.62
X98.28 Y23.306
X97.527 Y22.789
X96.932 Y22.118
X96.519 Y21.332
X96.484 Y21.201
X96.304 Y20.467
X96.3 Y19.548
X96.429 Y19.023
X96.514 Y18.678
X96.932 Y17.882
X97.523 Y17.215
X98.268 Y16.699
X99.109 Y16.38
X99.996 Y16.272
X100.027 Y16.275
X100.89 Y16.38
X101.748 Y16.71
G0 Z16.
X99.261 Y19.845
G1 Z-11.402 F200.
G3 X99.27 Y19.836 Z-11.528 R0.75 F440.
X99.299 Y19.809 Z-11.648 R0.75
X99.347 Y19.768 Z-11.757 R0.75
X99.417 Y19.72 Z-11.85 R0.75
X99.508 Y19.673 Z-11.924 R0.75
X99.62 Y19.635 Z-11.975 R0.75
X99.744 Y19.614 Z-12. R0.75
X99.865 Y21.109 Z-12.206 R0.75
X99.744 Y19.614 Z-12.412 R0.75
X99.865 Y21.109 Z-12.618 R0.75
X99.744 Y19.614 Z-12.825 R0.75
X99.865 Y21.109 Z-13.031 R0.75
X99.744 Y19.614 Z-13.237 R0.75
X99.865 Y21.109 Z-13.443 R0.75
X99.744 Y19.614 Z-13.649 R0.75
X99.865 Y21.109 Z-13.855 R0.75
X99.744 Y19.614 Z-14.061 R0.75
X99.865 Y21.109 Z-14.268 R0.75
X99.744 Y19.614 Z-14.474 R0.75
X99.865 Y21.109 Z-14.68 R0.75
X99.744 Y19.614 Z-14.886 R0.75
X99.865 Y21.109 Z-15.092 R0.75
X99.744 Y19.614 Z-15.298 R0.75
X99.865 Y21.109 Z-15.504 R0.75
X99.744 Y19.614 Z-15.711 R0.75
X99.865 Y21.109 Z-15.917 R0.75
X99.744 Y19.614 Z-16.123 R0.75
X99.865 Y21.109 Z-16.329 R0.75
X99.744 Y19.614 Z-16.535 R0.75
X99.865 Y21.109 Z-16.741 R0.75
X99.744 Y19.614 Z-16.947 R0.75
X99.865 Y21.109 Z-17.154 R0.75
X99.744 Y19.614 Z-17.36 R0.75
X99.865 Y21.109 Z-17.566 R0.75
X99.744 Y19.614 Z-17.772 R0.75
X99.865 Y21.109 Z-17.978 R0.75
X99.744 Y19.614 Z-18.184 R0.75
X99.865 Y21.109 Z-18.39 R0.75
X99.744 Y19.614 Z-18.596 R0.75
X99.865 Y21.109 Z-18.803 R0.75
X99.744 Y19.614 Z-19.009 R0.75
X99.865 Y21.109 Z-19.215 R0.75
X99.744 Y19.614 Z-19.421 R0.75
X99.865 Y21.109 Z-19.627 R0.75
X99.744 Y19.614 Z-19.833 R0.75
X99.865 Y21.109 Z-20.039 R0.75
X99.744 Y19.614 Z-20.246 R0.75
X99.865 Y21.109 Z-20.452 R0.75
X99.744 Y19.614 Z-20.658 R0.75
X99.865 Y21.109 Z-20.864 R0.75
X99.744 Y19.614 Z-21.07 R0.75
X99.865 Y21.109 Z-21.276 R0.75
X99.744 Y19.614 Z-21.482 R0.75
X99.865 Y21.109 Z-21.689 R0.75
X99.744 Y19.614 Z-21.895 R0.75
X99.865 Y21.109 Z-22.101 R0.75
X99.744 Y19.614 Z-22.307 R0.75
X99.865 Y21.109 Z-22.513 R0.75
X99.744 Y19.614 Z-22.719 R0.75
X99.865 Y21.109 Z-22.925 R0.75
X99.744 Y19.614 Z-23.132 R0.75
X99.865 Y21.109 Z-23.338 R0.75
X99.744 Y19.614 Z-23.544 R0.75
X99.865 Y21.109 Z-23.75 R0.75
X99.744 Y19.614 Z-23.956 R0.75
X99.865 Y21.109 Z-24.162 R0.75
X99.744 Y19.614 Z-24.368 R0.75
X99.865 Y21.109 Z-24.575 R0.75
X99.744 Y19.614 Z-24.781 R0.75
X99.865 Y21.109 Z-24.987 R0.75
X99.744 Y19.614 Z-25.193 R0.75
X99.865 Y21.109 Z-25.399 R0.75
X99.744 Y19.614 Z-25.605 R0.75
X99.865 Y21.109 Z-25.811 R0.75
X99.744 Y19.614 Z-26.018 R0.75
X99.865 Y21.109 Z-26.224 R0.75
X99.744 Y19.614 Z-26.43 R0.75
X99.865 Y21.109 Z-26.636 R0.75
X99.744 Y19.614 Z-26.842 R0.75
X99.865 Y21.109 Z-27.048 R0.75
X99.744 Y19.614 Z-27.254 R0.75
X99.865 Y21.109 Z-27.461 R0.75
X99.432 Y21.012 Z-27.5 R0.75
X99.219 Y20.205 R0.59
X100.027 Y19.992 R0.59
G1 X100.043 Y20.002
G3 X100.066 Y20.033 R0.047
G1 X100.07 Y20.05
G3 X100.058 Y20.116 R0.089
G1 X100.048 Y20.131
G3 X99.976 Y20.186 R0.133
G1 X99.964 Y20.19
G3 X99.848 Y20.185 R0.168
G1 X99.824 Y20.175
G3 X99.709 Y20.073 R0.24
G1 X99.702 Y20.061
G3 X99.666 Y19.889 R0.282
G1 X99.668 Y19.869
G3 X99.761 Y19.672 R0.341
G1 X99.779 Y19.653
G3 X100.005 Y19.531 R0.42
G1 X100.014 Y19.529
G3 X100.283 Y19.561 R0.449
G1 X100.299 Y19.568
G3 X100.526 Y19.774 R0.504
G1 X100.54 Y19.798
G3 X100.619 Y20.147 R0.593
G1 X100.618 Y20.154
G3 X100.48 Y20.493 R0.615
G1 X100.467 Y20.509
G3 X100.124 Y20.733 R0.683
G1 X100.073 Y20.747
G3 X99.325 Y20.551 R0.764
G1 X99.316 Y20.541
G3 X99.162 Y20.331 R0.859
G1 X99.16 Y20.326
G3 X99.073 Y20.072 R0.894
X99.059 Y19.911 R0.905
X99.065 Y19.802 R0.905
G1 X99.067 Y19.791
G3 X99.301 Y19.268 R0.967
G1 X99.306 Y19.262
G3 X99.555 Y19.057 R1.026
G1 X99.559 Y19.054
G3 X100.161 Y18.91 R1.054
G1 X100.166 Y18.911
G3 X100.488 Y18.981 R1.097
X100.786 Y19.149 R1.126
G1 X100.792 Y19.153
G3 X101.015 Y19.391 R1.079
G1 X101.133 Y19.562
X101.212 Y19.918
X101.186 Y20.271
X101.054 Y20.605
X100.826 Y20.892
X100.532 Y21.092
X100.179 Y21.203
X99.821
X99.479 Y21.098
X99.173 Y20.89
X98.947 Y20.608
X98.814 Y20.27
X98.788 Y19.918
X98.868 Y19.558
X99.044 Y19.251
X99.316 Y18.996
X99.653 Y18.836
X100. Y18.784
X100.358 Y18.838
X100.685 Y18.995
X100.945 Y19.237
X101.133 Y19.562
G0 Z16.
X138.723 Y20.416
Z1.098
G1 X138.721 Y20.414 Z1.041 F440.
G3 X138.701 Y20.392 Z0.906 R0.75
X138.664 Y20.346 Z0.78 R0.75
X138.617 Y20.274 Z0.672 R0.75
X138.57 Y20.176 Z0.586 R0.75
X138.533 Y20.056 Z0.528 R0.75
X138.517 Y19.921 Z0.5 R0.75
X140.017 Y19.879 Z0.294 R0.75
X138.517 Y19.921 Z0.088 R0.75
X140.017 Y19.879 Z-0.118 R0.75
X138.517 Y19.921 Z-0.325 R0.75
X140.017 Y19.879 Z-0.531 R0.75
X138.517 Y19.921 Z-0.737 R0.75
X140.017 Y19.879 Z-0.943 R0.75
X138.517 Y19.921 Z-1.149 R0.75
X140.017 Y19.879 Z-1.355 R0.75
X138.517 Y19.921 Z-1.561 R0.75
X140.017 Y19.879 Z-1.768 R0.75
X138.517 Y19.921 Z-1.974 R0.75
X140.017 Y19.879 Z-2.18 R0.75
X138.517 Y19.921 Z-2.386 R0.75
X140.017 Y19.879 Z-2.592 R0.75
X138.517 Y19.921 Z-2.798 R0.75
X140.017 Y19.879 Z-3.004 R0.75
X138.517 Y19.921 Z-3.211 R0.75
X140.017 Y19.879 Z-3.417 R0.75
X138.517 Y19.921 Z-3.623 R0.75
X140.017 Y19.879 Z-3.829 R0.75
X138.517 Y19.921 Z-4.035 R0.75
X140.017 Y19.879 Z-4.241 R0.75
X138.517 Y19.921 Z-4.447 R0.75
X140.017 Y19.879 Z-4.654 R0.75
X138.517 Y19.921 Z-4.86 R0.75
X140.017 Y19.879 Z-5.066 R0.75
X138.517 Y19.921 Z-5.272 R0.75
X140.017 Y19.879 Z-5.478 R0.75
X138.517 Y19.921 Z-5.684 R0.75
X140.017 Y19.879 Z-5.89 R0.75
X138.517 Y19.921 Z-6.096 R0.75
X140.017 Y19.879 Z-6.303 R0.75
X138.517 Y19.921 Z-6.509 R0.75
X140.017 Y19.879 Z-6.715 R0.75
X138.517 Y19.921 Z-6.921 R0.75
X140.017 Y19.879 Z-7.127 R0.75
X138.517 Y19.921 Z-7.333 R0.75
X140.017 Y19.879 Z-7.539 R0.75
X138.517 Y19.921 Z-7.746 R0.75
X140.017 Y19.879 Z-7.952 R0.75
X138.517 Y19.921 Z-8.158 R0.75
X140.017 Y19.879 Z-8.364 R0.75
X138.517 Y19.921 Z-8.57 R0.75
X140.017 Y19.879 Z-8.776 R0.75
X138.517 Y19.921 Z-8.982 R0.75
X140.017 Y19.879 Z-9.189 R0.75
X138.517 Y19.921 Z-9.395 R0.75
X140.017 Y19.879 Z-9.601 R0.75
X138.517 Y19.921 Z-9.807 R0.75
X140.017 Y19.879 Z-10.013 R0.75
X138.517 Y19.921 Z-10.219 R0.75
X140.017 Y19.879 Z-10.425 R0.75
X138.517 Y19.921 Z-10.632 R0.75
X140.017 Y19.879 Z-10.838 R0.75
X138.517 Y19.921 Z-11.044 R0.75
X140.017 Y19.879 Z-11.25 R0.75
X138.517 Y19.921 Z-11.456 R0.75
X140.017 Y19.879 Z-11.662 R0.75
X138.517 Y19.921 Z-11.868 R0.75
X140.017 Y19.879 Z-12.075 R0.75
X138.517 Y19.921 Z-12.281 R0.75
X139.321 Y19.152 Z-12.39 R0.75
X140.006 Y20.028 Z-12.5 R0.75
G1 X140.003 Y20.044
G3 X139.983 Y20.085 R0.078
G1 X139.966 Y20.102
G3 X139.91 Y20.123 R0.069
G1 X139.866 Y20.119
G3 X139.784 Y20.088 R0.168
G1 X139.776 Y20.082
G3 X139.702 Y19.984 R0.204
G1 X139.694 Y19.96
G3 X139.685 Y19.8 R0.284
G1 X139.69 Y19.778
G3 X139.782 Y19.611 R0.361
X139.997 Y19.501 R0.366
G1 X140.06 Y19.493
G3 X140.456 Y19.591 R0.546
G1 X140.471 Y19.602
G3 X140.706 Y19.975 R0.592
G1 X140.714 Y20.02
G3 X140.61 Y20.534 R0.706
G1 X140.587 Y20.569
G3 X140.112 Y20.909 R0.812
G1 X140.045 Y20.927
G3 X139.092 Y20.638 R0.957
G1 X139.08 Y20.625
G3 X138.83 Y20.15 R1.102
G1 X138.826 Y20.133
G3 X138.834 Y19.552 R1.171
G1 X138.841 Y19.525
G3 X139.647 Y18.656 R1.275
G1 X139.674 Y18.646
G3 X140.342 Y18.581 R1.398
G1 X140.355 Y18.583
G3 X141.001 Y18.847 R1.452
G1 X141.018 Y18.859
G3 X141.493 Y19.428 R1.534
G1 X141.497 Y19.436
G3 X141.654 Y20.178 R1.569
G1 X141.653 Y20.209
G3 X141.427 Y20.994 R1.694
X140.871 Y21.578 R1.703
G1 X140.85 Y21.591
G3 X140.012 Y21.872 R1.803
G1 X139.989 Y21.874
G3 X139.084 Y21.72 R1.898
G1 X139.079 Y21.718
G3 X138.35 Y21.159 R1.919
G1 X138.336 Y21.141
G3 X137.93 Y20.257 R2.011
G1 X137.926 Y20.238
G3 X137.981 Y19.238 R2.093
G1 X138.05 Y19.013
G3 X138.411 Y18.425 R1.368
G1 X138.436 Y18.402
G3 X142.551 Y20.316 R2.434
X141.294 Y22.38 R2.606
G1 X141.188 Y22.444
G3 X138.362 Y22.432 R2.721
G1 X138.343 Y22.42
G3 X137.328 Y21.372 R2.934
G1 X137.316 Y21.35
G3 X137.269 Y18.49 R2.975
G1 X137.334 Y18.366
G3 X139.578 Y16.739 R3.131
G1 X139.59 Y16.737
G3 X140.415 Y16.701 R3.315
G1 X140.421
G3 X141.921 Y17.199 R3.335
G1 X141.927 Y17.203
G3 X143.07 Y18.385 R3.419
X143.396 Y19.143 R3.441
G1 X143.398 Y19.151
G3 X143.537 Y19.98 R3.505
G1 Y19.988
G3 X143.467 Y20.869 R3.568
X142.743 Y22.399 R3.566
G1 X142.731 Y22.414
G3 X142.115 Y23.007 R3.512
G1 X141.717 Y23.307
X140.908 Y23.614
X140. Y23.727
X139.094 Y23.614
X138.281 Y23.306
X137.529 Y22.79
X136.927 Y22.108
X136.52 Y21.332
X136.484 Y21.2
X136.304 Y20.467
X136.3 Y19.548
X136.488 Y18.783
X136.511 Y18.69
X136.926 Y17.894
X137.139 Y17.649
X137.528 Y17.21
X138.275 Y16.696
X139.094 Y16.386
X140. Y16.272
X140.908 Y16.386
X141.726 Y16.697
X142.473 Y17.21
X143.068 Y17.882
X143.481 Y18.669
X143.696 Y19.534
X143.7 Y20.45
X143.481 Y21.331
X143.074 Y22.106
X142.484 Y22.776
X141.717 Y23.307
G0 Z16.
X139.233 Y19.922
G1 Z-11.402 F200.
G3 X139.242 Y19.912 Z-11.528 R0.75 F440.
X139.268 Y19.883 Z-11.648 R0.75
X139.315 Y19.84 Z-11.757 R0.75
X139.382 Y19.789 Z-11.85 R0.75
X139.471 Y19.737 Z-11.924 R0.75
X139.581 Y19.694 Z-11.975 R0.75
X139.704 Y19.667 Z-12. R0.75
X139.9 Y21.154 Z-12.206 R0.75
X139.704 Y19.667 Z-12.412 R0.75
X139.9 Y21.154 Z-12.618 R0.75
X139.704 Y19.667 Z-12.825 R0.75
X139.9 Y21.154 Z-13.031 R0.75
X139.704 Y19.667 Z-13.237 R0.75
X139.9 Y21.154 Z-13.443 R0.75
X139.704 Y19.667 Z-13.649 R0.75
X139.9 Y21.154 Z-13.855 R0.75
X139.704 Y19.667 Z-14.061 R0.75
X139.9 Y21.154 Z-14.268 R0.75
X139.704 Y19.667 Z-14.474 R0.75
X139.9 Y21.154 Z-14.68 R0.75
X139.704 Y19.667 Z-14.886 R0.75
X139.9 Y21.154 Z-15.092 R0.75
X139.704 Y19.667 Z-15.298 R0.75
X139.9 Y21.154 Z-15.504 R0.75
X139.704 Y19.667 Z-15.711 R0.75
X139.9 Y21.154 Z-15.917 R0.75
X139.704 Y19.667 Z-16.123 R0.75
X139.9 Y21.154 Z-16.329 R0.75
X139.704 Y19.667 Z-16.535 R0.75
X139.9 Y21.154 Z-16.741 R0.75
X139.704 Y19.667 Z-16.947 R0.75
X139.9 Y21.154 Z-17.154 R0.75
X139.704 Y19.667 Z-17.36 R0.75
X139.9 Y21.154 Z-17.566 R0.75
X139.704 Y19.667 Z-17.772 R0.75
X139.9 Y21.154 Z-17.978 R0.75
X139.704 Y19.667 Z-18.184 R0.75
X139.9 Y21.154 Z-18.39 R0.75
X139.704 Y19.667 Z-18.596 R0.75
X139.9 Y21.154 Z-18.803 R0.75
X139.704 Y19.667 Z-19.009 R0.75
X139.9 Y21.154 Z-19.215 R0.75
X139.704 Y19.667 Z-19.421 R0.75
X139.9 Y21.154 Z-19.627 R0.75
X139.704 Y19.667 Z-19.833 R0.75
X139.9 Y21.154 Z-20.039 R0.75
X139.704 Y19.667 Z-20.246 R0.75
X139.9 Y21.154 Z-20.452 R0.75
X139.704 Y19.667 Z-20.658 R0.75
X139.9 Y21.154 Z-20.864 R0.75
X139.704 Y19.667 Z-21.07 R0.75
X139.9 Y21.154 Z-21.276 R0.75
X139.704 Y19.667 Z-21.482 R0.75
X139.9 Y21.154 Z-21.689 R0.75
X139.704 Y19.667 Z-21.895 R0.75
X139.9 Y21.154 Z-22.101 R0.75
X139.704 Y19.667 Z-22.307 R0.75
X139.9 Y21.154 Z-22.513 R0.75
X139.704 Y19.667 Z-22.719 R0.75
X139.9 Y21.154 Z-22.925 R0.75
X139.704 Y19.667 Z-23.132 R0.75
X139.9 Y21.154 Z-23.338 R0.75
X139.704 Y19.667 Z-23.544 R0.75
X139.9 Y21.154 Z-23.75 R0.75
X139.704 Y19.667 Z-23.956 R0.75
X139.9 Y21.154 Z-24.162 R0.75
X139.704 Y19.667 Z-24.368 R0.75
X139.9 Y21.154 Z-24.575 R0.75
X139.704 Y19.667 Z-24.781 R0.75
X139.9 Y21.154 Z-24.987 R0.75
X139.704 Y19.667 Z-25.193 R0.75
X139.9 Y21.154 Z-25.399 R0.75
X139.704 Y19.667 Z-25.605 R0.75
X139.9 Y21.154 Z-25.811 R0.75
X139.704 Y19.667 Z-26.018 R0.75
X139.9 Y21.154 Z-26.224 R0.75
X139.704 Y19.667 Z-26.43 R0.75
X139.9 Y21.154 Z-26.636 R0.75
X139.704 Y19.667 Z-26.842 R0.75
X139.9 Y21.154 Z-27.048 R0.75
X139.704 Y19.667 Z-27.254 R0.75
X139.9 Y21.154 Z-27.461 R0.75
X139.462 Y21.079 Z-27.5 R0.75
X139.197 Y20.253 R0.613
X140.023 Y19.989 R0.613
G1 X140.053 Y20.004
G3 X140.088 Y20.052 R0.066
G1 X140.09 Y20.066
G3 X140.074 Y20.137 R0.097
G1 X140.064 Y20.151
G3 X139.981 Y20.208 R0.141
G1 X139.955 Y20.214
G3 X139.817 Y20.2 R0.213
G1 X139.803 Y20.194
G3 X139.685 Y20.083 R0.257
G1 X139.677 Y20.069
G3 X139.644 Y19.878 R0.305
G1 X139.648 Y19.848
G3 X139.756 Y19.632 R0.395
G1 X139.76 Y19.628
G3 X139.982 Y19.51 R0.413
G1 X140.006 Y19.506
G3 X140.309 Y19.547 R0.491
G1 X140.326 Y19.555
G3 X140.565 Y19.781 R0.549
G1 X140.573 Y19.796
G3 X140.648 Y20.142 R0.605
G1 X140.647 Y20.156
G3 X140.495 Y20.522 R0.649
G1 X140.485 Y20.534
G3 X140.136 Y20.756 R0.7
G1 X140.077 Y20.772
G3 X139.296 Y20.562 R0.8
X139.136 Y20.341 R0.895
X139.045 Y20.074 R0.925
X139.031 Y19.911 R0.934
X139.038 Y19.796 R0.934
G1 X139.039 Y19.787
G3 X139.125 Y19.489 R0.991
G1 X139.128 Y19.482
G3 X139.534 Y19.034 R1.03
X139.828 Y18.914 R1.049
G1 X139.839 Y18.912
G3 X140.174 Y18.884 R1.118
X140.502 Y18.956 R1.119
X140.797 Y19.125 R1.096
G1 X140.957 Y19.253
X141.131 Y19.553
X141.212 Y19.918
X141.186 Y20.271
X141.055 Y20.604
X141.019 Y20.651
X140.827 Y20.891
X140.534 Y21.091
X140.19 Y21.199
X139.817 Y21.201
X139.467 Y21.092
X139.173 Y20.892
X138.947 Y20.608
X138.814 Y20.271
X138.788 Y19.918
X138.869 Y19.557
X139.058 Y19.233
X139.316 Y18.994
X139.638 Y18.84
X140.004 Y18.785
X140.362 Y18.839
X140.681 Y18.993
X140.957 Y19.253
G0 Z16.
X178.891 Y20.746
Z1.098
G1 X178.889 Y20.744 Z1.041 F440.
G3 X178.865 Y20.729 Z0.906 R0.75
X178.816 Y20.695 Z0.78 R0.75
X178.751 Y20.638 Z0.672 R0.75
X178.679 Y20.556 Z0.586 R0.75
X178.611 Y20.451 Z0.528 R0.75
X178.559 Y20.325 Z0.5 R0.75
X179.99 Y19.877 Z0.294 R0.75
X178.559 Y20.325 Z0.088 R0.75
X179.99 Y19.877 Z-0.118 R0.75
X178.559 Y20.325 Z-0.325 R0.75
X179.99 Y19.877 Z-0.531 R0.75
X178.559 Y20.325 Z-0.737 R0.75
X179.99 Y19.877 Z-0.943 R0.75
X178.559 Y20.325 Z-1.149 R0.75
X179.99 Y19.877 Z-1.355 R0.75
X178.559 Y20.325 Z-1.561 R0.75
X179.99 Y19.877 Z-1.768 R0.75
X178.559 Y20.325 Z-1.974 R0.75
X179.99 Y19.877 Z-2.18 R0.75
X178.559 Y20.325 Z-2.386 R0.75
X179.99 Y19.877 Z-2.592 R0.75
X178.559 Y20.325 Z-2.798 R0.75
X179.99 Y19.877 Z-3.004 R0.75
X178.559 Y20.325 Z-3.211 R0.75
X179.99 Y19.877 Z-3.417 R0.75
X178.559 Y20.325 Z-3.623 R0.75
X179.99 Y19.877 Z-3.829 R0.75
X178.559 Y20.325 Z-4.035 R0.75
X179.99 Y19.877 Z-4.241 R0.75
X178.559 Y20.325 Z-4.447 R0.75
X179.99 Y19.877 Z-4.654 R0.75
X178.559 Y20.325 Z-4.86 R0.75
X179.99 Y19.877 Z-5.066 R0.75
X178.559 Y20.325 Z-5.272 R0.75
X179.99 Y19.877 Z-5.478 R0.75
X178.559 Y20.325 Z-5.684 R0.75
X179.99 Y19.877 Z-5.89 R0.75
X178.559 Y20.325 Z-6.096 R0.75
X179.99 Y19.877 Z-6.303 R0.75
X178.559 Y20.325 Z-6.509 R0.75
X179.99 Y19.877 Z-6.715 R0.75
X178.559 Y20.325 Z-6.921 R0.75
X179.99 Y19.877 Z-7.127 R0.75
X178.559 Y20.325 Z-7.333 R0.75
X179.99 Y19.877 Z-7.539 R0.75
X178.559 Y20.325 Z-7.746 R0.75
X179.99 Y19.877 Z-7.952 R0.75
X178.559 Y20.325 Z-8.158 R0.75
X179.99 Y19.877 Z-8.364 R0.75
X178.559 Y20.325 Z-8.57 R0.75
X179.99 Y19.877 Z-8.776 R0.75
X178.559 Y20.325 Z-8.982 R0.75
X179.99 Y19.877 Z-9.189 R0.75
X178.559 Y20.325 Z-9.395 R0.75
X179.99 Y19.877 Z-9.601 R0.75
X178.559 Y20.325 Z-9.807 R0.75
X179.99 Y19.877 Z-10.013 R0.75
X178.559 Y20.325 Z-10.219 R0.75
X179.99 Y19.877 Z-10.425 R0.75
X178.559 Y20.325 Z-10.632 R0.75
X179.99 Y19.877 Z-10.838 R0.75
X178.559 Y20.325 Z-11.044 R0.75
X179.99 Y19.877 Z-11.25 R0.75
X178.559 Y20.325 Z-11.456 R0.75
X179.99 Y19.877 Z-11.662 R0.75
X178.559 Y20.325 Z-11.868 R0.75
X179.99 Y19.877 Z-12.075 R0.75
X178.559 Y20.325 Z-12.281 R0.75
X179.123 Y19.367 Z-12.39 R0.75
X180.021 Y20.024 Z-12.5 R0.75
G1 X180.024 Y20.052
G3 X180.022 Y20.079 R0.091
X179.96 Y20.158 R0.105
G1 X179.94 Y20.167
G3 X179.85 Y20.177 R0.155
G1 X179.831 Y20.173
G3 X179.719 Y20.116 R0.22
G1 X179.708 Y20.105
G3 X179.632 Y19.975 R0.273
G1 X179.625 Y19.948
G3 X179.63 Y19.75 R0.369
G1 X179.635 Y19.735
G3 X179.752 Y19.548 R0.426
X180.002 Y19.432 R0.432
G1 X180.069 Y19.425
G3 X180.513 Y19.549 R0.623
G1 X180.525 Y19.558
G3 X180.776 Y19.967 R0.663
G1 X180.788 Y20.034
G3 X180.401 Y20.855 R0.779
G1 X180.316 Y20.902
G3 X179.228 Y20.85 R1.032
X178.869 Y20.444 R1.123
G1 X178.861 Y20.428
G3 X178.726 Y19.87 R1.195
G1 Y19.845
G3 X178.885 Y19.23 R1.297
G1 X178.89 Y19.221
G3 X179.329 Y18.744 R1.339
G1 X179.344 Y18.734
G3 X179.986 Y18.508 R1.412
G1 X180.006 Y18.506
G3 X180.722 Y18.613 R1.496
G1 X180.736 Y18.618
G3 X181.339 Y19.064 R1.557
G1 X181.347 Y19.074
G3 X181.683 Y19.77 R1.608
G1 X181.688 Y19.797
G3 X181.652 Y20.638 R1.715
G1 X181.649 Y20.651
G3 X181.218 Y21.381 R1.768
G1 X181.204 Y21.395
G3 X180.46 Y21.858 R1.846
G1 X180.454 Y21.86
G3 X179.559 Y21.926 R1.872
G1 X179.524 Y21.92
G3 X178.629 Y21.529 R2.015
X178.022 Y20.767 R2.03
G1 X178.015 Y20.75
G3 X177.826 Y19.765 R2.102
G1 X177.827 Y19.738
G3 X178.14 Y18.714 R2.209
G1 X178.145 Y18.706
G3 X178.907 Y17.942 R2.245
G1 X178.924 Y17.932
G3 X179.987 Y17.601 R2.322
G1 X180.007 Y17.6
G3 X181.142 Y17.811 R2.402
G1 X181.157 Y17.817
G3 X182.085 Y18.549 R2.466
G1 X182.092 Y18.559
G3 X182.581 Y19.657 R2.514
G1 X182.586 Y19.684
G3 X182.499 Y20.959 R2.622
G1 X182.494 Y20.972
G3 X181.816 Y22.061 R2.677
G1 X181.722 Y22.153
G3 X179.659 Y22.912 R2.699
X177.727 Y22.02 R2.977
G1 X177.722 Y22.015
G3 X177.276 Y21.432 R3.038
X176.981 Y20.754 R3.063
X176.855 Y20.025 R3.086
G1 Y20.009
G3 X177.15 Y18.502 R3.177
X177.562 Y17.843 R3.216
X178.129 Y17.293 R3.252
X178.805 Y16.898 R3.266
G1 X178.812 Y16.895
G3 X179.602 Y16.664 R3.321
G1 X179.614 Y16.662
G3 X181.218 Y16.79 R3.386
X181.969 Y17.144 R3.43
X182.621 Y17.675 R3.465
X183.128 Y18.345 R3.486
X183.462 Y19.121 R3.522
G1 X183.465 Y19.13
G3 X183.608 Y19.986 R3.596
G1 X183.609 Y20.006
G3 X183.541 Y20.872 R3.538
X183.27 Y21.683 R3.505
G1 X183.056 Y22.131
X182.468 Y22.793
X181.719 Y23.306
X180.892 Y23.62
X180.018 Y23.726
X179.107 Y23.619
X178.26 Y23.296
X177.528 Y22.79
X176.932 Y22.118
X176.516 Y21.326
X176.304 Y20.466
X176.3 Y19.548
X176.514 Y18.678
X176.932 Y17.882
X177.528 Y17.21
X178.26 Y16.704
X179.107 Y16.381
X180.018 Y16.274
X180.892 Y16.38
X181.732 Y16.699
X182.472 Y17.21
X183.064 Y17.878
X183.478 Y18.663
X183.696 Y19.536
X183.7 Y20.452
X183.489 Y21.309
X183.056 Y22.131
G0 Z16.
X180.075 Y19.25
G1 Z-11.402 F200.
G3 X180.085 Y19.258 Z-11.528 R0.75 F440.
X180.115 Y19.283 Z-11.648 R0.75
X180.161 Y19.328 Z-11.757 R0.75
X180.216 Y19.392 Z-11.85 R0.75
X180.272 Y19.478 Z-11.924 R0.75
X180.321 Y19.585 Z-11.975 R0.75
X180.354 Y19.707 Z-12. R0.75
X178.879 Y19.981 Z-12.206 R0.75
X180.354 Y19.707 Z-12.412 R0.75
X178.879 Y19.981 Z-12.618 R0.75
X180.354 Y19.707 Z-12.825 R0.75
X178.879 Y19.981 Z-13.031 R0.75
X180.354 Y19.707 Z-13.237 R0.75
X178.879 Y19.981 Z-13.443 R0.75
X180.354 Y19.707 Z-13.649 R0.75
X178.879 Y19.981 Z-13.855 R0.75
X180.354 Y19.707 Z-14.061 R0.75
X178.879 Y19.981 Z-14.268 R0.75
X180.354 Y19.707 Z-14.474 R0.75
X178.879 Y19.981 Z-14.68 R0.75
X180.354 Y19.707 Z-14.886 R0.75
X178.879 Y19.981 Z-15.092 R0.75
X180.354 Y19.707 Z-15.298 R0.75
X178.879 Y19.981 Z-15.504 R0.75
X180.354 Y19.707 Z-15.711 R0.75
X178.879 Y19.981 Z-15.917 R0.75
X180.354 Y19.707 Z-16.123 R0.75
X178.879 Y19.981 Z-16.329 R0.75
X180.354 Y19.707 Z-16.535 R0.75
X178.879 Y19.981 Z-16.741 R0.75
X180.354 Y19.707 Z-16.947 R0.75
X178.879 Y19.981 Z-17.154 R0.75
X180.354 Y19.707 Z-17.36 R0.75
X178.879 Y19.981 Z-17.566 R0.75
X180.354 Y19.707 Z-17.772 R0.75
X178.879 Y19.981 Z-17.978 R0.75
X180.354 Y19.707 Z-18.184 R0.75
X178.879 Y19.981 Z-18.39 R0.75
X180.354 Y19.707 Z-18.596 R0.75
X178.879 Y19.981 Z-18.803 R0.75
X180.354 Y19.707 Z-19.009 R0.75
X178.879 Y19.981 Z-19.215 R0.75
X180.354 Y19.707 Z-19.421 R0.75
X178.879 Y19.981 Z-19.627 R0.75
X180.354 Y19.707 Z-19.833 R0.75
X178.879 Y19.981 Z-20.039 R0.75
X180.354 Y19.707 Z-20.246 R0.75
X178.879 Y19.981 Z-20.452 R0.75
X180.354 Y19.707 Z-20.658 R0.75
X178.879 Y19.981 Z-20.864 R0.75
X180.354 Y19.707 Z-21.07 R0.75
X178.879 Y19.981 Z-21.276 R0.75
X180.354 Y19.707 Z-21.482 R0.75
X178.879 Y19.981 Z-21.689 R0.75
X180.354 Y19.707 Z-21.895 R0.75
X178.879 Y19.981 Z-22.101 R0.75
X180.354 Y19.707 Z-22.307 R0.75
X178.879 Y19.981 Z-22.513 R0.75
X180.354 Y19.707 Z-22.719 R0.75
X178.879 Y19.981 Z-22.925 R0.75
X180.354 Y19.707 Z-23.132 R0.75
X178.879 Y19.981 Z-23.338 R0.75
X180.354 Y19.707 Z-23.544 R0.75
X178.879 Y19.981 Z-23.75 R0.75
X180.354 Y19.707 Z-23.956 R0.75
X178.879 Y19.981 Z-24.162 R0.75
X180.354 Y19.707 Z-24.368 R0.75
X178.879 Y19.981 Z-24.575 R0.75
X180.354 Y19.707 Z-24.781 R0.75
X178.879 Y19.981 Z-24.987 R0.75
X180.354 Y19.707 Z-25.193 R0.75
X178.879 Y19.981 Z-25.399 R0.75
X180.354 Y19.707 Z-25.605 R0.75
X178.879 Y19.981 Z-25.811 R0.75
X180.354 Y19.707 Z-26.018 R0.75
X178.879 Y19.981 Z-26.224 R0.75
X180.354 Y19.707 Z-26.43 R0.75
X178.879 Y19.981 Z-26.636 R0.75
X180.354 Y19.707 Z-26.842 R0.75
X178.879 Y19.981 Z-27.048 R0.75
X180.354 Y19.707 Z-27.254 R0.75
X178.879 Y19.981 Z-27.461 R0.75
X178.931 Y19.539 Z-27.5 R0.75
X180.005 Y20.027 R0.589
G1 X179.997 Y20.043
G3 X179.945 Y20.077 R0.058
G1 X179.923 Y20.076
G3 X179.847 Y20.042 R0.11
G1 X179.838 Y20.032
G3 X179.799 Y19.936 R0.144
G1 X179.798 Y19.911
G3 X179.842 Y19.781 R0.209
G1 X179.853 Y19.766
G3 X179.991 Y19.673 R0.263
G1 X180.005 Y19.669
G3 X180.197 Y19.677 R0.309
G1 X180.219 Y19.685
G3 X180.407 Y19.839 R0.38
G1 X180.417 Y19.854
G3 X180.483 Y20.108 R0.436
G1 Y20.122
G3 X180.38 Y20.394 R0.479
G1 X180.366 Y20.413
G3 X180.093 Y20.6 R0.554
G1 X180.08 Y20.604
G3 X179.722 Y20.6 R0.595
G1 X179.704 Y20.594
G3 X179.383 Y20.365 R0.655
G1 X179.372 Y20.351
G3 X179.23 Y19.947 R0.713
G1 X179.228 Y19.893
G3 X179.602 Y19.192 R0.793
G1 X179.61 Y19.187
G3 X179.86 Y19.08 R0.893
X180.093 Y19.051 R0.923
X180.139 Y19.052 R0.923
X180.412 Y19.107 R0.935
G1 X180.423 Y19.11
G3 X180.905 Y19.48 R1.007
X181.044 Y19.761 R1.028
G1 X181.047 Y19.771
G3 X181.053 Y20.411 R1.088
X180.908 Y20.721 R1.126
X180.689 Y20.962 R1.094
G1 X180.524 Y21.097
X180.181 Y21.203
X179.819
X179.472 Y21.096
X179.173 Y20.891
X178.95 Y20.612
X178.814 Y20.269
X178.788 Y19.918
X178.869 Y19.553
X179.049 Y19.242
X179.315 Y18.995
X179.641 Y18.838
X179.65 Y18.837
X180. Y18.784
X180.349 Y18.836
X180.682 Y18.995
X180.951 Y19.243
X181.132 Y19.558
X181.212 Y19.918
X181.186 Y20.271
X181.053 Y20.608
X180.835 Y20.881
X180.524 Y21.097
G0 Z16.
X180.328 Y61.304
Z1.098
G1 X180.326 Y61.306 Z1.041 F440.
G3 X180.303 Y61.324 Z0.906 R0.75
X180.254 Y61.357 Z0.78 R0.75
X180.179 Y61.399 Z0.672 R0.75
X180.078 Y61.44 Z0.586 R0.75
X179.955 Y61.468 Z0.528 R0.75
X179.82 Y61.474 Z0.5 R0.75
X179.882 Y59.976 Z0.294 R0.75
X179.82 Y61.474 Z0.088 R0.75
X179.882 Y59.976 Z-0.118 R0.75
X179.82 Y61.474 Z-0.325 R0.75
X179.882 Y59.976 Z-0.531 R0.75
X179.82 Y61.474 Z-0.737 R0.75
X179.882 Y59.976 Z-0.943 R0.75
X179.82 Y61.474 Z-1.149 R0.75
X179.882 Y59.976 Z-1.355 R0.75
X179.82 Y61.474 Z-1.561 R0.75
X179.882 Y59.976 Z-1.768 R0.75
X179.82 Y61.474 Z-1.974 R0.75
X179.882 Y59.976 Z-2.18 R0.75
X179.82 Y61.474 Z-2.386 R0.75
X179.882 Y59.976 Z-2.592 R0.75
X179.82 Y61.474 Z-2.798 R0.75
X179.882 Y59.976 Z-3.004 R0.75
X179.82 Y61.474 Z-3.211 R0.75
X179.882 Y59.976 Z-3.417 R0.75
X179.82 Y61.474 Z-3.623 R0.75
X179.882 Y59.976 Z-3.829 R0.75
X179.82 Y61.474 Z-4.035 R0.75
X179.882 Y59.976 Z-4.241 R0.75
X179.82 Y61.474 Z-4.447 R0.75
X179.882 Y59.976 Z-4.654 R0.75
X179.82 Y61.474 Z-4.86 R0.75
X179.882 Y59.976 Z-5.066 R0.75
X179.82 Y61.474 Z-5.272 R0.75
X179.882 Y59.976 Z-5.478 R0.75
X179.82 Y61.474 Z-5.684 R0.75
X179.882 Y59.976 Z-5.89 R0.75
X179.82 Y61.474 Z-6.096 R0.75
X179.882 Y59.976 Z-6.303 R0.75
X179.82 Y61.474 Z-6.509 R0.75
X179.882 Y59.976 Z-6.715 R0.75
X179.82 Y61.474 Z-6.921 R0.75
X179.882 Y59.976 Z-7.127 R0.75
X179.82 Y61.474 Z-7.333 R0.75
X179.882 Y59.976 Z-7.539 R0.75
X179.82 Y61.474 Z-7.746 R0.75
X179.882 Y59.976 Z-7.952 R0.75
X179.82 Y61.474 Z-8.158 R0.75
X179.882 Y59.976 Z-8.364 R0.75
X179.82 Y61.474 Z-8.57 R0.75
X179.882 Y59.976 Z-8.776 R0.75
X179.82 Y61.474 Z-8.982 R0.75
X179.882 Y59.976 Z-9.189 R0.75
X179.82 Y61.474 Z-9.395 R0.75
X179.882 Y59.976 Z-9.601 R0.75
X179.82 Y61.474 Z-9.807 R0.75
X179.882 Y59.976 Z-10.013 R0.75
X179.82 Y61.474 Z-10.219 R0.75
X179.882 Y59.976 Z-10.425 R0.75
X179.82 Y61.474 Z-10.632 R0.75
X179.882 Y59.976 Z-10.838 R0.75
X179.82 Y61.474 Z-11.044 R0.75
X179.882 Y59.976 Z-11.25 R0.75
X179.82 Y61.474 Z-11.456 R0.75
X179.882 Y59.976 Z-11.662 R0.75
X179.82 Y61.474 Z-11.868 R0.75
X179.882 Y59.976 Z-12.075 R0.75
X179.82 Y61.474 Z-12.281 R0.75
X179.109 Y60.619 Z-12.39 R0.75
X180.031 Y59.997 Z-12.5 R0.75
G1 X180.042 Y60.
G3 X180.081 Y60.028 R0.063
G1 X180.093 Y60.047
G3 X180.108 Y60.124 R0.117
G1 X180.106 Y60.138
G3 X180.064 Y60.224 R0.158
G1 X180.055 Y60.234
G3 X179.948 Y60.292 R0.198
G1 X179.914 Y60.298
G3 X179.749 Y60.282 R0.306
G1 X179.736 Y60.278
G3 X179.588 Y60.169 R0.354
X179.506 Y59.947 R0.362
G1 X179.504 Y59.879
G3 X179.654 Y59.492 R0.551
G1 X179.666 Y59.479
G3 X180.058 Y59.292 R0.597
G1 X180.123 Y59.287
G3 X180.823 Y59.717 R0.705
G1 X180.848 Y59.776
G3 X180.865 Y60.475 R0.958
G1 X180.852 Y60.512
G3 X180.009 Y61.179 R1.025
G1 X179.988 Y61.181
G3 X179.422 Y61.109 R1.183
G1 X179.41 Y61.105
G3 X178.919 Y60.757 R1.237
G1 X178.907 Y60.744
G3 X178.623 Y60.175 R1.306
G1 X178.618 Y60.153
G3 X178.634 Y59.484 R1.396
G1 X178.638 Y59.472
G3 X178.978 Y58.863 R1.449
G1 X178.987 Y58.853
G3 X179.603 Y58.456 R1.503
G1 X179.633 Y58.446
G3 X181.122 Y58.679 R1.628
G1 X181.144 Y58.695
G3 X181.681 Y59.344 R1.742
G1 X181.687 Y59.358
G3 X181.861 Y60.224 R1.802
G1 X181.86 Y60.245
G3 X181.602 Y61.109 R1.885
G1 X181.596 Y61.118
G3 X180.949 Y61.779 R1.926
G1 X180.931 Y61.79
G3 X180.008 Y62.086 R2.012
G1 X179.989 Y62.087
G3 X179.003 Y61.912 R2.09
G1 X178.989 Y61.906
G3 X178.173 Y61.272 R2.147
G1 X178.162 Y61.258
G3 X177.723 Y60.285 R2.217
G1 X177.719 Y60.264
G3 X177.787 Y59.165 R2.301
G1 X177.791 Y59.151
G3 X178.377 Y58.184 R2.359
G1 X178.386 Y58.175
G3 X179.385 Y57.577 R2.409
G1 X179.417 Y57.567
G3 X181.722 Y57.999 R2.536
G1 X181.742 Y58.015
G3 X182.527 Y59.022 R2.65
G1 X182.535 Y59.04
G3 X182.762 Y60.355 R2.726
G1 X182.752 Y60.48
G3 X181.686 Y62.446 R2.74
X181.068 Y62.81 R2.969
X179.865 Y63.062 R3.
X179.659 Y63.055 R3.
G1 X179.643 Y63.054
G3 X177.62 Y62.115 R3.12
G1 X177.615 Y62.11
G3 X177.15 Y61.498 R3.179
X176.712 Y60.027 R3.215
G1 Y60.009
G3 X177.024 Y58.436 R3.323
X177.455 Y57.748 R3.358
X178.048 Y57.176 R3.394
X178.755 Y56.764 R3.408
G1 X178.761 Y56.762
G3 X179.585 Y56.522 R3.464
G1 X179.597 Y56.52
G3 X182.023 Y57.014 R3.524
G1 X182.047 Y57.028
G3 X182.723 Y57.577 R3.575
G1 X182.73 Y57.584
G3 X183.239 Y58.259 R3.499
G1 X183.489 Y58.69
X183.698 Y59.541
X183.701 Y59.663
X183.697 Y60.462
X183.478 Y61.336
X183.064 Y62.122
X182.472 Y62.79
X181.732 Y63.301
X180.892 Y63.62
X180.018 Y63.726
X179.107 Y63.619
X178.26 Y63.296
X177.528 Y62.79
X176.932 Y62.118
X176.514 Y61.322
X176.303 Y60.466
X176.3 Y59.549
X176.514 Y58.678
X176.932 Y57.882
X177.528 Y57.21
X178.26 Y56.704
X179.107 Y56.381
X180.018 Y56.274
X180.892 Y56.38
X181.715 Y56.692
X182.467 Y57.207
X183.056 Y57.869
X183.489 Y58.69
G0 Z16.
X180.073 Y59.25
G1 Z-11.402 F200.
G3 X180.084 Y59.258 Z-11.528 R0.75 F440.
X180.114 Y59.283 Z-11.648 R0.75
X180.159 Y59.327 Z-11.757 R0.75
X180.214 Y59.392 Z-11.85 R0.75
X180.27 Y59.478 Z-11.924 R0.75
X180.32 Y59.585 Z-11.975 R0.75
X180.353 Y59.706 Z-12. R0.75
X178.879 Y59.983 Z-12.206 R0.75
X178.93 Y59.542 Z-12.246 R0.75
X180.302 Y60.148 Z-12.452 R0.75
X178.93 Y59.542 Z-12.658 R0.75
X180.302 Y60.148 Z-12.864 R0.75
X178.93 Y59.542 Z-13.07 R0.75
X180.302 Y60.148 Z-13.276 R0.75
X178.93 Y59.542 Z-13.482 R0.75
X180.302 Y60.148 Z-13.689 R0.75
X178.93 Y59.542 Z-13.895 R0.75
X180.302 Y60.148 Z-14.101 R0.75
X178.93 Y59.542 Z-14.307 R0.75
X180.302 Y60.148 Z-14.513 R0.75
X178.93 Y59.542 Z-14.719 R0.75
X180.302 Y60.148 Z-14.925 R0.75
X178.93 Y59.542 Z-15.132 R0.75
X180.302 Y60.148 Z-15.338 R0.75
X178.93 Y59.542 Z-15.544 R0.75
X180.302 Y60.148 Z-15.75 R0.75
X178.93 Y59.542 Z-15.956 R0.75
X180.302 Y60.148 Z-16.162 R0.75
X178.93 Y59.542 Z-16.368 R0.75
X180.302 Y60.148 Z-16.575 R0.75
X178.93 Y59.542 Z-16.781 R0.75
X180.302 Y60.148 Z-16.987 R0.75
X178.93 Y59.542 Z-17.193 R0.75
X180.302 Y60.148 Z-17.399 R0.75
X178.93 Y59.542 Z-17.605 R0.75
X180.302 Y60.148 Z-17.811 R0.75
X178.93 Y59.542 Z-18.018 R0.75
X180.302 Y60.148 Z-18.224 R0.75
X178.93 Y59.542 Z-18.43 R0.75
X180.302 Y60.148 Z-18.636 R0.75
X178.93 Y59.542 Z-18.842 R0.75
X180.302 Y60.148 Z-19.048 R0.75
X178.93 Y59.542 Z-19.254 R0.75
X180.302 Y60.148 Z-19.461 R0.75
X178.93 Y59.542 Z-19.667 R0.75
X180.302 Y60.148 Z-19.873 R0.75
X178.93 Y59.542 Z-20.079 R0.75
X180.302 Y60.148 Z-20.285 R0.75
X178.93 Y59.542 Z-20.491 R0.75
X180.302 Y60.148 Z-20.697 R0.75
X178.93 Y59.542 Z-20.904 R0.75
X180.302 Y60.148 Z-21.11 R0.75
X178.93 Y59.542 Z-21.316 R0.75
X180.302 Y60.148 Z-21.522 R0.75
X178.93 Y59.542 Z-21.728 R0.75
X180.302 Y60.148 Z-21.934 R0.75
X178.93 Y59.542 Z-22.14 R0.75
X180.302 Y60.148 Z-22.346 R0.75
X178.93 Y59.542 Z-22.553 R0.75
X180.302 Y60.148 Z-22.759 R0.75
X178.93 Y59.542 Z-22.965 R0.75
X180.302 Y60.148 Z-23.171 R0.75
X178.93 Y59.542 Z-23.377 R0.75
X180.302 Y60.148 Z-23.583 R0.75
X178.93 Y59.542 Z-23.789 R0.75
X180.302 Y60.148 Z-23.996 R0.75
X178.93 Y59.542 Z-24.202 R0.75
X180.302 Y60.148 Z-24.408 R0.75
X178.93 Y59.542 Z-24.614 R0.75
X180.302 Y60.148 Z-24.82 R0.75
X178.93 Y59.542 Z-25.026 R0.75
X180.302 Y60.148 Z-25.232 R0.75
X178.93 Y59.542 Z-25.439 R0.75
X180.302 Y60.148 Z-25.645 R0.75
X178.93 Y59.542 Z-25.851 R0.75
X180.302 Y60.148 Z-26.057 R0.75
X178.93 Y59.542 Z-26.263 R0.75
X180.302 Y60.148 Z-26.469 R0.75
X178.93 Y59.542 Z-26.675 R0.75
X180.302 Y60.148 Z-26.882 R0.75
X178.93 Y59.542 Z-27.088 R0.75
X180.302 Y60.148 Z-27.294 R0.75
X178.93 Y59.542 Z-27.5 R0.75
X180.005 Y60.027 R0.589
G1 X179.997 Y60.043
G3 X179.946 Y60.077 R0.057
G1 X179.921 Y60.075
G3 X179.844 Y60.038 R0.114
G1 X179.836 Y60.03
G3 X179.799 Y59.936 R0.143
G1 X179.798 Y59.912
G3 X179.842 Y59.78 R0.209
G1 X179.853 Y59.765
G3 X179.99 Y59.673 R0.263
G1 X180.004 Y59.669
G3 X180.198 Y59.679 R0.305
G1 X180.224 Y59.689
G3 X180.411 Y59.844 R0.39
G1 X180.418 Y59.854
G3 X180.484 Y60.104 R0.429
G1 X180.483 Y60.121
G3 X180.38 Y60.395 R0.481
G1 X180.366 Y60.413
G3 X180.093 Y60.6 R0.554
G1 X180.08 Y60.603
G3 X179.722 Y60.6 R0.596
G1 X179.704 Y60.594
G3 X179.383 Y60.366 R0.656
G1 X179.373 Y60.352
G3 X179.23 Y59.95 R0.71
G1 X179.228 Y59.895
G3 X179.602 Y59.191 R0.794
G1 X179.61 Y59.187
G3 X179.86 Y59.08 R0.892
X180.093 Y59.051 R0.924
X180.139 Y59.052 R0.924
X180.412 Y59.106 R0.936
G1 X180.42 Y59.109
G3 X180.683 Y59.252 R0.992
G1 X180.689 Y59.257
G3 X181.044 Y59.76 R1.021
G1 X181.047 Y59.768
G3 X181.053 Y60.411 R1.09
X180.908 Y60.721 R1.126
X180.689 Y60.962 R1.094
G1 X180.524 Y61.097
X180.181 Y61.203
X179.819
X179.472 Y61.096
X179.173 Y60.891
X178.947 Y60.608
X178.814 Y60.271
X178.788 Y59.916
X178.869 Y59.554
X179.049 Y59.242
X179.315 Y58.995
X179.641 Y58.838
X179.65 Y58.837
X180. Y58.784
X180.349 Y58.836
X180.676 Y58.992
X180.953 Y59.246
X181.131 Y59.554
X181.212 Y59.916
X181.186 Y60.271
X181.053 Y60.608
X180.835 Y60.881
X180.524 Y61.097
G0 Z16.
X220.841 Y61.043
Z1.098
G1 X220.84 Y61.046 Z1.041 F440.
G3 X220.826 Y61.071 Z0.906 R0.75
X220.796 Y61.122 Z0.78 R0.75
X220.745 Y61.192 Z0.672 R0.75
X220.67 Y61.271 Z0.586 R0.75
X220.57 Y61.347 Z0.528 R0.75
X220.45 Y61.409 Z0.5 R0.75
X219.883 Y60.02 Z0.294 R0.75
X220.45 Y61.409 Z0.088 R0.75
X219.883 Y60.02 Z-0.118 R0.75
X220.45 Y61.409 Z-0.325 R0.75
X219.883 Y60.02 Z-0.531 R0.75
X220.45 Y61.409 Z-0.737 R0.75
X219.883 Y60.02 Z-0.943 R0.75
X220.45 Y61.409 Z-1.149 R0.75
X219.883 Y60.02 Z-1.355 R0.75
X220.45 Y61.409 Z-1.561 R0.75
X219.883 Y60.02 Z-1.768 R0.75
X220.45 Y61.409 Z-1.974 R0.75
X219.883 Y60.02 Z-2.18 R0.75
X220.45 Y61.409 Z-2.386 R0.75
X219.883 Y60.02 Z-2.592 R0.75
X220.45 Y61.409 Z-2.798 R0.75
X219.883 Y60.02 Z-3.004 R0.75
X220.45 Y61.409 Z-3.211 R0.75
X219.883 Y60.02 Z-3.417 R0.75
X220.45 Y61.409 Z-3.623 R0.75
X219.883 Y60.02 Z-3.829 R0.75
X220.45 Y61.409 Z-4.035 R0.75
X219.883 Y60.02 Z-4.241 R0.75
X220.45 Y61.409 Z-4.447 R0.75
X219.883 Y60.02 Z-4.654 R0.75
X220.45 Y61.409 Z-4.86 R0.75
X219.883 Y60.02 Z-5.066 R0.75
X220.45 Y61.409 Z-5.272 R0.75
X219.883 Y60.02 Z-5.478 R0.75
X220.45 Y61.409 Z-5.684 R0.75
X219.883 Y60.02 Z-5.89 R0.75
X220.45 Y61.409 Z-6.096 R0.75
X219.883 Y60.02 Z-6.303 R0.75
X220.45 Y61.409 Z-6.509 R0.75
X219.883 Y60.02 Z-6.715 R0.75
X220.45 Y61.409 Z-6.921 R0.75
X219.883 Y60.02 Z-7.127 R0.75
X220.45 Y61.409 Z-7.333 R0.75
X219.883 Y60.02 Z-7.539 R0.75
X220.45 Y61.409 Z-7.746 R0.75
X219.883 Y60.02 Z-7.952 R0.75
X220.45 Y61.409 Z-8.158 R0.75
X219.883 Y60.02 Z-8.364 R0.75
X220.45 Y61.409 Z-8.57 R0.75
X219.883 Y60.02 Z-8.776 R0.75
X220.45 Y61.409 Z-8.982 R0.75
X219.883 Y60.02 Z-9.189 R0.75
X220.45 Y61.409 Z-9.395 R0.75
X219.883 Y60.02 Z-9.601 R0.75
X220.45 Y61.409 Z-9.807 R0.75
X219.883 Y60.02 Z-10.013 R0.75
X220.45 Y61.409 Z-10.219 R0.75
X219.883 Y60.02 Z-10.425 R0.75
X220.45 Y61.409 Z-10.632 R0.75
X219.883 Y60.02 Z-10.838 R0.75
X220.45 Y61.409 Z-11.044 R0.75
X219.883 Y60.02 Z-11.25 R0.75
X220.45 Y61.409 Z-11.456 R0.75
X219.883 Y60.02 Z-11.662 R0.75
X220.45 Y61.409 Z-11.868 R0.75
X219.883 Y60.02 Z-12.075 R0.75
X220.45 Y61.409 Z-12.281 R0.75
X219.447 Y60.927 Z-12.39 R0.75
X220.027 Y59.978 Z-12.5 R0.75
G1 X220.039 Y59.976
X220.047 Y59.975
X220.061 Y59.976
G3 X220.13 Y60.015 R0.101
G1 X220.139 Y60.027
G3 X220.168 Y60.109 R0.139
G1 Y60.122
G3 X220.132 Y60.232 R0.178
G1 X220.115 Y60.256
G3 X219.998 Y60.344 R0.267
G1 X219.992 Y60.347
G3 X219.808 Y60.354 R0.285
G1 X219.747 Y60.336
G3 X219.437 Y59.922 R0.432
G1 Y59.866
G3 X219.612 Y59.44 R0.617
G1 X219.626 Y59.425
G3 X220.074 Y59.223 R0.67
G1 X220.112 Y59.221
G3 X220.641 Y59.397 R0.768
G1 X220.697 Y59.444
G3 X221.009 Y60.379 R0.934
G1 X221.005 Y60.395
G3 X220.769 Y60.85 R1.058
G1 X220.756 Y60.865
G3 X220.304 Y61.177 R1.139
G1 X220.288 Y61.183
G3 X219.708 Y61.251 R1.207
G1 X219.689 Y61.248
G3 X219.109 Y61.021 R1.284
G1 X219.098 Y61.013
G3 X218.678 Y60.526 R1.341
G1 X218.67 Y60.509
G3 X218.517 Y59.839 R1.416
G1 X218.518 Y59.818
G3 X218.712 Y59.112 R1.498
G1 X218.719 Y59.101
G3 X219.23 Y58.56 R1.552
G1 X219.247 Y58.549
G3 X219.991 Y58.296 R1.633
G1 X220.002 Y58.295
G3 X220.8 Y58.422 R1.679
G1 X220.826 Y58.433
G3 X221.52 Y58.955 R1.793
G1 X221.523 Y58.96
G3 X221.896 Y59.761 R1.817
G1 X221.901 Y59.787
G3 X221.854 Y60.708 R1.927
G1 X221.851 Y60.717
G3 X221.371 Y61.527 R1.964
G1 X221.356 Y61.542
G3 X220.519 Y62.057 R2.051
G1 X220.504 Y62.062
G3 X219.493 Y62.13 R2.113
G1 X219.473 Y62.127
G3 X218.507 Y61.698 R2.195
G1 X218.496 Y61.69
G3 X217.83 Y60.846 R2.25
G1 X217.823 Y60.83
G3 X217.618 Y59.734 R2.321
G1 X217.619 Y59.712
G3 X217.968 Y58.596 R2.408
G1 X217.975 Y58.585
G3 X218.811 Y57.756 R2.462
G1 X218.827 Y57.747
G3 X219.99 Y57.39 R2.537
G1 X220.002
G3 X221.219 Y57.619 R2.586
G1 X221.246 Y57.631
G3 X222.265 Y58.44 R2.705
G1 X222.337 Y58.534
G3 X222.851 Y60.709 R2.709
X222.634 Y61.375 R2.909
G1 X222.631 Y61.383
G3 X222.252 Y61.993 R2.977
X221.739 Y62.494 R2.991
G1 X221.734 Y62.498
G3 X221.086 Y62.878 R3.043
G1 X221.076 Y62.883
G3 X219.631 Y63.127 R3.094
G1 X219.625
G3 X218.172 Y62.65 R3.152
G1 X218.163 Y62.645
G3 X217.09 Y61.531 R3.223
G1 X217.082 Y61.517
G3 X216.64 Y60.015 R3.311
X216.636 Y59.85 R3.394
X217.402 Y57.703 R3.394
G1 X217.407 Y57.697
G3 X218.016 Y57.113 R3.463
G1 X218.026 Y57.106
G3 X219.571 Y56.45 R3.526
X220.147 Y56.403 R3.576
X221.269 Y56.584 R3.576
G1 X221.305 Y56.596
G3 X222.052 Y56.947 R3.433
G1 X222.473 Y57.211
X223.072 Y57.889
X223.486 Y58.678
X223.698 Y59.541
X223.701 Y59.663
X223.697 Y60.465
X223.486 Y61.322
X223.068 Y62.118
X222.477 Y62.785
X221.733 Y63.3
X220.877 Y63.621
X220.008 Y63.727
X219.113 Y63.62
X219.055 Y63.599
X218.269 Y63.301
X217.522 Y62.783
X216.936 Y62.123
X216.51 Y61.303
X216.303 Y60.466
X216.3 Y59.549
X216.514 Y58.678
X216.931 Y57.883
X217.534 Y57.207
X218.285 Y56.692
X219.107 Y56.381
X220.003 Y56.272
X220.877 Y56.379
X221.717 Y56.694
X222.473 Y57.211
G0 Z16.
X220.015 Y59.229
G1 Z-11.402 F200.
G3 X220.026 Y59.237 Z-11.528 R0.75 F440.
X220.056 Y59.261 Z-11.648 R0.75
X220.103 Y59.304 Z-11.757 R0.75
X220.16 Y59.367 Z-11.85 R0.75
X220.219 Y59.451 Z-11.924 R0.75
X220.271 Y59.556 Z-11.975 R0.75
X220.308 Y59.677 Z-12. R0.75
X218.842 Y59.995 Z-12.206 R0.75
X220.308 Y59.677 Z-12.412 R0.75
X218.842 Y59.995 Z-12.618 R0.75
X220.308 Y59.677 Z-12.825 R0.75
X218.842 Y59.995 Z-13.031 R0.75
X220.308 Y59.677 Z-13.237 R0.75
X218.842 Y59.995 Z-13.443 R0.75
X220.308 Y59.677 Z-13.649 R0.75
X218.842 Y59.995 Z-13.855 R0.75
X220.308 Y59.677 Z-14.061 R0.75
X218.842 Y59.995 Z-14.268 R0.75
X220.308 Y59.677 Z-14.474 R0.75
X218.842 Y59.995 Z-14.68 R0.75
X220.308 Y59.677 Z-14.886 R0.75
X218.842 Y59.995 Z-15.092 R0.75
X220.308 Y59.677 Z-15.298 R0.75
X218.842 Y59.995 Z-15.504 R0.75
X220.308 Y59.677 Z-15.711 R0.75
X218.842 Y59.995 Z-15.917 R0.75
X220.308 Y59.677 Z-16.123 R0.75
X218.842 Y59.995 Z-16.329 R0.75
X220.308 Y59.677 Z-16.535 R0.75
X218.842 Y59.995 Z-16.741 R0.75
X220.308 Y59.677 Z-16.947 R0.75
X218.842 Y59.995 Z-17.154 R0.75
X220.308 Y59.677 Z-17.36 R0.75
X218.842 Y59.995 Z-17.566 R0.75
X220.308 Y59.677 Z-17.772 R0.75
X218.842 Y59.995 Z-17.978 R0.75
X220.308 Y59.677 Z-18.184 R0.75
X218.842 Y59.995 Z-18.39 R0.75
X220.308 Y59.677 Z-18.596 R0.75
X218.842 Y59.995 Z-18.803 R0.75
X220.308 Y59.677 Z-19.009 R0.75
X218.842 Y59.995 Z-19.215 R0.75
X220.308 Y59.677 Z-19.421 R0.75
X218.842 Y59.995 Z-19.627 R0.75
X220.308 Y59.677 Z-19.833 R0.75
X218.842 Y59.995 Z-20.039 R0.75
X220.308 Y59.677 Z-20.246 R0.75
X218.842 Y59.995 Z-20.452 R0.75
X220.308 Y59.677 Z-20.658 R0.75
X218.842 Y59.995 Z-20.864 R0.75
X220.308 Y59.677 Z-21.07 R0.75
X218.842 Y59.995 Z-21.276 R0.75
X220.308 Y59.677 Z-21.482 R0.75
X218.842 Y59.995 Z-21.689 R0.75
X220.308 Y59.677 Z-21.895 R0.75
X218.842 Y59.995 Z-22.101 R0.75
X220.308 Y59.677 Z-22.307 R0.75
X218.842 Y59.995 Z-22.513 R0.75
X220.308 Y59.677 Z-22.719 R0.75
X218.842 Y59.995 Z-22.925 R0.75
X220.308 Y59.677 Z-23.132 R0.75
X218.842 Y59.995 Z-23.338 R0.75
X220.308 Y59.677 Z-23.544 R0.75
X218.842 Y59.995 Z-23.75 R0.75
X220.308 Y59.677 Z-23.956 R0.75
X218.842 Y59.995 Z-24.162 R0.75
X220.308 Y59.677 Z-24.368 R0.75
X218.842 Y59.995 Z-24.575 R0.75
X220.308 Y59.677 Z-24.781 R0.75
X218.842 Y59.995 Z-24.987 R0.75
X220.308 Y59.677 Z-25.193 R0.75
X218.842 Y59.995 Z-25.399 R0.75
X220.308 Y59.677 Z-25.605 R0.75
X218.842 Y59.995 Z-25.811 R0.75
X220.308 Y59.677 Z-26.018 R0.75
X218.842 Y59.995 Z-26.224 R0.75
X220.308 Y59.677 Z-26.43 R0.75
X218.842 Y59.995 Z-26.636 R0.75
X220.308 Y59.677 Z-26.842 R0.75
X218.842 Y59.995 Z-27.048 R0.75
X220.308 Y59.677 Z-27.254 R0.75
X218.842 Y59.995 Z-27.461 R0.75
X218.881 Y59.553 Z-27.5 R0.75
X220.015 Y60.022 R0.614
G1 X220. Y60.057
G3 X219.962 Y60.092 R0.062
G1 X219.95 Y60.096
G3 X219.875 Y60.087 R0.092
G1 X219.853 Y60.074
G3 X219.786 Y59.99 R0.15
G1 X219.78 Y59.97
G3 X219.786 Y59.834 R0.205
G1 X219.794 Y59.815
G3 X219.898 Y59.689 R0.264
G1 X219.914 Y59.68
G3 X220.106 Y59.632 R0.319
G1 X220.123 Y59.633
G3 X220.336 Y59.719 R0.372
G1 X220.351 Y59.732
G3 X220.492 Y59.955 R0.433
G1 X220.496 Y59.971
G3 X220.479 Y60.268 R0.485
G1 X220.471 Y60.286
G3 X220.261 Y60.546 R0.546
G1 X220.245 Y60.556
G3 X219.9 Y60.656 R0.609
G1 X219.889 Y60.655
G3 X219.522 Y60.532 R0.644
G1 X219.502 Y60.518
G3 X219.246 Y60.176 R0.723
G1 X219.234 Y60.141
G3 X219.385 Y59.342 R0.803
X219.858 Y59.052 R0.928
X220.097 Y59.022 R0.966
X220.149 Y59.024 R0.966
X220.438 Y59.084 R0.977
X220.707 Y59.232 R1.009
X220.927 Y59.462 R1.034
G1 X220.93 Y59.466
G3 X221.073 Y59.757 R1.072
G1 X221.075 Y59.763
G3 X221.08 Y60.42 R1.115
X220.942 Y60.716 R1.099
G1 X220.823 Y60.894
X220.531 Y61.093
X220.168 Y61.203
X219.819
X219.472 Y61.096
X219.182 Y60.898
X218.946 Y60.605
X218.814 Y60.271
X218.788 Y59.916
X218.869 Y59.554
X219.045 Y59.249
X219.318 Y58.994
X219.641 Y58.838
X220.003 Y58.784
X220.358 Y58.838
X220.684 Y58.995
X220.95 Y59.241
X221.132 Y59.559
X221.212 Y59.917
X221.186 Y60.271
X221.058 Y60.595
X220.823 Y60.894
G0 Z16.
X258.672 Y60.113
Z1.098
G1 X258.671 Y60.111 Z1.041 F440.
G3 X258.657 Y60.085 Z0.906 R0.75
X258.632 Y60.032 Z0.78 R0.75
X258.602 Y59.951 Z0.672 R0.75
X258.579 Y59.844 Z0.586 R0.75
X258.571 Y59.719 Z0.528 R0.75
X258.587 Y59.584 Z0.5 R0.75
X260.055 Y59.888 Z0.294 R0.75
X258.587 Y59.584 Z0.088 R0.75
X260.055 Y59.888 Z-0.118 R0.75
X258.587 Y59.584 Z-0.325 R0.75
X260.055 Y59.888 Z-0.531 R0.75
X258.587 Y59.584 Z-0.737 R0.75
X260.055 Y59.888 Z-0.943 R0.75
X258.587 Y59.584 Z-1.149 R0.75
X260.055 Y59.888 Z-1.355 R0.75
X258.587 Y59.584 Z-1.561 R0.75
X260.055 Y59.888 Z-1.768 R0.75
X258.587 Y59.584 Z-1.974 R0.75
X260.055 Y59.888 Z-2.18 R0.75
X258.587 Y59.584 Z-2.386 R0.75
X260.055 Y59.888 Z-2.592 R0.75
X258.587 Y59.584 Z-2.798 R0.75
X260.055 Y59.888 Z-3.004 R0.75
X258.587 Y59.584 Z-3.211 R0.75
X260.055 Y59.888 Z-3.417 R0.75
X258.587 Y59.584 Z-3.623 R0.75
X260.055 Y59.888 Z-3.829 R0.75
X258.587 Y59.584 Z-4.035 R0.75
X260.055 Y59.888 Z-4.241 R0.75
X258.587 Y59.584 Z-4.447 R0.75
X260.055 Y59.888 Z-4.654 R0.75
X258.587 Y59.584 Z-4.86 R0.75
X260.055 Y59.888 Z-5.066 R0.75
X258.587 Y59.584 Z-5.272 R0.75
X260.055 Y59.888 Z-5.478 R0.75
X258.587 Y59.584 Z-5.684 R0.75
X260.055 Y59.888 Z-5.89 R0.75
X258.587 Y59.584 Z-6.096 R0.75
X260.055 Y59.888 Z-6.303 R0.75
X258.587 Y59.584 Z-6.509 R0.75
X260.055 Y59.888 Z-6.715 R0.75
X258.587 Y59.584 Z-6.921 R0.75
X260.055 Y59.888 Z-7.127 R0.75
X258.587 Y59.584 Z-7.333 R0.75
X260.055 Y59.888 Z-7.539 R0.75
X258.587 Y59.584 Z-7.746 R0.75
X260.055 Y59.888 Z-7.952 R0.75
X258.587 Y59.584 Z-8.158 R0.75
X260.055 Y59.888 Z-8.364 R0.75
X258.587 Y59.584 Z-8.57 R0.75
X260.055 Y59.888 Z-8.776 R0.75
X258.587 Y59.584 Z-8.982 R0.75
X260.055 Y59.888 Z-9.189 R0.75
X258.587 Y59.584 Z-9.395 R0.75
X260.055 Y59.888 Z-9.601 R0.75
X258.587 Y59.584 Z-9.807 R0.75
X260.055 Y59.888 Z-10.013 R0.75
X258.587 Y59.584 Z-10.219 R0.75
X260.055 Y59.888 Z-10.425 R0.75
X258.587 Y59.584 Z-10.632 R0.75
X260.055 Y59.888 Z-10.838 R0.75
X258.587 Y59.584 Z-11.044 R0.75
X260.055 Y59.888 Z-11.25 R0.75
X258.587 Y59.584 Z-11.456 R0.75
X260.055 Y59.888 Z-11.662 R0.75
X258.587 Y59.584 Z-11.868 R0.75
X260.055 Y59.888 Z-12.075 R0.75
X258.587 Y59.584 Z-12.281 R0.75
X259.546 Y59.021 Z-12.39 R0.75
X260.01 Y60.031 Z-12.5 R0.75
G1 X259.994 Y60.07
G3 X259.861 Y60.125 R0.102
G1 X259.819 Y60.108
G3 X259.73 Y60.032 R0.189
G1 X259.718 Y60.013
G3 X259.678 Y59.882 R0.264
G1 Y59.871
G3 X259.72 Y59.705 R0.305
G1 X259.737 Y59.677
G3 X260.13 Y59.482 R0.404
G1 X260.189 Y59.488
G3 X260.569 Y59.694 R0.58
G1 X260.583 Y59.71
G3 X260.728 Y60.156 R0.634
G1 X260.725 Y60.199
G3 X260.497 Y60.688 R0.742
G1 X260.472 Y60.712
G3 X259.912 Y60.943 R0.833
G1 X259.832 Y60.945
G3 X258.933 Y60.417 R0.998
G1 X258.927 Y60.407
G3 X258.794 Y59.876 R1.129
G1 Y59.852
G3 X258.941 Y59.27 R1.224
G1 X258.945 Y59.262
G3 X259.357 Y58.81 R1.263
G1 X259.377 Y58.796
G3 X260.001 Y58.575 R1.359
G1 X260.016 Y58.574
G3 X260.689 Y58.673 R1.419
G1 X260.702 Y58.679
G3 X261.275 Y59.098 R1.478
G1 X261.289 Y59.114
G3 X261.62 Y59.801 R1.56
G1 X261.622 Y59.808
G3 X261.577 Y60.617 R1.586
G1 X261.558 Y60.674
G3 X260.444 Y61.788 R1.734
G1 X260.431 Y61.792
G3 X259.534 Y61.857 R1.877
G1 X259.528 Y61.856
G3 X258.694 Y61.492 R1.9
G1 X258.679 Y61.48
G3 X258.087 Y60.742 R1.979
G1 X258.081 Y60.729
G3 X257.894 Y59.77 R2.036
G1 X257.896 Y59.745
G3 X258.196 Y58.754 R2.136
G1 X258.201 Y58.747
G3 X258.937 Y58.007 R2.171
G1 X258.958 Y57.994
G3 X260.001 Y57.669 R2.268
G1 X260.014 Y57.668
G3 X261.109 Y57.871 R2.325
G1 X261.123 Y57.877
G3 X262.024 Y58.585 R2.39
G1 X262.035 Y58.6
G3 X262.519 Y59.691 R2.463
G1 X262.523 Y59.714
G3 X262.44 Y60.932 R2.558
G1 X262.358 Y61.187
G3 X261.908 Y61.902 R1.683
G1 X261.855 Y61.951
G3 X260.559 Y62.697 R3.248
X257.784 Y61.979 R2.773
G1 X257.776 Y61.97
G3 X257.342 Y61.403 R2.942
G1 X257.336 Y61.392
G3 X256.925 Y60.022 R3.015
G1 X256.924 Y60.009
G3 X257.606 Y57.901 R3.103
G1 X257.611 Y57.895
G3 X258.176 Y57.349 R3.181
G1 X258.185 Y57.342
G3 X260.38 Y56.697 R3.253
G1 X260.392 Y56.698
G3 X262.57 Y57.725 R3.354
G1 X262.581 Y57.736
G3 X263.404 Y59.163 R3.47
G1 X263.477 Y59.414
G3 X263.53 Y59.742 R1.346
G1 X263.54 Y60.014
G3 X263.196 Y61.683 R3.594
G1 X263.15 Y61.78
G3 X262.8 Y62.333 R2.707
G1 X262.722 Y62.428
G3 X262.128 Y63.001 R3.479
G1 X261.73 Y63.302
X260.894 Y63.619
X259.988 Y63.726
X259.114 Y63.62
X258.268 Y63.301
X257.528 Y62.79
X256.934 Y62.12
X256.513 Y61.315
X256.303 Y60.466
X256.3 Y59.549
X256.514 Y58.678
X256.538 Y58.634
X256.928 Y57.889
X257.527 Y57.211
X258.284 Y56.693
X259.114 Y56.38
X259.988 Y56.274
X260.894 Y56.381
X261.728 Y56.697
X261.767 Y56.723
X262.471 Y57.209
X263.076 Y57.898
X263.486 Y58.678
X263.698 Y59.541
X263.701 Y59.663
X263.697 Y60.465
X263.486 Y61.322
X263.076 Y62.103
X262.863 Y62.349
X262.484 Y62.777
X261.73 Y63.302
G0 Z16.
X259.246 Y59.816
G1 Z-11.402 F200.
G3 X259.256 Y59.808 Z-11.528 R0.75 F440.
X259.286 Y59.782 Z-11.648 R0.75
X259.338 Y59.745 Z-11.757 R0.75
X259.411 Y59.703 Z-11.85 R0.75
X259.505 Y59.663 Z-11.924 R0.75
X259.62 Y59.633 Z-11.975 R0.75
X259.745 Y59.622 Z-12. R0.75
X259.754 Y61.122 Z-12.206 R0.75
X259.745 Y59.622 Z-12.412 R0.75
X259.754 Y61.122 Z-12.618 R0.75
X259.745 Y59.622 Z-12.825 R0.75
X259.754 Y61.122 Z-13.031 R0.75
X259.745 Y59.622 Z-13.237 R0.75
X259.754 Y61.122 Z-13.443 R0.75
X259.745 Y59.622 Z-13.649 R0.75
X259.754 Y61.122 Z-13.855 R0.75
X259.745 Y59.622 Z-14.061 R0.75
X259.754 Y61.122 Z-14.268 R0.75
X259.745 Y59.622 Z-14.474 R0.75
X259.754 Y61.122 Z-14.68 R0.75
X259.745 Y59.622 Z-14.886 R0.75
X259.754 Y61.122 Z-15.092 R0.75
X259.745 Y59.622 Z-15.298 R0.75
X259.754 Y61.122 Z-15.504 R0.75
X259.745 Y59.622 Z-15.711 R0.75
X259.754 Y61.122 Z-15.917 R0.75
X259.745 Y59.622 Z-16.123 R0.75
X259.754 Y61.122 Z-16.329 R0.75
X259.745 Y59.622 Z-16.535 R0.75
X259.754 Y61.122 Z-16.741 R0.75
X259.745 Y59.622 Z-16.947 R0.75
X259.754 Y61.122 Z-17.154 R0.75
X259.745 Y59.622 Z-17.36 R0.75
X259.754 Y61.122 Z-17.566 R0.75
X259.745 Y59.622 Z-17.772 R0.75
X259.754 Y61.122 Z-17.978 R0.75
X259.745 Y59.622 Z-18.184 R0.75
X259.754 Y61.122 Z-18.39 R0.75
X259.745 Y59.622 Z-18.596 R0.75
X259.754 Y61.122 Z-18.803 R0.75
X259.745 Y59.622 Z-19.009 R0.75
X259.754 Y61.122 Z-19.215 R0.75
X259.745 Y59.622 Z-19.421 R0.75
X259.754 Y61.122 Z-19.627 R0.75
X259.745 Y59.622 Z-19.833 R0.75
X259.754 Y61.122 Z-20.039 R0.75
X259.745 Y59.622 Z-20.246 R0.75
X259.754 Y61.122 Z-20.452 R0.75
X259.745 Y59.622 Z-20.658 R0.75
X259.754 Y61.122 Z-20.864 R0.75
X259.745 Y59.622 Z-21.07 R0.75
X259.754 Y61.122 Z-21.276 R0.75
X259.745 Y59.622 Z-21.482 R0.75
X259.754 Y61.122 Z-21.689 R0.75
X259.745 Y59.622 Z-21.895 R0.75
X259.754 Y61.122 Z-22.101 R0.75
X259.745 Y59.622 Z-22.307 R0.75
X259.754 Y61.122 Z-22.513 R0.75
X259.745 Y59.622 Z-22.719 R0.75
X259.754 Y61.122 Z-22.925 R0.75
X259.745 Y59.622 Z-23.132 R0.75
X259.754 Y61.122 Z-23.338 R0.75
X259.745 Y59.622 Z-23.544 R0.75
X259.754 Y61.122 Z-23.75 R0.75
X259.745 Y59.622 Z-23.956 R0.75
X259.754 Y61.122 Z-24.162 R0.75
X259.745 Y59.622 Z-24.368 R0.75
X259.754 Y61.122 Z-24.575 R0.75
X259.745 Y59.622 Z-24.781 R0.75
X259.754 Y61.122 Z-24.987 R0.75
X259.745 Y59.622 Z-25.193 R0.75
X259.754 Y61.122 Z-25.399 R0.75
X259.745 Y59.622 Z-25.605 R0.75
X259.754 Y61.122 Z-25.811 R0.75
X259.745 Y59.622 Z-26.018 R0.75
X259.754 Y61.122 Z-26.224 R0.75
X259.745 Y59.622 Z-26.43 R0.75
X259.754 Y61.122 Z-26.636 R0.75
X259.745 Y59.622 Z-26.842 R0.75
X259.754 Y61.122 Z-27.048 R0.75
X259.745 Y59.622 Z-27.254 R0.75
X259.754 Y61.122 Z-27.461 R0.75
X259.329 Y60.993 Z-27.5 R0.75
G1 X259.169 Y60.885
X258.943 Y60.597
X258.814 Y60.271
X258.788 Y59.916
X258.869 Y59.554
X258.972 Y59.375
X259.051 Y59.24
X259.309 Y59.001
X259.644 Y58.838
X259.99 Y58.785
X260.357 Y58.839
X260.695 Y59.004
X260.947 Y59.238
X261.131 Y59.555
X261.212 Y59.916
X261.186 Y60.271
X261.054 Y60.607
X260.819 Y60.897
X260.528 Y61.096
X260.181 Y61.203
X259.824
X259.485 Y61.099
X259.329 Y60.993
G3 X259.228 Y60.906 Z-27.485 R0.6
X259.151 Y60.805 Z-27.441 R0.6
X259.102 Y60.703 Z-27.369 R0.6
X259.077 Y60.612 Z-27.274 R0.6
X259.067 Y60.541 Z-27.16 R0.6
X259.065 Y60.496 Z-27.034 R0.6
X259.066 Y60.481 Z-26.9 R0.6
G0 Z16.
X299.442 Y61.218
Z1.098
G1 X299.439 Z1.041 F440.
G3 X299.41 Z0.906 R0.75
X299.351 Y61.213 Z0.78 R0.75
X299.266 Y61.199 Z0.672 R0.75
X299.162 Y61.167 Z0.586 R0.75
X299.049 Y61.112 Z0.528 R0.75
X298.94 Y61.032 Z0.5 R0.75
X299.928 Y59.904 Z0.294 R0.75
X298.94 Y61.032 Z0.088 R0.75
X299.928 Y59.904 Z-0.118 R0.75
X298.94 Y61.032 Z-0.325 R0.75
X299.928 Y59.904 Z-0.531 R0.75
X298.94 Y61.032 Z-0.737 R0.75
X299.928 Y59.904 Z-0.943 R0.75
X298.94 Y61.032 Z-1.149 R0.75
X299.928 Y59.904 Z-1.355 R0.75
X298.94 Y61.032 Z-1.561 R0.75
X299.928 Y59.904 Z-1.768 R0.75
X298.94 Y61.032 Z-1.974 R0.75
X299.928 Y59.904 Z-2.18 R0.75
X298.94 Y61.032 Z-2.386 R0.75
X299.928 Y59.904 Z-2.592 R0.75
X298.94 Y61.032 Z-2.798 R0.75
X299.928 Y59.904 Z-3.004 R0.75
X298.94 Y61.032 Z-3.211 R0.75
X299.928 Y59.904 Z-3.417 R0.75
X298.94 Y61.032 Z-3.623 R0.75
X299.928 Y59.904 Z-3.829 R0.75
X298.94 Y61.032 Z-4.035 R0.75
X299.928 Y59.904 Z-4.241 R0.75
X298.94 Y61.032 Z-4.447 R0.75
X299.928 Y59.904 Z-4.654 R0.75
X298.94 Y61.032 Z-4.86 R0.75
X299.928 Y59.904 Z-5.066 R0.75
X298.94 Y61.032 Z-5.272 R0.75
X299.928 Y59.904 Z-5.478 R0.75
X298.94 Y61.032 Z-5.684 R0.75
X299.928 Y59.904 Z-5.89 R0.75
X298.94 Y61.032 Z-6.096 R0.75
X299.928 Y59.904 Z-6.303 R0.75
X298.94 Y61.032 Z-6.509 R0.75
X299.928 Y59.904 Z-6.715 R0.75
X298.94 Y61.032 Z-6.921 R0.75
X299.928 Y59.904 Z-7.127 R0.75
X298.94 Y61.032 Z-7.333 R0.75
X299.928 Y59.904 Z-7.539 R0.75
X298.94 Y61.032 Z-7.746 R0.75
X299.928 Y59.904 Z-7.952 R0.75
X298.94 Y61.032 Z-8.158 R0.75
X299.928 Y59.904 Z-8.364 R0.75
X298.94 Y61.032 Z-8.57 R0.75
X299.928 Y59.904 Z-8.776 R0.75
X298.94 Y61.032 Z-8.982 R0.75
X299.928 Y59.904 Z-9.189 R0.75
X298.94 Y61.032 Z-9.395 R0.75
X299.928 Y59.904 Z-9.601 R0.75
X298.94 Y61.032 Z-9.807 R0.75
X299.928 Y59.904 Z-10.013 R0.75
X298.94 Y61.032 Z-10.219 R0.75
X299.928 Y59.904 Z-10.425 R0.75
X298.94 Y61.032 Z-10.632 R0.75
X299.928 Y59.904 Z-10.838 R0.75
X298.94 Y61.032 Z-11.044 R0.75
X299.928 Y59.904 Z-11.25 R0.75
X298.94 Y61.032 Z-11.456 R0.75
X299.928 Y59.904 Z-11.662 R0.75
X298.94 Y61.032 Z-11.868 R0.75
X299.928 Y59.904 Z-12.075 R0.75
X298.94 Y61.032 Z-12.281 R0.75
X298.922 Y59.92 Z-12.39 R0.75
X300.03 Y60.013 Z-12.5 R0.75
G1 X300.047 Y60.035
G3 X300.049 Y60.147 R0.096
G1 X300.041 Y60.16
G3 X299.945 Y60.23 R0.176
G1 X299.932 Y60.233
G3 X299.804 Y60.231 R0.215
G1 X299.777 Y60.222
G3 X299.646 Y60.136 R0.308
G1 X299.642 Y60.132
G3 X299.563 Y59.968 R0.326
G1 X299.559 Y59.945
G3 X299.599 Y59.693 R0.403
G1 X299.62 Y59.652
G3 X299.92 Y59.393 R0.533
G1 X299.944 Y59.385
G3 X300.389 Y59.407 R0.598
G1 X300.429 Y59.425
G3 X300.79 Y59.802 R0.71
G1 X300.805 Y59.839
G3 X300.82 Y60.416 R0.815
G1 X300.8 Y60.475
G3 X300.012 Y61.109 R0.956
G1 X299.985 Y61.112
G3 X299.452 Y61.047 R1.119
G1 X299.443 Y61.044
G3 X298.985 Y60.725 R1.157
G1 X298.969 Y60.707
G3 X298.69 Y60.163 R1.254
G1 X298.687 Y60.15
G3 X298.698 Y59.517 R1.307
G1 X298.703 Y59.499
G3 X299.026 Y58.914 R1.385
G1 X299.037 Y58.902
G3 X299.627 Y58.518 R1.451
G1 X299.646 Y58.512
G3 X300.377 Y58.446 R1.532
G1 X300.384 Y58.447
G3 X301.08 Y58.738 R1.56
G1 X301.11 Y58.76
G3 X301.795 Y60.191 R1.703
G1 X301.793 Y60.219
G3 X301.547 Y61.066 R1.823
G1 X301.543 Y61.073
G3 X300.919 Y61.715 R1.856
G1 X300.901 Y61.727
G3 X300.005 Y62.016 R1.943
G1 X299.984 Y62.017
G3 X299.03 Y61.849 R2.027
G1 X299.025 Y61.847
G3 X298.238 Y61.233 R2.047
G1 X298.212 Y61.199
G3 X297.847 Y59.201 R2.191
G1 X297.854 Y59.181
G3 X298.428 Y58.233 R2.306
G1 X298.437 Y58.223
G3 X299.409 Y57.639 R2.361
G1 X299.428 Y57.633
G3 X300.594 Y57.566 R2.442
G1 X300.599 Y57.567
G3 X301.679 Y58.058 R2.465
G1 X301.71 Y58.083
G3 X302.694 Y60.304 R2.611
G1 X302.689 Y60.379
G3 X301.843 Y62.153 R2.662
G1 X301.79 Y62.202
G3 X298.265 Y62.54 R2.918
G1 X298.253 Y62.533
G3 X297.197 Y61.409 R2.994
G1 X297.156 Y61.332
G3 X296.866 Y59.157 R3.107
G1 X296.88 Y59.098
G3 X298.092 Y57.232 R3.267
X298.793 Y56.824 R3.363
X299.569 Y56.596 R3.371
G1 X299.581 Y56.594
G3 X301.982 Y57.071 R3.457
G1 X301.993 Y57.079
G3 X302.686 Y57.643 R3.575
G1 X302.691 Y57.647
G3 X303.54 Y59.124 R3.582
G1 X303.544 Y59.137
G3 X303.679 Y59.979 R3.486
G1 X303.697 Y60.466
X303.486 Y61.322
X303.076 Y62.103
X302.863 Y62.349
X302.473 Y62.789
X301.718 Y63.307
X300.892 Y63.62
X300.001 Y63.728
X299.098 Y63.616
X298.268 Y63.301
X297.53 Y62.792
X296.925 Y62.104
X296.52 Y61.333
X296.466 Y61.126
X296.303 Y60.466
X296.3 Y59.551
X296.523 Y58.662
X296.932 Y57.882
X297.528 Y57.21
X298.268 Y56.699
X299.098 Y56.384
X300.001 Y56.272
X300.892 Y56.38
X301.715 Y56.692
X302.471 Y57.209
X303.076 Y57.898
X303.486 Y58.678
X303.699 Y59.545
X303.697 Y60.466
G0 Z16.
X300.297 Y59.306
G1 Z-11.402 F200.
G3 X300.304 Y59.317 Z-11.528 R0.75 F440.
X300.325 Y59.35 Z-11.648 R0.75
X300.356 Y59.406 Z-11.757 R0.75
X300.389 Y59.484 Z-11.85 R0.75
X300.417 Y59.583 Z-11.924 R0.75
X300.432 Y59.7 Z-11.975 R0.75
X300.427 Y59.826 Z-12. R0.75
X298.938 Y59.647 Z-12.206 R0.75
X299.119 Y59.242 Z-12.246 R0.75
X300.417 Y59.583 Z-12.391 R0.75
X299.624 Y60.484 Z-12.513 R0.75
X299.119 Y59.242 Z-12.658 R0.75
X300.417 Y59.583 Z-12.803 R0.75
X299.624 Y60.484 Z-12.925 R0.75
X299.119 Y59.242 Z-13.07 R0.75
X300.417 Y59.583 Z-13.215 R0.75
X299.624 Y60.484 Z-13.337 R0.75
X299.119 Y59.242 Z-13.482 R0.75
X300.417 Y59.583 Z-13.628 R0.75
X299.624 Y60.484 Z-13.749 R0.75
X299.119 Y59.242 Z-13.895 R0.75
X300.417 Y59.583 Z-14.04 R0.75
X299.624 Y60.484 Z-14.162 R0.75
X299.119 Y59.242 Z-14.307 R0.75
X300.417 Y59.583 Z-14.452 R0.75
X299.624 Y60.484 Z-14.574 R0.75
X299.119 Y59.242 Z-14.719 R0.75
X300.417 Y59.583 Z-14.865 R0.75
X299.624 Y60.484 Z-14.986 R0.75
X299.119 Y59.242 Z-15.132 R0.75
X300.417 Y59.583 Z-15.277 R0.75
X299.624 Y60.484 Z-15.399 R0.75
X299.119 Y59.242 Z-15.544 R0.75
X300.417 Y59.583 Z-15.689 R0.75
X299.624 Y60.484 Z-15.811 R0.75
X299.119 Y59.242 Z-15.956 R0.75
X300.417 Y59.583 Z-16.101 R0.75
X299.624 Y60.484 Z-16.223 R0.75
X299.119 Y59.242 Z-16.368 R0.75
X300.417 Y59.583 Z-16.514 R0.75
X299.624 Y60.484 Z-16.635 R0.75
X299.119 Y59.242 Z-16.781 R0.75
X300.417 Y59.583 Z-16.926 R0.75
X299.624 Y60.484 Z-17.048 R0.75
X299.119 Y59.242 Z-17.193 R0.75
X300.417 Y59.583 Z-17.338 R0.75
X299.624 Y60.484 Z-17.46 R0.75
X299.119 Y59.242 Z-17.605 R0.75
X300.417 Y59.583 Z-17.751 R0.75
X299.624 Y60.484 Z-17.872 R0.75
X299.119 Y59.242 Z-18.018 R0.75
X300.417 Y59.583 Z-18.163 R0.75
X299.624 Y60.484 Z-18.285 R0.75
X299.119 Y59.242 Z-18.43 R0.75
X300.417 Y59.583 Z-18.575 R0.75
X299.624 Y60.484 Z-18.697 R0.75
X299.119 Y59.242 Z-18.842 R0.75
X300.417 Y59.583 Z-18.987 R0.75
X299.624 Y60.484 Z-19.109 R0.75
X299.119 Y59.242 Z-19.254 R0.75
X300.417 Y59.583 Z-19.4 R0.75
X299.624 Y60.484 Z-19.521 R0.75
X299.119 Y59.242 Z-19.667 R0.75
X300.417 Y59.583 Z-19.812 R0.75
X299.624 Y60.484 Z-19.934 R0.75
X299.119 Y59.242 Z-20.079 R0.75
X300.417 Y59.583 Z-20.224 R0.75
X299.624 Y60.484 Z-20.346 R0.75
X299.119 Y59.242 Z-20.491 R0.75
X300.417 Y59.583 Z-20.637 R0.75
X299.624 Y60.484 Z-20.758 R0.75
X299.119 Y59.242 Z-20.904 R0.75
X300.417 Y59.583 Z-21.049 R0.75
X299.624 Y60.484 Z-21.17 R0.75
X299.119 Y59.242 Z-21.316 R0.75
X300.417 Y59.583 Z-21.461 R0.75
X299.624 Y60.484 Z-21.583 R0.75
X299.119 Y59.242 Z-21.728 R0.75
X300.417 Y59.583 Z-21.873 R0.75
X299.624 Y60.484 Z-21.995 R0.75
X299.119 Y59.242 Z-22.14 R0.75
X300.417 Y59.583 Z-22.286 R0.75
X299.624 Y60.484 Z-22.407 R0.75
X299.119 Y59.242 Z-22.553 R0.75
X300.417 Y59.583 Z-22.698 R0.75
X299.624 Y60.484 Z-22.82 R0.75
X299.119 Y59.242 Z-22.965 R0.75
X300.417 Y59.583 Z-23.11 R0.75
X299.624 Y60.484 Z-23.232 R0.75
X299.119 Y59.242 Z-23.377 R0.75
X300.417 Y59.583 Z-23.522 R0.75
X299.624 Y60.484 Z-23.644 R0.75
X299.119 Y59.242 Z-23.789 R0.75
X300.417 Y59.583 Z-23.935 R0.75
X299.624 Y60.484 Z-24.056 R0.75
X299.119 Y59.242 Z-24.202 R0.75
X300.417 Y59.583 Z-24.347 R0.75
X299.624 Y60.484 Z-24.469 R0.75
X299.119 Y59.242 Z-24.614 R0.75
X300.417 Y59.583 Z-24.759 R0.75
X299.624 Y60.484 Z-24.881 R0.75
X299.119 Y59.242 Z-25.026 R0.75
X300.417 Y59.583 Z-25.172 R0.75
X299.624 Y60.484 Z-25.293 R0.75
X299.119 Y59.242 Z-25.439 R0.75
X300.417 Y59.583 Z-25.584 R0.75
X299.624 Y60.484 Z-25.706 R0.75
X299.119 Y59.242 Z-25.851 R0.75
X300.417 Y59.583 Z-25.996 R0.75
X299.624 Y60.484 Z-26.118 R0.75
X299.119 Y59.242 Z-26.263 R0.75
X300.417 Y59.583 Z-26.408 R0.75
X299.624 Y60.484 Z-26.53 R0.75
X299.119 Y59.242 Z-26.675 R0.75
X300.417 Y59.583 Z-26.821 R0.75
X299.624 Y60.484 Z-26.942 R0.75
X299.119 Y59.242 Z-27.088 R0.75
X300.417 Y59.583 Z-27.233 R0.75
X299.624 Y60.484 Z-27.355 R0.75
X299.119 Y59.242 Z-27.5 R0.75
X299.952 Y59.194 R0.59
X299.999 Y60.027 R0.59
G1 X299.988 Y60.04
G3 X299.955 Y60.056 R0.046
G1 X299.936
G3 X299.874 Y60.033 R0.089
G1 X299.864 Y60.025
G3 X299.826 Y59.945 R0.12
G1 X299.824 Y59.922
G3 X299.858 Y59.802 R0.179
G1 X299.869 Y59.787
G3 X299.994 Y59.701 R0.231
G1 X300.016 Y59.695
G3 X300.198 Y59.703 R0.296
G1 X300.211 Y59.708
G3 X300.378 Y59.842 R0.34
G1 X300.39 Y59.861
G3 X300.457 Y60.101 R0.411
G1 X300.456 Y60.116
G3 X300.363 Y60.375 R0.458
G1 X300.355 Y60.387
G3 X300.108 Y60.562 R0.504
G1 X300.082 Y60.57
G3 X299.72 R0.589
G1 X299.711 Y60.567
G3 X299.408 Y60.353 R0.621
G1 X299.396 Y60.338
G3 X299.258 Y59.953 R0.681
G1 X299.255 Y59.899
G3 X299.615 Y59.218 R0.764
G1 X299.624 Y59.212
G3 X300.134 Y59.081 R0.877
G1 X300.145 Y59.082
G3 X300.67 Y59.275 R0.948
X300.879 Y59.49 R0.983
X301.015 Y59.763 R0.995
G1 X301.019 Y59.774
G3 X301.026 Y60.401 R1.063
X300.885 Y60.703 R1.096
X300.655 Y60.956 R1.125
G1 X300.65 Y60.96
G3 X300.375 Y61.122 R1.087
G1 X300.177 Y61.202
X299.813 Y61.201
X299.472 Y61.095
X299.171 Y60.889
X298.947 Y60.608
X298.814 Y60.271
X298.788 Y59.916
X298.869 Y59.554
X299.033 Y59.27
X299.049 Y59.242
X299.314 Y58.996
X299.644 Y58.838
X299.998 Y58.784
X300.365 Y58.841
X300.685 Y58.995
X300.951 Y59.242
X301.131 Y59.554
X301.212 Y59.916
X301.185 Y60.271
X301.053 Y60.608
X300.827 Y60.891
X300.538 Y61.088
X300.177 Y61.202
G0 Z16.
X299.231 Y21.069
Z1.098
G1 X299.229 Z1.041 F440.
G3 X299.2 Y21.062 Z0.906 R0.75
X299.144 Y21.046 Z0.78 R0.75
X299.064 Y21.013 Z0.672 R0.75
X298.969 Y20.96 Z0.586 R0.75
X298.87 Y20.882 Z0.528 R0.75
X298.78 Y20.78 Z0.5 R0.75
X299.002 Y19.69 Z0.39 R0.75
X300.064 Y20.019 Z0.281 R0.75
X298.704 Y20.651 Z0.075 R0.75
X298.723 Y19.98 Z0.014 R0.75
X300.064 Y20.019 Z-0.132 R0.75
X298.704 Y20.651 Z-0.338 R0.75
X298.723 Y19.98 Z-0.399 R0.75
X300.064 Y20.019 Z-0.544 R0.75
X298.704 Y20.651 Z-0.75 R0.75
X298.723 Y19.98 Z-0.811 R0.75
X300.064 Y20.019 Z-0.956 R0.75
X298.704 Y20.651 Z-1.162 R0.75
X298.723 Y19.98 Z-1.223 R0.75
X300.064 Y20.019 Z-1.368 R0.75
X298.704 Y20.651 Z-1.575 R0.75
X298.723 Y19.98 Z-1.635 R0.75
X300.064 Y20.019 Z-1.781 R0.75
X298.704 Y20.651 Z-1.987 R0.75
X298.723 Y19.98 Z-2.048 R0.75
X300.064 Y20.019 Z-2.193 R0.75
X298.704 Y20.651 Z-2.399 R0.75
X298.723 Y19.98 Z-2.46 R0.75
X300.064 Y20.019 Z-2.605 R0.75
X298.704 Y20.651 Z-2.811 R0.75
X298.723 Y19.98 Z-2.872 R0.75
X300.064 Y20.019 Z-3.018 R0.75
X298.704 Y20.651 Z-3.224 R0.75
X298.723 Y19.98 Z-3.285 R0.75
X300.064 Y20.019 Z-3.43 R0.75
X298.704 Y20.651 Z-3.636 R0.75
X298.723 Y19.98 Z-3.697 R0.75
X300.064 Y20.019 Z-3.842 R0.75
X298.704 Y20.651 Z-4.048 R0.75
X298.723 Y19.98 Z-4.109 R0.75
X300.064 Y20.019 Z-4.254 R0.75
X298.704 Y20.651 Z-4.461 R0.75
X298.723 Y19.98 Z-4.521 R0.75
X300.064 Y20.019 Z-4.667 R0.75
X298.704 Y20.651 Z-4.873 R0.75
X298.723 Y19.98 Z-4.934 R0.75
X300.064 Y20.019 Z-5.079 R0.75
X298.704 Y20.651 Z-5.285 R0.75
X298.723 Y19.98 Z-5.346 R0.75
X300.064 Y20.019 Z-5.491 R0.75
X298.704 Y20.651 Z-5.697 R0.75
X298.723 Y19.98 Z-5.758 R0.75
X300.064 Y20.019 Z-5.904 R0.75
X298.704 Y20.651 Z-6.11 R0.75
X298.723 Y19.98 Z-6.17 R0.75
X300.064 Y20.019 Z-6.316 R0.75
X298.704 Y20.651 Z-6.522 R0.75
X298.723 Y19.98 Z-6.583 R0.75
X300.064 Y20.019 Z-6.728 R0.75
X298.704 Y20.651 Z-6.934 R0.75
X298.723 Y19.98 Z-6.995 R0.75
X300.064 Y20.019 Z-7.14 R0.75
X298.704 Y20.651 Z-7.346 R0.75
X298.723 Y19.98 Z-7.407 R0.75
X300.064 Y20.019 Z-7.553 R0.75
X298.704 Y20.651 Z-7.759 R0.75
X298.723 Y19.98 Z-7.82 R0.75
X300.064 Y20.019 Z-7.965 R0.75
X298.704 Y20.651 Z-8.171 R0.75
X298.723 Y19.98 Z-8.232 R0.75
X300.064 Y20.019 Z-8.377 R0.75
X298.704 Y20.651 Z-8.583 R0.75
X298.723 Y19.98 Z-8.644 R0.75
X300.064 Y20.019 Z-8.789 R0.75
X298.704 Y20.651 Z-8.996 R0.75
X298.723 Y19.98 Z-9.056 R0.75
X300.064 Y20.019 Z-9.202 R0.75
X298.704 Y20.651 Z-9.408 R0.75
X298.723 Y19.98 Z-9.469 R0.75
X300.064 Y20.019 Z-9.614 R0.75
X298.704 Y20.651 Z-9.82 R0.75
X298.723 Y19.98 Z-9.881 R0.75
X300.064 Y20.019 Z-10.026 R0.75
X298.704 Y20.651 Z-10.232 R0.75
X298.723 Y19.98 Z-10.293 R0.75
X300.064 Y20.019 Z-10.439 R0.75
X298.704 Y20.651 Z-10.645 R0.75
X298.723 Y19.98 Z-10.706 R0.75
X300.064 Y20.019 Z-10.851 R0.75
X298.704 Y20.651 Z-11.057 R0.75
X298.723 Y19.98 Z-11.118 R0.75
X300.064 Y20.019 Z-11.263 R0.75
X298.704 Y20.651 Z-11.469 R0.75
X298.723 Y19.98 Z-11.53 R0.75
X300.064 Y20.019 Z-11.675 R0.75
X298.704 Y20.651 Z-11.882 R0.75
X298.723 Y19.98 Z-11.942 R0.75
X300.064 Y20.019 Z-12.088 R0.75
X298.704 Y20.651 Z-12.294 R0.75
X298.723 Y19.98 Z-12.355 R0.75
X300.064 Y20.019 Z-12.5 R0.75
G1 X300.07 Y20.031
G3 X300.073 Y20.044 R0.031
G1 X300.066 Y20.092
G3 X299.951 Y20.23 R0.17
G1 X299.94 Y20.233
G3 X299.812 Y20.235 R0.212
G1 X299.787 Y20.227
G3 X299.651 Y20.139 R0.296
G1 X299.647 Y20.135
G3 X299.57 Y19.947 R0.313
G1 X299.567 Y19.893
G3 X299.68 Y19.562 R0.463
G1 X299.699 Y19.54
G3 X300.054 Y19.358 R0.535
G1 X300.09 Y19.355
G3 X300.533 Y19.485 R0.627
G1 X300.57 Y19.514
G3 X300.848 Y19.987 R0.746
G1 X300.858 Y20.052
G3 X300.496 Y20.914 R0.889
G1 X300.479 Y20.926
G3 X300.006 Y21.11 R1.032
G1 X299.987 Y21.112
G3 X299.451 Y21.046 R1.108
G1 X299.434 Y21.039
G3 X298.974 Y20.717 R1.179
G1 X298.967 Y20.709
G3 X298.698 Y20.184 R1.217
G1 X298.691 Y20.152
G3 X298.701 Y19.499 R1.349
X299.013 Y18.929 R1.354
G1 X299.033 Y18.908
G3 X299.634 Y18.515 R1.467
G1 X299.648 Y18.51
G3 X300.376 Y18.445 R1.526
G1 X300.387 Y18.446
G3 X301.081 Y18.735 R1.571
G1 X301.105 Y18.752
G3 X301.627 Y19.384 R1.69
X301.795 Y20.121 R1.704
X301.794 Y20.184 R1.704
G1 X301.793 Y20.215
G3 X301.544 Y21.07 R1.829
G1 X301.541 Y21.075
G3 X300.92 Y21.715 R1.855
G1 X300.901 Y21.727
G3 X300.004 Y22.016 R1.943
G1 X299.985 Y22.017
G3 X299.029 Y21.848 R2.02
G1 X299.015 Y21.841
G3 X298.229 Y21.233 R2.084
G1 X298.222 Y21.224
G3 X297.798 Y20.297 R2.13
G1 X297.792 Y20.266
G3 X298.411 Y18.252 R2.257
G1 X298.432 Y18.23
G3 X299.418 Y17.636 R2.38
G1 X299.43 Y17.632
G3 X300.592 Y17.565 R2.434
G1 X300.602 Y17.567
G3 X301.68 Y18.055 R2.478
G1 X301.704 Y18.074
G3 X302.474 Y19.064 R2.601
X302.699 Y20.123 R2.608
X302.693 Y20.29 R2.608
G1 X302.691 Y20.323
G3 X302.289 Y21.585 R2.739
G1 X302.237 Y21.67
G3 X299.659 Y22.985 R2.786
G1 X299.628 Y22.983
G3 X298.268 Y22.541 R3.014
G1 X298.259 Y22.535
G3 X296.918 Y20.787 R3.105
G1 X296.914 Y20.776
G3 X296.863 Y19.168 R3.129
G1 X296.885 Y19.075
G3 X297.505 Y17.802 R3.172
X299.569 Y16.596 R3.362
G1 X299.581 Y16.594
G3 X301.984 Y17.072 R3.457
G1 X301.999 Y17.082
G3 X303.2 Y18.324 R3.575
G1 X303.3 Y18.499
G3 X303.485 Y18.932 R1.945
G1 X303.544 Y19.135
G3 X303.678 Y19.954 R3.494
G1 X303.7 Y20.454
X303.486 Y21.322
X303.077 Y22.101
X302.512 Y22.746
X302.476 Y22.786
X301.719 Y23.306
X300.892 Y23.62
X300.001 Y23.728
X299.098 Y23.616
X298.281 Y23.306
X297.527 Y22.789
X296.932 Y22.118
X296.522 Y21.337
X296.304 Y20.464
X296.3 Y19.548
X296.514 Y18.678
X296.925 Y17.895
X297.529 Y17.208
X298.268 Y16.699
X299.098 Y16.384
X300.001 Y16.272
X300.892 Y16.38
X301.716 Y16.693
X302.474 Y17.211
X303.068 Y17.882
X303.479 Y18.666
X303.534 Y18.873
X303.696 Y19.532
X303.7 Y20.454
G0 Z16.
X299.268 Y19.816
G1 Z-11.402 F200.
G3 X299.277 Y19.807 Z-11.528 R0.75 F440.
X299.307 Y19.781 Z-11.648 R0.75
X299.357 Y19.742 Z-11.757 R0.75
X299.428 Y19.697 Z-11.85 R0.75
X299.521 Y19.653 Z-11.924 R0.75
X299.634 Y19.619 Z-11.975 R0.75
X299.759 Y19.603 Z-12. R0.75
X300.54 Y20.288 Z-12.1 R0.75
X299.396 Y20.989 Z-12.246 R0.75
X300.189 Y19.716 Z-12.452 R0.75
X300.54 Y20.288 Z-12.513 R0.75
X299.396 Y20.989 Z-12.658 R0.75
X300.189 Y19.716 Z-12.864 R0.75
X300.54 Y20.288 Z-12.925 R0.75
X299.396 Y20.989 Z-13.07 R0.75
X300.189 Y19.716 Z-13.276 R0.75
X300.54 Y20.288 Z-13.337 R0.75
X299.396 Y20.989 Z-13.482 R0.75
X300.189 Y19.716 Z-13.689 R0.75
X300.54 Y20.288 Z-13.749 R0.75
X299.396 Y20.989 Z-13.895 R0.75
X300.189 Y19.716 Z-14.101 R0.75
X300.54 Y20.288 Z-14.162 R0.75
X299.396 Y20.989 Z-14.307 R0.75
X300.189 Y19.716 Z-14.513 R0.75
X300.54 Y20.288 Z-14.574 R0.75
X299.396 Y20.989 Z-14.719 R0.75
X300.189 Y19.716 Z-14.925 R0.75
X300.54 Y20.288 Z-14.986 R0.75
X299.396 Y20.989 Z-15.132 R0.75
X300.189 Y19.716 Z-15.338 R0.75
X300.54 Y20.288 Z-15.399 R0.75
X299.396 Y20.989 Z-15.544 R0.75
X300.189 Y19.716 Z-15.75 R0.75
X300.54 Y20.288 Z-15.811 R0.75
X299.396 Y20.989 Z-15.956 R0.75
X300.189 Y19.716 Z-16.162 R0.75
X300.54 Y20.288 Z-16.223 R0.75
X299.396 Y20.989 Z-16.368 R0.75
X300.189 Y19.716 Z-16.575 R0.75
X300.54 Y20.288 Z-16.635 R0.75
X299.396 Y20.989 Z-16.781 R0.75
X300.189 Y19.716 Z-16.987 R0.75
X300.54 Y20.288 Z-17.048 R0.75
X299.396 Y20.989 Z-17.193 R0.75
X300.189 Y19.716 Z-17.399 R0.75
X300.54 Y20.288 Z-17.46 R0.75
X299.396 Y20.989 Z-17.605 R0.75
X300.189 Y19.716 Z-17.811 R0.75
X300.54 Y20.288 Z-17.872 R0.75
X299.396 Y20.989 Z-18.018 R0.75
X300.189 Y19.716 Z-18.224 R0.75
X300.54 Y20.288 Z-18.285 R0.75
X299.396 Y20.989 Z-18.43 R0.75
X300.189 Y19.716 Z-18.636 R0.75
X300.54 Y20.288 Z-18.697 R0.75
X299.396 Y20.989 Z-18.842 R0.75
X300.189 Y19.716 Z-19.048 R0.75
X300.54 Y20.288 Z-19.109 R0.75
X299.396 Y20.989 Z-19.254 R0.75
X300.189 Y19.716 Z-19.461 R0.75
X300.54 Y20.288 Z-19.521 R0.75
X299.396 Y20.989 Z-19.667 R0.75
X300.189 Y19.716 Z-19.873 R0.75
X300.54 Y20.288 Z-19.934 R0.75
X299.396 Y20.989 Z-20.079 R0.75
X300.189 Y19.716 Z-20.285 R0.75
X300.54 Y20.288 Z-20.346 R0.75
X299.396 Y20.989 Z-20.491 R0.75
X300.189 Y19.716 Z-20.697 R0.75
X300.54 Y20.288 Z-20.758 R0.75
X299.396 Y20.989 Z-20.904 R0.75
X300.189 Y19.716 Z-21.11 R0.75
X300.54 Y20.288 Z-21.17 R0.75
X299.396 Y20.989 Z-21.316 R0.75
X300.189 Y19.716 Z-21.522 R0.75
X300.54 Y20.288 Z-21.583 R0.75
X299.396 Y20.989 Z-21.728 R0.75
X300.189 Y19.716 Z-21.934 R0.75
X300.54 Y20.288 Z-21.995 R0.75
X299.396 Y20.989 Z-22.14 R0.75
X300.189 Y19.716 Z-22.346 R0.75
X300.54 Y20.288 Z-22.407 R0.75
X299.396 Y20.989 Z-22.553 R0.75
X300.189 Y19.716 Z-22.759 R0.75
X300.54 Y20.288 Z-22.82 R0.75
X299.396 Y20.989 Z-22.965 R0.75
X300.189 Y19.716 Z-23.171 R0.75
X300.54 Y20.288 Z-23.232 R0.75
X299.396 Y20.989 Z-23.377 R0.75
X300.189 Y19.716 Z-23.583 R0.75
X300.54 Y20.288 Z-23.644 R0.75
X299.396 Y20.989 Z-23.789 R0.75
X300.189 Y19.716 Z-23.996 R0.75
X300.54 Y20.288 Z-24.056 R0.75
X299.396 Y20.989 Z-24.202 R0.75
X300.189 Y19.716 Z-24.408 R0.75
X300.54 Y20.288 Z-24.469 R0.75
X299.396 Y20.989 Z-24.614 R0.75
X300.189 Y19.716 Z-24.82 R0.75
X300.54 Y20.288 Z-24.881 R0.75
X299.396 Y20.989 Z-25.026 R0.75
X300.189 Y19.716 Z-25.232 R0.75
X300.54 Y20.288 Z-25.293 R0.75
X299.396 Y20.989 Z-25.439 R0.75
X300.189 Y19.716 Z-25.645 R0.75
X300.54 Y20.288 Z-25.706 R0.75
X299.396 Y20.989 Z-25.851 R0.75
X300.189 Y19.716 Z-26.057 R0.75
X300.54 Y20.288 Z-26.118 R0.75
X299.396 Y20.989 Z-26.263 R0.75
X300.189 Y19.716 Z-26.469 R0.75
X300.54 Y20.288 Z-26.53 R0.75
X299.396 Y20.989 Z-26.675 R0.75
X300.189 Y19.716 Z-26.882 R0.75
X300.54 Y20.288 Z-26.942 R0.75
X299.396 Y20.989 Z-27.088 R0.75
X300.189 Y19.716 Z-27.294 R0.75
X300.54 Y20.288 Z-27.355 R0.75
X299.396 Y20.989 Z-27.5 R0.75
X300.028 Y19.99 R0.591
G1 X300.045 Y20.001
G3 X300.069 Y20.035 R0.052
G1 X300.071 Y20.049
G3 X300.058 Y20.116 R0.089
G1 X300.048 Y20.132
G3 X299.976 Y20.187 R0.138
G1 X299.967 Y20.19
G3 X299.851 Y20.185 R0.164
G1 X299.823 Y20.173
G3 X299.706 Y20.069 R0.247
G1 X299.701 Y20.06
G3 X299.666 Y19.89 R0.277
G1 X299.669 Y19.864
G3 X299.765 Y19.662 R0.354
G1 X299.775 Y19.651
G3 X299.993 Y19.534 R0.4
G1 X300.015 Y19.53
G3 X300.293 Y19.565 R0.469
G1 X300.302 Y19.568
G3 X300.525 Y19.77 R0.498
G1 X300.541 Y19.798
G3 X300.621 Y20.146 R0.599
G1 Y20.152
G3 X300.478 Y20.501 R0.616
G1 X300.468 Y20.513
G3 X300.137 Y20.726 R0.668
G1 X300.108 Y20.735
G3 X299.645 Y20.719 R0.766
G1 X299.606 Y20.705
G3 X299.074 Y20.078 R0.819
G1 X299.073 Y20.071
G3 X299.065 Y19.802 R0.904
G1 X299.067 Y19.789
G3 X299.306 Y19.259 R0.976
X299.546 Y19.059 R1.014
X299.84 Y18.939 R1.046
X300.158 Y18.911 R1.047
G1 X300.171 Y18.912
G3 X300.787 Y19.149 R1.12
G1 X300.794 Y19.155
G3 X301.011 Y19.384 R1.072
G1 X301.131 Y19.557
X301.212 Y19.918
X301.185 Y20.271
X301.055 Y20.603
X301.017 Y20.653
X300.827 Y20.891
X300.538 Y21.088
X300.177 Y21.202
X299.812 Y21.201
X299.482 Y21.099
X299.173 Y20.89
X298.945 Y20.603
X298.814 Y20.271
X298.788 Y19.918
X298.869 Y19.553
X299.033 Y19.27
X299.049 Y19.242
X299.314 Y18.996
X299.644 Y18.838
X299.997 Y18.784
X300.365 Y18.841
X300.685 Y18.995
X300.943 Y19.235
X301.131 Y19.557
G0 Z16.
X259.714 Y21.315
Z1.098
G1 X259.712 Y21.316 Z1.041 F440.
G3 X259.684 Y21.322 Z0.906 R0.75
X259.625 Y21.33 Z0.78 R0.75
X259.539 Y21.335 Z0.672 R0.75
X259.43 Y21.326 Z0.586 R0.75
X259.308 Y21.296 Z0.528 R0.75
X259.184 Y21.242 Z0.5 R0.75
X259.908 Y19.928 Z0.294 R0.75
X259.184 Y21.242 Z0.088 R0.75
X259.908 Y19.928 Z-0.118 R0.75
X259.184 Y21.242 Z-0.325 R0.75
X259.908 Y19.928 Z-0.531 R0.75
X259.184 Y21.242 Z-0.737 R0.75
X259.908 Y19.928 Z-0.943 R0.75
X259.184 Y21.242 Z-1.149 R0.75
X259.908 Y19.928 Z-1.355 R0.75
X259.184 Y21.242 Z-1.561 R0.75
X259.908 Y19.928 Z-1.768 R0.75
X259.184 Y21.242 Z-1.974 R0.75
X259.908 Y19.928 Z-2.18 R0.75
X259.184 Y21.242 Z-2.386 R0.75
X259.908 Y19.928 Z-2.592 R0.75
X259.184 Y21.242 Z-2.798 R0.75
X259.908 Y19.928 Z-3.004 R0.75
X259.184 Y21.242 Z-3.211 R0.75
X259.908 Y19.928 Z-3.417 R0.75
X259.184 Y21.242 Z-3.623 R0.75
X259.908 Y19.928 Z-3.829 R0.75
X259.184 Y21.242 Z-4.035 R0.75
X259.908 Y19.928 Z-4.241 R0.75
X259.184 Y21.242 Z-4.447 R0.75
X259.908 Y19.928 Z-4.654 R0.75
X259.184 Y21.242 Z-4.86 R0.75
X259.908 Y19.928 Z-5.066 R0.75
X259.184 Y21.242 Z-5.272 R0.75
X259.908 Y19.928 Z-5.478 R0.75
X259.184 Y21.242 Z-5.684 R0.75
X259.908 Y19.928 Z-5.89 R0.75
X259.184 Y21.242 Z-6.096 R0.75
X259.908 Y19.928 Z-6.303 R0.75
X259.184 Y21.242 Z-6.509 R0.75
X259.908 Y19.928 Z-6.715 R0.75
X259.184 Y21.242 Z-6.921 R0.75
X259.908 Y19.928 Z-7.127 R0.75
X259.184 Y21.242 Z-7.333 R0.75
X259.908 Y19.928 Z-7.539 R0.75
X259.184 Y21.242 Z-7.746 R0.75
X259.908 Y19.928 Z-7.952 R0.75
X259.184 Y21.242 Z-8.158 R0.75
X259.908 Y19.928 Z-8.364 R0.75
X259.184 Y21.242 Z-8.57 R0.75
X259.908 Y19.928 Z-8.776 R0.75
X259.184 Y21.242 Z-8.982 R0.75
X259.908 Y19.928 Z-9.189 R0.75
X259.184 Y21.242 Z-9.395 R0.75
X259.908 Y19.928 Z-9.601 R0.75
X259.184 Y21.242 Z-9.807 R0.75
X259.908 Y19.928 Z-10.013 R0.75
X259.184 Y21.242 Z-10.219 R0.75
X259.908 Y19.928 Z-10.425 R0.75
X259.184 Y21.242 Z-10.632 R0.75
X259.908 Y19.928 Z-10.838 R0.75
X259.184 Y21.242 Z-11.044 R0.75
X259.908 Y19.928 Z-11.25 R0.75
X259.184 Y21.242 Z-11.456 R0.75
X259.908 Y19.928 Z-11.662 R0.75
X259.184 Y21.242 Z-11.868 R0.75
X259.908 Y19.928 Z-12.075 R0.75
X259.184 Y21.242 Z-12.281 R0.75
X258.928 Y20.159 Z-12.39 R0.75
X260.031 Y20.013 Z-12.5 R0.75
G1 X260.041 Y20.021
G3 X260.052 Y20.144 R0.088
G1 X260.03 Y20.171
G3 X259.937 Y20.234 R0.194
X259.874 Y20.244 R0.203
X259.811 Y20.234 R0.203
G1 X259.781 Y20.224
G3 X259.648 Y20.138 R0.308
G1 X259.643 Y20.132
G3 X259.561 Y19.97 R0.337
G1 X259.558 Y19.955
G3 X259.593 Y19.705 R0.387
G1 X259.618 Y19.657
G3 X259.923 Y19.392 R0.536
G1 X259.949 Y19.383
G3 X260.395 Y19.405 R0.607
G1 X260.427 Y19.419
G3 X260.783 Y19.786 R0.697
G1 X260.801 Y19.83
G3 X260.818 Y20.417 R0.819
G1 X260.797 Y20.477
G3 X260.016 Y21.11 R0.96
G1 X259.996 Y21.112
G3 X259.462 Y21.05 R1.098
G1 X259.443 Y21.042
G3 X258.974 Y20.715 R1.18
G1 X258.965 Y20.704
G3 X258.692 Y20.167 R1.234
G1 X258.687 Y20.145
G3 X258.7 Y19.507 R1.326
G1 X258.703 Y19.495
G3 X259.026 Y18.913 R1.379
G1 X259.039 Y18.899
G3 X259.623 Y18.517 R1.454
G1 X259.638 Y18.512
G3 X260.363 Y18.445 R1.516
G1 X260.383 Y18.448
G3 X261.099 Y18.745 R1.599
G1 X261.113 Y18.756
G3 X261.623 Y19.376 R1.669
G1 X261.628 Y19.385
G3 X261.794 Y20.187 R1.712
G1 X261.792 Y20.227
G3 X260.51 Y21.914 R1.842
G1 X260.489 Y21.92
G3 X258.592 Y21.584 R2.075
X257.753 Y19.88 R2.151
X257.756 Y19.764 R2.151
G1 X257.758 Y19.731
G3 X258.083 Y18.674 R2.284
G1 X258.086 Y18.668
G3 X258.876 Y17.881 R2.312
G1 X258.895 Y17.869
G3 X259.998 Y17.53 R2.403
G1 X260.011 Y17.529
G3 X261.175 Y17.75 R2.454
G1 X261.197 Y17.761
G3 X262.151 Y18.52 R2.556
G1 X262.332 Y18.755
G3 X262.624 Y19.426 R1.495
G1 X262.65 Y19.586
G3 X262.541 Y21.07 R3.177
G1 X262.522 Y21.128
G3 X261.803 Y22.219 R2.422
X257.193 Y21.418 R3.019
G1 X257.181 Y21.397
G3 X256.781 Y20.013 R3.142
X256.777 Y19.849 R3.249
X257.088 Y18.463 R3.249
X257.508 Y17.795 R3.283
X258.087 Y17.235 R3.318
G1 X258.092 Y17.231
G3 X258.796 Y16.823 R3.364
G1 X258.802 Y16.821
G3 X260.4 Y16.556 R3.405
G1 X260.412 Y16.557
G3 X262.014 Y17.09 R3.48
G1 X262.023 Y17.096
G3 X263.198 Y18.322 R3.57
G1 X263.3 Y18.499
G3 X263.485 Y18.932 R1.947
G1 X263.545 Y19.138
G3 X263.678 Y19.952 R3.482
G1 X263.7 Y20.452
X263.486 Y21.322
X263.076 Y22.102
X262.711 Y22.521
X262.473 Y22.789
X261.719 Y23.306
X260.894 Y23.619
X259.988 Y23.726
X259.114 Y23.62
X258.28 Y23.305
X257.528 Y22.79
X256.928 Y22.11
X256.519 Y21.331
X256.484 Y21.201
X256.304 Y20.467
X256.3 Y19.548
X256.514 Y18.68
X256.54 Y18.63
X256.934 Y17.88
X257.528 Y17.21
X258.269 Y16.699
X259.114 Y16.38
X259.99 Y16.273
X260.894 Y16.381
X261.732 Y16.699
X262.482 Y17.22
X263.068 Y17.882
X263.479 Y18.666
X263.534 Y18.873
X263.696 Y19.533
X263.7 Y20.452
G0 Z16.
X259.325 Y19.665
G1 Z-11.402 F200.
G3 X259.336 Y19.658 Z-11.528 R0.75 F440.
X259.37 Y19.639 Z-11.648 R0.75
X259.428 Y19.612 Z-11.757 R0.75
X259.508 Y19.584 Z-11.85 R0.75
X259.608 Y19.561 Z-11.924 R0.75
X259.725 Y19.553 Z-11.975 R0.75
X259.851 Y19.565 Z-12. R0.75
X259.588 Y21.041 Z-12.206 R0.75
X259.851 Y19.565 Z-12.412 R0.75
X259.588 Y21.041 Z-12.618 R0.75
X259.851 Y19.565 Z-12.825 R0.75
X259.588 Y21.041 Z-13.031 R0.75
X259.851 Y19.565 Z-13.237 R0.75
X259.588 Y21.041 Z-13.443 R0.75
X259.851 Y19.565 Z-13.649 R0.75
X259.588 Y21.041 Z-13.855 R0.75
X259.851 Y19.565 Z-14.061 R0.75
X259.588 Y21.041 Z-14.268 R0.75
X259.851 Y19.565 Z-14.474 R0.75
X259.588 Y21.041 Z-14.68 R0.75
X259.851 Y19.565 Z-14.886 R0.75
X259.588 Y21.041 Z-15.092 R0.75
X259.851 Y19.565 Z-15.298 R0.75
X259.588 Y21.041 Z-15.504 R0.75
X259.851 Y19.565 Z-15.711 R0.75
X259.588 Y21.041 Z-15.917 R0.75
X259.851 Y19.565 Z-16.123 R0.75
X259.588 Y21.041 Z-16.329 R0.75
X259.851 Y19.565 Z-16.535 R0.75
X259.588 Y21.041 Z-16.741 R0.75
X259.851 Y19.565 Z-16.947 R0.75
X259.588 Y21.041 Z-17.154 R0.75
X259.851 Y19.565 Z-17.36 R0.75
X259.588 Y21.041 Z-17.566 R0.75
X259.851 Y19.565 Z-17.772 R0.75
X259.588 Y21.041 Z-17.978 R0.75
X259.851 Y19.565 Z-18.184 R0.75
X259.588 Y21.041 Z-18.39 R0.75
X259.851 Y19.565 Z-18.596 R0.75
X259.588 Y21.041 Z-18.803 R0.75
X259.851 Y19.565 Z-19.009 R0.75
X259.588 Y21.041 Z-19.215 R0.75
X259.851 Y19.565 Z-19.421 R0.75
X259.588 Y21.041 Z-19.627 R0.75
X259.851 Y19.565 Z-19.833 R0.75
X259.588 Y21.041 Z-20.039 R0.75
X259.851 Y19.565 Z-20.246 R0.75
X259.588 Y21.041 Z-20.452 R0.75
X259.851 Y19.565 Z-20.658 R0.75
X259.588 Y21.041 Z-20.864 R0.75
X259.851 Y19.565 Z-21.07 R0.75
X259.588 Y21.041 Z-21.276 R0.75
X259.851 Y19.565 Z-21.482 R0.75
X259.588 Y21.041 Z-21.689 R0.75
X259.851 Y19.565 Z-21.895 R0.75
X259.588 Y21.041 Z-22.101 R0.75
X259.851 Y19.565 Z-22.307 R0.75
X259.588 Y21.041 Z-22.513 R0.75
X259.851 Y19.565 Z-22.719 R0.75
X259.588 Y21.041 Z-22.925 R0.75
X259.851 Y19.565 Z-23.132 R0.75
X259.588 Y21.041 Z-23.338 R0.75
X259.851 Y19.565 Z-23.544 R0.75
X259.588 Y21.041 Z-23.75 R0.75
X259.851 Y19.565 Z-23.956 R0.75
X259.588 Y21.041 Z-24.162 R0.75
X259.851 Y19.565 Z-24.368 R0.75
X259.588 Y21.041 Z-24.575 R0.75
X259.851 Y19.565 Z-24.781 R0.75
X259.588 Y21.041 Z-24.987 R0.75
X259.851 Y19.565 Z-25.193 R0.75
X259.588 Y21.041 Z-25.399 R0.75
X259.851 Y19.565 Z-25.605 R0.75
X259.588 Y21.041 Z-25.811 R0.75
X259.851 Y19.565 Z-26.018 R0.75
X259.588 Y21.041 Z-26.224 R0.75
X259.851 Y19.565 Z-26.43 R0.75
X259.588 Y21.041 Z-26.636 R0.75
X259.851 Y19.565 Z-26.842 R0.75
X259.588 Y21.041 Z-27.048 R0.75
X259.851 Y19.565 Z-27.254 R0.75
X259.588 Y21.041 Z-27.461 R0.75
X259.193 Y20.837 Z-27.5 R0.75
X260.027 Y20.004 R0.589
G1 X260.037 Y20.014
G3 X260.05 Y20.045 R0.043
G1 Y20.064
G3 X260.021 Y20.13 R0.09
G1 X260.012 Y20.138
G3 X259.932 Y20.171 R0.121
G1 X259.914
G3 X259.804 Y20.133 R0.168
G1 X259.785 Y20.118
G3 X259.704 Y19.981 R0.234
G1 X259.696 Y19.941
G3 X259.752 Y19.73 R0.252
G1 X259.772 Y19.707
G3 X260.282 Y19.592 R0.435
G1 X260.288 Y19.595
G3 X260.509 Y19.794 R0.486
G1 X260.52 Y19.814
G3 X260.594 Y20.133 R0.558
G1 X260.593 Y20.144
G3 X260.457 Y20.481 R0.591
G1 X260.444 Y20.497
G3 X260.119 Y20.707 R0.656
G1 X260.102 Y20.712
G3 X259.679 Y20.701 R0.714
G1 X259.634 Y20.686
G3 X259.103 Y20.072 R0.8
X259.088 Y19.917 R0.856
X259.095 Y19.812 R0.856
G1 X259.098 Y19.791
G3 X259.548 Y19.093 R0.953
G1 X259.559 Y19.087
G3 X260.158 Y18.939 R1.032
X260.476 Y19.007 R1.068
X260.762 Y19.167 R1.089
G1 X260.77 Y19.173
G3 X261.004 Y19.421 R1.129
G1 X261.008 Y19.427
G3 X261.152 Y19.723 R1.08
G1 X261.212 Y19.918
X261.186 Y20.268
X261.055 Y20.604
X261.021 Y20.649
X260.82 Y20.897
X260.528 Y21.096
X260.181 Y21.203
X259.824
X259.471 Y21.095
X259.181 Y20.897
X258.944 Y20.601
X258.814 Y20.271
X258.788 Y19.921
X258.873 Y19.547
X258.974 Y19.373
X259.049 Y19.242
X259.31 Y19.
X259.644 Y18.838
X260. Y18.784
X260.358 Y18.838
X260.682 Y18.994
X260.951 Y19.243
X261.131 Y19.553
X261.212 Y19.918
G0 Z16.
X219.762 Y21.326
Z1.098
G1 X219.76 Y21.327 Z1.041 F440.
G3 X219.732 Y21.334 Z0.906 R0.75
X219.673 Y21.344 Z0.78 R0.75
X219.587 Y21.352 Z0.672 R0.75
X219.479 Y21.347 Z0.586 R0.75
X219.356 Y21.322 Z0.528 R0.75
X219.229 Y21.272 Z0.5 R0.75
X219.905 Y19.932 Z0.294 R0.75
X219.229 Y21.272 Z0.088 R0.75
X219.905 Y19.932 Z-0.118 R0.75
X219.229 Y21.272 Z-0.325 R0.75
X219.905 Y19.932 Z-0.531 R0.75
X219.229 Y21.272 Z-0.737 R0.75
X219.905 Y19.932 Z-0.943 R0.75
X219.229 Y21.272 Z-1.149 R0.75
X219.905 Y19.932 Z-1.355 R0.75
X219.229 Y21.272 Z-1.561 R0.75
X219.905 Y19.932 Z-1.768 R0.75
X219.229 Y21.272 Z-1.974 R0.75
X219.905 Y19.932 Z-2.18 R0.75
X219.229 Y21.272 Z-2.386 R0.75
X219.905 Y19.932 Z-2.592 R0.75
X219.229 Y21.272 Z-2.798 R0.75
X219.905 Y19.932 Z-3.004 R0.75
X219.229 Y21.272 Z-3.211 R0.75
X219.905 Y19.932 Z-3.417 R0.75
X219.229 Y21.272 Z-3.623 R0.75
X219.905 Y19.932 Z-3.829 R0.75
X219.229 Y21.272 Z-4.035 R0.75
X219.905 Y19.932 Z-4.241 R0.75
X219.229 Y21.272 Z-4.447 R0.75
X219.905 Y19.932 Z-4.654 R0.75
X219.229 Y21.272 Z-4.86 R0.75
X219.905 Y19.932 Z-5.066 R0.75
X219.229 Y21.272 Z-5.272 R0.75
X219.905 Y19.932 Z-5.478 R0.75
X219.229 Y21.272 Z-5.684 R0.75
X219.905 Y19.932 Z-5.89 R0.75
X219.229 Y21.272 Z-6.096 R0.75
X219.905 Y19.932 Z-6.303 R0.75
X219.229 Y21.272 Z-6.509 R0.75
X219.905 Y19.932 Z-6.715 R0.75
X219.229 Y21.272 Z-6.921 R0.75
X219.905 Y19.932 Z-7.127 R0.75
X219.229 Y21.272 Z-7.333 R0.75
X219.905 Y19.932 Z-7.539 R0.75
X219.229 Y21.272 Z-7.746 R0.75
X219.905 Y19.932 Z-7.952 R0.75
X219.229 Y21.272 Z-8.158 R0.75
X219.905 Y19.932 Z-8.364 R0.75
X219.229 Y21.272 Z-8.57 R0.75
X219.905 Y19.932 Z-8.776 R0.75
X219.229 Y21.272 Z-8.982 R0.75
X219.905 Y19.932 Z-9.189 R0.75
