(_40_80_160_)
(T1  D=4. CR=0. - ZMIN=-27.49 - FLAT END MILL)
G90 G94 G91.1 G40 G49 G17
G21

(ADAPTIVE1)
M5
M9
T1
S2670 M3
G54
M8
G0 X-58.599 Y-19.997
G43 Z10. H1
Z5.
Z0.91
G1 Z0.51 F400.
G3 X-61.399 Y-20.003 Z-0.266 R1.4
X-58.599 Y-19.997 Z-1.041 R1.4
X-61.399 Y-20.003 Z-1.817 R1.4
X-58.599 Y-19.997 Z-2.592 R1.4
X-61.399 Y-20.003 Z-3.368 R1.4
X-58.599 Y-19.997 Z-4.143 R1.4
X-61.399 Y-20.003 Z-4.919 R1.4
X-58.599 Y-19.997 Z-5.694 R1.4
X-61.399 Y-20.003 Z-6.47 R1.4
X-58.599 Y-19.997 Z-7.245 R1.4
X-61.399 Y-20.003 Z-8.021 R1.4
X-58.599 Y-19.997 Z-8.796 R1.4
X-61.399 Y-20.003 Z-9.572 R1.4
X-58.599 Y-19.997 Z-10.347 R1.4
X-61.399 Y-20.003 Z-11.123 R1.4
X-58.599 Y-19.997 Z-11.898 R1.4
X-61.399 Y-20.003 Z-12.674 R1.4
X-58.599 Y-19.997 Z-13.449 R1.4
X-61.399 Y-20.003 Z-14.225 R1.4
X-58.599 Y-20. Z-15. R1.4
X-61.399 R1.4
X-58.599 R1.4
G1 X-58.562 Y-19.23
X-58.569 Y-19.095
X-58.597 Y-18.963
X-58.643 Y-18.836
X-58.703 Y-18.715
X-58.777 Y-18.602
X-58.861 Y-18.497
X-58.956 Y-18.4
X-59.059 Y-18.313
X-59.169 Y-18.235
X-59.285 Y-18.167
X-59.407 Y-18.108
X-59.533 Y-18.06
X-59.662 Y-18.021
X-59.794 Y-17.993
X-60.063 Y-17.966
X-60.332 Y-17.978
X-60.598 Y-18.028
X-60.853 Y-18.115
X-61.094 Y-18.236
X-61.317 Y-18.388
X-61.518 Y-18.568
X-61.693 Y-18.774
X-61.839 Y-19.
X-61.955 Y-19.244
X-62.038 Y-19.501
X-62.086 Y-19.766
X-62.1 Y-20.036
X-62.08 Y-20.305
X-62.024 Y-20.569
X-61.935 Y-20.824
X-61.814 Y-21.065
X-61.664 Y-21.289
X-61.485 Y-21.491
X-61.282 Y-21.67
X-61.059 Y-21.82
X-60.817 Y-21.941
X-60.562 Y-22.03
X-60.298 Y-22.085
X-60.029 Y-22.106
X-59.76 Y-22.093
X-59.494 Y-22.045
X-59.237 Y-21.964
X-58.992 Y-21.85
X-58.764 Y-21.706
X-58.556 Y-21.534
X-58.371 Y-21.337
X-58.208 Y-21.109
X-58.117 Y-20.953
X-58.017 Y-20.753
X-57.927 Y-20.539
X-57.841 Y-20.284
X-57.812 Y-20.149
X-57.798 Y-20.011
X-57.801 Y-19.872
X-57.827 Y-19.536
X-57.847 Y-19.458
X-58.06 Y-18.919
X-58.112 Y-18.836
X-58.491 Y-18.369
X-58.994 Y-18.021
X-59.071 Y-17.983
X-59.616 Y-17.814
X-59.694 Y-17.8
X-60.317
X-60.55 Y-17.865
X-60.939 Y-17.986
X-61.06 Y-18.057
X-61.508 Y-18.369
X-61.888 Y-18.836
X-61.951 Y-18.943
X-62.153 Y-19.458
X-62.173 Y-19.536
X-62.217 Y-20.159
X-62.134 Y-20.548
X-62.066 Y-20.82
X-61.752 Y-21.365
X-61.64 Y-21.483
X-61.272 Y-21.821
X-61.173 Y-21.88
X-60.706 Y-22.104
X-60.628 Y-22.131
X-60.005 Y-22.222
X-59.772 Y-22.193
X-59.344 Y-22.123
X-58.766 Y-21.848
X-58.682 Y-21.782
X-58.278 Y-21.404
X-58.215 Y-21.314
X-57.935 Y-20.823
X-57.83 Y-20.392
X-57.783 Y-20.159
X-57.801 Y-19.872
X-57.815 Y-19.826 Z-14.992
X-57.829 Y-19.785 Z-14.97
X-57.839 Y-19.752 Z-14.935
X-57.846 Y-19.731 Z-14.891
X-57.848 Y-19.724 Z-14.843
G0 Z5.
X-58.6 Y20.002
Z0.91
G1 Z0.51 F400.
G3 X-61.4 Y19.996 Z-0.266 R1.4
X-58.6 Y20.002 Z-1.041 R1.4
X-61.4 Y19.996 Z-1.817 R1.4
X-58.6 Y20.002 Z-2.592 R1.4
X-61.4 Y19.996 Z-3.368 R1.4
X-58.6 Y20.002 Z-4.143 R1.4
X-61.4 Y19.996 Z-4.919 R1.4
X-58.6 Y20.002 Z-5.694 R1.4
X-61.4 Y19.996 Z-6.47 R1.4
X-58.6 Y20.002 Z-7.245 R1.4
X-61.4 Y19.996 Z-8.021 R1.4
X-58.6 Y20.002 Z-8.796 R1.4
X-61.4 Y19.996 Z-9.572 R1.4
X-58.6 Y20.002 Z-10.347 R1.4
X-61.4 Y19.996 Z-11.123 R1.4
X-58.6 Y20.002 Z-11.898 R1.4
X-61.4 Y19.996 Z-12.674 R1.4
X-58.6 Y20.002 Z-13.449 R1.4
X-61.4 Y19.996 Z-14.225 R1.4
X-58.6 Y19.999 Z-15. R1.4
X-61.4 R1.4
X-58.6 R1.4
G1 X-58.563 Y20.769
X-58.57 Y20.904
X-58.598 Y21.036
X-58.643 Y21.163
X-58.704 Y21.284
X-58.777 Y21.397
X-58.862 Y21.502
X-58.956 Y21.599
X-59.059 Y21.686
X-59.169 Y21.764
X-59.286 Y21.833
X-59.407 Y21.891
X-59.533 Y21.939
X-59.663 Y21.978
X-59.795 Y22.006
X-60.063 Y22.033
X-60.333 Y22.021
X-60.598 Y21.971
X-60.853 Y21.884
X-61.095 Y21.764
X-61.318 Y21.611
X-61.518 Y21.431
X-61.693 Y21.226
X-61.84 Y20.999
X-61.955 Y20.755
X-62.038 Y20.498
X-62.087 Y20.233
X-62.101 Y19.963
X-62.08 Y19.694
X-62.025 Y19.43
X-61.936 Y19.175
X-61.815 Y18.934
X-61.664 Y18.71
X-61.486 Y18.508
X-61.283 Y18.33
X-61.059 Y18.179
X-60.817 Y18.058
X-60.563 Y17.97
X-60.299 Y17.914
X-60.029 Y17.893
X-59.76 Y17.906
X-59.494 Y17.954
X-59.237 Y18.036
X-58.992 Y18.149
X-58.764 Y18.293
X-58.556 Y18.465
X-58.372 Y18.662
X-58.208 Y18.89
X-58.117 Y19.046
X-58.018 Y19.246
X-57.927 Y19.461
X-57.841 Y19.716
X-57.812 Y19.852
X-57.798 Y19.989
X-57.801 Y20.128
X-57.836 Y20.509
X-58.06 Y21.081
X-58.116 Y21.17
X-58.498 Y21.637
X-59.032 Y22.
X-59.616 Y22.186
X-59.694 Y22.2
X-60.317 Y22.199
X-60.394 Y22.183
X-60.939 Y22.014
X-61.052 Y21.949
X-61.503 Y21.637
X-61.64 Y21.476
X-61.924 Y21.114
X-62.163 Y20.509
X-62.191 Y20.237
X-62.216 Y19.847
X-62.207 Y19.77
X-62.068 Y19.186
X-61.757 Y18.641
X-61.64 Y18.517
X-61.277 Y18.182
X-61.173 Y18.12
X-60.706 Y17.896
X-60.628 Y17.869
X-60.005 Y17.778
X-59.772 Y17.807
X-59.344 Y17.877
X-58.763 Y18.154
X-58.682 Y18.218
X-58.274 Y18.602
X-58.215 Y18.686
X-57.95 Y19.147
X-57.921 Y19.216
X-57.793 Y19.77
X-57.784 Y19.847
X-57.801 Y20.128
X-57.815 Y20.174 Z-14.992
X-57.829 Y20.215 Z-14.97
X-57.839 Y20.248 Z-14.935
X-57.846 Y20.269 Z-14.891
X-57.848 Y20.277 Z-14.843
G0 Z5.
X-18.6 Y-19.997
Z0.91
G1 Z0.51 F400.
G3 X-21.4 Y-20.003 Z-0.266 R1.4
X-18.6 Y-19.997 Z-1.041 R1.4
X-21.4 Y-20.003 Z-1.817 R1.4
X-18.6 Y-19.997 Z-2.592 R1.4
X-21.4 Y-20.003 Z-3.368 R1.4
X-18.6 Y-19.997 Z-4.143 R1.4
X-21.4 Y-20.003 Z-4.919 R1.4
X-18.6 Y-19.997 Z-5.694 R1.4
X-21.4 Y-20.003 Z-6.47 R1.4
X-18.6 Y-19.997 Z-7.245 R1.4
X-21.4 Y-20.003 Z-8.021 R1.4
X-18.6 Y-19.997 Z-8.796 R1.4
X-21.4 Y-20.003 Z-9.572 R1.4
X-18.6 Y-19.997 Z-10.347 R1.4
X-21.4 Y-20.003 Z-11.123 R1.4
X-18.6 Y-19.997 Z-11.898 R1.4
X-21.4 Y-20.003 Z-12.674 R1.4
X-18.6 Y-19.997 Z-13.449 R1.4
X-21.4 Y-20.003 Z-14.225 R1.4
X-18.6 Y-20. Z-15. R1.4
X-21.4 R1.4
X-18.6 R1.4
G1 X-18.563 Y-19.23
X-18.57 Y-19.095
X-18.598 Y-18.963
X-18.643 Y-18.836
X-18.704 Y-18.715
X-18.777 Y-18.602
X-18.862 Y-18.497
X-18.956 Y-18.4
X-19.059 Y-18.313
X-19.169 Y-18.235
X-19.286 Y-18.167
X-19.407 Y-18.108
X-19.533 Y-18.06
X-19.663 Y-18.021
X-19.795 Y-17.993
X-20.063 Y-17.966
X-20.333 Y-17.978
X-20.598 Y-18.028
X-20.853 Y-18.115
X-21.095 Y-18.236
X-21.318 Y-18.388
X-21.518 Y-18.568
X-21.693 Y-18.774
X-21.84 Y-19.
X-21.955 Y-19.244
X-22.038 Y-19.501
X-22.087 Y-19.767
X-22.101 Y-20.036
X-22.08 Y-20.305
X-22.025 Y-20.569
X-21.936 Y-20.824
X-21.815 Y-21.065
X-21.664 Y-21.289
X-21.486 Y-21.492
X-21.283 Y-21.67
X-21.059 Y-21.82
X-20.817 Y-21.941
X-20.563 Y-22.03
X-20.299 Y-22.085
X-20.03 Y-22.106
X-19.76 Y-22.093
X-19.494 Y-22.045
X-19.237 Y-21.964
X-18.992 Y-21.85
X-18.764 Y-21.706
X-18.556 Y-21.534
X-18.372 Y-21.337
X-18.208 Y-21.109
X-18.117 Y-20.953
X-18.018 Y-20.753
X-17.927 Y-20.539
X-17.841 Y-20.283
X-17.812 Y-20.148
X-17.799 Y-20.01
X-17.801 Y-19.872
X-17.827 Y-19.536
X-17.847 Y-19.458
X-18.056 Y-18.926
X-18.112 Y-18.836
X-18.491 Y-18.369
X-18.99 Y-18.023
X-19.068 Y-17.984
X-19.613 Y-17.815
X-19.69 Y-17.8
X-20.313
X-20.391 Y-17.816
X-20.936 Y-17.985
X-21.06 Y-18.057
X-21.51 Y-18.369
X-21.923 Y-18.885
X-22.153 Y-19.458
X-22.173 Y-19.536
X-22.217 Y-20.159
X-22.134 Y-20.548
X-22.066 Y-20.82
X-21.753 Y-21.365
X-21.636 Y-21.486
X-21.272 Y-21.822
X-21.169 Y-21.882
X-20.702 Y-22.106
X-20.624 Y-22.132
X-20.002 Y-22.222
X-19.613 Y-22.169
X-19.34 Y-22.122
X-18.764 Y-21.847
X-18.679 Y-21.779
X-18.278 Y-21.404
X-18.212 Y-21.308
X-17.934 Y-20.82
X-17.795 Y-20.237
X-17.783 Y-20.159
X-17.801 Y-19.872
X-17.815 Y-19.825 Z-14.992
X-17.829 Y-19.784 Z-14.97
X-17.839 Y-19.751 Z-14.935
X-17.846 Y-19.73 Z-14.891
X-17.848 Y-19.723 Z-14.843
G0 Z5.
X-18.6 Y20.003
Z0.91
G1 Z0.51 F400.
G3 X-21.4 Y19.997 Z-0.266 R1.4
X-18.6 Y20.003 Z-1.041 R1.4
X-21.4 Y19.997 Z-1.817 R1.4
X-18.6 Y20.003 Z-2.592 R1.4
X-21.4 Y19.997 Z-3.368 R1.4
X-18.6 Y20.003 Z-4.143 R1.4
X-21.4 Y19.997 Z-4.919 R1.4
X-18.6 Y20.003 Z-5.694 R1.4
X-21.4 Y19.997 Z-6.47 R1.4
X-18.6 Y20.003 Z-7.245 R1.4
X-21.4 Y19.997 Z-8.021 R1.4
X-18.6 Y20.003 Z-8.796 R1.4
X-21.4 Y19.997 Z-9.572 R1.4
X-18.6 Y20.003 Z-10.347 R1.4
X-21.4 Y19.997 Z-11.123 R1.4
X-18.6 Y20.003 Z-11.898 R1.4
X-21.4 Y19.997 Z-12.674 R1.4
X-18.6 Y20.003 Z-13.449 R1.4
X-21.4 Y19.997 Z-14.225 R1.4
X-18.6 Y20. Z-15. R1.4
X-21.4 R1.4
X-18.6 R1.4
G1 X-18.563 Y20.77
X-18.57 Y20.905
X-18.598 Y21.037
X-18.644 Y21.164
X-18.704 Y21.284
X-18.778 Y21.398
X-18.862 Y21.503
X-18.957 Y21.599
X-19.06 Y21.687
X-19.17 Y21.765
X-19.286 Y21.833
X-19.408 Y21.891
X-19.534 Y21.94
X-19.663 Y21.978
X-19.795 Y22.007
X-20.064 Y22.034
X-20.333 Y22.022
X-20.598 Y21.971
X-20.854 Y21.885
X-21.095 Y21.764
X-21.318 Y21.612
X-21.519 Y21.432
X-21.694 Y21.226
X-21.84 Y20.999
X-21.956 Y20.755
X-22.039 Y20.499
X-22.087 Y20.233
X-22.101 Y19.964
X-22.08 Y19.695
X-22.025 Y19.431
X-21.936 Y19.176
X-21.815 Y18.934
X-21.664 Y18.711
X-21.486 Y18.508
X-21.283 Y18.33
X-21.059 Y18.18
X-20.818 Y18.059
X-20.563 Y17.97
X-20.299 Y17.915
X-20.03 Y17.894
X-19.761 Y17.907
X-19.495 Y17.955
X-19.238 Y18.036
X-18.993 Y18.15
X-18.765 Y18.294
X-18.557 Y18.466
X-18.372 Y18.663
X-18.209 Y18.891
X-18.118 Y19.047
X-18.018 Y19.246
X-17.927 Y19.461
X-17.842 Y19.719
X-17.812 Y19.854
X-17.799 Y19.991
X-17.801 Y20.13
X-17.836 Y20.509
X-18.056 Y21.074
X-18.116 Y21.17
X-18.459 Y21.599
X-18.523 Y21.658
X-18.99 Y21.977
X-19.068 Y22.016
X-19.613 Y22.185
X-19.69 Y22.2
X-20.313
X-20.391 Y22.184
X-20.936 Y22.015
X-21.052 Y21.949
X-21.503 Y21.637
X-21.636 Y21.481
X-21.92 Y21.118
X-22.029 Y20.859
X-22.151 Y20.548
X-22.172 Y20.47
X-22.216 Y19.847
X-22.207 Y19.77
X-22.068 Y19.186
X-21.757 Y18.641
X-21.636 Y18.514
X-21.312 Y18.213
X-21.241 Y18.157
X-20.702 Y17.894
X-20.624 Y17.869
X-20.002 Y17.778
X-19.613 Y17.831
X-19.379 Y17.868
X-19.281 Y17.902
X-18.761 Y18.155
X-18.679 Y18.221
X-18.273 Y18.602
X-18.212 Y18.692
X-17.95 Y19.147
X-17.919 Y19.224
X-17.793 Y19.77
X-17.784 Y19.847
X-17.801 Y20.13
X-17.816 Y20.176 Z-14.992
X-17.829 Y20.217 Z-14.97
X-17.839 Y20.25 Z-14.935
X-17.846 Y20.271 Z-14.891
X-17.848 Y20.279 Z-14.843
G0 Z5.
X21.4 Y-19.996
Z0.91
G1 Z0.51 F400.
G3 X18.6 Y-20.002 Z-0.266 R1.4
X21.4 Y-19.996 Z-1.041 R1.4
X18.6 Y-20.002 Z-1.817 R1.4
X21.4 Y-19.996 Z-2.592 R1.4
X18.6 Y-20.002 Z-3.368 R1.4
X21.4 Y-19.996 Z-4.143 R1.4
X18.6 Y-20.002 Z-4.919 R1.4
X21.4 Y-19.996 Z-5.694 R1.4
X18.6 Y-20.002 Z-6.47 R1.4
X21.4 Y-19.996 Z-7.245 R1.4
X18.6 Y-20.002 Z-8.021 R1.4
X21.4 Y-19.996 Z-8.796 R1.4
X18.6 Y-20.002 Z-9.572 R1.4
X21.4 Y-19.996 Z-10.347 R1.4
X18.6 Y-20.002 Z-11.123 R1.4
X21.4 Y-19.996 Z-11.898 R1.4
X18.6 Y-20.002 Z-12.674 R1.4
X21.4 Y-19.996 Z-13.449 R1.4
X18.6 Y-20.002 Z-14.225 R1.4
X21.4 Y-19.999 Z-15. R1.4
X18.6 R1.4
X21.4 R1.4
G1 X21.437 Y-19.229
X21.43 Y-19.094
X21.402 Y-18.962
X21.357 Y-18.835
X21.296 Y-18.715
X21.223 Y-18.601
X21.138 Y-18.496
X21.044 Y-18.4
X20.941 Y-18.312
X20.831 Y-18.234
X20.714 Y-18.166
X20.593 Y-18.108
X20.467 Y-18.059
X20.337 Y-18.021
X20.205 Y-17.992
X19.937 Y-17.965
X19.667 Y-17.977
X19.402 Y-18.028
X19.147 Y-18.114
X18.905 Y-18.235
X18.682 Y-18.387
X18.482 Y-18.568
X18.307 Y-18.773
X18.16 Y-19.
X18.045 Y-19.244
X17.962 Y-19.5
X17.913 Y-19.766
X17.899 Y-20.035
X17.92 Y-20.304
X17.975 Y-20.568
X18.064 Y-20.823
X18.185 Y-21.065
X18.336 Y-21.288
X18.514 Y-21.491
X18.717 Y-21.669
X18.941 Y-21.819
X19.183 Y-21.94
X19.437 Y-22.029
X19.701 Y-22.084
X19.971 Y-22.106
X20.24 Y-22.092
X20.506 Y-22.044
X20.763 Y-21.963
X21.008 Y-21.849
X21.236 Y-21.705
X21.444 Y-21.533
X21.628 Y-21.336
X21.792 Y-21.108
X21.883 Y-20.952
X21.982 Y-20.753
X22.073 Y-20.538
X22.159 Y-20.282
X22.188 Y-20.147
X22.201 Y-20.009
X22.199 Y-19.871
X22.165 Y-19.497
X21.947 Y-18.935
X21.888 Y-18.836
X21.51 Y-18.369
X20.975 Y-18.002
X20.547 Y-17.864
X20.391 Y-17.816
X20.313 Y-17.8
X19.69
X19.613 Y-17.815
X19.068 Y-17.984
X18.94 Y-18.057
X18.491 Y-18.369
X18.08 Y-18.881
X17.908 Y-19.303
X17.847 Y-19.458
X17.827 Y-19.536
X17.783 Y-20.159
X17.866 Y-20.548
X17.934 Y-20.82
X18.247 Y-21.365
X18.367 Y-21.49
X18.729 Y-21.823
X18.834 Y-21.883
X19.34 Y-22.122
X19.924 Y-22.216
X20.002 Y-22.222
X20.624 Y-22.132
X20.706 Y-22.104
X21.237 Y-21.846
X21.325 Y-21.775
X21.722 Y-21.404
X21.792 Y-21.302
X22.066 Y-20.82
X22.17 Y-20.392
X22.217 Y-20.159
X22.199 Y-19.871
X22.184 Y-19.825 Z-14.992
X22.171 Y-19.784 Z-14.97
X22.161 Y-19.751 Z-14.935
X22.154 Y-19.73 Z-14.891
X22.152 Y-19.722 Z-14.843
G0 Z5.
X21.4 Y20.003
Z0.91
G1 Z0.51 F400.
G3 X18.6 Y19.997 Z-0.266 R1.4
X21.4 Y20.003 Z-1.041 R1.4
X18.6 Y19.997 Z-1.817 R1.4
X21.4 Y20.003 Z-2.592 R1.4
X18.6 Y19.997 Z-3.368 R1.4
X21.4 Y20.003 Z-4.143 R1.4
X18.6 Y19.997 Z-4.919 R1.4
X21.4 Y20.003 Z-5.694 R1.4
X18.6 Y19.997 Z-6.47 R1.4
X21.4 Y20.003 Z-7.245 R1.4
X18.6 Y19.997 Z-8.021 R1.4
X21.4 Y20.003 Z-8.796 R1.4
X18.6 Y19.997 Z-9.572 R1.4
X21.4 Y20.003 Z-10.347 R1.4
X18.6 Y19.997 Z-11.123 R1.4
X21.4 Y20.003 Z-11.898 R1.4
X18.6 Y19.997 Z-12.674 R1.4
X21.4 Y20.003 Z-13.449 R1.4
X18.6 Y19.997 Z-14.225 R1.4
X21.4 Y20. Z-15. R1.4
X18.6 R1.4
X21.4 R1.4
G1 X21.437 Y20.77
X21.43 Y20.905
X21.402 Y21.037
X21.357 Y21.164
X21.296 Y21.285
X21.223 Y21.398
X21.138 Y21.503
X21.044 Y21.6
X20.941 Y21.687
X20.831 Y21.765
X20.714 Y21.833
X20.592 Y21.892
X20.466 Y21.94
X20.337 Y21.979
X20.205 Y22.007
X19.937 Y22.034
X19.667 Y22.022
X19.402 Y21.972
X19.146 Y21.885
X18.905 Y21.764
X18.682 Y21.612
X18.482 Y21.432
X18.307 Y21.226
X18.16 Y21.
X18.045 Y20.756
X17.962 Y20.499
X17.913 Y20.234
X17.899 Y19.964
X17.92 Y19.695
X17.975 Y19.431
X18.064 Y19.176
X18.185 Y18.935
X18.336 Y18.711
X18.514 Y18.508
X18.717 Y18.33
X18.941 Y18.18
X19.182 Y18.059
X19.437 Y17.97
X19.701 Y17.915
X19.97 Y17.894
X20.24 Y17.907
X20.505 Y17.955
X20.763 Y18.036
X21.008 Y18.15
X21.236 Y18.294
X21.444 Y18.466
X21.628 Y18.663
X21.792 Y18.891
X21.883 Y19.047
X21.982 Y19.247
X22.073 Y19.461
X22.158 Y19.718
X22.188 Y19.853
X22.201 Y19.991
X22.199 Y20.129
X22.172 Y20.47
X22.151 Y20.548
X21.947 Y21.066
X21.884 Y21.17
X21.542 Y21.599
X21.481 Y21.656
X21.014 Y21.974
X20.936 Y22.015
X20.391 Y22.184
X20.313 Y22.2
X19.69
X19.613 Y22.185
X19.068 Y22.016
X18.948 Y21.949
X18.497 Y21.637
X18.365 Y21.482
X18.082 Y21.122
X18.032 Y21.015
X17.836 Y20.509
X17.809 Y20.237
X17.784 Y19.847
X17.793 Y19.77
X17.919 Y19.224
X17.95 Y19.147
X18.243 Y18.641
X18.367 Y18.51
X18.725 Y18.181
X18.834 Y18.117
X19.301 Y17.892
X19.379 Y17.868
X19.924 Y17.784
X20.002 Y17.778
X20.624 Y17.869
X20.719 Y17.902
X21.241 Y18.157
X21.325 Y18.225
X21.726 Y18.602
X21.792 Y18.698
X22.068 Y19.186
X22.207 Y19.77
X22.216 Y19.847
X22.199 Y20.129
X22.184 Y20.175 Z-14.992
X22.171 Y20.217 Z-14.97
X22.161 Y20.249 Z-14.935
X22.154 Y20.271 Z-14.891
X22.152 Y20.278 Z-14.843
G0 Z5.
X61.4 Y-19.997
Z0.91
G1 Z0.51 F400.
G3 X58.6 Y-20.003 Z-0.266 R1.4
X61.4 Y-19.997 Z-1.041 R1.4
X58.6 Y-20.003 Z-1.817 R1.4
X61.4 Y-19.997 Z-2.592 R1.4
X58.6 Y-20.003 Z-3.368 R1.4
X61.4 Y-19.997 Z-4.143 R1.4
X58.6 Y-20.003 Z-4.919 R1.4
X61.4 Y-19.997 Z-5.694 R1.4
X58.6 Y-20.003 Z-6.47 R1.4
X61.4 Y-19.997 Z-7.245 R1.4
X58.6 Y-20.003 Z-8.021 R1.4
X61.4 Y-19.997 Z-8.796 R1.4
X58.6 Y-20.003 Z-9.572 R1.4
X61.4 Y-19.997 Z-10.347 R1.4
X58.6 Y-20.003 Z-11.123 R1.4
X61.4 Y-19.997 Z-11.898 R1.4
X58.6 Y-20.003 Z-12.674 R1.4
X61.4 Y-19.997 Z-13.449 R1.4
X58.6 Y-20.003 Z-14.225 R1.4
X61.4 Y-20. Z-15. R1.4
X58.6 R1.4
X61.4 R1.4
G1 X61.437 Y-19.23
X61.43 Y-19.095
X61.402 Y-18.963
X61.357 Y-18.836
X61.296 Y-18.715
X61.223 Y-18.602
X61.138 Y-18.497
X61.044 Y-18.401
X60.941 Y-18.313
X60.831 Y-18.235
X60.714 Y-18.167
X60.592 Y-18.108
X60.466 Y-18.06
X60.337 Y-18.021
X60.205 Y-17.993
X59.937 Y-17.966
X59.667 Y-17.978
X59.402 Y-18.029
X59.146 Y-18.115
X58.905 Y-18.236
X58.682 Y-18.388
X58.481 Y-18.568
X58.307 Y-18.774
X58.16 Y-19.001
X58.045 Y-19.244
X57.962 Y-19.501
X57.913 Y-19.767
X57.899 Y-20.036
X57.92 Y-20.305
X57.975 Y-20.569
X58.064 Y-20.824
X58.185 Y-21.065
X58.336 Y-21.289
X58.514 Y-21.492
X58.717 Y-21.67
X58.941 Y-21.82
X59.182 Y-21.941
X59.437 Y-22.03
X59.701 Y-22.085
X59.97 Y-22.106
X60.24 Y-22.093
X60.505 Y-22.045
X60.763 Y-21.964
X61.008 Y-21.85
X61.236 Y-21.706
X61.444 Y-21.534
X61.628 Y-21.337
X61.792 Y-21.109
X61.883 Y-20.953
X61.982 Y-20.754
X62.073 Y-20.539
X62.159 Y-20.282
X62.188 Y-20.147
X62.201 Y-20.009
X62.199 Y-19.871
X62.173 Y-19.536
X62.153 Y-19.458
X61.951 Y-18.943
X61.888 Y-18.836
X61.508 Y-18.369
X61.017 Y-18.028
X60.939 Y-17.986
X60.394 Y-17.817
X60.317 Y-17.8
X59.694
X59.616 Y-17.814
X59.071 Y-17.983
X58.94 Y-18.057
X58.491 Y-18.369
X58.083 Y-18.877
X57.969 Y-19.147
X57.847 Y-19.458
X57.827 Y-19.536
X57.783 Y-20.159
X57.866 Y-20.548
X57.935 Y-20.823
X58.247 Y-21.365
X58.371 Y-21.493
X58.73 Y-21.823
X58.838 Y-21.885
X59.344 Y-22.123
X59.966 Y-22.221
X60.083 Y-22.215
X60.628 Y-22.131
X60.706 Y-22.104
X61.239 Y-21.844
X61.328 Y-21.772
X61.721 Y-21.404
X61.795 Y-21.295
X62.066 Y-20.82
X62.205 Y-20.237
X62.217 Y-20.159
X62.199 Y-19.871
X62.184 Y-19.825 Z-14.992
X62.171 Y-19.784 Z-14.97
X62.161 Y-19.751 Z-14.935
X62.154 Y-19.73 Z-14.891
X62.152 Y-19.722 Z-14.843
G0 Z5.
X61.4 Y20.003
Z0.91
G1 Z0.51 F400.
G3 X58.6 Y19.997 Z-0.266 R1.4
X61.4 Y20.003 Z-1.041 R1.4
X58.6 Y19.997 Z-1.817 R1.4
X61.4 Y20.003 Z-2.592 R1.4
X58.6 Y19.997 Z-3.368 R1.4
X61.4 Y20.003 Z-4.143 R1.4
X58.6 Y19.997 Z-4.919 R1.4
X61.4 Y20.003 Z-5.694 R1.4
X58.6 Y19.997 Z-6.47 R1.4
X61.4 Y20.003 Z-7.245 R1.4
X58.6 Y19.997 Z-8.021 R1.4
X61.4 Y20.003 Z-8.796 R1.4
X58.6 Y19.997 Z-9.572 R1.4
X61.4 Y20.003 Z-10.347 R1.4
X58.6 Y19.997 Z-11.123 R1.4
X61.4 Y20.003 Z-11.898 R1.4
X58.6 Y19.997 Z-12.674 R1.4
X61.4 Y20.003 Z-13.449 R1.4
X58.6 Y19.997 Z-14.225 R1.4
X61.4 Y20. Z-15. R1.4
X58.6 R1.4
X61.4 R1.4
G1 X61.437 Y20.77
X61.43 Y20.905
X61.402 Y21.037
X61.357 Y21.164
X61.296 Y21.284
X61.223 Y21.398
X61.138 Y21.503
X61.044 Y21.599
X60.941 Y21.687
X60.831 Y21.765
X60.714 Y21.833
X60.592 Y21.891
X60.466 Y21.94
X60.337 Y21.978
X60.205 Y22.007
X59.937 Y22.034
X59.667 Y22.022
X59.402 Y21.971
X59.146 Y21.885
X58.905 Y21.764
X58.682 Y21.612
X58.481 Y21.431
X58.307 Y21.226
X58.16 Y20.999
X58.045 Y20.755
X57.962 Y20.499
X57.913 Y20.233
X57.899 Y19.964
X57.92 Y19.695
X57.975 Y19.431
X58.064 Y19.176
X58.185 Y18.934
X58.336 Y18.711
X58.514 Y18.508
X58.717 Y18.33
X58.941 Y18.18
X59.182 Y18.059
X59.437 Y17.97
X59.701 Y17.915
X59.97 Y17.893
X60.24 Y17.907
X60.505 Y17.955
X60.763 Y18.036
X61.008 Y18.15
X61.236 Y18.294
X61.444 Y18.466
X61.628 Y18.663
X61.792 Y18.891
X61.883 Y19.047
X61.982 Y19.246
X62.073 Y19.461
X62.159 Y19.718
X62.188 Y19.853
X62.201 Y19.99
X62.199 Y20.129
X62.163 Y20.509
X61.924 Y21.114
X61.541 Y21.599
X61.484 Y21.653
X61.017 Y21.972
X60.939 Y22.014
X60.394 Y22.183
X60.317 Y22.199
X59.694 Y22.2
X59.616 Y22.186
X59.032 Y22.
X58.498 Y21.637
X58.116 Y21.17
X58.06 Y21.081
X57.836 Y20.509
X57.809 Y20.237
X57.784 Y19.847
X57.793 Y19.77
X57.921 Y19.216
X57.95 Y19.147
X58.243 Y18.641
X58.371 Y18.507
X58.725 Y18.181
X58.838 Y18.115
X59.344 Y17.877
X59.966 Y17.779
X60.083 Y17.785
X60.628 Y17.869
X60.719 Y17.902
X61.242 Y18.158
X61.328 Y18.228
X61.726 Y18.602
X61.795 Y18.705
X62.068 Y19.186
X62.207 Y19.77
X62.216 Y19.847
X62.199 Y20.129
X62.185 Y20.175 Z-14.992
X62.171 Y20.216 Z-14.97
X62.161 Y20.249 Z-14.935
X62.154 Y20.27 Z-14.891
X62.152 Y20.278 Z-14.843
G0 Z5.
X-59.64 Y-19.543
Z-11.2
G1 Z-11.6 F400.
X-59.641 Y-19.55 Z-11.678
X-59.644 Y-19.573 Z-11.753
X-59.649 Y-19.61 Z-11.822
X-59.655 Y-19.659 Z-11.883
X-59.663 Y-19.719 Z-11.933
X-59.672 Y-19.788 Z-11.97
X-59.682 Y-19.862 Z-11.992
X-59.692 Y-19.939 Z-12.
G3 X-59.74 Y-22.139 R10.212
G1 X-59.732 Y-22.206
X-59.645 Y-22.309
X-59.529 Y-22.378
X-59.401 Y-22.421
X-59.269 Y-22.449
X-59.135 Y-22.461
X-59. Y-22.458
X-58.866 Y-22.441
X-58.603 Y-22.378
X-58.476 Y-22.333
X-58.353 Y-22.277
X-58.088 Y-22.121
X-57.865 Y-21.948
X-57.659 Y-21.741
X-57.542 Y-21.598
X-57.44 Y-21.455
X-57.288 Y-21.194
X-57.218 Y-21.041
X-57.146 Y-20.855
X-57.09 Y-20.674
X-57.05 Y-20.51
X-57.023 Y-20.356
X-57.003 Y-20.179
X-56.994 Y-19.967
X-56.997 Y-19.771
X-57.011 Y-19.6
X-57.035 Y-19.44
X-57.074 Y-19.254
X-57.133 Y-19.046
X-57.199 Y-18.858
X-57.265 Y-18.702
X-57.341 Y-18.552
X-57.444 Y-18.376
X-57.566 Y-18.195
X-57.682 Y-18.045
X-57.793 Y-17.919
X-57.919 Y-17.793
X-58.082 Y-17.65
X-58.248 Y-17.522
X-58.402 Y-17.418
X-58.546 Y-17.334
X-58.716 Y-17.249
X-58.921 Y-17.162
X-59.114 Y-17.094
X-59.284 Y-17.047
X-59.45 Y-17.012
X-59.65 Y-16.983
X-59.875 Y-16.965
X-60.064 Y-16.961
X-60.238 Y-16.97
X-60.415 Y-16.99
X-60.626 Y-17.027
X-60.837 Y-17.079
X-61.01 Y-17.133
X-61.17 Y-17.194
X-61.343 Y-17.274
X-61.54 Y-17.381
X-61.713 Y-17.489
X-61.859 Y-17.594
X-61.989 Y-17.701
X-62.137 Y-17.839
X-62.291 Y-18.003
X-62.416 Y-18.154
X-62.515 Y-18.292
X-62.61 Y-18.442
X-62.713 Y-18.631
X-62.805 Y-18.829
X-62.871 Y-18.999
X-62.923 Y-19.162
X-62.968 Y-19.345
X-63.008 Y-19.567
X-63.032 Y-19.771
X-63.041 Y-19.949
X-63.038 Y-20.117
X-63.023 Y-20.318
X-62.991 Y-20.541
X-62.951 Y-20.733
X-62.906 Y-20.897
X-62.847 Y-21.066
X-62.764 Y-21.264
X-62.667 Y-21.459
X-62.574 Y-21.619
X-62.48 Y-21.76
X-62.366 Y-21.909
X-62.218 Y-22.078
X-62.074 Y-22.223
X-61.939 Y-22.342
X-61.805 Y-22.447
X-61.639 Y-22.559
X-61.231 Y-22.8
X-60.882 Y-22.977
X-60.607 Y-23.095
X-60.369 Y-23.179
X-60.147 Y-23.242
X-59.931 Y-23.289
X-59.72 Y-23.321
X-59.515 Y-23.338
X-59.317 Y-23.342
X-59.122 Y-23.334
X-58.927 Y-23.313
X-58.731 Y-23.279
X-58.539 Y-23.233
X-58.351 Y-23.175
X-58.168 Y-23.105
X-57.987 Y-23.023
X-57.808 Y-22.927
X-57.632 Y-22.817
X-57.463 Y-22.697
X-57.303 Y-22.567
X-57.15 Y-22.425
X-57.001 Y-22.268
X-56.861 Y-22.1
X-56.731 Y-21.922
X-56.613 Y-21.737
X-56.507 Y-21.544
X-56.41 Y-21.337
X-56.325 Y-21.122
X-56.255 Y-20.903
X-56.199 Y-20.681
X-56.156 Y-20.453
X-56.128 Y-20.219
X-56.115 Y-19.98
X-56.117 Y-19.741
X-56.135 Y-19.504
X-56.167 Y-19.268
X-56.216 Y-19.031
X-56.28 Y-18.794
X-56.359 Y-18.562
X-56.452 Y-18.339
X-56.559 Y-18.121
X-56.682 Y-17.906
X-56.82 Y-17.698
X-56.971 Y-17.5
X-57.131 Y-17.315
X-57.303 Y-17.14
X-57.491 Y-16.973
X-57.689 Y-16.817
X-57.895 Y-16.676
X-58.107 Y-16.549
X-58.328 Y-16.436
X-58.561 Y-16.335
X-58.799 Y-16.25
X-59.039 Y-16.18
X-59.28 Y-16.127
X-59.528 Y-16.089
X-59.783 Y-16.066
X-60.035 Y-16.06
X-60.284 Y-16.069
X-60.531 Y-16.095
X-60.781 Y-16.137
X-61.03 Y-16.196
X-61.272 Y-16.269
X-61.504 Y-16.356
X-61.732 Y-16.459
X-61.958 Y-16.579
X-62.175 Y-16.712
X-62.38 Y-16.857
X-62.573 Y-17.013
X-62.759 Y-17.183
X-62.936 Y-17.369
X-63.099 Y-17.563
X-63.247 Y-17.763
X-63.382 Y-17.973
X-63.505 Y-18.195
X-63.615 Y-18.427
X-63.709 Y-18.661
X-63.786 Y-18.897
X-63.848 Y-19.14
X-63.896 Y-19.391
X-63.927 Y-19.644
X-63.942 Y-19.894
X-63.941 Y-20.143
X-63.923 Y-20.395
X-63.889 Y-20.649
X-63.84 Y-20.898
X-63.775 Y-21.139
X-63.696 Y-21.375
X-63.599 Y-21.61
X-63.487 Y-21.84
X-63.363 Y-22.06
X-63.226 Y-22.268
X-63.076 Y-22.468
X-62.883 Y-22.692
X-62.671 Y-22.909
X-62.429 Y-23.128
X-62.167 Y-23.335
X-61.895 Y-23.523
X-61.619 Y-23.69
X-61.34 Y-23.834
X-61.062 Y-23.956
X-60.785 Y-24.057
X-60.51 Y-24.138
X-60.235 Y-24.2
X-59.961 Y-24.243
X-59.688 Y-24.269
X-59.418 Y-24.277
X-59.149 Y-24.267
X-58.884 Y-24.241
X-58.622 Y-24.198
X-58.363 Y-24.138
X-58.108 Y-24.062
X-57.859 Y-23.97
X-57.616 Y-23.862
X-57.379 Y-23.738
X-57.149 Y-23.598
X-56.927 Y-23.442
X-56.715 Y-23.272
X-56.513 Y-23.088
X-56.321 Y-22.89
X-56.141 Y-22.678
X-55.976 Y-22.445
X-55.946 Y-22.39
X-55.632 Y-21.793
X-55.562 Y-21.637
X-55.332 Y-20.703
X-55.3 Y-20.548
Y-19.458
X-55.369 Y-19.147
X-55.569 Y-18.341
X-55.792 Y-17.902
X-56.102 Y-17.318
X-56.858 Y-16.462
X-57.787 Y-15.817
X-58.848 Y-15.411
X-59.461 Y-15.33
X-60.005 Y-15.268
X-61.017 Y-15.388
X-61.173 Y-15.418
X-62.185 Y-15.803
X-62.574 Y-16.065
X-63.145 Y-16.465
X-63.898 Y-17.318
X-64.427 Y-18.33
X-64.689 Y-19.38
X-64.7 Y-19.458
Y-20.548
X-64.553 Y-21.17
X-64.425 Y-21.676
X-63.894 Y-22.688
X-63.141 Y-23.539
X-62.262 Y-24.15
X-62.185 Y-24.197
X-61.128 Y-24.595
X-60.005 Y-24.732
X-58.872 Y-24.595
X-57.826 Y-24.202
X-57.706 Y-24.128
X-56.862 Y-23.542
X-56.106 Y-22.688
X-55.946 Y-22.39
X-55.934 Y-22.343 Z-11.992
X-55.923 Y-22.301 Z-11.97
X-55.914 Y-22.268 Z-11.935
X-55.909 Y-22.246 Z-11.891
X-55.907 Y-22.239 Z-11.843
G0 Z5.
X-60.497 Y20.302
Z-11.2
G1 Z-11.6 F400.
X-60.49 Z-11.678
X-60.467 Z-11.753
X-60.43 Z-11.822
X-60.38 Y20.301 Z-11.883
X-60.319 Z-11.933
X-60.25 Y20.3 Z-11.97
X-60.175 Y20.299 Z-11.992
X-60.097 Z-12.
G3 X-57.908 Y20.516 R10.212
G1 X-57.842 Y20.532
X-57.748 Y20.629
X-57.694 Y20.752
X-57.664 Y20.884
X-57.655 Y21.019
X-57.661 Y21.153
X-57.679 Y21.287
X-57.709 Y21.419
X-57.753 Y21.546
X-57.868 Y21.792
X-58.013 Y22.019
X-58.205 Y22.24
X-58.327 Y22.356
X-58.559 Y22.539
X-58.826 Y22.697
X-59. Y22.779
X-59.164 Y22.844
X-59.463 Y22.93
X-59.638 Y22.963
X-59.845 Y22.988
X-60.029 Y22.998
X-60.197 Y22.997
X-60.357 Y22.986
X-60.545 Y22.96
X-60.759 Y22.917
X-60.939 Y22.868
X-61.099 Y22.814
X-61.254 Y22.75
X-61.437 Y22.66
X-61.626 Y22.553
X-61.78 Y22.45
X-61.914 Y22.349
X-62.049 Y22.233
X-62.204 Y22.081
X-62.345 Y21.924
X-62.457 Y21.782
X-62.551 Y21.646
X-62.648 Y21.482
X-62.749 Y21.286
X-62.831 Y21.099
X-62.891 Y20.932
X-62.938 Y20.769
X-62.983 Y20.571
X-63.017 Y20.349
X-63.035 Y20.157
X-63.039 Y19.988
X-63.033 Y19.81
X-63.011 Y19.594
X-62.976 Y19.383
X-62.934 Y19.204
X-62.884 Y19.041
X-62.818 Y18.864
X-62.726 Y18.658
X-62.631 Y18.478
X-62.539 Y18.328
X-62.44 Y18.187
X-62.313 Y18.03
X-62.162 Y17.865
X-62.021 Y17.729
X-61.891 Y17.619
X-61.748 Y17.513
X-61.566 Y17.396
X-61.377 Y17.29
X-61.209 Y17.21
X-61.054 Y17.148
X-60.874 Y17.089
X-60.657 Y17.033
X-60.454 Y16.994
X-60.277 Y16.972
X-60.109 Y16.961
X-59.908 Y16.962
X-59.682 Y16.977
X-59.489 Y17.003
X-59.32 Y17.036
X-59.15 Y17.081
X-58.947 Y17.149
X-58.745 Y17.231
X-58.576 Y17.313
X-58.43 Y17.396
X-58.273 Y17.499
X-58.093 Y17.634
X-57.938 Y17.766
X-57.808 Y17.892
X-57.695 Y18.018
X-57.57 Y18.175
X-57.442 Y18.358
X-57.34 Y18.528
X-57.26 Y18.681
X-57.074 Y19.102
X-56.942 Y19.463
X-56.858 Y19.75
X-56.8 Y20.005
X-56.762 Y20.238
X-56.742 Y20.454
X-56.735 Y20.662
X-56.742 Y20.868
X-56.761 Y21.069
X-56.793 Y21.266
X-56.837 Y21.455
X-56.892 Y21.642
X-56.96 Y21.826
X-57.041 Y22.009
X-57.134 Y22.187
X-57.237 Y22.357
X-57.351 Y22.521
X-57.477 Y22.679
X-57.617 Y22.833
X-57.77 Y22.981
X-57.931 Y23.118
X-58.1 Y23.244
X-58.28 Y23.362
X-58.473 Y23.47
X-58.674 Y23.568
X-58.882 Y23.652
X-59.094 Y23.722
X-59.312 Y23.78
X-59.541 Y23.825
X-59.773 Y23.855
X-60.006 Y23.87
X-60.238
X-60.473 Y23.856
X-60.71 Y23.825
X-60.948 Y23.78
X-61.181 Y23.719
X-61.408 Y23.644
X-61.631 Y23.554
X-61.852 Y23.448
X-62.068 Y23.327
X-62.274 Y23.193
X-62.469 Y23.048
X-62.656 Y22.89
X-62.835 Y22.718
X-63.005 Y22.532
X-63.16 Y22.339
X-63.301 Y22.138
X-63.43 Y21.926
X-63.548 Y21.702
X-63.651 Y21.471
X-63.737 Y21.238
X-63.808 Y21.002
X-63.865 Y20.757
X-63.906 Y20.506
X-63.931 Y20.255
X-63.94 Y20.007
X-63.933 Y19.759
X-63.909 Y19.506
X-63.87 Y19.254
X-63.815 Y19.009
X-63.745 Y18.771
X-63.66 Y18.536
X-63.557 Y18.302
X-63.44 Y18.075
X-63.311 Y17.861
X-63.17 Y17.656
X-63.014 Y17.458
X-62.842 Y17.268
X-62.661 Y17.091
X-62.472 Y16.928
X-62.273 Y16.778
X-62.061 Y16.639
X-61.838 Y16.512
X-61.611 Y16.401
X-61.381 Y16.307
X-61.144 Y16.227
X-60.897 Y16.16
X-60.647 Y16.11
X-60.398 Y16.077
X-60.151 Y16.06
X-59.899 Y16.058
X-59.643 Y16.073
X-59.39 Y16.104
X-59.145 Y16.15
X-58.904 Y16.212
X-58.662 Y16.291
X-58.424 Y16.385
X-58.196 Y16.493
X-57.978 Y16.614
X-57.768 Y16.749
X-57.562 Y16.901
X-57.367 Y17.065
X-57.185 Y17.239
X-56.985 Y17.456
X-56.795 Y17.691
X-56.607 Y17.956
X-56.434 Y18.238
X-56.279 Y18.529
X-56.146 Y18.825
X-56.035 Y19.118
X-55.947 Y19.408
X-55.879 Y19.695
X-55.831 Y19.978
X-55.802 Y20.258
X-55.791 Y20.535
X-55.797 Y20.809
X-55.821 Y21.079
X-55.862 Y21.345
X-55.919 Y21.606
X-55.993 Y21.861
X-56.082 Y22.111
X-56.188 Y22.354
X-56.309 Y22.591
X-56.445 Y22.821
X-56.596 Y23.041
X-56.762 Y23.253
X-56.942 Y23.455
X-57.136 Y23.646
X-57.343 Y23.826
X-57.563 Y23.992
X-57.794 Y24.146
X-58.053 Y24.287
X-58.112 Y24.311
X-58.682 Y24.528
X-58.872 Y24.595
X-60.005 Y24.732
X-61.128 Y24.595
X-62.185 Y24.197
X-62.574 Y23.935
X-63.141 Y23.539
X-63.894 Y22.688
X-64.425 Y21.676
X-64.668 Y20.703
X-64.7 Y20.548
Y19.458
X-64.67 Y19.303
X-64.427 Y18.33
X-63.898 Y17.318
X-63.145 Y16.465
X-62.262 Y15.85
X-62.185 Y15.803
X-61.15 Y15.411
X-60.706 Y15.35
X-60.005 Y15.268
X-58.994 Y15.387
X-58.838 Y15.414
X-57.787 Y15.817
X-56.858 Y16.462
X-56.102 Y17.318
X-55.629 Y18.213
X-55.561 Y18.369
X-55.33 Y19.303
X-55.3 Y19.458
Y20.548
X-55.447 Y21.17
X-55.569 Y21.659
X-55.796 Y22.104
X-56.106 Y22.688
X-56.862 Y23.542
X-57.787 Y24.182
X-58.112 Y24.311
X-58.15 Y24.318 Z-11.995
X-58.185 Y24.324 Z-11.981
X-58.216 Y24.329 Z-11.959
X-58.241 Y24.333 Z-11.93
X-58.26 Y24.332 Z-11.888
X-58.267 Z-11.843
G0 Z5.
X-20.573 Y-20.104
Z-11.2
G1 Z-11.6 F400.
X-20.567 Y-20.098 Z-11.678
X-20.55 Y-20.084 Z-11.753
X-20.522 Y-20.059 Z-11.822
X-20.484 Y-20.027 Z-11.883
X-20.438 Y-19.987 Z-11.933
X-20.386 Y-19.941 Z-11.97
X-20.33 Y-19.892 Z-11.992
X-20.271 Y-19.841 Z-12.
G3 X-18.776 Y-18.227 R10.212
G1 X-18.738 Y-18.171
X-18.731 Y-18.036
X-18.775 Y-17.909
X-18.841 Y-17.791
X-18.922 Y-17.682
X-19.014 Y-17.584
X-19.118 Y-17.498
X-19.346 Y-17.353
X-19.467 Y-17.293
X-19.592 Y-17.244
X-19.872 Y-17.17
X-20.163 Y-17.131
X-20.438 Y-17.13
X-20.605 Y-17.146
X-20.788 Y-17.176
X-21.087 Y-17.253
X-21.233 Y-17.306
X-21.398 Y-17.379
X-21.576 Y-17.472
X-21.731 Y-17.565
X-21.863 Y-17.657
X-21.988 Y-17.756
X-22.13 Y-17.884
X-22.278 Y-18.037
X-22.398 Y-18.178
X-22.496 Y-18.308
X-22.589 Y-18.45
X-22.69 Y-18.628
X-22.783 Y-18.82
X-22.851 Y-18.988
X-22.905 Y-19.147
X-22.95 Y-19.32
X-22.992 Y-19.532
X-23.02 Y-19.74
X-23.032 Y-19.919
Y-20.085
X-23.021 Y-20.276
X-22.993 Y-20.498
X-22.955 Y-20.694
X-22.912 Y-20.862
X-22.858 Y-21.025
X-22.782 Y-21.215
X-22.686 Y-21.417
X-22.593 Y-21.584
X-22.501 Y-21.726
X-22.395 Y-21.87
X-22.254 Y-22.036
X-22.108 Y-22.188
X-21.969 Y-22.315
X-21.839 Y-22.42
X-21.684 Y-22.529
X-21.494 Y-22.646
X-21.312 Y-22.742
X-21.15 Y-22.814
X-20.99 Y-22.874
X-20.796 Y-22.933
X-20.578 Y-22.984
X-20.386 Y-23.015
X-20.216 Y-23.033
X-20.038 Y-23.039
X-19.822 Y-23.034
X-19.605 Y-23.014
X-19.422 Y-22.985
X-19.26 Y-22.949
X-19.078 Y-22.896
X-18.867 Y-22.82
X-18.678 Y-22.738
X-18.52 Y-22.657
X-18.374 Y-22.569
X-18.208 Y-22.455
X-18.03 Y-22.315
X-17.885 Y-22.185
X-17.766 Y-22.063
X-17.65 Y-21.929
X-17.519 Y-21.756
X-17.401 Y-21.576
X-17.309 Y-21.415
X-17.234 Y-21.263
X-17.162 Y-21.089
X-17.09 Y-20.876
X-17.037 Y-20.68
X-17.001 Y-20.502
X-16.978 Y-20.335
X-16.964 Y-20.133
X-16.962 Y-19.907
X-16.973 Y-19.712
X-16.994 Y-19.543
X-17.026 Y-19.369
X-17.077 Y-19.166
X-17.222 Y-18.718
X-17.366 Y-18.356
X-17.492 Y-18.087
X-17.614 Y-17.866
X-17.739 Y-17.671
X-17.871 Y-17.492
X-18.007 Y-17.329
X-18.148 Y-17.181
X-18.293 Y-17.047
X-18.446 Y-16.923
X-18.607 Y-16.809
X-18.775 Y-16.704
X-18.949 Y-16.611
X-19.127 Y-16.531
X-19.311 Y-16.461
X-19.502 Y-16.403
X-19.701 Y-16.355
X-19.905 Y-16.32
X-20.109 Y-16.299
X-20.315 Y-16.29
X-20.525 Y-16.295
X-20.74 Y-16.314
X-20.957 Y-16.347
X-21.171 Y-16.393
X-21.381 Y-16.453
X-21.591 Y-16.528
X-21.801 Y-16.618
X-22.007 Y-16.723
X-22.204 Y-16.84
X-22.393 Y-16.969
X-22.576 Y-17.112
X-22.753 Y-17.269
X-22.921 Y-17.439
X-23.077 Y-17.618
X-23.221 Y-17.806
X-23.354 Y-18.006
X-23.475 Y-18.216
X-23.584 Y-18.436
X-23.678 Y-18.661
X-23.757 Y-18.889
X-23.821 Y-19.124
X-23.872 Y-19.368
X-23.906 Y-19.615
X-23.925 Y-19.861
X-23.928 Y-20.105
X-23.915 Y-20.352
X-23.886 Y-20.603
X-23.841 Y-20.851
X-23.781 Y-21.091
X-23.706 Y-21.326
X-23.615 Y-21.559
X-23.507 Y-21.789
X-23.386 Y-22.011
X-23.254 Y-22.22
X-23.108 Y-22.421
X-22.946 Y-22.615
X-22.771 Y-22.801
X-22.587 Y-22.972
X-22.396 Y-23.129
X-22.192 Y-23.275
X-21.976 Y-23.41
X-21.752 Y-23.531
X-21.524 Y-23.635
X-21.292 Y-23.724
X-21.052 Y-23.799
X-20.803 Y-23.86
X-20.553 Y-23.904
X-20.305 Y-23.931
X-20.057 Y-23.942
X-19.802 Y-23.938
X-19.547 Y-23.917
X-19.298 Y-23.88
X-19.055 Y-23.828
X-18.814 Y-23.76
X-18.573 Y-23.675
X-18.338 Y-23.575
X-18.114 Y-23.463
X-17.899 Y-23.337
X-17.69 Y-23.196
X-17.488 Y-23.039
X-17.297 Y-22.871
X-17.121 Y-22.695
X-16.957 Y-22.508
X-16.801 Y-22.306
X-16.659 Y-22.094
X-16.531 Y-21.875
X-16.42 Y-21.653
X-16.322 Y-21.423
X-16.238 Y-21.181
X-16.169 Y-20.935
X-16.117 Y-20.689
X-16.082 Y-20.443
X-16.061 Y-20.193
X-16.057 Y-19.897
X-16.071 Y-19.594
X-16.108 Y-19.269
X-16.166 Y-18.94
X-16.245 Y-18.62
X-16.341 Y-18.312
X-16.454 Y-18.019
X-16.582 Y-17.743
X-16.722 Y-17.484
X-16.874 Y-17.241
X-17.038 Y-17.013
X-17.215 Y-16.799
X-17.402 Y-16.598
X-17.599 Y-16.413
X-17.806 Y-16.242
X-18.022 Y-16.086
X-18.247 Y-15.944
X-18.481 Y-15.817
X-18.722 Y-15.705
X-18.969 Y-15.609
X-19.223 Y-15.529
X-19.482 Y-15.464
X-19.747 Y-15.417
X-20.016 Y-15.386
X-20.288 Y-15.372
X-20.561 Y-15.376
X-20.836 Y-15.397
X-21.112 Y-15.437
X-21.39 Y-15.501
X-21.449 Y-15.522
X-22.181 Y-15.801
X-22.414 Y-15.955
X-23.144 Y-16.464
X-23.899 Y-17.318
X-24.41 Y-18.288
X-24.439 Y-18.369
X-24.67 Y-19.303
X-24.7 Y-19.458
Y-20.548
X-24.553 Y-21.17
X-24.425 Y-21.676
X-23.894 Y-22.688
X-23.14 Y-23.54
X-22.259 Y-24.153
X-22.181 Y-24.199
X-21.127 Y-24.595
X-20.002 Y-24.732
X-18.873 Y-24.595
X-17.823 Y-24.2
X-17.589 Y-24.048
X-16.861 Y-23.541
X-16.106 Y-22.688
X-15.578 Y-21.685
X-15.332 Y-20.703
X-15.3 Y-20.548
Y-19.458
X-15.369 Y-19.147
X-15.566 Y-18.351
X-15.629 Y-18.213
X-16.102 Y-17.318
X-16.857 Y-16.463
X-17.784 Y-15.819
X-18.523 Y-15.533
X-18.849 Y-15.411
X-19.457 Y-15.331
X-20.002 Y-15.269
X-21.014 Y-15.388
X-21.169 Y-15.416
X-21.449 Y-15.522
X-21.489 Y-15.549 Z-11.992
X-21.525 Y-15.574 Z-11.97
X-21.554 Y-15.593 Z-11.935
X-21.572 Y-15.605 Z-11.891
X-21.579 Y-15.609 Z-11.843
G0 Z5.
X-19.503 Y19.698
Z-11.2
G1 Z-11.6 F400.
X-19.511 Z-11.678
X-19.533 Z-11.753
X-19.57 Z-11.822
X-19.62 Y19.699 Z-11.883
X-19.681 Z-11.933
X-19.75 Y19.7 Z-11.97
X-19.825 Y19.701 Z-11.992
X-19.903 Z-12.
G3 X-22.092 Y19.484 R10.212
G1 X-22.158 Y19.468
X-22.254 Y19.373
X-22.305 Y19.248
X-22.334 Y19.117
X-22.346 Y18.982
X-22.341 Y18.847
X-22.32 Y18.714
X-22.289 Y18.583
X-22.247 Y18.454
X-22.196 Y18.329
X-22.134 Y18.209
X-21.972 Y17.964
X-21.789 Y17.753
X-21.578 Y17.564
X-21.435 Y17.459
X-21.287 Y17.365
X-21.016 Y17.226
X-20.869 Y17.169
X-20.688 Y17.11
X-20.499 Y17.062
X-20.329 Y17.031
X-20.174 Y17.012
X-20.006 Y17.003
X-19.803 Y17.005
X-19.599 Y17.019
X-19.425 Y17.043
X-19.268 Y17.075
X-19.095 Y17.122
X-18.894 Y17.19
X-18.704 Y17.269
X-18.545 Y17.347
X-18.403 Y17.429
X-18.244 Y17.534
X-18.067 Y17.668
X-17.918 Y17.797
X-17.794 Y17.919
X-17.681 Y18.045
X-17.555 Y18.206
X-17.432 Y18.385
X-17.332 Y18.552
X-17.255 Y18.703
X-17.184 Y18.866
X-17.11 Y19.07
X-17.051 Y19.276
X-17.011 Y19.455
X-16.986 Y19.62
X-16.968 Y19.809
X-16.963 Y20.035
X-16.97 Y20.237
X-16.988 Y20.412
X-17.017 Y20.58
X-17.063 Y20.778
X-17.128 Y20.994
X-17.196 Y21.175
X-17.266 Y21.33
X-17.349 Y21.487
X-17.463 Y21.672
X-17.585 Y21.845
X-17.704 Y21.992
X-17.817 Y22.116
X-17.954 Y22.247
X-18.126 Y22.392
X-18.29 Y22.514
X-18.439 Y22.609
X-18.588 Y22.693
X-18.771 Y22.78
X-18.981 Y22.863
X-19.163 Y22.923
X-19.332 Y22.966
X-19.506 Y22.999
X-19.719 Y23.026
X-19.936 Y23.039
X-20.121 Y23.038
X-20.29 Y23.027
X-20.477 Y23.002
X-20.699 Y22.958
X-20.896 Y22.905
X-21.065 Y22.848
X-21.221 Y22.784
X-21.403 Y22.696
X-21.598 Y22.586
X-21.761 Y22.479
X-21.9 Y22.375
X-22.034 Y22.26
X-22.188 Y22.11
X-22.332 Y21.95
X-22.45 Y21.801
X-22.545 Y21.664
X-22.642 Y21.502
X-22.744 Y21.306
X-22.927 Y20.89
X-23.061 Y20.522
X-23.144 Y20.24
X-23.2 Y19.993
X-23.237 Y19.762
X-23.258 Y19.541
X-23.264 Y19.328
X-23.257 Y19.125
X-23.238 Y18.929
X-23.206 Y18.734
X-23.162 Y18.541
X-23.105 Y18.352
X-23.037 Y18.167
X-22.958 Y17.989
X-22.866 Y17.814
X-22.762 Y17.643
X-22.645 Y17.475
X-22.517 Y17.314
X-22.379 Y17.163
X-22.231 Y17.02
X-22.069 Y16.883
X-21.895 Y16.753
X-21.712 Y16.634
X-21.522 Y16.527
X-21.326 Y16.432
X-21.118 Y16.348
X-20.9 Y16.276
X-20.678 Y16.218
X-20.454 Y16.174
X-20.227 Y16.145
X-19.994 Y16.13
X-19.757
X-19.519 Y16.145
X-19.284 Y16.175
X-19.052 Y16.221
X-18.819 Y16.281
X-18.588 Y16.358
X-18.361 Y16.45
X-18.143 Y16.555
X-17.932 Y16.673
X-17.726 Y16.806
X-17.527 Y16.955
X-17.337 Y17.116
X-17.161 Y17.287
X-16.996 Y17.468
X-16.84 Y17.662
X-16.695 Y17.869
X-16.565 Y18.083
X-16.451 Y18.302
X-16.35 Y18.527
X-16.263 Y18.764
X-16.19 Y19.008
X-16.134 Y19.252
X-16.094 Y19.496
X-16.069 Y19.744
X-16.06 Y19.998
X-16.068 Y20.252
X-16.091 Y20.501
X-16.13 Y20.746
X-16.186 Y20.991
X-16.257 Y21.236
X-16.344 Y21.474
X-16.444 Y21.702
X-16.559 Y21.923
X-16.69 Y22.141
X-16.836 Y22.351
X-16.992 Y22.549
X-17.158 Y22.733
X-17.338 Y22.908
X-17.532 Y23.074
X-17.735 Y23.228
X-17.945 Y23.365
X-18.161 Y23.488
X-18.388 Y23.598
X-18.625 Y23.695
X-18.866 Y23.776
X-19.107 Y23.841
X-19.351 Y23.889
X-19.604 Y23.923
X-19.859 Y23.941
X-20.112 Y23.942
X-20.36 Y23.927
X-20.608 Y23.896
X-20.859 Y23.848
X-21.106 Y23.785
X-21.345 Y23.707
X-21.576 Y23.615
X-21.803 Y23.507
X-22.027 Y23.382
X-22.241 Y23.245
X-22.442 Y23.096
X-22.632 Y22.936
X-22.816 Y22.76
X-23.016 Y22.543
X-23.206 Y22.307
X-23.395 Y22.04
X-23.569 Y21.756
X-23.723 Y21.465
X-23.856 Y21.171
X-23.966 Y20.877
X-24.054 Y20.586
X-24.122 Y20.299
X-24.169 Y20.017
X-24.198 Y19.737
X-24.209 Y19.459
X-24.202 Y19.185
X-24.178 Y18.916
X-24.137 Y18.651
X-24.079 Y18.39
X-24.005 Y18.134
X-23.915 Y17.884
X-23.809 Y17.641
X-23.688 Y17.405
X-23.552 Y17.176
X-23.401 Y16.955
X-23.234 Y16.743
X-23.054 Y16.542
X-22.86 Y16.351
X-22.653 Y16.172
X-22.433 Y16.005
X-22.201 Y15.851
X-21.945 Y15.712
X-21.886 Y15.688
X-21.325 Y15.475
X-21.151 Y15.411
X-20.547 Y15.331
X-20.002 Y15.269
X-18.99 Y15.387
X-18.834 Y15.415
X-17.823 Y15.799
X-17.589 Y15.952
X-16.857 Y16.463
X-16.102 Y17.318
X-15.593 Y18.282
X-15.561 Y18.369
X-15.33 Y19.303
X-15.3 Y19.458
Y20.548
X-15.447 Y21.17
X-15.578 Y21.685
X-16.106 Y22.688
X-16.861 Y23.541
X-17.745 Y24.155
X-17.823 Y24.2
X-18.873 Y24.595
X-20.002 Y24.732
X-21.127 Y24.595
X-22.181 Y24.199
X-22.52 Y23.972
X-23.14 Y23.54
X-23.894 Y22.688
X-24.425 Y21.676
X-24.668 Y20.703
X-24.7 Y20.548
Y19.458
X-24.631 Y19.147
X-24.438 Y18.363
X-24.371 Y18.213
X-23.899 Y17.318
X-23.144 Y16.464
X-22.22 Y15.822
X-21.886 Y15.688
X-21.849 Y15.682 Z-11.995
X-21.813 Y15.676 Z-11.981
X-21.782 Y15.671 Z-11.959
X-21.758 Y15.667 Z-11.93
X-21.738 Z-11.888
X-21.732 Y15.668 Z-11.843
G0 Z5.
X20.459 Y-19.642
Z-11.2
G1 Z-11.6 F400.
X20.456 Y-19.65 Z-11.678
X20.448 Y-19.671 Z-11.753
X20.434 Y-19.705 Z-11.822
X20.416 Y-19.752 Z-11.883
X20.394 Y-19.808 Z-11.933
X20.369 Y-19.872 Z-11.97
X20.342 Y-19.942 Z-11.992
X20.314 Y-20.015 Z-12.
G3 X19.74 Y-22.139 R10.212
G1 X19.732 Y-22.206
X19.786 Y-22.33
X19.885 Y-22.422
X19.997 Y-22.496
X20.119 Y-22.555
X20.247 Y-22.597
X20.379 Y-22.626
X20.513 Y-22.643
X20.648 Y-22.65
X20.783 Y-22.646
X20.917 Y-22.631
X21.206 Y-22.566
X21.467 Y-22.471
X21.722 Y-22.337
X21.874 Y-22.238
X22.012 Y-22.135
X22.232 Y-21.935
X22.342 Y-21.814
X22.465 Y-21.66
X22.573 Y-21.504
X22.659 Y-21.363
X22.731 Y-21.224
X22.802 Y-21.064
X22.874 Y-20.867
X22.931 Y-20.678
X22.969 Y-20.511
X22.994 Y-20.353
X23.012 Y-20.167
X23.019 Y-19.949
X23.013 Y-19.752
X22.997 Y-19.582
X22.97 Y-19.418
X22.927 Y-19.225
X22.864 Y-19.013
X22.797 Y-18.831
X22.729 Y-18.677
X22.649 Y-18.522
X22.539 Y-18.34
X22.414 Y-18.162
X22.299 Y-18.017
X22.188 Y-17.895
X22.055 Y-17.765
X21.886 Y-17.62
X21.721 Y-17.497
X21.572 Y-17.4
X21.424 Y-17.316
X21.246 Y-17.23
X21.037 Y-17.145
X20.853 Y-17.083
X20.683 Y-17.038
X20.512 Y-17.004
X20.303 Y-16.977
X20.084 Y-16.962
X19.896
X19.727 Y-16.972
X19.544 Y-16.995
X19.324 Y-17.038
X19.122 Y-17.09
X18.957 Y-17.144
X18.795 Y-17.209
X18.617 Y-17.294
X18.42 Y-17.404
X18.253 Y-17.512
X18.114 Y-17.615
X17.981 Y-17.728
X17.829 Y-17.873
X17.682 Y-18.035
X17.561 Y-18.185
X17.464 Y-18.322
X17.368 Y-18.479
X17.265 Y-18.675
X17.179 Y-18.868
X17.116 Y-19.036
X17.067 Y-19.198
X17.023 Y-19.389
X16.985 Y-19.614
X16.965 Y-19.812
X16.959 Y-19.984
X16.964 Y-20.157
X16.983 Y-20.367
X17.017 Y-20.586
X17.058 Y-20.77
X17.105 Y-20.932
X17.168 Y-21.105
X17.257 Y-21.309
X17.353 Y-21.496
X17.446 Y-21.651
X17.542 Y-21.79
X17.663 Y-21.944
X17.815 Y-22.113
X18.139 Y-22.43
X18.432 Y-22.682
X18.665 Y-22.859
X18.875 Y-22.998
X19.079 Y-23.114
X19.279 Y-23.212
X19.475 Y-23.293
X19.666 Y-23.358
X19.857 Y-23.409
X20.051 Y-23.448
X20.248 Y-23.475
X20.445 Y-23.489
X20.641 Y-23.49
X20.836 Y-23.479
X21.032 Y-23.455
X21.23 Y-23.418
X21.428 Y-23.367
X21.624 Y-23.304
X21.814 Y-23.229
X22. Y-23.141
X22.186 Y-23.038
X22.369 Y-22.921
X22.545 Y-22.792
X22.711 Y-22.653
X22.869 Y-22.502
X23.022 Y-22.336
X23.166 Y-22.158
X23.299 Y-21.971
X23.418 Y-21.778
X23.526 Y-21.575
X23.623 Y-21.361
X23.707 Y-21.139
X23.777 Y-20.912
X23.831 Y-20.682
X23.871 Y-20.449
X23.896 Y-20.209
X23.907 Y-19.965
X23.901 Y-19.721
X23.88 Y-19.48
X23.844 Y-19.241
X23.791 Y-19.001
X23.722 Y-18.76
X23.639 Y-18.527
X23.542 Y-18.302
X23.431 Y-18.084
X23.303 Y-17.869
X23.161 Y-17.66
X23.007 Y-17.464
X22.844 Y-17.28
X22.668 Y-17.106
X22.476 Y-16.94
X22.275 Y-16.786
X22.067 Y-16.648
X21.853 Y-16.524
X21.628 Y-16.413
X21.393 Y-16.315
X21.154 Y-16.232
X20.913 Y-16.167
X20.67 Y-16.116
X20.419 Y-16.081
X20.164 Y-16.062
X19.913 Y-16.059
X19.665 Y-16.072
X19.417 Y-16.101
X19.166 Y-16.147
X18.918 Y-16.209
X18.679 Y-16.286
X18.447 Y-16.376
X18.22 Y-16.482
X17.995 Y-16.605
X17.78 Y-16.742
X17.578 Y-16.889
X17.387 Y-17.047
X17.203 Y-17.222
X17.028 Y-17.409
X16.868 Y-17.605
X16.723 Y-17.807
X16.591 Y-18.019
X16.47 Y-18.244
X16.363 Y-18.477
X16.273 Y-18.712
X16.199 Y-18.949
X16.14 Y-19.193
X16.096 Y-19.445
X16.068 Y-19.699
X16.057 Y-19.948
X16.061 Y-20.197
X16.082 Y-20.45
X16.12 Y-20.703
X16.173 Y-20.951
X16.24 Y-21.19
X16.323 Y-21.426
X16.423 Y-21.661
X16.557 Y-21.926
X16.71 Y-22.187
X16.894 Y-22.458
X17.097 Y-22.721
X17.315 Y-22.968
X17.543 Y-23.195
X17.78 Y-23.403
X18.02 Y-23.588
X18.264 Y-23.752
X18.512 Y-23.896
X18.763 Y-24.022
X19.019 Y-24.13
X19.278 Y-24.22
X19.538 Y-24.293
X19.801 Y-24.348
X20.065 Y-24.386
X20.33 Y-24.407
X20.596 Y-24.412
X20.861 Y-24.399
X21.125 Y-24.369
X21.387 Y-24.322
X21.647 Y-24.258
X21.904 Y-24.178
X22.157 Y-24.08
X22.403 Y-23.966
X22.644 Y-23.836
X22.878 Y-23.689
X23.104 Y-23.526
X23.318 Y-23.342
X23.361 Y-23.296
X23.726 Y-22.883
X23.894 Y-22.688
X24.425 Y-21.676
X24.668 Y-20.703
X24.7 Y-20.548
Y-19.458
X24.631 Y-19.147
X24.438 Y-18.363
X24.371 Y-18.213
X23.899 Y-17.318
X23.144 Y-16.464
X22.22 Y-15.822
X21.792 Y-15.652
X21.151 Y-15.411
X20.547 Y-15.331
X20.002 Y-15.269
X18.99 Y-15.387
X18.834 Y-15.415
X17.823 Y-15.799
X17.589 Y-15.952
X16.857 Y-16.463
X16.102 Y-17.318
X15.593 Y-18.282
X15.561 Y-18.369
X15.33 Y-19.303
X15.3 Y-19.458
Y-20.548
X15.447 Y-21.17
X15.578 Y-21.685
X16.106 Y-22.688
X16.861 Y-23.541
X17.745 Y-24.155
X17.823 Y-24.2
X18.873 Y-24.595
X20.002 Y-24.732
X21.127 Y-24.595
X22.181 Y-24.199
X22.52 Y-23.972
X23.14 Y-23.54
X23.361 Y-23.296
X23.383 Y-23.253 Z-11.992
X23.404 Y-23.215 Z-11.97
X23.42 Y-23.184 Z-11.935
X23.431 Y-23.165 Z-11.891
X23.435 Y-23.158 Z-11.843
G0 Z5.
X19.469 Y19.763
Z-11.2
G1 Z-11.6 F400.
X19.473 Y19.769 Z-11.678
X19.486 Y19.788 Z-11.753
X19.508 Y19.818 Z-11.822
X19.536 Y19.858 Z-11.883
X19.571 Y19.908 Z-11.933
X19.611 Y19.965 Z-11.97
X19.654 Y20.026 Z-11.992
X19.699 Y20.09 Z-12.
G3 X20.764 Y22.015 R10.212
G1 X20.788 Y22.078
X20.756 Y22.209
X20.687 Y22.325
X20.593 Y22.422
X20.489 Y22.508
X20.376 Y22.581
X20.255 Y22.642
X20.128 Y22.689
X19.867 Y22.754
X19.598 Y22.781
X19.304 Y22.767
X19.005 Y22.714
X18.741 Y22.631
X18.583 Y22.564
X18.415 Y22.48
X18.27 Y22.396
X18.022 Y22.217
X17.885 Y22.096
X17.739 Y21.951
X17.62 Y21.816
X17.522 Y21.69
X17.431 Y21.555
X17.332 Y21.386
X17.238 Y21.198
X17.166 Y21.03
X17.11 Y20.871
X17.064 Y20.706
X17.021 Y20.503
X16.99 Y20.294
X16.975 Y20.111
X16.972 Y19.947
X16.98 Y19.764
X17.004 Y19.546
X17.04 Y19.344
X17.082 Y19.172
X17.132 Y19.01
X17.202 Y18.829
X17.295 Y18.625
X17.389 Y18.45
X17.48 Y18.305
X17.581 Y18.164
X17.713 Y18.003
X17.863 Y17.842
X18.001 Y17.712
X18.131 Y17.604
X18.278 Y17.497
X18.464 Y17.379
X18.649 Y17.278
X18.812 Y17.202
X18.971 Y17.14
X19.156 Y17.081
X19.375 Y17.027
X19.569 Y16.991
X19.747 Y16.97
X19.918 Y16.962
X20.125 Y16.964
X20.347 Y16.981
X20.533 Y17.007
X20.703 Y17.042
X20.878 Y17.09
X21.082 Y17.161
X21.281 Y17.244
X21.446 Y17.326
X21.591 Y17.409
X21.751 Y17.516
X21.932 Y17.654
X22.084 Y17.786
X22.208 Y17.91
X22.322 Y18.037
X22.449 Y18.2
X22.573 Y18.382
X22.672 Y18.549
X22.75 Y18.702
X22.821 Y18.867
X22.894 Y19.073
X22.953 Y19.279
X22.992 Y19.458
X23.017 Y19.624
X23.034 Y19.816
X23.039 Y20.043
X23.03 Y20.244
X23.012 Y20.419
X22.983 Y20.588
X22.935 Y20.788
X22.87 Y21.002
X22.801 Y21.183
X22.732 Y21.336
X22.647 Y21.496
X22.397 Y21.899
X22.17 Y22.219
X21.979 Y22.453
X21.805 Y22.642
X21.638 Y22.802
X21.47 Y22.942
X21.299 Y23.067
X21.125 Y23.178
X20.949 Y23.276
X20.773 Y23.359
X20.591 Y23.431
X20.403 Y23.491
X20.211 Y23.54
X20.016 Y23.577
X19.82 Y23.6
X19.623 Y23.611
X19.422 Y23.61
X19.216 Y23.595
X19.009 Y23.567
X18.804 Y23.526
X18.603 Y23.471
X18.402 Y23.403
X18.199 Y23.319
X18. Y23.222
X17.809 Y23.112
X17.625 Y22.991
X17.445 Y22.855
X17.271 Y22.704
X17.105 Y22.542
X16.951 Y22.37
X16.808 Y22.189
X16.675 Y21.996
X16.553 Y21.791
X16.443 Y21.577
X16.348 Y21.358
X16.267 Y21.135
X16.2 Y20.904
X16.147 Y20.665
X16.109 Y20.422
X16.087 Y20.179
X16.08 Y19.936
X16.089 Y19.692
X16.115 Y19.444
X16.156 Y19.196
X16.212 Y18.956
X16.283 Y18.722
X16.37 Y18.489
X16.473 Y18.259
X16.59 Y18.036
X16.72 Y17.825
X16.862 Y17.623
X17.02 Y17.427
X17.191 Y17.24
X17.373 Y17.065
X17.562 Y16.906
X17.762 Y16.758
X17.975 Y16.62
X18.198 Y16.496
X18.424 Y16.388
X18.655 Y16.296
X18.893 Y16.218
X19.14 Y16.154
X19.389 Y16.106
X19.638 Y16.075
X19.885 Y16.06
X20.138
X20.393 Y16.078
X20.645 Y16.111
X20.889 Y16.159
X21.13 Y16.223
X21.372 Y16.304
X21.609 Y16.401
X21.836 Y16.511
X22.052 Y16.633
X22.262 Y16.77
X22.466 Y16.923
X22.66 Y17.089
X22.839 Y17.264
X23.006 Y17.448
X23.163 Y17.646
X23.309 Y17.857
X23.441 Y18.074
X23.555 Y18.295
X23.656 Y18.523
X23.744 Y18.763
X23.816 Y19.008
X23.872 Y19.254
X23.911 Y19.499
X23.935 Y19.749
X23.943 Y20.005
X23.935 Y20.26
X23.91 Y20.509
X23.871 Y20.754
X23.805 Y21.042
X23.719 Y21.331
X23.606 Y21.637
X23.471 Y21.942
X23.318 Y22.235
X23.15 Y22.511
X22.971 Y22.769
X22.781 Y23.006
X22.583 Y23.225
X22.377 Y23.424
X22.162 Y23.607
X21.94 Y23.773
X21.711 Y23.922
X21.474 Y24.056
X21.232 Y24.172
X20.985 Y24.273
X20.733 Y24.357
X20.476 Y24.424
X20.215 Y24.475
X19.951 Y24.509
X19.686 Y24.527
X19.419
X19.15 Y24.51
X18.882 Y24.476
X18.614 Y24.424
X18.349 Y24.355
X18.088 Y24.269
X17.83 Y24.165
X17.572 Y24.034
X17.519 Y24.
X17.122 Y23.725
X16.861 Y23.541
X16.106 Y22.688
X15.578 Y21.685
X15.332 Y20.703
X15.3 Y20.548
Y19.458
X15.369 Y19.147
X15.566 Y18.351
X15.629 Y18.213
X16.102 Y17.318
X16.857 Y16.463
X17.784 Y15.819
X18.523 Y15.533
X18.849 Y15.411
X19.457 Y15.331
X20.002 Y15.269
X21.014 Y15.388
X21.169 Y15.416
X22.181 Y15.801
X22.414 Y15.955
X23.144 Y16.464
X23.899 Y17.318
X24.41 Y18.288
X24.439 Y18.369
X24.67 Y19.303
X24.7 Y19.458
Y20.548
X24.553 Y21.17
X24.425 Y21.676
X23.894 Y22.688
X23.14 Y23.54
X22.259 Y24.153
X22.181 Y24.199
X21.127 Y24.595
X20.002 Y24.732
X18.873 Y24.595
X17.823 Y24.2
X17.589 Y24.048
X17.519 Y24.
X17.487 Y23.964 Z-11.992
X17.458 Y23.932 Z-11.97
X17.435 Y23.906 Z-11.935
X17.42 Y23.89 Z-11.891
X17.415 Y23.884 Z-11.843
G0 Z5.
X59.541 Y-20.358
Z-11.2
G1 Z-11.6 F400.
X59.544 Y-20.351 Z-11.678
X59.552 Y-20.329 Z-11.753
X59.566 Y-20.295 Z-11.822
X59.584 Y-20.249 Z-11.883
X59.606 Y-20.192 Z-11.933
X59.631 Y-20.128 Z-11.97
X59.658 Y-20.058 Z-11.992
X59.686 Y-19.985 Z-12.
G3 X60.26 Y-17.861 R10.212
G1 X60.268 Y-17.794
X60.207 Y-17.674
X60.111 Y-17.578
X59.998 Y-17.504
X59.875 Y-17.448
X59.748 Y-17.405
X59.616 Y-17.374
X59.482 Y-17.357
X59.347 Y-17.352
X59.076 Y-17.373
X58.943 Y-17.396
X58.684 Y-17.471
X58.533 Y-17.533
X58.384 Y-17.604
X58.138 Y-17.752
X58.022 Y-17.839
X57.889 Y-17.952
X57.752 Y-18.085
X57.636 Y-18.212
X57.451 Y-18.459
X57.354 Y-18.618
X57.259 Y-18.8
X57.185 Y-18.966
X57.128 Y-19.119
X57.082 Y-19.276
X57.037 Y-19.469
X57.003 Y-19.681
X56.985 Y-19.863
X56.979 Y-20.026
X56.984 Y-20.2
X57.004 Y-20.411
X57.037 Y-20.619
X57.077 Y-20.796
X57.124 Y-20.954
X57.187 Y-21.128
X57.276 Y-21.33
X57.37 Y-21.511
X57.461 Y-21.662
X57.557 Y-21.801
X57.68 Y-21.956
X57.831 Y-22.123
X57.97 Y-22.259
X58.1 Y-22.37
X58.24 Y-22.475
X58.417 Y-22.591
X58.607 Y-22.699
X58.774 Y-22.781
X58.932 Y-22.845
X59.106 Y-22.904
X59.32 Y-22.961
X59.524 Y-23.001
X59.705 Y-23.025
X59.873 Y-23.037
X60.069 Y-23.038
X60.294 Y-23.024
X60.492 Y-23.
X60.663 Y-22.967
X60.83 Y-22.924
X61.03 Y-22.859
X61.235 Y-22.777
X61.407 Y-22.695
X61.554 Y-22.613
X61.708 Y-22.514
X61.888 Y-22.382
X62.049 Y-22.246
X62.179 Y-22.121
X62.292 Y-21.998
X62.415 Y-21.845
X62.544 Y-21.663
X62.65 Y-21.49
X62.731 Y-21.337
X62.803 Y-21.178
X62.876 Y-20.982
X62.941 Y-20.769
X62.984 Y-20.586
X63.012 Y-20.419
X63.031 Y-20.236
X63.039 Y-20.014
X63.034 Y-19.805
X63.017 Y-19.623
X62.992 Y-19.457
X62.95 Y-19.266
X62.888 Y-19.055
X62.818 Y-18.861
X62.749 Y-18.701
X62.67 Y-18.546
X62.563 Y-18.367
X62.439 Y-18.187
X62.319 Y-18.033
X62.207 Y-17.908
X61.88 Y-17.587
X61.586 Y-17.333
X61.345 Y-17.15
X61.127 Y-17.006
X60.923 Y-16.889
X60.729 Y-16.793
X60.535 Y-16.713
X60.34 Y-16.646
X60.144 Y-16.593
X59.95 Y-16.554
X59.758 Y-16.527
X59.564 Y-16.513
X59.366 Y-16.512
X59.167 Y-16.523
X58.968 Y-16.546
X58.773 Y-16.583
X58.579 Y-16.632
X58.386 Y-16.694
X58.192 Y-16.77
X58. Y-16.86
X57.815 Y-16.962
X57.638 Y-17.076
X57.464 Y-17.203
X57.294 Y-17.345
X57.132 Y-17.499
X56.98 Y-17.663
X56.839 Y-17.835
X56.708 Y-18.02
X56.585 Y-18.218
X56.474 Y-18.425
X56.378 Y-18.636
X56.296 Y-18.853
X56.226 Y-19.079
X56.171 Y-19.312
X56.129 Y-19.55
X56.104 Y-19.789
X56.094 Y-20.027
X56.099 Y-20.268
X56.12 Y-20.513
X56.156 Y-20.758
X56.208 Y-20.997
X56.275 Y-21.23
X56.357 Y-21.461
X56.456 Y-21.692
X56.569 Y-21.915
X56.695 Y-22.128
X56.833 Y-22.331
X56.985 Y-22.527
X57.154 Y-22.717
X57.332 Y-22.894
X57.519 Y-23.057
X57.715 Y-23.207
X57.925 Y-23.347
X58.145 Y-23.474
X58.371 Y-23.587
X58.599 Y-23.682
X58.834 Y-23.764
X59.079 Y-23.831
X59.329 Y-23.883
X59.578 Y-23.919
X59.825 Y-23.938
X60.076 Y-23.941
X60.331 Y-23.928
X60.583 Y-23.899
X60.829 Y-23.854
X61.07 Y-23.794
X61.312 Y-23.718
X61.551 Y-23.625
X61.78 Y-23.518
X61.998 Y-23.399
X62.209 Y-23.266
X62.415 Y-23.116
X62.612 Y-22.953
X62.796 Y-22.781
X62.965 Y-22.599
X63.125 Y-22.405
X63.274 Y-22.197
X63.409 Y-21.981
X63.528 Y-21.761
X63.632 Y-21.535
X63.723 Y-21.299
X63.8 Y-21.054
X63.86 Y-20.808
X63.903 Y-20.563
X63.931 Y-20.315
X63.943 Y-20.061
X63.938 Y-19.805
X63.918 Y-19.554
X63.882 Y-19.308
X63.83 Y-19.062
X63.761 Y-18.816
X63.677 Y-18.575
X63.579 Y-18.344
X63.447 Y-18.082
X63.295 Y-17.821
X63.113 Y-17.552
X62.91 Y-17.289
X62.692 Y-17.041
X62.463 Y-16.812
X62.228 Y-16.605
X61.988 Y-16.419
X61.743 Y-16.254
X61.495 Y-16.109
X61.243 Y-15.983
X60.988 Y-15.875
X60.73 Y-15.784
X60.469 Y-15.711
X60.206 Y-15.655
X59.941 Y-15.616
X59.676 Y-15.594
X59.411 Y-15.59
X59.146 Y-15.602
X58.881 Y-15.632
X58.619 Y-15.678
X58.359 Y-15.741
X58.103 Y-15.821
X57.85 Y-15.918
X57.603 Y-16.032
X57.361 Y-16.162
X57.128 Y-16.309
X56.903 Y-16.47
X56.678 Y-16.663
X56.635 Y-16.709
X56.268 Y-17.123
X56.102 Y-17.318
X55.629 Y-18.213
X55.561 Y-18.369
X55.33 Y-19.303
X55.3 Y-19.458
Y-20.548
X55.447 Y-21.17
X55.569 Y-21.659
X55.796 Y-22.104
X56.106 Y-22.688
X56.862 Y-23.542
X57.787 Y-24.182
X58.45 Y-24.439
X58.872 Y-24.595
X60.005 Y-24.732
X61.128 Y-24.595
X62.185 Y-24.197
X62.574 Y-23.935
X63.141 Y-23.539
X63.894 Y-22.688
X64.425 Y-21.676
X64.668 Y-20.703
X64.7 Y-20.548
Y-19.458
X64.67 Y-19.303
X64.427 Y-18.33
X63.898 Y-17.318
X63.145 Y-16.465
X62.262 Y-15.85
X62.185 Y-15.803
X61.15 Y-15.411
X60.706 Y-15.35
X60.005 Y-15.268
X58.994 Y-15.387
X58.838 Y-15.414
X57.787 Y-15.817
X56.858 Y-16.462
X56.635 Y-16.709
X56.612 Y-16.752 Z-11.992
X56.592 Y-16.79 Z-11.97
X56.575 Y-16.821 Z-11.935
X56.565 Y-16.84 Z-11.891
X56.561 Y-16.847 Z-11.843
G0 Z5.
X60.459 Y20.358
Z-11.2
G1 Z-11.6 F400.
X60.456 Y20.351 Z-11.678
X60.448 Y20.329 Z-11.753
X60.434 Y20.295 Z-11.822
X60.416 Y20.249 Z-11.883
X60.394 Y20.192 Z-11.933
X60.369 Y20.128 Z-11.97
X60.342 Y20.058 Z-11.992
X60.314 Y19.985 Z-12.
G3 X59.74 Y17.861 R10.212
G1 X59.732 Y17.794
X59.785 Y17.67
X59.885 Y17.578
X59.997 Y17.504
X60.119 Y17.445
X60.247 Y17.403
X60.379 Y17.374
X60.513 Y17.357
X60.648 Y17.35
X60.782 Y17.354
X60.917 Y17.369
X61.204 Y17.434
X61.465 Y17.529
X61.721 Y17.662
X61.874 Y17.762
X62.011 Y17.864
X62.231 Y18.063
X62.341 Y18.184
X62.464 Y18.339
X62.571 Y18.492
X62.658 Y18.636
X62.73 Y18.774
X62.801 Y18.934
X62.873 Y19.129
X62.93 Y19.319
X62.968 Y19.487
X62.994 Y19.645
X63.012 Y19.83
X63.019 Y20.048
X63.013 Y20.246
X62.997 Y20.416
X62.971 Y20.58
X62.927 Y20.774
X62.864 Y20.986
X62.798 Y21.167
X62.731 Y21.32
X62.65 Y21.476
X62.54 Y21.657
X62.419 Y21.831
X62.301 Y21.981
X62.189 Y22.104
X62.057 Y22.233
X61.888 Y22.378
X61.723 Y22.502
X61.574 Y22.599
X61.426 Y22.683
X61.248 Y22.769
X61.039 Y22.854
X60.856 Y22.916
X60.685 Y22.961
X60.515 Y22.995
X60.305 Y23.023
X60.086 Y23.037
X59.898 Y23.038
X59.729 Y23.028
X59.546 Y23.005
X59.327 Y22.963
X59.125 Y22.911
X58.961 Y22.857
X58.797 Y22.792
X58.619 Y22.707
X58.422 Y22.597
X58.256 Y22.49
X58.116 Y22.386
X57.983 Y22.274
X57.831 Y22.128
X57.681 Y21.964
X57.562 Y21.817
X57.466 Y21.68
X57.37 Y21.524
X57.267 Y21.329
X57.18 Y21.136
X57.117 Y20.966
X57.068 Y20.805
X57.023 Y20.614
X56.986 Y20.39
X56.966 Y20.195
X56.959 Y20.018
X56.964 Y19.845
X56.983 Y19.636
X57.017 Y19.417
X57.058 Y19.233
X57.105 Y19.07
X57.167 Y18.897
X57.256 Y18.694
X57.352 Y18.507
X57.445 Y18.351
X57.541 Y18.212
X57.662 Y18.058
X57.813 Y17.889
X58.135 Y17.574
X58.428 Y17.32
X58.662 Y17.143
X58.873 Y17.004
X59.076 Y16.887
X59.276 Y16.789
X59.472 Y16.708
X59.664 Y16.643
X59.854 Y16.592
X60.048 Y16.552
X60.245 Y16.526
X60.442 Y16.511
X60.638 Y16.51
X60.833 Y16.521
X61.029 Y16.545
X61.227 Y16.582
X61.426 Y16.632
X61.621 Y16.695
X61.811 Y16.77
X61.997 Y16.858
X62.184 Y16.961
X62.366 Y17.077
X62.542 Y17.206
X62.708 Y17.345
X62.867 Y17.496
X63.02 Y17.661
X63.164 Y17.839
X63.297 Y18.026
X63.417 Y18.219
X63.525 Y18.422
X63.622 Y18.636
X63.706 Y18.858
X63.776 Y19.085
X63.831 Y19.315
X63.871 Y19.548
X63.896 Y19.788
X63.906 Y20.032
X63.901 Y20.276
X63.88 Y20.517
X63.844 Y20.756
X63.792 Y20.996
X63.724 Y21.235
X63.64 Y21.469
X63.544 Y21.694
X63.432 Y21.913
X63.305 Y22.128
X63.163 Y22.337
X63.01 Y22.533
X62.846 Y22.717
X62.67 Y22.892
X62.479 Y23.058
X62.278 Y23.212
X62.07 Y23.35
X61.856 Y23.474
X61.631 Y23.585
X61.396 Y23.684
X61.157 Y23.767
X60.916 Y23.833
X60.674 Y23.883
X60.423 Y23.918
X60.168 Y23.938
X59.917 Y23.941
X59.668 Y23.928
X59.42 Y23.899
X59.169 Y23.853
X58.921 Y23.792
X58.682 Y23.716
X58.451 Y23.625
X58.223 Y23.519
X57.998 Y23.396
X57.783 Y23.26
X57.581 Y23.113
X57.389 Y22.955
X57.205 Y22.781
X57.03 Y22.594
X56.87 Y22.398
X56.725 Y22.196
X56.592 Y21.984
X56.471 Y21.759
X56.365 Y21.527
X56.275 Y21.292
X56.201 Y21.055
X56.141 Y20.811
X56.097 Y20.558
X56.069 Y20.305
X56.057 Y20.056
X56.062 Y19.807
X56.082 Y19.554
X56.119 Y19.301
X56.172 Y19.053
X56.24 Y18.813
X56.322 Y18.578
X56.422 Y18.343
X56.555 Y18.078
X56.708 Y17.816
X56.891 Y17.546
X57.095 Y17.282
X57.312 Y17.035
X57.54 Y16.807
X57.777 Y16.6
X58.017 Y16.415
X58.261 Y16.25
X58.508 Y16.106
X58.76 Y15.98
X59.015 Y15.872
X59.274 Y15.781
X59.534 Y15.708
X59.797 Y15.653
X60.061 Y15.614
X60.327 Y15.593
X60.592 Y15.589
X60.858 Y15.601
X61.121 Y15.631
X61.384 Y15.677
X61.644 Y15.741
X61.901 Y15.821
X62.153 Y15.919
X62.4 Y16.032
X62.641 Y16.162
X62.875 Y16.309
X63.101 Y16.472
X63.318 Y16.659
X63.361 Y16.705
X63.663 Y17.046
X63.898 Y17.318
X64.427 Y18.33
X64.689 Y19.38
X64.7 Y19.458
Y20.548
X64.553 Y21.17
X64.425 Y21.676
X63.894 Y22.688
X63.141 Y23.539
X62.262 Y24.15
X62.185 Y24.197
X61.128 Y24.595
X60.005 Y24.732
X58.872 Y24.595
X57.826 Y24.202
X57.706 Y24.128
X56.862 Y23.542
X56.106 Y22.688
X55.632 Y21.793
X55.562 Y21.637
X55.332 Y20.703
X55.3 Y20.548
Y19.458
X55.369 Y19.147
X55.569 Y18.341
X55.792 Y17.902
X56.102 Y17.318
X56.858 Y16.462
X57.787 Y15.817
X58.848 Y15.411
X59.461 Y15.33
X60.005 Y15.268
X61.017 Y15.388
X61.173 Y15.418
X62.185 Y15.803
X62.574 Y16.065
X63.145 Y16.465
X63.361 Y16.705
X63.384 Y16.747 Z-11.992
X63.404 Y16.786 Z-11.97
X63.421 Y16.816 Z-11.935
X63.431 Y16.836 Z-11.891
X63.435 Y16.842 Z-11.843
G0 Z5.
X-60.989 Y-20.99
Z-14.1
G1 Z-14.5 F400.
G3 X-59.01 Y-19.01 Z-15.276 R1.4
X-60.989 Y-20.99 Z-16.051 R1.4
X-59.01 Y-19.01 Z-16.827 R1.4
X-60.989 Y-20.99 Z-17.602 R1.4
X-59.01 Y-19.01 Z-18.378 R1.4
X-60.989 Y-20.99 Z-19.153 R1.4
X-59.01 Y-19.01 Z-19.929 R1.4
X-60.989 Y-20.99 Z-20.704 R1.4
X-59.01 Y-19.01 Z-21.48 R1.4
X-60.989 Y-20.99 Z-22.255 R1.4
X-59.01 Y-19.01 Z-23.031 R1.4
X-60.989 Y-20.99 Z-23.806 R1.4
X-59.01 Y-19.01 Z-24.582 R1.4
X-60.989 Y-20.99 Z-25.357 R1.4
X-59.01 Y-19.01 Z-26.133 R1.4
X-60.989 Y-20.99 Z-26.908 R1.4
X-58.599 Y-20. Z-27.49 R1.4
X-61.399 R1.4
X-58.599 R1.4
G1 X-58.562 Y-19.23
X-58.569 Y-19.095
X-58.597 Y-18.963
X-58.643 Y-18.836
X-58.703 Y-18.715
X-58.777 Y-18.602
X-58.861 Y-18.497
X-58.956 Y-18.4
X-59.059 Y-18.313
X-59.169 Y-18.235
X-59.285 Y-18.167
X-59.407 Y-18.108
X-59.533 Y-18.06
X-59.662 Y-18.021
X-59.794 Y-17.993
X-60.063 Y-17.966
X-60.332 Y-17.978
X-60.598 Y-18.028
X-60.853 Y-18.115
X-61.094 Y-18.236
X-61.317 Y-18.388
X-61.518 Y-18.568
X-61.693 Y-18.774
X-61.839 Y-19.
X-61.955 Y-19.244
X-62.038 Y-19.501
X-62.086 Y-19.766
X-62.1 Y-20.036
X-62.08 Y-20.305
X-62.024 Y-20.569
X-61.935 Y-20.824
X-61.814 Y-21.065
X-61.664 Y-21.289
X-61.485 Y-21.491
X-61.282 Y-21.67
X-61.059 Y-21.82
X-60.817 Y-21.941
X-60.562 Y-22.03
X-60.298 Y-22.085
X-60.029 Y-22.106
X-59.76 Y-22.093
X-59.494 Y-22.045
X-59.237 Y-21.964
X-58.992 Y-21.85
X-58.764 Y-21.706
X-58.556 Y-21.534
X-58.371 Y-21.337
X-58.208 Y-21.109
X-58.117 Y-20.953
X-58.017 Y-20.753
X-57.927 Y-20.539
X-57.841 Y-20.284
X-57.812 Y-20.149
X-57.798 Y-20.011
X-57.801 Y-19.872
X-57.827 Y-19.536
X-57.847 Y-19.458
X-58.06 Y-18.919
X-58.112 Y-18.836
X-58.491 Y-18.369
X-58.994 Y-18.021
X-59.071 Y-17.983
X-59.616 Y-17.814
X-59.694 Y-17.8
X-60.317
X-60.55 Y-17.865
X-60.939 Y-17.986
X-61.06 Y-18.057
X-61.508 Y-18.369
X-61.888 Y-18.836
X-61.951 Y-18.943
X-62.153 Y-19.458
X-62.173 Y-19.536
X-62.217 Y-20.159
X-62.134 Y-20.548
X-62.066 Y-20.82
X-61.752 Y-21.365
X-61.64 Y-21.483
X-61.272 Y-21.821
X-61.173 Y-21.88
X-60.706 Y-22.104
X-60.628 Y-22.131
X-60.005 Y-22.222
X-59.772 Y-22.193
X-59.344 Y-22.123
X-58.766 Y-21.848
X-58.682 Y-21.782
X-58.278 Y-21.404
X-58.215 Y-21.314
X-57.935 Y-20.823
X-57.83 Y-20.392
X-57.783 Y-20.159
X-57.801 Y-19.872
X-57.815 Y-19.826 Z-27.482
X-57.829 Y-19.785 Z-27.46
X-57.839 Y-19.752 Z-27.425
X-57.846 Y-19.731 Z-27.381
X-57.848 Y-19.724 Z-27.333
G0 Z5.
X-60.989 Y19.009
Z-14.1
G1 Z-14.5 F400.
G3 X-59.01 Y20.989 Z-15.276 R1.4
X-60.989 Y19.009 Z-16.051 R1.4
X-59.01 Y20.989 Z-16.827 R1.4
X-60.989 Y19.009 Z-17.602 R1.4
X-59.01 Y20.989 Z-18.378 R1.4
X-60.989 Y19.009 Z-19.153 R1.4
X-59.01 Y20.989 Z-19.929 R1.4
X-60.989 Y19.009 Z-20.704 R1.4
X-59.01 Y20.989 Z-21.48 R1.4
X-60.989 Y19.009 Z-22.255 R1.4
X-59.01 Y20.989 Z-23.031 R1.4
X-60.989 Y19.009 Z-23.806 R1.4
X-59.01 Y20.989 Z-24.582 R1.4
X-60.989 Y19.009 Z-25.357 R1.4
X-59.01 Y20.989 Z-26.133 R1.4
X-60.989 Y19.009 Z-26.908 R1.4
X-58.6 Y19.999 Z-27.49 R1.4
X-61.4 R1.4
X-58.6 R1.4
G1 X-58.563 Y20.769
X-58.57 Y20.904
X-58.598 Y21.036
X-58.643 Y21.163
X-58.704 Y21.284
X-58.777 Y21.397
X-58.862 Y21.502
X-58.956 Y21.599
X-59.059 Y21.686
X-59.169 Y21.764
X-59.286 Y21.833
X-59.407 Y21.891
X-59.533 Y21.939
X-59.663 Y21.978
X-59.795 Y22.006
X-60.063 Y22.033
X-60.333 Y22.021
X-60.598 Y21.971
X-60.853 Y21.884
X-61.095 Y21.764
X-61.318 Y21.611
X-61.518 Y21.431
X-61.693 Y21.226
X-61.84 Y20.999
X-61.955 Y20.755
X-62.038 Y20.498
X-62.087 Y20.233
X-62.101 Y19.963
X-62.08 Y19.694
X-62.025 Y19.43
X-61.936 Y19.175
X-61.815 Y18.934
X-61.664 Y18.71
X-61.486 Y18.508
X-61.283 Y18.33
X-61.059 Y18.179
X-60.817 Y18.058
X-60.563 Y17.97
X-60.299 Y17.914
X-60.029 Y17.893
X-59.76 Y17.906
X-59.494 Y17.954
X-59.237 Y18.036
X-58.992 Y18.149
X-58.764 Y18.293
X-58.556 Y18.465
X-58.372 Y18.662
X-58.208 Y18.89
X-58.117 Y19.046
X-58.018 Y19.246
X-57.927 Y19.461
X-57.841 Y19.716
X-57.812 Y19.852
X-57.798 Y19.989
X-57.801 Y20.128
X-57.836 Y20.509
X-58.06 Y21.081
X-58.116 Y21.17
X-58.498 Y21.637
X-59.032 Y22.
X-59.616 Y22.186
X-59.694 Y22.2
X-60.317 Y22.199
X-60.394 Y22.183
X-60.939 Y22.014
X-61.052 Y21.949
X-61.503 Y21.637
X-61.64 Y21.476
X-61.924 Y21.114
X-62.163 Y20.509
X-62.191 Y20.237
X-62.216 Y19.847
X-62.207 Y19.77
X-62.068 Y19.186
X-61.757 Y18.641
X-61.64 Y18.517
X-61.277 Y18.182
X-61.173 Y18.12
X-60.706 Y17.896
X-60.628 Y17.869
X-60.005 Y17.778
X-59.772 Y17.807
X-59.344 Y17.877
X-58.763 Y18.154
X-58.682 Y18.218
X-58.274 Y18.602
X-58.215 Y18.686
X-57.95 Y19.147
X-57.921 Y19.216
X-57.793 Y19.77
X-57.784 Y19.847
X-57.801 Y20.128
X-57.815 Y20.174 Z-27.482
X-57.829 Y20.215 Z-27.46
X-57.839 Y20.248 Z-27.425
X-57.846 Y20.269 Z-27.381
X-57.848 Y20.277 Z-27.333
G0 Z5.
X-20.99 Y-20.99
Z-14.1
G1 Z-14.5 F400.
G3 X-19.01 Y-19.01 Z-15.276 R1.4
X-20.99 Y-20.99 Z-16.051 R1.4
X-19.01 Y-19.01 Z-16.827 R1.4
X-20.99 Y-20.99 Z-17.602 R1.4
X-19.01 Y-19.01 Z-18.378 R1.4
X-20.99 Y-20.99 Z-19.153 R1.4
X-19.01 Y-19.01 Z-19.929 R1.4
X-20.99 Y-20.99 Z-20.704 R1.4
X-19.01 Y-19.01 Z-21.48 R1.4
X-20.99 Y-20.99 Z-22.255 R1.4
X-19.01 Y-19.01 Z-23.031 R1.4
X-20.99 Y-20.99 Z-23.806 R1.4
X-19.01 Y-19.01 Z-24.582 R1.4
X-20.99 Y-20.99 Z-25.357 R1.4
X-19.01 Y-19.01 Z-26.133 R1.4
X-20.99 Y-20.99 Z-26.908 R1.4
X-18.6 Y-20. Z-27.49 R1.4
X-21.4 R1.4
X-18.6 R1.4
G1 X-18.563 Y-19.23
X-18.57 Y-19.095
X-18.598 Y-18.963
X-18.643 Y-18.836
X-18.704 Y-18.715
X-18.777 Y-18.602
X-18.862 Y-18.497
X-18.956 Y-18.4
X-19.059 Y-18.313
X-19.169 Y-18.235
X-19.286 Y-18.167
X-19.407 Y-18.108
X-19.533 Y-18.06
X-19.663 Y-18.021
X-19.795 Y-17.993
X-20.063 Y-17.966
X-20.333 Y-17.978
X-20.598 Y-18.028
X-20.853 Y-18.115
X-21.095 Y-18.236
X-21.318 Y-18.388
X-21.518 Y-18.568
X-21.693 Y-18.774
X-21.84 Y-19.
X-21.955 Y-19.244
X-22.038 Y-19.501
X-22.087 Y-19.767
X-22.101 Y-20.036
X-22.08 Y-20.305
X-22.025 Y-20.569
X-21.936 Y-20.824
X-21.815 Y-21.065
X-21.664 Y-21.289
X-21.486 Y-21.492
X-21.283 Y-21.67
X-21.059 Y-21.82
X-20.817 Y-21.941
X-20.563 Y-22.03
X-20.299 Y-22.085
X-20.03 Y-22.106
X-19.76 Y-22.093
X-19.494 Y-22.045
X-19.237 Y-21.964
X-18.992 Y-21.85
X-18.764 Y-21.706
X-18.556 Y-21.534
X-18.372 Y-21.337
X-18.208 Y-21.109
X-18.117 Y-20.953
X-18.018 Y-20.753
X-17.927 Y-20.539
X-17.841 Y-20.283
X-17.812 Y-20.148
X-17.799 Y-20.01
X-17.801 Y-19.872
X-17.827 Y-19.536
X-17.847 Y-19.458
X-18.056 Y-18.926
X-18.112 Y-18.836
X-18.491 Y-18.369
X-18.99 Y-18.023
X-19.068 Y-17.984
X-19.613 Y-17.815
X-19.69 Y-17.8
X-20.313
X-20.391 Y-17.816
X-20.936 Y-17.985
X-21.06 Y-18.057
X-21.51 Y-18.369
X-21.923 Y-18.885
X-22.153 Y-19.458
X-22.173 Y-19.536
X-22.217 Y-20.159
X-22.134 Y-20.548
X-22.066 Y-20.82
X-21.753 Y-21.365
X-21.636 Y-21.486
X-21.272 Y-21.822
X-21.169 Y-21.882
X-20.702 Y-22.106
X-20.624 Y-22.132
X-20.002 Y-22.222
X-19.613 Y-22.169
X-19.34 Y-22.122
X-18.764 Y-21.847
X-18.679 Y-21.779
X-18.278 Y-21.404
X-18.212 Y-21.308
X-17.934 Y-20.82
X-17.795 Y-20.237
X-17.783 Y-20.159
X-17.801 Y-19.872
X-17.815 Y-19.825 Z-27.482
X-17.829 Y-19.784 Z-27.46
X-17.839 Y-19.751 Z-27.425
X-17.846 Y-19.73 Z-27.381
X-17.848 Y-19.723 Z-27.333
G0 Z5.
X-20.99 Y19.009
Z-14.1
G1 Z-14.5 F400.
G3 X-19.011 Y20.99 Z-15.276 R1.4
X-20.99 Y19.009 Z-16.051 R1.4
X-19.011 Y20.99 Z-16.827 R1.4
X-20.99 Y19.009 Z-17.602 R1.4
X-19.011 Y20.99 Z-18.378 R1.4
X-20.99 Y19.009 Z-19.153 R1.4
X-19.011 Y20.99 Z-19.929 R1.4
X-20.99 Y19.009 Z-20.704 R1.4
X-19.011 Y20.99 Z-21.48 R1.4
X-20.99 Y19.009 Z-22.255 R1.4
X-19.011 Y20.99 Z-23.031 R1.4
X-20.99 Y19.009 Z-23.806 R1.4
X-19.011 Y20.99 Z-24.582 R1.4
X-20.99 Y19.009 Z-25.357 R1.4
X-19.011 Y20.99 Z-26.133 R1.4
X-20.99 Y19.009 Z-26.908 R1.4
X-18.6 Y20. Z-27.49 R1.4
X-21.4 R1.4
X-18.6 R1.4
G1 X-18.563 Y20.77
X-18.57 Y20.905
X-18.598 Y21.037
X-18.644 Y21.164
X-18.704 Y21.284
X-18.778 Y21.398
X-18.862 Y21.503
X-18.957 Y21.599
X-19.06 Y21.687
X-19.17 Y21.765
X-19.286 Y21.833
X-19.408 Y21.891
X-19.534 Y21.94
X-19.663 Y21.978
X-19.795 Y22.007
X-20.064 Y22.034
X-20.333 Y22.022
X-20.598 Y21.971
X-20.854 Y21.885
X-21.095 Y21.764
X-21.318 Y21.612
X-21.519 Y21.432
X-21.694 Y21.226
X-21.84 Y20.999
X-21.956 Y20.755
X-22.039 Y20.499
X-22.087 Y20.233
X-22.101 Y19.964
X-22.08 Y19.695
X-22.025 Y19.431
X-21.936 Y19.176
X-21.815 Y18.934
X-21.664 Y18.711
X-21.486 Y18.508
X-21.283 Y18.33
X-21.059 Y18.18
X-20.818 Y18.059
X-20.563 Y17.97
X-20.299 Y17.915
X-20.03 Y17.894
X-19.761 Y17.907
X-19.495 Y17.955
X-19.238 Y18.036
X-18.993 Y18.15
X-18.765 Y18.294
X-18.557 Y18.466
X-18.372 Y18.663
X-18.209 Y18.891
X-18.118 Y19.047
X-18.018 Y19.246
X-17.927 Y19.461
X-17.842 Y19.719
X-17.812 Y19.854
X-17.799 Y19.991
X-17.801 Y20.13
X-17.836 Y20.509
X-18.056 Y21.074
X-18.116 Y21.17
X-18.459 Y21.599
X-18.523 Y21.658
X-18.99 Y21.977
X-19.068 Y22.016
X-19.613 Y22.185
X-19.69 Y22.2
X-20.313
X-20.391 Y22.184
X-20.936 Y22.015
X-21.052 Y21.949
X-21.503 Y21.637
X-21.636 Y21.481
X-21.92 Y21.118
X-22.029 Y20.859
X-22.151 Y20.548
X-22.172 Y20.47
X-22.216 Y19.847
X-22.207 Y19.77
X-22.068 Y19.186
X-21.757 Y18.641
X-21.636 Y18.514
X-21.312 Y18.213
X-21.241 Y18.157
X-20.702 Y17.894
X-20.624 Y17.869
X-20.002 Y17.778
X-19.613 Y17.831
X-19.379 Y17.868
X-19.281 Y17.902
X-18.761 Y18.155
X-18.679 Y18.221
X-18.273 Y18.602
X-18.212 Y18.692
X-17.95 Y19.147
X-17.919 Y19.224
X-17.793 Y19.77
X-17.784 Y19.847
X-17.801 Y20.13
X-17.816 Y20.176 Z-27.482
X-17.829 Y20.217 Z-27.46
X-17.839 Y20.25 Z-27.425
X-17.846 Y20.271 Z-27.381
X-17.848 Y20.279 Z-27.333
G0 Z5.
X19.011 Y-20.99
Z-14.1
G1 Z-14.5 F400.
G3 X20.99 Y-19.009 Z-15.276 R1.4
X19.011 Y-20.99 Z-16.051 R1.4
X20.99 Y-19.009 Z-16.827 R1.4
X19.011 Y-20.99 Z-17.602 R1.4
X20.99 Y-19.009 Z-18.378 R1.4
X19.011 Y-20.99 Z-19.153 R1.4
X20.99 Y-19.009 Z-19.929 R1.4
X19.011 Y-20.99 Z-20.704 R1.4
X20.99 Y-19.009 Z-21.48 R1.4
X19.011 Y-20.99 Z-22.255 R1.4
X20.99 Y-19.009 Z-23.031 R1.4
X19.011 Y-20.99 Z-23.806 R1.4
X20.99 Y-19.009 Z-24.582 R1.4
X19.011 Y-20.99 Z-25.357 R1.4
X20.99 Y-19.009 Z-26.133 R1.4
X19.011 Y-20.99 Z-26.908 R1.4
X21.4 Y-19.999 Z-27.49 R1.4
X18.6 R1.4
X21.4 R1.4
G1 X21.437 Y-19.229
X21.43 Y-19.094
X21.402 Y-18.962
X21.357 Y-18.835
X21.296 Y-18.715
X21.223 Y-18.601
X21.138 Y-18.496
X21.044 Y-18.4
X20.941 Y-18.312
X20.831 Y-18.234
X20.714 Y-18.166
X20.593 Y-18.108
X20.467 Y-18.059
X20.337 Y-18.021
X20.205 Y-17.992
X19.937 Y-17.965
X19.667 Y-17.977
X19.402 Y-18.028
X19.147 Y-18.114
X18.905 Y-18.235
X18.682 Y-18.387
X18.482 Y-18.568
X18.307 Y-18.773
X18.16 Y-19.
X18.045 Y-19.244
X17.962 Y-19.5
X17.913 Y-19.766
X17.899 Y-20.035
X17.92 Y-20.304
X17.975 Y-20.568
X18.064 Y-20.823
X18.185 Y-21.065
X18.336 Y-21.288
X18.514 Y-21.491
X18.717 Y-21.669
X18.941 Y-21.819
X19.183 Y-21.94
X19.437 Y-22.029
X19.701 Y-22.084
X19.971 Y-22.106
X20.24 Y-22.092
X20.506 Y-22.044
X20.763 Y-21.963
X21.008 Y-21.849
X21.236 Y-21.705
X21.444 Y-21.533
X21.628 Y-21.336
X21.792 Y-21.108
X21.883 Y-20.952
X21.982 Y-20.753
X22.073 Y-20.538
X22.159 Y-20.282
X22.188 Y-20.147
X22.201 Y-20.009
X22.199 Y-19.871
X22.165 Y-19.497
X21.947 Y-18.935
X21.888 Y-18.836
X21.51 Y-18.369
X20.975 Y-18.002
X20.547 Y-17.864
X20.391 Y-17.816
X20.313 Y-17.8
X19.69
X19.613 Y-17.815
X19.068 Y-17.984
X18.94 Y-18.057
X18.491 Y-18.369
X18.08 Y-18.881
X17.908 Y-19.303
X17.847 Y-19.458
X17.827 Y-19.536
X17.783 Y-20.159
X17.866 Y-20.548
X17.934 Y-20.82
X18.247 Y-21.365
X18.367 Y-21.49
X18.729 Y-21.823
X18.834 Y-21.883
X19.34 Y-22.122
X19.924 Y-22.216
X20.002 Y-22.222
X20.624 Y-22.132
X20.706 Y-22.104
X21.237 Y-21.846
X21.325 Y-21.775
X21.722 Y-21.404
X21.792 Y-21.302
X22.066 Y-20.82
X22.17 Y-20.392
X22.217 Y-20.159
X22.199 Y-19.871
X22.184 Y-19.825 Z-27.482
X22.171 Y-19.784 Z-27.46
X22.161 Y-19.751 Z-27.425
X22.154 Y-19.73 Z-27.381
X22.152 Y-19.722 Z-27.333
G0 Z5.
X19.01 Y19.01
Z-14.1
G1 Z-14.5 F400.
G3 X20.99 Y20.99 Z-15.276 R1.4
X19.01 Y19.01 Z-16.051 R1.4
X20.99 Y20.99 Z-16.827 R1.4
X19.01 Y19.01 Z-17.602 R1.4
X20.99 Y20.99 Z-18.378 R1.4
X19.01 Y19.01 Z-19.153 R1.4
X20.99 Y20.99 Z-19.929 R1.4
X19.01 Y19.01 Z-20.704 R1.4
X20.99 Y20.99 Z-21.48 R1.4
X19.01 Y19.01 Z-22.255 R1.4
X20.99 Y20.99 Z-23.031 R1.4
X19.01 Y19.01 Z-23.806 R1.4
X20.99 Y20.99 Z-24.582 R1.4
X19.01 Y19.01 Z-25.357 R1.4
X20.99 Y20.99 Z-26.133 R1.4
X19.01 Y19.01 Z-26.908 R1.4
X21.4 Y20. Z-27.49 R1.4
X18.6 R1.4
X21.4 R1.4
G1 X21.437 Y20.77
X21.43 Y20.905
X21.402 Y21.037
X21.357 Y21.164
X21.296 Y21.285
X21.223 Y21.398
X21.138 Y21.503
X21.044 Y21.6
X20.941 Y21.687
X20.831 Y21.765
X20.714 Y21.833
X20.592 Y21.892
X20.466 Y21.94
X20.337 Y21.979
X20.205 Y22.007
X19.937 Y22.034
X19.667 Y22.022
X19.402 Y21.972
X19.146 Y21.885
X18.905 Y21.764
X18.682 Y21.612
X18.482 Y21.432
X18.307 Y21.226
X18.16 Y21.
X18.045 Y20.756
X17.962 Y20.499
X17.913 Y20.234
X17.899 Y19.964
X17.92 Y19.695
X17.975 Y19.431
X18.064 Y19.176
X18.185 Y18.935
X18.336 Y18.711
X18.514 Y18.508
X18.717 Y18.33
X18.941 Y18.18
X19.182 Y18.059
X19.437 Y17.97
X19.701 Y17.915
X19.97 Y17.894
X20.24 Y17.907
X20.505 Y17.955
X20.763 Y18.036
X21.008 Y18.15
X21.236 Y18.294
X21.444 Y18.466
X21.628 Y18.663
X21.792 Y18.891
X21.883 Y19.047
X21.982 Y19.247
X22.073 Y19.461
X22.158 Y19.718
X22.188 Y19.853
X22.201 Y19.991
X22.199 Y20.129
X22.172 Y20.47
X22.151 Y20.548
X21.947 Y21.066
X21.884 Y21.17
X21.542 Y21.599
X21.481 Y21.656
X21.014 Y21.974
X20.936 Y22.015
X20.391 Y22.184
X20.313 Y22.2
X19.69
X19.613 Y22.185
X19.068 Y22.016
X18.948 Y21.949
X18.497 Y21.637
X18.365 Y21.482
X18.082 Y21.122
X18.032 Y21.015
X17.836 Y20.509
X17.809 Y20.237
X17.784 Y19.847
X17.793 Y19.77
X17.919 Y19.224
X17.95 Y19.147
X18.243 Y18.641
X18.367 Y18.51
X18.725 Y18.181
X18.834 Y18.117
X19.301 Y17.892
X19.379 Y17.868
X19.924 Y17.784
X20.002 Y17.778
X20.624 Y17.869
X20.719 Y17.902
X21.241 Y18.157
X21.325 Y18.225
X21.726 Y18.602
X21.792 Y18.698
X22.068 Y19.186
X22.207 Y19.77
X22.216 Y19.847
X22.199 Y20.129
X22.184 Y20.175 Z-27.482
X22.171 Y20.217 Z-27.46
X22.161 Y20.249 Z-27.425
X22.154 Y20.271 Z-27.381
X22.152 Y20.278 Z-27.333
G0 Z5.
X59.01 Y-20.991
Z-14.1
G1 Z-14.5 F400.
G3 X60.99 Y-19.01 Z-15.276 R1.4
X59.01 Y-20.991 Z-16.051 R1.4
X60.99 Y-19.01 Z-16.827 R1.4
X59.01 Y-20.991 Z-17.602 R1.4
X60.99 Y-19.01 Z-18.378 R1.4
X59.01 Y-20.991 Z-19.153 R1.4
X60.99 Y-19.01 Z-19.929 R1.4
X59.01 Y-20.991 Z-20.704 R1.4
X60.99 Y-19.01 Z-21.48 R1.4
X59.01 Y-20.991 Z-22.255 R1.4
X60.99 Y-19.01 Z-23.031 R1.4
X59.01 Y-20.991 Z-23.806 R1.4
X60.99 Y-19.01 Z-24.582 R1.4
X59.01 Y-20.991 Z-25.357 R1.4
X60.99 Y-19.01 Z-26.133 R1.4
X59.01 Y-20.991 Z-26.908 R1.4
X61.4 Y-20. Z-27.49 R1.4
X58.6 R1.4
X61.4 R1.4
G1 X61.437 Y-19.23
X61.43 Y-19.095
X61.402 Y-18.963
X61.357 Y-18.836
X61.296 Y-18.715
X61.223 Y-18.602
X61.138 Y-18.497
X61.044 Y-18.401
X60.941 Y-18.313
X60.831 Y-18.235
X60.714 Y-18.167
X60.592 Y-18.108
X60.466 Y-18.06
X60.337 Y-18.021
X60.205 Y-17.993
X59.937 Y-17.966
X59.667 Y-17.978
X59.402 Y-18.029
X59.146 Y-18.115
X58.905 Y-18.236
X58.682 Y-18.388
X58.481 Y-18.568
X58.307 Y-18.774
X58.16 Y-19.001
X58.045 Y-19.244
X57.962 Y-19.501
X57.913 Y-19.767
X57.899 Y-20.036
X57.92 Y-20.305
X57.975 Y-20.569
X58.064 Y-20.824
X58.185 Y-21.065
X58.336 Y-21.289
X58.514 Y-21.492
X58.717 Y-21.67
X58.941 Y-21.82
X59.182 Y-21.941
X59.437 Y-22.03
X59.701 Y-22.085
X59.97 Y-22.106
X60.24 Y-22.093
X60.505 Y-22.045
X60.763 Y-21.964
X61.008 Y-21.85
X61.236 Y-21.706
X61.444 Y-21.534
X61.628 Y-21.337
X61.792 Y-21.109
X61.883 Y-20.953
X61.982 Y-20.754
X62.073 Y-20.539
X62.159 Y-20.282
X62.188 Y-20.147
X62.201 Y-20.009
X62.199 Y-19.871
X62.173 Y-19.536
X62.153 Y-19.458
X61.951 Y-18.943
X61.888 Y-18.836
X61.508 Y-18.369
X61.017 Y-18.028
X60.939 Y-17.986
X60.394 Y-17.817
X60.317 Y-17.8
X59.694
X59.616 Y-17.814
X59.071 Y-17.983
X58.94 Y-18.057
X58.491 Y-18.369
X58.083 Y-18.877
X57.969 Y-19.147
X57.847 Y-19.458
X57.827 Y-19.536
X57.783 Y-20.159
X57.866 Y-20.548
X57.935 Y-20.823
X58.247 Y-21.365
X58.371 Y-21.493
X58.73 Y-21.823
X58.838 Y-21.885
X59.344 Y-22.123
X59.966 Y-22.221
X60.083 Y-22.215
X60.628 Y-22.131
X60.706 Y-22.104
X61.239 Y-21.844
X61.328 Y-21.772
X61.721 Y-21.404
X61.795 Y-21.295
X62.066 Y-20.82
X62.205 Y-20.237
X62.217 Y-20.159
X62.199 Y-19.871
X62.184 Y-19.825 Z-27.482
X62.171 Y-19.784 Z-27.46
X62.161 Y-19.751 Z-27.425
X62.154 Y-19.73 Z-27.381
X62.152 Y-19.722 Z-27.333
G0 Z5.
X59.01 Y19.009
Z-14.1
G1 Z-14.5 F400.
G3 X60.99 Y20.99 Z-15.276 R1.4
X59.01 Y19.009 Z-16.051 R1.4
X60.99 Y20.99 Z-16.827 R1.4
X59.01 Y19.009 Z-17.602 R1.4
X60.99 Y20.99 Z-18.378 R1.4
X59.01 Y19.009 Z-19.153 R1.4
X60.99 Y20.99 Z-19.929 R1.4
X59.01 Y19.009 Z-20.704 R1.4
X60.99 Y20.99 Z-21.48 R1.4
X59.01 Y19.009 Z-22.255 R1.4
X60.99 Y20.99 Z-23.031 R1.4
X59.01 Y19.009 Z-23.806 R1.4
X60.99 Y20.99 Z-24.582 R1.4
X59.01 Y19.009 Z-25.357 R1.4
X60.99 Y20.99 Z-26.133 R1.4
X59.01 Y19.009 Z-26.908 R1.4
X61.4 Y20. Z-27.49 R1.4
X58.6 R1.4
X61.4 R1.4
G1 X61.437 Y20.77
X61.43 Y20.905
X61.402 Y21.037
X61.357 Y21.164
X61.296 Y21.284
X61.223 Y21.398
X61.138 Y21.503
X61.044 Y21.599
X60.941 Y21.687
X60.831 Y21.765
X60.714 Y21.833
X60.592 Y21.891
X60.466 Y21.94
X60.337 Y21.978
X60.205 Y22.007
X59.937 Y22.034
X59.667 Y22.022
X59.402 Y21.971
X59.146 Y21.885
X58.905 Y21.764
X58.682 Y21.612
X58.481 Y21.431
X58.307 Y21.226
X58.16 Y20.999
X58.045 Y20.755
X57.962 Y20.499
X57.913 Y20.233
X57.899 Y19.964
X57.92 Y19.695
X57.975 Y19.431
X58.064 Y19.176
X58.185 Y18.934
X58.336 Y18.711
X58.514 Y18.508
X58.717 Y18.33
X58.941 Y18.18
X59.182 Y18.059
X59.437 Y17.97
X59.701 Y17.915
X59.97 Y17.893
X60.24 Y17.907
X60.505 Y17.955
X60.763 Y18.036
X61.008 Y18.15
X61.236 Y18.294
X61.444 Y18.466
X61.628 Y18.663
X61.792 Y18.891
X61.883 Y19.047
X61.982 Y19.246
X62.073 Y19.461
X62.159 Y19.718
X62.188 Y19.853
X62.201 Y19.99
X62.199 Y20.129
X62.163 Y20.509
X61.924 Y21.114
X61.541 Y21.599
X61.484 Y21.653
X61.017 Y21.972
X60.939 Y22.014
X60.394 Y22.183
X60.317 Y22.199
X59.694 Y22.2
X59.616 Y22.186
X59.032 Y22.
X58.498 Y21.637
X58.116 Y21.17
X58.06 Y21.081
X57.836 Y20.509
X57.809 Y20.237
X57.784 Y19.847
X57.793 Y19.77
X57.921 Y19.216
X57.95 Y19.147
X58.243 Y18.641
X58.371 Y18.507
X58.725 Y18.181
X58.838 Y18.115
X59.344 Y17.877
X59.966 Y17.779
X60.083 Y17.785
X60.628 Y17.869
X60.719 Y17.902
X61.242 Y18.158
X61.328 Y18.228
X61.726 Y18.602
X61.795 Y18.705
X62.068 Y19.186
X62.207 Y19.77
X62.216 Y19.847
X62.199 Y20.129
G3 X62.152 Y20.278 R0.4
G1 X62.114 Y20.346 Z-27.482
X62.078 Y20.412 Z-27.46
X62.045 Y20.472 Z-27.423
X62.016 Y20.525 Z-27.373
X61.992 Y20.569 Z-27.312
X61.974 Y20.601 Z-27.243
X61.963 Y20.621 Z-27.168
X61.959 Y20.628 Z-27.09
G0 Z10.

M9
M30
