(__1)
(T1  D=3. CR=0. - ZMIN=-10. - FLAT END MILL)
G90 G94 G91.1 G40 G49 G17
G21

(ADAPTIVE1)
M5
M9
T1
S10000 M3
G54
M8
G0 X-71.196 Y-143.897
G43 Z10. H1
Z5.
Z0.81
G1 Z0.51 F720.
G3 X-70.304 Y-145.103 Z0.095 R0.75
X-71.196 Y-143.897 Z-0.321 R0.75
X-70.304 Y-145.103 Z-0.736 R0.75
X-71.196 Y-143.897 Z-1.152 R0.75
X-70.304 Y-145.103 Z-1.567 R0.75
X-71.196 Y-143.897 Z-1.983 R0.75
X-70.304 Y-145.103 Z-2.398 R0.75
X-71.196 Y-143.897 Z-2.814 R0.75
X-70.304 Y-145.103 Z-3.229 R0.75
X-71.196 Y-143.897 Z-3.645 R0.75
X-70.858 Y-145.242 Z-3.957 R0.75
X-70.027 Y-144.298 Z-4.22 R0.75
X-71.472 Y-144.701 Z-4.635 R0.75
X-71.087 Y-145.169 Z-4.745 R0.75
X-70.412 Y-143.83 Z-5.16 R0.75
X-71.018 Y-143.799 Z-5.271 R0.75
X-71.282 Y-145.028 Z-5.533 R0.75
X-70.217 Y-143.972 Z-5.949 R0.75
X-70.782 Y-143.75 Z-6.059 R0.75
X-71.422 Y-144.832 Z-6.321 R0.75
X-70.077 Y-144.168 Z-6.737 R0.75
X-71.422 Y-144.832 Z-7.152 R0.75
X-70.077 Y-144.168 Z-7.568 R0.75
X-71.422 Y-144.832 Z-7.983 R0.75
X-70.077 Y-144.168 Z-8.399 R0.75
X-71.422 Y-144.832 Z-8.814 R0.75
X-70.077 Y-144.168 Z-9.23 R0.75
X-71.422 Y-144.832 Z-9.645 R0.75
X-70. Y-144.5 Z-10. R0.75
X-71.5 R0.75
X-70. R0.75
G1 X-69.965 Y-143.976
X-69.981 Y-143.938
X-70.058 Y-143.83
X-70.168 Y-143.744
X-70.382 Y-143.609
X-70.651 Y-143.549
X-70.752 Y-143.537
X-71.055 Y-143.59
X-71.154 Y-143.626
X-71.427 Y-143.814
X-71.48 Y-143.879
X-71.638 Y-144.123
X-71.704 Y-144.417
X-71.713 Y-144.518
X-71.646 Y-144.854
X-71.591 Y-144.955
X-71.459 Y-145.151
X-71.379 Y-145.225
X-71.147 Y-145.377
X-71.055 Y-145.41
X-70.752 Y-145.463
X-70.517 Y-145.424
X-70.382 Y-145.391
X-70.248 Y-145.309
X-70.078 Y-145.191
X-69.999 Y-145.09
X-69.868 Y-144.889
X-69.844 Y-144.821
X-69.787 Y-144.518
X-69.796 Y-144.417
X-69.852 Y-144.148
X-69.93 Y-144.013
X-69.981 Y-143.938
X-70.007 Y-143.913 Z-9.994
X-70.031 Y-143.891 Z-9.977
X-70.05 Y-143.874 Z-9.951
X-70.062 Y-143.862 Z-9.918
X-70.066 Y-143.858 Z-9.882
G0 Z5.
X-71.196 Y-103.897
Z0.81
G1 Z0.51 F720.
G3 X-70.304 Y-105.103 Z0.095 R0.75
X-71.196 Y-103.897 Z-0.321 R0.75
X-70.304 Y-105.103 Z-0.736 R0.75
X-71.196 Y-103.897 Z-1.152 R0.75
X-70.304 Y-105.103 Z-1.567 R0.75
X-71.196 Y-103.897 Z-1.983 R0.75
X-70.304 Y-105.103 Z-2.398 R0.75
X-71.196 Y-103.897 Z-2.814 R0.75
X-70.304 Y-105.103 Z-3.229 R0.75
X-71.196 Y-103.897 Z-3.645 R0.75
X-70.304 Y-105.103 Z-4.06 R0.75
X-71.196 Y-103.897 Z-4.476 R0.75
X-70.304 Y-105.103 Z-4.891 R0.75
X-71.196 Y-103.897 Z-5.306 R0.75
X-70.304 Y-105.103 Z-5.722 R0.75
X-71.196 Y-103.897 Z-6.137 R0.75
X-70.304 Y-105.103 Z-6.553 R0.75
X-71.196 Y-103.897 Z-6.968 R0.75
X-70.304 Y-105.103 Z-7.384 R0.75
X-71.196 Y-103.897 Z-7.799 R0.75
X-70.304 Y-105.103 Z-8.215 R0.75
X-71.196 Y-103.897 Z-8.63 R0.75
X-70.304 Y-105.103 Z-9.046 R0.75
X-71.196 Y-103.897 Z-9.461 R0.75
X-70.304 Y-105.103 Z-9.877 R0.75
X-70. Y-104.5 Z-10. R0.75
X-71.5 R0.75
X-70. R0.75
G1 X-69.965 Y-103.976
X-69.981 Y-103.937
X-70.047 Y-103.843
X-70.129 Y-103.77
X-70.356 Y-103.621
X-70.449 Y-103.589
X-70.719 Y-103.538
X-70.786
X-71.055 Y-103.59
X-71.17 Y-103.636
X-71.415 Y-103.804
X-71.497 Y-103.905
X-71.632 Y-104.111
X-71.655 Y-104.174
X-71.713 Y-104.477
X-71.705 Y-104.578
X-71.648 Y-104.847
X-71.593 Y-104.951
X-71.459 Y-105.151
X-71.399 Y-105.21
X-71.131 Y-105.385
X-71.055 Y-105.41
X-70.752 Y-105.465
X-70.416 Y-105.402
X-70.369 Y-105.385
X-70.085 Y-105.196
X-69.978 Y-105.059
X-69.864 Y-104.881
X-69.844 Y-104.823
X-69.786 Y-104.511
X-69.791 Y-104.443
X-69.856 Y-104.14
X-69.981 Y-103.937
X-70.007 Y-103.913 Z-9.994
X-70.031 Y-103.891 Z-9.977
X-70.05 Y-103.873 Z-9.951
X-70.062 Y-103.862 Z-9.918
X-70.067 Y-103.858 Z-9.882
G0 Z5.
X-59.197 Y-28.897
Z0.81
G1 Z0.51 F720.
G3 X-58.304 Y-30.103 Z0.095 R0.75
X-59.197 Y-28.897 Z-0.321 R0.75
X-58.304 Y-30.103 Z-0.736 R0.75
X-59.197 Y-28.897 Z-1.152 R0.75
X-58.304 Y-30.103 Z-1.567 R0.75
X-59.197 Y-28.897 Z-1.983 R0.75
X-58.304 Y-30.103 Z-2.398 R0.75
X-59.197 Y-28.897 Z-2.814 R0.75
X-58.304 Y-30.103 Z-3.229 R0.75
X-59.197 Y-28.897 Z-3.645 R0.75
X-58.304 Y-30.103 Z-4.06 R0.75
X-59.197 Y-28.897 Z-4.476 R0.75
X-58.304 Y-30.103 Z-4.891 R0.75
X-59.197 Y-28.897 Z-5.306 R0.75
X-58.304 Y-30.103 Z-5.722 R0.75
X-59.197 Y-28.897 Z-6.137 R0.75
X-58.304 Y-30.103 Z-6.553 R0.75
X-59.197 Y-28.897 Z-6.968 R0.75
X-58.304 Y-30.103 Z-7.384 R0.75
X-59.197 Y-28.897 Z-7.799 R0.75
X-58.304 Y-30.103 Z-8.215 R0.75
X-59.197 Y-28.897 Z-8.63 R0.75
X-58.304 Y-30.103 Z-9.046 R0.75
X-59.197 Y-28.897 Z-9.461 R0.75
X-58.304 Y-30.103 Z-9.877 R0.75
X-58. Y-29.5 Z-10. R0.75
X-59.5 R0.75
X-58. R0.75
G1 X-57.963 Y-28.997
X-57.964 Y-28.862
X-57.998 Y-28.731
X-58.058 Y-28.61
X-58.139 Y-28.502
X-58.235 Y-28.408
X-58.345 Y-28.329
X-58.465 Y-28.266
X-58.592 Y-28.22
X-58.723 Y-28.19
X-58.857 Y-28.176
X-58.992 Y-28.179
X-59.126 Y-28.196
X-59.257 Y-28.228
X-59.384 Y-28.275
X-59.505 Y-28.334
X-59.62 Y-28.406
X-59.726 Y-28.49
X-59.823 Y-28.583
X-59.91 Y-28.687
X-59.986 Y-28.798
X-60.051 Y-28.916
X-60.104 Y-29.04
X-60.145 Y-29.169
X-60.173 Y-29.301
X-60.188 Y-29.435
X-60.19 Y-29.57
X-60.18 Y-29.705
X-60.156 Y-29.838
X-60.12 Y-29.968
X-60.072 Y-30.094
X-60.012 Y-30.215
X-59.941 Y-30.33
X-59.86 Y-30.438
X-59.769 Y-30.537
X-59.669 Y-30.628
X-59.561 Y-30.709
X-59.446 Y-30.779
X-59.325 Y-30.839
X-59.198 Y-30.887
X-59.068 Y-30.923
X-58.935 Y-30.946
X-58.801 Y-30.958
X-58.666 Y-30.956
X-58.531 Y-30.943
X-58.399 Y-30.916
X-58.27 Y-30.878
X-58.144 Y-30.828
X-58.024 Y-30.766
X-57.91 Y-30.694
X-57.803 Y-30.611
X-57.705 Y-30.519
X-57.615 Y-30.418
X-57.515 Y-30.286
X-57.414 Y-30.127
X-57.325 Y-29.958
X-57.259 Y-29.805
X-57.208 Y-29.652
X-57.171 Y-29.505
X-57.148 Y-29.36
X-57.135 Y-29.216
Y-29.076
X-57.146 Y-28.937
X-57.168 Y-28.8
X-57.199 Y-28.669
X-57.243 Y-28.536
X-57.296 Y-28.412
X-57.361 Y-28.286
X-57.433 Y-28.171
X-57.517 Y-28.059
X-57.611 Y-27.952
X-57.71 Y-27.856
X-57.822 Y-27.763
X-57.941 Y-27.68
X-58.065 Y-27.608
X-58.2 Y-27.543
X-58.34 Y-27.489
X-58.482 Y-27.447
X-58.633 Y-27.415
X-58.788 Y-27.396
X-58.942 Y-27.388
X-59.098 Y-27.394
X-59.259 Y-27.412
X-59.417 Y-27.443
X-59.572 Y-27.487
X-59.725 Y-27.544
X-59.876 Y-27.614
X-60.022 Y-27.697
X-60.161 Y-27.791
X-60.291 Y-27.896
X-60.415 Y-28.013
X-60.531 Y-28.142
X-60.637 Y-28.28
X-60.731 Y-28.426
X-60.813 Y-28.578
X-60.883 Y-28.739
X-60.941 Y-28.906
X-60.985 Y-29.08
X-61.016 Y-29.256
X-61.032 Y-29.433
X-61.034 Y-29.611
X-61.021 Y-29.79
X-60.994 Y-29.969
X-60.952 Y-30.147
X-60.897 Y-30.32
X-60.827 Y-30.488
X-60.745 Y-30.649
X-60.65 Y-30.804
X-60.542 Y-30.952
X-60.421 Y-31.091
X-60.289 Y-31.221
X-60.148 Y-31.339
X-59.998 Y-31.446
X-59.841 Y-31.539
X-59.676 Y-31.62
X-59.504 Y-31.688
X-59.327 Y-31.742
X-59.144 Y-31.782
X-58.96 Y-31.807
X-58.776 Y-31.817
X-58.591 Y-31.812
X-58.408 Y-31.793
X-58.226 Y-31.759
X-58.046 Y-31.709
X-57.87 Y-31.646
X-57.694 Y-31.566
X-57.52 Y-31.469
X-57.349 Y-31.355
X-57.181 Y-31.222
X-57.021 Y-31.074
X-56.872 Y-30.911
X-56.736 Y-30.736
X-56.615 Y-30.551
X-56.509 Y-30.358
X-56.419 Y-30.157
X-56.334 Y-29.904
X-56.325 Y-29.857
X-56.273 Y-29.509
X-56.386 Y-28.763
X-56.423 Y-28.668
X-56.734 Y-28.062
X-56.79 Y-27.994
X-57.295 Y-27.496
X-57.974 Y-27.148
X-58.674 Y-27.031
X-58.775 Y-27.024
X-59.482 Y-27.136
X-59.546 Y-27.156
X-60.188 Y-27.484
X-60.424 Y-27.708
X-60.742 Y-28.029
X-60.827 Y-28.179
X-61.097 Y-28.71
X-61.121 Y-28.803
X-61.227 Y-29.509
X-61.111 Y-30.25
X-60.896 Y-30.687
X-60.754 Y-30.956
X-60.218 Y-31.495
X-60.02 Y-31.603
X-59.515 Y-31.856
X-58.775 Y-31.976
X-58.54 Y-31.948
X-58.001 Y-31.861
X-57.794 Y-31.764
X-57.329 Y-31.526
X-57.283 Y-31.495
X-56.746 Y-30.956
X-56.401 Y-30.283
X-56.371 Y-30.149
X-56.325 Y-29.857
X-56.323 Y-29.82 Z-9.994
X-56.327 Y-29.788 Z-9.977
X-56.331 Y-29.762 Z-9.951
X-56.333 Y-29.746 Z-9.919
X-56.334 Y-29.74 Z-9.882
G0 Z5.
X-59.196 Y11.103
Z0.81
G1 Z0.51 F720.
G3 X-58.304 Y9.897 Z0.095 R0.75
X-59.196 Y11.103 Z-0.321 R0.75
X-58.304 Y9.897 Z-0.736 R0.75
X-59.196 Y11.103 Z-1.152 R0.75
X-58.304 Y9.897 Z-1.567 R0.75
X-59.196 Y11.103 Z-1.983 R0.75
X-58.304 Y9.897 Z-2.398 R0.75
X-59.196 Y11.103 Z-2.814 R0.75
X-58.304 Y9.897 Z-3.229 R0.75
X-59.196 Y11.103 Z-3.645 R0.75
X-58.304 Y9.897 Z-4.06 R0.75
X-59.196 Y11.103 Z-4.476 R0.75
X-58.304 Y9.897 Z-4.891 R0.75
X-59.196 Y11.103 Z-5.306 R0.75
X-58.304 Y9.897 Z-5.722 R0.75
X-59.196 Y11.103 Z-6.137 R0.75
X-58.304 Y9.897 Z-6.553 R0.75
X-59.196 Y11.103 Z-6.968 R0.75
X-58.304 Y9.897 Z-7.384 R0.75
X-59.196 Y11.103 Z-7.799 R0.75
X-58.304 Y9.897 Z-8.215 R0.75
X-59.196 Y11.103 Z-8.63 R0.75
X-58.304 Y9.897 Z-9.046 R0.75
X-59.196 Y11.103 Z-9.461 R0.75
X-58.304 Y9.897 Z-9.877 R0.75
X-58. Y10.5 Z-10. R0.75
X-59.5 R0.75
X-58. R0.75
G1 X-57.963 Y11.004
X-57.964 Y11.139
X-57.998 Y11.269
X-58.058 Y11.39
X-58.138 Y11.499
X-58.235 Y11.593
X-58.345 Y11.671
X-58.464 Y11.734
X-58.591 Y11.78
X-58.723 Y11.81
X-58.857 Y11.824
X-58.992 Y11.822
X-59.126 Y11.804
X-59.257 Y11.772
X-59.384 Y11.726
X-59.505 Y11.666
X-59.619 Y11.594
X-59.725 Y11.511
X-59.822 Y11.417
X-59.91 Y11.314
X-59.986 Y11.202
X-60.051 Y11.084
X-60.104 Y10.96
X-60.145 Y10.831
X-60.173 Y10.699
X-60.188 Y10.565
X-60.19 Y10.43
X-60.179 Y10.296
X-60.156 Y10.163
X-60.12 Y10.032
X-60.072 Y9.906
X-60.012 Y9.785
X-59.941 Y9.67
X-59.86 Y9.563
X-59.769 Y9.463
X-59.669 Y9.372
X-59.56 Y9.292
X-59.445 Y9.221
X-59.324 Y9.162
X-59.198 Y9.114
X-59.068 Y9.078
X-58.935 Y9.054
X-58.8 Y9.043
X-58.665 Y9.044
X-58.531 Y9.058
X-58.399 Y9.084
X-58.269 Y9.122
X-58.144 Y9.172
X-58.024 Y9.234
X-57.91 Y9.306
X-57.803 Y9.389
X-57.704 Y9.481
X-57.615 Y9.582
X-57.515 Y9.714
X-57.414 Y9.874
X-57.325 Y10.043
X-57.259 Y10.196
X-57.208 Y10.348
X-57.171 Y10.496
X-57.147 Y10.641
X-57.135 Y10.784
Y10.925
X-57.145 Y11.063
X-57.167 Y11.2
X-57.199 Y11.331
X-57.243 Y11.464
X-57.295 Y11.589
X-57.36 Y11.714
X-57.433 Y11.829
X-57.516 Y11.941
X-57.61 Y12.048
X-57.71 Y12.145
X-57.822 Y12.237
X-57.941 Y12.32
X-58.065 Y12.392
X-58.2 Y12.457
X-58.34 Y12.511
X-58.482 Y12.553
X-58.632 Y12.585
X-58.787 Y12.605
X-58.942 Y12.612
X-59.098 Y12.607
X-59.258 Y12.588
X-59.417 Y12.557
X-59.572 Y12.513
X-59.724 Y12.457
X-59.876 Y12.386
X-60.022 Y12.303
X-60.161 Y12.209
X-60.291 Y12.104
X-60.415 Y11.987
X-60.531 Y11.859
X-60.637 Y11.72
X-60.731 Y11.575
X-60.813 Y11.422
X-60.883 Y11.262
X-60.94 Y11.094
X-60.985 Y10.921
X-61.015 Y10.745
X-61.032 Y10.568
X-61.033 Y10.39
X-61.021 Y10.211
X-60.994 Y10.031
X-60.952 Y9.854
X-60.896 Y9.68
X-60.827 Y9.512
X-60.745 Y9.351
X-60.649 Y9.196
X-60.541 Y9.049
X-60.421 Y8.909
X-60.289 Y8.779
X-60.148 Y8.661
X-59.998 Y8.555
X-59.84 Y8.461
X-59.676 Y8.38
X-59.504 Y8.312
X-59.326 Y8.258
X-59.144 Y8.218
X-58.96 Y8.193
X-58.775 Y8.183
X-58.591 Y8.188
X-58.408 Y8.207
X-58.226 Y8.242
X-58.046 Y8.291
X-57.87 Y8.355
X-57.694 Y8.435
X-57.519 Y8.532
X-57.349 Y8.645
X-57.181 Y8.778
X-57.021 Y8.927
X-56.872 Y9.089
X-56.736 Y9.264
X-56.614 Y9.449
X-56.508 Y9.643
X-56.419 Y9.843
X-56.335 Y10.093
X-56.326 Y10.14
X-56.273 Y10.498
X-56.386 Y11.238
X-56.41 Y11.306
X-56.739 Y11.945
X-56.897 Y12.113
X-57.284 Y12.496
X-57.732 Y12.732
X-57.968 Y12.85
X-58.368 Y12.921
X-58.742 Y12.977
X-59.482 Y12.865
X-59.549 Y12.843
X-60.186 Y12.517
X-60.289 Y12.427
X-60.736 Y11.979
X-60.816 Y11.844
X-61.097 Y11.288
X-61.125 Y11.171
X-61.227 Y10.498
X-61.107 Y9.739
X-60.76 Y9.051
X-60.235 Y8.52
X-60.155 Y8.465
X-59.515 Y8.144
X-58.775 Y8.024
X-58.54 Y8.052
X-58.001 Y8.139
X-57.846 Y8.21
X-57.289 Y8.5
X-56.767 Y9.018
X-56.72 Y9.085
X-56.397 Y9.727
X-56.326 Y10.14
X-56.323 Y10.177 Z-9.994
X-56.328 Y10.209 Z-9.977
X-56.331 Y10.235 Z-9.951
X-56.334 Y10.251 Z-9.919
Y10.257 Z-9.882
G0 Z5.
X-59.196 Y51.103
Z0.81
G1 Z0.51 F720.
G3 X-58.304 Y49.897 Z0.095 R0.75
X-59.196 Y51.103 Z-0.321 R0.75
X-58.304 Y49.897 Z-0.736 R0.75
X-59.196 Y51.103 Z-1.152 R0.75
X-58.304 Y49.897 Z-1.567 R0.75
X-59.196 Y51.103 Z-1.983 R0.75
X-58.304 Y49.897 Z-2.398 R0.75
X-59.196 Y51.103 Z-2.814 R0.75
X-58.304 Y49.897 Z-3.229 R0.75
X-59.196 Y51.103 Z-3.645 R0.75
X-58.304 Y49.897 Z-4.06 R0.75
X-59.196 Y51.103 Z-4.476 R0.75
X-58.304 Y49.897 Z-4.891 R0.75
X-59.196 Y51.103 Z-5.306 R0.75
X-58.304 Y49.897 Z-5.722 R0.75
X-59.196 Y51.103 Z-6.137 R0.75
X-58.304 Y49.897 Z-6.553 R0.75
X-59.196 Y51.103 Z-6.968 R0.75
X-58.304 Y49.897 Z-7.384 R0.75
X-59.196 Y51.103 Z-7.799 R0.75
X-58.304 Y49.897 Z-8.215 R0.75
X-59.196 Y51.103 Z-8.63 R0.75
X-58.304 Y49.897 Z-9.046 R0.75
X-59.196 Y51.103 Z-9.461 R0.75
X-58.304 Y49.897 Z-9.877 R0.75
X-58. Y50.5 Z-10. R0.75
X-59.5 R0.75
X-58. R0.75
G1 X-57.963 Y51.004
X-57.964 Y51.139
X-57.998 Y51.269
X-58.058 Y51.39
X-58.138 Y51.499
X-58.235 Y51.593
X-58.345 Y51.671
X-58.464 Y51.734
X-58.591 Y51.78
X-58.723 Y51.81
X-58.857 Y51.824
X-58.992 Y51.822
X-59.126 Y51.804
X-59.257 Y51.772
X-59.384 Y51.726
X-59.505 Y51.666
X-59.619 Y51.594
X-59.725 Y51.511
X-59.822 Y51.417
X-59.91 Y51.314
X-59.986 Y51.202
X-60.051 Y51.084
X-60.104 Y50.96
X-60.145 Y50.831
X-60.173 Y50.699
X-60.188 Y50.565
X-60.19 Y50.43
X-60.179 Y50.296
X-60.156 Y50.163
X-60.12 Y50.032
X-60.072 Y49.906
X-60.012 Y49.785
X-59.941 Y49.67
X-59.86 Y49.563
X-59.769 Y49.463
X-59.669 Y49.372
X-59.56 Y49.292
X-59.445 Y49.221
X-59.324 Y49.162
X-59.198 Y49.114
X-59.068 Y49.078
X-58.935 Y49.054
X-58.8 Y49.043
X-58.665 Y49.044
X-58.531 Y49.058
X-58.399 Y49.084
X-58.269 Y49.122
X-58.144 Y49.172
X-58.024 Y49.234
X-57.91 Y49.306
X-57.803 Y49.389
X-57.704 Y49.481
X-57.615 Y49.582
X-57.515 Y49.714
X-57.414 Y49.874
X-57.325 Y50.043
X-57.259 Y50.196
X-57.208 Y50.348
X-57.171 Y50.496
X-57.147 Y50.641
X-57.135 Y50.784
Y50.925
X-57.145 Y51.063
X-57.167 Y51.2
X-57.199 Y51.331
X-57.243 Y51.464
X-57.295 Y51.589
X-57.36 Y51.714
X-57.433 Y51.829
X-57.516 Y51.941
X-57.61 Y52.048
X-57.71 Y52.145
X-57.822 Y52.237
X-57.941 Y52.32
X-58.065 Y52.392
X-58.2 Y52.457
X-58.34 Y52.511
X-58.482 Y52.553
X-58.632 Y52.585
X-58.788 Y52.605
X-58.942 Y52.612
X-59.098 Y52.607
X-59.258 Y52.588
X-59.417 Y52.557
X-59.572 Y52.513
X-59.724 Y52.457
X-59.876 Y52.386
X-60.022 Y52.303
X-60.161 Y52.209
X-60.291 Y52.104
X-60.415 Y51.987
X-60.531 Y51.859
X-60.637 Y51.72
X-60.731 Y51.575
X-60.813 Y51.422
X-60.883 Y51.262
X-60.941 Y51.094
X-60.985 Y50.921
X-61.015 Y50.745
X-61.032 Y50.568
X-61.033 Y50.39
X-61.021 Y50.211
X-60.994 Y50.031
X-60.952 Y49.854
X-60.896 Y49.68
X-60.827 Y49.512
X-60.745 Y49.351
X-60.65 Y49.196
X-60.541 Y49.049
X-60.421 Y48.909
X-60.289 Y48.779
X-60.148 Y48.661
X-59.998 Y48.555
X-59.841 Y48.461
X-59.676 Y48.38
X-59.504 Y48.312
X-59.326 Y48.258
X-59.144 Y48.218
X-58.96 Y48.193
X-58.775 Y48.183
X-58.591 Y48.188
X-58.408 Y48.207
X-58.226 Y48.242
X-58.046 Y48.291
X-57.87 Y48.355
X-57.694 Y48.435
X-57.519 Y48.532
X-57.349 Y48.645
X-57.181 Y48.778
X-57.021 Y48.927
X-56.872 Y49.089
X-56.736 Y49.264
X-56.614 Y49.449
X-56.509 Y49.643
X-56.419 Y49.843
X-56.335 Y50.094
X-56.326 Y50.141
X-56.273 Y50.506
X-56.386 Y51.239
X-56.399 Y51.28
X-56.744 Y51.952
X-57.277 Y52.491
X-57.329 Y52.526
X-57.968 Y52.85
X-58.271 Y52.905
X-58.742 Y52.977
X-59.482 Y52.865
X-59.549 Y52.843
X-60.189 Y52.516
X-60.289 Y52.427
X-60.756 Y51.952
X-61.101 Y51.28
X-61.129 Y51.145
X-61.227 Y50.506
X-61.112 Y49.754
X-61.075 Y49.664
X-60.764 Y49.059
X-60.693 Y48.977
X-60.222 Y48.509
X-60.131 Y48.453
X-59.512 Y48.143
X-58.742 Y48.023
X-57.975 Y48.147
X-57.295 Y48.495
X-56.76 Y49.027
X-56.7 Y49.126
X-56.402 Y49.713
X-56.38 Y49.799
X-56.326 Y50.141
X-56.323 Y50.177 Z-9.994
X-56.328 Y50.21 Z-9.977
X-56.331 Y50.235 Z-9.951
X-56.334 Y50.252 Z-9.919
Y50.257 Z-9.882
G0 Z5.
X-59.196 Y91.103
Z0.81
G1 Z0.51 F720.
G3 X-58.304 Y89.897 Z0.095 R0.75
X-59.196 Y91.103 Z-0.321 R0.75
X-58.304 Y89.897 Z-0.736 R0.75
X-59.196 Y91.103 Z-1.152 R0.75
X-58.304 Y89.897 Z-1.567 R0.75
X-59.196 Y91.103 Z-1.983 R0.75
X-58.304 Y89.897 Z-2.398 R0.75
X-59.196 Y91.103 Z-2.814 R0.75
X-58.304 Y89.897 Z-3.229 R0.75
X-59.196 Y91.103 Z-3.645 R0.75
X-58.304 Y89.897 Z-4.06 R0.75
X-59.196 Y91.103 Z-4.476 R0.75
X-58.304 Y89.897 Z-4.891 R0.75
X-59.196 Y91.103 Z-5.306 R0.75
X-58.304 Y89.897 Z-5.722 R0.75
X-59.196 Y91.103 Z-6.137 R0.75
X-58.304 Y89.897 Z-6.553 R0.75
X-59.196 Y91.103 Z-6.968 R0.75
X-58.304 Y89.897 Z-7.384 R0.75
X-59.196 Y91.103 Z-7.799 R0.75
X-58.304 Y89.897 Z-8.215 R0.75
X-59.196 Y91.103 Z-8.63 R0.75
X-58.304 Y89.897 Z-9.046 R0.75
X-59.196 Y91.103 Z-9.461 R0.75
X-58.304 Y89.897 Z-9.877 R0.75
X-58. Y90.5 Z-10. R0.75
X-59.5 R0.75
X-58. R0.75
G1 X-57.963 Y91.003
X-57.964 Y91.138
X-57.998 Y91.269
X-58.058 Y91.39
X-58.138 Y91.499
X-58.235 Y91.593
X-58.345 Y91.671
X-58.464 Y91.734
X-58.591 Y91.78
X-58.723 Y91.81
X-58.857 Y91.824
X-58.992 Y91.822
X-59.126 Y91.804
X-59.257 Y91.772
X-59.384 Y91.726
X-59.505 Y91.666
X-59.619 Y91.594
X-59.725 Y91.511
X-59.822 Y91.417
X-59.909 Y91.314
X-59.986 Y91.202
X-60.051 Y91.084
X-60.104 Y90.96
X-60.144 Y90.831
X-60.172 Y90.699
X-60.188 Y90.565
X-60.19 Y90.43
X-60.179 Y90.295
X-60.156 Y90.162
X-60.12 Y90.032
X-60.072 Y89.906
X-60.012 Y89.785
X-59.941 Y89.67
X-59.86 Y89.562
X-59.768 Y89.463
X-59.668 Y89.372
X-59.56 Y89.291
X-59.445 Y89.221
X-59.324 Y89.161
X-59.198 Y89.114
X-59.068 Y89.078
X-58.935 Y89.054
X-58.8 Y89.043
X-58.665 Y89.044
X-58.531 Y89.058
X-58.398 Y89.084
X-58.269 Y89.122
X-58.144 Y89.172
X-58.023 Y89.234
X-57.91 Y89.306
X-57.803 Y89.389
X-57.704 Y89.481
X-57.614 Y89.582
X-57.515 Y89.714
X-57.414 Y89.873
X-57.324 Y90.043
X-57.259 Y90.195
X-57.208 Y90.348
X-57.171 Y90.496
X-57.147 Y90.64
X-57.135 Y90.784
X-57.134 Y90.924
X-57.145 Y91.063
X-57.167 Y91.2
X-57.199 Y91.331
X-57.243 Y91.464
X-57.295 Y91.589
X-57.36 Y91.714
X-57.433 Y91.829
X-57.516 Y91.941
X-57.61 Y92.048
X-57.71 Y92.145
X-57.822 Y92.237
X-57.941 Y92.32
X-58.064 Y92.392
X-58.2 Y92.457
X-58.34 Y92.511
X-58.482 Y92.553
X-58.632 Y92.585
X-58.787 Y92.605
X-58.942 Y92.612
X-59.098 Y92.606
X-59.258 Y92.588
X-59.417 Y92.557
X-59.572 Y92.513
X-59.724 Y92.457
X-59.875 Y92.386
X-60.022 Y92.303
X-60.16 Y92.209
X-60.291 Y92.104
X-60.415 Y91.987
X-60.531 Y91.858
X-60.637 Y91.72
X-60.731 Y91.575
X-60.812 Y91.422
X-60.883 Y91.262
X-60.94 Y91.094
X-60.985 Y90.92
X-61.015 Y90.745
X-61.031 Y90.567
X-61.033 Y90.39
X-61.021 Y90.21
X-60.994 Y90.031
X-60.952 Y89.853
X-60.896 Y89.68
X-60.827 Y89.512
X-60.745 Y89.351
X-60.649 Y89.196
X-60.541 Y89.049
X-60.421 Y88.909
X-60.289 Y88.779
X-60.147 Y88.661
X-59.998 Y88.554
X-59.84 Y88.461
X-59.676 Y88.38
X-59.504 Y88.312
X-59.326 Y88.258
X-59.144 Y88.218
X-58.96 Y88.193
X-58.775 Y88.183
X-58.591 Y88.188
X-58.408 Y88.207
X-58.225 Y88.242
X-58.046 Y88.291
X-57.87 Y88.354
X-57.693 Y88.435
X-57.519 Y88.532
X-57.349 Y88.645
X-57.181 Y88.778
X-57.021 Y88.926
X-56.872 Y89.089
X-56.736 Y89.264
X-56.614 Y89.449
X-56.508 Y89.643
X-56.419 Y89.843
X-56.335 Y90.091
X-56.326 Y90.138
X-56.274 Y90.479
X-56.303 Y90.715
X-56.391 Y91.253
X-56.452 Y91.388
X-56.726 Y91.926
X-56.79 Y92.006
X-57.289 Y92.5
X-57.934 Y92.835
X-58.037 Y92.868
X-58.742 Y92.977
X-59.482 Y92.865
X-59.549 Y92.843
X-60.203 Y92.505
X-60.424 Y92.292
X-60.739 Y91.975
X-60.773 Y91.926
X-61.097 Y91.29
X-61.133 Y91.119
X-61.227 Y90.513
X-61.201 Y90.311
X-61.108 Y89.741
X-60.771 Y89.069
X-60.681 Y88.965
X-60.216 Y88.504
X-60.02 Y88.397
X-59.516 Y88.144
X-58.77 Y88.023
X-58.54 Y88.052
X-57.975 Y88.147
X-57.302 Y88.49
X-56.79 Y88.994
X-56.744 Y89.047
X-56.395 Y89.73
X-56.326 Y90.138
X-56.324 Y90.175 Z-9.994
X-56.328 Y90.207 Z-9.977
X-56.332 Y90.233 Z-9.951
X-56.334 Y90.249 Z-9.919
X-56.335 Y90.255 Z-9.882
G0 Z5.
X-59.196 Y131.104
Z0.81
G1 Z0.51 F720.
G3 X-58.304 Y129.898 Z0.095 R0.75
X-59.196 Y131.104 Z-0.321 R0.75
X-58.304 Y129.898 Z-0.736 R0.75
X-59.196 Y131.104 Z-1.152 R0.75
X-58.304 Y129.898 Z-1.567 R0.75
X-59.196 Y131.104 Z-1.983 R0.75
X-58.304 Y129.898 Z-2.398 R0.75
X-59.196 Y131.104 Z-2.814 R0.75
X-58.304 Y129.898 Z-3.229 R0.75
X-59.196 Y131.104 Z-3.645 R0.75
X-58.304 Y129.898 Z-4.06 R0.75
X-59.196 Y131.104 Z-4.476 R0.75
X-58.304 Y129.898 Z-4.891 R0.75
X-59.196 Y131.104 Z-5.306 R0.75
X-58.304 Y129.898 Z-5.722 R0.75
X-59.196 Y131.104 Z-6.137 R0.75
X-58.304 Y129.898 Z-6.553 R0.75
X-59.196 Y131.104 Z-6.968 R0.75
X-58.304 Y129.898 Z-7.384 R0.75
X-59.196 Y131.104 Z-7.799 R0.75
X-58.304 Y129.898 Z-8.215 R0.75
X-59.196 Y131.104 Z-8.63 R0.75
X-58.304 Y129.898 Z-9.046 R0.75
X-59.196 Y131.104 Z-9.461 R0.75
X-58.304 Y129.898 Z-9.877 R0.75
X-58. Y130.501 Z-10. R0.75
X-59.5 R0.75
X-58.032 Y130.283 R0.75
X-58. Y130.501 R0.75
G1 X-57.963 Y131.004
X-57.964 Y131.139
X-57.998 Y131.27
X-58.057 Y131.391
X-58.138 Y131.499
X-58.235 Y131.593
X-58.344 Y131.672
X-58.464 Y131.735
X-58.591 Y131.781
X-58.723 Y131.811
X-58.857 Y131.824
X-58.992 Y131.822
X-59.126 Y131.805
X-59.257 Y131.773
X-59.384 Y131.726
X-59.505 Y131.667
X-59.619 Y131.595
X-59.725 Y131.511
X-59.822 Y131.417
X-59.909 Y131.314
X-59.986 Y131.203
X-60.051 Y131.085
X-60.104 Y130.961
X-60.144 Y130.832
X-60.172 Y130.7
X-60.188 Y130.566
X-60.19 Y130.431
X-60.179 Y130.296
X-60.156 Y130.163
X-60.12 Y130.033
X-60.072 Y129.907
X-60.012 Y129.786
X-59.941 Y129.671
X-59.859 Y129.563
X-59.768 Y129.464
X-59.668 Y129.373
X-59.56 Y129.292
X-59.445 Y129.222
X-59.324 Y129.162
X-59.198 Y129.114
X-59.068 Y129.078
X-58.935 Y129.055
X-58.8 Y129.043
X-58.665 Y129.045
X-58.531 Y129.058
X-58.398 Y129.085
X-58.269 Y129.123
X-58.144 Y129.173
X-58.023 Y129.235
X-57.909 Y129.307
X-57.803 Y129.39
X-57.704 Y129.482
X-57.614 Y129.583
X-57.515 Y129.715
X-57.414 Y129.874
X-57.324 Y130.043
X-57.259 Y130.196
X-57.208 Y130.349
X-57.171 Y130.496
X-57.147 Y130.641
X-57.135 Y130.785
X-57.134 Y130.925
X-57.145 Y131.064
X-57.167 Y131.201
X-57.199 Y131.332
X-57.243 Y131.465
X-57.295 Y131.589
X-57.36 Y131.715
X-57.433 Y131.83
X-57.516 Y131.942
X-57.61 Y132.049
X-57.709 Y132.145
X-57.822 Y132.238
X-57.941 Y132.321
X-58.064 Y132.393
X-58.2 Y132.458
X-58.34 Y132.512
X-58.482 Y132.554
X-58.632 Y132.586
X-58.787 Y132.605
X-58.941 Y132.613
X-59.098 Y132.607
X-59.258 Y132.589
X-59.417 Y132.558
X-59.571 Y132.514
X-59.724 Y132.457
X-59.875 Y132.387
X-60.022 Y132.304
X-60.16 Y132.21
X-60.291 Y132.105
X-60.415 Y131.988
X-60.531 Y131.859
X-60.637 Y131.721
X-60.731 Y131.575
X-60.812 Y131.423
X-60.882 Y131.262
X-60.94 Y131.095
X-60.985 Y130.921
X-61.015 Y130.745
X-61.031 Y130.568
X-61.033 Y130.39
X-61.021 Y130.211
X-60.993 Y130.032
X-60.952 Y129.854
X-60.896 Y129.681
X-60.827 Y129.513
X-60.745 Y129.352
X-60.649 Y129.197
X-60.541 Y129.049
X-60.42 Y128.91
X-60.289 Y128.78
X-60.147 Y128.661
X-59.998 Y128.555
X-59.84 Y128.462
X-59.676 Y128.381
X-59.504 Y128.313
X-59.326 Y128.259
X-59.144 Y128.219
X-58.96 Y128.194
X-58.775 Y128.184
X-58.591 Y128.189
X-58.407 Y128.208
X-58.225 Y128.242
X-58.046 Y128.291
X-57.87 Y128.355
X-57.693 Y128.435
X-57.519 Y128.532
X-57.349 Y128.646
X-57.181 Y128.779
X-57.021 Y128.927
X-56.872 Y129.09
X-56.736 Y129.265
X-56.614 Y129.45
X-56.508 Y129.643
X-56.419 Y129.844
X-56.335 Y130.093
X-56.326 Y130.14
X-56.273 Y130.487
X-56.299 Y130.689
X-56.396 Y131.269
X-56.744 Y131.953
X-57.276 Y132.49
X-57.329 Y132.526
X-57.975 Y132.853
X-58.729 Y132.977
X-58.809 Y132.972
X-59.516 Y132.855
X-60.155 Y132.535
X-60.216 Y132.496
X-60.75 Y131.962
X-61.061 Y131.362
X-61.108 Y131.259
X-61.226 Y130.52
X-61.197 Y130.285
X-61.109 Y129.747
X-60.962 Y129.443
X-60.758 Y129.049
X-60.203 Y128.494
X-59.515 Y128.144
X-58.775 Y128.024
X-58.54 Y128.052
X-58.001 Y128.139
X-57.867 Y128.199
X-57.329 Y128.474
X-57.249 Y128.535
X-56.754 Y129.034
X-56.656 Y129.212
X-56.402 Y129.713
X-56.367 Y129.881
X-56.326 Y130.14
X-56.324 Y130.176 Z-9.994
X-56.328 Y130.208 Z-9.977
X-56.331 Y130.234 Z-9.951
X-56.334 Y130.251 Z-9.919
Y130.256 Z-9.882
G0 Z5.
X-59.196 Y-68.904
Z0.81
G1 Z0.51 F720.
G3 X-58.304 Y-70.11 Z0.095 R0.75
X-59.196 Y-68.904 Z-0.321 R0.75
X-58.304 Y-70.11 Z-0.736 R0.75
X-59.196 Y-68.904 Z-1.152 R0.75
X-58.304 Y-70.11 Z-1.567 R0.75
X-59.196 Y-68.904 Z-1.983 R0.75
X-58.304 Y-70.11 Z-2.398 R0.75
X-59.196 Y-68.904 Z-2.814 R0.75
X-58.304 Y-70.11 Z-3.229 R0.75
X-59.196 Y-68.904 Z-3.645 R0.75
X-58.304 Y-70.11 Z-4.06 R0.75
X-59.196 Y-68.904 Z-4.476 R0.75
X-58.304 Y-70.11 Z-4.891 R0.75
X-59.196 Y-68.904 Z-5.306 R0.75
X-58.304 Y-70.11 Z-5.722 R0.75
X-59.196 Y-68.904 Z-6.137 R0.75
X-58.304 Y-70.11 Z-6.553 R0.75
X-59.196 Y-68.904 Z-6.968 R0.75
X-58.304 Y-70.11 Z-7.384 R0.75
X-59.196 Y-68.904 Z-7.799 R0.75
X-58.304 Y-70.11 Z-8.215 R0.75
X-59.196 Y-68.904 Z-8.63 R0.75
X-58.304 Y-70.11 Z-9.046 R0.75
X-59.196 Y-68.904 Z-9.461 R0.75
X-58.304 Y-70.11 Z-9.877 R0.75
X-58. Y-69.507 Z-10. R0.75
X-59.5 R0.75
X-58. R0.75
G1 X-57.963 Y-69.003
X-57.964 Y-68.868
X-57.998 Y-68.738
X-58.058 Y-68.617
X-58.138 Y-68.508
X-58.235 Y-68.414
X-58.345 Y-68.335
X-58.464 Y-68.273
X-58.591 Y-68.227
X-58.723 Y-68.197
X-58.857 Y-68.183
X-58.992 Y-68.185
X-59.126 Y-68.203
X-59.257 Y-68.235
X-59.384 Y-68.281
X-59.505 Y-68.341
X-59.619 Y-68.413
X-59.725 Y-68.496
X-59.822 Y-68.59
X-59.909 Y-68.693
X-59.986 Y-68.804
X-60.051 Y-68.923
X-60.104 Y-69.047
X-60.145 Y-69.176
X-60.173 Y-69.308
X-60.188 Y-69.442
X-60.19 Y-69.577
X-60.179 Y-69.711
X-60.156 Y-69.844
X-60.12 Y-69.974
X-60.072 Y-70.101
X-60.012 Y-70.222
X-59.941 Y-70.336
X-59.86 Y-70.444
X-59.769 Y-70.544
X-59.668 Y-70.634
X-59.56 Y-70.715
X-59.445 Y-70.786
X-59.324 Y-70.845
X-59.198 Y-70.893
X-59.068 Y-70.929
X-58.935 Y-70.953
X-58.8 Y-70.964
X-58.665 Y-70.963
X-58.531 Y-70.949
X-58.399 Y-70.923
X-58.269 Y-70.885
X-58.144 Y-70.834
X-58.024 Y-70.773
X-57.91 Y-70.7
X-57.803 Y-70.618
X-57.704 Y-70.526
X-57.614 Y-70.425
X-57.515 Y-70.293
X-57.414 Y-70.133
X-57.324 Y-69.964
X-57.259 Y-69.811
X-57.208 Y-69.659
X-57.171 Y-69.511
X-57.147 Y-69.366
X-57.135 Y-69.223
Y-69.082
X-57.145 Y-68.944
X-57.167 Y-68.807
X-57.199 Y-68.675
X-57.243 Y-68.542
X-57.295 Y-68.418
X-57.36 Y-68.293
X-57.433 Y-68.177
X-57.516 Y-68.065
X-57.667 Y-67.903
X-57.765 Y-67.824
X-57.819 Y-67.791
X-58.011 Y-67.7
X-58.136 Y-67.654
X-58.405 Y-67.588
X-58.674 Y-67.559
X-58.943 Y-67.566
X-59.213 Y-67.616
X-59.347 Y-67.648
X-59.498 Y-67.7
X-59.761 Y-67.834
X-60.02 Y-68.022
X-60.155 Y-68.151
X-60.334 Y-68.373
X-60.424 Y-68.509
X-60.561 Y-68.776
X-60.647 Y-69.046
X-60.687 Y-69.248
X-60.689 Y-69.752
X-60.642 Y-69.988
X-60.604 Y-70.122
X-60.553 Y-70.257
X-60.413 Y-70.526
X-60.214 Y-70.795
X-60.09 Y-70.93
X-59.885 Y-71.093
X-59.725 Y-71.199
X-59.482 Y-71.32
X-59.347 Y-71.364
X-59.011 Y-71.443
X-58.809 Y-71.456
X-58.54 Y-71.445
X-58.405 Y-71.425
X-58.136 Y-71.36
X-58.001 Y-71.311
X-57.732 Y-71.175
X-57.574 Y-71.065
X-57.407 Y-70.93
X-57.286 Y-70.795
X-57.087 Y-70.526
X-56.949 Y-70.257
X-56.898 Y-70.122
X-56.816 Y-69.786
X-56.811 Y-69.449
X-56.813 Y-69.248
X-56.891 Y-68.911
X-57.004 Y-68.642
X-57.077 Y-68.507
X-57.194 Y-68.338
X-57.388 Y-68.104
X-57.598 Y-67.931
X-57.784 Y-67.811
X-57.819 Y-67.791
X-57.854 Y-67.782 Z-9.994
X-57.885 Y-67.773 Z-9.977
X-57.91 Y-67.766 Z-9.951
X-57.926 Y-67.762 Z-9.918
X-57.932 Y-67.76 Z-9.882
G0 Z5.
X-57.196 Y-84.897
Z0.81
G1 Z0.51 F720.
G3 X-56.304 Y-86.103 Z0.095 R0.75
X-57.196 Y-84.897 Z-0.321 R0.75
X-56.304 Y-86.103 Z-0.736 R0.75
X-57.196 Y-84.897 Z-1.152 R0.75
X-56.304 Y-86.103 Z-1.567 R0.75
X-57.196 Y-84.897 Z-1.983 R0.75
X-56.304 Y-86.103 Z-2.398 R0.75
X-57.196 Y-84.897 Z-2.814 R0.75
X-56.304 Y-86.103 Z-3.229 R0.75
X-57.196 Y-84.897 Z-3.645 R0.75
X-56.304 Y-86.103 Z-4.06 R0.75
X-57.196 Y-84.897 Z-4.476 R0.75
X-56.304 Y-86.103 Z-4.891 R0.75
X-57.196 Y-84.897 Z-5.306 R0.75
X-56.304 Y-86.103 Z-5.722 R0.75
X-57.196 Y-84.897 Z-6.137 R0.75
X-56.304 Y-86.103 Z-6.553 R0.75
X-57.196 Y-84.897 Z-6.968 R0.75
X-56.304 Y-86.103 Z-7.384 R0.75
X-57.196 Y-84.897 Z-7.799 R0.75
X-56.304 Y-86.103 Z-8.215 R0.75
X-57.196 Y-84.897 Z-8.63 R0.75
X-56.304 Y-86.103 Z-9.046 R0.75
X-57.196 Y-84.897 Z-9.461 R0.75
X-56.304 Y-86.103 Z-9.877 R0.75
X-56. Y-85.5 Z-10. R0.75
X-57.5 R0.75
X-56. R0.75
G1 X-55.965 Y-84.976
X-55.981 Y-84.937
X-56.06 Y-84.827
X-56.117 Y-84.778
X-56.341 Y-84.629
X-56.42 Y-84.596
X-56.723 Y-84.537
X-56.79 Y-84.539
X-57.093 Y-84.599
X-57.204 Y-84.658
X-57.403 Y-84.793
X-57.463 Y-84.855
X-57.64 Y-85.129
X-57.687 Y-85.331
X-57.714 Y-85.499
X-57.66 Y-85.802
X-57.622 Y-85.907
X-57.434 Y-86.179
X-57.306 Y-86.273
X-57.129 Y-86.385
X-57.059 Y-86.409
X-56.757 Y-86.464
X-56.521 Y-86.425
X-56.386 Y-86.393
X-56.194 Y-86.273
X-56.075 Y-86.188
X-55.983 Y-86.065
X-55.859 Y-85.87
X-55.787 Y-85.533
X-55.788 Y-85.466
X-55.856 Y-85.137
X-55.981 Y-84.937
X-56.007 Y-84.913 Z-9.994
X-56.031 Y-84.89 Z-9.977
X-56.05 Y-84.873 Z-9.951
X-56.062 Y-84.861 Z-9.918
X-56.067 Y-84.858 Z-9.882
G0 Z5.
X-57.196 Y-52.897
Z0.81
G1 Z0.51 F720.
G3 X-56.304 Y-54.103 Z0.095 R0.75
X-57.196 Y-52.897 Z-0.321 R0.75
X-56.304 Y-54.103 Z-0.736 R0.75
X-57.196 Y-52.897 Z-1.152 R0.75
X-56.304 Y-54.103 Z-1.567 R0.75
X-57.196 Y-52.897 Z-1.983 R0.75
X-56.304 Y-54.103 Z-2.398 R0.75
X-57.196 Y-52.897 Z-2.814 R0.75
X-56.304 Y-54.103 Z-3.229 R0.75
X-57.196 Y-52.897 Z-3.645 R0.75
X-56.304 Y-54.103 Z-4.06 R0.75
X-57.196 Y-52.897 Z-4.476 R0.75
X-56.304 Y-54.103 Z-4.891 R0.75
X-57.196 Y-52.897 Z-5.306 R0.75
X-56.304 Y-54.103 Z-5.722 R0.75
X-57.196 Y-52.897 Z-6.137 R0.75
X-56.304 Y-54.103 Z-6.553 R0.75
X-57.196 Y-52.897 Z-6.968 R0.75
X-56.304 Y-54.103 Z-7.384 R0.75
X-57.196 Y-52.897 Z-7.799 R0.75
X-56.304 Y-54.103 Z-8.215 R0.75
X-57.196 Y-52.897 Z-8.63 R0.75
X-56.304 Y-54.103 Z-9.046 R0.75
X-57.196 Y-52.897 Z-9.461 R0.75
X-56.304 Y-54.103 Z-9.877 R0.75
X-56. Y-53.5 Z-10. R0.75
X-57.5 R0.75
X-56. R0.75
G1 X-55.965 Y-52.976
X-55.981 Y-52.937
X-56.053 Y-52.836
X-56.144 Y-52.76
X-56.347 Y-52.625
X-56.386 Y-52.607
X-56.723 Y-52.537
X-56.79 Y-52.539
X-57.105 Y-52.604
X-57.194 Y-52.652
X-57.41 Y-52.798
X-57.49 Y-52.895
X-57.643 Y-53.137
X-57.713 Y-53.467
X-57.707 Y-53.568
X-57.643 Y-53.864
X-57.49 Y-54.106
X-57.409 Y-54.202
X-57.15 Y-54.375
X-57.059 Y-54.409
X-56.757 Y-54.463
X-56.521 Y-54.425
X-56.386 Y-54.392
X-56.252 Y-54.312
X-56.085 Y-54.197
X-56.01 Y-54.106
X-55.86 Y-53.87
X-55.787 Y-53.534
X-55.793 Y-53.433
X-55.86 Y-53.128
X-55.981 Y-52.937
X-56.008 Y-52.912 Z-9.994
X-56.032 Y-52.89 Z-9.977
X-56.051 Y-52.872 Z-9.951
X-56.063 Y-52.861 Z-9.918
X-56.067 Y-52.857 Z-9.882
G0 Z5.
X-47.196 Y-143.897
Z0.81
G1 Z0.51 F720.
G3 X-46.303 Y-145.103 Z0.095 R0.75
X-47.196 Y-143.897 Z-0.321 R0.75
X-46.303 Y-145.103 Z-0.736 R0.75
X-47.196 Y-143.897 Z-1.152 R0.75
X-46.303 Y-145.103 Z-1.567 R0.75
X-47.196 Y-143.897 Z-1.983 R0.75
X-46.303 Y-145.103 Z-2.398 R0.75
X-47.196 Y-143.897 Z-2.814 R0.75
X-46.303 Y-145.103 Z-3.229 R0.75
X-47.196 Y-143.897 Z-3.645 R0.75
X-46.303 Y-145.103 Z-4.06 R0.75
X-47.196 Y-143.897 Z-4.476 R0.75
X-46.303 Y-145.103 Z-4.891 R0.75
X-47.196 Y-143.897 Z-5.306 R0.75
X-46.303 Y-145.103 Z-5.722 R0.75
X-47.196 Y-143.897 Z-6.137 R0.75
X-46.303 Y-145.103 Z-6.553 R0.75
X-47.196 Y-143.897 Z-6.968 R0.75
X-46.303 Y-145.103 Z-7.384 R0.75
X-47.196 Y-143.897 Z-7.799 R0.75
X-46.303 Y-145.103 Z-8.215 R0.75
X-47.196 Y-143.897 Z-8.63 R0.75
X-46.303 Y-145.103 Z-9.046 R0.75
X-47.196 Y-143.897 Z-9.461 R0.75
X-46.303 Y-145.103 Z-9.877 R0.75
X-46. Y-144.5 Z-10. R0.75
X-47.5 R0.75
X-46. R0.75
G1 X-45.965 Y-143.976
X-45.98 Y-143.939
X-46.053 Y-143.835
X-46.159 Y-143.75
X-46.338 Y-143.631
X-46.428 Y-143.594
X-46.731 Y-143.537
X-46.832 Y-143.546
X-47.119 Y-143.61
X-47.332 Y-143.744
X-47.425 Y-143.813
X-47.505 Y-143.916
X-47.639 Y-144.127
X-47.704 Y-144.417
X-47.713 Y-144.518
X-47.656 Y-144.821
X-47.618 Y-144.914
X-47.453 Y-145.157
X-47.37 Y-145.231
X-47.139 Y-145.381
X-47.101 Y-145.398
X-46.764 Y-145.463
X-46.697 Y-145.46
X-46.428 Y-145.406
X-46.349 Y-145.375
X-46.093 Y-145.203
X-46.024 Y-145.127
X-45.89 Y-144.926
X-45.844 Y-144.821
X-45.787 Y-144.518
X-45.796 Y-144.417
X-45.853 Y-144.148
X-45.89 Y-144.074
X-45.98 Y-143.939
X-46.006 Y-143.914 Z-9.994
X-46.03 Y-143.892 Z-9.977
X-46.049 Y-143.874 Z-9.951
X-46.061 Y-143.863 Z-9.918
X-46.066 Y-143.859 Z-9.882
G0 Z5.
X-47.196 Y-103.897
Z0.81
G1 Z0.51 F720.
G3 X-46.304 Y-105.103 Z0.095 R0.75
X-47.196 Y-103.897 Z-0.321 R0.75
X-46.304 Y-105.103 Z-0.736 R0.75
X-47.196 Y-103.897 Z-1.152 R0.75
X-46.304 Y-105.103 Z-1.567 R0.75
X-47.196 Y-103.897 Z-1.983 R0.75
X-46.304 Y-105.103 Z-2.398 R0.75
X-47.196 Y-103.897 Z-2.814 R0.75
X-46.304 Y-105.103 Z-3.229 R0.75
X-47.196 Y-103.897 Z-3.645 R0.75
X-46.304 Y-105.103 Z-4.06 R0.75
X-47.196 Y-103.897 Z-4.476 R0.75
X-46.304 Y-105.103 Z-4.891 R0.75
X-47.196 Y-103.897 Z-5.306 R0.75
X-46.304 Y-105.103 Z-5.722 R0.75
X-47.196 Y-103.897 Z-6.137 R0.75
X-46.304 Y-105.103 Z-6.553 R0.75
X-47.196 Y-103.897 Z-6.968 R0.75
X-46.304 Y-105.103 Z-7.384 R0.75
X-47.196 Y-103.897 Z-7.799 R0.75
X-46.304 Y-105.103 Z-8.215 R0.75
X-47.196 Y-103.897 Z-8.63 R0.75
X-46.304 Y-105.103 Z-9.046 R0.75
X-47.196 Y-103.897 Z-9.461 R0.75
X-46.304 Y-105.103 Z-9.877 R0.75
X-46. Y-104.5 Z-10. R0.75
X-47.5 R0.75
X-46. R0.75
G1 X-45.965 Y-103.975
X-45.981 Y-103.937
X-46.047 Y-103.842
X-46.159 Y-103.75
X-46.355 Y-103.622
X-46.428 Y-103.594
X-46.731 Y-103.537
X-46.832 Y-103.546
X-47.101 Y-103.603
X-47.17 Y-103.636
X-47.41 Y-103.8
X-47.449 Y-103.838
X-47.617 Y-104.084
X-47.655 Y-104.174
X-47.713 Y-104.477
X-47.705 Y-104.578
X-47.639 Y-104.874
X-47.439 Y-105.173
X-47.34 Y-105.251
X-47.131 Y-105.385
X-46.832 Y-105.454
X-46.731 Y-105.464
X-46.428 Y-105.406
X-46.332 Y-105.365
X-46.092 Y-105.201
X-46.017 Y-105.116
X-45.867 Y-104.887
X-45.851 Y-104.847
X-45.786 Y-104.511
X-45.791 Y-104.443
X-45.853 Y-104.149
X-45.913 Y-104.04
X-45.981 Y-103.937
X-46.008 Y-103.913 Z-9.994
X-46.031 Y-103.89 Z-9.977
X-46.05 Y-103.873 Z-9.951
X-46.062 Y-103.861 Z-9.918
X-46.067 Y-103.858 Z-9.882
G0 Z5.
X-21.196 Y-84.897
Z0.81
G1 Z0.51 F720.
G3 X-20.304 Y-86.103 Z0.095 R0.75
X-21.196 Y-84.897 Z-0.321 R0.75
X-20.304 Y-86.103 Z-0.736 R0.75
X-21.196 Y-84.897 Z-1.152 R0.75
X-20.304 Y-86.103 Z-1.567 R0.75
X-21.196 Y-84.897 Z-1.983 R0.75
X-20.304 Y-86.103 Z-2.398 R0.75
X-21.196 Y-84.897 Z-2.814 R0.75
X-20.304 Y-86.103 Z-3.229 R0.75
X-21.196 Y-84.897 Z-3.645 R0.75
X-20.304 Y-86.103 Z-4.06 R0.75
X-21.196 Y-84.897 Z-4.476 R0.75
X-20.304 Y-86.103 Z-4.891 R0.75
X-21.196 Y-84.897 Z-5.306 R0.75
X-20.304 Y-86.103 Z-5.722 R0.75
X-21.196 Y-84.897 Z-6.137 R0.75
X-20.304 Y-86.103 Z-6.553 R0.75
X-21.196 Y-84.897 Z-6.968 R0.75
X-20.304 Y-86.103 Z-7.384 R0.75
X-21.196 Y-84.897 Z-7.799 R0.75
X-20.304 Y-86.103 Z-8.215 R0.75
X-21.196 Y-84.897 Z-8.63 R0.75
X-20.304 Y-86.103 Z-9.046 R0.75
X-21.196 Y-84.897 Z-9.461 R0.75
X-20.304 Y-86.103 Z-9.877 R0.75
X-20. Y-85.5 Z-10. R0.75
X-21.5 R0.75
X-20. R0.75
G1 X-19.965 Y-84.976
X-19.981 Y-84.937
X-20.052 Y-84.837
X-20.097 Y-84.793
X-20.354 Y-84.622
X-20.455 Y-84.588
X-20.758 Y-84.536
X-21.094 Y-84.601
X-21.204 Y-84.658
X-21.403 Y-84.793
X-21.467 Y-84.86
X-21.64 Y-85.129
X-21.687 Y-85.331
X-21.715 Y-85.499
X-21.656 Y-85.821
X-21.624 Y-85.903
X-21.438 Y-86.175
X-21.306 Y-86.273
X-21.128 Y-86.386
X-20.994 Y-86.422
X-20.758 Y-86.464
X-20.407 Y-86.4
X-20.321 Y-86.358
X-20.085 Y-86.196
X-20.033 Y-86.139
X-19.871 Y-85.894
X-19.84 Y-85.802
X-19.786 Y-85.499
X-19.848 Y-85.163
X-19.917 Y-85.033
X-19.981 Y-84.937
X-20.008 Y-84.912 Z-9.994
X-20.032 Y-84.89 Z-9.977
X-20.051 Y-84.872 Z-9.951
X-20.063 Y-84.861 Z-9.918
X-20.067 Y-84.857 Z-9.882
G0 Z5.
X-21.196 Y-52.897
Z0.81
G1 Z0.51 F720.
G3 X-20.304 Y-54.103 Z0.095 R0.75
X-21.196 Y-52.897 Z-0.321 R0.75
X-20.304 Y-54.103 Z-0.736 R0.75
X-21.196 Y-52.897 Z-1.152 R0.75
X-20.304 Y-54.103 Z-1.567 R0.75
X-21.196 Y-52.897 Z-1.983 R0.75
X-20.304 Y-54.103 Z-2.398 R0.75
X-21.196 Y-52.897 Z-2.814 R0.75
X-20.304 Y-54.103 Z-3.229 R0.75
X-21.196 Y-52.897 Z-3.645 R0.75
X-20.304 Y-54.103 Z-4.06 R0.75
X-21.196 Y-52.897 Z-4.476 R0.75
X-20.304 Y-54.103 Z-4.891 R0.75
X-21.196 Y-52.897 Z-5.306 R0.75
X-20.304 Y-54.103 Z-5.722 R0.75
X-21.196 Y-52.897 Z-6.137 R0.75
X-20.304 Y-54.103 Z-6.553 R0.75
X-21.196 Y-52.897 Z-6.968 R0.75
X-20.304 Y-54.103 Z-7.384 R0.75
X-21.196 Y-52.897 Z-7.799 R0.75
X-20.304 Y-54.103 Z-8.215 R0.75
X-21.196 Y-52.897 Z-8.63 R0.75
X-20.304 Y-54.103 Z-9.046 R0.75
X-21.196 Y-52.897 Z-9.461 R0.75
X-20.304 Y-54.103 Z-9.877 R0.75
X-20. Y-53.5 Z-10. R0.75
X-21.5 R0.75
X-20. R0.75
G1 X-19.965 Y-52.976
X-19.981 Y-52.938
X-20.052 Y-52.839
X-20.098 Y-52.793
X-20.375 Y-52.612
X-20.59 Y-52.561
X-20.758 Y-52.536
X-21.094 Y-52.6
X-21.151 Y-52.625
X-21.425 Y-52.813
X-21.49 Y-52.895
X-21.64 Y-53.13
X-21.707 Y-53.433
X-21.713 Y-53.534
X-21.64 Y-53.87
X-21.452 Y-54.159
X-21.355 Y-54.241
X-21.128 Y-54.387
X-20.994 Y-54.422
X-20.758 Y-54.464
X-20.455 Y-54.412
X-20.376 Y-54.389
X-20.098 Y-54.207
X-20.052 Y-54.163
X-19.876 Y-53.902
X-19.848 Y-53.837
X-19.785 Y-53.5
X-19.847 Y-53.164
X-19.875 Y-53.099
X-19.981 Y-52.938
X-20.007 Y-52.913 Z-9.994
X-20.031 Y-52.891 Z-9.977
X-20.05 Y-52.873 Z-9.951
X-20.062 Y-52.862 Z-9.918
X-20.066 Y-52.858 Z-9.882
G0 Z5.
X-19.196 Y-28.897
Z0.81
G1 Z0.51 F720.
G3 X-18.304 Y-30.103 Z0.095 R0.75
X-19.196 Y-28.897 Z-0.321 R0.75
X-18.304 Y-30.103 Z-0.736 R0.75
X-19.196 Y-28.897 Z-1.152 R0.75
X-18.304 Y-30.103 Z-1.567 R0.75
X-19.196 Y-28.897 Z-1.983 R0.75
X-18.304 Y-30.103 Z-2.398 R0.75
X-19.196 Y-28.897 Z-2.814 R0.75
X-18.304 Y-30.103 Z-3.229 R0.75
X-19.196 Y-28.897 Z-3.645 R0.75
X-18.304 Y-30.103 Z-4.06 R0.75
X-19.196 Y-28.897 Z-4.476 R0.75
X-18.304 Y-30.103 Z-4.891 R0.75
X-19.196 Y-28.897 Z-5.306 R0.75
X-18.304 Y-30.103 Z-5.722 R0.75
X-19.196 Y-28.897 Z-6.137 R0.75
X-18.304 Y-30.103 Z-6.553 R0.75
X-19.196 Y-28.897 Z-6.968 R0.75
X-18.304 Y-30.103 Z-7.384 R0.75
X-19.196 Y-28.897 Z-7.799 R0.75
X-18.304 Y-30.103 Z-8.215 R0.75
X-19.196 Y-28.897 Z-8.63 R0.75
X-18.304 Y-30.103 Z-9.046 R0.75
X-19.196 Y-28.897 Z-9.461 R0.75
X-18.304 Y-30.103 Z-9.877 R0.75
X-18. Y-29.5 Z-10. R0.75
X-19.5 R0.75
X-18. R0.75
G1 X-17.963 Y-28.997
X-17.964 Y-28.862
X-17.998 Y-28.731
X-18.058 Y-28.61
X-18.138 Y-28.502
X-18.235 Y-28.407
X-18.345 Y-28.329
X-18.464 Y-28.266
X-18.591 Y-28.22
X-18.723 Y-28.19
X-18.857 Y-28.176
X-18.992 Y-28.178
X-19.126 Y-28.196
X-19.257 Y-28.228
X-19.384 Y-28.275
X-19.505 Y-28.334
X-19.619 Y-28.406
X-19.725 Y-28.49
X-19.823 Y-28.583
X-19.91 Y-28.686
X-19.986 Y-28.798
X-20.051 Y-28.916
X-20.104 Y-29.04
X-20.145 Y-29.169
X-20.173 Y-29.301
X-20.188 Y-29.435
X-20.19 Y-29.57
X-20.179 Y-29.705
X-20.156 Y-29.838
X-20.12 Y-29.968
X-20.072 Y-30.094
X-20.012 Y-30.215
X-19.941 Y-30.33
X-19.86 Y-30.438
X-19.769 Y-30.537
X-19.669 Y-30.628
X-19.561 Y-30.709
X-19.445 Y-30.779
X-19.324 Y-30.839
X-19.198 Y-30.887
X-19.068 Y-30.923
X-18.935 Y-30.946
X-18.8 Y-30.957
X-18.666 Y-30.956
X-18.531 Y-30.942
X-18.399 Y-30.916
X-18.269 Y-30.878
X-18.144 Y-30.828
X-18.024 Y-30.766
X-17.91 Y-30.694
X-17.803 Y-30.611
X-17.704 Y-30.519
X-17.615 Y-30.418
X-17.515 Y-30.286
X-17.414 Y-30.127
X-17.325 Y-29.957
X-17.259 Y-29.805
X-17.208 Y-29.652
X-17.171 Y-29.504
X-17.147 Y-29.36
X-17.135 Y-29.216
Y-29.076
X-17.146 Y-28.937
X-17.167 Y-28.8
X-17.199 Y-28.669
X-17.243 Y-28.536
X-17.295 Y-28.411
X-17.361 Y-28.286
X-17.433 Y-28.171
X-17.516 Y-28.059
X-17.61 Y-27.952
X-17.71 Y-27.856
X-17.822 Y-27.763
X-17.941 Y-27.68
X-18.065 Y-27.608
X-18.2 Y-27.543
X-18.34 Y-27.489
X-18.482 Y-27.447
X-18.633 Y-27.415
X-18.788 Y-27.395
X-18.942 Y-27.388
X-19.098 Y-27.394
X-19.258 Y-27.412
X-19.417 Y-27.443
X-19.572 Y-27.487
X-19.724 Y-27.544
X-19.876 Y-27.614
X-20.022 Y-27.697
X-20.161 Y-27.791
X-20.291 Y-27.896
X-20.415 Y-28.013
X-20.531 Y-28.142
X-20.637 Y-28.28
X-20.731 Y-28.426
X-20.813 Y-28.578
X-20.883 Y-28.738
X-20.941 Y-28.906
X-20.985 Y-29.08
X-21.016 Y-29.256
X-21.032 Y-29.433
X-21.034 Y-29.61
X-21.021 Y-29.79
X-20.994 Y-29.969
X-20.952 Y-30.147
X-20.896 Y-30.32
X-20.827 Y-30.488
X-20.745 Y-30.649
X-20.65 Y-30.804
X-20.541 Y-30.952
X-20.421 Y-31.091
X-20.289 Y-31.221
X-20.148 Y-31.339
X-19.998 Y-31.446
X-19.841 Y-31.539
X-19.676 Y-31.62
X-19.504 Y-31.688
X-19.326 Y-31.742
X-19.144 Y-31.782
X-18.96 Y-31.807
X-18.775 Y-31.817
X-18.591 Y-31.812
X-18.408 Y-31.793
X-18.226 Y-31.758
X-18.046 Y-31.709
X-17.87 Y-31.646
X-17.694 Y-31.565
X-17.52 Y-31.469
X-17.349 Y-31.355
X-17.181 Y-31.222
X-17.021 Y-31.074
X-16.872 Y-30.911
X-16.736 Y-30.736
X-16.615 Y-30.551
X-16.509 Y-30.358
X-16.419 Y-30.157
X-16.335 Y-29.906
X-16.326 Y-29.859
X-16.275 Y-29.534
X-16.274 Y-29.476
X-16.392 Y-28.741
X-16.698 Y-28.13
X-16.758 Y-28.029
X-17.293 Y-27.497
X-17.966 Y-27.151
X-18.033 Y-27.132
X-18.739 Y-27.023
X-19.379 Y-27.118
X-19.513 Y-27.143
X-20.186 Y-27.483
X-20.307 Y-27.591
X-20.75 Y-28.039
X-21.077 Y-28.668
X-21.106 Y-28.735
X-21.226 Y-29.476
X-21.214 Y-29.61
X-21.118 Y-30.217
X-21.099 Y-30.283
X-20.754 Y-30.956
X-20.219 Y-31.495
X-19.97 Y-31.629
X-19.513 Y-31.856
X-18.773 Y-31.976
X-18.706 Y-31.974
X-17.999 Y-31.86
X-17.764 Y-31.748
X-17.321 Y-31.521
X-17.225 Y-31.441
X-16.746 Y-30.956
X-16.401 Y-30.283
X-16.371 Y-30.149
X-16.326 Y-29.859
X-16.323 Y-29.822 Z-9.994
X-16.328 Y-29.79 Z-9.977
X-16.331 Y-29.764 Z-9.951
X-16.333 Y-29.748 Z-9.919
X-16.334 Y-29.742 Z-9.882
G0 Z5.
X-19.196 Y11.104
Z0.81
G1 Z0.51 F720.
G3 X-18.304 Y9.898 Z0.095 R0.75
X-19.196 Y11.104 Z-0.321 R0.75
X-18.304 Y9.898 Z-0.736 R0.75
X-19.196 Y11.104 Z-1.152 R0.75
X-18.304 Y9.898 Z-1.567 R0.75
X-19.196 Y11.104 Z-1.983 R0.75
X-18.304 Y9.898 Z-2.398 R0.75
X-19.196 Y11.104 Z-2.814 R0.75
X-18.304 Y9.898 Z-3.229 R0.75
X-19.196 Y11.104 Z-3.645 R0.75
X-18.304 Y9.898 Z-4.06 R0.75
X-19.196 Y11.104 Z-4.476 R0.75
X-18.304 Y9.898 Z-4.891 R0.75
X-19.196 Y11.104 Z-5.306 R0.75
X-18.304 Y9.898 Z-5.722 R0.75
X-19.196 Y11.104 Z-6.137 R0.75
X-18.304 Y9.898 Z-6.553 R0.75
X-19.196 Y11.104 Z-6.968 R0.75
X-18.304 Y9.898 Z-7.384 R0.75
X-19.196 Y11.104 Z-7.799 R0.75
X-18.304 Y9.898 Z-8.215 R0.75
X-19.196 Y11.104 Z-8.63 R0.75
X-18.304 Y9.898 Z-9.046 R0.75
X-19.196 Y11.104 Z-9.461 R0.75
X-18.304 Y9.898 Z-9.877 R0.75
X-18. Y10.501 Z-10. R0.75
X-19.5 R0.75
X-18. R0.75
G1 X-17.963 Y11.005
X-17.964 Y11.14
X-17.998 Y11.27
X-18.058 Y11.391
X-18.138 Y11.5
X-18.235 Y11.594
X-18.345 Y11.672
X-18.464 Y11.735
X-18.591 Y11.781
X-18.723 Y11.811
X-18.857 Y11.825
X-18.992 Y11.823
X-19.126 Y11.805
X-19.257 Y11.773
X-19.384 Y11.727
X-19.505 Y11.667
X-19.619 Y11.595
X-19.725 Y11.512
X-19.822 Y11.418
X-19.91 Y11.315
X-19.986 Y11.203
X-20.051 Y11.085
X-20.104 Y10.961
X-20.145 Y10.832
X-20.173 Y10.7
X-20.188 Y10.566
X-20.19 Y10.431
X-20.179 Y10.296
X-20.156 Y10.163
X-20.12 Y10.033
X-20.072 Y9.907
X-20.012 Y9.786
X-19.941 Y9.671
X-19.86 Y9.564
X-19.769 Y9.464
X-19.669 Y9.373
X-19.56 Y9.292
X-19.445 Y9.222
X-19.324 Y9.163
X-19.198 Y9.115
X-19.068 Y9.079
X-18.935 Y9.055
X-18.8 Y9.044
X-18.665 Y9.045
X-18.531 Y9.059
X-18.399 Y9.085
X-18.269 Y9.123
X-18.144 Y9.173
X-18.024 Y9.235
X-17.91 Y9.307
X-17.803 Y9.39
X-17.704 Y9.482
X-17.615 Y9.583
X-17.515 Y9.715
X-17.414 Y9.875
X-17.325 Y10.044
X-17.259 Y10.197
X-17.208 Y10.349
X-17.171 Y10.497
X-17.147 Y10.641
X-17.135 Y10.785
Y10.926
X-17.145 Y11.064
X-17.167 Y11.201
X-17.199 Y11.332
X-17.243 Y11.465
X-17.295 Y11.59
X-17.36 Y11.715
X-17.433 Y11.83
X-17.516 Y11.942
X-17.61 Y12.049
X-17.71 Y12.146
X-17.822 Y12.238
X-17.941 Y12.321
X-18.065 Y12.393
X-18.2 Y12.458
X-18.34 Y12.512
X-18.482 Y12.554
X-18.632 Y12.586
X-18.788 Y12.606
X-18.942 Y12.613
X-19.098 Y12.608
X-19.258 Y12.589
X-19.417 Y12.558
X-19.572 Y12.514
X-19.724 Y12.458
X-19.876 Y12.387
X-20.022 Y12.304
X-20.161 Y12.21
X-20.291 Y12.105
X-20.415 Y11.988
X-20.531 Y11.859
X-20.637 Y11.721
X-20.731 Y11.576
X-20.813 Y11.423
X-20.883 Y11.263
X-20.941 Y11.095
X-20.985 Y10.922
X-21.015 Y10.746
X-21.032 Y10.568
X-21.033 Y10.391
X-21.021 Y10.212
X-20.994 Y10.032
X-20.952 Y9.855
X-20.896 Y9.681
X-20.827 Y9.513
X-20.745 Y9.352
X-20.65 Y9.197
X-20.541 Y9.05
X-20.421 Y8.91
X-20.289 Y8.78
X-20.148 Y8.662
X-19.998 Y8.556
X-19.841 Y8.462
X-19.676 Y8.381
X-19.504 Y8.313
X-19.326 Y8.259
X-19.144 Y8.219
X-18.96 Y8.194
X-18.775 Y8.184
X-18.591 Y8.189
X-18.408 Y8.208
X-18.226 Y8.243
X-18.046 Y8.292
X-17.87 Y8.355
X-17.694 Y8.436
X-17.519 Y8.533
X-17.349 Y8.646
X-17.181 Y8.779
X-17.021 Y8.927
X-16.872 Y9.09
X-16.736 Y9.265
X-16.614 Y9.45
X-16.508 Y9.644
X-16.419 Y9.844
X-16.334 Y10.096
X-16.325 Y10.143
X-16.273 Y10.498
X-16.387 Y11.238
X-16.418 Y11.321
X-16.74 Y11.946
X-16.956 Y12.172
X-17.27 Y12.485
X-17.36 Y12.542
X-17.966 Y12.849
X-18.167 Y12.889
X-18.739 Y12.977
X-19.379 Y12.882
X-19.513 Y12.857
X-20.186 Y12.517
X-20.321 Y12.395
X-20.736 Y11.979
X-20.816 Y11.844
X-21.104 Y11.272
X-21.227 Y10.498
X-21.112 Y9.758
X-21.088 Y9.691
X-20.76 Y9.051
X-20.253 Y8.537
X-20.181 Y8.479
X-19.513 Y8.143
X-18.773 Y8.024
X-18.706 Y8.026
X-17.999 Y8.14
X-17.764 Y8.252
X-17.32 Y8.479
X-17.225 Y8.559
X-16.767 Y9.018
X-16.721 Y9.084
X-16.398 Y9.724
X-16.325 Y10.143
X-16.323 Y10.179 Z-9.994
X-16.327 Y10.212 Z-9.977
X-16.331 Y10.237 Z-9.951
X-16.333 Y10.254 Z-9.919
X-16.334 Y10.259 Z-9.882
G0 Z5.
X-19.196 Y51.103
Z0.81
G1 Z0.51 F720.
G3 X-18.304 Y49.897 Z0.095 R0.75
X-19.196 Y51.103 Z-0.321 R0.75
X-18.304 Y49.897 Z-0.736 R0.75
X-19.196 Y51.103 Z-1.152 R0.75
X-18.304 Y49.897 Z-1.567 R0.75
X-19.196 Y51.103 Z-1.983 R0.75
X-18.304 Y49.897 Z-2.398 R0.75
X-19.196 Y51.103 Z-2.814 R0.75
X-18.304 Y49.897 Z-3.229 R0.75
X-19.196 Y51.103 Z-3.645 R0.75
X-18.304 Y49.897 Z-4.06 R0.75
X-19.196 Y51.103 Z-4.476 R0.75
X-18.304 Y49.897 Z-4.891 R0.75
X-19.196 Y51.103 Z-5.306 R0.75
X-18.304 Y49.897 Z-5.722 R0.75
X-19.196 Y51.103 Z-6.137 R0.75
X-18.304 Y49.897 Z-6.553 R0.75
X-19.196 Y51.103 Z-6.968 R0.75
X-18.304 Y49.897 Z-7.384 R0.75
X-19.196 Y51.103 Z-7.799 R0.75
X-18.304 Y49.897 Z-8.215 R0.75
X-19.196 Y51.103 Z-8.63 R0.75
X-18.304 Y49.897 Z-9.046 R0.75
X-19.196 Y51.103 Z-9.461 R0.75
X-18.304 Y49.897 Z-9.877 R0.75
X-18. Y50.5 Z-10. R0.75
X-19.5 R0.75
X-18. R0.75
G1 X-17.963 Y51.004
X-17.964 Y51.139
X-17.998 Y51.269
X-18.058 Y51.39
X-18.138 Y51.499
X-18.235 Y51.593
X-18.345 Y51.671
X-18.464 Y51.734
X-18.591 Y51.78
X-18.723 Y51.81
X-18.857 Y51.824
X-18.992 Y51.822
X-19.126 Y51.804
X-19.257 Y51.772
X-19.384 Y51.726
X-19.505 Y51.666
X-19.619 Y51.594
X-19.725 Y51.511
X-19.822 Y51.417
X-19.91 Y51.314
X-19.986 Y51.202
X-20.051 Y51.084
X-20.104 Y50.96
X-20.145 Y50.831
X-20.173 Y50.699
X-20.188 Y50.565
X-20.19 Y50.43
X-20.179 Y50.295
X-20.156 Y50.162
X-20.12 Y50.032
X-20.072 Y49.906
X-20.012 Y49.785
X-19.941 Y49.67
X-19.86 Y49.563
X-19.769 Y49.463
X-19.669 Y49.372
X-19.56 Y49.291
X-19.445 Y49.221
X-19.324 Y49.161
X-19.198 Y49.114
X-19.068 Y49.078
X-18.935 Y49.054
X-18.8 Y49.043
X-18.665 Y49.044
X-18.531 Y49.058
X-18.399 Y49.084
X-18.269 Y49.122
X-18.144 Y49.172
X-18.024 Y49.234
X-17.91 Y49.306
X-17.803 Y49.389
X-17.704 Y49.481
X-17.615 Y49.582
X-17.515 Y49.714
X-17.414 Y49.873
X-17.325 Y50.043
X-17.259 Y50.196
X-17.208 Y50.348
X-17.171 Y50.496
X-17.147 Y50.64
X-17.135 Y50.784
Y50.924
X-17.145 Y51.063
X-17.167 Y51.2
X-17.199 Y51.331
X-17.243 Y51.464
X-17.295 Y51.589
X-17.36 Y51.714
X-17.433 Y51.829
X-17.516 Y51.941
X-17.61 Y52.048
X-17.71 Y52.145
X-17.822 Y52.237
X-17.941 Y52.32
X-18.065 Y52.392
X-18.2 Y52.457
X-18.34 Y52.511
X-18.482 Y52.553
X-18.632 Y52.585
X-18.788 Y52.605
X-18.942 Y52.612
X-19.098 Y52.607
X-19.258 Y52.588
X-19.417 Y52.557
X-19.572 Y52.513
X-19.724 Y52.457
X-19.876 Y52.386
X-20.022 Y52.303
X-20.161 Y52.209
X-20.291 Y52.104
X-20.415 Y51.987
X-20.531 Y51.858
X-20.637 Y51.72
X-20.731 Y51.575
X-20.813 Y51.422
X-20.883 Y51.262
X-20.941 Y51.094
X-20.985 Y50.92
X-21.015 Y50.745
X-21.032 Y50.567
X-21.033 Y50.39
X-21.021 Y50.211
X-20.994 Y50.031
X-20.952 Y49.853
X-20.896 Y49.68
X-20.827 Y49.512
X-20.745 Y49.351
X-20.65 Y49.196
X-20.541 Y49.049
X-20.421 Y48.909
X-20.289 Y48.779
X-20.148 Y48.661
X-19.998 Y48.555
X-19.841 Y48.461
X-19.676 Y48.38
X-19.504 Y48.312
X-19.326 Y48.258
X-19.144 Y48.218
X-18.96 Y48.193
X-18.775 Y48.183
X-18.591 Y48.188
X-18.408 Y48.207
X-18.226 Y48.242
X-18.046 Y48.291
X-17.87 Y48.354
X-17.694 Y48.435
X-17.519 Y48.532
X-17.349 Y48.645
X-17.181 Y48.778
X-17.021 Y48.926
X-16.872 Y49.089
X-16.736 Y49.264
X-16.614 Y49.449
X-16.508 Y49.643
X-16.419 Y49.843
X-16.335 Y50.093
X-16.326 Y50.14
X-16.273 Y50.502
X-16.388 Y51.246
X-16.465 Y51.414
X-16.743 Y51.952
X-17.278 Y52.491
X-17.36 Y52.542
X-17.966 Y52.849
X-18.167 Y52.889
X-18.739 Y52.977
X-19.379 Y52.882
X-19.513 Y52.857
X-20.186 Y52.518
X-20.321 Y52.395
X-20.756 Y51.952
X-21.101 Y51.28
X-21.129 Y51.145
X-21.227 Y50.506
X-21.105 Y49.732
X-20.75 Y49.038
X-20.215 Y48.504
X-19.867 Y48.318
X-19.513 Y48.143
X-18.773 Y48.024
X-18.706 Y48.026
X-17.999 Y48.14
X-17.764 Y48.252
X-17.293 Y48.498
X-16.762 Y49.025
X-16.687 Y49.15
X-16.393 Y49.739
X-16.326 Y50.14
X-16.323 Y50.177 Z-9.994
X-16.328 Y50.209 Z-9.977
X-16.331 Y50.235 Z-9.951
X-16.334 Y50.251 Z-9.919
Y50.257 Z-9.882
G0 Z5.
X-19.196 Y91.103
Z0.81
G1 Z0.51 F720.
G3 X-18.304 Y89.897 Z0.095 R0.75
X-19.196 Y91.103 Z-0.321 R0.75
X-18.304 Y89.897 Z-0.736 R0.75
X-19.196 Y91.103 Z-1.152 R0.75
X-18.304 Y89.897 Z-1.567 R0.75
X-19.196 Y91.103 Z-1.983 R0.75
X-18.304 Y89.897 Z-2.398 R0.75
X-19.196 Y91.103 Z-2.814 R0.75
X-18.304 Y89.897 Z-3.229 R0.75
X-19.196 Y91.103 Z-3.645 R0.75
X-18.304 Y89.897 Z-4.06 R0.75
X-19.196 Y91.103 Z-4.476 R0.75
X-18.304 Y89.897 Z-4.891 R0.75
X-19.196 Y91.103 Z-5.306 R0.75
X-18.304 Y89.897 Z-5.722 R0.75
X-19.196 Y91.103 Z-6.137 R0.75
X-18.304 Y89.897 Z-6.553 R0.75
X-19.196 Y91.103 Z-6.968 R0.75
X-18.304 Y89.897 Z-7.384 R0.75
X-19.196 Y91.103 Z-7.799 R0.75
X-18.304 Y89.897 Z-8.215 R0.75
X-19.196 Y91.103 Z-8.63 R0.75
X-18.304 Y89.897 Z-9.046 R0.75
X-19.196 Y91.103 Z-9.461 R0.75
X-18.304 Y89.897 Z-9.877 R0.75
X-18. Y90.5 Z-10. R0.75
X-19.5 R0.75
X-18. R0.75
G1 X-17.963 Y91.004
X-17.964 Y91.139
X-17.998 Y91.27
X-18.058 Y91.391
X-18.138 Y91.499
X-18.235 Y91.593
X-18.345 Y91.672
X-18.464 Y91.734
X-18.591 Y91.781
X-18.723 Y91.81
X-18.857 Y91.824
X-18.992 Y91.822
X-19.126 Y91.805
X-19.257 Y91.772
X-19.384 Y91.726
X-19.505 Y91.666
X-19.619 Y91.594
X-19.725 Y91.511
X-19.822 Y91.417
X-19.909 Y91.314
X-19.986 Y91.203
X-20.051 Y91.084
X-20.104 Y90.96
X-20.144 Y90.832
X-20.172 Y90.699
X-20.188 Y90.565
X-20.19 Y90.43
X-20.179 Y90.296
X-20.156 Y90.163
X-20.12 Y90.033
X-20.072 Y89.907
X-20.012 Y89.786
X-19.941 Y89.671
X-19.86 Y89.563
X-19.768 Y89.463
X-19.668 Y89.373
X-19.56 Y89.292
X-19.445 Y89.221
X-19.324 Y89.162
X-19.198 Y89.114
X-19.068 Y89.078
X-18.935 Y89.054
X-18.8 Y89.043
X-18.665 Y89.044
X-18.531 Y89.058
X-18.398 Y89.084
X-18.269 Y89.123
X-18.144 Y89.173
X-18.024 Y89.234
X-17.91 Y89.307
X-17.803 Y89.389
X-17.704 Y89.481
X-17.614 Y89.582
X-17.515 Y89.714
X-17.414 Y89.874
X-17.324 Y90.043
X-17.259 Y90.196
X-17.208 Y90.348
X-17.171 Y90.496
X-17.147 Y90.641
X-17.135 Y90.784
Y90.925
X-17.145 Y91.063
X-17.167 Y91.2
X-17.199 Y91.332
X-17.243 Y91.465
X-17.295 Y91.589
X-17.36 Y91.714
X-17.433 Y91.83
X-17.516 Y91.942
X-17.61 Y92.049
X-17.71 Y92.145
X-17.822 Y92.238
X-17.941 Y92.32
X-18.064 Y92.393
X-18.2 Y92.458
X-18.34 Y92.512
X-18.482 Y92.554
X-18.632 Y92.585
X-18.787 Y92.605
X-18.942 Y92.612
X-19.098 Y92.607
X-19.258 Y92.589
X-19.417 Y92.557
X-19.572 Y92.514
X-19.724 Y92.457
X-19.875 Y92.387
X-20.022 Y92.304
X-20.16 Y92.209
X-20.291 Y92.105
X-20.415 Y91.988
X-20.531 Y91.859
X-20.637 Y91.721
X-20.731 Y91.575
X-20.812 Y91.423
X-20.883 Y91.262
X-20.94 Y91.094
X-20.985 Y90.921
X-21.015 Y90.745
X-21.031 Y90.568
X-21.033 Y90.39
X-21.021 Y90.211
X-20.994 Y90.032
X-20.952 Y89.854
X-20.896 Y89.68
X-20.827 Y89.513
X-20.745 Y89.351
X-20.649 Y89.197
X-20.541 Y89.049
X-20.421 Y88.909
X-20.289 Y88.78
X-20.147 Y88.661
X-19.998 Y88.555
X-19.84 Y88.461
X-19.676 Y88.38
X-19.504 Y88.313
X-19.326 Y88.258
X-19.144 Y88.219
X-18.96 Y88.194
X-18.775 Y88.183
X-18.591 Y88.188
X-18.408 Y88.208
X-18.225 Y88.242
X-18.046 Y88.291
X-17.87 Y88.355
X-17.694 Y88.435
X-17.519 Y88.532
X-17.349 Y88.646
X-17.181 Y88.778
X-17.021 Y88.927
X-16.872 Y89.09
X-16.736 Y89.264
X-16.614 Y89.449
X-16.508 Y89.643
X-16.419 Y89.843
X-16.335 Y90.093
X-16.326 Y90.14
X-16.274 Y90.479
X-16.303 Y90.715
X-16.391 Y91.253
X-16.452 Y91.388
X-16.745 Y91.954
X-17.249 Y92.465
X-17.304 Y92.511
X-17.966 Y92.849
X-18.167 Y92.889
X-18.739 Y92.977
X-19.379 Y92.882
X-19.513 Y92.856
X-20.186 Y92.517
X-20.321 Y92.395
X-20.752 Y91.959
X-21.098 Y91.287
X-21.133 Y91.119
X-21.227 Y90.513
X-21.201 Y90.311
X-21.107 Y89.739
X-20.787 Y89.1
X-20.724 Y89.009
X-20.209 Y88.498
X-19.513 Y88.143
X-18.759 Y88.023
X-18.437 Y88.068
X-17.991 Y88.142
X-17.36 Y88.458
X-17.293 Y88.497
X-16.755 Y89.033
X-16.644 Y89.234
X-16.397 Y89.726
X-16.326 Y90.14
X-16.324 Y90.176 Z-9.994
X-16.328 Y90.208 Z-9.977
X-16.331 Y90.234 Z-9.951
X-16.334 Y90.251 Z-9.919
Y90.256 Z-9.882
G0 Z5.
X-19.196 Y131.103
Z0.81
G1 Z0.51 F720.
G3 X-18.304 Y129.897 Z0.095 R0.75
X-19.196 Y131.103 Z-0.321 R0.75
X-18.304 Y129.897 Z-0.736 R0.75
X-19.196 Y131.103 Z-1.152 R0.75
X-18.304 Y129.897 Z-1.567 R0.75
X-19.196 Y131.103 Z-1.983 R0.75
X-18.304 Y129.897 Z-2.398 R0.75
X-19.196 Y131.103 Z-2.814 R0.75
X-18.304 Y129.897 Z-3.229 R0.75
X-19.196 Y131.103 Z-3.645 R0.75
X-18.304 Y129.897 Z-4.06 R0.75
X-19.196 Y131.103 Z-4.476 R0.75
X-18.304 Y129.897 Z-4.891 R0.75
X-19.196 Y131.103 Z-5.306 R0.75
X-18.304 Y129.897 Z-5.722 R0.75
X-19.196 Y131.103 Z-6.137 R0.75
X-18.304 Y129.897 Z-6.553 R0.75
X-19.196 Y131.103 Z-6.968 R0.75
X-18.356 Y129.861 Z-7.372 R0.75
X-18.325 Y131.118 Z-7.635 R0.75
X-19.175 Y129.882 Z-8.051 R0.75
X-18.579 Y129.769 Z-8.161 R0.75
X-18.92 Y131.23 Z-8.576 R0.75
X-18.579 Y129.769 Z-8.992 R0.75
X-18.92 Y131.23 Z-9.407 R0.75
X-18.579 Y129.769 Z-9.823 R0.75
X-18. Y130.5 Z-10. R0.75
X-19.206 Y131.095 R0.75
X-19.167 Y129.876 R0.75
X-18. Y130.5 R0.75
G1 X-17.963 Y131.003
Y131.138
X-17.998 Y131.269
X-18.057 Y131.39
X-18.138 Y131.498
X-18.235 Y131.592
X-18.344 Y131.671
X-18.464 Y131.734
X-18.591 Y131.78
X-18.722 Y131.81
X-18.857 Y131.824
X-18.992 Y131.821
X-19.126 Y131.804
X-19.257 Y131.772
X-19.383 Y131.725
X-19.505 Y131.666
X-19.619 Y131.594
X-19.725 Y131.51
X-19.822 Y131.417
X-19.909 Y131.313
X-19.986 Y131.202
X-20.051 Y131.084
X-20.104 Y130.96
X-20.144 Y130.831
X-20.172 Y130.699
X-20.187 Y130.565
X-20.19 Y130.43
X-20.179 Y130.295
X-20.156 Y130.162
X-20.12 Y130.032
X-20.071 Y129.906
X-20.012 Y129.785
X-19.941 Y129.67
X-19.859 Y129.562
X-19.768 Y129.463
X-19.668 Y129.372
X-19.56 Y129.291
X-19.445 Y129.221
X-19.324 Y129.161
X-19.198 Y129.113
X-19.067 Y129.077
X-18.935 Y129.054
X-18.8 Y129.042
X-18.665 Y129.044
X-18.531 Y129.057
X-18.398 Y129.084
X-18.269 Y129.122
X-18.144 Y129.172
X-18.023 Y129.234
X-17.909 Y129.306
X-17.803 Y129.389
X-17.704 Y129.481
X-17.614 Y129.582
X-17.515 Y129.714
X-17.413 Y129.873
X-17.324 Y130.042
X-17.259 Y130.195
X-17.207 Y130.348
X-17.171 Y130.495
X-17.147 Y130.64
X-17.135 Y130.784
X-17.134 Y130.924
X-17.145 Y131.063
X-17.167 Y131.2
X-17.199 Y131.331
X-17.243 Y131.464
X-17.295 Y131.588
X-17.36 Y131.714
X-17.432 Y131.829
X-17.516 Y131.941
X-17.61 Y132.048
X-17.709 Y132.144
X-17.822 Y132.237
X-17.941 Y132.32
X-18.064 Y132.392
X-18.2 Y132.457
X-18.339 Y132.511
X-18.482 Y132.553
X-18.632 Y132.585
X-18.787 Y132.604
X-18.941 Y132.612
X-19.098 Y132.606
X-19.258 Y132.588
X-19.417 Y132.557
X-19.571 Y132.513
X-19.724 Y132.456
X-19.875 Y132.386
X-20.022 Y132.303
X-20.16 Y132.209
X-20.291 Y132.104
X-20.415 Y131.987
X-20.531 Y131.858
X-20.637 Y131.72
X-20.73 Y131.574
X-20.812 Y131.422
X-20.882 Y131.261
X-20.94 Y131.094
X-20.985 Y130.92
X-21.015 Y130.744
X-21.031 Y130.567
X-21.033 Y130.389
X-21.021 Y130.21
X-20.993 Y130.031
X-20.952 Y129.853
X-20.896 Y129.68
X-20.827 Y129.512
X-20.744 Y129.351
X-20.649 Y129.196
X-20.541 Y129.048
X-20.42 Y128.909
X-20.289 Y128.779
X-20.147 Y128.661
X-19.997 Y128.554
X-19.84 Y128.461
X-19.675 Y128.38
X-19.504 Y128.312
X-19.326 Y128.258
X-19.144 Y128.218
X-18.96 Y128.193
X-18.775 Y128.183
X-18.591 Y128.188
X-18.407 Y128.207
X-18.225 Y128.241
X-18.046 Y128.291
X-17.869 Y128.354
X-17.693 Y128.434
X-17.519 Y128.531
X-17.349 Y128.645
X-17.181 Y128.778
X-17.021 Y128.926
X-16.872 Y129.089
X-16.736 Y129.264
X-16.614 Y129.449
X-16.508 Y129.642
X-16.419 Y129.843
X-16.335 Y130.089
X-16.326 Y130.136
X-16.273 Y130.487
X-16.299 Y130.689
X-16.397 Y131.274
X-16.732 Y131.934
X-16.822 Y132.038
X-17.293 Y132.503
X-17.991 Y132.858
X-18.733 Y132.977
X-18.975 Y132.946
X-19.513 Y132.857
X-20.186 Y132.517
X-20.321 Y132.395
X-20.744 Y131.969
X-20.859 Y131.759
X-21.107 Y131.261
X-21.226 Y130.52
X-21.197 Y130.285
X-21.109 Y129.747
X-20.994 Y129.505
X-20.752 Y129.041
X-20.219 Y128.505
X-19.648 Y128.207
X-19.513 Y128.144
X-18.773 Y128.024
X-18.706 Y128.026
X-17.999 Y128.14
X-17.736 Y128.266
X-17.304 Y128.489
X-17.114 Y128.67
X-16.744 Y129.046
X-16.402 Y129.713
X-16.345 Y130.016
X-16.326 Y130.136
X-16.324 Y130.173 Z-9.994
X-16.328 Y130.205 Z-9.977
X-16.332 Y130.231 Z-9.951
X-16.334 Y130.247 Z-9.919
X-16.335 Y130.253 Z-9.882
G0 Z5.
X-19.2 Y-68.896
Z0.81
G1 Z0.51 F720.
G3 X-18.307 Y-70.102 Z0.095 R0.75
X-19.2 Y-68.896 Z-0.321 R0.75
X-18.307 Y-70.102 Z-0.736 R0.75
X-19.2 Y-68.896 Z-1.152 R0.75
X-18.307 Y-70.102 Z-1.567 R0.75
X-19.2 Y-68.896 Z-1.983 R0.75
X-18.307 Y-70.102 Z-2.398 R0.75
X-19.2 Y-68.896 Z-2.814 R0.75
X-18.307 Y-70.102 Z-3.229 R0.75
X-19.2 Y-68.896 Z-3.645 R0.75
X-18.307 Y-70.102 Z-4.06 R0.75
X-19.2 Y-68.896 Z-4.476 R0.75
X-18.307 Y-70.102 Z-4.891 R0.75
X-19.2 Y-68.896 Z-5.306 R0.75
X-18.307 Y-70.102 Z-5.722 R0.75
X-19.2 Y-68.896 Z-6.137 R0.75
X-18.307 Y-70.102 Z-6.553 R0.75
X-19.2 Y-68.896 Z-6.968 R0.75
X-18.307 Y-70.102 Z-7.384 R0.75
X-19.2 Y-68.896 Z-7.799 R0.75
X-18.307 Y-70.102 Z-8.215 R0.75
X-19.2 Y-68.896 Z-8.63 R0.75
X-18.307 Y-70.102 Z-9.046 R0.75
X-19.2 Y-68.896 Z-9.461 R0.75
X-18.307 Y-70.102 Z-9.877 R0.75
X-18.004 Y-69.499 Z-10. R0.75
X-19.504 R0.75
X-18.004 R0.75
G1 X-17.966 Y-68.996
X-17.967 Y-68.861
X-18.001 Y-68.73
X-18.061 Y-68.609
X-18.142 Y-68.501
X-18.238 Y-68.407
X-18.348 Y-68.328
X-18.468 Y-68.265
X-18.595 Y-68.219
X-18.726 Y-68.189
X-18.861 Y-68.176
X-18.996 Y-68.178
X-19.129 Y-68.195
X-19.261 Y-68.227
X-19.387 Y-68.274
X-19.508 Y-68.333
X-19.623 Y-68.405
X-19.729 Y-68.489
X-19.826 Y-68.583
X-19.913 Y-68.686
X-19.989 Y-68.797
X-20.054 Y-68.915
X-20.107 Y-69.039
X-20.148 Y-69.168
X-20.176 Y-69.3
X-20.191 Y-69.434
X-20.194 Y-69.569
X-20.183 Y-69.704
X-20.159 Y-69.837
X-20.123 Y-69.967
X-20.075 Y-70.093
X-20.015 Y-70.214
X-19.945 Y-70.329
X-19.863 Y-70.437
X-19.772 Y-70.536
X-19.672 Y-70.627
X-19.564 Y-70.708
X-19.449 Y-70.778
X-19.328 Y-70.838
X-19.201 Y-70.886
X-19.071 Y-70.922
X-18.938 Y-70.945
X-18.804 Y-70.957
X-18.669 Y-70.955
X-18.535 Y-70.942
X-18.402 Y-70.915
X-18.273 Y-70.877
X-18.147 Y-70.827
X-18.027 Y-70.765
X-17.913 Y-70.693
X-17.806 Y-70.61
X-17.708 Y-70.518
X-17.618 Y-70.417
X-17.519 Y-70.285
X-17.417 Y-70.126
X-17.328 Y-69.957
X-17.263 Y-69.804
X-17.211 Y-69.651
X-17.175 Y-69.504
X-17.151 Y-69.359
X-17.139 Y-69.215
X-17.138 Y-69.075
X-17.149 Y-68.936
X-17.171 Y-68.799
X-17.203 Y-68.668
X-17.246 Y-68.535
X-17.299 Y-68.411
X-17.364 Y-68.285
X-17.436 Y-68.17
X-17.52 Y-68.058
X-17.666 Y-67.901
X-17.775 Y-67.814
X-17.836 Y-67.779
X-18.033 Y-67.684
X-18.167 Y-67.638
X-18.571 Y-67.551
X-18.84 Y-67.548
X-19.11 Y-67.581
X-19.379 Y-67.652
X-19.648 Y-67.766
X-19.917 Y-67.934
X-20.186 Y-68.178
X-20.338 Y-68.373
X-20.455 Y-68.559
X-20.56 Y-68.776
X-20.609 Y-68.911
X-20.675 Y-69.18
X-20.694 Y-69.315
X-20.701 Y-69.584
X-20.691 Y-69.719
X-20.639 Y-69.988
X-20.548 Y-70.257
X-20.409 Y-70.526
X-20.186 Y-70.822
X-19.917 Y-71.066
X-19.648 Y-71.234
X-19.379 Y-71.348
X-19.11 Y-71.419
X-18.84 Y-71.452
X-18.571 Y-71.449
X-18.167 Y-71.363
X-18.033 Y-71.316
X-17.764 Y-71.184
X-17.495 Y-70.994
X-17.292 Y-70.795
X-17.185 Y-70.661
X-17.091 Y-70.524
X-16.982 Y-70.33
X-16.903 Y-70.122
X-16.861 Y-69.988
X-16.813 Y-69.763
X-16.811 Y-69.254
X-16.853 Y-69.046
X-16.891 Y-68.911
X-16.995 Y-68.642
X-17.159 Y-68.373
X-17.265 Y-68.238
X-17.391 Y-68.104
X-17.539 Y-67.969
X-17.803 Y-67.796
X-17.836 Y-67.779
X-17.871 Y-67.771 Z-9.994
X-17.903 Y-67.763 Z-9.977
X-17.928 Y-67.757 Z-9.951
X-17.944 Y-67.753 Z-9.918
X-17.95 Y-67.752 Z-9.882
G0 Z5.
X21.554 Y-84.897
Z0.81
G1 Z0.51 F720.
G3 X22.446 Y-86.103 Z0.095 R0.75
X21.554 Y-84.897 Z-0.321 R0.75
X22.446 Y-86.103 Z-0.736 R0.75
X21.554 Y-84.897 Z-1.152 R0.75
X22.446 Y-86.103 Z-1.567 R0.75
X21.554 Y-84.897 Z-1.983 R0.75
X22.446 Y-86.103 Z-2.398 R0.75
X21.554 Y-84.897 Z-2.814 R0.75
X22.446 Y-86.103 Z-3.229 R0.75
X21.554 Y-84.897 Z-3.645 R0.75
X22.446 Y-86.103 Z-4.06 R0.75
X21.554 Y-84.897 Z-4.476 R0.75
X22.446 Y-86.103 Z-4.891 R0.75
X21.554 Y-84.897 Z-5.306 R0.75
X22.446 Y-86.103 Z-5.722 R0.75
X21.554 Y-84.897 Z-6.137 R0.75
X22.446 Y-86.103 Z-6.553 R0.75
X21.554 Y-84.897 Z-6.968 R0.75
X22.446 Y-86.103 Z-7.384 R0.75
X21.554 Y-84.897 Z-7.799 R0.75
X22.446 Y-86.103 Z-8.215 R0.75
X21.554 Y-84.897 Z-8.63 R0.75
X22.446 Y-86.103 Z-9.046 R0.75
X21.554 Y-84.897 Z-9.461 R0.75
X22.446 Y-86.103 Z-9.877 R0.75
X22.75 Y-85.5 Z-10. R0.75
X21.25 R0.75
X22.75 R0.75
G1 X22.785 Y-84.976
X22.77 Y-84.939
X22.705 Y-84.846
X22.652 Y-84.793
X22.368 Y-84.608
X22.036 Y-84.538
X21.936 Y-84.542
X21.636 Y-84.606
X21.397 Y-84.758
X21.322 Y-84.815
X21.238 Y-84.927
X21.128 Y-85.094
X21.09 Y-85.197
X21.036 Y-85.499
X21.09 Y-85.802
X21.128 Y-85.908
X21.308 Y-86.17
X21.397 Y-86.242
X21.633 Y-86.392
X21.969 Y-86.463
X22.07 Y-86.457
X22.339 Y-86.401
X22.407 Y-86.372
X22.663 Y-86.199
X22.743 Y-86.102
X22.891 Y-85.87
X22.951 Y-85.6
X22.964 Y-85.499
X22.898 Y-85.149
X22.852 Y-85.062
X22.77 Y-84.939
X22.743 Y-84.914 Z-9.994
X22.719 Y-84.892 Z-9.977
X22.701 Y-84.874 Z-9.951
X22.688 Y-84.863 Z-9.918
X22.684 Y-84.859 Z-9.882
G0 Z5.
X21.554 Y-52.897
Z0.81
G1 Z0.51 F720.
G3 X22.446 Y-54.103 Z0.095 R0.75
X21.554 Y-52.897 Z-0.321 R0.75
X22.446 Y-54.103 Z-0.736 R0.75
X21.554 Y-52.897 Z-1.152 R0.75
X22.446 Y-54.103 Z-1.567 R0.75
X21.554 Y-52.897 Z-1.983 R0.75
X22.446 Y-54.103 Z-2.398 R0.75
X21.554 Y-52.897 Z-2.814 R0.75
X22.446 Y-54.103 Z-3.229 R0.75
X21.554 Y-52.897 Z-3.645 R0.75
X22.446 Y-54.103 Z-4.06 R0.75
X21.554 Y-52.897 Z-4.476 R0.75
X22.446 Y-54.103 Z-4.891 R0.75
X21.554 Y-52.897 Z-5.306 R0.75
X22.446 Y-54.103 Z-5.722 R0.75
X21.554 Y-52.897 Z-6.137 R0.75
X22.446 Y-54.103 Z-6.553 R0.75
X21.554 Y-52.897 Z-6.968 R0.75
X22.446 Y-54.103 Z-7.384 R0.75
X21.554 Y-52.897 Z-7.799 R0.75
X22.446 Y-54.103 Z-8.215 R0.75
X21.554 Y-52.897 Z-8.63 R0.75
X22.446 Y-54.103 Z-9.046 R0.75
X21.554 Y-52.897 Z-9.461 R0.75
X22.446 Y-54.103 Z-9.877 R0.75
X22.75 Y-53.5 Z-10. R0.75
X21.25 R0.75
X22.75 R0.75
G1 X22.785 Y-52.976
X22.769 Y-52.938
X22.691 Y-52.828
X22.606 Y-52.76
X22.371 Y-52.611
X22.036 Y-52.538
X21.936 Y-52.542
X21.632 Y-52.608
X21.394 Y-52.76
X21.308 Y-52.83
X21.128 Y-53.093
X21.097 Y-53.164
X21.035 Y-53.5
X21.098 Y-53.837
X21.128 Y-53.906
X21.308 Y-54.171
X21.397 Y-54.242
X21.632 Y-54.392
X21.969 Y-54.463
X22.07 Y-54.457
X22.37 Y-54.39
X22.648 Y-54.21
X22.717 Y-54.139
X22.892 Y-53.867
X22.962 Y-53.534
X22.957 Y-53.433
X22.892 Y-53.133
X22.769 Y-52.938
X22.743 Y-52.913 Z-9.994
X22.719 Y-52.891 Z-9.977
X22.7 Y-52.873 Z-9.951
X22.688 Y-52.862 Z-9.918
X22.684 Y-52.858 Z-9.882
G0 Z5.
X57.554 Y-84.897
Z0.81
G1 Z0.51 F720.
G3 X58.446 Y-86.103 Z0.095 R0.75
X57.554 Y-84.897 Z-0.321 R0.75
X58.446 Y-86.103 Z-0.736 R0.75
X57.554 Y-84.897 Z-1.152 R0.75
X58.446 Y-86.103 Z-1.567 R0.75
X57.554 Y-84.897 Z-1.983 R0.75
X58.446 Y-86.103 Z-2.398 R0.75
X57.554 Y-84.897 Z-2.814 R0.75
X58.446 Y-86.103 Z-3.229 R0.75
X57.554 Y-84.897 Z-3.645 R0.75
X58.446 Y-86.103 Z-4.06 R0.75
X57.554 Y-84.897 Z-4.476 R0.75
X58.446 Y-86.103 Z-4.891 R0.75
X57.554 Y-84.897 Z-5.306 R0.75
X58.446 Y-86.103 Z-5.722 R0.75
X57.554 Y-84.897 Z-6.137 R0.75
X58.446 Y-86.103 Z-6.553 R0.75
X57.554 Y-84.897 Z-6.968 R0.75
X58.446 Y-86.103 Z-7.384 R0.75
X57.554 Y-84.897 Z-7.799 R0.75
X58.446 Y-86.103 Z-8.215 R0.75
X57.554 Y-84.897 Z-8.63 R0.75
X58.446 Y-86.103 Z-9.046 R0.75
X57.554 Y-84.897 Z-9.461 R0.75
X58.446 Y-86.103 Z-9.877 R0.75
X58.75 Y-85.5 Z-10. R0.75
X57.25 R0.75
X58.718 Y-85.718 R0.75
X58.75 Y-85.5 R0.75
G1 X58.785 Y-84.976
X58.769 Y-84.937
X58.674 Y-84.812
X58.405 Y-84.627
X58.338 Y-84.599
X58.035 Y-84.538
X57.934 Y-84.542
X57.631 Y-84.609
X57.347 Y-84.793
X57.277 Y-84.868
X57.148 Y-85.062
X57.098 Y-85.163
X57.036 Y-85.499
X57.09 Y-85.802
X57.126 Y-85.903
X57.303 Y-86.164
X57.386 Y-86.235
X57.598 Y-86.375
X57.686 Y-86.408
X57.968 Y-86.462
X58.069 Y-86.457
X58.36 Y-86.394
X58.405 Y-86.373
X58.674 Y-86.187
X58.718 Y-86.139
X58.891 Y-85.87
X58.951 Y-85.6
X58.964 Y-85.499
X58.903 Y-85.163
X58.852 Y-85.062
X58.769 Y-84.937
X58.743 Y-84.913 Z-9.994
X58.719 Y-84.89 Z-9.977
X58.7 Y-84.873 Z-9.951
X58.688 Y-84.861 Z-9.918
X58.683 Y-84.858 Z-9.882
G0 Z5.
X57.554 Y-52.897
Z0.81
G1 Z0.51 F720.
G3 X58.446 Y-54.103 Z0.095 R0.75
X57.554 Y-52.897 Z-0.321 R0.75
X58.446 Y-54.103 Z-0.736 R0.75
X57.554 Y-52.897 Z-1.152 R0.75
X58.446 Y-54.103 Z-1.567 R0.75
X57.554 Y-52.897 Z-1.983 R0.75
X58.446 Y-54.103 Z-2.398 R0.75
X57.554 Y-52.897 Z-2.814 R0.75
X58.446 Y-54.103 Z-3.229 R0.75
X57.554 Y-52.897 Z-3.645 R0.75
X58.446 Y-54.103 Z-4.06 R0.75
X57.554 Y-52.897 Z-4.476 R0.75
X58.446 Y-54.103 Z-4.891 R0.75
X57.554 Y-52.897 Z-5.306 R0.75
X58.446 Y-54.103 Z-5.722 R0.75
X57.554 Y-52.897 Z-6.137 R0.75
X58.446 Y-54.103 Z-6.553 R0.75
X57.554 Y-52.897 Z-6.968 R0.75
X58.446 Y-54.103 Z-7.384 R0.75
X57.554 Y-52.897 Z-7.799 R0.75
X58.446 Y-54.103 Z-8.215 R0.75
X57.554 Y-52.897 Z-8.63 R0.75
X58.446 Y-54.103 Z-9.046 R0.75
X57.554 Y-52.897 Z-9.461 R0.75
X58.446 Y-54.103 Z-9.877 R0.75
X58.75 Y-53.5 Z-10. R0.75
X57.25 R0.75
X58.75 R0.75
G1 X58.785 Y-52.976
X58.769 Y-52.937
X58.695 Y-52.834
X58.54 Y-52.716
X58.369 Y-52.61
X58.069 Y-52.543
X57.968 Y-52.538
X57.665 Y-52.598
X57.598 Y-52.625
X57.329 Y-52.81
X57.26 Y-52.895
X57.109 Y-53.13
X57.037 Y-53.467
X57.043 Y-53.568
X57.11 Y-53.87
X57.289 Y-54.148
X57.329 Y-54.191
X57.598 Y-54.375
X57.665 Y-54.403
X57.968 Y-54.462
X58.136 Y-54.444
X58.369 Y-54.39
X58.54 Y-54.284
X58.674 Y-54.188
X58.74 Y-54.106
X58.89 Y-53.87
X58.963 Y-53.534
X58.957 Y-53.433
X58.891 Y-53.13
X58.769 Y-52.937
X58.742 Y-52.912 Z-9.994
X58.718 Y-52.89 Z-9.977
X58.699 Y-52.872 Z-9.951
X58.687 Y-52.861 Z-9.918
X58.683 Y-52.857 Z-9.882
G0 Z5.
X-71.144 Y-144.977
Z-4.4
G1 Z-4.7 F720.
X-71.14 Y-144.97 Z-4.767
X-71.129 Y-144.951 Z-4.83
X-71.111 Y-144.92 Z-4.887
X-71.087 Y-144.879 Z-4.935
X-71.059 Y-144.83 Z-4.97
X-71.027 Y-144.775 Z-4.992
X-70.994 Y-144.717 Z-5.
G3 X-70.494 Y-143.585 R5.744
G1 X-70.476 Y-143.52
X-70.522 Y-143.394
X-70.614 Y-143.294
X-70.724 Y-143.217
X-70.848 Y-143.163
X-70.979 Y-143.131
X-71.113 Y-143.117
X-71.248 Y-143.122
X-71.381 Y-143.145
X-71.511 Y-143.183
X-71.636 Y-143.234
X-71.754 Y-143.299
X-71.865 Y-143.376
X-71.967 Y-143.465
X-72.061 Y-143.562
X-72.145 Y-143.667
X-72.219 Y-143.78
X-72.281 Y-143.9
X-72.333 Y-144.025
X-72.374 Y-144.153
X-72.404 Y-144.285
X-72.421 Y-144.419
X-72.427 Y-144.558
X-72.421 Y-144.693
X-72.405 Y-144.827
X-72.378 Y-144.959
X-72.339 Y-145.089
X-72.285 Y-145.223
X-72.224 Y-145.347
X-72.154 Y-145.463
X-72.075 Y-145.572
X-71.987 Y-145.675
X-71.881 Y-145.779
X-71.775 Y-145.868
X-71.665 Y-145.946
X-71.549 Y-146.015
X-71.423 Y-146.075
X-71.284 Y-146.129
X-71.152 Y-146.168
X-71.019 Y-146.195
X-70.885 Y-146.212
X-70.741 Y-146.217
X-70.594 Y-146.211
X-70.458 Y-146.194
X-70.325 Y-146.166
X-70.196 Y-146.128
X-70.059 Y-146.075
X-69.925 Y-146.009
X-69.808 Y-145.94
X-69.698 Y-145.862
X-69.594 Y-145.775
X-69.487 Y-145.669
X-69.393 Y-145.559
X-69.314 Y-145.45
X-69.244 Y-145.335
X-69.183 Y-145.214
X-69.127 Y-145.073
X-69.084 Y-144.937
X-69.055 Y-144.805
X-69.036 Y-144.671
X-69.028 Y-144.532
X-69.032 Y-144.381
X-69.047 Y-144.241
X-69.072 Y-144.109
X-69.112 Y-143.964
X-69.207 Y-143.701
X-69.304 Y-143.491
X-69.408 Y-143.305
X-69.51 Y-143.153
X-69.624 Y-143.009
X-69.737 Y-142.887
X-69.86 Y-142.775
X-69.991 Y-142.674
X-70.122 Y-142.588
X-70.262 Y-142.512
X-70.405 Y-142.448
X-70.55 Y-142.397
X-70.703 Y-142.357
X-70.862 Y-142.328
X-71.02 Y-142.313
X-71.178 Y-142.31
X-71.34 Y-142.32
X-71.502 Y-142.344
X-71.662 Y-142.381
X-71.821 Y-142.43
X-71.978 Y-142.494
X-72.132 Y-142.571
X-72.279 Y-142.661
X-72.421 Y-142.763
X-72.556 Y-142.878
X-72.682 Y-143.005
X-72.799 Y-143.142
X-72.905 Y-143.29
X-73.001 Y-143.449
X-73.084 Y-143.617
X-73.155 Y-143.793
X-73.212 Y-143.975
X-73.254 Y-144.161
X-73.281 Y-144.35
X-73.293 Y-144.545
X-73.289 Y-144.741
X-73.269 Y-144.937
X-73.234 Y-145.131
X-73.183 Y-145.322
X-73.116 Y-145.511
X-73.033 Y-145.696
X-72.936 Y-145.874
X-72.825 Y-146.043
X-72.7 Y-146.203
X-72.562 Y-146.354
X-72.411 Y-146.494
X-72.249 Y-146.621
X-72.078 Y-146.735
X-71.899 Y-146.835
X-71.71 Y-146.921
X-71.514 Y-146.991
X-71.314 Y-147.046
X-71.111 Y-147.084
X-70.905 Y-147.106
X-70.696 Y-147.111
X-70.487 Y-147.099
X-70.28 Y-147.071
X-70.077 Y-147.026
X-69.878 Y-146.966
X-69.683 Y-146.889
X-69.495 Y-146.796
X-69.315 Y-146.688
X-69.145 Y-146.568
X-68.985 Y-146.434
X-68.835 Y-146.286
X-68.697 Y-146.126
X-68.573 Y-145.957
X-68.464 Y-145.779
X-68.369 Y-145.593
X-68.289 Y-145.398
X-68.225 Y-145.197
X-68.177 Y-144.992
X-68.145 Y-144.782
X-68.129 Y-144.547
X-68.131 Y-144.302
X-68.154 Y-144.052
X-68.198 Y-143.8
X-68.262 Y-143.552
X-68.346 Y-143.309
X-68.447 Y-143.077
X-68.566 Y-142.855
X-68.701 Y-142.647
X-68.851 Y-142.451
X-69.014 Y-142.271
X-69.189 Y-142.105
X-69.376 Y-141.956
X-69.574 Y-141.822
X-69.781 Y-141.704
X-69.996 Y-141.605
X-70.218 Y-141.522
X-70.446 Y-141.458
X-70.68 Y-141.412
X-70.916 Y-141.385
X-71.155 Y-141.377
X-71.396 Y-141.389
X-71.635 Y-141.419
X-71.873 Y-141.469
X-72.107 Y-141.539
X-72.337 Y-141.627
X-72.56 Y-141.735
X-72.775 Y-141.861
X-72.981 Y-142.004
X-73.176 Y-142.165
X-73.359 Y-142.343
X-73.528 Y-142.536
X-73.683 Y-142.743
X-73.821 Y-142.964
X-73.942 Y-143.197
X-74.066 Y-143.507
X-74.087 Y-143.583
X-74.148 Y-143.879
X-74.223 Y-144.249
X-74.163 Y-145.191
X-74.016 Y-145.624
X-73.844 Y-146.1
X-73.3 Y-146.872
X-72.569 Y-147.469
X-71.728 Y-147.84
X-71.593 Y-147.87
X-70.752 Y-147.982
X-69.81 Y-147.854
X-68.96 Y-147.486
X-68.816 Y-147.378
X-68.198 Y-146.87
X-67.67 Y-146.124
X-67.582 Y-145.898
X-67.344 Y-145.225
X-67.292 Y-144.552
X-67.275 Y-144.283
X-67.352 Y-143.879
X-67.466 Y-143.34
X-67.895 Y-142.507
X-68.239 Y-142.129
X-68.532 Y-141.816
X-68.767 Y-141.664
X-69.358 Y-141.307
X-70.262 Y-141.052
X-71.055 Y-141.047
X-71.237 Y-141.052
X-72.132 Y-141.303
X-72.939 Y-141.792
X-73.568 Y-142.458
X-73.62 Y-142.533
X-74.033 Y-143.34
X-74.087 Y-143.583
X-74.089 Y-143.609 Z-4.997
X-74.091 Y-143.634 Z-4.988
X-74.088 Y-143.661 Z-4.97
X-74.086 Y-143.682 Z-4.945
X-74.084 Y-143.696 Z-4.915
Y-143.7 Z-4.882
G0 Z5.
X-71.297 Y-104.211
Z-4.4
G1 Z-4.7 F720.
X-71.29 Y-104.214 Z-4.767
X-71.269 Y-104.221 Z-4.83
X-71.235 Y-104.232 Z-4.887
X-71.19 Y-104.247 Z-4.935
X-71.136 Y-104.265 Z-4.97
X-71.076 Y-104.285 Z-4.992
X-71.012 Y-104.305 Z-5.
G3 X-69.802 Y-104.565 R5.744
G1 X-69.735 Y-104.569
X-69.623 Y-104.493
X-69.542 Y-104.386
X-69.492 Y-104.26
X-69.463 Y-104.128
X-69.457 Y-103.994
X-69.473 Y-103.86
X-69.506 Y-103.729
X-69.554 Y-103.602
X-69.617 Y-103.483
X-69.695 Y-103.373
X-69.783 Y-103.27
X-69.881 Y-103.177
X-69.988 Y-103.095
X-70.102 Y-103.024
X-70.224 Y-102.964
X-70.35 Y-102.915
X-70.479 Y-102.878
X-70.612 Y-102.852
X-70.746 Y-102.84
X-70.882 Y-102.839
X-71.017 Y-102.849
X-71.15 Y-102.87
X-71.281 Y-102.903
X-71.41 Y-102.948
X-71.54 Y-103.006
X-71.659 Y-103.07
X-71.772 Y-103.144
X-71.878 Y-103.228
X-71.983 Y-103.327
X-72.078 Y-103.432
X-72.16 Y-103.539
X-72.234 Y-103.652
X-72.297 Y-103.771
X-72.354 Y-103.906
X-72.4 Y-104.042
X-72.432 Y-104.173
X-72.454 Y-104.306
X-72.464 Y-104.441
X-72.463 Y-104.591
X-72.451 Y-104.732
X-72.429 Y-104.865
X-72.396 Y-104.996
X-72.35 Y-105.126
X-72.29 Y-105.264
X-72.223 Y-105.388
X-72.149 Y-105.501
X-72.067 Y-105.608
X-71.97 Y-105.712
X-71.859 Y-105.815
X-71.75 Y-105.901
X-71.637 Y-105.976
X-71.519 Y-106.041
X-71.384 Y-106.1
X-71.246 Y-106.149
X-71.112 Y-106.184
X-70.979 Y-106.207
X-70.844 Y-106.219
X-70.694 Y-106.221
X-70.549 Y-106.21
X-70.416 Y-106.19
X-70.284 Y-106.159
X-70.156 Y-106.116
X-70.017 Y-106.058
X-69.885 Y-105.99
X-69.642 Y-105.837
X-69.459 Y-105.701
X-69.302 Y-105.564
X-69.174 Y-105.432
X-69.057 Y-105.29
X-68.959 Y-105.151
X-68.877 Y-105.009
X-68.806 Y-104.862
X-68.75 Y-104.717
X-68.704 Y-104.564
X-68.671 Y-104.407
X-68.651 Y-104.254
X-68.644 Y-104.097
X-68.649 Y-103.938
X-68.667 Y-103.782
X-68.697 Y-103.626
X-68.742 Y-103.468
X-68.799 Y-103.313
X-68.868 Y-103.165
X-68.948 Y-103.022
X-69.043 Y-102.882
X-69.151 Y-102.748
X-69.271 Y-102.62
X-69.402 Y-102.502
X-69.54 Y-102.396
X-69.689 Y-102.3
X-69.848 Y-102.214
X-70.017 Y-102.14
X-70.192 Y-102.079
X-70.374 Y-102.033
X-70.559 Y-102.
X-70.748 Y-101.983
X-70.941 Y-101.981
X-71.134 Y-101.994
X-71.326 Y-102.023
X-71.514 Y-102.067
X-71.701 Y-102.127
X-71.886 Y-102.202
X-72.064 Y-102.293
X-72.234 Y-102.398
X-72.395 Y-102.515
X-72.548 Y-102.647
X-72.692 Y-102.793
X-72.823 Y-102.949
X-72.941 Y-103.115
X-73.046 Y-103.29
X-73.137 Y-103.475
X-73.213 Y-103.667
X-73.273 Y-103.865
X-73.318 Y-104.067
X-73.346 Y-104.27
X-73.357 Y-104.478
X-73.352 Y-104.686
X-73.33 Y-104.894
X-73.292 Y-105.098
X-73.238 Y-105.298
X-73.167 Y-105.494
X-73.08 Y-105.685
X-72.978 Y-105.869
X-72.863 Y-106.042
X-72.734 Y-106.206
X-72.592 Y-106.359
X-72.437 Y-106.502
X-72.271 Y-106.631
X-72.097 Y-106.745
X-71.915 Y-106.846
X-71.723 Y-106.932
X-71.524 Y-107.002
X-71.32 Y-107.057
X-71.115 Y-107.094
X-70.907 Y-107.115
X-70.696 Y-107.119
X-70.484 Y-107.106
X-70.25 Y-107.073
X-70.01 Y-107.019
X-69.77 Y-106.945
X-69.533 Y-106.85
X-69.304 Y-106.735
X-69.084 Y-106.603
X-68.878 Y-106.454
X-68.686 Y-106.292
X-68.51 Y-106.116
X-68.351 Y-105.93
X-68.208 Y-105.733
X-68.082 Y-105.526
X-67.975 Y-105.312
X-67.885 Y-105.091
X-67.814 Y-104.865
X-67.761 Y-104.634
X-67.727 Y-104.399
X-67.712 Y-104.162
X-67.715 Y-103.924
X-67.738 Y-103.687
X-67.78 Y-103.452
X-67.842 Y-103.22
X-67.922 Y-102.992
X-68.02 Y-102.769
X-68.137 Y-102.555
X-68.272 Y-102.349
X-68.423 Y-102.154
X-68.591 Y-101.969
X-68.774 Y-101.798
X-68.973 Y-101.641
X-69.184 Y-101.499
X-69.408 Y-101.374
X-69.643 Y-101.266
X-69.888 Y-101.177
X-70.141 Y-101.107
X-70.461 Y-101.051
X-70.537 Y-101.047
X-70.92
X-71.223 Y-101.05
X-72.132 Y-101.303
X-72.939 Y-101.791
X-73.579 Y-102.471
X-73.634 Y-102.559
X-74.03 Y-103.332
X-74.223 Y-104.241
X-74.215 Y-104.443
X-74.159 Y-105.213
X-73.847 Y-106.092
X-73.306 Y-106.866
X-72.594 Y-107.452
X-72.535 Y-107.489
X-71.694 Y-107.852
X-70.752 Y-107.982
X-69.81 Y-107.854
X-68.936 Y-107.472
X-68.229 Y-106.901
X-68.194 Y-106.866
X-67.66 Y-106.106
X-67.342 Y-105.217
X-67.276 Y-104.25
X-67.469 Y-103.333
X-67.904 Y-102.493
X-68.498 Y-101.852
X-68.561 Y-101.793
X-69.373 Y-101.302
X-70.281 Y-101.05
X-70.537 Y-101.047
X-70.572 Y-101.055 Z-4.994
X-70.604 Y-101.062 Z-4.977
X-70.629 Y-101.068 Z-4.951
X-70.645 Y-101.072 Z-4.918
X-70.651 Y-101.073 Z-4.882
G0 Z5.
X-56.589 Y-85.27
Z-4.4
G1 Z-4.7 F720.
X-56.59 Y-85.278 Z-4.767
X-56.592 Y-85.3 Z-4.83
X-56.596 Y-85.335 Z-4.887
X-56.601 Y-85.383 Z-4.935
X-56.607 Y-85.439 Z-4.97
X-56.614 Y-85.502 Z-4.992
X-56.622 Y-85.569 Z-5.
G3 Y-86.394 R3.829
G1 X-56.612 Y-86.46
X-56.541 Y-86.575
X-56.423 Y-86.64
X-56.292 Y-86.675
X-56.157 Y-86.682
X-56.024 Y-86.664
X-55.893 Y-86.628
X-55.77 Y-86.574
X-55.655 Y-86.503
X-55.549 Y-86.419
X-55.452 Y-86.325
X-55.367 Y-86.22
X-55.294 Y-86.107
X-55.233 Y-85.986
X-55.184 Y-85.861
X-55.146 Y-85.731
X-55.121 Y-85.599
X-55.109 Y-85.464
Y-85.329
X-55.12 Y-85.194
X-55.143 Y-85.061
X-55.178 Y-84.931
X-55.227 Y-84.8
X-55.284 Y-84.677
X-55.35 Y-84.56
X-55.426 Y-84.449
X-55.512 Y-84.344
X-55.614 Y-84.241
X-55.717 Y-84.151
X-55.826 Y-84.07
X-55.941 Y-84.
X-56.062 Y-83.939
X-56.2 Y-83.884
X-56.332 Y-83.842
X-56.464 Y-83.813
X-56.598 Y-83.794
X-56.737 Y-83.787
X-56.886 Y-83.792
X-57.023 Y-83.807
X-57.156 Y-83.832
X-57.286 Y-83.869
X-57.421 Y-83.92
X-57.555 Y-83.982
X-57.674 Y-84.051
X-57.786 Y-84.127
X-57.89 Y-84.213
X-57.996 Y-84.315
X-58.093 Y-84.426
X-58.175 Y-84.535
X-58.247 Y-84.65
X-58.308 Y-84.77
X-58.366 Y-84.909
X-58.411 Y-85.047
X-58.442 Y-85.178
X-58.462 Y-85.312
X-58.471 Y-85.447
X-58.469 Y-85.598
X-58.455 Y-85.741
X-58.432 Y-85.874
X-58.397 Y-86.004
X-58.35 Y-86.137
X-58.289 Y-86.273
X-58.22 Y-86.397
X-58.146 Y-86.51
X-58.063 Y-86.616
X-57.876 Y-86.816
X-57.7 Y-86.976
X-57.526 Y-87.111
X-57.367 Y-87.215
X-57.208 Y-87.301
X-57.05 Y-87.371
X-56.896 Y-87.426
X-56.734 Y-87.468
X-56.576 Y-87.496
X-56.421 Y-87.511
X-56.262 Y-87.514
X-56.107 Y-87.504
X-55.953 Y-87.482
X-55.796 Y-87.446
X-55.644 Y-87.398
X-55.499 Y-87.339
X-55.355 Y-87.267
X-55.215 Y-87.181
X-55.081 Y-87.084
X-54.954 Y-86.976
X-54.836 Y-86.858
X-54.726 Y-86.727
X-54.625 Y-86.587
X-54.535 Y-86.437
X-54.456 Y-86.279
X-54.389 Y-86.113
X-54.336 Y-85.942
X-54.296 Y-85.765
X-54.27 Y-85.583
X-54.259 Y-85.396
X-54.263 Y-85.206
X-54.282 Y-85.016
X-54.316 Y-84.829
X-54.366 Y-84.644
X-54.431 Y-84.461
X-54.511 Y-84.282
X-54.606 Y-84.109
X-54.713 Y-83.946
X-54.835 Y-83.79
X-54.971 Y-83.642
X-55.119 Y-83.505
X-55.278 Y-83.38
X-55.446 Y-83.268
X-55.623 Y-83.17
X-55.809 Y-83.085
X-56.003 Y-83.016
X-56.201 Y-82.962
X-56.403 Y-82.924
X-56.607 Y-82.902
X-56.815 Y-82.897
X-57.022 Y-82.909
X-57.228 Y-82.937
X-57.43 Y-82.982
X-57.628 Y-83.042
X-57.822 Y-83.119
X-58.01 Y-83.212
X-58.189 Y-83.319
X-58.358 Y-83.439
X-58.518 Y-83.573
X-58.667 Y-83.72
X-58.804 Y-83.88
X-58.928 Y-84.049
X-59.037 Y-84.226
X-59.131 Y-84.412
X-59.211 Y-84.607
X-59.276 Y-84.808
X-59.323 Y-85.012
X-59.354 Y-85.218
X-59.369 Y-85.427
X-59.366 Y-85.638
X-59.347 Y-85.848
X-59.311 Y-86.055
X-59.259 Y-86.257
X-59.183 Y-86.475
X-59.085 Y-86.698
X-58.967 Y-86.918
X-58.829 Y-87.132
X-58.672 Y-87.335
X-58.5 Y-87.526
X-58.315 Y-87.7
X-58.118 Y-87.858
X-57.912 Y-87.998
X-57.697 Y-88.119
X-57.476 Y-88.222
X-57.249 Y-88.306
X-57.018 Y-88.37
X-56.784 Y-88.416
X-56.498 Y-88.444
X-56.417 Y-88.437
X-55.915 Y-88.362
X-55.134 Y-88.004
X-54.502 Y-87.458
X-54.041 Y-86.744
X-53.801 Y-85.937
X-53.796 Y-85.197
X-53.802 Y-85.062
X-54.041 Y-84.255
X-54.471 Y-83.582
X-54.502 Y-83.543
X-55.125 Y-83.002
X-55.313 Y-82.909
X-55.913 Y-82.639
X-56.757 Y-82.519
X-57.598 Y-82.642
X-58.338 Y-82.979
X-58.426 Y-83.043
X-58.992 Y-83.537
X-59.115 Y-83.716
X-59.458 Y-84.255
X-59.698 Y-85.062
X-59.704 Y-85.735
X-59.699 Y-85.937
X-59.457 Y-86.747
X-59.004 Y-87.451
X-58.37 Y-88.003
X-57.598 Y-88.357
X-56.757 Y-88.481
X-56.417 Y-88.437
X-56.383 Y-88.423 Z-4.994
X-56.352 Y-88.411 Z-4.977
X-56.328 Y-88.402 Z-4.951
X-56.313 Y-88.396 Z-4.918
X-56.308 Y-88.394 Z-4.882
G0 Z5.
X-56.589 Y-53.271
Z-4.4
G1 Z-4.7 F720.
X-56.59 Y-53.278 Z-4.767
X-56.592 Y-53.3 Z-4.83
X-56.596 Y-53.336 Z-4.887
X-56.601 Y-53.383 Z-4.935
X-56.607 Y-53.44 Z-4.97
X-56.614 Y-53.503 Z-4.992
X-56.621 Y-53.569 Z-5.
G3 X-56.622 Y-54.394 R3.829
G1 X-56.612 Y-54.461
X-56.539 Y-54.574
X-56.42 Y-54.639
X-56.29 Y-54.674
X-56.155 Y-54.68
X-56.021 Y-54.662
X-55.891 Y-54.626
X-55.768 Y-54.572
X-55.653 Y-54.501
X-55.547 Y-54.417
X-55.451 Y-54.322
X-55.366 Y-54.217
X-55.293 Y-54.104
X-55.232 Y-53.983
X-55.183 Y-53.857
X-55.145 Y-53.728
X-55.12 Y-53.595
X-55.109 Y-53.46
X-55.11 Y-53.325
X-55.121 Y-53.191
X-55.144 Y-53.058
X-55.18 Y-52.928
X-55.229 Y-52.796
X-55.286 Y-52.674
X-55.352 Y-52.556
X-55.429 Y-52.445
X-55.515 Y-52.341
X-55.617 Y-52.238
X-55.721 Y-52.148
X-55.83 Y-52.068
X-55.945 Y-51.997
X-56.067 Y-51.937
X-56.204 Y-51.883
X-56.336 Y-51.842
X-56.468 Y-51.812
X-56.602 Y-51.794
X-56.742 Y-51.787
X-56.891 Y-51.792
X-57.027 Y-51.807
X-57.16 Y-51.833
X-57.29 Y-51.87
X-57.425 Y-51.921
X-57.559 Y-51.985
X-57.678 Y-52.053
X-57.789 Y-52.13
X-57.894 Y-52.216
X-58.001 Y-52.32
X-58.097 Y-52.43
X-58.178 Y-52.539
X-58.249 Y-52.653
X-58.31 Y-52.774
X-58.368 Y-52.914
X-58.412 Y-53.052
X-58.443 Y-53.183
X-58.463 Y-53.317
X-58.471 Y-53.453
X-58.469 Y-53.605
X-58.455 Y-53.745
X-58.431 Y-53.878
X-58.396 Y-54.009
X-58.348 Y-54.142
X-58.286 Y-54.279
X-58.218 Y-54.402
X-58.143 Y-54.514
X-58.059 Y-54.62
X-57.871 Y-54.821
X-57.695 Y-54.98
X-57.52 Y-55.114
X-57.361 Y-55.217
X-57.202 Y-55.303
X-57.044 Y-55.373
X-56.889 Y-55.426
X-56.727 Y-55.468
X-56.57 Y-55.496
X-56.415 Y-55.51
X-56.256 Y-55.513
X-56.101 Y-55.502
X-55.947 Y-55.479
X-55.79 Y-55.443
X-55.637 Y-55.394
X-55.492 Y-55.335
X-55.349 Y-55.262
X-55.209 Y-55.176
X-55.075 Y-55.078
X-54.949 Y-54.97
X-54.831 Y-54.851
X-54.721 Y-54.721
X-54.621 Y-54.58
X-54.532 Y-54.43
X-54.453 Y-54.271
X-54.387 Y-54.105
X-54.334 Y-53.934
X-54.295 Y-53.757
X-54.27 Y-53.575
X-54.259 Y-53.388
X-54.264 Y-53.198
X-54.283 Y-53.008
X-54.318 Y-52.822
X-54.368 Y-52.636
X-54.434 Y-52.453
X-54.515 Y-52.274
X-54.61 Y-52.102
X-54.718 Y-51.939
X-54.84 Y-51.784
X-54.977 Y-51.637
X-55.125 Y-51.5
X-55.285 Y-51.375
X-55.453 Y-51.264
X-55.63 Y-51.166
X-55.817 Y-51.082
X-56.011 Y-51.013
X-56.21 Y-50.96
X-56.411 Y-50.923
X-56.616 Y-50.902
X-56.823 Y-50.898
X-57.031 Y-50.91
X-57.237 Y-50.939
X-57.438 Y-50.984
X-57.636 Y-51.045
X-57.83 Y-51.123
X-58.018 Y-51.216
X-58.197 Y-51.324
X-58.365 Y-51.444
X-58.524 Y-51.579
X-58.673 Y-51.727
X-58.81 Y-51.887
X-58.933 Y-52.056
X-59.041 Y-52.234
X-59.135 Y-52.42
X-59.215 Y-52.615
X-59.278 Y-52.816
X-59.325 Y-53.021
X-59.355 Y-53.227
X-59.369 Y-53.435
X-59.366 Y-53.647
X-59.346 Y-53.857
X-59.309 Y-54.064
X-59.256 Y-54.265
X-59.18 Y-54.484
X-59.081 Y-54.706
X-58.962 Y-54.925
X-58.823 Y-55.139
X-58.666 Y-55.342
X-58.494 Y-55.532
X-58.308 Y-55.706
X-58.111 Y-55.863
X-57.903 Y-56.002
X-57.689 Y-56.123
X-57.467 Y-56.225
X-57.24 Y-56.308
X-57.009 Y-56.372
X-56.774 Y-56.417
X-56.492 Y-56.443
X-56.412 Y-56.436
X-55.915 Y-56.361
X-55.145 Y-56.012
X-54.497 Y-55.452
X-54.041 Y-54.745
X-53.802 Y-53.938
X-53.796 Y-53.433
X-53.801 Y-53.063
X-54.042 Y-52.255
X-54.502 Y-51.541
X-55.144 Y-50.988
X-55.915 Y-50.639
X-56.757 Y-50.519
X-57.598 Y-50.642
X-58.329 Y-50.974
X-58.405 Y-51.025
X-59.004 Y-51.549
X-59.465 Y-52.27
X-59.699 Y-53.063
X-59.704 Y-53.837
X-59.698 Y-53.938
X-59.464 Y-54.731
X-59.078 Y-55.342
X-59.002 Y-55.452
X-58.387 Y-55.99
X-58.271 Y-56.053
X-57.598 Y-56.358
X-56.757 Y-56.481
X-56.412 Y-56.436
X-56.379 Y-56.423 Z-4.994
X-56.348 Y-56.411 Z-4.977
X-56.324 Y-56.401 Z-4.951
X-56.309 Y-56.395 Z-4.918
X-56.303 Y-56.393 Z-4.882
G0 Z5.
X-47.297 Y-144.211
Z-4.4
G1 Z-4.7 F720.
X-47.29 Y-144.214 Z-4.767
X-47.269 Y-144.221 Z-4.83
X-47.235 Y-144.232 Z-4.887
X-47.19 Y-144.247 Z-4.935
X-47.136 Y-144.265 Z-4.97
X-47.076 Y-144.285 Z-4.992
X-47.012 Y-144.305 Z-5.
G3 X-45.802 Y-144.565 R5.744
G1 X-45.735 Y-144.569
X-45.623 Y-144.493
X-45.542 Y-144.386
X-45.491 Y-144.261
X-45.463 Y-144.129
X-45.457 Y-143.994
X-45.473 Y-143.86
X-45.506 Y-143.729
X-45.554 Y-143.603
X-45.617 Y-143.483
X-45.695 Y-143.373
X-45.783 Y-143.271
X-45.881 Y-143.177
X-45.987 Y-143.095
X-46.102 Y-143.024
X-46.223 Y-142.964
X-46.349 Y-142.915
X-46.479 Y-142.878
X-46.611 Y-142.852
X-46.746 Y-142.84
X-46.881 Y-142.839
X-47.015 Y-142.849
X-47.149 Y-142.87
X-47.28 Y-142.902
X-47.41 Y-142.948
X-47.539 Y-143.005
X-47.658 Y-143.069
X-47.771 Y-143.143
X-47.877 Y-143.227
X-47.981 Y-143.324
X-48.078 Y-143.431
X-48.16 Y-143.538
X-48.233 Y-143.652
X-48.297 Y-143.771
X-48.355 Y-143.907
X-48.4 Y-144.043
X-48.433 Y-144.174
X-48.454 Y-144.307
X-48.464 Y-144.442
X-48.463 Y-144.591
X-48.451 Y-144.731
X-48.429 Y-144.865
X-48.396 Y-144.995
X-48.35 Y-145.126
X-48.29 Y-145.263
X-48.223 Y-145.387
X-48.149 Y-145.501
X-48.067 Y-145.607
X-47.969 Y-145.713
X-47.86 Y-145.814
X-47.751 Y-145.9
X-47.638 Y-145.975
X-47.52 Y-146.04
X-47.385 Y-146.1
X-47.247 Y-146.148
X-47.113 Y-146.183
X-46.98 Y-146.207
X-46.845 Y-146.22
X-46.695 Y-146.221
X-46.551 Y-146.211
X-46.416 Y-146.19
X-46.285 Y-146.159
X-46.156 Y-146.117
X-46.018 Y-146.058
X-45.886 Y-145.99
X-45.641 Y-145.837
X-45.458 Y-145.701
X-45.302 Y-145.564
X-45.174 Y-145.432
X-45.057 Y-145.29
X-44.959 Y-145.151
X-44.877 Y-145.01
X-44.806 Y-144.863
X-44.749 Y-144.718
X-44.704 Y-144.565
X-44.671 Y-144.408
X-44.651 Y-144.255
X-44.644 Y-144.097
X-44.649 Y-143.939
X-44.666 Y-143.782
X-44.697 Y-143.626
X-44.741 Y-143.469
X-44.799 Y-143.313
X-44.867 Y-143.165
X-44.948 Y-143.022
X-45.043 Y-142.883
X-45.151 Y-142.748
X-45.271 Y-142.62
X-45.401 Y-142.502
X-45.54 Y-142.396
X-45.688 Y-142.3
X-45.848 Y-142.214
X-46.016 Y-142.14
X-46.192 Y-142.079
X-46.374 Y-142.032
X-46.558 Y-142.
X-46.748 Y-141.983
X-46.941 Y-141.98
X-47.134 Y-141.994
X-47.325 Y-142.022
X-47.514 Y-142.066
X-47.701 Y-142.126
X-47.885 Y-142.202
X-48.063 Y-142.293
X-48.234 Y-142.397
X-48.395 Y-142.515
X-48.548 Y-142.647
X-48.692 Y-142.792
X-48.823 Y-142.949
X-48.941 Y-143.115
X-49.046 Y-143.29
X-49.136 Y-143.474
X-49.213 Y-143.666
X-49.273 Y-143.864
X-49.318 Y-144.066
X-49.346 Y-144.27
X-49.357 Y-144.477
X-49.352 Y-144.686
X-49.33 Y-144.893
X-49.292 Y-145.098
X-49.238 Y-145.297
X-49.167 Y-145.494
X-49.08 Y-145.685
X-48.979 Y-145.868
X-48.863 Y-146.042
X-48.735 Y-146.205
X-48.592 Y-146.359
X-48.437 Y-146.501
X-48.271 Y-146.631
X-48.097 Y-146.745
X-47.915 Y-146.846
X-47.723 Y-146.932
X-47.524 Y-147.002
X-47.32 Y-147.057
X-47.115 Y-147.094
X-46.907 Y-147.115
X-46.697 Y-147.119
X-46.485 Y-147.106
X-46.25 Y-147.073
X-46.01 Y-147.019
X-45.771 Y-146.945
X-45.534 Y-146.85
X-45.304 Y-146.735
X-45.084 Y-146.603
X-44.878 Y-146.455
X-44.686 Y-146.292
X-44.51 Y-146.117
X-44.351 Y-145.93
X-44.208 Y-145.733
X-44.082 Y-145.527
X-43.975 Y-145.313
X-43.885 Y-145.092
X-43.814 Y-144.865
X-43.761 Y-144.634
X-43.727 Y-144.4
X-43.711 Y-144.163
X-43.715 Y-143.925
X-43.738 Y-143.688
X-43.78 Y-143.453
X-43.841 Y-143.22
X-43.921 Y-142.992
X-44.02 Y-142.77
X-44.137 Y-142.555
X-44.271 Y-142.349
X-44.423 Y-142.154
X-44.59 Y-141.97
X-44.774 Y-141.798
X-44.972 Y-141.641
X-45.184 Y-141.499
X-45.408 Y-141.374
X-45.643 Y-141.266
X-45.888 Y-141.177
X-46.141 Y-141.107
X-46.459 Y-141.051
X-46.535 Y-141.047
X-46.832
X-47.238 Y-141.052
X-48.138 Y-141.305
X-48.951 Y-141.802
X-49.579 Y-142.471
X-49.658 Y-142.605
X-50.034 Y-143.34
X-50.223 Y-144.249
X-50.171 Y-145.09
X-50.156 Y-145.225
X-49.843 Y-146.1
X-49.295 Y-146.877
X-48.581 Y-147.461
X-48.447 Y-147.528
X-47.706 Y-147.848
X-47.255 Y-147.916
X-46.764 Y-147.982
X-46.245 Y-147.916
X-45.822 Y-147.856
X-45.082 Y-147.541
X-44.948 Y-147.48
X-44.197 Y-146.868
X-43.656 Y-146.1
X-43.344 Y-145.225
X-43.292 Y-144.552
X-43.277 Y-144.249
X-43.467 Y-143.336
X-43.9 Y-142.499
X-44.544 Y-141.807
X-45.109 Y-141.456
X-45.351 Y-141.31
X-46.263 Y-141.052
X-46.535 Y-141.047
X-46.57 Y-141.055 Z-4.994
X-46.602 Y-141.062 Z-4.977
X-46.627 Y-141.068 Z-4.951
X-46.643 Y-141.072 Z-4.918
X-46.649 Y-141.073 Z-4.882
G0 Z5.
X-47.258 Y-104.853
Z-4.4
G1 Z-4.7 F720.
X-47.253 Y-104.848 Z-4.767
X-47.237 Y-104.832 Z-4.83
X-47.211 Y-104.807 Z-4.887
X-47.177 Y-104.774 Z-4.935
X-47.137 Y-104.734 Z-4.97
X-47.091 Y-104.69 Z-4.992
X-47.043 Y-104.643 Z-5.
G3 X-46.257 Y-103.688 R5.744
G1 X-46.221 Y-103.631
X-46.234 Y-103.496
X-46.293 Y-103.375
X-46.38 Y-103.271
X-46.485 Y-103.187
X-46.602 Y-103.119
X-46.728 Y-103.07
X-46.859 Y-103.04
X-46.993 Y-103.025
X-47.128 Y-103.026
X-47.262 Y-103.042
X-47.394 Y-103.074
X-47.521 Y-103.118
X-47.644 Y-103.175
X-47.76 Y-103.243
X-47.869 Y-103.323
X-47.97 Y-103.413
X-48.063 Y-103.511
X-48.147 Y-103.616
X-48.221 Y-103.729
X-48.284 Y-103.848
X-48.339 Y-103.979
X-48.382 Y-104.107
X-48.413 Y-104.238
X-48.433 Y-104.372
X-48.441 Y-104.509
X-48.438 Y-104.651
X-48.424 Y-104.785
X-48.399 Y-104.918
X-48.362 Y-105.048
X-48.313 Y-105.179
X-48.25 Y-105.313
X-48.183 Y-105.43
X-48.107 Y-105.541
X-48.021 Y-105.646
X-47.918 Y-105.751
X-47.809 Y-105.847
X-47.7 Y-105.927
X-47.586 Y-105.999
X-47.465 Y-106.06
X-47.326 Y-106.117
X-47.192 Y-106.16
X-47.06 Y-106.19
X-46.927 Y-106.21
X-46.79 Y-106.218
X-46.641 Y-106.215
X-46.5 Y-106.201
X-46.367 Y-106.177
X-46.237 Y-106.142
X-46.103 Y-106.094
X-45.966 Y-106.031
X-45.845 Y-105.964
X-45.733 Y-105.889
X-45.627 Y-105.805
X-45.521 Y-105.705
X-45.421 Y-105.595
X-45.338 Y-105.486
X-45.265 Y-105.372
X-45.201 Y-105.253
X-45.142 Y-105.115
X-45.095 Y-104.977
X-45.063 Y-104.846
X-45.04 Y-104.713
X-45.029 Y-104.579
X-45.03 Y-104.408
X-45.053 Y-104.125
X-45.089 Y-103.902
X-45.139 Y-103.699
X-45.197 Y-103.527
X-45.268 Y-103.359
X-45.347 Y-103.208
X-45.434 Y-103.07
X-45.534 Y-102.938
X-45.636 Y-102.822
X-45.75 Y-102.712
X-45.873 Y-102.611
X-46.001 Y-102.523
X-46.137 Y-102.444
X-46.283 Y-102.374
X-46.429 Y-102.319
X-46.58 Y-102.274
X-46.74 Y-102.241
X-46.905 Y-102.221
X-47.07 Y-102.213
X-47.235 Y-102.219
X-47.401 Y-102.239
X-47.569 Y-102.273
X-47.738 Y-102.321
X-47.903 Y-102.383
X-48.063 Y-102.458
X-48.217 Y-102.545
X-48.365 Y-102.647
X-48.508 Y-102.762
X-48.643 Y-102.891
X-48.769 Y-103.031
X-48.883 Y-103.182
X-48.985 Y-103.341
X-49.075 Y-103.51
X-49.152 Y-103.687
X-49.215 Y-103.872
X-49.263 Y-104.061
X-49.296 Y-104.253
X-49.313 Y-104.449
X-49.314 Y-104.65
X-49.3 Y-104.851
X-49.269 Y-105.049
X-49.223 Y-105.244
X-49.16 Y-105.437
X-49.081 Y-105.627
X-48.987 Y-105.809
X-48.879 Y-105.984
X-48.758 Y-106.148
X-48.623 Y-106.303
X-48.475 Y-106.448
X-48.316 Y-106.581
X-48.147 Y-106.7
X-47.969 Y-106.805
X-47.783 Y-106.896
X-47.588 Y-106.972
X-47.388 Y-107.032
X-47.185 Y-107.076
X-46.979 Y-107.103
X-46.771 Y-107.114
X-46.56 Y-107.108
X-46.352 Y-107.085
X-46.147 Y-107.046
X-45.946 Y-106.99
X-45.75 Y-106.919
X-45.558 Y-106.831
X-45.374 Y-106.728
X-45.201 Y-106.611
X-45.038 Y-106.482
X-44.884 Y-106.338
X-44.742 Y-106.182
X-44.613 Y-106.015
X-44.499 Y-105.84
X-44.399 Y-105.657
X-44.313 Y-105.462
X-44.234 Y-105.237
X-44.172 Y-105.
X-44.128 Y-104.752
X-44.103 Y-104.498
X-44.099 Y-104.241
X-44.116 Y-103.986
X-44.153 Y-103.734
X-44.209 Y-103.489
X-44.283 Y-103.252
X-44.376 Y-103.025
X-44.485 Y-102.808
X-44.611 Y-102.602
X-44.751 Y-102.408
X-44.906 Y-102.227
X-45.075 Y-102.059
X-45.255 Y-101.906
X-45.448 Y-101.768
X-45.651 Y-101.645
X-45.864 Y-101.539
X-46.086 Y-101.451
X-46.314 Y-101.38
X-46.548 Y-101.327
X-46.788 Y-101.294
X-47.03 Y-101.279
X-47.275 Y-101.284
X-47.52 Y-101.309
X-47.763 Y-101.353
X-48.004 Y-101.418
X-48.241 Y-101.502
X-48.472 Y-101.606
X-48.695 Y-101.729
X-48.91 Y-101.87
X-49.114 Y-102.029
X-49.305 Y-102.206
X-49.484 Y-102.398
X-49.676 Y-102.65
X-49.715 Y-102.715
X-49.913 Y-103.097
X-50.031 Y-103.333
X-50.223 Y-104.241
X-50.215 Y-104.443
X-50.158 Y-105.217
X-49.846 Y-106.091
X-49.658 Y-106.369
X-49.305 Y-106.866
X-48.85 Y-107.243
X-48.548 Y-107.482
X-47.706 Y-107.849
X-47.37 Y-107.901
X-46.764 Y-107.982
X-46.293 Y-107.923
X-45.822 Y-107.856
X-45.078 Y-107.539
X-44.948 Y-107.48
X-44.215 Y-106.888
X-43.672 Y-106.126
X-43.602 Y-105.955
X-43.338 Y-105.199
X-43.275 Y-104.275
X-43.467 Y-103.336
X-43.908 Y-102.487
X-44.544 Y-101.806
X-45.351 Y-101.31
X-46.26 Y-101.053
X-47.101 Y-101.047
X-47.235 Y-101.052
X-48.144 Y-101.309
X-48.958 Y-101.807
X-49.595 Y-102.492
X-49.715 Y-102.715
X-49.723 Y-102.75 Z-4.994
X-49.731 Y-102.782 Z-4.977
X-49.738 Y-102.807 Z-4.951
X-49.742 Y-102.823 Z-4.918
X-49.743 Y-102.829 Z-4.882
G0 Z5.
X-21.363 Y-85.249
Z-4.4
G1 Z-4.7 F720.
X-21.355 Y-85.251 Z-4.767
X-21.334 Y-85.257 Z-4.83
X-21.299 Y-85.266 Z-4.887
X-21.253 Y-85.277 Z-4.935
X-21.198 Y-85.292 Z-4.97
X-21.137 Y-85.307 Z-4.992
X-21.072 Y-85.324 Z-5.
G3 X-19.847 Y-85.5 R5.744
G1 X-19.78
X-19.657 Y-85.443
X-19.574 Y-85.337
X-19.523 Y-85.211
X-19.497 Y-85.079
X-19.494 Y-84.944
X-19.514 Y-84.811
X-19.55 Y-84.681
X-19.602 Y-84.556
X-19.67 Y-84.439
X-19.751 Y-84.332
X-19.843 Y-84.233
X-19.944 Y-84.143
X-20.055 Y-84.065
X-20.172 Y-84.
X-20.296 Y-83.945
X-20.424 Y-83.901
X-20.555 Y-83.869
X-20.688 Y-83.85
X-20.825 Y-83.844
X-20.96 Y-83.848
X-21.094 Y-83.864
X-21.226 Y-83.892
X-21.355 Y-83.931
X-21.487 Y-83.984
X-21.609 Y-84.045
X-21.724 Y-84.115
X-21.833 Y-84.194
X-21.935 Y-84.283
X-22.038 Y-84.389
X-22.126 Y-84.494
X-22.203 Y-84.605
X-22.271 Y-84.721
X-22.331 Y-84.85
X-22.381 Y-84.986
X-22.419 Y-85.118
X-22.446 Y-85.251
X-22.461 Y-85.385
X-22.465 Y-85.532
X-22.457 Y-85.676
X-22.439 Y-85.81
X-22.41 Y-85.942
X-22.37 Y-86.071
X-22.316 Y-86.205
X-22.25 Y-86.339
X-22.18 Y-86.455
X-22.101 Y-86.565
X-22.013 Y-86.668
X-21.905 Y-86.775
X-21.795 Y-86.867
X-21.685 Y-86.945
X-21.569 Y-87.014
X-21.444 Y-87.075
X-21.302 Y-87.13
X-21.167 Y-87.171
X-21.035 Y-87.199
X-20.901 Y-87.216
X-20.758 Y-87.222
X-20.609 Y-87.216
X-20.472 Y-87.2
X-20.34 Y-87.173
X-20.21 Y-87.136
X-20.072 Y-87.083
X-19.938 Y-87.019
X-19.82 Y-86.95
X-19.612 Y-86.806
X-19.43 Y-86.657
X-19.272 Y-86.504
X-19.145 Y-86.36
X-19.035 Y-86.213
X-18.942 Y-86.065
X-18.867 Y-85.922
X-18.802 Y-85.769
X-18.751 Y-85.618
X-18.714 Y-85.465
X-18.688 Y-85.305
X-18.676 Y-85.151
Y-84.996
X-18.688 Y-84.837
X-18.714 Y-84.68
X-18.752 Y-84.526
X-18.803 Y-84.372
X-18.867 Y-84.22
X-18.943 Y-84.076
X-19.03 Y-83.937
X-19.131 Y-83.802
X-19.245 Y-83.674
X-19.371 Y-83.552
X-19.505 Y-83.442
X-19.648 Y-83.343
X-19.802 Y-83.253
X-19.965 Y-83.176
X-20.136 Y-83.11
X-20.313 Y-83.058
X-20.495 Y-83.02
X-20.682 Y-82.997
X-20.872 Y-82.989
X-21.064 Y-82.995
X-21.256 Y-83.018
X-21.444 Y-83.055
X-21.631 Y-83.108
X-21.815 Y-83.177
X-21.996 Y-83.262
X-22.169 Y-83.36
X-22.333 Y-83.472
X-22.488 Y-83.598
X-22.635 Y-83.737
X-22.771 Y-83.889
X-22.895 Y-84.051
X-23.004 Y-84.222
X-23.101 Y-84.402
X-23.183 Y-84.591
X-23.25 Y-84.786
X-23.3 Y-84.986
X-23.335 Y-85.189
X-23.353 Y-85.394
X-23.355 Y-85.602
X-23.34 Y-85.81
X-23.308 Y-86.016
X-23.261 Y-86.218
X-23.196 Y-86.415
X-23.116 Y-86.609
X-23.02 Y-86.796
X-22.91 Y-86.974
X-22.787 Y-87.14
X-22.651 Y-87.298
X-22.5 Y-87.445
X-22.339 Y-87.58
X-22.168 Y-87.701
X-21.989 Y-87.807
X-21.801 Y-87.899
X-21.605 Y-87.976
X-21.403 Y-88.036
X-21.198 Y-88.081
X-20.992 Y-88.108
X-20.782 Y-88.119
X-20.57 Y-88.114
X-20.36 Y-88.091
X-20.134 Y-88.048
X-19.9 Y-87.983
X-19.667 Y-87.898
X-19.436 Y-87.792
X-19.212 Y-87.667
X-18.999 Y-87.524
X-18.799 Y-87.366
X-18.615 Y-87.194
X-18.447 Y-87.01
X-18.296 Y-86.815
X-18.162 Y-86.611
X-18.047 Y-86.398
X-17.949 Y-86.179
X-17.87 Y-85.954
X-17.801 Y-85.667
X-17.796 Y-85.584
X-17.802 Y-85.062
X-18.042 Y-84.255
X-18.49 Y-83.556
X-19.143 Y-82.989
X-19.917 Y-82.637
X-20.758 Y-82.519
X-21.589 Y-82.639
X-22.339 Y-82.979
X-22.474 Y-83.085
X-22.986 Y-83.53
X-23.028 Y-83.582
X-23.457 Y-84.255
X-23.685 Y-85.01
X-23.698 Y-85.062
X-23.704 Y-85.735
X-23.7 Y-85.93
X-23.459 Y-86.744
X-23.012 Y-87.441
X-22.743 Y-87.682
X-22.373 Y-87.999
X-22.205 Y-88.083
X-21.599 Y-88.358
X-20.758 Y-88.481
X-19.917 Y-88.362
X-19.165 Y-88.023
X-19.11 Y-87.986
X-18.5 Y-87.455
X-18.055 Y-86.769
X-18.017 Y-86.677
X-17.801 Y-85.937
X-17.796 Y-85.584
X-17.804 Y-85.549 Z-4.994
X-17.812 Y-85.517 Z-4.977
X-17.818 Y-85.492 Z-4.951
X-17.821 Y-85.476 Z-4.918
X-17.823 Y-85.47 Z-4.882
G0 Z5.
X-20.589 Y-53.271
Z-4.4
G1 Z-4.7 F720.
X-20.59 Y-53.278 Z-4.767
X-20.592 Y-53.3 Z-4.83
X-20.596 Y-53.336 Z-4.887
X-20.601 Y-53.383 Z-4.935
X-20.607 Y-53.439 Z-4.97
X-20.614 Y-53.502 Z-4.992
X-20.621 Y-53.569 Z-5.
G3 Y-54.394 R3.829
G1 X-20.612 Y-54.461
X-20.541 Y-54.575
X-20.422 Y-54.64
X-20.292 Y-54.675
X-20.157 Y-54.681
X-20.023 Y-54.664
X-19.893 Y-54.627
X-19.769 Y-54.573
X-19.654 Y-54.502
X-19.548 Y-54.419
X-19.452 Y-54.324
X-19.367 Y-54.22
X-19.294 Y-54.106
X-19.233 Y-53.985
X-19.183 Y-53.86
X-19.145 Y-53.73
X-19.12 Y-53.598
X-19.109 Y-53.463
Y-53.328
X-19.121 Y-53.194
X-19.144 Y-53.061
X-19.179 Y-52.93
X-19.227 Y-52.8
X-19.285 Y-52.676
X-19.351 Y-52.559
X-19.427 Y-52.447
X-19.514 Y-52.343
X-19.616 Y-52.239
X-19.72 Y-52.148
X-19.829 Y-52.068
X-19.944 Y-51.998
X-20.065 Y-51.938
X-20.203 Y-51.883
X-20.335 Y-51.842
X-20.466 Y-51.812
X-20.6 Y-51.794
X-20.741 Y-51.787
X-20.889 Y-51.792
X-21.026 Y-51.807
X-21.158 Y-51.833
X-21.288 Y-51.87
X-21.424 Y-51.921
X-21.557 Y-51.984
X-21.676 Y-52.052
X-21.787 Y-52.128
X-21.891 Y-52.214
X-21.998 Y-52.318
X-22.095 Y-52.428
X-22.176 Y-52.537
X-22.247 Y-52.651
X-22.309 Y-52.771
X-22.367 Y-52.912
X-22.411 Y-53.048
X-22.442 Y-53.18
X-22.462 Y-53.313
X-22.471 Y-53.45
X-22.469 Y-53.601
X-22.455 Y-53.74
X-22.431 Y-53.874
X-22.397 Y-54.005
X-22.35 Y-54.137
X-22.287 Y-54.276
X-22.22 Y-54.398
X-22.145 Y-54.511
X-22.062 Y-54.617
X-21.874 Y-54.817
X-21.699 Y-54.977
X-21.525 Y-55.112
X-21.366 Y-55.215
X-21.207 Y-55.302
X-21.049 Y-55.372
X-20.894 Y-55.426
X-20.732 Y-55.468
X-20.575 Y-55.496
X-20.42 Y-55.511
X-20.261 Y-55.513
X-20.106 Y-55.503
X-19.952 Y-55.481
X-19.795 Y-55.445
X-19.642 Y-55.396
X-19.497 Y-55.338
X-19.353 Y-55.265
X-19.213 Y-55.18
X-19.079 Y-55.082
X-18.953 Y-54.974
X-18.835 Y-54.856
X-18.724 Y-54.726
X-18.624 Y-54.586
X-18.534 Y-54.436
X-18.455 Y-54.277
X-18.389 Y-54.112
X-18.336 Y-53.941
X-18.296 Y-53.764
X-18.27 Y-53.581
X-18.259 Y-53.394
X-18.263 Y-53.204
X-18.282 Y-53.014
X-18.317 Y-52.827
X-18.366 Y-52.642
X-18.432 Y-52.459
X-18.512 Y-52.28
X-18.607 Y-52.108
X-18.715 Y-51.944
X-18.836 Y-51.789
X-18.972 Y-51.641
X-19.121 Y-51.503
X-19.28 Y-51.378
X-19.447 Y-51.267
X-19.624 Y-51.169
X-19.811 Y-51.084
X-20.005 Y-51.015
X-20.203 Y-50.961
X-20.405 Y-50.924
X-20.609 Y-50.902
X-20.817 Y-50.897
X-21.024 Y-50.909
X-21.23 Y-50.938
X-21.431 Y-50.982
X-21.63 Y-51.043
X-21.824 Y-51.12
X-22.012 Y-51.213
X-22.191 Y-51.32
X-22.36 Y-51.44
X-22.519 Y-51.574
X-22.668 Y-51.722
X-22.806 Y-51.881
X-22.929 Y-52.051
X-23.038 Y-52.228
X-23.132 Y-52.414
X-23.212 Y-52.608
X-23.276 Y-52.809
X-23.324 Y-53.014
X-23.354 Y-53.22
X-23.368 Y-53.428
X-23.366 Y-53.64
X-23.346 Y-53.85
X-23.31 Y-54.057
X-23.258 Y-54.259
X-23.182 Y-54.478
X-23.084 Y-54.7
X-22.966 Y-54.92
X-22.827 Y-55.133
X-22.671 Y-55.337
X-22.499 Y-55.527
X-22.313 Y-55.702
X-22.117 Y-55.859
X-21.91 Y-55.999
X-21.695 Y-56.12
X-21.474 Y-56.222
X-21.247 Y-56.306
X-21.016 Y-56.37
X-20.782 Y-56.416
X-20.496 Y-56.443
X-20.415 Y-56.436
X-19.917 Y-56.363
X-19.147 Y-56.013
X-18.496 Y-55.452
X-18.06 Y-54.779
X-18.033 Y-54.725
X-17.802 Y-53.938
X-17.796 Y-53.433
X-17.801 Y-53.063
X-18.033 Y-52.275
X-18.167 Y-52.054
X-18.497 Y-51.549
X-19.114 Y-51.01
X-19.244 Y-50.94
X-19.917 Y-50.639
X-20.758 Y-50.519
X-21.599 Y-50.642
X-22.339 Y-50.979
X-22.474 Y-51.085
X-23.012 Y-51.558
X-23.458 Y-52.255
X-23.699 Y-53.063
X-23.704 Y-53.837
X-23.698 Y-53.938
X-23.472 Y-54.712
X-23.416 Y-54.816
X-23.002 Y-55.452
X-22.386 Y-55.99
X-22.339 Y-56.021
X-21.599 Y-56.358
X-20.758 Y-56.481
X-20.415 Y-56.436
X-20.381 Y-56.423 Z-4.994
X-20.351 Y-56.411 Z-4.977
X-20.327 Y-56.402 Z-4.951
X-20.311 Y-56.396 Z-4.918
X-20.306 Y-56.394 Z-4.882
G0 Z5.
X21.839 Y-85.729
Z-4.4
G1 Z-4.7 F720.
X21.84 Y-85.722 Z-4.767
X21.842 Y-85.7 Z-4.83
X21.846 Y-85.664 Z-4.887
X21.851 Y-85.617 Z-4.935
X21.857 Y-85.561 Z-4.97
X21.864 Y-85.498 Z-4.992
X21.871 Y-85.431 Z-5.
G3 Y-84.606 R3.829
G1 X21.862 Y-84.539
X21.791 Y-84.425
X21.672 Y-84.36
X21.542 Y-84.325
X21.407 Y-84.318
X21.273 Y-84.336
X21.143 Y-84.372
X21.019 Y-84.426
X20.905 Y-84.497
X20.799 Y-84.581
X20.702 Y-84.676
X20.617 Y-84.78
X20.544 Y-84.894
X20.483 Y-85.014
X20.433 Y-85.14
X20.395 Y-85.269
X20.371 Y-85.402
X20.359 Y-85.536
Y-85.671
X20.37 Y-85.806
X20.393 Y-85.939
X20.429 Y-86.069
X20.477 Y-86.201
X20.535 Y-86.324
X20.601 Y-86.442
X20.677 Y-86.553
X20.763 Y-86.657
X20.866 Y-86.761
X20.97 Y-86.852
X21.078 Y-86.932
X21.194 Y-87.002
X21.314 Y-87.062
X21.452 Y-87.117
X21.584 Y-87.158
X21.716 Y-87.188
X21.85 Y-87.206
X21.99 Y-87.213
X22.139 Y-87.209
X22.275 Y-87.193
X22.408 Y-87.168
X22.538 Y-87.131
X22.673 Y-87.08
X22.807 Y-87.016
X22.926 Y-86.948
X23.037 Y-86.872
X23.142 Y-86.786
X23.249 Y-86.682
X23.345 Y-86.573
X23.426 Y-86.464
X23.497 Y-86.349
X23.559 Y-86.229
X23.616 Y-86.09
X23.661 Y-85.952
X23.692 Y-85.821
X23.712 Y-85.687
X23.721 Y-85.552
X23.719 Y-85.401
X23.705 Y-85.262
X23.681 Y-85.127
X23.647 Y-84.996
X23.6 Y-84.864
X23.538 Y-84.726
X23.47 Y-84.603
X23.396 Y-84.49
X23.312 Y-84.384
X23.125 Y-84.183
X22.95 Y-84.023
X22.775 Y-83.888
X22.616 Y-83.785
X22.457 Y-83.698
X22.299 Y-83.628
X22.145 Y-83.574
X21.983 Y-83.532
X21.826 Y-83.504
X21.671 Y-83.489
X21.511 Y-83.486
X21.357 Y-83.496
X21.202 Y-83.519
X21.045 Y-83.555
X20.893 Y-83.603
X20.748 Y-83.662
X20.604 Y-83.734
X20.464 Y-83.82
X20.33 Y-83.917
X20.203 Y-84.025
X20.085 Y-84.144
X19.975 Y-84.274
X19.874 Y-84.414
X19.784 Y-84.564
X19.705 Y-84.722
X19.639 Y-84.888
X19.586 Y-85.059
X19.546 Y-85.236
X19.52 Y-85.418
X19.509 Y-85.605
X19.513 Y-85.795
X19.532 Y-85.985
X19.566 Y-86.172
X19.616 Y-86.357
X19.681 Y-86.541
X19.762 Y-86.72
X19.856 Y-86.892
X19.964 Y-87.055
X20.086 Y-87.211
X20.221 Y-87.359
X20.37 Y-87.496
X20.529 Y-87.621
X20.697 Y-87.733
X20.874 Y-87.831
X21.061 Y-87.916
X21.254 Y-87.985
X21.453 Y-88.039
X21.654 Y-88.077
X21.858 Y-88.098
X22.066 Y-88.103
X22.273 Y-88.091
X22.479 Y-88.063
X22.681 Y-88.018
X22.879 Y-87.958
X23.073 Y-87.881
X23.261 Y-87.788
X23.44 Y-87.681
X23.609 Y-87.561
X23.768 Y-87.427
X23.918 Y-87.279
X24.055 Y-87.12
X24.179 Y-86.95
X24.287 Y-86.773
X24.382 Y-86.587
X24.462 Y-86.392
X24.526 Y-86.192
X24.573 Y-85.987
X24.604 Y-85.781
X24.618 Y-85.572
X24.616 Y-85.361
X24.596 Y-85.15
X24.56 Y-84.943
X24.508 Y-84.742
X24.432 Y-84.523
X24.334 Y-84.3
X24.216 Y-84.081
X24.078 Y-83.867
X23.921 Y-83.663
X23.749 Y-83.473
X23.564 Y-83.299
X23.367 Y-83.141
X23.16 Y-83.001
X22.946 Y-82.88
X22.725 Y-82.778
X22.498 Y-82.694
X22.267 Y-82.629
X22.033 Y-82.584
X21.747 Y-82.557
X21.666 Y-82.563
X21.161 Y-82.639
X20.39 Y-82.991
X19.748 Y-83.547
X19.292 Y-84.255
X19.052 Y-85.062
X19.046 Y-85.735
X19.051 Y-85.937
X19.291 Y-86.744
X19.746 Y-87.451
X20.368 Y-87.993
X20.455 Y-88.042
X21.162 Y-88.361
X22.003 Y-88.481
X22.844 Y-88.359
X23.585 Y-88.023
X23.685 Y-87.949
X24.255 Y-87.449
X24.708 Y-86.744
X24.949 Y-85.937
X24.954 Y-85.197
X24.948 Y-85.062
X24.708 Y-84.255
X24.255 Y-83.55
X23.613 Y-82.993
X22.84 Y-82.639
X22.003 Y-82.519
X21.666 Y-82.563
X21.632 Y-82.577 Z-4.994
X21.602 Y-82.589 Z-4.977
X21.578 Y-82.598 Z-4.951
X21.562 Y-82.604 Z-4.918
X21.557 Y-82.606 Z-4.882
G0 Z5.
X22.658 Y-53.568
Z-4.4
G1 Z-4.7 F720.
X22.651 Z-4.767
X22.629 Y-53.569 Z-4.83
