(__1)
(T1  D=3. CR=0. - ZMIN=-9.99 - FLAT END MILL)
G90 G94 G91.1 G40 G49 G17
G21

(ADAPTIVE1)
M5
M9
T1
S10000 M3
G54
M8
G0 X-58.491 Y-84.933
G43 Z10. H1
Z5.
Z0.81
G1 Z0.51 F720.
G3 X-57.51 Y-86.068 Z0.095 R0.75
X-58.491 Y-84.933 Z-0.321 R0.75
X-57.51 Y-86.068 Z-0.736 R0.75
X-58.491 Y-84.933 Z-1.152 R0.75
X-57.51 Y-86.068 Z-1.567 R0.75
X-58.491 Y-84.933 Z-1.983 R0.75
X-57.51 Y-86.068 Z-2.398 R0.75
X-58.491 Y-84.933 Z-2.814 R0.75
X-57.51 Y-86.068 Z-3.229 R0.75
X-58.491 Y-84.933 Z-3.645 R0.75
X-57.51 Y-86.068 Z-4.06 R0.75
X-58.491 Y-84.933 Z-4.476 R0.75
X-57.51 Y-86.068 Z-4.891 R0.75
X-58.491 Y-84.933 Z-5.306 R0.75
X-57.51 Y-86.068 Z-5.722 R0.75
X-58.491 Y-84.933 Z-6.137 R0.75
X-57.51 Y-86.068 Z-6.553 R0.75
X-58.491 Y-84.933 Z-6.968 R0.75
X-57.51 Y-86.068 Z-7.384 R0.75
X-58.491 Y-84.933 Z-7.799 R0.75
X-57.51 Y-86.068 Z-8.215 R0.75
X-58.491 Y-84.933 Z-8.63 R0.75
X-57.51 Y-86.068 Z-9.046 R0.75
X-58.491 Y-84.933 Z-9.461 R0.75
X-57.51 Y-86.068 Z-9.877 R0.75
X-57.25 Y-85.5 Z-9.99 R0.75
X-58.75 R0.75
X-57.25 R0.75
G1 X-57.215 Y-84.976
X-57.231 Y-84.937
X-57.302 Y-84.836
X-57.34 Y-84.8
X-57.61 Y-84.619
X-57.677 Y-84.594
X-57.98 Y-84.537
X-58.081 Y-84.545
X-58.35 Y-84.603
X-58.469 Y-84.668
X-58.686 Y-84.824
X-58.879 Y-85.106
X-58.912 Y-85.207
X-58.963 Y-85.476
X-58.949 Y-85.61
X-58.899 Y-85.846
X-58.801 Y-86.014
X-58.686 Y-86.176
X-58.552 Y-86.276
X-58.383 Y-86.384
X-58.264 Y-86.418
X-58.013 Y-86.463
X-57.879 Y-86.446
X-57.641 Y-86.395
X-57.459 Y-86.283
X-57.313 Y-86.175
X-57.199 Y-86.014
X-57.101 Y-85.846
X-57.035 Y-85.509
X-57.088 Y-85.207
X-57.121 Y-85.106
X-57.231 Y-84.937
X-57.258 Y-84.912 Z-9.984
X-57.282 Y-84.89 Z-9.967
X-57.301 Y-84.872 Z-9.941
X-57.313 Y-84.861 Z-9.908
X-57.317 Y-84.857 Z-9.872
G0 Z5.
X-58.491 Y-52.933
Z0.81
G1 Z0.51 F720.
G3 X-57.51 Y-54.068 Z0.095 R0.75
X-58.491 Y-52.933 Z-0.321 R0.75
X-57.51 Y-54.068 Z-0.736 R0.75
X-58.491 Y-52.933 Z-1.152 R0.75
X-57.51 Y-54.068 Z-1.567 R0.75
X-58.491 Y-52.933 Z-1.983 R0.75
X-57.51 Y-54.068 Z-2.398 R0.75
X-58.491 Y-52.933 Z-2.814 R0.75
X-57.51 Y-54.068 Z-3.229 R0.75
X-58.491 Y-52.933 Z-3.645 R0.75
X-57.51 Y-54.068 Z-4.06 R0.75
X-58.491 Y-52.933 Z-4.476 R0.75
X-57.51 Y-54.068 Z-4.891 R0.75
X-58.491 Y-52.933 Z-5.306 R0.75
X-57.51 Y-54.068 Z-5.722 R0.75
X-58.491 Y-52.933 Z-6.137 R0.75
X-57.51 Y-54.068 Z-6.553 R0.75
X-58.491 Y-52.933 Z-6.968 R0.75
X-57.51 Y-54.068 Z-7.384 R0.75
X-58.491 Y-52.933 Z-7.799 R0.75
X-57.51 Y-54.068 Z-8.215 R0.75
X-58.491 Y-52.933 Z-8.63 R0.75
X-57.51 Y-54.068 Z-9.046 R0.75
X-58.491 Y-52.933 Z-9.461 R0.75
X-57.51 Y-54.068 Z-9.877 R0.75
X-57.25 Y-53.5 Z-9.99 R0.75
X-58.75 R0.75
X-57.25 R0.75
G1 X-57.215 Y-52.976
X-57.231 Y-52.937
X-57.312 Y-52.825
X-57.475 Y-52.706
X-57.61 Y-52.619
X-57.677 Y-52.594
X-57.98 Y-52.537
X-58.081 Y-52.545
X-58.348 Y-52.602
X-58.417 Y-52.634
X-58.651 Y-52.792
X-58.719 Y-52.862
X-58.877 Y-53.103
X-58.904 Y-53.17
X-58.962 Y-53.473
X-58.956 Y-53.576
X-58.887 Y-53.877
X-58.714 Y-54.144
X-58.641 Y-54.216
X-58.39 Y-54.381
X-58.283 Y-54.414
X-58.013 Y-54.463
X-57.879 Y-54.446
X-57.644 Y-54.396
X-57.475 Y-54.294
X-57.316 Y-54.18
X-57.13 Y-53.91
X-57.1 Y-53.843
X-57.035 Y-53.507
X-57.071 Y-53.29
X-57.108 Y-53.136
X-57.231 Y-52.937
X-57.258 Y-52.912 Z-9.984
X-57.282 Y-52.89 Z-9.967
X-57.301 Y-52.872 Z-9.941
X-57.313 Y-52.861 Z-9.908
X-57.317 Y-52.857 Z-9.872
G0 Z5.
X-22.49 Y-84.932
Z0.81
G1 Z0.51 F720.
G3 X-21.509 Y-86.067 Z0.095 R0.75
X-22.49 Y-84.932 Z-0.321 R0.75
X-21.509 Y-86.067 Z-0.736 R0.75
X-22.49 Y-84.932 Z-1.152 R0.75
X-21.509 Y-86.067 Z-1.567 R0.75
X-22.49 Y-84.932 Z-1.983 R0.75
X-21.509 Y-86.067 Z-2.398 R0.75
X-22.49 Y-84.932 Z-2.814 R0.75
X-21.509 Y-86.067 Z-3.229 R0.75
X-22.49 Y-84.932 Z-3.645 R0.75
X-21.509 Y-86.067 Z-4.06 R0.75
X-22.49 Y-84.932 Z-4.476 R0.75
X-21.509 Y-86.067 Z-4.891 R0.75
X-22.49 Y-84.932 Z-5.306 R0.75
X-21.509 Y-86.067 Z-5.722 R0.75
X-22.49 Y-84.932 Z-6.137 R0.75
X-21.509 Y-86.067 Z-6.553 R0.75
X-22.49 Y-84.932 Z-6.968 R0.75
X-21.509 Y-86.067 Z-7.384 R0.75
X-22.49 Y-84.932 Z-7.799 R0.75
X-21.509 Y-86.067 Z-8.215 R0.75
X-22.49 Y-84.932 Z-8.63 R0.75
X-21.509 Y-86.067 Z-9.046 R0.75
X-22.49 Y-84.932 Z-9.461 R0.75
X-21.509 Y-86.067 Z-9.877 R0.75
X-21.25 Y-85.5 Z-9.99 R0.75
X-22.75 R0.75
X-21.25 R0.75
G1 X-21.215 Y-84.976
X-21.23 Y-84.938
X-21.296 Y-84.843
X-21.402 Y-84.755
X-21.604 Y-84.622
X-21.671 Y-84.596
X-21.974 Y-84.537
X-22.075 Y-84.544
X-22.344 Y-84.6
X-22.406 Y-84.628
X-22.665 Y-84.803
X-22.748 Y-84.906
X-22.882 Y-85.112
X-22.912 Y-85.207
X-22.963 Y-85.476
X-22.949 Y-85.61
X-22.899 Y-85.846
X-22.882 Y-85.886
X-22.689 Y-86.173
X-22.541 Y-86.283
X-22.378 Y-86.387
X-22.209 Y-86.429
X-22.007 Y-86.464
X-21.94 Y-86.459
X-21.637 Y-86.393
X-21.402 Y-86.245
X-21.315 Y-86.178
X-21.132 Y-85.914
X-21.092 Y-85.812
X-21.036 Y-85.509
X-21.061 Y-85.341
X-21.103 Y-85.146
X-21.141 Y-85.072
X-21.23 Y-84.938
X-21.257 Y-84.914 Z-9.984
X-21.281 Y-84.892 Z-9.967
X-21.3 Y-84.874 Z-9.941
X-21.312 Y-84.863 Z-9.908
X-21.316 Y-84.859 Z-9.872
G0 Z5.
X-22.49 Y-52.932
Z0.81
G1 Z0.51 F720.
G3 X-21.51 Y-54.067 Z0.095 R0.75
X-22.49 Y-52.932 Z-0.321 R0.75
X-21.51 Y-54.067 Z-0.736 R0.75
X-22.49 Y-52.932 Z-1.152 R0.75
X-21.51 Y-54.067 Z-1.567 R0.75
X-22.49 Y-52.932 Z-1.983 R0.75
X-21.51 Y-54.067 Z-2.398 R0.75
X-22.49 Y-52.932 Z-2.814 R0.75
X-21.51 Y-54.067 Z-3.229 R0.75
X-22.49 Y-52.932 Z-3.645 R0.75
X-21.51 Y-54.067 Z-4.06 R0.75
X-22.49 Y-52.932 Z-4.476 R0.75
X-21.51 Y-54.067 Z-4.891 R0.75
X-22.49 Y-52.932 Z-5.306 R0.75
X-21.51 Y-54.067 Z-5.722 R0.75
X-22.49 Y-52.932 Z-6.137 R0.75
X-21.51 Y-54.067 Z-6.553 R0.75
X-22.49 Y-52.932 Z-6.968 R0.75
X-21.51 Y-54.067 Z-7.384 R0.75
X-22.49 Y-52.932 Z-7.799 R0.75
X-21.51 Y-54.067 Z-8.215 R0.75
X-22.49 Y-52.932 Z-8.63 R0.75
X-21.51 Y-54.067 Z-9.046 R0.75
X-22.49 Y-52.932 Z-9.461 R0.75
X-21.51 Y-54.067 Z-9.877 R0.75
X-21.25 Y-53.5 Z-9.99 R0.75
X-22.75 R0.75
X-21.25 R0.75
G1 X-21.215 Y-52.976
X-21.231 Y-52.938
X-21.292 Y-52.848
X-21.385 Y-52.766
X-21.629 Y-52.611
X-21.805 Y-52.568
X-21.974 Y-52.537
X-22.075 Y-52.544
X-22.379 Y-52.614
X-22.655 Y-52.794
X-22.695 Y-52.833
X-22.882 Y-53.113
X-22.904 Y-53.17
X-22.962 Y-53.473
X-22.956 Y-53.574
X-22.9 Y-53.843
X-22.882 Y-53.888
X-22.714 Y-54.143
X-22.65 Y-54.209
X-22.388 Y-54.381
X-22.344 Y-54.4
X-22.007 Y-54.464
X-21.94 Y-54.459
X-21.64 Y-54.395
X-21.536 Y-54.335
X-21.334 Y-54.195
X-21.264 Y-54.112
X-21.114 Y-53.879
X-21.044 Y-53.574
X-21.038 Y-53.473
X-21.096 Y-53.17
X-21.132 Y-53.086
X-21.231 Y-52.938
X-21.257 Y-52.913 Z-9.984
X-21.281 Y-52.891 Z-9.967
X-21.3 Y-52.873 Z-9.941
X-21.312 Y-52.862 Z-9.908
X-21.316 Y-52.858 Z-9.872
G0 Z5.
X18.26 Y-28.933
Z0.81
G1 Z0.51 F720.
G3 X19.241 Y-30.067 Z0.095 R0.75
X18.26 Y-28.933 Z-0.321 R0.75
X19.241 Y-30.067 Z-0.736 R0.75
X18.26 Y-28.933 Z-1.152 R0.75
X19.241 Y-30.067 Z-1.567 R0.75
X18.26 Y-28.933 Z-1.983 R0.75
X19.241 Y-30.067 Z-2.398 R0.75
X18.26 Y-28.933 Z-2.814 R0.75
X19.241 Y-30.067 Z-3.229 R0.75
X18.26 Y-28.933 Z-3.645 R0.75
X19.241 Y-30.067 Z-4.06 R0.75
X18.26 Y-28.933 Z-4.476 R0.75
X19.241 Y-30.067 Z-4.891 R0.75
X18.26 Y-28.933 Z-5.306 R0.75
X19.241 Y-30.067 Z-5.722 R0.75
X18.26 Y-28.933 Z-6.137 R0.75
X19.241 Y-30.067 Z-6.553 R0.75
X18.26 Y-28.933 Z-6.968 R0.75
X19.241 Y-30.067 Z-7.384 R0.75
X18.26 Y-28.933 Z-7.799 R0.75
X19.241 Y-30.067 Z-8.215 R0.75
X18.26 Y-28.933 Z-8.63 R0.75
X19.241 Y-30.067 Z-9.046 R0.75
X18.26 Y-28.933 Z-9.461 R0.75
X19.241 Y-30.067 Z-9.877 R0.75
X19.5 Y-29.5 Z-9.99 R0.75
X18. R0.75
X19.5 R0.75
G1 X19.537 Y-28.996
X19.536 Y-28.861
X19.502 Y-28.731
X19.443 Y-28.61
X19.362 Y-28.501
X19.265 Y-28.407
X19.156 Y-28.329
X19.036 Y-28.266
X18.909 Y-28.22
X18.777 Y-28.19
X18.643 Y-28.176
X18.508 Y-28.178
X18.374 Y-28.196
X18.243 Y-28.228
X18.116 Y-28.274
X17.995 Y-28.334
X17.881 Y-28.406
X17.775 Y-28.489
X17.678 Y-28.583
X17.591 Y-28.686
X17.514 Y-28.798
X17.449 Y-28.916
X17.396 Y-29.04
X17.356 Y-29.169
X17.328 Y-29.301
X17.312 Y-29.435
X17.31 Y-29.57
X17.321 Y-29.705
X17.344 Y-29.837
X17.38 Y-29.968
X17.428 Y-30.094
X17.488 Y-30.215
X17.559 Y-30.33
X17.641 Y-30.437
X17.732 Y-30.537
X17.832 Y-30.628
X17.94 Y-30.709
X18.055 Y-30.779
X18.176 Y-30.838
X18.302 Y-30.886
X18.432 Y-30.922
X18.565 Y-30.946
X18.7 Y-30.957
X18.835 Y-30.956
X18.969 Y-30.942
X19.102 Y-30.916
X19.231 Y-30.878
X19.356 Y-30.828
X19.477 Y-30.766
X19.591 Y-30.694
X19.697 Y-30.611
X19.796 Y-30.519
X19.886 Y-30.418
X19.985 Y-30.286
X20.086 Y-30.126
X20.176 Y-29.957
X20.241 Y-29.804
X20.292 Y-29.652
X20.329 Y-29.504
X20.353 Y-29.36
X20.365 Y-29.216
X20.366 Y-29.075
X20.355 Y-28.937
X20.333 Y-28.8
X20.301 Y-28.669
X20.257 Y-28.536
X20.205 Y-28.411
X20.14 Y-28.286
X20.067 Y-28.171
X19.984 Y-28.059
X19.89 Y-27.952
X19.79 Y-27.855
X19.678 Y-27.763
X19.559 Y-27.68
X19.436 Y-27.608
X19.3 Y-27.543
X19.16 Y-27.489
X19.018 Y-27.447
X18.868 Y-27.415
X18.713 Y-27.395
X18.559 Y-27.388
X18.402 Y-27.393
X18.242 Y-27.412
X18.083 Y-27.443
X17.928 Y-27.487
X17.776 Y-27.543
X17.625 Y-27.614
X17.478 Y-27.697
X17.34 Y-27.791
X17.209 Y-27.896
X17.085 Y-28.013
X16.969 Y-28.142
X16.863 Y-28.28
X16.769 Y-28.425
X16.688 Y-28.578
X16.618 Y-28.738
X16.56 Y-28.906
X16.515 Y-29.079
X16.485 Y-29.255
X16.469 Y-29.433
X16.467 Y-29.61
X16.479 Y-29.789
X16.507 Y-29.969
X16.548 Y-30.146
X16.604 Y-30.32
X16.673 Y-30.488
X16.755 Y-30.649
X16.851 Y-30.804
X16.959 Y-30.951
X17.079 Y-31.091
X17.211 Y-31.221
X17.353 Y-31.339
X17.502 Y-31.445
X17.66 Y-31.539
X17.824 Y-31.62
X17.996 Y-31.688
X18.174 Y-31.742
X18.356 Y-31.782
X18.54 Y-31.807
X18.725 Y-31.817
X18.909 Y-31.812
X19.093 Y-31.793
X19.275 Y-31.758
X19.454 Y-31.709
X19.63 Y-31.645
X19.807 Y-31.565
X19.981 Y-31.468
X20.151 Y-31.355
X20.319 Y-31.222
X20.479 Y-31.073
X20.628 Y-30.911
X20.764 Y-30.736
X20.886 Y-30.551
X20.992 Y-30.357
X21.081 Y-30.157
X21.165 Y-29.909
X21.174 Y-29.862
X21.227 Y-29.513
X21.121 Y-28.806
X21.095 Y-28.705
X20.753 Y-28.043
X20.22 Y-27.507
X20.056 Y-27.415
X19.517 Y-27.145
X18.743 Y-27.023
X18.003 Y-27.139
X17.767 Y-27.25
X17.292 Y-27.497
X16.756 Y-28.032
X16.691 Y-28.144
X16.393 Y-28.739
X16.273 Y-29.479
X16.287 Y-29.614
X16.39 Y-30.253
X16.556 Y-30.592
X16.749 Y-30.96
X17.287 Y-31.498
X17.538 Y-31.633
X17.969 Y-31.851
X18.171 Y-31.89
X18.743 Y-31.977
X19.383 Y-31.881
X19.517 Y-31.855
X20.19 Y-31.515
X20.487 Y-31.229
X20.751 Y-30.96
X21.098 Y-30.287
X21.128 Y-30.152
X21.174 Y-29.862
X21.176 Y-29.825 Z-9.984
X21.172 Y-29.793 Z-9.967
X21.168 Y-29.767 Z-9.941
X21.166 Y-29.751 Z-9.909
X21.165 Y-29.745 Z-9.872
G0 Z5.
X18.26 Y11.068
Z0.81
G1 Z0.51 F720.
G3 X19.241 Y9.933 Z0.095 R0.75
X18.26 Y11.068 Z-0.321 R0.75
X19.241 Y9.933 Z-0.736 R0.75
X18.26 Y11.068 Z-1.152 R0.75
X19.241 Y9.933 Z-1.567 R0.75
X18.26 Y11.068 Z-1.983 R0.75
X19.241 Y9.933 Z-2.398 R0.75
X18.26 Y11.068 Z-2.814 R0.75
X19.241 Y9.933 Z-3.229 R0.75
X18.26 Y11.068 Z-3.645 R0.75
X19.241 Y9.933 Z-4.06 R0.75
X18.26 Y11.068 Z-4.476 R0.75
X19.241 Y9.933 Z-4.891 R0.75
X18.26 Y11.068 Z-5.306 R0.75
X19.241 Y9.933 Z-5.722 R0.75
X18.26 Y11.068 Z-6.137 R0.75
X19.241 Y9.933 Z-6.553 R0.75
X18.26 Y11.068 Z-6.968 R0.75
X19.241 Y9.933 Z-7.384 R0.75
X18.26 Y11.068 Z-7.799 R0.75
X19.241 Y9.933 Z-8.215 R0.75
X18.26 Y11.068 Z-8.63 R0.75
X19.241 Y9.933 Z-9.046 R0.75
X18.26 Y11.068 Z-9.461 R0.75
X19.241 Y9.933 Z-9.877 R0.75
X19.5 Y10.5 Z-9.99 R0.75
X18. R0.75
X19.5 R0.75
G1 X19.537 Y11.004
Y11.139
X19.503 Y11.269
X19.443 Y11.39
X19.362 Y11.499
X19.265 Y11.593
X19.156 Y11.671
X19.036 Y11.734
X18.909 Y11.78
X18.778 Y11.81
X18.643 Y11.824
X18.508 Y11.822
X18.374 Y11.804
X18.243 Y11.772
X18.117 Y11.726
X17.995 Y11.666
X17.881 Y11.594
X17.775 Y11.511
X17.678 Y11.417
X17.591 Y11.314
X17.514 Y11.202
X17.449 Y11.084
X17.396 Y10.96
X17.356 Y10.831
X17.328 Y10.699
X17.313 Y10.565
X17.31 Y10.43
X17.321 Y10.296
X17.344 Y10.163
X17.38 Y10.032
X17.429 Y9.906
X17.488 Y9.785
X17.559 Y9.67
X17.641 Y9.563
X17.732 Y9.463
X17.832 Y9.372
X17.94 Y9.292
X18.055 Y9.221
X18.176 Y9.162
X18.302 Y9.114
X18.433 Y9.078
X18.565 Y9.054
X18.7 Y9.043
X18.835 Y9.044
X18.969 Y9.058
X19.102 Y9.084
X19.231 Y9.122
X19.357 Y9.172
X19.477 Y9.234
X19.591 Y9.306
X19.697 Y9.389
X19.796 Y9.481
X19.886 Y9.582
X19.985 Y9.714
X20.087 Y9.874
X20.176 Y10.043
X20.241 Y10.196
X20.293 Y10.348
X20.329 Y10.496
X20.353 Y10.641
X20.365 Y10.784
X20.366 Y10.925
X20.355 Y11.063
X20.333 Y11.2
X20.301 Y11.331
X20.258 Y11.464
X20.205 Y11.589
X20.14 Y11.714
X20.068 Y11.829
X19.984 Y11.941
X19.89 Y12.048
X19.791 Y12.145
X19.678 Y12.237
X19.559 Y12.32
X19.436 Y12.392
X19.3 Y12.457
X19.161 Y12.511
X19.018 Y12.553
X18.868 Y12.585
X18.713 Y12.605
X18.559 Y12.612
X18.402 Y12.607
X18.242 Y12.588
X18.083 Y12.557
X17.929 Y12.513
X17.776 Y12.457
X17.625 Y12.386
X17.478 Y12.303
X17.34 Y12.209
X17.209 Y12.104
X17.085 Y11.987
X16.969 Y11.859
X16.864 Y11.72
X16.77 Y11.575
X16.688 Y11.422
X16.618 Y11.262
X16.56 Y11.094
X16.515 Y10.921
X16.485 Y10.745
X16.469 Y10.568
X16.467 Y10.39
X16.479 Y10.211
X16.507 Y10.031
X16.548 Y9.854
X16.604 Y9.68
X16.673 Y9.512
X16.756 Y9.351
X16.851 Y9.196
X16.959 Y9.049
X17.08 Y8.909
X17.211 Y8.779
X17.353 Y8.661
X17.503 Y8.555
X17.66 Y8.461
X17.825 Y8.38
X17.996 Y8.312
X18.174 Y8.258
X18.356 Y8.218
X18.54 Y8.193
X18.725 Y8.183
X18.909 Y8.188
X19.093 Y8.207
X19.275 Y8.242
X19.454 Y8.291
X19.631 Y8.355
X19.807 Y8.435
X19.981 Y8.532
X20.151 Y8.645
X20.319 Y8.778
X20.479 Y8.927
X20.628 Y9.089
X20.764 Y9.264
X20.886 Y9.449
X20.992 Y9.643
X21.081 Y9.843
X21.165 Y10.09
X21.174 Y10.137
X21.227 Y10.499
X21.113 Y11.24
X21.089 Y11.307
X20.761 Y11.946
X20.459 Y12.256
X20.224 Y12.49
X20.184 Y12.519
X19.517 Y12.855
X18.777 Y12.976
X18.71 Y12.975
X18.003 Y12.862
X17.767 Y12.75
X17.316 Y12.519
X17.229 Y12.445
X16.741 Y11.949
X16.397 Y11.273
X16.287 Y10.614
X16.272 Y10.499
X16.387 Y9.759
X16.421 Y9.672
X16.742 Y9.05
X17.229 Y8.555
X17.318 Y8.48
X17.969 Y8.149
X18.171 Y8.11
X18.743 Y8.023
X19.484 Y8.135
X19.656 Y8.211
X20.19 Y8.486
X20.331 Y8.615
X20.734 Y9.019
X20.78 Y9.086
X21.102 Y9.725
X21.174 Y10.137
X21.176 Y10.174 Z-9.984
X21.172 Y10.206 Z-9.967
X21.168 Y10.232 Z-9.941
X21.166 Y10.248 Z-9.909
X21.165 Y10.254 Z-9.872
G0 Z5.
X18.26 Y51.068
Z0.81
G1 Z0.51 F720.
G3 X19.241 Y49.933 Z0.095 R0.75
X18.26 Y51.068 Z-0.321 R0.75
X19.241 Y49.933 Z-0.736 R0.75
X18.26 Y51.068 Z-1.152 R0.75
X19.241 Y49.933 Z-1.567 R0.75
X18.26 Y51.068 Z-1.983 R0.75
X19.241 Y49.933 Z-2.398 R0.75
X18.26 Y51.068 Z-2.814 R0.75
X19.241 Y49.933 Z-3.229 R0.75
X18.26 Y51.068 Z-3.645 R0.75
X19.241 Y49.933 Z-4.06 R0.75
X18.26 Y51.068 Z-4.476 R0.75
X19.241 Y49.933 Z-4.891 R0.75
X18.26 Y51.068 Z-5.306 R0.75
X19.241 Y49.933 Z-5.722 R0.75
X18.26 Y51.068 Z-6.137 R0.75
X19.241 Y49.933 Z-6.553 R0.75
X18.26 Y51.068 Z-6.968 R0.75
X19.241 Y49.933 Z-7.384 R0.75
X18.26 Y51.068 Z-7.799 R0.75
X19.241 Y49.933 Z-8.215 R0.75
X18.26 Y51.068 Z-8.63 R0.75
X19.241 Y49.933 Z-9.046 R0.75
X18.26 Y51.068 Z-9.461 R0.75
X19.241 Y49.933 Z-9.877 R0.75
X19.501 Y50.5 Z-9.99 R0.75
X18.001 R0.75
X19.501 R0.75
G1 X19.538 Y51.004
X19.537 Y51.139
X19.503 Y51.269
X19.443 Y51.39
X19.363 Y51.499
X19.266 Y51.593
X19.156 Y51.672
X19.036 Y51.734
X18.91 Y51.78
X18.778 Y51.81
X18.644 Y51.824
X18.509 Y51.822
X18.375 Y51.804
X18.244 Y51.772
X18.117 Y51.726
X17.996 Y51.666
X17.882 Y51.594
X17.775 Y51.511
X17.678 Y51.417
X17.591 Y51.314
X17.515 Y51.203
X17.45 Y51.084
X17.397 Y50.96
X17.356 Y50.831
X17.328 Y50.699
X17.313 Y50.565
X17.311 Y50.43
X17.321 Y50.296
X17.345 Y50.163
X17.381 Y50.033
X17.429 Y49.906
X17.489 Y49.785
X17.56 Y49.67
X17.641 Y49.563
X17.732 Y49.463
X17.832 Y49.373
X17.94 Y49.292
X18.055 Y49.221
X18.177 Y49.162
X18.303 Y49.114
X18.433 Y49.078
X18.566 Y49.054
X18.7 Y49.043
X18.835 Y49.044
X18.97 Y49.058
X19.102 Y49.084
X19.232 Y49.122
X19.357 Y49.173
X19.477 Y49.234
X19.591 Y49.306
X19.698 Y49.389
X19.796 Y49.481
X19.886 Y49.582
X19.986 Y49.714
X20.087 Y49.874
X20.176 Y50.043
X20.242 Y50.196
X20.293 Y50.348
X20.33 Y50.496
X20.354 Y50.641
X20.366 Y50.784
Y50.925
X20.355 Y51.063
X20.334 Y51.2
X20.302 Y51.332
X20.258 Y51.464
X20.205 Y51.589
X20.14 Y51.714
X20.068 Y51.83
X19.984 Y51.942
X19.89 Y52.048
X19.791 Y52.145
X19.679 Y52.237
X19.56 Y52.32
X19.436 Y52.393
X19.301 Y52.458
X19.161 Y52.511
X19.019 Y52.553
X18.868 Y52.585
X18.713 Y52.605
X18.559 Y52.612
X18.403 Y52.607
X18.242 Y52.588
X18.084 Y52.557
X17.929 Y52.513
X17.776 Y52.457
X17.625 Y52.386
X17.479 Y52.303
X17.34 Y52.209
X17.21 Y52.105
X17.086 Y51.987
X16.97 Y51.859
X16.864 Y51.72
X16.77 Y51.575
X16.688 Y51.422
X16.618 Y51.262
X16.56 Y51.094
X16.516 Y50.921
X16.485 Y50.745
X16.469 Y50.568
X16.467 Y50.39
X16.48 Y50.211
X16.507 Y50.031
X16.549 Y49.854
X16.604 Y49.68
X16.674 Y49.512
X16.756 Y49.351
X16.851 Y49.197
X16.959 Y49.049
X17.08 Y48.909
X17.212 Y48.779
X17.353 Y48.661
X17.503 Y48.555
X17.66 Y48.461
X17.825 Y48.38
X17.997 Y48.312
X18.174 Y48.258
X18.357 Y48.218
X18.541 Y48.193
X18.726 Y48.183
X18.91 Y48.188
X19.093 Y48.208
X19.275 Y48.242
X19.455 Y48.291
X19.631 Y48.355
X19.807 Y48.435
X19.981 Y48.532
X20.152 Y48.646
X20.32 Y48.778
X20.48 Y48.927
X20.629 Y49.089
X20.765 Y49.264
X20.886 Y49.449
X20.992 Y49.643
X21.082 Y49.843
X21.164 Y50.087
X21.173 Y50.134
X21.226 Y50.511
X21.11 Y51.252
X20.863 Y51.751
X20.752 Y51.959
X20.214 Y52.497
X19.652 Y52.791
X19.517 Y52.855
X18.777 Y52.976
X18.71 Y52.975
X18.003 Y52.861
X17.767 Y52.75
X17.324 Y52.524
X17.229 Y52.445
X16.748 Y51.959
X16.402 Y51.285
X16.372 Y51.151
X16.273 Y50.511
X16.379 Y49.805
X16.405 Y49.705
X16.733 Y49.064
X16.825 Y48.959
X17.293 Y48.497
X17.969 Y48.15
X18.037 Y48.132
X18.743 Y48.023
X19.484 Y48.136
X19.652 Y48.209
X20.19 Y48.485
X20.325 Y48.609
X20.754 Y49.043
X21.094 Y49.704
X21.132 Y49.876
X21.173 Y50.134
X21.176 Y50.171 Z-9.984
X21.171 Y50.203 Z-9.967
X21.168 Y50.229 Z-9.941
X21.165 Y50.245 Z-9.909
Y50.251 Z-9.872
G0 Z5.
X18.26 Y91.067
Z0.81
G1 Z0.51 F720.
G3 X19.241 Y89.932 Z0.095 R0.75
X18.26 Y91.067 Z-0.321 R0.75
X19.241 Y89.932 Z-0.736 R0.75
X18.26 Y91.067 Z-1.152 R0.75
X19.241 Y89.932 Z-1.567 R0.75
X18.26 Y91.067 Z-1.983 R0.75
X19.241 Y89.932 Z-2.398 R0.75
X18.26 Y91.067 Z-2.814 R0.75
X19.241 Y89.932 Z-3.229 R0.75
X18.26 Y91.067 Z-3.645 R0.75
X19.241 Y89.932 Z-4.06 R0.75
X18.26 Y91.067 Z-4.476 R0.75
X19.241 Y89.932 Z-4.891 R0.75
X18.26 Y91.067 Z-5.306 R0.75
X19.241 Y89.932 Z-5.722 R0.75
X18.26 Y91.067 Z-6.137 R0.75
X19.241 Y89.932 Z-6.553 R0.75
X18.26 Y91.067 Z-6.968 R0.75
X19.241 Y89.932 Z-7.384 R0.75
X18.26 Y91.067 Z-7.799 R0.75
X19.241 Y89.932 Z-8.215 R0.75
X18.26 Y91.067 Z-8.63 R0.75
X19.241 Y89.932 Z-9.046 R0.75
X18.26 Y91.067 Z-9.461 R0.75
X19.241 Y89.932 Z-9.877 R0.75
X19.5 Y90.499 Z-9.99 R0.75
X18. R0.75
X19.5 R0.75
G1 X19.537 Y91.003
X19.536 Y91.138
X19.502 Y91.269
X19.443 Y91.39
X19.362 Y91.498
X19.265 Y91.592
X19.156 Y91.671
X19.036 Y91.733
X18.909 Y91.78
X18.777 Y91.809
X18.643 Y91.823
X18.508 Y91.821
X18.374 Y91.804
X18.243 Y91.771
X18.116 Y91.725
X17.995 Y91.665
X17.881 Y91.593
X17.775 Y91.51
X17.678 Y91.416
X17.591 Y91.313
X17.514 Y91.202
X17.449 Y91.083
X17.396 Y90.959
X17.356 Y90.831
X17.328 Y90.698
X17.312 Y90.564
X17.31 Y90.429
X17.321 Y90.295
X17.344 Y90.162
X17.38 Y90.032
X17.428 Y89.906
X17.488 Y89.785
X17.559 Y89.67
X17.641 Y89.562
X17.732 Y89.462
X17.832 Y89.372
X17.94 Y89.291
X18.055 Y89.22
X18.176 Y89.161
X18.302 Y89.113
X18.432 Y89.077
X18.565 Y89.053
X18.7 Y89.042
X18.835 Y89.043
X18.969 Y89.057
X19.102 Y89.083
X19.231 Y89.122
X19.356 Y89.172
X19.477 Y89.233
X19.591 Y89.306
X19.697 Y89.388
X19.796 Y89.48
X19.886 Y89.581
X19.985 Y89.713
X20.086 Y89.873
X20.176 Y90.042
X20.241 Y90.195
X20.292 Y90.347
X20.329 Y90.495
X20.353 Y90.64
X20.365 Y90.783
X20.366 Y90.924
X20.355 Y91.062
X20.333 Y91.199
X20.301 Y91.331
X20.257 Y91.464
X20.205 Y91.588
X20.14 Y91.713
X20.067 Y91.829
X19.984 Y91.941
X19.89 Y92.048
X19.791 Y92.144
X19.678 Y92.236
X19.559 Y92.319
X19.436 Y92.392
X19.3 Y92.457
X19.161 Y92.511
X19.018 Y92.553
X18.868 Y92.584
X18.713 Y92.604
X18.559 Y92.611
X18.402 Y92.606
X18.242 Y92.588
X18.083 Y92.556
X17.929 Y92.513
X17.776 Y92.456
X17.625 Y92.386
X17.478 Y92.303
X17.34 Y92.208
X17.209 Y92.104
X17.085 Y91.987
X16.969 Y91.858
X16.863 Y91.72
X16.769 Y91.574
X16.688 Y91.422
X16.618 Y91.261
X16.56 Y91.093
X16.515 Y90.92
X16.485 Y90.744
X16.469 Y90.567
X16.467 Y90.389
X16.479 Y90.21
X16.507 Y90.031
X16.548 Y89.853
X16.604 Y89.679
X16.673 Y89.511
X16.756 Y89.35
X16.851 Y89.196
X16.959 Y89.048
X17.08 Y88.908
X17.211 Y88.779
X17.353 Y88.66
X17.502 Y88.554
X17.66 Y88.46
X17.824 Y88.379
X17.996 Y88.312
X18.174 Y88.257
X18.356 Y88.218
X18.54 Y88.193
X18.725 Y88.182
X18.909 Y88.187
X19.093 Y88.207
X19.275 Y88.241
X19.454 Y88.29
X19.63 Y88.354
X19.807 Y88.434
X19.981 Y88.531
X20.151 Y88.645
X20.319 Y88.777
X20.479 Y88.926
X20.628 Y89.089
X20.764 Y89.263
X20.886 Y89.448
X20.992 Y89.642
X21.081 Y89.842
X21.165 Y90.089
X21.174 Y90.136
X21.227 Y90.49
X21.132 Y91.129
X21.106 Y91.264
X20.766 Y91.937
X20.729 Y91.986
X20.24 Y92.475
X20.19 Y92.515
X19.517 Y92.855
X18.777 Y92.976
X18.71 Y92.975
X18.003 Y92.861
X17.757 Y92.745
X17.312 Y92.516
X17.229 Y92.445
X16.751 Y91.963
X16.421 Y91.328
X16.394 Y91.264
X16.273 Y90.524
X16.287 Y90.386
X16.396 Y89.728
X16.747 Y89.043
X17.296 Y88.494
X17.983 Y88.145
X18.743 Y88.023
X19.383 Y88.119
X19.517 Y88.145
X20.19 Y88.485
X20.325 Y88.609
X20.75 Y89.038
X21.099 Y89.716
X21.132 Y89.876
X21.174 Y90.136
X21.176 Y90.173 Z-9.984
X21.171 Y90.205 Z-9.967
X21.168 Y90.231 Z-9.941
X21.166 Y90.247 Z-9.909
X21.165 Y90.253 Z-9.872
G0 Z5.
X18.26 Y131.068
Z0.81
G1 Z0.51 F720.
G3 X18.429 Y129.823 Z0.248 R0.75
X19.073 Y131.178 Z-0.168 R0.75
X18.47 Y131.196 Z-0.278 R0.75
X19.032 Y129.805 Z-0.693 R0.75
X18.47 Y131.196 Z-1.108 R0.75
X19.032 Y129.805 Z-1.524 R0.75
X18.47 Y131.196 Z-1.939 R0.75
X19.032 Y129.805 Z-2.355 R0.75
X18.47 Y131.196 Z-2.77 R0.75
X19.032 Y129.805 Z-3.186 R0.75
X18.47 Y131.196 Z-3.601 R0.75
X19.032 Y129.805 Z-4.017 R0.75
X18.47 Y131.196 Z-4.432 R0.75
X19.032 Y129.805 Z-4.848 R0.75
X18.47 Y131.196 Z-5.263 R0.75
X19.032 Y129.805 Z-5.678 R0.75
X18.47 Y131.196 Z-6.094 R0.75
X19.032 Y129.805 Z-6.509 R0.75
X18.47 Y131.196 Z-6.925 R0.75
X19.032 Y129.805 Z-7.34 R0.75
X18.47 Y131.196 Z-7.756 R0.75
X19.032 Y129.805 Z-8.171 R0.75
X18.47 Y131.196 Z-8.587 R0.75
X19.032 Y129.805 Z-9.002 R0.75
X18.47 Y131.196 Z-9.418 R0.75
X19.032 Y129.805 Z-9.833 R0.75
X19.501 Y130.5 Z-9.99 R0.75
X18.001 R0.75
X19.501 R0.75
G1 X19.538 Y131.004
X19.537 Y131.139
X19.503 Y131.269
X19.443 Y131.39
X19.363 Y131.499
X19.266 Y131.593
X19.156 Y131.672
X19.037 Y131.734
X18.91 Y131.78
X18.778 Y131.81
X18.644 Y131.824
X18.509 Y131.822
X18.375 Y131.804
X18.244 Y131.772
X18.117 Y131.726
X17.996 Y131.666
X17.882 Y131.594
X17.776 Y131.511
X17.679 Y131.417
X17.591 Y131.314
X17.515 Y131.203
X17.45 Y131.084
X17.397 Y130.96
X17.356 Y130.831
X17.328 Y130.699
X17.313 Y130.565
X17.311 Y130.43
X17.322 Y130.296
X17.345 Y130.163
X17.381 Y130.033
X17.429 Y129.906
X17.489 Y129.785
X17.56 Y129.671
X17.641 Y129.563
X17.732 Y129.463
X17.832 Y129.373
X17.94 Y129.292
X18.056 Y129.221
X18.177 Y129.162
X18.303 Y129.114
X18.433 Y129.078
X18.566 Y129.054
X18.701 Y129.043
X18.836 Y129.044
X18.97 Y129.058
X19.102 Y129.084
X19.232 Y129.122
X19.357 Y129.173
X19.477 Y129.234
X19.591 Y129.307
X19.698 Y129.389
X19.797 Y129.481
X19.886 Y129.582
X19.986 Y129.714
X20.087 Y129.874
X20.176 Y130.043
X20.242 Y130.196
X20.293 Y130.348
X20.33 Y130.496
X20.354 Y130.641
X20.366 Y130.784
Y130.925
X20.356 Y131.063
X20.334 Y131.2
X20.302 Y131.332
X20.258 Y131.465
X20.206 Y131.589
X20.14 Y131.714
X20.068 Y131.83
X19.985 Y131.942
X19.891 Y132.049
X19.791 Y132.145
X19.679 Y132.237
X19.56 Y132.32
X19.436 Y132.393
X19.301 Y132.458
X19.161 Y132.512
X19.019 Y132.554
X18.868 Y132.585
X18.713 Y132.605
X18.559 Y132.612
X18.403 Y132.607
X18.243 Y132.588
X18.084 Y132.557
X17.929 Y132.514
X17.777 Y132.457
X17.625 Y132.387
X17.479 Y132.303
X17.34 Y132.209
X17.21 Y132.105
X17.086 Y131.988
X16.97 Y131.859
X16.864 Y131.721
X16.77 Y131.575
X16.688 Y131.422
X16.618 Y131.262
X16.56 Y131.094
X16.516 Y130.921
X16.485 Y130.745
X16.469 Y130.568
X16.468 Y130.39
X16.48 Y130.211
X16.507 Y130.032
X16.549 Y129.854
X16.605 Y129.68
X16.674 Y129.512
X16.756 Y129.351
X16.851 Y129.197
X16.96 Y129.049
X17.08 Y128.909
X17.212 Y128.78
X17.353 Y128.661
X17.503 Y128.555
X17.66 Y128.461
X17.825 Y128.38
X17.997 Y128.313
X18.175 Y128.258
X18.357 Y128.219
X18.541 Y128.194
X18.726 Y128.183
X18.91 Y128.188
X19.093 Y128.208
X19.275 Y128.242
X19.455 Y128.291
X19.631 Y128.355
X19.807 Y128.435
X19.981 Y128.532
X20.152 Y128.646
X20.32 Y128.778
X20.48 Y128.927
X20.629 Y129.09
X20.765 Y129.264
X20.887 Y129.449
X20.992 Y129.643
X21.082 Y129.843
X21.164 Y130.085
X21.173 Y130.132
X21.227 Y130.502
X21.113 Y131.242
X21.054 Y131.377
X20.757 Y131.951
X20.262 Y132.454
X20.19 Y132.515
X19.51 Y132.858
X18.743 Y132.977
X17.99 Y132.858
X17.301 Y132.509
X16.825 Y132.041
X16.74 Y131.947
X16.401 Y131.285
X16.387 Y131.242
X16.272 Y130.502
X16.386 Y129.762
X16.421 Y129.672
X16.738 Y129.056
X16.83 Y128.954
X17.299 Y128.493
X17.977 Y128.146
X18.743 Y128.023
X19.383 Y128.119
X19.522 Y128.146
X20.19 Y128.485
X20.325 Y128.609
X20.729 Y129.013
X20.781 Y129.089
X21.104 Y129.728
X21.173 Y130.132
X21.175 Y130.169 Z-9.984
X21.171 Y130.201 Z-9.967
X21.167 Y130.227 Z-9.941
X21.165 Y130.243 Z-9.909
X21.164 Y130.249 Z-9.872
G0 Z5.
X18.26 Y-94.418
Z0.81
G1 Z0.51 F720.
G3 X19.241 Y-95.553 Z0.095 R0.75
X18.26 Y-94.418 Z-0.321 R0.75
X19.241 Y-95.553 Z-0.736 R0.75
X18.26 Y-94.418 Z-1.152 R0.75
X19.241 Y-95.553 Z-1.567 R0.75
X18.26 Y-94.418 Z-1.983 R0.75
X19.241 Y-95.553 Z-2.398 R0.75
X18.26 Y-94.418 Z-2.814 R0.75
X19.241 Y-95.553 Z-3.229 R0.75
X18.26 Y-94.418 Z-3.645 R0.75
X19.241 Y-95.553 Z-4.06 R0.75
X18.26 Y-94.418 Z-4.476 R0.75
X19.241 Y-95.553 Z-4.891 R0.75
X18.26 Y-94.418 Z-5.306 R0.75
X19.241 Y-95.553 Z-5.722 R0.75
X18.26 Y-94.418 Z-6.137 R0.75
X19.241 Y-95.553 Z-6.553 R0.75
X18.26 Y-94.418 Z-6.968 R0.75
X19.241 Y-95.553 Z-7.384 R0.75
X18.26 Y-94.418 Z-7.799 R0.75
X19.241 Y-95.553 Z-8.215 R0.75
X18.26 Y-94.418 Z-8.63 R0.75
X19.241 Y-95.553 Z-9.046 R0.75
X18.26 Y-94.418 Z-9.461 R0.75
X19.241 Y-95.553 Z-9.877 R0.75
X19.501 Y-94.985 Z-9.99 R0.75
X18.001 R0.75
X19.501 R0.75
G1 X19.538 Y-94.482
X19.537 Y-94.347
X19.503 Y-94.216
X19.443 Y-94.095
X19.363 Y-93.987
X19.266 Y-93.893
X19.156 Y-93.814
X19.036 Y-93.751
X18.91 Y-93.705
X18.778 Y-93.675
X18.644 Y-93.661
X18.509 Y-93.663
X18.375 Y-93.681
X18.244 Y-93.713
X18.117 Y-93.76
X17.996 Y-93.819
X17.882 Y-93.891
X17.775 Y-93.975
X17.678 Y-94.068
X17.591 Y-94.172
X17.515 Y-94.283
X17.45 Y-94.401
X17.397 Y-94.525
X17.356 Y-94.654
X17.328 Y-94.786
X17.313 Y-94.92
X17.311 Y-95.055
X17.321 Y-95.19
X17.345 Y-95.323
X17.381 Y-95.453
X17.429 Y-95.579
X17.489 Y-95.7
X17.56 Y-95.815
X17.641 Y-95.923
X17.732 Y-96.022
X17.832 Y-96.113
X17.94 Y-96.194
X18.055 Y-96.264
X18.177 Y-96.324
X18.303 Y-96.372
X18.433 Y-96.408
X18.566 Y-96.431
X18.7 Y-96.443
X18.835 Y-96.441
X18.97 Y-96.427
X19.102 Y-96.401
X19.232 Y-96.363
X19.357 Y-96.313
X19.477 Y-96.251
X19.591 Y-96.179
X19.698 Y-96.096
X19.796 Y-96.004
X19.886 Y-95.903
X19.986 Y-95.771
X20.087 Y-95.612
X20.176 Y-95.442
X20.242 Y-95.29
X20.293 Y-95.137
X20.33 Y-94.989
X20.354 Y-94.845
X20.366 Y-94.701
Y-94.561
X20.355 Y-94.422
X20.333 Y-94.285
X20.302 Y-94.154
X20.258 Y-94.021
X20.205 Y-93.896
X20.14 Y-93.771
X20.068 Y-93.656
X19.984 Y-93.544
X19.843 Y-93.391
X19.717 Y-93.294
X19.652 Y-93.255
X19.383 Y-93.14
X19.113 Y-93.068
X18.811 Y-93.034
X18.306 Y-93.081
X18.037 Y-93.167
X17.767 Y-93.298
X17.59 Y-93.418
X17.297 Y-93.687
X17.229 Y-93.759
X17.091 Y-93.956
X16.952 Y-94.225
X16.861 Y-94.495
X16.81 Y-94.764
X16.795 Y-95.033
X16.886 Y-95.571
X16.995 Y-95.841
X17.154 Y-96.11
X17.255 Y-96.244
X17.655 Y-96.608
X17.767 Y-96.674
X18.037 Y-96.805
X18.306 Y-96.891
X18.844 Y-96.937
X19.113 Y-96.904
X19.383 Y-96.832
X19.652 Y-96.717
X19.854 Y-96.601
X20.112 Y-96.379
X20.237 Y-96.244
X20.392 Y-96.043
X20.503 Y-95.841
X20.614 Y-95.571
X20.705 Y-95.033
X20.69 Y-94.764
X20.639 Y-94.495
X20.548 Y-94.225
X20.409 Y-93.956
X20.19 Y-93.671
X19.914 Y-93.418
X19.717 Y-93.294
X19.683 Y-93.283 Z-9.984
X19.652 Y-93.273 Z-9.967
X19.627 Y-93.265 Z-9.941
X19.611 Y-93.26 Z-9.908
X19.606 Y-93.259 Z-9.872
G0 Z5.
X20.26 Y-84.932
Z0.81
G1 Z0.51 F720.
G3 X21.24 Y-86.067 Z0.095 R0.75
X20.26 Y-84.932 Z-0.321 R0.75
X21.24 Y-86.067 Z-0.736 R0.75
X20.26 Y-84.932 Z-1.152 R0.75
X21.24 Y-86.067 Z-1.567 R0.75
X20.26 Y-84.932 Z-1.983 R0.75
X21.24 Y-86.067 Z-2.398 R0.75
X20.26 Y-84.932 Z-2.814 R0.75
X21.24 Y-86.067 Z-3.229 R0.75
X20.26 Y-84.932 Z-3.645 R0.75
X21.24 Y-86.067 Z-4.06 R0.75
X20.26 Y-84.932 Z-4.476 R0.75
X21.24 Y-86.067 Z-4.891 R0.75
X20.26 Y-84.932 Z-5.306 R0.75
X21.24 Y-86.067 Z-5.722 R0.75
X20.26 Y-84.932 Z-6.137 R0.75
X21.24 Y-86.067 Z-6.553 R0.75
X20.26 Y-84.932 Z-6.968 R0.75
X21.24 Y-86.067 Z-7.384 R0.75
X20.26 Y-84.932 Z-7.799 R0.75
X21.24 Y-86.067 Z-8.215 R0.75
X20.26 Y-84.932 Z-8.63 R0.75
X21.24 Y-86.067 Z-9.046 R0.75
X20.26 Y-84.932 Z-9.461 R0.75
X21.24 Y-86.067 Z-9.877 R0.75
X21.5 Y-85.5 Z-9.99 R0.75
X20. R0.75
X21.5 R0.75
G1 X21.535 Y-84.976
X21.519 Y-84.938
X21.448 Y-84.836
X21.402 Y-84.791
X21.132 Y-84.615
X20.998 Y-84.579
X20.762 Y-84.536
X20.594 Y-84.56
X20.392 Y-84.605
X20.281 Y-84.668
X20.086 Y-84.803
X20.056 Y-84.832
X19.871 Y-85.106
X19.838 Y-85.207
X19.786 Y-85.483
X19.801 Y-85.61
X19.851 Y-85.846
X19.921 Y-85.973
X20.056 Y-86.168
X20.123 Y-86.226
X20.359 Y-86.381
X20.486 Y-86.418
X20.729 Y-86.464
X20.796 Y-86.461
X21.103 Y-86.397
X21.291 Y-86.283
X21.434 Y-86.178
X21.551 Y-86.014
X21.649 Y-85.847
X21.714 Y-85.509
X21.689 Y-85.341
X21.644 Y-85.139
X21.609 Y-85.072
X21.519 Y-84.938
X21.493 Y-84.913 Z-9.984
X21.469 Y-84.891 Z-9.967
X21.45 Y-84.873 Z-9.941
X21.438 Y-84.862 Z-9.908
X21.434 Y-84.858 Z-9.872
G0 Z5.
X20.26 Y-52.932
Z0.81
G1 Z0.51 F720.
G3 X21.24 Y-54.067 Z0.095 R0.75
X20.26 Y-52.932 Z-0.321 R0.75
X21.24 Y-54.067 Z-0.736 R0.75
X20.26 Y-52.932 Z-1.152 R0.75
X21.24 Y-54.067 Z-1.567 R0.75
X20.26 Y-52.932 Z-1.983 R0.75
X21.24 Y-54.067 Z-2.398 R0.75
X20.26 Y-52.932 Z-2.814 R0.75
X21.24 Y-54.067 Z-3.229 R0.75
X20.26 Y-52.932 Z-3.645 R0.75
X21.24 Y-54.067 Z-4.06 R0.75
X20.26 Y-52.932 Z-4.476 R0.75
X21.24 Y-54.067 Z-4.891 R0.75
X20.26 Y-52.932 Z-5.306 R0.75
X21.24 Y-54.067 Z-5.722 R0.75
X20.26 Y-52.932 Z-6.137 R0.75
X21.24 Y-54.067 Z-6.553 R0.75
X20.26 Y-52.932 Z-6.968 R0.75
X21.24 Y-54.067 Z-7.384 R0.75
X20.26 Y-52.932 Z-7.799 R0.75
X21.24 Y-54.067 Z-8.215 R0.75
X20.26 Y-52.932 Z-8.63 R0.75
X21.24 Y-54.067 Z-9.046 R0.75
X20.26 Y-52.932 Z-9.461 R0.75
X21.24 Y-54.067 Z-9.877 R0.75
X21.5 Y-53.5 Z-9.99 R0.75
X20. R0.75
X21.5 R0.75
G1 X21.535 Y-52.976
X21.519 Y-52.938
X21.432 Y-52.819
X21.163 Y-52.632
X21.065 Y-52.592
X20.762 Y-52.536
X20.594 Y-52.56
X20.398 Y-52.604
X20.325 Y-52.639
X20.095 Y-52.796
X20.056 Y-52.832
X19.873 Y-53.103
X19.846 Y-53.17
X19.792 Y-53.439
X19.786 Y-53.515
X19.85 Y-53.843
X19.878 Y-53.908
X20.056 Y-54.168
X20.154 Y-54.247
X20.361 Y-54.381
X20.459 Y-54.413
X20.729 Y-54.464
X20.796 Y-54.461
X21.099 Y-54.399
X21.139 Y-54.381
X21.402 Y-54.208
X21.486 Y-54.112
X21.637 Y-53.877
X21.706 Y-53.574
X21.712 Y-53.473
X21.643 Y-53.136
X21.519 Y-52.938
X21.493 Y-52.913 Z-9.984
X21.469 Y-52.891 Z-9.967
X21.45 Y-52.873 Z-9.941
X21.438 Y-52.862 Z-9.908
X21.434 Y-52.858 Z-9.872
G0 Z5.
X46.26 Y-143.933
Z0.81
G1 Z0.51 F720.
G3 X47.24 Y-145.068 Z0.095 R0.75
X46.26 Y-143.933 Z-0.321 R0.75
X47.24 Y-145.068 Z-0.736 R0.75
X46.26 Y-143.933 Z-1.152 R0.75
X47.24 Y-145.068 Z-1.567 R0.75
X46.26 Y-143.933 Z-1.983 R0.75
X47.24 Y-145.068 Z-2.398 R0.75
X46.26 Y-143.933 Z-2.814 R0.75
X47.24 Y-145.068 Z-3.229 R0.75
X46.26 Y-143.933 Z-3.645 R0.75
X47.24 Y-145.068 Z-4.06 R0.75
X46.26 Y-143.933 Z-4.476 R0.75
X47.24 Y-145.068 Z-4.891 R0.75
X46.26 Y-143.933 Z-5.306 R0.75
X47.24 Y-145.068 Z-5.722 R0.75
X46.26 Y-143.933 Z-6.137 R0.75
X47.24 Y-145.068 Z-6.553 R0.75
X46.26 Y-143.933 Z-6.968 R0.75
X47.24 Y-145.068 Z-7.384 R0.75
X46.26 Y-143.933 Z-7.799 R0.75
X47.24 Y-145.068 Z-8.215 R0.75
X46.26 Y-143.933 Z-8.63 R0.75
X47.24 Y-145.068 Z-9.046 R0.75
X46.26 Y-143.933 Z-9.461 R0.75
X47.24 Y-145.068 Z-9.877 R0.75
X47.5 Y-144.5 Z-9.99 R0.75
X46. R0.75
X47.5 R0.75
G1 X47.535 Y-143.976
X47.519 Y-143.938
X47.448 Y-143.836
X47.357 Y-143.761
X47.154 Y-143.626
X47.043 Y-143.588
X46.774 Y-143.537
X46.707 Y-143.539
X46.392 Y-143.605
X46.303 Y-143.654
X46.088 Y-143.801
X46.009 Y-143.896
X45.868 Y-144.112
X45.848 Y-144.165
X45.788 Y-144.468
X45.793 Y-144.569
X45.849 Y-144.838
X45.868 Y-144.889
X46.058 Y-145.171
X46.168 Y-145.256
X46.351 Y-145.376
X46.438 Y-145.408
X46.74 Y-145.465
X46.976 Y-145.426
X47.111 Y-145.394
X47.245 Y-145.314
X47.412 Y-145.199
X47.514 Y-145.069
X47.637 Y-144.876
X47.707 Y-144.569
X47.712 Y-144.468
X47.649 Y-144.152
X47.621 Y-144.091
X47.519 Y-143.938
X47.493 Y-143.913 Z-9.984
X47.469 Y-143.891 Z-9.967
X47.45 Y-143.873 Z-9.941
X47.438 Y-143.862 Z-9.908
X47.434 Y-143.858 Z-9.872
G0 Z5.
X46.26 Y-103.933
Z0.81
G1 Z0.51 F720.
G3 X47.241 Y-105.068 Z0.095 R0.75
X46.26 Y-103.933 Z-0.321 R0.75
X47.241 Y-105.068 Z-0.736 R0.75
X46.26 Y-103.933 Z-1.152 R0.75
X47.241 Y-105.068 Z-1.567 R0.75
X46.26 Y-103.933 Z-1.983 R0.75
X47.241 Y-105.068 Z-2.398 R0.75
X46.26 Y-103.933 Z-2.814 R0.75
X47.241 Y-105.068 Z-3.229 R0.75
X46.26 Y-103.933 Z-3.645 R0.75
X47.241 Y-105.068 Z-4.06 R0.75
X46.26 Y-103.933 Z-4.476 R0.75
X47.241 Y-105.068 Z-4.891 R0.75
X46.26 Y-103.933 Z-5.306 R0.75
X47.241 Y-105.068 Z-5.722 R0.75
X46.26 Y-103.933 Z-6.137 R0.75
X47.241 Y-105.068 Z-6.553 R0.75
X46.26 Y-103.933 Z-6.968 R0.75
X47.241 Y-105.068 Z-7.384 R0.75
X46.26 Y-103.933 Z-7.799 R0.75
X47.241 Y-105.068 Z-8.215 R0.75
X46.26 Y-103.933 Z-8.63 R0.75
X47.241 Y-105.068 Z-9.046 R0.75
X46.26 Y-103.933 Z-9.461 R0.75
X47.241 Y-105.068 Z-9.877 R0.75
X47.5 Y-104.5 Z-9.99 R0.75
X46. R0.75
X47.5 R0.75
G1 X47.535 Y-103.976
X47.52 Y-103.938
X47.459 Y-103.85
X47.38 Y-103.776
X47.149 Y-103.624
X47.111 Y-103.606
X46.774 Y-103.536
X46.707 Y-103.538
X46.406 Y-103.6
X46.303 Y-103.654
X46.072 Y-103.815
X45.995 Y-103.917
X45.863 Y-104.123
X45.842 Y-104.186
X45.786 Y-104.489
X45.824 Y-104.725
X45.855 Y-104.859
X45.935 Y-104.994
X46.064 Y-105.175
X46.168 Y-105.256
X46.352 Y-105.377
X46.438 Y-105.408
X46.74 Y-105.465
X46.976 Y-105.426
X47.111 Y-105.394
X47.245 Y-105.314
X47.408 Y-105.202
X47.475 Y-105.129
X47.63 Y-104.893
X47.649 Y-104.848
X47.713 Y-104.523
X47.711 Y-104.455
X47.649 Y-104.154
X47.595 Y-104.052
X47.52 Y-103.938
X47.493 Y-103.914 Z-9.984
X47.469 Y-103.891 Z-9.967
X47.45 Y-103.874 Z-9.941
X47.438 Y-103.862 Z-9.908
X47.434 Y-103.858 Z-9.872
G0 Z5.
X56.26 Y-84.933
Z0.81
G1 Z0.51 F720.
G3 X57.241 Y-86.067 Z0.095 R0.75
X56.26 Y-84.933 Z-0.321 R0.75
X57.241 Y-86.067 Z-0.736 R0.75
X56.26 Y-84.933 Z-1.152 R0.75
X57.241 Y-86.067 Z-1.567 R0.75
X56.26 Y-84.933 Z-1.983 R0.75
X57.241 Y-86.067 Z-2.398 R0.75
X56.26 Y-84.933 Z-2.814 R0.75
X57.241 Y-86.067 Z-3.229 R0.75
X56.26 Y-84.933 Z-3.645 R0.75
X57.241 Y-86.067 Z-4.06 R0.75
X56.26 Y-84.933 Z-4.476 R0.75
X57.241 Y-86.067 Z-4.891 R0.75
X56.26 Y-84.933 Z-5.306 R0.75
X57.241 Y-86.067 Z-5.722 R0.75
X56.26 Y-84.933 Z-6.137 R0.75
X57.241 Y-86.067 Z-6.553 R0.75
X56.26 Y-84.933 Z-6.968 R0.75
X57.241 Y-86.067 Z-7.384 R0.75
X56.26 Y-84.933 Z-7.799 R0.75
X57.241 Y-86.067 Z-8.215 R0.75
X56.26 Y-84.933 Z-8.63 R0.75
X57.241 Y-86.067 Z-9.046 R0.75
X56.26 Y-84.933 Z-9.461 R0.75
X57.241 Y-86.067 Z-9.877 R0.75
X57.5 Y-85.5 Z-9.99 R0.75
X56. R0.75
X57.5 R0.75
G1 X57.535 Y-84.976
X57.52 Y-84.938
X57.448 Y-84.837
X57.415 Y-84.803
X57.138 Y-84.618
X57.071 Y-84.593
X56.768 Y-84.537
X56.667 Y-84.546
X56.369 Y-84.614
X56.085 Y-84.803
X56.033 Y-84.86
X55.86 Y-85.129
X55.811 Y-85.341
X55.786 Y-85.509
X55.848 Y-85.838
X55.865 Y-85.88
X56.04 Y-86.149
X56.129 Y-86.23
X56.364 Y-86.384
X56.533 Y-86.427
X56.735 Y-86.464
X56.802 Y-86.46
X57.105 Y-86.396
X57.206 Y-86.34
X57.4 Y-86.209
X57.475 Y-86.129
X57.636 Y-85.88
X57.672 Y-85.745
X57.715 Y-85.509
X57.662 Y-85.207
X57.629 Y-85.106
X57.52 Y-84.938
X57.493 Y-84.914 Z-9.984
X57.469 Y-84.891 Z-9.967
X57.45 Y-84.874 Z-9.941
X57.438 Y-84.862 Z-9.908
X57.434 Y-84.859 Z-9.872
G0 Z5.
X56.26 Y-52.933
Z0.81
G1 Z0.51 F720.
G3 X57.24 Y-54.068 Z0.095 R0.75
X56.26 Y-52.933 Z-0.321 R0.75
X57.24 Y-54.068 Z-0.736 R0.75
X56.26 Y-52.933 Z-1.152 R0.75
X57.24 Y-54.068 Z-1.567 R0.75
X56.26 Y-52.933 Z-1.983 R0.75
X57.24 Y-54.068 Z-2.398 R0.75
X56.26 Y-52.933 Z-2.814 R0.75
X57.24 Y-54.068 Z-3.229 R0.75
X56.26 Y-52.933 Z-3.645 R0.75
X57.24 Y-54.068 Z-4.06 R0.75
X56.26 Y-52.933 Z-4.476 R0.75
X57.24 Y-54.068 Z-4.891 R0.75
X56.26 Y-52.933 Z-5.306 R0.75
X57.24 Y-54.068 Z-5.722 R0.75
X56.26 Y-52.933 Z-6.137 R0.75
X57.24 Y-54.068 Z-6.553 R0.75
X56.26 Y-52.933 Z-6.968 R0.75
X57.24 Y-54.068 Z-7.384 R0.75
X56.26 Y-52.933 Z-7.799 R0.75
X57.24 Y-54.068 Z-8.215 R0.75
X56.26 Y-52.933 Z-8.63 R0.75
X57.24 Y-54.068 Z-9.046 R0.75
X56.26 Y-52.933 Z-9.461 R0.75
X57.24 Y-54.068 Z-9.877 R0.75
X57.5 Y-53.5 Z-9.99 R0.75
X56. R0.75
X57.5 R0.75
G1 X57.535 Y-52.976
X57.519 Y-52.937
X57.451 Y-52.84
X57.365 Y-52.766
X57.163 Y-52.632
X57.071 Y-52.594
X56.768 Y-52.537
X56.667 Y-52.546
X56.367 Y-52.616
X56.091 Y-52.798
X56.005 Y-52.901
X55.86 Y-53.129
X55.792 Y-53.439
X55.788 Y-53.54
X55.86 Y-53.87
X56.014 Y-54.112
X56.094 Y-54.204
X56.36 Y-54.381
X56.398 Y-54.398
X56.735 Y-54.464
X56.802 Y-54.46
X57.104 Y-54.396
X57.206 Y-54.34
X57.41 Y-54.201
X57.486 Y-54.112
X57.633 Y-53.885
X57.65 Y-53.843
X57.714 Y-53.507
X57.682 Y-53.305
X57.654 Y-53.17
X57.61 Y-53.073
X57.519 Y-52.937
X57.492 Y-52.913 Z-9.984
X57.469 Y-52.89 Z-9.967
X57.45 Y-52.873 Z-9.941
X57.437 Y-52.861 Z-9.908
X57.433 Y-52.857 Z-9.872
G0 Z5.
X58.26 Y-28.932
Z0.81
G1 Z0.51 F720.
G3 X59.241 Y-30.067 Z0.095 R0.75
X58.26 Y-28.932 Z-0.321 R0.75
X59.241 Y-30.067 Z-0.736 R0.75
X58.26 Y-28.932 Z-1.152 R0.75
X59.241 Y-30.067 Z-1.567 R0.75
X58.26 Y-28.932 Z-1.983 R0.75
X59.241 Y-30.067 Z-2.398 R0.75
X58.26 Y-28.932 Z-2.814 R0.75
X59.241 Y-30.067 Z-3.229 R0.75
X58.26 Y-28.932 Z-3.645 R0.75
X59.241 Y-30.067 Z-4.06 R0.75
X58.26 Y-28.932 Z-4.476 R0.75
X59.241 Y-30.067 Z-4.891 R0.75
X58.26 Y-28.932 Z-5.306 R0.75
X59.241 Y-30.067 Z-5.722 R0.75
X58.26 Y-28.932 Z-6.137 R0.75
X59.241 Y-30.067 Z-6.553 R0.75
X58.26 Y-28.932 Z-6.968 R0.75
X59.241 Y-30.067 Z-7.384 R0.75
X58.26 Y-28.932 Z-7.799 R0.75
X59.241 Y-30.067 Z-8.215 R0.75
X58.26 Y-28.932 Z-8.63 R0.75
X59.241 Y-30.067 Z-9.046 R0.75
X58.26 Y-28.932 Z-9.461 R0.75
X59.241 Y-30.067 Z-9.877 R0.75
X59.5 Y-29.499 Z-9.99 R0.75
X58. R0.75
X59.5 R0.75
G1 X59.537 Y-28.996
Y-28.861
X59.502 Y-28.73
X59.443 Y-28.609
X59.362 Y-28.501
X59.265 Y-28.407
X59.156 Y-28.328
X59.036 Y-28.265
X58.909 Y-28.219
X58.778 Y-28.189
X58.643 Y-28.175
X58.508 Y-28.178
X58.374 Y-28.195
X58.243 Y-28.227
X58.116 Y-28.274
X57.995 Y-28.333
X57.881 Y-28.405
X57.775 Y-28.489
X57.678 Y-28.582
X57.591 Y-28.686
X57.514 Y-28.797
X57.449 Y-28.915
X57.396 Y-29.039
X57.356 Y-29.168
X57.328 Y-29.3
X57.313 Y-29.434
X57.31 Y-29.569
X57.321 Y-29.704
X57.344 Y-29.837
X57.38 Y-29.967
X57.429 Y-30.093
X57.488 Y-30.214
X57.559 Y-30.329
X57.641 Y-30.437
X57.732 Y-30.536
X57.832 Y-30.627
X57.94 Y-30.708
X58.055 Y-30.778
X58.176 Y-30.838
X58.302 Y-30.886
X58.433 Y-30.922
X58.565 Y-30.945
X58.7 Y-30.957
X58.835 Y-30.955
X58.969 Y-30.942
X59.102 Y-30.915
X59.231 Y-30.877
X59.356 Y-30.827
X59.477 Y-30.765
X59.591 Y-30.693
X59.697 Y-30.61
X59.796 Y-30.518
X59.886 Y-30.417
X59.985 Y-30.285
X60.087 Y-30.126
X60.176 Y-29.957
X60.241 Y-29.804
X60.293 Y-29.651
X60.329 Y-29.504
X60.353 Y-29.359
X60.365 Y-29.215
X60.366 Y-29.075
X60.355 Y-28.936
X60.333 Y-28.799
X60.301 Y-28.668
X60.257 Y-28.535
X60.205 Y-28.411
X60.14 Y-28.285
X60.068 Y-28.17
X59.984 Y-28.058
X59.89 Y-27.951
X59.791 Y-27.855
X59.678 Y-27.762
X59.559 Y-27.679
X59.436 Y-27.607
X59.3 Y-27.542
X59.161 Y-27.488
X59.018 Y-27.446
X58.868 Y-27.414
X58.713 Y-27.395
X58.559 Y-27.387
X58.402 Y-27.393
X58.242 Y-27.411
X58.083 Y-27.442
X57.929 Y-27.486
X57.776 Y-27.543
X57.625 Y-27.613
X57.478 Y-27.696
X57.34 Y-27.79
X57.209 Y-27.895
X57.085 Y-28.012
X56.969 Y-28.141
X56.863 Y-28.279
X56.77 Y-28.425
X56.688 Y-28.577
X56.618 Y-28.738
X56.56 Y-28.905
X56.515 Y-29.079
X56.485 Y-29.255
X56.469 Y-29.432
X56.467 Y-29.61
X56.479 Y-29.789
X56.507 Y-29.968
X56.548 Y-30.146
X56.604 Y-30.319
X56.673 Y-30.487
X56.756 Y-30.648
X56.851 Y-30.803
X56.959 Y-30.951
X57.08 Y-31.09
X57.211 Y-31.22
X57.353 Y-31.338
X57.503 Y-31.445
X57.66 Y-31.538
X57.825 Y-31.619
X57.996 Y-31.687
X58.174 Y-31.741
X58.356 Y-31.781
X58.54 Y-31.806
X58.725 Y-31.816
X58.909 Y-31.811
X59.093 Y-31.792
X59.275 Y-31.758
X59.454 Y-31.709
X59.631 Y-31.645
X59.807 Y-31.565
X59.981 Y-31.468
X60.151 Y-31.354
X60.319 Y-31.221
X60.479 Y-31.073
X60.628 Y-30.91
X60.764 Y-30.735
X60.886 Y-30.55
X60.992 Y-30.357
X61.081 Y-30.156
X61.165 Y-29.908
X61.174 Y-29.861
X61.227 Y-29.513
X61.121 Y-28.806
X61.096 Y-28.708
X60.768 Y-28.066
X60.705 Y-27.989
X60.201 Y-27.493
X59.524 Y-27.147
X58.821 Y-27.03
X58.72 Y-27.024
X57.981 Y-27.145
X57.307 Y-27.488
X57.19 Y-27.595
X56.756 Y-28.032
X56.667 Y-28.189
X56.398 Y-28.722
X56.336 Y-29.075
X56.273 Y-29.513
X56.388 Y-30.246
X56.469 Y-30.421
X56.75 Y-30.96
X57.286 Y-31.498
X57.61 Y-31.669
X57.98 Y-31.855
X58.754 Y-31.977
X59.494 Y-31.862
X59.629 Y-31.803
X60.167 Y-31.528
X60.212 Y-31.498
X60.751 Y-30.96
X61.031 Y-30.421
X61.109 Y-30.255
X61.174 Y-29.861
X61.176 Y-29.825 Z-9.984
X61.172 Y-29.792 Z-9.967
X61.168 Y-29.767 Z-9.941
X61.166 Y-29.75 Z-9.909
X61.165 Y-29.744 Z-9.872
G0 Z5.
X58.26 Y11.067
Z0.81
G1 Z0.51 F720.
G3 X59.24 Y9.932 Z0.095 R0.75
X58.26 Y11.067 Z-0.321 R0.75
X59.24 Y9.932 Z-0.736 R0.75
X58.26 Y11.067 Z-1.152 R0.75
X59.24 Y9.932 Z-1.567 R0.75
X58.26 Y11.067 Z-1.983 R0.75
X59.24 Y9.932 Z-2.398 R0.75
X58.26 Y11.067 Z-2.814 R0.75
X59.24 Y9.932 Z-3.229 R0.75
X58.26 Y11.067 Z-3.645 R0.75
X59.24 Y9.932 Z-4.06 R0.75
X58.26 Y11.067 Z-4.476 R0.75
X59.24 Y9.932 Z-4.891 R0.75
X58.26 Y11.067 Z-5.306 R0.75
X59.24 Y9.932 Z-5.722 R0.75
X58.26 Y11.067 Z-6.137 R0.75
X59.24 Y9.932 Z-6.553 R0.75
X58.26 Y11.067 Z-6.968 R0.75
X59.24 Y9.932 Z-7.384 R0.75
X58.26 Y11.067 Z-7.799 R0.75
X59.24 Y9.932 Z-8.215 R0.75
X58.26 Y11.067 Z-8.63 R0.75
X59.24 Y9.932 Z-9.046 R0.75
X58.26 Y11.067 Z-9.461 R0.75
X59.24 Y9.932 Z-9.877 R0.75
X59.5 Y10.499 Z-9.99 R0.75
X58. R0.75
X59.5 R0.75
G1 X59.537 Y11.003
X59.536 Y11.138
X59.502 Y11.269
X59.442 Y11.39
X59.362 Y11.498
X59.265 Y11.592
X59.155 Y11.671
X59.036 Y11.733
X58.909 Y11.78
X58.777 Y11.809
X58.643 Y11.823
X58.508 Y11.821
X58.374 Y11.804
X58.243 Y11.771
X58.116 Y11.725
X57.995 Y11.665
X57.881 Y11.593
X57.775 Y11.51
X57.678 Y11.416
X57.591 Y11.313
X57.514 Y11.202
X57.449 Y11.083
X57.396 Y10.959
X57.355 Y10.831
X57.327 Y10.699
X57.312 Y10.564
X57.31 Y10.429
X57.321 Y10.295
X57.344 Y10.162
X57.38 Y10.032
X57.428 Y9.906
X57.488 Y9.785
X57.559 Y9.67
X57.64 Y9.562
X57.732 Y9.462
X57.832 Y9.372
X57.94 Y9.291
X58.055 Y9.22
X58.176 Y9.161
X58.302 Y9.113
X58.432 Y9.077
X58.565 Y9.053
X58.7 Y9.042
X58.835 Y9.043
X58.969 Y9.057
X59.101 Y9.083
X59.231 Y9.122
X59.356 Y9.172
X59.476 Y9.233
X59.59 Y9.306
X59.697 Y9.388
X59.796 Y9.48
X59.886 Y9.581
X59.985 Y9.713
X60.086 Y9.873
X60.176 Y10.042
X60.241 Y10.195
X60.292 Y10.347
X60.329 Y10.495
X60.353 Y10.64
X60.365 Y10.784
Y10.924
X60.355 Y11.062
X60.333 Y11.199
X60.301 Y11.331
X60.257 Y11.464
X60.205 Y11.588
X60.14 Y11.713
X60.067 Y11.829
X59.984 Y11.941
X59.89 Y12.048
X59.79 Y12.144
X59.678 Y12.237
X59.559 Y12.319
X59.435 Y12.392
X59.3 Y12.457
X59.16 Y12.511
X59.018 Y12.553
X58.868 Y12.584
X58.713 Y12.604
X58.558 Y12.611
X58.402 Y12.606
X58.242 Y12.588
X58.083 Y12.556
X57.928 Y12.513
X57.776 Y12.456
X57.625 Y12.386
X57.478 Y12.303
X57.34 Y12.209
X57.209 Y12.104
X57.085 Y11.987
X56.969 Y11.858
X56.863 Y11.72
X56.769 Y11.574
X56.688 Y11.422
X56.617 Y11.261
X56.56 Y11.093
X56.515 Y10.92
X56.485 Y10.744
X56.469 Y10.567
X56.467 Y10.389
X56.479 Y10.21
X56.506 Y10.031
X56.548 Y9.853
X56.604 Y9.679
X56.673 Y9.512
X56.755 Y9.35
X56.851 Y9.196
X56.959 Y9.048
X57.079 Y8.909
X57.211 Y8.779
X57.353 Y8.66
X57.502 Y8.554
X57.66 Y8.46
X57.824 Y8.38
X57.996 Y8.312
X58.174 Y8.258
X58.356 Y8.218
X58.54 Y8.193
X58.725 Y8.183
X58.909 Y8.187
X59.092 Y8.207
X59.275 Y8.241
X59.454 Y8.29
X59.63 Y8.354
X59.806 Y8.434
X59.981 Y8.531
X60.151 Y8.645
X60.319 Y8.777
X60.479 Y8.926
X60.628 Y9.089
X60.764 Y9.264
X60.886 Y9.449
X60.992 Y9.642
X61.081 Y9.842
X61.165 Y10.091
X61.174 Y10.138
X61.227 Y10.499
X61.109 Y11.253
X61.089 Y11.307
X60.759 Y11.946
X60.601 Y12.115
X60.213 Y12.497
X60.032 Y12.597
X59.528 Y12.852
X58.821 Y12.97
X58.754 Y12.977
X57.98 Y12.854
X57.316 Y12.519
X57.206 Y12.422
X56.765 Y11.98
X56.719 Y11.913
X56.398 Y11.276
X56.354 Y11.038
X56.273 Y10.499
X56.384 Y9.776
X56.411 Y9.692
X56.74 Y9.052
X57.071 Y8.713
X57.29 Y8.5
X57.61 Y8.331
X57.98 Y8.145
X58.754 Y8.023
X59.494 Y8.138
X59.656 Y8.211
X60.182 Y8.48
X60.242 Y8.526
X60.734 Y9.019
X60.78 Y9.086
X61.089 Y9.692
X61.109 Y9.746
X61.174 Y10.138
X61.176 Y10.174 Z-9.984
X61.172 Y10.207 Z-9.967
X61.168 Y10.232 Z-9.941
X61.166 Y10.249 Z-9.909
X61.165 Y10.255 Z-9.872
G0 Z5.
X58.26 Y51.067
Z0.81
G1 Z0.51 F720.
G3 X59.24 Y49.932 Z0.095 R0.75
X58.26 Y51.067 Z-0.321 R0.75
X59.24 Y49.932 Z-0.736 R0.75
X58.26 Y51.067 Z-1.152 R0.75
X59.24 Y49.932 Z-1.567 R0.75
X58.26 Y51.067 Z-1.983 R0.75
X59.24 Y49.932 Z-2.398 R0.75
X58.26 Y51.067 Z-2.814 R0.75
X59.24 Y49.932 Z-3.229 R0.75
X58.26 Y51.067 Z-3.645 R0.75
X59.24 Y49.932 Z-4.06 R0.75
X58.26 Y51.067 Z-4.476 R0.75
X59.24 Y49.932 Z-4.891 R0.75
X58.26 Y51.067 Z-5.306 R0.75
X59.24 Y49.932 Z-5.722 R0.75
X58.26 Y51.067 Z-6.137 R0.75
X59.24 Y49.932 Z-6.553 R0.75
X58.26 Y51.067 Z-6.968 R0.75
X59.24 Y49.932 Z-7.384 R0.75
X58.26 Y51.067 Z-7.799 R0.75
X59.24 Y49.932 Z-8.215 R0.75
X58.26 Y51.067 Z-8.63 R0.75
X59.24 Y49.932 Z-9.046 R0.75
X58.26 Y51.067 Z-9.461 R0.75
X59.24 Y49.932 Z-9.877 R0.75
X59.5 Y50.5 Z-9.99 R0.75
X58. R0.75
X59.5 R0.75
G1 X59.537 Y51.003
X59.536 Y51.138
X59.502 Y51.269
X59.442 Y51.39
X59.362 Y51.498
X59.265 Y51.592
X59.155 Y51.671
X59.036 Y51.733
X58.909 Y51.78
X58.777 Y51.81
X58.643 Y51.823
X58.508 Y51.821
X58.374 Y51.804
X58.243 Y51.772
X58.116 Y51.725
X57.995 Y51.666
X57.881 Y51.594
X57.775 Y51.51
X57.678 Y51.416
X57.591 Y51.313
X57.514 Y51.202
X57.449 Y51.084
X57.396 Y50.959
X57.355 Y50.831
X57.327 Y50.699
X57.312 Y50.565
X57.31 Y50.43
X57.321 Y50.295
X57.344 Y50.162
X57.38 Y50.032
X57.428 Y49.906
X57.488 Y49.785
X57.559 Y49.67
X57.64 Y49.562
X57.731 Y49.463
X57.832 Y49.372
X57.94 Y49.291
X58.055 Y49.221
X58.176 Y49.161
X58.302 Y49.113
X58.432 Y49.077
X58.565 Y49.054
X58.7 Y49.042
X58.835 Y49.044
X58.969 Y49.057
X59.101 Y49.083
X59.231 Y49.122
X59.356 Y49.172
X59.476 Y49.233
X59.59 Y49.306
X59.697 Y49.388
X59.796 Y49.481
X59.886 Y49.581
X59.985 Y49.714
X60.086 Y49.873
X60.176 Y50.042
X60.241 Y50.195
X60.292 Y50.348
X60.329 Y50.495
X60.353 Y50.64
X60.365 Y50.784
Y50.924
X60.355 Y51.063
X60.333 Y51.2
X60.301 Y51.331
X60.257 Y51.464
X60.205 Y51.588
X60.14 Y51.714
X60.067 Y51.829
X59.984 Y51.941
X59.89 Y52.048
X59.79 Y52.144
X59.678 Y52.237
X59.559 Y52.32
X59.435 Y52.392
X59.3 Y52.457
X59.16 Y52.511
X59.018 Y52.553
X58.868 Y52.584
X58.713 Y52.604
X58.558 Y52.611
X58.402 Y52.606
X58.242 Y52.588
X58.083 Y52.556
X57.928 Y52.513
X57.776 Y52.456
X57.625 Y52.386
X57.478 Y52.303
X57.339 Y52.209
X57.209 Y52.104
X57.085 Y51.987
X56.969 Y51.858
X56.863 Y51.72
X56.769 Y51.574
X56.688 Y51.422
X56.617 Y51.261
X56.56 Y51.093
X56.515 Y50.92
X56.485 Y50.744
X56.469 Y50.567
X56.467 Y50.389
X56.479 Y50.21
X56.506 Y50.031
X56.548 Y49.853
X56.604 Y49.68
X56.673 Y49.512
X56.755 Y49.351
X56.851 Y49.196
X56.959 Y49.048
X57.079 Y48.909
X57.211 Y48.779
X57.353 Y48.66
X57.502 Y48.554
X57.66 Y48.461
X57.824 Y48.38
X57.996 Y48.312
X58.174 Y48.258
X58.356 Y48.218
X58.54 Y48.193
X58.725 Y48.183
X58.909 Y48.187
X59.092 Y48.207
X59.275 Y48.241
X59.454 Y48.29
X59.63 Y48.354
X59.806 Y48.434
X59.981 Y48.531
X60.151 Y48.645
X60.319 Y48.778
X60.479 Y48.926
X60.628 Y49.089
X60.764 Y49.264
X60.886 Y49.449
X60.992 Y49.642
X61.081 Y49.843
X61.165 Y50.091
X61.174 Y50.138
X61.226 Y50.511
X61.109 Y51.253
X60.826 Y51.824
X60.751 Y51.959
X60.215 Y52.497
X60.032 Y52.597
X59.528 Y52.852
X58.821 Y52.97
X58.754 Y52.977
X58.013 Y52.863
X57.946 Y52.841
X57.313 Y52.517
X57.071 Y52.287
X56.748 Y51.959
X56.398 Y51.275
X56.329 Y50.882
X56.274 Y50.511
X56.357 Y49.939
X56.398 Y49.724
X56.732 Y49.064
X56.802 Y48.982
X57.273 Y48.513
X57.358 Y48.459
X57.982 Y48.145
X58.754 Y48.023
X59.494 Y48.138
X59.629 Y48.197
X60.201 Y48.493
X60.713 Y48.997
X60.768 Y49.064
X61.096 Y49.709
X61.121 Y49.805
X61.174 Y50.138
X61.176 Y50.175 Z-9.984
X61.172 Y50.207 Z-9.967
X61.168 Y50.233 Z-9.941
X61.166 Y50.249 Z-9.909
X61.165 Y50.255 Z-9.872
G0 Z5.
X58.26 Y91.067
Z0.81
G1 Z0.51 F720.
G3 X59.24 Y89.932 Z0.095 R0.75
X58.26 Y91.067 Z-0.321 R0.75
X59.24 Y89.932 Z-0.736 R0.75
X58.26 Y91.067 Z-1.152 R0.75
X59.24 Y89.932 Z-1.567 R0.75
X58.26 Y91.067 Z-1.983 R0.75
X59.24 Y89.932 Z-2.398 R0.75
X58.26 Y91.067 Z-2.814 R0.75
X59.24 Y89.932 Z-3.229 R0.75
X58.26 Y91.067 Z-3.645 R0.75
X59.24 Y89.932 Z-4.06 R0.75
X58.26 Y91.067 Z-4.476 R0.75
X59.24 Y89.932 Z-4.891 R0.75
X58.26 Y91.067 Z-5.306 R0.75
X59.24 Y89.932 Z-5.722 R0.75
X58.26 Y91.067 Z-6.137 R0.75
X59.24 Y89.932 Z-6.553 R0.75
X58.26 Y91.067 Z-6.968 R0.75
X59.24 Y89.932 Z-7.384 R0.75
X58.26 Y91.067 Z-7.799 R0.75
X59.24 Y89.932 Z-8.215 R0.75
X58.26 Y91.067 Z-8.63 R0.75
X59.24 Y89.932 Z-9.046 R0.75
X58.26 Y91.067 Z-9.461 R0.75
X59.24 Y89.932 Z-9.877 R0.75
X59.5 Y90.5 Z-9.99 R0.75
X58. R0.75
X59.5 R0.75
G1 X59.537 Y91.003
X59.536 Y91.138
X59.502 Y91.269
X59.442 Y91.39
X59.362 Y91.498
X59.265 Y91.592
X59.155 Y91.671
X59.036 Y91.734
X58.909 Y91.78
X58.777 Y91.81
X58.643 Y91.824
X58.508 Y91.821
X58.374 Y91.804
X58.243 Y91.772
X58.116 Y91.725
X57.995 Y91.666
X57.881 Y91.594
X57.775 Y91.51
X57.678 Y91.417
X57.591 Y91.313
X57.514 Y91.202
X57.449 Y91.084
X57.396 Y90.96
X57.355 Y90.831
X57.327 Y90.699
X57.312 Y90.565
X57.31 Y90.43
X57.321 Y90.295
X57.344 Y90.162
X57.38 Y90.032
X57.428 Y89.906
X57.488 Y89.785
X57.559 Y89.67
X57.64 Y89.562
X57.731 Y89.463
X57.832 Y89.372
X57.94 Y89.291
X58.055 Y89.221
X58.176 Y89.161
X58.302 Y89.113
X58.432 Y89.077
X58.565 Y89.054
X58.7 Y89.042
X58.835 Y89.044
X58.969 Y89.057
X59.101 Y89.084
X59.231 Y89.122
X59.356 Y89.172
X59.476 Y89.234
X59.59 Y89.306
X59.697 Y89.389
X59.796 Y89.481
X59.886 Y89.582
X59.985 Y89.714
X60.086 Y89.873
X60.175 Y90.042
X60.241 Y90.195
X60.292 Y90.348
X60.329 Y90.495
X60.353 Y90.64
X60.365 Y90.784
Y90.924
X60.355 Y91.063
X60.333 Y91.2
X60.301 Y91.331
X60.257 Y91.464
X60.205 Y91.588
X60.14 Y91.714
X60.067 Y91.829
X59.984 Y91.941
X59.89 Y92.048
X59.79 Y92.144
X59.678 Y92.237
X59.559 Y92.32
X59.435 Y92.392
X59.3 Y92.457
X59.16 Y92.511
X59.018 Y92.553
X58.868 Y92.585
X58.713 Y92.604
X58.558 Y92.612
X58.402 Y92.606
X58.242 Y92.588
X58.083 Y92.557
X57.928 Y92.513
X57.776 Y92.456
X57.624 Y92.386
X57.478 Y92.303
X57.339 Y92.209
X57.209 Y92.104
X57.085 Y91.987
X56.969 Y91.858
X56.863 Y91.72
X56.769 Y91.574
X56.688 Y91.422
X56.617 Y91.261
X56.56 Y91.094
X56.515 Y90.92
X56.485 Y90.744
X56.468 Y90.567
X56.467 Y90.389
X56.479 Y90.21
X56.506 Y90.031
X56.548 Y89.853
X56.604 Y89.68
X56.673 Y89.512
X56.755 Y89.351
X56.851 Y89.196
X56.959 Y89.048
X57.079 Y88.909
X57.211 Y88.779
X57.353 Y88.661
X57.502 Y88.554
X57.66 Y88.461
X57.824 Y88.38
X57.996 Y88.312
X58.174 Y88.258
X58.356 Y88.218
X58.54 Y88.193
X58.725 Y88.183
X58.909 Y88.188
X59.092 Y88.207
X59.274 Y88.241
X59.454 Y88.291
X59.63 Y88.354
X59.806 Y88.434
X59.981 Y88.531
X60.151 Y88.645
X60.319 Y88.778
X60.479 Y88.926
X60.628 Y89.089
X60.764 Y89.264
X60.886 Y89.449
X60.992 Y89.642
X61.081 Y89.843
X61.165 Y90.092
X61.174 Y90.139
X61.227 Y90.49
X61.132 Y91.129
X61.106 Y91.264
X60.766 Y91.937
X60.705 Y92.011
X60.24 Y92.475
X60.167 Y92.528
X59.528 Y92.852
X58.956 Y92.949
X58.754 Y92.977
X57.98 Y92.855
X57.3 Y92.507
X57.071 Y92.287
X56.763 Y91.977
X56.733 Y91.937
X56.394 Y91.264
X56.274 Y90.524
X56.276 Y90.456
X56.382 Y89.783
X56.398 Y89.723
X56.744 Y89.046
X57.276 Y88.51
X57.4 Y88.437
X57.971 Y88.148
X58.283 Y88.093
X58.754 Y88.023
X59.494 Y88.138
X59.629 Y88.197
X60.197 Y88.49
X60.571 Y88.855
X60.758 Y89.05
X61.091 Y89.697
X61.118 Y89.783
X61.174 Y90.139
X61.176 Y90.176 Z-9.984
X61.172 Y90.208 Z-9.967
X61.168 Y90.234 Z-9.941
X61.166 Y90.25 Z-9.909
X61.165 Y90.256 Z-9.872
G0 Z5.
X58.26 Y131.067
Z0.81
G1 Z0.51 F720.
G3 X59.241 Y129.932 Z0.095 R0.75
X58.26 Y131.067 Z-0.321 R0.75
X59.241 Y129.932 Z-0.736 R0.75
X58.26 Y131.067 Z-1.152 R0.75
X59.241 Y129.932 Z-1.567 R0.75
X58.26 Y131.067 Z-1.983 R0.75
X59.241 Y129.932 Z-2.398 R0.75
X58.26 Y131.067 Z-2.814 R0.75
X59.241 Y129.932 Z-3.229 R0.75
X58.26 Y131.067 Z-3.645 R0.75
X59.241 Y129.932 Z-4.06 R0.75
X58.26 Y131.067 Z-4.476 R0.75
X59.241 Y129.932 Z-4.891 R0.75
X58.26 Y131.067 Z-5.306 R0.75
X59.241 Y129.932 Z-5.722 R0.75
X58.26 Y131.067 Z-6.137 R0.75
X59.241 Y129.932 Z-6.553 R0.75
X58.26 Y131.067 Z-6.968 R0.75
X59.241 Y129.932 Z-7.384 R0.75
X58.26 Y131.067 Z-7.799 R0.75
X59.241 Y129.932 Z-8.215 R0.75
X58.26 Y131.067 Z-8.63 R0.75
X59.241 Y129.932 Z-9.046 R0.75
X58.26 Y131.067 Z-9.461 R0.75
X59.241 Y129.932 Z-9.877 R0.75
X59.5 Y130.5 Z-9.99 R0.75
X58. R0.75
X59.5 R0.75
G1 X59.537 Y131.004
Y131.139
X59.502 Y131.269
X59.443 Y131.39
X59.362 Y131.499
X59.265 Y131.593
X59.156 Y131.671
X59.036 Y131.734
X58.909 Y131.78
X58.778 Y131.81
X58.643 Y131.824
X58.508 Y131.822
X58.374 Y131.804
X58.243 Y131.772
X58.116 Y131.726
X57.995 Y131.666
X57.881 Y131.594
X57.775 Y131.511
X57.678 Y131.417
X57.591 Y131.314
X57.514 Y131.202
X57.449 Y131.084
X57.396 Y130.96
X57.356 Y130.831
X57.328 Y130.699
X57.313 Y130.565
X57.31 Y130.43
X57.321 Y130.295
X57.344 Y130.162
X57.38 Y130.032
X57.429 Y129.906
X57.488 Y129.785
X57.559 Y129.67
X57.641 Y129.563
X57.732 Y129.463
X57.832 Y129.372
X57.94 Y129.291
X58.055 Y129.221
X58.176 Y129.161
X58.302 Y129.114
X58.433 Y129.078
X58.565 Y129.054
X58.7 Y129.043
X58.835 Y129.044
X58.969 Y129.058
X59.102 Y129.084
X59.231 Y129.122
X59.356 Y129.172
X59.477 Y129.234
X59.591 Y129.306
X59.697 Y129.389
X59.796 Y129.481
X59.886 Y129.582
X59.985 Y129.714
X60.087 Y129.873
X60.176 Y130.043
X60.241 Y130.196
X60.292 Y130.348
X60.329 Y130.496
X60.353 Y130.64
X60.365 Y130.784
X60.366 Y130.924
X60.355 Y131.063
X60.333 Y131.2
X60.301 Y131.331
X60.257 Y131.464
X60.205 Y131.589
X60.14 Y131.714
X60.067 Y131.829
X59.984 Y131.941
X59.89 Y132.048
X59.791 Y132.145
X59.678 Y132.237
X59.559 Y132.32
X59.436 Y132.392
X59.3 Y132.457
X59.161 Y132.511
X59.018 Y132.553
X58.868 Y132.585
X58.713 Y132.605
X58.559 Y132.612
X58.402 Y132.606
X58.242 Y132.588
X58.083 Y132.557
X57.929 Y132.513
X57.776 Y132.457
X57.625 Y132.386
X57.478 Y132.303
X57.34 Y132.209
X57.209 Y132.104
X57.085 Y131.987
X56.969 Y131.858
X56.863 Y131.72
X56.77 Y131.575
X56.688 Y131.422
X56.618 Y131.262
X56.56 Y131.094
X56.515 Y130.92
X56.485 Y130.745
X56.469 Y130.567
X56.467 Y130.39
X56.479 Y130.211
X56.507 Y130.031
X56.548 Y129.853
X56.604 Y129.68
X56.673 Y129.512
X56.756 Y129.351
X56.851 Y129.196
X56.959 Y129.049
X57.08 Y128.909
X57.211 Y128.779
X57.353 Y128.661
X57.503 Y128.555
X57.66 Y128.461
X57.825 Y128.38
X57.996 Y128.312
X58.174 Y128.258
X58.356 Y128.218
X58.54 Y128.193
X58.725 Y128.183
X58.909 Y128.188
X59.093 Y128.207
X59.275 Y128.242
X59.454 Y128.291
X59.63 Y128.354
X59.807 Y128.435
X59.981 Y128.532
X60.151 Y128.645
X60.319 Y128.778
X60.479 Y128.926
X60.628 Y129.089
X60.764 Y129.264
X60.886 Y129.449
X60.992 Y129.643
X61.081 Y129.843
X61.165 Y130.09
X61.174 Y130.137
X61.227 Y130.502
X61.109 Y131.256
X60.84 Y131.796
X60.748 Y131.963
X60.214 Y132.496
X60.032 Y132.597
X59.51 Y132.858
X58.754 Y132.978
X57.989 Y132.858
X57.34 Y132.532
X57.289 Y132.5
X56.755 Y131.967
X56.652 Y131.781
X56.398 Y131.278
X56.28 Y130.569
X56.273 Y130.502
X56.386 Y129.762
X56.444 Y129.627
X56.752 Y129.035
X57.287 Y128.501
X57.976 Y128.146
X58.754 Y128.023
X59.523 Y128.146
X60.192 Y128.486
X60.401 Y128.685
X60.75 Y129.039
X60.919 Y129.358
X61.109 Y129.744
X61.174 Y130.137
X61.176 Y130.174 Z-9.984
X61.172 Y130.206 Z-9.967
X61.168 Y130.232 Z-9.941
X61.166 Y130.248 Z-9.909
X61.165 Y130.254 Z-9.872
G0 Z5.
X58.259 Y-94.425
Z0.81
G1 Z0.51 F720.
G3 X59.24 Y-95.559 Z0.095 R0.75
X58.259 Y-94.425 Z-0.321 R0.75
X59.24 Y-95.559 Z-0.736 R0.75
X58.259 Y-94.425 Z-1.152 R0.75
X59.24 Y-95.559 Z-1.567 R0.75
X58.259 Y-94.425 Z-1.983 R0.75
X59.24 Y-95.559 Z-2.398 R0.75
X58.259 Y-94.425 Z-2.814 R0.75
X59.24 Y-95.559 Z-3.229 R0.75
X58.259 Y-94.425 Z-3.645 R0.75
X59.24 Y-95.559 Z-4.06 R0.75
X58.259 Y-94.425 Z-4.476 R0.75
X59.24 Y-95.559 Z-4.891 R0.75
X58.259 Y-94.425 Z-5.306 R0.75
X59.24 Y-95.559 Z-5.722 R0.75
X58.259 Y-94.425 Z-6.137 R0.75
X59.24 Y-95.559 Z-6.553 R0.75
X58.259 Y-94.425 Z-6.968 R0.75
X59.24 Y-95.559 Z-7.384 R0.75
X58.259 Y-94.425 Z-7.799 R0.75
X59.24 Y-95.559 Z-8.215 R0.75
X58.259 Y-94.425 Z-8.63 R0.75
X59.24 Y-95.559 Z-9.046 R0.75
X58.259 Y-94.425 Z-9.461 R0.75
X59.24 Y-95.559 Z-9.877 R0.75
X59.499 Y-94.992 Z-9.99 R0.75
X57.999 R0.75
X59.467 Y-95.21 R0.75
X59.499 Y-94.992 R0.75
G1 X59.536 Y-94.488
X59.535 Y-94.353
X59.501 Y-94.223
X59.441 Y-94.102
X59.361 Y-93.993
X59.264 Y-93.899
X59.154 Y-93.821
X59.035 Y-93.758
X58.908 Y-93.712
X58.776 Y-93.682
X58.642 Y-93.668
X58.507 Y-93.67
X58.373 Y-93.688
X58.242 Y-93.72
X58.115 Y-93.766
X57.994 Y-93.826
X57.88 Y-93.898
X57.774 Y-93.981
X57.677 Y-94.075
X57.59 Y-94.178
X57.513 Y-94.29
X57.448 Y-94.408
X57.395 Y-94.532
X57.355 Y-94.661
X57.327 Y-94.793
X57.311 Y-94.927
X57.309 Y-95.062
X57.32 Y-95.197
X57.343 Y-95.329
X57.379 Y-95.46
X57.427 Y-95.586
X57.487 Y-95.707
X57.558 Y-95.822
X57.639 Y-95.929
X57.731 Y-96.029
X57.831 Y-96.12
X57.939 Y-96.201
X58.054 Y-96.271
X58.175 Y-96.33
X58.301 Y-96.378
X58.431 Y-96.414
X58.564 Y-96.438
X58.699 Y-96.449
X58.834 Y-96.448
X58.968 Y-96.434
X59.101 Y-96.408
X59.23 Y-96.37
X59.355 Y-96.32
X59.476 Y-96.258
X59.589 Y-96.186
X59.696 Y-96.103
X59.795 Y-96.011
X59.885 Y-95.91
X59.984 Y-95.778
X60.085 Y-95.618
X60.175 Y-95.449
X60.24 Y-95.296
X60.291 Y-95.144
X60.328 Y-94.996
X60.352 Y-94.852
X60.364 Y-94.708
X60.365 Y-94.567
X60.354 Y-94.429
X60.332 Y-94.292
X60.3 Y-94.161
X60.256 Y-94.028
X60.204 Y-93.903
X60.139 Y-93.778
X60.066 Y-93.663
X59.983 Y-93.551
X59.837 Y-93.394
X59.724 Y-93.305
X59.662 Y-93.269
X59.494 Y-93.186
X59.191 Y-93.087
X58.686 Y-93.041
X58.417 Y-93.069
X58.115 Y-93.148
X57.879 Y-93.245
X57.595 Y-93.418
X57.299 Y-93.687
X57.095 Y-93.956
X56.955 Y-94.225
X56.862 Y-94.495
X56.81 Y-94.764
X56.795 Y-95.033
X56.884 Y-95.571
X56.994 Y-95.841
X57.107 Y-96.048
X57.34 Y-96.344
X57.61 Y-96.579
X57.744 Y-96.665
X57.879 Y-96.741
X58.148 Y-96.85
X58.422 Y-96.917
X58.686 Y-96.945
X59.225 Y-96.891
X59.528 Y-96.783
X59.843 Y-96.615
X60.251 Y-96.244
X60.351 Y-96.11
X60.508 Y-95.841
X60.626 Y-95.538
X60.705 Y-95.008
X60.69 Y-94.764
X60.638 Y-94.495
X60.545 Y-94.225
X60.405 Y-93.956
X60.256 Y-93.747
X59.902 Y-93.418
X59.763 Y-93.324
X59.662 Y-93.269
X59.626 Y-93.261 Z-9.984
X59.594 Y-93.254 Z-9.967
X59.569 Y-93.248 Z-9.941
X59.553 Y-93.244 Z-9.908
X59.548 Y-93.243 Z-9.872
G0 Z5.
X70.259 Y-143.932
Z0.81
G1 Z0.51 F720.
G3 X70.428 Y-145.177 Z0.248 R0.75
X71.072 Y-143.822 Z-0.168 R0.75
X70.469 Y-143.804 Z-0.278 R0.75
X71.031 Y-145.195 Z-0.693 R0.75
X70.469 Y-143.804 Z-1.108 R0.75
X71.031 Y-145.195 Z-1.524 R0.75
X70.469 Y-143.804 Z-1.939 R0.75
X71.031 Y-145.195 Z-2.355 R0.75
X70.469 Y-143.804 Z-2.77 R0.75
X71.031 Y-145.195 Z-3.186 R0.75
X70.469 Y-143.804 Z-3.601 R0.75
X71.031 Y-145.195 Z-4.017 R0.75
X70.469 Y-143.804 Z-4.432 R0.75
X71.031 Y-145.195 Z-4.848 R0.75
X70.469 Y-143.804 Z-5.263 R0.75
X71.031 Y-145.195 Z-5.678 R0.75
X70.469 Y-143.804 Z-6.094 R0.75
X71.031 Y-145.195 Z-6.509 R0.75
X70.469 Y-143.804 Z-6.925 R0.75
X71.031 Y-145.195 Z-7.34 R0.75
X70.469 Y-143.804 Z-7.756 R0.75
X71.031 Y-145.195 Z-8.171 R0.75
X70.469 Y-143.804 Z-8.587 R0.75
X71.031 Y-145.195 Z-9.002 R0.75
X70.469 Y-143.804 Z-9.418 R0.75
X71.031 Y-145.195 Z-9.833 R0.75
X71.5 Y-144.5 Z-9.99 R0.75
X70. R0.75
X71.5 R0.75
G1 X71.535 Y-143.976
X71.519 Y-143.938
X71.448 Y-143.836
X71.357 Y-143.761
X71.154 Y-143.626
X71.07 Y-143.594
X70.801 Y-143.54
X70.733 Y-143.537
X70.397 Y-143.603
X70.345 Y-143.626
X70.091 Y-143.797
X70.009 Y-143.896
X69.884 Y-144.082
X69.847 Y-144.165
X69.788 Y-144.468
X69.793 Y-144.569
X69.858 Y-144.866
X69.921 Y-144.972
X70.056 Y-145.168
X70.146 Y-145.242
X70.35 Y-145.376
X70.397 Y-145.397
X70.733 Y-145.464
X70.801 Y-145.46
X71.109 Y-145.395
X71.204 Y-145.341
X71.414 Y-145.197
X71.489 Y-145.107
X71.634 Y-144.883
X71.651 Y-144.838
X71.712 Y-144.535
X71.707 Y-144.434
X71.652 Y-144.165
X71.608 Y-144.071
X71.519 Y-143.938
X71.493 Y-143.913 Z-9.984
X71.469 Y-143.891 Z-9.967
X71.45 Y-143.873 Z-9.941
X71.438 Y-143.862 Z-9.908
X71.434 Y-143.858 Z-9.872
G0 Z5.
X70.259 Y-103.932
Z0.81
G1 Z0.51 F720.
G3 X71.24 Y-105.067 Z0.095 R0.75
X70.259 Y-103.932 Z-0.321 R0.75
X71.24 Y-105.067 Z-0.736 R0.75
X70.259 Y-103.932 Z-1.152 R0.75
X71.24 Y-105.067 Z-1.567 R0.75
X70.259 Y-103.932 Z-1.983 R0.75
X71.24 Y-105.067 Z-2.398 R0.75
X70.259 Y-103.932 Z-2.814 R0.75
X71.24 Y-105.067 Z-3.229 R0.75
X70.259 Y-103.932 Z-3.645 R0.75
X71.24 Y-105.067 Z-4.06 R0.75
X70.259 Y-103.932 Z-4.476 R0.75
X71.24 Y-105.067 Z-4.891 R0.75
X70.259 Y-103.932 Z-5.306 R0.75
X71.24 Y-105.067 Z-5.722 R0.75
X70.259 Y-103.932 Z-6.137 R0.75
X71.24 Y-105.067 Z-6.553 R0.75
X70.259 Y-103.932 Z-6.968 R0.75
X71.24 Y-105.067 Z-7.384 R0.75
X70.259 Y-103.932 Z-7.799 R0.75
X71.24 Y-105.067 Z-8.215 R0.75
X70.259 Y-103.932 Z-8.63 R0.75
X71.24 Y-105.067 Z-9.046 R0.75
X70.259 Y-103.932 Z-9.461 R0.75
X71.24 Y-105.067 Z-9.877 R0.75
X71.5 Y-104.5 Z-9.99 R0.75
X70. R0.75
X71.5 R0.75
G1 X71.535 Y-103.975
X71.519 Y-103.937
X71.438 Y-103.826
X71.339 Y-103.749
X71.129 Y-103.613
X71.07 Y-103.593
X70.767 Y-103.536
X70.666 Y-103.546
X70.397 Y-103.603
X70.262 Y-103.681
X70.076 Y-103.812
X69.993 Y-103.92
X69.878 Y-104.094
X69.842 Y-104.186
X69.786 Y-104.489
X69.797 Y-104.59
X69.858 Y-104.868
X70.025 Y-105.129
X70.076 Y-105.189
X70.363 Y-105.383
X70.398 Y-105.398
X70.733 Y-105.464
X70.801 Y-105.46
X71.101 Y-105.398
X71.204 Y-105.341
X71.406 Y-105.204
X71.475 Y-105.129
X71.629 Y-104.894
X71.645 Y-104.859
X71.713 Y-104.523
X71.711 Y-104.455
X71.651 Y-104.157
X71.608 Y-104.071
X71.519 Y-103.937
X71.492 Y-103.912 Z-9.984
X71.468 Y-103.89 Z-9.967
X71.449 Y-103.872 Z-9.941
X71.437 Y-103.861 Z-9.908
X71.433 Y-103.857 Z-9.872
G0 Z5.
X-58.612 Y-85.249
Z-4.4
G1 Z-4.7 F720.
X-58.605 Y-85.251 Z-4.767
X-58.584 Y-85.257 Z-4.83
X-58.549 Y-85.266 Z-4.887
X-58.503 Y-85.277 Z-4.935
X-58.448 Y-85.292 Z-4.97
X-58.387 Y-85.307 Z-4.992
X-58.322 Y-85.324 Z-5.
G3 X-57.097 Y-85.5 R5.744
G1 X-57.029
X-56.907 Y-85.443
X-56.823 Y-85.337
X-56.773 Y-85.212
X-56.746 Y-85.079
X-56.744 Y-84.944
X-56.763 Y-84.811
X-56.8 Y-84.681
X-56.852 Y-84.556
X-56.92 Y-84.44
X-57.001 Y-84.332
X-57.093 Y-84.233
X-57.194 Y-84.144
X-57.304 Y-84.066
X-57.422 Y-84.
X-57.546 Y-83.945
X-57.674 Y-83.901
X-57.805 Y-83.87
X-57.938 Y-83.851
X-58.073 Y-83.844
X-58.208 Y-83.849
X-58.342 Y-83.864
X-58.474 Y-83.892
X-58.604 Y-83.931
X-58.737 Y-83.984
X-58.857 Y-84.044
X-58.973 Y-84.114
X-59.082 Y-84.193
X-59.184 Y-84.282
X-59.286 Y-84.387
X-59.372 Y-84.491
X-59.45 Y-84.601
X-59.518 Y-84.718
X-59.578 Y-84.845
X-59.63 Y-84.982
X-59.668 Y-85.113
X-59.694 Y-85.245
X-59.71 Y-85.379
X-59.714 Y-85.525
X-59.707 Y-85.67
X-59.689 Y-85.805
X-59.661 Y-85.937
X-59.622 Y-86.066
X-59.566 Y-86.205
X-59.502 Y-86.335
X-59.433 Y-86.451
X-59.354 Y-86.561
X-59.267 Y-86.663
X-59.16 Y-86.77
X-59.051 Y-86.862
X-58.941 Y-86.941
X-58.825 Y-87.011
X-58.703 Y-87.071
X-58.562 Y-87.127
X-58.426 Y-87.168
X-58.294 Y-87.197
X-58.16 Y-87.215
X-58.019 Y-87.222
X-57.867 Y-87.216
X-57.728 Y-87.201
X-57.595 Y-87.174
X-57.465 Y-87.138
X-57.333 Y-87.087
X-57.195 Y-87.022
X-57.074 Y-86.952
X-56.87 Y-86.812
X-56.686 Y-86.662
X-56.527 Y-86.509
X-56.4 Y-86.366
X-56.288 Y-86.218
X-56.195 Y-86.072
X-56.119 Y-85.927
X-56.054 Y-85.775
X-56.003 Y-85.625
X-55.965 Y-85.471
X-55.939 Y-85.312
X-55.926 Y-85.158
X-55.925 Y-85.002
X-55.938 Y-84.843
X-55.962 Y-84.687
X-56. Y-84.533
X-56.051 Y-84.379
X-56.115 Y-84.226
X-56.189 Y-84.082
X-56.276 Y-83.943
X-56.377 Y-83.808
X-56.49 Y-83.679
X-56.615 Y-83.557
X-56.75 Y-83.447
X-56.892 Y-83.347
X-57.045 Y-83.257
X-57.208 Y-83.179
X-57.379 Y-83.113
X-57.556 Y-83.06
X-57.737 Y-83.022
X-57.924 Y-82.998
X-58.114 Y-82.989
X-58.307 Y-82.995
X-58.498 Y-83.017
X-58.686 Y-83.054
X-58.873 Y-83.106
X-59.058 Y-83.175
X-59.238 Y-83.258
X-59.411 Y-83.356
X-59.576 Y-83.468
X-59.732 Y-83.593
X-59.879 Y-83.732
X-60.016 Y-83.883
X-60.14 Y-84.044
X-60.25 Y-84.215
X-60.346 Y-84.394
X-60.429 Y-84.583
X-60.497 Y-84.778
X-60.548 Y-84.978
X-60.583 Y-85.181
X-60.602 Y-85.387
X-60.605 Y-85.595
X-60.59 Y-85.803
X-60.559 Y-86.009
X-60.513 Y-86.21
X-60.449 Y-86.408
X-60.369 Y-86.601
X-60.274 Y-86.788
X-60.165 Y-86.966
X-60.043 Y-87.134
X-59.906 Y-87.292
X-59.757 Y-87.439
X-59.595 Y-87.575
X-59.424 Y-87.696
X-59.246 Y-87.803
X-59.059 Y-87.895
X-58.863 Y-87.973
X-58.661 Y-88.034
X-58.456 Y-88.079
X-58.25 Y-88.108
X-58.041 Y-88.119
X-57.83 Y-88.114
X-57.619 Y-88.092
X-57.394 Y-88.05
X-57.159 Y-87.986
X-56.926 Y-87.902
X-56.695 Y-87.797
X-56.471 Y-87.673
X-56.257 Y-87.53
X-56.057 Y-87.373
X-55.872 Y-87.201
X-55.703 Y-87.018
X-55.552 Y-86.823
X-55.417 Y-86.619
X-55.301 Y-86.407
X-55.203 Y-86.188
X-55.123 Y-85.963
X-55.057 Y-85.708
X-55.046 Y-85.583
X-55.052 Y-85.057
X-55.287 Y-84.264
X-55.751 Y-83.543
X-56.398 Y-82.986
X-57.169 Y-82.638
X-57.879 Y-82.533
X-58.013 Y-82.52
X-58.821 Y-82.634
X-59.09 Y-82.75
X-59.595 Y-82.982
X-59.898 Y-83.235
X-60.264 Y-83.561
X-60.713 Y-84.264
X-60.951 Y-85.072
X-60.952 Y-85.913
X-60.73 Y-86.687
X-60.705 Y-86.752
X-60.264 Y-87.439
X-60.032 Y-87.648
X-59.596 Y-88.018
X-58.855 Y-88.355
X-58.283 Y-88.444
X-58.013 Y-88.48
X-57.34 Y-88.39
X-57.172 Y-88.363
X-56.533 Y-88.078
X-56.364 Y-87.991
X-55.754 Y-87.459
X-55.321 Y-86.796
X-55.29 Y-86.742
X-55.052 Y-85.939
X-55.046 Y-85.745
Y-85.583
X-55.054 Y-85.547 Z-4.994
X-55.062 Y-85.516 Z-4.977
X-55.068 Y-85.491 Z-4.951
X-55.071 Y-85.474 Z-4.918
X-55.073 Y-85.469 Z-4.882
G0 Z5.
X-57.788 Y-54.127
Z-4.4
G1 Z-4.7 F720.
X-57.791 Y-54.12 Z-4.767
X-57.801 Y-54.101 Z-4.83
X-57.817 Y-54.069 Z-4.887
X-57.839 Y-54.026 Z-4.935
X-57.864 Y-53.975 Z-4.97
X-57.892 Y-53.919 Z-4.992
X-57.922 Y-53.859 Z-5.
G3 X-58.591 Y-52.818 R5.744
G1 X-58.635 Y-52.767
X-58.694 Y-52.734
X-58.828 Y-52.717
X-58.961 Y-52.743
X-59.083 Y-52.8
X-59.194 Y-52.877
X-59.29 Y-52.972
X-59.371 Y-53.08
X-59.437 Y-53.198
X-59.489 Y-53.323
X-59.525 Y-53.453
X-59.545 Y-53.586
X-59.551 Y-53.721
X-59.545 Y-53.856
X-59.524 Y-53.989
X-59.49 Y-54.12
X-59.444 Y-54.247
X-59.387 Y-54.369
X-59.319 Y-54.486
X-59.24 Y-54.596
X-59.151 Y-54.697
X-59.055 Y-54.791
X-58.951 Y-54.878
X-58.84 Y-54.955
X-58.722 Y-55.021
X-58.593 Y-55.08
X-58.462 Y-55.127
X-58.332 Y-55.163
X-58.199 Y-55.187
X-58.065 Y-55.199
X-57.918 Y-55.201
X-57.779 Y-55.191
X-57.645 Y-55.17
X-57.514 Y-55.139
X-57.386 Y-55.096
X-57.249 Y-55.037
X-57.125 Y-54.973
X-57.011 Y-54.9
X-56.904 Y-54.819
X-56.798 Y-54.724
X-56.696 Y-54.615
X-56.609 Y-54.507
X-56.533 Y-54.395
X-56.467 Y-54.277
X-56.407 Y-54.145
X-56.357 Y-54.007
X-56.321 Y-53.873
X-56.296 Y-53.741
X-56.283 Y-53.606
X-56.28 Y-53.457
X-56.29 Y-53.312
X-56.309 Y-53.178
X-56.339 Y-53.046
X-56.38 Y-52.918
X-56.438 Y-52.778
X-56.503 Y-52.65
X-56.574 Y-52.535
X-56.654 Y-52.426
X-56.743 Y-52.324
X-56.851 Y-52.218
X-56.96 Y-52.127
X-57.071 Y-52.05
X-57.187 Y-51.981
X-57.313 Y-51.921
X-57.453 Y-51.867
X-57.615 Y-51.82
X-57.885 Y-51.764
X-58.111 Y-51.735
X-58.314 Y-51.726
X-58.498 Y-51.733
X-58.68 Y-51.754
X-58.844 Y-51.787
X-59.003 Y-51.832
X-59.155 Y-51.888
X-59.296 Y-51.954
X-59.435 Y-52.034
X-59.567 Y-52.124
X-59.687 Y-52.22
X-59.802 Y-52.33
X-59.908 Y-52.447
X-60.003 Y-52.573
X-60.089 Y-52.707
X-60.167 Y-52.852
X-60.233 Y-53.003
X-60.285 Y-53.157
X-60.326 Y-53.317
X-60.355 Y-53.484
X-60.37 Y-53.657
X-60.372 Y-53.833
X-60.359 Y-54.007
X-60.333 Y-54.18
X-60.292 Y-54.353
X-60.236 Y-54.526
X-60.165 Y-54.696
X-60.08 Y-54.862
X-59.981 Y-55.021
X-59.87 Y-55.173
X-59.745 Y-55.317
X-59.607 Y-55.452
X-59.459 Y-55.576
X-59.301 Y-55.687
X-59.135 Y-55.786
X-58.957 Y-55.872
X-58.771 Y-55.945
X-58.58 Y-56.003
X-58.385 Y-56.045
X-58.187 Y-56.072
X-57.984 Y-56.083
X-57.78 Y-56.077
X-57.577 Y-56.055
X-57.377 Y-56.017
X-57.18 Y-55.963
X-56.986 Y-55.892
X-56.798 Y-55.806
X-56.617 Y-55.705
X-56.446 Y-55.59
X-56.285 Y-55.462
X-56.133 Y-55.321
X-55.992 Y-55.167
X-55.865 Y-55.002
X-55.751 Y-54.829
X-55.652 Y-54.646
X-55.567 Y-54.455
X-55.497 Y-54.257
X-55.444 Y-54.055
X-55.407 Y-53.85
X-55.387 Y-53.643
X-55.384 Y-53.433
X-55.397 Y-53.223
X-55.427 Y-53.015
X-55.474 Y-52.812
X-55.536 Y-52.613
X-55.615 Y-52.417
X-55.71 Y-52.229
X-55.819 Y-52.049
X-55.941 Y-51.88
X-56.077 Y-51.721
X-56.227 Y-51.572
X-56.391 Y-51.432
X-56.585 Y-51.293
X-56.796 Y-51.166
X-57.021 Y-51.053
X-57.258 Y-50.958
X-57.502 Y-50.882
X-57.753 Y-50.825
X-58.004 Y-50.79
X-58.254 Y-50.774
X-58.502 Y-50.779
X-58.746 Y-50.804
X-58.985 Y-50.847
X-59.218 Y-50.909
X-59.444 Y-50.989
X-59.662 Y-51.087
X-59.855 Y-51.201
X-59.894 Y-51.232
X-60.259 Y-51.555
X-60.705 Y-52.248
X-60.863 Y-52.766
X-60.949 Y-53.069
X-60.952 Y-53.91
X-60.82 Y-54.381
X-60.717 Y-54.726
X-60.426 Y-55.189
X-60.247 Y-55.458
X-59.628 Y-55.997
X-59.35 Y-56.131
X-58.855 Y-56.356
X-58.148 Y-56.463
X-58.013 Y-56.48
X-57.34 Y-56.39
X-57.138 Y-56.353
X-56.398 Y-56.014
X-55.752 Y-55.458
X-55.295 Y-54.752
X-55.14 Y-54.247
X-55.052 Y-53.942
X-55.046 Y-53.574
Y-53.115
X-55.058 Y-53.035
X-55.288 Y-52.261
X-55.742 Y-51.555
X-56.355 Y-51.016
X-56.398 Y-50.987
X-57.138 Y-50.647
X-57.325 Y-50.612
X-58.013 Y-50.52
X-58.821 Y-50.635
X-58.956 Y-50.689
X-59.595 Y-50.982
X-59.8 Y-51.151
X-59.894 Y-51.232
X-59.915 Y-51.261 Z-4.994
X-59.934 Y-51.288 Z-4.977
X-59.949 Y-51.309 Z-4.951
X-59.959 Y-51.322 Z-4.918
X-59.962 Y-51.327 Z-4.882
G0 Z5.
X-22.335 Y-86.071
Z-4.4
G1 Z-4.7 F720.
X-22.332 Y-86.064 Z-4.767
X-22.324 Y-86.043 Z-4.83
X-22.31 Y-86.01 Z-4.887
X-22.292 Y-85.966 Z-4.935
X-22.27 Y-85.914 Z-4.97
X-22.246 Y-85.855 Z-4.992
X-22.22 Y-85.794 Z-5.
G3 X-21.872 Y-84.606 R5.744
G1 X-21.862 Y-84.54
X-21.876 Y-84.474
X-21.953 Y-84.362
X-22.058 Y-84.278
X-22.182 Y-84.223
X-22.313 Y-84.191
X-22.447 Y-84.18
X-22.582 Y-84.19
X-22.714 Y-84.218
X-22.842 Y-84.261
X-22.964 Y-84.318
X-23.078 Y-84.39
X-23.184 Y-84.474
X-23.281 Y-84.568
X-23.369 Y-84.671
X-23.446 Y-84.782
X-23.511 Y-84.9
X-23.565 Y-85.024
X-23.608 Y-85.152
X-23.64 Y-85.283
X-23.659 Y-85.416
X-23.666 Y-85.553
X-23.662 Y-85.688
X-23.648 Y-85.822
X-23.621 Y-85.954
X-23.583 Y-86.084
X-23.531 Y-86.219
X-23.47 Y-86.342
X-23.402 Y-86.459
X-23.323 Y-86.569
X-23.236 Y-86.671
X-23.131 Y-86.776
X-23.025 Y-86.865
X-22.915 Y-86.944
X-22.799 Y-87.013
X-22.675 Y-87.073
X-22.536 Y-87.126
X-22.404 Y-87.166
X-22.272 Y-87.194
X-22.138 Y-87.21
X-21.995 Y-87.216
X-21.846 Y-87.21
X-21.709 Y-87.193
X-21.577 Y-87.166
X-21.448 Y-87.128
X-21.309 Y-87.074
X-21.178 Y-87.01
X-21.06 Y-86.941
X-20.95 Y-86.863
X-20.846 Y-86.777
X-20.739 Y-86.671
X-20.645 Y-86.561
X-20.565 Y-86.451
X-20.494 Y-86.336
X-20.433 Y-86.213
X-20.377 Y-86.073
X-20.334 Y-85.936
X-20.305 Y-85.804
X-20.286 Y-85.67
X-20.278 Y-85.531
X-20.282 Y-85.38
X-20.297 Y-85.243
X-20.322 Y-85.11
X-20.358 Y-84.98
X-20.407 Y-84.846
X-20.485 Y-84.679
X-20.619 Y-84.44
X-20.745 Y-84.253
X-20.873 Y-84.093
X-20.997 Y-83.961
X-21.132 Y-83.839
X-21.266 Y-83.736
X-21.404 Y-83.646
X-21.547 Y-83.569
X-21.689 Y-83.506
X-21.839 Y-83.454
X-21.994 Y-83.414
X-22.147 Y-83.387
X-22.304 Y-83.372
X-22.464 Y-83.37
X-22.619 Y-83.381
X-22.777 Y-83.404
X-22.937 Y-83.441
X-23.095 Y-83.492
X-23.248 Y-83.554
X-23.394 Y-83.628
X-23.538 Y-83.716
X-23.677 Y-83.818
X-23.81 Y-83.932
X-23.935 Y-84.057
X-24.048 Y-84.192
X-24.15 Y-84.336
X-24.243 Y-84.491
X-24.325 Y-84.656
X-24.394 Y-84.829
X-24.449 Y-85.009
X-24.49 Y-85.193
X-24.516 Y-85.381
X-24.527 Y-85.573
X-24.523 Y-85.767
X-24.502 Y-85.961
X-24.467 Y-86.152
X-24.416 Y-86.34
X-24.349 Y-86.528
X-24.266 Y-86.711
X-24.169 Y-86.886
X-24.059 Y-87.053
X-23.935 Y-87.211
X-23.796 Y-87.361
X-23.646 Y-87.5
X-23.484 Y-87.626
X-23.314 Y-87.738
X-23.135 Y-87.837
X-22.946 Y-87.922
X-22.751 Y-87.992
X-22.551 Y-88.046
X-22.348 Y-88.083
X-22.142 Y-88.104
X-21.934 Y-88.108
X-21.725 Y-88.096
X-21.519 Y-88.067
X-21.316 Y-88.022
X-21.118 Y-87.961
X-20.924 Y-87.883
X-20.735 Y-87.789
X-20.556 Y-87.681
X-20.387 Y-87.561
X-20.228 Y-87.426
X-20.079 Y-87.278
X-19.941 Y-87.118
X-19.818 Y-86.948
X-19.71 Y-86.77
X-19.616 Y-86.584
X-19.536 Y-86.388
X-19.472 Y-86.187
X-19.425 Y-85.983
X-19.395 Y-85.777
X-19.381 Y-85.568
X-19.384 Y-85.35
X-19.407 Y-85.112
X-19.45 Y-84.87
X-19.514 Y-84.626
X-19.598 Y-84.385
X-19.701 Y-84.15
X-19.824 Y-83.925
X-19.962 Y-83.712
X-20.115 Y-83.514
X-20.282 Y-83.33
X-20.461 Y-83.163
X-20.651 Y-83.011
X-20.851 Y-82.877
X-21.06 Y-82.76
X-21.277 Y-82.66
X-21.483 Y-82.591
X-21.531 Y-82.583
X-22.007 Y-82.519
X-22.838 Y-82.639
X-23.588 Y-82.978
X-23.69 Y-83.055
X-24.228 Y-83.522
X-24.285 Y-83.591
X-24.713 Y-84.264
X-24.951 Y-85.072
X-24.952 Y-85.913
X-24.719 Y-86.721
X-24.576 Y-86.956
X-24.257 Y-87.448
X-23.627 Y-87.997
X-23.421 Y-88.099
X-22.849 Y-88.357
X-22.007 Y-88.481
X-21.166 Y-88.362
X-20.408 Y-88.02
X-20.19 Y-87.841
X-19.753 Y-87.458
X-19.296 Y-86.755
X-19.23 Y-86.553
X-19.048 Y-85.913
X-19.049 Y-85.072
X-19.287 Y-84.264
X-19.746 Y-83.55
X-20.392 Y-82.99
X-21.166 Y-82.638
X-21.531 Y-82.583
X-21.563 Y-82.581 Z-4.995
X-21.597 Y-82.586 Z-4.979
X-21.624 Y-82.59 Z-4.953
X-21.642 Y-82.592 Z-4.92
X-21.648 Y-82.593 Z-4.882
G0 Z5.
X-22.026 Y-52.839
Z-4.4
G1 Z-4.7 F720.
X-22.025 Y-52.846 Z-4.767
X-22.021 Y-52.868 Z-4.83
X-22.015 Y-52.903 Z-4.887
X-22.006 Y-52.95 Z-4.935
X-21.996 Y-53.006 Z-4.97
X-21.985 Y-53.068 Z-4.992
X-21.973 Y-53.134 Z-5.
G3 X-21.625 Y-54.322 R5.744
G1 X-21.597 Y-54.383
X-21.493 Y-54.469
X-21.361 Y-54.501
X-21.226 Y-54.495
X-21.095 Y-54.464
X-20.972 Y-54.409
X-20.858 Y-54.336
X-20.755 Y-54.25
X-20.664 Y-54.15
X-20.586 Y-54.039
X-20.522 Y-53.921
X-20.47 Y-53.796
X-20.431 Y-53.667
X-20.407 Y-53.534
X-20.396 Y-53.399
X-20.397 Y-53.264
X-20.411 Y-53.13
X-20.437 Y-52.998
X-20.476 Y-52.868
X-20.526 Y-52.743
X-20.586 Y-52.622
X-20.656 Y-52.507
X-20.736 Y-52.398
X-20.828 Y-52.295
X-20.928 Y-52.199
X-21.033 Y-52.114
X-21.145 Y-52.038
X-21.262 Y-51.972
X-21.391 Y-51.914
X-21.526 Y-51.866
X-21.656 Y-51.831
X-21.789 Y-51.807
X-21.923 Y-51.794
X-22.071 Y-51.793
X-22.212 Y-51.803
X-22.346 Y-51.823
X-22.477 Y-51.854
X-22.605 Y-51.897
X-22.742 Y-51.955
X-22.869 Y-52.02
X-22.983 Y-52.092
X-23.091 Y-52.173
X-23.195 Y-52.266
X-23.298 Y-52.375
X-23.386 Y-52.484
X-23.463 Y-52.595
X-23.529 Y-52.713
X-23.588 Y-52.841
X-23.64 Y-52.983
X-23.678 Y-53.118
X-23.703 Y-53.25
X-23.717 Y-53.385
X-23.72 Y-53.532
X-23.712 Y-53.676
X-23.693 Y-53.813
X-23.663 Y-53.945
X-23.623 Y-54.074
X-23.567 Y-54.211
X-23.501 Y-54.342
X-23.43 Y-54.459
X-23.351 Y-54.568
X-23.262 Y-54.672
X-23.155 Y-54.776
X-23.043 Y-54.87
X-22.933 Y-54.948
X-22.717 Y-55.076
X-22.504 Y-55.18
X-22.298 Y-55.261
X-22.114 Y-55.317
X-21.935 Y-55.356
X-21.764 Y-55.379
X-21.601 Y-55.387
X-21.435 Y-55.383
X-21.276 Y-55.366
X-21.121 Y-55.336
X-20.966 Y-55.294
X-20.822 Y-55.241
X-20.68 Y-55.177
X-20.54 Y-55.099
X-20.408 Y-55.01
X-20.284 Y-54.912
X-20.165 Y-54.802
X-20.055 Y-54.68
X-19.955 Y-54.552
X-19.864 Y-54.414
X-19.784 Y-54.266
X-19.714 Y-54.109
X-19.656 Y-53.945
X-19.612 Y-53.777
X-19.581 Y-53.605
X-19.563 Y-53.428
X-19.56 Y-53.247
X-19.572 Y-53.065
X-19.598 Y-52.882
X-19.639 Y-52.701
X-19.696 Y-52.521
X-19.767 Y-52.344
X-19.853 Y-52.173
X-19.953 Y-52.009
X-20.065 Y-51.853
X-20.191 Y-51.705
X-20.331 Y-51.566
X-20.482 Y-51.437
X-20.643 Y-51.321
X-20.813 Y-51.219
X-20.993 Y-51.129
X-21.181 Y-51.053
X-21.376 Y-50.992
X-21.574 Y-50.948
X-21.774 Y-50.919
X-21.979 Y-50.906
X-22.185 Y-50.91
X-22.39 Y-50.931
X-22.593 Y-50.967
X-22.791 Y-51.02
X-22.987 Y-51.089
X-23.177 Y-51.174
X-23.36 Y-51.274
X-23.533 Y-51.388
X-23.696 Y-51.515
X-23.85 Y-51.656
X-23.992 Y-51.809
X-24.122 Y-51.974
X-24.237 Y-52.147
X-24.338 Y-52.328
X-24.425 Y-52.519
X-24.497 Y-52.716
X-24.552 Y-52.919
X-24.591 Y-53.124
X-24.613 Y-53.331
X-24.618 Y-53.541
X-24.606 Y-53.752
X-24.578 Y-53.961
X-24.533 Y-54.164
X-24.473 Y-54.364
X-24.395 Y-54.56
X-24.302 Y-54.75
X-24.194 Y-54.931
X-24.061 Y-55.118
X-23.905 Y-55.304
X-23.731 Y-55.481
X-23.539 Y-55.647
X-23.332 Y-55.799
X-23.113 Y-55.933
X-22.886 Y-56.049
X-22.654 Y-56.145
X-22.416 Y-56.221
X-22.176 Y-56.278
X-21.935 Y-56.314
X-21.693 Y-56.331
X-21.454 Y-56.329
X-21.216 Y-56.307
X-20.922 Y-56.25
X-20.845 Y-56.22
X-20.416 Y-56.024
X-20.325 Y-55.957
X-19.752 Y-55.458
X-19.295 Y-54.752
X-19.113 Y-54.155
X-19.048 Y-53.91
X-19.051 Y-53.069
X-19.288 Y-52.261
X-19.741 Y-51.555
X-20.355 Y-51.016
X-20.459 Y-50.956
X-21.166 Y-50.638
X-22.007 Y-50.519
X-22.849 Y-50.643
X-23.6 Y-50.985
X-23.825 Y-51.172
X-24.258 Y-51.555
X-24.712 Y-52.261
X-24.942 Y-53.035
X-24.954 Y-53.17
X-24.952 Y-53.91
X-24.899 Y-54.112
X-24.72 Y-54.718
X-24.599 Y-54.92
X-24.248 Y-55.458
X-23.628 Y-55.997
X-23.421 Y-56.099
X-22.849 Y-56.357
X-22.007 Y-56.481
X-21.166 Y-56.362
X-20.845 Y-56.22
X-20.816 Y-56.198 Z-4.994
X-20.79 Y-56.178 Z-4.977
X-20.77 Y-56.162 Z-4.951
X-20.757 Y-56.152 Z-4.918
X-20.752 Y-56.148 Z-4.882
G0 Z5.
X20.538 Y-84.873
Z-4.4
G1 Z-4.7 F720.
X20.542 Y-84.88 Z-4.767
X20.551 Y-84.9 Z-4.83
X20.567 Y-84.932 Z-4.887
X20.589 Y-84.974 Z-4.935
X20.614 Y-85.025 Z-4.97
X20.642 Y-85.082 Z-4.992
X20.672 Y-85.141 Z-5.
G3 X21.341 Y-86.182 R5.744
G1 X21.385 Y-86.233
X21.445 Y-86.265
X21.579 Y-86.281
X21.712 Y-86.256
X21.834 Y-86.199
X21.944 Y-86.121
X22.041 Y-86.027
X22.121 Y-85.918
X22.187 Y-85.8
X22.239 Y-85.676
X22.275 Y-85.546
X22.294 Y-85.412
X22.301 Y-85.277
X22.294 Y-85.142
X22.274 Y-85.009
X22.239 Y-84.878
X22.192 Y-84.752
X22.135 Y-84.629
X22.067 Y-84.513
X21.989 Y-84.403
X21.9 Y-84.301
X21.803 Y-84.207
X21.699 Y-84.121
X21.588 Y-84.044
X21.47 Y-83.978
X21.343 Y-83.92
X21.21 Y-83.873
X21.08 Y-83.837
X20.947 Y-83.813
X20.813 Y-83.801
X20.667 Y-83.799
X20.528 Y-83.81
X20.394 Y-83.83
X20.263 Y-83.862
X20.133 Y-83.905
X19.996 Y-83.964
X19.872 Y-84.029
X19.758 Y-84.102
X19.651 Y-84.183
X19.548 Y-84.276
X19.445 Y-84.387
X19.358 Y-84.494
X19.283 Y-84.606
X19.217 Y-84.724
X19.157 Y-84.857
X19.107 Y-84.995
X19.071 Y-85.128
X19.046 Y-85.261
X19.033 Y-85.396
X19.031 Y-85.545
X19.04 Y-85.69
X19.06 Y-85.824
X19.09 Y-85.956
X19.131 Y-86.084
X19.189 Y-86.223
X19.254 Y-86.352
X19.325 Y-86.467
X19.405 Y-86.576
X19.494 Y-86.678
X19.604 Y-86.784
X19.714 Y-86.875
X19.824 Y-86.953
X19.941 Y-87.021
X20.068 Y-87.081
X20.209 Y-87.135
X20.372 Y-87.182
X20.641 Y-87.238
X20.866 Y-87.265
X21.07 Y-87.274
X21.253 Y-87.266
X21.435 Y-87.245
X21.6 Y-87.211
X21.758 Y-87.166
X21.91 Y-87.109
X22.05 Y-87.042
X22.189 Y-86.963
X22.321 Y-86.872
X22.441 Y-86.775
X22.555 Y-86.666
X22.661 Y-86.548
X22.756 Y-86.422
X22.842 Y-86.288
X22.919 Y-86.142
X22.985 Y-85.99
X23.037 Y-85.836
X23.077 Y-85.676
X23.105 Y-85.509
X23.12 Y-85.336
X23.121 Y-85.161
X23.108 Y-84.986
X23.081 Y-84.814
X23.039 Y-84.641
X22.983 Y-84.468
X22.911 Y-84.297
X22.826 Y-84.132
X22.727 Y-83.973
X22.615 Y-83.822
X22.49 Y-83.678
X22.352 Y-83.544
X22.203 Y-83.42
X22.044 Y-83.309
X21.877 Y-83.211
X21.7 Y-83.125
X21.514 Y-83.052
X21.323 Y-82.995
X21.128 Y-82.954
X20.93 Y-82.928
X20.727 Y-82.917
X20.523 Y-82.924
X20.319 Y-82.946
X20.12 Y-82.985
X19.924 Y-83.04
X19.73 Y-83.111
X19.542 Y-83.198
X19.361 Y-83.299
X19.191 Y-83.414
X19.03 Y-83.543
X18.878 Y-83.685
X18.738 Y-83.84
X18.61 Y-84.005
X18.498 Y-84.178
X18.399 Y-84.361
X18.314 Y-84.552
X18.245 Y-84.75
X18.193 Y-84.953
X18.157 Y-85.158
X18.137 Y-85.365
X18.134 Y-85.575
X18.148 Y-85.786
X18.179 Y-85.993
X18.226 Y-86.196
X18.289 Y-86.395
X18.369 Y-86.59
X18.464 Y-86.779
X18.574 Y-86.958
X18.697 Y-87.127
X18.833 Y-87.285
X18.983 Y-87.434
X19.148 Y-87.573
X19.342 Y-87.712
X19.553 Y-87.839
X19.778 Y-87.95
X20.016 Y-88.045
X20.261 Y-88.12
X20.511 Y-88.176
X20.762 Y-88.211
X21.013 Y-88.225
X21.261 Y-88.22
X21.504 Y-88.195
X21.744 Y-88.15
X21.976 Y-88.088
X22.202 Y-88.007
X22.419 Y-87.909
X22.608 Y-87.797
X22.646 Y-87.766
X22.991 Y-87.465
X23.286 Y-87.018
X23.457 Y-86.748
X23.69 Y-85.973
X23.704 Y-85.88
X23.7 Y-85.072
X23.463 Y-84.264
X23.017 Y-83.565
X22.882 Y-83.439
X22.39 Y-83.013
X22.344 Y-82.981
X21.577 Y-82.636
X20.762 Y-82.519
X19.921 Y-82.637
X19.147 Y-82.987
X18.575 Y-83.476
X18.511 Y-83.533
X18.378 Y-83.726
X18.037 Y-84.264
X17.799 Y-85.072
X17.798 Y-85.913
X18.02 Y-86.687
X18.037 Y-86.734
X18.481 Y-87.433
X18.575 Y-87.524
X19.113 Y-87.99
X19.248 Y-88.062
X19.921 Y-88.364
X20.762 Y-88.481
X21.57 Y-88.366
X21.94 Y-88.204
X22.344 Y-88.019
X22.493 Y-87.899
X22.646 Y-87.766
X22.667 Y-87.737 Z-4.994
X22.686 Y-87.71 Z-4.977
X22.701 Y-87.689 Z-4.951
X22.711 Y-87.676 Z-4.918
X22.714 Y-87.671 Z-4.882
G0 Z5.
X20.589 Y-53.73
Z-4.4
G1 Z-4.7 F720.
X20.59 Y-53.722 Z-4.767
X20.592 Y-53.7 Z-4.83
X20.596 Y-53.665 Z-4.887
X20.601 Y-53.617 Z-4.935
X20.607 Y-53.561 Z-4.97
X20.614 Y-53.498 Z-4.992
X20.622 Y-53.431 Z-5.
G3 Y-52.606 R3.829
G1 X20.612 Y-52.54
X20.541 Y-52.425
X20.422 Y-52.36
X20.292 Y-52.326
X20.157 Y-52.319
X20.023 Y-52.337
X19.893 Y-52.373
X19.769 Y-52.427
X19.654 Y-52.498
X19.549 Y-52.582
X19.452 Y-52.676
X19.367 Y-52.781
X19.294 Y-52.894
X19.233 Y-53.015
X19.183 Y-53.14
X19.146 Y-53.27
X19.121 Y-53.403
X19.109 Y-53.537
Y-53.672
X19.121 Y-53.807
X19.144 Y-53.94
X19.179 Y-54.07
X19.227 Y-54.201
X19.285 Y-54.324
X19.351 Y-54.442
X19.428 Y-54.553
X19.514 Y-54.657
X19.616 Y-54.761
X19.721 Y-54.852
X19.829 Y-54.932
X19.944 Y-55.002
X20.065 Y-55.062
X20.203 Y-55.118
X20.335 Y-55.158
X20.467 Y-55.188
X20.6 Y-55.206
X20.742 Y-55.213
X20.89 Y-55.208
X21.025 Y-55.193
X21.158 Y-55.167
X21.288 Y-55.13
X21.424 Y-55.079
X21.557 Y-55.016
X21.675 Y-54.948
X21.786 Y-54.872
X21.891 Y-54.786
X21.998 Y-54.682
X22.094 Y-54.573
X22.175 Y-54.465
X22.246 Y-54.35
X22.308 Y-54.23
X22.366 Y-54.09
X22.411 Y-53.953
X22.442 Y-53.821
X22.462 Y-53.688
X22.471 Y-53.551
X22.469 Y-53.4
X22.455 Y-53.257
X22.431 Y-53.124
X22.397 Y-52.994
X22.349 Y-52.861
X22.287 Y-52.724
X22.22 Y-52.601
X22.145 Y-52.489
X22.062 Y-52.383
X21.874 Y-52.182
X21.699 Y-52.023
X21.525 Y-51.888
X21.366 Y-51.785
X21.206 Y-51.698
X21.048 Y-51.628
X20.894 Y-51.574
X20.732 Y-51.532
X20.575 Y-51.504
X20.42 Y-51.489
X20.26 Y-51.487
X20.105 Y-51.497
X19.951 Y-51.52
X19.794 Y-51.556
X19.642 Y-51.604
X19.497 Y-51.663
X19.353 Y-51.735
X19.213 Y-51.821
X19.079 Y-51.918
X18.953 Y-52.026
X18.835 Y-52.145
X18.724 Y-52.275
X18.624 Y-52.415
X18.534 Y-52.565
X18.455 Y-52.724
X18.389 Y-52.889
X18.336 Y-53.06
X18.296 Y-53.237
X18.271 Y-53.42
X18.259 Y-53.607
X18.263 Y-53.796
X18.283 Y-53.986
X18.317 Y-54.174
X18.367 Y-54.359
X18.432 Y-54.542
X18.513 Y-54.721
X18.607 Y-54.893
X18.715 Y-55.057
X18.837 Y-55.212
X18.973 Y-55.36
X19.121 Y-55.497
X19.28 Y-55.622
X19.448 Y-55.733
X19.625 Y-55.831
X19.812 Y-55.916
X20.005 Y-55.985
X20.203 Y-56.039
X20.405 Y-56.076
X20.61 Y-56.098
X20.817 Y-56.102
X21.025 Y-56.091
X21.23 Y-56.062
X21.432 Y-56.018
X21.63 Y-55.957
X21.824 Y-55.879
X22.012 Y-55.787
X22.191 Y-55.68
X22.36 Y-55.559
X22.52 Y-55.425
X22.669 Y-55.277
X22.806 Y-55.118
X22.93 Y-54.948
X23.038 Y-54.771
X23.132 Y-54.585
X23.212 Y-54.39
X23.276 Y-54.189
X23.324 Y-53.985
X23.355 Y-53.779
X23.369 Y-53.57
X23.366 Y-53.359
X23.346 Y-53.149
X23.31 Y-52.942
X23.258 Y-52.74
X23.182 Y-52.522
X23.084 Y-52.299
X22.966 Y-52.08
X22.827 Y-51.866
X22.671 Y-51.663
X22.499 Y-51.472
X22.313 Y-51.298
X22.116 Y-51.141
X21.909 Y-51.001
X21.695 Y-50.88
X21.473 Y-50.778
X21.246 Y-50.694
X21.016 Y-50.63
X20.781 Y-50.584
X20.495 Y-50.557
X20.414 Y-50.564
X19.921 Y-50.636
X19.147 Y-50.986
X18.491 Y-51.555
X18.037 Y-52.264
X17.801 Y-53.069
X17.798 Y-53.91
X17.93 Y-54.381
X18.037 Y-54.735
X18.44 Y-55.37
X18.504 Y-55.458
X19.123 Y-55.997
X19.248 Y-56.062
X19.921 Y-56.364
X20.762 Y-56.481
X21.57 Y-56.366
X21.94 Y-56.204
X22.377 Y-55.997
X22.996 Y-55.458
X23.436 Y-54.785
X23.47 Y-54.718
X23.698 Y-53.941
X23.704 Y-53.439
X23.699 Y-53.069
X23.462 Y-52.261
X23.008 Y-51.555
X22.395 Y-51.016
X22.344 Y-50.982
X21.604 Y-50.644
X20.863 Y-50.532
X20.729 Y-50.519
X20.414 Y-50.564
X20.38 Y-50.577 Z-4.994
X20.35 Y-50.589 Z-4.977
X20.326 Y-50.598 Z-4.951
X20.31 Y-50.604 Z-4.918
X20.305 Y-50.607 Z-4.882
G0 Z5.
X47.253 Y-144.86
Z-4.4
G1 Z-4.7 F720.
X47.246 Y-144.857 Z-4.767
X47.226 Y-144.847 Z-4.83
X47.194 Y-144.832 Z-4.887
X47.151 Y-144.811 Z-4.935
X47.1 Y-144.786 Z-4.97
X47.043 Y-144.758 Z-4.992
X46.983 Y-144.728 Z-5.
G3 X45.82 Y-144.307 R5.744
G1 X45.754 Y-144.293
X45.631 Y-144.348
X45.537 Y-144.445
X45.467 Y-144.561
X45.423 Y-144.689
X45.399 Y-144.821
X45.394 Y-144.956
X45.409 Y-145.091
X45.441 Y-145.222
X45.487 Y-145.349
X45.546 Y-145.47
X45.619 Y-145.583
X45.705 Y-145.688
X45.799 Y-145.785
X45.902 Y-145.872
X46.013 Y-145.949
X46.131 Y-146.014
X46.255 Y-146.068
X46.383 Y-146.112
X46.514 Y-146.144
X46.647 Y-146.165
X46.783 Y-146.172
X46.92 Y-146.169
X47.054 Y-146.156
X47.187 Y-146.13
X47.316 Y-146.093
X47.451 Y-146.042
X47.577 Y-145.982
X47.694 Y-145.915
X47.804 Y-145.837
X47.908 Y-145.751
X48.013 Y-145.647
X48.104 Y-145.541
X48.184 Y-145.432
X48.254 Y-145.317
X48.314 Y-145.196
X48.37 Y-145.056
X48.412 Y-144.922
X48.441 Y-144.79
X48.46 Y-144.657
X48.467 Y-144.517
X48.462 Y-144.367
X48.447 Y-144.23
X48.421 Y-144.098
X48.385 Y-143.968
X48.334 Y-143.833
X48.271 Y-143.698
X48.202 Y-143.578
X48.126 Y-143.467
X48.041 Y-143.362
X47.938 Y-143.256
X47.827 Y-143.158
X47.718 Y-143.076
X47.604 Y-143.004
X47.484 Y-142.943
X47.345 Y-142.885
X47.206 Y-142.84
X47.075 Y-142.808
X46.941 Y-142.788
X46.806 Y-142.779
X46.656 Y-142.781
X46.513 Y-142.794
X46.38 Y-142.817
X46.249 Y-142.852
X46.091 Y-142.908
X45.834 Y-143.022
X45.635 Y-143.132
X45.457 Y-143.248
X45.315 Y-143.359
X45.181 Y-143.482
X45.065 Y-143.606
X44.964 Y-143.735
X44.872 Y-143.873
X44.796 Y-144.009
X44.73 Y-144.154
X44.677 Y-144.302
X44.636 Y-144.451
X44.607 Y-144.607
X44.59 Y-144.768
X44.586 Y-144.925
X44.594 Y-145.082
X44.616 Y-145.243
X44.652 Y-145.405
X44.7 Y-145.564
X44.761 Y-145.718
X44.835 Y-145.869
X44.923 Y-146.016
X45.023 Y-146.157
X45.136 Y-146.292
X45.261 Y-146.418
X45.396 Y-146.535
X45.54 Y-146.641
X45.696 Y-146.736
X45.861 Y-146.821
X46.036 Y-146.893
X46.216 Y-146.951
X46.401 Y-146.994
X46.589 Y-147.022
X46.782 Y-147.036
X46.978 Y-147.034
X47.173 Y-147.016
X47.366 Y-146.983
X47.556 Y-146.934
X47.745 Y-146.868
X47.929 Y-146.788
X48.107 Y-146.692
X48.276 Y-146.583
X48.436 Y-146.46
X48.588 Y-146.323
X48.729 Y-146.174
X48.858 Y-146.014
X48.973 Y-145.844
X49.074 Y-145.666
X49.161 Y-145.478
X49.233 Y-145.284
X49.29 Y-145.084
X49.33 Y-144.881
X49.353 Y-144.676
X49.36 Y-144.468
X49.35 Y-144.259
X49.324 Y-144.051
X49.281 Y-143.848
X49.222 Y-143.649
X49.147 Y-143.453
X49.055 Y-143.264
X48.95 Y-143.083
X48.83 Y-142.912
X48.698 Y-142.751
X48.552 Y-142.6
X48.393 Y-142.461
X48.224 Y-142.336
X48.048 Y-142.225
X47.863 Y-142.129
X47.669 Y-142.047
X47.468 Y-141.981
X47.263 Y-141.931
X47.058 Y-141.898
X46.844 Y-141.881
X46.607 Y-141.882
X46.363 Y-141.902
X46.115 Y-141.943
X45.866 Y-142.005
X45.623 Y-142.086
X45.388 Y-142.187
X45.163 Y-142.305
X44.951 Y-142.44
X44.752 Y-142.589
X44.568 Y-142.752
X44.4 Y-142.928
X44.248 Y-143.114
X44.112 Y-143.311
X43.992 Y-143.518
X43.89 Y-143.733
X43.806 Y-143.955
X43.74 Y-144.182
X43.692 Y-144.415
X43.663 Y-144.651
X43.653 Y-144.889
X43.662 Y-145.128
X43.691 Y-145.367
X43.739 Y-145.604
X43.806 Y-145.837
X43.892 Y-146.066
X43.997 Y-146.289
X44.12 Y-146.504
X44.261 Y-146.709
X44.419 Y-146.904
X44.594 Y-147.087
X44.784 Y-147.257
X44.989 Y-147.412
X45.207 Y-147.552
X45.437 Y-147.674
X45.678 Y-147.777
X45.982 Y-147.876
X46.058 Y-147.891
X46.371 Y-147.934
X46.74 Y-147.983
X47.683 Y-147.855
X48.558 Y-147.477
X49.291 Y-146.879
X49.803 Y-146.164
X49.84 Y-146.107
X50.16 Y-145.208
X50.225 Y-144.266
X50.027 Y-143.323
X49.591 Y-142.485
X48.961 Y-141.811
X48.86 Y-141.742
X48.154 Y-141.314
X47.784 Y-141.203
X47.212 Y-141.048
X46.276 Y-141.049
X45.361 Y-141.307
X44.553 Y-141.799
X43.919 Y-142.473
X43.871 Y-142.549
X43.476 Y-143.314
X43.432 Y-143.492
X43.275 Y-144.266
X43.342 Y-145.216
X43.636 Y-146.049
X43.666 Y-146.117
X44.209 Y-146.882
X44.927 Y-147.467
X45.765 Y-147.837
X45.832 Y-147.859
X46.058 Y-147.891
X46.088 Y-147.892 Z-4.996
X46.123 Y-147.887 Z-4.98
X46.15 Y-147.883 Z-4.954
X46.168 Y-147.881 Z-4.92
X46.174 Y-147.88 Z-4.882
G0 Z5.
X47.137 Y-104.983
Z-4.4
G1 Z-4.7 F720.
X47.131 Y-104.978 Z-4.767
X47.115 Y-104.963 Z-4.83
X47.088 Y-104.939 Z-4.887
X47.053 Y-104.908 Z-4.935
X47.01 Y-104.87 Z-4.97
X46.963 Y-104.827 Z-4.992
X46.913 Y-104.783 Z-5.
G3 X45.907 Y-104.063 R5.744
G1 X45.847 Y-104.032
X45.714 Y-104.057
X45.597 Y-104.124
X45.5 Y-104.218
X45.422 Y-104.328
X45.363 Y-104.449
X45.324 Y-104.579
X45.302 Y-104.712
X45.296 Y-104.847
X45.306 Y-104.981
X45.333 Y-105.114
X45.373 Y-105.242
X45.426 Y-105.367
X45.491 Y-105.485
X45.568 Y-105.596
X45.655 Y-105.699
X45.751 Y-105.794
X45.855 Y-105.88
X45.966 Y-105.956
X46.085 Y-106.022
X46.212 Y-106.078
X46.339 Y-106.122
X46.47 Y-106.156
X46.603 Y-106.178
X46.738 Y-106.187
X46.88 Y-106.186
X47.015 Y-106.174
X47.148 Y-106.151
X47.278 Y-106.117
X47.411 Y-106.069
X47.543 Y-106.009
X47.662 Y-105.943
X47.774 Y-105.868
X47.88 Y-105.784
X47.985 Y-105.685
X48.083 Y-105.575
X48.164 Y-105.468
X48.237 Y-105.354
X48.3 Y-105.235
X48.359 Y-105.097
X48.404 Y-104.961
X48.436 Y-104.83
X48.457 Y-104.697
X48.467 Y-104.562
X48.466 Y-104.412
X48.454 Y-104.272
X48.432 Y-104.139
X48.399 Y-104.008
X48.354 Y-103.878
X48.293 Y-103.74
X48.226 Y-103.615
X48.153 Y-103.502
X48.07 Y-103.395
X47.973 Y-103.29
X47.862 Y-103.187
X47.753 Y-103.1
X47.64 Y-103.025
X47.522 Y-102.96
X47.387 Y-102.9
X47.248 Y-102.851
X47.116 Y-102.817
X46.983 Y-102.793
X46.849 Y-102.78
X46.699 Y-102.779
X46.548 Y-102.789
X46.263 Y-102.832
X46.042 Y-102.884
X45.844 Y-102.948
X45.674 Y-103.018
X45.51 Y-103.101
X45.365 Y-103.191
X45.233 Y-103.287
X45.109 Y-103.394
X45. Y-103.505
X44.898 Y-103.627
X44.805 Y-103.758
X44.726 Y-103.891
X44.657 Y-104.032
X44.598 Y-104.18
X44.553 Y-104.33
X44.519 Y-104.486
X44.497 Y-104.648
X44.488 Y-104.814
X44.492 Y-104.978
X44.509 Y-105.14
X44.54 Y-105.306
X44.586 Y-105.473
X44.646 Y-105.638
X44.718 Y-105.798
X44.803 Y-105.951
X44.901 Y-106.098
X45.014 Y-106.24
X45.139 Y-106.374
X45.276 Y-106.5
X45.424 Y-106.616
X45.581 Y-106.718
X45.748 Y-106.81
X45.923 Y-106.888
X46.106 Y-106.953
X46.294 Y-107.003
X46.484 Y-107.037
X46.679 Y-107.057
X46.878 Y-107.06
X47.078 Y-107.048
X47.276 Y-107.02
X47.471 Y-106.976
X47.664 Y-106.915
X47.853 Y-106.839
X48.036 Y-106.748
X48.211 Y-106.642
X48.376 Y-106.523
X48.533 Y-106.39
X48.679 Y-106.244
X48.813 Y-106.086
X48.934 Y-105.919
X49.041 Y-105.743
X49.134 Y-105.558
X49.212 Y-105.364
X49.274 Y-105.166
X49.32 Y-104.963
X49.35 Y-104.758
X49.363 Y-104.549
X49.359 Y-104.339
X49.339 Y-104.13
X49.302 Y-103.925
X49.249 Y-103.724
X49.179 Y-103.527
X49.093 Y-103.334
X48.992 Y-103.149
X48.878 Y-102.974
X48.75 Y-102.81
X48.609 Y-102.655
X48.454 Y-102.511
X48.289 Y-102.38
X48.115 Y-102.264
X47.933 Y-102.163
X47.742 Y-102.075
X47.542 Y-102.002
X47.313 Y-101.94
X47.072 Y-101.894
X46.822 Y-101.867
X46.567 Y-101.86
X46.311 Y-101.874
X46.057 Y-101.908
X45.808 Y-101.962
X45.568 Y-102.035
X45.337 Y-102.126
X45.116 Y-102.234
X44.907 Y-102.358
X44.71 Y-102.497
X44.526 Y-102.651
X44.356 Y-102.818
X44.2 Y-102.998
X44.06 Y-103.189
X43.936 Y-103.39
X43.827 Y-103.602
X43.736 Y-103.822
X43.663 Y-104.048
X43.608 Y-104.281
X43.572 Y-104.518
X43.555 Y-104.76
X43.557 Y-105.003
X43.579 Y-105.247
X43.62 Y-105.489
X43.682 Y-105.729
X43.763 Y-105.964
X43.863 Y-106.195
X43.982 Y-106.418
X44.12 Y-106.632
X44.276 Y-106.836
X44.449 Y-107.029
X44.638 Y-107.208
X44.842 Y-107.372
X45.106 Y-107.547
X45.173 Y-107.58
X45.495 Y-107.72
X45.798 Y-107.85
X46.74 Y-107.983
X47.683 Y-107.854
X48.393 Y-107.551
X48.558 Y-107.477
X49.294 Y-106.878
X49.833 Y-106.117
X49.905 Y-105.936
X50.163 Y-105.196
X50.224 Y-104.254
X50.036 Y-103.345
X49.603 Y-102.504
X48.995 Y-101.844
X48.896 Y-101.763
X48.154 Y-101.313
X47.649 Y-101.165
X47.212 Y-101.048
X46.269 Y-101.05
X45.361 Y-101.307
X44.553 Y-101.798
X43.911 Y-102.484
X43.464 Y-103.346
X43.276 Y-104.254
X43.342 Y-105.217
X43.66 Y-106.104
X44.206 Y-106.878
X44.934 Y-107.472
X45.173 Y-107.58
X45.209 Y-107.587 Z-4.994
X45.242 Y-107.593 Z-4.977
X45.267 Y-107.598 Z-4.95
X45.283 Y-107.601 Z-4.917
X45.289 Z-4.882
G0 Z5.
X56.137 Y-85.249
Z-4.4
G1 Z-4.7 F720.
X56.145 Y-85.251 Z-4.767
X56.166 Y-85.257 Z-4.83
X56.201 Y-85.266 Z-4.887
X56.247 Y-85.277 Z-4.935
X56.302 Y-85.292 Z-4.97
X56.363 Y-85.307 Z-4.992
X56.428 Y-85.324 Z-5.
G3 X57.653 Y-85.5 R5.744
G1 X57.72
X57.843 Y-85.443
X57.927 Y-85.337
X57.977 Y-85.212
X58.004 Y-85.08
X58.006 Y-84.945
X57.987 Y-84.811
X57.951 Y-84.681
X57.898 Y-84.557
X57.831 Y-84.44
X57.749 Y-84.332
X57.658 Y-84.233
X57.556 Y-84.144
X57.446 Y-84.066
X57.328 Y-84.
X57.205 Y-83.945
X57.077 Y-83.901
X56.946 Y-83.869
X56.812 Y-83.85
X56.678 Y-83.844
X56.543 Y-83.848
X56.408 Y-83.864
X56.276 Y-83.891
X56.147 Y-83.93
X56.014 Y-83.984
X55.893 Y-84.044
X55.777 Y-84.113
X55.668 Y-84.193
X55.566 Y-84.281
X55.463 Y-84.388
X55.376 Y-84.492
X55.298 Y-84.603
X55.23 Y-84.72
X55.17 Y-84.848
X55.119 Y-84.985
X55.081 Y-85.116
X55.055 Y-85.248
X55.04 Y-85.382
X55.036 Y-85.528
X55.043 Y-85.672
X55.061 Y-85.809
X55.09 Y-85.94
X55.129 Y-86.07
X55.185 Y-86.209
X55.25 Y-86.339
X55.319 Y-86.454
X55.398 Y-86.564
X55.486 Y-86.667
X55.593 Y-86.772
X55.703 Y-86.866
X55.813 Y-86.944
X55.929 Y-87.013
X56.053 Y-87.074
X56.194 Y-87.129
X56.329 Y-87.169
X56.461 Y-87.198
X56.595 Y-87.215
X56.737 Y-87.222
X56.887 Y-87.216
X57.025 Y-87.2
X57.158 Y-87.174
X57.287 Y-87.137
X57.425 Y-87.084
X57.559 Y-87.02
X57.678 Y-86.951
X57.884 Y-86.809
X58.067 Y-86.66
X58.225 Y-86.507
X58.353 Y-86.364
X58.463 Y-86.216
X58.557 Y-86.069
X58.632 Y-85.925
X58.697 Y-85.773
X58.748 Y-85.622
X58.786 Y-85.469
X58.812 Y-85.309
X58.825 Y-85.155
Y-84.999
X58.812 Y-84.841
X58.787 Y-84.684
X58.75 Y-84.53
X58.699 Y-84.376
X58.635 Y-84.224
X58.559 Y-84.08
X58.472 Y-83.941
X58.372 Y-83.806
X58.258 Y-83.677
X58.132 Y-83.555
X57.998 Y-83.444
X57.855 Y-83.345
X57.702 Y-83.256
X57.539 Y-83.177
X57.368 Y-83.112
X57.191 Y-83.059
X57.009 Y-83.021
X56.822 Y-82.997
X56.632 Y-82.988
X56.44 Y-82.995
X56.248 Y-83.017
X56.06 Y-83.054
X55.874 Y-83.107
X55.689 Y-83.176
X55.509 Y-83.259
X55.336 Y-83.358
X55.171 Y-83.469
X55.015 Y-83.595
X54.868 Y-83.734
X54.732 Y-83.885
X54.608 Y-84.047
X54.498 Y-84.217
X54.402 Y-84.397
X54.319 Y-84.586
X54.252 Y-84.782
X54.201 Y-84.982
X54.166 Y-85.184
X54.147 Y-85.39
X54.145 Y-85.598
X54.16 Y-85.806
X54.191 Y-86.012
X54.238 Y-86.213
X54.302 Y-86.411
X54.382 Y-86.604
X54.477 Y-86.791
X54.587 Y-86.969
X54.709 Y-87.136
X54.846 Y-87.294
X54.996 Y-87.442
X55.157 Y-87.577
X55.328 Y-87.698
X55.507 Y-87.804
X55.695 Y-87.896
X55.891 Y-87.974
X56.093 Y-88.035
X56.298 Y-88.08
X56.504 Y-88.108
X56.713 Y-88.119
X56.925 Y-88.114
X57.135 Y-88.091
X57.361 Y-88.049
X57.595 Y-87.985
X57.829 Y-87.9
X58.06 Y-87.795
X58.283 Y-87.67
X58.497 Y-87.528
X58.697 Y-87.37
X58.881 Y-87.198
X59.05 Y-87.014
X59.201 Y-86.82
X59.335 Y-86.616
X59.451 Y-86.403
X59.549 Y-86.184
X59.629 Y-85.959
X59.699 Y-85.668
X59.704 Y-85.585
X59.701 Y-85.072
X59.463 Y-84.264
X59.002 Y-83.547
X58.383 Y-83.007
X58.148 Y-82.891
X57.576 Y-82.636
X56.768 Y-82.52
X56.398 Y-82.566
X55.938 Y-82.633
X55.86 Y-82.659
X55.156 Y-82.982
X54.908 Y-83.187
X54.486 Y-83.561
X54.037 Y-84.264
X53.799 Y-85.072
X53.798 Y-85.913
X54.02 Y-86.687
X54.046 Y-86.755
X54.489 Y-87.442
X54.783 Y-87.704
X55.152 Y-88.016
X55.893 Y-88.355
X56.264 Y-88.415
X56.735 Y-88.481
X57.08 Y-88.437
X57.576 Y-88.364
X58.314 Y-88.033
X58.366 Y-88.005
X58.994 Y-87.461
X59.412 Y-86.822
X59.469 Y-86.721
X59.696 Y-85.947
X59.704 Y-85.88
Y-85.585
X59.696 Y-85.55 Z-4.994
X59.688 Y-85.518 Z-4.977
X59.682 Y-85.493 Z-4.951
X59.679 Y-85.477 Z-4.918
X59.677 Y-85.471 Z-4.882
G0 Z5.
X56.911 Y-53.27
Z-4.4
G1 Z-4.7 F720.
X56.91 Y-53.278 Z-4.767
X56.908 Y-53.3 Z-4.83
X56.904 Y-53.336 Z-4.887
X56.899 Y-53.383 Z-4.935
X56.893 Y-53.439 Z-4.97
X56.886 Y-53.502 Z-4.992
X56.878 Y-53.569 Z-5.
G3 Y-54.394 R3.829
G1 X56.888 Y-54.461
X56.959 Y-54.575
X57.077 Y-54.64
X57.208 Y-54.675
X57.343 Y-54.682
X57.476 Y-54.664
X57.607 Y-54.628
X57.73 Y-54.574
X57.845 Y-54.503
X57.951 Y-54.419
X58.048 Y-54.325
X58.133 Y-54.22
X58.206 Y-54.107
X58.267 Y-53.986
X58.317 Y-53.861
X58.354 Y-53.731
X58.379 Y-53.599
X58.391 Y-53.464
Y-53.329
X58.38 Y-53.194
X58.357 Y-53.061
X58.321 Y-52.931
X58.273 Y-52.8
X58.216 Y-52.677
X58.15 Y-52.56
X58.073 Y-52.448
X57.987 Y-52.344
X57.886 Y-52.241
X57.781 Y-52.15
X57.673 Y-52.07
X57.558 Y-51.999
X57.437 Y-51.939
X57.299 Y-51.884
X57.166 Y-51.842
X57.034 Y-51.813
X56.901 Y-51.794
X56.76 Y-51.787
X56.612 Y-51.792
X56.476 Y-51.807
X56.344 Y-51.832
X56.214 Y-51.869
X56.077 Y-51.921
X55.944 Y-51.983
X55.825 Y-52.051
X55.714 Y-52.128
X55.61 Y-52.213
X55.502 Y-52.317
X55.407 Y-52.425
X55.325 Y-52.535
X55.254 Y-52.649
X55.192 Y-52.769
X55.134 Y-52.908
X55.09 Y-53.046
X55.059 Y-53.178
X55.038 Y-53.311
X55.029 Y-53.447
X55.031 Y-53.598
X55.045 Y-53.738
X55.068 Y-53.871
X55.102 Y-54.002
X55.149 Y-54.133
X55.211 Y-54.273
X55.279 Y-54.396
X55.353 Y-54.508
X55.436 Y-54.615
X55.622 Y-54.814
X55.798 Y-54.974
X55.972 Y-55.11
X56.131 Y-55.214
X56.291 Y-55.301
X56.448 Y-55.371
X56.602 Y-55.425
X56.764 Y-55.468
X56.922 Y-55.496
X57.077 Y-55.511
X57.236 Y-55.514
X57.391 Y-55.504
X57.545 Y-55.482
X57.702 Y-55.446
X57.855 Y-55.398
X58. Y-55.339
X58.144 Y-55.267
X58.284 Y-55.182
X58.418 Y-55.085
X58.544 Y-54.977
X58.663 Y-54.859
X58.773 Y-54.729
X58.874 Y-54.589
X58.964 Y-54.439
X59.043 Y-54.281
X59.11 Y-54.116
X59.163 Y-53.944
X59.203 Y-53.768
X59.229 Y-53.585
X59.241 Y-53.398
X59.237 Y-53.208
X59.218 Y-53.019
X59.184 Y-52.832
X59.135 Y-52.646
X59.07 Y-52.463
X58.99 Y-52.284
X58.895 Y-52.111
X58.788 Y-51.948
X58.667 Y-51.792
X58.531 Y-51.644
X58.383 Y-51.507
X58.224 Y-51.381
X58.056 Y-51.269
X57.879 Y-51.171
X57.692 Y-51.086
X57.499 Y-51.016
X57.301 Y-50.962
X57.1 Y-50.924
X56.895 Y-50.903
X56.687 Y-50.897
X56.48 Y-50.909
X56.274 Y-50.937
X56.072 Y-50.981
X55.874 Y-51.042
X55.68 Y-51.118
X55.492 Y-51.211
X55.313 Y-51.317
X55.144 Y-51.438
X54.984 Y-51.571
X54.835 Y-51.719
X54.697 Y-51.878
X54.573 Y-52.047
X54.465 Y-52.224
X54.37 Y-52.41
X54.29 Y-52.605
X54.225 Y-52.805
X54.177 Y-53.01
X54.146 Y-53.216
X54.132 Y-53.424
X54.134 Y-53.636
X54.153 Y-53.846
X54.189 Y-54.053
X54.241 Y-54.255
X54.316 Y-54.473
X54.414 Y-54.696
X54.532 Y-54.916
X54.67 Y-55.13
X54.826 Y-55.333
X54.998 Y-55.524
X55.183 Y-55.699
X55.379 Y-55.856
X55.586 Y-55.996
X55.8 Y-56.118
X56.022 Y-56.221
X56.248 Y-56.305
X56.479 Y-56.37
X56.713 Y-56.416
X57.002 Y-56.443
X57.084 Y-56.437
X57.576 Y-56.363
X58.283 Y-56.048
X58.378 Y-55.997
X58.998 Y-55.458
X59.455 Y-54.752
X59.629 Y-54.182
X59.702 Y-53.91
X59.699 Y-53.069
X59.461 Y-52.261
X59.008 Y-51.555
X58.394 Y-51.016
X58.339 Y-50.978
X57.576 Y-50.636
X56.768 Y-50.52
X56.398 Y-50.566
X55.893 Y-50.645
X55.146 Y-50.987
X54.514 Y-51.531
X54.379 Y-51.725
X54.038 Y-52.261
X53.801 Y-53.069
X53.798 Y-53.91
X53.93 Y-54.381
X54.045 Y-54.752
X54.503 Y-55.458
X55.123 Y-55.997
X55.321 Y-56.095
X55.893 Y-56.355
X56.264 Y-56.415
X56.735 Y-56.481
X57.084 Y-56.437
X57.118 Y-56.423 Z-4.994
X57.148 Y-56.411 Z-4.977
X57.172 Y-56.402 Z-4.951
X57.188 Y-56.396 Z-4.918
X57.193 Y-56.394 Z-4.882
G0 Z5.
X70.356 Y-144.977
Z-4.4
G1 Z-4.7 F720.
X70.36 Y-144.97 Z-4.767
X70.371 Y-144.951 Z-4.83
X70.389 Y-144.92 Z-4.887
X70.413 Y-144.879 Z-4.935
X70.441 Y-144.83 Z-4.97
X70.473 Y-144.775 Z-4.992
X70.506 Y-144.717 Z-5.
G3 X71.006 Y-143.585 R5.744
G1 X71.025 Y-143.52
X70.978 Y-143.394
X70.886 Y-143.294
X70.776 Y-143.217
X70.652 Y-143.163
X70.521 Y-143.131
X70.387 Y-143.117
X70.252 Y-143.121
X70.119 Y-143.144
X69.989 Y-143.182
X69.864 Y-143.234
X69.746 Y-143.298
X69.635 Y-143.376
X69.533 Y-143.464
X69.439 Y-143.561
X69.355 Y-143.667
X69.281 Y-143.78
X69.219 Y-143.9
X69.168 Y-144.025
X69.126 Y-144.153
X69.096 Y-144.285
X69.079 Y-144.419
X69.073 Y-144.555
X69.079 Y-144.694
X69.095 Y-144.828
X69.122 Y-144.96
X69.161 Y-145.09
X69.216 Y-145.225
X69.277 Y-145.348
X69.346 Y-145.464
X69.425 Y-145.574
X69.514 Y-145.676
X69.62 Y-145.78
X69.726 Y-145.87
X69.837 Y-145.948
X69.953 Y-146.016
X70.079 Y-146.077
X70.218 Y-146.13
X70.351 Y-146.168
X70.483 Y-146.196
X70.617 Y-146.212
X70.76 Y-146.217
X70.908 Y-146.21
X71.044 Y-146.193
X71.177 Y-146.166
X71.306 Y-146.127
X71.444 Y-146.073
X71.576 Y-146.009
X71.692 Y-145.94
X71.802 Y-145.862
X71.905 Y-145.775
X72.012 Y-145.669
X72.106 Y-145.56
X72.186 Y-145.45
X72.256 Y-145.335
X72.316 Y-145.214
X72.373 Y-145.073
X72.415 Y-144.937
X72.445 Y-144.805
X72.464 Y-144.671
X72.471 Y-144.533
X72.468 Y-144.382
X72.453 Y-144.242
X72.428 Y-144.11
X72.388 Y-143.965
X72.293 Y-143.703
X72.196 Y-143.492
X72.092 Y-143.305
