(__2)
(T1  D=3. CR=0. - ZMIN=-10. - FLAT END MILL)
G90 G94 G91.1 G40 G49 G17
G21

(2D ADAPTIVE3)
M5
M9
T1
S10000 M3
G54
M8
G0 X43.128 Y152.143
G43 Z10. H1
Z5.
Z0.845
G1 Z0.545 F720.
G3 X42.154 Y152.368 Z0.268 R0.5
X43.128 Y152.143 Z-0.009 R0.5
X42.154 Y152.368 Z-0.286 R0.5
X43.128 Y152.143 Z-0.563 R0.5
X42.154 Y152.368 Z-0.84 R0.5
X43.128 Y152.143 Z-1.117 R0.5
X42.154 Y152.368 Z-1.394 R0.5
X43.128 Y152.143 Z-1.671 R0.5
X42.154 Y152.368 Z-1.948 R0.5
X43.128 Y152.143 Z-2.225 R0.5
X42.154 Y152.368 Z-2.502 R0.5
X43.128 Y152.143 Z-2.779 R0.5
X42.154 Y152.368 Z-3.056 R0.5
X43.128 Y152.143 Z-3.333 R0.5
X42.154 Y152.368 Z-3.61 R0.5
X43.128 Y152.143 Z-3.887 R0.5
X42.154 Y152.368 Z-4.164 R0.5
X43.128 Y152.143 Z-4.441 R0.5
X42.154 Y152.368 Z-4.718 R0.5
X43.128 Y152.143 Z-4.994 R0.5
X42.154 Y152.368 Z-5.271 R0.5
X43.128 Y152.143 Z-5.548 R0.5
X42.154 Y152.368 Z-5.825 R0.5
X43.128 Y152.143 Z-6.102 R0.5
X42.154 Y152.368 Z-6.379 R0.5
X43.128 Y152.143 Z-6.656 R0.5
X42.154 Y152.368 Z-6.933 R0.5
X43.128 Y152.143 Z-7.21 R0.5
X42.154 Y152.368 Z-7.487 R0.5
X43.128 Y152.143 Z-7.764 R0.5
X42.154 Y152.368 Z-8.041 R0.5
X43.128 Y152.143 Z-8.318 R0.5
X42.154 Y152.368 Z-8.595 R0.5
X43.128 Y152.143 Z-8.872 R0.5
X42.154 Y152.368 Z-9.149 R0.5
X43.128 Y152.143 Z-9.426 R0.5
X42.154 Y152.368 Z-9.703 R0.5
X42.584 Y151.758 Z-9.852 R0.5
X43.141 Y152.255 Z-10. R0.5
X42.141 R0.5
X43.141 R0.5
G1 X43.174 Y152.598
X43.146 Y152.751
X43.06 Y152.882
X42.931 Y152.969
X42.778 Y153.
X42.398
X42.264 Y152.993
X42.132 Y152.962
X41.961 Y152.848
X41.83 Y152.688
X41.754 Y152.497
X41.737 Y152.291
X41.783 Y152.09
X41.886 Y151.911
X42.038 Y151.771
X42.143 Y151.7
X42.302 Y151.565
X42.332 Y151.533
X42.426 Y151.436
X42.546 Y151.375
X42.751 Y151.348
X42.955 Y151.382
X43.14 Y151.475
X43.289 Y151.618
X43.391 Y151.798
X43.435 Y152.
X43.418 Y152.206
X43.272 Y152.81
X43.235 Y152.875
X43.17 Y152.938
X43.071 Y152.987
X42.967 Y153.
X42.778
G3 X42.664 Y152.973 R0.3
X42.496 Y152.768 R0.3
G1 X42.271 Y151.791
G3 X42.332 Y151.533 R0.3
G1 X42.422 Y151.431
X42.533 Y151.27
X42.606 Y151.157
X42.713 Y151.074
X42.837 Y151.019
X43.033 Y151.012
X43.22 Y151.07
X43.378 Y151.185
X43.489 Y151.346
X43.542 Y151.535
X43.529 Y151.73
X43.418 Y152.206
G3 X43.366 Y152.311 R0.3
X42.855 Y152.251 R0.3
G1 X42.528 Y151.529
G3 X42.533 Y151.27 R0.3
G1 X42.593 Y151.162
X42.661 Y151.002
X42.709 Y150.876
X42.798 Y150.774
X42.91 Y150.699
X43.101 Y150.668
X43.29 Y150.705
X43.455 Y150.806
X43.574 Y150.959
X43.632 Y151.143
X43.622 Y151.336
X43.529 Y151.73
G3 X43.235 Y151.917 R0.259
X42.661 Y151.002 R0.727
G1 X42.748 Y150.684
X42.785 Y150.554
X42.867 Y150.447
X42.974 Y150.365
X43.165 Y150.321
X43.358 Y150.349
X43.529 Y150.445
X43.653 Y150.596
X43.715 Y150.781
X43.706 Y150.977
X43.622 Y151.336
G3 X43.566 Y151.438 R0.246
X43.357 Y151.516 R0.246
X42.735 Y150.801 R0.701
X42.748 Y150.684 R0.701
G1 X42.834 Y150.313
X42.872 Y150.183
X42.959 Y150.08
X43.069 Y150.002
X43.259 Y149.963
X43.45 Y149.994
X43.617 Y150.09
X43.739 Y150.241
X43.799 Y150.424
X43.79 Y150.618
X43.706 Y150.977
G3 X43.65 Y151.079 R0.246
X43.434 Y151.156 R0.246
X42.834 Y150.313 R0.712
G1 X42.913 Y149.977
X42.95 Y149.848
X43.033 Y149.741
X43.139 Y149.658
X43.33 Y149.613
X43.523 Y149.64
X43.694 Y149.735
X43.819 Y149.885
X43.882 Y150.07
X43.873 Y150.265
X43.79 Y150.618
G3 X43.531 Y150.799 R0.246
X42.913 Y149.977 R0.69
G1 X42.992 Y149.64
X43.03 Y149.51
X43.108 Y149.401
X43.213 Y149.315
X43.403 Y149.266
X43.599 Y149.29
X43.772 Y149.383
X43.899 Y149.534
X43.963 Y149.72
X43.954 Y149.917
X43.873 Y150.265
G3 X43.816 Y150.368 R0.247
X43.623 Y150.447 R0.247
X42.992 Y149.64 R0.676
G1 X43.077 Y149.277
X43.115 Y149.147
X43.197 Y149.04
X43.304 Y148.958
X43.494 Y148.913
X43.688 Y148.939
X43.858 Y149.034
X43.984 Y149.184
X44.046 Y149.369
X44.037 Y149.564
X43.954 Y149.917
G3 X43.696 Y150.098 R0.246
X43.064 Y149.394 R0.689
X43.077 Y149.277 R0.689
G1 X43.158 Y148.934
X43.195 Y148.804
X43.275 Y148.696
X43.381 Y148.611
X43.571 Y148.564
X43.766 Y148.589
X43.938 Y148.682
X44.065 Y148.833
X44.128 Y149.018
X44.119 Y149.214
X44.037 Y149.564
G3 X43.981 Y149.666 R0.247
X43.784 Y149.746 R0.247
X43.158 Y148.934 R0.681
G1 X43.245 Y148.563
X43.282 Y148.434
X43.367 Y148.329
X43.476 Y148.249
X43.665 Y148.207
X43.858 Y148.235
X44.027 Y148.331
X44.15 Y148.481
X44.211 Y148.665
X44.202 Y148.859
X44.119 Y149.214
G3 X44.063 Y149.317 R0.246
X43.854 Y149.395 R0.246
X43.245 Y148.563 R0.7
G1 X43.323 Y148.228
X43.361 Y148.098
X43.441 Y147.989
X43.547 Y147.905
X43.737 Y147.858
X43.932 Y147.883
X44.104 Y147.977
X44.23 Y148.128
X44.293 Y148.313
X44.284 Y148.509
X44.202 Y148.859
G3 X43.948 Y149.041 R0.247
X43.323 Y148.228 R0.682
G1 X43.409 Y147.862
X43.446 Y147.732
X43.53 Y147.627
X43.639 Y147.546
X43.828 Y147.503
X44.021 Y147.531
X44.191 Y147.626
X44.315 Y147.776
X44.376 Y147.961
X44.367 Y148.155
X44.284 Y148.509
G3 X44.021 Y148.69 R0.246
X43.409 Y147.862 R0.696
G1 X43.487 Y147.527
X43.525 Y147.397
X43.604 Y147.288
X43.709 Y147.203
X43.9 Y147.155
X44.095 Y147.18
X44.268 Y147.273
X44.394 Y147.424
X44.458 Y147.61
X44.449 Y147.806
X44.367 Y148.155
G3 X44.116 Y148.337 R0.247
X43.475 Y147.644 R0.679
X43.487 Y147.527 R0.679
G1 X43.576 Y147.151
X43.613 Y147.021
X43.699 Y146.917
X43.808 Y146.838
X43.998 Y146.797
X44.19 Y146.826
X44.358 Y146.922
X44.481 Y147.072
X44.542 Y147.256
X44.533 Y147.45
X44.449 Y147.806
G3 X44.182 Y147.986 R0.246
X43.576 Y147.151 R0.704
G1 X43.655 Y146.813
X43.692 Y146.684
X43.774 Y146.576
X43.88 Y146.493
X44.07 Y146.447
X44.264 Y146.473
X44.436 Y146.567
X44.561 Y146.718
X44.624 Y146.903
X44.615 Y147.099
X44.533 Y147.45
G3 X44.276 Y147.631 R0.246
X43.655 Y146.813 R0.686
G1 X43.74 Y146.45
X43.777 Y146.321
X43.861 Y146.215
X43.97 Y146.135
X44.16 Y146.092
X44.352 Y146.12
X44.522 Y146.215
X44.645 Y146.365
X44.707 Y146.55
X44.698 Y146.744
X44.615 Y147.099
G3 X44.559 Y147.201 R0.246
X44.352 Y147.279 R0.246
X43.74 Y146.45 R0.697
G1 X43.82 Y146.107
X43.858 Y145.977
X43.939 Y145.87
X44.046 Y145.787
X44.236 Y145.741
X44.43 Y145.767
X44.601 Y145.862
X44.727 Y146.012
X44.789 Y146.197
X44.78 Y146.393
X44.698 Y146.744
G3 X44.642 Y146.846 R0.246
X44.441 Y146.925 R0.246
X43.82 Y146.107 R0.687
G1 X43.907 Y145.737
X43.944 Y145.607
X44.03 Y145.503
X44.14 Y145.424
X44.329 Y145.383
X44.521 Y145.412
X44.689 Y145.509
X44.812 Y145.659
X44.873 Y145.843
X44.864 Y146.037
X44.78 Y146.393
G3 X44.513 Y146.573 R0.246
X43.907 Y145.737 R0.705
G1 X43.986 Y145.401
X44.023 Y145.271
X44.105 Y145.163
X44.21 Y145.08
X44.401 Y145.034
X44.595 Y145.06
X44.767 Y145.154
X44.892 Y145.304
X44.955 Y145.49
X44.946 Y145.686
X44.864 Y146.037
G3 X44.608 Y146.218 R0.246
X43.973 Y145.518 R0.686
X43.986 Y145.401 R0.686
G1 X44.071 Y145.035
X44.109 Y144.906
X44.194 Y144.8
X44.302 Y144.72
X44.492 Y144.678
X44.684 Y144.706
X44.853 Y144.802
X44.977 Y144.952
X45.038 Y145.136
X45.029 Y145.331
X44.946 Y145.686
G3 X44.682 Y145.866 R0.246
X44.071 Y145.035 R0.699
G1 X44.15 Y144.701
X44.187 Y144.571
X44.267 Y144.462
X44.372 Y144.377
X44.563 Y144.33
X44.758 Y144.355
X44.93 Y144.449
X45.057 Y144.599
X45.12 Y144.785
X45.111 Y144.981
X45.029 Y145.331
G3 X44.777 Y145.512 R0.247
X44.137 Y144.818 R0.681
X44.15 Y144.701 R0.681
G1 X44.238 Y144.324
X44.275 Y144.194
X44.362 Y144.09
X44.527 Y144.011
X44.709 Y143.992
X44.887 Y144.036
X45.04 Y144.138
X45.148 Y144.286
X45.201 Y144.462
X45.19 Y144.645
X45.111 Y144.981
G3 X45.055 Y145.083 R0.246
X44.843 Y145.161 R0.246
X44.225 Y144.441 R0.705
X44.238 Y144.324 R0.705
G1 X44.317 Y143.987
X44.355 Y143.857
X44.441 Y143.753
X44.55 Y143.674
X44.74 Y143.634
X44.931 Y143.665
X45.099 Y143.762
X45.222 Y143.913
X45.282 Y144.097
X45.273 Y144.291
X45.19 Y144.645
G3 X44.922 Y144.824 R0.246
X44.304 Y144.104 R0.706
X44.317 Y143.987 R0.706
G1 X44.396 Y143.651
X44.433 Y143.521
X44.515 Y143.414
X44.621 Y143.331
X44.812 Y143.285
X45.006 Y143.312
X45.177 Y143.407
X45.302 Y143.557
X45.365 Y143.743
X45.356 Y143.938
X45.273 Y144.291
G3 X45.217 Y144.393 R0.246
X45.014 Y144.472 R0.246
X44.396 Y143.651 R0.69
G1 X44.482 Y143.285
X44.519 Y143.156
X44.604 Y143.051
X44.713 Y142.971
X44.903 Y142.929
X45.095 Y142.958
X45.264 Y143.054
X45.387 Y143.204
X45.448 Y143.388
X45.439 Y143.582
X45.356 Y143.938
G3 X45.299 Y144.04 R0.246
X45.09 Y144.118 R0.246
X44.469 Y143.402 R0.701
X44.482 Y143.285 R0.701
G1 X44.56 Y142.951
X44.597 Y142.821
X44.678 Y142.712
X44.783 Y142.628
X44.974 Y142.581
X45.168 Y142.606
X45.34 Y142.7
X45.467 Y142.85
X45.53 Y143.036
X45.521 Y143.232
X45.439 Y143.582
G3 X45.383 Y143.684 R0.247
X45.185 Y143.764 R0.247
X44.56 Y142.951 R0.682
G1 X44.64 Y142.607
X44.678 Y142.478
X44.757 Y142.368
X44.861 Y142.283
X45.052 Y142.233
X45.247 Y142.257
X45.42 Y142.35
X45.548 Y142.501
X45.611 Y142.687
X45.603 Y142.883
X45.521 Y143.232
G3 X45.271 Y143.414 R0.247
X44.628 Y142.724 R0.676
X44.64 Y142.607 R0.676
G1 X44.727 Y142.237
X44.765 Y142.107
X44.849 Y142.002
X44.957 Y141.921
X45.147 Y141.877
X45.339 Y141.905
X45.509 Y142.
X45.633 Y142.15
X45.695 Y142.335
X45.686 Y142.529
X45.603 Y142.883
G3 X45.341 Y143.064 R0.246
X44.727 Y142.237 R0.696
G1 X44.806 Y141.901
X44.843 Y141.771
X44.923 Y141.662
X45.028 Y141.578
X45.219 Y141.529
X45.414 Y141.554
X45.586 Y141.648
X45.713 Y141.798
X45.776 Y141.984
X45.768 Y142.18
X45.686 Y142.529
G3 X45.629 Y142.632 R0.247
X45.434 Y142.711 R0.247
X44.793 Y142.018 R0.679
X44.806 Y141.901 R0.679
G1 X44.893 Y141.531
X44.93 Y141.401
X45.015 Y141.296
X45.124 Y141.216
X45.313 Y141.173
X45.506 Y141.201
X45.675 Y141.297
X45.798 Y141.447
X45.86 Y141.631
X45.851 Y141.825
X45.768 Y142.18
G3 X45.504 Y142.361 R0.246
X44.893 Y141.531 R0.699
G1 X44.97 Y141.201
X45.007 Y141.071
X45.086 Y140.961
X45.19 Y140.876
X45.381 Y140.827
X45.577 Y140.85
X45.75 Y140.944
X45.877 Y141.094
X45.941 Y141.281
X45.932 Y141.477
X45.851 Y141.825
G3 X45.794 Y141.928 R0.247
X45.601 Y142.007 R0.247
X44.957 Y141.318 R0.676
X44.97 Y141.201 R0.676
G1 X45.058 Y140.824
X45.096 Y140.695
X45.181 Y140.59
X45.29 Y140.511
X45.48 Y140.469
X45.672 Y140.497
X45.841 Y140.593
X45.964 Y140.743
X46.025 Y140.928
X46.016 Y141.121
X45.932 Y141.477
G3 X45.667 Y141.657 R0.246
X45.058 Y140.824 R0.702
G1 X45.137 Y140.487
X45.175 Y140.357
X45.256 Y140.249
X45.362 Y140.166
X45.552 Y140.119
X45.746 Y140.145
X45.918 Y140.239
X46.044 Y140.39
X46.107 Y140.575
X46.098 Y140.771
X46.016 Y141.121
G3 X45.76 Y141.303 R0.246
X45.125 Y140.604 R0.685
X45.137 Y140.487 R0.685
G1 X45.223 Y140.124
X45.26 Y139.994
X45.344 Y139.889
X45.452 Y139.808
X45.642 Y139.764
X45.835 Y139.792
X46.004 Y139.887
X46.128 Y140.038
X46.19 Y140.222
X46.181 Y140.417
X46.098 Y140.771
G3 X45.836 Y140.952 R0.246
X45.223 Y140.124 R0.696
G1 X45.303 Y139.781
X45.34 Y139.651
X45.422 Y139.543
X45.528 Y139.46
X45.718 Y139.414
X45.912 Y139.44
X46.084 Y139.534
X46.209 Y139.685
X46.272 Y139.87
X46.263 Y140.066
X46.181 Y140.417
G3 X45.925 Y140.598 R0.246
X45.29 Y139.898 R0.686
X45.303 Y139.781 R0.686
G1 X45.39 Y139.41
X45.427 Y139.281
X45.513 Y139.176
X45.622 Y139.097
X45.812 Y139.056
X46.004 Y139.085
X46.172 Y139.182
X46.295 Y139.332
X46.356 Y139.516
X46.347 Y139.71
X46.263 Y140.066
G3 X45.996 Y140.246 R0.246
X45.39 Y139.41 R0.704
G1 X45.469 Y139.074
X45.506 Y138.945
X45.587 Y138.837
X45.693 Y138.753
X45.883 Y138.707
X46.078 Y138.733
X46.249 Y138.827
X46.375 Y138.977
X46.438 Y139.163
X46.429 Y139.359
X46.347 Y139.71
G3 X46.29 Y139.812 R0.247
X46.091 Y139.891 R0.246
X45.469 Y139.074 R0.685
G1 X45.554 Y138.709
X45.592 Y138.579
X45.676 Y138.474
X45.785 Y138.394
X45.974 Y138.351
X46.167 Y138.379
X46.336 Y138.475
X46.46 Y138.625
X46.521 Y138.81
X46.512 Y139.004
X46.429 Y139.359
G3 X46.165 Y139.539 R0.246
X45.554 Y138.709 R0.699
G1 X45.633 Y138.374
X45.67 Y138.244
X45.75 Y138.136
X45.855 Y138.051
X46.046 Y138.003
X46.24 Y138.028
X46.413 Y138.122
X46.539 Y138.272
X46.603 Y138.458
X46.594 Y138.654
X46.512 Y139.004
G3 X46.26 Y139.185 R0.247
X45.62 Y138.491 R0.68
X45.633 Y138.374 R0.68
G1 X45.721 Y137.998
X45.758 Y137.868
X45.844 Y137.764
X46.01 Y137.684
X46.192 Y137.665
X46.37 Y137.71
X46.522 Y137.812
X46.631 Y137.959
X46.683 Y138.135
X46.673 Y138.318
X46.594 Y138.654
G3 X46.326 Y138.834 R0.246
X45.708 Y138.115 R0.705
X45.721 Y137.998 R0.705
G1 X45.8 Y137.66
X45.837 Y137.531
X45.923 Y137.427
X46.033 Y137.347
X46.223 Y137.308
X46.414 Y137.338
X46.582 Y137.436
X46.705 Y137.586
X46.765 Y137.771
X46.756 Y137.964
X46.673 Y138.318
G3 X46.405 Y138.498 R0.246
X45.787 Y137.777 R0.706
X45.8 Y137.66 R0.706
G1 X45.879 Y137.325
X45.916 Y137.195
X45.998 Y137.087
X46.104 Y137.004
X46.294 Y136.959
X46.488 Y136.985
X46.66 Y137.08
X46.785 Y137.231
X46.847 Y137.416
X46.838 Y137.611
X46.756 Y137.964
G3 X46.497 Y138.145 R0.246
X45.879 Y137.325 R0.689
G1 X45.964 Y136.959
X46.002 Y136.829
X46.087 Y136.725
X46.196 Y136.645
X46.385 Y136.603
X46.577 Y136.631
X46.746 Y136.727
X46.87 Y136.877
X46.931 Y137.062
X46.922 Y137.256
X46.838 Y137.611
G3 X46.573 Y137.792 R0.246
X45.964 Y136.959 R0.701
G1 X46.043 Y136.624
X46.08 Y136.495
X46.16 Y136.386
X46.266 Y136.302
X46.456 Y136.254
X46.651 Y136.28
X46.823 Y136.374
X46.949 Y136.524
X47.013 Y136.71
X47.004 Y136.906
X46.922 Y137.256
G3 X46.668 Y137.437 R0.247
X46.03 Y136.741 R0.682
X46.043 Y136.624 R0.682
G1 X46.123 Y136.281
X46.161 Y136.151
X46.239 Y136.042
X46.344 Y135.956
X46.534 Y135.907
X46.73 Y135.931
X46.903 Y136.024
X47.03 Y136.174
X47.094 Y136.36
X47.086 Y136.557
X47.004 Y136.906
G3 X46.754 Y137.088 R0.247
X46.111 Y136.398 R0.676
X46.123 Y136.281 R0.676
G1 X46.21 Y135.911
X46.247 Y135.781
X46.331 Y135.675
X46.44 Y135.594
X46.629 Y135.551
X46.822 Y135.579
X46.992 Y135.674
X47.116 Y135.824
X47.178 Y136.009
X47.169 Y136.203
X47.086 Y136.557
G3 X46.823 Y136.738 R0.246
X46.21 Y135.911 R0.696
G1 X46.289 Y135.575
X46.326 Y135.445
X46.406 Y135.336
X46.511 Y135.251
X46.701 Y135.203
X46.896 Y135.228
X47.069 Y135.321
X47.196 Y135.472
X47.259 Y135.658
X47.25 Y135.854
X47.169 Y136.203
G3 X47.112 Y136.305 R0.247
X46.917 Y136.385 R0.247
X46.276 Y135.692 R0.679
X46.289 Y135.575 R0.679
G1 X46.376 Y135.204
X46.413 Y135.074
X46.498 Y134.969
X46.606 Y134.889
X46.796 Y134.846
X46.988 Y134.875
X47.158 Y134.97
X47.281 Y135.12
X47.343 Y135.305
X47.334 Y135.499
X47.25 Y135.854
G3 X47.194 Y135.956 R0.246
X46.986 Y136.034 R0.246
X46.376 Y135.204 R0.699
G1 X46.453 Y134.874
X46.49 Y134.745
X46.569 Y134.635
X46.673 Y134.549
X46.864 Y134.5
X47.059 Y134.524
X47.233 Y134.617
X47.36 Y134.768
X47.424 Y134.954
X47.415 Y135.151
X47.334 Y135.499
G3 X47.084 Y135.681 R0.247
X46.44 Y134.991 R0.676
X46.453 Y134.874 R0.676
G1 X46.541 Y134.498
X46.578 Y134.368
X46.664 Y134.263
X46.773 Y134.184
X46.963 Y134.142
X47.155 Y134.171
X47.323 Y134.267
X47.447 Y134.417
X47.508 Y134.601
X47.499 Y134.795
X47.415 Y135.151
G3 X47.149 Y135.331 R0.246
X46.541 Y134.498 R0.702
G1 X46.62 Y134.161
X46.658 Y134.031
X46.739 Y133.923
X46.845 Y133.839
X47.035 Y133.793
X47.229 Y133.819
X47.401 Y133.913
X47.527 Y134.063
X47.59 Y134.249
X47.581 Y134.445
X47.499 Y134.795
G3 X47.442 Y134.897 R0.247
X47.243 Y134.976 R0.247
X46.62 Y134.161 R0.685
G1 X46.705 Y133.798
X46.743 Y133.668
X46.827 Y133.562
X46.935 Y133.481
X47.125 Y133.438
X47.317 Y133.466
X47.487 Y133.561
X47.611 Y133.711
X47.673 Y133.896
X47.664 Y134.09
X47.581 Y134.445
G3 X47.318 Y134.625 R0.246
X46.705 Y133.798 R0.696
G1 X46.786 Y133.454
X46.823 Y133.325
X46.905 Y133.217
X47.011 Y133.134
X47.201 Y133.088
X47.395 Y133.114
X47.567 Y133.208
X47.692 Y133.358
X47.755 Y133.544
X47.746 Y133.739
X47.664 Y134.09
G3 X47.407 Y134.272 R0.246
X46.786 Y133.454 R0.686
G1 X46.873 Y133.084
X46.91 Y132.954
X46.996 Y132.85
X47.105 Y132.771
X47.295 Y132.73
X47.486 Y132.759
X47.655 Y132.855
X47.778 Y133.005
X47.839 Y133.189
X47.83 Y133.383
X47.746 Y133.739
G3 X47.479 Y133.919 R0.246
X46.859 Y133.201 R0.704
X46.873 Y133.084 R0.704
G1 X46.951 Y132.748
X46.989 Y132.618
X47.07 Y132.51
X47.176 Y132.427
X47.366 Y132.38
X47.56 Y132.406
X47.732 Y132.501
X47.858 Y132.651
X47.921 Y132.837
X47.912 Y133.032
X47.83 Y133.383
G3 X47.574 Y133.564 R0.246
X46.951 Y132.748 R0.685
G1 X47.037 Y132.382
X47.074 Y132.253
X47.159 Y132.148
X47.268 Y132.067
X47.457 Y132.025
X47.65 Y132.053
X47.819 Y132.149
X47.943 Y132.299
X48.004 Y132.483
X47.995 Y132.677
X47.912 Y133.032
G3 X47.855 Y133.134 R0.246
X47.648 Y133.213 R0.246
X47.037 Y132.382 R0.699
G1 X47.115 Y132.048
X47.153 Y131.918
X47.233 Y131.809
X47.338 Y131.724
X47.528 Y131.677
X47.723 Y131.702
X47.896 Y131.795
X48.022 Y131.946
X48.086 Y132.132
X48.077 Y132.328
X47.995 Y132.677
G3 X47.742 Y132.859 R0.247
X47.103 Y132.165 R0.68
X47.115 Y132.048 R0.68
G1 X47.204 Y131.671
X47.241 Y131.541
X47.327 Y131.437
X47.492 Y131.358
X47.675 Y131.339
X47.853 Y131.383
X48.005 Y131.485
X48.114 Y131.633
X48.166 Y131.809
X48.156 Y131.992
X48.077 Y132.328
G3 X47.809 Y132.508 R0.246
X47.204 Y131.671 R0.705
G1 X47.283 Y131.334
X47.32 Y131.204
X47.406 Y131.1
X47.515 Y131.021
X47.705 Y130.981
X47.897 Y131.012
X48.065 Y131.109
X48.187 Y131.26
X48.248 Y131.444
X48.239 Y131.638
X48.156 Y131.992
G3 X47.887 Y132.171 R0.246
X47.283 Y131.334 R0.706
G1 X47.361 Y130.998
X47.399 Y130.868
X47.481 Y130.761
X47.587 Y130.678
X47.777 Y130.632
X47.971 Y130.659
X48.142 Y130.754
X48.268 Y130.904
X48.33 Y131.09
X48.321 Y131.285
X48.239 Y131.638
G3 X47.98 Y131.819 R0.246
X47.361 Y130.998 R0.689
G1 X47.447 Y130.633
X47.484 Y130.503
X47.57 Y130.398
X47.678 Y130.318
X47.868 Y130.276
X48.06 Y130.305
X48.229 Y130.401
X48.352 Y130.551
X48.414 Y130.735
X48.405 Y130.929
X48.321 Y131.285
G3 X48.056 Y131.465 R0.246
X47.447 Y130.633 R0.701
G1 X47.526 Y130.298
X47.563 Y130.168
X47.643 Y130.06
X47.749 Y129.975
X47.939 Y129.928
X48.134 Y129.953
X48.306 Y130.047
X48.432 Y130.197
X48.495 Y130.383
X48.487 Y130.579
X48.405 Y130.929
G3 X48.151 Y131.111 R0.247
X47.513 Y130.415 R0.682
X47.526 Y130.298 R0.682
G1 X47.606 Y129.955
X47.643 Y129.825
X47.722 Y129.715
X47.827 Y129.63
X48.017 Y129.581
X48.213 Y129.604
X48.386 Y129.698
X48.513 Y129.848
X48.577 Y130.034
X48.568 Y130.231
X48.487 Y130.579
G3 X48.237 Y130.761 R0.247
X47.593 Y130.072 R0.676
X47.606 Y129.955 R0.676
G1 X47.693 Y129.584
X47.73 Y129.454
X47.814 Y129.349
X47.922 Y129.268
X48.112 Y129.224
X48.305 Y129.252
X48.475 Y129.347
X48.599 Y129.497
X48.66 Y129.682
X48.651 Y129.877
X48.568 Y130.231
G3 X48.512 Y130.333 R0.246
X48.306 Y130.411 R0.246
X47.693 Y129.584 R0.696
G1 X47.772 Y129.248
X47.809 Y129.119
X47.889 Y129.01
X47.994 Y128.925
X48.184 Y128.877
X48.379 Y128.901
X48.552 Y128.995
X48.678 Y129.145
X48.742 Y129.331
X48.733 Y129.528
X48.651 Y129.877
G3 X48.595 Y129.979 R0.247
X48.4 Y130.058 R0.247
X47.759 Y129.365 R0.679
X47.772 Y129.248 R0.679
G1 X47.858 Y128.878
X47.896 Y128.748
X47.98 Y128.643
X48.089 Y128.563
X48.279 Y128.52
X48.471 Y128.548
X48.64 Y128.644
X48.764 Y128.794
X48.825 Y128.978
X48.816 Y129.173
X48.733 Y129.528
G3 X48.469 Y129.708 R0.246
X47.858 Y128.878 R0.699
G1 X47.936 Y128.548
X47.973 Y128.418
X48.052 Y128.309
X48.156 Y128.223
X48.347 Y128.174
X48.542 Y128.198
X48.715 Y128.291
X48.843 Y128.441
X48.907 Y128.628
X48.898 Y128.824
X48.816 Y129.173
G3 X48.567 Y129.354 R0.247
X47.923 Y128.665 R0.676
X47.936 Y128.548 R0.676
G1 X48.024 Y128.171
X48.061 Y128.042
X48.147 Y127.937
X48.256 Y127.858
X48.445 Y127.816
X48.637 Y127.845
X48.806 Y127.94
X48.929 Y128.09
X48.99 Y128.275
X48.981 Y128.469
X48.898 Y128.824
G3 X48.632 Y129.005 R0.246
X48.024 Y128.171 R0.702
G1 X48.103 Y127.834
X48.14 Y127.705
X48.221 Y127.597
X48.327 Y127.513
X48.518 Y127.466
X48.712 Y127.492
X48.884 Y127.587
X49.009 Y127.737
X49.072 Y127.922
X49.064 Y128.118
X48.981 Y128.469
G3 X48.925 Y128.571 R0.247
X48.726 Y128.65 R0.247
X48.103 Y127.834 R0.685
G1 X48.186 Y127.479
X48.223 Y127.35
X48.306 Y127.243
X48.412 Y127.16
X48.602 Y127.114
X48.796 Y127.141
X48.967 Y127.235
X49.092 Y127.385
X49.155 Y127.571
X49.146 Y127.766
X49.064 Y128.118
G3 X48.806 Y128.299 R0.246
X48.186 Y127.479 R0.688
G1 X48.268 Y127.128
X48.306 Y126.998
X48.388 Y126.891
X48.495 Y126.808
X48.685 Y126.763
X48.878 Y126.789
X49.05 Y126.884
X49.175 Y127.034
X49.237 Y127.219
X49.228 Y127.414
X49.146 Y127.766
G3 X48.889 Y127.947 R0.246
X48.268 Y127.128 R0.688
G1 X48.355 Y126.757
X48.393 Y126.628
X48.479 Y126.524
X48.589 Y126.445
X48.778 Y126.404
X48.97 Y126.434
X49.138 Y126.53
X49.26 Y126.68
X49.321 Y126.864
X49.312 Y127.058
X49.228 Y127.414
G3 X48.961 Y127.594 R0.246
X48.342 Y126.874 R0.705
X48.355 Y126.757 R0.705
G1 X48.434 Y126.422
X48.471 Y126.292
X48.553 Y126.184
X48.659 Y126.101
X48.849 Y126.055
X49.043 Y126.081
X49.215 Y126.175
X49.34 Y126.326
X49.403 Y126.511
X49.394 Y126.707
X49.312 Y127.058
G3 X49.056 Y127.239 R0.246
X48.434 Y126.422 R0.686
G1 X48.52 Y126.056
X48.557 Y125.926
X48.642 Y125.821
X48.751 Y125.741
X48.94 Y125.699
X49.133 Y125.727
X49.302 Y125.823
X49.425 Y125.973
X49.487 Y126.157
X49.478 Y126.352
X49.394 Y126.707
G3 X49.13 Y126.887 R0.246
X48.52 Y126.056 R0.7
G1 X48.598 Y125.721
X48.635 Y125.592
X48.716 Y125.483
X48.821 Y125.398
X49.011 Y125.351
X49.206 Y125.376
X49.379 Y125.47
X49.505 Y125.62
X49.568 Y125.806
X49.559 Y126.002
X49.478 Y126.352
G3 X49.225 Y126.533 R0.247
X48.585 Y125.838 R0.681
X48.598 Y125.721 R0.681
G1 X48.679 Y125.378
X48.716 Y125.248
X48.795 Y125.139
X48.899 Y125.053
X49.09 Y125.003
X49.285 Y125.027
X49.458 Y125.12
X49.586 Y125.27
X49.65 Y125.457
X49.641 Y125.653
X49.559 Y126.002
G3 X49.31 Y126.184 R0.247
X48.679 Y125.378 R0.675
G1 X48.765 Y125.008
X48.803 Y124.878
X48.887 Y124.772
X48.995 Y124.691
X49.185 Y124.648
X49.377 Y124.675
X49.547 Y124.77
X49.671 Y124.92
X49.733 Y125.105
X49.724 Y125.3
X49.641 Y125.653
G3 X49.585 Y125.756 R0.246
X49.379 Y125.834 R0.246
X48.765 Y125.008 R0.695
G1 X48.844 Y124.672
X48.881 Y124.542
X48.961 Y124.433
X49.066 Y124.348
X49.257 Y124.3
X49.452 Y124.324
X49.624 Y124.418
X49.751 Y124.568
X49.815 Y124.754
X49.806 Y124.951
X49.724 Y125.3
G3 X49.473 Y125.481 R0.247
X48.844 Y124.672 R0.679
G1 X48.931 Y124.301
X48.968 Y124.171
X49.053 Y124.066
X49.162 Y123.986
X49.351 Y123.943
X49.544 Y123.971
X49.713 Y124.067
X49.837 Y124.217
X49.898 Y124.402
X49.889 Y124.596
X49.806 Y124.951
G3 X49.542 Y125.131 R0.246
X48.918 Y124.418 R0.698
X48.931 Y124.301 R0.698
G1 X49.008 Y123.971
X49.046 Y123.842
X49.124 Y123.732
X49.228 Y123.646
X49.419 Y123.597
X49.615 Y123.621
X49.788 Y123.714
X49.915 Y123.865
X49.979 Y124.051
X49.971 Y124.248
X49.889 Y124.596
G3 X49.64 Y124.778 R0.247
X49.008 Y123.971 R0.676
G1 X49.097 Y123.595
X49.134 Y123.465
X49.219 Y123.36
X49.328 Y123.281
X49.518 Y123.239
X49.71 Y123.268
X49.879 Y123.364
X50.002 Y123.514
X50.063 Y123.698
X50.054 Y123.892
X49.971 Y124.248
G3 X49.705 Y124.428 R0.246
X49.083 Y123.712 R0.701
X49.097 Y123.595 R0.701
G1 X49.176 Y123.258
X49.213 Y123.128
X49.294 Y123.02
X49.4 Y122.936
X49.59 Y122.89
X49.785 Y122.915
X49.956 Y123.01
X50.082 Y123.16
X50.145 Y123.346
X50.136 Y123.541
X50.054 Y123.892
G3 X49.998 Y123.994 R0.247
X49.799 Y124.073 R0.247
X49.176 Y123.258 R0.684
G1 X49.261 Y122.895
X49.298 Y122.765
X49.382 Y122.659
X49.49 Y122.578
X49.68 Y122.535
X49.873 Y122.563
X50.042 Y122.658
X50.166 Y122.808
X50.228 Y122.993
X50.219 Y123.187
X50.136 Y123.541
G3 X49.874 Y123.722 R0.246
X49.261 Y122.895 R0.696
G1 X49.341 Y122.551
X49.378 Y122.422
X49.46 Y122.314
X49.566 Y122.231
X49.756 Y122.185
X49.951 Y122.211
X50.122 Y122.305
X50.248 Y122.455
X50.31 Y122.641
X50.301 Y122.836
X50.219 Y123.187
G3 X49.963 Y123.368 R0.246
X49.341 Y122.551 R0.686
G1 X49.428 Y122.181
X49.465 Y122.051
X49.551 Y121.947
X49.661 Y121.868
X49.85 Y121.827
X50.042 Y121.856
X50.21 Y121.952
X50.333 Y122.102
X50.394 Y122.286
X50.385 Y122.48
X50.301 Y122.836
G3 X50.034 Y123.016 R0.246
X49.428 Y122.181 R0.704
G1 X49.507 Y121.845
X49.544 Y121.715
X49.625 Y121.607
X49.731 Y121.524
X49.922 Y121.477
X50.116 Y121.503
X50.287 Y121.598
X50.413 Y121.748
X50.476 Y121.934
X50.467 Y122.129
X50.385 Y122.48
G3 X50.129 Y122.661 R0.247
X49.507 Y121.845 R0.685
G1 X49.592 Y121.479
X49.63 Y121.35
X49.714 Y121.245
X49.823 Y121.164
X50.013 Y121.122
X50.205 Y121.15
X50.374 Y121.246
X50.498 Y121.396
X50.559 Y121.58
X50.55 Y121.774
X50.467 Y122.129
G3 X50.203 Y122.31 R0.246
X49.592 Y121.479 R0.699
G1 X49.671 Y121.145
X49.708 Y121.015
X49.788 Y120.906
X49.893 Y120.821
X50.084 Y120.774
X50.279 Y120.799
X50.451 Y120.892
X50.578 Y121.043
X50.641 Y121.229
X50.632 Y121.425
X50.55 Y121.774
G3 X50.298 Y121.956 R0.247
X49.671 Y121.145 R0.68
G1 X49.759 Y120.768
X49.796 Y120.638
X49.883 Y120.535
X50.048 Y120.455
X50.23 Y120.436
X50.408 Y120.48
X50.56 Y120.582
X50.669 Y120.73
X50.722 Y120.906
X50.711 Y121.089
X50.632 Y121.425
G3 X50.364 Y121.605 R0.246
X49.746 Y120.885 R0.705
X49.759 Y120.768 R0.705
G1 X49.838 Y120.431
X49.875 Y120.301
X49.961 Y120.197
X50.071 Y120.118
X50.261 Y120.078
X50.452 Y120.109
X50.62 Y120.206
X50.743 Y120.357
X50.803 Y120.541
X50.794 Y120.735
X50.711 Y121.089
G3 X50.443 Y121.268 R0.246
X49.825 Y120.548 R0.706
X49.838 Y120.431 R0.706
G1 X49.917 Y120.095
X49.954 Y119.965
X50.036 Y119.858
X50.142 Y119.775
X50.333 Y119.729
X50.527 Y119.756
X50.698 Y119.851
X50.823 Y120.001
X50.885 Y120.187
X50.877 Y120.382
X50.794 Y120.735
G3 X50.535 Y120.916 R0.246
X49.904 Y120.212 R0.689
X49.917 Y120.095 R0.689
G1 X50.002 Y119.73
X50.04 Y119.6
X50.125 Y119.495
X50.234 Y119.415
X50.423 Y119.373
X50.616 Y119.402
X50.785 Y119.498
X50.908 Y119.648
X50.969 Y119.832
X50.96 Y120.026
X50.877 Y120.382
G3 X50.611 Y120.562 R0.246
X50.002 Y119.73 R0.701
G1 X50.081 Y119.395
X50.118 Y119.265
X50.199 Y119.157
X50.304 Y119.072
X50.494 Y119.025
X50.689 Y119.05
X50.861 Y119.144
X50.988 Y119.294
X51.051 Y119.48
X51.042 Y119.676
X50.96 Y120.026
G3 X50.706 Y120.208 R0.247
X50.068 Y119.512 R0.682
X50.081 Y119.395 R0.682
G1 X50.161 Y119.052
X50.199 Y118.922
X50.278 Y118.812
X50.382 Y118.727
X50.573 Y118.678
X50.768 Y118.701
X50.941 Y118.795
X51.069 Y118.945
X51.132 Y119.131
X51.124 Y119.328
X51.042 Y119.676
G3 X50.986 Y119.779 R0.247
X50.792 Y119.858 R0.247
X50.161 Y119.052 R0.676
G1 X50.248 Y118.681
X50.286 Y118.551
X50.37 Y118.446
X50.478 Y118.365
X50.668 Y118.321
X50.86 Y118.349
X51.03 Y118.444
X51.154 Y118.595
X51.216 Y118.779
X51.207 Y118.974
X51.124 Y119.328
G3 X50.862 Y119.508 R0.246
X50.235 Y118.798 R0.696
X50.248 Y118.681 R0.696
G1 X50.327 Y118.345
X50.364 Y118.216
X50.444 Y118.107
X50.549 Y118.022
X50.739 Y117.974
X50.934 Y117.998
X51.107 Y118.092
X51.234 Y118.242
X51.297 Y118.428
X51.289 Y118.625
X51.207 Y118.974
G3 X50.955 Y119.155 R0.247
X50.314 Y118.462 R0.679
X50.327 Y118.345 R0.679
G1 X50.414 Y117.975
X50.451 Y117.845
X50.536 Y117.74
X50.644 Y117.66
X50.834 Y117.617
X51.026 Y117.645
X51.196 Y117.741
X51.319 Y117.891
X51.381 Y118.075
X51.372 Y118.27
X51.289 Y118.625
G3 X51.025 Y118.805 R0.246
X50.401 Y118.092 R0.699
X50.414 Y117.975 R0.699
G1 X50.491 Y117.645
X50.528 Y117.515
X50.607 Y117.406
X50.711 Y117.32
X50.902 Y117.271
X51.098 Y117.295
X51.271 Y117.388
X51.398 Y117.538
X51.462 Y117.725
X51.453 Y117.921
X51.372 Y118.27
G3 X51.122 Y118.451 R0.247
X50.491 Y117.645 R0.676
G1 X50.579 Y117.268
X50.617 Y117.139
X50.702 Y117.034
X50.811 Y116.955
X51.001 Y116.913
X51.193 Y116.942
X51.361 Y117.037
X51.485 Y117.188
X51.546 Y117.372
X51.537 Y117.566
X51.453 Y117.921
G3 X51.397 Y118.024 R0.246
X51.188 Y118.102 R0.246
X50.566 Y117.385 R0.702
X50.579 Y117.268 R0.702
G1 X50.658 Y116.931
X50.696 Y116.802
X50.777 Y116.694
X50.883 Y116.61
X51.073 Y116.563
X51.267 Y116.589
X51.439 Y116.684
X51.565 Y116.834
X51.628 Y117.019
X51.619 Y117.215
X51.537 Y117.566
G3 X51.281 Y117.747 R0.247
X50.658 Y116.931 R0.685
G1 X50.743 Y116.568
X50.781 Y116.438
X50.865 Y116.333
X50.973 Y116.252
X51.163 Y116.209
X51.355 Y116.236
X51.525 Y116.332
X51.649 Y116.482
X51.711 Y116.666
X51.702 Y116.861
X51.619 Y117.215
G3 X51.356 Y117.396 R0.246
X50.743 Y116.568 R0.696
G1 X50.824 Y116.225
X50.861 Y116.095
X50.943 Y115.988
X51.049 Y115.904
X51.239 Y115.858
X51.433 Y115.884
X51.605 Y115.979
X51.73 Y116.129
X51.793 Y116.314
X51.784 Y116.51
X51.702 Y116.861
G3 X51.646 Y116.963 R0.246
X51.446 Y117.042 R0.246
X50.824 Y116.225 R0.686
G1 X50.911 Y115.854
X50.948 Y115.725
X51.034 Y115.621
X51.143 Y115.541
X51.333 Y115.5
X51.525 Y115.53
X51.693 Y115.626
X51.816 Y115.776
X51.877 Y115.96
X51.868 Y116.154
X51.784 Y116.51
G3 X51.517 Y116.69 R0.246
X50.911 Y115.854 R0.704
G1 X50.989 Y115.519
X51.027 Y115.389
X51.108 Y115.281
X51.214 Y115.197
X51.404 Y115.151
X51.599 Y115.177
X51.77 Y115.271
X51.896 Y115.422
X51.959 Y115.607
X51.95 Y115.803
X51.868 Y116.154
G3 X51.612 Y116.335 R0.247
X50.989 Y115.519 R0.685
G1 X51.075 Y115.153
X51.112 Y115.023
X51.197 Y114.918
X51.306 Y114.838
X51.495 Y114.795
X51.688 Y114.824
X51.857 Y114.919
X51.981 Y115.069
X52.042 Y115.254
X52.033 Y115.448
X51.95 Y115.803
G3 X51.686 Y115.983 R0.246
X51.075 Y115.153 R0.699
G1 X51.154 Y114.818
X51.191 Y114.689
X51.271 Y114.58
X51.376 Y114.495
X51.566 Y114.447
X51.761 Y114.472
X51.934 Y114.566
X52.06 Y114.716
X52.124 Y114.902
X52.115 Y115.099
X52.033 Y115.448
G3 X51.78 Y115.629 R0.247
X51.154 Y114.818 R0.68
G1 X51.242 Y114.442
X51.279 Y114.312
X51.365 Y114.208
X51.53 Y114.129
X51.713 Y114.11
X51.891 Y114.154
X52.043 Y114.256
X52.152 Y114.403
X52.204 Y114.579
X52.194 Y114.762
X52.115 Y115.099
G3 X51.847 Y115.278 R0.246
X51.242 Y114.442 R0.705
G1 X51.321 Y114.105
X51.358 Y113.975
X51.444 Y113.871
X51.554 Y113.792
X51.743 Y113.752
X51.935 Y113.783
X52.103 Y113.88
X52.225 Y114.03
X52.286 Y114.215
X52.277 Y114.409
X52.194 Y114.762
G3 X51.925 Y114.942 R0.246
X51.308 Y114.222 R0.706
X51.321 Y114.105 R0.706
G1 X51.4 Y113.769
X51.437 Y113.639
X51.519 Y113.532
X51.625 Y113.448
X51.815 Y113.403
X52.009 Y113.43
X52.18 Y113.524
X52.306 Y113.675
X52.368 Y113.86
X52.359 Y114.056
X52.277 Y114.409
G3 X52.018 Y114.59 R0.246
X51.387 Y113.886 R0.689
X51.4 Y113.769 R0.689
G1 X51.485 Y113.403
X51.523 Y113.273
X51.608 Y113.169
X51.717 Y113.089
X51.906 Y113.047
X52.098 Y113.076
X52.267 Y113.171
X52.391 Y113.322
X52.452 Y113.506
X52.443 Y113.7
X52.359 Y114.056
G3 X52.094 Y114.236 R0.246
X51.472 Y113.52 R0.701
X51.485 Y113.403 R0.701
G1 X51.564 Y113.068
X51.601 Y112.939
X51.681 Y112.83
X51.787 Y112.746
X51.977 Y112.699
X52.172 Y112.724
X52.344 Y112.818
X52.47 Y112.968
X52.533 Y113.154
X52.525 Y113.35
X52.443 Y113.7
G3 X52.189 Y113.881 R0.247
X51.551 Y113.185 R0.682
X51.564 Y113.068 R0.682
G1 X51.644 Y112.725
X51.681 Y112.595
X51.76 Y112.486
X51.865 Y112.4
X52.055 Y112.351
X52.251 Y112.375
X52.424 Y112.468
X52.551 Y112.618
X52.615 Y112.805
X52.607 Y113.001
X52.525 Y113.35
G3 X52.275 Y113.532 R0.247
X51.644 Y112.725 R0.676
G1 X51.731 Y112.355
X51.768 Y112.225
X51.852 Y112.119
X51.961 Y112.039
X52.15 Y111.995
X52.343 Y112.023
X52.513 Y112.118
X52.637 Y112.268
X52.698 Y112.453
X52.69 Y112.647
X52.607 Y113.001
G3 X52.344 Y113.182 R0.246
X51.718 Y112.472 R0.696
X51.731 Y112.355 R0.696
G1 X51.81 Y112.019
X51.847 Y111.889
X51.927 Y111.78
X52.032 Y111.695
X52.222 Y111.647
X52.417 Y111.672
X52.59 Y111.766
X52.717 Y111.916
X52.78 Y112.102
X52.771 Y112.298
X52.69 Y112.647
G3 X52.438 Y112.829 R0.247
X51.797 Y112.136 R0.679
X51.81 Y112.019 R0.679
G1 X51.896 Y111.648
X51.934 Y111.519
X52.019 Y111.414
X52.127 Y111.333
X52.317 Y111.291
X52.509 Y111.319
X52.678 Y111.415
X52.802 Y111.565
X52.863 Y111.749
X52.854 Y111.943
X52.771 Y112.298
G3 X52.507 Y112.479 R0.246
X51.883 Y111.765 R0.699
X51.896 Y111.648 R0.699
G1 X51.974 Y111.319
X52.011 Y111.189
X52.09 Y111.079
X52.194 Y110.993
X52.385 Y110.944
X52.58 Y110.968
X52.754 Y111.062
X52.881 Y111.212
X52.945 Y111.398
X52.936 Y111.595
X52.854 Y111.943
G3 X52.605 Y112.125 R0.247
X51.974 Y111.319 R0.676
G1 X52.062 Y110.942
X52.099 Y110.812
X52.185 Y110.708
X52.294 Y110.628
X52.483 Y110.586
X52.675 Y110.615
X52.844 Y110.711
X52.967 Y110.861
X53.029 Y111.045
X53.019 Y111.239
X52.936 Y111.595
G3 X52.67 Y111.775 R0.246
X52.049 Y111.059 R0.702
X52.062 Y110.942 R0.702
G1 X52.141 Y110.605
X52.178 Y110.475
X52.26 Y110.367
X52.365 Y110.283
X52.556 Y110.237
X52.75 Y110.263
X52.922 Y110.357
X53.048 Y110.507
X53.11 Y110.693
X53.102 Y110.889
X53.019 Y111.239
G3 X52.764 Y111.421 R0.247
X52.141 Y110.605 R0.685
G1 X52.224 Y110.251
X52.261 Y110.121
X52.343 Y110.014
X52.45 Y109.931
X52.64 Y109.885
X52.834 Y109.912
X53.005 Y110.006
X53.13 Y110.156
X53.193 Y110.341
X53.184 Y110.537
X53.102 Y110.889
G3 X52.844 Y111.07 R0.246
X52.211 Y110.368 R0.687
X52.224 Y110.251 R0.687
G1 X52.307 Y109.899
X52.344 Y109.769
X52.426 Y109.662
X52.533 Y109.579
X52.723 Y109.533
X52.917 Y109.56
X53.088 Y109.654
X53.213 Y109.804
X53.275 Y109.99
X53.267 Y110.185
X53.184 Y110.537
G3 X52.927 Y110.718 R0.246
X52.307 Y109.899 R0.688
G1 X52.393 Y109.528
X52.431 Y109.398
X52.517 Y109.294
X52.627 Y109.216
X52.816 Y109.175
X53.008 Y109.205
X53.176 Y109.301
X53.299 Y109.451
X53.359 Y109.635
X53.35 Y109.829
X53.267 Y110.185
G3 X52.999 Y110.365 R0.246
X52.38 Y109.645 R0.705
X52.393 Y109.528 R0.705
G1 X52.472 Y109.192
X52.51 Y109.062
X52.591 Y108.955
X52.697 Y108.871
X52.888 Y108.825
X53.082 Y108.852
X53.253 Y108.946
X53.379 Y109.096
X53.441 Y109.282
X53.432 Y109.478
X53.35 Y109.829
G3 X53.094 Y110.01 R0.246
X52.472 Y109.192 R0.686
G1 X52.558 Y108.827
X52.595 Y108.697
X52.68 Y108.592
X52.789 Y108.512
X52.978 Y108.469
X53.171 Y108.498
X53.34 Y108.594
X53.463 Y108.744
X53.525 Y108.928
X53.516 Y109.122
X53.432 Y109.478
G3 X53.168 Y109.658 R0.246
X52.545 Y108.944 R0.7
X52.558 Y108.827 R0.7
G1 X52.636 Y108.492
X52.674 Y108.362
X52.754 Y108.254
X52.859 Y108.169
X53.049 Y108.121
X53.244 Y108.146
X53.417 Y108.24
X53.543 Y108.391
X53.606 Y108.576
X53.598 Y108.773
X53.516 Y109.122
G3 X53.263 Y109.304 R0.247
X52.636 Y108.492 R0.681
G1 X52.717 Y108.149
X52.754 Y108.019
X52.833 Y107.909
X52.937 Y107.824
X53.128 Y107.774
X53.323 Y107.798
X53.497 Y107.891
X53.624 Y108.041
X53.688 Y108.227
X53.679 Y108.424
X53.598 Y108.773
G3 X53.348 Y108.954 R0.247
X52.704 Y108.266 R0.675
X52.717 Y108.149 R0.675
G1 X52.804 Y107.778
X52.841 Y107.648
X52.925 Y107.543
X53.033 Y107.462
X53.223 Y107.418
X53.415 Y107.446
X53.585 Y107.541
X53.709 Y107.691
X53.771 Y107.876
X53.762 Y108.07
X53.679 Y108.424
G3 X53.417 Y108.605 R0.246
X52.804 Y107.778 R0.695
G1 X52.882 Y107.442
X52.92 Y107.313
X52.999 Y107.204
X53.104 Y107.119
X53.295 Y107.07
X53.49 Y107.095
X53.662 Y107.189
X53.789 Y107.339
X53.853 Y107.525
X53.844 Y107.721
X53.762 Y108.07
G3 X53.511 Y108.252 R0.247
X52.882 Y107.442 R0.679
G1 X52.969 Y107.072
X53.006 Y106.942
X53.091 Y106.837
X53.2 Y106.757
X53.389 Y106.714
X53.582 Y106.742
X53.751 Y106.838
X53.875 Y106.988
X53.936 Y107.172
X53.927 Y107.366
X53.844 Y107.721
G3 X53.788 Y107.823 R0.246
X53.58 Y107.902 R0.246
X52.969 Y107.072 R0.698
G1 X53.046 Y106.742
X53.084 Y106.612
X53.162 Y106.503
X53.267 Y106.417
X53.457 Y106.368
X53.653 Y106.391
X53.826 Y106.485
X53.954 Y106.635
X54.017 Y106.822
X54.009 Y107.018
X53.927 Y107.366
G3 X53.678 Y107.548 R0.247
X53.046 Y106.742 R0.676
G1 X53.135 Y106.365
X53.172 Y106.236
X53.257 Y106.131
X53.366 Y106.052
X53.556 Y106.01
X53.748 Y106.039
X53.917 Y106.134
X54.04 Y106.284
X54.101 Y106.469
X54.092 Y106.663
X54.009 Y107.018
G3 X53.743 Y107.198 R0.246
X53.135 Y106.365 R0.701
G1 X53.214 Y106.028
X53.251 Y105.899
X53.332 Y105.791
X53.438 Y105.707
X53.628 Y105.66
X53.823 Y105.686
X53.994 Y105.78
X54.12 Y105.931
X54.183 Y106.116
X54.174 Y106.312
X54.092 Y106.663
G3 X53.837 Y106.844 R0.247
X53.214 Y106.028 R0.684
G1 X53.299 Y105.665
X53.336 Y105.535
X53.42 Y105.43
X53.528 Y105.349
X53.718 Y105.305
X53.911 Y105.333
X54.081 Y105.429
X54.205 Y105.579
X54.266 Y105.763
X54.257 Y105.958
X54.174 Y106.312
G3 X53.912 Y106.493 R0.246
X53.286 Y105.782 R0.696
X53.299 Y105.665 R0.696
G1 X53.379 Y105.322
X53.417 Y105.192
X53.498 Y105.085
X53.604 Y105.001
X53.795 Y104.955
X53.989 Y104.981
X54.16 Y105.076
X54.286 Y105.226
X54.348 Y105.411
X54.34 Y105.607
X54.257 Y105.958
G3 X54.201 Y106.06 R0.246
X54.001 Y106.139 R0.246
X53.379 Y105.322 R0.686
G1 X53.466 Y104.951
X53.503 Y104.822
X53.589 Y104.718
X53.699 Y104.639
X53.888 Y104.597
X54.08 Y104.627
X54.248 Y104.723
X54.371 Y104.873
X54.432 Y105.057
X54.423 Y105.251
X54.34 Y105.607
G3 X54.072 Y105.787 R0.246
X53.453 Y105.068 R0.704
X53.466 Y104.951 R0.704
G1 X53.545 Y104.616
X53.582 Y104.486
X53.663 Y104.378
X53.769 Y104.294
X53.96 Y104.248
X54.154 Y104.274
X54.326 Y104.368
X54.451 Y104.519
X54.514 Y104.704
X54.505 Y104.9
X54.423 Y105.251
G3 X54.167 Y105.432 R0.246
X53.545 Y104.616 R0.685
G1 X53.63 Y104.25
X53.668 Y104.12
X53.753 Y104.015
X53.861 Y103.935
X54.051 Y103.892
X54.243 Y103.921
X54.412 Y104.016
X54.536 Y104.166
X54.597 Y104.351
X54.588 Y104.545
X54.505 Y104.9
G3 X54.449 Y105.002 R0.246
X54.241 Y105.08 R0.246
X53.63 Y104.25 R0.699
G1 X53.709 Y103.915
X53.746 Y103.786
X53.826 Y103.677
X53.931 Y103.592
X54.122 Y103.544
X54.317 Y103.569
X54.489 Y103.663
X54.616 Y103.813
X54.679 Y103.999
X54.67 Y104.196
X54.588 Y104.545
G3 X54.336 Y104.726 R0.247
X53.696 Y104.032 R0.68
X53.709 Y103.915 R0.68
G1 X53.797 Y103.539
X53.835 Y103.409
X53.921 Y103.305
X54.086 Y103.226
X54.268 Y103.207
X54.446 Y103.251
X54.599 Y103.353
X54.707 Y103.5
X54.76 Y103.676
X54.749 Y103.859
X54.67 Y104.196
G3 X54.402 Y104.375 R0.246
X53.784 Y103.656 R0.705
X53.797 Y103.539 R0.705
G1 X53.876 Y103.202
X53.914 Y103.072
X54. Y102.968
X54.109 Y102.889
X54.299 Y102.849
X54.49 Y102.88
X54.658 Y102.977
X54.781 Y103.127
X54.841 Y103.312
X54.832 Y103.506
X54.749 Y103.859
G3 X54.481 Y104.039 R0.246
X53.876 Y103.202 R0.706
G1 X53.955 Y102.866
X53.992 Y102.736
X54.074 Y102.629
X54.18 Y102.545
X54.371 Y102.5
X54.565 Y102.527
X54.736 Y102.621
X54.861 Y102.772
X54.924 Y102.957
X54.915 Y103.153
X54.832 Y103.506
G3 X54.574 Y103.687 R0.246
X53.955 Y102.866 R0.689
G1 X54.041 Y102.5
X54.078 Y102.37
X54.163 Y102.266
X54.272 Y102.186
X54.462 Y102.144
X54.654 Y102.173
X54.823 Y102.268
X54.946 Y102.419
X55.007 Y102.603
X54.998 Y102.797
X54.915 Y103.153
G3 X54.649 Y103.333 R0.246
X54.041 Y102.5 R0.701
G1 X54.119 Y102.165
X54.156 Y102.036
X54.237 Y101.927
X54.342 Y101.843
X54.533 Y101.796
X54.727 Y101.821
X54.899 Y101.915
X55.026 Y102.065
X55.089 Y102.251
X55.08 Y102.447
X54.998 Y102.797
G3 X54.744 Y102.978 R0.247
X54.119 Y102.165 R0.682
G1 X54.199 Y101.822
X54.237 Y101.693
X54.316 Y101.583
X54.42 Y101.497
X54.611 Y101.448
X54.806 Y101.472
X54.979 Y101.565
X55.107 Y101.715
X55.17 Y101.902
X55.162 Y102.098
X55.08 Y102.447
G3 X54.83 Y102.629 R0.247
X54.187 Y101.939 R0.676
X54.199 Y101.822 R0.676
G1 X54.286 Y101.452
X54.324 Y101.322
X54.408 Y101.216
X54.516 Y101.136
X54.706 Y101.092
X54.898 Y101.12
X55.068 Y101.215
X55.192 Y101.365
X55.254 Y101.55
X55.245 Y101.744
X55.162 Y102.098
G3 X54.9 Y102.279 R0.246
X54.286 Y101.452 R0.696
G1 X54.365 Y101.116
X54.402 Y100.986
X54.482 Y100.877
X54.587 Y100.792
X54.778 Y100.744
X54.973 Y100.769
X55.145 Y100.863
X55.272 Y101.013
X55.335 Y101.199
X55.327 Y101.395
X55.245 Y101.744
G3 X54.993 Y101.926 R0.247
X54.365 Y101.116 R0.679
G1 X54.452 Y100.745
X54.489 Y100.616
X54.574 Y100.511
X54.683 Y100.43
X54.872 Y100.388
X55.065 Y100.416
X55.234 Y100.512
X55.357 Y100.662
X55.419 Y100.846
X55.41 Y101.04
X55.327 Y101.395
G3 X55.063 Y101.576 R0.246
X54.452 Y100.745 R0.699
G1 X54.529 Y100.416
X54.567 Y100.286
X54.645 Y100.176
X54.749 Y100.09
X54.94 Y100.041
X55.136 Y100.065
X55.309 Y100.159
X55.436 Y100.309
X55.5 Y100.495
X55.491 Y100.692
X55.41 Y101.04
G3 X55.16 Y101.222 R0.247
X54.516 Y100.533 R0.676
X54.529 Y100.416 R0.676
G1 X54.617 Y100.039
X54.655 Y99.909
X54.74 Y99.805
X54.849 Y99.725
X55.039 Y99.683
X55.231 Y99.712
X55.4 Y99.808
X55.523 Y99.958
X55.584 Y100.142
X55.575 Y100.336
X55.491 Y100.692
G3 X55.435 Y100.794 R0.246
X55.226 Y100.872 R0.246
X54.617 Y100.039 R0.702
G1 X54.696 Y99.702
X54.734 Y99.572
X54.815 Y99.464
X54.921 Y99.381
X55.111 Y99.334
X55.305 Y99.36
X55.477 Y99.454
X55.603 Y99.604
X55.666 Y99.79
X55.657 Y99.986
X55.575 Y100.336
G3 X55.32 Y100.518 R0.247
X54.696 Y99.702 R0.685
G1 X54.781 Y99.34
X54.819 Y99.21
X54.903 Y99.104
X55.01 Y99.023
X55.2 Y98.979
X55.393 Y99.007
X55.563 Y99.102
X55.687 Y99.252
X55.749 Y99.437
X55.74 Y99.632
X55.657 Y99.986
G3 X55.601 Y100.088 R0.246
X55.395 Y100.166 R0.246
X54.768 Y99.457 R0.695
X54.781 Y99.34 R0.695
G1 X54.862 Y98.996
X54.899 Y98.866
X54.981 Y98.758
X55.087 Y98.675
X55.278 Y98.629
X55.472 Y98.655
X55.643 Y98.749
X55.768 Y98.9
X55.831 Y99.085
X55.822 Y99.281
X55.74 Y99.632
G3 X55.484 Y99.813 R0.246
X54.862 Y98.996 R0.686
G1 X54.949 Y98.625
X54.986 Y98.495
X55.072 Y98.391
X55.182 Y98.312
X55.371 Y98.271
X55.563 Y98.3
X55.731 Y98.397
X55.854 Y98.547
X55.915 Y98.731
X55.906 Y98.924
X55.822 Y99.281
G3 X55.555 Y99.461 R0.246
X54.936 Y98.742 R0.704
X54.949 Y98.625 R0.704
G1 X55.028 Y98.289
X55.065 Y98.159
X55.146 Y98.052
X55.252 Y97.968
X55.442 Y97.922
X55.637 Y97.948
X55.808 Y98.042
X55.934 Y98.192
X55.997 Y98.378
X55.988 Y98.574
X55.906 Y98.924
G3 X55.65 Y99.106 R0.247
X55.015 Y98.406 R0.685
X55.028 Y98.289 R0.685
G1 X55.113 Y97.924
X55.151 Y97.794
X55.235 Y97.689
X55.344 Y97.609
X55.534 Y97.566
X55.726 Y97.594
X55.895 Y97.69
X56.019 Y97.84
X56.08 Y98.024
X56.071 Y98.219
X55.988 Y98.574
G3 X55.932 Y98.676 R0.246
X55.724 Y98.754 R0.246
X55.1 Y98.041 R0.699
X55.113 Y97.924 R0.699
G1 X55.192 Y97.589
X55.229 Y97.459
X55.309 Y97.35
X55.414 Y97.266
X55.605 Y97.218
X55.799 Y97.243
X55.972 Y97.337
X56.099 Y97.487
X56.162 Y97.673
X56.153 Y97.869
X56.071 Y98.219
G3 X55.819 Y98.4 R0.247
X55.192 Y97.589 R0.68
G1 X55.28 Y97.212
X55.317 Y97.083
X55.403 Y96.979
X55.569 Y96.899
X55.751 Y96.88
X55.929 Y96.925
X56.081 Y97.026
X56.19 Y97.174
X56.242 Y97.35
X56.232 Y97.533
X56.153 Y97.869
G3 X55.885 Y98.049 R0.246
X55.28 Y97.212 R0.705
G1 X55.359 Y96.875
X55.396 Y96.745
X55.482 Y96.641
X55.592 Y96.562
X55.782 Y96.523
X55.973 Y96.553
X56.141 Y96.65
X56.264 Y96.801
X56.324 Y96.985
X56.315 Y97.179
X56.232 Y97.533
G3 X55.964 Y97.713 R0.246
X55.359 Y96.875 R0.706
G1 X55.438 Y96.539
X55.475 Y96.41
X55.557 Y96.302
X55.663 Y96.219
X55.854 Y96.174
X56.047 Y96.2
X56.219 Y96.295
X56.344 Y96.445
X56.406 Y96.631
X56.398 Y96.826
X56.315 Y97.179
G3 X56.056 Y97.36 R0.246
X55.438 Y96.539 R0.69
G1 X55.523 Y96.174
X55.561 Y96.044
X55.646 Y95.939
X55.755 Y95.859
X55.944 Y95.817
X56.137 Y95.846
X56.305 Y95.942
X56.429 Y96.092
X56.49 Y96.277
X56.481 Y96.471
X56.398 Y96.826
G3 X56.132 Y97.007 R0.246
X55.51 Y96.291 R0.701
X55.523 Y96.174 R0.701
G1 X55.602 Y95.839
X55.639 Y95.709
X55.72 Y95.601
X55.825 Y95.516
X56.015 Y95.469
X56.21 Y95.494
X56.382 Y95.588
X56.509 Y95.739
X56.572 Y95.925
X56.563 Y96.121
X56.481 Y96.471
G3 X56.227 Y96.652 R0.247
X55.602 Y95.839 R0.682
G1 X55.682 Y95.496
X55.72 Y95.366
X55.798 Y95.257
X55.903 Y95.171
X56.093 Y95.122
X56.289 Y95.145
X56.462 Y95.239
X56.589 Y95.389
X56.653 Y95.575
X56.645 Y95.772
X56.563 Y96.121
G3 X56.313 Y96.302 R0.247
X55.67 Y95.613 R0.676
X55.682 Y95.496 R0.676
G1 X55.769 Y95.125
X55.806 Y94.996
X55.89 Y94.89
X55.999 Y94.809
X56.188 Y94.766
X56.381 Y94.793
X56.551 Y94.889
X56.675 Y95.039
X56.737 Y95.223
X56.728 Y95.418
X56.645 Y95.772
G3 X56.382 Y95.952 R0.246
X55.756 Y95.242 R0.696
X55.769 Y95.125 R0.696
G1 X55.848 Y94.789
X55.885 Y94.66
X55.965 Y94.551
X56.07 Y94.466
X56.26 Y94.418
X56.455 Y94.442
X56.628 Y94.536
X56.755 Y94.686
X56.818 Y94.872
X56.809 Y95.069
X56.728 Y95.418
G3 X56.476 Y95.599 R0.247
X55.835 Y94.906 R0.679
X55.848 Y94.789 R0.679
G1 X55.935 Y94.419
X55.972 Y94.289
X56.057 Y94.184
X56.165 Y94.104
X56.355 Y94.061
X56.547 Y94.09
X56.717 Y94.185
X56.84 Y94.335
X56.902 Y94.52
X56.893 Y94.714
X56.809 Y95.069
G3 X56.545 Y95.249 R0.246
X55.922 Y94.536 R0.699
X55.935 Y94.419 R0.699
G1 X56.012 Y94.089
X56.049 Y93.959
X56.128 Y93.85
X56.232 Y93.764
X56.423 Y93.715
X56.618 Y93.739
X56.792 Y93.832
X56.919 Y93.983
X56.983 Y94.169
X56.974 Y94.366
X56.893 Y94.714
G3 X56.643 Y94.896 R0.247
X56.012 Y94.089 R0.676
G1 X56.1 Y93.713
X56.138 Y93.583
X56.223 Y93.478
X56.332 Y93.399
X56.522 Y93.357
X56.714 Y93.386
X56.882 Y93.482
X57.006 Y93.632
X57.067 Y93.816
X57.058 Y94.01
X56.974 Y94.366
G3 X56.708 Y94.546 R0.246
X56.1 Y93.713 R0.702
G1 X56.179 Y93.375
X56.217 Y93.246
X56.298 Y93.138
X56.404 Y93.054
X56.594 Y93.008
X56.788 Y93.033
X56.96 Y93.128
X57.086 Y93.278
X57.149 Y93.464
X57.14 Y93.659
X57.058 Y94.01
G3 X56.802 Y94.191 R0.247
X56.166 Y93.492 R0.685
X56.179 Y93.375 R0.685
G1 X56.262 Y93.023
X56.299 Y92.893
X56.381 Y92.786
X56.487 Y92.702
X56.678 Y92.656
X56.871 Y92.682
X57.043 Y92.777
X57.168 Y92.927
X57.231 Y93.112
X57.222 Y93.308
X57.14 Y93.659
G3 X56.883 Y93.841 R0.246
X56.262 Y93.023 R0.687
G1 X56.345 Y92.669
X56.382 Y92.539
X56.464 Y92.432
X56.571 Y92.35
X56.761 Y92.304
X56.955 Y92.331
X57.126 Y92.425
X57.251 Y92.575
X57.313 Y92.761
X57.305 Y92.956
X57.222 Y93.308
G3 X56.964 Y93.489 R0.246
X56.345 Y92.669 R0.688
G1 X56.432 Y92.299
X56.469 Y92.169
X56.555 Y92.065
X56.665 Y91.986
X56.854 Y91.946
X57.046 Y91.975
X57.214 Y92.072
X57.337 Y92.222
X57.397 Y92.406
X57.388 Y92.599
X57.305 Y92.956
G3 X57.037 Y93.136 R0.246
X56.432 Y92.299 R0.705
G1 X56.51 Y91.963
X56.548 Y91.833
X56.629 Y91.726
X56.735 Y91.642
X56.926 Y91.596
X57.12 Y91.622
X57.291 Y91.717
X57.417 Y91.867
X57.479 Y92.053
X57.471 Y92.248
X57.388 Y92.599
G3 X57.132 Y92.781 R0.246
X56.51 Y91.963 R0.687
G1 X56.596 Y91.597
X56.633 Y91.467
X56.718 Y91.363
X56.827 Y91.282
X57.017 Y91.24
X57.209 Y91.269
X57.378 Y91.364
X57.501 Y91.514
X57.563 Y91.699
X57.554 Y91.893
X57.471 Y92.248
G3 X57.206 Y92.429 R0.246
X56.596 Y91.597 R0.7
G1 X56.674 Y91.263
X56.712 Y91.133
X56.792 Y91.024
X56.897 Y90.94
X57.088 Y90.892
X57.282 Y90.917
X57.455 Y91.011
X57.581 Y91.161
X57.644 Y91.347
X57.636 Y91.543
X57.554 Y91.893
G3 X57.301 Y92.074 R0.247
X56.674 Y91.263 R0.681
G1 X56.755 Y90.919
X56.792 Y90.79
X56.871 Y90.68
X56.975 Y90.594
X57.166 Y90.545
X57.361 Y90.568
X57.535 Y90.662
X57.662 Y90.812
X57.726 Y90.998
X57.717 Y91.195
X57.636 Y91.543
G3 X57.386 Y91.725 R0.247
X56.755 Y90.919 R0.675
G1 X56.842 Y90.549
X56.879 Y90.419
X56.963 Y90.313
X57.071 Y90.232
X57.261 Y90.189
X57.454 Y90.216
X57.623 Y90.312
X57.748 Y90.462
X57.809 Y90.646
X57.8 Y90.841
X57.717 Y91.195
G3 X57.661 Y91.297 R0.246
X57.456 Y91.375 R0.246
X56.842 Y90.549 R0.695
G1 X56.92 Y90.213
X56.958 Y90.083
X57.037 Y89.974
X57.142 Y89.889
X57.333 Y89.841
X57.528 Y89.865
X57.701 Y89.959
X57.827 Y90.109
X57.891 Y90.296
X57.882 Y90.492
X57.8 Y90.841
G3 X57.744 Y90.943 R0.247
X57.549 Y91.022 R0.247
X56.92 Y90.213 R0.679
G1 X57.007 Y89.842
X57.045 Y89.713
X57.129 Y89.608
X57.238 Y89.527
X57.427 Y89.484
X57.62 Y89.513
X57.789 Y89.608
X57.913 Y89.758
X57.974 Y89.943
X57.965 Y90.137
X57.882 Y90.492
G3 X57.618 Y90.672 R0.246
X57.007 Y89.842 R0.698
G1 X57.085 Y89.513
X57.122 Y89.383
X57.201 Y89.273
X57.305 Y89.187
X57.495 Y89.138
X57.691 Y89.162
X57.864 Y89.256
X57.992 Y89.406
X58.055 Y89.592
X58.047 Y89.789
X57.965 Y90.137
G3 X57.716 Y90.319 R0.247
X57.085 Y89.513 R0.676
G1 X57.173 Y89.136
X57.21 Y89.006
X57.295 Y88.902
X57.405 Y88.822
X57.594 Y88.78
X57.786 Y88.809
X57.955 Y88.905
X58.078 Y89.055
X58.139 Y89.239
X58.13 Y89.433
X58.047 Y89.789
G3 X57.781 Y89.969 R0.246
X57.173 Y89.136 R0.701
G1 X57.252 Y88.799
X57.289 Y88.669
X57.37 Y88.561
X57.476 Y88.477
X57.667 Y88.431
X57.861 Y88.457
X58.033 Y88.551
X58.158 Y88.701
X58.221 Y88.887
X58.212 Y89.083
X58.13 Y89.433
G3 X58.074 Y89.535 R0.247
X57.875 Y89.614 R0.247
X57.252 Y88.799 R0.684
G1 X57.337 Y88.436
X57.374 Y88.306
X57.458 Y88.2
X57.566 Y88.12
X57.756 Y88.076
X57.949 Y88.104
X58.119 Y88.199
X58.243 Y88.349
X58.304 Y88.534
X58.295 Y88.729
X58.212 Y89.083
G3 X57.95 Y89.263 R0.246
X57.337 Y88.436 R0.696
G1 X57.417 Y88.093
X57.455 Y87.963
X57.536 Y87.855
X57.643 Y87.772
X57.833 Y87.726
X58.027 Y87.752
X58.198 Y87.846
X58.324 Y87.996
X58.387 Y88.182
X58.378 Y88.377
X58.295 Y88.729
G3 X58.039 Y88.91 R0.246
X57.405 Y88.21 R0.686
X57.417 Y88.093 R0.686
G1 X57.504 Y87.722
X57.542 Y87.592
X57.627 Y87.488
X57.737 Y87.409
X57.926 Y87.368
X58.118 Y87.397
X58.287 Y87.493
X58.409 Y87.643
X58.47 Y87.828
X58.461 Y88.021
X58.378 Y88.377
G3 X58.111 Y88.557 R0.246
X57.504 Y87.722 R0.704
G1 X57.583 Y87.386
X57.62 Y87.257
X57.702 Y87.149
X57.807 Y87.065
X57.998 Y87.019
X58.192 Y87.044
X58.364 Y87.139
X58.489 Y87.289
X58.552 Y87.475
X58.543 Y87.671
X58.461 Y88.021
G3 X58.205 Y88.203 R0.247
X57.583 Y87.386 R0.685
G1 X57.669 Y87.021
X57.706 Y86.891
X57.791 Y86.786
X57.899 Y86.705
X58.089 Y86.663
X58.281 Y86.691
X58.451 Y86.787
X58.574 Y86.937
X58.636 Y87.121
X58.627 Y87.316
X58.543 Y87.671
G3 X58.279 Y87.851 R0.246
X57.669 Y87.021 R0.699
G1 X57.747 Y86.686
X57.784 Y86.556
X57.864 Y86.447
X57.969 Y86.363
X58.16 Y86.315
X58.355 Y86.34
X58.527 Y86.434
X58.654 Y86.584
X58.717 Y86.77
X58.708 Y86.966
X58.627 Y87.316
G3 X58.374 Y87.497 R0.247
X57.747 Y86.686 R0.68
G1 X57.835 Y86.309
X57.873 Y86.18
X57.959 Y86.076
X58.124 Y85.996
X58.306 Y85.977
X58.484 Y86.021
X58.637 Y86.123
X58.746 Y86.271
X58.798 Y86.447
X58.787 Y86.63
X58.708 Y86.966
G3 X58.441 Y87.146 R0.246
X57.822 Y86.426 R0.705
X57.835 Y86.309 R0.705
G1 X57.914 Y85.972
X57.952 Y85.842
X58.038 Y85.738
X58.147 Y85.659
X58.337 Y85.62
X58.529 Y85.65
X58.697 Y85.747
X58.819 Y85.898
X58.879 Y86.082
X58.87 Y86.276
X58.787 Y86.63
G3 X58.519 Y86.81 R0.246
X57.901 Y86.089 R0.706
X57.914 Y85.972 R0.706
G1 X57.993 Y85.636
X58.03 Y85.507
X58.112 Y85.399
X58.219 Y85.316
X58.409 Y85.271
X58.603 Y85.297
X58.774 Y85.392
X58.899 Y85.542
X58.962 Y85.728
X58.953 Y85.923
X58.87 Y86.276
G3 X58.612 Y86.457 R0.246
X57.98 Y85.753 R0.689
X57.993 Y85.636 R0.689
G1 X58.079 Y85.271
X58.116 Y85.141
X58.201 Y85.036
X58.31 Y84.956
X58.5 Y84.914
X58.692 Y84.943
X58.861 Y85.039
X58.984 Y85.189
X59.045 Y85.374
X59.036 Y85.568
X58.953 Y85.923
G3 X58.687 Y86.104 R0.246
X58.066 Y85.388 R0.701
X58.079 Y85.271 R0.701
G1 X58.157 Y84.936
X58.195 Y84.806
X58.275 Y84.698
X58.38 Y84.613
X58.571 Y84.566
X58.765 Y84.591
X58.938 Y84.685
X59.064 Y84.836
X59.127 Y85.022
X59.118 Y85.218
X59.036 Y85.568
G3 X58.783 Y85.749 R0.247
X58.144 Y85.053 R0.682
X58.157 Y84.936 R0.682
G1 X58.238 Y84.593
X58.275 Y84.463
X58.354 Y84.354
X58.458 Y84.268
X58.649 Y84.219
X58.844 Y84.242
X59.018 Y84.336
X59.145 Y84.486
X59.209 Y84.672
X59.2 Y84.869
X59.118 Y85.218
G3 X59.062 Y85.32 R0.247
X58.869 Y85.399 R0.247
X58.238 Y84.593 R0.676
G1 X58.324 Y84.222
X58.362 Y84.093
X58.446 Y83.987
X58.554 Y83.906
X58.744 Y83.863
X58.936 Y83.89
X59.106 Y83.986
X59.23 Y84.136
X59.292 Y84.32
X59.283 Y84.515
X59.2 Y84.869
G3 X58.938 Y85.049 R0.246
X58.311 Y84.339 R0.696
X58.324 Y84.222 R0.696
G1 X58.403 Y83.887
X58.441 Y83.757
X58.52 Y83.648
X58.625 Y83.563
X58.816 Y83.515
X59.011 Y83.539
X59.183 Y83.633
X59.31 Y83.783
X59.373 Y83.969
X59.365 Y84.166
X59.283 Y84.515
G3 X59.031 Y84.696 R0.247
X58.39 Y84.003 R0.679
X58.403 Y83.887 R0.679
G1 X58.49 Y83.516
X58.527 Y83.386
X58.612 Y83.281
X58.721 Y83.201
X58.91 Y83.158
X59.103 Y83.187
X59.272 Y83.282
X59.396 Y83.432
X59.457 Y83.617
X59.448 Y83.811
X59.365 Y84.166
G3 X59.101 Y84.346 R0.246
X58.49 Y83.516 R0.699
G1 X58.567 Y83.186
X58.605 Y83.057
X58.683 Y82.947
X58.788 Y82.861
X58.978 Y82.812
X59.174 Y82.836
X59.347 Y82.929
X59.474 Y83.08
X59.538 Y83.266
X59.53 Y83.463
X59.448 Y83.811
G3 X59.198 Y83.993 R0.247
X58.567 Y83.186 R0.676
G1 X58.656 Y82.81
X58.693 Y82.68
X58.778 Y82.575
X58.887 Y82.496
X59.077 Y82.454
X59.269 Y82.483
X59.438 Y82.579
X59.561 Y82.729
X59.622 Y82.913
X59.613 Y83.107
X59.53 Y83.463
G3 X59.264 Y83.643 R0.246
X58.656 Y82.81 R0.702
G1 X58.735 Y82.473
X58.772 Y82.343
X58.853 Y82.235
X58.959 Y82.151
X59.149 Y82.105
X59.344 Y82.13
X59.515 Y82.225
X59.641 Y82.375
X59.704 Y82.561
X59.695 Y82.756
X59.613 Y83.107
G3 X59.358 Y83.288 R0.247
X58.735 Y82.473 R0.685
G1 X58.819 Y82.111
X58.857 Y81.982
X58.94 Y81.876
X59.048 Y81.794
X59.238 Y81.75
X59.431 Y81.778
X59.601 Y81.873
X59.725 Y82.023
X59.787 Y82.208
X59.778 Y82.403
X59.695 Y82.756
G3 X59.434 Y82.937 R0.246
X58.819 Y82.111 R0.694
G1 X58.9 Y81.766
X58.937 Y81.636
X59.019 Y81.529
X59.126 Y81.446
X59.316 Y81.4
X59.51 Y81.426
X59.681 Y81.52
X59.807 Y81.67
X59.869 Y81.856
X59.86 Y82.051
X59.778 Y82.403
G3 X59.521 Y82.584 R0.246
X58.9 Y81.766 R0.686
G1 X58.987 Y81.396
X59.024 Y81.266
X59.11 Y81.162
X59.22 Y81.083
X59.409 Y81.042
X59.601 Y81.071
X59.769 Y81.167
X59.892 Y81.317
X59.953 Y81.502
X59.944 Y81.695
X59.86 Y82.051
G3 X59.593 Y82.231 R0.246
X58.987 Y81.396 R0.704
G1 X59.066 Y81.06
X59.103 Y80.93
X59.184 Y80.822
X59.29 Y80.739
X59.481 Y80.692
X59.675 Y80.718
X59.846 Y80.813
X59.972 Y80.963
X60.035 Y81.149
X60.026 Y81.344
X59.944 Y81.695
G3 X59.888 Y81.797 R0.247
X59.688 Y81.876 R0.246
X59.066 Y81.06 R0.685
G1 X59.151 Y80.694
X59.189 Y80.565
X59.273 Y80.459
X59.382 Y80.379
X59.572 Y80.337
X59.764 Y80.365
X59.933 Y80.461
X60.057 Y80.611
X60.118 Y80.795
X60.109 Y80.989
X60.026 Y81.344
G3 X59.762 Y81.525 R0.246
X59.151 Y80.694 R0.699
G1 X59.23 Y80.36
X59.267 Y80.23
X59.347 Y80.121
X59.452 Y80.036
X59.643 Y79.989
X59.838 Y80.013
X60.01 Y80.107
X60.137 Y80.258
X60.2 Y80.444
X60.191 Y80.64
X60.109 Y80.989
G3 X59.857 Y81.171 R0.247
X59.23 Y80.36 R0.68
G1 X59.318 Y79.983
X59.355 Y79.853
X59.442 Y79.749
X59.607 Y79.67
X59.789 Y79.651
X59.967 Y79.695
X60.119 Y79.797
X60.228 Y79.945
X60.281 Y80.12
X60.27 Y80.304
X60.191 Y80.64
G3 X59.923 Y80.82 R0.246
X59.305 Y80.1 R0.705
X59.318 Y79.983 R0.705
G1 X59.397 Y79.646
X59.434 Y79.516
X59.521 Y79.412
X59.63 Y79.333
X59.82 Y79.293
X60.011 Y79.324
X60.179 Y79.421
X60.302 Y79.572
X60.362 Y79.756
X60.353 Y79.95
X60.27 Y80.304
G3 X60.002 Y80.483 R0.246
X59.397 Y79.646 R0.706
G1 X59.476 Y79.31
X59.513 Y79.18
X59.595 Y79.073
X59.701 Y78.99
X59.892 Y78.944
X60.086 Y78.971
X60.257 Y79.066
X60.382 Y79.216
X60.444 Y79.401
X60.436 Y79.597
X60.353 Y79.95
G3 X60.094 Y80.131 R0.246
X59.476 Y79.31 R0.69
G1 X59.561 Y78.944
X59.599 Y78.815
X59.684 Y78.71
X59.793 Y78.63
X59.983 Y78.588
X60.175 Y78.617
X60.344 Y78.713
X60.467 Y78.863
X60.528 Y79.047
X60.519 Y79.241
X60.436 Y79.597
G3 X60.17 Y79.777 R0.246
X59.561 Y78.944 R0.701
G1 X59.64 Y78.61
X59.677 Y78.48
X59.758 Y78.371
X59.863 Y78.287
X60.054 Y78.24
X60.248 Y78.265
X60.42 Y78.359
X60.547 Y78.509
X60.61 Y78.695
X60.601 Y78.891
X60.519 Y79.241
G3 X60.265 Y79.423 R0.247
X59.627 Y78.727 R0.682
X59.64 Y78.61 R0.682
G1 X59.72 Y78.266
X59.758 Y78.137
X59.837 Y78.027
X59.941 Y77.942
X60.132 Y77.892
X60.327 Y77.916
X60.5 Y78.009
X60.628 Y78.16
X60.691 Y78.346
X60.683 Y78.542
X60.601 Y78.891
G3 X60.351 Y79.073 R0.247
X59.72 Y78.266 R0.676
G1 X59.807 Y77.896
X59.845 Y77.766
X59.929 Y77.661
X60.037 Y77.58
X60.227 Y77.536
X60.419 Y77.564
X60.589 Y77.659
X60.713 Y77.809
X60.775 Y77.994
X60.766 Y78.188
X60.683 Y78.542
G3 X60.421 Y78.723 R0.246
X59.794 Y78.013 R0.696
X59.807 Y77.896 R0.696
G1 X59.886 Y77.56
X59.923 Y77.43
X60.003 Y77.321
X60.108 Y77.237
X60.299 Y77.188
X60.493 Y77.213
X60.666 Y77.307
X60.793 Y77.457
X60.856 Y77.643
X60.848 Y77.839
X60.766 Y78.188
G3 X60.514 Y78.37 R0.247
X59.886 Y77.56 R0.679
G1 X59.973 Y77.19
X60.01 Y77.06
X60.095 Y76.955
X60.203 Y76.875
X60.393 Y76.832
X60.585 Y76.86
X60.755 Y76.956
X60.878 Y77.106
X60.94 Y77.29
X60.931 Y77.484
X60.848 Y77.839
G3 X60.584 Y78.02 R0.246
X59.96 Y77.307 R0.699
X59.973 Y77.19 R0.699
G1 X60.05 Y76.86
X60.087 Y76.73
X60.166 Y76.62
X60.27 Y76.535
X60.461 Y76.486
X60.657 Y76.509
X60.83 Y76.603
X60.957 Y76.753
X61.021 Y76.94
X61.012 Y77.136
X60.931 Y77.484
G3 X60.681 Y77.666 R0.247
X60.05 Y76.86 R0.676
G1 X60.138 Y76.483
X60.176 Y76.354
X60.261 Y76.249
X60.37 Y76.17
X60.56 Y76.128
X60.752 Y76.156
X60.921 Y76.252
X61.044 Y76.402
X61.105 Y76.587
X61.096 Y76.78
X61.012 Y77.136
G3 X60.747 Y77.316 R0.246
X60.138 Y76.483 R0.702
G1 X60.217 Y76.146
X60.255 Y76.016
X60.336 Y75.909
X60.442 Y75.825
X60.632 Y75.778
X60.826 Y75.804
X60.998 Y75.898
X61.124 Y76.049
X61.187 Y76.234
X61.178 Y76.43
X61.096 Y76.78
G3 X60.84 Y76.962 R0.247
X60.217 Y76.146 R0.685
G1 X60.3 Y75.794
X60.337 Y75.665
X60.419 Y75.557
X60.525 Y75.474
X60.715 Y75.427
X60.909 Y75.453
X61.081 Y75.547
X61.206 Y75.698
X61.269 Y75.883
X61.26 Y76.079
X61.178 Y76.43
G3 X60.922 Y76.611 R0.246
X60.287 Y75.911 R0.686
X60.3 Y75.794 R0.686
G1 X60.383 Y75.44
X60.42 Y75.31
X60.503 Y75.203
X60.609 Y75.12
X60.799 Y75.075
X60.993 Y75.101
X61.164 Y75.196
X61.289 Y75.346
X61.352 Y75.531
X61.343 Y75.727
X61.26 Y76.079
G3 X61.002 Y76.26 R0.246
X60.383 Y75.44 R0.689
G1 X60.47 Y75.069
X60.507 Y74.94
X60.593 Y74.836
X60.703 Y74.757
X60.893 Y74.716
X61.084 Y74.746
X61.252 Y74.843
X61.375 Y74.993
X61.435 Y75.177
X61.426 Y75.37
X61.343 Y75.727
G3 X61.075 Y75.906 R0.246
X60.47 Y75.069 R0.706
G1 X60.548 Y74.733
X60.586 Y74.604
X60.667 Y74.496
X60.774 Y74.413
X60.964 Y74.367
X61.158 Y74.393
X61.329 Y74.488
X61.455 Y74.638
X61.517 Y74.823
X61.509 Y75.019
X61.426 Y75.37
G3 X61.17 Y75.551 R0.246
X60.548 Y74.733 R0.687
G1 X60.634 Y74.368
X60.671 Y74.238
X60.756 Y74.133
X60.865 Y74.053
X61.055 Y74.011
X61.247 Y74.039
X61.416 Y74.135
X61.54 Y74.285
X61.601 Y74.47
X61.592 Y74.664
X61.509 Y75.019
G3 X61.244 Y75.199 R0.246
X60.634 Y74.368 R0.7
G1 X60.713 Y74.033
X60.75 Y73.903
X60.83 Y73.795
X60.935 Y73.71
X61.126 Y73.663
X61.321 Y73.688
X61.493 Y73.782
X61.619 Y73.932
X61.683 Y74.118
X61.674 Y74.314
X61.592 Y74.664
G3 X61.339 Y74.845 R0.247
X60.7 Y74.15 R0.681
X60.713 Y74.033 R0.681
G1 X60.793 Y73.69
X60.83 Y73.56
X60.909 Y73.45
X61.013 Y73.365
X61.204 Y73.315
X61.399 Y73.339
X61.573 Y73.432
X61.7 Y73.582
X61.764 Y73.769
X61.756 Y73.965
X61.674 Y74.314
G3 X61.424 Y74.496 R0.247
X60.793 Y73.69 R0.675
G1 X60.88 Y73.319
X60.917 Y73.19
X61.001 Y73.084
X61.109 Y73.003
X61.299 Y72.959
X61.492 Y72.987
X61.662 Y73.082
X61.786 Y73.232
X61.847 Y73.417
X61.838 Y73.611
X61.756 Y73.965
G3 X61.494 Y74.146 R0.246
X60.867 Y73.436 R0.695
X60.88 Y73.319 R0.695
G1 X60.959 Y72.984
X60.996 Y72.854
X61.076 Y72.745
X61.18 Y72.66
X61.371 Y72.612
X61.566 Y72.636
X61.739 Y72.73
X61.866 Y72.88
X61.929 Y73.066
X61.92 Y73.263
X61.838 Y73.611
G3 X61.587 Y73.793 R0.247
X60.959 Y72.984 R0.679
G1 X61.045 Y72.613
X61.083 Y72.483
X61.167 Y72.378
X61.276 Y72.298
X61.466 Y72.255
X61.658 Y72.283
X61.827 Y72.379
X61.951 Y72.529
X62.012 Y72.713
X62.003 Y72.908
X61.92 Y73.263
G3 X61.656 Y73.443 R0.246
X61.032 Y72.73 R0.698
X61.045 Y72.613 R0.698
G1 X61.123 Y72.283
X61.16 Y72.154
X61.239 Y72.044
X61.343 Y71.958
X61.534 Y71.909
X61.729 Y71.933
X61.903 Y72.026
X62.03 Y72.176
X62.094 Y72.363
X62.085 Y72.56
X62.003 Y72.908
G3 X61.947 Y73.01 R0.247
X61.754 Y73.089 R0.247
X61.123 Y72.283 R0.676
G1 X61.211 Y71.907
X61.248 Y71.777
X61.334 Y71.672
X61.443 Y71.593
X61.632 Y71.551
X61.824 Y71.58
X61.993 Y71.676
X62.116 Y71.826
X62.177 Y72.01
X62.168 Y72.204
X62.085 Y72.56
G3 X61.819 Y72.74 R0.246
X61.198 Y72.024 R0.701
X61.211 Y71.907 R0.701
G1 X61.29 Y71.57
X61.327 Y71.44
X61.408 Y71.332
X61.514 Y71.248
X61.705 Y71.202
X61.899 Y71.227
X62.071 Y71.322
X62.197 Y71.472
X62.259 Y71.658
X62.251 Y71.853
X62.168 Y72.204
G3 X61.913 Y72.385 R0.247
X61.29 Y71.57 R0.684
G1 X61.375 Y71.206
X61.412 Y71.077
X61.496 Y70.971
X61.605 Y70.89
X61.794 Y70.847
X61.987 Y70.875
X62.157 Y70.97
X62.281 Y71.12
X62.343 Y71.305
X62.334 Y71.499
X62.251 Y71.853
G3 X61.988 Y72.034 R0.246
X61.375 Y71.206 R0.696
G1 X61.456 Y70.863
X61.493 Y70.733
X61.574 Y70.626
X61.681 Y70.543
X61.871 Y70.496
X62.065 Y70.522
X62.236 Y70.617
X62.362 Y70.767
X62.425 Y70.952
X62.416 Y71.148
X62.334 Y71.499
G3 X62.077 Y71.68 R0.246
X61.456 Y70.863 R0.686
G1 X61.542 Y70.493
X61.58 Y70.363
X61.666 Y70.259
X61.775 Y70.18
X61.965 Y70.138
X62.156 Y70.168
X62.325 Y70.264
X62.448 Y70.414
X62.508 Y70.598
X62.499 Y70.792
X62.416 Y71.148
G3 X62.149 Y71.328 R0.246
X61.542 Y70.493 R0.704
G1 X61.621 Y70.157
X61.658 Y70.027
X61.74 Y69.919
X61.846 Y69.836
X62.036 Y69.789
X62.23 Y69.815
X62.402 Y69.91
X62.528 Y70.06
X62.59 Y70.245
X62.582 Y70.441
X62.499 Y70.792
G3 X62.244 Y70.973 R0.246
X61.621 Y70.157 R0.685
G1 X61.707 Y69.791
X61.744 Y69.662
X61.829 Y69.556
X61.937 Y69.476
X62.127 Y69.433
X62.319 Y69.462
X62.489 Y69.557
X62.612 Y69.707
X62.674 Y69.892
X62.665 Y70.086
X62.582 Y70.441
G3 X62.317 Y70.622 R0.246
X61.707 Y69.791 R0.699
G1 X61.785 Y69.457
X61.823 Y69.327
X61.903 Y69.218
X62.008 Y69.133
X62.198 Y69.086
X62.393 Y69.11
X62.565 Y69.204
X62.692 Y69.355
X62.755 Y69.541
X62.747 Y69.737
X62.665 Y70.086
G3 X62.608 Y70.188 R0.247
X62.412 Y70.268 R0.247
X61.785 Y69.457 R0.68
G1 X61.873 Y69.08
X61.911 Y68.95
X61.997 Y68.846
X62.162 Y68.767
X62.345 Y68.748
X62.522 Y68.792
X62.675 Y68.894
X62.784 Y69.042
X62.836 Y69.217
X62.825 Y69.4
X62.747 Y69.737
G3 X62.479 Y69.917 R0.246
X61.873 Y69.08 R0.705
G1 X61.952 Y68.743
X61.99 Y68.613
X62.076 Y68.509
X62.185 Y68.43
X62.375 Y68.39
X62.567 Y68.421
X62.735 Y68.518
X62.857 Y68.669
X62.918 Y68.853
X62.908 Y69.047
X62.825 Y69.4
G3 X62.557 Y69.58 R0.246
X61.952 Y68.743 R0.706
G1 X62.031 Y68.407
X62.069 Y68.277
X62.15 Y68.17
X62.257 Y68.087
X62.447 Y68.041
X62.641 Y68.068
X62.812 Y68.163
X62.937 Y68.313
X63. Y68.498
X62.991 Y68.694
X62.908 Y69.047
G3 X62.65 Y69.228 R0.246
X62.018 Y68.524 R0.689
X62.031 Y68.407 R0.689
G1 X62.117 Y68.041
X62.154 Y67.912
X62.239 Y67.807
X62.348 Y67.727
X62.538 Y67.685
X62.73 Y67.714
X62.899 Y67.81
X63.022 Y67.96
X63.083 Y68.144
X63.074 Y68.338
X62.991 Y68.694
G3 X62.725 Y68.874 R0.246
X62.117 Y68.041 R0.701
G1 X62.195 Y67.707
X62.233 Y67.577
X62.313 Y67.469
X62.418 Y67.384
X62.609 Y67.337
X62.804 Y67.362
X62.976 Y67.456
X63.102 Y67.606
X63.165 Y67.792
X63.156 Y67.988
X63.074 Y68.338
G3 X62.821 Y68.52 R0.247
X62.195 Y67.707 R0.682
G1 X62.276 Y67.363
X62.313 Y67.234
X62.392 Y67.124
X62.496 Y67.039
X62.687 Y66.989
X62.882 Y67.013
X63.056 Y67.106
X63.183 Y67.257
X63.247 Y67.443
X63.238 Y67.639
X63.156 Y67.988
G3 X63.1 Y68.09 R0.247
X62.907 Y68.17 R0.247
X62.263 Y67.48 R0.676
X62.276 Y67.363 R0.676
G1 X62.363 Y66.993
X62.4 Y66.863
X62.484 Y66.758
X62.592 Y66.677
X62.782 Y66.633
X62.975 Y66.661
X63.144 Y66.756
X63.268 Y66.906
X63.33 Y67.091
X63.321 Y67.285
X63.238 Y67.639
G3 X62.976 Y67.82 R0.246
X62.363 Y66.993 R0.696
G1 X62.441 Y66.657
X62.479 Y66.527
X62.558 Y66.418
X62.663 Y66.334
X62.854 Y66.285
X63.049 Y66.31
X63.222 Y66.404
X63.348 Y66.554
X63.412 Y66.74
X63.403 Y66.936
X63.321 Y67.285
G3 X63.069 Y67.467 R0.247
X62.429 Y66.774 R0.679
X62.441 Y66.657 R0.679
G1 X62.528 Y66.287
X62.565 Y66.157
X62.65 Y66.052
X62.759 Y65.972
X62.948 Y65.929
X63.141 Y65.957
X63.31 Y66.053
X63.434 Y66.203
X63.495 Y66.387
X63.486 Y66.581
X63.403 Y66.936
G3 X63.139 Y67.117 R0.246
X62.515 Y66.404 R0.699
X62.528 Y66.287 R0.699
G1 X62.605 Y65.957
X62.643 Y65.827
X62.721 Y65.717
X62.826 Y65.632
X63.016 Y65.583
X63.212 Y65.606
X63.385 Y65.7
X63.513 Y65.85
X63.576 Y66.037
X63.568 Y66.233
X63.486 Y66.581
G3 X63.236 Y66.763 R0.247
X62.605 Y65.957 R0.676
G1 X62.694 Y65.58
X62.731 Y65.451
X62.816 Y65.346
X62.926 Y65.267
X63.115 Y65.225
X63.307 Y65.253
X63.476 Y65.349
X63.599 Y65.499
X63.66 Y65.684
X63.651 Y65.878
X63.568 Y66.233
G3 X63.511 Y66.335 R0.246
X63.302 Y66.413 R0.246
X62.694 Y65.58 R0.702
G1 X62.773 Y65.243
X62.81 Y65.113
X62.891 Y65.006
X62.997 Y64.922
X63.187 Y64.875
X63.382 Y64.901
X63.553 Y64.995
X63.679 Y65.146
X63.742 Y65.331
X63.733 Y65.527
X63.651 Y65.878
G3 X63.396 Y66.059 R0.247
X62.76 Y65.36 R0.685
X62.773 Y65.243 R0.685
G1 X62.857 Y64.883
X62.894 Y64.753
X62.978 Y64.647
X63.085 Y64.566
X63.275 Y64.521
X63.468 Y64.549
X63.639 Y64.644
X63.763 Y64.794
X63.825 Y64.979
X63.816 Y65.174
X63.733 Y65.527
G3 X63.677 Y65.629 R0.246
X63.473 Y65.708 R0.246
X62.857 Y64.883 R0.693
G1 X62.938 Y64.537
X62.976 Y64.407
X63.057 Y64.3
X63.164 Y64.217
X63.354 Y64.171
X63.548 Y64.197
X63.719 Y64.291
X63.845 Y64.441
X63.907 Y64.627
X63.898 Y64.822
X63.816 Y65.174
G3 X63.559 Y65.355 R0.246
X62.938 Y64.537 R0.687
G1 X63.025 Y64.166
X63.062 Y64.037
X63.149 Y63.933
X63.258 Y63.854
X63.447 Y63.812
X63.639 Y63.842
X63.807 Y63.938
X63.93 Y64.088
X63.991 Y64.272
X63.982 Y64.466
X63.898 Y64.822
G3 X63.631 Y65.002 R0.246
X63.025 Y64.166 R0.704
G1 X63.104 Y63.83
X63.141 Y63.701
X63.223 Y63.593
X63.328 Y63.509
X63.519 Y63.463
X63.713 Y63.489
X63.885 Y63.584
X64.01 Y63.734
X64.073 Y63.919
X64.064 Y64.115
X63.982 Y64.466
G3 X63.926 Y64.568 R0.246
X63.726 Y64.647 R0.246
X63.091 Y63.947 R0.686
X63.104 Y63.83 R0.686
G1 X63.19 Y63.465
X63.227 Y63.335
X63.312 Y63.23
X63.42 Y63.15
X63.61 Y63.107
X63.802 Y63.136
X63.971 Y63.231
X64.095 Y63.381
X64.156 Y63.566
X64.147 Y63.76
X64.064 Y64.115
G3 X63.8 Y64.295 R0.246
X63.176 Y63.582 R0.699
X63.19 Y63.465 R0.699
G1 X63.268 Y63.13
X63.305 Y63.
X63.385 Y62.892
X63.49 Y62.807
X63.681 Y62.759
X63.876 Y62.784
X64.048 Y62.878
X64.175 Y63.028
X64.238 Y63.214
X64.229 Y63.411
X64.147 Y63.76
G3 X63.895 Y63.942 R0.247
X63.268 Y63.13 R0.681
G1 X63.356 Y62.754
X63.394 Y62.624
X63.48 Y62.52
X63.645 Y62.44
X63.827 Y62.422
X64.005 Y62.466
X64.158 Y62.568
X64.266 Y62.715
X64.319 Y62.891
X64.308 Y63.074
X64.229 Y63.411
G3 X63.961 Y63.59 R0.246
X63.343 Y62.871 R0.705
X63.356 Y62.754 R0.705
G1 X63.435 Y62.416
X63.473 Y62.287
X63.559 Y62.183
X63.668 Y62.103
X63.858 Y62.064
X64.05 Y62.095
X64.218 Y62.192
X64.34 Y62.342
X64.4 Y62.527
X64.391 Y62.721
X64.308 Y63.074
G3 X64.04 Y63.254 R0.246
X63.422 Y62.533 R0.706
X63.435 Y62.416 R0.706
G1 X63.514 Y62.081
X63.551 Y61.951
X63.633 Y61.843
X63.739 Y61.76
X63.93 Y61.715
X64.124 Y61.741
X64.295 Y61.836
X64.42 Y61.987
X64.483 Y62.172
X64.474 Y62.368
X64.391 Y62.721
G3 X64.132 Y62.902 R0.246
X63.514 Y62.081 R0.69
G1 X63.6 Y61.715
X63.637 Y61.585
X63.722 Y61.481
X63.831 Y61.401
X64.021 Y61.359
X64.213 Y61.388
X64.382 Y61.483
X64.505 Y61.633
X64.566 Y61.818
X64.557 Y62.012
X64.474 Y62.368
G3 X64.417 Y62.47 R0.246
X64.208 Y62.548 R0.246
X63.587 Y61.832 R0.701
X63.6 Y61.715 R0.701
G1 X63.678 Y61.38
X63.715 Y61.251
X63.796 Y61.142
X63.901 Y61.058
X64.092 Y61.01
X64.286 Y61.036
X64.459 Y61.13
X64.585 Y61.28
X64.648 Y61.466
X64.639 Y61.662
X64.557 Y62.012
G3 X64.303 Y62.193 R0.247
X63.678 Y61.38 R0.682
G1 X63.759 Y61.037
X63.796 Y60.907
X63.875 Y60.798
X63.979 Y60.712
X64.17 Y60.663
X64.365 Y60.687
X64.538 Y60.78
X64.666 Y60.93
X64.729 Y61.116
X64.721 Y61.313
X64.639 Y61.662
G3 X64.389 Y61.844 R0.247
X63.759 Y61.037 R0.676
G1 X63.845 Y60.667
X63.883 Y60.537
X63.967 Y60.431
X64.075 Y60.35
X64.265 Y60.307
X64.457 Y60.335
X64.627 Y60.43
X64.751 Y60.58
X64.813 Y60.765
X64.804 Y60.959
X64.721 Y61.313
G3 X64.459 Y61.494 R0.246
X63.832 Y60.784 R0.696
X63.845 Y60.667 R0.696
G1 X63.924 Y60.331
X63.961 Y60.201
X64.041 Y60.092
X64.146 Y60.007
X64.337 Y59.959
X64.532 Y59.984
X64.704 Y60.077
X64.831 Y60.228
X64.894 Y60.414
X64.886 Y60.61
X64.804 Y60.959
G3 X64.552 Y61.141 R0.247
X63.924 Y60.331 R0.679
G1 X64.011 Y59.96
X64.048 Y59.83
X64.133 Y59.725
X64.242 Y59.645
X64.431 Y59.602
X64.624 Y59.631
X64.793 Y59.726
X64.916 Y59.876
X64.978 Y60.061
X64.969 Y60.255
X64.886 Y60.61
G3 X64.622 Y60.79 R0.246
X64.011 Y59.96 R0.699
G1 X64.088 Y59.63
X64.126 Y59.501
X64.204 Y59.391
X64.308 Y59.305
X64.499 Y59.256
X64.695 Y59.28
X64.868 Y59.374
X64.995 Y59.524
X65.059 Y59.71
X65.051 Y59.907
X64.969 Y60.255
G3 X64.719 Y60.437 R0.247
X64.088 Y59.63 R0.676
G1 X64.176 Y59.254
X64.214 Y59.124
X64.299 Y59.02
X64.408 Y58.94
X64.598 Y58.898
X64.79 Y58.927
X64.959 Y59.023
X65.082 Y59.173
X65.143 Y59.357
X65.134 Y59.551
X65.051 Y59.907
G3 X64.785 Y60.087 R0.246
X64.176 Y59.254 R0.702
G1 X64.255 Y58.917
X64.293 Y58.787
X64.374 Y58.679
X64.48 Y58.595
X64.67 Y58.549
X64.864 Y58.575
X65.036 Y58.669
X65.162 Y58.819
X65.225 Y59.005
X65.216 Y59.201
X65.134 Y59.551
G3 X64.879 Y59.732 R0.247
X64.243 Y59.034 R0.685
X64.255 Y58.917 R0.685
G1 X64.338 Y58.566
X64.375 Y58.436
X64.456 Y58.329
X64.562 Y58.245
X64.753 Y58.198
X64.947 Y58.224
X65.118 Y58.318
X65.244 Y58.468
X65.307 Y58.654
X65.298 Y58.849
X65.216 Y59.201
G3 X65.16 Y59.303 R0.247
X64.961 Y59.382 R0.247
X64.338 Y58.566 R0.685
G1 X64.421 Y58.21
X64.458 Y58.081
X64.541 Y57.974
X64.648 Y57.891
X64.838 Y57.846
X65.031 Y57.872
X65.202 Y57.967
X65.327 Y58.117
X65.39 Y58.302
X65.381 Y58.497
X65.298 Y58.849
G3 X65.242 Y58.952 R0.246
X65.04 Y59.03 R0.246
X64.408 Y58.327 R0.689
X64.421 Y58.21 R0.689
G1 X64.508 Y57.84
X64.545 Y57.71
X64.632 Y57.606
X64.741 Y57.528
X64.931 Y57.487
X65.122 Y57.517
X65.29 Y57.613
X65.413 Y57.763
X65.474 Y57.947
X65.464 Y58.141
X65.381 Y58.497
G3 X65.113 Y58.677 R0.246
X64.495 Y57.957 R0.706
X64.508 Y57.84 R0.706
G1 X64.587 Y57.504
X64.624 Y57.374
X64.706 Y57.267
X64.812 Y57.183
X65.002 Y57.138
X65.196 Y57.164
X65.367 Y57.258
X65.493 Y57.409
X65.556 Y57.594
X65.547 Y57.79
X65.464 Y58.141
G3 X65.408 Y58.243 R0.246
X65.208 Y58.322 R0.246
X64.587 Y57.504 R0.687
G1 X64.672 Y57.138
X64.71 Y57.009
X64.795 Y56.904
X64.903 Y56.824
X65.093 Y56.781
X65.285 Y56.81
X65.454 Y56.906
X65.578 Y57.056
X65.639 Y57.24
X65.63 Y57.434
X65.547 Y57.79
G3 X65.282 Y57.97 R0.246
X64.672 Y57.138 R0.7
G1 X64.751 Y56.804
X64.788 Y56.674
X64.868 Y56.565
X64.973 Y56.481
X65.164 Y56.433
X65.359 Y56.458
X65.531 Y56.552
X65.657 Y56.703
X65.721 Y56.889
X65.712 Y57.085
X65.63 Y57.434
G3 X65.377 Y57.616 R0.247
X64.738 Y56.921 R0.681
X64.751 Y56.804 R0.681
G1 X64.831 Y56.461
X64.868 Y56.331
X64.947 Y56.221
X65.052 Y56.135
X65.242 Y56.086
X65.438 Y56.11
X65.611 Y56.203
X65.738 Y56.353
X65.802 Y56.539
X65.794 Y56.736
X65.712 Y57.085
G3 X65.463 Y57.266 R0.247
X64.831 Y56.461 R0.676
G1 X64.918 Y56.09
X64.955 Y55.96
X65.039 Y55.855
X65.147 Y55.774
X65.337 Y55.73
X65.53 Y55.758
X65.7 Y55.853
X65.824 Y56.003
X65.886 Y56.188
X65.877 Y56.382
X65.794 Y56.736
G3 X65.532 Y56.917 R0.246
X64.918 Y56.09 R0.695
G1 X64.997 Y55.754
X65.034 Y55.624
X65.114 Y55.515
X65.219 Y55.43
X65.409 Y55.382
X65.604 Y55.407
X65.777 Y55.501
X65.904 Y55.651
X65.967 Y55.837
X65.958 Y56.033
X65.877 Y56.382
G3 X65.625 Y56.564 R0.247
X64.984 Y55.871 R0.679
X64.997 Y55.754 R0.679
G1 X65.084 Y55.384
X65.121 Y55.254
X65.205 Y55.149
X65.314 Y55.069
X65.504 Y55.026
X65.696 Y55.054
X65.865 Y55.15
X65.989 Y55.3
X66.051 Y55.484
X66.042 Y55.678
X65.958 Y56.033
G3 X65.695 Y56.214 R0.246
X65.071 Y55.501 R0.698
X65.084 Y55.384 R0.698
G1 X65.161 Y55.054
X65.198 Y54.924
X65.277 Y54.814
X65.381 Y54.729
X65.572 Y54.679
X65.767 Y54.703
X65.941 Y54.797
X66.068 Y54.947
X66.132 Y55.133
X66.123 Y55.33
X66.042 Y55.678
G3 X65.985 Y55.781 R0.247
X65.792 Y55.86 R0.247
X65.148 Y55.171 R0.676
X65.161 Y55.054 R0.676
G1 X65.249 Y54.677
X65.286 Y54.548
X65.372 Y54.443
X65.481 Y54.364
X65.67 Y54.322
X65.862 Y54.35
X66.031 Y54.446
X66.154 Y54.596
X66.216 Y54.781
X66.207 Y54.974
X66.123 Y55.33
G3 X66.067 Y55.432 R0.246
X65.857 Y55.51 R0.246
X65.236 Y54.794 R0.701
X65.249 Y54.677 R0.701
G1 X65.328 Y54.34
X65.365 Y54.21
X65.447 Y54.103
X65.552 Y54.019
X65.743 Y53.972
X65.937 Y53.998
X66.109 Y54.092
X66.235 Y54.243
X66.297 Y54.428
X66.289 Y54.624
X66.207 Y54.974
G3 X65.951 Y55.156 R0.247
X65.315 Y54.457 R0.684
X65.328 Y54.34 R0.684
G1 X65.413 Y53.977
X65.451 Y53.847
X65.535 Y53.742
X65.643 Y53.661
X65.832 Y53.617
X66.025 Y53.645
X66.195 Y53.74
X66.319 Y53.891
X66.381 Y54.075
X66.372 Y54.27
X66.289 Y54.624
G3 X66.026 Y54.805 R0.246
X65.4 Y54.094 R0.696
X65.413 Y53.977 R0.696
G1 X65.494 Y53.634
X65.531 Y53.504
X65.613 Y53.397
X65.719 Y53.313
X65.909 Y53.267
X66.103 Y53.293
X66.275 Y53.387
X66.4 Y53.538
X66.463 Y53.723
X66.454 Y53.919
X66.372 Y54.27
G3 X66.115 Y54.451 R0.246
X65.481 Y53.751 R0.686
X65.494 Y53.634 R0.686
G1 X65.58 Y53.263
X65.618 Y53.134
X65.704 Y53.029
X65.813 Y52.95
X66.003 Y52.909
X66.194 Y52.938
X66.363 Y53.035
X66.486 Y53.185
X66.547 Y53.369
X66.537 Y53.563
X66.454 Y53.919
G3 X66.187 Y54.099 R0.246
X65.58 Y53.263 R0.704
G1 X65.659 Y52.927
X65.697 Y52.798
X65.778 Y52.69
X65.884 Y52.606
X66.074 Y52.56
X66.268 Y52.586
X66.44 Y52.68
X66.566 Y52.83
X66.628 Y53.016
X66.62 Y53.212
X66.537 Y53.563
G3 X66.282 Y53.744 R0.247
X65.659 Y52.927 R0.685
G1 X65.745 Y52.562
X65.782 Y52.432
X65.867 Y52.327
X65.975 Y52.247
X66.165 Y52.204
X66.358 Y52.232
X66.527 Y52.328
X66.65 Y52.478
X66.712 Y52.663
X66.703 Y52.857
X66.62 Y53.212
G3 X66.356 Y53.392 R0.246
X65.732 Y52.679 R0.699
X65.745 Y52.562 R0.699
G1 X65.823 Y52.227
X65.861 Y52.097
X65.941 Y51.989
X66.046 Y51.904
X66.236 Y51.856
X66.431 Y51.881
X66.604 Y51.975
X66.73 Y52.125
X66.793 Y52.311
X66.785 Y52.507
X66.703 Y52.857
G3 X66.45 Y53.038 R0.247
X65.811 Y52.344 R0.68
X65.823 Y52.227 R0.68
G1 X65.912 Y51.851
X65.949 Y51.721
X66.035 Y51.617
X66.2 Y51.537
X66.383 Y51.519
X66.561 Y51.563
X66.713 Y51.665
X66.822 Y51.812
X66.874 Y51.988
X66.864 Y52.171
X66.785 Y52.507
G3 X66.517 Y52.687 R0.246
X65.898 Y51.968 R0.705
X65.912 Y51.851 R0.705
G1 X65.991 Y51.513
X66.028 Y51.384
X66.114 Y51.28
X66.223 Y51.2
X66.413 Y51.161
X66.605 Y51.192
X66.773 Y51.289
X66.895 Y51.439
X66.956 Y51.624
X66.946 Y51.817
X66.864 Y52.171
G3 X66.595 Y52.351 R0.246
X65.991 Y51.513 R0.706
G1 X66.069 Y51.178
X66.107 Y51.048
X66.188 Y50.94
X66.295 Y50.857
X66.485 Y50.812
X66.679 Y50.838
X66.85 Y50.933
X66.976 Y51.084
X67.038 Y51.269
X67.029 Y51.465
X66.946 Y51.817
G3 X66.688 Y51.998 R0.246
X66.056 Y51.295 R0.689
X66.069 Y51.178 R0.689
G1 X66.155 Y50.812
X66.192 Y50.682
X66.278 Y50.578
X66.386 Y50.498
X66.576 Y50.456
X66.768 Y50.484
X66.937 Y50.58
X67.06 Y50.73
X67.122 Y50.915
X67.113 Y51.109
X67.029 Y51.465
G3 X66.764 Y51.645 R0.246
X66.155 Y50.812 R0.701
G1 X66.233 Y50.477
X66.271 Y50.348
X66.351 Y50.239
X66.457 Y50.155
X66.647 Y50.107
X66.842 Y50.133
X67.014 Y50.227
X67.14 Y50.377
X67.203 Y50.563
X67.195 Y50.759
X67.113 Y51.109
G3 X66.859 Y51.29 R0.247
X66.221 Y50.594 R0.682
X66.233 Y50.477 R0.682
G1 X66.314 Y50.134
X66.351 Y50.004
X66.43 Y49.895
X66.535 Y49.809
X66.725 Y49.76
X66.921 Y49.784
X67.094 Y49.877
X67.221 Y50.027
X67.285 Y50.213
X67.276 Y50.41
X67.195 Y50.759
G3 X66.945 Y50.941 R0.247
X66.301 Y50.251 R0.676
X66.314 Y50.134 R0.676
G1 X66.401 Y49.764
X66.438 Y49.634
X66.522 Y49.528
X66.63 Y49.447
X66.82 Y49.404
X67.013 Y49.432
X67.182 Y49.527
X67.307 Y49.677
X67.368 Y49.862
X67.359 Y50.056
X67.276 Y50.41
G3 X67.014 Y50.591 R0.246
X66.388 Y49.881 R0.696
X66.401 Y49.764 R0.696
G1 X66.479 Y49.428
X66.517 Y49.298
X66.597 Y49.189
X66.701 Y49.104
X66.892 Y49.056
X67.087 Y49.081
X67.26 Y49.174
X67.386 Y49.325
X67.45 Y49.511
X67.441 Y49.707
X67.359 Y50.056
G3 X67.107 Y50.238 R0.247
X66.479 Y49.428 R0.679
G1 X66.566 Y49.057
X66.604 Y48.928
X66.688 Y48.822
X66.797 Y48.742
X66.987 Y48.7
X67.179 Y48.728
X67.348 Y48.823
X67.472 Y48.973
X67.533 Y49.158
X67.524 Y49.352
X67.441 Y49.707
G3 X67.385 Y49.809 R0.246
X67.177 Y49.887 R0.246
X66.553 Y49.174 R0.699
X66.566 Y49.057 R0.699
G1 X66.644 Y48.727
X66.681 Y48.598
X66.76 Y48.488
X66.864 Y48.402
X67.055 Y48.353
X67.25 Y48.377
X67.423 Y48.471
X67.551 Y48.621
X67.614 Y48.807
X67.606 Y49.004
X67.524 Y49.352
G3 X67.468 Y49.454 R0.247
X67.275 Y49.534 R0.247
X66.644 Y48.727 R0.676
G1 X66.732 Y48.351
X66.769 Y48.221
X66.854 Y48.117
X66.964 Y48.037
X67.153 Y47.995
X67.345 Y48.024
X67.514 Y48.12
X67.637 Y48.27
X67.698 Y48.454
X67.689 Y48.648
X67.606 Y49.004
G3 X67.55 Y49.106 R0.246
X67.34 Y49.184 R0.246
X66.732 Y48.351 R0.702
G1 X66.811 Y48.014
X66.848 Y47.884
X66.929 Y47.776
X67.035 Y47.692
X67.226 Y47.646
X67.42 Y47.672
X67.592 Y47.766
X67.717 Y47.916
X67.78 Y48.102
X67.771 Y48.298
X67.689 Y48.648
G3 X67.633 Y48.75 R0.247
X67.434 Y48.829 R0.247
X66.798 Y48.131 R0.685
X66.811 Y48.014 R0.685
G1 X66.895 Y47.655
X66.932 Y47.525
X67.015 Y47.419
X67.123 Y47.337
X67.313 Y47.292
X67.506 Y47.32
X67.676 Y47.414
X67.801 Y47.565
X67.863 Y47.75
X67.854 Y47.944
X67.771 Y48.298
G3 X67.511 Y48.478 R0.246
X66.882 Y47.772 R0.692
X66.895 Y47.655 R0.692
G1 X66.976 Y47.307
X67.014 Y47.178
X67.096 Y47.07
X67.202 Y46.987
X67.392 Y46.941
X67.586 Y46.968
X67.757 Y47.062
X67.883 Y47.212
X67.945 Y47.398
X67.937 Y47.593
X67.854 Y47.944
G3 X67.597 Y48.126 R0.246
X66.964 Y47.424 R0.687
X66.976 Y47.307 R0.687
G1 X67.063 Y46.937
X67.101 Y46.807
X67.187 Y46.703
X67.296 Y46.624
X67.486 Y46.583
X67.677 Y46.613
X67.846 Y46.709
X67.968 Y46.859
X68.029 Y47.043
X68.02 Y47.237
X67.937 Y47.593
G3 X67.669 Y47.773 R0.246
X67.05 Y47.054 R0.705
X67.063 Y46.937 R0.705
G1 X67.142 Y46.601
X67.179 Y46.471
X67.261 Y46.364
X67.367 Y46.28
X67.557 Y46.234
X67.751 Y46.26
X67.923 Y46.354
X68.048 Y46.505
X68.111 Y46.69
X68.102 Y46.886
X68.02 Y47.237
G3 X67.764 Y47.418 R0.246
X67.142 Y46.601 R0.686
G1 X67.228 Y46.235
X67.265 Y46.106
X67.35 Y46.001
X67.458 Y45.92
X67.648 Y45.878
X67.84 Y45.906
X68.01 Y46.002
X68.133 Y46.152
X68.195 Y46.337
X68.186 Y46.531
X68.102 Y46.886
G3 X67.838 Y47.066 R0.246
X67.215 Y46.352 R0.699
X67.228 Y46.235 R0.699
G1 X67.306 Y45.901
X67.343 Y45.771
X67.423 Y45.662
X67.529 Y45.578
X67.719 Y45.53
X67.914 Y45.555
X68.086 Y45.649
X68.213 Y45.799
X68.276 Y45.985
X68.267 Y46.181
X68.186 Y46.531
G3 X67.933 Y46.712 R0.247
X67.306 Y45.901 R0.681
G1 X67.394 Y45.524
X67.432 Y45.394
X67.518 Y45.291
X67.683 Y45.211
X67.865 Y45.192
X68.043 Y45.237
X68.196 Y45.338
X68.305 Y45.486
X68.357 Y45.662
X68.346 Y45.845
X68.267 Y46.181
G3 X67.999 Y46.361 R0.246
X67.394 Y45.524 R0.705
G1 X67.473 Y45.187
X67.511 Y45.057
X67.597 Y44.953
X67.706 Y44.874
X67.896 Y44.835
X68.088 Y44.865
X68.256 Y44.962
X68.378 Y45.113
X68.438 Y45.297
X68.429 Y45.491
X68.346 Y45.845
G3 X68.29 Y45.947 R0.246
X68.078 Y46.025 R0.246
X67.46 Y45.304 R0.706
X67.473 Y45.187 R0.706
G1 X67.552 Y44.851
X67.589 Y44.721
X67.671 Y44.614
X67.778 Y44.531
X67.968 Y44.486
X68.162 Y44.512
X68.333 Y44.607
X68.458 Y44.757
X68.521 Y44.943
X68.512 Y45.138
X68.429 Y45.491
G3 X68.171 Y45.672 R0.246
X67.539 Y44.968 R0.69
X67.552 Y44.851 R0.69
G1 X67.638 Y44.486
X67.675 Y44.356
X67.76 Y44.251
X67.869 Y44.171
X68.059 Y44.129
X68.251 Y44.158
X68.42 Y44.254
X68.543 Y44.404
X68.604 Y44.588
X68.595 Y44.783
X68.512 Y45.138
G3 X68.456 Y45.24 R0.246
X68.246 Y45.318 R0.246
X67.625 Y44.603 R0.701
X67.638 Y44.486 R0.701
G1 X67.716 Y44.151
X67.754 Y44.021
X67.834 Y43.913
X67.939 Y43.828
X68.13 Y43.781
X68.324 Y43.806
X68.497 Y43.9
X68.623 Y44.051
X68.686 Y44.236
X68.677 Y44.433
X68.595 Y44.783
G3 X68.539 Y44.885 R0.247
X68.342 Y44.964 R0.247
X67.716 Y44.151 R0.682
G1 X67.797 Y43.808
X67.834 Y43.678
X67.913 Y43.568
X68.017 Y43.483
X68.208 Y43.434
X68.403 Y43.457
X68.577 Y43.551
X68.704 Y43.701
X68.768 Y43.887
X68.759 Y44.084
X68.677 Y44.433
G3 X68.428 Y44.614 R0.247
X67.784 Y43.925 R0.676
X67.797 Y43.808 R0.676
G1 X67.883 Y43.437
X67.921 Y43.307
X68.005 Y43.202
X68.113 Y43.121
X68.303 Y43.078
X68.495 Y43.105
X68.665 Y43.201
X68.789 Y43.351
X68.851 Y43.535
X68.842 Y43.73
X68.759 Y44.084
G3 X68.497 Y44.264 R0.246
X67.871 Y43.554 R0.696
X67.883 Y43.437 R0.696
G1 X67.962 Y43.101
X68. Y42.972
X68.079 Y42.863
X68.184 Y42.778
X68.375 Y42.73
X68.57 Y42.754
X68.742 Y42.848
X68.869 Y42.998
X68.933 Y43.184
X68.924 Y43.381
X68.842 Y43.73
G3 X68.59 Y43.911 R0.247
X67.949 Y43.218 R0.679
X67.962 Y43.101 R0.679
G1 X68.049 Y42.731
X68.086 Y42.601
X68.171 Y42.496
X68.28 Y42.416
X68.469 Y42.373
X68.662 Y42.401
X68.831 Y42.497
X68.955 Y42.647
X69.016 Y42.832
X69.007 Y43.026
X68.924 Y43.381
G3 X68.66 Y43.561 R0.246
X68.036 Y42.848 R0.699
X68.049 Y42.731 R0.699
G1 X68.126 Y42.401
X68.164 Y42.271
X68.242 Y42.162
X68.347 Y42.076
X68.537 Y42.027
X68.733 Y42.051
X68.906 Y42.144
X69.033 Y42.294
X69.097 Y42.481
X69.089 Y42.678
X69.007 Y43.026
G3 X68.757 Y43.207 R0.247
X68.126 Y42.401 R0.676
G1 X68.215 Y42.025
X68.252 Y41.895
X68.337 Y41.79
X68.446 Y41.711
X68.636 Y41.669
X68.828 Y41.698
X68.997 Y41.794
X69.12 Y41.944
X69.181 Y42.128
X69.172 Y42.322
X69.089 Y42.678
G3 X68.823 Y42.858 R0.246
X68.215 Y42.025 R0.702
G1 X68.294 Y41.687
X68.331 Y41.558
X68.412 Y41.45
X68.518 Y41.366
X68.708 Y41.319
X68.903 Y41.345
X69.074 Y41.44
X69.2 Y41.59
X69.263 Y41.775
X69.254 Y41.971
X69.172 Y42.322
G3 X69.116 Y42.424 R0.247
X68.917 Y42.503 R0.247
X68.281 Y41.804 R0.685
X68.294 Y41.687 R0.685
G1 X68.376 Y41.338
X68.413 Y41.208
X68.494 Y41.1
X68.6 Y41.016
X68.79 Y40.969
X68.984 Y40.995
X69.156 Y41.089
X69.282 Y41.239
X69.345 Y41.425
X69.336 Y41.62
X69.254 Y41.971
G3 X69.198 Y42.073 R0.247
X68.999 Y42.153 R0.247
X68.363 Y41.455 R0.684
X68.376 Y41.338 R0.684
G1 X68.459 Y40.981
X68.497 Y40.851
X68.579 Y40.744
X68.686 Y40.662
X68.876 Y40.617
X69.069 Y40.643
X69.24 Y40.738
X69.365 Y40.888
X69.428 Y41.073
X69.419 Y41.268
X69.336 Y41.62
G3 X69.078 Y41.801 R0.246
X68.446 Y41.098 R0.689
X68.459 Y40.981 R0.689
G1 X68.546 Y40.61
X68.583 Y40.481
X68.67 Y40.377
X68.78 Y40.298
X68.969 Y40.258
X69.16 Y40.288
X69.329 Y40.384
X69.451 Y40.534
X69.512 Y40.718
X69.503 Y40.912
X69.419 Y41.268
G3 X69.151 Y41.448 R0.246
X68.546 Y40.61 R0.706
G1 X68.625 Y40.275
X68.662 Y40.145
X68.744 Y40.037
X68.85 Y39.954
X69.04 Y39.908
X69.234 Y39.934
X69.406 Y40.029
X69.531 Y40.179
X69.594 Y40.365
X69.585 Y40.56
X69.503 Y40.912
G3 X69.446 Y41.014 R0.246
X69.246 Y41.093 R0.246
X68.612 Y40.392 R0.687
X68.625 Y40.275 R0.687
G1 X68.71 Y39.909
X68.748 Y39.779
X68.833 Y39.674
X68.941 Y39.594
X69.131 Y39.552
X69.323 Y39.581
X69.492 Y39.676
X69.616 Y39.827
X69.677 Y40.011
X69.668 Y40.205
X69.585 Y40.56
G3 X69.32 Y40.741 R0.246
X68.697 Y40.026 R0.7
X68.71 Y39.909 R0.7
G1 X68.789 Y39.574
X68.826 Y39.445
X68.906 Y39.336
X69.012 Y39.251
X69.202 Y39.204
X69.397 Y39.229
X69.569 Y39.323
X69.696 Y39.473
X69.759 Y39.659
X69.75 Y39.855
X69.668 Y40.205
G3 X69.415 Y40.387 R0.247
X68.776 Y39.691 R0.681
X68.789 Y39.574 R0.681
G1 X68.869 Y39.231
X68.907 Y39.101
X68.985 Y38.992
X69.09 Y38.906
X69.28 Y38.857
X69.476 Y38.88
X69.649 Y38.974
X69.777 Y39.124
X69.84 Y39.31
X69.832 Y39.507
X69.75 Y39.855
G3 X69.501 Y40.037 R0.247
X68.857 Y39.348 R0.676
X68.869 Y39.231 R0.676
G1 X68.956 Y38.861
X68.993 Y38.731
X69.077 Y38.625
X69.186 Y38.544
X69.375 Y38.501
X69.568 Y38.528
X69.738 Y38.624
X69.862 Y38.774
X69.924 Y38.958
X69.915 Y39.153
X69.832 Y39.507
G3 X69.57 Y39.687 R0.246
X68.943 Y38.978 R0.695
X68.956 Y38.861 R0.695
G1 X69.035 Y38.525
X69.072 Y38.395
X69.152 Y38.286
X69.257 Y38.201
X69.447 Y38.153
X69.642 Y38.177
X69.815 Y38.271
X69.942 Y38.421
X70.005 Y38.607
X69.997 Y38.804
X69.915 Y39.153
G3 X69.663 Y39.334 R0.247
X69.022 Y38.642 R0.679
X69.035 Y38.525 R0.679
G1 X69.122 Y38.154
X69.159 Y38.025
X69.244 Y37.919
X69.352 Y37.839
X69.542 Y37.796
X69.734 Y37.825
X69.904 Y37.92
X70.027 Y38.07
X70.089 Y38.255
X70.08 Y38.449
X69.997 Y38.804
G3 X69.733 Y38.984 R0.246
X69.122 Y38.154 R0.698
G1 X69.199 Y37.825
X69.236 Y37.695
X69.315 Y37.585
X69.419 Y37.499
X69.61 Y37.45
X69.805 Y37.474
X69.979 Y37.567
X70.106 Y37.718
X70.17 Y37.904
X70.161 Y38.101
X70.08 Y38.449
G3 X69.83 Y38.631 R0.247
X69.186 Y37.941 R0.676
X69.199 Y37.825 R0.676
G1 X69.287 Y37.448
X69.325 Y37.318
X69.41 Y37.214
X69.519 Y37.134
X69.709 Y37.092
X69.901 Y37.121
X70.069 Y37.217
X70.193 Y37.367
X70.254 Y37.551
X70.245 Y37.745
X70.161 Y38.101
G3 X69.896 Y38.281 R0.246
X69.274 Y37.565 R0.701
X69.287 Y37.448 R0.701
G1 X69.366 Y37.111
X69.404 Y36.981
X69.485 Y36.873
X69.591 Y36.789
X69.781 Y36.743
X69.975 Y36.769
X70.147 Y36.863
X70.273 Y37.013
X70.336 Y37.199
X70.327 Y37.395
X70.245 Y37.745
G3 X69.989 Y37.926 R0.247
X69.353 Y37.228 R0.684
X69.366 Y37.111 R0.684
G1 X69.451 Y36.748
X69.489 Y36.618
X69.573 Y36.512
X69.681 Y36.431
X69.871 Y36.388
X70.063 Y36.416
X70.233 Y36.511
X70.357 Y36.661
X70.419 Y36.846
X70.41 Y37.04
X70.327 Y37.395
G3 X70.064 Y37.575 R0.246
X69.438 Y36.865 R0.696
X69.451 Y36.748 R0.696
G1 X69.532 Y36.404
X69.569 Y36.275
X69.651 Y36.167
X69.757 Y36.084
X69.947 Y36.038
X70.141 Y36.064
X70.313 Y36.158
X70.438 Y36.308
X70.501 Y36.494
X70.492 Y36.689
X70.41 Y37.04
G3 X70.154 Y37.222 R0.246
X69.519 Y36.521 R0.686
X69.532 Y36.404 R0.686
G1 X69.619 Y36.034
X69.656 Y35.904
X69.742 Y35.8
X69.851 Y35.721
X70.041 Y35.68
X70.233 Y35.709
X70.401 Y35.805
X70.524 Y35.955
X70.585 Y36.139
X70.576 Y36.333
X70.492 Y36.689
G3 X70.225 Y36.869 R0.246
X69.619 Y36.034 R0.704
G1 X69.697 Y35.698
X69.735 Y35.568
X69.816 Y35.461
X69.922 Y35.377
X70.112 Y35.331
X70.306 Y35.356
X70.478 Y35.451
X70.604 Y35.601
X70.667 Y35.787
X70.658 Y35.982
X70.576 Y36.333
G3 X70.32 Y36.514 R0.247
X69.697 Y35.698 R0.685
G1 X69.783 Y35.333
X69.82 Y35.203
X69.905 Y35.098
X70.014 Y35.017
X70.203 Y34.975
X70.396 Y35.003
X70.565 Y35.099
X70.689 Y35.249
X70.75 Y35.433
X70.741 Y35.627
X70.658 Y35.982
G3 X70.394 Y36.163 R0.246
X69.77 Y35.449 R0.699
X69.783 Y35.333 R0.699
G1 X69.861 Y34.998
X69.899 Y34.868
X69.979 Y34.759
X70.084 Y34.675
X70.274 Y34.627
X70.469 Y34.652
X70.642 Y34.746
X70.768 Y34.896
X70.832 Y35.082
X70.823 Y35.278
X70.741 Y35.627
G3 X70.488 Y35.809 R0.247
X69.849 Y35.115 R0.68
X69.861 Y34.998 R0.68
G1 X69.95 Y34.621
X69.987 Y34.492
X70.073 Y34.388
X70.238 Y34.308
X70.421 Y34.289
X70.599 Y34.333
X70.751 Y34.435
X70.86 Y34.583
X70.912 Y34.759
X70.902 Y34.942
X70.823 Y35.278
G3 X70.555 Y35.458 R0.246
X69.937 Y34.738 R0.705
X69.95 Y34.621 R0.705
G1 X70.029 Y34.284
X70.066 Y34.154
X70.152 Y34.05
X70.261 Y33.971
X70.451 Y33.931
X70.643 Y33.962
X70.811 Y34.059
X70.933 Y34.21
X70.994 Y34.394
X70.985 Y34.588
X70.902 Y34.942
G3 X70.633 Y35.121 R0.246
X70.016 Y34.401 R0.706
X70.029 Y34.284 R0.706
G1 X70.107 Y33.948
X70.145 Y33.818
X70.227 Y33.711
X70.333 Y33.628
X70.523 Y33.583
X70.717 Y33.609
X70.888 Y33.704
X71.014 Y33.854
X71.076 Y34.04
X71.067 Y34.235
X70.985 Y34.588
G3 X70.726 Y34.769 R0.246
X70.095 Y34.065 R0.689
X70.107 Y33.948 R0.689
G1 X70.193 Y33.583
X70.23 Y33.453
X70.316 Y33.348
X70.425 Y33.268
X70.614 Y33.226
X70.806 Y33.255
X70.975 Y33.351
X71.099 Y33.501
X71.16 Y33.685
X71.151 Y33.879
X71.067 Y34.235
G3 X71.011 Y34.337 R0.246
X70.802 Y34.415 R0.246
X70.193 Y33.583 R0.701
G1 X70.272 Y33.248
X70.309 Y33.118
X70.389 Y33.01
X70.495 Y32.925
X70.685 Y32.878
X70.88 Y32.903
X71.052 Y32.997
X71.178 Y33.148
X71.241 Y33.333
X71.233 Y33.529
X71.151 Y33.879
G3 X71.094 Y33.982 R0.247
X70.897 Y34.061 R0.247
X70.259 Y33.365 R0.682
X70.272 Y33.248 R0.682
G1 X70.352 Y32.905
X70.389 Y32.775
X70.468 Y32.665
X70.573 Y32.58
X70.763 Y32.531
X70.959 Y32.554
X71.132 Y32.648
X71.259 Y32.798
X71.323 Y32.984
X71.314 Y33.181
X71.233 Y33.529
G3 X70.983 Y33.711 R0.247
X70.352 Y32.905 R0.676
G1 X70.439 Y32.534
X70.476 Y32.404
X70.56 Y32.299
X70.668 Y32.218
X70.858 Y32.175
X71.051 Y32.202
X71.221 Y32.298
X71.345 Y32.448
X71.406 Y32.632
X71.397 Y32.827
X71.314 Y33.181
G3 X71.052 Y33.361 R0.246
X70.426 Y32.651 R0.696
X70.439 Y32.534 R0.696
G1 X70.518 Y32.198
X70.555 Y32.069
X70.635 Y31.96
X70.74 Y31.875
X70.93 Y31.827
X71.125 Y31.851
X71.298 Y31.945
X71.425 Y32.095
X71.488 Y32.281
X71.479 Y32.478
X71.397 Y32.827
G3 X71.146 Y33.008 R0.247
X70.518 Y32.198 R0.679
G1 X70.604 Y31.828
X70.642 Y31.698
X70.726 Y31.593
X70.835 Y31.513
X71.025 Y31.47
X71.217 Y31.498
X71.386 Y31.594
X71.51 Y31.744
X71.571 Y31.929
X71.562 Y32.123
X71.479 Y32.478
G3 X71.215 Y32.658 R0.246
X70.591 Y31.945 R0.699
X70.604 Y31.828 R0.699
G1 X70.682 Y31.498
X70.719 Y31.368
X70.798 Y31.259
X70.902 Y31.173
X71.093 Y31.124
X71.288 Y31.148
X71.462 Y31.241
X71.589 Y31.391
X71.653 Y31.578
X71.644 Y31.775
X71.562 Y32.123
G3 X71.313 Y32.304 R0.247
X70.682 Y31.498 R0.676
G1 X70.77 Y31.122
X70.807 Y30.992
X70.893 Y30.887
X71.002 Y30.808
X71.191 Y30.766
X71.383 Y30.795
X71.552 Y30.891
X71.675 Y31.041
X71.736 Y31.225
X71.727 Y31.419
X71.644 Y31.775
G3 X71.378 Y31.955 R0.246
X70.77 Y31.122 R0.702
G1 X70.849 Y30.784
X70.886 Y30.655
X70.968 Y30.547
X71.073 Y30.463
X71.264 Y30.417
X71.458 Y30.442
X71.63 Y30.537
X71.756 Y30.687
X71.818 Y30.872
X71.81 Y31.068
X71.727 Y31.419
G3 X71.472 Y31.6 R0.247
X70.849 Y30.784 R0.685
G1 X70.933 Y30.426
X70.97 Y30.297
X71.053 Y30.19
X71.16 Y30.108
X71.35 Y30.063
X71.544 Y30.09
X71.714 Y30.185
X71.839 Y30.335
X71.901 Y30.52
X71.892 Y30.715
X71.81 Y31.068
G3 X71.55 Y31.249 R0.246
X70.92 Y30.543 R0.691
X70.933 Y30.426 R0.691
G1 X71.015 Y30.078
X71.052 Y29.948
X71.134 Y29.841
X71.24 Y29.758
X71.43 Y29.712
X71.624 Y29.738
X71.796 Y29.833
X71.921 Y29.983
X71.983 Y30.168
X71.975 Y30.364
X71.892 Y30.715
G3 X71.635 Y30.896 R0.246
X71.002 Y30.195 R0.687
X71.015 Y30.078 R0.687
G1 X71.101 Y29.708
X71.139 Y29.578
X71.225 Y29.474
X71.334 Y29.395
X71.524 Y29.354
X71.715 Y29.384
X71.884 Y29.48
X72.006 Y29.63
X72.067 Y29.814
X72.058 Y30.008
X71.975 Y30.364
G3 X71.707 Y30.544 R0.246
X71.088 Y29.824 R0.705
X71.101 Y29.708 R0.705
G1 X71.18 Y29.372
X71.217 Y29.242
X71.299 Y29.134
X71.405 Y29.051
X71.595 Y29.005
X71.789 Y29.031
X71.961 Y29.125
X72.087 Y29.275
X72.149 Y29.461
X72.14 Y29.657
X72.058 Y30.008
G3 X71.802 Y30.189 R0.246
X71.167 Y29.489 R0.686
X71.18 Y29.372 R0.686
G1 X71.266 Y29.006
X71.303 Y28.876
X71.388 Y28.771
X71.497 Y28.691
X71.686 Y28.649
X71.879 Y28.677
X72.048 Y28.773
X72.171 Y28.923
X72.233 Y29.107
X72.224 Y29.301
X72.14 Y29.657
G3 X72.084 Y29.759 R0.246
X71.876 Y29.837 R0.246
X71.253 Y29.123 R0.699
X71.266 Y29.006 R0.699
G1 X71.344 Y28.671
X71.382 Y28.542
X71.462 Y28.433
X71.567 Y28.348
X71.757 Y28.301
X71.952 Y28.326
X72.125 Y28.42
X72.251 Y28.57
X72.314 Y28.756
X72.306 Y28.952
X72.224 Y29.301
G3 X71.971 Y29.483 R0.247
X71.331 Y28.788 R0.681
X71.344 Y28.671 R0.681
G1 X71.425 Y28.328
X71.462 Y28.198
X71.541 Y28.089
X71.645 Y28.003
X71.836 Y27.953
X72.031 Y27.977
X72.204 Y28.07
X72.332 Y28.22
X72.396 Y28.407
X72.387 Y28.603
X72.306 Y28.952
G3 X72.056 Y29.134 R0.247
X71.412 Y28.445 R0.675
X71.425 Y28.328 R0.675
G1 X71.512 Y27.958
X71.549 Y27.828
X71.633 Y27.722
X71.741 Y27.641
X71.931 Y27.598
X72.123 Y27.625
X72.293 Y27.72
X72.417 Y27.87
X72.479 Y28.055
X72.47 Y28.25
X72.387 Y28.603
G3 X72.331 Y28.705 R0.246
X72.126 Y28.784 R0.246
X71.499 Y28.075 R0.695
X71.512 Y27.958 R0.695
G1 X71.59 Y27.622
X71.628 Y27.492
X71.707 Y27.383
X71.812 Y27.298
X72.003 Y27.25
X72.198 Y27.274
X72.37 Y27.368
X72.497 Y27.518
X72.561 Y27.704
X72.552 Y27.901
X72.47 Y28.25
G3 X72.219 Y28.431 R0.247
X71.577 Y27.739 R0.679
X71.59 Y27.622 R0.679
G1 X71.677 Y27.251
X71.714 Y27.122
X71.799 Y27.016
X71.908 Y26.936
X72.097 Y26.893
X72.29 Y26.922
X72.459 Y27.017
X72.583 Y27.167
X72.644 Y27.352
X72.635 Y27.546
X72.552 Y27.901
G3 X72.288 Y28.081 R0.246
X71.664 Y27.368 R0.698
X71.677 Y27.251 R0.698
G1 X71.754 Y26.922
X71.792 Y26.792
X71.87 Y26.682
X71.974 Y26.596
X72.165 Y26.547
X72.361 Y26.571
X72.534 Y26.664
X72.662 Y26.815
X72.725 Y27.001
X72.717 Y27.198
X72.635 Y27.546
G3 X72.579 Y27.648 R0.247
X72.386 Y27.728 R0.247
X71.742 Y27.039 R0.676
X71.754 Y26.922 R0.676
G1 X71.843 Y26.545
X71.88 Y26.415
X71.965 Y26.311
X72.074 Y26.231
X72.264 Y26.189
X72.456 Y26.218
X72.625 Y26.314
X72.748 Y26.464
X72.809 Y26.648
X72.8 Y26.842
X72.717 Y27.198
G3 X72.451 Y27.378 R0.246
X71.83 Y26.662 R0.701
X71.843 Y26.545 R0.701
G1 X71.922 Y26.208
X71.959 Y26.078
X72.04 Y25.97
X72.146 Y25.886
X72.336 Y25.84
X72.531 Y25.866
X72.702 Y25.96
X72.828 Y26.11
X72.891 Y26.296
X72.882 Y26.492
X72.8 Y26.842
G3 X72.545 Y27.023 R0.247
X71.909 Y26.325 R0.684
X71.922 Y26.208 R0.684
G1 X72.007 Y25.845
X72.044 Y25.715
X72.128 Y25.609
X72.236 Y25.528
X72.426 Y25.485
X72.619 Y25.513
X72.788 Y25.608
X72.913 Y25.758
X72.974 Y25.943
X72.965 Y26.137
X72.882 Y26.492
G3 X72.62 Y26.672 R0.246
X71.994 Y25.962 R0.696
X72.007 Y25.845 R0.696
G1 X72.087 Y25.501
X72.125 Y25.372
X72.206 Y25.264
X72.312 Y25.181
X72.503 Y25.135
X72.697 Y25.161
X72.868 Y25.255
X72.994 Y25.405
X73.056 Y25.591
X73.048 Y25.786
X72.965 Y26.137
G3 X72.909 Y26.24 R0.246
X72.709 Y26.319 R0.246
X72.074 Y25.618 R0.686
X72.087 Y25.501 R0.686
G1 X72.174 Y25.131
X72.211 Y25.001
X72.297 Y24.897
X72.407 Y24.818
X72.596 Y24.777
X72.788 Y24.806
X72.956 Y24.902
X73.079 Y25.052
X73.14 Y25.236
X73.131 Y25.43
X73.048 Y25.786
G3 X72.78 Y25.966 R0.246
X72.174 Y25.131 R0.704
G1 X72.253 Y24.795
X72.29 Y24.665
X72.371 Y24.558
X72.477 Y24.474
X72.668 Y24.428
X72.862 Y24.453
X73.033 Y24.548
X73.159 Y24.698
X73.222 Y24.884
X73.213 Y25.079
X73.131 Y25.43
G3 X72.875 Y25.611 R0.247
X72.253 Y24.795 R0.685
G1 X72.338 Y24.43
X72.376 Y24.3
X72.46 Y24.195
X72.569 Y24.114
X72.759 Y24.072
X72.951 Y24.1
X73.12 Y24.196
X73.244 Y24.346
X73.305 Y24.53
X73.296 Y24.724
X73.213 Y25.079
G3 X72.949 Y25.26 R0.246
X72.325 Y24.546 R0.699
X72.338 Y24.43 R0.699
G1 X72.417 Y24.095
X72.454 Y23.965
X72.534 Y23.856
X72.639 Y23.772
X72.83 Y23.724
X73.025 Y23.749
X73.197 Y23.843
X73.324 Y23.993
X73.387 Y24.179
X73.378 Y24.375
X73.296 Y24.724
G3 X73.044 Y24.906 R0.247
X72.404 Y24.212 R0.68
X72.417 Y24.095 R0.68
G1 X72.505 Y23.718
X72.542 Y23.589
X72.629 Y23.485
X72.794 Y23.405
X72.976 Y23.386
X73.154 Y23.43
X73.307 Y23.532
X73.415 Y23.68
X73.468 Y23.856
X73.457 Y24.039
X73.378 Y24.375
G3 X73.11 Y24.555 R0.246
X72.492 Y23.835 R0.705
X72.505 Y23.718 R0.705
G1 X72.584 Y23.381
X72.621 Y23.251
X72.708 Y23.147
X72.817 Y23.068
X73.007 Y23.028
X73.198 Y23.059
X73.366 Y23.156
X73.489 Y23.307
X73.549 Y23.491
X73.54 Y23.685
X73.457 Y24.039
G3 X73.401 Y24.141 R0.246
X73.189 Y24.219 R0.246
X72.584 Y23.381 R0.706
G1 X72.663 Y23.045
X72.7 Y22.916
X72.782 Y22.808
X72.888 Y22.725
X73.079 Y22.68
X73.273 Y22.706
X73.444 Y22.801
X73.569 Y22.951
X73.632 Y23.137
X73.623 Y23.332
X73.54 Y23.685
G3 X73.282 Y23.866 R0.246
X72.663 Y23.045 R0.689
G1 X72.749 Y22.68
X72.786 Y22.55
X72.871 Y22.445
X72.98 Y22.365
X73.17 Y22.323
X73.362 Y22.352
X73.531 Y22.448
X73.654 Y22.598
X73.715 Y22.782
X73.706 Y22.976
X73.623 Y23.332
G3 X73.357 Y23.512 R0.246
X72.749 Y22.68 R0.701
G1 X72.827 Y22.345
X72.864 Y22.215
X72.945 Y22.107
X73.05 Y22.022
X73.241 Y21.975
X73.435 Y22.
X73.607 Y22.094
X73.734 Y22.245
X73.797 Y22.43
X73.788 Y22.627
X73.706 Y22.976
G3 X73.452 Y23.158 R0.247
X72.814 Y22.462 R0.682
X72.827 Y22.345 R0.682
G1 X72.907 Y22.002
X72.945 Y21.872
X73.024 Y21.762
X73.128 Y21.677
X73.319 Y21.628
X73.514 Y21.651
X73.687 Y21.745
X73.815 Y21.895
X73.878 Y22.081
X73.87 Y22.278
X73.788 Y22.627
G3 X73.732 Y22.729 R0.247
X73.538 Y22.808 R0.247
X72.907 Y22.002 R0.676
G1 X72.994 Y21.631
X73.032 Y21.502
X73.116 Y21.396
X73.224 Y21.315
X73.414 Y21.272
X73.606 Y21.299
X73.776 Y21.395
X73.9 Y21.545
X73.962 Y21.729
X73.953 Y21.924
X73.87 Y22.278
G3 X73.813 Y22.38 R0.246
X73.608 Y22.458 R0.246
X72.981 Y21.748 R0.696
X72.994 Y21.631 R0.696
G1 X73.073 Y21.295
X73.11 Y21.166
X73.19 Y21.057
X73.295 Y20.972
X73.486 Y20.924
X73.681 Y20.948
X73.853 Y21.042
X73.98 Y21.192
X74.043 Y21.378
X74.035 Y21.575
X73.953 Y21.924
G3 X73.701 Y22.105 R0.247
X73.073 Y21.295 R0.679
G1 X73.16 Y20.925
X73.197 Y20.795
X73.282 Y20.69
X73.39 Y20.61
X73.58 Y20.567
X73.772 Y20.595
X73.942 Y20.691
X74.065 Y20.841
X74.127 Y21.026
X74.118 Y21.22
X74.035 Y21.575
G3 X73.771 Y21.755 R0.246
X73.147 Y21.042 R0.699
X73.16 Y20.925 R0.699
G1 X73.237 Y20.595
X73.274 Y20.465
X73.353 Y20.356
X73.457 Y20.27
X73.648 Y20.221
X73.844 Y20.245
X74.017 Y20.338
X74.144 Y20.488
X74.208 Y20.675
X74.199 Y20.872
X74.118 Y21.22
G3 X73.868 Y21.401 R0.247
X73.237 Y20.595 R0.676
G1 X73.325 Y20.219
X73.363 Y20.089
X73.448 Y19.984
X73.557 Y19.905
X73.747 Y19.863
X73.939 Y19.892
X74.108 Y19.988
X74.231 Y20.138
X74.292 Y20.322
X74.283 Y20.516
X74.199 Y20.872
G3 X73.934 Y21.052 R0.246
X73.325 Y20.219 R0.702
G1 X73.404 Y19.881
X73.442 Y19.752
X73.523 Y19.644
X73.629 Y19.56
X73.819 Y19.514
X74.013 Y19.539
X74.185 Y19.634
X74.311 Y19.784
X74.374 Y19.969
X74.365 Y20.165
X74.283 Y20.516
G3 X74.027 Y20.697 R0.247
X73.392 Y19.998 R0.685
X73.404 Y19.881 R0.685
G1 X73.489 Y19.518
X73.527 Y19.389
X73.611 Y19.283
X73.719 Y19.202
X73.909 Y19.159
X74.101 Y19.186
X74.271 Y19.282
X74.395 Y19.432
X74.457 Y19.617
X74.448 Y19.811
X74.365 Y20.165
G3 X74.102 Y20.346 R0.246
X73.476 Y19.635 R0.696
X73.489 Y19.518 R0.696
G1 X73.57 Y19.175
X73.607 Y19.045
X73.689 Y18.938
X73.795 Y18.854
X73.985 Y18.808
X74.179 Y18.834
X74.351 Y18.929
X74.476 Y19.079
X74.539 Y19.264
X74.53 Y19.46
X74.448 Y19.811
G3 X74.392 Y19.913 R0.246
X74.192 Y19.992 R0.246
X73.557 Y19.292 R0.686
X73.57 Y19.175 R0.686
G1 X73.657 Y18.805
X73.694 Y18.675
X73.78 Y18.571
X73.889 Y18.492
X74.079 Y18.45
X74.271 Y18.48
X74.439 Y18.576
X74.562 Y18.726
X74.623 Y18.91
X74.614 Y19.104
X74.53 Y19.46
G3 X74.474 Y19.562 R0.246
X74.263 Y19.64 R0.246
X73.657 Y18.805 R0.704
G1 X73.735 Y18.469
X73.773 Y18.339
X73.854 Y18.231
X73.96 Y18.147
X74.15 Y18.101
X74.345 Y18.127
X74.516 Y18.221
X74.642 Y18.372
X74.705 Y18.557
X74.696 Y18.753
X74.614 Y19.104
G3 X74.358 Y19.285 R0.247
X73.735 Y18.469 R0.685
G1 X73.821 Y18.103
X73.859 Y17.973
X73.943 Y17.868
X74.052 Y17.788
X74.241 Y17.745
X74.434 Y17.774
X74.603 Y17.869
X74.727 Y18.019
X74.788 Y18.204
X74.779 Y18.398
X74.696 Y18.753
G3 X74.432 Y18.933 R0.246
X73.808 Y18.22 R0.699
X73.821 Y18.103 R0.699
G1 X73.9 Y17.768
X73.937 Y17.639
X74.017 Y17.53
X74.122 Y17.445
X74.313 Y17.397
X74.507 Y17.422
X74.68 Y17.516
X74.806 Y17.666
X74.87 Y17.852
X74.861 Y18.049
X74.779 Y18.398
G3 X74.527 Y18.58 R0.247
X73.887 Y17.885 R0.68
X73.9 Y17.768 R0.68
G1 X73.988 Y17.392
X74.025 Y17.262
X74.111 Y17.158
X74.277 Y17.079
X74.459 Y17.06
X74.637 Y17.104
X74.789 Y17.206
X74.898 Y17.353
X74.95 Y17.529
X74.94 Y17.712
X74.861 Y18.049
G3 X74.805 Y18.151 R0.246
X74.593 Y18.229 R0.246
X73.975 Y17.509 R0.705
X73.988 Y17.392 R0.705
G1 X74.067 Y17.055
X74.104 Y16.925
X74.19 Y16.821
X74.3 Y16.742
X74.49 Y16.702
X74.681 Y16.733
X74.849 Y16.83
X74.971 Y16.981
X75.032 Y17.165
X75.023 Y17.359
X74.94 Y17.712
G3 X74.672 Y17.892 R0.246
X74.067 Y17.055 R0.706
G1 X74.146 Y16.719
X74.183 Y16.589
X74.265 Y16.482
X74.371 Y16.399
X74.561 Y16.353
X74.755 Y16.38
X74.927 Y16.474
X75.052 Y16.625
X75.114 Y16.81
X75.105 Y17.006
X75.023 Y17.359
G3 X74.764 Y17.54 R0.246
X74.133 Y16.836 R0.689
X74.146 Y16.719 R0.689
G1 X74.231 Y16.353
X74.269 Y16.224
X74.354 Y16.119
X74.463 Y16.039
X74.652 Y15.997
X74.844 Y16.026
X75.013 Y16.122
X75.137 Y16.272
X75.198 Y16.456
X75.189 Y16.65
X75.105 Y17.006
G3 X74.84 Y17.186 R0.246
X74.231 Y16.353 R0.701
G1 X74.31 Y16.019
X74.347 Y15.889
X74.427 Y15.78
X74.533 Y15.696
X74.723 Y15.649
X74.918 Y15.674
X75.09 Y15.768
X75.216 Y15.918
X75.28 Y16.104
X75.271 Y16.3
X75.189 Y16.65
G3 X74.935 Y16.832 R0.247
X74.31 Y16.019 R0.682
G1 X74.39 Y15.675
X74.428 Y15.546
X74.506 Y15.436
X74.611 Y15.35
X74.801 Y15.301
X74.997 Y15.325
X75.17 Y15.418
X75.297 Y15.568
X75.361 Y15.755
X75.353 Y15.951
X75.271 Y16.3
G3 X75.021 Y16.482 R0.247
X74.39 Y15.675 R0.676
G1 X74.477 Y15.305
X74.514 Y15.175
X74.598 Y15.069
X74.707 Y14.989
X74.896 Y14.945
X75.089 Y14.973
X75.259 Y15.068
X75.383 Y15.218
X75.445 Y15.403
X75.436 Y15.597
X75.353 Y15.951
G3 X75.09 Y16.132 R0.246
X74.464 Y15.422 R0.696
X74.477 Y15.305 R0.696
G1 X74.556 Y14.969
X74.593 Y14.839
X74.673 Y14.73
X74.778 Y14.645
X74.968 Y14.597
X75.163 Y14.622
X75.336 Y14.716
X75.463 Y14.866
X75.526 Y15.052
X75.517 Y15.248
X75.436 Y15.597
G3 X75.184 Y15.779 R0.247
X74.543 Y15.086 R0.679
X74.556 Y14.969 R0.679
G1 X74.643 Y14.598
X74.68 Y14.469
X74.765 Y14.364
X74.873 Y14.283
X75.063 Y14.241
X75.255 Y14.269
X75.425 Y14.365
X75.548 Y14.515
X75.61 Y14.699
X75.601 Y14.893
X75.517 Y15.248
G3 X75.253 Y15.429 R0.246
X74.63 Y14.715 R0.699
X74.643 Y14.598 R0.699
G1 X74.72 Y14.269
X74.757 Y14.139
X74.836 Y14.029
X74.94 Y13.944
X75.131 Y13.894
X75.326 Y13.918
X75.5 Y14.012
X75.627 Y14.162
X75.691 Y14.348
X75.682 Y14.545
X75.601 Y14.893
G3 X75.351 Y15.075 R0.247
X74.72 Y14.269 R0.676
G1 X74.808 Y13.892
X74.845 Y13.762
X74.931 Y13.658
X75.04 Y13.578
X75.23 Y13.536
X75.421 Y13.565
X75.59 Y13.661
X75.713 Y13.811
X75.775 Y13.995
X75.766 Y14.189
X75.682 Y14.545
G3 X75.626 Y14.647 R0.246
X75.416 Y14.725 R0.246
X74.808 Y13.892 R0.702
G1 X74.887 Y13.555
X74.924 Y13.425
X75.006 Y13.317
X75.112 Y13.234
X75.302 Y13.187
X75.496 Y13.213
X75.668 Y13.307
X75.794 Y13.457
X75.856 Y13.643
X75.848 Y13.839
X75.766 Y14.189
G3 X75.51 Y14.371 R0.247
X74.874 Y13.672 R0.685
X74.887 Y13.555 R0.685
G1 X74.971 Y13.198
X75.008 Y13.068
X75.091 Y12.962
X75.198 Y12.879
X75.388 Y12.834
X75.581 Y12.861
X75.752 Y12.956
X75.877 Y13.106
X75.939 Y13.291
X75.93 Y13.486
X75.848 Y13.839
G3 X75.589 Y14.02 R0.246
X74.958 Y13.315 R0.69
X74.971 Y13.198 R0.69
G1 X75.053 Y12.849
X75.09 Y12.719
X75.172 Y12.612
X75.279 Y12.529
X75.469 Y12.483
X75.663 Y12.509
X75.834 Y12.604
X75.959 Y12.754
X76.022 Y12.939
X76.013 Y13.135
X75.93 Y13.486
G3 X75.673 Y13.667 R0.246
X75.04 Y12.966 R0.687
X75.053 Y12.849 R0.687
G1 X75.14 Y12.478
X75.177 Y12.348
X75.263 Y12.244
X75.373 Y12.166
X75.562 Y12.125
X75.754 Y12.154
X75.922 Y12.251
X76.045 Y12.401
X76.105 Y12.585
X76.096 Y12.778
X76.013 Y13.135
G3 X75.745 Y13.314 R0.246
X75.14 Y12.478 R0.705
G1 X75.218 Y12.142
X75.256 Y12.013
X75.337 Y11.905
X75.443 Y11.821
X75.633 Y11.775
X75.828 Y11.801
X75.999 Y11.896
X76.125 Y12.046
X76.187 Y12.232
X76.179 Y12.427
X76.096 Y12.778
G3 X75.84 Y12.96 R0.246
X75.205 Y12.259 R0.686
X75.218 Y12.142 R0.686
G1 X75.304 Y11.777
X75.341 Y11.647
X75.426 Y11.542
X75.535 Y11.462
X75.724 Y11.419
X75.917 Y11.448
X76.086 Y11.543
X76.209 Y11.694
X76.271 Y11.878
X76.262 Y12.072
X76.179 Y12.427
G3 X75.914 Y12.608 R0.246
X75.304 Y11.777 R0.699
G1 X75.382 Y11.442
X75.42 Y11.312
X75.5 Y11.204
X75.605 Y11.119
X75.795 Y11.071
X75.99 Y11.096
X76.163 Y11.19
X76.289 Y11.34
X76.352 Y11.526
X76.344 Y11.723
X76.262 Y12.072
G3 X76.009 Y12.254 R0.247
X75.37 Y11.559 R0.681
X75.382 Y11.442 R0.681
G1 X75.463 Y11.099
X75.5 Y10.969
X75.579 Y10.859
X75.683 Y10.774
X75.874 Y10.724
X76.069 Y10.748
X76.243 Y10.841
X76.37 Y10.991
X76.434 Y11.177
X76.425 Y11.374
X76.344 Y11.723
G3 X76.095 Y11.904 R0.247
X75.45 Y11.216 R0.675
X75.463 Y11.099 R0.675
G1 X75.55 Y10.728
X75.587 Y10.599
X75.671 Y10.493
X75.779 Y10.412
