(__2)
(T1  D=3. CR=0. - ZMIN=-10. - FLAT END MILL)
G90 G94 G91.1 G40 G49 G17
G21

(2D ADAPTIVE3)
M5
M9
T1
S10000 M3
G54
M8
G0 X-42.978 Y151.996
G43 Z10. H1
Z5.
Z0.845
G1 Z0.545 F720.
G3 X-42.305 Y152.515 Z0.31 R0.425
X-42.978 Y151.996 Z0.074 R0.425
X-42.305 Y152.515 Z-0.161 R0.425
X-42.978 Y151.996 Z-0.397 R0.425
X-42.305 Y152.515 Z-0.632 R0.425
X-42.978 Y151.996 Z-0.868 R0.425
X-42.305 Y152.515 Z-1.103 R0.425
X-42.978 Y151.996 Z-1.338 R0.425
X-42.305 Y152.515 Z-1.574 R0.425
X-42.978 Y151.996 Z-1.809 R0.425
X-42.305 Y152.515 Z-2.045 R0.425
X-42.978 Y151.996 Z-2.28 R0.425
X-42.305 Y152.515 Z-2.516 R0.425
X-42.978 Y151.996 Z-2.751 R0.425
X-42.305 Y152.515 Z-2.986 R0.425
X-42.978 Y151.996 Z-3.222 R0.425
X-42.305 Y152.515 Z-3.457 R0.425
X-42.978 Y151.996 Z-3.693 R0.425
X-42.305 Y152.515 Z-3.928 R0.425
X-42.978 Y151.996 Z-4.164 R0.425
X-42.305 Y152.515 Z-4.399 R0.425
X-42.978 Y151.996 Z-4.634 R0.425
X-42.305 Y152.515 Z-4.87 R0.425
X-42.978 Y151.996 Z-5.105 R0.425
X-42.305 Y152.515 Z-5.341 R0.425
X-42.978 Y151.996 Z-5.576 R0.425
X-42.305 Y152.515 Z-5.812 R0.425
X-42.978 Y151.996 Z-6.047 R0.425
X-42.305 Y152.515 Z-6.282 R0.425
X-42.978 Y151.996 Z-6.518 R0.425
X-42.305 Y152.515 Z-6.753 R0.425
X-42.978 Y151.996 Z-6.989 R0.425
X-42.305 Y152.515 Z-7.224 R0.425
X-42.978 Y151.996 Z-7.46 R0.425
X-42.305 Y152.515 Z-7.695 R0.425
X-42.978 Y151.996 Z-7.93 R0.425
X-42.305 Y152.515 Z-8.166 R0.425
X-42.978 Y151.996 Z-8.401 R0.425
X-42.305 Y152.515 Z-8.637 R0.425
X-42.978 Y151.996 Z-8.872 R0.425
X-42.305 Y152.515 Z-9.108 R0.425
X-42.978 Y151.996 Z-9.343 R0.425
X-42.305 Y152.515 Z-9.578 R0.425
X-42.978 Y151.996 Z-9.814 R0.425
X-42.216 Y152.255 Z-10. R0.425
X-43.066 R0.425
X-42.216 R0.425
G1 X-42.19 Y152.555
X-42.189 Y152.69
X-42.261 Y152.816
X-42.367 Y152.915
X-42.497 Y152.978
X-42.641 Y153.
X-42.801
X-42.842
X-42.87
X-43.005 Y152.993
X-43.145 Y152.916
X-43.252 Y152.797
X-43.314 Y152.65
G3 X-43.321 Y152.533 R0.438
X-43.228 Y152.293 R0.438
X-42.533 Y152.821 R0.437
X-42.754 Y152.98 R0.437
X-42.87 Y153. R0.437
G1 X-43.037 Y152.995
X-43.136 Y152.959
X-43.205 Y152.909
X-43.256 Y152.843
X-43.284 Y152.777
X-43.41 Y152.238
X-43.435 Y152.106
X-43.428 Y151.971
X-43.396 Y151.84
X-43.333 Y151.707
X-43.196 Y151.558
X-43.021 Y151.454
X-42.823 Y151.405
X-42.62 Y151.415
X-42.429 Y151.483
X-42.264 Y151.603
X-42.128 Y151.71
X-42.054 Y151.76
X-41.946 Y151.841
X-41.813 Y152.026
X-41.749 Y152.244
X-41.761 Y152.471
X-41.847 Y152.682
X-41.998 Y152.852
X-42.197 Y152.962
X-42.421 Y153.
G3 X-42.535 Y152.973 R0.3
X-42.593 Y152.939 R0.3
G1 X-43.303 Y152.398
G3 X-43.41 Y152.238 R0.3
G1 X-43.522 Y151.761
X-43.547 Y151.628
X-43.537 Y151.493
X-43.455 Y151.326
X-43.323 Y151.193
X-43.157 Y151.107
X-42.973 Y151.078
X-42.788 Y151.109
X-42.623 Y151.195
X-42.493 Y151.329
G3 X-42.425 Y151.492 R0.491
X-43.522 Y151.761 R0.565
G1 X-43.615 Y151.363
X-43.64 Y151.23
X-43.624 Y151.096
X-43.53 Y150.943
X-43.392 Y150.829
X-43.224 Y150.767
X-43.045 Y150.763
X-42.874 Y150.818
X-42.731 Y150.926
X-42.631 Y151.075
G3 X-42.614 Y151.136 R0.306
X-43.615 Y151.363 R0.514
G1 X-43.704 Y150.986
X-43.728 Y150.853
X-43.701 Y150.721
X-43.593 Y150.574
X-43.442 Y150.472
X-43.265 Y150.427
X-43.084 Y150.445
X-42.919 Y150.523
X-42.791 Y150.653
X-42.714 Y150.818
G3 X-42.709 Y150.895 R0.25
X-43.66 Y151.095 R0.507
X-43.704 Y150.986 R0.507
G1 X-43.783 Y150.65
X-43.807 Y150.518
X-43.78 Y150.385
X-43.721 Y150.264
X-43.57 Y150.14
X-43.384 Y150.079
X-43.189 Y150.088
X-43.011 Y150.167
X-42.873 Y150.306
X-42.794 Y150.485
X-42.714 Y150.818
G3 X-42.716 Y150.935 R0.247
X-42.859 Y151.101 R0.247
X-43.783 Y150.65 R0.683
G1 X-43.866 Y150.293
X-43.89 Y150.161
X-43.862 Y150.029
X-43.801 Y149.908
X-43.65 Y149.785
X-43.465 Y149.724
X-43.271 Y149.734
X-43.093 Y149.814
X-42.956 Y149.952
X-42.877 Y150.13
X-42.794 Y150.485
G3 X-42.95 Y150.763 R0.246
X-43.866 Y150.293 R0.697
G1 X-43.947 Y149.95
X-43.971 Y149.817
X-43.945 Y149.685
X-43.887 Y149.563
X-43.737 Y149.437
X-43.552 Y149.374
X-43.356 Y149.383
X-43.177 Y149.461
X-43.039 Y149.6
X-42.96 Y149.779
X-42.877 Y150.13
G3 X-43.027 Y150.406 R0.246
X-43.947 Y149.95 R0.686
G1 X-44.028 Y149.602
X-44.052 Y149.469
X-44.028 Y149.336
X-43.97 Y149.214
X-43.821 Y149.088
X-43.635 Y149.024
X-43.439 Y149.032
X-43.26 Y149.11
X-43.121 Y149.249
X-43.042 Y149.428
X-42.96 Y149.779
G3 X-43.107 Y150.054 R0.247
X-44.028 Y149.602 R0.684
G1 X-44.114 Y149.236
X-44.138 Y149.104
X-44.109 Y148.972
X-44.048 Y148.851
X-43.897 Y148.728
X-43.712 Y148.668
X-43.518 Y148.678
X-43.34 Y148.758
X-43.203 Y148.896
X-43.125 Y149.074
X-43.042 Y149.428
G3 X-43.197 Y149.707 R0.246
X-44.114 Y149.236 R0.697
G1 X-44.193 Y148.901
X-44.217 Y148.768
X-44.193 Y148.635
X-44.137 Y148.512
X-43.988 Y148.385
X-43.802 Y148.32
X-43.606 Y148.328
X-43.426 Y148.406
X-43.286 Y148.545
X-43.207 Y148.724
X-43.125 Y149.074
G3 X-43.271 Y149.349 R0.247
X-44.152 Y149.011 R0.68
X-44.193 Y148.901 R0.68
G1 X-44.282 Y148.521
X-44.306 Y148.388
X-44.274 Y148.257
X-44.161 Y148.113
X-44.005 Y148.016
X-43.826 Y147.977
X-43.645 Y148.001
X-43.482 Y148.085
X-43.357 Y148.22
X-43.286 Y148.388
X-43.207 Y148.724
G3 X-43.368 Y149.005 R0.246
X-44.241 Y148.632 R0.708
X-44.282 Y148.521 R0.708
G1 X-44.357 Y148.2
X-44.381 Y148.067
X-44.355 Y147.935
X-44.295 Y147.814
X-44.144 Y147.69
X-43.958 Y147.629
X-43.763 Y147.639
X-43.585 Y147.719
X-43.447 Y147.857
X-43.368 Y148.036
X-43.286 Y148.388
G3 X-43.439 Y148.666 R0.246
X-44.357 Y148.2 R0.694
G1 X-44.437 Y147.857
X-44.461 Y147.724
X-44.437 Y147.591
X-44.379 Y147.469
X-44.229 Y147.343
X-44.044 Y147.28
X-43.848 Y147.288
X-43.669 Y147.366
X-43.53 Y147.505
X-43.451 Y147.684
X-43.368 Y148.036
G3 X-43.373 Y148.153 R0.246
X-43.517 Y148.312 R0.247
X-44.437 Y147.857 R0.686
G1 X-44.524 Y147.487
X-44.548 Y147.354
X-44.518 Y147.222
X-44.455 Y147.103
X-44.304 Y146.981
X-44.119 Y146.922
X-43.925 Y146.933
X-43.749 Y147.013
X-43.612 Y147.151
X-43.534 Y147.328
X-43.451 Y147.684
G3 X-43.609 Y147.964 R0.246
X-44.524 Y147.487 R0.703
G1 X-44.603 Y147.151
X-44.627 Y147.018
X-44.602 Y146.885
X-44.545 Y146.763
X-44.395 Y146.637
X-44.21 Y146.573
X-44.014 Y146.581
X-43.834 Y146.66
X-43.695 Y146.798
X-43.616 Y146.978
X-43.534 Y147.328
G3 X-43.682 Y147.604 R0.247
X-44.562 Y147.261 R0.684
X-44.603 Y147.151 R0.684
G1 X-44.685 Y146.798
X-44.71 Y146.665
X-44.684 Y146.533
X-44.626 Y146.411
X-44.476 Y146.285
X-44.291 Y146.222
X-44.095 Y146.23
X-43.916 Y146.309
X-43.778 Y146.447
X-43.699 Y146.626
X-43.616 Y146.978
G3 X-43.765 Y147.254 R0.246
X-44.685 Y146.798 R0.686
G1 X-44.767 Y146.45
X-44.791 Y146.318
X-44.767 Y146.185
X-44.709 Y146.063
X-44.56 Y145.936
X-44.374 Y145.872
X-44.179 Y145.88
X-43.999 Y145.958
X-43.86 Y146.097
X-43.781 Y146.276
X-43.699 Y146.626
G3 X-43.846 Y146.902 R0.247
X-44.767 Y146.45 R0.683
G1 X-44.847 Y146.107
X-44.872 Y145.974
X-44.849 Y145.841
X-44.794 Y145.718
X-44.645 Y145.59
X-44.459 Y145.524
X-44.262 Y145.531
X-44.082 Y145.609
X-43.942 Y145.747
X-43.862 Y145.927
X-43.781 Y146.276
G3 X-43.924 Y146.55 R0.247
X-44.847 Y146.107 R0.676
G1 X-44.934 Y145.739
X-44.958 Y145.606
X-44.93 Y145.474
X-44.869 Y145.353
X-44.719 Y145.23
X-44.534 Y145.168
X-44.339 Y145.178
X-44.161 Y145.257
X-44.024 Y145.395
X-43.945 Y145.574
X-43.862 Y145.927
G3 X-44.016 Y146.205 R0.246
X-44.934 Y145.739 R0.694
G1 X-45.013 Y145.401
X-45.037 Y145.268
X-45.014 Y145.135
X-44.957 Y145.012
X-44.808 Y144.885
X-44.622 Y144.82
X-44.426 Y144.828
X-44.246 Y144.906
X-44.107 Y145.045
X-44.027 Y145.224
X-43.945 Y145.574
G3 X-44.091 Y145.848 R0.247
X-45.013 Y145.401 R0.68
G1 X-45.097 Y145.043
X-45.121 Y144.911
X-45.095 Y144.778
X-45.036 Y144.656
X-44.886 Y144.531
X-44.701 Y144.468
X-44.506 Y144.477
X-44.327 Y144.555
X-44.189 Y144.694
X-44.11 Y144.872
X-44.027 Y145.224
G3 X-44.177 Y145.501 R0.246
X-45.097 Y145.043 R0.687
G1 X-45.177 Y144.701
X-45.201 Y144.568
X-45.178 Y144.435
X-45.122 Y144.312
X-44.972 Y144.184
X-44.787 Y144.12
X-44.591 Y144.127
X-44.41 Y144.205
X-44.271 Y144.344
X-44.191 Y144.523
X-44.11 Y144.872
G3 X-44.255 Y145.147 R0.247
X-45.136 Y144.811 R0.679
X-45.177 Y144.701 R0.679
G1 X-45.265 Y144.324
X-45.289 Y144.191
X-45.259 Y144.06
X-45.146 Y143.915
X-44.991 Y143.817
X-44.812 Y143.777
X-44.63 Y143.801
X-44.467 Y143.884
X-44.342 Y144.019
X-44.27 Y144.187
X-44.191 Y144.523
G3 X-44.197 Y144.64 R0.246
X-44.351 Y144.803 R0.246
X-45.225 Y144.435 R0.704
X-45.265 Y144.324 R0.704
G1 X-45.342 Y143.997
X-45.366 Y143.864
X-45.339 Y143.732
X-45.279 Y143.611
X-45.127 Y143.488
X-44.941 Y143.428
X-44.747 Y143.439
X-44.569 Y143.519
X-44.431 Y143.657
X-44.353 Y143.836
X-44.27 Y144.187
G3 X-44.425 Y144.466 R0.246
X-45.342 Y143.997 R0.696
G1 X-45.423 Y143.651
X-45.447 Y143.518
X-45.421 Y143.386
X-45.362 Y143.264
X-45.212 Y143.139
X-45.027 Y143.077
X-44.831 Y143.086
X-44.652 Y143.165
X-44.514 Y143.303
X-44.435 Y143.482
X-44.353 Y143.836
G3 X-44.358 Y143.952 R0.246
X-44.504 Y144.113 R0.246
X-45.383 Y143.761 R0.691
X-45.423 Y143.651 R0.691
G1 X-45.502 Y143.312
X-45.527 Y143.18
X-45.504 Y143.046
X-45.448 Y142.923
X-45.299 Y142.795
X-45.114 Y142.73
X-44.917 Y142.737
X-44.737 Y142.815
X-44.597 Y142.953
X-44.517 Y143.133
X-44.435 Y143.482
G3 X-44.441 Y143.599 R0.247
X-44.579 Y143.756 R0.247
X-45.502 Y143.312 R0.677
G1 X-45.587 Y142.951
X-45.611 Y142.818
X-45.585 Y142.685
X-45.526 Y142.564
X-45.376 Y142.439
X-45.191 Y142.376
X-44.996 Y142.385
X-44.817 Y142.464
X-44.679 Y142.602
X-44.6 Y142.781
X-44.517 Y143.133
G3 X-44.668 Y143.41 R0.246
X-45.547 Y143.061 R0.689
X-45.587 Y142.951 R0.689
G1 X-45.668 Y142.607
X-45.692 Y142.475
X-45.668 Y142.342
X-45.611 Y142.219
X-45.462 Y142.092
X-45.276 Y142.028
X-45.08 Y142.035
X-44.9 Y142.113
X-44.761 Y142.252
X-44.682 Y142.431
X-44.6 Y142.781
G3 X-44.746 Y143.056 R0.247
X-45.627 Y142.718 R0.681
X-45.668 Y142.607 R0.681
G1 X-45.754 Y142.237
X-45.779 Y142.104
X-45.749 Y141.973
X-45.687 Y141.853
X-45.536 Y141.73
X-45.351 Y141.67
X-45.157 Y141.681
X-44.98 Y141.761
X-44.843 Y141.899
X-44.765 Y142.076
X-44.682 Y142.431
G3 X-44.839 Y142.71 R0.246
X-45.714 Y142.348 R0.699
X-45.754 Y142.237 R0.699
G1 X-45.833 Y141.901
X-45.857 Y141.768
X-45.833 Y141.635
X-45.776 Y141.513
X-45.627 Y141.386
X-45.441 Y141.322
X-45.245 Y141.33
X-45.065 Y141.409
X-44.926 Y141.547
X-44.847 Y141.727
X-44.765 Y142.076
G3 X-44.912 Y142.352 R0.247
X-45.833 Y141.901 R0.682
G1 X-45.919 Y141.536
X-45.943 Y141.403
X-45.915 Y141.271
X-45.853 Y141.15
X-45.703 Y141.027
X-45.518 Y140.967
X-45.323 Y140.977
X-45.146 Y141.056
X-45.008 Y141.194
X-44.93 Y141.372
X-44.847 Y141.727
G3 X-45.002 Y142.005 R0.246
X-45.878 Y141.646 R0.696
X-45.919 Y141.536 R0.696
G1 X-45.997 Y141.201
X-46.021 Y141.068
X-45.999 Y140.935
X-45.943 Y140.812
X-45.793 Y140.684
X-45.608 Y140.619
X-45.411 Y140.627
X-45.231 Y140.705
X-45.091 Y140.843
X-45.012 Y141.023
X-44.93 Y141.372
G3 X-45.075 Y141.647 R0.247
X-45.957 Y141.311 R0.679
X-45.997 Y141.201 R0.679
G1 X-46.086 Y140.824
X-46.11 Y140.691
X-46.079 Y140.56
X-46.016 Y140.441
X-45.865 Y140.319
X-45.68 Y140.26
X-45.486 Y140.272
X-45.31 Y140.352
X-45.173 Y140.489
X-45.095 Y140.667
X-45.012 Y141.023
G3 X-45.171 Y141.303 R0.246
X-46.045 Y140.935 R0.704
X-46.086 Y140.824 R0.704
G1 X-46.166 Y140.481
X-46.19 Y140.348
X-46.163 Y140.216
X-46.104 Y140.095
X-45.953 Y139.971
X-45.768 Y139.909
X-45.573 Y139.918
X-45.394 Y139.998
X-45.257 Y140.136
X-45.178 Y140.314
X-45.095 Y140.667
G3 X-45.248 Y140.944 R0.246
X-46.126 Y140.592 R0.692
X-46.166 Y140.481 R0.692
G1 X-46.25 Y140.124
X-46.274 Y139.991
X-46.245 Y139.859
X-46.185 Y139.739
X-46.034 Y139.615
X-45.849 Y139.555
X-45.654 Y139.565
X-45.477 Y139.644
X-45.339 Y139.782
X-45.261 Y139.96
X-45.178 Y140.314
G3 X-45.183 Y140.431 R0.246
X-45.333 Y140.593 R0.246
X-46.25 Y140.124 R0.696
G1 X-46.33 Y139.781
X-46.354 Y139.648
X-46.329 Y139.515
X-46.271 Y139.393
X-46.121 Y139.268
X-45.936 Y139.205
X-45.74 Y139.213
X-45.561 Y139.292
X-45.422 Y139.43
X-45.343 Y139.609
X-45.261 Y139.96
G3 X-45.41 Y140.237 R0.247
X-46.29 Y139.891 R0.686
X-46.33 Y139.781 R0.686
G1 X-46.416 Y139.415
X-46.44 Y139.282
X-46.411 Y139.151
X-46.349 Y139.03
X-46.198 Y138.908
X-46.013 Y138.848
X-45.819 Y138.859
X-45.641 Y138.938
X-45.505 Y139.076
X-45.426 Y139.254
X-45.343 Y139.609
G3 X-45.5 Y139.888 R0.246
X-46.375 Y139.526 R0.699
X-46.416 Y139.415 R0.699
G1 X-46.496 Y139.074
X-46.52 Y138.942
X-46.494 Y138.809
X-46.436 Y138.687
X-46.286 Y138.561
X-46.101 Y138.498
X-45.905 Y138.507
X-45.726 Y138.586
X-45.588 Y138.724
X-45.509 Y138.903
X-45.426 Y139.254
G3 X-45.576 Y139.531 R0.247
X-46.455 Y139.185 R0.686
X-46.496 Y139.074 R0.686
G1 X-46.578 Y138.724
X-46.602 Y138.591
X-46.577 Y138.458
X-46.519 Y138.336
X-46.369 Y138.21
X-46.183 Y138.147
X-45.988 Y138.156
X-45.809 Y138.234
X-45.67 Y138.373
X-45.591 Y138.552
X-45.509 Y138.903
G3 X-45.658 Y139.179 R0.246
X-46.537 Y138.834 R0.686
X-46.578 Y138.724 R0.686
G1 X-46.66 Y138.374
X-46.684 Y138.241
X-46.659 Y138.109
X-46.601 Y137.987
X-46.452 Y137.86
X-46.266 Y137.797
X-46.071 Y137.805
X-45.891 Y137.883
X-45.752 Y138.022
X-45.673 Y138.201
X-45.591 Y138.552
G3 X-45.739 Y138.827 R0.247
X-46.619 Y138.485 R0.684
X-46.66 Y138.374 R0.684
G1 X-46.74 Y138.031
X-46.764 Y137.898
X-46.742 Y137.765
X-46.686 Y137.642
X-46.537 Y137.514
X-46.351 Y137.449
X-46.155 Y137.456
X-45.974 Y137.534
X-45.835 Y137.672
X-45.755 Y137.852
X-45.673 Y138.201
G3 X-45.817 Y138.475 R0.247
X-46.74 Y138.031 R0.677
G1 X-46.824 Y137.673
X-46.848 Y137.541
X-46.823 Y137.408
X-46.765 Y137.286
X-46.615 Y137.16
X-46.43 Y137.097
X-46.234 Y137.105
X-46.055 Y137.183
X-45.916 Y137.322
X-45.837 Y137.501
X-45.755 Y137.852
G3 X-45.903 Y138.128 R0.246
X-46.784 Y137.784 R0.685
X-46.824 Y137.673 R0.685
G1 X-46.906 Y137.325
X-46.93 Y137.192
X-46.905 Y137.059
X-46.848 Y136.937
X-46.698 Y136.81
X-46.513 Y136.746
X-46.317 Y136.754
X-46.138 Y136.833
X-45.999 Y136.971
X-45.919 Y137.15
X-45.837 Y137.501
G3 X-45.985 Y137.776 R0.247
X-46.906 Y137.325 R0.683
G1 X-46.991 Y136.959
X-47.016 Y136.826
X-46.987 Y136.694
X-46.926 Y136.574
X-46.775 Y136.451
X-46.59 Y136.391
X-46.396 Y136.401
X-46.218 Y136.48
X-46.081 Y136.618
X-46.002 Y136.796
X-45.919 Y137.15
G3 X-46.075 Y137.429 R0.246
X-46.991 Y136.959 R0.697
G1 X-47.07 Y136.624
X-47.094 Y136.491
X-47.071 Y136.358
X-47.015 Y136.236
X-46.866 Y136.108
X-46.68 Y136.043
X-46.484 Y136.051
X-46.303 Y136.129
X-46.164 Y136.267
X-46.084 Y136.447
X-46.002 Y136.796
G3 X-46.147 Y137.071 R0.247
X-47.029 Y136.735 R0.679
X-47.07 Y136.624 R0.679
G1 X-47.158 Y136.248
X-47.182 Y136.115
X-47.152 Y135.983
X-47.039 Y135.839
X-46.884 Y135.74
X-46.705 Y135.701
X-46.523 Y135.724
X-46.36 Y135.808
X-46.235 Y135.942
X-46.163 Y136.111
X-46.084 Y136.447
G3 X-46.244 Y136.727 R0.246
X-47.118 Y136.358 R0.704
X-47.158 Y136.248 R0.704
G1 X-47.236 Y135.916
X-47.26 Y135.783
X-47.231 Y135.651
X-47.17 Y135.531
X-47.018 Y135.409
X-46.832 Y135.35
X-46.638 Y135.362
X-46.461 Y135.442
X-46.324 Y135.58
X-46.246 Y135.759
X-46.163 Y136.111
G3 X-46.32 Y136.39 R0.246
X-47.196 Y136.026 R0.7
X-47.236 Y135.916 R0.7
G1 X-47.316 Y135.575
X-47.34 Y135.442
X-47.314 Y135.309
X-47.256 Y135.188
X-47.105 Y135.063
X-46.92 Y135.
X-46.725 Y135.009
X-46.546 Y135.088
X-46.407 Y135.226
X-46.328 Y135.405
X-46.246 Y135.759
G3 X-46.397 Y136.036 R0.246
X-47.316 Y135.575 R0.69
G1 X-47.395 Y135.238
X-47.419 Y135.105
X-47.397 Y134.971
X-47.342 Y134.848
X-47.193 Y134.719
X-47.008 Y134.654
X-46.811 Y134.66
X-46.63 Y134.738
X-46.49 Y134.877
X-46.41 Y135.057
X-46.328 Y135.405
G3 X-46.471 Y135.679 R0.247
X-47.395 Y135.238 R0.676
G1 X-47.48 Y134.874
X-47.504 Y134.742
X-47.478 Y134.609
X-47.419 Y134.488
X-47.269 Y134.363
X-47.084 Y134.3
X-46.889 Y134.309
X-46.71 Y134.388
X-46.572 Y134.526
X-46.493 Y134.704
X-46.41 Y135.057
G3 X-46.561 Y135.334 R0.246
X-47.44 Y134.985 R0.689
X-47.48 Y134.874 R0.689
G1 X-47.56 Y134.531
X-47.585 Y134.398
X-47.561 Y134.265
X-47.504 Y134.143
X-47.355 Y134.016
X-47.169 Y133.951
X-46.973 Y133.959
X-46.793 Y134.037
X-46.654 Y134.175
X-46.575 Y134.355
X-46.493 Y134.704
G3 X-46.638 Y134.979 R0.247
X-47.52 Y134.642 R0.68
X-47.56 Y134.531 R0.68
G1 X-47.646 Y134.164
X-47.671 Y134.031
X-47.642 Y133.899
X-47.581 Y133.779
X-47.43 Y133.656
X-47.245 Y133.595
X-47.051 Y133.605
X-46.873 Y133.685
X-46.736 Y133.823
X-46.658 Y134.001
X-46.575 Y134.355
G3 X-46.73 Y134.633 R0.246
X-47.606 Y134.275 R0.696
X-47.646 Y134.164 R0.696
G1 X-47.726 Y133.825
X-47.75 Y133.692
X-47.726 Y133.559
X-47.669 Y133.437
X-47.519 Y133.31
X-47.334 Y133.246
X-47.138 Y133.254
X-46.958 Y133.333
X-46.819 Y133.471
X-46.74 Y133.651
X-46.658 Y134.001
G3 X-46.805 Y134.276 R0.247
X-47.685 Y133.935 R0.683
X-47.726 Y133.825 R0.683
G1 X-47.812 Y133.459
X-47.836 Y133.326
X-47.807 Y133.195
X-47.746 Y133.074
X-47.595 Y132.951
X-47.41 Y132.891
X-47.216 Y132.901
X-47.038 Y132.98
X-46.901 Y133.118
X-46.823 Y133.296
X-46.74 Y133.651
G3 X-46.895 Y133.929 R0.246
X-47.771 Y133.57 R0.697
X-47.812 Y133.459 R0.697
G1 X-47.89 Y133.125
X-47.914 Y132.992
X-47.891 Y132.859
X-47.835 Y132.736
X-47.686 Y132.608
X-47.5 Y132.543
X-47.304 Y132.551
X-47.124 Y132.629
X-46.984 Y132.767
X-46.905 Y132.947
X-46.823 Y133.296
G3 X-46.968 Y133.571 R0.247
X-47.85 Y133.235 R0.679
X-47.89 Y133.125 R0.679
G1 X-47.978 Y132.748
X-48.003 Y132.615
X-47.972 Y132.484
X-47.859 Y132.339
X-47.705 Y132.241
X-47.525 Y132.201
X-47.344 Y132.224
X-47.18 Y132.308
X-47.055 Y132.442
X-46.983 Y132.611
X-46.905 Y132.947
G3 X-47.064 Y133.227 R0.246
X-47.938 Y132.859 R0.704
X-47.978 Y132.748 R0.704
G1 X-48.05 Y132.441
X-48.074 Y132.308
X-48.055 Y132.175
X-47.999 Y132.052
X-47.85 Y131.923
X-47.663 Y131.858
X-47.466 Y131.864
X-47.285 Y131.942
X-47.145 Y132.081
X-47.065 Y132.262
X-46.983 Y132.611
G3 X-47.127 Y132.885 R0.247
X-48.05 Y132.441 R0.677
G1 X-48.136 Y132.075
X-48.16 Y131.942
X-48.133 Y131.81
X-48.073 Y131.689
X-47.923 Y131.565
X-47.738 Y131.503
X-47.543 Y131.512
X-47.365 Y131.591
X-47.227 Y131.729
X-47.148 Y131.908
X-47.065 Y132.262
G3 X-47.218 Y132.539 R0.246
X-48.136 Y132.075 R0.692
G1 X-48.215 Y131.738
X-48.239 Y131.605
X-48.217 Y131.472
X-48.161 Y131.349
X-48.012 Y131.221
X-47.826 Y131.156
X-47.63 Y131.163
X-47.449 Y131.241
X-47.31 Y131.379
X-47.23 Y131.559
X-47.148 Y131.908
G3 X-47.153 Y132.024 R0.247
X-47.292 Y132.182 R0.247
X-48.175 Y131.848 R0.677
X-48.215 Y131.738 R0.677
G1 X-48.3 Y131.375
X-48.324 Y131.242
X-48.298 Y131.11
X-48.238 Y130.988
X-48.088 Y130.864
X-47.903 Y130.802
X-47.708 Y130.811
X-47.529 Y130.89
X-47.391 Y131.028
X-47.313 Y131.206
X-47.23 Y131.559
G3 X-47.382 Y131.836 R0.246
X-48.26 Y131.485 R0.69
X-48.3 Y131.375 R0.69
G1 X-48.381 Y131.031
X-48.405 Y130.899
X-48.381 Y130.766
X-48.324 Y130.643
X-48.174 Y130.516
X-47.989 Y130.452
X-47.793 Y130.46
X-47.613 Y130.539
X-47.474 Y130.677
X-47.395 Y130.856
X-47.313 Y131.206
G3 X-47.459 Y131.482 R0.247
X-48.34 Y131.142 R0.682
X-48.381 Y131.031 R0.682
G1 X-48.468 Y130.661
X-48.492 Y130.528
X-48.462 Y130.396
X-48.4 Y130.277
X-48.249 Y130.155
X-48.064 Y130.095
X-47.87 Y130.106
X-47.693 Y130.185
X-47.556 Y130.323
X-47.478 Y130.501
X-47.395 Y130.856
G3 X-47.552 Y131.136 R0.246
X-48.427 Y130.772 R0.701
X-48.468 Y130.661 R0.701
G1 X-48.546 Y130.325
X-48.57 Y130.192
X-48.546 Y130.059
X-48.489 Y129.937
X-48.339 Y129.81
X-48.154 Y129.747
X-47.958 Y129.755
X-47.778 Y129.833
X-47.639 Y129.972
X-47.56 Y130.151
X-47.478 Y130.501
G3 X-47.625 Y130.777 R0.247
X-48.546 Y130.325 R0.683
G1 X-48.632 Y129.96
X-48.656 Y129.827
X-48.627 Y129.695
X-48.566 Y129.574
X-48.416 Y129.451
X-48.231 Y129.391
X-48.036 Y129.401
X-47.859 Y129.48
X-47.721 Y129.618
X-47.643 Y129.797
X-47.56 Y130.151
G3 X-47.715 Y130.43 R0.246
X-48.632 Y129.96 R0.697
G1 X-48.71 Y129.625
X-48.735 Y129.492
X-48.712 Y129.359
X-48.655 Y129.236
X-48.506 Y129.108
X-48.321 Y129.044
X-48.124 Y129.051
X-47.944 Y129.129
X-47.804 Y129.268
X-47.725 Y129.448
X-47.643 Y129.797
G3 X-47.788 Y130.071 R0.247
X-48.71 Y129.625 R0.679
G1 X-48.799 Y129.248
X-48.823 Y129.115
X-48.792 Y128.984
X-48.68 Y128.839
X-48.525 Y128.741
X-48.346 Y128.701
X-48.164 Y128.725
X-48.001 Y128.808
X-47.876 Y128.943
X-47.804 Y129.111
X-47.725 Y129.448
G3 X-47.884 Y129.728 R0.246
X-48.799 Y129.248 R0.704
G1 X-48.878 Y128.911
X-48.902 Y128.778
X-48.871 Y128.647
X-48.809 Y128.527
X-48.656 Y128.407
X-48.471 Y128.349
X-48.277 Y128.361
X-48.101 Y128.442
X-47.964 Y128.58
X-47.886 Y128.758
X-47.804 Y129.111
G3 X-47.809 Y129.228 R0.246
X-47.964 Y129.392 R0.246
X-48.837 Y129.022 R0.705
X-48.878 Y128.911 R0.705
G1 X-48.956 Y128.575
X-48.981 Y128.442
X-48.955 Y128.31
X-48.897 Y128.188
X-48.747 Y128.063
X-48.561 Y128.
X-48.366 Y128.009
X-48.187 Y128.088
X-48.048 Y128.226
X-47.969 Y128.405
X-47.886 Y128.758
G3 X-48.037 Y129.035 R0.246
X-48.956 Y128.575 R0.689
G1 X-49.042 Y128.21
X-49.066 Y128.077
X-49.037 Y127.945
X-48.975 Y127.825
X-48.823 Y127.703
X-48.639 Y127.643
X-48.445 Y127.654
X-48.267 Y127.734
X-48.131 Y127.872
X-48.052 Y128.05
X-47.969 Y128.405
G3 X-47.974 Y128.522 R0.246
X-48.127 Y128.685 R0.246
X-49.002 Y128.32 R0.701
X-49.042 Y128.21 R0.701
G1 X-49.12 Y127.875
X-49.145 Y127.742
X-49.121 Y127.609
X-49.064 Y127.487
X-48.915 Y127.36
X-48.729 Y127.296
X-48.533 Y127.303
X-48.353 Y127.382
X-48.214 Y127.52
X-48.134 Y127.7
X-48.052 Y128.05
G3 X-48.199 Y128.325 R0.247
X-49.12 Y127.875 R0.682
G1 X-49.201 Y127.532
X-49.225 Y127.399
X-49.203 Y127.266
X-49.148 Y127.143
X-48.999 Y127.014
X-48.813 Y126.948
X-48.617 Y126.955
X-48.436 Y127.033
X-48.296 Y127.171
X-48.216 Y127.351
X-48.134 Y127.7
G3 X-48.277 Y127.974 R0.247
X-49.16 Y127.642 R0.676
X-49.201 Y127.532 R0.676
G1 X-49.288 Y127.161
X-49.312 Y127.028
X-49.284 Y126.896
X-49.223 Y126.776
X-49.072 Y126.653
X-48.887 Y126.592
X-48.693 Y126.602
X-48.515 Y126.681
X-48.378 Y126.819
X-48.299 Y126.997
X-48.216 Y127.351
G3 X-48.371 Y127.629 R0.246
X-49.288 Y127.161 R0.695
G1 X-49.366 Y126.825
X-49.391 Y126.693
X-49.368 Y126.56
X-49.311 Y126.437
X-49.162 Y126.309
X-48.977 Y126.244
X-48.78 Y126.252
X-48.6 Y126.33
X-48.46 Y126.468
X-48.381 Y126.648
X-48.299 Y126.997
G3 X-48.444 Y127.272 R0.247
X-49.366 Y126.825 R0.679
G1 X-49.453 Y126.455
X-49.478 Y126.322
X-49.448 Y126.19
X-49.387 Y126.07
X-49.236 Y125.948
X-49.051 Y125.887
X-48.857 Y125.898
X-48.679 Y125.977
X-48.542 Y126.115
X-48.464 Y126.293
X-48.381 Y126.648
G3 X-48.537 Y126.927 R0.246
X-49.453 Y126.455 R0.698
G1 X-49.531 Y126.125
X-49.555 Y125.992
X-49.533 Y125.859
X-49.478 Y125.736
X-49.329 Y125.607
X-49.143 Y125.542
X-48.946 Y125.548
X-48.765 Y125.626
X-48.625 Y125.765
X-48.546 Y125.945
X-48.464 Y126.293
G3 X-48.607 Y126.567 R0.247
X-49.531 Y126.125 R0.676
G1 X-49.619 Y125.749
X-49.643 Y125.616
X-49.613 Y125.484
X-49.551 Y125.364
X-49.399 Y125.243
X-49.215 Y125.183
X-49.021 Y125.194
X-48.844 Y125.274
X-48.707 Y125.412
X-48.629 Y125.589
X-48.546 Y125.945
G3 X-48.704 Y126.225 R0.246
X-49.619 Y125.749 R0.702
G1 X-49.698 Y125.411
X-49.722 Y125.279
X-49.697 Y125.146
X-49.64 Y125.024
X-49.49 Y124.898
X-49.304 Y124.834
X-49.109 Y124.842
X-48.929 Y124.921
X-48.79 Y125.06
X-48.711 Y125.239
X-48.629 Y125.589
G3 X-48.777 Y125.865 R0.247
X-49.657 Y125.522 R0.685
X-49.698 Y125.411 R0.685
G1 X-49.783 Y125.048
X-49.807 Y124.915
X-49.779 Y124.783
X-49.718 Y124.663
X-49.567 Y124.54
X-49.382 Y124.479
X-49.188 Y124.489
X-49.01 Y124.568
X-48.873 Y124.706
X-48.794 Y124.885
X-48.711 Y125.239
G3 X-48.866 Y125.517 R0.246
X-49.783 Y125.048 R0.696
G1 X-49.863 Y124.705
X-49.888 Y124.572
X-49.862 Y124.44
X-49.804 Y124.318
X-49.654 Y124.192
X-49.469 Y124.129
X-49.273 Y124.137
X-49.094 Y124.216
X-48.956 Y124.354
X-48.877 Y124.534
X-48.794 Y124.885
G3 X-48.943 Y125.161 R0.246
X-49.863 Y124.705 R0.686
G1 X-49.95 Y124.335
X-49.974 Y124.202
X-49.944 Y124.07
X-49.881 Y123.951
X-49.729 Y123.83
X-49.545 Y123.771
X-49.351 Y123.782
X-49.174 Y123.862
X-49.038 Y124.
X-48.96 Y124.177
X-48.877 Y124.534
G3 X-49.036 Y124.813 R0.246
X-49.95 Y124.335 R0.704
G1 X-50.029 Y123.999
X-50.053 Y123.866
X-50.028 Y123.733
X-49.971 Y123.611
X-49.821 Y123.485
X-49.635 Y123.422
X-49.439 Y123.43
X-49.26 Y123.509
X-49.121 Y123.647
X-49.042 Y123.827
X-48.96 Y124.177
G3 X-49.109 Y124.453 R0.247
X-50.029 Y123.999 R0.685
G1 X-50.115 Y123.633
X-50.139 Y123.5
X-50.11 Y123.368
X-50.048 Y123.248
X-49.897 Y123.126
X-49.712 Y123.066
X-49.518 Y123.076
X-49.341 Y123.156
X-49.204 Y123.294
X-49.125 Y123.472
X-49.042 Y123.827
G3 X-49.199 Y124.106 R0.246
X-50.074 Y123.744 R0.699
X-50.115 Y123.633 R0.699
G1 X-50.193 Y123.298
X-50.217 Y123.166
X-50.194 Y123.033
X-50.138 Y122.91
X-49.988 Y122.783
X-49.802 Y122.718
X-49.606 Y122.726
X-49.426 Y122.804
X-49.287 Y122.943
X-49.207 Y123.122
X-49.125 Y123.472
G3 X-49.271 Y123.747 R0.247
X-50.193 Y123.298 R0.68
G1 X-50.281 Y122.922
X-50.306 Y122.789
X-50.275 Y122.658
X-50.162 Y122.513
X-50.007 Y122.415
X-49.828 Y122.376
X-49.646 Y122.399
X-49.483 Y122.483
X-49.358 Y122.617
X-49.286 Y122.786
X-49.207 Y123.122
G3 X-49.367 Y123.402 R0.246
X-50.241 Y123.032 R0.705
X-50.281 Y122.922 R0.705
G1 X-50.36 Y122.585
X-50.385 Y122.452
X-50.354 Y122.32
X-50.291 Y122.201
X-50.138 Y122.081
X-49.953 Y122.023
X-49.759 Y122.036
X-49.583 Y122.116
X-49.447 Y122.255
X-49.369 Y122.432
X-49.286 Y122.786
G3 X-49.447 Y123.066 R0.246
X-50.32 Y122.695 R0.706
X-50.36 Y122.585 R0.706
G1 X-50.439 Y122.249
X-50.463 Y122.116
X-50.438 Y121.983
X-50.379 Y121.862
X-50.229 Y121.736
X-50.044 Y121.674
X-49.848 Y121.683
X-49.669 Y121.762
X-49.531 Y121.9
X-49.452 Y122.079
X-49.369 Y122.432
G3 X-49.52 Y122.709 R0.246
X-50.439 Y122.249 R0.689
G1 X-50.525 Y121.883
X-50.549 Y121.75
X-50.519 Y121.619
X-50.457 Y121.499
X-50.306 Y121.377
X-50.121 Y121.317
X-49.927 Y121.328
X-49.75 Y121.408
X-49.613 Y121.546
X-49.535 Y121.724
X-49.452 Y122.079
G3 X-49.61 Y122.359 R0.246
X-50.485 Y121.994 R0.701
X-50.525 Y121.883 R0.701
G1 X-50.603 Y121.549
X-50.627 Y121.416
X-50.604 Y121.283
X-50.547 Y121.16
X-50.397 Y121.033
X-50.212 Y120.969
X-50.015 Y120.977
X-49.836 Y121.056
X-49.696 Y121.194
X-49.617 Y121.374
X-49.535 Y121.724
G3 X-49.682 Y121.999 R0.247
X-50.603 Y121.549 R0.682
G1 X-50.684 Y121.205
X-50.708 Y121.072
X-50.686 Y120.939
X-50.63 Y120.816
X-50.482 Y120.687
X-50.296 Y120.622
X-50.099 Y120.628
X-49.918 Y120.706
X-49.779 Y120.845
X-49.699 Y121.025
X-49.617 Y121.374
G3 X-49.76 Y121.647 R0.247
X-50.684 Y121.205 R0.676
G1 X-50.771 Y120.835
X-50.795 Y120.702
X-50.766 Y120.57
X-50.705 Y120.45
X-50.555 Y120.326
X-50.37 Y120.266
X-50.175 Y120.275
X-49.998 Y120.355
X-49.86 Y120.493
X-49.782 Y120.671
X-49.699 Y121.025
G3 X-49.854 Y121.303 R0.246
X-50.771 Y120.835 R0.696
G1 X-50.849 Y120.499
X-50.873 Y120.366
X-50.85 Y120.233
X-50.794 Y120.11
X-50.645 Y119.983
X-50.459 Y119.918
X-50.263 Y119.925
X-50.083 Y120.004
X-49.943 Y120.142
X-49.864 Y120.322
X-49.782 Y120.671
G3 X-49.927 Y120.945 R0.247
X-50.849 Y120.499 R0.679
G1 X-50.936 Y120.128
X-50.96 Y119.996
X-50.931 Y119.864
X-50.869 Y119.744
X-50.718 Y119.621
X-50.534 Y119.561
X-50.339 Y119.572
X-50.162 Y119.651
X-50.025 Y119.789
X-49.947 Y119.967
X-49.864 Y120.322
G3 X-50.02 Y120.601 R0.246
X-50.936 Y120.128 R0.699
G1 X-51.013 Y119.799
X-51.038 Y119.666
X-51.016 Y119.533
X-50.961 Y119.409
X-50.811 Y119.281
X-50.626 Y119.215
X-50.429 Y119.222
X-50.248 Y119.3
X-50.108 Y119.439
X-50.028 Y119.619
X-49.947 Y119.967
G3 X-50.09 Y120.241 R0.247
X-50.973 Y119.909 R0.676
X-51.013 Y119.799 R0.676
G1 X-51.102 Y119.422
X-51.126 Y119.289
X-51.096 Y119.158
X-51.033 Y119.038
X-50.882 Y118.916
X-50.697 Y118.857
X-50.504 Y118.868
X-50.327 Y118.947
X-50.19 Y119.085
X-50.112 Y119.263
X-50.028 Y119.619
G3 X-50.187 Y119.898 R0.246
X-51.061 Y119.533 R0.702
X-51.102 Y119.422 R0.702
G1 X-51.181 Y119.085
X-51.205 Y118.952
X-51.18 Y118.819
X-51.122 Y118.697
X-50.973 Y118.571
X-50.787 Y118.508
X-50.591 Y118.516
X-50.412 Y118.595
X-50.273 Y118.733
X-50.194 Y118.912
X-50.112 Y119.263
G3 X-50.26 Y119.539 R0.247
X-51.181 Y119.085 R0.685
G1 X-51.266 Y118.722
X-51.29 Y118.589
X-51.262 Y118.457
X-51.201 Y118.337
X-51.05 Y118.213
X-50.865 Y118.153
X-50.671 Y118.163
X-50.493 Y118.242
X-50.355 Y118.38
X-50.277 Y118.558
X-50.194 Y118.912
G3 X-50.349 Y119.191 R0.246
X-51.266 Y118.722 R0.696
G1 X-51.346 Y118.379
X-51.37 Y118.246
X-51.345 Y118.113
X-51.287 Y117.991
X-51.137 Y117.865
X-50.952 Y117.803
X-50.756 Y117.811
X-50.577 Y117.89
X-50.438 Y118.028
X-50.359 Y118.207
X-50.277 Y118.558
G3 X-50.426 Y118.834 R0.246
X-51.306 Y118.489 R0.686
X-51.346 Y118.379 R0.686
G1 X-51.433 Y118.008
X-51.457 Y117.875
X-51.427 Y117.744
X-51.364 Y117.624
X-51.212 Y117.503
X-51.027 Y117.444
X-50.834 Y117.456
X-50.657 Y117.536
X-50.521 Y117.673
X-50.443 Y117.851
X-50.359 Y118.207
G3 X-50.519 Y118.487 R0.246
X-51.393 Y118.119 R0.704
X-51.433 Y118.008 R0.704
G1 X-51.512 Y117.672
X-51.536 Y117.539
X-51.511 Y117.407
X-51.453 Y117.285
X-51.303 Y117.159
X-51.118 Y117.095
X-50.922 Y117.104
X-50.743 Y117.183
X-50.604 Y117.321
X-50.525 Y117.5
X-50.443 Y117.851
G3 X-50.591 Y118.127 R0.247
X-51.471 Y117.783 R0.685
X-51.512 Y117.672 R0.685
G1 X-51.597 Y117.307
X-51.622 Y117.174
X-51.592 Y117.042
X-51.531 Y116.922
X-51.38 Y116.799
X-51.195 Y116.739
X-51.001 Y116.75
X-50.823 Y116.829
X-50.686 Y116.967
X-50.608 Y117.145
X-50.525 Y117.5
G3 X-50.681 Y117.779 R0.246
X-51.557 Y117.417 R0.699
X-51.597 Y117.307 R0.699
G1 X-51.676 Y116.972
X-51.7 Y116.839
X-51.677 Y116.706
X-51.62 Y116.584
X-51.471 Y116.456
X-51.285 Y116.392
X-51.089 Y116.399
X-50.909 Y116.478
X-50.769 Y116.616
X-50.69 Y116.796
X-50.608 Y117.145
G3 X-50.754 Y117.42 R0.247
X-51.676 Y116.972 R0.68
G1 X-51.764 Y116.595
X-51.788 Y116.463
X-51.757 Y116.331
X-51.645 Y116.187
X-51.49 Y116.089
X-51.311 Y116.049
X-51.129 Y116.073
X-50.966 Y116.157
X-50.841 Y116.291
X-50.769 Y116.459
X-50.69 Y116.796
G3 X-50.85 Y117.076 R0.246
X-51.724 Y116.706 R0.705
X-51.764 Y116.595 R0.705
G1 X-51.843 Y116.258
X-51.867 Y116.125
X-51.836 Y115.994
X-51.774 Y115.874
X-51.621 Y115.755
X-51.436 Y115.697
X-51.242 Y115.709
X-51.066 Y115.79
X-50.93 Y115.928
X-50.852 Y116.106
X-50.769 Y116.459
G3 X-50.929 Y116.74 R0.246
X-51.843 Y116.258 R0.706
G1 X-51.922 Y115.922
X-51.946 Y115.79
X-51.92 Y115.657
X-51.862 Y115.535
X-51.712 Y115.41
X-51.526 Y115.348
X-51.331 Y115.356
X-51.152 Y115.435
X-51.013 Y115.574
X-50.934 Y115.753
X-50.852 Y116.106
G3 X-51.003 Y116.383 R0.246
X-51.881 Y116.033 R0.689
X-51.922 Y115.922 R0.689
G1 X-52.008 Y115.557
X-52.032 Y115.424
X-52.002 Y115.292
X-51.94 Y115.172
X-51.789 Y115.05
X-51.604 Y114.991
X-51.41 Y115.002
X-51.233 Y115.081
X-51.096 Y115.219
X-51.018 Y115.397
X-50.934 Y115.753
G3 X-51.092 Y116.032 R0.246
X-51.967 Y115.667 R0.701
X-52.008 Y115.557 R0.701
G1 X-52.086 Y115.222
X-52.11 Y115.089
X-52.086 Y114.956
X-52.03 Y114.834
X-51.88 Y114.707
X-51.694 Y114.643
X-51.498 Y114.651
X-51.318 Y114.729
X-51.179 Y114.868
X-51.1 Y115.047
X-51.018 Y115.397
G3 X-51.165 Y115.673 R0.247
X-52.086 Y115.222 R0.682
G1 X-52.166 Y114.879
X-52.191 Y114.746
X-52.169 Y114.613
X-52.113 Y114.49
X-51.964 Y114.361
X-51.779 Y114.295
X-51.582 Y114.302
X-51.401 Y114.38
X-51.261 Y114.519
X-51.182 Y114.698
X-51.1 Y115.047
G3 X-51.105 Y115.164 R0.247
X-51.243 Y115.321 R0.247
X-52.166 Y114.879 R0.676
G1 X-52.253 Y114.508
X-52.277 Y114.376
X-52.249 Y114.244
X-52.188 Y114.123
X-52.037 Y114.
X-51.853 Y113.939
X-51.658 Y113.949
X-51.48 Y114.028
X-51.343 Y114.166
X-51.265 Y114.344
X-51.182 Y114.698
G3 X-51.336 Y114.977 R0.246
X-52.213 Y114.619 R0.696
X-52.253 Y114.508 R0.696
G1 X-52.332 Y114.173
X-52.356 Y114.04
X-52.333 Y113.907
X-52.277 Y113.784
X-52.128 Y113.656
X-51.942 Y113.592
X-51.746 Y113.599
X-51.565 Y113.677
X-51.426 Y113.816
X-51.346 Y113.995
X-51.265 Y114.344
G3 X-51.41 Y114.619 R0.247
X-52.332 Y114.173 R0.679
G1 X-52.419 Y113.802
X-52.443 Y113.669
X-52.414 Y113.537
X-52.352 Y113.417
X-52.201 Y113.295
X-52.016 Y113.235
X-51.822 Y113.245
X-51.645 Y113.325
X-51.508 Y113.463
X-51.43 Y113.641
X-51.346 Y113.995
G3 X-51.503 Y114.274 R0.246
X-52.419 Y113.802 R0.699
G1 X-52.496 Y113.472
X-52.52 Y113.339
X-52.499 Y113.206
X-52.443 Y113.083
X-52.294 Y112.954
X-52.108 Y112.889
X-51.912 Y112.896
X-51.731 Y112.974
X-51.591 Y113.112
X-51.511 Y113.292
X-51.43 Y113.641
G3 X-51.573 Y113.914 R0.247
X-52.456 Y113.583 R0.676
X-52.496 Y113.472 R0.676
G1 X-52.584 Y113.096
X-52.609 Y112.963
X-52.579 Y112.831
X-52.516 Y112.712
X-52.365 Y112.59
X-52.18 Y112.53
X-51.986 Y112.541
X-51.809 Y112.621
X-51.673 Y112.759
X-51.595 Y112.937
X-51.511 Y113.292
G3 X-51.669 Y113.572 R0.246
X-52.584 Y113.096 R0.702
G1 X-52.663 Y112.759
X-52.688 Y112.626
X-52.663 Y112.493
X-52.605 Y112.371
X-52.455 Y112.245
X-52.27 Y112.181
X-52.074 Y112.19
X-51.895 Y112.268
X-51.756 Y112.407
X-51.677 Y112.586
X-51.595 Y112.937
G3 X-51.743 Y113.212 R0.247
X-52.663 Y112.759 R0.685
G1 X-52.749 Y112.395
X-52.773 Y112.263
X-52.744 Y112.131
X-52.683 Y112.01
X-52.533 Y111.887
X-52.348 Y111.826
X-52.153 Y111.836
X-51.975 Y111.916
X-51.838 Y112.054
X-51.76 Y112.232
X-51.677 Y112.586
G3 X-51.832 Y112.864 R0.246
X-52.749 Y112.395 R0.696
G1 X-52.829 Y112.052
X-52.853 Y111.919
X-52.828 Y111.787
X-52.77 Y111.665
X-52.62 Y111.539
X-52.434 Y111.476
X-52.239 Y111.485
X-52.06 Y111.563
X-51.921 Y111.702
X-51.842 Y111.881
X-51.76 Y112.232
G3 X-51.909 Y112.508 R0.246
X-52.788 Y112.163 R0.686
X-52.829 Y112.052 R0.686
G1 X-52.916 Y111.682
X-52.94 Y111.549
X-52.909 Y111.417
X-52.846 Y111.298
X-52.695 Y111.177
X-52.51 Y111.118
X-52.317 Y111.129
X-52.14 Y111.209
X-52.003 Y111.347
X-51.926 Y111.525
X-51.842 Y111.881
G3 X-52.001 Y112.161 R0.246
X-52.916 Y111.682 R0.704
G1 X-52.994 Y111.346
X-53.019 Y111.213
X-52.994 Y111.08
X-52.936 Y110.958
X-52.786 Y110.832
X-52.601 Y110.769
X-52.405 Y110.777
X-52.226 Y110.856
X-52.087 Y110.995
X-52.008 Y111.174
X-51.926 Y111.525
G3 X-52.074 Y111.801 R0.247
X-52.994 Y111.346 R0.685
G1 X-53.08 Y110.98
X-53.104 Y110.847
X-53.075 Y110.716
X-53.014 Y110.595
X-52.863 Y110.473
X-52.678 Y110.413
X-52.484 Y110.423
X-52.306 Y110.503
X-52.169 Y110.641
X-52.091 Y110.819
X-52.008 Y111.174
G3 X-52.164 Y111.453 R0.246
X-53.08 Y110.98 R0.699
G1 X-53.159 Y110.646
X-53.183 Y110.513
X-53.16 Y110.38
X-53.103 Y110.257
X-52.954 Y110.13
X-52.768 Y110.065
X-52.572 Y110.073
X-52.392 Y110.151
X-52.252 Y110.29
X-52.173 Y110.469
X-52.091 Y110.819
G3 X-52.237 Y111.094 R0.247
X-53.159 Y110.646 R0.68
G1 X-53.247 Y110.269
X-53.271 Y110.136
X-53.24 Y110.005
X-53.127 Y109.86
X-52.972 Y109.762
X-52.793 Y109.723
X-52.612 Y109.746
X-52.449 Y109.83
X-52.324 Y109.964
X-52.252 Y110.133
X-52.173 Y110.469
G3 X-52.333 Y110.75 R0.246
X-53.207 Y110.38 R0.705
X-53.247 Y110.269 R0.705
G1 X-53.326 Y109.932
X-53.35 Y109.799
X-53.319 Y109.668
X-53.257 Y109.548
X-53.104 Y109.428
X-52.919 Y109.371
X-52.725 Y109.383
X-52.548 Y109.463
X-52.412 Y109.602
X-52.335 Y109.779
X-52.252 Y110.133
G3 X-52.412 Y110.413 R0.246
X-53.326 Y109.932 R0.706
G1 X-53.405 Y109.596
X-53.429 Y109.463
X-53.403 Y109.331
X-53.345 Y109.209
X-53.195 Y109.084
X-53.009 Y109.021
X-52.814 Y109.03
X-52.635 Y109.109
X-52.496 Y109.247
X-52.417 Y109.427
X-52.335 Y109.779
G3 X-52.486 Y110.057 R0.246
X-53.364 Y109.707 R0.689
X-53.405 Y109.596 R0.689
G1 X-53.49 Y109.23
X-53.515 Y109.098
X-53.485 Y108.966
X-53.423 Y108.846
X-53.271 Y108.724
X-53.087 Y108.665
X-52.893 Y108.675
X-52.715 Y108.755
X-52.579 Y108.893
X-52.501 Y109.071
X-52.417 Y109.427
G3 X-52.575 Y109.706 R0.246
X-53.45 Y109.341 R0.701
X-53.49 Y109.23 R0.701
G1 X-53.569 Y108.896
X-53.593 Y108.763
X-53.569 Y108.63
X-53.512 Y108.508
X-53.363 Y108.381
X-53.177 Y108.317
X-52.981 Y108.324
X-52.801 Y108.403
X-52.662 Y108.541
X-52.583 Y108.721
X-52.501 Y109.071
G3 X-52.647 Y109.346 R0.247
X-53.528 Y109.006 R0.682
X-53.569 Y108.896 R0.682
G1 X-53.649 Y108.552
X-53.673 Y108.42
X-53.651 Y108.286
X-53.596 Y108.163
X-53.447 Y108.035
X-53.261 Y107.969
X-53.065 Y107.976
X-52.884 Y108.054
X-52.744 Y108.192
X-52.664 Y108.372
X-52.583 Y108.721
G3 X-52.726 Y108.995 R0.247
X-53.609 Y108.663 R0.676
X-53.649 Y108.552 R0.676
G1 X-53.736 Y108.182
X-53.76 Y108.049
X-53.732 Y107.917
X-53.671 Y107.797
X-53.52 Y107.673
X-53.335 Y107.613
X-53.141 Y107.623
X-52.963 Y107.702
X-52.826 Y107.84
X-52.747 Y108.018
X-52.664 Y108.372
G3 X-52.819 Y108.65 R0.246
X-53.696 Y108.293 R0.696
X-53.736 Y108.182 R0.696
G1 X-53.815 Y107.846
X-53.839 Y107.713
X-53.816 Y107.58
X-53.76 Y107.458
X-53.61 Y107.33
X-53.425 Y107.265
X-53.228 Y107.273
X-53.048 Y107.351
X-52.909 Y107.489
X-52.829 Y107.669
X-52.747 Y108.018
G3 X-52.892 Y108.293 R0.247
X-53.815 Y107.846 R0.679
G1 X-53.902 Y107.476
X-53.926 Y107.343
X-53.897 Y107.211
X-53.835 Y107.091
X-53.684 Y106.968
X-53.499 Y106.908
X-53.305 Y106.919
X-53.128 Y106.998
X-52.991 Y107.136
X-52.912 Y107.314
X-52.829 Y107.669
G3 X-52.986 Y107.948 R0.246
X-53.861 Y107.586 R0.699
X-53.902 Y107.476 R0.699
G1 X-53.979 Y107.146
X-54.003 Y107.013
X-53.981 Y106.88
X-53.926 Y106.757
X-53.777 Y106.628
X-53.591 Y106.562
X-53.394 Y106.569
X-53.214 Y106.647
X-53.074 Y106.786
X-52.994 Y106.966
X-52.912 Y107.314
G3 X-53.055 Y107.588 R0.247
X-53.979 Y107.146 R0.676
G1 X-54.067 Y106.769
X-54.091 Y106.636
X-54.061 Y106.505
X-53.999 Y106.385
X-53.848 Y106.263
X-53.663 Y106.204
X-53.469 Y106.215
X-53.292 Y106.295
X-53.155 Y106.432
X-53.077 Y106.61
X-52.994 Y106.966
G3 X-53.152 Y107.245 R0.246
X-54.027 Y106.88 R0.702
X-54.067 Y106.769 R0.702
G1 X-54.146 Y106.432
X-54.17 Y106.299
X-54.146 Y106.167
X-54.088 Y106.045
X-53.938 Y105.918
X-53.753 Y105.855
X-53.557 Y105.863
X-53.377 Y105.942
X-53.239 Y106.08
X-53.159 Y106.26
X-53.077 Y106.61
G3 X-53.226 Y106.886 R0.247
X-54.146 Y106.432 R0.685
G1 X-54.231 Y106.069
X-54.255 Y105.936
X-54.227 Y105.804
X-54.166 Y105.684
X-54.015 Y105.56
X-53.83 Y105.5
X-53.636 Y105.51
X-53.458 Y105.589
X-53.321 Y105.727
X-53.243 Y105.905
X-53.159 Y106.26
G3 X-53.314 Y106.538 R0.246
X-54.231 Y106.069 R0.696
G1 X-54.312 Y105.726
X-54.336 Y105.593
X-54.311 Y105.46
X-54.252 Y105.338
X-54.103 Y105.213
X-53.917 Y105.15
X-53.722 Y105.158
X-53.542 Y105.237
X-53.404 Y105.375
X-53.325 Y105.554
X-53.243 Y105.905
G3 X-53.392 Y106.182 R0.246
X-54.312 Y105.726 R0.686
G1 X-54.399 Y105.355
X-54.423 Y105.222
X-54.392 Y105.091
X-54.329 Y104.972
X-54.178 Y104.85
X-53.993 Y104.792
X-53.799 Y104.803
X-53.623 Y104.883
X-53.486 Y105.021
X-53.408 Y105.198
X-53.325 Y105.554
G3 X-53.484 Y105.834 R0.246
X-54.399 Y105.355 R0.704
G1 X-54.477 Y105.019
X-54.501 Y104.887
X-54.477 Y104.754
X-54.419 Y104.632
X-54.269 Y104.506
X-54.083 Y104.443
X-53.888 Y104.451
X-53.708 Y104.53
X-53.57 Y104.668
X-53.49 Y104.847
X-53.408 Y105.198
G3 X-53.557 Y105.474 R0.247
X-54.477 Y105.019 R0.685
G1 X-54.563 Y104.654
X-54.587 Y104.521
X-54.558 Y104.389
X-54.496 Y104.269
X-54.345 Y104.147
X-54.161 Y104.086
X-53.966 Y104.097
X-53.789 Y104.176
X-53.652 Y104.314
X-53.574 Y104.492
X-53.49 Y104.847
G3 X-53.647 Y105.126 R0.246
X-54.563 Y104.654 R0.699
G1 X-54.641 Y104.319
X-54.666 Y104.186
X-54.642 Y104.053
X-54.586 Y103.931
X-54.436 Y103.803
X-54.251 Y103.739
X-54.054 Y103.746
X-53.874 Y103.825
X-53.735 Y103.963
X-53.656 Y104.143
X-53.574 Y104.492
G3 X-53.719 Y104.767 R0.247
X-54.641 Y104.319 R0.68
G1 X-54.73 Y103.943
X-54.754 Y103.81
X-54.723 Y103.678
X-54.61 Y103.534
X-54.455 Y103.436
X-54.276 Y103.396
X-54.094 Y103.42
X-53.931 Y103.504
X-53.806 Y103.638
X-53.734 Y103.807
X-53.656 Y104.143
G3 X-53.816 Y104.423 R0.246
X-54.73 Y103.943 R0.705
G1 X-54.809 Y103.605
X-54.833 Y103.473
X-54.802 Y103.341
X-54.739 Y103.222
X-54.587 Y103.102
X-54.401 Y103.044
X-54.208 Y103.056
X-54.031 Y103.137
X-53.895 Y103.275
X-53.817 Y103.453
X-53.734 Y103.807
G3 X-53.74 Y103.923 R0.246
X-53.895 Y104.087 R0.246
X-54.809 Y103.605 R0.706
G1 X-54.887 Y103.27
X-54.912 Y103.137
X-54.886 Y103.004
X-54.828 Y102.882
X-54.677 Y102.757
X-54.492 Y102.695
X-54.296 Y102.704
X-54.117 Y102.783
X-53.979 Y102.921
X-53.9 Y103.1
X-53.817 Y103.453
G3 X-53.968 Y103.73 R0.246
X-54.847 Y103.38 R0.689
X-54.887 Y103.27 R0.689
G1 X-54.973 Y102.904
X-54.997 Y102.771
X-54.967 Y102.64
X-54.905 Y102.52
X-54.754 Y102.398
X-54.569 Y102.338
X-54.375 Y102.349
X-54.198 Y102.429
X-54.061 Y102.567
X-53.983 Y102.744
X-53.9 Y103.1
G3 X-54.058 Y103.38 R0.246
X-54.933 Y103.015 R0.701
X-54.973 Y102.904 R0.701
G1 X-55.052 Y102.569
X-55.076 Y102.436
X-55.052 Y102.304
X-54.995 Y102.181
X-54.845 Y102.054
X-54.66 Y101.99
X-54.464 Y101.998
X-54.284 Y102.076
X-54.145 Y102.215
X-54.065 Y102.394
X-53.983 Y102.744
G3 X-54.13 Y103.02 R0.247
X-55.052 Y102.569 R0.682
G1 X-55.132 Y102.226
X-55.156 Y102.093
X-55.134 Y101.96
X-55.079 Y101.837
X-54.93 Y101.708
X-54.744 Y101.643
X-54.547 Y101.649
X-54.367 Y101.727
X-54.227 Y101.866
X-54.147 Y102.046
X-54.065 Y102.394
G3 X-54.208 Y102.668 R0.247
X-55.091 Y102.336 R0.676
X-55.132 Y102.226 R0.676
G1 X-55.219 Y101.856
X-55.243 Y101.723
X-55.215 Y101.591
X-55.154 Y101.47
X-55.003 Y101.347
X-54.818 Y101.286
X-54.624 Y101.296
X-54.446 Y101.375
X-54.308 Y101.513
X-54.23 Y101.692
X-54.147 Y102.046
G3 X-54.302 Y102.324 R0.246
X-55.178 Y101.966 R0.696
X-55.219 Y101.856 R0.696
G1 X-55.298 Y101.52
X-55.322 Y101.387
X-55.299 Y101.254
X-55.242 Y101.131
X-55.093 Y101.003
X-54.907 Y100.939
X-54.711 Y100.946
X-54.531 Y101.024
X-54.391 Y101.163
X-54.312 Y101.343
X-54.23 Y101.692
G3 X-54.375 Y101.966 R0.247
X-55.257 Y101.63 R0.679
X-55.298 Y101.52 R0.679
G1 X-55.384 Y101.149
X-55.409 Y101.016
X-55.379 Y100.885
X-55.318 Y100.765
X-55.167 Y100.642
X-54.982 Y100.582
X-54.788 Y100.592
X-54.61 Y100.672
X-54.473 Y100.81
X-54.395 Y100.988
X-54.312 Y101.343
G3 X-54.468 Y101.622 R0.246
X-55.344 Y101.26 R0.699
X-55.384 Y101.149 R0.699
G1 X-55.462 Y100.819
X-55.486 Y100.687
X-55.464 Y100.553
X-55.409 Y100.43
X-55.26 Y100.302
X-55.074 Y100.236
X-54.877 Y100.243
X-54.696 Y100.321
X-54.556 Y100.459
X-54.477 Y100.64
X-54.395 Y100.988
G3 X-54.538 Y101.261 R0.247
X-55.462 Y100.819 R0.676
G1 X-55.55 Y100.443
X-55.574 Y100.31
X-55.544 Y100.178
X-55.482 Y100.059
X-55.33 Y99.937
X-55.146 Y99.878
X-54.952 Y99.888
X-54.775 Y99.968
X-54.638 Y100.106
X-54.56 Y100.284
X-54.477 Y100.64
G3 X-54.635 Y100.919 R0.246
X-55.51 Y100.553 R0.702
X-55.55 Y100.443 R0.702
G1 X-55.629 Y100.106
X-55.653 Y99.973
X-55.628 Y99.84
X-55.571 Y99.718
X-55.421 Y99.592
X-55.235 Y99.529
X-55.04 Y99.537
X-54.86 Y99.616
X-54.721 Y99.754
X-54.642 Y99.933
X-54.56 Y100.284
G3 X-54.708 Y100.56 R0.247
X-55.629 Y100.106 R0.685
G1 X-55.714 Y99.743
X-55.738 Y99.61
X-55.71 Y99.478
X-55.649 Y99.357
X-55.498 Y99.234
X-55.313 Y99.173
X-55.119 Y99.183
X-54.941 Y99.263
X-54.804 Y99.401
X-54.725 Y99.579
X-54.642 Y99.933
G3 X-54.797 Y100.212 R0.246
X-55.714 Y99.743 R0.696
G1 X-55.794 Y99.399
X-55.819 Y99.267
X-55.793 Y99.134
X-55.735 Y99.012
X-55.585 Y98.886
X-55.4 Y98.823
X-55.204 Y98.832
X-55.025 Y98.91
X-54.887 Y99.049
X-54.808 Y99.228
X-54.725 Y99.579
G3 X-54.874 Y99.855 R0.246
X-55.754 Y99.51 R0.686
X-55.794 Y99.399 R0.686
G1 X-55.881 Y99.029
X-55.905 Y98.896
X-55.875 Y98.765
X-55.812 Y98.645
X-55.66 Y98.524
X-55.476 Y98.465
X-55.282 Y98.476
X-55.105 Y98.556
X-54.969 Y98.694
X-54.891 Y98.872
X-54.808 Y99.228
G3 X-54.967 Y99.508 R0.246
X-55.841 Y99.139 R0.704
X-55.881 Y99.029 R0.704
G1 X-55.96 Y98.693
X-55.984 Y98.56
X-55.959 Y98.428
X-55.902 Y98.305
X-55.752 Y98.179
X-55.566 Y98.116
X-55.37 Y98.125
X-55.191 Y98.203
X-55.052 Y98.342
X-54.973 Y98.521
X-54.891 Y98.872
G3 X-55.04 Y99.148 R0.247
X-55.96 Y98.693 R0.685
G1 X-56.046 Y98.327
X-56.07 Y98.195
X-56.041 Y98.063
X-55.979 Y97.943
X-55.828 Y97.82
X-55.643 Y97.76
X-55.449 Y97.77
X-55.272 Y97.85
X-55.135 Y97.988
X-55.056 Y98.166
X-54.973 Y98.521
G3 X-55.13 Y98.8 R0.246
X-56.046 Y98.327 R0.699
G1 X-56.124 Y97.993
X-56.148 Y97.86
X-56.125 Y97.727
X-56.069 Y97.604
X-55.919 Y97.477
X-55.733 Y97.413
X-55.537 Y97.42
X-55.357 Y97.498
X-55.218 Y97.637
X-55.138 Y97.817
X-55.056 Y98.166
G3 X-55.202 Y98.441 R0.247
X-56.084 Y98.103 R0.68
X-56.124 Y97.993 R0.68
G1 X-56.212 Y97.616
X-56.237 Y97.483
X-56.206 Y97.352
X-56.093 Y97.207
X-55.938 Y97.109
X-55.759 Y97.07
X-55.577 Y97.093
X-55.414 Y97.177
X-55.289 Y97.312
X-55.217 Y97.48
X-55.138 Y97.817
G3 X-55.298 Y98.097 R0.246
X-56.212 Y97.616 R0.705
G1 X-56.291 Y97.279
X-56.316 Y97.146
X-56.285 Y97.015
X-56.222 Y96.895
X-56.069 Y96.775
X-55.884 Y96.718
X-55.69 Y96.73
X-55.514 Y96.811
X-55.378 Y96.949
X-55.3 Y97.127
X-55.217 Y97.48
G3 X-55.222 Y97.597 R0.246
X-55.378 Y97.761 R0.246
X-56.291 Y97.279 R0.706
G1 X-56.37 Y96.943
X-56.394 Y96.81
X-56.369 Y96.678
X-56.31 Y96.556
X-56.16 Y96.431
X-55.975 Y96.368
X-55.779 Y96.377
X-55.6 Y96.456
X-55.462 Y96.595
X-55.383 Y96.774
X-55.3 Y97.127
G3 X-55.451 Y97.404 R0.246
X-56.37 Y96.943 R0.689
G1 X-56.456 Y96.578
X-56.48 Y96.445
X-56.45 Y96.313
X-56.388 Y96.193
X-56.237 Y96.071
X-56.052 Y96.012
X-55.858 Y96.022
X-55.681 Y96.102
X-55.544 Y96.24
X-55.466 Y96.418
X-55.383 Y96.774
G3 X-55.541 Y97.053 R0.246
X-56.456 Y96.578 R0.701
G1 X-56.534 Y96.243
X-56.558 Y96.11
X-56.535 Y95.977
X-56.478 Y95.855
X-56.328 Y95.728
X-56.143 Y95.664
X-55.946 Y95.672
X-55.767 Y95.75
X-55.627 Y95.889
X-55.548 Y96.068
X-55.466 Y96.418
G3 X-55.613 Y96.693 R0.247
X-56.534 Y96.243 R0.682
G1 X-56.615 Y95.9
X-56.639 Y95.767
X-56.617 Y95.634
X-56.561 Y95.511
X-56.413 Y95.382
X-56.227 Y95.316
X-56.03 Y95.323
X-55.849 Y95.401
X-55.71 Y95.539
X-55.63 Y95.719
X-55.548 Y96.068
G3 X-55.691 Y96.342 R0.247
X-56.574 Y96.01 R0.676
X-56.615 Y95.9 R0.676
G1 X-56.702 Y95.529
X-56.726 Y95.396
X-56.697 Y95.264
X-56.636 Y95.144
X-56.486 Y95.021
X-56.301 Y94.96
X-56.106 Y94.97
X-55.929 Y95.049
X-55.791 Y95.187
X-55.713 Y95.365
X-55.63 Y95.719
G3 X-55.785 Y95.998 R0.246
X-56.661 Y95.64 R0.696
X-56.702 Y95.529 R0.696
G1 X-56.78 Y95.193
X-56.804 Y95.06
X-56.781 Y94.927
X-56.725 Y94.805
X-56.576 Y94.677
X-56.39 Y94.612
X-56.194 Y94.62
X-56.014 Y94.698
X-55.874 Y94.836
X-55.795 Y95.016
X-55.713 Y95.365
G3 X-55.858 Y95.64 R0.247
X-56.74 Y95.304 R0.679
X-56.78 Y95.193 R0.679
G1 X-56.867 Y94.823
X-56.891 Y94.69
X-56.862 Y94.558
X-56.8 Y94.438
X-56.65 Y94.316
X-56.465 Y94.255
X-56.27 Y94.266
X-56.093 Y94.345
X-55.956 Y94.483
X-55.878 Y94.661
X-55.795 Y95.016
G3 X-55.8 Y95.133 R0.246
X-55.951 Y95.295 R0.246
X-56.867 Y94.823 R0.699
G1 X-56.944 Y94.493
X-56.969 Y94.36
X-56.947 Y94.227
X-56.892 Y94.104
X-56.742 Y93.975
X-56.557 Y93.91
X-56.36 Y93.916
X-56.179 Y93.994
X-56.039 Y94.133
X-55.959 Y94.313
X-55.878 Y94.661
G3 X-56.021 Y94.935 R0.247
X-56.944 Y94.493 R0.676
G1 X-57.033 Y94.116
X-57.057 Y93.984
X-57.027 Y93.852
X-56.964 Y93.732
X-56.813 Y93.611
X-56.628 Y93.551
X-56.435 Y93.562
X-56.258 Y93.642
X-56.121 Y93.78
X-56.043 Y93.957
X-55.959 Y94.313
G3 X-56.118 Y94.593 R0.246
X-56.992 Y94.227 R0.702
X-57.033 Y94.116 R0.702
G1 X-57.112 Y93.779
X-57.136 Y93.646
X-57.111 Y93.514
X-57.053 Y93.392
X-56.904 Y93.265
X-56.718 Y93.202
X-56.522 Y93.21
X-56.343 Y93.289
X-56.204 Y93.428
X-56.125 Y93.607
X-56.043 Y93.957
G3 X-56.191 Y94.233 R0.247
X-57.071 Y93.89 R0.685
X-57.112 Y93.779 R0.685
G1 X-57.197 Y93.416
X-57.221 Y93.283
X-57.193 Y93.151
X-57.132 Y93.031
X-56.981 Y92.908
X-56.796 Y92.847
X-56.602 Y92.857
X-56.424 Y92.936
X-56.286 Y93.074
X-56.208 Y93.253
X-56.125 Y93.607
G3 X-56.28 Y93.885 R0.246
X-57.197 Y93.416 R0.696
G1 X-57.277 Y93.073
X-57.301 Y92.94
X-57.276 Y92.808
X-57.218 Y92.686
X-57.068 Y92.56
X-56.883 Y92.497
X-56.687 Y92.505
X-56.508 Y92.584
X-56.369 Y92.722
X-56.29 Y92.901
X-56.208 Y93.253
G3 X-56.357 Y93.529 R0.246
X-57.237 Y93.183 R0.686
X-57.277 Y93.073 R0.686
G1 X-57.364 Y92.702
X-57.388 Y92.57
X-57.358 Y92.438
X-57.295 Y92.319
X-57.143 Y92.198
X-56.958 Y92.139
X-56.765 Y92.15
X-56.588 Y92.23
X-56.452 Y92.368
X-56.374 Y92.545
X-56.29 Y92.901
G3 X-56.45 Y93.181 R0.246
X-57.324 Y92.813 R0.704
X-57.364 Y92.702 R0.704
G1 X-57.443 Y92.367
X-57.467 Y92.234
X-57.442 Y92.101
X-57.384 Y91.979
X-57.234 Y91.853
X-57.049 Y91.79
X-56.853 Y91.798
X-56.674 Y91.877
X-56.535 Y92.015
X-56.456 Y92.195
X-56.374 Y92.545
G3 X-56.522 Y92.821 R0.247
X-57.443 Y92.367 R0.685
G1 X-57.528 Y92.001
X-57.553 Y91.868
X-57.523 Y91.736
X-57.462 Y91.616
X-57.311 Y91.494
X-57.126 Y91.434
X-56.932 Y91.444
X-56.754 Y91.524
X-56.617 Y91.662
X-56.539 Y91.84
X-56.456 Y92.195
G3 X-56.461 Y92.311 R0.246
X-56.612 Y92.474 R0.246
X-57.528 Y92.001 R0.699
G1 X-57.607 Y91.668
X-57.631 Y91.535
X-57.608 Y91.402
X-57.552 Y91.279
X-57.402 Y91.151
X-57.217 Y91.087
X-57.02 Y91.094
X-56.84 Y91.172
X-56.701 Y91.311
X-56.621 Y91.49
X-56.539 Y91.84
G3 X-56.684 Y92.114 R0.247
X-57.566 Y91.778 R0.679
X-57.607 Y91.668 R0.679
G1 X-57.687 Y91.323
X-57.712 Y91.19
X-57.69 Y91.057
X-57.635 Y90.934
X-57.486 Y90.805
X-57.3 Y90.739
X-57.103 Y90.745
X-56.922 Y90.823
X-56.782 Y90.962
X-56.703 Y91.142
X-56.621 Y91.49
G3 X-56.763 Y91.764 R0.247
X-57.687 Y91.323 R0.675
G1 X-57.774 Y90.953
X-57.798 Y90.82
X-57.77 Y90.688
X-57.709 Y90.567
X-57.559 Y90.444
X-57.374 Y90.383
X-57.179 Y90.393
X-57.001 Y90.472
X-56.864 Y90.61
X-56.786 Y90.788
X-56.703 Y91.142
G3 X-56.857 Y91.42 R0.246
X-57.774 Y90.953 R0.695
G1 X-57.853 Y90.617
X-57.877 Y90.484
X-57.854 Y90.351
X-57.798 Y90.228
X-57.649 Y90.1
X-57.463 Y90.035
X-57.267 Y90.043
X-57.086 Y90.121
X-56.947 Y90.259
X-56.867 Y90.439
X-56.786 Y90.788
G3 X-56.93 Y91.062 R0.247
X-57.853 Y90.617 R0.679
G1 X-57.94 Y90.246
X-57.964 Y90.113
X-57.935 Y89.982
X-57.873 Y89.861
X-57.722 Y89.739
X-57.537 Y89.679
X-57.343 Y89.689
X-57.166 Y89.768
X-57.029 Y89.906
X-56.951 Y90.084
X-56.867 Y90.439
G3 X-57.024 Y90.718 R0.246
X-57.94 Y90.246 R0.698
G1 X-58.017 Y89.916
X-58.041 Y89.784
X-58.02 Y89.65
X-57.964 Y89.527
X-57.815 Y89.398
X-57.63 Y89.333
X-57.433 Y89.34
X-57.252 Y89.418
X-57.112 Y89.556
X-57.032 Y89.736
X-56.951 Y90.084
G3 X-57.093 Y90.358 R0.247
X-58.017 Y89.916 R0.676
G1 X-58.105 Y89.54
X-58.129 Y89.407
X-58.1 Y89.275
X-58.037 Y89.156
X-57.886 Y89.034
X-57.701 Y88.974
X-57.507 Y88.985
X-57.33 Y89.065
X-57.194 Y89.203
X-57.116 Y89.381
X-57.032 Y89.736
G3 X-57.19 Y90.016 R0.246
X-58.065 Y89.65 R0.701
X-58.105 Y89.54 R0.701
G1 X-58.184 Y89.203
X-58.208 Y89.07
X-58.184 Y88.937
X-58.126 Y88.815
X-57.976 Y88.689
X-57.791 Y88.626
X-57.595 Y88.634
X-57.416 Y88.712
X-57.277 Y88.851
X-57.198 Y89.03
X-57.116 Y89.381
G3 X-57.264 Y89.656 R0.247
X-58.144 Y89.313 R0.684
X-58.184 Y89.203 R0.684
G1 X-58.269 Y88.84
X-58.294 Y88.707
X-58.265 Y88.575
X-58.204 Y88.454
X-58.054 Y88.331
X-57.869 Y88.27
X-57.674 Y88.28
X-57.496 Y88.36
X-57.359 Y88.498
X-57.281 Y88.676
X-57.198 Y89.03
G3 X-57.352 Y89.308 R0.246
X-58.269 Y88.84 R0.696
G1 X-58.35 Y88.496
X-58.374 Y88.364
X-58.349 Y88.231
X-58.291 Y88.109
X-58.141 Y87.983
X-57.955 Y87.92
X-57.76 Y87.929
X-57.581 Y88.007
X-57.442 Y88.146
X-57.363 Y88.325
X-57.281 Y88.676
G3 X-57.43 Y88.952 R0.246
X-58.309 Y88.607 R0.686
X-58.35 Y88.496 R0.686
G1 X-58.437 Y88.126
X-58.461 Y87.993
X-58.43 Y87.862
X-58.367 Y87.742
X-58.216 Y87.621
X-58.031 Y87.562
X-57.837 Y87.573
X-57.661 Y87.653
X-57.524 Y87.791
X-57.446 Y87.969
X-57.363 Y88.325
G3 X-57.522 Y88.605 R0.246
X-58.437 Y88.126 R0.704
G1 X-58.515 Y87.79
X-58.54 Y87.657
X-58.515 Y87.525
X-58.457 Y87.402
X-58.307 Y87.276
X-58.122 Y87.213
X-57.926 Y87.222
X-57.746 Y87.3
X-57.608 Y87.439
X-57.529 Y87.618
X-57.446 Y87.969
G3 X-57.595 Y88.245 R0.247
X-58.515 Y87.79 R0.685
G1 X-58.601 Y87.424
X-58.625 Y87.292
X-58.596 Y87.16
X-58.535 Y87.04
X-58.384 Y86.917
X-58.199 Y86.857
X-58.004 Y86.867
X-57.827 Y86.947
X-57.69 Y87.085
X-57.612 Y87.263
X-57.529 Y87.618
G3 X-57.685 Y87.897 R0.246
X-58.601 Y87.424 R0.699
G1 X-58.68 Y87.09
X-58.704 Y86.957
X-58.68 Y86.824
X-58.624 Y86.701
X-58.474 Y86.574
X-58.289 Y86.51
X-58.093 Y86.517
X-57.912 Y86.595
X-57.773 Y86.734
X-57.694 Y86.914
X-57.612 Y87.263
G3 X-57.757 Y87.538 R0.247
X-58.68 Y87.09 R0.68
G1 X-58.768 Y86.713
X-58.792 Y86.58
X-58.761 Y86.449
X-58.648 Y86.304
X-58.493 Y86.206
X-58.314 Y86.167
X-58.132 Y86.19
X-57.969 Y86.274
X-57.845 Y86.409
X-57.773 Y86.577
X-57.694 Y86.914
G3 X-57.854 Y87.194 R0.246
X-58.768 Y86.713 R0.705
G1 X-58.847 Y86.376
X-58.871 Y86.243
X-58.84 Y86.112
X-58.777 Y85.992
X-58.625 Y85.872
X-58.44 Y85.815
X-58.246 Y85.827
X-58.069 Y85.908
X-57.933 Y86.046
X-57.855 Y86.224
X-57.773 Y86.577
G3 X-57.778 Y86.694 R0.246
X-57.933 Y86.858 R0.246
X-58.847 Y86.376 R0.706
G1 X-58.926 Y86.04
X-58.95 Y85.907
X-58.924 Y85.775
X-58.866 Y85.653
X-58.715 Y85.528
X-58.53 Y85.465
X-58.335 Y85.474
X-58.155 Y85.553
X-58.017 Y85.692
X-57.938 Y85.871
X-57.855 Y86.224
G3 X-58.007 Y86.501 R0.246
X-58.926 Y86.04 R0.689
G1 X-59.011 Y85.675
X-59.035 Y85.542
X-59.006 Y85.41
X-58.944 Y85.29
X-58.792 Y85.168
X-58.607 Y85.109
X-58.414 Y85.12
X-58.236 Y85.199
X-58.1 Y85.337
X-58.021 Y85.515
X-57.938 Y85.871
G3 X-58.096 Y86.15 R0.246
X-58.971 Y85.785 R0.701
X-59.011 Y85.675 R0.701
G1 X-59.09 Y85.34
X-59.114 Y85.207
X-59.09 Y85.074
X-59.033 Y84.952
X-58.884 Y84.825
X-58.698 Y84.761
X-58.502 Y84.769
X-58.322 Y84.847
X-58.183 Y84.986
X-58.104 Y85.165
X-58.021 Y85.515
G3 X-58.168 Y85.79 R0.247
X-59.09 Y85.34 R0.682
G1 X-59.17 Y84.997
X-59.194 Y84.864
X-59.172 Y84.731
X-59.117 Y84.608
X-58.968 Y84.479
X-58.782 Y84.413
X-58.586 Y84.42
X-58.405 Y84.498
X-58.265 Y84.636
X-58.185 Y84.816
X-58.104 Y85.165
G3 X-58.247 Y85.439 R0.247
X-59.129 Y85.107 R0.676
X-59.17 Y84.997 R0.676
G1 X-59.257 Y84.626
X-59.281 Y84.493
X-59.253 Y84.361
X-59.192 Y84.241
X-59.041 Y84.118
X-58.856 Y84.057
X-58.662 Y84.067
X-58.484 Y84.146
X-58.347 Y84.284
X-58.268 Y84.462
X-58.185 Y84.816
G3 X-58.34 Y85.095 R0.246
X-59.217 Y84.737 R0.696
X-59.257 Y84.626 R0.696
G1 X-59.336 Y84.29
X-59.36 Y84.158
X-59.337 Y84.025
X-59.281 Y83.902
X-59.131 Y83.774
X-58.946 Y83.709
X-58.749 Y83.717
X-58.569 Y83.795
X-58.43 Y83.933
X-58.35 Y84.113
X-58.268 Y84.462
G3 X-58.413 Y84.737 R0.247
X-59.336 Y84.29 R0.679
G1 X-59.422 Y83.92
X-59.447 Y83.787
X-59.418 Y83.655
X-59.356 Y83.535
X-59.205 Y83.413
X-59.02 Y83.352
X-58.826 Y83.363
X-58.648 Y83.442
X-58.511 Y83.58
X-58.433 Y83.758
X-58.35 Y84.113
G3 X-58.506 Y84.392 R0.246
X-59.422 Y83.92 R0.699
G1 X-59.5 Y83.59
X-59.524 Y83.457
X-59.502 Y83.324
X-59.447 Y83.201
X-59.298 Y83.072
X-59.112 Y83.007
X-58.915 Y83.013
X-58.734 Y83.091
X-58.595 Y83.23
X-58.515 Y83.41
X-58.433 Y83.758
G3 X-58.576 Y84.032 R0.247
X-59.459 Y83.7 R0.676
X-59.5 Y83.59 R0.676
G1 X-59.588 Y83.214
X-59.612 Y83.081
X-59.582 Y82.949
X-59.52 Y82.829
X-59.369 Y82.708
X-59.184 Y82.648
X-58.99 Y82.659
X-58.813 Y82.739
X-58.676 Y82.877
X-58.598 Y83.054
X-58.515 Y83.41
G3 X-58.673 Y83.69 R0.246
X-59.588 Y83.214 R0.702
G1 X-59.667 Y82.876
X-59.691 Y82.743
X-59.666 Y82.611
X-59.609 Y82.489
X-59.459 Y82.362
X-59.273 Y82.299
X-59.078 Y82.307
X-58.898 Y82.386
X-58.76 Y82.525
X-58.68 Y82.704
X-58.598 Y83.054
G3 X-58.746 Y83.33 R0.247
X-59.667 Y82.876 R0.685
G1 X-59.752 Y82.513
X-59.776 Y82.38
X-59.748 Y82.248
X-59.687 Y82.128
X-59.536 Y82.005
X-59.351 Y81.944
X-59.157 Y81.954
X-58.979 Y82.033
X-58.842 Y82.171
X-58.763 Y82.35
X-58.68 Y82.704
G3 X-58.835 Y82.982 R0.246
X-59.752 Y82.513 R0.696
G1 X-59.833 Y82.17
X-59.857 Y82.037
X-59.831 Y81.905
X-59.773 Y81.783
X-59.623 Y81.657
X-59.438 Y81.594
X-59.242 Y81.602
X-59.063 Y81.681
X-58.925 Y81.819
X-58.846 Y81.998
X-58.763 Y82.35
G3 X-58.912 Y82.626 R0.246
X-59.792 Y82.28 R0.686
X-59.833 Y82.17 R0.686
G1 X-59.919 Y81.799
X-59.944 Y81.667
X-59.913 Y81.535
X-59.85 Y81.416
X-59.699 Y81.295
X-59.514 Y81.236
X-59.32 Y81.247
X-59.143 Y81.327
X-59.007 Y81.465
X-58.929 Y81.642
X-58.846 Y81.998
G3 X-58.851 Y82.115 R0.246
X-59.005 Y82.278 R0.246
X-59.919 Y81.799 R0.704
G1 X-59.998 Y81.464
X-60.022 Y81.331
X-59.997 Y81.198
X-59.94 Y81.076
X-59.79 Y80.95
X-59.604 Y80.887
X-59.409 Y80.895
X-59.229 Y80.974
X-59.09 Y81.112
X-59.011 Y81.292
X-58.929 Y81.642
G3 X-59.078 Y81.918 R0.247
X-59.958 Y81.574 R0.685
X-59.998 Y81.464 R0.685
G1 X-60.084 Y81.098
X-60.108 Y80.965
X-60.079 Y80.833
X-60.017 Y80.713
X-59.866 Y80.591
X-59.681 Y80.531
X-59.487 Y80.541
X-59.31 Y80.621
X-59.173 Y80.759
X-59.095 Y80.937
X-59.011 Y81.292
G3 X-59.168 Y81.571 R0.246
X-60.084 Y81.098 R0.699
G1 X-60.162 Y80.763
X-60.186 Y80.631
X-60.163 Y80.498
X-60.107 Y80.375
X-59.957 Y80.248
X-59.772 Y80.183
X-59.575 Y80.191
X-59.395 Y80.269
X-59.256 Y80.408
X-59.176 Y80.587
X-59.095 Y80.937
G3 X-59.24 Y81.211 R0.247
X-60.122 Y80.874 R0.68
X-60.162 Y80.763 R0.68
G1 X-60.251 Y80.387
X-60.275 Y80.254
X-60.244 Y80.123
X-60.131 Y79.978
X-59.976 Y79.88
X-59.797 Y79.84
X-59.615 Y79.864
X-59.452 Y79.948
X-59.327 Y80.082
X-59.255 Y80.251
X-59.176 Y80.587
G3 X-59.337 Y80.867 R0.246
X-60.21 Y80.497 R0.705
X-60.251 Y80.387 R0.705
G1 X-60.33 Y80.05
X-60.354 Y79.917
X-60.323 Y79.785
X-60.26 Y79.666
X-60.108 Y79.546
X-59.922 Y79.488
X-59.729 Y79.501
X-59.552 Y79.581
X-59.416 Y79.72
X-59.338 Y79.897
X-59.255 Y80.251
G3 X-59.416 Y80.531 R0.246
X-60.33 Y80.05 R0.706
G1 X-60.408 Y79.714
X-60.432 Y79.581
X-60.407 Y79.448
X-60.349 Y79.327
X-60.198 Y79.201
X-60.013 Y79.139
X-59.817 Y79.148
X-59.638 Y79.227
X-59.5 Y79.365
X-59.421 Y79.544
X-59.338 Y79.897
G3 X-59.489 Y80.174 R0.246
X-60.408 Y79.714 R0.689
G1 X-60.494 Y79.348
X-60.518 Y79.215
X-60.488 Y79.084
X-60.426 Y78.964
X-60.275 Y78.842
X-60.09 Y78.782
X-59.896 Y78.793
X-59.719 Y78.873
X-59.582 Y79.011
X-59.504 Y79.189
X-59.421 Y79.544
G3 X-59.579 Y79.824 R0.246
X-60.454 Y79.459 R0.701
X-60.494 Y79.348 R0.701
G1 X-60.572 Y79.014
X-60.597 Y78.881
X-60.573 Y78.748
X-60.516 Y78.625
X-60.366 Y78.498
X-60.181 Y78.434
X-59.985 Y78.442
X-59.805 Y78.521
X-59.666 Y78.659
X-59.586 Y78.839
X-59.504 Y79.189
G3 X-59.651 Y79.464 R0.247
X-60.572 Y79.014 R0.682
G1 X-60.653 Y78.67
X-60.677 Y78.537
X-60.655 Y78.404
X-60.6 Y78.281
X-60.451 Y78.152
X-60.265 Y78.087
X-60.068 Y78.093
X-59.888 Y78.171
X-59.748 Y78.31
X-59.668 Y78.49
X-59.586 Y78.839
G3 X-59.729 Y79.112 R0.247
X-60.612 Y78.781 R0.676
X-60.653 Y78.67 R0.676
G1 X-60.74 Y78.3
X-60.764 Y78.167
X-60.736 Y78.035
X-60.674 Y77.915
X-60.524 Y77.791
X-60.339 Y77.73
X-60.144 Y77.74
X-59.967 Y77.82
X-59.829 Y77.958
X-59.751 Y78.136
X-59.668 Y78.49
G3 X-59.823 Y78.768 R0.246
X-60.699 Y78.41 R0.696
X-60.74 Y78.3 R0.696
G1 X-60.818 Y77.964
X-60.843 Y77.831
X-60.82 Y77.698
X-60.763 Y77.575
X-60.614 Y77.448
X-60.428 Y77.383
X-60.232 Y77.39
X-60.052 Y77.469
X-59.912 Y77.607
X-59.833 Y77.787
X-59.751 Y78.136
G3 X-59.896 Y78.41 R0.247
X-60.778 Y78.074 R0.679
X-60.818 Y77.964 R0.679
G1 X-60.905 Y77.593
X-60.929 Y77.461
X-60.9 Y77.329
X-60.839 Y77.209
X-60.688 Y77.086
X-60.503 Y77.026
X-60.309 Y77.036
X-60.131 Y77.116
X-59.994 Y77.254
X-59.916 Y77.432
X-59.833 Y77.787
G3 X-59.989 Y78.066 R0.246
X-60.905 Y77.593 R0.699
G1 X-60.983 Y77.264
X-61.007 Y77.131
X-60.985 Y76.998
X-60.93 Y76.874
X-60.781 Y76.746
X-60.595 Y76.68
X-60.398 Y76.687
X-60.217 Y76.765
X-60.077 Y76.904
X-59.998 Y77.084
X-59.916 Y77.432
G3 X-60.059 Y77.706 R0.247
X-60.983 Y77.264 R0.676
G1 X-61.071 Y76.887
X-61.095 Y76.754
X-61.065 Y76.623
X-61.002 Y76.503
X-60.851 Y76.381
X-60.667 Y76.322
X-60.473 Y76.333
X-60.296 Y76.412
X-60.159 Y76.55
X-60.081 Y76.728
X-59.998 Y77.084
G3 X-60.003 Y77.2 R0.246
X-60.156 Y77.363 R0.246
X-61.031 Y76.998 R0.702
X-61.071 Y76.887 R0.702
G1 X-61.15 Y76.55
X-61.174 Y76.417
X-61.149 Y76.284
X-61.092 Y76.162
X-60.942 Y76.036
X-60.756 Y75.973
X-60.56 Y75.981
X-60.381 Y76.06
X-60.242 Y76.198
X-60.163 Y76.377
X-60.081 Y76.728
G3 X-60.229 Y77.004 R0.247
X-61.109 Y76.66 R0.685
X-61.15 Y76.55 R0.685
G1 X-61.235 Y76.187
X-61.259 Y76.054
X-61.231 Y75.922
X-61.17 Y75.802
X-61.019 Y75.678
X-60.834 Y75.618
X-60.64 Y75.628
X-60.462 Y75.707
X-60.325 Y75.845
X-60.246 Y76.023
X-60.163 Y76.377
G3 X-60.318 Y76.656 R0.246
X-61.235 Y76.187 R0.696
G1 X-61.315 Y75.844
X-61.34 Y75.711
X-61.314 Y75.578
X-61.256 Y75.456
X-61.106 Y75.33
X-60.921 Y75.267
X-60.725 Y75.276
X-60.546 Y75.355
X-60.407 Y75.493
X-60.328 Y75.672
X-60.246 Y76.023
G3 X-60.395 Y76.299 R0.246
X-61.275 Y75.954 R0.686
X-61.315 Y75.844 R0.686
G1 X-61.402 Y75.473
X-61.426 Y75.34
X-61.396 Y75.209
X-61.333 Y75.089
X-61.181 Y74.968
X-60.997 Y74.909
X-60.803 Y74.921
X-60.626 Y75.
X-60.49 Y75.138
X-60.412 Y75.316
X-60.328 Y75.672
G3 X-60.488 Y75.952 R0.246
X-61.362 Y75.584 R0.704
X-61.402 Y75.473 R0.704
G1 X-61.481 Y75.137
X-61.505 Y75.004
X-61.48 Y74.872
X-61.423 Y74.75
X-61.273 Y74.624
X-61.087 Y74.56
X-60.891 Y74.569
X-60.712 Y74.648
X-60.573 Y74.786
X-60.494 Y74.965
X-60.412 Y75.316
G3 X-60.56 Y75.592 R0.247
X-61.481 Y75.137 R0.685
G1 X-61.567 Y74.772
X-61.591 Y74.639
X-61.562 Y74.507
X-61.5 Y74.387
X-61.349 Y74.264
X-61.164 Y74.204
X-60.97 Y74.215
X-60.793 Y74.294
X-60.656 Y74.432
X-60.577 Y74.61
X-60.494 Y74.965
G3 X-60.651 Y75.244 R0.246
X-61.567 Y74.772 R0.699
G1 X-61.645 Y74.439
X-61.669 Y74.306
X-61.646 Y74.173
X-61.59 Y74.05
X-61.441 Y73.922
X-61.255 Y73.858
X-61.059 Y73.865
X-60.878 Y73.943
X-60.739 Y74.081
X-60.659 Y74.261
X-60.577 Y74.61
G3 X-60.722 Y74.885 R0.247
X-61.645 Y74.439 R0.678
G1 X-61.725 Y74.094
X-61.75 Y73.961
X-61.728 Y73.828
X-61.672 Y73.705
X-61.524 Y73.576
X-61.338 Y73.51
X-61.141 Y73.516
X-60.961 Y73.594
X-60.821 Y73.733
X-60.741 Y73.913
X-60.659 Y74.261
G3 X-60.802 Y74.535 R0.247
X-61.685 Y74.204 R0.675
X-61.725 Y74.094 R0.675
G1 X-61.812 Y73.723
X-61.837 Y73.59
X-61.808 Y73.458
X-61.747 Y73.338
X-61.597 Y73.214
X-61.412 Y73.154
X-61.217 Y73.163
X-61.04 Y73.243
X-60.902 Y73.381
X-60.824 Y73.559
X-60.741 Y73.913
G3 X-60.895 Y74.191 R0.246
X-61.812 Y73.723 R0.695
G1 X-61.891 Y73.387
X-61.915 Y73.255
X-61.892 Y73.122
X-61.836 Y72.999
X-61.687 Y72.871
X-61.501 Y72.806
X-61.305 Y72.813
X-61.125 Y72.892
X-60.985 Y73.03
X-60.906 Y73.21
X-60.824 Y73.559
G3 X-60.968 Y73.833 R0.247
X-61.891 Y73.387 R0.679
G1 X-61.978 Y73.017
X-62.002 Y72.884
X-61.973 Y72.752
X-61.911 Y72.632
X-61.76 Y72.509
X-61.576 Y72.449
X-61.381 Y72.46
X-61.204 Y72.539
X-61.067 Y72.677
X-60.989 Y72.855
X-60.906 Y73.21
G3 X-61.062 Y73.489 R0.246
X-61.938 Y73.127 R0.698
X-61.978 Y73.017 R0.698
G1 X-62.055 Y72.687
X-62.079 Y72.554
X-62.058 Y72.421
X-62.002 Y72.298
X-61.853 Y72.169
X-61.668 Y72.104
X-61.471 Y72.11
X-61.29 Y72.188
X-61.15 Y72.327
X-61.07 Y72.507
X-60.989 Y72.855
G3 X-61.131 Y73.129 R0.247
X-62.015 Y72.798 R0.676
X-62.055 Y72.687 R0.676
G1 X-62.143 Y72.311
X-62.168 Y72.178
X-62.138 Y72.046
X-62.075 Y71.926
X-61.924 Y71.805
X-61.739 Y71.745
X-61.545 Y71.756
X-61.368 Y71.836
X-61.232 Y71.973
X-61.154 Y72.151
X-61.07 Y72.507
G3 X-61.228 Y72.786 R0.246
X-62.103 Y72.421 R0.701
X-62.143 Y72.311 R0.701
G1 X-62.222 Y71.973
X-62.247 Y71.841
X-62.222 Y71.708
X-62.164 Y71.586
X-62.014 Y71.459
X-61.829 Y71.396
X-61.633 Y71.404
X-61.454 Y71.483
X-61.315 Y71.621
X-61.236 Y71.801
X-61.154 Y72.151
G3 X-61.302 Y72.427 R0.247
X-62.182 Y72.084 R0.684
X-62.222 Y71.973 R0.684
G1 X-62.308 Y71.61
X-62.332 Y71.477
X-62.303 Y71.345
X-62.243 Y71.225
X-62.092 Y71.102
X-61.907 Y71.041
X-61.712 Y71.051
X-61.535 Y71.13
X-61.397 Y71.268
X-61.319 Y71.447
X-61.236 Y71.801
G3 X-61.391 Y72.079 R0.246
X-62.267 Y71.721 R0.696
X-62.308 Y71.61 R0.696
G1 X-62.388 Y71.267
X-62.412 Y71.134
X-62.387 Y71.002
X-62.329 Y70.88
X-62.179 Y70.754
X-61.993 Y70.691
X-61.798 Y70.699
X-61.619 Y70.778
X-61.48 Y70.916
X-61.401 Y71.095
X-61.319 Y71.447
G3 X-61.468 Y71.723 R0.246
X-62.388 Y71.267 R0.686
G1 X-62.475 Y70.897
X-62.499 Y70.764
X-62.468 Y70.632
X-62.405 Y70.513
X-62.254 Y70.392
X-62.069 Y70.333
X-61.876 Y70.344
X-61.699 Y70.424
X-61.562 Y70.562
X-61.485 Y70.739
X-61.401 Y71.095
G3 X-61.56 Y71.375 R0.246
X-62.435 Y71.007 R0.704
X-62.475 Y70.897 R0.704
G1 X-62.554 Y70.561
X-62.578 Y70.428
X-62.553 Y70.295
X-62.495 Y70.173
X-62.345 Y70.047
X-62.16 Y69.984
X-61.964 Y69.992
X-61.785 Y70.071
X-61.646 Y70.209
X-61.567 Y70.389
X-61.485 Y70.739
G3 X-61.633 Y71.015 R0.247
X-62.554 Y70.561 R0.685
G1 X-62.639 Y70.195
X-62.663 Y70.062
X-62.634 Y69.93
X-62.573 Y69.81
X-62.422 Y69.688
X-62.237 Y69.628
X-62.043 Y69.638
X-61.865 Y69.718
X-61.728 Y69.856
X-61.65 Y70.034
X-61.567 Y70.389
G3 X-61.723 Y70.668 R0.246
X-62.639 Y70.195 R0.699
G1 X-62.718 Y69.86
X-62.742 Y69.728
X-62.719 Y69.595
X-62.662 Y69.472
X-62.513 Y69.345
X-62.327 Y69.28
X-62.131 Y69.288
X-61.951 Y69.366
X-61.811 Y69.505
X-61.732 Y69.684
X-61.65 Y70.034
G3 X-61.796 Y70.308 R0.247
X-62.718 Y69.86 R0.68
G1 X-62.806 Y69.484
X-62.83 Y69.351
X-62.799 Y69.22
X-62.687 Y69.075
X-62.531 Y68.977
X-62.352 Y68.938
X-62.171 Y68.961
X-62.008 Y69.045
X-61.883 Y69.179
X-61.811 Y69.348
X-61.732 Y69.684
G3 X-61.892 Y69.964 R0.246
X-62.806 Y69.484 R0.705
G1 X-62.885 Y69.147
X-62.909 Y69.014
X-62.878 Y68.882
X-62.816 Y68.763
X-62.663 Y68.643
X-62.478 Y68.585
X-62.284 Y68.598
X-62.108 Y68.678
X-61.971 Y68.817
X-61.894 Y68.994
X-61.811 Y69.348
G3 X-61.971 Y69.628 R0.246
X-62.885 Y69.147 R0.706
G1 X-62.964 Y68.811
X-62.988 Y68.678
X-62.962 Y68.545
X-62.904 Y68.424
X-62.754 Y68.298
X-62.568 Y68.236
X-62.373 Y68.245
X-62.194 Y68.324
X-62.055 Y68.462
X-61.976 Y68.641
X-61.894 Y68.994
G3 X-62.045 Y69.271 R0.246
X-62.964 Y68.811 R0.689
G1 X-63.049 Y68.445
X-63.074 Y68.312
X-63.044 Y68.181
X-62.982 Y68.061
X-62.831 Y67.939
X-62.646 Y67.879
X-62.452 Y67.89
X-62.274 Y67.97
X-62.138 Y68.108
X-62.06 Y68.286
X-61.976 Y68.641
G3 X-62.134 Y68.921 R0.246
X-63.049 Y68.445 R0.701
G1 X-63.128 Y68.111
X-63.152 Y67.978
X-63.128 Y67.845
X-63.071 Y67.722
X-62.922 Y67.595
X-62.736 Y67.531
X-62.54 Y67.539
X-62.36 Y67.618
X-62.221 Y67.756
X-62.142 Y67.936
X-62.06 Y68.286
G3 X-62.206 Y68.561 R0.247
X-63.128 Y68.111 R0.682
G1 X-63.208 Y67.767
X-63.232 Y67.634
X-63.21 Y67.501
X-63.155 Y67.378
X-63.006 Y67.249
X-62.82 Y67.184
X-62.624 Y67.19
X-62.443 Y67.268
X-62.303 Y67.407
X-62.223 Y67.587
X-62.142 Y67.936
G3 X-62.285 Y68.209 R0.247
X-63.168 Y67.878 R0.676
X-63.208 Y67.767 R0.676
G1 X-63.295 Y67.397
X-63.319 Y67.264
X-63.291 Y67.132
X-63.23 Y67.012
X-63.079 Y66.888
X-62.894 Y66.828
X-62.7 Y66.837
X-62.522 Y66.917
X-62.385 Y67.055
X-62.306 Y67.233
X-62.223 Y67.587
G3 X-62.229 Y67.703 R0.246
X-62.378 Y67.865 R0.246
X-63.295 Y67.397 R0.696
G1 X-63.374 Y67.061
X-63.398 Y66.928
X-63.375 Y66.795
X-63.319 Y66.672
X-63.169 Y66.545
X-62.984 Y66.48
X-62.787 Y66.487
X-62.607 Y66.566
X-62.468 Y66.704
X-62.388 Y66.884
X-62.306 Y67.233
G3 X-62.451 Y67.507 R0.247
X-63.333 Y67.171 R0.679
X-63.374 Y67.061 R0.679
G1 X-63.461 Y66.69
X-63.485 Y66.558
X-63.456 Y66.426
X-63.394 Y66.306
X-63.243 Y66.183
X-63.058 Y66.123
X-62.864 Y66.133
X-62.687 Y66.213
X-62.55 Y66.351
X-62.471 Y66.529
X-62.388 Y66.884
G3 X-62.545 Y67.163 R0.246
X-63.461 Y66.69 R0.699
G1 X-63.538 Y66.361
X-63.562 Y66.228
X-63.54 Y66.095
X-63.485 Y65.971
X-63.336 Y65.843
X-63.15 Y65.777
X-62.953 Y65.784
X-62.773 Y65.862
X-62.633 Y66.001
X-62.553 Y66.181
X-62.471 Y66.529
G3 X-62.614 Y66.803 R0.247
X-63.538 Y66.361 R0.676
G1 X-63.626 Y65.984
X-63.65 Y65.851
X-63.62 Y65.72
X-63.558 Y65.6
X-63.407 Y65.478
X-63.222 Y65.419
X-63.028 Y65.43
X-62.851 Y65.509
X-62.714 Y65.647
X-62.636 Y65.825
X-62.553 Y66.181
G3 X-62.711 Y66.46 R0.246
X-63.626 Y65.984 R0.702
G1 X-63.705 Y65.647
X-63.729 Y65.514
X-63.705 Y65.381
X-63.647 Y65.259
X-63.497 Y65.133
X-63.312 Y65.07
X-63.116 Y65.078
X-62.936 Y65.157
X-62.798 Y65.295
X-62.719 Y65.474
X-62.636 Y65.825
G3 X-62.785 Y66.101 R0.247
X-63.705 Y65.647 R0.685
G1 X-63.79 Y65.284
X-63.814 Y65.151
X-63.786 Y65.019
X-63.725 Y64.899
X-63.574 Y64.775
X-63.389 Y64.715
X-63.195 Y64.725
X-63.017 Y64.804
X-62.88 Y64.942
X-62.802 Y65.12
X-62.719 Y65.474
G3 X-62.873 Y65.753 R0.246
X-63.79 Y65.284 R0.696
G1 X-63.871 Y64.941
X-63.895 Y64.808
X-63.87 Y64.675
X-63.812 Y64.553
X-63.662 Y64.427
X-63.476 Y64.365
X-63.281 Y64.373
X-63.101 Y64.452
X-62.963 Y64.59
X-62.884 Y64.769
X-62.802 Y65.12
G3 X-62.951 Y65.396 R0.246
X-63.871 Y64.941 R0.686
G1 X-63.958 Y64.57
X-63.982 Y64.437
X-63.951 Y64.306
X-63.888 Y64.186
X-63.737 Y64.065
X-63.552 Y64.006
X-63.358 Y64.018
X-63.182 Y64.097
X-63.045 Y64.235
X-62.967 Y64.413
X-62.884 Y64.769
G3 X-63.043 Y65.049 R0.246
X-63.958 Y64.57 R0.704
G1 X-64.036 Y64.234
X-64.06 Y64.101
X-64.036 Y63.969
X-63.978 Y63.847
X-63.828 Y63.721
X-63.642 Y63.657
X-63.447 Y63.666
X-63.267 Y63.745
X-63.129 Y63.883
X-63.05 Y64.062
X-62.967 Y64.413
G3 X-63.116 Y64.689 R0.247
X-63.996 Y64.345 R0.685
X-64.036 Y64.234 R0.685
G1 X-64.122 Y63.869
X-64.146 Y63.736
X-64.117 Y63.604
X-64.055 Y63.484
X-63.904 Y63.361
X-63.72 Y63.301
X-63.525 Y63.312
X-63.348 Y63.391
X-63.211 Y63.529
X-63.133 Y63.707
X-63.05 Y64.062
G3 X-63.055 Y64.179 R0.246
X-63.206 Y64.341 R0.246
X-64.082 Y63.979 R0.699
X-64.122 Y63.869 R0.699
G1 X-64.2 Y63.534
X-64.225 Y63.401
X-64.201 Y63.268
X-64.145 Y63.146
X-63.995 Y63.018
X-63.81 Y62.954
X-63.613 Y62.961
X-63.433 Y63.04
X-63.294 Y63.178
X-63.215 Y63.358
X-63.133 Y63.707
G3 X-63.278 Y63.982 R0.247
X-64.2 Y63.534 R0.68
G1 X-64.289 Y63.157
X-64.313 Y63.025
X-64.282 Y62.893
X-64.169 Y62.749
X-64.014 Y62.651
X-63.835 Y62.611
X-63.653 Y62.635
X-63.49 Y62.719
X-63.365 Y62.853
X-63.293 Y63.021
X-63.215 Y63.358
G3 X-63.375 Y63.638 R0.246
X-64.248 Y63.268 R0.705
X-64.289 Y63.157 R0.705
G1 X-64.368 Y62.82
X-64.392 Y62.687
X-64.361 Y62.556
X-64.298 Y62.436
X-64.146 Y62.317
X-63.96 Y62.259
X-63.767 Y62.271
X-63.59 Y62.352
X-63.454 Y62.49
X-63.376 Y62.668
X-63.293 Y63.021
G3 X-63.299 Y63.138 R0.246
X-63.454 Y63.302 R0.246
X-64.368 Y62.82 R0.706
G1 X-64.446 Y62.484
X-64.471 Y62.352
X-64.445 Y62.219
X-64.387 Y62.097
X-64.236 Y61.972
X-64.051 Y61.91
X-63.855 Y61.918
X-63.676 Y61.997
X-63.538 Y62.136
X-63.459 Y62.315
X-63.376 Y62.668
G3 X-63.527 Y62.945 R0.246
X-64.406 Y62.595 R0.689
X-64.446 Y62.484 R0.689
G1 X-64.532 Y62.119
X-64.556 Y61.986
X-64.526 Y61.854
X-64.464 Y61.734
X-64.313 Y61.612
X-64.128 Y61.553
X-63.934 Y61.564
X-63.757 Y61.643
X-63.62 Y61.781
X-63.542 Y61.959
X-63.459 Y62.315
G3 X-63.617 Y62.594 R0.246
X-64.532 Y62.119 R0.701
G1 X-64.611 Y61.784
X-64.635 Y61.651
X-64.611 Y61.518
X-64.554 Y61.396
X-64.404 Y61.269
X-64.219 Y61.205
X-64.023 Y61.213
X-63.843 Y61.291
X-63.704 Y61.43
X-63.624 Y61.609
X-63.542 Y61.959
G3 X-63.689 Y62.235 R0.247
X-64.611 Y61.784 R0.682
G1 X-64.691 Y61.441
X-64.715 Y61.308
X-64.693 Y61.175
X-64.638 Y61.052
X-64.489 Y60.923
X-64.303 Y60.857
X-64.106 Y60.864
X-63.926 Y60.942
X-63.786 Y61.08
X-63.706 Y61.26
X-63.624 Y61.609
G3 X-63.767 Y61.883 R0.247
X-64.691 Y61.441 R0.676
G1 X-64.778 Y61.07
X-64.802 Y60.938
X-64.774 Y60.806
X-64.713 Y60.685
X-64.562 Y60.562
X-64.377 Y60.501
X-64.183 Y60.511
X-64.005 Y60.59
X-63.868 Y60.728
X-63.789 Y60.906
X-63.706 Y61.26
G3 X-63.861 Y61.539 R0.246
X-64.778 Y61.07 R0.696
G1 X-64.857 Y60.735
X-64.881 Y60.602
X-64.858 Y60.469
X-64.801 Y60.346
X-64.652 Y60.218
X-64.466 Y60.154
X-64.27 Y60.161
X-64.09 Y60.239
X-63.95 Y60.378
X-63.871 Y60.557
X-63.789 Y60.906
G3 X-63.934 Y61.181 R0.247
X-64.857 Y60.735 R0.679
G1 X-64.943 Y60.364
X-64.968 Y60.231
X-64.938 Y60.099
X-64.877 Y59.979
X-64.726 Y59.857
X-64.541 Y59.797
X-64.347 Y59.807
X-64.169 Y59.887
X-64.032 Y60.025
X-63.954 Y60.203
X-63.871 Y60.557
G3 X-64.027 Y60.836 R0.246
X-64.903 Y60.475 R0.699
X-64.943 Y60.364 R0.699
G1 X-65.021 Y60.034
X-65.045 Y59.901
X-65.023 Y59.768
X-64.968 Y59.645
X-64.819 Y59.516
X-64.633 Y59.451
X-64.436 Y59.458
X-64.255 Y59.536
X-64.115 Y59.674
X-64.036 Y59.854
X-63.954 Y60.203
G3 X-64.097 Y60.476 R0.247
X-65.021 Y60.034 R0.676
G1 X-65.109 Y59.658
X-65.133 Y59.525
X-65.103 Y59.393
X-65.041 Y59.274
X-64.889 Y59.152
X-64.705 Y59.092
X-64.511 Y59.103
X-64.334 Y59.183
X-64.197 Y59.321
X-64.119 Y59.499
X-64.036 Y59.854
G3 X-64.194 Y60.134 R0.246
X-65.069 Y59.768 R0.702
X-65.109 Y59.658 R0.702
G1 X-65.188 Y59.321
X-65.212 Y59.188
X-65.187 Y59.055
X-65.13 Y58.933
X-64.98 Y58.807
X-64.794 Y58.743
X-64.599 Y58.752
X-64.419 Y58.83
X-64.28 Y58.969
X-64.201 Y59.148
X-64.119 Y59.499
G3 X-64.267 Y59.774 R0.247
X-65.147 Y59.431 R0.685
X-65.188 Y59.321 R0.685
G1 X-65.273 Y58.957
X-65.297 Y58.825
X-65.269 Y58.693
X-65.208 Y58.572
X-65.057 Y58.449
X-64.872 Y58.388
X-64.678 Y58.398
X-64.5 Y58.478
X-64.363 Y58.616
X-64.284 Y58.794
X-64.201 Y59.148
G3 X-64.356 Y59.426 R0.246
X-65.273 Y58.957 R0.696
G1 X-65.353 Y58.614
X-65.378 Y58.481
X-65.352 Y58.349
X-65.294 Y58.227
X-65.144 Y58.101
X-64.959 Y58.038
X-64.763 Y58.047
X-64.584 Y58.125
X-64.446 Y58.264
X-64.367 Y58.443
X-64.284 Y58.794
G3 X-64.289 Y58.91 R0.246
X-64.433 Y59.07 R0.246
X-65.353 Y58.614 R0.686
G1 X-65.44 Y58.244
X-65.465 Y58.111
X-65.434 Y57.979
X-65.371 Y57.86
X-65.219 Y57.739
X-65.035 Y57.68
X-64.841 Y57.691
X-64.664 Y57.771
X-64.528 Y57.909
X-64.45 Y58.087
X-64.367 Y58.443
G3 X-64.526 Y58.723 R0.246
X-65.4 Y58.354 R0.704
X-65.44 Y58.244 R0.704
G1 X-65.519 Y57.908
X-65.543 Y57.775
X-65.518 Y57.642
X-65.461 Y57.52
X-65.311 Y57.394
X-65.125 Y57.331
X-64.929 Y57.339
X-64.75 Y57.418
X-64.611 Y57.557
X-64.532 Y57.736
X-64.45 Y58.087
G3 X-64.455 Y58.203 R0.246
X-64.599 Y58.363 R0.247
X-65.479 Y58.018 R0.685
X-65.519 Y57.908 R0.685
G1 X-65.605 Y57.542
X-65.629 Y57.409
X-65.6 Y57.278
X-65.538 Y57.157
X-65.387 Y57.035
X-65.202 Y56.975
X-65.008 Y56.985
X-64.831 Y57.065
X-64.694 Y57.203
X-64.615 Y57.381
X-64.532 Y57.736
G3 X-64.537 Y57.852 R0.246
X-64.689 Y58.015 R0.246
X-65.564 Y57.653 R0.699
X-65.605 Y57.542 R0.699
G1 X-65.682 Y57.211
X-65.707 Y57.078
X-65.684 Y56.945
X-65.629 Y56.822
X-65.479 Y56.694
X-65.294 Y56.629
X-65.097 Y56.635
X-64.917 Y56.714
X-64.777 Y56.852
X-64.697 Y57.032
X-64.615 Y57.381
G3 X-64.621 Y57.497 R0.247
X-64.759 Y57.655 R0.247
X-65.642 Y57.321 R0.677
X-65.682 Y57.211 R0.677
G1 X-65.764 Y56.864
X-65.788 Y56.732
X-65.766 Y56.598
X-65.71 Y56.475
X-65.562 Y56.346
X-65.376 Y56.281
X-65.179 Y56.287
X-64.999 Y56.365
X-64.859 Y56.503
X-64.779 Y56.683
X-64.697 Y57.032
G3 X-64.84 Y57.306 R0.247
X-65.723 Y56.975 R0.676
X-65.764 Y56.864 R0.676
G1 X-65.85 Y56.494
X-65.875 Y56.361
X-65.846 Y56.229
X-65.785 Y56.109
X-65.635 Y55.985
X-65.45 Y55.924
X-65.255 Y55.934
X-65.078 Y56.013
X-64.94 Y56.151
X-64.862 Y56.33
X-64.779 Y56.683
G3 X-64.933 Y56.962 R0.246
X-65.81 Y56.604 R0.695
X-65.85 Y56.494 R0.695
G1 X-65.929 Y56.158
X-65.953 Y56.025
X-65.93 Y55.892
X-65.874 Y55.769
X-65.725 Y55.642
X-65.539 Y55.577
X-65.343 Y55.584
X-65.163 Y55.662
X-65.023 Y55.801
X-64.944 Y55.981
X-64.862 Y56.33
G3 X-64.867 Y56.446 R0.247
X-65.007 Y56.604 R0.247
X-65.889 Y56.268 R0.679
X-65.929 Y56.158 R0.679
G1 X-66.016 Y55.787
X-66.04 Y55.655
X-66.011 Y55.523
X-65.949 Y55.403
X-65.799 Y55.28
X-65.614 Y55.22
X-65.419 Y55.23
X-65.242 Y55.31
X-65.105 Y55.448
X-65.027 Y55.626
X-64.944 Y55.981
G3 X-64.949 Y56.097 R0.246
X-65.1 Y56.259 R0.246
X-66.016 Y55.787 R0.698
G1 X-66.093 Y55.458
X-66.117 Y55.325
X-66.096 Y55.192
X-66.041 Y55.068
X-65.892 Y54.94
X-65.706 Y54.874
X-65.509 Y54.881
X-65.328 Y54.959
X-65.188 Y55.098
X-65.108 Y55.278
X-65.027 Y55.626
G3 X-65.17 Y55.899 R0.247
X-66.053 Y55.568 R0.676
X-66.093 Y55.458 R0.676
G1 X-66.182 Y55.081
X-66.206 Y54.948
X-66.176 Y54.817
X-66.113 Y54.697
X-65.962 Y54.575
X-65.777 Y54.516
X-65.584 Y54.527
X-65.406 Y54.606
X-65.27 Y54.744
X-65.192 Y54.922
X-65.108 Y55.278
G3 X-65.266 Y55.557 R0.246
X-66.141 Y55.192 R0.701
X-66.182 Y55.081 R0.701
G1 X-66.261 Y54.744
X-66.285 Y54.611
X-66.26 Y54.478
X-66.202 Y54.356
X-66.053 Y54.23
X-65.867 Y54.167
X-65.671 Y54.175
X-65.492 Y54.254
X-65.353 Y54.392
X-65.274 Y54.571
X-65.192 Y54.922
G3 X-65.34 Y55.198 R0.247
X-66.22 Y54.854 R0.684
X-66.261 Y54.744 R0.684
G1 X-66.346 Y54.381
X-66.37 Y54.248
X-66.341 Y54.116
X-66.281 Y53.996
X-66.13 Y53.872
X-65.945 Y53.812
X-65.75 Y53.822
X-65.573 Y53.901
X-65.435 Y54.039
X-65.357 Y54.217
X-65.274 Y54.571
G3 X-65.429 Y54.85 R0.246
X-66.305 Y54.491 R0.696
X-66.346 Y54.381 R0.696
G1 X-66.426 Y54.038
X-66.45 Y53.905
X-66.425 Y53.772
X-66.367 Y53.65
X-66.217 Y53.524
X-66.032 Y53.462
X-65.836 Y53.47
X-65.657 Y53.549
X-65.518 Y53.687
X-65.439 Y53.866
X-65.357 Y54.217
G3 X-65.362 Y54.334 R0.246
X-65.506 Y54.493 R0.246
X-66.426 Y54.038 R0.686
G1 X-66.513 Y53.667
X-66.537 Y53.534
X-66.506 Y53.403
X-66.444 Y53.283
X-66.292 Y53.162
X-66.107 Y53.103
X-65.914 Y53.115
X-65.737 Y53.194
X-65.601 Y53.332
X-65.523 Y53.51
X-65.439 Y53.866
G3 X-65.599 Y54.146 R0.246
X-66.473 Y53.778 R0.704
X-66.513 Y53.667 R0.704
G1 X-66.592 Y53.331
X-66.616 Y53.198
X-66.591 Y53.066
X-66.533 Y52.944
X-66.383 Y52.818
X-66.198 Y52.754
X-66.002 Y52.763
X-65.823 Y52.842
X-65.684 Y52.98
X-65.605 Y53.159
X-65.523 Y53.51
G3 X-65.528 Y53.627 R0.247
X-65.671 Y53.786 R0.246
X-66.551 Y53.442 R0.685
X-66.592 Y53.331 R0.685
G1 X-66.677 Y52.966
X-66.702 Y52.833
X-66.672 Y52.701
X-66.611 Y52.581
X-66.46 Y52.458
X-66.275 Y52.398
X-66.081 Y52.409
X-65.903 Y52.488
X-65.766 Y52.626
X-65.688 Y52.804
X-65.605 Y53.159
G3 X-65.761 Y53.438 R0.246
X-66.637 Y53.076 R0.699
X-66.677 Y52.966 R0.699
G1 X-66.756 Y52.631
X-66.78 Y52.498
X-66.757 Y52.365
X-66.7 Y52.243
X-66.551 Y52.115
X-66.365 Y52.051
X-66.169 Y52.058
X-65.989 Y52.137
X-65.849 Y52.275
X-65.77 Y52.455
X-65.688 Y52.804
G3 X-65.834 Y53.079 R0.247
X-66.756 Y52.631 R0.68
G1 X-66.844 Y52.254
X-66.868 Y52.122
X-66.837 Y51.99
X-66.725 Y51.846
X-66.57 Y51.748
X-66.391 Y51.708
X-66.209 Y51.732
X-66.046 Y51.816
X-65.921 Y51.95
X-65.849 Y52.118
X-65.77 Y52.455
G3 X-65.93 Y52.735 R0.246
X-66.804 Y52.365 R0.705
X-66.844 Y52.254 R0.705
G1 X-66.923 Y51.917
X-66.947 Y51.784
X-66.916 Y51.653
X-66.854 Y51.533
X-66.701 Y51.414
X-66.516 Y51.356
X-66.322 Y51.368
X-66.146 Y51.449
X-66.01 Y51.587
X-65.932 Y51.765
X-65.849 Y52.118
G3 X-66.009 Y52.399 R0.246
X-66.923 Y51.917 R0.706
G1 X-67.002 Y51.581
X-67.026 Y51.449
X-67. Y51.316
X-66.942 Y51.194
X-66.792 Y51.069
X-66.606 Y51.007
X-66.411 Y51.016
X-66.232 Y51.095
X-66.093 Y51.233
X-66.014 Y51.412
X-65.932 Y51.765
G3 X-66.083 Y52.042 R0.246
X-66.961 Y51.692 R0.689
X-67.002 Y51.581 R0.689
G1 X-67.087 Y51.216
X-67.112 Y51.083
X-67.082 Y50.951
X-67.02 Y50.831
X-66.869 Y50.709
X-66.684 Y50.65
X-66.49 Y50.661
X-66.313 Y50.74
X-66.176 Y50.878
X-66.098 Y51.056
X-66.014 Y51.412
G3 X-66.02 Y51.529 R0.246
X-66.172 Y51.691 R0.246
X-67.087 Y51.216 R0.701
G1 X-67.166 Y50.881
X-67.19 Y50.748
X-67.166 Y50.615
X-67.109 Y50.493
X-66.96 Y50.366
X-66.774 Y50.302
X-66.578 Y50.31
X-66.398 Y50.388
X-66.259 Y50.527
X-66.18 Y50.706
X-66.098 Y51.056
G3 X-66.244 Y51.332 R0.247
X-67.166 Y50.881 R0.682
G1 X-67.246 Y50.538
X-67.271 Y50.405
X-67.249 Y50.272
X-67.193 Y50.149
X-67.044 Y50.02
X-66.859 Y49.954
X-66.662 Y49.961
X-66.481 Y50.039
X-66.341 Y50.178
X-66.262 Y50.357
X-66.18 Y50.706
G3 X-66.323 Y50.98 R0.247
X-67.246 Y50.538 R0.676
G1 X-67.333 Y50.167
X-67.357 Y50.035
X-67.329 Y49.903
X-67.268 Y49.782
X-67.117 Y49.659
X-66.932 Y49.598
X-66.738 Y49.608
X-66.56 Y49.687
X-66.423 Y49.825
X-66.345 Y50.003
X-66.262 Y50.357
G3 X-66.416 Y50.636 R0.246
X-67.333 Y50.167 R0.696
G1 X-67.412 Y49.832
X-67.436 Y49.699
X-67.413 Y49.566
X-67.357 Y49.443
X-67.207 Y49.315
X-67.022 Y49.251
X-66.825 Y49.258
X-66.645 Y49.336
X-66.506 Y49.475
X-66.426 Y49.654
X-66.345 Y50.003
G3 X-66.35 Y50.12 R0.247
X-66.489 Y50.278 R0.247
X-67.371 Y49.942 R0.679
X-67.412 Y49.832 R0.679
G1 X-67.499 Y49.461
X-67.523 Y49.328
X-67.494 Y49.196
X-67.432 Y49.076
X-67.281 Y48.954
X-67.096 Y48.894
X-66.902 Y48.904
X-66.725 Y48.984
X-66.588 Y49.122
X-66.51 Y49.3
X-66.426 Y49.654
G3 X-66.583 Y49.933 R0.246
X-67.458 Y49.572 R0.699
X-67.499 Y49.461 R0.699
G1 X-67.576 Y49.131
X-67.6 Y48.998
X-67.579 Y48.865
X-67.523 Y48.742
X-67.374 Y48.613
X-67.188 Y48.548
X-66.992 Y48.555
X-66.811 Y48.633
X-66.671 Y48.771
X-66.591 Y48.951
X-66.51 Y49.3
G3 X-66.652 Y49.573 R0.247
X-67.576 Y49.131 R0.676
G1 X-67.664 Y48.755
X-67.688 Y48.622
X-67.659 Y48.49
X-67.596 Y48.371
X-67.445 Y48.249
X-67.26 Y48.189
X-67.066 Y48.2
X-66.889 Y48.28
X-66.753 Y48.418
X-66.674 Y48.596
X-66.591 Y48.951
G3 X-66.749 Y49.231 R0.246
X-67.624 Y48.865 R0.702
X-67.664 Y48.755 R0.702
G1 X-67.743 Y48.418
X-67.768 Y48.285
X-67.743 Y48.152
X-67.685 Y48.03
X-67.535 Y47.904
X-67.35 Y47.84
X-67.154 Y47.849
X-66.975 Y47.927
X-66.836 Y48.066
X-66.757 Y48.245
X-66.674 Y48.596
G3 X-66.823 Y48.871 R0.247
X-67.703 Y48.528 R0.685
X-67.743 Y48.418 R0.685
G1 X-67.828 Y48.054
X-67.853 Y47.922
X-67.824 Y47.79
X-67.763 Y47.669
X-67.613 Y47.546
X-67.428 Y47.485
X-67.233 Y47.495
X-67.055 Y47.575
X-66.918 Y47.713
X-66.84 Y47.891
X-66.757 Y48.245
G3 X-66.912 Y48.523 R0.246
X-67.828 Y48.054 R0.696
G1 X-67.909 Y47.711
X-67.933 Y47.578
X-67.908 Y47.446
X-67.85 Y47.324
X-67.7 Y47.198
X-67.514 Y47.135
X-67.319 Y47.144
X-67.14 Y47.222
X-67.001 Y47.361
X-66.922 Y47.54
X-66.84 Y47.891
G3 X-66.845 Y48.007 R0.246
X-66.989 Y48.167 R0.246
X-67.868 Y47.822 R0.686
X-67.909 Y47.711 R0.686
G1 X-67.996 Y47.341
X-68.02 Y47.208
X-67.989 Y47.076
X-67.926 Y46.957
X-67.775 Y46.836
X-67.59 Y46.777
X-67.396 Y46.788
X-67.22 Y46.868
X-67.083 Y47.006
X-67.005 Y47.184
X-66.922 Y47.54
G3 X-67.081 Y47.82 R0.246
X-67.955 Y47.451 R0.704
X-67.996 Y47.341 R0.704
G1 X-68.074 Y47.005
X-68.099 Y46.872
X-68.074 Y46.739
X-68.016 Y46.617
X-67.866 Y46.491
X-67.681 Y46.428
X-67.485 Y46.436
X-67.305 Y46.515
X-67.167 Y46.654
X-67.088 Y46.833
X-67.005 Y47.184
G3 X-67.011 Y47.3 R0.247
X-67.154 Y47.46 R0.247
X-68.074 Y47.005 R0.685
G1 X-68.16 Y46.639
X-68.184 Y46.506
X-68.155 Y46.375
X-68.094 Y46.255
X-67.943 Y46.132
X-67.758 Y46.072
X-67.563 Y46.082
X-67.386 Y46.162
X-67.249 Y46.3
X-67.171 Y46.478
X-67.088 Y46.833
G3 X-67.244 Y47.112 R0.246
X-68.12 Y46.75 R0.699
X-68.16 Y46.639 R0.699
G1 X-68.239 Y46.305
X-68.263 Y46.172
X-68.239 Y46.039
X-68.183 Y45.916
X-68.033 Y45.789
X-67.848 Y45.724
X-67.652 Y45.732
X-67.471 Y45.81
X-67.332 Y45.949
X-67.253 Y46.128
X-67.171 Y46.478
G3 X-67.176 Y46.594 R0.247
X-67.316 Y46.753 R0.247
X-68.239 Y46.305 R0.68
G1 X-68.327 Y45.928
X-68.351 Y45.795
X-68.32 Y45.664
X-68.207 Y45.519
X-68.052 Y45.421
X-67.873 Y45.382
X-67.691 Y45.405
X-67.528 Y45.489
X-67.404 Y45.623
X-67.332 Y45.792
X-67.253 Y46.128
G3 X-67.413 Y46.409 R0.246
X-68.287 Y46.039 R0.705
X-68.327 Y45.928 R0.705
G1 X-68.406 Y45.591
X-68.43 Y45.458
X-68.399 Y45.327
X-68.336 Y45.207
X-68.184 Y45.087
X-67.999 Y45.03
X-67.805 Y45.042
X-67.628 Y45.122
X-67.492 Y45.261
X-67.414 Y45.438
X-67.332 Y45.792
G3 X-67.492 Y46.072 R0.246
X-68.406 Y45.591 R0.706
G1 X-68.485 Y45.255
X-68.509 Y45.122
X-68.483 Y44.99
X-68.425 Y44.868
X-68.275 Y44.743
X-68.089 Y44.68
X-67.894 Y44.689
X-67.714 Y44.768
X-67.576 Y44.906
X-67.497 Y45.086
X-67.414 Y45.438
G3 X-67.566 Y45.716 R0.246
X-68.444 Y45.366 R0.689
X-68.485 Y45.255 R0.689
G1 X-68.57 Y44.889
X-68.594 Y44.757
X-68.565 Y44.625
X-68.503 Y44.505
X-68.351 Y44.383
X-68.166 Y44.324
X-67.973 Y44.334
X-67.795 Y44.414
X-67.659 Y44.552
X-67.581 Y44.73
X-67.497 Y45.086
G3 X-67.655 Y45.365 R0.246
X-68.53 Y45. R0.701
X-68.57 Y44.889 R0.701
G1 X-68.649 Y44.555
X-68.673 Y44.422
X-68.649 Y44.289
X-68.592 Y44.167
X-68.443 Y44.04
X-68.257 Y43.976
X-68.061 Y43.983
X-67.881 Y44.062
X-67.742 Y44.2
X-67.663 Y44.38
X-67.581 Y44.73
G3 X-67.727 Y45.005 R0.247
X-68.649 Y44.555 R0.682
G1 X-68.729 Y44.211
X-68.753 Y44.079
X-68.731 Y43.945
X-68.676 Y43.822
X-68.527 Y43.694
X-68.341 Y43.628
X-68.145 Y43.635
X-67.964 Y43.713
X-67.824 Y43.851
X-67.744 Y44.031
X-67.663 Y44.38
G3 X-67.806 Y44.654 R0.247
X-68.729 Y44.211 R0.676
G1 X-68.816 Y43.841
X-68.84 Y43.708
X-68.812 Y43.576
X-68.751 Y43.456
X-68.6 Y43.332
X-68.415 Y43.272
X-68.221 Y43.282
X-68.043 Y43.361
X-67.906 Y43.499
X-67.827 Y43.677
X-67.744 Y44.031
G3 X-67.899 Y44.309 R0.246
X-68.776 Y43.952 R0.696
X-68.816 Y43.841 R0.696
G1 X-68.895 Y43.505
X-68.919 Y43.372
X-68.896 Y43.239
X-68.84 Y43.117
X-68.69 Y42.989
X-68.505 Y42.924
X-68.308 Y42.932
X-68.128 Y43.01
X-67.989 Y43.148
X-67.909 Y43.328
X-67.827 Y43.677
G3 X-67.972 Y43.952 R0.247
X-68.854 Y43.616 R0.679
X-68.895 Y43.505 R0.679
G1 X-68.981 Y43.135
X-69.006 Y43.002
X-68.977 Y42.87
X-68.915 Y42.75
X-68.764 Y42.627
X-68.579 Y42.567
X-68.385 Y42.578
X-68.207 Y42.657
X-68.07 Y42.795
X-67.992 Y42.973
X-67.909 Y43.328
G3 X-68.065 Y43.607 R0.246
X-68.941 Y43.245 R0.699
X-68.981 Y43.135 R0.699
G1 X-69.059 Y42.805
X-69.083 Y42.672
X-69.061 Y42.539
X-69.006 Y42.416
X-68.857 Y42.287
X-68.671 Y42.221
X-68.474 Y42.228
X-68.294 Y42.306
X-68.154 Y42.445
X-68.074 Y42.625
X-67.992 Y42.973
G3 X-68.135 Y43.247 R0.247
X-69.059 Y42.805 R0.676
G1 X-69.147 Y42.428
X-69.171 Y42.296
X-69.141 Y42.164
X-69.079 Y42.044
X-68.928 Y41.922
X-68.743 Y41.863
X-68.549 Y41.874
X-68.372 Y41.954
X-68.235 Y42.091
X-68.157 Y42.269
X-68.074 Y42.625
G3 X-68.079 Y42.742 R0.246
X-68.232 Y42.904 R0.246
X-69.107 Y42.539 R0.702
X-69.147 Y42.428 R0.702
G1 X-69.226 Y42.091
X-69.25 Y41.958
X-69.225 Y41.826
X-69.168 Y41.704
X-69.018 Y41.577
X-68.833 Y41.514
X-68.637 Y41.522
X-68.457 Y41.601
X-68.319 Y41.739
X-68.239 Y41.919
X-68.157 Y42.269
G3 X-68.305 Y42.545 R0.247
X-69.186 Y42.202 R0.685
X-69.226 Y42.091 R0.685
G1 X-69.311 Y41.728
X-69.335 Y41.595
X-69.307 Y41.463
X-69.246 Y41.343
X-69.095 Y41.22
X-68.91 Y41.159
X-68.716 Y41.169
X-68.538 Y41.248
X-68.401 Y41.386
X-68.322 Y41.564
X-68.239 Y41.919
G3 X-68.394 Y42.197 R0.246
X-69.311 Y41.728 R0.696
G1 X-69.392 Y41.385
X-69.416 Y41.252
X-69.39 Y41.119
X-69.332 Y40.998
X-69.182 Y40.872
X-68.997 Y40.809
X-68.802 Y40.817
X-68.622 Y40.896
X-68.484 Y41.034
X-68.405 Y41.213
X-68.322 Y41.564
G3 X-68.328 Y41.681 R0.246
X-68.471 Y41.841 R0.246
X-69.392 Y41.385 R0.686
G1 X-69.478 Y41.014
X-69.503 Y40.881
X-69.472 Y40.75
X-69.409 Y40.631
X-69.258 Y40.509
X-69.073 Y40.451
X-68.879 Y40.462
X-68.702 Y40.542
X-68.566 Y40.68
X-68.488 Y40.857
X-68.405 Y41.213
G3 X-68.564 Y41.493 R0.246
X-69.438 Y41.125 R0.704
X-69.478 Y41.014 R0.704
G1 X-69.557 Y40.678
X-69.581 Y40.546
X-69.556 Y40.413
X-69.499 Y40.291
X-69.349 Y40.165
X-69.163 Y40.102
X-68.968 Y40.11
X-68.788 Y40.189
X-68.65 Y40.327
X-68.57 Y40.506
X-68.488 Y40.857
G3 X-68.493 Y40.974 R0.247
X-68.637 Y41.133 R0.247
X-69.517 Y40.789 R0.685
X-69.557 Y40.678 R0.685
G1 X-69.643 Y40.313
X-69.667 Y40.18
X-69.638 Y40.048
X-69.576 Y39.928
X-69.425 Y39.806
X-69.24 Y39.745
X-69.046 Y39.756
X-68.869 Y39.835
X-68.732 Y39.973
X-68.654 Y40.151
X-68.57 Y40.506
G3 X-68.727 Y40.785 R0.246
X-69.643 Y40.313 R0.699
G1 X-69.72 Y39.983
X-69.744 Y39.85
X-69.723 Y39.716
X-69.667 Y39.593
X-69.518 Y39.465
X-69.332 Y39.399
X-69.136 Y39.406
X-68.955 Y39.484
X-68.815 Y39.623
X-68.735 Y39.803
X-68.654 Y40.151
G3 X-68.797 Y40.425 R0.247
X-69.72 Y39.983 R0.677
G1 X-69.802 Y39.635
X-69.826 Y39.502
X-69.804 Y39.369
X-69.748 Y39.246
X-69.6 Y39.117
X-69.414 Y39.051
X-69.217 Y39.058
X-69.037 Y39.136
X-68.897 Y39.274
X-68.817 Y39.454
X-68.735 Y39.803
G3 X-68.878 Y40.077 R0.247
X-69.761 Y39.745 R0.676
X-69.802 Y39.635 R0.676
G1 X-69.889 Y39.264
X-69.913 Y39.132
X-69.885 Y39.
X-69.823 Y38.879
X-69.673 Y38.756
X-69.488 Y38.695
X-69.294 Y38.705
X-69.116 Y38.784
X-68.978 Y38.922
X-68.9 Y39.1
X-68.817 Y39.454
G3 X-68.971 Y39.732 R0.246
X-69.848 Y39.375 R0.695
X-69.889 Y39.264 R0.695
G1 X-69.967 Y38.929
X-69.991 Y38.796
X-69.968 Y38.663
X-69.912 Y38.54
X-69.763 Y38.412
X-69.577 Y38.348
X-69.381 Y38.355
X-69.201 Y38.433
X-69.061 Y38.572
X-68.982 Y38.751
X-68.9 Y39.1
G3 X-68.905 Y39.217 R0.247
X-69.045 Y39.375 R0.247
X-69.927 Y39.039 R0.679
X-69.967 Y38.929 R0.679
G1 X-70.054 Y38.558
X-70.078 Y38.425
X-70.049 Y38.293
X-69.988 Y38.173
X-69.837 Y38.051
X-69.652 Y37.991
X-69.458 Y38.001
X-69.28 Y38.081
X-69.143 Y38.218
X-69.065 Y38.396
X-68.982 Y38.751
G3 X-69.138 Y39.03 R0.246
X-70.054 Y38.558 R0.698
G1 X-70.131 Y38.228
X-70.156 Y38.096
X-70.134 Y37.962
X-70.079 Y37.839
X-69.93 Y37.71
X-69.744 Y37.645
X-69.547 Y37.652
X-69.366 Y37.73
X-69.226 Y37.868
X-69.147 Y38.048
X-69.065 Y38.396
G3 X-69.208 Y38.67 R0.247
X-70.091 Y38.339 R0.676
X-70.131 Y38.228 R0.676
G1 X-70.22 Y37.852
X-70.244 Y37.719
X-70.214 Y37.587
X-70.151 Y37.468
X-70. Y37.346
X-69.815 Y37.286
X-69.622 Y37.297
X-69.445 Y37.377
X-69.308 Y37.515
X-69.23 Y37.693
X-69.147 Y38.048
G3 X-69.305 Y38.328 R0.246
X-70.179 Y37.962 R0.702
X-70.22 Y37.852 R0.702
G1 X-70.299 Y37.515
X-70.323 Y37.382
X-70.298 Y37.249
X-70.241 Y37.127
X-70.091 Y37.001
X-69.905 Y36.937
X-69.709 Y36.946
X-69.53 Y37.024
X-69.391 Y37.163
X-69.312 Y37.342
X-69.23 Y37.693
G3 X-69.235 Y37.809 R0.247
X-69.378 Y37.968 R0.247
X-70.258 Y37.625 R0.684
X-70.299 Y37.515 R0.685
G1 X-70.384 Y37.151
X-70.408 Y37.019
X-70.38 Y36.887
X-70.319 Y36.766
X-70.168 Y36.643
X-69.983 Y36.582
X-69.789 Y36.592
X-69.611 Y36.672
X-69.473 Y36.81
X-69.395 Y36.988
X-69.312 Y37.342
G3 X-69.467 Y37.62 R0.246
X-70.343 Y37.262 R0.696
X-70.384 Y37.151 R0.696
G1 X-70.464 Y36.808
X-70.488 Y36.675
X-70.463 Y36.543
X-70.405 Y36.421
X-70.255 Y36.295
X-70.07 Y36.232
X-69.874 Y36.241
X-69.695 Y36.319
X-69.556 Y36.458
X-69.477 Y36.637
X-69.395 Y36.988
G3 X-69.4 Y37.104 R0.246
X-69.544 Y37.264 R0.246
X-70.464 Y36.808 R0.686
G1 X-70.551 Y36.438
X-70.575 Y36.305
X-70.545 Y36.173
X-70.482 Y36.054
X-70.33 Y35.933
X-70.145 Y35.874
X-69.952 Y35.885
X-69.775 Y35.965
X-69.639 Y36.103
X-69.561 Y36.281
X-69.477 Y36.637
G3 X-69.637 Y36.917 R0.246
X-70.511 Y36.548 R0.704
X-70.551 Y36.438 R0.704
G1 X-70.63 Y36.102
X-70.654 Y35.969
X-70.629 Y35.836
X-70.571 Y35.714
X-70.421 Y35.588
X-70.236 Y35.525
X-70.04 Y35.533
X-69.861 Y35.612
X-69.722 Y35.751
X-69.643 Y35.93
X-69.561 Y36.281
G3 X-69.566 Y36.397 R0.246
X-69.709 Y36.557 R0.247
X-70.589 Y36.212 R0.685
X-70.63 Y36.102 R0.685
G1 X-70.715 Y35.736
X-70.74 Y35.604
X-70.711 Y35.472
X-70.649 Y35.352
X-70.498 Y35.229
X-70.313 Y35.169
X-70.119 Y35.179
X-69.941 Y35.259
X-69.804 Y35.397
X-69.726 Y35.575
X-69.643 Y35.93
G3 X-69.648 Y36.046 R0.246
X-69.799 Y36.209 R0.246
X-70.675 Y35.847 R0.699
X-70.715 Y35.736 R0.699
G1 X-70.794 Y35.402
X-70.818 Y35.269
X-70.795 Y35.136
X-70.738 Y35.013
X-70.589 Y34.886
X-70.403 Y34.821
X-70.207 Y34.829
X-70.027 Y34.907
X-69.888 Y35.046
X-69.808 Y35.225
X-69.726 Y35.575
G3 X-69.872 Y35.85 R0.247
X-70.794 Y35.402 R0.68
G1 X-70.882 Y35.025
X-70.906 Y34.892
X-70.875 Y34.761
X-70.763 Y34.616
X-70.608 Y34.518
X-70.429 Y34.479
X-70.247 Y34.502
X-70.084 Y34.586
X-69.959 Y34.72
X-69.887 Y34.889
X-69.808 Y35.225
G3 X-69.968 Y35.506 R0.246
X-70.842 Y35.136 R0.705
X-70.882 Y35.025 R0.705
G1 X-70.961 Y34.688
X-70.985 Y34.555
X-70.954 Y34.424
X-70.892 Y34.304
X-70.739 Y34.184
X-70.554 Y34.127
X-70.36 Y34.139
X-70.184 Y34.219
X-70.048 Y34.358
X-69.97 Y34.536
X-69.887 Y34.889
G3 X-70.047 Y35.169 R0.246
X-70.961 Y34.688 R0.706
G1 X-71.04 Y34.352
X-71.064 Y34.219
X-71.039 Y34.087
X-70.98 Y33.965
X-70.83 Y33.84
X-70.644 Y33.777
X-70.449 Y33.786
X-70.27 Y33.865
X-70.131 Y34.004
X-70.053 Y34.183
X-69.97 Y34.536
G3 X-69.975 Y34.652 R0.246
X-70.121 Y34.813 R0.246
X-71. Y34.463 R0.689
X-71.04 Y34.352 R0.689
G1 X-71.126 Y33.986
X-71.15 Y33.854
X-71.12 Y33.722
X-71.058 Y33.602
X-70.907 Y33.48
X-70.722 Y33.421
X-70.528 Y33.431
X-70.351 Y33.511
X-70.214 Y33.649
X-70.136 Y33.827
X-70.053 Y34.183
G3 X-70.21 Y34.462 R0.246
X-71.126 Y33.986 R0.701
G1 X-71.204 Y33.652
X-71.228 Y33.519
X-71.204 Y33.386
X-71.148 Y33.264
X-70.998 Y33.137
X-70.812 Y33.073
X-70.616 Y33.08
X-70.436 Y33.159
X-70.297 Y33.297
X-70.218 Y33.477
X-70.136 Y33.827
G3 X-70.283 Y34.102 R0.247
X-71.204 Y33.652 R0.682
G1 X-71.285 Y33.309
X-71.309 Y33.176
X-71.287 Y33.042
X-71.231 Y32.919
X-71.082 Y32.791
X-70.897 Y32.725
X-70.7 Y32.732
X-70.519 Y32.81
X-70.379 Y32.948
X-70.3 Y33.128
X-70.218 Y33.477
G3 X-70.361 Y33.751 R0.247
X-71.285 Y33.309 R0.676
G1 X-71.371 Y32.938
X-71.396 Y32.805
X-71.367 Y32.673
X-71.306 Y32.553
X-71.155 Y32.43
X-70.971 Y32.369
X-70.776 Y32.379
X-70.598 Y32.458
X-70.461 Y32.596
X-70.383 Y32.774
X-70.3 Y33.128
G3 X-70.454 Y33.406 R0.246
X-71.371 Y32.938 R0.696
G1 X-71.45 Y32.602
X-71.474 Y32.469
X-71.451 Y32.336
X-71.395 Y32.214
X-71.246 Y32.086
X-71.06 Y32.021
X-70.864 Y32.029
X-70.683 Y32.107
X-70.544 Y32.245
X-70.464 Y32.425
X-70.383 Y32.774
G3 X-70.528 Y33.049 R0.247
X-71.409 Y32.713 R0.679
X-71.45 Y32.602 R0.679
G1 X-71.537 Y32.232
X-71.561 Y32.099
X-71.532 Y31.967
X-71.47 Y31.847
X-71.319 Y31.724
X-71.134 Y31.664
X-70.94 Y31.675
X-70.763 Y31.754
X-70.626 Y31.892
X-70.548 Y32.07
X-70.464 Y32.425
G3 X-70.47 Y32.542 R0.246
X-70.621 Y32.704 R0.246
X-71.497 Y32.342 R0.699
X-71.537 Y32.232 R0.699
G1 X-71.614 Y31.902
X-71.638 Y31.769
X-71.617 Y31.636
X-71.561 Y31.513
X-71.412 Y31.384
X-71.227 Y31.318
X-71.03 Y31.325
X-70.849 Y31.403
X-70.709 Y31.542
X-70.629 Y31.722
X-70.548 Y32.07
G3 X-70.691 Y32.344 R0.247
X-71.614 Y31.902 R0.676
G1 X-71.702 Y31.525
X-71.727 Y31.393
X-71.697 Y31.261
X-71.634 Y31.141
X-71.483 Y31.019
X-71.298 Y30.96
X-71.104 Y30.971
X-70.927 Y31.051
X-70.791 Y31.188
X-70.713 Y31.366
X-70.629 Y31.722
G3 X-70.787 Y32.002 R0.246
X-71.662 Y31.636 R0.702
X-71.702 Y31.525 R0.702
G1 X-71.781 Y31.188
X-71.806 Y31.055
X-71.781 Y30.923
X-71.723 Y30.801
X-71.573 Y30.674
X-71.388 Y30.611
X-71.192 Y30.619
X-71.013 Y30.698
X-70.874 Y30.836
X-70.795 Y31.016
X-70.713 Y31.366
G3 X-70.861 Y31.642 R0.247
X-71.741 Y31.299 R0.685
X-71.781 Y31.188 R0.685
G1 X-71.867 Y30.825
X-71.891 Y30.692
X-71.862 Y30.56
X-71.801 Y30.44
X-71.651 Y30.317
X-71.466 Y30.256
X-71.271 Y30.266
X-71.094 Y30.345
X-70.956 Y30.483
X-70.878 Y30.661
X-70.795 Y31.016
G3 X-70.95 Y31.294 R0.246
X-71.867 Y30.825 R0.696
G1 X-71.947 Y30.482
X-71.971 Y30.349
X-71.946 Y30.216
X-71.888 Y30.095
X-71.738 Y29.969
X-71.552 Y29.906
X-71.357 Y29.914
X-71.178 Y29.993
X-71.039 Y30.131
X-70.96 Y30.31
X-70.878 Y30.661
G3 X-71.027 Y30.938 R0.246
X-71.947 Y30.482 R0.686
G1 X-72.034 Y30.111
X-72.058 Y29.979
X-72.027 Y29.847
X-71.964 Y29.728
X-71.813 Y29.606
X-71.628 Y29.548
X-71.435 Y29.559
X-71.258 Y29.639
X-71.121 Y29.777
X-71.044 Y29.954
X-70.96 Y30.31
G3 X-71.119 Y30.59 R0.246
X-71.994 Y30.222 R0.704
X-72.034 Y30.111 R0.704
G1 X-72.113 Y29.775
X-72.137 Y29.643
X-72.112 Y29.51
X-72.054 Y29.388
X-71.904 Y29.262
X-71.719 Y29.199
X-71.523 Y29.207
X-71.344 Y29.286
X-71.205 Y29.424
X-71.126 Y29.603
X-71.044 Y29.954
G3 X-71.049 Y30.071 R0.246
X-71.192 Y30.23 R0.247
X-72.113 Y29.775 R0.685
G1 X-72.198 Y29.41
X-72.222 Y29.277
X-72.193 Y29.145
X-72.132 Y29.025
X-71.981 Y28.903
X-71.796 Y28.843
X-71.602 Y28.853
X-71.424 Y28.932
X-71.287 Y29.07
X-71.209 Y29.248
X-71.126 Y29.603
G3 X-71.131 Y29.72 R0.246
X-71.282 Y29.882 R0.246
X-72.158 Y29.52 R0.699
X-72.198 Y29.41 R0.699
G1 X-72.277 Y29.075
X-72.301 Y28.942
X-72.278 Y28.809
X-72.221 Y28.687
X-72.072 Y28.559
X-71.886 Y28.495
X-71.69 Y28.503
X-71.51 Y28.581
X-71.37 Y28.719
X-71.291 Y28.899
X-71.209 Y29.248
G3 X-71.355 Y29.523 R0.247
X-72.277 Y29.075 R0.68
G1 X-72.365 Y28.699
X-72.389 Y28.566
X-72.358 Y28.434
X-72.246 Y28.29
X-72.09 Y28.192
X-71.911 Y28.152
X-71.73 Y28.176
X-71.567 Y28.26
X-71.442 Y28.394
X-71.37 Y28.563
X-71.291 Y28.899
G3 X-71.296 Y29.016 R0.246
X-71.451 Y29.179 R0.246
X-72.325 Y28.809 R0.705
X-72.365 Y28.699 R0.705
G1 X-72.444 Y28.361
X-72.468 Y28.229
X-72.437 Y28.097
X-72.375 Y27.978
X-72.222 Y27.858
X-72.037 Y27.8
X-71.843 Y27.812
X-71.667 Y27.893
X-71.53 Y28.031
X-71.453 Y28.209
X-71.37 Y28.563
G3 X-71.375 Y28.679 R0.246
X-71.53 Y28.843 R0.246
X-72.444 Y28.361 R0.706
G1 X-72.523 Y28.026
X-72.547 Y27.893
X-72.521 Y27.76
X-72.463 Y27.638
X-72.313 Y27.513
X-72.127 Y27.451
X-71.932 Y27.46
X-71.753 Y27.539
X-71.614 Y27.677
X-71.535 Y27.856
X-71.453 Y28.209
G3 X-71.604 Y28.486 R0.246
X-72.482 Y28.136 R0.689
X-72.523 Y28.026 R0.689
G1 X-72.608 Y27.66
X-72.633 Y27.527
X-72.603 Y27.396
X-72.541 Y27.276
X-72.39 Y27.154
X-72.205 Y27.094
X-72.011 Y27.105
X-71.834 Y27.185
X-71.697 Y27.323
X-71.619 Y27.5
X-71.535 Y27.856
G3 X-71.54 Y27.973 R0.246
X-71.693 Y28.136 R0.246
X-72.608 Y27.66 R0.701
G1 X-72.687 Y27.325
X-72.711 Y27.193
X-72.687 Y27.06
X-72.63 Y26.937
X-72.481 Y26.81
X-72.295 Y26.746
X-72.099 Y26.754
X-71.919 Y26.833
X-71.78 Y26.971
X-71.701 Y27.151
X-71.619 Y27.5
G3 X-71.765 Y27.776 R0.247
X-72.687 Y27.325 R0.682
G1 X-72.767 Y26.982
X-72.791 Y26.849
X-72.769 Y26.716
X-72.714 Y26.593
X-72.565 Y26.464
X-72.38 Y26.399
X-72.183 Y26.405
X-72.002 Y26.483
X-71.862 Y26.622
X-71.782 Y26.802
X-71.701 Y27.151
G3 X-71.844 Y27.424 R0.247
X-72.727 Y27.093 R0.676
X-72.767 Y26.982 R0.676
G1 X-72.854 Y26.612
X-72.878 Y26.479
X-72.85 Y26.347
X-72.789 Y26.226
X-72.638 Y26.103
X-72.453 Y26.042
X-72.259 Y26.052
X-72.081 Y26.132
X-71.944 Y26.27
X-71.865 Y26.448
X-71.782 Y26.802
G3 X-71.937 Y27.08 R0.246
X-72.854 Y26.612 R0.696
G1 X-72.933 Y26.276
X-72.957 Y26.143
X-72.934 Y26.01
X-72.878 Y25.887
X-72.728 Y25.759
X-72.543 Y25.695
X-72.346 Y25.702
X-72.166 Y25.78
X-72.027 Y25.919
X-71.947 Y26.099
X-71.865 Y26.448
G3 X-71.87 Y26.564 R0.247
X-72.01 Y26.722 R0.247
X-72.933 Y26.276 R0.679
G1 X-73.02 Y25.905
X-73.044 Y25.772
X-73.015 Y25.641
X-72.953 Y25.521
X-72.802 Y25.398
X-72.617 Y25.338
X-72.423 Y25.348
X-72.246 Y25.428
X-72.109 Y25.566
X-72.03 Y25.744
X-71.947 Y26.099
G3 X-72.104 Y26.378 R0.246
X-72.979 Y26.016 R0.699
X-73.02 Y25.905 R0.699
G1 X-73.097 Y25.575
X-73.121 Y25.443
X-73.099 Y25.309
X-73.044 Y25.186
X-72.895 Y25.058
X-72.709 Y24.992
X-72.512 Y24.999
X-72.332 Y25.077
X-72.192 Y25.215
X-72.112 Y25.396
X-72.03 Y25.744
G3 X-72.173 Y26.017 R0.247
X-73.097 Y25.575 R0.676
G1 X-73.185 Y25.199
X-73.209 Y25.066
X-73.179 Y24.934
X-73.117 Y24.815
X-72.966 Y24.693
X-72.781 Y24.634
X-72.587 Y24.644
X-72.41 Y24.724
X-72.273 Y24.862
X-72.195 Y25.04
X-72.112 Y25.396
G3 X-72.27 Y25.675 R0.246
X-73.145 Y25.31 R0.702
X-73.185 Y25.199 R0.702
G1 X-73.264 Y24.862
X-73.288 Y24.729
X-73.264 Y24.596
X-73.206 Y24.474
X-73.056 Y24.348
X-72.871 Y24.285
X-72.675 Y24.293
X-72.495 Y24.372
X-72.357 Y24.51
X-72.278 Y24.689
X-72.195 Y25.04
G3 X-72.2 Y25.156 R0.247
X-72.344 Y25.316 R0.247
X-73.224 Y24.972 R0.685
X-73.264 Y24.862 R0.685
G1 X-73.349 Y24.499
X-73.374 Y24.366
X-73.345 Y24.234
X-73.284 Y24.113
X-73.134 Y23.99
X-72.949 Y23.929
X-72.754 Y23.939
X-72.576 Y24.019
X-72.439 Y24.157
X-72.361 Y24.335
X-72.278 Y24.689
G3 X-72.432 Y24.968 R0.246
X-73.349 Y24.499 R0.696
G1 X-73.43 Y24.155
X-73.454 Y24.023
X-73.429 Y23.89
X-73.371 Y23.768
X-73.221 Y23.642
X-73.035 Y23.579
X-72.84 Y23.588
X-72.66 Y23.667
X-72.522 Y23.805
X-72.443 Y23.984
X-72.361 Y24.335
G3 X-72.366 Y24.452 R0.246
X-72.51 Y24.611 R0.246
X-73.389 Y24.266 R0.686
X-73.43 Y24.155 R0.686
G1 X-73.517 Y23.785
X-73.541 Y23.652
X-73.51 Y23.521
X-73.447 Y23.401
X-73.296 Y23.28
X-73.111 Y23.221
X-72.917 Y23.232
X-72.741 Y23.312
X-72.604 Y23.45
X-72.526 Y23.628
X-72.443 Y23.984
G3 X-72.602 Y24.264 R0.246
X-73.476 Y23.895 R0.704
X-73.517 Y23.785 R0.704
G1 X-73.595 Y23.449
X-73.62 Y23.316
X-73.595 Y23.184
X-73.537 Y23.062
X-73.387 Y22.935
X-73.201 Y22.872
X-73.006 Y22.881
X-72.826 Y22.959
X-72.688 Y23.098
X-72.609 Y23.277
X-72.526 Y23.628
G3 X-72.675 Y23.904 R0.247
X-73.555 Y23.56 R0.685
X-73.595 Y23.449 R0.685
G1 X-73.681 Y23.083
X-73.705 Y22.951
X-73.676 Y22.819
X-73.614 Y22.699
X-73.463 Y22.576
X-73.279 Y22.516
X-73.084 Y22.527
X-72.907 Y22.606
X-72.77 Y22.744
X-72.692 Y22.922
X-72.609 Y23.277
G3 X-72.614 Y23.394 R0.246
X-72.765 Y23.556 R0.246
X-73.641 Y23.194 R0.699
X-73.681 Y23.083 R0.699
G1 X-73.758 Y22.754
X-73.782 Y22.621
X-73.761 Y22.488
X-73.706 Y22.365
X-73.557 Y22.236
X-73.371 Y22.17
X-73.174 Y22.177
X-72.993 Y22.255
X-72.853 Y22.394
X-72.773 Y22.574
X-72.692 Y22.922
G3 X-72.834 Y23.196 R0.247
X-73.718 Y22.865 R0.676
X-73.758 Y22.754 R0.676
G1 X-73.84 Y22.406
X-73.864 Y22.273
X-73.842 Y22.14
X-73.786 Y22.017
X-73.638 Y21.888
X-73.452 Y21.822
X-73.255 Y21.829
X-73.075 Y21.907
X-72.935 Y22.045
X-72.855 Y22.225
X-72.773 Y22.574
G3 X-72.916 Y22.848 R0.247
X-73.84 Y22.406 R0.676
G1 X-73.927 Y22.035
X-73.951 Y21.902
X-73.923 Y21.77
X-73.862 Y21.65
X-73.711 Y21.527
X-73.526 Y21.466
X-73.332 Y21.476
X-73.154 Y21.555
X-73.016 Y21.693
X-72.938 Y21.871
X-72.855 Y22.225
G3 X-73.01 Y22.503 R0.246
X-73.886 Y22.146 R0.695
X-73.927 Y22.035 R0.695
G1 X-74.005 Y21.699
X-74.03 Y21.566
X-74.007 Y21.433
X-73.95 Y21.311
X-73.801 Y21.183
X-73.615 Y21.118
X-73.419 Y21.126
X-73.239 Y21.204
X-73.099 Y21.342
X-73.02 Y21.522
X-72.938 Y21.871
G3 X-72.943 Y21.988 R0.247
X-73.083 Y22.146 R0.247
X-73.965 Y21.81 R0.679
X-74.005 Y21.699 R0.679
G1 X-74.092 Y21.329
X-74.116 Y21.196
X-74.087 Y21.064
X-74.026 Y20.944
X-73.875 Y20.821
X-73.69 Y20.761
X-73.496 Y20.772
X-73.318 Y20.851
X-73.181 Y20.989
X-73.103 Y21.167
X-73.02 Y21.522
G3 X-73.176 Y21.801 R0.246
X-74.052 Y21.439 R0.699
X-74.092 Y21.329 R0.699
G1 X-74.17 Y20.999
X-74.194 Y20.866
X-74.172 Y20.733
X-74.117 Y20.61
X-73.968 Y20.481
X-73.782 Y20.415
X-73.585 Y20.422
X-73.404 Y20.5
X-73.264 Y20.639
X-73.185 Y20.819
X-73.103 Y21.167
G3 X-73.246 Y21.441 R0.247
X-74.17 Y20.999 R0.676
G1 X-74.258 Y20.622
X-74.282 Y20.49
X-74.252 Y20.358
X-74.19 Y20.238
X-74.038 Y20.116
X-73.854 Y20.057
X-73.66 Y20.068
X-73.483 Y20.148
X-73.346 Y20.285
X-73.268 Y20.463
X-73.185 Y20.819
G3 X-73.343 Y21.099 R0.246
X-74.218 Y20.733 R0.702
X-74.258 Y20.622 R0.702
G1 X-74.337 Y20.285
X-74.361 Y20.152
X-74.336 Y20.02
X-74.279 Y19.898
X-74.129 Y19.771
X-73.943 Y19.708
X-73.748 Y19.716
X-73.568 Y19.795
X-73.429 Y19.933
X-73.35 Y20.113
X-73.268 Y20.463
G3 X-73.416 Y20.739 R0.247
X-74.296 Y20.396 R0.685
X-74.337 Y20.285 R0.685
G1 X-74.422 Y19.922
X-74.446 Y19.789
X-74.418 Y19.657
X-74.357 Y19.537
X-74.206 Y19.414
X-74.021 Y19.353
X-73.827 Y19.363
X-73.649 Y19.442
X-73.512 Y19.58
X-73.433 Y19.758
X-73.35 Y20.113
G3 X-73.505 Y20.391 R0.246
X-74.422 Y19.922 R0.696
G1 X-74.502 Y19.579
X-74.527 Y19.446
X-74.501 Y19.313
X-74.443 Y19.192
X-74.293 Y19.066
X-74.108 Y19.003
X-73.912 Y19.011
X-73.733 Y19.09
X-73.595 Y19.228
X-73.515 Y19.407
X-73.433 Y19.758
G3 X-73.582 Y20.035 R0.246
X-74.462 Y19.689 R0.686
X-74.502 Y19.579 R0.686
G1 X-74.589 Y19.208
X-74.613 Y19.076
X-74.583 Y18.944
X-74.52 Y18.825
X-74.368 Y18.703
X-74.184 Y18.645
X-73.99 Y18.656
