(__40_80_)
(T2  D=8. CR=0. - ZMIN=-28.49 - FLAT END MILL)
G90 G94 G91.1 G40 G49 G17
G21

(2D POCKET1)
M5
M9
T2
S3640 M3
G54
M8
G0 X19.007 Y60.438
G43 Z4. H2
Z2.
G1 Z0.5 F466.
G3 X19.994 Y60.6 Z0.223 R0.5
X19.007 Y60.438 Z-0.054 R0.5
X19.994 Y60.6 Z-0.331 R0.5
X19.007 Y60.438 Z-0.608 R0.5
X19.994 Y60.6 Z-0.885 R0.5
X19.007 Y60.438 Z-1.162 R0.5
X19.994 Y60.6 Z-1.439 R0.5
X19.007 Y60.438 Z-1.716 R0.5
X19.994 Y60.6 Z-1.993 R0.5
X19.007 Y60.438 Z-2.27 R0.5
X19.994 Y60.6 Z-2.547 R0.5
X19.007 Y60.438 Z-2.824 R0.5
X19.994 Y60.6 Z-3.101 R0.5
X19.007 Y60.438 Z-3.378 R0.5
X19.994 Y60.6 Z-3.655 R0.5
X19.007 Y60.438 Z-3.932 R0.5
X19.994 Y60.6 Z-4.209 R0.5
X19.007 Y60.438 Z-4.486 R0.5
X19.994 Y60.6 Z-4.763 R0.5
X19.007 Y60.438 Z-5.039 R0.5
X19.994 Y60.6 Z-5.316 R0.5
X19.007 Y60.438 Z-5.593 R0.5
X19.994 Y60.6 Z-5.87 R0.5
X19.007 Y60.438 Z-6.147 R0.5
X19.994 Y60.6 Z-6.424 R0.5
X19.007 Y60.438 Z-6.701 R0.5
X19.994 Y60.6 Z-6.978 R0.5
X19.007 Y60.438 Z-7.255 R0.5
X19.994 Y60.6 Z-7.532 R0.5
X19.007 Y60.438 Z-7.809 R0.5
X19.994 Y60.6 Z-8.086 R0.5
X19.007 Y60.438 Z-8.363 R0.5
X19.994 Y60.6 Z-8.64 R0.5
X19.007 Y60.438 Z-8.917 R0.5
X19.994 Y60.6 Z-9.194 R0.5
X19.007 Y60.438 Z-9.471 R0.5
X19.994 Y60.6 Z-9.748 R0.5
X19.007 Y60.438 Z-10.025 R0.5
X19.994 Y60.6 Z-10.302 R0.5
X19.007 Y60.438 Z-10.579 R0.5
X19.994 Y60.6 Z-10.856 R0.5
X19.007 Y60.438 Z-11.133 R0.5
X19.994 Y60.6 Z-11.41 R0.5
X19.007 Y60.438 Z-11.687 R0.5
X19.994 Y60.6 Z-11.964 R0.5
X19.007 Y60.438 Z-12.241 R0.5
X20. Y60.5 Z-12.5 R0.5
G1 X20.148 Y64.376
G3 X19.844 Y64.388 R0.152
G1 X19.699 Y60.608
G3 X20.31 Y60.578 R0.306
G1 X20.541 Y64.397
G3 X20.532 Y64.602 R1.001
X19.432 Y64.59 R0.555
G1 X19.369 Y64.085
G3 X19.354 Y63.914 R2.727
G1 X19.157 Y60.663
G3 X19.173 Y60.338 R1.501
X20.877 Y60.303 R0.866
G1 X20.89 Y60.368
G3 X20.922 Y60.635 R1.73
G1 X21.079 Y64.309
G3 X21.06 Y64.689 R2.052
G1 X21.053 Y64.737
G3 X18.801 Y64.652 R1.133
G1 X18.762 Y64.08
G3 X18.753 Y63.92 R6.398
G1 X18.618 Y60.74
G3 X18.642 Y60.263 R2.547
G1 X18.66 Y60.139
G3 X21.369 Y59.794 R1.417
X21.518 Y60.395 R2.007
G1 X21.522 Y60.436
G3 X21.53 Y60.565 R2.288
G1 X21.651 Y64.268
G3 X21.632 Y64.731 R3.111
G1 X21.614 Y64.882
G3 X18.332 Y65.287 R1.702
X18.181 Y64.573 R2.343
G1 X18.153 Y64.057
G3 X18.148 Y63.943 R5.7
G1 X18.038 Y60.586
G3 X18.036 Y60.414 R4.516
G1 X18.037 Y60.252
G3 X18.354 Y59.131 R2.182
X19.129 Y58.368 R2.184
G1 X19.273 Y58.285
G3 X19.85 Y58.121 R1.219
G1 X19.896 Y58.12
G3 X22.067 Y59.828 R2.155
X22.125 Y60.26 R2.908
G1 X22.134 Y60.42
G3 X22.141 Y60.58 R5.053
G1 X22.244 Y64.437
G3 X22.246 Y64.563 R5.582
G1 X22.247 Y64.784
G3 X17.616 Y65.21 R2.334
X17.567 Y64.744 R3.204
G1 X17.445 Y60.247
G3 X17.468 Y59.78 R3.442
G1 X17.479 Y59.688
G3 X21.006 Y57.564 R2.608
G1 X21.082 Y57.593
G3 X21.539 Y57.841 R2.013
G1 X21.609 Y57.892
G3 X22.484 Y58.973 R2.669
X22.682 Y59.645 R2.686
G1 X22.701 Y59.766
G3 X22.743 Y60.238 R3.637
G1 X22.75 Y60.5
Y65.
G3 X17.25 R2.75
G1 Y60.
G3 X22.75 R2.75
G1 Y60.5
X22.35 Z-12.46
G0 Z2.
X19.007 Y23.938
G1 Z0.5 F466.
G3 X19.994 Y24.1 Z0.223 R0.5
X19.007 Y23.938 Z-0.054 R0.5
X19.994 Y24.1 Z-0.331 R0.5
X19.007 Y23.938 Z-0.608 R0.5
X19.994 Y24.1 Z-0.885 R0.5
X19.007 Y23.938 Z-1.162 R0.5
X19.994 Y24.1 Z-1.439 R0.5
X19.007 Y23.938 Z-1.716 R0.5
X19.994 Y24.1 Z-1.993 R0.5
X19.007 Y23.938 Z-2.27 R0.5
X19.994 Y24.1 Z-2.547 R0.5
X19.007 Y23.938 Z-2.824 R0.5
X19.994 Y24.1 Z-3.101 R0.5
X19.007 Y23.938 Z-3.378 R0.5
X19.994 Y24.1 Z-3.655 R0.5
X19.007 Y23.938 Z-3.932 R0.5
X19.994 Y24.1 Z-4.209 R0.5
X19.007 Y23.938 Z-4.486 R0.5
X19.994 Y24.1 Z-4.763 R0.5
X19.007 Y23.938 Z-5.039 R0.5
X19.994 Y24.1 Z-5.316 R0.5
X19.007 Y23.938 Z-5.593 R0.5
X19.994 Y24.1 Z-5.87 R0.5
X19.007 Y23.938 Z-6.147 R0.5
X19.994 Y24.1 Z-6.424 R0.5
X19.007 Y23.938 Z-6.701 R0.5
X19.994 Y24.1 Z-6.978 R0.5
X19.007 Y23.938 Z-7.255 R0.5
X19.994 Y24.1 Z-7.532 R0.5
X19.007 Y23.938 Z-7.809 R0.5
X19.994 Y24.1 Z-8.086 R0.5
X19.007 Y23.938 Z-8.363 R0.5
X19.994 Y24.1 Z-8.64 R0.5
X19.007 Y23.938 Z-8.917 R0.5
X19.994 Y24.1 Z-9.194 R0.5
X19.007 Y23.938 Z-9.471 R0.5
X19.994 Y24.1 Z-9.748 R0.5
X19.007 Y23.938 Z-10.025 R0.5
X19.994 Y24.1 Z-10.302 R0.5
X19.007 Y23.938 Z-10.579 R0.5
X19.994 Y24.1 Z-10.856 R0.5
X19.007 Y23.938 Z-11.133 R0.5
X19.994 Y24.1 Z-11.41 R0.5
X19.007 Y23.938 Z-11.687 R0.5
X19.994 Y24.1 Z-11.964 R0.5
X19.007 Y23.938 Z-12.241 R0.5
X20. Y24. Z-12.5 R0.5
G1 X20.019 Y24.494
G3 X20.017 Y24.506 R0.038
X19.983 R0.018
G1 X19.848 Y21.033
G3 X19.847 Y20.967 R1.745
G1 Y20.665
G3 X20.177 Y20.658 R0.165
G1 X20.304 Y23.964
G2 X20.308 Y24.036 R3.216
G1 X20.329 Y24.395
G3 X20.312 Y24.602 R0.722
G1 X20.296 Y24.669
G3 X20.128 Y24.876 R0.304
G1 X20.097 Y24.89
G3 X19.854 Y24.885 R0.279
X19.603 Y24.526 R0.463
X19.599 Y24.483 R0.616
G1 X19.396 Y21.122
G3 X19.393 Y20.878 R2.615
G1 X19.404 Y20.531
G3 X20.668 Y20.472 R0.635
G1 X20.723 Y20.904
G3 X20.741 Y21.097 R2.929
G1 X20.914 Y23.955
G3 X20.919 Y24.045 R5.053
G1 X20.931 Y24.338
G3 X20.916 Y24.66 R1.791
G1 X20.914 Y24.675
G3 X18.981 Y24.749 R0.982
G1 X18.963 Y24.665
G3 X18.919 Y24.331 R1.955
G1 X18.781 Y21.075
G3 X18.777 Y20.925 R4.309
G1 X18.773 Y20.426
G3 X21.355 Y20.329 R1.292
G1 X21.394 Y20.914
G3 X21.404 Y21.086 R6.842
G1 X21.537 Y24.268
G3 X21.515 Y24.73 R2.923
G1 X21.481 Y25.003
G3 X21.223 Y25.706 R1.68
X20.009 Y26.395 R1.513
X19.947 Y26.396 R1.505
X18.995 Y26.056 R1.505
G1 X18.985 Y26.048
G3 X18.495 Y25.38 R1.648
G1 X18.441 Y25.241
G3 X18.29 Y24.596 R2.254
G1 X18.287 Y24.562
G3 X18.279 Y24.438 R2.503
G1 X18.169 Y21.058
G3 X18.166 Y20.942 R5.716
G1 X18.16 Y20.497
G3 X18.283 Y19.641 R2.815
X21.822 Y19.562 R1.864
G1 X21.866 Y19.687
G3 X22.013 Y20.434 R2.614
G1 X22.04 Y21.
X22.15 Y24.43
G3 X22.152 Y24.57 R5.268
G1 Y24.776
G3 X17.712 Y25.194 R2.24
X17.66 Y24.747 R3.136
G1 X17.541 Y20.257
G3 X17.566 Y19.782 R3.28
G1 X17.571 Y19.742
G3 X18.092 Y18.454 R2.709
X18.461 Y18.074 R2.086
G1 X18.502 Y18.042
G3 X19.048 Y17.712 R2.475
G1 X19.093 Y17.692
G3 X19.619 Y17.538 R2.138
X22.589 Y19.685 R2.599
G1 X22.604 Y19.774
G3 X22.649 Y20.243 R3.511
G1 X22.75 Y24.
Y25.
G3 X17.25 R2.75
G1 Y20.
G3 X22.75 R2.75
G1 Y24.
X22.35 Z-12.46
G0 Z2.
X-20.993 Y23.938
G1 Z0.5 F466.
G3 X-20.006 Y24.1 Z0.223 R0.5
X-20.993 Y23.938 Z-0.054 R0.5
X-20.006 Y24.1 Z-0.331 R0.5
X-20.993 Y23.938 Z-0.608 R0.5
X-20.006 Y24.1 Z-0.885 R0.5
X-20.993 Y23.938 Z-1.162 R0.5
X-20.006 Y24.1 Z-1.439 R0.5
X-20.993 Y23.938 Z-1.716 R0.5
X-20.006 Y24.1 Z-1.993 R0.5
X-20.993 Y23.938 Z-2.27 R0.5
X-20.006 Y24.1 Z-2.547 R0.5
X-20.993 Y23.938 Z-2.824 R0.5
X-20.006 Y24.1 Z-3.101 R0.5
X-20.993 Y23.938 Z-3.378 R0.5
X-20.006 Y24.1 Z-3.655 R0.5
X-20.993 Y23.938 Z-3.932 R0.5
X-20.006 Y24.1 Z-4.209 R0.5
X-20.993 Y23.938 Z-4.486 R0.5
X-20.006 Y24.1 Z-4.763 R0.5
X-20.993 Y23.938 Z-5.039 R0.5
X-20.006 Y24.1 Z-5.316 R0.5
X-20.993 Y23.938 Z-5.593 R0.5
X-20.006 Y24.1 Z-5.87 R0.5
X-20.993 Y23.938 Z-6.147 R0.5
X-20.006 Y24.1 Z-6.424 R0.5
X-20.993 Y23.938 Z-6.701 R0.5
X-20.006 Y24.1 Z-6.978 R0.5
X-20.993 Y23.938 Z-7.255 R0.5
X-20.006 Y24.1 Z-7.532 R0.5
X-20.993 Y23.938 Z-7.809 R0.5
X-20.006 Y24.1 Z-8.086 R0.5
X-20.993 Y23.938 Z-8.363 R0.5
X-20.006 Y24.1 Z-8.64 R0.5
X-20.993 Y23.938 Z-8.917 R0.5
X-20.006 Y24.1 Z-9.194 R0.5
X-20.993 Y23.938 Z-9.471 R0.5
X-20.006 Y24.1 Z-9.748 R0.5
X-20.993 Y23.938 Z-10.025 R0.5
X-20.006 Y24.1 Z-10.302 R0.5
X-20.993 Y23.938 Z-10.579 R0.5
X-20.006 Y24.1 Z-10.856 R0.5
X-20.993 Y23.938 Z-11.133 R0.5
X-20.006 Y24.1 Z-11.41 R0.5
X-20.993 Y23.938 Z-11.687 R0.5
X-20.006 Y24.1 Z-11.964 R0.5
X-20.993 Y23.938 Z-12.241 R0.5
X-20. Y24. Z-12.5 R0.5
G1 X-19.982 Y24.48
G3 X-20.02 Y24.482 R0.019
G1 X-20.167 Y20.632
G3 X-19.825 Y20.619 R0.171
G1 X-19.696 Y23.964
G2 X-19.692 Y24.036 R3.216
G1 X-19.673 Y24.361
G3 X-20.401 Y24.409 R0.365
G1 X-20.634 Y20.622
G3 X-20.623 Y20.379 R1.162
X-19.342 Y20.394 R0.647
G1 X-19.277 Y20.904
G3 X-19.259 Y21.097 R2.929
G1 X-19.086 Y23.955
G3 X-19.081 Y24.045 R5.053
G1 X-19.069 Y24.338
G3 X-19.084 Y24.66 R1.791
G1 X-19.088 Y24.69
G3 X-20.997 Y24.692 R0.964
G1 X-21.071 Y24.166
G3 X-21.102 Y23.832 R3.456
G1 X-21.234 Y20.722
G3 X-21.211 Y20.281 R2.326
G1 X-21.202 Y20.22
G3 X-18.646 Y20.322 R1.287
G1 X-18.606 Y20.914
G3 X-18.596 Y21.086 R6.842
G1 X-18.463 Y24.268
G3 X-18.485 Y24.73 R2.923
G1 X-18.519 Y25.003
G3 X-18.777 Y25.706 R1.68
X-19.991 Y26.395 R1.513
X-20.053 Y26.396 R1.505
X-21.005 Y26.056 R1.505
G1 X-21.015 Y26.048
G3 X-21.505 Y25.38 R1.648
G1 X-21.553 Y25.259
G3 X-21.703 Y24.577 R2.178
G1 X-21.731 Y24.062
G3 X-21.737 Y23.938 R5.405
G1 X-21.847 Y20.594
G3 X-21.723 Y19.659 R2.88
X-18.171 Y19.58 R1.87
G1 X-18.134 Y19.687
G3 X-17.987 Y20.434 R2.614
G1 X-17.96 Y21.
X-17.85 Y24.43
G3 X-17.848 Y24.57 R5.268
G1 Y24.785
G3 X-22.286 Y25.203 R2.239
X-22.338 Y24.738 R3.067
G1 X-22.418 Y22.
X-22.461 Y20.25
G3 X-22.435 Y19.789 R3.336
G1 X-22.429 Y19.742
G3 X-21.908 Y18.454 R2.709
X-21.539 Y18.074 R2.086
G1 X-21.498 Y18.042
G3 X-20.952 Y17.712 R2.475
G1 X-20.907 Y17.692
G3 X-20.381 Y17.538 R2.138
X-17.411 Y19.685 R2.599
G1 X-17.396 Y19.774
G3 X-17.351 Y20.243 R3.511
G1 X-17.25 Y24.
Y25.
G3 X-22.75 R2.75
G1 Y20.
G3 X-17.25 R2.75
G1 Y24.
X-17.65 Z-12.46
G0 Z2.
X-20.993 Y63.933
G1 Z0.5 F466.
G3 X-20.007 Y64.1 Z0.223 R0.5
X-20.993 Y63.933 Z-0.054 R0.5
X-20.007 Y64.1 Z-0.331 R0.5
X-20.993 Y63.933 Z-0.608 R0.5
X-20.007 Y64.1 Z-0.885 R0.5
X-20.993 Y63.933 Z-1.162 R0.5
X-20.007 Y64.1 Z-1.439 R0.5
X-20.993 Y63.933 Z-1.716 R0.5
X-20.007 Y64.1 Z-1.993 R0.5
X-20.993 Y63.933 Z-2.27 R0.5
X-20.007 Y64.1 Z-2.547 R0.5
X-20.993 Y63.933 Z-2.824 R0.5
X-20.007 Y64.1 Z-3.101 R0.5
X-20.993 Y63.933 Z-3.378 R0.5
X-20.007 Y64.1 Z-3.655 R0.5
X-20.993 Y63.933 Z-3.932 R0.5
X-20.007 Y64.1 Z-4.209 R0.5
X-20.993 Y63.933 Z-4.486 R0.5
X-20.007 Y64.1 Z-4.763 R0.5
X-20.993 Y63.933 Z-5.039 R0.5
X-20.007 Y64.1 Z-5.316 R0.5
X-20.993 Y63.933 Z-5.593 R0.5
X-20.007 Y64.1 Z-5.87 R0.5
X-20.993 Y63.933 Z-6.147 R0.5
X-20.007 Y64.1 Z-6.424 R0.5
X-20.993 Y63.933 Z-6.701 R0.5
X-20.007 Y64.1 Z-6.978 R0.5
X-20.993 Y63.933 Z-7.255 R0.5
X-20.007 Y64.1 Z-7.532 R0.5
X-20.993 Y63.933 Z-7.809 R0.5
X-20.007 Y64.1 Z-8.086 R0.5
X-20.993 Y63.933 Z-8.363 R0.5
X-20.007 Y64.1 Z-8.64 R0.5
X-20.993 Y63.933 Z-8.917 R0.5
X-20.007 Y64.1 Z-9.194 R0.5
X-20.993 Y63.933 Z-9.471 R0.5
X-20.007 Y64.1 Z-9.748 R0.5
X-20.993 Y63.933 Z-10.025 R0.5
X-20.007 Y64.1 Z-10.302 R0.5
X-20.993 Y63.933 Z-10.579 R0.5
X-20.007 Y64.1 Z-10.856 R0.5
X-20.993 Y63.933 Z-11.133 R0.5
X-20.007 Y64.1 Z-11.41 R0.5
X-20.993 Y63.933 Z-11.687 R0.5
X-20.007 Y64.1 Z-11.964 R0.5
X-20.993 Y63.933 Z-12.241 R0.5
X-20. Y64. Z-12.5 R0.5
G1 X-19.984 Y64.482
G3 X-20.02 Y64.483 R0.018
G1 X-20.17 Y60.555
G3 X-20.157 Y60.447 R0.342
X-19.843 R0.163
G1 X-19.838 Y60.467
G3 X-19.827 Y60.535 R0.285
G1 X-19.696 Y63.963
G3 X-19.694 Y64.037 R2.233
G1 X-19.692 Y64.39
G3 X-20.4 Y64.417 R0.354
G1 X-20.634 Y60.622
G3 X-20.623 Y60.379 R1.162
X-19.327 Y60.344 R0.659
G1 X-19.314 Y60.405
G3 X-19.289 Y60.597 R1.351
G1 X-19.095 Y63.815
G3 X-19.094 Y64.185 R3.224
G1 X-19.118 Y64.631
G3 X-20.995 Y64.711 R0.944
G1 X-21.071 Y64.166
G3 X-21.102 Y63.832 R3.456
G1 X-21.234 Y60.722
G3 X-21.211 Y60.281 R2.326
G1 X-21.2 Y60.21
G3 X-18.697 Y60.137 R1.272
G1 X-18.664 Y60.294
G3 X-18.612 Y60.71 R2.556
G1 X-18.476 Y63.909
G3 X-18.472 Y64.091 R4.963
G1 X-18.469 Y64.532
G3 X-18.592 Y65.288 R2.304
X-21.513 Y65.36 R1.557
G1 X-21.553 Y65.259
G3 X-21.703 Y64.577 R2.178
G1 X-21.731 Y64.062
G3 X-21.737 Y63.938 R5.405
G1 X-21.847 Y60.594
G3 X-21.723 Y59.659 R2.88
X-18.171 Y59.58 R1.87
G1 X-18.129 Y59.7
G3 X-17.981 Y60.419 R2.672
G1 X-17.979 Y60.453
G3 X-17.974 Y60.547 R2.934
G1 X-17.864 Y63.9
G3 X-17.86 Y64.1 R10.613
G1 X-17.851 Y64.754
G3 X-22.286 Y65.203 R2.238
X-22.338 Y64.738 R3.067
G1 X-22.418 Y62.
X-22.461 Y60.25
G3 X-22.435 Y59.789 R3.336
G1 X-22.429 Y59.742
G3 X-21.908 Y58.454 R2.709
X-21.539 Y58.074 R2.086
G1 X-21.498 Y58.042
G3 X-20.952 Y57.712 R2.475
G1 X-20.907 Y57.692
G3 X-20.381 Y57.538 R2.138
X-17.411 Y59.685 R2.599
G1 X-17.396 Y59.776
G3 X-17.351 Y60.241 R3.523
G1 X-17.25 Y64.
Y65.
G3 X-22.75 R2.75
G1 Y60.
G3 X-17.25 R2.75
G1 Y64.
X-17.65 Z-12.46
G0 Z4.

(ADAPTIVE1)
M8
G0 X-19.919 Y24.191
Z4.
Z2.
Z-11.19
G1 Z-11.99 F466.
G3 X-20.081 Y24.611 Z-12.115 R0.225
X-19.919 Y24.191 Z-12.239 R0.225
X-20.081 Y24.611 Z-12.364 R0.225
X-19.919 Y24.191 Z-12.489 R0.225
X-20.081 Y24.611 Z-12.613 R0.225
X-19.919 Y24.191 Z-12.738 R0.225
X-20.081 Y24.611 Z-12.862 R0.225
X-19.919 Y24.191 Z-12.987 R0.225
X-20.081 Y24.611 Z-13.112 R0.225
X-19.919 Y24.191 Z-13.236 R0.225
X-20.081 Y24.611 Z-13.361 R0.225
X-19.919 Y24.191 Z-13.486 R0.225
X-20.081 Y24.611 Z-13.61 R0.225
X-19.919 Y24.191 Z-13.735 R0.225
X-20.081 Y24.611 Z-13.86 R0.225
X-19.919 Y24.191 Z-13.984 R0.225
X-20.081 Y24.611 Z-14.109 R0.225
X-19.919 Y24.191 Z-14.233 R0.225
X-20.081 Y24.611 Z-14.358 R0.225
X-19.919 Y24.191 Z-14.483 R0.225
X-20.081 Y24.611 Z-14.607 R0.225
X-19.919 Y24.191 Z-14.732 R0.225
X-20.081 Y24.611 Z-14.857 R0.225
X-19.919 Y24.191 Z-14.981 R0.225
X-20.081 Y24.611 Z-15.106 R0.225
X-19.919 Y24.191 Z-15.231 R0.225
X-20.081 Y24.611 Z-15.355 R0.225
X-19.919 Y24.191 Z-15.48 R0.225
X-20.081 Y24.611 Z-15.605 R0.225
X-19.919 Y24.191 Z-15.729 R0.225
X-20.081 Y24.611 Z-15.854 R0.225
X-19.919 Y24.191 Z-15.978 R0.225
X-20.081 Y24.611 Z-16.103 R0.225
X-19.919 Y24.191 Z-16.228 R0.225
X-20.081 Y24.611 Z-16.352 R0.225
X-19.919 Y24.191 Z-16.477 R0.225
X-20.081 Y24.611 Z-16.602 R0.225
X-19.919 Y24.191 Z-16.726 R0.225
X-20.081 Y24.611 Z-16.851 R0.225
X-19.919 Y24.191 Z-16.976 R0.225
X-20.081 Y24.611 Z-17.1 R0.225
X-19.919 Y24.191 Z-17.225 R0.225
X-20.081 Y24.611 Z-17.349 R0.225
X-19.919 Y24.191 Z-17.474 R0.225
X-20.081 Y24.611 Z-17.599 R0.225
X-19.919 Y24.191 Z-17.723 R0.225
X-20.081 Y24.611 Z-17.848 R0.225
X-19.919 Y24.191 Z-17.973 R0.225
X-20.081 Y24.611 Z-18.097 R0.225
X-19.919 Y24.191 Z-18.222 R0.225
X-20.081 Y24.611 Z-18.347 R0.225
X-19.919 Y24.191 Z-18.471 R0.225
X-20.081 Y24.611 Z-18.596 R0.225
X-19.919 Y24.191 Z-18.72 R0.225
X-20.081 Y24.611 Z-18.845 R0.225
X-19.919 Y24.191 Z-18.97 R0.225
X-20.081 Y24.611 Z-19.094 R0.225
X-19.919 Y24.191 Z-19.219 R0.225
X-20.081 Y24.611 Z-19.344 R0.225
X-19.919 Y24.191 Z-19.468 R0.225
X-20.081 Y24.611 Z-19.593 R0.225
X-19.919 Y24.191 Z-19.718 R0.225
X-20.081 Y24.611 Z-19.842 R0.225
X-19.919 Y24.191 Z-19.967 R0.225
X-20.081 Y24.611 Z-20.091 R0.225
X-19.919 Y24.191 Z-20.216 R0.225
X-20.081 Y24.611 Z-20.341 R0.225
X-19.919 Y24.191 Z-20.465 R0.225
X-20.081 Y24.611 Z-20.59 R0.225
X-19.919 Y24.191 Z-20.715 R0.225
X-20.081 Y24.611 Z-20.839 R0.225
X-19.919 Y24.191 Z-20.964 R0.225
X-20.081 Y24.611 Z-21.089 R0.225
X-19.919 Y24.191 Z-21.213 R0.225
X-20.081 Y24.611 Z-21.338 R0.225
X-19.919 Y24.191 Z-21.463 R0.225
X-20.081 Y24.611 Z-21.587 R0.225
X-19.919 Y24.191 Z-21.712 R0.225
X-20.081 Y24.611 Z-21.836 R0.225
X-19.919 Y24.191 Z-21.961 R0.225
X-20.081 Y24.611 Z-22.086 R0.225
X-19.919 Y24.191 Z-22.21 R0.225
X-20.081 Y24.611 Z-22.335 R0.225
X-19.919 Y24.191 Z-22.46 R0.225
X-20.081 Y24.611 Z-22.584 R0.225
X-19.919 Y24.191 Z-22.709 R0.225
X-20.081 Y24.611 Z-22.834 R0.225
X-19.919 Y24.191 Z-22.958 R0.225
X-20.081 Y24.611 Z-23.083 R0.225
X-19.919 Y24.191 Z-23.207 R0.225
X-20.081 Y24.611 Z-23.332 R0.225
X-19.919 Y24.191 Z-23.457 R0.225
X-20.081 Y24.611 Z-23.581 R0.225
X-19.919 Y24.191 Z-23.706 R0.225
X-20.081 Y24.611 Z-23.831 R0.225
X-19.919 Y24.191 Z-23.955 R0.225
X-20.081 Y24.611 Z-24.08 R0.225
X-19.919 Y24.191 Z-24.205 R0.225
X-20.081 Y24.611 Z-24.329 R0.225
X-19.919 Y24.191 Z-24.454 R0.225
X-20.081 Y24.611 Z-24.578 R0.225
X-19.919 Y24.191 Z-24.703 R0.225
X-20.081 Y24.611 Z-24.828 R0.225
X-19.919 Y24.191 Z-24.952 R0.225
X-20.081 Y24.611 Z-25.077 R0.225
X-19.919 Y24.191 Z-25.202 R0.225
X-20.081 Y24.611 Z-25.326 R0.225
X-19.919 Y24.191 Z-25.451 R0.225
X-20.081 Y24.611 Z-25.576 R0.225
X-19.919 Y24.191 Z-25.7 R0.225
X-20.081 Y24.611 Z-25.825 R0.225
X-19.919 Y24.191 Z-25.949 R0.225
X-20.081 Y24.611 Z-26.074 R0.225
X-19.919 Y24.191 Z-26.199 R0.225
X-20.081 Y24.611 Z-26.323 R0.225
X-19.919 Y24.191 Z-26.448 R0.225
X-20.081 Y24.611 Z-26.573 R0.225
X-19.919 Y24.191 Z-26.697 R0.225
X-20.081 Y24.611 Z-26.822 R0.225
X-19.919 Y24.191 Z-26.947 R0.225
X-20.081 Y24.611 Z-27.071 R0.225
X-19.919 Y24.191 Z-27.196 R0.225
X-20.081 Y24.611 Z-27.32 R0.225
X-19.919 Y24.191 Z-27.445 R0.225
X-20.081 Y24.611 Z-27.57 R0.225
X-19.919 Y24.191 Z-27.694 R0.225
X-20.081 Y24.611 Z-27.819 R0.225
X-19.919 Y24.191 Z-27.944 R0.225
X-20.081 Y24.611 Z-28.068 R0.225
X-19.919 Y24.191 Z-28.193 R0.225
X-20.081 Y24.611 Z-28.318 R0.225
X-19.919 Y24.191 Z-28.442 R0.225
X-19.775 Y24.401 Z-28.49 R0.225
X-20.225 R0.225
X-19.775 R0.225
G1 X-19.763 Y24.452 F406.
X-19.769 Y24.519
X-19.802 Y24.578
X-19.85 Y24.625
X-19.909 Y24.657
X-19.975 Y24.673
X-20.043 Y24.671
X-20.108 Y24.653
X-20.183 Y24.589
X-20.233 Y24.504
X-20.25 Y24.406
Y24.365
X-20.247 Y24.297
X-20.215 Y24.237
X-20.169 Y24.188
X-20.112 Y24.152
X-20.047 Y24.132
X-19.98 Y24.128
X-19.914 Y24.141
X-19.827 Y24.204
X-19.77 Y24.295
X-19.75 Y24.4
G3 X-19.756 Y24.434 R0.125 F466.
X-20.25 Y24.365 R0.253
G1 Y24.27 F406.
X-20.248 Y24.236
X-20.214 Y24.178
X-20.165 Y24.132
X-20.106 Y24.099
X-20.04 Y24.082
X-19.973 Y24.078
X-19.858 Y24.135
X-19.778 Y24.235
X-19.75 Y24.36
G3 X-19.781 Y24.438 R0.124 F466.
X-20.25 Y24.27 R0.268
G1 Y24.209 F406.
X-20.248 Y24.175
X-20.21 Y24.119
X-20.159 Y24.076
X-20.098 Y24.045
X-20.033 Y24.03
X-19.898 Y24.038
X-19.819 Y24.107
X-19.768 Y24.198
X-19.75 Y24.302
G3 X-19.783 Y24.382 R0.124 F466.
X-20.25 Y24.209 R0.269
G1 Y24.144 F406.
X-20.248 Y24.11
X-20.206 Y24.057
X-20.098 Y23.977
X-19.965 Y23.952
X-19.853 Y24.02
X-19.777 Y24.127
X-19.75 Y24.255
G3 X-19.794 Y24.345 R0.124 F466.
X-20.25 Y24.144 R0.277
G1 Y24.088 F406.
X-20.248 Y24.054
X-20.171 Y23.943
X-20.11 Y23.915
X-20.044 Y23.899
X-19.909 Y23.911
X-19.824 Y23.985
X-19.769 Y24.083
X-19.75 Y24.194
G3 X-19.791 Y24.282 R0.124 F466.
X-20.25 Y24.088 R0.275
G1 Y24.049 F406.
X-20.248 Y24.015
X-20.226 Y23.951
X-20.179 Y23.903
X-20.062 Y23.836
X-19.994 Y23.834
X-19.868 Y23.897
X-19.781 Y24.008
X-19.75 Y24.146
Y24.494
X-19.753 Y24.561
X-19.785 Y24.621
X-19.834 Y24.668
X-19.951 Y24.735
X-20.086
X-20.173 Y24.665
X-20.23 Y24.569
X-20.25 Y24.459
G3 X-20.244 Y24.426 R0.125 F466.
X-19.75 Y24.494 R0.253
G1 Y24.56 F406.
X-19.752 Y24.593
X-19.774 Y24.657
X-19.816 Y24.71
X-19.869 Y24.752
X-19.931 Y24.778
X-19.997 Y24.793
X-20.064 Y24.787
X-20.162 Y24.726
X-20.227 Y24.632
X-20.25 Y24.52
G3 X-20.242 Y24.481 R0.125 F466.
X-19.75 Y24.56 R0.254
G1 Y24.622 F406.
X-19.755 Y24.69
X-19.792 Y24.746
X-19.894 Y24.835
X-20.026 Y24.863
X-20.142 Y24.796
X-20.222 Y24.688
X-20.25 Y24.556
G3 X-20.232 Y24.496 R0.125 F466.
X-19.75 Y24.622 R0.26
G1 X-19.752 Y24.697 F406.
Y24.731
X-19.759 Y24.764
X-19.797 Y24.819
X-19.903 Y24.903
X-19.97 Y24.915
X-20.103 Y24.867
X-20.202 Y24.766
X-20.249 Y24.633
G3 X-20.208 Y24.531 R0.124 F466.
X-19.752 Y24.731 R0.273
G1 X-19.763 Y24.808 F406.
X-19.77 Y24.841
X-19.811 Y24.895
X-19.866 Y24.933
X-19.93 Y24.954
X-20.065 Y24.956
X-20.151 Y24.893
X-20.212 Y24.805
X-20.241 Y24.703
G3 X-20.212 Y24.613 R0.123 F466.
X-19.763 Y24.808 R0.256
G1 X-19.769 Y24.843 F406.
X-19.775 Y24.876
X-19.809 Y24.935
X-19.862 Y24.975
X-19.925 Y25.001
X-19.991 Y25.013
X-20.108 Y24.966
X-20.195 Y24.876
X-20.235 Y24.757
G3 X-20.216 Y24.682 R0.119 F466.
X-19.769 Y24.843 R0.244
G1 X-19.78 Y24.919 F406.
X-19.784 Y24.941
X-19.826 Y24.994
X-19.882 Y25.032
X-19.946 Y25.053
X-20.081 Y25.052
X-20.152 Y24.995
X-20.203 Y24.918
X-20.227 Y24.83
G3 X-20.205 Y24.753 R0.115 F466.
X-19.78 Y24.919 R0.236
G1 X-19.785 Y24.953 F406.
X-19.792 Y24.987
X-19.802 Y25.029
X-19.809 Y25.053
X-19.94 Y25.087
X-20.071 Y25.056
X-20.174 Y24.968
X-20.225 Y24.844
G3 X-20.144 Y24.72 R0.115 F466.
X-19.802 Y25.029 R0.27
G1 X-19.81 Y25.064 F406.
X-19.821 Y25.09
X-19.837 Y25.116
X-19.848 Y25.131
X-19.864 Y25.147
X-19.878 Y25.159
X-19.903 Y25.174
G3 X-19.873 Y25.017 R0.08 F466.
X-19.822 Y25.05 R0.08
G1 X-19.806 Y25.043
X-19.823 Y25.045
G3 X-19.878 Y25.159 R0.176
G1 X-19.914 Y25.179 F406.
X-19.932 Y25.189
X-19.943 Y25.192
X-20. Y25.201
G3 X-20.109 Y25.094 R0.125 F466.
X-19.864 Y25.059 R0.124
X-19.943 Y25.192 R0.124
G1 X-20.027 Y25.198 F406.
X-20.054 Y25.193
X-20.068 Y25.189
X-20.093 Y25.176
G3 X-19.981 Y25.001 R0.104 F466.
X-20.019 Y25.191 R0.104
X-20.068 Y25.189 R0.117
G1 X-20.12 Y25.16 F406.
X-20.139 Y25.144
X-20.177 Y25.094
X-20.194 Y25.052
X-20.25 Y24.622
Y24.406
G3 X-20.242 Y24.321 R0.8 F466.
G2 X-20.245 Y24.101 R0.721
G3 X-20.25 Y24.049 R0.41
G1 Y23.988 F406.
X-20.248 Y23.954
X-20.219 Y23.893
X-20.174 Y23.843
X-20.116 Y23.808
X-20.051 Y23.789
X-19.917 Y23.797
X-19.828 Y23.872
X-19.77 Y23.972
X-19.75 Y24.086
G3 X-19.786 Y24.17 R0.124 F466.
X-20.25 Y23.988 R0.272
G1 Y23.923 F406.
X-20.248 Y23.889
X-20.215 Y23.831
X-20.164 Y23.786
X-20.043 Y23.726
X-19.976 Y23.727
X-19.858 Y23.792
X-19.778 Y23.9
X-19.75 Y24.031
G3 X-19.792 Y24.12 R0.124 F466.
X-20.25 Y23.923 R0.276
G1 Y23.867 F406.
X-20.248 Y23.833
X-20.212 Y23.776
X-20.164 Y23.729
X-20.105 Y23.696
X-20.04 Y23.679
X-19.905 Y23.69
X-19.822 Y23.763
X-19.769 Y23.859
X-19.75 Y23.968
G3 X-19.788 Y24.053 R0.124 F466.
X-20.25 Y23.867 R0.273
G1 Y23.828 F406.
X-20.248 Y23.794
X-20.221 Y23.733
X-20.174 Y23.684
X-20.057 Y23.616
X-19.99 Y23.614
X-19.866 Y23.676
X-19.78 Y23.785
X-19.75 Y23.919
G3 X-19.782 Y23.998 R0.124 F466.
X-20.25 Y23.828 R0.269
G1 Y23.767 F406.
X-20.248 Y23.733
X-20.216 Y23.674
X-20.171 Y23.624
X-20.113 Y23.588
X-20.049 Y23.569
X-19.914 Y23.576
X-19.827 Y23.65
X-19.77 Y23.749
X-19.75 Y23.861
G3 X-19.783 Y23.941 R0.124 F466.
X-20.25 Y23.767 R0.27
G1 Y23.702 F406.
X-20.248 Y23.668
X-20.213 Y23.611
X-20.113 Y23.521
X-20.047 Y23.507
X-19.979 Y23.506
X-19.86 Y23.57
X-19.779 Y23.677
X-19.75 Y23.809
G3 X-19.791 Y23.897 R0.124 F466.
X-20.25 Y23.702 R0.275
G1 Y23.646 F406.
X-20.248 Y23.612
X-20.216 Y23.553
X-20.169 Y23.505
X-20.109 Y23.474
X-20.043 Y23.458
X-19.909 Y23.467
X-19.824 Y23.541
X-19.769 Y23.638
X-19.75 Y23.748
G3 X-19.788 Y23.834 R0.124 F466.
X-20.25 Y23.646 R0.273
G1 Y23.607 F406.
X-20.248 Y23.574
X-20.224 Y23.511
X-20.177 Y23.462
X-20.06 Y23.395
X-19.993 Y23.392
X-19.867 Y23.454
X-19.781 Y23.564
X-19.75 Y23.701
G3 X-19.783 Y23.781 R0.124 F466.
X-20.25 Y23.607 R0.269
G1 Y23.546 F406.
X-20.248 Y23.512
X-20.218 Y23.452
X-20.173 Y23.402
X-20.115 Y23.366
X-20.051 Y23.348
X-19.916 Y23.354
X-19.828 Y23.428
X-19.77 Y23.528
X-19.75 Y23.642
G3 X-19.784 Y23.724 R0.124 F466.
X-20.25 Y23.546 R0.27
G1 Y23.481 F406.
X-20.248 Y23.448
X-20.214 Y23.39
X-20.164 Y23.344
X-20.043 Y23.284
X-19.976 Y23.285
X-19.858 Y23.35
X-19.778 Y23.457
X-19.75 Y23.588
G3 X-19.791 Y23.675 R0.124 F466.
X-20.25 Y23.481 R0.275
G1 Y23.425 F406.
X-20.248 Y23.391
X-20.212 Y23.335
X-20.164 Y23.287
X-20.105 Y23.254
X-20.04 Y23.237
X-19.905 Y23.247
X-19.822 Y23.32
X-19.769 Y23.417
X-19.75 Y23.525
G3 X-19.787 Y23.609 R0.124 F466.
X-20.25 Y23.425 R0.272
G1 Y23.386 F406.
X-20.248 Y23.353
X-20.221 Y23.291
X-20.174 Y23.243
X-20.057 Y23.174
X-19.99 Y23.172
X-19.866 Y23.233
X-19.78 Y23.342
X-19.75 Y23.477
G3 X-19.781 Y23.554 R0.124 F466.
X-20.25 Y23.386 R0.268
G1 Y23.325 F406.
X-20.248 Y23.292
X-20.216 Y23.232
X-20.171 Y23.182
X-20.114 Y23.146
X-20.049 Y23.127
X-19.914 Y23.134
X-19.827 Y23.207
X-19.77 Y23.306
X-19.75 Y23.418
G3 X-19.783 Y23.498 R0.124 F466.
X-20.25 Y23.325 R0.269
G1 Y23.261 F406.
X-20.248 Y23.227
X-20.213 Y23.169
X-20.113 Y23.079
X-20.047 Y23.065
X-19.979 Y23.064
X-19.86 Y23.128
X-19.779 Y23.235
X-19.75 Y23.367
G3 X-19.791 Y23.454 R0.124 F466.
X-20.25 Y23.261 R0.275
G1 Y23.204 F406.
X-20.248 Y23.171
X-20.217 Y23.111
X-20.169 Y23.063
X-20.109 Y23.032
X-20.044 Y23.016
X-19.909 Y23.025
X-19.824 Y23.098
X-19.769 Y23.196
X-19.75 Y23.306
G3 X-19.788 Y23.391 R0.124 F466.
X-20.25 Y23.204 R0.273
G1 Y23.166 F406.
X-20.248 Y23.132
X-20.224 Y23.069
X-20.177 Y23.02
X-20.061 Y22.953
X-19.993 Y22.95
X-19.868 Y23.012
X-19.781 Y23.122
X-19.75 Y23.259
G3 X-19.783 Y23.339 R0.124 F466.
X-20.25 Y23.166 R0.269
G1 Y23.104 F406.
X-20.248 Y23.071
X-20.218 Y23.01
X-20.173 Y22.96
X-20.116 Y22.925
X-20.051 Y22.906
X-19.916 Y22.912
X-19.828 Y22.986
X-19.77 Y23.086
X-19.75 Y23.2
G3 X-19.784 Y23.282 R0.124 F466.
X-20.25 Y23.104 R0.27
G1 Y23.04 F406.
X-20.248 Y23.006
X-20.214 Y22.948
X-20.164 Y22.902
X-20.043 Y22.842
X-19.976 Y22.843
X-19.859 Y22.908
X-19.778 Y23.015
X-19.75 Y23.146
G3 X-19.791 Y23.233 R0.124 F466.
X-20.25 Y23.04 R0.275
G1 Y22.984 F406.
X-20.248 Y22.95
X-20.212 Y22.893
X-20.164 Y22.846
X-20.105 Y22.812
X-20.04 Y22.795
X-19.905 Y22.805
X-19.823 Y22.878
X-19.769 Y22.975
X-19.75 Y23.083
G3 X-19.787 Y23.167 R0.124 F466.
X-20.25 Y22.984 R0.272
G1 Y22.945 F406.
X-20.248 Y22.911
X-20.221 Y22.849
X-20.174 Y22.801
X-20.058 Y22.732
X-19.99 Y22.73
X-19.866 Y22.791
X-19.781 Y22.9
X-19.75 Y23.035
G3 X-19.781 Y23.113 R0.124 F466.
X-20.25 Y22.945 R0.268
G1 Y22.884 F406.
X-20.248 Y22.85
X-20.216 Y22.79
X-20.171 Y22.74
X-20.114 Y22.704
X-20.049 Y22.685
X-19.914 Y22.691
X-19.827 Y22.765
X-19.77 Y22.864
X-19.75 Y22.977
G3 X-19.783 Y23.057 R0.124 F466.
X-20.25 Y22.884 R0.269
G1 Y22.819 F406.
X-20.248 Y22.785
X-20.213 Y22.727
X-20.113 Y22.637
X-20.047 Y22.623
X-19.98 Y22.622
X-19.861 Y22.686
X-19.779 Y22.793
X-19.75 Y22.925
G3 X-19.79 Y23.012 R0.124 F466.
X-20.25 Y22.819 R0.275
G1 Y22.763 F406.
X-20.248 Y22.729
X-20.217 Y22.669
X-20.169 Y22.621
X-20.109 Y22.59
X-20.044 Y22.574
X-19.909 Y22.583
X-19.824 Y22.656
X-19.769 Y22.754
X-19.75 Y22.865
G3 X-19.788 Y22.95 R0.124 F466.
X-20.25 Y22.763 R0.273
G1 Y22.724 F406.
X-20.248 Y22.69
X-20.225 Y22.627
X-20.178 Y22.579
X-20.061 Y22.511
X-19.993 Y22.508
X-19.868 Y22.57
X-19.781 Y22.68
X-19.75 Y22.817
G3 X-19.783 Y22.897 R0.124 F466.
X-20.25 Y22.724 R0.269
G1 Y22.663 F406.
X-20.248 Y22.629
X-20.219 Y22.568
X-20.173 Y22.518
X-20.116 Y22.483
X-20.051 Y22.464
X-19.916 Y22.47
X-19.828 Y22.544
X-19.77 Y22.645
X-19.75 Y22.758
G3 X-19.784 Y22.84 R0.124 F466.
X-20.25 Y22.663 R0.27
G1 Y22.598 F406.
X-20.248 Y22.564
X-20.214 Y22.506
X-20.164 Y22.461
X-20.044 Y22.4
X-19.976 Y22.401
X-19.859 Y22.466
X-19.778 Y22.573
X-19.75 Y22.704
G3 X-19.791 Y22.792 R0.124 F466.
X-20.25 Y22.598 R0.275
G1 Y22.542 F406.
X-20.248 Y22.508
X-20.212 Y22.451
X-20.164 Y22.404
X-20.106 Y22.37
X-20.04 Y22.353
X-19.906 Y22.363
X-19.823 Y22.436
X-19.769 Y22.533
X-19.75 Y22.642
G3 X-19.787 Y22.726 R0.124 F466.
X-20.25 Y22.542 R0.272
G1 Y22.503 F406.
X-20.248 Y22.469
X-20.221 Y22.408
X-20.174 Y22.359
X-20.058 Y22.291
X-19.99 Y22.288
X-19.866 Y22.349
X-19.781 Y22.458
X-19.75 Y22.593
G3 X-19.781 Y22.671 R0.124 F466.
X-20.25 Y22.503 R0.268
G1 Y22.442 F406.
X-20.248 Y22.408
X-20.216 Y22.349
X-20.171 Y22.299
X-20.114 Y22.263
X-20.049 Y22.244
X-19.914 Y22.25
X-19.827 Y22.323
X-19.77 Y22.422
X-19.75 Y22.535
G3 X-19.783 Y22.615 R0.124 F466.
X-20.25 Y22.442 R0.269
G1 Y22.377 F406.
X-20.248 Y22.343
X-20.213 Y22.286
X-20.113 Y22.195
X-20.047 Y22.181
X-19.98 Y22.18
X-19.861 Y22.244
X-19.779 Y22.351
X-19.75 Y22.483
G3 X-19.79 Y22.571 R0.124 F466.
X-20.25 Y22.377 R0.275
G1 Y22.321 F406.
X-20.248 Y22.287
X-20.217 Y22.228
X-20.17 Y22.179
X-20.11 Y22.148
X-20.044 Y22.132
X-19.91 Y22.141
X-19.825 Y22.215
X-19.769 Y22.312
X-19.75 Y22.423
G3 X-19.788 Y22.508 R0.124 F466.
X-20.25 Y22.321 R0.273
G1 Y22.282 F406.
X-20.248 Y22.249
X-20.225 Y22.185
X-20.178 Y22.137
X-20.061 Y22.069
X-19.994 Y22.066
X-19.868 Y22.128
X-19.781 Y22.239
X-19.75 Y22.375
G3 X-19.783 Y22.455 R0.124 F466.
X-20.25 Y22.282 R0.269
G1 Y22.221 F406.
X-20.248 Y22.187
X-20.219 Y22.127
X-20.173 Y22.077
X-20.116 Y22.041
X-20.051 Y22.022
X-19.917 Y22.028
X-19.828 Y22.103
X-19.77 Y22.203
X-19.75 Y22.317
G3 X-19.784 Y22.398 R0.124 F466.
X-20.25 Y22.221 R0.27
G1 Y22.156 F406.
X-20.248 Y22.123
X-20.214 Y22.064
X-20.165 Y22.019
X-20.044 Y21.958
X-19.976 Y21.959
X-19.859 Y22.024
X-19.778 Y22.131
X-19.75 Y22.263
G3 X-19.791 Y22.35 R0.124 F466.
X-20.25 Y22.156 R0.275
G1 Y22.1 F406.
X-20.248 Y22.066
X-20.212 Y22.009
X-20.164 Y21.962
X-20.106 Y21.928
X-20.04 Y21.911
X-19.906 Y21.922
X-19.823 Y21.995
X-19.769 Y22.091
X-19.75 Y22.2
G3 X-19.787 Y22.284 R0.124 F466.
X-20.25 Y22.1 R0.272
G1 Y22.062 F406.
X-20.248 Y22.028
X-20.221 Y21.966
X-20.174 Y21.917
X-20.058 Y21.849
X-19.991 Y21.846
X-19.866 Y21.908
X-19.781 Y22.016
X-19.75 Y22.151
G3 X-19.781 Y22.229 R0.124 F466.
X-20.25 Y22.062 R0.268
G1 Y22. F406.
X-20.248 Y21.967
X-20.217 Y21.907
X-20.171 Y21.857
X-20.114 Y21.821
X-20.049 Y21.802
X-19.915 Y21.808
X-19.827 Y21.882
X-19.77 Y21.981
X-19.75 Y22.093
G3 X-19.783 Y22.173 R0.124 F466.
X-20.25 Y22. R0.269
G1 Y21.936 F406.
X-20.248 Y21.902
X-20.213 Y21.844
X-20.163 Y21.799
X-20.043 Y21.738
X-19.975 Y21.739
X-19.858 Y21.803
X-19.778 Y21.91
X-19.75 Y22.04
G3 X-19.79 Y22.127 R0.124 F466.
X-20.25 Y21.936 R0.274
G1 Y21.879 F406.
X-20.248 Y21.846
X-20.212 Y21.789
X-20.164 Y21.742
X-20.105 Y21.708
X-20.04 Y21.691
X-19.905 Y21.701
X-19.822 Y21.774
X-19.769 Y21.87
X-19.75 Y21.978
G3 X-19.786 Y22.061 R0.124 F466.
X-20.25 Y21.879 R0.272
G1 Y21.841 F406.
X-20.248 Y21.807
X-20.221 Y21.745
X-20.174 Y21.697
X-20.057 Y21.628
X-19.99 Y21.626
X-19.866 Y21.687
X-19.78 Y21.795
X-19.75 Y21.93
G3 X-19.78 Y22.007 R0.124 F466.
X-20.25 Y21.841 R0.268
G1 Y21.779 F406.
X-20.248 Y21.746
X-20.216 Y21.686
X-20.171 Y21.636
X-20.114 Y21.601
X-20.049 Y21.581
X-19.914 Y21.587
X-19.827 Y21.661
X-19.77 Y21.76
X-19.75 Y21.872
G3 X-19.782 Y21.951 R0.124 F466.
X-20.25 Y21.779 R0.269
G1 Y21.715 F406.
X-20.248 Y21.681
X-20.213 Y21.623
X-20.113 Y21.533
X-20.047 Y21.519
X-19.98 Y21.518
X-19.86 Y21.581
X-19.779 Y21.689
X-19.75 Y21.82
G3 X-19.79 Y21.907 R0.124 F466.
X-20.25 Y21.715 R0.275
G1 Y21.659 F406.
X-20.248 Y21.625
X-20.217 Y21.565
X-20.169 Y21.517
X-20.109 Y21.486
X-20.044 Y21.469
X-19.909 Y21.479
X-19.824 Y21.552
X-19.769 Y21.65
X-19.75 Y21.76
G3 X-19.788 Y21.845 R0.124 F466.
X-20.25 Y21.659 R0.273
G1 Y21.62 F406.
X-20.248 Y21.586
X-20.225 Y21.523
X-20.178 Y21.475
X-20.061 Y21.407
X-19.993 Y21.404
X-19.868 Y21.466
X-19.781 Y21.576
X-19.75 Y21.713
G3 X-19.783 Y21.792 R0.124 F466.
X-20.25 Y21.62 R0.269
G1 Y21.559 F406.
X-20.248 Y21.525
X-20.219 Y21.464
X-20.173 Y21.414
X-20.116 Y21.379
X-20.051 Y21.36
X-19.916 Y21.366
X-19.828 Y21.44
X-19.77 Y21.54
X-19.75 Y21.654
G3 X-19.784 Y21.735 R0.124 F466.
X-20.25 Y21.559 R0.27
G1 Y21.494 F406.
X-20.248 Y21.46
X-20.214 Y21.402
X-20.164 Y21.356
X-20.044 Y21.296
X-19.976 Y21.297
X-19.859 Y21.361
X-19.778 Y21.469
X-19.75 Y21.6
G3 X-19.79 Y21.687 R0.124 F466.
X-20.25 Y21.494 R0.275
G1 Y21.438 F406.
X-20.248 Y21.404
X-20.212 Y21.347
X-20.164 Y21.3
X-20.106 Y21.266
X-20.04 Y21.249
X-19.906 Y21.259
X-19.823 Y21.332
X-19.769 Y21.429
X-19.75 Y21.537
G3 X-19.787 Y21.621 R0.124 F466.
X-20.25 Y21.438 R0.272
G1 Y21.399 F406.
X-20.248 Y21.365
X-20.221 Y21.304
X-20.174 Y21.255
X-20.058 Y21.186
X-19.99 Y21.184
X-19.866 Y21.245
X-19.781 Y21.354
X-19.75 Y21.489
G3 X-19.781 Y21.567 R0.124 F466.
X-20.25 Y21.399 R0.268
G1 Y21.338 F406.
X-20.248 Y21.304
X-20.217 Y21.245
X-20.171 Y21.194
X-20.114 Y21.159
X-20.049 Y21.139
X-19.915 Y21.145
X-19.827 Y21.219
X-19.77 Y21.318
X-19.75 Y21.431
G3 X-19.783 Y21.511 R0.124 F466.
X-20.25 Y21.338 R0.269
G1 Y21.273 F406.
X-20.248 Y21.239
X-20.213 Y21.182
X-20.113 Y21.091
X-20.047 Y21.077
X-19.98 Y21.076
X-19.861 Y21.14
X-19.779 Y21.247
X-19.75 Y21.379
G3 X-19.79 Y21.466 R0.124 F466.
X-20.25 Y21.273 R0.275
G1 Y21.217 F406.
X-20.248 Y21.183
X-20.217 Y21.124
X-20.17 Y21.075
X-20.11 Y21.044
X-20.044 Y21.028
X-19.91 Y21.037
X-19.825 Y21.11
X-19.769 Y21.208
X-19.75 Y21.319
G3 X-19.788 Y21.404 R0.124 F466.
X-20.25 Y21.217 R0.273
G1 Y21.178 F406.
X-20.248 Y21.144
X-20.225 Y21.081
X-20.178 Y21.033
X-20.061 Y20.965
X-19.994 Y20.962
X-19.868 Y21.024
X-19.781 Y21.134
X-19.75 Y21.271
G3 X-19.783 Y21.351 R0.124 F466.
X-20.25 Y21.178 R0.269
G1 Y21.117 F406.
X-20.248 Y21.083
X-20.219 Y21.023
X-20.173 Y20.973
X-20.116 Y20.937
X-20.051 Y20.918
X-19.917 Y20.924
X-19.828 Y20.998
X-19.77 Y21.099
X-19.75 Y21.213
G3 X-19.784 Y21.294 R0.124 F466.
X-20.25 Y21.117 R0.27
G1 Y21.052 F406.
X-20.248 Y21.019
X-20.214 Y20.96
X-20.165 Y20.915
X-20.044 Y20.854
X-19.976 Y20.855
X-19.859 Y20.92
X-19.778 Y21.027
X-19.75 Y21.158
G3 X-19.791 Y21.246 R0.124 F466.
X-20.25 Y21.052 R0.275
G1 Y20.996 F406.
X-20.248 Y20.962
X-20.212 Y20.905
X-20.164 Y20.858
X-20.106 Y20.824
X-20.04 Y20.807
X-19.906 Y20.817
X-19.823 Y20.89
X-19.769 Y20.987
X-19.75 Y21.096
G3 X-19.787 Y21.18 R0.124 F466.
X-20.25 Y20.996 R0.272
G1 Y20.957 F406.
X-20.248 Y20.924
X-20.221 Y20.862
X-20.174 Y20.813
X-20.058 Y20.745
X-19.991 Y20.742
X-19.867 Y20.803
X-19.782 Y20.91
X-19.75 Y21.044
G3 X-19.78 Y21.122 R0.124 F466.
X-20.25 Y20.957 R0.267
G1 Y20.896 F406.
X-20.248 Y20.862
X-20.217 Y20.803
X-20.171 Y20.753
X-20.114 Y20.717
X-20.05 Y20.698
X-19.915 Y20.704
X-19.828 Y20.776
X-19.771 Y20.874
X-19.751 Y20.985
G3 X-19.782 Y21.064 R0.124 F466.
X-20.25 Y20.896 R0.268
G1 Y20.831 F406.
X-20.248 Y20.798
X-20.214 Y20.74
X-20.163 Y20.695
X-20.043 Y20.634
X-19.975 Y20.635
X-19.859 Y20.698
X-19.78 Y20.803
X-19.751 Y20.932
G3 X-19.789 Y21.017 R0.124 F466.
X-20.25 Y20.831 R0.272
G1 Y20.775 F406.
X-20.248 Y20.742
X-20.212 Y20.685
X-20.164 Y20.638
X-20.105 Y20.604
X-20.04 Y20.587
X-19.905 Y20.597
X-19.824 Y20.668
X-19.771 Y20.762
X-19.752 Y20.868
G3 X-19.785 Y20.95 R0.124 F466.
X-20.25 Y20.775 R0.269
G1 Y20.737 F406.
X-20.248 Y20.703
X-20.221 Y20.641
X-20.174 Y20.593
X-20.057 Y20.524
X-19.99 Y20.522
X-19.869 Y20.58
X-19.785 Y20.685
X-19.753 Y20.815
G3 X-19.779 Y20.89 R0.124 F466.
X-20.25 Y20.737 R0.264
G1 Y20.675 F406.
X-20.248 Y20.642
X-20.216 Y20.582
X-20.171 Y20.532
X-20.114 Y20.496
X-20.049 Y20.477
X-19.914 Y20.483
X-19.83 Y20.553
X-19.775 Y20.647
X-19.754 Y20.754
G3 X-19.78 Y20.829 R0.123 F466.
X-20.25 Y20.675 R0.263
G1 Y20.611 F406.
X-20.248 Y20.577
X-20.213 Y20.519
X-20.113 Y20.429
X-20.047 Y20.414
X-19.98
X-19.865 Y20.474
X-19.785 Y20.576
X-19.755 Y20.703
G3 X-19.789 Y20.786 R0.123 F466.
X-20.25 Y20.611 R0.267
G1 Y20.554 F406.
X-20.248 Y20.521
X-20.217 Y20.461
X-20.169 Y20.413
X-20.109 Y20.382
X-20.044 Y20.365
X-19.909 Y20.374
X-19.829 Y20.443
X-19.776 Y20.535
X-19.756 Y20.639
G3 X-19.786 Y20.717 R0.123 F466.
X-20.25 Y20.554 R0.264
G1 Y20.516 F406.
X-20.248 Y20.482
X-20.225 Y20.419
X-20.178 Y20.37
X-20.061 Y20.302
X-19.994 Y20.3
X-19.873 Y20.358
X-19.789 Y20.462
X-19.757 Y20.592
G3 X-19.783 Y20.665 R0.122 F466.
X-20.25 Y20.516 R0.261
G1 Y20.454 F406.
X-20.248 Y20.421
X-20.219 Y20.36
X-20.173 Y20.31
X-20.116 Y20.274
X-20.051 Y20.255
X-19.916 Y20.261
X-19.834 Y20.331
X-19.779 Y20.424
X-19.759 Y20.53
G3 X-19.784 Y20.603 R0.122 F466.
X-20.25 Y20.454 R0.26
G1 X-20.248 Y20.39 F406.
X-20.245 Y20.356
X-20.212 Y20.297
X-20.162 Y20.252
X-20.041 Y20.192
X-19.974 Y20.193
X-19.864 Y20.254
X-19.788 Y20.354
X-19.76 Y20.476
G3 X-19.784 Y20.547 R0.122 F466.
X-20.248 Y20.39 R0.257
G1 X-20.245 Y20.334 F406.
X-20.242 Y20.3
X-20.208 Y20.242
X-20.159 Y20.195
X-20.101 Y20.161
X-20.035 Y20.145
X-19.901 Y20.157
X-19.828 Y20.223
X-19.779 Y20.31
X-19.761 Y20.407
G3 X-19.779 Y20.468 R0.121 F466.
X-20.245 Y20.334 R0.251
G1 X-20.243 Y20.295 F406.
X-20.24 Y20.261
X-20.214 Y20.199
X-20.168 Y20.15
X-20.051 Y20.082
X-19.983 Y20.081
X-19.871 Y20.138
X-19.792 Y20.237
X-19.762 Y20.359
G3 X-19.776 Y20.413 R0.12 F466.
X-20.243 Y20.295 R0.248
G1 X-20.24 Y20.234 F406.
X-20.238 Y20.206
X-20.231 Y20.173
X-20.192 Y20.118
X-20.142 Y20.073
X-20.08 Y20.044
X-20.014 Y20.035
X-19.888 Y20.085
X-19.798 Y20.185
X-19.763 Y20.316
G3 X-19.802 Y20.403 R0.119 F466.
X-20.238 Y20.206 R0.261
G1 X-20.232 Y20.169 F406.
X-20.218 Y20.103
X-20.175 Y20.05
X-20.119 Y20.014
X-20.054 Y19.994
X-19.919 Y19.996
X-19.839 Y20.063
X-19.785 Y20.154
X-19.765 Y20.257
G3 X-19.777 Y20.309 R0.119 F466.
X-20.232 Y20.169 R0.241
G1 X-20.217 Y20.074 F406.
X-20.209 Y20.041
X-20.162 Y19.993
X-20.042 Y19.931
X-19.975
X-19.879 Y19.98
X-19.808 Y20.061
X-19.772 Y20.163
G3 X-19.794 Y20.245 R0.115 F466.
X-20.217 Y20.074 R0.235
G1 X-20.206 Y20.013 F406.
X-20.202 Y19.985
X-20.194 Y19.95
X-20.186 Y19.926
G3 X-20.073 Y20.026 R0.08 F466.
G1 X-20.117 Y20.133
X-20.178 Y20.282
G2 X-19.993 Y20.357 R0.1
X-20.046 Y20.227 R0.1
G3 X-20.194 Y19.95 R0.25
G1 X-20.183 Y19.917 F406.
X-20.163 Y19.884
X-20.146 Y19.863
X-20.124 Y19.845
X-20. Y19.871
X-19.893 Y19.937
X-19.814 Y20.036
X-19.774 Y20.156
G3 X-19.899 Y20.308 R0.137 F466.
X-20.146 Y19.863 R0.28
G1 X-20.123 Y19.843 F406.
X-20.103 Y19.828
X-20.083 Y19.818
X-20.056 Y19.807
X-20.028 Y19.802
X-19.937 Y19.809
G3 X-19.859 Y19.948 R0.142 F466.
X-20.135 Y19.925 R0.138
X-20.028 Y19.802 R0.138
G1 X-19.973 F406.
X-19.902 Y19.826
X-19.884 Y19.836
X-19.866 Y19.852
X-19.836 Y19.886
G3 X-20.112 Y20.074 R0.167 F466.
X-19.926 Y19.82 R0.167
X-19.866 Y19.852 R0.175
G1 X-19.818 Y19.916 F406.
X-19.8 Y19.985
X-19.766 Y20.206
X-19.761 Y20.426
X-19.771 Y20.484 Z-28.484 F466.
X-19.78 Y20.539 Z-28.468
X-19.789 Y20.59 Z-28.442
X-19.797 Y20.636 Z-28.407
X-19.804 Y20.674 Z-28.363
X-19.816 Y20.706 Z-28.306
X-19.824 Y20.725 Z-28.242
X-19.826 Y20.732 Z-28.176
G0 Z2.
X-19.919 Y63.719
Z-11.19
G1 Z-11.99 F466.
G3 X-20.081 Y64.139 Z-12.115 R0.225
X-19.919 Y63.719 Z-12.239 R0.225
X-20.081 Y64.139 Z-12.364 R0.225
X-19.919 Y63.719 Z-12.489 R0.225
X-20.081 Y64.139 Z-12.613 R0.225
X-19.919 Y63.719 Z-12.738 R0.225
X-20.081 Y64.139 Z-12.862 R0.225
X-19.919 Y63.719 Z-12.987 R0.225
X-20.081 Y64.139 Z-13.112 R0.225
X-19.919 Y63.719 Z-13.236 R0.225
X-20.081 Y64.139 Z-13.361 R0.225
X-19.919 Y63.719 Z-13.486 R0.225
X-20.081 Y64.139 Z-13.61 R0.225
X-19.919 Y63.719 Z-13.735 R0.225
X-20.081 Y64.139 Z-13.86 R0.225
X-19.919 Y63.719 Z-13.984 R0.225
X-20.081 Y64.139 Z-14.109 R0.225
X-19.919 Y63.719 Z-14.233 R0.225
X-20.081 Y64.139 Z-14.358 R0.225
X-19.919 Y63.719 Z-14.483 R0.225
X-20.081 Y64.139 Z-14.607 R0.225
X-19.919 Y63.719 Z-14.732 R0.225
X-20.081 Y64.139 Z-14.857 R0.225
X-19.919 Y63.719 Z-14.981 R0.225
X-20.081 Y64.139 Z-15.106 R0.225
X-19.919 Y63.719 Z-15.231 R0.225
X-20.081 Y64.139 Z-15.355 R0.225
X-19.919 Y63.719 Z-15.48 R0.225
X-20.081 Y64.139 Z-15.605 R0.225
X-19.919 Y63.719 Z-15.729 R0.225
X-20.081 Y64.139 Z-15.854 R0.225
X-19.919 Y63.719 Z-15.978 R0.225
X-20.081 Y64.139 Z-16.103 R0.225
X-19.919 Y63.719 Z-16.228 R0.225
X-20.081 Y64.139 Z-16.352 R0.225
X-19.919 Y63.719 Z-16.477 R0.225
X-20.081 Y64.139 Z-16.602 R0.225
X-19.919 Y63.719 Z-16.726 R0.225
X-20.081 Y64.139 Z-16.851 R0.225
X-19.919 Y63.719 Z-16.976 R0.225
X-20.081 Y64.139 Z-17.1 R0.225
X-19.919 Y63.719 Z-17.225 R0.225
X-20.081 Y64.139 Z-17.349 R0.225
X-19.919 Y63.719 Z-17.474 R0.225
X-20.081 Y64.139 Z-17.599 R0.225
X-19.919 Y63.719 Z-17.723 R0.225
X-20.081 Y64.139 Z-17.848 R0.225
X-19.919 Y63.719 Z-17.973 R0.225
X-20.081 Y64.139 Z-18.097 R0.225
X-19.919 Y63.719 Z-18.222 R0.225
X-20.081 Y64.139 Z-18.347 R0.225
X-19.919 Y63.719 Z-18.471 R0.225
X-20.081 Y64.139 Z-18.596 R0.225
X-19.919 Y63.719 Z-18.72 R0.225
X-20.081 Y64.139 Z-18.845 R0.225
X-19.919 Y63.719 Z-18.97 R0.225
X-20.081 Y64.139 Z-19.094 R0.225
X-19.919 Y63.719 Z-19.219 R0.225
X-20.081 Y64.139 Z-19.344 R0.225
X-19.919 Y63.719 Z-19.468 R0.225
X-20.081 Y64.139 Z-19.593 R0.225
X-19.919 Y63.719 Z-19.718 R0.225
X-20.081 Y64.139 Z-19.842 R0.225
X-19.919 Y63.719 Z-19.967 R0.225
X-20.081 Y64.139 Z-20.091 R0.225
X-19.919 Y63.719 Z-20.216 R0.225
X-20.081 Y64.139 Z-20.341 R0.225
X-19.919 Y63.719 Z-20.465 R0.225
X-20.081 Y64.139 Z-20.59 R0.225
X-19.919 Y63.719 Z-20.715 R0.225
X-20.081 Y64.139 Z-20.839 R0.225
X-19.919 Y63.719 Z-20.964 R0.225
X-20.081 Y64.139 Z-21.089 R0.225
X-19.919 Y63.719 Z-21.213 R0.225
X-20.081 Y64.139 Z-21.338 R0.225
X-19.919 Y63.719 Z-21.463 R0.225
X-20.081 Y64.139 Z-21.587 R0.225
X-19.919 Y63.719 Z-21.712 R0.225
X-20.081 Y64.139 Z-21.836 R0.225
X-19.919 Y63.719 Z-21.961 R0.225
X-20.081 Y64.139 Z-22.086 R0.225
X-19.919 Y63.719 Z-22.21 R0.225
X-20.081 Y64.139 Z-22.335 R0.225
X-19.919 Y63.719 Z-22.46 R0.225
X-20.081 Y64.139 Z-22.584 R0.225
X-19.919 Y63.719 Z-22.709 R0.225
X-20.081 Y64.139 Z-22.834 R0.225
X-19.919 Y63.719 Z-22.958 R0.225
X-20.081 Y64.139 Z-23.083 R0.225
X-19.919 Y63.719 Z-23.207 R0.225
X-20.081 Y64.139 Z-23.332 R0.225
X-19.919 Y63.719 Z-23.457 R0.225
X-20.081 Y64.139 Z-23.581 R0.225
X-19.919 Y63.719 Z-23.706 R0.225
X-20.081 Y64.139 Z-23.831 R0.225
X-19.919 Y63.719 Z-23.955 R0.225
X-20.081 Y64.139 Z-24.08 R0.225
X-19.919 Y63.719 Z-24.205 R0.225
X-20.081 Y64.139 Z-24.329 R0.225
X-19.919 Y63.719 Z-24.454 R0.225
X-20.081 Y64.139 Z-24.578 R0.225
X-19.919 Y63.719 Z-24.703 R0.225
X-20.081 Y64.139 Z-24.828 R0.225
X-19.919 Y63.719 Z-24.952 R0.225
X-20.081 Y64.139 Z-25.077 R0.225
X-19.919 Y63.719 Z-25.202 R0.225
X-20.081 Y64.139 Z-25.326 R0.225
X-19.919 Y63.719 Z-25.451 R0.225
X-20.081 Y64.139 Z-25.576 R0.225
X-19.919 Y63.719 Z-25.7 R0.225
X-20.081 Y64.139 Z-25.825 R0.225
X-19.919 Y63.719 Z-25.949 R0.225
X-20.081 Y64.139 Z-26.074 R0.225
X-19.919 Y63.719 Z-26.199 R0.225
X-20.081 Y64.139 Z-26.323 R0.225
X-19.919 Y63.719 Z-26.448 R0.225
X-20.081 Y64.139 Z-26.573 R0.225
X-19.919 Y63.719 Z-26.697 R0.225
X-20.081 Y64.139 Z-26.822 R0.225
X-19.919 Y63.719 Z-26.947 R0.225
X-20.081 Y64.139 Z-27.071 R0.225
X-19.919 Y63.719 Z-27.196 R0.225
X-20.081 Y64.139 Z-27.32 R0.225
X-19.919 Y63.719 Z-27.445 R0.225
X-20.081 Y64.139 Z-27.57 R0.225
X-19.919 Y63.719 Z-27.694 R0.225
X-20.081 Y64.139 Z-27.819 R0.225
X-19.919 Y63.719 Z-27.944 R0.225
X-20.081 Y64.139 Z-28.068 R0.225
X-19.919 Y63.719 Z-28.193 R0.225
X-20.081 Y64.139 Z-28.318 R0.225
X-19.919 Y63.719 Z-28.442 R0.225
X-19.775 Y63.929 Z-28.49 R0.225
X-20.225 R0.225
X-19.775 R0.225
G1 X-19.763 Y63.98 F406.
X-19.769 Y64.047
X-19.802 Y64.106
X-19.85 Y64.153
X-19.909 Y64.185
X-19.975 Y64.201
X-20.043 Y64.199
X-20.108 Y64.181
X-20.183 Y64.118
X-20.233 Y64.032
X-20.25 Y63.934
Y63.893
X-20.247 Y63.825
X-20.215 Y63.766
X-20.169 Y63.716
X-20.112 Y63.68
X-20.047 Y63.66
X-19.98 Y63.656
X-19.914 Y63.669
X-19.827 Y63.732
X-19.77 Y63.823
X-19.75 Y63.928
G3 X-19.756 Y63.962 R0.125 F466.
X-20.25 Y63.893 R0.253
G1 Y63.798 F406.
X-20.248 Y63.764
X-20.214 Y63.706
X-20.165 Y63.66
X-20.106 Y63.627
X-20.04 Y63.61
X-19.973 Y63.606
X-19.858 Y63.663
X-19.778 Y63.763
X-19.75 Y63.888
G3 X-19.781 Y63.966 R0.124 F466.
X-19.983 Y64.057 R0.268
X-20.25 Y63.798 R0.268
G1 Y63.737 F406.
X-20.248 Y63.703
X-20.21 Y63.647
X-20.159 Y63.604
X-20.098 Y63.573
X-20.033 Y63.558
X-19.898 Y63.566
X-19.819 Y63.635
X-19.768 Y63.727
X-19.75 Y63.83
G3 X-19.783 Y63.91 R0.124 F466.
X-20.25 Y63.737 R0.269
G1 Y63.672 F406.
X-20.248 Y63.638
X-20.206 Y63.586
X-20.098 Y63.505
X-19.965 Y63.48
X-19.853 Y63.548
X-19.777 Y63.655
X-19.75 Y63.783
G3 X-19.794 Y63.873 R0.124 F466.
X-20.25 Y63.672 R0.277
G1 Y63.616 F406.
X-20.248 Y63.582
X-20.171 Y63.471
X-20.11 Y63.443
X-20.044 Y63.427
X-19.909 Y63.439
X-19.824 Y63.513
X-19.769 Y63.611
X-19.75 Y63.722
G3 X-19.791 Y63.81 R0.124 F466.
X-20.25 Y63.616 R0.275
G1 Y63.577 F406.
X-20.248 Y63.543
X-20.226 Y63.479
X-20.179 Y63.431
X-20.062 Y63.364
X-19.994 Y63.362
X-19.868 Y63.425
X-19.781 Y63.537
X-19.75 Y63.674
G3 X-19.785 Y63.756 R0.124 F466.
X-20.25 Y63.577 R0.271
G1 Y63.516 F406.
X-20.248 Y63.482
X-20.219 Y63.421
X-20.174 Y63.371
X-20.116 Y63.336
X-20.051 Y63.317
X-19.917 Y63.325
X-19.828 Y63.4
X-19.77 Y63.5
X-19.75 Y63.614
G3 X-19.786 Y63.698 R0.124 F466.
X-20.25 Y63.516 R0.272
G1 Y63.451 F406.
X-20.248 Y63.417
X-20.215 Y63.359
X-20.164 Y63.314
X-20.043 Y63.254
X-19.976 Y63.255
X-19.858 Y63.32
X-19.778 Y63.428
X-19.75 Y63.559
G3 X-19.792 Y63.648 R0.124 F466.
X-20.25 Y63.451 R0.276
G1 Y63.395 F406.
X-20.248 Y63.361
X-20.212 Y63.304
X-20.164 Y63.257
X-20.105 Y63.224
X-20.04 Y63.207
X-19.905 Y63.218
X-19.822 Y63.291
X-19.769 Y63.387
X-19.75 Y63.496
G3 X-19.788 Y63.581 R0.124 F466.
X-20.25 Y63.395 R0.273
G1 Y63.356 F406.
X-20.248 Y63.322
X-20.221 Y63.261
X-20.174 Y63.212
X-20.057 Y63.144
X-19.99 Y63.142
X-19.866 Y63.204
X-19.78 Y63.313
X-19.75 Y63.447
G3 X-19.782 Y63.526 R0.124 F466.
X-20.25 Y63.356 R0.269
G1 Y63.295 F406.
X-20.248 Y63.261
X-20.216 Y63.202
X-20.171 Y63.152
X-20.113 Y63.116
X-20.049 Y63.097
X-19.914 Y63.104
X-19.827 Y63.178
X-19.77 Y63.277
X-19.75 Y63.389
G3 X-19.783 Y63.469 R0.124 F466.
X-20.25 Y63.295 R0.27
G1 Y63.23 F406.
X-20.248 Y63.196
X-20.213 Y63.139
X-20.113 Y63.049
X-20.047 Y63.035
X-19.979 Y63.034
X-19.86 Y63.098
X-19.779 Y63.205
X-19.75 Y63.337
G3 X-19.791 Y63.425 R0.124 F466.
X-20.25 Y63.23 R0.275
G1 Y63.174 F406.
X-20.248 Y63.14
X-20.216 Y63.081
X-20.169 Y63.033
X-20.109 Y63.002
X-20.043 Y62.986
X-19.909 Y62.995
X-19.824 Y63.069
X-19.769 Y63.166
X-19.75 Y63.276
G3 X-19.788 Y63.362 R0.124 F466.
X-20.25 Y63.174 R0.273
G1 Y63.135 F406.
X-20.248 Y63.102
X-20.224 Y63.039
X-20.177 Y62.99
X-20.06 Y62.923
X-19.993 Y62.92
X-19.867 Y62.982
X-19.781 Y63.092
X-19.75 Y63.229
G3 X-19.783 Y63.309 R0.124 F466.
X-20.25 Y63.135 R0.269
G1 Y63.074 F406.
X-20.248 Y63.04
X-20.218 Y62.98
X-20.173 Y62.93
X-20.115 Y62.894
X-20.051 Y62.876
X-19.916 Y62.882
X-19.828 Y62.956
X-19.77 Y63.056
X-19.75 Y63.17
G3 X-19.784 Y63.252 R0.124 F466.
X-20.25 Y63.074 R0.27
G1 Y63.009 F406.
X-20.248 Y62.976
X-20.214 Y62.918
X-20.164 Y62.872
X-20.043 Y62.812
X-19.976 Y62.813
X-19.858 Y62.878
X-19.778 Y62.985
X-19.75 Y63.116
G3 X-19.791 Y63.203 R0.124 F466.
X-20.25 Y63.009 R0.275
G1 Y62.953 F406.
X-20.248 Y62.919
X-20.212 Y62.863
X-20.164 Y62.815
X-20.105 Y62.782
X-20.04 Y62.765
X-19.905 Y62.776
X-19.822 Y62.848
X-19.769 Y62.945
X-19.75 Y63.053
G3 X-19.787 Y63.137 R0.124 F466.
X-20.25 Y62.953 R0.272
G1 Y62.914 F406.
X-20.248 Y62.881
X-20.221 Y62.819
X-20.174 Y62.771
X-20.057 Y62.702
X-19.99 Y62.7
X-19.866 Y62.761
X-19.78 Y62.87
X-19.75 Y63.005
G3 X-19.781 Y63.082 R0.124 F466.
X-19.983 Y63.173 R0.268
X-20.078 Y63.156 R0.268
X-20.25 Y62.914 R0.268
G1 Y62.853 F406.
X-20.248 Y62.82
X-20.216 Y62.76
X-20.171 Y62.71
X-20.114 Y62.674
X-20.049 Y62.655
X-19.914 Y62.662
X-19.827 Y62.735
X-19.77 Y62.834
X-19.75 Y62.946
G3 X-19.783 Y63.026 R0.124 F466.
X-20.25 Y62.853 R0.269
G1 Y62.789 F406.
X-20.248 Y62.755
X-20.213 Y62.697
X-20.113 Y62.607
X-20.047 Y62.593
X-19.979 Y62.592
X-19.86 Y62.656
X-19.779 Y62.763
X-19.75 Y62.895
G3 X-19.791 Y62.982 R0.124 F466.
X-19.988 Y63.053 R0.275
X-20.08 Y63.033 R0.275
X-20.25 Y62.789 R0.275
G1 Y62.732 F406.
X-20.248 Y62.699
X-20.217 Y62.639
X-20.169 Y62.591
X-20.109 Y62.56
X-20.044 Y62.544
X-19.909 Y62.553
X-19.824 Y62.626
X-19.769 Y62.724
X-19.75 Y62.834
G3 X-19.788 Y62.919 R0.124 F466.
X-19.987 Y62.996 R0.273
X-20.25 Y62.732 R0.273
G1 Y62.694 F406.
X-20.248 Y62.66
X-20.224 Y62.597
X-20.177 Y62.548
X-20.061 Y62.481
X-19.993 Y62.478
X-19.868 Y62.54
X-19.781 Y62.65
X-19.75 Y62.787
G3 X-19.783 Y62.867 R0.124 F466.
X-20.25 Y62.694 R0.269
G1 Y62.632 F406.
X-20.248 Y62.599
X-20.218 Y62.538
X-20.173 Y62.488
X-20.116 Y62.453
X-20.051 Y62.434
X-19.916 Y62.44
X-19.828 Y62.514
X-19.77 Y62.614
X-19.75 Y62.728
G3 X-19.784 Y62.81 R0.124 F466.
X-20.25 Y62.632 R0.27
G1 Y62.568 F406.
X-20.248 Y62.534
X-20.214 Y62.476
X-20.164 Y62.43
X-20.043 Y62.37
X-19.976 Y62.371
X-19.859 Y62.436
X-19.778 Y62.543
X-19.75 Y62.674
G3 X-19.791 Y62.761 R0.124 F466.
X-20.25 Y62.568 R0.275
G1 Y62.512 F406.
X-20.248 Y62.478
X-20.212 Y62.421
X-20.164 Y62.374
X-20.105 Y62.34
X-20.04 Y62.323
X-19.905 Y62.333
X-19.823 Y62.406
X-19.769 Y62.503
X-19.75 Y62.611
G3 X-19.787 Y62.695 R0.124 F466.
X-20.25 Y62.512 R0.272
G1 Y62.473 F406.
X-20.248 Y62.439
X-20.221 Y62.377
X-20.174 Y62.329
X-20.058 Y62.26
X-19.99 Y62.258
X-19.866 Y62.319
X-19.781 Y62.428
X-19.75 Y62.563
G3 X-19.781 Y62.641 R0.124 F466.
X-20.25 Y62.473 R0.268
G1 Y62.412 F406.
X-20.248 Y62.378
X-20.216 Y62.318
X-20.171 Y62.268
X-20.114 Y62.233
X-20.049 Y62.213
X-19.914 Y62.22
X-19.827 Y62.293
X-19.77 Y62.392
X-19.75 Y62.505
G3 X-19.783 Y62.585 R0.124 F466.
X-20.25 Y62.412 R0.269
G1 Y62.347 F406.
X-20.248 Y62.313
X-20.213 Y62.255
X-20.113 Y62.165
X-20.047 Y62.151
X-19.98 Y62.15
X-19.861 Y62.214
X-19.779 Y62.321
X-19.75 Y62.453
G3 X-19.79 Y62.54 R0.124 F466.
X-20.25 Y62.347 R0.275
G1 Y62.291 F406.
X-20.248 Y62.257
X-20.217 Y62.197
X-20.169 Y62.149
X-20.109 Y62.118
X-20.044 Y62.102
X-19.909 Y62.111
X-19.824 Y62.184
X-19.769 Y62.282
X-19.75 Y62.393
G3 X-19.788 Y62.478 R0.124 F466.
X-20.25 Y62.291 R0.273
G1 Y62.252 F406.
X-20.248 Y62.218
X-20.225 Y62.155
X-20.178 Y62.107
X-20.061 Y62.039
X-19.993 Y62.036
X-19.868 Y62.098
X-19.781 Y62.208
X-19.75 Y62.345
G3 X-19.783 Y62.425 R0.124 F466.
X-20.25 Y62.252 R0.269
G1 Y62.191 F406.
X-20.248 Y62.157
X-20.219 Y62.096
X-20.173 Y62.046
X-20.116 Y62.011
X-20.051 Y61.992
X-19.916 Y61.998
X-19.828 Y62.072
X-19.77 Y62.173
X-19.75 Y62.287
G3 X-19.784 Y62.368 R0.124 F466.
X-20.25 Y62.191 R0.27
G1 Y62.126 F406.
X-20.248 Y62.092
X-20.214 Y62.034
X-20.164 Y61.989
X-20.044 Y61.928
X-19.976 Y61.929
X-19.859 Y61.994
X-19.778 Y62.101
X-19.75 Y62.232
G3 X-19.791 Y62.32 R0.124 F466.
X-20.25 Y62.126 R0.275
G1 Y62.07 F406.
X-20.248 Y62.036
X-20.212 Y61.979
X-20.164 Y61.932
X-20.106 Y61.898
X-20.04 Y61.881
X-19.906 Y61.891
X-19.823 Y61.964
X-19.769 Y62.061
X-19.75 Y62.17
G3 X-19.787 Y62.254 R0.124 F466.
X-20.25 Y62.07 R0.272
G1 Y62.031 F406.
X-20.248 Y61.997
X-20.221 Y61.936
X-20.174 Y61.887
X-20.058 Y61.819
X-19.99 Y61.816
X-19.866 Y61.877
X-19.781 Y61.986
X-19.75 Y62.121
G3 X-19.781 Y62.199 R0.124 F466.
X-20.25 Y62.031 R0.268
G1 Y61.97 F406.
X-20.248 Y61.936
X-20.216 Y61.877
X-20.171 Y61.827
X-20.114 Y61.791
X-20.049 Y61.772
X-19.914 Y61.778
X-19.827 Y61.851
X-19.77 Y61.95
X-19.75 Y62.063
G3 X-19.783 Y62.143 R0.124 F466.
X-20.25 Y61.97 R0.269
G1 Y61.905 F406.
X-20.248 Y61.872
X-20.213 Y61.814
X-20.113 Y61.723
X-20.047 Y61.709
X-19.98 Y61.708
X-19.861 Y61.772
X-19.779 Y61.879
X-19.75 Y62.011
G3 X-19.79 Y62.099 R0.124 F466.
X-20.25 Y61.905 R0.275
G1 Y61.849 F406.
X-20.248 Y61.815
X-20.217 Y61.756
X-20.17 Y61.707
X-20.11 Y61.676
X-20.044 Y61.66
X-19.91 Y61.669
X-19.825 Y61.743
X-19.769 Y61.84
X-19.75 Y61.951
G3 X-19.788 Y62.036 R0.124 F466.
X-20.25 Y61.849 R0.273
G1 Y61.81 F406.
X-20.248 Y61.777
X-20.225 Y61.713
X-20.178 Y61.665
X-20.061 Y61.597
X-19.994 Y61.594
X-19.868 Y61.656
X-19.781 Y61.767
X-19.75 Y61.903
G3 X-19.783 Y61.983 R0.124 F466.
X-20.25 Y61.81 R0.269
G1 Y61.749 F406.
X-20.248 Y61.715
X-20.219 Y61.655
X-20.173 Y61.605
X-20.116 Y61.569
X-20.051 Y61.55
X-19.917 Y61.556
X-19.828 Y61.631
X-19.77 Y61.731
X-19.75 Y61.845
G3 X-19.784 Y61.926 R0.124 F466.
X-20.25 Y61.749 R0.27
G1 Y61.684 F406.
X-20.248 Y61.651
X-20.214 Y61.592
X-20.165 Y61.547
X-20.044 Y61.486
X-19.976 Y61.487
X-19.859 Y61.552
X-19.778 Y61.659
X-19.75 Y61.791
G3 X-19.791 Y61.878 R0.124 F466.
X-20.25 Y61.684 R0.275
G1 Y61.628 F406.
X-20.248 Y61.595
X-20.212 Y61.537
X-20.164 Y61.49
X-20.106 Y61.456
X-20.04 Y61.439
X-19.906 Y61.45
X-19.823 Y61.523
X-19.769 Y61.619
X-19.75 Y61.728
G3 X-19.787 Y61.812 R0.124 F466.
X-20.25 Y61.628 R0.272
G1 Y61.59 F406.
X-20.248 Y61.556
X-20.221 Y61.494
X-20.174 Y61.445
X-20.058 Y61.377
X-19.991 Y61.374
X-19.866 Y61.436
X-19.781 Y61.544
X-19.75 Y61.679
G3 X-19.781 Y61.757 R0.124 F466.
X-20.25 Y61.59 R0.268
G1 Y61.528 F406.
X-20.248 Y61.495
X-20.217 Y61.435
X-20.171 Y61.385
X-20.114 Y61.349
X-20.049 Y61.33
X-19.915 Y61.336
X-19.827 Y61.41
X-19.77 Y61.509
X-19.75 Y61.621
G3 X-19.783 Y61.701 R0.124 F466.
X-20.25 Y61.528 R0.269
G1 Y61.464 F406.
X-20.248 Y61.43
X-20.213 Y61.372
X-20.163 Y61.327
X-20.043 Y61.266
X-19.975 Y61.267
X-19.858 Y61.331
X-19.778 Y61.438
X-19.75 Y61.568
G3 X-19.79 Y61.655 R0.124 F466.
X-20.25 Y61.464 R0.274
G1 Y61.407 F406.
X-20.248 Y61.374
X-20.212 Y61.317
X-20.164 Y61.27
X-20.105 Y61.236
X-20.04 Y61.219
X-19.905 Y61.229
X-19.822 Y61.302
X-19.769 Y61.398
X-19.75 Y61.506
G3 X-19.786 Y61.589 R0.124 F466.
X-20.25 Y61.407 R0.272
G1 Y61.369 F406.
X-20.248 Y61.335
X-20.221 Y61.273
X-20.174 Y61.225
X-20.057 Y61.157
X-19.99 Y61.154
X-19.866 Y61.215
X-19.78 Y61.323
X-19.75 Y61.458
G3 X-19.78 Y61.535 R0.124 F466.
X-20.25 Y61.369 R0.268
G1 Y61.307 F406.
X-20.248 Y61.274
X-20.216 Y61.214
X-20.171 Y61.164
X-20.114 Y61.129
X-20.049 Y61.109
X-19.914 Y61.115
X-19.827 Y61.189
X-19.77 Y61.288
X-19.75 Y61.4
G3 X-19.782 Y61.479 R0.124 F466.
X-20.25 Y61.307 R0.269
G1 Y61.243 F406.
X-20.248 Y61.209
X-20.213 Y61.151
X-20.113 Y61.061
X-20.047 Y61.047
X-19.98 Y61.046
X-19.86 Y61.109
X-19.779 Y61.217
X-19.75 Y61.348
G3 X-19.79 Y61.436 R0.124 F466.
X-20.25 Y61.243 R0.275
G1 Y61.187 F406.
X-20.248 Y61.153
X-20.217 Y61.093
X-20.169 Y61.045
X-20.109 Y61.014
X-20.044 Y60.997
X-19.909 Y61.007
X-19.824 Y61.08
X-19.769 Y61.178
X-19.75 Y61.288
G3 X-19.788 Y61.373 R0.124 F466.
X-20.25 Y61.187 R0.273
G1 Y61.148 F406.
X-20.248 Y61.114
X-20.225 Y61.051
X-20.178 Y61.003
X-20.061 Y60.935
X-19.993 Y60.932
X-19.868 Y60.994
X-19.781 Y61.104
X-19.75 Y61.241
G3 X-19.783 Y61.32 R0.124 F466.
X-20.25 Y61.148 R0.269
G1 Y61.087 F406.
X-20.248 Y61.053
X-20.219 Y60.992
X-20.173 Y60.942
X-20.116 Y60.907
X-20.051 Y60.888
X-19.916 Y60.894
X-19.828 Y60.968
X-19.77 Y61.068
X-19.75 Y61.182
G3 X-19.784 Y61.263 R0.124 F466.
X-20.25 Y61.087 R0.27
G1 Y61.022 F406.
X-20.248 Y60.988
X-20.214 Y60.93
X-20.164 Y60.884
X-20.044 Y60.824
X-19.976 Y60.825
X-19.859 Y60.889
X-19.778 Y60.997
X-19.75 Y61.128
G3 X-19.79 Y61.215 R0.124 F466.
X-20.25 Y61.022 R0.275
G1 Y60.966 F406.
X-20.248 Y60.932
X-20.212 Y60.875
X-20.164 Y60.828
X-20.106 Y60.794
X-20.04 Y60.777
X-19.906 Y60.787
X-19.823 Y60.86
X-19.769 Y60.957
X-19.75 Y61.066
G3 X-19.787 Y61.149 R0.124 F466.
X-19.986 Y61.228 R0.272
X-20.25 Y60.966 R0.272
G1 Y60.927 F406.
X-20.248 Y60.893
X-20.221 Y60.832
X-20.174 Y60.783
X-20.058 Y60.714
X-19.99 Y60.712
X-19.866 Y60.773
X-19.781 Y60.882
X-19.75 Y61.017
G3 X-19.781 Y61.095 R0.124 F466.
X-20.25 Y60.927 R0.268
G1 Y60.866 F406.
X-20.248 Y60.832
X-20.217 Y60.773
X-20.171 Y60.723
X-20.114 Y60.687
X-20.049 Y60.667
X-19.915 Y60.673
X-19.827 Y60.747
X-19.77 Y60.846
X-19.75 Y60.959
G3 X-19.783 Y61.039 R0.124 F466.
X-20.25 Y60.866 R0.269
G1 Y60.801 F406.
X-20.248 Y60.767
X-20.213 Y60.71
X-20.113 Y60.619
X-20.047 Y60.605
X-19.98 Y60.604
X-19.861 Y60.668
X-19.779 Y60.775
X-19.75 Y60.907
G3 X-19.79 Y60.995 R0.124 F466.
X-20.25 Y60.801 R0.275
G1 Y60.745 F406.
X-20.248 Y60.711
X-20.217 Y60.652
X-20.17 Y60.603
X-20.11 Y60.572
X-20.044 Y60.556
X-19.91 Y60.565
X-19.825 Y60.638
X-19.769 Y60.736
X-19.75 Y60.847
G3 X-19.788 Y60.932 R0.124 F466.
X-20.25 Y60.745 R0.273
G1 Y60.706 F406.
X-20.248 Y60.673
X-20.225 Y60.609
X-20.178 Y60.561
X-20.061 Y60.493
X-19.994 Y60.49
X-19.869 Y60.552
X-19.782 Y60.661
X-19.75 Y60.796
G3 X-19.782 Y60.876 R0.124 F466.
X-20.25 Y60.706 R0.268
G1 Y60.645 F406.
X-20.248 Y60.611
X-20.219 Y60.551
X-20.173 Y60.501
X-20.116 Y60.465
X-20.051 Y60.446
X-19.917 Y60.452
X-19.829 Y60.525
X-19.771 Y60.624
X-19.751 Y60.736
G3 X-19.783 Y60.817 R0.124 F466.
X-20.25 Y60.645 R0.269
G1 Y60.58 F406.
X-20.248 Y60.547
X-20.214 Y60.488
X-20.165 Y60.443
X-20.044 Y60.382
X-19.976 Y60.383
X-19.86 Y60.447
X-19.78 Y60.552
X-19.751 Y60.682
G3 X-19.79 Y60.768 R0.124 F466.
X-20.25 Y60.58 R0.273
G1 Y60.524 F406.
X-20.248 Y60.49
X-20.212 Y60.433
X-20.164 Y60.386
X-20.106 Y60.352
X-20.04 Y60.335
X-19.906 Y60.345
X-19.824 Y60.417
X-19.771 Y60.511
X-19.752 Y60.618
G3 X-19.786 Y60.7 R0.124 F466.
X-20.25 Y60.524 R0.269
G1 Y60.485 F406.
X-20.248 Y60.452
X-20.221 Y60.39
X-20.174 Y60.341
X-20.058 Y60.273
X-19.991 Y60.27
X-19.873 Y60.327
X-19.79 Y60.427
X-19.755 Y60.553
G3 X-19.778 Y60.626 R0.123 F466.
X-20.25 Y60.485 R0.26
G1 Y60.424 F406.
X-20.249 Y60.401
X-20.223 Y60.339
X-20.179 Y60.288
X-20.124 Y60.249
X-20.06 Y60.227
X-19.925 Y60.228
X-19.84 Y60.295
X-19.782 Y60.387
X-19.758 Y60.492
G3 X-19.781 Y60.565 R0.122 F466.
X-20.25 Y60.424 R0.259
G1 X-20.247 Y60.359 F406.
X-20.243 Y60.326
X-20.21 Y60.267
X-20.161 Y60.221
X-20.039 Y60.163
X-19.972 Y60.165
X-19.866 Y60.223
X-19.792 Y60.318
X-19.761 Y60.434
G3 X-19.779 Y60.5 R0.122 F466.
X-20.247 Y60.359 R0.253
G1 X-20.243 Y60.303 F406.
X-20.239 Y60.27
X-20.206 Y60.211
X-20.157 Y60.164
X-20.098 Y60.132
X-20.032 Y60.116
X-19.9 Y60.161
X-19.803 Y60.262
X-19.763 Y60.395
G3 X-19.79 Y60.474 R0.121 F466.
X-20.243 Y60.303 R0.255
G1 X-20.241 Y60.265 F406.
X-20.232 Y60.198
X-20.193 Y60.143
X-20.139 Y60.102
X-20.076 Y60.078
X-19.941 Y60.073
X-19.852 Y60.139
X-19.791 Y60.232
X-19.766 Y60.34
G3 X-19.785 Y60.405 R0.119 F466.
X-20.241 Y60.265 R0.247
G1 X-20.236 Y60.203 F406.
X-20.234 Y60.175
X-20.227 Y60.142
X-20.186 Y60.089
X-20.073 Y60.014
X-20.006 Y60.01
X-19.888 Y60.065
X-19.804 Y60.164
X-19.769 Y60.29
G3 X-19.811 Y60.381 R0.117 F466.
X-20.006 Y60.441 R0.257
X-20.074 Y60.423 R0.257
X-20.234 Y60.175 R0.257
G1 X-20.228 Y60.139 F406.
X-20.212 Y60.073
X-20.17 Y60.021
X-20.112 Y59.985
X-20.047 Y59.967
X-19.913 Y59.976
X-19.841 Y60.04
X-19.793 Y60.122
X-19.773 Y60.216
G3 X-19.782 Y60.263 R0.116 F466.
X-20.228 Y60.139 R0.233
G1 X-20.211 Y60.044 F406.
X-20.203 Y60.011
X-20.155 Y59.964
X-20.034 Y59.904
X-19.967 Y59.907
X-19.878 Y59.957
X-19.813 Y60.036
X-19.781 Y60.134
G3 X-19.802 Y60.21 R0.111 F466.
X-20.211 Y60.044 R0.228
G1 X-20.2 Y59.983 F406.
X-20.195 Y59.955
X-20.194 Y59.95
X-20.183 Y59.917
G3 X-20.067 Y59.877 R0.1 F466.
X-20.129 Y60.062 R0.098
X-20.194 Y59.95 R0.098
G1 X-20.163 Y59.884 F406.
X-20.147 Y59.863
X-20.123 Y59.842
X-20.103 Y59.829
X-20.083 Y59.818
X-20.056 Y59.807
X-20.028 Y59.802
X-20.001 Y59.799
X-19.973 Y59.802
X-19.952 Y59.806
X-19.942 Y59.808
X-19.931 Y59.812
X-19.908 Y59.823
X-19.834 Y59.889
G3 X-20.043 Y60.062 R0.136 F466.
G1 X-20.062 Y60.043
G3 X-19.908 Y59.823 R0.136
G1 X-19.854 Y59.863 F406.
X-19.815 Y59.924
X-19.805 Y59.955
X-19.775 Y60.175
X-19.752 Y60.617
X-19.75 Y60.838
G3 X-19.765 Y60.967 R0.8 F466.
G1 X-19.801 Y61.147
X-20.197 Y63.117
G2 X-19.956 Y63.471 R0.3
G3 X-19.931 Y63.477 R0.25
X-19.75 Y63.709 R0.25
G1 Y64.022 F406.
X-19.753 Y64.089
X-19.785 Y64.149
X-19.834 Y64.196
X-19.951 Y64.263
X-20.086
X-20.173 Y64.193
X-20.23 Y64.097
X-20.25 Y63.987
G3 X-20.244 Y63.954 R0.125 F466.
X-19.75 Y64.022 R0.253
G1 Y64.088 F406.
X-19.752 Y64.121
X-19.774 Y64.185
X-19.816 Y64.238
X-19.869 Y64.28
X-19.931 Y64.306
X-19.997 Y64.321
X-20.064 Y64.315
X-20.162 Y64.254
X-20.227 Y64.16
X-20.25 Y64.048
G3 X-20.242 Y64.009 R0.125 F466.
X-19.75 Y64.088 R0.254
G1 Y64.15 F406.
X-19.752 Y64.184
X-19.777 Y64.247
X-19.821 Y64.298
X-19.876 Y64.336
X-19.939 Y64.361
X-20.006 Y64.37
X-20.131 Y64.318
X-20.218 Y64.215
X-20.25 Y64.084
G3 X-20.232 Y64.023 R0.124 F466.
X-20.025 Y63.9 R0.26
X-19.75 Y64.15 R0.26
G1 Y64.218 F406.
X-19.752 Y64.251
X-19.783 Y64.311
X-19.83 Y64.359
X-19.888 Y64.394
X-19.953 Y64.413
X-20.088 Y64.412
X-20.174 Y64.341
X-20.23 Y64.245
X-20.25 Y64.136
G3 X-20.224 Y64.064 R0.124 F466.
X-20.019 Y63.962 R0.265
X-19.75 Y64.218 R0.265
G1 Y64.282 F406.
X-19.752 Y64.316
X-19.788 Y64.373
X-19.889 Y64.462
X-19.954 Y64.478
X-20.022 Y64.48
X-20.139 Y64.42
X-20.22 Y64.316
X-20.25 Y64.187
G3 X-20.215 Y64.105 R0.124 F466.
X-19.75 Y64.282 R0.27
G1 Y64.343 F406.
X-19.752 Y64.377
X-19.786 Y64.435
X-19.835 Y64.481
X-19.895 Y64.512
X-19.961 Y64.528
X-20.095 Y64.519
X-20.176 Y64.449
X-20.23 Y64.355
X-20.249 Y64.249
G3 X-20.215 Y64.167 R0.124 F466.
X-20.015 Y64.083 R0.269
X-19.75 Y64.343 R0.269
G1 Y64.408 F406.
X-19.752 Y64.441
X-19.791 Y64.496
X-19.897 Y64.58
X-20.03 Y64.604
X-20.143 Y64.536
X-20.22 Y64.429
X-20.248 Y64.3
G3 X-20.206 Y64.209 R0.124 F466.
X-19.75 Y64.408 R0.275
G1 Y64.464 F406.
X-19.752 Y64.498
X-19.788 Y64.554
X-19.89 Y64.644
X-19.956 Y64.658
X-20.09 Y64.645
X-20.173 Y64.571
X-20.228 Y64.475
X-20.248 Y64.365
G3 X-20.211 Y64.28 R0.124 F466.
X-19.75 Y64.464 R0.271
G1 Y64.503 F406.
X-19.752 Y64.536
X-19.78 Y64.598
X-19.822 Y64.65
X-19.88 Y64.685
X-19.945 Y64.704
X-20.012 Y64.711
X-20.126 Y64.659
X-20.208 Y64.564
X-20.243 Y64.443
G3 X-20.224 Y64.374 R0.123 F466.
X-19.75 Y64.503 R0.257
G1 Y64.564 F406.
X-19.752 Y64.598
X-19.78 Y64.659
X-19.829 Y64.705
X-19.888 Y64.738
X-19.953 Y64.756
X-20.088 Y64.752
X-20.164 Y64.689
X-20.216 Y64.605
X-20.239 Y64.509
G3 X-20.222 Y64.444 R0.122 F466.
X-20.021 Y64.32 R0.254
X-19.929 Y64.33 R0.254
X-19.75 Y64.564 R0.254
G1 X-19.751 Y64.634 F406.
X-19.753 Y64.667
X-19.791 Y64.723
X-19.896 Y64.809
X-19.962 Y64.822
X-20.029 Y64.821
X-20.132 Y64.765
X-20.205 Y64.674
X-20.235 Y64.562
G3 X-20.212 Y64.487 R0.121 F466.
X-19.751 Y64.634 R0.255
G1 X-19.752 Y64.7 F406.
X-19.754 Y64.725
X-19.789 Y64.783
X-19.839 Y64.828
X-19.9 Y64.857
X-19.966 Y64.871
X-20.096 Y64.827
X-20.192 Y64.729
X-20.233 Y64.598
G3 X-20.192 Y64.504 R0.12 F466.
X-19.999 Y64.44 R0.266
X-19.752 Y64.7 R0.266
G1 Y64.73 F406.
X-19.765 Y64.797
X-19.807 Y64.85
X-19.862 Y64.889
X-19.926 Y64.91
X-20.061 Y64.914
X-20.146 Y64.85
X-20.204 Y64.761
X-20.229 Y64.657
G3 X-20.205 Y64.581 R0.119 F466.
X-19.752 Y64.73 R0.252
G1 X-19.764 Y64.813 F406.
X-19.772 Y64.846
X-19.811 Y64.9
X-19.924 Y64.974
X-19.992 Y64.979
X-20.108 Y64.926
X-20.191 Y64.829
X-20.226 Y64.706
G3 X-20.198 Y64.626 R0.118 F466.
X-19.996 Y64.539 R0.247
X-19.912 Y64.559 R0.247
X-19.764 Y64.813 R0.247
G1 X-19.771 Y64.849 F406.
X-19.785 Y64.915
X-19.828 Y64.968
X-19.885 Y65.004
X-19.95 Y65.021
X-20.085 Y65.013
X-20.154 Y64.951
X-20.201 Y64.872
X-20.221 Y64.782
G3 X-20.214 Y64.739 R0.115 F466.
X-19.771 Y64.849 R0.23
G1 X-19.787 Y64.944 F406.
X-19.794 Y64.977
X-19.843 Y65.024
X-19.963 Y65.085
X-20.031 Y65.081
X-20.121 Y65.03
X-20.186 Y64.948
X-20.216 Y64.848
G3 X-20.193 Y64.773 R0.111 F466.
X-19.986 Y64.687 R0.228
X-19.939 Y64.698 R0.228
X-19.787 Y64.944 R0.228
G1 X-19.798 Y65.006 F406.
X-19.802 Y65.034
X-19.811 Y65.067
X-19.837 Y65.117
G3 X-19.879 Y64.962 R0.08
X-19.806 Y64.979 R0.08
G1 X-19.793 Y64.968
X-19.809 Y64.973
G3 X-19.811 Y65.067 R0.25
G1 X-19.85 Y65.133
X-19.869 Y65.151
X-19.888 Y65.166
X-19.911 Y65.178
X-20.057 Y65.122
X-20.165 Y65.01
X-20.214 Y64.862
G3 X-20.056 Y64.698 R0.154 F466.
X-19.999 Y64.706 R0.267
X-19.888 Y65.166 R0.267
G1 X-19.909 Y65.178 F406.
X-19.93 Y65.187
X-19.952 Y65.194
X-19.973 Y65.198
X-20.001 Y65.201
X-20.028 Y65.198
X-20.056 Y65.192
X-20.07 Y65.188
X-20.083 Y65.182
X-20.103 Y65.171
X-20.146 Y65.137
G3 X-19.949 Y64.982 R0.125 F466.
X-20.021 Y65.182 R0.125
X-20.103 Y65.171 R0.126
G1 X-20.163 Y65.116 F406.
X-20.194 Y65.051
X-20.233 Y64.592
X-20.248 Y64.371
X-20.25 Y63.934
X-20.239 Y63.877 Z-28.484 F466.
X-20.228 Y63.823 Z-28.468
X-20.218 Y63.772 Z-28.442
X-20.209 Y63.726 Z-28.407
X-20.202 Y63.688 Z-28.363
X-20.189 Y63.657 Z-28.306
X-20.181 Y63.637 Z-28.242
X-20.178 Y63.631 Z-28.176
G0 Z2.
X20.081 Y24.191
Z-11.19
G1 Z-11.99 F466.
G3 X19.919 Y24.611 Z-12.115 R0.225
X20.081 Y24.191 Z-12.239 R0.225
X19.919 Y24.611 Z-12.364 R0.225
X20.081 Y24.191 Z-12.489 R0.225
X19.919 Y24.611 Z-12.613 R0.225
X20.081 Y24.191 Z-12.738 R0.225
X19.919 Y24.611 Z-12.862 R0.225
X20.081 Y24.191 Z-12.987 R0.225
X19.919 Y24.611 Z-13.112 R0.225
X20.081 Y24.191 Z-13.236 R0.225
X19.919 Y24.611 Z-13.361 R0.225
X20.081 Y24.191 Z-13.486 R0.225
X19.919 Y24.611 Z-13.61 R0.225
X20.081 Y24.191 Z-13.735 R0.225
X19.919 Y24.611 Z-13.86 R0.225
X20.081 Y24.191 Z-13.984 R0.225
X19.919 Y24.611 Z-14.109 R0.225
X20.081 Y24.191 Z-14.233 R0.225
X19.919 Y24.611 Z-14.358 R0.225
X20.081 Y24.191 Z-14.483 R0.225
X19.919 Y24.611 Z-14.607 R0.225
X20.081 Y24.191 Z-14.732 R0.225
X19.919 Y24.611 Z-14.857 R0.225
X20.081 Y24.191 Z-14.981 R0.225
X19.919 Y24.611 Z-15.106 R0.225
X20.081 Y24.191 Z-15.231 R0.225
X19.919 Y24.611 Z-15.355 R0.225
X20.081 Y24.191 Z-15.48 R0.225
X19.919 Y24.611 Z-15.605 R0.225
X20.081 Y24.191 Z-15.729 R0.225
X19.919 Y24.611 Z-15.854 R0.225
X20.081 Y24.191 Z-15.978 R0.225
X19.919 Y24.611 Z-16.103 R0.225
X20.081 Y24.191 Z-16.228 R0.225
X19.919 Y24.611 Z-16.352 R0.225
X20.081 Y24.191 Z-16.477 R0.225
X19.919 Y24.611 Z-16.602 R0.225
X20.081 Y24.191 Z-16.726 R0.225
X19.919 Y24.611 Z-16.851 R0.225
X20.081 Y24.191 Z-16.976 R0.225
X19.919 Y24.611 Z-17.1 R0.225
X20.081 Y24.191 Z-17.225 R0.225
X19.919 Y24.611 Z-17.349 R0.225
X20.081 Y24.191 Z-17.474 R0.225
X19.919 Y24.611 Z-17.599 R0.225
X20.081 Y24.191 Z-17.723 R0.225
X19.919 Y24.611 Z-17.848 R0.225
X20.081 Y24.191 Z-17.973 R0.225
X19.919 Y24.611 Z-18.097 R0.225
X20.081 Y24.191 Z-18.222 R0.225
X19.919 Y24.611 Z-18.347 R0.225
X20.081 Y24.191 Z-18.471 R0.225
X19.919 Y24.611 Z-18.596 R0.225
X20.081 Y24.191 Z-18.72 R0.225
X19.919 Y24.611 Z-18.845 R0.225
X20.081 Y24.191 Z-18.97 R0.225
X19.919 Y24.611 Z-19.094 R0.225
X20.081 Y24.191 Z-19.219 R0.225
X19.919 Y24.611 Z-19.344 R0.225
X20.081 Y24.191 Z-19.468 R0.225
X19.919 Y24.611 Z-19.593 R0.225
X20.081 Y24.191 Z-19.718 R0.225
X19.919 Y24.611 Z-19.842 R0.225
X20.081 Y24.191 Z-19.967 R0.225
X19.919 Y24.611 Z-20.091 R0.225
X20.081 Y24.191 Z-20.216 R0.225
X19.919 Y24.611 Z-20.341 R0.225
X20.081 Y24.191 Z-20.465 R0.225
X19.919 Y24.611 Z-20.59 R0.225
X20.081 Y24.191 Z-20.715 R0.225
X19.919 Y24.611 Z-20.839 R0.225
X20.081 Y24.191 Z-20.964 R0.225
X19.919 Y24.611 Z-21.089 R0.225
X20.081 Y24.191 Z-21.213 R0.225
X19.919 Y24.611 Z-21.338 R0.225
X20.081 Y24.191 Z-21.463 R0.225
X19.919 Y24.611 Z-21.587 R0.225
X20.081 Y24.191 Z-21.712 R0.225
X19.919 Y24.611 Z-21.836 R0.225
X20.081 Y24.191 Z-21.961 R0.225
X19.919 Y24.611 Z-22.086 R0.225
X20.081 Y24.191 Z-22.21 R0.225
X19.919 Y24.611 Z-22.335 R0.225
X20.081 Y24.191 Z-22.46 R0.225
X19.919 Y24.611 Z-22.584 R0.225
X20.081 Y24.191 Z-22.709 R0.225
X19.919 Y24.611 Z-22.834 R0.225
X20.081 Y24.191 Z-22.958 R0.225
X19.919 Y24.611 Z-23.083 R0.225
X20.081 Y24.191 Z-23.207 R0.225
X19.919 Y24.611 Z-23.332 R0.225
X20.081 Y24.191 Z-23.457 R0.225
X19.919 Y24.611 Z-23.581 R0.225
X20.081 Y24.191 Z-23.706 R0.225
X19.919 Y24.611 Z-23.831 R0.225
X20.081 Y24.191 Z-23.955 R0.225
X19.919 Y24.611 Z-24.08 R0.225
X20.081 Y24.191 Z-24.205 R0.225
X19.919 Y24.611 Z-24.329 R0.225
X20.081 Y24.191 Z-24.454 R0.225
X19.919 Y24.611 Z-24.578 R0.225
X20.081 Y24.191 Z-24.703 R0.225
X19.919 Y24.611 Z-24.828 R0.225
X20.081 Y24.191 Z-24.952 R0.225
X19.919 Y24.611 Z-25.077 R0.225
X20.081 Y24.191 Z-25.202 R0.225
X19.919 Y24.611 Z-25.326 R0.225
X20.081 Y24.191 Z-25.451 R0.225
X19.919 Y24.611 Z-25.576 R0.225
X20.081 Y24.191 Z-25.7 R0.225
X19.919 Y24.611 Z-25.825 R0.225
X20.081 Y24.191 Z-25.949 R0.225
X19.919 Y24.611 Z-26.074 R0.225
X20.081 Y24.191 Z-26.199 R0.225
X19.919 Y24.611 Z-26.323 R0.225
X20.081 Y24.191 Z-26.448 R0.225
X19.919 Y24.611 Z-26.573 R0.225
X20.081 Y24.191 Z-26.697 R0.225
X19.919 Y24.611 Z-26.822 R0.225
X20.081 Y24.191 Z-26.947 R0.225
X19.919 Y24.611 Z-27.071 R0.225
X20.081 Y24.191 Z-27.196 R0.225
X19.919 Y24.611 Z-27.32 R0.225
X20.081 Y24.191 Z-27.445 R0.225
X19.919 Y24.611 Z-27.57 R0.225
X20.081 Y24.191 Z-27.694 R0.225
X19.919 Y24.611 Z-27.819 R0.225
X20.081 Y24.191 Z-27.944 R0.225
X19.919 Y24.611 Z-28.068 R0.225
X20.081 Y24.191 Z-28.193 R0.225
X19.919 Y24.611 Z-28.318 R0.225
X20.081 Y24.191 Z-28.442 R0.225
X20.225 Y24.401 Z-28.49 R0.225
X19.775 R0.225
X20.225 R0.225
G1 X20.237 Y24.452 F406.
X20.231 Y24.519
X20.198 Y24.578
X20.15 Y24.625
X20.091 Y24.657
X20.025 Y24.673
X19.957 Y24.671
X19.892 Y24.653
X19.817 Y24.589
X19.767 Y24.504
X19.75 Y24.406
Y24.365
X19.753 Y24.297
X19.785 Y24.237
X19.831 Y24.188
X19.888 Y24.152
X19.953 Y24.132
X20.02 Y24.128
X20.086 Y24.141
X20.173 Y24.204
X20.23 Y24.295
X20.25 Y24.4
G3 X20.244 Y24.434 R0.125 F466.
X19.75 Y24.365 R0.253
G1 Y24.27 F406.
X19.752 Y24.236
X19.786 Y24.178
X19.835 Y24.132
X19.894 Y24.099
X19.96 Y24.082
X20.027 Y24.078
X20.142 Y24.135
X20.222 Y24.235
X20.25 Y24.36
G3 X20.219 Y24.438 R0.124 F466.
X19.75 Y24.27 R0.268
G1 Y24.209 F406.
X19.752 Y24.175
X19.79 Y24.119
X19.841 Y24.076
X19.902 Y24.045
X19.967 Y24.03
X20.102 Y24.038
X20.181 Y24.107
X20.232 Y24.198
X20.25 Y24.302
G3 X20.217 Y24.382 R0.124 F466.
X19.75 Y24.209 R0.269
G1 Y24.144 F406.
X19.752 Y24.11
X19.794 Y24.057
X19.902 Y23.977
X20.035 Y23.952
X20.147 Y24.02
X20.223 Y24.127
X20.25 Y24.255
G3 X20.206 Y24.345 R0.124 F466.
X19.75 Y24.144 R0.277
G1 Y24.088 F406.
X19.752 Y24.054
X19.829 Y23.943
X19.89 Y23.915
X19.956 Y23.899
X20.091 Y23.911
X20.176 Y23.985
X20.231 Y24.083
X20.25 Y24.194
G3 X20.209 Y24.282 R0.124 F466.
X19.75 Y24.088 R0.275
G1 Y24.049 F406.
X19.752 Y24.015
X19.774 Y23.951
X19.821 Y23.903
X19.938 Y23.836
X20.006 Y23.834
X20.132 Y23.897
X20.219 Y24.008
X20.25 Y24.146
G3 X20.215 Y24.228 R0.124 F466.
X19.75 Y24.049 R0.271
G1 Y23.988 F406.
X19.752 Y23.954
X19.781 Y23.893
X19.826 Y23.843
X19.884 Y23.808
X19.949 Y23.789
X20.083 Y23.797
X20.172 Y23.872
X20.23 Y23.972
X20.25 Y24.086
G3 X20.214 Y24.17 R0.124 F466.
X19.75 Y23.988 R0.272
G1 Y23.923 F406.
X19.752 Y23.889
X19.785 Y23.831
X19.836 Y23.786
X19.957 Y23.726
X20.024 Y23.727
X20.142 Y23.792
X20.222 Y23.9
X20.25 Y24.031
G3 X20.208 Y24.12 R0.124 F466.
X19.75 Y23.923 R0.276
G1 Y23.867 F406.
X19.752 Y23.833
X19.788 Y23.776
X19.836 Y23.729
X19.895 Y23.696
X19.96 Y23.679
X20.095 Y23.69
X20.178 Y23.763
X20.231 Y23.859
X20.25 Y23.968
G3 X20.212 Y24.053 R0.124 F466.
X19.75 Y23.867 R0.273
G1 Y23.828 F406.
X19.752 Y23.794
X19.779 Y23.733
X19.826 Y23.684
X19.943 Y23.616
X20.01 Y23.614
X20.134 Y23.676
X20.22 Y23.785
X20.25 Y23.919
G3 X20.218 Y23.998 R0.124 F466.
X19.75 Y23.828 R0.269
G1 Y23.767 F406.
X19.752 Y23.733
X19.784 Y23.674
X19.829 Y23.624
X19.887 Y23.588
X19.951 Y23.569
X20.086 Y23.576
X20.173 Y23.65
X20.23 Y23.749
X20.25 Y23.861
G3 X20.217 Y23.941 R0.124 F466.
X19.75 Y23.767 R0.27
G1 Y23.702 F406.
X19.752 Y23.668
X19.787 Y23.611
X19.887 Y23.521
X19.953 Y23.507
X20.021 Y23.506
X20.14 Y23.57
X20.221 Y23.677
X20.25 Y23.809
G3 X20.209 Y23.897 R0.124 F466.
X19.75 Y23.702 R0.275
G1 Y23.646 F406.
X19.752 Y23.612
X19.784 Y23.553
X19.831 Y23.505
X19.891 Y23.474
X19.957 Y23.458
X20.091 Y23.467
X20.176 Y23.541
X20.231 Y23.638
X20.25 Y23.748
G3 X20.212 Y23.834 R0.124 F466.
X19.75 Y23.646 R0.273
G1 Y23.607 F406.
X19.752 Y23.574
X19.776 Y23.511
X19.823 Y23.462
X19.94 Y23.395
X20.007 Y23.392
X20.133 Y23.454
X20.219 Y23.564
X20.25 Y23.701
G3 X20.217 Y23.781 R0.124 F466.
X19.75 Y23.607 R0.269
G1 Y23.546 F406.
X19.752 Y23.512
X19.782 Y23.452
X19.827 Y23.402
X19.885 Y23.366
X19.949 Y23.348
X20.084 Y23.354
X20.172 Y23.428
X20.23 Y23.528
X20.25 Y23.642
G3 X20.216 Y23.724 R0.124 F466.
X19.75 Y23.546 R0.27
G1 Y23.481 F406.
X19.752 Y23.448
X19.786 Y23.39
X19.836 Y23.344
X19.957 Y23.284
X20.024 Y23.285
X20.142 Y23.35
X20.222 Y23.457
X20.25 Y23.588
G3 X20.209 Y23.675 R0.124 F466.
X19.75 Y23.481 R0.275
G1 Y23.425 F406.
X19.752 Y23.391
X19.788 Y23.335
X19.836 Y23.287
X19.895 Y23.254
X19.96 Y23.237
X20.095 Y23.247
X20.178 Y23.32
X20.231 Y23.417
X20.25 Y23.525
G3 X20.213 Y23.609 R0.124 F466.
X19.75 Y23.425 R0.272
G1 Y23.386 F406.
X19.752 Y23.353
X19.779 Y23.291
X19.826 Y23.243
X19.943 Y23.174
X20.01 Y23.172
X20.134 Y23.233
X20.22 Y23.342
X20.25 Y23.477
G3 X20.219 Y23.554 R0.124 F466.
X19.75 Y23.386 R0.268
G1 Y23.325 F406.
X19.752 Y23.292
X19.784 Y23.232
X19.829 Y23.182
X19.886 Y23.146
X19.951 Y23.127
X20.086 Y23.134
X20.173 Y23.207
X20.23 Y23.306
X20.25 Y23.418
G3 X20.217 Y23.498 R0.124 F466.
X19.75 Y23.325 R0.269
G1 Y23.261 F406.
X19.752 Y23.227
X19.787 Y23.169
X19.887 Y23.079
X19.953 Y23.065
X20.021 Y23.064
X20.14 Y23.128
X20.221 Y23.235
X20.25 Y23.367
G3 X20.209 Y23.454 R0.124 F466.
X19.75 Y23.261 R0.275
G1 Y23.204 F406.
X19.752 Y23.171
X19.783 Y23.111
X19.831 Y23.063
X19.891 Y23.032
X19.956 Y23.016
X20.091 Y23.025
X20.176 Y23.098
X20.231 Y23.196
X20.25 Y23.306
G3 X20.212 Y23.391 R0.124 F466.
X19.75 Y23.204 R0.273
G1 Y23.166 F406.
X19.752 Y23.132
X19.776 Y23.069
X19.823 Y23.02
X19.939 Y22.953
X20.007 Y22.95
X20.132 Y23.012
X20.219 Y23.122
X20.25 Y23.259
G3 X20.217 Y23.339 R0.124 F466.
X19.75 Y23.166 R0.269
G1 Y23.104 F406.
X19.752 Y23.071
X19.782 Y23.01
X19.827 Y22.96
X19.884 Y22.925
X19.949 Y22.906
X20.084 Y22.912
X20.172 Y22.986
X20.23 Y23.086
X20.25 Y23.2
G3 X20.216 Y23.282 R0.124 F466.
X19.75 Y23.104 R0.27
G1 Y23.04 F406.
X19.752 Y23.006
X19.786 Y22.948
X19.836 Y22.902
X19.957 Y22.842
X20.024 Y22.843
X20.141 Y22.908
X20.222 Y23.015
X20.25 Y23.146
G3 X20.209 Y23.233 R0.124 F466.
X19.75 Y23.04 R0.275
G1 Y22.984 F406.
X19.752 Y22.95
X19.788 Y22.893
X19.836 Y22.846
X19.895 Y22.812
X19.96 Y22.795
X20.095 Y22.805
X20.177 Y22.878
X20.231 Y22.975
X20.25 Y23.083
G3 X20.213 Y23.167 R0.124 F466.
X19.75 Y22.984 R0.272
G1 Y22.945 F406.
X19.752 Y22.911
X19.779 Y22.849
X19.826 Y22.801
X19.942 Y22.732
X20.01 Y22.73
X20.134 Y22.791
X20.219 Y22.9
X20.25 Y23.035
G3 X20.219 Y23.113 R0.124 F466.
X19.75 Y22.945 R0.268
G1 Y22.884 F406.
X19.752 Y22.85
X19.784 Y22.79
X19.829 Y22.74
X19.886 Y22.704
X19.951 Y22.685
X20.086 Y22.691
X20.173 Y22.765
X20.23 Y22.864
X20.25 Y22.977
G3 X20.217 Y23.057 R0.124 F466.
X19.75 Y22.884 R0.269
G1 Y22.819 F406.
X19.752 Y22.785
X19.787 Y22.727
X19.887 Y22.637
X19.953 Y22.623
X20.02 Y22.622
X20.139 Y22.686
X20.221 Y22.793
X20.25 Y22.925
G3 X20.21 Y23.012 R0.124 F466.
X19.75 Y22.819 R0.275
G1 Y22.763 F406.
X19.752 Y22.729
X19.783 Y22.669
X19.831 Y22.621
X19.891 Y22.59
X19.956 Y22.574
X20.091 Y22.583
X20.176 Y22.656
X20.231 Y22.754
X20.25 Y22.865
G3 X20.212 Y22.95 R0.124 F466.
X19.75 Y22.763 R0.273
G1 Y22.724 F406.
X19.752 Y22.69
X19.775 Y22.627
X19.822 Y22.579
X19.939 Y22.511
X20.007 Y22.508
X20.132 Y22.57
X20.219 Y22.68
X20.25 Y22.817
G3 X20.217 Y22.897 R0.124 F466.
X19.75 Y22.724 R0.269
G1 Y22.663 F406.
X19.752 Y22.629
X19.781 Y22.568
X19.827 Y22.518
X19.884 Y22.483
X19.949 Y22.464
X20.084 Y22.47
X20.172 Y22.544
X20.23 Y22.645
X20.25 Y22.758
G3 X20.216 Y22.84 R0.124 F466.
X19.75 Y22.663 R0.27
G1 Y22.598 F406.
X19.752 Y22.564
X19.786 Y22.506
X19.836 Y22.461
X19.956 Y22.4
X20.024 Y22.401
X20.141 Y22.466
X20.222 Y22.573
X20.25 Y22.704
G3 X20.209 Y22.792 R0.124 F466.
X19.75 Y22.598 R0.275
G1 Y22.542 F406.
X19.752 Y22.508
X19.788 Y22.451
X19.836 Y22.404
X19.894 Y22.37
X19.96 Y22.353
X20.094 Y22.363
X20.177 Y22.436
X20.231 Y22.533
X20.25 Y22.642
G3 X20.213 Y22.726 R0.124 F466.
X19.75 Y22.542 R0.272
G1 Y22.503 F406.
X19.752 Y22.469
X19.779 Y22.408
X19.826 Y22.359
X19.942 Y22.291
X20.01 Y22.288
X20.134 Y22.349
X20.219 Y22.458
X20.25 Y22.593
G3 X20.219 Y22.671 R0.124 F466.
X19.75 Y22.503 R0.268
G1 Y22.442 F406.
X19.752 Y22.408
X19.784 Y22.349
X19.829 Y22.299
X19.886 Y22.263
X19.951 Y22.244
X20.086 Y22.25
X20.173 Y22.323
X20.23 Y22.422
X20.25 Y22.535
G3 X20.217 Y22.615 R0.124 F466.
X19.75 Y22.442 R0.269
G1 Y22.377 F406.
X19.752 Y22.343
X19.787 Y22.286
X19.887 Y22.195
X19.953 Y22.181
X20.02 Y22.18
X20.139 Y22.244
X20.221 Y22.351
X20.25 Y22.483
G3 X20.21 Y22.571 R0.124 F466.
X19.75 Y22.377 R0.275
G1 Y22.321 F406.
X19.752 Y22.287
X19.783 Y22.228
X19.83 Y22.179
X19.89 Y22.148
X19.956 Y22.132
X20.09 Y22.141
X20.175 Y22.215
X20.231 Y22.312
X20.25 Y22.423
G3 X20.212 Y22.508 R0.124 F466.
X19.75 Y22.321 R0.273
G1 Y22.282 F406.
X19.752 Y22.249
X19.775 Y22.185
X19.822 Y22.137
X19.939 Y22.069
X20.006 Y22.066
X20.132 Y22.128
X20.219 Y22.239
X20.25 Y22.375
G3 X20.217 Y22.455 R0.124 F466.
X19.75 Y22.282 R0.269
G1 Y22.221 F406.
X19.752 Y22.187
X19.781 Y22.127
X19.827 Y22.077
X19.884 Y22.041
X19.949 Y22.022
X20.083 Y22.028
X20.172 Y22.103
X20.23 Y22.203
X20.25 Y22.317
G3 X20.216 Y22.398 R0.124 F466.
X19.75 Y22.221 R0.27
G1 Y22.156 F406.
X19.752 Y22.123
X19.786 Y22.064
X19.835 Y22.019
X19.956 Y21.958
X20.024 Y21.959
X20.141 Y22.024
X20.222 Y22.131
X20.25 Y22.263
G3 X20.209 Y22.35 R0.124 F466.
X19.75 Y22.156 R0.275
G1 Y22.1 F406.
X19.752 Y22.066
X19.788 Y22.009
X19.836 Y21.962
X19.894 Y21.928
X19.96 Y21.911
X20.094 Y21.922
X20.177 Y21.995
X20.231 Y22.091
X20.25 Y22.2
G3 X20.213 Y22.284 R0.124 F466.
X19.75 Y22.1 R0.272
G1 Y22.062 F406.
X19.752 Y22.028
X19.779 Y21.966
X19.826 Y21.917
X19.942 Y21.849
X20.009 Y21.846
X20.134 Y21.908
X20.219 Y22.016
X20.25 Y22.151
G3 X20.219 Y22.229 R0.124 F466.
X19.75 Y22.062 R0.268
G1 Y22. F406.
X19.752 Y21.967
X19.783 Y21.907
X19.829 Y21.857
X19.886 Y21.821
X19.951 Y21.802
X20.085 Y21.808
X20.173 Y21.882
X20.23 Y21.981
X20.25 Y22.093
G3 X20.217 Y22.173 R0.124 F466.
X19.75 Y22. R0.269
G1 Y21.936 F406.
X19.752 Y21.902
X19.787 Y21.844
X19.837 Y21.799
X19.957 Y21.738
X20.025 Y21.739
X20.142 Y21.803
X20.222 Y21.91
X20.25 Y22.04
G3 X20.21 Y22.127 R0.124 F466.
X19.75 Y21.936 R0.274
G1 Y21.879 F406.
X19.752 Y21.846
X19.788 Y21.789
X19.836 Y21.742
X19.895 Y21.708
X19.96 Y21.691
X20.095 Y21.701
X20.178 Y21.774
X20.231 Y21.87
X20.25 Y21.978
G3 X20.214 Y22.061 R0.124 F466.
X19.75 Y21.879 R0.272
G1 Y21.841 F406.
X19.752 Y21.807
X19.779 Y21.745
X19.826 Y21.697
X19.943 Y21.628
X20.01 Y21.626
X20.134 Y21.687
X20.22 Y21.795
X20.25 Y21.93
G3 X20.22 Y22.007 R0.124 F466.
X19.75 Y21.841 R0.268
G1 Y21.779 F406.
X19.752 Y21.746
X19.784 Y21.686
X19.829 Y21.636
X19.886 Y21.601
X19.951 Y21.581
X20.086 Y21.587
X20.173 Y21.661
X20.23 Y21.76
X20.25 Y21.872
G3 X20.218 Y21.951 R0.124 F466.
X19.75 Y21.779 R0.269
G1 Y21.715 F406.
X19.752 Y21.681
X19.787 Y21.623
X19.887 Y21.533
X19.953 Y21.519
X20.02 Y21.518
X20.14 Y21.581
X20.221 Y21.689
X20.25 Y21.82
G3 X20.21 Y21.907 R0.124 F466.
X19.75 Y21.715 R0.275
G1 Y21.659 F406.
X19.752 Y21.625
X19.783 Y21.565
X19.831 Y21.517
X19.891 Y21.486
X19.956 Y21.469
X20.091 Y21.479
X20.176 Y21.552
X20.231 Y21.65
X20.25 Y21.76
G3 X20.212 Y21.845 R0.124 F466.
X19.75 Y21.659 R0.273
G1 Y21.62 F406.
X19.752 Y21.586
X19.775 Y21.523
X19.822 Y21.475
X19.939 Y21.407
X20.007 Y21.404
X20.132 Y21.466
X20.219 Y21.576
X20.25 Y21.713
G3 X20.217 Y21.792 R0.124 F466.
X19.75 Y21.62 R0.269
G1 Y21.559 F406.
X19.752 Y21.525
X19.781 Y21.464
X19.827 Y21.414
X19.884 Y21.379
X19.949 Y21.36
X20.084 Y21.366
X20.172 Y21.44
X20.23 Y21.54
X20.25 Y21.654
G3 X20.216 Y21.735 R0.124 F466.
X19.75 Y21.559 R0.27
G1 Y21.494 F406.
X19.752 Y21.46
X19.786 Y21.402
X19.836 Y21.356
X19.956 Y21.296
X20.024 Y21.297
X20.141 Y21.361
X20.222 Y21.469
X20.25 Y21.6
G3 X20.21 Y21.687 R0.124 F466.
X19.75 Y21.494 R0.275
G1 Y21.438 F406.
X19.752 Y21.404
X19.788 Y21.347
X19.836 Y21.3
X19.894 Y21.266
X19.96 Y21.249
X20.094 Y21.259
X20.177 Y21.332
X20.231 Y21.429
X20.25 Y21.537
G3 X20.213 Y21.621 R0.124 F466.
X19.75 Y21.438 R0.272
G1 Y21.399 F406.
X19.752 Y21.365
X19.779 Y21.304
X19.826 Y21.255
X19.942 Y21.186
X20.01 Y21.184
X20.134 Y21.245
X20.219 Y21.354
X20.25 Y21.489
G3 X20.219 Y21.567 R0.124 F466.
X19.75 Y21.399 R0.268
G1 Y21.338 F406.
X19.752 Y21.304
X19.783 Y21.245
X19.829 Y21.194
X19.886 Y21.159
X19.951 Y21.139
X20.085 Y21.145
X20.173 Y21.219
X20.23 Y21.318
X20.25 Y21.431
G3 X20.217 Y21.511 R0.124 F466.
X19.75 Y21.338 R0.269
G1 Y21.273 F406.
X19.752 Y21.239
X19.787 Y21.182
X19.887 Y21.091
X19.953 Y21.077
X20.02 Y21.076
X20.139 Y21.14
X20.221 Y21.247
X20.25 Y21.379
G3 X20.21 Y21.466 R0.124 F466.
X19.75 Y21.273 R0.275
G1 Y21.217 F406.
X19.752 Y21.183
X19.783 Y21.124
X19.83 Y21.075
X19.89 Y21.044
X19.956 Y21.028
X20.09 Y21.037
X20.175 Y21.11
X20.231 Y21.208
X20.25 Y21.319
G3 X20.212 Y21.404 R0.124 F466.
X19.75 Y21.217 R0.273
G1 Y21.178 F406.
X19.752 Y21.144
X19.775 Y21.081
X19.822 Y21.033
X19.939 Y20.965
X20.006 Y20.962
X20.132 Y21.024
X20.219 Y21.134
X20.25 Y21.271
G3 X20.217 Y21.351 R0.124 F466.
X19.75 Y21.178 R0.269
G1 Y21.117 F406.
X19.752 Y21.083
X19.781 Y21.023
X19.827 Y20.973
X19.884 Y20.937
X19.949 Y20.918
X20.083 Y20.924
X20.172 Y20.998
X20.23 Y21.099
X20.25 Y21.213
G3 X20.216 Y21.294 R0.124 F466.
X19.75 Y21.117 R0.27
G1 Y21.052 F406.
X19.752 Y21.019
X19.786 Y20.96
X19.836 Y20.915
X19.957 Y20.854
X20.024 Y20.855
X20.141 Y20.92
X20.222 Y21.027
X20.25 Y21.158
G3 X20.211 Y21.245 R0.124 F466.
X19.75 Y21.052 R0.274
G1 X19.751 Y20.996 F406.
X19.753 Y20.962
X19.788 Y20.905
X19.836 Y20.858
X19.895 Y20.824
X19.96 Y20.807
X20.095 Y20.818
X20.178 Y20.891
X20.231 Y20.987
X20.25 Y21.095
G3 X20.215 Y21.178 R0.124 F466.
X19.751 Y20.996 R0.271
G1 Y20.957 F406.
X19.753 Y20.924
X19.78 Y20.862
X19.827 Y20.813
X19.943 Y20.745
X20.01 Y20.742
X20.134 Y20.804
X20.22 Y20.912
X20.25 Y21.047
G3 X20.22 Y21.123 R0.124 F466.
X19.751 Y20.957 R0.267
G1 X19.752 Y20.896 F406.
X19.753 Y20.862
X19.785 Y20.803
X19.83 Y20.753
X19.887 Y20.717
X19.952 Y20.698
X20.087 Y20.704
X20.174 Y20.778
X20.23 Y20.876
X20.25 Y20.988
G3 X20.219 Y21.066 R0.124 F466.
X19.752 Y20.896 R0.267
G1 Y20.836 F406.
X19.755 Y20.802
X19.787 Y20.743
X19.836 Y20.697
X19.956 Y20.634
X20.023
X20.141 Y20.698
X20.221 Y20.805
X20.25 Y20.936
G3 X20.216 Y21.017 R0.124 F466.
X19.752 Y20.836 R0.269
G1 X19.754 Y20.778 F406.
X19.756 Y20.745
X19.791 Y20.687
X19.838 Y20.639
X19.896 Y20.605
X19.962 Y20.587
X20.096 Y20.597
X20.178 Y20.67
X20.232 Y20.765
X20.25 Y20.873
G3 X20.219 Y20.951 R0.124 F466.
X19.754 Y20.778 R0.266
G1 Y20.739 F406.
X19.757 Y20.705
X19.783 Y20.643
X19.829 Y20.594
X19.945 Y20.525
X20.013 Y20.522
X20.135 Y20.583
X20.22 Y20.691
X20.25 Y20.825
G3 X20.224 Y20.897 R0.124 F466.
X19.754 Y20.739 R0.263
G1 X19.756 Y20.676 F406.
X19.758 Y20.642
X19.789 Y20.582
X19.834 Y20.532
X19.891 Y20.496
X19.956 Y20.478
X20.091 Y20.485
X20.176 Y20.558
X20.231 Y20.655
X20.25 Y20.765
G3 X20.222 Y20.838 R0.123 F466.
X19.756 Y20.676 R0.263
G1 X19.757 Y20.611 F406.
X19.759 Y20.577
X19.794 Y20.519
X19.844 Y20.474
X19.965 Y20.414
X20.033 Y20.416
X20.146 Y20.48
X20.223 Y20.584
X20.25 Y20.711
G3 X20.216 Y20.792 R0.123 F466.
X19.757 Y20.611 R0.267
G1 X19.758 Y20.554 F406.
X19.761 Y20.521
X19.797 Y20.464
X19.845 Y20.417
X19.904 Y20.384
X19.969 Y20.367
X20.104 Y20.379
X20.182 Y20.45
X20.233 Y20.542
X20.25 Y20.646
G3 X20.221 Y20.722 R0.123 F466.
X19.758 Y20.554 R0.263
G1 X19.759 Y20.516 F406.
X19.761 Y20.482
X19.789 Y20.42
X19.836 Y20.372
X19.953 Y20.305
X20.02 Y20.303
X20.139 Y20.363
X20.221 Y20.468
X20.25 Y20.598
G3 X20.226 Y20.667 R0.123 F466.
X19.759 Y20.516 R0.259
G1 X19.76 Y20.454 F406.
X19.763 Y20.421
X19.794 Y20.361
X19.84 Y20.312
X19.897 Y20.276
X19.962 Y20.258
X20.097 Y20.266
X20.179 Y20.337
X20.232 Y20.431
X20.25 Y20.538
G3 X20.225 Y20.607 R0.122 F466.
X19.76 Y20.454 R0.259
G1 X19.762 Y20.39 F406.
X19.764 Y20.356
X19.799 Y20.298
X19.849 Y20.253
X19.971 Y20.194
X20.038 Y20.196
X20.149 Y20.259
X20.223 Y20.361
X20.25 Y20.485
G3 X20.219 Y20.562 R0.122 F466.
X19.762 Y20.39 R0.262
G1 X19.763 Y20.334 F406.
X19.765 Y20.3
X19.802 Y20.243
X19.851 Y20.196
X19.91 Y20.164
X19.975 Y20.147
X20.11 Y20.16
X20.181 Y20.224
X20.229 Y20.308
X20.249 Y20.402
G3 X20.229 Y20.471 R0.121 F466.
X19.763 Y20.334 R0.254
G1 X19.764 Y20.295 F406.
X19.766 Y20.261
X19.794 Y20.2
X19.841 Y20.152
X19.959 Y20.085
X20.026 Y20.083
X20.136 Y20.138
X20.214 Y20.233
X20.246 Y20.352
G3 X20.231 Y20.412 R0.12 F466.
X19.764 Y20.295 R0.249
G1 X19.765 Y20.234 F406.
X19.766 Y20.206
X19.773 Y20.173
X19.813 Y20.119
X19.864 Y20.074
X19.926 Y20.046
X19.992 Y20.037
X20.117 Y20.084
X20.207 Y20.181
X20.244 Y20.309
G3 X20.204 Y20.4 R0.119 F466.
X19.766 Y20.206 R0.263
G1 X19.772 Y20.169 F406.
X19.785 Y20.103
X19.829 Y20.051
X19.885 Y20.015
X19.95 Y19.995
X20.085 Y19.996
X20.164 Y20.06
X20.218 Y20.147
X20.241 Y20.247
G3 X20.23 Y20.299 R0.119 F466.
X19.772 Y20.169 R0.241
G1 X19.786 Y20.074 F406.
X19.793 Y20.041
X19.841 Y19.994
X19.961 Y19.932
X20.029 Y19.931
X20.123 Y19.979
X20.194 Y20.058
X20.23 Y20.157
G3 X20.21 Y20.239 R0.114 F466.
X19.786 Y20.074 R0.235
G1 X19.796 Y20.013 F406.
X19.8 Y19.985
X19.803 Y19.962
X19.809 Y19.942
G3 X19.929 Y20.033 R0.08 F466.
G1 X19.893 Y20.142
X19.843 Y20.291
G2 X20.033 Y20.354 R0.1
X19.971 Y20.228 R0.1
G3 X19.803 Y19.962 R0.25
G1 X19.809 Y19.939 F406.
X19.818 Y19.916
X19.83 Y19.893
X19.884 Y19.836
G3 X19.862 Y19.995 R0.08 F466.
X19.811 Y19.966 R0.08
G1 X19.81 Y19.967
X19.812
G3 X19.83 Y19.893 R0.191
G1 X19.884 Y19.836 F406.
X19.902 Y19.826
X19.937 Y19.809
X19.973 Y19.802
X19.995 Y19.799
G3 X19.992 Y19.973 R0.087 F466.
X19.944 Y19.815 R0.087
X19.973 Y19.802 R0.09
G1 X20.001 Y19.799 F406.
X20.028 Y19.802
X20.056 Y19.807
X20.146 Y19.863
G3 X19.921 Y20.028 R0.14 F466.
X19.898 Y19.912 R0.14
X20.056 Y19.807 R0.14
G1 X20.123 Y19.843 F406.
X20.163 Y19.884
X20.194 Y19.95
X20.238 Y20.206
X20.25 Y20.426
Y20.647
G3 X20.241 Y20.741 R0.8 F466.
G1 X20.208 Y20.958
X19.801 Y23.602
G2 X20.044 Y23.943 R0.3
G3 X20.25 Y24.181 R0.25
G1 Y24.494 F406.
X20.247 Y24.561
X20.215 Y24.621
X20.166 Y24.668
X20.049 Y24.735
X19.914
X19.827 Y24.665
X19.77 Y24.569
X19.75 Y24.459
G3 X19.756 Y24.426 R0.125 F466.
X20.25 Y24.494 R0.253
G1 Y24.56 F406.
X20.247 Y24.616
X20.214 Y24.675
X20.169 Y24.725
X20.055 Y24.799
X19.988 Y24.803
X19.865 Y24.743
X19.78 Y24.636
X19.75 Y24.503
G3 X19.764 Y24.45 R0.125 F466.
X20.25 Y24.56 R0.258
G1 Y24.622 F406.
X20.239 Y24.689
X20.204 Y24.746
X20.158 Y24.796
X20.1 Y24.83
X20.034 Y24.847
X19.9 Y24.837
X19.82 Y24.766
X19.768 Y24.673
X19.75 Y24.567
G3 X19.763 Y24.516 R0.125 F466.
X20.25 Y24.622 R0.257
G1 X20.24 Y24.715 F406.
X20.234 Y24.748
X20.201 Y24.807
X20.15 Y24.851
X20.028 Y24.91
X19.961 Y24.908
X19.851 Y24.846
X19.776 Y24.744
X19.75 Y24.62
G3 X19.77 Y24.557 R0.124 F466.
X20.24 Y24.715 R0.256
G1 X20.232 Y24.781 F406.
X20.227 Y24.814
X20.187 Y24.869
X20.138 Y24.914
X20.077 Y24.944
X20.011 Y24.957
X19.877 Y24.94
X19.818 Y24.884
X19.776 Y24.815
X19.753 Y24.737
G3 X19.759 Y24.686 R0.121 F466.
X20.232 Y24.781 R0.243
G1 X20.229 Y24.815 F406.
X20.218 Y24.882
X20.176 Y24.935
X20.066 Y25.013
X19.926 Y24.992
X19.814 Y24.906
X19.759 Y24.775
G3 X19.763 Y24.728 R0.119 F466.
X20.229 Y24.815 R0.238
G1 X20.216 Y24.907 F406.
X20.209 Y24.94
X20.17 Y24.995
X20.117 Y25.036
X20.052 Y25.053
X19.984 Y25.056
X19.88 Y25.006
X19.803 Y24.921
X19.764 Y24.812
G3 X19.79 Y24.725 R0.116 F466.
X20.216 Y24.907 R0.241
G1 X20.209 Y24.951 F406.
X20.203 Y24.983
X20.169 Y25.041
X20.113 Y25.079
X20.049 Y25.1
X19.92 Y25.066
X19.819 Y24.977
X19.77 Y24.853
G3 X19.799 Y24.764 R0.113 F466.
X20.209 Y24.951 R0.237
G1 X20.199 Y25.02 F406.
X20.194 Y25.052
X20.19 Y25.064
X20.178 Y25.088
X20.122 Y25.125
X19.989 Y25.151
X19.888 Y25.095
X19.814 Y25.006
X19.776 Y24.897
G3 X19.833 Y24.784 R0.116 F466.
X20.19 Y25.064 R0.244
G1 X20.177 Y25.094 F406.
X20.168 Y25.109
X20.158 Y25.123
X20.139 Y25.144
X20.12 Y25.16
X20.081 Y25.183
X20.068 Y25.189
X20.054 Y25.193
X20.027 Y25.198
X20. Y25.201
X19.973 Y25.198
X19.953 Y25.195
X19.943 Y25.192
X19.927 Y25.186
G3 X19.982 Y25.089 R0.056 F466.
X19.968 Y25.192 R0.056
G1 X19.943
X19.91 Y25.177 F406.
X19.892 Y25.168
X19.878 Y25.159
X19.837 Y25.116
X19.81 Y25.064
X19.769 Y24.843
X19.752 Y24.731
X19.75 Y24.406
X19.761 Y24.349 Z-28.484 F466.
X19.772 Y24.295 Z-28.468
X19.782 Y24.243 Z-28.442
X19.791 Y24.198 Z-28.407
X19.798 Y24.16 Z-28.363
X19.811 Y24.129 Z-28.306
X19.819 Y24.109 Z-28.242
X19.822 Y24.103 Z-28.176
G0 Z2.
X20.081 Y63.719
Z-11.19
G1 Z-11.99 F466.
G3 X19.919 Y64.139 Z-12.115 R0.225
X20.081 Y63.719 Z-12.239 R0.225
X19.919 Y64.139 Z-12.364 R0.225
X20.081 Y63.719 Z-12.489 R0.225
X19.919 Y64.139 Z-12.613 R0.225
X20.081 Y63.719 Z-12.738 R0.225
X19.919 Y64.139 Z-12.862 R0.225
X20.081 Y63.719 Z-12.987 R0.225
X19.919 Y64.139 Z-13.112 R0.225
X20.081 Y63.719 Z-13.236 R0.225
X19.919 Y64.139 Z-13.361 R0.225
X20.081 Y63.719 Z-13.486 R0.225
X19.919 Y64.139 Z-13.61 R0.225
X20.081 Y63.719 Z-13.735 R0.225
X19.919 Y64.139 Z-13.86 R0.225
X20.081 Y63.719 Z-13.984 R0.225
X19.919 Y64.139 Z-14.109 R0.225
X20.081 Y63.719 Z-14.233 R0.225
X19.919 Y64.139 Z-14.358 R0.225
X20.081 Y63.719 Z-14.483 R0.225
X19.919 Y64.139 Z-14.607 R0.225
X20.081 Y63.719 Z-14.732 R0.225
X19.919 Y64.139 Z-14.857 R0.225
X20.081 Y63.719 Z-14.981 R0.225
X19.919 Y64.139 Z-15.106 R0.225
X20.081 Y63.719 Z-15.231 R0.225
X19.919 Y64.139 Z-15.355 R0.225
X20.081 Y63.719 Z-15.48 R0.225
X19.919 Y64.139 Z-15.605 R0.225
X20.081 Y63.719 Z-15.729 R0.225
X19.919 Y64.139 Z-15.854 R0.225
X20.081 Y63.719 Z-15.978 R0.225
X19.919 Y64.139 Z-16.103 R0.225
X20.081 Y63.719 Z-16.228 R0.225
X19.919 Y64.139 Z-16.352 R0.225
X20.081 Y63.719 Z-16.477 R0.225
X19.919 Y64.139 Z-16.602 R0.225
X20.081 Y63.719 Z-16.726 R0.225
X19.919 Y64.139 Z-16.851 R0.225
X20.081 Y63.719 Z-16.976 R0.225
X19.919 Y64.139 Z-17.1 R0.225
X20.081 Y63.719 Z-17.225 R0.225
X19.919 Y64.139 Z-17.349 R0.225
X20.081 Y63.719 Z-17.474 R0.225
X19.919 Y64.139 Z-17.599 R0.225
X20.081 Y63.719 Z-17.723 R0.225
X19.919 Y64.139 Z-17.848 R0.225
X20.081 Y63.719 Z-17.973 R0.225
X19.919 Y64.139 Z-18.097 R0.225
X20.081 Y63.719 Z-18.222 R0.225
X19.919 Y64.139 Z-18.347 R0.225
X20.081 Y63.719 Z-18.471 R0.225
X19.919 Y64.139 Z-18.596 R0.225
X20.081 Y63.719 Z-18.72 R0.225
X19.919 Y64.139 Z-18.845 R0.225
X20.081 Y63.719 Z-18.97 R0.225
X19.919 Y64.139 Z-19.094 R0.225
X20.081 Y63.719 Z-19.219 R0.225
X19.919 Y64.139 Z-19.344 R0.225
X20.081 Y63.719 Z-19.468 R0.225
X19.919 Y64.139 Z-19.593 R0.225
X20.081 Y63.719 Z-19.718 R0.225
X19.919 Y64.139 Z-19.842 R0.225
X20.081 Y63.719 Z-19.967 R0.225
X19.919 Y64.139 Z-20.091 R0.225
X20.081 Y63.719 Z-20.216 R0.225
X19.919 Y64.139 Z-20.341 R0.225
X20.081 Y63.719 Z-20.465 R0.225
X19.919 Y64.139 Z-20.59 R0.225
X20.081 Y63.719 Z-20.715 R0.225
X19.919 Y64.139 Z-20.839 R0.225
X20.081 Y63.719 Z-20.964 R0.225
X19.919 Y64.139 Z-21.089 R0.225
X20.081 Y63.719 Z-21.213 R0.225
X19.919 Y64.139 Z-21.338 R0.225
X20.081 Y63.719 Z-21.463 R0.225
X19.919 Y64.139 Z-21.587 R0.225
X20.081 Y63.719 Z-21.712 R0.225
X19.919 Y64.139 Z-21.836 R0.225
X20.081 Y63.719 Z-21.961 R0.225
X19.919 Y64.139 Z-22.086 R0.225
X20.081 Y63.719 Z-22.21 R0.225
X19.919 Y64.139 Z-22.335 R0.225
X20.081 Y63.719 Z-22.46 R0.225
X19.919 Y64.139 Z-22.584 R0.225
X20.081 Y63.719 Z-22.709 R0.225
X19.919 Y64.139 Z-22.834 R0.225
X20.081 Y63.719 Z-22.958 R0.225
X19.919 Y64.139 Z-23.083 R0.225
X20.081 Y63.719 Z-23.207 R0.225
X19.919 Y64.139 Z-23.332 R0.225
X20.081 Y63.719 Z-23.457 R0.225
X19.919 Y64.139 Z-23.581 R0.225
X20.081 Y63.719 Z-23.706 R0.225
X19.919 Y64.139 Z-23.831 R0.225
X20.081 Y63.719 Z-23.955 R0.225
X19.919 Y64.139 Z-24.08 R0.225
X20.081 Y63.719 Z-24.205 R0.225
X19.919 Y64.139 Z-24.329 R0.225
X20.081 Y63.719 Z-24.454 R0.225
X19.919 Y64.139 Z-24.578 R0.225
X20.081 Y63.719 Z-24.703 R0.225
X19.919 Y64.139 Z-24.828 R0.225
X20.081 Y63.719 Z-24.952 R0.225
X19.919 Y64.139 Z-25.077 R0.225
X20.081 Y63.719 Z-25.202 R0.225
X19.919 Y64.139 Z-25.326 R0.225
X20.081 Y63.719 Z-25.451 R0.225
X19.919 Y64.139 Z-25.576 R0.225
X20.081 Y63.719 Z-25.7 R0.225
X19.919 Y64.139 Z-25.825 R0.225
X20.081 Y63.719 Z-25.949 R0.225
X19.919 Y64.139 Z-26.074 R0.225
X20.081 Y63.719 Z-26.199 R0.225
X19.919 Y64.139 Z-26.323 R0.225
X20.081 Y63.719 Z-26.448 R0.225
X19.919 Y64.139 Z-26.573 R0.225
X20.081 Y63.719 Z-26.697 R0.225
X19.919 Y64.139 Z-26.822 R0.225
X20.081 Y63.719 Z-26.947 R0.225
X19.919 Y64.139 Z-27.071 R0.225
X20.081 Y63.719 Z-27.196 R0.225
X19.919 Y64.139 Z-27.32 R0.225
X20.081 Y63.719 Z-27.445 R0.225
X19.919 Y64.139 Z-27.57 R0.225
X20.081 Y63.719 Z-27.694 R0.225
X19.919 Y64.139 Z-27.819 R0.225
X20.081 Y63.719 Z-27.944 R0.225
X19.919 Y64.139 Z-28.068 R0.225
X20.081 Y63.719 Z-28.193 R0.225
X19.919 Y64.139 Z-28.318 R0.225
X20.081 Y63.719 Z-28.442 R0.225
X20.225 Y63.929 Z-28.49 R0.225
X19.775 R0.225
X20.225 R0.225
G1 X20.237 Y63.98 F406.
X20.231 Y64.047
X20.198 Y64.106
X20.15 Y64.153
X20.091 Y64.185
X20.025 Y64.201
X19.957 Y64.199
X19.892 Y64.181
X19.817 Y64.118
X19.767 Y64.032
X19.75 Y63.934
Y63.893
X19.753 Y63.825
X19.785 Y63.766
X19.831 Y63.716
X19.888 Y63.68
X19.953 Y63.66
X20.02 Y63.656
X20.086 Y63.669
X20.173 Y63.732
X20.23 Y63.823
X20.25 Y63.928
G3 X20.244 Y63.962 R0.125 F466.
X19.75 Y63.893 R0.253
G1 Y63.798 F406.
X19.752 Y63.764
X19.786 Y63.706
X19.835 Y63.66
X19.894 Y63.627
X19.96 Y63.61
X20.027 Y63.606
X20.142 Y63.663
X20.222 Y63.763
X20.25 Y63.888
G3 X20.219 Y63.966 R0.124 F466.
X20.017 Y64.057 R0.268
X19.75 Y63.798 R0.268
G1 Y63.737 F406.
X19.752 Y63.703
X19.79 Y63.647
X19.841 Y63.604
X19.902 Y63.573
X19.967 Y63.558
X20.102 Y63.566
X20.181 Y63.635
X20.232 Y63.727
X20.25 Y63.83
G3 X20.217 Y63.91 R0.124 F466.
X19.75 Y63.737 R0.269
G1 Y63.672 F406.
X19.752 Y63.638
X19.794 Y63.586
X19.902 Y63.505
X20.035 Y63.48
X20.147 Y63.548
X20.223 Y63.655
X20.25 Y63.783
G3 X20.206 Y63.873 R0.124 F466.
X19.75 Y63.672 R0.277
G1 Y63.616 F406.
X19.752 Y63.582
X19.829 Y63.471
X19.89 Y63.443
X19.956 Y63.427
X20.091 Y63.439
X20.176 Y63.513
X20.231 Y63.611
X20.25 Y63.722
G3 X20.209 Y63.81 R0.124 F466.
X19.75 Y63.616 R0.275
G1 Y63.577 F406.
X19.752 Y63.543
X19.774 Y63.479
X19.821 Y63.431
X19.938 Y63.364
X20.006 Y63.362
X20.132 Y63.425
X20.219 Y63.537
X20.25 Y63.674
G3 X20.215 Y63.756 R0.124 F466.
X19.75 Y63.577 R0.271
G1 Y63.516 F406.
X19.752 Y63.482
X19.781 Y63.421
X19.826 Y63.371
X19.884 Y63.336
X19.949 Y63.317
X20.083 Y63.325
X20.172 Y63.4
X20.23 Y63.5
X20.25 Y63.614
G3 X20.214 Y63.698 R0.124 F466.
X19.75 Y63.516 R0.272
G1 Y63.451 F406.
X19.752 Y63.417
X19.785 Y63.359
X19.836 Y63.314
X19.957 Y63.254
X20.024 Y63.255
X20.142 Y63.32
X20.222 Y63.428
X20.25 Y63.559
G3 X20.208 Y63.648 R0.124 F466.
X19.75 Y63.451 R0.276
G1 Y63.395 F406.
X19.752 Y63.361
X19.788 Y63.304
X19.836 Y63.257
X19.895 Y63.224
X19.96 Y63.207
X20.095 Y63.218
X20.178 Y63.291
X20.231 Y63.387
X20.25 Y63.496
G3 X20.212 Y63.581 R0.124 F466.
X19.75 Y63.395 R0.273
G1 Y63.356 F406.
X19.752 Y63.322
X19.779 Y63.261
X19.826 Y63.212
X19.943 Y63.144
X20.01 Y63.142
X20.134 Y63.204
X20.22 Y63.313
X20.25 Y63.447
G3 X20.218 Y63.526 R0.124 F466.
X19.75 Y63.356 R0.269
G1 Y63.295 F406.
X19.752 Y63.261
X19.784 Y63.202
X19.829 Y63.152
X19.887 Y63.116
X19.951 Y63.097
X20.086 Y63.104
X20.173 Y63.178
X20.23 Y63.277
X20.25 Y63.389
G3 X20.217 Y63.469 R0.124 F466.
X19.75 Y63.295 R0.27
G1 Y63.23 F406.
X19.752 Y63.196
X19.787 Y63.139
X19.887 Y63.049
X19.953 Y63.035
X20.021 Y63.034
X20.14 Y63.098
X20.221 Y63.205
X20.25 Y63.337
G3 X20.209 Y63.425 R0.124 F466.
X19.75 Y63.23 R0.275
G1 Y63.174 F406.
X19.752 Y63.14
X19.784 Y63.081
X19.831 Y63.033
X19.891 Y63.002
X19.957 Y62.986
X20.091 Y62.995
X20.176 Y63.069
X20.231 Y63.166
X20.25 Y63.276
G3 X20.212 Y63.362 R0.124 F466.
X19.75 Y63.174 R0.273
G1 Y63.135 F406.
X19.752 Y63.102
X19.776 Y63.039
X19.823 Y62.99
X19.94 Y62.923
X20.007 Y62.92
X20.133 Y62.982
X20.219 Y63.092
X20.25 Y63.229
G3 X20.217 Y63.309 R0.124 F466.
X19.75 Y63.135 R0.269
G1 Y63.074 F406.
X19.752 Y63.04
X19.782 Y62.98
X19.827 Y62.93
X19.885 Y62.894
X19.949 Y62.876
X20.084 Y62.882
X20.172 Y62.956
X20.23 Y63.056
X20.25 Y63.17
G3 X20.216 Y63.252 R0.124 F466.
X19.75 Y63.074 R0.27
G1 Y63.009 F406.
X19.752 Y62.976
X19.786 Y62.918
X19.836 Y62.872
X19.957 Y62.812
X20.024 Y62.813
X20.142 Y62.878
X20.222 Y62.985
X20.25 Y63.116
G3 X20.209 Y63.203 R0.124 F466.
X19.75 Y63.009 R0.275
G1 Y62.953 F406.
X19.752 Y62.919
X19.788 Y62.863
X19.836 Y62.815
X19.895 Y62.782
X19.96 Y62.765
X20.095 Y62.776
X20.178 Y62.848
X20.231 Y62.945
X20.25 Y63.053
G3 X20.213 Y63.137 R0.124 F466.
X19.75 Y62.953 R0.272
G1 Y62.914 F406.
X19.752 Y62.881
X19.779 Y62.819
X19.826 Y62.771
X19.943 Y62.702
X20.01 Y62.7
X20.134 Y62.761
X20.22 Y62.87
X20.25 Y63.005
G3 X20.219 Y63.082 R0.124 F466.
X20.017 Y63.173 R0.268
X19.922 Y63.156 R0.268
X19.75 Y62.914 R0.268
G1 Y62.853 F406.
X19.752 Y62.82
X19.784 Y62.76
X19.829 Y62.71
X19.886 Y62.674
X19.951 Y62.655
X20.086 Y62.662
X20.173 Y62.735
X20.23 Y62.834
X20.25 Y62.946
G3 X20.217 Y63.026 R0.124 F466.
X19.75 Y62.853 R0.269
G1 Y62.789 F406.
X19.752 Y62.755
X19.787 Y62.697
X19.887 Y62.607
X19.953 Y62.593
X20.021 Y62.592
X20.14 Y62.656
X20.221 Y62.763
X20.25 Y62.895
G3 X20.209 Y62.982 R0.124 F466.
X20.012 Y63.053 R0.275
X19.92 Y63.033 R0.275
X19.75 Y62.789 R0.275
G1 Y62.732 F406.
X19.752 Y62.699
X19.783 Y62.639
X19.831 Y62.591
X19.891 Y62.56
X19.956 Y62.544
X20.091 Y62.553
X20.176 Y62.626
X20.231 Y62.724
X20.25 Y62.834
G3 X20.212 Y62.919 R0.124 F466.
X20.013 Y62.996 R0.273
X19.75 Y62.732 R0.273
G1 Y62.694 F406.
X19.752 Y62.66
X19.776 Y62.597
X19.823 Y62.548
X19.939 Y62.481
X20.007 Y62.478
X20.132 Y62.54
X20.219 Y62.65
X20.25 Y62.787
G3 X20.217 Y62.867 R0.124 F466.
X19.75 Y62.694 R0.269
G1 Y62.632 F406.
X19.752 Y62.599
X19.782 Y62.538
X19.827 Y62.488
X19.884 Y62.453
X19.949 Y62.434
X20.084 Y62.44
X20.172 Y62.514
X20.23 Y62.614
X20.25 Y62.728
G3 X20.216 Y62.81 R0.124 F466.
X19.75 Y62.632 R0.27
G1 Y62.568 F406.
X19.752 Y62.534
X19.786 Y62.476
X19.836 Y62.43
X19.957 Y62.37
X20.024 Y62.371
X20.141 Y62.436
X20.222 Y62.543
X20.25 Y62.674
G3 X20.209 Y62.761 R0.124 F466.
X19.75 Y62.568 R0.275
G1 Y62.512 F406.
X19.752 Y62.478
X19.788 Y62.421
X19.836 Y62.374
X19.895 Y62.34
X19.96 Y62.323
X20.095 Y62.333
X20.177 Y62.406
X20.231 Y62.503
X20.25 Y62.611
G3 X20.213 Y62.695 R0.124 F466.
X19.75 Y62.512 R0.272
G1 Y62.473 F406.
X19.752 Y62.439
X19.779 Y62.377
X19.826 Y62.329
X19.942 Y62.26
X20.01 Y62.258
X20.134 Y62.319
X20.219 Y62.428
X20.25 Y62.563
G3 X20.219 Y62.641 R0.124 F466.
X19.75 Y62.473 R0.268
G1 Y62.412 F406.
X19.752 Y62.378
X19.784 Y62.318
X19.829 Y62.268
X19.886 Y62.233
X19.951 Y62.213
X20.086 Y62.22
X20.173 Y62.293
X20.23 Y62.392
X20.25 Y62.505
G3 X20.217 Y62.585 R0.124 F466.
X19.75 Y62.412 R0.269
G1 Y62.347 F406.
X19.752 Y62.313
X19.787 Y62.255
X19.887 Y62.165
X19.953 Y62.151
X20.02 Y62.15
X20.139 Y62.214
X20.221 Y62.321
X20.25 Y62.453
G3 X20.21 Y62.54 R0.124 F466.
X19.75 Y62.347 R0.275
G1 Y62.291 F406.
X19.752 Y62.257
X19.783 Y62.197
X19.831 Y62.149
X19.891 Y62.118
X19.956 Y62.102
X20.091 Y62.111
X20.176 Y62.184
X20.231 Y62.282
X20.25 Y62.393
G3 X20.212 Y62.478 R0.124 F466.
X19.75 Y62.291 R0.273
G1 Y62.252 F406.
X19.752 Y62.218
X19.775 Y62.155
X19.822 Y62.107
X19.939 Y62.039
X20.007 Y62.036
X20.132 Y62.098
X20.219 Y62.208
X20.25 Y62.345
G3 X20.217 Y62.425 R0.124 F466.
X19.75 Y62.252 R0.269
G1 Y62.191 F406.
X19.752 Y62.157
X19.781 Y62.096
X19.827 Y62.046
X19.884 Y62.011
X19.949 Y61.992
X20.084 Y61.998
X20.172 Y62.072
X20.23 Y62.173
X20.25 Y62.287
G3 X20.216 Y62.368 R0.124 F466.
X19.75 Y62.191 R0.27
G1 Y62.126 F406.
X19.752 Y62.092
X19.786 Y62.034
X19.836 Y61.989
X19.956 Y61.928
X20.024 Y61.929
X20.141 Y61.994
X20.222 Y62.101
X20.25 Y62.232
G3 X20.209 Y62.32 R0.124 F466.
X19.75 Y62.126 R0.275
G1 Y62.07 F406.
X19.752 Y62.036
X19.788 Y61.979
X19.836 Y61.932
X19.894 Y61.898
X19.96 Y61.881
X20.094 Y61.891
X20.177 Y61.964
X20.231 Y62.061
X20.25 Y62.17
G3 X20.213 Y62.254 R0.124 F466.
X19.75 Y62.07 R0.272
G1 Y62.031 F406.
X19.752 Y61.997
X19.779 Y61.936
X19.826 Y61.887
X19.942 Y61.819
X20.01 Y61.816
X20.134 Y61.877
X20.219 Y61.986
X20.25 Y62.121
G3 X20.219 Y62.199 R0.124 F466.
X19.75 Y62.031 R0.268
G1 Y61.97 F406.
X19.752 Y61.936
X19.784 Y61.877
X19.829 Y61.827
X19.886 Y61.791
X19.951 Y61.772
X20.086 Y61.778
X20.173 Y61.851
X20.23 Y61.95
X20.25 Y62.063
G3 X20.217 Y62.143 R0.124 F466.
X19.75 Y61.97 R0.269
G1 Y61.905 F406.
X19.752 Y61.872
X19.787 Y61.814
X19.887 Y61.723
X19.953 Y61.709
X20.02 Y61.708
X20.139 Y61.772
X20.221 Y61.879
X20.25 Y62.011
G3 X20.21 Y62.099 R0.124 F466.
X19.75 Y61.905 R0.275
G1 Y61.849 F406.
X19.752 Y61.815
X19.783 Y61.756
X19.83 Y61.707
X19.89 Y61.676
X19.956 Y61.66
X20.09 Y61.669
X20.175 Y61.743
X20.231 Y61.84
X20.25 Y61.951
G3 X20.212 Y62.036 R0.124 F466.
X19.75 Y61.849 R0.273
G1 Y61.81 F406.
X19.752 Y61.777
X19.775 Y61.713
X19.822 Y61.665
X19.939 Y61.597
X20.006 Y61.594
X20.132 Y61.656
X20.219 Y61.767
X20.25 Y61.903
G3 X20.217 Y61.983 R0.124 F466.
X19.75 Y61.81 R0.269
G1 Y61.749 F406.
X19.752 Y61.715
X19.781 Y61.655
X19.827 Y61.605
X19.884 Y61.569
X19.949 Y61.55
X20.083 Y61.556
X20.172 Y61.631
X20.23 Y61.731
X20.25 Y61.845
G3 X20.216 Y61.926 R0.124 F466.
X19.75 Y61.749 R0.27
G1 Y61.684 F406.
X19.752 Y61.651
X19.786 Y61.592
X19.835 Y61.547
X19.956 Y61.486
X20.024 Y61.487
X20.141 Y61.552
X20.222 Y61.659
X20.25 Y61.791
G3 X20.209 Y61.878 R0.124 F466.
X19.75 Y61.684 R0.275
G1 Y61.628 F406.
X19.752 Y61.595
X19.788 Y61.537
X19.836 Y61.49
X19.894 Y61.456
X19.96 Y61.439
X20.094 Y61.45
X20.177 Y61.523
X20.231 Y61.619
X20.25 Y61.728
G3 X20.213 Y61.812 R0.124 F466.
X19.75 Y61.628 R0.272
G1 Y61.59 F406.
X19.752 Y61.556
X19.779 Y61.494
X19.826 Y61.445
X19.942 Y61.377
X20.009 Y61.374
X20.134 Y61.436
X20.219 Y61.544
X20.25 Y61.679
G3 X20.219 Y61.757 R0.124 F466.
X19.75 Y61.59 R0.268
G1 Y61.528 F406.
X19.752 Y61.495
X19.783 Y61.435
X19.829 Y61.385
X19.886 Y61.349
X19.951 Y61.33
X20.085 Y61.336
X20.173 Y61.41
X20.23 Y61.509
X20.25 Y61.621
G3 X20.217 Y61.701 R0.124 F466.
X19.75 Y61.528 R0.269
G1 Y61.464 F406.
X19.752 Y61.43
X19.787 Y61.372
X19.837 Y61.327
X19.957 Y61.266
X20.025 Y61.267
X20.142 Y61.331
X20.222 Y61.438
X20.25 Y61.568
G3 X20.21 Y61.655 R0.124 F466.
X19.75 Y61.464 R0.274
G1 Y61.407 F406.
X19.752 Y61.374
X19.788 Y61.317
X19.836 Y61.27
X19.895 Y61.236
X19.96 Y61.219
X20.095 Y61.229
X20.178 Y61.302
X20.231 Y61.398
X20.25 Y61.506
G3 X20.214 Y61.589 R0.124 F466.
X19.75 Y61.407 R0.272
G1 Y61.369 F406.
X19.752 Y61.335
X19.779 Y61.273
X19.826 Y61.225
X19.943 Y61.157
X20.01 Y61.154
X20.134 Y61.215
X20.22 Y61.323
X20.25 Y61.458
G3 X20.22 Y61.535 R0.124 F466.
X19.75 Y61.369 R0.268
G1 Y61.307 F406.
X19.752 Y61.274
X19.784 Y61.214
X19.829 Y61.164
X19.886 Y61.129
X19.951 Y61.109
X20.086 Y61.115
X20.173 Y61.189
X20.23 Y61.288
X20.25 Y61.4
G3 X20.218 Y61.479 R0.124 F466.
X19.75 Y61.307 R0.269
G1 Y61.243 F406.
X19.752 Y61.209
X19.787 Y61.151
X19.887 Y61.061
X19.953 Y61.047
X20.02 Y61.046
X20.14 Y61.109
X20.221 Y61.217
X20.25 Y61.348
G3 X20.21 Y61.436 R0.124 F466.
X19.75 Y61.243 R0.275
G1 Y61.187 F406.
X19.752 Y61.153
X19.783 Y61.093
X19.831 Y61.045
X19.891 Y61.014
X19.956 Y60.997
X20.091 Y61.007
X20.176 Y61.08
X20.231 Y61.178
X20.25 Y61.288
G3 X20.212 Y61.373 R0.124 F466.
X19.75 Y61.187 R0.273
G1 Y61.148 F406.
X19.752 Y61.114
X19.775 Y61.051
X19.822 Y61.003
X19.939 Y60.935
X20.007 Y60.932
X20.132 Y60.994
X20.219 Y61.104
X20.25 Y61.241
G3 X20.217 Y61.32 R0.124 F466.
X19.75 Y61.148 R0.269
G1 Y61.087 F406.
X19.752 Y61.053
X19.781 Y60.992
X19.827 Y60.942
