(__40_80)
(T2  D=8. CR=0. - ZMIN=-28.496 - FLAT END MILL)
G90 G94 G91.1 G40 G49 G17
G21

(2D POCKET1)
M5
M9
T2
S3640 M3
G54
M8
G0 X-20.993 Y20.438
G43 Z4. H2
Z2.
G1 Z0.5 F466.
G3 X-20.006 Y20.6 Z0.223 R0.5
X-20.993 Y20.438 Z-0.054 R0.5
X-20.006 Y20.6 Z-0.331 R0.5
X-20.993 Y20.438 Z-0.608 R0.5
X-20.006 Y20.6 Z-0.885 R0.5
X-20.993 Y20.438 Z-1.162 R0.5
X-20.006 Y20.6 Z-1.439 R0.5
X-20.993 Y20.438 Z-1.716 R0.5
X-20.006 Y20.6 Z-1.993 R0.5
X-20.993 Y20.438 Z-2.27 R0.5
X-20.006 Y20.6 Z-2.547 R0.5
X-20.993 Y20.438 Z-2.824 R0.5
X-20.006 Y20.6 Z-3.101 R0.5
X-20.993 Y20.438 Z-3.378 R0.5
X-20.006 Y20.6 Z-3.655 R0.5
X-20.993 Y20.438 Z-3.932 R0.5
X-20.006 Y20.6 Z-4.209 R0.5
X-20.993 Y20.438 Z-4.486 R0.5
X-20.006 Y20.6 Z-4.763 R0.5
X-20.993 Y20.438 Z-5.039 R0.5
X-20.006 Y20.6 Z-5.316 R0.5
X-20.993 Y20.438 Z-5.593 R0.5
X-20.006 Y20.6 Z-5.87 R0.5
X-20.993 Y20.438 Z-6.147 R0.5
X-20.006 Y20.6 Z-6.424 R0.5
X-20.993 Y20.438 Z-6.701 R0.5
X-20.006 Y20.6 Z-6.978 R0.5
X-20.993 Y20.438 Z-7.255 R0.5
X-20.006 Y20.6 Z-7.532 R0.5
X-20.993 Y20.438 Z-7.809 R0.5
X-20.006 Y20.6 Z-8.086 R0.5
X-20.993 Y20.438 Z-8.363 R0.5
X-20.006 Y20.6 Z-8.64 R0.5
X-20.993 Y20.438 Z-8.917 R0.5
X-20.006 Y20.6 Z-9.194 R0.5
X-20.993 Y20.438 Z-9.471 R0.5
X-20.006 Y20.6 Z-9.748 R0.5
X-20.993 Y20.438 Z-10.025 R0.5
X-20.006 Y20.6 Z-10.302 R0.5
X-20.993 Y20.438 Z-10.579 R0.5
X-20.006 Y20.6 Z-10.856 R0.5
X-20.993 Y20.438 Z-11.133 R0.5
X-20.006 Y20.6 Z-11.41 R0.5
X-20.993 Y20.438 Z-11.687 R0.5
X-20.006 Y20.6 Z-11.964 R0.5
X-20.993 Y20.438 Z-12.241 R0.5
X-20. Y20.5 Z-12.5 R0.5
G1 X-19.849 Y24.451
G3 X-19.861 Y24.547 R0.304
X-20.139 R0.145
G1 X-20.144 Y24.53
G3 X-20.154 Y24.469 R0.253
G1 X-20.285 Y21.049
G3 Y20.951 R1.682
G1 X-20.278 Y20.613
G3 X-19.677 Y20.598 R0.301
G1 X-19.441 Y24.432
G3 X-20.608 Y24.59 R0.59
X-20.632 Y24.412 R1.192
G1 X-20.828 Y21.166
G3 X-20.83 Y20.834 R2.941
G1 X-20.806 Y20.393
G3 X-19.122 Y20.321 R0.847
G1 X-19.05 Y20.847
G3 X-19.022 Y21.154 R3.261
G1 X-18.888 Y24.303
G3 X-18.908 Y24.696 R2.11
X-21.198 Y24.77 R1.164
G1 X-21.215 Y24.689
G3 X-21.264 Y24.307 R2.314
G1 X-21.401 Y21.084
G3 X-21.405 Y20.915 R4.622
G1 X-21.408 Y20.419
G3 X-21.296 Y19.777 R1.831
X-18.625 Y19.713 R1.436
G1 X-18.603 Y19.765
G3 X-18.449 Y20.421 R1.99
G1 X-18.419 Y20.932
G3 X-18.412 Y21.068 R5.016
G1 X-18.307 Y24.268
G3 X-18.326 Y24.731 R3.179
G1 X-18.341 Y24.865
G3 X-21.716 Y25.279 R1.748
X-21.868 Y24.588 R2.47
G1 X-21.871 Y24.555
G3 X-21.876 Y24.445 R2.723
G1 X-21.99 Y21.
X-22.001 Y20.289
G3 X-20.892 Y18.327 R2.23
G1 X-20.746 Y18.242
G3 X-20.152 Y18.073 R1.25
X-17.835 Y20.239 R2.256
G1 X-17.792 Y21.5
X-17.713 Y24.441
G3 X-17.712 Y24.559 R5.728
G1 X-17.71 Y24.777
G3 X-22.429 Y25.208 R2.378
X-22.478 Y24.752 R3.311
G1 X-22.597 Y20.25
G3 X-22.575 Y19.771 R3.455
G1 X-22.565 Y19.685
G3 X-18.975 Y17.518 R2.652
G1 X-18.893 Y17.55
G3 X-18.434 Y17.8 R2.016
G1 X-18.346 Y17.864
G3 X-17.851 Y18.336 R2.592
G1 X-17.618 Y18.625
G3 X-17.25 Y20. R2.75
G1 Y25.
G3 X-22.75 R2.75
G1 Y20.
G3 X-17.618 Y18.625 R2.75
G1 X-17.965 Y18.825 Z-12.46
G0 Z2.
X19.007 Y20.438
G1 Z0.5 F466.
G3 X19.994 Y20.6 Z0.223 R0.5
X19.007 Y20.438 Z-0.054 R0.5
X19.994 Y20.6 Z-0.331 R0.5
X19.007 Y20.438 Z-0.608 R0.5
X19.994 Y20.6 Z-0.885 R0.5
X19.007 Y20.438 Z-1.162 R0.5
X19.994 Y20.6 Z-1.439 R0.5
X19.007 Y20.438 Z-1.716 R0.5
X19.994 Y20.6 Z-1.993 R0.5
X19.007 Y20.438 Z-2.27 R0.5
X19.994 Y20.6 Z-2.547 R0.5
X19.007 Y20.438 Z-2.824 R0.5
X19.994 Y20.6 Z-3.101 R0.5
X19.007 Y20.438 Z-3.378 R0.5
X19.994 Y20.6 Z-3.655 R0.5
X19.007 Y20.438 Z-3.932 R0.5
X19.994 Y20.6 Z-4.209 R0.5
X19.007 Y20.438 Z-4.486 R0.5
X19.994 Y20.6 Z-4.763 R0.5
X19.007 Y20.438 Z-5.039 R0.5
X19.994 Y20.6 Z-5.316 R0.5
X19.007 Y20.438 Z-5.593 R0.5
X19.994 Y20.6 Z-5.87 R0.5
X19.007 Y20.438 Z-6.147 R0.5
X19.994 Y20.6 Z-6.424 R0.5
X19.007 Y20.438 Z-6.701 R0.5
X19.994 Y20.6 Z-6.978 R0.5
X19.007 Y20.438 Z-7.255 R0.5
X19.994 Y20.6 Z-7.532 R0.5
X19.007 Y20.438 Z-7.809 R0.5
X19.994 Y20.6 Z-8.086 R0.5
X19.007 Y20.438 Z-8.363 R0.5
X19.994 Y20.6 Z-8.64 R0.5
X19.007 Y20.438 Z-8.917 R0.5
X19.994 Y20.6 Z-9.194 R0.5
X19.007 Y20.438 Z-9.471 R0.5
X19.994 Y20.6 Z-9.748 R0.5
X19.007 Y20.438 Z-10.025 R0.5
X19.994 Y20.6 Z-10.302 R0.5
X19.007 Y20.438 Z-10.579 R0.5
X19.994 Y20.6 Z-10.856 R0.5
X19.007 Y20.438 Z-11.133 R0.5
X19.994 Y20.6 Z-11.41 R0.5
X19.007 Y20.438 Z-11.687 R0.5
X19.994 Y20.6 Z-11.964 R0.5
X19.007 Y20.438 Z-12.241 R0.5
X20. Y20.5 Z-12.5 R0.5
G1 X20.151 Y24.451
G3 X20.139 Y24.547 R0.304
X19.861 R0.145
G1 X19.856 Y24.53
G3 X19.846 Y24.469 R0.253
G1 X19.716 Y21.058
G3 X19.715 Y20.942 R1.978
G1 X19.719 Y20.757
G3 X20.362 Y20.741 R0.322
G1 X20.588 Y24.428
G3 X19.363 Y24.592 R0.619
X19.338 Y24.409 R1.252
G1 X19.143 Y21.174
G3 X19.142 Y20.826 R3.031
G1 X19.159 Y20.512
G3 X20.955 Y20.437 R0.903
G1 X21.011 Y20.842
G3 X21.04 Y21.16 R3.33
G1 X21.173 Y24.29
G3 X21.152 Y24.707 R2.219
G1 X21.142 Y24.771
G3 X18.755 Y24.844 R1.213
G1 X18.724 Y24.697
G3 X18.674 Y24.298 R2.435
G1 X18.537 Y21.083
G3 X18.533 Y20.916 R4.748
G1 X18.53 Y20.448
G3 X21.631 Y20.347 R1.552
G1 X21.665 Y20.935
G3 X21.671 Y21.065 R5.233
G1 X21.78 Y24.408
G3 X21.656 Y25.325 R2.775
X18.238 Y25.402 R1.804
G1 X18.196 Y25.287
G3 X18.048 Y24.584 R2.583
G1 X18.046 Y24.551
G3 X18.041 Y24.449 R2.84
G1 X17.927 Y21.
X17.916 Y20.333
G3 X22.27 Y20.215 R2.178
G1 X22.326 Y22.
X22.395 Y24.748
G3 X22.368 Y25.204 R3.262
G1 X22.361 Y25.255
G3 X21.853 Y26.497 R2.62
X21.485 Y26.873 R2.087
G1 X21.452 Y26.9
G3 X20.924 Y27.218 R2.399
G1 X20.88 Y27.237
G3 X20.37 Y27.386 R2.086
X17.478 Y25.309 R2.53
G1 X17.463 Y25.218
G3 X17.417 Y24.756 R3.443
G1 X17.296 Y20.244
G3 X17.317 Y19.762 R3.588
G1 X17.324 Y19.694
G3 X17.863 Y18.308 R2.886
G1 X17.867 Y18.265
G3 X22.75 Y20. R2.75
G1 Y25.
G3 X17.25 R2.75
G1 Y20.
G3 X17.867 Y18.265 R2.75
G1 X18.177 Y18.517 Z-12.46
G0 Z2.
X19.068 Y-20.252
G1 Z0.5 F466.
G3 X19.994 Y-19.875 Z0.223 R0.5
X19.068 Y-20.252 Z-0.054 R0.5
X19.994 Y-19.875 Z-0.331 R0.5
X19.068 Y-20.252 Z-0.608 R0.5
X19.994 Y-19.875 Z-0.885 R0.5
X19.068 Y-20.252 Z-1.162 R0.5
X19.994 Y-19.875 Z-1.439 R0.5
X19.068 Y-20.252 Z-1.716 R0.5
X19.994 Y-19.875 Z-1.993 R0.5
X19.068 Y-20.252 Z-2.27 R0.5
X19.994 Y-19.875 Z-2.547 R0.5
X19.068 Y-20.252 Z-2.824 R0.5
X19.994 Y-19.875 Z-3.101 R0.5
X19.068 Y-20.252 Z-3.378 R0.5
X19.994 Y-19.875 Z-3.655 R0.5
X19.068 Y-20.252 Z-3.932 R0.5
X19.994 Y-19.875 Z-4.209 R0.5
X19.068 Y-20.252 Z-4.486 R0.5
X19.994 Y-19.875 Z-4.763 R0.5
X19.068 Y-20.252 Z-5.039 R0.5
X19.994 Y-19.875 Z-5.316 R0.5
X19.068 Y-20.252 Z-5.593 R0.5
X19.994 Y-19.875 Z-5.87 R0.5
X19.068 Y-20.252 Z-6.147 R0.5
X19.994 Y-19.875 Z-6.424 R0.5
X19.068 Y-20.252 Z-6.701 R0.5
X19.994 Y-19.875 Z-6.978 R0.5
X19.068 Y-20.252 Z-7.255 R0.5
X19.994 Y-19.875 Z-7.532 R0.5
X19.068 Y-20.252 Z-7.809 R0.5
X19.994 Y-19.875 Z-8.086 R0.5
X19.068 Y-20.252 Z-8.363 R0.5
X19.994 Y-19.875 Z-8.64 R0.5
X19.068 Y-20.252 Z-8.917 R0.5
X19.994 Y-19.875 Z-9.194 R0.5
X19.068 Y-20.252 Z-9.471 R0.5
X19.994 Y-19.875 Z-9.748 R0.5
X19.068 Y-20.252 Z-10.025 R0.5
X19.994 Y-19.875 Z-10.302 R0.5
X19.068 Y-20.252 Z-10.579 R0.5
X19.994 Y-19.875 Z-10.856 R0.5
X19.068 Y-20.252 Z-11.133 R0.5
X19.994 Y-19.875 Z-11.41 R0.5
X19.068 Y-20.252 Z-11.687 R0.5
X19.994 Y-19.875 Z-11.964 R0.5
X19.068 Y-20.252 Z-12.241 R0.5
X20.023 Y-19.971 Z-12.5 R0.5
G1 X20.017 Y-19.94
G3 X19.989 Y-19.896 R0.073
G1 X19.976 Y-19.886
G3 X19.907 Y-19.863 R0.115
G1 X19.867 Y-19.865
G3 X19.761 Y-19.907 R0.198
X19.68 Y-20.02 R0.224
G1 X19.672 Y-20.043
G3 X19.667 Y-20.21 R0.303
G1 X19.673 Y-20.23
G3 X19.773 Y-20.405 R0.378
G1 X19.787 Y-20.419
G3 X19.991 Y-20.535 R0.45
X20.108 Y-20.551 R0.455
X20.287 Y-20.514 R0.455
G1 X20.346 Y-20.488
G3 X20.682 Y-20.15 R0.636
G1 X20.69 Y-20.133
G3 X20.697 Y-19.621 R0.682
G1 X20.67 Y-19.554
G3 X19.886 Y-19.015 R0.846
G1 X19.86
G3 X19.351 Y-19.154 R0.979
G1 X19.324 Y-19.17
G3 X18.936 Y-19.567 R1.096
X18.788 Y-20.099 R1.111
G1 Y-20.124
G3 X18.924 Y-20.705 R1.21
G1 X18.932 Y-20.721
G3 X19.351 Y-21.192 R1.28
G1 X19.366 Y-21.202
G3 X19.991 Y-21.427 R1.35
G1 X20.009 Y-21.428
G3 X20.699 Y-21.323 R1.42
G1 X20.716 Y-21.316
G3 X21.299 Y-20.874 R1.49
G1 X21.31 Y-20.86
G3 X21.627 Y-20.163 R1.56
G1 X21.63 Y-20.145
G3 X21.575 Y-19.349 R1.631
X21.116 Y-18.634 R1.659
G1 X21.088 Y-18.608
G3 X20.241 Y-18.173 R1.802
X19.856 Y-18.132 R1.835
X19.268 Y-18.229 R1.835
G1 X19.244 Y-18.237
G3 X18.412 Y-18.79 R1.932
G1 X18.35 Y-18.861
G3 X17.877 Y-20.472 R1.984
X18.023 Y-20.986 R2.169
X18.295 Y-21.461 R2.205
X18.682 Y-21.862 R2.241
X19.162 Y-22.16 R2.277
X19.709 Y-22.334 R2.312
X20.143 Y-22.375 R2.347
X20.291 Y-22.37 R2.347
X20.872 Y-22.261 R2.383
X21.417 Y-22.01 R2.42
X21.891 Y-21.627 R2.455
X22.262 Y-21.134 R2.491
X22.505 Y-20.556 R2.527
X22.601 Y-19.928 R2.562
X22.602 Y-19.854 R2.598
X22.539 Y-19.287 R2.598
X22.321 Y-18.674 R2.618
G1 X22.314 Y-18.661
G3 X21.956 Y-18.132 R2.502
G1 X21.691 Y-17.831
G3 X18.309 Y-22.169 R2.75
X21.691 Y-17.831 R2.75
G1 X21.445 Y-18.147 Z-12.46
G0 Z2.
X19.068 Y-60.252
G1 Z0.5 F466.
G3 X19.994 Y-59.875 Z0.223 R0.5
X19.068 Y-60.252 Z-0.054 R0.5
X19.994 Y-59.875 Z-0.331 R0.5
X19.068 Y-60.252 Z-0.608 R0.5
X19.994 Y-59.875 Z-0.885 R0.5
X19.068 Y-60.252 Z-1.162 R0.5
X19.994 Y-59.875 Z-1.439 R0.5
X19.068 Y-60.252 Z-1.716 R0.5
X19.994 Y-59.875 Z-1.993 R0.5
X19.068 Y-60.252 Z-2.27 R0.5
X19.994 Y-59.875 Z-2.547 R0.5
X19.068 Y-60.252 Z-2.824 R0.5
X19.994 Y-59.875 Z-3.101 R0.5
X19.068 Y-60.252 Z-3.378 R0.5
X19.994 Y-59.875 Z-3.655 R0.5
X19.068 Y-60.252 Z-3.932 R0.5
X19.994 Y-59.875 Z-4.209 R0.5
X19.068 Y-60.252 Z-4.486 R0.5
X19.994 Y-59.875 Z-4.763 R0.5
X19.068 Y-60.252 Z-5.039 R0.5
X19.994 Y-59.875 Z-5.316 R0.5
X19.068 Y-60.252 Z-5.593 R0.5
X19.994 Y-59.875 Z-5.87 R0.5
X19.068 Y-60.252 Z-6.147 R0.5
X19.994 Y-59.875 Z-6.424 R0.5
X19.068 Y-60.252 Z-6.701 R0.5
X19.994 Y-59.875 Z-6.978 R0.5
X19.068 Y-60.252 Z-7.255 R0.5
X19.994 Y-59.875 Z-7.532 R0.5
X19.068 Y-60.252 Z-7.809 R0.5
X19.994 Y-59.875 Z-8.086 R0.5
X19.068 Y-60.252 Z-8.363 R0.5
X19.994 Y-59.875 Z-8.64 R0.5
X19.068 Y-60.252 Z-8.917 R0.5
X19.994 Y-59.875 Z-9.194 R0.5
X19.068 Y-60.252 Z-9.471 R0.5
X19.994 Y-59.875 Z-9.748 R0.5
X19.068 Y-60.252 Z-10.025 R0.5
X19.994 Y-59.875 Z-10.302 R0.5
X19.068 Y-60.252 Z-10.579 R0.5
X19.994 Y-59.875 Z-10.856 R0.5
X19.068 Y-60.252 Z-11.133 R0.5
X19.994 Y-59.875 Z-11.41 R0.5
X19.068 Y-60.252 Z-11.687 R0.5
X19.994 Y-59.875 Z-11.964 R0.5
X19.068 Y-60.252 Z-12.241 R0.5
X20.023 Y-59.971 Z-12.5 R0.5
G1 X20.017 Y-59.94
G3 X19.989 Y-59.896 R0.073
G1 X19.976 Y-59.886
G3 X19.907 Y-59.863 R0.115
G1 X19.867 Y-59.865
G3 X19.761 Y-59.907 R0.198
X19.68 Y-60.02 R0.224
G1 X19.672 Y-60.043
G3 X19.667 Y-60.21 R0.303
G1 X19.673 Y-60.23
G3 X19.773 Y-60.405 R0.378
G1 X19.787 Y-60.419
G3 X19.991 Y-60.535 R0.45
X20.108 Y-60.551 R0.455
X20.287 Y-60.514 R0.455
G1 X20.346 Y-60.488
G3 X20.682 Y-60.15 R0.636
G1 X20.69 Y-60.133
G3 X20.697 Y-59.621 R0.682
G1 X20.67 Y-59.554
G3 X19.886 Y-59.015 R0.846
G1 X19.86
G3 X19.351 Y-59.154 R0.979
G1 X19.324 Y-59.17
G3 X18.936 Y-59.567 R1.096
X18.788 Y-60.099 R1.111
G1 Y-60.124
G3 X18.924 Y-60.705 R1.21
G1 X18.932 Y-60.721
G3 X19.351 Y-61.192 R1.28
G1 X19.366 Y-61.202
G3 X19.991 Y-61.427 R1.35
G1 X20.009 Y-61.428
G3 X20.699 Y-61.323 R1.42
G1 X20.716 Y-61.316
G3 X21.299 Y-60.874 R1.49
G1 X21.31 Y-60.86
G3 X21.627 Y-60.163 R1.56
G1 X21.63 Y-60.145
G3 X21.575 Y-59.349 R1.631
X21.116 Y-58.634 R1.659
G1 X21.088 Y-58.608
G3 X20.241 Y-58.173 R1.802
X19.856 Y-58.132 R1.835
X19.268 Y-58.229 R1.835
G1 X19.244 Y-58.237
G3 X18.412 Y-58.79 R1.932
G1 X18.35 Y-58.861
G3 X17.877 Y-60.472 R1.984
X18.023 Y-60.986 R2.169
X18.295 Y-61.461 R2.205
X18.682 Y-61.862 R2.241
X19.162 Y-62.16 R2.277
X19.709 Y-62.334 R2.312
X20.143 Y-62.375 R2.347
X20.291 Y-62.37 R2.347
X20.872 Y-62.261 R2.383
X21.417 Y-62.01 R2.42
X21.891 Y-61.627 R2.455
X22.262 Y-61.134 R2.491
X22.505 Y-60.556 R2.527
X22.601 Y-59.928 R2.562
X22.602 Y-59.854 R2.598
X22.539 Y-59.287 R2.598
X22.321 Y-58.674 R2.618
G1 X22.314 Y-58.661
G3 X21.956 Y-58.132 R2.502
G1 X21.691 Y-57.831
G3 X18.309 Y-62.169 R2.75
X21.691 Y-57.831 R2.75
G1 X21.445 Y-58.147 Z-12.46
G0 Z2.
X-20.932 Y-60.252
G1 Z0.5 F466.
G3 X-20.006 Y-59.875 Z0.223 R0.5
X-20.932 Y-60.252 Z-0.054 R0.5
X-20.006 Y-59.875 Z-0.331 R0.5
X-20.932 Y-60.252 Z-0.608 R0.5
X-20.006 Y-59.875 Z-0.885 R0.5
X-20.932 Y-60.252 Z-1.162 R0.5
X-20.006 Y-59.875 Z-1.439 R0.5
X-20.932 Y-60.252 Z-1.716 R0.5
X-20.006 Y-59.875 Z-1.993 R0.5
X-20.932 Y-60.252 Z-2.27 R0.5
X-20.006 Y-59.875 Z-2.547 R0.5
X-20.932 Y-60.252 Z-2.824 R0.5
X-20.006 Y-59.875 Z-3.101 R0.5
X-20.932 Y-60.252 Z-3.378 R0.5
X-20.006 Y-59.875 Z-3.655 R0.5
X-20.932 Y-60.252 Z-3.932 R0.5
X-20.006 Y-59.875 Z-4.209 R0.5
X-20.932 Y-60.252 Z-4.486 R0.5
X-20.006 Y-59.875 Z-4.763 R0.5
X-20.932 Y-60.252 Z-5.039 R0.5
X-20.006 Y-59.875 Z-5.316 R0.5
X-20.932 Y-60.252 Z-5.593 R0.5
X-20.006 Y-59.875 Z-5.87 R0.5
X-20.932 Y-60.252 Z-6.147 R0.5
X-20.006 Y-59.875 Z-6.424 R0.5
X-20.932 Y-60.252 Z-6.701 R0.5
X-20.006 Y-59.875 Z-6.978 R0.5
X-20.932 Y-60.252 Z-7.255 R0.5
X-20.006 Y-59.875 Z-7.532 R0.5
X-20.932 Y-60.252 Z-7.809 R0.5
X-20.006 Y-59.875 Z-8.086 R0.5
X-20.932 Y-60.252 Z-8.363 R0.5
X-20.006 Y-59.875 Z-8.64 R0.5
X-20.932 Y-60.252 Z-8.917 R0.5
X-20.006 Y-59.875 Z-9.194 R0.5
X-20.932 Y-60.252 Z-9.471 R0.5
X-20.006 Y-59.875 Z-9.748 R0.5
X-20.932 Y-60.252 Z-10.025 R0.5
X-20.006 Y-59.875 Z-10.302 R0.5
X-20.932 Y-60.252 Z-10.579 R0.5
X-20.006 Y-59.875 Z-10.856 R0.5
X-20.932 Y-60.252 Z-11.133 R0.5
X-20.006 Y-59.875 Z-11.41 R0.5
X-20.932 Y-60.252 Z-11.687 R0.5
X-20.006 Y-59.875 Z-11.964 R0.5
X-20.932 Y-60.252 Z-12.241 R0.5
X-19.977 Y-59.971 Z-12.5 R0.5
G1 X-19.983 Y-59.94
G3 X-20.011 Y-59.896 R0.073
G1 X-20.024 Y-59.886
G3 X-20.093 Y-59.863 R0.115
G1 X-20.133 Y-59.865
G3 X-20.239 Y-59.907 R0.198
X-20.32 Y-60.02 R0.224
G1 X-20.328 Y-60.043
G3 X-20.333 Y-60.21 R0.303
G1 X-20.327 Y-60.23
G3 X-20.227 Y-60.405 R0.378
G1 X-20.213 Y-60.419
G3 X-20.009 Y-60.535 R0.45
X-19.892 Y-60.551 R0.455
X-19.713 Y-60.514 R0.455
G1 X-19.654 Y-60.488
G3 X-19.318 Y-60.15 R0.636
G1 X-19.31 Y-60.133
G3 X-19.303 Y-59.621 R0.682
G1 X-19.33 Y-59.554
G3 X-20.114 Y-59.015 R0.846
G1 X-20.14
G3 X-20.649 Y-59.154 R0.979
G1 X-20.676 Y-59.17
G3 X-21.064 Y-59.567 R1.096
X-21.212 Y-60.099 R1.111
G1 Y-60.124
G3 X-21.076 Y-60.705 R1.21
G1 X-21.068 Y-60.721
G3 X-20.649 Y-61.192 R1.28
G1 X-20.634 Y-61.202
G3 X-20.009 Y-61.427 R1.35
G1 X-19.991 Y-61.428
G3 X-19.301 Y-61.323 R1.42
G1 X-19.284 Y-61.316
G3 X-18.701 Y-60.874 R1.49
G1 X-18.69 Y-60.86
G3 X-18.373 Y-60.163 R1.56
G1 X-18.37 Y-60.145
G3 X-18.425 Y-59.349 R1.631
X-18.884 Y-58.634 R1.659
G1 X-18.912 Y-58.608
G3 X-19.759 Y-58.173 R1.802
X-20.144 Y-58.132 R1.835
X-20.732 Y-58.229 R1.835
G1 X-20.756 Y-58.237
G3 X-21.588 Y-58.79 R1.932
G1 X-21.65 Y-58.861
G3 X-22.123 Y-60.472 R1.984
X-21.977 Y-60.986 R2.169
X-21.705 Y-61.461 R2.205
X-21.318 Y-61.862 R2.241
X-20.838 Y-62.16 R2.277
X-20.291 Y-62.334 R2.312
X-19.857 Y-62.375 R2.347
X-19.709 Y-62.37 R2.347
X-19.128 Y-62.261 R2.383
X-18.583 Y-62.01 R2.42
X-18.109 Y-61.627 R2.455
X-17.738 Y-61.134 R2.491
X-17.495 Y-60.556 R2.527
X-17.399 Y-59.928 R2.562
X-17.398 Y-59.854 R2.598
X-17.461 Y-59.287 R2.598
X-17.679 Y-58.674 R2.618
G1 X-17.686 Y-58.661
G3 X-18.044 Y-58.132 R2.502
G1 X-18.309 Y-57.831
G3 X-21.691 Y-62.169 R2.75
X-18.309 Y-57.831 R2.75
G1 X-18.555 Y-58.147 Z-12.46
G0 Z2.
X-20.932 Y-20.252
G1 Z0.5 F466.
G3 X-20.006 Y-19.875 Z0.223 R0.5
X-20.932 Y-20.252 Z-0.054 R0.5
X-20.006 Y-19.875 Z-0.331 R0.5
X-20.932 Y-20.252 Z-0.608 R0.5
X-20.006 Y-19.875 Z-0.885 R0.5
X-20.932 Y-20.252 Z-1.162 R0.5
X-20.006 Y-19.875 Z-1.439 R0.5
X-20.932 Y-20.252 Z-1.716 R0.5
X-20.006 Y-19.875 Z-1.993 R0.5
X-20.932 Y-20.252 Z-2.27 R0.5
X-20.006 Y-19.875 Z-2.547 R0.5
X-20.932 Y-20.252 Z-2.824 R0.5
X-20.006 Y-19.875 Z-3.101 R0.5
X-20.932 Y-20.252 Z-3.378 R0.5
X-20.006 Y-19.875 Z-3.655 R0.5
X-20.932 Y-20.252 Z-3.932 R0.5
X-20.006 Y-19.875 Z-4.209 R0.5
X-20.932 Y-20.252 Z-4.486 R0.5
X-20.006 Y-19.875 Z-4.763 R0.5
X-20.932 Y-20.252 Z-5.039 R0.5
X-20.006 Y-19.875 Z-5.316 R0.5
X-20.932 Y-20.252 Z-5.593 R0.5
X-20.006 Y-19.875 Z-5.87 R0.5
X-20.932 Y-20.252 Z-6.147 R0.5
X-20.006 Y-19.875 Z-6.424 R0.5
X-20.932 Y-20.252 Z-6.701 R0.5
X-20.006 Y-19.875 Z-6.978 R0.5
X-20.932 Y-20.252 Z-7.255 R0.5
X-20.006 Y-19.875 Z-7.532 R0.5
X-20.932 Y-20.252 Z-7.809 R0.5
X-20.006 Y-19.875 Z-8.086 R0.5
X-20.932 Y-20.252 Z-8.363 R0.5
X-20.006 Y-19.875 Z-8.64 R0.5
X-20.932 Y-20.252 Z-8.917 R0.5
X-20.006 Y-19.875 Z-9.194 R0.5
X-20.932 Y-20.252 Z-9.471 R0.5
X-20.006 Y-19.875 Z-9.748 R0.5
X-20.932 Y-20.252 Z-10.025 R0.5
X-20.006 Y-19.875 Z-10.302 R0.5
X-20.932 Y-20.252 Z-10.579 R0.5
X-20.006 Y-19.875 Z-10.856 R0.5
X-20.932 Y-20.252 Z-11.133 R0.5
X-20.006 Y-19.875 Z-11.41 R0.5
X-20.932 Y-20.252 Z-11.687 R0.5
X-20.006 Y-19.875 Z-11.964 R0.5
X-20.932 Y-20.252 Z-12.241 R0.5
X-19.977 Y-19.971 Z-12.5 R0.5
G1 X-19.983 Y-19.94
G3 X-20.011 Y-19.896 R0.073
G1 X-20.024 Y-19.886
G3 X-20.093 Y-19.863 R0.115
G1 X-20.133 Y-19.865
G3 X-20.239 Y-19.907 R0.198
X-20.32 Y-20.02 R0.224
G1 X-20.328 Y-20.043
G3 X-20.333 Y-20.21 R0.303
G1 X-20.327 Y-20.23
G3 X-20.227 Y-20.405 R0.378
G1 X-20.213 Y-20.419
G3 X-20.009 Y-20.535 R0.45
X-19.892 Y-20.551 R0.455
X-19.713 Y-20.514 R0.455
G1 X-19.654 Y-20.488
G3 X-19.318 Y-20.15 R0.636
G1 X-19.31 Y-20.133
G3 X-19.303 Y-19.621 R0.682
G1 X-19.33 Y-19.554
G3 X-20.114 Y-19.015 R0.846
G1 X-20.14
G3 X-20.649 Y-19.154 R0.979
G1 X-20.676 Y-19.17
G3 X-21.064 Y-19.567 R1.096
X-21.212 Y-20.099 R1.111
G1 Y-20.124
G3 X-21.076 Y-20.705 R1.21
G1 X-21.068 Y-20.721
G3 X-20.649 Y-21.192 R1.28
G1 X-20.634 Y-21.202
G3 X-20.009 Y-21.427 R1.35
G1 X-19.991 Y-21.428
G3 X-19.301 Y-21.323 R1.42
G1 X-19.284 Y-21.316
G3 X-18.701 Y-20.874 R1.49
G1 X-18.69 Y-20.86
G3 X-18.373 Y-20.163 R1.56
G1 X-18.37 Y-20.145
G3 X-18.425 Y-19.349 R1.631
X-18.884 Y-18.634 R1.659
G1 X-18.912 Y-18.608
G3 X-19.759 Y-18.173 R1.802
X-20.144 Y-18.132 R1.835
X-20.732 Y-18.229 R1.835
G1 X-20.756 Y-18.237
G3 X-21.588 Y-18.79 R1.932
G1 X-21.65 Y-18.861
G3 X-22.123 Y-20.472 R1.984
X-21.977 Y-20.986 R2.169
X-21.705 Y-21.461 R2.205
X-21.318 Y-21.862 R2.241
X-20.838 Y-22.16 R2.277
X-20.291 Y-22.334 R2.312
X-19.857 Y-22.375 R2.347
X-19.709 Y-22.37 R2.347
X-19.128 Y-22.261 R2.383
X-18.583 Y-22.01 R2.42
X-18.109 Y-21.627 R2.455
X-17.738 Y-21.134 R2.491
X-17.495 Y-20.556 R2.527
X-17.399 Y-19.928 R2.562
X-17.398 Y-19.854 R2.598
X-17.461 Y-19.287 R2.598
X-17.679 Y-18.674 R2.618
G1 X-17.686 Y-18.661
G3 X-18.044 Y-18.132 R2.502
G1 X-18.309 Y-17.831
G3 X-21.691 Y-22.169 R2.75
X-18.309 Y-17.831 R2.75
G1 X-18.555 Y-18.147 Z-12.46
G0 Z2.
X-20.993 Y63.938
G1 Z0.5 F466.
G3 X-20.006 Y64.1 Z0.223 R0.5
X-20.993 Y63.938 Z-0.054 R0.5
X-20.006 Y64.1 Z-0.331 R0.5
X-20.993 Y63.938 Z-0.608 R0.5
X-20.006 Y64.1 Z-0.885 R0.5
X-20.993 Y63.938 Z-1.162 R0.5
X-20.006 Y64.1 Z-1.439 R0.5
X-20.993 Y63.938 Z-1.716 R0.5
X-20.006 Y64.1 Z-1.993 R0.5
X-20.993 Y63.938 Z-2.27 R0.5
X-20.006 Y64.1 Z-2.547 R0.5
X-20.993 Y63.938 Z-2.824 R0.5
X-20.006 Y64.1 Z-3.101 R0.5
X-20.993 Y63.938 Z-3.378 R0.5
X-20.006 Y64.1 Z-3.655 R0.5
X-20.993 Y63.938 Z-3.932 R0.5
X-20.006 Y64.1 Z-4.209 R0.5
X-20.993 Y63.938 Z-4.486 R0.5
X-20.006 Y64.1 Z-4.763 R0.5
X-20.993 Y63.938 Z-5.039 R0.5
X-20.006 Y64.1 Z-5.316 R0.5
X-20.993 Y63.938 Z-5.593 R0.5
X-20.006 Y64.1 Z-5.87 R0.5
X-20.993 Y63.938 Z-6.147 R0.5
X-20.006 Y64.1 Z-6.424 R0.5
X-20.993 Y63.938 Z-6.701 R0.5
X-20.006 Y64.1 Z-6.978 R0.5
X-20.993 Y63.938 Z-7.255 R0.5
X-20.006 Y64.1 Z-7.532 R0.5
X-20.993 Y63.938 Z-7.809 R0.5
X-20.006 Y64.1 Z-8.086 R0.5
X-20.993 Y63.938 Z-8.363 R0.5
X-20.006 Y64.1 Z-8.64 R0.5
X-20.993 Y63.938 Z-8.917 R0.5
X-20.006 Y64.1 Z-9.194 R0.5
X-20.993 Y63.938 Z-9.471 R0.5
X-20.006 Y64.1 Z-9.748 R0.5
X-20.993 Y63.938 Z-10.025 R0.5
X-20.006 Y64.1 Z-10.302 R0.5
X-20.993 Y63.938 Z-10.579 R0.5
X-20.006 Y64.1 Z-10.856 R0.5
X-20.993 Y63.938 Z-11.133 R0.5
X-20.006 Y64.1 Z-11.41 R0.5
X-20.993 Y63.938 Z-11.687 R0.5
X-20.006 Y64.1 Z-11.964 R0.5
X-20.993 Y63.938 Z-12.241 R0.5
X-20. Y64. Z-12.5 R0.5
G1 X-19.982 Y64.48
G3 X-20.02 Y64.482 R0.019
G1 X-20.167 Y60.632
G3 X-19.825 Y60.619 R0.171
G1 X-19.696 Y63.964
G2 X-19.692 Y64.036 R3.216
G1 X-19.673 Y64.361
G3 X-20.401 Y64.409 R0.365
G1 X-20.634 Y60.622
G3 X-20.623 Y60.379 R1.162
X-19.342 Y60.394 R0.647
G1 X-19.277 Y60.904
G3 X-19.259 Y61.097 R2.929
G1 X-19.086 Y63.955
G3 X-19.081 Y64.045 R5.053
G1 X-19.069 Y64.338
G3 X-19.084 Y64.66 R1.791
G1 X-19.088 Y64.69
G3 X-20.997 Y64.692 R0.964
G1 X-21.071 Y64.166
G3 X-21.102 Y63.832 R3.456
G1 X-21.234 Y60.722
G3 X-21.211 Y60.281 R2.326
G1 X-21.202 Y60.22
G3 X-18.646 Y60.322 R1.287
G1 X-18.606 Y60.914
G3 X-18.596 Y61.086 R6.842
G1 X-18.463 Y64.268
G3 X-18.485 Y64.73 R2.923
G1 X-18.519 Y65.003
G3 X-18.777 Y65.706 R1.68
X-19.991 Y66.395 R1.513
X-20.053 Y66.396 R1.505
X-21.005 Y66.056 R1.505
G1 X-21.015 Y66.048
G3 X-21.505 Y65.38 R1.648
G1 X-21.553 Y65.259
G3 X-21.703 Y64.577 R2.178
G1 X-21.731 Y64.062
G3 X-21.737 Y63.938 R5.405
G1 X-21.847 Y60.594
G3 X-21.723 Y59.659 R2.88
X-18.171 Y59.58 R1.87
G1 X-18.134 Y59.687
G3 X-17.987 Y60.434 R2.614
G1 X-17.96 Y61.
X-17.85 Y64.43
G3 X-17.848 Y64.57 R5.268
G1 Y64.785
G3 X-22.286 Y65.203 R2.239
X-22.338 Y64.738 R3.067
G1 X-22.418 Y62.
X-22.461 Y60.25
G3 X-22.435 Y59.789 R3.336
G1 X-22.429 Y59.742
G3 X-21.908 Y58.454 R2.709
X-21.539 Y58.074 R2.086
G1 X-21.498 Y58.042
G3 X-20.952 Y57.712 R2.475
G1 X-20.907 Y57.692
G3 X-20.381 Y57.538 R2.138
X-17.411 Y59.685 R2.599
G1 X-17.396 Y59.774
G3 X-17.351 Y60.243 R3.511
G1 X-17.25 Y64.
Y65.
G3 X-22.75 R2.75
G1 Y60.
G3 X-17.25 R2.75
G1 Y64.
X-17.65 Z-12.46
G0 Z2.
X19.007 Y60.438
G1 Z0.5 F466.
G3 X19.994 Y60.6 Z0.223 R0.5
X19.007 Y60.438 Z-0.054 R0.5
X19.994 Y60.6 Z-0.331 R0.5
X19.007 Y60.438 Z-0.608 R0.5
X19.994 Y60.6 Z-0.885 R0.5
X19.007 Y60.438 Z-1.162 R0.5
X19.994 Y60.6 Z-1.439 R0.5
X19.007 Y60.438 Z-1.716 R0.5
X19.994 Y60.6 Z-1.993 R0.5
X19.007 Y60.438 Z-2.27 R0.5
X19.994 Y60.6 Z-2.547 R0.5
X19.007 Y60.438 Z-2.824 R0.5
X19.994 Y60.6 Z-3.101 R0.5
X19.007 Y60.438 Z-3.378 R0.5
X19.994 Y60.6 Z-3.655 R0.5
X19.007 Y60.438 Z-3.932 R0.5
X19.994 Y60.6 Z-4.209 R0.5
X19.007 Y60.438 Z-4.486 R0.5
X19.994 Y60.6 Z-4.763 R0.5
X19.007 Y60.438 Z-5.039 R0.5
X19.994 Y60.6 Z-5.316 R0.5
X19.007 Y60.438 Z-5.593 R0.5
X19.994 Y60.6 Z-5.87 R0.5
X19.007 Y60.438 Z-6.147 R0.5
X19.994 Y60.6 Z-6.424 R0.5
X19.007 Y60.438 Z-6.701 R0.5
X19.994 Y60.6 Z-6.978 R0.5
X19.007 Y60.438 Z-7.255 R0.5
X19.994 Y60.6 Z-7.532 R0.5
X19.007 Y60.438 Z-7.809 R0.5
X19.994 Y60.6 Z-8.086 R0.5
X19.007 Y60.438 Z-8.363 R0.5
X19.994 Y60.6 Z-8.64 R0.5
X19.007 Y60.438 Z-8.917 R0.5
X19.994 Y60.6 Z-9.194 R0.5
X19.007 Y60.438 Z-9.471 R0.5
X19.994 Y60.6 Z-9.748 R0.5
X19.007 Y60.438 Z-10.025 R0.5
X19.994 Y60.6 Z-10.302 R0.5
X19.007 Y60.438 Z-10.579 R0.5
X19.994 Y60.6 Z-10.856 R0.5
X19.007 Y60.438 Z-11.133 R0.5
X19.994 Y60.6 Z-11.41 R0.5
X19.007 Y60.438 Z-11.687 R0.5
X19.994 Y60.6 Z-11.964 R0.5
X19.007 Y60.438 Z-12.241 R0.5
X20. Y60.5 Z-12.5 R0.5
G1 X20.148 Y64.374
G3 X19.844 Y64.386 R0.152
G1 X19.699 Y60.618
G3 X20.327 Y60.587 R0.314
G1 X20.556 Y64.394
G3 X20.547 Y64.605 R1.028
X19.417 Y64.593 R0.571
G1 X19.354 Y64.087
G3 X19.338 Y63.912 R2.761
G1 X19.142 Y60.667
G3 X19.158 Y60.335 R1.528
X20.901 Y60.281 R0.888
G1 X20.916 Y60.349
G3 X20.957 Y60.655 R1.744
G1 X21.112 Y64.303
G3 X21.092 Y64.696 R2.11
G1 X21.084 Y64.746
G3 X18.768 Y64.658 R1.166
G1 X18.729 Y64.081
G3 X18.72 Y63.918 R6.493
G1 X18.585 Y60.74
G3 X18.608 Y60.262 R2.597
G1 X18.625 Y60.143
G3 X21.405 Y59.783 R1.454
X21.56 Y60.401 R2.073
G1 X21.563 Y60.432
G3 X21.571 Y60.568 R2.295
G1 X21.693 Y64.268
G3 X21.674 Y64.731 R3.179
G1 X21.658 Y64.873
G3 X18.287 Y65.287 R1.746
X18.139 Y64.571 R2.402
G1 X18.112 Y64.055
G3 X18.107 Y63.945 R5.806
G1 X17.997 Y60.584
G3 X17.994 Y60.416 R4.635
G1 X17.995 Y60.252
G3 X18.315 Y59.11 R2.225
X19.108 Y58.327 R2.232
G1 X19.254 Y58.242
G3 X19.848 Y58.073 R1.25
X22.166 Y60.211 R2.258
G1 X22.178 Y60.432
G3 X22.183 Y60.568 R5.194
G1 X22.287 Y64.441
G3 X22.288 Y64.559 R5.728
G1 X22.29 Y64.783
G3 X17.572 Y65.213 R2.377
X17.524 Y64.746 R3.266
G1 X17.402 Y60.246
G3 X17.424 Y59.775 R3.49
G1 X17.435 Y59.685
G3 X21.025 Y57.518 R2.652
G1 X21.107 Y57.55
G3 X21.566 Y57.8 R2.016
G1 X21.654 Y57.864
G3 X22.149 Y58.336 R2.592
G1 X22.382 Y58.625
G3 X22.75 Y60. R2.75
G1 Y65.
G3 X17.25 R2.75
G1 Y60.
G3 X22.382 Y58.625 R2.75
G1 X22.035 Y58.825 Z-12.46
G0 Z4.

(ADAPTIVE1)
M8
G0 X-19.919 Y24.191
Z4.
Z2.
Z-11.19
G1 Z-11.99 F466.
G3 X-20.081 Y24.611 Z-12.115 R0.225
X-19.919 Y24.191 Z-12.239 R0.225
X-20.081 Y24.611 Z-12.364 R0.225
X-19.919 Y24.191 Z-12.489 R0.225
X-20.081 Y24.611 Z-12.613 R0.225
X-19.919 Y24.191 Z-12.738 R0.225
X-20.081 Y24.611 Z-12.862 R0.225
X-19.919 Y24.191 Z-12.987 R0.225
X-20.081 Y24.611 Z-13.112 R0.225
X-19.919 Y24.191 Z-13.236 R0.225
X-20.081 Y24.611 Z-13.361 R0.225
X-19.919 Y24.191 Z-13.486 R0.225
X-20.081 Y24.611 Z-13.61 R0.225
X-19.919 Y24.191 Z-13.735 R0.225
X-20.081 Y24.611 Z-13.86 R0.225
X-19.919 Y24.191 Z-13.984 R0.225
X-20.081 Y24.611 Z-14.109 R0.225
X-19.919 Y24.191 Z-14.233 R0.225
X-20.081 Y24.611 Z-14.358 R0.225
X-19.919 Y24.191 Z-14.483 R0.225
X-20.081 Y24.611 Z-14.607 R0.225
X-19.919 Y24.191 Z-14.732 R0.225
X-20.081 Y24.611 Z-14.857 R0.225
X-19.919 Y24.191 Z-14.981 R0.225
X-20.081 Y24.611 Z-15.106 R0.225
X-19.919 Y24.191 Z-15.231 R0.225
X-20.081 Y24.611 Z-15.355 R0.225
X-19.919 Y24.191 Z-15.48 R0.225
X-20.081 Y24.611 Z-15.605 R0.225
X-19.919 Y24.191 Z-15.729 R0.225
X-20.081 Y24.611 Z-15.854 R0.225
X-19.919 Y24.191 Z-15.978 R0.225
X-20.081 Y24.611 Z-16.103 R0.225
X-19.919 Y24.191 Z-16.228 R0.225
X-20.081 Y24.611 Z-16.352 R0.225
X-19.919 Y24.191 Z-16.477 R0.225
X-20.081 Y24.611 Z-16.602 R0.225
X-19.919 Y24.191 Z-16.726 R0.225
X-20.081 Y24.611 Z-16.851 R0.225
X-19.919 Y24.191 Z-16.976 R0.225
X-20.081 Y24.611 Z-17.1 R0.225
X-19.919 Y24.191 Z-17.225 R0.225
X-20.081 Y24.611 Z-17.349 R0.225
X-19.919 Y24.191 Z-17.474 R0.225
X-20.081 Y24.611 Z-17.599 R0.225
X-19.919 Y24.191 Z-17.723 R0.225
X-20.081 Y24.611 Z-17.848 R0.225
X-19.919 Y24.191 Z-17.973 R0.225
X-20.081 Y24.611 Z-18.097 R0.225
X-19.919 Y24.191 Z-18.222 R0.225
X-20.081 Y24.611 Z-18.347 R0.225
X-19.919 Y24.191 Z-18.471 R0.225
X-20.081 Y24.611 Z-18.596 R0.225
X-19.919 Y24.191 Z-18.72 R0.225
X-20.081 Y24.611 Z-18.845 R0.225
X-19.919 Y24.191 Z-18.97 R0.225
X-20.081 Y24.611 Z-19.094 R0.225
X-19.919 Y24.191 Z-19.219 R0.225
X-20.081 Y24.611 Z-19.344 R0.225
X-19.919 Y24.191 Z-19.468 R0.225
X-20.081 Y24.611 Z-19.593 R0.225
X-19.919 Y24.191 Z-19.718 R0.225
X-20.081 Y24.611 Z-19.842 R0.225
X-19.919 Y24.191 Z-19.967 R0.225
X-20.081 Y24.611 Z-20.091 R0.225
X-19.919 Y24.191 Z-20.216 R0.225
X-20.081 Y24.611 Z-20.341 R0.225
X-19.919 Y24.191 Z-20.465 R0.225
X-20.081 Y24.611 Z-20.59 R0.225
X-19.919 Y24.191 Z-20.715 R0.225
X-20.081 Y24.611 Z-20.839 R0.225
X-19.919 Y24.191 Z-20.964 R0.225
X-20.081 Y24.611 Z-21.089 R0.225
X-19.919 Y24.191 Z-21.213 R0.225
X-20.081 Y24.611 Z-21.338 R0.225
X-19.919 Y24.191 Z-21.463 R0.225
X-20.081 Y24.611 Z-21.587 R0.225
X-19.919 Y24.191 Z-21.712 R0.225
X-20.081 Y24.611 Z-21.836 R0.225
X-19.919 Y24.191 Z-21.961 R0.225
X-20.081 Y24.611 Z-22.086 R0.225
X-19.919 Y24.191 Z-22.21 R0.225
X-20.081 Y24.611 Z-22.335 R0.225
X-19.919 Y24.191 Z-22.46 R0.225
X-20.081 Y24.611 Z-22.584 R0.225
X-19.919 Y24.191 Z-22.709 R0.225
X-20.081 Y24.611 Z-22.834 R0.225
X-19.919 Y24.191 Z-22.958 R0.225
X-20.081 Y24.611 Z-23.083 R0.225
X-19.919 Y24.191 Z-23.207 R0.225
X-20.081 Y24.611 Z-23.332 R0.225
X-19.919 Y24.191 Z-23.457 R0.225
X-20.081 Y24.611 Z-23.581 R0.225
X-19.919 Y24.191 Z-23.706 R0.225
X-20.081 Y24.611 Z-23.831 R0.225
X-19.919 Y24.191 Z-23.955 R0.225
X-20.081 Y24.611 Z-24.08 R0.225
X-19.919 Y24.191 Z-24.205 R0.225
X-20.081 Y24.611 Z-24.329 R0.225
X-19.919 Y24.191 Z-24.454 R0.225
X-20.081 Y24.611 Z-24.578 R0.225
X-19.919 Y24.191 Z-24.703 R0.225
X-20.081 Y24.611 Z-24.828 R0.225
X-19.919 Y24.191 Z-24.952 R0.225
X-20.081 Y24.611 Z-25.077 R0.225
X-19.919 Y24.191 Z-25.202 R0.225
X-20.081 Y24.611 Z-25.326 R0.225
X-19.919 Y24.191 Z-25.451 R0.225
X-20.081 Y24.611 Z-25.576 R0.225
X-19.919 Y24.191 Z-25.7 R0.225
X-20.081 Y24.611 Z-25.825 R0.225
X-19.919 Y24.191 Z-25.949 R0.225
X-20.081 Y24.611 Z-26.074 R0.225
X-19.919 Y24.191 Z-26.199 R0.225
X-20.081 Y24.611 Z-26.323 R0.225
X-19.919 Y24.191 Z-26.448 R0.225
X-20.081 Y24.611 Z-26.573 R0.225
X-19.919 Y24.191 Z-26.697 R0.225
X-20.081 Y24.611 Z-26.822 R0.225
X-19.919 Y24.191 Z-26.947 R0.225
X-20.081 Y24.611 Z-27.071 R0.225
X-19.919 Y24.191 Z-27.196 R0.225
X-20.081 Y24.611 Z-27.32 R0.225
X-19.919 Y24.191 Z-27.445 R0.225
X-20.081 Y24.611 Z-27.57 R0.225
X-19.919 Y24.191 Z-27.694 R0.225
X-20.081 Y24.611 Z-27.819 R0.225
X-19.919 Y24.191 Z-27.944 R0.225
X-20.081 Y24.611 Z-28.068 R0.225
X-19.919 Y24.191 Z-28.193 R0.225
X-20.081 Y24.611 Z-28.318 R0.225
X-19.919 Y24.191 Z-28.442 R0.225
X-19.775 Y24.401 Z-28.49 R0.225
X-20.225 R0.225
X-19.775 R0.225
G1 X-19.752 Y24.55 F406.
X-19.75 Y24.626
X-19.751 Y24.658
X-19.753 Y24.689
X-19.887 Y24.724
X-20.025 Y24.703
X-20.143 Y24.63
X-20.222 Y24.516
X-20.25 Y24.38
G3 X-20.114 Y24.261 R0.124 F466.
X-19.751 Y24.658 R0.403
G1 X-19.752 Y24.698 F406.
X-19.754 Y24.726
X-19.806 Y24.769
X-19.93 Y24.822
X-20.053 Y24.792
X-20.157 Y24.718
X-20.226 Y24.611
X-20.25 Y24.486
G3 X-20.147 Y24.369 R0.124 F466.
X-19.752 Y24.698 R0.338
G1 Y24.731 F406.
X-19.759 Y24.764
X-19.794 Y24.821
X-19.845 Y24.865
X-19.971 Y24.912
X-20.104 Y24.865
X-20.203 Y24.766
X-20.249 Y24.633
G3 X-20.208 Y24.532 R0.124 F466.
X-19.752 Y24.731 R0.273
G1 X-19.763 Y24.808 F406.
X-19.776 Y24.874
X-19.819 Y24.927
X-19.874 Y24.965
X-20.004 Y25.003
X-20.115 Y24.956
X-20.197 Y24.867
X-20.236 Y24.752
G3 X-20.229 Y24.704 R0.12 F466.
X-19.763 Y24.808 R0.24
G1 X-19.78 Y24.919 F406.
X-19.788 Y24.964
X-19.832 Y25.016
X-19.886 Y25.055
X-20.002 Y25.063
X-20.11 Y25.021
X-20.19 Y24.938
X-20.227 Y24.829
G3 X-20.205 Y24.752 R0.115 F466.
X-19.78 Y24.919 R0.237
G1 X-19.802 Y25.029 F406.
X-19.81 Y25.064
X-19.821 Y25.09
X-19.836 Y25.112
X-19.96 Y25.166
X-20.077 Y25.13
X-20.167 Y25.047
X-20.212 Y24.933
G3 X-20.17 Y24.833 R0.111 F466.
X-19.821 Y25.09 R0.225
G1 X-19.864 Y25.147 F406.
X-19.914 Y25.179
X-19.932 Y25.189
X-19.973 Y25.198
X-20.054 Y25.193
G3 X-19.956 Y24.896 R0.157 F466.
X-19.867 Y25.119 R0.157
X-19.973 Y25.198 R0.158
G1 X-20.054 Y25.193 F406.
X-20.139 Y25.144
X-20.177 Y25.094
X-20.194 Y25.052
X-20.25 Y24.622
Y24.334
X-20.247 Y24.267
X-20.218 Y24.206
X-20.173 Y24.155
X-20.06 Y24.081
X-19.943 Y24.097
X-19.842 Y24.158
X-19.774 Y24.254
X-19.75 Y24.37
G3 X-19.756 Y24.405 R0.125 F466.
X-20.25 Y24.334 R0.253
G1 Y24.209 F406.
X-20.247 Y24.141
X-20.211 Y24.084
X-20.16 Y24.039
X-20.038 Y23.982
X-19.927 Y24.009
X-19.834 Y24.074
X-19.772 Y24.17
X-19.75 Y24.282
G3 X-19.772 Y24.349 R0.124 F466.
X-20.25 Y24.209 R0.262
G1 Y24.113 F406.
X-20.248 Y24.079
X-20.22 Y24.018
X-20.178 Y23.965
X-20.122 Y23.928
X-19.993 Y23.888
X-19.868 Y23.941
X-19.781 Y24.045
X-19.75 Y24.177
G3 X-19.767 Y24.235 R0.125 F466.
X-20.25 Y24.113 R0.259
G1 Y24.049 F406.
X-20.247 Y23.982
X-20.217 Y23.921
X-20.172 Y23.871
X-20.116 Y23.832
X-19.987 Y23.794
X-19.865 Y23.849
X-19.78 Y23.952
X-19.75 Y24.082
G3 X-19.755 Y24.114 R0.125 F466.
X-20.25 Y24.049 R0.253
G1 Y23.923 F406.
X-20.248 Y23.889
X-20.218 Y23.829
X-20.173 Y23.778
X-20.118 Y23.74
X-19.99 Y23.698
X-19.867 Y23.752
X-19.781 Y23.855
X-19.75 Y23.986
G3 X-19.767 Y24.044 R0.125 F466.
X-20.25 Y23.923 R0.259
G1 Y23.828 F406.
X-20.248 Y23.794
X-20.218 Y23.734
X-20.173 Y23.683
X-20.118 Y23.644
X-19.99 Y23.603
X-19.867 Y23.657
X-19.781 Y23.761
X-19.75 Y23.891
G3 X-19.767 Y23.949 R0.125 F466.
X-20.25 Y23.828 R0.259
G1 Y23.767 F406.
X-20.247 Y23.699
X-20.217 Y23.639
X-20.172 Y23.588
X-20.117 Y23.549
X-19.988 Y23.509
X-19.866 Y23.563
X-19.781 Y23.666
X-19.75 Y23.796
X-19.754 Y23.825 F466.
G3 X-20.25 Y23.767 R0.252
G1 Y23.672 F406.
X-20.247 Y23.604
X-20.216 Y23.544
X-20.172 Y23.493
X-20.116 Y23.454
X-19.988 Y23.414
X-19.866 Y23.468
X-19.78 Y23.571
X-19.75 Y23.701
X-19.754 Y23.73 F466.
G3 X-20.25 Y23.672 R0.252
G1 Y23.58 F406.
X-20.247 Y23.513
X-20.218 Y23.452
X-20.173 Y23.401
X-20.119 Y23.361
X-19.991 Y23.318
X-19.867 Y23.372
X-19.781 Y23.475
X-19.75 Y23.606
X-19.753 Y23.631 F466.
G3 X-20.25 Y23.58 R0.252
G1 Y23.481 F406.
X-20.247 Y23.414
X-20.216 Y23.354
X-20.171 Y23.303
X-20.116 Y23.264
X-19.987 Y23.225
X-19.865 Y23.279
X-19.78 Y23.382
X-19.75 Y23.511
X-19.755 Y23.541 F466.
G3 X-20.25 Y23.481 R0.253
G1 Y23.372 F406.
X-20.247 Y23.304
X-20.174 Y23.191
X-20.057 Y23.124
X-19.94 Y23.146
X-19.84 Y23.211
X-19.773 Y23.31
X-19.75 Y23.427
G3 X-19.763 Y23.479 R0.125 F466.
X-20.25 Y23.372 R0.257
G1 Y23.261 F406.
X-20.247 Y23.193
X-20.213 Y23.135
X-20.165 Y23.087
X-20.042 Y23.03
X-19.93 Y23.057
X-19.835 Y23.124
X-19.772 Y23.221
X-19.75 Y23.335
G3 X-19.772 Y23.402 R0.124 F466.
X-20.25 Y23.261 R0.263
G1 Y23.151 F406.
X-20.248 Y23.117
X-20.217 Y23.057
X-20.173 Y23.006
X-20.115 Y22.972
X-19.985 Y22.936
X-19.864 Y22.992
X-19.78 Y23.095
X-19.75 Y23.225
G3 X-19.772 Y23.291 R0.124 F466.
X-20.25 Y23.151 R0.262
G1 Y23.076 F406.
X-20.248 Y23.043
X-20.223 Y22.98
X-20.18 Y22.928
X-20.126 Y22.887
X-20. Y22.838
X-19.873 Y22.89
X-19.782 Y22.995
X-19.75 Y23.129
G3 X-19.762 Y23.178 R0.125 F466.
X-20.25 Y23.076 R0.257
G1 Y23.009 F406.
X-20.247 Y22.942
X-20.218 Y22.881
X-20.175 Y22.828
X-20.121 Y22.788
X-19.993 Y22.747
X-19.868 Y22.8
X-19.781 Y22.904
X-19.75 Y23.036
X-19.754 Y23.062 F466.
G3 X-20.25 Y23.009 R0.252
G1 Y22.913 F406.
X-20.247 Y22.846
X-20.218 Y22.784
X-20.174 Y22.733
X-20.12 Y22.694
X-19.991 Y22.652
X-19.867 Y22.706
X-19.781 Y22.81
X-19.75 Y22.941
X-19.754 Y22.968 F466.
G3 X-20.25 Y22.913 R0.252
G1 Y22.819 F406.
X-20.247 Y22.751
X-20.218 Y22.69
X-20.174 Y22.639
X-20.119 Y22.6
X-19.991 Y22.558
X-19.867 Y22.612
X-19.781 Y22.715
X-19.75 Y22.846
X-19.754 Y22.873 F466.
G3 X-20.25 Y22.819 R0.252
G1 Y22.709 F406.
X-20.247 Y22.642
X-20.177 Y22.526
X-20.06 Y22.458
X-19.942 Y22.479
X-19.841 Y22.545
X-19.774 Y22.645
X-19.75 Y22.762
G3 X-19.762 Y22.812 R0.125 F466.
X-20.25 Y22.709 R0.257
G1 Y22.598 F406.
X-20.247 Y22.531
X-20.214 Y22.471
X-20.167 Y22.423
X-20.045 Y22.365
X-19.931 Y22.391
X-19.836 Y22.458
X-19.772 Y22.556
X-19.75 Y22.671
G3 X-19.771 Y22.736 R0.124 F466.
X-20.25 Y22.598 R0.262
G1 Y22.489 F406.
X-20.248 Y22.455
X-20.218 Y22.394
X-20.175 Y22.343
X-20.117 Y22.308
X-19.987 Y22.271
X-19.865 Y22.327
X-19.78 Y22.43
X-19.75 Y22.56
G3 X-19.771 Y22.626 R0.124 F466.
X-20.25 Y22.489 R0.262
G1 Y22.414 F406.
X-20.248 Y22.38
X-20.224 Y22.317
X-20.181 Y22.265
X-20.128 Y22.223
X-20.003 Y22.174
X-19.874 Y22.225
X-19.783 Y22.33
X-19.75 Y22.465
G3 X-19.762 Y22.513 R0.125 F466.
X-20.25 Y22.414 R0.256
G1 Y22.321 F406.
X-20.247 Y22.254
X-20.175 Y22.139
X-20.056 Y22.074
X-19.939 Y22.097
X-19.84 Y22.163
X-19.773 Y22.263
X-19.75 Y22.38
G3 X-19.765 Y22.435 R0.125 F466.
X-20.25 Y22.321 R0.258
G1 Y22.193 F406.
X-20.248 Y22.159
X-20.219 Y22.099
X-20.174 Y22.048
X-20.055 Y21.984
X-19.938 Y22.008
X-19.839 Y22.075
X-19.773 Y22.174
X-19.75 Y22.291
G3 X-19.786 Y22.374 R0.124 F466.
X-20.25 Y22.193 R0.271
G1 Y22.126 F406.
X-20.247 Y22.058
X-20.214 Y21.999
X-20.167 Y21.951
X-20.045 Y21.893
X-19.931 Y21.919
X-19.836 Y21.986
X-19.772 Y22.084
X-19.75 Y22.199
G3 X-19.772 Y22.265 R0.124 F466.
X-20.25 Y22.126 R0.262
G1 Y22.035 F406.
X-20.247 Y21.967
X-20.213 Y21.909
X-20.166 Y21.86
X-20.044 Y21.802
X-19.931 Y21.828
X-19.836 Y21.895
X-19.772 Y21.993
X-19.75 Y22.107
G3 X-19.771 Y22.172 R0.124 F466.
X-20.25 Y22.035 R0.262
G1 Y21.936 F406.
X-20.247 Y21.868
X-20.211 Y21.811
X-20.162 Y21.765
X-20.039 Y21.709
X-19.927 Y21.737
X-19.834 Y21.804
X-19.772 Y21.9
X-19.75 Y22.013
G3 X-19.774 Y22.083 R0.124 F466.
X-20.25 Y21.936 R0.264
G1 Y21.826 F406.
X-20.248 Y21.792
X-20.216 Y21.733
X-20.171 Y21.683
X-20.112 Y21.65
X-19.982 Y21.615
X-19.862 Y21.671
X-19.78 Y21.774
X-19.75 Y21.902
G3 X-19.773 Y21.97 R0.124 F466.
X-20.25 Y21.826 R0.263
G1 Y21.751 F406.
X-20.248 Y21.718
X-20.222 Y21.656
X-20.178 Y21.605
X-20.124 Y21.564
X-19.997 Y21.517
X-19.871 Y21.569
X-19.782 Y21.673
X-19.75 Y21.806
G3 X-19.763 Y21.857 R0.125 F466.
X-20.25 Y21.751 R0.257
G1 Y21.684 F406.
X-20.247 Y21.617
X-20.187 Y21.496
X-20.13 Y21.458
X-20.001 Y21.42
X-19.873 Y21.473
X-19.782 Y21.578
X-19.75 Y21.713
X-19.754 Y21.742 F466.
G3 X-20.25 Y21.684 R0.252
G1 Y21.557 F406.
X-20.248 Y21.523
X-20.224 Y21.46
X-20.181 Y21.408
X-20.127 Y21.368
X-19.998 Y21.326
X-19.871 Y21.38
X-19.782 Y21.485
X-19.75 Y21.619
G3 X-19.766 Y21.676 R0.125 F466.
X-20.25 Y21.557 R0.259
G1 Y21.463 F406.
X-20.248 Y21.43
X-20.222 Y21.367
X-20.179 Y21.315
X-20.125 Y21.275
X-19.997 Y21.232
X-19.871 Y21.286
X-19.782 Y21.39
X-19.75 Y21.524
G3 X-19.766 Y21.58 R0.125 F466.
X-20.25 Y21.463 R0.259
G1 Y21.372 F406.
X-20.248 Y21.338
X-20.223 Y21.276
X-20.18 Y21.224
X-20.126 Y21.183
X-19.999 Y21.138
X-19.872 Y21.191
X-19.782 Y21.295
X-19.75 Y21.429
G3 X-19.764 Y21.483 R0.125 F466.
X-20.25 Y21.372 R0.258
G1 Y21.273 F406.
X-20.248 Y21.239
X-20.22 Y21.178
X-20.177 Y21.126
X-20.123 Y21.086
X-19.994 Y21.045
X-19.869 Y21.099
X-19.781 Y21.203
X-19.75 Y21.335
G3 X-19.766 Y21.393 R0.125 F466.
X-20.25 Y21.273 R0.259
G1 Y21.178 F406.
X-20.248 Y21.144
X-20.22 Y21.083
X-20.176 Y21.032
X-20.122 Y20.992
X-19.993 Y20.95
X-19.869 Y21.004
X-19.781 Y21.108
X-19.75 Y21.24
G3 X-19.766 Y21.298 R0.125 F466.
X-20.25 Y21.178 R0.259
G1 Y21.117 F406.
X-20.247 Y21.05
X-20.218 Y20.988
X-20.174 Y20.937
X-20.119 Y20.898
X-19.991 Y20.857
X-19.867 Y20.911
X-19.781 Y21.014
X-19.75 Y21.145
X-19.754 Y21.173 F466.
G3 X-20.25 Y21.117 R0.252
G1 Y21.022 F406.
X-20.247 Y20.955
X-20.218 Y20.894
X-20.173 Y20.843
X-20.119 Y20.803
X-19.99 Y20.762
X-19.868 Y20.815
X-19.782 Y20.918
X-19.75 Y21.048
X-19.754 Y21.074 F466.
G3 X-20.25 Y21.022 R0.252
G1 Y20.926 F406.
X-20.247 Y20.859
X-20.217 Y20.798
X-20.172 Y20.747
X-20.117 Y20.708
X-19.989 Y20.668
X-19.867 Y20.721
X-19.782 Y20.823
X-19.751 Y20.952
X-19.755 Y20.979 F466.
G3 X-20.25 Y20.926 R0.252
G1 Y20.831 F406.
X-20.247 Y20.764
X-20.217 Y20.703
X-20.172 Y20.653
X-20.117 Y20.614
X-19.989 Y20.573
X-19.869 Y20.625
X-19.784 Y20.725
X-19.752 Y20.852
X-19.755 Y20.878 F466.
G3 X-20.25 Y20.831 R0.251
G1 Y20.722 F406.
X-20.247 Y20.655
X-20.175 Y20.54
X-20.058 Y20.472
X-19.944 Y20.493
X-19.845 Y20.557
X-19.779 Y20.653
X-19.754 Y20.767
G3 X-19.764 Y20.814 R0.124 F466.
X-20.25 Y20.722 R0.254
G1 Y20.611 F406.
X-20.247 Y20.543
X-20.213 Y20.484
X-20.166 Y20.437
X-20.044 Y20.379
X-19.934 Y20.405
X-19.841 Y20.469
X-19.779 Y20.563
X-19.756 Y20.673
G3 X-19.774 Y20.735 R0.123 F466.
X-20.25 Y20.611 R0.257
G1 Y20.501 F406.
X-20.248 Y20.467
X-20.218 Y20.407
X-20.174 Y20.356
X-20.116 Y20.322
X-19.986 Y20.286
X-19.87 Y20.339
X-19.789 Y20.438
X-19.758 Y20.561
G3 X-19.775 Y20.622 R0.122 F466.
X-20.25 Y20.501 R0.255
G1 Y20.426 F406.
X-20.243 Y20.359
X-20.169 Y20.246
X-20.05 Y20.183
X-19.94 Y20.207
X-19.847 Y20.27
X-19.783 Y20.363
X-19.76 Y20.474
G3 X-19.771 Y20.523 R0.122 F466.
X-20.25 Y20.426 R0.251
G1 X-20.243 Y20.295 F406.
X-20.24 Y20.262
X-20.209 Y20.202
X-20.163 Y20.152
X-20.041 Y20.093
X-19.902 Y20.136
X-19.801 Y20.24
X-19.762 Y20.379
G3 X-19.785 Y20.449 R0.121 F466.
X-20.243 Y20.295 R0.253
G1 X-20.238 Y20.206 F406.
X-20.224 Y20.14
X-20.185 Y20.085
X-20.131 Y20.044
X-20.002 Y20.003
X-19.882 Y20.055
X-19.797 Y20.155
X-19.764 Y20.282
G3 X-19.784 Y20.347 R0.119 F466.
X-20.238 Y20.206 R0.248
G1 X-20.223 Y20.113 F406.
X-20.209 Y20.047
X-20.167 Y19.994
X-20.113 Y19.953
X-19.984 Y19.915
X-19.886 Y19.959
X-19.813 Y20.037
X-19.776 Y20.138
G3 X-19.779 Y20.194 R0.161 F466.
X-20.223 Y20.113 R0.226
G1 X-20.206 Y20.013 F406.
X-20.202 Y19.985
X-20.194 Y19.95
X-20.186 Y19.926
G3 X-20.054 Y19.866 R0.11 F466.
X-20.118 Y20.076 R0.11
X-20.194 Y19.95 R0.11
G1 X-20.183 Y19.917 F406.
X-20.163 Y19.884
X-20.146 Y19.863
X-20.124 Y19.845
X-20.011 Y19.841
X-19.906 Y19.883
X-19.827 Y19.963
X-19.787 Y20.069
G3 X-19.872 Y20.213 R0.138 F466.
X-20.146 Y19.863 R0.231
G1 X-20.123 Y19.843 F406.
X-20.103 Y19.828
X-20.083 Y19.818
X-20.056 Y19.807
X-20.028 Y19.802
X-19.937 Y19.809
G3 X-19.859 Y19.948 R0.142 F466.
X-20.135 Y19.925 R0.138
X-20.028 Y19.802 R0.138
G1 X-19.973 F406.
X-19.902 Y19.826
X-19.846 Y19.872
X-19.806 Y19.95
X-19.766 Y20.206
X-19.761 Y20.426
X-19.771 Y20.484 Z-28.484 F466.
X-19.78 Y20.539 Z-28.468
X-19.789 Y20.59 Z-28.442
X-19.797 Y20.636 Z-28.407
X-19.804 Y20.674 Z-28.363
X-19.816 Y20.706 Z-28.306
X-19.824 Y20.725 Z-28.242
X-19.826 Y20.732 Z-28.176
G0 Z2.
X-19.919 Y63.719
Z-11.19
G1 Z-11.99 F466.
G3 X-20.081 Y64.139 Z-12.115 R0.225
X-19.919 Y63.719 Z-12.239 R0.225
X-20.081 Y64.139 Z-12.364 R0.225
X-19.919 Y63.719 Z-12.489 R0.225
X-20.081 Y64.139 Z-12.613 R0.225
X-19.919 Y63.719 Z-12.738 R0.225
X-20.081 Y64.139 Z-12.862 R0.225
X-19.919 Y63.719 Z-12.987 R0.225
X-20.081 Y64.139 Z-13.112 R0.225
X-19.919 Y63.719 Z-13.236 R0.225
X-20.081 Y64.139 Z-13.361 R0.225
X-19.919 Y63.719 Z-13.486 R0.225
X-20.081 Y64.139 Z-13.61 R0.225
X-19.919 Y63.719 Z-13.735 R0.225
X-20.081 Y64.139 Z-13.86 R0.225
X-19.919 Y63.719 Z-13.984 R0.225
X-20.081 Y64.139 Z-14.109 R0.225
X-19.919 Y63.719 Z-14.233 R0.225
X-20.081 Y64.139 Z-14.358 R0.225
X-19.919 Y63.719 Z-14.483 R0.225
X-20.081 Y64.139 Z-14.607 R0.225
X-19.919 Y63.719 Z-14.732 R0.225
X-20.081 Y64.139 Z-14.857 R0.225
X-19.919 Y63.719 Z-14.981 R0.225
X-20.081 Y64.139 Z-15.106 R0.225
X-19.919 Y63.719 Z-15.231 R0.225
X-20.081 Y64.139 Z-15.355 R0.225
X-19.919 Y63.719 Z-15.48 R0.225
X-20.081 Y64.139 Z-15.605 R0.225
X-19.919 Y63.719 Z-15.729 R0.225
X-20.081 Y64.139 Z-15.854 R0.225
X-19.919 Y63.719 Z-15.978 R0.225
X-20.081 Y64.139 Z-16.103 R0.225
X-19.919 Y63.719 Z-16.228 R0.225
X-20.081 Y64.139 Z-16.352 R0.225
X-19.919 Y63.719 Z-16.477 R0.225
X-20.081 Y64.139 Z-16.602 R0.225
X-19.919 Y63.719 Z-16.726 R0.225
X-20.081 Y64.139 Z-16.851 R0.225
X-19.919 Y63.719 Z-16.976 R0.225
X-20.081 Y64.139 Z-17.1 R0.225
X-19.919 Y63.719 Z-17.225 R0.225
X-20.081 Y64.139 Z-17.349 R0.225
X-19.919 Y63.719 Z-17.474 R0.225
X-20.081 Y64.139 Z-17.599 R0.225
X-19.919 Y63.719 Z-17.723 R0.225
X-20.081 Y64.139 Z-17.848 R0.225
X-19.919 Y63.719 Z-17.973 R0.225
X-20.081 Y64.139 Z-18.097 R0.225
X-19.919 Y63.719 Z-18.222 R0.225
X-20.081 Y64.139 Z-18.347 R0.225
X-19.919 Y63.719 Z-18.471 R0.225
X-20.081 Y64.139 Z-18.596 R0.225
X-19.919 Y63.719 Z-18.72 R0.225
X-20.081 Y64.139 Z-18.845 R0.225
X-19.919 Y63.719 Z-18.97 R0.225
X-20.081 Y64.139 Z-19.094 R0.225
X-19.919 Y63.719 Z-19.219 R0.225
X-20.081 Y64.139 Z-19.344 R0.225
X-19.919 Y63.719 Z-19.468 R0.225
X-20.081 Y64.139 Z-19.593 R0.225
X-19.919 Y63.719 Z-19.718 R0.225
X-20.081 Y64.139 Z-19.842 R0.225
X-19.919 Y63.719 Z-19.967 R0.225
X-20.081 Y64.139 Z-20.091 R0.225
X-19.919 Y63.719 Z-20.216 R0.225
X-20.081 Y64.139 Z-20.341 R0.225
X-19.919 Y63.719 Z-20.465 R0.225
X-20.081 Y64.139 Z-20.59 R0.225
X-19.919 Y63.719 Z-20.715 R0.225
X-20.081 Y64.139 Z-20.839 R0.225
X-19.919 Y63.719 Z-20.964 R0.225
X-20.081 Y64.139 Z-21.089 R0.225
X-19.919 Y63.719 Z-21.213 R0.225
X-20.081 Y64.139 Z-21.338 R0.225
X-19.919 Y63.719 Z-21.463 R0.225
X-20.081 Y64.139 Z-21.587 R0.225
X-19.919 Y63.719 Z-21.712 R0.225
X-20.081 Y64.139 Z-21.836 R0.225
X-19.919 Y63.719 Z-21.961 R0.225
X-20.081 Y64.139 Z-22.086 R0.225
X-19.919 Y63.719 Z-22.21 R0.225
X-20.081 Y64.139 Z-22.335 R0.225
X-19.919 Y63.719 Z-22.46 R0.225
X-20.081 Y64.139 Z-22.584 R0.225
X-19.919 Y63.719 Z-22.709 R0.225
X-20.081 Y64.139 Z-22.834 R0.225
X-19.919 Y63.719 Z-22.958 R0.225
X-20.081 Y64.139 Z-23.083 R0.225
X-19.919 Y63.719 Z-23.207 R0.225
X-20.081 Y64.139 Z-23.332 R0.225
X-19.919 Y63.719 Z-23.457 R0.225
X-20.081 Y64.139 Z-23.581 R0.225
X-19.919 Y63.719 Z-23.706 R0.225
X-20.081 Y64.139 Z-23.831 R0.225
X-19.919 Y63.719 Z-23.955 R0.225
X-20.081 Y64.139 Z-24.08 R0.225
X-19.919 Y63.719 Z-24.205 R0.225
X-20.081 Y64.139 Z-24.329 R0.225
X-19.919 Y63.719 Z-24.454 R0.225
X-20.081 Y64.139 Z-24.578 R0.225
X-19.919 Y63.719 Z-24.703 R0.225
X-20.081 Y64.139 Z-24.828 R0.225
X-19.919 Y63.719 Z-24.952 R0.225
X-20.081 Y64.139 Z-25.077 R0.225
X-19.919 Y63.719 Z-25.202 R0.225
X-20.081 Y64.139 Z-25.326 R0.225
X-19.919 Y63.719 Z-25.451 R0.225
X-20.081 Y64.139 Z-25.576 R0.225
X-19.919 Y63.719 Z-25.7 R0.225
X-20.081 Y64.139 Z-25.825 R0.225
X-19.919 Y63.719 Z-25.949 R0.225
X-20.081 Y64.139 Z-26.074 R0.225
X-19.919 Y63.719 Z-26.199 R0.225
X-20.081 Y64.139 Z-26.323 R0.225
X-19.919 Y63.719 Z-26.448 R0.225
X-20.081 Y64.139 Z-26.573 R0.225
X-19.919 Y63.719 Z-26.697 R0.225
X-20.081 Y64.139 Z-26.822 R0.225
X-19.919 Y63.719 Z-26.947 R0.225
X-20.081 Y64.139 Z-27.071 R0.225
X-19.919 Y63.719 Z-27.196 R0.225
X-20.081 Y64.139 Z-27.32 R0.225
X-19.919 Y63.719 Z-27.445 R0.225
X-20.081 Y64.139 Z-27.57 R0.225
X-19.919 Y63.719 Z-27.694 R0.225
X-20.081 Y64.139 Z-27.819 R0.225
X-19.919 Y63.719 Z-27.944 R0.225
X-20.081 Y64.139 Z-28.068 R0.225
X-19.919 Y63.719 Z-28.193 R0.225
X-20.081 Y64.139 Z-28.318 R0.225
X-19.919 Y63.719 Z-28.442 R0.225
X-19.775 Y63.929 Z-28.49 R0.225
X-20.225 R0.225
X-19.775 R0.225
G1 X-19.753 Y64.065 F406.
X-19.75 Y64.134
Y64.15
X-19.752 Y64.184
X-19.88 Y64.233
X-20.017 Y64.223
X-20.138 Y64.158
X-20.221 Y64.048
X-20.25 Y63.913
G3 X-20.131 Y63.795 R0.123 F466.
X-20.004 Y63.813 R0.369
X-19.75 Y64.15 R0.369
G1 Y64.187 F406.
X-19.752 Y64.221
X-19.799 Y64.269
X-19.918 Y64.332
X-20.045 Y64.309
X-20.152 Y64.239
X-20.225 Y64.132
X-20.25 Y64.006
G3 X-20.162 Y63.892 R0.123 F466.
X-19.75 Y64.187 R0.32
G1 Y64.243 F406.
X-19.752 Y64.277
X-19.787 Y64.334
X-19.839 Y64.377
X-19.965 Y64.427
X-20.076 Y64.395
X-20.168 Y64.325
X-20.229 Y64.226
X-20.25 Y64.112
G3 X-20.194 Y64.013 R0.124 F466.
X-19.75 Y64.243 R0.287
G1 Y64.309 F406.
X-19.752 Y64.343
X-19.783 Y64.402
X-19.828 Y64.452
X-19.887 Y64.486
X-20.018 Y64.519
X-20.136 Y64.463
X-20.219 Y64.361
X-20.249 Y64.233
G3 X-20.225 Y64.163 R0.124 F466.
X-19.75 Y64.309 R0.263
G1 Y64.371 F406.
X-19.753 Y64.438
X-19.787 Y64.497
X-19.835 Y64.545
X-19.892 Y64.581
X-20.023 Y64.614
X-20.138 Y64.558
X-20.218 Y64.459
X-20.248 Y64.334
G3 X-20.241 Y64.295 R0.124 F466.
X-19.75 Y64.371 R0.253
G1 Y64.464 F406.
X-19.753 Y64.531
X-19.821 Y64.648
X-19.938 Y64.716
X-20.05 Y64.697
X-20.147 Y64.638
X-20.215 Y64.546
X-20.243 Y64.436
G3 X-20.237 Y64.394 R0.123 F466.
X-19.75 Y64.464 R0.25
G1 Y64.592 F406.
X-19.755 Y64.659
X-19.791 Y64.716
X-19.842 Y64.76
X-19.966 Y64.813
X-20.098 Y64.77
X-20.196 Y64.671
X-20.237 Y64.538
G3 X-20.221 Y64.474 R0.121 F466.
X-20.019 Y64.349 R0.252
X-19.93 Y64.359 R0.252
X-19.75 Y64.592 R0.252
G1 X-19.752 Y64.7 F406.
Y64.73
X-19.759 Y64.764
X-19.799 Y64.818
X-19.852 Y64.86
X-19.979 Y64.905
X-20.103 Y64.857
X-20.193 Y64.76
X-20.231 Y64.633
G3 X-20.192 Y64.542 R0.119 F466.
X-19.998 Y64.473 R0.262
X-19.923 Y64.489 R0.262
X-19.752 Y64.73 R0.262
G1 X-19.76 Y64.787 F406.
X-19.773 Y64.853
X-19.813 Y64.908
X-19.866 Y64.95
X-19.993 Y64.993
X-20.107 Y64.945
X-20.189 Y64.853
X-20.224 Y64.734
G3 X-20.22 Y64.7 R0.117 F466.
X-19.76 Y64.787 R0.235
G1 X-19.776 Y64.88 F406.
X-19.791 Y64.945
X-19.831 Y64.999
X-19.884 Y65.041
X-20.013 Y65.081
X-20.111 Y65.035
X-20.183 Y64.954
X-20.215 Y64.851
G3 X-20.212 Y64.807 R0.173 F466.
X-20.03 Y64.631 R0.221
X-19.932 Y64.637 R0.221
X-19.776 Y64.88 R0.221
G1 X-19.792 Y64.971 F406.
X-19.798 Y65.005
X-19.802 Y65.034
X-19.81 Y65.057
X-19.856 Y65.106
X-19.914 Y65.141
X-20.016 Y65.14
X-20.109 Y65.098
X-20.177 Y65.022
X-20.208 Y64.925
G3 X-20.175 Y64.841 R0.105 F466.
X-19.97 Y64.787 R0.222
X-19.958 Y64.79 R0.222
X-19.802 Y65.034 R0.222
G1 X-19.827 Y65.1 F406.
X-19.85 Y65.133
X-19.869 Y65.151
X-19.888 Y65.166
X-19.968 Y65.196
X-20.001 Y65.201
G3 X-20.118 Y65.1 R0.143 F466.
X-19.845 Y65.018 R0.142
X-19.888 Y65.166 R0.142
G1 X-19.973 Y65.198 F406.
X-20.028
X-20.103 Y65.171
X-20.163 Y65.116
X-20.194 Y65.051
X-20.233 Y64.592
X-20.248 Y64.371
X-20.25 Y63.862
X-20.247 Y63.795
X-20.218 Y63.734
X-20.173 Y63.683
X-20.06 Y63.609
X-19.943 Y63.625
X-19.842 Y63.686
X-19.774 Y63.782
X-19.75 Y63.898
G3 X-19.756 Y63.933 R0.125 F466.
X-19.959 Y64.104 R0.253
X-20.071 Y64.096 R0.253
X-20.25 Y63.862 R0.253
G1 Y63.737 F406.
X-20.247 Y63.669
X-20.211 Y63.612
X-20.16 Y63.567
X-20.038 Y63.51
X-19.927 Y63.537
X-19.834 Y63.602
X-19.772 Y63.698
X-19.75 Y63.81
G3 X-19.772 Y63.877 R0.124 F466.
X-20.25 Y63.737 R0.262
G1 Y63.641 F406.
X-20.248 Y63.607
X-20.22 Y63.546
X-20.178 Y63.494
X-20.122 Y63.456
X-19.993 Y63.416
X-19.868 Y63.469
X-19.781 Y63.573
X-19.75 Y63.705
G3 X-19.767 Y63.763 R0.125 F466.
X-20.25 Y63.641 R0.259
G1 Y63.577 F406.
X-20.247 Y63.51
X-20.217 Y63.449
X-20.172 Y63.399
X-20.116 Y63.36
X-19.987 Y63.322
X-19.865 Y63.377
X-19.78 Y63.48
X-19.75 Y63.61
G3 X-19.755 Y63.642 R0.125 F466.
X-20.25 Y63.577 R0.253
G1 Y63.451 F406.
X-20.248 Y63.417
X-20.218 Y63.357
X-20.173 Y63.306
X-20.118 Y63.268
X-19.99 Y63.226
X-19.867 Y63.28
X-19.781 Y63.383
X-19.75 Y63.514
G3 X-19.767 Y63.572 R0.125 F466.
X-20.25 Y63.451 R0.259
G1 Y63.356 F406.
X-20.248 Y63.322
X-20.218 Y63.262
X-20.173 Y63.211
X-20.118 Y63.172
X-19.99 Y63.131
X-19.867 Y63.185
X-19.781 Y63.289
X-19.75 Y63.419
G3 X-19.767 Y63.478 R0.125 F466.
X-20.25 Y63.356 R0.259
G1 Y63.295 F406.
X-20.247 Y63.228
X-20.217 Y63.167
X-20.172 Y63.116
X-20.117 Y63.077
X-19.988 Y63.037
X-19.866 Y63.091
X-19.781 Y63.194
X-19.75 Y63.324
X-19.754 Y63.353 F466.
G3 X-20.25 Y63.295 R0.252
G1 Y63.2 F406.
X-20.247 Y63.132
X-20.216 Y63.072
X-20.172 Y63.021
X-20.116 Y62.982
X-19.988 Y62.942
X-19.866 Y62.996
X-19.78 Y63.099
X-19.75 Y63.229
X-19.754 Y63.258 F466.
G3 X-20.25 Y63.2 R0.252
G1 Y63.108 F406.
X-20.247 Y63.041
X-20.218 Y62.98
X-20.173 Y62.929
X-20.119 Y62.889
X-19.991 Y62.847
X-19.867 Y62.9
X-19.781 Y63.003
X-19.75 Y63.134
X-19.753 Y63.159 F466.
G3 X-20.25 Y63.108 R0.252
G1 Y63.009 F406.
X-20.247 Y62.942
X-20.216 Y62.882
X-20.171 Y62.831
X-20.116 Y62.792
X-19.987 Y62.753
X-19.865 Y62.807
X-19.78 Y62.91
X-19.75 Y63.039
X-19.755 Y63.069 F466.
G3 X-20.25 Y63.009 R0.253
G1 Y62.9 F406.
X-20.247 Y62.833
X-20.174 Y62.719
X-20.057 Y62.652
X-19.94 Y62.674
X-19.84 Y62.739
X-19.773 Y62.838
X-19.75 Y62.955
G3 X-19.763 Y63.007 R0.125 F466.
X-20.25 Y62.9 R0.257
G1 Y62.789 F406.
X-20.247 Y62.721
X-20.213 Y62.663
X-20.165 Y62.615
X-20.042 Y62.558
X-19.93 Y62.585
X-19.835 Y62.652
X-19.772 Y62.749
X-19.75 Y62.863
G3 X-19.772 Y62.93 R0.124 F466.
X-20.25 Y62.789 R0.263
G1 Y62.679 F406.
X-20.248 Y62.645
X-20.217 Y62.585
X-20.173 Y62.534
X-20.115 Y62.5
X-19.985 Y62.464
X-19.864 Y62.52
X-19.78 Y62.623
X-19.75 Y62.753
G3 X-19.772 Y62.819 R0.124 F466.
X-20.25 Y62.679 R0.262
G1 Y62.604 F406.
X-20.248 Y62.571
X-20.223 Y62.508
X-20.18 Y62.456
X-20.126 Y62.415
X-20. Y62.366
X-19.873 Y62.418
X-19.782 Y62.523
X-19.75 Y62.657
G3 X-19.762 Y62.706 R0.125 F466.
X-20.25 Y62.604 R0.257
G1 Y62.537 F406.
X-20.247 Y62.47
X-20.218 Y62.409
X-20.175 Y62.356
X-20.121 Y62.316
X-19.993 Y62.275
X-19.868 Y62.328
X-19.781 Y62.432
X-19.75 Y62.564
X-19.754 Y62.59 F466.
G3 X-20.25 Y62.537 R0.252
G1 Y62.441 F406.
X-20.247 Y62.374
X-20.218 Y62.312
X-20.174 Y62.261
X-20.12 Y62.222
X-19.991 Y62.181
X-19.867 Y62.234
X-19.781 Y62.338
X-19.75 Y62.469
X-19.754 Y62.496 F466.
G3 X-20.25 Y62.441 R0.252
G1 Y62.347 F406.
X-20.247 Y62.279
X-20.218 Y62.218
X-20.174 Y62.167
X-20.119 Y62.128
X-19.991 Y62.086
X-19.867 Y62.14
X-19.781 Y62.243
X-19.75 Y62.374
X-19.754 Y62.401 F466.
G3 X-20.25 Y62.347 R0.252
G1 Y62.237 F406.
X-20.247 Y62.17
X-20.177 Y62.054
X-20.06 Y61.986
X-19.942 Y62.007
X-19.841 Y62.073
X-19.774 Y62.173
X-19.75 Y62.29
G3 X-19.762 Y62.34 R0.125 F466.
X-20.25 Y62.237 R0.257
G1 Y62.126 F406.
X-20.247 Y62.059
X-20.214 Y61.999
X-20.167 Y61.951
X-20.045 Y61.893
X-19.931 Y61.919
X-19.836 Y61.986
X-19.772 Y62.084
X-19.75 Y62.199
G3 X-19.771 Y62.264 R0.124 F466.
X-20.25 Y62.126 R0.262
G1 Y62.017 F406.
X-20.248 Y61.983
X-20.218 Y61.922
X-20.175 Y61.871
X-20.117 Y61.836
X-19.987 Y61.799
X-19.865 Y61.855
X-19.78 Y61.958
X-19.75 Y62.088
G3 X-19.771 Y62.154 R0.124 F466.
X-20.25 Y62.017 R0.262
G1 Y61.942 F406.
X-20.248 Y61.908
X-20.224 Y61.845
X-20.181 Y61.793
X-20.128 Y61.751
X-20.003 Y61.702
X-19.874 Y61.753
X-19.783 Y61.858
X-19.75 Y61.993
G3 X-19.762 Y62.041 R0.125 F466.
X-20.25 Y61.942 R0.256
G1 Y61.849 F406.
X-20.247 Y61.782
X-20.175 Y61.667
X-20.056 Y61.602
X-19.939 Y61.625
X-19.84 Y61.691
X-19.773 Y61.791
X-19.75 Y61.908
G3 X-19.765 Y61.963 R0.125 F466.
X-20.25 Y61.849 R0.258
G1 Y61.721 F406.
X-20.248 Y61.687
X-20.219 Y61.627
X-20.174 Y61.576
X-20.055 Y61.512
X-19.938 Y61.536
X-19.839 Y61.603
X-19.773 Y61.702
X-19.75 Y61.819
G3 X-19.786 Y61.902 R0.124 F466.
X-20.25 Y61.721 R0.271
G1 Y61.654 F406.
X-20.247 Y61.586
X-20.214 Y61.527
X-20.167 Y61.479
X-20.045 Y61.421
X-19.931 Y61.447
X-19.836 Y61.514
X-19.772 Y61.612
X-19.75 Y61.727
G3 X-19.772 Y61.793 R0.124 F466.
X-20.25 Y61.654 R0.262
G1 Y61.563 F406.
X-20.247 Y61.495
X-20.213 Y61.437
X-20.166 Y61.388
X-20.044 Y61.33
X-19.931 Y61.356
X-19.836 Y61.423
X-19.772 Y61.521
X-19.75 Y61.635
G3 X-19.771 Y61.7 R0.124 F466.
X-20.25 Y61.563 R0.262
G1 Y61.464 F406.
X-20.247 Y61.396
X-20.211 Y61.339
X-20.162 Y61.293
X-20.039 Y61.237
X-19.927 Y61.265
X-19.834 Y61.332
X-19.772 Y61.428
X-19.75 Y61.541
G3 X-19.774 Y61.611 R0.124 F466.
X-20.25 Y61.464 R0.264
G1 Y61.354 F406.
X-20.248 Y61.32
X-20.216 Y61.261
X-20.171 Y61.211
X-20.112 Y61.178
X-19.982 Y61.143
X-19.862 Y61.199
X-19.78 Y61.302
X-19.75 Y61.43
G3 X-19.773 Y61.498 R0.124 F466.
X-20.25 Y61.354 R0.263
G1 Y61.279 F406.
X-20.248 Y61.246
X-20.222 Y61.184
X-20.178 Y61.133
X-20.124 Y61.092
X-19.997 Y61.045
X-19.871 Y61.097
X-19.782 Y61.201
X-19.75 Y61.334
G3 X-19.763 Y61.385 R0.125 F466.
X-20.25 Y61.279 R0.257
G1 Y61.212 F406.
X-20.247 Y61.145
X-20.187 Y61.024
X-20.13 Y60.986
X-20.001 Y60.948
X-19.873 Y61.001
X-19.782 Y61.106
X-19.75 Y61.241
X-19.754 Y61.27 F466.
G3 X-20.25 Y61.212 R0.252
G1 Y61.085 F406.
X-20.248 Y61.051
X-20.224 Y60.988
X-20.181 Y60.936
X-20.127 Y60.896
X-19.998 Y60.854
X-19.871 Y60.908
X-19.782 Y61.013
X-19.75 Y61.147
G3 X-19.766 Y61.204 R0.125 F466.
X-20.25 Y61.085 R0.259
G1 Y60.991 F406.
X-20.248 Y60.958
X-20.222 Y60.895
X-20.179 Y60.843
X-20.125 Y60.803
X-19.997 Y60.76
X-19.871 Y60.814
X-19.782 Y60.918
X-19.75 Y61.052
G3 X-19.766 Y61.108 R0.125 F466.
X-20.25 Y60.991 R0.259
G1 Y60.9 F406.
X-20.248 Y60.866
X-20.223 Y60.804
X-20.18 Y60.752
X-20.126 Y60.711
X-19.999 Y60.666
X-19.872 Y60.719
X-19.782 Y60.823
X-19.75 Y60.957
G3 X-19.764 Y61.011 R0.125 F466.
X-20.25 Y60.9 R0.258
G1 Y60.801 F406.
X-20.248 Y60.767
X-20.22 Y60.706
X-20.177 Y60.654
X-20.123 Y60.614
X-19.994 Y60.573
X-19.869 Y60.627
X-19.781 Y60.731
X-19.75 Y60.863
G3 X-19.766 Y60.921 R0.125 F466.
X-20.25 Y60.801 R0.259
G1 Y60.706 F406.
X-20.248 Y60.673
X-20.22 Y60.611
X-20.176 Y60.56
X-20.122 Y60.52
X-19.993 Y60.479
X-19.87 Y60.532
X-19.783 Y60.634
X-19.751 Y60.765
G3 X-19.766 Y60.822 R0.124 F466.
X-20.25 Y60.706 R0.258
G1 Y60.645 F406.
X-20.247 Y60.578
X-20.218 Y60.516
X-20.174 Y60.465
X-20.119 Y60.426
X-19.991 Y60.385
X-19.869 Y60.438
X-19.783 Y60.54
X-19.751 Y60.67
X-19.755 Y60.696 F466.
G3 X-20.25 Y60.645 R0.251
G1 Y60.55 F406.
X-20.247 Y60.483
X-20.218 Y60.422
X-20.173 Y60.371
X-20.119 Y60.331
X-19.99 Y60.29
X-19.873 Y60.34
X-19.789 Y60.436
X-19.755 Y60.559
X-19.756 Y60.58 F466.
G3 X-20.25 Y60.55 R0.248
G1 Y60.454 F406.
X-20.247 Y60.387
X-20.217 Y60.326
X-20.172 Y60.275
X-20.117 Y60.236
X-19.989 Y60.196
X-19.875 Y60.246
X-19.794 Y60.34
X-19.76 Y60.459
X-19.761 Y60.477 F466.
G3 X-20.25 Y60.454 R0.246
G1 X-20.245 Y60.329 F406.
X-20.237 Y60.262
X-20.158 Y60.152
X-20.037 Y60.093
X-19.904 Y60.135
X-19.806 Y60.234
X-19.765 Y60.367
G3 X-19.769 Y60.401 R0.12 F466.
X-20.245 Y60.329 R0.242
G1 X-20.236 Y60.201 F406.
X-20.234 Y60.175
X-20.227 Y60.142
X-20.187 Y60.087
X-20.134 Y60.046
X-20.006 Y60.003
X-19.889 Y60.052
X-19.805 Y60.147
X-19.77 Y60.269
G3 X-19.799 Y60.348 R0.117 F466.
X-20.234 Y60.175 R0.248
G1 X-20.222 Y60.108 F406.
X-20.207 Y60.042
X-20.164 Y59.99
X-20.11 Y59.951
X-19.997 Y59.945
X-19.892 Y59.986
X-19.814 Y60.067
X-19.775 Y60.173
G3 X-19.784 Y60.229 R0.115 F466.
X-20.222 Y60.108 R0.229
G1 X-20.206 Y60.017 F406.
X-20.2 Y59.983
X-20.195 Y59.955
X-20.183 Y59.917
G3 X-20.073 Y59.878 R0.096 F466.
X-20.13 Y60.057 R0.094
X-20.195 Y59.955 R0.094
G1 X-20.163 Y59.884 F406.
X-20.147 Y59.863
X-20.123 Y59.842
X-20.103 Y59.829
X-20.083 Y59.818
X-20.056 Y59.807
X-20.028 Y59.802
X-20.001 Y59.799
X-19.973 Y59.802
X-19.952 Y59.806
X-19.942 Y59.808
X-19.931 Y59.812
X-19.908 Y59.823
X-19.834 Y59.889
G3 X-20.043 Y60.062 R0.136 F466.
G1 X-20.062 Y60.043
G3 X-19.908 Y59.823 R0.136
G1 X-19.854 Y59.863 F406.
X-19.815 Y59.924
X-19.805 Y59.955
X-19.775 Y60.175
X-19.752 Y60.617
X-19.75 Y60.838
X-19.761 Y60.895 Z-28.484 F466.
X-19.772 Y60.95 Z-28.468
X-19.782 Y61.001 Z-28.442
X-19.791 Y61.046 Z-28.407
X-19.798 Y61.084 Z-28.363
X-19.811 Y61.116 Z-28.306
X-19.819 Y61.135 Z-28.242
X-19.822 Y61.142 Z-28.176
G0 Z2.
X20.081 Y24.191
Z-11.19
G1 Z-11.99 F466.
G3 X19.919 Y24.611 Z-12.115 R0.225
X20.081 Y24.191 Z-12.239 R0.225
X19.919 Y24.611 Z-12.364 R0.225
X20.081 Y24.191 Z-12.489 R0.225
X19.919 Y24.611 Z-12.613 R0.225
X20.081 Y24.191 Z-12.738 R0.225
X19.919 Y24.611 Z-12.862 R0.225
X20.081 Y24.191 Z-12.987 R0.225
X19.919 Y24.611 Z-13.112 R0.225
X20.081 Y24.191 Z-13.236 R0.225
X19.919 Y24.611 Z-13.361 R0.225
X20.081 Y24.191 Z-13.486 R0.225
X19.919 Y24.611 Z-13.61 R0.225
X20.081 Y24.191 Z-13.735 R0.225
X19.919 Y24.611 Z-13.86 R0.225
X20.081 Y24.191 Z-13.984 R0.225
X19.919 Y24.611 Z-14.109 R0.225
X20.081 Y24.191 Z-14.233 R0.225
X19.919 Y24.611 Z-14.358 R0.225
X20.081 Y24.191 Z-14.483 R0.225
X19.919 Y24.611 Z-14.607 R0.225
X20.081 Y24.191 Z-14.732 R0.225
X19.919 Y24.611 Z-14.857 R0.225
X20.081 Y24.191 Z-14.981 R0.225
X19.919 Y24.611 Z-15.106 R0.225
X20.081 Y24.191 Z-15.231 R0.225
X19.919 Y24.611 Z-15.355 R0.225
X20.081 Y24.191 Z-15.48 R0.225
X19.919 Y24.611 Z-15.605 R0.225
X20.081 Y24.191 Z-15.729 R0.225
X19.919 Y24.611 Z-15.854 R0.225
X20.081 Y24.191 Z-15.978 R0.225
X19.919 Y24.611 Z-16.103 R0.225
X20.081 Y24.191 Z-16.228 R0.225
X19.919 Y24.611 Z-16.352 R0.225
X20.081 Y24.191 Z-16.477 R0.225
X19.919 Y24.611 Z-16.602 R0.225
X20.081 Y24.191 Z-16.726 R0.225
X19.919 Y24.611 Z-16.851 R0.225
X20.081 Y24.191 Z-16.976 R0.225
X19.919 Y24.611 Z-17.1 R0.225
X20.081 Y24.191 Z-17.225 R0.225
X19.919 Y24.611 Z-17.349 R0.225
X20.081 Y24.191 Z-17.474 R0.225
X19.919 Y24.611 Z-17.599 R0.225
X20.081 Y24.191 Z-17.723 R0.225
X19.919 Y24.611 Z-17.848 R0.225
X20.081 Y24.191 Z-17.973 R0.225
X19.919 Y24.611 Z-18.097 R0.225
X20.081 Y24.191 Z-18.222 R0.225
X19.919 Y24.611 Z-18.347 R0.225
X20.081 Y24.191 Z-18.471 R0.225
X19.919 Y24.611 Z-18.596 R0.225
X20.081 Y24.191 Z-18.72 R0.225
X19.919 Y24.611 Z-18.845 R0.225
X20.081 Y24.191 Z-18.97 R0.225
X19.919 Y24.611 Z-19.094 R0.225
X20.081 Y24.191 Z-19.219 R0.225
X19.919 Y24.611 Z-19.344 R0.225
X20.081 Y24.191 Z-19.468 R0.225
X19.919 Y24.611 Z-19.593 R0.225
X20.081 Y24.191 Z-19.718 R0.225
X19.919 Y24.611 Z-19.842 R0.225
X20.081 Y24.191 Z-19.967 R0.225
X19.919 Y24.611 Z-20.091 R0.225
X20.081 Y24.191 Z-20.216 R0.225
X19.919 Y24.611 Z-20.341 R0.225
X20.081 Y24.191 Z-20.465 R0.225
X19.919 Y24.611 Z-20.59 R0.225
X20.081 Y24.191 Z-20.715 R0.225
X19.919 Y24.611 Z-20.839 R0.225
X20.081 Y24.191 Z-20.964 R0.225
X19.919 Y24.611 Z-21.089 R0.225
X20.081 Y24.191 Z-21.213 R0.225
X19.919 Y24.611 Z-21.338 R0.225
X20.081 Y24.191 Z-21.463 R0.225
X19.919 Y24.611 Z-21.587 R0.225
X20.081 Y24.191 Z-21.712 R0.225
X19.919 Y24.611 Z-21.836 R0.225
X20.081 Y24.191 Z-21.961 R0.225
X19.919 Y24.611 Z-22.086 R0.225
X20.081 Y24.191 Z-22.21 R0.225
X19.919 Y24.611 Z-22.335 R0.225
X20.081 Y24.191 Z-22.46 R0.225
X19.919 Y24.611 Z-22.584 R0.225
X20.081 Y24.191 Z-22.709 R0.225
X19.919 Y24.611 Z-22.834 R0.225
X20.081 Y24.191 Z-22.958 R0.225
X19.919 Y24.611 Z-23.083 R0.225
X20.081 Y24.191 Z-23.207 R0.225
X19.919 Y24.611 Z-23.332 R0.225
X20.081 Y24.191 Z-23.457 R0.225
X19.919 Y24.611 Z-23.581 R0.225
X20.081 Y24.191 Z-23.706 R0.225
X19.919 Y24.611 Z-23.831 R0.225
X20.081 Y24.191 Z-23.955 R0.225
X19.919 Y24.611 Z-24.08 R0.225
X20.081 Y24.191 Z-24.205 R0.225
X19.919 Y24.611 Z-24.329 R0.225
X20.081 Y24.191 Z-24.454 R0.225
X19.919 Y24.611 Z-24.578 R0.225
X20.081 Y24.191 Z-24.703 R0.225
X19.919 Y24.611 Z-24.828 R0.225
X20.081 Y24.191 Z-24.952 R0.225
X19.919 Y24.611 Z-25.077 R0.225
X20.081 Y24.191 Z-25.202 R0.225
X19.919 Y24.611 Z-25.326 R0.225
X20.081 Y24.191 Z-25.451 R0.225
X19.919 Y24.611 Z-25.576 R0.225
X20.081 Y24.191 Z-25.7 R0.225
X19.919 Y24.611 Z-25.825 R0.225
X20.081 Y24.191 Z-25.949 R0.225
X19.919 Y24.611 Z-26.074 R0.225
X20.081 Y24.191 Z-26.199 R0.225
X19.919 Y24.611 Z-26.323 R0.225
X20.081 Y24.191 Z-26.448 R0.225
X19.919 Y24.611 Z-26.573 R0.225
X20.081 Y24.191 Z-26.697 R0.225
X19.919 Y24.611 Z-26.822 R0.225
X20.081 Y24.191 Z-26.947 R0.225
X19.919 Y24.611 Z-27.071 R0.225
X20.081 Y24.191 Z-27.196 R0.225
X19.919 Y24.611 Z-27.32 R0.225
X20.081 Y24.191 Z-27.445 R0.225
X19.919 Y24.611 Z-27.57 R0.225
X20.081 Y24.191 Z-27.694 R0.225
X19.919 Y24.611 Z-27.819 R0.225
X20.081 Y24.191 Z-27.944 R0.225
X19.919 Y24.611 Z-28.068 R0.225
X20.081 Y24.191 Z-28.193 R0.225
X19.919 Y24.611 Z-28.318 R0.225
X20.081 Y24.191 Z-28.442 R0.225
X20.225 Y24.401 Z-28.49 R0.225
X19.775 R0.225
X20.225 R0.225
G1 X20.247 Y24.537 F406.
X20.25 Y24.606
Y24.622
X20.245 Y24.656
X20.131 Y24.729
X19.991 Y24.725
X19.867 Y24.662
X19.781 Y24.551
X19.75 Y24.414
G3 X19.853 Y24.297 R0.123 F466.
X20.25 Y24.622 R0.342
G1 X20.246 Y24.659 F406.
X20.241 Y24.692
X20.206 Y24.75
X20.093 Y24.824
X19.963 Y24.806
X19.852 Y24.738
X19.777 Y24.631
X19.75 Y24.503
G3 X19.806 Y24.402 R0.127 F466.
X20.246 Y24.659 R0.283
G1 X20.235 Y24.754 F406.
X20.23 Y24.787
X20.192 Y24.843
X20.076 Y24.912
X19.952 Y24.89
X19.846 Y24.822
X19.775 Y24.718
X19.75 Y24.595
G3 X19.809 Y24.493 R0.124 F466.
X20.235 Y24.754 R0.281
G1 X20.229 Y24.815 F406.
X20.218 Y24.882
X20.176 Y24.935
X20.058 Y24.999
X19.916 Y24.964
X19.807 Y24.868
X19.753 Y24.732
G3 X19.798 Y24.676 R0.08 F466.
G1 X20.016 Y24.578
X20.051 Y24.563
X20.046 Y24.56
X20.05 Y24.556
G3 X20.229 Y24.815 R0.25
G1 X20.216 Y24.907 F406.
X20.202 Y24.973
X20.16 Y25.025
X20.034 Y25.054
X19.909 Y25.022
X19.813 Y24.938
X19.765 Y24.818
G3 X19.787 Y24.736 R0.116 F466.
X20.216 Y24.907 R0.239
G1 X20.199 Y25.02 F406.
X20.194 Y25.052
X20.19 Y25.064
X20.178 Y25.088
X20.058 Y25.149
X19.928 Y25.117
X19.827 Y25.029
X19.778 Y24.905
G3 X19.828 Y24.797 R0.115 F466.
X20.19 Y25.064 R0.239
G1 X20.158 Y25.123 F406.
X20.139 Y25.144
X20.12 Y25.16
X20.034 Y25.195
X20. Y25.201
G3 X19.871 Y25.095 R0.156 F466.
X20.162 Y24.998 R0.154
X20.12 Y25.16 R0.154
G1 X20.054 Y25.193 F406.
X19.973 Y25.198
X19.932 Y25.189
X19.864 Y25.147
X19.821 Y25.09
X19.785 Y24.953
X19.752 Y24.731
X19.75 Y24.334
X19.753 Y24.267
X19.782 Y24.206
X19.827 Y24.155
X19.94 Y24.081
X20.057 Y24.097
X20.158 Y24.158
X20.226 Y24.254
X20.25 Y24.37
G3 X20.244 Y24.405 R0.125 F466.
X19.75 Y24.334 R0.253
G1 Y24.209 F406.
X19.753 Y24.141
X19.789 Y24.084
X19.84 Y24.039
X19.962 Y23.982
X20.073 Y24.009
X20.166 Y24.074
X20.228 Y24.17
X20.25 Y24.282
G3 X20.228 Y24.349 R0.124 F466.
X19.75 Y24.209 R0.262
G1 Y24.113 F406.
X19.752 Y24.079
X19.78 Y24.018
X19.822 Y23.965
X19.878 Y23.928
X20.007 Y23.888
X20.132 Y23.941
X20.219 Y24.045
X20.25 Y24.177
G3 X20.233 Y24.235 R0.125 F466.
X19.75 Y24.113 R0.259
G1 Y24.049 F406.
X19.753 Y23.982
X19.783 Y23.921
X19.828 Y23.871
X19.884 Y23.832
X20.013 Y23.794
X20.135 Y23.849
X20.22 Y23.952
X20.25 Y24.082
G3 X20.245 Y24.114 R0.125 F466.
X19.75 Y24.049 R0.253
G1 Y23.923 F406.
X19.752 Y23.889
X19.782 Y23.829
X19.827 Y23.778
X19.882 Y23.74
X20.01 Y23.698
X20.133 Y23.752
X20.219 Y23.855
X20.25 Y23.986
G3 X20.233 Y24.044 R0.125 F466.
X19.75 Y23.923 R0.259
G1 Y23.828 F406.
X19.752 Y23.794
X19.782 Y23.734
X19.827 Y23.683
X19.882 Y23.644
X20.01 Y23.603
X20.133 Y23.657
X20.219 Y23.761
X20.25 Y23.891
G3 X20.233 Y23.949 R0.125 F466.
X19.75 Y23.828 R0.259
G1 Y23.767 F406.
X19.753 Y23.699
X19.783 Y23.639
X19.828 Y23.588
X19.883 Y23.549
X20.012 Y23.509
X20.134 Y23.563
X20.219 Y23.666
X20.25 Y23.796
X20.246 Y23.825 F466.
G3 X19.75 Y23.767 R0.252
G1 Y23.672 F406.
X19.753 Y23.604
X19.784 Y23.544
X19.828 Y23.493
X19.884 Y23.454
X20.012 Y23.414
X20.134 Y23.468
X20.22 Y23.571
X20.25 Y23.701
X20.246 Y23.73 F466.
G3 X19.75 Y23.672 R0.252
G1 Y23.58 F406.
X19.753 Y23.513
X19.782 Y23.452
X19.827 Y23.401
X19.881 Y23.361
X20.009 Y23.318
X20.133 Y23.372
X20.219 Y23.475
X20.25 Y23.606
X20.247 Y23.631 F466.
G3 X19.75 Y23.58 R0.252
G1 Y23.481 F406.
X19.753 Y23.414
X19.784 Y23.354
X19.829 Y23.303
X19.884 Y23.264
X20.013 Y23.225
X20.135 Y23.279
X20.22 Y23.382
X20.25 Y23.511
X20.245 Y23.541 F466.
G3 X19.75 Y23.481 R0.253
G1 Y23.372 F406.
X19.753 Y23.304
X19.826 Y23.191
X19.943 Y23.124
X20.06 Y23.146
X20.16 Y23.211
X20.227 Y23.31
X20.25 Y23.427
G3 X20.237 Y23.479 R0.125 F466.
X19.75 Y23.372 R0.257
G1 Y23.261 F406.
X19.753 Y23.193
X19.787 Y23.135
X19.835 Y23.087
X19.958 Y23.03
X20.07 Y23.057
X20.165 Y23.124
X20.228 Y23.221
X20.25 Y23.335
G3 X20.228 Y23.402 R0.124 F466.
X19.75 Y23.261 R0.263
G1 Y23.151 F406.
X19.752 Y23.117
X19.783 Y23.057
X19.827 Y23.006
X19.885 Y22.972
X20.015 Y22.936
X20.136 Y22.992
X20.22 Y23.095
X20.25 Y23.225
G3 X20.228 Y23.291 R0.124 F466.
X19.75 Y23.151 R0.262
G1 Y23.076 F406.
X19.752 Y23.043
X19.777 Y22.98
X19.82 Y22.928
X19.874 Y22.887
X20. Y22.838
X20.127 Y22.89
X20.218 Y22.995
X20.25 Y23.129
G3 X20.238 Y23.178 R0.125 F466.
X19.75 Y23.076 R0.257
G1 Y23.009 F406.
X19.753 Y22.942
X19.782 Y22.881
X19.825 Y22.828
X19.879 Y22.788
X20.007 Y22.747
X20.132 Y22.8
X20.219 Y22.904
X20.25 Y23.036
X20.246 Y23.062 F466.
G3 X19.75 Y23.009 R0.252
G1 Y22.913 F406.
X19.753 Y22.846
X19.782 Y22.784
X19.826 Y22.733
X19.88 Y22.694
X20.009 Y22.652
X20.133 Y22.706
X20.219 Y22.81
X20.25 Y22.941
X20.246 Y22.968 F466.
G3 X19.75 Y22.913 R0.252
G1 Y22.819 F406.
X19.753 Y22.751
X19.782 Y22.69
X19.826 Y22.639
X19.881 Y22.6
X20.009 Y22.558
X20.133 Y22.612
X20.219 Y22.715
X20.25 Y22.846
X20.246 Y22.873 F466.
G3 X19.75 Y22.819 R0.252
G1 Y22.709 F406.
X19.753 Y22.642
X19.823 Y22.526
X19.94 Y22.458
X20.058 Y22.479
X20.159 Y22.545
X20.226 Y22.645
X20.25 Y22.762
G3 X20.238 Y22.812 R0.125 F466.
X19.75 Y22.709 R0.257
G1 Y22.598 F406.
X19.753 Y22.531
X19.786 Y22.471
X19.833 Y22.423
X19.955 Y22.365
X20.069 Y22.391
X20.164 Y22.458
X20.228 Y22.556
X20.25 Y22.671
G3 X20.229 Y22.736 R0.124 F466.
X19.75 Y22.598 R0.262
G1 Y22.489 F406.
X19.752 Y22.455
X19.782 Y22.394
X19.825 Y22.343
X19.883 Y22.308
X20.013 Y22.271
X20.135 Y22.327
X20.22 Y22.43
X20.25 Y22.56
G3 X20.229 Y22.626 R0.124 F466.
X19.75 Y22.489 R0.262
G1 Y22.414 F406.
X19.752 Y22.38
X19.776 Y22.317
X19.819 Y22.265
X19.872 Y22.223
X19.997 Y22.174
X20.126 Y22.225
X20.217 Y22.33
X20.25 Y22.465
G3 X20.238 Y22.513 R0.125 F466.
X19.75 Y22.414 R0.256
G1 Y22.321 F406.
X19.753 Y22.254
X19.825 Y22.139
X19.944 Y22.074
X20.061 Y22.097
X20.16 Y22.163
X20.227 Y22.263
X20.25 Y22.38
G3 X20.235 Y22.435 R0.125 F466.
X19.75 Y22.321 R0.258
G1 Y22.193 F406.
X19.752 Y22.159
X19.781 Y22.099
X19.826 Y22.048
X19.945 Y21.984
X20.062 Y22.008
X20.161 Y22.075
X20.227 Y22.174
X20.25 Y22.291
G3 X20.214 Y22.374 R0.124 F466.
X19.75 Y22.193 R0.271
G1 Y22.126 F406.
X19.753 Y22.058
X19.786 Y21.999
X19.833 Y21.951
X19.955 Y21.893
X20.069 Y21.919
X20.164 Y21.986
X20.228 Y22.084
X20.25 Y22.199
G3 X20.228 Y22.265 R0.124 F466.
X19.75 Y22.126 R0.262
G1 Y22.035 F406.
X19.753 Y21.967
X19.787 Y21.909
X19.834 Y21.86
X19.956 Y21.802
X20.069 Y21.828
X20.164 Y21.895
X20.228 Y21.993
X20.25 Y22.107
G3 X20.229 Y22.172 R0.124 F466.
X19.75 Y22.035 R0.262
G1 Y21.936 F406.
X19.753 Y21.868
X19.789 Y21.811
X19.838 Y21.765
X19.961 Y21.709
X20.073 Y21.737
X20.166 Y21.804
X20.228 Y21.9
X20.25 Y22.013
G3 X20.226 Y22.083 R0.124 F466.
X19.75 Y21.936 R0.264
G1 Y21.826 F406.
X19.752 Y21.792
X19.784 Y21.733
X19.829 Y21.683
X19.888 Y21.65
X20.018 Y21.615
X20.138 Y21.671
X20.22 Y21.774
X20.25 Y21.902
G3 X20.227 Y21.97 R0.124 F466.
X19.75 Y21.826 R0.263
G1 Y21.751 F406.
X19.752 Y21.718
X19.778 Y21.656
X19.822 Y21.605
X19.876 Y21.564
X20.003 Y21.517
X20.129 Y21.569
X20.218 Y21.673
X20.25 Y21.806
G3 X20.237 Y21.857 R0.125 F466.
X19.75 Y21.751 R0.257
G1 Y21.684 F406.
X19.753 Y21.617
X19.813 Y21.496
X19.87 Y21.458
X19.999 Y21.42
X20.127 Y21.473
X20.218 Y21.578
X20.25 Y21.713
X20.246 Y21.742 F466.
G3 X19.75 Y21.684 R0.252
G1 Y21.557 F406.
X19.752 Y21.523
X19.776 Y21.46
X19.819 Y21.408
X19.873 Y21.368
X20.002 Y21.326
X20.129 Y21.38
X20.218 Y21.485
X20.25 Y21.619
G3 X20.234 Y21.676 R0.125 F466.
X19.75 Y21.557 R0.259
G1 Y21.463 F406.
X19.752 Y21.43
X19.778 Y21.367
X19.821 Y21.315
X19.875 Y21.275
X20.003 Y21.232
X20.129 Y21.286
X20.218 Y21.39
X20.25 Y21.524
G3 X20.234 Y21.58 R0.125 F466.
X19.75 Y21.463 R0.259
G1 Y21.372 F406.
X19.752 Y21.338
X19.777 Y21.276
X19.82 Y21.224
X19.874 Y21.183
X20.001 Y21.138
X20.128 Y21.191
X20.218 Y21.295
X20.25 Y21.429
G3 X20.236 Y21.483 R0.125 F466.
X19.75 Y21.372 R0.258
G1 Y21.273 F406.
X19.752 Y21.239
X19.78 Y21.178
X19.823 Y21.126
X19.877 Y21.086
X20.006 Y21.045
X20.131 Y21.099
X20.219 Y21.203
X20.25 Y21.335
G3 X20.234 Y21.393 R0.125 F466.
X19.75 Y21.273 R0.259
G1 Y21.178 F406.
X19.752 Y21.144
X19.78 Y21.083
X19.824 Y21.032
X19.878 Y20.992
X20.007 Y20.95
X20.131 Y21.004
X20.219 Y21.108
X20.25 Y21.24
G3 X20.234 Y21.298 R0.125 F466.
X19.75 Y21.178 R0.259
G1 Y21.117 F406.
X19.753 Y21.05
X19.782 Y20.988
X19.826 Y20.937
X19.881 Y20.898
X20.009 Y20.857
X20.133 Y20.911
X20.219 Y21.014
X20.25 Y21.145
X20.246 Y21.173 F466.
G3 X19.75 Y21.117 R0.252
G1 X19.751 Y21.022 F406.
X19.754 Y20.955
X19.783 Y20.894
X19.827 Y20.843
X19.882 Y20.803
X20.011 Y20.762
X20.134 Y20.816
X20.219 Y20.92
X20.25 Y21.05
X20.246 Y21.076 F466.
G3 X19.751 Y21.022 R0.252
G1 Y20.926 F406.
X19.755 Y20.859
X19.785 Y20.798
X19.829 Y20.747
X19.884 Y20.708
X20.013 Y20.668
X20.135 Y20.723
X20.22 Y20.825
X20.25 Y20.955
X20.246 Y20.981 F466.
G3 X19.751 Y20.926 R0.251
G1 X19.753 Y20.804 F406.
X19.755 Y20.771
X19.783 Y20.709
X19.826 Y20.657
X19.88 Y20.617
X20.008 Y20.572
X20.132 Y20.625
X20.219 Y20.728
X20.25 Y20.86
G3 X20.239 Y20.908 R0.124 F466.
X19.753 Y20.804 R0.255
G1 X19.755 Y20.711 F406.
X19.757 Y20.677
X19.784 Y20.615
X19.827 Y20.563
X19.881 Y20.522
X20.008 Y20.478
X20.132 Y20.532
X20.219 Y20.635
X20.25 Y20.766
G3 X20.239 Y20.813 R0.124 F466.
X19.755 Y20.711 R0.254
G1 X19.757 Y20.611 F406.
X19.759 Y20.577
X19.788 Y20.516
X19.832 Y20.465
X19.887 Y20.425
X20.016 Y20.386
X20.136 Y20.441
X20.22 Y20.543
X20.25 Y20.672
G3 X20.236 Y20.724 R0.123 F466.
X19.757 Y20.611 R0.254
G1 X19.759 Y20.516 F406.
X19.761 Y20.482
X19.79 Y20.421
X19.835 Y20.37
X19.89 Y20.332
X20.019 Y20.292
X20.138 Y20.347
X20.22 Y20.448
X20.25 Y20.576
G3 X20.237 Y20.627 R0.123 F466.
X19.759 Y20.516 R0.253
G1 X19.761 Y20.426 F406.
X19.763 Y20.393
X19.79 Y20.331
X19.834 Y20.28
X19.889 Y20.24
X20.017 Y20.197
X20.137 Y20.251
X20.22 Y20.352
X20.25 Y20.48
G3 X20.239 Y20.526 R0.122 F466.
X19.761 Y20.426 R0.25
G1 X19.762 Y20.359 F406.
X19.767 Y20.292
X19.797 Y20.231
X19.842 Y20.181
X19.897 Y20.142
X20.027 Y20.105
X20.137 Y20.157
X20.215 Y20.249
X20.247 Y20.366
X20.246 Y20.38 F466.
G3 X19.762 Y20.359 R0.243
G1 X19.765 Y20.263 F406.
X19.768 Y20.217
X19.791 Y20.153
X19.833 Y20.101
X19.886 Y20.058
X19.948 Y20.033
X20.055 Y20.043
X20.149 Y20.094
X20.215 Y20.178
X20.242 Y20.282
X20.24 Y20.307 F466.
G3 X19.765 Y20.263 R0.24
G1 X19.776 Y20.138 F406.
X19.79 Y20.072
X19.829 Y20.018
X19.942 Y19.943
X20.051 Y19.958
X20.145 Y20.014
X20.211 Y20.101
X20.239 Y20.208
G3 X20.23 Y20.253 R0.117 F466.
X19.776 Y20.138 R0.236
G1 X19.79 Y20.047 F406.
X19.796 Y20.013
X19.8 Y19.985
X19.805 Y19.962
X19.85 Y19.912
X19.91 Y19.881
X20.048 Y19.89
X20.162 Y19.968
X20.22 Y20.094
G3 X20.182 Y20.192 R0.109 F466.
X19.8 Y19.985 R0.234
G1 X19.818 Y19.916 F406.
X19.83 Y19.893
X19.846 Y19.872
X19.937 Y19.809
G3 X20.089 Y19.872 R0.15 F466.
X19.846 Y20.039 R0.147
Y19.872 R0.147
G1 X19.902 Y19.826 F406.
X19.973 Y19.802
X19.987 Y19.799
X20.001
X20.103 Y19.828
G3 X20.157 Y19.994 R0.159 F466.
X19.861 Y19.912 R0.154
X20.001 Y19.799 R0.154
G1 X20.083 Y19.818 F406.
X20.146 Y19.863
X20.19 Y19.934
X20.238 Y20.206
X20.25 Y20.426
Y20.647
X20.239 Y20.704 Z-28.484 F466.
X20.228 Y20.759 Z-28.468
X20.218 Y20.81 Z-28.442
X20.209 Y20.856 Z-28.407
X20.202 Y20.894 Z-28.363
X20.189 Y20.925 Z-28.306
X20.181 Y20.945 Z-28.242
X20.178 Y20.951 Z-28.176
G0 Z2.
X20.081 Y63.719
Z-11.19
G1 Z-11.99 F466.
G3 X19.919 Y64.139 Z-12.115 R0.225
X20.081 Y63.719 Z-12.239 R0.225
X19.919 Y64.139 Z-12.364 R0.225
X20.081 Y63.719 Z-12.489 R0.225
X19.919 Y64.139 Z-12.613 R0.225
X20.081 Y63.719 Z-12.738 R0.225
X19.919 Y64.139 Z-12.862 R0.225
X20.081 Y63.719 Z-12.987 R0.225
X19.919 Y64.139 Z-13.112 R0.225
X20.081 Y63.719 Z-13.236 R0.225
X19.919 Y64.139 Z-13.361 R0.225
X20.081 Y63.719 Z-13.486 R0.225
X19.919 Y64.139 Z-13.61 R0.225
X20.081 Y63.719 Z-13.735 R0.225
X19.919 Y64.139 Z-13.86 R0.225
X20.081 Y63.719 Z-13.984 R0.225
X19.919 Y64.139 Z-14.109 R0.225
X20.081 Y63.719 Z-14.233 R0.225
X19.919 Y64.139 Z-14.358 R0.225
X20.081 Y63.719 Z-14.483 R0.225
X19.919 Y64.139 Z-14.607 R0.225
X20.081 Y63.719 Z-14.732 R0.225
X19.919 Y64.139 Z-14.857 R0.225
X20.081 Y63.719 Z-14.981 R0.225
X19.919 Y64.139 Z-15.106 R0.225
X20.081 Y63.719 Z-15.231 R0.225
X19.919 Y64.139 Z-15.355 R0.225
X20.081 Y63.719 Z-15.48 R0.225
X19.919 Y64.139 Z-15.605 R0.225
X20.081 Y63.719 Z-15.729 R0.225
X19.919 Y64.139 Z-15.854 R0.225
X20.081 Y63.719 Z-15.978 R0.225
X19.919 Y64.139 Z-16.103 R0.225
X20.081 Y63.719 Z-16.228 R0.225
X19.919 Y64.139 Z-16.352 R0.225
X20.081 Y63.719 Z-16.477 R0.225
X19.919 Y64.139 Z-16.602 R0.225
X20.081 Y63.719 Z-16.726 R0.225
X19.919 Y64.139 Z-16.851 R0.225
X20.081 Y63.719 Z-16.976 R0.225
X19.919 Y64.139 Z-17.1 R0.225
X20.081 Y63.719 Z-17.225 R0.225
X19.919 Y64.139 Z-17.349 R0.225
X20.081 Y63.719 Z-17.474 R0.225
X19.919 Y64.139 Z-17.599 R0.225
X20.081 Y63.719 Z-17.723 R0.225
X19.919 Y64.139 Z-17.848 R0.225
X20.081 Y63.719 Z-17.973 R0.225
X19.919 Y64.139 Z-18.097 R0.225
X20.081 Y63.719 Z-18.222 R0.225
X19.919 Y64.139 Z-18.347 R0.225
X20.081 Y63.719 Z-18.471 R0.225
X19.919 Y64.139 Z-18.596 R0.225
X20.081 Y63.719 Z-18.72 R0.225
X19.919 Y64.139 Z-18.845 R0.225
X20.081 Y63.719 Z-18.97 R0.225
X19.919 Y64.139 Z-19.094 R0.225
X20.081 Y63.719 Z-19.219 R0.225
X19.919 Y64.139 Z-19.344 R0.225
X20.081 Y63.719 Z-19.468 R0.225
X19.919 Y64.139 Z-19.593 R0.225
X20.081 Y63.719 Z-19.718 R0.225
X19.919 Y64.139 Z-19.842 R0.225
X20.081 Y63.719 Z-19.967 R0.225
X19.919 Y64.139 Z-20.091 R0.225
X20.081 Y63.719 Z-20.216 R0.225
X19.919 Y64.139 Z-20.341 R0.225
X20.081 Y63.719 Z-20.465 R0.225
X19.919 Y64.139 Z-20.59 R0.225
X20.081 Y63.719 Z-20.715 R0.225
X19.919 Y64.139 Z-20.839 R0.225
X20.081 Y63.719 Z-20.964 R0.225
X19.919 Y64.139 Z-21.089 R0.225
X20.081 Y63.719 Z-21.213 R0.225
X19.919 Y64.139 Z-21.338 R0.225
X20.081 Y63.719 Z-21.463 R0.225
X19.919 Y64.139 Z-21.587 R0.225
X20.081 Y63.719 Z-21.712 R0.225
X19.919 Y64.139 Z-21.836 R0.225
X20.081 Y63.719 Z-21.961 R0.225
X19.919 Y64.139 Z-22.086 R0.225
X20.081 Y63.719 Z-22.21 R0.225
X19.919 Y64.139 Z-22.335 R0.225
X20.081 Y63.719 Z-22.46 R0.225
X19.919 Y64.139 Z-22.584 R0.225
X20.081 Y63.719 Z-22.709 R0.225
X19.919 Y64.139 Z-22.834 R0.225
X20.081 Y63.719 Z-22.958 R0.225
X19.919 Y64.139 Z-23.083 R0.225
X20.081 Y63.719 Z-23.207 R0.225
X19.919 Y64.139 Z-23.332 R0.225
X20.081 Y63.719 Z-23.457 R0.225
X19.919 Y64.139 Z-23.581 R0.225
X20.081 Y63.719 Z-23.706 R0.225
X19.919 Y64.139 Z-23.831 R0.225
X20.081 Y63.719 Z-23.955 R0.225
X19.919 Y64.139 Z-24.08 R0.225
X20.081 Y63.719 Z-24.205 R0.225
X19.919 Y64.139 Z-24.329 R0.225
X20.081 Y63.719 Z-24.454 R0.225
X19.919 Y64.139 Z-24.578 R0.225
X20.081 Y63.719 Z-24.703 R0.225
X19.919 Y64.139 Z-24.828 R0.225
X20.081 Y63.719 Z-24.952 R0.225
X19.919 Y64.139 Z-25.077 R0.225
X20.081 Y63.719 Z-25.202 R0.225
X19.919 Y64.139 Z-25.326 R0.225
X20.081 Y63.719 Z-25.451 R0.225
X19.919 Y64.139 Z-25.576 R0.225
X20.081 Y63.719 Z-25.7 R0.225
X19.919 Y64.139 Z-25.825 R0.225
X20.081 Y63.719 Z-25.949 R0.225
X19.919 Y64.139 Z-26.074 R0.225
X20.081 Y63.719 Z-26.199 R0.225
X19.919 Y64.139 Z-26.323 R0.225
X20.081 Y63.719 Z-26.448 R0.225
X19.919 Y64.139 Z-26.573 R0.225
X20.081 Y63.719 Z-26.697 R0.225
X19.919 Y64.139 Z-26.822 R0.225
X20.081 Y63.719 Z-26.947 R0.225
X19.919 Y64.139 Z-27.071 R0.225
X20.081 Y63.719 Z-27.196 R0.225
X19.919 Y64.139 Z-27.32 R0.225
X20.081 Y63.719 Z-27.445 R0.225
X19.919 Y64.139 Z-27.57 R0.225
X20.081 Y63.719 Z-27.694 R0.225
X19.919 Y64.139 Z-27.819 R0.225
X20.081 Y63.719 Z-27.944 R0.225
X19.919 Y64.139 Z-28.068 R0.225
X20.081 Y63.719 Z-28.193 R0.225
X19.919 Y64.139 Z-28.318 R0.225
X20.081 Y63.719 Z-28.442 R0.225
X20.225 Y63.929 Z-28.49 R0.225
X19.775 R0.225
X20.225 R0.225
G1 X20.247 Y64.065 F406.
X20.25 Y64.134
Y64.15
X20.248 Y64.184
X20.119 Y64.232
X19.982 Y64.223
X19.862 Y64.158
X19.779 Y64.048
X19.75 Y63.914
G3 X19.868 Y63.795 R0.123 F466.
X20.25 Y64.15 R0.368
G1 Y64.187 F406.
X20.248 Y64.221
X20.2 Y64.269
X20.081 Y64.332
X19.955 Y64.309
X19.847 Y64.239
X19.775 Y64.132
X19.75 Y64.006
G3 X19.836 Y63.892 R0.124 F466.
X20.25 Y64.187 R0.317
G1 X20.249 Y64.243 F406.
X20.247 Y64.277
X20.212 Y64.334
X20.16 Y64.377
X20.034 Y64.427
X19.923 Y64.394
X19.832 Y64.324
X19.771 Y64.226
X19.75 Y64.113
G3 X19.804 Y64.015 R0.124 F466.
X20.249 Y64.243 R0.285
G1 X20.248 Y64.309 F406.
X20.246 Y64.342
X20.215 Y64.402
X20.17 Y64.452
X20.111 Y64.486
X19.98 Y64.518
X19.861 Y64.461
X19.779 Y64.358
X19.75 Y64.23
G3 X19.774 Y64.161 R0.124 F466.
X19.979 Y64.053 R0.262
X20.076 Y64.069 R0.262
X20.248 Y64.309 R0.262
G1 Y64.371 F406.
X20.24 Y64.438
X20.207 Y64.497
X20.159 Y64.545
X20.102 Y64.58
X19.971 Y64.612
X19.857 Y64.555
X19.778 Y64.455
X19.75 Y64.331
G3 X19.757 Y64.294 R0.124 F466.
X20.248 Y64.371 R0.252
G1 X20.242 Y64.463 F406.
X20.234 Y64.531
X20.201 Y64.59
X20.154 Y64.638
X20.097 Y64.673
X19.966 Y64.707
X19.854 Y64.651
X19.777 Y64.552
X19.75 Y64.43
X19.752 Y64.413 F466.
G3 X20.242 Y64.463 R0.247
G1 X20.233 Y64.592 F406.
X20.23 Y64.625
X20.196 Y64.684
X20.149 Y64.732
X20.092 Y64.768
X19.961 Y64.802
X19.852 Y64.746
X19.777 Y64.649
X19.75 Y64.53
G3 X19.76 Y64.485 R0.121 F466.
X20.233 Y64.592 R0.247
G1 X20.229 Y64.659 F406.
X20.221 Y64.726
X20.15 Y64.841
X20.091 Y64.873
X19.967 Y64.871
X19.856 Y64.817
X19.779 Y64.721
X19.75 Y64.6
G3 X19.76 Y64.555 R0.12 F466.
X19.967 Y64.408 R0.245
X20.061 Y64.42 R0.245
X20.229 Y64.659 R0.245
G1 X20.221 Y64.787 F406.
X20.217 Y64.82
X20.186 Y64.881
X20.133 Y64.922
X20.009 Y64.975
X19.88 Y64.928
X19.787 Y64.826
X19.752 Y64.693
G3 X19.779 Y64.62 R0.118 F466.
X19.986 Y64.53 R0.25
X20.055 Y64.544 R0.25
X20.221 Y64.787 R0.25
G1 X20.212 Y64.88 F406.
X20.207 Y64.913
X20.171 Y64.97
X20.121 Y65.015
X20.004 Y65.031
X19.891 Y64.995
X19.805 Y64.914
X19.763 Y64.804
G3 X19.785 Y64.724 R0.114 F466.
X20.212 Y64.88 R0.237
G1 X20.206 Y64.944 F406.
X20.201 Y64.976
X20.174 Y65.038
X20.121 Y65.08
X20.009 Y65.094
X19.901 Y65.059
X19.818 Y64.982
X19.775 Y64.878
G3 X19.794 Y64.8 R0.11 F466.
X20.206 Y64.944 R0.227
G1 X20.197 Y65.034 F406.
X20.194 Y65.051
X20.189 Y65.067
X20.146 Y65.134
X20.123 Y65.158
G3 X20.027 Y65.055 R0.08 F466.
G1 X20.072 Y64.92
X20.146 Y64.697
G2 X19.766 Y64.571 R0.2
X19.98 Y64.833 R0.2
G3 X20.035 Y64.834 R0.191
X20.189 Y65.067 R0.191
G1 X20.146 Y65.137 F406.
X20.103 Y65.171
X20.083 Y65.182
X20.07 Y65.188
X20.001 Y65.201
G3 X19.887 Y65.094 R0.131 F466.
X20.143 Y65.047 R0.13
X20.07 Y65.188 R0.13
G1 X20.001 Y65.201 F406.
X19.973 Y65.198
X19.952 Y65.194
X19.888 Y65.166
X19.837 Y65.117
X19.811 Y65.067
X19.752 Y64.73
X19.75 Y63.862
X19.753 Y63.795
X19.782 Y63.734
X19.827 Y63.683
X19.94 Y63.609
X20.057 Y63.625
X20.158 Y63.686
X20.226 Y63.782
X20.25 Y63.898
G3 X20.244 Y63.933 R0.125 F466.
X20.041 Y64.104 R0.253
X19.929 Y64.096 R0.253
X19.75 Y63.862 R0.253
G1 Y63.737 F406.
X19.753 Y63.669
X19.789 Y63.612
X19.84 Y63.567
X19.962 Y63.51
X20.073 Y63.537
X20.166 Y63.602
X20.228 Y63.698
X20.25 Y63.81
G3 X20.228 Y63.877 R0.124 F466.
X19.75 Y63.737 R0.262
G1 Y63.641 F406.
X19.752 Y63.607
X19.78 Y63.546
X19.822 Y63.494
X19.878 Y63.456
X20.007 Y63.416
X20.132 Y63.469
X20.219 Y63.573
X20.25 Y63.705
G3 X20.233 Y63.763 R0.125 F466.
X19.75 Y63.641 R0.259
G1 Y63.577 F406.
X19.753 Y63.51
X19.783 Y63.449
X19.828 Y63.399
X19.884 Y63.36
X20.013 Y63.322
X20.135 Y63.377
X20.22 Y63.48
X20.25 Y63.61
G3 X20.245 Y63.642 R0.125 F466.
X19.75 Y63.577 R0.253
G1 Y63.451 F406.
X19.752 Y63.417
X19.782 Y63.357
X19.827 Y63.306
X19.882 Y63.268
X20.01 Y63.226
X20.133 Y63.28
X20.219 Y63.383
X20.25 Y63.514
G3 X20.233 Y63.572 R0.125 F466.
X19.75 Y63.451 R0.259
G1 Y63.356 F406.
X19.752 Y63.322
X19.782 Y63.262
X19.827 Y63.211
X19.882 Y63.172
X20.01 Y63.131
X20.133 Y63.185
X20.219 Y63.289
X20.25 Y63.419
G3 X20.233 Y63.478 R0.125 F466.
X19.75 Y63.356 R0.259
G1 Y63.295 F406.
X19.753 Y63.228
X19.783 Y63.167
X19.828 Y63.116
X19.883 Y63.077
X20.012 Y63.037
X20.134 Y63.091
X20.219 Y63.194
X20.25 Y63.324
X20.246 Y63.353 F466.
G3 X19.75 Y63.295 R0.252
G1 Y63.2 F406.
X19.753 Y63.132
X19.784 Y63.072
X19.828 Y63.021
X19.884 Y62.982
X20.012 Y62.942
X20.134 Y62.996
X20.22 Y63.099
X20.25 Y63.229
X20.246 Y63.258 F466.
G3 X19.75 Y63.2 R0.252
G1 Y63.108 F406.
X19.753 Y63.041
X19.782 Y62.98
X19.827 Y62.929
X19.881 Y62.889
X20.009 Y62.847
X20.133 Y62.9
X20.219 Y63.003
X20.25 Y63.134
X20.247 Y63.159 F466.
G3 X19.75 Y63.108 R0.252
G1 Y63.009 F406.
X19.753 Y62.942
X19.784 Y62.882
X19.829 Y62.831
X19.884 Y62.792
X20.013 Y62.753
X20.135 Y62.807
X20.22 Y62.91
X20.25 Y63.039
X20.245 Y63.069 F466.
G3 X19.75 Y63.009 R0.253
G1 Y62.9 F406.
X19.753 Y62.833
X19.826 Y62.719
X19.943 Y62.652
X20.06 Y62.674
X20.16 Y62.739
X20.227 Y62.838
X20.25 Y62.955
G3 X20.237 Y63.007 R0.125 F466.
X19.75 Y62.9 R0.257
G1 Y62.789 F406.
X19.753 Y62.721
X19.787 Y62.663
X19.835 Y62.615
X19.958 Y62.558
X20.07 Y62.585
X20.165 Y62.652
X20.228 Y62.749
X20.25 Y62.863
G3 X20.228 Y62.93 R0.124 F466.
X19.75 Y62.789 R0.263
G1 Y62.679 F406.
X19.752 Y62.645
X19.783 Y62.585
X19.827 Y62.534
X19.885 Y62.5
X20.015 Y62.464
X20.136 Y62.52
X20.22 Y62.623
X20.25 Y62.753
G3 X20.228 Y62.819 R0.124 F466.
X19.75 Y62.679 R0.262
G1 Y62.604 F406.
X19.752 Y62.571
X19.777 Y62.508
X19.82 Y62.456
X19.874 Y62.415
X20. Y62.366
X20.127 Y62.418
X20.218 Y62.523
X20.25 Y62.657
G3 X20.238 Y62.706 R0.125 F466.
X19.75 Y62.604 R0.257
G1 Y62.537 F406.
X19.753 Y62.47
X19.782 Y62.409
X19.825 Y62.356
X19.879 Y62.316
X20.007 Y62.275
X20.132 Y62.328
X20.219 Y62.432
X20.25 Y62.564
X20.246 Y62.59 F466.
G3 X19.75 Y62.537 R0.252
G1 Y62.441 F406.
X19.753 Y62.374
X19.782 Y62.312
X19.826 Y62.261
X19.88 Y62.222
X20.009 Y62.181
X20.133 Y62.234
X20.219 Y62.338
X20.25 Y62.469
X20.246 Y62.496 F466.
G3 X19.75 Y62.441 R0.252
G1 Y62.347 F406.
X19.753 Y62.279
X19.782 Y62.218
X19.826 Y62.167
X19.881 Y62.128
X20.009 Y62.086
X20.133 Y62.14
X20.219 Y62.243
X20.25 Y62.374
X20.246 Y62.401 F466.
G3 X19.75 Y62.347 R0.252
G1 Y62.237 F406.
X19.753 Y62.17
X19.823 Y62.054
X19.94 Y61.986
X20.058 Y62.007
X20.159 Y62.073
X20.226 Y62.173
X20.25 Y62.29
G3 X20.238 Y62.34 R0.125 F466.
X19.75 Y62.237 R0.257
G1 Y62.126 F406.
X19.753 Y62.059
X19.786 Y61.999
X19.833 Y61.951
X19.955 Y61.893
X20.069 Y61.919
X20.164 Y61.986
X20.228 Y62.084
X20.25 Y62.199
G3 X20.229 Y62.264 R0.124 F466.
X19.75 Y62.126 R0.262
G1 Y62.017 F406.
X19.752 Y61.983
X19.782 Y61.922
X19.825 Y61.871
X19.883 Y61.836
X20.013 Y61.799
X20.135 Y61.855
X20.22 Y61.958
X20.25 Y62.088
G3 X20.229 Y62.154 R0.124 F466.
X19.75 Y62.017 R0.262
G1 Y61.942 F406.
X19.752 Y61.908
X19.776 Y61.845
X19.819 Y61.793
X19.872 Y61.751
X19.997 Y61.702
X20.126 Y61.753
X20.217 Y61.858
X20.25 Y61.993
G3 X20.238 Y62.041 R0.125 F466.
X19.75 Y61.942 R0.256
G1 Y61.849 F406.
X19.753 Y61.782
X19.825 Y61.667
X19.944 Y61.602
X20.061 Y61.625
X20.16 Y61.691
X20.227 Y61.791
X20.25 Y61.908
G3 X20.235 Y61.963 R0.125 F466.
X19.75 Y61.849 R0.258
G1 Y61.721 F406.
X19.752 Y61.687
X19.781 Y61.627
X19.826 Y61.576
X19.945 Y61.512
X20.062 Y61.536
X20.161 Y61.603
X20.227 Y61.702
X20.25 Y61.819
G3 X20.214 Y61.902 R0.124 F466.
X19.75 Y61.721 R0.271
G1 Y61.654 F406.
X19.753 Y61.586
X19.786 Y61.527
X19.833 Y61.479
X19.955 Y61.421
X20.069 Y61.447
X20.164 Y61.514
X20.228 Y61.612
X20.25 Y61.727
G3 X20.228 Y61.793 R0.124 F466.
X19.75 Y61.654 R0.262
G1 Y61.563 F406.
X19.753 Y61.495
X19.787 Y61.437
X19.834 Y61.388
X19.956 Y61.33
X20.069 Y61.356
X20.164 Y61.423
X20.228 Y61.521
X20.25 Y61.635
G3 X20.229 Y61.7 R0.124 F466.
X19.75 Y61.563 R0.262
G1 Y61.464 F406.
X19.753 Y61.396
X19.789 Y61.339
X19.838 Y61.293
X19.961 Y61.237
X20.073 Y61.265
X20.166 Y61.332
X20.228 Y61.428
X20.25 Y61.541
G3 X20.226 Y61.611 R0.124 F466.
X19.75 Y61.464 R0.264
G1 Y61.354 F406.
X19.752 Y61.32
X19.784 Y61.261
X19.829 Y61.211
X19.888 Y61.178
X20.018 Y61.143
X20.138 Y61.199
X20.22 Y61.302
X20.25 Y61.43
G3 X20.227 Y61.498 R0.124 F466.
X19.75 Y61.354 R0.263
G1 Y61.279 F406.
X19.752 Y61.246
X19.778 Y61.184
X19.822 Y61.133
X19.876 Y61.092
X20.003 Y61.045
X20.129 Y61.097
X20.218 Y61.201
X20.25 Y61.334
G3 X20.237 Y61.385 R0.125 F466.
X19.75 Y61.279 R0.257
G1 Y61.212 F406.
X19.753 Y61.145
X19.813 Y61.024
X19.87 Y60.986
X19.999 Y60.948
X20.127 Y61.001
X20.218 Y61.106
X20.25 Y61.241
X20.246 Y61.27 F466.
G3 X19.75 Y61.212 R0.252
G1 Y61.085 F406.
X19.752 Y61.051
X19.776 Y60.988
X19.819 Y60.936
X19.873 Y60.896
X20.002 Y60.854
X20.129 Y60.908
X20.218 Y61.013
X20.25 Y61.147
G3 X20.234 Y61.204 R0.125 F466.
X19.75 Y61.085 R0.259
G1 Y60.991 F406.
X19.752 Y60.958
X19.778 Y60.895
X19.821 Y60.843
X19.875 Y60.803
X20.003 Y60.76
X20.129 Y60.814
X20.218 Y60.918
X20.25 Y61.052
G3 X20.234 Y61.108 R0.125 F466.
X19.75 Y60.991 R0.259
G1 Y60.9 F406.
X19.752 Y60.866
X19.777 Y60.804
X19.82 Y60.752
X19.874 Y60.711
X20.001 Y60.666
X20.128 Y60.719
X20.218 Y60.823
X20.25 Y60.957
G3 X20.236 Y61.011 R0.125 F466.
X19.75 Y60.9 R0.258
G1 Y60.801 F406.
X19.752 Y60.767
X19.78 Y60.706
X19.824 Y60.654
X19.878 Y60.614
X20.006 Y60.573
X20.131 Y60.627
X20.219 Y60.731
X20.25 Y60.863
G3 X20.235 Y60.919 R0.125 F466.
X19.75 Y60.801 R0.258
G1 X19.751 Y60.706 F406.
X19.753 Y60.673
X19.781 Y60.611
X19.825 Y60.56
X19.88 Y60.52
X20.008 Y60.479
X20.132 Y60.533
X20.219 Y60.637
X20.25 Y60.768
G3 X20.235 Y60.824 R0.124 F466.
X19.751 Y60.706 R0.258
G1 X19.752 Y60.617 F406.
X19.759 Y60.55
X19.835 Y60.439
X19.956 Y60.377
X20.069 Y60.403
X20.164 Y60.469
X20.228 Y60.566
X20.25 Y60.68
G3 X20.234 Y60.737 R0.124 F466.
X19.752 Y60.617 R0.258
G1 X19.758 Y60.498 F406.
X19.765 Y60.431
X19.803 Y60.375
X19.855 Y60.332
X19.98 Y60.283
X20.117 Y60.332
X20.215 Y60.44
X20.25 Y60.581
G3 X20.229 Y60.645 R0.123 F466.
X19.758 Y60.498 R0.257
G1 X19.763 Y60.396 F406.
X19.767 Y60.363
X19.8 Y60.304
X19.846 Y60.255
X19.906 Y60.222
X20.038 Y60.194
X20.148 Y60.251
X20.223 Y60.35
X20.25 Y60.471
G3 X20.233 Y60.528 R0.122 F466.
X19.763 Y60.396 R0.252
G1 X19.767 Y60.329 F406.
X19.774 Y60.262
X19.811 Y60.205
X19.86 Y60.159
X19.919 Y60.126
X20.041 Y60.13
X20.149 Y60.185
X20.223 Y60.28
X20.25 Y60.399
G3 X20.235 Y60.453 R0.121 F466.
X19.767 Y60.329 R0.249
G1 X19.772 Y60.238 F406.
X19.779 Y60.17
X19.815 Y60.113
X19.924 Y60.035
X20.039 Y60.046
X20.141 Y60.101
X20.212 Y60.192
X20.243 Y60.303
G3 X20.226 Y60.368 R0.118 F466.
X19.772 Y60.238 R0.245
G1 X19.78 Y60.139 F406.
X19.792 Y60.072
X19.83 Y60.016
X19.887 Y59.981
X20.016 Y59.941
X20.117 Y59.985
X20.193 Y60.064
X20.232 Y60.166
G3 X20.229 Y60.22 R0.137 F466.
X19.78 Y60.139 R0.229
G1 X19.795 Y60.029 F406.
X19.8 Y59.988
X19.805 Y59.955
X19.814 Y59.93
X19.868 Y59.89
X19.981 Y59.873
X20.09 Y59.906
X20.174 Y59.982
X20.218 Y60.087
G3 X20.16 Y60.199 R0.108 F466.
X19.985 Y60.216 R0.246
X19.955 Y60.206 R0.246
X19.805 Y59.955 R0.246
G1 X19.822 Y59.909 F406.
X19.83 Y59.894
X19.841 Y59.878
X19.872 Y59.846
G3 X20.033 Y59.857 R0.13 F466.
X19.86 Y60.045 R0.128
X19.841 Y59.878 R0.128
G1 X19.889 Y59.833 F406.
X19.912 Y59.821
X19.931 Y59.812
X19.951 Y59.806
G3 X19.981 Y59.961 R0.079 F466.
X19.904 Y59.834 R0.079
X19.931 Y59.812 R0.088
G1 X19.952 Y59.806 F406.
X19.973 Y59.802
X20.001 Y59.799
X20.028 Y59.802
X20.056 Y59.807
X20.123 Y59.842
X20.163 Y59.884
X20.195 Y59.955
X20.234 Y60.175
X20.25 Y60.396
Y60.617
G3 X20.178 Y60.921 R0.8 F466.
G1 X20.135 Y61.016 Z-28.483
X20.093 Y61.109 Z-28.463
X20.052 Y61.199 Z-28.429
X20.013 Y61.285 Z-28.383
X19.976 Y61.364 Z-28.325
X19.944 Y61.436 Z-28.256
X19.915 Y61.498 Z-28.177
X19.891 Y61.551 Z-28.09
X19.872 Y61.593 Z-27.996
X19.858 Y61.624 Z-27.897
X19.85 Y61.643 Z-27.794
X19.847 Y61.649 Z-27.69
G0 Z4.

(ADAPTIVE2)
M8
G0 X-20.035 Y-60.145
Z4.
Z2.
Z-11.196
G1 Z-11.995 F466.
G3 X-19.966 Y-59.854 Z-12.079 R0.15
X-20.035 Y-60.145 Z-12.162 R0.15
X-19.966 Y-59.854 Z-12.245 R0.15
X-20.035 Y-60.145 Z-12.328 R0.15
X-19.966 Y-59.854 Z-12.411 R0.15
X-20.035 Y-60.145 Z-12.494 R0.15
X-19.966 Y-59.854 Z-12.577 R0.15
X-20.035 Y-60.145 Z-12.66 R0.15
X-19.966 Y-59.854 Z-12.743 R0.15
X-20.035 Y-60.145 Z-12.826 R0.15
X-19.966 Y-59.854 Z-12.91 R0.15
X-20.035 Y-60.145 Z-12.993 R0.15
X-19.966 Y-59.854 Z-13.076 R0.15
X-20.035 Y-60.145 Z-13.159 R0.15
X-19.966 Y-59.854 Z-13.242 R0.15
X-20.035 Y-60.145 Z-13.325 R0.15
X-19.966 Y-59.854 Z-13.408 R0.15
X-20.035 Y-60.145 Z-13.491 R0.15
X-19.966 Y-59.854 Z-13.574 R0.15
X-20.035 Y-60.145 Z-13.657 R0.15
X-19.966 Y-59.854 Z-13.74 R0.15
X-20.035 Y-60.145 Z-13.824 R0.15
X-19.966 Y-59.854 Z-13.907 R0.15
X-20.035 Y-60.145 Z-13.99 R0.15
X-19.966 Y-59.854 Z-14.073 R0.15
X-20.035 Y-60.145 Z-14.156 R0.15
X-19.966 Y-59.854 Z-14.239 R0.15
X-20.035 Y-60.145 Z-14.322 R0.15
X-19.966 Y-59.854 Z-14.405 R0.15
X-20.035 Y-60.145 Z-14.488 R0.15
X-19.966 Y-59.854 Z-14.571 R0.15
X-20.035 Y-60.145 Z-14.654 R0.15
X-19.966 Y-59.854 Z-14.738 R0.15
X-20.035 Y-60.145 Z-14.821 R0.15
X-19.966 Y-59.854 Z-14.904 R0.15
X-20.035 Y-60.145 Z-14.987 R0.15
X-19.966 Y-59.854 Z-15.07 R0.15
X-20.035 Y-60.145 Z-15.153 R0.15
X-19.966 Y-59.854 Z-15.236 R0.15
X-20.035 Y-60.145 Z-15.319 R0.15
X-19.966 Y-59.854 Z-15.402 R0.15
X-20.035 Y-60.145 Z-15.485 R0.15
X-19.966 Y-59.854 Z-15.568 R0.15
X-20.035 Y-60.145 Z-15.652 R0.15
X-19.966 Y-59.854 Z-15.735 R0.15
X-20.035 Y-60.145 Z-15.818 R0.15
X-19.966 Y-59.854 Z-15.901 R0.15
X-20.035 Y-60.145 Z-15.984 R0.15
X-19.966 Y-59.854 Z-16.067 R0.15
X-20.035 Y-60.145 Z-16.15 R0.15
X-19.966 Y-59.854 Z-16.233 R0.15
X-20.035 Y-60.145 Z-16.316 R0.15
X-19.966 Y-59.854 Z-16.399 R0.15
X-20.035 Y-60.145 Z-16.482 R0.15
X-19.966 Y-59.854 Z-16.566 R0.15
X-20.035 Y-60.145 Z-16.649 R0.15
X-19.966 Y-59.854 Z-16.732 R0.15
X-20.035 Y-60.145 Z-16.815 R0.15
X-19.966 Y-59.854 Z-16.898 R0.15
X-20.035 Y-60.145 Z-16.981 R0.15
X-19.966 Y-59.854 Z-17.064 R0.15
X-20.035 Y-60.145 Z-17.147 R0.15
X-19.966 Y-59.854 Z-17.23 R0.15
X-20.035 Y-60.145 Z-17.313 R0.15
X-19.966 Y-59.854 Z-17.396 R0.15
X-20.035 Y-60.145 Z-17.48 R0.15
X-19.966 Y-59.854 Z-17.563 R0.15
X-20.035 Y-60.145 Z-17.646 R0.15
X-19.966 Y-59.854 Z-17.729 R0.15
X-20.035 Y-60.145 Z-17.812 R0.15
X-19.966 Y-59.854 Z-17.895 R0.15
X-20.035 Y-60.145 Z-17.978 R0.15
X-19.966 Y-59.854 Z-18.061 R0.15
X-20.035 Y-60.145 Z-18.144 R0.15
X-19.966 Y-59.854 Z-18.227 R0.15
X-20.035 Y-60.145 Z-18.311 R0.15
X-19.966 Y-59.854 Z-18.394 R0.15
X-20.035 Y-60.145 Z-18.477 R0.15
X-19.966 Y-59.854 Z-18.56 R0.15
X-20.035 Y-60.145 Z-18.643 R0.15
X-19.966 Y-59.854 Z-18.726 R0.15
X-20.035 Y-60.145 Z-18.809 R0.15
X-19.966 Y-59.854 Z-18.892 R0.15
X-20.035 Y-60.145 Z-18.975 R0.15
X-19.966 Y-59.854 Z-19.058 R0.15
X-20.035 Y-60.145 Z-19.141 R0.15
X-19.966 Y-59.854 Z-19.225 R0.15
X-20.035 Y-60.145 Z-19.308 R0.15
X-19.966 Y-59.854 Z-19.391 R0.15
X-20.035 Y-60.145 Z-19.474 R0.15
X-19.966 Y-59.854 Z-19.557 R0.15
X-20.035 Y-60.145 Z-19.64 R0.15
X-19.966 Y-59.854 Z-19.723 R0.15
X-20.035 Y-60.145 Z-19.806 R0.15
X-19.966 Y-59.854 Z-19.889 R0.15
X-20.035 Y-60.145 Z-19.972 R0.15
X-19.966 Y-59.854 Z-20.055 R0.15
X-20.035 Y-60.145 Z-20.139 R0.15
X-19.966 Y-59.854 Z-20.222 R0.15
X-20.035 Y-60.145 Z-20.305 R0.15
X-19.966 Y-59.854 Z-20.388 R0.15
X-20.035 Y-60.145 Z-20.471 R0.15
X-19.966 Y-59.854 Z-20.554 R0.15
X-20.035 Y-60.145 Z-20.637 R0.15
X-19.966 Y-59.854 Z-20.72 R0.15
X-20.035 Y-60.145 Z-20.803 R0.15
X-19.966 Y-59.854 Z-20.886 R0.15
X-20.035 Y-60.145 Z-20.969 R0.15
X-19.966 Y-59.854 Z-21.053 R0.15
X-20.035 Y-60.145 Z-21.136 R0.15
X-19.966 Y-59.854 Z-21.219 R0.15
X-20.035 Y-60.145 Z-21.302 R0.15
X-19.966 Y-59.854 Z-21.385 R0.15
X-20.035 Y-60.145 Z-21.468 R0.15
X-19.966 Y-59.854 Z-21.551 R0.15
X-20.035 Y-60.145 Z-21.634 R0.15
X-19.966 Y-59.854 Z-21.717 R0.15
X-20.035 Y-60.145 Z-21.8 R0.15
X-19.966 Y-59.854 Z-21.883 R0.15
X-20.035 Y-60.145 Z-21.967 R0.15
X-19.966 Y-59.854 Z-22.05 R0.15
X-20.035 Y-60.145 Z-22.133 R0.15
X-19.966 Y-59.854 Z-22.216 R0.15
X-20.035 Y-60.145 Z-22.299 R0.15
X-19.966 Y-59.854 Z-22.382 R0.15
X-20.035 Y-60.145 Z-22.465 R0.15
X-19.966 Y-59.854 Z-22.548 R0.15
X-20.035 Y-60.145 Z-22.631 R0.15
X-19.966 Y-59.854 Z-22.714 R0.15
X-20.035 Y-60.145 Z-22.797 R0.15
X-19.966 Y-59.854 Z-22.881 R0.15
X-20.035 Y-60.145 Z-22.964 R0.15
X-19.966 Y-59.854 Z-23.047 R0.15
X-20.035 Y-60.145 Z-23.13 R0.15
X-19.966 Y-59.854 Z-23.213 R0.15
X-20.035 Y-60.145 Z-23.296 R0.15
X-19.966 Y-59.854 Z-23.379 R0.15
X-20.035 Y-60.145 Z-23.462 R0.15
X-19.966 Y-59.854 Z-23.545 R0.15
X-20.035 Y-60.145 Z-23.628 R0.15
X-19.966 Y-59.854 Z-23.711 R0.15
X-20.035 Y-60.145 Z-23.795 R0.15
X-19.966 Y-59.854 Z-23.878 R0.15
X-20.035 Y-60.145 Z-23.961 R0.15
X-19.966 Y-59.854 Z-24.044 R0.15
X-20.035 Y-60.145 Z-24.127 R0.15
X-19.966 Y-59.854 Z-24.21 R0.15
X-20.035 Y-60.145 Z-24.293 R0.15
X-19.966 Y-59.854 Z-24.376 R0.15
X-20.035 Y-60.145 Z-24.459 R0.15
X-19.966 Y-59.854 Z-24.542 R0.15
X-20.035 Y-60.145 Z-24.626 R0.15
X-19.966 Y-59.854 Z-24.709 R0.15
X-20.035 Y-60.145 Z-24.792 R0.15
X-19.966 Y-59.854 Z-24.875 R0.15
X-20.035 Y-60.145 Z-24.958 R0.15
X-19.966 Y-59.854 Z-25.041 R0.15
X-20.035 Y-60.145 Z-25.124 R0.15
X-19.966 Y-59.854 Z-25.207 R0.15
X-20.035 Y-60.145 Z-25.29 R0.15
X-19.966 Y-59.854 Z-25.373 R0.15
X-20.035 Y-60.145 Z-25.456 R0.15
X-19.966 Y-59.854 Z-25.54 R0.15
X-20.035 Y-60.145 Z-25.623 R0.15
X-19.966 Y-59.854 Z-25.706 R0.15
X-20.035 Y-60.145 Z-25.789 R0.15
X-19.966 Y-59.854 Z-25.872 R0.15
X-20.035 Y-60.145 Z-25.955 R0.15
X-19.966 Y-59.854 Z-26.038 R0.15
X-20.035 Y-60.145 Z-26.121 R0.15
X-19.966 Y-59.854 Z-26.204 R0.15
X-20.035 Y-60.145 Z-26.287 R0.15
X-19.966 Y-59.854 Z-26.37 R0.15
X-20.035 Y-60.145 Z-26.454 R0.15
X-19.966 Y-59.854 Z-26.537 R0.15
X-20.035 Y-60.145 Z-26.62 R0.15
X-19.966 Y-59.854 Z-26.703 R0.15
X-20.035 Y-60.145 Z-26.786 R0.15
X-19.966 Y-59.854 Z-26.869 R0.15
X-20.035 Y-60.145 Z-26.952 R0.15
X-19.966 Y-59.854 Z-27.035 R0.15
X-20.035 Y-60.145 Z-27.118 R0.15
X-19.966 Y-59.854 Z-27.201 R0.15
X-20.035 Y-60.145 Z-27.284 R0.15
X-19.966 Y-59.854 Z-27.368 R0.15
X-20.035 Y-60.145 Z-27.451 R0.15
X-19.966 Y-59.854 Z-27.534 R0.15
X-20.035 Y-60.145 Z-27.617 R0.15
X-19.966 Y-59.854 Z-27.7 R0.15
X-20.035 Y-60.145 Z-27.783 R0.15
X-19.966 Y-59.854 Z-27.866 R0.15
X-20.035 Y-60.145 Z-27.949 R0.15
X-19.966 Y-59.854 Z-28.032 R0.15
X-20.035 Y-60.145 Z-28.115 R0.15
X-19.966 Y-59.854 Z-28.198 R0.15
X-20.035 Y-60.145 Z-28.282 R0.15
X-19.966 Y-59.854 Z-28.365 R0.15
X-20.035 Y-60.145 Z-28.448 R0.15
X-19.85 Y-60. Z-28.496 R0.15
X-20.15 R0.15
X-19.85 R0.15
G1 X-19.849 Y-59.931 F406.
X-19.851 Y-59.917
X-19.855 Y-59.904
X-19.86 Y-59.892
X-19.867 Y-59.88
X-19.874 Y-59.869
X-19.883 Y-59.859
X-19.892 Y-59.849
X-19.903 Y-59.84
X-19.914 Y-59.832
X-19.925 Y-59.825
X-19.937 Y-59.82
X-19.95 Y-59.815
X-19.963 Y-59.811
X-19.976 Y-59.808
X-19.989 Y-59.806
X-20.016 Y-59.804
X-20.043 Y-59.807
X-20.069 Y-59.814
X-20.094 Y-59.824
X-20.117 Y-59.838
X-20.139 Y-59.855
X-20.157 Y-59.875
X-20.173 Y-59.897
X-20.185 Y-59.921
X-20.195 Y-59.946
X-20.2 Y-59.972
X-20.202 Y-59.999
X-20.201 Y-60.026
X-20.196 Y-60.053
X-20.187 Y-60.078
X-20.175 Y-60.102
X-20.16 Y-60.125
X-20.142 Y-60.145
X-20.121 Y-60.162
X-20.098 Y-60.177
X-20.074 Y-60.188
X-20.048 Y-60.197
X-20.022 Y-60.201
X-19.995 Y-60.202
X-19.968 Y-60.2
X-19.942 Y-60.194
X-19.916 Y-60.184
X-19.893 Y-60.171
X-19.871 Y-60.156
X-19.851 Y-60.137
X-19.834 Y-60.116
X-19.819 Y-60.094
X-19.806 Y-60.07
X-19.796 Y-60.045
X-19.789 Y-60.019
X-19.784 Y-59.992
X-19.783 Y-59.965
X-19.785 Y-59.939
X-19.791 Y-59.912
X-19.799 Y-59.887
X-19.811 Y-59.862
X-19.825 Y-59.839
X-19.834 Y-59.829
X-19.853 Y-59.809
X-19.874 Y-59.792
X-19.898 Y-59.777
X-19.924 Y-59.767
X-19.959 Y-59.758
X-19.994 Y-59.755
X-20.029 Y-59.757
X-20.064 Y-59.764
X-20.096 Y-59.775
X-20.134 Y-59.795
X-20.151 Y-59.807
X-20.168 Y-59.821
X-20.186 Y-59.841
X-20.204 Y-59.864
X-20.214 Y-59.881
X-20.223 Y-59.898
X-20.235 Y-59.931
X-20.243 Y-59.966
X-20.244 Y-59.984
X-20.245 Y-60.001
X-20.242 Y-60.036
X-20.239 Y-60.054
X-20.234 Y-60.071
X-20.222 Y-60.104
X-20.204 Y-60.136
X-20.2 Y-60.141
X-20.167 Y-60.179
X-20.15 Y-60.194
X-20.134 Y-60.205
X-20.124 Y-60.211
X-20.094 Y-60.226
X-20.064 Y-60.237
X-20.046 Y-60.241
X-20.029 Y-60.243
X-19.994 Y-60.245
X-19.959 Y-60.242
X-19.924 Y-60.233
X-19.9 Y-60.224
X-19.876 Y-60.211
X-19.854 Y-60.197
X-19.823 Y-60.169
X-19.8 Y-60.141
X-19.784 Y-60.115
X-19.774 Y-60.093
X-19.766 Y-60.071
X-19.761 Y-60.054
X-19.758 Y-60.036
X-19.755 Y-60.001
X-19.756 Y-59.984
X-19.757 Y-59.966
X-19.765 Y-59.931
X-19.773 Y-59.908
X-19.784 Y-59.885
X-19.798 Y-59.861
X-19.822 Y-59.833
X-19.854 Y-59.804
X-19.872 Y-59.791
X-19.898 Y-59.777
X-19.91 Y-59.776 Z-28.495 F466.
X-19.932 Y-59.786 Z-28.485
X-19.95 Y-59.794 Z-28.469
X-19.962 Y-59.799 Z-28.446
X-19.967 Y-59.8 Z-28.42
G0 Z2.
X-20.035 Y-20.146
Z-11.196
G1 Z-11.995 F466.
G3 X-19.965 Y-19.854 Z-12.079 R0.15
X-20.035 Y-20.146 Z-12.162 R0.15
X-19.965 Y-19.854 Z-12.245 R0.15
X-20.035 Y-20.146 Z-12.328 R0.15
X-19.965 Y-19.854 Z-12.411 R0.15
X-20.035 Y-20.146 Z-12.494 R0.15
X-19.965 Y-19.854 Z-12.577 R0.15
X-20.035 Y-20.146 Z-12.66 R0.15
X-19.965 Y-19.854 Z-12.743 R0.15
X-20.035 Y-20.146 Z-12.826 R0.15
X-19.965 Y-19.854 Z-12.91 R0.15
X-20.035 Y-20.146 Z-12.993 R0.15
X-19.965 Y-19.854 Z-13.076 R0.15
X-20.035 Y-20.146 Z-13.159 R0.15
X-19.965 Y-19.854 Z-13.242 R0.15
X-20.035 Y-20.146 Z-13.325 R0.15
X-19.965 Y-19.854 Z-13.408 R0.15
X-20.035 Y-20.146 Z-13.491 R0.15
X-19.965 Y-19.854 Z-13.574 R0.15
X-20.035 Y-20.146 Z-13.657 R0.15
X-19.965 Y-19.854 Z-13.74 R0.15
X-20.035 Y-20.146 Z-13.824 R0.15
X-19.965 Y-19.854 Z-13.907 R0.15
X-20.035 Y-20.146 Z-13.99 R0.15
X-19.965 Y-19.854 Z-14.073 R0.15
X-20.035 Y-20.146 Z-14.156 R0.15
X-19.965 Y-19.854 Z-14.239 R0.15
X-20.035 Y-20.146 Z-14.322 R0.15
X-19.965 Y-19.854 Z-14.405 R0.15
X-20.035 Y-20.146 Z-14.488 R0.15
X-19.965 Y-19.854 Z-14.571 R0.15
X-20.035 Y-20.146 Z-14.654 R0.15
X-19.965 Y-19.854 Z-14.738 R0.15
X-20.035 Y-20.146 Z-14.821 R0.15
X-19.965 Y-19.854 Z-14.904 R0.15
X-20.035 Y-20.146 Z-14.987 R0.15
X-19.965 Y-19.854 Z-15.07 R0.15
X-20.035 Y-20.146 Z-15.153 R0.15
X-19.965 Y-19.854 Z-15.236 R0.15
X-20.035 Y-20.146 Z-15.319 R0.15
X-19.965 Y-19.854 Z-15.402 R0.15
X-20.035 Y-20.146 Z-15.485 R0.15
X-19.965 Y-19.854 Z-15.568 R0.15
X-20.035 Y-20.146 Z-15.652 R0.15
X-19.965 Y-19.854 Z-15.735 R0.15
X-20.035 Y-20.146 Z-15.818 R0.15
X-19.965 Y-19.854 Z-15.901 R0.15
X-20.035 Y-20.146 Z-15.984 R0.15
X-19.965 Y-19.854 Z-16.067 R0.15
X-20.035 Y-20.146 Z-16.15 R0.15
X-19.965 Y-19.854 Z-16.233 R0.15
X-20.035 Y-20.146 Z-16.316 R0.15
X-19.965 Y-19.854 Z-16.399 R0.15
X-20.035 Y-20.146 Z-16.482 R0.15
X-19.965 Y-19.854 Z-16.566 R0.15
X-20.035 Y-20.146 Z-16.649 R0.15
X-19.965 Y-19.854 Z-16.732 R0.15
X-20.035 Y-20.146 Z-16.815 R0.15
X-19.965 Y-19.854 Z-16.898 R0.15
X-20.035 Y-20.146 Z-16.981 R0.15
X-19.965 Y-19.854 Z-17.064 R0.15
X-20.035 Y-20.146 Z-17.147 R0.15
X-19.965 Y-19.854 Z-17.23 R0.15
X-20.035 Y-20.146 Z-17.313 R0.15
X-19.965 Y-19.854 Z-17.396 R0.15
X-20.035 Y-20.146 Z-17.48 R0.15
X-19.965 Y-19.854 Z-17.563 R0.15
X-20.035 Y-20.146 Z-17.646 R0.15
X-19.965 Y-19.854 Z-17.729 R0.15
X-20.035 Y-20.146 Z-17.812 R0.15
X-19.965 Y-19.854 Z-17.895 R0.15
X-20.035 Y-20.146 Z-17.978 R0.15
X-19.965 Y-19.854 Z-18.061 R0.15
X-20.035 Y-20.146 Z-18.144 R0.15
X-19.965 Y-19.854 Z-18.227 R0.15
X-20.035 Y-20.146 Z-18.311 R0.15
X-19.965 Y-19.854 Z-18.394 R0.15
X-20.035 Y-20.146 Z-18.477 R0.15
X-19.965 Y-19.854 Z-18.56 R0.15
X-20.035 Y-20.146 Z-18.643 R0.15
X-19.965 Y-19.854 Z-18.726 R0.15
X-20.035 Y-20.146 Z-18.809 R0.15
X-19.965 Y-19.854 Z-18.892 R0.15
X-20.035 Y-20.146 Z-18.975 R0.15
X-19.965 Y-19.854 Z-19.058 R0.15
X-20.035 Y-20.146 Z-19.141 R0.15
X-19.965 Y-19.854 Z-19.225 R0.15
X-20.035 Y-20.146 Z-19.308 R0.15
X-19.965 Y-19.854 Z-19.391 R0.15
X-20.035 Y-20.146 Z-19.474 R0.15
X-19.965 Y-19.854 Z-19.557 R0.15
X-20.035 Y-20.146 Z-19.64 R0.15
X-19.965 Y-19.854 Z-19.723 R0.15
X-20.035 Y-20.146 Z-19.806 R0.15
X-19.965 Y-19.854 Z-19.889 R0.15
X-20.035 Y-20.146 Z-19.972 R0.15
X-19.965 Y-19.854 Z-20.055 R0.15
X-20.035 Y-20.146 Z-20.139 R0.15
X-19.965 Y-19.854 Z-20.222 R0.15
X-20.035 Y-20.146 Z-20.305 R0.15
X-19.965 Y-19.854 Z-20.388 R0.15
X-20.035 Y-20.146 Z-20.471 R0.15
X-19.965 Y-19.854 Z-20.554 R0.15
X-20.035 Y-20.146 Z-20.637 R0.15
X-19.965 Y-19.854 Z-20.72 R0.15
X-20.035 Y-20.146 Z-20.803 R0.15
X-19.965 Y-19.854 Z-20.886 R0.15
X-20.035 Y-20.146 Z-20.969 R0.15
X-19.965 Y-19.854 Z-21.053 R0.15
X-20.035 Y-20.146 Z-21.136 R0.15
X-19.965 Y-19.854 Z-21.219 R0.15
X-20.035 Y-20.146 Z-21.302 R0.15
