(_40_80_80_)
(T3  D=4. CR=0. - ZMIN=-28.496 - FLAT END MILL)
G90 G94 G91.1 G40 G49 G17
G21

(ADAPTIVE1)
M5
M9
T3
S1940 M3
G54
M8
G0 X-20.446 Y21.319
G43 Z4. H3
Z2.
Z-11.59
G1 Z-11.99 F155.
G3 X-19.554 Y20.113 Z-12.405 R0.75
X-20.446 Y21.319 Z-12.821 R0.75
X-19.554 Y20.113 Z-13.236 R0.75
X-20.446 Y21.319 Z-13.652 R0.75
X-19.554 Y20.113 Z-14.067 R0.75
X-20.446 Y21.319 Z-14.483 R0.75
X-19.554 Y20.113 Z-14.898 R0.75
X-20.446 Y21.319 Z-15.314 R0.75
X-19.554 Y20.113 Z-15.729 R0.75
X-20.446 Y21.319 Z-16.145 R0.75
X-19.554 Y20.113 Z-16.56 R0.75
X-20.446 Y21.319 Z-16.976 R0.75
X-19.554 Y20.113 Z-17.391 R0.75
X-20.446 Y21.319 Z-17.806 R0.75
X-19.554 Y20.113 Z-18.222 R0.75
X-20.446 Y21.319 Z-18.637 R0.75
X-19.554 Y20.113 Z-19.053 R0.75
X-20.446 Y21.319 Z-19.468 R0.75
X-19.554 Y20.113 Z-19.884 R0.75
X-20.446 Y21.319 Z-20.299 R0.75
X-19.554 Y20.113 Z-20.715 R0.75
X-20.446 Y21.319 Z-21.13 R0.75
X-19.554 Y20.113 Z-21.546 R0.75
X-20.446 Y21.319 Z-21.961 R0.75
X-19.554 Y20.113 Z-22.377 R0.75
X-19.25 Y20.716 Z-22.5 R0.75
X-20.75 R0.75
X-19.25 R0.75
G1 X-19.223 Y21.075
X-19.221 Y21.21
X-19.256 Y21.34
X-19.319 Y21.46
X-19.403 Y21.566
X-19.503 Y21.656
X-19.617 Y21.729
X-19.74 Y21.784
X-19.87 Y21.821
X-20.003 Y21.841
X-20.138 Y21.842
X-20.272 Y21.826
X-20.403 Y21.792
X-20.529 Y21.743
X-20.648 Y21.679
X-20.758 Y21.601
X-20.857 Y21.51
X-20.946 Y21.408
X-21.021 Y21.296
X-21.083 Y21.176
X-21.131 Y21.049
X-21.163 Y20.918
X-21.18 Y20.784
X-21.181 Y20.649
X-21.167 Y20.515
X-21.138 Y20.383
X-21.093 Y20.256
X-21.035 Y20.134
X-20.962 Y20.02
X-20.878 Y19.915
X-20.781 Y19.821
X-20.675 Y19.737
X-20.56 Y19.667
X-20.437 Y19.61
X-20.309 Y19.567
X-20.177 Y19.539
X-20.043 Y19.527
X-19.908 Y19.529
X-19.774 Y19.547
X-19.643 Y19.58
X-19.517 Y19.628
X-19.397 Y19.69
X-19.284 Y19.764
X-19.181 Y19.852
X-19.089 Y19.95
X-19.007 Y20.057
X-18.868 Y20.289
X-18.812 Y20.411
X-18.766 Y20.538
X-18.731 Y20.669
X-18.708 Y20.802
X-18.698 Y20.936
X-18.702 Y21.071
X-18.719 Y21.205
X-18.75 Y21.337
X-18.793 Y21.464
X-18.85 Y21.587
X-18.919 Y21.703
X-18.999 Y21.812
X-19.089 Y21.912
X-19.189 Y22.003
X-19.297 Y22.084
X-19.412 Y22.154
X-19.534 Y22.213
X-19.66 Y22.26
X-19.791 Y22.295
X-19.924 Y22.318
X-20.058 Y22.329
X-20.193 Y22.328
X-20.328 Y22.315
X-20.46 Y22.29
X-20.59 Y22.254
X-20.717 Y22.207
X-20.839 Y22.149
X-20.955 Y22.08
X-21.066 Y22.003
X-21.169 Y21.916
X-21.265 Y21.821
X-21.353 Y21.718
X-21.432 Y21.609
X-21.501 Y21.493
X-21.561 Y21.372
X-21.611 Y21.246
X-21.65 Y21.117
X-21.679 Y20.985
X-21.697 Y20.852
X-21.704 Y20.717
X-21.701 Y20.582
X-21.686 Y20.448
X-21.661 Y20.315
X-21.626 Y20.185
X-21.58 Y20.058
X-21.524 Y19.935
X-21.459 Y19.817
X-21.384 Y19.704
X-21.301 Y19.598
X-21.209 Y19.499
X-21.11 Y19.407
X-21.004 Y19.323
X-20.892 Y19.248
X-20.774 Y19.182
X-20.652 Y19.126
X-20.525 Y19.079
X-20.395 Y19.043
X-20.263 Y19.017
X-20.128 Y19.001
X-19.994 Y18.996
X-19.859 Y19.001
X-19.725 Y19.017
X-19.592 Y19.044
X-19.462 Y19.081
X-19.336 Y19.128
X-19.095 Y19.25
X-18.874 Y19.405
X-18.677 Y19.589
X-18.505 Y19.797
X-18.363 Y20.026
X-18.253 Y20.273
X-18.177 Y20.531
X-18.137 Y20.798
X-18.135 Y21.068
X-18.171 Y21.336
X-18.243 Y21.596
X-18.351 Y21.843
X-18.493 Y22.073
X-18.665 Y22.281
X-18.864 Y22.463
X-19.085 Y22.617
X-19.326 Y22.739
X-19.581 Y22.828
X-19.845 Y22.883
X-20.114 Y22.904
X-20.383 Y22.889
X-20.649 Y22.84
X-20.906 Y22.757
X-21.15 Y22.643
X-21.379 Y22.5
X-21.588 Y22.329
X-21.775 Y22.134
X-21.936 Y21.918
X-22.07 Y21.684
X-22.175 Y21.435
X-22.222 Y21.265
X-22.243 Y21.129
X-22.25 Y20.992
Y20.56
X-22.228 Y20.291
X-22.173 Y20.027
X-22.085 Y19.772
X-21.966 Y19.53
X-21.818 Y19.304
X-21.644 Y19.098
X-21.447 Y18.914
X-21.229 Y18.755
X-20.993 Y18.623
X-20.744 Y18.519
X-20.484 Y18.446
X-20.218 Y18.404
X-19.948 Y18.393
X-19.679 Y18.413
X-19.414 Y18.464
X-19.15 Y18.546
X-18.893 Y18.66
X-18.65 Y18.802
X-18.418 Y18.975
X-18.208 Y19.172
X-18.018 Y19.396
X-17.896 Y19.604
X-17.814 Y19.829
X-17.773 Y20.066
X-17.75 Y20.56
Y21.339
X-17.773 Y21.651
X-17.832 Y21.914
X-17.927 Y22.167
X-18.054 Y22.405
X-18.21 Y22.625
X-18.391 Y22.825
X-18.595 Y23.004
X-18.823 Y23.162
X-19.069 Y23.294
X-19.336 Y23.401
X-19.619 Y23.479
X-19.91 Y23.524
X-20.209 Y23.537
X-20.513 Y23.516
X-20.815 Y23.46
X-21.11 Y23.371
X-21.396 Y23.247
X-21.675 Y23.087
X-21.871 Y22.921
X-22.032 Y22.72
X-22.152 Y22.492
X-22.225 Y22.246
X-22.25 Y21.99
Y20.992
G3 X-22.23 Y20.879 R0.4
G2 X-22.243 Y20.59 R0.4
G3 X-22.25 Y20.56 R0.08
G1 X-22.243 Y20.093
X-22.171 Y19.626
X-22.077 Y19.236
X-21.966 Y19.002
X-21.819 Y18.753
X-21.747 Y18.646
X-21.651 Y18.535
X-21.552 Y18.437
X-21.321 Y18.249
X-21.097 Y18.098
X-20.856 Y17.977
X-20.601 Y17.884
X-20.36 Y17.828
X-20.321 Y17.823
G3 X-20.108 Y18.579 R0.4
G1 X-21.08 Y19.068
G3 X-21.552 Y18.437 R0.4
G1 X-21.314 Y18.224
X-21.067 Y18.068
X-20.72 Y17.912
X-20.463 Y17.84
X-20.152 Y17.803
X-19.84 Y17.793
X-19.374 Y17.884
X-19.179 Y17.943
X-18.751 Y18.179
X-18.596 Y18.287
X-18.214 Y18.691
X-18.162 Y18.756
X-17.88 Y19.333
X-17.784 Y19.937
X-17.773 Y20.066
X-17.77 Y20.223
X-17.753 Y21.182
X-17.75 Y21.339
Y22.273
X-17.757 Y22.408
X-17.775 Y22.542
X-17.807 Y22.673
X-17.852 Y22.8
X-17.908 Y22.923
X-18.048 Y23.154
X-18.217 Y23.364
X-18.412 Y23.551
X-18.635 Y23.721
X-18.892 Y23.875
X-19.177 Y24.005
X-19.486 Y24.105
X-19.818 Y24.173
X-20.167 Y24.204
X-20.346
X-20.526 Y24.195
X-20.708 Y24.175
X-21.046 Y24.11
X-21.358 Y24.011
X-21.492 Y23.956
X-21.746 Y23.797
X-21.958 Y23.586
X-22.117 Y23.333
X-22.216 Y23.05
X-22.25 Y22.753
Y21.99
G3 X-21.82 Y21.605 R0.4
G1 X-18.119 Y21.889
G3 X-17.75 Y22.273 R0.4
G1 Y23.021
X-17.757 Y23.155
X-17.78 Y23.288
X-17.818 Y23.418
X-17.869 Y23.543
X-17.931 Y23.663
X-18.081 Y23.887
X-18.261 Y24.088
X-18.468 Y24.271
X-18.71 Y24.44
X-18.994 Y24.593
X-19.314 Y24.723
X-19.484 Y24.775
X-19.663 Y24.82
X-19.849 Y24.855
X-20.038 Y24.88
X-20.23 Y24.894
X-20.424 Y24.898
X-20.766 Y24.876
X-21.097 Y24.816
X-21.365 Y24.735
X-21.686 Y24.568
X-21.922 Y24.355
X-22.101 Y24.092
X-22.212 Y23.794
X-22.25 Y23.479
Y22.753
G3 X-21.821 Y22.368 R0.4
G1 X-18.121 Y22.636
G3 X-17.75 Y23.021 R0.4
G1 Y23.675
X-17.757 Y23.81
X-17.777 Y23.944
X-17.813 Y24.074
X-17.863 Y24.199
X-17.924 Y24.319
X-18.073 Y24.544
X-18.251 Y24.747
X-18.462 Y24.935
X-18.71 Y25.111
X-19.007 Y25.274
X-19.17 Y25.347
X-19.34 Y25.412
X-19.519 Y25.469
X-19.702 Y25.516
X-19.891 Y25.553
X-20.083 Y25.579
X-20.273 Y25.595
X-20.615
X-20.957 Y25.556
X-21.226 Y25.493
X-21.397 Y25.436
X-21.635 Y25.316
X-21.844 Y25.151
X-22.016 Y24.947
X-22.144 Y24.713
X-22.223 Y24.458
X-22.25 Y24.193
Y23.479
G3 X-21.829 Y23.093 R0.4
G1 X-18.129 Y23.29
G3 X-17.75 Y23.675 R0.4
G1 Y24.384
X-17.757 Y24.519
X-17.783 Y24.651
X-17.824 Y24.78
X-17.877 Y24.904
X-17.941 Y25.023
X-18.094 Y25.245
X-18.274 Y25.446
X-18.494 Y25.639
X-18.754 Y25.82
X-19.06 Y25.985
X-19.229 Y26.059
X-19.402 Y26.123
X-19.582 Y26.179
X-19.768 Y26.225
X-19.956 Y26.26
X-20.143 Y26.285
X-20.332 Y26.299
X-20.668 Y26.296
X-20.982 Y26.257
X-21.273 Y26.187
X-21.582 Y26.048
X-21.822 Y25.859
X-22.014 Y25.621
X-22.146 Y25.345
X-22.211 Y25.047
X-22.25 Y24.61
Y24.193
G3 X-21.83 Y23.807 R0.4
G1 X-18.129 Y23.998
G3 X-17.75 Y24.384 R0.4
G1 Y24.766
X-17.759 Y24.921
X-17.804 Y25.233
X-17.83 Y25.365
X-17.871 Y25.494
X-17.925 Y25.618
X-17.989 Y25.737
X-18.143 Y25.958
X-18.324 Y26.158
X-18.546 Y26.351
X-18.806 Y26.53
X-19.113 Y26.695
X-19.28 Y26.767
X-19.453 Y26.83
X-19.632 Y26.884
X-19.816 Y26.929
X-20. Y26.963
X-20.187 Y26.986
X-20.516 Y27.
X-20.715 Y26.991
X-20.921 Y26.953
X-21.119 Y26.884
X-21.303 Y26.785
G3 X-21.237 Y26.091 R0.4
G1 X-18.363 Y24.824
G3 X-17.804 Y25.233 R0.4
G1 X-17.832 Y25.389
X-17.913 Y25.739
X-18.043 Y26.012
X-18.227 Y26.323
X-18.362 Y26.479
X-18.704 Y26.79
X-18.907 Y26.919
X-19.218 Y27.061
X-19.374 Y27.116
X-19.529 Y27.16
X-19.84 Y27.197
X-19.996 Y27.207
X-20.191 Y27.203
X-20.674 Y27.102
X-20.813 Y27.061
X-21.241 Y26.826
X-21.397 Y26.721
X-21.773 Y26.323
X-21.828 Y26.259
X-22.122 Y25.661
X-22.208 Y25.077
X-22.211 Y25.047
X-22.212 Y25.02 Z-22.498
X-22.205 Y24.979 Z-22.484
X-22.199 Y24.943 Z-22.46
X-22.195 Y24.915 Z-22.426
X-22.192 Y24.898 Z-22.386
X-22.191 Y24.892 Z-22.343
G0 Z2.
X-19.721 Y21.412
Z-21.6
G1 Z-22. F155.
G3 X-20.279 Y20.02 Z-22.415 R0.75
X-19.721 Y21.412 Z-22.831 R0.75
X-20.279 Y20.02 Z-23.246 R0.75
X-19.721 Y21.412 Z-23.662 R0.75
X-20.279 Y20.02 Z-24.077 R0.75
X-19.721 Y21.412 Z-24.493 R0.75
X-20.279 Y20.02 Z-24.908 R0.75
X-19.721 Y21.412 Z-25.324 R0.75
X-20.279 Y20.02 Z-25.739 R0.75
X-19.721 Y21.412 Z-26.155 R0.75
X-20.279 Y20.02 Z-26.57 R0.75
X-19.721 Y21.412 Z-26.986 R0.75
X-20.279 Y20.02 Z-27.401 R0.75
X-19.721 Y21.412 Z-27.816 R0.75
X-20.279 Y20.02 Z-28.232 R0.75
X-19.25 Y20.716 Z-28.49 R0.75
X-20.75 R0.75
X-19.25 R0.75
G1 X-19.223 Y21.075
X-19.221 Y21.21
X-19.256 Y21.34
X-19.319 Y21.46
X-19.403 Y21.566
X-19.503 Y21.656
X-19.617 Y21.729
X-19.74 Y21.784
X-19.87 Y21.821
X-20.003 Y21.841
X-20.138 Y21.842
X-20.272 Y21.826
X-20.403 Y21.792
X-20.529 Y21.743
X-20.648 Y21.679
X-20.758 Y21.601
X-20.857 Y21.51
X-20.946 Y21.408
X-21.021 Y21.296
X-21.083 Y21.176
X-21.131 Y21.049
X-21.163 Y20.918
X-21.18 Y20.784
X-21.181 Y20.649
X-21.167 Y20.515
X-21.138 Y20.383
X-21.093 Y20.256
X-21.035 Y20.134
X-20.962 Y20.02
X-20.878 Y19.915
X-20.781 Y19.821
X-20.675 Y19.737
X-20.56 Y19.667
X-20.437 Y19.61
X-20.309 Y19.567
X-20.177 Y19.539
X-20.043 Y19.527
X-19.908 Y19.529
X-19.774 Y19.547
X-19.643 Y19.58
X-19.517 Y19.628
X-19.397 Y19.69
X-19.284 Y19.764
X-19.181 Y19.852
X-19.089 Y19.95
X-19.007 Y20.057
X-18.868 Y20.289
X-18.812 Y20.411
X-18.766 Y20.538
X-18.731 Y20.669
X-18.708 Y20.802
X-18.698 Y20.936
X-18.702 Y21.071
X-18.719 Y21.205
X-18.75 Y21.337
X-18.793 Y21.464
X-18.85 Y21.587
X-18.919 Y21.703
X-18.999 Y21.812
X-19.089 Y21.912
X-19.189 Y22.003
X-19.297 Y22.084
X-19.412 Y22.154
X-19.534 Y22.213
X-19.66 Y22.26
X-19.791 Y22.295
X-19.924 Y22.318
X-20.058 Y22.329
X-20.193 Y22.328
X-20.328 Y22.315
X-20.46 Y22.29
X-20.59 Y22.254
X-20.717 Y22.207
X-20.839 Y22.149
X-20.955 Y22.08
X-21.066 Y22.003
X-21.169 Y21.916
X-21.265 Y21.821
X-21.353 Y21.718
X-21.432 Y21.609
X-21.501 Y21.493
X-21.561 Y21.372
X-21.611 Y21.246
X-21.65 Y21.117
X-21.679 Y20.985
X-21.697 Y20.852
X-21.704 Y20.717
X-21.701 Y20.582
X-21.686 Y20.448
X-21.661 Y20.315
X-21.626 Y20.185
X-21.58 Y20.058
X-21.524 Y19.935
X-21.459 Y19.817
X-21.384 Y19.704
X-21.301 Y19.598
X-21.209 Y19.499
X-21.11 Y19.407
X-21.004 Y19.323
X-20.892 Y19.248
X-20.774 Y19.182
X-20.652 Y19.126
X-20.525 Y19.079
X-20.395 Y19.043
X-20.263 Y19.017
X-20.128 Y19.001
X-19.994 Y18.996
X-19.859 Y19.001
X-19.725 Y19.017
X-19.592 Y19.044
X-19.462 Y19.081
X-19.336 Y19.128
X-19.095 Y19.25
X-18.874 Y19.405
X-18.677 Y19.589
X-18.505 Y19.797
X-18.363 Y20.026
X-18.253 Y20.273
X-18.177 Y20.531
X-18.137 Y20.798
X-18.135 Y21.068
X-18.171 Y21.336
X-18.243 Y21.596
X-18.351 Y21.843
X-18.493 Y22.073
X-18.665 Y22.281
X-18.864 Y22.463
X-19.085 Y22.617
X-19.326 Y22.739
X-19.581 Y22.828
X-19.845 Y22.883
X-20.114 Y22.904
X-20.383 Y22.889
X-20.649 Y22.84
X-20.906 Y22.757
X-21.15 Y22.643
X-21.379 Y22.5
X-21.588 Y22.329
X-21.775 Y22.134
X-21.936 Y21.918
X-22.07 Y21.684
X-22.175 Y21.435
X-22.222 Y21.265
X-22.243 Y21.129
X-22.25 Y20.992
Y20.56
X-22.228 Y20.291
X-22.173 Y20.027
X-22.085 Y19.772
X-21.966 Y19.53
X-21.818 Y19.304
X-21.644 Y19.098
X-21.447 Y18.914
X-21.229 Y18.755
X-20.993 Y18.623
X-20.744 Y18.519
X-20.484 Y18.446
X-20.218 Y18.404
X-19.948 Y18.393
X-19.679 Y18.413
X-19.414 Y18.464
X-19.15 Y18.546
X-18.893 Y18.66
X-18.65 Y18.802
X-18.418 Y18.975
X-18.208 Y19.172
X-18.018 Y19.396
X-17.896 Y19.604
X-17.814 Y19.829
X-17.773 Y20.066
X-17.75 Y20.56
Y21.339
X-17.773 Y21.651
X-17.832 Y21.914
X-17.927 Y22.167
X-18.054 Y22.405
X-18.21 Y22.625
X-18.391 Y22.825
X-18.595 Y23.004
X-18.823 Y23.162
X-19.069 Y23.294
X-19.336 Y23.401
X-19.619 Y23.479
X-19.91 Y23.524
X-20.209 Y23.537
X-20.513 Y23.516
X-20.815 Y23.46
X-21.11 Y23.371
X-21.396 Y23.247
X-21.675 Y23.087
X-21.871 Y22.921
X-22.032 Y22.72
X-22.152 Y22.492
X-22.225 Y22.246
X-22.25 Y21.99
Y20.992
G3 X-22.23 Y20.879 R0.4
G2 X-22.243 Y20.59 R0.4
G3 X-22.25 Y20.56 R0.08
G1 X-22.243 Y20.093
X-22.171 Y19.626
X-22.077 Y19.236
X-21.966 Y19.002
X-21.819 Y18.753
X-21.747 Y18.646
X-21.651 Y18.535
X-21.552 Y18.437
X-21.321 Y18.249
X-21.097 Y18.098
X-20.856 Y17.977
X-20.601 Y17.884
X-20.36 Y17.828
X-20.321 Y17.823
G3 X-20.108 Y18.579 R0.4
G1 X-21.08 Y19.068
G3 X-21.552 Y18.437 R0.4
G1 X-21.314 Y18.224
X-21.067 Y18.068
X-20.72 Y17.912
X-20.463 Y17.84
X-20.152 Y17.803
X-19.84 Y17.793
X-19.374 Y17.884
X-19.179 Y17.943
X-18.751 Y18.179
X-18.596 Y18.287
X-18.214 Y18.691
X-18.162 Y18.756
X-17.88 Y19.333
X-17.784 Y19.937
X-17.773 Y20.066
X-17.77 Y20.223
X-17.753 Y21.182
X-17.75 Y21.339
Y22.273
X-17.757 Y22.408
X-17.775 Y22.542
X-17.807 Y22.673
X-17.852 Y22.8
X-17.908 Y22.923
X-18.048 Y23.154
X-18.217 Y23.364
X-18.412 Y23.551
X-18.635 Y23.721
X-18.892 Y23.875
X-19.177 Y24.005
X-19.486 Y24.105
X-19.818 Y24.173
X-20.167 Y24.204
X-20.346
X-20.526 Y24.195
X-20.708 Y24.175
X-21.046 Y24.11
X-21.358 Y24.011
X-21.492 Y23.956
X-21.746 Y23.797
X-21.958 Y23.586
X-22.117 Y23.333
X-22.216 Y23.05
X-22.25 Y22.753
Y21.99
G3 X-21.82 Y21.605 R0.4
G1 X-18.119 Y21.889
G3 X-17.75 Y22.273 R0.4
G1 Y23.021
X-17.757 Y23.155
X-17.78 Y23.288
X-17.818 Y23.418
X-17.869 Y23.543
X-17.931 Y23.663
X-18.081 Y23.887
X-18.261 Y24.088
X-18.468 Y24.271
X-18.71 Y24.44
X-18.994 Y24.593
X-19.314 Y24.723
X-19.484 Y24.775
X-19.663 Y24.82
X-19.849 Y24.855
X-20.038 Y24.88
X-20.23 Y24.894
X-20.424 Y24.898
X-20.766 Y24.876
X-21.097 Y24.816
X-21.365 Y24.735
X-21.686 Y24.568
X-21.922 Y24.355
X-22.101 Y24.092
X-22.212 Y23.794
X-22.25 Y23.479
Y22.753
G3 X-21.821 Y22.368 R0.4
G1 X-18.121 Y22.636
G3 X-17.75 Y23.021 R0.4
G1 Y23.675
X-17.757 Y23.81
X-17.777 Y23.944
X-17.813 Y24.074
X-17.863 Y24.199
X-17.924 Y24.319
X-18.073 Y24.544
X-18.251 Y24.747
X-18.462 Y24.935
X-18.71 Y25.111
X-19.007 Y25.274
X-19.17 Y25.347
X-19.34 Y25.412
X-19.519 Y25.469
X-19.702 Y25.516
X-19.891 Y25.553
X-20.083 Y25.579
X-20.273 Y25.595
X-20.615
X-20.957 Y25.556
X-21.226 Y25.493
X-21.397 Y25.436
X-21.635 Y25.316
X-21.844 Y25.151
X-22.016 Y24.947
X-22.144 Y24.713
X-22.223 Y24.458
X-22.25 Y24.193
Y23.479
G3 X-21.829 Y23.093 R0.4
G1 X-18.129 Y23.29
G3 X-17.75 Y23.675 R0.4
G1 Y24.384
X-17.757 Y24.519
X-17.783 Y24.651
X-17.824 Y24.78
X-17.877 Y24.904
X-17.941 Y25.023
X-18.094 Y25.245
X-18.274 Y25.446
X-18.494 Y25.639
X-18.754 Y25.82
X-19.06 Y25.985
X-19.229 Y26.059
X-19.402 Y26.123
X-19.582 Y26.179
X-19.768 Y26.225
X-19.956 Y26.26
X-20.143 Y26.285
X-20.332 Y26.299
X-20.668 Y26.296
X-20.982 Y26.257
X-21.273 Y26.187
X-21.582 Y26.048
X-21.822 Y25.859
X-22.014 Y25.621
X-22.146 Y25.345
X-22.211 Y25.047
X-22.25 Y24.61
Y24.193
G3 X-21.83 Y23.807 R0.4
G1 X-18.129 Y23.998
G3 X-17.75 Y24.384 R0.4
G1 Y24.766
X-17.759 Y24.921
X-17.804 Y25.233
X-17.83 Y25.365
X-17.871 Y25.494
X-17.925 Y25.618
X-17.989 Y25.737
X-18.143 Y25.958
X-18.324 Y26.158
X-18.546 Y26.351
X-18.806 Y26.53
X-19.113 Y26.695
X-19.28 Y26.767
X-19.453 Y26.83
X-19.632 Y26.884
X-19.816 Y26.929
X-20. Y26.963
X-20.187 Y26.986
X-20.516 Y27.
X-20.715 Y26.991
X-20.921 Y26.953
X-21.119 Y26.884
X-21.303 Y26.785
G3 X-21.237 Y26.091 R0.4
G1 X-18.363 Y24.824
G3 X-17.804 Y25.233 R0.4
G1 X-17.832 Y25.389
X-17.913 Y25.739
X-18.043 Y26.012
X-18.227 Y26.323
X-18.362 Y26.479
X-18.704 Y26.79
X-18.907 Y26.919
X-19.218 Y27.061
X-19.374 Y27.116
X-19.529 Y27.16
X-19.84 Y27.197
X-19.996 Y27.207
X-20.191 Y27.203
X-20.674 Y27.102
X-20.813 Y27.061
X-21.241 Y26.826
X-21.397 Y26.721
X-21.773 Y26.323
X-21.828 Y26.259
X-22.122 Y25.661
X-22.208 Y25.077
X-22.211 Y25.047
X-22.212 Y25.02 Z-28.488
X-22.205 Y24.979 Z-28.474
X-22.199 Y24.943 Z-28.45
X-22.195 Y24.915 Z-28.416
X-22.192 Y24.898 Z-28.376
X-22.191 Y24.892 Z-28.333
G0 Z2.
X-20.446 Y61.349
Z-11.59
G1 Z-11.99 F155.
G3 X-19.554 Y60.143 Z-12.405 R0.75
X-20.446 Y61.349 Z-12.821 R0.75
X-19.554 Y60.143 Z-13.236 R0.75
X-20.446 Y61.349 Z-13.652 R0.75
X-19.554 Y60.143 Z-14.067 R0.75
X-20.446 Y61.349 Z-14.483 R0.75
X-19.554 Y60.143 Z-14.898 R0.75
X-20.446 Y61.349 Z-15.314 R0.75
X-19.554 Y60.143 Z-15.729 R0.75
X-20.446 Y61.349 Z-16.145 R0.75
X-19.554 Y60.143 Z-16.56 R0.75
X-20.446 Y61.349 Z-16.976 R0.75
X-19.554 Y60.143 Z-17.391 R0.75
X-20.446 Y61.349 Z-17.806 R0.75
X-19.554 Y60.143 Z-18.222 R0.75
X-20.446 Y61.349 Z-18.637 R0.75
X-19.554 Y60.143 Z-19.053 R0.75
X-20.446 Y61.349 Z-19.468 R0.75
X-19.554 Y60.143 Z-19.884 R0.75
X-20.446 Y61.349 Z-20.299 R0.75
X-19.554 Y60.143 Z-20.715 R0.75
X-20.446 Y61.349 Z-21.13 R0.75
X-19.554 Y60.143 Z-21.546 R0.75
X-20.446 Y61.349 Z-21.961 R0.75
X-19.554 Y60.143 Z-22.377 R0.75
X-19.25 Y60.746 Z-22.5 R0.75
X-20.75 R0.75
X-19.25 R0.75
G1 X-19.223 Y61.105
X-19.221 Y61.24
X-19.256 Y61.37
X-19.319 Y61.49
X-19.403 Y61.595
X-19.503 Y61.685
X-19.617 Y61.758
X-19.74 Y61.814
X-19.87 Y61.851
X-20.003 Y61.87
X-20.138 Y61.872
X-20.272 Y61.855
X-20.403 Y61.822
X-20.529 Y61.773
X-20.648 Y61.709
X-20.758 Y61.631
X-20.857 Y61.54
X-20.946 Y61.438
X-21.021 Y61.326
X-21.083 Y61.206
X-21.131 Y61.079
X-21.163 Y60.948
X-21.18 Y60.814
X-21.181 Y60.679
X-21.167 Y60.545
X-21.138 Y60.413
X-21.093 Y60.286
X-21.035 Y60.164
X-20.962 Y60.05
X-20.878 Y59.945
X-20.781 Y59.85
X-20.675 Y59.767
X-20.56 Y59.697
X-20.437 Y59.64
X-20.309 Y59.597
X-20.177 Y59.569
X-20.043 Y59.557
X-19.908 Y59.559
X-19.774 Y59.577
X-19.643 Y59.61
X-19.517 Y59.658
X-19.397 Y59.719
X-19.284 Y59.794
X-19.181 Y59.881
X-19.089 Y59.98
X-19.007 Y60.087
X-18.868 Y60.319
X-18.812 Y60.441
X-18.766 Y60.568
X-18.731 Y60.698
X-18.708 Y60.832
X-18.698 Y60.966
X-18.702 Y61.101
X-18.719 Y61.235
X-18.75 Y61.367
X-18.793 Y61.494
X-18.85 Y61.617
X-18.919 Y61.733
X-18.999 Y61.842
X-19.089 Y61.942
X-19.189 Y62.033
X-19.297 Y62.114
X-19.412 Y62.184
X-19.534 Y62.243
X-19.66 Y62.29
X-19.791 Y62.325
X-19.924 Y62.348
X-20.058 Y62.359
X-20.193 Y62.358
X-20.328 Y62.345
X-20.46 Y62.32
X-20.59 Y62.284
X-20.717 Y62.236
X-20.839 Y62.178
X-20.955 Y62.11
X-21.066 Y62.032
X-21.169 Y61.946
X-21.265 Y61.851
X-21.353 Y61.748
X-21.432 Y61.638
X-21.501 Y61.523
X-21.561 Y61.402
X-21.611 Y61.276
X-21.65 Y61.147
X-21.679 Y61.015
X-21.697 Y60.881
X-21.704 Y60.747
X-21.701 Y60.612
X-21.686 Y60.477
X-21.661 Y60.345
X-21.626 Y60.215
X-21.58 Y60.088
X-21.524 Y59.965
X-21.459 Y59.847
X-21.384 Y59.734
X-21.301 Y59.628
X-21.209 Y59.528
X-21.11 Y59.437
X-21.004 Y59.353
X-20.892 Y59.278
X-20.774 Y59.212
X-20.652 Y59.156
X-20.525 Y59.109
X-20.395 Y59.072
X-20.263 Y59.046
X-20.128 Y59.031
X-19.994 Y59.025
X-19.859 Y59.031
X-19.725 Y59.047
X-19.592 Y59.074
X-19.462 Y59.111
X-19.336 Y59.158
X-19.095 Y59.28
X-18.874 Y59.435
X-18.677 Y59.619
X-18.505 Y59.827
X-18.363 Y60.056
X-18.253 Y60.302
X-18.177 Y60.561
X-18.137 Y60.828
X-18.135 Y61.098
X-18.171 Y61.366
X-18.243 Y61.625
X-18.351 Y61.873
X-18.493 Y62.102
X-18.665 Y62.31
X-18.864 Y62.493
X-19.085 Y62.647
X-19.326 Y62.769
X-19.581 Y62.858
X-19.845 Y62.913
X-20.114 Y62.933
X-20.383 Y62.919
X-20.649 Y62.869
X-20.906 Y62.787
X-21.15 Y62.673
X-21.379 Y62.53
X-21.588 Y62.359
X-21.775 Y62.164
X-21.936 Y61.948
X-22.07 Y61.714
X-22.175 Y61.465
X-22.222 Y61.294
X-22.243 Y61.159
X-22.25 Y61.022
Y60.59
X-22.228 Y60.321
X-22.173 Y60.057
X-22.085 Y59.802
X-21.966 Y59.559
X-21.818 Y59.334
X-21.644 Y59.127
X-21.447 Y58.943
X-21.229 Y58.785
X-20.993 Y58.652
X-20.744 Y58.549
X-20.484 Y58.476
X-20.218 Y58.434
X-19.948 Y58.423
X-19.679 Y58.443
X-19.414 Y58.494
X-19.15 Y58.576
X-18.893 Y58.69
X-18.65 Y58.832
X-18.418 Y59.005
X-18.208 Y59.202
X-18.017 Y59.427
X-17.892 Y59.643
X-17.808 Y59.878
X-17.771 Y60.125
X-17.75 Y60.59
Y61.369
X-17.773 Y61.681
X-17.832 Y61.944
X-17.927 Y62.197
X-18.054 Y62.434
X-18.21 Y62.655
X-18.391 Y62.855
X-18.595 Y63.033
X-18.823 Y63.192
X-19.069 Y63.324
X-19.336 Y63.431
X-19.619 Y63.509
X-19.91 Y63.554
X-20.209 Y63.567
X-20.513 Y63.546
X-20.815 Y63.49
X-21.11 Y63.4
X-21.396 Y63.277
X-21.675 Y63.116
X-21.871 Y62.951
X-22.032 Y62.75
X-22.152 Y62.522
X-22.225 Y62.276
X-22.25 Y62.02
Y61.022
Y60.865
Y60.747
Y60.59
X-22.247 Y60.123
X-22.175 Y59.641
X-22.088 Y59.266
X-21.983 Y59.032
X-21.863 Y58.829
X-21.844 Y58.796
X-21.831 Y58.773
X-21.723 Y58.619
X-21.711 Y58.604
G3 X-21.091 Y59.107 R0.4
G1 X-21.152 Y59.195
G3 X-21.831 Y58.773 R0.4
G1 X-21.76 Y58.661
X-21.677 Y58.565
X-21.469 Y58.372
X-21.256 Y58.206
X-21.023 Y58.069
X-20.776 Y57.961
X-20.509 Y57.878
X-20.221 Y57.823
X-19.901 Y57.801
X-19.686 Y57.82
G3 X-19.627 Y58.586 R0.4
G1 X-21.224 Y59.19
G3 X-21.677 Y58.565 R0.4
G1 X-21.521 Y58.409
X-21.348 Y58.254
X-21.122 Y58.098
X-20.774 Y57.935
X-20.619 Y57.882
X-20.463 Y57.84
X-20.152 Y57.803
X-19.84 Y57.793
X-19.374 Y57.884
X-19.182 Y57.942
X-18.751 Y58.179
X-18.596 Y58.287
X-18.284 Y58.61
X-18.154 Y58.771
X-17.876 Y59.344
X-17.78 Y59.967
X-17.771 Y60.125
X-17.768 Y60.282
X-17.753 Y61.212
X-17.75 Y61.369
Y62.303
X-17.757 Y62.438
X-17.775 Y62.572
X-17.807 Y62.703
X-17.852 Y62.83
X-17.908 Y62.953
X-18.048 Y63.184
X-18.217 Y63.394
X-18.412 Y63.581
X-18.635 Y63.751
X-18.892 Y63.905
X-19.177 Y64.034
X-19.486 Y64.135
X-19.818 Y64.202
X-20.167 Y64.233
X-20.346 Y64.234
X-20.526 Y64.225
X-20.708 Y64.205
X-21.046 Y64.14
X-21.358 Y64.041
X-21.492 Y63.986
X-21.746 Y63.827
X-21.958 Y63.616
X-22.117 Y63.363
X-22.216 Y63.08
X-22.25 Y62.783
Y62.02
G3 X-21.82 Y61.635 R0.4
G1 X-18.119 Y61.918
G3 X-17.75 Y62.303 R0.4
G1 Y63.05
X-17.757 Y63.185
X-17.78 Y63.318
X-17.818 Y63.448
X-17.869 Y63.573
X-17.931 Y63.693
X-18.081 Y63.917
X-18.261 Y64.118
X-18.468 Y64.301
X-18.71 Y64.47
X-18.994 Y64.623
X-19.314 Y64.752
X-19.484 Y64.805
X-19.663 Y64.849
X-19.849 Y64.885
X-20.038 Y64.909
X-20.23 Y64.924
X-20.424 Y64.927
X-20.766 Y64.906
X-21.097 Y64.846
X-21.365 Y64.765
X-21.686 Y64.598
X-21.922 Y64.385
X-22.101 Y64.122
X-22.212 Y63.824
X-22.25 Y63.509
Y62.783
G3 X-21.821 Y62.398 R0.4
G1 X-18.121 Y62.665
G3 X-17.75 Y63.05 R0.4
G1 Y63.705
X-17.757 Y63.84
X-17.777 Y63.973
X-17.813 Y64.103
X-17.863 Y64.229
X-17.924 Y64.349
X-18.073 Y64.574
X-18.251 Y64.777
X-18.462 Y64.965
X-18.71 Y65.141
X-19.007 Y65.304
X-19.17 Y65.377
X-19.34 Y65.442
X-19.519 Y65.498
X-19.702 Y65.545
X-19.891 Y65.583
X-20.083 Y65.609
X-20.273 Y65.625
X-20.615
X-20.957 Y65.585
X-21.226 Y65.523
X-21.397 Y65.466
X-21.635 Y65.346
X-21.844 Y65.18
X-22.016 Y64.977
X-22.144 Y64.743
X-22.223 Y64.488
X-22.25 Y64.223
Y63.509
G3 X-21.829 Y63.123 R0.4
G1 X-18.129 Y63.32
G3 X-17.75 Y63.705 R0.4
G1 Y64.414
X-17.757 Y64.549
X-17.783 Y64.681
X-17.824 Y64.81
X-17.877 Y64.934
X-17.941 Y65.053
X-18.094 Y65.275
X-18.274 Y65.476
X-18.494 Y65.669
X-18.754 Y65.85
X-19.06 Y66.015
X-19.229 Y66.089
X-19.402 Y66.153
X-19.582 Y66.209
X-19.768 Y66.255
X-19.956 Y66.29
X-20.143 Y66.315
X-20.332 Y66.329
X-20.668 Y66.325
X-20.982 Y66.287
X-21.273 Y66.217
X-21.574 Y66.082
X-21.81 Y65.9
X-22. Y65.67
X-22.134 Y65.404
X-22.205 Y65.114
X-22.25 Y64.64
Y64.223
G3 X-21.83 Y63.837 R0.4
G1 X-18.129 Y64.028
G3 X-17.75 Y64.414 R0.4
G1 Y64.795
X-17.786 Y65.107
X-17.808 Y65.263
X-17.835 Y65.395
X-17.876 Y65.524
X-17.929 Y65.648
X-17.993 Y65.767
X-18.146 Y65.988
X-18.328 Y66.188
X-18.548 Y66.381
X-18.808 Y66.56
X-19.115 Y66.724
X-19.281 Y66.796
X-19.454 Y66.859
X-19.633 Y66.914
X-19.816 Y66.958
X-20. Y66.992
X-20.187 Y67.016
X-20.517 Y67.03
X-20.799 Y67.001
X-21.001 Y66.943
X-21.192 Y66.853
G3 X-21.151 Y66.15 R0.4
G1 X-18.375 Y64.857
G3 X-17.808 Y65.263 R0.4
G1 X-17.916 Y65.748
X-18.06 Y66.041
X-18.221 Y66.314
X-18.388 Y66.509
X-18.596 Y66.696
X-18.751 Y66.821
X-18.907 Y66.919
X-19.218 Y67.061
X-19.427 Y67.132
X-19.529 Y67.16
X-19.84 Y67.197
X-19.996 Y67.207
X-20.191 Y67.203
X-20.619 Y67.118
X-20.813 Y67.061
X-21.249 Y66.82
X-21.397 Y66.721
X-21.748 Y66.353
X-21.843 Y66.236
X-22.125 Y65.652
X-22.205 Y65.114
X-22.207 Y65.076 Z-22.495
X-22.201 Y65.038 Z-22.48
X-22.196 Y65.005 Z-22.455
X-22.192 Y64.98 Z-22.422
X-22.19 Y64.964 Z-22.384
X-22.189 Y64.959 Z-22.343
G0 Z2.
X-19.721 Y61.442
Z-21.6
G1 Z-22. F155.
G3 X-20.279 Y60.049 Z-22.415 R0.75
X-19.721 Y61.442 Z-22.831 R0.75
X-20.279 Y60.049 Z-23.246 R0.75
X-19.721 Y61.442 Z-23.662 R0.75
X-20.279 Y60.049 Z-24.077 R0.75
X-19.721 Y61.442 Z-24.493 R0.75
X-20.279 Y60.049 Z-24.908 R0.75
X-19.721 Y61.442 Z-25.324 R0.75
X-20.279 Y60.049 Z-25.739 R0.75
X-19.721 Y61.442 Z-26.155 R0.75
X-20.279 Y60.049 Z-26.57 R0.75
X-19.721 Y61.442 Z-26.986 R0.75
X-20.279 Y60.049 Z-27.401 R0.75
X-19.721 Y61.442 Z-27.816 R0.75
X-20.279 Y60.049 Z-28.232 R0.75
X-19.25 Y60.746 Z-28.49 R0.75
X-20.75 R0.75
X-19.25 R0.75
G1 X-19.223 Y61.105
X-19.221 Y61.24
X-19.256 Y61.37
X-19.319 Y61.49
X-19.403 Y61.595
X-19.503 Y61.685
X-19.617 Y61.758
X-19.74 Y61.814
X-19.87 Y61.851
X-20.003 Y61.87
X-20.138 Y61.872
X-20.272 Y61.855
X-20.403 Y61.822
X-20.529 Y61.773
X-20.648 Y61.709
X-20.758 Y61.631
X-20.857 Y61.54
X-20.946 Y61.438
X-21.021 Y61.326
X-21.083 Y61.206
X-21.131 Y61.079
X-21.163 Y60.948
X-21.18 Y60.814
X-21.181 Y60.679
X-21.167 Y60.545
X-21.138 Y60.413
X-21.093 Y60.286
X-21.035 Y60.164
X-20.962 Y60.05
X-20.878 Y59.945
X-20.781 Y59.85
X-20.675 Y59.767
X-20.56 Y59.697
X-20.437 Y59.64
X-20.309 Y59.597
X-20.177 Y59.569
X-20.043 Y59.557
X-19.908 Y59.559
X-19.774 Y59.577
X-19.643 Y59.61
X-19.517 Y59.658
X-19.397 Y59.719
X-19.284 Y59.794
X-19.181 Y59.881
X-19.089 Y59.98
X-19.007 Y60.087
X-18.868 Y60.319
X-18.812 Y60.441
X-18.766 Y60.568
X-18.731 Y60.698
X-18.708 Y60.832
X-18.698 Y60.966
X-18.702 Y61.101
X-18.719 Y61.235
X-18.75 Y61.367
X-18.793 Y61.494
X-18.85 Y61.617
X-18.919 Y61.733
X-18.999 Y61.842
X-19.089 Y61.942
X-19.189 Y62.033
X-19.297 Y62.114
X-19.412 Y62.184
X-19.534 Y62.243
X-19.66 Y62.29
X-19.791 Y62.325
X-19.924 Y62.348
X-20.058 Y62.359
X-20.193 Y62.358
X-20.328 Y62.345
X-20.46 Y62.32
X-20.59 Y62.284
X-20.717 Y62.236
X-20.839 Y62.178
X-20.955 Y62.11
X-21.066 Y62.032
X-21.169 Y61.946
X-21.265 Y61.851
X-21.353 Y61.748
X-21.432 Y61.638
X-21.501 Y61.523
X-21.561 Y61.402
X-21.611 Y61.276
X-21.65 Y61.147
X-21.679 Y61.015
X-21.697 Y60.881
X-21.704 Y60.747
X-21.701 Y60.612
X-21.686 Y60.477
X-21.661 Y60.345
X-21.626 Y60.215
X-21.58 Y60.088
X-21.524 Y59.965
X-21.459 Y59.847
X-21.384 Y59.734
X-21.301 Y59.628
X-21.209 Y59.528
X-21.11 Y59.437
X-21.004 Y59.353
X-20.892 Y59.278
X-20.774 Y59.212
X-20.652 Y59.156
X-20.525 Y59.109
X-20.395 Y59.072
X-20.263 Y59.046
X-20.128 Y59.031
X-19.994 Y59.025
X-19.859 Y59.031
X-19.725 Y59.047
X-19.592 Y59.074
X-19.462 Y59.111
X-19.336 Y59.158
X-19.095 Y59.28
X-18.874 Y59.435
X-18.677 Y59.619
X-18.505 Y59.827
X-18.363 Y60.056
X-18.253 Y60.302
X-18.177 Y60.561
X-18.137 Y60.828
X-18.135 Y61.098
X-18.171 Y61.366
X-18.243 Y61.625
X-18.351 Y61.873
X-18.493 Y62.102
X-18.665 Y62.31
X-18.864 Y62.493
X-19.085 Y62.647
X-19.326 Y62.769
X-19.581 Y62.858
X-19.845 Y62.913
X-20.114 Y62.933
X-20.383 Y62.919
X-20.649 Y62.869
X-20.906 Y62.787
X-21.15 Y62.673
X-21.379 Y62.53
X-21.588 Y62.359
X-21.775 Y62.164
X-21.936 Y61.948
X-22.07 Y61.714
X-22.175 Y61.465
X-22.222 Y61.294
X-22.243 Y61.159
X-22.25 Y61.022
Y60.59
X-22.228 Y60.321
X-22.173 Y60.057
X-22.085 Y59.802
X-21.966 Y59.559
X-21.818 Y59.334
X-21.644 Y59.127
X-21.447 Y58.943
X-21.229 Y58.785
X-20.993 Y58.652
X-20.744 Y58.549
X-20.484 Y58.476
X-20.218 Y58.434
X-19.948 Y58.423
X-19.679 Y58.443
X-19.414 Y58.494
X-19.15 Y58.576
X-18.893 Y58.69
X-18.65 Y58.832
X-18.418 Y59.005
X-18.208 Y59.202
X-18.017 Y59.427
X-17.892 Y59.643
X-17.808 Y59.878
X-17.771 Y60.125
X-17.75 Y60.59
Y61.369
X-17.773 Y61.681
X-17.832 Y61.944
X-17.927 Y62.197
X-18.054 Y62.434
X-18.21 Y62.655
X-18.391 Y62.855
X-18.595 Y63.033
X-18.823 Y63.192
X-19.069 Y63.324
X-19.336 Y63.431
X-19.619 Y63.509
X-19.91 Y63.554
X-20.209 Y63.567
X-20.513 Y63.546
X-20.815 Y63.49
X-21.11 Y63.4
X-21.396 Y63.277
X-21.675 Y63.116
X-21.871 Y62.951
X-22.032 Y62.75
X-22.152 Y62.522
X-22.225 Y62.276
X-22.25 Y62.02
Y61.022
Y60.865
Y60.747
Y60.59
X-22.247 Y60.123
X-22.175 Y59.641
X-22.088 Y59.266
X-21.983 Y59.032
X-21.863 Y58.829
X-21.844 Y58.796
X-21.831 Y58.773
X-21.723 Y58.619
X-21.711 Y58.604
G3 X-21.091 Y59.107 R0.4
G1 X-21.152 Y59.195
G3 X-21.831 Y58.773 R0.4
G1 X-21.76 Y58.661
X-21.677 Y58.565
X-21.469 Y58.372
X-21.256 Y58.206
X-21.023 Y58.069
X-20.776 Y57.961
X-20.509 Y57.878
X-20.221 Y57.823
X-19.901 Y57.801
X-19.686 Y57.82
G3 X-19.627 Y58.586 R0.4
G1 X-21.224 Y59.19
G3 X-21.677 Y58.565 R0.4
G1 X-21.521 Y58.409
X-21.348 Y58.254
X-21.122 Y58.098
X-20.774 Y57.935
X-20.619 Y57.882
X-20.463 Y57.84
X-20.152 Y57.803
X-19.84 Y57.793
X-19.374 Y57.884
X-19.182 Y57.942
X-18.751 Y58.179
X-18.596 Y58.287
X-18.284 Y58.61
X-18.154 Y58.771
X-17.876 Y59.344
X-17.78 Y59.967
X-17.771 Y60.125
X-17.768 Y60.282
X-17.753 Y61.212
X-17.75 Y61.369
Y62.303
X-17.757 Y62.438
X-17.775 Y62.572
X-17.807 Y62.703
X-17.852 Y62.83
X-17.908 Y62.953
X-18.048 Y63.184
X-18.217 Y63.394
X-18.412 Y63.581
X-18.635 Y63.751
X-18.892 Y63.905
X-19.177 Y64.034
X-19.486 Y64.135
X-19.818 Y64.202
X-20.167 Y64.233
X-20.346 Y64.234
X-20.526 Y64.225
X-20.708 Y64.205
X-21.046 Y64.14
X-21.358 Y64.041
X-21.492 Y63.986
X-21.746 Y63.827
X-21.958 Y63.616
X-22.117 Y63.363
X-22.216 Y63.08
X-22.25 Y62.783
Y62.02
G3 X-21.82 Y61.635 R0.4
G1 X-18.119 Y61.918
G3 X-17.75 Y62.303 R0.4
G1 Y63.05
X-17.757 Y63.185
X-17.78 Y63.318
X-17.818 Y63.448
X-17.869 Y63.573
X-17.931 Y63.693
X-18.081 Y63.917
X-18.261 Y64.118
X-18.468 Y64.301
X-18.71 Y64.47
X-18.994 Y64.623
X-19.314 Y64.752
X-19.484 Y64.805
X-19.663 Y64.849
X-19.849 Y64.885
X-20.038 Y64.909
X-20.23 Y64.924
X-20.424 Y64.927
X-20.766 Y64.906
X-21.097 Y64.846
X-21.365 Y64.765
X-21.686 Y64.598
X-21.922 Y64.385
X-22.101 Y64.122
X-22.212 Y63.824
X-22.25 Y63.509
Y62.783
G3 X-21.821 Y62.398 R0.4
G1 X-18.121 Y62.665
G3 X-17.75 Y63.05 R0.4
G1 Y63.705
X-17.757 Y63.84
X-17.777 Y63.973
X-17.813 Y64.103
X-17.863 Y64.229
X-17.924 Y64.349
X-18.073 Y64.574
X-18.251 Y64.777
X-18.462 Y64.965
X-18.71 Y65.141
X-19.007 Y65.304
X-19.17 Y65.377
X-19.34 Y65.442
X-19.519 Y65.498
X-19.702 Y65.545
X-19.891 Y65.583
X-20.083 Y65.609
X-20.273 Y65.625
X-20.615
X-20.957 Y65.585
X-21.226 Y65.523
X-21.397 Y65.466
X-21.635 Y65.346
X-21.844 Y65.18
X-22.016 Y64.977
X-22.144 Y64.743
X-22.223 Y64.488
X-22.25 Y64.223
Y63.509
G3 X-21.829 Y63.123 R0.4
G1 X-18.129 Y63.32
G3 X-17.75 Y63.705 R0.4
G1 Y64.414
X-17.757 Y64.549
X-17.783 Y64.681
X-17.824 Y64.81
X-17.877 Y64.934
X-17.941 Y65.053
X-18.094 Y65.275
X-18.274 Y65.476
X-18.494 Y65.669
X-18.754 Y65.85
X-19.06 Y66.015
X-19.229 Y66.089
X-19.402 Y66.153
X-19.582 Y66.209
X-19.768 Y66.255
X-19.956 Y66.29
X-20.143 Y66.315
X-20.332 Y66.329
X-20.668 Y66.325
X-20.982 Y66.287
X-21.273 Y66.217
X-21.574 Y66.082
X-21.81 Y65.9
X-22. Y65.67
X-22.134 Y65.404
X-22.205 Y65.114
X-22.25 Y64.64
Y64.223
G3 X-21.83 Y63.837 R0.4
G1 X-18.129 Y64.028
G3 X-17.75 Y64.414 R0.4
G1 Y64.795
X-17.786 Y65.107
X-17.808 Y65.263
X-17.835 Y65.395
X-17.876 Y65.524
X-17.929 Y65.648
X-17.993 Y65.767
X-18.146 Y65.988
X-18.328 Y66.188
X-18.548 Y66.381
X-18.808 Y66.56
X-19.115 Y66.724
X-19.281 Y66.796
X-19.454 Y66.859
X-19.633 Y66.914
X-19.816 Y66.958
X-20. Y66.992
X-20.187 Y67.016
X-20.517 Y67.03
X-20.799 Y67.001
X-21.001 Y66.943
X-21.192 Y66.853
G3 X-21.151 Y66.15 R0.4
G1 X-18.375 Y64.857
G3 X-17.808 Y65.263 R0.4
G1 X-17.916 Y65.748
X-18.06 Y66.041
X-18.221 Y66.314
X-18.388 Y66.509
X-18.596 Y66.696
X-18.751 Y66.821
X-18.907 Y66.919
X-19.218 Y67.061
X-19.427 Y67.132
X-19.529 Y67.16
X-19.84 Y67.197
X-19.996 Y67.207
X-20.191 Y67.203
X-20.619 Y67.118
X-20.813 Y67.061
X-21.249 Y66.82
X-21.397 Y66.721
X-21.748 Y66.353
X-21.843 Y66.236
X-22.125 Y65.652
X-22.205 Y65.114
X-22.207 Y65.076 Z-28.485
X-22.201 Y65.038 Z-28.47
X-22.196 Y65.005 Z-28.445
X-22.192 Y64.98 Z-28.412
X-22.19 Y64.964 Z-28.374
X-22.189 Y64.959 Z-28.333
G0 Z2.
X19.554 Y61.349
Z-11.59
G1 Z-11.99 F155.
G3 X20.446 Y60.143 Z-12.405 R0.75
X19.554 Y61.349 Z-12.821 R0.75
X20.446 Y60.143 Z-13.236 R0.75
X19.554 Y61.349 Z-13.652 R0.75
X20.446 Y60.143 Z-14.067 R0.75
X19.554 Y61.349 Z-14.483 R0.75
X20.446 Y60.143 Z-14.898 R0.75
X19.554 Y61.349 Z-15.314 R0.75
X20.446 Y60.143 Z-15.729 R0.75
X19.554 Y61.349 Z-16.145 R0.75
X20.446 Y60.143 Z-16.56 R0.75
X19.554 Y61.349 Z-16.976 R0.75
X20.446 Y60.143 Z-17.391 R0.75
X19.554 Y61.349 Z-17.806 R0.75
X20.446 Y60.143 Z-18.222 R0.75
X19.554 Y61.349 Z-18.637 R0.75
X20.446 Y60.143 Z-19.053 R0.75
X19.554 Y61.349 Z-19.468 R0.75
X20.446 Y60.143 Z-19.884 R0.75
X19.554 Y61.349 Z-20.299 R0.75
X20.446 Y60.143 Z-20.715 R0.75
X19.554 Y61.349 Z-21.13 R0.75
X20.446 Y60.143 Z-21.546 R0.75
X19.554 Y61.349 Z-21.961 R0.75
X20.446 Y60.143 Z-22.377 R0.75
X20.75 Y60.746 Z-22.5 R0.75
X19.25 R0.75
X20.75 R0.75
G1 X20.777 Y61.105
X20.779 Y61.24
X20.744 Y61.37
X20.681 Y61.49
X20.597 Y61.595
X20.497 Y61.685
X20.383 Y61.758
X20.26 Y61.814
X20.13 Y61.851
X19.997 Y61.87
X19.862 Y61.872
X19.728 Y61.855
X19.597 Y61.822
X19.471 Y61.773
X19.352 Y61.709
X19.242 Y61.631
X19.143 Y61.54
X19.054 Y61.438
X18.979 Y61.326
X18.917 Y61.206
X18.869 Y61.079
X18.837 Y60.948
X18.82 Y60.814
X18.819 Y60.679
X18.833 Y60.545
X18.862 Y60.413
X18.907 Y60.286
X18.965 Y60.164
X19.038 Y60.05
X19.122 Y59.945
X19.219 Y59.85
X19.325 Y59.767
X19.44 Y59.697
X19.563 Y59.64
X19.691 Y59.597
X19.823 Y59.569
X19.957 Y59.557
X20.092 Y59.559
X20.226 Y59.577
X20.357 Y59.61
X20.483 Y59.658
X20.603 Y59.719
X20.716 Y59.794
X20.819 Y59.881
X20.911 Y59.98
X20.993 Y60.087
X21.132 Y60.319
X21.188 Y60.441
X21.234 Y60.568
X21.269 Y60.698
X21.292 Y60.832
X21.302 Y60.966
X21.298 Y61.101
X21.281 Y61.235
X21.25 Y61.367
X21.207 Y61.494
X21.15 Y61.617
X21.081 Y61.733
X21.001 Y61.842
X20.911 Y61.942
X20.811 Y62.033
X20.703 Y62.114
X20.588 Y62.184
X20.466 Y62.243
X20.34 Y62.29
X20.209 Y62.325
X20.076 Y62.348
X19.942 Y62.359
X19.807 Y62.358
X19.672 Y62.345
X19.54 Y62.32
X19.41 Y62.284
X19.283 Y62.236
X19.161 Y62.178
X19.045 Y62.11
X18.934 Y62.032
X18.831 Y61.946
X18.735 Y61.851
X18.647 Y61.748
X18.568 Y61.638
X18.499 Y61.523
X18.439 Y61.402
X18.389 Y61.276
X18.35 Y61.147
X18.321 Y61.015
X18.303 Y60.881
X18.296 Y60.747
X18.299 Y60.612
X18.314 Y60.477
X18.339 Y60.345
X18.374 Y60.215
X18.42 Y60.088
X18.476 Y59.965
X18.541 Y59.847
X18.616 Y59.734
X18.699 Y59.628
X18.791 Y59.528
X18.89 Y59.437
X18.996 Y59.353
X19.108 Y59.278
X19.226 Y59.212
X19.348 Y59.156
X19.475 Y59.109
X19.605 Y59.072
X19.737 Y59.046
X19.872 Y59.031
X20.006 Y59.025
X20.141 Y59.031
X20.275 Y59.047
X20.408 Y59.074
X20.538 Y59.111
X20.664 Y59.158
X20.905 Y59.28
X21.126 Y59.435
X21.323 Y59.619
X21.495 Y59.827
X21.637 Y60.056
X21.747 Y60.302
X21.823 Y60.561
X21.863 Y60.828
X21.865 Y61.098
X21.829 Y61.366
X21.757 Y61.625
X21.649 Y61.873
X21.507 Y62.102
X21.335 Y62.31
X21.136 Y62.493
X20.915 Y62.647
X20.674 Y62.769
X20.419 Y62.858
X20.155 Y62.913
X19.886 Y62.933
X19.617 Y62.919
X19.351 Y62.869
X19.094 Y62.787
X18.85 Y62.673
X18.621 Y62.53
X18.412 Y62.359
X18.225 Y62.164
X18.064 Y61.948
X17.93 Y61.714
X17.825 Y61.465
X17.778 Y61.294
X17.757 Y61.159
X17.75 Y61.022
Y60.59
X17.778 Y60.286
X17.838 Y60.023
X17.93 Y59.769
X18.053 Y59.529
X18.204 Y59.305
X18.381 Y59.102
X18.581 Y58.921
X18.802 Y58.766
X19.039 Y58.637
X19.29 Y58.538
X19.551 Y58.468
X19.818 Y58.43
X20.088 Y58.424
X20.357 Y58.448
X20.623 Y58.504
X20.884 Y58.589
X21.141 Y58.707
X21.383 Y58.854
X21.61 Y59.028
X21.819 Y59.231
X22.011 Y59.465
X22.115 Y59.642
X22.19 Y59.833
X22.234 Y60.034
X22.247 Y60.123
X22.25 Y61.369
X22.227 Y61.681
X22.168 Y61.944
X22.073 Y62.197
X21.946 Y62.434
X21.79 Y62.655
X21.609 Y62.855
X21.405 Y63.033
X21.177 Y63.192
X20.931 Y63.324
X20.664 Y63.431
X20.381 Y63.509
X20.09 Y63.554
X19.791 Y63.567
X19.487 Y63.546
X19.185 Y63.49
X18.89 Y63.4
X18.604 Y63.277
X18.325 Y63.116
X18.129 Y62.951
X17.968 Y62.75
X17.848 Y62.522
X17.775 Y62.276
X17.75 Y62.02
Y61.022
G3 X17.77 Y60.909 R0.4
G2 X17.757 Y60.619 R0.4
G3 X17.75 Y60.59 R0.08
G1 X17.78 Y59.967
X17.883 Y59.324
X18.102 Y58.877
X18.117 Y58.846
X18.129 Y58.822
X18.177 Y58.736
G3 X18.664 Y58.646 R0.387
X18.29 Y59.313 R0.382
X18.129 Y58.822 R0.382
G1 X18.169 Y58.746
X18.327 Y58.565
X18.44 Y58.448
X18.643 Y58.271
X18.869 Y58.123
X19.11 Y58.002
X19.369 Y57.908
X19.651 Y57.841
X19.938 Y57.806
X20.143 Y57.802
G3 X20.246 Y58.574 R0.4
G1 X18.878 Y59.09
G3 X18.44 Y58.448 R0.4
G1 X18.636 Y58.254
X18.907 Y58.09
X19.182 Y57.942
X19.374 Y57.884
X19.84 Y57.793
X20.152 Y57.803
X20.463 Y57.84
X20.619 Y57.882
X20.789 Y57.942
X21.122 Y58.098
X21.348 Y58.254
X21.552 Y58.437
X21.76 Y58.661
X21.983 Y59.032
X22.088 Y59.266
X22.178 Y59.655
X22.234 Y60.034
G3 X22.237 Y60.073 R0.4
G1 X22.238 Y60.191
X22.248 Y61.212
X22.25 Y61.369
Y62.303
X22.243 Y62.438
X22.225 Y62.572
X22.193 Y62.703
X22.148 Y62.83
X22.092 Y62.953
X21.952 Y63.184
X21.783 Y63.394
X21.588 Y63.581
X21.365 Y63.751
X21.108 Y63.905
X20.823 Y64.034
X20.514 Y64.135
X20.182 Y64.202
X19.833 Y64.233
X19.654 Y64.234
X19.474 Y64.225
X19.292 Y64.205
X18.954 Y64.14
X18.642 Y64.041
X18.508 Y63.986
X18.254 Y63.827
X18.042 Y63.616
X17.883 Y63.363
X17.784 Y63.08
X17.75 Y62.783
Y62.02
G3 X18.18 Y61.635 R0.4
G1 X21.881 Y61.918
G3 X22.25 Y62.303 R0.4
G1 Y63.05
X22.243 Y63.185
X22.22 Y63.318
X22.182 Y63.448
X22.131 Y63.573
X22.069 Y63.693
X21.919 Y63.917
X21.739 Y64.118
X21.532 Y64.301
X21.29 Y64.47
X21.006 Y64.623
X20.686 Y64.752
X20.516 Y64.805
X20.337 Y64.849
X20.151 Y64.885
X19.962 Y64.909
X19.77 Y64.924
X19.576 Y64.927
X19.234 Y64.906
X18.903 Y64.846
X18.635 Y64.765
X18.314 Y64.598
X18.078 Y64.385
X17.899 Y64.122
X17.788 Y63.824
X17.75 Y63.509
Y62.783
G3 X18.179 Y62.398 R0.4
G1 X21.879 Y62.665
G3 X22.25 Y63.05 R0.4
G1 Y63.705
X22.243 Y63.84
X22.223 Y63.973
X22.187 Y64.103
X22.137 Y64.229
X22.076 Y64.349
X21.927 Y64.574
X21.749 Y64.777
X21.538 Y64.965
X21.29 Y65.141
X20.993 Y65.304
X20.83 Y65.377
X20.66 Y65.442
X20.481 Y65.498
X20.298 Y65.545
X20.109 Y65.583
X19.917 Y65.609
X19.727 Y65.625
X19.385
X19.043 Y65.585
X18.774 Y65.523
X18.603 Y65.466
X18.365 Y65.346
X18.156 Y65.18
X17.984 Y64.977
X17.856 Y64.743
X17.777 Y64.488
X17.75 Y64.223
Y63.509
G3 X18.171 Y63.123 R0.4
G1 X21.871 Y63.32
G3 X22.25 Y63.705 R0.4
G1 Y64.414
X22.243 Y64.549
X22.217 Y64.681
X22.176 Y64.81
X22.123 Y64.934
X22.059 Y65.053
X21.906 Y65.275
X21.726 Y65.476
X21.506 Y65.669
X21.246 Y65.85
X20.94 Y66.015
X20.771 Y66.089
X20.598 Y66.153
X20.418 Y66.209
X20.232 Y66.255
X20.044 Y66.29
X19.857 Y66.315
X19.668 Y66.329
X19.332 Y66.325
X19.018 Y66.287
X18.727 Y66.217
X18.421 Y66.081
X18.187 Y65.902
X17.998 Y65.676
X17.863 Y65.414
X17.789 Y65.129
X17.75 Y64.795
Y64.223
G3 X18.17 Y63.837 R0.4
G1 X21.871 Y64.028
G3 X22.25 Y64.414 R0.4
G1 Y64.64
X22.186 Y65.263
X22.158 Y65.395
X22.118 Y65.524
X22.066 Y65.648
X22.002 Y65.767
X21.849 Y65.989
X21.668 Y66.189
X21.448 Y66.381
X21.189 Y66.56
X20.884 Y66.723
X20.717 Y66.795
X20.545 Y66.859
X20.366 Y66.913
X20.184 Y66.957
X20. Y66.991
X19.814 Y67.015
X19.486 Y67.029
X19.23 Y67.008
X18.983 Y66.938
X18.754 Y66.822
G3 X18.764 Y66.709 R0.065
G1 X18.781 Y66.701
X22.075 Y65.206
X22.094 Y65.197
G3 X22.186 Y65.263 R0.065
G1 X22.119 Y65.671
X21.831 Y66.256
X21.601 Y66.509
X21.378 Y66.737
X21.241 Y66.826
X20.813 Y67.061
X20.565 Y67.132
X20.152 Y67.207
X19.996
X19.685 Y67.178
X19.529 Y67.16
X19.374 Y67.116
X19.218 Y67.061
X18.907 Y66.919
X18.751 Y66.82
X18.561 Y66.664
X18.388 Y66.509
X18.221 Y66.314
X18.06 Y66.041
X17.916 Y65.748
X17.808 Y65.263
X17.789 Y65.129
X17.787 Y65.086 Z-22.494
X17.792 Y65.049 Z-22.478
X17.797 Y65.018 Z-22.453
X17.8 Y64.994 Z-22.42
X17.802 Y64.978 Z-22.383
X17.803 Y64.973 Z-22.343
G0 Z2.
X20.279 Y61.442
Z-21.6
G1 Z-22. F155.
G3 X19.721 Y60.049 Z-22.415 R0.75
X20.279 Y61.442 Z-22.831 R0.75
X19.721 Y60.049 Z-23.246 R0.75
X20.279 Y61.442 Z-23.662 R0.75
X19.721 Y60.049 Z-24.077 R0.75
X20.279 Y61.442 Z-24.493 R0.75
X19.721 Y60.049 Z-24.908 R0.75
X20.279 Y61.442 Z-25.324 R0.75
X19.721 Y60.049 Z-25.739 R0.75
X20.279 Y61.442 Z-26.155 R0.75
X19.721 Y60.049 Z-26.57 R0.75
X20.279 Y61.442 Z-26.986 R0.75
X19.721 Y60.049 Z-27.401 R0.75
X20.279 Y61.442 Z-27.816 R0.75
X19.721 Y60.049 Z-28.232 R0.75
X20.75 Y60.746 Z-28.49 R0.75
X19.25 R0.75
X20.75 R0.75
G1 X20.777 Y61.105
X20.779 Y61.24
X20.744 Y61.37
X20.681 Y61.49
X20.597 Y61.595
X20.497 Y61.685
X20.383 Y61.758
X20.26 Y61.814
X20.13 Y61.851
X19.997 Y61.87
X19.862 Y61.872
X19.728 Y61.855
X19.597 Y61.822
X19.471 Y61.773
X19.352 Y61.709
X19.242 Y61.631
X19.143 Y61.54
X19.054 Y61.438
X18.979 Y61.326
X18.917 Y61.206
X18.869 Y61.079
X18.837 Y60.948
X18.82 Y60.814
X18.819 Y60.679
X18.833 Y60.545
X18.862 Y60.413
X18.907 Y60.286
X18.965 Y60.164
X19.038 Y60.05
X19.122 Y59.945
X19.219 Y59.85
X19.325 Y59.767
X19.44 Y59.697
X19.563 Y59.64
X19.691 Y59.597
X19.823 Y59.569
X19.957 Y59.557
X20.092 Y59.559
X20.226 Y59.577
X20.357 Y59.61
X20.483 Y59.658
X20.603 Y59.719
X20.716 Y59.794
X20.819 Y59.881
X20.911 Y59.98
X20.993 Y60.087
X21.132 Y60.319
X21.188 Y60.441
X21.234 Y60.568
X21.269 Y60.698
X21.292 Y60.832
X21.302 Y60.966
X21.298 Y61.101
X21.281 Y61.235
X21.25 Y61.367
X21.207 Y61.494
X21.15 Y61.617
X21.081 Y61.733
X21.001 Y61.842
X20.911 Y61.942
X20.811 Y62.033
X20.703 Y62.114
X20.588 Y62.184
X20.466 Y62.243
X20.34 Y62.29
X20.209 Y62.325
X20.076 Y62.348
X19.942 Y62.359
X19.807 Y62.358
X19.672 Y62.345
X19.54 Y62.32
X19.41 Y62.284
X19.283 Y62.236
X19.161 Y62.178
X19.045 Y62.11
X18.934 Y62.032
X18.831 Y61.946
X18.735 Y61.851
X18.647 Y61.748
X18.568 Y61.638
X18.499 Y61.523
X18.439 Y61.402
X18.389 Y61.276
X18.35 Y61.147
X18.321 Y61.015
X18.303 Y60.881
X18.296 Y60.747
X18.299 Y60.612
X18.314 Y60.477
X18.339 Y60.345
X18.374 Y60.215
X18.42 Y60.088
X18.476 Y59.965
X18.541 Y59.847
X18.616 Y59.734
X18.699 Y59.628
X18.791 Y59.528
X18.89 Y59.437
X18.996 Y59.353
X19.108 Y59.278
X19.226 Y59.212
X19.348 Y59.156
X19.475 Y59.109
X19.605 Y59.072
X19.737 Y59.046
X19.872 Y59.031
X20.006 Y59.025
X20.141 Y59.031
X20.275 Y59.047
X20.408 Y59.074
X20.538 Y59.111
X20.664 Y59.158
X20.905 Y59.28
X21.126 Y59.435
X21.323 Y59.619
X21.495 Y59.827
X21.637 Y60.056
X21.747 Y60.302
X21.823 Y60.561
X21.863 Y60.828
X21.865 Y61.098
X21.829 Y61.366
X21.757 Y61.625
X21.649 Y61.873
X21.507 Y62.102
X21.335 Y62.31
X21.136 Y62.493
X20.915 Y62.647
X20.674 Y62.769
X20.419 Y62.858
X20.155 Y62.913
X19.886 Y62.933
X19.617 Y62.919
X19.351 Y62.869
X19.094 Y62.787
X18.85 Y62.673
X18.621 Y62.53
X18.412 Y62.359
X18.225 Y62.164
X18.064 Y61.948
X17.93 Y61.714
X17.825 Y61.465
X17.778 Y61.294
X17.757 Y61.159
X17.75 Y61.022
Y60.59
X17.778 Y60.286
X17.838 Y60.023
X17.93 Y59.769
X18.053 Y59.529
X18.204 Y59.305
X18.381 Y59.102
X18.581 Y58.921
X18.802 Y58.766
X19.039 Y58.637
X19.29 Y58.538
X19.551 Y58.468
X19.818 Y58.43
X20.088 Y58.424
X20.357 Y58.448
X20.623 Y58.504
X20.884 Y58.589
X21.141 Y58.707
X21.383 Y58.854
X21.61 Y59.028
X21.819 Y59.231
X22.011 Y59.465
X22.115 Y59.642
X22.19 Y59.833
X22.234 Y60.034
X22.247 Y60.123
X22.25 Y61.369
X22.227 Y61.681
X22.168 Y61.944
X22.073 Y62.197
X21.946 Y62.434
X21.79 Y62.655
X21.609 Y62.855
X21.405 Y63.033
X21.177 Y63.192
X20.931 Y63.324
X20.664 Y63.431
X20.381 Y63.509
X20.09 Y63.554
X19.791 Y63.567
X19.487 Y63.546
X19.185 Y63.49
X18.89 Y63.4
X18.604 Y63.277
X18.325 Y63.116
X18.129 Y62.951
X17.968 Y62.75
X17.848 Y62.522
X17.775 Y62.276
X17.75 Y62.02
Y61.022
G3 X17.77 Y60.909 R0.4
G2 X17.757 Y60.619 R0.4
G3 X17.75 Y60.59 R0.08
G1 X17.78 Y59.967
X17.883 Y59.324
X18.102 Y58.877
X18.117 Y58.846
X18.129 Y58.822
X18.177 Y58.736
G3 X18.664 Y58.646 R0.387
X18.29 Y59.313 R0.382
X18.129 Y58.822 R0.382
G1 X18.169 Y58.746
X18.327 Y58.565
X18.44 Y58.448
X18.643 Y58.271
X18.869 Y58.123
X19.11 Y58.002
X19.369 Y57.908
X19.651 Y57.841
X19.938 Y57.806
X20.143 Y57.802
G3 X20.246 Y58.574 R0.4
G1 X18.878 Y59.09
G3 X18.44 Y58.448 R0.4
G1 X18.636 Y58.254
X18.907 Y58.09
X19.182 Y57.942
X19.374 Y57.884
X19.84 Y57.793
X20.152 Y57.803
X20.463 Y57.84
X20.619 Y57.882
X20.789 Y57.942
X21.122 Y58.098
X21.348 Y58.254
X21.552 Y58.437
X21.76 Y58.661
X21.983 Y59.032
X22.088 Y59.266
X22.178 Y59.655
X22.234 Y60.034
G3 X22.237 Y60.073 R0.4
G1 X22.238 Y60.191
X22.248 Y61.212
X22.25 Y61.369
Y62.303
X22.243 Y62.438
X22.225 Y62.572
X22.193 Y62.703
X22.148 Y62.83
X22.092 Y62.953
X21.952 Y63.184
X21.783 Y63.394
X21.588 Y63.581
X21.365 Y63.751
X21.108 Y63.905
X20.823 Y64.034
X20.514 Y64.135
X20.182 Y64.202
X19.833 Y64.233
X19.654 Y64.234
X19.474 Y64.225
X19.292 Y64.205
X18.954 Y64.14
X18.642 Y64.041
X18.508 Y63.986
X18.254 Y63.827
X18.042 Y63.616
X17.883 Y63.363
X17.784 Y63.08
X17.75 Y62.783
Y62.02
G3 X18.18 Y61.635 R0.4
G1 X21.881 Y61.918
G3 X22.25 Y62.303 R0.4
G1 Y63.05
X22.243 Y63.185
X22.22 Y63.318
X22.182 Y63.448
X22.131 Y63.573
X22.069 Y63.693
X21.919 Y63.917
X21.739 Y64.118
X21.532 Y64.301
X21.29 Y64.47
X21.006 Y64.623
X20.686 Y64.752
X20.516 Y64.805
X20.337 Y64.849
X20.151 Y64.885
X19.962 Y64.909
X19.77 Y64.924
X19.576 Y64.927
X19.234 Y64.906
X18.903 Y64.846
X18.635 Y64.765
X18.314 Y64.598
X18.078 Y64.385
X17.899 Y64.122
X17.788 Y63.824
X17.75 Y63.509
Y62.783
G3 X18.179 Y62.398 R0.4
G1 X21.879 Y62.665
G3 X22.25 Y63.05 R0.4
G1 Y63.705
X22.243 Y63.84
X22.223 Y63.973
X22.187 Y64.103
X22.137 Y64.229
X22.076 Y64.349
X21.927 Y64.574
X21.749 Y64.777
X21.538 Y64.965
X21.29 Y65.141
X20.993 Y65.304
X20.83 Y65.377
X20.66 Y65.442
X20.481 Y65.498
X20.298 Y65.545
X20.109 Y65.583
X19.917 Y65.609
X19.727 Y65.625
X19.385
X19.043 Y65.585
X18.774 Y65.523
X18.603 Y65.466
X18.365 Y65.346
X18.156 Y65.18
X17.984 Y64.977
X17.856 Y64.743
X17.777 Y64.488
X17.75 Y64.223
Y63.509
G3 X18.171 Y63.123 R0.4
G1 X21.871 Y63.32
G3 X22.25 Y63.705 R0.4
G1 Y64.414
X22.243 Y64.549
X22.217 Y64.681
X22.176 Y64.81
X22.123 Y64.934
X22.059 Y65.053
X21.906 Y65.275
X21.726 Y65.476
X21.506 Y65.669
X21.246 Y65.85
X20.94 Y66.015
X20.771 Y66.089
X20.598 Y66.153
X20.418 Y66.209
X20.232 Y66.255
X20.044 Y66.29
X19.857 Y66.315
X19.668 Y66.329
X19.332 Y66.325
X19.018 Y66.287
X18.727 Y66.217
X18.421 Y66.081
X18.187 Y65.902
X17.998 Y65.676
X17.863 Y65.414
X17.789 Y65.129
X17.75 Y64.795
Y64.223
G3 X18.17 Y63.837 R0.4
G1 X21.871 Y64.028
G3 X22.25 Y64.414 R0.4
G1 Y64.64
X22.186 Y65.263
X22.158 Y65.395
X22.118 Y65.524
X22.066 Y65.648
X22.002 Y65.767
X21.849 Y65.989
X21.668 Y66.189
X21.448 Y66.381
X21.189 Y66.56
X20.884 Y66.723
X20.717 Y66.795
X20.545 Y66.859
X20.366 Y66.913
X20.184 Y66.957
X20. Y66.991
X19.814 Y67.015
X19.486 Y67.029
X19.23 Y67.008
X18.983 Y66.938
X18.754 Y66.822
G3 X18.764 Y66.709 R0.065
G1 X18.781 Y66.701
X22.075 Y65.206
X22.094 Y65.197
G3 X22.186 Y65.263 R0.065
G1 X22.119 Y65.671
X21.831 Y66.256
X21.601 Y66.509
X21.378 Y66.737
X21.241 Y66.826
X20.813 Y67.061
X20.565 Y67.132
X20.152 Y67.207
X19.996
X19.685 Y67.178
X19.529 Y67.16
X19.374 Y67.116
X19.218 Y67.061
X18.907 Y66.919
X18.751 Y66.82
X18.561 Y66.664
X18.388 Y66.509
X18.221 Y66.314
X18.06 Y66.041
X17.916 Y65.748
X17.808 Y65.263
X17.789 Y65.129
X17.787 Y65.086 Z-28.484
X17.792 Y65.049 Z-28.468
X17.797 Y65.018 Z-28.443
X17.8 Y64.994 Z-28.41
X17.802 Y64.978 Z-28.373
X17.803 Y64.973 Z-28.333
G0 Z2.
X19.554 Y21.319
Z-11.59
G1 Z-11.99 F155.
G3 X20.446 Y20.113 Z-12.405 R0.75
X19.554 Y21.319 Z-12.821 R0.75
X20.446 Y20.113 Z-13.236 R0.75
X19.554 Y21.319 Z-13.652 R0.75
X20.446 Y20.113 Z-14.067 R0.75
X19.554 Y21.319 Z-14.483 R0.75
X20.446 Y20.113 Z-14.898 R0.75
X19.554 Y21.319 Z-15.314 R0.75
X20.446 Y20.113 Z-15.729 R0.75
X19.554 Y21.319 Z-16.145 R0.75
X20.446 Y20.113 Z-16.56 R0.75
X19.554 Y21.319 Z-16.976 R0.75
X20.446 Y20.113 Z-17.391 R0.75
X19.554 Y21.319 Z-17.806 R0.75
X20.446 Y20.113 Z-18.222 R0.75
X19.554 Y21.319 Z-18.637 R0.75
X20.446 Y20.113 Z-19.053 R0.75
X19.554 Y21.319 Z-19.468 R0.75
X20.446 Y20.113 Z-19.884 R0.75
X19.554 Y21.319 Z-20.299 R0.75
X20.446 Y20.113 Z-20.715 R0.75
X19.554 Y21.319 Z-21.13 R0.75
X20.446 Y20.113 Z-21.546 R0.75
X19.554 Y21.319 Z-21.961 R0.75
X20.446 Y20.113 Z-22.377 R0.75
X20.75 Y20.716 Z-22.5 R0.75
X19.25 R0.75
X20.75 R0.75
G1 X20.777 Y21.075
X20.779 Y21.21
X20.744 Y21.34
X20.681 Y21.46
X20.597 Y21.566
X20.497 Y21.656
X20.383 Y21.729
X20.26 Y21.784
X20.13 Y21.821
X19.997 Y21.841
X19.862 Y21.842
X19.728 Y21.826
X19.597 Y21.792
X19.471 Y21.743
X19.352 Y21.679
X19.242 Y21.601
X19.143 Y21.51
X19.054 Y21.408
X18.979 Y21.296
X18.917 Y21.176
X18.869 Y21.049
X18.837 Y20.918
X18.82 Y20.784
X18.819 Y20.649
X18.833 Y20.515
X18.862 Y20.383
X18.907 Y20.256
X18.965 Y20.134
X19.038 Y20.02
X19.122 Y19.915
X19.219 Y19.821
X19.325 Y19.737
X19.44 Y19.667
X19.563 Y19.61
X19.691 Y19.567
X19.823 Y19.539
X19.957 Y19.527
X20.092 Y19.529
X20.226 Y19.547
X20.357 Y19.58
X20.483 Y19.628
X20.603 Y19.69
X20.716 Y19.764
X20.819 Y19.852
X20.911 Y19.95
X20.993 Y20.057
X21.132 Y20.289
X21.188 Y20.411
X21.234 Y20.538
X21.269 Y20.669
X21.292 Y20.802
X21.302 Y20.936
X21.298 Y21.071
X21.281 Y21.205
X21.25 Y21.337
X21.207 Y21.464
X21.15 Y21.587
X21.081 Y21.703
X21.001 Y21.812
X20.911 Y21.912
X20.811 Y22.003
X20.703 Y22.084
X20.588 Y22.154
X20.466 Y22.213
X20.34 Y22.26
X20.209 Y22.295
X20.076 Y22.318
X19.942 Y22.329
X19.807 Y22.328
X19.672 Y22.315
X19.54 Y22.29
X19.41 Y22.254
X19.283 Y22.207
X19.161 Y22.149
X19.045 Y22.08
X18.934 Y22.003
X18.831 Y21.916
X18.735 Y21.821
X18.647 Y21.718
X18.568 Y21.609
X18.499 Y21.493
X18.439 Y21.372
X18.389 Y21.246
X18.35 Y21.117
X18.321 Y20.985
X18.303 Y20.852
X18.296 Y20.717
X18.299 Y20.582
X18.314 Y20.448
X18.339 Y20.315
X18.374 Y20.185
X18.42 Y20.058
X18.476 Y19.935
X18.541 Y19.817
X18.616 Y19.704
X18.699 Y19.598
X18.791 Y19.499
X18.89 Y19.407
X18.996 Y19.323
X19.108 Y19.248
X19.226 Y19.182
X19.348 Y19.126
X19.475 Y19.079
X19.605 Y19.043
X19.737 Y19.017
X19.872 Y19.001
X20.006 Y18.996
X20.141 Y19.001
X20.275 Y19.017
X20.408 Y19.044
X20.538 Y19.081
X20.664 Y19.128
X20.905 Y19.25
X21.126 Y19.405
X21.323 Y19.589
X21.495 Y19.797
X21.637 Y20.026
X21.747 Y20.273
X21.823 Y20.531
X21.863 Y20.798
X21.865 Y21.068
X21.829 Y21.336
X21.757 Y21.596
X21.649 Y21.843
X21.507 Y22.073
X21.335 Y22.281
X21.136 Y22.463
X20.915 Y22.617
X20.674 Y22.739
X20.419 Y22.828
X20.155 Y22.883
X19.886 Y22.904
X19.617 Y22.889
X19.351 Y22.84
X19.094 Y22.757
X18.85 Y22.643
X18.621 Y22.5
X18.412 Y22.329
X18.225 Y22.134
X18.064 Y21.918
X17.93 Y21.684
X17.825 Y21.435
X17.778 Y21.265
X17.757 Y21.129
X17.75 Y20.992
Y20.56
X17.786 Y20.222
X17.849 Y19.96
X17.945 Y19.708
X18.071 Y19.469
X18.226 Y19.248
X18.406 Y19.047
X18.61 Y18.87
X18.832 Y18.718
X19.072 Y18.593
X19.324 Y18.497
X19.586 Y18.432
X19.854 Y18.398
X20.124 Y18.395
X20.392 Y18.424
X20.659 Y18.484
X20.92 Y18.574
X21.173 Y18.695
X21.416 Y18.847
X21.639 Y19.024
X21.845 Y19.229
X21.974 Y19.387
X22.093 Y19.576
X22.179 Y19.782
X22.229 Y20.
X22.243 Y20.093
X22.25 Y20.56
Y21.339
X22.227 Y21.651
X22.168 Y21.914
X22.073 Y22.167
X21.946 Y22.405
X21.79 Y22.625
X21.609 Y22.825
X21.405 Y23.004
X21.177 Y23.162
X20.931 Y23.294
X20.664 Y23.401
X20.381 Y23.479
X20.09 Y23.524
X19.791 Y23.537
X19.487 Y23.516
X19.185 Y23.46
X18.89 Y23.371
X18.604 Y23.247
X18.325 Y23.087
X18.129 Y22.921
X17.968 Y22.72
X17.848 Y22.492
X17.775 Y22.246
X17.75 Y21.99
Y20.992
G3 X17.77 Y20.879 R0.4
G2 X17.757 Y20.59 R0.4
G3 X17.75 Y20.56 R0.08
G1 X17.784 Y19.937
X17.88 Y19.333
X18.116 Y18.847
X18.172 Y18.74
X18.356 Y18.535
X18.44 Y18.448
X18.477 Y18.41
X18.575 Y18.318
X18.769 Y18.172
X18.837 Y18.13
G3 X19.27 Y18.799 R0.4
G1 X19.019 Y18.994
G3 X18.477 Y18.41 R0.4
G1 X18.639 Y18.252
X18.907 Y18.09
X18.948 Y18.068
X18.982 Y18.049
X19.234 Y17.937
X19.472 Y17.863
X19.499 Y17.857
G3 X19.71 Y18.625 R0.4
G1 X19.325 Y18.769
G3 X18.982 Y18.049 R0.4
G1 X19.179 Y17.943
X19.374 Y17.884
X19.529 Y17.85
X19.866 Y17.793
X20.152 Y17.803
X20.463 Y17.84
X20.72 Y17.912
X21.085 Y18.076
X21.314 Y18.224
X21.552 Y18.437
X21.708 Y18.601
X21.782 Y18.691
X21.966 Y19.002
X22.091 Y19.275
X22.175 Y19.641
X22.229 Y20.
G3 X22.232 Y20.037 R0.4
G1 X22.233 Y20.157
X22.248 Y21.182
X22.25 Y21.339
Y22.273
X22.243 Y22.408
X22.225 Y22.542
X22.193 Y22.673
X22.148 Y22.8
X22.092 Y22.923
X21.952 Y23.154
X21.783 Y23.364
X21.588 Y23.551
X21.365 Y23.721
X21.108 Y23.875
X20.823 Y24.005
X20.514 Y24.105
X20.182 Y24.173
X19.833 Y24.204
X19.654
X19.474 Y24.195
X19.292 Y24.175
X18.954 Y24.11
X18.642 Y24.011
X18.508 Y23.956
X18.254 Y23.797
X18.042 Y23.586
X17.883 Y23.333
X17.784 Y23.05
X17.75 Y22.753
Y21.99
G3 X18.18 Y21.605 R0.4
G1 X21.881 Y21.889
G3 X22.25 Y22.273 R0.4
G1 Y23.021
X22.243 Y23.155
X22.22 Y23.288
X22.182 Y23.418
X22.131 Y23.543
X22.069 Y23.663
X21.919 Y23.887
X21.739 Y24.088
X21.532 Y24.271
X21.29 Y24.44
X21.006 Y24.593
X20.686 Y24.723
X20.516 Y24.775
X20.337 Y24.82
X20.151 Y24.855
X19.962 Y24.88
X19.77 Y24.894
X19.576 Y24.898
X19.234 Y24.876
X18.903 Y24.816
X18.635 Y24.735
X18.314 Y24.568
X18.078 Y24.355
X17.899 Y24.092
X17.788 Y23.794
X17.75 Y23.479
Y22.753
G3 X18.179 Y22.368 R0.4
G1 X21.879 Y22.636
G3 X22.25 Y23.021 R0.4
G1 Y23.675
X22.243 Y23.81
X22.223 Y23.944
X22.187 Y24.074
X22.137 Y24.199
X22.076 Y24.319
X21.927 Y24.544
X21.749 Y24.747
X21.538 Y24.935
X21.29 Y25.111
X20.993 Y25.274
X20.83 Y25.347
X20.66 Y25.412
X20.481 Y25.469
X20.298 Y25.516
X20.109 Y25.553
X19.917 Y25.579
X19.727 Y25.595
X19.385
X19.043 Y25.556
X18.774 Y25.493
X18.603 Y25.436
X18.365 Y25.316
X18.156 Y25.151
X17.984 Y24.947
X17.856 Y24.713
X17.777 Y24.458
X17.75 Y24.193
Y23.479
G3 X18.171 Y23.093 R0.4
G1 X21.871 Y23.29
G3 X22.25 Y23.675 R0.4
G1 Y24.384
X22.243 Y24.519
X22.217 Y24.651
X22.176 Y24.78
X22.123 Y24.904
X22.059 Y25.023
X21.906 Y25.245
X21.726 Y25.446
X21.506 Y25.639
X21.246 Y25.82
X20.94 Y25.985
X20.771 Y26.059
X20.598 Y26.123
X20.418 Y26.179
X20.232 Y26.225
X20.044 Y26.26
X19.857 Y26.285
X19.668 Y26.299
X19.332 Y26.296
X19.018 Y26.257
X18.727 Y26.187
X18.417 Y26.05
X18.182 Y25.871
X17.993 Y25.645
X17.859 Y25.383
X17.785 Y25.097
X17.759 Y24.921
X17.75 Y24.61
Y24.193
G3 X18.17 Y23.807 R0.4
G1 X21.871 Y23.998
G3 X22.25 Y24.384 R0.4
G1 Y24.61
X22.194 Y25.201
X22.172 Y25.334
X22.135 Y25.464
X22.084 Y25.589
X22.023 Y25.71
X21.873 Y25.934
X21.694 Y26.136
X21.479 Y26.329
X21.224 Y26.51
X20.921 Y26.677
X20.758 Y26.75
X20.587 Y26.815
X20.411 Y26.871
X20.228 Y26.918
X20.044 Y26.955
X19.858 Y26.981
X19.518 Y27.
X19.329 Y26.994
X19.048 Y26.939
X18.785 Y26.825
X18.553 Y26.657
G3 X18.68 Y25.998 R0.4
G1 X21.645 Y24.799
G3 X22.194 Y25.201 R0.4
G1 X22.122 Y25.661
X21.828 Y26.259
X21.63 Y26.479
X21.371 Y26.742
X21.085 Y26.914
X20.813 Y27.061
X20.619 Y27.118
X20.152 Y27.207
X19.996
X19.685 Y27.178
X19.529 Y27.16
X19.326 Y27.102
X19.062 Y26.991
X18.907 Y26.919
X18.704 Y26.79
X18.362 Y26.479
X18.227 Y26.323
X18.043 Y26.012
X17.913 Y25.739
X17.818 Y25.324
X17.785 Y25.097
X17.782 Y25.054 Z-22.494
X17.788 Y25.018 Z-22.478
X17.792 Y24.986 Z-22.453
X17.795 Y24.962 Z-22.42
X17.798 Y24.947 Z-22.383
Y24.942 Z-22.343
G0 Z2.
X20.279 Y21.412
Z-21.6
G1 Z-22. F155.
G3 X19.721 Y20.02 Z-22.415 R0.75
X20.279 Y21.412 Z-22.831 R0.75
X19.721 Y20.02 Z-23.246 R0.75
X20.279 Y21.412 Z-23.662 R0.75
X19.721 Y20.02 Z-24.077 R0.75
X20.279 Y21.412 Z-24.493 R0.75
X19.721 Y20.02 Z-24.908 R0.75
X20.279 Y21.412 Z-25.324 R0.75
X19.721 Y20.02 Z-25.739 R0.75
X20.279 Y21.412 Z-26.155 R0.75
X19.721 Y20.02 Z-26.57 R0.75
X20.279 Y21.412 Z-26.986 R0.75
X19.721 Y20.02 Z-27.401 R0.75
X20.279 Y21.412 Z-27.816 R0.75
X19.721 Y20.02 Z-28.232 R0.75
X20.75 Y20.716 Z-28.49 R0.75
X19.25 R0.75
X20.75 R0.75
G1 X20.777 Y21.075
X20.779 Y21.21
X20.744 Y21.34
X20.681 Y21.46
X20.597 Y21.566
X20.497 Y21.656
X20.383 Y21.729
X20.26 Y21.784
X20.13 Y21.821
X19.997 Y21.841
X19.862 Y21.842
X19.728 Y21.826
X19.597 Y21.792
X19.471 Y21.743
X19.352 Y21.679
X19.242 Y21.601
X19.143 Y21.51
X19.054 Y21.408
X18.979 Y21.296
X18.917 Y21.176
X18.869 Y21.049
X18.837 Y20.918
X18.82 Y20.784
X18.819 Y20.649
X18.833 Y20.515
X18.862 Y20.383
X18.907 Y20.256
X18.965 Y20.134
X19.038 Y20.02
X19.122 Y19.915
X19.219 Y19.821
X19.325 Y19.737
X19.44 Y19.667
X19.563 Y19.61
X19.691 Y19.567
X19.823 Y19.539
X19.957 Y19.527
X20.092 Y19.529
X20.226 Y19.547
X20.357 Y19.58
X20.483 Y19.628
X20.603 Y19.69
X20.716 Y19.764
X20.819 Y19.852
X20.911 Y19.95
X20.993 Y20.057
X21.132 Y20.289
X21.188 Y20.411
X21.234 Y20.538
X21.269 Y20.669
X21.292 Y20.802
X21.302 Y20.936
X21.298 Y21.071
X21.281 Y21.205
X21.25 Y21.337
X21.207 Y21.464
X21.15 Y21.587
X21.081 Y21.703
X21.001 Y21.812
X20.911 Y21.912
X20.811 Y22.003
X20.703 Y22.084
X20.588 Y22.154
X20.466 Y22.213
X20.34 Y22.26
X20.209 Y22.295
X20.076 Y22.318
X19.942 Y22.329
X19.807 Y22.328
X19.672 Y22.315
X19.54 Y22.29
X19.41 Y22.254
X19.283 Y22.207
X19.161 Y22.149
X19.045 Y22.08
X18.934 Y22.003
X18.831 Y21.916
X18.735 Y21.821
X18.647 Y21.718
X18.568 Y21.609
X18.499 Y21.493
X18.439 Y21.372
X18.389 Y21.246
X18.35 Y21.117
X18.321 Y20.985
X18.303 Y20.852
X18.296 Y20.717
X18.299 Y20.582
X18.314 Y20.448
X18.339 Y20.315
X18.374 Y20.185
X18.42 Y20.058
X18.476 Y19.935
X18.541 Y19.817
X18.616 Y19.704
X18.699 Y19.598
X18.791 Y19.499
X18.89 Y19.407
X18.996 Y19.323
X19.108 Y19.248
X19.226 Y19.182
X19.348 Y19.126
X19.475 Y19.079
X19.605 Y19.043
X19.737 Y19.017
X19.872 Y19.001
X20.006 Y18.996
X20.141 Y19.001
X20.275 Y19.017
X20.408 Y19.044
X20.538 Y19.081
X20.664 Y19.128
X20.905 Y19.25
X21.126 Y19.405
X21.323 Y19.589
X21.495 Y19.797
X21.637 Y20.026
X21.747 Y20.273
X21.823 Y20.531
X21.863 Y20.798
X21.865 Y21.068
X21.829 Y21.336
X21.757 Y21.596
X21.649 Y21.843
X21.507 Y22.073
X21.335 Y22.281
X21.136 Y22.463
X20.915 Y22.617
X20.674 Y22.739
X20.419 Y22.828
X20.155 Y22.883
X19.886 Y22.904
X19.617 Y22.889
X19.351 Y22.84
X19.094 Y22.757
X18.85 Y22.643
X18.621 Y22.5
X18.412 Y22.329
X18.225 Y22.134
X18.064 Y21.918
X17.93 Y21.684
X17.825 Y21.435
X17.778 Y21.265
X17.757 Y21.129
X17.75 Y20.992
Y20.56
X17.786 Y20.222
X17.849 Y19.96
X17.945 Y19.708
X18.071 Y19.469
X18.226 Y19.248
X18.406 Y19.047
X18.61 Y18.87
X18.832 Y18.718
X19.072 Y18.593
X19.324 Y18.497
X19.586 Y18.432
X19.854 Y18.398
X20.124 Y18.395
X20.392 Y18.424
X20.659 Y18.484
X20.92 Y18.574
X21.173 Y18.695
X21.416 Y18.847
X21.639 Y19.024
X21.845 Y19.229
X21.974 Y19.387
X22.093 Y19.576
X22.179 Y19.782
X22.229 Y20.
X22.243 Y20.093
X22.25 Y20.56
Y21.339
X22.227 Y21.651
X22.168 Y21.914
X22.073 Y22.167
X21.946 Y22.405
X21.79 Y22.625
X21.609 Y22.825
X21.405 Y23.004
X21.177 Y23.162
X20.931 Y23.294
X20.664 Y23.401
X20.381 Y23.479
X20.09 Y23.524
X19.791 Y23.537
X19.487 Y23.516
X19.185 Y23.46
X18.89 Y23.371
X18.604 Y23.247
X18.325 Y23.087
X18.129 Y22.921
X17.968 Y22.72
X17.848 Y22.492
X17.775 Y22.246
X17.75 Y21.99
Y20.992
G3 X17.77 Y20.879 R0.4
G2 X17.757 Y20.59 R0.4
G3 X17.75 Y20.56 R0.08
G1 X17.784 Y19.937
X17.88 Y19.333
X18.116 Y18.847
X18.172 Y18.74
X18.356 Y18.535
X18.44 Y18.448
X18.477 Y18.41
X18.575 Y18.318
X18.769 Y18.172
X18.837 Y18.13
G3 X19.27 Y18.799 R0.4
G1 X19.019 Y18.994
G3 X18.477 Y18.41 R0.4
G1 X18.639 Y18.252
X18.907 Y18.09
X18.948 Y18.068
X18.982 Y18.049
X19.234 Y17.937
X19.472 Y17.863
X19.499 Y17.857
G3 X19.71 Y18.625 R0.4
G1 X19.325 Y18.769
G3 X18.982 Y18.049 R0.4
G1 X19.179 Y17.943
X19.374 Y17.884
X19.529 Y17.85
X19.866 Y17.793
X20.152 Y17.803
X20.463 Y17.84
X20.72 Y17.912
X21.085 Y18.076
X21.314 Y18.224
X21.552 Y18.437
X21.708 Y18.601
X21.782 Y18.691
X21.966 Y19.002
X22.091 Y19.275
X22.175 Y19.641
X22.229 Y20.
G3 X22.232 Y20.037 R0.4
G1 X22.233 Y20.157
X22.248 Y21.182
X22.25 Y21.339
Y22.273
X22.243 Y22.408
X22.225 Y22.542
X22.193 Y22.673
X22.148 Y22.8
X22.092 Y22.923
X21.952 Y23.154
X21.783 Y23.364
X21.588 Y23.551
X21.365 Y23.721
X21.108 Y23.875
X20.823 Y24.005
X20.514 Y24.105
X20.182 Y24.173
X19.833 Y24.204
X19.654
X19.474 Y24.195
X19.292 Y24.175
X18.954 Y24.11
X18.642 Y24.011
X18.508 Y23.956
X18.254 Y23.797
X18.042 Y23.586
X17.883 Y23.333
X17.784 Y23.05
X17.75 Y22.753
Y21.99
G3 X18.18 Y21.605 R0.4
G1 X21.881 Y21.889
G3 X22.25 Y22.273 R0.4
G1 Y23.021
X22.243 Y23.155
X22.22 Y23.288
X22.182 Y23.418
X22.131 Y23.543
X22.069 Y23.663
X21.919 Y23.887
X21.739 Y24.088
X21.532 Y24.271
X21.29 Y24.44
X21.006 Y24.593
X20.686 Y24.723
X20.516 Y24.775
X20.337 Y24.82
X20.151 Y24.855
X19.962 Y24.88
X19.77 Y24.894
X19.576 Y24.898
X19.234 Y24.876
X18.903 Y24.816
X18.635 Y24.735
X18.314 Y24.568
X18.078 Y24.355
X17.899 Y24.092
X17.788 Y23.794
X17.75 Y23.479
Y22.753
G3 X18.179 Y22.368 R0.4
G1 X21.879 Y22.636
G3 X22.25 Y23.021 R0.4
G1 Y23.675
X22.243 Y23.81
X22.223 Y23.944
X22.187 Y24.074
X22.137 Y24.199
X22.076 Y24.319
X21.927 Y24.544
X21.749 Y24.747
X21.538 Y24.935
X21.29 Y25.111
X20.993 Y25.274
X20.83 Y25.347
X20.66 Y25.412
X20.481 Y25.469
X20.298 Y25.516
X20.109 Y25.553
X19.917 Y25.579
X19.727 Y25.595
X19.385
X19.043 Y25.556
X18.774 Y25.493
X18.603 Y25.436
X18.365 Y25.316
X18.156 Y25.151
X17.984 Y24.947
X17.856 Y24.713
X17.777 Y24.458
X17.75 Y24.193
Y23.479
G3 X18.171 Y23.093 R0.4
G1 X21.871 Y23.29
G3 X22.25 Y23.675 R0.4
G1 Y24.384
X22.243 Y24.519
X22.217 Y24.651
X22.176 Y24.78
X22.123 Y24.904
X22.059 Y25.023
X21.906 Y25.245
X21.726 Y25.446
X21.506 Y25.639
X21.246 Y25.82
X20.94 Y25.985
X20.771 Y26.059
X20.598 Y26.123
X20.418 Y26.179
X20.232 Y26.225
X20.044 Y26.26
X19.857 Y26.285
X19.668 Y26.299
X19.332 Y26.296
X19.018 Y26.257
X18.727 Y26.187
X18.417 Y26.05
X18.182 Y25.871
X17.993 Y25.645
X17.859 Y25.383
X17.785 Y25.097
X17.759 Y24.921
X17.75 Y24.61
Y24.193
G3 X18.17 Y23.807 R0.4
G1 X21.871 Y23.998
G3 X22.25 Y24.384 R0.4
G1 Y24.61
X22.194 Y25.201
X22.172 Y25.334
X22.135 Y25.464
X22.084 Y25.589
X22.023 Y25.71
X21.873 Y25.934
X21.694 Y26.136
X21.479 Y26.329
X21.224 Y26.51
X20.921 Y26.677
X20.758 Y26.75
X20.587 Y26.815
X20.411 Y26.871
X20.228 Y26.918
X20.044 Y26.955
X19.858 Y26.981
X19.518 Y27.
X19.329 Y26.994
X19.048 Y26.939
X18.785 Y26.825
X18.553 Y26.657
G3 X18.68 Y25.998 R0.4
G1 X21.645 Y24.799
G3 X22.194 Y25.201 R0.4
G1 X22.122 Y25.661
X21.828 Y26.259
X21.63 Y26.479
X21.371 Y26.742
X21.085 Y26.914
X20.813 Y27.061
X20.619 Y27.118
X20.152 Y27.207
X19.996
X19.685 Y27.178
X19.529 Y27.16
X19.326 Y27.102
X19.062 Y26.991
X18.907 Y26.919
X18.704 Y26.79
X18.362 Y26.479
X18.227 Y26.323
X18.043 Y26.012
X17.913 Y25.739
X17.818 Y25.324
X17.785 Y25.097
X17.782 Y25.054 Z-28.484
X17.788 Y25.018 Z-28.468
X17.792 Y24.986 Z-28.443
X17.795 Y24.962 Z-28.41
X17.798 Y24.947 Z-28.373
Y24.942 Z-28.333
G0 Z2.
Z4.

(ADAPTIVE2)
M8
G0 X-20.47 Y-59.416
Z4.
Z2.
Z-11.595
G1 Z-11.995 F155.
G3 X-19.529 Y-60.583 Z-12.411 R0.75
X-20.47 Y-59.416 Z-12.826 R0.75
X-19.529 Y-60.583 Z-13.242 R0.75
X-20.47 Y-59.416 Z-13.657 R0.75
X-19.529 Y-60.583 Z-14.073 R0.75
X-20.47 Y-59.416 Z-14.488 R0.75
X-19.529 Y-60.583 Z-14.904 R0.75
X-20.47 Y-59.416 Z-15.319 R0.75
X-19.529 Y-60.583 Z-15.735 R0.75
X-20.47 Y-59.416 Z-16.15 R0.75
X-19.529 Y-60.583 Z-16.566 R0.75
X-20.47 Y-59.416 Z-16.981 R0.75
X-19.529 Y-60.583 Z-17.396 R0.75
X-20.47 Y-59.416 Z-17.812 R0.75
X-19.529 Y-60.583 Z-18.227 R0.75
X-20.47 Y-59.416 Z-18.643 R0.75
X-19.529 Y-60.583 Z-19.058 R0.75
X-20.47 Y-59.416 Z-19.474 R0.75
X-19.529 Y-60.583 Z-19.889 R0.75
X-20.47 Y-59.416 Z-20.305 R0.75
X-19.529 Y-60.583 Z-20.72 R0.75
X-20.47 Y-59.416 Z-21.136 R0.75
X-19.529 Y-60.583 Z-21.551 R0.75
X-20.47 Y-59.416 Z-21.967 R0.75
X-19.529 Y-60.583 Z-22.382 R0.75
X-19.25 Y-60. Z-22.5 R0.75
X-20.75 R0.75
X-19.25 R0.75
G1 X-19.248 Y-59.782
X-19.239 Y-59.728
X-19.232 Y-59.694
X-19.228 Y-59.672
X-19.226 Y-59.649
X-19.225 Y-59.624
Y-59.597
X-19.228 Y-59.569
X-19.231 Y-59.539
X-19.237 Y-59.508
X-19.245 Y-59.476
X-19.255 Y-59.443
X-19.267 Y-59.41
X-19.282 Y-59.376
X-19.299 Y-59.341
X-19.319 Y-59.307
X-19.342 Y-59.272
X-19.367 Y-59.238
X-19.395 Y-59.205
X-19.425 Y-59.172
X-19.458 Y-59.14
X-19.493 Y-59.11
X-19.531 Y-59.081
X-19.571 Y-59.053
X-19.614 Y-59.028
X-19.658 Y-59.004
X-19.705 Y-58.983
X-19.753 Y-58.964
X-19.804 Y-58.947
X-19.855 Y-58.933
X-19.908 Y-58.923
X-19.963 Y-58.914
X-20.018 Y-58.909
X-20.074 Y-58.907
X-20.131 Y-58.909
X-20.188 Y-58.913
X-20.245 Y-58.921
X-20.302 Y-58.932
X-20.359 Y-58.946
X-20.415 Y-58.964
X-20.47 Y-58.984
X-20.525 Y-59.009
X-20.579 Y-59.036
X-20.631 Y-59.066
X-20.682 Y-59.1
X-20.73 Y-59.136
X-20.778 Y-59.176
X-20.822 Y-59.218
X-20.865 Y-59.263
X-20.905 Y-59.31
X-20.943 Y-59.36
X-20.978 Y-59.411
X-21.01 Y-59.465
X-21.039 Y-59.521
X-21.065 Y-59.579
X-21.087 Y-59.637
X-21.107 Y-59.698
X-21.122 Y-59.759
X-21.135 Y-59.822
X-21.144 Y-59.885
X-21.149 Y-59.948
X-21.151 Y-60.012
X-21.149 Y-60.076
X-21.144 Y-60.14
X-21.135 Y-60.204
X-21.123 Y-60.267
X-21.106 Y-60.329
X-21.087 Y-60.39
X-21.064 Y-60.451
X-21.037 Y-60.509
X-21.008 Y-60.567
X-20.975 Y-60.622
X-20.939 Y-60.676
X-20.899 Y-60.728
X-20.858 Y-60.777
X-20.813 Y-60.824
X-20.766 Y-60.869
X-20.716 Y-60.911
X-20.664 Y-60.95
X-20.61 Y-60.985
X-20.553 Y-61.018
X-20.496 Y-61.048
X-20.436 Y-61.074
X-20.375 Y-61.097
X-20.313 Y-61.117
X-20.25 Y-61.133
X-20.186 Y-61.145
X-20.121 Y-61.154
X-20.056 Y-61.159
X-19.991 Y-61.16
X-19.926 Y-61.158
X-19.861 Y-61.152
X-19.796 Y-61.143
X-19.732 Y-61.13
X-19.669 Y-61.113
X-19.607 Y-61.093
X-19.546 Y-61.069
X-19.487 Y-61.042
X-19.429 Y-61.011
X-19.373 Y-60.978
X-19.319 Y-60.941
X-19.267 Y-60.901
X-19.217 Y-60.858
X-19.17 Y-60.813
X-19.126 Y-60.765
X-19.075 Y-60.704
X-19.012 Y-60.619
X-18.958 Y-60.536
X-18.911 Y-60.454
X-18.871 Y-60.375
X-18.836 Y-60.296
X-18.807 Y-60.217
X-18.784 Y-60.14
X-18.765 Y-60.063
X-18.75 Y-59.986
X-18.741 Y-59.91
X-18.735 Y-59.835
X-18.734 Y-59.76
X-18.737 Y-59.686
X-18.744 Y-59.613
X-18.755 Y-59.54
X-18.77 Y-59.469
X-18.79 Y-59.398
X-18.813 Y-59.328
X-18.84 Y-59.26
X-18.871 Y-59.194
X-18.906 Y-59.129
X-18.944 Y-59.066
X-18.986 Y-59.004
X-19.032 Y-58.945
X-19.081 Y-58.889
X-19.134 Y-58.835
X-19.19 Y-58.783
X-19.249 Y-58.735
X-19.311 Y-58.69
X-19.376 Y-58.648
X-19.444 Y-58.61
X-19.514 Y-58.575
X-19.587 Y-58.544
X-19.661 Y-58.517
X-19.738 Y-58.494
X-19.816 Y-58.475
X-19.896 Y-58.461
X-19.977 Y-58.451
X-20.058 Y-58.445
X-20.141
X-20.224 Y-58.449
X-20.307 Y-58.457
X-20.39 Y-58.47
X-20.472 Y-58.489
X-20.554 Y-58.511
X-20.634 Y-58.539
X-20.714 Y-58.571
X-20.792 Y-58.608
X-20.868 Y-58.649
X-20.942 Y-58.695
X-21.013 Y-58.745
X-21.082 Y-58.799
X-21.148 Y-58.857
X-21.211 Y-58.919
X-21.27 Y-58.985
X-21.326 Y-59.054
X-21.378 Y-59.126
X-21.426 Y-59.202
X-21.469 Y-59.28
X-21.509 Y-59.361
X-21.544 Y-59.444
X-21.574 Y-59.529
X-21.599 Y-59.616
X-21.62 Y-59.704
X-21.635 Y-59.794
X-21.646 Y-59.884
X-21.651 Y-59.976
X-21.652 Y-60.067
X-21.647 Y-60.159
X-21.637 Y-60.25
X-21.621 Y-60.341
X-21.601 Y-60.431
X-21.576 Y-60.519
X-21.545 Y-60.606
X-21.51 Y-60.692
X-21.47 Y-60.775
X-21.425 Y-60.857
X-21.376 Y-60.935
X-21.322 Y-61.011
X-21.264 Y-61.084
X-21.202 Y-61.153
X-21.136 Y-61.219
X-21.067 Y-61.281
X-20.994 Y-61.339
X-20.918 Y-61.393
X-20.838 Y-61.443
X-20.757 Y-61.488
X-20.672 Y-61.528
X-20.586 Y-61.564
X-20.497 Y-61.595
X-20.407 Y-61.621
X-20.316 Y-61.641
X-20.223 Y-61.657
X-20.13 Y-61.667
X-20.036 Y-61.672
X-19.942
X-19.848 Y-61.666
X-19.755 Y-61.655
X-19.662 Y-61.639
X-19.571 Y-61.618
X-19.48 Y-61.591
X-19.39 Y-61.559
X-19.298 Y-61.52
X-19.206 Y-61.476
X-19.115 Y-61.424
X-19.025 Y-61.367
X-18.938 Y-61.305
X-18.854 Y-61.237
X-18.774 Y-61.164
X-18.698 Y-61.087
X-18.626 Y-61.006
X-18.559 Y-60.92
X-18.497 Y-60.831
X-18.44 Y-60.739
X-18.389 Y-60.645
X-18.343 Y-60.547
X-18.302 Y-60.448
X-18.268 Y-60.347
X-18.239 Y-60.244
X-18.217 Y-60.14
X-18.2 Y-60.035
X-18.189 Y-59.93
X-18.184 Y-59.824
X-18.185 Y-59.719
X-18.192 Y-59.613
X-18.205 Y-59.508
X-18.224 Y-59.404
X-18.248 Y-59.302
X-18.279 Y-59.2
X-18.315 Y-59.101
X-18.357 Y-59.003
X-18.404 Y-58.908
X-18.456 Y-58.815
X-18.514 Y-58.726
X-18.577 Y-58.639
X-18.646 Y-58.556
X-18.718 Y-58.476
X-18.796 Y-58.401
X-18.878 Y-58.33
X-18.964 Y-58.263
X-19.054 Y-58.201
X-19.147 Y-58.144
X-19.245 Y-58.092
X-19.345 Y-58.045
X-19.448 Y-58.004
X-19.554 Y-57.969
X-19.662 Y-57.94
X-19.772 Y-57.916
X-19.884 Y-57.899
X-19.997 Y-57.888
X-20.111 Y-57.884
X-20.225 Y-57.886
X-20.34 Y-57.894
X-20.454 Y-57.909
X-20.568 Y-57.93
X-20.681 Y-57.958
X-20.793 Y-57.992
X-20.902 Y-58.033
X-21.01 Y-58.08
X-21.116 Y-58.133
X-21.218 Y-58.192
X-21.318 Y-58.257
X-21.414 Y-58.328
X-21.506 Y-58.404
X-21.594 Y-58.486
X-21.677 Y-58.573
X-21.756 Y-58.664
X-21.829 Y-58.76
X-21.898 Y-58.861
X-21.96 Y-58.965
X-22.017 Y-59.073
X-22.068 Y-59.184
X-22.112 Y-59.299
X-22.15 Y-59.416
X-22.182 Y-59.535
X-22.207 Y-59.655
X-22.225 Y-59.778
X-22.236 Y-59.901
X-22.24 Y-60.025
X-22.237 Y-60.149
X-22.227 Y-60.273
X-22.22 Y-60.326
X-22.206 Y-60.414
X-22.173 Y-60.562
X-22.145 Y-60.661
X-22.13 Y-60.711
X-22.113 Y-60.76
X-22.05 Y-60.919
X-21.982 Y-61.057
X-21.955 Y-61.107
X-21.863 Y-61.255
X-21.852 Y-61.272
X-21.753 Y-61.404
X-21.713 Y-61.453
X-21.576 Y-61.602
X-21.555 Y-61.622
X-21.456 Y-61.71
X-21.406 Y-61.751
X-21.343 Y-61.8
X-21.258 Y-61.861
X-21.109 Y-61.952
X-21.06 Y-61.979
X-20.911 Y-62.052
X-20.763 Y-62.111
X-20.713 Y-62.129
X-20.565 Y-62.173
X-20.416 Y-62.206
X-20.367 Y-62.215
X-20.218 Y-62.236
X-20.053 Y-62.245
X-19.872 Y-62.241
X-19.724 Y-62.228
X-19.674 Y-62.221
X-19.526 Y-62.195
X-19.377 Y-62.159
X-19.328 Y-62.143
X-19.195 Y-62.097
X-19.179 Y-62.09
X-19.031 Y-62.025
X-18.976 Y-61.998
X-18.882 Y-61.947
X-18.833 Y-61.917
X-18.684 Y-61.818
X-18.635 Y-61.783
X-18.486 Y-61.658
X-18.437 Y-61.614
X-18.387 Y-61.562
X-18.332 Y-61.503
X-18.287 Y-61.453
X-18.239 Y-61.393
X-18.171 Y-61.305
X-18.137 Y-61.255
X-18.041 Y-61.1
X-18.018 Y-61.057
X-17.969 Y-60.958
X-17.946 Y-60.909
X-17.887 Y-60.76
X-17.871 Y-60.711
X-17.826 Y-60.562
X-17.813 Y-60.513
X-17.802 Y-60.463
X-17.785 Y-60.364
X-17.771 Y-60.265
X-17.765 Y-60.216
X-17.754 Y-60.067
Y-60.018
X-17.756 Y-59.919
X-17.758 Y-59.869
X-17.773 Y-59.721
X-17.793 Y-59.594
X-17.806 Y-59.523
X-17.843 Y-59.374
X-17.892 Y-59.225
X-17.91 Y-59.176
X-17.975 Y-59.028
X-18.001 Y-58.978
X-18.055 Y-58.879
X-18.09 Y-58.82
X-18.148 Y-58.731
X-18.189 Y-58.672
X-18.302 Y-58.533
X-18.345 Y-58.483
X-18.392 Y-58.434
X-18.492 Y-58.335
X-18.612 Y-58.236
X-18.674 Y-58.186
X-18.747 Y-58.137
X-18.833 Y-58.081
X-18.932 Y-58.026
X-19.002 Y-57.988
X-19.031 Y-57.975
X-19.179 Y-57.91
X-19.328 Y-57.859
X-19.391 Y-57.84
X-19.476 Y-57.816
X-19.526 Y-57.805
X-19.674 Y-57.779
X-19.724 Y-57.771
X-19.872 Y-57.757
X-20.02 Y-57.755
X-20.07 Y-57.756
X-20.218 Y-57.766
X-20.398 Y-57.79
X-20.515 Y-57.814
X-20.565 Y-57.826
X-20.713 Y-57.87
X-20.768 Y-57.889
X-20.911 Y-57.947
X-20.998 Y-57.988
X-21.091 Y-58.038
X-21.258 Y-58.14
X-21.307 Y-58.175
X-21.406 Y-58.251
X-21.456 Y-58.29
X-21.508 Y-58.335
X-21.609 Y-58.434
X-21.656 Y-58.483
X-21.703 Y-58.537
X-21.782 Y-58.632
X-21.817 Y-58.681
X-21.916 Y-58.83
X-21.951 Y-58.889
X-22.025 Y-59.028
X-22.09 Y-59.176
X-22.099 Y-59.199
X-22.149 Y-59.348
X-22.157 Y-59.374
X-22.198 Y-59.544
X-22.22 Y-59.671
X-22.227 Y-59.721
X-22.242 Y-59.869
X-22.245 Y-59.968
X-22.246 Y-60.018
Y-60.067
X-22.235 Y-60.216
X-22.229 Y-60.265
X-22.22 Y-60.326
X-22.202 Y-60.371 Z-22.492
X-22.186 Y-60.411 Z-22.47
X-22.174 Y-60.444 Z-22.435
X-22.165 Y-60.464 Z-22.391
X-22.163 Y-60.471 Z-22.343
G0 Z2.
X-19.693 Y-59.317
Z-21.6
G1 Z-22. F155.
G3 X-20.308 Y-60.685 Z-22.415 R0.75
X-19.693 Y-59.317 Z-22.831 R0.75
X-20.308 Y-60.685 Z-23.246 R0.75
X-19.693 Y-59.317 Z-23.662 R0.75
X-20.308 Y-60.685 Z-24.077 R0.75
X-19.693 Y-59.317 Z-24.493 R0.75
X-20.308 Y-60.685 Z-24.908 R0.75
X-19.693 Y-59.317 Z-25.324 R0.75
X-20.308 Y-60.685 Z-25.739 R0.75
X-19.693 Y-59.317 Z-26.155 R0.75
X-20.308 Y-60.685 Z-26.57 R0.75
X-19.693 Y-59.317 Z-26.986 R0.75
X-20.308 Y-60.685 Z-27.401 R0.75
X-19.693 Y-59.317 Z-27.816 R0.75
X-20.308 Y-60.685 Z-28.232 R0.75
X-19.251 Y-60.001 Z-28.496 R0.75
X-20.751 R0.75
X-19.251 R0.75
G1 X-19.249 Y-59.783
X-19.24 Y-59.729
X-19.233 Y-59.695
X-19.229 Y-59.674
X-19.227 Y-59.65
X-19.226 Y-59.625
Y-59.599
X-19.228 Y-59.57
X-19.232 Y-59.541
X-19.238 Y-59.51
X-19.246 Y-59.478
X-19.256 Y-59.445
X-19.268 Y-59.411
X-19.283 Y-59.377
X-19.3 Y-59.342
X-19.32 Y-59.308
X-19.343 Y-59.274
X-19.368 Y-59.239
X-19.395 Y-59.206
X-19.426 Y-59.173
X-19.459 Y-59.141
X-19.494 Y-59.111
X-19.532 Y-59.082
X-19.572 Y-59.055
X-19.615 Y-59.029
X-19.659 Y-59.005
X-19.706 Y-58.984
X-19.754 Y-58.965
X-19.804 Y-58.949
X-19.856 Y-58.935
X-19.909 Y-58.924
X-19.964 Y-58.916
X-20.019 Y-58.911
X-20.075 Y-58.909
X-20.131 Y-58.91
X-20.188 Y-58.914
X-20.246 Y-58.922
X-20.303 Y-58.933
X-20.359 Y-58.947
X-20.416 Y-58.965
X-20.471 Y-58.986
X-20.526 Y-59.01
X-20.58 Y-59.037
X-20.632 Y-59.068
X-20.682 Y-59.101
X-20.731 Y-59.138
X-20.778 Y-59.177
X-20.823 Y-59.219
X-20.866 Y-59.264
X-20.906 Y-59.311
X-20.944 Y-59.361
X-20.979 Y-59.413
X-21.011 Y-59.467
X-21.04 Y-59.522
X-21.065 Y-59.58
X-21.088 Y-59.639
X-21.107 Y-59.699
X-21.123 Y-59.761
X-21.136 Y-59.823
X-21.145 Y-59.886
X-21.15 Y-59.95
X-21.152 Y-60.013
X-21.15 Y-60.077
X-21.145 Y-60.141
X-21.136 Y-60.205
X-21.123 Y-60.268
X-21.107 Y-60.33
X-21.088 Y-60.392
X-21.065 Y-60.452
X-21.038 Y-60.511
X-21.008 Y-60.568
X-20.976 Y-60.624
X-20.939 Y-60.678
X-20.9 Y-60.729
X-20.858 Y-60.779
X-20.814 Y-60.826
X-20.766 Y-60.87
X-20.717 Y-60.912
X-20.665 Y-60.951
X-20.61 Y-60.987
X-20.554 Y-61.02
X-20.496 Y-61.049
X-20.437 Y-61.076
X-20.376 Y-61.099
X-20.314 Y-61.118
X-20.251 Y-61.134
X-20.187 Y-61.146
X-20.122 Y-61.155
X-20.057 Y-61.16
X-19.992 Y-61.162
X-19.926 Y-61.16
X-19.861 Y-61.154
X-19.797 Y-61.144
X-19.733 Y-61.131
X-19.67 Y-61.114
X-19.608 Y-61.094
X-19.547 Y-61.07
X-19.487 Y-61.043
X-19.43 Y-61.013
X-19.374 Y-60.979
X-19.32 Y-60.942
X-19.268 Y-60.902
X-19.218 Y-60.86
X-19.171 Y-60.814
X-19.126 Y-60.766
X-19.076 Y-60.705
X-19.013 Y-60.62
X-18.959 Y-60.537
X-18.912 Y-60.456
X-18.872 Y-60.376
X-18.837 Y-60.297
X-18.808 Y-60.219
X-18.784 Y-60.141
X-18.766 Y-60.064
X-18.751 Y-59.987
X-18.741 Y-59.912
X-18.736 Y-59.836
X-18.735 Y-59.762
X-18.738 Y-59.687
X-18.745 Y-59.614
X-18.756 Y-59.542
X-18.771 Y-59.47
X-18.791 Y-59.399
X-18.814 Y-59.33
X-18.841 Y-59.262
X-18.872 Y-59.195
X-18.907 Y-59.13
X-18.945 Y-59.067
X-18.987 Y-59.006
X-19.033 Y-58.947
X-19.082 Y-58.89
X-19.135 Y-58.836
X-19.191 Y-58.785
X-19.25 Y-58.736
X-19.312 Y-58.691
X-19.377 Y-58.649
X-19.445 Y-58.611
X-19.515 Y-58.576
X-19.588 Y-58.545
X-19.662 Y-58.518
X-19.739 Y-58.495
X-19.817 Y-58.476
X-19.897 Y-58.462
X-19.978 Y-58.452
X-20.059 Y-58.447
X-20.142 Y-58.446
X-20.225 Y-58.45
X-20.308 Y-58.458
X-20.39 Y-58.472
X-20.473 Y-58.49
X-20.555 Y-58.513
X-20.635 Y-58.54
X-20.715 Y-58.572
X-20.793 Y-58.609
X-20.869 Y-58.65
X-20.942 Y-58.696
X-21.014 Y-58.746
X-21.083 Y-58.8
X-21.149 Y-58.858
X-21.211 Y-58.92
X-21.271 Y-58.986
X-21.327 Y-59.055
X-21.379 Y-59.128
X-21.427 Y-59.203
X-21.47 Y-59.281
X-21.51 Y-59.362
X-21.545 Y-59.445
X-21.575 Y-59.53
X-21.6 Y-59.617
X-21.621 Y-59.706
X-21.636 Y-59.795
X-21.647 Y-59.886
X-21.652 Y-59.977
X-21.653 Y-60.068
X-21.648 Y-60.16
X-21.638 Y-60.251
X-21.622 Y-60.342
X-21.602 Y-60.432
X-21.577 Y-60.521
X-21.546 Y-60.608
X-21.511 Y-60.693
X-21.471 Y-60.777
X-21.426 Y-60.858
X-21.377 Y-60.937
X-21.323 Y-61.012
X-21.265 Y-61.085
X-21.203 Y-61.155
X-21.137 Y-61.22
X-21.068 Y-61.282
X-20.995 Y-61.341
X-20.919 Y-61.395
X-20.839 Y-61.444
X-20.757 Y-61.489
X-20.673 Y-61.53
X-20.587 Y-61.565
X-20.498 Y-61.596
X-20.408 Y-61.622
X-20.316 Y-61.643
X-20.224 Y-61.658
X-20.131 Y-61.668
X-20.037 Y-61.673
X-19.943
X-19.849 Y-61.667
X-19.756 Y-61.656
X-19.663 Y-61.64
X-19.572 Y-61.619
X-19.481 Y-61.592
X-19.39 Y-61.56
X-19.299 Y-61.522
X-19.207 Y-61.477
X-19.116 Y-61.426
X-19.026 Y-61.369
X-18.939 Y-61.306
X-18.855 Y-61.238
X-18.775 Y-61.166
X-18.699 Y-61.089
X-18.627 Y-61.007
X-18.56 Y-60.922
X-18.498 Y-60.833
X-18.441 Y-60.741
X-18.389 Y-60.646
X-18.344 Y-60.549
X-18.303 Y-60.449
X-18.269 Y-60.348
X-18.24 Y-60.245
X-18.217 Y-60.142
X-18.201 Y-60.037
X-18.19 Y-59.931
X-18.185 Y-59.826
X-18.186 Y-59.72
X-18.193 Y-59.615
X-18.206 Y-59.51
X-18.225 Y-59.406
X-18.249 Y-59.303
X-18.28 Y-59.202
X-18.316 Y-59.102
X-18.357 Y-59.004
X-18.405 Y-58.909
X-18.457 Y-58.817
X-18.515 Y-58.727
X-18.578 Y-58.64
X-18.646 Y-58.557
X-18.719 Y-58.478
X-18.797 Y-58.402
X-18.879 Y-58.331
X-18.965 Y-58.264
X-19.055 Y-58.202
X-19.148 Y-58.145
X-19.246 Y-58.093
X-19.346 Y-58.047
X-19.449 Y-58.006
X-19.555 Y-57.97
X-19.663 Y-57.941
X-19.773 Y-57.918
X-19.885 Y-57.9
X-19.998 Y-57.89
X-20.112 Y-57.885
X-20.226 Y-57.887
X-20.341 Y-57.895
X-20.455 Y-57.91
X-20.569 Y-57.931
X-20.682 Y-57.959
X-20.793 Y-57.993
X-20.903 Y-58.034
X-21.011 Y-58.081
X-21.117 Y-58.134
X-21.219 Y-58.193
X-21.319 Y-58.258
X-21.414 Y-58.329
X-21.507 Y-58.406
X-21.594 Y-58.487
X-21.678 Y-58.574
X-21.757 Y-58.666
X-21.83 Y-58.762
X-21.898 Y-58.862
X-21.961 Y-58.967
X-22.018 Y-59.075
X-22.069 Y-59.186
X-22.113 Y-59.3
X-22.151 Y-59.417
X-22.183 Y-59.536
X-22.208 Y-59.657
X-22.226 Y-59.779
X-22.237 Y-59.902
X-22.241 Y-60.026
X-22.238 Y-60.151
X-22.23 Y-60.251
X-22.222 Y-60.31
X-22.206 Y-60.414
X-22.173 Y-60.562
X-22.145 Y-60.661
X-22.13 Y-60.711
X-22.113 Y-60.76
X-22.05 Y-60.919
X-21.982 Y-61.057
X-21.955 Y-61.107
X-21.863 Y-61.255
X-21.852 Y-61.272
X-21.753 Y-61.404
X-21.713 Y-61.453
X-21.576 Y-61.602
X-21.555 Y-61.622
X-21.456 Y-61.71
X-21.406 Y-61.751
X-21.343 Y-61.8
X-21.258 Y-61.861
X-21.109 Y-61.952
X-21.06 Y-61.979
X-20.911 Y-62.052
X-20.763 Y-62.111
X-20.713 Y-62.129
X-20.565 Y-62.173
X-20.416 Y-62.206
X-20.367 Y-62.215
X-20.218 Y-62.236
X-20.053 Y-62.245
X-19.872 Y-62.241
X-19.724 Y-62.228
X-19.674 Y-62.221
X-19.526 Y-62.195
X-19.377 Y-62.159
X-19.328 Y-62.143
X-19.195 Y-62.097
X-19.179 Y-62.09
X-19.031 Y-62.025
X-18.976 Y-61.998
X-18.882 Y-61.947
X-18.833 Y-61.917
X-18.684 Y-61.818
X-18.635 Y-61.783
X-18.486 Y-61.658
X-18.437 Y-61.614
X-18.387 Y-61.562
X-18.332 Y-61.503
X-18.287 Y-61.453
X-18.239 Y-61.393
X-18.171 Y-61.305
X-18.137 Y-61.255
X-18.041 Y-61.1
X-18.018 Y-61.057
X-17.969 Y-60.958
X-17.946 Y-60.909
X-17.887 Y-60.76
X-17.871 Y-60.711
X-17.826 Y-60.562
X-17.813 Y-60.513
X-17.802 Y-60.463
X-17.785 Y-60.364
X-17.771 Y-60.265
X-17.765 Y-60.216
X-17.754 Y-60.067
Y-60.018
X-17.756 Y-59.919
X-17.758 Y-59.869
X-17.773 Y-59.721
X-17.793 Y-59.594
X-17.806 Y-59.523
X-17.843 Y-59.374
X-17.892 Y-59.225
X-17.91 Y-59.176
X-17.975 Y-59.028
X-18.001 Y-58.978
X-18.055 Y-58.879
X-18.09 Y-58.82
X-18.148 Y-58.731
X-18.189 Y-58.672
X-18.302 Y-58.533
X-18.345 Y-58.483
X-18.392 Y-58.434
X-18.492 Y-58.335
X-18.612 Y-58.236
X-18.674 Y-58.186
X-18.747 Y-58.137
X-18.833 Y-58.081
X-18.932 Y-58.026
X-19.002 Y-57.988
X-19.031 Y-57.975
X-19.179 Y-57.91
X-19.328 Y-57.859
X-19.391 Y-57.84
X-19.476 Y-57.816
X-19.526 Y-57.805
X-19.674 Y-57.779
X-19.724 Y-57.771
X-19.872 Y-57.757
X-20.02 Y-57.755
X-20.07 Y-57.756
X-20.218 Y-57.766
X-20.398 Y-57.79
X-20.515 Y-57.814
X-20.565 Y-57.826
X-20.713 Y-57.87
X-20.768 Y-57.889
X-20.911 Y-57.947
X-20.998 Y-57.988
X-21.091 Y-58.038
X-21.258 Y-58.14
X-21.307 Y-58.175
X-21.406 Y-58.251
X-21.456 Y-58.29
X-21.508 Y-58.335
X-21.609 Y-58.434
X-21.656 Y-58.483
X-21.703 Y-58.537
X-21.782 Y-58.632
X-21.817 Y-58.681
X-21.916 Y-58.83
X-21.951 Y-58.889
X-22.025 Y-59.028
X-22.09 Y-59.176
X-22.099 Y-59.199
X-22.149 Y-59.348
X-22.157 Y-59.374
X-22.198 Y-59.544
X-22.22 Y-59.671
X-22.227 Y-59.721
X-22.242 Y-59.869
X-22.245 Y-59.968
X-22.246 Y-60.018
Y-60.067
X-22.235 Y-60.216
X-22.222 Y-60.31
X-22.205 Y-60.355 Z-28.488
X-22.189 Y-60.395 Z-28.465
X-22.176 Y-60.427 Z-28.43
X-22.168 Y-60.448 Z-28.387
X-22.165 Y-60.455 Z-28.338
G0 Z2.
X-20.471 Y-19.416
Z-11.595
G1 Z-11.995 F155.
G3 X-19.529 Y-20.584 Z-12.411 R0.75
X-20.471 Y-19.416 Z-12.826 R0.75
X-19.529 Y-20.584 Z-13.242 R0.75
X-20.471 Y-19.416 Z-13.657 R0.75
X-19.529 Y-20.584 Z-14.073 R0.75
X-20.471 Y-19.416 Z-14.488 R0.75
X-19.529 Y-20.584 Z-14.904 R0.75
X-20.471 Y-19.416 Z-15.319 R0.75
X-19.529 Y-20.584 Z-15.735 R0.75
X-20.471 Y-19.416 Z-16.15 R0.75
X-19.529 Y-20.584 Z-16.566 R0.75
X-20.471 Y-19.416 Z-16.981 R0.75
X-19.529 Y-20.584 Z-17.396 R0.75
X-20.471 Y-19.416 Z-17.812 R0.75
X-19.529 Y-20.584 Z-18.227 R0.75
X-20.471 Y-19.416 Z-18.643 R0.75
X-19.529 Y-20.584 Z-19.058 R0.75
X-20.471 Y-19.416 Z-19.474 R0.75
X-19.529 Y-20.584 Z-19.889 R0.75
X-20.471 Y-19.416 Z-20.305 R0.75
X-19.529 Y-20.584 Z-20.72 R0.75
X-20.471 Y-19.416 Z-21.136 R0.75
X-19.529 Y-20.584 Z-21.551 R0.75
X-20.471 Y-19.416 Z-21.967 R0.75
X-19.529 Y-20.584 Z-22.382 R0.75
X-19.25 Y-20. Z-22.5 R0.75
X-20.75 R0.75
X-19.25 R0.75
G1 X-19.249 Y-19.782
X-19.24 Y-19.728
X-19.232 Y-19.694
X-19.229 Y-19.672
X-19.227 Y-19.649
X-19.226 Y-19.624
Y-19.597
X-19.228 Y-19.569
X-19.232 Y-19.539
X-19.238 Y-19.509
X-19.245 Y-19.477
X-19.256 Y-19.444
X-19.268 Y-19.41
X-19.283 Y-19.376
X-19.3 Y-19.341
X-19.32 Y-19.307
X-19.342 Y-19.272
X-19.367 Y-19.238
X-19.395 Y-19.205
X-19.425 Y-19.172
X-19.458 Y-19.14
X-19.494 Y-19.11
X-19.532 Y-19.081
X-19.572 Y-19.053
X-19.614 Y-19.028
X-19.659 Y-19.004
X-19.705 Y-18.983
X-19.754 Y-18.964
X-19.804 Y-18.948
X-19.856 Y-18.934
X-19.909 Y-18.923
X-19.963 Y-18.915
X-20.018 Y-18.91
X-20.075 Y-18.908
X-20.131 Y-18.909
X-20.188 Y-18.913
X-20.245 Y-18.921
X-20.302 Y-18.932
X-20.359 Y-18.946
X-20.415 Y-18.964
X-20.471 Y-18.985
X-20.526 Y-19.009
X-20.579 Y-19.036
X-20.631 Y-19.067
X-20.682 Y-19.1
X-20.731 Y-19.137
X-20.778 Y-19.176
X-20.823 Y-19.218
X-20.866 Y-19.263
X-20.906 Y-19.31
X-20.943 Y-19.36
X-20.978 Y-19.412
X-21.01 Y-19.465
X-21.039 Y-19.521
X-21.065 Y-19.579
X-21.088 Y-19.638
X-21.107 Y-19.698
X-21.123 Y-19.759
X-21.136 Y-19.822
X-21.145 Y-19.885
X-21.15 Y-19.948
X-21.152 Y-20.012
X-21.15 Y-20.076
X-21.145 Y-20.14
X-21.136 Y-20.204
X-21.123 Y-20.267
X-21.107 Y-20.329
X-21.087 Y-20.391
X-21.064 Y-20.451
X-21.038 Y-20.51
X-21.008 Y-20.567
X-20.975 Y-20.623
X-20.939 Y-20.676
X-20.9 Y-20.728
X-20.858 Y-20.778
X-20.813 Y-20.825
X-20.766 Y-20.869
X-20.716 Y-20.911
X-20.664 Y-20.95
X-20.61 Y-20.986
X-20.554 Y-21.019
X-20.496 Y-21.048
X-20.437 Y-21.074
X-20.376 Y-21.097
X-20.313 Y-21.117
X-20.25 Y-21.133
X-20.186 Y-21.145
X-20.122 Y-21.154
X-20.057 Y-21.159
X-19.991 Y-21.161
X-19.926 Y-21.158
X-19.861 Y-21.153
X-19.797 Y-21.143
X-19.733 Y-21.13
X-19.669 Y-21.113
X-19.607 Y-21.093
X-19.547 Y-21.069
X-19.487 Y-21.042
X-19.429 Y-21.011
X-19.373 Y-20.978
X-19.319 Y-20.941
X-19.267 Y-20.901
X-19.218 Y-20.859
X-19.171 Y-20.813
X-19.126 Y-20.765
X-19.075 Y-20.704
X-19.013 Y-20.619
X-18.958 Y-20.536
X-18.911 Y-20.455
X-18.871 Y-20.375
X-18.837 Y-20.296
X-18.808 Y-20.218
X-18.784 Y-20.14
X-18.765 Y-20.063
X-18.751 Y-19.986
X-18.741 Y-19.91
X-18.736 Y-19.835
X-18.734 Y-19.76
X-18.737 Y-19.686
X-18.745 Y-19.613
X-18.756 Y-19.54
X-18.771 Y-19.469
X-18.79 Y-19.398
X-18.813 Y-19.329
X-18.841 Y-19.261
X-18.871 Y-19.194
X-18.906 Y-19.129
X-18.945 Y-19.066
X-18.987 Y-19.005
X-19.033 Y-18.946
X-19.082 Y-18.889
X-19.135 Y-18.835
X-19.191 Y-18.784
X-19.25 Y-18.735
X-19.312 Y-18.69
X-19.377 Y-18.648
X-19.445 Y-18.61
X-19.515 Y-18.575
X-19.587 Y-18.544
X-19.662 Y-18.517
X-19.739 Y-18.494
X-19.817 Y-18.475
X-19.896 Y-18.461
X-19.977 Y-18.451
X-20.059 Y-18.446
X-20.141 Y-18.445
X-20.224 Y-18.449
X-20.307 Y-18.457
X-20.39 Y-18.471
X-20.473 Y-18.489
X-20.554 Y-18.512
X-20.635 Y-18.539
X-20.714 Y-18.571
X-20.792 Y-18.608
X-20.868 Y-18.649
X-20.942 Y-18.695
X-21.014 Y-18.745
X-21.082 Y-18.799
X-21.148 Y-18.857
X-21.211 Y-18.919
X-21.27 Y-18.985
X-21.326 Y-19.054
X-21.378 Y-19.126
X-21.426 Y-19.202
X-21.47 Y-19.28
X-21.509 Y-19.361
X-21.544 Y-19.444
X-21.574 Y-19.529
X-21.6 Y-19.616
X-21.62 Y-19.705
X-21.636 Y-19.794
X-21.646 Y-19.885
X-21.652 Y-19.976
Y-20.067
X-21.647 Y-20.159
X-21.637 Y-20.25
X-21.622 Y-20.341
X-21.602 Y-20.431
X-21.576 Y-20.519
X-21.546 Y-20.607
X-21.511 Y-20.692
X-21.471 Y-20.776
X-21.426 Y-20.857
X-21.377 Y-20.935
X-21.323 Y-21.011
X-21.265 Y-21.084
X-21.203 Y-21.153
X-21.137 Y-21.219
X-21.067 Y-21.281
X-20.994 Y-21.34
X-20.918 Y-21.393
X-20.839 Y-21.443
X-20.757 Y-21.488
X-20.673 Y-21.529
X-20.586 Y-21.564
X-20.498 Y-21.595
X-20.408 Y-21.621
X-20.316 Y-21.641
X-20.224 Y-21.657
X-20.13 Y-21.667
X-20.037 Y-21.672
X-19.943
X-19.849 Y-21.666
X-19.756 Y-21.655
X-19.663 Y-21.639
X-19.571 Y-21.618
X-19.481 Y-21.591
X-19.39 Y-21.559
X-19.299 Y-21.521
X-19.207 Y-21.476
X-19.115 Y-21.425
X-19.026 Y-21.368
X-18.939 Y-21.305
X-18.855 Y-21.237
X-18.775 Y-21.165
X-18.698 Y-21.087
X-18.627 Y-21.006
X-18.559 Y-20.921
X-18.497 Y-20.832
X-18.441 Y-20.74
X-18.389 Y-20.645
X-18.343 Y-20.548
X-18.303 Y-20.448
X-18.269 Y-20.347
X-18.24 Y-20.244
X-18.217 Y-20.14
X-18.2 Y-20.036
X-18.189 Y-19.93
X-18.185 Y-19.825
X-18.186 Y-19.719
X-18.193 Y-19.613
X-18.205 Y-19.509
X-18.224 Y-19.405
X-18.249 Y-19.302
X-18.279 Y-19.201
X-18.315 Y-19.101
X-18.357 Y-19.003
X-18.404 Y-18.908
X-18.457 Y-18.815
X-18.515 Y-18.726
X-18.578 Y-18.639
X-18.646 Y-18.556
X-18.719 Y-18.477
X-18.796 Y-18.401
X-18.878 Y-18.33
X-18.964 Y-18.263
X-19.054 Y-18.201
X-19.148 Y-18.144
X-19.245 Y-18.092
X-19.346 Y-18.046
X-19.449 Y-18.005
X-19.555 Y-17.969
X-19.663 Y-17.94
X-19.773 Y-17.917
X-19.885 Y-17.899
X-19.998 Y-17.888
X-20.111 Y-17.884
X-20.226 Y-17.886
X-20.34 Y-17.894
X-20.455 Y-17.909
X-20.569 Y-17.93
X-20.682 Y-17.958
X-20.793 Y-17.992
X-20.903 Y-18.033
X-21.011 Y-18.08
X-21.116 Y-18.133
X-21.219 Y-18.192
X-21.318 Y-18.257
X-21.414 Y-18.328
X-21.506 Y-18.404
X-21.594 Y-18.486
X-21.678 Y-18.573
X-21.756 Y-18.665
X-21.83 Y-18.761
X-21.898 Y-18.861
X-21.961 Y-18.965
X-22.018 Y-19.073
X-22.068 Y-19.185
X-22.113 Y-19.299
X-22.151 Y-19.416
X-22.182 Y-19.535
X-22.207 Y-19.656
X-22.225 Y-19.778
X-22.236 Y-19.901
X-22.241 Y-20.025
X-22.238 Y-20.15
X-22.226 Y-20.285
X-22.221 Y-20.325
X-22.215 Y-20.365
X-22.198 Y-20.468
X-22.185 Y-20.517
X-22.149 Y-20.653
X-22.129 Y-20.715
X-22.092 Y-20.814
X-22.027 Y-20.963
X-22. Y-21.019
X-21.951 Y-21.114
X-21.922 Y-21.161
X-21.802 Y-21.339
X-21.787 Y-21.359
X-21.703 Y-21.46
X-21.654 Y-21.518
X-21.604 Y-21.571
X-21.505 Y-21.664
X-21.456 Y-21.71
X-21.4 Y-21.755
X-21.258 Y-21.861
X-21.107 Y-21.953
X-21.06 Y-21.979
X-20.961 Y-22.029
X-20.911 Y-22.052
X-20.763 Y-22.111
X-20.713 Y-22.128
X-20.565 Y-22.173
X-20.454 Y-22.2
X-20.416 Y-22.208
X-20.218 Y-22.236
X-20.07 Y-22.244
X-20.02 Y-22.245
X-19.872 Y-22.241
X-19.724 Y-22.228
X-19.625 Y-22.214
X-19.575 Y-22.207
X-19.476 Y-22.183
X-19.377 Y-22.159
X-19.35 Y-22.151
X-19.208 Y-22.101
X-19.179 Y-22.09
X-19.031 Y-22.025
X-18.981 Y-22.
X-18.833 Y-21.918
X-18.732 Y-21.854
X-18.664 Y-21.804
X-18.536 Y-21.701
X-18.485 Y-21.656
X-18.336 Y-21.507
X-18.288 Y-21.451
X-18.189 Y-21.328
X-18.175 Y-21.309
X-18.14 Y-21.26
X-18.079 Y-21.161
X-17.991 Y-21.002
X-17.972 Y-20.963
X-17.929 Y-20.864
X-17.908 Y-20.814
X-17.856 Y-20.666
X-17.841 Y-20.616
X-17.814 Y-20.517
X-17.802 Y-20.468
X-17.777 Y-20.319
X-17.771 Y-20.27
X-17.762 Y-20.171
X-17.758 Y-20.121
X-17.755 Y-19.973
X-17.76 Y-19.874
X-17.762 Y-19.824
X-17.766 Y-19.775
X-17.784 Y-19.626
X-17.794 Y-19.577
X-17.816 Y-19.478
X-17.828 Y-19.428
X-17.874 Y-19.28
X-17.912 Y-19.181
X-17.942 Y-19.104
X-17.973 Y-19.032
X-17.998 Y-18.983
X-18.024 Y-18.933
X-18.113 Y-18.785
X-18.145 Y-18.735
X-18.255 Y-18.587
X-18.297 Y-18.537
X-18.34 Y-18.488
X-18.437 Y-18.389
X-18.487 Y-18.339
X-18.546 Y-18.29
X-18.667 Y-18.191
X-18.833 Y-18.081
X-18.882 Y-18.051
X-18.993 Y-17.993
X-19.031 Y-17.975
X-19.179 Y-17.91
X-19.229 Y-17.89
X-19.328 Y-17.858
X-19.377 Y-17.844
X-19.526 Y-17.806
X-19.674 Y-17.779
X-19.724 Y-17.771
X-19.872 Y-17.757
X-20.02 Y-17.755
X-20.07 Y-17.756
X-20.218 Y-17.766
X-20.367 Y-17.786
X-20.42 Y-17.795
X-20.565 Y-17.826
X-20.713 Y-17.87
X-20.763 Y-17.887
X-20.911 Y-17.947
X-21.109 Y-18.047
X-21.159 Y-18.075
X-21.26 Y-18.141
X-21.394 Y-18.24
X-21.456 Y-18.292
X-21.562 Y-18.389
X-21.604 Y-18.429
X-21.753 Y-18.596
X-21.785 Y-18.636
X-21.855 Y-18.735
X-21.901 Y-18.808
X-21.951 Y-18.889
X-21.975 Y-18.933
X-22.05 Y-19.085
X-22.069 Y-19.131
X-22.108 Y-19.23
X-22.126 Y-19.28
X-22.172 Y-19.428
X-22.184 Y-19.478
X-22.206 Y-19.577
X-22.216 Y-19.626
X-22.234 Y-19.775
X-22.238 Y-19.824
X-22.243 Y-19.923
X-22.245 Y-19.973
X-22.242 Y-20.121
X-22.233 Y-20.22
X-22.229 Y-20.27
X-22.223 Y-20.319
X-22.215 Y-20.365
X-22.196 Y-20.409 Z-22.492
X-22.179 Y-20.449 Z-22.47
X-22.166 Y-20.481 Z-22.435
X-22.157 Y-20.501 Z-22.391
X-22.154 Y-20.508 Z-22.343
G0 Z2.
X-19.693 Y-19.316
Z-21.6
G1 Z-22. F155.
G3 X-20.308 Y-20.684 Z-22.415 R0.75
X-19.693 Y-19.316 Z-22.831 R0.75
X-20.308 Y-20.684 Z-23.246 R0.75
X-19.693 Y-19.316 Z-23.662 R0.75
X-20.308 Y-20.684 Z-24.077 R0.75
X-19.693 Y-19.316 Z-24.493 R0.75
X-20.308 Y-20.684 Z-24.908 R0.75
X-19.693 Y-19.316 Z-25.324 R0.75
X-20.308 Y-20.684 Z-25.739 R0.75
X-19.693 Y-19.316 Z-26.155 R0.75
X-20.308 Y-20.684 Z-26.57 R0.75
X-19.693 Y-19.316 Z-26.986 R0.75
X-20.308 Y-20.684 Z-27.401 R0.75
X-19.693 Y-19.316 Z-27.816 R0.75
X-20.308 Y-20.684 Z-28.232 R0.75
X-19.25 Y-20. Z-28.496 R0.75
X-20.75 R0.75
X-19.25 R0.75
G1 X-19.249 Y-19.782
X-19.24 Y-19.728
X-19.232 Y-19.694
X-19.229 Y-19.672
X-19.227 Y-19.649
X-19.226 Y-19.624
Y-19.597
X-19.228 Y-19.569
X-19.232 Y-19.54
X-19.238 Y-19.509
X-19.246 Y-19.477
X-19.256 Y-19.444
X-19.268 Y-19.41
X-19.283 Y-19.376
X-19.3 Y-19.341
X-19.32 Y-19.307
X-19.342 Y-19.272
X-19.368 Y-19.238
X-19.395 Y-19.205
X-19.426 Y-19.172
X-19.458 Y-19.14
X-19.494 Y-19.11
X-19.532 Y-19.081
X-19.572 Y-19.053
X-19.614 Y-19.028
X-19.659 Y-19.004
X-19.706 Y-18.983
X-19.754 Y-18.964
X-19.804 Y-18.948
X-19.856 Y-18.934
X-19.909 Y-18.923
X-19.963 Y-18.915
X-20.019 Y-18.91
X-20.075 Y-18.908
X-20.131 Y-18.909
X-20.188 Y-18.913
X-20.245 Y-18.921
X-20.302 Y-18.932
X-20.359 Y-18.946
X-20.416 Y-18.964
X-20.471 Y-18.985
X-20.526 Y-19.009
X-20.579 Y-19.036
X-20.632 Y-19.067
X-20.682 Y-19.1
X-20.731 Y-19.137
X-20.778 Y-19.176
X-20.823 Y-19.218
X-20.866 Y-19.263
X-20.906 Y-19.31
X-20.944 Y-19.36
X-20.978 Y-19.412
X-21.01 Y-19.466
X-21.039 Y-19.521
X-21.065 Y-19.579
X-21.088 Y-19.638
X-21.107 Y-19.698
X-21.123 Y-19.759
X-21.136 Y-19.822
X-21.145 Y-19.885
X-21.15 Y-19.948
X-21.152 Y-20.012
X-21.15 Y-20.076
X-21.145 Y-20.14
X-21.136 Y-20.204
X-21.123 Y-20.267
X-21.107 Y-20.329
X-21.088 Y-20.391
X-21.064 Y-20.451
X-21.038 Y-20.51
X-21.008 Y-20.567
X-20.975 Y-20.623
X-20.939 Y-20.677
X-20.9 Y-20.728
X-20.858 Y-20.778
X-20.814 Y-20.825
X-20.766 Y-20.869
X-20.717 Y-20.911
X-20.664 Y-20.95
X-20.61 Y-20.986
X-20.554 Y-21.019
X-20.496 Y-21.048
X-20.437 Y-21.075
X-20.376 Y-21.097
X-20.314 Y-21.117
X-20.25 Y-21.133
X-20.186 Y-21.145
X-20.122 Y-21.154
X-20.057 Y-21.159
X-19.992 Y-21.161
X-19.926 Y-21.158
X-19.861 Y-21.153
X-19.797 Y-21.143
X-19.733 Y-21.13
X-19.67 Y-21.113
X-19.608 Y-21.093
X-19.547 Y-21.069
X-19.487 Y-21.042
X-19.429 Y-21.011
X-19.373 Y-20.978
X-19.319 Y-20.941
X-19.267 Y-20.901
X-19.218 Y-20.859
X-19.171 Y-20.813
X-19.126 Y-20.765
X-19.075 Y-20.704
X-19.013 Y-20.619
X-18.958 Y-20.536
X-18.912 Y-20.455
X-18.871 Y-20.375
X-18.837 Y-20.296
X-18.808 Y-20.218
X-18.784 Y-20.14
X-18.765 Y-20.063
X-18.751 Y-19.986
X-18.741 Y-19.91
X-18.736 Y-19.835
X-18.735 Y-19.76
X-18.738 Y-19.686
X-18.745 Y-19.613
X-18.756 Y-19.54
X-18.771 Y-19.469
X-18.79 Y-19.398
X-18.814 Y-19.329
X-18.841 Y-19.261
X-18.872 Y-19.194
X-18.906 Y-19.129
X-18.945 Y-19.066
X-18.987 Y-19.005
X-19.033 Y-18.946
X-19.082 Y-18.889
X-19.135 Y-18.835
X-19.191 Y-18.784
X-19.25 Y-18.735
X-19.312 Y-18.69
X-19.377 Y-18.648
X-19.445 Y-18.61
X-19.515 Y-18.575
X-19.588 Y-18.544
X-19.662 Y-18.517
X-19.739 Y-18.494
X-19.817 Y-18.475
X-19.897 Y-18.461
X-19.977 Y-18.451
X-20.059 Y-18.446
X-20.142 Y-18.445
X-20.224 Y-18.449
X-20.307 Y-18.457
X-20.39 Y-18.471
X-20.473 Y-18.489
X-20.554 Y-18.512
X-20.635 Y-18.539
X-20.714 Y-18.571
X-20.792 Y-18.608
X-20.868 Y-18.649
X-20.942 Y-18.695
X-21.014 Y-18.745
X-21.083 Y-18.799
X-21.148 Y-18.857
X-21.211 Y-18.919
X-21.271 Y-18.985
X-21.326 Y-19.054
X-21.378 Y-19.126
X-21.426 Y-19.202
X-21.47 Y-19.28
X-21.509 Y-19.361
X-21.544 Y-19.444
X-21.575 Y-19.529
X-21.6 Y-19.616
X-21.621 Y-19.705
X-21.636 Y-19.794
X-21.647 Y-19.885
X-21.652 Y-19.976
Y-20.067
X-21.647 Y-20.159
X-21.637 Y-20.25
X-21.622 Y-20.341
X-21.602 Y-20.431
X-21.577 Y-20.519
X-21.546 Y-20.607
X-21.511 Y-20.692
X-21.471 Y-20.776
X-21.426 Y-20.857
X-21.377 Y-20.936
X-21.323 Y-21.011
X-21.265 Y-21.084
X-21.203 Y-21.153
X-21.137 Y-21.219
X-21.068 Y-21.281
X-20.995 Y-21.34
X-20.918 Y-21.393
X-20.839 Y-21.443
X-20.757 Y-21.488
X-20.673 Y-21.529
X-20.586 Y-21.564
X-20.498 Y-21.595
X-20.408 Y-21.621
X-20.316 Y-21.641
X-20.224 Y-21.657
X-20.13 Y-21.667
X-20.037 Y-21.672
X-19.943
X-19.849 Y-21.666
X-19.756 Y-21.655
X-19.663 Y-21.639
X-19.571 Y-21.618
X-19.481 Y-21.591
X-19.39 Y-21.559
X-19.299 Y-21.521
X-19.207 Y-21.476
X-19.115 Y-21.425
X-19.026 Y-21.368
X-18.939 Y-21.305
X-18.855 Y-21.237
X-18.775 Y-21.165
X-18.698 Y-21.087
X-18.627 Y-21.006
X-18.56 Y-20.921
X-18.497 Y-20.832
X-18.441 Y-20.74
X-18.389 Y-20.645
X-18.343 Y-20.548
X-18.303 Y-20.448
X-18.269 Y-20.347
X-18.24 Y-20.244
X-18.217 Y-20.14
X-18.2 Y-20.036
X-18.19 Y-19.93
X-18.185 Y-19.825
X-18.186 Y-19.719
X-18.193 Y-19.613
X-18.206 Y-19.509
X-18.224 Y-19.405
X-18.249 Y-19.302
X-18.279 Y-19.201
X-18.316 Y-19.101
X-18.357 Y-19.003
X-18.405 Y-18.908
X-18.457 Y-18.816
X-18.515 Y-18.726
X-18.578 Y-18.639
X-18.646 Y-18.556
X-18.719 Y-18.477
X-18.797 Y-18.401
X-18.878 Y-18.33
X-18.964 Y-18.263
X-19.054 Y-18.201
X-19.148 Y-18.144
X-19.245 Y-18.092
X-19.346 Y-18.046
X-19.449 Y-18.005
X-19.555 Y-17.969
X-19.663 Y-17.94
X-19.773 Y-17.917
X-19.885 Y-17.899
X-19.998 Y-17.888
X-20.112 Y-17.884
X-20.226 Y-17.886
X-20.341 Y-17.894
X-20.455 Y-17.909
X-20.569 Y-17.93
X-20.682 Y-17.958
X-20.793 Y-17.992
X-20.903 Y-18.033
X-21.011 Y-18.08
X-21.116 Y-18.133
X-21.219 Y-18.192
X-21.318 Y-18.257
X-21.414 Y-18.328
X-21.506 Y-18.405
X-21.594 Y-18.486
X-21.678 Y-18.573
X-21.756 Y-18.665
X-21.83 Y-18.761
X-21.898 Y-18.861
X-21.961 Y-18.965
X-22.018 Y-19.073
X-22.068 Y-19.185
X-22.113 Y-19.299
X-22.151 Y-19.416
X-22.183 Y-19.535
X-22.207 Y-19.656
X-22.225 Y-19.778
X-22.237 Y-19.901
X-22.241 Y-20.025
X-22.238 Y-20.15
X-22.227 Y-20.284
X-22.222 Y-20.323
X-22.216 Y-20.363
X-22.198 Y-20.468
X-22.185 Y-20.517
X-22.149 Y-20.653
X-22.129 Y-20.715
X-22.092 Y-20.814
X-22.027 Y-20.963
X-22. Y-21.019
X-21.951 Y-21.114
X-21.922 Y-21.161
X-21.802 Y-21.339
X-21.787 Y-21.359
X-21.703 Y-21.46
X-21.654 Y-21.518
X-21.604 Y-21.571
X-21.505 Y-21.664
X-21.456 Y-21.71
X-21.4 Y-21.755
X-21.258 Y-21.861
X-21.107 Y-21.953
X-21.06 Y-21.979
X-20.961 Y-22.029
X-20.911 Y-22.052
X-20.763 Y-22.111
X-20.713 Y-22.128
X-20.565 Y-22.173
X-20.454 Y-22.2
X-20.416 Y-22.208
X-20.218 Y-22.236
X-20.07 Y-22.244
X-20.02 Y-22.245
X-19.872 Y-22.241
X-19.724 Y-22.228
X-19.625 Y-22.214
X-19.575 Y-22.207
X-19.476 Y-22.183
X-19.377 Y-22.159
X-19.35 Y-22.151
X-19.208 Y-22.101
X-19.179 Y-22.09
X-19.031 Y-22.025
X-18.981 Y-22.
X-18.833 Y-21.918
X-18.732 Y-21.854
X-18.664 Y-21.804
X-18.536 Y-21.701
X-18.485 Y-21.656
X-18.336 Y-21.507
X-18.288 Y-21.451
X-18.189 Y-21.328
X-18.175 Y-21.309
X-18.14 Y-21.26
X-18.079 Y-21.161
X-17.991 Y-21.002
X-17.972 Y-20.963
X-17.929 Y-20.864
X-17.908 Y-20.814
X-17.856 Y-20.666
X-17.841 Y-20.616
X-17.814 Y-20.517
X-17.802 Y-20.468
X-17.777 Y-20.319
X-17.771 Y-20.27
X-17.762 Y-20.171
X-17.758 Y-20.121
X-17.755 Y-19.973
X-17.76 Y-19.874
X-17.762 Y-19.824
X-17.766 Y-19.775
X-17.784 Y-19.626
X-17.794 Y-19.577
X-17.816 Y-19.478
X-17.828 Y-19.428
X-17.874 Y-19.28
X-17.912 Y-19.181
X-17.942 Y-19.104
X-17.973 Y-19.032
X-17.998 Y-18.983
X-18.024 Y-18.933
X-18.113 Y-18.785
X-18.145 Y-18.735
X-18.255 Y-18.587
X-18.297 Y-18.537
X-18.34 Y-18.488
X-18.437 Y-18.389
X-18.487 Y-18.339
X-18.546 Y-18.29
X-18.667 Y-18.191
X-18.833 Y-18.081
X-18.882 Y-18.051
X-18.993 Y-17.993
X-19.031 Y-17.975
X-19.179 Y-17.91
X-19.229 Y-17.89
X-19.328 Y-17.858
X-19.377 Y-17.844
X-19.526 Y-17.806
X-19.674 Y-17.779
X-19.724 Y-17.771
X-19.872 Y-17.757
X-20.02 Y-17.755
X-20.07 Y-17.756
X-20.218 Y-17.766
X-20.367 Y-17.786
X-20.42 Y-17.795
X-20.565 Y-17.826
X-20.713 Y-17.87
X-20.763 Y-17.887
X-20.911 Y-17.947
X-21.109 Y-18.047
X-21.159 Y-18.075
X-21.26 Y-18.141
X-21.394 Y-18.24
X-21.456 Y-18.292
X-21.562 Y-18.389
X-21.604 Y-18.429
X-21.753 Y-18.596
X-21.785 Y-18.636
X-21.855 Y-18.735
X-21.901 Y-18.808
X-21.951 Y-18.889
X-21.975 Y-18.933
X-22.05 Y-19.085
X-22.069 Y-19.131
X-22.108 Y-19.23
X-22.126 Y-19.28
X-22.172 Y-19.428
X-22.184 Y-19.478
X-22.206 Y-19.577
X-22.216 Y-19.626
X-22.234 Y-19.775
X-22.238 Y-19.824
X-22.243 Y-19.923
X-22.245 Y-19.973
X-22.242 Y-20.121
X-22.233 Y-20.22
X-22.229 Y-20.27
X-22.223 Y-20.319
X-22.216 Y-20.363
X-22.197 Y-20.407 Z-28.488
X-22.18 Y-20.448 Z-28.465
X-22.166 Y-20.479 Z-28.43
X-22.158 Y-20.5 Z-28.387
X-22.155 Y-20.507 Z-28.338
G0 Z2.
X19.529 Y-19.416
Z-11.595
G1 Z-11.995 F155.
G3 X20.471 Y-20.584 Z-12.411 R0.75
X19.529 Y-19.416 Z-12.826 R0.75
X20.471 Y-20.584 Z-13.242 R0.75
X19.529 Y-19.416 Z-13.657 R0.75
X20.471 Y-20.584 Z-14.073 R0.75
X19.529 Y-19.416 Z-14.488 R0.75
X20.471 Y-20.584 Z-14.904 R0.75
X19.529 Y-19.416 Z-15.319 R0.75
X20.471 Y-20.584 Z-15.735 R0.75
X19.529 Y-19.416 Z-16.15 R0.75
X20.471 Y-20.584 Z-16.566 R0.75
X19.529 Y-19.416 Z-16.981 R0.75
X20.471 Y-20.584 Z-17.396 R0.75
X19.529 Y-19.416 Z-17.812 R0.75
X20.471 Y-20.584 Z-18.227 R0.75
X19.529 Y-19.416 Z-18.643 R0.75
X20.471 Y-20.584 Z-19.058 R0.75
X19.529 Y-19.416 Z-19.474 R0.75
X20.471 Y-20.584 Z-19.889 R0.75
X19.529 Y-19.416 Z-20.305 R0.75
X20.471 Y-20.584 Z-20.72 R0.75
X19.529 Y-19.416 Z-21.136 R0.75
X20.471 Y-20.584 Z-21.551 R0.75
X19.529 Y-19.416 Z-21.967 R0.75
X20.471 Y-20.584 Z-22.382 R0.75
X20.75 Y-20. Z-22.5 R0.75
X19.25 R0.75
X20.75 R0.75
G1 X20.751 Y-19.782
X20.761 Y-19.729
X20.768 Y-19.694
X20.771 Y-19.673
X20.774 Y-19.65
X20.775 Y-19.625
X20.774 Y-19.598
X20.772 Y-19.57
X20.768 Y-19.54
X20.763 Y-19.509
X20.755 Y-19.477
X20.745 Y-19.444
X20.732 Y-19.41
X20.718 Y-19.376
X20.7 Y-19.342
X20.68 Y-19.307
X20.658 Y-19.273
X20.633 Y-19.239
X20.605 Y-19.205
X20.575 Y-19.172
X20.542 Y-19.141
X20.507 Y-19.11
X20.469 Y-19.081
X20.429 Y-19.054
X20.386 Y-19.028
X20.341 Y-19.005
X20.295 Y-18.983
X20.246 Y-18.964
X20.196 Y-18.948
X20.144 Y-18.934
X20.091 Y-18.923
X20.037 Y-18.915
X19.982 Y-18.91
X19.926 Y-18.908
X19.869 Y-18.909
X19.812 Y-18.914
X19.755 Y-18.921
X19.698 Y-18.932
X19.641 Y-18.947
X19.585 Y-18.964
X19.529 Y-18.985
X19.475 Y-19.009
X19.421 Y-19.037
X19.369 Y-19.067
X19.318 Y-19.1
X19.269 Y-19.137
X19.222 Y-19.176
X19.177 Y-19.218
X19.135 Y-19.263
X19.094 Y-19.311
X19.057 Y-19.36
X19.022 Y-19.412
X18.99 Y-19.466
X18.961 Y-19.522
X18.935 Y-19.579
X18.913 Y-19.638
X18.893 Y-19.698
X18.877 Y-19.76
X18.865 Y-19.822
X18.856 Y-19.885
X18.85 Y-19.949
X18.849 Y-20.013
X18.85 Y-20.077
X18.856 Y-20.141
X18.865 Y-20.204
X18.877 Y-20.267
X18.893 Y-20.33
X18.913 Y-20.391
X18.936 Y-20.451
X18.962 Y-20.51
X18.992 Y-20.567
X19.025 Y-20.623
X19.061 Y-20.677
X19.1 Y-20.729
X19.142 Y-20.778
X19.187 Y-20.825
X19.234 Y-20.869
X19.284 Y-20.911
X19.336 Y-20.95
X19.39 Y-20.986
X19.446 Y-21.019
X19.504 Y-21.049
X19.564 Y-21.075
X19.625 Y-21.098
X19.687 Y-21.117
X19.75 Y-21.133
X19.814 Y-21.146
X19.879 Y-21.154
X19.944 Y-21.16
X20.009 Y-21.161
X20.074 Y-21.159
X20.139 Y-21.153
X20.204 Y-21.143
X20.268 Y-21.13
X20.331 Y-21.113
X20.393 Y-21.093
X20.454 Y-21.069
X20.513 Y-21.042
X20.571 Y-21.012
X20.627 Y-20.978
X20.681 Y-20.941
X20.733 Y-20.902
X20.783 Y-20.859
X20.83 Y-20.814
X20.874 Y-20.766
X20.925 Y-20.704
X20.988 Y-20.62
X21.042 Y-20.536
X21.089 Y-20.455
X21.129 Y-20.375
X21.163 Y-20.296
X21.192 Y-20.218
X21.216 Y-20.14
X21.235 Y-20.063
X21.249 Y-19.987
X21.259 Y-19.911
X21.265 Y-19.836
X21.266 Y-19.761
X21.263 Y-19.687
X21.256 Y-19.613
X21.245 Y-19.541
X21.229 Y-19.469
X21.21 Y-19.399
X21.187 Y-19.329
X21.16 Y-19.261
X21.129 Y-19.194
X21.094 Y-19.129
X21.056 Y-19.066
X21.013 Y-19.005
X20.968 Y-18.946
X20.918 Y-18.889
X20.866 Y-18.835
X20.81 Y-18.784
X20.751 Y-18.736
X20.688 Y-18.691
X20.623 Y-18.649
X20.556 Y-18.61
X20.485 Y-18.575
X20.413 Y-18.544
X20.338 Y-18.517
X20.262 Y-18.494
X20.184 Y-18.476
X20.104 Y-18.461
X20.023 Y-18.451
X19.941 Y-18.446
X19.859 Y-18.445
X19.776 Y-18.449
X19.693 Y-18.458
X19.61 Y-18.471
X19.528 Y-18.489
X19.446 Y-18.512
X19.365 Y-18.539
X19.286 Y-18.572
X19.208 Y-18.608
X19.132 Y-18.65
X19.058 Y-18.695
X18.987 Y-18.745
X18.918 Y-18.8
X18.852 Y-18.858
X18.789 Y-18.92
X18.73 Y-18.985
X18.674 Y-19.054
X18.622 Y-19.127
X18.574 Y-19.202
X18.53 Y-19.281
X18.491 Y-19.361
X18.456 Y-19.444
X18.426 Y-19.53
X18.4 Y-19.616
X18.38 Y-19.705
X18.364 Y-19.795
X18.354 Y-19.885
X18.348 Y-19.976
Y-20.068
X18.353 Y-20.159
X18.363 Y-20.251
X18.378 Y-20.341
X18.399 Y-20.431
X18.424 Y-20.52
X18.454 Y-20.607
X18.49 Y-20.693
X18.53 Y-20.776
X18.574 Y-20.857
X18.624 Y-20.936
X18.677 Y-21.012
X18.735 Y-21.084
X18.797 Y-21.154
X18.863 Y-21.22
X18.933 Y-21.282
X19.006 Y-21.34
X19.082 Y-21.394
X19.161 Y-21.444
X19.243 Y-21.489
X19.328 Y-21.529
X19.414 Y-21.565
X19.503 Y-21.596
X19.593 Y-21.621
X19.684 Y-21.642
X19.777 Y-21.657
X19.87 Y-21.668
X19.964 Y-21.673
X20.058 Y-21.672
X20.151 Y-21.667
X20.245 Y-21.656
X20.337 Y-21.64
X20.429 Y-21.618
X20.52 Y-21.592
X20.61 Y-21.56
X20.702 Y-21.521
X20.794 Y-21.476
X20.885 Y-21.425
X20.974 Y-21.368
X21.061 Y-21.306
X21.145 Y-21.238
X21.226 Y-21.165
X21.302 Y-21.088
X21.374 Y-21.006
X21.441 Y-20.921
X21.503 Y-20.832
X21.56 Y-20.74
X21.611 Y-20.645
X21.657 Y-20.548
X21.697 Y-20.449
X21.732 Y-20.347
X21.76 Y-20.245
X21.783 Y-20.141
X21.8 Y-20.036
X21.811 Y-19.931
X21.816 Y-19.825
X21.815 Y-19.719
X21.808 Y-19.614
X21.795 Y-19.509
X21.776 Y-19.405
X21.751 Y-19.302
X21.721 Y-19.201
X21.685 Y-19.101
X21.643 Y-19.004
X21.596 Y-18.909
X21.543 Y-18.816
X21.485 Y-18.726
X21.422 Y-18.64
X21.354 Y-18.556
X21.281 Y-18.477
X21.204 Y-18.402
X21.122 Y-18.33
X21.036 Y-18.264
X20.946 Y-18.202
X20.852 Y-18.144
X20.755 Y-18.093
X20.655 Y-18.046
X20.551 Y-18.005
X20.446 Y-17.97
X20.337 Y-17.94
X20.227 Y-17.917
X20.116 Y-17.9
X20.003 Y-17.889
X19.889 Y-17.884
