(__40_80)
(T2  D=8. CR=0. - ZMIN=-28.5 - FLAT END MILL)
G90 G94 G91.1 G40 G49 G17
G21

(2D POCKET1)
M5
M9
T2
S3640 M3
G54
M8
G0 X19.068 Y19.748
G43 Z4. H2
Z2.
G1 Z0.5 F466.
G3 X19.994 Y20.125 Z0.223 R0.5
X19.068 Y19.748 Z-0.054 R0.5
X19.994 Y20.125 Z-0.331 R0.5
X19.068 Y19.748 Z-0.608 R0.5
X19.994 Y20.125 Z-0.885 R0.5
X19.068 Y19.748 Z-1.162 R0.5
X19.994 Y20.125 Z-1.439 R0.5
X19.068 Y19.748 Z-1.716 R0.5
X19.994 Y20.125 Z-1.993 R0.5
X19.068 Y19.748 Z-2.27 R0.5
X19.994 Y20.125 Z-2.547 R0.5
X19.068 Y19.748 Z-2.824 R0.5
X19.994 Y20.125 Z-3.101 R0.5
X19.068 Y19.748 Z-3.378 R0.5
X19.994 Y20.125 Z-3.655 R0.5
X19.068 Y19.748 Z-3.932 R0.5
X19.994 Y20.125 Z-4.209 R0.5
X19.068 Y19.748 Z-4.486 R0.5
X19.994 Y20.125 Z-4.763 R0.5
X19.068 Y19.748 Z-5.039 R0.5
X19.994 Y20.125 Z-5.316 R0.5
X19.068 Y19.748 Z-5.593 R0.5
X19.994 Y20.125 Z-5.87 R0.5
X19.068 Y19.748 Z-6.147 R0.5
X19.994 Y20.125 Z-6.424 R0.5
X19.068 Y19.748 Z-6.701 R0.5
X19.994 Y20.125 Z-6.978 R0.5
X19.068 Y19.748 Z-7.255 R0.5
X19.994 Y20.125 Z-7.532 R0.5
X19.068 Y19.748 Z-7.809 R0.5
X19.994 Y20.125 Z-8.086 R0.5
X19.068 Y19.748 Z-8.363 R0.5
X19.994 Y20.125 Z-8.64 R0.5
X19.068 Y19.748 Z-8.917 R0.5
X19.994 Y20.125 Z-9.194 R0.5
X19.068 Y19.748 Z-9.471 R0.5
X19.994 Y20.125 Z-9.748 R0.5
X19.068 Y19.748 Z-10.025 R0.5
X19.994 Y20.125 Z-10.302 R0.5
X19.068 Y19.748 Z-10.579 R0.5
X19.994 Y20.125 Z-10.856 R0.5
X19.068 Y19.748 Z-11.133 R0.5
X19.994 Y20.125 Z-11.41 R0.5
X19.068 Y19.748 Z-11.687 R0.5
X19.994 Y20.125 Z-11.964 R0.5
X19.068 Y19.748 Z-12.241 R0.5
X20.023 Y20.029 Z-12.5 R0.5
G1 X20.017 Y20.06
G3 X19.989 Y20.104 R0.073
G1 X19.976 Y20.114
G3 X19.907 Y20.137 R0.115
G1 X19.867 Y20.135
G3 X19.761 Y20.093 R0.198
X19.68 Y19.98 R0.224
G1 X19.672 Y19.957
G3 X19.667 Y19.79 R0.303
G1 X19.673 Y19.77
G3 X19.773 Y19.595 R0.378
G1 X19.787 Y19.581
G3 X19.991 Y19.465 R0.45
X20.108 Y19.449 R0.455
X20.287 Y19.486 R0.455
G1 X20.346 Y19.512
G3 X20.682 Y19.85 R0.636
G1 X20.69 Y19.867
G3 X20.697 Y20.379 R0.682
G1 X20.67 Y20.446
G3 X19.886 Y20.985 R0.846
G1 X19.86
G3 X19.351 Y20.846 R0.979
G1 X19.324 Y20.83
G3 X18.936 Y20.433 R1.096
X18.788 Y19.901 R1.111
G1 Y19.876
G3 X18.924 Y19.295 R1.21
G1 X18.932 Y19.279
G3 X19.351 Y18.808 R1.28
G1 X19.366 Y18.798
G3 X19.991 Y18.573 R1.35
G1 X20.009 Y18.572
G3 X20.699 Y18.677 R1.42
G1 X20.716 Y18.684
G3 X21.299 Y19.126 R1.49
G1 X21.31 Y19.14
G3 X21.627 Y19.837 R1.56
G1 X21.63 Y19.855
G3 X21.575 Y20.651 R1.631
X21.116 Y21.366 R1.659
G1 X21.088 Y21.392
G3 X20.241 Y21.827 R1.802
X19.856 Y21.868 R1.835
X19.268 Y21.771 R1.835
G1 X19.244 Y21.763
G3 X18.412 Y21.21 R1.932
G1 X18.35 Y21.139
G3 X17.877 Y19.528 R1.984
X18.023 Y19.014 R2.169
X18.295 Y18.539 R2.205
X18.682 Y18.138 R2.241
X19.162 Y17.84 R2.277
X19.709 Y17.666 R2.312
X20.143 Y17.625 R2.347
X20.291 Y17.63 R2.347
X20.872 Y17.739 R2.383
X21.417 Y17.99 R2.42
X21.891 Y18.373 R2.455
X22.262 Y18.866 R2.491
X22.505 Y19.444 R2.527
X22.601 Y20.072 R2.562
X22.602 Y20.146 R2.598
X22.539 Y20.713 R2.598
X22.321 Y21.326 R2.618
G1 X22.314 Y21.339
G3 X21.956 Y21.868 R2.502
G1 X21.691 Y22.169
G3 X18.309 Y17.831 R2.75
X21.691 Y22.169 R2.75
G1 X21.445 Y21.853 Z-12.46
G0 Z2.
X19.068 Y59.748
G1 Z0.5 F466.
G3 X19.994 Y60.125 Z0.223 R0.5
X19.068 Y59.748 Z-0.054 R0.5
X19.994 Y60.125 Z-0.331 R0.5
X19.068 Y59.748 Z-0.608 R0.5
X19.994 Y60.125 Z-0.885 R0.5
X19.068 Y59.748 Z-1.162 R0.5
X19.994 Y60.125 Z-1.439 R0.5
X19.068 Y59.748 Z-1.716 R0.5
X19.994 Y60.125 Z-1.993 R0.5
X19.068 Y59.748 Z-2.27 R0.5
X19.994 Y60.125 Z-2.547 R0.5
X19.068 Y59.748 Z-2.824 R0.5
X19.994 Y60.125 Z-3.101 R0.5
X19.068 Y59.748 Z-3.378 R0.5
X19.994 Y60.125 Z-3.655 R0.5
X19.068 Y59.748 Z-3.932 R0.5
X19.994 Y60.125 Z-4.209 R0.5
X19.068 Y59.748 Z-4.486 R0.5
X19.994 Y60.125 Z-4.763 R0.5
X19.068 Y59.748 Z-5.039 R0.5
X19.994 Y60.125 Z-5.316 R0.5
X19.068 Y59.748 Z-5.593 R0.5
X19.994 Y60.125 Z-5.87 R0.5
X19.068 Y59.748 Z-6.147 R0.5
X19.994 Y60.125 Z-6.424 R0.5
X19.068 Y59.748 Z-6.701 R0.5
X19.994 Y60.125 Z-6.978 R0.5
X19.068 Y59.748 Z-7.255 R0.5
X19.994 Y60.125 Z-7.532 R0.5
X19.068 Y59.748 Z-7.809 R0.5
X19.994 Y60.125 Z-8.086 R0.5
X19.068 Y59.748 Z-8.363 R0.5
X19.994 Y60.125 Z-8.64 R0.5
X19.068 Y59.748 Z-8.917 R0.5
X19.994 Y60.125 Z-9.194 R0.5
X19.068 Y59.748 Z-9.471 R0.5
X19.994 Y60.125 Z-9.748 R0.5
X19.068 Y59.748 Z-10.025 R0.5
X19.994 Y60.125 Z-10.302 R0.5
X19.068 Y59.748 Z-10.579 R0.5
X19.994 Y60.125 Z-10.856 R0.5
X19.068 Y59.748 Z-11.133 R0.5
X19.994 Y60.125 Z-11.41 R0.5
X19.068 Y59.748 Z-11.687 R0.5
X19.994 Y60.125 Z-11.964 R0.5
X19.068 Y59.748 Z-12.241 R0.5
X20.023 Y60.029 Z-12.5 R0.5
G1 X20.017 Y60.06
G3 X19.989 Y60.104 R0.073
G1 X19.976 Y60.114
G3 X19.907 Y60.137 R0.115
G1 X19.867 Y60.135
G3 X19.761 Y60.093 R0.198
X19.68 Y59.98 R0.224
G1 X19.672 Y59.957
G3 X19.667 Y59.79 R0.303
G1 X19.673 Y59.77
G3 X19.773 Y59.595 R0.378
G1 X19.787 Y59.581
G3 X19.991 Y59.465 R0.45
X20.108 Y59.449 R0.455
X20.287 Y59.486 R0.455
G1 X20.346 Y59.512
G3 X20.682 Y59.85 R0.636
G1 X20.69 Y59.867
G3 X20.697 Y60.379 R0.682
G1 X20.67 Y60.446
G3 X19.886 Y60.985 R0.846
G1 X19.86
G3 X19.351 Y60.846 R0.979
G1 X19.324 Y60.83
G3 X18.936 Y60.433 R1.096
X18.788 Y59.901 R1.111
G1 Y59.876
G3 X18.924 Y59.295 R1.21
G1 X18.932 Y59.279
G3 X19.351 Y58.808 R1.28
G1 X19.366 Y58.798
G3 X19.991 Y58.573 R1.35
G1 X20.009 Y58.572
G3 X20.699 Y58.677 R1.42
G1 X20.716 Y58.684
G3 X21.299 Y59.126 R1.49
G1 X21.31 Y59.14
G3 X21.627 Y59.837 R1.56
G1 X21.63 Y59.855
G3 X21.575 Y60.651 R1.631
X21.116 Y61.366 R1.659
G1 X21.088 Y61.392
G3 X20.241 Y61.827 R1.802
X19.856 Y61.868 R1.835
X19.268 Y61.771 R1.835
G1 X19.244 Y61.763
G3 X18.412 Y61.21 R1.932
G1 X18.35 Y61.139
G3 X17.877 Y59.528 R1.984
X18.023 Y59.014 R2.169
X18.295 Y58.539 R2.205
X18.682 Y58.138 R2.241
X19.162 Y57.84 R2.277
X19.709 Y57.666 R2.312
X20.143 Y57.625 R2.347
X20.291 Y57.63 R2.347
X20.872 Y57.739 R2.383
X21.417 Y57.99 R2.42
X21.891 Y58.373 R2.455
X22.262 Y58.866 R2.491
X22.505 Y59.444 R2.527
X22.601 Y60.072 R2.562
X22.602 Y60.146 R2.598
X22.539 Y60.713 R2.598
X22.321 Y61.326 R2.618
G1 X22.314 Y61.339
G3 X21.956 Y61.868 R2.502
G1 X21.691 Y62.169
G3 X18.309 Y57.831 R2.75
X21.691 Y62.169 R2.75
G1 X21.445 Y61.853 Z-12.46
G0 Z2.
X-20.932 Y59.748
G1 Z0.5 F466.
G3 X-20.006 Y60.125 Z0.223 R0.5
X-20.932 Y59.748 Z-0.054 R0.5
X-20.006 Y60.125 Z-0.331 R0.5
X-20.932 Y59.748 Z-0.608 R0.5
X-20.006 Y60.125 Z-0.885 R0.5
X-20.932 Y59.748 Z-1.162 R0.5
X-20.006 Y60.125 Z-1.439 R0.5
X-20.932 Y59.748 Z-1.716 R0.5
X-20.006 Y60.125 Z-1.993 R0.5
X-20.932 Y59.748 Z-2.27 R0.5
X-20.006 Y60.125 Z-2.547 R0.5
X-20.932 Y59.748 Z-2.824 R0.5
X-20.006 Y60.125 Z-3.101 R0.5
X-20.932 Y59.748 Z-3.378 R0.5
X-20.006 Y60.125 Z-3.655 R0.5
X-20.932 Y59.748 Z-3.932 R0.5
X-20.006 Y60.125 Z-4.209 R0.5
X-20.932 Y59.748 Z-4.486 R0.5
X-20.006 Y60.125 Z-4.763 R0.5
X-20.932 Y59.748 Z-5.039 R0.5
X-20.006 Y60.125 Z-5.316 R0.5
X-20.932 Y59.748 Z-5.593 R0.5
X-20.006 Y60.125 Z-5.87 R0.5
X-20.932 Y59.748 Z-6.147 R0.5
X-20.006 Y60.125 Z-6.424 R0.5
X-20.932 Y59.748 Z-6.701 R0.5
X-20.006 Y60.125 Z-6.978 R0.5
X-20.932 Y59.748 Z-7.255 R0.5
X-20.006 Y60.125 Z-7.532 R0.5
X-20.932 Y59.748 Z-7.809 R0.5
X-20.006 Y60.125 Z-8.086 R0.5
X-20.932 Y59.748 Z-8.363 R0.5
X-20.006 Y60.125 Z-8.64 R0.5
X-20.932 Y59.748 Z-8.917 R0.5
X-20.006 Y60.125 Z-9.194 R0.5
X-20.932 Y59.748 Z-9.471 R0.5
X-20.006 Y60.125 Z-9.748 R0.5
X-20.932 Y59.748 Z-10.025 R0.5
X-20.006 Y60.125 Z-10.302 R0.5
X-20.932 Y59.748 Z-10.579 R0.5
X-20.006 Y60.125 Z-10.856 R0.5
X-20.932 Y59.748 Z-11.133 R0.5
X-20.006 Y60.125 Z-11.41 R0.5
X-20.932 Y59.748 Z-11.687 R0.5
X-20.006 Y60.125 Z-11.964 R0.5
X-20.932 Y59.748 Z-12.241 R0.5
X-19.977 Y60.029 Z-12.5 R0.5
G1 X-19.983 Y60.06
G3 X-20.011 Y60.104 R0.073
G1 X-20.024 Y60.114
G3 X-20.093 Y60.137 R0.115
G1 X-20.133 Y60.135
G3 X-20.239 Y60.093 R0.198
X-20.32 Y59.98 R0.224
G1 X-20.328 Y59.957
G3 X-20.333 Y59.79 R0.303
G1 X-20.327 Y59.77
G3 X-20.227 Y59.595 R0.378
G1 X-20.213 Y59.581
G3 X-20.009 Y59.465 R0.45
X-19.892 Y59.449 R0.455
X-19.713 Y59.486 R0.455
G1 X-19.654 Y59.512
G3 X-19.318 Y59.85 R0.636
G1 X-19.31 Y59.867
G3 X-19.303 Y60.379 R0.682
G1 X-19.33 Y60.446
G3 X-20.114 Y60.985 R0.846
G1 X-20.14
G3 X-20.649 Y60.846 R0.979
G1 X-20.676 Y60.83
G3 X-21.064 Y60.433 R1.096
X-21.212 Y59.901 R1.111
G1 Y59.876
G3 X-21.076 Y59.295 R1.21
G1 X-21.068 Y59.279
G3 X-20.649 Y58.808 R1.28
G1 X-20.634 Y58.798
G3 X-20.009 Y58.573 R1.35
G1 X-19.991 Y58.572
G3 X-19.301 Y58.677 R1.42
G1 X-19.284 Y58.684
G3 X-18.701 Y59.126 R1.49
G1 X-18.69 Y59.14
G3 X-18.373 Y59.837 R1.56
G1 X-18.37 Y59.855
G3 X-18.425 Y60.651 R1.631
X-18.884 Y61.366 R1.659
G1 X-18.912 Y61.392
G3 X-19.759 Y61.827 R1.802
X-20.144 Y61.868 R1.835
X-20.732 Y61.771 R1.835
G1 X-20.756 Y61.763
G3 X-21.588 Y61.21 R1.932
G1 X-21.65 Y61.139
G3 X-22.123 Y59.528 R1.984
X-21.977 Y59.014 R2.169
X-21.705 Y58.539 R2.205
X-21.318 Y58.138 R2.241
X-20.838 Y57.84 R2.277
X-20.291 Y57.666 R2.312
X-19.857 Y57.625 R2.347
X-19.709 Y57.63 R2.347
X-19.128 Y57.739 R2.383
X-18.583 Y57.99 R2.42
X-18.109 Y58.373 R2.455
X-17.738 Y58.866 R2.491
X-17.495 Y59.444 R2.527
X-17.399 Y60.072 R2.562
X-17.398 Y60.146 R2.598
X-17.461 Y60.713 R2.598
X-17.679 Y61.326 R2.618
G1 X-17.686 Y61.339
G3 X-18.044 Y61.868 R2.502
G1 X-18.309 Y62.169
G3 X-21.691 Y57.831 R2.75
X-18.309 Y62.169 R2.75
G1 X-18.555 Y61.853 Z-12.46
G0 Z2.
X-20.932 Y19.748
G1 Z0.5 F466.
G3 X-20.006 Y20.125 Z0.223 R0.5
X-20.932 Y19.748 Z-0.054 R0.5
X-20.006 Y20.125 Z-0.331 R0.5
X-20.932 Y19.748 Z-0.608 R0.5
X-20.006 Y20.125 Z-0.885 R0.5
X-20.932 Y19.748 Z-1.162 R0.5
X-20.006 Y20.125 Z-1.439 R0.5
X-20.932 Y19.748 Z-1.716 R0.5
X-20.006 Y20.125 Z-1.993 R0.5
X-20.932 Y19.748 Z-2.27 R0.5
X-20.006 Y20.125 Z-2.547 R0.5
X-20.932 Y19.748 Z-2.824 R0.5
X-20.006 Y20.125 Z-3.101 R0.5
X-20.932 Y19.748 Z-3.378 R0.5
X-20.006 Y20.125 Z-3.655 R0.5
X-20.932 Y19.748 Z-3.932 R0.5
X-20.006 Y20.125 Z-4.209 R0.5
X-20.932 Y19.748 Z-4.486 R0.5
X-20.006 Y20.125 Z-4.763 R0.5
X-20.932 Y19.748 Z-5.039 R0.5
X-20.006 Y20.125 Z-5.316 R0.5
X-20.932 Y19.748 Z-5.593 R0.5
X-20.006 Y20.125 Z-5.87 R0.5
X-20.932 Y19.748 Z-6.147 R0.5
X-20.006 Y20.125 Z-6.424 R0.5
X-20.932 Y19.748 Z-6.701 R0.5
X-20.006 Y20.125 Z-6.978 R0.5
X-20.932 Y19.748 Z-7.255 R0.5
X-20.006 Y20.125 Z-7.532 R0.5
X-20.932 Y19.748 Z-7.809 R0.5
X-20.006 Y20.125 Z-8.086 R0.5
X-20.932 Y19.748 Z-8.363 R0.5
X-20.006 Y20.125 Z-8.64 R0.5
X-20.932 Y19.748 Z-8.917 R0.5
X-20.006 Y20.125 Z-9.194 R0.5
X-20.932 Y19.748 Z-9.471 R0.5
X-20.006 Y20.125 Z-9.748 R0.5
X-20.932 Y19.748 Z-10.025 R0.5
X-20.006 Y20.125 Z-10.302 R0.5
X-20.932 Y19.748 Z-10.579 R0.5
X-20.006 Y20.125 Z-10.856 R0.5
X-20.932 Y19.748 Z-11.133 R0.5
X-20.006 Y20.125 Z-11.41 R0.5
X-20.932 Y19.748 Z-11.687 R0.5
X-20.006 Y20.125 Z-11.964 R0.5
X-20.932 Y19.748 Z-12.241 R0.5
X-19.977 Y20.029 Z-12.5 R0.5
G1 X-19.983 Y20.06
G3 X-20.011 Y20.104 R0.073
G1 X-20.024 Y20.114
G3 X-20.093 Y20.137 R0.115
G1 X-20.133 Y20.135
G3 X-20.239 Y20.093 R0.198
X-20.32 Y19.98 R0.224
G1 X-20.328 Y19.957
G3 X-20.333 Y19.79 R0.303
G1 X-20.327 Y19.77
G3 X-20.227 Y19.595 R0.378
G1 X-20.213 Y19.581
G3 X-20.009 Y19.465 R0.45
X-19.892 Y19.449 R0.455
X-19.713 Y19.486 R0.455
G1 X-19.654 Y19.512
G3 X-19.318 Y19.85 R0.636
G1 X-19.31 Y19.867
G3 X-19.303 Y20.379 R0.682
G1 X-19.33 Y20.446
G3 X-20.114 Y20.985 R0.846
G1 X-20.14
G3 X-20.649 Y20.846 R0.979
G1 X-20.676 Y20.83
G3 X-21.064 Y20.433 R1.096
X-21.212 Y19.901 R1.111
G1 Y19.876
G3 X-21.076 Y19.295 R1.21
G1 X-21.068 Y19.279
G3 X-20.649 Y18.808 R1.28
G1 X-20.634 Y18.798
G3 X-20.009 Y18.573 R1.35
G1 X-19.991 Y18.572
G3 X-19.301 Y18.677 R1.42
G1 X-19.284 Y18.684
G3 X-18.701 Y19.126 R1.49
G1 X-18.69 Y19.14
G3 X-18.373 Y19.837 R1.56
G1 X-18.37 Y19.855
G3 X-18.425 Y20.651 R1.631
X-18.884 Y21.366 R1.659
G1 X-18.912 Y21.392
G3 X-19.759 Y21.827 R1.802
X-20.144 Y21.868 R1.835
X-20.732 Y21.771 R1.835
G1 X-20.756 Y21.763
G3 X-21.588 Y21.21 R1.932
G1 X-21.65 Y21.139
G3 X-22.123 Y19.528 R1.984
X-21.977 Y19.014 R2.169
X-21.705 Y18.539 R2.205
X-21.318 Y18.138 R2.241
X-20.838 Y17.84 R2.277
X-20.291 Y17.666 R2.312
X-19.857 Y17.625 R2.347
X-19.709 Y17.63 R2.347
X-19.128 Y17.739 R2.383
X-18.583 Y17.99 R2.42
X-18.109 Y18.373 R2.455
X-17.738 Y18.866 R2.491
X-17.495 Y19.444 R2.527
X-17.399 Y20.072 R2.562
X-17.398 Y20.146 R2.598
X-17.461 Y20.713 R2.598
X-17.679 Y21.326 R2.618
G1 X-17.686 Y21.339
G3 X-18.044 Y21.868 R2.502
G1 X-18.309 Y22.169
G3 X-21.691 Y17.831 R2.75
X-18.309 Y22.169 R2.75
G1 X-18.555 Y21.853 Z-12.46
G0 Z2.
X-20.932 Y-20.252
G1 Z0.5 F466.
G3 X-20.006 Y-19.875 Z0.223 R0.5
X-20.932 Y-20.252 Z-0.054 R0.5
X-20.006 Y-19.875 Z-0.331 R0.5
X-20.932 Y-20.252 Z-0.608 R0.5
X-20.006 Y-19.875 Z-0.885 R0.5
X-20.932 Y-20.252 Z-1.162 R0.5
X-20.006 Y-19.875 Z-1.439 R0.5
X-20.932 Y-20.252 Z-1.716 R0.5
X-20.006 Y-19.875 Z-1.993 R0.5
X-20.932 Y-20.252 Z-2.27 R0.5
X-20.006 Y-19.875 Z-2.547 R0.5
X-20.932 Y-20.252 Z-2.824 R0.5
X-20.006 Y-19.875 Z-3.101 R0.5
X-20.932 Y-20.252 Z-3.378 R0.5
X-20.006 Y-19.875 Z-3.655 R0.5
X-20.932 Y-20.252 Z-3.932 R0.5
X-20.006 Y-19.875 Z-4.209 R0.5
X-20.932 Y-20.252 Z-4.486 R0.5
X-20.006 Y-19.875 Z-4.763 R0.5
X-20.932 Y-20.252 Z-5.039 R0.5
X-20.006 Y-19.875 Z-5.316 R0.5
X-20.932 Y-20.252 Z-5.593 R0.5
X-20.006 Y-19.875 Z-5.87 R0.5
X-20.932 Y-20.252 Z-6.147 R0.5
X-20.006 Y-19.875 Z-6.424 R0.5
X-20.932 Y-20.252 Z-6.701 R0.5
X-20.006 Y-19.875 Z-6.978 R0.5
X-20.932 Y-20.252 Z-7.255 R0.5
X-20.006 Y-19.875 Z-7.532 R0.5
X-20.932 Y-20.252 Z-7.809 R0.5
X-20.006 Y-19.875 Z-8.086 R0.5
X-20.932 Y-20.252 Z-8.363 R0.5
X-20.006 Y-19.875 Z-8.64 R0.5
X-20.932 Y-20.252 Z-8.917 R0.5
X-20.006 Y-19.875 Z-9.194 R0.5
X-20.932 Y-20.252 Z-9.471 R0.5
X-20.006 Y-19.875 Z-9.748 R0.5
X-20.932 Y-20.252 Z-10.025 R0.5
X-20.006 Y-19.875 Z-10.302 R0.5
X-20.932 Y-20.252 Z-10.579 R0.5
X-20.006 Y-19.875 Z-10.856 R0.5
X-20.932 Y-20.252 Z-11.133 R0.5
X-20.006 Y-19.875 Z-11.41 R0.5
X-20.932 Y-20.252 Z-11.687 R0.5
X-20.006 Y-19.875 Z-11.964 R0.5
X-20.932 Y-20.252 Z-12.241 R0.5
X-19.977 Y-19.971 Z-12.5 R0.5
G1 X-19.983 Y-19.94
G3 X-20.011 Y-19.896 R0.073
G1 X-20.024 Y-19.886
G3 X-20.093 Y-19.863 R0.115
G1 X-20.133 Y-19.865
G3 X-20.239 Y-19.907 R0.198
X-20.32 Y-20.02 R0.224
G1 X-20.328 Y-20.043
G3 X-20.333 Y-20.21 R0.303
G1 X-20.327 Y-20.23
G3 X-20.227 Y-20.405 R0.378
G1 X-20.213 Y-20.419
G3 X-20.009 Y-20.535 R0.45
X-19.892 Y-20.551 R0.455
X-19.713 Y-20.514 R0.455
G1 X-19.654 Y-20.488
G3 X-19.318 Y-20.15 R0.636
G1 X-19.31 Y-20.133
G3 X-19.303 Y-19.621 R0.682
G1 X-19.33 Y-19.554
G3 X-20.114 Y-19.015 R0.846
G1 X-20.14
G3 X-20.649 Y-19.154 R0.979
G1 X-20.676 Y-19.17
G3 X-21.064 Y-19.567 R1.096
X-21.212 Y-20.099 R1.111
G1 Y-20.124
G3 X-21.076 Y-20.705 R1.21
G1 X-21.068 Y-20.721
G3 X-20.649 Y-21.192 R1.28
G1 X-20.634 Y-21.202
G3 X-20.009 Y-21.427 R1.35
G1 X-19.991 Y-21.428
G3 X-19.301 Y-21.323 R1.42
G1 X-19.284 Y-21.316
G3 X-18.701 Y-20.874 R1.49
G1 X-18.69 Y-20.86
G3 X-18.373 Y-20.163 R1.56
G1 X-18.37 Y-20.145
G3 X-18.425 Y-19.349 R1.631
X-18.884 Y-18.634 R1.659
G1 X-18.912 Y-18.608
G3 X-19.759 Y-18.173 R1.802
X-20.144 Y-18.132 R1.835
X-20.732 Y-18.229 R1.835
G1 X-20.756 Y-18.237
G3 X-21.588 Y-18.79 R1.932
G1 X-21.65 Y-18.861
G3 X-22.123 Y-20.472 R1.984
X-21.977 Y-20.986 R2.169
X-21.705 Y-21.461 R2.205
X-21.318 Y-21.862 R2.241
X-20.838 Y-22.16 R2.277
X-20.291 Y-22.334 R2.312
X-19.857 Y-22.375 R2.347
X-19.709 Y-22.37 R2.347
X-19.128 Y-22.261 R2.383
X-18.583 Y-22.01 R2.42
X-18.109 Y-21.627 R2.455
X-17.738 Y-21.134 R2.491
X-17.495 Y-20.556 R2.527
X-17.399 Y-19.928 R2.562
X-17.398 Y-19.854 R2.598
X-17.461 Y-19.287 R2.598
X-17.679 Y-18.674 R2.618
G1 X-17.686 Y-18.661
G3 X-18.044 Y-18.132 R2.502
G1 X-18.309 Y-17.831
G3 X-21.691 Y-22.169 R2.75
X-18.309 Y-17.831 R2.75
G1 X-18.555 Y-18.147 Z-12.46
G0 Z2.
X19.068 Y-20.252
G1 Z0.5 F466.
G3 X19.994 Y-19.875 Z0.223 R0.5
X19.068 Y-20.252 Z-0.054 R0.5
X19.994 Y-19.875 Z-0.331 R0.5
X19.068 Y-20.252 Z-0.608 R0.5
X19.994 Y-19.875 Z-0.885 R0.5
X19.068 Y-20.252 Z-1.162 R0.5
X19.994 Y-19.875 Z-1.439 R0.5
X19.068 Y-20.252 Z-1.716 R0.5
X19.994 Y-19.875 Z-1.993 R0.5
X19.068 Y-20.252 Z-2.27 R0.5
X19.994 Y-19.875 Z-2.547 R0.5
X19.068 Y-20.252 Z-2.824 R0.5
X19.994 Y-19.875 Z-3.101 R0.5
X19.068 Y-20.252 Z-3.378 R0.5
X19.994 Y-19.875 Z-3.655 R0.5
X19.068 Y-20.252 Z-3.932 R0.5
X19.994 Y-19.875 Z-4.209 R0.5
X19.068 Y-20.252 Z-4.486 R0.5
X19.994 Y-19.875 Z-4.763 R0.5
X19.068 Y-20.252 Z-5.039 R0.5
X19.994 Y-19.875 Z-5.316 R0.5
X19.068 Y-20.252 Z-5.593 R0.5
X19.994 Y-19.875 Z-5.87 R0.5
X19.068 Y-20.252 Z-6.147 R0.5
X19.994 Y-19.875 Z-6.424 R0.5
X19.068 Y-20.252 Z-6.701 R0.5
X19.994 Y-19.875 Z-6.978 R0.5
X19.068 Y-20.252 Z-7.255 R0.5
X19.994 Y-19.875 Z-7.532 R0.5
X19.068 Y-20.252 Z-7.809 R0.5
X19.994 Y-19.875 Z-8.086 R0.5
X19.068 Y-20.252 Z-8.363 R0.5
X19.994 Y-19.875 Z-8.64 R0.5
X19.068 Y-20.252 Z-8.917 R0.5
X19.994 Y-19.875 Z-9.194 R0.5
X19.068 Y-20.252 Z-9.471 R0.5
X19.994 Y-19.875 Z-9.748 R0.5
X19.068 Y-20.252 Z-10.025 R0.5
X19.994 Y-19.875 Z-10.302 R0.5
X19.068 Y-20.252 Z-10.579 R0.5
X19.994 Y-19.875 Z-10.856 R0.5
X19.068 Y-20.252 Z-11.133 R0.5
X19.994 Y-19.875 Z-11.41 R0.5
X19.068 Y-20.252 Z-11.687 R0.5
X19.994 Y-19.875 Z-11.964 R0.5
X19.068 Y-20.252 Z-12.241 R0.5
X20.023 Y-19.971 Z-12.5 R0.5
G1 X20.017 Y-19.94
G3 X19.989 Y-19.896 R0.073
G1 X19.976 Y-19.886
G3 X19.907 Y-19.863 R0.115
G1 X19.867 Y-19.865
G3 X19.761 Y-19.907 R0.198
X19.68 Y-20.02 R0.224
G1 X19.672 Y-20.043
G3 X19.667 Y-20.21 R0.303
G1 X19.673 Y-20.23
G3 X19.773 Y-20.405 R0.378
G1 X19.787 Y-20.419
G3 X19.991 Y-20.535 R0.45
X20.108 Y-20.551 R0.455
X20.287 Y-20.514 R0.455
G1 X20.346 Y-20.488
G3 X20.682 Y-20.15 R0.636
G1 X20.69 Y-20.133
G3 X20.697 Y-19.621 R0.682
G1 X20.67 Y-19.554
G3 X19.886 Y-19.015 R0.846
G1 X19.86
G3 X19.351 Y-19.154 R0.979
G1 X19.324 Y-19.17
G3 X18.936 Y-19.567 R1.096
X18.788 Y-20.099 R1.111
G1 Y-20.124
G3 X18.924 Y-20.705 R1.21
G1 X18.932 Y-20.721
G3 X19.351 Y-21.192 R1.28
G1 X19.366 Y-21.202
G3 X19.991 Y-21.427 R1.35
G1 X20.009 Y-21.428
G3 X20.699 Y-21.323 R1.42
G1 X20.716 Y-21.316
G3 X21.299 Y-20.874 R1.49
G1 X21.31 Y-20.86
G3 X21.627 Y-20.163 R1.56
G1 X21.63 Y-20.145
G3 X21.575 Y-19.349 R1.631
X21.116 Y-18.634 R1.659
G1 X21.088 Y-18.608
G3 X20.241 Y-18.173 R1.802
X19.856 Y-18.132 R1.835
X19.268 Y-18.229 R1.835
G1 X19.244 Y-18.237
G3 X18.412 Y-18.79 R1.932
G1 X18.35 Y-18.861
G3 X17.877 Y-20.472 R1.984
X18.023 Y-20.986 R2.169
X18.295 Y-21.461 R2.205
X18.682 Y-21.862 R2.241
X19.162 Y-22.16 R2.277
X19.709 Y-22.334 R2.312
X20.143 Y-22.375 R2.347
X20.291 Y-22.37 R2.347
X20.872 Y-22.261 R2.383
X21.417 Y-22.01 R2.42
X21.891 Y-21.627 R2.455
X22.262 Y-21.134 R2.491
X22.505 Y-20.556 R2.527
X22.601 Y-19.928 R2.562
X22.602 Y-19.854 R2.598
X22.539 Y-19.287 R2.598
X22.321 Y-18.674 R2.618
G1 X22.314 Y-18.661
G3 X21.956 Y-18.132 R2.502
G1 X21.691 Y-17.831
G3 X18.309 Y-22.169 R2.75
X21.691 Y-17.831 R2.75
G1 X21.445 Y-18.147 Z-12.46
G0 Z2.
X19.068 Y-60.252
G1 Z0.5 F466.
G3 X19.994 Y-59.875 Z0.223 R0.5
X19.068 Y-60.252 Z-0.054 R0.5
X19.994 Y-59.875 Z-0.331 R0.5
X19.068 Y-60.252 Z-0.608 R0.5
X19.994 Y-59.875 Z-0.885 R0.5
X19.068 Y-60.252 Z-1.162 R0.5
X19.994 Y-59.875 Z-1.439 R0.5
X19.068 Y-60.252 Z-1.716 R0.5
X19.994 Y-59.875 Z-1.993 R0.5
X19.068 Y-60.252 Z-2.27 R0.5
X19.994 Y-59.875 Z-2.547 R0.5
X19.068 Y-60.252 Z-2.824 R0.5
X19.994 Y-59.875 Z-3.101 R0.5
X19.068 Y-60.252 Z-3.378 R0.5
X19.994 Y-59.875 Z-3.655 R0.5
X19.068 Y-60.252 Z-3.932 R0.5
X19.994 Y-59.875 Z-4.209 R0.5
X19.068 Y-60.252 Z-4.486 R0.5
X19.994 Y-59.875 Z-4.763 R0.5
X19.068 Y-60.252 Z-5.039 R0.5
X19.994 Y-59.875 Z-5.316 R0.5
X19.068 Y-60.252 Z-5.593 R0.5
X19.994 Y-59.875 Z-5.87 R0.5
X19.068 Y-60.252 Z-6.147 R0.5
X19.994 Y-59.875 Z-6.424 R0.5
X19.068 Y-60.252 Z-6.701 R0.5
X19.994 Y-59.875 Z-6.978 R0.5
X19.068 Y-60.252 Z-7.255 R0.5
X19.994 Y-59.875 Z-7.532 R0.5
X19.068 Y-60.252 Z-7.809 R0.5
X19.994 Y-59.875 Z-8.086 R0.5
X19.068 Y-60.252 Z-8.363 R0.5
X19.994 Y-59.875 Z-8.64 R0.5
X19.068 Y-60.252 Z-8.917 R0.5
X19.994 Y-59.875 Z-9.194 R0.5
X19.068 Y-60.252 Z-9.471 R0.5
X19.994 Y-59.875 Z-9.748 R0.5
X19.068 Y-60.252 Z-10.025 R0.5
X19.994 Y-59.875 Z-10.302 R0.5
X19.068 Y-60.252 Z-10.579 R0.5
X19.994 Y-59.875 Z-10.856 R0.5
X19.068 Y-60.252 Z-11.133 R0.5
X19.994 Y-59.875 Z-11.41 R0.5
X19.068 Y-60.252 Z-11.687 R0.5
X19.994 Y-59.875 Z-11.964 R0.5
X19.068 Y-60.252 Z-12.241 R0.5
X20.023 Y-59.971 Z-12.5 R0.5
G1 X20.017 Y-59.94
G3 X19.989 Y-59.896 R0.073
G1 X19.976 Y-59.886
G3 X19.907 Y-59.863 R0.115
G1 X19.867 Y-59.865
G3 X19.761 Y-59.907 R0.198
X19.68 Y-60.02 R0.224
G1 X19.672 Y-60.043
G3 X19.667 Y-60.21 R0.303
G1 X19.673 Y-60.23
G3 X19.773 Y-60.405 R0.378
G1 X19.787 Y-60.419
G3 X19.991 Y-60.535 R0.45
X20.108 Y-60.551 R0.455
X20.287 Y-60.514 R0.455
G1 X20.346 Y-60.488
G3 X20.682 Y-60.15 R0.636
G1 X20.69 Y-60.133
G3 X20.697 Y-59.621 R0.682
G1 X20.67 Y-59.554
G3 X19.886 Y-59.015 R0.846
G1 X19.86
G3 X19.351 Y-59.154 R0.979
G1 X19.324 Y-59.17
G3 X18.936 Y-59.567 R1.096
X18.788 Y-60.099 R1.111
G1 Y-60.124
G3 X18.924 Y-60.705 R1.21
G1 X18.932 Y-60.721
G3 X19.351 Y-61.192 R1.28
G1 X19.366 Y-61.202
G3 X19.991 Y-61.427 R1.35
G1 X20.009 Y-61.428
G3 X20.699 Y-61.323 R1.42
G1 X20.716 Y-61.316
G3 X21.299 Y-60.874 R1.49
G1 X21.31 Y-60.86
G3 X21.627 Y-60.163 R1.56
G1 X21.63 Y-60.145
G3 X21.575 Y-59.349 R1.631
X21.116 Y-58.634 R1.659
G1 X21.088 Y-58.608
G3 X20.241 Y-58.173 R1.802
X19.856 Y-58.132 R1.835
X19.268 Y-58.229 R1.835
G1 X19.244 Y-58.237
G3 X18.412 Y-58.79 R1.932
G1 X18.35 Y-58.861
G3 X17.877 Y-60.472 R1.984
X18.023 Y-60.986 R2.169
X18.295 Y-61.461 R2.205
X18.682 Y-61.862 R2.241
X19.162 Y-62.16 R2.277
X19.709 Y-62.334 R2.312
X20.143 Y-62.375 R2.347
X20.291 Y-62.37 R2.347
X20.872 Y-62.261 R2.383
X21.417 Y-62.01 R2.42
X21.891 Y-61.627 R2.455
X22.262 Y-61.134 R2.491
X22.505 Y-60.556 R2.527
X22.601 Y-59.928 R2.562
X22.602 Y-59.854 R2.598
X22.539 Y-59.287 R2.598
X22.321 Y-58.674 R2.618
G1 X22.314 Y-58.661
G3 X21.956 Y-58.132 R2.502
G1 X21.691 Y-57.831
G3 X18.309 Y-62.169 R2.75
X21.691 Y-57.831 R2.75
G1 X21.445 Y-58.147 Z-12.46
G0 Z2.
X-20.932 Y-60.252
G1 Z0.5 F466.
G3 X-20.006 Y-59.875 Z0.223 R0.5
X-20.932 Y-60.252 Z-0.054 R0.5
X-20.006 Y-59.875 Z-0.331 R0.5
X-20.932 Y-60.252 Z-0.608 R0.5
X-20.006 Y-59.875 Z-0.885 R0.5
X-20.932 Y-60.252 Z-1.162 R0.5
X-20.006 Y-59.875 Z-1.439 R0.5
X-20.932 Y-60.252 Z-1.716 R0.5
X-20.006 Y-59.875 Z-1.993 R0.5
X-20.932 Y-60.252 Z-2.27 R0.5
X-20.006 Y-59.875 Z-2.547 R0.5
X-20.932 Y-60.252 Z-2.824 R0.5
X-20.006 Y-59.875 Z-3.101 R0.5
X-20.932 Y-60.252 Z-3.378 R0.5
X-20.006 Y-59.875 Z-3.655 R0.5
X-20.932 Y-60.252 Z-3.932 R0.5
X-20.006 Y-59.875 Z-4.209 R0.5
X-20.932 Y-60.252 Z-4.486 R0.5
X-20.006 Y-59.875 Z-4.763 R0.5
X-20.932 Y-60.252 Z-5.039 R0.5
X-20.006 Y-59.875 Z-5.316 R0.5
X-20.932 Y-60.252 Z-5.593 R0.5
X-20.006 Y-59.875 Z-5.87 R0.5
X-20.932 Y-60.252 Z-6.147 R0.5
X-20.006 Y-59.875 Z-6.424 R0.5
X-20.932 Y-60.252 Z-6.701 R0.5
X-20.006 Y-59.875 Z-6.978 R0.5
X-20.932 Y-60.252 Z-7.255 R0.5
X-20.006 Y-59.875 Z-7.532 R0.5
X-20.932 Y-60.252 Z-7.809 R0.5
X-20.006 Y-59.875 Z-8.086 R0.5
X-20.932 Y-60.252 Z-8.363 R0.5
X-20.006 Y-59.875 Z-8.64 R0.5
X-20.932 Y-60.252 Z-8.917 R0.5
X-20.006 Y-59.875 Z-9.194 R0.5
X-20.932 Y-60.252 Z-9.471 R0.5
X-20.006 Y-59.875 Z-9.748 R0.5
X-20.932 Y-60.252 Z-10.025 R0.5
X-20.006 Y-59.875 Z-10.302 R0.5
X-20.932 Y-60.252 Z-10.579 R0.5
X-20.006 Y-59.875 Z-10.856 R0.5
X-20.932 Y-60.252 Z-11.133 R0.5
X-20.006 Y-59.875 Z-11.41 R0.5
X-20.932 Y-60.252 Z-11.687 R0.5
X-20.006 Y-59.875 Z-11.964 R0.5
X-20.932 Y-60.252 Z-12.241 R0.5
X-19.977 Y-59.971 Z-12.5 R0.5
G1 X-19.983 Y-59.94
G3 X-20.011 Y-59.896 R0.073
G1 X-20.024 Y-59.886
G3 X-20.093 Y-59.863 R0.115
G1 X-20.133 Y-59.865
G3 X-20.239 Y-59.907 R0.198
X-20.32 Y-60.02 R0.224
G1 X-20.328 Y-60.043
G3 X-20.333 Y-60.21 R0.303
G1 X-20.327 Y-60.23
G3 X-20.227 Y-60.405 R0.378
G1 X-20.213 Y-60.419
G3 X-20.009 Y-60.535 R0.45
X-19.892 Y-60.551 R0.455
X-19.713 Y-60.514 R0.455
G1 X-19.654 Y-60.488
G3 X-19.318 Y-60.15 R0.636
G1 X-19.31 Y-60.133
G3 X-19.303 Y-59.621 R0.682
G1 X-19.33 Y-59.554
G3 X-20.114 Y-59.015 R0.846
G1 X-20.14
G3 X-20.649 Y-59.154 R0.979
G1 X-20.676 Y-59.17
G3 X-21.064 Y-59.567 R1.096
X-21.212 Y-60.099 R1.111
G1 Y-60.124
G3 X-21.076 Y-60.705 R1.21
G1 X-21.068 Y-60.721
G3 X-20.649 Y-61.192 R1.28
G1 X-20.634 Y-61.202
G3 X-20.009 Y-61.427 R1.35
G1 X-19.991 Y-61.428
G3 X-19.301 Y-61.323 R1.42
G1 X-19.284 Y-61.316
G3 X-18.701 Y-60.874 R1.49
G1 X-18.69 Y-60.86
G3 X-18.373 Y-60.163 R1.56
G1 X-18.37 Y-60.145
G3 X-18.425 Y-59.349 R1.631
X-18.884 Y-58.634 R1.659
G1 X-18.912 Y-58.608
G3 X-19.759 Y-58.173 R1.802
X-20.144 Y-58.132 R1.835
X-20.732 Y-58.229 R1.835
G1 X-20.756 Y-58.237
G3 X-21.588 Y-58.79 R1.932
G1 X-21.65 Y-58.861
G3 X-22.123 Y-60.472 R1.984
X-21.977 Y-60.986 R2.169
X-21.705 Y-61.461 R2.205
X-21.318 Y-61.862 R2.241
X-20.838 Y-62.16 R2.277
X-20.291 Y-62.334 R2.312
X-19.857 Y-62.375 R2.347
X-19.709 Y-62.37 R2.347
X-19.128 Y-62.261 R2.383
X-18.583 Y-62.01 R2.42
X-18.109 Y-61.627 R2.455
X-17.738 Y-61.134 R2.491
X-17.495 Y-60.556 R2.527
X-17.399 Y-59.928 R2.562
X-17.398 Y-59.854 R2.598
X-17.461 Y-59.287 R2.598
X-17.679 Y-58.674 R2.618
G1 X-17.686 Y-58.661
G3 X-18.044 Y-58.132 R2.502
G1 X-18.309 Y-57.831
G3 X-21.691 Y-62.169 R2.75
X-18.309 Y-57.831 R2.75
G1 X-18.555 Y-58.147 Z-12.46
G0 Z4.

(2D POCKET2)
M8
G0 X20.11 Y-19.775
Z4.
Z-10.5
G1 Z-12. F466.
G3 X19.89 Y-20.225 Z-12.138 R0.25
X20.11 Y-19.775 Z-12.277 R0.25
X19.89 Y-20.225 Z-12.415 R0.25
X20.11 Y-19.775 Z-12.554 R0.25
X19.89 Y-20.225 Z-12.692 R0.25
X20.11 Y-19.775 Z-12.831 R0.25
X19.89 Y-20.225 Z-12.969 R0.25
X20.11 Y-19.775 Z-13.108 R0.25
X19.89 Y-20.225 Z-13.246 R0.25
X20.11 Y-19.775 Z-13.385 R0.25
X19.89 Y-20.225 Z-13.523 R0.25
X20.11 Y-19.775 Z-13.662 R0.25
X19.89 Y-20.225 Z-13.8 R0.25
X20.11 Y-19.775 Z-13.939 R0.25
X19.89 Y-20.225 Z-14.077 R0.25
X20.11 Y-19.775 Z-14.216 R0.25
X19.89 Y-20.225 Z-14.354 R0.25
X20.11 Y-19.775 Z-14.493 R0.25
X19.89 Y-20.225 Z-14.631 R0.25
X20.11 Y-19.775 Z-14.77 R0.25
X19.89 Y-20.225 Z-14.908 R0.25
X20.11 Y-19.775 Z-15.047 R0.25
X19.89 Y-20.225 Z-15.185 R0.25
X20.11 Y-19.775 Z-15.324 R0.25
X19.89 Y-20.225 Z-15.462 R0.25
X20.11 Y-19.775 Z-15.601 R0.25
X19.89 Y-20.225 Z-15.739 R0.25
X20.11 Y-19.775 Z-15.878 R0.25
X19.89 Y-20.225 Z-16.016 R0.25
X20.11 Y-19.775 Z-16.155 R0.25
X19.89 Y-20.225 Z-16.293 R0.25
X20.11 Y-19.775 Z-16.432 R0.25
X19.89 Y-20.225 Z-16.57 R0.25
X20.11 Y-19.775 Z-16.709 R0.25
X19.89 Y-20.225 Z-16.847 R0.25
X20.11 Y-19.775 Z-16.986 R0.25
X19.89 Y-20.225 Z-17.124 R0.25
X20.11 Y-19.775 Z-17.263 R0.25
X19.89 Y-20.225 Z-17.401 R0.25
X20.11 Y-19.775 Z-17.539 R0.25
X19.89 Y-20.225 Z-17.678 R0.25
X20.11 Y-19.775 Z-17.816 R0.25
X19.89 Y-20.225 Z-17.955 R0.25
X20.11 Y-19.775 Z-18.093 R0.25
X19.89 Y-20.225 Z-18.232 R0.25
X20.11 Y-19.775 Z-18.37 R0.25
X19.89 Y-20.225 Z-18.509 R0.25
X20.11 Y-19.775 Z-18.647 R0.25
X19.89 Y-20.225 Z-18.786 R0.25
X20.11 Y-19.775 Z-18.924 R0.25
X19.89 Y-20.225 Z-19.063 R0.25
X20.11 Y-19.775 Z-19.201 R0.25
X19.89 Y-20.225 Z-19.34 R0.25
X20.11 Y-19.775 Z-19.478 R0.25
X19.89 Y-20.225 Z-19.617 R0.25
X20.11 Y-19.775 Z-19.755 R0.25
X19.89 Y-20.225 Z-19.894 R0.25
X20.11 Y-19.775 Z-20.032 R0.25
X19.89 Y-20.225 Z-20.171 R0.25
X20.11 Y-19.775 Z-20.309 R0.25
X19.89 Y-20.225 Z-20.448 R0.25
X20.11 Y-19.775 Z-20.586 R0.25
X19.89 Y-20.225 Z-20.725 R0.25
X20.11 Y-19.775 Z-20.863 R0.25
X19.89 Y-20.225 Z-21.002 R0.25
X20.11 Y-19.775 Z-21.14 R0.25
X19.89 Y-20.225 Z-21.279 R0.25
X20.11 Y-19.775 Z-21.417 R0.25
X19.89 Y-20.225 Z-21.556 R0.25
X20.11 Y-19.775 Z-21.694 R0.25
X19.89 Y-20.225 Z-21.833 R0.25
X20.11 Y-19.775 Z-21.971 R0.25
X19.89 Y-20.225 Z-22.11 R0.25
X20.11 Y-19.775 Z-22.248 R0.25
X19.89 Y-20.225 Z-22.387 R0.25
X20.11 Y-19.775 Z-22.525 R0.25
X19.89 Y-20.225 Z-22.663 R0.25
X20.11 Y-19.775 Z-22.802 R0.25
X19.89 Y-20.225 Z-22.94 R0.25
X20.11 Y-19.775 Z-23.079 R0.25
X19.89 Y-20.225 Z-23.217 R0.25
X20.11 Y-19.775 Z-23.356 R0.25
X19.89 Y-20.225 Z-23.494 R0.25
X20.11 Y-19.775 Z-23.633 R0.25
X19.89 Y-20.225 Z-23.771 R0.25
X20.11 Y-19.775 Z-23.91 R0.25
X19.89 Y-20.225 Z-24.048 R0.25
X20.11 Y-19.775 Z-24.187 R0.25
X19.89 Y-20.225 Z-24.325 R0.25
X20.11 Y-19.775 Z-24.464 R0.25
X19.89 Y-20.225 Z-24.602 R0.25
X20.11 Y-19.775 Z-24.741 R0.25
X19.89 Y-20.225 Z-24.879 R0.25
X20.11 Y-19.775 Z-25.018 R0.25
X19.89 Y-20.225 Z-25.156 R0.25
X20.11 Y-19.775 Z-25.295 R0.25
X19.89 Y-20.225 Z-25.433 R0.25
X20.11 Y-19.775 Z-25.572 R0.25
X19.89 Y-20.225 Z-25.71 R0.25
X20.11 Y-19.775 Z-25.849 R0.25
X19.89 Y-20.225 Z-25.987 R0.25
X20.11 Y-19.775 Z-26.126 R0.25
X19.89 Y-20.225 Z-26.264 R0.25
X20.11 Y-19.775 Z-26.403 R0.25
X19.89 Y-20.225 Z-26.541 R0.25
X20.11 Y-19.775 Z-26.68 R0.25
X19.89 Y-20.225 Z-26.818 R0.25
X20.11 Y-19.775 Z-26.957 R0.25
X19.89 Y-20.225 Z-27.095 R0.25
X20.11 Y-19.775 Z-27.234 R0.25
X19.89 Y-20.225 Z-27.372 R0.25
X20.11 Y-19.775 Z-27.511 R0.25
X19.89 Y-20.225 Z-27.649 R0.25
X20.11 Y-19.775 Z-27.788 R0.25
X19.89 Y-20.225 Z-27.926 R0.25
X20.11 Y-19.775 Z-28.064 R0.25
X19.89 Y-20.225 Z-28.203 R0.25
X20.11 Y-19.775 Z-28.341 R0.25
X19.89 Y-20.225 Z-28.48 R0.25
X20. Y-20.25 Z-28.5 R0.25
Y-19.75 R0.25
Y-20.25 R0.25
G1 Y-20. Z-28.475
G0 Z2.
X20.11 Y-59.775
Z-10.5
G1 Z-12. F466.
G3 X19.89 Y-60.225 Z-12.138 R0.25
X20.11 Y-59.775 Z-12.277 R0.25
X19.89 Y-60.225 Z-12.415 R0.25
X20.11 Y-59.775 Z-12.554 R0.25
X19.89 Y-60.225 Z-12.692 R0.25
X20.11 Y-59.775 Z-12.831 R0.25
X19.89 Y-60.225 Z-12.969 R0.25
X20.11 Y-59.775 Z-13.108 R0.25
X19.89 Y-60.225 Z-13.246 R0.25
X20.11 Y-59.775 Z-13.385 R0.25
X19.89 Y-60.225 Z-13.523 R0.25
X20.11 Y-59.775 Z-13.662 R0.25
X19.89 Y-60.225 Z-13.8 R0.25
X20.11 Y-59.775 Z-13.939 R0.25
X19.89 Y-60.225 Z-14.077 R0.25
X20.11 Y-59.775 Z-14.216 R0.25
X19.89 Y-60.225 Z-14.354 R0.25
X20.11 Y-59.775 Z-14.493 R0.25
X19.89 Y-60.225 Z-14.631 R0.25
X20.11 Y-59.775 Z-14.77 R0.25
X19.89 Y-60.225 Z-14.908 R0.25
X20.11 Y-59.775 Z-15.047 R0.25
X19.89 Y-60.225 Z-15.185 R0.25
X20.11 Y-59.775 Z-15.324 R0.25
X19.89 Y-60.225 Z-15.462 R0.25
X20.11 Y-59.775 Z-15.601 R0.25
X19.89 Y-60.225 Z-15.739 R0.25
X20.11 Y-59.775 Z-15.878 R0.25
X19.89 Y-60.225 Z-16.016 R0.25
X20.11 Y-59.775 Z-16.155 R0.25
X19.89 Y-60.225 Z-16.293 R0.25
X20.11 Y-59.775 Z-16.432 R0.25
X19.89 Y-60.225 Z-16.57 R0.25
X20.11 Y-59.775 Z-16.709 R0.25
X19.89 Y-60.225 Z-16.847 R0.25
X20.11 Y-59.775 Z-16.986 R0.25
X19.89 Y-60.225 Z-17.124 R0.25
X20.11 Y-59.775 Z-17.263 R0.25
X19.89 Y-60.225 Z-17.401 R0.25
X20.11 Y-59.775 Z-17.539 R0.25
X19.89 Y-60.225 Z-17.678 R0.25
X20.11 Y-59.775 Z-17.816 R0.25
X19.89 Y-60.225 Z-17.955 R0.25
X20.11 Y-59.775 Z-18.093 R0.25
X19.89 Y-60.225 Z-18.232 R0.25
X20.11 Y-59.775 Z-18.37 R0.25
X19.89 Y-60.225 Z-18.509 R0.25
X20.11 Y-59.775 Z-18.647 R0.25
X19.89 Y-60.225 Z-18.786 R0.25
X20.11 Y-59.775 Z-18.924 R0.25
X19.89 Y-60.225 Z-19.063 R0.25
X20.11 Y-59.775 Z-19.201 R0.25
X19.89 Y-60.225 Z-19.34 R0.25
X20.11 Y-59.775 Z-19.478 R0.25
X19.89 Y-60.225 Z-19.617 R0.25
X20.11 Y-59.775 Z-19.755 R0.25
X19.89 Y-60.225 Z-19.894 R0.25
X20.11 Y-59.775 Z-20.032 R0.25
X19.89 Y-60.225 Z-20.171 R0.25
X20.11 Y-59.775 Z-20.309 R0.25
X19.89 Y-60.225 Z-20.448 R0.25
X20.11 Y-59.775 Z-20.586 R0.25
X19.89 Y-60.225 Z-20.725 R0.25
X20.11 Y-59.775 Z-20.863 R0.25
X19.89 Y-60.225 Z-21.002 R0.25
X20.11 Y-59.775 Z-21.14 R0.25
X19.89 Y-60.225 Z-21.279 R0.25
X20.11 Y-59.775 Z-21.417 R0.25
X19.89 Y-60.225 Z-21.556 R0.25
X20.11 Y-59.775 Z-21.694 R0.25
X19.89 Y-60.225 Z-21.833 R0.25
X20.11 Y-59.775 Z-21.971 R0.25
X19.89 Y-60.225 Z-22.11 R0.25
X20.11 Y-59.775 Z-22.248 R0.25
X19.89 Y-60.225 Z-22.387 R0.25
X20.11 Y-59.775 Z-22.525 R0.25
X19.89 Y-60.225 Z-22.663 R0.25
X20.11 Y-59.775 Z-22.802 R0.25
X19.89 Y-60.225 Z-22.94 R0.25
X20.11 Y-59.775 Z-23.079 R0.25
X19.89 Y-60.225 Z-23.217 R0.25
X20.11 Y-59.775 Z-23.356 R0.25
X19.89 Y-60.225 Z-23.494 R0.25
X20.11 Y-59.775 Z-23.633 R0.25
X19.89 Y-60.225 Z-23.771 R0.25
X20.11 Y-59.775 Z-23.91 R0.25
X19.89 Y-60.225 Z-24.048 R0.25
X20.11 Y-59.775 Z-24.187 R0.25
X19.89 Y-60.225 Z-24.325 R0.25
X20.11 Y-59.775 Z-24.464 R0.25
X19.89 Y-60.225 Z-24.602 R0.25
X20.11 Y-59.775 Z-24.741 R0.25
X19.89 Y-60.225 Z-24.879 R0.25
X20.11 Y-59.775 Z-25.018 R0.25
X19.89 Y-60.225 Z-25.156 R0.25
X20.11 Y-59.775 Z-25.295 R0.25
X19.89 Y-60.225 Z-25.433 R0.25
X20.11 Y-59.775 Z-25.572 R0.25
X19.89 Y-60.225 Z-25.71 R0.25
X20.11 Y-59.775 Z-25.849 R0.25
X19.89 Y-60.225 Z-25.987 R0.25
X20.11 Y-59.775 Z-26.126 R0.25
X19.89 Y-60.225 Z-26.264 R0.25
X20.11 Y-59.775 Z-26.403 R0.25
X19.89 Y-60.225 Z-26.541 R0.25
X20.11 Y-59.775 Z-26.68 R0.25
X19.89 Y-60.225 Z-26.818 R0.25
X20.11 Y-59.775 Z-26.957 R0.25
X19.89 Y-60.225 Z-27.095 R0.25
X20.11 Y-59.775 Z-27.234 R0.25
X19.89 Y-60.225 Z-27.372 R0.25
X20.11 Y-59.775 Z-27.511 R0.25
X19.89 Y-60.225 Z-27.649 R0.25
X20.11 Y-59.775 Z-27.788 R0.25
X19.89 Y-60.225 Z-27.926 R0.25
X20.11 Y-59.775 Z-28.064 R0.25
X19.89 Y-60.225 Z-28.203 R0.25
X20.11 Y-59.775 Z-28.341 R0.25
X19.89 Y-60.225 Z-28.48 R0.25
X20. Y-60.25 Z-28.5 R0.25
Y-59.75 R0.25
Y-60.25 R0.25
G1 Y-60. Z-28.475
G0 Z2.
X-20.246 Y-60.047
Z-10.5
G1 Z-12. F466.
G3 X-19.754 Y-59.953 Z-12.138 R0.25
X-20.246 Y-60.047 Z-12.277 R0.25
X-19.754 Y-59.953 Z-12.415 R0.25
X-20.246 Y-60.047 Z-12.554 R0.25
X-19.754 Y-59.953 Z-12.692 R0.25
X-20.246 Y-60.047 Z-12.831 R0.25
X-19.754 Y-59.953 Z-12.969 R0.25
X-20.246 Y-60.047 Z-13.108 R0.25
X-19.754 Y-59.953 Z-13.246 R0.25
X-20.246 Y-60.047 Z-13.385 R0.25
X-19.754 Y-59.953 Z-13.523 R0.25
X-20.246 Y-60.047 Z-13.662 R0.25
X-19.754 Y-59.953 Z-13.8 R0.25
X-20.246 Y-60.047 Z-13.939 R0.25
X-19.754 Y-59.953 Z-14.077 R0.25
X-20.246 Y-60.047 Z-14.216 R0.25
X-19.754 Y-59.953 Z-14.354 R0.25
X-20.246 Y-60.047 Z-14.493 R0.25
X-19.754 Y-59.953 Z-14.631 R0.25
X-20.246 Y-60.047 Z-14.77 R0.25
X-19.754 Y-59.953 Z-14.908 R0.25
X-20.246 Y-60.047 Z-15.047 R0.25
X-19.754 Y-59.953 Z-15.185 R0.25
X-20.246 Y-60.047 Z-15.324 R0.25
X-19.754 Y-59.953 Z-15.462 R0.25
X-20.246 Y-60.047 Z-15.601 R0.25
X-19.754 Y-59.953 Z-15.739 R0.25
X-20.246 Y-60.047 Z-15.878 R0.25
X-19.754 Y-59.953 Z-16.016 R0.25
X-20.246 Y-60.047 Z-16.155 R0.25
X-19.754 Y-59.953 Z-16.293 R0.25
X-20.246 Y-60.047 Z-16.432 R0.25
X-19.754 Y-59.953 Z-16.57 R0.25
X-20.246 Y-60.047 Z-16.709 R0.25
X-19.754 Y-59.953 Z-16.847 R0.25
X-20.246 Y-60.047 Z-16.986 R0.25
X-19.754 Y-59.953 Z-17.124 R0.25
X-20.246 Y-60.047 Z-17.263 R0.25
X-19.754 Y-59.953 Z-17.401 R0.25
X-20.246 Y-60.047 Z-17.539 R0.25
X-19.754 Y-59.953 Z-17.678 R0.25
X-20.246 Y-60.047 Z-17.816 R0.25
X-19.754 Y-59.953 Z-17.955 R0.25
X-20.246 Y-60.047 Z-18.093 R0.25
X-19.754 Y-59.953 Z-18.232 R0.25
X-20.246 Y-60.047 Z-18.37 R0.25
X-19.754 Y-59.953 Z-18.509 R0.25
X-20.246 Y-60.047 Z-18.647 R0.25
X-19.754 Y-59.953 Z-18.786 R0.25
X-20.246 Y-60.047 Z-18.924 R0.25
X-19.754 Y-59.953 Z-19.063 R0.25
X-20.246 Y-60.047 Z-19.201 R0.25
X-19.754 Y-59.953 Z-19.34 R0.25
X-20.246 Y-60.047 Z-19.478 R0.25
X-19.754 Y-59.953 Z-19.617 R0.25
X-20.246 Y-60.047 Z-19.755 R0.25
X-19.754 Y-59.953 Z-19.894 R0.25
X-20.246 Y-60.047 Z-20.032 R0.25
X-19.754 Y-59.953 Z-20.171 R0.25
X-20.246 Y-60.047 Z-20.309 R0.25
X-19.754 Y-59.953 Z-20.448 R0.25
X-20.246 Y-60.047 Z-20.586 R0.25
X-19.754 Y-59.953 Z-20.725 R0.25
X-20.246 Y-60.047 Z-20.863 R0.25
X-19.754 Y-59.953 Z-21.002 R0.25
X-20.246 Y-60.047 Z-21.14 R0.25
X-19.754 Y-59.953 Z-21.279 R0.25
X-20.246 Y-60.047 Z-21.417 R0.25
X-19.754 Y-59.953 Z-21.556 R0.25
X-20.246 Y-60.047 Z-21.694 R0.25
X-19.754 Y-59.953 Z-21.833 R0.25
X-20.246 Y-60.047 Z-21.971 R0.25
X-19.754 Y-59.953 Z-22.11 R0.25
X-20.246 Y-60.047 Z-22.248 R0.25
X-19.754 Y-59.953 Z-22.387 R0.25
X-20.246 Y-60.047 Z-22.525 R0.25
X-19.754 Y-59.953 Z-22.663 R0.25
X-20.246 Y-60.047 Z-22.802 R0.25
X-19.754 Y-59.953 Z-22.94 R0.25
X-20.246 Y-60.047 Z-23.079 R0.25
X-19.754 Y-59.953 Z-23.217 R0.25
X-20.246 Y-60.047 Z-23.356 R0.25
X-19.754 Y-59.953 Z-23.494 R0.25
X-20.246 Y-60.047 Z-23.633 R0.25
X-19.754 Y-59.953 Z-23.771 R0.25
X-20.246 Y-60.047 Z-23.91 R0.25
X-19.754 Y-59.953 Z-24.048 R0.25
X-20.246 Y-60.047 Z-24.187 R0.25
X-19.754 Y-59.953 Z-24.325 R0.25
X-20.246 Y-60.047 Z-24.464 R0.25
X-19.754 Y-59.953 Z-24.602 R0.25
X-20.246 Y-60.047 Z-24.741 R0.25
X-19.754 Y-59.953 Z-24.879 R0.25
X-20.246 Y-60.047 Z-25.018 R0.25
X-19.754 Y-59.953 Z-25.156 R0.25
X-20.246 Y-60.047 Z-25.295 R0.25
X-19.754 Y-59.953 Z-25.433 R0.25
X-20.246 Y-60.047 Z-25.572 R0.25
X-19.754 Y-59.953 Z-25.71 R0.25
X-20.246 Y-60.047 Z-25.849 R0.25
X-19.754 Y-59.953 Z-25.987 R0.25
X-20.246 Y-60.047 Z-26.126 R0.25
X-19.754 Y-59.953 Z-26.264 R0.25
X-20.246 Y-60.047 Z-26.403 R0.25
X-19.754 Y-59.953 Z-26.541 R0.25
X-20.246 Y-60.047 Z-26.68 R0.25
X-19.754 Y-59.953 Z-26.818 R0.25
X-20.246 Y-60.047 Z-26.957 R0.25
X-19.754 Y-59.953 Z-27.095 R0.25
X-20.246 Y-60.047 Z-27.234 R0.25
X-19.754 Y-59.953 Z-27.372 R0.25
X-20.246 Y-60.047 Z-27.511 R0.25
X-19.754 Y-59.953 Z-27.649 R0.25
X-20.246 Y-60.047 Z-27.788 R0.25
X-19.754 Y-59.953 Z-27.926 R0.25
X-20.246 Y-60.047 Z-28.064 R0.25
X-19.754 Y-59.953 Z-28.203 R0.25
X-20.246 Y-60.047 Z-28.341 R0.25
X-19.754 Y-59.953 Z-28.48 R0.25
X-19.8 Y-59.85 Z-28.5 R0.25
X-20.2 Y-60.15 R0.25
X-19.8 Y-59.85 R0.25
G1 X-20. Y-60. Z-28.475
G0 Z2.
X-20.246 Y-20.047
Z-10.5
G1 Z-12. F466.
G3 X-19.754 Y-19.953 Z-12.138 R0.25
X-20.246 Y-20.047 Z-12.277 R0.25
X-19.754 Y-19.953 Z-12.415 R0.25
X-20.246 Y-20.047 Z-12.554 R0.25
X-19.754 Y-19.953 Z-12.692 R0.25
X-20.246 Y-20.047 Z-12.831 R0.25
X-19.754 Y-19.953 Z-12.969 R0.25
X-20.246 Y-20.047 Z-13.108 R0.25
X-19.754 Y-19.953 Z-13.246 R0.25
X-20.246 Y-20.047 Z-13.385 R0.25
X-19.754 Y-19.953 Z-13.523 R0.25
X-20.246 Y-20.047 Z-13.662 R0.25
X-19.754 Y-19.953 Z-13.8 R0.25
X-20.246 Y-20.047 Z-13.939 R0.25
X-19.754 Y-19.953 Z-14.077 R0.25
X-20.246 Y-20.047 Z-14.216 R0.25
X-19.754 Y-19.953 Z-14.354 R0.25
X-20.246 Y-20.047 Z-14.493 R0.25
X-19.754 Y-19.953 Z-14.631 R0.25
X-20.246 Y-20.047 Z-14.77 R0.25
X-19.754 Y-19.953 Z-14.908 R0.25
X-20.246 Y-20.047 Z-15.047 R0.25
X-19.754 Y-19.953 Z-15.185 R0.25
X-20.246 Y-20.047 Z-15.324 R0.25
X-19.754 Y-19.953 Z-15.462 R0.25
X-20.246 Y-20.047 Z-15.601 R0.25
X-19.754 Y-19.953 Z-15.739 R0.25
X-20.246 Y-20.047 Z-15.878 R0.25
X-19.754 Y-19.953 Z-16.016 R0.25
X-20.246 Y-20.047 Z-16.155 R0.25
X-19.754 Y-19.953 Z-16.293 R0.25
X-20.246 Y-20.047 Z-16.432 R0.25
X-19.754 Y-19.953 Z-16.57 R0.25
X-20.246 Y-20.047 Z-16.709 R0.25
X-19.754 Y-19.953 Z-16.847 R0.25
X-20.246 Y-20.047 Z-16.986 R0.25
X-19.754 Y-19.953 Z-17.124 R0.25
X-20.246 Y-20.047 Z-17.263 R0.25
X-19.754 Y-19.953 Z-17.401 R0.25
X-20.246 Y-20.047 Z-17.539 R0.25
X-19.754 Y-19.953 Z-17.678 R0.25
X-20.246 Y-20.047 Z-17.816 R0.25
X-19.754 Y-19.953 Z-17.955 R0.25
X-20.246 Y-20.047 Z-18.093 R0.25
X-19.754 Y-19.953 Z-18.232 R0.25
X-20.246 Y-20.047 Z-18.37 R0.25
X-19.754 Y-19.953 Z-18.509 R0.25
X-20.246 Y-20.047 Z-18.647 R0.25
X-19.754 Y-19.953 Z-18.786 R0.25
X-20.246 Y-20.047 Z-18.924 R0.25
X-19.754 Y-19.953 Z-19.063 R0.25
X-20.246 Y-20.047 Z-19.201 R0.25
X-19.754 Y-19.953 Z-19.34 R0.25
X-20.246 Y-20.047 Z-19.478 R0.25
X-19.754 Y-19.953 Z-19.617 R0.25
X-20.246 Y-20.047 Z-19.755 R0.25
X-19.754 Y-19.953 Z-19.894 R0.25
X-20.246 Y-20.047 Z-20.032 R0.25
X-19.754 Y-19.953 Z-20.171 R0.25
X-20.246 Y-20.047 Z-20.309 R0.25
X-19.754 Y-19.953 Z-20.448 R0.25
X-20.246 Y-20.047 Z-20.586 R0.25
X-19.754 Y-19.953 Z-20.725 R0.25
X-20.246 Y-20.047 Z-20.863 R0.25
X-19.754 Y-19.953 Z-21.002 R0.25
X-20.246 Y-20.047 Z-21.14 R0.25
X-19.754 Y-19.953 Z-21.279 R0.25
X-20.246 Y-20.047 Z-21.417 R0.25
X-19.754 Y-19.953 Z-21.556 R0.25
X-20.246 Y-20.047 Z-21.694 R0.25
X-19.754 Y-19.953 Z-21.833 R0.25
X-20.246 Y-20.047 Z-21.971 R0.25
X-19.754 Y-19.953 Z-22.11 R0.25
X-20.246 Y-20.047 Z-22.248 R0.25
X-19.754 Y-19.953 Z-22.387 R0.25
X-20.246 Y-20.047 Z-22.525 R0.25
X-19.754 Y-19.953 Z-22.663 R0.25
X-20.246 Y-20.047 Z-22.802 R0.25
X-19.754 Y-19.953 Z-22.94 R0.25
X-20.246 Y-20.047 Z-23.079 R0.25
X-19.754 Y-19.953 Z-23.217 R0.25
X-20.246 Y-20.047 Z-23.356 R0.25
X-19.754 Y-19.953 Z-23.494 R0.25
X-20.246 Y-20.047 Z-23.633 R0.25
X-19.754 Y-19.953 Z-23.771 R0.25
X-20.246 Y-20.047 Z-23.91 R0.25
X-19.754 Y-19.953 Z-24.048 R0.25
X-20.246 Y-20.047 Z-24.187 R0.25
X-19.754 Y-19.953 Z-24.325 R0.25
X-20.246 Y-20.047 Z-24.464 R0.25
X-19.754 Y-19.953 Z-24.602 R0.25
X-20.246 Y-20.047 Z-24.741 R0.25
X-19.754 Y-19.953 Z-24.879 R0.25
X-20.246 Y-20.047 Z-25.018 R0.25
X-19.754 Y-19.953 Z-25.156 R0.25
X-20.246 Y-20.047 Z-25.295 R0.25
X-19.754 Y-19.953 Z-25.433 R0.25
X-20.246 Y-20.047 Z-25.572 R0.25
X-19.754 Y-19.953 Z-25.71 R0.25
X-20.246 Y-20.047 Z-25.849 R0.25
X-19.754 Y-19.953 Z-25.987 R0.25
X-20.246 Y-20.047 Z-26.126 R0.25
X-19.754 Y-19.953 Z-26.264 R0.25
X-20.246 Y-20.047 Z-26.403 R0.25
X-19.754 Y-19.953 Z-26.541 R0.25
X-20.246 Y-20.047 Z-26.68 R0.25
X-19.754 Y-19.953 Z-26.818 R0.25
X-20.246 Y-20.047 Z-26.957 R0.25
X-19.754 Y-19.953 Z-27.095 R0.25
X-20.246 Y-20.047 Z-27.234 R0.25
X-19.754 Y-19.953 Z-27.372 R0.25
X-20.246 Y-20.047 Z-27.511 R0.25
X-19.754 Y-19.953 Z-27.649 R0.25
X-20.246 Y-20.047 Z-27.788 R0.25
X-19.754 Y-19.953 Z-27.926 R0.25
X-20.246 Y-20.047 Z-28.064 R0.25
X-19.754 Y-19.953 Z-28.203 R0.25
X-20.246 Y-20.047 Z-28.341 R0.25
X-19.754 Y-19.953 Z-28.48 R0.25
X-19.8 Y-19.85 Z-28.5 R0.25
X-20.2 Y-20.15 R0.25
X-19.8 Y-19.85 R0.25
G1 X-20. Y-20. Z-28.475
G0 Z2.
X-20.246 Y19.953
Z-10.5
G1 Z-12. F466.
G3 X-19.754 Y20.047 Z-12.138 R0.25
X-20.246 Y19.953 Z-12.277 R0.25
X-19.754 Y20.047 Z-12.415 R0.25
X-20.246 Y19.953 Z-12.554 R0.25
X-19.754 Y20.047 Z-12.692 R0.25
X-20.246 Y19.953 Z-12.831 R0.25
X-19.754 Y20.047 Z-12.969 R0.25
X-20.246 Y19.953 Z-13.108 R0.25
X-19.754 Y20.047 Z-13.246 R0.25
X-20.246 Y19.953 Z-13.385 R0.25
X-19.754 Y20.047 Z-13.523 R0.25
X-20.246 Y19.953 Z-13.662 R0.25
X-19.754 Y20.047 Z-13.8 R0.25
X-20.246 Y19.953 Z-13.939 R0.25
X-19.754 Y20.047 Z-14.077 R0.25
X-20.246 Y19.953 Z-14.216 R0.25
X-19.754 Y20.047 Z-14.354 R0.25
X-20.246 Y19.953 Z-14.493 R0.25
X-19.754 Y20.047 Z-14.631 R0.25
X-20.246 Y19.953 Z-14.77 R0.25
X-19.754 Y20.047 Z-14.908 R0.25
X-20.246 Y19.953 Z-15.047 R0.25
X-19.754 Y20.047 Z-15.185 R0.25
X-20.246 Y19.953 Z-15.324 R0.25
X-19.754 Y20.047 Z-15.462 R0.25
X-20.246 Y19.953 Z-15.601 R0.25
X-19.754 Y20.047 Z-15.739 R0.25
X-20.246 Y19.953 Z-15.878 R0.25
X-19.754 Y20.047 Z-16.016 R0.25
X-20.246 Y19.953 Z-16.155 R0.25
X-19.754 Y20.047 Z-16.293 R0.25
X-20.246 Y19.953 Z-16.432 R0.25
X-19.754 Y20.047 Z-16.57 R0.25
X-20.246 Y19.953 Z-16.709 R0.25
X-19.754 Y20.047 Z-16.847 R0.25
X-20.246 Y19.953 Z-16.986 R0.25
X-19.754 Y20.047 Z-17.124 R0.25
X-20.246 Y19.953 Z-17.263 R0.25
X-19.754 Y20.047 Z-17.401 R0.25
X-20.246 Y19.953 Z-17.539 R0.25
X-19.754 Y20.047 Z-17.678 R0.25
X-20.246 Y19.953 Z-17.816 R0.25
X-19.754 Y20.047 Z-17.955 R0.25
X-20.246 Y19.953 Z-18.093 R0.25
X-19.754 Y20.047 Z-18.232 R0.25
X-20.246 Y19.953 Z-18.37 R0.25
X-19.754 Y20.047 Z-18.509 R0.25
X-20.246 Y19.953 Z-18.647 R0.25
X-19.754 Y20.047 Z-18.786 R0.25
X-20.246 Y19.953 Z-18.924 R0.25
X-19.754 Y20.047 Z-19.063 R0.25
X-20.246 Y19.953 Z-19.201 R0.25
X-19.754 Y20.047 Z-19.34 R0.25
X-20.246 Y19.953 Z-19.478 R0.25
X-19.754 Y20.047 Z-19.617 R0.25
X-20.246 Y19.953 Z-19.755 R0.25
X-19.754 Y20.047 Z-19.894 R0.25
X-20.246 Y19.953 Z-20.032 R0.25
X-19.754 Y20.047 Z-20.171 R0.25
X-20.246 Y19.953 Z-20.309 R0.25
X-19.754 Y20.047 Z-20.448 R0.25
X-20.246 Y19.953 Z-20.586 R0.25
X-19.754 Y20.047 Z-20.725 R0.25
X-20.246 Y19.953 Z-20.863 R0.25
X-19.754 Y20.047 Z-21.002 R0.25
X-20.246 Y19.953 Z-21.14 R0.25
X-19.754 Y20.047 Z-21.279 R0.25
X-20.246 Y19.953 Z-21.417 R0.25
X-19.754 Y20.047 Z-21.556 R0.25
X-20.246 Y19.953 Z-21.694 R0.25
X-19.754 Y20.047 Z-21.833 R0.25
X-20.246 Y19.953 Z-21.971 R0.25
X-19.754 Y20.047 Z-22.11 R0.25
X-20.246 Y19.953 Z-22.248 R0.25
X-19.754 Y20.047 Z-22.387 R0.25
X-20.246 Y19.953 Z-22.525 R0.25
X-19.754 Y20.047 Z-22.663 R0.25
X-20.246 Y19.953 Z-22.802 R0.25
X-19.754 Y20.047 Z-22.94 R0.25
X-20.246 Y19.953 Z-23.079 R0.25
X-19.754 Y20.047 Z-23.217 R0.25
X-20.246 Y19.953 Z-23.356 R0.25
X-19.754 Y20.047 Z-23.494 R0.25
X-20.246 Y19.953 Z-23.633 R0.25
X-19.754 Y20.047 Z-23.771 R0.25
X-20.246 Y19.953 Z-23.91 R0.25
X-19.754 Y20.047 Z-24.048 R0.25
X-20.246 Y19.953 Z-24.187 R0.25
X-19.754 Y20.047 Z-24.325 R0.25
X-20.246 Y19.953 Z-24.464 R0.25
X-19.754 Y20.047 Z-24.602 R0.25
X-20.246 Y19.953 Z-24.741 R0.25
X-19.754 Y20.047 Z-24.879 R0.25
X-20.246 Y19.953 Z-25.018 R0.25
X-19.754 Y20.047 Z-25.156 R0.25
X-20.246 Y19.953 Z-25.295 R0.25
X-19.754 Y20.047 Z-25.433 R0.25
X-20.246 Y19.953 Z-25.572 R0.25
X-19.754 Y20.047 Z-25.71 R0.25
X-20.246 Y19.953 Z-25.849 R0.25
X-19.754 Y20.047 Z-25.987 R0.25
X-20.246 Y19.953 Z-26.126 R0.25
X-19.754 Y20.047 Z-26.264 R0.25
X-20.246 Y19.953 Z-26.403 R0.25
X-19.754 Y20.047 Z-26.541 R0.25
X-20.246 Y19.953 Z-26.68 R0.25
X-19.754 Y20.047 Z-26.818 R0.25
X-20.246 Y19.953 Z-26.957 R0.25
X-19.754 Y20.047 Z-27.095 R0.25
X-20.246 Y19.953 Z-27.234 R0.25
X-19.754 Y20.047 Z-27.372 R0.25
X-20.246 Y19.953 Z-27.511 R0.25
X-19.754 Y20.047 Z-27.649 R0.25
X-20.246 Y19.953 Z-27.788 R0.25
X-19.754 Y20.047 Z-27.926 R0.25
X-20.246 Y19.953 Z-28.064 R0.25
X-19.754 Y20.047 Z-28.203 R0.25
X-20.246 Y19.953 Z-28.341 R0.25
X-19.754 Y20.047 Z-28.48 R0.25
X-19.8 Y20.15 Z-28.5 R0.25
X-20.2 Y19.85 R0.25
X-19.8 Y20.15 R0.25
G1 X-20. Y20. Z-28.475
G0 Z2.
X19.754 Y19.953
Z-10.5
G1 Z-12. F466.
G3 X20.246 Y20.047 Z-12.138 R0.25
X19.754 Y19.953 Z-12.277 R0.25
X20.246 Y20.047 Z-12.415 R0.25
X19.754 Y19.953 Z-12.554 R0.25
X20.246 Y20.047 Z-12.692 R0.25
X19.754 Y19.953 Z-12.831 R0.25
X20.246 Y20.047 Z-12.969 R0.25
X19.754 Y19.953 Z-13.108 R0.25
X20.246 Y20.047 Z-13.246 R0.25
X19.754 Y19.953 Z-13.385 R0.25
X20.246 Y20.047 Z-13.523 R0.25
X19.754 Y19.953 Z-13.662 R0.25
X20.246 Y20.047 Z-13.8 R0.25
X19.754 Y19.953 Z-13.939 R0.25
X20.246 Y20.047 Z-14.077 R0.25
X19.754 Y19.953 Z-14.216 R0.25
X20.246 Y20.047 Z-14.354 R0.25
X19.754 Y19.953 Z-14.493 R0.25
X20.246 Y20.047 Z-14.631 R0.25
X19.754 Y19.953 Z-14.77 R0.25
X20.246 Y20.047 Z-14.908 R0.25
X19.754 Y19.953 Z-15.047 R0.25
X20.246 Y20.047 Z-15.185 R0.25
X19.754 Y19.953 Z-15.324 R0.25
X20.246 Y20.047 Z-15.462 R0.25
X19.754 Y19.953 Z-15.601 R0.25
X20.246 Y20.047 Z-15.739 R0.25
X19.754 Y19.953 Z-15.878 R0.25
X20.246 Y20.047 Z-16.016 R0.25
X19.754 Y19.953 Z-16.155 R0.25
X20.246 Y20.047 Z-16.293 R0.25
X19.754 Y19.953 Z-16.432 R0.25
X20.246 Y20.047 Z-16.57 R0.25
X19.754 Y19.953 Z-16.709 R0.25
X20.246 Y20.047 Z-16.847 R0.25
X19.754 Y19.953 Z-16.986 R0.25
X20.246 Y20.047 Z-17.124 R0.25
X19.754 Y19.953 Z-17.263 R0.25
X20.246 Y20.047 Z-17.401 R0.25
X19.754 Y19.953 Z-17.539 R0.25
X20.246 Y20.047 Z-17.678 R0.25
X19.754 Y19.953 Z-17.816 R0.25
X20.246 Y20.047 Z-17.955 R0.25
X19.754 Y19.953 Z-18.093 R0.25
X20.246 Y20.047 Z-18.232 R0.25
X19.754 Y19.953 Z-18.37 R0.25
X20.246 Y20.047 Z-18.509 R0.25
X19.754 Y19.953 Z-18.647 R0.25
X20.246 Y20.047 Z-18.786 R0.25
X19.754 Y19.953 Z-18.924 R0.25
X20.246 Y20.047 Z-19.063 R0.25
X19.754 Y19.953 Z-19.201 R0.25
X20.246 Y20.047 Z-19.34 R0.25
X19.754 Y19.953 Z-19.478 R0.25
X20.246 Y20.047 Z-19.617 R0.25
X19.754 Y19.953 Z-19.755 R0.25
X20.246 Y20.047 Z-19.894 R0.25
X19.754 Y19.953 Z-20.032 R0.25
X20.246 Y20.047 Z-20.171 R0.25
X19.754 Y19.953 Z-20.309 R0.25
X20.246 Y20.047 Z-20.448 R0.25
X19.754 Y19.953 Z-20.586 R0.25
X20.246 Y20.047 Z-20.725 R0.25
X19.754 Y19.953 Z-20.863 R0.25
X20.246 Y20.047 Z-21.002 R0.25
X19.754 Y19.953 Z-21.14 R0.25
X20.246 Y20.047 Z-21.279 R0.25
X19.754 Y19.953 Z-21.417 R0.25
X20.246 Y20.047 Z-21.556 R0.25
X19.754 Y19.953 Z-21.694 R0.25
X20.246 Y20.047 Z-21.833 R0.25
X19.754 Y19.953 Z-21.971 R0.25
X20.246 Y20.047 Z-22.11 R0.25
X19.754 Y19.953 Z-22.248 R0.25
X20.246 Y20.047 Z-22.387 R0.25
X19.754 Y19.953 Z-22.525 R0.25
X20.246 Y20.047 Z-22.663 R0.25
X19.754 Y19.953 Z-22.802 R0.25
X20.246 Y20.047 Z-22.94 R0.25
X19.754 Y19.953 Z-23.079 R0.25
X20.246 Y20.047 Z-23.217 R0.25
X19.754 Y19.953 Z-23.356 R0.25
X20.246 Y20.047 Z-23.494 R0.25
X19.754 Y19.953 Z-23.633 R0.25
X20.246 Y20.047 Z-23.771 R0.25
X19.754 Y19.953 Z-23.91 R0.25
X20.246 Y20.047 Z-24.048 R0.25
X19.754 Y19.953 Z-24.187 R0.25
X20.246 Y20.047 Z-24.325 R0.25
X19.754 Y19.953 Z-24.464 R0.25
X20.246 Y20.047 Z-24.602 R0.25
X19.754 Y19.953 Z-24.741 R0.25
X20.246 Y20.047 Z-24.879 R0.25
X19.754 Y19.953 Z-25.018 R0.25
X20.246 Y20.047 Z-25.156 R0.25
X19.754 Y19.953 Z-25.295 R0.25
X20.246 Y20.047 Z-25.433 R0.25
X19.754 Y19.953 Z-25.572 R0.25
X20.246 Y20.047 Z-25.71 R0.25
X19.754 Y19.953 Z-25.849 R0.25
X20.246 Y20.047 Z-25.987 R0.25
X19.754 Y19.953 Z-26.126 R0.25
X20.246 Y20.047 Z-26.264 R0.25
X19.754 Y19.953 Z-26.403 R0.25
X20.246 Y20.047 Z-26.541 R0.25
X19.754 Y19.953 Z-26.68 R0.25
X20.246 Y20.047 Z-26.818 R0.25
X19.754 Y19.953 Z-26.957 R0.25
X20.246 Y20.047 Z-27.095 R0.25
X19.754 Y19.953 Z-27.234 R0.25
X20.246 Y20.047 Z-27.372 R0.25
X19.754 Y19.953 Z-27.511 R0.25
X20.246 Y20.047 Z-27.649 R0.25
X19.754 Y19.953 Z-27.788 R0.25
X20.246 Y20.047 Z-27.926 R0.25
X19.754 Y19.953 Z-28.064 R0.25
X20.246 Y20.047 Z-28.203 R0.25
X19.754 Y19.953 Z-28.341 R0.25
X20.246 Y20.047 Z-28.48 R0.25
X20.2 Y20.15 Z-28.5 R0.25
X19.8 Y19.85 R0.25
X20.2 Y20.15 R0.25
G1 X20. Y20. Z-28.475
G0 Z2.
X19.754 Y59.953
Z-10.5
G1 Z-12. F466.
G3 X20.246 Y60.047 Z-12.138 R0.25
X19.754 Y59.953 Z-12.277 R0.25
X20.246 Y60.047 Z-12.415 R0.25
X19.754 Y59.953 Z-12.554 R0.25
X20.246 Y60.047 Z-12.692 R0.25
X19.754 Y59.953 Z-12.831 R0.25
X20.246 Y60.047 Z-12.969 R0.25
X19.754 Y59.953 Z-13.108 R0.25
X20.246 Y60.047 Z-13.246 R0.25
X19.754 Y59.953 Z-13.385 R0.25
X20.246 Y60.047 Z-13.523 R0.25
X19.754 Y59.953 Z-13.662 R0.25
X20.246 Y60.047 Z-13.8 R0.25
X19.754 Y59.953 Z-13.939 R0.25
X20.246 Y60.047 Z-14.077 R0.25
X19.754 Y59.953 Z-14.216 R0.25
X20.246 Y60.047 Z-14.354 R0.25
X19.754 Y59.953 Z-14.493 R0.25
X20.246 Y60.047 Z-14.631 R0.25
X19.754 Y59.953 Z-14.77 R0.25
X20.246 Y60.047 Z-14.908 R0.25
X19.754 Y59.953 Z-15.047 R0.25
X20.246 Y60.047 Z-15.185 R0.25
X19.754 Y59.953 Z-15.324 R0.25
X20.246 Y60.047 Z-15.462 R0.25
X19.754 Y59.953 Z-15.601 R0.25
X20.246 Y60.047 Z-15.739 R0.25
X19.754 Y59.953 Z-15.878 R0.25
X20.246 Y60.047 Z-16.016 R0.25
X19.754 Y59.953 Z-16.155 R0.25
X20.246 Y60.047 Z-16.293 R0.25
X19.754 Y59.953 Z-16.432 R0.25
X20.246 Y60.047 Z-16.57 R0.25
X19.754 Y59.953 Z-16.709 R0.25
X20.246 Y60.047 Z-16.847 R0.25
X19.754 Y59.953 Z-16.986 R0.25
X20.246 Y60.047 Z-17.124 R0.25
X19.754 Y59.953 Z-17.263 R0.25
X20.246 Y60.047 Z-17.401 R0.25
X19.754 Y59.953 Z-17.539 R0.25
X20.246 Y60.047 Z-17.678 R0.25
X19.754 Y59.953 Z-17.816 R0.25
X20.246 Y60.047 Z-17.955 R0.25
X19.754 Y59.953 Z-18.093 R0.25
X20.246 Y60.047 Z-18.232 R0.25
X19.754 Y59.953 Z-18.37 R0.25
X20.246 Y60.047 Z-18.509 R0.25
X19.754 Y59.953 Z-18.647 R0.25
X20.246 Y60.047 Z-18.786 R0.25
X19.754 Y59.953 Z-18.924 R0.25
X20.246 Y60.047 Z-19.063 R0.25
X19.754 Y59.953 Z-19.201 R0.25
X20.246 Y60.047 Z-19.34 R0.25
X19.754 Y59.953 Z-19.478 R0.25
X20.246 Y60.047 Z-19.617 R0.25
X19.754 Y59.953 Z-19.755 R0.25
X20.246 Y60.047 Z-19.894 R0.25
X19.754 Y59.953 Z-20.032 R0.25
X20.246 Y60.047 Z-20.171 R0.25
X19.754 Y59.953 Z-20.309 R0.25
X20.246 Y60.047 Z-20.448 R0.25
X19.754 Y59.953 Z-20.586 R0.25
X20.246 Y60.047 Z-20.725 R0.25
X19.754 Y59.953 Z-20.863 R0.25
X20.246 Y60.047 Z-21.002 R0.25
X19.754 Y59.953 Z-21.14 R0.25
X20.246 Y60.047 Z-21.279 R0.25
X19.754 Y59.953 Z-21.417 R0.25
X20.246 Y60.047 Z-21.556 R0.25
X19.754 Y59.953 Z-21.694 R0.25
X20.246 Y60.047 Z-21.833 R0.25
X19.754 Y59.953 Z-21.971 R0.25
X20.246 Y60.047 Z-22.11 R0.25
X19.754 Y59.953 Z-22.248 R0.25
X20.246 Y60.047 Z-22.387 R0.25
X19.754 Y59.953 Z-22.525 R0.25
X20.246 Y60.047 Z-22.663 R0.25
X19.754 Y59.953 Z-22.802 R0.25
X20.246 Y60.047 Z-22.94 R0.25
X19.754 Y59.953 Z-23.079 R0.25
X20.246 Y60.047 Z-23.217 R0.25
X19.754 Y59.953 Z-23.356 R0.25
X20.246 Y60.047 Z-23.494 R0.25
X19.754 Y59.953 Z-23.633 R0.25
X20.246 Y60.047 Z-23.771 R0.25
X19.754 Y59.953 Z-23.91 R0.25
X20.246 Y60.047 Z-24.048 R0.25
X19.754 Y59.953 Z-24.187 R0.25
X20.246 Y60.047 Z-24.325 R0.25
X19.754 Y59.953 Z-24.464 R0.25
X20.246 Y60.047 Z-24.602 R0.25
X19.754 Y59.953 Z-24.741 R0.25
X20.246 Y60.047 Z-24.879 R0.25
X19.754 Y59.953 Z-25.018 R0.25
X20.246 Y60.047 Z-25.156 R0.25
X19.754 Y59.953 Z-25.295 R0.25
X20.246 Y60.047 Z-25.433 R0.25
X19.754 Y59.953 Z-25.572 R0.25
X20.246 Y60.047 Z-25.71 R0.25
X19.754 Y59.953 Z-25.849 R0.25
X20.246 Y60.047 Z-25.987 R0.25
X19.754 Y59.953 Z-26.126 R0.25
X20.246 Y60.047 Z-26.264 R0.25
X19.754 Y59.953 Z-26.403 R0.25
X20.246 Y60.047 Z-26.541 R0.25
X19.754 Y59.953 Z-26.68 R0.25
X20.246 Y60.047 Z-26.818 R0.25
X19.754 Y59.953 Z-26.957 R0.25
X20.246 Y60.047 Z-27.095 R0.25
X19.754 Y59.953 Z-27.234 R0.25
X20.246 Y60.047 Z-27.372 R0.25
X19.754 Y59.953 Z-27.511 R0.25
X20.246 Y60.047 Z-27.649 R0.25
X19.754 Y59.953 Z-27.788 R0.25
X20.246 Y60.047 Z-27.926 R0.25
X19.754 Y59.953 Z-28.064 R0.25
X20.246 Y60.047 Z-28.203 R0.25
X19.754 Y59.953 Z-28.341 R0.25
X20.246 Y60.047 Z-28.48 R0.25
X20.2 Y60.15 Z-28.5 R0.25
X19.8 Y59.85 R0.25
X20.2 Y60.15 R0.25
G1 X20. Y60. Z-28.475
G0 Z2.
X-19.89 Y60.225
Z-10.5
G1 Z-12. F466.
G3 X-20.11 Y59.775 Z-12.138 R0.25
X-19.89 Y60.225 Z-12.277 R0.25
X-20.11 Y59.775 Z-12.415 R0.25
X-19.89 Y60.225 Z-12.554 R0.25
X-20.11 Y59.775 Z-12.692 R0.25
X-19.89 Y60.225 Z-12.831 R0.25
X-20.11 Y59.775 Z-12.969 R0.25
X-19.89 Y60.225 Z-13.108 R0.25
X-20.11 Y59.775 Z-13.246 R0.25
X-19.89 Y60.225 Z-13.385 R0.25
X-20.11 Y59.775 Z-13.523 R0.25
X-19.89 Y60.225 Z-13.662 R0.25
X-20.11 Y59.775 Z-13.8 R0.25
X-19.89 Y60.225 Z-13.939 R0.25
X-20.11 Y59.775 Z-14.077 R0.25
X-19.89 Y60.225 Z-14.216 R0.25
X-20.11 Y59.775 Z-14.354 R0.25
X-19.89 Y60.225 Z-14.493 R0.25
X-20.11 Y59.775 Z-14.631 R0.25
X-19.89 Y60.225 Z-14.77 R0.25
X-20.11 Y59.775 Z-14.908 R0.25
X-19.89 Y60.225 Z-15.047 R0.25
X-20.11 Y59.775 Z-15.185 R0.25
X-19.89 Y60.225 Z-15.324 R0.25
X-20.11 Y59.775 Z-15.462 R0.25
X-19.89 Y60.225 Z-15.601 R0.25
X-20.11 Y59.775 Z-15.739 R0.25
X-19.89 Y60.225 Z-15.878 R0.25
X-20.11 Y59.775 Z-16.016 R0.25
X-19.89 Y60.225 Z-16.155 R0.25
X-20.11 Y59.775 Z-16.293 R0.25
X-19.89 Y60.225 Z-16.432 R0.25
X-20.11 Y59.775 Z-16.57 R0.25
X-19.89 Y60.225 Z-16.709 R0.25
X-20.11 Y59.775 Z-16.847 R0.25
X-19.89 Y60.225 Z-16.986 R0.25
X-20.11 Y59.775 Z-17.124 R0.25
X-19.89 Y60.225 Z-17.263 R0.25
X-20.11 Y59.775 Z-17.401 R0.25
X-19.89 Y60.225 Z-17.539 R0.25
X-20.11 Y59.775 Z-17.678 R0.25
X-19.89 Y60.225 Z-17.816 R0.25
X-20.11 Y59.775 Z-17.955 R0.25
X-19.89 Y60.225 Z-18.093 R0.25
X-20.11 Y59.775 Z-18.232 R0.25
X-19.89 Y60.225 Z-18.37 R0.25
X-20.11 Y59.775 Z-18.509 R0.25
X-19.89 Y60.225 Z-18.647 R0.25
X-20.11 Y59.775 Z-18.786 R0.25
X-19.89 Y60.225 Z-18.924 R0.25
X-20.11 Y59.775 Z-19.063 R0.25
X-19.89 Y60.225 Z-19.201 R0.25
X-20.11 Y59.775 Z-19.34 R0.25
X-19.89 Y60.225 Z-19.478 R0.25
X-20.11 Y59.775 Z-19.617 R0.25
X-19.89 Y60.225 Z-19.755 R0.25
X-20.11 Y59.775 Z-19.894 R0.25
X-19.89 Y60.225 Z-20.032 R0.25
X-20.11 Y59.775 Z-20.171 R0.25
X-19.89 Y60.225 Z-20.309 R0.25
X-20.11 Y59.775 Z-20.448 R0.25
X-19.89 Y60.225 Z-20.586 R0.25
X-20.11 Y59.775 Z-20.725 R0.25
X-19.89 Y60.225 Z-20.863 R0.25
X-20.11 Y59.775 Z-21.002 R0.25
X-19.89 Y60.225 Z-21.14 R0.25
X-20.11 Y59.775 Z-21.279 R0.25
X-19.89 Y60.225 Z-21.417 R0.25
X-20.11 Y59.775 Z-21.556 R0.25
X-19.89 Y60.225 Z-21.694 R0.25
X-20.11 Y59.775 Z-21.833 R0.25
X-19.89 Y60.225 Z-21.971 R0.25
X-20.11 Y59.775 Z-22.11 R0.25
X-19.89 Y60.225 Z-22.248 R0.25
X-20.11 Y59.775 Z-22.387 R0.25
X-19.89 Y60.225 Z-22.525 R0.25
X-20.11 Y59.775 Z-22.663 R0.25
X-19.89 Y60.225 Z-22.802 R0.25
X-20.11 Y59.775 Z-22.94 R0.25
X-19.89 Y60.225 Z-23.079 R0.25
X-20.11 Y59.775 Z-23.217 R0.25
X-19.89 Y60.225 Z-23.356 R0.25
X-20.11 Y59.775 Z-23.494 R0.25
X-19.89 Y60.225 Z-23.633 R0.25
X-20.11 Y59.775 Z-23.771 R0.25
X-19.89 Y60.225 Z-23.91 R0.25
X-20.11 Y59.775 Z-24.048 R0.25
X-19.89 Y60.225 Z-24.187 R0.25
X-20.11 Y59.775 Z-24.325 R0.25
X-19.89 Y60.225 Z-24.464 R0.25
X-20.11 Y59.775 Z-24.602 R0.25
X-19.89 Y60.225 Z-24.741 R0.25
X-20.11 Y59.775 Z-24.879 R0.25
X-19.89 Y60.225 Z-25.018 R0.25
X-20.11 Y59.775 Z-25.156 R0.25
X-19.89 Y60.225 Z-25.295 R0.25
X-20.11 Y59.775 Z-25.433 R0.25
X-19.89 Y60.225 Z-25.572 R0.25
X-20.11 Y59.775 Z-25.71 R0.25
X-19.89 Y60.225 Z-25.849 R0.25
X-20.11 Y59.775 Z-25.987 R0.25
X-19.89 Y60.225 Z-26.126 R0.25
X-20.11 Y59.775 Z-26.264 R0.25
X-19.89 Y60.225 Z-26.403 R0.25
X-20.11 Y59.775 Z-26.541 R0.25
X-19.89 Y60.225 Z-26.68 R0.25
X-20.11 Y59.775 Z-26.818 R0.25
X-19.89 Y60.225 Z-26.957 R0.25
X-20.11 Y59.775 Z-27.095 R0.25
X-19.89 Y60.225 Z-27.234 R0.25
X-20.11 Y59.775 Z-27.372 R0.25
X-19.89 Y60.225 Z-27.511 R0.25
X-20.11 Y59.775 Z-27.649 R0.25
X-19.89 Y60.225 Z-27.788 R0.25
X-20.11 Y59.775 Z-27.926 R0.25
X-19.89 Y60.225 Z-28.064 R0.25
X-20.11 Y59.775 Z-28.203 R0.25
X-19.89 Y60.225 Z-28.341 R0.25
X-20.11 Y59.775 Z-28.48 R0.25
X-20. Y59.75 Z-28.5 R0.25
Y60.25 R0.25
Y59.75 R0.25
G1 Y60. Z-28.475
G0 Z4.

M9
M30
