(__40_80)
(T2  D=8. CR=0. - ZMIN=-28.5 - FLAT END MILL)
G90 G94 G91.1 G40 G49 G17
G21

(2D POCKET1)
M5
M9
T2
S3640 M3
G54
M8
G0 X-20.932 Y24.748
G43 Z4. H2
Z2.
G1 Z0.5 F466.
G3 X-20.006 Y25.125 Z0.223 R0.5
X-20.932 Y24.748 Z-0.054 R0.5
X-20.006 Y25.125 Z-0.331 R0.5
X-20.932 Y24.748 Z-0.608 R0.5
X-20.006 Y25.125 Z-0.885 R0.5
X-20.932 Y24.748 Z-1.162 R0.5
X-20.006 Y25.125 Z-1.439 R0.5
X-20.932 Y24.748 Z-1.716 R0.5
X-20.006 Y25.125 Z-1.993 R0.5
X-20.932 Y24.748 Z-2.27 R0.5
X-20.006 Y25.125 Z-2.547 R0.5
X-20.932 Y24.748 Z-2.824 R0.5
X-20.006 Y25.125 Z-3.101 R0.5
X-20.932 Y24.748 Z-3.378 R0.5
X-20.006 Y25.125 Z-3.655 R0.5
X-20.932 Y24.748 Z-3.932 R0.5
X-20.006 Y25.125 Z-4.209 R0.5
X-20.932 Y24.748 Z-4.486 R0.5
X-20.006 Y25.125 Z-4.763 R0.5
X-20.932 Y24.748 Z-5.039 R0.5
X-20.006 Y25.125 Z-5.316 R0.5
X-20.932 Y24.748 Z-5.593 R0.5
X-20.006 Y25.125 Z-5.87 R0.5
X-20.932 Y24.748 Z-6.147 R0.5
X-20.006 Y25.125 Z-6.424 R0.5
X-20.932 Y24.748 Z-6.701 R0.5
X-20.006 Y25.125 Z-6.978 R0.5
X-20.932 Y24.748 Z-7.255 R0.5
X-20.006 Y25.125 Z-7.532 R0.5
X-20.932 Y24.748 Z-7.809 R0.5
X-20.006 Y25.125 Z-8.086 R0.5
X-20.932 Y24.748 Z-8.363 R0.5
X-20.006 Y25.125 Z-8.64 R0.5
X-20.932 Y24.748 Z-8.917 R0.5
X-20.006 Y25.125 Z-9.194 R0.5
X-20.932 Y24.748 Z-9.471 R0.5
X-20.006 Y25.125 Z-9.748 R0.5
X-20.932 Y24.748 Z-10.025 R0.5
X-20.006 Y25.125 Z-10.302 R0.5
X-20.932 Y24.748 Z-10.579 R0.5
X-20.006 Y25.125 Z-10.856 R0.5
X-20.932 Y24.748 Z-11.133 R0.5
X-20.006 Y25.125 Z-11.41 R0.5
X-20.932 Y24.748 Z-11.687 R0.5
X-20.006 Y25.125 Z-11.964 R0.5
X-20.932 Y24.748 Z-12.241 R0.5
X-19.977 Y25.029 Z-12.5 R0.5
G1 X-19.983 Y25.06
G3 X-20.011 Y25.104 R0.073
G1 X-20.024 Y25.114
G3 X-20.093 Y25.137 R0.115
G1 X-20.133 Y25.135
G3 X-20.239 Y25.093 R0.198
X-20.32 Y24.98 R0.224
G1 X-20.328 Y24.957
G3 X-20.333 Y24.79 R0.303
G1 X-20.327 Y24.77
G3 X-20.227 Y24.595 R0.378
G1 X-20.213 Y24.581
G3 X-20.009 Y24.465 R0.45
X-19.892 Y24.449 R0.455
X-19.713 Y24.486 R0.455
G1 X-19.654 Y24.512
G3 X-19.318 Y24.85 R0.636
G1 X-19.31 Y24.867
G3 X-19.303 Y25.379 R0.682
G1 X-19.33 Y25.446
G3 X-20.114 Y25.985 R0.846
G1 X-20.14
G3 X-20.649 Y25.846 R0.979
G1 X-20.676 Y25.83
G3 X-21.064 Y25.433 R1.096
X-21.212 Y24.901 R1.111
G1 Y24.876
G3 X-21.076 Y24.295 R1.21
G1 X-21.068 Y24.279
G3 X-20.649 Y23.808 R1.28
G1 X-20.634 Y23.798
G3 X-20.009 Y23.573 R1.35
G1 X-19.991 Y23.572
G3 X-19.301 Y23.677 R1.42
G1 X-19.284 Y23.684
G3 X-18.701 Y24.126 R1.49
G1 X-18.69 Y24.14
G3 X-18.373 Y24.837 R1.56
G1 X-18.37 Y24.855
G3 X-18.425 Y25.651 R1.631
X-18.884 Y26.366 R1.659
G1 X-18.912 Y26.392
G3 X-19.759 Y26.827 R1.802
X-20.144 Y26.868 R1.835
X-20.732 Y26.771 R1.835
G1 X-20.756 Y26.763
G3 X-21.588 Y26.21 R1.932
G1 X-21.65 Y26.139
G3 X-22.123 Y24.528 R1.984
X-21.977 Y24.014 R2.169
X-21.705 Y23.539 R2.205
X-21.318 Y23.138 R2.241
X-20.838 Y22.84 R2.277
X-20.291 Y22.666 R2.312
X-19.857 Y22.625 R2.347
X-19.709 Y22.63 R2.347
X-19.128 Y22.739 R2.383
X-18.583 Y22.99 R2.42
X-18.109 Y23.373 R2.455
X-17.738 Y23.866 R2.491
X-17.495 Y24.444 R2.527
X-17.399 Y25.072 R2.562
X-17.398 Y25.146 R2.598
X-17.461 Y25.713 R2.598
X-17.679 Y26.326 R2.618
G1 X-17.686 Y26.339
G3 X-18.044 Y26.868 R2.502
G1 X-18.309 Y27.169
G3 X-21.691 Y22.831 R2.75
X-18.309 Y27.169 R2.75
G1 X-18.555 Y26.853 Z-12.46
G0 Z2.
X19.068 Y24.748
G1 Z0.5 F466.
G3 X19.994 Y25.125 Z0.223 R0.5
X19.068 Y24.748 Z-0.054 R0.5
X19.994 Y25.125 Z-0.331 R0.5
X19.068 Y24.748 Z-0.608 R0.5
X19.994 Y25.125 Z-0.885 R0.5
X19.068 Y24.748 Z-1.162 R0.5
X19.994 Y25.125 Z-1.439 R0.5
X19.068 Y24.748 Z-1.716 R0.5
X19.994 Y25.125 Z-1.993 R0.5
X19.068 Y24.748 Z-2.27 R0.5
X19.994 Y25.125 Z-2.547 R0.5
X19.068 Y24.748 Z-2.824 R0.5
X19.994 Y25.125 Z-3.101 R0.5
X19.068 Y24.748 Z-3.378 R0.5
X19.994 Y25.125 Z-3.655 R0.5
X19.068 Y24.748 Z-3.932 R0.5
X19.994 Y25.125 Z-4.209 R0.5
X19.068 Y24.748 Z-4.486 R0.5
X19.994 Y25.125 Z-4.763 R0.5
X19.068 Y24.748 Z-5.039 R0.5
X19.994 Y25.125 Z-5.316 R0.5
X19.068 Y24.748 Z-5.593 R0.5
X19.994 Y25.125 Z-5.87 R0.5
X19.068 Y24.748 Z-6.147 R0.5
X19.994 Y25.125 Z-6.424 R0.5
X19.068 Y24.748 Z-6.701 R0.5
X19.994 Y25.125 Z-6.978 R0.5
X19.068 Y24.748 Z-7.255 R0.5
X19.994 Y25.125 Z-7.532 R0.5
X19.068 Y24.748 Z-7.809 R0.5
X19.994 Y25.125 Z-8.086 R0.5
X19.068 Y24.748 Z-8.363 R0.5
X19.994 Y25.125 Z-8.64 R0.5
X19.068 Y24.748 Z-8.917 R0.5
X19.994 Y25.125 Z-9.194 R0.5
X19.068 Y24.748 Z-9.471 R0.5
X19.994 Y25.125 Z-9.748 R0.5
X19.068 Y24.748 Z-10.025 R0.5
X19.994 Y25.125 Z-10.302 R0.5
X19.068 Y24.748 Z-10.579 R0.5
X19.994 Y25.125 Z-10.856 R0.5
X19.068 Y24.748 Z-11.133 R0.5
X19.994 Y25.125 Z-11.41 R0.5
X19.068 Y24.748 Z-11.687 R0.5
X19.994 Y25.125 Z-11.964 R0.5
X19.068 Y24.748 Z-12.241 R0.5
X20.023 Y25.029 Z-12.5 R0.5
G1 X20.017 Y25.06
G3 X19.989 Y25.104 R0.073
G1 X19.976 Y25.114
G3 X19.907 Y25.137 R0.115
G1 X19.867 Y25.135
G3 X19.761 Y25.093 R0.198
X19.68 Y24.98 R0.224
G1 X19.672 Y24.957
G3 X19.667 Y24.79 R0.303
G1 X19.673 Y24.77
G3 X19.773 Y24.595 R0.378
G1 X19.787 Y24.581
G3 X19.991 Y24.465 R0.45
X20.108 Y24.449 R0.455
X20.287 Y24.486 R0.455
G1 X20.346 Y24.512
G3 X20.682 Y24.85 R0.636
G1 X20.69 Y24.867
G3 X20.697 Y25.379 R0.682
G1 X20.67 Y25.446
G3 X19.886 Y25.985 R0.846
G1 X19.86
G3 X19.351 Y25.846 R0.979
G1 X19.324 Y25.83
G3 X18.936 Y25.433 R1.096
X18.788 Y24.901 R1.111
G1 Y24.876
G3 X18.924 Y24.295 R1.21
G1 X18.932 Y24.279
G3 X19.351 Y23.808 R1.28
G1 X19.366 Y23.798
G3 X19.991 Y23.573 R1.35
G1 X20.009 Y23.572
G3 X20.699 Y23.677 R1.42
G1 X20.716 Y23.684
G3 X21.299 Y24.126 R1.49
G1 X21.31 Y24.14
G3 X21.627 Y24.837 R1.56
G1 X21.63 Y24.855
G3 X21.575 Y25.651 R1.631
X21.116 Y26.366 R1.659
G1 X21.088 Y26.392
G3 X20.241 Y26.827 R1.802
X19.856 Y26.868 R1.835
X19.268 Y26.771 R1.835
G1 X19.244 Y26.763
G3 X18.412 Y26.21 R1.932
G1 X18.35 Y26.139
G3 X17.877 Y24.528 R1.984
X18.023 Y24.014 R2.169
X18.295 Y23.539 R2.205
X18.682 Y23.138 R2.241
X19.162 Y22.84 R2.277
X19.709 Y22.666 R2.312
X20.143 Y22.625 R2.347
X20.291 Y22.63 R2.347
X20.872 Y22.739 R2.383
X21.417 Y22.99 R2.42
X21.891 Y23.373 R2.455
X22.262 Y23.866 R2.491
X22.505 Y24.444 R2.527
X22.601 Y25.072 R2.562
X22.602 Y25.146 R2.598
X22.539 Y25.713 R2.598
X22.321 Y26.326 R2.618
G1 X22.314 Y26.339
G3 X21.956 Y26.868 R2.502
G1 X21.691 Y27.169
G3 X18.309 Y22.831 R2.75
X21.691 Y27.169 R2.75
G1 X21.445 Y26.853 Z-12.46
G0 Z2.
X19.068 Y64.748
G1 Z0.5 F466.
G3 X19.994 Y65.125 Z0.223 R0.5
X19.068 Y64.748 Z-0.054 R0.5
X19.994 Y65.125 Z-0.331 R0.5
X19.068 Y64.748 Z-0.608 R0.5
X19.994 Y65.125 Z-0.885 R0.5
X19.068 Y64.748 Z-1.162 R0.5
X19.994 Y65.125 Z-1.439 R0.5
X19.068 Y64.748 Z-1.716 R0.5
X19.994 Y65.125 Z-1.993 R0.5
X19.068 Y64.748 Z-2.27 R0.5
X19.994 Y65.125 Z-2.547 R0.5
X19.068 Y64.748 Z-2.824 R0.5
X19.994 Y65.125 Z-3.101 R0.5
X19.068 Y64.748 Z-3.378 R0.5
X19.994 Y65.125 Z-3.655 R0.5
X19.068 Y64.748 Z-3.932 R0.5
X19.994 Y65.125 Z-4.209 R0.5
X19.068 Y64.748 Z-4.486 R0.5
X19.994 Y65.125 Z-4.763 R0.5
X19.068 Y64.748 Z-5.039 R0.5
X19.994 Y65.125 Z-5.316 R0.5
X19.068 Y64.748 Z-5.593 R0.5
X19.994 Y65.125 Z-5.87 R0.5
X19.068 Y64.748 Z-6.147 R0.5
X19.994 Y65.125 Z-6.424 R0.5
X19.068 Y64.748 Z-6.701 R0.5
X19.994 Y65.125 Z-6.978 R0.5
X19.068 Y64.748 Z-7.255 R0.5
X19.994 Y65.125 Z-7.532 R0.5
X19.068 Y64.748 Z-7.809 R0.5
X19.994 Y65.125 Z-8.086 R0.5
X19.068 Y64.748 Z-8.363 R0.5
X19.994 Y65.125 Z-8.64 R0.5
X19.068 Y64.748 Z-8.917 R0.5
X19.994 Y65.125 Z-9.194 R0.5
X19.068 Y64.748 Z-9.471 R0.5
X19.994 Y65.125 Z-9.748 R0.5
X19.068 Y64.748 Z-10.025 R0.5
X19.994 Y65.125 Z-10.302 R0.5
X19.068 Y64.748 Z-10.579 R0.5
X19.994 Y65.125 Z-10.856 R0.5
X19.068 Y64.748 Z-11.133 R0.5
X19.994 Y65.125 Z-11.41 R0.5
X19.068 Y64.748 Z-11.687 R0.5
X19.994 Y65.125 Z-11.964 R0.5
X19.068 Y64.748 Z-12.241 R0.5
X20.023 Y65.029 Z-12.5 R0.5
G1 X20.017 Y65.06
G3 X19.989 Y65.104 R0.073
G1 X19.976 Y65.114
G3 X19.907 Y65.137 R0.115
G1 X19.867 Y65.135
G3 X19.761 Y65.093 R0.198
X19.68 Y64.98 R0.224
G1 X19.672 Y64.957
G3 X19.667 Y64.79 R0.303
G1 X19.673 Y64.77
G3 X19.773 Y64.595 R0.378
G1 X19.787 Y64.581
G3 X19.991 Y64.465 R0.45
X20.108 Y64.449 R0.455
X20.287 Y64.486 R0.455
G1 X20.346 Y64.512
G3 X20.682 Y64.85 R0.636
G1 X20.69 Y64.867
G3 X20.697 Y65.379 R0.682
G1 X20.67 Y65.446
G3 X19.886 Y65.985 R0.846
G1 X19.86
G3 X19.351 Y65.846 R0.979
G1 X19.324 Y65.83
G3 X18.936 Y65.433 R1.096
X18.788 Y64.901 R1.111
G1 Y64.876
G3 X18.924 Y64.295 R1.21
G1 X18.932 Y64.279
G3 X19.351 Y63.808 R1.28
G1 X19.366 Y63.798
G3 X19.991 Y63.573 R1.35
G1 X20.009 Y63.572
G3 X20.699 Y63.677 R1.42
G1 X20.716 Y63.684
G3 X21.299 Y64.126 R1.49
G1 X21.31 Y64.14
G3 X21.627 Y64.837 R1.56
G1 X21.63 Y64.855
G3 X21.575 Y65.651 R1.631
X21.116 Y66.366 R1.659
G1 X21.088 Y66.392
G3 X20.241 Y66.827 R1.802
X19.856 Y66.868 R1.835
X19.268 Y66.771 R1.835
G1 X19.244 Y66.763
G3 X18.412 Y66.21 R1.932
G1 X18.35 Y66.139
G3 X17.877 Y64.528 R1.984
X18.023 Y64.014 R2.169
X18.295 Y63.539 R2.205
X18.682 Y63.138 R2.241
X19.162 Y62.84 R2.277
X19.709 Y62.666 R2.312
X20.143 Y62.625 R2.347
X20.291 Y62.63 R2.347
X20.872 Y62.739 R2.383
X21.417 Y62.99 R2.42
X21.891 Y63.373 R2.455
X22.262 Y63.866 R2.491
X22.505 Y64.444 R2.527
X22.601 Y65.072 R2.562
X22.602 Y65.146 R2.598
X22.539 Y65.713 R2.598
X22.321 Y66.326 R2.618
G1 X22.314 Y66.339
G3 X21.956 Y66.868 R2.502
G1 X21.691 Y67.169
G3 X18.309 Y62.831 R2.75
X21.691 Y67.169 R2.75
G1 X21.445 Y66.853 Z-12.46
G0 Z2.
X-20.932 Y64.748
G1 Z0.5 F466.
G3 X-20.006 Y65.125 Z0.223 R0.5
X-20.932 Y64.748 Z-0.054 R0.5
X-20.006 Y65.125 Z-0.331 R0.5
X-20.932 Y64.748 Z-0.608 R0.5
X-20.006 Y65.125 Z-0.885 R0.5
X-20.932 Y64.748 Z-1.162 R0.5
X-20.006 Y65.125 Z-1.439 R0.5
X-20.932 Y64.748 Z-1.716 R0.5
X-20.006 Y65.125 Z-1.993 R0.5
X-20.932 Y64.748 Z-2.27 R0.5
X-20.006 Y65.125 Z-2.547 R0.5
X-20.932 Y64.748 Z-2.824 R0.5
X-20.006 Y65.125 Z-3.101 R0.5
X-20.932 Y64.748 Z-3.378 R0.5
X-20.006 Y65.125 Z-3.655 R0.5
X-20.932 Y64.748 Z-3.932 R0.5
X-20.006 Y65.125 Z-4.209 R0.5
X-20.932 Y64.748 Z-4.486 R0.5
X-20.006 Y65.125 Z-4.763 R0.5
X-20.932 Y64.748 Z-5.039 R0.5
X-20.006 Y65.125 Z-5.316 R0.5
X-20.932 Y64.748 Z-5.593 R0.5
X-20.006 Y65.125 Z-5.87 R0.5
X-20.932 Y64.748 Z-6.147 R0.5
X-20.006 Y65.125 Z-6.424 R0.5
X-20.932 Y64.748 Z-6.701 R0.5
X-20.006 Y65.125 Z-6.978 R0.5
X-20.932 Y64.748 Z-7.255 R0.5
X-20.006 Y65.125 Z-7.532 R0.5
X-20.932 Y64.748 Z-7.809 R0.5
X-20.006 Y65.125 Z-8.086 R0.5
X-20.932 Y64.748 Z-8.363 R0.5
X-20.006 Y65.125 Z-8.64 R0.5
X-20.932 Y64.748 Z-8.917 R0.5
X-20.006 Y65.125 Z-9.194 R0.5
X-20.932 Y64.748 Z-9.471 R0.5
X-20.006 Y65.125 Z-9.748 R0.5
X-20.932 Y64.748 Z-10.025 R0.5
X-20.006 Y65.125 Z-10.302 R0.5
X-20.932 Y64.748 Z-10.579 R0.5
X-20.006 Y65.125 Z-10.856 R0.5
X-20.932 Y64.748 Z-11.133 R0.5
X-20.006 Y65.125 Z-11.41 R0.5
X-20.932 Y64.748 Z-11.687 R0.5
X-20.006 Y65.125 Z-11.964 R0.5
X-20.932 Y64.748 Z-12.241 R0.5
X-19.977 Y65.029 Z-12.5 R0.5
G1 X-19.983 Y65.06
G3 X-20.011 Y65.104 R0.073
G1 X-20.024 Y65.114
G3 X-20.093 Y65.137 R0.115
G1 X-20.133 Y65.135
G3 X-20.239 Y65.093 R0.198
X-20.32 Y64.98 R0.224
G1 X-20.328 Y64.957
G3 X-20.333 Y64.79 R0.303
G1 X-20.327 Y64.77
G3 X-20.227 Y64.595 R0.378
G1 X-20.213 Y64.581
G3 X-20.009 Y64.465 R0.45
X-19.892 Y64.449 R0.455
X-19.713 Y64.486 R0.455
G1 X-19.654 Y64.512
G3 X-19.318 Y64.85 R0.636
G1 X-19.31 Y64.867
G3 X-19.303 Y65.379 R0.682
G1 X-19.33 Y65.446
G3 X-20.114 Y65.985 R0.846
G1 X-20.14
G3 X-20.649 Y65.846 R0.979
G1 X-20.676 Y65.83
G3 X-21.064 Y65.433 R1.096
X-21.212 Y64.901 R1.111
G1 Y64.876
G3 X-21.076 Y64.295 R1.21
G1 X-21.068 Y64.279
G3 X-20.649 Y63.808 R1.28
G1 X-20.634 Y63.798
G3 X-20.009 Y63.573 R1.35
G1 X-19.991 Y63.572
G3 X-19.301 Y63.677 R1.42
G1 X-19.284 Y63.684
G3 X-18.701 Y64.126 R1.49
G1 X-18.69 Y64.14
G3 X-18.373 Y64.837 R1.56
G1 X-18.37 Y64.855
G3 X-18.425 Y65.651 R1.631
X-18.884 Y66.366 R1.659
G1 X-18.912 Y66.392
G3 X-19.759 Y66.827 R1.802
X-20.144 Y66.868 R1.835
X-20.732 Y66.771 R1.835
G1 X-20.756 Y66.763
G3 X-21.588 Y66.21 R1.932
G1 X-21.65 Y66.139
G3 X-22.123 Y64.528 R1.984
X-21.977 Y64.014 R2.169
X-21.705 Y63.539 R2.205
X-21.318 Y63.138 R2.241
X-20.838 Y62.84 R2.277
X-20.291 Y62.666 R2.312
X-19.857 Y62.625 R2.347
X-19.709 Y62.63 R2.347
X-19.128 Y62.739 R2.383
X-18.583 Y62.99 R2.42
X-18.109 Y63.373 R2.455
X-17.738 Y63.866 R2.491
X-17.495 Y64.444 R2.527
X-17.399 Y65.072 R2.562
X-17.398 Y65.146 R2.598
X-17.461 Y65.713 R2.598
X-17.679 Y66.326 R2.618
G1 X-17.686 Y66.339
G3 X-18.044 Y66.868 R2.502
G1 X-18.309 Y67.169
G3 X-21.691 Y62.831 R2.75
X-18.309 Y67.169 R2.75
G1 X-18.555 Y66.853 Z-12.46
G0 Z2.
X-20.932 Y-20.252
G1 Z0.5 F466.
G3 X-20.006 Y-19.875 Z0.223 R0.5
X-20.932 Y-20.252 Z-0.054 R0.5
X-20.006 Y-19.875 Z-0.331 R0.5
X-20.932 Y-20.252 Z-0.608 R0.5
X-20.006 Y-19.875 Z-0.885 R0.5
X-20.932 Y-20.252 Z-1.162 R0.5
X-20.006 Y-19.875 Z-1.439 R0.5
X-20.932 Y-20.252 Z-1.716 R0.5
X-20.006 Y-19.875 Z-1.993 R0.5
X-20.932 Y-20.252 Z-2.27 R0.5
X-20.006 Y-19.875 Z-2.547 R0.5
X-20.932 Y-20.252 Z-2.824 R0.5
X-20.006 Y-19.875 Z-3.101 R0.5
X-20.932 Y-20.252 Z-3.378 R0.5
X-20.006 Y-19.875 Z-3.655 R0.5
X-20.932 Y-20.252 Z-3.932 R0.5
X-20.006 Y-19.875 Z-4.209 R0.5
X-20.932 Y-20.252 Z-4.486 R0.5
X-20.006 Y-19.875 Z-4.763 R0.5
X-20.932 Y-20.252 Z-5.039 R0.5
X-20.006 Y-19.875 Z-5.316 R0.5
X-20.932 Y-20.252 Z-5.593 R0.5
X-20.006 Y-19.875 Z-5.87 R0.5
X-20.932 Y-20.252 Z-6.147 R0.5
X-20.006 Y-19.875 Z-6.424 R0.5
X-20.932 Y-20.252 Z-6.701 R0.5
X-20.006 Y-19.875 Z-6.978 R0.5
X-20.932 Y-20.252 Z-7.255 R0.5
X-20.006 Y-19.875 Z-7.532 R0.5
X-20.932 Y-20.252 Z-7.809 R0.5
X-20.006 Y-19.875 Z-8.086 R0.5
X-20.932 Y-20.252 Z-8.363 R0.5
X-20.006 Y-19.875 Z-8.64 R0.5
X-20.932 Y-20.252 Z-8.917 R0.5
X-20.006 Y-19.875 Z-9.194 R0.5
X-20.932 Y-20.252 Z-9.471 R0.5
X-20.006 Y-19.875 Z-9.748 R0.5
X-20.932 Y-20.252 Z-10.025 R0.5
X-20.006 Y-19.875 Z-10.302 R0.5
X-20.932 Y-20.252 Z-10.579 R0.5
X-20.006 Y-19.875 Z-10.856 R0.5
X-20.932 Y-20.252 Z-11.133 R0.5
X-20.006 Y-19.875 Z-11.41 R0.5
X-20.932 Y-20.252 Z-11.687 R0.5
X-20.006 Y-19.875 Z-11.964 R0.5
X-20.932 Y-20.252 Z-12.241 R0.5
X-19.977 Y-19.971 Z-12.5 R0.5
G1 X-19.983 Y-19.94
G3 X-20.011 Y-19.896 R0.073
G1 X-20.024 Y-19.886
G3 X-20.093 Y-19.863 R0.115
G1 X-20.133 Y-19.865
G3 X-20.239 Y-19.907 R0.198
X-20.32 Y-20.02 R0.224
G1 X-20.328 Y-20.043
G3 X-20.333 Y-20.21 R0.303
G1 X-20.327 Y-20.23
G3 X-20.227 Y-20.405 R0.378
G1 X-20.213 Y-20.419
G3 X-20.009 Y-20.535 R0.45
X-19.892 Y-20.551 R0.455
X-19.713 Y-20.514 R0.455
G1 X-19.654 Y-20.488
G3 X-19.318 Y-20.15 R0.636
G1 X-19.31 Y-20.133
G3 X-19.303 Y-19.621 R0.682
G1 X-19.33 Y-19.554
G3 X-20.114 Y-19.015 R0.846
G1 X-20.14
G3 X-20.649 Y-19.154 R0.979
G1 X-20.676 Y-19.17
G3 X-21.064 Y-19.567 R1.096
X-21.212 Y-20.099 R1.111
G1 Y-20.124
G3 X-21.076 Y-20.705 R1.21
G1 X-21.068 Y-20.721
G3 X-20.649 Y-21.192 R1.28
G1 X-20.634 Y-21.202
G3 X-20.009 Y-21.427 R1.35
G1 X-19.991 Y-21.428
G3 X-19.301 Y-21.323 R1.42
G1 X-19.284 Y-21.316
G3 X-18.701 Y-20.874 R1.49
G1 X-18.69 Y-20.86
G3 X-18.373 Y-20.163 R1.56
G1 X-18.37 Y-20.145
G3 X-18.425 Y-19.349 R1.631
X-18.884 Y-18.634 R1.659
G1 X-18.912 Y-18.608
G3 X-19.759 Y-18.173 R1.802
X-20.144 Y-18.132 R1.835
X-20.732 Y-18.229 R1.835
G1 X-20.756 Y-18.237
G3 X-21.588 Y-18.79 R1.932
G1 X-21.65 Y-18.861
G3 X-22.123 Y-20.472 R1.984
X-21.977 Y-20.986 R2.169
X-21.705 Y-21.461 R2.205
X-21.318 Y-21.862 R2.241
X-20.838 Y-22.16 R2.277
X-20.291 Y-22.334 R2.312
X-19.857 Y-22.375 R2.347
X-19.709 Y-22.37 R2.347
X-19.128 Y-22.261 R2.383
X-18.583 Y-22.01 R2.42
X-18.109 Y-21.627 R2.455
X-17.738 Y-21.134 R2.491
X-17.495 Y-20.556 R2.527
X-17.399 Y-19.928 R2.562
X-17.398 Y-19.854 R2.598
X-17.461 Y-19.287 R2.598
X-17.679 Y-18.674 R2.618
G1 X-17.686 Y-18.661
G3 X-18.044 Y-18.132 R2.502
G1 X-18.309 Y-17.831
G3 X-21.691 Y-22.169 R2.75
X-18.309 Y-17.831 R2.75
G1 X-18.555 Y-18.147 Z-12.46
G0 Z2.
X19.068 Y-20.252
G1 Z0.5 F466.
G3 X19.994 Y-19.875 Z0.223 R0.5
X19.068 Y-20.252 Z-0.054 R0.5
X19.994 Y-19.875 Z-0.331 R0.5
X19.068 Y-20.252 Z-0.608 R0.5
X19.994 Y-19.875 Z-0.885 R0.5
X19.068 Y-20.252 Z-1.162 R0.5
X19.994 Y-19.875 Z-1.439 R0.5
X19.068 Y-20.252 Z-1.716 R0.5
X19.994 Y-19.875 Z-1.993 R0.5
X19.068 Y-20.252 Z-2.27 R0.5
X19.994 Y-19.875 Z-2.547 R0.5
X19.068 Y-20.252 Z-2.824 R0.5
X19.994 Y-19.875 Z-3.101 R0.5
X19.068 Y-20.252 Z-3.378 R0.5
X19.994 Y-19.875 Z-3.655 R0.5
X19.068 Y-20.252 Z-3.932 R0.5
X19.994 Y-19.875 Z-4.209 R0.5
X19.068 Y-20.252 Z-4.486 R0.5
X19.994 Y-19.875 Z-4.763 R0.5
X19.068 Y-20.252 Z-5.039 R0.5
X19.994 Y-19.875 Z-5.316 R0.5
X19.068 Y-20.252 Z-5.593 R0.5
X19.994 Y-19.875 Z-5.87 R0.5
X19.068 Y-20.252 Z-6.147 R0.5
X19.994 Y-19.875 Z-6.424 R0.5
X19.068 Y-20.252 Z-6.701 R0.5
X19.994 Y-19.875 Z-6.978 R0.5
X19.068 Y-20.252 Z-7.255 R0.5
X19.994 Y-19.875 Z-7.532 R0.5
X19.068 Y-20.252 Z-7.809 R0.5
X19.994 Y-19.875 Z-8.086 R0.5
X19.068 Y-20.252 Z-8.363 R0.5
X19.994 Y-19.875 Z-8.64 R0.5
X19.068 Y-20.252 Z-8.917 R0.5
X19.994 Y-19.875 Z-9.194 R0.5
X19.068 Y-20.252 Z-9.471 R0.5
X19.994 Y-19.875 Z-9.748 R0.5
X19.068 Y-20.252 Z-10.025 R0.5
X19.994 Y-19.875 Z-10.302 R0.5
X19.068 Y-20.252 Z-10.579 R0.5
X19.994 Y-19.875 Z-10.856 R0.5
X19.068 Y-20.252 Z-11.133 R0.5
X19.994 Y-19.875 Z-11.41 R0.5
X19.068 Y-20.252 Z-11.687 R0.5
X19.994 Y-19.875 Z-11.964 R0.5
X19.068 Y-20.252 Z-12.241 R0.5
X20.023 Y-19.971 Z-12.5 R0.5
G1 X20.017 Y-19.94
G3 X19.989 Y-19.896 R0.073
G1 X19.976 Y-19.886
G3 X19.907 Y-19.863 R0.115
G1 X19.867 Y-19.865
G3 X19.761 Y-19.907 R0.198
X19.68 Y-20.02 R0.224
G1 X19.672 Y-20.043
G3 X19.667 Y-20.21 R0.303
G1 X19.673 Y-20.23
G3 X19.773 Y-20.405 R0.378
G1 X19.787 Y-20.419
G3 X19.991 Y-20.535 R0.45
X20.108 Y-20.551 R0.455
X20.287 Y-20.514 R0.455
G1 X20.346 Y-20.488
G3 X20.682 Y-20.15 R0.636
G1 X20.69 Y-20.133
G3 X20.697 Y-19.621 R0.682
G1 X20.67 Y-19.554
G3 X19.886 Y-19.015 R0.846
G1 X19.86
G3 X19.351 Y-19.154 R0.979
G1 X19.324 Y-19.17
G3 X18.936 Y-19.567 R1.096
X18.788 Y-20.099 R1.111
G1 Y-20.124
G3 X18.924 Y-20.705 R1.21
G1 X18.932 Y-20.721
G3 X19.351 Y-21.192 R1.28
G1 X19.366 Y-21.202
G3 X19.991 Y-21.427 R1.35
G1 X20.009 Y-21.428
G3 X20.699 Y-21.323 R1.42
G1 X20.716 Y-21.316
G3 X21.299 Y-20.874 R1.49
G1 X21.31 Y-20.86
G3 X21.627 Y-20.163 R1.56
G1 X21.63 Y-20.145
G3 X21.575 Y-19.349 R1.631
X21.116 Y-18.634 R1.659
G1 X21.088 Y-18.608
G3 X20.241 Y-18.173 R1.802
X19.856 Y-18.132 R1.835
X19.268 Y-18.229 R1.835
G1 X19.244 Y-18.237
G3 X18.412 Y-18.79 R1.932
G1 X18.35 Y-18.861
G3 X17.877 Y-20.472 R1.984
X18.023 Y-20.986 R2.169
X18.295 Y-21.461 R2.205
X18.682 Y-21.862 R2.241
X19.162 Y-22.16 R2.277
X19.709 Y-22.334 R2.312
X20.143 Y-22.375 R2.347
X20.291 Y-22.37 R2.347
X20.872 Y-22.261 R2.383
X21.417 Y-22.01 R2.42
X21.891 Y-21.627 R2.455
X22.262 Y-21.134 R2.491
X22.505 Y-20.556 R2.527
X22.601 Y-19.928 R2.562
X22.602 Y-19.854 R2.598
X22.539 Y-19.287 R2.598
X22.321 Y-18.674 R2.618
G1 X22.314 Y-18.661
G3 X21.956 Y-18.132 R2.502
G1 X21.691 Y-17.831
G3 X18.309 Y-22.169 R2.75
X21.691 Y-17.831 R2.75
G1 X21.445 Y-18.147 Z-12.46
G0 Z2.
X19.068 Y-60.252
G1 Z0.5 F466.
G3 X19.994 Y-59.875 Z0.223 R0.5
X19.068 Y-60.252 Z-0.054 R0.5
X19.994 Y-59.875 Z-0.331 R0.5
X19.068 Y-60.252 Z-0.608 R0.5
X19.994 Y-59.875 Z-0.885 R0.5
X19.068 Y-60.252 Z-1.162 R0.5
X19.994 Y-59.875 Z-1.439 R0.5
X19.068 Y-60.252 Z-1.716 R0.5
X19.994 Y-59.875 Z-1.993 R0.5
X19.068 Y-60.252 Z-2.27 R0.5
X19.994 Y-59.875 Z-2.547 R0.5
X19.068 Y-60.252 Z-2.824 R0.5
X19.994 Y-59.875 Z-3.101 R0.5
X19.068 Y-60.252 Z-3.378 R0.5
X19.994 Y-59.875 Z-3.655 R0.5
X19.068 Y-60.252 Z-3.932 R0.5
X19.994 Y-59.875 Z-4.209 R0.5
X19.068 Y-60.252 Z-4.486 R0.5
X19.994 Y-59.875 Z-4.763 R0.5
X19.068 Y-60.252 Z-5.039 R0.5
X19.994 Y-59.875 Z-5.316 R0.5
X19.068 Y-60.252 Z-5.593 R0.5
X19.994 Y-59.875 Z-5.87 R0.5
X19.068 Y-60.252 Z-6.147 R0.5
X19.994 Y-59.875 Z-6.424 R0.5
X19.068 Y-60.252 Z-6.701 R0.5
X19.994 Y-59.875 Z-6.978 R0.5
X19.068 Y-60.252 Z-7.255 R0.5
X19.994 Y-59.875 Z-7.532 R0.5
X19.068 Y-60.252 Z-7.809 R0.5
X19.994 Y-59.875 Z-8.086 R0.5
X19.068 Y-60.252 Z-8.363 R0.5
X19.994 Y-59.875 Z-8.64 R0.5
X19.068 Y-60.252 Z-8.917 R0.5
X19.994 Y-59.875 Z-9.194 R0.5
X19.068 Y-60.252 Z-9.471 R0.5
X19.994 Y-59.875 Z-9.748 R0.5
X19.068 Y-60.252 Z-10.025 R0.5
X19.994 Y-59.875 Z-10.302 R0.5
X19.068 Y-60.252 Z-10.579 R0.5
X19.994 Y-59.875 Z-10.856 R0.5
X19.068 Y-60.252 Z-11.133 R0.5
X19.994 Y-59.875 Z-11.41 R0.5
X19.068 Y-60.252 Z-11.687 R0.5
X19.994 Y-59.875 Z-11.964 R0.5
X19.068 Y-60.252 Z-12.241 R0.5
X20.023 Y-59.971 Z-12.5 R0.5
G1 X20.017 Y-59.94
G3 X19.989 Y-59.896 R0.073
G1 X19.976 Y-59.886
G3 X19.907 Y-59.863 R0.115
G1 X19.867 Y-59.865
G3 X19.761 Y-59.907 R0.198
X19.68 Y-60.02 R0.224
G1 X19.672 Y-60.043
G3 X19.667 Y-60.21 R0.303
G1 X19.673 Y-60.23
G3 X19.773 Y-60.405 R0.378
G1 X19.787 Y-60.419
G3 X19.991 Y-60.535 R0.45
X20.108 Y-60.551 R0.455
X20.287 Y-60.514 R0.455
G1 X20.346 Y-60.488
G3 X20.682 Y-60.15 R0.636
G1 X20.69 Y-60.133
G3 X20.697 Y-59.621 R0.682
G1 X20.67 Y-59.554
G3 X19.886 Y-59.015 R0.846
G1 X19.86
G3 X19.351 Y-59.154 R0.979
G1 X19.324 Y-59.17
G3 X18.936 Y-59.567 R1.096
X18.788 Y-60.099 R1.111
G1 Y-60.124
G3 X18.924 Y-60.705 R1.21
G1 X18.932 Y-60.721
G3 X19.351 Y-61.192 R1.28
G1 X19.366 Y-61.202
G3 X19.991 Y-61.427 R1.35
G1 X20.009 Y-61.428
G3 X20.699 Y-61.323 R1.42
G1 X20.716 Y-61.316
G3 X21.299 Y-60.874 R1.49
G1 X21.31 Y-60.86
G3 X21.627 Y-60.163 R1.56
G1 X21.63 Y-60.145
G3 X21.575 Y-59.349 R1.631
X21.116 Y-58.634 R1.659
G1 X21.088 Y-58.608
G3 X20.241 Y-58.173 R1.802
X19.856 Y-58.132 R1.835
X19.268 Y-58.229 R1.835
G1 X19.244 Y-58.237
G3 X18.412 Y-58.79 R1.932
G1 X18.35 Y-58.861
G3 X17.877 Y-60.472 R1.984
X18.023 Y-60.986 R2.169
X18.295 Y-61.461 R2.205
X18.682 Y-61.862 R2.241
X19.162 Y-62.16 R2.277
X19.709 Y-62.334 R2.312
X20.143 Y-62.375 R2.347
X20.291 Y-62.37 R2.347
X20.872 Y-62.261 R2.383
X21.417 Y-62.01 R2.42
X21.891 Y-61.627 R2.455
X22.262 Y-61.134 R2.491
X22.505 Y-60.556 R2.527
X22.601 Y-59.928 R2.562
X22.602 Y-59.854 R2.598
X22.539 Y-59.287 R2.598
X22.321 Y-58.674 R2.618
G1 X22.314 Y-58.661
G3 X21.956 Y-58.132 R2.502
G1 X21.691 Y-57.831
G3 X18.309 Y-62.169 R2.75
X21.691 Y-57.831 R2.75
G1 X21.445 Y-58.147 Z-12.46
G0 Z2.
X-20.932 Y-60.252
G1 Z0.5 F466.
G3 X-20.006 Y-59.875 Z0.223 R0.5
X-20.932 Y-60.252 Z-0.054 R0.5
X-20.006 Y-59.875 Z-0.331 R0.5
X-20.932 Y-60.252 Z-0.608 R0.5
X-20.006 Y-59.875 Z-0.885 R0.5
X-20.932 Y-60.252 Z-1.162 R0.5
X-20.006 Y-59.875 Z-1.439 R0.5
X-20.932 Y-60.252 Z-1.716 R0.5
X-20.006 Y-59.875 Z-1.993 R0.5
X-20.932 Y-60.252 Z-2.27 R0.5
X-20.006 Y-59.875 Z-2.547 R0.5
X-20.932 Y-60.252 Z-2.824 R0.5
X-20.006 Y-59.875 Z-3.101 R0.5
X-20.932 Y-60.252 Z-3.378 R0.5
X-20.006 Y-59.875 Z-3.655 R0.5
X-20.932 Y-60.252 Z-3.932 R0.5
X-20.006 Y-59.875 Z-4.209 R0.5
X-20.932 Y-60.252 Z-4.486 R0.5
X-20.006 Y-59.875 Z-4.763 R0.5
X-20.932 Y-60.252 Z-5.039 R0.5
X-20.006 Y-59.875 Z-5.316 R0.5
X-20.932 Y-60.252 Z-5.593 R0.5
X-20.006 Y-59.875 Z-5.87 R0.5
X-20.932 Y-60.252 Z-6.147 R0.5
X-20.006 Y-59.875 Z-6.424 R0.5
X-20.932 Y-60.252 Z-6.701 R0.5
X-20.006 Y-59.875 Z-6.978 R0.5
X-20.932 Y-60.252 Z-7.255 R0.5
X-20.006 Y-59.875 Z-7.532 R0.5
X-20.932 Y-60.252 Z-7.809 R0.5
X-20.006 Y-59.875 Z-8.086 R0.5
X-20.932 Y-60.252 Z-8.363 R0.5
X-20.006 Y-59.875 Z-8.64 R0.5
X-20.932 Y-60.252 Z-8.917 R0.5
X-20.006 Y-59.875 Z-9.194 R0.5
X-20.932 Y-60.252 Z-9.471 R0.5
X-20.006 Y-59.875 Z-9.748 R0.5
X-20.932 Y-60.252 Z-10.025 R0.5
X-20.006 Y-59.875 Z-10.302 R0.5
X-20.932 Y-60.252 Z-10.579 R0.5
X-20.006 Y-59.875 Z-10.856 R0.5
X-20.932 Y-60.252 Z-11.133 R0.5
X-20.006 Y-59.875 Z-11.41 R0.5
X-20.932 Y-60.252 Z-11.687 R0.5
X-20.006 Y-59.875 Z-11.964 R0.5
X-20.932 Y-60.252 Z-12.241 R0.5
X-19.977 Y-59.971 Z-12.5 R0.5
G1 X-19.983 Y-59.94
G3 X-20.011 Y-59.896 R0.073
G1 X-20.024 Y-59.886
G3 X-20.093 Y-59.863 R0.115
G1 X-20.133 Y-59.865
G3 X-20.239 Y-59.907 R0.198
X-20.32 Y-60.02 R0.224
G1 X-20.328 Y-60.043
G3 X-20.333 Y-60.21 R0.303
G1 X-20.327 Y-60.23
G3 X-20.227 Y-60.405 R0.378
G1 X-20.213 Y-60.419
G3 X-20.009 Y-60.535 R0.45
X-19.892 Y-60.551 R0.455
X-19.713 Y-60.514 R0.455
G1 X-19.654 Y-60.488
G3 X-19.318 Y-60.15 R0.636
G1 X-19.31 Y-60.133
G3 X-19.303 Y-59.621 R0.682
G1 X-19.33 Y-59.554
G3 X-20.114 Y-59.015 R0.846
G1 X-20.14
G3 X-20.649 Y-59.154 R0.979
G1 X-20.676 Y-59.17
G3 X-21.064 Y-59.567 R1.096
X-21.212 Y-60.099 R1.111
G1 Y-60.124
G3 X-21.076 Y-60.705 R1.21
G1 X-21.068 Y-60.721
G3 X-20.649 Y-61.192 R1.28
G1 X-20.634 Y-61.202
G3 X-20.009 Y-61.427 R1.35
G1 X-19.991 Y-61.428
G3 X-19.301 Y-61.323 R1.42
G1 X-19.284 Y-61.316
G3 X-18.701 Y-60.874 R1.49
G1 X-18.69 Y-60.86
G3 X-18.373 Y-60.163 R1.56
G1 X-18.37 Y-60.145
G3 X-18.425 Y-59.349 R1.631
X-18.884 Y-58.634 R1.659
G1 X-18.912 Y-58.608
G3 X-19.759 Y-58.173 R1.802
X-20.144 Y-58.132 R1.835
X-20.732 Y-58.229 R1.835
G1 X-20.756 Y-58.237
G3 X-21.588 Y-58.79 R1.932
G1 X-21.65 Y-58.861
G3 X-22.123 Y-60.472 R1.984
X-21.977 Y-60.986 R2.169
X-21.705 Y-61.461 R2.205
X-21.318 Y-61.862 R2.241
X-20.838 Y-62.16 R2.277
X-20.291 Y-62.334 R2.312
X-19.857 Y-62.375 R2.347
X-19.709 Y-62.37 R2.347
X-19.128 Y-62.261 R2.383
X-18.583 Y-62.01 R2.42
X-18.109 Y-61.627 R2.455
X-17.738 Y-61.134 R2.491
X-17.495 Y-60.556 R2.527
X-17.399 Y-59.928 R2.562
X-17.398 Y-59.854 R2.598
X-17.461 Y-59.287 R2.598
X-17.679 Y-58.674 R2.618
G1 X-17.686 Y-58.661
G3 X-18.044 Y-58.132 R2.502
G1 X-18.309 Y-57.831
G3 X-21.691 Y-62.169 R2.75
X-18.309 Y-57.831 R2.75
G1 X-18.555 Y-58.147 Z-12.46
G0 Z4.

(2D POCKET2)
M8
G0 X-19.89 Y25.225
Z4.
Z-10.5
G1 Z-12. F466.
G3 X-20.11 Y24.775 Z-12.138 R0.25
X-19.89 Y25.225 Z-12.277 R0.25
X-20.11 Y24.775 Z-12.415 R0.25
X-19.89 Y25.225 Z-12.554 R0.25
X-20.11 Y24.775 Z-12.692 R0.25
X-19.89 Y25.225 Z-12.831 R0.25
X-20.11 Y24.775 Z-12.969 R0.25
X-19.89 Y25.225 Z-13.108 R0.25
X-20.11 Y24.775 Z-13.246 R0.25
X-19.89 Y25.225 Z-13.385 R0.25
X-20.11 Y24.775 Z-13.523 R0.25
X-19.89 Y25.225 Z-13.662 R0.25
X-20.11 Y24.775 Z-13.8 R0.25
X-19.89 Y25.225 Z-13.939 R0.25
X-20.11 Y24.775 Z-14.077 R0.25
X-19.89 Y25.225 Z-14.216 R0.25
X-20.11 Y24.775 Z-14.354 R0.25
X-19.89 Y25.225 Z-14.493 R0.25
X-20.11 Y24.775 Z-14.631 R0.25
X-19.89 Y25.225 Z-14.77 R0.25
X-20.11 Y24.775 Z-14.908 R0.25
X-19.89 Y25.225 Z-15.047 R0.25
X-20.11 Y24.775 Z-15.185 R0.25
X-19.89 Y25.225 Z-15.324 R0.25
X-20.11 Y24.775 Z-15.462 R0.25
X-19.89 Y25.225 Z-15.601 R0.25
X-20.11 Y24.775 Z-15.739 R0.25
X-19.89 Y25.225 Z-15.878 R0.25
X-20.11 Y24.775 Z-16.016 R0.25
X-19.89 Y25.225 Z-16.155 R0.25
X-20.11 Y24.775 Z-16.293 R0.25
X-19.89 Y25.225 Z-16.432 R0.25
X-20.11 Y24.775 Z-16.57 R0.25
X-19.89 Y25.225 Z-16.709 R0.25
X-20.11 Y24.775 Z-16.847 R0.25
X-19.89 Y25.225 Z-16.986 R0.25
X-20.11 Y24.775 Z-17.124 R0.25
X-19.89 Y25.225 Z-17.263 R0.25
X-20.11 Y24.775 Z-17.401 R0.25
X-19.89 Y25.225 Z-17.539 R0.25
X-20.11 Y24.775 Z-17.678 R0.25
X-19.89 Y25.225 Z-17.816 R0.25
X-20.11 Y24.775 Z-17.955 R0.25
X-19.89 Y25.225 Z-18.093 R0.25
X-20.11 Y24.775 Z-18.232 R0.25
X-19.89 Y25.225 Z-18.37 R0.25
X-20.11 Y24.775 Z-18.509 R0.25
X-19.89 Y25.225 Z-18.647 R0.25
X-20.11 Y24.775 Z-18.786 R0.25
X-19.89 Y25.225 Z-18.924 R0.25
X-20.11 Y24.775 Z-19.063 R0.25
X-19.89 Y25.225 Z-19.201 R0.25
X-20.11 Y24.775 Z-19.34 R0.25
X-19.89 Y25.225 Z-19.478 R0.25
X-20.11 Y24.775 Z-19.617 R0.25
X-19.89 Y25.225 Z-19.755 R0.25
X-20.11 Y24.775 Z-19.894 R0.25
X-19.89 Y25.225 Z-20.032 R0.25
X-20.11 Y24.775 Z-20.171 R0.25
X-19.89 Y25.225 Z-20.309 R0.25
X-20.11 Y24.775 Z-20.448 R0.25
X-19.89 Y25.225 Z-20.586 R0.25
X-20.11 Y24.775 Z-20.725 R0.25
X-19.89 Y25.225 Z-20.863 R0.25
X-20.11 Y24.775 Z-21.002 R0.25
X-19.89 Y25.225 Z-21.14 R0.25
X-20.11 Y24.775 Z-21.279 R0.25
X-19.89 Y25.225 Z-21.417 R0.25
X-20.11 Y24.775 Z-21.556 R0.25
X-19.89 Y25.225 Z-21.694 R0.25
X-20.11 Y24.775 Z-21.833 R0.25
X-19.89 Y25.225 Z-21.971 R0.25
X-20.11 Y24.775 Z-22.11 R0.25
X-19.89 Y25.225 Z-22.248 R0.25
X-20.11 Y24.775 Z-22.387 R0.25
X-19.89 Y25.225 Z-22.525 R0.25
X-20.11 Y24.775 Z-22.663 R0.25
X-19.89 Y25.225 Z-22.802 R0.25
X-20.11 Y24.775 Z-22.94 R0.25
X-19.89 Y25.225 Z-23.079 R0.25
X-20.11 Y24.775 Z-23.217 R0.25
X-19.89 Y25.225 Z-23.356 R0.25
X-20.11 Y24.775 Z-23.494 R0.25
X-19.89 Y25.225 Z-23.633 R0.25
X-20.11 Y24.775 Z-23.771 R0.25
X-19.89 Y25.225 Z-23.91 R0.25
X-20.11 Y24.775 Z-24.048 R0.25
X-19.89 Y25.225 Z-24.187 R0.25
X-20.11 Y24.775 Z-24.325 R0.25
X-19.89 Y25.225 Z-24.464 R0.25
X-20.11 Y24.775 Z-24.602 R0.25
X-19.89 Y25.225 Z-24.741 R0.25
X-20.11 Y24.775 Z-24.879 R0.25
X-19.89 Y25.225 Z-25.018 R0.25
X-20.11 Y24.775 Z-25.156 R0.25
X-19.89 Y25.225 Z-25.295 R0.25
X-20.11 Y24.775 Z-25.433 R0.25
X-19.89 Y25.225 Z-25.572 R0.25
X-20.11 Y24.775 Z-25.71 R0.25
X-19.89 Y25.225 Z-25.849 R0.25
X-20.11 Y24.775 Z-25.987 R0.25
X-19.89 Y25.225 Z-26.126 R0.25
X-20.11 Y24.775 Z-26.264 R0.25
X-19.89 Y25.225 Z-26.403 R0.25
X-20.11 Y24.775 Z-26.541 R0.25
X-19.89 Y25.225 Z-26.68 R0.25
X-20.11 Y24.775 Z-26.818 R0.25
X-19.89 Y25.225 Z-26.957 R0.25
X-20.11 Y24.775 Z-27.095 R0.25
X-19.89 Y25.225 Z-27.234 R0.25
X-20.11 Y24.775 Z-27.372 R0.25
X-19.89 Y25.225 Z-27.511 R0.25
X-20.11 Y24.775 Z-27.649 R0.25
X-19.89 Y25.225 Z-27.788 R0.25
X-20.11 Y24.775 Z-27.926 R0.25
X-19.89 Y25.225 Z-28.064 R0.25
X-20.11 Y24.775 Z-28.203 R0.25
X-19.89 Y25.225 Z-28.341 R0.25
X-20.11 Y24.775 Z-28.48 R0.25
X-20. Y24.75 Z-28.5 R0.25
Y25.25 R0.25
Y24.75 R0.25
G1 Y25. Z-28.475
G0 Z2.
X-20.246 Y64.953
Z-10.5
G1 Z-12. F466.
G3 X-19.754 Y65.047 Z-12.138 R0.25
X-20.246 Y64.953 Z-12.277 R0.25
X-19.754 Y65.047 Z-12.415 R0.25
X-20.246 Y64.953 Z-12.554 R0.25
X-19.754 Y65.047 Z-12.692 R0.25
X-20.246 Y64.953 Z-12.831 R0.25
X-19.754 Y65.047 Z-12.969 R0.25
X-20.246 Y64.953 Z-13.108 R0.25
X-19.754 Y65.047 Z-13.246 R0.25
X-20.246 Y64.953 Z-13.385 R0.25
X-19.754 Y65.047 Z-13.523 R0.25
X-20.246 Y64.953 Z-13.662 R0.25
X-19.754 Y65.047 Z-13.8 R0.25
X-20.246 Y64.953 Z-13.939 R0.25
X-19.754 Y65.047 Z-14.077 R0.25
X-20.246 Y64.953 Z-14.216 R0.25
X-19.754 Y65.047 Z-14.354 R0.25
X-20.246 Y64.953 Z-14.493 R0.25
X-19.754 Y65.047 Z-14.631 R0.25
X-20.246 Y64.953 Z-14.77 R0.25
X-19.754 Y65.047 Z-14.908 R0.25
X-20.246 Y64.953 Z-15.047 R0.25
X-19.754 Y65.047 Z-15.185 R0.25
X-20.246 Y64.953 Z-15.324 R0.25
X-19.754 Y65.047 Z-15.462 R0.25
X-20.246 Y64.953 Z-15.601 R0.25
X-19.754 Y65.047 Z-15.739 R0.25
X-20.246 Y64.953 Z-15.878 R0.25
X-19.754 Y65.047 Z-16.016 R0.25
X-20.246 Y64.953 Z-16.155 R0.25
X-19.754 Y65.047 Z-16.293 R0.25
X-20.246 Y64.953 Z-16.432 R0.25
X-19.754 Y65.047 Z-16.57 R0.25
X-20.246 Y64.953 Z-16.709 R0.25
X-19.754 Y65.047 Z-16.847 R0.25
X-20.246 Y64.953 Z-16.986 R0.25
X-19.754 Y65.047 Z-17.124 R0.25
X-20.246 Y64.953 Z-17.263 R0.25
X-19.754 Y65.047 Z-17.401 R0.25
X-20.246 Y64.953 Z-17.539 R0.25
X-19.754 Y65.047 Z-17.678 R0.25
X-20.246 Y64.953 Z-17.816 R0.25
X-19.754 Y65.047 Z-17.955 R0.25
X-20.246 Y64.953 Z-18.093 R0.25
X-19.754 Y65.047 Z-18.232 R0.25
X-20.246 Y64.953 Z-18.37 R0.25
X-19.754 Y65.047 Z-18.509 R0.25
X-20.246 Y64.953 Z-18.647 R0.25
X-19.754 Y65.047 Z-18.786 R0.25
X-20.246 Y64.953 Z-18.924 R0.25
X-19.754 Y65.047 Z-19.063 R0.25
X-20.246 Y64.953 Z-19.201 R0.25
X-19.754 Y65.047 Z-19.34 R0.25
X-20.246 Y64.953 Z-19.478 R0.25
X-19.754 Y65.047 Z-19.617 R0.25
X-20.246 Y64.953 Z-19.755 R0.25
X-19.754 Y65.047 Z-19.894 R0.25
X-20.246 Y64.953 Z-20.032 R0.25
X-19.754 Y65.047 Z-20.171 R0.25
X-20.246 Y64.953 Z-20.309 R0.25
X-19.754 Y65.047 Z-20.448 R0.25
X-20.246 Y64.953 Z-20.586 R0.25
X-19.754 Y65.047 Z-20.725 R0.25
X-20.246 Y64.953 Z-20.863 R0.25
X-19.754 Y65.047 Z-21.002 R0.25
X-20.246 Y64.953 Z-21.14 R0.25
X-19.754 Y65.047 Z-21.279 R0.25
X-20.246 Y64.953 Z-21.417 R0.25
X-19.754 Y65.047 Z-21.556 R0.25
X-20.246 Y64.953 Z-21.694 R0.25
X-19.754 Y65.047 Z-21.833 R0.25
X-20.246 Y64.953 Z-21.971 R0.25
X-19.754 Y65.047 Z-22.11 R0.25
X-20.246 Y64.953 Z-22.248 R0.25
X-19.754 Y65.047 Z-22.387 R0.25
X-20.246 Y64.953 Z-22.525 R0.25
X-19.754 Y65.047 Z-22.663 R0.25
X-20.246 Y64.953 Z-22.802 R0.25
X-19.754 Y65.047 Z-22.94 R0.25
X-20.246 Y64.953 Z-23.079 R0.25
X-19.754 Y65.047 Z-23.217 R0.25
X-20.246 Y64.953 Z-23.356 R0.25
X-19.754 Y65.047 Z-23.494 R0.25
X-20.246 Y64.953 Z-23.633 R0.25
X-19.754 Y65.047 Z-23.771 R0.25
X-20.246 Y64.953 Z-23.91 R0.25
X-19.754 Y65.047 Z-24.048 R0.25
X-20.246 Y64.953 Z-24.187 R0.25
X-19.754 Y65.047 Z-24.325 R0.25
X-20.246 Y64.953 Z-24.464 R0.25
X-19.754 Y65.047 Z-24.602 R0.25
X-20.246 Y64.953 Z-24.741 R0.25
X-19.754 Y65.047 Z-24.879 R0.25
X-20.246 Y64.953 Z-25.018 R0.25
X-19.754 Y65.047 Z-25.156 R0.25
X-20.246 Y64.953 Z-25.295 R0.25
X-19.754 Y65.047 Z-25.433 R0.25
X-20.246 Y64.953 Z-25.572 R0.25
X-19.754 Y65.047 Z-25.71 R0.25
X-20.246 Y64.953 Z-25.849 R0.25
X-19.754 Y65.047 Z-25.987 R0.25
X-20.246 Y64.953 Z-26.126 R0.25
X-19.754 Y65.047 Z-26.264 R0.25
X-20.246 Y64.953 Z-26.403 R0.25
X-19.754 Y65.047 Z-26.541 R0.25
X-20.246 Y64.953 Z-26.68 R0.25
X-19.754 Y65.047 Z-26.818 R0.25
X-20.246 Y64.953 Z-26.957 R0.25
X-19.754 Y65.047 Z-27.095 R0.25
X-20.246 Y64.953 Z-27.234 R0.25
X-19.754 Y65.047 Z-27.372 R0.25
X-20.246 Y64.953 Z-27.511 R0.25
X-19.754 Y65.047 Z-27.649 R0.25
X-20.246 Y64.953 Z-27.788 R0.25
X-19.754 Y65.047 Z-27.926 R0.25
X-20.246 Y64.953 Z-28.064 R0.25
X-19.754 Y65.047 Z-28.203 R0.25
X-20.246 Y64.953 Z-28.341 R0.25
X-19.754 Y65.047 Z-28.48 R0.25
X-19.8 Y65.15 Z-28.5 R0.25
X-20.2 Y64.85 R0.25
X-19.8 Y65.15 R0.25
G1 X-20. Y65. Z-28.475
G0 Z2.
X20.114 Y64.777
Z-10.5
G1 Z-12. F466.
G3 X19.886 Y65.223 Z-12.138 R0.25
X20.114 Y64.777 Z-12.277 R0.25
X19.886 Y65.223 Z-12.415 R0.25
X20.114 Y64.777 Z-12.554 R0.25
X19.886 Y65.223 Z-12.692 R0.25
X20.114 Y64.777 Z-12.831 R0.25
X19.886 Y65.223 Z-12.969 R0.25
X20.114 Y64.777 Z-13.108 R0.25
X19.886 Y65.223 Z-13.246 R0.25
X20.114 Y64.777 Z-13.385 R0.25
X19.886 Y65.223 Z-13.523 R0.25
X20.114 Y64.777 Z-13.662 R0.25
X19.886 Y65.223 Z-13.8 R0.25
X20.114 Y64.777 Z-13.939 R0.25
X19.886 Y65.223 Z-14.077 R0.25
X20.114 Y64.777 Z-14.216 R0.25
X19.886 Y65.223 Z-14.354 R0.25
X20.114 Y64.777 Z-14.493 R0.25
X19.886 Y65.223 Z-14.631 R0.25
X20.114 Y64.777 Z-14.77 R0.25
X19.886 Y65.223 Z-14.908 R0.25
X20.114 Y64.777 Z-15.047 R0.25
X19.886 Y65.223 Z-15.185 R0.25
X20.114 Y64.777 Z-15.324 R0.25
X19.886 Y65.223 Z-15.462 R0.25
X20.114 Y64.777 Z-15.601 R0.25
X19.886 Y65.223 Z-15.739 R0.25
X20.114 Y64.777 Z-15.878 R0.25
X19.886 Y65.223 Z-16.016 R0.25
X20.114 Y64.777 Z-16.155 R0.25
X19.886 Y65.223 Z-16.293 R0.25
X20.114 Y64.777 Z-16.432 R0.25
X19.886 Y65.223 Z-16.57 R0.25
X20.114 Y64.777 Z-16.709 R0.25
X19.886 Y65.223 Z-16.847 R0.25
X20.114 Y64.777 Z-16.986 R0.25
X19.886 Y65.223 Z-17.124 R0.25
X20.114 Y64.777 Z-17.263 R0.25
X19.886 Y65.223 Z-17.401 R0.25
X20.114 Y64.777 Z-17.539 R0.25
X19.886 Y65.223 Z-17.678 R0.25
X20.114 Y64.777 Z-17.816 R0.25
X19.886 Y65.223 Z-17.955 R0.25
X20.114 Y64.777 Z-18.093 R0.25
X19.886 Y65.223 Z-18.232 R0.25
X20.114 Y64.777 Z-18.37 R0.25
X19.886 Y65.223 Z-18.509 R0.25
X20.114 Y64.777 Z-18.647 R0.25
X19.886 Y65.223 Z-18.786 R0.25
X20.114 Y64.777 Z-18.924 R0.25
X19.886 Y65.223 Z-19.063 R0.25
X20.114 Y64.777 Z-19.201 R0.25
X19.886 Y65.223 Z-19.34 R0.25
X20.114 Y64.777 Z-19.478 R0.25
X19.886 Y65.223 Z-19.617 R0.25
X20.114 Y64.777 Z-19.755 R0.25
X19.886 Y65.223 Z-19.894 R0.25
X20.114 Y64.777 Z-20.032 R0.25
X19.886 Y65.223 Z-20.171 R0.25
X20.114 Y64.777 Z-20.309 R0.25
X19.886 Y65.223 Z-20.448 R0.25
X20.114 Y64.777 Z-20.586 R0.25
X19.886 Y65.223 Z-20.725 R0.25
X20.114 Y64.777 Z-20.863 R0.25
X19.886 Y65.223 Z-21.002 R0.25
X20.114 Y64.777 Z-21.14 R0.25
X19.886 Y65.223 Z-21.279 R0.25
X20.114 Y64.777 Z-21.417 R0.25
X19.886 Y65.223 Z-21.556 R0.25
X20.114 Y64.777 Z-21.694 R0.25
X19.886 Y65.223 Z-21.833 R0.25
X20.114 Y64.777 Z-21.971 R0.25
X19.886 Y65.223 Z-22.11 R0.25
X20.114 Y64.777 Z-22.248 R0.25
X19.886 Y65.223 Z-22.387 R0.25
X20.114 Y64.777 Z-22.525 R0.25
X19.886 Y65.223 Z-22.663 R0.25
X20.114 Y64.777 Z-22.802 R0.25
X19.886 Y65.223 Z-22.94 R0.25
X20.114 Y64.777 Z-23.079 R0.25
X19.886 Y65.223 Z-23.217 R0.25
X20.114 Y64.777 Z-23.356 R0.25
X19.886 Y65.223 Z-23.494 R0.25
X20.114 Y64.777 Z-23.633 R0.25
X19.886 Y65.223 Z-23.771 R0.25
X20.114 Y64.777 Z-23.91 R0.25
X19.886 Y65.223 Z-24.048 R0.25
X20.114 Y64.777 Z-24.187 R0.25
X19.886 Y65.223 Z-24.325 R0.25
X20.114 Y64.777 Z-24.464 R0.25
X19.886 Y65.223 Z-24.602 R0.25
X20.114 Y64.777 Z-24.741 R0.25
X19.886 Y65.223 Z-24.879 R0.25
X20.114 Y64.777 Z-25.018 R0.25
X19.886 Y65.223 Z-25.156 R0.25
X20.114 Y64.777 Z-25.295 R0.25
X19.886 Y65.223 Z-25.433 R0.25
X20.114 Y64.777 Z-25.572 R0.25
X19.886 Y65.223 Z-25.71 R0.25
X20.114 Y64.777 Z-25.849 R0.25
X19.886 Y65.223 Z-25.987 R0.25
X20.114 Y64.777 Z-26.126 R0.25
X19.886 Y65.223 Z-26.264 R0.25
X20.114 Y64.777 Z-26.403 R0.25
X19.886 Y65.223 Z-26.541 R0.25
X20.114 Y64.777 Z-26.68 R0.25
X19.886 Y65.223 Z-26.818 R0.25
X20.114 Y64.777 Z-26.957 R0.25
X19.886 Y65.223 Z-27.095 R0.25
X20.114 Y64.777 Z-27.234 R0.25
X19.886 Y65.223 Z-27.372 R0.25
X20.114 Y64.777 Z-27.511 R0.25
X19.886 Y65.223 Z-27.649 R0.25
X20.114 Y64.777 Z-27.788 R0.25
X19.886 Y65.223 Z-27.926 R0.25
X20.114 Y64.777 Z-28.064 R0.25
X19.886 Y65.223 Z-28.203 R0.25
X20.114 Y64.777 Z-28.341 R0.25
X19.886 Y65.223 Z-28.48 R0.25
X19.8 Y65.15 Z-28.5 R0.25
X20.2 Y64.85 R0.25
X19.8 Y65.15 R0.25
G1 X20. Y65. Z-28.475
G0 Z2.
X20.114 Y24.777
Z-10.5
G1 Z-12. F466.
G3 X19.886 Y25.223 Z-12.138 R0.25
X20.114 Y24.777 Z-12.277 R0.25
X19.886 Y25.223 Z-12.415 R0.25
X20.114 Y24.777 Z-12.554 R0.25
X19.886 Y25.223 Z-12.692 R0.25
X20.114 Y24.777 Z-12.831 R0.25
X19.886 Y25.223 Z-12.969 R0.25
X20.114 Y24.777 Z-13.108 R0.25
X19.886 Y25.223 Z-13.246 R0.25
X20.114 Y24.777 Z-13.385 R0.25
X19.886 Y25.223 Z-13.523 R0.25
X20.114 Y24.777 Z-13.662 R0.25
X19.886 Y25.223 Z-13.8 R0.25
X20.114 Y24.777 Z-13.939 R0.25
X19.886 Y25.223 Z-14.077 R0.25
X20.114 Y24.777 Z-14.216 R0.25
X19.886 Y25.223 Z-14.354 R0.25
X20.114 Y24.777 Z-14.493 R0.25
X19.886 Y25.223 Z-14.631 R0.25
X20.114 Y24.777 Z-14.77 R0.25
X19.886 Y25.223 Z-14.908 R0.25
X20.114 Y24.777 Z-15.047 R0.25
X19.886 Y25.223 Z-15.185 R0.25
X20.114 Y24.777 Z-15.324 R0.25
X19.886 Y25.223 Z-15.462 R0.25
X20.114 Y24.777 Z-15.601 R0.25
X19.886 Y25.223 Z-15.739 R0.25
X20.114 Y24.777 Z-15.878 R0.25
X19.886 Y25.223 Z-16.016 R0.25
X20.114 Y24.777 Z-16.155 R0.25
X19.886 Y25.223 Z-16.293 R0.25
X20.114 Y24.777 Z-16.432 R0.25
X19.886 Y25.223 Z-16.57 R0.25
X20.114 Y24.777 Z-16.709 R0.25
X19.886 Y25.223 Z-16.847 R0.25
X20.114 Y24.777 Z-16.986 R0.25
X19.886 Y25.223 Z-17.124 R0.25
X20.114 Y24.777 Z-17.263 R0.25
X19.886 Y25.223 Z-17.401 R0.25
X20.114 Y24.777 Z-17.539 R0.25
X19.886 Y25.223 Z-17.678 R0.25
X20.114 Y24.777 Z-17.816 R0.25
X19.886 Y25.223 Z-17.955 R0.25
X20.114 Y24.777 Z-18.093 R0.25
X19.886 Y25.223 Z-18.232 R0.25
X20.114 Y24.777 Z-18.37 R0.25
X19.886 Y25.223 Z-18.509 R0.25
X20.114 Y24.777 Z-18.647 R0.25
X19.886 Y25.223 Z-18.786 R0.25
X20.114 Y24.777 Z-18.924 R0.25
X19.886 Y25.223 Z-19.063 R0.25
X20.114 Y24.777 Z-19.201 R0.25
X19.886 Y25.223 Z-19.34 R0.25
X20.114 Y24.777 Z-19.478 R0.25
X19.886 Y25.223 Z-19.617 R0.25
X20.114 Y24.777 Z-19.755 R0.25
X19.886 Y25.223 Z-19.894 R0.25
X20.114 Y24.777 Z-20.032 R0.25
X19.886 Y25.223 Z-20.171 R0.25
X20.114 Y24.777 Z-20.309 R0.25
X19.886 Y25.223 Z-20.448 R0.25
X20.114 Y24.777 Z-20.586 R0.25
X19.886 Y25.223 Z-20.725 R0.25
X20.114 Y24.777 Z-20.863 R0.25
X19.886 Y25.223 Z-21.002 R0.25
X20.114 Y24.777 Z-21.14 R0.25
X19.886 Y25.223 Z-21.279 R0.25
X20.114 Y24.777 Z-21.417 R0.25
X19.886 Y25.223 Z-21.556 R0.25
X20.114 Y24.777 Z-21.694 R0.25
X19.886 Y25.223 Z-21.833 R0.25
X20.114 Y24.777 Z-21.971 R0.25
X19.886 Y25.223 Z-22.11 R0.25
X20.114 Y24.777 Z-22.248 R0.25
X19.886 Y25.223 Z-22.387 R0.25
X20.114 Y24.777 Z-22.525 R0.25
X19.886 Y25.223 Z-22.663 R0.25
X20.114 Y24.777 Z-22.802 R0.25
X19.886 Y25.223 Z-22.94 R0.25
X20.114 Y24.777 Z-23.079 R0.25
X19.886 Y25.223 Z-23.217 R0.25
X20.114 Y24.777 Z-23.356 R0.25
X19.886 Y25.223 Z-23.494 R0.25
X20.114 Y24.777 Z-23.633 R0.25
X19.886 Y25.223 Z-23.771 R0.25
X20.114 Y24.777 Z-23.91 R0.25
X19.886 Y25.223 Z-24.048 R0.25
X20.114 Y24.777 Z-24.187 R0.25
X19.886 Y25.223 Z-24.325 R0.25
X20.114 Y24.777 Z-24.464 R0.25
X19.886 Y25.223 Z-24.602 R0.25
X20.114 Y24.777 Z-24.741 R0.25
X19.886 Y25.223 Z-24.879 R0.25
X20.114 Y24.777 Z-25.018 R0.25
X19.886 Y25.223 Z-25.156 R0.25
X20.114 Y24.777 Z-25.295 R0.25
X19.886 Y25.223 Z-25.433 R0.25
X20.114 Y24.777 Z-25.572 R0.25
X19.886 Y25.223 Z-25.71 R0.25
X20.114 Y24.777 Z-25.849 R0.25
X19.886 Y25.223 Z-25.987 R0.25
X20.114 Y24.777 Z-26.126 R0.25
X19.886 Y25.223 Z-26.264 R0.25
X20.114 Y24.777 Z-26.403 R0.25
X19.886 Y25.223 Z-26.541 R0.25
X20.114 Y24.777 Z-26.68 R0.25
X19.886 Y25.223 Z-26.818 R0.25
X20.114 Y24.777 Z-26.957 R0.25
X19.886 Y25.223 Z-27.095 R0.25
X20.114 Y24.777 Z-27.234 R0.25
X19.886 Y25.223 Z-27.372 R0.25
X20.114 Y24.777 Z-27.511 R0.25
X19.886 Y25.223 Z-27.649 R0.25
X20.114 Y24.777 Z-27.788 R0.25
X19.886 Y25.223 Z-27.926 R0.25
X20.114 Y24.777 Z-28.064 R0.25
X19.886 Y25.223 Z-28.203 R0.25
X20.114 Y24.777 Z-28.341 R0.25
X19.886 Y25.223 Z-28.48 R0.25
X19.8 Y25.15 Z-28.5 R0.25
X20.2 Y24.85 R0.25
X19.8 Y25.15 R0.25
G1 X20. Y25. Z-28.475
G0 Z2.
X20.11 Y-19.775
Z-10.5
G1 Z-12. F466.
G3 X19.89 Y-20.225 Z-12.138 R0.25
X20.11 Y-19.775 Z-12.277 R0.25
X19.89 Y-20.225 Z-12.415 R0.25
X20.11 Y-19.775 Z-12.554 R0.25
X19.89 Y-20.225 Z-12.692 R0.25
X20.11 Y-19.775 Z-12.831 R0.25
X19.89 Y-20.225 Z-12.969 R0.25
X20.11 Y-19.775 Z-13.108 R0.25
X19.89 Y-20.225 Z-13.246 R0.25
X20.11 Y-19.775 Z-13.385 R0.25
X19.89 Y-20.225 Z-13.523 R0.25
X20.11 Y-19.775 Z-13.662 R0.25
X19.89 Y-20.225 Z-13.8 R0.25
X20.11 Y-19.775 Z-13.939 R0.25
X19.89 Y-20.225 Z-14.077 R0.25
X20.11 Y-19.775 Z-14.216 R0.25
X19.89 Y-20.225 Z-14.354 R0.25
X20.11 Y-19.775 Z-14.493 R0.25
X19.89 Y-20.225 Z-14.631 R0.25
X20.11 Y-19.775 Z-14.77 R0.25
X19.89 Y-20.225 Z-14.908 R0.25
X20.11 Y-19.775 Z-15.047 R0.25
X19.89 Y-20.225 Z-15.185 R0.25
X20.11 Y-19.775 Z-15.324 R0.25
X19.89 Y-20.225 Z-15.462 R0.25
X20.11 Y-19.775 Z-15.601 R0.25
X19.89 Y-20.225 Z-15.739 R0.25
X20.11 Y-19.775 Z-15.878 R0.25
X19.89 Y-20.225 Z-16.016 R0.25
X20.11 Y-19.775 Z-16.155 R0.25
X19.89 Y-20.225 Z-16.293 R0.25
X20.11 Y-19.775 Z-16.432 R0.25
X19.89 Y-20.225 Z-16.57 R0.25
X20.11 Y-19.775 Z-16.709 R0.25
X19.89 Y-20.225 Z-16.847 R0.25
X20.11 Y-19.775 Z-16.986 R0.25
X19.89 Y-20.225 Z-17.124 R0.25
X20.11 Y-19.775 Z-17.263 R0.25
X19.89 Y-20.225 Z-17.401 R0.25
X20.11 Y-19.775 Z-17.539 R0.25
X19.89 Y-20.225 Z-17.678 R0.25
X20.11 Y-19.775 Z-17.816 R0.25
X19.89 Y-20.225 Z-17.955 R0.25
X20.11 Y-19.775 Z-18.093 R0.25
X19.89 Y-20.225 Z-18.232 R0.25
X20.11 Y-19.775 Z-18.37 R0.25
X19.89 Y-20.225 Z-18.509 R0.25
X20.11 Y-19.775 Z-18.647 R0.25
X19.89 Y-20.225 Z-18.786 R0.25
X20.11 Y-19.775 Z-18.924 R0.25
X19.89 Y-20.225 Z-19.063 R0.25
X20.11 Y-19.775 Z-19.201 R0.25
X19.89 Y-20.225 Z-19.34 R0.25
X20.11 Y-19.775 Z-19.478 R0.25
X19.89 Y-20.225 Z-19.617 R0.25
X20.11 Y-19.775 Z-19.755 R0.25
X19.89 Y-20.225 Z-19.894 R0.25
X20.11 Y-19.775 Z-20.032 R0.25
X19.89 Y-20.225 Z-20.171 R0.25
X20.11 Y-19.775 Z-20.309 R0.25
X19.89 Y-20.225 Z-20.448 R0.25
X20.11 Y-19.775 Z-20.586 R0.25
X19.89 Y-20.225 Z-20.725 R0.25
X20.11 Y-19.775 Z-20.863 R0.25
X19.89 Y-20.225 Z-21.002 R0.25
X20.11 Y-19.775 Z-21.14 R0.25
X19.89 Y-20.225 Z-21.279 R0.25
X20.11 Y-19.775 Z-21.417 R0.25
X19.89 Y-20.225 Z-21.556 R0.25
X20.11 Y-19.775 Z-21.694 R0.25
X19.89 Y-20.225 Z-21.833 R0.25
X20.11 Y-19.775 Z-21.971 R0.25
X19.89 Y-20.225 Z-22.11 R0.25
X20.11 Y-19.775 Z-22.248 R0.25
X19.89 Y-20.225 Z-22.387 R0.25
X20.11 Y-19.775 Z-22.525 R0.25
X19.89 Y-20.225 Z-22.663 R0.25
X20.11 Y-19.775 Z-22.802 R0.25
X19.89 Y-20.225 Z-22.94 R0.25
X20.11 Y-19.775 Z-23.079 R0.25
X19.89 Y-20.225 Z-23.217 R0.25
X20.11 Y-19.775 Z-23.356 R0.25
X19.89 Y-20.225 Z-23.494 R0.25
X20.11 Y-19.775 Z-23.633 R0.25
X19.89 Y-20.225 Z-23.771 R0.25
X20.11 Y-19.775 Z-23.91 R0.25
X19.89 Y-20.225 Z-24.048 R0.25
X20.11 Y-19.775 Z-24.187 R0.25
X19.89 Y-20.225 Z-24.325 R0.25
X20.11 Y-19.775 Z-24.464 R0.25
X19.89 Y-20.225 Z-24.602 R0.25
X20.11 Y-19.775 Z-24.741 R0.25
X19.89 Y-20.225 Z-24.879 R0.25
X20.11 Y-19.775 Z-25.018 R0.25
X19.89 Y-20.225 Z-25.156 R0.25
X20.11 Y-19.775 Z-25.295 R0.25
X19.89 Y-20.225 Z-25.433 R0.25
X20.11 Y-19.775 Z-25.572 R0.25
X19.89 Y-20.225 Z-25.71 R0.25
X20.11 Y-19.775 Z-25.849 R0.25
X19.89 Y-20.225 Z-25.987 R0.25
X20.11 Y-19.775 Z-26.126 R0.25
X19.89 Y-20.225 Z-26.264 R0.25
X20.11 Y-19.775 Z-26.403 R0.25
X19.89 Y-20.225 Z-26.541 R0.25
X20.11 Y-19.775 Z-26.68 R0.25
X19.89 Y-20.225 Z-26.818 R0.25
X20.11 Y-19.775 Z-26.957 R0.25
X19.89 Y-20.225 Z-27.095 R0.25
X20.11 Y-19.775 Z-27.234 R0.25
X19.89 Y-20.225 Z-27.372 R0.25
X20.11 Y-19.775 Z-27.511 R0.25
X19.89 Y-20.225 Z-27.649 R0.25
X20.11 Y-19.775 Z-27.788 R0.25
X19.89 Y-20.225 Z-27.926 R0.25
X20.11 Y-19.775 Z-28.064 R0.25
X19.89 Y-20.225 Z-28.203 R0.25
X20.11 Y-19.775 Z-28.341 R0.25
X19.89 Y-20.225 Z-28.48 R0.25
X20. Y-20.25 Z-28.5 R0.25
Y-19.75 R0.25
Y-20.25 R0.25
G1 Y-20. Z-28.475
G0 Z2.
X20.11 Y-59.775
Z-10.5
G1 Z-12. F466.
G3 X19.89 Y-60.225 Z-12.138 R0.25
X20.11 Y-59.775 Z-12.277 R0.25
X19.89 Y-60.225 Z-12.415 R0.25
X20.11 Y-59.775 Z-12.554 R0.25
X19.89 Y-60.225 Z-12.692 R0.25
X20.11 Y-59.775 Z-12.831 R0.25
X19.89 Y-60.225 Z-12.969 R0.25
X20.11 Y-59.775 Z-13.108 R0.25
X19.89 Y-60.225 Z-13.246 R0.25
X20.11 Y-59.775 Z-13.385 R0.25
X19.89 Y-60.225 Z-13.523 R0.25
X20.11 Y-59.775 Z-13.662 R0.25
X19.89 Y-60.225 Z-13.8 R0.25
X20.11 Y-59.775 Z-13.939 R0.25
X19.89 Y-60.225 Z-14.077 R0.25
X20.11 Y-59.775 Z-14.216 R0.25
X19.89 Y-60.225 Z-14.354 R0.25
X20.11 Y-59.775 Z-14.493 R0.25
X19.89 Y-60.225 Z-14.631 R0.25
X20.11 Y-59.775 Z-14.77 R0.25
X19.89 Y-60.225 Z-14.908 R0.25
X20.11 Y-59.775 Z-15.047 R0.25
X19.89 Y-60.225 Z-15.185 R0.25
X20.11 Y-59.775 Z-15.324 R0.25
X19.89 Y-60.225 Z-15.462 R0.25
X20.11 Y-59.775 Z-15.601 R0.25
X19.89 Y-60.225 Z-15.739 R0.25
X20.11 Y-59.775 Z-15.878 R0.25
X19.89 Y-60.225 Z-16.016 R0.25
X20.11 Y-59.775 Z-16.155 R0.25
X19.89 Y-60.225 Z-16.293 R0.25
X20.11 Y-59.775 Z-16.432 R0.25
X19.89 Y-60.225 Z-16.57 R0.25
X20.11 Y-59.775 Z-16.709 R0.25
X19.89 Y-60.225 Z-16.847 R0.25
X20.11 Y-59.775 Z-16.986 R0.25
X19.89 Y-60.225 Z-17.124 R0.25
X20.11 Y-59.775 Z-17.263 R0.25
X19.89 Y-60.225 Z-17.401 R0.25
X20.11 Y-59.775 Z-17.539 R0.25
X19.89 Y-60.225 Z-17.678 R0.25
X20.11 Y-59.775 Z-17.816 R0.25
X19.89 Y-60.225 Z-17.955 R0.25
X20.11 Y-59.775 Z-18.093 R0.25
X19.89 Y-60.225 Z-18.232 R0.25
X20.11 Y-59.775 Z-18.37 R0.25
X19.89 Y-60.225 Z-18.509 R0.25
X20.11 Y-59.775 Z-18.647 R0.25
X19.89 Y-60.225 Z-18.786 R0.25
X20.11 Y-59.775 Z-18.924 R0.25
X19.89 Y-60.225 Z-19.063 R0.25
X20.11 Y-59.775 Z-19.201 R0.25
X19.89 Y-60.225 Z-19.34 R0.25
X20.11 Y-59.775 Z-19.478 R0.25
X19.89 Y-60.225 Z-19.617 R0.25
X20.11 Y-59.775 Z-19.755 R0.25
X19.89 Y-60.225 Z-19.894 R0.25
X20.11 Y-59.775 Z-20.032 R0.25
X19.89 Y-60.225 Z-20.171 R0.25
X20.11 Y-59.775 Z-20.309 R0.25
X19.89 Y-60.225 Z-20.448 R0.25
X20.11 Y-59.775 Z-20.586 R0.25
X19.89 Y-60.225 Z-20.725 R0.25
X20.11 Y-59.775 Z-20.863 R0.25
X19.89 Y-60.225 Z-21.002 R0.25
X20.11 Y-59.775 Z-21.14 R0.25
X19.89 Y-60.225 Z-21.279 R0.25
X20.11 Y-59.775 Z-21.417 R0.25
X19.89 Y-60.225 Z-21.556 R0.25
X20.11 Y-59.775 Z-21.694 R0.25
X19.89 Y-60.225 Z-21.833 R0.25
X20.11 Y-59.775 Z-21.971 R0.25
X19.89 Y-60.225 Z-22.11 R0.25
X20.11 Y-59.775 Z-22.248 R0.25
X19.89 Y-60.225 Z-22.387 R0.25
X20.11 Y-59.775 Z-22.525 R0.25
X19.89 Y-60.225 Z-22.663 R0.25
X20.11 Y-59.775 Z-22.802 R0.25
X19.89 Y-60.225 Z-22.94 R0.25
X20.11 Y-59.775 Z-23.079 R0.25
X19.89 Y-60.225 Z-23.217 R0.25
X20.11 Y-59.775 Z-23.356 R0.25
X19.89 Y-60.225 Z-23.494 R0.25
X20.11 Y-59.775 Z-23.633 R0.25
X19.89 Y-60.225 Z-23.771 R0.25
X20.11 Y-59.775 Z-23.91 R0.25
X19.89 Y-60.225 Z-24.048 R0.25
X20.11 Y-59.775 Z-24.187 R0.25
X19.89 Y-60.225 Z-24.325 R0.25
X20.11 Y-59.775 Z-24.464 R0.25
X19.89 Y-60.225 Z-24.602 R0.25
X20.11 Y-59.775 Z-24.741 R0.25
X19.89 Y-60.225 Z-24.879 R0.25
X20.11 Y-59.775 Z-25.018 R0.25
X19.89 Y-60.225 Z-25.156 R0.25
X20.11 Y-59.775 Z-25.295 R0.25
X19.89 Y-60.225 Z-25.433 R0.25
X20.11 Y-59.775 Z-25.572 R0.25
X19.89 Y-60.225 Z-25.71 R0.25
X20.11 Y-59.775 Z-25.849 R0.25
X19.89 Y-60.225 Z-25.987 R0.25
X20.11 Y-59.775 Z-26.126 R0.25
X19.89 Y-60.225 Z-26.264 R0.25
X20.11 Y-59.775 Z-26.403 R0.25
X19.89 Y-60.225 Z-26.541 R0.25
X20.11 Y-59.775 Z-26.68 R0.25
X19.89 Y-60.225 Z-26.818 R0.25
X20.11 Y-59.775 Z-26.957 R0.25
X19.89 Y-60.225 Z-27.095 R0.25
X20.11 Y-59.775 Z-27.234 R0.25
X19.89 Y-60.225 Z-27.372 R0.25
X20.11 Y-59.775 Z-27.511 R0.25
X19.89 Y-60.225 Z-27.649 R0.25
X20.11 Y-59.775 Z-27.788 R0.25
X19.89 Y-60.225 Z-27.926 R0.25
X20.11 Y-59.775 Z-28.064 R0.25
X19.89 Y-60.225 Z-28.203 R0.25
X20.11 Y-59.775 Z-28.341 R0.25
X19.89 Y-60.225 Z-28.48 R0.25
X20. Y-60.25 Z-28.5 R0.25
Y-59.75 R0.25
Y-60.25 R0.25
G1 Y-60. Z-28.475
G0 Z2.
X-20.246 Y-60.047
Z-10.5
G1 Z-12. F466.
G3 X-19.754 Y-59.953 Z-12.138 R0.25
X-20.246 Y-60.047 Z-12.277 R0.25
X-19.754 Y-59.953 Z-12.415 R0.25
X-20.246 Y-60.047 Z-12.554 R0.25
X-19.754 Y-59.953 Z-12.692 R0.25
X-20.246 Y-60.047 Z-12.831 R0.25
X-19.754 Y-59.953 Z-12.969 R0.25
X-20.246 Y-60.047 Z-13.108 R0.25
X-19.754 Y-59.953 Z-13.246 R0.25
X-20.246 Y-60.047 Z-13.385 R0.25
X-19.754 Y-59.953 Z-13.523 R0.25
X-20.246 Y-60.047 Z-13.662 R0.25
X-19.754 Y-59.953 Z-13.8 R0.25
X-20.246 Y-60.047 Z-13.939 R0.25
X-19.754 Y-59.953 Z-14.077 R0.25
X-20.246 Y-60.047 Z-14.216 R0.25
X-19.754 Y-59.953 Z-14.354 R0.25
X-20.246 Y-60.047 Z-14.493 R0.25
X-19.754 Y-59.953 Z-14.631 R0.25
X-20.246 Y-60.047 Z-14.77 R0.25
X-19.754 Y-59.953 Z-14.908 R0.25
X-20.246 Y-60.047 Z-15.047 R0.25
X-19.754 Y-59.953 Z-15.185 R0.25
X-20.246 Y-60.047 Z-15.324 R0.25
X-19.754 Y-59.953 Z-15.462 R0.25
X-20.246 Y-60.047 Z-15.601 R0.25
X-19.754 Y-59.953 Z-15.739 R0.25
X-20.246 Y-60.047 Z-15.878 R0.25
X-19.754 Y-59.953 Z-16.016 R0.25
X-20.246 Y-60.047 Z-16.155 R0.25
X-19.754 Y-59.953 Z-16.293 R0.25
X-20.246 Y-60.047 Z-16.432 R0.25
X-19.754 Y-59.953 Z-16.57 R0.25
X-20.246 Y-60.047 Z-16.709 R0.25
X-19.754 Y-59.953 Z-16.847 R0.25
X-20.246 Y-60.047 Z-16.986 R0.25
X-19.754 Y-59.953 Z-17.124 R0.25
X-20.246 Y-60.047 Z-17.263 R0.25
X-19.754 Y-59.953 Z-17.401 R0.25
X-20.246 Y-60.047 Z-17.539 R0.25
X-19.754 Y-59.953 Z-17.678 R0.25
X-20.246 Y-60.047 Z-17.816 R0.25
X-19.754 Y-59.953 Z-17.955 R0.25
X-20.246 Y-60.047 Z-18.093 R0.25
X-19.754 Y-59.953 Z-18.232 R0.25
X-20.246 Y-60.047 Z-18.37 R0.25
X-19.754 Y-59.953 Z-18.509 R0.25
X-20.246 Y-60.047 Z-18.647 R0.25
X-19.754 Y-59.953 Z-18.786 R0.25
X-20.246 Y-60.047 Z-18.924 R0.25
X-19.754 Y-59.953 Z-19.063 R0.25
X-20.246 Y-60.047 Z-19.201 R0.25
X-19.754 Y-59.953 Z-19.34 R0.25
X-20.246 Y-60.047 Z-19.478 R0.25
X-19.754 Y-59.953 Z-19.617 R0.25
X-20.246 Y-60.047 Z-19.755 R0.25
X-19.754 Y-59.953 Z-19.894 R0.25
X-20.246 Y-60.047 Z-20.032 R0.25
X-19.754 Y-59.953 Z-20.171 R0.25
X-20.246 Y-60.047 Z-20.309 R0.25
X-19.754 Y-59.953 Z-20.448 R0.25
X-20.246 Y-60.047 Z-20.586 R0.25
X-19.754 Y-59.953 Z-20.725 R0.25
X-20.246 Y-60.047 Z-20.863 R0.25
X-19.754 Y-59.953 Z-21.002 R0.25
X-20.246 Y-60.047 Z-21.14 R0.25
X-19.754 Y-59.953 Z-21.279 R0.25
X-20.246 Y-60.047 Z-21.417 R0.25
X-19.754 Y-59.953 Z-21.556 R0.25
X-20.246 Y-60.047 Z-21.694 R0.25
X-19.754 Y-59.953 Z-21.833 R0.25
X-20.246 Y-60.047 Z-21.971 R0.25
X-19.754 Y-59.953 Z-22.11 R0.25
X-20.246 Y-60.047 Z-22.248 R0.25
X-19.754 Y-59.953 Z-22.387 R0.25
X-20.246 Y-60.047 Z-22.525 R0.25
X-19.754 Y-59.953 Z-22.663 R0.25
X-20.246 Y-60.047 Z-22.802 R0.25
X-19.754 Y-59.953 Z-22.94 R0.25
X-20.246 Y-60.047 Z-23.079 R0.25
X-19.754 Y-59.953 Z-23.217 R0.25
X-20.246 Y-60.047 Z-23.356 R0.25
X-19.754 Y-59.953 Z-23.494 R0.25
X-20.246 Y-60.047 Z-23.633 R0.25
X-19.754 Y-59.953 Z-23.771 R0.25
X-20.246 Y-60.047 Z-23.91 R0.25
X-19.754 Y-59.953 Z-24.048 R0.25
X-20.246 Y-60.047 Z-24.187 R0.25
X-19.754 Y-59.953 Z-24.325 R0.25
X-20.246 Y-60.047 Z-24.464 R0.25
X-19.754 Y-59.953 Z-24.602 R0.25
X-20.246 Y-60.047 Z-24.741 R0.25
X-19.754 Y-59.953 Z-24.879 R0.25
X-20.246 Y-60.047 Z-25.018 R0.25
X-19.754 Y-59.953 Z-25.156 R0.25
X-20.246 Y-60.047 Z-25.295 R0.25
X-19.754 Y-59.953 Z-25.433 R0.25
X-20.246 Y-60.047 Z-25.572 R0.25
X-19.754 Y-59.953 Z-25.71 R0.25
X-20.246 Y-60.047 Z-25.849 R0.25
X-19.754 Y-59.953 Z-25.987 R0.25
X-20.246 Y-60.047 Z-26.126 R0.25
X-19.754 Y-59.953 Z-26.264 R0.25
X-20.246 Y-60.047 Z-26.403 R0.25
X-19.754 Y-59.953 Z-26.541 R0.25
X-20.246 Y-60.047 Z-26.68 R0.25
X-19.754 Y-59.953 Z-26.818 R0.25
X-20.246 Y-60.047 Z-26.957 R0.25
X-19.754 Y-59.953 Z-27.095 R0.25
X-20.246 Y-60.047 Z-27.234 R0.25
X-19.754 Y-59.953 Z-27.372 R0.25
X-20.246 Y-60.047 Z-27.511 R0.25
X-19.754 Y-59.953 Z-27.649 R0.25
X-20.246 Y-60.047 Z-27.788 R0.25
X-19.754 Y-59.953 Z-27.926 R0.25
X-20.246 Y-60.047 Z-28.064 R0.25
X-19.754 Y-59.953 Z-28.203 R0.25
X-20.246 Y-60.047 Z-28.341 R0.25
X-19.754 Y-59.953 Z-28.48 R0.25
X-19.8 Y-59.85 Z-28.5 R0.25
X-20.2 Y-60.15 R0.25
X-19.8 Y-59.85 R0.25
G1 X-20. Y-60. Z-28.475
G0 Z2.
X-19.886 Y-20.223
Z-10.5
G1 Z-12. F466.
G3 X-20.114 Y-19.777 Z-12.138 R0.25
X-19.886 Y-20.223 Z-12.277 R0.25
X-20.114 Y-19.777 Z-12.415 R0.25
X-19.886 Y-20.223 Z-12.554 R0.25
X-20.114 Y-19.777 Z-12.692 R0.25
X-19.886 Y-20.223 Z-12.831 R0.25
X-20.114 Y-19.777 Z-12.969 R0.25
X-19.886 Y-20.223 Z-13.108 R0.25
X-20.114 Y-19.777 Z-13.246 R0.25
X-19.886 Y-20.223 Z-13.385 R0.25
X-20.114 Y-19.777 Z-13.523 R0.25
X-19.886 Y-20.223 Z-13.662 R0.25
X-20.114 Y-19.777 Z-13.8 R0.25
X-19.886 Y-20.223 Z-13.939 R0.25
X-20.114 Y-19.777 Z-14.077 R0.25
X-19.886 Y-20.223 Z-14.216 R0.25
X-20.114 Y-19.777 Z-14.354 R0.25
X-19.886 Y-20.223 Z-14.493 R0.25
X-20.114 Y-19.777 Z-14.631 R0.25
X-19.886 Y-20.223 Z-14.77 R0.25
X-20.114 Y-19.777 Z-14.908 R0.25
X-19.886 Y-20.223 Z-15.047 R0.25
X-20.114 Y-19.777 Z-15.185 R0.25
X-19.886 Y-20.223 Z-15.324 R0.25
X-20.114 Y-19.777 Z-15.462 R0.25
X-19.886 Y-20.223 Z-15.601 R0.25
X-20.114 Y-19.777 Z-15.739 R0.25
X-19.886 Y-20.223 Z-15.878 R0.25
X-20.114 Y-19.777 Z-16.016 R0.25
X-19.886 Y-20.223 Z-16.155 R0.25
X-20.114 Y-19.777 Z-16.293 R0.25
X-19.886 Y-20.223 Z-16.432 R0.25
X-20.114 Y-19.777 Z-16.57 R0.25
X-19.886 Y-20.223 Z-16.709 R0.25
X-20.114 Y-19.777 Z-16.847 R0.25
X-19.886 Y-20.223 Z-16.986 R0.25
X-20.114 Y-19.777 Z-17.124 R0.25
X-19.886 Y-20.223 Z-17.263 R0.25
X-20.114 Y-19.777 Z-17.401 R0.25
X-19.886 Y-20.223 Z-17.539 R0.25
X-20.114 Y-19.777 Z-17.678 R0.25
X-19.886 Y-20.223 Z-17.816 R0.25
X-20.114 Y-19.777 Z-17.955 R0.25
X-19.886 Y-20.223 Z-18.093 R0.25
X-20.114 Y-19.777 Z-18.232 R0.25
X-19.886 Y-20.223 Z-18.37 R0.25
X-20.114 Y-19.777 Z-18.509 R0.25
X-19.886 Y-20.223 Z-18.647 R0.25
X-20.114 Y-19.777 Z-18.786 R0.25
X-19.886 Y-20.223 Z-18.924 R0.25
X-20.114 Y-19.777 Z-19.063 R0.25
X-19.886 Y-20.223 Z-19.201 R0.25
X-20.114 Y-19.777 Z-19.34 R0.25
X-19.886 Y-20.223 Z-19.478 R0.25
X-20.114 Y-19.777 Z-19.617 R0.25
X-19.886 Y-20.223 Z-19.755 R0.25
X-20.114 Y-19.777 Z-19.894 R0.25
X-19.886 Y-20.223 Z-20.032 R0.25
X-20.114 Y-19.777 Z-20.171 R0.25
X-19.886 Y-20.223 Z-20.309 R0.25
X-20.114 Y-19.777 Z-20.448 R0.25
X-19.886 Y-20.223 Z-20.586 R0.25
X-20.114 Y-19.777 Z-20.725 R0.25
X-19.886 Y-20.223 Z-20.863 R0.25
X-20.114 Y-19.777 Z-21.002 R0.25
X-19.886 Y-20.223 Z-21.14 R0.25
X-20.114 Y-19.777 Z-21.279 R0.25
X-19.886 Y-20.223 Z-21.417 R0.25
X-20.114 Y-19.777 Z-21.556 R0.25
X-19.886 Y-20.223 Z-21.694 R0.25
X-20.114 Y-19.777 Z-21.833 R0.25
X-19.886 Y-20.223 Z-21.971 R0.25
X-20.114 Y-19.777 Z-22.11 R0.25
X-19.886 Y-20.223 Z-22.248 R0.25
X-20.114 Y-19.777 Z-22.387 R0.25
X-19.886 Y-20.223 Z-22.525 R0.25
X-20.114 Y-19.777 Z-22.663 R0.25
X-19.886 Y-20.223 Z-22.802 R0.25
X-20.114 Y-19.777 Z-22.94 R0.25
X-19.886 Y-20.223 Z-23.079 R0.25
X-20.114 Y-19.777 Z-23.217 R0.25
X-19.886 Y-20.223 Z-23.356 R0.25
X-20.114 Y-19.777 Z-23.494 R0.25
X-19.886 Y-20.223 Z-23.633 R0.25
X-20.114 Y-19.777 Z-23.771 R0.25
X-19.886 Y-20.223 Z-23.91 R0.25
X-20.114 Y-19.777 Z-24.048 R0.25
X-19.886 Y-20.223 Z-24.187 R0.25
X-20.114 Y-19.777 Z-24.325 R0.25
X-19.886 Y-20.223 Z-24.464 R0.25
X-20.114 Y-19.777 Z-24.602 R0.25
X-19.886 Y-20.223 Z-24.741 R0.25
X-20.114 Y-19.777 Z-24.879 R0.25
X-19.886 Y-20.223 Z-25.018 R0.25
X-20.114 Y-19.777 Z-25.156 R0.25
X-19.886 Y-20.223 Z-25.295 R0.25
X-20.114 Y-19.777 Z-25.433 R0.25
X-19.886 Y-20.223 Z-25.572 R0.25
X-20.114 Y-19.777 Z-25.71 R0.25
X-19.886 Y-20.223 Z-25.849 R0.25
X-20.114 Y-19.777 Z-25.987 R0.25
X-19.886 Y-20.223 Z-26.126 R0.25
X-20.114 Y-19.777 Z-26.264 R0.25
X-19.886 Y-20.223 Z-26.403 R0.25
X-20.114 Y-19.777 Z-26.541 R0.25
X-19.886 Y-20.223 Z-26.68 R0.25
X-20.114 Y-19.777 Z-26.818 R0.25
X-19.886 Y-20.223 Z-26.957 R0.25
X-20.114 Y-19.777 Z-27.095 R0.25
X-19.886 Y-20.223 Z-27.234 R0.25
X-20.114 Y-19.777 Z-27.372 R0.25
X-19.886 Y-20.223 Z-27.511 R0.25
X-20.114 Y-19.777 Z-27.649 R0.25
X-19.886 Y-20.223 Z-27.788 R0.25
X-20.114 Y-19.777 Z-27.926 R0.25
X-19.886 Y-20.223 Z-28.064 R0.25
X-20.114 Y-19.777 Z-28.203 R0.25
X-19.886 Y-20.223 Z-28.341 R0.25
X-20.114 Y-19.777 Z-28.48 R0.25
X-20.2 Y-19.85 Z-28.5 R0.25
X-19.8 Y-20.15 R0.25
X-20.2 Y-19.85 R0.25
G1 X-20. Y-20. Z-28.475
G0 Z4.

M9
M30
