(_20_20_2SIDE)
(T3  D=3.175 CR=0. - ZMIN=-15.5 - FLAT END MILL)
G90 G94 G91.1 G40 G49 G17
G21

(POCKET4)
M5
M9
T3
S10000 M3
G54
M8
G0 X-19.882 Y0.501
G43 Z10. H3
Z2.
G1 Z1.363 F762.
G3 X-19.899 Y0.498 Z1.259 R0.508
X-19.948 Y0.486 Z1.166 R0.508
X-20.021 Y0.457 Z1.095 R0.508
X-20.103 Y0.407 Z1.054 R0.508
X-20.119 Y0.395 Z1.05 R0.508
X-19.478 Y-0.395 Z0.769 R0.508
X-20.119 Y0.395 Z0.487 R0.508
X-19.478 Y-0.395 Z0.206 R0.508
X-20.119 Y0.395 Z-0.076 R0.508
X-19.478 Y-0.395 Z-0.357 R0.508
X-20.119 Y0.395 Z-0.639 R0.508
X-19.478 Y-0.395 Z-0.92 R0.508
X-19.29 Y0. Z-1. R0.508
X-20.713 R0.711
X-19.29 R0.711
G2 X-18.673 Y1.082 R1.257
G3 X-18.773 Y2.324 R0.693
G1 X-19.423 Y2.579
X-20.198 Y2.637
X-20.966 Y2.462
X-21.651 Y2.065
X-22.179 Y1.496
X-22.527 Y0.779
X-22.645 Y0.
X-22.527 Y-0.779
X-22.179 Y-1.496
X-21.651 Y-2.065
X-20.966 Y-2.462
X-20.198 Y-2.637
X-19.423 Y-2.579
X-18.669 Y-2.283
X-18.062 Y-1.799
X-17.616 Y-1.142
X-17.385 Y-0.378
Y0.378
X-17.616 Y1.142
X-18.062 Y1.799
X-18.669 Y2.283
X-18.773 Y2.324
G3 X-18.981 Y2.228 R0.159
G1 X-19.538 Y0.606
G2 X-19.715 Y0.501 R0.159
G3 X-19.882 Y-0.501 Z-1.281 R0.508
X-19.715 Y0.501 Z-1.563 R0.508
X-19.882 Y-0.501 Z-1.844 R0.508
X-19.29 Y0. Z-2. R0.508
X-20.713 R0.711
X-19.29 R0.711
G2 X-18.673 Y1.082 R1.257
G3 X-18.773 Y2.324 R0.693
G1 X-19.423 Y2.579
X-20.198 Y2.637
X-20.966 Y2.462
X-21.651 Y2.065
X-22.179 Y1.496
X-22.527 Y0.779
X-22.645 Y0.
X-22.527 Y-0.779
X-22.179 Y-1.496
X-21.651 Y-2.065
X-20.966 Y-2.462
X-20.198 Y-2.637
X-19.423 Y-2.579
X-18.669 Y-2.283
X-18.062 Y-1.799
X-17.616 Y-1.142
X-17.385 Y-0.378
Y0.378
X-17.616 Y1.142
X-18.062 Y1.799
X-18.669 Y2.283
X-18.773 Y2.324
G3 X-18.981 Y2.228 R0.159
G1 X-19.538 Y0.606
G2 X-19.715 Y0.501 R0.159
G3 X-19.882 Y-0.501 Z-2.281 R0.508
X-19.715 Y0.501 Z-2.563 R0.508
X-19.882 Y-0.501 Z-2.844 R0.508
X-19.29 Y0. Z-3. R0.508
X-20.713 R0.711
X-19.29 R0.711
G2 X-18.673 Y1.082 R1.257
G3 X-18.773 Y2.324 R0.693
G1 X-19.423 Y2.579
X-20.198 Y2.637
X-20.966 Y2.462
X-21.651 Y2.065
X-22.179 Y1.496
X-22.527 Y0.779
X-22.645 Y0.
X-22.527 Y-0.779
X-22.179 Y-1.496
X-21.651 Y-2.065
X-20.966 Y-2.462
X-20.198 Y-2.637
X-19.423 Y-2.579
X-18.669 Y-2.283
X-18.062 Y-1.799
X-17.616 Y-1.142
X-17.385 Y-0.378
Y0.378
X-17.616 Y1.142
X-18.062 Y1.799
X-18.669 Y2.283
X-18.773 Y2.324
G3 X-18.981 Y2.228 R0.159
G1 X-19.538 Y0.606
G2 X-19.715 Y0.501 R0.159
G3 X-19.882 Y-0.501 Z-3.281 R0.508
X-19.715 Y0.501 Z-3.563 R0.508
X-19.882 Y-0.501 Z-3.844 R0.508
X-19.29 Y0. Z-4. R0.508
X-20.713 R0.711
X-19.29 R0.711
G2 X-18.673 Y1.082 R1.257
G3 X-18.773 Y2.324 R0.693
G1 X-19.423 Y2.579
X-20.198 Y2.637
X-20.966 Y2.462
X-21.651 Y2.065
X-22.179 Y1.496
X-22.527 Y0.779
X-22.645 Y0.
X-22.527 Y-0.779
X-22.179 Y-1.496
X-21.651 Y-2.065
X-20.966 Y-2.462
X-20.198 Y-2.637
X-19.423 Y-2.579
X-18.669 Y-2.283
X-18.062 Y-1.799
X-17.616 Y-1.142
X-17.385 Y-0.378
Y0.378
X-17.616 Y1.142
X-18.062 Y1.799
X-18.669 Y2.283
X-18.773 Y2.324
G3 X-18.981 Y2.228 R0.159
G1 X-19.538 Y0.606
G2 X-19.715 Y0.501 R0.159
G3 X-19.882 Y-0.501 Z-4.281 R0.508
X-19.715 Y0.501 Z-4.563 R0.508
X-19.882 Y-0.501 Z-4.844 R0.508
X-19.29 Y0. Z-5. R0.508
X-20.713 R0.711
X-19.29 R0.711
G2 X-18.673 Y1.082 R1.257
G3 X-18.773 Y2.324 R0.693
G1 X-19.423 Y2.579
X-20.198 Y2.637
X-20.966 Y2.462
X-21.651 Y2.065
X-22.179 Y1.496
X-22.527 Y0.779
X-22.645 Y0.
X-22.527 Y-0.779
X-22.179 Y-1.496
X-21.651 Y-2.065
X-20.966 Y-2.462
X-20.198 Y-2.637
X-19.423 Y-2.579
X-18.669 Y-2.283
X-18.062 Y-1.799
X-17.616 Y-1.142
X-17.385 Y-0.378
Y0.378
X-17.616 Y1.142
X-18.062 Y1.799
X-18.669 Y2.283
X-18.773 Y2.324
G3 X-19.421 Y2.061 Z-5.084 R0.508
G1 X-20.261 Y0.21 Z-5.304
G3 X-19.336 Y-0.21 Z-5.477 R0.508
X-19.29 Y0. Z-5.5 R0.508
X-20.713 R0.711
X-19.29 R0.711
G2 X-18.673 Y1.082 R1.257
G3 X-18.773 Y2.324 R0.693
G1 X-19.423 Y2.579
X-20.198 Y2.637
X-20.966 Y2.462
X-21.651 Y2.065
X-22.179 Y1.496
X-22.527 Y0.779
X-22.645 Y0.
X-22.527 Y-0.779
X-22.179 Y-1.496
X-21.651 Y-2.065
X-20.966 Y-2.462
X-20.198 Y-2.637
X-19.423 Y-2.579
X-18.669 Y-2.283
X-18.062 Y-1.799
X-17.616 Y-1.142
X-17.385 Y-0.378
Y0.378
X-17.616 Y1.142
X-18.062 Y1.799
X-18.669 Y2.283
X-18.773 Y2.324
G3 X-18.976 Y2.241 R0.159
G1 X-20.273 Y-0.672
G3 X-20.019 Y-0.852 R0.159
X-20.716 Y-0.112 Z-5.781 R0.508
X-20.019 Y-0.852 Z-6.063 R0.508
X-20.716 Y-0.112 Z-6.344 R0.508
X-20.675 Y-0.887 Z-6.5 R0.508
G1 X-20.505 Y-1.016
X-20.101 Y-1.13
X-19.691 Y-1.092
X-19.311 Y-0.9
X-19.035 Y-0.598
X-18.884 Y-0.209
Y0.209
X-19.035 Y0.598
X-19.311 Y0.9
X-19.689 Y1.091
X-19.708 Y1.093
X-20.101 Y1.13
X-20.505 Y1.016
X-20.842 Y0.76
X-21.057 Y0.412
X-21.135 Y0.
X-21.057 Y-0.412
X-20.949 Y-0.587
X-20.842 Y-0.76
X-20.675 Y-0.887
G3 X-20.571 Y-0.919 R0.159
G1 X-20.12 Y-0.895
G3 X-20.019 Y-0.852 R0.159
X-20.716 Y-0.112 Z-6.781 R0.508
X-20.019 Y-0.852 Z-7.063 R0.508
X-20.716 Y-0.112 Z-7.344 R0.508
X-20.675 Y-0.887 Z-7.5 R0.508
G1 X-20.505 Y-1.016
X-20.101 Y-1.13
X-19.691 Y-1.092
X-19.311 Y-0.9
X-19.035 Y-0.598
X-18.884 Y-0.209
Y0.209
X-19.035 Y0.598
X-19.311 Y0.9
X-19.689 Y1.091
X-19.708 Y1.093
X-20.101 Y1.13
X-20.505 Y1.016
X-20.842 Y0.76
X-21.057 Y0.412
X-21.135 Y0.
X-21.057 Y-0.412
X-20.949 Y-0.587
X-20.842 Y-0.76
X-20.675 Y-0.887
G3 X-20.571 Y-0.919 R0.159
G1 X-20.12 Y-0.895
G3 X-20.019 Y-0.852 R0.159
X-20.716 Y-0.112 Z-7.781 R0.508
X-20.019 Y-0.852 Z-8.063 R0.508
X-20.716 Y-0.112 Z-8.344 R0.508
X-20.675 Y-0.887 Z-8.5 R0.508
G1 X-20.505 Y-1.016
X-20.101 Y-1.13
X-19.691 Y-1.092
X-19.311 Y-0.9
X-19.035 Y-0.598
X-18.884 Y-0.209
Y0.209
X-19.035 Y0.598
X-19.311 Y0.9
X-19.689 Y1.091
X-19.708 Y1.093
X-20.101 Y1.13
X-20.505 Y1.016
X-20.842 Y0.76
X-21.057 Y0.412
X-21.135 Y0.
X-21.057 Y-0.412
X-20.949 Y-0.587
X-20.842 Y-0.76
X-20.675 Y-0.887
G3 X-20.537 Y-0.914 R0.159
G1 X-19.352 Y-0.591
G3 X-19.242 Y-0.39 R0.159
X-20.213 Y-0.692 Z-8.781 R0.508
X-19.242 Y-0.39 Z-9.063 R0.508
X-20.213 Y-0.692 Z-9.344 R0.508
X-19.499 Y-0.995 Z-9.5 R0.508
G1 X-19.311 Y-0.9
X-19.035 Y-0.598
X-18.884 Y-0.209
Y0.209
X-19.035 Y0.598
X-19.311 Y0.9
X-19.689 Y1.091
X-19.708 Y1.093
X-20.101 Y1.13
X-20.505 Y1.016
X-20.842 Y0.76
X-21.057 Y0.412
X-21.135 Y0.
X-21.057 Y-0.412
X-20.949 Y-0.587
X-20.842 Y-0.76
X-20.505 Y-1.016
X-20.101 Y-1.13
X-19.691 Y-1.092
X-19.499 Y-0.995
G3 X-19.424 Y-0.915 R0.159
G1 X-19.248 Y-0.499
G3 X-19.242 Y-0.39 R0.159
X-20.213 Y-0.692 Z-9.781 R0.508
X-19.242 Y-0.39 Z-10.063 R0.508
X-20.213 Y-0.692 Z-10.344 R0.508
X-19.499 Y-0.995 Z-10.5 R0.508
G1 X-19.311 Y-0.9
X-19.035 Y-0.598
X-18.884 Y-0.209
Y0.209
X-19.035 Y0.598
X-19.311 Y0.9
X-19.689 Y1.091
X-19.708 Y1.093
X-20.101 Y1.13
X-20.505 Y1.016
X-20.842 Y0.76
X-21.057 Y0.412
X-21.135 Y0.
X-21.057 Y-0.412
X-20.949 Y-0.587
X-20.842 Y-0.76
X-20.505 Y-1.016
X-20.101 Y-1.13
X-19.691 Y-1.092
X-19.499 Y-0.995
G3 X-19.62 Y-0.754 R0.135
X-19.674 Y-0.802 R0.135
G1 X-19.813 Y-1.023
G2 X-20.013 Y-1.055 R0.135
X-20.019 Y-0.852 R0.135
G3 X-20.716 Y-0.112 Z-10.781 R0.508
X-20.019 Y-0.852 Z-11.063 R0.508
X-20.716 Y-0.112 Z-11.344 R0.508
X-20.675 Y-0.887 Z-11.5 R0.508
G1 X-20.505 Y-1.016
X-20.101 Y-1.13
X-19.691 Y-1.092
X-19.311 Y-0.9
X-19.035 Y-0.598
X-18.884 Y-0.209
Y0.209
X-19.035 Y0.598
X-19.311 Y0.9
X-19.689 Y1.091
X-19.708 Y1.093
X-20.101 Y1.13
X-20.505 Y1.016
X-20.842 Y0.76
X-21.057 Y0.412
X-21.135 Y0.
X-21.057 Y-0.412
X-20.949 Y-0.587
X-20.842 Y-0.76
X-20.675 Y-0.887
G3 X-20.571 Y-0.919 R0.159
G1 X-20.12 Y-0.895
G3 X-20.019 Y-0.852 R0.159
X-20.716 Y-0.112 Z-11.781 R0.508
X-20.019 Y-0.852 Z-12.063 R0.508
X-20.716 Y-0.112 Z-12.344 R0.508
X-20.675 Y-0.887 Z-12.5 R0.508
G1 X-20.505 Y-1.016
X-20.101 Y-1.13
X-19.691 Y-1.092
X-19.311 Y-0.9
X-19.035 Y-0.598
X-18.884 Y-0.209
Y0.209
X-19.035 Y0.598
X-19.311 Y0.9
X-19.689 Y1.091
X-19.708 Y1.093
X-20.101 Y1.13
X-20.505 Y1.016
X-20.842 Y0.76
X-21.057 Y0.412
X-21.135 Y0.
X-21.057 Y-0.412
X-20.949 Y-0.587
X-20.842 Y-0.76
X-20.675 Y-0.887
G3 X-20.571 Y-0.919 R0.159
G1 X-20.12 Y-0.895
G3 X-20.019 Y-0.852 R0.159
X-20.716 Y-0.112 Z-12.781 R0.508
X-20.019 Y-0.852 Z-13.063 R0.508
X-20.716 Y-0.112 Z-13.344 R0.508
X-20.675 Y-0.887 Z-13.5 R0.508
G1 X-20.505 Y-1.016
X-20.101 Y-1.13
X-19.691 Y-1.092
X-19.311 Y-0.9
X-19.035 Y-0.598
X-18.884 Y-0.209
Y0.209
X-19.035 Y0.598
X-19.311 Y0.9
X-19.689 Y1.091
X-19.708 Y1.093
X-20.101 Y1.13
X-20.505 Y1.016
X-20.842 Y0.76
X-21.057 Y0.412
X-21.135 Y0.
X-21.057 Y-0.412
X-20.949 Y-0.587
X-20.842 Y-0.76
X-20.675 Y-0.887
G3 X-20.537 Y-0.914 R0.159
G1 X-19.352 Y-0.591
G3 X-19.242 Y-0.39 R0.159
X-20.213 Y-0.692 Z-13.781 R0.508
X-19.242 Y-0.39 Z-14.063 R0.508
X-20.213 Y-0.692 Z-14.344 R0.508
X-19.499 Y-0.995 Z-14.5 R0.508
G1 X-19.311 Y-0.9
X-19.035 Y-0.598
X-18.884 Y-0.209
Y0.209
X-19.035 Y0.598
X-19.311 Y0.9
X-19.689 Y1.091
X-19.708 Y1.093
X-20.101 Y1.13
X-20.505 Y1.016
X-20.842 Y0.76
X-21.057 Y0.412
X-21.135 Y0.
X-21.057 Y-0.412
X-20.949 Y-0.587
X-20.842 Y-0.76
X-20.505 Y-1.016
X-20.101 Y-1.13
X-19.691 Y-1.092
X-19.499 Y-0.995
G3 X-19.62 Y-0.754 R0.135
X-19.674 Y-0.802 R0.135
G1 X-19.813 Y-1.023
G2 X-20.013 Y-1.055 R0.135
X-20.019 Y-0.852 R0.135
G3 X-20.716 Y-0.112 Z-14.781 R0.508
X-20.019 Y-0.852 Z-15.063 R0.508
X-20.716 Y-0.112 Z-15.344 R0.508
X-20.675 Y-0.887 Z-15.5 R0.508
G1 X-20.505 Y-1.016
X-20.101 Y-1.13
X-19.691 Y-1.092
X-19.311 Y-0.9
X-19.035 Y-0.598
X-18.884 Y-0.209
Y0.209
X-19.035 Y0.598
X-19.311 Y0.9
X-19.689 Y1.091
X-19.708 Y1.093
X-20.101 Y1.13
X-20.505 Y1.016
X-20.842 Y0.76
X-21.057 Y0.412
X-21.135 Y0.
X-21.057 Y-0.412
X-20.949 Y-0.587
X-20.842 Y-0.76
X-20.675 Y-0.887
G3 X-20.589 Y-0.933 Z-15.484 R0.318
X-20.503 Y-0.951 Z-15.439 R0.318
X-20.433 Y-0.948 Z-15.369 R0.317
X-20.389 Y-0.937 Z-15.281 R0.318
X-20.374 Y-0.932 Z-15.182 R0.317
G0 Z5.
X19.524 Y-0.205
Z1.363
G3 X19.537 Y-0.217 Z1.259 R0.508 F762.
X19.577 Y-0.249 Z1.166 R0.508
X19.643 Y-0.29 Z1.095 R0.508
X19.733 Y-0.325 Z1.054 R0.508
X19.752 Y-0.33 Z1.05 R0.508
X19.999 Y0.655 Z0.769 R0.508
X19.752 Y-0.33 Z0.487 R0.508
X19.999 Y0.655 Z0.206 R0.508
X19.752 Y-0.33 Z-0.076 R0.508
X19.999 Y0.655 Z-0.357 R0.508
X19.752 Y-0.33 Z-0.639 R0.508
X19.999 Y0.655 Z-0.92 R0.508
X19.57 Y0.569 Z-1. R0.508
X20.424 Y-0.569 R0.711
X19.57 Y0.569 R0.711
G2 X18.357 Y0.363 R1.344
G3 X17.421 Y-0.436 R0.725
G1 X17.473 Y-0.78
X17.815 Y-1.49
X18.349 Y-2.066
X18.361 Y-2.073
X19.021 Y-2.454
X19.791 Y-2.634
X20.597 Y-2.575
X21.322 Y-2.29
X21.927 Y-1.808
X22.385 Y-1.139
X22.613 Y-0.4
Y0.4
X22.385 Y1.139
X21.927 Y1.808
X21.326 Y2.287
X21.308 Y2.296
X20.597 Y2.575
X19.791 Y2.634
X19.021 Y2.454
X18.351 Y2.068
X17.821 Y1.497
X17.77 Y1.396
X17.473 Y0.78
X17.355 Y0.
X17.421 Y-0.436
G3 X17.631 Y-0.562 R0.159
G1 X19.23 Y0.005
G2 X19.424 Y-0.071 R0.159
G3 X20.326 Y0.396 Z-1.281 R0.508
X19.424 Y-0.071 Z-1.563 R0.508
X20.326 Y0.396 Z-1.844 R0.508
X19.57 Y0.569 Z-2. R0.508
X20.424 Y-0.569 R0.711
X19.57 Y0.569 R0.711
G2 X18.357 Y0.363 R1.344
G3 X17.421 Y-0.436 R0.725
G1 X17.473 Y-0.78
X17.815 Y-1.49
X18.349 Y-2.066
X18.361 Y-2.073
X19.021 Y-2.454
X19.791 Y-2.634
X20.597 Y-2.575
X21.322 Y-2.29
X21.927 Y-1.808
X22.385 Y-1.139
X22.613 Y-0.4
Y0.4
X22.385 Y1.139
X21.927 Y1.808
X21.326 Y2.287
X21.308 Y2.296
X20.597 Y2.575
X19.791 Y2.634
X19.021 Y2.454
X18.351 Y2.068
X17.821 Y1.497
X17.77 Y1.396
X17.473 Y0.78
X17.355 Y0.
X17.421 Y-0.436
G3 X17.631 Y-0.562 R0.159
G1 X19.23 Y0.005
G2 X19.424 Y-0.071 R0.159
G3 X20.326 Y0.396 Z-2.281 R0.508
X19.424 Y-0.071 Z-2.563 R0.508
X20.326 Y0.396 Z-2.844 R0.508
X19.57 Y0.569 Z-3. R0.508
X20.424 Y-0.569 R0.711
X19.57 Y0.569 R0.711
G2 X18.357 Y0.363 R1.344
G3 X17.421 Y-0.436 R0.725
G1 X17.473 Y-0.78
X17.815 Y-1.49
X18.349 Y-2.066
X18.361 Y-2.073
X19.021 Y-2.454
X19.791 Y-2.634
X20.597 Y-2.575
X21.322 Y-2.29
X21.927 Y-1.808
X22.385 Y-1.139
X22.613 Y-0.4
Y0.4
X22.385 Y1.139
X21.927 Y1.808
X21.326 Y2.287
X21.308 Y2.296
X20.597 Y2.575
X19.791 Y2.634
X19.021 Y2.454
X18.351 Y2.068
X17.821 Y1.497
X17.77 Y1.396
X17.473 Y0.78
X17.355 Y0.
X17.421 Y-0.436
G3 X17.631 Y-0.562 R0.159
G1 X19.23 Y0.005
G2 X19.424 Y-0.071 R0.159
G3 X20.326 Y0.396 Z-3.281 R0.508
X19.424 Y-0.071 Z-3.563 R0.508
X20.326 Y0.396 Z-3.844 R0.508
X19.57 Y0.569 Z-4. R0.508
X20.424 Y-0.569 R0.711
X19.57 Y0.569 R0.711
G2 X18.357 Y0.363 R1.344
G3 X17.421 Y-0.436 R0.725
G1 X17.473 Y-0.78
X17.815 Y-1.49
X18.349 Y-2.066
X18.361 Y-2.073
X19.021 Y-2.454
X19.791 Y-2.634
X20.597 Y-2.575
X21.322 Y-2.29
X21.927 Y-1.808
X22.385 Y-1.139
X22.613 Y-0.4
Y0.4
X22.385 Y1.139
X21.927 Y1.808
X21.326 Y2.287
X21.308 Y2.296
X20.597 Y2.575
X19.791 Y2.634
X19.021 Y2.454
X18.351 Y2.068
X17.821 Y1.497
X17.77 Y1.396
X17.473 Y0.78
X17.355 Y0.
X17.421 Y-0.436
G3 X17.631 Y-0.562 R0.159
G1 X19.23 Y0.005
G2 X19.424 Y-0.071 R0.159
G3 X20.326 Y0.396 Z-4.281 R0.508
X19.424 Y-0.071 Z-4.563 R0.508
X20.326 Y0.396 Z-4.844 R0.508
X19.57 Y0.569 Z-5. R0.508
X20.424 Y-0.569 R0.711
X19.57 Y0.569 R0.711
G2 X18.357 Y0.363 R1.344
G3 X17.421 Y-0.436 R0.725
G1 X17.473 Y-0.78
X17.815 Y-1.49
X18.349 Y-2.066
X18.361 Y-2.073
X19.021 Y-2.454
X19.791 Y-2.634
X20.597 Y-2.575
X21.322 Y-2.29
X21.927 Y-1.808
X22.385 Y-1.139
X22.613 Y-0.4
Y0.4
X22.385 Y1.139
X21.927 Y1.808
X21.326 Y2.287
X21.308 Y2.296
X20.597 Y2.575
X19.791 Y2.634
X19.021 Y2.454
X18.351 Y2.068
X17.821 Y1.497
X17.77 Y1.396
X17.473 Y0.78
X17.355 Y0.
X17.421 Y-0.436
G3 X18.055 Y-0.851 Z-5.092 R0.508
G1 X20.007 Y-0.328 Z-5.308
G3 X19.744 Y0.653 Z-5.479 R0.508
X19.57 Y0.569 Z-5.5 R0.508
X20.424 Y-0.569 R0.711
X19.57 Y0.569 R0.711
G2 X18.357 Y0.363 R1.344
G3 X17.421 Y-0.436 R0.725
G1 X17.473 Y-0.78
X17.815 Y-1.49
X18.349 Y-2.066
X18.361 Y-2.073
X19.021 Y-2.454
X19.791 Y-2.634
X20.597 Y-2.575
X21.322 Y-2.29
X21.927 Y-1.808
X22.385 Y-1.139
X22.613 Y-0.4
Y0.4
X22.385 Y1.139
X21.927 Y1.808
X21.326 Y2.287
X21.308 Y2.296
X20.597 Y2.575
X19.791 Y2.634
X19.021 Y2.454
X18.351 Y2.068
X17.821 Y1.497
X17.77 Y1.396
X17.473 Y0.78
X17.355 Y0.
X17.421 Y-0.436
G3 X17.678 Y-0.535 R0.159
G1 X19.634 Y1.059
G2 X19.862 Y0.842 R0.159
G3 X20.682 Y0.241 Z-5.781 R0.508
X19.862 Y0.842 Z-6.063 R0.508
X20.682 Y0.241 Z-6.344 R0.508
X20.501 Y0.995 Z-6.5 R0.508
G1 X20.309 Y1.092
X19.895 Y1.13
X19.495 Y1.016
X19.16 Y0.762
X18.942 Y0.41
X18.865 Y0.
X18.942 Y-0.41
X19.16 Y-0.762
X19.495 Y-1.016
X19.895 Y-1.13
X20.31 Y-1.092
X20.689 Y-0.9
X20.965 Y-0.598
X21.116 Y-0.209
Y0.209
X20.965 Y0.598
X20.689 Y0.9
X20.501 Y0.995
G3 X20.392 Y1.008 R0.159
G1 X19.953 Y0.902
G3 X19.862 Y0.842 R0.159
X20.682 Y0.241 Z-6.781 R0.508
X19.862 Y0.842 Z-7.063 R0.508
X20.682 Y0.241 Z-7.344 R0.508
X20.501 Y0.995 Z-7.5 R0.508
G1 X20.309 Y1.092
X19.895 Y1.13
X19.495 Y1.016
X19.16 Y0.762
X18.942 Y0.41
X18.865 Y0.
X18.942 Y-0.41
X19.16 Y-0.762
X19.495 Y-1.016
X19.895 Y-1.13
X20.31 Y-1.092
X20.689 Y-0.9
X20.965 Y-0.598
X21.116 Y-0.209
Y0.209
X20.965 Y0.598
X20.689 Y0.9
X20.501 Y0.995
G3 X20.392 Y1.008 R0.159
G1 X19.953 Y0.902
G3 X19.862 Y0.842 R0.159
X20.682 Y0.241 Z-7.781 R0.508
X19.862 Y0.842 Z-8.063 R0.508
X20.682 Y0.241 Z-8.344 R0.508
X20.501 Y0.995 Z-8.5 R0.508
G1 X20.309 Y1.092
X19.895 Y1.13
X19.495 Y1.016
X19.16 Y0.762
X18.942 Y0.41
X18.865 Y0.
X18.942 Y-0.41
X19.16 Y-0.762
X19.495 Y-1.016
X19.895 Y-1.13
X20.31 Y-1.092
X20.689 Y-0.9
X20.965 Y-0.598
X21.116 Y-0.209
Y0.209
X20.965 Y0.598
X20.689 Y0.9
X20.501 Y0.995
G3 X20.392 Y1.008 R0.159
G1 X19.953 Y0.902
G3 X19.862 Y0.842 R0.159
X20.682 Y0.241 Z-8.781 R0.508
X19.862 Y0.842 Z-9.063 R0.508
X20.682 Y0.241 Z-9.344 R0.508
X20.501 Y0.995 Z-9.5 R0.508
G1 X20.309 Y1.092
X19.895 Y1.13
X19.495 Y1.016
X19.16 Y0.762
X18.942 Y0.41
X18.865 Y0.
X18.942 Y-0.41
X19.16 Y-0.762
X19.495 Y-1.016
X19.895 Y-1.13
X20.31 Y-1.092
X20.689 Y-0.9
X20.965 Y-0.598
X21.116 Y-0.209
Y0.209
X20.965 Y0.598
X20.689 Y0.9
X20.501 Y0.995
G3 X20.392 Y1.008 R0.159
G1 X19.953 Y0.902
G3 X19.862 Y0.842 R0.159
X20.682 Y0.241 Z-9.781 R0.508
X19.862 Y0.842 Z-10.063 R0.508
X20.682 Y0.241 Z-10.344 R0.508
X20.501 Y0.995 Z-10.5 R0.508
G1 X20.309 Y1.092
X19.895 Y1.13
X19.495 Y1.016
X19.16 Y0.762
X18.942 Y0.41
X18.865 Y0.
X18.942 Y-0.41
X19.16 Y-0.762
X19.495 Y-1.016
X19.895 Y-1.13
X20.31 Y-1.092
X20.689 Y-0.9
X20.965 Y-0.598
X21.116 Y-0.209
Y0.209
X20.965 Y0.598
X20.689 Y0.9
X20.501 Y0.995
G3 X20.392 Y1.008 R0.159
G1 X19.953 Y0.902
G3 X19.862 Y0.842 R0.159
X20.682 Y0.241 Z-10.781 R0.508
X19.862 Y0.842 Z-11.063 R0.508
X20.682 Y0.241 Z-11.344 R0.508
X20.501 Y0.995 Z-11.5 R0.508
G1 X20.309 Y1.092
X19.895 Y1.13
X19.495 Y1.016
X19.16 Y0.762
X18.942 Y0.41
X18.865 Y0.
X18.942 Y-0.41
X19.16 Y-0.762
X19.495 Y-1.016
X19.895 Y-1.13
X20.31 Y-1.092
X20.689 Y-0.9
X20.965 Y-0.598
X21.116 Y-0.209
Y0.209
X20.965 Y0.598
X20.689 Y0.9
X20.501 Y0.995
G3 X20.392 Y1.008 R0.159
G1 X19.953 Y0.902
G3 X19.862 Y0.842 R0.159
X20.682 Y0.241 Z-11.781 R0.508
X19.862 Y0.842 Z-12.063 R0.508
X20.682 Y0.241 Z-12.344 R0.508
X20.501 Y0.995 Z-12.5 R0.508
G1 X20.309 Y1.092
X19.895 Y1.13
X19.495 Y1.016
X19.16 Y0.762
X18.942 Y0.41
X18.865 Y0.
X18.942 Y-0.41
X19.16 Y-0.762
X19.495 Y-1.016
X19.895 Y-1.13
X20.31 Y-1.092
X20.689 Y-0.9
X20.965 Y-0.598
X21.116 Y-0.209
Y0.209
X20.965 Y0.598
X20.689 Y0.9
X20.501 Y0.995
G3 X20.392 Y1.008 R0.159
G1 X19.953 Y0.902
G3 X19.862 Y0.842 R0.159
X20.682 Y0.241 Z-12.781 R0.508
X19.862 Y0.842 Z-13.063 R0.508
X20.682 Y0.241 Z-13.344 R0.508
X20.501 Y0.995 Z-13.5 R0.508
G1 X20.309 Y1.092
X19.895 Y1.13
X19.495 Y1.016
X19.16 Y0.762
X18.942 Y0.41
X18.865 Y0.
X18.942 Y-0.41
X19.16 Y-0.762
X19.495 Y-1.016
X19.895 Y-1.13
X20.31 Y-1.092
X20.689 Y-0.9
X20.965 Y-0.598
X21.116 Y-0.209
Y0.209
X20.965 Y0.598
X20.689 Y0.9
X20.501 Y0.995
G3 X20.272 Y0.832 R0.159
G1 X20.449 Y-0.459
G3 X20.641 Y-0.592 R0.159
X20.758 Y-0.39 R0.159
X19.788 Y-0.693 Z-13.781 R0.508
X20.758 Y-0.39 Z-14.063 R0.508
X19.788 Y-0.693 Z-14.344 R0.508
X20.502 Y-0.995 Z-14.5 R0.508
G1 X20.689 Y-0.9
X20.965 Y-0.598
X21.116 Y-0.209
Y0.209
X20.965 Y0.598
X20.689 Y0.9
X20.309 Y1.092
X19.895 Y1.13
X19.495 Y1.016
X19.16 Y0.762
X18.942 Y0.41
X18.865 Y0.
X18.942 Y-0.41
X19.16 Y-0.762
X19.495 Y-1.016
X19.895 Y-1.13
X20.31 Y-1.092
X20.502 Y-0.995
G3 X20.583 Y-0.811 R0.159
G1 X20.143 Y0.79
G3 X19.862 Y0.842 R0.159
X20.682 Y0.241 Z-14.781 R0.508
X19.862 Y0.842 Z-15.063 R0.508
X20.682 Y0.241 Z-15.344 R0.508
X20.501 Y0.995 Z-15.5 R0.508
G1 X20.309 Y1.092
X19.895 Y1.13
X19.495 Y1.016
X19.16 Y0.762
X18.942 Y0.41
X18.865 Y0.
X18.942 Y-0.41
X19.16 Y-0.762
X19.495 Y-1.016
X19.895 Y-1.13
X20.31 Y-1.092
X20.689 Y-0.9
X20.965 Y-0.598
X21.116 Y-0.209
Y0.209
X20.965 Y0.598
X20.689 Y0.9
X20.501 Y0.995
G3 X20.408 Y1.025 Z-15.484 R0.318
X20.32 Y1.027 Z-15.439 R0.317
X20.252 Y1.011 Z-15.369 R0.318
X20.21 Y0.993 Z-15.281 R0.317
X20.197 Y0.985 Z-15.182 R0.317
G0 Z10.

M9
M30
