(_20_20_1SIDE)
(T1  D=3.175 CR=0. - ZMIN=-20. - FLAT END MILL)
G90 G94 G91.1 G40 G49 G17
G21

(2D CONTOUR2)
M5
M9
T1
S10000 M3
G54
M8
G0 X-41.588 Y8.849
G43 Z10. H1
Z5.
G1 Z2.5 F762.
Y-11. Z-1.
Y11.
Y-11. Z-2.
Y11.
Y-11. Z-3.
Y11.
Y-11. Z-4.
Y11.
Y-11. Z-5.
Y11.
Y-11. Z-6.
Y11.
Y-11. Z-7.
Y11.
Y-11. Z-8.
Y11.
Y-11. Z-9.
Y11.
Y-11. Z-10.
Y11.
Y-11. Z-11.
Y11.
Y-11. Z-12.
Y11.
Y-11. Z-13.
Y11.
Y-11. Z-14.
Y11.
Y-11. Z-15.
Y11.
Y-11. Z-16.
Y11.
Y-11. Z-17.
Y11.
Y-11. Z-18.
Y11.
Y-11. Z-19.
Y11.
Y-11. Z-20.
Y11.
G0 Z10.

(POCKET2)
M8
G0 X-29.88 Y0.501
Z10.
Z2.
G1 Z1.363 F762.
G3 X-29.897 Y0.498 Z1.259 R0.508
X-29.946 Y0.486 Z1.166 R0.508
X-30.019 Y0.457 Z1.095 R0.508
X-30.101 Y0.407 Z1.054 R0.508
X-30.117 Y0.395 Z1.05 R0.508
X-29.476 Y-0.394 Z0.769 R0.508
X-30.117 Y0.395 Z0.487 R0.508
X-29.476 Y-0.394 Z0.206 R0.508
X-30.117 Y0.395 Z-0.076 R0.508
X-29.476 Y-0.394 Z-0.357 R0.508
X-30.117 Y0.395 Z-0.639 R0.508
X-29.476 Y-0.394 Z-0.92 R0.508
X-29.288 Y0. Z-1. R0.508
X-30.711 R0.711
X-29.288 R0.711
G2 X-28.744 Y1.103 R1.388
G3 X-28.778 Y2.332 R0.759
G1 X-28.853 Y2.383
X-29.602 Y2.614
X-30.395 Y2.615
X-31.137 Y2.386
X-31.795 Y1.941
X-31.816 Y1.916
X-32.296 Y1.309
X-32.577 Y0.592
X-32.637 Y-0.198
X-32.462 Y-0.966
X-32.068 Y-1.649
X-31.49 Y-2.185
X-30.78 Y-2.527
X-29.985 Y-2.642
X-29.223 Y-2.528
X-28.51 Y-2.185
X-27.937 Y-1.653
X-27.542 Y-0.972
X-27.366 Y-0.21
X-27.39 Y0.164
X-27.423 Y0.592
X-27.705 Y1.311
X-28.202 Y1.939
X-28.778 Y2.332
G3 X-29.019 Y2.248 R0.159
G1 X-29.535 Y0.61
G2 X-29.713 Y0.501 R0.159
G3 X-29.88 Y-0.501 Z-1.281 R0.508
X-29.713 Y0.501 Z-1.563 R0.508
X-29.88 Y-0.501 Z-1.844 R0.508
X-29.288 Y0. Z-2. R0.508
X-30.711 R0.711
X-29.288 R0.711
G2 X-28.744 Y1.103 R1.388
G3 X-28.778 Y2.332 R0.759
G1 X-28.853 Y2.383
X-29.602 Y2.614
X-30.395 Y2.615
X-31.137 Y2.386
X-31.795 Y1.941
X-31.816 Y1.916
X-32.296 Y1.309
X-32.577 Y0.592
X-32.637 Y-0.198
X-32.462 Y-0.966
X-32.068 Y-1.649
X-31.49 Y-2.185
X-30.78 Y-2.527
X-29.985 Y-2.642
X-29.223 Y-2.528
X-28.51 Y-2.185
X-27.937 Y-1.653
X-27.542 Y-0.972
X-27.366 Y-0.21
X-27.39 Y0.164
X-27.423 Y0.592
X-27.705 Y1.311
X-28.202 Y1.939
X-28.778 Y2.332
G3 X-29.019 Y2.248 R0.159
G1 X-29.535 Y0.61
G2 X-29.713 Y0.501 R0.159
G3 X-29.88 Y-0.501 Z-2.281 R0.508
X-29.713 Y0.501 Z-2.563 R0.508
X-29.88 Y-0.501 Z-2.844 R0.508
X-29.288 Y0. Z-3. R0.508
X-30.711 R0.711
X-29.288 R0.711
G2 X-28.744 Y1.103 R1.388
G3 X-28.778 Y2.332 R0.759
G1 X-28.853 Y2.383
X-29.602 Y2.614
X-30.395 Y2.615
X-31.137 Y2.386
X-31.795 Y1.941
X-31.816 Y1.916
X-32.296 Y1.309
X-32.577 Y0.592
X-32.637 Y-0.198
X-32.462 Y-0.966
X-32.068 Y-1.649
X-31.49 Y-2.185
X-30.78 Y-2.527
X-29.985 Y-2.642
X-29.223 Y-2.528
X-28.51 Y-2.185
X-27.937 Y-1.653
X-27.542 Y-0.972
X-27.366 Y-0.21
X-27.39 Y0.164
X-27.423 Y0.592
X-27.705 Y1.311
X-28.202 Y1.939
X-28.778 Y2.332
G3 X-29.019 Y2.248 R0.159
G1 X-29.535 Y0.61
G2 X-29.713 Y0.501 R0.159
G3 X-29.88 Y-0.501 Z-3.281 R0.508
X-29.713 Y0.501 Z-3.563 R0.508
X-29.88 Y-0.501 Z-3.844 R0.508
X-29.288 Y0. Z-4. R0.508
X-30.711 R0.711
X-29.288 R0.711
G2 X-28.744 Y1.103 R1.388
G3 X-28.778 Y2.332 R0.759
G1 X-28.853 Y2.383
X-29.602 Y2.614
X-30.395 Y2.615
X-31.137 Y2.386
X-31.795 Y1.941
X-31.816 Y1.916
X-32.296 Y1.309
X-32.577 Y0.592
X-32.637 Y-0.198
X-32.462 Y-0.966
X-32.068 Y-1.649
X-31.49 Y-2.185
X-30.78 Y-2.527
X-29.985 Y-2.642
X-29.223 Y-2.528
X-28.51 Y-2.185
X-27.937 Y-1.653
X-27.542 Y-0.972
X-27.366 Y-0.21
X-27.39 Y0.164
X-27.423 Y0.592
X-27.705 Y1.311
X-28.202 Y1.939
X-28.778 Y2.332
G3 X-29.019 Y2.248 R0.159
G1 X-29.535 Y0.61
G2 X-29.713 Y0.501 R0.159
G3 X-29.88 Y-0.501 Z-4.281 R0.508
X-29.713 Y0.501 Z-4.563 R0.508
X-29.88 Y-0.501 Z-4.844 R0.508
X-29.288 Y0. Z-5. R0.508
X-30.711 R0.711
X-29.288 R0.711
G2 X-28.744 Y1.103 R1.388
G3 X-28.778 Y2.332 R0.759
G1 X-28.853 Y2.383
X-29.602 Y2.614
X-30.395 Y2.615
X-31.137 Y2.386
X-31.795 Y1.941
X-31.816 Y1.916
X-32.296 Y1.309
X-32.577 Y0.592
X-32.637 Y-0.198
X-32.462 Y-0.966
X-32.068 Y-1.649
X-31.49 Y-2.185
X-30.78 Y-2.527
X-29.985 Y-2.642
X-29.223 Y-2.528
X-28.51 Y-2.185
X-27.937 Y-1.653
X-27.542 Y-0.972
X-27.366 Y-0.21
X-27.39 Y0.164
X-27.423 Y0.592
X-27.705 Y1.311
X-28.202 Y1.939
X-28.778 Y2.332
G3 X-29.539 Y2.094 Z-5.097 R0.508
G1 X-30.271 Y0.182 Z-5.312
G3 X-29.322 Y-0.182 Z-5.48 R0.508
X-29.288 Y0. Z-5.5 R0.508
X-30.711 R0.711
X-29.288 R0.711
G2 X-28.744 Y1.103 R1.388
G3 X-28.778 Y2.332 R0.759
G1 X-28.853 Y2.383
X-29.602 Y2.614
X-30.395 Y2.615
X-31.137 Y2.386
X-31.795 Y1.941
X-31.816 Y1.916
X-32.296 Y1.309
X-32.577 Y0.592
X-32.637 Y-0.198
X-32.462 Y-0.966
X-32.068 Y-1.649
X-31.49 Y-2.185
X-30.78 Y-2.527
X-29.985 Y-2.642
X-29.223 Y-2.528
X-28.51 Y-2.185
X-27.937 Y-1.653
X-27.542 Y-0.972
X-27.366 Y-0.21
X-27.39 Y0.164
X-27.423 Y0.592
X-27.705 Y1.311
X-28.202 Y1.939
X-28.778 Y2.332
G3 X-29.002 Y2.285 R0.159
G1 X-29.875 Y0.888
G2 X-29.911 Y0.848 R0.159
G3 X-29.279 Y0.052 Z-5.781 R0.508
X-29.911 Y0.848 Z-6.063 R0.508
X-29.279 Y0.052 Z-6.344 R0.508
X-29.255 Y0.828 Z-6.5 R0.508
G1 X-29.41 Y0.967
X-29.796 Y1.116
X-30.208
X-30.6 Y0.963
X-30.906 Y0.684
X-31.087 Y0.32
X-31.129 Y-0.103
X-31.112 Y-0.168
X-31.016 Y-0.506
X-30.765 Y-0.839
X-30.415 Y-1.055
X-29.999 Y-1.135
X-29.59 Y-1.058
X-29.246 Y-0.845
X-28.985 Y-0.504
X-28.871 Y-0.094
X-28.908 Y0.311
X-29.093 Y0.682
X-29.255 Y0.828
G3 X-29.455 Y0.837 R0.159
G1 X-30.788 Y-0.149
G3 X-30.735 Y-0.43 R0.159
X-30.469 Y0.551 Z-6.781 R0.508
X-30.735 Y-0.43 Z-7.063 R0.508
X-30.469 Y0.551 Z-7.344 R0.508
X-31.108 Y0.111 Z-7.5 R0.508
G1 X-31.129 Y-0.103
X-31.112 Y-0.168
X-31.016 Y-0.506
X-30.765 Y-0.839
X-30.415 Y-1.055
X-29.999 Y-1.135
X-29.59 Y-1.058
X-29.246 Y-0.845
X-28.985 Y-0.504
X-28.871 Y-0.094
X-28.908 Y0.311
X-29.093 Y0.682
X-29.41 Y0.967
X-29.796 Y1.116
X-30.208
X-30.6 Y0.963
X-30.906 Y0.684
X-31.087 Y0.32
X-31.108 Y0.111
G3 X-31.081 Y0.005 R0.159
G1 X-30.824 Y-0.367
G3 X-30.735 Y-0.43 R0.159
X-30.469 Y0.551 Z-7.781 R0.508
X-30.735 Y-0.43 Z-8.063 R0.508
X-30.469 Y0.551 Z-8.344 R0.508
X-31.108 Y0.111 Z-8.5 R0.508
G1 X-31.129 Y-0.103
X-31.112 Y-0.168
X-31.016 Y-0.506
X-30.765 Y-0.839
X-30.415 Y-1.055
X-29.999 Y-1.135
X-29.59 Y-1.058
X-29.246 Y-0.845
X-28.985 Y-0.504
X-28.871 Y-0.094
X-28.908 Y0.311
X-29.093 Y0.682
X-29.41 Y0.967
X-29.796 Y1.116
X-30.208
X-30.6 Y0.963
X-30.906 Y0.684
X-31.087 Y0.32
X-31.108 Y0.111
G3 X-31.081 Y0.005 R0.159
G1 X-30.824 Y-0.367
G3 X-30.735 Y-0.43 R0.159
X-30.469 Y0.551 Z-8.781 R0.508
X-30.735 Y-0.43 Z-9.063 R0.508
X-30.469 Y0.551 Z-9.344 R0.508
X-31.108 Y0.111 Z-9.5 R0.508
G1 X-31.129 Y-0.103
X-31.112 Y-0.168
X-31.016 Y-0.506
X-30.765 Y-0.839
X-30.415 Y-1.055
X-29.999 Y-1.135
X-29.59 Y-1.058
X-29.246 Y-0.845
X-28.985 Y-0.504
X-28.871 Y-0.094
X-28.908 Y0.311
X-29.093 Y0.682
X-29.41 Y0.967
X-29.796 Y1.116
X-30.208
X-30.6 Y0.963
X-30.906 Y0.684
X-31.087 Y0.32
X-31.108 Y0.111
G3 X-31.081 Y0.005 R0.159
G1 X-30.824 Y-0.367
G3 X-30.735 Y-0.43 R0.159
X-30.469 Y0.551 Z-9.781 R0.508
X-30.735 Y-0.43 Z-10.063 R0.508
X-30.469 Y0.551 Z-10.344 R0.508
X-31.108 Y0.111 Z-10.5 R0.508
G1 X-31.129 Y-0.103
X-31.112 Y-0.168
X-31.016 Y-0.506
X-30.765 Y-0.839
X-30.415 Y-1.055
X-29.999 Y-1.135
X-29.59 Y-1.058
X-29.246 Y-0.845
X-28.985 Y-0.504
X-28.871 Y-0.094
X-28.908 Y0.311
X-29.093 Y0.682
X-29.41 Y0.967
X-29.796 Y1.116
X-30.208
X-30.6 Y0.963
X-30.906 Y0.684
X-31.087 Y0.32
X-31.108 Y0.111
G3 X-31.081 Y0.005 R0.159
G1 X-30.824 Y-0.367
G3 X-30.735 Y-0.43 R0.159
X-30.469 Y0.551 Z-10.781 R0.508
X-30.735 Y-0.43 Z-11.063 R0.508
X-30.469 Y0.551 Z-11.344 R0.508
X-31.108 Y0.111 Z-11.5 R0.508
G1 X-31.129 Y-0.103
X-31.112 Y-0.168
X-31.016 Y-0.506
X-30.765 Y-0.839
X-30.415 Y-1.055
X-29.999 Y-1.135
X-29.59 Y-1.058
X-29.246 Y-0.845
X-28.985 Y-0.504
X-28.871 Y-0.094
X-28.908 Y0.311
X-29.093 Y0.682
X-29.41 Y0.967
X-29.796 Y1.116
X-30.208
X-30.6 Y0.963
X-30.906 Y0.684
X-31.087 Y0.32
X-31.108 Y0.111
G3 X-30.873 Y-0.044 R0.159
G1 X-29.736 Y0.585
G3 X-29.68 Y0.812 R0.159
X-29.911 Y0.848 R0.159
X-29.279 Y0.052 Z-11.781 R0.508
X-29.911 Y0.848 Z-12.063 R0.508
X-29.279 Y0.052 Z-12.344 R0.508
X-29.255 Y0.828 Z-12.5 R0.508
G1 X-29.41 Y0.967
X-29.796 Y1.116
X-30.208
X-30.6 Y0.963
X-30.906 Y0.684
X-31.087 Y0.32
X-31.129 Y-0.103
X-31.112 Y-0.168
X-31.016 Y-0.506
X-30.765 Y-0.839
X-30.415 Y-1.055
X-29.999 Y-1.135
X-29.59 Y-1.058
X-29.246 Y-0.845
X-28.985 Y-0.504
X-28.871 Y-0.094
X-28.908 Y0.311
X-29.093 Y0.682
X-29.255 Y0.828
G3 X-29.455 Y0.837 R0.159
G1 X-30.788 Y-0.149
G3 X-30.735 Y-0.43 R0.159
X-30.469 Y0.551 Z-12.781 R0.508
X-30.735 Y-0.43 Z-13.063 R0.508
X-30.469 Y0.551 Z-13.344 R0.508
X-31.108 Y0.111 Z-13.5 R0.508
G1 X-31.129 Y-0.103
X-31.112 Y-0.168
X-31.016 Y-0.506
X-30.765 Y-0.839
X-30.415 Y-1.055
X-29.999 Y-1.135
X-29.59 Y-1.058
X-29.246 Y-0.845
X-28.985 Y-0.504
X-28.871 Y-0.094
X-28.908 Y0.311
X-29.093 Y0.682
X-29.41 Y0.967
X-29.796 Y1.116
X-30.208
X-30.6 Y0.963
X-30.906 Y0.684
X-31.087 Y0.32
X-31.108 Y0.111
G3 X-31.081 Y0.005 R0.159
G1 X-30.824 Y-0.367
G3 X-30.735 Y-0.43 R0.159
X-30.469 Y0.551 Z-13.781 R0.508
X-30.735 Y-0.43 Z-14.063 R0.508
X-30.469 Y0.551 Z-14.344 R0.508
X-31.108 Y0.111 Z-14.5 R0.508
G1 X-31.129 Y-0.103
X-31.112 Y-0.168
X-31.016 Y-0.506
X-30.765 Y-0.839
X-30.415 Y-1.055
X-29.999 Y-1.135
X-29.59 Y-1.058
X-29.246 Y-0.845
X-28.985 Y-0.504
X-28.871 Y-0.094
X-28.908 Y0.311
X-29.093 Y0.682
X-29.41 Y0.967
X-29.796 Y1.116
X-30.208
X-30.6 Y0.963
X-30.906 Y0.684
X-31.087 Y0.32
X-31.108 Y0.111
G3 X-31.081 Y0.005 R0.159
G1 X-30.824 Y-0.367
G3 X-30.735 Y-0.43 R0.159
X-30.469 Y0.551 Z-14.781 R0.508
X-30.735 Y-0.43 Z-15.063 R0.508
X-30.469 Y0.551 Z-15.344 R0.508
X-31.108 Y0.111 Z-15.5 R0.508
G1 X-31.129 Y-0.103
X-31.112 Y-0.168
X-31.016 Y-0.506
X-30.765 Y-0.839
X-30.415 Y-1.055
X-29.999 Y-1.135
X-29.59 Y-1.058
X-29.246 Y-0.845
X-28.985 Y-0.504
X-28.871 Y-0.094
X-28.908 Y0.311
X-29.093 Y0.682
X-29.41 Y0.967
X-29.796 Y1.116
X-30.208
X-30.6 Y0.963
X-30.906 Y0.684
X-31.087 Y0.32
X-31.108 Y0.111
G3 X-31.102 Y0.013 Z-15.484 R0.317
X-31.072 Y-0.069 Z-15.439 R0.317
X-31.033 Y-0.127 Z-15.369 R0.317
X-31.001 Y-0.159 Z-15.281 R0.318
X-30.989 Y-0.169 Z-15.182 R0.317
G0 Z5.
X29.527 Y-0.205
Z1.363
G3 X29.54 Y-0.217 Z1.259 R0.508 F762.
X29.579 Y-0.248 Z1.166 R0.508
X29.645 Y-0.289 Z1.095 R0.508
X29.735 Y-0.325 Z1.054 R0.508
X29.754 Y-0.33 Z1.05 R0.508
X30.001 Y0.656 Z0.769 R0.508
X29.754 Y-0.33 Z0.487 R0.508
X30.001 Y0.656 Z0.206 R0.508
X29.754 Y-0.33 Z-0.076 R0.508
X30.001 Y0.656 Z-0.357 R0.508
X29.754 Y-0.33 Z-0.639 R0.508
X30.001 Y0.656 Z-0.92 R0.508
X29.573 Y0.569 Z-1. R0.508
X30.427 Y-0.569 R0.711
X29.573 Y0.569 R0.711
G2 X28.347 Y0.4 R1.276
G3 X27.412 Y-0.411 R0.7
G1 X27.542 Y-0.973
X27.661 Y-1.178
X27.936 Y-1.653
X28.51 Y-2.185
X29.223 Y-2.528
X29.985 Y-2.642
X30.781 Y-2.526
X31.49 Y-2.185
X32.068 Y-1.649
X32.457 Y-0.975
X32.634 Y-0.21
X32.61 Y0.164
X32.577 Y0.592
X32.296 Y1.309
X31.799 Y1.938
X31.137 Y2.386
X30.394 Y2.615
X29.602 Y2.614
X28.855 Y2.383
X28.846 Y2.378
X28.206 Y1.942
X28.184 Y1.916
X27.705 Y1.311
X27.423 Y0.592
X27.363 Y-0.197
X27.412 Y-0.411
G3 X27.617 Y-0.526 R0.159
G1 X29.236 Y0.007
G2 X29.426 Y-0.071 R0.159
G3 X30.329 Y0.397 Z-1.281 R0.508
X29.426 Y-0.071 Z-1.563 R0.508
X30.329 Y0.397 Z-1.844 R0.508
X29.573 Y0.569 Z-2. R0.508
X30.427 Y-0.569 R0.711
X29.573 Y0.569 R0.711
G2 X28.347 Y0.4 R1.276
G3 X27.412 Y-0.411 R0.7
G1 X27.542 Y-0.973
X27.661 Y-1.178
X27.936 Y-1.653
X28.51 Y-2.185
X29.223 Y-2.528
X29.985 Y-2.642
X30.781 Y-2.526
X31.49 Y-2.185
X32.068 Y-1.649
X32.457 Y-0.975
X32.634 Y-0.21
X32.61 Y0.164
X32.577 Y0.592
X32.296 Y1.309
X31.799 Y1.938
X31.137 Y2.386
X30.394 Y2.615
X29.602 Y2.614
X28.855 Y2.383
X28.846 Y2.378
X28.206 Y1.942
X28.184 Y1.916
X27.705 Y1.311
X27.423 Y0.592
X27.363 Y-0.197
X27.412 Y-0.411
G3 X27.617 Y-0.526 R0.159
G1 X29.236 Y0.007
G2 X29.426 Y-0.071 R0.159
G3 X30.329 Y0.397 Z-2.281 R0.508
X29.426 Y-0.071 Z-2.563 R0.508
X30.329 Y0.397 Z-2.844 R0.508
X29.573 Y0.569 Z-3. R0.508
X30.427 Y-0.569 R0.711
X29.573 Y0.569 R0.711
G2 X28.347 Y0.4 R1.276
G3 X27.412 Y-0.411 R0.7
G1 X27.542 Y-0.973
X27.661 Y-1.178
X27.936 Y-1.653
X28.51 Y-2.185
X29.223 Y-2.528
X29.985 Y-2.642
X30.781 Y-2.526
X31.49 Y-2.185
X32.068 Y-1.649
X32.457 Y-0.975
X32.634 Y-0.21
X32.61 Y0.164
X32.577 Y0.592
X32.296 Y1.309
X31.799 Y1.938
X31.137 Y2.386
X30.394 Y2.615
X29.602 Y2.614
X28.855 Y2.383
X28.846 Y2.378
X28.206 Y1.942
X28.184 Y1.916
X27.705 Y1.311
X27.423 Y0.592
X27.363 Y-0.197
X27.412 Y-0.411
G3 X27.617 Y-0.526 R0.159
G1 X29.236 Y0.007
G2 X29.426 Y-0.071 R0.159
G3 X30.329 Y0.397 Z-3.281 R0.508
X29.426 Y-0.071 Z-3.563 R0.508
X30.329 Y0.397 Z-3.844 R0.508
X29.573 Y0.569 Z-4. R0.508
X30.427 Y-0.569 R0.711
X29.573 Y0.569 R0.711
G2 X28.347 Y0.4 R1.276
G3 X27.412 Y-0.411 R0.7
G1 X27.542 Y-0.973
X27.661 Y-1.178
X27.936 Y-1.653
X28.51 Y-2.185
X29.223 Y-2.528
X29.985 Y-2.642
X30.781 Y-2.526
X31.49 Y-2.185
X32.068 Y-1.649
X32.457 Y-0.975
X32.634 Y-0.21
X32.61 Y0.164
X32.577 Y0.592
X32.296 Y1.309
X31.799 Y1.938
X31.137 Y2.386
X30.394 Y2.615
X29.602 Y2.614
X28.855 Y2.383
X28.846 Y2.378
X28.206 Y1.942
X28.184 Y1.916
X27.705 Y1.311
X27.423 Y0.592
X27.363 Y-0.197
X27.412 Y-0.411
G3 X27.617 Y-0.526 R0.159
G1 X29.236 Y0.007
G2 X29.426 Y-0.071 R0.159
G3 X30.329 Y0.397 Z-4.281 R0.508
X29.426 Y-0.071 Z-4.563 R0.508
X30.329 Y0.397 Z-4.844 R0.508
X29.573 Y0.569 Z-5. R0.508
X30.427 Y-0.569 R0.711
X29.573 Y0.569 R0.711
G2 X28.347 Y0.4 R1.276
G3 X27.412 Y-0.411 R0.7
G1 X27.542 Y-0.973
X27.661 Y-1.178
X27.936 Y-1.653
X28.51 Y-2.185
X29.223 Y-2.528
X29.985 Y-2.642
X30.781 Y-2.526
X31.49 Y-2.185
X32.068 Y-1.649
X32.457 Y-0.975
X32.634 Y-0.21
X32.61 Y0.164
X32.577 Y0.592
X32.296 Y1.309
X31.799 Y1.938
X31.137 Y2.386
X30.394 Y2.615
X29.602 Y2.614
X28.855 Y2.383
X28.846 Y2.378
X28.206 Y1.942
X28.184 Y1.916
X27.705 Y1.311
X27.423 Y0.592
X27.363 Y-0.197
X27.412 Y-0.411
G3 X28.023 Y-0.791 Z-5.086 R0.508
G1 X29.993 Y-0.332 Z-5.305
G3 X29.762 Y0.658 Z-5.477 R0.508
X29.573 Y0.569 Z-5.5 R0.508
X30.427 Y-0.569 R0.711
X29.573 Y0.569 R0.711
G2 X28.347 Y0.4 R1.276
G3 X27.412 Y-0.411 R0.7
G1 X27.542 Y-0.973
X27.661 Y-1.178
X27.936 Y-1.653
X28.51 Y-2.185
X29.223 Y-2.528
X29.985 Y-2.642
X30.781 Y-2.526
X31.49 Y-2.185
X32.068 Y-1.649
X32.457 Y-0.975
X32.634 Y-0.21
X32.61 Y0.164
X32.577 Y0.592
X32.296 Y1.309
X31.799 Y1.938
X31.137 Y2.386
X30.394 Y2.615
X29.602 Y2.614
X28.855 Y2.383
X28.846 Y2.378
X28.206 Y1.942
X28.184 Y1.916
X27.705 Y1.311
X27.423 Y0.592
X27.363 Y-0.197
X27.412 Y-0.411
G3 X27.606 Y-0.529 R0.159
G1 X30.665 Y0.255
G3 X30.636 Y0.568 R0.159
X30.568 Y-0.446 Z-5.781 R0.508
X30.636 Y0.568 Z-6.063 R0.508
X30.568 Y-0.446 Z-6.344 R0.508
X31.108 Y0.111 Z-6.5 R0.508
G1 X31.087 Y0.32
X30.906 Y0.684
X30.6 Y0.963
X30.208 Y1.116
X29.796
X29.41 Y0.967
X29.093 Y0.682
X28.908 Y0.311
X28.871 Y-0.094
X28.985 Y-0.507
X29.245 Y-0.845
X29.59 Y-1.058
X29.999 Y-1.135
X30.415 Y-1.055
X30.765 Y-0.839
X31.015 Y-0.507
X31.128 Y-0.097
X31.108 Y0.111
G3 X31.06 Y0.209 R0.159
G1 X30.736 Y0.523
G3 X30.636 Y0.568 R0.159
X30.568 Y-0.446 Z-6.781 R0.508
X30.636 Y0.568 Z-7.063 R0.508
X30.568 Y-0.446 Z-7.344 R0.508
X31.108 Y0.111 Z-7.5 R0.508
G1 X31.087 Y0.32
X30.906 Y0.684
X30.6 Y0.963
X30.208 Y1.116
X29.796
X29.41 Y0.967
X29.093 Y0.682
X28.908 Y0.311
X28.871 Y-0.094
X28.985 Y-0.507
X29.245 Y-0.845
X29.59 Y-1.058
X29.999 Y-1.135
X30.415 Y-1.055
X30.765 Y-0.839
X31.015 Y-0.507
X31.128 Y-0.097
X31.108 Y0.111
G3 X31.06 Y0.209 R0.159
G1 X30.736 Y0.523
G3 X30.636 Y0.568 R0.159
X30.568 Y-0.446 Z-7.781 R0.508
X30.636 Y0.568 Z-8.063 R0.508
X30.568 Y-0.446 Z-8.344 R0.508
X31.108 Y0.111 Z-8.5 R0.508
G1 X31.087 Y0.32
X30.906 Y0.684
X30.6 Y0.963
X30.208 Y1.116
X29.796
X29.41 Y0.967
X29.093 Y0.682
X28.908 Y0.311
X28.871 Y-0.094
X28.985 Y-0.507
X29.245 Y-0.845
X29.59 Y-1.058
X29.999 Y-1.135
X30.415 Y-1.055
X30.765 Y-0.839
X31.015 Y-0.507
X31.128 Y-0.097
X31.108 Y0.111
G3 X31.06 Y0.209 R0.159
G1 X30.736 Y0.523
G3 X30.636 Y0.568 R0.159
X30.568 Y-0.446 Z-8.781 R0.508
X30.636 Y0.568 Z-9.063 R0.508
X30.568 Y-0.446 Z-9.344 R0.508
X31.108 Y0.111 Z-9.5 R0.508
G1 X31.087 Y0.32
X30.906 Y0.684
X30.6 Y0.963
X30.208 Y1.116
X29.796
X29.41 Y0.967
X29.093 Y0.682
X28.908 Y0.311
X28.871 Y-0.094
X28.985 Y-0.507
X29.245 Y-0.845
X29.59 Y-1.058
X29.999 Y-1.135
X30.415 Y-1.055
X30.765 Y-0.839
X31.015 Y-0.507
X31.128 Y-0.097
X31.108 Y0.111
G3 X31.06 Y0.209 R0.159
G1 X30.736 Y0.523
G3 X30.636 Y0.568 R0.159
X30.568 Y-0.446 Z-9.781 R0.508
X30.636 Y0.568 Z-10.063 R0.508
X30.568 Y-0.446 Z-10.344 R0.508
X31.108 Y0.111 Z-10.5 R0.508
G1 X31.087 Y0.32
X30.906 Y0.684
X30.6 Y0.963
X30.208 Y1.116
X29.796
X29.41 Y0.967
X29.093 Y0.682
X28.908 Y0.311
X28.871 Y-0.094
X28.985 Y-0.507
X29.245 Y-0.845
X29.59 Y-1.058
X29.999 Y-1.135
X30.415 Y-1.055
X30.765 Y-0.839
X31.015 Y-0.507
X31.128 Y-0.097
X31.108 Y0.111
G3 X31.06 Y0.209 R0.159
G1 X30.736 Y0.523
G3 X30.636 Y0.568 R0.159
X30.568 Y-0.446 Z-10.781 R0.508
X30.636 Y0.568 Z-11.063 R0.508
X30.568 Y-0.446 Z-11.344 R0.508
X31.108 Y0.111 Z-11.5 R0.508
G1 X31.087 Y0.32
X30.906 Y0.684
X30.6 Y0.963
X30.208 Y1.116
X29.796
X29.41 Y0.967
X29.093 Y0.682
X28.908 Y0.311
X28.871 Y-0.094
X28.985 Y-0.507
X29.245 Y-0.845
X29.59 Y-1.058
X29.999 Y-1.135
X30.415 Y-1.055
X30.765 Y-0.839
X31.015 Y-0.507
X31.128 Y-0.097
X31.108 Y0.111
G3 X31.06 Y0.209 R0.159
G1 X30.736 Y0.523
G3 X30.636 Y0.568 R0.159
X30.568 Y-0.446 Z-11.781 R0.508
X30.636 Y0.568 Z-12.063 R0.508
X30.568 Y-0.446 Z-12.344 R0.508
X31.108 Y0.111 Z-12.5 R0.508
G1 X31.087 Y0.32
X30.906 Y0.684
X30.6 Y0.963
X30.208 Y1.116
X29.796
X29.41 Y0.967
X29.093 Y0.682
X28.908 Y0.311
X28.871 Y-0.094
X28.985 Y-0.507
X29.245 Y-0.845
X29.59 Y-1.058
X29.999 Y-1.135
X30.415 Y-1.055
X30.765 Y-0.839
X31.015 Y-0.507
X31.128 Y-0.097
X31.108 Y0.111
G3 X31.06 Y0.209 R0.159
G1 X30.736 Y0.523
G3 X30.636 Y0.568 R0.159
X30.568 Y-0.446 Z-12.781 R0.508
X30.636 Y0.568 Z-13.063 R0.508
X30.568 Y-0.446 Z-13.344 R0.508
X31.108 Y0.111 Z-13.5 R0.508
G1 X31.087 Y0.32
X30.906 Y0.684
X30.6 Y0.963
X30.208 Y1.116
X29.796
X29.41 Y0.967
X29.093 Y0.682
X28.908 Y0.311
X28.871 Y-0.094
X28.985 Y-0.507
X29.245 Y-0.845
X29.59 Y-1.058
X29.999 Y-1.135
X30.415 Y-1.055
X30.765 Y-0.839
X31.015 Y-0.507
X31.128 Y-0.097
X31.108 Y0.111
G3 X30.966 Y0.253 R0.159
G1 X29.316 Y0.42
G3 X29.166 Y0.177 R0.159
X30.023 Y0.723 Z-13.781 R0.508
X29.166 Y0.177 Z-14.063 R0.508
X30.023 Y0.723 Z-14.344 R0.508
X29.255 Y0.828 Z-14.5 R0.508
G1 X29.093 Y0.682
X28.908 Y0.311
X28.871 Y-0.094
X28.985 Y-0.507
X29.245 Y-0.845
X29.59 Y-1.058
X29.999 Y-1.135
X30.415 Y-1.055
X30.765 Y-0.839
X31.015 Y-0.507
X31.128 Y-0.097
X31.087 Y0.32
X30.906 Y0.684
X30.6 Y0.963
X30.208 Y1.116
X29.796
X29.41 Y0.967
X29.255 Y0.828
G3 X29.324 Y0.555 R0.159
G1 X30.589 Y0.255
G3 X30.782 Y0.385 R0.159
X30.636 Y0.568 R0.159
X30.568 Y-0.446 Z-14.781 R0.508
X30.636 Y0.568 Z-15.063 R0.508
X30.568 Y-0.446 Z-15.344 R0.508
X31.108 Y0.111 Z-15.5 R0.508
G1 X31.087 Y0.32
X30.906 Y0.684
X30.6 Y0.963
X30.208 Y1.116
X29.796
X29.41 Y0.967
X29.093 Y0.682
X28.908 Y0.311
X28.871 Y-0.094
X28.985 Y-0.507
X29.245 Y-0.845
X29.59 Y-1.058
X29.999 Y-1.135
X30.415 Y-1.055
X30.765 Y-0.839
X31.015 Y-0.507
X31.128 Y-0.097
X31.108 Y0.111
G3 X31.083 Y0.205 Z-15.484 R0.317
X31.037 Y0.281 Z-15.439 R0.317
X30.987 Y0.33 Z-15.369 R0.318
X30.95 Y0.355 Z-15.281 R0.318
X30.936 Y0.362 Z-15.182 R0.317
G0 Z10.

M9
M30
