(__40_80)
(T2  D=8. CR=0. - ZMIN=-40. - FLAT END MILL)
G90 G94 G91.1 G40 G49 G17
G21

(2D CONTOUR1)
M5
M9
T2
S3640 M3
G54
M8
G0 X35.2 Y-84.
G43 Z11. H2
G1 Z0.5 F300.
X44. Z0. F466.
X-44. Z-5.
X44. Z-10.
X-44.
X44. Z-13.333
X-44. Z-16.667
X44. Z-20.
X-44.
X44. Z-23.333
X-44. Z-26.667
X44. Z-30.
X-44.
X44. Z-33.333
X-44. Z-36.667
X44. Z-40.
X-44.
G0 Z11.

M9
M30
