(  BK10)
(T1  D=2.5 CR=0. - ZMIN=-0.2 - FLAT END MILL)
G90 G94 G91.1 G40 G49 G17
G21

(2D CONTOUR1)
M5
M9
T1
S10000 M3
G54
M8
G0 X8.75 Y0.
G43 Z15. H1
Z5.
G1 Z1. F100.
Z-0.2
G3 X-8.75 R8.75 F400.
X8.75 R8.75
G0 Z15.

(2D CONTOUR3)
M8
G0 X0. Y-14.25
Z15.
Z5.
G1 Z1. F100.
Z-0.2
G2 Y14.25 R14.25 F400.
Y-14.25 R14.25
G0 Z15.

M9
M30
