(_)
(T1  D=3.175 CR=0. - ZMIN=-20. - FLAT END MILL)
G90 G94 G91.1 G40 G49 G17
G21

(2D POCKET1)
M5
M9
T1
S10000 M3
G54
M8
G0 X-5.352 Y-1.993
G43 Z10. H1
Z5.
G1 Z2.5 F762.
G3 X-6.733 Y-4.675 Z1.665 R1.508
X-5.352 Y-1.993 Z0.829 R1.508
X-6.733 Y-4.675 Z-0.006 R1.508
X-5.352 Y-1.993 Z-0.842 R1.508
X-6.733 Y-4.675 Z-1.677 R1.508
X-5.027 Y-4.449 Z-2. R1.508
G2 X-4.299 Y-3.962 R2.958
G3 X-4.224 Y-3.612 R0.226
G2 X-5.557 Y-0.176 R5.618
X-4.455 Y3.341 R5.53
X-4.341 Y3.478 R1.869
G3 X-4.224 Y3.612 R5.198
X-4.299 Y3.962 R0.226
G2 X-5.494 Y4.991 R2.958
X-5.952 Y6.5 R2.713
G1 X-5.907 Y36.873
G3 X-6.227 Y37.193 R0.319
G1 X-6.877
G3 X-7.193 Y36.877 R0.315
G1 Y-36.873
G3 X-6.873 Y-37.193 R0.319
G1 X-6.227
G3 X-5.907 Y-36.873 R0.319
G1 X-5.952 Y-6.5
G2 X-5.494 Y-4.991 R2.713
X-5.027 Y-4.449 R2.958
G1 X-5.441 Y-4.01 Z-1.94
G0 Z5.
X6.359 Y-5.413
G1 Z2.5 F762.
G3 X6.895 Y-2.445 Z1.665 R1.508
X6.359 Y-5.413 Z0.829 R1.508
X6.895 Y-2.445 Z-0.006 R1.508
X6.359 Y-5.413 Z-0.842 R1.508
X6.895 Y-2.445 Z-1.677 R1.508
X5.33 Y-3.16 Z-2. R1.508
G2 X5.194 Y-3.377 R6.194
G3 X5.265 Y-3.819 R0.335
G2 X6.348 Y-5.35 R3.446
G3 X6.554 Y-5.315 R0.106
G1 Y5.315
G3 X6.348 Y5.35 R0.106
G2 X5.265 Y3.819 R3.446
G3 X5.195 Y3.377 R0.335
G2 X5.33 Y-3.16 R6.194
X3.449 Y-3.917 R1.67
G3 X1.423 Y-3.991 R3.365
G2 X0. Y-4.238 R4.238
X-0.026 R4.238
X-3.39 Y2.543 R4.238
X3.39 Y-2.543 R4.238
X1.423 Y-3.991 R4.238
G1 X-0.107 Y-4.628
G3 X-0.03 Y-5.012 R0.2
G1 X3.1
G2 X4.588 Y-6.5 R1.488
G1 Y-38.513
X8.512
Y38.513
X4.588
Y6.5
G2 X3.1 Y5.012 R1.488
G1 X-3.1
G2 X-4.588 Y6.5 R1.488
G1 Y38.513
X-8.512
Y-38.513
X-4.588
Y-6.5
G2 X-3.1 Y-5.012 R1.488
G1 X-0.03
G3 X-0.021 Y-4.613 R0.2
G1 X-6.659 Y-4.283
G3 X-6.765 Y-4.658 R0.2
X-5.321 Y-2.01 Z-2.835 R1.508
X-6.765 Y-4.658 Z-3.671 R1.508
X-5.027 Y-4.449 Z-4. R1.508
G2 X-4.299 Y-3.962 R2.958
G3 X-4.224 Y-3.612 R0.226
G2 X-5.557 Y-0.176 R5.618
X-4.455 Y3.341 R5.53
X-4.341 Y3.478 R1.869
G3 X-4.224 Y3.612 R5.198
X-4.299 Y3.962 R0.226
G2 X-5.494 Y4.991 R2.958
X-5.952 Y6.5 R2.713
G1 X-5.907 Y36.873
G3 X-6.227 Y37.193 R0.319
G1 X-6.877
G3 X-7.193 Y36.877 R0.315
G1 Y-36.873
G3 X-6.873 Y-37.193 R0.319
G1 X-6.227
G3 X-5.907 Y-36.873 R0.319
G1 X-5.952 Y-6.5
G2 X-5.494 Y-4.991 R2.713
X-5.027 Y-4.449 R2.958
G1 X-5.441 Y-4.01 Z-3.94
G0 Z5.
X6.359 Y-5.413
G1 Z0.5 F762.
G3 X6.895 Y-2.445 Z-0.335 R1.508
X6.359 Y-5.413 Z-1.171 R1.508
X6.895 Y-2.445 Z-2.006 R1.508
X6.359 Y-5.413 Z-2.842 R1.508
X6.895 Y-2.445 Z-3.677 R1.508
X5.33 Y-3.16 Z-4. R1.508
G2 X5.194 Y-3.377 R6.194
G3 X5.265 Y-3.819 R0.335
G2 X6.348 Y-5.35 R3.446
G3 X6.554 Y-5.315 R0.106
G1 Y5.315
G3 X6.348 Y5.35 R0.106
G2 X5.265 Y3.819 R3.446
G3 X5.195 Y3.377 R0.335
G2 X5.33 Y-3.16 R6.194
X3.449 Y-3.917 R1.67
G3 X1.423 Y-3.991 R3.365
G2 X0. Y-4.238 R4.238
X-0.026 R4.238
X-3.39 Y2.543 R4.238
X3.39 Y-2.543 R4.238
X1.423 Y-3.991 R4.238
G1 X-0.107 Y-4.628
G3 X-0.03 Y-5.012 R0.2
G1 X3.1
G2 X4.588 Y-6.5 R1.488
G1 Y-38.513
X8.512
Y38.513
X4.588
Y6.5
G2 X3.1 Y5.012 R1.488
G1 X-3.1
G2 X-4.588 Y6.5 R1.488
G1 Y38.513
X-8.512
Y-38.513
X-4.588
Y-6.5
G2 X-3.1 Y-5.012 R1.488
G1 X-0.03
G3 X0.012 Y-4.881 R0.073
G1 X-0.23 Y-4.707
X-5.949 Y-2.206
G2 X-5.992 Y-2.165 R0.088
G1 X-6.134 Y-1.885
G3 X-6.223 Y-1.837 R0.088
X-5.863 Y-4.831 Z-4.835 R1.508
X-5.027 Y-4.449 Z-5. R1.508
G2 X-4.299 Y-3.962 R2.958
G3 X-4.224 Y-3.612 R0.226
G2 X-5.557 Y-0.176 R5.618
X-4.455 Y3.341 R5.53
X-4.341 Y3.478 R1.869
G3 X-4.224 Y3.612 R5.198
X-4.299 Y3.962 R0.226
G2 X-5.494 Y4.991 R2.958
X-5.952 Y6.5 R2.713
G1 X-5.907 Y36.873
G3 X-6.227 Y37.193 R0.319
G1 X-6.877
G3 X-7.193 Y36.877 R0.315
G1 Y-36.873
G3 X-6.873 Y-37.193 R0.319
G1 X-6.227
G3 X-5.907 Y-36.873 R0.319
G1 X-5.952 Y-6.5
G2 X-5.494 Y-4.991 R2.713
X-5.027 Y-4.449 R2.958
G1 X-5.441 Y-4.01 Z-4.94
G0 Z5.
X5.984 Y-2.565
G1 Z-1.5 F762.
G3 X7.269 Y-5.293 Z-2.335 R1.508
X5.984 Y-2.565 Z-3.171 R1.508
X7.269 Y-5.293 Z-4.006 R1.508
X5.984 Y-2.565 Z-4.842 R1.508
X5.33 Y-3.16 Z-5. R1.508
G2 X5.194 Y-3.377 R6.194
G3 X5.265 Y-3.819 R0.335
G2 X6.348 Y-5.35 R3.446
G3 X6.554 Y-5.315 R0.106
G1 Y5.315
G3 X6.348 Y5.35 R0.106
G2 X5.265 Y3.819 R3.446
G3 X5.195 Y3.377 R0.335
G2 X5.33 Y-3.16 R6.194
X3.449 Y-3.917 R1.67
G3 X1.423 Y-3.991 R3.365
G2 X0. Y-4.238 R4.238
X-0.026 R4.238
X-3.39 Y2.543 R4.238
X3.39 Y-2.543 R4.238
X1.423 Y-3.991 R4.238
G1 X-0.107 Y-4.628
G3 X-0.03 Y-5.012 R0.2
G1 X3.1
G2 X4.588 Y-6.5 R1.488
G1 Y-38.513
X8.512
Y38.513
X4.588
Y6.5
G2 X3.1 Y5.012 R1.488
G1 X-3.1
G2 X-4.588 Y6.5 R1.488
G1 Y38.513
X-8.512
Y-38.513
X-4.588
Y-6.5
G2 X-3.1 Y-5.012 R1.488
G1 X-0.03
Y-4.625 Z-4.961
G0 Z10.

(2D POCKET2)
M8
G0 X-0.046 Y-0.196
Z10.
Z5.
G1 Z0.5 F762.
G3 X0.933 Y-0.469 Z0.219 R0.508
X-0.046 Y-0.196 Z-0.063 R0.508
X0.933 Y-0.469 Z-0.344 R0.508
X-0.046 Y-0.196 Z-0.626 R0.508
X0.933 Y-0.469 Z-0.907 R0.508
X-0.046 Y-0.196 Z-1.189 R0.508
X0.933 Y-0.469 Z-1.47 R0.508
X-0.046 Y-0.196 Z-1.752 R0.508
X0.85 Y-0.637 Z-2. R0.508
X-0.85 Y0.637 R1.063
X0.85 Y-0.637 R1.063
X-0.85 Y0.637 Z-2.589 R1.063
X0.85 Y-0.637 Z-3.177 R1.063
X-0.85 Y0.637 Z-3.766 R1.063
X-0.873 Y-0.606 Z-4. R1.063
X0.873 Y0.606 R1.063
X-0.873 Y-0.606 R1.063
X0.873 Y0.606 Z-4.589 R1.062
X-0.873 Y-0.606 Z-5.177 R1.062
X0.873 Y0.606 Z-5.766 R1.062
X-0.301 Y1.019 Z-6. R1.062
X0.301 Y-1.019 R1.062
X-0.301 Y1.019 R1.062
X0.301 Y-1.019 Z-6.589 R1.062
X-0.301 Y1.019 Z-7.177 R1.062
X0.301 Y-1.019 Z-7.766 R1.062
X1.062 Y-0.035 Z-8. R1.062
X-1.062 Y0.035 R1.062
X1.062 Y-0.035 R1.062
X-1.062 Y0.035 Z-8.589 R1.063
X1.062 Y-0.035 Z-9.177 R1.063
X-1.062 Y0.035 Z-9.766 R1.063
X-0.368 Y-0.997 Z-10. R1.063
X0.368 Y0.997 R1.063
X-0.368 Y-0.997 R1.063
X0.368 Y0.997 Z-10.589 R1.062
X-0.368 Y-0.997 Z-11.177 R1.062
X0.368 Y0.997 Z-11.766 R1.062
X-0.83 Y0.663 Z-12. R1.062
X0.83 Y-0.663 R1.062
X-0.83 Y0.663 R1.062
X0.83 Y-0.663 Z-12.589 R1.062
X-0.83 Y0.663 Z-13.177 R1.062
X0.83 Y-0.663 Z-13.766 R1.062
X0.891 Y0.579 Z-14. R1.062
X-0.891 Y-0.579 R1.062
X0.891 Y0.579 R1.062
X-0.891 Y-0.579 Z-14.589 R1.062
X0.891 Y0.579 Z-15.177 R1.062
X-0.891 Y-0.579 Z-15.766 R1.062
X0.27 Y-1.028 Z-16. R1.062
X-0.27 Y1.028 R1.062
X0.27 Y-1.028 R1.062
X-0.27 Y1.028 Z-16.589 R1.063
X0.27 Y-1.028 Z-17.177 R1.063
X-0.27 Y1.028 Z-17.766 R1.063
X-1.06 Y0.068 Z-18. R1.063
X1.06 Y-0.068 R1.063
X-1.06 Y0.068 R1.063
X1.06 Y-0.068 Z-18.589 R1.063
X-1.06 Y0.068 Z-19.177 R1.063
X1.06 Y-0.068 Z-19.766 R1.063
X0.398 Y0.985 Z-20. R1.063
X-0.398 Y-0.985 R1.063
X0.398 Y0.985 R1.063
G1 X0.172 Y0.426 Z-19.94
G0 Z5.
X0.184 Y10.081
G1 Z0.5 F762.
G3 X-0.184 Y11.028 Z0.219 R0.508
X0.184 Y10.081 Z-0.063 R0.508
X-0.184 Y11.028 Z-0.344 R0.508
X0.184 Y10.081 Z-0.626 R0.508
X-0.184 Y11.028 Z-0.907 R0.508
X0.184 Y10.081 Z-1.189 R0.508
X-0.184 Y11.028 Z-1.47 R0.508
X0.184 Y10.081 Z-1.752 R0.508
X0. Y11.063 Z-2. R0.508
Y8.938 R1.063
Y11.063 R1.063
Y8.938 Z-2.589 R1.062
Y11.062 Z-3.177 R1.062
Y8.938 Z-3.766 R1.062
X1.008 Y9.666 Z-4. R1.062
X-1.008 Y10.334 R1.062
X1.008 Y9.666 R1.062
X-1.008 Y10.334 Z-4.589 R1.062
X1.008 Y9.666 Z-5.177 R1.062
X-1.008 Y10.334 Z-5.766 R1.062
X-0.635 Y9.148 Z-6. R1.062
X0.635 Y10.852 R1.062
X-0.635 Y9.148 R1.062
X0.635 Y10.852 Z-6.589 R1.062
X-0.635 Y9.148 Z-7.177 R1.062
X0.635 Y10.852 Z-7.766 R1.062
X-0.609 Y10.871 Z-8. R1.062
X0.609 Y9.129 R1.062
X-0.609 Y10.871 R1.062
X0.609 Y9.129 Z-8.589 R1.062
X-0.609 Y10.871 Z-9.177 R1.062
X0.609 Y9.129 Z-9.766 R1.062
X1.018 Y10.304 Z-10. R1.062
X-1.018 Y9.696 R1.062
X1.018 Y10.304 R1.062
X-1.018 Y9.696 Z-10.589 R1.062
X1.018 Y10.304 Z-11.177 R1.062
X-1.018 Y9.696 Z-11.766 R1.062
X-0.032 Y8.938 Z-12. R1.062
X0.032 Y11.062 R1.062
X-0.032 Y8.938 R1.062
X0.032 Y11.062 Z-12.589 R1.062
X-0.032 Y8.938 Z-13.177 R1.062
X0.032 Y11.062 Z-13.766 R1.062
X-0.998 Y10.365 Z-14. R1.062
X0.998 Y9.635 R1.062
X-0.998 Y10.365 R1.062
X0.998 Y9.635 Z-14.589 R1.062
X-0.998 Y10.365 Z-15.177 R1.062
X0.998 Y9.635 Z-15.766 R1.062
X0.66 Y10.832 Z-16. R1.062
X-0.66 Y9.168 R1.062
X0.66 Y10.832 R1.062
X-0.66 Y9.168 Z-16.589 R1.063
X0.66 Y10.832 Z-17.177 R1.063
X-0.66 Y9.168 Z-17.766 R1.063
X0.582 Y9.111 Z-18. R1.063
X-0.582 Y10.889 R1.063
X0.582 Y9.111 R1.063
X-0.582 Y10.889 Z-18.589 R1.063
X0.582 Y9.111 Z-19.177 R1.063
X-0.582 Y10.889 Z-19.766 R1.063
X-1.027 Y9.727 Z-20. R1.063
X1.027 Y10.273 R1.063
X-1.027 Y9.727 R1.063
G1 X-0.444 Y9.882 Z-19.94
G0 Z5.
X-0.175 Y-9.901
G1 Z0.5 F762.
G3 X-0.712 Y-10.764 Z0.219 R0.508
X-0.175 Y-9.901 Z-0.063 R0.508
X-0.712 Y-10.764 Z-0.344 R0.508
X-0.175 Y-9.901 Z-0.626 R0.508
X-0.712 Y-10.764 Z-0.907 R0.508
X-0.175 Y-9.901 Z-1.189 R0.508
X-0.712 Y-10.764 Z-1.47 R0.508
X-0.175 Y-9.901 Z-1.752 R0.508
X-0.85 Y-10.637 Z-2. R0.508
X0.85 Y-9.363 R1.062
X-0.85 Y-10.637 R1.062
X0.85 Y-9.363 Z-2.589 R1.062
X-0.85 Y-10.637 Z-3.177 R1.062
X0.85 Y-9.363 Z-3.766 R1.062
X-0.338 Y-8.993 Z-4. R1.062
X0.338 Y-11.007 R1.062
X-0.338 Y-8.993 R1.062
X0.338 Y-11.007 Z-4.589 R1.062
X-0.338 Y-8.993 Z-5.177 R1.062
X0.338 Y-11.007 Z-5.766 R1.062
X1.062 Y-9.997 Z-6. R1.062
X-1.062 Y-10.003 R1.062
X1.062 Y-9.997 R1.062
X-1.062 Y-10.003 Z-6.589 R1.063
X1.062 Y-9.997 Z-7.177 R1.063
X-1.062 Y-10.003 Z-7.766 R1.063
X-0.331 Y-11.01 Z-8. R1.063
X0.331 Y-8.99 R1.063
X-0.331 Y-11.01 R1.063
X0.331 Y-8.99 Z-8.589 R1.062
X-0.331 Y-11.01 Z-9.177 R1.062
X0.331 Y-8.99 Z-9.766 R1.062
X-0.854 Y-9.368 Z-10. R1.062
X0.854 Y-10.632 R1.062
X-0.854 Y-9.368 R1.062
X0.854 Y-10.632 Z-10.589 R1.063
X-0.854 Y-9.368 Z-11.177 R1.063
X0.854 Y-10.632 Z-11.766 R1.063
X0.869 Y-9.389 Z-12. R1.063
X-0.869 Y-10.611 R1.063
X0.869 Y-9.389 R1.063
X-0.869 Y-10.611 Z-12.589 R1.062
X0.869 Y-9.389 Z-13.177 R1.062
X-0.869 Y-10.611 Z-13.766 R1.062
X0.307 Y-11.017 Z-14. R1.062
X-0.307 Y-8.983 R1.062
X0.307 Y-11.017 R1.062
X-0.307 Y-8.983 Z-14.589 R1.062
X0.307 Y-11.017 Z-15.177 R1.062
X-0.307 Y-8.983 Z-15.766 R1.062
X-1.062 Y-9.971 Z-16. R1.062
X1.062 Y-10.029 R1.062
X-1.062 Y-9.971 R1.062
X1.062 Y-10.029 Z-16.589 R1.063
X-1.062 Y-9.971 Z-17.177 R1.063
X1.062 Y-10.029 Z-17.766 R1.063
X0.362 Y-9.001 Z-18. R1.063
X-0.362 Y-10.999 R1.063
X0.362 Y-9.001 R1.063
X-0.362 Y-10.999 Z-18.589 R1.063
X0.834 Y-10.658 Z-18.823 R1.063
X0.85 Y-10.637 Z-18.827 R1.062
X-0.85 Y-9.363 Z-19.416 R1.063
X0.834 Y-10.658 Z-20. R1.063
X-0.834 Y-9.342 R1.063
X0.834 Y-10.658 R1.063
G1 X0.361 Y-10.284 Z-19.94
G0 Z5.
X-0.175 Y-29.901
G1 Z0.5 F762.
G3 X-0.712 Y-30.764 Z0.219 R0.508
X-0.175 Y-29.901 Z-0.063 R0.508
X-0.712 Y-30.764 Z-0.344 R0.508
X-0.175 Y-29.901 Z-0.626 R0.508
X-0.712 Y-30.764 Z-0.907 R0.508
X-0.175 Y-29.901 Z-1.189 R0.508
X-0.712 Y-30.764 Z-1.47 R0.508
X-0.175 Y-29.901 Z-1.752 R0.508
X-0.85 Y-30.638 Z-2. R0.508
X0.85 Y-29.362 R1.063
X-0.85 Y-30.638 R1.063
X0.85 Y-29.362 Z-2.589 R1.063
X-0.85 Y-30.638 Z-3.177 R1.063
X0.85 Y-29.362 Z-3.766 R1.063
X-0.338 Y-28.993 Z-4. R1.063
X0.338 Y-31.007 R1.063
X-0.338 Y-28.993 R1.063
X0.338 Y-31.007 Z-4.589 R1.062
X-0.338 Y-28.993 Z-5.177 R1.062
X0.338 Y-31.007 Z-5.766 R1.062
X1.062 Y-29.997 Z-6. R1.062
X-1.062 Y-30.003 R1.062
X1.062 Y-29.997 R1.062
X-1.062 Y-30.003 Z-6.589 R1.063
X1.062 Y-29.997 Z-7.177 R1.063
X-1.062 Y-30.003 Z-7.766 R1.063
X-0.331 Y-31.01 Z-8. R1.063
X0.331 Y-28.99 R1.063
X-0.331 Y-31.01 R1.063
X0.331 Y-28.99 Z-8.589 R1.063
X-0.331 Y-31.01 Z-9.177 R1.063
X0.331 Y-28.99 Z-9.766 R1.063
X-0.854 Y-29.368 Z-10. R1.063
X0.854 Y-30.632 R1.063
X-0.854 Y-29.368 R1.063
X0.854 Y-30.632 Z-10.589 R1.063
X-0.854 Y-29.368 Z-11.177 R1.063
X0.854 Y-30.632 Z-11.766 R1.063
X0.869 Y-29.389 Z-12. R1.063
X-0.869 Y-30.611 R1.063
X0.869 Y-29.389 R1.063
X-0.869 Y-30.611 Z-12.589 R1.062
X0.869 Y-29.389 Z-13.177 R1.062
X-0.869 Y-30.611 Z-13.766 R1.062
X0.307 Y-31.017 Z-14. R1.062
X-0.307 Y-28.983 R1.062
X0.307 Y-31.017 R1.062
X-0.307 Y-28.983 Z-14.589 R1.062
X0.307 Y-31.017 Z-15.177 R1.062
X-0.307 Y-28.983 Z-15.766 R1.062
X-1.062 Y-29.971 Z-16. R1.062
X1.062 Y-30.029 R1.062
X-1.062 Y-29.971 R1.062
X1.062 Y-30.029 Z-16.589 R1.063
X-1.062 Y-29.971 Z-17.177 R1.063
X1.062 Y-30.029 Z-17.766 R1.063
X0.362 Y-29.001 Z-18. R1.063
X-0.362 Y-30.999 R1.063
X0.362 Y-29.001 R1.063
X-0.362 Y-30.999 Z-18.589 R1.062
X0.834 Y-30.658 Z-18.823 R1.062
X0.85 Y-30.638 Z-18.827 R1.063
X-0.85 Y-29.362 Z-19.416 R1.062
X0.834 Y-30.658 Z-20. R1.062
X-0.834 Y-29.342 R1.062
X0.834 Y-30.658 R1.062
G1 X0.361 Y-30.284 Z-19.94
G0 Z5.
X-0.175 Y30.099
G1 Z0.5 F762.
G3 X-0.712 Y29.236 Z0.219 R0.508
X-0.175 Y30.099 Z-0.063 R0.508
X-0.712 Y29.236 Z-0.344 R0.508
X-0.175 Y30.099 Z-0.626 R0.508
X-0.712 Y29.236 Z-0.907 R0.508
X-0.175 Y30.099 Z-1.189 R0.508
X-0.712 Y29.236 Z-1.47 R0.508
X-0.175 Y30.099 Z-1.752 R0.508
X-0.85 Y29.362 Z-2. R0.508
X0.85 Y30.638 R1.063
X-0.85 Y29.362 R1.063
X0.85 Y30.638 Z-2.589 R1.063
X-0.85 Y29.362 Z-3.177 R1.063
X0.85 Y30.638 Z-3.766 R1.063
X-0.338 Y31.007 Z-4. R1.063
X0.338 Y28.993 R1.063
X-0.338 Y31.007 R1.063
X0.338 Y28.993 Z-4.589 R1.062
X-0.338 Y31.007 Z-5.177 R1.062
X0.338 Y28.993 Z-5.766 R1.062
X1.062 Y30.003 Z-6. R1.062
X-1.062 Y29.997 R1.062
X1.062 Y30.003 R1.062
X-1.062 Y29.997 Z-6.589 R1.063
X1.062 Y30.003 Z-7.177 R1.063
X-1.062 Y29.997 Z-7.766 R1.063
X-0.331 Y28.99 Z-8. R1.063
X0.331 Y31.01 R1.063
X-0.331 Y28.99 R1.063
X0.331 Y31.01 Z-8.589 R1.063
X-0.331 Y28.99 Z-9.177 R1.063
X0.331 Y31.01 Z-9.766 R1.063
X-0.854 Y30.632 Z-10. R1.063
X0.854 Y29.368 R1.063
X-0.854 Y30.632 R1.063
X0.854 Y29.368 Z-10.589 R1.063
X-0.854 Y30.632 Z-11.177 R1.063
X0.854 Y29.368 Z-11.766 R1.063
X0.869 Y30.611 Z-12. R1.063
X-0.869 Y29.389 R1.063
X0.869 Y30.611 R1.063
X-0.869 Y29.389 Z-12.589 R1.062
X0.869 Y30.611 Z-13.177 R1.062
X-0.869 Y29.389 Z-13.766 R1.062
X0.307 Y28.983 Z-14. R1.062
X-0.307 Y31.017 R1.062
X0.307 Y28.983 R1.062
X-0.307 Y31.017 Z-14.589 R1.062
X0.307 Y28.983 Z-15.177 R1.062
X-0.307 Y31.017 Z-15.766 R1.062
X-1.062 Y30.029 Z-16. R1.062
X1.062 Y29.971 R1.062
X-1.062 Y30.029 R1.062
X1.062 Y29.971 Z-16.589 R1.063
X-1.062 Y30.029 Z-17.177 R1.063
X1.062 Y29.971 Z-17.766 R1.063
X0.362 Y30.999 Z-18. R1.063
X-0.362 Y29.001 R1.063
X0.362 Y30.999 R1.063
X-0.362 Y29.001 Z-18.589 R1.062
X0.834 Y29.342 Z-18.823 R1.062
X0.85 Y29.362 Z-18.827 R1.063
X-0.85 Y30.638 Z-19.416 R1.062
X0.834 Y29.342 Z-20. R1.062
X-0.834 Y30.658 R1.062
X0.834 Y29.342 R1.062
G1 X0.361 Y29.716 Z-19.94
G0 Z10.

(2D CONTOUR1)
M8
G0 X-11.587 Y-25.521
Z10.
Z5.
G1 Z3. F762.
Z2.5
Y0. Z-2.
Y40.
G2 X-10. Y41.588 R1.588
G1 X10.
G2 X11.587 Y40. R1.587
G1 Y-40.
G2 X10. Y-41.588 R1.588
G1 X-10.
G2 X-11.587 Y-40. R1.587
G1 Y0.
Y33.067 Z-4.
Y40.
G2 X-10. Y41.588 R1.588
G1 X10.
G2 X11.587 Y40. R1.587
G1 Y-40.
G2 X10. Y-41.588 R1.588
G1 X-10.
G2 X-11.587 Y-40. R1.587
G1 Y0.
Y33.067
Y40. Z-4.419
G2 X-10. Y41.588 Z-4.57 R1.588
G1 X10. Z-5.78
G2 X11.587 Y40. Z-5.931 R1.587
G1 Y38.854 Z-6.
Y-40.
G2 X10. Y-41.588 R1.588
G1 X-10.
G2 X-11.587 Y-40. R1.587
G1 Y33.067
Y40.
G2 X-10. Y41.588 R1.588
G1 X10.
G2 X11.587 Y40. R1.587
G1 Y38.854
Y5.787 Z-8.
Y-40.
G2 X10. Y-41.588 R1.588
G1 X-10.
G2 X-11.587 Y-40. R1.587
G1 Y40.
G2 X-10. Y41.588 R1.588
G1 X10.
G2 X11.587 Y40. R1.587
G1 Y5.787
Y-27.28 Z-10.
Y-40.
G2 X10. Y-41.588 R1.588
G1 X-10.
G2 X-11.587 Y-40. R1.587
G1 Y40.
G2 X-10. Y41.588 R1.588
G1 X10.
G2 X11.587 Y40. R1.587
G1 Y5.787
Y-27.28
Y-40. Z-10.769
G2 X10. Y-41.588 Z-10.92 R1.588
G1 X-7.853 Z-12.
X-10.
G2 X-11.587 Y-40. R1.587
G1 Y40.
G2 X-10. Y41.588 R1.588
G1 X10.
G2 X11.587 Y40. R1.587
G1 Y-27.28
Y-40.
G2 X10. Y-41.588 R1.588
G1 X-7.853
X-10. Z-12.13
G2 X-11.587 Y-40. Z-12.281 R1.587
G1 Y-11.573 Z-14.
Y40.
G2 X-10. Y41.588 R1.588
G1 X10.
G2 X11.587 Y40. R1.587
G1 Y-40.
G2 X10. Y-41.588 R1.588
G1 X-7.853
X-10.
G2 X-11.587 Y-40. R1.587
G1 Y-11.573
Y21.493 Z-16.
Y40.
G2 X-10. Y41.588 R1.588
G1 X10.
G2 X11.587 Y40. R1.587
G1 Y-40.
G2 X10. Y-41.588 R1.588
G1 X-10.
G2 X-11.587 Y-40. R1.587
G1 Y21.493
Y40. Z-17.119
G2 X-10. Y41.588 Z-17.27 R1.588
G1 X2.067 Z-18.
X10.
G2 X11.587 Y40. R1.587
G1 Y-40.
G2 X10. Y-41.588 R1.588
G1 X-10.
G2 X-11.587 Y-40. R1.587
G1 Y21.493
Y40.
G2 X-10. Y41.588 R1.588
G1 X2.067
X10. Z-18.48
G2 X11.587 Y40. Z-18.631 R1.587
G1 Y17.36 Z-20.
Y-40.
G2 X10. Y-41.588 R1.588
G1 X-10.
G2 X-11.587 Y-40. R1.587
G1 Y40.
G2 X-10. Y41.588 R1.588
G1 X2.067
X10.
G2 X11.587 Y40. R1.587
G1 Y17.36
G0 Z10.

M9
M30
