(HEATSUNK_DRILL)
(T1  D=1. CR=0. TAPER=118DEG - ZMIN=-1. - DRILL)
G90 G94 G91.1 G40 G49 G17
G21

(DRILL1)
M5
M9
T1
S10000 M3
G54
M9
G0 X0. Y14.249
G43 Z10. H1
Z5.
G98 G73 X0. Y14.249 Z-1. R5. Q0.25 F250.
G80
Z5.533
G73 X-4.369 Y7.315 Z-1. R5.533 Q0.25 F250.
X4.369
Y-7.315
X-4.369
G80
Z10.

M9
M30
