(Exported by FreeCAD)
(Post Processor: grbl_post)
(Output Time:2023-09-10 23:15:13.590428)
(Begin preamble)
G17 G90
G21
(Block-name: G54)
(Block-expand: 0)
(Block-enable: 1)
(Begin operation: G54)
(Path: G54)
G54
G0 Z5.000
(Finish operation: G54)
(Block-name: 3mm Endmill001)
(Block-expand: 0)
(Block-enable: 1)
(Begin operation: 3mm Endmill001)
(Path: 3mm Endmill001)
(3mm Endmill001)
(Begin toolchange)
( M6 T2 )
(Finish operation: 3mm Endmill001)
(Block-name: Drilling)
(Block-expand: 0)
(Block-enable: 1)
(Begin operation: Drilling)
(Path: Drilling)
(Drilling)
(Begin Drilling)
G0 Z5.000
G90
G98
G0 X-42.002 Y-24.250
G0 Z3.000
G83 X-42.002 Y-24.250 Z-9.000 F100.000 Q2.250 R3.000
G0 X-48.000 Y15.000
G0 Z3.000
G83 X-48.000 Y15.000 Z-9.000 F100.000 Q2.250 R3.000
G0 X48.000 Y15.000
G0 Z3.000
G83 X48.000 Y15.000 Z-9.000 F100.000 Q2.250 R3.000
G0 X42.002 Y-24.250
G0 Z3.000
G83 X42.002 Y-24.250 Z-9.000 F100.000 Q2.250 R3.000
G80
G0 Z3.000
G0 Z5.000
(Finish operation: Drilling)
(Block-name: G54)
(Block-expand: 0)
(Block-enable: 1)
(Begin operation: G54)
(Path: G54)
G54
G0 Z5.000
(Finish operation: G54)
(Block-name: 3mm Endmill001)
(Block-expand: 0)
(Block-enable: 1)
(Begin operation: 3mm Endmill001)
(Path: 3mm Endmill001)
(3mm Endmill001)
(Begin toolchange)
( M6 T2 )
(Finish operation: 3mm Endmill001)
(Block-name: Adaptive)
(Block-expand: 0)
(Block-enable: 1)
(Begin operation: Adaptive)
(Path: Adaptive)
(Adaptive)
(Helix to depth: -4.000000)
G0 Z5.000
G0 X-0.005 Y1.115 Z5.000
G0 X-0.005 Y1.115 Z3.000
G1 X-0.005 Y1.115 Z0.000 F100.000
G1 X-0.005 Y1.115 Z0.000 F100.000
G1 X-0.222 Y1.093 Z-0.019 F100.000
G1 X-0.431 Y1.028 Z-0.039 F100.000
G1 X-0.623 Y0.924 Z-0.058 F100.000
G1 X-0.792 Y0.785 Z-0.077 F100.000
G1 X-0.930 Y0.616 Z-0.097 F100.000
G1 X-1.032 Y0.422 Z-0.116 F100.000
G1 X-1.094 Y0.213 Z-0.135 F100.000
G1 X-1.115 Y-0.005 Z-0.155 F100.000
G1 X-1.093 Y-0.222 Z-0.174 F100.000
G1 X-1.028 Y-0.431 Z-0.193 F100.000
G1 X-0.924 Y-0.623 Z-0.213 F100.000
G1 X-0.785 Y-0.792 Z-0.232 F100.000
G1 X-0.616 Y-0.930 Z-0.251 F100.000
G1 X-0.422 Y-1.032 Z-0.271 F100.000
G1 X-0.213 Y-1.094 Z-0.290 F100.000
G1 X0.005 Y-1.115 Z-0.309 F100.000
G1 X0.222 Y-1.093 Z-0.329 F100.000
G1 X0.431 Y-1.028 Z-0.348 F100.000
G1 X0.623 Y-0.924 Z-0.367 F100.000
G1 X0.792 Y-0.785 Z-0.387 F100.000
G1 X0.930 Y-0.616 Z-0.406 F100.000
G1 X1.032 Y-0.422 Z-0.425 F100.000
G1 X1.094 Y-0.213 Z-0.444 F100.000
G1 X1.115 Y0.005 Z-0.464 F100.000
G1 X1.093 Y0.222 Z-0.483 F100.000
G1 X1.028 Y0.431 Z-0.502 F100.000
G1 X0.924 Y0.623 Z-0.522 F100.000
G1 X0.785 Y0.792 Z-0.541 F100.000
G1 X0.616 Y0.930 Z-0.560 F100.000
G1 X0.422 Y1.032 Z-0.580 F100.000
G1 X0.213 Y1.094 Z-0.599 F100.000
G1 X-0.005 Y1.115 Z-0.618 F100.000
G1 X-0.222 Y1.093 Z-0.638 F100.000
G1 X-0.431 Y1.028 Z-0.657 F100.000
G1 X-0.623 Y0.924 Z-0.676 F100.000
G1 X-0.792 Y0.785 Z-0.696 F100.000
G1 X-0.930 Y0.616 Z-0.715 F100.000
G1 X-1.032 Y0.422 Z-0.734 F100.000
G1 X-1.094 Y0.213 Z-0.754 F100.000
G1 X-1.115 Y-0.005 Z-0.773 F100.000
G1 X-1.093 Y-0.222 Z-0.792 F100.000
G1 X-1.028 Y-0.431 Z-0.812 F100.000
G1 X-0.924 Y-0.623 Z-0.831 F100.000
G1 X-0.785 Y-0.792 Z-0.850 F100.000
G1 X-0.616 Y-0.930 Z-0.870 F100.000
G1 X-0.422 Y-1.032 Z-0.889 F100.000
G1 X-0.213 Y-1.094 Z-0.908 F100.000
G1 X0.005 Y-1.115 Z-0.928 F100.000
G1 X0.222 Y-1.093 Z-0.947 F100.000
G1 X0.431 Y-1.028 Z-0.966 F100.000
G1 X0.623 Y-0.924 Z-0.986 F100.000
G1 X0.792 Y-0.785 Z-1.005 F100.000
G1 X0.930 Y-0.616 Z-1.024 F100.000
G1 X1.032 Y-0.422 Z-1.044 F100.000
G1 X1.094 Y-0.213 Z-1.063 F100.000
G1 X1.115 Y0.005 Z-1.082 F100.000
G1 X1.093 Y0.222 Z-1.102 F100.000
G1 X1.028 Y0.431 Z-1.121 F100.000
G1 X0.924 Y0.623 Z-1.140 F100.000
G1 X0.785 Y0.792 Z-1.160 F100.000
G1 X0.616 Y0.930 Z-1.179 F100.000
G1 X0.422 Y1.032 Z-1.198 F100.000
G1 X0.213 Y1.094 Z-1.218 F100.000
G1 X-0.005 Y1.115 Z-1.237 F100.000
G1 X-0.222 Y1.093 Z-1.256 F100.000
G1 X-0.431 Y1.028 Z-1.275 F100.000
G1 X-0.623 Y0.924 Z-1.295 F100.000
G1 X-0.792 Y0.785 Z-1.314 F100.000
G1 X-0.930 Y0.616 Z-1.333 F100.000
G1 X-1.032 Y0.422 Z-1.353 F100.000
G1 X-1.094 Y0.213 Z-1.372 F100.000
G1 X-1.115 Y-0.005 Z-1.391 F100.000
G1 X-1.093 Y-0.222 Z-1.411 F100.000
G1 X-1.028 Y-0.431 Z-1.430 F100.000
G1 X-0.924 Y-0.623 Z-1.449 F100.000
G1 X-0.785 Y-0.792 Z-1.469 F100.000
G1 X-0.616 Y-0.930 Z-1.488 F100.000
G1 X-0.422 Y-1.032 Z-1.507 F100.000
G1 X-0.213 Y-1.094 Z-1.527 F100.000
G1 X0.005 Y-1.115 Z-1.546 F100.000
G1 X0.222 Y-1.093 Z-1.565 F100.000
G1 X0.431 Y-1.028 Z-1.585 F100.000
G1 X0.623 Y-0.924 Z-1.604 F100.000
G1 X0.792 Y-0.785 Z-1.623 F100.000
G1 X0.930 Y-0.616 Z-1.643 F100.000
G1 X1.032 Y-0.422 Z-1.662 F100.000
G1 X1.094 Y-0.213 Z-1.681 F100.000
G1 X1.115 Y0.005 Z-1.701 F100.000
G1 X1.093 Y0.222 Z-1.720 F100.000
G1 X1.028 Y0.431 Z-1.739 F100.000
G1 X0.924 Y0.623 Z-1.759 F100.000
G1 X0.785 Y0.792 Z-1.778 F100.000
G1 X0.616 Y0.930 Z-1.797 F100.000
G1 X0.422 Y1.032 Z-1.817 F100.000
G1 X0.213 Y1.094 Z-1.836 F100.000
G1 X-0.005 Y1.115 Z-1.855 F100.000
G1 X-0.222 Y1.093 Z-1.875 F100.000
G1 X-0.431 Y1.028 Z-1.894 F100.000
G1 X-0.623 Y0.924 Z-1.913 F100.000
G1 X-0.792 Y0.785 Z-1.933 F100.000
G1 X-0.930 Y0.616 Z-1.952 F100.000
G1 X-1.032 Y0.422 Z-1.971 F100.000
G1 X-1.094 Y0.213 Z-1.991 F100.000
G1 X-1.115 Y-0.005 Z-2.010 F100.000
G1 X-1.093 Y-0.222 Z-2.029 F100.000
G1 X-1.028 Y-0.431 Z-2.049 F100.000
G1 X-0.924 Y-0.623 Z-2.068 F100.000
G1 X-0.785 Y-0.792 Z-2.087 F100.000
G1 X-0.616 Y-0.930 Z-2.106 F100.000
G1 X-0.422 Y-1.032 Z-2.126 F100.000
G1 X-0.213 Y-1.094 Z-2.145 F100.000
G1 X0.005 Y-1.115 Z-2.164 F100.000
G1 X0.222 Y-1.093 Z-2.184 F100.000
G1 X0.431 Y-1.028 Z-2.203 F100.000
G1 X0.623 Y-0.924 Z-2.222 F100.000
G1 X0.792 Y-0.785 Z-2.242 F100.000
G1 X0.930 Y-0.616 Z-2.261 F100.000
G1 X1.032 Y-0.422 Z-2.280 F100.000
G1 X1.094 Y-0.213 Z-2.300 F100.000
G1 X1.115 Y0.005 Z-2.319 F100.000
G1 X1.093 Y0.222 Z-2.338 F100.000
G1 X1.028 Y0.431 Z-2.358 F100.000
G1 X0.924 Y0.623 Z-2.377 F100.000
G1 X0.785 Y0.792 Z-2.396 F100.000
G1 X0.616 Y0.930 Z-2.416 F100.000
G1 X0.422 Y1.032 Z-2.435 F100.000
G1 X0.213 Y1.094 Z-2.454 F100.000
G1 X-0.005 Y1.115 Z-2.474 F100.000
G1 X-0.222 Y1.093 Z-2.493 F100.000
G1 X-0.431 Y1.028 Z-2.512 F100.000
G1 X-0.623 Y0.924 Z-2.532 F100.000
G1 X-0.792 Y0.785 Z-2.551 F100.000
G1 X-0.930 Y0.616 Z-2.570 F100.000
G1 X-1.032 Y0.422 Z-2.590 F100.000
G1 X-1.094 Y0.213 Z-2.609 F100.000
G1 X-1.115 Y-0.005 Z-2.628 F100.000
G1 X-1.093 Y-0.222 Z-2.648 F100.000
G1 X-1.028 Y-0.431 Z-2.667 F100.000
G1 X-0.924 Y-0.623 Z-2.686 F100.000
G1 X-0.785 Y-0.792 Z-2.706 F100.000
G1 X-0.616 Y-0.930 Z-2.725 F100.000
G1 X-0.422 Y-1.032 Z-2.744 F100.000
G1 X-0.213 Y-1.094 Z-2.764 F100.000
G1 X0.005 Y-1.115 Z-2.783 F100.000
G1 X0.222 Y-1.093 Z-2.802 F100.000
G1 X0.431 Y-1.028 Z-2.822 F100.000
G1 X0.623 Y-0.924 Z-2.841 F100.000
G1 X0.792 Y-0.785 Z-2.860 F100.000
G1 X0.930 Y-0.616 Z-2.880 F100.000
G1 X1.032 Y-0.422 Z-2.899 F100.000
G1 X1.094 Y-0.213 Z-2.918 F100.000
G1 X1.115 Y0.005 Z-2.937 F100.000
G1 X1.093 Y0.222 Z-2.957 F100.000
G1 X1.028 Y0.431 Z-2.976 F100.000
G1 X0.924 Y0.623 Z-2.995 F100.000
G1 X0.785 Y0.792 Z-3.015 F100.000
G1 X0.616 Y0.930 Z-3.034 F100.000
G1 X0.422 Y1.032 Z-3.053 F100.000
G1 X0.213 Y1.094 Z-3.073 F100.000
G1 X-0.005 Y1.115 Z-3.092 F100.000
G1 X-0.222 Y1.093 Z-3.111 F100.000
G1 X-0.431 Y1.028 Z-3.131 F100.000
G1 X-0.623 Y0.924 Z-3.150 F100.000
G1 X-0.792 Y0.785 Z-3.169 F100.000
G1 X-0.930 Y0.616 Z-3.189 F100.000
G1 X-1.032 Y0.422 Z-3.208 F100.000
G1 X-1.094 Y0.213 Z-3.227 F100.000
G1 X-1.115 Y-0.005 Z-3.247 F100.000
G1 X-1.093 Y-0.222 Z-3.266 F100.000
G1 X-1.028 Y-0.431 Z-3.285 F100.000
G1 X-0.924 Y-0.623 Z-3.305 F100.000
G1 X-0.785 Y-0.792 Z-3.324 F100.000
G1 X-0.616 Y-0.930 Z-3.343 F100.000
G1 X-0.422 Y-1.032 Z-3.363 F100.000
G1 X-0.213 Y-1.094 Z-3.382 F100.000
G1 X0.005 Y-1.115 Z-3.401 F100.000
G1 X0.222 Y-1.093 Z-3.421 F100.000
G1 X0.431 Y-1.028 Z-3.440 F100.000
G1 X0.623 Y-0.924 Z-3.459 F100.000
G1 X0.792 Y-0.785 Z-3.479 F100.000
G1 X0.930 Y-0.616 Z-3.498 F100.000
G1 X1.032 Y-0.422 Z-3.517 F100.000
G1 X1.094 Y-0.213 Z-3.537 F100.000
G1 X1.115 Y0.005 Z-3.556 F100.000
G1 X1.093 Y0.222 Z-3.575 F100.000
G1 X1.028 Y0.431 Z-3.595 F100.000
G1 X0.924 Y0.623 Z-3.614 F100.000
G1 X0.785 Y0.792 Z-3.633 F100.000
G1 X0.616 Y0.930 Z-3.653 F100.000
G1 X0.422 Y1.032 Z-3.672 F100.000
G1 X0.213 Y1.094 Z-3.691 F100.000
G1 X-0.005 Y1.115 Z-3.711 F100.000
G1 X-0.222 Y1.093 Z-3.730 F100.000
G1 X-0.431 Y1.028 Z-3.749 F100.000
G1 X-0.623 Y0.924 Z-3.769 F100.000
G1 X-0.792 Y0.785 Z-3.788 F100.000
G1 X-0.930 Y0.616 Z-3.807 F100.000
G1 X-1.032 Y0.422 Z-3.826 F100.000
G1 X-1.094 Y0.213 Z-3.846 F100.000
G1 X-1.115 Y-0.005 Z-3.865 F100.000
G1 X-1.093 Y-0.222 Z-3.884 F100.000
G1 X-1.028 Y-0.431 Z-3.904 F100.000
G1 X-0.924 Y-0.623 Z-3.923 F100.000
G1 X-0.785 Y-0.792 Z-3.942 F100.000
G1 X-0.616 Y-0.930 Z-3.962 F100.000
G1 X-0.422 Y-1.032 Z-3.981 F100.000
G1 X-0.213 Y-1.094 Z-4.000 F300.000
G1 X0.005 Y-1.115 Z-4.000 F300.000
G1 X0.222 Y-1.093 Z-4.000 F300.000
G1 X0.431 Y-1.028 Z-4.000 F300.000
G1 X0.623 Y-0.924 Z-4.000 F300.000
G1 X0.792 Y-0.785 Z-4.000 F300.000
G1 X0.930 Y-0.616 Z-4.000 F300.000
G1 X1.032 Y-0.422 Z-4.000 F300.000
G1 X1.094 Y-0.213 Z-4.000 F300.000
G1 X1.115 Y0.005 Z-4.000 F300.000
G1 X1.093 Y0.222 Z-4.000 F300.000
G1 X1.028 Y0.431 Z-4.000 F300.000
G1 X0.924 Y0.623 Z-4.000 F300.000
G1 X0.785 Y0.792 Z-4.000 F300.000
G1 X0.616 Y0.930 Z-4.000 F300.000
G1 X0.422 Y1.032 Z-4.000 F300.000
G1 X0.213 Y1.094 Z-4.000 F300.000
G1 X-0.005 Y1.115 Z-4.000 F300.000
G1 X-0.222 Y1.093 Z-4.000 F300.000
G1 X-0.431 Y1.028 Z-4.000 F300.000
G1 X-0.623 Y0.924 Z-4.000 F300.000
G1 X-0.792 Y0.785 Z-4.000 F300.000
G1 X-0.930 Y0.616 Z-4.000 F300.000
G1 X-1.032 Y0.422 Z-4.000 F300.000
G1 X-1.094 Y0.213 Z-4.000 F300.000
G1 X-1.115 Y-0.005 Z-4.000 F300.000
G1 X-1.093 Y-0.222 Z-4.000 F300.000
G1 X-1.028 Y-0.431 Z-4.000 F300.000
G1 X-0.924 Y-0.623 Z-4.000 F300.000
G1 X-0.785 Y-0.792 Z-4.000 F300.000
G1 X-0.616 Y-0.930 Z-4.000 F300.000
G1 X-0.422 Y-1.032 Z-4.000 F300.000
(Adaptive - depth: -4.000000)
G1 X0.000 Y-1.125 F300.000
G1 X0.069 Y-1.194 F300.000
G1 X0.119 Y-1.275 F300.000
G1 X0.275 Y-1.381 F300.000
G1 X0.550 Y-1.444 F300.000
G1 X0.738 Y-1.444 F300.000
G1 X1.100 Y-1.356 F300.000
G1 X1.375 Y-1.194 F300.000
G1 X1.525 Y-1.056 F300.000
G1 X1.663 Y-0.894 F300.000
G1 X1.806 Y-0.662 F300.000
G1 X1.925 Y-0.356 F300.000
G1 X1.994 Y-0.050 F300.000
G1 X2.000 Y0.244 F300.000
G1 X1.962 Y0.506 F300.000
G1 X1.875 Y0.781 F300.000
G1 X1.762 Y1.044 F300.000
G1 X1.556 Y1.356 F300.000
G1 X1.331 Y1.581 F300.000
G1 X1.113 Y1.750 F300.000
G1 X0.831 Y1.900 F300.000
G1 X0.537 Y1.994 F300.000
G1 X0.237 Y2.044 F300.000
G1 X-0.062 Y2.069 F300.000
G1 X-0.431 Y2.025 F300.000
G1 X-0.750 Y1.944 F300.000
G1 X-1.062 Y1.800 F300.000
G1 X-1.300 Y1.644 F300.000
G1 X-1.538 Y1.431 F300.000
G1 X-1.731 Y1.181 F300.000
G1 X-1.881 Y0.912 F300.000
G1 X-1.988 Y0.619 F300.000
G1 X-2.050 Y0.312 F300.000
G1 X-2.062 Y0.000 F300.000
G1 X-2.050 Y-0.306 F300.000
G1 X-1.962 Y-0.669 F300.000
G1 X-1.844 Y-0.981 F300.000
G1 X-1.656 Y-1.275 F300.000
G1 X-1.256 Y-1.719 F300.000
G1 X-0.975 Y-1.962 F300.000
G1 X-0.662 Y-2.169 F300.000
G1 X-0.319 Y-2.325 F300.000
G1 X0.006 Y-2.425 F300.000
G1 X0.350 Y-2.481 F300.000
G1 X0.713 Y-2.487 F300.000
G1 X1.062 Y-2.444 F300.000
G1 X1.406 Y-2.350 F300.000
G1 X1.731 Y-2.194 F300.000
G1 X1.988 Y-2.031 F300.000
G1 X2.237 Y-1.806 F300.000
G1 X2.469 Y-1.569 F300.000
G1 X2.681 Y-1.256 F300.000
G1 X2.850 Y-0.925 F300.000
G1 X2.981 Y-0.575 F300.000
G1 X3.062 Y-0.206 F300.000
G1 X3.081 Y0.163 F300.000
G1 X3.062 Y0.481 F300.000
G1 X2.987 Y0.831 F300.000
G1 X2.894 Y1.169 F300.000
G1 X2.737 Y1.506 F300.000
G1 X2.544 Y1.825 F300.000
G1 X2.319 Y2.125 F300.000
G1 X2.056 Y2.388 F300.000
G1 X1.762 Y2.619 F300.000
G1 X1.444 Y2.819 F300.000
G1 X1.100 Y2.975 F300.000
G1 X0.744 Y3.094 F300.000
G1 X0.375 Y3.169 F300.000
G1 X0.000 Y3.200 F300.000
G1 X-0.369 Y3.188 F300.000
G1 X-0.738 Y3.131 F300.000
G1 X-1.094 Y3.031 F300.000
G1 X-1.438 Y2.888 F300.000
G1 X-1.762 Y2.706 F300.000
G1 X-2.062 Y2.487 F300.000
G1 X-2.337 Y2.231 F300.000
G1 X-2.581 Y1.944 F300.000
G1 X-2.788 Y1.631 F300.000
G1 X-2.956 Y1.294 F300.000
G1 X-3.081 Y0.938 F300.000
G1 X-3.169 Y0.569 F300.000
G1 X-3.212 Y0.194 F300.000
G1 X-3.212 Y-0.175 F300.000
G1 X-3.163 Y-0.544 F300.000
G1 X-3.069 Y-0.906 F300.000
G1 X-2.938 Y-1.256 F300.000
G1 X-2.781 Y-1.594 F300.000
G1 X-2.369 Y-2.219 F300.000
G1 X-2.125 Y-2.500 F300.000
G1 X-1.850 Y-2.756 F300.000
G1 X-1.556 Y-2.994 F300.000
G1 X-1.244 Y-3.200 F300.000
G1 X-0.900 Y-3.362 F300.000
G1 X-0.544 Y-3.481 F300.000
G1 X0.188 Y-3.638 F300.000
G1 X0.556 Y-3.656 F300.000
G1 X0.925 Y-3.644 F300.000
G1 X1.294 Y-3.581 F300.000
G1 X1.656 Y-3.487 F300.000
G1 X2.006 Y-3.356 F300.000
G1 X2.337 Y-3.181 F300.000
G1 X2.650 Y-2.975 F300.000
G1 X2.938 Y-2.737 F300.000
G1 X3.200 Y-2.469 F300.000
G1 X3.650 Y-1.869 F300.000
G1 X3.831 Y-1.538 F300.000
G1 X3.981 Y-1.194 F300.000
G1 X4.106 Y-0.838 F300.000
G1 X4.194 Y-0.469 F300.000
G1 X4.225 Y-0.094 F300.000
G1 X4.231 Y0.275 F300.000
G1 X4.144 Y1.012 F300.000
G1 X4.050 Y1.375 F300.000
G1 X3.931 Y1.725 F300.000
G1 X3.788 Y2.069 F300.000
G1 X3.606 Y2.394 F300.000
G1 X3.400 Y2.706 F300.000
G1 X3.169 Y3.000 F300.000
G1 X2.894 Y3.256 F300.000
G1 X2.606 Y3.494 F300.000
G1 X1.969 Y3.894 F300.000
G1 X1.625 Y4.050 F300.000
G1 X1.269 Y4.175 F300.000
G1 X0.906 Y4.275 F300.000
G1 X0.537 Y4.344 F300.000
G1 X0.163 Y4.381 F300.000
G1 X-0.206 Y4.388 F300.000
G1 X-0.575 Y4.362 F300.000
G1 X-0.944 Y4.306 F300.000
G1 X-1.306 Y4.219 F300.000
G1 X-1.663 Y4.100 F300.000
G1 X-2.006 Y3.950 F300.000
G1 X-2.337 Y3.775 F300.000
G1 X-2.650 Y3.569 F300.000
G1 X-2.944 Y3.337 F300.000
G1 X-3.219 Y3.081 F300.000
G1 X-3.469 Y2.806 F300.000
G1 X-3.694 Y2.506 F300.000
G1 X-3.881 Y2.181 F300.000
G1 X-4.044 Y1.844 F300.000
G1 X-4.175 Y1.488 F300.000
G1 X-4.269 Y1.119 F300.000
G1 X-4.331 Y0.744 F300.000
G1 X-4.375 Y0.369 F300.000
G1 X-4.400 Y0.000 F300.000
G1 X-4.388 Y-0.369 F300.000
G1 X-4.338 Y-0.738 F300.000
G1 X-4.269 Y-1.106 F300.000
G1 X-4.169 Y-1.469 F300.000
G1 X-4.037 Y-1.819 F300.000
G1 X-3.869 Y-2.150 F300.000
G1 X-3.475 Y-2.781 F300.000
G1 X-3.237 Y-3.069 F300.000
G1 X-2.981 Y-3.344 F300.000
G1 X-2.425 Y-3.850 F300.000
G1 X-2.125 Y-4.075 F300.000
G1 X-1.469 Y-4.438 F300.000
G1 X-1.125 Y-4.588 F300.000
G1 X-0.769 Y-4.706 F300.000
G1 X-0.406 Y-4.800 F300.000
G1 X-0.037 Y-4.869 F300.000
G1 X0.331 Y-4.906 F300.000
G1 X0.700 Y-4.919 F300.000
G1 X1.069 Y-4.900 F300.000
G1 X1.438 Y-4.831 F300.000
G1 X1.800 Y-4.744 F300.000
G1 X2.500 Y-4.481 F300.000
G1 X2.831 Y-4.312 F300.000
G1 X3.150 Y-4.119 F300.000
G1 X3.456 Y-3.906 F300.000
G1 X3.744 Y-3.669 F300.000
G1 X4.013 Y-3.406 F300.000
G1 X4.263 Y-3.125 F300.000
G1 X4.494 Y-2.825 F300.000
G1 X4.700 Y-2.513 F300.000
G1 X4.881 Y-2.188 F300.000
G1 X5.037 Y-1.844 F300.000
G1 X5.169 Y-1.494 F300.000
G1 X5.275 Y-1.131 F300.000
G1 X5.356 Y-0.762 F300.000
G1 X5.412 Y-0.388 F300.000
G1 X5.438 Y-0.013 F300.000
G1 X5.438 Y0.356 F300.000
G1 X5.406 Y0.725 F300.000
G1 X5.287 Y1.462 F300.000
G1 X5.188 Y1.825 F300.000
G1 X4.938 Y2.531 F300.000
G1 X4.781 Y2.869 F300.000
G1 X4.362 Y3.487 F300.000
G1 X4.125 Y3.775 F300.000
G1 X3.856 Y4.037 F300.000
G1 X3.288 Y4.519 F300.000
G1 X2.650 Y4.919 F300.000
G1 X2.319 Y5.094 F300.000
G1 X1.975 Y5.244 F300.000
G1 X1.619 Y5.369 F300.000
G1 X1.256 Y5.475 F300.000
G1 X0.887 Y5.556 F300.000
G1 X0.512 Y5.612 F300.000
G1 X0.138 Y5.644 F300.000
G1 X-0.231 Y5.650 F300.000
G1 X-0.600 Y5.631 F300.000
G1 X-0.969 Y5.594 F300.000
G1 X-1.337 Y5.531 F300.000
G1 X-1.700 Y5.444 F300.000
G1 X-2.056 Y5.331 F300.000
G1 X-2.406 Y5.200 F300.000
G1 X-2.744 Y5.044 F300.000
G1 X-3.369 Y4.631 F300.000
G1 X-3.656 Y4.394 F300.000
G1 X-4.188 Y3.862 F300.000
G1 X-4.425 Y3.569 F300.000
G1 X-4.644 Y3.263 F300.000
G1 X-4.844 Y2.944 F300.000
G1 X-5.019 Y2.612 F300.000
G1 X-5.175 Y2.269 F300.000
G1 X-5.306 Y1.919 F300.000
G1 X-5.412 Y1.556 F300.000
G1 X-5.500 Y1.188 F300.000
G1 X-5.562 Y0.812 F300.000
G1 X-5.600 Y0.438 F300.000
G1 X-5.619 Y-0.306 F300.000
G1 X-5.594 Y-0.675 F300.000
G1 X-5.550 Y-1.044 F300.000
G1 X-5.475 Y-1.406 F300.000
G1 X-5.381 Y-1.769 F300.000
G1 X-5.263 Y-2.125 F300.000
G1 X-5.119 Y-2.469 F300.000
G1 X-4.956 Y-2.806 F300.000
G1 X-4.769 Y-3.131 F300.000
G1 X-4.562 Y-3.444 F300.000
G1 X-4.338 Y-3.744 F300.000
G1 X-3.837 Y-4.306 F300.000
G1 X-3.562 Y-4.562 F300.000
G1 X-2.981 Y-5.037 F300.000
G1 X-2.669 Y-5.250 F300.000
G1 X-2.000 Y-5.600 F300.000
G1 X-1.650 Y-5.744 F300.000
G1 X-1.294 Y-5.862 F300.000
G1 X-0.569 Y-6.062 F300.000
G1 X0.175 Y-6.175 F300.000
G1 X0.912 Y-6.175 F300.000
G1 X1.281 Y-6.144 F300.000
G1 X1.650 Y-6.081 F300.000
G1 X2.013 Y-6.000 F300.000
G1 X2.369 Y-5.888 F300.000
G1 X2.719 Y-5.750 F300.000
G1 X3.394 Y-5.438 F300.000
G1 X4.031 Y-5.050 F300.000
G1 X4.338 Y-4.838 F300.000
G1 X4.894 Y-4.331 F300.000
G1 X5.150 Y-4.056 F300.000
G1 X5.600 Y-3.456 F300.000
G1 X5.794 Y-3.138 F300.000
G1 X5.969 Y-2.806 F300.000
G1 X6.125 Y-2.462 F300.000
G1 X6.388 Y-1.756 F300.000
G1 X6.575 Y-1.025 F300.000
G1 X6.650 Y-0.656 F300.000
G1 X6.706 Y0.087 F300.000
G1 X6.706 Y0.456 F300.000
G1 X6.681 Y0.825 F300.000
G1 X6.638 Y1.194 F300.000
G1 X6.569 Y1.562 F300.000
G1 X6.381 Y2.288 F300.000
G1 X6.125 Y2.987 F300.000
G1 X5.963 Y3.325 F300.000
G1 X5.781 Y3.656 F300.000
G1 X5.581 Y3.975 F300.000
G1 X5.362 Y4.275 F300.000
G1 X5.125 Y4.569 F300.000
G1 X4.875 Y4.844 F300.000
G1 X4.606 Y5.106 F300.000
G1 X4.325 Y5.350 F300.000
G1 X3.712 Y5.787 F300.000
G1 X3.388 Y5.981 F300.000
G1 X3.050 Y6.150 F300.000
G1 X2.362 Y6.450 F300.000
G1 X2.006 Y6.575 F300.000
G1 X1.281 Y6.781 F300.000
G1 X0.912 Y6.856 F300.000
G1 X0.163 Y6.925 F300.000
G1 X-0.575 Y6.919 F300.000
G1 X-0.944 Y6.888 F300.000
G1 X-1.681 Y6.775 F300.000
G1 X-2.044 Y6.688 F300.000
G1 X-2.756 Y6.463 F300.000
G1 X-3.100 Y6.325 F300.000
G1 X-3.756 Y5.956 F300.000
G1 X-4.069 Y5.744 F300.000
G1 X-4.644 Y5.256 F300.000
G1 X-4.906 Y4.987 F300.000
G1 X-5.388 Y4.412 F300.000
G1 X-5.800 Y3.788 F300.000
G1 X-6.169 Y3.131 F300.000
G1 X-6.481 Y2.450 F300.000
G1 X-6.706 Y1.731 F300.000
G1 X-6.794 Y1.363 F300.000
G1 X-6.856 Y0.988 F300.000
G1 X-6.900 Y0.613 F300.000
G1 X-6.925 Y0.237 F300.000
G1 X-6.925 Y-0.131 F300.000
G1 X-6.906 Y-0.500 F300.000
G1 X-6.869 Y-0.869 F300.000
G1 X-6.744 Y-1.606 F300.000
G1 X-6.556 Y-2.325 F300.000
G1 X-6.444 Y-2.681 F300.000
G1 X-6.138 Y-3.362 F300.000
G1 X-5.963 Y-3.694 F300.000
G1 X-5.550 Y-4.319 F300.000
G1 X-5.319 Y-4.612 F300.000
G1 X-5.069 Y-4.894 F300.000
G1 X-4.544 Y-5.431 F300.000
G1 X-3.969 Y-5.919 F300.000
G1 X-3.669 Y-6.150 F300.000
G1 X-3.356 Y-6.362 F300.000
G1 X-2.694 Y-6.719 F300.000
G1 X-2.006 Y-7.019 F300.000
G1 X-1.288 Y-7.256 F300.000
G1 X-0.925 Y-7.356 F300.000
G1 X-0.175 Y-7.475 F300.000
G1 X0.194 Y-7.506 F300.000
G1 X0.562 Y-7.513 F300.000
G1 X0.931 Y-7.500 F300.000
G1 X1.300 Y-7.463 F300.000
G1 X1.669 Y-7.406 F300.000
G1 X2.031 Y-7.331 F300.000
G1 X2.394 Y-7.231 F300.000
G1 X3.106 Y-6.994 F300.000
G1 X3.788 Y-6.694 F300.000
G1 X4.119 Y-6.525 F300.000
G1 X4.763 Y-6.138 F300.000
G1 X5.069 Y-5.925 F300.000
G1 X5.638 Y-5.431 F300.000
G1 X5.900 Y-5.162 F300.000
G1 X6.375 Y-4.581 F300.000
G1 X6.588 Y-4.275 F300.000
G1 X6.975 Y-3.638 F300.000
G1 X7.300 Y-2.956 F300.000
G1 X7.444 Y-2.606 F300.000
G1 X7.681 Y-1.887 F300.000
G1 X7.781 Y-1.525 F300.000
G1 X7.862 Y-1.156 F300.000
G1 X7.975 Y-0.412 F300.000
G1 X8.025 Y0.331 F300.000
G1 X7.975 Y1.069 F300.000
G1 X7.869 Y1.806 F300.000
G1 X7.694 Y2.531 F300.000
G1 X7.588 Y2.888 F300.000
G1 X7.463 Y3.237 F300.000
G1 X7.144 Y3.913 F300.000
G1 X6.956 Y4.237 F300.000
G1 X6.544 Y4.862 F300.000
G1 X6.069 Y5.444 F300.000
G1 X5.819 Y5.725 F300.000
G1 X5.556 Y5.994 F300.000
G1 X5.281 Y6.250 F300.000
G1 X4.994 Y6.494 F300.000
G1 X4.375 Y6.912 F300.000
G1 X3.725 Y7.287 F300.000
G1 X3.044 Y7.600 F300.000
G1 X2.694 Y7.737 F300.000
G1 X1.975 Y7.963 F300.000
G1 X1.613 Y8.056 F300.000
G1 X1.244 Y8.131 F300.000
G1 X0.494 Y8.206 F300.000
G1 X-0.250 Y8.225 F300.000
G1 X-0.619 Y8.213 F300.000
G1 X-1.356 Y8.144 F300.000
G1 X-2.094 Y8.019 F300.000
G1 X-2.812 Y7.831 F300.000
G1 X-3.506 Y7.562 F300.000
G1 X-3.844 Y7.406 F300.000
G1 X-4.487 Y7.031 F300.000
G1 X-5.094 Y6.594 F300.000
G1 X-5.381 Y6.350 F300.000
G1 X-5.656 Y6.094 F300.000
G1 X-5.912 Y5.825 F300.000
G1 X-6.388 Y5.237 F300.000
G1 X-7.006 Y4.300 F300.000
G1 X-7.531 Y3.294 F300.000
G1 X-7.681 Y2.950 F300.000
G1 X-7.919 Y2.237 F300.000
G1 X-8.012 Y1.875 F300.000
G1 X-8.150 Y1.131 F300.000
G1 X-8.194 Y0.756 F300.000
G1 X-8.219 Y0.381 F300.000
G1 X-8.225 Y0.006 F300.000
G1 X-8.213 Y-0.362 F300.000
G1 X-8.094 Y-1.469 F300.000
G1 X-7.950 Y-2.200 F300.000
G1 X-7.737 Y-2.919 F300.000
G1 X-7.612 Y-3.269 F300.000
G1 X-7.312 Y-3.950 F300.000
G1 X-7.144 Y-4.281 F300.000
G1 X-6.956 Y-4.606 F300.000
G1 X-6.513 Y-5.213 F300.000
G1 X-6.031 Y-5.787 F300.000
G1 X-5.500 Y-6.319 F300.000
G1 X-5.225 Y-6.575 F300.000
G1 X-4.644 Y-7.044 F300.000
G1 X-4.025 Y-7.469 F300.000
G1 X-3.375 Y-7.844 F300.000
G1 X-2.694 Y-8.169 F300.000
G1 X-1.994 Y-8.444 F300.000
G1 X-1.637 Y-8.562 F300.000
G1 X-0.900 Y-8.719 F300.000
G1 X-0.525 Y-8.769 F300.000
G1 X0.588 Y-8.819 F300.000
G1 X1.325 Y-8.769 F300.000
G1 X1.694 Y-8.725 F300.000
G1 X2.425 Y-8.588 F300.000
G1 X2.788 Y-8.500 F300.000
G1 X3.500 Y-8.275 F300.000
G1 X3.850 Y-8.144 F300.000
G1 X4.531 Y-7.831 F300.000
G1 X5.188 Y-7.469 F300.000
G1 X5.806 Y-7.056 F300.000
G1 X6.369 Y-6.562 F300.000
G1 X6.631 Y-6.294 F300.000
G1 X7.125 Y-5.725 F300.000
G1 X7.562 Y-5.119 F300.000
G1 X7.975 Y-4.494 F300.000
G1 X8.169 Y-4.169 F300.000
G1 X8.494 Y-3.494 F300.000
G1 X8.637 Y-3.144 F300.000
G1 X8.881 Y-2.431 F300.000
G1 X8.981 Y-2.069 F300.000
G1 X9.206 Y-0.963 F300.000
G1 X9.300 Y-0.212 F300.000
G1 X9.319 Y0.525 F300.000
G1 X9.306 Y0.894 F300.000
G1 X9.231 Y1.631 F300.000
G1 X9.169 Y2.000 F300.000
G1 X8.994 Y2.725 F300.000
G1 X8.756 Y3.431 F300.000
G1 X8.619 Y3.775 F300.000
G1 X8.125 Y4.775 F300.000
G1 X7.544 Y5.731 F300.000
G1 X7.069 Y6.312 F300.000
G1 X6.819 Y6.594 F300.000
G1 X6.275 Y7.112 F300.000
G1 X5.688 Y7.575 F300.000
G1 X4.744 Y8.194 F300.000
G1 X3.756 Y8.731 F300.000
G1 X3.413 Y8.887 F300.000
G1 X3.056 Y9.019 F300.000
G1 X1.969 Y9.325 F300.000
G1 X1.225 Y9.450 F300.000
G1 X0.850 Y9.494 F300.000
G1 X0.100 Y9.531 F300.000
G1 X-0.637 Y9.525 F300.000
G1 X-1.744 Y9.444 F300.000
G1 X-2.112 Y9.394 F300.000
G1 X-2.837 Y9.231 F300.000
G1 X-3.194 Y9.131 F300.000
G1 X-3.894 Y8.875 F300.000
G1 X-4.237 Y8.725 F300.000
G1 X-4.900 Y8.375 F300.000
G1 X-5.531 Y7.975 F300.000
G1 X-5.831 Y7.750 F300.000
G1 X-6.375 Y7.244 F300.000
G1 X-6.888 Y6.694 F300.000
G1 X-7.362 Y6.112 F300.000
G1 X-8.012 Y5.194 F300.000
G1 X-8.406 Y4.550 F300.000
G1 X-8.738 Y3.875 F300.000
G1 X-9.012 Y3.169 F300.000
G1 X-9.131 Y2.812 F300.000
G1 X-9.319 Y2.081 F300.000
G1 X-9.394 Y1.712 F300.000
G1 X-9.494 Y0.963 F300.000
G1 X-9.531 Y0.212 F300.000
G1 X-9.531 Y-0.156 F300.000
G1 X-9.456 Y-1.262 F300.000
G1 X-9.287 Y-2.369 F300.000
G1 X-9.213 Y-2.731 F300.000
G1 X-8.988 Y-3.444 F300.000
G1 X-8.856 Y-3.794 F300.000
G1 X-8.544 Y-4.475 F300.000
G1 X-8.169 Y-5.119 F300.000
G1 X-7.756 Y-5.744 F300.000
G1 X-7.056 Y-6.625 F300.000
G1 X-6.537 Y-7.169 F300.000
G1 X-6.269 Y-7.431 F300.000
G1 X-5.700 Y-7.925 F300.000
G1 X-5.106 Y-8.381 F300.000
G1 X-4.487 Y-8.800 F300.000
G1 X-3.831 Y-9.175 F300.000
G1 X-3.144 Y-9.475 F300.000
G1 X-2.431 Y-9.738 F300.000
G1 X-1.706 Y-9.950 F300.000
G1 X-0.956 Y-10.069 F300.000
G1 X-0.206 Y-10.137 F300.000
G1 X0.900 Y-10.156 F300.000
G1 X2.006 Y-10.069 F300.000
G1 X2.731 Y-9.919 F300.000
G1 X3.094 Y-9.825 F300.000
G1 X4.150 Y-9.456 F300.000
G1 X5.169 Y-8.988 F300.000
G1 X5.825 Y-8.625 F300.000
G1 X6.456 Y-8.225 F300.000
G1 X7.031 Y-7.750 F300.000
G1 X7.306 Y-7.494 F300.000
G1 X8.062 Y-6.656 F300.000
G1 X8.519 Y-6.056 F300.000
G1 X8.931 Y-5.431 F300.000
G1 X9.306 Y-4.775 F300.000
G1 X9.631 Y-4.094 F300.000
G1 X9.906 Y-3.394 F300.000
G1 X10.250 Y-2.319 F300.000
G1 X10.444 Y-1.594 F300.000
G1 X10.569 Y-0.844 F300.000
G1 X10.613 Y-0.469 F300.000
G1 X10.656 Y0.275 F300.000
G1 X10.644 Y1.012 F300.000
G1 X10.619 Y1.381 F300.000
G1 X10.519 Y2.119 F300.000
G1 X10.450 Y2.487 F300.000
G1 X10.262 Y3.206 F300.000
G1 X10.025 Y3.913 F300.000
G1 X9.725 Y4.594 F300.000
G1 X9.394 Y5.263 F300.000
G1 X8.831 Y6.231 F300.000
G1 X8.394 Y6.831 F300.000
G1 X8.162 Y7.125 F300.000
G1 X7.912 Y7.406 F300.000
G1 X7.369 Y7.925 F300.000
G1 X6.787 Y8.406 F300.000
G1 X6.175 Y8.844 F300.000
G1 X5.219 Y9.450 F300.000
G1 X4.562 Y9.819 F300.000
G1 X3.875 Y10.125 F300.000
G1 X3.525 Y10.262 F300.000
G1 X2.806 Y10.494 F300.000
G1 X2.075 Y10.669 F300.000
G1 X1.706 Y10.738 F300.000
G1 X0.956 Y10.825 F300.000
G1 X0.206 Y10.863 F300.000
G1 X-0.900 Y10.850 F300.000
G1 X-2.006 Y10.781 F300.000
G1 X-2.375 Y10.719 F300.000
G1 X-3.100 Y10.550 F300.000
G1 X-3.812 Y10.331 F300.000
G1 X-4.850 Y9.925 F300.000
G1 X-5.519 Y9.600 F300.000
G1 X-6.144 Y9.194 F300.000
G1 X-6.444 Y8.969 F300.000
G1 X-7.006 Y8.475 F300.000
G1 X-7.537 Y7.944 F300.000
G1 X-8.269 Y7.088 F300.000
G1 X-8.944 Y6.181 F300.000
G1 X-9.363 Y5.556 F300.000
G1 X-9.906 Y4.569 F300.000
G1 X-10.062 Y4.225 F300.000
G1 X-10.319 Y3.513 F300.000
G1 X-10.425 Y3.150 F300.000
G1 X-10.600 Y2.419 F300.000
G1 X-10.781 Y1.300 F300.000
G1 X-10.850 Y0.550 F300.000
G1 X-10.875 Y-0.194 F300.000
G1 X-10.856 Y-0.931 F300.000
G1 X-10.794 Y-1.669 F300.000
G1 X-10.688 Y-2.406 F300.000
G1 X-10.506 Y-3.131 F300.000
G1 X-10.394 Y-3.487 F300.000
G1 X-10.125 Y-4.181 F300.000
G1 X-9.819 Y-4.862 F300.000
G1 X-9.287 Y-5.844 F300.000
G1 X-8.887 Y-6.475 F300.000
G1 X-8.456 Y-7.081 F300.000
G1 X-8.225 Y-7.375 F300.000
G1 X-7.719 Y-7.925 F300.000
G1 X-7.450 Y-8.188 F300.000
G1 X-6.894 Y-8.694 F300.000
G1 X-6.000 Y-9.387 F300.000
G1 X-5.062 Y-10.006 F300.000
G1 X-4.406 Y-10.375 F300.000
G1 X-3.731 Y-10.706 F300.000
G1 X-3.388 Y-10.856 F300.000
G1 X-2.675 Y-11.088 F300.000
G1 X-2.312 Y-11.181 F300.000
G1 X-1.200 Y-11.387 F300.000
G1 X-0.075 Y-11.500 F300.000
G1 X0.662 Y-11.519 F300.000
G1 X1.769 Y-11.469 F300.000
G1 X2.138 Y-11.431 F300.000
G1 X2.869 Y-11.287 F300.000
G1 X3.231 Y-11.200 F300.000
G1 X3.938 Y-10.969 F300.000
G1 X4.638 Y-10.713 F300.000
G1 X5.325 Y-10.419 F300.000
G1 X5.987 Y-10.075 F300.000
G1 X6.631 Y-9.688 F300.000
G1 X7.250 Y-9.262 F300.000
G1 X7.844 Y-8.800 F300.000
G1 X8.400 Y-8.300 F300.000
G1 X8.900 Y-7.744 F300.000
G1 X9.581 Y-6.844 F300.000
G1 X10.188 Y-5.894 F300.000
G1 X10.713 Y-4.894 F300.000
G1 X11.162 Y-3.856 F300.000
G1 X11.419 Y-3.144 F300.000
G1 X11.725 Y-2.056 F300.000
G1 X11.806 Y-1.688 F300.000
G1 X11.912 Y-0.938 F300.000
G1 X11.950 Y-0.562 F300.000
G1 X11.975 Y0.181 F300.000
G1 X11.975 Y0.919 F300.000
G1 X11.906 Y2.025 F300.000
G1 X11.781 Y2.763 F300.000
G1 X11.706 Y3.125 F300.000
G1 X11.512 Y3.844 F300.000
G1 X11.088 Y4.881 F300.000
G1 X10.419 Y6.219 F300.000
G1 X9.838 Y7.175 F300.000
G1 X9.375 Y7.763 F300.000
G1 X9.131 Y8.044 F300.000
G1 X8.600 Y8.575 F300.000
G1 X8.044 Y9.081 F300.000
G1 X7.162 Y9.775 F300.000
G1 X6.225 Y10.394 F300.000
G1 X5.237 Y10.938 F300.000
G1 X4.556 Y11.256 F300.000
G1 X3.856 Y11.537 F300.000
G1 X3.144 Y11.781 F300.000
G1 X2.781 Y11.887 F300.000
G1 X2.044 Y12.037 F300.000
G1 X1.669 Y12.094 F300.000
G1 X0.919 Y12.150 F300.000
G1 X0.544 Y12.194 F300.000
G1 X-0.569 Y12.238 F300.000
G1 X-1.306 Y12.238 F300.000
G1 X-2.044 Y12.175 F300.000
G1 X-2.775 Y12.025 F300.000
G1 X-3.500 Y11.850 F300.000
G1 X-4.569 Y11.506 F300.000
G1 X-5.263 Y11.238 F300.000
G1 X-5.606 Y11.088 F300.000
G1 X-6.269 Y10.738 F300.000
G1 X-6.588 Y10.550 F300.000
G1 X-6.900 Y10.344 F300.000
G1 X-7.481 Y9.875 F300.000
G1 X-8.031 Y9.369 F300.000
G1 X-8.294 Y9.100 F300.000
G1 X-9.044 Y8.262 F300.000
G1 X-9.756 Y7.388 F300.000
G1 X-9.981 Y7.088 F300.000
G1 X-10.600 Y6.144 F300.000
G1 X-10.963 Y5.487 F300.000
G1 X-11.287 Y4.806 F300.000
G1 X-11.537 Y4.094 F300.000
G1 X-11.831 Y3.000 F300.000
G1 X-12.031 Y1.881 F300.000
G1 X-12.113 Y1.131 F300.000
G1 X-12.194 Y-0.362 F300.000
G1 X-12.200 Y-0.731 F300.000
G1 X-12.131 Y-1.837 F300.000
G1 X-12.025 Y-2.575 F300.000
G1 X-11.956 Y-2.944 F300.000
G1 X-11.756 Y-3.663 F300.000
G1 X-11.637 Y-4.019 F300.000
G1 X-11.206 Y-5.056 F300.000
G1 X-10.512 Y-6.388 F300.000
G1 X-10.137 Y-7.037 F300.000
G1 X-9.494 Y-7.950 F300.000
G1 X-9.019 Y-8.531 F300.000
G1 X-8.512 Y-9.081 F300.000
G1 X-7.969 Y-9.600 F300.000
G1 X-6.781 Y-10.519 F300.000
G1 X-5.850 Y-11.150 F300.000
G1 X-5.213 Y-11.544 F300.000
G1 X-4.875 Y-11.713 F300.000
G1 X-3.831 Y-12.144 F300.000
G1 X-2.750 Y-12.463 F300.000
G1 X-1.644 Y-12.694 F300.000
G1 X-0.894 Y-12.812 F300.000
G1 X-0.144 Y-12.869 F300.000
G1 X0.963 Y-12.894 F300.000
G1 X1.331 Y-12.881 F300.000
G1 X2.069 Y-12.812 F300.000
G1 X2.438 Y-12.762 F300.000
G1 X3.169 Y-12.613 F300.000
G1 X3.888 Y-12.412 F300.000
G1 X4.950 Y-12.044 F300.000
G1 X5.981 Y-11.619 F300.000
G1 X6.319 Y-11.463 F300.000
G1 X6.969 Y-11.094 F300.000
G1 X7.594 Y-10.681 F300.000
G1 X8.488 Y-10.000 F300.000
G1 X9.056 Y-9.506 F300.000
G1 X9.581 Y-8.975 F300.000
G1 X10.069 Y-8.406 F300.000
G1 X10.744 Y-7.506 F300.000
G1 X11.369 Y-6.569 F300.000
G1 X11.750 Y-5.919 F300.000
G1 X12.075 Y-5.244 F300.000
G1 X12.494 Y-4.194 F300.000
G1 X12.838 Y-3.112 F300.000
G1 X13.031 Y-2.381 F300.000
G1 X13.188 Y-1.644 F300.000
G1 X13.306 Y-0.519 F300.000
G1 X13.331 Y0.594 F300.000
G1 X13.306 Y1.331 F300.000
G1 X13.194 Y2.438 F300.000
G1 X13.075 Y3.175 F300.000
G1 X13.000 Y3.538 F300.000
G1 X12.787 Y4.250 F300.000
G1 X12.662 Y4.600 F300.000
G1 X12.231 Y5.631 F300.000
G1 X11.731 Y6.631 F300.000
G1 X11.169 Y7.600 F300.000
G1 X10.506 Y8.512 F300.000
G1 X10.012 Y9.081 F300.000
G1 X9.488 Y9.613 F300.000
G1 X9.213 Y9.869 F300.000
G1 X8.631 Y10.350 F300.000
G1 X7.731 Y11.025 F300.000
G1 X7.106 Y11.450 F300.000
G1 X6.787 Y11.650 F300.000
G1 X6.125 Y12.012 F300.000
G1 X5.100 Y12.488 F300.000
G1 X4.044 Y12.881 F300.000
G1 X3.325 Y13.106 F300.000
G1 X2.219 Y13.350 F300.000
G1 X1.469 Y13.456 F300.000
G1 X0.719 Y13.537 F300.000
G1 X-0.394 Y13.600 F300.000
G1 X-1.131 Y13.613 F300.000
G1 X-1.869 Y13.562 F300.000
G1 X-2.606 Y13.463 F300.000
G1 X-3.337 Y13.312 F300.000
G1 X-4.056 Y13.113 F300.000
G1 X-4.769 Y12.887 F300.000
G1 X-5.819 Y12.500 F300.000
G1 X-6.162 Y12.356 F300.000
G1 X-6.825 Y12.012 F300.000
G1 X-7.463 Y11.625 F300.000
G1 X-8.350 Y10.931 F300.000
G1 X-9.162 Y10.156 F300.000
G1 X-10.169 Y9.044 F300.000
G1 X-10.656 Y8.469 F300.000
G1 X-11.325 Y7.562 F300.000
G1 X-11.531 Y7.250 F300.000
G1 X-11.894 Y6.594 F300.000
G1 X-12.238 Y5.925 F300.000
G1 X-12.544 Y5.237 F300.000
G1 X-12.800 Y4.525 F300.000
G1 X-12.912 Y4.162 F300.000
G1 X-13.094 Y3.431 F300.000
G1 X-13.300 Y2.319 F300.000
G1 X-13.438 Y1.194 F300.000
G1 X-13.512 Y0.069 F300.000
G1 X-13.512 Y-1.038 F300.000
G1 X-13.444 Y-2.144 F300.000
G1 X-13.406 Y-2.513 F300.000
G1 X-13.269 Y-3.250 F300.000
G1 X-13.188 Y-3.612 F300.000
G1 X-12.981 Y-4.325 F300.000
G1 X-12.719 Y-5.025 F300.000
G1 X-12.250 Y-6.044 F300.000
G1 X-11.713 Y-7.025 F300.000
G1 X-11.113 Y-7.975 F300.000
G1 X-10.456 Y-8.881 F300.000
G1 X-9.744 Y-9.744 F300.000
G1 X-9.238 Y-10.287 F300.000
G1 X-8.675 Y-10.787 F300.000
G1 X-8.094 Y-11.262 F300.000
G1 X-7.181 Y-11.925 F300.000
G1 X-6.231 Y-12.531 F300.000
G1 X-5.575 Y-12.900 F300.000
G1 X-4.888 Y-13.200 F300.000
G1 X-4.537 Y-13.338 F300.000
G1 X-3.462 Y-13.688 F300.000
G1 X-2.362 Y-13.963 F300.000
G1 X-1.250 Y-14.169 F300.000
G1 X-0.125 Y-14.250 F300.000
G1 X0.981 Y-14.256 F300.000
G1 X1.719 Y-14.219 F300.000
G1 X2.456 Y-14.137 F300.000
G1 X3.194 Y-14.019 F300.000
G1 X3.919 Y-13.831 F300.000
G1 X4.631 Y-13.613 F300.000
G1 X5.681 Y-13.219 F300.000
G1 X6.700 Y-12.750 F300.000
G1 X7.681 Y-12.206 F300.000
G1 X8.312 Y-11.812 F300.000
G1 X9.225 Y-11.156 F300.000
G1 X9.806 Y-10.688 F300.000
G1 X10.344 Y-10.162 F300.000
G1 X10.600 Y-9.887 F300.000
G1 X11.306 Y-9.019 F300.000
G1 X12.387 Y-7.481 F300.000
G1 X12.969 Y-6.513 F300.000
G1 X13.300 Y-5.838 F300.000
G1 X13.588 Y-5.144 F300.000
G1 X13.856 Y-4.438 F300.000
G1 X14.200 Y-3.356 F300.000
G1 X14.394 Y-2.631 F300.000
G1 X14.569 Y-1.506 F300.000
G1 X14.644 Y-0.756 F300.000
G1 X14.681 Y0.362 F300.000
G1 X14.644 Y1.469 F300.000
G1 X14.531 Y2.575 F300.000
G1 X14.344 Y3.681 F300.000
G1 X14.262 Y4.044 F300.000
G1 X14.037 Y4.756 F300.000
G1 X13.637 Y5.800 F300.000
G1 X13.156 Y6.812 F300.000
G1 X12.613 Y7.794 F300.000
G1 X12.219 Y8.425 F300.000
G1 X11.562 Y9.344 F300.000
G1 X11.094 Y9.925 F300.000
G1 X10.569 Y10.463 F300.000
G1 X10.300 Y10.719 F300.000
G1 X9.444 Y11.444 F300.000
G1 X8.537 Y12.113 F300.000
G1 X7.594 Y12.731 F300.000
G1 X6.612 Y13.275 F300.000
G1 X5.594 Y13.762 F300.000
G1 X5.250 Y13.912 F300.000
G1 X4.537 Y14.156 F300.000
G1 X3.444 Y14.463 F300.000
G1 X2.337 Y14.694 F300.000
G1 X1.212 Y14.863 F300.000
G1 X0.087 Y14.975 F300.000
G1 X-0.650 Y15.006 F300.000
G1 X-1.387 Y14.981 F300.000
G1 X-2.494 Y14.856 F300.000
G1 X-3.950 Y14.544 F300.000
G1 X-5.394 Y14.150 F300.000
G1 X-6.094 Y13.894 F300.000
G1 X-7.112 Y13.431 F300.000
G1 X-7.444 Y13.262 F300.000
G1 X-8.081 Y12.863 F300.000
G1 X-8.387 Y12.650 F300.000
G1 X-8.969 Y12.181 F300.000
G1 X-9.794 Y11.419 F300.000
G1 X-10.856 Y10.356 F300.000
G1 X-11.600 Y9.506 F300.000
G1 X-12.062 Y8.912 F300.000
G1 X-12.700 Y7.987 F300.000
G1 X-13.062 Y7.331 F300.000
G1 X-13.387 Y6.650 F300.000
G1 X-13.531 Y6.300 F300.000
G1 X-13.694 Y5.963 F300.000
G1 X-13.969 Y5.263 F300.000
G1 X-14.306 Y4.181 F300.000
G1 X-14.475 Y3.444 F300.000
G1 X-14.606 Y2.700 F300.000
G1 X-14.850 Y0.825 F300.000
G1 X-14.881 Y0.450 F300.000
G1 X-14.881 Y-1.031 F300.000
G1 X-14.831 Y-2.138 F300.000
G1 X-14.800 Y-2.506 F300.000
G1 X-14.694 Y-3.244 F300.000
G1 X-14.544 Y-3.975 F300.000
G1 X-14.319 Y-4.688 F300.000
G1 X-14.188 Y-5.037 F300.000
G1 X-13.900 Y-5.725 F300.000
G1 X-13.425 Y-6.744 F300.000
G1 X-13.088 Y-7.406 F300.000
G1 X-12.500 Y-8.363 F300.000
G1 X-11.844 Y-9.275 F300.000
G1 X-11.150 Y-10.156 F300.000
G1 X-10.412 Y-11.012 F300.000
G1 X-9.881 Y-11.544 F300.000
G1 X-9.037 Y-12.287 F300.000
G1 X-8.137 Y-12.963 F300.000
G1 X-7.181 Y-13.562 F300.000
G1 X-6.194 Y-14.106 F300.000
G1 X-5.856 Y-14.275 F300.000
G1 X-4.812 Y-14.706 F300.000
G1 X-4.100 Y-14.950 F300.000
G1 X-3.375 Y-15.150 F300.000
G1 X-2.638 Y-15.312 F300.000
G1 X-1.519 Y-15.500 F300.000
G1 X-0.769 Y-15.594 F300.000
G1 X0.350 Y-15.637 F300.000
G1 X1.087 Y-15.619 F300.000
G1 X2.194 Y-15.544 F300.000
G1 X2.562 Y-15.506 F300.000
G1 X3.300 Y-15.387 F300.000
G1 X4.388 Y-15.131 F300.000
G1 X5.100 Y-14.906 F300.000
G1 X5.800 Y-14.644 F300.000
G1 X6.481 Y-14.344 F300.000
G1 X8.150 Y-13.506 F300.000
G1 X8.800 Y-13.144 F300.000
G1 X9.719 Y-12.500 F300.000
G1 X10.294 Y-12.019 F300.000
G1 X10.850 Y-11.519 F300.000
G1 X11.644 Y-10.719 F300.000
G1 X12.150 Y-10.162 F300.000
G1 X12.606 Y-9.562 F300.000
G1 X13.256 Y-8.644 F300.000
G1 X13.669 Y-8.019 F300.000
G1 X14.056 Y-7.375 F300.000
G1 X14.394 Y-6.700 F300.000
G1 X14.831 Y-5.656 F300.000
G1 X15.456 Y-3.881 F300.000
G1 X15.569 Y-3.519 F300.000
G1 X15.819 Y-2.413 F300.000
G1 X15.938 Y-1.663 F300.000
G1 X16.038 Y-0.537 F300.000
G1 X16.044 Y0.575 F300.000
G1 X15.944 Y2.419 F300.000
G1 X15.906 Y2.788 F300.000
G1 X15.787 Y3.525 F300.000
G1 X15.594 Y4.250 F300.000
G1 X15.262 Y5.325 F300.000
G1 X14.875 Y6.375 F300.000
G1 X14.731 Y6.719 F300.000
G1 X14.406 Y7.394 F300.000
G1 X14.056 Y8.056 F300.000
G1 X13.481 Y9.019 F300.000
G1 X12.856 Y9.950 F300.000
G1 X12.137 Y10.819 F300.000
G1 X11.619 Y11.356 F300.000
G1 X11.062 Y11.863 F300.000
G1 X10.475 Y12.331 F300.000
G1 X10.200 Y12.581 F300.000
G1 X9.613 Y13.050 F300.000
G1 X8.688 Y13.681 F300.000
G1 X8.044 Y14.069 F300.000
G1 X7.044 Y14.594 F300.000
G1 X6.356 Y14.900 F300.000
G1 X4.588 Y15.556 F300.000
G1 X3.862 Y15.756 F300.000
G1 X2.756 Y15.988 F300.000
G1 X0.887 Y16.275 F300.000
G1 X0.512 Y16.319 F300.000
G1 X-0.600 Y16.356 F300.000
G1 X-1.337 Y16.325 F300.000
G1 X-2.444 Y16.200 F300.000
G1 X-2.812 Y16.137 F300.000
G1 X-3.181 Y16.100 F300.000
G1 X-3.919 Y15.975 F300.000
G1 X-5.006 Y15.713 F300.000
G1 X-5.719 Y15.494 F300.000
G1 X-6.763 Y15.100 F300.000
G1 X-7.444 Y14.794 F300.000
G1 X-8.431 Y14.269 F300.000
G1 X-8.750 Y14.075 F300.000
G1 X-9.350 Y13.625 F300.000
G1 X-9.925 Y13.150 F300.000
G1 X-10.469 Y12.631 F300.000
G1 X-10.750 Y12.387 F300.000
G1 X-12.081 Y11.062 F300.000
G1 X-12.806 Y10.200 F300.000
G1 X-13.256 Y9.600 F300.000
G1 X-13.875 Y8.662 F300.000
G1 X-14.419 Y7.675 F300.000
G1 X-14.894 Y6.650 F300.000
G1 X-15.287 Y5.594 F300.000
G1 X-15.506 Y4.875 F300.000
G1 X-15.769 Y3.775 F300.000
G1 X-15.975 Y2.663 F300.000
G1 X-16.194 Y1.163 F300.000
G1 X-16.250 Y0.037 F300.000
G1 X-16.244 Y-0.331 F300.000
G1 X-16.256 Y-0.700 F300.000
G1 X-16.206 Y-2.175 F300.000
G1 X-16.150 Y-2.913 F300.000
G1 X-16.038 Y-3.650 F300.000
G1 X-15.856 Y-4.375 F300.000
G1 X-15.750 Y-4.731 F300.000
G1 X-15.506 Y-5.438 F300.000
G1 X-14.606 Y-7.481 F300.000
G1 X-14.056 Y-8.463 F300.000
G1 X-13.438 Y-9.400 F300.000
G1 X-12.775 Y-10.300 F300.000
G1 X-11.825 Y-11.469 F300.000
G1 X-11.081 Y-12.306 F300.000
G1 X-10.544 Y-12.831 F300.000
G1 X-9.675 Y-13.544 F300.000
G1 X-8.750 Y-14.188 F300.000
G1 X-6.812 Y-15.344 F300.000
G1 X-5.787 Y-15.812 F300.000
G1 X-4.731 Y-16.206 F300.000
G1 X-4.006 Y-16.425 F300.000
G1 X-3.275 Y-16.606 F300.000
G1 X-2.538 Y-16.750 F300.000
G1 X-0.662 Y-16.981 F300.000
G1 X0.450 Y-17.025 F300.000
G1 X1.556 Y-16.994 F300.000
G1 X2.294 Y-16.938 F300.000
G1 X3.400 Y-16.788 F300.000
G1 X4.131 Y-16.644 F300.000
G1 X4.844 Y-16.438 F300.000
G1 X5.556 Y-16.212 F300.000
G1 X6.606 Y-15.825 F300.000
G1 X7.294 Y-15.537 F300.000
G1 X7.956 Y-15.200 F300.000
G1 X9.262 Y-14.469 F300.000
G1 X9.887 Y-14.056 F300.000
G1 X10.787 Y-13.381 F300.000
G1 X11.356 Y-12.887 F300.000
G1 X11.900 Y-12.369 F300.000
G1 X12.431 Y-11.838 F300.000
G1 X13.200 Y-11.012 F300.000
G1 X13.894 Y-10.125 F300.000
G1 X14.319 Y-9.506 F300.000
G1 X14.900 Y-8.537 F300.000
G1 X15.625 Y-7.219 F300.000
G1 X16.219 Y-5.831 F300.000
G1 X16.619 Y-4.769 F300.000
G1 X16.850 Y-4.056 F300.000
G1 X17.100 Y-2.950 F300.000
G1 X17.269 Y-1.825 F300.000
G1 X17.387 Y-0.700 F300.000
G1 X17.413 Y0.781 F300.000
G1 X17.394 Y1.887 F300.000
G1 X17.375 Y2.256 F300.000
G1 X17.225 Y3.362 F300.000
G1 X16.988 Y4.450 F300.000
G1 X16.775 Y5.162 F300.000
G1 X16.525 Y5.862 F300.000
G1 X16.413 Y6.219 F300.000
G1 X16.137 Y6.919 F300.000
G1 X15.656 Y7.931 F300.000
G1 X15.475 Y8.262 F300.000
G1 X15.312 Y8.600 F300.000
G1 X14.769 Y9.575 F300.000
G1 X14.575 Y9.894 F300.000
G1 X14.137 Y10.500 F300.000
G1 X13.675 Y11.088 F300.000
G1 X12.925 Y11.925 F300.000
G1 X12.394 Y12.456 F300.000
G1 X11.838 Y12.963 F300.000
G1 X10.975 Y13.688 F300.000
G1 X9.794 Y14.606 F300.000
G1 X8.844 Y15.206 F300.000
G1 X7.844 Y15.731 F300.000
G1 X5.769 Y16.625 F300.000
G1 X5.412 Y16.750 F300.000
G1 X4.688 Y16.962 F300.000
G1 X3.950 Y17.125 F300.000
G1 X3.587 Y17.225 F300.000
G1 X2.112 Y17.525 F300.000
G1 X1.738 Y17.587 F300.000
G1 X0.613 Y17.700 F300.000
G1 X-0.131 Y17.731 F300.000
G1 X-1.238 Y17.700 F300.000
G1 X-1.975 Y17.631 F300.000
G1 X-2.344 Y17.613 F300.000
G1 X-3.081 Y17.538 F300.000
G1 X-4.188 Y17.344 F300.000
G1 X-4.912 Y17.175 F300.000
G1 X-5.631 Y16.969 F300.000
G1 X-6.688 Y16.594 F300.000
G1 X-7.719 Y16.163 F300.000
G1 X-8.394 Y15.850 F300.000
G1 X-9.056 Y15.500 F300.000
G1 X-9.681 Y15.088 F300.000
G1 X-9.981 Y14.869 F300.000
G1 X-10.562 Y14.400 F300.000
G1 X-11.412 Y13.662 F300.000
G1 X-12.762 Y12.375 F300.000
G1 X-13.025 Y12.106 F300.000
G1 X-13.750 Y11.238 F300.000
G1 X-14.194 Y10.631 F300.000
G1 X-14.812 Y9.688 F300.000
G1 X-15.394 Y8.719 F300.000
G1 X-15.756 Y8.056 F300.000
G1 X-16.219 Y7.025 F300.000
G1 X-16.600 Y5.963 F300.000
G1 X-16.806 Y5.237 F300.000
G1 X-17.238 Y3.400 F300.000
G1 X-17.494 Y1.913 F300.000
G1 X-17.600 Y0.412 F300.000
G1 X-17.625 Y-1.069 F300.000
G1 X-17.587 Y-2.175 F300.000
G1 X-17.538 Y-2.913 F300.000
G1 X-17.375 Y-4.019 F300.000
G1 X-17.300 Y-4.381 F300.000
G1 X-17.094 Y-5.094 F300.000
G1 X-16.712 Y-6.138 F300.000
G1 X-16.131 Y-7.519 F300.000
G1 X-15.619 Y-8.512 F300.000
G1 X-15.037 Y-9.475 F300.000
G1 X-14.400 Y-10.394 F300.000
G1 X-13.262 Y-11.881 F300.000
G1 X-12.300 Y-13.025 F300.000
G1 X-11.506 Y-13.825 F300.000
G1 X-11.231 Y-14.075 F300.000
G1 X-10.344 Y-14.775 F300.000
G1 X-9.412 Y-15.412 F300.000
G1 X-8.444 Y-15.994 F300.000
G1 X-6.787 Y-16.887 F300.000
G1 X-5.744 Y-17.319 F300.000
G1 X-5.031 Y-17.562 F300.000
G1 X-4.306 Y-17.762 F300.000
G1 X-3.200 Y-18.012 F300.000
G1 X-2.094 Y-18.219 F300.000
G1 X-1.344 Y-18.331 F300.000
G1 X0.150 Y-18.419 F300.000
G1 X1.256 Y-18.438 F300.000
G1 X2.362 Y-18.363 F300.000
G1 X3.469 Y-18.200 F300.000
G1 X4.194 Y-18.044 F300.000
G1 X4.912 Y-17.850 F300.000
G1 X5.625 Y-17.619 F300.000
G1 X5.987 Y-17.525 F300.000
G1 X6.700 Y-17.294 F300.000
G1 X7.731 Y-16.869 F300.000
G1 X8.406 Y-16.544 F300.000
G1 X9.062 Y-16.181 F300.000
G1 X10.331 Y-15.381 F300.000
G1 X11.550 Y-14.525 F300.000
G1 X12.406 Y-13.794 F300.000
G1 X13.475 Y-12.744 F300.000
G1 X13.988 Y-12.194 F300.000
G1 X14.694 Y-11.319 F300.000
G1 X15.544 Y-10.088 F300.000
G1 X16.337 Y-8.806 F300.000
G1 X16.525 Y-8.481 F300.000
G1 X17.012 Y-7.463 F300.000
G1 X17.725 Y-5.719 F300.000
G1 X18.200 Y-4.287 F300.000
G1 X18.450 Y-3.181 F300.000
G1 X18.569 Y-2.431 F300.000
G1 X18.700 Y-1.306 F300.000
G1 X18.781 Y-0.181 F300.000
G1 X18.806 Y1.294 F300.000
G1 X18.769 Y2.400 F300.000
G1 X18.619 Y3.506 F300.000
G1 X18.462 Y4.231 F300.000
G1 X18.050 Y5.669 F300.000
G1 X17.694 Y6.731 F300.000
G1 X17.431 Y7.431 F300.000
G1 X16.788 Y8.781 F300.000
G1 X16.256 Y9.775 F300.000
G1 X15.881 Y10.419 F300.000
G1 X15.456 Y11.031 F300.000
G1 X14.994 Y11.619 F300.000
G1 X14.256 Y12.475 F300.000
G1 X13.225 Y13.556 F300.000
G1 X12.688 Y14.075 F300.000
G1 X11.231 Y15.250 F300.000
G1 X10.325 Y15.919 F300.000
G1 X9.356 Y16.500 F300.000
G1 X8.681 Y16.837 F300.000
G1 X8.338 Y16.994 F300.000
G1 X8.006 Y17.169 F300.000
G1 X6.981 Y17.644 F300.000
G1 X6.281 Y17.925 F300.000
G1 X4.831 Y18.356 F300.000
G1 X3.725 Y18.619 F300.000
G1 X1.869 Y18.962 F300.000
G1 X1.494 Y19.019 F300.000
G1 X0.369 Y19.100 F300.000
G1 X-0.369 Y19.106 F300.000
G1 X-1.475 Y19.069 F300.000
G1 X-2.950 Y18.944 F300.000
G1 X-4.056 Y18.794 F300.000
G1 X-5.144 Y18.550 F300.000
G1 X-6.213 Y18.219 F300.000
G1 X-6.562 Y18.087 F300.000
G1 X-6.919 Y17.975 F300.000
G1 X-7.969 Y17.587 F300.000
G1 X-8.994 Y17.131 F300.000
G1 X-9.325 Y16.962 F300.000
G1 X-9.963 Y16.575 F300.000
G1 X-10.275 Y16.369 F300.000
G1 X-11.169 Y15.688 F300.000
G1 X-13.144 Y13.956 F300.000
G1 X-13.419 Y13.700 F300.000
G1 X-14.194 Y12.881 F300.000
G1 X-14.681 Y12.306 F300.000
G1 X-15.356 Y11.406 F300.000
G1 X-15.975 Y10.463 F300.000
G1 X-16.356 Y9.812 F300.000
G1 X-17.219 Y8.137 F300.000
G1 X-17.650 Y7.094 F300.000
G1 X-18.006 Y6.019 F300.000
G1 X-18.387 Y4.562 F300.000
G1 X-18.706 Y3.087 F300.000
G1 X-18.869 Y1.962 F300.000
G1 X-18.962 Y0.838 F300.000
G1 X-18.981 Y-0.281 F300.000
G1 X-19.000 Y-0.650 F300.000
G1 X-19.012 Y-2.125 F300.000
G1 X-18.938 Y-3.231 F300.000
G1 X-18.894 Y-3.600 F300.000
G1 X-18.744 Y-4.325 F300.000
G1 X-18.556 Y-5.050 F300.000
G1 X-18.200 Y-6.106 F300.000
G1 X-17.794 Y-7.144 F300.000
G1 X-17.188 Y-8.506 F300.000
G1 X-16.856 Y-9.175 F300.000
G1 X-16.275 Y-10.125 F300.000
G1 X-15.631 Y-11.044 F300.000
G1 X-15.181 Y-11.644 F300.000
G1 X-14.944 Y-11.938 F300.000
G1 X-14.056 Y-13.144 F300.000
G1 X-13.575 Y-13.713 F300.000
G1 X-12.519 Y-14.775 F300.000
G1 X-11.963 Y-15.281 F300.000
G1 X-11.369 Y-15.744 F300.000
G1 X-10.444 Y-16.387 F300.000
G1 X-8.512 Y-17.569 F300.000
G1 X-7.506 Y-18.087 F300.000
G1 X-6.469 Y-18.538 F300.000
G1 X-5.400 Y-18.900 F300.000
G1 X-4.312 Y-19.194 F300.000
G1 X-3.206 Y-19.431 F300.000
G1 X-2.081 Y-19.600 F300.000
G1 X-0.956 Y-19.712 F300.000
G1 X0.900 Y-19.819 F300.000
G1 X2.006 Y-19.800 F300.000
G1 X2.375 Y-19.775 F300.000
G1 X3.112 Y-19.675 F300.000
G1 X3.481 Y-19.606 F300.000
G1 X3.844 Y-19.519 F300.000
G1 X4.213 Y-19.450 F300.000
G1 X6.025 Y-18.981 F300.000
G1 X7.094 Y-18.637 F300.000
G1 X7.794 Y-18.375 F300.000
G1 X9.137 Y-17.725 F300.000
G1 X10.119 Y-17.175 F300.000
G1 X11.381 Y-16.375 F300.000
G1 X12.294 Y-15.719 F300.000
G1 X14.244 Y-13.963 F300.000
G1 X14.512 Y-13.700 F300.000
G1 X15.019 Y-13.150 F300.000
G1 X15.694 Y-12.250 F300.000
G1 X15.938 Y-11.963 F300.000
G1 X16.381 Y-11.356 F300.000
G1 X16.994 Y-10.406 F300.000
G1 X17.719 Y-9.094 F300.000
G1 X18.550 Y-7.406 F300.000
G1 X18.962 Y-6.350 F300.000
G1 X19.319 Y-5.275 F300.000
G1 X19.531 Y-4.550 F300.000
G1 X19.775 Y-3.444 F300.000
G1 X19.894 Y-2.694 F300.000
G1 X20.125 Y-0.819 F300.000
G1 X20.175 Y0.300 F300.000
G1 X20.163 Y2.144 F300.000
G1 X20.113 Y2.881 F300.000
G1 X20.006 Y3.619 F300.000
G1 X19.938 Y3.987 F300.000
G1 X19.669 Y5.075 F300.000
G1 X18.994 Y7.213 F300.000
G1 X18.575 Y8.250 F300.000
G1 X18.087 Y9.256 F300.000
G1 X17.200 Y10.900 F300.000
G1 X16.581 Y11.831 F300.000
G1 X16.131 Y12.431 F300.000
G1 X15.400 Y13.287 F300.000
G1 X14.631 Y14.106 F300.000
G1 X14.094 Y14.631 F300.000
G1 X12.963 Y15.625 F300.000
G1 X12.100 Y16.337 F300.000
G1 X11.181 Y16.988 F300.000
G1 X10.219 Y17.581 F300.000
G1 X9.219 Y18.106 F300.000
G1 X7.513 Y18.906 F300.000
G1 X6.456 Y19.300 F300.000
G1 X5.369 Y19.619 F300.000
G1 X3.531 Y20.069 F300.000
G1 X2.425 Y20.294 F300.000
G1 X1.300 Y20.438 F300.000
G1 X0.550 Y20.494 F300.000
G1 X-0.562 Y20.512 F300.000
G1 X-2.038 Y20.438 F300.000
G1 X-3.513 Y20.306 F300.000
G1 X-4.619 Y20.119 F300.000
G1 X-5.344 Y19.950 F300.000
G1 X-6.419 Y19.631 F300.000
G1 X-8.175 Y19.012 F300.000
G1 X-8.875 Y18.738 F300.000
G1 X-9.881 Y18.250 F300.000
G1 X-10.531 Y17.881 F300.000
G1 X-11.150 Y17.456 F300.000
G1 X-12.031 Y16.762 F300.000
G1 X-12.312 Y16.512 F300.000
G1 X-12.894 Y16.038 F300.000
G1 X-14.025 Y15.044 F300.000
G1 X-14.819 Y14.250 F300.000
G1 X-15.562 Y13.406 F300.000
G1 X-16.256 Y12.519 F300.000
G1 X-16.894 Y11.594 F300.000
G1 X-17.475 Y10.631 F300.000
G1 X-18.000 Y9.637 F300.000
G1 X-18.469 Y8.613 F300.000
G1 X-18.881 Y7.556 F300.000
G1 X-19.462 Y5.763 F300.000
G1 X-19.675 Y5.037 F300.000
G1 X-19.938 Y3.931 F300.000
G1 X-20.144 Y2.819 F300.000
G1 X-20.294 Y1.694 F300.000
G1 X-20.331 Y1.319 F300.000
G1 X-20.381 Y-2.388 F300.000
G1 X-20.375 Y-2.756 F300.000
G1 X-20.238 Y-3.862 F300.000
G1 X-20.075 Y-4.588 F300.000
G1 X-19.887 Y-5.312 F300.000
G1 X-19.544 Y-6.381 F300.000
G1 X-18.738 Y-8.481 F300.000
G1 X-18.594 Y-8.825 F300.000
G1 X-18.087 Y-9.825 F300.000
G1 X-17.700 Y-10.463 F300.000
G1 X-16.856 Y-11.700 F300.000
G1 X-15.550 Y-13.519 F300.000
G1 X-15.081 Y-14.106 F300.000
G1 X-14.319 Y-14.931 F300.000
G1 X-14.050 Y-15.194 F300.000
G1 X-13.794 Y-15.469 F300.000
G1 X-12.694 Y-16.488 F300.000
G1 X-11.794 Y-17.163 F300.000
G1 X-11.156 Y-17.569 F300.000
G1 X-10.850 Y-17.788 F300.000
G1 X-8.919 Y-18.956 F300.000
G1 X-7.906 Y-19.456 F300.000
G1 X-6.862 Y-19.887 F300.000
G1 X-5.787 Y-20.244 F300.000
G1 X-5.062 Y-20.444 F300.000
G1 X-3.225 Y-20.863 F300.000
G1 X-2.100 Y-21.019 F300.000
G1 X-1.725 Y-21.050 F300.000
G1 X-1.350 Y-21.100 F300.000
G1 X0.512 Y-21.225 F300.000
G1 X1.250 Y-21.244 F300.000
G1 X2.356 Y-21.188 F300.000
G1 X3.462 Y-21.038 F300.000
G1 X4.919 Y-20.725 F300.000
G1 X6.006 Y-20.444 F300.000
G1 X7.431 Y-20.012 F300.000
G1 X8.806 Y-19.438 F300.000
G1 X10.150 Y-18.788 F300.000
G1 X10.481 Y-18.613 F300.000
G1 X11.425 Y-18.000 F300.000
G1 X11.750 Y-17.812 F300.000
G1 X12.375 Y-17.400 F300.000
G1 X13.269 Y-16.719 F300.000
G1 X14.106 Y-15.969 F300.000
G1 X14.375 Y-15.706 F300.000
G1 X14.656 Y-15.463 F300.000
G1 X15.469 Y-14.681 F300.000
G1 X15.725 Y-14.406 F300.000
G1 X16.212 Y-13.838 F300.000
G1 X17.369 Y-12.350 F300.000
G1 X17.587 Y-12.044 F300.000
G1 X18.181 Y-11.081 F300.000
G1 X19.087 Y-9.431 F300.000
G1 X19.587 Y-8.419 F300.000
G1 X20.050 Y-7.388 F300.000
G1 X20.425 Y-6.319 F300.000
G1 X20.725 Y-5.225 F300.000
G1 X20.837 Y-4.862 F300.000
G1 X21.119 Y-3.763 F300.000
G1 X21.319 Y-2.650 F300.000
G1 X21.456 Y-1.525 F300.000
G1 X21.519 Y-0.400 F300.000
G1 X21.544 Y1.450 F300.000
G1 X21.519 Y2.556 F300.000
G1 X21.450 Y3.294 F300.000
G1 X21.244 Y4.394 F300.000
G1 X21.150 Y4.756 F300.000
G1 X21.075 Y5.119 F300.000
G1 X20.656 Y6.544 F300.000
G1 X20.281 Y7.600 F300.000
G1 X19.706 Y8.981 F300.000
G1 X18.719 Y10.988 F300.000
G1 X18.137 Y11.950 F300.000
G1 X17.262 Y13.169 F300.000
G1 X16.331 Y14.338 F300.000
G1 X15.812 Y14.881 F300.000
G1 X15.269 Y15.400 F300.000
G1 X15.006 Y15.669 F300.000
G1 X13.325 Y17.163 F300.000
G1 X13.037 Y17.400 F300.000
G1 X12.113 Y18.038 F300.000
G1 X11.463 Y18.419 F300.000
G1 X11.150 Y18.631 F300.000
G1 X10.506 Y19.012 F300.000
G1 X9.506 Y19.531 F300.000
G1 X8.475 Y20.000 F300.000
G1 X7.419 Y20.413 F300.000
G1 X4.900 Y21.188 F300.000
G1 X4.175 Y21.387 F300.000
G1 X3.438 Y21.550 F300.000
G1 X2.688 Y21.656 F300.000
G1 X2.312 Y21.694 F300.000
G1 X1.938 Y21.750 F300.000
G1 X0.438 Y21.900 F300.000
G1 X-1.044 Y21.906 F300.000
G1 X-2.519 Y21.831 F300.000
G1 X-3.625 Y21.731 F300.000
G1 X-4.362 Y21.606 F300.000
G1 X-5.812 Y21.269 F300.000
G1 X-7.237 Y20.844 F300.000
G1 X-8.644 Y20.350 F300.000
G1 X-9.338 Y20.075 F300.000
G1 X-10.344 Y19.581 F300.000
G1 X-10.994 Y19.206 F300.000
G1 X-11.931 Y18.587 F300.000
G1 X-13.113 Y17.669 F300.000
G1 X-14.812 Y16.188 F300.000
G1 X-15.625 Y15.412 F300.000
G1 X-16.369 Y14.575 F300.000
G1 X-17.519 Y13.094 F300.000
G1 X-18.150 Y12.162 F300.000
G1 X-18.725 Y11.194 F300.000
G1 X-19.231 Y10.188 F300.000
G1 X-19.681 Y9.150 F300.000
G1 X-19.844 Y8.812 F300.000
G1 X-20.394 Y7.412 F300.000
G1 X-20.750 Y6.344 F300.000
G1 X-21.150 Y4.888 F300.000
G1 X-21.394 Y3.781 F300.000
G1 X-21.581 Y2.663 F300.000
G1 X-21.712 Y1.538 F300.000
G1 X-21.788 Y0.412 F300.000
G1 X-21.812 Y-2.175 F300.000
G1 X-21.744 Y-3.281 F300.000
G1 X-21.706 Y-3.650 F300.000
G1 X-21.569 Y-4.388 F300.000
G1 X-21.294 Y-5.469 F300.000
G1 X-20.944 Y-6.537 F300.000
G1 X-20.675 Y-7.237 F300.000
G1 X-20.562 Y-7.594 F300.000
G1 X-20.175 Y-8.644 F300.000
G1 X-19.731 Y-9.675 F300.000
G1 X-19.569 Y-10.012 F300.000
G1 X-19.206 Y-10.662 F300.000
G1 X-17.369 Y-13.475 F300.000
G1 X-16.469 Y-14.675 F300.000
G1 X-15.463 Y-15.787 F300.000
G1 X-14.669 Y-16.581 F300.000
G1 X-13.556 Y-17.594 F300.000
G1 X-12.650 Y-18.269 F300.000
G1 X-12.019 Y-18.675 F300.000
G1 X-11.713 Y-18.894 F300.000
G1 X-9.800 Y-20.081 F300.000
G1 X-8.794 Y-20.587 F300.000
G1 X-8.106 Y-20.887 F300.000
G1 X-6.331 Y-21.519 F300.000
G1 X-4.894 Y-21.956 F300.000
G1 X-3.788 Y-22.194 F300.000
G1 X-3.038 Y-22.312 F300.000
G1 X-2.288 Y-22.394 F300.000
G1 X-1.913 Y-22.450 F300.000
G1 X0.331 Y-22.650 F300.000
G1 X1.438 Y-22.650 F300.000
G1 X2.544 Y-22.562 F300.000
G1 X4.019 Y-22.344 F300.000
G1 X5.487 Y-22.062 F300.000
G1 X6.569 Y-21.775 F300.000
G1 X7.631 Y-21.419 F300.000
G1 X8.669 Y-20.988 F300.000
G1 X9.019 Y-20.856 F300.000
G1 X10.050 Y-20.413 F300.000
G1 X11.050 Y-19.900 F300.000
G1 X12.019 Y-19.331 F300.000
G1 X12.950 Y-18.706 F300.000
G1 X13.844 Y-18.031 F300.000
G1 X14.412 Y-17.550 F300.000
G1 X14.688 Y-17.300 F300.000
G1 X14.975 Y-17.062 F300.000
G1 X16.081 Y-16.056 F300.000
G1 X16.863 Y-15.244 F300.000
G1 X17.594 Y-14.394 F300.000
G1 X18.269 Y-13.494 F300.000
G1 X18.887 Y-12.556 F300.000
G1 X20.031 Y-10.619 F300.000
G1 X20.744 Y-9.294 F300.000
G1 X20.913 Y-8.956 F300.000
G1 X21.344 Y-7.912 F300.000
G1 X21.581 Y-7.200 F300.000
G1 X21.688 Y-6.838 F300.000
G1 X21.812 Y-6.481 F300.000
G1 X22.337 Y-4.669 F300.000
G1 X22.575 Y-3.562 F300.000
G1 X22.744 Y-2.438 F300.000
G1 X22.875 Y-0.938 F300.000
G1 X22.975 Y1.288 F300.000
G1 X22.981 Y1.656 F300.000
G1 X22.925 Y2.763 F300.000
G1 X22.794 Y3.869 F300.000
G1 X22.587 Y4.969 F300.000
G1 X22.306 Y6.050 F300.000
G1 X21.950 Y7.112 F300.000
G1 X21.281 Y8.856 F300.000
G1 X20.694 Y10.231 F300.000
G1 X20.538 Y10.569 F300.000
G1 X19.994 Y11.556 F300.000
G1 X19.194 Y12.825 F300.000
G1 X18.337 Y14.044 F300.000
G1 X17.887 Y14.644 F300.000
G1 X17.150 Y15.488 F300.000
G1 X16.625 Y16.019 F300.000
G1 X15.812 Y16.794 F300.000
G1 X15.294 Y17.325 F300.000
G1 X15.012 Y17.569 F300.000
G1 X14.744 Y17.825 F300.000
G1 X13.856 Y18.519 F300.000
G1 X12.919 Y19.137 F300.000
G1 X12.619 Y19.363 F300.000
G1 X11.994 Y19.775 F300.000
G1 X11.019 Y20.350 F300.000
G1 X10.019 Y20.869 F300.000
G1 X9.319 Y21.156 F300.000
G1 X8.975 Y21.312 F300.000
G1 X7.906 Y21.706 F300.000
G1 X5.394 Y22.512 F300.000
G1 X4.669 Y22.706 F300.000
G1 X3.562 Y22.925 F300.000
G1 X1.688 Y23.194 F300.000
G1 X0.562 Y23.288 F300.000
G1 X-0.550 Y23.331 F300.000
G1 X-1.656 Y23.319 F300.000
G1 X-2.763 Y23.244 F300.000
G1 X-3.869 Y23.125 F300.000
G1 X-5.319 Y22.831 F300.000
G1 X-7.125 Y22.363 F300.000
G1 X-8.550 Y21.913 F300.000
G1 X-8.900 Y21.788 F300.000
G1 X-9.925 Y21.337 F300.000
G1 X-11.244 Y20.644 F300.000
G1 X-11.894 Y20.269 F300.000
G1 X-12.519 Y19.856 F300.000
G1 X-13.713 Y18.944 F300.000
G1 X-15.700 Y17.250 F300.000
G1 X-16.250 Y16.744 F300.000
G1 X-17.019 Y15.925 F300.000
G1 X-17.969 Y14.769 F300.000
G1 X-19.087 Y13.256 F300.000
G1 X-19.300 Y12.950 F300.000
G1 X-19.875 Y11.981 F300.000
G1 X-20.219 Y11.306 F300.000
G1 X-21.000 Y9.594 F300.000
G1 X-21.688 Y7.838 F300.000
G1 X-22.163 Y6.406 F300.000
G1 X-22.663 Y4.588 F300.000
G1 X-22.863 Y3.475 F300.000
G1 X-23.012 Y2.350 F300.000
G1 X-23.125 Y1.225 F300.000
G1 X-23.244 Y-1.006 F300.000
G1 X-23.250 Y-2.481 F300.000
G1 X-23.137 Y-3.587 F300.000
G1 X-23.006 Y-4.325 F300.000
G1 X-22.831 Y-5.050 F300.000
G1 X-22.637 Y-5.769 F300.000
G1 X-21.831 Y-8.262 F300.000
G1 X-21.425 Y-9.306 F300.000
G1 X-20.806 Y-10.669 F300.000
G1 X-20.038 Y-11.950 F300.000
G1 X-19.419 Y-12.887 F300.000
G1 X-18.825 Y-13.838 F300.000
G1 X-18.194 Y-14.762 F300.000
G1 X-17.494 Y-15.637 F300.000
G1 X-16.488 Y-16.744 F300.000
G1 X-15.162 Y-18.075 F300.000
G1 X-14.294 Y-18.800 F300.000
G1 X-13.694 Y-19.250 F300.000
G1 X-11.488 Y-20.681 F300.000
G1 X-9.850 Y-21.613 F300.000
G1 X-8.825 Y-22.081 F300.000
G1 X-8.125 Y-22.350 F300.000
G1 X-7.781 Y-22.500 F300.000
G1 X-6.719 Y-22.881 F300.000
G1 X-5.638 Y-23.200 F300.000
G1 X-4.537 Y-23.462 F300.000
G1 X-3.419 Y-23.656 F300.000
G1 X-0.419 Y-24.012 F300.000
G1 X0.694 Y-24.062 F300.000
G1 X1.800 Y-24.044 F300.000
G1 X2.538 Y-24.000 F300.000
G1 X3.644 Y-23.869 F300.000
G1 X4.750 Y-23.681 F300.000
G1 X5.838 Y-23.419 F300.000
G1 X7.263 Y-23.000 F300.000
G1 X9.381 Y-22.275 F300.000
G1 X10.400 Y-21.812 F300.000
G1 X12.044 Y-20.938 F300.000
G1 X12.694 Y-20.569 F300.000
G1 X13.631 Y-19.956 F300.000
G1 X14.231 Y-19.519 F300.000
G1 X15.106 Y-18.806 F300.000
G1 X16.244 Y-17.837 F300.000
G1 X17.062 Y-17.062 F300.000
G1 X17.844 Y-16.250 F300.000
G1 X18.581 Y-15.400 F300.000
G1 X19.275 Y-14.512 F300.000
G1 X19.494 Y-14.206 F300.000
G1 X19.894 Y-13.569 F300.000
G1 X20.106 Y-13.262 F300.000
G1 X21.069 Y-11.650 F300.000
G1 X21.781 Y-10.331 F300.000
G1 X22.281 Y-9.319 F300.000
G1 X22.806 Y-7.906 F300.000
G1 X23.256 Y-6.469 F300.000
G1 X23.625 Y-5.006 F300.000
G1 X23.781 Y-4.269 F300.000
G1 X23.956 Y-3.531 F300.000
G1 X24.156 Y-2.031 F300.000
G1 X24.262 Y-0.531 F300.000
G1 X24.275 Y-0.156 F300.000
G1 X24.312 Y0.212 F300.000
G1 X24.356 Y0.950 F300.000
G1 X24.363 Y2.425 F300.000
G1 X24.350 Y2.794 F300.000
G1 X24.225 Y3.900 F300.000
G1 X24.081 Y4.631 F300.000
G1 X23.712 Y6.075 F300.000
G1 X23.163 Y7.856 F300.000
G1 X22.506 Y9.600 F300.000
G1 X21.906 Y10.969 F300.000
G1 X21.744 Y11.306 F300.000
G1 X20.781 Y12.919 F300.000
G1 X19.969 Y14.175 F300.000
G1 X19.544 Y14.787 F300.000
G1 X18.837 Y15.662 F300.000
G1 X18.331 Y16.219 F300.000
G1 X17.800 Y16.750 F300.000
G1 X17.556 Y17.031 F300.000
G1 X17.038 Y17.575 F300.000
G1 X15.956 Y18.619 F300.000
G1 X15.088 Y19.325 F300.000
G1 X14.475 Y19.756 F300.000
G1 X14.181 Y19.988 F300.000
G1 X12.956 Y20.850 F300.000
G1 X11.669 Y21.631 F300.000
G1 X10.656 Y22.125 F300.000
G1 X8.900 Y22.819 F300.000
G1 X7.106 Y23.413 F300.000
G1 X6.756 Y23.550 F300.000
G1 X6.044 Y23.788 F300.000
G1 X4.950 Y24.075 F300.000
G1 X3.837 Y24.281 F300.000
G1 X3.462 Y24.331 F300.000
G1 X3.094 Y24.400 F300.000
G1 X0.844 Y24.669 F300.000
G1 X0.469 Y24.700 F300.000
G1 X-2.119 Y24.694 F300.000
G1 X-2.856 Y24.663 F300.000
G1 X-3.962 Y24.519 F300.000
G1 X-4.331 Y24.450 F300.000
G1 X-4.700 Y24.400 F300.000
G1 X-6.156 Y24.100 F300.000
G1 X-7.600 Y23.731 F300.000
G1 X-8.312 Y23.519 F300.000
G1 X-9.706 Y22.975 F300.000
G1 X-11.075 Y22.369 F300.000
G1 X-12.056 Y21.825 F300.000
G1 X-12.688 Y21.425 F300.000
G1 X-13.600 Y20.769 F300.000
G1 X-15.650 Y19.144 F300.000
G1 X-16.781 Y18.163 F300.000
G1 X-17.575 Y17.369 F300.000
G1 X-18.319 Y16.525 F300.000
G1 X-19.925 Y14.444 F300.000
G1 X-20.363 Y13.831 F300.000
G1 X-20.956 Y12.869 F300.000
G1 X-21.319 Y12.206 F300.000
G1 X-21.975 Y10.850 F300.000
G1 X-22.994 Y8.419 F300.000
G1 X-23.962 Y5.169 F300.000
G1 X-24.256 Y3.694 F300.000
G1 X-24.381 Y2.944 F300.000
G1 X-24.544 Y1.069 F300.000
G1 X-24.669 Y-1.525 F300.000
G1 X-24.644 Y-2.631 F300.000
G1 X-24.519 Y-3.737 F300.000
G1 X-24.387 Y-4.469 F300.000
G1 X-24.025 Y-5.912 F300.000
G1 X-23.575 Y-7.338 F300.000
G1 X-23.256 Y-8.412 F300.000
G1 X-22.887 Y-9.463 F300.000
G1 X-22.613 Y-10.162 F300.000
G1 X-22.119 Y-11.169 F300.000
G1 X-21.556 Y-12.137 F300.000
G1 X-21.350 Y-12.450 F300.000
G1 X-21.163 Y-12.775 F300.000
G1 X-20.544 Y-13.713 F300.000
G1 X-19.962 Y-14.669 F300.000
G1 X-19.331 Y-15.600 F300.000
G1 X-18.619 Y-16.469 F300.000
G1 X-18.106 Y-17.019 F300.000
G1 X-17.863 Y-17.306 F300.000
G1 X-16.581 Y-18.663 F300.000
G1 X-15.756 Y-19.425 F300.000
G1 X-15.469 Y-19.669 F300.000
G1 X-14.256 Y-20.556 F300.000
G1 X-12.050 Y-22.000 F300.000
G1 X-11.081 Y-22.575 F300.000
G1 X-9.725 Y-23.225 F300.000
G1 X-8.344 Y-23.819 F300.000
G1 X-6.550 Y-24.413 F300.000
G1 X-5.463 Y-24.725 F300.000
G1 X-4.356 Y-24.950 F300.000
G1 X-2.106 Y-25.244 F300.000
G1 X0.138 Y-25.431 F300.000
G1 X1.244 Y-25.481 F300.000
G1 X2.350 Y-25.444 F300.000
G1 X3.456 Y-25.319 F300.000
G1 X4.194 Y-25.188 F300.000
G1 X4.562 Y-25.137 F300.000
G1 X5.300 Y-25.000 F300.000
G1 X6.388 Y-24.725 F300.000
G1 X7.100 Y-24.506 F300.000
G1 X7.463 Y-24.413 F300.000
G1 X8.887 Y-23.988 F300.000
G1 X9.938 Y-23.587 F300.000
G1 X10.281 Y-23.438 F300.000
G1 X10.944 Y-23.094 F300.000
G1 X11.956 Y-22.619 F300.000
G1 X12.619 Y-22.275 F300.000
G1 X13.569 Y-21.681 F300.000
G1 X13.875 Y-21.462 F300.000
G1 X14.194 Y-21.262 F300.000
G1 X15.713 Y-20.163 F300.000
G1 X17.419 Y-18.688 F300.000
G1 X18.219 Y-17.900 F300.000
G1 X18.981 Y-17.075 F300.000
G1 X19.706 Y-16.212 F300.000
G1 X20.600 Y-15.006 F300.000
G1 X22.206 Y-12.475 F300.000
G1 X22.594 Y-11.825 F300.000
G1 X23.106 Y-10.819 F300.000
G1 X23.419 Y-10.131 F300.000
G1 X23.831 Y-9.075 F300.000
G1 X24.444 Y-7.300 F300.000
G1 X24.825 Y-5.844 F300.000
G1 X25.181 Y-4.375 F300.000
G1 X25.394 Y-3.269 F300.000
G1 X25.600 Y-1.769 F300.000
G1 X25.694 Y-0.644 F300.000
G1 X25.775 Y2.312 F300.000
G1 X25.706 Y3.419 F300.000
G1 X25.663 Y3.788 F300.000
G1 X25.525 Y4.525 F300.000
G1 X25.438 Y4.888 F300.000
G1 X25.369 Y5.256 F300.000
G1 X25.087 Y6.344 F300.000
G1 X24.438 Y8.488 F300.000
G1 X24.050 Y9.537 F300.000
G1 X23.613 Y10.569 F300.000
G1 X23.125 Y11.575 F300.000
G1 X22.581 Y12.556 F300.000
G1 X21.244 Y14.800 F300.000
G1 X20.581 Y15.706 F300.000
G1 X20.106 Y16.281 F300.000
G1 X19.613 Y16.850 F300.000
G1 X18.081 Y18.506 F300.000
G1 X17.281 Y19.300 F300.000
G1 X17.006 Y19.556 F300.000
G1 X16.137 Y20.269 F300.000
G1 X14.650 Y21.413 F300.000
G1 X13.725 Y22.056 F300.000
G1 X13.088 Y22.462 F300.000
G1 X12.088 Y22.988 F300.000
G1 X10.025 Y23.913 F300.000
G1 X7.550 Y24.812 F300.000
G1 X6.838 Y25.050 F300.000
G1 X5.750 Y25.350 F300.000
G1 X4.644 Y25.594 F300.000
G1 X3.525 Y25.781 F300.000
G1 X2.400 Y25.900 F300.000
G1 X2.025 Y25.962 F300.000
G1 X1.275 Y26.056 F300.000
G1 X0.150 Y26.119 F300.000
G1 X-2.431 Y26.100 F300.000
G1 X-3.169 Y26.056 F300.000
G1 X-4.275 Y25.906 F300.000
G1 X-4.638 Y25.831 F300.000
G1 X-5.006 Y25.775 F300.000
G1 X-7.181 Y25.294 F300.000
G1 X-8.619 Y24.894 F300.000
G1 X-10.019 Y24.369 F300.000
G1 X-11.394 Y23.788 F300.000
G1 X-11.731 Y23.631 F300.000
G1 X-12.713 Y23.087 F300.000
G1 X-13.338 Y22.675 F300.000
G1 X-15.750 Y20.887 F300.000
G1 X-16.613 Y20.163 F300.000
G1 X-17.438 Y19.406 F300.000
G1 X-18.231 Y18.613 F300.000
G1 X-18.988 Y17.781 F300.000
G1 X-19.975 Y16.656 F300.000
G1 X-20.675 Y15.769 F300.000
G1 X-21.531 Y14.531 F300.000
G1 X-22.131 Y13.569 F300.000
G1 X-22.675 Y12.581 F300.000
G1 X-23.325 Y11.219 F300.000
G1 X-24.325 Y8.781 F300.000
G1 X-24.688 Y7.713 F300.000
G1 X-25.094 Y6.263 F300.000
G1 X-25.419 Y4.787 F300.000
G1 X-25.925 Y1.419 F300.000
G1 X-26.019 Y0.294 F300.000
G1 X-26.081 Y-1.919 F300.000
G1 X-26.038 Y-3.025 F300.000
G1 X-26.006 Y-3.394 F300.000
G1 X-25.894 Y-4.131 F300.000
G1 X-25.819 Y-4.494 F300.000
G1 X-25.725 Y-4.856 F300.000
G1 X-25.656 Y-5.225 F300.000
G1 X-25.363 Y-6.306 F300.000
G1 X-24.369 Y-9.519 F300.000
G1 X-23.975 Y-10.569 F300.000
G1 X-23.831 Y-10.912 F300.000
G1 X-23.494 Y-11.588 F300.000
G1 X-21.581 Y-14.800 F300.000
G1 X-20.512 Y-16.350 F300.000
G1 X-19.587 Y-17.525 F300.000
G1 X-18.600 Y-18.650 F300.000
G1 X-17.819 Y-19.462 F300.000
G1 X-17.281 Y-19.981 F300.000
G1 X-16.106 Y-20.925 F300.000
G1 X-14.900 Y-21.819 F300.000
G1 X-13.650 Y-22.656 F300.000
G1 X-12.037 Y-23.619 F300.000
G1 X-10.706 Y-24.319 F300.000
G1 X-8.975 Y-25.056 F300.000
G1 X-7.575 Y-25.606 F300.000
G1 X-6.487 Y-25.925 F300.000
G1 X-5.381 Y-26.169 F300.000
G1 X-4.631 Y-26.288 F300.000
G1 X-4.263 Y-26.363 F300.000
G1 X-2.388 Y-26.650 F300.000
G1 X0.600 Y-26.906 F300.000
G1 X1.706 Y-26.906 F300.000
G1 X2.812 Y-26.837 F300.000
G1 X3.919 Y-26.688 F300.000
G1 X5.756 Y-26.356 F300.000
G1 X6.481 Y-26.194 F300.000
G1 X7.550 Y-25.869 F300.000
G1 X7.912 Y-25.781 F300.000
G1 X8.625 Y-25.569 F300.000
G1 X9.675 Y-25.188 F300.000
G1 X12.400 Y-23.981 F300.000
G1 X12.738 Y-23.819 F300.000
G1 X13.719 Y-23.275 F300.000
G1 X14.662 Y-22.663 F300.000
G1 X16.200 Y-21.581 F300.000
G1 X16.800 Y-21.131 F300.000
G1 X18.475 Y-19.644 F300.000
G1 X19.262 Y-18.850 F300.000
G1 X20.006 Y-18.006 F300.000
G1 X20.244 Y-17.712 F300.000
G1 X20.500 Y-17.438 F300.000
G1 X20.988 Y-16.863 F300.000
G1 X21.656 Y-15.956 F300.000
G1 X22.069 Y-15.325 F300.000
G1 X22.288 Y-15.019 F300.000
G1 X23.500 Y-13.119 F300.000
G1 X24.031 Y-12.125 F300.000
G1 X24.500 Y-11.094 F300.000
G1 X24.637 Y-10.744 F300.000
G1 X24.794 Y-10.400 F300.000
G1 X25.606 Y-8.300 F300.000
G1 X25.925 Y-7.213 F300.000
G1 X26.100 Y-6.475 F300.000
G1 X26.206 Y-6.112 F300.000
G1 X26.562 Y-4.638 F300.000
G1 X26.756 Y-3.525 F300.000
G1 X26.938 Y-2.025 F300.000
G1 X27.181 Y0.956 F300.000
G1 X27.188 Y2.062 F300.000
G1 X27.144 Y3.169 F300.000
G1 X27.113 Y3.538 F300.000
G1 X26.931 Y4.644 F300.000
G1 X26.756 Y5.369 F300.000
G1 X26.694 Y5.737 F300.000
G1 X26.350 Y7.188 F300.000
G1 X26.025 Y8.256 F300.000
G1 X25.644 Y9.306 F300.000
G1 X25.356 Y9.994 F300.000
G1 X25.231 Y10.344 F300.000
G1 X24.950 Y11.031 F300.000
G1 X24.469 Y12.044 F300.000
G1 X24.119 Y12.706 F300.000
G1 X23.538 Y13.669 F300.000
G1 X23.369 Y14.000 F300.000
G1 X23.000 Y14.650 F300.000
G1 X22.406 Y15.606 F300.000
G1 X21.731 Y16.500 F300.000
G1 X21.244 Y17.069 F300.000
G1 X21.012 Y17.363 F300.000
G1 X19.275 Y19.331 F300.000
G1 X18.475 Y20.119 F300.000
G1 X17.625 Y20.863 F300.000
G1 X15.556 Y22.488 F300.000
G1 X14.625 Y23.131 F300.000
G1 X13.338 Y23.913 F300.000
G1 X12.338 Y24.438 F300.000
G1 X11.306 Y24.894 F300.000
G1 X9.213 Y25.738 F300.000
G1 X7.438 Y26.363 F300.000
G1 X7.081 Y26.475 F300.000
G1 X4.875 Y27.012 F300.000
G1 X3.750 Y27.194 F300.000
G1 X3.000 Y27.275 F300.000
G1 X2.631 Y27.344 F300.000
G1 X1.881 Y27.438 F300.000
G1 X0.756 Y27.519 F300.000
G1 X-0.362 Y27.531 F300.000
G1 X-0.731 Y27.550 F300.000
G1 X-2.206 Y27.556 F300.000
G1 X-3.312 Y27.469 F300.000
G1 X-4.787 Y27.250 F300.000
G1 X-5.888 Y27.044 F300.000
G1 X-8.062 Y26.525 F300.000
G1 X-9.131 Y26.212 F300.000
G1 X-10.181 Y25.819 F300.000
G1 X-10.525 Y25.669 F300.000
G1 X-10.875 Y25.544 F300.000
G1 X-11.562 Y25.256 F300.000
G1 X-12.569 Y24.762 F300.000
G1 X-13.544 Y24.212 F300.000
G1 X-14.488 Y23.594 F300.000
G1 X-16.569 Y22.006 F300.000
G1 X-18.281 Y20.562 F300.000
G1 X-18.812 Y20.031 F300.000
G1 X-19.587 Y19.212 F300.000
G1 X-21.294 Y17.219 F300.000
G1 X-22.431 Y15.725 F300.000
G1 X-23.025 Y14.762 F300.000
G1 X-23.938 Y13.119 F300.000
G1 X-24.756 Y11.419 F300.000
G1 X-25.481 Y9.681 F300.000
G1 X-26.106 Y7.906 F300.000
G1 X-26.475 Y6.450 F300.000
G1 X-26.931 Y4.237 F300.000
G1 X-27.269 Y1.988 F300.000
G1 X-27.450 Y0.113 F300.000
G1 X-27.500 Y-0.625 F300.000
G1 X-27.469 Y-2.837 F300.000
G1 X-27.363 Y-3.944 F300.000
G1 X-27.306 Y-4.312 F300.000
G1 X-27.144 Y-5.037 F300.000
G1 X-27.044 Y-5.400 F300.000
G1 X-26.962 Y-5.763 F300.000
G1 X-25.700 Y-10.044 F300.000
G1 X-25.444 Y-10.744 F300.000
G1 X-24.975 Y-11.762 F300.000
G1 X-24.431 Y-12.744 F300.000
G1 X-23.312 Y-14.688 F300.000
G1 X-22.312 Y-16.269 F300.000
G1 X-21.669 Y-17.194 F300.000
G1 X-20.988 Y-18.087 F300.000
G1 X-20.019 Y-19.225 F300.000
G1 X-19.244 Y-20.044 F300.000
G1 X-18.156 Y-21.075 F300.000
G1 X-17.006 Y-22.044 F300.000
G1 X-15.806 Y-22.944 F300.000
G1 X-14.544 Y-23.769 F300.000
G1 X-11.594 Y-25.444 F300.000
G1 X-9.200 Y-26.531 F300.000
G1 X-8.137 Y-26.913 F300.000
G1 X-7.050 Y-27.231 F300.000
G1 X-6.312 Y-27.413 F300.000
G1 X-4.081 Y-27.800 F300.000
G1 X-3.344 Y-27.950 F300.000
G1 X-2.219 Y-28.087 F300.000
G1 X-0.344 Y-28.250 F300.000
G1 X1.500 Y-28.331 F300.000
G1 X2.606 Y-28.275 F300.000
G1 X3.712 Y-28.150 F300.000
G1 X4.450 Y-28.019 F300.000
G1 X4.819 Y-27.969 F300.000
G1 X5.925 Y-27.775 F300.000
G1 X7.013 Y-27.519 F300.000
G1 X8.438 Y-27.100 F300.000
G1 X9.494 Y-26.725 F300.000
G1 X9.850 Y-26.613 F300.000
G1 X10.550 Y-26.356 F300.000
G1 X11.581 Y-25.925 F300.000
G1 X12.594 Y-25.450 F300.000
G1 X13.912 Y-24.744 F300.000
G1 X14.875 Y-24.163 F300.000
G1 X16.444 Y-23.150 F300.000
G1 X17.356 Y-22.494 F300.000
G1 X17.650 Y-22.262 F300.000
G1 X18.212 Y-21.762 F300.000
G1 X18.506 Y-21.531 F300.000
G1 X19.613 Y-20.519 F300.000
G1 X20.387 Y-19.706 F300.000
G1 X20.875 Y-19.137 F300.000
G1 X21.131 Y-18.863 F300.000
G1 X22.113 Y-17.731 F300.000
G1 X22.788 Y-16.831 F300.000
G1 X23.406 Y-15.887 F300.000
G1 X23.600 Y-15.562 F300.000
G1 X23.819 Y-15.256 F300.000
G1 X24.819 Y-13.669 F300.000
G1 X25.325 Y-12.662 F300.000
G1 X25.619 Y-11.969 F300.000
G1 X25.788 Y-11.631 F300.000
G1 X26.531 Y-9.906 F300.000
G1 X26.906 Y-8.838 F300.000
G1 X27.219 Y-7.750 F300.000
G1 X27.306 Y-7.381 F300.000
G1 X27.413 Y-7.019 F300.000
G1 X28.019 Y-4.438 F300.000
G1 X28.188 Y-3.312 F300.000
G1 X28.506 Y0.056 F300.000
G1 X28.600 Y1.531 F300.000
G1 X28.600 Y2.638 F300.000
G1 X28.581 Y3.006 F300.000
G1 X28.381 Y4.481 F300.000
G1 X28.087 Y5.944 F300.000
G1 X27.663 Y7.756 F300.000
G1 X27.325 Y8.825 F300.000
G1 X27.056 Y9.525 F300.000
G1 X26.938 Y9.881 F300.000
G1 X26.256 Y11.619 F300.000
G1 X25.775 Y12.631 F300.000
G1 X25.231 Y13.619 F300.000
G1 X25.038 Y13.938 F300.000
G1 X24.119 Y15.569 F300.000
G1 X23.481 Y16.494 F300.000
G1 X21.869 Y18.562 F300.000
G1 X21.119 Y19.400 F300.000
G1 X19.281 Y21.275 F300.000
G1 X17.262 Y22.962 F300.000
G1 X16.069 Y23.869 F300.000
G1 X15.125 Y24.481 F300.000
G1 X14.475 Y24.856 F300.000
G1 X14.156 Y25.056 F300.000
G1 X13.500 Y25.425 F300.000
G1 X12.481 Y25.913 F300.000
G1 X11.781 Y26.200 F300.000
G1 X11.444 Y26.363 F300.000
G1 X9.356 Y27.231 F300.000
G1 X8.287 Y27.587 F300.000
G1 X6.112 Y28.188 F300.000
G1 X5.375 Y28.363 F300.000
G1 X3.513 Y28.675 F300.000
G1 X2.388 Y28.831 F300.000
G1 X0.887 Y28.931 F300.000
G1 X-1.337 Y28.975 F300.000
G1 X-3.181 Y28.919 F300.000
G1 X-4.656 Y28.719 F300.000
G1 X-6.125 Y28.462 F300.000
G1 X-7.938 Y28.056 F300.000
G1 X-8.300 Y27.962 F300.000
G1 X-9.363 Y27.606 F300.000
G1 X-9.713 Y27.469 F300.000
G1 X-10.069 Y27.356 F300.000
G1 X-11.469 Y26.837 F300.000
G1 X-12.494 Y26.387 F300.000
G1 X-13.500 Y25.894 F300.000
G1 X-14.137 Y25.506 F300.000
G1 X-15.075 Y24.887 F300.000
G1 X-15.988 Y24.225 F300.000
G1 X-18.613 Y22.119 F300.000
G1 X-19.444 Y21.356 F300.000
G1 X-20.225 Y20.556 F300.000
G1 X-22.212 Y18.312 F300.000
G1 X-22.906 Y17.419 F300.000
G1 X-23.762 Y16.181 F300.000
G1 X-24.719 Y14.562 F300.000
G1 X-25.450 Y13.244 F300.000
G1 X-25.925 Y12.219 F300.000
G1 X-26.212 Y11.519 F300.000
G1 X-26.369 Y11.175 F300.000
G1 X-27.069 Y9.425 F300.000
G1 X-27.419 Y8.350 F300.000
G1 X-27.619 Y7.625 F300.000
G1 X-27.788 Y6.888 F300.000
G1 X-27.887 Y6.525 F300.000
G1 X-28.219 Y5.050 F300.000
G1 X-28.406 Y3.931 F300.000
G1 X-28.794 Y0.931 F300.000
G1 X-28.869 Y0.181 F300.000
G1 X-28.938 Y-2.031 F300.000
G1 X-28.875 Y-3.138 F300.000
G1 X-28.794 Y-3.875 F300.000
G1 X-28.606 Y-4.975 F300.000
G1 X-28.438 Y-5.700 F300.000
G1 X-28.137 Y-6.781 F300.000
G1 X-27.800 Y-7.850 F300.000
G1 X-27.425 Y-9.294 F300.000
G1 X-27.081 Y-10.363 F300.000
G1 X-26.688 Y-11.412 F300.000
G1 X-26.544 Y-11.756 F300.000
G1 X-25.856 Y-13.094 F300.000
G1 X-24.175 Y-16.019 F300.000
G1 X-23.137 Y-17.575 F300.000
G1 X-22.006 Y-19.069 F300.000
G1 X-21.031 Y-20.206 F300.000
G1 X-19.994 Y-21.294 F300.000
G1 X-18.625 Y-22.569 F300.000
G1 X-17.462 Y-23.525 F300.000
G1 X-15.912 Y-24.575 F300.000
G1 X-14.312 Y-25.562 F300.000
G1 X-12.344 Y-26.656 F300.000
G1 X-11.669 Y-27.000 F300.000
G1 X-9.938 Y-27.744 F300.000
G1 X-8.887 Y-28.163 F300.000
G1 X-7.806 Y-28.500 F300.000
G1 X-6.700 Y-28.762 F300.000
G1 X-5.956 Y-28.894 F300.000
G1 X-5.588 Y-28.975 F300.000
G1 X-5.213 Y-29.038 F300.000
G1 X-4.844 Y-29.125 F300.000
G1 X-4.106 Y-29.269 F300.000
G1 X-2.981 Y-29.438 F300.000
G1 X-1.856 Y-29.550 F300.000
G1 X1.119 Y-29.719 F300.000
G1 X2.225 Y-29.712 F300.000
G1 X2.962 Y-29.675 F300.000
G1 X4.438 Y-29.481 F300.000
G1 X6.269 Y-29.137 F300.000
G1 X8.081 Y-28.694 F300.000
G1 X9.506 Y-28.269 F300.000
G1 X9.863 Y-28.150 F300.000
G1 X11.938 Y-27.319 F300.000
G1 X13.631 Y-26.531 F300.000
G1 X13.963 Y-26.363 F300.000
G1 X15.256 Y-25.606 F300.000
G1 X16.512 Y-24.800 F300.000
G1 X18.331 Y-23.488 F300.000
G1 X18.919 Y-23.025 F300.000
G1 X19.750 Y-22.269 F300.000
G1 X20.038 Y-22.031 F300.000
G1 X20.587 Y-21.531 F300.000
G1 X21.369 Y-20.725 F300.000
G1 X21.869 Y-20.163 F300.000
G1 X22.131 Y-19.894 F300.000
G1 X22.631 Y-19.331 F300.000
G1 X23.337 Y-18.450 F300.000
G1 X23.994 Y-17.538 F300.000
G1 X25.244 Y-15.669 F300.000
G1 X25.644 Y-15.031 F300.000
G1 X26.375 Y-13.719 F300.000
G1 X27.019 Y-12.356 F300.000
G1 X27.450 Y-11.312 F300.000
G1 X28.244 Y-9.188 F300.000
G1 X28.569 Y-8.106 F300.000
G1 X29.350 Y-4.806 F300.000
G1 X29.538 Y-3.688 F300.000
G1 X30.000 Y0.794 F300.000
G1 X30.038 Y1.900 F300.000
G1 X30.038 Y2.269 F300.000
G1 X29.988 Y3.006 F300.000
G1 X29.775 Y4.481 F300.000
G1 X29.381 Y6.694 F300.000
G1 X29.125 Y7.781 F300.000
G1 X28.681 Y9.206 F300.000
G1 X27.637 Y12.006 F300.000
G1 X27.163 Y13.019 F300.000
G1 X26.631 Y14.006 F300.000
G1 X26.244 Y14.644 F300.000
G1 X26.081 Y14.981 F300.000
G1 X25.725 Y15.637 F300.000
G1 X25.137 Y16.594 F300.000
G1 X24.931 Y16.906 F300.000
G1 X24.262 Y17.812 F300.000
G1 X23.550 Y18.694 F300.000
G1 X23.094 Y19.288 F300.000
G1 X22.094 Y20.406 F300.000
G1 X21.062 Y21.475 F300.000
G1 X19.706 Y22.769 F300.000
G1 X18.863 Y23.512 F300.000
G1 X17.969 Y24.200 F300.000
G1 X17.350 Y24.625 F300.000
G1 X17.056 Y24.863 F300.000
G1 X16.450 Y25.306 F300.000
G1 X15.500 Y25.919 F300.000
G1 X14.519 Y26.481 F300.000
G1 X13.512 Y26.988 F300.000
G1 X10.419 Y28.356 F300.000
G1 X9.356 Y28.738 F300.000
G1 X7.912 Y29.169 F300.000
G1 X7.175 Y29.350 F300.000
G1 X6.088 Y29.644 F300.000
G1 X4.981 Y29.875 F300.000
G1 X3.481 Y30.106 F300.000
G1 X2.356 Y30.219 F300.000
G1 X1.606 Y30.262 F300.000
G1 X0.481 Y30.369 F300.000
G1 X-2.106 Y30.400 F300.000
G1 X-2.475 Y30.394 F300.000
G1 X-3.581 Y30.300 F300.000
G1 X-4.688 Y30.131 F300.000
G1 X-5.056 Y30.087 F300.000
G1 X-6.531 Y29.844 F300.000
G1 X-7.619 Y29.606 F300.000
G1 X-9.056 Y29.212 F300.000
G1 X-10.113 Y28.856 F300.000
G1 X-12.900 Y27.781 F300.000
G1 X-13.906 Y27.294 F300.000
G1 X-14.875 Y26.744 F300.000
G1 X-15.812 Y26.125 F300.000
G1 X-16.712 Y25.450 F300.000
G1 X-17.288 Y24.969 F300.000
G1 X-17.587 Y24.744 F300.000
G1 X-19.894 Y22.825 F300.000
G1 X-20.706 Y22.050 F300.000
G1 X-21.488 Y21.238 F300.000
G1 X-22.994 Y19.569 F300.000
G1 X-23.700 Y18.694 F300.000
G1 X-24.581 Y17.481 F300.000
G1 X-25.400 Y16.219 F300.000
G1 X-26.144 Y14.906 F300.000
G1 X-26.812 Y13.556 F300.000
G1 X-28.038 Y10.812 F300.000
G1 X-28.438 Y9.756 F300.000
G1 X-28.894 Y8.319 F300.000
G1 X-29.262 Y6.856 F300.000
G1 X-29.488 Y5.750 F300.000
G1 X-30.188 Y1.256 F300.000
G1 X-30.356 Y-0.975 F300.000
G1 X-30.356 Y-2.081 F300.000
G1 X-30.281 Y-3.188 F300.000
G1 X-30.131 Y-4.294 F300.000
G1 X-29.913 Y-5.388 F300.000
G1 X-29.462 Y-7.200 F300.000
G1 X-29.256 Y-7.912 F300.000
G1 X-28.975 Y-9.000 F300.000
G1 X-28.312 Y-11.137 F300.000
G1 X-28.188 Y-11.488 F300.000
G1 X-27.738 Y-12.512 F300.000
G1 X-26.869 Y-14.156 F300.000
G1 X-25.925 Y-15.769 F300.000
G1 X-25.325 Y-16.719 F300.000
G1 X-24.750 Y-17.681 F300.000
G1 X-23.925 Y-18.925 F300.000
G1 X-22.994 Y-20.094 F300.000
G1 X-21.762 Y-21.500 F300.000
G1 X-20.725 Y-22.581 F300.000
G1 X-20.456 Y-22.844 F300.000
G1 X-19.594 Y-23.569 F300.000
G1 X-19.319 Y-23.825 F300.000
G1 X-18.744 Y-24.312 F300.000
G1 X-17.837 Y-24.981 F300.000
G1 X-15.944 Y-26.212 F300.000
G1 X-13.688 Y-27.550 F300.000
G1 X-13.025 Y-27.913 F300.000
G1 X-10.287 Y-29.150 F300.000
G1 X-9.938 Y-29.294 F300.000
G1 X-8.869 Y-29.663 F300.000
G1 X-7.781 Y-29.969 F300.000
G1 X-7.044 Y-30.137 F300.000
G1 X-6.300 Y-30.269 F300.000
G1 X-5.931 Y-30.356 F300.000
G1 X-3.719 Y-30.775 F300.000
G1 X-2.969 Y-30.881 F300.000
G1 X-1.094 Y-31.050 F300.000
G1 X0.025 Y-31.113 F300.000
G1 X1.869 Y-31.119 F300.000
G1 X3.344 Y-31.044 F300.000
G1 X4.081 Y-30.975 F300.000
G1 X5.556 Y-30.731 F300.000
G1 X8.456 Y-30.094 F300.000
G1 X8.819 Y-30.000 F300.000
G1 X10.238 Y-29.525 F300.000
G1 X11.631 Y-28.994 F300.000
G1 X13.006 Y-28.406 F300.000
G1 X14.681 Y-27.587 F300.000
G1 X16.906 Y-26.219 F300.000
G1 X18.750 Y-24.938 F300.000
G1 X19.644 Y-24.256 F300.000
G1 X21.331 Y-22.775 F300.000
G1 X22.137 Y-22.000 F300.000
G1 X22.913 Y-21.188 F300.000
G1 X23.887 Y-20.050 F300.000
G1 X24.575 Y-19.156 F300.000
G1 X26.275 Y-16.669 F300.000
G1 X27.069 Y-15.387 F300.000
G1 X27.419 Y-14.725 F300.000
G1 X27.738 Y-14.044 F300.000
G1 X27.919 Y-13.713 F300.000
G1 X28.244 Y-13.037 F300.000
G1 X28.694 Y-12.006 F300.000
G1 X29.225 Y-10.594 F300.000
G1 X30.219 Y-7.350 F300.000
G1 X30.656 Y-5.513 F300.000
G1 X30.863 Y-4.400 F300.000
G1 X31.012 Y-3.275 F300.000
G1 X31.144 Y-1.775 F300.000
G1 X31.363 Y0.463 F300.000
G1 X31.438 Y1.569 F300.000
G1 X31.425 Y2.675 F300.000
G1 X31.337 Y3.781 F300.000
G1 X31.244 Y4.519 F300.000
G1 X30.975 Y5.987 F300.000
G1 X30.381 Y8.525 F300.000
G1 X30.150 Y9.238 F300.000
G1 X30.050 Y9.594 F300.000
G1 X29.306 Y11.706 F300.000
G1 X29.169 Y12.056 F300.000
G1 X28.694 Y13.069 F300.000
G1 X27.331 Y15.731 F300.000
G1 X26.750 Y16.688 F300.000
G1 X26.113 Y17.619 F300.000
G1 X25.887 Y17.919 F300.000
G1 X25.688 Y18.231 F300.000
G1 X25.256 Y18.844 F300.000
G1 X24.562 Y19.725 F300.000
G1 X23.825 Y20.581 F300.000
G1 X23.050 Y21.400 F300.000
G1 X22.806 Y21.688 F300.000
G1 X22.300 Y22.238 F300.000
G1 X21.506 Y23.031 F300.000
G1 X20.119 Y24.300 F300.000
G1 X19.544 Y24.781 F300.000
G1 X18.938 Y25.225 F300.000
G1 X18.644 Y25.462 F300.000
G1 X17.119 Y26.562 F300.000
G1 X16.156 Y27.150 F300.000
G1 X14.181 Y28.244 F300.000
G1 X11.438 Y29.494 F300.000
G1 X10.375 Y29.894 F300.000
G1 X9.662 Y30.131 F300.000
G1 X8.938 Y30.337 F300.000
G1 X8.581 Y30.456 F300.000
G1 X6.769 Y30.962 F300.000
G1 X5.294 Y31.256 F300.000
G1 X2.669 Y31.650 F300.000
G1 X2.294 Y31.694 F300.000
G1 X-1.431 Y31.875 F300.000
G1 X-2.538 Y31.831 F300.000
G1 X-3.644 Y31.706 F300.000
G1 X-5.856 Y31.400 F300.000
G1 X-6.963 Y31.219 F300.000
G1 X-8.412 Y30.900 F300.000
G1 X-9.831 Y30.444 F300.000
G1 X-12.975 Y29.269 F300.000
G1 X-14.344 Y28.669 F300.000
G1 X-15.325 Y28.125 F300.000
G1 X-15.950 Y27.719 F300.000
G1 X-16.863 Y27.062 F300.000
G1 X-18.637 Y25.694 F300.000
G1 X-20.069 Y24.494 F300.000
G1 X-21.175 Y23.481 F300.000
G1 X-22.500 Y22.156 F300.000
G1 X-23.756 Y20.762 F300.000
G1 X-25.175 Y19.006 F300.000
G1 X-26.062 Y17.794 F300.000
G1 X-26.462 Y17.156 F300.000
G1 X-27.025 Y16.175 F300.000
G1 X-27.887 Y14.506 F300.000
G1 X-28.825 Y12.456 F300.000
G1 X-29.244 Y11.406 F300.000
G1 X-29.688 Y10.363 F300.000
G1 X-30.087 Y9.312 F300.000
G1 X-30.400 Y8.225 F300.000
G1 X-30.650 Y7.119 F300.000
G1 X-30.919 Y5.638 F300.000
G1 X-31.031 Y4.888 F300.000
G1 X-31.494 Y2.288 F300.000
G1 X-31.600 Y1.163 F300.000
G1 X-31.650 Y0.787 F300.000
G1 X-31.788 Y-0.700 F300.000
G1 X-31.800 Y-1.806 F300.000
G1 X-31.731 Y-2.913 F300.000
G1 X-31.581 Y-4.019 F300.000
G1 X-31.238 Y-5.844 F300.000
G1 X-30.887 Y-7.294 F300.000
G1 X-30.325 Y-9.463 F300.000
G1 X-30.006 Y-10.531 F300.000
G1 X-29.531 Y-11.950 F300.000
G1 X-29.231 Y-12.637 F300.000
G1 X-28.544 Y-13.975 F300.000
G1 X-27.475 Y-15.938 F300.000
G1 X-26.500 Y-17.538 F300.000
G1 X-26.087 Y-18.163 F300.000
G1 X-25.494 Y-19.113 F300.000
G1 X-24.637 Y-20.337 F300.000
G1 X-22.700 Y-22.619 F300.000
G1 X-21.919 Y-23.431 F300.000
G1 X-20.819 Y-24.444 F300.000
G1 X-19.650 Y-25.387 F300.000
G1 X-18.113 Y-26.469 F300.000
G1 X-15.275 Y-28.312 F300.000
G1 X-12.600 Y-29.706 F300.000
G1 X-12.262 Y-29.869 F300.000
G1 X-10.169 Y-30.719 F300.000
G1 X-9.456 Y-30.956 F300.000
G1 X-7.638 Y-31.444 F300.000
G1 X-5.056 Y-32.000 F300.000
G1 X-3.950 Y-32.200 F300.000
G1 X-3.200 Y-32.269 F300.000
G1 X-2.825 Y-32.325 F300.000
G1 X-0.575 Y-32.531 F300.000
G1 X0.537 Y-32.550 F300.000
G1 X1.275 Y-32.525 F300.000
G1 X1.644 Y-32.538 F300.000
G1 X2.381 Y-32.531 F300.000
G1 X3.487 Y-32.469 F300.000
G1 X4.963 Y-32.300 F300.000
G1 X6.069 Y-32.112 F300.000
G1 X7.156 Y-31.869 F300.000
G1 X9.331 Y-31.325 F300.000
G1 X10.400 Y-30.994 F300.000
G1 X11.450 Y-30.613 F300.000
G1 X13.162 Y-29.881 F300.000
G1 X14.525 Y-29.269 F300.000
G1 X15.519 Y-28.750 F300.000
G1 X16.488 Y-28.181 F300.000
G1 X19.581 Y-26.094 F300.000
G1 X19.887 Y-25.875 F300.000
G1 X21.906 Y-24.194 F300.000
G1 X22.188 Y-23.944 F300.000
G1 X23.775 Y-22.356 F300.000
G1 X24.519 Y-21.512 F300.000
G1 X25.225 Y-20.637 F300.000
G1 X27.000 Y-18.212 F300.000
G1 X27.600 Y-17.262 F300.000
G1 X29.069 Y-14.631 F300.000
G1 X29.562 Y-13.619 F300.000
G1 X30.144 Y-12.231 F300.000
G1 X30.519 Y-11.162 F300.000
G1 X30.738 Y-10.438 F300.000
G1 X30.869 Y-10.081 F300.000
G1 X31.344 Y-8.656 F300.000
G1 X31.812 Y-6.831 F300.000
G1 X32.019 Y-5.719 F300.000
G1 X32.100 Y-5.350 F300.000
G1 X32.362 Y-3.869 F300.000
G1 X32.612 Y-1.244 F300.000
G1 X32.688 Y-0.119 F300.000
G1 X32.800 Y0.988 F300.000
G1 X32.844 Y2.094 F300.000
G1 X32.844 Y2.462 F300.000
G1 X32.775 Y3.569 F300.000
G1 X32.675 Y4.306 F300.000
G1 X32.606 Y4.675 F300.000
G1 X32.562 Y5.044 F300.000
G1 X32.138 Y7.237 F300.000
G1 X31.706 Y9.050 F300.000
G1 X31.250 Y10.469 F300.000
G1 X30.469 Y12.569 F300.000
G1 X30.031 Y13.600 F300.000
G1 X29.025 Y15.600 F300.000
G1 X28.469 Y16.575 F300.000
G1 X27.863 Y17.525 F300.000
G1 X27.438 Y18.137 F300.000
G1 X26.837 Y19.081 F300.000
G1 X26.181 Y19.988 F300.000
G1 X25.238 Y21.150 F300.000
G1 X24.231 Y22.256 F300.000
G1 X23.700 Y22.788 F300.000
G1 X22.944 Y23.619 F300.000
G1 X22.144 Y24.413 F300.000
G1 X21.312 Y25.175 F300.000
G1 X19.850 Y26.350 F300.000
G1 X18.650 Y27.250 F300.000
G1 X17.044 Y28.244 F300.000
G1 X15.081 Y29.356 F300.000
G1 X14.750 Y29.531 F300.000
G1 X14.062 Y29.850 F300.000
G1 X13.725 Y30.025 F300.000
G1 X12.350 Y30.650 F300.000
G1 X11.300 Y31.062 F300.000
G1 X8.062 Y32.106 F300.000
G1 X6.594 Y32.462 F300.000
G1 X5.844 Y32.581 F300.000
G1 X5.475 Y32.663 F300.000
G1 X2.856 Y33.062 F300.000
G1 X1.731 Y33.156 F300.000
G1 X0.981 Y33.181 F300.000
G1 X0.606 Y33.212 F300.000
G1 X-1.244 Y33.306 F300.000
G1 X-2.350 Y33.288 F300.000
G1 X-3.456 Y33.200 F300.000
G1 X-4.562 Y33.050 F300.000
G1 X-4.931 Y32.981 F300.000
G1 X-5.300 Y32.938 F300.000
G1 X-7.144 Y32.656 F300.000
G1 X-8.231 Y32.419 F300.000
G1 X-9.669 Y32.025 F300.000
G1 X-10.731 Y31.669 F300.000
G1 X-14.531 Y30.125 F300.000
G1 X-15.537 Y29.631 F300.000
G1 X-16.494 Y29.050 F300.000
G1 X-17.706 Y28.175 F300.000
G1 X-18.294 Y27.712 F300.000
G1 X-19.200 Y27.044 F300.000
G1 X-21.769 Y24.856 F300.000
G1 X-22.581 Y24.075 F300.000
G1 X-23.363 Y23.262 F300.000
G1 X-23.863 Y22.700 F300.000
G1 X-24.125 Y22.431 F300.000
G1 X-25.131 Y21.325 F300.000
G1 X-26.312 Y19.875 F300.000
G1 X-27.188 Y18.650 F300.000
G1 X-27.394 Y18.337 F300.000
G1 X-28.137 Y17.031 F300.000
G1 X-29.331 Y14.688 F300.000
G1 X-30.106 Y12.969 F300.000
G1 X-31.069 Y10.506 F300.000
G1 X-31.781 Y8.356 F300.000
G1 X-31.887 Y7.994 F300.000
G1 X-32.144 Y6.888 F300.000
G1 X-32.331 Y5.769 F300.000
G1 X-32.406 Y5.400 F300.000
G1 X-33.062 Y0.900 F300.000
G1 X-33.144 Y-0.219 F300.000
G1 X-33.169 Y-1.325 F300.000
G1 X-33.131 Y-2.431 F300.000
G1 X-33.038 Y-3.538 F300.000
G1 X-32.888 Y-4.644 F300.000
G1 X-32.681 Y-5.744 F300.000
G1 X-32.419 Y-6.831 F300.000
G1 X-32.344 Y-7.194 F300.000
G1 X-31.644 Y-10.094 F300.000
G1 X-31.331 Y-11.162 F300.000
G1 X-31.212 Y-11.519 F300.000
G1 X-30.938 Y-12.219 F300.000
G1 X-30.300 Y-13.575 F300.000
G1 X-29.775 Y-14.569 F300.000
G1 X-29.275 Y-15.575 F300.000
G1 X-28.175 Y-17.531 F300.000
G1 X-26.975 Y-19.425 F300.000
G1 X-26.113 Y-20.650 F300.000
G1 X-24.738 Y-22.431 F300.000
G1 X-23.762 Y-23.569 F300.000
G1 X-22.956 Y-24.350 F300.000
G1 X-22.700 Y-24.625 F300.000
G1 X-22.163 Y-25.150 F300.000
G1 X-21.306 Y-25.875 F300.000
G1 X-19.181 Y-27.438 F300.000
G1 X-16.975 Y-28.881 F300.000
G1 X-15.031 Y-30.025 F300.000
G1 X-13.706 Y-30.738 F300.000
G1 X-13.019 Y-31.044 F300.000
G1 X-12.681 Y-31.212 F300.000
G1 X-10.950 Y-31.950 F300.000
G1 X-9.875 Y-32.306 F300.000
G1 X-8.787 Y-32.606 F300.000
G1 X-5.475 Y-33.369 F300.000
G1 X-4.356 Y-33.550 F300.000
G1 X-3.981 Y-33.594 F300.000
G1 X-3.606 Y-33.656 F300.000
G1 X-1.356 Y-33.906 F300.000
G1 X-0.981 Y-33.938 F300.000
G1 X0.138 Y-33.956 F300.000
G1 X0.506 Y-33.981 F300.000
G1 X1.981 Y-33.981 F300.000
G1 X3.456 Y-33.888 F300.000
G1 X4.562 Y-33.756 F300.000
G1 X6.406 Y-33.481 F300.000
G1 X7.494 Y-33.250 F300.000
G1 X8.219 Y-33.062 F300.000
G1 X8.588 Y-32.994 F300.000
G1 X9.312 Y-32.825 F300.000
G1 X10.381 Y-32.513 F300.000
G1 X11.438 Y-32.150 F300.000
G1 X12.819 Y-31.581 F300.000
G1 X15.531 Y-30.350 F300.000
G1 X16.194 Y-30.006 F300.000
G1 X17.144 Y-29.406 F300.000
G1 X17.469 Y-29.219 F300.000
G1 X19.038 Y-28.219 F300.000
G1 X20.256 Y-27.344 F300.000
G1 X22.325 Y-25.738 F300.000
G1 X23.156 Y-24.981 F300.000
G1 X23.681 Y-24.444 F300.000
G1 X23.956 Y-24.188 F300.000
G1 X25.012 Y-23.125 F300.000
G1 X25.750 Y-22.269 F300.000
G1 X26.212 Y-21.675 F300.000
G1 X26.431 Y-21.369 F300.000
G1 X27.794 Y-19.575 F300.000
G1 X28.406 Y-18.631 F300.000
G1 X28.981 Y-17.656 F300.000
G1 X29.163 Y-17.325 F300.000
G1 X29.744 Y-16.356 F300.000
G1 X30.288 Y-15.363 F300.000
G1 X30.625 Y-14.688 F300.000
G1 X31.350 Y-12.950 F300.000
G1 X31.981 Y-11.181 F300.000
G1 X32.206 Y-10.463 F300.000
G1 X32.456 Y-9.750 F300.000
G1 X32.981 Y-7.944 F300.000
G1 X33.169 Y-7.219 F300.000
G1 X33.769 Y-3.869 F300.000
G1 X34.056 Y-0.494 F300.000
G1 X34.169 Y0.619 F300.000
G1 X34.244 Y1.725 F300.000
G1 X34.244 Y2.831 F300.000
G1 X34.169 Y3.938 F300.000
G1 X34.019 Y5.044 F300.000
G1 X33.737 Y6.506 F300.000
G1 X33.181 Y9.044 F300.000
G1 X32.281 Y11.887 F300.000
G1 X32.031 Y12.588 F300.000
G1 X31.587 Y13.619 F300.000
G1 X30.094 Y16.625 F300.000
G1 X29.512 Y17.587 F300.000
G1 X29.300 Y17.900 F300.000
G1 X29.113 Y18.225 F300.000
G1 X28.087 Y19.794 F300.000
G1 X27.425 Y20.700 F300.000
G1 X26.725 Y21.575 F300.000
G1 X23.950 Y24.625 F300.000
G1 X23.150 Y25.419 F300.000
G1 X22.038 Y26.425 F300.000
G1 X20.863 Y27.369 F300.000
G1 X19.637 Y28.244 F300.000
G1 X16.781 Y30.044 F300.000
G1 X15.131 Y30.944 F300.000
G1 X13.775 Y31.594 F300.000
G1 X12.037 Y32.312 F300.000
G1 X10.613 Y32.812 F300.000
G1 X9.169 Y33.244 F300.000
G1 X8.438 Y33.431 F300.000
G1 X7.350 Y33.744 F300.000
G1 X6.244 Y33.962 F300.000
G1 X5.869 Y34.019 F300.000
G1 X5.500 Y34.094 F300.000
G1 X2.875 Y34.487 F300.000
G1 X1.750 Y34.575 F300.000
G1 X1.000 Y34.600 F300.000
G1 X0.625 Y34.644 F300.000
G1 X-1.225 Y34.744 F300.000
G1 X-2.331 Y34.725 F300.000
G1 X-3.438 Y34.638 F300.000
G1 X-7.494 Y34.044 F300.000
G1 X-8.581 Y33.800 F300.000
G1 X-10.012 Y33.381 F300.000
G1 X-13.169 Y32.263 F300.000
G1 X-14.556 Y31.706 F300.000
G1 X-15.569 Y31.219 F300.000
G1 X-16.550 Y30.675 F300.000
G1 X-17.500 Y30.075 F300.000
G1 X-18.413 Y29.419 F300.000
G1 X-21.925 Y26.625 F300.000
G1 X-22.756 Y25.863 F300.000
G1 X-23.538 Y25.050 F300.000
G1 X-25.381 Y23.181 F300.000
G1 X-26.594 Y21.738 F300.000
G1 X-28.000 Y19.975 F300.000
G1 X-28.800 Y18.706 F300.000
G1 X-29.350 Y17.719 F300.000
G1 X-31.188 Y14.012 F300.000
G1 X-32.850 Y9.812 F300.000
G1 X-33.181 Y8.731 F300.000
G1 X-33.456 Y7.638 F300.000
G1 X-33.663 Y6.525 F300.000
G1 X-33.981 Y4.275 F300.000
G1 X-34.256 Y2.794 F300.000
G1 X-34.413 Y1.669 F300.000
G1 X-34.513 Y0.544 F300.000
G1 X-34.556 Y-0.569 F300.000
G1 X-34.562 Y-2.413 F300.000
G1 X-34.481 Y-3.519 F300.000
G1 X-34.331 Y-4.625 F300.000
G1 X-34.038 Y-6.088 F300.000
G1 X-33.506 Y-8.262 F300.000
G1 X-33.125 Y-10.075 F300.000
G1 X-32.700 Y-11.500 F300.000
G1 X-32.188 Y-12.900 F300.000
G1 X-31.875 Y-13.575 F300.000
G1 X-29.988 Y-17.231 F300.000
G1 X-29.425 Y-18.194 F300.000
G1 X-28.031 Y-20.413 F300.000
G1 X-27.387 Y-21.337 F300.000
G1 X-26.469 Y-22.525 F300.000
G1 X-25.281 Y-23.969 F300.000
G1 X-24.519 Y-24.788 F300.000
G1 X-23.188 Y-26.106 F300.000
G1 X-22.337 Y-26.850 F300.000
G1 X-21.150 Y-27.775 F300.000
G1 X-17.719 Y-30.081 F300.000
G1 X-16.444 Y-30.881 F300.000
G1 X-14.463 Y-31.950 F300.000
G1 X-13.444 Y-32.431 F300.000
G1 X-11.700 Y-33.163 F300.000
G1 X-10.631 Y-33.550 F300.000
G1 X-9.544 Y-33.875 F300.000
G1 X-6.244 Y-34.681 F300.000
G1 X-1.344 Y-35.294 F300.000
G1 X3.894 Y-35.244 F300.000
G1 X6.706 Y-34.819 F300.000
G1 X9.456 Y-34.256 F300.000
G1 X10.531 Y-33.944 F300.000
G1 X13.338 Y-32.925 F300.000
G1 X14.356 Y-32.456 F300.000
G1 X15.387 Y-32.013 F300.000
G1 X16.725 Y-31.337 F300.000
G1 X17.363 Y-30.938 F300.000
G1 X17.688 Y-30.750 F300.000
G1 X18.000 Y-30.544 F300.000
G1 X19.600 Y-29.581 F300.000
G1 X20.812 Y-28.712 F300.000
G1 X22.587 Y-27.331 F300.000
G1 X24.012 Y-26.113 F300.000
G1 X24.812 Y-25.319 F300.000
G1 X25.094 Y-25.069 F300.000
G1 X25.631 Y-24.550 F300.000
G1 X26.387 Y-23.712 F300.000
G1 X28.500 Y-21.069 F300.000
G1 X29.131 Y-20.137 F300.000
G1 X30.869 Y-17.225 F300.000
G1 X31.756 Y-15.569 F300.000
G1 X32.219 Y-14.537 F300.000
G1 X33.200 Y-12.094 F300.000
G1 X33.562 Y-11.025 F300.000
G1 X34.494 Y-7.763 F300.000
G1 X34.731 Y-6.656 F300.000
G1 X35.094 Y-4.412 F300.000
G1 X35.650 Y1.925 F300.000
G1 X35.656 Y3.031 F300.000
G1 X35.619 Y3.769 F300.000
G1 X35.525 Y4.506 F300.000
G1 X35.344 Y5.612 F300.000
G1 X35.194 Y6.338 F300.000
G1 X34.869 Y8.181 F300.000
G1 X34.600 Y9.269 F300.000
G1 X33.350 Y12.887 F300.000
G1 X32.156 Y15.162 F300.000
G1 X28.206 Y21.744 F300.000
G1 X25.406 Y25.087 F300.000
G1 X24.644 Y25.919 F300.000
G1 X23.850 Y26.719 F300.000
G1 X23.575 Y26.975 F300.000
G1 X22.719 Y27.706 F300.000
G1 X21.238 Y28.850 F300.000
G1 X20.000 Y29.700 F300.000
G1 X18.419 Y30.719 F300.000
G1 X17.444 Y31.294 F300.000
G1 X16.450 Y31.831 F300.000
G1 X15.438 Y32.331 F300.000
G1 X14.750 Y32.638 F300.000
G1 X13.731 Y33.125 F300.000
G1 X12.350 Y33.719 F300.000
G1 X12.000 Y33.856 F300.000
G1 X11.275 Y34.075 F300.000
G1 X10.206 Y34.438 F300.000
G1 X9.119 Y34.744 F300.000
G1 X8.012 Y35.000 F300.000
G1 X6.912 Y35.275 F300.000
G1 X5.431 Y35.550 F300.000
G1 X3.931 Y35.744 F300.000
G1 X2.806 Y35.906 F300.000
G1 X1.681 Y35.987 F300.000
G1 X0.556 Y36.106 F300.000
G1 X-0.556 Y36.150 F300.000
G1 X-1.663 Y36.144 F300.000
G1 X-3.506 Y36.062 F300.000
G1 X-6.088 Y35.712 F300.000
G1 X-7.919 Y35.362 F300.000
G1 X-9.731 Y34.931 F300.000
G1 X-11.875 Y34.294 F300.000
G1 X-12.931 Y33.931 F300.000
G1 X-15.338 Y32.913 F300.000
G1 X-16.337 Y32.413 F300.000
G1 X-17.312 Y31.863 F300.000
G1 X-18.575 Y31.056 F300.000
G1 X-19.488 Y30.400 F300.000
G1 X-22.413 Y28.062 F300.000
G1 X-23.262 Y27.325 F300.000
G1 X-24.625 Y26.031 F300.000
G1 X-25.775 Y24.794 F300.000
G1 X-28.675 Y21.137 F300.000
G1 X-31.219 Y16.775 F300.000
G1 X-32.438 Y14.431 F300.000
G1 X-34.250 Y9.831 F300.000
G1 X-34.594 Y8.750 F300.000
G1 X-34.856 Y7.650 F300.000
G1 X-35.062 Y6.537 F300.000
G1 X-35.625 Y3.188 F300.000
G1 X-35.700 Y2.819 F300.000
G1 X-35.850 Y1.694 F300.000
G1 X-35.888 Y1.319 F300.000
G1 X-35.913 Y0.569 F300.000
G1 X-35.944 Y0.194 F300.000
G1 X-35.975 Y-2.019 F300.000
G1 X-35.925 Y-3.494 F300.000
G1 X-35.775 Y-4.600 F300.000
G1 X-35.556 Y-5.694 F300.000
G1 X-34.594 Y-10.044 F300.000
G1 X-34.300 Y-11.119 F300.000
G1 X-33.956 Y-12.181 F300.000
G1 X-33.413 Y-13.569 F300.000
G1 X-32.944 Y-14.588 F300.000
G1 X-31.381 Y-17.575 F300.000
G1 X-29.906 Y-20.175 F300.000
G1 X-28.212 Y-22.637 F300.000
G1 X-26.800 Y-24.381 F300.000
G1 X-25.794 Y-25.488 F300.000
G1 X-24.200 Y-27.075 F300.000
G1 X-23.356 Y-27.819 F300.000
G1 X-22.481 Y-28.525 F300.000
G1 X-20.637 Y-29.819 F300.000
G1 X-17.512 Y-31.887 F300.000
G1 X-16.525 Y-32.438 F300.000
G1 X-15.556 Y-33.006 F300.000
G1 X-14.544 Y-33.500 F300.000
G1 X-11.756 Y-34.656 F300.000
G1 X-9.100 Y-35.362 F300.000
G1 X-8.500 Y-35.438 F300.000
G1 X9.656 Y-35.413 F300.000
G1 X10.500 Y-35.281 F300.000
G1 X11.812 Y-34.900 F300.000
G1 X12.656 Y-34.612 F300.000
G1 X13.369 Y-34.388 F300.000
G1 X14.412 Y-33.994 F300.000
G1 X15.438 Y-33.544 F300.000
G1 X16.444 Y-33.038 F300.000
G1 X19.387 Y-31.406 F300.000
G1 X20.025 Y-31.012 F300.000
G1 X20.938 Y-30.350 F300.000
G1 X21.250 Y-30.144 F300.000
G1 X23.056 Y-28.812 F300.000
G1 X23.919 Y-28.087 F300.000
G1 X24.469 Y-27.575 F300.000
G1 X24.756 Y-27.331 F300.000
G1 X25.869 Y-26.325 F300.000
G1 X26.663 Y-25.525 F300.000
G1 X27.644 Y-24.387 F300.000
G1 X27.875 Y-24.094 F300.000
G1 X28.844 Y-22.956 F300.000
G1 X29.531 Y-22.069 F300.000
G1 X29.750 Y-21.762 F300.000
G1 X30.150 Y-21.125 F300.000
G1 X30.369 Y-20.819 F300.000
G1 X31.919 Y-18.238 F300.000
G1 X32.812 Y-16.581 F300.000
G1 X33.150 Y-15.906 F300.000
G1 X33.444 Y-15.213 F300.000
G1 X33.606 Y-14.875 F300.000
G1 X34.581 Y-12.425 F300.000
G1 X34.913 Y-11.344 F300.000
G1 X35.500 Y-9.550 F300.000
G1 X35.806 Y-8.463 F300.000
G1 X35.894 Y-8.094 F300.000
G1 X36.300 Y-5.862 F300.000
G1 X36.569 Y-3.612 F300.000
G1 X36.600 Y-3.237 F300.000
G1 X36.744 Y-2.112 F300.000
G1 X37.056 Y1.606 F300.000
G1 X37.087 Y2.712 F300.000
G1 X37.081 Y3.081 F300.000
G1 X36.994 Y4.188 F300.000
G1 X36.875 Y4.925 F300.000
G1 X36.831 Y5.294 F300.000
G1 X36.381 Y7.631 F300.000
G1 X36.175 Y8.194 F300.000
G1 X33.175 Y13.394 F300.000
G1 X33.175 Y13.394 F300.000
G1 X33.025 Y13.569 F300.000
G1 X32.769 Y13.731 F300.000
G0 X32.700 Y13.769
G0 X31.863 Y14.206
G0 X31.738 Y14.300
G0 X28.556 Y19.762
G0 X28.506 Y19.906
G0 X28.494 Y20.556
G1 X28.500 Y20.637 F300.000
G1 X28.519 Y21.250 F300.000
G1 X28.475 Y21.475 F300.000
G1 X28.419 Y21.625 F300.000
G1 X28.419 Y21.625 F300.000
G1 X25.419 Y26.700 F300.000
G1 X24.919 Y27.319 F300.000
G1 X23.525 Y28.619 F300.000
G1 X23.369 Y28.744 F300.000
G1 X23.113 Y29.019 F300.000
G1 X22.844 Y29.275 F300.000
G1 X21.975 Y29.994 F300.000
G1 X20.744 Y30.850 F300.000
G1 X20.137 Y31.294 F300.000
G1 X18.887 Y32.119 F300.000
G1 X18.225 Y32.481 F300.000
G1 X17.887 Y32.650 F300.000
G1 X17.225 Y33.013 F300.000
G1 X14.869 Y34.188 F300.000
G1 X13.494 Y34.806 F300.000
G1 X12.431 Y35.194 F300.000
G1 X12.069 Y35.306 F300.000
G1 X11.719 Y35.444 F300.000
G1 X10.294 Y35.919 F300.000
G1 X7.362 Y36.656 F300.000
G1 X6.256 Y36.869 F300.000
G1 X4.013 Y37.194 F300.000
G1 X1.012 Y37.494 F300.000
G1 X-0.106 Y37.538 F300.000
G1 X-3.056 Y37.519 F300.000
G1 X-4.531 Y37.362 F300.000
G1 X-6.744 Y37.044 F300.000
G1 X-8.575 Y36.694 F300.000
G1 X-10.025 Y36.344 F300.000
G1 X-11.812 Y35.812 F300.000
G1 X-13.569 Y35.188 F300.000
G1 X-15.294 Y34.469 F300.000
G1 X-16.969 Y33.650 F300.000
G1 X-18.281 Y32.931 F300.000
G1 X-19.212 Y32.306 F300.000
G1 X-20.119 Y31.644 F300.000
G1 X-22.781 Y29.575 F300.000
G1 X-23.069 Y29.331 F300.000
G1 X-24.837 Y27.581 F300.000
G1 X-25.406 Y26.863 F300.000
G1 X-28.488 Y21.525 F300.000
G1 X-28.488 Y21.525 F300.000
G1 X-28.562 Y21.300 F300.000
G1 X-28.587 Y21.150 F300.000
G1 X-28.562 Y21.019 F300.000
G0 X-28.531 Y20.981
G0 X-28.419 Y20.950
G0 X-28.281 Y20.950
G0 X24.637 Y26.394
G1 X24.869 Y26.419 F300.000
G1 X25.200 Y26.462 F300.000
G1 X25.269 Y26.488 F300.000
G1 X25.312 Y26.525 F300.000
G1 X25.363 Y26.644 F300.000
G1 X25.356 Y26.788 F300.000
G1 X25.269 Y27.081 F300.000
G1 X25.269 Y27.081 F300.000
G1 X23.419 Y30.163 F300.000
G1 X22.956 Y30.688 F300.000
G1 X21.606 Y31.756 F300.000
G1 X21.325 Y32.006 F300.000
G1 X20.744 Y32.475 F300.000
G1 X20.131 Y32.913 F300.000
G1 X18.844 Y33.694 F300.000
G1 X17.850 Y34.231 F300.000
G1 X15.512 Y35.444 F300.000
G1 X14.831 Y35.763 F300.000
G1 X14.131 Y36.031 F300.000
G1 X13.787 Y36.181 F300.000
G1 X11.656 Y36.944 F300.000
G1 X9.488 Y37.587 F300.000
G1 X7.287 Y38.112 F300.000
G1 X5.438 Y38.462 F300.000
G1 X5.062 Y38.519 F300.000
G1 X3.188 Y38.706 F300.000
G1 X2.812 Y38.763 F300.000
G1 X0.938 Y38.938 F300.000
G1 X-2.394 Y38.981 F300.000
G1 X-3.500 Y38.919 F300.000
G1 X-4.606 Y38.800 F300.000
G1 X-7.925 Y38.306 F300.000
G1 X-10.100 Y37.819 F300.000
G1 X-11.894 Y37.288 F300.000
G1 X-15.050 Y36.138 F300.000
G1 X-16.069 Y35.681 F300.000
G1 X-18.394 Y34.487 F300.000
G1 X-19.356 Y33.913 F300.000
G1 X-20.288 Y33.288 F300.000
G1 X-22.819 Y31.156 F300.000
G1 X-23.150 Y30.775 F300.000
G1 X-25.069 Y27.450 F300.000
G1 X-25.069 Y27.450 F300.000
G1 X-25.144 Y27.225 F300.000
G1 X-25.169 Y27.075 F300.000
G1 X-25.144 Y26.944 F300.000
G0 X-25.113 Y26.906
G0 X-25.000 Y26.869
G0 X-24.863 Y26.863
G0 X22.712 Y29.800
G1 X22.931 Y29.812 F300.000
G1 X23.250 Y29.844 F300.000
G1 X23.319 Y29.863 F300.000
G1 X23.363 Y29.900 F300.000
G1 X23.413 Y30.019 F300.000
G1 X23.406 Y30.163 F300.000
G1 X23.319 Y30.456 F300.000
G1 X23.319 Y30.456 F300.000
G1 X21.831 Y32.931 F300.000
G1 X21.500 Y33.312 F300.000
G1 X20.631 Y34.000 F300.000
G1 X20.131 Y34.337 F300.000
G1 X19.525 Y34.781 F300.000
G1 X18.900 Y35.200 F300.000
G1 X17.587 Y35.931 F300.000
G1 X15.900 Y36.763 F300.000
G1 X14.525 Y37.375 F300.000
G1 X12.769 Y38.056 F300.000
G1 X10.981 Y38.644 F300.000
G1 X9.162 Y39.138 F300.000
G1 X7.319 Y39.538 F300.000
G1 X5.456 Y39.844 F300.000
G1 X4.331 Y39.981 F300.000
G1 X3.212 Y40.163 F300.000
G1 X2.087 Y40.294 F300.000
G1 X1.712 Y40.325 F300.000
G1 X0.588 Y40.350 F300.000
G1 X0.212 Y40.375 F300.000
G1 X-2.369 Y40.431 F300.000
G1 X-3.475 Y40.369 F300.000
G1 X-6.794 Y39.913 F300.000
G1 X-9.006 Y39.519 F300.000
G1 X-10.456 Y39.212 F300.000
G1 X-12.950 Y38.456 F300.000
G1 X-14.719 Y37.850 F300.000
G1 X-15.744 Y37.400 F300.000
G1 X-18.406 Y36.044 F300.000
G1 X-19.869 Y35.200 F300.000
G1 X-20.762 Y34.562 F300.000
G1 X-21.250 Y34.062 F300.000
G1 X-22.869 Y31.262 F300.000
G1 X-22.869 Y31.262 F300.000
G1 X-22.944 Y31.038 F300.000
G1 X-22.969 Y30.887 F300.000
G1 X-22.944 Y30.756 F300.000
G0 X-22.913 Y30.712
G0 X-22.800 Y30.675
G0 X-22.663 Y30.669
G0 X21.163 Y32.544
G1 X21.363 Y32.556 F300.000
G1 X21.675 Y32.575 F300.000
G1 X21.744 Y32.600 F300.000
G1 X21.788 Y32.638 F300.000
G1 X21.837 Y32.750 F300.000
G1 X21.831 Y32.894 F300.000
G1 X21.744 Y33.188 F300.000
G1 X21.744 Y33.188 F300.000
G1 X20.575 Y35.163 F300.000
G1 X20.125 Y35.700 F300.000
G1 X18.519 Y36.850 F300.000
G1 X17.550 Y37.438 F300.000
G1 X16.550 Y37.950 F300.000
G1 X15.519 Y38.419 F300.000
G1 X15.169 Y38.562 F300.000
G1 X14.137 Y39.025 F300.000
G1 X12.719 Y39.531 F300.000
G1 X9.469 Y40.513 F300.000
G1 X8.363 Y40.763 F300.000
G1 X7.994 Y40.831 F300.000
G1 X7.625 Y40.919 F300.000
G1 X5.781 Y41.269 F300.000
G1 X4.656 Y41.406 F300.000
G1 X3.156 Y41.625 F300.000
G1 X2.031 Y41.725 F300.000
G1 X0.906 Y41.781 F300.000
G1 X0.156 Y41.794 F300.000
G1 X-0.950 Y41.850 F300.000
G1 X-2.425 Y41.869 F300.000
G1 X-3.531 Y41.794 F300.000
G1 X-5.375 Y41.550 F300.000
G1 X-6.481 Y41.425 F300.000
G1 X-8.694 Y41.044 F300.000
G1 X-10.506 Y40.638 F300.000
G1 X-12.662 Y40.038 F300.000
G1 X-13.731 Y39.694 F300.000
G1 X-15.825 Y38.906 F300.000
G1 X-16.512 Y38.619 F300.000
G1 X-17.844 Y37.938 F300.000
G1 X-19.400 Y36.994 F300.000
G1 X-19.700 Y36.725 F300.000
G1 X-20.975 Y34.544 F300.000
G1 X-20.975 Y34.544 F300.000
G1 X-21.050 Y34.319 F300.000
G1 X-21.075 Y34.169 F300.000
G1 X-21.050 Y34.038 F300.000
G0 X-21.019 Y33.994
G0 X-20.906 Y33.956
G0 X-20.769 Y33.944
G0 X19.750 Y35.025
G1 X19.950 Y35.031 F300.000
G1 X20.250 Y35.050 F300.000
G1 X20.319 Y35.069 F300.000
G1 X20.363 Y35.106 F300.000
G1 X20.413 Y35.219 F300.000
G1 X20.406 Y35.362 F300.000
G1 X20.319 Y35.656 F300.000
G1 X20.319 Y35.656 F300.000
G1 X19.125 Y37.619 F300.000
G1 X18.850 Y37.913 F300.000
G1 X16.956 Y39.150 F300.000
G1 X15.969 Y39.688 F300.000
G1 X14.588 Y40.300 F300.000
G1 X13.537 Y40.712 F300.000
G1 X11.750 Y41.312 F300.000
G1 X10.300 Y41.719 F300.000
G1 X9.194 Y41.975 F300.000
G1 X8.094 Y42.250 F300.000
G1 X6.987 Y42.475 F300.000
G1 X5.112 Y42.763 F300.000
G1 X4.362 Y42.850 F300.000
G1 X3.237 Y43.013 F300.000
G1 X1.363 Y43.169 F300.000
G1 X-1.975 Y43.294 F300.000
G1 X-3.081 Y43.250 F300.000
G1 X-4.188 Y43.144 F300.000
G1 X-4.556 Y43.094 F300.000
G1 X-4.925 Y43.062 F300.000
G1 X-7.875 Y42.650 F300.000
G1 X-8.613 Y42.525 F300.000
G1 X-11.875 Y41.769 F300.000
G1 X-12.944 Y41.444 F300.000
G1 X-16.106 Y40.344 F300.000
G1 X-17.219 Y39.850 F300.000
G1 X-18.087 Y39.350 F300.000
G1 X-18.306 Y39.150 F300.000
G1 X-19.519 Y37.056 F300.000
G1 X-19.519 Y37.056 F300.000
G1 X-19.594 Y36.831 F300.000
G1 X-19.619 Y36.681 F300.000
G1 X-19.594 Y36.550 F300.000
G0 X-19.562 Y36.506
G0 X-19.450 Y36.469
G0 X-19.312 Y36.456
G0 X18.494 Y37.237
G1 X18.681 Y37.237 F300.000
G1 X18.981 Y37.256 F300.000
G1 X19.044 Y37.275 F300.000
G1 X19.087 Y37.312 F300.000
G1 X19.137 Y37.425 F300.000
G1 X19.131 Y37.569 F300.000
G1 X19.044 Y37.862 F300.000
G1 X19.044 Y37.862 F300.000
G1 X18.137 Y39.400 F300.000
G1 X17.688 Y39.931 F300.000
G1 X17.119 Y40.344 F300.000
G1 X16.419 Y40.744 F300.000
G1 X16.106 Y40.956 F300.000
G1 X15.450 Y41.319 F300.000
G1 X14.769 Y41.644 F300.000
G1 X13.725 Y42.075 F300.000
G1 X12.656 Y42.456 F300.000
G1 X11.213 Y42.888 F300.000
G1 X8.662 Y43.562 F300.000
G1 X7.181 Y43.844 F300.000
G1 X6.431 Y43.950 F300.000
G1 X6.062 Y44.031 F300.000
G1 X3.819 Y44.400 F300.000
G1 X3.069 Y44.456 F300.000
G1 X2.694 Y44.506 F300.000
G1 X1.194 Y44.625 F300.000
G1 X0.444 Y44.644 F300.000
G1 X0.069 Y44.669 F300.000
G1 X-2.144 Y44.719 F300.000
G1 X-5.094 Y44.519 F300.000
G1 X-8.412 Y44.006 F300.000
G1 X-11.331 Y43.413 F300.000
G1 X-13.825 Y42.656 F300.000
G1 X-16.294 Y41.781 F300.000
G1 X-16.819 Y41.538 F300.000
G1 X-17.050 Y41.344 F300.000
G1 X-18.106 Y39.506 F300.000
G1 X-18.106 Y39.506 F300.000
G1 X-18.181 Y39.281 F300.000
G1 X-18.206 Y39.131 F300.000
G1 X-18.181 Y39.000 F300.000
G0 X-18.150 Y38.956
G0 X-18.038 Y38.913
G0 X-17.900 Y38.906
G0 X17.306 Y39.319
G1 X17.488 Y39.319 F300.000
G1 X17.781 Y39.331 F300.000
G1 X17.844 Y39.350 F300.000
G1 X17.887 Y39.388 F300.000
G1 X17.938 Y39.500 F300.000
G1 X17.931 Y39.644 F300.000
G1 X17.844 Y39.938 F300.000
G1 X17.844 Y39.938 F300.000
G1 X16.988 Y41.388 F300.000
G1 X16.681 Y41.775 F300.000
G1 X16.469 Y41.981 F300.000
G1 X14.700 Y43.025 F300.000
G1 X14.025 Y43.356 F300.000
G1 X13.325 Y43.638 F300.000
G1 X12.613 Y43.888 F300.000
G1 X11.525 Y44.206 F300.000
G1 X11.169 Y44.325 F300.000
G1 X9.356 Y44.837 F300.000
G1 X8.250 Y45.087 F300.000
G1 X7.138 Y45.288 F300.000
G1 X6.388 Y45.388 F300.000
G1 X6.019 Y45.469 F300.000
G1 X4.150 Y45.788 F300.000
G1 X3.025 Y45.906 F300.000
G1 X-1.081 Y46.131 F300.000
G1 X-2.188 Y46.125 F300.000
G1 X-3.294 Y46.062 F300.000
G1 X-4.400 Y46.019 F300.000
G1 X-5.506 Y45.913 F300.000
G1 X-6.981 Y45.694 F300.000
G1 X-9.562 Y45.281 F300.000
G1 X-10.656 Y45.062 F300.000
G1 X-12.463 Y44.594 F300.000
G1 X-13.887 Y44.144 F300.000
G1 X-15.656 Y43.456 F300.000
G1 X-15.900 Y43.288 F300.000
G1 X-15.969 Y43.212 F300.000
G1 X-16.931 Y41.550 F300.000
G1 X-16.931 Y41.550 F300.000
G1 X-17.006 Y41.325 F300.000
G1 X-17.031 Y41.175 F300.000
G1 X-17.006 Y41.044 F300.000
G0 X-16.975 Y41.000
G0 X-16.863 Y40.956
G0 X-16.725 Y40.950
G0 X16.194 Y41.269
G1 X16.363 Y41.269 F300.000
G1 X16.656 Y41.281 F300.000
G1 X16.719 Y41.300 F300.000
G1 X16.762 Y41.337 F300.000
G1 X16.812 Y41.450 F300.000
G1 X16.806 Y41.594 F300.000
G1 X16.719 Y41.888 F300.000
G1 X16.719 Y41.888 F300.000
G1 X15.900 Y43.250 F300.000
G1 X15.512 Y43.706 F300.000
G1 X15.113 Y44.006 F300.000
G1 X13.575 Y44.862 F300.000
G1 X12.175 Y45.413 F300.000
G1 X10.369 Y45.975 F300.000
G1 X8.906 Y46.350 F300.000
G1 X7.431 Y46.650 F300.000
G1 X6.306 Y46.831 F300.000
G1 X5.194 Y47.031 F300.000
G1 X3.319 Y47.275 F300.000
G1 X1.444 Y47.425 F300.000
G1 X-1.525 Y47.538 F300.000
G1 X-3.369 Y47.531 F300.000
G1 X-4.475 Y47.481 F300.000
G1 X-7.056 Y47.131 F300.000
G1 X-8.162 Y46.931 F300.000
G1 X-9.269 Y46.781 F300.000
G1 X-10.006 Y46.663 F300.000
