(Exported by FreeCAD)
(Post Processor: grbl_post)
(Output Time:2023-08-25 11:08:20.859941)
(Begin preamble)
G17 G90
G21
(Block-name: G54)
(Block-expand: 0)
(Block-enable: 1)
(Begin operation: G54)
(Path: G54)
G54
G0 Z5.000
(Finish operation: G54)
(Block-name: 3mm Endmill001)
(Block-expand: 0)
(Block-enable: 1)
(Begin operation: 3mm Endmill001)
(Path: 3mm Endmill001)
(3mm Endmill001)
(Begin toolchange)
( M6 T2 )
(Finish operation: 3mm Endmill001)
(Block-name: Adaptive_cenral_gear)
(Block-expand: 0)
(Block-enable: 1)
(Begin operation: Adaptive_cenral_gear)
(Path: Adaptive_cenral_gear)
(Adaptive_cenral_gear)
(Helix to depth: -3.000000)
G0 Z5.000
G0 X2.822 Y16.616 Z5.000
G0 X2.822 Y16.616 Z3.000
G1 X2.822 Y16.616 Z0.000 F100.000
G1 X2.822 Y16.616 Z0.000 F100.000
G1 X2.657 Y16.857 Z-0.026 F100.000
G1 X2.447 Y17.060 Z-0.052 F100.000
G1 X2.202 Y17.219 Z-0.077 F100.000
G1 X1.930 Y17.327 Z-0.103 F100.000
G1 X1.643 Y17.380 Z-0.129 F100.000
G1 X1.351 Y17.375 Z-0.155 F100.000
G1 X1.065 Y17.314 Z-0.180 F100.000
G1 X0.797 Y17.198 Z-0.206 F100.000
G1 X0.557 Y17.033 Z-0.232 F100.000
G1 X0.353 Y16.823 Z-0.258 F100.000
G1 X0.195 Y16.578 Z-0.283 F100.000
G1 X0.087 Y16.306 Z-0.309 F100.000
G1 X0.034 Y16.019 Z-0.335 F100.000
G1 X0.038 Y15.727 Z-0.361 F100.000
G1 X0.099 Y15.441 Z-0.387 F100.000
G1 X0.215 Y15.173 Z-0.412 F100.000
G1 X0.381 Y14.933 Z-0.438 F100.000
G1 X0.590 Y14.729 Z-0.464 F100.000
G1 X0.836 Y14.571 Z-0.490 F100.000
G1 X1.107 Y14.463 Z-0.515 F100.000
G1 X1.394 Y14.410 Z-0.541 F100.000
G1 X1.687 Y14.414 Z-0.567 F100.000
G1 X1.972 Y14.475 Z-0.593 F100.000
G1 X2.240 Y14.591 Z-0.618 F100.000
G1 X2.481 Y14.757 Z-0.644 F100.000
G1 X2.684 Y14.966 Z-0.670 F100.000
G1 X2.843 Y15.212 Z-0.696 F100.000
G1 X2.951 Y15.483 Z-0.721 F100.000
G1 X3.004 Y15.770 Z-0.747 F100.000
G1 X2.999 Y16.062 Z-0.773 F100.000
G1 X2.938 Y16.348 Z-0.799 F100.000
G1 X2.822 Y16.616 Z-0.825 F100.000
G1 X2.657 Y16.857 Z-0.850 F100.000
G1 X2.447 Y17.060 Z-0.876 F100.000
G1 X2.202 Y17.219 Z-0.902 F100.000
G1 X1.930 Y17.327 Z-0.928 F100.000
G1 X1.643 Y17.380 Z-0.953 F100.000
G1 X1.351 Y17.375 Z-0.979 F100.000
G1 X1.065 Y17.314 Z-1.005 F100.000
G1 X0.797 Y17.198 Z-1.031 F100.000
G1 X0.557 Y17.033 Z-1.056 F100.000
G1 X0.353 Y16.823 Z-1.082 F100.000
G1 X0.195 Y16.578 Z-1.108 F100.000
G1 X0.087 Y16.306 Z-1.134 F100.000
G1 X0.034 Y16.019 Z-1.160 F100.000
G1 X0.038 Y15.727 Z-1.185 F100.000
G1 X0.099 Y15.441 Z-1.211 F100.000
G1 X0.215 Y15.173 Z-1.237 F100.000
G1 X0.381 Y14.933 Z-1.263 F100.000
G1 X0.590 Y14.729 Z-1.288 F100.000
G1 X0.836 Y14.571 Z-1.314 F100.000
G1 X1.107 Y14.463 Z-1.340 F100.000
G1 X1.394 Y14.410 Z-1.366 F100.000
G1 X1.687 Y14.414 Z-1.391 F100.000
G1 X1.972 Y14.475 Z-1.417 F100.000
G1 X2.240 Y14.591 Z-1.443 F100.000
G1 X2.481 Y14.757 Z-1.469 F100.000
G1 X2.684 Y14.966 Z-1.495 F100.000
G1 X2.843 Y15.212 Z-1.520 F100.000
G1 X2.951 Y15.483 Z-1.546 F100.000
G1 X3.004 Y15.770 Z-1.572 F100.000
G1 X2.999 Y16.062 Z-1.598 F100.000
G1 X2.938 Y16.348 Z-1.623 F100.000
G1 X2.822 Y16.616 Z-1.649 F100.000
G1 X2.657 Y16.857 Z-1.675 F100.000
G1 X2.447 Y17.060 Z-1.701 F100.000
G1 X2.202 Y17.219 Z-1.726 F100.000
G1 X1.930 Y17.327 Z-1.752 F100.000
G1 X1.643 Y17.380 Z-1.778 F100.000
G1 X1.351 Y17.375 Z-1.804 F100.000
G1 X1.065 Y17.314 Z-1.829 F100.000
G1 X0.797 Y17.198 Z-1.855 F100.000
G1 X0.557 Y17.033 Z-1.881 F100.000
G1 X0.353 Y16.823 Z-1.907 F100.000
G1 X0.195 Y16.578 Z-1.933 F100.000
G1 X0.087 Y16.306 Z-1.958 F100.000
G1 X0.034 Y16.019 Z-1.984 F100.000
G1 X0.038 Y15.727 Z-2.010 F100.000
G1 X0.099 Y15.441 Z-2.036 F100.000
G1 X0.215 Y15.173 Z-2.061 F100.000
G1 X0.381 Y14.933 Z-2.087 F100.000
G1 X0.590 Y14.729 Z-2.113 F100.000
G1 X0.836 Y14.571 Z-2.139 F100.000
G1 X1.107 Y14.463 Z-2.164 F100.000
G1 X1.394 Y14.410 Z-2.190 F100.000
G1 X1.687 Y14.414 Z-2.216 F100.000
G1 X1.972 Y14.475 Z-2.242 F100.000
G1 X2.240 Y14.591 Z-2.268 F100.000
G1 X2.481 Y14.757 Z-2.293 F100.000
G1 X2.684 Y14.966 Z-2.319 F100.000
G1 X2.843 Y15.212 Z-2.345 F100.000
G1 X2.951 Y15.483 Z-2.371 F100.000
G1 X3.004 Y15.770 Z-2.396 F100.000
G1 X2.999 Y16.062 Z-2.422 F100.000
G1 X2.938 Y16.348 Z-2.448 F100.000
G1 X2.822 Y16.616 Z-2.474 F100.000
G1 X2.657 Y16.857 Z-2.499 F100.000
G1 X2.447 Y17.060 Z-2.525 F100.000
G1 X2.202 Y17.219 Z-2.551 F100.000
G1 X1.930 Y17.327 Z-2.577 F100.000
G1 X1.643 Y17.380 Z-2.603 F100.000
G1 X1.351 Y17.375 Z-2.628 F100.000
G1 X1.065 Y17.314 Z-2.654 F100.000
G1 X0.797 Y17.198 Z-2.680 F100.000
G1 X0.557 Y17.033 Z-2.706 F100.000
G1 X0.353 Y16.823 Z-2.731 F100.000
G1 X0.195 Y16.578 Z-2.757 F100.000
G1 X0.087 Y16.306 Z-2.783 F100.000
G1 X0.034 Y16.019 Z-2.809 F100.000
G1 X0.038 Y15.727 Z-2.834 F100.000
G1 X0.099 Y15.441 Z-2.860 F100.000
G1 X0.215 Y15.173 Z-2.886 F100.000
G1 X0.381 Y14.933 Z-2.912 F100.000
G1 X0.590 Y14.729 Z-2.937 F100.000
G1 X0.836 Y14.571 Z-2.963 F100.000
G1 X1.107 Y14.463 Z-2.989 F100.000
G1 X1.394 Y14.410 Z-3.000 F200.000
G1 X1.687 Y14.414 Z-3.000 F200.000
G1 X1.972 Y14.475 Z-3.000 F200.000
G1 X2.240 Y14.591 Z-3.000 F200.000
G1 X2.481 Y14.757 Z-3.000 F200.000
G1 X2.684 Y14.966 Z-3.000 F200.000
G1 X2.843 Y15.212 Z-3.000 F200.000
G1 X2.951 Y15.483 Z-3.000 F200.000
G1 X3.004 Y15.770 Z-3.000 F200.000
G1 X2.999 Y16.062 Z-3.000 F200.000
G1 X2.938 Y16.348 Z-3.000 F200.000
G1 X2.822 Y16.616 Z-3.000 F200.000
G1 X2.657 Y16.857 Z-3.000 F200.000
G1 X2.447 Y17.060 Z-3.000 F200.000
G1 X2.202 Y17.219 Z-3.000 F200.000
G1 X1.930 Y17.327 Z-3.000 F200.000
G1 X1.643 Y17.380 Z-3.000 F200.000
G1 X1.351 Y17.375 Z-3.000 F200.000
G1 X1.065 Y17.314 Z-3.000 F200.000
G1 X0.797 Y17.198 Z-3.000 F200.000
G1 X0.557 Y17.033 Z-3.000 F200.000
G1 X0.353 Y16.823 Z-3.000 F200.000
G1 X0.195 Y16.578 Z-3.000 F200.000
G1 X0.087 Y16.306 Z-3.000 F200.000
G1 X0.034 Y16.019 Z-3.000 F200.000
G1 X0.038 Y15.727 Z-3.000 F200.000
G1 X0.099 Y15.441 Z-3.000 F200.000
G1 X0.215 Y15.173 Z-3.000 F200.000
G1 X0.381 Y14.933 Z-3.000 F200.000
G1 X0.590 Y14.729 Z-3.000 F200.000
G1 X0.836 Y14.571 Z-3.000 F200.000
G1 X1.107 Y14.463 Z-3.000 F200.000
(Adaptive - depth: -3.000000)
G1 X1.519 Y14.395 F200.000
G1 X1.575 Y14.376 F200.000
G1 X2.026 Y14.323 F200.000
G1 X2.308 Y14.338 F200.000
G1 X2.470 Y14.395 F200.000
G1 X2.714 Y14.549 F200.000
G1 X2.887 Y14.707 F200.000
G1 X3.113 Y15.000 F200.000
G1 X3.267 Y15.338 F200.000
G1 X3.316 Y15.519 F200.000
G1 X3.342 Y15.684 F200.000
G1 X3.350 Y15.895 F200.000
G1 X3.331 Y16.143 F200.000
G1 X3.278 Y16.395 F200.000
G1 X3.203 Y16.620 F200.000
G1 X3.049 Y16.891 F200.000
G1 X2.759 Y17.195 F200.000
G1 X2.658 Y17.259 F200.000
G1 X2.602 Y17.278 F200.000
G1 X1.880 Y17.372 F200.000
G1 X1.880 Y17.372 F200.000
G1 X1.722 Y17.353 F200.000
G0 X1.695 Y17.350
G1 X1.665 Y17.346 F200.000
G1 X1.357 Y17.421 F200.000
G1 X1.357 Y17.421 F200.000
G1 X0.996 Y17.440 F200.000
G1 X0.756 Y17.410 F200.000
G1 X0.583 Y17.342 F200.000
G1 X0.372 Y17.203 F200.000
G1 X0.188 Y17.030 F200.000
G1 X-0.083 Y16.688 F200.000
G1 X-0.229 Y16.346 F200.000
G1 X-0.271 Y16.154 F200.000
G1 X-0.286 Y15.996 F200.000
G1 X-0.289 Y15.816 F200.000
G1 X-0.259 Y15.523 F200.000
G1 X-0.195 Y15.259 F200.000
G1 X-0.098 Y15.041 F200.000
G1 X0.030 Y14.831 F200.000
G1 X0.267 Y14.560 F200.000
G1 X0.361 Y14.485 F200.000
G1 X0.414 Y14.459 F200.000
G1 X0.470 Y14.455 F200.000
G1 X0.470 Y14.455 F200.000
G1 X0.586 Y14.477 F200.000
G1 X0.647 Y14.511 F200.000
G0 X0.665 Y14.534
G0 X0.707 Y14.650
G0 X1.011 Y17.158
G1 X1.015 Y17.195 F200.000
G1 X1.023 Y17.320 F200.000
G1 X1.000 Y17.368 F200.000
G1 X0.929 Y17.417 F200.000
G1 X0.816 Y17.451 F200.000
G1 X0.816 Y17.451 F200.000
G1 X0.575 Y17.455 F200.000
G1 X0.395 Y17.425 F200.000
G1 X0.278 Y17.383 F200.000
G1 X-0.026 Y17.169 F200.000
G1 X-0.226 Y16.951 F200.000
G1 X-0.436 Y16.643 F200.000
G1 X-0.568 Y16.293 F200.000
G1 X-0.602 Y16.113 F200.000
G1 X-0.624 Y15.741 F200.000
G1 X-0.590 Y15.410 F200.000
G1 X-0.511 Y15.139 F200.000
G1 X-0.436 Y14.947 F200.000
G1 X-0.323 Y14.744 F200.000
G1 X-0.124 Y14.496 F200.000
G1 X-0.068 Y14.466 F200.000
G1 X-0.068 Y14.466 F200.000
G1 X0.030 Y14.481 F200.000
G1 X0.120 Y14.530 F200.000
G0 X0.139 Y14.553
G0 X0.177 Y14.662
G0 X0.643 Y17.177
G1 X0.650 Y17.214 F200.000
G1 X0.665 Y17.338 F200.000
G1 X0.643 Y17.383 F200.000
G1 X0.575 Y17.436 F200.000
G1 X0.459 Y17.466 F200.000
G1 X0.459 Y17.466 F200.000
G1 X0.158 Y17.455 F200.000
G1 X-0.019 Y17.410 F200.000
G1 X-0.267 Y17.259 F200.000
G1 X-0.440 Y17.094 F200.000
G1 X-0.553 Y16.959 F200.000
G1 X-0.759 Y16.650 F200.000
G1 X-0.895 Y16.301 F200.000
G1 X-0.936 Y16.113 F200.000
G1 X-0.955 Y15.944 F200.000
G1 X-0.966 Y15.722 F200.000
G1 X-0.944 Y15.402 F200.000
G1 X-0.876 Y15.117 F200.000
G1 X-0.771 Y14.846 F200.000
G1 X-0.564 Y14.534 F200.000
G1 X-0.523 Y14.489 F200.000
G1 X-0.470 Y14.459 F200.000
G1 X-0.410 Y14.455 F200.000
G1 X-0.410 Y14.455 F200.000
G1 X-0.282 Y14.474 F200.000
G1 X-0.207 Y14.519 F200.000
G0 X-0.188 Y14.541
G0 X-0.154 Y14.650
G0 X0.229 Y17.192
G1 X0.233 Y17.229 F200.000
G1 X0.248 Y17.350 F200.000
G1 X0.222 Y17.398 F200.000
G1 X0.154 Y17.444 F200.000
G1 X0.038 Y17.470 F200.000
G1 X0.038 Y17.470 F200.000
G1 X-0.188 Y17.455 F200.000
G1 X-0.357 Y17.414 F200.000
G1 X-0.466 Y17.361 F200.000
G1 X-0.703 Y17.173 F200.000
G1 X-0.898 Y16.947 F200.000
G1 X-1.105 Y16.635 F200.000
G1 X-1.237 Y16.286 F200.000
G1 X-1.286 Y16.086 F200.000
G1 X-1.308 Y15.887 F200.000
G1 X-1.316 Y15.673 F200.000
G1 X-1.297 Y15.380 F200.000
G1 X-1.241 Y15.086 F200.000
G1 X-1.154 Y14.835 F200.000
G1 X-0.985 Y14.571 F200.000
G1 X-0.902 Y14.477 F200.000
G1 X-0.850 Y14.444 F200.000
G1 X-0.789 Y14.440 F200.000
G1 X-0.789 Y14.440 F200.000
G1 X-0.639 Y14.489 F200.000
G1 X-0.590 Y14.526 F200.000
G0 X-0.575 Y14.553
G0 X-0.530 Y14.718
G0 X-0.105 Y17.180
G1 X-0.102 Y17.218 F200.000
G1 X-0.090 Y17.338 F200.000
G1 X-0.117 Y17.387 F200.000
G1 X-0.192 Y17.432 F200.000
G1 X-0.320 Y17.459 F200.000
G1 X-0.320 Y17.459 F200.000
G1 X-0.545 Y17.444 F200.000
G1 X-0.714 Y17.398 F200.000
G1 X-0.820 Y17.346 F200.000
G1 X-1.090 Y17.113 F200.000
G1 X-1.248 Y16.929 F200.000
G1 X-1.451 Y16.617 F200.000
G1 X-1.590 Y16.271 F200.000
G1 X-1.635 Y16.068 F200.000
G1 X-1.658 Y15.891 F200.000
G1 X-1.673 Y15.662 F200.000
G1 X-1.654 Y15.308 F200.000
G1 X-1.586 Y15.000 F200.000
G1 X-1.508 Y14.786 F200.000
G1 X-1.376 Y14.571 F200.000
G1 X-1.248 Y14.432 F200.000
G1 X-1.192 Y14.406 F200.000
G1 X-1.192 Y14.406 F200.000
G1 X-1.064 Y14.432 F200.000
G1 X-0.989 Y14.485 F200.000
G0 X-0.974 Y14.508
G0 X-0.925 Y14.677
G0 X-0.470 Y17.169
G1 X-0.462 Y17.207 F200.000
G1 X-0.451 Y17.327 F200.000
G1 X-0.474 Y17.376 F200.000
G1 X-0.549 Y17.421 F200.000
G1 X-0.677 Y17.447 F200.000
G1 X-0.677 Y17.447 F200.000
G1 X-0.846 Y17.436 F200.000
G1 X-1.071 Y17.376 F200.000
G1 X-1.124 Y17.353 F200.000
G1 X-1.361 Y17.169 F200.000
G1 X-1.598 Y16.898 F200.000
G1 X-1.801 Y16.586 F200.000
G1 X-1.940 Y16.241 F200.000
G1 X-1.989 Y16.034 F200.000
G1 X-2.015 Y15.846 F200.000
G1 X-2.030 Y15.609 F200.000
G1 X-2.015 Y15.297 F200.000
G1 X-1.955 Y15.008 F200.000
G1 X-1.850 Y14.733 F200.000
G1 X-1.714 Y14.526 F200.000
G1 X-1.586 Y14.391 F200.000
G1 X-1.526 Y14.376 F200.000
G1 X-1.526 Y14.376 F200.000
G1 X-1.376 Y14.425 F200.000
G1 X-1.327 Y14.462 F200.000
G0 X-1.312 Y14.489
G0 X-1.259 Y14.654
G0 X-0.767 Y17.169
G1 X-0.759 Y17.207 F200.000
G1 X-0.748 Y17.327 F200.000
G1 X-0.774 Y17.376 F200.000
G1 X-0.850 Y17.417 F200.000
G1 X-0.977 Y17.436 F200.000
G1 X-0.977 Y17.436 F200.000
G1 X-1.259 Y17.402 F200.000
G1 X-1.429 Y17.346 F200.000
G1 X-1.673 Y17.177 F200.000
G1 X-1.914 Y16.906 F200.000
G1 X-2.154 Y16.545 F200.000
G1 X-2.293 Y16.199 F200.000
G1 X-2.346 Y15.981 F200.000
G1 X-2.380 Y15.786 F200.000
G1 X-2.398 Y15.519 F200.000
G1 X-2.376 Y15.226 F200.000
G1 X-2.320 Y14.985 F200.000
G1 X-2.252 Y14.786 F200.000
G1 X-2.143 Y14.568 F200.000
G1 X-2.026 Y14.421 F200.000
G1 X-1.929 Y14.338 F200.000
G1 X-1.868 Y14.331 F200.000
G1 X-1.868 Y14.331 F200.000
G1 X-1.718 Y14.383 F200.000
G1 X-1.673 Y14.425 F200.000
G0 X-1.658 Y14.447
G0 X-1.613 Y14.617
G0 X-1.128 Y17.143
G1 X-1.120 Y17.180 F200.000
G1 X-1.109 Y17.301 F200.000
G1 X-1.135 Y17.350 F200.000
G1 X-1.211 Y17.391 F200.000
G1 X-1.338 Y17.410 F200.000
G1 X-1.338 Y17.410 F200.000
G1 X-1.620 Y17.372 F200.000
G1 X-1.789 Y17.316 F200.000
G1 X-1.989 Y17.180 F200.000
G1 X-2.271 Y16.865 F200.000
G1 X-2.515 Y16.508 F200.000
G1 X-2.658 Y16.162 F200.000
G1 X-2.714 Y15.921 F200.000
G1 X-2.741 Y15.726 F200.000
G1 X-2.752 Y15.508 F200.000
G1 X-2.733 Y15.203 F200.000
G1 X-2.680 Y14.917 F200.000
G1 X-2.586 Y14.665 F200.000
G1 X-2.451 Y14.455 F200.000
G1 X-2.323 Y14.320 F200.000
G1 X-2.267 Y14.289 F200.000
G1 X-2.207 Y14.286 F200.000
G1 X-2.207 Y14.286 F200.000
G1 X-2.083 Y14.320 F200.000
G1 X-2.011 Y14.376 F200.000
G0 X-1.992 Y14.398
G0 X-1.947 Y14.571
G0 X-1.485 Y17.113
G1 X-1.477 Y17.150 F200.000
G1 X-1.466 Y17.271 F200.000
G1 X-1.492 Y17.320 F200.000
G1 X-1.568 Y17.361 F200.000
G1 X-1.695 Y17.380 F200.000
G1 X-1.695 Y17.380 F200.000
G1 X-1.921 Y17.357 F200.000
G1 X-2.147 Y17.286 F200.000
G1 X-2.248 Y17.229 F200.000
G1 X-2.432 Y17.071 F200.000
G1 X-2.632 Y16.842 F200.000
G1 X-2.895 Y16.429 F200.000
G1 X-3.026 Y16.079 F200.000
G1 X-3.079 Y15.846 F200.000
G1 X-3.105 Y15.639 F200.000
G1 X-3.117 Y15.410 F200.000
G1 X-3.083 Y15.090 F200.000
G1 X-3.030 Y14.850 F200.000
G1 X-2.932 Y14.609 F200.000
G1 X-2.793 Y14.402 F200.000
G1 X-2.711 Y14.308 F200.000
G1 X-2.662 Y14.267 F200.000
G1 X-2.609 Y14.237 F200.000
G1 X-2.549 Y14.233 F200.000
G1 X-2.549 Y14.233 F200.000
G1 X-2.425 Y14.274 F200.000
G1 X-2.357 Y14.335 F200.000
G0 X-2.338 Y14.357
G0 X-2.297 Y14.530
G0 X-1.891 Y17.079
G1 X-1.887 Y17.117 F200.000
G1 X-1.880 Y17.237 F200.000
G1 X-1.906 Y17.282 F200.000
G1 X-1.985 Y17.323 F200.000
G1 X-2.113 Y17.335 F200.000
G1 X-2.113 Y17.335 F200.000
G1 X-2.395 Y17.286 F200.000
G1 X-2.560 Y17.218 F200.000
G1 X-2.793 Y17.034 F200.000
G1 X-3.056 Y16.707 F200.000
G1 X-3.274 Y16.331 F200.000
G1 X-3.402 Y15.981 F200.000
G1 X-3.447 Y15.726 F200.000
G1 X-3.470 Y15.308 F200.000
G1 X-3.429 Y14.962 F200.000
G1 X-3.350 Y14.699 F200.000
G1 X-3.259 Y14.511 F200.000
G1 X-3.068 Y14.263 F200.000
G1 X-2.974 Y14.180 F200.000
G1 X-2.914 Y14.162 F200.000
G1 X-2.914 Y14.162 F200.000
G1 X-2.789 Y14.203 F200.000
G1 X-2.722 Y14.263 F200.000
G0 X-2.703 Y14.286
G0 X-2.662 Y14.459
G0 X-2.248 Y17.038
G1 X-2.244 Y17.075 F200.000
G1 X-2.237 Y17.195 F200.000
G1 X-2.263 Y17.241 F200.000
G1 X-2.342 Y17.278 F200.000
G1 X-2.470 Y17.289 F200.000
G1 X-2.470 Y17.289 F200.000
G1 X-2.752 Y17.233 F200.000
G1 X-2.917 Y17.169 F200.000
G1 X-3.064 Y17.068 F200.000
G1 X-3.350 Y16.756 F200.000
G1 X-3.451 Y16.605 F200.000
G1 X-3.639 Y16.282 F200.000
G1 X-3.763 Y15.929 F200.000
G1 X-3.808 Y15.695 F200.000
G1 X-3.823 Y15.496 F200.000
G1 X-3.827 Y15.278 F200.000
G1 X-3.793 Y14.947 F200.000
G1 X-3.714 Y14.665 F200.000
G1 X-3.590 Y14.414 F200.000
G1 X-3.481 Y14.259 F200.000
G1 X-3.346 Y14.128 F200.000
G1 X-3.289 Y14.098 F200.000
G1 X-3.229 Y14.098 F200.000
G1 X-3.229 Y14.098 F200.000
G1 X-3.105 Y14.139 F200.000
G1 X-3.038 Y14.199 F200.000
G0 X-3.019 Y14.222
G0 X-2.981 Y14.395
G0 X-2.602 Y16.985
G1 X-2.598 Y17.023 F200.000
G1 X-2.590 Y17.143 F200.000
G1 X-2.620 Y17.188 F200.000
G1 X-2.699 Y17.226 F200.000
G1 X-2.827 Y17.237 F200.000
G1 X-2.827 Y17.237 F200.000
G1 X-3.109 Y17.180 F200.000
G1 X-3.327 Y17.090 F200.000
G1 X-3.425 Y17.023 F200.000
G1 X-3.635 Y16.808 F200.000
G1 X-3.842 Y16.508 F200.000
G1 X-4.023 Y16.180 F200.000
G1 X-4.135 Y15.823 F200.000
G1 X-4.173 Y15.586 F200.000
G1 X-4.188 Y15.387 F200.000
G1 X-4.188 Y15.154 F200.000
G1 X-4.139 Y14.827 F200.000
G1 X-4.060 Y14.571 F200.000
G1 X-3.966 Y14.372 F200.000
G1 X-3.816 Y14.169 F200.000
G1 X-3.677 Y14.045 F200.000
G1 X-3.620 Y14.015 F200.000
G1 X-3.560 Y14.015 F200.000
G1 X-3.560 Y14.015 F200.000
G1 X-3.444 Y14.068 F200.000
G1 X-3.380 Y14.132 F200.000
G0 X-3.365 Y14.158
G0 X-3.335 Y14.331
G0 X-3.064 Y16.910
G1 X-3.060 Y16.947 F200.000
G1 X-3.056 Y17.068 F200.000
G1 X-3.086 Y17.109 F200.000
G1 X-3.169 Y17.143 F200.000
G1 X-3.297 Y17.147 F200.000
G1 X-3.297 Y17.147 F200.000
G1 X-3.579 Y17.071 F200.000
G1 X-3.741 Y16.992 F200.000
G1 X-3.962 Y16.786 F200.000
G1 X-4.173 Y16.496 F200.000
G1 X-4.383 Y16.117 F200.000
G1 X-4.500 Y15.763 F200.000
G1 X-4.538 Y15.526 F200.000
G1 X-4.549 Y15.327 F200.000
G1 X-4.549 Y15.098 F200.000
G1 X-4.504 Y14.771 F200.000
G1 X-4.417 Y14.504 F200.000
G1 X-4.327 Y14.320 F200.000
G1 X-4.218 Y14.154 F200.000
G1 X-4.090 Y14.015 F200.000
G1 X-3.989 Y13.936 F200.000
G1 X-3.929 Y13.917 F200.000
G1 X-3.929 Y13.917 F200.000
G1 X-3.812 Y13.966 F200.000
G1 X-3.744 Y14.030 F200.000
G0 X-3.729 Y14.056
G0 X-3.695 Y14.229
G0 X-3.417 Y16.838
G1 X-3.414 Y16.876 F200.000
G1 X-3.410 Y16.996 F200.000
G1 X-3.440 Y17.038 F200.000
G1 X-3.523 Y17.071 F200.000
G1 X-3.650 Y17.075 F200.000
G1 X-3.650 Y17.075 F200.000
G1 X-3.932 Y17.008 F200.000
G1 X-4.139 Y16.902 F200.000
G1 X-4.353 Y16.692 F200.000
G1 X-4.590 Y16.338 F200.000
G1 X-4.756 Y16.004 F200.000
G1 X-4.865 Y15.647 F200.000
G1 X-4.902 Y15.383 F200.000
G1 X-4.906 Y15.180 F200.000
G1 X-4.898 Y14.970 F200.000
G1 X-4.842 Y14.650 F200.000
G1 X-4.752 Y14.387 F200.000
G1 X-4.613 Y14.135 F200.000
G1 X-4.496 Y13.989 F200.000
G1 X-4.357 Y13.865 F200.000
G1 X-4.305 Y13.831 F200.000
G1 X-4.244 Y13.820 F200.000
G1 X-4.244 Y13.820 F200.000
G1 X-4.132 Y13.876 F200.000
G1 X-4.068 Y13.944 F200.000
G0 X-4.056 Y13.970
G0 X-4.030 Y14.143
G0 X-3.820 Y16.763
G1 X-3.820 Y16.801 F200.000
G1 X-3.820 Y16.921 F200.000
G1 X-3.850 Y16.962 F200.000
G1 X-3.932 Y16.992 F200.000
G1 X-4.060 Y16.989 F200.000
G1 X-4.060 Y16.989 F200.000
G1 X-4.286 Y16.929 F200.000
G1 X-4.500 Y16.827 F200.000
G1 X-4.594 Y16.752 F200.000
G1 X-4.861 Y16.421 F200.000
G1 X-4.981 Y16.211 F200.000
G1 X-5.147 Y15.876 F200.000
G1 X-5.241 Y15.515 F200.000
G1 X-5.267 Y15.271 F200.000
G1 X-5.263 Y15.068 F200.000
G1 X-5.248 Y14.865 F200.000
G1 X-5.184 Y14.534 F200.000
G1 X-5.075 Y14.252 F200.000
G1 X-4.974 Y14.060 F200.000
G1 X-4.857 Y13.910 F200.000
G1 X-4.669 Y13.744 F200.000
G1 X-4.613 Y13.718 F200.000
G1 X-4.553 Y13.722 F200.000
G1 X-4.553 Y13.722 F200.000
G1 X-4.440 Y13.778 F200.000
G1 X-4.380 Y13.846 F200.000
G0 X-4.365 Y13.872
G0 X-4.342 Y14.045
G0 X-4.222 Y16.662
G1 X-4.222 Y16.699 F200.000
G1 X-4.226 Y16.820 F200.000
G1 X-4.259 Y16.861 F200.000
G1 X-4.342 Y16.887 F200.000
G1 X-4.470 Y16.883 F200.000
G1 X-4.470 Y16.883 F200.000
G1 X-4.748 Y16.789 F200.000
G1 X-4.902 Y16.699 F200.000
G1 X-5.079 Y16.534 F200.000
G1 X-5.316 Y16.180 F200.000
G1 X-5.515 Y15.726 F200.000
G1 X-5.598 Y15.361 F200.000
G1 X-5.617 Y15.079 F200.000
G1 X-5.609 Y14.876 F200.000
G1 X-5.583 Y14.654 F200.000
G1 X-5.511 Y14.376 F200.000
G1 X-5.406 Y14.124 F200.000
G1 X-5.293 Y13.925 F200.000
G1 X-5.128 Y13.737 F200.000
G1 X-4.977 Y13.624 F200.000
G1 X-4.917 Y13.605 F200.000
G1 X-4.917 Y13.605 F200.000
G1 X-4.805 Y13.662 F200.000
G1 X-4.744 Y13.729 F200.000
G0 X-4.729 Y13.759
G0 X-4.707 Y13.932
G0 X-4.571 Y16.564
G1 X-4.571 Y16.602 F200.000
G1 X-4.575 Y16.722 F200.000
G1 X-4.605 Y16.763 F200.000
G1 X-4.688 Y16.789 F200.000
G1 X-4.816 Y16.786 F200.000
G1 X-4.816 Y16.786 F200.000
G1 X-5.094 Y16.695 F200.000
G1 X-5.252 Y16.613 F200.000
G1 X-5.346 Y16.541 F200.000
G1 X-5.571 Y16.259 F200.000
G1 X-5.744 Y15.936 F200.000
G1 X-5.880 Y15.586 F200.000
G1 X-5.955 Y15.222 F200.000
G1 X-5.966 Y14.959 F200.000
G1 X-5.925 Y14.541 F200.000
G1 X-5.838 Y14.218 F200.000
G1 X-5.722 Y13.959 F200.000
G1 X-5.605 Y13.771 F200.000
G1 X-5.477 Y13.632 F200.000
G1 X-5.327 Y13.519 F200.000
G1 X-5.271 Y13.489 F200.000
G1 X-5.211 Y13.492 F200.000
G1 X-5.211 Y13.492 F200.000
G1 X-5.102 Y13.556 F200.000
G1 X-5.041 Y13.624 F200.000
G0 X-5.030 Y13.654
G0 X-5.015 Y13.831
G0 X-4.966 Y16.451
G1 X-4.966 Y16.489 F200.000
G1 X-4.974 Y16.609 F200.000
G1 X-5.008 Y16.647 F200.000
G1 X-5.090 Y16.673 F200.000
G1 X-5.218 Y16.665 F200.000
G1 X-5.218 Y16.665 F200.000
G1 X-5.440 Y16.590 F200.000
G1 X-5.598 Y16.508 F200.000
G1 X-5.695 Y16.440 F200.000
G1 X-5.857 Y16.259 F200.000
G1 X-6.045 Y15.947 F200.000
G1 X-6.098 Y15.835 F200.000
G1 X-6.233 Y15.489 F200.000
G1 X-6.308 Y15.124 F200.000
G1 X-6.320 Y14.887 F200.000
G1 X-6.308 Y14.688 F200.000
G1 X-6.282 Y14.462 F200.000
G1 X-6.203 Y14.147 F200.000
G1 X-6.090 Y13.887 F200.000
G1 X-5.977 Y13.699 F200.000
G1 X-5.842 Y13.534 F200.000
G1 X-5.699 Y13.414 F200.000
G1 X-5.586 Y13.357 F200.000
G1 X-5.526 Y13.365 F200.000
G1 X-5.526 Y13.365 F200.000
G1 X-5.417 Y13.429 F200.000
G1 X-5.357 Y13.496 F200.000
G0 X-5.346 Y13.526
G0 X-5.335 Y13.699
G0 X-5.353 Y16.331
G1 X-5.357 Y16.368 F200.000
G1 X-5.368 Y16.489 F200.000
G1 X-5.402 Y16.526 F200.000
G1 X-5.489 Y16.549 F200.000
G1 X-5.617 Y16.538 F200.000
G1 X-5.617 Y16.538 F200.000
G1 X-5.891 Y16.429 F200.000
G1 X-6.086 Y16.293 F200.000
G1 X-6.274 Y16.060 F200.000
G1 X-6.451 Y15.737 F200.000
G1 X-6.602 Y15.331 F200.000
G1 X-6.662 Y14.962 F200.000
G1 X-6.669 Y14.718 F200.000
G1 X-6.654 Y14.500 F200.000
G1 X-6.617 Y14.267 F200.000
G1 X-6.534 Y13.985 F200.000
G1 X-6.414 Y13.733 F200.000
G1 X-6.289 Y13.545 F200.000
G1 X-6.117 Y13.361 F200.000
G1 X-5.962 Y13.252 F200.000
G1 X-5.906 Y13.226 F200.000
G1 X-5.846 Y13.229 F200.000
G1 X-5.846 Y13.229 F200.000
G1 X-5.737 Y13.297 F200.000
G1 X-5.680 Y13.368 F200.000
G0 X-5.669 Y13.395
G0 X-5.662 Y13.575
G0 X-5.748 Y16.195
G1 X-5.752 Y16.233 F200.000
G1 X-5.767 Y16.353 F200.000
G1 X-5.801 Y16.387 F200.000
G1 X-5.887 Y16.410 F200.000
G1 X-6.011 Y16.395 F200.000
G1 X-6.011 Y16.395 F200.000
G1 X-6.282 Y16.278 F200.000
G1 X-6.432 Y16.177 F200.000
G1 X-6.624 Y15.944 F200.000
G1 X-6.774 Y15.677 F200.000
G1 X-6.970 Y15.158 F200.000
G1 X-7.019 Y14.786 F200.000
G1 X-7.019 Y14.541 F200.000
G1 X-6.996 Y14.335 F200.000
G1 X-6.951 Y14.117 F200.000
G1 X-6.861 Y13.838 F200.000
G1 X-6.733 Y13.575 F200.000
G1 X-6.590 Y13.372 F200.000
G1 X-6.410 Y13.199 F200.000
G1 X-6.252 Y13.098 F200.000
G1 X-6.192 Y13.079 F200.000
G1 X-6.132 Y13.098 F200.000
G1 X-6.132 Y13.098 F200.000
G1 X-6.030 Y13.169 F200.000
G1 X-5.977 Y13.244 F200.000
G0 X-5.966 Y13.271
G0 X-5.962 Y13.447
G0 X-6.086 Y16.079
G1 X-6.086 Y16.117 F200.000
G1 X-6.105 Y16.237 F200.000
G1 X-6.139 Y16.271 F200.000
G1 X-6.226 Y16.289 F200.000
G1 X-6.350 Y16.271 F200.000
G1 X-6.350 Y16.271 F200.000
G1 X-6.624 Y16.150 F200.000
G1 X-6.820 Y16.015 F200.000
G1 X-7.038 Y15.722 F200.000
G1 X-7.192 Y15.391 F200.000
G1 X-7.323 Y14.977 F200.000
G1 X-7.365 Y14.605 F200.000
G1 X-7.357 Y14.368 F200.000
G1 X-7.331 Y14.165 F200.000
G1 X-7.282 Y13.944 F200.000
G1 X-7.180 Y13.654 F200.000
G1 X-7.049 Y13.406 F200.000
G1 X-6.917 Y13.226 F200.000
G1 X-6.737 Y13.053 F200.000
G1 X-6.575 Y12.951 F200.000
G1 X-6.519 Y12.929 F200.000
G1 X-6.459 Y12.940 F200.000
G1 X-6.459 Y12.940 F200.000
G1 X-6.338 Y13.038 F200.000
G1 X-6.308 Y13.090 F200.000
G0 X-6.297 Y13.117
G0 X-6.297 Y13.293
G0 X-6.474 Y15.921
G1 X-6.474 Y15.959 F200.000
G1 X-6.492 Y16.079 F200.000
G1 X-6.530 Y16.113 F200.000
G1 X-6.617 Y16.132 F200.000
G1 X-6.741 Y16.113 F200.000
G1 X-6.741 Y16.113 F200.000
G1 X-7.011 Y15.985 F200.000
G1 X-7.203 Y15.846 F200.000
G1 X-7.383 Y15.602 F200.000
G1 X-7.538 Y15.271 F200.000
G1 X-7.677 Y14.793 F200.000
G1 X-7.711 Y14.421 F200.000
G1 X-7.695 Y14.162 F200.000
G1 X-7.658 Y13.955 F200.000
G1 X-7.605 Y13.748 F200.000
G1 X-7.492 Y13.459 F200.000
G1 X-7.353 Y13.222 F200.000
G1 X-7.218 Y13.045 F200.000
G1 X-7.030 Y12.876 F200.000
G1 X-6.865 Y12.786 F200.000
G1 X-6.805 Y12.774 F200.000
G1 X-6.805 Y12.774 F200.000
G1 X-6.699 Y12.846 F200.000
G1 X-6.647 Y12.921 F200.000
G0 X-6.635 Y12.947
G0 X-6.639 Y13.124
G0 X-6.853 Y15.759
G1 X-6.853 Y15.797 F200.000
G1 X-6.876 Y15.917 F200.000
G1 X-6.914 Y15.951 F200.000
G1 X-7.000 Y15.966 F200.000
G1 X-7.124 Y15.947 F200.000
G1 X-7.124 Y15.947 F200.000
G1 X-7.387 Y15.816 F200.000
G1 X-7.575 Y15.669 F200.000
G1 X-7.748 Y15.417 F200.000
G1 X-7.914 Y15.026 F200.000
G1 X-8.015 Y14.669 F200.000
G1 X-8.049 Y14.297 F200.000
G1 X-8.038 Y14.060 F200.000
G1 X-8.004 Y13.861 F200.000
G1 X-7.955 Y13.650 F200.000
G1 X-7.846 Y13.350 F200.000
G1 X-7.699 Y13.090 F200.000
G1 X-7.560 Y12.910 F200.000
G1 X-7.410 Y12.763 F200.000
G1 X-7.256 Y12.654 F200.000
G1 X-7.143 Y12.605 F200.000
G1 X-7.083 Y12.605 F200.000
G1 X-7.083 Y12.605 F200.000
G1 X-6.966 Y12.711 F200.000
G1 X-6.936 Y12.763 F200.000
G0 X-6.929 Y12.793
G0 X-6.936 Y12.970
G0 X-7.229 Y15.594
G1 X-7.233 Y15.632 F200.000
G1 X-7.259 Y15.752 F200.000
G1 X-7.297 Y15.786 F200.000
G1 X-7.383 Y15.797 F200.000
G1 X-7.508 Y15.771 F200.000
G1 X-7.508 Y15.771 F200.000
G1 X-7.718 Y15.665 F200.000
G1 X-7.865 Y15.560 F200.000
G1 X-7.951 Y15.477 F200.000
G1 X-8.117 Y15.222 F200.000
G1 X-8.256 Y14.883 F200.000
G1 X-8.357 Y14.459 F200.000
G1 X-8.380 Y14.086 F200.000
G1 X-8.357 Y13.835 F200.000
G1 X-8.316 Y13.620 F200.000
G1 X-8.252 Y13.395 F200.000
G1 X-8.135 Y13.124 F200.000
G1 X-8.004 Y12.891 F200.000
G1 X-7.831 Y12.688 F200.000
G1 X-7.635 Y12.530 F200.000
G1 X-7.470 Y12.440 F200.000
G1 X-7.410 Y12.429 F200.000
G1 X-7.410 Y12.429 F200.000
G1 X-7.308 Y12.504 F200.000
G1 X-7.259 Y12.583 F200.000
G0 X-7.252 Y12.609
G0 X-7.263 Y12.786
G0 X-7.602 Y15.417
G1 X-7.605 Y15.455 F200.000
G1 X-7.635 Y15.571 F200.000
G1 X-7.673 Y15.605 F200.000
G1 X-7.759 Y15.617 F200.000
G1 X-7.883 Y15.586 F200.000
G1 X-7.883 Y15.586 F200.000
G1 X-8.094 Y15.474 F200.000
G1 X-8.192 Y15.406 F200.000
G1 X-8.320 Y15.278 F200.000
G1 X-8.447 Y15.071 F200.000
G1 X-8.579 Y14.729 F200.000
G1 X-8.695 Y14.244 F200.000
G1 X-8.707 Y13.872 F200.000
G1 X-8.677 Y13.617 F200.000
G1 X-8.635 Y13.417 F200.000
G1 X-8.568 Y13.192 F200.000
G1 X-8.447 Y12.921 F200.000
G1 X-8.297 Y12.688 F200.000
G1 X-8.150 Y12.519 F200.000
G1 X-7.992 Y12.372 F200.000
G1 X-7.774 Y12.256 F200.000
G1 X-7.714 Y12.244 F200.000
G1 X-7.714 Y12.244 F200.000
G1 X-7.617 Y12.327 F200.000
G1 X-7.575 Y12.402 F200.000
G0 X-7.568 Y12.432
G0 X-7.583 Y12.609
G0 X-7.977 Y15.233
G1 X-7.981 Y15.271 F200.000
G1 X-8.011 Y15.387 F200.000
G1 X-8.049 Y15.421 F200.000
G1 X-8.135 Y15.429 F200.000
G1 X-8.256 Y15.395 F200.000
G1 X-8.256 Y15.395 F200.000
G1 X-8.462 Y15.271 F200.000
G1 X-8.598 Y15.154 F200.000
G1 X-8.744 Y14.955 F200.000
G1 X-8.895 Y14.628 F200.000
G1 X-8.962 Y14.387 F200.000
G1 X-9.034 Y14.019 F200.000
G1 X-9.034 Y13.647 F200.000
G1 X-9.000 Y13.406 F200.000
G1 X-8.947 Y13.203 F200.000
G1 X-8.876 Y12.985 F200.000
G1 X-8.744 Y12.703 F200.000
G1 X-8.575 Y12.459 F200.000
G1 X-8.425 Y12.301 F200.000
G1 X-8.226 Y12.150 F200.000
G1 X-8.053 Y12.071 F200.000
G1 X-7.992 Y12.064 F200.000
G1 X-7.936 Y12.086 F200.000
G1 X-7.936 Y12.086 F200.000
G1 X-7.842 Y12.169 F200.000
G1 X-7.801 Y12.248 F200.000
G0 X-7.793 Y12.278
G0 X-7.812 Y12.455
G0 X-8.286 Y15.064
G1 X-8.289 Y15.102 F200.000
G1 X-8.323 Y15.218 F200.000
G1 X-8.365 Y15.248 F200.000
G1 X-8.451 Y15.256 F200.000
G1 X-8.571 Y15.218 F200.000
G1 X-8.571 Y15.218 F200.000
G1 X-8.827 Y15.064 F200.000
G1 X-9.004 Y14.898 F200.000
G1 X-9.180 Y14.579 F200.000
G1 X-9.289 Y14.226 F200.000
G1 X-9.361 Y13.797 F200.000
G1 X-9.350 Y13.425 F200.000
G1 X-9.312 Y13.192 F200.000
G1 X-9.256 Y12.985 F200.000
G1 X-9.180 Y12.771 F200.000
G1 X-9.019 Y12.466 F200.000
G1 X-8.872 Y12.263 F200.000
G1 X-8.714 Y12.098 F200.000
G1 X-8.455 Y11.925 F200.000
G1 X-8.338 Y11.876 F200.000
G1 X-8.278 Y11.868 F200.000
G1 X-8.278 Y11.868 F200.000
G1 X-8.184 Y11.951 F200.000
G1 X-8.143 Y12.030 F200.000
G0 X-8.135 Y12.060
G0 X-8.154 Y12.237
G0 X-8.647 Y14.853
G1 X-8.654 Y14.891 F200.000
G1 X-8.688 Y15.008 F200.000
G1 X-8.729 Y15.038 F200.000
G1 X-8.816 Y15.045 F200.000
G1 X-8.936 Y15.008 F200.000
G1 X-8.936 Y15.008 F200.000
G1 X-9.139 Y14.880 F200.000
G1 X-9.316 Y14.722 F200.000
G1 X-9.417 Y14.575 F200.000
G1 X-9.575 Y14.188 F200.000
G1 X-9.628 Y13.947 F200.000
G1 X-9.688 Y13.579 F200.000
G1 X-9.669 Y13.207 F200.000
G1 X-9.624 Y12.970 F200.000
G1 X-9.564 Y12.774 F200.000
G1 X-9.485 Y12.564 F200.000
G1 X-9.327 Y12.267 F200.000
G1 X-9.150 Y12.038 F200.000
G1 X-8.895 Y11.812 F200.000
G1 X-8.733 Y11.718 F200.000
G1 X-8.617 Y11.677 F200.000
G1 X-8.556 Y11.673 F200.000
G1 X-8.556 Y11.673 F200.000
G1 X-8.462 Y11.756 F200.000
G1 X-8.421 Y11.835 F200.000
G0 X-8.414 Y11.865
G0 X-8.440 Y12.038
G0 X-9.000 Y14.647
G1 X-9.008 Y14.684 F200.000
G1 X-9.045 Y14.797 F200.000
G1 X-9.086 Y14.827 F200.000
G1 X-9.173 Y14.831 F200.000
G1 X-9.293 Y14.789 F200.000
G1 X-9.293 Y14.789 F200.000
G1 X-9.534 Y14.620 F200.000
G1 X-9.699 Y14.447 F200.000
G1 X-9.857 Y14.120 F200.000
G1 X-9.947 Y13.759 F200.000
G1 X-10.000 Y13.391 F200.000
G1 X-9.985 Y13.019 F200.000
G1 X-9.940 Y12.778 F200.000
G1 X-9.880 Y12.583 F200.000
G1 X-9.797 Y12.365 F200.000
G1 X-9.650 Y12.094 F200.000
G1 X-9.485 Y11.872 F200.000
G1 X-9.316 Y11.707 F200.000
G1 X-9.109 Y11.549 F200.000
G1 X-8.996 Y11.492 F200.000
G1 X-8.876 Y11.459 F200.000
G1 X-8.816 Y11.466 F200.000
G1 X-8.816 Y11.466 F200.000
G1 X-8.733 Y11.560 F200.000
G1 X-8.703 Y11.643 F200.000
G0 X-8.699 Y11.673
G0 X-8.729 Y11.846
G0 X-9.350 Y14.421
G1 X-9.357 Y14.459 F200.000
G1 X-9.398 Y14.571 F200.000
G1 X-9.440 Y14.602 F200.000
G1 X-9.523 Y14.602 F200.000
G1 X-9.643 Y14.560 F200.000
G1 X-9.643 Y14.560 F200.000
G1 X-9.883 Y14.387 F200.000
G1 X-10.045 Y14.207 F200.000
G1 X-10.173 Y13.929 F200.000
G1 X-10.274 Y13.511 F200.000
G1 X-10.316 Y13.139 F200.000
G1 X-10.289 Y12.767 F200.000
G1 X-10.233 Y12.515 F200.000
G1 X-10.165 Y12.320 F200.000
G1 X-10.083 Y12.117 F200.000
G1 X-9.921 Y11.838 F200.000
G1 X-9.756 Y11.620 F200.000
G1 X-9.511 Y11.402 F200.000
G1 X-9.350 Y11.305 F200.000
G1 X-9.173 Y11.248 F200.000
G1 X-9.113 Y11.244 F200.000
G1 X-9.113 Y11.244 F200.000
G1 X-9.023 Y11.335 F200.000
G1 X-8.989 Y11.417 F200.000
G0 X-8.985 Y11.444
G0 X-9.019 Y11.620
G0 X-9.699 Y14.192
G1 X-9.707 Y14.229 F200.000
G1 X-9.748 Y14.342 F200.000
G1 X-9.793 Y14.368 F200.000
G1 X-9.876 Y14.368 F200.000
G1 X-9.992 Y14.323 F200.000
G1 X-9.992 Y14.323 F200.000
G1 X-10.229 Y14.139 F200.000
G1 X-10.350 Y14.004 F200.000
G1 X-10.485 Y13.729 F200.000
G1 X-10.579 Y13.372 F200.000
G1 X-10.628 Y12.880 F200.000
G1 X-10.590 Y12.508 F200.000
G1 X-10.530 Y12.267 F200.000
G1 X-10.368 Y11.865 F200.000
G1 X-10.195 Y11.575 F200.000
G1 X-10.008 Y11.361 F200.000
G1 X-9.853 Y11.226 F200.000
G1 X-9.677 Y11.113 F200.000
G1 X-9.564 Y11.060 F200.000
G1 X-9.444 Y11.026 F200.000
G1 X-9.383 Y11.023 F200.000
G1 X-9.327 Y11.049 F200.000
G1 X-9.327 Y11.049 F200.000
G1 X-9.244 Y11.143 F200.000
G1 X-9.214 Y11.229 F200.000
G0 X-9.211 Y11.256
G0 X-9.252 Y11.429
G0 X-10.034 Y13.962
G1 X-10.045 Y13.996 F200.000
G1 X-10.090 Y14.109 F200.000
G1 X-10.135 Y14.135 F200.000
G1 X-10.218 Y14.132 F200.000
G1 X-10.335 Y14.083 F200.000
G1 X-10.335 Y14.083 F200.000
G1 X-10.568 Y13.891 F200.000
G1 X-10.718 Y13.703 F200.000
G1 X-10.831 Y13.425 F200.000
G1 X-10.910 Y13.004 F200.000
G1 X-10.932 Y12.632 F200.000
G1 X-10.891 Y12.259 F200.000
G1 X-10.831 Y12.023 F200.000
G1 X-10.756 Y11.831 F200.000
G1 X-10.665 Y11.635 F200.000
G1 X-10.489 Y11.353 F200.000
G1 X-10.301 Y11.143 F200.000
G1 X-10.139 Y11.000 F200.000
G1 X-9.951 Y10.883 F200.000
G1 X-9.838 Y10.831 F200.000
G1 X-9.718 Y10.797 F200.000
G1 X-9.658 Y10.789 F200.000
G1 X-9.602 Y10.812 F200.000
G1 X-9.602 Y10.812 F200.000
G1 X-9.519 Y10.906 F200.000
G1 X-9.489 Y10.992 F200.000
G0 X-9.485 Y11.019
G0 X-9.530 Y11.192
G0 X-10.365 Y13.711
G1 X-10.376 Y13.744 F200.000
G1 X-10.425 Y13.857 F200.000
G1 X-10.466 Y13.880 F200.000
G1 X-10.553 Y13.876 F200.000
G1 X-10.669 Y13.827 F200.000
G1 X-10.669 Y13.827 F200.000
G1 X-10.895 Y13.635 F200.000
G1 X-11.041 Y13.444 F200.000
G1 X-11.132 Y13.222 F200.000
G1 X-11.222 Y12.741 F200.000
G1 X-11.241 Y12.368 F200.000
G1 X-11.188 Y11.996 F200.000
G1 X-11.124 Y11.774 F200.000
G1 X-11.045 Y11.586 F200.000
G1 X-10.947 Y11.383 F200.000
G1 X-10.763 Y11.105 F200.000
G1 X-10.564 Y10.891 F200.000
G1 X-10.395 Y10.756 F200.000
G1 X-10.229 Y10.650 F200.000
G1 X-10.117 Y10.598 F200.000
G1 X-9.936 Y10.553 F200.000
G1 X-9.876 Y10.568 F200.000
G1 X-9.876 Y10.568 F200.000
G1 X-9.789 Y10.695 F200.000
G1 X-9.774 Y10.752 F200.000
G0 X-9.774 Y10.782
G0 X-9.820 Y10.955
G0 X-10.692 Y13.459
G1 X-10.703 Y13.492 F200.000
G1 X-10.756 Y13.602 F200.000
G1 X-10.797 Y13.628 F200.000
G1 X-10.883 Y13.620 F200.000
G1 X-11.000 Y13.568 F200.000
G1 X-11.000 Y13.568 F200.000
G1 X-11.180 Y13.410 F200.000
G1 X-11.331 Y13.222 F200.000
G1 X-11.432 Y13.000 F200.000
G1 X-11.504 Y12.699 F200.000
G1 X-11.530 Y12.459 F200.000
G1 X-11.534 Y12.086 F200.000
G1 X-11.474 Y11.718 F200.000
G1 X-11.398 Y11.485 F200.000
G1 X-11.312 Y11.297 F200.000
G1 X-11.211 Y11.105 F200.000
G1 X-11.023 Y10.842 F200.000
G1 X-10.820 Y10.632 F200.000
G1 X-10.639 Y10.492 F200.000
G1 X-10.466 Y10.387 F200.000
G1 X-10.289 Y10.323 F200.000
G1 X-10.229 Y10.312 F200.000
G1 X-10.169 Y10.312 F200.000
G1 X-10.117 Y10.338 F200.000
G1 X-10.117 Y10.338 F200.000
G1 X-10.030 Y10.466 F200.000
G1 X-10.015 Y10.523 F200.000
G0 X-10.015 Y10.553
G0 X-10.068 Y10.722
G0 X-11.008 Y13.199
G1 X-11.023 Y13.233 F200.000
G1 X-11.075 Y13.342 F200.000
G1 X-11.120 Y13.365 F200.000
G1 X-11.207 Y13.353 F200.000
G1 X-11.320 Y13.297 F200.000
G1 X-11.320 Y13.297 F200.000
G1 X-11.538 Y13.090 F200.000
G1 X-11.647 Y12.947 F200.000
G1 X-11.726 Y12.782 F200.000
G1 X-11.812 Y12.421 F200.000
G1 X-11.835 Y12.180 F200.000
G1 X-11.831 Y11.808 F200.000
G1 X-11.756 Y11.440 F200.000
G1 X-11.677 Y11.222 F200.000
G1 X-11.598 Y11.041 F200.000
G1 X-11.466 Y10.812 F200.000
G1 X-11.289 Y10.575 F200.000
G1 X-11.094 Y10.383 F200.000
G1 X-10.925 Y10.248 F200.000
G1 X-10.699 Y10.124 F200.000
G1 X-10.519 Y10.068 F200.000
G1 X-10.459 Y10.056 F200.000
G1 X-10.398 Y10.060 F200.000
G1 X-10.398 Y10.060 F200.000
G1 X-10.323 Y10.158 F200.000
G1 X-10.301 Y10.244 F200.000
G0 X-10.301 Y10.274
G0 X-10.353 Y10.444
G0 X-11.323 Y12.921
G1 X-11.338 Y12.955 F200.000
G1 X-11.391 Y13.064 F200.000
G1 X-11.436 Y13.086 F200.000
G1 X-11.523 Y13.075 F200.000
G1 X-11.635 Y13.019 F200.000
G1 X-11.635 Y13.019 F200.000
G1 X-11.774 Y12.898 F200.000
G1 X-11.929 Y12.711 F200.000
G1 X-11.989 Y12.605 F200.000
G1 X-12.079 Y12.308 F200.000
G1 X-12.120 Y11.947 F200.000
G1 X-12.105 Y11.515 F200.000
G1 X-12.026 Y11.150 F200.000
G1 X-11.936 Y10.921 F200.000
G1 X-11.846 Y10.744 F200.000
G1 X-11.726 Y10.541 F200.000
G1 X-11.530 Y10.293 F200.000
G1 X-11.320 Y10.094 F200.000
G1 X-11.079 Y9.932 F200.000
G1 X-10.906 Y9.853 F200.000
G1 X-10.726 Y9.808 F200.000
G1 X-10.665 Y9.801 F200.000
G1 X-10.609 Y9.823 F200.000
G1 X-10.609 Y9.823 F200.000
G1 X-10.530 Y9.959 F200.000
G1 X-10.523 Y10.015 F200.000
G0 X-10.523 Y10.045
G0 X-10.583 Y10.211
G0 X-11.635 Y12.654
G1 X-11.650 Y12.688 F200.000
G1 X-11.707 Y12.793 F200.000
G1 X-11.752 Y12.816 F200.000
G1 X-11.838 Y12.801 F200.000
G1 X-11.947 Y12.741 F200.000
G1 X-11.947 Y12.741 F200.000
G1 X-12.158 Y12.526 F200.000
G1 X-12.289 Y12.323 F200.000
G1 X-12.372 Y12.026 F200.000
G1 X-12.402 Y11.545 F200.000
G1 X-12.372 Y11.173 F200.000
G1 X-12.274 Y10.812 F200.000
G1 X-12.173 Y10.586 F200.000
G1 X-12.075 Y10.410 F200.000
G1 X-11.947 Y10.218 F200.000
G1 X-11.744 Y9.981 F200.000
G1 X-11.511 Y9.786 F200.000
G1 X-11.211 Y9.613 F200.000
G1 X-11.030 Y9.556 F200.000
G1 X-10.910 Y9.538 F200.000
G1 X-10.853 Y9.556 F200.000
G1 X-10.853 Y9.556 F200.000
G1 X-10.786 Y9.662 F200.000
G1 X-10.771 Y9.748 F200.000
G0 X-10.774 Y9.778
G0 X-10.835 Y9.944
G0 X-11.940 Y12.372
G1 X-11.955 Y12.406 F200.000
G1 X-12.015 Y12.511 F200.000
G1 X-12.060 Y12.534 F200.000
G1 X-12.147 Y12.515 F200.000
G1 X-12.252 Y12.451 F200.000
G1 X-12.252 Y12.451 F200.000
G1 X-12.489 Y12.184 F200.000
G1 X-12.583 Y12.030 F200.000
G1 X-12.658 Y11.733 F200.000
G1 X-12.680 Y11.312 F200.000
G1 X-12.639 Y10.880 F200.000
G1 X-12.530 Y10.523 F200.000
G1 X-12.432 Y10.308 F200.000
G1 X-12.323 Y10.117 F200.000
G1 X-12.188 Y9.925 F200.000
G1 X-11.989 Y9.703 F200.000
G1 X-11.771 Y9.526 F200.000
G1 X-11.526 Y9.376 F200.000
G1 X-11.289 Y9.297 F200.000
G1 X-11.169 Y9.278 F200.000
G1 X-11.109 Y9.278 F200.000
G1 X-11.060 Y9.312 F200.000
G1 X-11.060 Y9.312 F200.000
G1 X-10.992 Y9.417 F200.000
G1 X-10.977 Y9.504 F200.000
G0 X-10.981 Y9.534
G0 X-11.049 Y9.699
G0 X-12.226 Y12.075
G1 X-12.244 Y12.109 F200.000
G1 X-12.305 Y12.214 F200.000
G1 X-12.353 Y12.233 F200.000
G1 X-12.440 Y12.214 F200.000
G1 X-12.545 Y12.150 F200.000
G1 X-12.545 Y12.150 F200.000
G1 X-12.673 Y12.019 F200.000
G1 X-12.846 Y11.767 F200.000
G1 X-12.891 Y11.654 F200.000
G1 X-12.947 Y11.353 F200.000
G1 X-12.947 Y10.992 F200.000
G1 X-12.910 Y10.620 F200.000
G1 X-12.801 Y10.263 F200.000
G1 X-12.692 Y10.030 F200.000
G1 X-12.583 Y9.846 F200.000
G1 X-12.447 Y9.658 F200.000
G1 X-12.244 Y9.432 F200.000
G1 X-12.026 Y9.256 F200.000
G1 X-11.831 Y9.139 F200.000
G1 X-11.639 Y9.049 F200.000
G1 X-11.519 Y9.015 F200.000
G1 X-11.398 Y9.000 F200.000
G1 X-11.338 Y9.004 F200.000
G1 X-11.338 Y9.004 F200.000
G1 X-11.274 Y9.109 F200.000
G1 X-11.263 Y9.195 F200.000
G0 X-11.267 Y9.226
G0 X-11.338 Y9.387
G0 X-12.556 Y11.729
G1 X-12.575 Y11.763 F200.000
G1 X-12.639 Y11.868 F200.000
G1 X-12.688 Y11.887 F200.000
G1 X-12.771 Y11.868 F200.000
G1 X-12.876 Y11.801 F200.000
G1 X-12.876 Y11.801 F200.000
G1 X-13.064 Y11.564 F200.000
G1 X-13.147 Y11.402 F200.000
G1 X-13.203 Y11.165 F200.000
G1 X-13.222 Y10.805 F200.000
G1 X-13.207 Y10.624 F200.000
G1 X-13.147 Y10.256 F200.000
G1 X-13.023 Y9.902 F200.000
G1 X-12.906 Y9.677 F200.000
G1 X-12.793 Y9.500 F200.000
G1 X-12.639 Y9.308 F200.000
G1 X-12.440 Y9.109 F200.000
G1 X-12.218 Y8.932 F200.000
G1 X-11.981 Y8.805 F200.000
G1 X-11.801 Y8.744 F200.000
G1 X-11.620 Y8.722 F200.000
G1 X-11.560 Y8.722 F200.000
G1 X-11.508 Y8.756 F200.000
G1 X-11.508 Y8.756 F200.000
G1 X-11.447 Y8.865 F200.000
G1 X-11.440 Y8.951 F200.000
G0 X-11.444 Y8.981
G0 X-11.519 Y9.139
G0 X-12.793 Y11.474
G1 X-12.812 Y11.504 F200.000
G1 X-12.880 Y11.605 F200.000
G1 X-12.929 Y11.620 F200.000
G1 X-13.011 Y11.598 F200.000
G1 X-13.117 Y11.530 F200.000
G1 X-13.117 Y11.530 F200.000
G1 X-13.308 Y11.297 F200.000
G1 X-13.417 Y11.079 F200.000
G1 X-13.466 Y10.838 F200.000
G1 X-13.474 Y10.417 F200.000
G1 X-13.459 Y10.297 F200.000
G1 X-13.387 Y9.929 F200.000
G1 X-13.256 Y9.579 F200.000
G1 X-13.135 Y9.368 F200.000
G1 X-13.023 Y9.195 F200.000
G1 X-12.850 Y8.981 F200.000
G1 X-12.632 Y8.778 F200.000
G1 X-12.425 Y8.635 F200.000
G1 X-12.124 Y8.492 F200.000
G1 X-11.944 Y8.447 F200.000
G1 X-11.823 Y8.436 F200.000
G1 X-11.763 Y8.444 F200.000
G1 X-11.714 Y8.481 F200.000
G1 X-11.714 Y8.481 F200.000
G1 X-11.654 Y8.590 F200.000
G1 X-11.647 Y8.677 F200.000
G0 X-11.650 Y8.707
G0 X-11.729 Y8.865
G0 X-13.071 Y11.162
G1 X-13.090 Y11.192 F200.000
G1 X-13.162 Y11.293 F200.000
G1 X-13.211 Y11.308 F200.000
G1 X-13.293 Y11.286 F200.000
G1 X-13.391 Y11.214 F200.000
G1 X-13.391 Y11.214 F200.000
G1 X-13.541 Y11.030 F200.000
G1 X-13.658 Y10.816 F200.000
G1 X-13.707 Y10.639 F200.000
G1 X-13.729 Y10.278 F200.000
G1 X-13.699 Y9.977 F200.000
G1 X-13.624 Y9.609 F200.000
G1 X-13.489 Y9.259 F200.000
G1 X-13.357 Y9.034 F200.000
G1 X-13.237 Y8.868 F200.000
G1 X-13.090 Y8.699 F200.000
G1 X-12.865 Y8.492 F200.000
G1 X-12.628 Y8.335 F200.000
G1 X-12.353 Y8.211 F200.000
G1 X-12.173 Y8.162 F200.000
G1 X-11.992 Y8.150 F200.000
G1 X-11.936 Y8.169 F200.000
G1 X-11.936 Y8.169 F200.000
G1 X-11.876 Y8.274 F200.000
G1 X-11.868 Y8.361 F200.000
G0 X-11.872 Y8.391
G0 X-11.951 Y8.549
G0 X-13.338 Y10.850
G1 X-13.357 Y10.880 F200.000
G1 X-13.429 Y10.981 F200.000
G1 X-13.477 Y10.992 F200.000
G1 X-13.560 Y10.966 F200.000
G1 X-13.658 Y10.891 F200.000
G1 X-13.658 Y10.891 F200.000
G1 X-13.805 Y10.695 F200.000
G1 X-13.914 Y10.477 F200.000
G1 X-13.947 Y10.361 F200.000
G1 X-13.974 Y9.940 F200.000
G1 X-13.940 Y9.639 F200.000
G1 X-13.857 Y9.274 F200.000
G1 X-13.711 Y8.929 F200.000
G1 X-13.579 Y8.718 F200.000
G1 X-13.455 Y8.556 F200.000
G1 X-13.297 Y8.383 F200.000
G1 X-13.071 Y8.188 F200.000
G1 X-12.831 Y8.023 F200.000
G1 X-12.586 Y7.914 F200.000
G1 X-12.286 Y7.850 F200.000
G1 X-12.165 Y7.853 F200.000
G1 X-12.120 Y7.891 F200.000
G1 X-12.120 Y7.891 F200.000
G1 X-12.068 Y8.004 F200.000
G1 X-12.060 Y8.090 F200.000
G0 X-12.068 Y8.120
G0 X-12.150 Y8.274
G0 X-13.586 Y10.519
G1 X-13.609 Y10.549 F200.000
G1 X-13.680 Y10.647 F200.000
G1 X-13.733 Y10.658 F200.000
G1 X-13.816 Y10.632 F200.000
G1 X-13.914 Y10.556 F200.000
G1 X-13.914 Y10.556 F200.000
G1 X-14.056 Y10.361 F200.000
G1 X-14.165 Y10.143 F200.000
G1 X-14.199 Y10.026 F200.000
G1 X-14.222 Y9.665 F200.000
G1 X-14.177 Y9.305 F200.000
G1 X-14.086 Y8.940 F200.000
G1 X-13.929 Y8.602 F200.000
G1 X-13.801 Y8.402 F200.000
G1 X-13.669 Y8.237 F200.000
G1 X-13.508 Y8.064 F200.000
G1 X-13.274 Y7.868 F200.000
G1 X-13.030 Y7.707 F200.000
G1 X-12.718 Y7.583 F200.000
G1 X-12.538 Y7.549 F200.000
G1 X-12.417 Y7.545 F200.000
G1 X-12.357 Y7.556 F200.000
G1 X-12.312 Y7.594 F200.000
G1 X-12.312 Y7.594 F200.000
G1 X-12.259 Y7.737 F200.000
G1 X-12.259 Y7.793 F200.000
G0 X-12.267 Y7.823
G0 X-12.353 Y7.974
G0 X-13.831 Y10.180
G1 X-13.853 Y10.211 F200.000
G1 X-13.929 Y10.308 F200.000
G1 X-13.977 Y10.320 F200.000
G1 X-14.064 Y10.293 F200.000
G1 X-14.162 Y10.218 F200.000
G1 X-14.162 Y10.218 F200.000
G1 X-14.331 Y9.970 F200.000
G1 X-14.425 Y9.748 F200.000
G1 X-14.459 Y9.447 F200.000
G1 X-14.414 Y9.026 F200.000
G1 X-14.301 Y8.605 F200.000
G1 X-14.135 Y8.267 F200.000
G1 X-14.000 Y8.068 F200.000
G1 X-13.872 Y7.898 F200.000
G1 X-13.677 Y7.699 F200.000
G1 X-13.455 Y7.526 F200.000
G1 X-13.237 Y7.395 F200.000
G1 X-12.959 Y7.286 F200.000
G1 X-12.718 Y7.237 F200.000
G1 X-12.538 Y7.244 F200.000
G1 X-12.492 Y7.282 F200.000
G1 X-12.492 Y7.282 F200.000
G1 X-12.447 Y7.429 F200.000
G1 X-12.455 Y7.485 F200.000
G0 X-12.462 Y7.511
G0 X-12.556 Y7.662
G0 X-14.117 Y9.805
G1 X-14.139 Y9.835 F200.000
G1 X-14.218 Y9.929 F200.000
G1 X-14.267 Y9.940 F200.000
G1 X-14.350 Y9.910 F200.000
G1 X-14.440 Y9.827 F200.000
G1 X-14.440 Y9.827 F200.000
G1 X-14.564 Y9.624 F200.000
G1 X-14.639 Y9.455 F200.000
G1 X-14.673 Y9.335 F200.000
G1 X-14.688 Y9.094 F200.000
G1 X-14.632 Y8.673 F200.000
G1 X-14.504 Y8.256 F200.000
G1 X-14.338 Y7.921 F200.000
G1 X-14.180 Y7.699 F200.000
G1 X-14.045 Y7.541 F200.000
G1 X-13.865 Y7.372 F200.000
G1 X-13.643 Y7.203 F200.000
G1 X-13.395 Y7.056 F200.000
G1 X-13.019 Y6.936 F200.000
G1 X-12.838 Y6.914 F200.000
G1 X-12.718 Y6.925 F200.000
G1 X-12.669 Y6.962 F200.000
G1 X-12.669 Y6.962 F200.000
G1 X-12.624 Y7.109 F200.000
G1 X-12.632 Y7.165 F200.000
G0 X-12.639 Y7.192
G0 X-12.737 Y7.342
G0 X-14.346 Y9.462
G1 X-14.368 Y9.492 F200.000
G1 X-14.447 Y9.583 F200.000
G1 X-14.500 Y9.594 F200.000
G1 X-14.579 Y9.560 F200.000
G1 X-14.669 Y9.477 F200.000
G1 X-14.669 Y9.477 F200.000
G1 X-14.797 Y9.274 F200.000
G1 X-14.883 Y9.045 F200.000
G1 X-14.910 Y8.865 F200.000
G1 X-14.883 Y8.504 F200.000
G1 X-14.831 Y8.263 F200.000
G1 X-14.714 Y7.906 F200.000
G1 X-14.534 Y7.575 F200.000
G1 X-14.391 Y7.380 F200.000
G1 X-14.256 Y7.218 F200.000
G1 X-14.056 Y7.030 F200.000
G1 X-13.816 Y6.857 F200.000
G1 X-13.590 Y6.737 F200.000
G1 X-13.316 Y6.632 F200.000
G1 X-13.135 Y6.598 F200.000
G1 X-12.955 Y6.598 F200.000
G1 X-12.895 Y6.605 F200.000
G1 X-12.846 Y6.643 F200.000
G1 X-12.846 Y6.643 F200.000
G1 X-12.801 Y6.789 F200.000
G1 X-12.808 Y6.846 F200.000
G0 X-12.816 Y6.872
G0 X-12.914 Y7.019
G0 X-14.571 Y9.117
G1 X-14.598 Y9.143 F200.000
G1 X-14.677 Y9.233 F200.000
G1 X-14.729 Y9.241 F200.000
G1 X-14.808 Y9.211 F200.000
G1 X-14.895 Y9.124 F200.000
G1 X-14.895 Y9.124 F200.000
G1 X-15.015 Y8.910 F200.000
G1 X-15.079 Y8.741 F200.000
G1 X-15.105 Y8.620 F200.000
G1 X-15.105 Y8.259 F200.000
G1 X-15.045 Y7.959 F200.000
G1 X-14.906 Y7.545 F200.000
G1 X-14.722 Y7.218 F200.000
G1 X-14.556 Y7.004 F200.000
G1 X-14.252 Y6.707 F200.000
G1 X-13.977 Y6.511 F200.000
G1 X-13.699 Y6.380 F200.000
G1 X-13.440 Y6.297 F200.000
G1 X-13.259 Y6.267 F200.000
G1 X-13.079 Y6.278 F200.000
G1 X-13.023 Y6.305 F200.000
G1 X-13.023 Y6.305 F200.000
G1 X-12.985 Y6.421 F200.000
G1 X-12.989 Y6.508 F200.000
G0 X-13.000 Y6.534
G0 X-13.098 Y6.680
G0 X-14.767 Y8.812
G1 X-14.793 Y8.842 F200.000
G1 X-14.872 Y8.932 F200.000
G1 X-14.921 Y8.940 F200.000
G1 X-15.000 Y8.902 F200.000
G1 X-15.083 Y8.816 F200.000
G1 X-15.083 Y8.816 F200.000
G1 X-15.226 Y8.545 F200.000
G1 X-15.289 Y8.376 F200.000
G1 X-15.316 Y8.256 F200.000
G1 X-15.312 Y7.955 F200.000
G1 X-15.259 Y7.654 F200.000
G1 X-15.222 Y7.534 F200.000
G1 X-15.086 Y7.184 F200.000
G1 X-14.898 Y6.861 F200.000
G1 X-14.711 Y6.628 F200.000
G1 X-14.556 Y6.477 F200.000
G1 X-14.387 Y6.335 F200.000
G1 X-14.147 Y6.173 F200.000
G1 X-13.876 Y6.038 F200.000
G1 X-13.560 Y5.955 F200.000
G1 X-13.320 Y5.936 F200.000
G1 X-13.259 Y5.944 F200.000
G1 X-13.199 Y5.962 F200.000
G1 X-13.158 Y6.008 F200.000
G1 X-13.158 Y6.008 F200.000
G1 X-13.124 Y6.154 F200.000
G1 X-13.132 Y6.211 F200.000
G0 X-13.143 Y6.237
G0 X-13.248 Y6.380
G0 X-14.992 Y8.398
G1 X-15.019 Y8.425 F200.000
G1 X-15.105 Y8.511 F200.000
G1 X-15.154 Y8.519 F200.000
G1 X-15.233 Y8.485 F200.000
G1 X-15.316 Y8.395 F200.000
G1 X-15.316 Y8.395 F200.000
G1 X-15.432 Y8.180 F200.000
G1 X-15.508 Y7.947 F200.000
G1 X-15.526 Y7.827 F200.000
G1 X-15.515 Y7.586 F200.000
G1 X-15.429 Y7.226 F200.000
G1 X-15.241 Y6.759 F200.000
G1 X-15.034 Y6.447 F200.000
G1 X-14.857 Y6.248 F200.000
G1 X-14.699 Y6.102 F200.000
G1 X-14.515 Y5.955 F200.000
G1 X-14.256 Y5.797 F200.000
G1 X-13.981 Y5.684 F200.000
G1 X-13.695 Y5.613 F200.000
G1 X-13.455 Y5.609 F200.000
G1 X-13.338 Y5.639 F200.000
G1 X-13.338 Y5.639 F200.000
G1 X-13.305 Y5.756 F200.000
G1 X-13.316 Y5.842 F200.000
G0 X-13.327 Y5.868
G0 X-13.432 Y6.011
G0 X-15.195 Y8.030
G1 X-15.222 Y8.056 F200.000
G1 X-15.308 Y8.143 F200.000
G1 X-15.357 Y8.150 F200.000
G1 X-15.436 Y8.117 F200.000
G1 X-15.519 Y8.026 F200.000
G1 X-15.519 Y8.026 F200.000
G1 X-15.647 Y7.748 F200.000
G1 X-15.707 Y7.511 F200.000
G1 X-15.688 Y7.150 F200.000
G1 X-15.609 Y6.850 F200.000
G1 X-15.564 Y6.733 F200.000
G1 X-15.406 Y6.391 F200.000
G1 X-15.195 Y6.083 F200.000
G1 X-15.015 Y5.880 F200.000
G1 X-14.842 Y5.729 F200.000
G1 X-14.665 Y5.598 F200.000
G1 X-14.417 Y5.455 F200.000
G1 X-14.147 Y5.342 F200.000
G1 X-13.771 Y5.267 F200.000
G1 X-13.590 Y5.274 F200.000
G1 X-13.474 Y5.308 F200.000
G1 X-13.436 Y5.353 F200.000
G1 X-13.436 Y5.353 F200.000
G1 X-13.414 Y5.474 F200.000
G1 X-13.429 Y5.560 F200.000
G0 X-13.440 Y5.586
G0 X-13.556 Y5.722
G0 X-15.410 Y7.620
G1 X-15.432 Y7.647 F200.000
G1 X-15.526 Y7.729 F200.000
G1 X-15.575 Y7.733 F200.000
G1 X-15.650 Y7.692 F200.000
G1 X-15.729 Y7.594 F200.000
G1 X-15.729 Y7.594 F200.000
G1 X-15.850 Y7.312 F200.000
G1 X-15.887 Y7.132 F200.000
G1 X-15.865 Y6.831 F200.000
G1 X-15.786 Y6.530 F200.000
G1 X-15.718 Y6.353 F200.000
G1 X-15.560 Y6.015 F200.000
G1 X-15.342 Y5.711 F200.000
G1 X-15.173 Y5.526 F200.000
G1 X-15.004 Y5.383 F200.000
G1 X-14.827 Y5.252 F200.000
G1 X-14.553 Y5.098 F200.000
G1 X-14.274 Y4.992 F200.000
G1 X-13.985 Y4.932 F200.000
G1 X-13.744 Y4.929 F200.000
G1 X-13.624 Y4.955 F200.000
G1 X-13.575 Y4.989 F200.000
G1 X-13.575 Y4.989 F200.000
G1 X-13.549 Y5.135 F200.000
G1 X-13.564 Y5.192 F200.000
G0 X-13.575 Y5.218
G0 X-13.692 Y5.353
G0 X-15.583 Y7.244
G1 X-15.613 Y7.274 F200.000
G1 X-15.703 Y7.353 F200.000
G1 X-15.756 Y7.357 F200.000
G1 X-15.831 Y7.316 F200.000
G1 X-15.910 Y7.218 F200.000
G1 X-15.910 Y7.218 F200.000
G1 X-16.019 Y6.936 F200.000
G1 X-16.056 Y6.756 F200.000
G1 X-16.060 Y6.635 F200.000
G1 X-15.992 Y6.274 F200.000
G1 X-15.887 Y5.981 F200.000
G1 X-15.722 Y5.647 F200.000
G1 X-15.500 Y5.346 F200.000
G1 X-15.327 Y5.165 F200.000
G1 X-15.165 Y5.030 F200.000
G1 X-14.970 Y4.895 F200.000
G1 X-14.711 Y4.752 F200.000
G1 X-14.432 Y4.650 F200.000
G1 X-14.083 Y4.586 F200.000
G1 X-13.902 Y4.586 F200.000
G1 X-13.782 Y4.605 F200.000
G1 X-13.726 Y4.628 F200.000
G1 X-13.726 Y4.628 F200.000
G1 X-13.703 Y4.748 F200.000
G1 X-13.718 Y4.835 F200.000
G0 X-13.729 Y4.861
G0 X-13.850 Y4.992
G0 X-15.763 Y6.868
G1 X-15.789 Y6.895 F200.000
G1 X-15.883 Y6.974 F200.000
G1 X-15.932 Y6.974 F200.000
G1 X-16.004 Y6.929 F200.000
G1 X-16.079 Y6.831 F200.000
G1 X-16.079 Y6.831 F200.000
G1 X-16.169 Y6.605 F200.000
G1 X-16.218 Y6.365 F200.000
G1 X-16.222 Y6.244 F200.000
G1 X-16.169 Y5.944 F200.000
G1 X-16.038 Y5.594 F200.000
G1 X-15.865 Y5.259 F200.000
G1 X-15.635 Y4.962 F200.000
G1 X-15.462 Y4.793 F200.000
G1 X-15.297 Y4.658 F200.000
G1 X-15.094 Y4.523 F200.000
G1 X-14.835 Y4.391 F200.000
G1 X-14.568 Y4.293 F200.000
G1 X-14.241 Y4.237 F200.000
G1 X-14.000 Y4.237 F200.000
G1 X-13.880 Y4.263 F200.000
G1 X-13.827 Y4.293 F200.000
G1 X-13.827 Y4.293 F200.000
G1 X-13.808 Y4.414 F200.000
G1 X-13.823 Y4.481 F200.000
G0 X-13.838 Y4.511
G0 X-13.962 Y4.650
G0 X-15.921 Y6.485
G1 X-15.947 Y6.511 F200.000
G1 X-16.045 Y6.586 F200.000
G1 X-16.094 Y6.586 F200.000
G1 X-16.165 Y6.541 F200.000
G1 X-16.237 Y6.444 F200.000
G1 X-16.237 Y6.444 F200.000
G1 X-16.342 Y6.154 F200.000
G1 X-16.376 Y5.914 F200.000
G1 X-16.361 Y5.733 F200.000
G1 X-16.207 Y5.259 F200.000
G1 X-16.150 Y5.147 F200.000
G1 X-15.959 Y4.823 F200.000
G1 X-15.714 Y4.538 F200.000
G1 X-15.523 Y4.365 F200.000
G1 X-15.346 Y4.241 F200.000
G1 X-15.154 Y4.124 F200.000
G1 X-14.876 Y3.996 F200.000
G1 X-14.586 Y3.917 F200.000
G1 X-14.293 Y3.883 F200.000
G1 X-14.113 Y3.895 F200.000
G1 X-13.992 Y3.921 F200.000
G1 X-13.936 Y3.944 F200.000
G1 X-13.936 Y3.944 F200.000
G1 X-13.917 Y4.064 F200.000
G1 X-13.932 Y4.132 F200.000
G0 X-13.947 Y4.162
G0 X-14.030 Y4.256
G0 X-16.094 Y6.049
G1 X-16.120 Y6.075 F200.000
G1 X-16.222 Y6.147 F200.000
G1 X-16.271 Y6.147 F200.000
G1 X-16.342 Y6.098 F200.000
G1 X-16.410 Y5.996 F200.000
G1 X-16.410 Y5.996 F200.000
G1 X-16.504 Y5.639 F200.000
G1 X-16.515 Y5.519 F200.000
G1 X-16.466 Y5.218 F200.000
G1 X-16.308 Y4.812 F200.000
G1 X-16.083 Y4.436 F200.000
G1 X-15.835 Y4.154 F200.000
G1 X-15.643 Y3.992 F200.000
G1 X-15.466 Y3.868 F200.000
G1 X-15.263 Y3.752 F200.000
G1 X-14.989 Y3.635 F200.000
G1 X-14.718 Y3.556 F200.000
G1 X-14.331 Y3.526 F200.000
G1 X-14.150 Y3.549 F200.000
G1 X-14.034 Y3.590 F200.000
G1 X-14.034 Y3.590 F200.000
G1 X-14.019 Y3.707 F200.000
G1 X-14.038 Y3.793 F200.000
G0 X-14.053 Y3.820
G0 X-14.180 Y3.940
G0 X-16.237 Y5.662
G1 X-16.263 Y5.688 F200.000
G1 X-16.365 Y5.756 F200.000
G1 X-16.414 Y5.752 F200.000
G1 X-16.481 Y5.703 F200.000
G1 X-16.549 Y5.598 F200.000
G1 X-16.549 Y5.598 F200.000
G1 X-16.620 Y5.365 F200.000
G1 X-16.647 Y5.184 F200.000
G1 X-16.639 Y5.004 F200.000
G1 X-16.534 Y4.643 F200.000
G1 X-16.395 Y4.361 F200.000
G1 X-16.192 Y4.045 F200.000
G1 X-15.936 Y3.771 F200.000
G1 X-15.733 Y3.605 F200.000
G1 X-15.553 Y3.485 F200.000
G1 X-15.338 Y3.368 F200.000
G1 X-15.056 Y3.256 F200.000
G1 X-14.793 Y3.184 F200.000
G1 X-14.462 Y3.162 F200.000
G1 X-14.282 Y3.184 F200.000
G1 X-14.165 Y3.222 F200.000
G1 X-14.113 Y3.252 F200.000
G1 X-14.113 Y3.252 F200.000
G1 X-14.105 Y3.398 F200.000
G1 X-14.124 Y3.455 F200.000
G0 X-14.139 Y3.477
G0 X-14.271 Y3.598
G0 X-16.365 Y5.267
G1 X-16.391 Y5.293 F200.000
G1 X-16.492 Y5.357 F200.000
G1 X-16.545 Y5.357 F200.000
G1 X-16.613 Y5.305 F200.000
G1 X-16.680 Y5.199 F200.000
G1 X-16.680 Y5.199 F200.000
G1 X-16.756 Y4.902 F200.000
G1 X-16.771 Y4.662 F200.000
G1 X-16.737 Y4.481 F200.000
G1 X-16.605 Y4.132 F200.000
G1 X-16.515 Y3.966 F200.000
G1 X-16.301 Y3.658 F200.000
G1 X-16.045 Y3.383 F200.000
G1 X-15.831 Y3.214 F200.000
G1 X-15.643 Y3.098 F200.000
G1 X-15.440 Y2.992 F200.000
G1 X-15.150 Y2.883 F200.000
G1 X-14.876 Y2.816 F200.000
G1 X-14.549 Y2.801 F200.000
G1 X-14.368 Y2.823 F200.000
G1 X-14.195 Y2.887 F200.000
G1 X-14.165 Y2.940 F200.000
G1 X-14.165 Y2.940 F200.000
G1 X-14.169 Y3.086 F200.000
G1 X-14.192 Y3.143 F200.000
G0 X-14.207 Y3.165
G0 X-14.342 Y3.282
G0 X-16.489 Y4.876
G1 X-16.519 Y4.898 F200.000
G1 X-16.624 Y4.962 F200.000
G1 X-16.673 Y4.955 F200.000
G1 X-16.741 Y4.902 F200.000
G1 X-16.801 Y4.797 F200.000
G1 X-16.801 Y4.797 F200.000
G1 X-16.872 Y4.496 F200.000
G1 X-16.887 Y4.256 F200.000
G1 X-16.827 Y4.015 F200.000
G1 X-16.613 Y3.568 F200.000
G1 X-16.361 Y3.211 F200.000
G1 X-16.090 Y2.951 F200.000
G1 X-15.891 Y2.805 F200.000
G1 X-15.703 Y2.695 F200.000
G1 X-15.485 Y2.594 F200.000
G1 X-15.207 Y2.500 F200.000
G1 X-14.925 Y2.440 F200.000
G1 X-14.598 Y2.436 F200.000
G1 X-14.417 Y2.470 F200.000
G1 X-14.301 Y2.511 F200.000
G1 X-14.252 Y2.549 F200.000
G1 X-14.252 Y2.549 F200.000
G1 X-14.244 Y2.665 F200.000
G1 X-14.271 Y2.752 F200.000
G0 X-14.286 Y2.774
G0 X-14.425 Y2.887
G0 X-16.613 Y4.417
G1 X-16.643 Y4.440 F200.000
G1 X-16.748 Y4.500 F200.000
G1 X-16.797 Y4.492 F200.000
G1 X-16.865 Y4.440 F200.000
G1 X-16.925 Y4.335 F200.000
G1 X-16.925 Y4.335 F200.000
G1 X-16.981 Y4.034 F200.000
G1 X-16.989 Y3.853 F200.000
G1 X-16.970 Y3.733 F200.000
G1 X-16.835 Y3.383 F200.000
G1 X-16.677 Y3.109 F200.000
G1 X-16.447 Y2.812 F200.000
G1 X-16.173 Y2.556 F200.000
G1 X-15.959 Y2.410 F200.000
G1 X-15.771 Y2.308 F200.000
G1 X-15.564 Y2.218 F200.000
G1 X-15.271 Y2.124 F200.000
G1 X-14.966 Y2.068 F200.000
G1 X-14.635 Y2.071 F200.000
G1 X-14.398 Y2.135 F200.000
G1 X-14.342 Y2.162 F200.000
G1 X-14.305 Y2.207 F200.000
G1 X-14.305 Y2.207 F200.000
G1 X-14.316 Y2.335 F200.000
G1 X-14.342 Y2.398 F200.000
G0 X-14.361 Y2.425
G0 X-14.500 Y2.534
G0 X-16.718 Y4.015
G1 X-16.748 Y4.038 F200.000
G1 X-16.857 Y4.098 F200.000
G1 X-16.906 Y4.090 F200.000
G1 X-16.970 Y4.034 F200.000
G1 X-17.023 Y3.925 F200.000
G1 X-17.023 Y3.925 F200.000
G1 X-17.075 Y3.684 F200.000
G1 X-17.079 Y3.383 F200.000
G1 X-16.985 Y3.086 F200.000
G1 X-16.771 Y2.707 F200.000
G1 X-16.534 Y2.414 F200.000
G1 X-16.252 Y2.165 F200.000
G1 X-16.045 Y2.023 F200.000
G1 X-15.846 Y1.917 F200.000
G1 X-15.632 Y1.827 F200.000
G1 X-15.350 Y1.744 F200.000
G1 X-15.068 Y1.699 F200.000
G1 X-14.741 Y1.703 F200.000
G1 X-14.560 Y1.737 F200.000
G1 X-14.387 Y1.805 F200.000
G1 X-14.350 Y1.850 F200.000
G1 X-14.350 Y1.850 F200.000
G1 X-14.372 Y1.996 F200.000
G1 X-14.398 Y2.045 F200.000
G0 X-14.417 Y2.068
G0 X-14.564 Y2.173
G0 X-16.820 Y3.560
G1 X-16.850 Y3.579 F200.000
G1 X-16.959 Y3.632 F200.000
G1 X-17.008 Y3.624 F200.000
G1 X-17.068 Y3.564 F200.000
G1 X-17.120 Y3.455 F200.000
G1 X-17.120 Y3.455 F200.000
G1 X-17.165 Y3.214 F200.000
G1 X-17.165 Y2.974 F200.000
G1 X-17.068 Y2.677 F200.000
G1 X-16.914 Y2.406 F200.000
G1 X-16.801 Y2.248 F200.000
G1 X-16.556 Y1.962 F200.000
G1 X-16.263 Y1.726 F200.000
G1 X-16.053 Y1.602 F200.000
G1 X-15.868 Y1.515 F200.000
G1 X-15.647 Y1.432 F200.000
G1 X-15.361 Y1.361 F200.000
G1 X-15.064 Y1.323 F200.000
G1 X-14.793 Y1.335 F200.000
G1 X-14.556 Y1.398 F200.000
G1 X-14.447 Y1.451 F200.000
G1 X-14.398 Y1.489 F200.000
G1 X-14.398 Y1.489 F200.000
G1 X-14.410 Y1.617 F200.000
G1 X-14.436 Y1.680 F200.000
G0 X-14.455 Y1.703
G0 X-14.602 Y1.808
G0 X-16.898 Y3.150
G1 X-16.929 Y3.169 F200.000
G1 X-17.038 Y3.222 F200.000
G1 X-17.086 Y3.214 F200.000
G1 X-17.150 Y3.154 F200.000
G1 X-17.203 Y3.045 F200.000
G1 X-17.203 Y3.045 F200.000
G1 X-17.248 Y2.744 F200.000
G1 X-17.244 Y2.564 F200.000
G1 X-17.218 Y2.444 F200.000
G1 X-17.060 Y2.105 F200.000
G1 X-16.880 Y1.846 F200.000
G1 X-16.624 Y1.571 F200.000
G1 X-16.331 Y1.338 F200.000
G1 X-16.098 Y1.211 F200.000
G1 X-15.921 Y1.132 F200.000
G1 X-15.699 Y1.053 F200.000
G1 X-15.395 Y0.985 F200.000
G1 X-15.086 Y0.966 F200.000
G1 X-14.857 Y0.981 F200.000
G1 X-14.620 Y1.049 F200.000
G1 X-14.459 Y1.139 F200.000
G1 X-14.421 Y1.184 F200.000
G1 X-14.410 Y1.241 F200.000
G1 X-14.410 Y1.241 F200.000
G1 X-14.432 Y1.387 F200.000
G1 X-14.459 Y1.436 F200.000
G0 X-14.477 Y1.459
G0 X-14.628 Y1.549
G0 X-16.977 Y2.748
G1 X-17.011 Y2.767 F200.000
G1 X-17.124 Y2.816 F200.000
G1 X-17.173 Y2.801 F200.000
G1 X-17.229 Y2.741 F200.000
G1 X-17.274 Y2.632 F200.000
G1 X-17.274 Y2.632 F200.000
G1 X-17.312 Y2.331 F200.000
G1 X-17.297 Y2.090 F200.000
G1 X-17.259 Y1.970 F200.000
G1 X-17.083 Y1.643 F200.000
G1 X-16.929 Y1.440 F200.000
G1 X-16.669 Y1.169 F200.000
G1 X-16.365 Y0.947 F200.000
G1 X-16.154 Y0.835 F200.000
G1 X-15.959 Y0.756 F200.000
G1 X-15.741 Y0.688 F200.000
G1 X-15.444 Y0.628 F200.000
G1 X-15.143 Y0.605 F200.000
G1 X-14.872 Y0.635 F200.000
G1 X-14.586 Y0.741 F200.000
G1 X-14.485 Y0.805 F200.000
G1 X-14.447 Y0.850 F200.000
G1 X-14.440 Y0.906 F200.000
G1 X-14.440 Y0.906 F200.000
G1 X-14.451 Y1.023 F200.000
G1 X-14.492 Y1.102 F200.000
G0 X-14.511 Y1.124
G0 X-14.665 Y1.207
G0 X-17.041 Y2.286
G1 X-17.075 Y2.301 F200.000
G1 X-17.192 Y2.342 F200.000
G1 X-17.241 Y2.327 F200.000
G1 X-17.297 Y2.263 F200.000
G1 X-17.338 Y2.154 F200.000
G1 X-17.338 Y2.154 F200.000
G1 X-17.361 Y1.853 F200.000
G1 X-17.342 Y1.673 F200.000
G1 X-17.218 Y1.387 F200.000
G1 X-16.996 Y1.083 F200.000
G1 X-16.688 Y0.774 F200.000
G1 X-16.380 Y0.560 F200.000
G1 X-16.139 Y0.440 F200.000
G1 X-15.932 Y0.361 F200.000
G1 X-15.707 Y0.301 F200.000
G1 X-15.436 Y0.259 F200.000
G1 X-15.150 Y0.252 F200.000
G1 X-14.891 Y0.289 F200.000
G1 X-14.613 Y0.402 F200.000
G1 X-14.511 Y0.466 F200.000
G1 X-14.474 Y0.511 F200.000
G1 X-14.459 Y0.568 F200.000
G1 X-14.459 Y0.568 F200.000
G1 X-14.470 Y0.684 F200.000
G1 X-14.511 Y0.763 F200.000
G0 X-14.530 Y0.782
G0 X-14.688 Y0.865
G0 X-17.090 Y1.872
G1 X-17.124 Y1.887 F200.000
G1 X-17.241 Y1.925 F200.000
G1 X-17.289 Y1.910 F200.000
G1 X-17.346 Y1.846 F200.000
G1 X-17.387 Y1.737 F200.000
G1 X-17.387 Y1.737 F200.000
G1 X-17.402 Y1.496 F200.000
G1 X-17.387 Y1.316 F200.000
G1 X-17.353 Y1.195 F200.000
G1 X-17.199 Y0.921 F200.000
G1 X-16.962 Y0.635 F200.000
G1 X-16.699 Y0.368 F200.000
G1 X-16.383 Y0.165 F200.000
G1 X-16.158 Y0.060 F200.000
G1 X-15.966 Y-0.008 F200.000
G1 X-15.729 Y-0.064 F200.000
G1 X-15.440 Y-0.102 F200.000
G1 X-15.150 Y-0.105 F200.000
G1 X-14.883 Y-0.056 F200.000
G1 X-14.605 Y0.075 F200.000
G1 X-14.508 Y0.147 F200.000
G1 X-14.470 Y0.195 F200.000
G1 X-14.462 Y0.252 F200.000
G1 X-14.462 Y0.252 F200.000
G1 X-14.481 Y0.368 F200.000
G1 X-14.526 Y0.444 F200.000
G0 X-14.549 Y0.462
G0 X-14.707 Y0.538
G0 X-17.132 Y1.462
G1 X-17.165 Y1.477 F200.000
G1 X-17.282 Y1.515 F200.000
G1 X-17.331 Y1.496 F200.000
G1 X-17.387 Y1.432 F200.000
G1 X-17.425 Y1.320 F200.000
G1 X-17.425 Y1.320 F200.000
G1 X-17.429 Y1.079 F200.000
G1 X-17.387 Y0.838 F200.000
G1 X-17.278 Y0.617 F200.000
G1 X-17.008 Y0.271 F200.000
G1 X-16.692 Y-0.030 F200.000
G1 X-16.376 Y-0.226 F200.000
G1 X-16.139 Y-0.327 F200.000
G1 X-15.940 Y-0.387 F200.000
G1 X-15.729 Y-0.432 F200.000
G1 X-15.444 Y-0.462 F200.000
G1 X-15.139 Y-0.455 F200.000
G1 X-14.880 Y-0.402 F200.000
G1 X-14.654 Y-0.297 F200.000
G1 X-14.500 Y-0.184 F200.000
G1 X-14.466 Y-0.132 F200.000
G1 X-14.466 Y-0.132 F200.000
G1 X-14.485 Y-0.004 F200.000
G1 X-14.530 Y0.068 F200.000
G0 X-14.553 Y0.086
G0 X-14.711 Y0.165
G0 X-17.162 Y1.102
G1 X-17.195 Y1.117 F200.000
G1 X-17.312 Y1.154 F200.000
G1 X-17.361 Y1.135 F200.000
G1 X-17.414 Y1.071 F200.000
G1 X-17.447 Y0.959 F200.000
G1 X-17.447 Y0.959 F200.000
G1 X-17.451 Y0.658 F200.000
G1 X-17.417 Y0.477 F200.000
G1 X-17.312 Y0.252 F200.000
G1 X-17.004 Y-0.135 F200.000
G1 X-16.684 Y-0.425 F200.000
G1 X-16.361 Y-0.613 F200.000
G1 X-16.158 Y-0.695 F200.000
G1 X-15.966 Y-0.756 F200.000
G1 X-15.711 Y-0.805 F200.000
G1 X-15.432 Y-0.827 F200.000
G1 X-15.158 Y-0.812 F200.000
G1 X-14.925 Y-0.759 F200.000
G1 X-14.733 Y-0.688 F200.000
G1 X-14.523 Y-0.553 F200.000
G1 X-14.477 Y-0.511 F200.000
G1 X-14.459 Y-0.451 F200.000
G1 X-14.459 Y-0.451 F200.000
G1 X-14.485 Y-0.327 F200.000
G1 X-14.534 Y-0.252 F200.000
G0 X-14.556 Y-0.233
G0 X-14.722 Y-0.162
G0 X-17.184 Y0.695
G1 X-17.218 Y0.707 F200.000
G1 X-17.335 Y0.741 F200.000
G1 X-17.383 Y0.722 F200.000
G1 X-17.432 Y0.654 F200.000
G1 X-17.462 Y0.541 F200.000
G1 X-17.462 Y0.541 F200.000
G1 X-17.462 Y0.301 F200.000
G1 X-17.417 Y0.060 F200.000
G1 X-17.398 Y0.000 F200.000
G1 X-17.203 Y-0.305 F200.000
G1 X-17.008 Y-0.530 F200.000
G1 X-16.677 Y-0.812 F200.000
G1 X-16.350 Y-0.992 F200.000
G1 X-16.139 Y-1.071 F200.000
G1 X-15.944 Y-1.124 F200.000
G1 X-15.711 Y-1.165 F200.000
G1 X-15.425 Y-1.184 F200.000
G1 X-15.139 Y-1.169 F200.000
G1 X-14.876 Y-1.109 F200.000
G1 X-14.650 Y-0.996 F200.000
G1 X-14.500 Y-0.883 F200.000
G1 X-14.455 Y-0.838 F200.000
G1 X-14.440 Y-0.778 F200.000
G1 X-14.440 Y-0.778 F200.000
G1 X-14.466 Y-0.654 F200.000
G1 X-14.515 Y-0.579 F200.000
G0 X-14.538 Y-0.560
G0 X-14.703 Y-0.489
G0 X-17.199 Y0.342
G1 X-17.233 Y0.353 F200.000
G1 X-17.350 Y0.383 F200.000
G1 X-17.398 Y0.365 F200.000
G1 X-17.447 Y0.293 F200.000
G1 X-17.474 Y0.180 F200.000
G1 X-17.474 Y0.180 F200.000
G1 X-17.459 Y-0.169 F200.000
G1 X-17.402 Y-0.395 F200.000
G1 X-17.350 Y-0.500 F200.000
G1 X-17.207 Y-0.695 F200.000
G1 X-16.955 Y-0.959 F200.000
G1 X-16.665 Y-1.192 F200.000
G1 X-16.335 Y-1.368 F200.000
G1 X-16.113 Y-1.447 F200.000
G1 X-15.929 Y-1.496 F200.000
G1 X-15.673 Y-1.534 F200.000
G1 X-15.398 Y-1.545 F200.000
G1 X-15.113 Y-1.519 F200.000
G1 X-14.883 Y-1.459 F200.000
G1 X-14.692 Y-1.387 F200.000
G1 X-14.489 Y-1.241 F200.000
G1 X-14.444 Y-1.195 F200.000
G1 X-14.414 Y-1.139 F200.000
G1 X-14.414 Y-1.139 F200.000
G1 X-14.440 Y-1.011 F200.000
G1 X-14.492 Y-0.936 F200.000
G0 X-14.515 Y-0.917
G0 X-14.677 Y-0.853
G0 X-17.203 Y-0.109
G1 X-17.237 Y-0.098 F200.000
G1 X-17.357 Y-0.075 F200.000
G1 X-17.402 Y-0.098 F200.000
G1 X-17.447 Y-0.173 F200.000
G1 X-17.470 Y-0.297 F200.000
G1 X-17.470 Y-0.297 F200.000
G1 X-17.432 Y-0.635 F200.000
G1 X-17.383 Y-0.805 F200.000
G1 X-17.263 Y-1.004 F200.000
G1 X-17.023 Y-1.274 F200.000
G1 X-16.887 Y-1.391 F200.000
G1 X-16.586 Y-1.613 F200.000
G1 X-16.248 Y-1.771 F200.000
G1 X-16.023 Y-1.838 F200.000
G1 X-15.831 Y-1.876 F200.000
G1 X-15.594 Y-1.898 F200.000
G1 X-15.308 Y-1.898 F200.000
G1 X-15.008 Y-1.853 F200.000
G1 X-14.782 Y-1.782 F200.000
G1 X-14.564 Y-1.662 F200.000
G1 X-14.421 Y-1.545 F200.000
G1 X-14.391 Y-1.489 F200.000
G1 X-14.387 Y-1.429 F200.000
G1 X-14.387 Y-1.429 F200.000
G1 X-14.414 Y-1.301 F200.000
G1 X-14.466 Y-1.226 F200.000
G0 X-14.489 Y-1.207
G0 X-14.654 Y-1.150
G0 X-17.180 Y-0.511
G1 X-17.214 Y-0.504 F200.000
G1 X-17.335 Y-0.485 F200.000
G1 X-17.380 Y-0.511 F200.000
G1 X-17.425 Y-0.586 F200.000
G1 X-17.447 Y-0.714 F200.000
G1 X-17.447 Y-0.714 F200.000
G1 X-17.425 Y-0.996 F200.000
G1 X-17.383 Y-1.165 F200.000
G1 X-17.331 Y-1.274 F200.000
G1 X-17.023 Y-1.643 F200.000
G1 X-16.887 Y-1.763 F200.000
G1 X-16.583 Y-1.977 F200.000
G1 X-16.244 Y-2.135 F200.000
G1 X-16.034 Y-2.195 F200.000
G1 X-15.846 Y-2.233 F200.000
G1 X-15.602 Y-2.259 F200.000
G1 X-15.301 Y-2.259 F200.000
G1 X-15.004 Y-2.214 F200.000
G1 X-14.782 Y-2.143 F200.000
G1 X-14.602 Y-2.064 F200.000
G1 X-14.406 Y-1.914 F200.000
G1 X-14.365 Y-1.868 F200.000
G1 X-14.346 Y-1.808 F200.000
G1 X-14.346 Y-1.808 F200.000
G1 X-14.395 Y-1.658 F200.000
G1 X-14.432 Y-1.609 F200.000
G0 X-14.459 Y-1.590
G0 X-14.624 Y-1.538
G0 X-17.158 Y-0.932
G1 X-17.195 Y-0.925 F200.000
G1 X-17.316 Y-0.906 F200.000
G1 X-17.361 Y-0.932 F200.000
G1 X-17.406 Y-1.008 F200.000
G1 X-17.429 Y-1.135 F200.000
G1 X-17.429 Y-1.135 F200.000
G1 X-17.398 Y-1.417 F200.000
G1 X-17.350 Y-1.586 F200.000
G1 X-17.259 Y-1.741 F200.000
G1 X-16.929 Y-2.090 F200.000
G1 X-16.835 Y-2.165 F200.000
G1 X-16.526 Y-2.372 F200.000
G1 X-16.184 Y-2.519 F200.000
G1 X-15.974 Y-2.575 F200.000
G1 X-15.771 Y-2.613 F200.000
G1 X-15.523 Y-2.632 F200.000
G1 X-15.241 Y-2.620 F200.000
G1 X-14.966 Y-2.579 F200.000
G1 X-14.711 Y-2.496 F200.000
G1 X-14.545 Y-2.410 F200.000
G1 X-14.395 Y-2.293 F200.000
G1 X-14.312 Y-2.199 F200.000
G1 X-14.305 Y-2.139 F200.000
G1 X-14.305 Y-2.139 F200.000
G1 X-14.338 Y-2.015 F200.000
G1 X-14.395 Y-1.944 F200.000
G0 X-14.417 Y-1.929
G0 X-14.586 Y-1.880
G0 X-17.132 Y-1.346
G1 X-17.169 Y-1.338 F200.000
G1 X-17.289 Y-1.323 F200.000
G1 X-17.338 Y-1.350 F200.000
G1 X-17.380 Y-1.425 F200.000
G1 X-17.398 Y-1.553 F200.000
G1 X-17.398 Y-1.553 F200.000
G1 X-17.368 Y-1.778 F200.000
G1 X-17.297 Y-2.004 F200.000
G1 X-17.203 Y-2.154 F200.000
G1 X-16.914 Y-2.455 F200.000
G1 X-16.767 Y-2.564 F200.000
G1 X-16.451 Y-2.763 F200.000
G1 X-16.105 Y-2.902 F200.000
G1 X-15.865 Y-2.959 F200.000
G1 X-15.654 Y-2.989 F200.000
G1 X-15.421 Y-3.000 F200.000
G1 X-15.132 Y-2.977 F200.000
G1 X-14.861 Y-2.925 F200.000
G1 X-14.613 Y-2.831 F200.000
G1 X-14.406 Y-2.692 F200.000
G1 X-14.312 Y-2.605 F200.000
G1 X-14.271 Y-2.556 F200.000
G1 X-14.248 Y-2.500 F200.000
G1 X-14.248 Y-2.500 F200.000
G1 X-14.289 Y-2.376 F200.000
G1 X-14.350 Y-2.305 F200.000
G0 X-14.372 Y-2.289
G0 X-14.541 Y-2.241
G0 X-17.102 Y-1.707
G1 X-17.139 Y-1.699 F200.000
G1 X-17.259 Y-1.684 F200.000
G1 X-17.305 Y-1.711 F200.000
G1 X-17.346 Y-1.786 F200.000
G1 X-17.361 Y-1.914 F200.000
G1 X-17.361 Y-1.914 F200.000
G1 X-17.331 Y-2.139 F200.000
G1 X-17.259 Y-2.365 F200.000
G1 X-17.203 Y-2.466 F200.000
G1 X-16.966 Y-2.737 F200.000
G1 X-16.684 Y-2.962 F200.000
G1 X-16.365 Y-3.154 F200.000
G1 X-16.015 Y-3.282 F200.000
G1 X-15.789 Y-3.331 F200.000
G1 X-15.590 Y-3.357 F200.000
G1 X-15.327 Y-3.365 F200.000
G1 X-15.045 Y-3.331 F200.000
G1 X-14.805 Y-3.278 F200.000
G1 X-14.504 Y-3.147 F200.000
G1 X-14.398 Y-3.079 F200.000
G1 X-14.256 Y-2.951 F200.000
G1 X-14.214 Y-2.902 F200.000
G1 X-14.184 Y-2.846 F200.000
G1 X-14.188 Y-2.786 F200.000
G1 X-14.188 Y-2.786 F200.000
G1 X-14.256 Y-2.639 F200.000
G1 X-14.297 Y-2.598 F200.000
G0 X-14.323 Y-2.583
G0 X-14.496 Y-2.541
G0 X-17.060 Y-2.105
G1 X-17.098 Y-2.102 F200.000
G1 X-17.218 Y-2.094 F200.000
G1 X-17.263 Y-2.120 F200.000
G1 X-17.301 Y-2.199 F200.000
G1 X-17.312 Y-2.327 F200.000
G1 X-17.312 Y-2.327 F200.000
G1 X-17.259 Y-2.609 F200.000
G1 X-17.195 Y-2.774 F200.000
G1 X-17.056 Y-2.970 F200.000
G1 X-16.838 Y-3.180 F200.000
G1 X-16.647 Y-3.323 F200.000
G1 X-16.327 Y-3.515 F200.000
G1 X-15.977 Y-3.647 F200.000
G1 X-15.744 Y-3.695 F200.000
G1 X-15.556 Y-3.714 F200.000
G1 X-15.335 Y-3.718 F200.000
G1 X-15.026 Y-3.688 F200.000
G1 X-14.737 Y-3.628 F200.000
G1 X-14.489 Y-3.526 F200.000
G1 X-14.282 Y-3.383 F200.000
G1 X-14.150 Y-3.252 F200.000
G1 X-14.117 Y-3.199 F200.000
G1 X-14.113 Y-3.139 F200.000
G1 X-14.113 Y-3.139 F200.000
G1 X-14.180 Y-2.992 F200.000
G1 X-14.222 Y-2.951 F200.000
G0 X-14.248 Y-2.936
G0 X-14.421 Y-2.895
G0 X-17.008 Y-2.462
G1 X-17.045 Y-2.459 F200.000
G1 X-17.165 Y-2.451 F200.000
G1 X-17.211 Y-2.477 F200.000
G1 X-17.248 Y-2.556 F200.000
G1 X-17.259 Y-2.684 F200.000
G1 X-17.259 Y-2.684 F200.000
G1 X-17.203 Y-2.966 F200.000
G1 X-17.143 Y-3.135 F200.000
G1 X-17.090 Y-3.241 F200.000
G1 X-16.936 Y-3.421 F200.000
G1 X-16.711 Y-3.620 F200.000
G1 X-16.560 Y-3.722 F200.000
G1 X-16.237 Y-3.906 F200.000
G1 X-15.883 Y-4.023 F200.000
G1 X-15.662 Y-4.060 F200.000
G1 X-15.462 Y-4.075 F200.000
G1 X-15.233 Y-4.075 F200.000
G1 X-14.929 Y-4.041 F200.000
G1 X-14.624 Y-3.959 F200.000
G1 X-14.357 Y-3.831 F200.000
G1 X-14.158 Y-3.677 F200.000
G1 X-14.071 Y-3.583 F200.000
G1 X-14.038 Y-3.530 F200.000
G1 X-14.041 Y-3.470 F200.000
G1 X-14.041 Y-3.466 F200.000
G1 X-14.090 Y-3.350 F200.000
G1 X-14.154 Y-3.282 F200.000
G0 X-14.180 Y-3.267
G0 X-14.353 Y-3.233
G0 X-16.932 Y-2.925
G1 X-16.970 Y-2.921 F200.000
G1 X-17.090 Y-2.917 F200.000
G1 X-17.132 Y-2.947 F200.000
G1 X-17.169 Y-3.030 F200.000
G1 X-17.173 Y-3.158 F200.000
G1 X-17.173 Y-3.158 F200.000
G1 X-17.105 Y-3.440 F200.000
G1 X-17.034 Y-3.602 F200.000
G1 X-16.842 Y-3.827 F200.000
G1 X-16.560 Y-4.056 F200.000
G1 X-16.455 Y-4.120 F200.000
G1 X-16.124 Y-4.289 F200.000
G1 X-15.767 Y-4.395 F200.000
G1 X-15.545 Y-4.429 F200.000
G1 X-15.342 Y-4.444 F200.000
G1 X-15.090 Y-4.432 F200.000
G1 X-14.816 Y-4.391 F200.000
G1 X-14.549 Y-4.308 F200.000
G1 X-14.331 Y-4.207 F200.000
G1 X-14.147 Y-4.094 F200.000
G1 X-14.015 Y-3.962 F200.000
G1 X-13.977 Y-3.914 F200.000
G1 X-13.951 Y-3.857 F200.000
G1 X-13.947 Y-3.797 F200.000
G1 X-13.947 Y-3.797 F200.000
G1 X-14.000 Y-3.680 F200.000
G1 X-14.064 Y-3.617 F200.000
G0 X-14.090 Y-3.602
G0 X-14.263 Y-3.571
G0 X-16.853 Y-3.335
G1 X-16.891 Y-3.331 F200.000
G1 X-17.011 Y-3.331 F200.000
G1 X-17.053 Y-3.361 F200.000
G1 X-17.090 Y-3.444 F200.000
G1 X-17.094 Y-3.571 F200.000
G1 X-17.094 Y-3.571 F200.000
G1 X-17.019 Y-3.853 F200.000
G1 X-16.944 Y-4.011 F200.000
G1 X-16.789 Y-4.188 F200.000
G1 X-16.459 Y-4.447 F200.000
G1 X-16.353 Y-4.508 F200.000
G1 X-16.019 Y-4.669 F200.000
G1 X-15.658 Y-4.767 F200.000
G1 X-15.417 Y-4.793 F200.000
G1 X-15.226 Y-4.801 F200.000
G1 X-14.966 Y-4.782 F200.000
G1 X-14.695 Y-4.733 F200.000
G1 X-14.429 Y-4.643 F200.000
G1 X-14.214 Y-4.538 F200.000
G1 X-14.060 Y-4.429 F200.000
G1 X-13.929 Y-4.293 F200.000
G1 X-13.857 Y-4.192 F200.000
G1 X-13.853 Y-4.132 F200.000
G1 X-13.853 Y-4.132 F200.000
G1 X-13.906 Y-4.015 F200.000
G1 X-13.970 Y-3.951 F200.000
G0 X-13.996 Y-3.936
G0 X-14.169 Y-3.910
G0 X-16.778 Y-3.737
G1 X-16.816 Y-3.737 F200.000
G1 X-16.936 Y-3.741 F200.000
G1 X-16.977 Y-3.771 F200.000
G1 X-17.008 Y-3.853 F200.000
G1 X-17.004 Y-3.981 F200.000
G1 X-17.004 Y-3.981 F200.000
G1 X-16.914 Y-4.263 F200.000
G1 X-16.827 Y-4.417 F200.000
G1 X-16.748 Y-4.511 F200.000
G1 X-16.421 Y-4.782 F200.000
G1 X-16.263 Y-4.876 F200.000
G1 X-15.925 Y-5.034 F200.000
G1 X-15.564 Y-5.128 F200.000
G1 X-15.335 Y-5.154 F200.000
G1 X-15.128 Y-5.162 F200.000
G1 X-14.861 Y-5.139 F200.000
G1 X-14.605 Y-5.086 F200.000
G1 X-14.357 Y-5.008 F200.000
G1 X-14.120 Y-4.883 F200.000
G1 X-13.902 Y-4.714 F200.000
G1 X-13.778 Y-4.568 F200.000
G1 X-13.752 Y-4.511 F200.000
G1 X-13.759 Y-4.451 F200.000
G1 X-13.759 Y-4.451 F200.000
G1 X-13.820 Y-4.342 F200.000
G1 X-13.887 Y-4.278 F200.000
G0 X-13.917 Y-4.267
G0 X-14.090 Y-4.244
G0 X-16.692 Y-4.083
G1 X-16.729 Y-4.083 F200.000
G1 X-16.850 Y-4.086 F200.000
G1 X-16.891 Y-4.117 F200.000
G1 X-16.921 Y-4.199 F200.000
G1 X-16.917 Y-4.327 F200.000
G1 X-16.917 Y-4.327 F200.000
G1 X-16.835 Y-4.609 F200.000
G1 X-16.756 Y-4.767 F200.000
G1 X-16.643 Y-4.902 F200.000
G1 X-16.410 Y-5.094 F200.000
G1 X-16.203 Y-5.226 F200.000
G1 X-15.808 Y-5.406 F200.000
G1 X-15.444 Y-5.492 F200.000
G1 X-15.207 Y-5.515 F200.000
G1 X-15.000 Y-5.511 F200.000
G1 X-14.782 Y-5.489 F200.000
G1 X-14.496 Y-5.429 F200.000
G1 X-14.211 Y-5.327 F200.000
G1 X-13.977 Y-5.199 F200.000
G1 X-13.786 Y-5.034 F200.000
G1 X-13.703 Y-4.940 F200.000
G1 X-13.669 Y-4.887 F200.000
G1 X-13.647 Y-4.831 F200.000
G1 X-13.647 Y-4.771 F200.000
G1 X-13.647 Y-4.771 F200.000
G1 X-13.707 Y-4.662 F200.000
G1 X-13.774 Y-4.602 F200.000
G0 X-13.805 Y-4.586
G0 X-13.981 Y-4.568
G0 X-16.602 Y-4.489
G1 X-16.639 Y-4.489 F200.000
G1 X-16.759 Y-4.492 F200.000
G1 X-16.797 Y-4.526 F200.000
G1 X-16.823 Y-4.609 F200.000
G1 X-16.816 Y-4.737 F200.000
G1 X-16.816 Y-4.737 F200.000
G1 X-16.718 Y-5.015 F200.000
G1 X-16.594 Y-5.218 F200.000
G1 X-16.323 Y-5.462 F200.000
G1 X-16.008 Y-5.643 F200.000
G1 X-15.658 Y-5.778 F200.000
G1 X-15.293 Y-5.853 F200.000
G1 X-15.049 Y-5.868 F200.000
G1 X-14.838 Y-5.865 F200.000
G1 X-14.564 Y-5.820 F200.000
G1 X-14.331 Y-5.756 F200.000
G1 X-14.079 Y-5.658 F200.000
G1 X-13.853 Y-5.526 F200.000
G1 X-13.665 Y-5.361 F200.000
G1 X-13.553 Y-5.211 F200.000
G1 X-13.530 Y-5.154 F200.000
G1 X-13.534 Y-5.094 F200.000
G1 X-13.534 Y-5.094 F200.000
G1 X-13.594 Y-4.985 F200.000
G1 X-13.662 Y-4.925 F200.000
G0 X-13.692 Y-4.914
G0 X-13.865 Y-4.895
G0 X-16.481 Y-4.887
G1 X-16.519 Y-4.887 F200.000
G1 X-16.639 Y-4.895 F200.000
G1 X-16.677 Y-4.929 F200.000
G1 X-16.703 Y-5.011 F200.000
G1 X-16.695 Y-5.139 F200.000
G1 X-16.695 Y-5.139 F200.000
G1 X-16.620 Y-5.365 F200.000
G1 X-16.538 Y-5.523 F200.000
G1 X-16.466 Y-5.620 F200.000
G1 X-16.192 Y-5.846 F200.000
G1 X-15.868 Y-6.019 F200.000
G1 X-15.519 Y-6.150 F200.000
G1 X-15.150 Y-6.214 F200.000
G1 X-14.921 Y-6.222 F200.000
G1 X-14.718 Y-6.214 F200.000
G1 X-14.451 Y-6.173 F200.000
G1 X-14.188 Y-6.094 F200.000
G1 X-13.959 Y-6.000 F200.000
G1 X-13.737 Y-5.865 F200.000
G1 X-13.549 Y-5.699 F200.000
G1 X-13.436 Y-5.549 F200.000
G1 X-13.406 Y-5.492 F200.000
G1 X-13.398 Y-5.432 F200.000
G1 X-13.398 Y-5.432 F200.000
G1 X-13.496 Y-5.308 F200.000
G1 X-13.545 Y-5.274 F200.000
G0 X-13.571 Y-5.263
G0 X-13.748 Y-5.252
G0 X-16.357 Y-5.274
G1 X-16.395 Y-5.278 F200.000
G1 X-16.515 Y-5.289 F200.000
G1 X-16.553 Y-5.323 F200.000
G1 X-16.575 Y-5.410 F200.000
G1 X-16.564 Y-5.538 F200.000
G1 X-16.564 Y-5.538 F200.000
G1 X-16.504 Y-5.707 F200.000
G1 X-16.357 Y-5.962 F200.000
G1 X-16.229 Y-6.090 F200.000
G1 X-16.034 Y-6.233 F200.000
G1 X-15.703 Y-6.395 F200.000
G1 X-15.350 Y-6.519 F200.000
G1 X-14.981 Y-6.575 F200.000
G1 X-14.759 Y-6.575 F200.000
G1 X-14.564 Y-6.560 F200.000
G1 X-14.312 Y-6.511 F200.000
G1 X-14.049 Y-6.432 F200.000
G1 X-13.782 Y-6.316 F200.000
G1 X-13.556 Y-6.162 F200.000
G1 X-13.380 Y-5.981 F200.000
G1 X-13.278 Y-5.820 F200.000
G1 X-13.267 Y-5.759 F200.000
G1 X-13.267 Y-5.759 F200.000
G1 X-13.331 Y-5.650 F200.000
G1 X-13.398 Y-5.590 F200.000
G0 X-13.429 Y-5.579
G0 X-13.602 Y-5.571
G0 X-16.244 Y-5.620
G1 X-16.282 Y-5.624 F200.000
G1 X-16.402 Y-5.635 F200.000
G1 X-16.440 Y-5.669 F200.000
G1 X-16.462 Y-5.756 F200.000
G1 X-16.447 Y-5.880 F200.000
G1 X-16.447 Y-5.880 F200.000
G1 X-16.338 Y-6.158 F200.000
G1 X-16.207 Y-6.357 F200.000
G1 X-15.929 Y-6.586 F200.000
G1 X-15.541 Y-6.771 F200.000
G1 X-15.184 Y-6.883 F200.000
G1 X-14.812 Y-6.929 F200.000
G1 X-14.579 Y-6.921 F200.000
G1 X-14.380 Y-6.902 F200.000
G1 X-14.120 Y-6.846 F200.000
G1 X-13.857 Y-6.748 F200.000
G1 X-13.639 Y-6.643 F200.000
G1 X-13.425 Y-6.492 F200.000
G1 X-13.252 Y-6.312 F200.000
G1 X-13.150 Y-6.154 F200.000
G1 X-13.128 Y-6.094 F200.000
G1 X-13.143 Y-6.034 F200.000
G1 X-13.143 Y-6.034 F200.000
G1 X-13.241 Y-5.910 F200.000
G1 X-13.293 Y-5.880 F200.000
G0 X-13.320 Y-5.868
G0 X-13.496 Y-5.868
G0 X-16.086 Y-6.060
G1 X-16.124 Y-6.060 F200.000
G1 X-16.244 Y-6.079 F200.000
G1 X-16.278 Y-6.117 F200.000
G1 X-16.297 Y-6.203 F200.000
G1 X-16.278 Y-6.327 F200.000
G1 X-16.278 Y-6.327 F200.000
G1 X-16.154 Y-6.594 F200.000
G1 X-16.053 Y-6.737 F200.000
G1 X-16.011 Y-6.782 F200.000
G1 X-15.711 Y-6.989 F200.000
G1 X-15.436 Y-7.117 F200.000
G1 X-15.019 Y-7.241 F200.000
G1 X-14.647 Y-7.278 F200.000
G1 X-14.406 Y-7.263 F200.000
G1 X-14.203 Y-7.233 F200.000
G1 X-13.981 Y-7.177 F200.000
G1 X-13.714 Y-7.083 F200.000
G1 X-13.444 Y-6.932 F200.000
G1 X-13.214 Y-6.752 F200.000
G1 X-13.086 Y-6.609 F200.000
G1 X-13.019 Y-6.504 F200.000
G1 X-12.992 Y-6.447 F200.000
G1 X-12.981 Y-6.387 F200.000
G1 X-12.981 Y-6.387 F200.000
G1 X-13.049 Y-6.278 F200.000
G1 X-13.124 Y-6.226 F200.000
G0 X-13.150 Y-6.214
G0 X-13.327 Y-6.218
G0 X-15.925 Y-6.444
G1 X-15.962 Y-6.444 F200.000
G1 X-16.083 Y-6.466 F200.000
G1 X-16.117 Y-6.504 F200.000
G1 X-16.135 Y-6.590 F200.000
G1 X-16.117 Y-6.714 F200.000
G1 X-16.117 Y-6.714 F200.000
G1 X-15.985 Y-6.981 F200.000
G1 X-15.880 Y-7.124 F200.000
G1 X-15.639 Y-7.305 F200.000
G1 X-15.308 Y-7.466 F200.000
G1 X-15.192 Y-7.504 F200.000
G1 X-14.827 Y-7.594 F200.000
G1 X-14.455 Y-7.620 F200.000
G1 X-14.203 Y-7.602 F200.000
G1 X-13.996 Y-7.560 F200.000
G1 X-13.786 Y-7.500 F200.000
G1 X-13.530 Y-7.395 F200.000
G1 X-13.267 Y-7.244 F200.000
G1 X-13.064 Y-7.079 F200.000
G1 X-12.906 Y-6.883 F200.000
G1 X-12.842 Y-6.774 F200.000
G1 X-12.823 Y-6.714 F200.000
G1 X-12.838 Y-6.654 F200.000
G1 X-12.838 Y-6.654 F200.000
G1 X-12.944 Y-6.538 F200.000
G1 X-13.000 Y-6.508 F200.000
G0 X-13.026 Y-6.500
G0 X-13.203 Y-6.508
G0 X-15.786 Y-6.771
G1 X-15.823 Y-6.774 F200.000
G1 X-15.944 Y-6.801 F200.000
G1 X-15.977 Y-6.838 F200.000
G1 X-15.996 Y-6.925 F200.000
G1 X-15.977 Y-7.049 F200.000
G1 X-15.977 Y-7.049 F200.000
G1 X-15.876 Y-7.267 F200.000
G1 X-15.741 Y-7.459 F200.000
G1 X-15.654 Y-7.541 F200.000
G1 X-15.398 Y-7.703 F200.000
G1 X-15.056 Y-7.838 F200.000
G1 X-14.695 Y-7.936 F200.000
G1 X-14.323 Y-7.959 F200.000
G1 X-14.086 Y-7.940 F200.000
G1 X-13.887 Y-7.906 F200.000
G1 X-13.662 Y-7.842 F200.000
G1 X-13.398 Y-7.737 F200.000
G1 X-13.135 Y-7.594 F200.000
G1 X-12.925 Y-7.429 F200.000
G1 X-12.763 Y-7.237 F200.000
G1 X-12.673 Y-7.071 F200.000
G1 X-12.658 Y-7.011 F200.000
G1 X-12.669 Y-6.951 F200.000
G1 X-12.669 Y-6.951 F200.000
G1 X-12.774 Y-6.835 F200.000
G1 X-12.827 Y-6.805 F200.000
G0 X-12.857 Y-6.797
G0 X-13.034 Y-6.808
G0 X-15.628 Y-7.147
G1 X-15.665 Y-7.150 F200.000
G1 X-15.786 Y-7.180 F200.000
G1 X-15.820 Y-7.218 F200.000
G1 X-15.831 Y-7.305 F200.000
G1 X-15.805 Y-7.429 F200.000
G1 X-15.805 Y-7.429 F200.000
G1 X-15.665 Y-7.688 F200.000
G1 X-15.511 Y-7.872 F200.000
G1 X-15.259 Y-8.041 F200.000
G1 X-14.861 Y-8.199 F200.000
G1 X-14.496 Y-8.282 F200.000
G1 X-14.124 Y-8.293 F200.000
G1 X-13.902 Y-8.267 F200.000
G1 X-13.703 Y-8.229 F200.000
G1 X-13.459 Y-8.158 F200.000
G1 X-13.169 Y-8.034 F200.000
G1 X-12.932 Y-7.883 F200.000
G1 X-12.718 Y-7.695 F200.000
G1 X-12.564 Y-7.492 F200.000
G1 X-12.485 Y-7.323 F200.000
G1 X-12.496 Y-7.263 F200.000
G1 X-12.496 Y-7.263 F200.000
G1 X-12.602 Y-7.147 F200.000
G1 X-12.654 Y-7.117 F200.000
G0 X-12.684 Y-7.109
G0 X-12.861 Y-7.124
G0 X-15.444 Y-7.523
G1 X-15.481 Y-7.526 F200.000
G1 X-15.602 Y-7.556 F200.000
G1 X-15.635 Y-7.598 F200.000
G1 X-15.647 Y-7.684 F200.000
G1 X-15.620 Y-7.808 F200.000
G1 X-15.620 Y-7.808 F200.000
G1 X-15.511 Y-8.019 F200.000
G1 X-15.361 Y-8.207 F200.000
G1 X-15.267 Y-8.282 F200.000
G1 X-15.000 Y-8.429 F200.000
G1 X-14.711 Y-8.534 F200.000
G1 X-14.282 Y-8.620 F200.000
G1 X-13.910 Y-8.624 F200.000
G1 X-13.677 Y-8.594 F200.000
G1 X-13.477 Y-8.545 F200.000
G1 X-13.256 Y-8.470 F200.000
G1 X-12.992 Y-8.346 F200.000
G1 X-12.744 Y-8.192 F200.000
G1 X-12.541 Y-8.011 F200.000
G1 X-12.387 Y-7.808 F200.000
G1 X-12.308 Y-7.635 F200.000
G1 X-12.320 Y-7.575 F200.000
G1 X-12.320 Y-7.575 F200.000
G1 X-12.425 Y-7.459 F200.000
G1 X-12.477 Y-7.429 F200.000
G0 X-12.508 Y-7.425
G0 X-12.680 Y-7.440
G0 X-15.271 Y-7.902
G1 X-15.308 Y-7.906 F200.000
G1 X-15.425 Y-7.936 F200.000
G1 X-15.459 Y-7.977 F200.000
G1 X-15.466 Y-8.064 F200.000
G1 X-15.432 Y-8.184 F200.000
G1 X-15.432 Y-8.184 F200.000
G1 X-15.274 Y-8.436 F200.000
G1 X-15.154 Y-8.571 F200.000
G1 X-14.902 Y-8.733 F200.000
G1 X-14.677 Y-8.831 F200.000
G1 X-14.436 Y-8.895 F200.000
G1 X-14.068 Y-8.959 F200.000
G1 X-13.695 Y-8.951 F200.000
G1 X-13.455 Y-8.910 F200.000
G1 X-13.256 Y-8.857 F200.000
G1 X-13.038 Y-8.778 F200.000
G1 X-12.771 Y-8.643 F200.000
G1 X-12.526 Y-8.481 F200.000
G1 X-12.327 Y-8.293 F200.000
G1 X-12.218 Y-8.139 F200.000
G1 X-12.139 Y-7.966 F200.000
G1 X-12.124 Y-7.906 F200.000
G1 X-12.143 Y-7.846 F200.000
G1 X-12.143 Y-7.846 F200.000
G1 X-12.256 Y-7.737 F200.000
G1 X-12.312 Y-7.714 F200.000
G0 X-12.342 Y-7.707
G0 X-12.515 Y-7.729
G0 X-15.064 Y-8.256
G1 X-15.102 Y-8.263 F200.000
G1 X-15.218 Y-8.301 F200.000
G1 X-15.252 Y-8.342 F200.000
G1 X-15.259 Y-8.429 F200.000
G1 X-15.226 Y-8.549 F200.000
G1 X-15.226 Y-8.549 F200.000
G1 X-15.105 Y-8.752 F200.000
G1 X-14.989 Y-8.891 F200.000
G1 X-14.895 Y-8.970 F200.000
G1 X-14.628 Y-9.113 F200.000
G1 X-14.459 Y-9.177 F200.000
G1 X-14.218 Y-9.233 F200.000
G1 X-13.850 Y-9.286 F200.000
G1 X-13.477 Y-9.271 F200.000
G1 X-13.241 Y-9.226 F200.000
G1 X-13.041 Y-9.165 F200.000
G1 X-12.827 Y-9.083 F200.000
G1 X-12.556 Y-8.940 F200.000
G1 X-12.305 Y-8.767 F200.000
G1 X-12.113 Y-8.571 F200.000
G1 X-11.977 Y-8.357 F200.000
G1 X-11.932 Y-8.241 F200.000
G1 X-11.929 Y-8.180 F200.000
G1 X-11.929 Y-8.180 F200.000
G1 X-12.011 Y-8.083 F200.000
G1 X-12.090 Y-8.041 F200.000
G0 X-12.120 Y-8.038
G0 X-12.293 Y-8.060
G0 X-14.872 Y-8.620
G1 X-14.910 Y-8.628 F200.000
G1 X-15.023 Y-8.665 F200.000
G1 X-15.053 Y-8.707 F200.000
G1 X-15.056 Y-8.793 F200.000
G1 X-15.019 Y-8.914 F200.000
G1 X-15.019 Y-8.914 F200.000
G1 X-14.850 Y-9.158 F200.000
G1 X-14.673 Y-9.320 F200.000
G1 X-14.459 Y-9.436 F200.000
G1 X-14.109 Y-9.549 F200.000
G1 X-13.989 Y-9.571 F200.000
G1 X-13.617 Y-9.613 F200.000
G1 X-13.244 Y-9.586 F200.000
G1 X-13.008 Y-9.534 F200.000
G1 X-12.808 Y-9.477 F200.000
G1 X-12.553 Y-9.368 F200.000
G1 X-12.312 Y-9.233 F200.000
G1 X-12.098 Y-9.064 F200.000
G1 X-11.940 Y-8.910 F200.000
G1 X-11.805 Y-8.699 F200.000
G1 X-11.729 Y-8.526 F200.000
G1 X-11.729 Y-8.466 F200.000
G1 X-11.729 Y-8.466 F200.000
G1 X-11.812 Y-8.368 F200.000
G1 X-11.891 Y-8.327 F200.000
G0 X-11.921 Y-8.323
G0 X-12.094 Y-8.346
G0 X-14.684 Y-8.929
G1 X-14.722 Y-8.936 F200.000
G1 X-14.835 Y-8.974 F200.000
G1 X-14.865 Y-9.015 F200.000
G1 X-14.868 Y-9.102 F200.000
G1 X-14.831 Y-9.222 F200.000
G1 X-14.831 Y-9.222 F200.000
G1 X-14.703 Y-9.421 F200.000
G1 X-14.538 Y-9.598 F200.000
G1 X-14.387 Y-9.699 F200.000
G1 X-14.162 Y-9.801 F200.000
G1 X-13.801 Y-9.891 F200.000
G1 X-13.429 Y-9.936 F200.000
G1 X-13.056 Y-9.910 F200.000
G1 X-12.831 Y-9.861 F200.000
G1 X-12.639 Y-9.805 F200.000
G1 X-12.395 Y-9.699 F200.000
G1 X-12.154 Y-9.564 F200.000
G1 X-11.925 Y-9.387 F200.000
G1 X-11.759 Y-9.222 F200.000
G1 X-11.620 Y-9.045 F200.000
G1 X-11.541 Y-8.872 F200.000
G1 X-11.523 Y-8.812 F200.000
G1 X-11.523 Y-8.752 F200.000
G1 X-11.523 Y-8.752 F200.000
G1 X-11.613 Y-8.662 F200.000
G1 X-11.695 Y-8.624 F200.000
G0 X-11.726 Y-8.620
G0 X-11.898 Y-8.650
G0 X-14.462 Y-9.278
G1 X-14.500 Y-9.286 F200.000
G1 X-14.613 Y-9.327 F200.000
G1 X-14.643 Y-9.368 F200.000
G1 X-14.647 Y-9.455 F200.000
G1 X-14.605 Y-9.575 F200.000
G1 X-14.605 Y-9.575 F200.000
G1 X-14.432 Y-9.820 F200.000
G1 X-14.301 Y-9.947 F200.000
G1 X-14.199 Y-10.015 F200.000
G1 X-13.977 Y-10.120 F200.000
G1 X-13.617 Y-10.211 F200.000
G1 X-13.184 Y-10.256 F200.000
G1 X-12.812 Y-10.222 F200.000
G1 X-12.571 Y-10.162 F200.000
G1 X-12.380 Y-10.094 F200.000
G1 X-12.169 Y-9.996 F200.000
G1 X-11.929 Y-9.857 F200.000
G1 X-11.684 Y-9.669 F200.000
G1 X-11.466 Y-9.421 F200.000
G1 X-11.372 Y-9.259 F200.000
G1 X-11.316 Y-9.083 F200.000
G1 X-11.316 Y-9.023 F200.000
G1 X-11.316 Y-9.023 F200.000
G1 X-11.406 Y-8.932 F200.000
G1 X-11.489 Y-8.895 F200.000
G0 X-11.515 Y-8.891
G0 X-11.692 Y-8.925
G0 X-14.244 Y-9.628
G1 X-14.278 Y-9.639 F200.000
G1 X-14.391 Y-9.680 F200.000
G1 X-14.417 Y-9.726 F200.000
G1 X-14.417 Y-9.808 F200.000
G1 X-14.372 Y-9.925 F200.000
G1 X-14.372 Y-9.925 F200.000
G1 X-14.154 Y-10.207 F200.000
G1 X-14.015 Y-10.320 F200.000
G1 X-13.737 Y-10.451 F200.000
G1 X-13.376 Y-10.538 F200.000
G1 X-13.256 Y-10.553 F200.000
G1 X-12.883 Y-10.568 F200.000
G1 X-12.515 Y-10.511 F200.000
G1 X-12.293 Y-10.447 F200.000
G1 X-12.102 Y-10.376 F200.000
G1 X-11.865 Y-10.256 F200.000
G1 X-11.628 Y-10.098 F200.000
G1 X-11.417 Y-9.910 F200.000
G1 X-11.263 Y-9.726 F200.000
G1 X-11.139 Y-9.508 F200.000
G1 X-11.083 Y-9.327 F200.000
G1 X-11.098 Y-9.267 F200.000
G1 X-11.098 Y-9.267 F200.000
G1 X-11.222 Y-9.180 F200.000
G1 X-11.282 Y-9.165 F200.000
G0 X-11.308 Y-9.162
G0 X-11.481 Y-9.203
G0 X-13.974 Y-10.011
G1 X-14.008 Y-10.023 F200.000
G1 X-14.120 Y-10.071 F200.000
G1 X-14.147 Y-10.113 F200.000
G1 X-14.143 Y-10.199 F200.000
G1 X-14.094 Y-10.316 F200.000
G1 X-14.094 Y-10.316 F200.000
G1 X-13.898 Y-10.541 F200.000
G1 X-13.808 Y-10.624 F200.000
G1 X-13.707 Y-10.688 F200.000
G1 X-13.421 Y-10.801 F200.000
G1 X-13.060 Y-10.865 F200.000
G1 X-12.628 Y-10.872 F200.000
G1 X-12.259 Y-10.812 F200.000
G1 X-12.034 Y-10.741 F200.000
G1 X-11.846 Y-10.665 F200.000
G1 X-11.609 Y-10.538 F200.000
G1 X-11.380 Y-10.368 F200.000
G1 X-11.195 Y-10.203 F200.000
G1 X-11.026 Y-9.996 F200.000
G1 X-10.932 Y-9.835 F200.000
G1 X-10.857 Y-9.598 F200.000
G1 X-10.868 Y-9.538 F200.000
G1 X-10.868 Y-9.538 F200.000
G1 X-10.962 Y-9.455 F200.000
G1 X-11.049 Y-9.425 F200.000
G0 X-11.075 Y-9.421
G0 X-11.248 Y-9.466
G0 X-13.759 Y-10.301
G1 X-13.793 Y-10.312 F200.000
G1 X-13.906 Y-10.361 F200.000
G1 X-13.932 Y-10.402 F200.000
G1 X-13.929 Y-10.489 F200.000
G1 X-13.880 Y-10.605 F200.000
G1 X-13.880 Y-10.605 F200.000
G1 X-13.688 Y-10.838 F200.000
G1 X-13.496 Y-10.985 F200.000
G1 X-13.274 Y-11.083 F200.000
G1 X-12.974 Y-11.154 F200.000
G1 X-12.733 Y-11.177 F200.000
G1 X-12.361 Y-11.169 F200.000
G1 X-11.992 Y-11.102 F200.000
G1 X-11.748 Y-11.015 F200.000
G1 X-11.560 Y-10.925 F200.000
G1 X-11.361 Y-10.808 F200.000
G1 X-11.128 Y-10.639 F200.000
G1 X-10.902 Y-10.429 F200.000
G1 X-10.744 Y-10.207 F200.000
G1 X-10.665 Y-10.038 F200.000
G1 X-10.620 Y-9.857 F200.000
G1 X-10.635 Y-9.797 F200.000
G1 X-10.635 Y-9.797 F200.000
G1 X-10.763 Y-9.711 F200.000
G1 X-10.820 Y-9.695 F200.000
G0 X-10.850 Y-9.695
G0 X-11.023 Y-9.744
G0 X-13.508 Y-10.628
G1 X-13.541 Y-10.639 F200.000
G1 X-13.650 Y-10.692 F200.000
G1 X-13.677 Y-10.733 F200.000
G1 X-13.669 Y-10.820 F200.000
G1 X-13.620 Y-10.936 F200.000
G1 X-13.620 Y-10.936 F200.000
G1 X-13.425 Y-11.162 F200.000
G1 X-13.286 Y-11.278 F200.000
G1 X-13.180 Y-11.338 F200.000
G1 X-12.891 Y-11.432 F200.000
G1 X-12.470 Y-11.481 F200.000
G1 X-12.098 Y-11.466 F200.000
G1 X-11.733 Y-11.387 F200.000
G1 X-11.508 Y-11.301 F200.000
G1 X-11.327 Y-11.218 F200.000
G1 X-11.098 Y-11.083 F200.000
G1 X-10.857 Y-10.898 F200.000
G1 X-10.665 Y-10.695 F200.000
G1 X-10.504 Y-10.466 F200.000
G1 X-10.425 Y-10.297 F200.000
G1 X-10.380 Y-10.117 F200.000
G1 X-10.395 Y-10.056 F200.000
G1 X-10.395 Y-10.056 F200.000
G1 X-10.523 Y-9.970 F200.000
G1 X-10.579 Y-9.955 F200.000
G0 X-10.609 Y-9.955
G0 X-10.778 Y-10.008
G0 X-13.244 Y-10.944
G1 X-13.278 Y-10.959 F200.000
G1 X-13.387 Y-11.011 F200.000
G1 X-13.414 Y-11.056 F200.000
G1 X-13.406 Y-11.143 F200.000
G1 X-13.353 Y-11.259 F200.000
G1 X-13.353 Y-11.259 F200.000
G1 X-13.150 Y-11.477 F200.000
G1 X-13.008 Y-11.586 F200.000
G1 X-12.898 Y-11.643 F200.000
G1 X-12.605 Y-11.733 F200.000
G1 X-12.244 Y-11.774 F200.000
G1 X-11.812 Y-11.756 F200.000
G1 X-11.447 Y-11.665 F200.000
G1 X-11.229 Y-11.579 F200.000
G1 X-11.041 Y-11.481 F200.000
G1 X-10.842 Y-11.353 F200.000
G1 X-10.613 Y-11.169 F200.000
G1 X-10.402 Y-10.955 F200.000
G1 X-10.248 Y-10.729 F200.000
G1 X-10.154 Y-10.496 F200.000
G1 X-10.128 Y-10.376 F200.000
G1 X-10.135 Y-10.316 F200.000
G1 X-10.135 Y-10.316 F200.000
G1 X-10.263 Y-10.229 F200.000
G1 X-10.320 Y-10.214 F200.000
G0 X-10.350 Y-10.214
G0 X-10.519 Y-10.271
G0 X-12.981 Y-11.263
G1 X-13.015 Y-11.278 F200.000
G1 X-13.120 Y-11.331 F200.000
G1 X-13.143 Y-11.376 F200.000
G1 X-13.132 Y-11.462 F200.000
G1 X-13.075 Y-11.575 F200.000
G1 X-13.075 Y-11.575 F200.000
G1 X-12.868 Y-11.793 F200.000
G1 X-12.669 Y-11.929 F200.000
G1 X-12.376 Y-12.023 F200.000
G1 X-12.015 Y-12.068 F200.000
G1 X-11.895 Y-12.068 F200.000
G1 X-11.523 Y-12.038 F200.000
G1 X-11.162 Y-11.936 F200.000
G1 X-10.940 Y-11.842 F200.000
G1 X-10.756 Y-11.741 F200.000
G1 X-10.553 Y-11.605 F200.000
G1 X-10.327 Y-11.417 F200.000
G1 X-10.124 Y-11.188 F200.000
G1 X-9.996 Y-10.989 F200.000
G1 X-9.906 Y-10.756 F200.000
G1 X-9.880 Y-10.635 F200.000
G1 X-9.883 Y-10.575 F200.000
G1 X-9.883 Y-10.575 F200.000
G1 X-10.011 Y-10.489 F200.000
G1 X-10.068 Y-10.474 F200.000
G0 X-10.098 Y-10.474
G0 X-10.267 Y-10.534
G0 X-12.703 Y-11.575
G1 X-12.737 Y-11.590 F200.000
G1 X-12.842 Y-11.647 F200.000
G1 X-12.865 Y-11.692 F200.000
G1 X-12.853 Y-11.778 F200.000
G1 X-12.793 Y-11.887 F200.000
G1 X-12.793 Y-11.887 F200.000
G1 X-12.624 Y-12.064 F200.000
G1 X-12.429 Y-12.207 F200.000
G1 X-12.320 Y-12.259 F200.000
G1 X-12.019 Y-12.335 F200.000
G1 X-11.658 Y-12.357 F200.000
G1 X-11.226 Y-12.308 F200.000
G1 X-10.868 Y-12.199 F200.000
G1 X-10.647 Y-12.102 F200.000
G1 X-10.455 Y-11.989 F200.000
G1 X-10.263 Y-11.853 F200.000
G1 X-10.041 Y-11.654 F200.000
G1 X-9.857 Y-11.432 F200.000
G1 X-9.733 Y-11.233 F200.000
G1 X-9.662 Y-11.064 F200.000
G1 X-9.624 Y-10.883 F200.000
G1 X-9.620 Y-10.823 F200.000
G1 X-9.650 Y-10.771 F200.000
G1 X-9.650 Y-10.771 F200.000
G1 X-9.756 Y-10.703 F200.000
G1 X-9.842 Y-10.688 F200.000
G0 X-9.872 Y-10.692
G0 X-10.038 Y-10.756
G0 X-12.421 Y-11.876
G1 X-12.455 Y-11.891 F200.000
G1 X-12.560 Y-11.951 F200.000
G1 X-12.583 Y-11.996 F200.000
G1 X-12.568 Y-12.083 F200.000
G1 X-12.504 Y-12.192 F200.000
G1 X-12.504 Y-12.192 F200.000
G1 X-12.289 Y-12.398 F200.000
G1 X-12.139 Y-12.500 F200.000
G1 X-11.970 Y-12.568 F200.000
G1 X-11.669 Y-12.624 F200.000
G1 X-11.308 Y-12.628 F200.000
G1 X-10.936 Y-12.583 F200.000
G1 X-10.579 Y-12.470 F200.000
G1 X-10.365 Y-12.365 F200.000
G1 X-10.184 Y-12.256 F200.000
G1 X-9.985 Y-12.109 F200.000
G1 X-9.774 Y-11.914 F200.000
G1 X-9.590 Y-11.680 F200.000
G1 X-9.421 Y-11.368 F200.000
G1 X-9.365 Y-11.188 F200.000
G1 X-9.353 Y-11.068 F200.000
G1 X-9.376 Y-11.011 F200.000
G1 X-9.376 Y-11.011 F200.000
G1 X-9.481 Y-10.944 F200.000
G1 X-9.568 Y-10.929 F200.000
G0 X-9.598 Y-10.932
G0 X-9.763 Y-11.000
G0 X-12.139 Y-12.173
G1 X-12.173 Y-12.192 F200.000
G1 X-12.278 Y-12.252 F200.000
G1 X-12.297 Y-12.301 F200.000
G1 X-12.278 Y-12.383 F200.000
G1 X-12.211 Y-12.489 F200.000
G1 X-12.211 Y-12.489 F200.000
G1 X-11.985 Y-12.688 F200.000
G1 X-11.831 Y-12.786 F200.000
G1 X-11.598 Y-12.861 F200.000
G1 X-11.237 Y-12.906 F200.000
G1 X-10.996 Y-12.898 F200.000
G1 X-10.628 Y-12.838 F200.000
G1 X-10.274 Y-12.718 F200.000
G1 X-10.056 Y-12.609 F200.000
G1 X-9.876 Y-12.492 F200.000
G1 X-9.688 Y-12.346 F200.000
G1 X-9.481 Y-12.143 F200.000
G1 X-9.308 Y-11.925 F200.000
G1 X-9.150 Y-11.639 F200.000
G1 X-9.094 Y-11.459 F200.000
G1 X-9.075 Y-11.338 F200.000
G1 X-9.079 Y-11.278 F200.000
G1 X-9.113 Y-11.229 F200.000
G1 X-9.113 Y-11.229 F200.000
G1 X-9.248 Y-11.162 F200.000
G1 X-9.305 Y-11.154 F200.000
G0 X-9.335 Y-11.158
G0 X-9.496 Y-11.229
G0 X-11.835 Y-12.459
G1 X-11.868 Y-12.477 F200.000
G1 X-11.974 Y-12.541 F200.000
G1 X-11.992 Y-12.590 F200.000
G1 X-11.974 Y-12.673 F200.000
G1 X-11.906 Y-12.778 F200.000
G1 X-11.906 Y-12.778 F200.000
G1 X-11.677 Y-12.974 F200.000
G1 X-11.462 Y-13.090 F200.000
G1 X-11.165 Y-13.162 F200.000
G1 X-10.865 Y-13.177 F200.000
G1 X-10.684 Y-13.162 F200.000
G1 X-10.316 Y-13.094 F200.000
G1 X-9.962 Y-12.966 F200.000
G1 X-9.752 Y-12.850 F200.000
G1 X-9.586 Y-12.741 F200.000
G1 X-9.383 Y-12.575 F200.000
G1 X-9.177 Y-12.368 F200.000
G1 X-9.004 Y-12.128 F200.000
G1 X-8.868 Y-11.865 F200.000
G1 X-8.805 Y-11.624 F200.000
G1 X-8.797 Y-11.504 F200.000
G1 X-8.831 Y-11.451 F200.000
G1 X-8.831 Y-11.451 F200.000
G1 X-8.966 Y-11.383 F200.000
G1 X-9.023 Y-11.376 F200.000
G0 X-9.053 Y-11.380
G0 X-9.214 Y-11.455
G0 X-11.530 Y-12.741
G1 X-11.564 Y-12.759 F200.000
G1 X-11.665 Y-12.827 F200.000
G1 X-11.680 Y-12.876 F200.000
G1 X-11.658 Y-12.959 F200.000
G1 X-11.590 Y-13.060 F200.000
G1 X-11.590 Y-13.060 F200.000
G1 X-11.308 Y-13.286 F200.000
G1 X-11.147 Y-13.368 F200.000
G1 X-10.786 Y-13.436 F200.000
G1 X-10.485 Y-13.432 F200.000
G1 X-10.365 Y-13.417 F200.000
G1 X-9.996 Y-13.342 F200.000
G1 X-9.650 Y-13.203 F200.000
G1 X-9.444 Y-13.086 F200.000
G1 X-9.271 Y-12.970 F200.000
G1 X-9.071 Y-12.797 F200.000
G1 X-8.883 Y-12.594 F200.000
G1 X-8.714 Y-12.368 F200.000
G1 X-8.571 Y-12.068 F200.000
G1 X-8.523 Y-11.887 F200.000
G1 X-8.511 Y-11.767 F200.000
G1 X-8.519 Y-11.707 F200.000
G1 X-8.519 Y-11.707 F200.000
G1 X-8.624 Y-11.647 F200.000
G1 X-8.711 Y-11.639 F200.000
G0 X-8.741 Y-11.643
G0 X-8.898 Y-11.722
G0 X-11.173 Y-13.049
G1 X-11.203 Y-13.068 F200.000
G1 X-11.305 Y-13.139 F200.000
G1 X-11.320 Y-13.188 F200.000
G1 X-11.297 Y-13.271 F200.000
G1 X-11.229 Y-13.372 F200.000
G1 X-11.229 Y-13.372 F200.000
G1 X-11.041 Y-13.523 F200.000
G1 X-10.823 Y-13.632 F200.000
G1 X-10.523 Y-13.688 F200.000
G1 X-10.162 Y-13.680 F200.000
G1 X-10.041 Y-13.665 F200.000
G1 X-9.677 Y-13.583 F200.000
G1 X-9.331 Y-13.436 F200.000
G1 X-9.128 Y-13.316 F200.000
G1 X-8.959 Y-13.192 F200.000
G1 X-8.782 Y-13.041 F200.000
G1 X-8.568 Y-12.805 F200.000
G1 X-8.410 Y-12.564 F200.000
G1 X-8.282 Y-12.293 F200.000
G1 X-8.237 Y-12.113 F200.000
G1 X-8.226 Y-11.932 F200.000
G1 X-8.256 Y-11.880 F200.000
G1 X-8.256 Y-11.876 F200.000
G1 X-8.398 Y-11.812 F200.000
G1 X-8.455 Y-11.812 F200.000
G0 X-8.485 Y-11.816
G0 X-8.639 Y-11.898
G0 X-10.868 Y-13.316
G1 X-10.898 Y-13.338 F200.000
G1 X-10.996 Y-13.410 F200.000
G1 X-11.008 Y-13.462 F200.000
G1 X-10.981 Y-13.545 F200.000
G1 X-10.906 Y-13.643 F200.000
G1 X-10.906 Y-13.643 F200.000
G1 X-10.711 Y-13.786 F200.000
G1 X-10.549 Y-13.865 F200.000
G1 X-10.312 Y-13.925 F200.000
G1 X-10.071 Y-13.940 F200.000
G1 X-9.711 Y-13.902 F200.000
G1 X-9.346 Y-13.812 F200.000
G1 X-9.004 Y-13.658 F200.000
G1 X-8.808 Y-13.538 F200.000
G1 X-8.639 Y-13.414 F200.000
G1 X-8.447 Y-13.229 F200.000
G1 X-8.271 Y-13.026 F200.000
G1 X-8.105 Y-12.786 F200.000
G1 X-7.992 Y-12.538 F200.000
G1 X-7.932 Y-12.297 F200.000
G1 X-7.929 Y-12.177 F200.000
G1 X-7.936 Y-12.117 F200.000
G1 X-7.970 Y-12.068 F200.000
G1 X-7.970 Y-12.068 F200.000
G1 X-8.083 Y-12.011 F200.000
G1 X-8.169 Y-12.004 F200.000
G0 X-8.199 Y-12.011
G0 X-8.353 Y-12.098
G0 X-10.586 Y-13.538
G1 X-10.617 Y-13.560 F200.000
G1 X-10.714 Y-13.632 F200.000
G1 X-10.726 Y-13.684 F200.000
G1 X-10.699 Y-13.767 F200.000
G1 X-10.624 Y-13.865 F200.000
G1 X-10.624 Y-13.865 F200.000
G1 X-10.429 Y-14.011 F200.000
G1 X-10.211 Y-14.120 F200.000
G1 X-10.034 Y-14.165 F200.000
G1 X-9.733 Y-14.184 F200.000
G1 X-9.372 Y-14.139 F200.000
G1 X-9.011 Y-14.041 F200.000
G1 X-8.673 Y-13.880 F200.000
G1 X-8.477 Y-13.748 F200.000
G1 X-8.312 Y-13.620 F200.000
G1 X-8.117 Y-13.429 F200.000
G1 X-7.932 Y-13.207 F200.000
G1 X-7.786 Y-12.962 F200.000
G1 X-7.658 Y-12.632 F200.000
G1 X-7.624 Y-12.451 F200.000
G1 X-7.624 Y-12.331 F200.000
G1 X-7.654 Y-12.278 F200.000
G1 X-7.654 Y-12.278 F200.000
G1 X-7.767 Y-12.222 F200.000
G1 X-7.853 Y-12.214 F200.000
G0 X-7.883 Y-12.222
G0 X-8.038 Y-12.308
G0 X-10.263 Y-13.797
G1 X-10.293 Y-13.820 F200.000
G1 X-10.391 Y-13.895 F200.000
G1 X-10.402 Y-13.944 F200.000
G1 X-10.372 Y-14.026 F200.000
G1 X-10.289 Y-14.117 F200.000
G1 X-10.289 Y-14.117 F200.000
G1 X-9.985 Y-14.316 F200.000
G1 X-9.812 Y-14.383 F200.000
G1 X-9.511 Y-14.421 F200.000
G1 X-9.150 Y-14.391 F200.000
G1 X-9.030 Y-14.365 F200.000
G1 X-8.669 Y-14.259 F200.000
G1 X-8.335 Y-14.090 F200.000
G1 X-8.128 Y-13.947 F200.000
G1 X-7.959 Y-13.805 F200.000
G1 X-7.793 Y-13.635 F200.000
G1 X-7.617 Y-13.410 F200.000
G1 X-7.462 Y-13.158 F200.000
G1 X-7.342 Y-12.850 F200.000
G1 X-7.312 Y-12.669 F200.000
G1 X-7.316 Y-12.549 F200.000
G1 X-7.327 Y-12.489 F200.000
G1 X-7.368 Y-12.444 F200.000
G1 X-7.368 Y-12.444 F200.000
G1 X-7.515 Y-12.398 F200.000
G1 X-7.571 Y-12.402 F200.000
G0 X-7.598 Y-12.410
G0 X-7.748 Y-12.504
G0 X-9.872 Y-14.071
G1 X-9.902 Y-14.094 F200.000
G1 X-9.996 Y-14.173 F200.000
G1 X-10.008 Y-14.222 F200.000
G1 X-9.977 Y-14.305 F200.000
G1 X-9.895 Y-14.395 F200.000
G1 X-9.895 Y-14.395 F200.000
G1 X-9.692 Y-14.526 F200.000
G1 X-9.462 Y-14.617 F200.000
G1 X-9.222 Y-14.650 F200.000
G1 X-8.861 Y-14.624 F200.000
G1 X-8.680 Y-14.583 F200.000
G1 X-8.323 Y-14.466 F200.000
G1 X-7.992 Y-14.293 F200.000
G1 X-7.793 Y-14.150 F200.000
G1 X-7.635 Y-14.008 F200.000
G1 X-7.477 Y-13.842 F200.000
G1 X-7.293 Y-13.602 F200.000
G1 X-7.139 Y-13.338 F200.000
G1 X-7.034 Y-13.019 F200.000
G1 X-7.004 Y-12.838 F200.000
G1 X-7.008 Y-12.718 F200.000
G1 X-7.023 Y-12.658 F200.000
G1 X-7.023 Y-12.658 F200.000
G1 X-7.135 Y-12.609 F200.000
G1 X-7.222 Y-12.609 F200.000
G0 X-7.248 Y-12.617
G0 X-7.398 Y-12.711
G0 X-9.530 Y-14.305
G1 X-9.560 Y-14.327 F200.000
G1 X-9.650 Y-14.406 F200.000
G1 X-9.662 Y-14.455 F200.000
G1 X-9.628 Y-14.538 F200.000
G1 X-9.545 Y-14.628 F200.000
G1 X-9.545 Y-14.628 F200.000
G1 X-9.342 Y-14.756 F200.000
G1 X-9.173 Y-14.831 F200.000
G1 X-9.053 Y-14.865 F200.000
G1 X-8.812 Y-14.880 F200.000
G1 X-8.451 Y-14.835 F200.000
G1 X-8.331 Y-14.801 F200.000
G1 X-7.977 Y-14.677 F200.000
G1 X-7.650 Y-14.496 F200.000
G1 X-7.451 Y-14.346 F200.000
G1 X-7.289 Y-14.195 F200.000
G1 X-7.135 Y-14.026 F200.000
G1 X-6.959 Y-13.782 F200.000
G1 X-6.816 Y-13.519 F200.000
G1 X-6.695 Y-13.143 F200.000
G1 X-6.684 Y-12.962 F200.000
G1 X-6.695 Y-12.842 F200.000
G1 X-6.737 Y-12.797 F200.000
G1 X-6.737 Y-12.797 F200.000
G1 X-6.883 Y-12.763 F200.000
G1 X-6.940 Y-12.771 F200.000
G0 X-6.966 Y-12.782
G0 X-7.113 Y-12.880
G0 X-9.180 Y-14.526
G1 X-9.207 Y-14.553 F200.000
G1 X-9.297 Y-14.632 F200.000
G1 X-9.308 Y-14.684 F200.000
G1 X-9.274 Y-14.763 F200.000
G1 X-9.192 Y-14.853 F200.000
G1 X-9.192 Y-14.853 F200.000
G1 X-8.985 Y-14.981 F200.000
G1 X-8.756 Y-15.071 F200.000
G1 X-8.575 Y-15.094 F200.000
G1 X-8.274 Y-15.075 F200.000
G1 X-7.974 Y-15.004 F200.000
G1 X-7.620 Y-14.876 F200.000
G1 X-7.297 Y-14.684 F200.000
G1 X-7.105 Y-14.534 F200.000
G1 X-6.951 Y-14.383 F200.000
G1 X-6.797 Y-14.211 F200.000
G1 X-6.605 Y-13.936 F200.000
G1 X-6.474 Y-13.665 F200.000
G1 X-6.387 Y-13.383 F200.000
G1 X-6.357 Y-13.203 F200.000
G1 X-6.368 Y-13.023 F200.000
G1 X-6.395 Y-12.970 F200.000
G1 X-6.395 Y-12.970 F200.000
G1 X-6.541 Y-12.936 F200.000
G1 X-6.598 Y-12.944 F200.000
G0 X-6.624 Y-12.955
G0 X-6.767 Y-13.060
G0 X-8.786 Y-14.778
G1 X-8.812 Y-14.805 F200.000
G1 X-8.898 Y-14.887 F200.000
G1 X-8.906 Y-14.936 F200.000
G1 X-8.872 Y-15.015 F200.000
G1 X-8.782 Y-15.102 F200.000
G1 X-8.782 Y-15.102 F200.000
G1 X-8.511 Y-15.237 F200.000
G1 X-8.335 Y-15.286 F200.000
G1 X-8.034 Y-15.293 F200.000
G1 X-7.733 Y-15.233 F200.000
G1 X-7.553 Y-15.173 F200.000
G1 X-7.207 Y-15.030 F200.000
G1 X-6.891 Y-14.827 F200.000
G1 X-6.699 Y-14.662 F200.000
G1 X-6.553 Y-14.504 F200.000
G1 X-6.414 Y-14.327 F200.000
G1 X-6.248 Y-14.068 F200.000
G1 X-6.113 Y-13.782 F200.000
G1 X-6.030 Y-13.455 F200.000
G1 X-6.026 Y-13.274 F200.000
G1 X-6.034 Y-13.214 F200.000
G1 X-6.053 Y-13.154 F200.000
G1 X-6.053 Y-13.154 F200.000
G1 X-6.169 Y-13.117 F200.000
G1 X-6.256 Y-13.120 F200.000
G0 X-6.282 Y-13.132
G0 X-6.425 Y-13.237
G0 X-8.474 Y-14.962
G1 X-8.500 Y-14.989 F200.000
G1 X-8.586 Y-15.071 F200.000
G1 X-8.594 Y-15.120 F200.000
G1 X-8.560 Y-15.199 F200.000
G1 X-8.470 Y-15.282 F200.000
G1 X-8.470 Y-15.282 F200.000
G1 X-8.139 Y-15.440 F200.000
G1 X-7.959 Y-15.485 F200.000
G1 X-7.718 Y-15.489 F200.000
G1 X-7.357 Y-15.421 F200.000
G1 X-7.177 Y-15.357 F200.000
G1 X-6.835 Y-15.203 F200.000
G1 X-6.526 Y-14.989 F200.000
G1 X-6.338 Y-14.823 F200.000
G1 X-6.192 Y-14.662 F200.000
G1 X-6.045 Y-14.470 F200.000
G1 X-5.887 Y-14.211 F200.000
G1 X-5.771 Y-13.932 F200.000
G1 X-5.703 Y-13.579 F200.000
G1 X-5.711 Y-13.398 F200.000
G1 X-5.722 Y-13.338 F200.000
G1 X-5.748 Y-13.282 F200.000
G1 X-5.748 Y-13.282 F200.000
G1 X-5.865 Y-13.252 F200.000
G1 X-5.951 Y-13.259 F200.000
G0 X-5.977 Y-13.271
G0 X-6.117 Y-13.383
G0 X-8.120 Y-15.162
G1 X-8.147 Y-15.188 F200.000
G1 X-8.229 Y-15.274 F200.000
G1 X-8.237 Y-15.323 F200.000
G1 X-8.195 Y-15.398 F200.000
G1 X-8.102 Y-15.481 F200.000
G1 X-8.102 Y-15.481 F200.000
G1 X-7.827 Y-15.613 F200.000
G1 X-7.590 Y-15.677 F200.000
G1 X-7.350 Y-15.677 F200.000
G1 X-7.049 Y-15.617 F200.000
G1 X-6.812 Y-15.534 F200.000
G1 X-6.474 Y-15.372 F200.000
G1 X-6.165 Y-15.158 F200.000
G1 X-5.966 Y-14.974 F200.000
G1 X-5.820 Y-14.805 F200.000
G1 X-5.680 Y-14.609 F200.000
G1 X-5.538 Y-14.357 F200.000
G1 X-5.429 Y-14.094 F200.000
G1 X-5.365 Y-13.771 F200.000
G1 X-5.365 Y-13.590 F200.000
G1 X-5.383 Y-13.470 F200.000
G1 X-5.414 Y-13.417 F200.000
G1 X-5.414 Y-13.417 F200.000
G1 X-5.530 Y-13.387 F200.000
G1 X-5.617 Y-13.398 F200.000
G0 X-5.643 Y-13.410
G0 X-5.778 Y-13.523
G0 X-7.699 Y-15.376
G1 X-7.726 Y-15.398 F200.000
G1 X-7.808 Y-15.492 F200.000
G1 X-7.812 Y-15.541 F200.000
G1 X-7.771 Y-15.617 F200.000
G1 X-7.673 Y-15.695 F200.000
G1 X-7.673 Y-15.695 F200.000
G1 X-7.338 Y-15.831 F200.000
G1 X-7.158 Y-15.865 F200.000
G1 X-6.977 Y-15.857 F200.000
G1 X-6.617 Y-15.767 F200.000
G1 X-6.440 Y-15.699 F200.000
G1 X-6.102 Y-15.538 F200.000
G1 X-5.801 Y-15.316 F200.000
G1 X-5.628 Y-15.150 F200.000
G1 X-5.481 Y-14.992 F200.000
G1 X-5.320 Y-14.763 F200.000
G1 X-5.192 Y-14.519 F200.000
G1 X-5.094 Y-14.286 F200.000
G1 X-5.023 Y-13.962 F200.000
G1 X-5.015 Y-13.782 F200.000
G1 X-5.045 Y-13.602 F200.000
G1 X-5.075 Y-13.549 F200.000
G1 X-5.075 Y-13.549 F200.000
G1 X-5.222 Y-13.523 F200.000
G1 X-5.278 Y-13.534 F200.000
G0 X-5.305 Y-13.549
G0 X-5.436 Y-13.665
G0 X-7.320 Y-15.549
G1 X-7.350 Y-15.579 F200.000
G1 X-7.429 Y-15.669 F200.000
G1 X-7.432 Y-15.722 F200.000
G1 X-7.391 Y-15.797 F200.000
G1 X-7.293 Y-15.876 F200.000
G1 X-7.293 Y-15.876 F200.000
G1 X-7.068 Y-15.974 F200.000
G1 X-6.827 Y-16.034 F200.000
G1 X-6.707 Y-16.041 F200.000
G1 X-6.346 Y-15.977 F200.000
G1 X-6.053 Y-15.865 F200.000
G1 X-5.722 Y-15.692 F200.000
G1 X-5.425 Y-15.462 F200.000
G1 X-5.241 Y-15.278 F200.000
G1 X-5.102 Y-15.105 F200.000
G1 X-4.970 Y-14.906 F200.000
G1 X-4.838 Y-14.650 F200.000
G1 X-4.733 Y-14.376 F200.000
G1 X-4.673 Y-14.053 F200.000
G1 X-4.673 Y-13.872 F200.000
G1 X-4.692 Y-13.752 F200.000
G1 X-4.714 Y-13.695 F200.000
G1 X-4.714 Y-13.695 F200.000
G1 X-4.835 Y-13.673 F200.000
G1 X-4.921 Y-13.688 F200.000
G0 X-4.947 Y-13.699
G0 X-5.075 Y-13.823
G0 X-6.891 Y-15.748
G1 X-6.917 Y-15.778 F200.000
G1 X-6.992 Y-15.872 F200.000
G1 X-6.992 Y-15.921 F200.000
G1 X-6.951 Y-15.992 F200.000
G1 X-6.853 Y-16.068 F200.000
G1 X-6.853 Y-16.068 F200.000
G1 X-6.624 Y-16.154 F200.000
G1 X-6.383 Y-16.203 F200.000
G1 X-6.083 Y-16.165 F200.000
G1 X-5.726 Y-16.045 F200.000
G1 X-5.613 Y-15.992 F200.000
G1 X-5.289 Y-15.801 F200.000
G1 X-5.004 Y-15.560 F200.000
G1 X-4.842 Y-15.383 F200.000
G1 X-4.711 Y-15.211 F200.000
G1 X-4.568 Y-14.977 F200.000
G1 X-4.444 Y-14.714 F200.000
G1 X-4.357 Y-14.440 F200.000
G1 X-4.316 Y-14.143 F200.000
G1 X-4.327 Y-13.962 F200.000
G1 X-4.357 Y-13.842 F200.000
G1 X-4.387 Y-13.789 F200.000
G1 X-4.387 Y-13.789 F200.000
G1 X-4.504 Y-13.774 F200.000
G1 X-4.590 Y-13.793 F200.000
G0 X-4.617 Y-13.808
G0 X-4.741 Y-13.932
G0 X-6.508 Y-15.910
G1 X-6.534 Y-15.936 F200.000
G1 X-6.605 Y-16.034 F200.000
G1 X-6.605 Y-16.083 F200.000
G1 X-6.560 Y-16.154 F200.000
G1 X-6.462 Y-16.226 F200.000
G1 X-6.462 Y-16.226 F200.000
G1 X-6.293 Y-16.297 F200.000
G1 X-5.992 Y-16.357 F200.000
G1 X-5.872 Y-16.357 F200.000
G1 X-5.571 Y-16.282 F200.000
G1 X-5.226 Y-16.132 F200.000
G1 X-4.906 Y-15.936 F200.000
G1 X-4.624 Y-15.692 F200.000
