(Exported by FreeCAD)
(Post Processor: grbl_post)
(Output Time:2023-08-23 10:12:22.792121)
(Begin preamble)
G17 G90
G21
(Block-name: G54)
(Block-expand: 0)
(Block-enable: 1)
(Begin operation: G54)
(Path: G54)
G54
G0 Z5.000
(Finish operation: G54)
(Block-name: 3mm Endmill001)
(Block-expand: 0)
(Block-enable: 1)
(Begin operation: 3mm Endmill001)
(Path: 3mm Endmill001)
(3mm Endmill001)
(Begin toolchange)
( M6 T2 )
(Finish operation: 3mm Endmill001)
(Block-name: Adaptive)
(Block-expand: 0)
(Block-enable: 1)
(Begin operation: Adaptive)
(Path: Adaptive)
(Adaptive)
(Helix to depth: -6.000000)
G0 Z5.000
G0 X-2.517 Y53.857 Z5.000
G0 X-2.517 Y53.857 Z3.000
G1 X-2.517 Y53.857 Z0.000 F100.000
G1 X-2.517 Y53.857 Z0.000 F100.000
G1 X-2.593 Y53.575 Z-0.026 F100.000
G1 X-2.613 Y53.284 Z-0.052 F100.000
G1 X-2.576 Y52.994 Z-0.077 F100.000
G1 X-2.483 Y52.717 Z-0.103 F100.000
G1 X-2.338 Y52.463 Z-0.129 F100.000
G1 X-2.146 Y52.243 Z-0.155 F100.000
G1 X-1.915 Y52.065 Z-0.180 F100.000
G1 X-1.654 Y51.934 Z-0.206 F100.000
G1 X-1.372 Y51.858 Z-0.232 F100.000
G1 X-1.081 Y51.838 Z-0.258 F100.000
G1 X-0.791 Y51.875 Z-0.283 F100.000
G1 X-0.514 Y51.968 Z-0.309 F100.000
G1 X-0.260 Y52.113 Z-0.335 F100.000
G1 X-0.040 Y52.305 Z-0.361 F100.000
G1 X0.138 Y52.536 Z-0.387 F100.000
G1 X0.269 Y52.797 Z-0.412 F100.000
G1 X0.345 Y53.079 Z-0.438 F100.000
G1 X0.365 Y53.371 Z-0.464 F100.000
G1 X0.328 Y53.660 Z-0.490 F100.000
G1 X0.235 Y53.937 Z-0.515 F100.000
G1 X0.090 Y54.191 Z-0.541 F100.000
G1 X-0.102 Y54.411 Z-0.567 F100.000
G1 X-0.333 Y54.590 Z-0.593 F100.000
G1 X-0.594 Y54.720 Z-0.618 F100.000
G1 X-0.876 Y54.796 Z-0.644 F100.000
G1 X-1.168 Y54.816 Z-0.670 F100.000
G1 X-1.457 Y54.779 Z-0.696 F100.000
G1 X-1.734 Y54.686 Z-0.721 F100.000
G1 X-1.988 Y54.541 Z-0.747 F100.000
G1 X-2.208 Y54.349 Z-0.773 F100.000
G1 X-2.387 Y54.118 Z-0.799 F100.000
G1 X-2.517 Y53.857 Z-0.825 F100.000
G1 X-2.593 Y53.575 Z-0.850 F100.000
G1 X-2.613 Y53.284 Z-0.876 F100.000
G1 X-2.576 Y52.994 Z-0.902 F100.000
G1 X-2.483 Y52.717 Z-0.928 F100.000
G1 X-2.338 Y52.463 Z-0.953 F100.000
G1 X-2.146 Y52.243 Z-0.979 F100.000
G1 X-1.915 Y52.065 Z-1.005 F100.000
G1 X-1.654 Y51.934 Z-1.031 F100.000
G1 X-1.372 Y51.858 Z-1.056 F100.000
G1 X-1.081 Y51.838 Z-1.082 F100.000
G1 X-0.791 Y51.875 Z-1.108 F100.000
G1 X-0.514 Y51.968 Z-1.134 F100.000
G1 X-0.260 Y52.113 Z-1.160 F100.000
G1 X-0.040 Y52.305 Z-1.185 F100.000
G1 X0.138 Y52.536 Z-1.211 F100.000
G1 X0.269 Y52.797 Z-1.237 F100.000
G1 X0.345 Y53.079 Z-1.263 F100.000
G1 X0.365 Y53.371 Z-1.288 F100.000
G1 X0.328 Y53.660 Z-1.314 F100.000
G1 X0.235 Y53.937 Z-1.340 F100.000
G1 X0.090 Y54.191 Z-1.366 F100.000
G1 X-0.102 Y54.411 Z-1.391 F100.000
G1 X-0.333 Y54.590 Z-1.417 F100.000
G1 X-0.594 Y54.720 Z-1.443 F100.000
G1 X-0.876 Y54.796 Z-1.469 F100.000
G1 X-1.168 Y54.816 Z-1.495 F100.000
G1 X-1.457 Y54.779 Z-1.520 F100.000
G1 X-1.734 Y54.686 Z-1.546 F100.000
G1 X-1.988 Y54.541 Z-1.572 F100.000
G1 X-2.208 Y54.349 Z-1.598 F100.000
G1 X-2.387 Y54.118 Z-1.623 F100.000
G1 X-2.517 Y53.857 Z-1.649 F100.000
G1 X-2.593 Y53.575 Z-1.675 F100.000
G1 X-2.613 Y53.284 Z-1.701 F100.000
G1 X-2.576 Y52.994 Z-1.726 F100.000
G1 X-2.483 Y52.717 Z-1.752 F100.000
G1 X-2.338 Y52.463 Z-1.778 F100.000
G1 X-2.146 Y52.243 Z-1.804 F100.000
G1 X-1.915 Y52.065 Z-1.829 F100.000
G1 X-1.654 Y51.934 Z-1.855 F100.000
G1 X-1.372 Y51.858 Z-1.881 F100.000
G1 X-1.081 Y51.838 Z-1.907 F100.000
G1 X-0.791 Y51.875 Z-1.933 F100.000
G1 X-0.514 Y51.968 Z-1.958 F100.000
G1 X-0.260 Y52.113 Z-1.984 F100.000
G1 X-0.040 Y52.305 Z-2.010 F100.000
G1 X0.138 Y52.536 Z-2.036 F100.000
G1 X0.269 Y52.797 Z-2.061 F100.000
G1 X0.345 Y53.079 Z-2.087 F100.000
G1 X0.365 Y53.371 Z-2.113 F100.000
G1 X0.328 Y53.660 Z-2.139 F100.000
G1 X0.235 Y53.937 Z-2.164 F100.000
G1 X0.090 Y54.191 Z-2.190 F100.000
G1 X-0.102 Y54.411 Z-2.216 F100.000
G1 X-0.333 Y54.590 Z-2.242 F100.000
G1 X-0.594 Y54.720 Z-2.268 F100.000
G1 X-0.876 Y54.796 Z-2.293 F100.000
G1 X-1.168 Y54.816 Z-2.319 F100.000
G1 X-1.457 Y54.779 Z-2.345 F100.000
G1 X-1.734 Y54.686 Z-2.371 F100.000
G1 X-1.988 Y54.541 Z-2.396 F100.000
G1 X-2.208 Y54.349 Z-2.422 F100.000
G1 X-2.387 Y54.118 Z-2.448 F100.000
G1 X-2.517 Y53.857 Z-2.474 F100.000
G1 X-2.593 Y53.575 Z-2.499 F100.000
G1 X-2.613 Y53.284 Z-2.525 F100.000
G1 X-2.576 Y52.994 Z-2.551 F100.000
G1 X-2.483 Y52.717 Z-2.577 F100.000
G1 X-2.338 Y52.463 Z-2.603 F100.000
G1 X-2.146 Y52.243 Z-2.628 F100.000
G1 X-1.915 Y52.065 Z-2.654 F100.000
G1 X-1.654 Y51.934 Z-2.680 F100.000
G1 X-1.372 Y51.858 Z-2.706 F100.000
G1 X-1.081 Y51.838 Z-2.731 F100.000
G1 X-0.791 Y51.875 Z-2.757 F100.000
G1 X-0.514 Y51.968 Z-2.783 F100.000
G1 X-0.260 Y52.113 Z-2.809 F100.000
G1 X-0.040 Y52.305 Z-2.834 F100.000
G1 X0.138 Y52.536 Z-2.860 F100.000
G1 X0.269 Y52.797 Z-2.886 F100.000
G1 X0.345 Y53.079 Z-2.912 F100.000
G1 X0.365 Y53.371 Z-2.937 F100.000
G1 X0.328 Y53.660 Z-2.963 F100.000
G1 X0.235 Y53.937 Z-2.989 F100.000
G1 X0.090 Y54.191 Z-3.015 F100.000
G1 X-0.102 Y54.411 Z-3.041 F100.000
G1 X-0.333 Y54.590 Z-3.066 F100.000
G1 X-0.594 Y54.720 Z-3.092 F100.000
G1 X-0.876 Y54.796 Z-3.118 F100.000
G1 X-1.168 Y54.816 Z-3.144 F100.000
G1 X-1.457 Y54.779 Z-3.169 F100.000
G1 X-1.734 Y54.686 Z-3.195 F100.000
G1 X-1.988 Y54.541 Z-3.221 F100.000
G1 X-2.208 Y54.349 Z-3.247 F100.000
G1 X-2.387 Y54.118 Z-3.272 F100.000
G1 X-2.517 Y53.857 Z-3.298 F100.000
G1 X-2.593 Y53.575 Z-3.324 F100.000
G1 X-2.613 Y53.284 Z-3.350 F100.000
G1 X-2.576 Y52.994 Z-3.376 F100.000
G1 X-2.483 Y52.717 Z-3.401 F100.000
G1 X-2.338 Y52.463 Z-3.427 F100.000
G1 X-2.146 Y52.243 Z-3.453 F100.000
G1 X-1.915 Y52.065 Z-3.479 F100.000
G1 X-1.654 Y51.934 Z-3.504 F100.000
G1 X-1.372 Y51.858 Z-3.530 F100.000
G1 X-1.081 Y51.838 Z-3.556 F100.000
G1 X-0.791 Y51.875 Z-3.582 F100.000
G1 X-0.514 Y51.968 Z-3.607 F100.000
G1 X-0.260 Y52.113 Z-3.633 F100.000
G1 X-0.040 Y52.305 Z-3.659 F100.000
G1 X0.138 Y52.536 Z-3.685 F100.000
G1 X0.269 Y52.797 Z-3.711 F100.000
G1 X0.345 Y53.079 Z-3.736 F100.000
G1 X0.365 Y53.371 Z-3.762 F100.000
G1 X0.328 Y53.660 Z-3.788 F100.000
G1 X0.235 Y53.937 Z-3.814 F100.000
G1 X0.090 Y54.191 Z-3.839 F100.000
G1 X-0.102 Y54.411 Z-3.865 F100.000
G1 X-0.333 Y54.590 Z-3.891 F100.000
G1 X-0.594 Y54.720 Z-3.917 F100.000
G1 X-0.876 Y54.796 Z-3.942 F100.000
G1 X-1.168 Y54.816 Z-3.968 F100.000
G1 X-1.457 Y54.779 Z-3.994 F100.000
G1 X-1.734 Y54.686 Z-4.020 F100.000
G1 X-1.988 Y54.541 Z-4.046 F100.000
G1 X-2.208 Y54.349 Z-4.071 F100.000
G1 X-2.387 Y54.118 Z-4.097 F100.000
G1 X-2.517 Y53.857 Z-4.123 F100.000
G1 X-2.593 Y53.575 Z-4.149 F100.000
G1 X-2.613 Y53.284 Z-4.174 F100.000
G1 X-2.576 Y52.994 Z-4.200 F100.000
G1 X-2.483 Y52.717 Z-4.226 F100.000
G1 X-2.338 Y52.463 Z-4.252 F100.000
G1 X-2.146 Y52.243 Z-4.277 F100.000
G1 X-1.915 Y52.065 Z-4.303 F100.000
G1 X-1.654 Y51.934 Z-4.329 F100.000
G1 X-1.372 Y51.858 Z-4.355 F100.000
G1 X-1.081 Y51.838 Z-4.380 F100.000
G1 X-0.791 Y51.875 Z-4.406 F100.000
G1 X-0.514 Y51.968 Z-4.432 F100.000
G1 X-0.260 Y52.113 Z-4.458 F100.000
G1 X-0.040 Y52.305 Z-4.484 F100.000
G1 X0.138 Y52.536 Z-4.509 F100.000
G1 X0.269 Y52.797 Z-4.535 F100.000
G1 X0.345 Y53.079 Z-4.561 F100.000
G1 X0.365 Y53.371 Z-4.587 F100.000
G1 X0.328 Y53.660 Z-4.612 F100.000
G1 X0.235 Y53.937 Z-4.638 F100.000
G1 X0.090 Y54.191 Z-4.664 F100.000
G1 X-0.102 Y54.411 Z-4.690 F100.000
G1 X-0.333 Y54.590 Z-4.715 F100.000
G1 X-0.594 Y54.720 Z-4.741 F100.000
G1 X-0.876 Y54.796 Z-4.767 F100.000
G1 X-1.168 Y54.816 Z-4.793 F100.000
G1 X-1.457 Y54.779 Z-4.819 F100.000
G1 X-1.734 Y54.686 Z-4.844 F100.000
G1 X-1.988 Y54.541 Z-4.870 F100.000
G1 X-2.208 Y54.349 Z-4.896 F100.000
G1 X-2.387 Y54.118 Z-4.922 F100.000
G1 X-2.517 Y53.857 Z-4.947 F100.000
G1 X-2.593 Y53.575 Z-4.973 F100.000
G1 X-2.613 Y53.284 Z-4.999 F100.000
G1 X-2.576 Y52.994 Z-5.025 F100.000
G1 X-2.483 Y52.717 Z-5.050 F100.000
G1 X-2.338 Y52.463 Z-5.076 F100.000
G1 X-2.146 Y52.243 Z-5.102 F100.000
G1 X-1.915 Y52.065 Z-5.128 F100.000
G1 X-1.654 Y51.934 Z-5.154 F100.000
G1 X-1.372 Y51.858 Z-5.179 F100.000
G1 X-1.081 Y51.838 Z-5.205 F100.000
G1 X-0.791 Y51.875 Z-5.231 F100.000
G1 X-0.514 Y51.968 Z-5.257 F100.000
G1 X-0.260 Y52.113 Z-5.282 F100.000
G1 X-0.040 Y52.305 Z-5.308 F100.000
G1 X0.138 Y52.536 Z-5.334 F100.000
G1 X0.269 Y52.797 Z-5.360 F100.000
G1 X0.345 Y53.079 Z-5.385 F100.000
G1 X0.365 Y53.371 Z-5.411 F100.000
G1 X0.328 Y53.660 Z-5.437 F100.000
G1 X0.235 Y53.937 Z-5.463 F100.000
G1 X0.090 Y54.191 Z-5.488 F100.000
G1 X-0.102 Y54.411 Z-5.514 F100.000
G1 X-0.333 Y54.590 Z-5.540 F100.000
G1 X-0.594 Y54.720 Z-5.566 F100.000
G1 X-0.876 Y54.796 Z-5.592 F100.000
G1 X-1.168 Y54.816 Z-5.617 F100.000
G1 X-1.457 Y54.779 Z-5.643 F100.000
G1 X-1.734 Y54.686 Z-5.669 F100.000
G1 X-1.988 Y54.541 Z-5.695 F100.000
G1 X-2.208 Y54.349 Z-5.720 F100.000
G1 X-2.387 Y54.118 Z-5.746 F100.000
G1 X-2.517 Y53.857 Z-5.772 F100.000
G1 X-2.593 Y53.575 Z-5.798 F100.000
G1 X-2.613 Y53.284 Z-5.823 F100.000
G1 X-2.576 Y52.994 Z-5.849 F100.000
G1 X-2.483 Y52.717 Z-5.875 F100.000
G1 X-2.338 Y52.463 Z-5.901 F100.000
G1 X-2.146 Y52.243 Z-5.927 F100.000
G1 X-1.915 Y52.065 Z-5.952 F100.000
G1 X-1.654 Y51.934 Z-5.978 F100.000
G1 X-1.372 Y51.858 Z-6.000 F200.000
G1 X-1.081 Y51.838 Z-6.000 F200.000
G1 X-0.791 Y51.875 Z-6.000 F200.000
G1 X-0.514 Y51.968 Z-6.000 F200.000
G1 X-0.260 Y52.113 Z-6.000 F200.000
G1 X-0.040 Y52.305 Z-6.000 F200.000
G1 X0.138 Y52.536 Z-6.000 F200.000
G1 X0.269 Y52.797 Z-6.000 F200.000
G1 X0.345 Y53.079 Z-6.000 F200.000
G1 X0.365 Y53.371 Z-6.000 F200.000
G1 X0.328 Y53.660 Z-6.000 F200.000
G1 X0.235 Y53.937 Z-6.000 F200.000
G1 X0.090 Y54.191 Z-6.000 F200.000
G1 X-0.102 Y54.411 Z-6.000 F200.000
G1 X-0.333 Y54.590 Z-6.000 F200.000
G1 X-0.594 Y54.720 Z-6.000 F200.000
G1 X-0.876 Y54.796 Z-6.000 F200.000
G1 X-1.168 Y54.816 Z-6.000 F200.000
G1 X-1.457 Y54.779 Z-6.000 F200.000
G1 X-1.734 Y54.686 Z-6.000 F200.000
G1 X-1.988 Y54.541 Z-6.000 F200.000
G1 X-2.208 Y54.349 Z-6.000 F200.000
G1 X-2.387 Y54.118 Z-6.000 F200.000
G1 X-2.517 Y53.857 Z-6.000 F200.000
G1 X-2.593 Y53.575 Z-6.000 F200.000
G1 X-2.613 Y53.284 Z-6.000 F200.000
G1 X-2.576 Y52.994 Z-6.000 F200.000
G1 X-2.483 Y52.717 Z-6.000 F200.000
G1 X-2.338 Y52.463 Z-6.000 F200.000
G1 X-2.146 Y52.243 Z-6.000 F200.000
G1 X-1.915 Y52.065 Z-6.000 F200.000
G1 X-1.654 Y51.934 Z-6.000 F200.000
(Adaptive - depth: -6.000000)
G1 X-1.124 Y51.827 F200.000
G1 X-1.071 Y51.793 F200.000
G1 X-1.071 Y51.793 F200.000
G1 X-0.891 Y51.914 F200.000
G1 X-0.865 Y51.929 F200.000
G1 X-0.805 Y51.944 F200.000
G1 X-0.534 Y51.914 F200.000
G1 X-0.534 Y51.914 F200.000
G1 X-0.530 Y51.906 F200.000
G1 X-0.474 Y51.929 F200.000
G1 X-0.113 Y51.977 F200.000
G1 X0.053 Y52.034 F200.000
G1 X0.188 Y52.139 F200.000
G1 X0.380 Y52.357 F200.000
G1 X0.444 Y52.455 F200.000
G1 X0.605 Y52.786 F200.000
G1 X0.688 Y53.147 F200.000
G1 X0.699 Y53.331 F200.000
G1 X0.692 Y53.492 F200.000
G1 X0.658 Y53.703 F200.000
G1 X0.590 Y53.940 F200.000
G1 X0.489 Y54.177 F200.000
G1 X0.368 Y54.383 F200.000
G1 X0.207 Y54.575 F200.000
G1 X-0.079 Y54.797 F200.000
G1 X-0.278 Y54.914 F200.000
G1 X-0.447 Y54.951 F200.000
G1 X-1.406 Y54.812 F200.000
G1 X-2.139 Y54.598 F200.000
G1 X-2.353 Y54.492 F200.000
G1 X-2.496 Y54.383 F200.000
G1 X-2.643 Y54.192 F200.000
G1 X-2.801 Y53.861 F200.000
G1 X-2.835 Y53.741 F200.000
G1 X-2.914 Y53.376 F200.000
G1 X-2.902 Y53.004 F200.000
G1 X-2.861 Y52.812 F200.000
G1 X-2.805 Y52.650 F200.000
G1 X-2.729 Y52.485 F200.000
G1 X-2.598 Y52.267 F200.000
G1 X-2.429 Y52.053 F200.000
G1 X-2.244 Y51.883 F200.000
G1 X-1.853 Y51.643 F200.000
G1 X-1.684 Y51.568 F200.000
G1 X-1.624 Y51.560 F200.000
G1 X-1.624 Y51.560 F200.000
G1 X-1.523 Y51.635 F200.000
G1 X-1.470 Y51.711 F200.000
G0 X-1.459 Y51.737
G0 X-1.338 Y52.045
G0 X-1.305 Y52.086
G0 X-0.620 Y52.271
G0 X-0.564 Y52.267
G0 X-0.414 Y52.150
G1 X-0.387 Y52.128 F200.000
G1 X-0.237 Y52.008 F200.000
G1 X-0.117 Y51.962 F200.000
G1 X-0.056 Y51.959 F200.000
G1 X-0.056 Y51.959 F200.000
G1 X0.226 Y51.974 F200.000
G1 X0.338 Y52.004 F200.000
G1 X0.564 Y52.177 F200.000
G1 X0.744 Y52.398 F200.000
G1 X0.917 Y52.726 F200.000
G1 X1.011 Y53.075 F200.000
G1 X1.030 Y53.259 F200.000
G1 X1.030 Y53.425 F200.000
G1 X1.015 Y53.635 F200.000
G1 X0.951 Y53.955 F200.000
G1 X0.853 Y54.218 F200.000
G1 X0.744 Y54.417 F200.000
G1 X0.632 Y54.590 F200.000
G1 X0.331 Y54.883 F200.000
G1 X0.282 Y54.921 F200.000
G1 X0.169 Y54.966 F200.000
G1 X-0.008 Y54.970 F200.000
G1 X-0.008 Y54.970 F200.000
G1 X-0.124 Y54.936 F200.000
G1 X-0.192 Y54.887 F200.000
G0 X-0.207 Y54.861
G0 X-0.214 Y54.748
G0 X0.000 Y52.237
G1 X0.000 Y52.199 F200.000
G1 X0.015 Y52.094 F200.000
G1 X0.045 Y52.038 F200.000
G1 X0.117 Y51.981 F200.000
G1 X0.241 Y51.947 F200.000
G1 X0.241 Y51.947 F200.000
G1 X0.466 Y51.947 F200.000
G1 X0.635 Y51.977 F200.000
G1 X0.865 Y52.150 F200.000
G1 X1.015 Y52.323 F200.000
G1 X1.211 Y52.639 F200.000
G1 X1.331 Y52.989 F200.000
G1 X1.361 Y53.180 F200.000
G1 X1.376 Y53.350 F200.000
G1 X1.368 Y53.590 F200.000
G1 X1.335 Y53.857 F200.000
G1 X1.267 Y54.139 F200.000
G1 X1.165 Y54.383 F200.000
G1 X0.891 Y54.774 F200.000
G1 X0.763 Y54.895 F200.000
G1 X0.711 Y54.925 F200.000
G1 X0.650 Y54.940 F200.000
G1 X0.410 Y54.959 F200.000
G1 X0.410 Y54.959 F200.000
G1 X0.282 Y54.940 F200.000
G1 X0.226 Y54.917 F200.000
G1 X0.203 Y54.898 F200.000
G0 X0.188 Y54.876
G0 X0.173 Y54.763
G0 X0.312 Y52.233
G1 X0.316 Y52.195 F200.000
G1 X0.327 Y52.086 F200.000
G1 X0.372 Y52.008 F200.000
G1 X0.477 Y51.940 F200.000
G1 X0.538 Y51.921 F200.000
G1 X0.538 Y51.921 F200.000
G1 X0.763 Y51.902 F200.000
G1 X0.876 Y51.917 F200.000
G1 X1.026 Y51.996 F200.000
G1 X1.207 Y52.139 F200.000
G1 X1.286 Y52.222 F200.000
G1 X1.500 Y52.523 F200.000
G1 X1.639 Y52.853 F200.000
G1 X1.688 Y53.038 F200.000
G1 X1.714 Y53.214 F200.000
G1 X1.729 Y53.432 F200.000
G1 X1.722 Y53.726 F200.000
G1 X1.673 Y54.041 F200.000
G1 X1.568 Y54.353 F200.000
G1 X1.350 Y54.707 F200.000
G1 X1.274 Y54.797 F200.000
G1 X1.226 Y54.835 F200.000
G1 X1.169 Y54.857 F200.000
G1 X0.989 Y54.891 F200.000
G1 X0.989 Y54.891 F200.000
G1 X0.861 Y54.887 F200.000
G1 X0.774 Y54.850 F200.000
G0 X0.756 Y54.831
G0 X0.729 Y54.722
G0 X0.575 Y52.195
G1 X0.575 Y52.158 F200.000
G1 X0.575 Y52.049 F200.000
G1 X0.598 Y51.992 F200.000
G1 X0.662 Y51.925 F200.000
G1 X0.774 Y51.872 F200.000
G1 X0.774 Y51.872 F200.000
G1 X0.831 Y51.868 F200.000
G1 X1.000 Y51.835 F200.000
G1 X1.113 Y51.842 F200.000
G1 X1.274 Y51.910 F200.000
G1 X1.508 Y52.083 F200.000
G1 X1.786 Y52.410 F200.000
G1 X1.951 Y52.741 F200.000
G1 X2.008 Y52.917 F200.000
G1 X2.049 Y53.090 F200.000
G1 X2.083 Y53.335 F200.000
G1 X2.094 Y53.628 F200.000
G1 X2.071 Y53.936 F200.000
G1 X2.008 Y54.211 F200.000
G1 X1.823 Y54.583 F200.000
G1 X1.756 Y54.680 F200.000
G1 X1.654 Y54.748 F200.000
G1 X1.481 Y54.801 F200.000
G1 X1.481 Y54.801 F200.000
G1 X1.320 Y54.793 F200.000
G1 X1.267 Y54.771 F200.000
G0 X1.248 Y54.752
G0 X1.214 Y54.643
G0 X0.887 Y52.128
G1 X0.883 Y52.090 F200.000
G1 X0.876 Y51.981 F200.000
G1 X0.891 Y51.921 F200.000
G1 X0.951 Y51.850 F200.000
G1 X1.060 Y51.789 F200.000
G1 X1.060 Y51.789 F200.000
G1 X1.286 Y51.741 F200.000
G1 X1.342 Y51.737 F200.000
G1 X1.398 Y51.744 F200.000
G1 X1.654 Y51.872 F200.000
G1 X1.835 Y52.015 F200.000
G1 X2.083 Y52.289 F200.000
G1 X2.263 Y52.613 F200.000
G1 X2.335 Y52.793 F200.000
G1 X2.387 Y52.974 F200.000
G1 X2.436 Y53.195 F200.000
G1 X2.470 Y53.549 F200.000
G1 X2.455 Y53.850 F200.000
G1 X2.410 Y54.090 F200.000
G1 X2.278 Y54.421 F200.000
G1 X2.218 Y54.526 F200.000
G1 X2.177 Y54.571 F200.000
G1 X2.128 Y54.609 F200.000
G1 X2.015 Y54.650 F200.000
G1 X2.015 Y54.650 F200.000
G1 X1.887 Y54.654 F200.000
G1 X1.801 Y54.628 F200.000
G0 X1.778 Y54.609
G0 X1.733 Y54.504
G0 X1.154 Y52.064
G1 X1.147 Y52.026 F200.000
G1 X1.128 Y51.921 F200.000
G1 X1.135 Y51.857 F200.000
G1 X1.184 Y51.782 F200.000
G1 X1.286 Y51.707 F200.000
G1 X1.286 Y51.707 F200.000
G1 X1.455 Y51.650 F200.000
G1 X1.568 Y51.632 F200.000
G1 X1.624 Y51.635 F200.000
G1 X1.842 Y51.714 F200.000
G1 X2.086 Y51.865 F200.000
G1 X2.350 Y52.124 F200.000
G1 X2.553 Y52.421 F200.000
G1 X2.643 Y52.605 F200.000
G1 X2.711 Y52.782 F200.000
G1 X2.774 Y53.008 F200.000
G1 X2.827 Y53.301 F200.000
G1 X2.842 Y53.613 F200.000
G1 X2.820 Y53.887 F200.000
G1 X2.741 Y54.169 F200.000
G1 X2.669 Y54.331 F200.000
G1 X2.594 Y54.421 F200.000
G1 X2.316 Y54.545 F200.000
G1 X2.316 Y54.545 F200.000
G1 X2.188 Y54.560 F200.000
G1 X2.102 Y54.538 F200.000
G0 X2.079 Y54.519
G0 X2.034 Y54.417
G0 X1.376 Y51.962
G1 X1.368 Y51.921 F200.000
G1 X1.346 Y51.820 F200.000
G1 X1.357 Y51.756 F200.000
G1 X1.402 Y51.680 F200.000
G1 X1.504 Y51.605 F200.000
G1 X1.504 Y51.605 F200.000
G1 X1.726 Y51.526 F200.000
G1 X1.838 Y51.508 F200.000
G1 X2.060 Y51.564 F200.000
G1 X2.316 Y51.695 F200.000
G1 X2.602 Y51.932 F200.000
G1 X2.816 Y52.195 F200.000
G1 X2.921 Y52.361 F200.000
G1 X3.011 Y52.538 F200.000
G1 X3.098 Y52.774 F200.000
G1 X3.169 Y53.049 F200.000
G1 X3.214 Y53.346 F200.000
G1 X3.211 Y53.677 F200.000
G1 X3.139 Y54.015 F200.000
G1 X3.098 Y54.128 F200.000
G1 X3.023 Y54.218 F200.000
G1 X2.865 Y54.297 F200.000
G1 X2.865 Y54.297 F200.000
G1 X2.737 Y54.323 F200.000
G1 X2.650 Y54.312 F200.000
G0 X2.628 Y54.297
G0 X2.568 Y54.199
G0 X1.692 Y51.850
G1 X1.680 Y51.812 F200.000
G1 X1.650 Y51.711 F200.000
G1 X1.658 Y51.617 F200.000
G1 X1.771 Y51.470 F200.000
G1 X1.771 Y51.470 F200.000
G1 X1.989 Y51.376 F200.000
G1 X2.102 Y51.361 F200.000
G1 X2.271 Y51.395 F200.000
G1 X2.586 Y51.534 F200.000
G1 X2.883 Y51.756 F200.000
G1 X3.128 Y52.030 F200.000
G1 X3.241 Y52.199 F200.000
G1 X3.327 Y52.365 F200.000
G1 X3.421 Y52.579 F200.000
G1 X3.523 Y52.891 F200.000
G1 X3.586 Y53.207 F200.000
G1 X3.594 Y53.549 F200.000
G1 X3.538 Y53.831 F200.000
G1 X3.477 Y53.932 F200.000
G1 X3.436 Y53.974 F200.000
G1 X3.331 Y54.041 F200.000
G1 X3.331 Y54.041 F200.000
G1 X3.207 Y54.083 F200.000
G1 X3.120 Y54.083 F200.000
G0 X3.094 Y54.068
G0 X3.030 Y53.977
G0 X1.910 Y51.711
G1 X1.895 Y51.677 F200.000
G1 X1.853 Y51.575 F200.000
G1 X1.850 Y51.515 F200.000
G1 X1.883 Y51.429 F200.000
G1 X1.970 Y51.338 F200.000
G1 X1.970 Y51.338 F200.000
G1 X2.124 Y51.252 F200.000
G1 X2.237 Y51.211 F200.000
G1 X2.293 Y51.199 F200.000
G1 X2.519 Y51.226 F200.000
G1 X2.789 Y51.323 F200.000
G1 X3.102 Y51.519 F200.000
G1 X3.368 Y51.774 F200.000
G1 X3.492 Y51.932 F200.000
G1 X3.598 Y52.090 F200.000
G1 X3.718 Y52.312 F200.000
G1 X3.835 Y52.586 F200.000
G1 X3.929 Y52.898 F200.000
G1 X3.962 Y53.188 F200.000
G1 X3.947 Y53.470 F200.000
G1 X3.925 Y53.583 F200.000
G1 X3.865 Y53.684 F200.000
G1 X3.718 Y53.793 F200.000
G1 X3.718 Y53.793 F200.000
G1 X3.594 Y53.835 F200.000
G1 X3.504 Y53.835 F200.000
G0 X3.481 Y53.823
G0 X3.406 Y53.733
G0 X2.147 Y51.579
G1 X2.124 Y51.541 F200.000
G1 X2.079 Y51.447 F200.000
G1 X2.068 Y51.387 F200.000
G1 X2.090 Y51.297 F200.000
G1 X2.165 Y51.199 F200.000
G1 X2.165 Y51.199 F200.000
G1 X2.305 Y51.090 F200.000
G1 X2.410 Y51.034 F200.000
G1 X2.466 Y51.015 F200.000
G1 X2.635 Y51.011 F200.000
G1 X2.861 Y51.053 F200.000
G1 X2.970 Y51.090 F200.000
G1 X3.297 Y51.259 F200.000
G1 X3.586 Y51.489 F200.000
G1 X3.726 Y51.639 F200.000
G1 X3.842 Y51.782 F200.000
G1 X3.981 Y51.992 F200.000
G1 X4.124 Y52.267 F200.000
G1 X4.244 Y52.571 F200.000
G1 X4.316 Y52.917 F200.000
G1 X4.316 Y53.199 F200.000
G1 X4.308 Y53.256 F200.000
G1 X4.256 Y53.365 F200.000
G1 X4.165 Y53.444 F200.000
G1 X4.165 Y53.444 F200.000
G1 X4.049 Y53.500 F200.000
G1 X3.959 Y53.508 F200.000
G0 X3.932 Y53.496
G0 X3.853 Y53.417
G0 X2.383 Y51.368
G1 X2.357 Y51.335 F200.000
G1 X2.305 Y51.244 F200.000
G1 X2.289 Y51.184 F200.000
G1 X2.312 Y51.098 F200.000
G1 X2.387 Y51.000 F200.000
G1 X2.387 Y51.000 F200.000
G1 X2.477 Y50.917 F200.000
G1 X2.632 Y50.827 F200.000
G1 X2.688 Y50.812 F200.000
G1 X2.914 Y50.808 F200.000
G1 X3.195 Y50.868 F200.000
G1 X3.534 Y51.019 F200.000
G1 X3.835 Y51.233 F200.000
G1 X3.989 Y51.380 F200.000
G1 X4.113 Y51.523 F200.000
G1 X4.259 Y51.714 F200.000
G1 X4.429 Y52.000 F200.000
G1 X4.564 Y52.293 F200.000
G1 X4.643 Y52.575 F200.000
G1 X4.665 Y52.857 F200.000
G1 X4.662 Y52.914 F200.000
G1 X4.647 Y52.970 F200.000
G1 X4.620 Y53.023 F200.000
G1 X4.538 Y53.105 F200.000
G1 X4.538 Y53.105 F200.000
G1 X4.429 Y53.169 F200.000
G1 X4.338 Y53.184 F200.000
G0 X4.312 Y53.177
G0 X4.226 Y53.105
G0 X2.575 Y51.192
G1 X2.549 Y51.158 F200.000
G1 X2.485 Y51.075 F200.000
G1 X2.470 Y51.015 F200.000
G1 X2.485 Y50.929 F200.000
G1 X2.553 Y50.823 F200.000
G1 X2.553 Y50.823 F200.000
G1 X2.733 Y50.662 F200.000
G1 X2.835 Y50.602 F200.000
G1 X3.004 Y50.575 F200.000
G1 X3.286 Y50.594 F200.000
G1 X3.342 Y50.605 F200.000
G1 X3.692 Y50.729 F200.000
G1 X4.000 Y50.914 F200.000
G1 X4.158 Y51.038 F200.000
G1 X4.301 Y51.173 F200.000
G1 X4.462 Y51.342 F200.000
G1 X4.680 Y51.639 F200.000
G1 X4.827 Y51.914 F200.000
G1 X4.947 Y52.263 F200.000
G1 X4.981 Y52.489 F200.000
G1 X4.981 Y52.545 F200.000
G1 X4.951 Y52.658 F200.000
G1 X4.797 Y52.838 F200.000
G1 X4.797 Y52.838 F200.000
G1 X4.692 Y52.910 F200.000
G1 X4.605 Y52.932 F200.000
G0 X4.579 Y52.925
G0 X4.489 Y52.857
G0 X2.793 Y50.959
G1 X2.767 Y50.932 F200.000
G1 X2.699 Y50.846 F200.000
G1 X2.680 Y50.789 F200.000
G1 X2.692 Y50.703 F200.000
G1 X2.748 Y50.594 F200.000
G1 X2.748 Y50.594 F200.000
G1 X2.872 Y50.462 F200.000
G1 X2.966 Y50.391 F200.000
G1 X3.135 Y50.346 F200.000
G1 X3.361 Y50.331 F200.000
G1 X3.530 Y50.346 F200.000
G1 X3.883 Y50.455 F200.000
G1 X4.207 Y50.620 F200.000
G1 X4.380 Y50.741 F200.000
G1 X4.530 Y50.865 F200.000
G1 X4.714 Y51.049 F200.000
G1 X4.917 Y51.297 F200.000
G1 X5.083 Y51.568 F200.000
G1 X5.188 Y51.793 F200.000
G1 X5.263 Y52.075 F200.000
G1 X5.271 Y52.188 F200.000
G1 X5.259 Y52.244 F200.000
G1 X5.199 Y52.346 F200.000
G1 X5.199 Y52.346 F200.000
G1 X5.098 Y52.425 F200.000
G1 X5.011 Y52.451 F200.000
G0 X4.985 Y52.451
G0 X4.887 Y52.391
G0 X2.989 Y50.756
G1 X2.955 Y50.729 F200.000
G1 X2.880 Y50.654 F200.000
G1 X2.853 Y50.602 F200.000
G1 X2.846 Y50.511 F200.000
G1 X2.883 Y50.398 F200.000
G1 X2.883 Y50.398 F200.000
G1 X2.989 Y50.256 F200.000
G1 X3.075 Y50.173 F200.000
G1 X3.124 Y50.139 F200.000
G1 X3.350 Y50.079 F200.000
G1 X3.575 Y50.064 F200.000
G1 X3.632 Y50.068 F200.000
G1 X3.992 Y50.147 F200.000
G1 X4.312 Y50.271 F200.000
G1 X4.515 Y50.383 F200.000
G1 X4.688 Y50.500 F200.000
G1 X4.880 Y50.662 F200.000
G1 X5.079 Y50.868 F200.000
G1 X5.271 Y51.117 F200.000
G1 X5.410 Y51.361 F200.000
G1 X5.496 Y51.575 F200.000
G1 X5.538 Y51.744 F200.000
G1 X5.523 Y51.857 F200.000
G1 X5.402 Y52.056 F200.000
G1 X5.402 Y52.053 F200.000
G1 X5.308 Y52.139 F200.000
G1 X5.256 Y52.165 F200.000
G1 X5.226 Y52.173 F200.000
G0 X5.199 Y52.169
G0 X5.102 Y52.117
G0 X3.147 Y50.496
G1 X3.117 Y50.474 F200.000
G1 X3.038 Y50.398 F200.000
G1 X3.011 Y50.346 F200.000
G1 X3.004 Y50.256 F200.000
G1 X3.041 Y50.143 F200.000
G1 X3.041 Y50.143 F200.000
G1 X3.177 Y49.947 F200.000
G1 X3.222 Y49.906 F200.000
G1 X3.271 Y49.876 F200.000
G1 X3.496 Y49.812 F200.000
G1 X3.722 Y49.786 F200.000
G1 X4.090 Y49.827 F200.000
G1 X4.410 Y49.921 F200.000
G1 X4.598 Y50.004 F200.000
G1 X4.774 Y50.098 F200.000
G1 X4.992 Y50.248 F200.000
G1 X5.218 Y50.440 F200.000
G1 X5.425 Y50.658 F200.000
G1 X5.677 Y51.041 F200.000
G1 X5.774 Y51.312 F200.000
G1 X5.767 Y51.425 F200.000
G1 X5.688 Y51.583 F200.000
G1 X5.688 Y51.583 F200.000
G1 X5.598 Y51.669 F200.000
G1 X5.519 Y51.707 F200.000
G0 X5.489 Y51.707
G0 X5.387 Y51.662
G0 X3.289 Y50.271
G1 X3.256 Y50.248 F200.000
G1 X3.173 Y50.184 F200.000
G1 X3.139 Y50.132 F200.000
G1 X3.120 Y50.045 F200.000
G1 X3.147 Y49.929 F200.000
G1 X3.147 Y49.929 F200.000
G1 X3.271 Y49.722 F200.000
G1 X3.312 Y49.677 F200.000
G1 X3.466 Y49.590 F200.000
G1 X3.635 Y49.534 F200.000
G1 X3.861 Y49.496 F200.000
G1 X4.229 Y49.519 F200.000
G1 X4.549 Y49.594 F200.000
G1 X4.752 Y49.669 F200.000
G1 X4.940 Y49.763 F200.000
G1 X5.147 Y49.880 F200.000
G1 X5.429 Y50.090 F200.000
G1 X5.643 Y50.305 F200.000
G1 X5.883 Y50.647 F200.000
G1 X5.959 Y50.801 F200.000
G1 X5.977 Y50.857 F200.000
G1 X5.981 Y50.914 F200.000
G1 X5.974 Y50.970 F200.000
G1 X5.861 Y51.241 F200.000
G1 X5.861 Y51.241 F200.000
G1 X5.786 Y51.338 F200.000
G1 X5.737 Y51.376 F200.000
G1 X5.714 Y51.387 F200.000
G0 X5.688 Y51.391
G0 X5.583 Y51.353
G0 X3.402 Y50.041
G1 X3.365 Y50.023 F200.000
G1 X3.278 Y49.959 F200.000
G1 X3.241 Y49.910 F200.000
G1 X3.218 Y49.823 F200.000
G1 X3.237 Y49.707 F200.000
G1 X3.237 Y49.707 F200.000
G1 X3.308 Y49.538 F200.000
G1 X3.410 Y49.391 F200.000
G1 X3.564 Y49.301 F200.000
G1 X3.789 Y49.226 F200.000
G1 X3.902 Y49.199 F200.000
G1 X4.271 Y49.188 F200.000
G1 X4.620 Y49.241 F200.000
G1 X4.816 Y49.297 F200.000
G1 X4.996 Y49.365 F200.000
G1 X5.226 Y49.477 F200.000
G1 X5.481 Y49.635 F200.000
G1 X5.726 Y49.827 F200.000
G1 X6.030 Y50.173 F200.000
G1 X6.117 Y50.320 F200.000
G1 X6.139 Y50.372 F200.000
G1 X6.154 Y50.485 F200.000
G1 X6.079 Y50.711 F200.000
G1 X6.079 Y50.711 F200.000
G1 X6.011 Y50.816 F200.000
G1 X5.936 Y50.868 F200.000
G0 X5.910 Y50.872
G0 X5.805 Y50.842
G0 X3.541 Y49.737
G1 X3.508 Y49.722 F200.000
G1 X3.414 Y49.669 F200.000
G1 X3.353 Y49.594 F200.000
G1 X3.331 Y49.421 F200.000
G1 X3.331 Y49.421 F200.000
G1 X3.391 Y49.248 F200.000
G1 X3.455 Y49.147 F200.000
G1 X3.496 Y49.102 F200.000
G1 X3.699 Y48.981 F200.000
G1 X3.925 Y48.902 F200.000
G1 X4.293 Y48.857 F200.000
G1 X4.632 Y48.880 F200.000
G1 X4.838 Y48.917 F200.000
G1 X5.038 Y48.974 F200.000
G1 X5.286 Y49.068 F200.000
G1 X5.553 Y49.207 F200.000
G1 X5.801 Y49.368 F200.000
G1 X6.135 Y49.680 F200.000
G1 X6.271 Y49.868 F200.000
G1 X6.289 Y49.925 F200.000
G1 X6.293 Y49.981 F200.000
G1 X6.282 Y50.038 F200.000
G1 X6.282 Y50.038 F200.000
G1 X6.229 Y50.147 F200.000
G1 X6.162 Y50.207 F200.000
G0 X6.139 Y50.214
G0 X6.026 Y50.199
G0 X3.598 Y49.477
G1 X3.556 Y49.466 F200.000
G1 X3.459 Y49.429 F200.000
G1 X3.414 Y49.387 F200.000
G1 X3.383 Y49.305 F200.000
G1 X3.387 Y49.188 F200.000
G1 X3.387 Y49.188 F200.000
G1 X3.432 Y49.008 F200.000
G1 X3.481 Y48.895 F200.000
G1 X3.515 Y48.846 F200.000
G1 X3.658 Y48.737 F200.000
G1 X3.816 Y48.650 F200.000
G1 X3.985 Y48.586 F200.000
G1 X4.350 Y48.519 F200.000
G1 X4.718 Y48.523 F200.000
G1 X4.932 Y48.556 F200.000
G1 X5.117 Y48.598 F200.000
G1 X5.372 Y48.680 F200.000
G1 X5.665 Y48.812 F200.000
G1 X5.940 Y48.970 F200.000
G1 X6.214 Y49.203 F200.000
G1 X6.361 Y49.380 F200.000
G1 X6.383 Y49.432 F200.000
G1 X6.391 Y49.489 F200.000
G1 X6.380 Y49.545 F200.000
G1 X6.380 Y49.545 F200.000
G1 X6.327 Y49.658 F200.000
G1 X6.263 Y49.718 F200.000
G0 X6.237 Y49.729
G0 X6.124 Y49.722
G0 X3.684 Y49.158
G1 X3.647 Y49.150 F200.000
G1 X3.545 Y49.120 F200.000
G1 X3.492 Y49.083 F200.000
G1 X3.447 Y49.008 F200.000
G1 X3.429 Y48.891 F200.000
G1 X3.429 Y48.891 F200.000
G1 X3.485 Y48.654 F200.000
G1 X3.511 Y48.598 F200.000
G1 X3.549 Y48.549 F200.000
G1 X3.737 Y48.395 F200.000
G1 X3.947 Y48.282 F200.000
G1 X4.305 Y48.184 F200.000
G1 X4.658 Y48.154 F200.000
G1 X4.872 Y48.162 F200.000
G1 X5.068 Y48.188 F200.000
G1 X5.301 Y48.241 F200.000
G1 X5.594 Y48.335 F200.000
G1 X5.906 Y48.477 F200.000
G1 X6.195 Y48.669 F200.000
G1 X6.406 Y48.868 F200.000
G1 X6.444 Y48.977 F200.000
G1 X6.436 Y49.147 F200.000
G1 X6.436 Y49.147 F200.000
G1 X6.398 Y49.259 F200.000
G1 X6.342 Y49.327 F200.000
G0 X6.320 Y49.338
G0 X6.207 Y49.338
G0 X3.707 Y48.902
G1 X3.665 Y48.898 F200.000
G1 X3.560 Y48.868 F200.000
G1 X3.504 Y48.823 F200.000
G1 X3.462 Y48.737 F200.000
G1 X3.451 Y48.650 F200.000
G1 X3.451 Y48.650 F200.000
G1 X3.474 Y48.470 F200.000
G1 X3.511 Y48.353 F200.000
G1 X3.538 Y48.301 F200.000
G1 X3.752 Y48.090 F200.000
G1 X3.955 Y47.966 F200.000
G1 X4.305 Y47.846 F200.000
G1 X4.658 Y47.793 F200.000
G1 X4.868 Y47.786 F200.000
G1 X5.075 Y47.801 F200.000
G1 X5.316 Y47.838 F200.000
G1 X5.620 Y47.921 F200.000
G1 X5.906 Y48.034 F200.000
G1 X6.207 Y48.192 F200.000
G1 X6.425 Y48.376 F200.000
G1 X6.451 Y48.425 F200.000
G1 X6.466 Y48.481 F200.000
G1 X6.462 Y48.594 F200.000
G1 X6.462 Y48.594 F200.000
G1 X6.429 Y48.711 F200.000
G1 X6.380 Y48.778 F200.000
G0 X6.353 Y48.793
G0 X6.241 Y48.801
G0 X3.744 Y48.579
G1 X3.707 Y48.579 F200.000
G1 X3.602 Y48.564 F200.000
G1 X3.545 Y48.534 F200.000
G1 X3.489 Y48.466 F200.000
G1 X3.455 Y48.353 F200.000
G1 X3.455 Y48.353 F200.000
G1 X3.481 Y48.113 F200.000
G1 X3.504 Y48.056 F200.000
G1 X3.695 Y47.827 F200.000
G1 X3.887 Y47.680 F200.000
G1 X4.226 Y47.523 F200.000
G1 X4.586 Y47.436 F200.000
G1 X4.786 Y47.414 F200.000
G1 X4.981 Y47.410 F200.000
G1 X5.218 Y47.421 F200.000
G1 X5.549 Y47.477 F200.000
G1 X5.846 Y47.564 F200.000
G1 X6.211 Y47.733 F200.000
G1 X6.398 Y47.868 F200.000
G1 X6.432 Y47.917 F200.000
G1 X6.447 Y47.974 F200.000
G1 X6.447 Y47.974 F200.000
G1 X6.425 Y48.090 F200.000
G1 X6.380 Y48.165 F200.000
G0 X6.357 Y48.180
G0 X6.244 Y48.207
G0 X3.729 Y48.372
G1 X3.692 Y48.376 F200.000
G1 X3.586 Y48.376 F200.000
G1 X3.530 Y48.350 F200.000
G1 X3.474 Y48.286 F200.000
G1 X3.440 Y48.173 F200.000
G1 X3.440 Y48.173 F200.000
G1 X3.429 Y47.992 F200.000
G1 X3.447 Y47.812 F200.000
G1 X3.470 Y47.756 F200.000
G1 X3.613 Y47.560 F200.000
G1 X3.789 Y47.398 F200.000
G1 X4.109 Y47.211 F200.000
G1 X4.459 Y47.090 F200.000
G1 X4.665 Y47.049 F200.000
G1 X4.857 Y47.026 F200.000
G1 X5.102 Y47.015 F200.000
G1 X5.459 Y47.045 F200.000
G1 X5.759 Y47.109 F200.000
G1 X6.102 Y47.233 F200.000
G1 X6.305 Y47.346 F200.000
G1 X6.380 Y47.432 F200.000
G1 X6.414 Y47.602 F200.000
G1 X6.414 Y47.602 F200.000
G1 X6.387 Y47.748 F200.000
G1 X6.357 Y47.797 F200.000
G0 X6.335 Y47.812
G0 X6.226 Y47.842
G0 X3.726 Y48.053
G1 X3.684 Y48.056 F200.000
G1 X3.579 Y48.060 F200.000
G1 X3.523 Y48.041 F200.000
G1 X3.455 Y47.981 F200.000
G1 X3.402 Y47.876 F200.000
G1 X3.402 Y47.876 F200.000
G1 X3.376 Y47.695 F200.000
G1 X3.395 Y47.515 F200.000
G1 X3.519 Y47.305 F200.000
G1 X3.726 Y47.083 F200.000
G1 X4.038 Y46.880 F200.000
G1 X4.372 Y46.737 F200.000
G1 X4.586 Y46.677 F200.000
G1 X4.793 Y46.639 F200.000
G1 X5.041 Y46.620 F200.000
G1 X5.323 Y46.624 F200.000
G1 X5.639 Y46.665 F200.000
G1 X6.019 Y46.767 F200.000
G1 X6.177 Y46.838 F200.000
G1 X6.226 Y46.868 F200.000
G1 X6.263 Y46.910 F200.000
G1 X6.282 Y46.966 F200.000
G1 X6.282 Y46.966 F200.000
G1 X6.274 Y47.113 F200.000
G1 X6.252 Y47.165 F200.000
G0 X6.233 Y47.184
G0 X6.128 Y47.226
G0 X3.658 Y47.733
G1 X3.624 Y47.741 F200.000
G1 X3.504 Y47.759 F200.000
G1 X3.451 Y47.744 F200.000
G1 X3.387 Y47.688 F200.000
G1 X3.338 Y47.583 F200.000
G1 X3.338 Y47.583 F200.000
G1 X3.308 Y47.342 F200.000
G1 X3.312 Y47.282 F200.000
G1 X3.383 Y47.109 F200.000
G1 X3.556 Y46.861 F200.000
G1 X3.598 Y46.816 F200.000
G1 X3.887 Y46.583 F200.000
G1 X4.214 Y46.410 F200.000
G1 X4.410 Y46.335 F200.000
G1 X4.605 Y46.282 F200.000
G1 X4.846 Y46.241 F200.000
G1 X5.150 Y46.218 F200.000
G1 X5.466 Y46.229 F200.000
G1 X5.805 Y46.278 F200.000
G1 X6.026 Y46.350 F200.000
G1 X6.079 Y46.376 F200.000
G1 X6.120 Y46.417 F200.000
G1 X6.180 Y46.575 F200.000
G1 X6.180 Y46.575 F200.000
G1 X6.184 Y46.722 F200.000
G1 X6.162 Y46.774 F200.000
G0 X6.143 Y46.793
G0 X6.041 Y46.838
G0 X3.609 Y47.474
G1 X3.568 Y47.485 F200.000
G1 X3.466 Y47.508 F200.000
G1 X3.402 Y47.492 F200.000
G1 X3.320 Y47.432 F200.000
G1 X3.267 Y47.353 F200.000
G1 X3.267 Y47.353 F200.000
G1 X3.214 Y47.173 F200.000
G1 X3.203 Y47.053 F200.000
G1 X3.211 Y46.992 F200.000
G1 X3.305 Y46.767 F200.000
G1 X3.440 Y46.564 F200.000
G1 X3.707 Y46.305 F200.000
G1 X4.019 Y46.102 F200.000
G1 X4.207 Y46.011 F200.000
G1 X4.398 Y45.940 F200.000
G1 X4.632 Y45.876 F200.000
G1 X4.940 Y45.823 F200.000
G1 X5.244 Y45.808 F200.000
G1 X5.695 Y45.838 F200.000
G1 X5.865 Y45.883 F200.000
G1 X5.914 Y45.914 F200.000
G1 X5.951 Y45.959 F200.000
G1 X5.974 Y46.011 F200.000
G1 X5.974 Y46.011 F200.000
G1 X5.985 Y46.154 F200.000
G1 X5.970 Y46.211 F200.000
G0 X5.951 Y46.233
G0 X5.853 Y46.289
G0 X3.515 Y47.229
G1 X3.481 Y47.244 F200.000
G1 X3.365 Y47.282 F200.000
G1 X3.308 Y47.271 F200.000
G1 X3.229 Y47.211 F200.000
G1 X3.177 Y47.132 F200.000
G1 X3.177 Y47.132 F200.000
G1 X3.098 Y46.895 F200.000
G1 X3.083 Y46.774 F200.000
G1 X3.154 Y46.541 F200.000
G1 X3.305 Y46.274 F200.000
G1 X3.556 Y46.000 F200.000
G1 X3.857 Y45.778 F200.000
G1 X4.041 Y45.673 F200.000
G1 X4.226 Y45.590 F200.000
G1 X4.459 Y45.511 F200.000
G1 X4.763 Y45.440 F200.000
G1 X5.075 Y45.402 F200.000
G1 X5.474 Y45.398 F200.000
G1 X5.643 Y45.432 F200.000
G1 X5.692 Y45.459 F200.000
G1 X5.733 Y45.500 F200.000
G1 X5.733 Y45.500 F200.000
G1 X5.759 Y45.617 F200.000
G1 X5.748 Y45.699 F200.000
G0 X5.733 Y45.722
G0 X5.643 Y45.789
G0 X3.391 Y46.925
G1 X3.353 Y46.944 F200.000
G1 X3.259 Y46.985 F200.000
G1 X3.192 Y46.985 F200.000
G1 X3.105 Y46.932 F200.000
G1 X3.049 Y46.861 F200.000
G1 X3.049 Y46.861 F200.000
G1 X2.962 Y46.628 F200.000
G1 X2.951 Y46.568 F200.000
G1 X2.992 Y46.327 F200.000
G1 X3.086 Y46.098 F200.000
G1 X3.117 Y46.045 F200.000
G1 X3.342 Y45.748 F200.000
G1 X3.609 Y45.508 F200.000
G1 X3.778 Y45.391 F200.000
G1 X3.947 Y45.293 F200.000
G1 X4.184 Y45.188 F200.000
G1 X4.477 Y45.086 F200.000
G1 X4.797 Y45.015 F200.000
G1 X5.259 Y44.981 F200.000
G1 X5.372 Y44.996 F200.000
G1 X5.425 Y45.019 F200.000
G1 X5.470 Y45.053 F200.000
G1 X5.470 Y45.053 F200.000
G1 X5.511 Y45.165 F200.000
G1 X5.511 Y45.248 F200.000
G0 X5.500 Y45.274
G0 X5.414 Y45.346
G0 X3.282 Y46.680
G1 X3.252 Y46.703 F200.000
G1 X3.158 Y46.752 F200.000
G1 X3.098 Y46.759 F200.000
G1 X3.015 Y46.733 F200.000
G1 X2.925 Y46.654 F200.000
G1 X2.925 Y46.654 F200.000
G1 X2.838 Y46.492 F200.000
G1 X2.801 Y46.372 F200.000
G1 X2.793 Y46.312 F200.000
G1 X2.842 Y46.011 F200.000
G1 X2.936 Y45.786 F200.000
G1 X3.143 Y45.477 F200.000
G1 X3.402 Y45.211 F200.000
G1 X3.568 Y45.083 F200.000
G1 X3.726 Y44.974 F200.000
G1 X3.970 Y44.842 F200.000
G1 X4.252 Y44.726 F200.000
G1 X4.549 Y44.639 F200.000
G1 X4.955 Y44.586 F200.000
G1 X5.124 Y44.598 F200.000
G1 X5.177 Y44.620 F200.000
G1 X5.248 Y44.711 F200.000
G1 X5.248 Y44.711 F200.000
G1 X5.293 Y44.853 F200.000
G1 X5.289 Y44.906 F200.000
G0 X5.278 Y44.932
G0 X5.199 Y45.011
G0 X3.147 Y46.474
G1 X3.117 Y46.496 F200.000
G1 X3.011 Y46.560 F200.000
G1 X2.959 Y46.568 F200.000
G1 X2.876 Y46.538 F200.000
G1 X2.789 Y46.459 F200.000
G1 X2.789 Y46.459 F200.000
G1 X2.662 Y46.241 F200.000
G1 X2.624 Y46.124 F200.000
G1 X2.635 Y45.883 F200.000
G1 X2.714 Y45.586 F200.000
G1 X2.891 Y45.259 F200.000
G1 X3.124 Y44.977 F200.000
G1 X3.267 Y44.838 F200.000
G1 X3.425 Y44.711 F200.000
G1 X3.643 Y44.560 F200.000
G1 X3.947 Y44.402 F200.000
G1 X4.226 Y44.301 F200.000
G1 X4.571 Y44.214 F200.000
G1 X4.741 Y44.195 F200.000
G1 X4.797 Y44.199 F200.000
G1 X4.850 Y44.222 F200.000
G1 X4.850 Y44.222 F200.000
G1 X4.914 Y44.350 F200.000
G1 X4.917 Y44.410 F200.000
G0 X4.910 Y44.432
G0 X4.838 Y44.523
G0 X2.951 Y46.207
G1 X2.925 Y46.233 F200.000
G1 X2.838 Y46.297 F200.000
G1 X2.782 Y46.312 F200.000
G1 X2.699 Y46.293 F200.000
G1 X2.605 Y46.222 F200.000
G1 X2.605 Y46.222 F200.000
G1 X2.496 Y46.068 F200.000
G1 X2.440 Y45.955 F200.000
G1 X2.425 Y45.895 F200.000
G1 X2.425 Y45.654 F200.000
G1 X2.470 Y45.414 F200.000
G1 X2.620 Y45.071 F200.000
G1 X2.827 Y44.763 F200.000
G1 X2.966 Y44.602 F200.000
G1 X3.117 Y44.459 F200.000
G1 X3.312 Y44.305 F200.000
G1 X3.564 Y44.143 F200.000
G1 X3.857 Y44.000 F200.000
G1 X4.241 Y43.868 F200.000
G1 X4.410 Y43.846 F200.000
G1 X4.466 Y43.850 F200.000
G1 X4.519 Y43.872 F200.000
G1 X4.519 Y43.872 F200.000
G1 X4.583 Y43.970 F200.000
G1 X4.602 Y44.056 F200.000
G0 X4.594 Y44.083
G0 X4.530 Y44.177
G0 X2.789 Y46.004
G1 X2.763 Y46.034 F200.000
G1 X2.684 Y46.105 F200.000
G1 X2.628 Y46.124 F200.000
G1 X2.541 Y46.109 F200.000
G1 X2.444 Y46.045 F200.000
G1 X2.444 Y46.045 F200.000
G1 X2.286 Y45.857 F200.000
G1 X2.252 Y45.805 F200.000
G1 X2.229 Y45.748 F200.000
G1 X2.207 Y45.568 F200.000
G1 X2.226 Y45.267 F200.000
G1 X2.237 Y45.207 F200.000
G1 X2.361 Y44.853 F200.000
G1 X2.549 Y44.530 F200.000
G1 X2.677 Y44.357 F200.000
G1 X2.816 Y44.203 F200.000
G1 X2.996 Y44.041 F200.000
G1 X3.233 Y43.868 F200.000
G1 X3.496 Y43.711 F200.000
G1 X3.902 Y43.545 F200.000
G1 X4.071 Y43.511 F200.000
G1 X4.128 Y43.523 F200.000
G1 X4.173 Y43.556 F200.000
G1 X4.173 Y43.553 F200.000
G1 X4.244 Y43.647 F200.000
G1 X4.267 Y43.729 F200.000
G0 X4.263 Y43.756
G0 X4.207 Y43.853
G0 X2.609 Y45.801
G1 X2.583 Y45.835 F200.000
G1 X2.511 Y45.910 F200.000
G1 X2.459 Y45.936 F200.000
G1 X2.372 Y45.929 F200.000
G1 X2.267 Y45.880 F200.000
G1 X2.267 Y45.880 F200.000
G1 X2.128 Y45.752 F200.000
G1 X2.049 Y45.650 F200.000
G1 X2.019 Y45.594 F200.000
G1 X1.970 Y45.233 F200.000
G1 X1.981 Y45.053 F200.000
G1 X2.071 Y44.692 F200.000
G1 X2.226 Y44.361 F200.000
G1 X2.335 Y44.188 F200.000
G1 X2.447 Y44.038 F200.000
G1 X2.624 Y43.846 F200.000
G1 X2.861 Y43.635 F200.000
G1 X3.117 Y43.451 F200.000
G1 X3.481 Y43.267 F200.000
G1 X3.650 Y43.214 F200.000
G1 X3.707 Y43.214 F200.000
G1 X3.763 Y43.233 F200.000
G1 X3.763 Y43.233 F200.000
G1 X3.861 Y43.338 F200.000
G1 X3.880 Y43.391 F200.000
G0 X3.880 Y43.421
G0 X3.831 Y43.523
G0 X2.365 Y45.609
G1 X2.342 Y45.643 F200.000
G1 X2.274 Y45.726 F200.000
G1 X2.222 Y45.752 F200.000
G1 X2.139 Y45.744 F200.000
G1 X2.034 Y45.695 F200.000
G1 X2.034 Y45.695 F200.000
G1 X1.891 Y45.571 F200.000
G1 X1.816 Y45.470 F200.000
G1 X1.733 Y45.173 F200.000
G1 X1.718 Y44.932 F200.000
G1 X1.774 Y44.564 F200.000
G1 X1.891 Y44.241 F200.000
G1 X1.981 Y44.060 F200.000
G1 X2.090 Y43.887 F200.000
G1 X2.229 Y43.699 F200.000
G1 X2.451 Y43.462 F200.000
G1 X2.688 Y43.252 F200.000
G1 X3.004 Y43.045 F200.000
G1 X3.222 Y42.951 F200.000
G1 X3.278 Y42.944 F200.000
G1 X3.335 Y42.959 F200.000
G1 X3.335 Y42.959 F200.000
G1 X3.432 Y43.064 F200.000
G1 X3.455 Y43.117 F200.000
G0 X3.455 Y43.143
G0 X3.417 Y43.252
G0 X2.203 Y45.470
G1 X2.180 Y45.508 F200.000
G1 X2.124 Y45.594 F200.000
G1 X2.075 Y45.628 F200.000
G1 X1.989 Y45.632 F200.000
G1 X1.880 Y45.598 F200.000
G1 X1.880 Y45.598 F200.000
G1 X1.677 Y45.451 F200.000
G1 X1.590 Y45.361 F200.000
G1 X1.556 Y45.308 F200.000
G1 X1.477 Y45.071 F200.000
G1 X1.447 Y44.771 F200.000
G1 X1.485 Y44.398 F200.000
G1 X1.590 Y44.041 F200.000
G1 X1.680 Y43.842 F200.000
G1 X1.774 Y43.665 F200.000
G1 X1.917 Y43.455 F200.000
G1 X2.113 Y43.222 F200.000
G1 X2.335 Y43.008 F200.000
G1 X2.617 Y42.801 F200.000
G1 X2.774 Y42.722 F200.000
G1 X2.831 Y42.707 F200.000
G1 X2.887 Y42.707 F200.000
G1 X2.887 Y42.707 F200.000
G1 X2.985 Y42.793 F200.000
G1 X3.015 Y42.850 F200.000
G0 X3.019 Y42.880
G0 X2.989 Y42.989
G0 X1.887 Y45.259
G1 X1.872 Y45.297 F200.000
G1 X1.820 Y45.387 F200.000
G1 X1.771 Y45.425 F200.000
G1 X1.684 Y45.440 F200.000
G1 X1.571 Y45.414 F200.000
G1 X1.571 Y45.414 F200.000
G1 X1.466 Y45.346 F200.000
G1 X1.372 Y45.259 F200.000
G1 X1.335 Y45.207 F200.000
G1 X1.233 Y44.910 F200.000
G1 X1.203 Y44.729 F200.000
G1 X1.192 Y44.357 F200.000
G1 X1.252 Y43.989 F200.000
G1 X1.327 Y43.759 F200.000
G1 X1.406 Y43.579 F200.000
G1 X1.511 Y43.376 F200.000
G1 X1.688 Y43.113 F200.000
G1 X1.895 Y42.872 F200.000
G1 X2.195 Y42.605 F200.000
G1 X2.293 Y42.538 F200.000
G1 X2.346 Y42.511 F200.000
G1 X2.402 Y42.500 F200.000
G1 X2.459 Y42.515 F200.000
G1 X2.459 Y42.515 F200.000
G1 X2.556 Y42.579 F200.000
G1 X2.605 Y42.650 F200.000
G0 X2.609 Y42.677
G0 X2.586 Y42.786
G0 X1.707 Y45.169
G1 X1.695 Y45.203 F200.000
G1 X1.647 Y45.316 F200.000
G1 X1.605 Y45.350 F200.000
G1 X1.523 Y45.365 F200.000
G1 X1.410 Y45.342 F200.000
G1 X1.410 Y45.342 F200.000
G1 X1.248 Y45.252 F200.000
G1 X1.154 Y45.173 F200.000
G1 X1.113 Y45.128 F200.000
G1 X1.011 Y44.898 F200.000
G1 X0.955 Y44.658 F200.000
G1 X0.906 Y44.286 F200.000
G1 X0.932 Y43.914 F200.000
G1 X0.992 Y43.658 F200.000
G1 X1.056 Y43.470 F200.000
G1 X1.139 Y43.271 F200.000
G1 X1.289 Y43.008 F200.000
G1 X1.462 Y42.759 F200.000
G1 X1.759 Y42.451 F200.000
G1 X1.902 Y42.346 F200.000
G1 X1.959 Y42.335 F200.000
G1 X1.959 Y42.335 F200.000
G1 X2.064 Y42.391 F200.000
G1 X2.120 Y42.459 F200.000
G0 X2.128 Y42.481
G0 X2.117 Y42.598
G0 X1.470 Y45.064
G1 X1.462 Y45.098 F200.000
G1 X1.425 Y45.214 F200.000
G1 X1.383 Y45.248 F200.000
G1 X1.301 Y45.263 F200.000
G1 X1.188 Y45.241 F200.000
G1 X1.188 Y45.241 F200.000
G1 X1.019 Y45.162 F200.000
G1 X0.921 Y45.086 F200.000
G1 X0.767 Y44.812 F200.000
G1 X0.692 Y44.571 F200.000
G1 X0.617 Y44.203 F200.000
G1 X0.617 Y43.831 F200.000
G1 X0.658 Y43.575 F200.000
G1 X0.707 Y43.383 F200.000
G1 X0.782 Y43.177 F200.000
G1 X0.906 Y42.910 F200.000
G1 X1.071 Y42.632 F200.000
G1 X1.274 Y42.383 F200.000
G1 X1.459 Y42.233 F200.000
G1 X1.515 Y42.211 F200.000
G1 X1.515 Y42.211 F200.000
G1 X1.620 Y42.259 F200.000
G1 X1.680 Y42.323 F200.000
G0 X1.688 Y42.350
G0 X1.684 Y42.462
G0 X1.229 Y44.955
G1 X1.222 Y44.992 F200.000
G1 X1.192 Y45.113 F200.000
G1 X1.154 Y45.150 F200.000
G1 X1.075 Y45.180 F200.000
G1 X0.959 Y45.173 F200.000
G1 X0.959 Y45.173 F200.000
G1 X0.789 Y45.094 F200.000
G1 X0.688 Y45.019 F200.000
G1 X0.545 Y44.812 F200.000
G1 X0.444 Y44.583 F200.000
G1 X0.320 Y44.162 F200.000
G1 X0.293 Y43.789 F200.000
G1 X0.316 Y43.541 F200.000
G1 X0.350 Y43.353 F200.000
G1 X0.406 Y43.139 F200.000
G1 X0.511 Y42.861 F200.000
G1 X0.665 Y42.568 F200.000
G1 X0.820 Y42.342 F200.000
G1 X0.944 Y42.211 F200.000
G1 X1.041 Y42.143 F200.000
G1 X1.098 Y42.132 F200.000
G1 X1.098 Y42.132 F200.000
G1 X1.211 Y42.173 F200.000
G1 X1.271 Y42.233 F200.000
G0 X1.282 Y42.256
G0 X1.286 Y42.372
G0 X0.985 Y44.887
G1 X0.981 Y44.925 F200.000
G1 X0.959 Y45.045 F200.000
G1 X0.925 Y45.083 F200.000
G1 X0.846 Y45.113 F200.000
G1 X0.729 Y45.105 F200.000
G1 X0.729 Y45.105 F200.000
G1 X0.553 Y45.038 F200.000
G1 X0.455 Y44.962 F200.000
G1 X0.297 Y44.767 F200.000
G1 X0.177 Y44.549 F200.000
G1 X0.041 Y44.199 F200.000
G1 X-0.026 Y43.831 F200.000
G1 X-0.030 Y43.564 F200.000
G1 X-0.008 Y43.365 F200.000
G1 X0.030 Y43.169 F200.000
G1 X0.102 Y42.914 F200.000
G1 X0.222 Y42.605 F200.000
G1 X0.387 Y42.312 F200.000
G1 X0.508 Y42.173 F200.000
G1 X0.598 Y42.094 F200.000
G1 X0.650 Y42.068 F200.000
G1 X0.707 Y42.064 F200.000
G1 X0.707 Y42.064 F200.000
G1 X0.820 Y42.105 F200.000
G1 X0.883 Y42.165 F200.000
G0 X0.895 Y42.188
G0 X0.902 Y42.361
G0 X0.789 Y44.827
G1 X0.789 Y44.865 F200.000
G1 X0.778 Y44.985 F200.000
G1 X0.744 Y45.030 F200.000
G1 X0.669 Y45.068 F200.000
G1 X0.553 Y45.079 F200.000
G1 X0.553 Y45.079 F200.000
G1 X0.432 Y45.053 F200.000
G1 X0.259 Y44.981 F200.000
G1 X0.124 Y44.853 F200.000
G1 X-0.060 Y44.605 F200.000
G1 X-0.259 Y44.218 F200.000
G1 X-0.346 Y43.853 F200.000
G1 X-0.365 Y43.658 F200.000
G1 X-0.365 Y43.474 F200.000
G1 X-0.346 Y43.237 F200.000
G1 X-0.289 Y42.925 F200.000
G1 X-0.203 Y42.635 F200.000
G1 X-0.083 Y42.383 F200.000
G1 X0.060 Y42.180 F200.000
G1 X0.143 Y42.090 F200.000
G1 X0.192 Y42.053 F200.000
G1 X0.248 Y42.038 F200.000
G1 X0.248 Y42.038 F200.000
G1 X0.380 Y42.079 F200.000
G1 X0.429 Y42.117 F200.000
G0 X0.444 Y42.139
G0 X0.462 Y42.252
G0 X0.526 Y44.771
G1 X0.530 Y44.808 F200.000
G1 X0.526 Y44.929 F200.000
G1 X0.500 Y44.977 F200.000
G1 X0.429 Y45.023 F200.000
G1 X0.312 Y45.045 F200.000
G1 X0.312 Y45.045 F200.000
G1 X0.132 Y45.011 F200.000
G1 X0.015 Y44.966 F200.000
G1 X-0.214 Y44.774 F200.000
G1 X-0.365 Y44.583 F200.000
G1 X-0.568 Y44.199 F200.000
G1 X-0.673 Y43.842 F200.000
G1 X-0.703 Y43.628 F200.000
G1 X-0.714 Y43.429 F200.000
G1 X-0.703 Y43.184 F200.000
G1 X-0.662 Y42.898 F200.000
G1 X-0.586 Y42.605 F200.000
G1 X-0.474 Y42.353 F200.000
G1 X-0.289 Y42.098 F200.000
G1 X-0.241 Y42.056 F200.000
G1 X-0.184 Y42.030 F200.000
G1 X-0.124 Y42.030 F200.000
G1 X-0.124 Y42.030 F200.000
G1 X0.000 Y42.045 F200.000
G1 X0.056 Y42.079 F200.000
G0 X0.075 Y42.102
G0 X0.113 Y42.218
G0 X0.342 Y44.767
G1 X0.342 Y44.805 F200.000
G1 X0.346 Y44.925 F200.000
G1 X0.323 Y44.974 F200.000
G1 X0.252 Y45.019 F200.000
G1 X0.135 Y45.041 F200.000
G1 X0.135 Y45.041 F200.000
G1 X-0.098 Y45.015 F200.000
G1 X-0.211 Y44.985 F200.000
G1 X-0.263 Y44.962 F200.000
G1 X-0.496 Y44.774 F200.000
G1 X-0.650 Y44.586 F200.000
G1 X-0.853 Y44.274 F200.000
G1 X-0.985 Y43.925 F200.000
G1 X-1.030 Y43.729 F200.000
G1 X-1.053 Y43.545 F200.000
G1 X-1.064 Y43.312 F200.000
G1 X-1.049 Y43.011 F200.000
G1 X-0.992 Y42.688 F200.000
G1 X-0.895 Y42.421 F200.000
G1 X-0.726 Y42.154 F200.000
G1 X-0.684 Y42.105 F200.000
G1 X-0.632 Y42.068 F200.000
G1 X-0.571 Y42.049 F200.000
G1 X-0.511 Y42.041 F200.000
G1 X-0.511 Y42.041 F200.000
G1 X-0.383 Y42.053 F200.000
G1 X-0.301 Y42.094 F200.000
G0 X-0.286 Y42.117
G0 X-0.252 Y42.226
G0 X0.034 Y44.733
G1 X0.038 Y44.771 F200.000
G1 X0.045 Y44.895 F200.000
G1 X0.023 Y44.944 F200.000
G1 X-0.041 Y45.000 F200.000
G1 X-0.162 Y45.038 F200.000
G1 X-0.162 Y45.038 F200.000
G1 X-0.387 Y45.026 F200.000
G1 X-0.500 Y45.000 F200.000
G1 X-0.699 Y44.872 F200.000
G1 X-0.872 Y44.707 F200.000
G1 X-1.165 Y44.308 F200.000
G1 X-1.316 Y43.966 F200.000
G1 X-1.372 Y43.752 F200.000
G1 X-1.402 Y43.564 F200.000
G1 X-1.421 Y43.346 F200.000
G1 X-1.417 Y43.023 F200.000
G1 X-1.361 Y42.692 F200.000
G1 X-1.289 Y42.455 F200.000
G1 X-1.169 Y42.237 F200.000
G1 X-1.086 Y42.139 F200.000
G1 X-1.034 Y42.105 F200.000
G1 X-0.914 Y42.086 F200.000
G1 X-0.914 Y42.086 F200.000
G1 X-0.786 Y42.090 F200.000
G1 X-0.703 Y42.128 F200.000
G0 X-0.684 Y42.147
G0 X-0.650 Y42.252
G0 X-0.267 Y44.733
G1 X-0.263 Y44.767 F200.000
G1 X-0.252 Y44.891 F200.000
G1 X-0.274 Y44.944 F200.000
G1 X-0.342 Y45.008 F200.000
G1 X-0.462 Y45.060 F200.000
G1 X-0.462 Y45.060 F200.000
G1 X-0.632 Y45.064 F200.000
G1 X-0.744 Y45.041 F200.000
G1 X-0.996 Y44.895 F200.000
G1 X-1.135 Y44.778 F200.000
G1 X-1.455 Y44.398 F200.000
G1 X-1.624 Y44.068 F200.000
G1 X-1.688 Y43.872 F200.000
G1 X-1.733 Y43.692 F200.000
G1 X-1.767 Y43.451 F200.000
G1 X-1.782 Y43.154 F200.000
G1 X-1.763 Y42.835 F200.000
G1 X-1.703 Y42.556 F200.000
G1 X-1.598 Y42.331 F200.000
G1 X-1.523 Y42.229 F200.000
G1 X-1.470 Y42.199 F200.000
G1 X-1.350 Y42.173 F200.000
G1 X-1.350 Y42.173 F200.000
G1 X-1.222 Y42.165 F200.000
G1 X-1.135 Y42.192 F200.000
G0 X-1.113 Y42.211
G0 X-1.068 Y42.316
G0 X-0.455 Y44.774
G1 X-0.447 Y44.808 F200.000
G1 X-0.429 Y44.929 F200.000
G1 X-0.447 Y44.981 F200.000
G1 X-0.515 Y45.045 F200.000
G1 X-0.635 Y45.098 F200.000
G1 X-0.635 Y45.098 F200.000
G1 X-0.805 Y45.120 F200.000
G1 X-0.917 Y45.117 F200.000
G1 X-1.030 Y45.090 F200.000
G1 X-1.335 Y44.910 F200.000
G1 X-1.470 Y44.789 F200.000
G1 X-1.726 Y44.519 F200.000
G1 X-1.917 Y44.199 F200.000
G1 X-1.992 Y44.015 F200.000
G1 X-2.045 Y43.846 F200.000
G1 X-2.102 Y43.617 F200.000
G1 X-2.150 Y43.267 F200.000
G1 X-2.147 Y42.944 F200.000
G1 X-2.105 Y42.699 F200.000
G1 X-2.011 Y42.462 F200.000
G1 X-1.944 Y42.353 F200.000
G1 X-1.898 Y42.312 F200.000
G1 X-1.778 Y42.274 F200.000
G1 X-1.778 Y42.274 F200.000
G1 X-1.617 Y42.267 F200.000
G1 X-1.560 Y42.289 F200.000
G0 X-1.541 Y42.305
G0 X-1.489 Y42.406
G0 X-0.707 Y44.827
G1 X-0.695 Y44.868 F200.000
G1 X-0.669 Y44.970 F200.000
G1 X-0.688 Y45.026 F200.000
G1 X-0.752 Y45.094 F200.000
G1 X-0.872 Y45.147 F200.000
G1 X-0.872 Y45.147 F200.000
G1 X-1.154 Y45.192 F200.000
G1 X-1.211 Y45.188 F200.000
G1 X-1.432 Y45.105 F200.000
G1 X-1.684 Y44.940 F200.000
G1 X-1.996 Y44.643 F200.000
G1 X-2.211 Y44.338 F200.000
G1 X-2.308 Y44.143 F200.000
G1 X-2.380 Y43.959 F200.000
G1 X-2.447 Y43.722 F200.000
G1 X-2.500 Y43.436 F200.000
G1 X-2.523 Y43.113 F200.000
G1 X-2.492 Y42.831 F200.000
G1 X-2.414 Y42.594 F200.000
G1 X-2.387 Y42.538 F200.000
G1 X-2.350 Y42.489 F200.000
G1 X-2.297 Y42.455 F200.000
G1 X-2.120 Y42.391 F200.000
G1 X-2.120 Y42.391 F200.000
G1 X-1.992 Y42.365 F200.000
G1 X-1.906 Y42.383 F200.000
G0 X-1.883 Y42.398
G0 X-1.827 Y42.496
G0 X-0.970 Y44.861
G1 X-0.959 Y44.895 F200.000
G1 X-0.925 Y45.015 F200.000
G1 X-0.936 Y45.071 F200.000
G1 X-0.992 Y45.143 F200.000
G1 X-1.102 Y45.214 F200.000
G1 X-1.102 Y45.214 F200.000
G1 X-1.211 Y45.256 F200.000
G1 X-1.380 Y45.282 F200.000
G1 X-1.492 Y45.274 F200.000
G1 X-1.767 Y45.165 F200.000
G1 X-1.966 Y45.038 F200.000
G1 X-2.256 Y44.805 F200.000
G1 X-2.489 Y44.515 F200.000
G1 X-2.590 Y44.335 F200.000
G1 X-2.669 Y44.169 F200.000
G1 X-2.756 Y43.940 F200.000
G1 X-2.838 Y43.635 F200.000
G1 X-2.880 Y43.301 F200.000
G1 X-2.876 Y43.049 F200.000
G1 X-2.816 Y42.808 F200.000
G1 X-2.771 Y42.692 F200.000
G1 X-2.733 Y42.643 F200.000
G1 X-2.511 Y42.534 F200.000
G1 X-2.511 Y42.534 F200.000
G1 X-2.383 Y42.504 F200.000
G1 X-2.297 Y42.519 F200.000
G0 X-2.274 Y42.534
G0 X-2.214 Y42.632
G0 X-1.259 Y44.974
G1 X-1.244 Y45.008 F200.000
G1 X-1.207 Y45.124 F200.000
G1 X-1.218 Y45.180 F200.000
G1 X-1.271 Y45.252 F200.000
G1 X-1.380 Y45.323 F200.000
G1 X-1.380 Y45.323 F200.000
G1 X-1.602 Y45.380 F200.000
G1 X-1.714 Y45.380 F200.000
G1 X-1.940 Y45.320 F200.000
G1 X-2.203 Y45.188 F200.000
G1 X-2.508 Y44.974 F200.000
G1 X-2.756 Y44.699 F200.000
G1 X-2.872 Y44.526 F200.000
G1 X-2.962 Y44.361 F200.000
G1 X-3.064 Y44.139 F200.000
G1 X-3.165 Y43.838 F200.000
G1 X-3.226 Y43.519 F200.000
G1 X-3.229 Y43.211 F200.000
G1 X-3.184 Y42.970 F200.000
G1 X-3.165 Y42.910 F200.000
G1 X-3.132 Y42.857 F200.000
G1 X-3.086 Y42.812 F200.000
G1 X-2.865 Y42.699 F200.000
G1 X-2.865 Y42.699 F200.000
G1 X-2.707 Y42.665 F200.000
G1 X-2.650 Y42.677 F200.000
G0 X-2.624 Y42.688
G0 X-2.560 Y42.782
G0 X-1.455 Y45.034
G1 X-1.440 Y45.071 F200.000
G1 X-1.398 Y45.169 F200.000
G1 X-1.402 Y45.233 F200.000
G1 X-1.444 Y45.312 F200.000
G1 X-1.545 Y45.398 F200.000
G1 X-1.545 Y45.398 F200.000
G1 X-1.756 Y45.492 F200.000
G1 X-1.925 Y45.526 F200.000
G1 X-2.150 Y45.481 F200.000
G1 X-2.421 Y45.365 F200.000
G1 X-2.737 Y45.169 F200.000
G1 X-3.008 Y44.914 F200.000
G1 X-3.135 Y44.744 F200.000
G1 X-3.233 Y44.594 F200.000
G1 X-3.346 Y44.380 F200.000
G1 X-3.462 Y44.102 F200.000
G1 X-3.556 Y43.778 F200.000
G1 X-3.586 Y43.432 F200.000
G1 X-3.530 Y43.132 F200.000
G1 X-3.500 Y43.075 F200.000
G1 X-3.459 Y43.026 F200.000
G1 X-3.293 Y42.932 F200.000
G1 X-3.293 Y42.932 F200.000
G1 X-3.165 Y42.887 F200.000
G1 X-3.075 Y42.891 F200.000
G0 X-3.053 Y42.902
G0 X-2.981 Y42.992
G0 X-1.729 Y45.180
G1 X-1.711 Y45.218 F200.000
G1 X-1.665 Y45.316 F200.000
G1 X-1.665 Y45.376 F200.000
G1 X-1.707 Y45.455 F200.000
G1 X-1.808 Y45.541 F200.000
G1 X-1.808 Y45.541 F200.000
G1 X-1.955 Y45.628 F200.000
G1 X-2.064 Y45.662 F200.000
G1 X-2.120 Y45.669 F200.000
G1 X-2.346 Y45.643 F200.000
G1 X-2.624 Y45.549 F200.000
G1 X-2.955 Y45.380 F200.000
G1 X-3.241 Y45.143 F200.000
G1 X-3.376 Y44.989 F200.000
G1 X-3.485 Y44.842 F200.000
G1 X-3.617 Y44.643 F200.000
G1 X-3.782 Y44.312 F200.000
G1 X-3.876 Y44.008 F200.000
G1 X-3.914 Y43.726 F200.000
G1 X-3.902 Y43.485 F200.000
G1 X-3.880 Y43.365 F200.000
G1 X-3.850 Y43.308 F200.000
G1 X-3.598 Y43.124 F200.000
G1 X-3.598 Y43.124 F200.000
G1 X-3.474 Y43.068 F200.000
G1 X-3.414 Y43.060 F200.000
G1 X-3.383 Y43.064 F200.000
G0 X-3.361 Y43.075
G0 X-3.286 Y43.158
G0 X-1.955 Y45.305
G1 X-1.936 Y45.338 F200.000
G1 X-1.887 Y45.432 F200.000
G1 X-1.883 Y45.496 F200.000
G1 X-1.914 Y45.583 F200.000
G1 X-2.004 Y45.684 F200.000
G1 X-2.004 Y45.684 F200.000
G1 X-2.207 Y45.793 F200.000
G1 X-2.320 Y45.827 F200.000
G1 X-2.602 Y45.805 F200.000
G1 X-2.883 Y45.718 F200.000
G1 X-3.218 Y45.556 F200.000
G1 X-3.515 Y45.335 F200.000
G1 X-3.665 Y45.180 F200.000
G1 X-3.786 Y45.034 F200.000
G1 X-3.925 Y44.827 F200.000
G1 X-4.060 Y44.575 F200.000
G1 X-4.173 Y44.289 F200.000
G1 X-4.237 Y44.015 F200.000
G1 X-4.237 Y43.714 F200.000
G1 X-4.226 Y43.654 F200.000
G1 X-4.203 Y43.598 F200.000
G1 X-4.165 Y43.549 F200.000
G1 X-3.925 Y43.353 F200.000
G1 X-3.925 Y43.353 F200.000
G1 X-3.801 Y43.297 F200.000
G1 X-3.711 Y43.293 F200.000
G0 X-3.684 Y43.305
G0 X-3.605 Y43.383
G0 X-2.158 Y45.447
G1 X-2.135 Y45.481 F200.000
G1 X-2.083 Y45.571 F200.000
G1 X-2.075 Y45.635 F200.000
G1 X-2.105 Y45.726 F200.000
G1 X-2.195 Y45.823 F200.000
G1 X-2.195 Y45.823 F200.000
G1 X-2.383 Y45.947 F200.000
G1 X-2.492 Y45.989 F200.000
G1 X-2.662 Y46.000 F200.000
G1 X-2.944 Y45.962 F200.000
G1 X-3.056 Y45.929 F200.000
G1 X-3.402 Y45.793 F200.000
G1 X-3.718 Y45.594 F200.000
G1 X-3.887 Y45.444 F200.000
G1 X-4.019 Y45.308 F200.000
G1 X-4.173 Y45.113 F200.000
G1 X-4.327 Y44.868 F200.000
G1 X-4.455 Y44.605 F200.000
G1 X-4.538 Y44.342 F200.000
G1 X-4.556 Y44.041 F200.000
G1 X-4.541 Y43.921 F200.000
G1 X-4.515 Y43.865 F200.000
G1 X-4.244 Y43.613 F200.000
G1 X-4.244 Y43.613 F200.000
G1 X-4.098 Y43.534 F200.000
G1 X-4.038 Y43.530 F200.000
G0 X-4.011 Y43.538
G0 X-3.929 Y43.609
G0 X-2.365 Y45.602
G1 X-2.342 Y45.628 F200.000
G1 X-2.274 Y45.733 F200.000
G1 X-2.267 Y45.789 F200.000
G1 X-2.297 Y45.876 F200.000
G1 X-2.376 Y45.981 F200.000
G1 X-2.376 Y45.981 F200.000
G1 X-2.609 Y46.154 F200.000
G1 X-2.718 Y46.184 F200.000
G1 X-3.000 Y46.192 F200.000
G1 X-3.226 Y46.154 F200.000
G1 X-3.579 Y46.045 F200.000
G1 X-3.906 Y45.868 F200.000
G1 X-4.068 Y45.741 F200.000
G1 X-4.203 Y45.620 F200.000
G1 X-4.372 Y45.436 F200.000
G1 X-4.553 Y45.195 F200.000
G1 X-4.718 Y44.921 F200.000
G1 X-4.820 Y44.654 F200.000
G1 X-4.857 Y44.353 F200.000
G1 X-4.853 Y44.293 F200.000
G1 X-4.816 Y44.173 F200.000
G1 X-4.560 Y43.902 F200.000
G1 X-4.560 Y43.902 F200.000
G1 X-4.451 Y43.827 F200.000
G1 X-4.361 Y43.812 F200.000
G0 X-4.335 Y43.816
G0 X-4.244 Y43.887
G0 X-2.579 Y45.767
G1 X-2.553 Y45.797 F200.000
G1 X-2.489 Y45.880 F200.000
G1 X-2.470 Y45.940 F200.000
G1 X-2.481 Y46.034 F200.000
G1 X-2.545 Y46.150 F200.000
G1 X-2.545 Y46.150 F200.000
G1 X-2.665 Y46.271 F200.000
G1 X-2.812 Y46.361 F200.000
G1 X-3.094 Y46.406 F200.000
G1 X-3.376 Y46.391 F200.000
G1 X-3.737 Y46.308 F200.000
G1 X-4.075 Y46.154 F200.000
G1 X-4.241 Y46.041 F200.000
G1 X-4.376 Y45.936 F200.000
G1 X-4.564 Y45.763 F200.000
G1 X-4.793 Y45.504 F200.000
G1 X-4.962 Y45.237 F200.000
G1 X-5.056 Y45.030 F200.000
G1 X-5.124 Y44.669 F200.000
G1 X-5.128 Y44.609 F200.000
G1 X-5.113 Y44.549 F200.000
G1 X-4.880 Y44.252 F200.000
G1 X-4.880 Y44.252 F200.000
G1 X-4.774 Y44.169 F200.000
G1 X-4.692 Y44.143 F200.000
G0 X-4.662 Y44.147
G0 X-4.568 Y44.207
G0 X-2.748 Y45.959
G1 X-2.722 Y45.989 F200.000
G1 X-2.650 Y46.068 F200.000
G1 X-2.632 Y46.128 F200.000
G1 X-2.639 Y46.218 F200.000
G1 X-2.703 Y46.335 F200.000
G1 X-2.703 Y46.335 F200.000
G1 X-2.857 Y46.500 F200.000
G1 X-2.951 Y46.568 F200.000
G1 X-3.177 Y46.628 F200.000
G1 X-3.402 Y46.643 F200.000
G1 X-3.515 Y46.635 F200.000
G1 X-3.880 Y46.579 F200.000
G1 X-4.226 Y46.447 F200.000
G1 X-4.398 Y46.350 F200.000
G1 X-4.541 Y46.256 F200.000
G1 X-4.748 Y46.086 F200.000
G1 X-4.959 Y45.876 F200.000
G1 X-5.147 Y45.628 F200.000
G1 X-5.267 Y45.410 F200.000
G1 X-5.357 Y45.117 F200.000
G1 X-5.376 Y44.996 F200.000
G1 X-5.372 Y44.936 F200.000
G1 X-5.357 Y44.876 F200.000
G1 X-5.135 Y44.568 F200.000
G1 X-5.135 Y44.568 F200.000
G1 X-5.034 Y44.477 F200.000
G1 X-4.947 Y44.451 F200.000
G0 X-4.921 Y44.451
G0 X-4.823 Y44.511
G0 X-2.925 Y46.150
G1 X-2.898 Y46.177 F200.000
G1 X-2.808 Y46.263 F200.000
G1 X-2.789 Y46.316 F200.000
G1 X-2.793 Y46.410 F200.000
G1 X-2.842 Y46.530 F200.000
G1 X-2.842 Y46.530 F200.000
G1 X-2.947 Y46.669 F200.000
G1 X-3.075 Y46.786 F200.000
G1 X-3.124 Y46.816 F200.000
G1 X-3.402 Y46.887 F200.000
G1 X-3.628 Y46.895 F200.000
G1 X-3.996 Y46.865 F200.000
G1 X-4.350 Y46.756 F200.000
G1 X-4.534 Y46.669 F200.000
G1 X-4.695 Y46.575 F200.000
G1 X-4.895 Y46.432 F200.000
G1 X-5.120 Y46.237 F200.000
G1 X-5.335 Y46.004 F200.000
G1 X-5.481 Y45.763 F200.000
G1 X-5.568 Y45.538 F200.000
G1 X-5.609 Y45.357 F200.000
G1 X-5.605 Y45.297 F200.000
G1 X-5.583 Y45.237 F200.000
G1 X-5.383 Y44.921 F200.000
G1 X-5.383 Y44.921 F200.000
G1 X-5.293 Y44.823 F200.000
G1 X-5.241 Y44.793 F200.000
G1 X-5.214 Y44.786 F200.000
G0 X-5.188 Y44.786
G0 X-5.086 Y44.838
G0 X-3.098 Y46.406
G1 X-3.064 Y46.432 F200.000
G1 X-2.989 Y46.504 F200.000
G1 X-2.959 Y46.560 F200.000
G1 X-2.959 Y46.654 F200.000
G1 X-3.004 Y46.778 F200.000
G1 X-3.004 Y46.778 F200.000
G1 X-3.135 Y46.966 F200.000
G1 X-3.226 Y47.041 F200.000
G1 X-3.496 Y47.132 F200.000
G1 X-3.722 Y47.162 F200.000
G1 X-4.090 Y47.158 F200.000
G1 X-4.451 Y47.075 F200.000
G1 X-4.639 Y47.004 F200.000
G1 X-4.808 Y46.921 F200.000
G1 X-5.011 Y46.801 F200.000
G1 X-5.263 Y46.609 F200.000
G1 X-5.477 Y46.391 F200.000
G1 X-5.624 Y46.195 F200.000
G1 X-5.759 Y45.921 F200.000
G1 X-5.812 Y45.744 F200.000
G1 X-5.812 Y45.684 F200.000
G1 X-5.647 Y45.342 F200.000
G1 X-5.647 Y45.342 F200.000
G1 X-5.556 Y45.244 F200.000
G1 X-5.477 Y45.207 F200.000
G0 X-5.447 Y45.207
G0 X-5.346 Y45.248
G0 X-3.248 Y46.632
G1 X-3.218 Y46.654 F200.000
G1 X-3.120 Y46.729 F200.000
G1 X-3.086 Y46.808 F200.000
G1 X-3.109 Y46.996 F200.000
G1 X-3.109 Y46.996 F200.000
G1 X-3.229 Y47.192 F200.000
G1 X-3.308 Y47.271 F200.000
G1 X-3.515 Y47.368 F200.000
G1 X-3.797 Y47.432 F200.000
G1 X-4.165 Y47.455 F200.000
G1 X-4.534 Y47.402 F200.000
G1 X-4.729 Y47.342 F200.000
G1 X-4.898 Y47.274 F200.000
G1 X-5.109 Y47.162 F200.000
G1 X-5.342 Y47.008 F200.000
G1 X-5.579 Y46.808 F200.000
G1 X-5.763 Y46.605 F200.000
G1 X-5.940 Y46.289 F200.000
G1 X-5.981 Y46.173 F200.000
G1 X-5.989 Y46.053 F200.000
G1 X-5.835 Y45.714 F200.000
G1 X-5.835 Y45.714 F200.000
G1 X-5.752 Y45.609 F200.000
G1 X-5.703 Y45.571 F200.000
G1 X-5.673 Y45.560 F200.000
G0 X-5.647 Y45.556
G0 X-5.541 Y45.598
G0 X-3.391 Y46.910
G1 X-3.361 Y46.929 F200.000
G1 X-3.259 Y47.000 F200.000
G1 X-3.218 Y47.075 F200.000
G1 X-3.218 Y47.203 F200.000
G1 X-3.233 Y47.267 F200.000
G1 X-3.233 Y47.267 F200.000
G1 X-3.312 Y47.421 F200.000
G1 X-3.387 Y47.511 F200.000
G1 X-3.643 Y47.643 F200.000
G1 X-3.865 Y47.703 F200.000
G1 X-4.233 Y47.752 F200.000
G1 X-4.602 Y47.722 F200.000
G1 X-4.805 Y47.673 F200.000
G1 X-4.970 Y47.617 F200.000
G1 X-5.184 Y47.523 F200.000
G1 X-5.444 Y47.376 F200.000
G1 X-5.695 Y47.192 F200.000
G1 X-5.895 Y46.996 F200.000
G1 X-6.060 Y46.741 F200.000
G1 X-6.135 Y46.571 F200.000
G1 X-6.143 Y46.511 F200.000
G1 X-6.139 Y46.451 F200.000
G1 X-6.030 Y46.150 F200.000
G1 X-6.030 Y46.150 F200.000
G1 X-5.955 Y46.041 F200.000
G1 X-5.883 Y45.985 F200.000
G0 X-5.853 Y45.981
G0 X-5.748 Y46.011
G0 X-3.477 Y47.102
G1 X-3.444 Y47.120 F200.000
G1 X-3.350 Y47.173 F200.000
G1 X-3.308 Y47.222 F200.000
G1 X-3.282 Y47.312 F200.000
G1 X-3.289 Y47.440 F200.000
G1 X-3.289 Y47.440 F200.000
G1 X-3.376 Y47.658 F200.000
G1 X-3.440 Y47.752 F200.000
G1 X-3.579 Y47.853 F200.000
G1 X-3.838 Y47.966 F200.000
G1 X-3.951 Y47.996 F200.000
G1 X-4.316 Y48.060 F200.000
G1 X-4.684 Y48.045 F200.000
G1 X-4.883 Y48.008 F200.000
G1 X-5.060 Y47.959 F200.000
G1 X-5.278 Y47.876 F200.000
G1 X-5.560 Y47.737 F200.000
G1 X-5.831 Y47.564 F200.000
G1 X-6.038 Y47.368 F200.000
G1 X-6.237 Y47.068 F200.000
G1 X-6.259 Y47.011 F200.000
G1 X-6.267 Y46.951 F200.000
G1 X-6.263 Y46.891 F200.000
G1 X-6.203 Y46.650 F200.000
G1 X-6.180 Y46.590 F200.000
G1 X-6.180 Y46.590 F200.000
G1 X-6.117 Y46.474 F200.000
G1 X-6.071 Y46.429 F200.000
G1 X-6.049 Y46.414 F200.000
G0 X-6.023 Y46.406
G0 X-5.914 Y46.429
G0 X-3.560 Y47.402
G1 X-3.526 Y47.417 F200.000
G1 X-3.429 Y47.466 F200.000
G1 X-3.387 Y47.511 F200.000
G1 X-3.361 Y47.602 F200.000
G1 X-3.368 Y47.729 F200.000
G1 X-3.368 Y47.729 F200.000
G1 X-3.398 Y47.842 F200.000
G1 X-3.477 Y47.996 F200.000
G1 X-3.515 Y48.041 F200.000
G1 X-3.707 Y48.169 F200.000
G1 X-3.970 Y48.282 F200.000
G1 X-4.331 Y48.368 F200.000
G1 X-4.699 Y48.380 F200.000
G1 X-4.906 Y48.353 F200.000
G1 X-5.083 Y48.316 F200.000
G1 X-5.305 Y48.256 F200.000
G1 X-5.643 Y48.120 F200.000
G1 X-5.921 Y47.955 F200.000
G1 X-6.102 Y47.805 F200.000
G1 X-6.289 Y47.568 F200.000
G1 X-6.346 Y47.462 F200.000
G1 X-6.361 Y47.402 F200.000
G1 X-6.361 Y47.342 F200.000
G1 X-6.282 Y46.981 F200.000
G1 X-6.282 Y46.981 F200.000
G1 X-6.229 Y46.865 F200.000
G1 X-6.188 Y46.816 F200.000
G1 X-6.162 Y46.801 F200.000
G0 X-6.139 Y46.793
G0 X-6.026 Y46.812
G0 X-3.639 Y47.650
G1 X-3.602 Y47.665 F200.000
G1 X-3.500 Y47.707 F200.000
G1 X-3.455 Y47.752 F200.000
G1 X-3.417 Y47.838 F200.000
G1 X-3.414 Y47.966 F200.000
G1 X-3.414 Y47.966 F200.000
G1 X-3.474 Y48.188 F200.000
G1 X-3.534 Y48.286 F200.000
G1 X-3.714 Y48.429 F200.000
G1 X-3.970 Y48.560 F200.000
G1 X-4.320 Y48.677 F200.000
G1 X-4.688 Y48.714 F200.000
G1 X-4.895 Y48.707 F200.000
G1 X-5.079 Y48.684 F200.000
G1 X-5.320 Y48.635 F200.000
G1 X-5.624 Y48.538 F200.000
G1 X-5.895 Y48.402 F200.000
G1 X-6.090 Y48.271 F200.000
G1 X-6.301 Y48.053 F200.000
G1 X-6.402 Y47.902 F200.000
G1 X-6.421 Y47.842 F200.000
G1 X-6.383 Y47.481 F200.000
G1 X-6.383 Y47.481 F200.000
G1 X-6.335 Y47.357 F200.000
G1 X-6.274 Y47.293 F200.000
G0 X-6.248 Y47.282
G0 X-6.135 Y47.289
G0 X-3.688 Y47.910
G1 X-3.650 Y47.921 F200.000
G1 X-3.549 Y47.955 F200.000
G1 X-3.500 Y47.992 F200.000
G1 X-3.455 Y48.075 F200.000
G1 X-3.440 Y48.203 F200.000
G1 X-3.440 Y48.203 F200.000
G1 X-3.485 Y48.429 F200.000
G1 X-3.534 Y48.534 F200.000
G1 X-3.744 Y48.729 F200.000
G1 X-3.947 Y48.842 F200.000
G1 X-4.289 Y48.981 F200.000
G1 X-4.654 Y49.049 F200.000
G1 X-4.868 Y49.056 F200.000
G1 X-5.056 Y49.049 F200.000
G1 X-5.301 Y49.015 F200.000
G1 X-5.583 Y48.944 F200.000
G1 X-5.865 Y48.838 F200.000
G1 X-6.105 Y48.699 F200.000
G1 X-6.365 Y48.447 F200.000
G1 X-6.436 Y48.350 F200.000
G1 X-6.459 Y48.293 F200.000
G1 X-6.459 Y48.113 F200.000
G1 X-6.432 Y47.872 F200.000
G1 X-6.432 Y47.872 F200.000
G1 X-6.391 Y47.748 F200.000
G1 X-6.335 Y47.677 F200.000
G0 X-6.312 Y47.665
G0 X-6.199 Y47.669
G0 X-3.729 Y48.218
G1 X-3.692 Y48.229 F200.000
G1 X-3.586 Y48.259 F200.000
G1 X-3.515 Y48.320 F200.000
G1 X-3.470 Y48.436 F200.000
G1 X-3.462 Y48.500 F200.000
G1 X-3.462 Y48.500 F200.000
G1 X-3.504 Y48.726 F200.000
G1 X-3.526 Y48.778 F200.000
G1 X-3.718 Y48.989 F200.000
G1 X-3.906 Y49.124 F200.000
G1 X-4.241 Y49.282 F200.000
G1 X-4.594 Y49.376 F200.000
G1 X-4.812 Y49.402 F200.000
G1 X-5.008 Y49.406 F200.000
G1 X-5.248 Y49.391 F200.000
G1 X-5.541 Y49.338 F200.000
G1 X-5.823 Y49.256 F200.000
G1 X-6.071 Y49.135 F200.000
G1 X-6.353 Y48.910 F200.000
G1 X-6.432 Y48.820 F200.000
G1 X-6.455 Y48.763 F200.000
G1 X-6.474 Y48.402 F200.000
G1 X-6.470 Y48.342 F200.000
G1 X-6.470 Y48.342 F200.000
G1 X-6.436 Y48.214 F200.000
G1 X-6.383 Y48.143 F200.000
G0 X-6.357 Y48.128
G0 X-6.248 Y48.124
G0 X-3.748 Y48.425
G1 X-3.707 Y48.432 F200.000
G1 X-3.605 Y48.451 F200.000
G1 X-3.549 Y48.481 F200.000
G1 X-3.492 Y48.556 F200.000
G1 X-3.459 Y48.680 F200.000
G1 X-3.459 Y48.680 F200.000
G1 X-3.455 Y48.850 F200.000
G1 X-3.485 Y49.019 F200.000
G1 X-3.508 Y49.071 F200.000
G1 X-3.718 Y49.342 F200.000
G1 X-3.801 Y49.421 F200.000
G1 X-3.850 Y49.455 F200.000
G1 X-4.154 Y49.609 F200.000
G1 X-4.387 Y49.684 F200.000
G1 X-4.583 Y49.729 F200.000
G1 X-4.831 Y49.763 F200.000
G1 X-5.135 Y49.774 F200.000
G1 X-5.455 Y49.752 F200.000
G1 X-5.733 Y49.680 F200.000
G1 X-5.932 Y49.602 F200.000
G1 X-6.237 Y49.414 F200.000
G1 X-6.376 Y49.297 F200.000
G1 X-6.410 Y49.244 F200.000
G1 X-6.432 Y49.188 F200.000
G1 X-6.466 Y48.767 F200.000
G1 X-6.466 Y48.767 F200.000
G1 X-6.444 Y48.639 F200.000
G1 X-6.398 Y48.560 F200.000
G0 X-6.376 Y48.545
G0 X-6.263 Y48.534
G0 X-3.729 Y48.684
G1 X-3.692 Y48.688 F200.000
G1 X-3.583 Y48.699 F200.000
G1 X-3.530 Y48.729 F200.000
G1 X-3.470 Y48.801 F200.000
G1 X-3.432 Y48.921 F200.000
G1 X-3.432 Y48.921 F200.000
G1 X-3.402 Y49.203 F200.000
G1 X-3.229 Y49.767 F200.000
G1 X-2.932 Y50.346 F200.000
G1 X-2.650 Y50.726 F200.000
G1 X-2.650 Y50.726 F200.000
G1 X-2.613 Y50.778 F200.000
G1 X-2.586 Y50.835 F200.000
G1 X-2.575 Y50.895 F200.000
G1 X-2.571 Y50.955 F200.000
G0 Z5.000
G0 X-2.571 Y50.955
G0 X-2.124 Y54.511
G1 Z-6.000 F100.000
G1 X-2.124 Y54.511 F200.000
G1 X-2.188 Y54.530 F200.000
G1 X-2.252 Y54.538 F200.000
G1 X-2.316 Y54.530 F200.000
G1 X-2.376 Y54.508 F200.000
G1 X-2.376 Y54.508 F200.000
G1 X-2.590 Y54.417 F200.000
G1 X-2.744 Y54.323 F200.000
G1 X-2.876 Y54.199 F200.000
G1 X-3.008 Y53.996 F200.000
G1 X-3.120 Y53.711 F200.000
G1 X-3.162 Y53.530 F200.000
G1 X-3.214 Y53.162 F200.000
G1 X-3.165 Y52.598 F200.000
G1 X-3.169 Y52.301 F200.000
G1 X-3.259 Y51.940 F200.000
G1 X-3.353 Y51.763 F200.000
G1 X-3.432 Y51.650 F200.000
G1 X-3.534 Y51.530 F200.000
G1 X-3.703 Y51.361 F200.000
G1 X-3.955 Y51.165 F200.000
G1 X-4.436 Y50.883 F200.000
G1 X-5.455 Y50.432 F200.000
G1 X-5.786 Y50.263 F200.000
G1 X-6.169 Y49.977 F200.000
G1 X-6.259 Y49.895 F200.000
G1 X-6.327 Y49.793 F200.000
G1 X-6.414 Y49.376 F200.000
G1 X-6.425 Y49.256 F200.000
G1 X-6.425 Y49.256 F200.000
G1 X-6.410 Y49.128 F200.000
G1 X-6.387 Y49.071 F200.000
G1 X-6.372 Y49.053 F200.000
G0 X-6.353 Y49.045
G0 X-6.259 Y49.083
G0 X-3.214 Y51.323
G0 X-2.831 Y52.147
G0 X-2.808 Y52.759
G0 X-2.541 Y54.177
G1 X-2.538 Y54.211 F200.000
G1 X-2.523 Y54.301 F200.000
G1 X-2.538 Y54.346 F200.000
G1 X-2.583 Y54.368 F200.000
G1 X-2.669 Y54.368 F200.000
G1 X-2.763 Y54.346 F200.000
G1 X-2.763 Y54.346 F200.000
G1 X-3.023 Y54.207 F200.000
G1 X-3.162 Y54.090 F200.000
G1 X-3.241 Y54.000 F200.000
G1 X-3.357 Y53.786 F200.000
G1 X-3.466 Y53.436 F200.000
G1 X-3.489 Y53.316 F200.000
G1 X-3.628 Y52.970 F200.000
G1 X-3.808 Y52.643 F200.000
G1 X-3.962 Y52.429 F200.000
G1 X-4.113 Y52.252 F200.000
G1 X-4.320 Y52.045 F200.000
G1 X-4.583 Y51.820 F200.000
G1 X-5.940 Y50.793 F200.000
G1 X-6.026 Y50.711 F200.000
G1 X-6.132 Y50.564 F200.000
G1 X-6.286 Y50.038 F200.000
G1 X-6.323 Y49.857 F200.000
G1 X-6.323 Y49.857 F200.000
G1 X-6.320 Y49.729 F200.000
G1 X-6.305 Y49.669 F200.000
G1 X-6.289 Y49.650 F200.000
G0 X-6.274 Y49.643
G0 X-6.195 Y49.692
G0 X-3.669 Y52.199
G0 X-3.297 Y52.801
G0 X-2.936 Y54.008
G1 X-2.929 Y54.038 F200.000
G1 X-2.906 Y54.124 F200.000
G1 X-2.917 Y54.165 F200.000
G1 X-2.959 Y54.188 F200.000
G1 X-3.075 Y54.173 F200.000
G1 X-3.135 Y54.150 F200.000
G1 X-3.135 Y54.150 F200.000
G1 X-3.391 Y53.992 F200.000
G1 X-3.481 Y53.917 F200.000
G1 X-4.665 Y52.568 F200.000
G1 X-5.477 Y51.838 F200.000
G1 X-5.677 Y51.609 F200.000
G1 X-6.120 Y50.617 F200.000
G1 X-6.120 Y50.617 F200.000
G1 X-6.132 Y50.455 F200.000
G1 X-6.117 Y50.410 F200.000
G0 X-6.105 Y50.402
G0 X-6.034 Y50.451
G0 X-3.466 Y53.444
G0 X-3.316 Y53.823
G1 X-3.305 Y53.850 F200.000
G1 X-3.274 Y53.959 F200.000
G1 X-3.282 Y53.974 F200.000
G1 X-3.323 Y53.989 F200.000
G1 X-3.436 Y53.966 F200.000
G1 X-3.496 Y53.940 F200.000
G1 X-3.496 Y53.940 F200.000
G1 X-4.256 Y53.372 F200.000
G1 X-4.808 Y52.831 F200.000
G1 X-5.256 Y52.271 F200.000
G1 X-5.650 Y51.662 F200.000
G1 X-5.650 Y51.662 F200.000
G1 X-5.680 Y51.534 F200.000
G1 X-5.677 Y51.474 F200.000
G1 X-5.669 Y51.451 F200.000
G0 X-5.650 Y51.432
G0 X-5.549 Y51.398
G0 X-2.647 Y51.177
G1 X-2.605 Y51.177 F200.000
G1 X-2.252 Y51.162 F200.000
G1 X-2.083 Y51.229 F200.000
G1 X-2.083 Y51.229 F200.000
G1 X-2.079 Y51.222 F200.000
G1 X-1.910 Y51.353 F200.000
G1 X-1.575 Y51.549 F200.000
G1 X-1.402 Y51.632 F200.000
G1 X-1.049 Y51.767 F200.000
G1 X-0.523 Y51.895 F200.000
G1 X-0.259 Y51.925 F200.000
G1 X-0.034 Y51.936 F200.000
G1 X0.436 Y51.914 F200.000
G1 X0.782 Y51.850 F200.000
G1 X1.271 Y51.688 F200.000
G1 X1.767 Y51.447 F200.000
G1 X1.880 Y51.380 F200.000
G1 X2.135 Y51.195 F200.000
G1 X2.575 Y50.767 F200.000
G1 X2.823 Y50.455 F200.000
G1 X2.895 Y50.346 F200.000
G1 X3.102 Y49.977 F200.000
G1 X3.162 Y49.835 F200.000
G1 X3.308 Y49.421 F200.000
G1 X3.342 Y49.278 F200.000
G1 X3.414 Y48.861 F200.000
G1 X3.432 Y48.357 F200.000
G1 X3.380 Y47.891 F200.000
G1 X3.331 Y47.654 F200.000
G1 X3.226 Y47.312 F200.000
G1 X3.086 Y46.985 F200.000
G1 X2.891 Y46.654 F200.000
G1 X2.571 Y46.218 F200.000
G1 X2.350 Y45.989 F200.000
G1 X2.180 Y45.842 F200.000
G1 X1.891 Y45.632 F200.000
G1 X1.466 Y45.395 F200.000
G1 X1.120 Y45.244 F200.000
G1 X0.771 Y45.143 F200.000
G1 X0.545 Y45.102 F200.000
G1 X0.139 Y45.064 F200.000
G1 X-0.143 Y45.064 F200.000
G1 X-0.451 Y45.083 F200.000
G1 X-0.639 Y45.120 F200.000
G1 X-1.117 Y45.248 F200.000
G1 X-1.523 Y45.414 F200.000
G1 X-2.015 Y45.714 F200.000
G1 X-2.402 Y46.038 F200.000
G1 X-2.508 Y46.147 F200.000
G1 X-2.756 Y46.440 F200.000
G1 X-3.015 Y46.846 F200.000
G1 X-3.218 Y47.301 F200.000
G1 X-3.350 Y47.748 F200.000
G1 X-3.383 Y47.925 F200.000
G1 X-3.440 Y48.523 F200.000
G1 X-3.429 Y48.733 F200.000
G1 X-3.361 Y49.229 F200.000
G1 X-3.312 Y49.425 F200.000
G1 X-3.150 Y49.887 F200.000
G1 X-3.053 Y50.079 F200.000
G1 X-2.831 Y50.447 F200.000
G1 X-2.699 Y50.628 F200.000
G1 X-2.541 Y50.816 F200.000
G1 X-2.226 Y51.113 F200.000
G1 X-2.083 Y51.229 F200.000
G1 X-2.083 Y51.229 F200.000
G1 X-2.083 Y51.229 F200.000
G1 X-1.985 Y51.350 F200.000
G1 X-1.970 Y51.406 F200.000
G0 X-1.974 Y51.432
G0 X-2.026 Y51.530
G0 X-3.662 Y53.504
G1 X-3.688 Y53.530 F200.000
G1 X-3.771 Y53.620 F200.000
G1 X-3.823 Y53.643 F200.000
G1 X-3.914 Y53.635 F200.000
G1 X-4.034 Y53.590 F200.000
G1 X-4.034 Y53.590 F200.000
G1 X-4.241 Y53.421 F200.000
G1 X-4.474 Y53.214 F200.000
G1 X-4.628 Y53.064 F200.000
G1 X-5.034 Y52.613 F200.000
G1 X-5.395 Y52.128 F200.000
G1 X-5.650 Y51.718 F200.000
G1 X-5.951 Y51.117 F200.000
G1 X-6.075 Y50.820 F200.000
G1 X-6.165 Y50.575 F200.000
G1 X-6.308 Y50.071 F200.000
G1 X-6.436 Y49.402 F200.000
G1 X-6.485 Y48.929 F200.000
G1 X-6.500 Y48.605 F200.000
G1 X-6.500 Y48.380 F200.000
G1 X-6.489 Y48.128 F200.000
G1 X-6.410 Y47.447 F200.000
G1 X-6.346 Y47.113 F200.000
G1 X-6.226 Y46.632 F200.000
G1 X-6.132 Y46.338 F200.000
G1 X-5.883 Y45.744 F200.000
G1 X-5.643 Y45.278 F200.000
G1 X-5.523 Y45.075 F200.000
G1 X-5.214 Y44.620 F200.000
G1 X-5.011 Y44.361 F200.000
G1 X-4.643 Y43.951 F200.000
G1 X-4.180 Y43.523 F200.000
G1 X-3.925 Y43.320 F200.000
G1 X-3.759 Y43.199 F200.000
G1 X-3.444 Y42.989 F200.000
G1 X-2.974 Y42.718 F200.000
G1 X-2.462 Y42.481 F200.000
G1 X-1.865 Y42.271 F200.000
G1 X-1.605 Y42.199 F200.000
G1 X-1.041 Y42.079 F200.000
G1 X-0.805 Y42.041 F200.000
G1 X-0.470 Y42.011 F200.000
G1 X0.098 Y41.996 F200.000
G1 X0.650 Y42.030 F200.000
G1 X0.891 Y42.064 F200.000
G1 X1.440 Y42.162 F200.000
G1 X1.827 Y42.263 F200.000
G1 X2.395 Y42.459 F200.000
G1 X2.895 Y42.680 F200.000
G1 X3.195 Y42.838 F200.000
G1 X3.662 Y43.128 F200.000
G1 X4.071 Y43.436 F200.000
G1 X4.492 Y43.801 F200.000
G1 X4.737 Y44.049 F200.000
G1 X5.120 Y44.500 F200.000
G1 X5.320 Y44.767 F200.000
G1 X5.609 Y45.218 F200.000
G1 X5.722 Y45.417 F200.000
G1 X5.872 Y45.711 F200.000
G1 X6.075 Y46.192 F200.000
G1 X6.218 Y46.605 F200.000
G1 X6.342 Y47.090 F200.000
G1 X6.440 Y47.583 F200.000
G1 X6.489 Y48.207 F200.000
G1 X6.496 Y48.451 F200.000
G1 X6.462 Y49.124 F200.000
G1 X6.432 Y49.398 F200.000
G1 X6.346 Y49.887 F200.000
G1 X6.259 Y50.237 F200.000
G1 X6.071 Y50.816 F200.000
G1 X5.838 Y51.353 F200.000
G1 X5.737 Y51.553 F200.000
G1 X5.395 Y52.113 F200.000
G1 X5.244 Y52.335 F200.000
G1 X4.857 Y52.812 F200.000
G1 X4.711 Y52.977 F200.000
G1 X4.538 Y53.150 F200.000
G1 X4.297 Y53.368 F200.000
G1 X3.786 Y53.782 F200.000
G1 X3.199 Y54.154 F200.000
G1 X2.838 Y54.342 F200.000
G1 X2.526 Y54.489 F200.000
G1 X2.004 Y54.684 F200.000
G1 X1.820 Y54.741 F200.000
G1 X1.421 Y54.842 F200.000
G1 X0.857 Y54.947 F200.000
G1 X0.357 Y54.989 F200.000
G1 X0.038 Y54.996 F200.000
G1 X-0.549 Y54.970 F200.000
G1 X-0.823 Y54.944 F200.000
G1 X-1.387 Y54.842 F200.000
G1 X-1.714 Y54.763 F200.000
G1 X-2.229 Y54.598 F200.000
G1 X-2.752 Y54.383 F200.000
G1 X-3.045 Y54.237 F200.000
G1 X-3.526 Y53.951 F200.000
G1 X-3.793 Y53.771 F200.000
G1 X-4.034 Y53.590 F200.000
G1 X-4.034 Y53.590 F200.000
G0 Z5.000
(Helix to depth: -6.000000)
G0 Z5.000
G0 X-22.017 Y17.898 Z5.000
G0 X-22.017 Y17.898 Z3.000
G1 X-22.017 Y17.898 Z0.000 F100.000
G1 X-22.017 Y17.898 Z0.000 F100.000
G1 X-22.093 Y17.616 Z-0.026 F100.000
G1 X-22.113 Y17.325 Z-0.052 F100.000
G1 X-22.076 Y17.035 Z-0.077 F100.000
G1 X-21.983 Y16.758 Z-0.103 F100.000
G1 X-21.838 Y16.505 Z-0.129 F100.000
G1 X-21.646 Y16.284 Z-0.155 F100.000
G1 X-21.415 Y16.106 Z-0.180 F100.000
G1 X-21.154 Y15.976 Z-0.206 F100.000
G1 X-20.872 Y15.899 Z-0.232 F100.000
G1 X-20.581 Y15.879 Z-0.258 F100.000
G1 X-20.291 Y15.916 Z-0.283 F100.000
G1 X-20.014 Y16.009 Z-0.309 F100.000
G1 X-19.760 Y16.154 Z-0.335 F100.000
G1 X-19.540 Y16.346 Z-0.361 F100.000
G1 X-19.362 Y16.577 Z-0.387 F100.000
G1 X-19.231 Y16.839 Z-0.412 F100.000
G1 X-19.155 Y17.121 Z-0.438 F100.000
G1 X-19.135 Y17.412 Z-0.464 F100.000
G1 X-19.172 Y17.702 Z-0.490 F100.000
G1 X-19.265 Y17.979 Z-0.515 F100.000
G1 X-19.410 Y18.232 Z-0.541 F100.000
G1 X-19.602 Y18.452 Z-0.567 F100.000
G1 X-19.833 Y18.631 Z-0.593 F100.000
G1 X-20.094 Y18.761 Z-0.618 F100.000
G1 X-20.376 Y18.838 Z-0.644 F100.000
G1 X-20.668 Y18.858 Z-0.670 F100.000
G1 X-20.957 Y18.821 Z-0.696 F100.000
G1 X-21.234 Y18.728 Z-0.721 F100.000
G1 X-21.488 Y18.583 Z-0.747 F100.000
G1 X-21.708 Y18.391 Z-0.773 F100.000
G1 X-21.887 Y18.160 Z-0.799 F100.000
G1 X-22.017 Y17.898 Z-0.825 F100.000
G1 X-22.093 Y17.616 Z-0.850 F100.000
G1 X-22.113 Y17.325 Z-0.876 F100.000
G1 X-22.076 Y17.035 Z-0.902 F100.000
G1 X-21.983 Y16.758 Z-0.928 F100.000
G1 X-21.838 Y16.505 Z-0.953 F100.000
G1 X-21.646 Y16.284 Z-0.979 F100.000
G1 X-21.415 Y16.106 Z-1.005 F100.000
G1 X-21.154 Y15.976 Z-1.031 F100.000
G1 X-20.872 Y15.899 Z-1.056 F100.000
G1 X-20.581 Y15.879 Z-1.082 F100.000
G1 X-20.291 Y15.916 Z-1.108 F100.000
G1 X-20.014 Y16.009 Z-1.134 F100.000
G1 X-19.760 Y16.154 Z-1.160 F100.000
G1 X-19.540 Y16.346 Z-1.185 F100.000
G1 X-19.362 Y16.577 Z-1.211 F100.000
G1 X-19.231 Y16.839 Z-1.237 F100.000
G1 X-19.155 Y17.121 Z-1.263 F100.000
G1 X-19.135 Y17.412 Z-1.288 F100.000
G1 X-19.172 Y17.702 Z-1.314 F100.000
G1 X-19.265 Y17.979 Z-1.340 F100.000
G1 X-19.410 Y18.232 Z-1.366 F100.000
G1 X-19.602 Y18.452 Z-1.391 F100.000
G1 X-19.833 Y18.631 Z-1.417 F100.000
G1 X-20.094 Y18.761 Z-1.443 F100.000
G1 X-20.376 Y18.838 Z-1.469 F100.000
G1 X-20.668 Y18.858 Z-1.495 F100.000
G1 X-20.957 Y18.821 Z-1.520 F100.000
G1 X-21.234 Y18.728 Z-1.546 F100.000
G1 X-21.488 Y18.583 Z-1.572 F100.000
G1 X-21.708 Y18.391 Z-1.598 F100.000
G1 X-21.887 Y18.160 Z-1.623 F100.000
G1 X-22.017 Y17.898 Z-1.649 F100.000
G1 X-22.093 Y17.616 Z-1.675 F100.000
G1 X-22.113 Y17.325 Z-1.701 F100.000
G1 X-22.076 Y17.035 Z-1.726 F100.000
G1 X-21.983 Y16.758 Z-1.752 F100.000
G1 X-21.838 Y16.505 Z-1.778 F100.000
G1 X-21.646 Y16.284 Z-1.804 F100.000
G1 X-21.415 Y16.106 Z-1.829 F100.000
G1 X-21.154 Y15.976 Z-1.855 F100.000
G1 X-20.872 Y15.899 Z-1.881 F100.000
G1 X-20.581 Y15.879 Z-1.907 F100.000
G1 X-20.291 Y15.916 Z-1.933 F100.000
G1 X-20.014 Y16.009 Z-1.958 F100.000
G1 X-19.760 Y16.154 Z-1.984 F100.000
G1 X-19.540 Y16.346 Z-2.010 F100.000
G1 X-19.362 Y16.577 Z-2.036 F100.000
G1 X-19.231 Y16.839 Z-2.061 F100.000
G1 X-19.155 Y17.121 Z-2.087 F100.000
G1 X-19.135 Y17.412 Z-2.113 F100.000
G1 X-19.172 Y17.702 Z-2.139 F100.000
G1 X-19.265 Y17.979 Z-2.164 F100.000
G1 X-19.410 Y18.232 Z-2.190 F100.000
G1 X-19.602 Y18.452 Z-2.216 F100.000
G1 X-19.833 Y18.631 Z-2.242 F100.000
G1 X-20.094 Y18.761 Z-2.268 F100.000
G1 X-20.376 Y18.838 Z-2.293 F100.000
G1 X-20.668 Y18.858 Z-2.319 F100.000
G1 X-20.957 Y18.821 Z-2.345 F100.000
G1 X-21.234 Y18.728 Z-2.371 F100.000
G1 X-21.488 Y18.583 Z-2.396 F100.000
G1 X-21.708 Y18.391 Z-2.422 F100.000
G1 X-21.887 Y18.160 Z-2.448 F100.000
G1 X-22.017 Y17.898 Z-2.474 F100.000
G1 X-22.093 Y17.616 Z-2.499 F100.000
G1 X-22.113 Y17.325 Z-2.525 F100.000
G1 X-22.076 Y17.035 Z-2.551 F100.000
G1 X-21.983 Y16.758 Z-2.577 F100.000
G1 X-21.838 Y16.505 Z-2.603 F100.000
G1 X-21.646 Y16.284 Z-2.628 F100.000
G1 X-21.415 Y16.106 Z-2.654 F100.000
G1 X-21.154 Y15.976 Z-2.680 F100.000
G1 X-20.872 Y15.899 Z-2.706 F100.000
G1 X-20.581 Y15.879 Z-2.731 F100.000
G1 X-20.291 Y15.916 Z-2.757 F100.000
G1 X-20.014 Y16.009 Z-2.783 F100.000
G1 X-19.760 Y16.154 Z-2.809 F100.000
G1 X-19.540 Y16.346 Z-2.834 F100.000
G1 X-19.362 Y16.577 Z-2.860 F100.000
G1 X-19.231 Y16.839 Z-2.886 F100.000
G1 X-19.155 Y17.121 Z-2.912 F100.000
G1 X-19.135 Y17.412 Z-2.937 F100.000
G1 X-19.172 Y17.702 Z-2.963 F100.000
G1 X-19.265 Y17.979 Z-2.989 F100.000
G1 X-19.410 Y18.232 Z-3.015 F100.000
G1 X-19.602 Y18.452 Z-3.041 F100.000
G1 X-19.833 Y18.631 Z-3.066 F100.000
G1 X-20.094 Y18.761 Z-3.092 F100.000
G1 X-20.376 Y18.838 Z-3.118 F100.000
G1 X-20.668 Y18.858 Z-3.144 F100.000
G1 X-20.957 Y18.821 Z-3.169 F100.000
G1 X-21.234 Y18.728 Z-3.195 F100.000
G1 X-21.488 Y18.583 Z-3.221 F100.000
G1 X-21.708 Y18.391 Z-3.247 F100.000
G1 X-21.887 Y18.160 Z-3.272 F100.000
G1 X-22.017 Y17.898 Z-3.298 F100.000
G1 X-22.093 Y17.616 Z-3.324 F100.000
G1 X-22.113 Y17.325 Z-3.350 F100.000
G1 X-22.076 Y17.035 Z-3.376 F100.000
G1 X-21.983 Y16.758 Z-3.401 F100.000
G1 X-21.838 Y16.505 Z-3.427 F100.000
G1 X-21.646 Y16.284 Z-3.453 F100.000
G1 X-21.415 Y16.106 Z-3.479 F100.000
G1 X-21.154 Y15.976 Z-3.504 F100.000
G1 X-20.872 Y15.899 Z-3.530 F100.000
G1 X-20.581 Y15.879 Z-3.556 F100.000
G1 X-20.291 Y15.916 Z-3.582 F100.000
G1 X-20.014 Y16.009 Z-3.607 F100.000
G1 X-19.760 Y16.154 Z-3.633 F100.000
G1 X-19.540 Y16.346 Z-3.659 F100.000
G1 X-19.362 Y16.577 Z-3.685 F100.000
G1 X-19.231 Y16.839 Z-3.711 F100.000
G1 X-19.155 Y17.121 Z-3.736 F100.000
G1 X-19.135 Y17.412 Z-3.762 F100.000
G1 X-19.172 Y17.702 Z-3.788 F100.000
G1 X-19.265 Y17.979 Z-3.814 F100.000
G1 X-19.410 Y18.232 Z-3.839 F100.000
G1 X-19.602 Y18.452 Z-3.865 F100.000
G1 X-19.833 Y18.631 Z-3.891 F100.000
G1 X-20.094 Y18.761 Z-3.917 F100.000
G1 X-20.376 Y18.838 Z-3.942 F100.000
G1 X-20.668 Y18.858 Z-3.968 F100.000
G1 X-20.957 Y18.821 Z-3.994 F100.000
G1 X-21.234 Y18.728 Z-4.020 F100.000
G1 X-21.488 Y18.583 Z-4.046 F100.000
G1 X-21.708 Y18.391 Z-4.071 F100.000
G1 X-21.887 Y18.160 Z-4.097 F100.000
G1 X-22.017 Y17.898 Z-4.123 F100.000
G1 X-22.093 Y17.616 Z-4.149 F100.000
G1 X-22.113 Y17.325 Z-4.174 F100.000
G1 X-22.076 Y17.035 Z-4.200 F100.000
G1 X-21.983 Y16.758 Z-4.226 F100.000
G1 X-21.838 Y16.505 Z-4.252 F100.000
G1 X-21.646 Y16.284 Z-4.277 F100.000
G1 X-21.415 Y16.106 Z-4.303 F100.000
G1 X-21.154 Y15.976 Z-4.329 F100.000
G1 X-20.872 Y15.899 Z-4.355 F100.000
G1 X-20.581 Y15.879 Z-4.380 F100.000
G1 X-20.291 Y15.916 Z-4.406 F100.000
G1 X-20.014 Y16.009 Z-4.432 F100.000
G1 X-19.760 Y16.154 Z-4.458 F100.000
G1 X-19.540 Y16.346 Z-4.484 F100.000
G1 X-19.362 Y16.577 Z-4.509 F100.000
G1 X-19.231 Y16.839 Z-4.535 F100.000
G1 X-19.155 Y17.121 Z-4.561 F100.000
G1 X-19.135 Y17.412 Z-4.587 F100.000
G1 X-19.172 Y17.702 Z-4.612 F100.000
G1 X-19.265 Y17.979 Z-4.638 F100.000
G1 X-19.410 Y18.232 Z-4.664 F100.000
G1 X-19.602 Y18.452 Z-4.690 F100.000
G1 X-19.833 Y18.631 Z-4.715 F100.000
G1 X-20.094 Y18.761 Z-4.741 F100.000
G1 X-20.376 Y18.838 Z-4.767 F100.000
G1 X-20.668 Y18.858 Z-4.793 F100.000
G1 X-20.957 Y18.821 Z-4.819 F100.000
G1 X-21.234 Y18.728 Z-4.844 F100.000
G1 X-21.488 Y18.583 Z-4.870 F100.000
G1 X-21.708 Y18.391 Z-4.896 F100.000
G1 X-21.887 Y18.160 Z-4.922 F100.000
G1 X-22.017 Y17.898 Z-4.947 F100.000
G1 X-22.093 Y17.616 Z-4.973 F100.000
G1 X-22.113 Y17.325 Z-4.999 F100.000
G1 X-22.076 Y17.035 Z-5.025 F100.000
G1 X-21.983 Y16.758 Z-5.050 F100.000
G1 X-21.838 Y16.505 Z-5.076 F100.000
G1 X-21.646 Y16.284 Z-5.102 F100.000
G1 X-21.415 Y16.106 Z-5.128 F100.000
G1 X-21.154 Y15.976 Z-5.154 F100.000
G1 X-20.872 Y15.899 Z-5.179 F100.000
G1 X-20.581 Y15.879 Z-5.205 F100.000
G1 X-20.291 Y15.916 Z-5.231 F100.000
G1 X-20.014 Y16.009 Z-5.257 F100.000
G1 X-19.760 Y16.154 Z-5.282 F100.000
G1 X-19.540 Y16.346 Z-5.308 F100.000
G1 X-19.362 Y16.577 Z-5.334 F100.000
G1 X-19.231 Y16.839 Z-5.360 F100.000
G1 X-19.155 Y17.121 Z-5.385 F100.000
G1 X-19.135 Y17.412 Z-5.411 F100.000
G1 X-19.172 Y17.702 Z-5.437 F100.000
G1 X-19.265 Y17.979 Z-5.463 F100.000
G1 X-19.410 Y18.232 Z-5.488 F100.000
G1 X-19.602 Y18.452 Z-5.514 F100.000
G1 X-19.833 Y18.631 Z-5.540 F100.000
G1 X-20.094 Y18.761 Z-5.566 F100.000
G1 X-20.376 Y18.838 Z-5.592 F100.000
G1 X-20.668 Y18.858 Z-5.617 F100.000
G1 X-20.957 Y18.821 Z-5.643 F100.000
G1 X-21.234 Y18.728 Z-5.669 F100.000
G1 X-21.488 Y18.583 Z-5.695 F100.000
G1 X-21.708 Y18.391 Z-5.720 F100.000
G1 X-21.887 Y18.160 Z-5.746 F100.000
G1 X-22.017 Y17.898 Z-5.772 F100.000
G1 X-22.093 Y17.616 Z-5.798 F100.000
G1 X-22.113 Y17.325 Z-5.823 F100.000
G1 X-22.076 Y17.035 Z-5.849 F100.000
G1 X-21.983 Y16.758 Z-5.875 F100.000
G1 X-21.838 Y16.505 Z-5.901 F100.000
G1 X-21.646 Y16.284 Z-5.927 F100.000
G1 X-21.415 Y16.106 Z-5.952 F100.000
G1 X-21.154 Y15.976 Z-5.978 F100.000
G1 X-20.872 Y15.899 Z-6.000 F200.000
G1 X-20.581 Y15.879 Z-6.000 F200.000
G1 X-20.291 Y15.916 Z-6.000 F200.000
G1 X-20.014 Y16.009 Z-6.000 F200.000
G1 X-19.760 Y16.154 Z-6.000 F200.000
G1 X-19.540 Y16.346 Z-6.000 F200.000
G1 X-19.362 Y16.577 Z-6.000 F200.000
G1 X-19.231 Y16.839 Z-6.000 F200.000
G1 X-19.155 Y17.121 Z-6.000 F200.000
G1 X-19.135 Y17.412 Z-6.000 F200.000
G1 X-19.172 Y17.702 Z-6.000 F200.000
G1 X-19.265 Y17.979 Z-6.000 F200.000
G1 X-19.410 Y18.232 Z-6.000 F200.000
G1 X-19.602 Y18.452 Z-6.000 F200.000
G1 X-19.833 Y18.631 Z-6.000 F200.000
G1 X-20.094 Y18.761 Z-6.000 F200.000
G1 X-20.376 Y18.838 Z-6.000 F200.000
G1 X-20.668 Y18.858 Z-6.000 F200.000
G1 X-20.957 Y18.821 Z-6.000 F200.000
G1 X-21.234 Y18.728 Z-6.000 F200.000
G1 X-21.488 Y18.583 Z-6.000 F200.000
G1 X-21.708 Y18.391 Z-6.000 F200.000
G1 X-21.887 Y18.160 Z-6.000 F200.000
G1 X-22.017 Y17.898 Z-6.000 F200.000
G1 X-22.093 Y17.616 Z-6.000 F200.000
G1 X-22.113 Y17.325 Z-6.000 F200.000
G1 X-22.076 Y17.035 Z-6.000 F200.000
G1 X-21.983 Y16.758 Z-6.000 F200.000
G1 X-21.838 Y16.505 Z-6.000 F200.000
G1 X-21.646 Y16.284 Z-6.000 F200.000
G1 X-21.415 Y16.106 Z-6.000 F200.000
G1 X-21.154 Y15.976 Z-6.000 F200.000
(Adaptive - depth: -6.000000)
G1 X-20.624 Y15.868 F200.000
G1 X-20.579 Y15.823 F200.000
G1 X-20.462 Y15.771 F200.000
G1 X-20.282 Y15.737 F200.000
G1 X-20.102 Y15.737 F200.000
G1 X-20.041 Y15.744 F200.000
G1 X-19.989 Y15.771 F200.000
G1 X-19.989 Y15.771 F200.000
G1 X-19.921 Y15.906 F200.000
G1 X-19.917 Y15.936 F200.000
G1 X-19.910 Y15.962 F200.000
G0 X-19.898 Y15.989
G0 X-19.590 Y16.387
G1 X-19.568 Y16.414 F200.000
G1 X-19.470 Y16.511 F200.000
G1 X-19.263 Y16.643 F200.000
G1 X-19.263 Y16.643 F200.000
G1 X-18.932 Y17.060 F200.000
G1 X-18.853 Y17.214 F200.000
G1 X-18.820 Y17.383 F200.000
G1 X-18.808 Y17.553 F200.000
G1 X-18.842 Y17.835 F200.000
G1 X-18.970 Y18.180 F200.000
G1 X-19.143 Y18.466 F200.000
G1 X-19.267 Y18.617 F200.000
G1 X-19.398 Y18.744 F200.000
G1 X-19.575 Y18.880 F200.000
G1 X-19.797 Y19.011 F200.000
G1 X-20.034 Y19.117 F200.000
G1 X-20.274 Y19.173 F200.000
G1 X-20.519 Y19.203 F200.000
G1 X-20.914 Y19.173 F200.000
G1 X-21.026 Y19.143 F200.000
G1 X-21.079 Y19.117 F200.000
G1 X-21.128 Y19.079 F200.000
G1 X-21.680 Y18.451 F200.000
G1 X-21.680 Y18.451 F200.000
G1 X-21.741 Y18.338 F200.000
G1 X-21.752 Y18.278 F200.000
G1 X-21.752 Y18.252 F200.000
G0 X-21.741 Y18.226
G0 X-21.654 Y18.162
G0 X-19.256 Y17.056
G1 X-19.218 Y17.041 F200.000
G1 X-19.086 Y16.996 F200.000
G1 X-18.996 Y17.008 F200.000
G1 X-18.868 Y17.094 F200.000
G1 X-18.868 Y17.094 F200.000
G1 X-18.639 Y17.372 F200.000
G1 X-18.583 Y17.477 F200.000
G1 X-18.564 Y17.534 F200.000
G1 X-18.545 Y17.816 F200.000
G1 X-18.586 Y18.098 F200.000
G1 X-18.722 Y18.444 F200.000
G1 X-18.910 Y18.741 F200.000
G1 X-19.041 Y18.895 F200.000
G1 X-19.177 Y19.026 F200.000
G1 X-19.357 Y19.169 F200.000
G1 X-19.605 Y19.320 F200.000
G1 X-19.850 Y19.432 F200.000
G1 X-20.158 Y19.519 F200.000
G1 X-20.553 Y19.553 F200.000
G1 X-20.665 Y19.538 F200.000
G1 X-20.718 Y19.515 F200.000
G1 X-21.094 Y19.117 F200.000
G1 X-21.094 Y19.117 F200.000
G1 X-21.158 Y19.008 F200.000
G1 X-21.169 Y18.947 F200.000
G1 X-21.169 Y18.917 F200.000
G0 X-21.162 Y18.895
G0 X-21.083 Y18.816
G0 X-18.962 Y17.406
G1 X-18.929 Y17.383 F200.000
G1 X-18.838 Y17.331 F200.000
G1 X-18.778 Y17.320 F200.000
G1 X-18.688 Y17.335 F200.000
G1 X-18.583 Y17.402 F200.000
G1 X-18.583 Y17.402 F200.000
G1 X-18.425 Y17.579 F200.000
G1 X-18.335 Y17.729 F200.000
G1 X-18.312 Y17.786 F200.000
G1 X-18.289 Y17.955 F200.000
G1 X-18.308 Y18.237 F200.000
G1 X-18.331 Y18.350 F200.000
G1 X-18.466 Y18.695 F200.000
G1 X-18.658 Y19.004 F200.000
G1 X-18.789 Y19.162 F200.000
G1 X-18.921 Y19.297 F200.000
G1 X-19.117 Y19.459 F200.000
G1 X-19.361 Y19.620 F200.000
G1 X-19.628 Y19.744 F200.000
G1 X-19.910 Y19.842 F200.000
G1 X-20.248 Y19.883 F200.000
G1 X-20.305 Y19.883 F200.000
G1 X-20.414 Y19.846 F200.000
G1 X-20.703 Y19.538 F200.000
G1 X-20.703 Y19.538 F200.000
G1 X-20.767 Y19.429 F200.000
G1 X-20.778 Y19.338 F200.000
G0 X-20.771 Y19.312
G0 X-20.695 Y19.229
G0 X-18.707 Y17.677
G1 X-18.673 Y17.654 F200.000
G1 X-18.586 Y17.594 F200.000
G1 X-18.526 Y17.579 F200.000
G1 X-18.440 Y17.594 F200.000
G1 X-18.335 Y17.662 F200.000
G1 X-18.335 Y17.662 F200.000
G1 X-18.177 Y17.842 F200.000
G1 X-18.109 Y17.940 F200.000
G1 X-18.064 Y18.049 F200.000
G1 X-18.045 Y18.331 F200.000
G1 X-18.086 Y18.613 F200.000
G1 X-18.218 Y18.959 F200.000
G1 X-18.406 Y19.274 F200.000
G1 X-18.541 Y19.444 F200.000
G1 X-18.684 Y19.590 F200.000
G1 X-18.872 Y19.752 F200.000
G1 X-19.109 Y19.914 F200.000
G1 X-19.368 Y20.053 F200.000
G1 X-19.684 Y20.162 F200.000
G1 X-19.966 Y20.199 F200.000
G1 X-20.023 Y20.192 F200.000
G1 X-20.079 Y20.173 F200.000
G1 X-20.372 Y19.887 F200.000
G1 X-20.372 Y19.887 F200.000
G1 X-20.436 Y19.778 F200.000
G1 X-20.451 Y19.688 F200.000
G0 X-20.447 Y19.662
G0 X-20.376 Y19.575
G0 X-18.451 Y17.944
G1 X-18.417 Y17.921 F200.000
G1 X-18.335 Y17.857 F200.000
G1 X-18.274 Y17.842 F200.000
G1 X-18.162 Y17.868 F200.000
G1 X-18.083 Y17.917 F200.000
G1 X-18.083 Y17.917 F200.000
G1 X-17.921 Y18.094 F200.000
G1 X-17.831 Y18.244 F200.000
G1 X-17.812 Y18.301 F200.000
G1 X-17.789 Y18.583 F200.000
G1 X-17.831 Y18.865 F200.000
G1 X-17.955 Y19.214 F200.000
G1 X-18.139 Y19.534 F200.000
G1 X-18.278 Y19.714 F200.000
G1 X-18.421 Y19.872 F200.000
G1 X-18.613 Y20.041 F200.000
G1 X-18.846 Y20.211 F200.000
G1 X-19.117 Y20.365 F200.000
G1 X-19.440 Y20.477 F200.000
G1 X-19.665 Y20.508 F200.000
G1 X-19.722 Y20.496 F200.000
G1 X-19.778 Y20.474 F200.000
G1 X-20.075 Y20.184 F200.000
G1 X-20.075 Y20.184 F200.000
G1 X-20.139 Y20.075 F200.000
G1 X-20.154 Y19.985 F200.000
G0 X-20.150 Y19.959
G0 X-20.079 Y19.868
G0 X-18.188 Y18.199
G1 X-18.162 Y18.173 F200.000
G1 X-18.075 Y18.109 F200.000
G1 X-18.019 Y18.094 F200.000
G1 X-17.906 Y18.120 F200.000
G1 X-17.827 Y18.169 F200.000
G1 X-17.827 Y18.169 F200.000
G1 X-17.665 Y18.346 F200.000
G1 X-17.575 Y18.496 F200.000
G1 X-17.538 Y18.665 F200.000
G1 X-17.538 Y18.947 F200.000
G1 X-17.564 Y19.117 F200.000
G1 X-17.684 Y19.466 F200.000
G1 X-17.861 Y19.789 F200.000
G1 X-17.996 Y19.981 F200.000
G1 X-18.139 Y20.147 F200.000
G1 X-18.331 Y20.327 F200.000
G1 X-18.560 Y20.500 F200.000
G1 X-18.812 Y20.650 F200.000
G1 X-19.071 Y20.756 F200.000
G1 X-19.297 Y20.801 F200.000
G1 X-19.353 Y20.805 F200.000
G1 X-19.466 Y20.774 F200.000
G1 X-19.726 Y20.526 F200.000
G1 X-19.726 Y20.526 F200.000
G1 X-19.793 Y20.421 F200.000
G1 X-19.812 Y20.335 F200.000
G0 X-19.805 Y20.308
G0 X-19.737 Y20.214
G0 X-17.925 Y18.459
G1 X-17.898 Y18.432 F200.000
G1 X-17.816 Y18.365 F200.000
G1 X-17.759 Y18.346 F200.000
G1 X-17.647 Y18.372 F200.000
G1 X-17.568 Y18.421 F200.000
G1 X-17.568 Y18.421 F200.000
G1 X-17.406 Y18.598 F200.000
G1 X-17.338 Y18.695 F200.000
G1 X-17.293 Y18.805 F200.000
G1 X-17.263 Y19.030 F200.000
G1 X-17.274 Y19.256 F200.000
G1 X-17.297 Y19.368 F200.000
G1 X-17.402 Y19.722 F200.000
G1 X-17.575 Y20.049 F200.000
G1 X-17.703 Y20.233 F200.000
G1 X-17.838 Y20.398 F200.000
G1 X-18.026 Y20.586 F200.000
G1 X-18.271 Y20.782 F200.000
G1 X-18.526 Y20.936 F200.000
G1 X-18.759 Y21.034 F200.000
G1 X-19.041 Y21.090 F200.000
G1 X-19.098 Y21.083 F200.000
G1 X-19.154 Y21.060 F200.000
G1 X-19.380 Y20.853 F200.000
G1 X-19.380 Y20.853 F200.000
G1 X-19.451 Y20.748 F200.000
G1 X-19.474 Y20.662 F200.000
G0 X-19.470 Y20.632
G0 X-19.406 Y20.538
G0 X-17.665 Y18.718
G1 X-17.639 Y18.692 F200.000
G1 X-17.560 Y18.620 F200.000
G1 X-17.504 Y18.602 F200.000
G1 X-17.417 Y18.609 F200.000
G1 X-17.308 Y18.669 F200.000
G1 X-17.308 Y18.669 F200.000
G1 X-17.143 Y18.846 F200.000
G1 X-17.053 Y18.996 F200.000
G1 X-17.008 Y19.222 F200.000
G1 X-17.011 Y19.560 F200.000
G1 X-17.019 Y19.617 F200.000
G1 X-17.124 Y19.970 F200.000
G1 X-17.271 Y20.267 F200.000
G1 X-17.383 Y20.451 F200.000
G1 X-17.519 Y20.628 F200.000
G1 X-17.707 Y20.835 F200.000
G1 X-17.944 Y21.034 F200.000
G1 X-18.162 Y21.184 F200.000
G1 X-18.470 Y21.327 F200.000
G1 X-18.695 Y21.372 F200.000
G1 X-18.752 Y21.372 F200.000
G1 X-18.808 Y21.357 F200.000
G1 X-19.083 Y21.124 F200.000
G1 X-19.083 Y21.124 F200.000
G1 X-19.154 Y21.019 F200.000
G1 X-19.177 Y20.932 F200.000
G0 X-19.173 Y20.902
G0 X-19.113 Y20.808
G0 X-17.436 Y18.925
G1 X-17.410 Y18.898 F200.000
G1 X-17.331 Y18.823 F200.000
G1 X-17.278 Y18.805 F200.000
G1 X-17.192 Y18.812 F200.000
G1 X-17.083 Y18.872 F200.000
G1 X-17.083 Y18.872 F200.000
G1 X-16.872 Y19.086 F200.000
G1 X-16.801 Y19.184 F200.000
G1 X-16.756 Y19.293 F200.000
G1 X-16.722 Y19.519 F200.000
G1 X-16.737 Y19.857 F200.000
G1 X-16.835 Y20.214 F200.000
G1 X-16.992 Y20.545 F200.000
G1 X-17.109 Y20.733 F200.000
G1 X-17.244 Y20.906 F200.000
G1 X-17.414 Y21.094 F200.000
G1 X-17.665 Y21.320 F200.000
G1 X-17.974 Y21.515 F200.000
G1 X-18.188 Y21.602 F200.000
G1 X-18.414 Y21.647 F200.000
G1 X-18.526 Y21.617 F200.000
G1 X-18.797 Y21.376 F200.000
G1 X-18.797 Y21.376 F200.000
G1 X-18.868 Y21.271 F200.000
G1 X-18.891 Y21.188 F200.000
G0 X-18.887 Y21.158
G0 X-18.823 Y21.064
G0 X-17.124 Y19.203
G1 X-17.098 Y19.173 F200.000
G1 X-17.019 Y19.102 F200.000
G1 X-16.966 Y19.083 F200.000
G1 X-16.880 Y19.090 F200.000
G1 X-16.771 Y19.150 F200.000
G1 X-16.771 Y19.150 F200.000
G1 X-16.568 Y19.365 F200.000
G1 X-16.504 Y19.462 F200.000
G1 X-16.455 Y19.632 F200.000
G1 X-16.436 Y19.914 F200.000
G1 X-16.451 Y20.083 F200.000
G1 X-16.545 Y20.440 F200.000
G1 X-16.692 Y20.778 F200.000
G1 X-16.816 Y20.985 F200.000
G1 X-16.940 Y21.158 F200.000
G1 X-17.113 Y21.357 F200.000
G1 X-17.338 Y21.564 F200.000
G1 X-17.583 Y21.729 F200.000
G1 X-17.786 Y21.842 F200.000
G1 X-18.011 Y21.902 F200.000
G1 X-18.124 Y21.910 F200.000
G1 X-18.180 Y21.895 F200.000
G1 X-18.455 Y21.677 F200.000
G1 X-18.455 Y21.677 F200.000
G1 X-18.530 Y21.575 F200.000
G1 X-18.553 Y21.489 F200.000
G0 X-18.549 Y21.462
G0 X-18.489 Y21.365
G0 X-16.850 Y19.455
G1 X-16.823 Y19.425 F200.000
G1 X-16.748 Y19.353 F200.000
G1 X-16.695 Y19.331 F200.000
G1 X-16.609 Y19.335 F200.000
G1 X-16.500 Y19.387 F200.000
G1 X-16.500 Y19.387 F200.000
G1 X-16.327 Y19.553 F200.000
G1 X-16.252 Y19.647 F200.000
G1 X-16.199 Y19.756 F200.000
G1 X-16.154 Y19.981 F200.000
G1 X-16.154 Y20.263 F200.000
G1 X-16.248 Y20.680 F200.000
G1 X-16.391 Y21.023 F200.000
G1 X-16.515 Y21.241 F200.000
G1 X-16.639 Y21.425 F200.000
G1 X-16.823 Y21.635 F200.000
G1 X-17.026 Y21.823 F200.000
G1 X-17.252 Y21.992 F200.000
G1 X-17.504 Y22.117 F200.000
G1 X-17.726 Y22.177 F200.000
G1 X-17.782 Y22.184 F200.000
G1 X-17.838 Y22.173 F200.000
G1 X-18.165 Y21.917 F200.000
G1 X-18.165 Y21.917 F200.000
G1 X-18.241 Y21.816 F200.000
G1 X-18.263 Y21.729 F200.000
G0 X-18.259 Y21.703
G0 X-18.199 Y21.605
G0 X-16.571 Y19.680
G1 X-16.549 Y19.647 F200.000
G1 X-16.474 Y19.575 F200.000
G1 X-16.421 Y19.553 F200.000
G1 X-16.335 Y19.560 F200.000
G1 X-16.226 Y19.620 F200.000
G1 X-16.226 Y19.620 F200.000
G1 X-16.008 Y19.827 F200.000
G1 X-15.940 Y19.925 F200.000
G1 X-15.876 Y20.147 F200.000
G1 X-15.857 Y20.429 F200.000
G1 X-15.865 Y20.541 F200.000
G1 X-15.944 Y20.902 F200.000
G1 X-16.075 Y21.248 F200.000
G1 X-16.192 Y21.470 F200.000
G1 X-16.323 Y21.658 F200.000
G1 X-16.470 Y21.838 F200.000
G1 X-16.695 Y22.060 F200.000
G1 X-16.932 Y22.244 F200.000
G1 X-17.180 Y22.372 F200.000
G1 X-17.406 Y22.436 F200.000
G1 X-17.462 Y22.440 F200.000
G1 X-17.519 Y22.429 F200.000
G1 X-17.805 Y22.211 F200.000
G1 X-17.805 Y22.211 F200.000
G1 X-17.883 Y22.109 F200.000
G1 X-17.910 Y22.023 F200.000
G0 X-17.910 Y21.996
G0 X-17.853 Y21.895
G0 X-16.289 Y19.921
G1 X-16.267 Y19.887 F200.000
G1 X-16.195 Y19.812 F200.000
G1 X-16.143 Y19.786 F200.000
G1 X-16.056 Y19.793 F200.000
G1 X-15.947 Y19.846 F200.000
G1 X-15.947 Y19.846 F200.000
G1 X-15.763 Y20.004 F200.000
G1 X-15.650 Y20.143 F200.000
G1 X-15.624 Y20.195 F200.000
G1 X-15.568 Y20.477 F200.000
G1 X-15.560 Y20.759 F200.000
G1 X-15.632 Y21.124 F200.000
G1 X-15.752 Y21.455 F200.000
G1 X-15.853 Y21.650 F200.000
G1 X-15.962 Y21.831 F200.000
G1 X-16.135 Y22.060 F200.000
G1 X-16.353 Y22.289 F200.000
G1 X-16.579 Y22.466 F200.000
G1 X-16.827 Y22.609 F200.000
G1 X-17.105 Y22.692 F200.000
G1 X-17.162 Y22.688 F200.000
G1 X-17.218 Y22.669 F200.000
G1 X-17.508 Y22.447 F200.000
G1 X-17.508 Y22.447 F200.000
G1 X-17.586 Y22.346 F200.000
G1 X-17.613 Y22.259 F200.000
G0 X-17.613 Y22.233
G0 X-17.556 Y22.132
G0 X-16.008 Y20.147
G1 X-15.985 Y20.113 F200.000
G1 X-15.914 Y20.038 F200.000
G1 X-15.861 Y20.011 F200.000
G1 X-15.771 Y20.015 F200.000
G1 X-15.662 Y20.068 F200.000
G1 X-15.662 Y20.068 F200.000
G1 X-15.436 Y20.267 F200.000
G1 X-15.331 Y20.410 F200.000
G1 X-15.271 Y20.635 F200.000
G1 X-15.248 Y20.974 F200.000
G1 X-15.252 Y21.030 F200.000
G1 X-15.331 Y21.391 F200.000
G1 X-15.440 Y21.692 F200.000
G1 X-15.545 Y21.902 F200.000
G1 X-15.665 Y22.102 F200.000
G1 X-15.846 Y22.338 F200.000
G1 X-16.053 Y22.553 F200.000
G1 X-16.267 Y22.718 F200.000
G1 X-16.466 Y22.838 F200.000
G1 X-16.684 Y22.921 F200.000
G1 X-16.797 Y22.940 F200.000
G1 X-16.853 Y22.929 F200.000
G1 X-16.906 Y22.906 F200.000
G1 X-17.195 Y22.688 F200.000
G1 X-17.195 Y22.688 F200.000
G1 X-17.274 Y22.586 F200.000
G1 X-17.301 Y22.500 F200.000
G0 X-17.301 Y22.474
G0 X-17.244 Y22.376
G0 X-15.677 Y20.406
G1 X-15.654 Y20.372 F200.000
G1 X-15.583 Y20.297 F200.000
G1 X-15.530 Y20.271 F200.000
G1 X-15.440 Y20.274 F200.000
G1 X-15.331 Y20.327 F200.000
G1 X-15.331 Y20.327 F200.000
G1 X-15.147 Y20.489 F200.000
G1 X-15.034 Y20.632 F200.000
G1 X-14.977 Y20.797 F200.000
G1 X-14.944 Y21.079 F200.000
G1 X-14.947 Y21.248 F200.000
G1 X-15.015 Y21.613 F200.000
G1 X-15.139 Y21.962 F200.000
G1 X-15.237 Y22.165 F200.000
G1 X-15.361 Y22.365 F200.000
G1 X-15.523 Y22.575 F200.000
G1 X-15.718 Y22.782 F200.000
G1 X-15.947 Y22.974 F200.000
G1 X-16.192 Y23.113 F200.000
G1 X-16.410 Y23.184 F200.000
G1 X-16.466 Y23.184 F200.000
G1 X-16.523 Y23.173 F200.000
G1 X-16.816 Y22.966 F200.000
G1 X-16.816 Y22.966 F200.000
G1 X-16.898 Y22.872 F200.000
G1 X-16.932 Y22.789 F200.000
G0 X-16.932 Y22.763
G0 X-16.880 Y22.662
G0 X-15.387 Y20.639
G1 X-15.365 Y20.605 F200.000
G1 X-15.293 Y20.526 F200.000
G1 X-15.244 Y20.500 F200.000
G1 X-15.154 Y20.496 F200.000
G1 X-15.045 Y20.545 F200.000
G1 X-15.045 Y20.545 F200.000
G1 X-14.816 Y20.737 F200.000
G1 X-14.741 Y20.831 F200.000
G1 X-14.665 Y21.053 F200.000
G1 X-14.635 Y21.447 F200.000
G1 X-14.695 Y21.812 F200.000
G1 X-14.808 Y22.165 F200.000
G1 X-14.914 Y22.387 F200.000
G1 X-15.023 Y22.575 F200.000
G1 X-15.180 Y22.789 F200.000
G1 X-15.376 Y23.004 F200.000
G1 X-15.590 Y23.195 F200.000
G1 X-15.831 Y23.346 F200.000
G1 X-16.049 Y23.421 F200.000
G1 X-16.105 Y23.432 F200.000
G1 X-16.162 Y23.421 F200.000
G1 X-16.508 Y23.184 F200.000
G1 X-16.508 Y23.184 F200.000
G1 X-16.590 Y23.090 F200.000
G1 X-16.624 Y23.008 F200.000
G0 X-16.624 Y22.981
G0 X-16.575 Y22.876
G0 X-15.139 Y20.812
G1 X-15.117 Y20.782 F200.000
G1 X-15.049 Y20.699 F200.000
G1 X-14.996 Y20.673 F200.000
G1 X-14.910 Y20.669 F200.000
G1 X-14.797 Y20.714 F200.000
G1 X-14.797 Y20.714 F200.000
G1 X-14.560 Y20.902 F200.000
G1 X-14.440 Y21.038 F200.000
G1 X-14.410 Y21.090 F200.000
G1 X-14.338 Y21.372 F200.000
G1 X-14.316 Y21.654 F200.000
G1 X-14.368 Y22.019 F200.000
G1 X-14.477 Y22.368 F200.000
G1 X-14.568 Y22.579 F200.000
G1 X-14.680 Y22.782 F200.000
G1 X-14.827 Y22.996 F200.000
G1 X-15.023 Y23.222 F200.000
G1 X-15.233 Y23.417 F200.000
G1 X-15.526 Y23.594 F200.000
G1 X-15.692 Y23.650 F200.000
G1 X-15.748 Y23.662 F200.000
G1 X-15.805 Y23.658 F200.000
G1 X-15.861 Y23.639 F200.000
G1 X-16.154 Y23.436 F200.000
G1 X-16.154 Y23.436 F200.000
G1 X-16.237 Y23.342 F200.000
G1 X-16.271 Y23.259 F200.000
G0 X-16.271 Y23.233
G0 X-16.222 Y23.128
G0 X-14.793 Y21.053
G1 X-14.771 Y21.023 F200.000
G1 X-14.703 Y20.940 F200.000
G1 X-14.650 Y20.914 F200.000
G1 X-14.564 Y20.910 F200.000
G1 X-14.455 Y20.959 F200.000
G1 X-14.455 Y20.959 F200.000
G1 X-14.218 Y21.147 F200.000
G1 X-14.139 Y21.233 F200.000
G1 X-14.086 Y21.338 F200.000
G1 X-14.015 Y21.620 F200.000
G1 X-13.996 Y21.846 F200.000
G1 X-14.038 Y22.214 F200.000
G1 X-14.143 Y22.568 F200.000
G1 X-14.233 Y22.782 F200.000
G1 X-14.335 Y22.977 F200.000
G1 X-14.481 Y23.203 F200.000
G1 X-14.692 Y23.447 F200.000
G1 X-14.883 Y23.632 F200.000
G1 X-15.117 Y23.789 F200.000
G1 X-15.274 Y23.861 F200.000
G1 X-15.387 Y23.891 F200.000
G1 X-15.444 Y23.891 F200.000
G1 X-15.500 Y23.872 F200.000
G1 X-15.793 Y23.680 F200.000
G1 X-15.793 Y23.680 F200.000
G1 X-15.880 Y23.586 F200.000
G1 X-15.914 Y23.508 F200.000
G0 X-15.914 Y23.477
G0 X-15.868 Y23.376
G0 X-14.492 Y21.263
G1 X-14.474 Y21.229 F200.000
G1 X-14.410 Y21.147 F200.000
G1 X-14.357 Y21.120 F200.000
G1 X-14.271 Y21.117 F200.000
G1 X-14.158 Y21.158 F200.000
G1 X-14.158 Y21.158 F200.000
G1 X-13.914 Y21.335 F200.000
G1 X-13.801 Y21.470 F200.000
G1 X-13.711 Y21.748 F200.000
G1 X-13.673 Y22.086 F200.000
G1 X-13.718 Y22.455 F200.000
G1 X-13.820 Y22.812 F200.000
G1 X-13.910 Y23.023 F200.000
G1 X-14.011 Y23.207 F200.000
G1 X-14.150 Y23.421 F200.000
G1 X-14.357 Y23.677 F200.000
G1 X-14.643 Y23.925 F200.000
G1 X-14.838 Y24.041 F200.000
G1 X-15.056 Y24.120 F200.000
G1 X-15.113 Y24.113 F200.000
G1 X-15.462 Y23.895 F200.000
G1 X-15.462 Y23.895 F200.000
G1 X-15.549 Y23.801 F200.000
G1 X-15.583 Y23.722 F200.000
G0 X-15.583 Y23.692
G0 X-15.534 Y23.590
G0 X-14.139 Y21.496
G1 X-14.117 Y21.462 F200.000
G1 X-14.053 Y21.380 F200.000
G1 X-14.000 Y21.353 F200.000
G1 X-13.914 Y21.346 F200.000
G1 X-13.801 Y21.383 F200.000
G1 X-13.801 Y21.383 F200.000
G1 X-13.564 Y21.571 F200.000
G1 X-13.489 Y21.665 F200.000
G1 X-13.421 Y21.831 F200.000
G1 X-13.357 Y22.169 F200.000
G1 X-13.350 Y22.282 F200.000
G1 X-13.387 Y22.650 F200.000
G1 X-13.485 Y23.008 F200.000
G1 X-13.571 Y23.226 F200.000
G1 X-13.669 Y23.417 F200.000
G1 X-13.808 Y23.635 F200.000
G1 X-14.004 Y23.880 F200.000
G1 X-14.222 Y24.083 F200.000
G1 X-14.523 Y24.274 F200.000
G1 X-14.684 Y24.331 F200.000
G1 X-14.741 Y24.331 F200.000
G1 X-14.797 Y24.320 F200.000
G1 X-15.049 Y24.158 F200.000
G1 X-15.049 Y24.158 F200.000
G1 X-15.135 Y24.064 F200.000
G1 X-15.169 Y23.985 F200.000
G0 X-15.169 Y23.955
G0 X-15.128 Y23.850
G0 X-13.831 Y21.692
G1 X-13.812 Y21.654 F200.000
G1 X-13.748 Y21.571 F200.000
G1 X-13.699 Y21.541 F200.000
G1 X-13.613 Y21.538 F200.000
G1 X-13.500 Y21.579 F200.000
G1 X-13.500 Y21.579 F200.000
G1 X-13.301 Y21.718 F200.000
G1 X-13.177 Y21.846 F200.000
G1 X-13.143 Y21.895 F200.000
G1 X-13.068 Y22.120 F200.000
G1 X-13.019 Y22.459 F200.000
G1 X-13.053 Y22.827 F200.000
G1 X-13.139 Y23.188 F200.000
G1 X-13.222 Y23.414 F200.000
G1 X-13.320 Y23.617 F200.000
G1 X-13.459 Y23.846 F200.000
G1 X-13.643 Y24.075 F200.000
G1 X-13.827 Y24.259 F200.000
G1 X-14.094 Y24.451 F200.000
G1 X-14.308 Y24.541 F200.000
G1 X-14.365 Y24.549 F200.000
G1 X-14.421 Y24.541 F200.000
G1 X-14.774 Y24.335 F200.000
G1 X-14.774 Y24.335 F200.000
G1 X-14.865 Y24.248 F200.000
G1 X-14.902 Y24.165 F200.000
G0 X-14.906 Y24.139
G0 X-14.861 Y24.034
G0 X-13.526 Y21.880
G1 X-13.508 Y21.846 F200.000
G1 X-13.447 Y21.759 F200.000
G1 X-13.395 Y21.733 F200.000
G1 X-13.308 Y21.729 F200.000
G1 X-13.195 Y21.771 F200.000
G1 X-13.195 Y21.771 F200.000
G1 X-12.947 Y21.947 F200.000
G1 X-12.835 Y22.083 F200.000
G1 X-12.767 Y22.248 F200.000
G1 X-12.692 Y22.643 F200.000
G1 X-12.714 Y23.011 F200.000
G1 X-12.797 Y23.372 F200.000
G1 X-12.868 Y23.583 F200.000
G1 X-12.962 Y23.782 F200.000
G1 X-13.090 Y24.004 F200.000
G1 X-13.274 Y24.252 F200.000
G1 X-13.474 Y24.470 F200.000
G1 X-13.752 Y24.669 F200.000
G1 X-13.910 Y24.741 F200.000
G1 X-13.966 Y24.756 F200.000
G1 X-14.023 Y24.756 F200.000
G1 X-14.079 Y24.741 F200.000
G1 X-14.338 Y24.594 F200.000
G1 X-14.338 Y24.594 F200.000
G1 X-14.429 Y24.508 F200.000
G1 X-14.466 Y24.425 F200.000
G0 X-14.470 Y24.398
G0 X-14.432 Y24.289
G0 X-13.211 Y22.075
G1 X-13.188 Y22.041 F200.000
G1 X-13.132 Y21.951 F200.000
G1 X-13.083 Y21.921 F200.000
G1 X-12.996 Y21.914 F200.000
G1 X-12.883 Y21.955 F200.000
G1 X-12.883 Y21.955 F200.000
G1 X-12.628 Y22.124 F200.000
G1 X-12.541 Y22.211 F200.000
G1 X-12.459 Y22.365 F200.000
G1 X-12.372 Y22.703 F200.000
G1 X-12.357 Y22.816 F200.000
G1 X-12.372 Y23.184 F200.000
G1 X-12.440 Y23.530 F200.000
G1 X-12.511 Y23.748 F200.000
G1 X-12.598 Y23.944 F200.000
G1 X-12.718 Y24.165 F200.000
G1 X-12.898 Y24.425 F200.000
G1 X-13.113 Y24.658 F200.000
G1 X-13.305 Y24.816 F200.000
G1 X-13.508 Y24.925 F200.000
G1 X-13.617 Y24.959 F200.000
G1 X-13.673 Y24.955 F200.000
G1 X-13.992 Y24.786 F200.000
G1 X-13.992 Y24.786 F200.000
G1 X-14.083 Y24.699 F200.000
G1 X-14.124 Y24.620 F200.000
G0 X-14.128 Y24.594
G0 X-14.090 Y24.485
G0 X-12.895 Y22.274
G1 X-12.876 Y22.237 F200.000
G1 X-12.820 Y22.150 F200.000
G1 X-12.771 Y22.113 F200.000
G1 X-12.684 Y22.102 F200.000
G1 X-12.571 Y22.132 F200.000
G1 X-12.571 Y22.132 F200.000
G1 X-12.316 Y22.297 F200.000
G1 X-12.229 Y22.376 F200.000
G1 X-12.162 Y22.474 F200.000
G1 X-12.060 Y22.752 F200.000
G1 X-12.011 Y23.034 F200.000
G1 X-12.030 Y23.402 F200.000
G1 X-12.098 Y23.729 F200.000
G1 X-12.165 Y23.940 F200.000
G1 X-12.252 Y24.150 F200.000
G1 X-12.387 Y24.398 F200.000
G1 X-12.568 Y24.650 F200.000
G1 X-12.744 Y24.853 F200.000
G1 X-12.970 Y25.030 F200.000
G1 X-13.173 Y25.139 F200.000
G1 X-13.226 Y25.158 F200.000
G1 X-13.282 Y25.158 F200.000
G1 X-13.338 Y25.147 F200.000
G1 X-13.602 Y25.000 F200.000
G1 X-13.602 Y25.000 F200.000
G1 X-13.692 Y24.914 F200.000
G1 X-13.733 Y24.835 F200.000
G0 X-13.737 Y24.808
G0 X-13.703 Y24.699
G0 X-12.571 Y22.447
G1 X-12.556 Y22.410 F200.000
G1 X-12.504 Y22.323 F200.000
G1 X-12.455 Y22.286 F200.000
G1 X-12.368 Y22.274 F200.000
G1 X-12.256 Y22.305 F200.000
