(Exported by FreeCAD)
(Post Processor: grbl_post)
(Output Time:2023-08-10 16:21:25.585735)
(Begin preamble)
G17 G90
G21
(Block-name: G54)
(Block-expand: 0)
(Block-enable: 1)
(Begin operation: G54)
(Path: G54)
G54
G0 Z5.000
(Finish operation: G54)
(Block-name: 33mm Endmill001)
(Block-expand: 0)
(Block-enable: 1)
(Begin operation: 33mm Endmill001)
(Path: 33mm Endmill001)
(33mm Endmill001)
(Begin toolchange)
( M6 T2 )
(Finish operation: 33mm Endmill001)
(Block-name: Profile007)
(Block-expand: 0)
(Block-enable: 1)
(Begin operation: Profile007)
(Path: Profile007)
(Profile007)
(Compensated Tool Path. Diameter: 33.0)
G0 Z5.000
G0 X-45.000
G0 X-23.593
G0 X-23.593 Z3.000
G1 X-23.593 Y0.000 Z-6.500 F100.000
G2 X-2.131 Y23.035 Z-6.500 I23.093 J0.000 K0.000 F200.000
G2 X1.131 Y-23.035 Z-6.500 I1.631 J-23.035 K0.000 F200.000
G2 X-23.593 Y0.000 Z-6.500 I-1.631 J23.035 K0.000 F200.000
G1 X-23.593 Y0.000 Z-8.000 F100.000
G2 X-2.131 Y23.035 Z-8.000 I23.093 J0.000 K0.000 F200.000
G2 X1.131 Y-23.035 Z-8.000 I1.631 J-23.035 K0.000 F200.000
G2 X-23.593 Y0.000 Z-8.000 I-1.631 J23.035 K0.000 F200.000
G1 X-23.593 Y0.000 Z-9.500 F100.000
G2 X-2.131 Y23.035 Z-9.500 I23.093 J0.000 K0.000 F200.000
G2 X1.131 Y-23.035 Z-9.500 I1.631 J-23.035 K0.000 F200.000
G2 X-23.593 Y0.000 Z-9.500 I-1.631 J23.035 K0.000 F200.000
G1 X-23.593 Y0.000 Z-11.000 F100.000
G2 X-2.131 Y23.035 Z-11.000 I23.093 J0.000 K0.000 F200.000
G2 X1.131 Y-23.035 Z-11.000 I1.631 J-23.035 K0.000 F200.000
G2 X-23.593 Y0.000 Z-11.000 I-1.631 J23.035 K0.000 F200.000
G0 Z5.000
G0 Z5.000
(Finish operation: Profile007)
(Block-name: Profile008)
(Block-expand: 0)
(Block-enable: 1)
(Begin operation: Profile008)
(Path: Profile008)
(Profile008)
(Compensated Tool Path. Diameter: 33.0)
G0 Z5.000
G0 X-45.000
G0 X-23.443
G0 X-23.443 Z3.000
G1 X-23.443 Y0.000 Z-6.500 F100.000
G2 X-2.122 Y22.886 Z-6.500 I22.943 J0.000 K0.000 F200.000
G2 X1.122 Y-22.886 Z-6.500 I1.622 J-22.886 K0.000 F200.000
G2 X-23.443 Y0.000 Z-6.500 I-1.622 J22.886 K0.000 F200.000
G1 X-23.443 Y0.000 Z-8.000 F100.000
G2 X-2.122 Y22.886 Z-8.000 I22.943 J0.000 K0.000 F200.000
G2 X1.122 Y-22.886 Z-8.000 I1.622 J-22.886 K0.000 F200.000
G2 X-23.443 Y0.000 Z-8.000 I-1.622 J22.886 K0.000 F200.000
G1 X-23.443 Y0.000 Z-9.500 F100.000
G2 X-2.122 Y22.886 Z-9.500 I22.943 J0.000 K0.000 F200.000
G2 X1.122 Y-22.886 Z-9.500 I1.622 J-22.886 K0.000 F200.000
G2 X-23.443 Y0.000 Z-9.500 I-1.622 J22.886 K0.000 F200.000
G1 X-23.443 Y0.000 Z-11.000 F100.000
G2 X-2.122 Y22.886 Z-11.000 I22.943 J0.000 K0.000 F200.000
G2 X1.122 Y-22.886 Z-11.000 I1.622 J-22.886 K0.000 F200.000
G2 X-23.443 Y0.000 Z-11.000 I-1.622 J22.886 K0.000 F200.000
G0 Z5.000
G0 Z5.000
(Finish operation: Profile008)
(Block-name: Profile009)
(Block-expand: 0)
(Block-enable: 1)
(Begin operation: Profile009)
(Path: Profile009)
(Profile009)
(Compensated Tool Path. Diameter: 33.0)
G0 Z5.000
G0 X-45.000
G0 X-23.293
G0 X-23.293 Z3.000
G1 X-23.293 Y-0.000 Z-6.500 F100.000
G2 X-2.114 Y22.736 Z-6.500 I22.793 J-0.000 K0.000 F200.000
G2 X1.114 Y-22.736 Z-6.500 I1.614 J-22.736 K0.000 F200.000
G2 X-23.293 Y-0.000 Z-6.500 I-1.614 J22.736 K0.000 F200.000
G1 X-23.293 Y-0.000 Z-8.000 F100.000
G2 X-2.114 Y22.736 Z-8.000 I22.793 J-0.000 K0.000 F200.000
G2 X1.114 Y-22.736 Z-8.000 I1.614 J-22.736 K0.000 F200.000
G2 X-23.293 Y-0.000 Z-8.000 I-1.614 J22.736 K0.000 F200.000
G1 X-23.293 Y-0.000 Z-9.500 F100.000
G2 X-2.114 Y22.736 Z-9.500 I22.793 J-0.000 K0.000 F200.000
G2 X1.114 Y-22.736 Z-9.500 I1.614 J-22.736 K0.000 F200.000
G2 X-23.293 Y-0.000 Z-9.500 I-1.614 J22.736 K0.000 F200.000
G1 X-23.293 Y-0.000 Z-11.000 F100.000
G2 X-2.114 Y22.736 Z-11.000 I22.793 J-0.000 K0.000 F200.000
G2 X1.114 Y-22.736 Z-11.000 I1.614 J-22.736 K0.000 F200.000
G2 X-23.293 Y-0.000 Z-11.000 I-1.614 J22.736 K0.000 F200.000
G0 Z5.000
G0 Z5.000
(Finish operation: Profile009)
(Block-name: Profile010)
(Block-expand: 0)
(Block-enable: 1)
(Begin operation: Profile010)
(Path: Profile010)
(Profile010)
(Compensated Tool Path. Diameter: 33.0)
G0 Z5.000
G0 X-45.000
G0 X-23.143
G0 X-23.143 Z3.000
G1 X-23.143 Y-0.000 Z-6.500 F100.000
G2 X-2.105 Y22.586 Z-6.500 I22.643 J-0.000 K0.000 F200.000
G2 X1.105 Y-22.586 Z-6.500 I1.605 J-22.586 K0.000 F200.000
G2 X-23.143 Y-0.000 Z-6.500 I-1.605 J22.586 K0.000 F200.000
G1 X-23.143 Y-0.000 Z-8.000 F100.000
G2 X-2.105 Y22.586 Z-8.000 I22.643 J-0.000 K0.000 F200.000
G2 X1.105 Y-22.586 Z-8.000 I1.605 J-22.586 K0.000 F200.000
G2 X-23.143 Y-0.000 Z-8.000 I-1.605 J22.586 K0.000 F200.000
G1 X-23.143 Y-0.000 Z-9.500 F100.000
G2 X-2.105 Y22.586 Z-9.500 I22.643 J-0.000 K0.000 F200.000
G2 X1.105 Y-22.586 Z-9.500 I1.605 J-22.586 K0.000 F200.000
G2 X-23.143 Y-0.000 Z-9.500 I-1.605 J22.586 K0.000 F200.000
G1 X-23.143 Y-0.000 Z-11.000 F100.000
G2 X-2.105 Y22.586 Z-11.000 I22.643 J-0.000 K0.000 F200.000
G2 X1.105 Y-22.586 Z-11.000 I1.605 J-22.586 K0.000 F200.000
G2 X-23.143 Y-0.000 Z-11.000 I-1.605 J22.586 K0.000 F200.000
G0 Z5.000
G0 Z5.000
(Finish operation: Profile010)
(Block-name: Profile011)
(Block-expand: 0)
(Block-enable: 1)
(Begin operation: Profile011)
(Path: Profile011)
(Profile011)
(Compensated Tool Path. Diameter: 33.0)
G0 Z5.000
G0 X-45.000
G0 X-22.993
G0 X-22.993 Z3.000
G1 X-22.993 Y-0.000 Z-6.500 F100.000
G2 X-2.097 Y22.436 Z-6.500 I22.493 J-0.000 K0.000 F200.000
G2 X1.097 Y-22.436 Z-6.500 I1.597 J-22.436 K0.000 F200.000
G2 X-22.993 Y-0.000 Z-6.500 I-1.597 J22.436 K0.000 F200.000
G1 X-22.993 Y-0.000 Z-8.000 F100.000
G2 X-2.097 Y22.436 Z-8.000 I22.493 J-0.000 K0.000 F200.000
G2 X1.097 Y-22.436 Z-8.000 I1.597 J-22.436 K0.000 F200.000
G2 X-22.993 Y-0.000 Z-8.000 I-1.597 J22.436 K0.000 F200.000
G1 X-22.993 Y-0.000 Z-9.500 F100.000
G2 X-2.097 Y22.436 Z-9.500 I22.493 J-0.000 K0.000 F200.000
G2 X1.097 Y-22.436 Z-9.500 I1.597 J-22.436 K0.000 F200.000
G2 X-22.993 Y-0.000 Z-9.500 I-1.597 J22.436 K0.000 F200.000
G1 X-22.993 Y-0.000 Z-11.000 F100.000
G2 X-2.097 Y22.436 Z-11.000 I22.493 J-0.000 K0.000 F200.000
G2 X1.097 Y-22.436 Z-11.000 I1.597 J-22.436 K0.000 F200.000
G2 X-22.993 Y-0.000 Z-11.000 I-1.597 J22.436 K0.000 F200.000
G0 Z5.000
G0 Z5.000
(Finish operation: Profile011)
(Block-name: Profile012)
(Block-expand: 0)
(Block-enable: 1)
(Begin operation: Profile012)
(Path: Profile012)
(Profile012)
(Compensated Tool Path. Diameter: 33.0)
G0 Z5.000
G0 X-45.000
G0 X-22.993
G0 X-22.993 Z3.000
G1 X-22.993 Y-0.000 Z-6.500 F100.000
G2 X-2.097 Y22.436 Z-6.500 I22.493 J-0.000 K0.000 F200.000
G2 X1.097 Y-22.436 Z-6.500 I1.597 J-22.436 K0.000 F200.000
G2 X-22.993 Y-0.000 Z-6.500 I-1.597 J22.436 K0.000 F200.000
G1 X-22.993 Y-0.000 Z-8.000 F100.000
G2 X-2.097 Y22.436 Z-8.000 I22.493 J-0.000 K0.000 F200.000
G2 X1.097 Y-22.436 Z-8.000 I1.597 J-22.436 K0.000 F200.000
G2 X-22.993 Y-0.000 Z-8.000 I-1.597 J22.436 K0.000 F200.000
G1 X-22.993 Y-0.000 Z-9.500 F100.000
G2 X-2.097 Y22.436 Z-9.500 I22.493 J-0.000 K0.000 F200.000
G2 X1.097 Y-22.436 Z-9.500 I1.597 J-22.436 K0.000 F200.000
G2 X-22.993 Y-0.000 Z-9.500 I-1.597 J22.436 K0.000 F200.000
G1 X-22.993 Y-0.000 Z-11.000 F100.000
G2 X-2.097 Y22.436 Z-11.000 I22.493 J-0.000 K0.000 F200.000
G2 X1.097 Y-22.436 Z-11.000 I1.597 J-22.436 K0.000 F200.000
G2 X-22.993 Y-0.000 Z-11.000 I-1.597 J22.436 K0.000 F200.000
G0 Z5.000
G0 Z5.000
(Finish operation: Profile012)
(Block-name: Profile013)
(Block-expand: 0)
(Block-enable: 1)
(Begin operation: Profile013)
(Path: Profile013)
(Profile013)
(Compensated Tool Path. Diameter: 33.0)
G0 Z5.000
G0 X-45.000
G0 X-23.293
G0 X-23.293 Z3.000
G1 X-23.293 Y-0.000 Z-6.500 F100.000
G2 X-2.114 Y22.736 Z-6.500 I22.793 J-0.000 K0.000 F200.000
G2 X1.114 Y-22.736 Z-6.500 I1.614 J-22.736 K0.000 F200.000
G2 X-23.293 Y-0.000 Z-6.500 I-1.614 J22.736 K0.000 F200.000
G1 X-23.293 Y-0.000 Z-8.000 F100.000
G2 X-2.114 Y22.736 Z-8.000 I22.793 J-0.000 K0.000 F200.000
G2 X1.114 Y-22.736 Z-8.000 I1.614 J-22.736 K0.000 F200.000
G2 X-23.293 Y-0.000 Z-8.000 I-1.614 J22.736 K0.000 F200.000
G1 X-23.293 Y-0.000 Z-9.500 F100.000
G2 X-2.114 Y22.736 Z-9.500 I22.793 J-0.000 K0.000 F200.000
G2 X1.114 Y-22.736 Z-9.500 I1.614 J-22.736 K0.000 F200.000
G2 X-23.293 Y-0.000 Z-9.500 I-1.614 J22.736 K0.000 F200.000
G1 X-23.293 Y-0.000 Z-11.000 F100.000
G2 X-2.114 Y22.736 Z-11.000 I22.793 J-0.000 K0.000 F200.000
G2 X1.114 Y-22.736 Z-11.000 I1.614 J-22.736 K0.000 F200.000
G2 X-23.293 Y-0.000 Z-11.000 I-1.614 J22.736 K0.000 F200.000
G0 Z5.000
G0 Z5.000
(Finish operation: Profile013)
(Block-name: post_amble)
(Block-expand: 0)
(Block-enable: 1)
(Begin postamble)
M5
G17 G90
M2
