(Exported by FreeCAD)
(Post Processor: grbl_post)
(Output Time:2023-08-11 19:57:10.681840)
(Begin preamble)
G17 G90
G21
(Block-name: G54)
(Block-expand: 0)
(Block-enable: 1)
(Begin operation: G54)
(Path: G54)
G54
G0 Z5.000
(Finish operation: G54)
(Block-name: 3mm Endmill001)
(Block-expand: 0)
(Block-enable: 1)
(Begin operation: 3mm Endmill001)
(Path: 3mm Endmill001)
(3mm Endmill001)
(Begin toolchange)
( M6 T2 )
(Finish operation: 3mm Endmill001)
(Block-name: Out_cont_Z-4mm)
(Block-expand: 0)
(Block-enable: 1)
(Begin operation: Out_cont_Z-4mm)
(Path: Out_cont_Z-4mm)
(Out_cont_Z-4mm)
(Helix to depth: -3.000000)
G0 Z5.000
G0 X1.073 Y8.989 Z5.000
G0 X1.073 Y8.989 Z3.000
G1 X1.073 Y8.989 Z0.000
G2 X-1.907 Y8.989 Z-0.412 I-1.490
G2 X1.073 Y8.989 Z-0.825 I1.490
G2 X-1.907 Y8.989 Z-1.237 I-1.490
G2 X1.073 Y8.989 Z-1.649 I1.490
G2 X-1.907 Y8.989 Z-2.061 I-1.490
G2 X1.073 Y8.989 Z-2.474 I1.490
G2 X-1.907 Y8.989 Z-2.737 I-1.490
G2 X1.073 Y8.989 Z-3.000 I1.490
G2 X-1.907 Y8.989 Z-3.000 I-1.490
G2 X1.073 Y8.989 Z-3.000 I1.490
(Adaptive - depth: -3.000000)
G1 X-0.417 Y7.489
G1 X-0.361 Y7.466
G1 X-0.361 Y7.466
G1 X-0.263 Y7.489
G1 X-0.229 Y7.496
G1 X-0.004 Y7.504
G1 X-0.004 Y7.504
G1 X0.000 Y7.492
G1 X0.222 Y7.526
G1 X0.504 Y7.545
G1 X0.617 Y7.575
G1 X0.718 Y7.628
G1 X0.853 Y7.733
G1 X1.083 Y7.992
G1 X1.271 Y8.312
G1 X1.380 Y8.665
G1 X1.402 Y8.850
G1 X1.410 Y9.015
G1 X1.391 Y9.233
G1 X1.346 Y9.470
G1 X1.259 Y9.726
G1 X1.147 Y9.940
G1 X1.026 Y10.105
G1 X0.711 Y10.387
G1 X0.560 Y10.489
G1 X0.444 Y10.526
G1 X-0.711 Y10.519
G1 X-0.992 Y10.429
G1 X-1.331 Y10.357
G1 X-1.549 Y10.267
G1 X-1.647 Y10.199
G1 X-1.853 Y9.985
G1 X-2.011 Y9.729
G1 X-2.177 Y9.327
G1 X-2.226 Y8.955
G1 X-2.214 Y8.771
G1 X-2.188 Y8.613
G1 X-2.139 Y8.432
G1 X-2.041 Y8.184
G1 X-1.906 Y7.944
G1 X-1.759 Y7.759
G1 X-1.564 Y7.568
G1 X-1.361 Y7.421
G1 X-1.252 Y7.361
G1 X-1.192 Y7.342
G1 X-1.132 Y7.342
G1 X-1.132 Y7.342
G1 X-1.015 Y7.391
G1 X-0.940 Y7.451
G0 X-0.917 Y7.470
G0 X-0.365 Y7.805
G0 X-0.308 Y7.820
G0 X0.184 Y7.669
G1 X0.218 Y7.658
G1 X0.376 Y7.590
G1 X0.526 Y7.530
G1 X0.590 Y7.523
G1 X0.590 Y7.523
G1 X0.872 Y7.541
G1 X0.985 Y7.571
G1 X1.132 Y7.665
G1 X1.297 Y7.823
G1 X1.406 Y7.959
G1 X1.594 Y8.278
G1 X1.711 Y8.628
G1 X1.741 Y8.816
G1 X1.748 Y8.981
G1 X1.741 Y9.199
G1 X1.695 Y9.481
G1 X1.620 Y9.752
G1 X1.508 Y9.985
G1 X1.406 Y10.154
G1 X1.248 Y10.335
G1 X1.113 Y10.455
G1 X1.008 Y10.515
G1 X0.947 Y10.523
G1 X0.947 Y10.523
G1 X0.820 Y10.496
G1 X0.741 Y10.447
G0 X0.726 Y10.425
G0 X0.703 Y10.312
G0 X0.662 Y7.793
G1 X0.662 Y7.756
G1 X0.669 Y7.650
G1 X0.695 Y7.594
G1 X0.767 Y7.541
G1 X0.891 Y7.511
G1 X0.891 Y7.511
G1 X1.173 Y7.515
G1 X1.286 Y7.538
G1 X1.481 Y7.658
G1 X1.647 Y7.816
G1 X1.756 Y7.951
G1 X1.940 Y8.271
G1 X2.053 Y8.624
G1 X2.083 Y8.820
G1 X2.098 Y9.000
G1 X2.094 Y9.229
G1 X2.056 Y9.523
G1 X1.985 Y9.808
G1 X1.876 Y10.056
G1 X1.707 Y10.297
G1 X1.583 Y10.429
G1 X1.530 Y10.462
G1 X1.474 Y10.485
G1 X1.353 Y10.496
G1 X1.353 Y10.496
G1 X1.226 Y10.477
G1 X1.147 Y10.436
G0 X1.128 Y10.414
G0 X1.102 Y10.301
G0 X0.966 Y7.782
G1 X0.966 Y7.744
G1 X0.966 Y7.639
G1 X0.992 Y7.583
G1 X1.064 Y7.526
G1 X1.188 Y7.489
G1 X1.188 Y7.489
G1 X1.414 Y7.474
G1 X1.583 Y7.496
G1 X1.639 Y7.511
G1 X1.914 Y7.718
G1 X2.068 Y7.891
G1 X2.259 Y8.207
G1 X2.387 Y8.553
G1 X2.432 Y8.756
G1 X2.455 Y8.944
G1 X2.466 Y9.180
G1 X2.436 Y9.508
G1 X2.372 Y9.778
G1 X2.263 Y10.049
G1 X2.098 Y10.301
G1 X2.019 Y10.387
G1 X1.966 Y10.417
G1 X1.910 Y10.436
G1 X1.850 Y10.444
G1 X1.850 Y10.444
G1 X1.722 Y10.432
G1 X1.639 Y10.395
G0 X1.620 Y10.372
G0 X1.590 Y10.263
G0 X1.338 Y7.756
G1 X1.335 Y7.714
G1 X1.331 Y7.609
G1 X1.357 Y7.553
G1 X1.425 Y7.492
G1 X1.545 Y7.447
G1 X1.545 Y7.447
G1 X1.827 Y7.440
G1 X1.940 Y7.462
G1 X2.132 Y7.586
G1 X2.376 Y7.835
G1 X2.583 Y8.143
G1 X2.729 Y8.481
G1 X2.782 Y8.688
G1 X2.812 Y8.872
G1 X2.831 Y9.109
G1 X2.820 Y9.414
G1 X2.771 Y9.711
G1 X2.665 Y10.011
G1 X2.508 Y10.263
G1 X2.466 Y10.308
G1 X2.414 Y10.342
G1 X2.357 Y10.365
G1 X2.237 Y10.391
G1 X2.237 Y10.391
G1 X2.075 Y10.376
G1 X2.023 Y10.346
G0 X2.004 Y10.327
G0 X1.970 Y10.222
G0 X1.654 Y7.726
G1 X1.650 Y7.684
G1 X1.647 Y7.579
G1 X1.665 Y7.523
G1 X1.729 Y7.455
G1 X1.842 Y7.402
G1 X1.842 Y7.402
G1 X2.011 Y7.380
G1 X2.180 Y7.391
G1 X2.237 Y7.406
G1 X2.436 Y7.523
G1 X2.650 Y7.718
G1 X2.880 Y8.008
G1 X3.045 Y8.338
G1 X3.113 Y8.538
G1 X3.158 Y8.722
G1 X3.192 Y8.966
G1 X3.203 Y9.259
G1 X3.180 Y9.556
G1 X3.117 Y9.831
G1 X2.985 Y10.094
G1 X2.914 Y10.192
G1 X2.820 Y10.267
G1 X2.820 Y10.267
G1 X2.692 Y10.263
G1 X2.605 Y10.229
G0 X2.583 Y10.211
G0 X2.541 Y10.105
G0 X1.966 Y7.662
G1 X1.955 Y7.620
G1 X1.940 Y7.519
G1 X1.959 Y7.462
G1 X2.019 Y7.395
G1 X2.135 Y7.342
G1 X2.135 Y7.342
G1 X2.361 Y7.312
G1 X2.530 Y7.331
G1 X2.733 Y7.436
G1 X2.996 Y7.658
G1 X3.226 Y7.947
G1 X3.398 Y8.274
G1 X3.470 Y8.477
G1 X3.519 Y8.662
G1 X3.560 Y8.902
G1 X3.583 Y9.229
G1 X3.553 Y9.541
G1 X3.496 Y9.767
G1 X3.365 Y10.034
G1 X3.289 Y10.128
G1 X3.241 Y10.165
G1 X3.064 Y10.214
G1 X3.064 Y10.214
G1 X2.936 Y10.211
G1 X2.850 Y10.177
G0 X2.827 Y10.158
G0 X2.786 Y10.053
G0 X2.259 Y7.602
G1 X2.252 Y7.560
G1 X2.237 Y7.455
G1 X2.252 Y7.398
G1 X2.316 Y7.331
G1 X2.429 Y7.271
G1 X2.429 Y7.271
G1 X2.711 Y7.226
G1 X2.823 Y7.241
G1 X2.981 Y7.312
G1 X3.263 Y7.515
G1 X3.511 Y7.789
G1 X3.707 Y8.105
G1 X3.793 Y8.305
G1 X3.853 Y8.489
G1 X3.910 Y8.729
G1 X3.947 Y9.023
G1 X3.951 Y9.327
G1 X3.906 Y9.605
G1 X3.797 Y9.880
G1 X3.733 Y9.981
G1 X3.688 Y10.019
G1 X3.575 Y10.064
G1 X3.575 Y10.064
G1 X3.414 Y10.068
G1 X3.361 Y10.045
G0 X3.338 Y10.030
G0 X3.289 Y9.929
G0 X2.571 Y7.523
G1 X2.564 Y7.481
G1 X2.541 Y7.380
G1 X2.553 Y7.320
G1 X2.609 Y7.248
G1 X2.718 Y7.188
G1 X2.718 Y7.188
G1 X3.000 Y7.132
G1 X3.056 Y7.132
G1 X3.271 Y7.203
G1 X3.560 Y7.391
G1 X3.605 Y7.429
G1 X3.857 Y7.699
G1 X4.053 Y8.008
G1 X4.143 Y8.199
G1 X4.214 Y8.387
G1 X4.286 Y8.650
G1 X4.327 Y8.962
G1 X4.327 Y9.237
G1 X4.297 Y9.470
G1 X4.222 Y9.695
G1 X4.169 Y9.801
G1 X4.135 Y9.850
G1 X4.090 Y9.891
G1 X3.865 Y9.977
G1 X3.865 Y9.977
G1 X3.703 Y9.981
G1 X3.650 Y9.959
G0 X3.628 Y9.940
G0 X3.579 Y9.838
G0 X2.868 Y7.444
G1 X2.861 Y7.402
G1 X2.838 Y7.301
G1 X2.846 Y7.241
G1 X2.898 Y7.165
G1 X3.000 Y7.090
G1 X3.000 Y7.090
G1 X3.226 Y7.030
G1 X3.338 Y7.019
G1 X3.395 Y7.026
G1 X3.662 Y7.135
G1 X3.898 Y7.297
G1 X4.162 Y7.556
G1 X4.380 Y7.857
G1 X4.485 Y8.064
G1 X4.564 Y8.248
G1 X4.639 Y8.496
G1 X4.692 Y8.786
G1 X4.711 Y9.060
G1 X4.684 Y9.335
G1 X4.586 Y9.613
G1 X4.560 Y9.665
G1 X4.523 Y9.711
G1 X4.474 Y9.748
G1 X4.357 Y9.789
G1 X4.357 Y9.789
G1 X4.229 Y9.808
G1 X4.143 Y9.789
G0 X4.120 Y9.771
G0 X4.060 Y9.673
G0 X3.162 Y7.327
G1 X3.147 Y7.289
G1 X3.120 Y7.188
G1 X3.128 Y7.132
G1 X3.177 Y7.056
G1 X3.278 Y6.981
G1 X3.278 Y6.981
G1 X3.504 Y6.914
G1 X3.673 Y6.898
G1 X3.944 Y6.992
G1 X4.192 Y7.139
G1 X4.466 Y7.387
G1 X4.692 Y7.680
G1 X4.805 Y7.872
G1 X4.895 Y8.064
G1 X4.981 Y8.305
G1 X5.049 Y8.594
G1 X5.075 Y8.880
G1 X5.060 Y9.169
G1 X4.951 Y9.504
G1 X4.914 Y9.553
G1 X4.639 Y9.684
G1 X4.639 Y9.684
G1 X4.511 Y9.703
G1 X4.425 Y9.684
G0 X4.402 Y9.665
G0 X4.342 Y9.568
G0 X3.444 Y7.218
G1 X3.429 Y7.180
G1 X3.402 Y7.079
G1 X3.410 Y7.023
G1 X3.459 Y6.947
G1 X3.560 Y6.872
G1 X3.560 Y6.872
G1 X3.838 Y6.771
G1 X3.951 Y6.756
G1 X4.008 Y6.759
G1 X4.226 Y6.835
G1 X4.477 Y6.974
G1 X4.763 Y7.211
G1 X5.000 Y7.492
G1 X5.124 Y7.688
G1 X5.218 Y7.868
G1 X5.312 Y8.105
G1 X5.395 Y8.387
G1 X5.447 Y8.695
G1 X5.447 Y8.981
G1 X5.380 Y9.263
G1 X5.312 Y9.361
G1 X4.992 Y9.526
G1 X4.992 Y9.526
G1 X4.865 Y9.553
G1 X4.778 Y9.541
G0 X4.756 Y9.526
G0 X4.695 Y9.429
G0 X3.778 Y7.079
G1 X3.767 Y7.041
G1 X3.733 Y6.940
G1 X3.741 Y6.880
G1 X3.786 Y6.801
G1 X3.883 Y6.718
G1 X3.883 Y6.718
G1 X4.102 Y6.632
G1 X4.214 Y6.609
G1 X4.271 Y6.609
G1 X4.496 Y6.673
G1 X4.752 Y6.801
G1 X5.045 Y7.026
G1 X5.301 Y7.293
G1 X5.444 Y7.492
G1 X5.549 Y7.669
G1 X5.658 Y7.910
G1 X5.748 Y8.188
G1 X5.808 Y8.466
G1 X5.816 Y8.801
G1 X5.752 Y9.083
G1 X5.677 Y9.173
G1 X5.357 Y9.342
G1 X5.357 Y9.342
G1 X5.233 Y9.376
G1 X5.147 Y9.365
G0 X5.124 Y9.353
G0 X5.060 Y9.259
G0 X4.064 Y6.936
G1 X4.049 Y6.902
G1 X4.015 Y6.801
G1 X4.015 Y6.741
G1 X4.056 Y6.662
G1 X4.150 Y6.575
G1 X4.150 Y6.575
G1 X4.368 Y6.485
G1 X4.481 Y6.462
G1 X4.763 Y6.511
G1 X5.030 Y6.620
G1 X5.335 Y6.827
G1 X5.598 Y7.086
G1 X5.733 Y7.256
G1 X5.850 Y7.432
G1 X5.966 Y7.654
G1 X6.079 Y7.940
G1 X6.150 Y8.237
G1 X6.173 Y8.534
G1 X6.147 Y8.759
G1 X6.117 Y8.872
G1 X6.083 Y8.921
G1 X5.774 Y9.120
G1 X5.722 Y9.147
G1 X5.722 Y9.147
G1 X5.598 Y9.180
G1 X5.511 Y9.169
G0 X5.485 Y9.158
G0 X5.421 Y9.064
G0 X4.342 Y6.801
G1 X4.323 Y6.763
G1 X4.286 Y6.665
G1 X4.286 Y6.602
G1 X4.320 Y6.519
G1 X4.406 Y6.425
G1 X4.406 Y6.425
G1 X4.617 Y6.320
G1 X4.729 Y6.286
G1 X4.786 Y6.278
G1 X5.068 Y6.327
G1 X5.282 Y6.410
G1 X5.598 Y6.602
G1 X5.876 Y6.846
G1 X6.030 Y7.023
G1 X6.150 Y7.184
G1 X6.282 Y7.410
G1 X6.398 Y7.680
G1 X6.485 Y7.951
G1 X6.530 Y8.286
G1 X6.500 Y8.568
G1 X6.481 Y8.624
G1 X6.451 Y8.677
G1 X6.259 Y8.820
G1 X6.259 Y8.820
G1 X6.139 Y8.865
G1 X6.049 Y8.865
G0 X6.026 Y8.853
G0 X5.951 Y8.771
G0 X4.620 Y6.628
G1 X4.602 Y6.594
G1 X4.553 Y6.500
G1 X4.549 Y6.440
G1 X4.579 Y6.353
G1 X4.662 Y6.263
G1 X4.662 Y6.263
G1 X4.868 Y6.143
G1 X4.981 Y6.105
G1 X5.150 Y6.102
G1 X5.432 Y6.162
G1 X5.594 Y6.226
G1 X5.914 Y6.410
G1 X6.195 Y6.650
G1 X6.350 Y6.823
G1 X6.470 Y6.985
G1 X6.605 Y7.203
G1 X6.737 Y7.481
G1 X6.823 Y7.763
G1 X6.868 Y8.053
G1 X6.850 Y8.335
G1 X6.827 Y8.387
G1 X6.793 Y8.436
G1 X6.549 Y8.613
G1 X6.549 Y8.613
G1 X6.432 Y8.662
G1 X6.342 Y8.662
G0 X6.320 Y8.650
G0 X6.241 Y8.568
G0 X4.868 Y6.451
G1 X4.850 Y6.417
G1 X4.797 Y6.327
G1 X4.793 Y6.267
G1 X4.820 Y6.180
G1 X4.902 Y6.086
G1 X4.902 Y6.086
G1 X5.158 Y5.940
G1 X5.271 Y5.902
G1 X5.440 Y5.898
G1 X5.722 Y5.959
G1 X5.831 Y5.996
G1 X6.158 Y6.165
G1 X6.451 Y6.391
G1 X6.605 Y6.545
G1 X6.741 Y6.703
G1 X6.883 Y6.914
G1 X7.026 Y7.173
G1 X7.143 Y7.459
G1 X7.207 Y7.741
G1 X7.214 Y7.966
G1 X7.195 Y8.079
G1 X7.173 Y8.135
G1 X7.135 Y8.184
G1 X6.989 Y8.293
G1 X6.989 Y8.293
G1 X6.872 Y8.342
G1 X6.782 Y8.342
G0 X6.756 Y8.335
G0 X6.673 Y8.256
G0 X5.124 Y6.263
G1 X5.102 Y6.229
G1 X5.041 Y6.143
G1 X5.034 Y6.086
G1 X5.064 Y6.000
G1 X5.147 Y5.910
G1 X5.147 Y5.910
G1 X5.395 Y5.741
G1 X5.504 Y5.692
G1 X5.560 Y5.680
G1 X5.842 Y5.699
G1 X6.068 Y5.759
G1 X6.402 Y5.917
G1 X6.707 Y6.128
G1 X6.883 Y6.293
G1 X7.023 Y6.444
G1 X7.184 Y6.658
G1 X7.335 Y6.910
G1 X7.462 Y7.188
G1 X7.538 Y7.523
G1 X7.541 Y7.748
G1 X7.504 Y7.857
G1 X7.466 Y7.902
G1 X7.286 Y8.056
G1 X7.286 Y8.056
G1 X7.173 Y8.117
G1 X7.083 Y8.124
G0 X7.056 Y8.117
G0 X6.974 Y8.041
G0 X5.421 Y6.045
G1 X5.398 Y6.015
G1 X5.338 Y5.925
G1 X5.327 Y5.868
G1 X5.350 Y5.782
G1 X5.425 Y5.684
G1 X5.425 Y5.684
G1 X5.617 Y5.538
G1 X5.722 Y5.485
G1 X5.778 Y5.470
G1 X6.004 Y5.470
G1 X6.342 Y5.538
G1 X6.680 Y5.684
G1 X6.989 Y5.887
G1 X7.162 Y6.041
G1 X7.305 Y6.188
G1 X7.466 Y6.387
G1 X7.643 Y6.658
G1 X7.805 Y7.053
G1 X7.857 Y7.335
G1 X7.861 Y7.447
G1 X7.850 Y7.504
G1 X7.827 Y7.560
G1 X7.654 Y7.726
G1 X7.654 Y7.726
G1 X7.545 Y7.789
G1 X7.455 Y7.801
G0 X7.429 Y7.793
G0 X7.338 Y7.722
G0 X5.669 Y5.842
G1 X5.639 Y5.816
G1 X5.579 Y5.729
G1 X5.564 Y5.673
G1 X5.579 Y5.586
G1 X5.647 Y5.481
G1 X5.647 Y5.481
G1 X5.831 Y5.331
G1 X5.932 Y5.274
G1 X5.989 Y5.256
G1 X6.271 Y5.237
G1 X6.553 Y5.278
G1 X6.898 Y5.410
G1 X7.214 Y5.602
G1 X7.395 Y5.741
G1 X7.545 Y5.883
G1 X7.714 Y6.075
G1 X7.895 Y6.327
G1 X8.038 Y6.602
G1 X8.120 Y6.831
G1 X8.162 Y7.113
G1 X8.162 Y7.169
G1 X8.143 Y7.226
G1 X8.113 Y7.274
G1 X7.989 Y7.402
G1 X7.989 Y7.402
G1 X7.880 Y7.470
G1 X7.793 Y7.489
G0 X7.767 Y7.481
G0 X7.673 Y7.414
G0 X5.895 Y5.628
G1 X5.865 Y5.598
G1 X5.797 Y5.519
G1 X5.778 Y5.462
G1 X5.793 Y5.376
G1 X5.861 Y5.271
G1 X5.861 Y5.271
G1 X6.038 Y5.109
G1 X6.135 Y5.041
G1 X6.188 Y5.015
G1 X6.414 Y4.981
G1 X6.695 Y5.000
G1 X6.752 Y5.011
G1 X7.102 Y5.128
G1 X7.429 Y5.301
G1 X7.617 Y5.436
G1 X7.774 Y5.571
G1 X7.955 Y5.756
G1 X8.147 Y6.000
G1 X8.297 Y6.263
G1 X8.395 Y6.474
G1 X8.455 Y6.756
G1 X8.459 Y6.812
G1 X8.429 Y6.925
G1 X8.312 Y7.060
G1 X8.312 Y7.060
G1 X8.207 Y7.132
G1 X8.124 Y7.154
G0 X8.094 Y7.150
G0 X8.000 Y7.086
G0 X6.162 Y5.365
G1 X6.132 Y5.335
G1 X6.060 Y5.259
G1 X6.041 Y5.203
G1 X6.049 Y5.117
G1 X6.109 Y5.011
G1 X6.109 Y5.011
G1 X6.282 Y4.842
G1 X6.383 Y4.778
G1 X6.440 Y4.756
G1 X6.665 Y4.722
G1 X7.004 Y4.744
G1 X7.357 Y4.857
G1 X7.662 Y5.008
G1 X7.850 Y5.132
G1 X8.015 Y5.267
G1 X8.195 Y5.440
G1 X8.402 Y5.684
G1 X8.575 Y5.962
G1 X8.695 Y6.248
G1 X8.741 Y6.474
G1 X8.733 Y6.530
G1 X8.714 Y6.586
G1 X8.564 Y6.774
G1 X8.564 Y6.774
G1 X8.459 Y6.846
G1 X8.372 Y6.868
G0 X8.346 Y6.865
G0 X8.252 Y6.805
G0 X6.357 Y5.132
G1 X6.331 Y5.105
G1 X6.256 Y5.026
G1 X6.237 Y4.974
G1 X6.244 Y4.887
G1 X6.305 Y4.782
G1 X6.305 Y4.782
G1 X6.425 Y4.643
G1 X6.564 Y4.530
G1 X6.617 Y4.500
G1 X6.842 Y4.455
G1 X7.180 Y4.455
G1 X7.538 Y4.549
G1 X7.853 Y4.688
G1 X8.049 Y4.805
G1 X8.214 Y4.921
G1 X8.425 Y5.109
G1 X8.624 Y5.327
G1 X8.801 Y5.575
G1 X8.940 Y5.853
G1 X9.000 Y6.079
G1 X9.004 Y6.135
G1 X8.996 Y6.192
G1 X8.974 Y6.248
G1 X8.827 Y6.444
G1 X8.827 Y6.444
G1 X8.726 Y6.523
G1 X8.639 Y6.549
G0 X8.613 Y6.549
G0 X8.515 Y6.489
G0 X6.598 Y4.846
G1 X6.564 Y4.823
G1 X6.489 Y4.748
G1 X6.466 Y4.695
G1 X6.470 Y4.609
G1 X6.526 Y4.500
G1 X6.526 Y4.500
G1 X6.684 Y4.323
G1 X6.778 Y4.252
G1 X6.831 Y4.226
G1 X7.056 Y4.177
G1 X7.338 Y4.169
G1 X7.703 Y4.241
G1 X8.030 Y4.365
G1 X8.218 Y4.462
G1 X8.395 Y4.575
G1 X8.609 Y4.744
G1 X8.823 Y4.955
G1 X9.011 Y5.180
G1 X9.184 Y5.485
G1 X9.263 Y5.763
G1 X9.256 Y5.820
G1 X9.237 Y5.876
G1 X9.203 Y5.925
G1 X9.203 Y5.925
G1 X9.109 Y6.008
G1 X9.026 Y6.041
G0 X9.000 Y6.041
G0 X8.895 Y5.992
G0 X6.801 Y4.594
G1 X6.767 Y4.571
G1 X6.684 Y4.508
G1 X6.658 Y4.455
G1 X6.654 Y4.368
G1 X6.699 Y4.256
G1 X6.699 Y4.256
G1 X6.891 Y4.026
G1 X6.989 Y3.959
G1 X7.214 Y3.895
G1 X7.553 Y3.868
G1 X7.917 Y3.932
G1 X8.241 Y4.049
G1 X8.436 Y4.147
G1 X8.617 Y4.256
G1 X8.846 Y4.421
G1 X9.086 Y4.650
G1 X9.256 Y4.857
G1 X9.391 Y5.060
G1 X9.477 Y5.278
G1 X9.500 Y5.391
G1 X9.496 Y5.447
G1 X9.474 Y5.504
G1 X9.474 Y5.504
G1 X9.380 Y5.590
G1 X9.297 Y5.624
G0 X9.271 Y5.624
G0 X9.165 Y5.583
G0 X6.981 Y4.331
G1 X6.944 Y4.312
G1 X6.857 Y4.252
G1 X6.827 Y4.203
G1 X6.823 Y4.117
G1 X6.865 Y4.004
G1 X6.865 Y4.004
G1 X7.004 Y3.812
G1 X7.090 Y3.726
G1 X7.139 Y3.688
G1 X7.361 Y3.613
G1 X7.699 Y3.568
G1 X8.068 Y3.617
G1 X8.365 Y3.703
G1 X8.568 Y3.786
G1 X8.767 Y3.891
G1 X8.992 Y4.038
G1 X9.229 Y4.233
G1 X9.440 Y4.444
G1 X9.605 Y4.680
G1 X9.714 Y4.944
G1 X9.726 Y5.000
G1 X9.722 Y5.056
G1 X9.639 Y5.218
G1 X9.635 Y5.218
G1 X9.549 Y5.308
G1 X9.466 Y5.346
G0 X9.440 Y5.350
G0 X9.335 Y5.308
G0 X7.158 Y4.075
G1 X7.124 Y4.056
G1 X7.034 Y3.996
G1 X7.000 Y3.947
G1 X6.989 Y3.861
G1 X7.019 Y3.748
G1 X7.019 Y3.748
G1 X7.147 Y3.545
G1 X7.226 Y3.455
G1 X7.323 Y3.387
G1 X7.549 Y3.308
G1 X7.831 Y3.267
G1 X8.199 Y3.293
G1 X8.560 Y3.380
G1 X8.767 Y3.462
G1 X8.951 Y3.553
G1 X9.169 Y3.684
G1 X9.425 Y3.876
G1 X9.654 Y4.105
G1 X9.838 Y4.357
G1 X9.914 Y4.511
G1 X9.932 Y4.568
G1 X9.936 Y4.624
G1 X9.929 Y4.680
G1 X9.823 Y4.891
G1 X9.823 Y4.891
G1 X9.744 Y4.985
G1 X9.665 Y5.030
G0 X9.639 Y5.030
G0 X9.530 Y4.992
G0 X7.327 Y3.759
G1 X7.293 Y3.741
G1 X7.203 Y3.680
G1 X7.169 Y3.632
G1 X7.158 Y3.545
G1 X7.188 Y3.432
G1 X7.188 Y3.432
G1 X7.316 Y3.226
G1 X7.398 Y3.139
G1 X7.447 Y3.102
G1 X7.665 Y3.015
G1 X7.947 Y2.955
G1 X8.316 Y2.962
G1 X8.673 Y3.030
G1 X8.883 Y3.098
G1 X9.075 Y3.180
G1 X9.293 Y3.297
G1 X9.556 Y3.474
G1 X9.808 Y3.688
G1 X9.996 Y3.914
G1 X10.105 Y4.117
G1 X10.124 Y4.169
G1 X10.128 Y4.226
G1 X10.068 Y4.391
G1 X10.068 Y4.391
G1 X9.992 Y4.489
G1 X9.917 Y4.538
G0 X9.891 Y4.541
G0 X9.782 Y4.511
G0 X7.474 Y3.477
G1 X7.436 Y3.462
G1 X7.346 Y3.410
G1 X7.308 Y3.365
G1 X7.293 Y3.278
G1 X7.320 Y3.162
G1 X7.320 Y3.162
G1 X7.440 Y2.947
G1 X7.519 Y2.853
G1 X7.564 Y2.812
G1 X7.778 Y2.711
G1 X8.060 Y2.635
G1 X8.429 Y2.624
G1 X8.789 Y2.677
G1 X9.008 Y2.737
G1 X9.199 Y2.805
G1 X9.447 Y2.925
G1 X9.711 Y3.086
G1 X9.962 Y3.278
G1 X10.195 Y3.545
G1 X10.282 Y3.695
G1 X10.301 Y3.748
G1 X10.305 Y3.805
G1 X10.297 Y3.861
G1 X10.274 Y3.917
G1 X10.274 Y3.917
G1 X10.199 Y4.015
G1 X10.124 Y4.064
G0 X10.098 Y4.068
G0 X9.985 Y4.045
G0 X7.613 Y3.188
G1 X7.575 Y3.177
G1 X7.481 Y3.132
G1 X7.444 Y3.090
G1 X7.421 Y3.004
G1 X7.440 Y2.887
G1 X7.440 Y2.887
G1 X7.575 Y2.617
G1 X7.654 Y2.526
G1 X7.861 Y2.406
G1 X8.139 Y2.316
G1 X8.195 Y2.305
G1 X8.564 Y2.282
G1 X8.910 Y2.316
G1 X9.128 Y2.365
G1 X9.331 Y2.432
G1 X9.560 Y2.530
G1 X9.850 Y2.692
G1 X10.105 Y2.883
G1 X10.323 Y3.105
G1 X10.421 Y3.248
G1 X10.447 Y3.301
G1 X10.459 Y3.357
G1 X10.459 Y3.414
G1 X10.440 Y3.470
G1 X10.440 Y3.466
G1 X10.372 Y3.568
G1 X10.297 Y3.620
G0 X10.271 Y3.628
G0 X10.158 Y3.613
G0 X7.741 Y2.895
G1 X7.699 Y2.883
G1 X7.602 Y2.838
G1 X7.556 Y2.786
G1 X7.538 Y2.695
G1 X7.549 Y2.605
G1 X7.549 Y2.605
G1 X7.639 Y2.376
G1 X7.741 Y2.229
G1 X7.835 Y2.154
G1 X7.992 Y2.068
G1 X8.274 Y1.974
G1 X8.643 Y1.932
G1 X9.011 Y1.959
G1 X9.233 Y2.000
G1 X9.447 Y2.060
G1 X9.695 Y2.154
G1 X9.974 Y2.293
G1 X10.233 Y2.462
G1 X10.444 Y2.662
G1 X10.579 Y2.850
G1 X10.602 Y2.962
G1 X10.586 Y3.019
G1 X10.586 Y3.019
G1 X10.523 Y3.124
G1 X10.455 Y3.180
G0 X10.429 Y3.188
G0 X10.316 Y3.177
G0 X7.853 Y2.541
G1 X7.812 Y2.534
G1 X7.744 Y2.511
G1 X7.688 Y2.470
G1 X7.658 Y2.414
G1 X7.662 Y2.263
G1 X7.662 Y2.263
G1 X7.778 Y1.985
G1 X7.850 Y1.887
G1 X8.045 Y1.752
G1 X8.320 Y1.643
G1 X8.376 Y1.628
G1 X8.744 Y1.579
G1 X9.113 Y1.590
G1 X9.338 Y1.628
G1 X9.534 Y1.673
G1 X9.812 Y1.767
G1 X10.113 Y1.910
G1 X10.361 Y2.075
G1 X10.575 Y2.263
G1 X10.711 Y2.451
G1 X10.722 Y2.508
G1 X10.711 Y2.564
G1 X10.711 Y2.564
G1 X10.650 Y2.669
G1 X10.583 Y2.729
G0 X10.556 Y2.737
G0 X10.440 Y2.729
G0 X7.974 Y2.195
G1 X7.936 Y2.188
G1 X7.835 Y2.158
G1 X7.793 Y2.120
G1 X7.763 Y2.038
G1 X7.767 Y1.921
G1 X7.767 Y1.921
G1 X7.853 Y1.688
G1 X7.917 Y1.586
G1 X8.053 Y1.470
G1 X8.267 Y1.365
G1 X8.436 Y1.312
G1 X8.801 Y1.237
G1 X9.169 Y1.229
G1 X9.417 Y1.256
G1 X9.632 Y1.301
G1 X9.865 Y1.372
G1 X10.143 Y1.489
G1 X10.421 Y1.643
G1 X10.684 Y1.857
G1 X10.827 Y2.041
G1 X10.853 Y2.094
G1 X10.857 Y2.150
G1 X10.835 Y2.207
G1 X10.835 Y2.207
G1 X10.756 Y2.305
G1 X10.677 Y2.353
G0 X10.647 Y2.357
G0 X10.474 Y2.342
G0 X8.060 Y1.895
G1 X8.019 Y1.891
G1 X7.917 Y1.861
G1 X7.872 Y1.823
G1 X7.838 Y1.744
G1 X7.838 Y1.628
G1 X7.838 Y1.628
G1 X7.914 Y1.395
G1 X7.977 Y1.289
G1 X8.165 Y1.143
G1 X8.436 Y1.019
G1 X8.793 Y0.917
G1 X9.162 Y0.880
G1 X9.421 Y0.891
G1 X9.628 Y0.921
G1 X9.853 Y0.974
G1 X10.135 Y1.068
G1 X10.425 Y1.207
G1 X10.658 Y1.361
G1 X10.868 Y1.556
G1 X10.970 Y1.699
G1 X11.008 Y1.808
G1 X11.015 Y1.865
G1 X11.004 Y1.921
G1 X10.940 Y2.019
G1 X10.940 Y2.019
G1 X10.846 Y2.105
G1 X10.763 Y2.143
G0 X10.733 Y2.147
G0 X10.560 Y2.120
G0 X8.135 Y1.605
G1 X8.094 Y1.598
G1 X7.992 Y1.568
G1 X7.944 Y1.530
G1 X7.906 Y1.451
G1 X7.902 Y1.335
G1 X7.902 Y1.335
G1 X7.947 Y1.154
G1 X7.996 Y1.045
G1 X8.030 Y0.996
G1 X8.218 Y0.846
G1 X8.477 Y0.711
G1 X8.831 Y0.594
G1 X9.195 Y0.534
G1 X9.481 Y0.534
G1 X9.680 Y0.556
G1 X9.887 Y0.598
G1 X10.173 Y0.673
G1 X10.511 Y0.820
G1 X10.748 Y0.966
G1 X10.955 Y1.165
G1 X10.992 Y1.211
G1 X11.019 Y1.263
G1 X11.034 Y1.320
G1 X11.030 Y1.883
G1 X11.030 Y1.883
G1 X10.936 Y1.970
G1 X10.853 Y2.008
G0 X10.823 Y2.011
G0 X10.650 Y1.981
G0 X8.169 Y1.368
G1 X8.132 Y1.361
G1 X8.030 Y1.327
G1 X7.981 Y1.286
G1 X7.944 Y1.188
G1 X7.936 Y1.098
G1 X7.936 Y1.098
G1 X7.992 Y0.857
G1 X8.045 Y0.748
G1 X8.267 Y0.545
G1 X8.526 Y0.398
G1 X8.868 Y0.259
G1 X9.233 Y0.192
G1 X9.481 Y0.180
G1 X9.680 Y0.188
G1 X9.917 Y0.222
G1 X10.203 Y0.289
G1 X10.504 Y0.398
G1 X10.748 Y0.534
G1 X10.966 Y0.722
G1 X11.004 Y0.767
G1 X11.026 Y0.820
G1 X11.034 Y0.876
G1 X11.034 Y0.876
G1 X11.004 Y0.992
G1 X10.951 Y1.064
G0 X10.929 Y1.079
G0 X10.816 Y1.094
G0 X8.218 Y1.030
G1 X8.180 Y1.030
G1 X8.075 Y1.019
G1 X8.026 Y0.989
G1 X7.981 Y0.917
G1 X7.970 Y0.801
G1 X7.970 Y0.801
G1 X8.000 Y0.620
G1 X8.041 Y0.504
G1 X8.109 Y0.402
G1 X8.241 Y0.274
G1 X8.541 Y0.079
G1 X8.880 Y-0.068
G1 X9.241 Y-0.154
G1 X9.541 Y-0.180
G1 X9.748 Y-0.177
G1 X9.977 Y-0.150
G1 X10.252 Y-0.090
G1 X10.541 Y0.008
G1 X10.778 Y0.132
G1 X10.955 Y0.278
G1 X10.992 Y0.320
G1 X11.019 Y0.372
G1 X11.034 Y0.429
G1 X11.034 Y0.429
G1 X11.004 Y0.545
G1 X10.951 Y0.620
G0 X10.929 Y0.632
G0 X10.816 Y0.654
G0 X8.248 Y0.718
G1 X8.211 Y0.722
G1 X8.105 Y0.718
G1 X8.056 Y0.688
G1 X8.011 Y0.617
G1 X7.996 Y0.500
G1 X7.996 Y0.500
G1 X8.041 Y0.259
G1 X8.086 Y0.147
G1 X8.289 Y-0.068
G1 X8.523 Y-0.237
G1 X8.853 Y-0.402
G1 X9.207 Y-0.508
G1 X9.429 Y-0.538
G1 X9.624 Y-0.549
G1 X9.876 Y-0.538
G1 X10.173 Y-0.496
G1 X10.474 Y-0.421
G1 X10.733 Y-0.305
G1 X10.962 Y-0.113
G1 X11.000 Y-0.068
G1 X11.026 Y-0.011
G1 X11.034 Y0.045
G1 X11.034 Y0.045
G1 X11.004 Y0.162
G1 X10.951 Y0.237
G0 X10.929 Y0.252
G0 X10.816 Y0.274
G0 X8.278 Y0.414
G1 X8.241 Y0.417
G1 X8.165 Y0.417
G1 X8.102 Y0.395
G1 X8.056 Y0.346
G1 X8.019 Y0.203
G1 X8.019 Y0.203
G1 X8.060 Y-0.090
G1 X8.105 Y-0.199
G1 X8.256 Y-0.372
G1 X8.485 Y-0.549
G1 X8.808 Y-0.729
G1 X9.158 Y-0.850
G1 X9.380 Y-0.891
G1 X9.575 Y-0.914
G1 X9.831 Y-0.917
G1 X10.143 Y-0.887
G1 X10.432 Y-0.816
G1 X10.650 Y-0.733
G1 X10.853 Y-0.605
G1 X10.985 Y-0.485
G1 X11.015 Y-0.432
G1 X11.034 Y-0.376
G1 X11.034 Y-0.376
G1 X11.004 Y-0.248
G1 X10.951 Y-0.169
G0 X10.929 Y-0.154
G0 X10.816 Y-0.124
G0 X8.305 Y0.109
G1 X8.267 Y0.113
G1 X8.162 Y0.113
G1 X8.105 Y0.090
G1 X8.053 Y0.023
G1 X8.026 Y-0.094
G1 X8.026 Y-0.094
G1 X8.026 Y-0.263
G1 X8.060 Y-0.432
G1 X8.083 Y-0.485
G1 X8.222 Y-0.669
G1 X8.440 Y-0.861
G1 X8.808 Y-1.083
G1 X9.154 Y-1.211
G1 X9.383 Y-1.259
G1 X9.590 Y-1.282
G1 X9.820 Y-1.289
G1 X10.139 Y-1.263
G1 X10.432 Y-1.195
G1 X10.658 Y-1.113
G1 X10.857 Y-0.985
G1 X10.989 Y-0.865
G1 X11.019 Y-0.812
G1 X11.034 Y-0.752
G1 X11.034 Y-0.752
G1 X11.004 Y-0.624
G1 X10.951 Y-0.545
G0 X10.929 Y-0.526
G0 X10.820 Y-0.496
G0 X8.297 Y-0.184
G1 X8.256 Y-0.180
G1 X8.154 Y-0.177
G1 X8.098 Y-0.199
G1 X8.045 Y-0.271
G1 X8.011 Y-0.395
G1 X8.011 Y-0.395
G1 X8.011 Y-0.620
G1 X8.030 Y-0.733
G1 X8.049 Y-0.786
G1 X8.222 Y-1.023
G1 X8.440 Y-1.218
G1 X8.748 Y-1.421
G1 X9.090 Y-1.560
G1 X9.305 Y-1.613
G1 X9.504 Y-1.647
G1 X9.763 Y-1.665
G1 X10.064 Y-1.654
G1 X10.353 Y-1.602
G1 X10.579 Y-1.526
G1 X10.835 Y-1.376
G1 X10.970 Y-1.259
G1 X11.008 Y-1.211
G1 X11.030 Y-1.154
G1 X11.034 Y-1.094
G1 X11.034 Y-1.094
G1 X11.004 Y-0.966
G1 X10.951 Y-0.887
G0 X10.929 Y-0.868
G0 X10.816 Y-0.835
G0 X8.274 Y-0.489
G1 X8.237 Y-0.485
G1 X8.132 Y-0.477
G1 X8.075 Y-0.500
G1 X8.019 Y-0.571
G1 X7.981 Y-0.692
G1 X7.981 Y-0.692
G1 X7.977 Y-0.974
G1 X8.000 Y-1.086
G1 X8.019 Y-1.139
G1 X8.229 Y-1.414
G1 X8.398 Y-1.568
G1 X8.707 Y-1.774
G1 X9.045 Y-1.921
G1 X9.263 Y-1.981
G1 X9.462 Y-2.019
G1 X9.722 Y-2.045
G1 X10.026 Y-2.038
G1 X10.312 Y-1.992
G1 X10.594 Y-1.898
G1 X10.846 Y-1.744
G1 X10.977 Y-1.628
G1 X11.015 Y-1.579
G1 X11.034 Y-1.523
G1 X11.034 Y-1.523
G1 X11.004 Y-1.395
G1 X10.951 Y-1.316
G0 X10.929 Y-1.297
G0 X10.820 Y-1.263
G0 X8.237 Y-0.850
G1 X8.195 Y-0.846
G1 X8.094 Y-0.838
G1 X8.038 Y-0.857
G1 X7.981 Y-0.929
G1 X7.944 Y-1.049
G1 X7.944 Y-1.049
G1 X7.936 Y-1.331
G1 X7.959 Y-1.444
G1 X8.113 Y-1.688
G1 X8.271 Y-1.853
G1 X8.609 Y-2.113
G1 X8.944 Y-2.274
G1 X9.173 Y-2.346
G1 X9.372 Y-2.387
G1 X9.590 Y-2.414
G1 X9.895 Y-2.425
G1 X10.244 Y-2.391
G1 X10.519 Y-2.316
G1 X10.729 Y-2.203
G1 X10.868 Y-2.090
G1 X10.985 Y-1.951
G1 X11.019 Y-1.898
G1 X11.034 Y-1.838
G1 X11.034 Y-1.718
G1 X11.034 Y-1.718
G1 X11.004 Y-1.590
G1 X10.951 Y-1.511
G0 X10.929 Y-1.492
G0 X10.820 Y-1.462
G0 X8.207 Y-1.143
G1 X8.169 Y-1.139
G1 X8.060 Y-1.135
G1 X8.004 Y-1.158
G1 X7.944 Y-1.226
G1 X7.902 Y-1.346
G1 X7.902 Y-1.346
G1 X7.872 Y-1.571
G1 X7.891 Y-1.741
G1 X8.000 Y-1.944
G1 X8.222 Y-2.207
G1 X8.511 Y-2.440
G1 X8.838 Y-2.613
G1 X9.041 Y-2.688
G1 X9.237 Y-2.741
G1 X9.485 Y-2.786
G1 X9.786 Y-2.808
G1 X10.102 Y-2.797
G1 X10.383 Y-2.733
G1 X10.650 Y-2.605
G1 X10.695 Y-2.564
G1 X10.726 Y-2.511
G1 X10.741 Y-2.451
G1 X10.741 Y-2.451
G1 X10.744 Y-2.323
G1 X10.718 Y-2.237
G0 X10.699 Y-2.214
G0 X10.594 Y-2.165
G0 X8.162 Y-1.485
G1 X8.120 Y-1.477
G1 X8.019 Y-1.455
G1 X7.962 Y-1.470
G1 X7.895 Y-1.530
G1 X7.835 Y-1.639
G1 X7.835 Y-1.639
G1 X7.801 Y-1.865
G1 X7.808 Y-2.034
G1 X7.906 Y-2.244
G1 X8.117 Y-2.519
G1 X8.395 Y-2.759
G1 X8.714 Y-2.947
G1 X8.921 Y-3.034
G1 X9.120 Y-3.098
G1 X9.372 Y-3.154
G1 X9.688 Y-3.188
G1 X9.981 Y-3.180
G1 X10.226 Y-3.139
G1 X10.500 Y-3.023
G1 X10.553 Y-2.992
G1 X10.594 Y-2.947
G1 X10.624 Y-2.895
G1 X10.624 Y-2.895
G1 X10.628 Y-2.733
G1 X10.605 Y-2.677
G0 X10.590 Y-2.658
G0 X10.489 Y-2.602
G0 X8.083 Y-1.778
G1 X8.045 Y-1.767
G1 X7.944 Y-1.741
G1 X7.883 Y-1.756
G1 X7.820 Y-1.816
G1 X7.763 Y-1.929
G1 X7.763 Y-1.929
G1 X7.714 Y-2.211
G1 X7.722 Y-2.323
G1 X7.835 Y-2.590
G1 X8.008 Y-2.823
G1 X8.274 Y-3.079
G1 X8.583 Y-3.278
G1 X8.789 Y-3.376
G1 X8.977 Y-3.447
G1 X9.229 Y-3.511
G1 X9.519 Y-3.556
G1 X9.816 Y-3.571
G1 X10.098 Y-3.530
G1 X10.320 Y-3.451
G1 X10.425 Y-3.395
G1 X10.504 Y-3.305
G1 X10.504 Y-3.305
G1 X10.515 Y-3.177
G1 X10.492 Y-3.086
G0 X10.477 Y-3.064
G0 X10.376 Y-3.004
G0 X8.011 Y-2.086
G1 X7.974 Y-2.075
G1 X7.872 Y-2.045
G1 X7.816 Y-2.053
G1 X7.744 Y-2.109
G1 X7.684 Y-2.218
G1 X7.684 Y-2.218
G1 X7.620 Y-2.500
G1 X7.617 Y-2.613
G1 X7.688 Y-2.827
G1 X7.872 Y-3.117
G1 X8.132 Y-3.380
G1 X8.432 Y-3.598
G1 X8.643 Y-3.711
G1 X8.838 Y-3.793
G1 X9.090 Y-3.872
G1 X9.380 Y-3.929
G1 X9.665 Y-3.940
G1 X9.891 Y-3.929
G1 X10.117 Y-3.868
G1 X10.278 Y-3.797
G1 X10.323 Y-3.756
G1 X10.357 Y-3.703
G1 X10.376 Y-3.647
G1 X10.376 Y-3.647
G1 X10.387 Y-3.489
G1 X10.372 Y-3.432
G0 X10.353 Y-3.410
G0 X10.256 Y-3.350
G0 X7.906 Y-2.436
G1 X7.868 Y-2.425
G1 X7.767 Y-2.395
G1 X7.711 Y-2.402
G1 X7.639 Y-2.451
G1 X7.571 Y-2.560
G1 X7.571 Y-2.560
G1 X7.511 Y-2.786
G1 X7.500 Y-2.898
G1 X7.560 Y-3.120
G1 X7.695 Y-3.372
G1 X7.763 Y-3.466
G1 X8.019 Y-3.733
G1 X8.316 Y-3.955
G1 X8.523 Y-4.064
G1 X8.692 Y-4.139
G1 X8.932 Y-4.222
G1 X9.256 Y-4.293
G1 X9.579 Y-4.312
G1 X9.861 Y-4.278
G1 X10.083 Y-4.199
G1 X10.177 Y-4.124
G1 X10.233 Y-4.015
G1 X10.233 Y-4.015
G1 X10.256 Y-3.887
G1 X10.237 Y-3.801
G0 X10.222 Y-3.778
G0 X10.128 Y-3.714
G0 X7.805 Y-2.733
G1 X7.771 Y-2.718
G1 X7.669 Y-2.684
G1 X7.609 Y-2.688
G1 X7.534 Y-2.737
G1 X7.466 Y-2.842
G1 X7.466 Y-2.842
G1 X7.387 Y-3.068
G1 X7.365 Y-3.237
G1 X7.414 Y-3.406
G1 X7.575 Y-3.711
G1 X7.609 Y-3.759
G1 X7.853 Y-4.038
G1 X8.143 Y-4.271
G1 X8.342 Y-4.391
G1 X8.526 Y-4.485
G1 X8.778 Y-4.575
G1 X9.049 Y-4.643
G1 X9.323 Y-4.680
G1 X9.598 Y-4.673
G1 X9.880 Y-4.598
G1 X9.932 Y-4.575
G1 X9.981 Y-4.538
G1 X10.019 Y-4.492
G1 X10.098 Y-4.327
G1 X10.098 Y-4.327
G1 X10.120 Y-4.199
G1 X10.102 Y-4.113
G0 X10.086 Y-4.090
G0 X9.992 Y-4.026
G0 X7.692 Y-3.015
G1 X7.654 Y-2.996
G1 X7.556 Y-2.962
G1 X7.496 Y-2.966
G1 X7.421 Y-3.015
G1 X7.346 Y-3.117
G1 X7.346 Y-3.117
G1 X7.244 Y-3.395
G1 X7.229 Y-3.508
G1 X7.263 Y-3.677
G1 X7.380 Y-3.944
G1 X7.440 Y-4.041
G1 X7.677 Y-4.327
G1 X7.944 Y-4.571
G1 X8.154 Y-4.714
G1 X8.338 Y-4.816
G1 X8.579 Y-4.917
G1 X8.838 Y-4.996
G1 X9.124 Y-5.038
G1 X9.417 Y-5.045
G1 X9.699 Y-4.977
G1 X9.752 Y-4.951
G1 X9.801 Y-4.914
G1 X9.838 Y-4.868
G1 X9.891 Y-4.763
G1 X9.891 Y-4.763
G1 X9.917 Y-4.635
G1 X9.906 Y-4.549
G0 X9.891 Y-4.523
G0 X9.801 Y-4.455
G0 X7.564 Y-3.301
G1 X7.526 Y-3.282
G1 X7.432 Y-3.244
G1 X7.372 Y-3.244
G1 X7.293 Y-3.286
G1 X7.214 Y-3.387
G1 X7.214 Y-3.387
G1 X7.102 Y-3.658
G1 X7.079 Y-3.771
G1 X7.124 Y-3.996
G1 X7.259 Y-4.312
G1 X7.474 Y-4.613
G1 X7.737 Y-4.872
G1 X7.921 Y-5.011
G1 X8.094 Y-5.120
G1 X8.331 Y-5.233
G1 X8.594 Y-5.327
G1 X8.883 Y-5.398
G1 X9.162 Y-5.421
G1 X9.387 Y-5.391
G1 X9.500 Y-5.357
G1 X9.602 Y-5.289
G1 X9.662 Y-5.184
G1 X9.662 Y-5.184
G1 X9.695 Y-5.060
G1 X9.688 Y-4.970
G0 X9.677 Y-4.947
G0 X9.586 Y-4.876
G0 X7.395 Y-3.635
G1 X7.361 Y-3.617
G1 X7.263 Y-3.571
G1 X7.207 Y-3.571
G1 X7.128 Y-3.609
G1 X7.045 Y-3.703
G1 X7.045 Y-3.703
G1 X6.929 Y-3.974
G1 X6.914 Y-4.086
G1 X6.955 Y-4.312
G1 X7.064 Y-4.579
G1 X7.263 Y-4.891
G1 X7.511 Y-5.162
G1 X7.695 Y-5.312
G1 X7.872 Y-5.429
G1 X8.068 Y-5.534
G1 X8.342 Y-5.650
G1 X8.662 Y-5.741
G1 X8.936 Y-5.774
G1 X9.162 Y-5.759
G1 X9.274 Y-5.733
G1 X9.372 Y-5.665
G1 X9.402 Y-5.613
G1 X9.402 Y-5.613
G1 X9.444 Y-5.489
G1 X9.444 Y-5.398
G0 X9.432 Y-5.376
G0 X9.346 Y-5.297
G0 X7.252 Y-3.917
G1 X7.218 Y-3.898
G1 X7.128 Y-3.846
G1 X7.068 Y-3.842
G1 X6.981 Y-3.876
G1 X6.891 Y-3.962
G1 X6.891 Y-3.962
G1 X6.778 Y-4.169
G1 X6.744 Y-4.282
G1 X6.737 Y-4.338
G1 X6.763 Y-4.564
G1 X6.880 Y-4.891
G1 X7.075 Y-5.203
G1 X7.323 Y-5.477
G1 X7.500 Y-5.624
G1 X7.662 Y-5.741
G1 X7.883 Y-5.868
G1 X8.169 Y-5.996
G1 X8.455 Y-6.079
G1 X8.756 Y-6.117
G1 X8.981 Y-6.094
G1 X9.038 Y-6.079
G1 X9.090 Y-6.053
G1 X9.139 Y-6.015
G1 X9.173 Y-5.966
G1 X9.173 Y-5.966
G1 X9.218 Y-5.846
G1 X9.218 Y-5.756
G0 X9.211 Y-5.729
G0 X9.128 Y-5.650
G0 X7.086 Y-4.184
G1 X7.053 Y-4.158
G1 X6.962 Y-4.105
G1 X6.906 Y-4.098
G1 X6.820 Y-4.128
G1 X6.729 Y-4.214
G1 X6.729 Y-4.214
G1 X6.583 Y-4.474
G1 X6.549 Y-4.586
G1 X6.579 Y-4.868
G1 X6.669 Y-5.143
G1 X6.850 Y-5.466
G1 X7.083 Y-5.752
G1 X7.248 Y-5.906
G1 X7.406 Y-6.030
G1 X7.620 Y-6.165
G1 X7.898 Y-6.305
G1 X8.192 Y-6.402
G1 X8.429 Y-6.447
G1 X8.654 Y-6.447
G1 X8.767 Y-6.432
G1 X8.823 Y-6.410
G1 X8.872 Y-6.376
G1 X8.947 Y-6.286
G1 X8.947 Y-6.286
G1 X9.000 Y-6.169
G1 X9.008 Y-6.079
G0 X8.996 Y-6.053
G0 X8.921 Y-5.970
G0 X6.910 Y-4.432
G1 X6.880 Y-4.406
G1 X6.789 Y-4.350
G1 X6.733 Y-4.342
G1 X6.647 Y-4.372
G1 X6.556 Y-4.459
G1 X6.556 Y-4.459
G1 X6.425 Y-4.658
G1 X6.357 Y-4.820
G1 X6.353 Y-5.045
G1 X6.440 Y-5.383
G1 X6.605 Y-5.714
G1 X6.827 Y-6.011
G1 X6.977 Y-6.169
G1 X7.135 Y-6.305
G1 X7.342 Y-6.451
G1 X7.602 Y-6.598
G1 X7.872 Y-6.714
G1 X8.203 Y-6.786
G1 X8.429 Y-6.789
G1 X8.485 Y-6.782
G1 X8.541 Y-6.763
G1 X8.594 Y-6.733
G1 X8.669 Y-6.643
G1 X8.669 Y-6.643
G1 X8.722 Y-6.526
G1 X8.729 Y-6.436
G0 X8.718 Y-6.410
G0 X8.647 Y-6.323
G0 X6.729 Y-4.692
G1 X6.695 Y-4.669
G1 X6.613 Y-4.605
G1 X6.553 Y-4.594
G1 X6.470 Y-4.620
G1 X6.372 Y-4.695
G1 X6.372 Y-4.695
G1 X6.229 Y-4.891
G1 X6.173 Y-4.996
G1 X6.143 Y-5.109
G1 X6.154 Y-5.391
G1 X6.207 Y-5.617
G1 X6.353 Y-5.955
G1 X6.560 Y-6.259
G1 X6.711 Y-6.429
G1 X6.853 Y-6.564
G1 X7.049 Y-6.722
G1 X7.331 Y-6.898
G1 X7.609 Y-7.019
G1 X7.891 Y-7.098
G1 X8.173 Y-7.117
G1 X8.229 Y-7.105
G1 X8.282 Y-7.083
G1 X8.327 Y-7.045
G1 X8.365 Y-7.000
G1 X8.365 Y-7.000
G1 X8.425 Y-6.887
G1 X8.436 Y-6.797
G0 X8.425 Y-6.771
G0 X8.357 Y-6.680
G0 X6.492 Y-4.985
G1 X6.462 Y-4.959
G1 X6.380 Y-4.895
G1 X6.323 Y-4.880
G1 X6.237 Y-4.898
G1 X6.139 Y-4.970
G1 X6.139 Y-4.970
G1 X5.992 Y-5.162
G1 X5.936 Y-5.267
G1 X5.917 Y-5.323
G1 X5.902 Y-5.549
G1 X5.966 Y-5.887
G1 X6.117 Y-6.226
G1 X6.312 Y-6.538
G1 X6.477 Y-6.733
G1 X6.628 Y-6.883
G1 X6.838 Y-7.049
G1 X7.075 Y-7.199
G1 X7.335 Y-7.331
G1 X7.658 Y-7.425
G1 X7.883 Y-7.436
G1 X7.992 Y-7.398
G1 X8.075 Y-7.312
G1 X8.075 Y-7.312
G1 X8.139 Y-7.203
G1 X8.154 Y-7.113
G0 X8.147 Y-7.086
G0 X8.079 Y-6.992
G0 X6.293 Y-5.226
G1 X6.263 Y-5.195
G1 X6.184 Y-5.128
G1 X6.128 Y-5.109
G1 X6.041 Y-5.124
G1 X5.936 Y-5.192
G1 X5.936 Y-5.192
G1 X5.778 Y-5.368
G1 X5.688 Y-5.523
G1 X5.662 Y-5.692
G1 X5.680 Y-5.974
G1 X5.703 Y-6.086
G1 X5.831 Y-6.432
G1 X6.011 Y-6.756
G1 X6.154 Y-6.944
G1 X6.289 Y-7.094
G1 X6.477 Y-7.267
G1 X6.722 Y-7.447
G1 X6.989 Y-7.605
G1 X7.256 Y-7.707
G1 X7.538 Y-7.744
G1 X7.594 Y-7.737
G1 X7.650 Y-7.718
G1 X7.744 Y-7.639
G1 X7.744 Y-7.639
G1 X7.816 Y-7.534
G1 X7.835 Y-7.447
G0 X7.831 Y-7.417
G0 X7.767 Y-7.323
G0 X6.034 Y-5.489
G1 X6.004 Y-5.462
G1 X5.929 Y-5.391
G1 X5.872 Y-5.372
G1 X5.786 Y-5.383
G1 X5.680 Y-5.444
G1 X5.680 Y-5.444
G1 X5.523 Y-5.624
G1 X5.459 Y-5.726
G1 X5.421 Y-5.895
G1 X5.429 Y-6.233
G1 X5.447 Y-6.346
G1 X5.568 Y-6.695
G1 X5.741 Y-7.019
G1 X5.876 Y-7.207
G1 X6.011 Y-7.365
G1 X6.192 Y-7.541
G1 X6.451 Y-7.744
G1 X6.722 Y-7.898
G1 X6.996 Y-7.996
G1 X7.222 Y-8.034
G1 X7.278 Y-8.026
G1 X7.335 Y-8.008
G1 X7.425 Y-7.929
G1 X7.425 Y-7.929
G1 X7.496 Y-7.823
G1 X7.519 Y-7.737
G0 X7.515 Y-7.711
G0 X7.455 Y-7.613
G0 X5.808 Y-5.699
G1 X5.782 Y-5.669
G1 X5.707 Y-5.598
G1 X5.654 Y-5.575
G1 X5.568 Y-5.586
G1 X5.462 Y-5.650
G1 X5.462 Y-5.650
G1 X5.297 Y-5.823
G1 X5.207 Y-5.974
G1 X5.162 Y-6.256
G1 X5.177 Y-6.538
G1 X5.278 Y-6.895
G1 X5.436 Y-7.229
G1 X5.560 Y-7.417
G1 X5.688 Y-7.579
G1 X5.861 Y-7.759
G1 X6.094 Y-7.962
G1 X6.353 Y-8.139
G1 X6.673 Y-8.274
G1 X6.842 Y-8.308
G1 X6.898 Y-8.312
G1 X6.955 Y-8.301
G1 X7.008 Y-8.278
G1 X7.105 Y-8.207
G1 X7.105 Y-8.207
G1 X7.177 Y-8.102
G1 X7.199 Y-8.015
G0 X7.195 Y-7.989
G0 X7.139 Y-7.891
G0 X5.575 Y-5.921
G1 X5.553 Y-5.887
G1 X5.481 Y-5.812
G1 X5.429 Y-5.786
G1 X5.342 Y-5.793
G1 X5.233 Y-5.846
G1 X5.233 Y-5.846
G1 X5.053 Y-6.000
G1 X4.974 Y-6.094
G1 X4.944 Y-6.147
G1 X4.898 Y-6.316
G1 X4.880 Y-6.598
G1 X4.887 Y-6.711
G1 X4.970 Y-7.071
G1 X5.102 Y-7.387
G1 X5.211 Y-7.579
G1 X5.331 Y-7.756
G1 X5.504 Y-7.966
G1 X5.733 Y-8.188
G1 X5.977 Y-8.365
G1 X6.289 Y-8.519
G1 X6.459 Y-8.564
G1 X6.515 Y-8.571
G1 X6.571 Y-8.568
G1 X6.628 Y-8.549
G1 X6.726 Y-8.477
G1 X6.726 Y-8.477
G1 X6.805 Y-8.383
G1 X6.838 Y-8.301
G0 X6.838 Y-8.274
G0 X6.789 Y-8.169
G0 X5.335 Y-6.105
G1 X5.308 Y-6.075
G1 X5.241 Y-5.992
G1 X5.192 Y-5.966
G1 X5.102 Y-5.970
G1 X4.992 Y-6.019
G1 X4.992 Y-6.019
G1 X4.763 Y-6.211
G1 X4.688 Y-6.305
G1 X4.628 Y-6.470
G1 X4.594 Y-6.752
G1 X4.594 Y-6.921
G1 X4.669 Y-7.282
G1 X4.801 Y-7.624
G1 X4.902 Y-7.816
G1 X5.019 Y-7.992
G1 X5.173 Y-8.188
G1 X5.395 Y-8.410
G1 X5.632 Y-8.602
G1 X5.936 Y-8.763
G1 X6.158 Y-8.823
G1 X6.214 Y-8.820
G1 X6.271 Y-8.805
G1 X6.368 Y-8.733
G1 X6.368 Y-8.733
G1 X6.447 Y-8.639
G1 X6.481 Y-8.556
G0 X6.481 Y-8.530
G0 X6.432 Y-8.425
G0 X5.034 Y-6.320
G1 X5.011 Y-6.286
G1 X4.947 Y-6.203
G1 X4.895 Y-6.177
G1 X4.808 Y-6.180
G1 X4.699 Y-6.229
G1 X4.699 Y-6.229
G1 X4.466 Y-6.421
G1 X4.391 Y-6.515
G1 X4.335 Y-6.684
G1 X4.297 Y-6.966
G1 X4.293 Y-7.079
G1 X4.350 Y-7.444
G1 X4.462 Y-7.786
G1 X4.553 Y-7.981
G1 X4.654 Y-8.158
G1 X4.812 Y-8.376
G1 X5.015 Y-8.598
G1 X5.233 Y-8.793
G1 X5.579 Y-9.000
G1 X5.744 Y-9.056
G1 X5.801 Y-9.064
G1 X5.857 Y-9.056
G1 X5.962 Y-9.004
G1 X5.962 Y-9.004
G1 X6.049 Y-8.914
G1 X6.086 Y-8.835
G0 X6.090 Y-8.805
G0 X6.045 Y-8.699
G0 X4.729 Y-6.545
G1 X4.711 Y-6.511
G1 X4.650 Y-6.425
G1 X4.598 Y-6.395
G1 X4.511 Y-6.387
G1 X4.398 Y-6.429
G1 X4.398 Y-6.429
G1 X4.252 Y-6.534
G1 X4.128 Y-6.662
G1 X4.075 Y-6.767
G1 X4.011 Y-6.992
G1 X3.985 Y-7.218
G1 X4.023 Y-7.586
G1 X4.120 Y-7.944
G1 X4.207 Y-8.150
G1 X4.305 Y-8.338
G1 X4.444 Y-8.549
G1 X4.635 Y-8.782
G1 X4.853 Y-8.996
G1 X5.135 Y-9.184
G1 X5.350 Y-9.271
G1 X5.406 Y-9.278
G1 X5.462 Y-9.274
G1 X5.519 Y-9.256
G1 X5.624 Y-9.199
G1 X5.624 Y-9.199
G1 X5.714 Y-9.113
G1 X5.756 Y-9.034
G0 X5.756 Y-9.008
G0 X5.718 Y-8.902
G0 X4.466 Y-6.718
G1 X4.447 Y-6.680
G1 X4.387 Y-6.594
G1 X4.338 Y-6.560
G1 X4.252 Y-6.549
G1 X4.139 Y-6.579
G1 X4.139 Y-6.579
G1 X3.891 Y-6.752
G1 X3.816 Y-6.846
G1 X3.714 Y-7.124
G1 X3.677 Y-7.350
G1 X3.692 Y-7.718
G1 X3.774 Y-8.079
G1 X3.850 Y-8.286
G1 X3.940 Y-8.474
G1 X4.064 Y-8.688
G1 X4.248 Y-8.940
G1 X4.459 Y-9.169
G1 X4.684 Y-9.346
G1 X4.944 Y-9.474
G1 X5.000 Y-9.485
G1 X5.056 Y-9.481
G1 X5.169 Y-9.444
G1 X5.222 Y-9.414
G1 X5.222 Y-9.414
G1 X5.312 Y-9.327
G1 X5.353 Y-9.248
G0 X5.357 Y-9.222
G0 X5.323 Y-9.113
G0 X4.192 Y-6.861
G1 X4.177 Y-6.823
G1 X4.124 Y-6.737
G1 X4.075 Y-6.699
G1 X3.989 Y-6.688
G1 X3.876 Y-6.722
G1 X3.876 Y-6.722
G1 X3.669 Y-6.842
G1 X3.575 Y-6.921
G1 X3.508 Y-7.019
G1 X3.421 Y-7.237
G1 X3.368 Y-7.462
G1 X3.365 Y-7.831
G1 X3.421 Y-8.177
G1 X3.485 Y-8.387
G1 X3.556 Y-8.575
G1 X3.677 Y-8.816
G1 X3.842 Y-9.071
G1 X4.034 Y-9.308
G1 X4.297 Y-9.534
G1 X4.444 Y-9.620
G1 X4.549 Y-9.665
G1 X4.662 Y-9.673
G1 X4.767 Y-9.624
G1 X4.767 Y-9.624
G1 X4.865 Y-9.549
G1 X4.914 Y-9.474
G0 X4.917 Y-9.444
G0 X4.891 Y-9.335
G0 X3.914 Y-7.008
G1 X3.898 Y-6.974
G1 X3.850 Y-6.880
G1 X3.805 Y-6.842
G1 X3.718 Y-6.823
G1 X3.602 Y-6.846
G1 X3.602 Y-6.846
G1 X3.338 Y-6.996
G1 X3.248 Y-7.075
G1 X3.135 Y-7.282
G1 X3.041 Y-7.620
G1 X3.030 Y-7.989
G1 X3.083 Y-8.353
G1 X3.143 Y-8.571
G1 X3.218 Y-8.767
G1 X3.327 Y-8.996
G1 X3.504 Y-9.278
G1 X3.692 Y-9.511
G1 X3.929 Y-9.726
G1 X4.075 Y-9.812
G1 X4.128 Y-9.835
G1 X4.184 Y-9.842
G1 X4.241 Y-9.835
G1 X4.353 Y-9.789
G1 X4.353 Y-9.789
G1 X4.451 Y-9.718
G1 X4.504 Y-9.643
G0 X4.511 Y-9.617
G0 X4.489 Y-9.504
G0 X3.628 Y-7.143
G1 X3.617 Y-7.105
G1 X3.571 Y-7.011
G1 X3.530 Y-6.970
G1 X3.444 Y-6.947
G1 X3.327 Y-6.962
G1 X3.327 Y-6.962
G1 X3.053 Y-7.090
G1 X2.959 Y-7.162
G1 X2.883 Y-7.256
G1 X2.778 Y-7.470
G1 X2.714 Y-7.695
G1 X2.684 Y-8.064
G1 X2.718 Y-8.432
G1 X2.767 Y-8.647
G1 X2.823 Y-8.838
G1 X2.932 Y-9.094
G1 X3.075 Y-9.357
G1 X3.248 Y-9.613
G1 X3.492 Y-9.861
G1 X3.692 Y-9.981
G1 X3.748 Y-9.992
G1 X3.805 Y-9.992
G1 X3.917 Y-9.959
G1 X3.917 Y-9.959
G1 X4.015 Y-9.887
G1 X4.068 Y-9.812
G0 X4.075 Y-9.786
G0 X4.056 Y-9.673
G0 X3.286 Y-7.274
G1 X3.274 Y-7.237
G1 X3.233 Y-7.139
G1 X3.188 Y-7.098
G1 X3.105 Y-7.075
G1 X2.989 Y-7.090
G1 X2.989 Y-7.090
G1 X2.714 Y-7.218
G1 X2.620 Y-7.293
G1 X2.519 Y-7.444
G1 X2.387 Y-7.774
G1 X2.372 Y-7.831
G1 X2.335 Y-8.199
G1 X2.357 Y-8.556
G1 X2.402 Y-8.778
G1 X2.455 Y-8.974
G1 X2.556 Y-9.241
G1 X2.703 Y-9.530
G1 X2.959 Y-9.868
G1 X3.177 Y-10.060
G1 X3.274 Y-10.120
G1 X3.331 Y-10.132
G1 X3.500 Y-10.086
G1 X3.500 Y-10.086
G1 X3.605 Y-10.026
G1 X3.662 Y-9.959
G0 X3.669 Y-9.932
G0 X3.654 Y-9.820
G0 X2.940 Y-7.410
G1 X2.929 Y-7.368
G1 X2.891 Y-7.271
G1 X2.850 Y-7.229
G1 X2.767 Y-7.199
G1 X2.650 Y-7.207
G1 X2.650 Y-7.207
G1 X2.481 Y-7.267
G1 X2.327 Y-7.357
G1 X2.184 Y-7.545
G1 X2.083 Y-7.763
G1 X2.045 Y-7.876
G1 X1.992 Y-8.244
G1 X1.996 Y-8.613
G1 X2.030 Y-8.865
G1 X2.079 Y-9.079
G1 X2.169 Y-9.335
G1 X2.282 Y-9.586
G1 X2.440 Y-9.850
G1 X2.707 Y-10.143
G1 X2.801 Y-10.211
G1 X2.853 Y-10.233
G1 X2.910 Y-10.244
G1 X3.023 Y-10.218
G1 X3.023 Y-10.218
G1 X3.128 Y-10.162
G1 X3.188 Y-10.094
G0 X3.195 Y-10.068
G0 X3.188 Y-9.955
G0 X2.635 Y-7.508
G1 X2.628 Y-7.470
G1 X2.598 Y-7.368
G1 X2.560 Y-7.323
G1 X2.477 Y-7.289
G1 X2.361 Y-7.286
G1 X2.361 Y-7.286
G1 X2.128 Y-7.361
G1 X2.023 Y-7.417
G1 X1.974 Y-7.455
G1 X1.865 Y-7.598
G1 X1.733 Y-7.861
G1 X1.714 Y-7.917
G1 X1.635 Y-8.278
G1 X1.620 Y-8.647
G1 X1.639 Y-8.872
G1 X1.677 Y-9.090
G1 X1.744 Y-9.346
G1 X1.853 Y-9.632
G1 X1.992 Y-9.898
G1 X2.199 Y-10.173
G1 X2.327 Y-10.289
G1 X2.376 Y-10.320
G1 X2.432 Y-10.338
G1 X2.489 Y-10.338
G1 X2.602 Y-10.316
G1 X2.602 Y-10.316
G1 X2.714 Y-10.263
G1 X2.774 Y-10.199
G0 X2.786 Y-10.173
G0 X2.782 Y-10.060
G0 X2.335 Y-7.575
G1 X2.327 Y-7.534
G1 X2.301 Y-7.432
G1 X2.263 Y-7.387
G1 X2.184 Y-7.353
G1 X2.068 Y-7.357
G1 X2.068 Y-7.357
G1 X1.831 Y-7.417
G1 X1.722 Y-7.466
G1 X1.624 Y-7.541
G1 X1.481 Y-7.733
G1 X1.402 Y-7.895
G1 X1.286 Y-8.308
G1 X1.252 Y-8.677
G1 X1.263 Y-8.947
G1 X1.297 Y-9.165
G1 X1.346 Y-9.383
G1 X1.444 Y-9.680
G1 X1.650 Y-10.094
G1 X1.838 Y-10.316
G1 X1.925 Y-10.391
G1 X1.977 Y-10.414
G1 X2.316 Y-10.368
G1 X2.316 Y-10.368
G1 X2.429 Y-10.316
G1 X2.489 Y-10.252
G0 X2.500 Y-10.226
G0 X2.496 Y-10.113
G0 X1.985 Y-7.654
G1 X1.974 Y-7.613
G1 X1.947 Y-7.511
G1 X1.910 Y-7.462
G1 X1.831 Y-7.425
G1 X1.714 Y-7.421
G1 X1.714 Y-7.421
G1 X1.477 Y-7.477
G1 X1.368 Y-7.530
G1 X1.323 Y-7.568
G1 X1.180 Y-7.756
G1 X1.056 Y-8.019
G1 X0.947 Y-8.372
G1 X0.902 Y-8.741
G1 X0.906 Y-9.000
G1 X0.929 Y-9.214
G1 X0.974 Y-9.447
G1 X1.053 Y-9.744
G1 X1.207 Y-10.079
G1 X1.417 Y-10.357
G1 X1.500 Y-10.436
G1 X1.553 Y-10.462
G1 X1.609 Y-10.474
G1 X1.722 Y-10.459
G1 X1.722 Y-10.459
G1 X1.835 Y-10.414
G1 X1.898 Y-10.353
G0 X1.910 Y-10.327
G0 X1.917 Y-10.214
G0 X1.665 Y-7.703
G1 X1.658 Y-7.662
G1 X1.643 Y-7.560
G1 X1.609 Y-7.511
G1 X1.534 Y-7.470
G1 X1.417 Y-7.459
G1 X1.417 Y-7.459
G1 X1.180 Y-7.515
G1 X1.071 Y-7.568
G1 X0.910 Y-7.748
G1 X0.763 Y-8.004
G1 X0.620 Y-8.346
G1 X0.549 Y-8.711
G1 X0.534 Y-8.966
G1 X0.545 Y-9.177
G1 X0.571 Y-9.398
G1 X0.639 Y-9.703
G1 X0.752 Y-10.019
G1 X0.887 Y-10.263
G1 X1.041 Y-10.436
G1 X1.086 Y-10.474
G1 X1.139 Y-10.496
G1 X1.195 Y-10.508
G1 X1.365 Y-10.496
G1 X1.365 Y-10.496
G1 X1.481 Y-10.459
G1 X1.549 Y-10.402
G0 X1.560 Y-10.380
G0 X1.568 Y-10.263
G0 X1.357 Y-7.744
G1 X1.357 Y-7.707
G1 X1.338 Y-7.602
G1 X1.308 Y-7.553
G1 X1.233 Y-7.508
G1 X1.117 Y-7.492
G1 X1.117 Y-7.492
G1 X0.936 Y-7.526
G1 X0.823 Y-7.568
G1 X0.771 Y-7.598
G1 X0.605 Y-7.767
G1 X0.440 Y-8.019
G1 X0.289 Y-8.357
G1 X0.199 Y-8.718
G1 X0.173 Y-8.996
G1 X0.177 Y-9.199
G1 X0.195 Y-9.421
G1 X0.252 Y-9.718
G1 X0.357 Y-10.041
G1 X0.485 Y-10.289
G1 X0.639 Y-10.462
G1 X0.684 Y-10.496
G1 X0.737 Y-10.519
G1 X1.075 Y-10.511
G1 X1.075 Y-10.511
G1 X1.192 Y-10.477
G1 X1.259 Y-10.429
G0 X1.274 Y-10.402
G0 X1.286 Y-10.289
G0 X1.117 Y-7.763
G1 X1.117 Y-7.726
G1 X1.102 Y-7.620
G1 X1.071 Y-7.571
G1 X0.996 Y-7.526
G1 X0.880 Y-7.511
G1 X0.880 Y-7.511
G1 X0.639 Y-7.541
G1 X0.523 Y-7.583
G1 X0.470 Y-7.613
G1 X0.259 Y-7.827
G1 X0.124 Y-8.023
G1 X-0.045 Y-8.350
G1 X-0.150 Y-8.703
G1 X-0.188 Y-8.974
G1 X-0.195 Y-9.177
G1 X-0.188 Y-9.402
G1 X-0.143 Y-9.714
G1 X-0.060 Y-10.011
G1 X0.056 Y-10.259
G1 X0.244 Y-10.481
G1 X0.293 Y-10.511
G1 X0.346 Y-10.530
G1 X0.684 Y-10.526
G1 X0.684 Y-10.526
G1 X0.801 Y-10.492
G1 X0.872 Y-10.444
G0 X0.883 Y-10.417
G0 X0.898 Y-10.305
G0 X0.808 Y-7.782
G1 X0.808 Y-7.744
G1 X0.789 Y-7.635
G1 X0.748 Y-7.579
G1 X0.665 Y-7.534
G1 X0.579 Y-7.523
G1 X0.579 Y-7.523
G1 X0.338 Y-7.549
G1 X0.222 Y-7.586
G1 X0.075 Y-7.692
G1 X-0.192 Y-7.996
G1 X-0.376 Y-8.316
G1 X-0.500 Y-8.665
G1 X-0.541 Y-8.883
G1 X-0.564 Y-9.079
G1 X-0.568 Y-9.327
G1 X-0.538 Y-9.632
G1 X-0.477 Y-9.921
G1 X-0.372 Y-10.180
G1 X-0.237 Y-10.376
G1 X-0.154 Y-10.466
G1 X-0.102 Y-10.500
G1 X-0.045 Y-10.519
G1 X0.237 Y-10.530
G1 X0.237 Y-10.530
G1 X0.353 Y-10.504
G1 X0.425 Y-10.451
G0 X0.440 Y-10.429
G0 X0.459 Y-10.316
G0 X0.485 Y-7.801
G1 X0.489 Y-7.763
G1 X0.477 Y-7.654
G1 X0.440 Y-7.594
G1 X0.365 Y-7.541
G1 X0.278 Y-7.519
G1 X0.278 Y-7.519
G1 X0.038 Y-7.538
G1 X-0.075 Y-7.564
G1 X-0.271 Y-7.692
G1 X-0.436 Y-7.850
G1 X-0.511 Y-7.940
G1 X-0.707 Y-8.252
G1 X-0.846 Y-8.594
G1 X-0.898 Y-8.808
G1 X-0.925 Y-9.000
G1 X-0.940 Y-9.241
G1 X-0.929 Y-9.553
G1 X-0.880 Y-9.868
G1 X-0.782 Y-10.139
G1 X-0.613 Y-10.383
G1 X-0.571 Y-10.429
G1 X-0.470 Y-10.489
G1 X-0.109 Y-10.515
G1 X-0.109 Y-10.515
G1 X0.011 Y-10.496
G1 X0.086 Y-10.451
G0 X0.102 Y-10.429
G0 X0.124 Y-10.316
G0 X0.188 Y-7.797
G1 X0.192 Y-7.759
G1 X0.188 Y-7.654
G1 X0.162 Y-7.598
G1 X0.098 Y-7.541
G1 X-0.015 Y-7.508
G1 X-0.015 Y-7.508
G1 X-0.184 Y-7.496
G1 X-0.353 Y-7.515
G1 X-0.462 Y-7.553
G1 X-0.692 Y-7.726
G1 X-0.850 Y-7.898
G1 X-1.053 Y-8.207
G1 X-1.199 Y-8.545
G1 X-1.259 Y-8.767
G1 X-1.297 Y-8.966
G1 X-1.320 Y-9.222
G1 X-1.316 Y-9.523
G1 X-1.263 Y-9.823
G1 X-1.192 Y-10.049
G1 X-1.045 Y-10.305
G1 X-0.966 Y-10.398
G1 X-0.914 Y-10.429
G1 X-0.492 Y-10.489
G1 X-0.492 Y-10.489
G1 X-0.365 Y-10.470
G1 X-0.286 Y-10.429
G0 X-0.267 Y-10.406
G0 X-0.244 Y-10.297
G0 X-0.158 Y-7.778
G1 X-0.158 Y-7.741
G1 X-0.162 Y-7.632
G1 X-0.184 Y-7.575
G1 X-0.256 Y-7.515
G1 X-0.376 Y-7.474
G1 X-0.376 Y-7.474
G1 X-0.545 Y-7.462
G1 X-0.714 Y-7.485
G1 X-0.771 Y-7.504
G1 X-1.008 Y-7.669
G1 X-1.203 Y-7.876
G1 X-1.414 Y-8.180
G1 X-1.564 Y-8.519
G1 X-1.632 Y-8.737
G1 X-1.677 Y-8.947
G1 X-1.703 Y-9.214
G1 X-1.699 Y-9.489
G1 X-1.658 Y-9.767
G1 X-1.590 Y-9.996
G1 X-1.511 Y-10.154
G1 X-1.406 Y-10.301
G1 X-1.308 Y-10.368
G1 X-0.947 Y-10.432
G1 X-0.947 Y-10.432
G1 X-0.820 Y-10.421
G1 X-0.737 Y-10.380
G0 X-0.722 Y-10.357
G0 X-0.692 Y-10.248
G0 X-0.462 Y-7.741
G1 X-0.462 Y-7.699
G1 X-0.459 Y-7.594
G1 X-0.485 Y-7.538
G1 X-0.553 Y-7.477
G1 X-0.673 Y-7.436
G1 X-0.673 Y-7.436
G1 X-0.898 Y-7.417
G1 X-1.011 Y-7.429
G1 X-1.068 Y-7.444
G1 X-1.267 Y-7.560
G1 X-1.523 Y-7.797
G1 X-1.744 Y-8.090
G1 X-1.910 Y-8.421
G1 X-1.981 Y-8.635
G1 X-2.030 Y-8.831
G1 X-2.068 Y-9.094
G1 X-2.079 Y-9.391
G1 X-2.045 Y-9.677
G1 X-1.985 Y-9.902
G1 X-1.880 Y-10.117
G1 X-1.812 Y-10.214
G1 X-1.714 Y-10.289
G1 X-1.353 Y-10.365
G1 X-1.353 Y-10.365
G1 X-1.192 Y-10.350
G1 X-1.139 Y-10.320
G0 X-1.120 Y-10.301
G0 X-1.086 Y-10.195
G0 X-0.774 Y-7.703
G1 X-0.771 Y-7.662
G1 X-0.767 Y-7.556
G1 X-0.786 Y-7.500
G1 X-0.850 Y-7.432
G1 X-0.966 Y-7.380
G1 X-0.966 Y-7.380
G1 X-1.192 Y-7.350
G1 X-1.305 Y-7.353
G1 X-1.515 Y-7.444
G1 X-1.789 Y-7.654
G1 X-2.068 Y-7.981
G1 X-2.248 Y-8.305
G1 X-2.380 Y-8.688
G1 X-2.429 Y-8.959
G1 X-2.451 Y-9.252
G1 X-2.436 Y-9.549
G1 X-2.383 Y-9.789
G1 X-2.289 Y-10.008
G1 X-2.226 Y-10.109
G1 X-2.184 Y-10.154
G1 X-2.135 Y-10.192
G1 X-1.838 Y-10.267
G1 X-1.838 Y-10.267
G1 X-1.711 Y-10.263
G1 X-1.624 Y-10.229
G0 X-1.605 Y-10.211
G0 X-1.564 Y-10.105
G0 X-1.083 Y-7.639
G1 X-1.075 Y-7.598
G1 X-1.064 Y-7.492
G1 X-1.079 Y-7.436
G1 X-1.143 Y-7.368
G1 X-1.259 Y-7.316
G1 X-1.259 Y-7.316
G1 X-1.541 Y-7.271
G1 X-1.654 Y-7.278
G1 X-1.861 Y-7.372
G1 X-2.135 Y-7.583
G1 X-2.383 Y-7.857
G1 X-2.575 Y-8.173
G1 X-2.665 Y-8.368
G1 X-2.733 Y-8.564
G1 X-2.789 Y-8.816
G1 X-2.823 Y-9.098
G1 X-2.827 Y-9.395
G1 X-2.786 Y-9.669
G1 X-2.669 Y-9.944
G1 X-2.639 Y-9.996
G1 X-2.598 Y-10.041
G1 X-2.549 Y-10.079
G1 X-2.192 Y-10.180
G1 X-2.192 Y-10.180
G1 X-2.064 Y-10.184
G1 X-1.977 Y-10.158
G0 X-1.955 Y-10.139
G0 X-1.914 Y-10.034
G0 X-1.391 Y-7.579
G1 X-1.383 Y-7.538
G1 X-1.368 Y-7.432
G1 X-1.383 Y-7.372
G1 X-1.440 Y-7.301
G1 X-1.549 Y-7.237
G1 X-1.549 Y-7.237
G1 X-1.831 Y-7.177
G1 X-1.944 Y-7.177
G1 X-2.000 Y-7.188
G1 X-2.305 Y-7.346
G1 X-2.440 Y-7.451
G1 X-2.699 Y-7.714
G1 X-2.906 Y-8.023
G1 X-3.008 Y-8.237
G1 X-3.083 Y-8.425
G1 X-3.154 Y-8.684
G1 X-3.203 Y-8.981
G1 X-3.211 Y-9.267
G1 X-3.184 Y-9.511
G1 X-3.109 Y-9.737
G1 X-3.056 Y-9.842
G1 X-3.023 Y-9.891
G1 X-2.977 Y-9.932
G1 X-2.643 Y-10.053
G1 X-2.643 Y-10.053
G1 X-2.481 Y-10.056
G1 X-2.429 Y-10.034
G0 X-2.406 Y-10.015
G0 X-2.361 Y-9.914
G0 X-1.752 Y-7.481
G1 X-1.744 Y-7.444
G1 X-1.726 Y-7.338
G1 X-1.737 Y-7.278
G1 X-1.789 Y-7.203
G1 X-1.895 Y-7.132
G1 X-1.895 Y-7.132
G1 X-2.120 Y-7.071
G1 X-2.233 Y-7.064
G1 X-2.289 Y-7.071
G1 X-2.504 Y-7.158
G1 X-2.789 Y-7.357
G1 X-3.049 Y-7.620
G1 X-3.259 Y-7.921
G1 X-3.368 Y-8.135
G1 X-3.444 Y-8.331
G1 X-3.511 Y-8.556
G1 X-3.568 Y-8.857
G1 X-3.579 Y-9.169
G1 X-3.541 Y-9.462
G1 X-3.459 Y-9.684
G1 X-3.429 Y-9.737
G1 X-3.387 Y-9.778
G1 X-3.049 Y-9.914
G1 X-3.049 Y-9.914
G1 X-2.921 Y-9.925
G1 X-2.831 Y-9.902
G0 X-2.808 Y-9.883
G0 X-2.759 Y-9.782
G0 X-2.049 Y-7.380
G1 X-2.038 Y-7.338
G1 X-2.015 Y-7.237
G1 X-2.023 Y-7.177
G1 X-2.075 Y-7.102
G1 X-2.177 Y-7.030
G1 X-2.177 Y-7.030
G1 X-2.402 Y-6.966
G1 X-2.515 Y-6.955
G1 X-2.571 Y-6.959
G1 X-2.789 Y-7.034
G1 X-3.038 Y-7.184
G1 X-3.320 Y-7.425
G1 X-3.549 Y-7.714
G1 X-3.665 Y-7.906
G1 X-3.756 Y-8.090
G1 X-3.846 Y-8.342
G1 X-3.914 Y-8.617
G1 X-3.955 Y-8.902
G1 X-3.951 Y-9.180
G1 X-3.917 Y-9.350
G1 X-3.857 Y-9.519
G1 X-3.782 Y-9.613
G1 X-3.620 Y-9.695
G1 X-3.451 Y-9.759
G1 X-3.451 Y-9.759
G1 X-3.323 Y-9.778
G1 X-3.237 Y-9.759
G0 X-3.214 Y-9.744
G0 X-3.158 Y-9.647
G0 X-2.335 Y-7.259
G1 X-2.320 Y-7.226
G1 X-2.293 Y-7.120
G1 X-2.305 Y-7.064
G1 X-2.353 Y-6.989
G1 X-2.455 Y-6.917
G1 X-2.455 Y-6.917
G1 X-2.680 Y-6.842
G1 X-2.793 Y-6.823
G1 X-2.850 Y-6.823
G1 X-3.124 Y-6.914
G1 X-3.327 Y-7.023
G1 X-3.658 Y-7.297
G1 X-3.895 Y-7.583
G1 X-4.015 Y-7.778
G1 X-4.109 Y-7.962
G1 X-4.203 Y-8.203
G1 X-4.286 Y-8.492
G1 X-4.320 Y-8.801
G1 X-4.308 Y-9.079
G1 X-4.248 Y-9.305
G1 X-4.226 Y-9.361
G1 X-4.147 Y-9.451
G1 X-3.812 Y-9.605
G1 X-3.812 Y-9.605
G1 X-3.684 Y-9.632
G1 X-3.598 Y-9.620
G0 X-3.575 Y-9.605
G0 X-3.515 Y-9.508
G0 X-2.617 Y-7.143
G1 X-2.602 Y-7.105
G1 X-2.571 Y-7.004
G1 X-2.579 Y-6.944
G1 X-2.624 Y-6.868
G1 X-2.726 Y-6.793
G1 X-2.726 Y-6.793
G1 X-2.947 Y-6.703
G1 X-3.060 Y-6.677
G1 X-3.117 Y-6.673
G1 X-3.395 Y-6.748
G1 X-3.647 Y-6.883
G1 X-3.940 Y-7.109
G1 X-4.192 Y-7.380
G1 X-4.327 Y-7.568
G1 X-4.432 Y-7.748
G1 X-4.538 Y-7.989
G1 X-4.620 Y-8.248
G1 X-4.673 Y-8.515
G1 X-4.677 Y-8.895
G1 X-4.643 Y-9.064
G1 X-4.602 Y-9.177
G1 X-4.564 Y-9.226
G1 X-4.188 Y-9.429
G1 X-4.188 Y-9.429
G1 X-4.030 Y-9.459
G1 X-3.974 Y-9.447
G0 X-3.951 Y-9.436
G0 X-3.887 Y-9.342
G0 X-2.898 Y-7.015
G1 X-2.883 Y-6.981
G1 X-2.850 Y-6.880
G1 X-2.850 Y-6.820
G1 X-2.895 Y-6.741
G1 X-2.992 Y-6.658
G1 X-2.992 Y-6.658
G1 X-3.207 Y-6.556
G1 X-3.320 Y-6.523
G1 X-3.376 Y-6.515
G1 X-3.602 Y-6.556
G1 X-3.921 Y-6.695
G1 X-4.226 Y-6.906
G1 X-4.489 Y-7.165
G1 X-4.628 Y-7.346
G1 X-4.737 Y-7.519
G1 X-4.853 Y-7.748
G1 X-4.955 Y-8.023
G1 X-5.026 Y-8.301
G1 X-5.045 Y-8.635
G1 X-4.996 Y-8.917
G1 X-4.970 Y-8.970
G1 X-4.932 Y-9.015
G1 X-4.568 Y-9.233
G1 X-4.568 Y-9.233
G1 X-4.410 Y-9.263
G1 X-4.353 Y-9.252
G0 X-4.327 Y-9.241
G0 X-4.267 Y-9.147
G0 X-3.229 Y-6.842
G1 X-3.214 Y-6.805
G1 X-3.177 Y-6.707
G1 X-3.177 Y-6.647
G1 X-3.214 Y-6.568
G1 X-3.308 Y-6.481
G1 X-3.308 Y-6.481
G1 X-3.523 Y-6.376
G1 X-3.635 Y-6.342
G1 X-3.692 Y-6.338
G1 X-4.079 Y-6.444
G1 X-4.184 Y-6.492
G1 X-4.496 Y-6.688
G1 X-4.771 Y-6.936
G1 X-4.929 Y-7.124
G1 X-5.045 Y-7.301
G1 X-5.162 Y-7.504
G1 X-5.282 Y-7.786
G1 X-5.365 Y-8.071
G1 X-5.398 Y-8.346
G1 X-5.387 Y-8.571
G1 X-5.361 Y-8.684
G1 X-5.335 Y-8.737
G1 X-5.297 Y-8.782
G1 X-4.992 Y-8.981
G1 X-4.992 Y-8.981
G1 X-4.868 Y-9.019
G1 X-4.782 Y-9.015
G0 X-4.756 Y-9.000
G0 X-4.688 Y-8.914
G0 X-3.500 Y-6.692
G1 X-3.485 Y-6.654
G1 X-3.440 Y-6.556
G1 X-3.440 Y-6.496
G1 X-3.474 Y-6.414
G1 X-3.564 Y-6.327
G1 X-3.564 Y-6.327
G1 X-3.771 Y-6.211
G1 X-3.940 Y-6.162
G1 X-4.165 Y-6.188
G1 X-4.492 Y-6.305
G1 X-4.808 Y-6.496
G1 X-5.086 Y-6.741
G1 X-5.237 Y-6.910
G1 X-5.361 Y-7.079
G1 X-5.492 Y-7.301
G1 X-5.620 Y-7.579
G1 X-5.714 Y-7.861
G1 X-5.756 Y-8.147
G1 X-5.741 Y-8.372
G1 X-5.729 Y-8.429
G1 X-5.703 Y-8.481
G1 X-5.665 Y-8.530
G1 X-5.320 Y-8.771
G1 X-5.316 Y-8.771
G1 X-5.195 Y-8.816
G1 X-5.105 Y-8.816
G0 X-5.083 Y-8.805
G0 X-5.011 Y-8.718
G0 X-3.767 Y-6.526
G1 X-3.748 Y-6.492
G1 X-3.703 Y-6.395
G1 X-3.695 Y-6.335
G1 X-3.729 Y-6.248
G1 X-3.812 Y-6.158
G1 X-3.812 Y-6.158
G1 X-4.068 Y-6.008
G1 X-4.180 Y-5.970
G1 X-4.406 Y-5.985
G1 X-4.684 Y-6.064
G1 X-5.060 Y-6.267
G1 X-5.350 Y-6.496
G1 X-5.515 Y-6.669
G1 X-5.643 Y-6.827
G1 X-5.786 Y-7.045
G1 X-5.929 Y-7.316
G1 X-6.038 Y-7.598
G1 X-6.094 Y-7.880
G1 X-6.090 Y-8.105
G1 X-6.079 Y-8.162
G1 X-6.026 Y-8.263
G1 X-5.786 Y-8.444
G1 X-5.786 Y-8.444
G1 X-5.669 Y-8.492
G1 X-5.579 Y-8.492
G0 X-5.556 Y-8.481
G0 X-5.477 Y-8.402
G0 X-4.075 Y-6.312
G1 X-4.053 Y-6.278
G1 X-4.004 Y-6.188
G1 X-3.996 Y-6.128
G1 X-4.023 Y-6.041
G1 X-4.102 Y-5.944
G1 X-4.102 Y-5.944
G1 X-4.357 Y-5.793
G1 X-4.414 Y-5.774
G1 X-4.639 Y-5.774
G1 X-4.977 Y-5.861
G1 X-5.312 Y-6.023
G1 X-5.609 Y-6.241
G1 X-5.778 Y-6.402
G1 X-5.921 Y-6.560
G1 X-6.079 Y-6.778
G1 X-6.226 Y-7.030
G1 X-6.346 Y-7.297
G1 X-6.421 Y-7.628
G1 X-6.417 Y-7.853
G1 X-6.402 Y-7.910
G1 X-6.376 Y-7.962
G1 X-6.338 Y-8.008
G1 X-6.064 Y-8.233
G1 X-6.064 Y-8.233
G1 X-5.947 Y-8.289
G1 X-5.857 Y-8.297
G0 X-5.831 Y-8.286
G0 X-5.752 Y-8.207
G0 X-4.286 Y-6.158
G1 X-4.259 Y-6.124
G1 X-4.207 Y-6.034
G1 X-4.192 Y-5.977
G1 X-4.214 Y-5.891
G1 X-4.289 Y-5.793
G1 X-4.289 Y-5.793
G1 X-4.530 Y-5.620
G1 X-4.639 Y-5.571
G1 X-4.865 Y-5.556
G1 X-5.203 Y-5.620
G1 X-5.541 Y-5.767
G1 X-5.853 Y-5.966
G1 X-6.038 Y-6.120
G1 X-6.188 Y-6.274
G1 X-6.346 Y-6.474
G1 X-6.508 Y-6.718
G1 X-6.639 Y-7.004
G1 X-6.722 Y-7.293
G1 X-6.741 Y-7.575
G1 X-6.726 Y-7.632
G1 X-6.695 Y-7.684
G1 X-6.380 Y-7.974
G1 X-6.380 Y-7.974
G1 X-6.233 Y-8.038
G1 X-6.173 Y-8.041
G0 X-6.147 Y-8.034
G0 X-6.068 Y-7.955
G0 X-4.560 Y-5.929
G1 X-4.538 Y-5.895
G1 X-4.481 Y-5.805
G1 X-4.466 Y-5.744
G1 X-4.489 Y-5.658
G1 X-4.564 Y-5.560
G1 X-4.564 Y-5.560
G1 X-4.748 Y-5.410
G1 X-4.910 Y-5.331
G1 X-5.192 Y-5.323
G1 X-5.474 Y-5.383
G1 X-5.816 Y-5.523
G1 X-6.132 Y-5.718
G1 X-6.331 Y-5.876
G1 X-6.492 Y-6.034
G1 X-6.647 Y-6.222
G1 X-6.801 Y-6.455
G1 X-6.936 Y-6.722
G1 X-7.023 Y-6.981
G1 X-7.053 Y-7.150
G1 X-7.053 Y-7.263
G1 X-7.015 Y-7.372
G1 X-6.767 Y-7.620
G1 X-6.767 Y-7.620
G1 X-6.658 Y-7.680
G1 X-6.568 Y-7.692
G0 X-6.541 Y-7.684
G0 X-6.455 Y-7.613
G0 X-4.842 Y-5.680
G1 X-4.820 Y-5.650
G1 X-4.756 Y-5.564
G1 X-4.741 Y-5.504
G1 X-4.756 Y-5.417
G1 X-4.823 Y-5.312
G1 X-4.823 Y-5.312
G1 X-4.959 Y-5.192
G1 X-5.113 Y-5.102
G1 X-5.282 Y-5.075
G1 X-5.564 Y-5.094
G1 X-5.677 Y-5.117
G1 X-6.026 Y-5.237
G1 X-6.350 Y-5.417
G1 X-6.553 Y-5.564
G1 X-6.714 Y-5.714
G1 X-6.872 Y-5.883
G1 X-7.056 Y-6.128
G1 X-7.211 Y-6.395
G1 X-7.312 Y-6.650
G1 X-7.357 Y-6.932
G1 X-7.346 Y-6.989
G1 X-7.323 Y-7.045
G1 X-7.079 Y-7.308
G1 X-7.079 Y-7.308
G1 X-6.970 Y-7.376
G1 X-6.883 Y-7.391
G0 X-6.857 Y-7.387
G0 X-6.767 Y-7.320
G0 X-5.060 Y-5.459
G1 X-5.034 Y-5.429
G1 X-4.966 Y-5.346
G1 X-4.951 Y-5.289
G1 X-4.966 Y-5.203
G1 X-5.034 Y-5.098
G1 X-5.034 Y-5.098
G1 X-5.162 Y-4.966
G1 X-5.259 Y-4.895
G1 X-5.312 Y-4.868
G1 X-5.481 Y-4.835
G1 X-5.820 Y-4.842
G1 X-5.876 Y-4.850
G1 X-6.233 Y-4.951
G1 X-6.564 Y-5.117
G1 X-6.748 Y-5.237
G1 X-6.914 Y-5.368
G1 X-7.098 Y-5.545
G1 X-7.297 Y-5.782
G1 X-7.462 Y-6.030
G1 X-7.602 Y-6.338
G1 X-7.647 Y-6.564
G1 X-7.647 Y-6.620
G1 X-7.632 Y-6.677
G1 X-7.564 Y-6.774
G1 X-7.365 Y-7.000
G1 X-7.365 Y-7.000
G1 X-7.259 Y-7.071
G1 X-7.173 Y-7.094
G0 X-7.143 Y-7.090
G0 X-7.053 Y-7.026
G0 X-5.237 Y-5.267
G1 X-5.211 Y-5.241
G1 X-5.139 Y-5.162
G1 X-5.117 Y-5.105
G1 X-5.128 Y-5.019
G1 X-5.184 Y-4.910
G1 X-5.184 Y-4.910
G1 X-5.387 Y-4.692
G1 X-5.485 Y-4.624
G1 X-5.650 Y-4.575
G1 X-5.932 Y-4.556
G1 X-6.102 Y-4.571
G1 X-6.459 Y-4.665
G1 X-6.797 Y-4.820
G1 X-6.985 Y-4.936
G1 X-7.154 Y-5.064
G1 X-7.342 Y-5.233
G1 X-7.549 Y-5.459
G1 X-7.737 Y-5.718
G1 X-7.880 Y-6.034
G1 X-7.917 Y-6.203
G1 X-7.921 Y-6.259
G1 X-7.910 Y-6.316
G1 X-7.887 Y-6.372
G1 X-7.662 Y-6.654
G1 X-7.662 Y-6.654
G1 X-7.560 Y-6.733
G1 X-7.474 Y-6.759
G0 X-7.447 Y-6.756
G0 X-7.353 Y-6.699
G0 X-5.470 Y-4.985
G1 X-5.440 Y-4.959
G1 X-5.368 Y-4.880
G1 X-5.350 Y-4.827
G1 X-5.357 Y-4.741
G1 X-5.414 Y-4.632
G1 X-5.414 Y-4.632
G1 X-5.620 Y-4.414
G1 X-5.722 Y-4.346
G1 X-5.947 Y-4.297
G1 X-6.286 Y-4.293
G1 X-6.647 Y-4.368
G1 X-6.989 Y-4.508
G1 X-7.188 Y-4.617
G1 X-7.365 Y-4.737
G1 X-7.560 Y-4.898
G1 X-7.782 Y-5.124
G1 X-7.966 Y-5.368
G1 X-8.109 Y-5.643
G1 X-8.173 Y-5.865
G1 X-8.173 Y-5.921
G1 X-8.162 Y-5.977
G1 X-7.925 Y-6.316
G1 X-7.925 Y-6.316
G1 X-7.823 Y-6.395
G1 X-7.737 Y-6.421
G0 X-7.711 Y-6.421
G0 X-7.617 Y-6.361
G0 X-5.718 Y-4.703
G1 X-5.688 Y-4.677
G1 X-5.613 Y-4.602
G1 X-5.586 Y-4.549
G1 X-5.594 Y-4.432
G1 X-5.628 Y-4.346
G1 X-5.628 Y-4.346
G1 X-5.786 Y-4.162
G1 X-5.880 Y-4.090
G1 X-6.045 Y-4.034
G1 X-6.327 Y-3.996
G1 X-6.440 Y-3.996
G1 X-6.805 Y-4.056
G1 X-7.154 Y-4.177
G1 X-7.357 Y-4.274
G1 X-7.534 Y-4.383
G1 X-7.737 Y-4.534
G1 X-7.970 Y-4.744
G1 X-8.173 Y-4.989
G1 X-8.331 Y-5.256
G1 X-8.376 Y-5.361
G1 X-8.417 Y-5.530
G1 X-8.414 Y-5.586
G1 X-8.391 Y-5.639
G1 X-8.192 Y-5.932
G1 X-8.192 Y-5.932
G1 X-8.098 Y-6.019
G1 X-8.015 Y-6.053
G0 X-7.989 Y-6.049
G0 X-7.887 Y-5.996
G0 X-5.895 Y-4.444
G1 X-5.861 Y-4.421
G1 X-5.786 Y-4.350
G1 X-5.756 Y-4.297
G1 X-5.756 Y-4.207
G1 X-5.797 Y-4.094
G1 X-5.797 Y-4.094
G1 X-5.947 Y-3.902
G1 X-6.083 Y-3.789
G1 X-6.248 Y-3.733
G1 X-6.586 Y-3.695
G1 X-6.643 Y-3.695
G1 X-7.008 Y-3.748
G1 X-7.361 Y-3.861
G1 X-7.564 Y-3.951
G1 X-7.763 Y-4.064
G1 X-7.977 Y-4.218
G1 X-8.199 Y-4.414
G1 X-8.398 Y-4.632
G1 X-8.575 Y-4.925
G1 X-8.635 Y-5.086
G1 X-8.647 Y-5.143
G1 X-8.643 Y-5.199
G1 X-8.440 Y-5.564
G1 X-8.440 Y-5.564
G1 X-8.353 Y-5.654
G1 X-8.274 Y-5.692
G0 X-8.244 Y-5.692
G0 X-8.147 Y-5.643
G0 X-6.109 Y-4.139
G1 X-6.075 Y-4.117
G1 X-5.996 Y-4.045
G1 X-5.966 Y-3.996
G1 X-5.959 Y-3.906
G1 X-5.992 Y-3.793
G1 X-5.992 Y-3.793
G1 X-6.135 Y-3.594
G1 X-6.222 Y-3.515
G1 X-6.327 Y-3.466
G1 X-6.665 Y-3.395
G1 X-6.778 Y-3.387
G1 X-7.147 Y-3.421
G1 X-7.496 Y-3.511
G1 X-7.707 Y-3.594
G1 X-7.891 Y-3.688
G1 X-8.105 Y-3.820
G1 X-8.368 Y-4.023
G1 X-8.586 Y-4.248
G1 X-8.782 Y-4.541
G1 X-8.850 Y-4.699
G1 X-8.861 Y-4.756
G1 X-8.857 Y-4.812
G1 X-8.782 Y-4.974
G1 X-8.662 Y-5.180
G1 X-8.662 Y-5.180
G1 X-8.575 Y-5.271
G1 X-8.496 Y-5.308
G0 X-8.466 Y-5.308
G0 X-8.365 Y-5.263
G0 X-6.267 Y-3.868
G1 X-6.233 Y-3.846
G1 X-6.150 Y-3.782
G1 X-6.117 Y-3.729
G1 X-6.105 Y-3.643
G1 X-6.135 Y-3.530
G1 X-6.135 Y-3.530
G1 X-6.271 Y-3.327
G1 X-6.357 Y-3.241
G1 X-6.515 Y-3.162
G1 X-6.797 Y-3.090
G1 X-6.910 Y-3.075
G1 X-7.278 Y-3.090
G1 X-7.639 Y-3.165
G1 X-7.861 Y-3.241
G1 X-8.056 Y-3.327
G1 X-8.286 Y-3.459
G1 X-8.530 Y-3.635
G1 X-8.741 Y-3.823
G1 X-8.921 Y-4.041
G1 X-9.034 Y-4.244
G1 X-9.053 Y-4.297
G1 X-9.060 Y-4.353
G1 X-9.056 Y-4.410
G1 X-9.015 Y-4.519
G1 X-8.880 Y-4.782
G1 X-8.876 Y-4.782
G1 X-8.793 Y-4.876
G1 X-8.714 Y-4.921
G0 X-8.688 Y-4.921
G0 X-8.583 Y-4.883
G0 X-6.410 Y-3.594
G1 X-6.372 Y-3.575
G1 X-6.286 Y-3.511
G1 X-6.252 Y-3.462
G1 X-6.241 Y-3.376
G1 X-6.274 Y-3.263
G1 X-6.274 Y-3.263
G1 X-6.429 Y-3.004
G1 X-6.515 Y-2.921
G1 X-6.789 Y-2.808
G1 X-7.015 Y-2.759
G1 X-7.383 Y-2.752
G1 X-7.748 Y-2.808
G1 X-7.962 Y-2.868
G1 X-8.154 Y-2.944
G1 X-8.380 Y-3.056
G1 X-8.643 Y-3.222
G1 X-8.898 Y-3.425
G1 X-9.128 Y-3.684
G1 X-9.233 Y-3.887
G1 X-9.241 Y-3.944
G1 X-9.237 Y-4.000
G1 X-9.075 Y-4.380
G1 X-9.075 Y-4.380
G1 X-9.000 Y-4.477
G1 X-8.929 Y-4.523
G0 X-8.902 Y-4.526
G0 X-8.793 Y-4.492
G0 X-6.556 Y-3.312
G1 X-6.519 Y-3.297
G1 X-6.429 Y-3.241
G1 X-6.395 Y-3.192
G1 X-6.376 Y-3.105
G1 X-6.395 Y-2.989
G1 X-6.395 Y-2.989
G1 X-6.500 Y-2.771
G1 X-6.571 Y-2.673
G1 X-6.662 Y-2.598
G1 X-6.823 Y-2.519
G1 X-7.162 Y-2.429
G1 X-7.530 Y-2.414
G1 X-7.898 Y-2.459
G1 X-8.117 Y-2.515
G1 X-8.305 Y-2.583
G1 X-8.534 Y-2.680
G1 X-8.850 Y-2.868
G1 X-9.165 Y-3.139
G1 X-9.308 Y-3.316
G1 X-9.395 Y-3.462
G1 X-9.402 Y-3.575
G1 X-9.271 Y-3.914
G1 X-9.271 Y-3.914
G1 X-9.199 Y-4.011
G1 X-9.124 Y-4.060
G0 X-9.098 Y-4.064
G0 X-8.989 Y-4.038
G0 X-6.695 Y-2.970
G1 X-6.658 Y-2.955
G1 X-6.568 Y-2.902
G1 X-6.530 Y-2.857
G1 X-6.511 Y-2.771
G1 X-6.530 Y-2.654
G1 X-6.530 Y-2.654
G1 X-6.647 Y-2.436
G1 X-6.722 Y-2.342
G1 X-6.872 Y-2.241
G1 X-7.094 Y-2.150
G1 X-7.263 Y-2.105
G1 X-7.632 Y-2.075
G1 X-8.000 Y-2.105
G1 X-8.222 Y-2.150
G1 X-8.429 Y-2.211
G1 X-8.669 Y-2.312
G1 X-8.925 Y-2.447
G1 X-9.177 Y-2.620
G1 X-9.383 Y-2.816
G1 X-9.519 Y-3.004
G1 X-9.541 Y-3.056
G1 X-9.545 Y-3.113
G1 X-9.421 Y-3.508
G1 X-9.421 Y-3.508
G1 X-9.353 Y-3.613
G1 X-9.286 Y-3.665
G0 X-9.259 Y-3.669
G0 X-9.150 Y-3.647
G0 X-6.823 Y-2.684
G1 X-6.789 Y-2.665
G1 X-6.692 Y-2.620
G1 X-6.650 Y-2.575
G1 X-6.624 Y-2.492
G1 X-6.635 Y-2.376
G1 X-6.635 Y-2.376
G1 X-6.726 Y-2.154
G1 X-6.789 Y-2.053
G1 X-6.831 Y-2.008
G1 X-7.086 Y-1.857
G1 X-7.312 Y-1.782
G1 X-7.677 Y-1.726
G1 X-8.045 Y-1.733
G1 X-8.274 Y-1.771
G1 X-8.470 Y-1.820
G1 X-8.718 Y-1.902
G1 X-9.026 Y-2.045
G1 X-9.342 Y-2.256
G1 X-9.553 Y-2.455
G1 X-9.650 Y-2.594
G1 X-9.673 Y-2.707
G1 X-9.575 Y-3.045
G1 X-9.575 Y-3.045
G1 X-9.508 Y-3.150
G1 X-9.440 Y-3.203
G0 X-9.414 Y-3.211
G0 X-9.301 Y-3.192
G0 X-6.917 Y-2.383
G1 X-6.880 Y-2.372
G1 X-6.786 Y-2.331
G1 X-6.744 Y-2.289
G1 X-6.714 Y-2.207
G1 X-6.726 Y-2.090
G1 X-6.726 Y-2.090
G1 X-6.801 Y-1.857
G1 X-6.857 Y-1.748
G1 X-6.936 Y-1.658
G1 X-7.083 Y-1.556
G1 X-7.353 Y-1.447
G1 X-7.410 Y-1.432
G1 X-7.778 Y-1.376
G1 X-8.147 Y-1.376
G1 X-8.421 Y-1.410
G1 X-8.650 Y-1.462
G1 X-8.883 Y-1.538
G1 X-9.165 Y-1.665
G1 X-9.519 Y-1.887
G1 X-9.680 Y-2.053
G1 X-9.748 Y-2.143
G1 X-9.771 Y-2.195
G1 X-9.782 Y-2.252
G1 X-9.692 Y-2.647
G1 X-9.692 Y-2.647
G1 X-9.632 Y-2.752
G1 X-9.564 Y-2.812
G0 X-9.538 Y-2.820
G0 X-9.425 Y-2.801
G0 X-7.023 Y-2.034
G1 X-6.985 Y-2.019
G1 X-6.887 Y-1.981
G1 X-6.842 Y-1.940
G1 X-6.812 Y-1.857
G1 X-6.816 Y-1.741
G1 X-6.816 Y-1.741
G1 X-6.891 Y-1.504
G1 X-6.951 Y-1.402
G1 X-7.094 Y-1.293
G1 X-7.305 Y-1.192
G1 X-7.774 Y-1.056
G1 X-8.143 Y-1.026
G1 X-8.425 Y-1.041
G1 X-8.639 Y-1.079
G1 X-8.853 Y-1.132
G1 X-9.139 Y-1.229
G1 X-9.444 Y-1.383
G1 X-9.669 Y-1.545
G1 X-9.827 Y-1.711
G1 X-9.861 Y-1.756
G1 X-9.872 Y-1.812
G1 X-9.868 Y-1.868
G1 X-9.793 Y-2.207
G1 X-9.793 Y-2.207
G1 X-9.741 Y-2.316
G1 X-9.677 Y-2.376
G0 X-9.650 Y-2.387
G0 X-9.538 Y-2.376
G0 X-7.102 Y-1.729
G1 X-7.060 Y-1.722
G1 X-6.962 Y-1.684
G1 X-6.917 Y-1.647
G1 X-6.880 Y-1.564
G1 X-6.876 Y-1.447
G1 X-6.876 Y-1.447
G1 X-6.947 Y-1.214
G1 X-7.008 Y-1.113
G1 X-7.199 Y-0.966
G1 X-7.466 Y-0.838
G1 X-7.820 Y-0.726
G1 X-8.188 Y-0.677
G1 X-8.470 Y-0.680
G1 X-8.688 Y-0.707
G1 X-8.906 Y-0.752
G1 X-9.188 Y-0.838
G1 X-9.489 Y-0.974
G1 X-9.763 Y-1.165
G1 X-9.914 Y-1.338
G1 X-9.944 Y-1.387
G1 X-9.974 Y-1.500
G1 X-9.898 Y-1.726
G1 X-9.887 Y-1.782
G1 X-9.887 Y-1.782
G1 X-9.835 Y-1.891
G1 X-9.771 Y-1.955
G0 X-9.744 Y-1.962
G0 X-9.632 Y-1.959
G0 X-7.162 Y-1.474
G1 X-7.120 Y-1.466
G1 X-7.019 Y-1.440
G1 X-6.970 Y-1.402
G1 X-6.929 Y-1.327
G1 X-6.917 Y-1.211
G1 X-6.917 Y-1.211
G1 X-6.974 Y-0.974
G1 X-7.026 Y-0.865
G1 X-7.105 Y-0.778
G1 X-7.398 Y-0.575
G1 X-7.504 Y-0.523
G1 X-7.850 Y-0.391
G1 X-8.214 Y-0.327
G1 X-8.470 Y-0.320
G1 X-8.669 Y-0.331
G1 X-8.902 Y-0.365
G1 X-9.192 Y-0.440
G1 X-9.477 Y-0.553
G1 X-9.759 Y-0.726
G1 X-9.925 Y-0.883
G1 X-9.962 Y-0.929
G1 X-9.985 Y-0.981
G1 X-9.996 Y-1.038
G1 X-9.977 Y-1.376
G1 X-9.977 Y-1.376
G1 X-9.944 Y-1.492
G1 X-9.895 Y-1.560
G0 X-9.868 Y-1.571
G0 X-9.759 Y-1.575
G0 X-7.199 Y-1.169
G1 X-7.162 Y-1.165
G1 X-7.056 Y-1.139
G1 X-7.008 Y-1.105
G1 X-6.966 Y-1.030
G1 X-6.955 Y-0.914
G1 X-6.955 Y-0.914
G1 X-7.011 Y-0.673
G1 X-7.060 Y-0.564
G1 X-7.094 Y-0.515
G1 X-7.274 Y-0.357
G1 X-7.530 Y-0.199
G1 X-7.868 Y-0.049
G1 X-8.229 Y0.026
G1 X-8.474 Y0.041
G1 X-8.677 Y0.038
G1 X-8.914 Y0.011
G1 X-9.222 Y-0.056
G1 X-9.485 Y-0.147
G1 X-9.729 Y-0.278
G1 X-9.947 Y-0.470
G1 X-9.985 Y-0.515
G1 X-10.008 Y-0.568
G1 X-10.015 Y-0.624
G1 X-9.996 Y-0.962
G1 X-9.996 Y-0.962
G1 X-9.962 Y-1.079
G1 X-9.914 Y-1.147
G0 X-9.887 Y-1.162
G0 X-9.778 Y-1.165
G0 X-7.241 Y-0.865
G1 X-7.203 Y-0.861
G1 X-7.098 Y-0.842
G1 X-7.049 Y-0.808
G1 X-7.008 Y-0.733
G1 X-6.996 Y-0.617
G1 X-6.996 Y-0.617
G1 X-7.041 Y-0.376
G1 X-7.086 Y-0.263
G1 X-7.203 Y-0.128
G1 X-7.429 Y0.056
G1 X-7.526 Y0.117
G1 X-7.861 Y0.274
G1 X-8.218 Y0.372
G1 X-8.436 Y0.398
G1 X-8.632 Y0.406
G1 X-8.876 Y0.391
G1 X-9.184 Y0.342
G1 X-9.485 Y0.244
G1 X-9.744 Y0.113
G1 X-9.970 Y-0.079
G1 X-10.004 Y-0.128
G1 X-10.026 Y-0.180
G1 X-10.019 Y-0.519
G1 X-10.019 Y-0.519
G1 X-9.985 Y-0.635
G1 X-9.936 Y-0.703
G0 X-9.910 Y-0.718
G0 X-9.797 Y-0.729
G0 X-7.286 Y-0.549
G1 X-7.248 Y-0.549
G1 X-7.143 Y-0.534
G1 X-7.090 Y-0.504
G1 X-7.041 Y-0.432
G1 X-7.015 Y-0.316
G1 X-7.015 Y-0.316
G1 X-7.068 Y-0.015
G1 X-7.086 Y0.038
G1 X-7.229 Y0.218
G1 X-7.500 Y0.436
G1 X-7.827 Y0.609
G1 X-8.180 Y0.718
G1 X-8.402 Y0.752
G1 X-8.594 Y0.767
G1 X-8.846 Y0.763
G1 X-9.147 Y0.726
G1 X-9.444 Y0.643
G1 X-9.658 Y0.549
G1 X-9.898 Y0.380
G1 X-9.985 Y0.297
G1 X-10.015 Y0.244
G1 X-10.030 Y0.184
G1 X-10.030 Y-0.165
G1 X-10.030 Y-0.165
G1 X-10.000 Y-0.282
G1 X-9.947 Y-0.353
G0 X-9.925 Y-0.368
G0 X-9.812 Y-0.380
G0 X-7.297 Y-0.244
G1 X-7.259 Y-0.244
G1 X-7.154 Y-0.229
G1 X-7.102 Y-0.199
G1 X-7.049 Y-0.128
G1 X-7.023 Y-0.015
G1 X-7.023 Y-0.015
G1 X-7.038 Y0.211
G1 X-7.064 Y0.323
G1 X-7.086 Y0.376
G1 X-7.229 Y0.556
G1 X-7.402 Y0.711
G1 X-7.496 Y0.778
G1 X-7.820 Y0.959
G1 X-8.169 Y1.075
G1 X-8.387 Y1.117
G1 X-8.586 Y1.135
G1 X-8.838 Y1.135
G1 X-9.135 Y1.102
G1 X-9.417 Y1.041
G1 X-9.677 Y0.932
G1 X-9.917 Y0.759
G1 X-9.992 Y0.669
G1 X-10.015 Y0.613
G1 X-10.030 Y0.252
G1 X-10.030 Y0.252
G1 X-10.008 Y0.124
G1 X-9.962 Y0.045
G0 X-9.940 Y0.030
G0 X-9.827 Y0.011
G0 X-7.308 Y0.041
G1 X-7.271 Y0.045
G1 X-7.165 Y0.053
G1 X-7.109 Y0.083
G1 X-7.053 Y0.154
G1 X-7.019 Y0.278
G1 X-7.019 Y0.278
G1 X-7.019 Y0.504
G1 X-7.038 Y0.617
G1 X-7.083 Y0.726
G1 X-7.267 Y0.944
G1 X-7.444 Y1.090
G1 X-7.756 Y1.286
G1 X-8.102 Y1.417
G1 X-8.316 Y1.466
G1 X-8.515 Y1.496
G1 X-8.771 Y1.515
G1 X-9.105 Y1.496
G1 X-9.391 Y1.429
G1 X-9.590 Y1.361
G1 X-9.838 Y1.199
G1 X-9.929 Y1.120
G1 X-9.962 Y1.068
G1 X-9.985 Y1.011
G1 X-10.015 Y0.650
G1 X-10.015 Y0.650
G1 X-9.992 Y0.523
G1 X-9.947 Y0.444
G0 X-9.925 Y0.429
G0 X-9.812 Y0.406
G0 X-7.289 Y0.350
G1 X-7.252 Y0.350
G1 X-7.147 Y0.357
G1 X-7.090 Y0.383
G1 X-7.034 Y0.455
G1 X-7.000 Y0.579
G1 X-7.000 Y0.579
G1 X-6.992 Y0.861
G1 X-7.015 Y0.974
G1 X-7.135 Y1.169
G1 X-7.293 Y1.335
G1 X-7.383 Y1.410
G1 X-7.692 Y1.617
G1 X-8.030 Y1.767
G1 X-8.263 Y1.831
G1 X-8.451 Y1.868
G1 X-8.714 Y1.891
G1 X-9.000 Y1.883
G1 X-9.289 Y1.835
G1 X-9.571 Y1.737
G1 X-9.823 Y1.583
G1 X-9.868 Y1.545
G1 X-9.906 Y1.496
G1 X-9.932 Y1.444
G1 X-9.977 Y1.083
G1 X-9.977 Y1.083
G1 X-9.962 Y0.955
G1 X-9.921 Y0.876
G0 X-9.898 Y0.857
G0 X-9.789 Y0.831
G0 X-7.271 Y0.662
G1 X-7.233 Y0.662
G1 X-7.124 Y0.662
G1 X-7.068 Y0.688
G1 X-7.008 Y0.756
G1 X-6.966 Y0.876
G1 X-6.966 Y0.876
G1 X-6.947 Y1.102
G1 X-6.970 Y1.271
G1 X-7.015 Y1.376
G1 X-7.188 Y1.605
G1 X-7.357 Y1.763
G1 X-7.658 Y1.977
G1 X-7.992 Y2.132
G1 X-8.222 Y2.199
G1 X-8.425 Y2.244
G1 X-8.692 Y2.271
G1 X-8.966 Y2.267
G1 X-9.237 Y2.222
G1 X-9.451 Y2.165
G1 X-9.711 Y2.030
G1 X-9.805 Y1.959
G1 X-9.842 Y1.910
G1 X-9.868 Y1.853
G1 X-9.925 Y1.492
G1 X-9.925 Y1.492
G1 X-9.914 Y1.365
G1 X-9.876 Y1.282
G0 X-9.853 Y1.263
G0 X-9.744 Y1.233
G0 X-7.226 Y1.023
G1 X-7.188 Y1.023
G1 X-7.079 Y1.019
G1 X-7.023 Y1.045
G1 X-6.962 Y1.113
G1 X-6.921 Y1.233
G1 X-6.921 Y1.233
G1 X-6.906 Y1.515
G1 X-6.929 Y1.628
G1 X-7.079 Y1.872
G1 X-7.274 Y2.086
G1 X-7.568 Y2.312
G1 X-7.898 Y2.481
G1 X-8.113 Y2.556
G1 X-8.308 Y2.605
G1 X-8.564 Y2.639
G1 X-8.842 Y2.647
G1 X-9.124 Y2.624
G1 X-9.391 Y2.560
G1 X-9.650 Y2.429
G1 X-9.741 Y2.353
G1 X-9.774 Y2.305
G1 X-9.853 Y1.944
G1 X-9.853 Y1.944
G1 X-9.850 Y1.816
G1 X-9.816 Y1.729
G0 X-9.797 Y1.711
G0 X-9.692 Y1.677
G0 X-7.192 Y1.342
G1 X-7.150 Y1.338
G1 X-7.045 Y1.331
G1 X-6.989 Y1.350
G1 X-6.921 Y1.414
G1 X-6.868 Y1.530
G1 X-6.868 Y1.530
G1 X-6.838 Y1.756
G1 X-6.842 Y1.868
G1 X-6.853 Y1.925
G1 X-6.989 Y2.180
G1 X-7.177 Y2.398
G1 X-7.459 Y2.635
G1 X-7.782 Y2.816
G1 X-7.992 Y2.895
G1 X-8.177 Y2.951
G1 X-8.429 Y3.000
G1 X-8.737 Y3.026
G1 X-9.041 Y3.008
G1 X-9.323 Y2.940
G1 X-9.594 Y2.808
G1 X-9.669 Y2.718
G1 X-9.767 Y2.357
G1 X-9.767 Y2.357
G1 X-9.763 Y2.229
G1 X-9.729 Y2.143
G0 X-9.711 Y2.124
G0 X-9.605 Y2.083
G0 X-7.135 Y1.654
G1 X-7.094 Y1.650
G1 X-6.989 Y1.639
G1 X-6.929 Y1.658
G1 X-6.861 Y1.714
G1 X-6.801 Y1.823
G1 X-6.801 Y1.823
G1 X-6.756 Y2.049
G1 X-6.756 Y2.218
G1 X-6.846 Y2.429
G1 X-7.056 Y2.703
G1 X-7.331 Y2.951
G1 X-7.647 Y3.147
G1 X-7.853 Y3.237
G1 X-8.045 Y3.305
G1 X-8.308 Y3.365
G1 X-8.594 Y3.398
G1 X-8.876 Y3.395
G1 X-9.117 Y3.361
G1 X-9.391 Y3.259
G1 X-9.492 Y3.199
G1 X-9.534 Y3.158
G1 X-9.586 Y3.049
G1 X-9.665 Y2.748
G1 X-9.665 Y2.748
G1 X-9.669 Y2.620
G1 X-9.643 Y2.534
G0 X-9.624 Y2.515
G0 X-9.519 Y2.474
G0 X-7.045 Y2.000
G1 X-7.004 Y1.996
G1 X-6.898 Y1.981
G1 X-6.838 Y2.000
G1 X-6.767 Y2.056
G1 X-6.711 Y2.169
G1 X-6.711 Y2.169
G1 X-6.665 Y2.338
G1 X-6.654 Y2.451
G1 X-6.658 Y2.508
G1 X-6.714 Y2.669
G1 X-6.895 Y2.962
G1 X-7.195 Y3.267
G1 X-7.504 Y3.474
G1 X-7.711 Y3.575
G1 X-7.902 Y3.650
G1 X-8.154 Y3.722
G1 X-8.440 Y3.767
G1 X-8.722 Y3.782
G1 X-9.000 Y3.748
G1 X-9.226 Y3.669
G1 X-9.331 Y3.617
G1 X-9.376 Y3.579
G1 X-9.414 Y3.534
G1 X-9.538 Y3.188
G1 X-9.538 Y3.188
G1 X-9.553 Y3.060
G1 X-9.530 Y2.974
G0 X-9.511 Y2.951
G0 X-9.410 Y2.906
G0 X-6.977 Y2.259
G1 X-6.936 Y2.248
G1 X-6.835 Y2.229
G1 X-6.774 Y2.241
G1 X-6.699 Y2.293
G1 X-6.628 Y2.395
G1 X-6.628 Y2.395
G1 X-6.545 Y2.677
G1 X-6.541 Y2.846
G1 X-6.628 Y3.060
G1 X-6.786 Y3.301
G1 X-7.086 Y3.605
G1 X-7.387 Y3.820
G1 X-7.613 Y3.936
G1 X-7.812 Y4.015
G1 X-8.034 Y4.083
G1 X-8.335 Y4.139
G1 X-8.639 Y4.158
G1 X-8.914 Y4.128
G1 X-9.188 Y4.015
G1 X-9.271 Y3.929
G1 X-9.395 Y3.586
G1 X-9.395 Y3.586
G1 X-9.410 Y3.459
G1 X-9.387 Y3.372
G0 X-9.368 Y3.350
G0 X-9.271 Y3.301
G0 X-6.853 Y2.602
G1 X-6.812 Y2.590
G1 X-6.711 Y2.571
G1 X-6.650 Y2.579
G1 X-6.575 Y2.632
G1 X-6.504 Y2.733
G1 X-6.504 Y2.733
G1 X-6.429 Y3.015
G1 X-6.429 Y3.128
G1 X-6.504 Y3.346
G1 X-6.650 Y3.598
G1 X-6.891 Y3.880
G1 X-7.180 Y4.113
G1 X-7.376 Y4.233
G1 X-7.560 Y4.320
G1 X-7.778 Y4.402
G1 X-8.068 Y4.481
G1 X-8.398 Y4.530
G1 X-8.680 Y4.519
G1 X-8.906 Y4.462
G1 X-9.015 Y4.417
G1 X-9.060 Y4.380
G1 X-9.098 Y4.331
G1 X-9.244 Y3.992
G1 X-9.244 Y3.992
G1 X-9.267 Y3.865
G1 X-9.259 Y3.805
G1 X-9.248 Y3.778
G0 X-9.233 Y3.756
G0 X-9.135 Y3.699
G0 X-6.744 Y2.891
G1 X-6.707 Y2.880
G1 X-6.602 Y2.853
G1 X-6.541 Y2.861
G1 X-6.466 Y2.910
G1 X-6.391 Y3.011
G1 X-6.391 Y3.011
G1 X-6.297 Y3.293
G1 X-6.289 Y3.406
G1 X-6.353 Y3.628
G1 X-6.515 Y3.932
G1 X-6.752 Y4.214
G1 X-7.034 Y4.447
G1 X-7.383 Y4.650
G1 X-7.647 Y4.763
G1 X-7.974 Y4.857
G1 X-8.271 Y4.895
G1 X-8.553 Y4.876
G1 X-8.778 Y4.820
G1 X-8.831 Y4.797
G1 X-8.876 Y4.759
G1 X-8.914 Y4.711
G1 X-9.075 Y4.383
G1 X-9.075 Y4.383
G1 X-9.098 Y4.256
G1 X-9.079 Y4.169
G0 X-9.064 Y4.147
G0 X-8.966 Y4.086
G0 X-6.624 Y3.180
G1 X-6.586 Y3.169
G1 X-6.485 Y3.135
G1 X-6.425 Y3.139
G1 X-6.346 Y3.184
G1 X-6.267 Y3.282
G1 X-6.267 Y3.282
G1 X-6.177 Y3.500
G1 X-6.150 Y3.613
G1 X-6.150 Y3.726
G1 X-6.233 Y4.000
G1 X-6.338 Y4.203
G1 X-6.560 Y4.496
G1 X-6.831 Y4.748
G1 X-7.015 Y4.880
G1 X-7.192 Y4.981
G1 X-7.425 Y5.090
G1 X-7.711 Y5.184
G1 X-8.000 Y5.237
G1 X-8.244 Y5.252
G1 X-8.470 Y5.226
G1 X-8.583 Y5.195
G1 X-8.635 Y5.169
G1 X-8.680 Y5.132
G1 X-8.887 Y4.763
G1 X-8.887 Y4.763
G1 X-8.914 Y4.635
G1 X-8.902 Y4.549
G0 X-8.887 Y4.526
G0 X-8.793 Y4.462
G0 X-6.485 Y3.459
G1 X-6.447 Y3.444
G1 X-6.350 Y3.410
G1 X-6.289 Y3.410
G1 X-6.211 Y3.455
G1 X-6.132 Y3.553
G1 X-6.132 Y3.553
G1 X-6.030 Y3.767
G1 X-5.996 Y3.880
G1 X-5.989 Y3.936
G1 X-6.000 Y4.049
G1 X-6.045 Y4.218
G1 X-6.162 Y4.481
G1 X-6.368 Y4.786
G1 X-6.628 Y5.049
G1 X-6.797 Y5.180
G1 X-6.966 Y5.289
G1 X-7.188 Y5.402
G1 X-7.474 Y5.511
G1 X-7.767 Y5.590
G1 X-8.049 Y5.613
G1 X-8.274 Y5.583
G1 X-8.387 Y5.553
G1 X-8.489 Y5.485
G1 X-8.669 Y5.169
G1 X-8.669 Y5.169
G1 X-8.703 Y5.045
G1 X-8.695 Y4.959
G0 X-8.684 Y4.932
G0 X-8.594 Y4.865
G0 X-6.342 Y3.733
G1 X-6.305 Y3.718
G1 X-6.211 Y3.677
G1 X-6.150 Y3.680
G1 X-6.071 Y3.718
G1 X-5.985 Y3.812
G1 X-5.985 Y3.812
G1 X-5.868 Y4.019
G1 X-5.827 Y4.132
G1 X-5.808 Y4.244
G1 X-5.850 Y4.470
G1 X-5.951 Y4.741
G1 X-6.147 Y5.056
G1 X-6.395 Y5.331
G1 X-6.560 Y5.470
G1 X-6.726 Y5.583
G1 X-6.936 Y5.707
G1 X-7.237 Y5.842
G1 X-7.538 Y5.925
G1 X-7.771 Y5.955
G1 X-8.053 Y5.940
G1 X-8.165 Y5.914
G1 X-8.214 Y5.883
G1 X-8.459 Y5.538
G1 X-8.459 Y5.538
G1 X-8.500 Y5.414
G1 X-8.496 Y5.323
G0 X-8.481 Y5.301
G0 X-8.395 Y5.229
G0 X-6.188 Y4.019
G1 X-6.154 Y3.996
G1 X-6.056 Y3.955
G1 X-5.996 Y3.947
G1 X-5.910 Y3.981
G1 X-5.820 Y4.064
G1 X-5.820 Y4.064
G1 X-5.699 Y4.267
G1 X-5.635 Y4.432
G1 X-5.624 Y4.489
G1 X-5.628 Y4.602
G1 X-5.718 Y4.940
G1 X-5.763 Y5.045
G1 X-5.955 Y5.361
G1 X-6.195 Y5.639
G1 X-6.376 Y5.797
G1 X-6.541 Y5.921
G1 X-6.767 Y6.056
G1 X-7.034 Y6.177
G1 X-7.312 Y6.259
G1 X-7.545 Y6.305
G1 X-7.771 Y6.305
G1 X-7.883 Y6.289
G1 X-7.985 Y6.229
G1 X-8.154 Y5.985
G1 X-8.154 Y5.985
G1 X-8.199 Y5.865
G1 X-8.199 Y5.774
G0 X-8.188 Y5.752
G0 X-8.105 Y5.673
G0 X-5.977 Y4.320
G1 X-5.947 Y4.301
G1 X-5.853 Y4.248
G1 X-5.793 Y4.244
G1 X-5.711 Y4.274
G1 X-5.620 Y4.365
G1 X-5.620 Y4.365
G1 X-5.466 Y4.617
G1 X-5.429 Y4.729
G1 X-5.436 Y4.955
G1 X-5.534 Y5.286
G1 X-5.711 Y5.613
G1 X-5.940 Y5.902
G1 X-6.102 Y6.060
G1 X-6.263 Y6.195
G1 X-6.485 Y6.342
G1 X-6.741 Y6.474
G1 X-7.011 Y6.579
G1 X-7.282 Y6.643
G1 X-7.508 Y6.647
G1 X-7.620 Y6.632
G1 X-7.673 Y6.609
G1 X-7.722 Y6.575
G1 X-7.944 Y6.293
G1 X-7.944 Y6.293
G1 X-7.989 Y6.173
G1 X-7.989 Y6.083
G0 X-7.977 Y6.060
G0 X-7.895 Y5.981
G0 X-5.771 Y4.628
G1 X-5.737 Y4.609
G1 X-5.647 Y4.556
G1 X-5.586 Y4.549
G1 X-5.474 Y4.590
G1 X-5.402 Y4.650
G1 X-5.402 Y4.650
G1 X-5.248 Y4.902
G1 X-5.218 Y5.015
G1 X-5.218 Y5.184
G1 X-5.263 Y5.410
G1 X-5.301 Y5.523
G1 X-5.462 Y5.857
G1 X-5.673 Y6.162
G1 X-5.842 Y6.342
G1 X-5.996 Y6.474
G1 X-6.177 Y6.609
G1 X-6.451 Y6.774
G1 X-6.748 Y6.906
G1 X-7.079 Y6.981
G1 X-7.305 Y6.981
G1 X-7.414 Y6.936
G1 X-7.609 Y6.714
G1 X-7.609 Y6.714
G1 X-7.665 Y6.598
G1 X-7.673 Y6.508
G0 X-7.662 Y6.481
G0 X-7.586 Y6.398
G0 X-5.579 Y4.883
G1 X-5.549 Y4.857
G1 X-5.459 Y4.801
G1 X-5.398 Y4.789
G1 X-5.312 Y4.808
G1 X-5.214 Y4.883
G1 X-5.214 Y4.883
G1 X-5.045 Y5.128
G1 X-5.004 Y5.237
G1 X-5.004 Y5.519
G1 X-5.071 Y5.801
G1 X-5.229 Y6.135
G1 X-5.436 Y6.444
G1 X-5.609 Y6.639
G1 X-5.771 Y6.797
G1 X-5.996 Y6.962
G1 X-6.214 Y7.094
G1 X-6.477 Y7.214
G1 X-6.741 Y7.293
G1 X-7.023 Y7.308
G1 X-7.079 Y7.286
G1 X-7.293 Y7.083
G1 X-7.372 Y6.992
G1 X-7.372 Y6.992
G1 X-7.432 Y6.880
G1 X-7.440 Y6.789
G0 X-7.432 Y6.763
G0 X-7.357 Y6.680
G0 X-5.383 Y5.109
G1 X-5.350 Y5.086
G1 X-5.263 Y5.026
G1 X-5.203 Y5.015
G1 X-5.117 Y5.034
G1 X-5.019 Y5.109
G1 X-5.019 Y5.109
G1 X-4.835 Y5.342
G1 X-4.789 Y5.451
G1 X-4.774 Y5.677
G1 X-4.801 Y5.902
G1 X-4.827 Y6.015
G1 X-4.959 Y6.361
G1 X-5.150 Y6.677
G1 X-5.293 Y6.857
G1 X-5.429 Y7.004
G1 X-5.624 Y7.177
G1 X-5.880 Y7.357
G1 X-6.150 Y7.496
G1 X-6.380 Y7.575
G1 X-6.662 Y7.613
G1 X-6.718 Y7.613
G1 X-6.774 Y7.594
G1 X-6.823 Y7.564
G1 X-7.071 Y7.312
G1 X-7.071 Y7.312
G1 X-7.135 Y7.203
G1 X-7.150 Y7.113
G0 X-7.147 Y7.086
G0 X-7.075 Y7.000
G0 X-5.173 Y5.350
G1 X-5.143 Y5.323
G1 X-5.060 Y5.259
G1 X-5.000 Y5.244
G1 X-4.914 Y5.259
G1 X-4.808 Y5.327
G1 X-4.808 Y5.327
G1 X-4.650 Y5.504
G1 X-4.586 Y5.605
G1 X-4.564 Y5.662
G1 X-4.530 Y5.944
G1 X-4.564 Y6.226
G1 X-4.680 Y6.575
G1 X-4.853 Y6.902
G1 X-4.985 Y7.083
G1 X-5.120 Y7.237
G1 X-5.297 Y7.414
G1 X-5.556 Y7.613
G1 X-5.816 Y7.759
G1 X-6.038 Y7.850
G1 X-6.320 Y7.910
G1 X-6.376 Y7.914
G1 X-6.432 Y7.902
G1 X-6.485 Y7.876
G1 X-6.752 Y7.628
G1 X-6.752 Y7.628
G1 X-6.823 Y7.523
G1 X-6.842 Y7.462
G1 X-6.842 Y7.436
G0 X-6.838 Y7.410
G0 X-6.771 Y7.316
G0 X-4.951 Y5.575
G1 X-4.925 Y5.549
G1 X-4.842 Y5.481
G1 X-4.786 Y5.459
G1 X-4.699 Y5.470
G1 X-4.594 Y5.534
G1 X-4.594 Y5.534
G1 X-4.383 Y5.748
G1 X-4.320 Y5.850
G1 X-4.267 Y6.132
G1 X-4.192 Y6.293
G1 X-4.086 Y6.440
G1 X-3.865 Y6.643
G1 X-3.703 Y6.733
G1 X-3.470 Y6.808
G1 X-3.049 Y6.853
G1 X-2.688 Y6.853
G1 X-2.568 Y6.868
G1 X-1.940 Y7.117
G1 X-1.820 Y7.150
G1 X-1.820 Y7.150
G1 X-1.759 Y7.169
G1 X-1.703 Y7.203
G1 X-1.654 Y7.244
G1 X-1.617 Y7.293
G0 Z5.000
G0 X-1.617 Y7.293
G0 X-4.553 Y5.707
G1 Z-3.000
G1 X-4.553 Y5.707
G1 X-4.492 Y5.707
G1 X-4.432 Y5.718
G1 X-4.372 Y5.737
G1 X-4.320 Y5.767
G1 X-4.320 Y5.767
G1 X-3.541 Y6.342
G1 X-3.541 Y6.342
G1 X-3.489 Y6.380
G1 X-3.447 Y6.429
G1 X-3.414 Y6.481
G1 X-3.391 Y6.541
G0 Z5.000
G0 X-3.391 Y6.541
G0 X-1.229 Y10.289
G1 Z-3.000
G1 X-1.229 Y10.289
G1 X-1.289 Y10.320
G1 X-1.353 Y10.338
G1 X-1.417 Y10.346
G1 X-1.481 Y10.335
G1 X-1.481 Y10.335
G1 X-1.707 Y10.289
G1 X-1.872 Y10.222
G1 X-1.974 Y10.158
G1 X-2.143 Y9.985
G1 X-2.308 Y9.733
G1 X-2.361 Y9.624
G1 X-2.617 Y8.921
G1 X-2.838 Y8.620
G1 X-3.030 Y8.485
G1 X-3.248 Y8.383
G1 X-3.459 Y8.323
G1 X-3.744 Y8.271
G1 X-4.053 Y8.252
G1 X-4.320 Y8.259
G1 X-4.605 Y8.282
G1 X-5.511 Y8.383
G1 X-5.793 Y8.380
G1 X-5.906 Y8.346
G1 X-6.414 Y7.936
G1 X-6.414 Y7.936
G1 X-6.485 Y7.835
G1 X-6.504 Y7.782
G1 X-6.504 Y7.759
G0 X-6.496 Y7.741
G0 X-6.402 Y7.729
G0 X-3.199 Y8.015
G0 X-2.831 Y8.244
G0 X-2.293 Y8.861
G0 X-1.714 Y10.049
G1 X-1.699 Y10.079
G1 X-1.669 Y10.173
G1 X-1.673 Y10.195
G1 X-1.707 Y10.229
G1 X-1.827 Y10.252
G1 X-1.891 Y10.248
G1 X-1.891 Y10.248
G1 X-2.117 Y10.184
G1 X-2.274 Y10.105
G1 X-2.368 Y10.030
G1 X-2.669 Y9.737
G1 X-3.068 Y9.470
G1 X-3.617 Y9.244
G1 X-4.914 Y9.004
G1 X-5.075 Y8.929
G1 X-5.865 Y8.383
G1 X-5.865 Y8.383
G1 X-5.944 Y8.282
G1 X-5.970 Y8.207
G0 X-5.962 Y8.195
G0 X-5.872 Y8.199
G0 X-3.658 Y8.850
G0 X-2.722 Y9.226
G0 X-2.278 Y9.620
G0 X-2.075 Y9.977
G1 X-2.060 Y10.004
G1 X-2.019 Y10.086
G1 X-2.023 Y10.128
G1 X-2.056 Y10.154
G1 X-2.177 Y10.169
G1 X-2.241 Y10.162
G1 X-2.241 Y10.162
G1 X-3.421 Y9.771
G1 X-4.748 Y9.124
G1 X-4.898 Y9.034
G1 X-4.898 Y9.034
G1 X-4.989 Y8.947
G1 X-5.019 Y8.895
G1 X-5.026 Y8.868
G0 X-5.026 Y8.842
G0 X-4.970 Y8.748
G0 X-3.323 Y6.921
G1 X-3.297 Y6.891
G1 X-3.124 Y6.711
G1 X-3.038 Y6.673
G1 X-2.861 Y6.692
G1 X-2.861 Y6.692
G1 X-2.797 Y6.729
G1 X-2.451 Y6.887
G1 X-1.932 Y7.090
G1 X-1.353 Y7.259
G1 X-0.910 Y7.361
G1 X-0.207 Y7.459
G1 X0.244 Y7.496
G1 X0.575 Y7.500
G1 X0.940 Y7.485
G1 X1.387 Y7.447
G1 X1.846 Y7.376
G1 X2.508 Y7.226
G1 X2.940 Y7.090
G1 X3.575 Y6.842
G1 X3.914 Y6.677
G1 X4.338 Y6.444
G1 X4.684 Y6.222
G1 X5.308 Y5.756
G1 X5.812 Y5.289
G1 X6.102 Y4.985
G1 X6.331 Y4.714
G1 X6.602 Y4.353
G1 X6.981 Y3.767
G1 X7.165 Y3.429
G1 X7.357 Y3.023
G1 X7.489 Y2.699
G1 X7.703 Y2.056
G1 X7.801 Y1.699
G1 X7.921 Y1.026
G1 X7.989 Y0.316
G1 X8.000 Y-0.113
G1 X7.981 Y-0.466
G1 X7.914 Y-1.098
G1 X7.835 Y-1.553
G1 X7.669 Y-2.188
G1 X7.523 Y-2.628
G1 X7.278 Y-3.207
G1 X7.098 Y-3.553
G1 X6.722 Y-4.180
G1 X6.481 Y-4.519
G1 X6.241 Y-4.823
G1 X5.876 Y-5.226
G1 X5.218 Y-5.835
G1 X4.485 Y-6.350
G1 X4.169 Y-6.538
G1 X3.789 Y-6.737
G1 X3.406 Y-6.906
G1 X2.699 Y-7.169
G1 X2.342 Y-7.267
G1 X1.741 Y-7.391
G1 X1.598 Y-7.414
G1 X0.872 Y-7.489
G1 X0.496 Y-7.500
G1 X0.049 Y-7.489
G1 X-0.323 Y-7.455
G1 X-0.748 Y-7.398
G1 X-1.041 Y-7.342
G1 X-1.481 Y-7.233
G1 X-1.940 Y-7.094
G1 X-2.492 Y-6.876
G1 X-2.617 Y-6.820
G1 X-3.233 Y-6.500
G1 X-3.590 Y-6.282
G1 X-4.180 Y-5.857
G1 X-4.492 Y-5.594
G1 X-4.756 Y-5.350
G1 X-5.064 Y-5.023
G1 X-5.451 Y-4.553
G1 X-5.966 Y-3.793
G1 X-6.094 Y-3.564
G1 X-6.320 Y-3.105
G1 X-6.462 Y-2.767
G1 X-6.669 Y-2.180
G1 X-6.861 Y-1.421
G1 X-6.985 Y-0.477
G1 X-7.000 Y-0.023
G1 X-6.970 Y0.658
G1 X-6.850 Y1.511
G1 X-6.673 Y2.211
G1 X-6.429 Y2.865
G1 X-6.267 Y3.229
G1 X-6.098 Y3.560
G1 X-5.880 Y3.932
G1 X-5.466 Y4.538
G1 X-5.229 Y4.831
G1 X-4.929 Y5.169
G1 X-4.680 Y5.421
G1 X-4.380 Y5.688
G1 X-3.880 Y6.079
G1 X-3.756 Y6.165
G1 X-3.244 Y6.489
G1 X-2.865 Y6.695
G1 X-2.861 Y6.692
G1 X-2.861 Y6.692
G1 X-2.748 Y6.801
G1 X-2.726 Y6.853
G0 X-2.722 Y6.880
G0 X-2.759 Y6.989
G0 X-3.962 Y9.241
G1 X-3.981 Y9.271
G1 X-4.045 Y9.376
G1 X-4.094 Y9.406
G1 X-4.184 Y9.417
G1 X-4.308 Y9.395
G1 X-4.308 Y9.395
G1 X-4.763 Y9.147
G1 X-5.105 Y8.947
G1 X-5.647 Y8.583
G1 X-6.105 Y8.229
G1 X-6.485 Y7.910
G1 X-6.914 Y7.519
G1 X-7.323 Y7.090
G1 X-7.665 Y6.692
G1 X-7.966 Y6.316
G1 X-8.523 Y5.485
G1 X-8.846 Y4.906
G1 X-9.109 Y4.376
G1 X-9.316 Y3.887
G1 X-9.624 Y3.023
G1 X-9.805 Y2.327
G1 X-9.891 Y1.921
G1 X-9.992 Y1.226
G1 X-10.041 Y0.718
G1 X-10.060 Y0.335
G1 X-10.056 Y-0.346
G1 X-10.004 Y-1.455
G1 X-9.883 Y-1.906
G1 X-9.748 Y-2.523
G1 X-9.650 Y-2.902
G1 X-9.402 Y-3.658
G1 X-9.248 Y-4.049
G1 X-9.038 Y-4.530
G1 X-8.793 Y-5.008
G1 X-8.425 Y-5.639
G1 X-8.000 Y-6.259
G1 X-7.865 Y-6.444
G1 X-7.575 Y-6.801
G1 X-7.274 Y-7.147
G1 X-6.812 Y-7.613
G1 X-6.338 Y-8.045
G1 X-5.974 Y-8.342
G1 X-5.519 Y-8.673
G1 X-5.079 Y-8.966
G1 X-4.598 Y-9.248
G1 X-4.132 Y-9.489
G1 X-3.598 Y-9.733
G1 X-3.060 Y-9.940
G1 X-2.594 Y-10.094
G1 X-2.011 Y-10.256
G1 X-1.523 Y-10.365
G1 X-1.008 Y-10.455
G1 X-0.447 Y-10.523
G1 X0.113 Y-10.556
G1 X0.624 Y-10.560
G1 X1.211 Y-10.534
G1 X1.737 Y-10.481
G1 X2.233 Y-10.414
G1 X2.789 Y-10.308
G1 X3.098 Y-10.233
G1 X3.996 Y-9.962
G1 X4.628 Y-9.718
G1 X5.195 Y-9.459
G1 X5.857 Y-9.102
G1 X6.184 Y-8.902
G1 X7.147 Y-8.203
G1 X7.586 Y-7.823
G1 X7.970 Y-7.462
G1 X8.305 Y-7.113
G1 X8.699 Y-6.650
G1 X9.038 Y-6.214
G1 X9.335 Y-5.774
G1 X9.602 Y-5.353
G1 X9.835 Y-4.936
G1 X10.147 Y-4.286
G1 X10.323 Y-3.872
G1 X10.538 Y-3.282
G1 X10.805 Y-2.357
G1 X10.887 Y-2.162
G1 X11.056 Y-1.887
G1 X11.064 Y-1.842
G1 X11.056 Y1.887
G1 X11.049 Y1.910
G1 X10.917 Y2.109
G1 X10.823 Y2.301
G1 X10.767 Y2.466
G1 X10.545 Y3.256
G1 X10.308 Y3.910
G1 X10.060 Y4.470
G1 X9.831 Y4.936
G1 X9.489 Y5.526
G1 X9.237 Y5.929
G1 X9.041 Y6.211
G1 X8.590 Y6.786
G1 X8.241 Y7.180
G1 X7.831 Y7.598
G1 X7.451 Y7.951
G1 X6.989 Y8.335
G1 X6.184 Y8.902
G1 X5.639 Y9.222
G1 X5.147 Y9.485
G1 X4.669 Y9.703
G1 X3.887 Y9.996
G1 X3.053 Y10.244
G1 X2.688 Y10.327
G1 X2.211 Y10.421
G1 X1.538 Y10.508
G1 X0.992 Y10.549
G1 X0.492 Y10.560
G1 X-0.695 Y10.541
G1 X-0.778 Y10.526
G1 X-1.023 Y10.451
G1 X-1.748 Y10.312
G1 X-2.237 Y10.195
G1 X-3.105 Y9.921
G1 X-3.316 Y9.846
G1 X-3.756 Y9.658
G1 X-4.308 Y9.395
G1 X-4.308 Y9.395
G0 Z5.000
(Helix to depth: -4.000000)
G0 Z5.000
G0 X1.073 Y8.989 Z5.000
G0 X1.073 Y8.989 Z3.000
G1 X1.073 Y8.989 Z-3.000
G2 X-1.907 Y8.989 Z-3.412 I-1.490
G2 X1.073 Y8.989 Z-3.825 I1.490
G2 X-1.907 Y8.989 Z-4.000 I-1.490
G1 X1.073 Y8.989 Z-4.000
G2 X-1.907 Y8.989 Z-4.000 I-1.490
G2 X1.073 Y8.989 Z-4.000 I1.490
(Adaptive - depth: -4.000000)
G1 X-0.417 Y7.489
G1 X-0.361 Y7.466
G1 X-0.361 Y7.466
G1 X-0.263 Y7.489
G1 X-0.229 Y7.496
G1 X-0.004 Y7.504
G1 X-0.004 Y7.504
G1 X0.000 Y7.492
G1 X0.222 Y7.526
G1 X0.504 Y7.545
G1 X0.617 Y7.575
G1 X0.718 Y7.628
G1 X0.853 Y7.733
G1 X1.083 Y7.992
G1 X1.271 Y8.312
G1 X1.380 Y8.665
G1 X1.402 Y8.850
G1 X1.410 Y9.015
G1 X1.391 Y9.233
G1 X1.346 Y9.470
G1 X1.259 Y9.726
G1 X1.147 Y9.940
G1 X1.026 Y10.105
G1 X0.711 Y10.387
G1 X0.560 Y10.489
G1 X0.444 Y10.526
G1 X-0.711 Y10.519
G1 X-0.992 Y10.429
G1 X-1.331 Y10.357
G1 X-1.549 Y10.267
G1 X-1.647 Y10.199
G1 X-1.853 Y9.985
G1 X-2.011 Y9.729
G1 X-2.177 Y9.327
G1 X-2.226 Y8.955
G1 X-2.214 Y8.771
G1 X-2.188 Y8.613
G1 X-2.139 Y8.432
G1 X-2.041 Y8.184
G1 X-1.906 Y7.944
G1 X-1.759 Y7.759
G1 X-1.564 Y7.568
G1 X-1.361 Y7.421
G1 X-1.252 Y7.361
G1 X-1.192 Y7.342
G1 X-1.132 Y7.342
G1 X-1.132 Y7.342
G1 X-1.015 Y7.391
G1 X-0.940 Y7.451
G0 X-0.917 Y7.470
G0 X-0.365 Y7.805
G0 X-0.308 Y7.820
G0 X0.184 Y7.669
G1 X0.218 Y7.658
G1 X0.376 Y7.590
G1 X0.526 Y7.530
G1 X0.590 Y7.523
G1 X0.590 Y7.523
G1 X0.872 Y7.541
G1 X0.985 Y7.571
G1 X1.132 Y7.665
G1 X1.297 Y7.823
G1 X1.406 Y7.959
G1 X1.594 Y8.278
G1 X1.711 Y8.628
G1 X1.741 Y8.816
G1 X1.748 Y8.981
G1 X1.741 Y9.199
G1 X1.695 Y9.481
G1 X1.620 Y9.752
G1 X1.508 Y9.985
G1 X1.406 Y10.154
G1 X1.248 Y10.335
G1 X1.113 Y10.455
G1 X1.008 Y10.515
G1 X0.947 Y10.523
G1 X0.947 Y10.523
G1 X0.820 Y10.496
G1 X0.741 Y10.447
G0 X0.726 Y10.425
G0 X0.703 Y10.312
G0 X0.662 Y7.793
G1 X0.662 Y7.756
G1 X0.669 Y7.650
G1 X0.695 Y7.594
G1 X0.767 Y7.541
G1 X0.891 Y7.511
G1 X0.891 Y7.511
G1 X1.173 Y7.515
G1 X1.286 Y7.538
G1 X1.481 Y7.658
G1 X1.647 Y7.816
G1 X1.756 Y7.951
G1 X1.940 Y8.271
G1 X2.053 Y8.624
G1 X2.083 Y8.820
G1 X2.098 Y9.000
G1 X2.094 Y9.229
G1 X2.056 Y9.523
G1 X1.985 Y9.808
G1 X1.876 Y10.056
G1 X1.707 Y10.297
G1 X1.583 Y10.429
G1 X1.530 Y10.462
G1 X1.474 Y10.485
G1 X1.353 Y10.496
G1 X1.353 Y10.496
G1 X1.226 Y10.477
G1 X1.147 Y10.436
G0 X1.128 Y10.414
G0 X1.102 Y10.301
G0 X0.966 Y7.782
G1 X0.966 Y7.744
G1 X0.966 Y7.639
G1 X0.992 Y7.583
G1 X1.064 Y7.526
G1 X1.188 Y7.489
G1 X1.188 Y7.489
G1 X1.414 Y7.474
G1 X1.583 Y7.496
G1 X1.639 Y7.511
G1 X1.914 Y7.718
G1 X2.068 Y7.891
G1 X2.259 Y8.207
G1 X2.387 Y8.553
G1 X2.432 Y8.756
G1 X2.455 Y8.944
G1 X2.466 Y9.180
G1 X2.436 Y9.508
G1 X2.372 Y9.778
G1 X2.263 Y10.049
G1 X2.098 Y10.301
G1 X2.019 Y10.387
G1 X1.966 Y10.417
G1 X1.910 Y10.436
G1 X1.850 Y10.444
G1 X1.850 Y10.444
G1 X1.722 Y10.432
G1 X1.639 Y10.395
G0 X1.620 Y10.372
G0 X1.590 Y10.263
G0 X1.338 Y7.756
G1 X1.335 Y7.714
G1 X1.331 Y7.609
G1 X1.357 Y7.553
G1 X1.425 Y7.492
G1 X1.545 Y7.447
G1 X1.545 Y7.447
G1 X1.827 Y7.440
G1 X1.940 Y7.462
G1 X2.132 Y7.586
G1 X2.376 Y7.835
G1 X2.583 Y8.143
G1 X2.729 Y8.481
G1 X2.782 Y8.688
G1 X2.812 Y8.872
G1 X2.831 Y9.109
G1 X2.820 Y9.414
G1 X2.771 Y9.711
G1 X2.665 Y10.011
G1 X2.508 Y10.263
G1 X2.466 Y10.308
G1 X2.414 Y10.342
G1 X2.357 Y10.365
G1 X2.237 Y10.391
G1 X2.237 Y10.391
G1 X2.075 Y10.376
G1 X2.023 Y10.346
G0 X2.004 Y10.327
G0 X1.970 Y10.222
G0 X1.654 Y7.726
G1 X1.650 Y7.684
G1 X1.647 Y7.579
G1 X1.665 Y7.523
G1 X1.729 Y7.455
G1 X1.842 Y7.402
G1 X1.842 Y7.402
G1 X2.011 Y7.380
G1 X2.180 Y7.391
G1 X2.237 Y7.406
G1 X2.436 Y7.523
G1 X2.650 Y7.718
G1 X2.880 Y8.008
G1 X3.045 Y8.338
G1 X3.113 Y8.538
G1 X3.158 Y8.722
G1 X3.192 Y8.966
G1 X3.203 Y9.259
G1 X3.180 Y9.556
G1 X3.117 Y9.831
G1 X2.985 Y10.094
G1 X2.914 Y10.192
G1 X2.820 Y10.267
G1 X2.820 Y10.267
G1 X2.692 Y10.263
G1 X2.605 Y10.229
G0 X2.583 Y10.211
G0 X2.541 Y10.105
G0 X1.966 Y7.662
G1 X1.955 Y7.620
G1 X1.940 Y7.519
G1 X1.959 Y7.462
G1 X2.019 Y7.395
G1 X2.135 Y7.342
G1 X2.135 Y7.342
G1 X2.361 Y7.312
G1 X2.530 Y7.331
G1 X2.733 Y7.436
G1 X2.996 Y7.658
G1 X3.226 Y7.947
G1 X3.398 Y8.274
G1 X3.470 Y8.477
G1 X3.519 Y8.662
G1 X3.560 Y8.902
G1 X3.583 Y9.229
G1 X3.553 Y9.541
G1 X3.496 Y9.767
G1 X3.365 Y10.034
G1 X3.289 Y10.128
G1 X3.241 Y10.165
G1 X3.064 Y10.214
G1 X3.064 Y10.214
G1 X2.936 Y10.211
G1 X2.850 Y10.177
G0 X2.827 Y10.158
G0 X2.786 Y10.053
G0 X2.259 Y7.602
G1 X2.252 Y7.560
G1 X2.237 Y7.455
G1 X2.252 Y7.398
G1 X2.316 Y7.331
G1 X2.429 Y7.271
G1 X2.429 Y7.271
G1 X2.711 Y7.226
G1 X2.823 Y7.241
G1 X2.981 Y7.312
G1 X3.263 Y7.515
G1 X3.511 Y7.789
G1 X3.707 Y8.105
G1 X3.793 Y8.305
G1 X3.853 Y8.489
G1 X3.910 Y8.729
G1 X3.947 Y9.023
G1 X3.951 Y9.327
G1 X3.906 Y9.605
G1 X3.797 Y9.880
G1 X3.733 Y9.981
G1 X3.688 Y10.019
G1 X3.575 Y10.064
G1 X3.575 Y10.064
G1 X3.414 Y10.068
G1 X3.361 Y10.045
G0 X3.338 Y10.030
G0 X3.289 Y9.929
G0 X2.571 Y7.523
G1 X2.564 Y7.481
G1 X2.541 Y7.380
G1 X2.553 Y7.320
G1 X2.609 Y7.248
G1 X2.718 Y7.188
G1 X2.718 Y7.188
G1 X3.000 Y7.132
G1 X3.056 Y7.132
G1 X3.271 Y7.203
G1 X3.560 Y7.391
G1 X3.605 Y7.429
G1 X3.857 Y7.699
G1 X4.053 Y8.008
G1 X4.143 Y8.199
G1 X4.214 Y8.387
G1 X4.286 Y8.650
G1 X4.327 Y8.962
G1 X4.327 Y9.237
G1 X4.297 Y9.470
G1 X4.222 Y9.695
G1 X4.169 Y9.801
G1 X4.135 Y9.850
G1 X4.090 Y9.891
G1 X3.865 Y9.977
G1 X3.865 Y9.977
G1 X3.703 Y9.981
G1 X3.650 Y9.959
G0 X3.628 Y9.940
G0 X3.579 Y9.838
G0 X2.868 Y7.444
G1 X2.861 Y7.402
G1 X2.838 Y7.301
G1 X2.846 Y7.241
G1 X2.898 Y7.165
G1 X3.000 Y7.090
G1 X3.000 Y7.090
G1 X3.226 Y7.030
G1 X3.338 Y7.019
G1 X3.395 Y7.026
G1 X3.662 Y7.135
G1 X3.898 Y7.297
G1 X4.162 Y7.556
G1 X4.380 Y7.857
G1 X4.485 Y8.064
G1 X4.564 Y8.248
G1 X4.639 Y8.496
G1 X4.692 Y8.786
G1 X4.711 Y9.060
G1 X4.684 Y9.335
G1 X4.586 Y9.613
G1 X4.560 Y9.665
G1 X4.523 Y9.711
G1 X4.474 Y9.748
G1 X4.357 Y9.789
G1 X4.357 Y9.789
G1 X4.229 Y9.808
G1 X4.143 Y9.789
G0 X4.120 Y9.771
G0 X4.060 Y9.673
G0 X3.162 Y7.327
G1 X3.147 Y7.289
G1 X3.120 Y7.188
G1 X3.128 Y7.132
G1 X3.177 Y7.056
G1 X3.278 Y6.981
G1 X3.278 Y6.981
G1 X3.504 Y6.914
G1 X3.673 Y6.898
G1 X3.944 Y6.992
G1 X4.192 Y7.139
G1 X4.466 Y7.387
G1 X4.692 Y7.680
G1 X4.805 Y7.872
G1 X4.895 Y8.064
G1 X4.981 Y8.305
G1 X5.049 Y8.594
G1 X5.075 Y8.880
G1 X5.060 Y9.169
G1 X4.951 Y9.504
G1 X4.914 Y9.553
G1 X4.639 Y9.684
G1 X4.639 Y9.684
G1 X4.511 Y9.703
G1 X4.425 Y9.684
G0 X4.402 Y9.665
G0 X4.342 Y9.568
G0 X3.444 Y7.218
G1 X3.429 Y7.180
G1 X3.402 Y7.079
G1 X3.410 Y7.023
G1 X3.459 Y6.947
G1 X3.560 Y6.872
G1 X3.560 Y6.872
G1 X3.838 Y6.771
G1 X3.951 Y6.756
G1 X4.008 Y6.759
G1 X4.226 Y6.835
G1 X4.477 Y6.974
G1 X4.763 Y7.211
G1 X5.000 Y7.492
G1 X5.124 Y7.688
G1 X5.218 Y7.868
G1 X5.312 Y8.105
G1 X5.395 Y8.387
G1 X5.447 Y8.695
G1 X5.447 Y8.981
G1 X5.380 Y9.263
G1 X5.312 Y9.361
G1 X4.992 Y9.526
G1 X4.992 Y9.526
G1 X4.865 Y9.553
G1 X4.778 Y9.541
G0 X4.756 Y9.526
G0 X4.695 Y9.429
G0 X3.778 Y7.079
G1 X3.767 Y7.041
G1 X3.733 Y6.940
G1 X3.741 Y6.880
G1 X3.786 Y6.801
G1 X3.883 Y6.718
G1 X3.883 Y6.718
G1 X4.102 Y6.632
G1 X4.214 Y6.609
G1 X4.271 Y6.609
G1 X4.496 Y6.673
G1 X4.752 Y6.801
G1 X5.045 Y7.026
G1 X5.301 Y7.293
G1 X5.444 Y7.492
G1 X5.549 Y7.669
G1 X5.658 Y7.910
G1 X5.748 Y8.188
G1 X5.808 Y8.466
G1 X5.816 Y8.801
G1 X5.752 Y9.083
G1 X5.677 Y9.173
G1 X5.357 Y9.342
G1 X5.357 Y9.342
G1 X5.233 Y9.376
G1 X5.147 Y9.365
G0 X5.124 Y9.353
G0 X5.060 Y9.259
G0 X4.064 Y6.936
G1 X4.049 Y6.902
G1 X4.015 Y6.801
G1 X4.015 Y6.741
G1 X4.056 Y6.662
G1 X4.150 Y6.575
G1 X4.150 Y6.575
G1 X4.368 Y6.485
G1 X4.481 Y6.462
G1 X4.763 Y6.511
G1 X5.030 Y6.620
G1 X5.335 Y6.827
G1 X5.598 Y7.086
G1 X5.733 Y7.256
G1 X5.850 Y7.432
G1 X5.966 Y7.654
G1 X6.079 Y7.940
G1 X6.150 Y8.237
G1 X6.173 Y8.534
G1 X6.147 Y8.759
G1 X6.117 Y8.872
G1 X6.083 Y8.921
G1 X5.774 Y9.120
G1 X5.722 Y9.147
G1 X5.722 Y9.147
G1 X5.598 Y9.180
G1 X5.511 Y9.169
G0 X5.485 Y9.158
G0 X5.421 Y9.064
G0 X4.342 Y6.801
G1 X4.323 Y6.763
G1 X4.286 Y6.665
G1 X4.286 Y6.602
G1 X4.320 Y6.519
G1 X4.406 Y6.425
G1 X4.406 Y6.425
G1 X4.617 Y6.320
G1 X4.729 Y6.286
G1 X4.786 Y6.278
G1 X5.068 Y6.327
G1 X5.282 Y6.410
G1 X5.598 Y6.602
G1 X5.876 Y6.846
G1 X6.030 Y7.023
G1 X6.150 Y7.184
G1 X6.282 Y7.410
G1 X6.398 Y7.680
G1 X6.485 Y7.951
G1 X6.530 Y8.286
G1 X6.500 Y8.568
G1 X6.481 Y8.624
G1 X6.451 Y8.677
G1 X6.259 Y8.820
G1 X6.259 Y8.820
G1 X6.139 Y8.865
G1 X6.049 Y8.865
G0 X6.026 Y8.853
G0 X5.951 Y8.771
G0 X4.620 Y6.628
G1 X4.602 Y6.594
G1 X4.553 Y6.500
G1 X4.549 Y6.440
G1 X4.579 Y6.353
G1 X4.662 Y6.263
G1 X4.662 Y6.263
G1 X4.868 Y6.143
G1 X4.981 Y6.105
G1 X5.150 Y6.102
G1 X5.432 Y6.162
G1 X5.594 Y6.226
G1 X5.914 Y6.410
G1 X6.195 Y6.650
G1 X6.350 Y6.823
G1 X6.470 Y6.985
G1 X6.605 Y7.203
G1 X6.737 Y7.481
G1 X6.823 Y7.763
G1 X6.868 Y8.053
G1 X6.850 Y8.335
G1 X6.827 Y8.387
G1 X6.793 Y8.436
G1 X6.549 Y8.613
G1 X6.549 Y8.613
G1 X6.432 Y8.662
G1 X6.342 Y8.662
G0 X6.320 Y8.650
G0 X6.241 Y8.568
G0 X4.868 Y6.451
G1 X4.850 Y6.417
G1 X4.797 Y6.327
G1 X4.793 Y6.267
G1 X4.820 Y6.180
G1 X4.902 Y6.086
G1 X4.902 Y6.086
G1 X5.158 Y5.940
G1 X5.271 Y5.902
G1 X5.440 Y5.898
G1 X5.722 Y5.959
G1 X5.831 Y5.996
G1 X6.158 Y6.165
G1 X6.451 Y6.391
G1 X6.605 Y6.545
G1 X6.741 Y6.703
G1 X6.883 Y6.914
G1 X7.026 Y7.173
G1 X7.143 Y7.459
G1 X7.207 Y7.741
G1 X7.214 Y7.966
G1 X7.195 Y8.079
G1 X7.173 Y8.135
G1 X7.135 Y8.184
G1 X6.989 Y8.293
G1 X6.989 Y8.293
G1 X6.872 Y8.342
G1 X6.782 Y8.342
G0 X6.756 Y8.335
G0 X6.673 Y8.256
G0 X5.124 Y6.263
G1 X5.102 Y6.229
G1 X5.041 Y6.143
G1 X5.034 Y6.086
G1 X5.064 Y6.000
G1 X5.147 Y5.910
G1 X5.147 Y5.910
G1 X5.395 Y5.741
G1 X5.504 Y5.692
G1 X5.560 Y5.680
G1 X5.842 Y5.699
G1 X6.068 Y5.759
G1 X6.402 Y5.917
G1 X6.707 Y6.128
G1 X6.883 Y6.293
G1 X7.023 Y6.444
G1 X7.184 Y6.658
G1 X7.335 Y6.910
G1 X7.462 Y7.188
G1 X7.538 Y7.523
G1 X7.541 Y7.748
G1 X7.504 Y7.857
G1 X7.466 Y7.902
G1 X7.286 Y8.056
G1 X7.286 Y8.056
G1 X7.173 Y8.117
G1 X7.083 Y8.124
G0 X7.056 Y8.117
G0 X6.974 Y8.041
G0 X5.421 Y6.045
G1 X5.398 Y6.015
G1 X5.338 Y5.925
G1 X5.327 Y5.868
G1 X5.350 Y5.782
G1 X5.425 Y5.684
G1 X5.425 Y5.684
G1 X5.617 Y5.538
G1 X5.722 Y5.485
G1 X5.778 Y5.470
G1 X6.004 Y5.470
G1 X6.342 Y5.538
G1 X6.680 Y5.684
G1 X6.989 Y5.887
G1 X7.162 Y6.041
G1 X7.305 Y6.188
G1 X7.466 Y6.387
G1 X7.643 Y6.658
G1 X7.805 Y7.053
G1 X7.857 Y7.335
G1 X7.861 Y7.447
G1 X7.850 Y7.504
G1 X7.827 Y7.560
G1 X7.654 Y7.726
G1 X7.654 Y7.726
G1 X7.545 Y7.789
G1 X7.455 Y7.801
G0 X7.429 Y7.793
G0 X7.338 Y7.722
G0 X5.669 Y5.842
G1 X5.639 Y5.816
G1 X5.579 Y5.729
G1 X5.564 Y5.673
G1 X5.579 Y5.586
G1 X5.647 Y5.481
G1 X5.647 Y5.481
G1 X5.831 Y5.331
G1 X5.932 Y5.274
G1 X5.989 Y5.256
G1 X6.271 Y5.237
G1 X6.553 Y5.278
G1 X6.898 Y5.410
G1 X7.214 Y5.602
G1 X7.395 Y5.741
G1 X7.545 Y5.883
G1 X7.714 Y6.075
G1 X7.895 Y6.327
G1 X8.038 Y6.602
G1 X8.120 Y6.831
G1 X8.162 Y7.113
G1 X8.162 Y7.169
G1 X8.143 Y7.226
G1 X8.113 Y7.274
G1 X7.989 Y7.402
G1 X7.989 Y7.402
G1 X7.880 Y7.470
G1 X7.793 Y7.489
G0 X7.767 Y7.481
G0 X7.673 Y7.414
G0 X5.895 Y5.628
G1 X5.865 Y5.598
G1 X5.797 Y5.519
G1 X5.778 Y5.462
G1 X5.793 Y5.376
G1 X5.861 Y5.271
G1 X5.861 Y5.271
G1 X6.038 Y5.109
G1 X6.135 Y5.041
G1 X6.188 Y5.015
G1 X6.414 Y4.981
G1 X6.695 Y5.000
G1 X6.752 Y5.011
G1 X7.102 Y5.128
G1 X7.429 Y5.301
G1 X7.617 Y5.436
G1 X7.774 Y5.571
G1 X7.955 Y5.756
G1 X8.147 Y6.000
G1 X8.297 Y6.263
G1 X8.395 Y6.474
G1 X8.455 Y6.756
G1 X8.459 Y6.812
G1 X8.429 Y6.925
G1 X8.312 Y7.060
G1 X8.312 Y7.060
G1 X8.207 Y7.132
G1 X8.124 Y7.154
G0 X8.094 Y7.150
G0 X8.000 Y7.086
G0 X6.162 Y5.365
G1 X6.132 Y5.335
G1 X6.060 Y5.259
G1 X6.041 Y5.203
G1 X6.049 Y5.117
G1 X6.109 Y5.011
G1 X6.109 Y5.011
G1 X6.282 Y4.842
G1 X6.383 Y4.778
G1 X6.440 Y4.756
G1 X6.665 Y4.722
G1 X7.004 Y4.744
G1 X7.357 Y4.857
G1 X7.662 Y5.008
G1 X7.850 Y5.132
G1 X8.015 Y5.267
G1 X8.195 Y5.440
G1 X8.402 Y5.684
G1 X8.575 Y5.962
G1 X8.695 Y6.248
G1 X8.741 Y6.474
G1 X8.733 Y6.530
G1 X8.714 Y6.586
G1 X8.564 Y6.774
G1 X8.564 Y6.774
G1 X8.459 Y6.846
G1 X8.372 Y6.868
G0 X8.346 Y6.865
G0 X8.252 Y6.805
G0 X6.357 Y5.132
G1 X6.331 Y5.105
G1 X6.256 Y5.026
G1 X6.237 Y4.974
G1 X6.244 Y4.887
G1 X6.305 Y4.782
G1 X6.305 Y4.782
G1 X6.425 Y4.643
G1 X6.564 Y4.530
G1 X6.617 Y4.500
G1 X6.842 Y4.455
G1 X7.180 Y4.455
G1 X7.538 Y4.549
G1 X7.853 Y4.688
G1 X8.049 Y4.805
G1 X8.214 Y4.921
G1 X8.425 Y5.109
G1 X8.624 Y5.327
G1 X8.801 Y5.575
G1 X8.940 Y5.853
G1 X9.000 Y6.079
G1 X9.004 Y6.135
G1 X8.996 Y6.192
G1 X8.974 Y6.248
G1 X8.827 Y6.444
G1 X8.827 Y6.444
G1 X8.726 Y6.523
G1 X8.639 Y6.549
G0 X8.613 Y6.549
G0 X8.515 Y6.489
G0 X6.598 Y4.846
G1 X6.564 Y4.823
G1 X6.489 Y4.748
G1 X6.466 Y4.695
G1 X6.470 Y4.609
G1 X6.526 Y4.500
G1 X6.526 Y4.500
G1 X6.684 Y4.323
G1 X6.778 Y4.252
G1 X6.831 Y4.226
G1 X7.056 Y4.177
G1 X7.338 Y4.169
G1 X7.703 Y4.241
G1 X8.030 Y4.365
G1 X8.218 Y4.462
G1 X8.395 Y4.575
G1 X8.609 Y4.744
G1 X8.823 Y4.955
G1 X9.011 Y5.180
G1 X9.184 Y5.485
G1 X9.263 Y5.763
G1 X9.256 Y5.820
G1 X9.237 Y5.876
G1 X9.203 Y5.925
G1 X9.203 Y5.925
G1 X9.109 Y6.008
G1 X9.026 Y6.041
G0 X9.000 Y6.041
G0 X8.895 Y5.992
G0 X6.801 Y4.594
G1 X6.767 Y4.571
G1 X6.684 Y4.508
G1 X6.658 Y4.455
G1 X6.654 Y4.368
G1 X6.699 Y4.256
G1 X6.699 Y4.256
G1 X6.891 Y4.026
G1 X6.989 Y3.959
G1 X7.214 Y3.895
G1 X7.553 Y3.868
G1 X7.917 Y3.932
G1 X8.241 Y4.049
G1 X8.436 Y4.147
G1 X8.617 Y4.256
G1 X8.846 Y4.421
G1 X9.086 Y4.650
G1 X9.256 Y4.857
G1 X9.391 Y5.060
G1 X9.477 Y5.278
G1 X9.500 Y5.391
G1 X9.496 Y5.447
G1 X9.474 Y5.504
G1 X9.474 Y5.504
G1 X9.380 Y5.590
G1 X9.297 Y5.624
G0 X9.271 Y5.624
G0 X9.165 Y5.583
G0 X6.981 Y4.331
G1 X6.944 Y4.312
G1 X6.857 Y4.252
G1 X6.827 Y4.203
G1 X6.823 Y4.117
G1 X6.865 Y4.004
G1 X6.865 Y4.004
G1 X7.004 Y3.812
G1 X7.090 Y3.726
G1 X7.139 Y3.688
G1 X7.361 Y3.613
G1 X7.699 Y3.568
G1 X8.068 Y3.617
G1 X8.365 Y3.703
G1 X8.568 Y3.786
G1 X8.767 Y3.891
G1 X8.992 Y4.038
G1 X9.229 Y4.233
G1 X9.440 Y4.444
G1 X9.605 Y4.680
G1 X9.714 Y4.944
G1 X9.726 Y5.000
G1 X9.722 Y5.056
G1 X9.639 Y5.218
G1 X9.635 Y5.218
G1 X9.549 Y5.308
G1 X9.466 Y5.346
G0 X9.440 Y5.350
G0 X9.335 Y5.308
G0 X7.158 Y4.075
G1 X7.124 Y4.056
G1 X7.034 Y3.996
G1 X7.000 Y3.947
G1 X6.989 Y3.861
G1 X7.019 Y3.748
G1 X7.019 Y3.748
G1 X7.147 Y3.545
G1 X7.226 Y3.455
G1 X7.323 Y3.387
G1 X7.549 Y3.308
G1 X7.831 Y3.267
G1 X8.199 Y3.293
G1 X8.560 Y3.380
G1 X8.767 Y3.462
G1 X8.951 Y3.553
G1 X9.169 Y3.684
G1 X9.425 Y3.876
G1 X9.654 Y4.105
G1 X9.838 Y4.357
G1 X9.914 Y4.511
G1 X9.932 Y4.568
G1 X9.936 Y4.624
G1 X9.929 Y4.680
G1 X9.823 Y4.891
G1 X9.823 Y4.891
G1 X9.744 Y4.985
G1 X9.665 Y5.030
G0 X9.639 Y5.030
G0 X9.530 Y4.992
G0 X7.327 Y3.759
G1 X7.293 Y3.741
G1 X7.203 Y3.680
G1 X7.169 Y3.632
G1 X7.158 Y3.545
G1 X7.188 Y3.432
G1 X7.188 Y3.432
G1 X7.316 Y3.226
G1 X7.398 Y3.139
G1 X7.447 Y3.102
G1 X7.665 Y3.015
G1 X7.947 Y2.955
G1 X8.316 Y2.962
G1 X8.673 Y3.030
G1 X8.883 Y3.098
G1 X9.075 Y3.180
G1 X9.293 Y3.297
G1 X9.556 Y3.474
G1 X9.808 Y3.688
G1 X9.996 Y3.914
G1 X10.105 Y4.117
G1 X10.124 Y4.169
G1 X10.128 Y4.226
G1 X10.068 Y4.391
G1 X10.068 Y4.391
G1 X9.992 Y4.489
G1 X9.917 Y4.538
G0 X9.891 Y4.541
G0 X9.782 Y4.511
G0 X7.474 Y3.477
G1 X7.436 Y3.462
G1 X7.346 Y3.410
G1 X7.308 Y3.365
G1 X7.293 Y3.278
G1 X7.320 Y3.162
G1 X7.320 Y3.162
G1 X7.440 Y2.947
G1 X7.519 Y2.853
G1 X7.564 Y2.812
G1 X7.778 Y2.711
G1 X8.060 Y2.635
G1 X8.429 Y2.624
G1 X8.789 Y2.677
G1 X9.008 Y2.737
G1 X9.199 Y2.805
G1 X9.447 Y2.925
G1 X9.711 Y3.086
G1 X9.962 Y3.278
G1 X10.195 Y3.545
G1 X10.282 Y3.695
G1 X10.301 Y3.748
G1 X10.305 Y3.805
G1 X10.297 Y3.861
G1 X10.274 Y3.917
G1 X10.274 Y3.917
G1 X10.199 Y4.015
G1 X10.124 Y4.064
G0 X10.098 Y4.068
G0 X9.985 Y4.045
G0 X7.613 Y3.188
G1 X7.575 Y3.177
G1 X7.481 Y3.132
G1 X7.444 Y3.090
G1 X7.421 Y3.004
G1 X7.440 Y2.887
G1 X7.440 Y2.887
G1 X7.575 Y2.617
G1 X7.654 Y2.526
G1 X7.861 Y2.406
G1 X8.139 Y2.316
G1 X8.195 Y2.305
G1 X8.564 Y2.282
G1 X8.910 Y2.316
G1 X9.128 Y2.365
G1 X9.331 Y2.432
G1 X9.560 Y2.530
G1 X9.850 Y2.692
G1 X10.105 Y2.883
G1 X10.323 Y3.105
G1 X10.421 Y3.248
G1 X10.447 Y3.301
G1 X10.459 Y3.357
G1 X10.459 Y3.414
G1 X10.440 Y3.470
G1 X10.440 Y3.466
G1 X10.372 Y3.568
G1 X10.297 Y3.620
G0 X10.271 Y3.628
G0 X10.158 Y3.613
G0 X7.741 Y2.895
G1 X7.699 Y2.883
G1 X7.602 Y2.838
G1 X7.556 Y2.786
G1 X7.538 Y2.695
G1 X7.549 Y2.605
G1 X7.549 Y2.605
G1 X7.639 Y2.376
G1 X7.741 Y2.229
G1 X7.835 Y2.154
G1 X7.992 Y2.068
G1 X8.274 Y1.974
G1 X8.643 Y1.932
G1 X9.011 Y1.959
G1 X9.233 Y2.000
G1 X9.447 Y2.060
G1 X9.695 Y2.154
G1 X9.974 Y2.293
G1 X10.233 Y2.462
G1 X10.444 Y2.662
G1 X10.579 Y2.850
G1 X10.602 Y2.962
G1 X10.586 Y3.019
G1 X10.586 Y3.019
G1 X10.523 Y3.124
G1 X10.455 Y3.180
G0 X10.429 Y3.188
G0 X10.316 Y3.177
G0 X7.853 Y2.541
G1 X7.812 Y2.534
G1 X7.744 Y2.511
G1 X7.688 Y2.470
G1 X7.658 Y2.414
G1 X7.662 Y2.263
G1 X7.662 Y2.263
G1 X7.778 Y1.985
G1 X7.850 Y1.887
G1 X8.045 Y1.752
G1 X8.320 Y1.643
G1 X8.376 Y1.628
G1 X8.744 Y1.579
G1 X9.113 Y1.590
G1 X9.338 Y1.628
G1 X9.534 Y1.673
G1 X9.812 Y1.767
G1 X10.113 Y1.910
G1 X10.361 Y2.075
G1 X10.575 Y2.263
G1 X10.711 Y2.451
G1 X10.722 Y2.508
G1 X10.711 Y2.564
G1 X10.711 Y2.564
G1 X10.650 Y2.669
G1 X10.583 Y2.729
G0 X10.556 Y2.737
G0 X10.440 Y2.729
G0 X7.974 Y2.195
G1 X7.936 Y2.188
G1 X7.835 Y2.158
G1 X7.793 Y2.120
G1 X7.763 Y2.038
G1 X7.767 Y1.921
G1 X7.767 Y1.921
G1 X7.853 Y1.688
G1 X7.917 Y1.586
G1 X8.053 Y1.470
G1 X8.267 Y1.365
G1 X8.436 Y1.312
G1 X8.801 Y1.237
G1 X9.169 Y1.229
G1 X9.417 Y1.256
G1 X9.632 Y1.301
G1 X9.865 Y1.372
G1 X10.143 Y1.489
G1 X10.421 Y1.643
G1 X10.684 Y1.857
G1 X10.827 Y2.041
G1 X10.853 Y2.094
G1 X10.857 Y2.150
G1 X10.835 Y2.207
G1 X10.835 Y2.207
G1 X10.756 Y2.305
G1 X10.677 Y2.353
G0 X10.647 Y2.357
G0 X10.474 Y2.342
G0 X8.060 Y1.895
G1 X8.019 Y1.891
G1 X7.917 Y1.861
G1 X7.872 Y1.823
G1 X7.838 Y1.744
G1 X7.838 Y1.628
G1 X7.838 Y1.628
G1 X7.914 Y1.395
G1 X7.977 Y1.289
G1 X8.165 Y1.143
G1 X8.436 Y1.019
G1 X8.793 Y0.917
G1 X9.162 Y0.880
G1 X9.421 Y0.891
G1 X9.628 Y0.921
G1 X9.853 Y0.974
G1 X10.135 Y1.068
G1 X10.425 Y1.207
G1 X10.658 Y1.361
G1 X10.868 Y1.556
G1 X10.970 Y1.699
G1 X11.008 Y1.808
G1 X11.015 Y1.865
G1 X11.004 Y1.921
G1 X10.940 Y2.019
G1 X10.940 Y2.019
G1 X10.846 Y2.105
G1 X10.763 Y2.143
G0 X10.733 Y2.147
G0 X10.560 Y2.120
G0 X8.135 Y1.605
G1 X8.094 Y1.598
G1 X7.992 Y1.568
G1 X7.944 Y1.530
G1 X7.906 Y1.451
G1 X7.902 Y1.335
G1 X7.902 Y1.335
G1 X7.947 Y1.154
G1 X7.996 Y1.045
G1 X8.030 Y0.996
G1 X8.218 Y0.846
G1 X8.477 Y0.711
G1 X8.831 Y0.594
G1 X9.195 Y0.534
G1 X9.481 Y0.534
G1 X9.680 Y0.556
G1 X9.887 Y0.598
G1 X10.173 Y0.673
G1 X10.511 Y0.820
G1 X10.748 Y0.966
G1 X10.955 Y1.165
G1 X10.992 Y1.211
G1 X11.019 Y1.263
G1 X11.034 Y1.320
G1 X11.030 Y1.883
G1 X11.030 Y1.883
G1 X10.936 Y1.970
G1 X10.853 Y2.008
G0 X10.823 Y2.011
G0 X10.650 Y1.981
G0 X8.169 Y1.368
G1 X8.132 Y1.361
G1 X8.030 Y1.327
G1 X7.981 Y1.286
G1 X7.944 Y1.188
G1 X7.936 Y1.098
G1 X7.936 Y1.098
G1 X7.992 Y0.857
G1 X8.045 Y0.748
G1 X8.267 Y0.545
G1 X8.526 Y0.398
G1 X8.868 Y0.259
G1 X9.233 Y0.192
G1 X9.481 Y0.180
G1 X9.680 Y0.188
G1 X9.917 Y0.222
G1 X10.203 Y0.289
G1 X10.504 Y0.398
G1 X10.748 Y0.534
G1 X10.966 Y0.722
G1 X11.004 Y0.767
G1 X11.026 Y0.820
G1 X11.034 Y0.876
G1 X11.034 Y0.876
G1 X11.004 Y0.992
G1 X10.951 Y1.064
G0 X10.929 Y1.079
G0 X10.816 Y1.094
G0 X8.218 Y1.030
G1 X8.180 Y1.030
G1 X8.075 Y1.019
G1 X8.026 Y0.989
G1 X7.981 Y0.917
G1 X7.970 Y0.801
G1 X7.970 Y0.801
G1 X8.000 Y0.620
G1 X8.041 Y0.504
G1 X8.109 Y0.402
G1 X8.241 Y0.274
G1 X8.541 Y0.079
G1 X8.880 Y-0.068
G1 X9.241 Y-0.154
G1 X9.541 Y-0.180
G1 X9.748 Y-0.177
G1 X9.977 Y-0.150
G1 X10.252 Y-0.090
G1 X10.541 Y0.008
G1 X10.778 Y0.132
G1 X10.955 Y0.278
G1 X10.992 Y0.320
G1 X11.019 Y0.372
G1 X11.034 Y0.429
G1 X11.034 Y0.429
G1 X11.004 Y0.545
G1 X10.951 Y0.620
G0 X10.929 Y0.632
G0 X10.816 Y0.654
G0 X8.248 Y0.718
G1 X8.211 Y0.722
G1 X8.105 Y0.718
G1 X8.056 Y0.688
G1 X8.011 Y0.617
G1 X7.996 Y0.500
G1 X7.996 Y0.500
G1 X8.041 Y0.259
G1 X8.086 Y0.147
G1 X8.289 Y-0.068
G1 X8.523 Y-0.237
G1 X8.853 Y-0.402
G1 X9.207 Y-0.508
G1 X9.429 Y-0.538
G1 X9.624 Y-0.549
G1 X9.876 Y-0.538
G1 X10.173 Y-0.496
G1 X10.474 Y-0.421
G1 X10.733 Y-0.305
G1 X10.962 Y-0.113
G1 X11.000 Y-0.068
G1 X11.026 Y-0.011
G1 X11.034 Y0.045
G1 X11.034 Y0.045
G1 X11.004 Y0.162
G1 X10.951 Y0.237
G0 X10.929 Y0.252
G0 X10.816 Y0.274
G0 X8.278 Y0.414
G1 X8.241 Y0.417
G1 X8.165 Y0.417
G1 X8.102 Y0.395
G1 X8.056 Y0.346
G1 X8.019 Y0.203
G1 X8.019 Y0.203
G1 X8.060 Y-0.090
G1 X8.105 Y-0.199
G1 X8.256 Y-0.372
G1 X8.485 Y-0.549
G1 X8.808 Y-0.729
G1 X9.158 Y-0.850
G1 X9.380 Y-0.891
G1 X9.575 Y-0.914
G1 X9.831 Y-0.917
G1 X10.143 Y-0.887
G1 X10.432 Y-0.816
G1 X10.650 Y-0.733
G1 X10.853 Y-0.605
G1 X10.985 Y-0.485
G1 X11.015 Y-0.432
G1 X11.034 Y-0.376
G1 X11.034 Y-0.376
G1 X11.004 Y-0.248
G1 X10.951 Y-0.169
G0 X10.929 Y-0.154
G0 X10.816 Y-0.124
G0 X8.305 Y0.109
G1 X8.267 Y0.113
G1 X8.162 Y0.113
G1 X8.105 Y0.090
G1 X8.053 Y0.023
G1 X8.026 Y-0.094
G1 X8.026 Y-0.094
G1 X8.026 Y-0.263
G1 X8.060 Y-0.432
G1 X8.083 Y-0.485
G1 X8.222 Y-0.669
G1 X8.440 Y-0.861
G1 X8.808 Y-1.083
G1 X9.154 Y-1.211
G1 X9.383 Y-1.259
G1 X9.590 Y-1.282
G1 X9.820 Y-1.289
G1 X10.139 Y-1.263
G1 X10.432 Y-1.195
G1 X10.658 Y-1.113
G1 X10.857 Y-0.985
G1 X10.989 Y-0.865
G1 X11.019 Y-0.812
G1 X11.034 Y-0.752
G1 X11.034 Y-0.752
G1 X11.004 Y-0.624
G1 X10.951 Y-0.545
G0 X10.929 Y-0.526
G0 X10.820 Y-0.496
G0 X8.297 Y-0.184
G1 X8.256 Y-0.180
G1 X8.154 Y-0.177
G1 X8.098 Y-0.199
G1 X8.045 Y-0.271
G1 X8.011 Y-0.395
G1 X8.011 Y-0.395
G1 X8.011 Y-0.620
G1 X8.030 Y-0.733
G1 X8.049 Y-0.786
G1 X8.222 Y-1.023
G1 X8.440 Y-1.218
G1 X8.748 Y-1.421
G1 X9.090 Y-1.560
G1 X9.305 Y-1.613
G1 X9.504 Y-1.647
G1 X9.763 Y-1.665
G1 X10.064 Y-1.654
G1 X10.353 Y-1.602
G1 X10.579 Y-1.526
G1 X10.835 Y-1.376
G1 X10.970 Y-1.259
G1 X11.008 Y-1.211
G1 X11.030 Y-1.154
G1 X11.034 Y-1.094
G1 X11.034 Y-1.094
G1 X11.004 Y-0.966
G1 X10.951 Y-0.887
G0 X10.929 Y-0.868
G0 X10.816 Y-0.835
G0 X8.274 Y-0.489
G1 X8.237 Y-0.485
G1 X8.132 Y-0.477
G1 X8.075 Y-0.500
G1 X8.019 Y-0.571
G1 X7.981 Y-0.692
G1 X7.981 Y-0.692
G1 X7.977 Y-0.974
G1 X8.000 Y-1.086
G1 X8.019 Y-1.139
G1 X8.229 Y-1.414
G1 X8.398 Y-1.568
G1 X8.707 Y-1.774
G1 X9.045 Y-1.921
G1 X9.263 Y-1.981
G1 X9.462 Y-2.019
G1 X9.722 Y-2.045
G1 X10.026 Y-2.038
G1 X10.312 Y-1.992
