(Exported by FreeCAD)
(Post Processor: grbl_post)
(Output Time:2023-08-12 16:02:12.560895)
(Begin preamble)
G17 G90
G21
(Block-name: G54)
(Block-expand: 0)
(Block-enable: 1)
(Begin operation: G54)
(Path: G54)
G54
G0 Z5.000
(Finish operation: G54)
(Block-name: 3mm Endmill001)
(Block-expand: 0)
(Block-enable: 1)
(Begin operation: 3mm Endmill001)
(Path: 3mm Endmill001)
(3mm Endmill001)
(Begin toolchange)
( M6 T2 )
(Finish operation: 3mm Endmill001)
(Block-name: Adaptive__IN_8mm)
(Block-expand: 0)
(Block-enable: 1)
(Begin operation: Adaptive__IN_8mm)
(Path: Adaptive__IN_8mm)
(Adaptive)
(Helix to depth: -3.000000)
G0 Z5.000
G0 X0.730 Y-0.842 Z5.000
G0 X0.730 Y-0.842 Z3.000
G1 X0.730 Y-0.842 Z0.000
G1 X0.730 Y-0.842 Z0.000
G1 X0.880 Y-0.683 Z-0.019
G1 X0.996 Y-0.499 Z-0.039
G1 X1.074 Y-0.295 Z-0.058
G1 X1.111 Y-0.080 Z-0.077
G1 X1.105 Y0.139 Z-0.097
G1 X1.057 Y0.352 Z-0.116
G1 X0.968 Y0.551 Z-0.135
G1 X0.842 Y0.730 Z-0.154
G1 X0.683 Y0.880 Z-0.174
G1 X0.499 Y0.996 Z-0.193
G1 X0.295 Y1.074 Z-0.212
G1 X0.080 Y1.111 Z-0.232
G1 X-0.139 Y1.105 Z-0.251
G1 X-0.352 Y1.057 Z-0.270
G1 X-0.551 Y0.968 Z-0.290
G1 X-0.730 Y0.842 Z-0.309
G1 X-0.880 Y0.683 Z-0.328
G1 X-0.996 Y0.499 Z-0.348
G1 X-1.074 Y0.295 Z-0.367
G1 X-1.111 Y0.080 Z-0.386
G1 X-1.105 Y-0.139 Z-0.405
G1 X-1.057 Y-0.352 Z-0.425
G1 X-0.968 Y-0.551 Z-0.444
G1 X-0.842 Y-0.730 Z-0.463
G1 X-0.683 Y-0.880 Z-0.483
G1 X-0.499 Y-0.996 Z-0.502
G1 X-0.295 Y-1.074 Z-0.521
G1 X-0.080 Y-1.111 Z-0.541
G1 X0.139 Y-1.105 Z-0.560
G1 X0.352 Y-1.057 Z-0.579
G1 X0.551 Y-0.968 Z-0.599
G1 X0.730 Y-0.842 Z-0.618
G1 X0.880 Y-0.683 Z-0.637
G1 X0.996 Y-0.499 Z-0.657
G1 X1.074 Y-0.295 Z-0.676
G1 X1.111 Y-0.080 Z-0.695
G1 X1.105 Y0.139 Z-0.714
G1 X1.057 Y0.352 Z-0.734
G1 X0.968 Y0.551 Z-0.753
G1 X0.842 Y0.730 Z-0.772
G1 X0.683 Y0.880 Z-0.792
G1 X0.499 Y0.996 Z-0.811
G1 X0.295 Y1.074 Z-0.830
G1 X0.080 Y1.111 Z-0.850
G1 X-0.139 Y1.105 Z-0.869
G1 X-0.352 Y1.057 Z-0.888
G1 X-0.551 Y0.968 Z-0.908
G1 X-0.730 Y0.842 Z-0.927
G1 X-0.880 Y0.683 Z-0.946
G1 X-0.996 Y0.499 Z-0.965
G1 X-1.074 Y0.295 Z-0.985
G1 X-1.111 Y0.080 Z-1.004
G1 X-1.105 Y-0.139 Z-1.023
G1 X-1.057 Y-0.352 Z-1.043
G1 X-0.968 Y-0.551 Z-1.062
G1 X-0.842 Y-0.730 Z-1.081
G1 X-0.683 Y-0.880 Z-1.101
G1 X-0.499 Y-0.996 Z-1.120
G1 X-0.295 Y-1.074 Z-1.139
G1 X-0.080 Y-1.111 Z-1.159
G1 X0.139 Y-1.105 Z-1.178
G1 X0.352 Y-1.057 Z-1.197
G1 X0.551 Y-0.968 Z-1.216
G1 X0.730 Y-0.842 Z-1.236
G1 X0.880 Y-0.683 Z-1.255
G1 X0.996 Y-0.499 Z-1.274
G1 X1.074 Y-0.295 Z-1.294
G1 X1.111 Y-0.080 Z-1.313
G1 X1.105 Y0.139 Z-1.332
G1 X1.057 Y0.352 Z-1.352
G1 X0.968 Y0.551 Z-1.371
G1 X0.842 Y0.730 Z-1.390
G1 X0.683 Y0.880 Z-1.410
G1 X0.499 Y0.996 Z-1.429
G1 X0.295 Y1.074 Z-1.448
G1 X0.080 Y1.111 Z-1.468
G1 X-0.139 Y1.105 Z-1.487
G1 X-0.352 Y1.057 Z-1.506
G1 X-0.551 Y0.968 Z-1.525
G1 X-0.730 Y0.842 Z-1.545
G1 X-0.880 Y0.683 Z-1.564
G1 X-0.996 Y0.499 Z-1.583
G1 X-1.074 Y0.295 Z-1.603
G1 X-1.111 Y0.080 Z-1.622
G1 X-1.105 Y-0.139 Z-1.641
G1 X-1.057 Y-0.352 Z-1.661
G1 X-0.968 Y-0.551 Z-1.680
G1 X-0.842 Y-0.730 Z-1.699
G1 X-0.683 Y-0.880 Z-1.719
G1 X-0.499 Y-0.996 Z-1.738
G1 X-0.295 Y-1.074 Z-1.757
G1 X-0.080 Y-1.111 Z-1.776
G1 X0.139 Y-1.105 Z-1.796
G1 X0.352 Y-1.057 Z-1.815
G1 X0.551 Y-0.968 Z-1.834
G1 X0.730 Y-0.842 Z-1.854
G1 X0.880 Y-0.683 Z-1.873
G1 X0.996 Y-0.499 Z-1.892
G1 X1.074 Y-0.295 Z-1.912
G1 X1.111 Y-0.080 Z-1.931
G1 X1.105 Y0.139 Z-1.950
G1 X1.057 Y0.352 Z-1.970
G1 X0.968 Y0.551 Z-1.989
G1 X0.842 Y0.730 Z-2.008
G1 X0.683 Y0.880 Z-2.027
G1 X0.499 Y0.996 Z-2.047
G1 X0.295 Y1.074 Z-2.066
G1 X0.080 Y1.111 Z-2.085
G1 X-0.139 Y1.105 Z-2.105
G1 X-0.352 Y1.057 Z-2.124
G1 X-0.551 Y0.968 Z-2.143
G1 X-0.730 Y0.842 Z-2.163
G1 X-0.880 Y0.683 Z-2.182
G1 X-0.996 Y0.499 Z-2.201
G1 X-1.074 Y0.295 Z-2.221
G1 X-1.111 Y0.080 Z-2.240
G1 X-1.105 Y-0.139 Z-2.259
G1 X-1.057 Y-0.352 Z-2.279
G1 X-0.968 Y-0.551 Z-2.298
G1 X-0.842 Y-0.730 Z-2.317
G1 X-0.683 Y-0.880 Z-2.336
G1 X-0.499 Y-0.996 Z-2.356
G1 X-0.295 Y-1.074 Z-2.375
G1 X-0.080 Y-1.111 Z-2.394
G1 X0.139 Y-1.105 Z-2.414
G1 X0.352 Y-1.057 Z-2.433
G1 X0.551 Y-0.968 Z-2.452
G1 X0.730 Y-0.842 Z-2.472
G1 X0.880 Y-0.683 Z-2.491
G1 X0.996 Y-0.499 Z-2.510
G1 X1.074 Y-0.295 Z-2.530
G1 X1.111 Y-0.080 Z-2.549
G1 X1.105 Y0.139 Z-2.568
G1 X1.057 Y0.352 Z-2.587
G1 X0.968 Y0.551 Z-2.607
G1 X0.842 Y0.730 Z-2.626
G1 X0.683 Y0.880 Z-2.645
G1 X0.499 Y0.996 Z-2.665
G1 X0.295 Y1.074 Z-2.684
G1 X0.080 Y1.111 Z-2.703
G1 X-0.139 Y1.105 Z-2.723
G1 X-0.352 Y1.057 Z-2.742
G1 X-0.551 Y0.968 Z-2.761
G1 X-0.730 Y0.842 Z-2.781
G1 X-0.880 Y0.683 Z-2.800
G1 X-0.996 Y0.499 Z-2.819
G1 X-1.074 Y0.295 Z-2.838
G1 X-1.111 Y0.080 Z-2.858
G1 X-1.105 Y-0.139 Z-2.877
G1 X-1.057 Y-0.352 Z-2.896
G1 X-0.968 Y-0.551 Z-2.916
G1 X-0.842 Y-0.730 Z-2.935
G1 X-0.683 Y-0.880 Z-2.954
G1 X-0.499 Y-0.996 Z-2.974
G1 X-0.295 Y-1.074 Z-2.993
G1 X-0.080 Y-1.111 Z-3.000
G1 X0.139 Y-1.105 Z-3.000
G1 X0.352 Y-1.057 Z-3.000
G1 X0.551 Y-0.968 Z-3.000
G1 X0.730 Y-0.842 Z-3.000
G1 X0.880 Y-0.683 Z-3.000
G1 X0.996 Y-0.499 Z-3.000
G1 X1.074 Y-0.295 Z-3.000
G1 X1.111 Y-0.080 Z-3.000
G1 X1.105 Y0.139 Z-3.000
G1 X1.057 Y0.352 Z-3.000
G1 X0.968 Y0.551 Z-3.000
G1 X0.842 Y0.730 Z-3.000
G1 X0.683 Y0.880 Z-3.000
G1 X0.499 Y0.996 Z-3.000
G1 X0.295 Y1.074 Z-3.000
G1 X0.080 Y1.111 Z-3.000
G1 X-0.139 Y1.105 Z-3.000
G1 X-0.352 Y1.057 Z-3.000
G1 X-0.551 Y0.968 Z-3.000
G1 X-0.730 Y0.842 Z-3.000
G1 X-0.880 Y0.683 Z-3.000
G1 X-0.996 Y0.499 Z-3.000
G1 X-1.074 Y0.295 Z-3.000
G1 X-1.111 Y0.080 Z-3.000
G1 X-1.105 Y-0.139 Z-3.000
G1 X-1.057 Y-0.352 Z-3.000
G1 X-0.968 Y-0.551 Z-3.000
G1 X-0.842 Y-0.730 Z-3.000
G1 X-0.683 Y-0.880 Z-3.000
G1 X-0.499 Y-0.996 Z-3.000
G1 X-0.295 Y-1.074 Z-3.000
(Adaptive - depth: -3.000000)
G1 X0.000 Y-1.124
G1 X0.041 Y-1.165
G1 X0.150 Y-1.207
G1 X0.320 Y-1.222
G1 X0.489 Y-1.199
G1 X0.835 Y-1.068
G1 X1.011 Y-0.925
G1 X1.098 Y-0.831
G1 X1.177 Y-0.714
G1 X1.263 Y-0.556
G1 X1.346 Y-0.335
G1 X1.391 Y-0.113
G1 X1.398 Y0.094
G1 X1.372 Y0.274
G1 X1.327 Y0.444
G1 X1.248 Y0.639
G1 X1.128 Y0.838
G1 X0.996 Y0.992
G1 X0.853 Y1.120
G1 X0.680 Y1.233
G1 X0.500 Y1.316
G1 X0.308 Y1.372
G1 X0.105 Y1.398
G1 X-0.090 Y1.402
G1 X-0.316 Y1.372
G1 X-0.515 Y1.308
G1 X-0.684 Y1.229
G1 X-0.857 Y1.113
G1 X-1.011 Y0.977
G1 X-1.150 Y0.812
G1 X-1.259 Y0.635
G1 X-1.335 Y0.440
G1 X-1.376 Y0.267
G1 X-1.398 Y0.071
G1 X-1.395 Y-0.150
G1 X-1.357 Y-0.368
G1 X-1.286 Y-0.568
G1 X-1.203 Y-0.729
G1 X-1.083 Y-0.895
G1 X-0.947 Y-1.041
G1 X-0.771 Y-1.180
G1 X-0.594 Y-1.293
G1 X-0.372 Y-1.406
G1 X-0.132 Y-1.466
G1 X0.327 Y-1.504
G1 X0.692 Y-1.447
G1 X0.966 Y-1.320
G1 X1.086 Y-1.237
G1 X1.195 Y-1.143
G1 X1.327 Y-1.004
G1 X1.481 Y-0.786
G1 X1.586 Y-0.568
G1 X1.647 Y-0.372
G1 X1.680 Y-0.184
G1 X1.695 Y0.023
G1 X1.680 Y0.267
G1 X1.632 Y0.511
G1 X1.549 Y0.733
G1 X1.459 Y0.906
G1 X1.327 Y1.090
G1 X1.180 Y1.248
G1 X1.004 Y1.395
G1 X0.816 Y1.511
G1 X0.613 Y1.602
G1 X0.395 Y1.665
G1 X0.177 Y1.707
G1 X-0.064 Y1.718
G1 X-0.289 Y1.699
G1 X-0.515 Y1.650
G1 X-0.733 Y1.564
G1 X-0.914 Y1.466
G1 X-1.094 Y1.335
G1 X-1.256 Y1.184
G1 X-1.410 Y0.996
G1 X-1.530 Y0.801
G1 X-1.617 Y0.586
G1 X-1.669 Y0.398
G1 X-1.707 Y0.180
G1 X-1.718 Y-0.075
G1 X-1.695 Y-0.323
G1 X-1.632 Y-0.553
G1 X-1.564 Y-0.722
G1 X-1.459 Y-0.917
G1 X-1.320 Y-1.113
G1 X-1.147 Y-1.297
G1 X-0.966 Y-1.451
G1 X-0.759 Y-1.586
G1 X-0.538 Y-1.692
G1 X-0.308 Y-1.771
G1 X-0.071 Y-1.820
G1 X0.165 Y-1.846
G1 X0.432 Y-1.835
G1 X0.650 Y-1.801
G1 X0.880 Y-1.726
G1 X1.064 Y-1.635
G1 X1.252 Y-1.515
G1 X1.425 Y-1.372
G1 X1.594 Y-1.188
G1 X1.763 Y-0.947
G1 X1.917 Y-0.545
G1 X2.019 Y-0.060
G1 X1.985 Y0.338
G1 X1.895 Y0.677
G1 X1.684 Y1.098
G1 X1.462 Y1.380
G1 X1.192 Y1.617
G1 X0.883 Y1.801
G1 X0.541 Y1.932
G1 X0.180 Y1.996
G1 X-0.282 Y1.996
G1 X-0.620 Y1.932
G1 X-0.947 Y1.801
G1 X-1.244 Y1.602
G1 X-1.530 Y1.365
G1 X-1.763 Y1.004
G1 X-1.925 Y0.609
G1 X-2.004 Y0.188
G1 X-1.996 Y-0.274
G1 X-1.925 Y-0.613
G1 X-1.763 Y-0.992
G1 X-1.568 Y-1.289
G1 X-1.368 Y-1.508
G1 X-1.094 Y-1.759
G1 X-0.827 Y-1.910
G1 X-0.489 Y-2.045
G1 X0.105 Y-2.158
G1 X0.444 Y-2.162
G1 X0.782 Y-2.094
G1 X1.162 Y-1.936
G1 X1.414 Y-1.778
G1 X1.680 Y-1.541
G1 X1.944 Y-1.211
G1 X2.184 Y-0.714
G1 X2.286 Y-0.293
G1 X2.308 Y0.173
G1 X2.263 Y0.511
G1 X2.090 Y1.011
G1 X1.880 Y1.368
G1 X1.602 Y1.680
G1 X1.267 Y1.940
G1 X1.000 Y2.086
G1 X0.477 Y2.259
G1 X0.000 Y2.316
G1 X-0.508 Y2.286
G1 X-0.846 Y2.195
G1 X-1.169 Y2.053
G1 X-1.470 Y1.853
G1 X-1.729 Y1.602
G1 X-1.944 Y1.312
G1 X-2.180 Y0.816
G1 X-2.252 Y0.583
G1 X-2.323 Y-0.015
G1 X-2.301 Y-0.410
G1 X-2.177 Y-0.861
G1 X-1.902 Y-1.380
G1 X-1.680 Y-1.662
G1 X-1.361 Y-1.940
G1 X-1.008 Y-2.165
G1 X-0.500 Y-2.372
G1 X-0.139 Y-2.440
G1 X0.207 Y-2.459
G1 X0.489 Y-2.421
G1 X0.714 Y-2.365
G1 X1.102 Y-2.211
G1 X1.361 Y-2.060
G1 X1.688 Y-1.801
G1 X1.895 Y-1.586
G1 X2.173 Y-1.177
G1 X2.252 Y-1.015
G1 X2.376 Y-0.677
G1 X2.421 Y-0.496
G1 X2.470 Y-0.075
G1 X2.444 Y0.323
G1 X2.395 Y0.605
G1 X2.278 Y0.944
G1 X2.090 Y1.308
G1 X1.883 Y1.594
G1 X1.677 Y1.812
G1 X1.398 Y2.034
G1 X1.030 Y2.244
G1 X0.632 Y2.387
G1 X0.271 Y2.462
G1 X-0.083 Y2.470
G1 X-0.590 Y2.395
G1 X-0.985 Y2.263
G1 X-1.421 Y2.064
G1 X-1.639 Y1.981
G1 X-1.684 Y1.944
G1 X-2.105 Y1.293
G1 X-2.271 Y0.977
G1 X-2.432 Y0.455
G1 X-2.474 Y0.094
G1 X-2.436 Y-0.361
G1 X-2.365 Y-0.699
G1 X-2.237 Y-1.038
G1 X-2.094 Y-1.301
G1 X-1.789 Y-1.744
G1 X-1.639 Y-2.000
G1 X-1.590 Y-2.034
G1 X-1.357 Y-2.098
G1 X-0.914 Y-2.297
G1 X-0.383 Y-2.444
G1 X0.034 Y-2.470
G1 X0.034 Y-2.466
G1 X0.049 Y-2.455
G0 X0.060 Y-2.444
G0 X0.049 Y-2.350
G0 X-1.425 Y1.703
G1 X-1.440 Y1.741
G1 X-1.526 Y1.974
G1 X-1.564 Y2.008
G1 X-1.613 Y2.023
G1 X-1.613 Y2.023
G1 X-1.662 Y1.989
G1 X-1.695 Y1.940
G1 X-1.695 Y1.940
G1 X-1.695 Y1.917
G0 X-1.692 Y1.906
G0 X-1.662 Y1.895
G1 X-1.650 Y1.898
G1 X-1.647 Y1.925
G1 X-1.669 Y1.951
G1 X-1.722 Y1.940
G1 X-1.722 Y1.940
G1 X-1.891 Y1.643
G1 X-2.109 Y1.335
G1 X-2.289 Y1.004
G1 X-2.383 Y0.752
G1 X-2.444 Y0.515
G1 X-2.485 Y0.241
G1 X-2.504 Y0.008
G1 X-2.470 Y-0.331
G1 X-2.402 Y-0.665
G1 X-2.350 Y-0.831
G1 X-2.274 Y-1.026
G1 X-2.113 Y-1.327
G1 X-1.820 Y-1.748
G1 X-1.684 Y-2.011
G1 X-1.650 Y-2.041
G1 X-1.617 Y-2.056
G1 X-1.447 Y-2.094
G1 X-1.252 Y-2.169
G1 X-0.944 Y-2.312
G1 X-0.756 Y-2.380
G1 X-0.462 Y-2.455
G1 X-0.267 Y-2.485
G1 X0.060 Y-2.500
G1 X0.203 Y-2.489
G1 X0.511 Y-2.440
G1 X0.726 Y-2.387
G1 X0.936 Y-2.312
G1 X1.105 Y-2.237
G1 X1.256 Y-2.158
G1 X1.568 Y-1.940
G1 X1.737 Y-1.789
G1 X1.891 Y-1.632
G1 X2.008 Y-1.481
G1 X2.211 Y-1.169
G1 X2.282 Y-1.015
G1 X2.368 Y-0.786
G1 X2.432 Y-0.564
G1 X2.489 Y-0.229
G1 X2.496 Y-0.060
G1 X2.466 Y0.342
G1 X2.425 Y0.579
G1 X2.372 Y0.763
G1 X2.241 Y1.098
G1 X2.173 Y1.226
G1 X2.000 Y1.489
G1 X1.895 Y1.620
G1 X1.695 Y1.831
G1 X1.523 Y1.981
G1 X1.226 Y2.177
G1 X1.008 Y2.289
G1 X0.711 Y2.391
G1 X0.447 Y2.455
G1 X0.248 Y2.489
G1 X-0.008 Y2.496
G1 X-0.327 Y2.474
G1 X-0.526 Y2.436
G1 X-0.737 Y2.376
G1 X-1.079 Y2.248
G1 X-1.271 Y2.154
G1 X-1.504 Y2.075
G1 X-1.643 Y2.041
G1 X-1.703 Y1.977
G1 X-1.726 Y1.944
G1 X-1.722 Y1.940
G0 Z5.000
(Helix to depth: -4.000000)
G0 Z5.000
G0 X0.900 Y0.657 Z5.000
G0 X0.900 Y0.657 Z3.000
G1 X0.900 Y0.657 Z-3.000
G1 X0.900 Y0.657 Z-3.000
G1 X0.754 Y0.820 Z-3.019
G1 X0.580 Y0.951 Z-3.039
G1 X0.383 Y1.046 Z-3.058
G1 X0.172 Y1.101 Z-3.077
G1 X-0.046 Y1.113 Z-3.097
G1 X-0.263 Y1.083 Z-3.116
G1 X-0.469 Y1.011 Z-3.135
G1 X-0.657 Y0.900 Z-3.154
G1 X-0.820 Y0.754 Z-3.174
G1 X-0.951 Y0.580 Z-3.193
G1 X-1.046 Y0.383 Z-3.212
G1 X-1.101 Y0.172 Z-3.232
G1 X-1.113 Y-0.046 Z-3.251
G1 X-1.083 Y-0.263 Z-3.270
G1 X-1.011 Y-0.469 Z-3.290
G1 X-0.900 Y-0.657 Z-3.309
G1 X-0.754 Y-0.820 Z-3.328
G1 X-0.580 Y-0.951 Z-3.348
G1 X-0.383 Y-1.046 Z-3.367
G1 X-0.172 Y-1.101 Z-3.386
G1 X0.046 Y-1.113 Z-3.405
G1 X0.263 Y-1.083 Z-3.425
G1 X0.469 Y-1.011 Z-3.444
G1 X0.657 Y-0.900 Z-3.463
G1 X0.820 Y-0.754 Z-3.483
G1 X0.951 Y-0.580 Z-3.502
G1 X1.046 Y-0.383 Z-3.521
G1 X1.101 Y-0.172 Z-3.541
G1 X1.113 Y0.046 Z-3.560
G1 X1.083 Y0.263 Z-3.579
G1 X1.011 Y0.469 Z-3.599
G1 X0.900 Y0.657 Z-3.618
G1 X0.754 Y0.820 Z-3.637
G1 X0.580 Y0.951 Z-3.657
G1 X0.383 Y1.046 Z-3.676
G1 X0.172 Y1.101 Z-3.695
G1 X-0.046 Y1.113 Z-3.714
G1 X-0.263 Y1.083 Z-3.734
G1 X-0.469 Y1.011 Z-3.753
G1 X-0.657 Y0.900 Z-3.772
G1 X-0.820 Y0.754 Z-3.792
G1 X-0.951 Y0.580 Z-3.811
G1 X-1.046 Y0.383 Z-3.830
G1 X-1.101 Y0.172 Z-3.850
G1 X-1.113 Y-0.046 Z-3.869
G1 X-1.083 Y-0.263 Z-3.888
G1 X-1.011 Y-0.469 Z-3.908
G1 X-0.900 Y-0.657 Z-3.927
G1 X-0.754 Y-0.820 Z-3.946
G1 X-0.580 Y-0.951 Z-3.965
G1 X-0.383 Y-1.046 Z-3.985
G1 X-0.172 Y-1.101 Z-4.000
G1 X0.046 Y-1.113 Z-4.000
G1 X0.263 Y-1.083 Z-4.000
G1 X0.469 Y-1.011 Z-4.000
G1 X0.657 Y-0.900 Z-4.000
G1 X0.820 Y-0.754 Z-4.000
G1 X0.951 Y-0.580 Z-4.000
G1 X1.046 Y-0.383 Z-4.000
G1 X1.101 Y-0.172 Z-4.000
G1 X1.113 Y0.046 Z-4.000
G1 X1.083 Y0.263 Z-4.000
G1 X1.011 Y0.469 Z-4.000
G1 X0.900 Y0.657 Z-4.000
G1 X0.754 Y0.820 Z-4.000
G1 X0.580 Y0.951 Z-4.000
G1 X0.383 Y1.046 Z-4.000
G1 X0.172 Y1.101 Z-4.000
G1 X-0.046 Y1.113 Z-4.000
G1 X-0.263 Y1.083 Z-4.000
G1 X-0.469 Y1.011 Z-4.000
G1 X-0.657 Y0.900 Z-4.000
G1 X-0.820 Y0.754 Z-4.000
G1 X-0.951 Y0.580 Z-4.000
G1 X-1.046 Y0.383 Z-4.000
G1 X-1.101 Y0.172 Z-4.000
G1 X-1.113 Y-0.046 Z-4.000
G1 X-1.083 Y-0.263 Z-4.000
G1 X-1.011 Y-0.469 Z-4.000
G1 X-0.900 Y-0.657 Z-4.000
G1 X-0.754 Y-0.820 Z-4.000
G1 X-0.580 Y-0.951 Z-4.000
G1 X-0.383 Y-1.046 Z-4.000
(Adaptive - depth: -4.000000)
G1 X0.000 Y-1.124
G1 X0.041 Y-1.165
G1 X0.150 Y-1.207
G1 X0.320 Y-1.222
G1 X0.489 Y-1.199
G1 X0.835 Y-1.068
G1 X1.011 Y-0.925
G1 X1.098 Y-0.831
G1 X1.177 Y-0.714
G1 X1.263 Y-0.556
G1 X1.346 Y-0.335
G1 X1.391 Y-0.113
G1 X1.398 Y0.094
G1 X1.372 Y0.274
G1 X1.327 Y0.444
G1 X1.248 Y0.639
G1 X1.128 Y0.838
G1 X0.996 Y0.992
G1 X0.853 Y1.120
G1 X0.680 Y1.233
G1 X0.500 Y1.316
G1 X0.308 Y1.372
G1 X0.105 Y1.398
G1 X-0.090 Y1.402
G1 X-0.316 Y1.372
G1 X-0.515 Y1.308
G1 X-0.684 Y1.229
G1 X-0.857 Y1.113
G1 X-1.011 Y0.977
G1 X-1.150 Y0.812
G1 X-1.259 Y0.635
G1 X-1.335 Y0.440
G1 X-1.376 Y0.267
G1 X-1.398 Y0.071
G1 X-1.395 Y-0.150
G1 X-1.357 Y-0.368
G1 X-1.286 Y-0.568
G1 X-1.203 Y-0.729
G1 X-1.083 Y-0.895
G1 X-0.947 Y-1.041
G1 X-0.771 Y-1.180
G1 X-0.594 Y-1.293
G1 X-0.372 Y-1.406
G1 X-0.132 Y-1.466
G1 X0.327 Y-1.504
G1 X0.692 Y-1.447
G1 X0.966 Y-1.320
G1 X1.086 Y-1.237
G1 X1.195 Y-1.143
G1 X1.327 Y-1.004
G1 X1.481 Y-0.786
G1 X1.586 Y-0.568
G1 X1.647 Y-0.372
G1 X1.680 Y-0.184
G1 X1.695 Y0.023
G1 X1.680 Y0.267
G1 X1.632 Y0.511
G1 X1.549 Y0.733
G1 X1.459 Y0.906
G1 X1.327 Y1.090
G1 X1.180 Y1.248
G1 X1.004 Y1.395
G1 X0.816 Y1.511
G1 X0.613 Y1.602
G1 X0.395 Y1.665
G1 X0.177 Y1.707
G1 X-0.064 Y1.718
G1 X-0.289 Y1.699
G1 X-0.515 Y1.650
G1 X-0.733 Y1.564
G1 X-0.914 Y1.466
G1 X-1.094 Y1.335
G1 X-1.256 Y1.184
G1 X-1.410 Y0.996
G1 X-1.530 Y0.801
G1 X-1.617 Y0.586
G1 X-1.669 Y0.398
G1 X-1.707 Y0.180
G1 X-1.718 Y-0.075
G1 X-1.695 Y-0.323
G1 X-1.632 Y-0.553
G1 X-1.564 Y-0.722
G1 X-1.459 Y-0.917
G1 X-1.320 Y-1.113
G1 X-1.147 Y-1.297
G1 X-0.966 Y-1.451
G1 X-0.759 Y-1.586
G1 X-0.538 Y-1.692
G1 X-0.308 Y-1.771
G1 X-0.071 Y-1.820
G1 X0.165 Y-1.846
G1 X0.432 Y-1.835
G1 X0.650 Y-1.801
G1 X0.880 Y-1.726
G1 X1.064 Y-1.635
G1 X1.252 Y-1.515
G1 X1.425 Y-1.372
G1 X1.594 Y-1.188
G1 X1.763 Y-0.947
G1 X1.917 Y-0.545
G1 X2.019 Y-0.060
G1 X1.985 Y0.338
G1 X1.895 Y0.677
G1 X1.684 Y1.098
G1 X1.462 Y1.380
G1 X1.192 Y1.617
G1 X0.883 Y1.801
G1 X0.541 Y1.932
G1 X0.180 Y1.996
G1 X-0.282 Y1.996
G1 X-0.620 Y1.932
G1 X-0.947 Y1.801
G1 X-1.244 Y1.602
G1 X-1.530 Y1.365
G1 X-1.763 Y1.004
G1 X-1.925 Y0.609
G1 X-2.004 Y0.188
G1 X-1.996 Y-0.274
G1 X-1.925 Y-0.613
G1 X-1.763 Y-0.992
G1 X-1.568 Y-1.289
G1 X-1.368 Y-1.508
G1 X-1.094 Y-1.759
G1 X-0.827 Y-1.910
G1 X-0.489 Y-2.045
G1 X0.105 Y-2.158
G1 X0.444 Y-2.162
G1 X0.782 Y-2.094
G1 X1.162 Y-1.936
G1 X1.414 Y-1.778
G1 X1.680 Y-1.541
G1 X1.944 Y-1.211
G1 X2.184 Y-0.714
G1 X2.286 Y-0.293
G1 X2.308 Y0.173
G1 X2.263 Y0.511
G1 X2.090 Y1.011
G1 X1.880 Y1.368
G1 X1.602 Y1.680
G1 X1.267 Y1.940
G1 X1.000 Y2.086
G1 X0.477 Y2.259
G1 X0.000 Y2.316
G1 X-0.508 Y2.286
G1 X-0.846 Y2.195
G1 X-1.169 Y2.053
G1 X-1.470 Y1.853
G1 X-1.729 Y1.602
G1 X-1.944 Y1.312
G1 X-2.180 Y0.816
G1 X-2.252 Y0.583
G1 X-2.323 Y-0.015
G1 X-2.301 Y-0.410
G1 X-2.177 Y-0.861
G1 X-1.902 Y-1.380
G1 X-1.680 Y-1.662
G1 X-1.361 Y-1.940
G1 X-1.008 Y-2.165
G1 X-0.500 Y-2.372
G1 X-0.139 Y-2.440
G1 X0.207 Y-2.459
G1 X0.489 Y-2.421
G1 X0.714 Y-2.365
G1 X1.102 Y-2.211
G1 X1.361 Y-2.060
G1 X1.688 Y-1.801
G1 X1.895 Y-1.586
G1 X2.173 Y-1.177
G1 X2.252 Y-1.015
G1 X2.376 Y-0.677
G1 X2.421 Y-0.496
G1 X2.470 Y-0.075
G1 X2.444 Y0.323
G1 X2.395 Y0.605
G1 X2.278 Y0.944
G1 X2.090 Y1.308
G1 X1.883 Y1.594
G1 X1.677 Y1.812
G1 X1.398 Y2.034
G1 X1.030 Y2.244
G1 X0.632 Y2.387
G1 X0.271 Y2.462
G1 X-0.083 Y2.470
G1 X-0.590 Y2.395
G1 X-0.985 Y2.263
G1 X-1.421 Y2.064
G1 X-1.639 Y1.981
G1 X-1.684 Y1.944
G1 X-2.105 Y1.293
G1 X-2.271 Y0.977
G1 X-2.432 Y0.455
G1 X-2.474 Y0.094
G1 X-2.436 Y-0.361
G1 X-2.365 Y-0.699
G1 X-2.237 Y-1.038
G1 X-2.094 Y-1.301
G1 X-1.789 Y-1.744
G1 X-1.639 Y-2.000
G1 X-1.590 Y-2.034
G1 X-1.357 Y-2.098
G1 X-0.914 Y-2.297
G1 X-0.383 Y-2.444
G1 X0.034 Y-2.470
G1 X0.034 Y-2.466
G1 X0.049 Y-2.455
G0 X0.060 Y-2.444
G0 X0.049 Y-2.350
G0 X-1.425 Y1.703
G1 X-1.440 Y1.741
G1 X-1.526 Y1.974
G1 X-1.564 Y2.008
G1 X-1.613 Y2.023
G1 X-1.613 Y2.023
G1 X-1.662 Y1.989
G1 X-1.695 Y1.940
G1 X-1.695 Y1.940
G1 X-1.695 Y1.917
G0 X-1.692 Y1.906
G0 X-1.662 Y1.895
G1 X-1.650 Y1.898
G1 X-1.647 Y1.925
G1 X-1.669 Y1.951
G1 X-1.722 Y1.940
G1 X-1.722 Y1.940
G1 X-1.891 Y1.643
G1 X-2.109 Y1.335
G1 X-2.289 Y1.004
G1 X-2.383 Y0.752
G1 X-2.444 Y0.515
G1 X-2.485 Y0.241
G1 X-2.504 Y0.008
G1 X-2.470 Y-0.331
G1 X-2.402 Y-0.665
G1 X-2.350 Y-0.831
G1 X-2.274 Y-1.026
G1 X-2.113 Y-1.327
G1 X-1.820 Y-1.748
G1 X-1.684 Y-2.011
G1 X-1.650 Y-2.041
G1 X-1.617 Y-2.056
G1 X-1.447 Y-2.094
G1 X-1.252 Y-2.169
G1 X-0.944 Y-2.312
G1 X-0.756 Y-2.380
G1 X-0.462 Y-2.455
G1 X-0.267 Y-2.485
G1 X0.060 Y-2.500
G1 X0.203 Y-2.489
G1 X0.511 Y-2.440
G1 X0.726 Y-2.387
G1 X0.936 Y-2.312
G1 X1.105 Y-2.237
G1 X1.256 Y-2.158
G1 X1.568 Y-1.940
G1 X1.737 Y-1.789
G1 X1.891 Y-1.632
G1 X2.008 Y-1.481
G1 X2.211 Y-1.169
G1 X2.282 Y-1.015
G1 X2.368 Y-0.786
G1 X2.432 Y-0.564
G1 X2.489 Y-0.229
G1 X2.496 Y-0.060
G1 X2.466 Y0.342
G1 X2.425 Y0.579
G1 X2.372 Y0.763
G1 X2.241 Y1.098
G1 X2.173 Y1.226
G1 X2.000 Y1.489
G1 X1.895 Y1.620
G1 X1.695 Y1.831
G1 X1.523 Y1.981
G1 X1.226 Y2.177
G1 X1.008 Y2.289
G1 X0.711 Y2.391
G1 X0.447 Y2.455
G1 X0.248 Y2.489
G1 X-0.008 Y2.496
G1 X-0.327 Y2.474
G1 X-0.526 Y2.436
G1 X-0.737 Y2.376
G1 X-1.079 Y2.248
G1 X-1.271 Y2.154
G1 X-1.504 Y2.075
G1 X-1.643 Y2.041
G1 X-1.703 Y1.977
G1 X-1.726 Y1.944
G1 X-1.722 Y1.940
G0 Z5.000
G0 Z5.000
(Finish operation: Adaptive__IN_8mm)
(Block-name: Profile_IN_8mm)
(Block-expand: 0)
(Block-enable: 1)
(Begin operation: Profile_IN_8mm)
(Path: Profile_IN_8mm)
(Profile)
(Compensated Tool Path. Diameter: 3.0)
G0 Z5.000
G0 X1.765 Y1.765
G0 Z3.000
G1 X1.765 Y1.765 Z-3.000
G2 X0.822 Y-2.357 Z-3.000 I-1.765 J-1.765 K0.000
G2 X-0.857 Y-2.345 Z-3.000 I-0.822 J2.357 K0.000
G3 X-1.497 Y-2.082 Z-3.000 I-1.910 J-3.741 K0.000
G2 X-1.685 Y-2.022 Z-3.000 I-0.043 J0.189 K0.000
G3 X-1.884 Y-1.651 Z-3.000 I-2.331 J-1.017 K0.000
G2 X-2.137 Y1.290 Z-3.000 I1.911 J1.646 K0.000
G3 X-1.759 Y1.866 Z-3.000 I-3.276 J2.564 K0.000
G2 X-1.665 Y2.038 Z-3.000 I0.194 J0.006 K0.000
G3 X-1.264 Y2.163 Z-3.000 I-0.556 J2.486 K0.000
G2 X-0.528 Y2.440 Z-3.000 I1.369 J-2.525 K0.000
G2 X1.765 Y1.765 Z-3.000 I0.528 J-2.440 K0.000
G1 X1.765 Y1.765 Z-4.000
G2 X0.822 Y-2.357 Z-4.000 I-1.765 J-1.765 K0.000
G2 X-0.857 Y-2.345 Z-4.000 I-0.822 J2.357 K0.000
G3 X-1.497 Y-2.082 Z-4.000 I-1.910 J-3.741 K0.000
G2 X-1.685 Y-2.022 Z-4.000 I-0.043 J0.189 K0.000
G3 X-1.884 Y-1.651 Z-4.000 I-2.331 J-1.017 K0.000
G2 X-2.137 Y1.290 Z-4.000 I1.911 J1.646 K0.000
G3 X-1.759 Y1.866 Z-4.000 I-3.276 J2.564 K0.000
G2 X-1.665 Y2.038 Z-4.000 I0.194 J0.006 K0.000
G3 X-1.264 Y2.163 Z-4.000 I-0.556 J2.486 K0.000
G2 X-0.528 Y2.440 Z-4.000 I1.369 J-2.525 K0.000
G2 X1.765 Y1.765 Z-4.000 I0.528 J-2.440 K0.000
G0 Z5.000
G0 Z5.000
(Finish operation: Profile_IN_8mm)
(Block-name: 3mm Endmill007)
(Block-expand: 0)
(Block-enable: 1)
(Begin operation: 3mm Endmill007)
(Path: 3mm Endmill007)
(3mm Endmill007)
(Begin toolchange)
( M6 T2 )
(Finish operation: 3mm Endmill007)
(Block-name: Adaptive_OUT_12mm_draft)
(Block-expand: 0)
(Block-enable: 1)
(Begin operation: Adaptive_OUT_12mm_draft)
(Path: Adaptive_OUT_12mm_draft)
(Adaptive_OUT_12mm_draft)
(Helix to depth: -4.000000)
G0 Z5.000
G0 X-5.202 Y6.820 Z5.000
G0 X-5.202 Y6.820 Z3.000
G1 X-5.202 Y6.820 Z0.000
G2 X-7.430 Y6.820 Z-0.309 I-1.114
G2 X-5.202 Y6.820 Z-0.618 I1.114
G2 X-7.430 Y6.820 Z-0.927 I-1.114
G2 X-5.202 Y6.820 Z-1.236 I1.114
G2 X-7.430 Y6.820 Z-1.545 I-1.114
G2 X-5.202 Y6.820 Z-1.854 I1.114
G2 X-7.430 Y6.820 Z-2.163 I-1.114
G2 X-5.202 Y6.820 Z-2.472 I1.114
G2 X-7.430 Y6.820 Z-2.781 I-1.114
G2 X-5.202 Y6.820 Z-3.090 I1.114
G2 X-7.430 Y6.820 Z-3.398 I-1.114
G2 X-5.202 Y6.820 Z-3.707 I1.114
G2 X-7.430 Y6.820 Z-4.000 I-1.114
G1 X-5.202 Y6.820 Z-4.000
G2 X-7.430 Y6.820 Z-4.000 I-1.114
G2 X-5.202 Y6.820 Z-4.000 I1.114
(Adaptive - depth: -4.000000)
G1 X-6.316 Y5.695
G1 X-6.271 Y5.650
G1 X-6.094 Y5.590
G1 X-5.974 Y5.579
G1 X-5.921 Y5.605
G1 X-5.921 Y5.605
G1 X-5.823 Y5.793
G0 X-5.808 Y5.820
G0 X-5.680 Y5.970
G1 X-5.658 Y5.996
G1 X-5.556 Y6.086
G1 X-5.335 Y6.203
G1 X-5.335 Y6.203
G1 X-5.256 Y6.289
G1 X-5.079 Y6.447
G1 X-5.004 Y6.541
G1 X-4.947 Y6.647
G1 X-4.914 Y6.816
G1 X-4.914 Y7.098
G1 X-4.932 Y7.211
G1 X-5.079 Y7.549
G1 X-5.226 Y7.756
G1 X-5.342 Y7.872
G1 X-5.470 Y7.974
G1 X-5.647 Y8.083
G1 X-5.857 Y8.169
G1 X-6.083 Y8.218
G1 X-6.365 Y8.226
G1 X-6.421 Y8.218
G1 X-6.530 Y8.173
G1 X-7.429 Y7.293
G1 X-7.538 Y7.147
G1 X-7.617 Y6.985
G1 X-7.647 Y6.744
G1 X-7.617 Y6.444
G1 X-7.583 Y6.323
G1 X-7.425 Y5.985
G1 X-7.233 Y5.759
G1 X-6.992 Y5.571
G1 X-6.808 Y5.462
G1 X-6.523 Y5.338
G1 X-6.342 Y5.293
G1 X-6.222 Y5.282
G1 X-6.169 Y5.312
G1 X-6.169 Y5.312
G1 X-6.109 Y5.417
G1 X-6.090 Y5.504
G0 X-6.086 Y5.534
G0 X-5.876 Y6.135
G0 X-5.842 Y6.184
G0 X-5.368 Y6.376
G1 X-5.335 Y6.387
G1 X-4.974 Y6.519
G1 X-4.974 Y6.519
G1 X-4.793 Y6.680
G1 X-4.692 Y6.827
G1 X-4.654 Y6.996
G1 X-4.654 Y7.222
G1 X-4.684 Y7.391
G1 X-4.827 Y7.733
G1 X-4.992 Y7.974
G1 X-5.113 Y8.102
G1 X-5.244 Y8.211
G1 X-5.410 Y8.320
G1 X-5.635 Y8.432
G1 X-5.917 Y8.508
G1 X-6.030 Y8.519
G1 X-6.086 Y8.508
G1 X-6.139 Y8.481
G1 X-6.432 Y8.259
G1 X-6.432 Y8.259
G1 X-6.504 Y8.154
G1 X-6.526 Y8.068
G0 X-6.519 Y8.041
G0 X-6.447 Y7.955
G0 X-5.064 Y6.782
G1 X-5.034 Y6.756
G1 X-4.951 Y6.695
G1 X-4.861 Y6.677
G1 X-4.748 Y6.711
G1 X-4.695 Y6.744
G1 X-4.695 Y6.744
G1 X-4.523 Y6.910
G1 X-4.455 Y7.011
G1 X-4.417 Y7.180
G1 X-4.417 Y7.462
G1 X-4.436 Y7.575
G1 X-4.568 Y7.921
G1 X-4.722 Y8.162
G1 X-4.838 Y8.301
G1 X-4.974 Y8.429
G1 X-5.158 Y8.568
G1 X-5.429 Y8.714
G1 X-5.654 Y8.774
G1 X-5.767 Y8.759
G1 X-5.914 Y8.650
G1 X-5.914 Y8.650
G1 X-5.992 Y8.549
G1 X-6.019 Y8.462
G0 X-6.019 Y8.436
G0 X-5.959 Y8.338
G0 X-4.808 Y7.011
G1 X-4.782 Y6.981
G1 X-4.707 Y6.906
G1 X-4.654 Y6.880
G1 X-4.568 Y6.880
G1 X-4.455 Y6.929
G1 X-4.455 Y6.929
G1 X-4.316 Y7.045
G1 X-4.237 Y7.135
G1 X-4.207 Y7.188
G1 X-4.162 Y7.414
G1 X-4.162 Y7.639
G1 X-4.177 Y7.752
G1 X-4.297 Y8.102
G1 X-4.455 Y8.368
G1 X-4.568 Y8.511
G1 X-4.699 Y8.647
G1 X-4.880 Y8.797
G1 X-5.079 Y8.914
G1 X-5.237 Y8.977
G1 X-5.350 Y9.004
G1 X-5.406 Y8.996
G1 X-5.703 Y8.808
G1 X-5.703 Y8.808
G1 X-5.782 Y8.707
G1 X-5.808 Y8.620
G0 X-5.805 Y8.594
G0 X-5.748 Y8.500
G0 X-4.564 Y7.180
G1 X-4.538 Y7.150
G1 X-4.462 Y7.079
G1 X-4.410 Y7.053
G1 X-4.323 Y7.053
G1 X-4.211 Y7.102
G1 X-4.211 Y7.102
G1 X-4.068 Y7.214
G1 X-3.989 Y7.308
G1 X-3.959 Y7.361
G1 X-3.910 Y7.586
G1 X-3.910 Y7.868
G1 X-4.004 Y8.226
G1 X-4.143 Y8.508
G1 X-4.248 Y8.665
G1 X-4.372 Y8.812
G1 X-4.530 Y8.962
G1 X-4.741 Y9.117
G1 X-4.947 Y9.207
G1 X-5.004 Y9.222
G1 X-5.060 Y9.218
G1 X-5.169 Y9.165
G1 X-5.320 Y9.068
G1 X-5.316 Y9.068
G1 X-5.402 Y8.974
G1 X-5.436 Y8.891
G0 X-5.436 Y8.865
G0 X-5.383 Y8.763
G0 X-4.350 Y7.327
G1 X-4.327 Y7.297
G1 X-4.259 Y7.218
G1 X-4.211 Y7.188
G1 X-4.120 Y7.188
G1 X-4.008 Y7.229
G1 X-4.008 Y7.229
G1 X-3.857 Y7.335
G1 X-3.733 Y7.462
G1 X-3.673 Y7.628
G1 X-3.635 Y7.910
G1 X-3.635 Y8.023
G1 X-3.714 Y8.383
G1 X-3.827 Y8.647
G1 X-3.925 Y8.816
G1 X-4.041 Y8.970
G1 X-4.192 Y9.132
G1 X-4.395 Y9.301
G1 X-4.602 Y9.402
G1 X-4.658 Y9.417
G1 X-4.714 Y9.414
G1 X-4.771 Y9.398
G1 X-5.083 Y9.218
G1 X-5.083 Y9.218
G1 X-5.173 Y9.132
G1 X-5.203 Y9.079
G1 X-5.211 Y9.053
G0 X-5.211 Y9.026
G0 X-5.162 Y8.925
G0 X-4.094 Y7.500
G1 X-4.071 Y7.470
G1 X-4.004 Y7.391
G1 X-3.955 Y7.365
G1 X-3.838 Y7.357
G1 X-3.752 Y7.383
G1 X-3.752 Y7.383
G1 X-3.553 Y7.523
G1 X-3.466 Y7.609
G1 X-3.436 Y7.658
G1 X-3.365 Y7.940
G1 X-3.350 Y8.165
G1 X-3.417 Y8.530
G1 X-3.523 Y8.808
G1 X-3.613 Y8.977
G1 X-3.718 Y9.139
G1 X-3.883 Y9.331
G1 X-4.060 Y9.477
G1 X-4.207 Y9.564
G1 X-4.312 Y9.605
G1 X-4.368 Y9.605
G1 X-4.688 Y9.447
G1 X-4.688 Y9.447
G1 X-4.778 Y9.361
G1 X-4.816 Y9.282
G0 X-4.820 Y9.252
G0 X-4.774 Y9.150
G0 X-3.823 Y7.658
G1 X-3.801 Y7.628
G1 X-3.741 Y7.545
G1 X-3.688 Y7.511
G1 X-3.602 Y7.500
G1 X-3.489 Y7.530
G1 X-3.489 Y7.530
G1 X-3.286 Y7.662
G1 X-3.203 Y7.748
G1 X-3.150 Y7.853
G1 X-3.079 Y8.135
G1 X-3.068 Y8.305
G1 X-3.113 Y8.673
G1 X-3.222 Y8.992
G1 X-3.305 Y9.158
G1 X-3.402 Y9.308
G1 X-3.620 Y9.560
G1 X-3.808 Y9.699
G1 X-3.962 Y9.774
G1 X-4.019 Y9.778
G1 X-4.233 Y9.684
G1 X-4.233 Y9.684
G1 X-4.327 Y9.602
G1 X-4.372 Y9.523
G0 X-4.376 Y9.496
G0 X-4.320 Y9.342
G0 X-3.538 Y7.801
G1 X-3.519 Y7.767
G1 X-3.466 Y7.680
G1 X-3.417 Y7.643
G1 X-3.331 Y7.632
G1 X-3.218 Y7.662
G1 X-3.218 Y7.662
G1 X-3.015 Y7.789
G1 X-2.929 Y7.872
G1 X-2.850 Y8.034
G1 X-2.774 Y8.316
G1 X-2.759 Y8.429
G1 X-2.793 Y8.797
G1 X-2.880 Y9.090
G1 X-2.959 Y9.263
G1 X-3.045 Y9.414
G1 X-3.263 Y9.699
G1 X-3.440 Y9.846
G1 X-3.590 Y9.929
G1 X-3.647 Y9.936
G1 X-3.703 Y9.925
G1 X-3.977 Y9.805
G1 X-3.977 Y9.805
G1 X-4.075 Y9.729
G1 X-4.120 Y9.654
G0 X-4.124 Y9.628
G0 X-4.090 Y9.519
G0 X-3.271 Y7.940
G1 X-3.252 Y7.906
G1 X-3.199 Y7.816
G1 X-3.150 Y7.782
G1 X-3.064 Y7.763
G1 X-2.947 Y7.789
G1 X-2.947 Y7.789
G1 X-2.741 Y7.910
G1 X-2.650 Y7.989
G1 X-2.564 Y8.143
G1 X-2.489 Y8.368
G1 X-2.459 Y8.538
G1 X-2.477 Y8.906
G1 X-2.560 Y9.214
G1 X-2.624 Y9.387
G1 X-2.722 Y9.568
G1 X-2.925 Y9.842
G1 X-3.098 Y9.996
G1 X-3.195 Y10.060
G1 X-3.252 Y10.075
G1 X-3.308 Y10.079
G1 X-3.647 Y9.951
G1 X-3.647 Y9.951
G1 X-3.744 Y9.876
G1 X-3.789 Y9.801
G0 X-3.793 Y9.771
G0 X-3.744 Y9.620
G0 X-2.992 Y8.060
G1 X-2.974 Y8.026
G1 X-2.921 Y7.936
G1 X-2.876 Y7.902
G1 X-2.789 Y7.883
G1 X-2.673 Y7.910
G1 X-2.673 Y7.910
G1 X-2.508 Y7.985
G1 X-2.361 Y8.098
G1 X-2.244 Y8.305
G1 X-2.169 Y8.586
G1 X-2.162 Y8.643
G1 X-2.165 Y9.011
G1 X-2.237 Y9.357
G1 X-2.305 Y9.541
G1 X-2.383 Y9.707
G1 X-2.579 Y9.981
G1 X-2.699 Y10.102
G1 X-2.842 Y10.199
G1 X-2.898 Y10.211
G1 X-2.955 Y10.203
G1 X-3.237 Y10.105
G1 X-3.237 Y10.105
G1 X-3.335 Y10.034
G1 X-3.387 Y9.959
G0 X-3.391 Y9.932
G0 X-3.368 Y9.823
G0 X-2.695 Y8.192
G1 X-2.680 Y8.158
G1 X-2.628 Y8.064
G1 X-2.571 Y8.023
G1 X-2.481 Y8.000
G1 X-2.391 Y8.011
G1 X-2.391 Y8.011
G1 X-2.169 Y8.117
G1 X-2.075 Y8.188
G1 X-1.955 Y8.391
G1 X-1.861 Y8.665
G1 X-1.850 Y8.722
G1 X-1.835 Y9.090
G1 X-1.895 Y9.440
G1 X-1.951 Y9.624
G1 X-2.026 Y9.793
G1 X-2.207 Y10.079
G1 X-2.327 Y10.207
G1 X-2.470 Y10.308
G1 X-2.526 Y10.323
G1 X-2.583 Y10.323
G1 X-2.865 Y10.233
G1 X-2.865 Y10.233
G1 X-2.970 Y10.169
G1 X-3.026 Y10.102
G0 X-3.034 Y10.075
G0 X-2.996 Y9.917
G0 X-2.406 Y8.297
G1 X-2.391 Y8.263
G1 X-2.350 Y8.169
G1 X-2.308 Y8.128
G1 X-2.226 Y8.098
G1 X-2.109 Y8.109
G1 X-2.109 Y8.109
G1 X-1.940 Y8.177
G1 X-1.786 Y8.271
G1 X-1.711 Y8.361
G1 X-1.605 Y8.571
G1 X-1.538 Y8.797
G1 X-1.508 Y9.165
G1 X-1.556 Y9.534
G1 X-1.609 Y9.722
G1 X-1.673 Y9.891
G1 X-1.846 Y10.184
G1 X-2.004 Y10.350
G1 X-2.098 Y10.417
G1 X-2.154 Y10.432
G1 X-2.436 Y10.361
G1 X-2.436 Y10.361
G1 X-2.541 Y10.301
G1 X-2.602 Y10.233
G0 X-2.609 Y10.207
G0 X-2.583 Y10.045
G0 X-2.105 Y8.395
G1 X-2.094 Y8.357
G1 X-2.060 Y8.259
G1 X-2.019 Y8.218
G1 X-1.936 Y8.188
G1 X-1.820 Y8.199
G1 X-1.820 Y8.199
G1 X-1.643 Y8.259
G1 X-1.489 Y8.350
G1 X-1.414 Y8.444
G1 X-1.308 Y8.658
G1 X-1.256 Y8.827
G1 X-1.195 Y9.192
G1 X-1.218 Y9.560
G1 X-1.263 Y9.763
G1 X-1.320 Y9.932
G1 X-1.406 Y10.120
G1 X-1.530 Y10.312
G1 X-1.688 Y10.477
G1 X-1.737 Y10.508
G1 X-1.793 Y10.523
G1 X-1.962 Y10.489
G1 X-1.962 Y10.489
G1 X-2.071 Y10.436
G1 X-2.135 Y10.372
G0 X-2.143 Y10.346
G0 X-2.132 Y10.184
G0 X-1.797 Y8.485
G1 X-1.793 Y8.447
G1 X-1.763 Y8.346
G1 X-1.726 Y8.305
G1 X-1.647 Y8.271
G1 X-1.530 Y8.274
G1 X-1.530 Y8.274
G1 X-1.297 Y8.361
G1 X-1.199 Y8.429
G1 X-1.068 Y8.628
G1 X-0.981 Y8.846
G1 X-0.895 Y9.267
G1 X-0.902 Y9.635
G1 X-0.947 Y9.868
G1 X-1.000 Y10.038
G1 X-1.079 Y10.214
G1 X-1.173 Y10.361
G1 X-1.335 Y10.530
G1 X-1.380 Y10.568
G1 X-1.432 Y10.590
G1 X-1.489 Y10.594
G1 X-1.714 Y10.545
G1 X-1.714 Y10.545
G1 X-1.823 Y10.492
G1 X-1.887 Y10.429
G0 X-1.895 Y10.402
G0 X-1.883 Y10.244
G0 X-1.564 Y8.553
G1 X-1.556 Y8.515
G1 X-1.530 Y8.414
G1 X-1.492 Y8.368
G1 X-1.414 Y8.331
G1 X-1.297 Y8.327
G1 X-1.297 Y8.327
G1 X-1.117 Y8.372
G1 X-0.955 Y8.459
G1 X-0.910 Y8.500
G1 X-0.778 Y8.699
G1 X-0.692 Y8.921
G1 X-0.594 Y9.278
G1 X-0.579 Y9.647
G1 X-0.609 Y9.883
G1 X-0.658 Y10.056
G1 X-0.726 Y10.218
G1 X-0.835 Y10.414
G1 X-0.989 Y10.586
G1 X-1.034 Y10.624
G1 X-1.086 Y10.647
G1 X-1.199 Y10.647
G1 X-1.256 Y10.635
G1 X-1.256 Y10.635
G1 X-1.368 Y10.586
G1 X-1.429 Y10.526
G0 X-1.440 Y10.500
G0 X-1.444 Y10.338
G0 X-1.259 Y8.609
G1 X-1.252 Y8.571
G1 X-1.233 Y8.470
G1 X-1.199 Y8.425
G1 X-1.120 Y8.387
G1 X-1.004 Y8.383
G1 X-1.004 Y8.383
G1 X-0.823 Y8.432
G1 X-0.714 Y8.485
G1 X-0.665 Y8.523
G1 X-0.489 Y8.759
G1 X-0.391 Y8.974
G1 X-0.286 Y9.331
G1 X-0.259 Y9.699
G1 X-0.286 Y9.921
G1 X-0.327 Y10.083
G1 X-0.387 Y10.248
G1 X-0.500 Y10.462
G1 X-0.695 Y10.673
G1 X-0.748 Y10.692
G1 X-0.805 Y10.695
G1 X-0.917 Y10.680
G1 X-0.917 Y10.680
G1 X-1.056 Y10.617
G1 X-1.098 Y10.575
G0 X-1.109 Y10.553
G0 X-1.117 Y10.391
G0 X-1.000 Y8.662
G1 X-1.000 Y8.624
G1 X-0.985 Y8.523
G1 X-0.955 Y8.474
G1 X-0.880 Y8.432
G1 X-0.763 Y8.421
G1 X-0.763 Y8.421
G1 X-0.523 Y8.477
G1 X-0.414 Y8.530
G1 X-0.252 Y8.707
G1 X-0.083 Y9.019
G1 X0.026 Y9.372
G1 X0.060 Y9.741
G1 X0.034 Y9.966
G1 X-0.004 Y10.124
G1 X-0.060 Y10.286
G1 X-0.169 Y10.489
G1 X-0.274 Y10.628
G1 X-0.357 Y10.707
G1 X-0.410 Y10.729
G1 X-0.466 Y10.737
G1 X-0.635 Y10.718
G1 X-0.635 Y10.718
G1 X-0.774 Y10.654
G1 X-0.816 Y10.613
G0 X-0.827 Y10.590
G0 X-0.835 Y10.429
G0 X-0.703 Y8.703
G1 X-0.703 Y8.665
G1 X-0.688 Y8.564
G1 X-0.658 Y8.515
G1 X-0.583 Y8.470
G1 X-0.466 Y8.455
G1 X-0.466 Y8.455
G1 X-0.229 Y8.511
G1 X-0.120 Y8.564
G1 X0.041 Y8.733
G1 X0.218 Y9.030
G1 X0.342 Y9.380
G1 X0.380 Y9.748
G1 X0.368 Y9.929
G1 X0.342 Y10.090
G1 X0.286 Y10.293
G1 X0.180 Y10.523
G1 X0.026 Y10.707
G1 X-0.075 Y10.759
G1 X-0.414 Y10.741
G1 X-0.414 Y10.741
G1 X-0.530 Y10.707
G1 X-0.598 Y10.654
G0 X-0.609 Y10.628
G0 X-0.609 Y10.470
G0 X-0.417 Y8.733
G1 X-0.414 Y8.695
G1 X-0.395 Y8.594
G1 X-0.361 Y8.545
G1 X-0.286 Y8.504
G1 X-0.169 Y8.492
G1 X-0.169 Y8.492
G1 X0.064 Y8.541
G1 X0.169 Y8.586
G1 X0.335 Y8.744
G1 X0.496 Y8.981
G1 X0.658 Y9.380
G1 X0.707 Y9.748
G1 X0.699 Y9.929
G1 X0.677 Y10.090
G1 X0.620 Y10.297
G1 X0.489 Y10.560
G1 X0.335 Y10.744
G1 X0.278 Y10.771
G1 X0.038 Y10.767
G1 X0.038 Y10.767
G1 X-0.079 Y10.733
G1 X-0.147 Y10.680
G0 X-0.162 Y10.654
G0 X-0.177 Y10.492
G0 X-0.162 Y8.763
G1 X-0.162 Y8.726
G1 X-0.147 Y8.620
G1 X-0.105 Y8.564
G1 X-0.023 Y8.523
G1 X0.068 Y8.511
G1 X0.068 Y8.511
G1 X0.350 Y8.549
G1 X0.459 Y8.586
G1 X0.549 Y8.654
G1 X0.703 Y8.827
G1 X0.823 Y9.023
G1 X0.966 Y9.365
G1 X1.030 Y9.729
G1 X1.030 Y9.910
G1 X1.015 Y10.068
G1 X0.966 Y10.271
G1 X0.883 Y10.492
G1 X0.744 Y10.692
G1 X0.703 Y10.737
G1 X0.650 Y10.767
G1 X0.410 Y10.774
G1 X0.410 Y10.774
G1 X0.282 Y10.744
G1 X0.203 Y10.692
G0 X0.188 Y10.669
G0 X0.165 Y10.511
G0 X0.128 Y8.789
G1 X0.128 Y8.752
G1 X0.135 Y8.650
G1 X0.165 Y8.598
G1 X0.241 Y8.545
G1 X0.365 Y8.519
G1 X0.365 Y8.519
G1 X0.590 Y8.534
G1 X0.756 Y8.579
G1 X0.891 Y8.684
G1 X1.075 Y8.906
G1 X1.135 Y9.004
G1 X1.286 Y9.342
G1 X1.357 Y9.707
G1 X1.361 Y9.891
G1 X1.350 Y10.060
G1 X1.305 Y10.271
G1 X1.211 Y10.489
G1 X1.117 Y10.639
G1 X1.041 Y10.729
G1 X0.989 Y10.759
G1 X0.929 Y10.771
G1 X0.748 Y10.774
G1 X0.748 Y10.774
G1 X0.620 Y10.752
G1 X0.541 Y10.707
G0 X0.526 Y10.684
G0 X0.500 Y10.523
G0 X0.432 Y8.789
G1 X0.432 Y8.752
G1 X0.436 Y8.650
G1 X0.466 Y8.598
G1 X0.541 Y8.545
G1 X0.665 Y8.519
G1 X0.665 Y8.519
G1 X0.891 Y8.530
G1 X1.004 Y8.556
G1 X1.056 Y8.579
G1 X1.237 Y8.726
G1 X1.417 Y8.947
G1 X1.447 Y8.996
G1 X1.605 Y9.331
G1 X1.684 Y9.692
G1 X1.692 Y9.876
G1 X1.677 Y10.041
G1 X1.639 Y10.233
G1 X1.526 Y10.508
G1 X1.387 Y10.707
G1 X1.335 Y10.737
G1 X1.214 Y10.759
G1 X1.094 Y10.763
G1 X1.094 Y10.763
G1 X0.966 Y10.741
G1 X0.887 Y10.695
G0 X0.872 Y10.673
G0 X0.842 Y10.515
G0 X0.744 Y8.789
G1 X0.744 Y8.752
G1 X0.744 Y8.650
G1 X0.771 Y8.594
G1 X0.842 Y8.538
G1 X0.966 Y8.504
G1 X0.966 Y8.504
G1 X1.192 Y8.504
G1 X1.305 Y8.523
G1 X1.357 Y8.541
G1 X1.538 Y8.684
G1 X1.722 Y8.906
G1 X1.921 Y9.286
G1 X2.008 Y9.647
G1 X2.019 Y9.835
G1 X2.011 Y9.992
G1 X1.962 Y10.241
G1 X1.853 Y10.515
G1 X1.756 Y10.662
G1 X1.707 Y10.695
G1 X1.647 Y10.711
G1 X1.466 Y10.729
G1 X1.466 Y10.729
G1 X1.338 Y10.714
G1 X1.256 Y10.673
G0 X1.241 Y10.650
G0 X1.211 Y10.541
G0 X1.053 Y8.778
G1 X1.053 Y8.741
G1 X1.049 Y8.635
G1 X1.075 Y8.583
G1 X1.143 Y8.523
G1 X1.263 Y8.481
G1 X1.263 Y8.481
G1 X1.489 Y8.477
G1 X1.602 Y8.500
G1 X1.654 Y8.523
G1 X1.883 Y8.703
G1 X2.064 Y8.921
G1 X2.237 Y9.248
G1 X2.323 Y9.571
G1 X2.342 Y9.744
G1 X2.342 Y9.910
G1 X2.320 Y10.113
G1 X2.259 Y10.365
G1 X2.180 Y10.523
G1 X2.113 Y10.620
G1 X2.060 Y10.654
G1 X1.820 Y10.688
G1 X1.820 Y10.688
G1 X1.692 Y10.673
G1 X1.609 Y10.632
G0 X1.594 Y10.609
G0 X1.560 Y10.504
G0 X1.361 Y8.744
G1 X1.357 Y8.707
G1 X1.353 Y8.602
G1 X1.376 Y8.549
G1 X1.444 Y8.489
G1 X1.564 Y8.447
G1 X1.564 Y8.447
G1 X1.789 Y8.444
G1 X1.902 Y8.462
G1 X1.955 Y8.481
G1 X2.184 Y8.654
G1 X2.335 Y8.827
G1 X2.526 Y9.143
G1 X2.639 Y9.496
G1 X2.665 Y9.680
G1 X2.673 Y9.842
G1 X2.662 Y10.056
G1 X2.609 Y10.312
G1 X2.500 Y10.519
G1 X2.466 Y10.568
G1 X2.417 Y10.602
G1 X2.117 Y10.654
G1 X2.117 Y10.654
G1 X1.989 Y10.639
G1 X1.906 Y10.598
G0 X1.891 Y10.575
G0 X1.857 Y10.470
G0 X1.658 Y8.711
G1 X1.654 Y8.673
G1 X1.650 Y8.568
G1 X1.673 Y8.515
G1 X1.741 Y8.455
G1 X1.861 Y8.414
G1 X1.861 Y8.414
G1 X2.086 Y8.402
G1 X2.199 Y8.425
G1 X2.398 Y8.541
G1 X2.564 Y8.695
G1 X2.639 Y8.786
G1 X2.838 Y9.098
G1 X2.962 Y9.447
G1 X2.992 Y9.635
G1 X3.008 Y9.797
G1 X2.996 Y10.011
G1 X2.917 Y10.293
G1 X2.838 Y10.455
G1 X2.797 Y10.500
G1 X2.748 Y10.538
G1 X2.688 Y10.549
G1 X2.688 Y10.549
G1 X2.560 Y10.545
G1 X2.474 Y10.511
G0 X2.451 Y10.492
G0 X2.391 Y10.342
G0 X1.936 Y8.688
G1 X1.925 Y8.650
G1 X1.910 Y8.549
G1 X1.925 Y8.492
G1 X1.985 Y8.425
G1 X2.098 Y8.368
G1 X2.098 Y8.368
G1 X2.323 Y8.338
G1 X2.492 Y8.357
G1 X2.643 Y8.436
G1 X2.823 Y8.579
G1 X2.940 Y8.707
G1 X3.147 Y9.015
G1 X3.282 Y9.361
G1 X3.320 Y9.545
G1 X3.331 Y9.711
G1 X3.312 Y10.015
G1 X3.267 Y10.184
G1 X3.165 Y10.398
G1 X3.120 Y10.440
G1 X2.883 Y10.508
G1 X2.883 Y10.508
G1 X2.756 Y10.504
G1 X2.669 Y10.470
G0 X2.647 Y10.451
G0 X2.594 Y10.301
G0 X2.214 Y8.617
G1 X2.207 Y8.579
G1 X2.192 Y8.477
G1 X2.211 Y8.421
G1 X2.274 Y8.357
G1 X2.391 Y8.308
G1 X2.391 Y8.308
G1 X2.617 Y8.271
G1 X2.729 Y8.274
G1 X2.786 Y8.286
G1 X2.989 Y8.395
G1 X3.207 Y8.583
G1 X3.244 Y8.624
G1 X3.459 Y8.925
G1 X3.598 Y9.267
G1 X3.639 Y9.447
G1 X3.662 Y9.613
G1 X3.662 Y9.827
G1 X3.617 Y10.053
G1 X3.526 Y10.274
G1 X3.492 Y10.323
G1 X3.447 Y10.365
G1 X3.271 Y10.414
G1 X3.271 Y10.414
G1 X3.143 Y10.417
G1 X3.056 Y10.387
G0 X3.034 Y10.368
G0 X2.974 Y10.218
G0 X2.523 Y8.560
G1 X2.511 Y8.523
G1 X2.492 Y8.421
G1 X2.508 Y8.365
G1 X2.568 Y8.297
G1 X2.680 Y8.237
G1 X2.680 Y8.237
G1 X2.850 Y8.199
G1 X3.019 Y8.192
G1 X3.075 Y8.199
G1 X3.278 Y8.305
G1 X3.459 Y8.447
G1 X3.541 Y8.530
G1 X3.763 Y8.827
G1 X3.917 Y9.162
G1 X3.966 Y9.357
G1 X3.985 Y9.519
G1 X3.985 Y9.763
G1 X3.944 Y9.989
G1 X3.880 Y10.154
G1 X3.850 Y10.207
G1 X3.805 Y10.248
G1 X3.635 Y10.308
G1 X3.635 Y10.308
G1 X3.508 Y10.320
G1 X3.421 Y10.297
G0 X3.398 Y10.282
G0 X3.331 Y10.135
G0 X2.823 Y8.489
G1 X2.812 Y8.451
G1 X2.793 Y8.350
G1 X2.805 Y8.289
G1 X2.861 Y8.218
G1 X2.970 Y8.154
G1 X2.970 Y8.154
G1 X3.195 Y8.109
G1 X3.308 Y8.109
G1 X3.365 Y8.120
G1 X3.617 Y8.256
G1 X3.797 Y8.402
G1 X4.038 Y8.680
G1 X4.207 Y9.008
G1 X4.263 Y9.180
G1 X4.301 Y9.342
G1 X4.320 Y9.556
G1 X4.308 Y9.786
G1 X4.214 Y10.064
G1 X4.173 Y10.109
G1 X4.124 Y10.143
G1 X3.895 Y10.226
G1 X3.895 Y10.226
G1 X3.767 Y10.237
G1 X3.680 Y10.214
G0 X3.658 Y10.195
G0 X3.594 Y10.049
G0 X3.109 Y8.398
G1 X3.098 Y8.361
G1 X3.079 Y8.259
G1 X3.090 Y8.199
G1 X3.147 Y8.128
G1 X3.256 Y8.064
G1 X3.256 Y8.064
G1 X3.481 Y8.011
G1 X3.594 Y8.011
G1 X3.861 Y8.124
G1 X4.090 Y8.297
G1 X4.338 Y8.571
G1 X4.519 Y8.895
G1 X4.583 Y9.075
G1 X4.624 Y9.237
G1 X4.647 Y9.571
G1 X4.624 Y9.741
G1 X4.568 Y9.910
G1 X4.538 Y9.962
G1 X4.496 Y10.008
G1 X4.327 Y10.071
G1 X4.327 Y10.071
G1 X4.169 Y10.083
G1 X4.113 Y10.068
G0 X4.090 Y10.049
G0 X4.011 Y9.910
G0 X3.361 Y8.312
G1 X3.346 Y8.278
G1 X3.316 Y8.180
G1 X3.323 Y8.120
G1 X3.372 Y8.049
G1 X3.481 Y7.981
G1 X3.481 Y7.981
G1 X3.707 Y7.906
G1 X3.876 Y7.891
G1 X3.932 Y7.902
G1 X4.143 Y8.000
G1 X4.380 Y8.165
G1 X4.635 Y8.432
G1 X4.820 Y8.744
G1 X4.887 Y8.921
G1 X4.932 Y9.079
G1 X4.970 Y9.346
G1 X4.955 Y9.571
G1 X4.914 Y9.741
G1 X4.891 Y9.797
G1 X4.853 Y9.846
G1 X4.692 Y9.929
G1 X4.692 Y9.929
G1 X4.534 Y9.951
G1 X4.477 Y9.936
G0 X4.455 Y9.921
G0 X4.391 Y9.827
G0 X3.703 Y8.184
G1 X3.688 Y8.150
G1 X3.658 Y8.053
G1 X3.662 Y7.992
G1 X3.711 Y7.917
G1 X3.816 Y7.850
G1 X3.816 Y7.850
G1 X3.985 Y7.793
G1 X4.098 Y7.774
G1 X4.154 Y7.774
G1 X4.372 Y7.850
G1 X4.662 Y8.034
G1 X4.925 Y8.293
G1 X5.124 Y8.605
G1 X5.199 Y8.778
G1 X5.248 Y8.936
G1 X5.286 Y9.211
G1 X5.267 Y9.492
G1 X5.241 Y9.605
G1 X5.214 Y9.658
G1 X5.177 Y9.703
G1 X5.128 Y9.737
G1 X5.128 Y9.737
G1 X4.970 Y9.759
G1 X4.910 Y9.744
G0 X4.887 Y9.729
G0 X4.793 Y9.598
G0 X3.944 Y8.086
G1 X3.925 Y8.053
G1 X3.883 Y7.959
G1 X3.887 Y7.902
G1 X3.932 Y7.827
G1 X4.034 Y7.752
G1 X4.034 Y7.752
G1 X4.312 Y7.654
G1 X4.425 Y7.647
G1 X4.594 Y7.692
G1 X4.752 Y7.763
G1 X4.898 Y7.857
G1 X5.177 Y8.102
G1 X5.391 Y8.402
G1 X5.474 Y8.575
G1 X5.534 Y8.729
G1 X5.583 Y8.944
G1 X5.605 Y9.180
G1 X5.586 Y9.350
G1 X5.553 Y9.462
G1 X5.523 Y9.515
G1 X5.481 Y9.560
G1 X5.425 Y9.586
G1 X5.425 Y9.586
G1 X5.297 Y9.617
G1 X5.207 Y9.605
G0 X5.184 Y9.590
G0 X5.086 Y9.459
G0 X4.222 Y7.966
G1 X4.203 Y7.932
G1 X4.162 Y7.838
G1 X4.162 Y7.782
G1 X4.203 Y7.703
G1 X4.305 Y7.624
G1 X4.305 Y7.624
G1 X4.523 Y7.534
G1 X4.635 Y7.508
G1 X4.692 Y7.508
G1 X4.917 Y7.571
G1 X5.169 Y7.707
G1 X5.455 Y7.944
G1 X5.680 Y8.237
G1 X5.767 Y8.410
G1 X5.827 Y8.553
G1 X5.895 Y8.778
G1 X5.910 Y9.060
G1 X5.887 Y9.229
G1 X5.872 Y9.286
G1 X5.842 Y9.338
G1 X5.801 Y9.380
G1 X5.801 Y9.376
G1 X5.677 Y9.410
G1 X5.586 Y9.402
G0 X5.564 Y9.391
G0 X5.459 Y9.267
G0 X4.511 Y7.827
G1 X4.489 Y7.797
G1 X4.444 Y7.707
G1 X4.440 Y7.647
G1 X4.477 Y7.571
G1 X4.575 Y7.489
G1 X4.575 Y7.489
G1 X4.789 Y7.383
G1 X4.902 Y7.357
G1 X4.959 Y7.357
G1 X5.237 Y7.436
G1 X5.440 Y7.541
G1 X5.729 Y7.771
G1 X5.966 Y8.056
G1 X6.060 Y8.222
G1 X6.128 Y8.372
G1 X6.199 Y8.635
G1 X6.218 Y8.917
G1 X6.195 Y9.086
G1 X6.135 Y9.188
G1 X6.083 Y9.222
G1 X6.083 Y9.222
G1 X5.959 Y9.256
G1 X5.868 Y9.248
G0 X5.846 Y9.237
G0 X5.741 Y9.113
G0 X4.778 Y7.677
G1 X4.756 Y7.647
G1 X4.707 Y7.556
G1 X4.699 Y7.496
G1 X4.737 Y7.417
G1 X4.831 Y7.335
G1 X4.831 Y7.335
G1 X5.045 Y7.229
G1 X5.158 Y7.199
G1 X5.214 Y7.195
G1 X5.383 Y7.229
G1 X5.707 Y7.365
G1 X6.004 Y7.586
G1 X6.241 Y7.861
G1 X6.338 Y8.019
G1 X6.410 Y8.169
G1 X6.477 Y8.368
G1 X6.526 Y8.613
G1 X6.515 Y8.838
G1 X6.504 Y8.895
G1 X6.474 Y8.947
G1 X6.432 Y8.989
G1 X6.432 Y8.989
G1 X6.312 Y9.034
G1 X6.222 Y9.034
G0 X6.195 Y9.026
G0 X6.086 Y8.906
G0 X5.049 Y7.526
G1 X5.026 Y7.496
G1 X4.974 Y7.410
G1 X4.966 Y7.353
G1 X5.000 Y7.267
G1 X5.086 Y7.177
G1 X5.086 Y7.177
G1 X5.297 Y7.068
G1 X5.410 Y7.034
G1 X5.466 Y7.030
G1 X5.692 Y7.071
G1 X5.959 Y7.180
G1 X6.263 Y7.391
G1 X6.511 Y7.658
G1 X6.617 Y7.816
G1 X6.695 Y7.966
G1 X6.771 Y8.169
G1 X6.820 Y8.508
G1 X6.808 Y8.677
G1 X6.786 Y8.729
G1 X6.748 Y8.774
G1 X6.699 Y8.808
G1 X6.699 Y8.808
G1 X6.579 Y8.853
G1 X6.489 Y8.853
G0 X6.462 Y8.846
G0 X6.353 Y8.729
G0 X5.312 Y7.361
G1 X5.289 Y7.331
G1 X5.233 Y7.244
G1 X5.226 Y7.188
G1 X5.256 Y7.102
G1 X5.338 Y7.011
G1 X5.338 Y7.011
G1 X5.541 Y6.891
G1 X5.654 Y6.853
G1 X5.711 Y6.846
G1 X5.992 Y6.895
G1 X6.207 Y6.981
G1 X6.519 Y7.180
G1 X6.778 Y7.444
G1 X6.887 Y7.602
G1 X6.970 Y7.744
G1 X7.053 Y7.947
G1 X7.109 Y8.229
G1 X7.113 Y8.398
G1 X7.105 Y8.455
G1 X7.083 Y8.508
G1 X7.049 Y8.556
G1 X6.902 Y8.669
G1 X6.902 Y8.669
G1 X6.786 Y8.722
G1 X6.695 Y8.729
G0 X6.669 Y8.718
G0 X6.590 Y8.639
G0 X5.560 Y7.195
G1 X5.538 Y7.165
G1 X5.485 Y7.075
G1 X5.477 Y7.019
G1 X5.519 Y6.906
G1 X5.579 Y6.835
G1 X5.579 Y6.835
G1 X5.786 Y6.714
G1 X5.895 Y6.677
G1 X6.064 Y6.677
G1 X6.398 Y6.763
G1 X6.451 Y6.786
G1 X6.767 Y6.977
G1 X7.015 Y7.211
G1 X7.132 Y7.357
G1 X7.226 Y7.508
G1 X7.320 Y7.699
G1 X7.395 Y7.959
G1 X7.406 Y8.128
G1 X7.391 Y8.241
G1 X7.365 Y8.293
G1 X7.233 Y8.414
G1 X7.233 Y8.414
G1 X7.117 Y8.466
G1 X7.026 Y8.474
G0 X7.000 Y8.462
G0 X6.883 Y8.350
G0 X5.805 Y7.008
G1 X5.778 Y6.977
G1 X5.722 Y6.891
G1 X5.711 Y6.835
G1 X5.737 Y6.748
G1 X5.820 Y6.654
G1 X5.820 Y6.654
G1 X6.019 Y6.523
G1 X6.128 Y6.477
G1 X6.184 Y6.466
G1 X6.466 Y6.496
G1 X6.688 Y6.568
G1 X7.008 Y6.752
G1 X7.271 Y6.981
G1 X7.391 Y7.128
G1 X7.489 Y7.271
G1 X7.586 Y7.462
G1 X7.677 Y7.767
G1 X7.688 Y7.936
G1 X7.684 Y7.992
G1 X7.662 Y8.049
G1 X7.620 Y8.090
G1 X7.620 Y8.090
G1 X7.504 Y8.147
G1 X7.414 Y8.158
G0 X7.387 Y8.150
G0 X7.259 Y8.045
G0 X6.064 Y6.812
G1 X6.038 Y6.786
G1 X5.974 Y6.707
G1 X5.959 Y6.650
G1 X5.977 Y6.564
G1 X6.049 Y6.462
G1 X6.049 Y6.462
G1 X6.244 Y6.327
G1 X6.353 Y6.282
G1 X6.410 Y6.271
G1 X6.692 Y6.289
G1 X6.917 Y6.350
G1 X7.244 Y6.519
G1 X7.511 Y6.741
G1 X7.635 Y6.880
G1 X7.737 Y7.023
G1 X7.842 Y7.211
G1 X7.936 Y7.451
G1 X7.966 Y7.620
G1 X7.962 Y7.733
G1 X7.944 Y7.789
G1 X7.823 Y7.917
G1 X7.823 Y7.917
G1 X7.714 Y7.981
G1 X7.628 Y7.996
G0 X7.602 Y7.992
G0 X7.511 Y7.921
G0 X6.286 Y6.617
G1 X6.259 Y6.586
G1 X6.195 Y6.504
G1 X6.180 Y6.447
G1 X6.199 Y6.361
G1 X6.274 Y6.263
G1 X6.274 Y6.263
G1 X6.466 Y6.124
G1 X6.575 Y6.079
G1 X6.801 Y6.064
G1 X7.139 Y6.128
G1 X7.474 Y6.289
G1 X7.737 Y6.492
G1 X7.872 Y6.632
G1 X7.985 Y6.774
G1 X8.102 Y6.962
G1 X8.199 Y7.229
G1 X8.229 Y7.398
G1 X8.229 Y7.455
G1 X8.214 Y7.511
G1 X8.180 Y7.560
G1 X8.180 Y7.560
G1 X8.071 Y7.624
G1 X7.985 Y7.643
G0 X7.955 Y7.635
G0 X7.820 Y7.545
G0 X6.489 Y6.436
G1 X6.459 Y6.410
G1 X6.387 Y6.338
G1 X6.365 Y6.286
G1 X6.380 Y6.199
G1 X6.447 Y6.094
G1 X6.447 Y6.094
G1 X6.624 Y5.936
G1 X6.726 Y5.872
G1 X6.835 Y5.835
G1 X7.117 Y5.831
G1 X7.342 Y5.876
G1 X7.680 Y6.026
G1 X7.966 Y6.229
G1 X8.105 Y6.365
G1 X8.222 Y6.504
G1 X8.395 Y6.793
G1 X8.477 Y7.071
G1 X8.489 Y7.184
G1 X8.474 Y7.241
G1 X8.436 Y7.286
G1 X8.436 Y7.286
G1 X8.331 Y7.357
G1 X8.241 Y7.380
G0 X8.214 Y7.372
G0 X8.079 Y7.286
G0 X6.741 Y6.180
G1 X6.711 Y6.154
G1 X6.639 Y6.083
G1 X6.617 Y6.030
G1 X6.632 Y5.944
G1 X6.699 Y5.838
G1 X6.699 Y5.838
G1 X6.880 Y5.680
G1 X6.981 Y5.624
G1 X7.038 Y5.605
G1 X7.263 Y5.586
G1 X7.545 Y5.624
G1 X7.887 Y5.763
G1 X8.162 Y5.944
G1 X8.308 Y6.075
G1 X8.432 Y6.211
G1 X8.560 Y6.391
G1 X8.677 Y6.605
G1 X8.737 Y6.827
G1 X8.744 Y6.883
G1 X8.729 Y6.940
G1 X8.624 Y7.083
G1 X8.624 Y7.083
G1 X8.519 Y7.154
G1 X8.429 Y7.173
G0 X8.402 Y7.169
G0 X8.267 Y7.079
G0 X6.955 Y5.962
G1 X6.925 Y5.936
G1 X6.853 Y5.865
G1 X6.831 Y5.812
G1 X6.842 Y5.726
G1 X6.902 Y5.620
G1 X6.902 Y5.620
G1 X7.075 Y5.459
G1 X7.177 Y5.398
G1 X7.346 Y5.361
G1 X7.571 Y5.357
G1 X7.741 Y5.383
G1 X8.090 Y5.508
G1 X8.383 Y5.688
G1 X8.526 Y5.805
G1 X8.650 Y5.932
G1 X8.782 Y6.102
G1 X8.917 Y6.335
G1 X8.981 Y6.556
G1 X8.977 Y6.613
G1 X8.962 Y6.669
G1 X8.887 Y6.767
G1 X8.887 Y6.767
G1 X8.786 Y6.842
G1 X8.699 Y6.865
G0 X8.673 Y6.861
G0 X8.534 Y6.778
G0 X7.162 Y5.729
G1 X7.132 Y5.707
G1 X7.056 Y5.639
G1 X7.034 Y5.586
G1 X7.041 Y5.500
G1 X7.098 Y5.391
G1 X7.098 Y5.391
G1 X7.222 Y5.259
G1 X7.312 Y5.184
G1 X7.361 Y5.154
G1 X7.586 Y5.105
G1 X7.812 Y5.105
G1 X7.925 Y5.120
G1 X8.278 Y5.233
G1 X8.571 Y5.395
G1 X8.726 Y5.511
G1 X8.857 Y5.635
G1 X9.000 Y5.805
G1 X9.147 Y6.053
G1 X9.211 Y6.274
G1 X9.203 Y6.331
G1 X9.184 Y6.387
G1 X9.147 Y6.436
G1 X9.147 Y6.436
G1 X9.045 Y6.515
G1 X8.959 Y6.545
G0 X8.932 Y6.541
G0 X8.786 Y6.466
G0 X7.376 Y5.492
G1 X7.346 Y5.470
G1 X7.267 Y5.406
G1 X7.241 Y5.353
G1 X7.237 Y5.267
G1 X7.282 Y5.154
G1 X7.282 Y5.154
G1 X7.398 Y5.015
G1 X7.492 Y4.936
G1 X7.545 Y4.906
G1 X7.827 Y4.850
G1 X8.109 Y4.861
G1 X8.466 Y4.959
G1 X8.789 Y5.124
G1 X8.944 Y5.237
G1 X9.071 Y5.350
G1 X9.282 Y5.605
G1 X9.383 Y5.808
G1 X9.429 Y5.977
G1 X9.421 Y6.034
G1 X9.391 Y6.086
G1 X9.391 Y6.086
G1 X9.297 Y6.173
G1 X9.214 Y6.207
G0 X9.184 Y6.207
G0 X9.038 Y6.139
G0 X7.556 Y5.237
G1 X7.523 Y5.214
G1 X7.436 Y5.154
G1 X7.410 Y5.105
G1 X7.410 Y5.019
G1 X7.455 Y4.910
G1 X7.455 Y4.910
G1 X7.613 Y4.726
G1 X7.707 Y4.654
G1 X7.759 Y4.628
G1 X7.985 Y4.579
G1 X8.267 Y4.575
G1 X8.628 Y4.662
G1 X8.925 Y4.801
G1 X9.083 Y4.898
G1 X9.229 Y5.011
G1 X9.395 Y5.180
G1 X9.556 Y5.417
G1 X9.624 Y5.575
G1 X9.639 Y5.632
G1 X9.635 Y5.688
G1 X9.553 Y5.846
G1 X9.553 Y5.846
G1 X9.462 Y5.932
G1 X9.383 Y5.970
G0 X9.353 Y5.970
G0 X9.207 Y5.902
G0 X7.729 Y4.992
G1 X7.695 Y4.970
G1 X7.609 Y4.910
G1 X7.583 Y4.861
G1 X7.579 Y4.774
G1 X7.624 Y4.662
G1 X7.624 Y4.662
G1 X7.771 Y4.474
G1 X7.857 Y4.395
G1 X7.906 Y4.365
G1 X8.244 Y4.293
G1 X8.414 Y4.293
G1 X8.778 Y4.365
G1 X9.090 Y4.492
G1 X9.259 Y4.594
G1 X9.395 Y4.695
G1 X9.553 Y4.842
G1 X9.729 Y5.056
G1 X9.808 Y5.211
G1 X9.827 Y5.267
G1 X9.835 Y5.323
G1 X9.831 Y5.380
G1 X9.805 Y5.432
G1 X9.805 Y5.432
G1 X9.718 Y5.523
G1 X9.639 Y5.564
G0 X9.613 Y5.568
G0 X9.459 Y5.511
G0 X7.914 Y4.729
G1 X7.880 Y4.711
G1 X7.793 Y4.658
G1 X7.759 Y4.609
G1 X7.752 Y4.523
G1 X7.786 Y4.410
G1 X7.786 Y4.410
G1 X7.936 Y4.214
G1 X8.026 Y4.135
G1 X8.305 Y4.041
G1 X8.586 Y4.015
G1 X8.951 Y4.075
G1 X9.259 Y4.192
G1 X9.429 Y4.286
G1 X9.579 Y4.387
G1 X9.801 Y4.590
G1 X9.940 Y4.778
G1 X10.015 Y4.932
G1 X10.026 Y4.989
G1 X10.019 Y5.045
G1 X9.989 Y5.098
G1 X9.989 Y5.098
G1 X9.902 Y5.188
G1 X9.823 Y5.229
G0 X9.797 Y5.233
G0 X9.643 Y5.184
G0 X8.071 Y4.462
G1 X8.038 Y4.444
G1 X7.947 Y4.395
G1 X7.914 Y4.350
G1 X7.906 Y4.263
G1 X7.940 Y4.150
G1 X7.940 Y4.150
G1 X8.075 Y3.951
G1 X8.162 Y3.868
G1 X8.267 Y3.816
G1 X8.549 Y3.741
G1 X8.718 Y3.726
G1 X9.086 Y3.771
G1 X9.402 Y3.876
G1 X9.571 Y3.959
G1 X9.726 Y4.056
G1 X9.895 Y4.195
G1 X10.098 Y4.425
G1 X10.177 Y4.579
G1 X10.195 Y4.632
G1 X10.195 Y4.688
G1 X10.177 Y4.744
G1 X10.177 Y4.744
G1 X10.098 Y4.842
G1 X10.019 Y4.887
G0 X9.992 Y4.891
G0 X9.835 Y4.846
G0 X8.218 Y4.192
G1 X8.184 Y4.177
G1 X8.094 Y4.132
G1 X8.060 Y4.086
G1 X8.045 Y4.000
G1 X8.079 Y3.887
G1 X8.079 Y3.887
G1 X8.207 Y3.684
G1 X8.286 Y3.598
G1 X8.440 Y3.515
G1 X8.665 Y3.455
G1 X8.835 Y3.436
G1 X9.203 Y3.462
G1 X9.556 Y3.568
G1 X9.729 Y3.647
G1 X9.887 Y3.737
G1 X10.105 Y3.910
G1 X10.289 Y4.132
G1 X10.346 Y4.233
G1 X10.361 Y4.289
G1 X10.361 Y4.346
G1 X10.342 Y4.402
G1 X10.342 Y4.402
G1 X10.263 Y4.500
G1 X10.184 Y4.545
G0 X10.158 Y4.549
G0 X9.996 Y4.511
G0 X8.368 Y3.917
G1 X8.335 Y3.902
G1 X8.241 Y3.861
G1 X8.203 Y3.820
G1 X8.184 Y3.733
G1 X8.211 Y3.617
G1 X8.211 Y3.617
G1 X8.331 Y3.410
G1 X8.410 Y3.320
G1 X8.459 Y3.282
G1 X8.677 Y3.188
G1 X8.959 Y3.128
G1 X9.327 Y3.147
G1 X9.665 Y3.229
G1 X9.846 Y3.305
G1 X10.008 Y3.391
G1 X10.278 Y3.594
G1 X10.429 Y3.767
G1 X10.489 Y3.865
G1 X10.508 Y3.917
G1 X10.511 Y3.974
G1 X10.492 Y4.030
G1 X10.492 Y4.030
G1 X10.421 Y4.128
G1 X10.346 Y4.180
G0 X10.320 Y4.184
G0 X10.158 Y4.154
G0 X8.500 Y3.635
G1 X8.462 Y3.628
G1 X8.365 Y3.590
G1 X8.327 Y3.545
G1 X8.308 Y3.462
G1 X8.335 Y3.346
G1 X8.335 Y3.346
G1 X8.440 Y3.128
G1 X8.511 Y3.034
G1 X8.556 Y2.992
G1 X8.767 Y2.887
G1 X9.049 Y2.820
G1 X9.417 Y2.823
G1 X9.752 Y2.891
G1 X9.932 Y2.951
G1 X10.098 Y3.030
G1 X10.286 Y3.147
G1 X10.519 Y3.361
G1 X10.620 Y3.504
G1 X10.639 Y3.556
G1 X10.647 Y3.613
G1 X10.609 Y3.726
G1 X10.609 Y3.726
G1 X10.541 Y3.827
G1 X10.466 Y3.880
G0 X10.440 Y3.887
G0 X10.278 Y3.857
G0 X8.620 Y3.353
G1 X8.583 Y3.342
G1 X8.485 Y3.308
G1 X8.447 Y3.263
G1 X8.429 Y3.180
G1 X8.447 Y3.064
G1 X8.447 Y3.064
G1 X8.519 Y2.895
G1 X8.579 Y2.789
G1 X8.658 Y2.699
G1 X8.865 Y2.590
G1 X9.147 Y2.511
G1 X9.515 Y2.500
G1 X9.835 Y2.553
G1 X10.019 Y2.609
G1 X10.192 Y2.684
G1 X10.383 Y2.793
G1 X10.586 Y2.951
G1 X10.733 Y3.128
G1 X10.759 Y3.177
G1 X10.771 Y3.233
G1 X10.763 Y3.289
G1 X10.744 Y3.346
G1 X10.744 Y3.346
G1 X10.684 Y3.451
G1 X10.617 Y3.508
G0 X10.590 Y3.515
G0 X10.429 Y3.489
G0 X8.759 Y3.008
G1 X8.722 Y3.000
G1 X8.624 Y2.959
G1 X8.579 Y2.906
G1 X8.556 Y2.816
G1 X8.568 Y2.726
G1 X8.568 Y2.726
G1 X8.673 Y2.508
G1 X8.748 Y2.414
G1 X8.951 Y2.293
G1 X9.229 Y2.199
G1 X9.286 Y2.188
G1 X9.654 Y2.177
G1 X9.989 Y2.229
G1 X10.177 Y2.289
G1 X10.346 Y2.361
G1 X10.632 Y2.541
G1 X10.797 Y2.699
G1 X10.861 Y2.793
G1 X10.876 Y2.850
G1 X10.876 Y2.906
G1 X10.861 Y2.962
G1 X10.861 Y2.962
G1 X10.801 Y3.068
G1 X10.733 Y3.124
G0 X10.707 Y3.132
G0 X10.545 Y3.113
G0 X8.861 Y2.722
G1 X8.823 Y2.711
G1 X8.726 Y2.680
G1 X8.684 Y2.643
G1 X8.654 Y2.560
G1 X8.662 Y2.444
G1 X8.662 Y2.444
G1 X8.752 Y2.222
G1 X8.820 Y2.120
G1 X9.015 Y1.985
G1 X9.350 Y1.868
G1 X9.718 Y1.842
G1 X10.045 Y1.880
G1 X10.233 Y1.929
G1 X10.402 Y1.992
G1 X10.647 Y2.120
G1 X10.831 Y2.263
G1 X10.947 Y2.395
G1 X10.970 Y2.447
G1 X10.977 Y2.504
G1 X10.962 Y2.560
G1 X10.962 Y2.560
G1 X10.902 Y2.665
G1 X10.835 Y2.726
G0 X10.808 Y2.733
G0 X10.647 Y2.722
G0 X8.947 Y2.417
G1 X8.910 Y2.414
G1 X8.808 Y2.387
G1 X8.767 Y2.350
G1 X8.737 Y2.271
G1 X8.744 Y2.154
G1 X8.744 Y2.154
G1 X8.801 Y1.977
G1 X8.891 Y1.820
G1 X9.034 Y1.711
G1 X9.305 Y1.583
G1 X9.361 Y1.564
G1 X9.729 Y1.511
G1 X10.079 Y1.534
G1 X10.263 Y1.571
G1 X10.432 Y1.624
G1 X10.635 Y1.711
G1 X10.872 Y1.857
G1 X10.996 Y1.977
G1 X11.030 Y2.023
G1 X11.053 Y2.075
G1 X11.060 Y2.132
G1 X11.041 Y2.244
G1 X11.041 Y2.244
G1 X10.989 Y2.357
G1 X10.925 Y2.417
G0 X10.898 Y2.429
G0 X10.737 Y2.421
G0 X9.038 Y2.124
G1 X9.000 Y2.120
G1 X8.898 Y2.094
G1 X8.853 Y2.056
G1 X8.816 Y1.977
G1 X8.812 Y1.861
G1 X8.812 Y1.861
G1 X8.887 Y1.628
G1 X8.944 Y1.519
G1 X8.985 Y1.474
G1 X9.188 Y1.350
G1 X9.410 Y1.267
G1 X9.771 Y1.192
G1 X10.139 Y1.199
G1 X10.342 Y1.237
G1 X10.508 Y1.282
G1 X10.801 Y1.414
G1 X11.030 Y1.586
G1 X11.109 Y1.673
G1 X11.128 Y1.729
G1 X11.105 Y1.842
G1 X11.105 Y1.842
G1 X11.060 Y1.955
G1 X11.000 Y2.015
G0 X10.974 Y2.026
G0 X10.812 Y2.026
G0 X9.105 Y1.816
G1 X9.068 Y1.812
G1 X8.966 Y1.789
G1 X8.917 Y1.752
G1 X8.880 Y1.658
G1 X8.872 Y1.568
G1 X8.872 Y1.568
G1 X8.914 Y1.387
G1 X8.966 Y1.278
G1 X9.004 Y1.229
G1 X9.147 Y1.120
G1 X9.357 Y1.011
G1 X9.470 Y0.974
G1 X9.831 Y0.883
G1 X10.199 Y0.876
G1 X10.421 Y0.910
G1 X10.594 Y0.959
G1 X10.872 Y1.083
G1 X11.060 Y1.222
G1 X11.139 Y1.305
G1 X11.165 Y1.353
G1 X11.180 Y1.410
G1 X11.162 Y1.523
G1 X11.162 Y1.523
G1 X11.117 Y1.635
G1 X11.056 Y1.695
G0 X11.030 Y1.711
G0 X10.868 Y1.714
G0 X9.139 Y1.571
G1 X9.102 Y1.568
G1 X9.000 Y1.553
G1 X8.951 Y1.515
G1 X8.914 Y1.421
G1 X8.906 Y1.331
G1 X8.906 Y1.331
G1 X8.962 Y1.090
G1 X9.019 Y0.981
G1 X9.056 Y0.932
G1 X9.195 Y0.823
G1 X9.459 Y0.692
G1 X9.868 Y0.568
G1 X10.237 Y0.549
G1 X10.447 Y0.575
G1 X10.617 Y0.620
G1 X10.880 Y0.733
G1 X11.071 Y0.861
G1 X11.192 Y0.981
G1 X11.218 Y1.034
G1 X11.218 Y1.147
G1 X11.218 Y1.147
G1 X11.180 Y1.263
G1 X11.124 Y1.331
G0 X11.102 Y1.342
G0 X10.936 Y1.353
G0 X9.180 Y1.267
G1 X9.143 Y1.267
G1 X9.041 Y1.252
G1 X8.992 Y1.218
G1 X8.955 Y1.124
G1 X8.947 Y1.034
G1 X8.947 Y1.034
G1 X9.011 Y0.797
G1 X9.071 Y0.688
G1 X9.203 Y0.568
G1 X9.459 Y0.414
G1 X9.861 Y0.271
G1 X10.229 Y0.233
G1 X10.447 Y0.252
G1 X10.609 Y0.282
G1 X10.842 Y0.365
G1 X11.086 Y0.515
G1 X11.211 Y0.632
G1 X11.237 Y0.684
G1 X11.248 Y0.741
G1 X11.244 Y0.797
G1 X11.244 Y0.797
G1 X11.207 Y0.914
G1 X11.150 Y0.981
G0 X11.128 Y0.992
G0 X10.966 Y1.008
G0 X9.244 Y0.966
G1 X9.207 Y0.962
G1 X9.102 Y0.947
G1 X9.045 Y0.906
G1 X9.000 Y0.823
G1 X8.985 Y0.737
G1 X8.985 Y0.737
G1 X9.019 Y0.556
G1 X9.064 Y0.444
G1 X9.098 Y0.395
G1 X9.278 Y0.237
G1 X9.534 Y0.086
G1 X9.883 Y-0.038
G1 X10.252 Y-0.086
G1 X10.481 Y-0.071
G1 X10.650 Y-0.038
G1 X10.820 Y0.015
G1 X11.071 Y0.154
G1 X11.203 Y0.267
G1 X11.237 Y0.312
G1 X11.259 Y0.365
G1 X11.267 Y0.421
G1 X11.263 Y0.477
G1 X11.263 Y0.477
G1 X11.229 Y0.594
G1 X11.180 Y0.665
G0 X11.154 Y0.677
G0 X10.992 Y0.699
G0 X9.256 Y0.714
G1 X9.218 Y0.718
G1 X9.113 Y0.703
G1 X9.056 Y0.665
G1 X9.011 Y0.583
G1 X9.000 Y0.496
G1 X9.000 Y0.496
G1 X9.041 Y0.256
G1 X9.086 Y0.147
G1 X9.162 Y0.053
G1 X9.391 Y-0.132
G1 X9.538 Y-0.218
G1 X9.880 Y-0.353
G1 X10.211 Y-0.406
G1 X10.387 Y-0.406
G1 X10.556 Y-0.387
G1 X10.759 Y-0.338
G1 X10.989 Y-0.248
G1 X11.135 Y-0.147
G1 X11.222 Y-0.064
G1 X11.256 Y-0.015
G1 X11.278 Y0.038
G1 X11.274 Y0.150
G1 X11.274 Y0.150
G1 X11.241 Y0.267
G1 X11.192 Y0.338
G0 X11.165 Y0.353
G0 X11.004 Y0.372
G0 X9.274 Y0.414
G1 X9.237 Y0.417
G1 X9.165 Y0.414
G1 X9.102 Y0.387
G1 X9.056 Y0.338
G1 X9.019 Y0.195
G1 X9.019 Y0.195
G1 X9.053 Y-0.041
G1 X9.090 Y-0.150
G1 X9.248 Y-0.323
G1 X9.534 Y-0.519
G1 X9.872 Y-0.665
G1 X10.237 Y-0.729
G1 X10.421 Y-0.729
G1 X10.579 Y-0.714
G1 X10.789 Y-0.665
G1 X11.056 Y-0.534
G1 X11.154 Y-0.466
G1 X11.241 Y-0.380
G1 X11.267 Y-0.327
G1 X11.274 Y-0.207
G1 X11.274 Y-0.207
G1 X11.248 Y-0.079
G1 X11.199 Y-0.004
G0 X11.177 Y0.011
G0 X11.019 Y0.041
G0 X9.301 Y0.162
G1 X9.263 Y0.165
G1 X9.162 Y0.165
G1 X9.105 Y0.139
G1 X9.053 Y0.075
G1 X9.019 Y-0.038
G1 X9.019 Y-0.038
G1 X9.034 Y-0.263
G1 X9.060 Y-0.376
G1 X9.113 Y-0.477
G1 X9.267 Y-0.647
G1 X9.402 Y-0.756
G1 X9.500 Y-0.816
G1 X9.835 Y-0.974
G1 X10.195 Y-1.053
G1 X10.383 Y-1.060
G1 X10.545 Y-1.045
G1 X10.729 Y-1.008
G1 X10.955 Y-0.932
G1 X11.199 Y-0.763
G1 X11.233 Y-0.714
G1 X11.256 Y-0.658
G1 X11.267 Y-0.538
G1 X11.267 Y-0.538
G1 X11.244 Y-0.410
G1 X11.199 Y-0.327
G0 X11.177 Y-0.312
G0 X11.064 Y-0.282
G0 X9.293 Y-0.120
G1 X9.256 Y-0.120
G1 X9.154 Y-0.120
G1 X9.098 Y-0.143
G1 X9.045 Y-0.214
G1 X9.011 Y-0.338
G1 X9.011 Y-0.338
G1 X9.026 Y-0.620
G1 X9.064 Y-0.729
G1 X9.207 Y-0.910
G1 X9.429 Y-1.094
G1 X9.808 Y-1.289
G1 X10.169 Y-1.372
G1 X10.353 Y-1.383
G1 X10.519 Y-1.380
G1 X10.737 Y-1.342
G1 X10.959 Y-1.252
G1 X11.113 Y-1.158
G1 X11.199 Y-1.075
G1 X11.229 Y-1.023
G1 X11.241 Y-0.902
G1 X11.241 Y-0.902
G1 X11.222 Y-0.774
G1 X11.180 Y-0.692
G0 X11.158 Y-0.677
G0 X11.000 Y-0.635
G0 X9.282 Y-0.429
G1 X9.244 Y-0.425
G1 X9.143 Y-0.421
G1 X9.086 Y-0.444
G1 X9.030 Y-0.515
G1 X8.996 Y-0.639
G1 X8.996 Y-0.639
G1 X8.992 Y-0.865
G1 X9.011 Y-0.977
G1 X9.030 Y-1.034
G1 X9.169 Y-1.218
G1 X9.297 Y-1.338
G1 X9.440 Y-1.436
G1 X9.767 Y-1.605
G1 X10.124 Y-1.699
G1 X10.320 Y-1.714
G1 X10.485 Y-1.711
G1 X10.737 Y-1.665
G1 X10.955 Y-1.575
G1 X11.105 Y-1.481
G1 X11.150 Y-1.440
G1 X11.180 Y-1.387
G1 X11.203 Y-1.267
G1 X11.203 Y-1.267
G1 X11.192 Y-1.139
G1 X11.154 Y-1.053
G0 X11.132 Y-1.038
G0 X10.977 Y-0.992
G0 X9.259 Y-0.729
G1 X9.222 Y-0.726
G1 X9.120 Y-0.718
G1 X9.064 Y-0.744
G1 X9.008 Y-0.816
G1 X8.970 Y-0.936
G1 X8.970 Y-0.936
G1 X8.959 Y-1.105
G1 X8.981 Y-1.274
G1 X9.000 Y-1.327
G1 X9.135 Y-1.515
G1 X9.350 Y-1.707
G1 X9.665 Y-1.898
G1 X10.019 Y-2.011
G1 X10.203 Y-2.038
G1 X10.361 Y-2.045
G1 X10.571 Y-2.026
G1 X10.801 Y-1.974
G1 X11.011 Y-1.865
G1 X11.102 Y-1.789
G1 X11.132 Y-1.737
G1 X11.158 Y-1.617
G1 X11.158 Y-1.617
G1 X11.143 Y-1.455
G1 X11.113 Y-1.402
G0 X11.094 Y-1.383
G0 X10.989 Y-1.342
G0 X9.233 Y-1.041
G1 X9.195 Y-1.038
G1 X9.090 Y-1.026
G1 X9.034 Y-1.049
G1 X8.974 Y-1.117
G1 X8.932 Y-1.237
G1 X8.932 Y-1.237
G1 X8.921 Y-1.462
G1 X8.944 Y-1.575
G1 X9.026 Y-1.726
G1 X9.218 Y-1.936
G1 X9.308 Y-2.011
G1 X9.620 Y-2.211
G1 X9.970 Y-2.331
G1 X10.154 Y-2.361
G1 X10.316 Y-2.372
G1 X10.530 Y-2.357
G1 X10.756 Y-2.297
G1 X10.970 Y-2.195
G1 X11.019 Y-2.162
G1 X11.056 Y-2.113
G1 X11.079 Y-2.056
G1 X11.090 Y-1.996
G1 X11.090 Y-1.996
G1 X11.075 Y-1.835
G1 X11.045 Y-1.782
G0 X11.026 Y-1.759
G0 X10.876 Y-1.703
G0 X9.195 Y-1.293
G1 X9.158 Y-1.282
G1 X9.056 Y-1.267
G1 X9.000 Y-1.286
G1 X8.940 Y-1.353
G1 X8.891 Y-1.470
G1 X8.891 Y-1.470
G1 X8.865 Y-1.752
G1 X8.883 Y-1.865
G1 X8.962 Y-2.015
G1 X9.105 Y-2.195
G1 X9.233 Y-2.312
G1 X9.541 Y-2.519
G1 X9.887 Y-2.650
G1 X10.083 Y-2.684
G1 X10.237 Y-2.699
G1 X10.455 Y-2.692
G1 X10.737 Y-2.617
G1 X10.898 Y-2.538
G1 X10.947 Y-2.504
G1 X10.985 Y-2.459
G1 X11.023 Y-2.342
G1 X11.023 Y-2.342
G1 X11.026 Y-2.214
G1 X10.996 Y-2.128
G0 X10.977 Y-2.105
G0 X10.827 Y-2.045
G0 X9.143 Y-1.594
G1 X9.105 Y-1.583
G1 X9.004 Y-1.568
G1 X8.947 Y-1.583
G1 X8.887 Y-1.650
G1 X8.838 Y-1.767
G1 X8.838 Y-1.767
G1 X8.805 Y-1.936
G1 X8.805 Y-2.105
G1 X8.816 Y-2.162
G1 X8.925 Y-2.365
G1 X9.117 Y-2.579
G1 X9.470 Y-2.823
G1 X9.812 Y-2.966
G1 X10.011 Y-3.008
G1 X10.173 Y-3.026
G1 X10.391 Y-3.023
G1 X10.673 Y-2.947
G1 X10.835 Y-2.868
G1 X10.880 Y-2.827
G1 X10.910 Y-2.774
G1 X10.944 Y-2.658
G1 X10.944 Y-2.658
G1 X10.947 Y-2.530
G1 X10.917 Y-2.444
G0 X10.898 Y-2.421
G0 X10.748 Y-2.361
G0 X9.086 Y-1.898
G1 X9.049 Y-1.887
G1 X8.947 Y-1.872
G1 X8.891 Y-1.887
G1 X8.823 Y-1.947
G1 X8.767 Y-2.060
G1 X8.767 Y-2.060
G1 X8.722 Y-2.342
G1 X8.737 Y-2.455
G1 X8.846 Y-2.658
G1 X9.071 Y-2.917
G1 X9.368 Y-3.135
G1 X9.699 Y-3.282
G1 X9.880 Y-3.327
G1 X10.049 Y-3.346
G1 X10.297 Y-3.346
G1 X10.523 Y-3.301
G1 X10.688 Y-3.237
G1 X10.741 Y-3.207
G1 X10.816 Y-3.117
G1 X10.850 Y-2.996
G1 X10.850 Y-2.996
G1 X10.853 Y-2.868
G1 X10.827 Y-2.782
G0 X10.808 Y-2.759
G0 X10.662 Y-2.695
G0 X9.015 Y-2.203
G1 X8.977 Y-2.192
G1 X8.876 Y-2.173
G1 X8.816 Y-2.184
G1 X8.748 Y-2.241
G1 X8.688 Y-2.350
G1 X8.688 Y-2.350
G1 X8.643 Y-2.575
G1 X8.639 Y-2.688
G1 X8.647 Y-2.744
G1 X8.752 Y-2.951
G1 X8.895 Y-3.135
G1 X9.218 Y-3.414
G1 X9.549 Y-3.579
G1 X9.733 Y-3.635
G1 X9.902 Y-3.665
G1 X10.102 Y-3.677
G1 X10.335 Y-3.662
G1 X10.560 Y-3.590
G1 X10.613 Y-3.564
G1 X10.658 Y-3.526
G1 X10.695 Y-3.481
G1 X10.733 Y-3.365
G1 X10.733 Y-3.365
G1 X10.744 Y-3.237
G1 X10.722 Y-3.147
G0 X10.707 Y-3.124
G0 X10.605 Y-3.068
G0 X8.925 Y-2.496
G1 X8.887 Y-2.481
G1 X8.789 Y-2.459
G1 X8.729 Y-2.470
G1 X8.662 Y-2.526
G1 X8.602 Y-2.635
G1 X8.602 Y-2.635
G1 X8.538 Y-2.917
G1 X8.545 Y-3.030
G1 X8.673 Y-3.286
G1 X8.816 Y-3.466
G1 X9.094 Y-3.711
G1 X9.417 Y-3.887
G1 X9.594 Y-3.947
G1 X9.752 Y-3.985
G1 X9.962 Y-4.008
G1 X10.207 Y-4.004
G1 X10.376 Y-3.959
G1 X10.485 Y-3.910
G1 X10.534 Y-3.872
G1 X10.571 Y-3.827
G1 X10.617 Y-3.714
G1 X10.617 Y-3.714
G1 X10.635 Y-3.586
G1 X10.620 Y-3.500
G0 X10.602 Y-3.477
G0 X10.504 Y-3.421
G0 X8.838 Y-2.797
G1 X8.805 Y-2.782
G1 X8.703 Y-2.756
G1 X8.647 Y-2.767
G1 X8.571 Y-2.816
G1 X8.500 Y-2.917
G1 X8.500 Y-2.917
G1 X8.440 Y-3.143
G1 X8.432 Y-3.256
G1 X8.440 Y-3.312
G1 X8.534 Y-3.523
G1 X8.707 Y-3.756
G1 X8.981 Y-4.004
G1 X9.301 Y-4.192
G1 X9.485 Y-4.259
G1 X9.647 Y-4.305
G1 X9.865 Y-4.335
G1 X10.090 Y-4.323
G1 X10.259 Y-4.278
G1 X10.372 Y-4.233
G1 X10.417 Y-4.195
G1 X10.470 Y-4.086
G1 X10.470 Y-4.086
G1 X10.489 Y-3.959
G1 X10.474 Y-3.872
G0 X10.455 Y-3.850
G0 X10.316 Y-3.767
G0 X8.726 Y-3.083
G1 X8.692 Y-3.068
G1 X8.594 Y-3.038
G1 X8.534 Y-3.045
G1 X8.462 Y-3.094
G1 X8.395 Y-3.195
G1 X8.395 Y-3.195
G1 X8.331 Y-3.421
G1 X8.320 Y-3.534
G1 X8.391 Y-3.752
G1 X8.541 Y-3.996
G1 X8.842 Y-4.301
G1 X9.154 Y-4.496
G1 X9.335 Y-4.571
G1 X9.504 Y-4.624
G1 X9.729 Y-4.658
G1 X9.955 Y-4.647
G1 X10.180 Y-4.590
G1 X10.233 Y-4.560
G1 X10.278 Y-4.519
G1 X10.331 Y-4.414
G1 X10.331 Y-4.414
G1 X10.357 Y-4.286
G1 X10.346 Y-4.199
G0 X10.331 Y-4.173
G0 X10.195 Y-4.086
G0 X8.639 Y-3.327
G1 X8.605 Y-3.308
G1 X8.511 Y-3.271
G1 X8.451 Y-3.274
G1 X8.376 Y-3.320
G1 X8.301 Y-3.421
G1 X8.301 Y-3.421
G1 X8.214 Y-3.643
G1 X8.195 Y-3.756
G1 X8.195 Y-3.812
G1 X8.289 Y-4.083
G1 X8.444 Y-4.327
G1 X8.699 Y-4.594
G1 X9.000 Y-4.797
G1 X9.173 Y-4.876
G1 X9.331 Y-4.929
G1 X9.650 Y-4.974
G1 X9.876 Y-4.959
G1 X10.045 Y-4.914
G1 X10.094 Y-4.880
G1 X10.132 Y-4.835
G1 X10.188 Y-4.726
G1 X10.188 Y-4.726
G1 X10.214 Y-4.598
G1 X10.203 Y-4.511
G0 X10.188 Y-4.485
G0 X10.053 Y-4.395
G0 X8.511 Y-3.602
G1 X8.477 Y-3.583
G1 X8.383 Y-3.545
G1 X8.323 Y-3.545
G1 X8.248 Y-3.590
G1 X8.173 Y-3.692
G1 X8.173 Y-3.692
G1 X8.086 Y-3.910
G1 X8.060 Y-4.023
G1 X8.060 Y-4.079
G1 X8.124 Y-4.301
G1 X8.259 Y-4.556
G1 X8.293 Y-4.605
G1 X8.541 Y-4.880
G1 X8.842 Y-5.094
G1 X9.011 Y-5.177
G1 X9.165 Y-5.229
G1 X9.410 Y-5.278
G1 X9.692 Y-5.282
G1 X9.861 Y-5.248
G1 X9.951 Y-5.173
G1 X10.008 Y-5.068
G1 X10.008 Y-5.068
G1 X10.041 Y-4.944
G1 X10.030 Y-4.853
G0 X10.019 Y-4.831
G0 X9.887 Y-4.733
G0 X8.387 Y-3.880
G1 X8.353 Y-3.861
G1 X8.259 Y-3.820
G1 X8.203 Y-3.820
G1 X8.124 Y-3.861
G1 X8.041 Y-3.959
G1 X8.041 Y-3.959
G1 X7.966 Y-4.117
G1 X7.921 Y-4.286
G1 X7.917 Y-4.342
G1 X7.974 Y-4.568
G1 X8.102 Y-4.823
G1 X8.331 Y-5.113
G1 X8.620 Y-5.346
G1 X8.782 Y-5.436
G1 X8.932 Y-5.504
G1 X9.135 Y-5.564
G1 X9.380 Y-5.605
G1 X9.549 Y-5.598
G1 X9.662 Y-5.571
G1 X9.711 Y-5.541
G1 X9.752 Y-5.500
G1 X9.816 Y-5.395
G1 X9.816 Y-5.395
G1 X9.857 Y-5.271
G1 X9.853 Y-5.180
G0 X9.842 Y-5.158
G0 X9.714 Y-5.056
G0 X8.248 Y-4.158
G1 X8.214 Y-4.139
G1 X8.120 Y-4.094
G1 X8.064 Y-4.094
G1 X7.985 Y-4.132
G1 X7.898 Y-4.226
G1 X7.898 Y-4.226
G1 X7.793 Y-4.440
G1 X7.763 Y-4.553
G1 X7.759 Y-4.609
G1 X7.793 Y-4.778
G1 X7.932 Y-5.094
G1 X8.158 Y-5.387
G1 X8.440 Y-5.628
G1 X8.605 Y-5.726
G1 X8.756 Y-5.797
G1 X8.959 Y-5.865
G1 X9.241 Y-5.902
G1 X9.410 Y-5.891
G1 X9.466 Y-5.880
G1 X9.519 Y-5.850
G1 X9.560 Y-5.808
G1 X9.628 Y-5.703
G1 X9.628 Y-5.703
G1 X9.669 Y-5.579
G1 X9.665 Y-5.489
G0 X9.654 Y-5.466
G0 X9.530 Y-5.361
G0 X8.086 Y-4.429
G1 X8.056 Y-4.406
G1 X7.966 Y-4.357
G1 X7.906 Y-4.353
G1 X7.827 Y-4.391
G1 X7.744 Y-4.481
G1 X7.744 Y-4.481
G1 X7.658 Y-4.639
G1 X7.617 Y-4.752
G1 X7.602 Y-4.865
G1 X7.647 Y-5.090
G1 X7.759 Y-5.357
G1 X7.977 Y-5.658
G1 X8.237 Y-5.895
G1 X8.398 Y-6.000
G1 X8.553 Y-6.079
G1 X8.759 Y-6.154
G1 X9.041 Y-6.199
G1 X9.267 Y-6.188
G1 X9.320 Y-6.162
G1 X9.365 Y-6.124
G1 X9.429 Y-6.019
G1 X9.429 Y-6.019
G1 X9.470 Y-5.895
G1 X9.466 Y-5.805
G0 X9.455 Y-5.778
G0 X9.335 Y-5.673
G0 X7.936 Y-4.699
G1 X7.906 Y-4.677
G1 X7.816 Y-4.628
G1 X7.759 Y-4.620
G1 X7.673 Y-4.650
G1 X7.583 Y-4.733
G1 X7.583 Y-4.733
G1 X7.470 Y-4.944
G1 X7.436 Y-5.056
G1 X7.444 Y-5.226
G1 X7.500 Y-5.447
G1 X7.571 Y-5.605
G1 X7.774 Y-5.914
G1 X8.041 Y-6.169
G1 X8.203 Y-6.274
G1 X8.338 Y-6.350
G1 X8.538 Y-6.432
G1 X8.820 Y-6.492
G1 X8.989 Y-6.496
G1 X9.045 Y-6.489
G1 X9.102 Y-6.466
G1 X9.150 Y-6.429
G1 X9.222 Y-6.331
G1 X9.222 Y-6.331
G1 X9.271 Y-6.214
G1 X9.271 Y-6.124
G0 X9.263 Y-6.098
G0 X9.143 Y-5.989
G0 X7.763 Y-4.951
G1 X7.733 Y-4.929
G1 X7.647 Y-4.876
G1 X7.590 Y-4.868
G1 X7.504 Y-4.898
G1 X7.414 Y-4.981
G1 X7.414 Y-4.981
G1 X7.293 Y-5.188
G1 X7.256 Y-5.301
G1 X7.267 Y-5.526
G1 X7.331 Y-5.748
G1 X7.376 Y-5.853
G1 X7.571 Y-6.165
G1 X7.831 Y-6.429
G1 X7.985 Y-6.538
G1 X8.120 Y-6.617
G1 X8.312 Y-6.707
G1 X8.538 Y-6.767
G1 X8.763 Y-6.786
G1 X8.820 Y-6.782
G1 X8.876 Y-6.759
G1 X8.921 Y-6.722
G1 X9.105 Y-6.489
G1 X9.105 Y-6.489
G1 X9.154 Y-6.372
G1 X9.154 Y-6.282
G0 X9.143 Y-6.259
G0 X9.023 Y-6.154
G0 X7.590 Y-5.192
G1 X7.560 Y-5.169
G1 X7.470 Y-5.120
G1 X7.410 Y-5.113
G1 X7.323 Y-5.139
G1 X7.233 Y-5.222
G1 X7.233 Y-5.222
G1 X7.105 Y-5.425
G1 X7.064 Y-5.534
G1 X7.056 Y-5.590
G1 X7.094 Y-5.872
G1 X7.169 Y-6.090
G1 X7.357 Y-6.410
G1 X7.605 Y-6.684
G1 X7.763 Y-6.805
G1 X7.898 Y-6.891
G1 X8.098 Y-6.985
G1 X8.323 Y-7.049
G1 X8.549 Y-7.068
G1 X8.605 Y-7.056
G1 X8.658 Y-7.030
G1 X8.774 Y-6.895
G1 X8.774 Y-6.895
G1 X8.831 Y-6.782
G1 X8.838 Y-6.692
G0 X8.831 Y-6.665
G0 X8.722 Y-6.549
G0 X7.402 Y-5.459
G1 X7.372 Y-5.432
G1 X7.289 Y-5.372
G1 X7.229 Y-5.361
G1 X7.143 Y-5.380
G1 X7.045 Y-5.455
G1 X7.045 Y-5.455
G1 X6.914 Y-5.650
G1 X6.868 Y-5.759
G1 X6.865 Y-5.985
G1 X6.951 Y-6.320
G1 X7.128 Y-6.643
G1 X7.357 Y-6.914
G1 X7.504 Y-7.041
G1 X7.647 Y-7.143
G1 X7.842 Y-7.244
G1 X8.060 Y-7.316
G1 X8.286 Y-7.342
G1 X8.342 Y-7.338
G1 X8.398 Y-7.320
G1 X8.560 Y-7.147
G1 X8.560 Y-7.147
G1 X8.617 Y-7.034
G1 X8.628 Y-6.944
G0 X8.617 Y-6.917
G0 X8.508 Y-6.801
G0 X7.203 Y-5.684
G1 X7.173 Y-5.658
G1 X7.090 Y-5.598
G1 X7.030 Y-5.586
G1 X6.944 Y-5.605
G1 X6.846 Y-5.680
G1 X6.846 Y-5.680
G1 X6.737 Y-5.820
G1 X6.680 Y-5.925
G1 X6.662 Y-5.981
G1 X6.654 Y-6.263
G1 X6.722 Y-6.545
G1 X6.887 Y-6.876
G1 X7.120 Y-7.165
G1 X7.263 Y-7.289
G1 X7.395 Y-7.383
G1 X7.688 Y-7.534
G1 X7.910 Y-7.598
G1 X8.079 Y-7.609
G1 X8.135 Y-7.590
G1 X8.387 Y-7.338
G1 X8.387 Y-7.338
G1 X8.451 Y-7.229
G1 X8.466 Y-7.139
G0 X8.462 Y-7.113
G0 X8.391 Y-7.026
G0 X7.045 Y-5.868
G1 X7.015 Y-5.842
G1 X6.932 Y-5.782
G1 X6.872 Y-5.771
G1 X6.786 Y-5.786
G1 X6.680 Y-5.853
G1 X6.680 Y-5.853
G1 X6.492 Y-6.086
G1 X6.444 Y-6.195
G1 X6.440 Y-6.534
G1 X6.489 Y-6.759
G1 X6.643 Y-7.094
G1 X6.865 Y-7.387
G1 X7.004 Y-7.523
G1 X7.143 Y-7.635
G1 X7.387 Y-7.774
G1 X7.605 Y-7.846
G1 X7.774 Y-7.868
G1 X7.831 Y-7.865
G1 X7.887 Y-7.846
G1 X8.056 Y-7.680
G1 X8.056 Y-7.680
G1 X8.120 Y-7.571
G1 X8.139 Y-7.481
G0 X8.132 Y-7.455
G0 X8.030 Y-7.331
G0 X6.782 Y-6.135
G1 X6.756 Y-6.109
G1 X6.677 Y-6.045
G1 X6.620 Y-6.026
G1 X6.534 Y-6.041
G1 X6.429 Y-6.109
G1 X6.429 Y-6.109
G1 X6.278 Y-6.293
G1 X6.222 Y-6.398
G1 X6.203 Y-6.455
G1 X6.199 Y-6.737
G1 X6.244 Y-6.962
G1 X6.387 Y-7.305
G1 X6.598 Y-7.609
G1 X6.733 Y-7.748
G1 X6.868 Y-7.865
G1 X7.109 Y-8.011
G1 X7.383 Y-8.105
G1 X7.496 Y-8.124
G1 X7.553 Y-8.120
G1 X7.609 Y-8.102
G1 X7.880 Y-7.865
G1 X7.880 Y-7.865
G1 X7.955 Y-7.726
G1 X7.962 Y-7.669
G0 X7.959 Y-7.643
G0 X7.887 Y-7.553
G0 X6.579 Y-6.361
G1 X6.549 Y-6.335
G1 X6.466 Y-6.271
G1 X6.410 Y-6.252
G1 X6.323 Y-6.263
G1 X6.214 Y-6.320
G1 X6.214 Y-6.320
G1 X6.049 Y-6.492
G1 X5.989 Y-6.594
G1 X5.955 Y-6.820
G1 X5.970 Y-7.045
G1 X5.992 Y-7.158
G1 X6.124 Y-7.504
G1 X6.323 Y-7.816
G1 X6.455 Y-7.959
G1 X6.579 Y-8.071
G1 X6.752 Y-8.199
G1 X6.955 Y-8.301
G1 X7.177 Y-8.365
G1 X7.233 Y-8.372
G1 X7.289 Y-8.361
G1 X7.436 Y-8.256
G1 X7.526 Y-8.173
G1 X7.526 Y-8.173
G1 X7.598 Y-8.068
G1 X7.620 Y-7.985
G0 X7.617 Y-7.955
G0 X7.553 Y-7.861
G0 X6.335 Y-6.564
G1 X6.308 Y-6.538
G1 X6.233 Y-6.466
G1 X6.177 Y-6.447
G1 X6.090 Y-6.455
G1 X5.981 Y-6.511
G1 X5.981 Y-6.511
G1 X5.812 Y-6.684
G1 X5.748 Y-6.786
G1 X5.729 Y-6.842
G1 X5.711 Y-7.124
G1 X5.737 Y-7.350
G1 X5.857 Y-7.699
G1 X6.023 Y-7.985
G1 X6.143 Y-8.135
G1 X6.271 Y-8.263
G1 X6.440 Y-8.402
G1 X6.662 Y-8.534
G1 X6.827 Y-8.590
G1 X6.883 Y-8.602
G1 X6.940 Y-8.602
G1 X6.996 Y-8.586
G1 X7.237 Y-8.410
G1 X7.237 Y-8.410
G1 X7.316 Y-8.308
G1 X7.342 Y-8.222
G0 X7.338 Y-8.195
G0 X7.282 Y-8.098
G0 X6.102 Y-6.756
G1 X6.075 Y-6.726
G1 X6.000 Y-6.654
G1 X5.947 Y-6.635
G1 X5.861 Y-6.643
G1 X5.752 Y-6.699
G1 X5.752 Y-6.699
G1 X5.620 Y-6.823
G1 X5.519 Y-6.970
G1 X5.470 Y-7.195
G1 X5.470 Y-7.477
G1 X5.477 Y-7.534
G1 X5.586 Y-7.887
G1 X5.744 Y-8.180
G1 X5.861 Y-8.338
G1 X5.985 Y-8.474
G1 X6.203 Y-8.654
G1 X6.459 Y-8.786
G1 X6.571 Y-8.820
G1 X6.628 Y-8.827
G1 X6.684 Y-8.820
G1 X6.977 Y-8.605
G1 X6.977 Y-8.605
G1 X7.056 Y-8.504
G1 X7.083 Y-8.417
G0 X7.079 Y-8.391
G0 X7.023 Y-8.293
G0 X5.868 Y-6.970
G1 X5.842 Y-6.940
G1 X5.767 Y-6.865
G1 X5.714 Y-6.838
G1 X5.628 Y-6.838
G1 X5.515 Y-6.887
G1 X5.515 Y-6.887
G1 X5.372 Y-7.004
G1 X5.293 Y-7.094
G1 X5.241 Y-7.199
G1 X5.195 Y-7.481
G1 X5.203 Y-7.707
G1 X5.301 Y-8.064
G1 X5.436 Y-8.338
G1 X5.541 Y-8.500
G1 X5.669 Y-8.650
G1 X5.831 Y-8.805
G1 X6.034 Y-8.951
G1 X6.192 Y-9.019
G1 X6.305 Y-9.041
G1 X6.361 Y-9.034
G1 X6.662 Y-8.842
G1 X6.662 Y-8.842
G1 X6.741 Y-8.741
G1 X6.767 Y-8.654
G0 X6.767 Y-8.628
G0 X6.684 Y-8.492
G0 X5.613 Y-7.147
G1 X5.590 Y-7.117
G1 X5.523 Y-7.041
G1 X5.470 Y-7.011
G1 X5.380 Y-7.011
G1 X5.271 Y-7.060
G1 X5.271 Y-7.060
G1 X5.079 Y-7.214
G1 X5.004 Y-7.308
G1 X4.940 Y-7.530
G1 X4.925 Y-7.812
G1 X4.929 Y-7.868
G1 X5.011 Y-8.229
G1 X5.150 Y-8.541
G1 X5.256 Y-8.707
G1 X5.368 Y-8.846
G1 X5.568 Y-9.038
G1 X5.756 Y-9.169
G1 X5.914 Y-9.237
G1 X5.970 Y-9.248
G1 X6.026 Y-9.244
G1 X6.132 Y-9.192
G1 X6.331 Y-9.060
G1 X6.331 Y-9.060
G1 X6.417 Y-8.966
G1 X6.451 Y-8.887
G0 X6.451 Y-8.857
G0 X6.372 Y-8.718
G0 X5.361 Y-7.323
G1 X5.338 Y-7.293
G1 X5.271 Y-7.214
G1 X5.222 Y-7.184
G1 X5.132 Y-7.180
G1 X5.019 Y-7.222
G1 X5.019 Y-7.222
G1 X4.872 Y-7.327
G1 X4.748 Y-7.455
G1 X4.688 Y-7.620
G1 X4.647 Y-7.902
G1 X4.647 Y-8.015
G1 X4.714 Y-8.380
G1 X4.820 Y-8.654
G1 X4.914 Y-8.827
G1 X5.023 Y-8.981
G1 X5.169 Y-9.147
G1 X5.372 Y-9.320
G1 X5.579 Y-9.425
G1 X5.635 Y-9.440
G1 X5.692 Y-9.436
G1 X6.008 Y-9.263
G1 X6.008 Y-9.263
G1 X6.098 Y-9.177
G1 X6.135 Y-9.098
G0 X6.135 Y-9.068
G0 X6.090 Y-8.966
G0 X5.102 Y-7.496
G1 X5.079 Y-7.466
G1 X5.015 Y-7.383
G1 X4.962 Y-7.353
G1 X4.876 Y-7.342
G1 X4.763 Y-7.376
G1 X4.763 Y-7.376
G1 X4.568 Y-7.515
G1 X4.489 Y-7.602
G1 X4.417 Y-7.767
G1 X4.365 Y-8.049
G1 X4.361 Y-8.162
G1 X4.417 Y-8.526
G1 X4.534 Y-8.846
G1 X4.624 Y-9.023
G1 X4.729 Y-9.184
G1 X4.921 Y-9.395
G1 X5.154 Y-9.568
G1 X5.259 Y-9.617
G1 X5.316 Y-9.620
G1 X5.372 Y-9.613
G1 X5.635 Y-9.477
G1 X5.635 Y-9.477
G1 X5.726 Y-9.391
G1 X5.763 Y-9.308
G0 X5.767 Y-9.282
G0 X5.703 Y-9.135
G0 X4.827 Y-7.647
G1 X4.808 Y-7.613
G1 X4.748 Y-7.526
G1 X4.699 Y-7.496
G1 X4.613 Y-7.489
G1 X4.500 Y-7.526
G1 X4.500 Y-7.526
G1 X4.342 Y-7.620
G1 X4.248 Y-7.699
G1 X4.211 Y-7.744
G1 X4.109 Y-8.023
G1 X4.071 Y-8.305
G1 X4.113 Y-8.673
G1 X4.214 Y-8.989
G1 X4.297 Y-9.162
G1 X4.398 Y-9.323
G1 X4.617 Y-9.583
G1 X4.748 Y-9.692
G1 X4.898 Y-9.778
G1 X4.955 Y-9.789
G1 X5.011 Y-9.786
G1 X5.331 Y-9.635
G1 X5.331 Y-9.635
G1 X5.425 Y-9.553
G1 X5.470 Y-9.474
G0 X5.470 Y-9.447
G0 X5.432 Y-9.342
G0 X4.556 Y-7.793
G1 X4.538 Y-7.759
G1 X4.481 Y-7.673
G1 X4.432 Y-7.639
G1 X4.346 Y-7.628
G1 X4.233 Y-7.658
G1 X4.233 Y-7.658
G1 X4.026 Y-7.782
G1 X3.940 Y-7.861
G1 X3.880 Y-7.962
G1 X3.805 Y-8.188
G1 X3.771 Y-8.414
G1 X3.797 Y-8.782
G1 X3.887 Y-9.113
G1 X3.966 Y-9.297
G1 X4.056 Y-9.462
G1 X4.229 Y-9.688
G1 X4.402 Y-9.842
G1 X4.553 Y-9.932
G1 X4.609 Y-9.947
G1 X4.665 Y-9.944
G1 X4.936 Y-9.823
G1 X4.936 Y-9.823
G1 X5.034 Y-9.748
G1 X5.079 Y-9.673
G0 X5.083 Y-9.647
G0 X5.034 Y-9.492
G0 X4.278 Y-7.944
G1 X4.259 Y-7.910
G1 X4.207 Y-7.820
G1 X4.162 Y-7.786
G1 X4.075 Y-7.763
G1 X3.959 Y-7.782
G1 X3.959 Y-7.782
G1 X3.744 Y-7.902
G1 X3.650 Y-7.981
G1 X3.541 Y-8.188
G1 X3.466 Y-8.526
G1 X3.477 Y-8.895
G1 X3.560 Y-9.256
G1 X3.635 Y-9.436
G1 X3.714 Y-9.590
G1 X3.917 Y-9.865
G1 X4.086 Y-10.015
G1 X4.184 Y-10.075
G1 X4.241 Y-10.090
G1 X4.297 Y-10.083
G1 X4.579 Y-9.977
G1 X4.579 Y-9.977
G1 X4.677 Y-9.906
G1 X4.729 Y-9.831
G0 X4.733 Y-9.805
G0 X4.707 Y-9.695
G0 X3.996 Y-8.068
G1 X3.981 Y-8.034
G1 X3.932 Y-7.944
G1 X3.887 Y-7.906
G1 X3.801 Y-7.883
G1 X3.684 Y-7.902
G1 X3.684 Y-7.902
G1 X3.466 Y-8.011
G1 X3.372 Y-8.083
G1 X3.305 Y-8.180
G1 X3.211 Y-8.398
G1 X3.158 Y-8.624
G1 X3.154 Y-8.992
G1 X3.222 Y-9.357
G1 X3.289 Y-9.545
G1 X3.365 Y-9.707
G1 X3.560 Y-9.989
G1 X3.680 Y-10.109
G1 X3.820 Y-10.207
G1 X3.876 Y-10.218
G1 X3.932 Y-10.211
G1 X4.214 Y-10.117
G1 X4.214 Y-10.117
G1 X4.312 Y-10.045
G1 X4.365 Y-9.970
G0 X4.372 Y-9.944
G0 X4.331 Y-9.789
G0 X3.707 Y-8.180
G1 X3.692 Y-8.147
G1 X3.650 Y-8.053
G1 X3.605 Y-8.011
G1 X3.519 Y-7.989
G1 X3.402 Y-8.008
G1 X3.402 Y-8.008
G1 X3.128 Y-8.143
G1 X3.079 Y-8.180
G1 X3.038 Y-8.226
G1 X2.910 Y-8.492
G1 X2.850 Y-8.718
G1 X2.831 Y-9.086
G1 X2.887 Y-9.451
G1 X2.944 Y-9.639
G1 X3.015 Y-9.805
G1 X3.192 Y-10.086
G1 X3.350 Y-10.252
G1 X3.444 Y-10.316
G1 X3.500 Y-10.331
G1 X3.556 Y-10.327
G1 X3.838 Y-10.241
G1 X3.838 Y-10.241
G1 X3.944 Y-10.177
G1 X4.000 Y-10.109
G0 X4.008 Y-10.083
G0 X3.974 Y-9.925
G0 X3.414 Y-8.293
G1 X3.398 Y-8.259
G1 X3.361 Y-8.165
G1 X3.320 Y-8.124
G1 X3.237 Y-8.094
G1 X3.120 Y-8.105
G1 X3.120 Y-8.105
G1 X2.895 Y-8.195
G1 X2.793 Y-8.259
G1 X2.748 Y-8.301
G1 X2.628 Y-8.508
G1 X2.538 Y-8.786
G1 X2.500 Y-9.154
G1 X2.541 Y-9.523
G1 X2.590 Y-9.707
G1 X2.650 Y-9.868
G1 X2.782 Y-10.113
G1 X2.887 Y-10.256
G1 X3.060 Y-10.410
G1 X3.113 Y-10.432
G1 X3.169 Y-10.436
G1 X3.508 Y-10.342
G1 X3.508 Y-10.342
G1 X3.613 Y-10.282
G1 X3.673 Y-10.214
G0 X3.680 Y-10.188
G0 X3.650 Y-10.030
G0 X3.124 Y-8.387
G1 X3.113 Y-8.353
G1 X3.075 Y-8.256
G1 X3.034 Y-8.214
G1 X2.951 Y-8.184
G1 X2.835 Y-8.195
G1 X2.835 Y-8.195
G1 X2.602 Y-8.271
G1 X2.496 Y-8.327
G1 X2.447 Y-8.365
G1 X2.346 Y-8.511
G1 X2.214 Y-8.842
G1 X2.165 Y-9.211
G1 X2.188 Y-9.556
G1 X2.229 Y-9.748
G1 X2.286 Y-9.921
G1 X2.380 Y-10.124
G1 X2.504 Y-10.316
G1 X2.624 Y-10.444
G1 X2.714 Y-10.515
G1 X2.771 Y-10.530
G1 X3.109 Y-10.451
G1 X3.109 Y-10.451
G1 X3.214 Y-10.391
G1 X3.274 Y-10.323
G0 X3.282 Y-10.297
G0 X3.256 Y-10.139
G0 X2.771 Y-8.492
G1 X2.759 Y-8.455
G1 X2.726 Y-8.357
G1 X2.684 Y-8.312
G1 X2.602 Y-8.282
G1 X2.485 Y-8.286
G1 X2.485 Y-8.286
G1 X2.252 Y-8.372
G1 X2.150 Y-8.440
G1 X1.985 Y-8.688
G1 X1.898 Y-8.910
G1 X1.835 Y-9.274
G1 X1.850 Y-9.643
G1 X1.887 Y-9.827
G1 X1.932 Y-9.985
G1 X2.079 Y-10.305
G1 X2.214 Y-10.492
G1 X2.297 Y-10.571
G1 X2.350 Y-10.594
G1 X2.406 Y-10.605
G1 X2.744 Y-10.538
G1 X2.744 Y-10.538
G1 X2.853 Y-10.485
G1 X2.917 Y-10.417
G0 X2.925 Y-10.391
G0 X2.906 Y-10.233
G0 X2.526 Y-8.556
G1 X2.519 Y-8.519
G1 X2.489 Y-8.421
G1 X2.451 Y-8.376
G1 X2.368 Y-8.338
G1 X2.252 Y-8.335
G1 X2.252 Y-8.335
G1 X2.015 Y-8.398
G1 X1.902 Y-8.447
G1 X1.850 Y-8.481
G1 X1.703 Y-8.673
G1 X1.579 Y-8.936
G1 X1.504 Y-9.297
G1 X1.500 Y-9.662
G1 X1.526 Y-9.853
G1 X1.568 Y-10.026
G1 X1.692 Y-10.342
G1 X1.820 Y-10.534
G1 X1.944 Y-10.654
G1 X1.996 Y-10.673
G1 X2.335 Y-10.617
G1 X2.335 Y-10.617
G1 X2.447 Y-10.571
G1 X2.508 Y-10.511
G0 X2.519 Y-10.485
G0 X2.504 Y-10.327
G0 X2.158 Y-8.643
G1 X2.154 Y-8.605
G1 X2.128 Y-8.504
G1 X2.090 Y-8.455
G1 X2.015 Y-8.414
G1 X1.898 Y-8.402
G1 X1.898 Y-8.402
G1 X1.718 Y-8.444
G1 X1.553 Y-8.523
G1 X1.402 Y-8.707
G1 X1.301 Y-8.921
G1 X1.184 Y-9.335
G1 X1.162 Y-9.703
G1 X1.192 Y-9.936
G1 X1.233 Y-10.109
G1 X1.323 Y-10.350
G1 X1.477 Y-10.586
G1 X1.553 Y-10.673
G1 X1.602 Y-10.703
G1 X1.658 Y-10.711
G1 X1.940 Y-10.680
G1 X1.940 Y-10.680
G1 X2.053 Y-10.639
G1 X2.120 Y-10.583
G0 X2.132 Y-10.560
G0 X2.132 Y-10.398
G0 X1.910 Y-8.677
G1 X1.902 Y-8.639
G1 X1.883 Y-8.538
G1 X1.850 Y-8.489
G1 X1.774 Y-8.447
G1 X1.658 Y-8.432
G1 X1.658 Y-8.432
G1 X1.417 Y-8.481
G1 X1.305 Y-8.530
G1 X1.252 Y-8.564
G1 X1.105 Y-8.756
G1 X0.977 Y-9.023
G1 X0.872 Y-9.380
G1 X0.842 Y-9.748
G1 X0.865 Y-9.981
G1 X0.902 Y-10.150
G1 X0.985 Y-10.383
G1 X1.135 Y-10.628
G1 X1.214 Y-10.711
G1 X1.267 Y-10.737
G1 X1.323 Y-10.748
G1 X1.605 Y-10.718
G1 X1.605 Y-10.718
G1 X1.718 Y-10.677
G1 X1.786 Y-10.620
G0 X1.797 Y-10.598
G0 X1.793 Y-10.436
G0 X1.553 Y-8.722
G1 X1.549 Y-8.684
G1 X1.526 Y-8.583
G1 X1.492 Y-8.534
G1 X1.417 Y-8.492
G1 X1.301 Y-8.481
G1 X1.301 Y-8.481
G1 X1.064 Y-8.541
G1 X1.011 Y-8.568
G1 X0.921 Y-8.647
G1 X0.778 Y-8.835
G1 X0.673 Y-9.045
G1 X0.560 Y-9.398
G1 X0.519 Y-9.767
G1 X0.534 Y-10.000
G1 X0.564 Y-10.173
G1 X0.620 Y-10.361
G1 X0.729 Y-10.564
G1 X0.838 Y-10.695
G1 X0.880 Y-10.733
G1 X0.932 Y-10.759
G1 X0.989 Y-10.771
G1 X1.271 Y-10.756
G1 X1.271 Y-10.756
G1 X1.383 Y-10.714
G1 X1.451 Y-10.658
G0 X1.462 Y-10.635
G0 X1.466 Y-10.470
G0 X1.301 Y-8.767
G1 X1.301 Y-8.729
G1 X1.282 Y-8.628
G1 X1.252 Y-8.575
G1 X1.180 Y-8.526
G1 X1.064 Y-8.500
G1 X1.064 Y-8.500
G1 X0.823 Y-8.541
G1 X0.714 Y-8.590
G1 X0.511 Y-8.812
G1 X0.391 Y-9.015
G1 X0.252 Y-9.361
G1 X0.188 Y-9.726
G1 X0.192 Y-9.959
G1 X0.218 Y-10.128
G1 X0.263 Y-10.293
G1 X0.350 Y-10.504
G1 X0.485 Y-10.692
G1 X0.526 Y-10.733
G1 X0.575 Y-10.763
G1 X0.632 Y-10.778
G1 X0.914 Y-10.774
G1 X0.914 Y-10.774
G1 X1.030 Y-10.741
G1 X1.098 Y-10.692
G0 X1.113 Y-10.665
G0 X1.120 Y-10.504
G0 X0.996 Y-8.774
G1 X0.996 Y-8.737
G1 X0.974 Y-8.632
G1 X0.936 Y-8.575
G1 X0.850 Y-8.530
G1 X0.763 Y-8.519
G1 X0.763 Y-8.519
G1 X0.523 Y-8.560
G1 X0.466 Y-8.583
G1 X0.286 Y-8.741
G1 X0.143 Y-8.929
G1 X0.083 Y-9.030
G1 X-0.071 Y-9.365
G1 X-0.135 Y-9.729
G1 X-0.135 Y-9.925
G1 X-0.117 Y-10.083
G1 X-0.075 Y-10.263
G1 X0.008 Y-10.500
G1 X0.139 Y-10.688
G1 X0.180 Y-10.729
G1 X0.229 Y-10.759
G1 X0.282 Y-10.778
G1 X0.508 Y-10.778
G1 X0.508 Y-10.778
G1 X0.624 Y-10.752
G1 X0.695 Y-10.699
G0 X0.711 Y-10.677
G0 X0.733 Y-10.519
G0 X0.741 Y-8.789
G1 X0.741 Y-8.752
G1 X0.733 Y-8.650
G1 X0.707 Y-8.598
G1 X0.635 Y-8.545
G1 X0.523 Y-8.519
G1 X0.523 Y-8.519
G1 X0.282 Y-8.545
G1 X0.165 Y-8.583
G1 X-0.015 Y-8.733
G1 X-0.162 Y-8.906
G1 X-0.222 Y-9.004
G1 X-0.380 Y-9.338
G1 X-0.455 Y-9.699
G1 X-0.459 Y-9.880
G1 X-0.451 Y-10.038
G1 X-0.410 Y-10.263
G1 X-0.320 Y-10.485
G1 X-0.226 Y-10.639
G1 X-0.147 Y-10.729
G1 X-0.094 Y-10.759
G1 X0.192 Y-10.774
G1 X0.192 Y-10.774
G1 X0.308 Y-10.752
G1 X0.383 Y-10.707
G0 X0.398 Y-10.684
G0 X0.421 Y-10.523
G0 X0.436 Y-8.789
G1 X0.440 Y-8.752
G1 X0.432 Y-8.650
G1 X0.406 Y-8.598
G1 X0.335 Y-8.545
G1 X0.222 Y-8.519
G1 X0.222 Y-8.519
G1 X-0.015 Y-8.538
G1 X-0.124 Y-8.568
G1 X-0.305 Y-8.707
G1 X-0.489 Y-8.925
G1 X-0.688 Y-9.301
G1 X-0.774 Y-9.662
G1 X-0.786 Y-9.838
G1 X-0.782 Y-10.000
G1 X-0.748 Y-10.207
G1 X-0.677 Y-10.440
G1 X-0.586 Y-10.594
G1 X-0.511 Y-10.688
G1 X-0.459 Y-10.722
G1 X-0.158 Y-10.759
G1 X-0.158 Y-10.759
G1 X-0.030 Y-10.737
G1 X0.041 Y-10.692
G0 X0.056 Y-10.669
G0 X0.083 Y-10.511
G0 X0.188 Y-8.789
G1 X0.192 Y-8.752
G1 X0.192 Y-8.650
G1 X0.165 Y-8.594
G1 X0.102 Y-8.538
G1 X-0.011 Y-8.500
G1 X-0.011 Y-8.500
G1 X-0.237 Y-8.500
G1 X-0.406 Y-8.534
G1 X-0.594 Y-8.665
G1 X-0.820 Y-8.925
G1 X-0.996 Y-9.248
G1 X-1.094 Y-9.605
G1 X-1.113 Y-9.786
G1 X-1.113 Y-9.944
G1 X-1.094 Y-10.150
G1 X-1.015 Y-10.417
G1 X-0.925 Y-10.571
G1 X-0.887 Y-10.620
G1 X-0.789 Y-10.688
G1 X-0.489 Y-10.729
G1 X-0.489 Y-10.729
G1 X-0.361 Y-10.714
G1 X-0.282 Y-10.673
G0 X-0.263 Y-10.650
G0 X-0.237 Y-10.541
G0 X-0.154 Y-8.774
G1 X-0.154 Y-8.737
G1 X-0.158 Y-8.632
G1 X-0.180 Y-8.575
G1 X-0.252 Y-8.515
G1 X-0.372 Y-8.474
G1 X-0.372 Y-8.474
G1 X-0.541 Y-8.470
G1 X-0.654 Y-8.489
G1 X-0.707 Y-8.508
G1 X-0.898 Y-8.639
G1 X-1.098 Y-8.850
G1 X-1.132 Y-8.895
G1 X-1.316 Y-9.214
G1 X-1.421 Y-9.568
G1 X-1.440 Y-9.748
G1 X-1.444 Y-9.910
G1 X-1.410 Y-10.173
G1 X-1.350 Y-10.342
G1 X-1.271 Y-10.500
G1 X-1.203 Y-10.598
G1 X-1.154 Y-10.635
G1 X-1.098 Y-10.658
G1 X-0.857 Y-10.684
G1 X-0.857 Y-10.684
G1 X-0.729 Y-10.669
G1 X-0.647 Y-10.628
G0 X-0.632 Y-10.605
G0 X-0.598 Y-10.500
G0 X-0.406 Y-8.744
G1 X-0.402 Y-8.707
G1 X-0.398 Y-8.602
G1 X-0.421 Y-8.545
G1 X-0.489 Y-8.485
G1 X-0.609 Y-8.444
G1 X-0.609 Y-8.444
G1 X-0.778 Y-8.429
G1 X-0.947 Y-8.444
G1 X-1.056 Y-8.481
G1 X-1.286 Y-8.658
G1 X-1.436 Y-8.835
G1 X-1.628 Y-9.150
G1 X-1.741 Y-9.504
G1 X-1.767 Y-9.688
G1 X-1.774 Y-9.853
G1 X-1.756 Y-10.068
G1 X-1.665 Y-10.350
G1 X-1.575 Y-10.504
G1 X-1.538 Y-10.549
G1 X-1.489 Y-10.583
G1 X-1.192 Y-10.647
G1 X-1.192 Y-10.647
G1 X-1.064 Y-10.632
G1 X-0.981 Y-10.590
G0 X-0.966 Y-10.568
G0 X-0.925 Y-10.414
G0 X-0.707 Y-8.707
G1 X-0.699 Y-8.669
G1 X-0.695 Y-8.564
G1 X-0.718 Y-8.508
G1 X-0.786 Y-8.447
G1 X-0.906 Y-8.402
G1 X-0.906 Y-8.402
G1 X-1.132 Y-8.383
G1 X-1.244 Y-8.395
G1 X-1.301 Y-8.410
G1 X-1.541 Y-8.568
G1 X-1.699 Y-8.733
G1 X-1.910 Y-9.038
G1 X-2.045 Y-9.383
G1 X-2.079 Y-9.575
G1 X-2.094 Y-9.726
G1 X-2.094 Y-9.940
G1 X-2.045 Y-10.211
G1 X-1.936 Y-10.425
G1 X-1.898 Y-10.470
G1 X-1.850 Y-10.508
G1 X-1.793 Y-10.530
G1 X-1.492 Y-10.590
G1 X-1.492 Y-10.590
G1 X-1.365 Y-10.586
G1 X-1.278 Y-10.553
G0 X-1.259 Y-10.534
G0 X-1.226 Y-10.425
G0 X-1.008 Y-8.662
G1 X-1.004 Y-8.624
G1 X-1.000 Y-8.519
G1 X-1.019 Y-8.462
G1 X-1.086 Y-8.398
G1 X-1.203 Y-8.350
G1 X-1.203 Y-8.350
G1 X-1.429 Y-8.316
G1 X-1.541 Y-8.327
G1 X-1.598 Y-8.342
G1 X-1.748 Y-8.425
G1 X-2.000 Y-8.654
G1 X-2.218 Y-8.955
G1 X-2.361 Y-9.293
G1 X-2.402 Y-9.474
G1 X-2.425 Y-9.635
G1 X-2.429 Y-9.846
G1 X-2.395 Y-10.098
G1 X-2.301 Y-10.316
G1 X-2.267 Y-10.365
G1 X-2.222 Y-10.406
G1 X-2.169 Y-10.436
G1 X-1.989 Y-10.481
G1 X-1.989 Y-10.481
G1 X-1.861 Y-10.485
G1 X-1.774 Y-10.459
G0 X-1.752 Y-10.440
G0 X-1.711 Y-10.335
G0 X-1.320 Y-8.594
G1 X-1.312 Y-8.556
G1 X-1.297 Y-8.455
G1 X-1.316 Y-8.398
G1 X-1.380 Y-8.335
G1 X-1.496 Y-8.286
G1 X-1.496 Y-8.286
G1 X-1.722 Y-8.252
G1 X-1.835 Y-8.259
G1 X-1.891 Y-8.274
G1 X-2.094 Y-8.391
G1 X-2.308 Y-8.583
G1 X-2.530 Y-8.876
G1 X-2.680 Y-9.214
G1 X-2.726 Y-9.395
G1 X-2.752 Y-9.556
G1 X-2.756 Y-9.823
G1 X-2.722 Y-9.992
G1 X-2.639 Y-10.214
G1 X-2.609 Y-10.267
G1 X-2.519 Y-10.342
G1 X-2.218 Y-10.425
G1 X-2.218 Y-10.425
G1 X-2.090 Y-10.429
G1 X-2.004 Y-10.402
G0 X-1.981 Y-10.383
G0 X-1.940 Y-10.278
G0 X-1.568 Y-8.553
G1 X-1.556 Y-8.515
G1 X-1.545 Y-8.410
G1 X-1.560 Y-8.350
G1 X-1.617 Y-8.282
G1 X-1.726 Y-8.222
G1 X-1.726 Y-8.222
G1 X-1.951 Y-8.173
G1 X-2.120 Y-8.169
G1 X-2.331 Y-8.259
G1 X-2.556 Y-8.436
G1 X-2.598 Y-8.477
G1 X-2.827 Y-8.767
G1 X-2.989 Y-9.098
G1 X-3.041 Y-9.286
G1 X-3.068 Y-9.451
G1 X-3.083 Y-9.643
G1 X-3.060 Y-9.906
G1 X-3.004 Y-10.075
G1 X-2.944 Y-10.177
G1 X-2.898 Y-10.218
G1 X-2.609 Y-10.316
G1 X-2.609 Y-10.316
G1 X-2.481 Y-10.327
G1 X-2.395 Y-10.301
G0 X-2.372 Y-10.282
G0 X-2.327 Y-10.180
G0 X-1.917 Y-8.459
G1 X-1.906 Y-8.421
G1 X-1.891 Y-8.320
G1 X-1.906 Y-8.259
G1 X-1.962 Y-8.188
G1 X-2.071 Y-8.124
G1 X-2.071 Y-8.124
G1 X-2.297 Y-8.075
G1 X-2.410 Y-8.079
G1 X-2.620 Y-8.169
G1 X-2.853 Y-8.342
G1 X-3.132 Y-8.665
G1 X-3.301 Y-8.992
G1 X-3.357 Y-9.177
G1 X-3.395 Y-9.338
G1 X-3.414 Y-9.560
G1 X-3.376 Y-9.842
G1 X-3.316 Y-10.011
G1 X-3.282 Y-10.060
G1 X-3.237 Y-10.102
G1 X-2.951 Y-10.207
G1 X-2.951 Y-10.207
G1 X-2.793 Y-10.218
G1 X-2.737 Y-10.199
G0 X-2.714 Y-10.184
G0 X-2.665 Y-10.083
G0 X-2.207 Y-8.365
G1 X-2.195 Y-8.327
G1 X-2.177 Y-8.226
G1 X-2.192 Y-8.165
G1 X-2.248 Y-8.094
G1 X-2.357 Y-8.030
G1 X-2.357 Y-8.030
G1 X-2.526 Y-7.981
G1 X-2.639 Y-7.970
G1 X-2.695 Y-7.974
G1 X-2.910 Y-8.060
G1 X-3.143 Y-8.226
G1 X-3.184 Y-8.263
G1 X-3.429 Y-8.541
G1 X-3.609 Y-8.865
G1 X-3.673 Y-9.053
G1 X-3.707 Y-9.214
G1 X-3.729 Y-9.462
G1 X-3.695 Y-9.744
G1 X-3.639 Y-9.910
G1 X-3.602 Y-9.955
G1 X-3.553 Y-9.989
G1 X-3.327 Y-10.071
G1 X-3.327 Y-10.071
G1 X-3.169 Y-10.083
G1 X-3.113 Y-10.068
G0 X-3.090 Y-10.049
G0 X-3.034 Y-9.951
G0 X-2.455 Y-8.278
G1 X-2.440 Y-8.244
G1 X-2.414 Y-8.143
G1 X-2.425 Y-8.086
G1 X-2.474 Y-8.011
G1 X-2.583 Y-7.944
G1 X-2.583 Y-7.944
G1 X-2.865 Y-7.861
G1 X-2.977 Y-7.861
G1 X-3.241 Y-7.974
G1 X-3.429 Y-8.109
G1 X-3.692 Y-8.368
G1 X-3.887 Y-8.680
G1 X-3.962 Y-8.857
G1 X-4.008 Y-9.026
G1 X-4.038 Y-9.211
G1 X-4.045 Y-9.519
G1 X-3.985 Y-9.744
G1 X-3.951 Y-9.793
G1 X-3.906 Y-9.835
G1 X-3.737 Y-9.906
G1 X-3.737 Y-9.906
G1 X-3.579 Y-9.929
G1 X-3.523 Y-9.914
G0 X-3.500 Y-9.898
G0 X-3.436 Y-9.805
G0 X-2.748 Y-8.173
G1 X-2.733 Y-8.139
G1 X-2.703 Y-8.041
G1 X-2.707 Y-7.981
G1 X-2.756 Y-7.906
G1 X-2.857 Y-7.831
G1 X-2.857 Y-7.831
G1 X-3.083 Y-7.752
G1 X-3.252 Y-7.737
G1 X-3.417 Y-7.789
G1 X-3.669 Y-7.936
G1 X-3.714 Y-7.970
G1 X-3.981 Y-8.226
G1 X-4.184 Y-8.534
G1 X-4.263 Y-8.707
G1 X-4.320 Y-8.872
G1 X-4.365 Y-9.090
G1 X-4.368 Y-9.372
G1 X-4.335 Y-9.541
G1 X-4.316 Y-9.598
G1 X-4.278 Y-9.647
G1 X-4.008 Y-9.786
G1 X-4.008 Y-9.786
G1 X-3.880 Y-9.812
G1 X-3.793 Y-9.801
G0 X-3.771 Y-9.786
G0 X-3.707 Y-9.692
G0 X-3.026 Y-8.053
G1 X-3.011 Y-8.019
G1 X-2.981 Y-7.921
G1 X-2.985 Y-7.861
G1 X-3.030 Y-7.786
G1 X-3.132 Y-7.707
G1 X-3.132 Y-7.707
G1 X-3.353 Y-7.617
G1 X-3.466 Y-7.598
G1 X-3.523 Y-7.598
G1 X-3.741 Y-7.673
G1 X-3.989 Y-7.820
G1 X-4.263 Y-8.068
G1 X-4.477 Y-8.368
G1 X-4.564 Y-8.541
G1 X-4.628 Y-8.703
G1 X-4.677 Y-8.921
G1 X-4.680 Y-9.259
G1 X-4.662 Y-9.372
G1 X-4.643 Y-9.429
G1 X-4.609 Y-9.477
G1 X-4.564 Y-9.515
G1 X-4.289 Y-9.650
G1 X-4.289 Y-9.650
G1 X-4.162 Y-9.677
G1 X-4.075 Y-9.665
G0 X-4.053 Y-9.650
G0 X-3.989 Y-9.556
G0 X-3.305 Y-7.925
G1 X-3.289 Y-7.891
G1 X-3.259 Y-7.793
G1 X-3.259 Y-7.733
G1 X-3.305 Y-7.654
G1 X-3.402 Y-7.575
G1 X-3.402 Y-7.575
G1 X-3.680 Y-7.474
G1 X-3.737 Y-7.466
G1 X-3.906 Y-7.496
G1 X-4.169 Y-7.609
G1 X-4.267 Y-7.673
G1 X-4.549 Y-7.914
G1 X-4.771 Y-8.207
G1 X-4.861 Y-8.383
G1 X-4.925 Y-8.538
G1 X-4.981 Y-8.748
G1 X-5.000 Y-9.030
G1 X-4.977 Y-9.199
G1 X-4.962 Y-9.256
G1 X-4.929 Y-9.305
G1 X-4.669 Y-9.459
G1 X-4.669 Y-9.459
G1 X-4.545 Y-9.492
G1 X-4.459 Y-9.485
G0 X-4.432 Y-9.474
G0 X-4.368 Y-9.380
G0 X-3.594 Y-7.789
G1 X-3.575 Y-7.756
G1 X-3.538 Y-7.662
G1 X-3.538 Y-7.602
G1 X-3.575 Y-7.519
G1 X-3.665 Y-7.432
G1 X-3.665 Y-7.432
G1 X-3.883 Y-7.338
G1 X-3.996 Y-7.316
G1 X-4.165 Y-7.346
G1 X-4.436 Y-7.459
G1 X-4.534 Y-7.519
G1 X-4.823 Y-7.748
G1 X-5.056 Y-8.038
G1 X-5.150 Y-8.203
G1 X-5.222 Y-8.361
G1 X-5.286 Y-8.575
G1 X-5.308 Y-8.744
G1 X-5.301 Y-8.970
G1 X-5.289 Y-9.026
G1 X-5.263 Y-9.079
G1 X-5.226 Y-9.128
G1 X-4.966 Y-9.289
G1 X-4.966 Y-9.289
G1 X-4.842 Y-9.323
G1 X-4.756 Y-9.316
G0 X-4.729 Y-9.305
G0 X-4.639 Y-9.173
G0 X-3.857 Y-7.639
G1 X-3.838 Y-7.605
G1 X-3.797 Y-7.511
G1 X-3.797 Y-7.451
G1 X-3.835 Y-7.368
G1 X-3.925 Y-7.282
G1 X-3.925 Y-7.282
G1 X-4.083 Y-7.207
G1 X-4.195 Y-7.173
G1 X-4.252 Y-7.165
G1 X-4.421 Y-7.188
G1 X-4.643 Y-7.263
G1 X-4.748 Y-7.316
G1 X-5.056 Y-7.523
G1 X-5.305 Y-7.797
G1 X-5.406 Y-7.955
G1 X-5.485 Y-8.102
G1 X-5.564 Y-8.316
G1 X-5.617 Y-8.553
G1 X-5.620 Y-8.665
G1 X-5.594 Y-8.835
G1 X-5.568 Y-8.887
G1 X-5.327 Y-9.064
G1 X-5.274 Y-9.094
G1 X-5.274 Y-9.094
G1 X-5.150 Y-9.135
G1 X-5.060 Y-9.135
G0 X-5.038 Y-9.120
G0 X-4.940 Y-8.992
G0 X-4.075 Y-7.515
G1 X-4.056 Y-7.481
G1 X-4.011 Y-7.387
G1 X-4.008 Y-7.327
G1 X-4.041 Y-7.241
G1 X-4.128 Y-7.150
G1 X-4.128 Y-7.150
G1 X-4.335 Y-7.038
G1 X-4.447 Y-6.996
G1 X-4.504 Y-6.989
G1 X-4.729 Y-7.019
G1 X-4.944 Y-7.094
G1 X-5.049 Y-7.147
G1 X-5.350 Y-7.361
G1 X-5.602 Y-7.632
G1 X-5.711 Y-7.793
G1 X-5.793 Y-7.944
G1 X-5.872 Y-8.150
G1 X-5.910 Y-8.376
G1 X-5.898 Y-8.602
G1 X-5.880 Y-8.658
G1 X-5.850 Y-8.707
G1 X-5.605 Y-8.876
G1 X-5.605 Y-8.876
G1 X-5.489 Y-8.921
G1 X-5.398 Y-8.921
G0 X-5.376 Y-8.910
G0 X-5.271 Y-8.789
G0 X-4.338 Y-7.342
G1 X-4.316 Y-7.312
G1 X-4.267 Y-7.222
G1 X-4.263 Y-7.162
G1 X-4.293 Y-7.075
G1 X-4.376 Y-6.985
G1 X-4.376 Y-6.985
G1 X-4.579 Y-6.857
G1 X-4.744 Y-6.801
G1 X-4.857 Y-6.805
G1 X-5.135 Y-6.876
G1 X-5.293 Y-6.947
G1 X-5.602 Y-7.150
G1 X-5.865 Y-7.410
G1 X-5.985 Y-7.579
G1 X-6.068 Y-7.737
G1 X-6.139 Y-7.914
G1 X-6.195 Y-8.195
G1 X-6.195 Y-8.365
G1 X-6.180 Y-8.421
G1 X-6.154 Y-8.474
G1 X-5.914 Y-8.662
G1 X-5.914 Y-8.662
G1 X-5.797 Y-8.714
G1 X-5.707 Y-8.722
G0 X-5.680 Y-8.711
G0 X-5.602 Y-8.632
G0 X-4.586 Y-7.162
G1 X-4.564 Y-7.132
G1 X-4.515 Y-7.041
G1 X-4.508 Y-6.985
G1 X-4.538 Y-6.898
G1 X-4.620 Y-6.808
G1 X-4.620 Y-6.808
G1 X-4.820 Y-6.673
G1 X-4.929 Y-6.624
G1 X-4.985 Y-6.609
G1 X-5.154 Y-6.617
G1 X-5.432 Y-6.692
G1 X-5.538 Y-6.737
G1 X-5.853 Y-6.929
G1 X-6.120 Y-7.184
G1 X-6.241 Y-7.342
G1 X-6.327 Y-7.492
G1 X-6.425 Y-7.722
G1 X-6.481 Y-8.004
G1 X-6.485 Y-8.117
G1 X-6.477 Y-8.173
G1 X-6.451 Y-8.226
G1 X-6.229 Y-8.417
G1 X-6.229 Y-8.417
G1 X-6.113 Y-8.470
G1 X-6.023 Y-8.477
G0 X-5.996 Y-8.466
G0 X-5.917 Y-8.387
G0 X-4.880 Y-6.944
G1 X-4.857 Y-6.914
G1 X-4.805 Y-6.823
G1 X-4.793 Y-6.767
G1 X-4.820 Y-6.680
G1 X-4.902 Y-6.586
G1 X-4.902 Y-6.586
G1 X-5.102 Y-6.455
G1 X-5.211 Y-6.414
G1 X-5.380 Y-6.410
G1 X-5.714 Y-6.496
G1 X-6.090 Y-6.699
G1 X-6.365 Y-6.944
G1 X-6.485 Y-7.094
G1 X-6.575 Y-7.233
G1 X-6.695 Y-7.477
G1 X-6.759 Y-7.759
G1 X-6.763 Y-7.929
G1 X-6.741 Y-7.981
G1 X-6.519 Y-8.177
G1 X-6.519 Y-8.177
G1 X-6.406 Y-8.233
G1 X-6.316 Y-8.241
G0 X-6.289 Y-8.233
G0 X-6.177 Y-8.120
G0 X-5.128 Y-6.752
G1 X-5.105 Y-6.722
G1 X-5.049 Y-6.635
G1 X-5.038 Y-6.575
G1 X-5.056 Y-6.489
G1 X-5.132 Y-6.391
G1 X-5.132 Y-6.391
G1 X-5.278 Y-6.282
G1 X-5.383 Y-6.226
G1 X-5.440 Y-6.207
G1 X-5.665 Y-6.207
G1 X-5.835 Y-6.241
G1 X-5.947 Y-6.278
G1 X-6.282 Y-6.432
G1 X-6.571 Y-6.662
G1 X-6.699 Y-6.801
G1 X-6.801 Y-6.936
G1 X-6.902 Y-7.113
G1 X-7.004 Y-7.353
G1 X-7.038 Y-7.523
G1 X-7.045 Y-7.635
G1 X-7.026 Y-7.692
G1 X-6.996 Y-7.744
G1 X-6.786 Y-7.951
G1 X-6.786 Y-7.951
G1 X-6.673 Y-8.008
G1 X-6.583 Y-8.015
G0 X-6.556 Y-8.008
G0 X-6.444 Y-7.895
G0 X-5.365 Y-6.556
G1 X-5.342 Y-6.526
G1 X-5.286 Y-6.440
G1 X-5.271 Y-6.380
G1 X-5.286 Y-6.293
G1 X-5.353 Y-6.188
G1 X-5.353 Y-6.188
G1 X-5.492 Y-6.075
G1 X-5.594 Y-6.019
G1 X-5.650 Y-6.000
G1 X-5.876 Y-5.985
G1 X-6.045 Y-6.008
G1 X-6.214 Y-6.060
G1 X-6.545 Y-6.226
G1 X-6.838 Y-6.451
G1 X-6.974 Y-6.598
G1 X-7.079 Y-6.737
G1 X-7.192 Y-6.932
G1 X-7.271 Y-7.150
G1 X-7.301 Y-7.320
G1 X-7.301 Y-7.376
G1 X-7.286 Y-7.432
G1 X-7.256 Y-7.481
G1 X-7.049 Y-7.692
G1 X-7.049 Y-7.692
G1 X-6.940 Y-7.756
G1 X-6.853 Y-7.771
G0 X-6.827 Y-7.767
G0 X-6.737 Y-7.695
G0 X-5.545 Y-6.380
G1 X-5.519 Y-6.350
G1 X-5.455 Y-6.267
G1 X-5.440 Y-6.211
G1 X-5.455 Y-6.124
G1 X-5.523 Y-6.019
G1 X-5.523 Y-6.019
G1 X-5.699 Y-5.861
G1 X-5.801 Y-5.797
G1 X-5.853 Y-5.774
G1 X-6.079 Y-5.756
G1 X-6.305 Y-5.786
G1 X-6.417 Y-5.820
G1 X-6.756 Y-5.970
G1 X-7.056 Y-6.188
G1 X-7.199 Y-6.327
G1 X-7.316 Y-6.470
G1 X-7.425 Y-6.643
G1 X-7.511 Y-6.857
G1 X-7.560 Y-7.083
G1 X-7.549 Y-7.139
G1 X-7.523 Y-7.192
G1 X-7.316 Y-7.414
G1 X-7.316 Y-7.414
G1 X-7.211 Y-7.485
G1 X-7.150 Y-7.504
G1 X-7.124 Y-7.504
G0 X-7.098 Y-7.500
G0 X-6.970 Y-7.398
G0 X-5.767 Y-6.158
G1 X-5.741 Y-6.132
G1 X-5.677 Y-6.053
G1 X-5.658 Y-5.996
G1 X-5.669 Y-5.910
G1 X-5.729 Y-5.805
G1 X-5.729 Y-5.805
G1 X-5.906 Y-5.643
G1 X-6.056 Y-5.553
G1 X-6.282 Y-5.523
G1 X-6.564 Y-5.553
G1 X-6.620 Y-5.568
G1 X-6.962 Y-5.707
G1 X-7.271 Y-5.914
G1 X-7.425 Y-6.056
G1 X-7.541 Y-6.195
G1 X-7.711 Y-6.459
G1 X-7.789 Y-6.677
G1 X-7.808 Y-6.789
G1 X-7.797 Y-6.846
G1 X-7.774 Y-6.902
G1 X-7.583 Y-7.128
G1 X-7.583 Y-7.128
G1 X-7.477 Y-7.199
G1 X-7.391 Y-7.218
G0 X-7.365 Y-7.214
G0 X-7.237 Y-7.117
G0 X-6.023 Y-5.898
G1 X-5.996 Y-5.872
G1 X-5.929 Y-5.793
G1 X-5.906 Y-5.737
G1 X-5.917 Y-5.650
G1 X-5.974 Y-5.541
G1 X-5.974 Y-5.541
G1 X-6.102 Y-5.410
G1 X-6.199 Y-5.338
G1 X-6.252 Y-5.312
G1 X-6.421 Y-5.278
G1 X-6.590 Y-5.274
G1 X-6.816 Y-5.312
G1 X-7.162 Y-5.440
G1 X-7.477 Y-5.635
G1 X-7.628 Y-5.767
G1 X-7.748 Y-5.891
G1 X-7.944 Y-6.165
G1 X-8.011 Y-6.327
G1 X-8.045 Y-6.496
G1 X-8.038 Y-6.553
G1 X-8.019 Y-6.609
G1 X-7.831 Y-6.835
G1 X-7.831 Y-6.835
G1 X-7.729 Y-6.910
G1 X-7.643 Y-6.932
G0 X-7.617 Y-6.929
G0 X-7.489 Y-6.835
G0 X-6.218 Y-5.662
G1 X-6.192 Y-5.635
G1 X-6.120 Y-5.560
G1 X-6.102 Y-5.504
G1 X-6.109 Y-5.417
G1 X-6.165 Y-5.308
G1 X-6.165 Y-5.308
G1 X-6.289 Y-5.173
G1 X-6.383 Y-5.102
G1 X-6.436 Y-5.075
G1 X-6.718 Y-5.030
G1 X-6.944 Y-5.045
G1 X-7.000 Y-5.056
G1 X-7.353 Y-5.169
G1 X-7.677 Y-5.350
G1 X-7.835 Y-5.477
G1 X-7.962 Y-5.602
G1 X-8.162 Y-5.876
G1 X-8.252 Y-6.086
G1 X-8.274 Y-6.199
G1 X-8.267 Y-6.256
G1 X-8.241 Y-6.308
G1 X-8.098 Y-6.504
G1 X-8.098 Y-6.504
G1 X-7.996 Y-6.583
G1 X-7.910 Y-6.609
G0 X-7.883 Y-6.609
G0 X-7.744 Y-6.523
G0 X-6.398 Y-5.462
G1 X-6.368 Y-5.440
G1 X-6.293 Y-5.372
G1 X-6.263 Y-5.320
G1 X-6.263 Y-5.229
G1 X-6.308 Y-5.117
G1 X-6.308 Y-5.117
G1 X-6.459 Y-4.932
G1 X-6.553 Y-4.853
G1 X-6.602 Y-4.823
G1 X-6.883 Y-4.767
G1 X-7.165 Y-4.778
G1 X-7.523 Y-4.876
G1 X-7.831 Y-5.034
G1 X-7.992 Y-5.147
G1 X-8.132 Y-5.267
G1 X-8.350 Y-5.530
G1 X-8.451 Y-5.733
G1 X-8.485 Y-5.846
G1 X-8.485 Y-5.902
G1 X-8.474 Y-5.959
G1 X-8.274 Y-6.256
G1 X-8.274 Y-6.256
G1 X-8.180 Y-6.342
G1 X-8.128 Y-6.368
G1 X-8.098 Y-6.376
G0 X-8.071 Y-6.372
G0 X-7.974 Y-6.316
G0 X-6.602 Y-5.173
G1 X-6.571 Y-5.147
G1 X-6.496 Y-5.075
G1 X-6.470 Y-5.023
G1 X-6.470 Y-4.932
G1 X-6.515 Y-4.820
G1 X-6.515 Y-4.820
G1 X-6.673 Y-4.635
G1 X-6.767 Y-4.564
G1 X-6.989 Y-4.500
G1 X-7.158 Y-4.489
G1 X-7.327 Y-4.500
G1 X-7.688 Y-4.583
G1 X-8.023 Y-4.741
G1 X-8.188 Y-4.853
G1 X-8.327 Y-4.962
G1 X-8.553 Y-5.226
G1 X-8.658 Y-5.432
G1 X-8.692 Y-5.541
G1 X-8.688 Y-5.598
G1 X-8.669 Y-5.654
G1 X-8.481 Y-5.955
G1 X-8.481 Y-5.955
G1 X-8.387 Y-6.041
G1 X-8.305 Y-6.075
G0 X-8.278 Y-6.071
G0 X-8.177 Y-6.019
G0 X-6.774 Y-4.921
G1 X-6.744 Y-4.898
G1 X-6.669 Y-4.831
G1 X-6.639 Y-4.778
G1 X-6.639 Y-4.688
G1 X-6.684 Y-4.575
G1 X-6.684 Y-4.575
G1 X-6.835 Y-4.383
G1 X-6.929 Y-4.308
G1 X-6.981 Y-4.282
G1 X-7.263 Y-4.218
G1 X-7.489 Y-4.218
G1 X-7.853 Y-4.289
G1 X-8.195 Y-4.432
G1 X-8.361 Y-4.538
G1 X-8.500 Y-4.650
G1 X-8.680 Y-4.835
G1 X-8.812 Y-5.026
G1 X-8.880 Y-5.184
G1 X-8.887 Y-5.241
G1 X-8.880 Y-5.297
G1 X-8.699 Y-5.609
G1 X-8.699 Y-5.609
G1 X-8.605 Y-5.695
G1 X-8.526 Y-5.729
G0 X-8.496 Y-5.729
G0 X-8.395 Y-5.684
G0 X-6.947 Y-4.662
G1 X-6.917 Y-4.639
G1 X-6.838 Y-4.571
G1 X-6.808 Y-4.523
G1 X-6.801 Y-4.432
G1 X-6.842 Y-4.320
G1 X-6.842 Y-4.320
G1 X-6.947 Y-4.165
G1 X-7.075 Y-4.041
G1 X-7.297 Y-3.962
G1 X-7.579 Y-3.925
G1 X-7.635 Y-3.925
G1 X-8.000 Y-3.985
G1 X-8.301 Y-4.094
G1 X-8.477 Y-4.192
G1 X-8.624 Y-4.293
G1 X-8.868 Y-4.523
G1 X-9.004 Y-4.711
G1 X-9.071 Y-4.872
G1 X-9.071 Y-4.929
G1 X-9.053 Y-4.985
G1 X-8.906 Y-5.248
G1 X-8.906 Y-5.248
G1 X-8.820 Y-5.338
G1 X-8.741 Y-5.376
G0 X-8.714 Y-5.380
G0 X-8.571 Y-5.308
G0 X-7.117 Y-4.395
G1 X-7.086 Y-4.372
G1 X-7.004 Y-4.312
G1 X-6.970 Y-4.259
G1 X-6.959 Y-4.173
G1 X-6.989 Y-4.056
G1 X-6.989 Y-4.056
G1 X-7.124 Y-3.857
G1 X-7.211 Y-3.774
G1 X-7.259 Y-3.741
G1 X-7.485 Y-3.665
G1 X-7.767 Y-3.632
G1 X-8.135 Y-3.677
G1 X-8.432 Y-3.774
G1 X-8.605 Y-3.857
G1 X-8.771 Y-3.962
G1 X-8.985 Y-4.139
G1 X-9.132 Y-4.312
G1 X-9.218 Y-4.459
G1 X-9.241 Y-4.511
G1 X-9.244 Y-4.568
G1 X-9.233 Y-4.624
G1 X-9.105 Y-4.887
G1 X-9.105 Y-4.887
G1 X-9.019 Y-4.977
G1 X-8.940 Y-5.015
G0 X-8.914 Y-5.019
G0 X-8.763 Y-4.955
G0 X-7.259 Y-4.117
G1 X-7.226 Y-4.098
G1 X-7.139 Y-4.041
G1 X-7.105 Y-3.992
G1 X-7.094 Y-3.906
G1 X-7.128 Y-3.793
G1 X-7.128 Y-3.793
G1 X-7.256 Y-3.586
G1 X-7.335 Y-3.500
G1 X-7.436 Y-3.440
G1 X-7.662 Y-3.365
G1 X-7.887 Y-3.331
G1 X-8.256 Y-3.365
G1 X-8.571 Y-3.455
G1 X-8.752 Y-3.541
G1 X-8.898 Y-3.628
G1 X-9.139 Y-3.808
G1 X-9.323 Y-4.023
G1 X-9.380 Y-4.120
G1 X-9.398 Y-4.177
G1 X-9.402 Y-4.233
G1 X-9.263 Y-4.560
G1 X-9.263 Y-4.560
G1 X-9.184 Y-4.658
G1 X-9.105 Y-4.703
G0 X-9.079 Y-4.707
G0 X-8.929 Y-4.647
G0 X-7.410 Y-3.842
G1 X-7.376 Y-3.823
G1 X-7.286 Y-3.771
G1 X-7.252 Y-3.722
G1 X-7.233 Y-3.635
G1 X-7.256 Y-3.519
G1 X-7.256 Y-3.519
G1 X-7.376 Y-3.308
G1 X-7.455 Y-3.214
G1 X-7.504 Y-3.177
G1 X-7.722 Y-3.083
G1 X-8.004 Y-3.030
G1 X-8.372 Y-3.049
G1 X-8.673 Y-3.128
G1 X-8.846 Y-3.199
G1 X-9.000 Y-3.278
G1 X-9.218 Y-3.421
G1 X-9.391 Y-3.579
G1 X-9.523 Y-3.771
G1 X-9.545 Y-3.823
G1 X-9.549 Y-3.880
G1 X-9.417 Y-4.207
G1 X-9.417 Y-4.207
G1 X-9.342 Y-4.305
G1 X-9.271 Y-4.353
G0 X-9.241 Y-4.357
G0 X-9.135 Y-4.327
G0 X-7.534 Y-3.564
G1 X-7.500 Y-3.545
G1 X-7.410 Y-3.492
G1 X-7.376 Y-3.447
G1 X-7.357 Y-3.361
G1 X-7.376 Y-3.244
G1 X-7.376 Y-3.244
G1 X-7.481 Y-3.026
G1 X-7.553 Y-2.932
G1 X-7.598 Y-2.891
G1 X-7.812 Y-2.786
G1 X-8.038 Y-2.726
G1 X-8.094 Y-2.718
G1 X-8.462 Y-2.726
G1 X-8.801 Y-2.801
G1 X-8.989 Y-2.868
G1 X-9.162 Y-2.951
G1 X-9.444 Y-3.150
G1 X-9.602 Y-3.316
G1 X-9.665 Y-3.410
G1 X-9.684 Y-3.466
G1 X-9.684 Y-3.523
G1 X-9.560 Y-3.861
G1 X-9.560 Y-3.861
G1 X-9.492 Y-3.962
G1 X-9.417 Y-4.015
G0 X-9.391 Y-4.019
G0 X-9.282 Y-3.992
G0 X-7.658 Y-3.278
G1 X-7.624 Y-3.263
G1 X-7.534 Y-3.214
G1 X-7.492 Y-3.169
G1 X-7.470 Y-3.083
G1 X-7.485 Y-2.966
G1 X-7.485 Y-2.966
G1 X-7.579 Y-2.744
G1 X-7.643 Y-2.643
G1 X-7.684 Y-2.598
G1 X-7.838 Y-2.508
G1 X-8.064 Y-2.432
G1 X-8.177 Y-2.410
G1 X-8.545 Y-2.398
G1 X-8.906 Y-2.462
G1 X-9.102 Y-2.530
G1 X-9.263 Y-2.602
G1 X-9.553 Y-2.786
G1 X-9.680 Y-2.906
G1 X-9.782 Y-3.045
G1 X-9.801 Y-3.102
G1 X-9.805 Y-3.158
G1 X-9.733 Y-3.383
G1 X-9.733 Y-3.383
G1 X-9.665 Y-3.485
G1 X-9.590 Y-3.538
G0 X-9.564 Y-3.545
G0 X-9.406 Y-3.508
G0 X-7.778 Y-2.925
G1 X-7.744 Y-2.910
G1 X-7.647 Y-2.865
G1 X-7.605 Y-2.808
G1 X-7.590 Y-2.718
G1 X-7.602 Y-2.628
G1 X-7.602 Y-2.628
G1 X-7.673 Y-2.459
G1 X-7.737 Y-2.357
G1 X-7.778 Y-2.312
G1 X-8.030 Y-2.165
G1 X-8.256 Y-2.098
G1 X-8.624 Y-2.071
G1 X-8.955 Y-2.113
G1 X-9.139 Y-2.162
G1 X-9.308 Y-2.226
G1 X-9.519 Y-2.335
G1 X-9.774 Y-2.526
G1 X-9.883 Y-2.662
G1 X-9.902 Y-2.714
G1 X-9.910 Y-2.771
G1 X-9.816 Y-3.109
G1 X-9.816 Y-3.109
G1 X-9.756 Y-3.214
G1 X-9.688 Y-3.271
G0 X-9.662 Y-3.278
G0 X-9.504 Y-3.244
G0 X-7.872 Y-2.692
G1 X-7.838 Y-2.677
G1 X-7.744 Y-2.639
G1 X-7.699 Y-2.598
G1 X-7.669 Y-2.515
G1 X-7.673 Y-2.398
G1 X-7.673 Y-2.398
G1 X-7.752 Y-2.169
G1 X-7.808 Y-2.064
G1 X-7.846 Y-2.015
G1 X-7.940 Y-1.940
G1 X-8.154 Y-1.835
G1 X-8.380 Y-1.767
G1 X-8.748 Y-1.741
G1 X-9.098 Y-1.782
G1 X-9.289 Y-1.831
G1 X-9.462 Y-1.898
G1 X-9.756 Y-2.068
G1 X-9.925 Y-2.222
G1 X-9.996 Y-2.312
G1 X-10.011 Y-2.368
G1 X-9.929 Y-2.707
G1 X-9.929 Y-2.707
G1 X-9.868 Y-2.812
G1 X-9.805 Y-2.872
G0 X-9.778 Y-2.880
G0 X-9.620 Y-2.850
G0 X-7.977 Y-2.335
G1 X-7.944 Y-2.323
G1 X-7.846 Y-2.289
G1 X-7.801 Y-2.248
G1 X-7.767 Y-2.165
G1 X-7.771 Y-2.049
G1 X-7.771 Y-2.049
G1 X-7.827 Y-1.872
G1 X-7.917 Y-1.714
G1 X-8.060 Y-1.605
G1 X-8.218 Y-1.519
G1 X-8.387 Y-1.459
G1 X-8.756 Y-1.406
G1 X-9.124 Y-1.429
G1 X-9.320 Y-1.470
G1 X-9.489 Y-1.523
G1 X-9.695 Y-1.617
G1 X-9.891 Y-1.744
G1 X-10.056 Y-1.902
G1 X-10.079 Y-1.955
G1 X-10.041 Y-2.237
G1 X-10.041 Y-2.237
G1 X-9.996 Y-2.350
G1 X-9.936 Y-2.410
G0 X-9.910 Y-2.421
G0 X-9.748 Y-2.406
G0 X-8.056 Y-2.030
G1 X-8.019 Y-2.023
G1 X-7.921 Y-1.992
G1 X-7.876 Y-1.955
G1 X-7.838 Y-1.872
G1 X-7.835 Y-1.756
G1 X-7.835 Y-1.756
G1 X-7.910 Y-1.519
G1 X-7.970 Y-1.417
G1 X-8.165 Y-1.282
G1 X-8.383 Y-1.192
G1 X-8.801 Y-1.098
G1 X-9.169 Y-1.098
G1 X-9.406 Y-1.139
G1 X-9.575 Y-1.195
G1 X-9.782 Y-1.286
G1 X-10.019 Y-1.451
G1 X-10.102 Y-1.530
G1 X-10.128 Y-1.579
G1 X-10.143 Y-1.635
G1 X-10.094 Y-1.917
G1 X-10.094 Y-1.917
G1 X-10.049 Y-2.030
G1 X-9.989 Y-2.090
G0 X-9.962 Y-2.102
G0 X-9.805 Y-2.086
G0 X-8.120 Y-1.726
G1 X-8.083 Y-1.718
G1 X-7.981 Y-1.692
G1 X-7.932 Y-1.647
G1 X-7.895 Y-1.553
G1 X-7.887 Y-1.462
G1 X-7.887 Y-1.462
G1 X-7.932 Y-1.286
G1 X-7.985 Y-1.177
G1 X-8.023 Y-1.128
G1 X-8.169 Y-1.019
G1 X-8.383 Y-0.914
G1 X-8.496 Y-0.876
G1 X-8.857 Y-0.786
G1 X-9.226 Y-0.778
G1 X-9.462 Y-0.812
G1 X-9.639 Y-0.861
G1 X-9.865 Y-0.959
G1 X-10.094 Y-1.132
G1 X-10.169 Y-1.214
G1 X-10.192 Y-1.267
G1 X-10.195 Y-1.323
G1 X-10.188 Y-1.380
G1 X-10.188 Y-1.380
G1 X-10.143 Y-1.492
G1 X-10.083 Y-1.556
G0 X-10.056 Y-1.568
G0 X-9.891 Y-1.571
G0 X-8.154 Y-1.462
G1 X-8.117 Y-1.462
G1 X-8.015 Y-1.447
G1 X-7.966 Y-1.410
G1 X-7.929 Y-1.316
G1 X-7.921 Y-1.226
G1 X-7.921 Y-1.226
G1 X-7.977 Y-0.989
G1 X-8.034 Y-0.880
G1 X-8.071 Y-0.835
G1 X-8.263 Y-0.692
G1 X-8.474 Y-0.590
G1 X-8.887 Y-0.470
G1 X-9.256 Y-0.447
G1 X-9.485 Y-0.477
G1 X-9.654 Y-0.519
G1 X-9.880 Y-0.609
G1 X-10.026 Y-0.703
G1 X-10.195 Y-0.857
G1 X-10.222 Y-0.910
G1 X-10.233 Y-0.966
G1 X-10.211 Y-1.248
G1 X-10.211 Y-1.248
G1 X-10.147 Y-1.387
G1 X-10.105 Y-1.429
G0 X-10.083 Y-1.440
G0 X-9.921 Y-1.436
G0 X-8.195 Y-1.180
G1 X-8.158 Y-1.177
G1 X-8.056 Y-1.154
G1 X-8.008 Y-1.113
G1 X-7.970 Y-1.019
G1 X-7.962 Y-0.929
G1 X-7.962 Y-0.929
G1 X-8.023 Y-0.692
G1 X-8.083 Y-0.586
G1 X-8.312 Y-0.398
G1 X-8.523 Y-0.289
G1 X-8.872 Y-0.169
G1 X-9.241 Y-0.128
G1 X-9.470 Y-0.143
G1 X-9.632 Y-0.177
G1 X-9.850 Y-0.252
G1 X-10.094 Y-0.402
G1 X-10.218 Y-0.519
G1 X-10.244 Y-0.571
G1 X-10.252 Y-0.628
G1 X-10.241 Y-0.853
G1 X-10.241 Y-0.853
G1 X-10.207 Y-0.970
G1 X-10.158 Y-1.038
G0 X-10.132 Y-1.053
G0 X-9.974 Y-1.060
G0 X-8.244 Y-0.925
G1 X-8.207 Y-0.921
G1 X-8.102 Y-0.902
G1 X-8.045 Y-0.861
G1 X-8.000 Y-0.774
G1 X-7.989 Y-0.688
G1 X-7.989 Y-0.688
G1 X-8.030 Y-0.447
G1 X-8.075 Y-0.338
G1 X-8.109 Y-0.289
G1 X-8.289 Y-0.132
G1 X-8.492 Y-0.011
G1 X-8.891 Y0.139
G1 X-9.259 Y0.188
G1 X-9.474 Y0.177
G1 X-9.635 Y0.147
G1 X-9.865 Y0.075
G1 X-10.068 Y-0.041
G1 X-10.199 Y-0.150
G1 X-10.237 Y-0.192
G1 X-10.263 Y-0.244
G1 X-10.256 Y-0.526
G1 X-10.256 Y-0.526
G1 X-10.222 Y-0.643
G1 X-10.173 Y-0.711
G0 X-10.147 Y-0.726
G0 X-9.989 Y-0.733
G0 X-8.263 Y-0.624
G1 X-8.226 Y-0.624
G1 X-8.120 Y-0.602
G1 X-8.064 Y-0.564
G1 X-8.019 Y-0.477
G1 X-8.008 Y-0.391
G1 X-8.008 Y-0.391
G1 X-8.049 Y-0.150
G1 X-8.098 Y-0.038
G1 X-8.256 Y0.128
G1 X-8.489 Y0.293
G1 X-8.887 Y0.451
G1 X-9.252 Y0.508
G1 X-9.451 Y0.504
G1 X-9.620 Y0.481
G1 X-9.816 Y0.429
G1 X-10.075 Y0.297
G1 X-10.214 Y0.184
G1 X-10.248 Y0.135
G1 X-10.271 Y0.079
G1 X-10.274 Y-0.207
G1 X-10.274 Y-0.207
G1 X-10.241 Y-0.323
G1 X-10.192 Y-0.391
G0 X-10.165 Y-0.406
G0 X-10.008 Y-0.417
G0 X-8.293 Y-0.320
G1 X-8.256 Y-0.320
G1 X-8.154 Y-0.305
G1 X-8.102 Y-0.274
G1 X-8.049 Y-0.203
G1 X-8.023 Y-0.090
G1 X-8.023 Y-0.090
G1 X-8.049 Y0.139
G1 X-8.086 Y0.248
G1 X-8.241 Y0.421
G1 X-8.523 Y0.617
G1 X-8.861 Y0.763
G1 X-9.226 Y0.831
G1 X-9.410 Y0.831
G1 X-9.571 Y0.820
G1 X-9.782 Y0.774
G1 X-10.049 Y0.650
G1 X-10.192 Y0.541
G1 X-10.233 Y0.500
G1 X-10.263 Y0.447
G1 X-10.274 Y0.147
G1 X-10.274 Y0.147
G1 X-10.248 Y0.019
G1 X-10.199 Y-0.049
G0 X-10.177 Y-0.064
G0 X-10.019 Y-0.083
G0 X-8.289 Y-0.083
G1 X-8.252 Y-0.083
G1 X-8.150 Y-0.071
G1 X-8.098 Y-0.045
G1 X-8.045 Y0.023
G1 X-8.019 Y0.147
G1 X-8.019 Y0.147
G1 X-8.030 Y0.372
G1 X-8.056 Y0.485
G1 X-8.079 Y0.538
G1 X-8.229 Y0.718
G1 X-8.406 Y0.861
G1 X-8.504 Y0.921
G1 X-8.838 Y1.079
G1 X-9.199 Y1.154
G1 X-9.383 Y1.162
G1 X-9.549 Y1.147
G1 X-9.741 Y1.109
G1 X-10.015 Y0.992
G1 X-10.207 Y0.853
G1 X-10.237 Y0.801
G1 X-10.267 Y0.500
G1 X-10.267 Y0.500
G1 X-10.248 Y0.372
G1 X-10.207 Y0.293
G0 X-10.184 Y0.274
G0 X-10.071 Y0.252
G0 X-8.282 Y0.211
G1 X-8.244 Y0.211
G1 X-8.143 Y0.218
G1 X-8.090 Y0.248
G1 X-8.038 Y0.323
G1 X-8.011 Y0.447
G1 X-8.011 Y0.447
G1 X-8.011 Y0.673
G1 X-8.034 Y0.786
G1 X-8.056 Y0.838
G1 X-8.289 Y1.094
G1 X-8.432 Y1.199
G1 X-8.763 Y1.368
G1 X-9.117 Y1.466
G1 X-9.320 Y1.485
G1 X-9.481 Y1.481
G1 X-9.673 Y1.455
G1 X-9.910 Y1.387
G1 X-10.113 Y1.271
G1 X-10.158 Y1.233
G1 X-10.195 Y1.184
G1 X-10.222 Y1.132
