(Exported by FreeCAD)
(Post Processor: grbl_post)
(Output Time:2023-08-04 18:00:47.827271)
(Begin preamble)
G17 G90
G21
(Block-name: G54)
(Block-expand: 0)
(Block-enable: 1)
(Begin operation: G54)
(Path: G54)
G54
G0 Z5.000
(Finish operation: G54)
(Block-name: 3mm Endmill001)
(Block-expand: 0)
(Block-enable: 1)
(Begin operation: 3mm Endmill001)
(Path: 3mm Endmill001)
(3mm Endmill001)
(Begin toolchange)
( M6 T2 )
(Finish operation: 3mm Endmill001)
(Block-name: Adaptive002)
(Block-expand: 0)
(Block-enable: 1)
(Begin operation: Adaptive002)
(Path: Adaptive002)
(Adaptive002)
(Helix to depth: -3.000000)
G0 Z5.000
G0 X10.770 Y2.101 Z5.000
G0 X10.770 Y2.101 Z3.000
G1 X10.770 Y2.101 Z0.000
G1 X10.770 Y2.101 Z0.000
G1 X10.604 Y2.342 Z-0.026
G1 X10.394 Y2.545 Z-0.052
G1 X10.149 Y2.704 Z-0.077
G1 X9.878 Y2.812 Z-0.103
G1 X9.591 Y2.865 Z-0.129
G1 X9.298 Y2.860 Z-0.155
G1 X9.013 Y2.799 Z-0.180
G1 X8.745 Y2.683 Z-0.206
G1 X8.504 Y2.518 Z-0.232
G1 X8.301 Y2.308 Z-0.258
G1 X8.142 Y2.063 Z-0.283
G1 X8.034 Y1.791 Z-0.309
G1 X7.981 Y1.504 Z-0.335
G1 X7.986 Y1.212 Z-0.361
G1 X8.047 Y0.926 Z-0.387
G1 X8.163 Y0.658 Z-0.412
G1 X8.328 Y0.418 Z-0.438
G1 X8.538 Y0.214 Z-0.464
G1 X8.783 Y0.056 Z-0.490
G1 X9.055 Y-0.052 Z-0.515
G1 X9.342 Y-0.105 Z-0.541
G1 X9.634 Y-0.101 Z-0.567
G1 X9.919 Y-0.040 Z-0.593
G1 X10.188 Y0.076 Z-0.618
G1 X10.428 Y0.242 Z-0.644
G1 X10.632 Y0.451 Z-0.670
G1 X10.790 Y0.697 Z-0.696
G1 X10.898 Y0.968 Z-0.721
G1 X10.951 Y1.255 Z-0.747
G1 X10.947 Y1.547 Z-0.773
G1 X10.886 Y1.833 Z-0.799
G1 X10.770 Y2.101 Z-0.825
G1 X10.604 Y2.342 Z-0.850
G1 X10.394 Y2.545 Z-0.876
G1 X10.149 Y2.704 Z-0.902
G1 X9.878 Y2.812 Z-0.928
G1 X9.591 Y2.865 Z-0.953
G1 X9.298 Y2.860 Z-0.979
G1 X9.013 Y2.799 Z-1.005
G1 X8.745 Y2.683 Z-1.031
G1 X8.504 Y2.518 Z-1.056
G1 X8.301 Y2.308 Z-1.082
G1 X8.142 Y2.063 Z-1.108
G1 X8.034 Y1.791 Z-1.134
G1 X7.981 Y1.504 Z-1.160
G1 X7.986 Y1.212 Z-1.185
G1 X8.047 Y0.926 Z-1.211
G1 X8.163 Y0.658 Z-1.237
G1 X8.328 Y0.418 Z-1.263
G1 X8.538 Y0.214 Z-1.288
G1 X8.783 Y0.056 Z-1.314
G1 X9.055 Y-0.052 Z-1.340
G1 X9.342 Y-0.105 Z-1.366
G1 X9.634 Y-0.101 Z-1.391
G1 X9.919 Y-0.040 Z-1.417
G1 X10.188 Y0.076 Z-1.443
G1 X10.428 Y0.242 Z-1.469
G1 X10.632 Y0.451 Z-1.495
G1 X10.790 Y0.697 Z-1.520
G1 X10.898 Y0.968 Z-1.546
G1 X10.951 Y1.255 Z-1.572
G1 X10.947 Y1.547 Z-1.598
G1 X10.886 Y1.833 Z-1.623
G1 X10.770 Y2.101 Z-1.649
G1 X10.604 Y2.342 Z-1.675
G1 X10.394 Y2.545 Z-1.701
G1 X10.149 Y2.704 Z-1.726
G1 X9.878 Y2.812 Z-1.752
G1 X9.591 Y2.865 Z-1.778
G1 X9.298 Y2.860 Z-1.804
G1 X9.013 Y2.799 Z-1.829
G1 X8.745 Y2.683 Z-1.855
G1 X8.504 Y2.518 Z-1.881
G1 X8.301 Y2.308 Z-1.907
G1 X8.142 Y2.063 Z-1.933
G1 X8.034 Y1.791 Z-1.958
G1 X7.981 Y1.504 Z-1.984
G1 X7.986 Y1.212 Z-2.010
G1 X8.047 Y0.926 Z-2.036
G1 X8.163 Y0.658 Z-2.061
G1 X8.328 Y0.418 Z-2.087
G1 X8.538 Y0.214 Z-2.113
G1 X8.783 Y0.056 Z-2.139
G1 X9.055 Y-0.052 Z-2.164
G1 X9.342 Y-0.105 Z-2.190
G1 X9.634 Y-0.101 Z-2.216
G1 X9.919 Y-0.040 Z-2.242
G1 X10.188 Y0.076 Z-2.268
G1 X10.428 Y0.242 Z-2.293
G1 X10.632 Y0.451 Z-2.319
G1 X10.790 Y0.697 Z-2.345
G1 X10.898 Y0.968 Z-2.371
G1 X10.951 Y1.255 Z-2.396
G1 X10.947 Y1.547 Z-2.422
G1 X10.886 Y1.833 Z-2.448
G1 X10.770 Y2.101 Z-2.474
G1 X10.604 Y2.342 Z-2.499
G1 X10.394 Y2.545 Z-2.525
G1 X10.149 Y2.704 Z-2.551
G1 X9.878 Y2.812 Z-2.577
G1 X9.591 Y2.865 Z-2.603
G1 X9.298 Y2.860 Z-2.628
G1 X9.013 Y2.799 Z-2.654
G1 X8.745 Y2.683 Z-2.680
G1 X8.504 Y2.518 Z-2.706
G1 X8.301 Y2.308 Z-2.731
G1 X8.142 Y2.063 Z-2.757
G1 X8.034 Y1.791 Z-2.783
G1 X7.981 Y1.504 Z-2.809
G1 X7.986 Y1.212 Z-2.834
G1 X8.047 Y0.926 Z-2.860
G1 X8.163 Y0.658 Z-2.886
G1 X8.328 Y0.418 Z-2.912
G1 X8.538 Y0.214 Z-2.937
G1 X8.783 Y0.056 Z-2.963
G1 X9.055 Y-0.052 Z-2.989
G1 X9.342 Y-0.105 Z-3.000
G1 X9.634 Y-0.101 Z-3.000
G1 X9.919 Y-0.040 Z-3.000
G1 X10.188 Y0.076 Z-3.000
G1 X10.428 Y0.242 Z-3.000
G1 X10.632 Y0.451 Z-3.000
G1 X10.790 Y0.697 Z-3.000
G1 X10.898 Y0.968 Z-3.000
G1 X10.951 Y1.255 Z-3.000
G1 X10.947 Y1.547 Z-3.000
G1 X10.886 Y1.833 Z-3.000
G1 X10.770 Y2.101 Z-3.000
G1 X10.604 Y2.342 Z-3.000
G1 X10.394 Y2.545 Z-3.000
G1 X10.149 Y2.704 Z-3.000
G1 X9.878 Y2.812 Z-3.000
G1 X9.591 Y2.865 Z-3.000
G1 X9.298 Y2.860 Z-3.000
G1 X9.013 Y2.799 Z-3.000
G1 X8.745 Y2.683 Z-3.000
G1 X8.504 Y2.518 Z-3.000
G1 X8.301 Y2.308 Z-3.000
G1 X8.142 Y2.063 Z-3.000
G1 X8.034 Y1.791 Z-3.000
G1 X7.981 Y1.504 Z-3.000
G1 X7.986 Y1.212 Z-3.000
G1 X8.047 Y0.926 Z-3.000
G1 X8.163 Y0.658 Z-3.000
G1 X8.328 Y0.418 Z-3.000
G1 X8.538 Y0.214 Z-3.000
G1 X8.783 Y0.056 Z-3.000
G1 X9.055 Y-0.052 Z-3.000
(Adaptive - depth: -3.000000)
G1 X9.466 Y-0.117
G1 X9.508 Y-0.162
G1 X9.613 Y-0.207
G1 X9.838 Y-0.241
G1 X9.951 Y-0.233
G1 X10.312 Y-0.150
G1 X10.541 Y-0.030
G1 X10.741 Y0.139
G1 X10.955 Y0.410
G1 X11.015 Y0.508
G1 X11.060 Y0.673
G1 X11.056 Y1.857
G1 X11.049 Y1.914
G1 X10.887 Y2.158
G1 X10.680 Y2.583
G1 X10.609 Y2.677
G1 X10.376 Y2.868
G1 X10.105 Y3.015
G1 X9.756 Y3.143
G1 X9.383 Y3.184
G1 X9.199 Y3.173
G1 X9.041 Y3.143
G1 X8.861 Y3.094
G1 X8.598 Y2.985
G1 X8.372 Y2.842
G1 X8.211 Y2.711
G1 X8.064 Y2.556
G1 X7.835 Y2.214
G1 X7.759 Y2.045
G1 X7.744 Y1.925
G1 X7.759 Y1.865
G1 X7.759 Y1.865
G1 X7.808 Y1.748
G1 X7.846 Y1.695
G1 X7.865 Y1.669
G0 X7.880 Y1.639
G0 X7.895 Y1.609
G1 X7.906 Y1.575
G1 X7.925 Y1.474
G1 X7.891 Y1.207
G1 X7.891 Y1.207
G1 X7.989 Y0.485
G1 X8.045 Y0.308
G1 X8.071 Y0.256
G1 X8.353 Y-0.045
G1 X8.489 Y-0.150
G1 X8.805 Y-0.342
G1 X9.143 Y-0.489
G1 X9.421 Y-0.560
G1 X9.647 Y-0.579
G1 X10.015 Y-0.571
G1 X10.376 Y-0.481
G1 X10.549 Y-0.398
G1 X10.677 Y-0.323
G1 X10.906 Y-0.124
G1 X11.026 Y0.011
G1 X11.049 Y0.064
G1 X11.060 Y0.120
G1 X11.060 Y0.571
G1 X11.060 Y0.571
G1 X11.030 Y0.688
G1 X10.977 Y0.759
G0 X10.955 Y0.774
G0 X10.842 Y0.786
G0 X8.233 Y0.609
G1 X8.195 Y0.609
G1 X8.090 Y0.594
G1 X8.041 Y0.564
G1 X7.996 Y0.489
G1 X7.981 Y0.372
G1 X7.981 Y0.372
G1 X8.023 Y0.071
G1 X8.079 Y-0.098
G1 X8.218 Y-0.282
G1 X8.474 Y-0.511
G1 X8.786 Y-0.711
G1 X9.128 Y-0.850
G1 X9.357 Y-0.906
G1 X9.568 Y-0.932
G1 X9.782 Y-0.940
G1 X10.060 Y-0.921
G1 X10.353 Y-0.853
G1 X10.564 Y-0.774
G1 X10.756 Y-0.677
G1 X10.944 Y-0.523
G1 X11.026 Y-0.432
G1 X11.053 Y-0.376
G1 X11.060 Y-0.256
G1 X11.060 Y-0.256
G1 X11.030 Y-0.128
G1 X10.977 Y-0.049
G0 X10.955 Y-0.034
G0 X10.842 Y-0.004
G0 X8.259 Y0.222
G1 X8.222 Y0.226
G1 X8.147 Y0.226
G1 X8.083 Y0.207
G1 X8.038 Y0.158
G1 X8.000 Y0.015
G1 X8.000 Y0.015
G1 X8.015 Y-0.267
G1 X8.041 Y-0.380
G1 X8.162 Y-0.575
G1 X8.398 Y-0.823
G1 X8.444 Y-0.861
G1 X8.752 Y-1.064
G1 X9.094 Y-1.207
G1 X9.305 Y-1.259
G1 X9.496 Y-1.289
G1 X9.741 Y-1.308
G1 X10.049 Y-1.297
G1 X10.335 Y-1.237
G1 X10.541 Y-1.169
G1 X10.752 Y-1.071
G1 X10.985 Y-0.880
G1 X11.026 Y-0.835
G1 X11.053 Y-0.778
G1 X11.060 Y-0.658
G1 X11.060 Y-0.658
G1 X11.030 Y-0.530
G1 X10.977 Y-0.451
G0 X10.955 Y-0.432
G0 X10.842 Y-0.402
G0 X8.267 Y-0.128
G1 X8.229 Y-0.124
G1 X8.124 Y-0.120
G1 X8.068 Y-0.143
G1 X8.015 Y-0.218
G1 X7.989 Y-0.342
G1 X7.989 Y-0.342
G1 X7.985 Y-0.568
G1 X8.019 Y-0.737
G1 X8.177 Y-0.977
G1 X8.421 Y-1.218
G1 X8.729 Y-1.425
G1 X9.068 Y-1.571
G1 X9.282 Y-1.628
G1 X9.474 Y-1.662
G1 X9.726 Y-1.684
G1 X10.030 Y-1.677
G1 X10.320 Y-1.624
G1 X10.538 Y-1.553
G1 X10.744 Y-1.462
G1 X10.891 Y-1.361
G1 X11.023 Y-1.233
G1 X11.049 Y-1.180
G1 X11.060 Y-1.120
G1 X11.060 Y-1.120
G1 X11.030 Y-0.992
G1 X10.977 Y-0.914
G0 X10.955 Y-0.895
G0 X10.846 Y-0.861
G0 X8.252 Y-0.440
G1 X8.214 Y-0.436
G1 X8.109 Y-0.429
G1 X8.053 Y-0.447
G1 X7.996 Y-0.519
G1 X7.959 Y-0.639
G1 X7.959 Y-0.639
G1 X7.955 Y-0.921
G1 X7.989 Y-1.090
G1 X8.143 Y-1.335
G1 X8.301 Y-1.504
G1 X8.647 Y-1.759
G1 X8.981 Y-1.914
G1 X9.192 Y-1.977
G1 X9.391 Y-2.023
G1 X9.650 Y-2.053
G1 X9.951 Y-2.056
G1 X10.241 Y-2.030
G1 X10.515 Y-1.951
G1 X10.778 Y-1.816
G1 X10.966 Y-1.669
G1 X11.008 Y-1.628
G1 X11.060 Y-1.519
G1 X11.060 Y-1.459
G1 X11.060 Y-1.459
G1 X11.030 Y-1.331
G1 X10.977 Y-1.252
G0 X10.955 Y-1.233
G0 X10.846 Y-1.199
G0 X8.214 Y-0.797
G1 X8.177 Y-0.789
G1 X8.071 Y-0.786
G1 X8.015 Y-0.808
G1 X7.959 Y-0.880
G1 X7.925 Y-1.000
G1 X7.925 Y-1.000
G1 X7.906 Y-1.282
G1 X7.925 Y-1.395
G1 X8.026 Y-1.594
G1 X8.256 Y-1.857
G1 X8.553 Y-2.079
G1 X8.880 Y-2.252
G1 X9.120 Y-2.335
G1 X9.320 Y-2.387
G1 X9.586 Y-2.429
G1 X9.880 Y-2.444
G1 X10.169 Y-2.417
G1 X10.398 Y-2.365
G1 X10.823 Y-2.154
G1 X10.992 Y-1.981
G1 X11.060 Y-1.883
G1 X11.060 Y-1.583
G1 X11.060 Y-1.583
G1 X11.030 Y-1.455
G1 X10.977 Y-1.376
G0 X10.955 Y-1.361
G0 X10.842 Y-1.335
G0 X8.180 Y-1.139
G1 X8.143 Y-1.139
G1 X8.034 Y-1.139
G1 X7.977 Y-1.165
G1 X7.917 Y-1.233
G1 X7.872 Y-1.353
G1 X7.872 Y-1.353
G1 X7.846 Y-1.635
G1 X7.850 Y-1.692
G1 X7.865 Y-1.748
G1 X8.049 Y-2.038
G1 X8.203 Y-2.211
G1 X8.492 Y-2.440
G1 X8.820 Y-2.617
G1 X9.026 Y-2.695
G1 X9.222 Y-2.756
G1 X9.496 Y-2.805
G1 X9.789 Y-2.823
G1 X10.068 Y-2.805
G1 X10.308 Y-2.767
G1 X10.586 Y-2.665
G1 X10.692 Y-2.613
G1 X10.733 Y-2.568
G1 X10.789 Y-2.391
G1 X10.789 Y-2.391
G1 X10.812 Y-2.263
G1 X10.805 Y-2.203
G1 X10.793 Y-2.177
G0 X10.778 Y-2.158
G0 X10.677 Y-2.109
G0 X8.135 Y-1.481
G1 X8.098 Y-1.474
G1 X7.992 Y-1.455
G1 X7.936 Y-1.474
G1 X7.868 Y-1.534
G1 X7.808 Y-1.647
G1 X7.808 Y-1.647
G1 X7.774 Y-1.929
G1 X7.789 Y-2.041
G1 X7.857 Y-2.199
G1 X8.060 Y-2.481
G1 X8.098 Y-2.523
G1 X8.376 Y-2.767
G1 X8.692 Y-2.955
G1 X8.895 Y-3.041
G1 X9.086 Y-3.102
G1 X9.331 Y-3.158
G1 X9.635 Y-3.199
G1 X9.959 Y-3.203
G1 X10.305 Y-3.143
G1 X10.526 Y-3.053
G1 X10.575 Y-3.019
G1 X10.617 Y-2.974
G1 X10.662 Y-2.865
G1 X10.726 Y-2.624
G1 X10.726 Y-2.624
G1 X10.729 Y-2.496
G1 X10.703 Y-2.410
G0 X10.684 Y-2.387
G0 X10.579 Y-2.346
G0 X8.064 Y-1.771
G1 X8.026 Y-1.763
G1 X7.921 Y-1.748
G1 X7.865 Y-1.763
G1 X7.797 Y-1.827
G1 X7.737 Y-1.940
G1 X7.737 Y-1.940
G1 X7.684 Y-2.278
G1 X7.688 Y-2.335
G1 X7.805 Y-2.598
G1 X7.977 Y-2.831
G1 X8.244 Y-3.086
G1 X8.556 Y-3.286
G1 X8.759 Y-3.383
G1 X8.955 Y-3.459
G1 X9.211 Y-3.530
G1 X9.519 Y-3.579
G1 X9.812 Y-3.586
G1 X10.113 Y-3.553
G1 X10.391 Y-3.455
G1 X10.444 Y-3.429
G1 X10.485 Y-3.383
G1 X10.624 Y-2.985
G1 X10.624 Y-2.985
G1 X10.635 Y-2.857
G1 X10.613 Y-2.767
G0 X10.594 Y-2.748
G0 X10.492 Y-2.699
G0 X8.000 Y-2.079
G1 X7.962 Y-2.071
G1 X7.857 Y-2.053
G1 X7.797 Y-2.064
G1 X7.726 Y-2.120
G1 X7.658 Y-2.229
G1 X7.658 Y-2.229
G1 X7.598 Y-2.455
G1 X7.586 Y-2.568
G1 X7.602 Y-2.680
G1 X7.718 Y-2.944
G1 X7.850 Y-3.132
G1 X8.105 Y-3.398
G1 X8.406 Y-3.613
G1 X8.609 Y-3.722
G1 X8.801 Y-3.805
G1 X9.053 Y-3.883
G1 X9.338 Y-3.940
G1 X9.624 Y-3.966
G1 X9.906 Y-3.955
G1 X10.188 Y-3.883
G1 X10.297 Y-3.835
G1 X10.342 Y-3.793
G1 X10.372 Y-3.741
G1 X10.466 Y-3.455
G1 X10.466 Y-3.455
G1 X10.477 Y-3.327
G1 X10.455 Y-3.237
G0 X10.436 Y-3.214
G0 X10.338 Y-3.162
G0 X7.898 Y-2.376
G1 X7.861 Y-2.365
G1 X7.756 Y-2.338
G1 X7.699 Y-2.350
G1 X7.628 Y-2.402
G1 X7.560 Y-2.511
G1 X7.560 Y-2.511
G1 X7.481 Y-2.793
G1 X7.470 Y-2.906
G1 X7.485 Y-3.019
G1 X7.598 Y-3.278
G1 X7.729 Y-3.470
G1 X7.981 Y-3.737
G1 X8.278 Y-3.959
G1 X8.485 Y-4.071
G1 X8.673 Y-4.158
G1 X8.925 Y-4.244
G1 X9.226 Y-4.312
G1 X9.526 Y-4.338
G1 X9.831 Y-4.323
G1 X10.056 Y-4.263
G1 X10.165 Y-4.214
G1 X10.207 Y-4.173
G1 X10.237 Y-4.120
G1 X10.342 Y-3.838
G1 X10.342 Y-3.838
G1 X10.353 Y-3.711
G1 X10.331 Y-3.620
G0 X10.316 Y-3.598
G0 X10.214 Y-3.545
G0 X7.789 Y-2.726
G1 X7.752 Y-2.714
G1 X7.647 Y-2.688
G1 X7.590 Y-2.695
G1 X7.515 Y-2.748
G1 X7.440 Y-2.850
G1 X7.440 Y-2.850
G1 X7.365 Y-3.075
G1 X7.342 Y-3.244
G1 X7.346 Y-3.301
G1 X7.421 Y-3.515
G1 X7.602 Y-3.808
G1 X7.850 Y-4.083
G1 X8.143 Y-4.308
G1 X8.350 Y-4.432
G1 X8.553 Y-4.523
G1 X8.767 Y-4.602
G1 X9.083 Y-4.680
G1 X9.402 Y-4.722
G1 X9.684 Y-4.711
G1 X9.910 Y-4.654
G1 X9.966 Y-4.632
G1 X10.011 Y-4.594
G1 X10.049 Y-4.545
G1 X10.199 Y-4.211
G1 X10.199 Y-4.211
G1 X10.218 Y-4.083
G1 X10.203 Y-3.996
G0 X10.184 Y-3.974
G0 X10.086 Y-3.917
G0 X7.658 Y-3.068
G1 X7.620 Y-3.053
G1 X7.515 Y-3.026
G1 X7.455 Y-3.034
G1 X7.380 Y-3.083
G1 X7.305 Y-3.184
G1 X7.305 Y-3.184
G1 X7.229 Y-3.406
G1 X7.211 Y-3.519
G1 X7.211 Y-3.575
G1 X7.301 Y-3.850
G1 X7.444 Y-4.102
G1 X7.680 Y-4.387
G1 X7.962 Y-4.628
G1 X8.162 Y-4.756
G1 X8.342 Y-4.853
G1 X8.590 Y-4.955
G1 X8.883 Y-5.041
G1 X9.184 Y-5.090
G1 X9.436 Y-5.098
G1 X9.718 Y-5.045
G1 X9.774 Y-5.026
G1 X9.823 Y-4.989
G1 X10.019 Y-4.613
G1 X10.019 Y-4.613
G1 X10.045 Y-4.485
G1 X10.034 Y-4.398
G0 X10.019 Y-4.376
G0 X9.925 Y-4.316
G0 X7.530 Y-3.350
G1 X7.492 Y-3.335
G1 X7.391 Y-3.301
G1 X7.331 Y-3.308
G1 X7.256 Y-3.357
G1 X7.180 Y-3.459
G1 X7.180 Y-3.459
G1 X7.079 Y-3.737
G1 X7.064 Y-3.850
G1 X7.120 Y-4.075
G1 X7.263 Y-4.387
G1 X7.489 Y-4.680
G1 X7.759 Y-4.932
G1 X7.940 Y-5.064
G1 X8.120 Y-5.169
G1 X8.350 Y-5.278
G1 X8.643 Y-5.383
G1 X8.951 Y-5.455
G1 X9.241 Y-5.474
G1 X9.466 Y-5.447
G1 X9.575 Y-5.410
G1 X9.624 Y-5.376
G1 X9.823 Y-5.000
G1 X9.823 Y-5.000
G1 X9.853 Y-4.842
G1 X9.842 Y-4.786
G0 X9.831 Y-4.759
G0 X9.737 Y-4.695
G0 X7.402 Y-3.635
G1 X7.365 Y-3.620
G1 X7.267 Y-3.583
G1 X7.207 Y-3.586
G1 X7.128 Y-3.628
G1 X7.045 Y-3.726
G1 X7.045 Y-3.726
G1 X6.947 Y-3.936
G1 X6.914 Y-4.049
G1 X6.906 Y-4.162
G1 X6.981 Y-4.444
G1 X7.079 Y-4.654
G1 X7.286 Y-4.959
G1 X7.545 Y-5.222
G1 X7.726 Y-5.365
G1 X7.898 Y-5.477
G1 X8.128 Y-5.602
G1 X8.436 Y-5.729
G1 X8.741 Y-5.805
G1 X8.974 Y-5.835
G1 X9.256 Y-5.812
G1 X9.312 Y-5.801
G1 X9.365 Y-5.778
G1 X9.414 Y-5.744
G1 X9.598 Y-5.432
G1 X9.598 Y-5.432
G1 X9.632 Y-5.308
G1 X9.624 Y-5.222
G0 X9.613 Y-5.195
G0 X9.523 Y-5.128
G0 X7.252 Y-3.921
G1 X7.214 Y-3.902
G1 X7.120 Y-3.857
G1 X7.060 Y-3.857
G1 X6.981 Y-3.895
G1 X6.898 Y-3.989
G1 X6.898 Y-3.989
G1 X6.771 Y-4.252
G1 X6.741 Y-4.365
G1 X6.737 Y-4.421
G1 X6.782 Y-4.647
G1 X6.883 Y-4.917
G1 X7.075 Y-5.233
G1 X7.320 Y-5.511
G1 X7.496 Y-5.662
G1 X7.658 Y-5.778
G1 X7.880 Y-5.906
G1 X8.150 Y-6.034
G1 X8.470 Y-6.143
G1 X8.763 Y-6.188
G1 X9.045 Y-6.173
G1 X9.102 Y-6.162
G1 X9.154 Y-6.132
G1 X9.195 Y-6.090
G1 X9.361 Y-5.835
G1 X9.361 Y-5.835
G1 X9.402 Y-5.711
G1 X9.402 Y-5.620
G0 X9.391 Y-5.598
G0 X9.305 Y-5.526
G0 X7.079 Y-4.241
G1 X7.041 Y-4.222
G1 X6.947 Y-4.177
G1 X6.887 Y-4.173
G1 X6.801 Y-4.207
G1 X6.711 Y-4.293
G1 X6.711 Y-4.293
G1 X6.602 Y-4.504
G1 X6.568 Y-4.617
G1 X6.564 Y-4.786
G1 X6.609 Y-5.011
G1 X6.688 Y-5.226
G1 X6.880 Y-5.541
G1 X7.120 Y-5.823
G1 X7.289 Y-5.974
G1 X7.459 Y-6.102
G1 X7.677 Y-6.241
G1 X7.974 Y-6.387
G1 X8.267 Y-6.481
G1 X8.617 Y-6.530
G1 X8.842 Y-6.519
G1 X8.944 Y-6.459
G1 X9.150 Y-6.158
G1 X9.150 Y-6.158
G1 X9.192 Y-6.034
G1 X9.192 Y-5.944
G0 X9.180 Y-5.921
G0 X9.094 Y-5.846
G0 X6.914 Y-4.504
G1 X6.876 Y-4.485
G1 X6.782 Y-4.436
G1 X6.722 Y-4.432
G1 X6.635 Y-4.462
G1 X6.545 Y-4.545
G1 X6.545 Y-4.545
G1 X6.391 Y-4.797
G1 X6.353 Y-4.910
G1 X6.346 Y-4.966
G1 X6.387 Y-5.248
G1 X6.459 Y-5.470
G1 X6.635 Y-5.797
G1 X6.861 Y-6.090
G1 X7.019 Y-6.248
G1 X7.184 Y-6.387
G1 X7.395 Y-6.534
G1 X7.665 Y-6.680
G1 X7.944 Y-6.793
G1 X8.222 Y-6.865
G1 X8.447 Y-6.880
G1 X8.560 Y-6.872
G1 X8.617 Y-6.853
G1 X8.665 Y-6.823
G1 X8.883 Y-6.538
G1 X8.883 Y-6.538
G1 X8.932 Y-6.421
G1 X8.932 Y-6.331
G0 X8.921 Y-6.308
G0 X8.842 Y-6.229
G0 X6.695 Y-4.801
G1 X6.662 Y-4.778
G1 X6.571 Y-4.729
G1 X6.511 Y-4.722
G1 X6.425 Y-4.752
G1 X6.335 Y-4.835
G1 X6.335 Y-4.835
G1 X6.207 Y-5.034
G1 X6.165 Y-5.143
G1 X6.150 Y-5.312
G1 X6.214 Y-5.650
G1 X6.233 Y-5.707
G1 X6.387 Y-6.041
G1 X6.598 Y-6.342
G1 X6.752 Y-6.511
G1 X6.902 Y-6.654
G1 X7.113 Y-6.816
G1 X7.376 Y-6.977
G1 X7.650 Y-7.105
G1 X7.929 Y-7.184
G1 X8.267 Y-7.211
G1 X8.323 Y-7.195
G1 X8.376 Y-7.169
G1 X8.609 Y-6.891
G1 X8.609 Y-6.891
G1 X8.665 Y-6.774
G1 X8.673 Y-6.684
G0 X8.662 Y-6.658
G0 X8.583 Y-6.579
G0 X6.511 Y-5.060
G1 X6.477 Y-5.038
G1 X6.387 Y-4.981
G1 X6.331 Y-4.970
G1 X6.244 Y-4.996
G1 X6.147 Y-5.071
G1 X6.147 Y-5.071
G1 X6.008 Y-5.267
G1 X5.959 Y-5.376
G1 X5.944 Y-5.432
G1 X5.940 Y-5.658
G1 X6.008 Y-5.996
G1 X6.158 Y-6.335
G1 X6.365 Y-6.643
G1 X6.523 Y-6.820
G1 X6.673 Y-6.962
G1 X6.876 Y-7.128
G1 X7.154 Y-7.308
G1 X7.432 Y-7.432
G1 X7.718 Y-7.511
G1 X8.000 Y-7.530
G1 X8.056 Y-7.511
G1 X8.109 Y-7.481
G1 X8.342 Y-7.211
G1 X8.342 Y-7.211
G1 X8.402 Y-7.098
G1 X8.414 Y-7.008
G0 X8.406 Y-6.981
G0 X8.331 Y-6.898
G0 X6.323 Y-5.305
G1 X6.289 Y-5.282
G1 X6.203 Y-5.222
G1 X6.143 Y-5.211
G1 X6.030 Y-5.244
G1 X5.951 Y-5.297
G1 X5.951 Y-5.297
G1 X5.771 Y-5.538
G1 X5.726 Y-5.647
G1 X5.703 Y-5.816
G1 X5.726 Y-6.098
G1 X5.748 Y-6.211
G1 X5.883 Y-6.553
G1 X6.056 Y-6.846
G1 X6.195 Y-7.026
G1 X6.338 Y-7.184
G1 X6.545 Y-7.368
G1 X6.789 Y-7.545
G1 X7.064 Y-7.692
G1 X7.293 Y-7.789
G1 X7.575 Y-7.846
G1 X7.688 Y-7.850
G1 X7.744 Y-7.831
G1 X8.045 Y-7.545
G1 X8.045 Y-7.545
G1 X8.109 Y-7.436
G1 X8.124 Y-7.346
G0 X8.120 Y-7.320
G0 X8.049 Y-7.233
G0 X6.075 Y-5.579
G1 X6.045 Y-5.556
G1 X5.959 Y-5.492
G1 X5.898 Y-5.477
G1 X5.812 Y-5.492
G1 X5.707 Y-5.560
G1 X5.707 Y-5.560
G1 X5.523 Y-5.793
G1 X5.492 Y-5.846
G1 X5.474 Y-5.902
G1 X5.455 Y-6.184
G1 X5.492 Y-6.466
G1 X5.620 Y-6.812
G1 X5.801 Y-7.135
G1 X5.951 Y-7.335
G1 X6.094 Y-7.496
G1 X6.297 Y-7.677
G1 X6.519 Y-7.846
G1 X6.786 Y-8.004
G1 X7.053 Y-8.109
G1 X7.278 Y-8.154
G1 X7.335 Y-8.158
G1 X7.391 Y-8.150
G1 X7.447 Y-8.128
G1 X7.756 Y-7.838
G1 X7.756 Y-7.838
G1 X7.827 Y-7.733
G1 X7.842 Y-7.647
G0 X7.838 Y-7.620
G0 X7.767 Y-7.530
G0 X5.857 Y-5.816
G1 X5.831 Y-5.789
G1 X5.744 Y-5.722
G1 X5.688 Y-5.703
G1 X5.602 Y-5.714
G1 X5.496 Y-5.774
G1 X5.496 Y-5.774
G1 X5.327 Y-5.947
G1 X5.263 Y-6.049
G1 X5.241 Y-6.102
G1 X5.207 Y-6.327
G1 X5.229 Y-6.665
G1 X5.335 Y-7.019
G1 X5.500 Y-7.350
G1 X5.617 Y-7.526
G1 X5.748 Y-7.688
G1 X5.917 Y-7.865
G1 X6.173 Y-8.083
G1 X6.440 Y-8.263
G1 X6.707 Y-8.387
G1 X6.989 Y-8.451
G1 X7.045 Y-8.447
G1 X7.102 Y-8.429
G1 X7.421 Y-8.154
G1 X7.421 Y-8.154
G1 X7.492 Y-8.049
G1 X7.511 Y-7.962
G0 X7.504 Y-7.936
G0 X7.440 Y-7.842
G0 X5.624 Y-6.019
G1 X5.594 Y-5.989
G1 X5.515 Y-5.921
G1 X5.459 Y-5.902
G1 X5.372 Y-5.910
G1 X5.267 Y-5.970
G1 X5.267 Y-5.970
G1 X5.056 Y-6.184
G1 X4.992 Y-6.286
G1 X4.970 Y-6.342
G1 X4.932 Y-6.624
G1 X4.947 Y-6.906
G1 X5.049 Y-7.263
G1 X5.207 Y-7.598
G1 X5.327 Y-7.786
G1 X5.455 Y-7.955
G1 X5.643 Y-8.162
G1 X5.887 Y-8.376
G1 X6.143 Y-8.545
G1 X6.361 Y-8.650
G1 X6.586 Y-8.714
G1 X6.699 Y-8.722
G1 X6.756 Y-8.707
G1 X7.086 Y-8.447
G1 X7.086 Y-8.447
G1 X7.158 Y-8.342
G1 X7.180 Y-8.259
G0 X7.177 Y-8.229
G0 X7.113 Y-8.135
G0 X5.350 Y-6.259
G1 X5.320 Y-6.229
G1 X5.244 Y-6.158
G1 X5.188 Y-6.139
G1 X5.102 Y-6.147
G1 X4.996 Y-6.207
G1 X4.996 Y-6.207
G1 X4.820 Y-6.368
G1 X4.718 Y-6.515
G1 X4.662 Y-6.797
G1 X4.665 Y-7.079
G1 X4.744 Y-7.440
G1 X4.876 Y-7.763
G1 X4.981 Y-7.959
G1 X5.105 Y-8.139
G1 X5.263 Y-8.335
G1 X5.492 Y-8.564
G1 X5.733 Y-8.756
G1 X5.985 Y-8.898
G1 X6.203 Y-8.974
G1 X6.316 Y-8.992
G1 X6.372 Y-8.985
G1 X6.429 Y-8.962
G1 X6.771 Y-8.707
G1 X6.771 Y-8.707
G1 X6.850 Y-8.605
G1 X6.876 Y-8.519
G0 X6.876 Y-8.492
G0 X6.816 Y-8.398
G0 X5.117 Y-6.462
G1 X5.086 Y-6.432
G1 X5.011 Y-6.357
G1 X4.959 Y-6.335
G1 X4.872 Y-6.338
G1 X4.759 Y-6.391
G1 X4.759 Y-6.391
G1 X4.534 Y-6.586
G1 X4.462 Y-6.680
G1 X4.406 Y-6.850
G1 X4.368 Y-7.132
G1 X4.368 Y-7.244
G1 X4.429 Y-7.609
G1 X4.553 Y-7.959
G1 X4.650 Y-8.154
G1 X4.756 Y-8.327
G1 X4.917 Y-8.541
G1 X5.135 Y-8.778
G1 X5.372 Y-8.989
G1 X5.632 Y-9.139
G1 X5.902 Y-9.233
G1 X5.959 Y-9.241
G1 X6.015 Y-9.233
G1 X6.071 Y-9.211
G1 X6.365 Y-9.008
G1 X6.365 Y-9.008
G1 X6.447 Y-8.914
G1 X6.481 Y-8.831
G0 X6.477 Y-8.805
G0 X6.425 Y-8.707
G0 X4.812 Y-6.692
G1 X4.789 Y-6.658
G1 X4.718 Y-6.583
G1 X4.665 Y-6.553
G1 X4.575 Y-6.553
G1 X4.466 Y-6.598
G1 X4.466 Y-6.598
G1 X4.237 Y-6.789
G1 X4.169 Y-6.887
G1 X4.090 Y-7.169
G1 X4.068 Y-7.451
G1 X4.124 Y-7.816
G1 X4.226 Y-8.132
G1 X4.414 Y-8.508
G1 X4.579 Y-8.756
G1 X4.801 Y-9.011
G1 X5.026 Y-9.214
G1 X5.237 Y-9.353
G1 X5.395 Y-9.429
G1 X5.564 Y-9.477
G1 X5.620 Y-9.474
G1 X5.677 Y-9.455
G1 X5.974 Y-9.267
G1 X5.974 Y-9.267
G1 X6.060 Y-9.177
G1 X6.094 Y-9.098
G0 X6.094 Y-9.068
G0 X6.049 Y-8.966
G0 X4.560 Y-6.868
G1 X4.534 Y-6.835
G1 X4.466 Y-6.756
G1 X4.417 Y-6.726
G1 X4.327 Y-6.718
G1 X4.214 Y-6.759
G1 X4.214 Y-6.759
G1 X4.019 Y-6.898
G1 X3.932 Y-6.981
G1 X3.895 Y-7.030
G1 X3.827 Y-7.195
G1 X3.763 Y-7.534
G1 X3.759 Y-7.590
G1 X3.793 Y-7.959
G1 X3.891 Y-8.316
G1 X3.974 Y-8.523
G1 X4.075 Y-8.722
G1 X4.214 Y-8.936
G1 X4.406 Y-9.177
G1 X4.624 Y-9.395
G1 X4.906 Y-9.598
G1 X5.120 Y-9.688
G1 X5.177 Y-9.699
G1 X5.233 Y-9.695
G1 X5.289 Y-9.677
G1 X5.605 Y-9.500
G1 X5.605 Y-9.500
G1 X5.692 Y-9.410
G1 X5.729 Y-9.331
G0 X5.729 Y-9.301
G0 X5.684 Y-9.195
G0 X4.289 Y-7.041
G1 X4.271 Y-7.011
G1 X4.207 Y-6.925
G1 X4.154 Y-6.891
G1 X4.068 Y-6.880
G1 X3.955 Y-6.914
G1 X3.955 Y-6.914
G1 X3.703 Y-7.079
G1 X3.617 Y-7.165
G1 X3.534 Y-7.320
G1 X3.462 Y-7.602
G1 X3.447 Y-7.714
G1 X3.462 Y-8.083
G1 X3.530 Y-8.425
G1 X3.605 Y-8.639
G1 X3.684 Y-8.827
G1 X3.820 Y-9.071
G1 X3.989 Y-9.312
G1 X4.184 Y-9.534
G1 X4.459 Y-9.752
G1 X4.714 Y-9.887
G1 X4.771 Y-9.906
G1 X4.827 Y-9.906
G1 X5.199 Y-9.726
G1 X5.199 Y-9.726
G1 X5.289 Y-9.639
G1 X5.327 Y-9.560
G0 X5.331 Y-9.534
G0 X5.289 Y-9.429
G0 X3.974 Y-7.214
G1 X3.955 Y-7.177
G1 X3.891 Y-7.090
G1 X3.842 Y-7.060
G1 X3.756 Y-7.053
G1 X3.643 Y-7.090
G1 X3.643 Y-7.090
G1 X3.429 Y-7.211
G1 X3.335 Y-7.289
G1 X3.267 Y-7.387
G1 X3.165 Y-7.665
G1 X3.120 Y-7.891
G1 X3.124 Y-8.259
G1 X3.195 Y-8.624
G1 X3.267 Y-8.838
G1 X3.350 Y-9.034
G1 X3.470 Y-9.259
G1 X3.650 Y-9.523
G1 X3.850 Y-9.756
G1 X4.120 Y-9.977
G1 X4.323 Y-10.083
G1 X4.380 Y-10.094
G1 X4.436 Y-10.094
G1 X4.707 Y-9.974
G1 X4.707 Y-9.974
G1 X4.801 Y-9.895
G1 X4.846 Y-9.816
G0 X4.850 Y-9.789
G0 X4.816 Y-9.680
G0 X3.688 Y-7.372
G1 X3.673 Y-7.338
G1 X3.620 Y-7.244
G1 X3.571 Y-7.211
G1 X3.485 Y-7.192
G1 X3.368 Y-7.214
G1 X3.368 Y-7.214
G1 X3.154 Y-7.323
G1 X3.011 Y-7.436
G1 X2.944 Y-7.534
G1 X2.835 Y-7.808
G1 X2.793 Y-7.977
G1 X2.782 Y-8.346
G1 X2.827 Y-8.692
G1 X2.880 Y-8.906
G1 X2.955 Y-9.113
G1 X3.056 Y-9.338
G1 X3.218 Y-9.620
G1 X3.414 Y-9.887
G1 X3.632 Y-10.090
G1 X3.827 Y-10.218
G1 X3.932 Y-10.267
G1 X3.989 Y-10.271
G1 X4.045 Y-10.259
G1 X4.214 Y-10.195
G1 X4.214 Y-10.195
G1 X4.312 Y-10.120
G1 X4.361 Y-10.045
G0 X4.365 Y-10.015
G0 X4.338 Y-9.906
G0 X3.353 Y-7.519
G1 X3.338 Y-7.485
G1 X3.289 Y-7.391
G1 X3.244 Y-7.353
G1 X3.158 Y-7.335
G1 X3.041 Y-7.361
G1 X3.041 Y-7.361
G1 X2.774 Y-7.504
G1 X2.684 Y-7.583
G1 X2.568 Y-7.789
G1 X2.470 Y-8.128
G1 X2.444 Y-8.496
G1 X2.481 Y-8.865
G1 X2.530 Y-9.079
G1 X2.598 Y-9.282
G1 X2.695 Y-9.515
G1 X2.853 Y-9.801
G1 X3.038 Y-10.049
G1 X3.305 Y-10.305
G1 X3.451 Y-10.398
G1 X3.504 Y-10.421
G1 X3.560 Y-10.429
G1 X3.617 Y-10.421
G1 X3.729 Y-10.380
G1 X3.729 Y-10.376
G1 X3.827 Y-10.308
G1 X3.880 Y-10.233
G0 X3.887 Y-10.207
G0 X3.868 Y-10.094
G0 X3.060 Y-7.654
G1 X3.049 Y-7.617
G1 X3.008 Y-7.519
G1 X2.962 Y-7.477
G1 X2.880 Y-7.455
G1 X2.763 Y-7.474
G1 X2.763 Y-7.474
G1 X2.538 Y-7.568
G1 X2.432 Y-7.632
G1 X2.346 Y-7.714
G1 X2.226 Y-7.917
G1 X2.132 Y-8.199
G1 X2.090 Y-8.568
G1 X2.113 Y-8.936
G1 X2.154 Y-9.165
G1 X2.211 Y-9.376
G1 X2.301 Y-9.624
G1 X2.447 Y-9.914
G1 X2.620 Y-10.162
G1 X2.823 Y-10.383
G1 X2.959 Y-10.492
G1 X3.056 Y-10.553
G1 X3.113 Y-10.568
G1 X3.169 Y-10.564
G1 X3.338 Y-10.511
G1 X3.338 Y-10.511
G1 X3.444 Y-10.447
G1 X3.500 Y-10.380
G0 X3.508 Y-10.353
G0 X3.489 Y-10.241
G0 X2.714 Y-7.793
G1 X2.699 Y-7.752
G1 X2.662 Y-7.654
G1 X2.620 Y-7.613
G1 X2.538 Y-7.583
G1 X2.421 Y-7.590
G1 X2.421 Y-7.590
G1 X2.192 Y-7.680
G1 X2.086 Y-7.744
G1 X2.041 Y-7.782
G1 X1.906 Y-7.981
G1 X1.797 Y-8.259
G1 X1.737 Y-8.624
G1 X1.741 Y-8.992
G1 X1.767 Y-9.226
G1 X1.812 Y-9.444
G1 X1.898 Y-9.703
G1 X2.011 Y-9.955
G1 X2.158 Y-10.211
G1 X2.414 Y-10.515
G1 X2.594 Y-10.658
G1 X2.647 Y-10.680
G1 X2.703 Y-10.692
G1 X2.872 Y-10.650
G1 X2.872 Y-10.650
G1 X2.981 Y-10.598
G1 X3.026 Y-10.556
G1 X3.041 Y-10.530
G0 X3.053 Y-10.508
G0 X3.041 Y-10.395
G0 X2.361 Y-7.910
G1 X2.353 Y-7.868
G1 X2.316 Y-7.771
G1 X2.278 Y-7.726
G1 X2.195 Y-7.692
G1 X2.079 Y-7.695
G1 X2.079 Y-7.695
G1 X1.846 Y-7.782
G1 X1.744 Y-7.846
G1 X1.598 Y-8.030
G1 X1.470 Y-8.301
G1 X1.451 Y-8.357
G1 X1.380 Y-8.722
G1 X1.368 Y-9.090
G1 X1.395 Y-9.327
G1 X1.432 Y-9.530
G1 X1.504 Y-9.789
G1 X1.628 Y-10.090
G1 X1.763 Y-10.346
G1 X1.981 Y-10.617
G1 X2.162 Y-10.767
G1 X2.214 Y-10.786
G1 X2.271 Y-10.793
G1 X2.271 Y-10.793
G1 X2.380 Y-10.741
G1 X2.444 Y-10.673
G0 X2.451 Y-10.647
G0 X2.451 Y-10.534
G0 X2.049 Y-7.992
G1 X2.045 Y-7.951
G1 X2.019 Y-7.850
G1 X1.981 Y-7.805
G1 X1.902 Y-7.771
G1 X1.786 Y-7.767
G1 X1.786 Y-7.767
G1 X1.549 Y-7.842
G1 X1.440 Y-7.898
G1 X1.395 Y-7.936
G1 X1.259 Y-8.135
G1 X1.143 Y-8.410
G1 X1.045 Y-8.767
G1 X1.015 Y-9.135
G1 X1.030 Y-9.395
G1 X1.068 Y-9.613
G1 X1.120 Y-9.827
G1 X1.222 Y-10.120
G1 X1.368 Y-10.414
G1 X1.519 Y-10.643
G1 X1.677 Y-10.808
G1 X1.722 Y-10.846
G1 X1.774 Y-10.868
G1 X1.831 Y-10.876
G1 X1.887 Y-10.868
G1 X1.887 Y-10.868
G1 X2.000 Y-10.823
G1 X2.060 Y-10.763
G0 X2.071 Y-10.737
G0 X2.075 Y-10.620
G0 X1.752 Y-8.053
G1 X1.744 Y-8.015
G1 X1.726 Y-7.910
G1 X1.688 Y-7.865
G1 X1.609 Y-7.831
G1 X1.492 Y-7.827
G1 X1.492 Y-7.827
G1 X1.256 Y-7.891
G1 X1.147 Y-7.947
G1 X1.026 Y-8.083
G1 X0.876 Y-8.338
G1 X0.831 Y-8.447
G1 X0.714 Y-8.801
G1 X0.665 Y-9.169
G1 X0.669 Y-9.447
G1 X0.699 Y-9.658
G1 X0.741 Y-9.853
G1 X0.827 Y-10.147
G1 X0.966 Y-10.477
G1 X1.139 Y-10.748
G1 X1.305 Y-10.906
G1 X1.414 Y-10.936
G1 X1.470 Y-10.932
G1 X1.470 Y-10.932
G1 X1.609 Y-10.868
G1 X1.650 Y-10.827
G0 X1.662 Y-10.805
G0 X1.669 Y-10.688
G0 X1.440 Y-8.113
G1 X1.440 Y-8.075
G1 X1.421 Y-7.970
G1 X1.391 Y-7.921
G1 X1.312 Y-7.883
G1 X1.195 Y-7.880
G1 X1.195 Y-7.880
G1 X1.015 Y-7.917
G1 X0.902 Y-7.962
G1 X0.850 Y-7.992
G1 X0.688 Y-8.173
G1 X0.508 Y-8.481
G1 X0.383 Y-8.831
G1 X0.320 Y-9.195
G1 X0.312 Y-9.451
G1 X0.327 Y-9.654
G1 X0.361 Y-9.880
G1 X0.436 Y-10.180
G1 X0.560 Y-10.504
G1 X0.703 Y-10.752
G1 X0.820 Y-10.880
G1 X0.910 Y-10.951
G1 X0.962 Y-10.974
G1 X1.019 Y-10.981
G1 X1.019 Y-10.981
G1 X1.132 Y-10.940
G1 X1.199 Y-10.883
G0 X1.211 Y-10.861
G0 X1.226 Y-10.744
G0 X1.132 Y-8.177
G1 X1.132 Y-8.139
G1 X1.120 Y-8.034
G1 X1.090 Y-7.981
G1 X1.015 Y-7.936
G1 X0.898 Y-7.917
G1 X0.898 Y-7.917
G1 X0.658 Y-7.974
G1 X0.549 Y-8.026
G1 X0.346 Y-8.252
G1 X0.218 Y-8.455
G1 X0.060 Y-8.789
G1 X-0.026 Y-9.150
G1 X-0.049 Y-9.406
G1 X-0.045 Y-9.613
G1 X-0.026 Y-9.831
G1 X0.030 Y-10.139
G1 X0.128 Y-10.451
G1 X0.278 Y-10.748
G1 X0.470 Y-10.959
G1 X0.519 Y-10.989
G1 X0.571 Y-11.008
G1 X0.628 Y-11.011
G1 X0.628 Y-11.011
G1 X0.744 Y-10.974
G1 X0.812 Y-10.917
G0 X0.827 Y-10.895
G0 X0.846 Y-10.778
G0 X0.883 Y-8.199
G1 X0.887 Y-8.162
G1 X0.880 Y-8.056
G1 X0.850 Y-8.004
G1 X0.778 Y-7.959
G1 X0.662 Y-7.940
G1 X0.662 Y-7.940
G1 X0.421 Y-7.974
G1 X0.305 Y-8.015
G1 X0.207 Y-8.083
G1 X-0.064 Y-8.395
G1 X-0.124 Y-8.492
G1 X-0.282 Y-8.827
G1 X-0.380 Y-9.184
G1 X-0.406 Y-9.410
G1 X-0.414 Y-9.602
G1 X-0.402 Y-9.850
G1 X-0.353 Y-10.169
G1 X-0.263 Y-10.466
G1 X-0.162 Y-10.688
G1 X0.023 Y-10.921
G1 X0.109 Y-11.000
G1 X0.162 Y-11.023
G1 X0.274 Y-11.026
G1 X0.274 Y-11.026
G1 X0.391 Y-10.996
G1 X0.462 Y-10.944
G0 X0.477 Y-10.921
G0 X0.496 Y-10.808
G0 X0.519 Y-8.226
G1 X0.523 Y-8.188
G1 X0.519 Y-8.113
G1 X0.492 Y-8.049
G1 X0.444 Y-8.004
G1 X0.301 Y-7.966
G1 X0.301 Y-7.966
G1 X0.120 Y-7.989
G1 X-0.049 Y-8.045
G1 X-0.271 Y-8.237
G1 X-0.414 Y-8.414
G1 X-0.617 Y-8.789
G1 X-0.729 Y-9.143
G1 X-0.767 Y-9.368
G1 X-0.782 Y-9.568
G1 X-0.778 Y-9.820
G1 X-0.744 Y-10.120
G1 X-0.669 Y-10.425
G1 X-0.568 Y-10.662
G1 X-0.395 Y-10.906
G1 X-0.308 Y-10.992
G1 X-0.256 Y-11.023
G1 X-0.195 Y-11.034
G1 X-0.135 Y-11.034
G1 X-0.135 Y-11.034
G1 X-0.008 Y-11.004
G1 X0.064 Y-10.951
G0 X0.079 Y-10.929
G0 X0.102 Y-10.816
G0 X0.267 Y-8.244
G1 X0.271 Y-8.207
G1 X0.267 Y-8.102
G1 X0.244 Y-8.049
G1 X0.173 Y-7.996
G1 X0.060 Y-7.970
G1 X0.060 Y-7.970
G1 X-0.226 Y-7.992
G1 X-0.338 Y-8.023
G1 X-0.526 Y-8.154
G1 X-0.684 Y-8.320
G1 X-0.786 Y-8.455
G1 X-0.970 Y-8.774
G1 X-1.090 Y-9.124
G1 X-1.132 Y-9.342
G1 X-1.154 Y-9.538
G1 X-1.158 Y-9.793
G1 X-1.132 Y-10.105
G1 X-1.060 Y-10.398
G1 X-0.977 Y-10.620
G1 X-0.805 Y-10.868
G1 X-0.722 Y-10.959
G1 X-0.673 Y-10.996
G1 X-0.617 Y-11.019
G1 X-0.436 Y-11.030
G1 X-0.436 Y-11.030
G1 X-0.308 Y-11.008
G1 X-0.229 Y-10.962
G0 X-0.214 Y-10.940
G0 X-0.188 Y-10.827
G0 X-0.068 Y-8.252
G1 X-0.068 Y-8.214
G1 X-0.071 Y-8.109
G1 X-0.098 Y-8.053
G1 X-0.169 Y-8.000
G1 X-0.293 Y-7.966
G1 X-0.293 Y-7.966
G1 X-0.519 Y-7.966
G1 X-0.632 Y-7.985
G1 X-0.741 Y-8.030
G1 X-0.959 Y-8.214
G1 X-1.102 Y-8.391
G1 X-1.301 Y-8.703
G1 X-1.436 Y-9.045
G1 X-1.492 Y-9.271
G1 X-1.526 Y-9.470
G1 X-1.541 Y-9.744
G1 X-1.526 Y-10.023
G1 X-1.481 Y-10.305
G1 X-1.387 Y-10.568
G1 X-1.237 Y-10.820
G1 X-1.158 Y-10.914
G1 X-1.113 Y-10.955
G1 X-1.056 Y-10.981
G1 X-0.876 Y-11.004
G1 X-0.876 Y-11.004
G1 X-0.748 Y-10.985
G1 X-0.665 Y-10.944
G0 X-0.650 Y-10.921
G0 X-0.620 Y-10.808
G0 X-0.383 Y-8.244
G1 X-0.380 Y-8.207
G1 X-0.380 Y-8.102
G1 X-0.402 Y-8.045
G1 X-0.474 Y-7.989
G1 X-0.594 Y-7.947
G1 X-0.594 Y-7.947
G1 X-0.876 Y-7.944
G1 X-0.989 Y-7.966
G1 X-1.041 Y-7.985
G1 X-1.229 Y-8.124
G1 X-1.425 Y-8.338
G1 X-1.635 Y-8.643
G1 X-1.786 Y-8.981
G1 X-1.853 Y-9.214
G1 X-1.895 Y-9.406
G1 X-1.921 Y-9.680
G1 X-1.910 Y-9.962
G1 X-1.876 Y-10.207
G1 X-1.808 Y-10.466
G1 X-1.673 Y-10.729
G1 X-1.568 Y-10.872
G1 X-1.519 Y-10.910
G1 X-1.466 Y-10.936
G1 X-1.286 Y-10.962
G1 X-1.286 Y-10.962
G1 X-1.158 Y-10.951
G1 X-1.075 Y-10.914
G0 X-1.056 Y-10.891
G0 X-1.023 Y-10.782
G0 X-0.748 Y-8.214
G1 X-0.744 Y-8.177
G1 X-0.741 Y-8.068
G1 X-0.763 Y-8.015
G1 X-0.831 Y-7.955
G1 X-0.951 Y-7.917
G1 X-0.951 Y-7.917
G1 X-1.120 Y-7.902
G1 X-1.289 Y-7.921
G1 X-1.346 Y-7.940
G1 X-1.583 Y-8.105
G1 X-1.782 Y-8.312
G1 X-1.996 Y-8.613
G1 X-2.154 Y-8.947
G1 X-2.226 Y-9.192
G1 X-2.263 Y-9.391
G1 X-2.286 Y-9.613
G1 X-2.289 Y-9.917
G1 X-2.252 Y-10.248
G1 X-2.173 Y-10.519
G1 X-2.053 Y-10.722
G1 X-1.977 Y-10.816
G1 X-1.929 Y-10.850
G1 X-1.872 Y-10.872
G1 X-1.752 Y-10.895
G1 X-1.752 Y-10.895
G1 X-1.624 Y-10.883
G1 X-1.538 Y-10.846
G0 X-1.519 Y-10.823
G0 X-1.481 Y-10.718
G0 X-1.053 Y-8.173
G1 X-1.049 Y-8.132
G1 X-1.038 Y-8.026
G1 X-1.060 Y-7.974
G1 X-1.128 Y-7.914
G1 X-1.248 Y-7.876
G1 X-1.248 Y-7.876
G1 X-1.474 Y-7.861
G1 X-1.586 Y-7.872
G1 X-1.643 Y-7.887
G1 X-1.842 Y-8.000
G1 X-2.102 Y-8.229
G1 X-2.327 Y-8.523
G1 X-2.492 Y-8.853
G1 X-2.564 Y-9.060
G1 X-2.613 Y-9.256
G1 X-2.654 Y-9.508
G1 X-2.673 Y-9.816
G1 X-2.658 Y-10.124
G1 X-2.586 Y-10.402
G1 X-2.451 Y-10.662
G1 X-2.417 Y-10.711
G1 X-2.320 Y-10.786
G1 X-2.259 Y-10.797
G1 X-2.259 Y-10.797
G1 X-2.132 Y-10.793
G1 X-2.045 Y-10.759
G0 X-2.023 Y-10.741
G0 X-1.977 Y-10.635
G0 X-1.380 Y-8.139
G1 X-1.372 Y-8.102
G1 X-1.353 Y-7.996
G1 X-1.372 Y-7.940
G1 X-1.432 Y-7.872
G1 X-1.545 Y-7.820
G1 X-1.545 Y-7.820
G1 X-1.771 Y-7.786
G1 X-1.883 Y-7.789
G1 X-1.940 Y-7.801
G1 X-2.147 Y-7.906
G1 X-2.376 Y-8.086
G1 X-2.650 Y-8.414
G1 X-2.831 Y-8.737
G1 X-2.914 Y-8.944
G1 X-2.974 Y-9.143
G1 X-3.026 Y-9.395
G1 X-3.056 Y-9.711
G1 X-3.038 Y-10.026
G1 X-2.996 Y-10.259
G1 X-2.902 Y-10.477
G1 X-2.808 Y-10.628
G1 X-2.763 Y-10.665
G1 X-2.707 Y-10.692
G1 X-2.707 Y-10.692
G1 X-2.545 Y-10.684
G1 X-2.492 Y-10.662
G0 X-2.470 Y-10.643
G0 X-2.421 Y-10.541
G0 X-1.684 Y-8.079
G1 X-1.673 Y-8.038
G1 X-1.650 Y-7.936
G1 X-1.665 Y-7.880
G1 X-1.726 Y-7.812
G1 X-1.838 Y-7.756
G1 X-1.838 Y-7.756
G1 X-2.120 Y-7.711
G1 X-2.233 Y-7.718
G1 X-2.444 Y-7.808
G1 X-2.718 Y-8.019
G1 X-2.970 Y-8.289
G1 X-3.165 Y-8.605
G1 X-3.256 Y-8.808
G1 X-3.323 Y-9.000
G1 X-3.387 Y-9.252
G1 X-3.432 Y-9.556
G1 X-3.432 Y-9.857
G1 X-3.380 Y-10.158
G1 X-3.263 Y-10.432
G1 X-3.195 Y-10.530
G1 X-3.147 Y-10.568
G1 X-3.030 Y-10.605
G1 X-3.030 Y-10.605
G1 X-2.902 Y-10.609
G1 X-2.816 Y-10.583
G0 X-2.793 Y-10.564
G0 X-2.741 Y-10.462
G0 X-1.985 Y-8.023
G1 X-1.974 Y-7.981
G1 X-1.951 Y-7.880
G1 X-1.962 Y-7.820
G1 X-2.019 Y-7.748
G1 X-2.128 Y-7.680
G1 X-2.128 Y-7.680
G1 X-2.410 Y-7.620
G1 X-2.523 Y-7.624
G1 X-2.684 Y-7.677
G1 X-2.887 Y-7.789
G1 X-3.068 Y-7.932
G1 X-3.320 Y-8.203
G1 X-3.523 Y-8.511
G1 X-3.628 Y-8.737
G1 X-3.703 Y-8.929
G1 X-3.774 Y-9.199
G1 X-3.808 Y-9.477
G1 X-3.816 Y-9.729
G1 X-3.782 Y-10.000
G1 X-3.707 Y-10.226
G1 X-3.624 Y-10.383
G1 X-3.579 Y-10.425
G1 X-3.470 Y-10.474
G1 X-3.466 Y-10.474
G1 X-3.338 Y-10.485
G1 X-3.248 Y-10.462
G0 X-3.226 Y-10.447
G0 X-3.169 Y-10.346
G0 X-2.331 Y-7.910
G1 X-2.320 Y-7.872
G1 X-2.293 Y-7.771
G1 X-2.305 Y-7.711
G1 X-2.361 Y-7.643
G1 X-2.474 Y-7.583
G1 X-2.474 Y-7.583
G1 X-2.699 Y-7.523
G1 X-2.812 Y-7.511
G1 X-2.925 Y-7.534
G1 X-3.132 Y-7.628
G1 X-3.368 Y-7.793
G1 X-3.632 Y-8.053
G1 X-3.846 Y-8.353
G1 X-3.959 Y-8.564
G1 X-4.041 Y-8.756
G1 X-4.120 Y-9.011
G1 X-4.177 Y-9.301
G1 X-4.195 Y-9.583
G1 X-4.162 Y-9.887
G1 X-4.064 Y-10.165
G1 X-4.038 Y-10.218
G1 X-4.000 Y-10.263
G1 X-3.951 Y-10.301
G1 X-3.895 Y-10.323
G1 X-3.895 Y-10.323
G1 X-3.767 Y-10.342
G1 X-3.680 Y-10.327
G0 X-3.658 Y-10.308
G0 X-3.598 Y-10.214
G0 X-2.639 Y-7.823
G1 X-2.628 Y-7.786
G1 X-2.598 Y-7.684
G1 X-2.605 Y-7.628
G1 X-2.654 Y-7.553
G1 X-2.756 Y-7.481
G1 X-2.756 Y-7.481
G1 X-3.038 Y-7.398
G1 X-3.150 Y-7.391
G1 X-3.368 Y-7.462
G1 X-3.665 Y-7.643
G1 X-3.940 Y-7.887
G1 X-4.169 Y-8.177
G1 X-4.286 Y-8.376
G1 X-4.376 Y-8.564
G1 X-4.466 Y-8.812
G1 X-4.538 Y-9.102
G1 X-4.564 Y-9.391
G1 X-4.564 Y-9.617
G1 X-4.481 Y-9.955
G1 X-4.436 Y-10.064
G1 X-4.398 Y-10.109
G1 X-4.346 Y-10.143
G1 X-4.346 Y-10.143
G1 X-4.218 Y-10.162
G1 X-4.132 Y-10.147
G0 X-4.105 Y-10.128
G0 X-4.045 Y-10.034
G0 X-2.985 Y-7.688
G1 X-2.970 Y-7.650
G1 X-2.932 Y-7.553
G1 X-2.940 Y-7.492
G1 X-2.989 Y-7.421
G1 X-3.090 Y-7.350
G1 X-3.090 Y-7.350
G1 X-3.259 Y-7.293
G1 X-3.372 Y-7.274
G1 X-3.485 Y-7.282
G1 X-3.759 Y-7.380
G1 X-3.962 Y-7.492
G1 X-4.248 Y-7.726
G1 X-4.489 Y-8.008
G1 X-4.613 Y-8.203
G1 X-4.707 Y-8.380
G1 X-4.805 Y-8.617
G1 X-4.887 Y-8.895
G1 X-4.932 Y-9.199
G1 X-4.936 Y-9.500
G1 X-4.872 Y-9.782
G1 X-4.823 Y-9.891
G1 X-4.786 Y-9.936
G1 X-4.733 Y-9.966
G1 X-4.733 Y-9.966
G1 X-4.605 Y-9.992
G1 X-4.519 Y-9.981
G0 X-4.492 Y-9.966
G0 X-4.425 Y-9.876
G0 X-3.222 Y-7.594
G1 X-3.207 Y-7.556
G1 X-3.165 Y-7.462
G1 X-3.165 Y-7.402
G1 X-3.211 Y-7.327
G1 X-3.312 Y-7.252
G1 X-3.312 Y-7.252
G1 X-3.534 Y-7.162
G1 X-3.703 Y-7.128
G1 X-3.872 Y-7.158
G1 X-4.090 Y-7.237
G1 X-4.244 Y-7.316
G1 X-4.541 Y-7.538
G1 X-4.793 Y-7.808
G1 X-4.917 Y-7.985
G1 X-5.019 Y-8.162
G1 X-5.128 Y-8.383
G1 X-5.241 Y-8.711
G1 X-5.293 Y-9.004
G1 X-5.308 Y-9.229
G1 X-5.271 Y-9.511
G1 X-5.241 Y-9.624
G1 X-5.218 Y-9.677
G1 X-5.180 Y-9.726
G1 X-5.135 Y-9.763
G1 X-5.083 Y-9.789
G1 X-5.083 Y-9.789
G1 X-4.925 Y-9.820
G1 X-4.868 Y-9.808
G0 X-4.842 Y-9.797
G0 X-4.774 Y-9.707
G0 X-3.564 Y-7.447
G1 X-3.545 Y-7.410
G1 X-3.504 Y-7.316
G1 X-3.504 Y-7.256
G1 X-3.541 Y-7.177
G1 X-3.635 Y-7.094
G1 X-3.635 Y-7.094
G1 X-3.850 Y-7.004
G1 X-3.962 Y-6.977
G1 X-4.019 Y-6.974
G1 X-4.244 Y-7.019
G1 X-4.560 Y-7.154
G1 X-4.861 Y-7.368
G1 X-5.117 Y-7.635
G1 X-5.252 Y-7.816
G1 X-5.365 Y-7.996
G1 X-5.481 Y-8.229
G1 X-5.586 Y-8.511
G1 X-5.650 Y-8.808
G1 X-5.673 Y-9.102
G1 X-5.643 Y-9.327
G1 X-5.609 Y-9.440
G1 X-5.541 Y-9.538
G1 X-5.489 Y-9.568
G1 X-5.489 Y-9.568
G1 X-5.365 Y-9.605
G1 X-5.274 Y-9.602
G0 X-5.252 Y-9.590
G0 X-5.177 Y-9.504
G0 X-3.838 Y-7.308
G1 X-3.820 Y-7.271
G1 X-3.771 Y-7.177
G1 X-3.767 Y-7.120
G1 X-3.805 Y-7.041
G1 X-3.898 Y-6.955
G1 X-3.898 Y-6.955
G1 X-4.109 Y-6.850
G1 X-4.222 Y-6.816
G1 X-4.335 Y-6.808
G1 X-4.560 Y-6.853
G1 X-4.831 Y-6.962
G1 X-5.139 Y-7.165
G1 X-5.410 Y-7.417
G1 X-5.556 Y-7.598
G1 X-5.677 Y-7.771
G1 X-5.805 Y-8.008
G1 X-5.917 Y-8.278
G1 X-5.996 Y-8.549
G1 X-6.034 Y-8.831
G1 X-6.019 Y-9.056
G1 X-5.981 Y-9.226
G1 X-5.906 Y-9.316
G1 X-5.801 Y-9.383
G1 X-5.801 Y-9.383
G1 X-5.677 Y-9.425
G1 X-5.586 Y-9.425
G0 X-5.564 Y-9.414
G0 X-5.489 Y-9.327
G0 X-4.102 Y-7.147
G1 X-4.083 Y-7.117
G1 X-4.030 Y-7.023
G1 X-4.026 Y-6.962
G1 X-4.064 Y-6.883
G1 X-4.158 Y-6.801
G1 X-4.158 Y-6.801
G1 X-4.421 Y-6.665
G1 X-4.534 Y-6.632
G1 X-4.590 Y-6.624
G1 X-4.872 Y-6.673
G1 X-5.086 Y-6.752
G1 X-5.406 Y-6.940
G1 X-5.688 Y-7.177
G1 X-5.835 Y-7.346
G1 X-5.951 Y-7.504
G1 X-6.083 Y-7.714
G1 X-6.229 Y-8.015
G1 X-6.327 Y-8.316
G1 X-6.372 Y-8.560
G1 X-6.372 Y-8.842
G1 X-6.353 Y-8.955
G1 X-6.331 Y-9.008
G1 X-6.297 Y-9.056
G1 X-6.248 Y-9.090
G1 X-6.248 Y-9.090
G1 X-6.124 Y-9.132
G1 X-6.034 Y-9.132
G0 X-6.008 Y-9.120
G0 X-5.929 Y-9.038
G0 X-4.432 Y-6.962
G1 X-4.410 Y-6.929
G1 X-4.353 Y-6.838
G1 X-4.346 Y-6.782
G1 X-4.376 Y-6.695
G1 X-4.459 Y-6.605
G1 X-4.459 Y-6.605
G1 X-4.665 Y-6.489
G1 X-4.778 Y-6.447
G1 X-4.835 Y-6.436
G1 X-5.004 Y-6.447
G1 X-5.342 Y-6.538
G1 X-5.395 Y-6.560
G1 X-5.718 Y-6.744
G1 X-6.000 Y-6.981
G1 X-6.143 Y-7.135
G1 X-6.271 Y-7.301
G1 X-6.406 Y-7.508
G1 X-6.560 Y-7.805
G1 X-6.669 Y-8.113
G1 X-6.718 Y-8.365
G1 X-6.718 Y-8.647
G1 X-6.707 Y-8.703
G1 X-6.680 Y-8.756
G1 X-6.643 Y-8.805
G1 X-6.594 Y-8.842
G1 X-6.594 Y-8.842
G1 X-6.477 Y-8.891
G1 X-6.387 Y-8.895
G0 X-6.361 Y-8.887
G0 X-6.278 Y-8.808
G0 X-4.684 Y-6.786
G1 X-4.662 Y-6.752
G1 X-4.602 Y-6.665
G1 X-4.594 Y-6.609
G1 X-4.620 Y-6.523
G1 X-4.703 Y-6.432
G1 X-4.703 Y-6.432
G1 X-4.959 Y-6.282
G1 X-5.071 Y-6.244
G1 X-5.353 Y-6.256
G1 X-5.632 Y-6.335
G1 X-5.959 Y-6.504
G1 X-6.256 Y-6.726
G1 X-6.425 Y-6.891
G1 X-6.564 Y-7.049
G1 X-6.718 Y-7.267
G1 X-6.868 Y-7.534
G1 X-6.981 Y-7.820
G1 X-7.041 Y-8.053
G1 X-7.060 Y-8.335
G1 X-7.056 Y-8.391
G1 X-7.041 Y-8.447
G1 X-7.015 Y-8.500
G1 X-6.929 Y-8.579
G1 X-6.929 Y-8.579
G1 X-6.812 Y-8.635
G1 X-6.722 Y-8.643
G0 X-6.695 Y-8.632
G0 X-6.609 Y-8.560
G0 X-4.936 Y-6.609
G1 X-4.914 Y-6.575
G1 X-4.850 Y-6.492
G1 X-4.838 Y-6.432
G1 X-4.865 Y-6.350
G1 X-4.944 Y-6.252
G1 X-4.944 Y-6.252
G1 X-5.135 Y-6.109
G1 X-5.241 Y-6.053
G1 X-5.297 Y-6.034
G1 X-5.466 Y-6.023
G1 X-5.692 Y-6.053
G1 X-5.861 Y-6.098
G1 X-6.199 Y-6.248
G1 X-6.508 Y-6.455
G1 X-6.680 Y-6.609
G1 X-6.823 Y-6.759
G1 X-6.985 Y-6.962
G1 X-7.150 Y-7.229
G1 X-7.282 Y-7.496
G1 X-7.376 Y-7.831
G1 X-7.391 Y-8.056
G1 X-7.387 Y-8.113
G1 X-7.342 Y-8.222
G1 X-7.256 Y-8.308
G1 X-7.256 Y-8.308
G1 X-7.147 Y-8.372
G1 X-7.056 Y-8.383
G0 X-7.030 Y-8.376
G0 X-6.940 Y-8.305
G0 X-5.233 Y-6.376
G1 X-5.207 Y-6.350
G1 X-5.143 Y-6.263
G1 X-5.128 Y-6.207
G1 X-5.147 Y-6.120
G1 X-5.222 Y-6.023
G1 X-5.222 Y-6.023
G1 X-5.361 Y-5.910
G1 X-5.515 Y-5.827
G1 X-5.571 Y-5.812
G1 X-5.853 Y-5.808
G1 X-6.135 Y-5.865
G1 X-6.477 Y-6.008
G1 X-6.789 Y-6.207
G1 X-6.959 Y-6.350
G1 X-7.105 Y-6.496
G1 X-7.271 Y-6.692
G1 X-7.451 Y-6.959
G1 X-7.602 Y-7.241
G1 X-7.703 Y-7.583
G1 X-7.714 Y-7.808
G1 X-7.699 Y-7.865
G1 X-7.673 Y-7.917
G1 X-7.632 Y-7.959
G1 X-7.632 Y-7.959
G1 X-7.523 Y-8.023
G1 X-7.432 Y-8.034
G0 X-7.406 Y-8.026
G0 X-7.312 Y-7.962
G0 X-5.459 Y-6.162
G1 X-5.432 Y-6.135
G1 X-5.361 Y-6.056
G1 X-5.346 Y-6.000
G1 X-5.365 Y-5.914
G1 X-5.440 Y-5.816
G1 X-5.440 Y-5.816
G1 X-5.575 Y-5.695
G1 X-5.726 Y-5.605
G1 X-5.782 Y-5.583
G1 X-6.008 Y-5.564
G1 X-6.346 Y-5.605
G1 X-6.692 Y-5.733
G1 X-7.011 Y-5.917
G1 X-7.192 Y-6.053
G1 X-7.350 Y-6.199
G1 X-7.526 Y-6.387
G1 X-7.722 Y-6.647
G1 X-7.880 Y-6.925
G1 X-7.985 Y-7.218
G1 X-8.019 Y-7.444
G1 X-8.019 Y-7.500
G1 X-8.008 Y-7.556
G1 X-7.985 Y-7.609
G1 X-7.861 Y-7.744
G1 X-7.861 Y-7.744
G1 X-7.756 Y-7.816
G1 X-7.669 Y-7.835
G0 X-7.643 Y-7.831
G0 X-7.549 Y-7.763
G0 X-5.729 Y-5.925
G1 X-5.699 Y-5.898
G1 X-5.632 Y-5.816
G1 X-5.617 Y-5.759
G1 X-5.632 Y-5.673
G1 X-5.699 Y-5.568
G1 X-5.699 Y-5.568
G1 X-5.835 Y-5.447
G1 X-5.932 Y-5.380
G1 X-5.985 Y-5.353
G1 X-6.267 Y-5.316
G1 X-6.549 Y-5.338
G1 X-6.902 Y-5.447
G1 X-7.211 Y-5.605
G1 X-7.556 Y-5.857
G1 X-7.771 Y-6.064
G1 X-7.974 Y-6.308
G1 X-8.128 Y-6.564
G1 X-8.229 Y-6.771
G1 X-8.301 Y-7.053
G1 X-8.312 Y-7.165
G1 X-8.305 Y-7.222
G1 X-8.286 Y-7.278
G1 X-8.207 Y-7.368
G1 X-8.207 Y-7.368
G1 X-8.102 Y-7.440
G1 X-8.011 Y-7.459
G0 X-7.985 Y-7.455
G0 X-7.887 Y-7.395
G0 X-5.962 Y-5.703
G1 X-5.932 Y-5.677
G1 X-5.857 Y-5.598
G1 X-5.838 Y-5.545
G1 X-5.846 Y-5.459
G1 X-5.906 Y-5.350
G1 X-5.906 Y-5.350
G1 X-6.124 Y-5.147
G1 X-6.226 Y-5.086
G1 X-6.508 Y-5.049
G1 X-6.789 Y-5.068
G1 X-7.147 Y-5.169
G1 X-7.481 Y-5.331
G1 X-7.673 Y-5.455
G1 X-7.838 Y-5.586
G1 X-8.026 Y-5.763
G1 X-8.229 Y-5.996
G1 X-8.402 Y-6.267
G1 X-8.530 Y-6.541
G1 X-8.594 Y-6.823
G1 X-8.571 Y-6.936
G1 X-8.496 Y-7.026
G1 X-8.496 Y-7.026
G1 X-8.395 Y-7.105
G1 X-8.308 Y-7.128
G0 X-8.282 Y-7.124
G0 X-8.180 Y-7.068
G0 X-6.177 Y-5.466
G1 X-6.143 Y-5.444
G1 X-6.068 Y-5.372
G1 X-6.041 Y-5.320
G1 X-6.049 Y-5.233
G1 X-6.102 Y-5.124
G1 X-6.102 Y-5.124
G1 X-6.259 Y-4.944
G1 X-6.406 Y-4.842
G1 X-6.575 Y-4.793
G1 X-6.857 Y-4.774
G1 X-6.970 Y-4.782
G1 X-7.331 Y-4.865
G1 X-7.662 Y-5.008
G1 X-7.842 Y-5.109
G1 X-8.015 Y-5.229
G1 X-8.218 Y-5.402
G1 X-8.432 Y-5.620
G1 X-8.632 Y-5.872
G1 X-8.797 Y-6.184
G1 X-8.857 Y-6.406
G1 X-8.865 Y-6.462
G1 X-8.850 Y-6.575
G1 X-8.778 Y-6.673
G1 X-8.778 Y-6.673
G1 X-8.677 Y-6.752
G1 X-8.590 Y-6.782
G0 X-8.564 Y-6.778
G0 X-8.462 Y-6.726
G0 X-6.368 Y-5.226
G1 X-6.335 Y-5.199
G1 X-6.256 Y-5.132
G1 X-6.229 Y-5.083
G1 X-6.233 Y-4.992
G1 X-6.286 Y-4.883
G1 X-6.286 Y-4.883
G1 X-6.485 Y-4.658
G1 X-6.632 Y-4.556
G1 X-6.970 Y-4.492
G1 X-7.195 Y-4.492
G1 X-7.556 Y-4.571
G1 X-7.898 Y-4.711
G1 X-8.083 Y-4.816
G1 X-8.248 Y-4.925
G1 X-8.470 Y-5.098
G1 X-8.726 Y-5.353
G1 X-8.914 Y-5.609
G1 X-9.026 Y-5.801
G1 X-9.105 Y-6.019
G1 X-9.124 Y-6.132
G1 X-9.113 Y-6.188
G1 X-9.090 Y-6.244
G1 X-9.056 Y-6.293
G1 X-9.056 Y-6.293
G1 X-8.962 Y-6.376
G1 X-8.880 Y-6.410
G0 X-8.853 Y-6.410
G0 X-8.748 Y-6.361
G0 X-6.590 Y-4.932
G1 X-6.556 Y-4.910
G1 X-6.474 Y-4.846
G1 X-6.447 Y-4.793
G1 X-6.455 Y-4.711
G1 X-6.508 Y-4.602
G1 X-6.508 Y-4.602
G1 X-6.654 Y-4.410
G1 X-6.741 Y-4.327
G1 X-6.842 Y-4.267
G1 X-7.124 Y-4.203
G1 X-7.350 Y-4.192
G1 X-7.714 Y-4.252
G1 X-8.060 Y-4.372
G1 X-8.259 Y-4.470
G1 X-8.451 Y-4.586
G1 X-8.658 Y-4.737
G1 X-8.898 Y-4.955
G1 X-9.109 Y-5.192
G1 X-9.293 Y-5.492
G1 X-9.365 Y-5.714
G1 X-9.368 Y-5.771
G1 X-9.361 Y-5.827
G1 X-9.241 Y-6.030
G1 X-9.241 Y-6.030
G1 X-9.147 Y-6.113
G1 X-9.068 Y-6.147
G0 X-9.038 Y-6.147
G0 X-8.936 Y-6.098
G0 X-6.805 Y-4.639
G1 X-6.774 Y-4.617
G1 X-6.692 Y-4.549
G1 X-6.665 Y-4.496
G1 X-6.662 Y-4.410
G1 X-6.707 Y-4.301
G1 X-6.707 Y-4.301
G1 X-6.853 Y-4.109
G1 X-6.989 Y-3.996
G1 X-7.214 Y-3.925
G1 X-7.553 Y-3.895
G1 X-7.921 Y-3.944
G1 X-8.267 Y-4.053
G1 X-8.470 Y-4.143
G1 X-8.654 Y-4.248
G1 X-8.861 Y-4.387
G1 X-9.113 Y-4.598
G1 X-9.338 Y-4.835
G1 X-9.530 Y-5.132
G1 X-9.605 Y-5.350
G1 X-9.602 Y-5.406
G1 X-9.586 Y-5.462
G1 X-9.526 Y-5.568
G1 X-9.526 Y-5.568
G1 X-9.436 Y-5.654
G1 X-9.353 Y-5.692
G0 X-9.327 Y-5.692
G0 X-9.222 Y-5.650
G0 X-6.985 Y-4.372
G1 X-6.951 Y-4.353
G1 X-6.861 Y-4.293
G1 X-6.831 Y-4.244
G1 X-6.823 Y-4.158
G1 X-6.861 Y-4.045
G1 X-6.861 Y-4.045
G1 X-7.038 Y-3.801
G1 X-7.128 Y-3.722
G1 X-7.346 Y-3.635
G1 X-7.684 Y-3.583
G1 X-8.053 Y-3.613
G1 X-8.406 Y-3.703
G1 X-8.786 Y-3.872
G1 X-9.041 Y-4.026
G1 X-9.320 Y-4.241
G1 X-9.534 Y-4.462
G1 X-9.733 Y-4.744
G1 X-9.801 Y-4.902
G1 X-9.816 Y-4.959
G1 X-9.816 Y-5.015
G1 X-9.797 Y-5.071
G1 X-9.767 Y-5.124
G1 X-9.767 Y-5.124
G1 X-9.684 Y-5.214
G1 X-9.605 Y-5.256
G0 X-9.579 Y-5.259
G0 X-9.470 Y-5.226
G0 X-7.180 Y-4.053
G1 X-7.143 Y-4.034
G1 X-7.056 Y-3.981
G1 X-7.019 Y-3.932
G1 X-7.008 Y-3.846
G1 X-7.038 Y-3.733
G1 X-7.038 Y-3.733
G1 X-7.211 Y-3.489
G1 X-7.305 Y-3.414
G1 X-7.526 Y-3.323
G1 X-7.808 Y-3.271
G1 X-8.177 Y-3.282
G1 X-8.538 Y-3.357
G1 X-8.756 Y-3.432
G1 X-8.955 Y-3.519
G1 X-9.184 Y-3.647
G1 X-9.436 Y-3.820
G1 X-9.677 Y-4.026
G1 X-9.868 Y-4.252
G1 X-10.004 Y-4.508
G1 X-10.015 Y-4.564
G1 X-10.011 Y-4.620
G1 X-9.940 Y-4.778
G1 X-9.940 Y-4.778
G1 X-9.861 Y-4.876
G1 X-9.782 Y-4.921
G0 X-9.756 Y-4.925
G0 X-9.647 Y-4.891
G0 X-7.323 Y-3.782
G1 X-7.289 Y-3.763
G1 X-7.199 Y-3.714
G1 X-7.162 Y-3.665
G1 X-7.150 Y-3.579
G1 X-7.177 Y-3.466
G1 X-7.177 Y-3.466
G1 X-7.259 Y-3.308
G1 X-7.372 Y-3.165
G1 X-7.417 Y-3.124
G1 X-7.635 Y-3.023
G1 X-7.917 Y-2.951
G1 X-8.286 Y-2.944
G1 X-8.650 Y-3.000
G1 X-8.872 Y-3.060
G1 X-9.071 Y-3.135
G1 X-9.305 Y-3.248
G1 X-9.579 Y-3.417
G1 X-9.823 Y-3.605
G1 X-10.026 Y-3.820
G1 X-10.150 Y-4.015
G1 X-10.195 Y-4.120
G1 X-10.199 Y-4.177
G1 X-10.158 Y-4.289
G1 X-10.158 Y-4.289
G1 X-10.083 Y-4.387
G1 X-10.008 Y-4.440
G0 X-9.981 Y-4.444
G0 X-9.872 Y-4.421
G0 X-7.466 Y-3.496
G1 X-7.429 Y-3.485
G1 X-7.335 Y-3.440
G1 X-7.297 Y-3.395
G1 X-7.278 Y-3.308
G1 X-7.305 Y-3.192
G1 X-7.305 Y-3.192
G1 X-7.410 Y-2.970
G1 X-7.481 Y-2.872
G1 X-7.571 Y-2.797
G1 X-7.786 Y-2.695
G1 X-8.068 Y-2.620
G1 X-8.436 Y-2.605
G1 X-8.805 Y-2.647
G1 X-9.038 Y-2.703
G1 X-9.248 Y-2.774
G1 X-9.492 Y-2.887
G1 X-9.744 Y-3.034
G1 X-9.992 Y-3.218
G1 X-10.229 Y-3.470
G1 X-10.350 Y-3.665
G1 X-10.361 Y-3.722
G1 X-10.361 Y-3.778
G1 X-10.320 Y-3.891
G1 X-10.320 Y-3.891
G1 X-10.252 Y-3.992
G1 X-10.177 Y-4.045
G0 X-10.150 Y-4.053
G0 X-10.038 Y-4.030
G0 X-7.617 Y-3.158
G1 X-7.579 Y-3.147
G1 X-7.485 Y-3.102
G1 X-7.444 Y-3.060
G1 X-7.421 Y-2.974
G1 X-7.436 Y-2.857
G1 X-7.436 Y-2.857
G1 X-7.541 Y-2.635
G1 X-7.613 Y-2.538
G1 X-7.759 Y-2.436
G1 X-8.034 Y-2.323
G1 X-8.147 Y-2.293
G1 X-8.515 Y-2.252
G1 X-8.883 Y-2.278
G1 X-9.109 Y-2.323
G1 X-9.316 Y-2.383
G1 X-9.564 Y-2.477
G1 X-9.838 Y-2.620
G1 X-10.094 Y-2.786
G1 X-10.346 Y-3.023
G1 X-10.477 Y-3.211
G1 X-10.500 Y-3.263
G1 X-10.508 Y-3.320
G1 X-10.481 Y-3.432
G1 X-10.481 Y-3.432
G1 X-10.421 Y-3.538
G1 X-10.353 Y-3.594
G0 X-10.327 Y-3.602
G0 X-10.214 Y-3.586
G0 X-7.722 Y-2.861
G1 X-7.680 Y-2.853
G1 X-7.583 Y-2.808
G1 X-7.541 Y-2.756
G1 X-7.523 Y-2.665
G1 X-7.538 Y-2.575
G1 X-7.538 Y-2.575
G1 X-7.628 Y-2.350
G1 X-7.729 Y-2.203
G1 X-7.925 Y-2.071
G1 X-8.199 Y-1.962
G1 X-8.256 Y-1.947
G1 X-8.624 Y-1.898
G1 X-8.992 Y-1.914
G1 X-9.211 Y-1.947
G1 X-9.432 Y-2.004
G1 X-9.680 Y-2.090
G1 X-9.962 Y-2.222
G1 X-10.229 Y-2.383
G1 X-10.489 Y-2.620
G1 X-10.624 Y-2.808
G1 X-10.635 Y-2.865
G1 X-10.632 Y-2.921
G1 X-10.602 Y-3.034
G1 X-10.602 Y-3.034
G1 X-10.541 Y-3.139
G1 X-10.474 Y-3.195
G0 X-10.447 Y-3.203
G0 X-10.331 Y-3.192
G0 X-7.831 Y-2.568
G1 X-7.793 Y-2.560
G1 X-7.692 Y-2.526
G1 X-7.650 Y-2.489
G1 X-7.620 Y-2.406
G1 X-7.628 Y-2.289
G1 X-7.628 Y-2.289
G1 X-7.737 Y-2.004
G1 X-7.801 Y-1.902
G1 X-7.985 Y-1.756
G1 X-8.256 Y-1.628
G1 X-8.312 Y-1.609
G1 X-8.677 Y-1.541
G1 X-9.045 Y-1.538
G1 X-9.271 Y-1.568
G1 X-9.466 Y-1.605
G1 X-9.744 Y-1.684
G1 X-10.060 Y-1.816
G1 X-10.327 Y-1.974
G1 X-10.556 Y-2.154
G1 X-10.703 Y-2.327
G1 X-10.733 Y-2.376
G1 X-10.748 Y-2.432
G1 X-10.718 Y-2.602
G1 X-10.718 Y-2.602
G1 X-10.658 Y-2.707
G1 X-10.590 Y-2.767
G0 X-10.564 Y-2.774
G0 X-10.447 Y-2.767
G0 X-7.940 Y-2.218
G1 X-7.902 Y-2.211
G1 X-7.801 Y-2.180
G1 X-7.756 Y-2.143
G1 X-7.722 Y-2.060
G1 X-7.726 Y-1.944
G1 X-7.726 Y-1.944
G1 X-7.801 Y-1.707
G1 X-7.857 Y-1.598
G1 X-7.895 Y-1.549
G1 X-8.034 Y-1.440
G1 X-8.244 Y-1.338
G1 X-8.357 Y-1.301
G1 X-8.718 Y-1.211
G1 X-9.086 Y-1.180
G1 X-9.365 Y-1.199
G1 X-9.568 Y-1.237
G1 X-9.782 Y-1.289
G1 X-10.090 Y-1.398
G1 X-10.395 Y-1.553
G1 X-10.665 Y-1.756
G1 X-10.816 Y-1.929
G1 X-10.835 Y-1.985
G1 X-10.835 Y-2.041
G1 X-10.812 Y-2.154
G1 X-10.812 Y-2.154
G1 X-10.759 Y-2.267
G1 X-10.695 Y-2.327
G0 X-10.669 Y-2.338
G0 X-10.556 Y-2.338
G0 X-8.038 Y-1.906
G1 X-7.996 Y-1.902
G1 X-7.895 Y-1.876
G1 X-7.846 Y-1.842
G1 X-7.805 Y-1.767
G1 X-7.793 Y-1.650
G1 X-7.793 Y-1.650
G1 X-7.853 Y-1.410
G1 X-7.910 Y-1.301
G1 X-7.947 Y-1.256
G1 X-8.135 Y-1.113
G1 X-8.406 Y-0.985
G1 X-8.759 Y-0.876
G1 X-9.128 Y-0.835
G1 X-9.410 Y-0.842
G1 X-9.624 Y-0.868
G1 X-9.846 Y-0.914
G1 X-10.139 Y-1.004
G1 X-10.440 Y-1.139
G1 X-10.677 Y-1.289
G1 X-10.876 Y-1.492
G1 X-10.902 Y-1.545
G1 X-10.910 Y-1.602
G1 X-10.891 Y-1.714
G1 X-10.891 Y-1.714
G1 X-10.846 Y-1.827
G1 X-10.786 Y-1.887
G0 X-10.759 Y-1.898
G0 X-10.647 Y-1.902
G0 X-8.086 Y-1.605
G1 X-8.049 Y-1.602
G1 X-7.944 Y-1.583
G1 X-7.895 Y-1.549
G1 X-7.853 Y-1.474
G1 X-7.842 Y-1.357
G1 X-7.842 Y-1.357
G1 X-7.902 Y-1.120
G1 X-7.955 Y-1.011
G1 X-7.989 Y-0.962
G1 X-8.124 Y-0.842
G1 X-8.323 Y-0.718
G1 X-8.429 Y-0.669
G1 X-8.778 Y-0.549
G1 X-9.143 Y-0.485
G1 X-9.436 Y-0.477
G1 X-9.647 Y-0.492
G1 X-9.876 Y-0.530
G1 X-10.169 Y-0.605
G1 X-10.470 Y-0.726
G1 X-10.711 Y-0.868
G1 X-10.876 Y-1.026
G1 X-10.947 Y-1.117
G1 X-10.974 Y-1.169
G1 X-10.985 Y-1.226
G1 X-10.959 Y-1.338
G1 X-10.959 Y-1.338
G1 X-10.906 Y-1.447
G1 X-10.838 Y-1.511
G0 X-10.812 Y-1.523
G0 X-10.639 Y-1.523
G0 X-8.135 Y-1.301
G1 X-8.098 Y-1.301
G1 X-7.992 Y-1.282
G1 X-7.944 Y-1.252
G1 X-7.902 Y-1.177
G1 X-7.891 Y-1.060
G1 X-7.891 Y-1.060
G1 X-7.947 Y-0.820
G1 X-7.996 Y-0.711
G1 X-8.120 Y-0.579
G1 X-8.312 Y-0.436
G1 X-8.470 Y-0.350
G1 X-8.812 Y-0.203
G1 X-9.173 Y-0.128
G1 X-9.429 Y-0.113
G1 X-9.632 Y-0.120
G1 X-9.850 Y-0.143
G1 X-10.165 Y-0.207
G1 X-10.489 Y-0.320
G1 X-10.737 Y-0.455
G1 X-10.947 Y-0.650
G1 X-10.985 Y-0.695
G1 X-11.030 Y-0.805
G1 X-11.030 Y-1.086
G1 X-11.008 Y-1.139
G1 X-11.008 Y-1.139
G1 X-10.932 Y-1.237
G1 X-10.857 Y-1.286
G0 X-10.831 Y-1.293
G0 X-10.654 Y-1.289
G0 X-8.177 Y-1.011
G1 X-8.139 Y-1.008
G1 X-8.034 Y-0.989
G1 X-7.985 Y-0.955
G1 X-7.940 Y-0.880
G1 X-7.925 Y-0.763
G1 X-7.925 Y-0.763
G1 X-7.970 Y-0.523
G1 X-8.015 Y-0.410
G1 X-8.132 Y-0.274
G1 X-8.417 Y-0.060
G1 X-8.805 Y0.128
G1 X-9.162 Y0.222
G1 X-9.432 Y0.252
G1 X-9.647 Y0.256
G1 X-9.880 Y0.237
G1 X-10.177 Y0.184
G1 X-10.470 Y0.094
G1 X-10.718 Y-0.030
G1 X-10.898 Y-0.173
G1 X-10.977 Y-0.256
G1 X-11.030 Y-0.357
G1 X-11.030 Y-0.695
G1 X-11.030 Y-0.695
G1 X-11.000 Y-0.812
G1 X-10.947 Y-0.883
G0 X-10.925 Y-0.898
G0 X-10.812 Y-0.910
G0 X-8.203 Y-0.703
G1 X-8.165 Y-0.703
G1 X-8.060 Y-0.684
G1 X-8.011 Y-0.654
G1 X-7.966 Y-0.579
G1 X-7.951 Y-0.462
G1 X-7.951 Y-0.462
G1 X-7.992 Y-0.222
G1 X-8.034 Y-0.105
G1 X-8.226 Y0.117
G1 X-8.406 Y0.259
G1 X-8.782 Y0.459
G1 X-9.135 Y0.571
G1 X-9.380 Y0.609
G1 X-9.583 Y0.628
G1 X-9.850 Y0.624
G1 X-10.139 Y0.583
G1 X-10.402 Y0.508
G1 X-10.620 Y0.421
G1 X-10.865 Y0.252
G1 X-10.992 Y0.124
G1 X-11.019 Y0.068
G1 X-11.030 Y0.008
G1 X-11.030 Y-0.105
G1 X-11.030 Y-0.105
G1 X-11.000 Y-0.222
G1 X-10.947 Y-0.293
G0 X-10.925 Y-0.308
G0 X-10.812 Y-0.331
G0 X-8.244 Y-0.380
G1 X-8.207 Y-0.383
G1 X-8.102 Y-0.376
G1 X-8.049 Y-0.350
G1 X-7.996 Y-0.278
G1 X-7.970 Y-0.165
G1 X-7.970 Y-0.165
G1 X-7.989 Y0.068
G1 X-8.045 Y0.233
G1 X-8.233 Y0.451
G1 X-8.455 Y0.632
G1 X-8.778 Y0.812
G1 X-9.128 Y0.932
G1 X-9.350 Y0.977
G1 X-9.549 Y1.000
G1 X-9.801 Y1.004
G1 X-10.098 Y0.974
G1 X-10.380 Y0.914
G1 X-10.639 Y0.808
G1 X-10.883 Y0.635
G1 X-10.970 Y0.553
G1 X-11.023 Y0.444
G1 X-11.030 Y0.263
G1 X-11.030 Y0.263
G1 X-11.008 Y0.135
G1 X-10.962 Y0.056
G0 X-10.940 Y0.041
G0 X-10.827 Y0.019
G0 X-8.244 Y-0.086
G1 X-8.207 Y-0.090
G1 X-8.102 Y-0.086
G1 X-8.049 Y-0.060
G1 X-7.996 Y0.008
G1 X-7.970 Y0.132
G1 X-7.970 Y0.132
G1 X-7.985 Y0.414
G1 X-8.015 Y0.526
G1 X-8.109 Y0.673
G1 X-8.267 Y0.838
G1 X-8.402 Y0.947
G1 X-8.714 Y1.143
G1 X-9.056 Y1.282
G1 X-9.278 Y1.335
G1 X-9.481 Y1.368
G1 X-9.741 Y1.383
G1 X-10.034 Y1.368
G1 X-10.320 Y1.312
G1 X-10.538 Y1.233
G1 X-10.793 Y1.083
G1 X-10.932 Y0.966
G1 X-10.992 Y0.861
G1 X-11.011 Y0.741
G1 X-11.015 Y0.620
G1 X-11.015 Y0.620
G1 X-10.992 Y0.492
G1 X-10.947 Y0.414
G0 X-10.925 Y0.398
G0 X-10.812 Y0.372
G0 X-8.244 Y0.211
G1 X-8.207 Y0.211
G1 X-8.102 Y0.211
G1 X-8.045 Y0.237
G1 X-7.992 Y0.308
G1 X-7.959 Y0.432
G1 X-7.959 Y0.432
G1 X-7.959 Y0.714
G1 X-7.981 Y0.827
G1 X-8.000 Y0.880
G1 X-8.211 Y1.150
G1 X-8.380 Y1.308
G1 X-8.692 Y1.508
G1 X-9.034 Y1.650
G1 X-9.248 Y1.703
G1 X-9.444 Y1.733
G1 X-9.688 Y1.752
G1 X-10.004 Y1.744
G1 X-10.312 Y1.684
G1 X-10.526 Y1.613
G1 X-10.782 Y1.466
G1 X-10.917 Y1.350
G1 X-10.947 Y1.297
G1 X-10.966 Y1.241
G1 X-10.977 Y1.120
G1 X-10.977 Y1.120
G1 X-10.959 Y0.992
G1 X-10.917 Y0.910
G0 X-10.895 Y0.895
G0 X-10.786 Y0.861
G0 X-8.222 Y0.579
G1 X-8.184 Y0.575
G1 X-8.079 Y0.571
G1 X-8.023 Y0.594
G1 X-7.966 Y0.665
G1 X-7.932 Y0.789
G1 X-7.932 Y0.789
G1 X-7.925 Y1.071
G1 X-7.947 Y1.184
G1 X-8.068 Y1.380
G1 X-8.305 Y1.628
G1 X-8.609 Y1.838
G1 X-8.947 Y1.989
G1 X-9.154 Y2.053
G1 X-9.357 Y2.094
G1 X-9.609 Y2.124
G1 X-9.914 Y2.124
G1 X-10.207 Y2.094
G1 X-10.481 Y2.019
G1 X-10.692 Y1.906
G1 X-10.835 Y1.801
G1 X-10.902 Y1.703
G1 X-10.955 Y1.342
G1 X-10.955 Y1.342
G1 X-10.944 Y1.214
G1 X-10.906 Y1.132
G0 X-10.883 Y1.113
G0 X-10.774 Y1.083
G0 X-8.203 Y0.880
G1 X-8.165 Y0.880
G1 X-8.056 Y0.876
G1 X-8.000 Y0.902
G1 X-7.940 Y0.970
G1 X-7.898 Y1.090
G1 X-7.898 Y1.090
G1 X-7.876 Y1.372
G1 X-7.895 Y1.485
G1 X-7.940 Y1.590
G1 X-8.150 Y1.861
G1 X-8.233 Y1.944
G1 X-8.526 Y2.169
G1 X-8.857 Y2.335
G1 X-9.064 Y2.406
G1 X-9.259 Y2.455
G1 X-9.511 Y2.496
G1 X-9.831 Y2.511
G1 X-10.128 Y2.481
G1 X-10.361 Y2.429
G1 X-10.579 Y2.335
G1 X-10.774 Y2.199
G1 X-10.808 Y2.150
G1 X-10.831 Y2.094
G1 X-10.887 Y1.793
G1 X-10.887 Y1.793
G1 X-10.876 Y1.665
G1 X-10.838 Y1.583
G0 X-10.816 Y1.564
G0 X-10.707 Y1.530
G0 X-8.162 Y1.252
G1 X-8.124 Y1.248
G1 X-8.015 Y1.244
G1 X-7.959 Y1.263
G1 X-7.891 Y1.327
G1 X-7.842 Y1.444
G1 X-7.842 Y1.444
G1 X-7.820 Y1.613
G1 X-7.831 Y1.782
G1 X-7.846 Y1.838
G1 X-8.030 Y2.128
G1 X-8.147 Y2.256
G1 X-8.429 Y2.492
G1 X-8.752 Y2.673
G1 X-8.966 Y2.756
G1 X-9.158 Y2.816
G1 X-9.414 Y2.865
G1 X-9.703 Y2.887
G1 X-9.989 Y2.880
G1 X-10.263 Y2.831
G1 X-10.534 Y2.714
G1 X-10.684 Y2.617
G1 X-10.718 Y2.568
G1 X-10.820 Y2.150
G1 X-10.820 Y2.150
G1 X-10.816 Y2.023
G1 X-10.782 Y1.936
G0 X-10.763 Y1.917
G0 X-10.658 Y1.883
G0 X-8.105 Y1.553
G1 X-8.064 Y1.549
G1 X-7.959 Y1.541
G1 X-7.902 Y1.560
G1 X-7.835 Y1.624
G1 X-7.782 Y1.737
G1 X-7.782 Y1.737
G1 X-7.748 Y1.962
G1 X-7.752 Y2.075
G1 X-7.842 Y2.286
G1 X-8.011 Y2.523
G1 X-8.086 Y2.605
G1 X-8.365 Y2.846
G1 X-8.684 Y3.034
G1 X-8.898 Y3.124
G1 X-9.098 Y3.188
G1 X-9.357 Y3.244
G1 X-9.647 Y3.274
G1 X-9.932 Y3.259
G1 X-10.162 Y3.218
G1 X-10.436 Y3.109
G1 X-10.541 Y3.049
G1 X-10.586 Y3.011
G1 X-10.624 Y2.962
G1 X-10.718 Y2.605
G1 X-10.718 Y2.605
G1 X-10.711 Y2.444
G1 X-10.688 Y2.391
G0 X-10.669 Y2.372
G0 X-10.564 Y2.331
G0 X-8.049 Y1.861
G1 X-8.008 Y1.857
G1 X-7.902 Y1.842
G1 X-7.842 Y1.861
G1 X-7.771 Y1.917
G1 X-7.703 Y2.026
G1 X-7.703 Y2.026
G1 X-7.658 Y2.252
G1 X-7.654 Y2.365
G1 X-7.677 Y2.477
G1 X-7.782 Y2.684
G1 X-7.962 Y2.914
G1 X-8.233 Y3.165
G1 X-8.545 Y3.365
G1 X-8.748 Y3.462
G1 X-8.944 Y3.534
G1 X-9.195 Y3.598
G1 X-9.477 Y3.639
G1 X-9.767 Y3.650
G1 X-10.041 Y3.617
G1 X-10.267 Y3.541
G1 X-10.425 Y3.459
G1 X-10.470 Y3.417
G1 X-10.508 Y3.368
G1 X-10.632 Y2.959
G1 X-10.632 Y2.959
G1 X-10.635 Y2.797
G1 X-10.613 Y2.744
G0 X-10.594 Y2.722
G0 X-10.492 Y2.680
G0 X-7.966 Y2.158
G1 X-7.925 Y2.147
G1 X-7.820 Y2.135
G1 X-7.759 Y2.150
G1 X-7.688 Y2.207
G1 X-7.620 Y2.316
G1 X-7.620 Y2.316
G1 X-7.560 Y2.598
G1 X-7.560 Y2.711
G1 X-7.613 Y2.872
G1 X-7.726 Y3.075
G1 X-7.831 Y3.211
G1 X-8.090 Y3.474
G1 X-8.391 Y3.688
G1 X-8.609 Y3.801
G1 X-8.805 Y3.883
G1 X-9.068 Y3.962
G1 X-9.338 Y4.011
G1 X-9.628 Y4.026
G1 X-9.872 Y4.008
G1 X-10.211 Y3.898
G1 X-10.312 Y3.838
G1 X-10.353 Y3.793
G1 X-10.500 Y3.391
G1 X-10.500 Y3.391
G1 X-10.504 Y3.229
G1 X-10.481 Y3.177
G0 X-10.462 Y3.154
G0 X-10.361 Y3.109
G0 X-7.865 Y2.519
G1 X-7.827 Y2.511
G1 X-7.722 Y2.492
G1 X-7.662 Y2.504
G1 X-7.586 Y2.556
G1 X-7.515 Y2.658
G1 X-7.515 Y2.658
G1 X-7.455 Y2.883
G1 X-7.444 Y2.996
G1 X-7.451 Y3.053
G1 X-7.590 Y3.365
G1 X-7.722 Y3.553
G1 X-7.977 Y3.820
G1 X-8.274 Y4.038
G1 X-8.477 Y4.154
G1 X-8.677 Y4.244
G1 X-8.936 Y4.327
G1 X-9.203 Y4.383
G1 X-9.485 Y4.402
G1 X-9.722 Y4.395
G1 X-10.004 Y4.320
G1 X-10.113 Y4.274
G1 X-10.162 Y4.241
G1 X-10.203 Y4.195
G1 X-10.357 Y3.801
G1 X-10.357 Y3.801
G1 X-10.372 Y3.673
G1 X-10.350 Y3.586
G0 X-10.331 Y3.564
G0 X-10.233 Y3.515
G0 X-7.759 Y2.805
G1 X-7.718 Y2.797
G1 X-7.617 Y2.774
G1 X-7.556 Y2.786
G1 X-7.481 Y2.838
G1 X-7.410 Y2.940
G1 X-7.410 Y2.940
G1 X-7.335 Y3.165
G1 X-7.320 Y3.335
G1 X-7.395 Y3.553
G1 X-7.571 Y3.853
G1 X-7.816 Y4.132
G1 X-8.105 Y4.365
G1 X-8.305 Y4.485
G1 X-8.492 Y4.579
G1 X-8.741 Y4.669
G1 X-9.019 Y4.741
G1 X-9.312 Y4.782
G1 X-9.650 Y4.763
G1 X-9.932 Y4.669
G1 X-10.026 Y4.594
G1 X-10.154 Y4.316
G1 X-10.154 Y4.316
G1 X-10.173 Y4.188
G1 X-10.158 Y4.102
G0 X-10.139 Y4.079
G0 X-10.041 Y4.019
G0 X-7.643 Y3.105
G1 X-7.605 Y3.094
G1 X-7.504 Y3.060
G1 X-7.444 Y3.068
G1 X-7.368 Y3.117
G1 X-7.293 Y3.218
G1 X-7.293 Y3.218
G1 X-7.195 Y3.496
G1 X-7.180 Y3.609
G1 X-7.241 Y3.831
G1 X-7.395 Y4.135
G1 X-7.628 Y4.425
G1 X-7.906 Y4.669
G1 X-8.094 Y4.789
G1 X-8.267 Y4.887
G1 X-8.523 Y5.000
G1 X-8.827 Y5.098
G1 X-9.120 Y5.147
G1 X-9.410 Y5.150
G1 X-9.692 Y5.083
G1 X-9.748 Y5.060
G1 X-9.842 Y4.985
G1 X-10.030 Y4.598
G1 X-10.030 Y4.598
G1 X-10.056 Y4.470
G1 X-10.045 Y4.383
G0 X-10.030 Y4.361
G0 X-9.932 Y4.301
G0 X-7.526 Y3.391
G1 X-7.489 Y3.376
G1 X-7.387 Y3.346
G1 X-7.327 Y3.350
G1 X-7.248 Y3.395
G1 X-7.165 Y3.489
G1 X-7.165 Y3.489
G1 X-7.053 Y3.759
G1 X-7.030 Y3.872
G1 X-7.030 Y3.929
G1 X-7.113 Y4.207
G1 X-7.214 Y4.410
G1 X-7.432 Y4.711
G1 X-7.699 Y4.966
G1 X-7.887 Y5.105
G1 X-8.064 Y5.214
G1 X-8.308 Y5.335
G1 X-8.594 Y5.440
G1 X-8.887 Y5.504
G1 X-9.132 Y5.523
G1 X-9.414 Y5.489
G1 X-9.526 Y5.455
G1 X-9.624 Y5.387
G1 X-9.797 Y5.064
G1 X-9.797 Y5.064
G1 X-9.831 Y4.940
G1 X-9.820 Y4.853
G0 X-9.808 Y4.831
G0 X-9.714 Y4.767
G0 X-7.361 Y3.726
G1 X-7.323 Y3.707
G1 X-7.226 Y3.673
G1 X-7.165 Y3.673
G1 X-7.086 Y3.714
G1 X-7.000 Y3.808
G1 X-7.000 Y3.808
G1 X-6.925 Y3.966
G1 X-6.876 Y4.135
G1 X-6.872 Y4.192
G1 X-6.959 Y4.526
G1 X-7.056 Y4.733
G1 X-7.267 Y5.038
G1 X-7.526 Y5.301
G1 X-7.714 Y5.447
G1 X-7.895 Y5.564
G1 X-8.135 Y5.688
G1 X-8.410 Y5.786
G1 X-8.658 Y5.846
G1 X-8.929 Y5.880
G1 X-9.154 Y5.865
G1 X-9.323 Y5.827
G1 X-9.372 Y5.793
G1 X-9.414 Y5.748
G1 X-9.602 Y5.432
G1 X-9.602 Y5.432
G1 X-9.639 Y5.308
G1 X-9.635 Y5.222
G0 X-9.620 Y5.195
G0 X-9.530 Y5.132
G0 X-7.211 Y3.992
G1 X-7.177 Y3.977
G1 X-7.079 Y3.936
G1 X-7.019 Y3.936
G1 X-6.940 Y3.974
G1 X-6.853 Y4.068
G1 X-6.853 Y4.068
G1 X-6.748 Y4.278
G1 X-6.699 Y4.447
G1 X-6.729 Y4.673
G1 X-6.827 Y4.944
G1 X-7.049 Y5.312
G1 X-7.297 Y5.586
G1 X-7.485 Y5.748
G1 X-7.665 Y5.872
G1 X-7.865 Y5.985
G1 X-8.143 Y6.105
G1 X-8.444 Y6.195
G1 X-8.718 Y6.229
G1 X-9.000 Y6.214
G1 X-9.056 Y6.203
G1 X-9.109 Y6.180
G1 X-9.158 Y6.147
G1 X-9.387 Y5.789
G1 X-9.387 Y5.789
G1 X-9.425 Y5.665
G1 X-9.421 Y5.575
G0 X-9.406 Y5.553
G0 X-9.320 Y5.481
G0 X-7.064 Y4.271
G1 X-7.026 Y4.252
G1 X-6.929 Y4.207
G1 X-6.868 Y4.203
G1 X-6.786 Y4.237
G1 X-6.695 Y4.327
G1 X-6.695 Y4.327
G1 X-6.575 Y4.534
G1 X-6.534 Y4.643
G1 X-6.523 Y4.699
G1 X-6.538 Y4.925
G1 X-6.620 Y5.203
G1 X-6.823 Y5.579
G1 X-7.056 Y5.865
G1 X-7.218 Y6.015
G1 X-7.380 Y6.139
G1 X-7.590 Y6.274
G1 X-7.861 Y6.410
G1 X-8.143 Y6.515
G1 X-8.477 Y6.579
G1 X-8.816 Y6.556
G1 X-8.868 Y6.530
G1 X-8.917 Y6.492
G1 X-9.128 Y6.199
G1 X-9.128 Y6.199
G1 X-9.173 Y6.083
G1 X-9.173 Y5.992
G0 X-9.162 Y5.970
G0 X-9.079 Y5.895
G0 X-6.891 Y4.530
G1 X-6.857 Y4.508
G1 X-6.763 Y4.459
G1 X-6.703 Y4.455
G1 X-6.617 Y4.485
G1 X-6.526 Y4.571
G1 X-6.526 Y4.571
G1 X-6.372 Y4.823
G1 X-6.331 Y4.932
G1 X-6.320 Y4.989
G1 X-6.335 Y5.214
G1 X-6.432 Y5.545
G1 X-6.609 Y5.872
G1 X-6.838 Y6.162
G1 X-7.000 Y6.320
G1 X-7.162 Y6.455
G1 X-7.376 Y6.602
G1 X-7.654 Y6.752
G1 X-7.932 Y6.853
G1 X-8.229 Y6.914
G1 X-8.455 Y6.914
G1 X-8.568 Y6.891
G1 X-8.620 Y6.865
G1 X-8.883 Y6.538
G1 X-8.883 Y6.538
G1 X-8.936 Y6.421
G1 X-8.944 Y6.361
G1 X-8.940 Y6.331
G0 X-8.929 Y6.308
G0 X-8.846 Y6.229
G0 X-6.673 Y4.827
G1 X-6.643 Y4.808
G1 X-6.549 Y4.756
G1 X-6.489 Y4.752
G1 X-6.402 Y4.778
G1 X-6.312 Y4.861
G1 X-6.312 Y4.861
G1 X-6.184 Y5.056
G1 X-6.135 Y5.162
G1 X-6.120 Y5.218
G1 X-6.132 Y5.500
G1 X-6.203 Y5.782
G1 X-6.361 Y6.117
G1 X-6.575 Y6.417
G1 X-6.729 Y6.583
G1 X-6.887 Y6.729
G1 X-7.098 Y6.887
G1 X-7.353 Y7.041
G1 X-7.632 Y7.158
G1 X-7.865 Y7.222
G1 X-8.147 Y7.248
G1 X-8.259 Y7.241
G1 X-8.316 Y7.222
G1 X-8.365 Y7.188
G1 X-8.628 Y6.868
G1 X-8.628 Y6.868
G1 X-8.684 Y6.752
G1 X-8.692 Y6.662
G0 X-8.680 Y6.635
G0 X-8.602 Y6.556
G0 X-6.489 Y5.086
G1 X-6.459 Y5.064
G1 X-6.365 Y5.008
G1 X-6.305 Y4.996
G1 X-6.218 Y5.019
G1 X-6.120 Y5.094
G1 X-6.120 Y5.094
G1 X-5.977 Y5.286
G1 X-5.921 Y5.391
G1 X-5.891 Y5.504
G1 X-5.906 Y5.786
G1 X-5.959 Y6.011
G1 X-6.102 Y6.353
G1 X-6.301 Y6.665
G1 X-6.455 Y6.846
G1 X-6.602 Y6.992
G1 X-6.808 Y7.162
G1 X-7.060 Y7.327
G1 X-7.320 Y7.447
G1 X-7.545 Y7.530
G1 X-7.827 Y7.575
G1 X-7.940 Y7.575
G1 X-7.996 Y7.560
G1 X-8.049 Y7.534
G1 X-8.301 Y7.267
G1 X-8.301 Y7.267
G1 X-8.357 Y7.150
G1 X-8.365 Y7.060
G0 X-8.353 Y7.034
G0 X-8.278 Y6.951
G0 X-6.248 Y5.365
G1 X-6.214 Y5.342
G1 X-6.128 Y5.282
G1 X-6.071 Y5.271
G1 X-5.985 Y5.293
G1 X-5.887 Y5.368
G1 X-5.887 Y5.368
G1 X-5.744 Y5.560
G1 X-5.692 Y5.665
G1 X-5.673 Y5.722
G1 X-5.662 Y5.891
G1 X-5.707 Y6.229
G1 X-5.831 Y6.575
G1 X-6.015 Y6.895
G1 X-6.162 Y7.086
G1 X-6.297 Y7.237
G1 X-6.489 Y7.410
G1 X-6.729 Y7.586
G1 X-6.992 Y7.737
G1 X-7.259 Y7.842
G1 X-7.598 Y7.891
G1 X-7.654 Y7.887
G1 X-7.711 Y7.868
G1 X-8.015 Y7.579
G1 X-8.015 Y7.579
G1 X-8.079 Y7.470
G1 X-8.090 Y7.380
G0 X-8.083 Y7.353
G0 X-8.011 Y7.267
G0 X-6.053 Y5.605
G1 X-6.023 Y5.583
G1 X-5.936 Y5.519
G1 X-5.876 Y5.504
G1 X-5.789 Y5.519
G1 X-5.684 Y5.586
G1 X-5.684 Y5.586
G1 X-5.564 Y5.718
G1 X-5.466 Y5.868
G1 X-5.444 Y5.925
G1 X-5.421 Y6.094
G1 X-5.444 Y6.432
G1 X-5.455 Y6.489
G1 X-5.575 Y6.838
G1 X-5.744 Y7.154
G1 X-5.872 Y7.331
G1 X-6.011 Y7.489
G1 X-6.188 Y7.662
G1 X-6.440 Y7.861
G1 X-6.711 Y8.030
G1 X-6.977 Y8.143
G1 X-7.259 Y8.199
G1 X-7.316 Y8.203
G1 X-7.372 Y8.184
G1 X-7.733 Y7.861
G1 X-7.733 Y7.861
G1 X-7.805 Y7.756
G1 X-7.820 Y7.669
G0 X-7.816 Y7.643
G0 X-7.744 Y7.553
G0 X-5.827 Y5.831
G1 X-5.801 Y5.805
G1 X-5.714 Y5.737
G1 X-5.658 Y5.722
G1 X-5.545 Y5.748
G1 X-5.466 Y5.797
G1 X-5.466 Y5.797
G1 X-5.263 Y6.015
G1 X-5.203 Y6.117
G1 X-5.180 Y6.173
G1 X-5.158 Y6.511
G1 X-5.177 Y6.680
G1 X-5.282 Y7.034
G1 X-5.444 Y7.368
G1 X-5.575 Y7.568
G1 X-5.703 Y7.729
G1 X-5.883 Y7.917
G1 X-6.117 Y8.120
G1 X-6.372 Y8.297
G1 X-6.688 Y8.444
G1 X-6.914 Y8.492
G1 X-6.970 Y8.496
G1 X-7.026 Y8.481
G1 X-7.079 Y8.455
G1 X-7.346 Y8.222
G1 X-7.346 Y8.222
G1 X-7.417 Y8.117
G1 X-7.432 Y8.030
G0 X-7.429 Y8.000
G0 X-7.361 Y7.910
G0 X-5.560 Y6.086
G1 X-5.530 Y6.060
G1 X-5.451 Y5.989
G1 X-5.395 Y5.970
G1 X-5.308 Y5.977
G1 X-5.199 Y6.038
G1 X-5.199 Y6.038
G1 X-5.030 Y6.211
G1 X-4.962 Y6.312
G1 X-4.914 Y6.481
G1 X-4.898 Y6.763
G1 X-4.914 Y6.932
G1 X-5.011 Y7.289
G1 X-5.158 Y7.613
G1 X-5.278 Y7.805
G1 X-5.410 Y7.977
G1 X-5.575 Y8.165
G1 X-5.820 Y8.391
G1 X-6.094 Y8.579
G1 X-6.320 Y8.692
G1 X-6.541 Y8.756
G1 X-6.598 Y8.763
G1 X-6.711 Y8.748
G1 X-6.989 Y8.530
G1 X-6.989 Y8.530
G1 X-7.064 Y8.429
G1 X-7.086 Y8.342
G0 X-7.083 Y8.316
G0 X-7.023 Y8.222
G0 X-5.323 Y6.286
G1 X-5.293 Y6.259
G1 X-5.218 Y6.184
G1 X-5.165 Y6.165
G1 X-5.079 Y6.173
G1 X-4.970 Y6.229
G1 X-4.970 Y6.229
G1 X-4.789 Y6.391
G1 X-4.714 Y6.485
G1 X-4.684 Y6.538
G1 X-4.628 Y6.820
G1 X-4.628 Y7.102
G1 X-4.703 Y7.462
G1 X-4.842 Y7.805
G1 X-4.951 Y8.000
G1 X-5.071 Y8.177
G1 X-5.233 Y8.376
G1 X-5.451 Y8.598
G1 X-5.711 Y8.808
G1 X-6.023 Y8.974
G1 X-6.248 Y9.030
G1 X-6.305 Y9.026
G1 X-6.361 Y9.011
G1 X-6.647 Y8.797
G1 X-6.647 Y8.797
G1 X-6.726 Y8.695
G1 X-6.752 Y8.609
G0 X-6.752 Y8.583
G0 X-6.695 Y8.485
G0 X-5.086 Y6.500
G1 X-5.060 Y6.470
G1 X-4.989 Y6.391
G1 X-4.936 Y6.365
G1 X-4.846 Y6.365
G1 X-4.733 Y6.410
G1 X-4.733 Y6.410
G1 X-4.504 Y6.602
G1 X-4.425 Y6.695
G1 X-4.395 Y6.748
G1 X-4.350 Y6.917
G1 X-4.327 Y7.256
G1 X-4.331 Y7.312
G1 X-4.402 Y7.677
G1 X-4.534 Y8.023
G1 X-4.643 Y8.237
G1 X-4.763 Y8.425
G1 X-4.929 Y8.639
G1 X-5.143 Y8.861
G1 X-5.368 Y9.053
G1 X-5.617 Y9.199
G1 X-5.835 Y9.271
G1 X-5.891 Y9.282
G1 X-5.947 Y9.274
G1 X-6.004 Y9.252
G1 X-6.297 Y9.053
G1 X-6.297 Y9.053
G1 X-6.383 Y8.959
G1 X-6.417 Y8.876
G0 X-6.414 Y8.850
G0 X-6.365 Y8.748
G0 X-4.786 Y6.718
G1 X-4.763 Y6.684
G1 X-4.692 Y6.609
G1 X-4.639 Y6.579
G1 X-4.549 Y6.575
G1 X-4.436 Y6.617
G1 X-4.436 Y6.617
G1 X-4.244 Y6.767
G1 X-4.132 Y6.902
G1 X-4.075 Y7.071
G1 X-4.030 Y7.410
G1 X-4.030 Y7.466
G1 X-4.083 Y7.831
G1 X-4.192 Y8.184
G1 X-4.289 Y8.402
G1 X-4.395 Y8.590
G1 X-4.545 Y8.808
G1 X-4.748 Y9.041
G1 X-4.970 Y9.252
G1 X-5.259 Y9.440
G1 X-5.477 Y9.515
G1 X-5.534 Y9.515
G1 X-5.590 Y9.504
G1 X-5.898 Y9.323
G1 X-5.898 Y9.323
G1 X-5.985 Y9.233
G1 X-6.023 Y9.154
G0 X-6.023 Y9.124
G0 X-5.977 Y9.026
G0 X-4.481 Y6.932
G1 X-4.455 Y6.898
G1 X-4.387 Y6.820
G1 X-4.338 Y6.789
G1 X-4.248 Y6.778
G1 X-4.135 Y6.812
G1 X-4.135 Y6.812
G1 X-3.940 Y6.955
G1 X-3.827 Y7.090
G1 X-3.744 Y7.372
G1 X-3.722 Y7.598
G1 X-3.752 Y7.966
G1 X-3.846 Y8.323
G1 X-3.929 Y8.545
G1 X-4.026 Y8.752
G1 X-4.177 Y8.989
G1 X-4.353 Y9.214
G1 X-4.553 Y9.425
G1 X-4.835 Y9.624
G1 X-4.992 Y9.699
G1 X-5.105 Y9.733
G1 X-5.162 Y9.729
G1 X-5.218 Y9.714
G1 X-5.530 Y9.545
G1 X-5.530 Y9.545
G1 X-5.617 Y9.455
G1 X-5.654 Y9.376
G0 X-5.654 Y9.346
G0 X-5.613 Y9.244
G0 X-4.211 Y7.086
G1 X-4.192 Y7.053
G1 X-4.128 Y6.970
G1 X-4.075 Y6.940
G1 X-3.989 Y6.929
G1 X-3.876 Y6.962
G1 X-3.876 Y6.962
G1 X-3.628 Y7.135
G1 X-3.553 Y7.226
G1 X-3.466 Y7.444
G1 X-3.414 Y7.726
G1 X-3.410 Y7.782
G1 X-3.429 Y8.150
G1 X-3.508 Y8.511
G1 X-3.583 Y8.726
G1 X-3.673 Y8.925
G1 X-3.805 Y9.154
G1 X-3.989 Y9.406
G1 X-4.188 Y9.628
G1 X-4.417 Y9.808
G1 X-4.624 Y9.914
G1 X-4.680 Y9.932
G1 X-4.737 Y9.936
G1 X-4.793 Y9.929
G1 X-5.162 Y9.744
G1 X-5.162 Y9.744
G1 X-5.256 Y9.662
G1 X-5.301 Y9.583
G0 X-5.301 Y9.556
G0 X-5.263 Y9.451
G0 X-3.940 Y7.241
G1 X-3.921 Y7.203
G1 X-3.857 Y7.117
G1 X-3.808 Y7.083
G1 X-3.722 Y7.071
G1 X-3.609 Y7.105
G1 X-3.609 Y7.105
G1 X-3.353 Y7.259
G1 X-3.267 Y7.342
G1 X-3.207 Y7.444
G1 X-3.117 Y7.726
G1 X-3.086 Y7.895
G1 X-3.086 Y8.263
G1 X-3.150 Y8.628
G1 X-3.214 Y8.846
G1 X-3.297 Y9.056
G1 X-3.417 Y9.293
G1 X-3.583 Y9.541
G1 X-3.767 Y9.767
G1 X-4.023 Y9.992
G1 X-4.226 Y10.102
G1 X-4.278 Y10.120
G1 X-4.335 Y10.124
G1 X-4.391 Y10.117
G1 X-4.767 Y9.944
G1 X-4.767 Y9.944
G1 X-4.865 Y9.865
G1 X-4.910 Y9.786
G0 X-4.914 Y9.759
G0 X-4.876 Y9.650
G0 X-3.665 Y7.391
G1 X-3.647 Y7.353
G1 X-3.590 Y7.263
G1 X-3.541 Y7.229
G1 X-3.455 Y7.211
G1 X-3.338 Y7.233
G1 X-3.338 Y7.233
G1 X-3.023 Y7.414
G1 X-2.940 Y7.500
G1 X-2.838 Y7.707
G1 X-2.767 Y7.989
G1 X-2.752 Y8.357
G1 X-2.793 Y8.726
G1 X-2.857 Y8.977
G1 X-2.925 Y9.188
G1 X-3.041 Y9.440
G1 X-3.188 Y9.684
G1 X-3.361 Y9.914
G1 X-3.609 Y10.147
G1 X-3.801 Y10.267
G1 X-3.853 Y10.289
G1 X-3.910 Y10.297
G1 X-3.966 Y10.289
G1 X-4.357 Y10.132
G1 X-4.357 Y10.132
G1 X-4.455 Y10.056
G1 X-4.504 Y9.985
G0 X-4.508 Y9.955
G0 X-4.477 Y9.850
G0 X-3.331 Y7.538
G1 X-3.316 Y7.504
G1 X-3.263 Y7.410
G1 X-3.214 Y7.376
G1 X-3.128 Y7.357
G1 X-3.011 Y7.376
G1 X-3.011 Y7.376
G1 X-2.737 Y7.511
G1 X-2.643 Y7.590
G1 X-2.553 Y7.744
G1 X-2.440 Y8.079
G1 X-2.429 Y8.135
G1 X-2.402 Y8.504
G1 X-2.436 Y8.872
G1 X-2.485 Y9.105
G1 X-2.549 Y9.316
G1 X-2.650 Y9.560
G1 X-2.797 Y9.823
G1 X-2.962 Y10.060
G1 X-3.162 Y10.267
G1 X-3.350 Y10.402
G1 X-3.398 Y10.429
G1 X-3.455 Y10.444
G1 X-3.511 Y10.447
G1 X-3.906 Y10.312
G1 X-3.906 Y10.312
G1 X-4.008 Y10.244
G1 X-4.060 Y10.169
G0 X-4.064 Y10.143
G0 X-4.038 Y10.034
G0 X-2.985 Y7.684
G1 X-2.970 Y7.647
G1 X-2.914 Y7.553
G1 X-2.853 Y7.511
G1 X-2.763 Y7.492
G1 X-2.673 Y7.504
G1 X-2.673 Y7.504
G1 X-2.504 Y7.575
G1 X-2.350 Y7.677
G1 X-2.274 Y7.771
G1 X-2.188 Y7.929
G1 X-2.098 Y8.211
G1 X-2.049 Y8.579
G1 X-2.064 Y8.947
G1 X-2.109 Y9.199
G1 X-2.162 Y9.417
G1 X-2.263 Y9.688
G1 X-2.395 Y9.940
G1 X-2.538 Y10.158
G1 X-2.714 Y10.368
G1 X-2.891 Y10.515
G1 X-2.989 Y10.575
G1 X-3.045 Y10.586
G1 X-3.440 Y10.477
G1 X-3.496 Y10.455
G1 X-3.496 Y10.455
G1 X-3.598 Y10.387
G1 X-3.650 Y10.312
G0 X-3.654 Y10.286
G0 X-3.632 Y10.177
G0 X-2.688 Y7.789
G1 X-2.677 Y7.752
G1 X-2.632 Y7.658
G1 X-2.586 Y7.617
G1 X-2.504 Y7.586
G1 X-2.387 Y7.598
G1 X-2.387 Y7.598
G1 X-2.158 Y7.688
G1 X-2.011 Y7.789
G1 X-1.876 Y7.989
G1 X-1.744 Y8.316
G1 X-1.688 Y8.680
G1 X-1.692 Y9.049
G1 X-1.726 Y9.289
G1 X-1.771 Y9.500
G1 X-1.857 Y9.759
G1 X-1.974 Y10.023
G1 X-2.128 Y10.286
G1 X-2.353 Y10.549
G1 X-2.541 Y10.688
G1 X-2.598 Y10.703
G1 X-2.654 Y10.699
G1 X-2.992 Y10.613
G1 X-2.992 Y10.613
G1 X-3.098 Y10.553
G1 X-3.158 Y10.485
G0 X-3.165 Y10.459
G0 X-3.150 Y10.346
G0 X-2.391 Y7.880
G1 X-2.380 Y7.838
G1 X-2.342 Y7.741
G1 X-2.301 Y7.699
G1 X-2.218 Y7.673
G1 X-2.102 Y7.684
G1 X-2.102 Y7.684
G1 X-1.865 Y7.759
G1 X-1.707 Y7.850
G1 X-1.586 Y7.985
G1 X-1.496 Y8.139
G1 X-1.414 Y8.361
G1 X-1.335 Y8.722
G1 X-1.320 Y9.090
G1 X-1.350 Y9.368
G1 X-1.391 Y9.575
G1 X-1.455 Y9.801
G1 X-1.575 Y10.109
G1 X-1.774 Y10.455
G1 X-1.959 Y10.673
G1 X-2.090 Y10.782
G1 X-2.147 Y10.801
G1 X-2.203 Y10.801
G1 X-2.598 Y10.711
G1 X-2.598 Y10.711
G1 X-2.703 Y10.654
G1 X-2.763 Y10.586
G0 X-2.771 Y10.564
G0 X-2.756 Y10.447
G0 X-2.038 Y7.985
G1 X-2.030 Y7.944
G1 X-1.992 Y7.846
G1 X-1.951 Y7.801
G1 X-1.868 Y7.767
G1 X-1.752 Y7.771
G1 X-1.752 Y7.771
G1 X-1.515 Y7.846
G1 X-1.406 Y7.906
G1 X-1.361 Y7.944
G1 X-1.252 Y8.086
G1 X-1.124 Y8.357
G1 X-1.011 Y8.771
G1 X-0.977 Y9.139
G1 X-0.989 Y9.421
G1 X-1.026 Y9.650
G1 X-1.079 Y9.865
G1 X-1.169 Y10.139
G1 X-1.323 Y10.451
G1 X-1.519 Y10.722
G1 X-1.643 Y10.842
G1 X-1.692 Y10.868
G1 X-1.748 Y10.883
G1 X-2.143 Y10.812
G1 X-2.143 Y10.812
G1 X-2.256 Y10.759
G1 X-2.316 Y10.695
G0 X-2.327 Y10.669
G0 X-2.320 Y10.556
G0 X-1.737 Y8.056
G1 X-1.726 Y8.019
G1 X-1.695 Y7.917
G1 X-1.658 Y7.872
G1 X-1.575 Y7.835
G1 X-1.459 Y7.831
G1 X-1.459 Y7.831
G1 X-1.222 Y7.895
G1 X-1.113 Y7.951
G1 X-1.068 Y7.989
G1 X-0.898 Y8.233
G1 X-0.805 Y8.444
G1 X-0.684 Y8.793
G1 X-0.628 Y9.158
G1 X-0.624 Y9.436
G1 X-0.647 Y9.647
G1 X-0.684 Y9.853
G1 X-0.763 Y10.143
G1 X-0.902 Y10.462
G1 X-1.041 Y10.699
G1 X-1.248 Y10.902
G1 X-1.297 Y10.929
G1 X-1.353 Y10.944
G1 X-1.523 Y10.921
G1 X-1.523 Y10.921
G1 X-1.635 Y10.876
G1 X-1.695 Y10.816
G0 X-1.707 Y10.789
G0 X-1.711 Y10.677
G0 X-1.410 Y8.117
G1 X-1.406 Y8.079
G1 X-1.383 Y7.974
G1 X-1.346 Y7.925
G1 X-1.252 Y7.887
G1 X-1.162 Y7.883
G1 X-1.162 Y7.883
G1 X-0.925 Y7.944
G1 X-0.816 Y7.996
G1 X-0.658 Y8.173
G1 X-0.504 Y8.429
G1 X-0.365 Y8.774
G1 X-0.282 Y9.135
G1 X-0.263 Y9.432
G1 X-0.271 Y9.643
G1 X-0.301 Y9.868
G1 X-0.361 Y10.135
G1 X-0.466 Y10.436
G1 X-0.609 Y10.703
G1 X-0.759 Y10.876
G1 X-0.895 Y10.985
G1 X-1.004 Y11.030
G1 X-1.229 Y10.966
G1 X-1.342 Y10.951
G1 X-1.342 Y10.951
G1 X-1.455 Y10.906
G1 X-1.515 Y10.846
G0 X-1.526 Y10.820
G0 X-1.526 Y10.707
G0 X-1.120 Y8.177
G1 X-1.117 Y8.135
G1 X-1.090 Y8.034
G1 X-1.056 Y7.981
G1 X-0.981 Y7.936
G1 X-0.865 Y7.917
G1 X-0.865 Y7.917
G1 X-0.684 Y7.951
G1 X-0.568 Y7.992
G1 X-0.515 Y8.023
G1 X-0.387 Y8.147
G1 X-0.184 Y8.444
G1 X-0.004 Y8.835
G1 X0.079 Y9.195
G1 X0.102 Y9.470
G1 X0.098 Y9.688
G1 X0.071 Y9.917
G1 X0.011 Y10.199
G1 X-0.083 Y10.489
G1 X-0.211 Y10.729
G1 X-0.398 Y10.947
G1 X-0.489 Y11.015
G1 X-0.541 Y11.038
G1 X-0.936 Y11.045
G1 X-0.936 Y11.045
G1 X-1.075 Y10.989
G1 X-1.117 Y10.951
G0 X-1.132 Y10.925
G0 X-1.139 Y10.816
G0 X-0.872 Y8.195
G1 X-0.868 Y8.158
G1 X-0.850 Y8.053
G1 X-0.816 Y8.000
G1 X-0.741 Y7.955
G1 X-0.624 Y7.936
G1 X-0.624 Y7.936
G1 X-0.383 Y7.974
G1 X-0.267 Y8.015
G1 X-0.169 Y8.083
G1 X0.038 Y8.301
G1 X0.165 Y8.489
G1 X0.331 Y8.820
G1 X0.432 Y9.177
G1 X0.459 Y9.395
G1 X0.466 Y9.579
G1 X0.462 Y9.823
G1 X0.410 Y10.184
G1 X0.316 Y10.470
G1 X0.226 Y10.669
G1 X0.049 Y10.906
G1 X-0.034 Y10.989
G1 X-0.083 Y11.019
G1 X-0.135 Y11.038
G1 X-0.474 Y11.041
G1 X-0.474 Y11.041
G1 X-0.590 Y11.015
G1 X-0.662 Y10.966
G0 X-0.677 Y10.944
G0 X-0.692 Y10.831
G0 X-0.560 Y8.218
G1 X-0.560 Y8.180
G1 X-0.549 Y8.075
G1 X-0.519 Y8.023
G1 X-0.444 Y7.977
G1 X-0.327 Y7.959
G1 X-0.327 Y7.959
G1 X-0.026 Y8.000
G1 X0.083 Y8.038
G1 X0.263 Y8.177
G1 X0.485 Y8.440
G1 X0.662 Y8.763
G1 X0.778 Y9.113
G1 X0.820 Y9.335
G1 X0.838 Y9.530
G1 X0.838 Y9.782
G1 X0.808 Y10.086
G1 X0.744 Y10.383
G1 X0.632 Y10.650
G1 X0.459 Y10.895
G1 X0.376 Y10.981
G1 X0.323 Y11.015
G1 X0.267 Y11.034
G1 X-0.086 Y11.038
G1 X-0.086 Y11.038
G1 X-0.203 Y11.011
G1 X-0.274 Y10.962
G0 X-0.289 Y10.940
G0 X-0.305 Y10.827
G0 X-0.195 Y8.248
G1 X-0.195 Y8.211
G1 X-0.184 Y8.105
G1 X-0.154 Y8.053
G1 X-0.083 Y8.000
G1 X0.030 Y7.974
G1 X0.030 Y7.974
G1 X0.256 Y7.989
G1 X0.368 Y8.015
G1 X0.421 Y8.038
G1 X0.605 Y8.180
G1 X0.827 Y8.440
G1 X1.011 Y8.759
G1 X1.135 Y9.109
G1 X1.180 Y9.331
G1 X1.207 Y9.530
G1 X1.218 Y9.786
G1 X1.192 Y10.105
G1 X1.124 Y10.387
G1 X1.045 Y10.605
G1 X0.880 Y10.857
G1 X0.801 Y10.947
G1 X0.752 Y10.985
G1 X0.695 Y11.011
G1 X0.335 Y11.034
G1 X0.335 Y11.034
G1 X0.207 Y11.011
G1 X0.128 Y10.966
G0 X0.109 Y10.944
G0 X0.090 Y10.831
G0 X0.098 Y8.256
G1 X0.098 Y8.218
G1 X0.105 Y8.113
G1 X0.135 Y8.056
G1 X0.207 Y8.000
G1 X0.331 Y7.966
G1 X0.331 Y7.966
G1 X0.556 Y7.966
G1 X0.726 Y8.000
G1 X0.778 Y8.023
G1 X0.959 Y8.165
G1 X1.150 Y8.380
G1 X1.346 Y8.692
G1 X1.485 Y9.034
G1 X1.541 Y9.248
G1 X1.575 Y9.455
G1 X1.590 Y9.711
G1 X1.583 Y9.989
G1 X1.538 Y10.301
G1 X1.451 Y10.571
G1 X1.293 Y10.827
G1 X1.214 Y10.917
G1 X1.109 Y10.977
G1 X0.748 Y11.011
G1 X0.748 Y11.011
G1 X0.620 Y10.989
G1 X0.541 Y10.944
G0 X0.523 Y10.921
G0 X0.500 Y10.808
G0 X0.459 Y8.233
G1 X0.459 Y8.195
G1 X0.466 Y8.090
G1 X0.492 Y8.034
G1 X0.564 Y7.977
G1 X0.688 Y7.944
G1 X0.688 Y7.944
G1 X0.914 Y7.944
G1 X1.026 Y7.966
G1 X1.226 Y8.086
G1 X1.436 Y8.286
G1 X1.511 Y8.376
G1 X1.714 Y8.684
G1 X1.853 Y9.026
G1 X1.910 Y9.244
G1 X1.947 Y9.447
G1 X1.970 Y9.711
G1 X1.962 Y10.026
G1 X1.906 Y10.323
G1 X1.838 Y10.538
G1 X1.692 Y10.793
G1 X1.613 Y10.880
G1 X1.560 Y10.910
G1 X1.263 Y10.962
G1 X1.203 Y10.966
G1 X1.203 Y10.966
G1 X1.075 Y10.951
G1 X0.992 Y10.910
G0 X0.977 Y10.887
G0 X0.947 Y10.778
G0 X0.718 Y8.222
G1 X0.718 Y8.184
G1 X0.714 Y8.075
G1 X0.741 Y8.019
G1 X0.808 Y7.959
G1 X0.929 Y7.914
G1 X0.929 Y7.914
G1 X1.211 Y7.895
G1 X1.380 Y7.925
G1 X1.620 Y8.083
G1 X1.789 Y8.241
G1 X2.038 Y8.586
G1 X2.199 Y8.921
G1 X2.271 Y9.147
G1 X2.316 Y9.350
G1 X2.346 Y9.613
G1 X2.353 Y9.898
G1 X2.316 Y10.203
G1 X2.256 Y10.432
G1 X2.124 Y10.692
G1 X2.053 Y10.789
G1 X2.008 Y10.831
G1 X1.955 Y10.861
G1 X1.594 Y10.917
G1 X1.594 Y10.917
G1 X1.466 Y10.906
G1 X1.383 Y10.868
G0 X1.365 Y10.846
G0 X1.335 Y10.737
G0 X1.079 Y8.173
G1 X1.075 Y8.135
G1 X1.071 Y8.026
G1 X1.098 Y7.970
G1 X1.165 Y7.910
G1 X1.286 Y7.868
G1 X1.286 Y7.868
G1 X1.568 Y7.850
G1 X1.680 Y7.868
G1 X1.835 Y7.947
G1 X2.060 Y8.124
G1 X2.143 Y8.207
G1 X2.368 Y8.500
G1 X2.541 Y8.827
G1 X2.620 Y9.053
G1 X2.673 Y9.244
G1 X2.718 Y9.500
G1 X2.737 Y9.805
G1 X2.711 Y10.090
G1 X2.665 Y10.316
G1 X2.541 Y10.586
G1 X2.477 Y10.684
G1 X2.436 Y10.729
G1 X2.387 Y10.763
G1 X2.086 Y10.838
G1 X2.086 Y10.838
G1 X1.925 Y10.831
G1 X1.872 Y10.808
G0 X1.853 Y10.789
G0 X1.816 Y10.684
G0 X1.398 Y8.143
G1 X1.395 Y8.102
G1 X1.383 Y7.996
G1 X1.402 Y7.940
G1 X1.466 Y7.872
G1 X1.579 Y7.816
G1 X1.579 Y7.816
G1 X1.805 Y7.786
G1 X1.917 Y7.789
G1 X1.974 Y7.801
G1 X2.229 Y7.936
G1 X2.455 Y8.117
G1 X2.695 Y8.398
G1 X2.883 Y8.718
G1 X2.966 Y8.921
G1 X3.026 Y9.113
G1 X3.079 Y9.357
G1 X3.109 Y9.658
G1 X3.109 Y9.955
G1 X3.060 Y10.229
G1 X2.970 Y10.447
G1 X2.880 Y10.602
G1 X2.835 Y10.643
G1 X2.782 Y10.673
G1 X2.481 Y10.744
G1 X2.481 Y10.744
G1 X2.320 Y10.737
G1 X2.267 Y10.714
G0 X2.248 Y10.695
G0 X2.203 Y10.590
G0 X1.699 Y8.075
G1 X1.692 Y8.034
G1 X1.677 Y7.929
G1 X1.695 Y7.872
G1 X1.756 Y7.805
G1 X1.872 Y7.752
G1 X1.872 Y7.752
G1 X2.098 Y7.707
G1 X2.211 Y7.703
G1 X2.323 Y7.726
G1 X2.481 Y7.797
G1 X2.763 Y8.000
G1 X3.015 Y8.271
G1 X3.214 Y8.583
G1 X3.312 Y8.797
G1 X3.380 Y8.981
G1 X3.447 Y9.237
G1 X3.492 Y9.545
G1 X3.492 Y9.835
G1 X3.462 Y10.068
G1 X3.361 Y10.346
G1 X3.271 Y10.500
G1 X3.226 Y10.538
G1 X2.820 Y10.665
G1 X2.820 Y10.665
G1 X2.658 Y10.658
G1 X2.605 Y10.635
G0 X2.583 Y10.617
G0 X2.541 Y10.511
G0 X2.004 Y8.004
G1 X1.996 Y7.962
G1 X1.981 Y7.857
G1 X1.996 Y7.797
G1 X2.053 Y7.729
G1 X2.162 Y7.669
G1 X2.162 Y7.669
G1 X2.444 Y7.609
G1 X2.556 Y7.605
G1 X2.613 Y7.613
G1 X2.872 Y7.726
G1 X3.105 Y7.902
G1 X3.361 Y8.169
G1 X3.568 Y8.477
G1 X3.677 Y8.695
G1 X3.756 Y8.891
G1 X3.831 Y9.162
G1 X3.868 Y9.440
G1 X3.868 Y9.692
G1 X3.846 Y9.921
G1 X3.737 Y10.256
G1 X3.680 Y10.361
G1 X3.635 Y10.402
G1 X3.583 Y10.432
G1 X3.237 Y10.545
G1 X3.237 Y10.545
G1 X3.109 Y10.556
G1 X3.023 Y10.534
G0 X3.000 Y10.515
G0 X2.955 Y10.414
G0 X2.350 Y7.902
G1 X2.342 Y7.865
G1 X2.323 Y7.759
G1 X2.338 Y7.699
G1 X2.395 Y7.628
G1 X2.504 Y7.568
G1 X2.504 Y7.568
G1 X2.729 Y7.508
G1 X2.842 Y7.496
G1 X2.898 Y7.500
G1 X3.165 Y7.605
G1 X3.402 Y7.763
G1 X3.673 Y8.015
G1 X3.891 Y8.312
G1 X4.000 Y8.508
G1 X4.083 Y8.695
G1 X4.162 Y8.944
G1 X4.222 Y9.229
G1 X4.241 Y9.523
G1 X4.229 Y9.763
G1 X4.158 Y10.045
G1 X4.086 Y10.207
G1 X4.045 Y10.252
G1 X3.996 Y10.286
G1 X3.654 Y10.406
G1 X3.654 Y10.406
G1 X3.526 Y10.421
G1 X3.440 Y10.398
G0 X3.417 Y10.380
G0 X3.368 Y10.282
G0 X2.650 Y7.808
G1 X2.639 Y7.767
G1 X2.620 Y7.665
G1 X2.628 Y7.605
G1 X2.680 Y7.534
G1 X2.789 Y7.466
G1 X2.789 Y7.466
G1 X3.071 Y7.383
G1 X3.184 Y7.372
G1 X3.353 Y7.421
G1 X3.658 Y7.583
G1 X3.707 Y7.617
G1 X3.985 Y7.861
G1 X4.214 Y8.150
G1 X4.331 Y8.346
G1 X4.417 Y8.526
G1 X4.508 Y8.767
G1 X4.583 Y9.068
G1 X4.613 Y9.361
G1 X4.609 Y9.594
G1 X4.553 Y9.876
G1 X4.485 Y10.041
G1 X4.444 Y10.086
G1 X4.109 Y10.237
G1 X4.109 Y10.237
G1 X3.981 Y10.256
G1 X3.895 Y10.237
G0 X3.872 Y10.222
G0 X3.816 Y10.124
G0 X2.951 Y7.711
G1 X2.940 Y7.673
G1 X2.910 Y7.568
G1 X2.917 Y7.508
G1 X2.966 Y7.432
G1 X3.068 Y7.357
G1 X3.068 Y7.357
G1 X3.346 Y7.259
G1 X3.459 Y7.241
G1 X3.515 Y7.241
G1 X3.789 Y7.331
G1 X4.041 Y7.477
G1 X4.323 Y7.718
G1 X4.556 Y8.004
G1 X4.680 Y8.203
G1 X4.774 Y8.387
G1 X4.868 Y8.635
G1 X4.944 Y8.921
G1 X4.977 Y9.207
G1 X4.985 Y9.447
G1 X4.929 Y9.729
G1 X4.887 Y9.842
G1 X4.808 Y9.929
G1 X4.477 Y10.083
G1 X4.477 Y10.083
G1 X4.350 Y10.102
G1 X4.263 Y10.086
G0 X4.241 Y10.068
G0 X4.184 Y9.970
G0 X3.289 Y7.571
G1 X3.278 Y7.534
G1 X3.248 Y7.432
G1 X3.256 Y7.372
G1 X3.320 Y7.267
G1 X3.395 Y7.211
G1 X3.395 Y7.211
G1 X3.617 Y7.120
G1 X3.729 Y7.094
G1 X3.842 Y7.094
G1 X4.117 Y7.184
G1 X4.320 Y7.293
G1 X4.613 Y7.519
G1 X4.861 Y7.793
G1 X4.992 Y7.985
G1 X5.098 Y8.169
G1 X5.203 Y8.414
G1 X5.289 Y8.684
G1 X5.350 Y8.981
G1 X5.357 Y9.320
G1 X5.312 Y9.545
G1 X5.267 Y9.654
G1 X5.229 Y9.699
G1 X5.184 Y9.737
G1 X4.857 Y9.906
G1 X4.857 Y9.906
G1 X4.729 Y9.932
G1 X4.643 Y9.921
G0 X4.620 Y9.906
G0 X4.556 Y9.812
G0 X3.571 Y7.436
G1 X3.556 Y7.402
G1 X3.523 Y7.301
G1 X3.526 Y7.241
G1 X3.571 Y7.162
G1 X3.665 Y7.079
G1 X3.665 Y7.079
G1 X3.880 Y6.977
G1 X3.992 Y6.944
G1 X4.105 Y6.936
G1 X4.274 Y6.970
G1 X4.594 Y7.109
G1 X4.898 Y7.320
G1 X5.158 Y7.583
G1 X5.289 Y7.756
G1 X5.398 Y7.921
G1 X5.523 Y8.165
G1 X5.628 Y8.447
G1 X5.703 Y8.729
G1 X5.729 Y9.019
G1 X5.707 Y9.244
G1 X5.658 Y9.414
G1 X5.586 Y9.511
G1 X5.271 Y9.688
G1 X5.271 Y9.688
G1 X5.147 Y9.722
G1 X5.060 Y9.714
G0 X5.034 Y9.703
G0 X4.970 Y9.609
G0 X3.898 Y7.263
G1 X3.883 Y7.226
G1 X3.846 Y7.128
G1 X3.846 Y7.068
G1 X3.887 Y6.989
G1 X3.981 Y6.906
G1 X3.981 Y6.906
G1 X4.195 Y6.805
G1 X4.365 Y6.767
G1 X4.534 Y6.789
G1 X4.808 Y6.887
G1 X4.861 Y6.914
G1 X5.169 Y7.117
G1 X5.444 Y7.365
G1 X5.598 Y7.549
G1 X5.718 Y7.722
G1 X5.850 Y7.951
G1 X5.970 Y8.241
G1 X6.053 Y8.511
G1 X6.083 Y8.906
G1 X6.060 Y9.075
G1 X6.030 Y9.188
G1 X5.962 Y9.286
G1 X5.699 Y9.444
G1 X5.699 Y9.444
G1 X5.575 Y9.481
G1 X5.485 Y9.477
G0 X5.462 Y9.462
G0 X5.391 Y9.376
G0 X4.180 Y7.120
G1 X4.162 Y7.083
G1 X4.117 Y6.985
G1 X4.117 Y6.925
G1 X4.150 Y6.838
G1 X4.237 Y6.748
G1 X4.237 Y6.748
G1 X4.500 Y6.617
G1 X4.613 Y6.586
G1 X4.782 Y6.598
G1 X5.060 Y6.680
G1 X5.165 Y6.726
G1 X5.481 Y6.917
G1 X5.759 Y7.162
G1 X5.902 Y7.323
G1 X6.030 Y7.489
G1 X6.177 Y7.726
G1 X6.308 Y8.023
G1 X6.387 Y8.271
G1 X6.432 Y8.579
G1 X6.417 Y8.861
G1 X6.406 Y8.917
G1 X6.383 Y8.970
G1 X6.350 Y9.019
G1 X6.004 Y9.259
G1 X6.004 Y9.259
G1 X5.883 Y9.305
G1 X5.793 Y9.305
G0 X5.771 Y9.293
G0 X5.699 Y9.207
G0 X4.444 Y6.951
G1 X4.425 Y6.917
G1 X4.380 Y6.820
G1 X4.372 Y6.759
G1 X4.406 Y6.673
G1 X4.489 Y6.583
G1 X4.489 Y6.583
G1 X4.748 Y6.436
G1 X4.861 Y6.398
G1 X5.086 Y6.410
G1 X5.421 Y6.504
G1 X5.744 Y6.684
G1 X6.026 Y6.910
G1 X6.177 Y7.064
G1 X6.308 Y7.229
G1 X6.451 Y7.432
G1 X6.609 Y7.733
G1 X6.711 Y8.019
G1 X6.771 Y8.316
G1 X6.774 Y8.541
G1 X6.756 Y8.654
G1 X6.733 Y8.711
G1 X6.699 Y8.759
G1 X6.410 Y8.981
G1 X6.410 Y8.981
G1 X6.289 Y9.026
G1 X6.199 Y9.026
G0 X6.177 Y9.015
G0 X6.102 Y8.932
G0 X4.748 Y6.748
G1 X4.729 Y6.714
G1 X4.680 Y6.620
G1 X4.673 Y6.560
G1 X4.699 Y6.474
G1 X4.778 Y6.376
G1 X4.778 Y6.376
G1 X4.925 Y6.278
G1 X5.086 Y6.203
G1 X5.143 Y6.192
G1 X5.425 Y6.211
G1 X5.703 Y6.289
G1 X6.030 Y6.459
G1 X6.323 Y6.680
G1 X6.492 Y6.850
G1 X6.632 Y7.011
G1 X6.786 Y7.226
G1 X6.936 Y7.500
G1 X7.038 Y7.767
G1 X7.102 Y8.060
G1 X7.109 Y8.342
G1 X7.098 Y8.398
G1 X7.071 Y8.451
G1 X7.034 Y8.496
G1 X6.756 Y8.722
G1 X6.756 Y8.722
G1 X6.639 Y8.774
G1 X6.549 Y8.778
G0 X6.526 Y8.767
G0 X6.447 Y8.688
G0 X4.992 Y6.553
G1 X4.974 Y6.523
G1 X4.917 Y6.429
G1 X4.910 Y6.372
G1 X4.936 Y6.286
G1 X5.019 Y6.192
G1 X5.019 Y6.192
G1 X5.263 Y6.023
G1 X5.372 Y5.981
G1 X5.598 Y5.977
G1 X5.880 Y6.038
G1 X5.936 Y6.056
G1 X6.274 Y6.211
G1 X6.579 Y6.421
G1 X6.748 Y6.571
G1 X6.898 Y6.726
G1 X7.060 Y6.936
G1 X7.218 Y7.192
G1 X7.342 Y7.462
G1 X7.425 Y7.767
G1 X7.444 Y7.992
G1 X7.429 Y8.105
G1 X7.406 Y8.158
G1 X7.368 Y8.207
G1 X7.098 Y8.444
G1 X7.098 Y8.444
G1 X6.981 Y8.500
G1 X6.891 Y8.508
G0 X6.865 Y8.496
G0 X6.786 Y8.417
G0 X5.286 Y6.323
G1 X5.259 Y6.289
G1 X5.207 Y6.199
G1 X5.195 Y6.143
G1 X5.218 Y6.056
G1 X5.293 Y5.959
G1 X5.293 Y5.959
G1 X5.485 Y5.823
G1 X5.594 Y5.778
G1 X5.876 Y5.763
G1 X6.102 Y5.793
G1 X6.158 Y5.808
G1 X6.500 Y5.944
G1 X6.816 Y6.135
G1 X6.989 Y6.282
G1 X7.132 Y6.417
G1 X7.323 Y6.632
G1 X7.508 Y6.914
G1 X7.632 Y7.143
G1 X7.722 Y7.421
G1 X7.759 Y7.703
G1 X7.759 Y7.759
G1 X7.748 Y7.816
G1 X7.726 Y7.868
G1 X7.462 Y8.120
G1 X7.462 Y8.120
G1 X7.353 Y8.184
G1 X7.263 Y8.195
G0 X7.237 Y8.188
G0 X7.150 Y8.117
G0 X5.485 Y6.162
G1 X5.462 Y6.132
G1 X5.398 Y6.045
G1 X5.383 Y5.985
G1 X5.398 Y5.898
G1 X5.466 Y5.793
G1 X5.466 Y5.793
G1 X5.699 Y5.602
G1 X5.805 Y5.545
G1 X5.917 Y5.515
G1 X6.199 Y5.515
G1 X6.425 Y5.553
G1 X6.771 Y5.688
G1 X7.060 Y5.853
G1 X7.248 Y5.992
G1 X7.410 Y6.143
G1 X7.583 Y6.327
G1 X7.778 Y6.605
G1 X7.906 Y6.831
G1 X8.011 Y7.090
G1 X8.060 Y7.316
G1 X8.068 Y7.429
G1 X8.060 Y7.485
G1 X8.041 Y7.541
G1 X7.756 Y7.842
G1 X7.756 Y7.842
G1 X7.650 Y7.910
G1 X7.564 Y7.925
G0 X7.538 Y7.921
G0 X7.451 Y7.850
G0 X5.748 Y5.906
G1 X5.718 Y5.876
G1 X5.654 Y5.793
G1 X5.639 Y5.733
G1 X5.654 Y5.647
G1 X5.722 Y5.541
G1 X5.722 Y5.541
G1 X5.898 Y5.380
G1 X5.996 Y5.312
G1 X6.049 Y5.286
G1 X6.274 Y5.252
G1 X6.556 Y5.267
G1 X6.613 Y5.278
G1 X6.981 Y5.305
G1 X7.327 Y5.440
G1 X7.530 Y5.602
G1 X7.718 Y5.793
G1 X7.906 Y6.008
G1 X8.117 Y6.312
G1 X8.282 Y6.643
G1 X8.357 Y6.925
G1 X8.376 Y7.094
G1 X8.368 Y7.150
G1 X8.350 Y7.207
G1 X8.068 Y7.523
G1 X8.068 Y7.523
G1 X7.962 Y7.594
G1 X7.876 Y7.617
G0 X7.850 Y7.609
G0 X7.759 Y7.541
G0 X6.008 Y5.639
G1 X5.981 Y5.613
G1 X5.914 Y5.526
G1 X5.895 Y5.470
G1 X5.906 Y5.383
G1 X5.966 Y5.278
G1 X5.966 Y5.278
G1 X6.184 Y5.075
G1 X6.440 Y4.921
G1 X6.571 Y4.797
G1 X6.714 Y4.602
G1 X6.850 Y4.327
G1 X7.015 Y3.797
G1 X7.357 Y3.071
G1 X7.376 Y3.015
G1 X7.376 Y3.015
G1 X7.402 Y2.955
G1 X7.440 Y2.906
G1 X7.489 Y2.865
G0 Z5.000
G0 X7.489 Y2.865
G0 X6.132 Y5.177
G1 Z-3.000
G1 X6.132 Y5.177
G1 X6.139 Y5.117
G1 X6.162 Y5.056
G1 X6.199 Y5.004
G1 X6.199 Y5.004
G1 X6.459 Y4.669
G1 X6.459 Y4.669
G1 X6.500 Y4.620
G1 X6.549 Y4.579
G1 X6.605 Y4.549
G1 X6.665 Y4.530
G0 Z5.000
G0 X6.665 Y4.530
G0 X10.718 Y2.297
G1 Z-3.000
G1 X10.718 Y2.297
G1 X10.744 Y2.357
G1 X10.759 Y2.421
G1 X10.759 Y2.485
G1 X10.744 Y2.549
G1 X10.744 Y2.549
G1 X10.669 Y2.774
G1 X10.586 Y2.932
G1 X10.515 Y3.026
G1 X10.274 Y3.211
G1 X9.944 Y3.361
G1 X9.586 Y3.474
G1 X9.282 Y3.688
G1 X9.120 Y3.895
G1 X9.004 Y4.117
G1 X8.932 Y4.316
G1 X8.865 Y4.624
G1 X8.835 Y4.910
G1 X8.831 Y5.173
G1 X8.883 Y6.391
G1 X8.853 Y6.560
G1 X8.827 Y6.613
G1 X8.417 Y7.128
G1 X8.417 Y7.128
G1 X8.316 Y7.207
G1 X8.263 Y7.229
G1 X8.241 Y7.229
G0 X8.226 Y7.222
G0 X8.214 Y7.132
G0 X8.523 Y4.485
G0 X8.827 Y3.816
G0 X9.282 Y3.282
G0 X9.523 Y3.150
G0 X10.444 Y2.714
G1 X10.474 Y2.703
G1 X10.556 Y2.669
G1 X10.602 Y2.673
G1 X10.632 Y2.711
G1 X10.650 Y2.797
G1 X10.643 Y2.895
G1 X10.643 Y2.895
G1 X10.571 Y3.120
G1 X10.481 Y3.274
G1 X10.139 Y3.695
G1 X9.962 Y4.004
G1 X9.752 Y4.553
G1 X9.556 Y5.455
G1 X9.519 Y5.568
G1 X9.045 Y6.320
G1 X8.865 Y6.564
G1 X8.865 Y6.564
G1 X8.763 Y6.643
G1 X8.688 Y6.669
G0 X8.673 Y6.662
G0 X8.673 Y6.571
G0 X8.929 Y5.549
G0 X9.816 Y3.624
G0 X10.064 Y3.286
G0 X10.365 Y3.083
G1 X10.391 Y3.068
G1 X10.466 Y3.023
G1 X10.508 Y3.023
G1 X10.534 Y3.056
G1 X10.549 Y3.177
G1 X10.545 Y3.241
G1 X10.545 Y3.241
G1 X10.481 Y3.406
G1 X10.154 Y4.308
G1 X9.571 Y5.481
G0 Z5.000
(Helix to depth: -6.000000)
G0 Z5.000
G0 X10.770 Y2.101 Z5.000
G0 X10.770 Y2.101 Z3.000
G1 X10.770 Y2.101 Z-3.000
G1 X10.770 Y2.101 Z-3.000
G1 X10.604 Y2.342 Z-3.026
G1 X10.394 Y2.545 Z-3.052
G1 X10.149 Y2.704 Z-3.077
G1 X9.878 Y2.812 Z-3.103
G1 X9.591 Y2.865 Z-3.129
G1 X9.298 Y2.860 Z-3.155
G1 X9.013 Y2.799 Z-3.180
G1 X8.745 Y2.683 Z-3.206
G1 X8.504 Y2.518 Z-3.232
G1 X8.301 Y2.308 Z-3.258
G1 X8.142 Y2.063 Z-3.283
G1 X8.034 Y1.791 Z-3.309
G1 X7.981 Y1.504 Z-3.335
G1 X7.986 Y1.212 Z-3.361
G1 X8.047 Y0.926 Z-3.387
G1 X8.163 Y0.658 Z-3.412
G1 X8.328 Y0.418 Z-3.438
G1 X8.538 Y0.214 Z-3.464
G1 X8.783 Y0.056 Z-3.490
G1 X9.055 Y-0.052 Z-3.515
G1 X9.342 Y-0.105 Z-3.541
G1 X9.634 Y-0.101 Z-3.567
G1 X9.919 Y-0.040 Z-3.593
G1 X10.188 Y0.076 Z-3.618
G1 X10.428 Y0.242 Z-3.644
G1 X10.632 Y0.451 Z-3.670
G1 X10.790 Y0.697 Z-3.696
G1 X10.898 Y0.968 Z-3.721
G1 X10.951 Y1.255 Z-3.747
G1 X10.947 Y1.547 Z-3.773
G1 X10.886 Y1.833 Z-3.799
G1 X10.770 Y2.101 Z-3.825
G1 X10.604 Y2.342 Z-3.850
G1 X10.394 Y2.545 Z-3.876
G1 X10.149 Y2.704 Z-3.902
G1 X9.878 Y2.812 Z-3.928
G1 X9.591 Y2.865 Z-3.953
G1 X9.298 Y2.860 Z-3.979
G1 X9.013 Y2.799 Z-4.005
G1 X8.745 Y2.683 Z-4.031
G1 X8.504 Y2.518 Z-4.056
G1 X8.301 Y2.308 Z-4.082
G1 X8.142 Y2.063 Z-4.108
G1 X8.034 Y1.791 Z-4.134
G1 X7.981 Y1.504 Z-4.160
G1 X7.986 Y1.212 Z-4.185
G1 X8.047 Y0.926 Z-4.211
G1 X8.163 Y0.658 Z-4.237
G1 X8.328 Y0.418 Z-4.263
G1 X8.538 Y0.214 Z-4.288
G1 X8.783 Y0.056 Z-4.314
G1 X9.055 Y-0.052 Z-4.340
G1 X9.342 Y-0.105 Z-4.366
G1 X9.634 Y-0.101 Z-4.391
G1 X9.919 Y-0.040 Z-4.417
G1 X10.188 Y0.076 Z-4.443
G1 X10.428 Y0.242 Z-4.469
G1 X10.632 Y0.451 Z-4.495
G1 X10.790 Y0.697 Z-4.520
G1 X10.898 Y0.968 Z-4.546
G1 X10.951 Y1.255 Z-4.572
G1 X10.947 Y1.547 Z-4.598
G1 X10.886 Y1.833 Z-4.623
G1 X10.770 Y2.101 Z-4.649
G1 X10.604 Y2.342 Z-4.675
G1 X10.394 Y2.545 Z-4.701
G1 X10.149 Y2.704 Z-4.726
G1 X9.878 Y2.812 Z-4.752
G1 X9.591 Y2.865 Z-4.778
G1 X9.298 Y2.860 Z-4.804
G1 X9.013 Y2.799 Z-4.829
G1 X8.745 Y2.683 Z-4.855
G1 X8.504 Y2.518 Z-4.881
G1 X8.301 Y2.308 Z-4.907
G1 X8.142 Y2.063 Z-4.933
G1 X8.034 Y1.791 Z-4.958
G1 X7.981 Y1.504 Z-4.984
G1 X7.986 Y1.212 Z-5.010
G1 X8.047 Y0.926 Z-5.036
G1 X8.163 Y0.658 Z-5.061
G1 X8.328 Y0.418 Z-5.087
G1 X8.538 Y0.214 Z-5.113
G1 X8.783 Y0.056 Z-5.139
G1 X9.055 Y-0.052 Z-5.164
G1 X9.342 Y-0.105 Z-5.190
G1 X9.634 Y-0.101 Z-5.216
G1 X9.919 Y-0.040 Z-5.242
G1 X10.188 Y0.076 Z-5.268
G1 X10.428 Y0.242 Z-5.293
G1 X10.632 Y0.451 Z-5.319
G1 X10.790 Y0.697 Z-5.345
G1 X10.898 Y0.968 Z-5.371
G1 X10.951 Y1.255 Z-5.396
G1 X10.947 Y1.547 Z-5.422
G1 X10.886 Y1.833 Z-5.448
G1 X10.770 Y2.101 Z-5.474
G1 X10.604 Y2.342 Z-5.499
G1 X10.394 Y2.545 Z-5.525
G1 X10.149 Y2.704 Z-5.551
G1 X9.878 Y2.812 Z-5.577
G1 X9.591 Y2.865 Z-5.603
G1 X9.298 Y2.860 Z-5.628
G1 X9.013 Y2.799 Z-5.654
G1 X8.745 Y2.683 Z-5.680
G1 X8.504 Y2.518 Z-5.706
G1 X8.301 Y2.308 Z-5.731
G1 X8.142 Y2.063 Z-5.757
G1 X8.034 Y1.791 Z-5.783
G1 X7.981 Y1.504 Z-5.809
G1 X7.986 Y1.212 Z-5.834
G1 X8.047 Y0.926 Z-5.860
G1 X8.163 Y0.658 Z-5.886
G1 X8.328 Y0.418 Z-5.912
G1 X8.538 Y0.214 Z-5.937
G1 X8.783 Y0.056 Z-5.963
G1 X9.055 Y-0.052 Z-5.989
G1 X9.342 Y-0.105 Z-6.000
G1 X9.634 Y-0.101 Z-6.000
G1 X9.919 Y-0.040 Z-6.000
G1 X10.188 Y0.076 Z-6.000
G1 X10.428 Y0.242 Z-6.000
G1 X10.632 Y0.451 Z-6.000
G1 X10.790 Y0.697 Z-6.000
G1 X10.898 Y0.968 Z-6.000
G1 X10.951 Y1.255 Z-6.000
G1 X10.947 Y1.547 Z-6.000
G1 X10.886 Y1.833 Z-6.000
G1 X10.770 Y2.101 Z-6.000
G1 X10.604 Y2.342 Z-6.000
G1 X10.394 Y2.545 Z-6.000
G1 X10.149 Y2.704 Z-6.000
G1 X9.878 Y2.812 Z-6.000
G1 X9.591 Y2.865 Z-6.000
G1 X9.298 Y2.860 Z-6.000
G1 X9.013 Y2.799 Z-6.000
G1 X8.745 Y2.683 Z-6.000
G1 X8.504 Y2.518 Z-6.000
G1 X8.301 Y2.308 Z-6.000
G1 X8.142 Y2.063 Z-6.000
G1 X8.034 Y1.791 Z-6.000
G1 X7.981 Y1.504 Z-6.000
G1 X7.986 Y1.212 Z-6.000
G1 X8.047 Y0.926 Z-6.000
G1 X8.163 Y0.658 Z-6.000
G1 X8.328 Y0.418 Z-6.000
G1 X8.538 Y0.214 Z-6.000
G1 X8.783 Y0.056 Z-6.000
G1 X9.055 Y-0.052 Z-6.000
(Adaptive - depth: -6.000000)
G1 X9.466 Y-0.117
G1 X9.508 Y-0.162
G1 X9.613 Y-0.207
G1 X9.838 Y-0.241
G1 X9.951 Y-0.233
G1 X10.312 Y-0.150
G1 X10.541 Y-0.030
G1 X10.741 Y0.139
G1 X10.955 Y0.410
G1 X11.015 Y0.508
G1 X11.060 Y0.673
G1 X11.056 Y1.857
G1 X11.049 Y1.914
G1 X10.887 Y2.158
G1 X10.680 Y2.583
G1 X10.609 Y2.677
G1 X10.376 Y2.868
G1 X10.105 Y3.015
G1 X9.756 Y3.143
G1 X9.383 Y3.184
G1 X9.199 Y3.173
G1 X9.041 Y3.143
G1 X8.861 Y3.094
G1 X8.598 Y2.985
G1 X8.372 Y2.842
G1 X8.211 Y2.711
G1 X8.064 Y2.556
G1 X7.835 Y2.214
G1 X7.759 Y2.045
G1 X7.744 Y1.925
G1 X7.759 Y1.865
G1 X7.759 Y1.865
G1 X7.808 Y1.748
G1 X7.846 Y1.695
G1 X7.865 Y1.669
G0 X7.880 Y1.639
G0 X7.895 Y1.609
G1 X7.906 Y1.575
G1 X7.925 Y1.474
G1 X7.891 Y1.207
G1 X7.891 Y1.207
G1 X7.989 Y0.485
G1 X8.045 Y0.308
G1 X8.071 Y0.256
G1 X8.353 Y-0.045
G1 X8.489 Y-0.150
G1 X8.805 Y-0.342
G1 X9.143 Y-0.489
G1 X9.421 Y-0.560
G1 X9.647 Y-0.579
G1 X10.015 Y-0.571
G1 X10.376 Y-0.481
G1 X10.549 Y-0.398
G1 X10.677 Y-0.323
G1 X10.906 Y-0.124
G1 X11.026 Y0.011
G1 X11.049 Y0.064
G1 X11.060 Y0.120
G1 X11.060 Y0.571
G1 X11.060 Y0.571
G1 X11.030 Y0.688
G1 X10.977 Y0.759
G0 X10.955 Y0.774
G0 X10.842 Y0.786
G0 X8.233 Y0.609
G1 X8.195 Y0.609
G1 X8.090 Y0.594
G1 X8.041 Y0.564
G1 X7.996 Y0.489
G1 X7.981 Y0.372
G1 X7.981 Y0.372
G1 X8.023 Y0.071
G1 X8.079 Y-0.098
G1 X8.218 Y-0.282
G1 X8.474 Y-0.511
G1 X8.786 Y-0.711
G1 X9.128 Y-0.850
G1 X9.357 Y-0.906
G1 X9.568 Y-0.932
G1 X9.782 Y-0.940
G1 X10.060 Y-0.921
G1 X10.353 Y-0.853
G1 X10.564 Y-0.774
G1 X10.756 Y-0.677
G1 X10.944 Y-0.523
G1 X11.026 Y-0.432
G1 X11.053 Y-0.376
G1 X11.060 Y-0.256
G1 X11.060 Y-0.256
G1 X11.030 Y-0.128
G1 X10.977 Y-0.049
G0 X10.955 Y-0.034
G0 X10.842 Y-0.004
G0 X8.259 Y0.222
G1 X8.222 Y0.226
G1 X8.147 Y0.226
G1 X8.083 Y0.207
G1 X8.038 Y0.158
G1 X8.000 Y0.015
G1 X8.000 Y0.015
G1 X8.015 Y-0.267
G1 X8.041 Y-0.380
G1 X8.162 Y-0.575
G1 X8.398 Y-0.823
G1 X8.444 Y-0.861
G1 X8.752 Y-1.064
G1 X9.094 Y-1.207
G1 X9.305 Y-1.259
G1 X9.496 Y-1.289
G1 X9.741 Y-1.308
G1 X10.049 Y-1.297
G1 X10.335 Y-1.237
G1 X10.541 Y-1.169
G1 X10.752 Y-1.071
G1 X10.985 Y-0.880
G1 X11.026 Y-0.835
G1 X11.053 Y-0.778
G1 X11.060 Y-0.658
G1 X11.060 Y-0.658
G1 X11.030 Y-0.530
G1 X10.977 Y-0.451
G0 X10.955 Y-0.432
G0 X10.842 Y-0.402
G0 X8.267 Y-0.128
G1 X8.229 Y-0.124
G1 X8.124 Y-0.120
G1 X8.068 Y-0.143
G1 X8.015 Y-0.218
G1 X7.989 Y-0.342
G1 X7.989 Y-0.342
G1 X7.985 Y-0.568
G1 X8.019 Y-0.737
G1 X8.177 Y-0.977
G1 X8.421 Y-1.218
G1 X8.729 Y-1.425
G1 X9.068 Y-1.571
G1 X9.282 Y-1.628
G1 X9.474 Y-1.662
G1 X9.726 Y-1.684
G1 X10.030 Y-1.677
G1 X10.320 Y-1.624
G1 X10.538 Y-1.553
G1 X10.744 Y-1.462
G1 X10.891 Y-1.361
G1 X11.023 Y-1.233
G1 X11.049 Y-1.180
G1 X11.060 Y-1.120
G1 X11.060 Y-1.120
G1 X11.030 Y-0.992
G1 X10.977 Y-0.914
G0 X10.955 Y-0.895
G0 X10.846 Y-0.861
G0 X8.252 Y-0.440
G1 X8.214 Y-0.436
G1 X8.109 Y-0.429
G1 X8.053 Y-0.447
G1 X7.996 Y-0.519
G1 X7.959 Y-0.639
G1 X7.959 Y-0.639
G1 X7.955 Y-0.921
G1 X7.989 Y-1.090
G1 X8.143 Y-1.335
G1 X8.301 Y-1.504
G1 X8.647 Y-1.759
G1 X8.981 Y-1.914
G1 X9.192 Y-1.977
G1 X9.391 Y-2.023
G1 X9.650 Y-2.053
G1 X9.951 Y-2.056
G1 X10.241 Y-2.030
G1 X10.515 Y-1.951
G1 X10.778 Y-1.816
G1 X10.966 Y-1.669
G1 X11.008 Y-1.628
G1 X11.060 Y-1.519
G1 X11.060 Y-1.459
G1 X11.060 Y-1.459
G1 X11.030 Y-1.331
G1 X10.977 Y-1.252
G0 X10.955 Y-1.233
G0 X10.846 Y-1.199
G0 X8.214 Y-0.797
G1 X8.177 Y-0.789
G1 X8.071 Y-0.786
G1 X8.015 Y-0.808
G1 X7.959 Y-0.880
G1 X7.925 Y-1.000
G1 X7.925 Y-1.000
G1 X7.906 Y-1.282
G1 X7.925 Y-1.395
G1 X8.026 Y-1.594
G1 X8.256 Y-1.857
G1 X8.553 Y-2.079
G1 X8.880 Y-2.252
G1 X9.120 Y-2.335
G1 X9.320 Y-2.387
G1 X9.586 Y-2.429
G1 X9.880 Y-2.444
G1 X10.169 Y-2.417
G1 X10.398 Y-2.365
G1 X10.823 Y-2.154
G1 X10.992 Y-1.981
G1 X11.060 Y-1.883
G1 X11.060 Y-1.583
G1 X11.060 Y-1.583
G1 X11.030 Y-1.455
G1 X10.977 Y-1.376
G0 X10.955 Y-1.361
G0 X10.842 Y-1.335
G0 X8.180 Y-1.139
G1 X8.143 Y-1.139
G1 X8.034 Y-1.139
G1 X7.977 Y-1.165
G1 X7.917 Y-1.233
G1 X7.872 Y-1.353
G1 X7.872 Y-1.353
G1 X7.846 Y-1.635
G1 X7.850 Y-1.692
G1 X7.865 Y-1.748
G1 X8.049 Y-2.038
G1 X8.203 Y-2.211
G1 X8.492 Y-2.440
G1 X8.820 Y-2.617
G1 X9.026 Y-2.695
G1 X9.222 Y-2.756
G1 X9.496 Y-2.805
G1 X9.789 Y-2.823
G1 X10.068 Y-2.805
G1 X10.308 Y-2.767
G1 X10.586 Y-2.665
G1 X10.692 Y-2.613
G1 X10.733 Y-2.568
G1 X10.789 Y-2.391
G1 X10.789 Y-2.391
G1 X10.812 Y-2.263
G1 X10.805 Y-2.203
G1 X10.793 Y-2.177
G0 X10.778 Y-2.158
G0 X10.677 Y-2.109
G0 X8.135 Y-1.481
G1 X8.098 Y-1.474
G1 X7.992 Y-1.455
G1 X7.936 Y-1.474
G1 X7.868 Y-1.534
G1 X7.808 Y-1.647
G1 X7.808 Y-1.647
G1 X7.774 Y-1.929
G1 X7.789 Y-2.041
G1 X7.857 Y-2.199
G1 X8.060 Y-2.481
G1 X8.098 Y-2.523
G1 X8.376 Y-2.767
G1 X8.692 Y-2.955
G1 X8.895 Y-3.041
G1 X9.086 Y-3.102
G1 X9.331 Y-3.158
G1 X9.635 Y-3.199
G1 X9.959 Y-3.203
G1 X10.305 Y-3.143
G1 X10.526 Y-3.053
G1 X10.575 Y-3.019
G1 X10.617 Y-2.974
G1 X10.662 Y-2.865
G1 X10.726 Y-2.624
G1 X10.726 Y-2.624
G1 X10.729 Y-2.496
G1 X10.703 Y-2.410
G0 X10.684 Y-2.387
G0 X10.579 Y-2.346
G0 X8.064 Y-1.771
G1 X8.026 Y-1.763
G1 X7.921 Y-1.748
G1 X7.865 Y-1.763
G1 X7.797 Y-1.827
G1 X7.737 Y-1.940
G1 X7.737 Y-1.940
G1 X7.684 Y-2.278
G1 X7.688 Y-2.335
G1 X7.805 Y-2.598
G1 X7.977 Y-2.831
G1 X8.244 Y-3.086
G1 X8.556 Y-3.286
G1 X8.759 Y-3.383
G1 X8.955 Y-3.459
G1 X9.211 Y-3.530
G1 X9.519 Y-3.579
G1 X9.812 Y-3.586
G1 X10.113 Y-3.553
G1 X10.391 Y-3.455
G1 X10.444 Y-3.429
G1 X10.485 Y-3.383
G1 X10.624 Y-2.985
G1 X10.624 Y-2.985
G1 X10.635 Y-2.857
G1 X10.613 Y-2.767
G0 X10.594 Y-2.748
G0 X10.492 Y-2.699
G0 X8.000 Y-2.079
G1 X7.962 Y-2.071
G1 X7.857 Y-2.053
G1 X7.797 Y-2.064
G1 X7.726 Y-2.120
G1 X7.658 Y-2.229
G1 X7.658 Y-2.229
G1 X7.598 Y-2.455
G1 X7.586 Y-2.568
G1 X7.602 Y-2.680
G1 X7.718 Y-2.944
G1 X7.850 Y-3.132
G1 X8.105 Y-3.398
G1 X8.406 Y-3.613
G1 X8.609 Y-3.722
G1 X8.801 Y-3.805
G1 X9.053 Y-3.883
G1 X9.338 Y-3.940
G1 X9.624 Y-3.966
G1 X9.906 Y-3.955
G1 X10.188 Y-3.883
G1 X10.297 Y-3.835
G1 X10.342 Y-3.793
G1 X10.372 Y-3.741
G1 X10.466 Y-3.455
G1 X10.466 Y-3.455
G1 X10.477 Y-3.327
G1 X10.455 Y-3.237
G0 X10.436 Y-3.214
G0 X10.338 Y-3.162
G0 X7.898 Y-2.376
G1 X7.861 Y-2.365
G1 X7.756 Y-2.338
G1 X7.699 Y-2.350
G1 X7.628 Y-2.402
G1 X7.560 Y-2.511
G1 X7.560 Y-2.511
G1 X7.481 Y-2.793
G1 X7.470 Y-2.906
G1 X7.485 Y-3.019
G1 X7.598 Y-3.278
G1 X7.729 Y-3.470
G1 X7.981 Y-3.737
G1 X8.278 Y-3.959
G1 X8.485 Y-4.071
G1 X8.673 Y-4.158
G1 X8.925 Y-4.244
G1 X9.226 Y-4.312
G1 X9.526 Y-4.338
G1 X9.831 Y-4.323
G1 X10.056 Y-4.263
G1 X10.165 Y-4.214
G1 X10.207 Y-4.173
G1 X10.237 Y-4.120
G1 X10.342 Y-3.838
G1 X10.342 Y-3.838
G1 X10.353 Y-3.711
G1 X10.331 Y-3.620
G0 X10.316 Y-3.598
G0 X10.214 Y-3.545
G0 X7.789 Y-2.726
G1 X7.752 Y-2.714
G1 X7.647 Y-2.688
G1 X7.590 Y-2.695
G1 X7.515 Y-2.748
G1 X7.440 Y-2.850
G1 X7.440 Y-2.850
G1 X7.365 Y-3.075
G1 X7.342 Y-3.244
G1 X7.346 Y-3.301
G1 X7.421 Y-3.515
G1 X7.602 Y-3.808
G1 X7.850 Y-4.083
G1 X8.143 Y-4.308
G1 X8.350 Y-4.432
G1 X8.553 Y-4.523
G1 X8.767 Y-4.602
G1 X9.083 Y-4.680
G1 X9.402 Y-4.722
G1 X9.684 Y-4.711
G1 X9.910 Y-4.654
G1 X9.966 Y-4.632
G1 X10.011 Y-4.594
G1 X10.049 Y-4.545
G1 X10.199 Y-4.211
G1 X10.199 Y-4.211
G1 X10.218 Y-4.083
G1 X10.203 Y-3.996
G0 X10.184 Y-3.974
G0 X10.086 Y-3.917
G0 X7.658 Y-3.068
G1 X7.620 Y-3.053
G1 X7.515 Y-3.026
G1 X7.455 Y-3.034
G1 X7.380 Y-3.083
G1 X7.305 Y-3.184
G1 X7.305 Y-3.184
G1 X7.229 Y-3.406
G1 X7.211 Y-3.519
G1 X7.211 Y-3.575
G1 X7.301 Y-3.850
G1 X7.444 Y-4.102
G1 X7.680 Y-4.387
G1 X7.962 Y-4.628
G1 X8.162 Y-4.756
G1 X8.342 Y-4.853
G1 X8.590 Y-4.955
G1 X8.883 Y-5.041
G1 X9.184 Y-5.090
G1 X9.436 Y-5.098
G1 X9.718 Y-5.045
G1 X9.774 Y-5.026
G1 X9.823 Y-4.989
G1 X10.019 Y-4.613
G1 X10.019 Y-4.613
G1 X10.045 Y-4.485
G1 X10.034 Y-4.398
G0 X10.019 Y-4.376
G0 X9.925 Y-4.316
G0 X7.530 Y-3.350
G1 X7.492 Y-3.335
G1 X7.391 Y-3.301
G1 X7.331 Y-3.308
G1 X7.256 Y-3.357
G1 X7.180 Y-3.459
G1 X7.180 Y-3.459
G1 X7.079 Y-3.737
G1 X7.064 Y-3.850
G1 X7.120 Y-4.075
G1 X7.263 Y-4.387
G1 X7.489 Y-4.680
G1 X7.759 Y-4.932
G1 X7.940 Y-5.064
G1 X8.120 Y-5.169
G1 X8.350 Y-5.278
G1 X8.643 Y-5.383
G1 X8.951 Y-5.455
G1 X9.241 Y-5.474
G1 X9.466 Y-5.447
G1 X9.575 Y-5.410
G1 X9.624 Y-5.376
G1 X9.823 Y-5.000
G1 X9.823 Y-5.000
G1 X9.853 Y-4.842
G1 X9.842 Y-4.786
G0 X9.831 Y-4.759
G0 X9.737 Y-4.695
G0 X7.402 Y-3.635
G1 X7.365 Y-3.620
G1 X7.267 Y-3.583
G1 X7.207 Y-3.586
G1 X7.128 Y-3.628
G1 X7.045 Y-3.726
G1 X7.045 Y-3.726
G1 X6.947 Y-3.936
G1 X6.914 Y-4.049
G1 X6.906 Y-4.162
G1 X6.981 Y-4.444
G1 X7.079 Y-4.654
G1 X7.286 Y-4.959
G1 X7.545 Y-5.222
G1 X7.726 Y-5.365
G1 X7.898 Y-5.477
G1 X8.128 Y-5.602
G1 X8.436 Y-5.729
G1 X8.741 Y-5.805
G1 X8.974 Y-5.835
G1 X9.256 Y-5.812
G1 X9.312 Y-5.801
G1 X9.365 Y-5.778
G1 X9.414 Y-5.744
G1 X9.598 Y-5.432
G1 X9.598 Y-5.432
G1 X9.632 Y-5.308
G1 X9.624 Y-5.222
G0 X9.613 Y-5.195
G0 X9.523 Y-5.128
G0 X7.252 Y-3.921
G1 X7.214 Y-3.902
G1 X7.120 Y-3.857
G1 X7.060 Y-3.857
G1 X6.981 Y-3.895
G1 X6.898 Y-3.989
G1 X6.898 Y-3.989
G1 X6.771 Y-4.252
G1 X6.741 Y-4.365
G1 X6.737 Y-4.421
G1 X6.782 Y-4.647
G1 X6.883 Y-4.917
G1 X7.075 Y-5.233
G1 X7.320 Y-5.511
G1 X7.496 Y-5.662
G1 X7.658 Y-5.778
G1 X7.880 Y-5.906
G1 X8.150 Y-6.034
G1 X8.470 Y-6.143
G1 X8.763 Y-6.188
G1 X9.045 Y-6.173
G1 X9.102 Y-6.162
G1 X9.154 Y-6.132
G1 X9.195 Y-6.090
G1 X9.361 Y-5.835
G1 X9.361 Y-5.835
G1 X9.402 Y-5.711
G1 X9.402 Y-5.620
G0 X9.391 Y-5.598
G0 X9.305 Y-5.526
G0 X7.079 Y-4.241
G1 X7.041 Y-4.222
G1 X6.947 Y-4.177
G1 X6.887 Y-4.173
G1 X6.801 Y-4.207
G1 X6.711 Y-4.293
G1 X6.711 Y-4.293
G1 X6.602 Y-4.504
G1 X6.568 Y-4.617
G1 X6.564 Y-4.786
G1 X6.609 Y-5.011
G1 X6.688 Y-5.226
G1 X6.880 Y-5.541
G1 X7.120 Y-5.823
G1 X7.289 Y-5.974
G1 X7.459 Y-6.102
G1 X7.677 Y-6.241
G1 X7.974 Y-6.387
G1 X8.267 Y-6.481
G1 X8.617 Y-6.530
G1 X8.842 Y-6.519
G1 X8.944 Y-6.459
G1 X9.150 Y-6.158
G1 X9.150 Y-6.158
G1 X9.192 Y-6.034
G1 X9.192 Y-5.944
G0 X9.180 Y-5.921
G0 X9.094 Y-5.846
G0 X6.914 Y-4.504
G1 X6.876 Y-4.485
G1 X6.782 Y-4.436
G1 X6.722 Y-4.432
G1 X6.635 Y-4.462
G1 X6.545 Y-4.545
G1 X6.545 Y-4.545
G1 X6.391 Y-4.797
G1 X6.353 Y-4.910
G1 X6.346 Y-4.966
G1 X6.387 Y-5.248
G1 X6.459 Y-5.470
G1 X6.635 Y-5.797
G1 X6.861 Y-6.090
G1 X7.019 Y-6.248
G1 X7.184 Y-6.387
G1 X7.395 Y-6.534
G1 X7.665 Y-6.680
G1 X7.944 Y-6.793
G1 X8.222 Y-6.865
G1 X8.447 Y-6.880
G1 X8.560 Y-6.872
G1 X8.617 Y-6.853
G1 X8.665 Y-6.823
G1 X8.883 Y-6.538
G1 X8.883 Y-6.538
G1 X8.932 Y-6.421
G1 X8.932 Y-6.331
G0 X8.921 Y-6.308
G0 X8.842 Y-6.229
G0 X6.695 Y-4.801
G1 X6.662 Y-4.778
G1 X6.571 Y-4.729
G1 X6.511 Y-4.722
G1 X6.425 Y-4.752
G1 X6.335 Y-4.835
G1 X6.335 Y-4.835
G1 X6.207 Y-5.034
G1 X6.165 Y-5.143
G1 X6.150 Y-5.312
G1 X6.214 Y-5.650
G1 X6.233 Y-5.707
G1 X6.387 Y-6.041
G1 X6.598 Y-6.342
G1 X6.752 Y-6.511
G1 X6.902 Y-6.654
G1 X7.113 Y-6.816
G1 X7.376 Y-6.977
G1 X7.650 Y-7.105
G1 X7.929 Y-7.184
G1 X8.267 Y-7.211
G1 X8.323 Y-7.195
G1 X8.376 Y-7.169
G1 X8.609 Y-6.891
G1 X8.609 Y-6.891
G1 X8.665 Y-6.774
G1 X8.673 Y-6.684
G0 X8.662 Y-6.658
G0 X8.583 Y-6.579
G0 X6.511 Y-5.060
G1 X6.477 Y-5.038
G1 X6.387 Y-4.981
G1 X6.331 Y-4.970
G1 X6.244 Y-4.996
G1 X6.147 Y-5.071
G1 X6.147 Y-5.071
G1 X6.008 Y-5.267
G1 X5.959 Y-5.376
G1 X5.944 Y-5.432
G1 X5.940 Y-5.658
G1 X6.008 Y-5.996
G1 X6.158 Y-6.335
G1 X6.365 Y-6.643
G1 X6.523 Y-6.820
G1 X6.673 Y-6.962
G1 X6.876 Y-7.128
G1 X7.154 Y-7.308
G1 X7.432 Y-7.432
G1 X7.718 Y-7.511
G1 X8.000 Y-7.530
G1 X8.056 Y-7.511
G1 X8.109 Y-7.481
G1 X8.342 Y-7.211
G1 X8.342 Y-7.211
G1 X8.402 Y-7.098
G1 X8.414 Y-7.008
G0 X8.406 Y-6.981
G0 X8.331 Y-6.898
G0 X6.323 Y-5.305
G1 X6.289 Y-5.282
G1 X6.203 Y-5.222
G1 X6.143 Y-5.211
G1 X6.030 Y-5.244
G1 X5.951 Y-5.297
G1 X5.951 Y-5.297
G1 X5.771 Y-5.538
G1 X5.726 Y-5.647
G1 X5.703 Y-5.816
G1 X5.726 Y-6.098
G1 X5.748 Y-6.211
G1 X5.883 Y-6.553
G1 X6.056 Y-6.846
G1 X6.195 Y-7.026
G1 X6.338 Y-7.184
G1 X6.545 Y-7.368
G1 X6.789 Y-7.545
G1 X7.064 Y-7.692
G1 X7.293 Y-7.789
G1 X7.575 Y-7.846
G1 X7.688 Y-7.850
G1 X7.744 Y-7.831
G1 X8.045 Y-7.545
G1 X8.045 Y-7.545
G1 X8.109 Y-7.436
G1 X8.124 Y-7.346
G0 X8.120 Y-7.320
G0 X8.049 Y-7.233
G0 X6.075 Y-5.579
G1 X6.045 Y-5.556
G1 X5.959 Y-5.492
G1 X5.898 Y-5.477
G1 X5.812 Y-5.492
G1 X5.707 Y-5.560
G1 X5.707 Y-5.560
G1 X5.523 Y-5.793
G1 X5.492 Y-5.846
G1 X5.474 Y-5.902
G1 X5.455 Y-6.184
G1 X5.492 Y-6.466
G1 X5.620 Y-6.812
G1 X5.801 Y-7.135
G1 X5.951 Y-7.335
G1 X6.094 Y-7.496
G1 X6.297 Y-7.677
G1 X6.519 Y-7.846
G1 X6.786 Y-8.004
G1 X7.053 Y-8.109
G1 X7.278 Y-8.154
G1 X7.335 Y-8.158
G1 X7.391 Y-8.150
G1 X7.447 Y-8.128
G1 X7.756 Y-7.838
G1 X7.756 Y-7.838
G1 X7.827 Y-7.733
G1 X7.842 Y-7.647
G0 X7.838 Y-7.620
G0 X7.767 Y-7.530
G0 X5.857 Y-5.816
G1 X5.831 Y-5.789
G1 X5.744 Y-5.722
G1 X5.688 Y-5.703
G1 X5.602 Y-5.714
G1 X5.496 Y-5.774
G1 X5.496 Y-5.774
G1 X5.327 Y-5.947
G1 X5.263 Y-6.049
G1 X5.241 Y-6.102
G1 X5.207 Y-6.327
G1 X5.229 Y-6.665
G1 X5.335 Y-7.019
G1 X5.500 Y-7.350
G1 X5.617 Y-7.526
G1 X5.748 Y-7.688
G1 X5.917 Y-7.865
G1 X6.173 Y-8.083
G1 X6.440 Y-8.263
G1 X6.707 Y-8.387
G1 X6.989 Y-8.451
G1 X7.045 Y-8.447
G1 X7.102 Y-8.429
G1 X7.421 Y-8.154
G1 X7.421 Y-8.154
G1 X7.492 Y-8.049
G1 X7.511 Y-7.962
G0 X7.504 Y-7.936
G0 X7.440 Y-7.842
G0 X5.624 Y-6.019
G1 X5.594 Y-5.989
G1 X5.515 Y-5.921
G1 X5.459 Y-5.902
G1 X5.372 Y-5.910
G1 X5.267 Y-5.970
G1 X5.267 Y-5.970
G1 X5.056 Y-6.184
G1 X4.992 Y-6.286
G1 X4.970 Y-6.342
G1 X4.932 Y-6.624
G1 X4.947 Y-6.906
G1 X5.049 Y-7.263
G1 X5.207 Y-7.598
G1 X5.327 Y-7.786
G1 X5.455 Y-7.955
G1 X5.643 Y-8.162
G1 X5.887 Y-8.376
G1 X6.143 Y-8.545
G1 X6.361 Y-8.650
G1 X6.586 Y-8.714
G1 X6.699 Y-8.722
G1 X6.756 Y-8.707
G1 X7.086 Y-8.447
G1 X7.086 Y-8.447
G1 X7.158 Y-8.342
G1 X7.180 Y-8.259
G0 X7.177 Y-8.229
G0 X7.113 Y-8.135
