(Exported by FreeCAD)
(Post Processor: grbl_post)
(Output Time:2023-08-20 01:53:20.103781)
(Begin preamble)
G17 G90
G21
(Block-name: G54)
(Block-expand: 0)
(Block-enable: 1)
(Begin operation: G54)
(Path: G54)
G54
G0 Z5.000
(Finish operation: G54)
(Block-name: 3mm Endmill001)
(Block-expand: 0)
(Block-enable: 1)
(Begin operation: 3mm Endmill001)
(Path: 3mm Endmill001)
(3mm Endmill001)
(Begin toolchange)
( M6 T2 )
(Finish operation: 3mm Endmill001)
(Block-name: Adaptive_IN_10mm-4)
(Block-expand: 0)
(Block-enable: 1)
(Begin operation: Adaptive_IN_10mm-4)
(Path: Adaptive_IN_10mm-4)
(IN_10mm-4)
(Helix to depth: -3.000000)
G0 Z5.000
G0 X0.730 Y-0.842 Z5.000
G0 X0.730 Y-0.842 Z3.000
G1 X0.730 Y-0.842 Z0.000 F100.000
G1 X0.730 Y-0.842 Z0.000 F100.000
G1 X0.880 Y-0.683 Z-0.019 F100.000
G1 X0.996 Y-0.499 Z-0.039 F100.000
G1 X1.074 Y-0.295 Z-0.058 F100.000
G1 X1.111 Y-0.080 Z-0.077 F100.000
G1 X1.105 Y0.139 Z-0.097 F100.000
G1 X1.057 Y0.352 Z-0.116 F100.000
G1 X0.968 Y0.551 Z-0.135 F100.000
G1 X0.842 Y0.730 Z-0.154 F100.000
G1 X0.683 Y0.880 Z-0.174 F100.000
G1 X0.499 Y0.996 Z-0.193 F100.000
G1 X0.295 Y1.074 Z-0.212 F100.000
G1 X0.080 Y1.111 Z-0.232 F100.000
G1 X-0.139 Y1.105 Z-0.251 F100.000
G1 X-0.352 Y1.057 Z-0.270 F100.000
G1 X-0.551 Y0.968 Z-0.290 F100.000
G1 X-0.730 Y0.842 Z-0.309 F100.000
G1 X-0.880 Y0.683 Z-0.328 F100.000
G1 X-0.996 Y0.499 Z-0.348 F100.000
G1 X-1.074 Y0.295 Z-0.367 F100.000
G1 X-1.111 Y0.080 Z-0.386 F100.000
G1 X-1.105 Y-0.139 Z-0.406 F100.000
G1 X-1.057 Y-0.352 Z-0.425 F100.000
G1 X-0.968 Y-0.551 Z-0.444 F100.000
G1 X-0.842 Y-0.730 Z-0.463 F100.000
G1 X-0.683 Y-0.880 Z-0.483 F100.000
G1 X-0.499 Y-0.996 Z-0.502 F100.000
G1 X-0.295 Y-1.074 Z-0.521 F100.000
G1 X-0.080 Y-1.111 Z-0.541 F100.000
G1 X0.139 Y-1.105 Z-0.560 F100.000
G1 X0.352 Y-1.057 Z-0.579 F100.000
G1 X0.551 Y-0.968 Z-0.599 F100.000
G1 X0.730 Y-0.842 Z-0.618 F100.000
G1 X0.880 Y-0.683 Z-0.637 F100.000
G1 X0.996 Y-0.499 Z-0.657 F100.000
G1 X1.074 Y-0.295 Z-0.676 F100.000
G1 X1.111 Y-0.080 Z-0.695 F100.000
G1 X1.105 Y0.139 Z-0.714 F100.000
G1 X1.057 Y0.352 Z-0.734 F100.000
G1 X0.968 Y0.551 Z-0.753 F100.000
G1 X0.842 Y0.730 Z-0.772 F100.000
G1 X0.683 Y0.880 Z-0.792 F100.000
G1 X0.499 Y0.996 Z-0.811 F100.000
G1 X0.295 Y1.074 Z-0.830 F100.000
G1 X0.080 Y1.111 Z-0.850 F100.000
G1 X-0.139 Y1.105 Z-0.869 F100.000
G1 X-0.352 Y1.057 Z-0.888 F100.000
G1 X-0.551 Y0.968 Z-0.908 F100.000
G1 X-0.730 Y0.842 Z-0.927 F100.000
G1 X-0.880 Y0.683 Z-0.946 F100.000
G1 X-0.996 Y0.499 Z-0.965 F100.000
G1 X-1.074 Y0.295 Z-0.985 F100.000
G1 X-1.111 Y0.080 Z-1.004 F100.000
G1 X-1.105 Y-0.139 Z-1.023 F100.000
G1 X-1.057 Y-0.352 Z-1.043 F100.000
G1 X-0.968 Y-0.551 Z-1.062 F100.000
G1 X-0.842 Y-0.730 Z-1.081 F100.000
G1 X-0.683 Y-0.880 Z-1.101 F100.000
G1 X-0.499 Y-0.996 Z-1.120 F100.000
G1 X-0.295 Y-1.074 Z-1.139 F100.000
G1 X-0.080 Y-1.111 Z-1.159 F100.000
G1 X0.139 Y-1.105 Z-1.178 F100.000
G1 X0.352 Y-1.057 Z-1.197 F100.000
G1 X0.551 Y-0.968 Z-1.216 F100.000
G1 X0.730 Y-0.842 Z-1.236 F100.000
G1 X0.880 Y-0.683 Z-1.255 F100.000
G1 X0.996 Y-0.499 Z-1.274 F100.000
G1 X1.074 Y-0.295 Z-1.294 F100.000
G1 X1.111 Y-0.080 Z-1.313 F100.000
G1 X1.105 Y0.139 Z-1.332 F100.000
G1 X1.057 Y0.352 Z-1.352 F100.000
G1 X0.968 Y0.551 Z-1.371 F100.000
G1 X0.842 Y0.730 Z-1.390 F100.000
G1 X0.683 Y0.880 Z-1.410 F100.000
G1 X0.499 Y0.996 Z-1.429 F100.000
G1 X0.295 Y1.074 Z-1.448 F100.000
G1 X0.080 Y1.111 Z-1.468 F100.000
G1 X-0.139 Y1.105 Z-1.487 F100.000
G1 X-0.352 Y1.057 Z-1.506 F100.000
G1 X-0.551 Y0.968 Z-1.525 F100.000
G1 X-0.730 Y0.842 Z-1.545 F100.000
G1 X-0.880 Y0.683 Z-1.564 F100.000
G1 X-0.996 Y0.499 Z-1.583 F100.000
G1 X-1.074 Y0.295 Z-1.603 F100.000
G1 X-1.111 Y0.080 Z-1.622 F100.000
G1 X-1.105 Y-0.139 Z-1.641 F100.000
G1 X-1.057 Y-0.352 Z-1.661 F100.000
G1 X-0.968 Y-0.551 Z-1.680 F100.000
G1 X-0.842 Y-0.730 Z-1.699 F100.000
G1 X-0.683 Y-0.880 Z-1.719 F100.000
G1 X-0.499 Y-0.996 Z-1.738 F100.000
G1 X-0.295 Y-1.074 Z-1.757 F100.000
G1 X-0.080 Y-1.111 Z-1.776 F100.000
G1 X0.139 Y-1.105 Z-1.796 F100.000
G1 X0.352 Y-1.057 Z-1.815 F100.000
G1 X0.551 Y-0.968 Z-1.834 F100.000
G1 X0.730 Y-0.842 Z-1.854 F100.000
G1 X0.880 Y-0.683 Z-1.873 F100.000
G1 X0.996 Y-0.499 Z-1.892 F100.000
G1 X1.074 Y-0.295 Z-1.912 F100.000
G1 X1.111 Y-0.080 Z-1.931 F100.000
G1 X1.105 Y0.139 Z-1.950 F100.000
G1 X1.057 Y0.352 Z-1.970 F100.000
G1 X0.968 Y0.551 Z-1.989 F100.000
G1 X0.842 Y0.730 Z-2.008 F100.000
G1 X0.683 Y0.880 Z-2.027 F100.000
G1 X0.499 Y0.996 Z-2.047 F100.000
G1 X0.295 Y1.074 Z-2.066 F100.000
G1 X0.080 Y1.111 Z-2.085 F100.000
G1 X-0.139 Y1.105 Z-2.105 F100.000
G1 X-0.352 Y1.057 Z-2.124 F100.000
G1 X-0.551 Y0.968 Z-2.143 F100.000
G1 X-0.730 Y0.842 Z-2.163 F100.000
G1 X-0.880 Y0.683 Z-2.182 F100.000
G1 X-0.996 Y0.499 Z-2.201 F100.000
G1 X-1.074 Y0.295 Z-2.221 F100.000
G1 X-1.111 Y0.080 Z-2.240 F100.000
G1 X-1.105 Y-0.139 Z-2.259 F100.000
G1 X-1.057 Y-0.352 Z-2.279 F100.000
G1 X-0.968 Y-0.551 Z-2.298 F100.000
G1 X-0.842 Y-0.730 Z-2.317 F100.000
G1 X-0.683 Y-0.880 Z-2.336 F100.000
G1 X-0.499 Y-0.996 Z-2.356 F100.000
G1 X-0.295 Y-1.074 Z-2.375 F100.000
G1 X-0.080 Y-1.111 Z-2.394 F100.000
G1 X0.139 Y-1.105 Z-2.414 F100.000
G1 X0.352 Y-1.057 Z-2.433 F100.000
G1 X0.551 Y-0.968 Z-2.452 F100.000
G1 X0.730 Y-0.842 Z-2.472 F100.000
G1 X0.880 Y-0.683 Z-2.491 F100.000
G1 X0.996 Y-0.499 Z-2.510 F100.000
G1 X1.074 Y-0.295 Z-2.530 F100.000
G1 X1.111 Y-0.080 Z-2.549 F100.000
G1 X1.105 Y0.139 Z-2.568 F100.000
G1 X1.057 Y0.352 Z-2.587 F100.000
G1 X0.968 Y0.551 Z-2.607 F100.000
G1 X0.842 Y0.730 Z-2.626 F100.000
G1 X0.683 Y0.880 Z-2.645 F100.000
G1 X0.499 Y0.996 Z-2.665 F100.000
G1 X0.295 Y1.074 Z-2.684 F100.000
G1 X0.080 Y1.111 Z-2.703 F100.000
G1 X-0.139 Y1.105 Z-2.723 F100.000
G1 X-0.352 Y1.057 Z-2.742 F100.000
G1 X-0.551 Y0.968 Z-2.761 F100.000
G1 X-0.730 Y0.842 Z-2.781 F100.000
G1 X-0.880 Y0.683 Z-2.800 F100.000
G1 X-0.996 Y0.499 Z-2.819 F100.000
G1 X-1.074 Y0.295 Z-2.838 F100.000
G1 X-1.111 Y0.080 Z-2.858 F100.000
G1 X-1.105 Y-0.139 Z-2.877 F100.000
G1 X-1.057 Y-0.352 Z-2.896 F100.000
G1 X-0.968 Y-0.551 Z-2.916 F100.000
G1 X-0.842 Y-0.730 Z-2.935 F100.000
G1 X-0.683 Y-0.880 Z-2.954 F100.000
G1 X-0.499 Y-0.996 Z-2.974 F100.000
G1 X-0.295 Y-1.074 Z-2.993 F100.000
G1 X-0.080 Y-1.111 Z-3.000 F200.000
G1 X0.139 Y-1.105 Z-3.000 F200.000
G1 X0.352 Y-1.057 Z-3.000 F200.000
G1 X0.551 Y-0.968 Z-3.000 F200.000
G1 X0.730 Y-0.842 Z-3.000 F200.000
G1 X0.880 Y-0.683 Z-3.000 F200.000
G1 X0.996 Y-0.499 Z-3.000 F200.000
G1 X1.074 Y-0.295 Z-3.000 F200.000
G1 X1.111 Y-0.080 Z-3.000 F200.000
G1 X1.105 Y0.139 Z-3.000 F200.000
G1 X1.057 Y0.352 Z-3.000 F200.000
G1 X0.968 Y0.551 Z-3.000 F200.000
G1 X0.842 Y0.730 Z-3.000 F200.000
G1 X0.683 Y0.880 Z-3.000 F200.000
G1 X0.499 Y0.996 Z-3.000 F200.000
G1 X0.295 Y1.074 Z-3.000 F200.000
G1 X0.080 Y1.111 Z-3.000 F200.000
G1 X-0.139 Y1.105 Z-3.000 F200.000
G1 X-0.352 Y1.057 Z-3.000 F200.000
G1 X-0.551 Y0.968 Z-3.000 F200.000
G1 X-0.730 Y0.842 Z-3.000 F200.000
G1 X-0.880 Y0.683 Z-3.000 F200.000
G1 X-0.996 Y0.499 Z-3.000 F200.000
G1 X-1.074 Y0.295 Z-3.000 F200.000
G1 X-1.111 Y0.080 Z-3.000 F200.000
G1 X-1.105 Y-0.139 Z-3.000 F200.000
G1 X-1.057 Y-0.352 Z-3.000 F200.000
G1 X-0.968 Y-0.551 Z-3.000 F200.000
G1 X-0.842 Y-0.730 Z-3.000 F200.000
G1 X-0.683 Y-0.880 Z-3.000 F200.000
G1 X-0.499 Y-0.996 Z-3.000 F200.000
G1 X-0.295 Y-1.074 Z-3.000 F200.000
(Adaptive - depth: -3.000000)
G1 X0.000 Y-1.124 F200.000
G1 X0.041 Y-1.165 F200.000
G1 X0.207 Y-1.214 F200.000
G1 X0.376 Y-1.218 F200.000
G1 X0.489 Y-1.199 F200.000
G1 X0.835 Y-1.064 F200.000
G1 X1.015 Y-0.917 F200.000
G1 X1.102 Y-0.823 F200.000
G1 X1.180 Y-0.707 F200.000
G1 X1.267 Y-0.553 F200.000
G1 X1.357 Y-0.308 F200.000
G1 X1.391 Y-0.086 F200.000
G1 X1.391 Y0.086 F200.000
G1 X1.372 Y0.259 F200.000
G1 X1.320 Y0.470 F200.000
G1 X1.233 Y0.673 F200.000
G1 X1.124 Y0.842 F200.000
G1 X1.004 Y0.985 F200.000
G1 X0.850 Y1.117 F200.000
G1 X0.684 Y1.226 F200.000
G1 X0.485 Y1.316 F200.000
G1 X0.286 Y1.376 F200.000
G1 X0.079 Y1.406 F200.000
G1 X-0.128 Y1.406 F200.000
G1 X-0.331 Y1.376 F200.000
G1 X-0.526 Y1.308 F200.000
G1 X-0.680 Y1.237 F200.000
G1 X-0.861 Y1.117 F200.000
G1 X-1.019 Y0.970 F200.000
G1 X-1.147 Y0.816 F200.000
G1 X-1.256 Y0.635 F200.000
G1 X-1.338 Y0.440 F200.000
G1 X-1.387 Y0.237 F200.000
G1 X-1.406 Y0.045 F200.000
G1 X-1.402 Y-0.154 F200.000
G1 X-1.361 Y-0.365 F200.000
G1 X-1.297 Y-0.556 F200.000
G1 X-1.203 Y-0.741 F200.000
G1 X-1.083 Y-0.910 F200.000
G1 X-0.940 Y-1.060 F200.000
G1 X-0.774 Y-1.184 F200.000
G1 X-0.613 Y-1.282 F200.000
G1 X-0.395 Y-1.395 F200.000
G1 X-0.098 Y-1.466 F200.000
G1 X0.301 Y-1.496 F200.000
G1 X0.722 Y-1.429 F200.000
G1 X1.049 Y-1.267 F200.000
G1 X1.169 Y-1.169 F200.000
G1 X1.263 Y-1.075 F200.000
G1 X1.380 Y-0.940 F200.000
G1 X1.526 Y-0.703 F200.000
G1 X1.620 Y-0.474 F200.000
G1 X1.665 Y-0.278 F200.000
G1 X1.688 Y-0.098 F200.000
G1 X1.692 Y0.128 F200.000
G1 X1.662 Y0.383 F200.000
G1 X1.594 Y0.613 F200.000
G1 X1.511 Y0.797 F200.000
G1 X1.410 Y0.970 F200.000
G1 X1.267 Y1.154 F200.000
G1 X1.086 Y1.327 F200.000
G1 X0.906 Y1.462 F200.000
G1 X0.695 Y1.571 F200.000
G1 X0.511 Y1.639 F200.000
G1 X0.297 Y1.692 F200.000
G1 X0.064 Y1.718 F200.000
G1 X-0.180 Y1.714 F200.000
G1 X-0.410 Y1.680 F200.000
G1 X-0.635 Y1.609 F200.000
G1 X-0.820 Y1.526 F200.000
G1 X-1.008 Y1.406 F200.000
G1 X-1.173 Y1.263 F200.000
G1 X-1.320 Y1.109 F200.000
G1 X-1.466 Y0.910 F200.000
G1 X-1.583 Y0.695 F200.000
G1 X-1.662 Y0.474 F200.000
G1 X-1.707 Y0.274 F200.000
G1 X-1.726 Y0.049 F200.000
G1 X-1.718 Y-0.169 F200.000
G1 X-1.677 Y-0.402 F200.000
G1 X-1.609 Y-0.620 F200.000
G1 X-1.515 Y-0.827 F200.000
G1 X-1.391 Y-1.023 F200.000
G1 X-1.244 Y-1.199 F200.000
G1 X-1.079 Y-1.357 F200.000
G1 X-0.880 Y-1.504 F200.000
G1 X-0.673 Y-1.620 F200.000
G1 X-0.455 Y-1.711 F200.000
G1 X-0.222 Y-1.778 F200.000
G1 X0.041 Y-1.820 F200.000
G1 X0.286 Y-1.831 F200.000
G1 X0.534 Y-1.812 F200.000
G1 X0.782 Y-1.752 F200.000
G1 X0.974 Y-1.680 F200.000
G1 X1.177 Y-1.564 F200.000
G1 X1.335 Y-1.444 F200.000
G1 X1.492 Y-1.297 F200.000
G1 X1.654 Y-1.105 F200.000
G1 X1.797 Y-0.883 F200.000
G1 X1.895 Y-0.662 F200.000
G1 X1.959 Y-0.462 F200.000
G1 X2.008 Y-0.233 F200.000
G1 X2.030 Y0.034 F200.000
G1 X2.015 Y0.293 F200.000
G1 X1.977 Y0.515 F200.000
G1 X1.906 Y0.756 F200.000
G1 X1.805 Y0.977 F200.000
G1 X1.680 Y1.184 F200.000
G1 X1.530 Y1.376 F200.000
G1 X1.357 Y1.549 F200.000
G1 X1.165 Y1.699 F200.000
G1 X0.955 Y1.823 F200.000
G1 X0.729 Y1.921 F200.000
G1 X0.496 Y1.996 F200.000
G1 X0.233 Y2.045 F200.000
G1 X-0.015 Y2.064 F200.000
G1 X-0.263 Y2.053 F200.000
G1 X-0.515 Y2.011 F200.000
G1 X-0.752 Y1.932 F200.000
G1 X-0.947 Y1.842 F200.000
G1 X-1.154 Y1.722 F200.000
G1 X-1.365 Y1.560 F200.000
G1 X-1.560 Y1.372 F200.000
G1 X-1.714 Y1.165 F200.000
G1 X-1.827 Y0.981 F200.000
G1 X-1.925 Y0.756 F200.000
G1 X-2.000 Y0.530 F200.000
G1 X-2.053 Y0.256 F200.000
G1 X-2.071 Y0.004 F200.000
G1 X-2.053 Y-0.248 F200.000
G1 X-2.011 Y-0.474 F200.000
G1 X-1.940 Y-0.707 F200.000
G1 X-1.846 Y-0.929 F200.000
G1 X-1.707 Y-1.169 F200.000
G1 X-1.553 Y-1.372 F200.000
G1 X-1.380 Y-1.560 F200.000
G1 X-1.177 Y-1.729 F200.000
G1 X-0.959 Y-1.872 F200.000
G1 X-0.726 Y-1.989 F200.000
G1 X-0.481 Y-2.079 F200.000
G1 X-0.229 Y-2.143 F200.000
G1 X0.026 Y-2.180 F200.000
G1 X0.308 Y-2.188 F200.000
G1 X0.571 Y-2.165 F200.000
G1 X0.835 Y-2.102 F200.000
G1 X1.041 Y-2.026 F200.000
G1 X1.267 Y-1.914 F200.000
G1 X1.470 Y-1.774 F200.000
G1 X1.654 Y-1.624 F200.000
G1 X1.842 Y-1.432 F200.000
G1 X2.011 Y-1.207 F200.000
G1 X2.139 Y-0.977 F200.000
G1 X2.229 Y-0.767 F200.000
G1 X2.308 Y-0.523 F200.000
G1 X2.368 Y-0.241 F200.000
G1 X2.387 Y0.049 F200.000
G1 X2.380 Y0.286 F200.000
G1 X2.342 Y0.553 F200.000
G1 X2.271 Y0.808 F200.000
G1 X2.177 Y1.045 F200.000
G1 X2.053 Y1.278 F200.000
G1 X1.902 Y1.492 F200.000
G1 X1.729 Y1.692 F200.000
G1 X1.534 Y1.868 F200.000
G1 X1.320 Y2.023 F200.000
G1 X1.094 Y2.158 F200.000
G1 X0.827 Y2.274 F200.000
G1 X0.568 Y2.357 F200.000
G1 X0.297 Y2.414 F200.000
G1 X0.019 Y2.440 F200.000
G1 X-0.252 Y2.425 F200.000
G1 X-0.485 Y2.391 F200.000
G1 X-0.741 Y2.327 F200.000
G1 X-1.008 Y2.222 F200.000
G1 X-1.237 Y2.102 F200.000
G1 X-1.462 Y1.951 F200.000
G1 X-1.669 Y1.774 F200.000
G1 X-1.853 Y1.583 F200.000
G1 X-2.019 Y1.368 F200.000
G1 X-2.158 Y1.135 F200.000
G1 X-2.271 Y0.887 F200.000
G1 X-2.357 Y0.628 F200.000
G1 X-2.414 Y0.361 F200.000
G1 X-2.440 Y0.090 F200.000
G1 X-2.436 Y-0.177 F200.000
G1 X-2.402 Y-0.444 F200.000
G1 X-2.338 Y-0.707 F200.000
G1 X-2.248 Y-0.959 F200.000
G1 X-2.128 Y-1.199 F200.000
G1 X-1.981 Y-1.429 F200.000
G1 X-1.816 Y-1.643 F200.000
G1 X-1.609 Y-1.853 F200.000
G1 X-1.395 Y-2.030 F200.000
G1 X-1.158 Y-2.188 F200.000
G1 X-0.902 Y-2.320 F200.000
G1 X-0.639 Y-2.425 F200.000
G1 X-0.365 Y-2.500 F200.000
G1 X-0.086 Y-2.545 F200.000
G1 X0.192 Y-2.560 F200.000
G1 X0.470 Y-2.556 F200.000
G1 X0.786 Y-2.500 F200.000
G1 X1.019 Y-2.436 F200.000
G1 X1.278 Y-2.335 F200.000
G1 X1.523 Y-2.203 F200.000
G1 X1.744 Y-2.053 F200.000
G1 X1.955 Y-1.876 F200.000
G1 X2.143 Y-1.677 F200.000
G1 X2.305 Y-1.459 F200.000
G1 X2.444 Y-1.222 F200.000
G1 X2.556 Y-0.974 F200.000
G1 X2.647 Y-0.718 F200.000
G1 X2.726 Y-0.417 F200.000
G1 X2.763 Y-0.090 F200.000
G1 X2.771 Y0.165 F200.000
G1 X2.752 Y0.459 F200.000
G1 X2.699 Y0.744 F200.000
G1 X2.609 Y1.011 F200.000
G1 X2.511 Y1.229 F200.000
G1 X2.383 Y1.466 F200.000
G1 X2.203 Y1.729 F200.000
G1 X2.000 Y1.966 F200.000
G1 X1.782 Y2.165 F200.000
G1 X1.579 Y2.320 F200.000
G1 X1.335 Y2.466 F200.000
G1 X1.083 Y2.586 F200.000
G1 X0.786 Y2.703 F200.000
G1 X0.459 Y2.789 F200.000
G1 X0.150 Y2.820 F200.000
G1 X-0.068 Y2.827 F200.000
G1 X-0.346 Y2.808 F200.000
G1 X-0.635 Y2.756 F200.000
G1 X-0.925 Y2.673 F200.000
G1 X-1.195 Y2.564 F200.000
G1 X-1.459 Y2.425 F200.000
G1 X-1.707 Y2.259 F200.000
G1 X-1.932 Y2.075 F200.000
G1 X-2.135 Y1.857 F200.000
G1 X-2.289 Y1.658 F200.000
G1 X-2.440 Y1.421 F200.000
G1 X-2.579 Y1.154 F200.000
G1 X-2.703 Y0.842 F200.000
G1 X-2.774 Y0.545 F200.000
G1 X-2.812 Y0.297 F200.000
G1 X-2.831 Y0.008 F200.000
G1 X-2.812 Y-0.297 F200.000
G1 X-2.771 Y-0.575 F200.000
G1 X-2.695 Y-0.857 F200.000
G1 X-2.590 Y-1.132 F200.000
G1 X-2.462 Y-1.391 F200.000
G1 X-2.308 Y-1.635 F200.000
G1 X-2.135 Y-1.868 F200.000
G1 X-1.902 Y-2.117 F200.000
G1 X-1.673 Y-2.320 F200.000
G1 X-1.421 Y-2.504 F200.000
G1 X-1.139 Y-2.658 F200.000
G1 X-0.902 Y-2.763 F200.000
G1 X-0.620 Y-2.853 F200.000
G1 X-0.338 Y-2.917 F200.000
G1 X-0.015 Y-2.959 F200.000
G1 X0.282 Y-2.966 F200.000
G1 X0.583 Y-2.947 F200.000
G1 X1.090 Y-2.808 F200.000
G1 X1.523 Y-2.617 F200.000
G1 X1.921 Y-2.357 F200.000
G1 X2.353 Y-1.940 F200.000
G1 X2.639 Y-1.553 F200.000
G1 X2.838 Y-1.173 F200.000
G1 X2.985 Y-0.771 F200.000
G1 X3.094 Y-0.229 F200.000
G1 X3.117 Y0.233 F200.000
G1 X3.038 Y0.797 F200.000
G1 X2.842 Y1.350 F200.000
G1 X2.673 Y1.662 F200.000
G1 X2.308 Y2.135 F200.000
G1 X1.853 Y2.530 F200.000
G1 X1.391 Y2.816 F200.000
G1 X0.831 Y3.041 F200.000
G1 X0.229 Y3.150 F200.000
G1 X-0.515 Y3.143 F200.000
G1 X-0.966 Y3.053 F200.000
G1 X-1.459 Y2.850 F200.000
G1 X-1.861 Y2.598 F200.000
G1 X-2.218 Y2.282 F200.000
G1 X-2.665 Y1.714 F200.000
G1 X-2.868 Y1.335 F200.000
G1 X-3.038 Y0.880 F200.000
G1 X-3.150 Y0.278 F200.000
G1 X-3.150 Y-0.357 F200.000
G1 X-3.041 Y-0.921 F200.000
G1 X-2.793 Y-1.519 F200.000
G1 X-2.504 Y-1.970 F200.000
G1 X-2.192 Y-2.331 F200.000
G1 X-1.673 Y-2.748 F200.000
G1 X-1.135 Y-3.038 F200.000
G1 X-0.553 Y-3.226 F200.000
G1 X0.158 Y-3.331 F200.000
G1 X0.665 Y-3.297 F200.000
G1 X1.173 Y-3.165 F200.000
G1 X1.658 Y-2.951 F200.000
G1 X2.105 Y-2.662 F200.000
G1 X2.620 Y-2.165 F200.000
G1 X2.906 Y-1.778 F200.000
G1 X3.158 Y-1.293 F200.000
G1 X3.308 Y-0.891 F200.000
G1 X3.417 Y-0.410 F200.000
G1 X3.444 Y0.233 F200.000
G1 X3.361 Y0.853 F200.000
G1 X3.117 Y1.519 F200.000
G1 X2.944 Y1.835 F200.000
G1 X2.658 Y2.222 F200.000
G1 X2.274 Y2.613 F200.000
G1 X1.842 Y2.936 F200.000
G1 X1.414 Y3.162 F200.000
G1 X0.962 Y3.335 F200.000
G1 X0.241 Y3.466 F200.000
G1 X-0.338 Y3.451 F200.000
G1 X-0.846 Y3.361 F200.000
G1 X-1.184 Y3.256 F200.000
G1 X-1.673 Y3.038 F200.000
G1 X-1.977 Y2.846 F200.000
G1 X-2.485 Y2.421 F200.000
G1 X-2.688 Y2.195 F200.000
G1 X-3.079 Y1.590 F200.000
G1 X-3.350 Y0.917 F200.000
G1 X-3.455 Y0.316 F200.000
G1 X-3.462 Y-0.211 F200.000
G1 X-3.365 Y-0.831 F200.000
G1 X-3.267 Y-1.169 F200.000
G1 X-3.075 Y-1.602 F200.000
G1 X-2.895 Y-1.910 F200.000
G1 X-2.477 Y-2.429 F200.000
G1 X-2.113 Y-2.748 F200.000
G1 X-1.868 Y-2.925 F200.000
G1 X-1.500 Y-3.128 F200.000
G1 X-0.936 Y-3.342 F200.000
G1 X-0.214 Y-3.470 F200.000
G1 X0.361 Y-3.451 F200.000
G1 X0.868 Y-3.353 F200.000
G1 X1.489 Y-3.132 F200.000
G1 X1.853 Y-2.932 F200.000
G1 X2.195 Y-2.684 F200.000
G1 X2.590 Y-2.305 F200.000
G1 X2.921 Y-1.876 F200.000
G1 X3.150 Y-1.451 F200.000
G1 X3.342 Y-0.940 F200.000
G1 X3.470 Y-0.218 F200.000
G1 X3.466 Y-0.038 F200.000
G1 X3.466 Y-0.038 F200.000
G1 X3.459 Y-0.023 F200.000
G0 X3.447 Y-0.023
G1 X3.432 Y-0.030 F200.000
G1 X3.398 Y-0.090 F200.000
G1 X3.402 Y-0.135 F200.000
G1 X3.447 Y-0.195 F200.000
G1 X3.474 Y-0.207 F200.000
G1 X3.496 Y-0.188 F200.000
G1 X3.496 Y-0.188 F200.000
G1 X3.485 Y0.248 F200.000
G1 X3.436 Y0.602 F200.000
G1 X3.350 Y0.992 F200.000
G1 X3.271 Y1.222 F200.000
G1 X3.150 Y1.508 F200.000
G1 X3.071 Y1.665 F200.000
G1 X2.914 Y1.932 F200.000
G1 X2.684 Y2.241 F200.000
G1 X2.421 Y2.526 F200.000
G1 X2.252 Y2.673 F200.000
G1 X1.898 Y2.936 F200.000
G1 X1.635 Y3.090 F200.000
G1 X1.508 Y3.154 F200.000
G1 X0.906 Y3.380 F200.000
G1 X0.504 Y3.466 F200.000
G1 X0.214 Y3.496 F200.000
G1 X-0.259 Y3.485 F200.000
G1 X-0.395 Y3.474 F200.000
G1 X-0.835 Y3.391 F200.000
G1 X-1.226 Y3.267 F200.000
G1 X-1.451 Y3.177 F200.000
G1 X-1.744 Y3.030 F200.000
G1 X-1.921 Y2.921 F200.000
G1 X-2.271 Y2.658 F200.000
G1 X-2.511 Y2.436 F200.000
G1 X-2.673 Y2.252 F200.000
G1 X-2.944 Y1.887 F200.000
G1 X-3.098 Y1.624 F200.000
G1 X-3.195 Y1.421 F200.000
G1 X-3.308 Y1.132 F200.000
G1 X-3.376 Y0.914 F200.000
G1 X-3.455 Y0.530 F200.000
G1 X-3.496 Y0.169 F200.000
G1 X-3.477 Y-0.361 F200.000
G1 X-3.444 Y-0.583 F200.000
G1 X-3.387 Y-0.838 F200.000
G1 X-3.308 Y-1.117 F200.000
G1 X-3.267 Y-1.233 F200.000
G1 X-3.120 Y-1.579 F200.000
G1 X-2.932 Y-1.902 F200.000
G1 X-2.658 Y-2.271 F200.000
G1 X-2.436 Y-2.511 F200.000
G1 X-2.252 Y-2.673 F200.000
G1 X-1.898 Y-2.936 F200.000
G1 X-1.635 Y-3.090 F200.000
G1 X-1.466 Y-3.173 F200.000
G1 X-1.120 Y-3.312 F200.000
G1 X-0.887 Y-3.383 F200.000
G1 X-0.519 Y-3.462 F200.000
G1 X-0.331 Y-3.489 F200.000
G1 X-0.214 Y-3.496 F200.000
G1 X0.259 Y-3.485 F200.000
G1 X0.395 Y-3.474 F200.000
G1 X0.835 Y-3.391 F200.000
G1 X1.226 Y-3.267 F200.000
G1 X1.451 Y-3.177 F200.000
G1 X1.752 Y-3.023 F200.000
G1 X1.898 Y-2.932 F200.000
G1 X2.271 Y-2.658 F200.000
G1 X2.511 Y-2.436 F200.000
G1 X2.673 Y-2.252 F200.000
G1 X2.932 Y-1.902 F200.000
G1 X3.075 Y-1.665 F200.000
G1 X3.158 Y-1.500 F200.000
G1 X3.327 Y-1.079 F200.000
G1 X3.368 Y-0.955 F200.000
G1 X3.459 Y-0.545 F200.000
G1 X3.496 Y-0.188 F200.000
G1 X3.496 Y-0.188 F200.000
G0 Z5.000
(Helix to depth: -4.500000)
G0 Z5.000
G0 X-0.285 Y1.077 Z5.000
G0 X-0.285 Y1.077 Z3.000
G1 X-0.285 Y1.077 Z-3.000 F100.000
G1 X-0.285 Y1.077 Z-3.000 F100.000
G1 X-0.490 Y1.001 Z-3.019 F100.000
G1 X-0.676 Y0.886 Z-3.039 F100.000
G1 X-0.835 Y0.737 Z-3.058 F100.000
G1 X-0.963 Y0.560 Z-3.077 F100.000
G1 X-1.054 Y0.361 Z-3.097 F100.000
G1 X-1.104 Y0.149 Z-3.116 F100.000
G1 X-1.112 Y-0.070 Z-3.135 F100.000
G1 X-1.077 Y-0.285 Z-3.154 F100.000
G1 X-1.001 Y-0.490 Z-3.174 F100.000
G1 X-0.886 Y-0.676 Z-3.193 F100.000
G1 X-0.737 Y-0.835 Z-3.212 F100.000
G1 X-0.560 Y-0.963 Z-3.232 F100.000
G1 X-0.361 Y-1.054 Z-3.251 F100.000
G1 X-0.149 Y-1.104 Z-3.270 F100.000
G1 X0.070 Y-1.112 Z-3.290 F100.000
G1 X0.285 Y-1.077 Z-3.309 F100.000
G1 X0.490 Y-1.001 Z-3.328 F100.000
G1 X0.676 Y-0.886 Z-3.348 F100.000
G1 X0.835 Y-0.737 Z-3.367 F100.000
G1 X0.963 Y-0.560 Z-3.386 F100.000
G1 X1.054 Y-0.361 Z-3.405 F100.000
G1 X1.104 Y-0.149 Z-3.425 F100.000
G1 X1.112 Y0.070 Z-3.444 F100.000
G1 X1.077 Y0.285 Z-3.463 F100.000
G1 X1.001 Y0.490 Z-3.483 F100.000
G1 X0.886 Y0.676 Z-3.502 F100.000
G1 X0.737 Y0.835 Z-3.521 F100.000
G1 X0.560 Y0.963 Z-3.541 F100.000
G1 X0.361 Y1.054 Z-3.560 F100.000
G1 X0.149 Y1.104 Z-3.579 F100.000
G1 X-0.070 Y1.112 Z-3.599 F100.000
G1 X-0.285 Y1.077 Z-3.618 F100.000
G1 X-0.490 Y1.001 Z-3.637 F100.000
G1 X-0.676 Y0.886 Z-3.657 F100.000
G1 X-0.835 Y0.737 Z-3.676 F100.000
G1 X-0.963 Y0.560 Z-3.695 F100.000
G1 X-1.054 Y0.361 Z-3.714 F100.000
G1 X-1.104 Y0.149 Z-3.734 F100.000
G1 X-1.112 Y-0.070 Z-3.753 F100.000
G1 X-1.077 Y-0.285 Z-3.772 F100.000
G1 X-1.001 Y-0.490 Z-3.792 F100.000
G1 X-0.886 Y-0.676 Z-3.811 F100.000
G1 X-0.737 Y-0.835 Z-3.830 F100.000
G1 X-0.560 Y-0.963 Z-3.850 F100.000
G1 X-0.361 Y-1.054 Z-3.869 F100.000
G1 X-0.149 Y-1.104 Z-3.888 F100.000
G1 X0.070 Y-1.112 Z-3.908 F100.000
G1 X0.285 Y-1.077 Z-3.927 F100.000
G1 X0.490 Y-1.001 Z-3.946 F100.000
G1 X0.676 Y-0.886 Z-3.965 F100.000
G1 X0.835 Y-0.737 Z-3.985 F100.000
G1 X0.963 Y-0.560 Z-4.004 F100.000
G1 X1.054 Y-0.361 Z-4.023 F100.000
G1 X1.104 Y-0.149 Z-4.043 F100.000
G1 X1.112 Y0.070 Z-4.062 F100.000
G1 X1.077 Y0.285 Z-4.081 F100.000
G1 X1.001 Y0.490 Z-4.101 F100.000
G1 X0.886 Y0.676 Z-4.120 F100.000
G1 X0.737 Y0.835 Z-4.139 F100.000
G1 X0.560 Y0.963 Z-4.159 F100.000
G1 X0.361 Y1.054 Z-4.178 F100.000
G1 X0.149 Y1.104 Z-4.197 F100.000
G1 X-0.070 Y1.112 Z-4.216 F100.000
G1 X-0.285 Y1.077 Z-4.236 F100.000
G1 X-0.490 Y1.001 Z-4.255 F100.000
G1 X-0.676 Y0.886 Z-4.274 F100.000
G1 X-0.835 Y0.737 Z-4.294 F100.000
G1 X-0.963 Y0.560 Z-4.313 F100.000
G1 X-1.054 Y0.361 Z-4.332 F100.000
G1 X-1.104 Y0.149 Z-4.352 F100.000
G1 X-1.112 Y-0.070 Z-4.371 F100.000
G1 X-1.077 Y-0.285 Z-4.390 F100.000
G1 X-1.001 Y-0.490 Z-4.410 F100.000
G1 X-0.886 Y-0.676 Z-4.429 F100.000
G1 X-0.737 Y-0.835 Z-4.448 F100.000
G1 X-0.560 Y-0.963 Z-4.468 F100.000
G1 X-0.361 Y-1.054 Z-4.487 F100.000
G1 X-0.149 Y-1.104 Z-4.500 F200.000
G1 X0.070 Y-1.112 Z-4.500 F200.000
G1 X0.285 Y-1.077 Z-4.500 F200.000
G1 X0.490 Y-1.001 Z-4.500 F200.000
G1 X0.676 Y-0.886 Z-4.500 F200.000
G1 X0.835 Y-0.737 Z-4.500 F200.000
G1 X0.963 Y-0.560 Z-4.500 F200.000
G1 X1.054 Y-0.361 Z-4.500 F200.000
G1 X1.104 Y-0.149 Z-4.500 F200.000
G1 X1.112 Y0.070 Z-4.500 F200.000
G1 X1.077 Y0.285 Z-4.500 F200.000
G1 X1.001 Y0.490 Z-4.500 F200.000
G1 X0.886 Y0.676 Z-4.500 F200.000
G1 X0.737 Y0.835 Z-4.500 F200.000
G1 X0.560 Y0.963 Z-4.500 F200.000
G1 X0.361 Y1.054 Z-4.500 F200.000
G1 X0.149 Y1.104 Z-4.500 F200.000
G1 X-0.070 Y1.112 Z-4.500 F200.000
G1 X-0.285 Y1.077 Z-4.500 F200.000
G1 X-0.490 Y1.001 Z-4.500 F200.000
G1 X-0.676 Y0.886 Z-4.500 F200.000
G1 X-0.835 Y0.737 Z-4.500 F200.000
G1 X-0.963 Y0.560 Z-4.500 F200.000
G1 X-1.054 Y0.361 Z-4.500 F200.000
G1 X-1.104 Y0.149 Z-4.500 F200.000
G1 X-1.112 Y-0.070 Z-4.500 F200.000
G1 X-1.077 Y-0.285 Z-4.500 F200.000
G1 X-1.001 Y-0.490 Z-4.500 F200.000
G1 X-0.886 Y-0.676 Z-4.500 F200.000
G1 X-0.737 Y-0.835 Z-4.500 F200.000
G1 X-0.560 Y-0.963 Z-4.500 F200.000
G1 X-0.361 Y-1.054 Z-4.500 F200.000
(Adaptive - depth: -4.500000)
G1 X0.000 Y-1.124 F200.000
G1 X0.041 Y-1.165 F200.000
G1 X0.207 Y-1.214 F200.000
G1 X0.376 Y-1.218 F200.000
G1 X0.489 Y-1.199 F200.000
G1 X0.835 Y-1.064 F200.000
G1 X1.015 Y-0.917 F200.000
G1 X1.102 Y-0.823 F200.000
G1 X1.180 Y-0.707 F200.000
G1 X1.267 Y-0.553 F200.000
G1 X1.357 Y-0.308 F200.000
G1 X1.391 Y-0.086 F200.000
G1 X1.391 Y0.086 F200.000
G1 X1.372 Y0.259 F200.000
G1 X1.320 Y0.470 F200.000
G1 X1.233 Y0.673 F200.000
G1 X1.124 Y0.842 F200.000
G1 X1.004 Y0.985 F200.000
G1 X0.850 Y1.117 F200.000
G1 X0.684 Y1.226 F200.000
G1 X0.485 Y1.316 F200.000
G1 X0.286 Y1.376 F200.000
G1 X0.079 Y1.406 F200.000
G1 X-0.128 Y1.406 F200.000
G1 X-0.331 Y1.376 F200.000
G1 X-0.526 Y1.308 F200.000
G1 X-0.680 Y1.237 F200.000
G1 X-0.861 Y1.117 F200.000
G1 X-1.019 Y0.970 F200.000
G1 X-1.147 Y0.816 F200.000
G1 X-1.256 Y0.635 F200.000
G1 X-1.338 Y0.440 F200.000
G1 X-1.387 Y0.237 F200.000
G1 X-1.406 Y0.045 F200.000
G1 X-1.402 Y-0.154 F200.000
G1 X-1.361 Y-0.365 F200.000
G1 X-1.297 Y-0.556 F200.000
G1 X-1.203 Y-0.741 F200.000
G1 X-1.083 Y-0.910 F200.000
G1 X-0.940 Y-1.060 F200.000
G1 X-0.774 Y-1.184 F200.000
G1 X-0.613 Y-1.282 F200.000
G1 X-0.395 Y-1.395 F200.000
G1 X-0.098 Y-1.466 F200.000
G1 X0.301 Y-1.496 F200.000
G1 X0.722 Y-1.429 F200.000
G1 X1.049 Y-1.267 F200.000
G1 X1.169 Y-1.169 F200.000
G1 X1.263 Y-1.075 F200.000
G1 X1.380 Y-0.940 F200.000
G1 X1.526 Y-0.703 F200.000
G1 X1.620 Y-0.474 F200.000
G1 X1.665 Y-0.278 F200.000
G1 X1.688 Y-0.098 F200.000
G1 X1.692 Y0.128 F200.000
G1 X1.662 Y0.383 F200.000
G1 X1.594 Y0.613 F200.000
G1 X1.511 Y0.797 F200.000
G1 X1.410 Y0.970 F200.000
G1 X1.267 Y1.154 F200.000
G1 X1.086 Y1.327 F200.000
G1 X0.906 Y1.462 F200.000
G1 X0.695 Y1.571 F200.000
G1 X0.511 Y1.639 F200.000
G1 X0.297 Y1.692 F200.000
G1 X0.064 Y1.718 F200.000
G1 X-0.180 Y1.714 F200.000
G1 X-0.410 Y1.680 F200.000
G1 X-0.635 Y1.609 F200.000
G1 X-0.820 Y1.526 F200.000
G1 X-1.008 Y1.406 F200.000
G1 X-1.173 Y1.263 F200.000
G1 X-1.320 Y1.109 F200.000
G1 X-1.466 Y0.910 F200.000
G1 X-1.583 Y0.695 F200.000
G1 X-1.662 Y0.474 F200.000
G1 X-1.707 Y0.274 F200.000
G1 X-1.726 Y0.049 F200.000
G1 X-1.718 Y-0.169 F200.000
G1 X-1.677 Y-0.402 F200.000
G1 X-1.609 Y-0.620 F200.000
G1 X-1.515 Y-0.827 F200.000
G1 X-1.391 Y-1.023 F200.000
G1 X-1.244 Y-1.199 F200.000
G1 X-1.079 Y-1.357 F200.000
G1 X-0.880 Y-1.504 F200.000
G1 X-0.673 Y-1.620 F200.000
G1 X-0.455 Y-1.711 F200.000
G1 X-0.222 Y-1.778 F200.000
G1 X0.041 Y-1.820 F200.000
G1 X0.286 Y-1.831 F200.000
G1 X0.534 Y-1.812 F200.000
G1 X0.782 Y-1.752 F200.000
G1 X0.974 Y-1.680 F200.000
G1 X1.177 Y-1.564 F200.000
G1 X1.335 Y-1.444 F200.000
G1 X1.492 Y-1.297 F200.000
G1 X1.654 Y-1.105 F200.000
G1 X1.797 Y-0.883 F200.000
G1 X1.895 Y-0.662 F200.000
G1 X1.959 Y-0.462 F200.000
G1 X2.008 Y-0.233 F200.000
G1 X2.030 Y0.034 F200.000
G1 X2.015 Y0.293 F200.000
G1 X1.977 Y0.515 F200.000
G1 X1.906 Y0.756 F200.000
G1 X1.805 Y0.977 F200.000
G1 X1.680 Y1.184 F200.000
G1 X1.530 Y1.376 F200.000
G1 X1.357 Y1.549 F200.000
G1 X1.165 Y1.699 F200.000
G1 X0.955 Y1.823 F200.000
G1 X0.729 Y1.921 F200.000
G1 X0.496 Y1.996 F200.000
G1 X0.233 Y2.045 F200.000
G1 X-0.015 Y2.064 F200.000
G1 X-0.263 Y2.053 F200.000
G1 X-0.515 Y2.011 F200.000
G1 X-0.752 Y1.932 F200.000
G1 X-0.947 Y1.842 F200.000
G1 X-1.154 Y1.722 F200.000
G1 X-1.365 Y1.560 F200.000
G1 X-1.560 Y1.372 F200.000
G1 X-1.714 Y1.165 F200.000
G1 X-1.827 Y0.981 F200.000
G1 X-1.925 Y0.756 F200.000
G1 X-2.000 Y0.530 F200.000
G1 X-2.053 Y0.256 F200.000
G1 X-2.071 Y0.004 F200.000
G1 X-2.053 Y-0.248 F200.000
G1 X-2.011 Y-0.474 F200.000
G1 X-1.940 Y-0.707 F200.000
G1 X-1.846 Y-0.929 F200.000
G1 X-1.707 Y-1.169 F200.000
G1 X-1.553 Y-1.372 F200.000
G1 X-1.380 Y-1.560 F200.000
G1 X-1.177 Y-1.729 F200.000
G1 X-0.959 Y-1.872 F200.000
G1 X-0.726 Y-1.989 F200.000
G1 X-0.481 Y-2.079 F200.000
G1 X-0.229 Y-2.143 F200.000
G1 X0.026 Y-2.180 F200.000
G1 X0.308 Y-2.188 F200.000
G1 X0.571 Y-2.165 F200.000
G1 X0.835 Y-2.102 F200.000
G1 X1.041 Y-2.026 F200.000
G1 X1.267 Y-1.914 F200.000
G1 X1.470 Y-1.774 F200.000
G1 X1.654 Y-1.624 F200.000
G1 X1.842 Y-1.432 F200.000
G1 X2.011 Y-1.207 F200.000
G1 X2.139 Y-0.977 F200.000
G1 X2.229 Y-0.767 F200.000
G1 X2.308 Y-0.523 F200.000
G1 X2.368 Y-0.241 F200.000
G1 X2.387 Y0.049 F200.000
G1 X2.380 Y0.286 F200.000
G1 X2.342 Y0.553 F200.000
G1 X2.271 Y0.808 F200.000
G1 X2.177 Y1.045 F200.000
G1 X2.053 Y1.278 F200.000
G1 X1.902 Y1.492 F200.000
G1 X1.729 Y1.692 F200.000
G1 X1.534 Y1.868 F200.000
G1 X1.320 Y2.023 F200.000
G1 X1.094 Y2.158 F200.000
G1 X0.827 Y2.274 F200.000
G1 X0.568 Y2.357 F200.000
G1 X0.297 Y2.414 F200.000
G1 X0.019 Y2.440 F200.000
G1 X-0.252 Y2.425 F200.000
G1 X-0.485 Y2.391 F200.000
G1 X-0.741 Y2.327 F200.000
G1 X-1.008 Y2.222 F200.000
G1 X-1.237 Y2.102 F200.000
G1 X-1.462 Y1.951 F200.000
G1 X-1.669 Y1.774 F200.000
G1 X-1.853 Y1.583 F200.000
G1 X-2.019 Y1.368 F200.000
G1 X-2.158 Y1.135 F200.000
G1 X-2.271 Y0.887 F200.000
G1 X-2.357 Y0.628 F200.000
G1 X-2.414 Y0.361 F200.000
G1 X-2.440 Y0.090 F200.000
G1 X-2.436 Y-0.177 F200.000
G1 X-2.402 Y-0.444 F200.000
G1 X-2.338 Y-0.707 F200.000
G1 X-2.248 Y-0.959 F200.000
G1 X-2.128 Y-1.199 F200.000
G1 X-1.981 Y-1.429 F200.000
G1 X-1.816 Y-1.643 F200.000
G1 X-1.609 Y-1.853 F200.000
G1 X-1.395 Y-2.030 F200.000
G1 X-1.158 Y-2.188 F200.000
G1 X-0.902 Y-2.320 F200.000
G1 X-0.639 Y-2.425 F200.000
G1 X-0.365 Y-2.500 F200.000
G1 X-0.086 Y-2.545 F200.000
G1 X0.192 Y-2.560 F200.000
G1 X0.470 Y-2.556 F200.000
G1 X0.786 Y-2.500 F200.000
G1 X1.019 Y-2.436 F200.000
G1 X1.278 Y-2.335 F200.000
G1 X1.523 Y-2.203 F200.000
G1 X1.744 Y-2.053 F200.000
G1 X1.955 Y-1.876 F200.000
G1 X2.143 Y-1.677 F200.000
G1 X2.305 Y-1.459 F200.000
G1 X2.444 Y-1.222 F200.000
G1 X2.556 Y-0.974 F200.000
G1 X2.647 Y-0.718 F200.000
G1 X2.726 Y-0.417 F200.000
G1 X2.763 Y-0.090 F200.000
G1 X2.771 Y0.165 F200.000
G1 X2.752 Y0.459 F200.000
G1 X2.699 Y0.744 F200.000
G1 X2.609 Y1.011 F200.000
G1 X2.511 Y1.229 F200.000
G1 X2.383 Y1.466 F200.000
G1 X2.203 Y1.729 F200.000
G1 X2.000 Y1.966 F200.000
G1 X1.782 Y2.165 F200.000
G1 X1.579 Y2.320 F200.000
G1 X1.335 Y2.466 F200.000
G1 X1.083 Y2.586 F200.000
G1 X0.786 Y2.703 F200.000
G1 X0.459 Y2.789 F200.000
G1 X0.150 Y2.820 F200.000
G1 X-0.068 Y2.827 F200.000
G1 X-0.346 Y2.808 F200.000
G1 X-0.635 Y2.756 F200.000
G1 X-0.925 Y2.673 F200.000
G1 X-1.195 Y2.564 F200.000
G1 X-1.459 Y2.425 F200.000
G1 X-1.707 Y2.259 F200.000
G1 X-1.932 Y2.075 F200.000
G1 X-2.135 Y1.857 F200.000
G1 X-2.289 Y1.658 F200.000
G1 X-2.440 Y1.421 F200.000
G1 X-2.579 Y1.154 F200.000
G1 X-2.703 Y0.842 F200.000
G1 X-2.774 Y0.545 F200.000
G1 X-2.812 Y0.297 F200.000
G1 X-2.831 Y0.008 F200.000
G1 X-2.812 Y-0.297 F200.000
G1 X-2.771 Y-0.575 F200.000
G1 X-2.695 Y-0.857 F200.000
G1 X-2.590 Y-1.132 F200.000
G1 X-2.462 Y-1.391 F200.000
G1 X-2.308 Y-1.635 F200.000
G1 X-2.135 Y-1.868 F200.000
G1 X-1.902 Y-2.117 F200.000
G1 X-1.673 Y-2.320 F200.000
G1 X-1.421 Y-2.504 F200.000
G1 X-1.139 Y-2.658 F200.000
G1 X-0.902 Y-2.763 F200.000
G1 X-0.620 Y-2.853 F200.000
G1 X-0.338 Y-2.917 F200.000
G1 X-0.015 Y-2.959 F200.000
G1 X0.282 Y-2.966 F200.000
G1 X0.583 Y-2.947 F200.000
G1 X1.090 Y-2.808 F200.000
G1 X1.523 Y-2.617 F200.000
G1 X1.921 Y-2.357 F200.000
G1 X2.353 Y-1.940 F200.000
G1 X2.639 Y-1.553 F200.000
G1 X2.838 Y-1.173 F200.000
G1 X2.985 Y-0.771 F200.000
G1 X3.094 Y-0.229 F200.000
G1 X3.117 Y0.233 F200.000
G1 X3.038 Y0.797 F200.000
G1 X2.842 Y1.350 F200.000
G1 X2.673 Y1.662 F200.000
G1 X2.308 Y2.135 F200.000
G1 X1.853 Y2.530 F200.000
G1 X1.391 Y2.816 F200.000
G1 X0.831 Y3.041 F200.000
G1 X0.229 Y3.150 F200.000
G1 X-0.515 Y3.143 F200.000
G1 X-0.966 Y3.053 F200.000
G1 X-1.459 Y2.850 F200.000
G1 X-1.861 Y2.598 F200.000
G1 X-2.218 Y2.282 F200.000
G1 X-2.665 Y1.714 F200.000
G1 X-2.868 Y1.335 F200.000
G1 X-3.038 Y0.880 F200.000
G1 X-3.150 Y0.278 F200.000
G1 X-3.150 Y-0.357 F200.000
G1 X-3.041 Y-0.921 F200.000
G1 X-2.793 Y-1.519 F200.000
G1 X-2.504 Y-1.970 F200.000
G1 X-2.192 Y-2.331 F200.000
G1 X-1.673 Y-2.748 F200.000
G1 X-1.135 Y-3.038 F200.000
G1 X-0.553 Y-3.226 F200.000
G1 X0.158 Y-3.331 F200.000
G1 X0.665 Y-3.297 F200.000
G1 X1.173 Y-3.165 F200.000
G1 X1.658 Y-2.951 F200.000
G1 X2.105 Y-2.662 F200.000
G1 X2.620 Y-2.165 F200.000
G1 X2.906 Y-1.778 F200.000
G1 X3.158 Y-1.293 F200.000
G1 X3.308 Y-0.891 F200.000
G1 X3.417 Y-0.410 F200.000
G1 X3.444 Y0.233 F200.000
G1 X3.361 Y0.853 F200.000
G1 X3.117 Y1.519 F200.000
G1 X2.944 Y1.835 F200.000
G1 X2.658 Y2.222 F200.000
G1 X2.274 Y2.613 F200.000
G1 X1.842 Y2.936 F200.000
G1 X1.414 Y3.162 F200.000
G1 X0.962 Y3.335 F200.000
G1 X0.241 Y3.466 F200.000
G1 X-0.338 Y3.451 F200.000
G1 X-0.846 Y3.361 F200.000
G1 X-1.184 Y3.256 F200.000
G1 X-1.673 Y3.038 F200.000
G1 X-1.977 Y2.846 F200.000
G1 X-2.485 Y2.421 F200.000
G1 X-2.688 Y2.195 F200.000
G1 X-3.079 Y1.590 F200.000
G1 X-3.350 Y0.917 F200.000
G1 X-3.455 Y0.316 F200.000
G1 X-3.462 Y-0.211 F200.000
G1 X-3.365 Y-0.831 F200.000
G1 X-3.267 Y-1.169 F200.000
G1 X-3.075 Y-1.602 F200.000
G1 X-2.895 Y-1.910 F200.000
G1 X-2.477 Y-2.429 F200.000
G1 X-2.113 Y-2.748 F200.000
G1 X-1.868 Y-2.925 F200.000
G1 X-1.500 Y-3.128 F200.000
G1 X-0.936 Y-3.342 F200.000
G1 X-0.214 Y-3.470 F200.000
G1 X0.361 Y-3.451 F200.000
G1 X0.868 Y-3.353 F200.000
G1 X1.489 Y-3.132 F200.000
G1 X1.853 Y-2.932 F200.000
G1 X2.195 Y-2.684 F200.000
G1 X2.590 Y-2.305 F200.000
G1 X2.921 Y-1.876 F200.000
G1 X3.150 Y-1.451 F200.000
G1 X3.342 Y-0.940 F200.000
G1 X3.470 Y-0.218 F200.000
G1 X3.466 Y-0.038 F200.000
G1 X3.466 Y-0.038 F200.000
G1 X3.459 Y-0.023 F200.000
G0 X3.447 Y-0.023
G1 X3.432 Y-0.030 F200.000
G1 X3.398 Y-0.090 F200.000
G1 X3.402 Y-0.135 F200.000
G1 X3.447 Y-0.195 F200.000
G1 X3.474 Y-0.207 F200.000
G1 X3.496 Y-0.188 F200.000
G1 X3.496 Y-0.188 F200.000
G1 X3.485 Y0.248 F200.000
G1 X3.436 Y0.602 F200.000
G1 X3.350 Y0.992 F200.000
G1 X3.271 Y1.222 F200.000
G1 X3.150 Y1.508 F200.000
G1 X3.071 Y1.665 F200.000
G1 X2.914 Y1.932 F200.000
G1 X2.684 Y2.241 F200.000
G1 X2.421 Y2.526 F200.000
G1 X2.252 Y2.673 F200.000
G1 X1.898 Y2.936 F200.000
G1 X1.635 Y3.090 F200.000
G1 X1.508 Y3.154 F200.000
G1 X0.906 Y3.380 F200.000
G1 X0.504 Y3.466 F200.000
G1 X0.214 Y3.496 F200.000
G1 X-0.259 Y3.485 F200.000
G1 X-0.395 Y3.474 F200.000
G1 X-0.835 Y3.391 F200.000
G1 X-1.226 Y3.267 F200.000
G1 X-1.451 Y3.177 F200.000
G1 X-1.744 Y3.030 F200.000
G1 X-1.921 Y2.921 F200.000
G1 X-2.271 Y2.658 F200.000
G1 X-2.511 Y2.436 F200.000
G1 X-2.673 Y2.252 F200.000
G1 X-2.944 Y1.887 F200.000
G1 X-3.098 Y1.624 F200.000
G1 X-3.195 Y1.421 F200.000
G1 X-3.308 Y1.132 F200.000
G1 X-3.376 Y0.914 F200.000
G1 X-3.455 Y0.530 F200.000
G1 X-3.496 Y0.169 F200.000
G1 X-3.477 Y-0.361 F200.000
G1 X-3.444 Y-0.583 F200.000
G1 X-3.387 Y-0.838 F200.000
G1 X-3.308 Y-1.117 F200.000
G1 X-3.267 Y-1.233 F200.000
G1 X-3.120 Y-1.579 F200.000
G1 X-2.932 Y-1.902 F200.000
G1 X-2.658 Y-2.271 F200.000
G1 X-2.436 Y-2.511 F200.000
G1 X-2.252 Y-2.673 F200.000
G1 X-1.898 Y-2.936 F200.000
G1 X-1.635 Y-3.090 F200.000
G1 X-1.466 Y-3.173 F200.000
G1 X-1.120 Y-3.312 F200.000
G1 X-0.887 Y-3.383 F200.000
G1 X-0.519 Y-3.462 F200.000
G1 X-0.331 Y-3.489 F200.000
G1 X-0.214 Y-3.496 F200.000
G1 X0.259 Y-3.485 F200.000
G1 X0.395 Y-3.474 F200.000
G1 X0.835 Y-3.391 F200.000
G1 X1.226 Y-3.267 F200.000
G1 X1.451 Y-3.177 F200.000
G1 X1.752 Y-3.023 F200.000
G1 X1.898 Y-2.932 F200.000
G1 X2.271 Y-2.658 F200.000
G1 X2.511 Y-2.436 F200.000
G1 X2.673 Y-2.252 F200.000
G1 X2.932 Y-1.902 F200.000
G1 X3.075 Y-1.665 F200.000
G1 X3.158 Y-1.500 F200.000
G1 X3.327 Y-1.079 F200.000
G1 X3.368 Y-0.955 F200.000
G1 X3.459 Y-0.545 F200.000
G1 X3.496 Y-0.188 F200.000
G1 X3.496 Y-0.188 F200.000
G0 Z5.000
G0 Z5.000
(Finish operation: Adaptive_IN_10mm-4)
(Block-name: Adaptiv_OUT_12mm-4)
(Block-expand: 0)
(Block-enable: 1)
(Begin operation: Adaptiv_OUT_12mm-4)
(Path: Adaptiv_OUT_12mm-4)
(Adaptive001)
(Helix to depth: -3.000000)
G0 Z5.000
G0 X8.881 Y2.356 Z5.000
G0 X8.881 Y2.356 Z3.000
G1 X8.881 Y2.356 Z0.000 F100.000
G1 X8.881 Y2.356 Z0.000 F100.000
G1 X8.690 Y2.323 Z-0.017 F100.000
G1 X8.508 Y2.254 Z-0.034 F100.000
G1 X8.344 Y2.150 Z-0.052 F100.000
G1 X8.203 Y2.017 Z-0.069 F100.000
G1 X8.091 Y1.859 Z-0.086 F100.000
G1 X8.012 Y1.681 Z-0.103 F100.000
G1 X7.969 Y1.492 Z-0.120 F100.000
G1 X7.964 Y1.298 Z-0.137 F100.000
G1 X7.996 Y1.107 Z-0.155 F100.000
G1 X8.066 Y0.926 Z-0.172 F100.000
G1 X8.169 Y0.761 Z-0.189 F100.000
G1 X8.303 Y0.620 Z-0.206 F100.000
G1 X8.461 Y0.508 Z-0.223 F100.000
G1 X8.638 Y0.429 Z-0.240 F100.000
G1 X8.827 Y0.386 Z-0.258 F100.000
G1 X9.021 Y0.381 Z-0.275 F100.000
G1 X9.213 Y0.414 Z-0.292 F100.000
G1 X9.394 Y0.483 Z-0.309 F100.000
G1 X9.558 Y0.586 Z-0.326 F100.000
G1 X9.699 Y0.720 Z-0.344 F100.000
G1 X9.811 Y0.878 Z-0.361 F100.000
G1 X9.890 Y1.055 Z-0.378 F100.000
G1 X9.933 Y1.245 Z-0.395 F100.000
G1 X9.939 Y1.439 Z-0.412 F100.000
G1 X9.906 Y1.630 Z-0.429 F100.000
G1 X9.837 Y1.811 Z-0.447 F100.000
G1 X9.733 Y1.975 Z-0.464 F100.000
G1 X9.600 Y2.116 Z-0.481 F100.000
G1 X9.441 Y2.229 Z-0.498 F100.000
G1 X9.264 Y2.308 Z-0.515 F100.000
G1 X9.075 Y2.351 Z-0.533 F100.000
G1 X8.881 Y2.356 Z-0.550 F100.000
G1 X8.690 Y2.323 Z-0.567 F100.000
G1 X8.508 Y2.254 Z-0.584 F100.000
G1 X8.344 Y2.150 Z-0.601 F100.000
G1 X8.203 Y2.017 Z-0.618 F100.000
G1 X8.091 Y1.859 Z-0.636 F100.000
G1 X8.012 Y1.681 Z-0.653 F100.000
G1 X7.969 Y1.492 Z-0.670 F100.000
G1 X7.964 Y1.298 Z-0.687 F100.000
G1 X7.996 Y1.107 Z-0.704 F100.000
G1 X8.066 Y0.926 Z-0.721 F100.000
G1 X8.169 Y0.761 Z-0.739 F100.000
G1 X8.303 Y0.620 Z-0.756 F100.000
G1 X8.461 Y0.508 Z-0.773 F100.000
G1 X8.638 Y0.429 Z-0.790 F100.000
G1 X8.827 Y0.386 Z-0.807 F100.000
G1 X9.021 Y0.381 Z-0.825 F100.000
G1 X9.213 Y0.414 Z-0.842 F100.000
G1 X9.394 Y0.483 Z-0.859 F100.000
G1 X9.558 Y0.586 Z-0.876 F100.000
G1 X9.699 Y0.720 Z-0.893 F100.000
G1 X9.811 Y0.878 Z-0.910 F100.000
G1 X9.890 Y1.055 Z-0.928 F100.000
G1 X9.933 Y1.245 Z-0.945 F100.000
G1 X9.939 Y1.439 Z-0.962 F100.000
G1 X9.906 Y1.630 Z-0.979 F100.000
G1 X9.837 Y1.811 Z-0.996 F100.000
G1 X9.733 Y1.975 Z-1.014 F100.000
G1 X9.600 Y2.116 Z-1.031 F100.000
G1 X9.441 Y2.229 Z-1.048 F100.000
G1 X9.264 Y2.308 Z-1.065 F100.000
G1 X9.075 Y2.351 Z-1.082 F100.000
G1 X8.881 Y2.356 Z-1.099 F100.000
G1 X8.690 Y2.323 Z-1.117 F100.000
G1 X8.508 Y2.254 Z-1.134 F100.000
G1 X8.344 Y2.150 Z-1.151 F100.000
G1 X8.203 Y2.017 Z-1.168 F100.000
G1 X8.091 Y1.859 Z-1.185 F100.000
G1 X8.012 Y1.681 Z-1.202 F100.000
G1 X7.969 Y1.492 Z-1.220 F100.000
G1 X7.964 Y1.298 Z-1.237 F100.000
G1 X7.996 Y1.107 Z-1.254 F100.000
G1 X8.066 Y0.926 Z-1.271 F100.000
G1 X8.169 Y0.761 Z-1.288 F100.000
G1 X8.303 Y0.620 Z-1.306 F100.000
G1 X8.461 Y0.508 Z-1.323 F100.000
G1 X8.638 Y0.429 Z-1.340 F100.000
G1 X8.827 Y0.386 Z-1.357 F100.000
G1 X9.021 Y0.381 Z-1.374 F100.000
G1 X9.213 Y0.414 Z-1.391 F100.000
G1 X9.394 Y0.483 Z-1.409 F100.000
G1 X9.558 Y0.586 Z-1.426 F100.000
G1 X9.699 Y0.720 Z-1.443 F100.000
G1 X9.811 Y0.878 Z-1.460 F100.000
G1 X9.890 Y1.055 Z-1.477 F100.000
G1 X9.933 Y1.245 Z-1.495 F100.000
G1 X9.939 Y1.439 Z-1.512 F100.000
G1 X9.906 Y1.630 Z-1.529 F100.000
G1 X9.837 Y1.811 Z-1.546 F100.000
G1 X9.733 Y1.975 Z-1.563 F100.000
G1 X9.600 Y2.116 Z-1.580 F100.000
G1 X9.441 Y2.229 Z-1.598 F100.000
G1 X9.264 Y2.308 Z-1.615 F100.000
G1 X9.075 Y2.351 Z-1.632 F100.000
G1 X8.881 Y2.356 Z-1.649 F100.000
G1 X8.690 Y2.323 Z-1.666 F100.000
G1 X8.508 Y2.254 Z-1.683 F100.000
G1 X8.344 Y2.150 Z-1.701 F100.000
G1 X8.203 Y2.017 Z-1.718 F100.000
G1 X8.091 Y1.859 Z-1.735 F100.000
G1 X8.012 Y1.681 Z-1.752 F100.000
G1 X7.969 Y1.492 Z-1.769 F100.000
G1 X7.964 Y1.298 Z-1.787 F100.000
G1 X7.996 Y1.107 Z-1.804 F100.000
G1 X8.066 Y0.926 Z-1.821 F100.000
G1 X8.169 Y0.761 Z-1.838 F100.000
G1 X8.303 Y0.620 Z-1.855 F100.000
G1 X8.461 Y0.508 Z-1.872 F100.000
G1 X8.638 Y0.429 Z-1.890 F100.000
G1 X8.827 Y0.386 Z-1.907 F100.000
G1 X9.021 Y0.381 Z-1.924 F100.000
G1 X9.213 Y0.414 Z-1.941 F100.000
G1 X9.394 Y0.483 Z-1.958 F100.000
G1 X9.558 Y0.586 Z-1.976 F100.000
G1 X9.699 Y0.720 Z-1.993 F100.000
G1 X9.811 Y0.878 Z-2.010 F100.000
G1 X9.890 Y1.055 Z-2.027 F100.000
G1 X9.933 Y1.245 Z-2.044 F100.000
G1 X9.939 Y1.439 Z-2.061 F100.000
G1 X9.906 Y1.630 Z-2.079 F100.000
G1 X9.837 Y1.811 Z-2.096 F100.000
G1 X9.733 Y1.975 Z-2.113 F100.000
G1 X9.600 Y2.116 Z-2.130 F100.000
G1 X9.441 Y2.229 Z-2.147 F100.000
G1 X9.264 Y2.308 Z-2.164 F100.000
G1 X9.075 Y2.351 Z-2.182 F100.000
G1 X8.881 Y2.356 Z-2.199 F100.000
G1 X8.690 Y2.323 Z-2.216 F100.000
G1 X8.508 Y2.254 Z-2.233 F100.000
G1 X8.344 Y2.150 Z-2.250 F100.000
G1 X8.203 Y2.017 Z-2.268 F100.000
G1 X8.091 Y1.859 Z-2.285 F100.000
G1 X8.012 Y1.681 Z-2.302 F100.000
G1 X7.969 Y1.492 Z-2.319 F100.000
G1 X7.964 Y1.298 Z-2.336 F100.000
G1 X7.996 Y1.107 Z-2.353 F100.000
G1 X8.066 Y0.926 Z-2.371 F100.000
G1 X8.169 Y0.761 Z-2.388 F100.000
G1 X8.303 Y0.620 Z-2.405 F100.000
G1 X8.461 Y0.508 Z-2.422 F100.000
G1 X8.638 Y0.429 Z-2.439 F100.000
G1 X8.827 Y0.386 Z-2.457 F100.000
G1 X9.021 Y0.381 Z-2.474 F100.000
G1 X9.213 Y0.414 Z-2.491 F100.000
G1 X9.394 Y0.483 Z-2.508 F100.000
G1 X9.558 Y0.586 Z-2.525 F100.000
G1 X9.699 Y0.720 Z-2.542 F100.000
G1 X9.811 Y0.878 Z-2.560 F100.000
G1 X9.890 Y1.055 Z-2.577 F100.000
G1 X9.933 Y1.245 Z-2.594 F100.000
G1 X9.939 Y1.439 Z-2.611 F100.000
G1 X9.906 Y1.630 Z-2.628 F100.000
G1 X9.837 Y1.811 Z-2.645 F100.000
G1 X9.733 Y1.975 Z-2.663 F100.000
G1 X9.600 Y2.116 Z-2.680 F100.000
G1 X9.441 Y2.229 Z-2.697 F100.000
G1 X9.264 Y2.308 Z-2.714 F100.000
G1 X9.075 Y2.351 Z-2.731 F100.000
G1 X8.881 Y2.356 Z-2.749 F100.000
G1 X8.690 Y2.323 Z-2.766 F100.000
G1 X8.508 Y2.254 Z-2.783 F100.000
G1 X8.344 Y2.150 Z-2.800 F100.000
G1 X8.203 Y2.017 Z-2.817 F100.000
G1 X8.091 Y1.859 Z-2.834 F100.000
G1 X8.012 Y1.681 Z-2.852 F100.000
G1 X7.969 Y1.492 Z-2.869 F100.000
G1 X7.964 Y1.298 Z-2.886 F100.000
G1 X7.996 Y1.107 Z-2.903 F100.000
G1 X8.066 Y0.926 Z-2.920 F100.000
G1 X8.169 Y0.761 Z-2.937 F100.000
G1 X8.303 Y0.620 Z-2.955 F100.000
G1 X8.461 Y0.508 Z-2.972 F100.000
G1 X8.638 Y0.429 Z-2.989 F100.000
G1 X8.827 Y0.386 Z-3.000 F200.000
G1 X9.021 Y0.381 Z-3.000 F200.000
G1 X9.213 Y0.414 Z-3.000 F200.000
G1 X9.394 Y0.483 Z-3.000 F200.000
G1 X9.558 Y0.586 Z-3.000 F200.000
G1 X9.699 Y0.720 Z-3.000 F200.000
G1 X9.811 Y0.878 Z-3.000 F200.000
G1 X9.890 Y1.055 Z-3.000 F200.000
G1 X9.933 Y1.245 Z-3.000 F200.000
G1 X9.939 Y1.439 Z-3.000 F200.000
G1 X9.906 Y1.630 Z-3.000 F200.000
G1 X9.837 Y1.811 Z-3.000 F200.000
G1 X9.733 Y1.975 Z-3.000 F200.000
G1 X9.600 Y2.116 Z-3.000 F200.000
G1 X9.441 Y2.229 Z-3.000 F200.000
G1 X9.264 Y2.308 Z-3.000 F200.000
G1 X9.075 Y2.351 Z-3.000 F200.000
G1 X8.881 Y2.356 Z-3.000 F200.000
G1 X8.690 Y2.323 Z-3.000 F200.000
G1 X8.508 Y2.254 Z-3.000 F200.000
G1 X8.344 Y2.150 Z-3.000 F200.000
G1 X8.203 Y2.017 Z-3.000 F200.000
G1 X8.091 Y1.859 Z-3.000 F200.000
G1 X8.012 Y1.681 Z-3.000 F200.000
G1 X7.969 Y1.492 Z-3.000 F200.000
G1 X7.964 Y1.298 Z-3.000 F200.000
G1 X7.996 Y1.107 Z-3.000 F200.000
G1 X8.066 Y0.926 Z-3.000 F200.000
G1 X8.169 Y0.761 Z-3.000 F200.000
G1 X8.303 Y0.620 Z-3.000 F200.000
G1 X8.461 Y0.508 Z-3.000 F200.000
G1 X8.638 Y0.429 Z-3.000 F200.000
(Adaptive - depth: -3.000000)
G1 X8.951 Y0.368 F200.000
G1 X8.996 Y0.327 F200.000
G1 X9.105 Y0.289 F200.000
G1 X9.218 Y0.278 F200.000
G1 X9.387 Y0.301 F200.000
G1 X9.444 Y0.316 F200.000
G1 X9.778 Y0.470 F200.000
G1 X9.970 Y0.684 F200.000
G1 X10.011 Y0.793 F200.000
G1 X10.015 Y1.752 F200.000
G1 X10.000 Y1.808 F200.000
G1 X9.902 Y1.955 F200.000
G1 X9.793 Y2.165 F200.000
G1 X9.688 Y2.308 F200.000
G1 X9.598 Y2.387 F200.000
G1 X9.380 Y2.504 F200.000
G1 X9.143 Y2.568 F200.000
G1 X8.771 Y2.602 F200.000
G1 X8.440 Y2.523 F200.000
G1 X8.211 Y2.402 F200.000
G1 X8.064 Y2.286 F200.000
G1 X7.898 Y2.098 F200.000
G1 X7.801 Y1.936 F200.000
G1 X7.789 Y1.876 F200.000
G1 X7.789 Y1.876 F200.000
G1 X7.846 Y1.726 F200.000
G1 X7.861 Y1.692 F200.000
G1 X7.902 Y1.560 F200.000
G1 X7.895 Y1.346 F200.000
G1 X7.895 Y1.346 F200.000
G1 X7.985 Y0.744 F200.000
G1 X8.041 Y0.568 F200.000
G1 X8.109 Y0.466 F200.000
G1 X8.391 Y0.241 F200.000
G1 X8.650 Y0.105 F200.000
G1 X8.932 Y0.026 F200.000
G1 X9.214 Y0.008 F200.000
G1 X9.327 Y0.015 F200.000
G1 X9.684 Y0.105 F200.000
G1 X9.880 Y0.229 F200.000
G1 X9.962 Y0.308 F200.000
G1 X9.996 Y0.353 F200.000
G1 X10.019 Y0.406 F200.000
G1 X10.019 Y0.744 F200.000
G1 X10.019 Y0.744 F200.000
G1 X9.989 Y0.861 F200.000
G1 X9.936 Y0.932 F200.000
G0 X9.914 Y0.947
G0 X9.756 Y0.951
G0 X8.244 Y0.812
G1 X8.207 Y0.812 F200.000
G1 X8.105 Y0.793 F200.000
G1 X8.056 Y0.763 F200.000
G1 X8.011 Y0.688 F200.000
G1 X7.996 Y0.571 F200.000
G1 X7.996 Y0.571 F200.000
G1 X8.038 Y0.331 F200.000
G1 X8.083 Y0.214 F200.000
G1 X8.158 Y0.124 F200.000
G1 X8.342 Y-0.026 F200.000
G1 X8.541 Y-0.139 F200.000
G1 X8.891 Y-0.263 F200.000
G1 X9.241 Y-0.297 F200.000
G1 X9.410 Y-0.282 F200.000
G1 X9.609 Y-0.233 F200.000
G1 X9.872 Y-0.102 F200.000
G1 X9.966 Y-0.026 F200.000
G1 X10.004 Y0.019 F200.000
G1 X10.026 Y0.071 F200.000
G1 X10.026 Y0.184 F200.000
G1 X10.026 Y0.184 F200.000
G1 X9.992 Y0.301 F200.000
G1 X9.944 Y0.372 F200.000
G0 X9.917 Y0.387
G0 X9.759 Y0.414
G0 X8.278 Y0.485
G1 X8.241 Y0.489 F200.000
G1 X8.139 Y0.485 F200.000
G1 X8.086 Y0.462 F200.000
G1 X8.038 Y0.391 F200.000
G1 X8.015 Y0.274 F200.000
G1 X8.015 Y0.274 F200.000
G1 X8.056 Y0.034 F200.000
G1 X8.102 Y-0.075 F200.000
G1 X8.259 Y-0.244 F200.000
G1 X8.447 Y-0.380 F200.000
G1 X8.835 Y-0.553 F200.000
G1 X9.199 Y-0.605 F200.000
G1 X9.368 Y-0.594 F200.000
G1 X9.511 Y-0.568 F200.000
G1 X9.684 Y-0.519 F200.000
G1 X9.842 Y-0.440 F200.000
G1 X9.985 Y-0.327 F200.000
G1 X10.015 Y-0.274 F200.000
G1 X10.026 Y-0.214 F200.000
G1 X10.026 Y-0.214 F200.000
G1 X10.000 Y-0.086 F200.000
G1 X9.951 Y-0.008 F200.000
G0 X9.929 Y0.004
G0 X9.771 Y0.041
G0 X8.282 Y0.229
G1 X8.244 Y0.237 F200.000
G1 X8.143 Y0.241 F200.000
G1 X8.090 Y0.218 F200.000
G1 X8.041 Y0.150 F200.000
G1 X8.023 Y0.034 F200.000
G1 X8.023 Y0.034 F200.000
G1 X8.038 Y-0.192 F200.000
G1 X8.064 Y-0.305 F200.000
G1 X8.086 Y-0.357 F200.000
G1 X8.278 Y-0.568 F200.000
G1 X8.515 Y-0.726 F200.000
G1 X8.857 Y-0.865 F200.000
G1 X9.226 Y-0.914 F200.000
G1 X9.391 Y-0.902 F200.000
G1 X9.538 Y-0.880 F200.000
G1 X9.707 Y-0.820 F200.000
G1 X9.914 Y-0.699 F200.000
G1 X9.959 Y-0.662 F200.000
G1 X9.992 Y-0.609 F200.000
G1 X10.011 Y-0.553 F200.000
G1 X10.015 Y-0.492 F200.000
G1 X10.015 Y-0.492 F200.000
G1 X9.996 Y-0.365 F200.000
G1 X9.951 Y-0.282 F200.000
G0 X9.929 Y-0.267
G0 X9.774 Y-0.226
G0 X8.293 Y-0.053
G1 X8.256 Y-0.049 F200.000
G1 X8.154 Y-0.045 F200.000
G1 X8.098 Y-0.068 F200.000
G1 X8.045 Y-0.139 F200.000
G1 X8.015 Y-0.263 F200.000
G1 X8.015 Y-0.263 F200.000
G1 X8.030 Y-0.489 F200.000
G1 X8.056 Y-0.602 F200.000
G1 X8.117 Y-0.699 F200.000
G1 X8.274 Y-0.865 F200.000
G1 X8.462 Y-1.000 F200.000
G1 X8.797 Y-1.154 F200.000
G1 X9.135 Y-1.218 F200.000
G1 X9.308 Y-1.218 F200.000
G1 X9.459 Y-1.203 F200.000
G1 X9.650 Y-1.154 F200.000
G1 X9.906 Y-1.015 F200.000
G1 X9.951 Y-0.974 F200.000
G1 X9.985 Y-0.921 F200.000
G1 X9.989 Y-0.861 F200.000
G1 X9.989 Y-0.861 F200.000
G1 X9.970 Y-0.733 F200.000
G1 X9.925 Y-0.650 F200.000
G0 X9.902 Y-0.632
G0 X9.744 Y-0.590
G0 X8.289 Y-0.365
G1 X8.252 Y-0.357 F200.000
G1 X8.150 Y-0.353 F200.000
G1 X8.094 Y-0.372 F200.000
G1 X8.038 Y-0.444 F200.000
G1 X7.996 Y-0.564 F200.000
G1 X7.996 Y-0.564 F200.000
G1 X8.008 Y-0.789 F200.000
G1 X8.038 Y-0.902 F200.000
G1 X8.177 Y-1.086 F200.000
G1 X8.398 Y-1.271 F200.000
G1 X8.447 Y-1.301 F200.000
G1 X8.782 Y-1.459 F200.000
G1 X9.147 Y-1.530 F200.000
G1 X9.316 Y-1.530 F200.000
G1 X9.459 Y-1.515 F200.000
G1 X9.741 Y-1.421 F200.000
G1 X9.895 Y-1.331 F200.000
G1 X9.932 Y-1.282 F200.000
G1 X9.974 Y-1.041 F200.000
G1 X9.974 Y-1.041 F200.000
G1 X9.962 Y-0.914 F200.000
G1 X9.925 Y-0.831 F200.000
G0 X9.902 Y-0.812
G0 X9.748 Y-0.771
G0 X8.267 Y-0.590
G1 X8.229 Y-0.586 F200.000
G1 X8.128 Y-0.583 F200.000
G1 X8.071 Y-0.605 F200.000
G1 X8.015 Y-0.677 F200.000
G1 X7.977 Y-0.801 F200.000
G1 X7.977 Y-0.801 F200.000
G1 X7.966 Y-1.026 F200.000
G1 X7.985 Y-1.139 F200.000
G1 X8.004 Y-1.195 F200.000
G1 X8.143 Y-1.380 F200.000
G1 X8.361 Y-1.564 F200.000
G1 X8.684 Y-1.744 F200.000
G1 X9.041 Y-1.835 F200.000
G1 X9.207 Y-1.842 F200.000
G1 X9.350 Y-1.835 F200.000
G1 X9.541 Y-1.801 F200.000
G1 X9.763 Y-1.711 F200.000
G1 X9.816 Y-1.680 F200.000
G1 X9.861 Y-1.639 F200.000
G1 X9.895 Y-1.586 F200.000
G1 X9.940 Y-1.286 F200.000
G1 X9.940 Y-1.286 F200.000
G1 X9.929 Y-1.158 F200.000
G1 X9.910 Y-1.098 F200.000
G1 X9.891 Y-1.075 F200.000
G0 X9.868 Y-1.056
G0 X9.714 Y-1.023
G0 X8.244 Y-0.887
G1 X8.207 Y-0.887 F200.000
G1 X8.102 Y-0.883 F200.000
G1 X8.045 Y-0.910 F200.000
G1 X7.985 Y-0.977 F200.000
G1 X7.940 Y-1.098 F200.000
G1 X7.940 Y-1.098 F200.000
G1 X7.932 Y-1.380 F200.000
G1 X7.944 Y-1.436 F200.000
G1 X8.064 Y-1.632 F200.000
G1 X8.226 Y-1.797 F200.000
G1 X8.320 Y-1.865 F200.000
G1 X8.647 Y-2.041 F200.000
G1 X8.985 Y-2.135 F200.000
G1 X9.173 Y-2.150 F200.000
G1 X9.387 Y-2.135 F200.000
G1 X9.613 Y-2.075 F200.000
G1 X9.774 Y-1.996 F200.000
G1 X9.816 Y-1.951 F200.000
G1 X9.842 Y-1.895 F200.000
G1 X9.883 Y-1.654 F200.000
G1 X9.883 Y-1.654 F200.000
G1 X9.868 Y-1.492 F200.000
G1 X9.838 Y-1.440 F200.000
G0 X9.820 Y-1.421
G0 X9.714 Y-1.387
G0 X8.199 Y-1.203
G1 X8.162 Y-1.199 F200.000
G1 X8.056 Y-1.195 F200.000
G1 X8.000 Y-1.214 F200.000
G1 X7.940 Y-1.278 F200.000
G1 X7.891 Y-1.395 F200.000
G1 X7.891 Y-1.395 F200.000
G1 X7.872 Y-1.620 F200.000
G1 X7.887 Y-1.733 F200.000
G1 X7.910 Y-1.786 F200.000
G1 X8.049 Y-1.974 F200.000
G1 X8.222 Y-2.132 F200.000
G1 X8.534 Y-2.327 F200.000
G1 X8.887 Y-2.440 F200.000
G1 X9.056 Y-2.459 F200.000
G1 X9.203 Y-2.462 F200.000
G1 X9.402 Y-2.440 F200.000
G1 X9.628 Y-2.365 F200.000
G1 X9.680 Y-2.338 F200.000
G1 X9.726 Y-2.297 F200.000
G1 X9.759 Y-2.248 F200.000
G1 X9.831 Y-1.947 F200.000
G1 X9.831 Y-1.947 F200.000
G1 X9.823 Y-1.786 F200.000
G1 X9.801 Y-1.733 F200.000
G0 X9.782 Y-1.714
G0 X9.677 Y-1.677
G0 X8.162 Y-1.444
G1 X8.124 Y-1.440 F200.000
G1 X8.019 Y-1.432 F200.000
G1 X7.962 Y-1.451 F200.000
G1 X7.895 Y-1.515 F200.000
G1 X7.842 Y-1.632 F200.000
G1 X7.842 Y-1.632 F200.000
G1 X7.812 Y-1.857 F200.000
G1 X7.820 Y-1.970 F200.000
G1 X7.835 Y-2.026 F200.000
G1 X7.959 Y-2.222 F200.000
G1 X8.117 Y-2.391 F200.000
G1 X8.162 Y-2.429 F200.000
G1 X8.470 Y-2.632 F200.000
G1 X8.789 Y-2.744 F200.000
G1 X8.955 Y-2.767 F200.000
G1 X9.098 Y-2.774 F200.000
G1 X9.308 Y-2.767 F200.000
G1 X9.586 Y-2.673 F200.000
G1 X9.632 Y-2.635 F200.000
G1 X9.669 Y-2.590 F200.000
G1 X9.748 Y-2.293 F200.000
G1 X9.748 Y-2.293 F200.000
G1 X9.741 Y-2.132 F200.000
G1 X9.718 Y-2.079 F200.000
G0 X9.699 Y-2.060
G0 X9.549 Y-2.011
G0 X8.090 Y-1.741
G1 X8.056 Y-1.733 F200.000
G1 X7.951 Y-1.726 F200.000
G1 X7.895 Y-1.741 F200.000
G1 X7.827 Y-1.805 F200.000
G1 X7.774 Y-1.921 F200.000
G1 X7.774 Y-1.921 F200.000
G1 X7.741 Y-2.147 F200.000
G1 X7.748 Y-2.259 F200.000
G1 X7.853 Y-2.462 F200.000
G1 X8.041 Y-2.684 F200.000
G1 X8.338 Y-2.902 F200.000
G1 X8.632 Y-3.026 F200.000
G1 X8.797 Y-3.068 F200.000
G1 X8.959 Y-3.086 F200.000
G1 X9.154 Y-3.086 F200.000
G1 X9.323 Y-3.056 F200.000
G1 X9.492 Y-2.992 F200.000
G1 X9.538 Y-2.955 F200.000
G1 X9.575 Y-2.906 F200.000
G1 X9.628 Y-2.733 F200.000
G1 X9.628 Y-2.733 F200.000
G1 X9.632 Y-2.605 F200.000
G1 X9.605 Y-2.519 F200.000
G0 X9.586 Y-2.496
G0 X9.440 Y-2.432
G0 X8.038 Y-2.004
G1 X8.004 Y-1.992 F200.000
G1 X7.902 Y-1.974 F200.000
G1 X7.842 Y-1.985 F200.000
G1 X7.771 Y-2.041 F200.000
G1 X7.703 Y-2.150 F200.000
G1 X7.703 Y-2.150 F200.000
G1 X7.650 Y-2.432 F200.000
G1 X7.658 Y-2.545 F200.000
G1 X7.763 Y-2.748 F200.000
G1 X7.906 Y-2.929 F200.000
G1 X7.947 Y-2.970 F200.000
G1 X8.241 Y-3.195 F200.000
G1 X8.564 Y-3.338 F200.000
G1 X8.737 Y-3.380 F200.000
G1 X9.008 Y-3.395 F200.000
G1 X9.233 Y-3.368 F200.000
G1 X9.346 Y-3.331 F200.000
G1 X9.398 Y-3.305 F200.000
G1 X9.444 Y-3.263 F200.000
G1 X9.549 Y-2.977 F200.000
G1 X9.549 Y-2.977 F200.000
G1 X9.560 Y-2.850 F200.000
G1 X9.538 Y-2.759 F200.000
G0 X9.519 Y-2.737
G0 X9.417 Y-2.688
G0 X7.947 Y-2.297
G1 X7.914 Y-2.286 F200.000
G1 X7.812 Y-2.267 F200.000
G1 X7.752 Y-2.278 F200.000
G1 X7.680 Y-2.331 F200.000
G1 X7.613 Y-2.436 F200.000
G1 X7.613 Y-2.436 F200.000
G1 X7.568 Y-2.605 F200.000
G1 X7.556 Y-2.774 F200.000
G1 X7.647 Y-2.989 F200.000
G1 X7.820 Y-3.222 F200.000
G1 X7.861 Y-3.263 F200.000
G1 X8.150 Y-3.496 F200.000
G1 X8.489 Y-3.647 F200.000
G1 X8.650 Y-3.684 F200.000
G1 X8.914 Y-3.707 F200.000
G1 X9.139 Y-3.680 F200.000
G1 X9.252 Y-3.643 F200.000
G1 X9.301 Y-3.609 F200.000
G1 X9.335 Y-3.560 F200.000
G1 X9.444 Y-3.274 F200.000
G1 X9.444 Y-3.274 F200.000
G1 X9.455 Y-3.147 F200.000
G1 X9.432 Y-3.056 F200.000
G0 X9.414 Y-3.034
G0 X9.271 Y-2.974
G0 X7.853 Y-2.583
G1 X7.820 Y-2.571 F200.000
G1 X7.718 Y-2.553 F200.000
G1 X7.658 Y-2.564 F200.000
G1 X7.583 Y-2.617 F200.000
G1 X7.511 Y-2.718 F200.000
G1 X7.511 Y-2.718 F200.000
G1 X7.462 Y-2.887 F200.000
G1 X7.451 Y-3.000 F200.000
G1 X7.455 Y-3.056 F200.000
G1 X7.541 Y-3.271 F200.000
G1 X7.711 Y-3.504 F200.000
G1 X7.985 Y-3.752 F200.000
G1 X8.289 Y-3.914 F200.000
G1 X8.451 Y-3.966 F200.000
G1 X8.605 Y-3.996 F200.000
G1 X8.857 Y-4.015 F200.000
G1 X9.026 Y-3.992 F200.000
G1 X9.083 Y-3.977 F200.000
G1 X9.135 Y-3.951 F200.000
G1 X9.180 Y-3.914 F200.000
G1 X9.286 Y-3.692 F200.000
G1 X9.286 Y-3.692 F200.000
G1 X9.305 Y-3.564 F200.000
G1 X9.289 Y-3.477 F200.000
G0 X9.271 Y-3.455
G0 X9.132 Y-3.376
G0 X7.763 Y-2.827
G1 X7.729 Y-2.812 F200.000
G1 X7.628 Y-2.782 F200.000
G1 X7.568 Y-2.789 F200.000
G1 X7.492 Y-2.838 F200.000
G1 X7.417 Y-2.940 F200.000
G1 X7.417 Y-2.940 F200.000
G1 X7.350 Y-3.165 F200.000
G1 X7.342 Y-3.278 F200.000
G1 X7.414 Y-3.496 F200.000
G1 X7.564 Y-3.741 F200.000
G1 X7.602 Y-3.786 F200.000
G1 X7.872 Y-4.038 F200.000
G1 X8.180 Y-4.211 F200.000
G1 X8.346 Y-4.267 F200.000
G1 X8.553 Y-4.308 F200.000
G1 X8.778 Y-4.312 F200.000
G1 X8.947 Y-4.278 F200.000
G1 X9.045 Y-4.211 F200.000
G1 X9.128 Y-4.045 F200.000
G1 X9.128 Y-4.045 F200.000
G1 X9.154 Y-3.917 F200.000
G1 X9.143 Y-3.831 F200.000
G0 X9.128 Y-3.805
G0 X8.992 Y-3.718
G0 X7.669 Y-3.071
G1 X7.635 Y-3.053 F200.000
G1 X7.541 Y-3.015 F200.000
G1 X7.481 Y-3.019 F200.000
G1 X7.402 Y-3.064 F200.000
G1 X7.320 Y-3.162 F200.000
G1 X7.320 Y-3.162 F200.000
G1 X7.218 Y-3.440 F200.000
G1 X7.207 Y-3.496 F200.000
G1 X7.207 Y-3.553 F200.000
G1 X7.278 Y-3.771 F200.000
G1 X7.391 Y-3.974 F200.000
G1 X7.425 Y-4.019 F200.000
G1 X7.680 Y-4.286 F200.000
G1 X7.989 Y-4.481 F200.000
G1 X8.147 Y-4.545 F200.000
G1 X8.297 Y-4.590 F200.000
G1 X8.635 Y-4.613 F200.000
G1 X8.748 Y-4.602 F200.000
G1 X8.805 Y-4.586 F200.000
G1 X8.853 Y-4.553 F200.000
G1 X8.891 Y-4.508 F200.000
G1 X9.004 Y-4.289 F200.000
G1 X9.004 Y-4.289 F200.000
G1 X9.038 Y-4.165 F200.000
G1 X9.026 Y-4.079 F200.000
G0 X9.011 Y-4.056
G0 X8.876 Y-3.974
G0 X7.519 Y-3.395
G1 X7.485 Y-3.380 F200.000
G1 X7.387 Y-3.350 F200.000
G1 X7.327 Y-3.350 F200.000
G1 X7.248 Y-3.391 F200.000
G1 X7.162 Y-3.485 F200.000
G1 X7.162 Y-3.485 F200.000
G1 X7.083 Y-3.703 F200.000
G1 X7.071 Y-3.759 F200.000
G1 X7.071 Y-3.816 F200.000
G1 X7.135 Y-4.038 F200.000
G1 X7.282 Y-4.289 F200.000
G1 X7.534 Y-4.560 F200.000
G1 X7.842 Y-4.763 F200.000
G1 X8.004 Y-4.831 F200.000
G1 X8.259 Y-4.898 F200.000
G1 X8.541 Y-4.906 F200.000
G1 X8.598 Y-4.898 F200.000
G1 X8.654 Y-4.876 F200.000
G1 X8.703 Y-4.842 F200.000
G1 X8.853 Y-4.579 F200.000
G1 X8.853 Y-4.579 F200.000
G1 X8.887 Y-4.455 F200.000
G1 X8.876 Y-4.368 F200.000
G0 X8.865 Y-4.342
G0 X8.729 Y-4.256
G0 X7.402 Y-3.617
G1 X7.368 Y-3.598 F200.000
G1 X7.274 Y-3.560 F200.000
G1 X7.214 Y-3.564 F200.000
G1 X7.135 Y-3.602 F200.000
G1 X7.049 Y-3.695 F200.000
G1 X7.049 Y-3.695 F200.000
G1 X6.970 Y-3.853 F200.000
G1 X6.936 Y-3.966 F200.000
G1 X6.929 Y-4.023 F200.000
G1 X6.959 Y-4.192 F200.000
G1 X7.071 Y-4.459 F200.000
G1 X7.135 Y-4.556 F200.000
G1 X7.383 Y-4.831 F200.000
G1 X7.680 Y-5.041 F200.000
G1 X7.853 Y-5.120 F200.000
G1 X8.004 Y-5.173 F200.000
G1 X8.286 Y-5.207 F200.000
G1 X8.455 Y-5.184 F200.000
G1 X8.508 Y-5.154 F200.000
G1 X8.669 Y-4.898 F200.000
G1 X8.669 Y-4.898 F200.000
G1 X8.707 Y-4.774 F200.000
G1 X8.703 Y-4.688 F200.000
G0 X8.688 Y-4.662
G0 X8.560 Y-4.571
G0 X7.248 Y-3.880
G1 X7.214 Y-3.861 F200.000
G1 X7.120 Y-3.820 F200.000
G1 X7.060 Y-3.820 F200.000
G1 X6.981 Y-3.857 F200.000
G1 X6.895 Y-3.951 F200.000
G1 X6.895 Y-3.951 F200.000
G1 X6.797 Y-4.165 F200.000
G1 X6.774 Y-4.278 F200.000
G1 X6.842 Y-4.560 F200.000
G1 X6.944 Y-4.767 F200.000
G1 X7.169 Y-5.060 F200.000
G1 X7.440 Y-5.278 F200.000
G1 X7.598 Y-5.365 F200.000
G1 X7.737 Y-5.425 F200.000
G1 X7.932 Y-5.477 F200.000
G1 X8.158 Y-5.492 F200.000
G1 X8.214 Y-5.489 F200.000
G1 X8.271 Y-5.474 F200.000
G1 X8.320 Y-5.440 F200.000
G1 X8.489 Y-5.192 F200.000
G1 X8.489 Y-5.192 F200.000
G1 X8.534 Y-5.071 F200.000
G1 X8.534 Y-4.981 F200.000
G0 X8.523 Y-4.959
G0 X8.398 Y-4.861
G0 X7.128 Y-4.109
G1 X7.098 Y-4.090 F200.000
G1 X7.004 Y-4.045 F200.000
G1 X6.944 Y-4.041 F200.000
G1 X6.857 Y-4.071 F200.000
G1 X6.767 Y-4.154 F200.000
G1 X6.767 Y-4.154 F200.000
G1 X6.673 Y-4.308 F200.000
G1 X6.613 Y-4.474 F200.000
G1 X6.609 Y-4.530 F200.000
G1 X6.650 Y-4.756 F200.000
G1 X6.763 Y-5.019 F200.000
G1 X6.981 Y-5.316 F200.000
G1 X7.244 Y-5.538 F200.000
G1 X7.395 Y-5.628 F200.000
G1 X7.545 Y-5.699 F200.000
G1 X7.771 Y-5.759 F200.000
G1 X7.996 Y-5.774 F200.000
G1 X8.053 Y-5.763 F200.000
G1 X8.105 Y-5.733 F200.000
G1 X8.286 Y-5.492 F200.000
G1 X8.286 Y-5.492 F200.000
G1 X8.331 Y-5.372 F200.000
G1 X8.331 Y-5.282 F200.000
G0 X8.320 Y-5.259
G0 X8.199 Y-5.158
G0 X6.951 Y-4.365
G1 X6.921 Y-4.346 F200.000
G1 X6.831 Y-4.297 F200.000
G1 X6.771 Y-4.293 F200.000
G1 X6.684 Y-4.320 F200.000
G1 X6.594 Y-4.402 F200.000
G1 X6.594 Y-4.402 F200.000
G1 X6.474 Y-4.609 F200.000
G1 X6.436 Y-4.722 F200.000
G1 X6.444 Y-4.891 F200.000
G1 X6.508 Y-5.113 F200.000
G1 X6.583 Y-5.271 F200.000
G1 X6.797 Y-5.571 F200.000
G1 X7.064 Y-5.808 F200.000
G1 X7.218 Y-5.902 F200.000
G1 X7.406 Y-5.985 F200.000
G1 X7.688 Y-6.041 F200.000
G1 X7.801 Y-6.045 F200.000
G1 X7.857 Y-6.026 F200.000
G1 X7.906 Y-5.992 F200.000
G1 X8.094 Y-5.756 F200.000
G1 X8.094 Y-5.756 F200.000
G1 X8.143 Y-5.639 F200.000
G1 X8.147 Y-5.549 F200.000
G0 X8.135 Y-5.526
G0 X8.019 Y-5.421
G0 X6.774 Y-4.609
G1 X6.744 Y-4.586 F200.000
G1 X6.654 Y-4.538 F200.000
G1 X6.594 Y-4.534 F200.000
G1 X6.508 Y-4.560 F200.000
G1 X6.417 Y-4.643 F200.000
G1 X6.417 Y-4.643 F200.000
G1 X6.293 Y-4.846 F200.000
G1 X6.256 Y-4.959 F200.000
G1 X6.267 Y-5.128 F200.000
G1 X6.342 Y-5.406 F200.000
G1 X6.365 Y-5.459 F200.000
G1 X6.560 Y-5.774 F200.000
G1 X6.797 Y-6.019 F200.000
G1 X6.947 Y-6.120 F200.000
G1 X7.079 Y-6.192 F200.000
G1 X7.263 Y-6.267 F200.000
G1 X7.545 Y-6.312 F200.000
G1 X7.602 Y-6.305 F200.000
G1 X7.654 Y-6.282 F200.000
G1 X7.891 Y-6.015 F200.000
G1 X7.891 Y-6.015 F200.000
G1 X7.947 Y-5.902 F200.000
G1 X7.955 Y-5.812 F200.000
G0 X7.947 Y-5.786
G0 X7.835 Y-5.680
G0 X6.628 Y-4.820
G1 X6.598 Y-4.797 F200.000
G1 X6.508 Y-4.744 F200.000
G1 X6.451 Y-4.729 F200.000
G1 X6.365 Y-4.752 F200.000
G1 X6.267 Y-4.827 F200.000
G1 X6.267 Y-4.827 F200.000
G1 X6.132 Y-5.019 F200.000
G1 X6.083 Y-5.128 F200.000
G1 X6.071 Y-5.184 F200.000
G1 X6.083 Y-5.410 F200.000
G1 X6.162 Y-5.688 F200.000
G1 X6.346 Y-6.008 F200.000
G1 X6.556 Y-6.237 F200.000
G1 X6.692 Y-6.346 F200.000
G1 X6.838 Y-6.436 F200.000
G1 X7.019 Y-6.519 F200.000
G1 X7.244 Y-6.568 F200.000
G1 X7.357 Y-6.571 F200.000
G1 X7.414 Y-6.549 F200.000
G1 X7.620 Y-6.327 F200.000
G1 X7.620 Y-6.327 F200.000
G1 X7.680 Y-6.218 F200.000
G1 X7.692 Y-6.128 F200.000
G0 X7.684 Y-6.102
G0 X7.575 Y-5.989
G0 X6.436 Y-5.064
G1 X6.406 Y-5.041 F200.000
G1 X6.320 Y-4.981 F200.000
G1 X6.259 Y-4.970 F200.000
G1 X6.173 Y-4.985 F200.000
G1 X6.068 Y-5.053 F200.000
G1 X6.068 Y-5.053 F200.000
G1 X5.929 Y-5.241 F200.000
G1 X5.876 Y-5.350 F200.000
G1 X5.872 Y-5.575 F200.000
G1 X5.914 Y-5.801 F200.000
G1 X5.951 Y-5.914 F200.000
G1 X6.128 Y-6.237 F200.000
G1 X6.361 Y-6.500 F200.000
G1 X6.496 Y-6.609 F200.000
G1 X6.684 Y-6.722 F200.000
G1 X6.842 Y-6.786 F200.000
G1 X7.011 Y-6.823 F200.000
G1 X7.068 Y-6.827 F200.000
G1 X7.124 Y-6.820 F200.000
G1 X7.180 Y-6.797 F200.000
G1 X7.387 Y-6.586 F200.000
G1 X7.387 Y-6.586 F200.000
G1 X7.447 Y-6.477 F200.000
G1 X7.459 Y-6.387 F200.000
G0 X7.451 Y-6.361
G0 X7.346 Y-6.244
G0 X6.226 Y-5.289
G1 X6.195 Y-5.263 F200.000
G1 X6.113 Y-5.203 F200.000
G1 X6.053 Y-5.188 F200.000
G1 X5.966 Y-5.203 F200.000
G1 X5.861 Y-5.271 F200.000
G1 X5.861 Y-5.271 F200.000
G1 X5.711 Y-5.459 F200.000
G1 X5.665 Y-5.568 F200.000
G1 X5.658 Y-5.850 F200.000
G1 X5.688 Y-6.019 F200.000
G1 X5.707 Y-6.075 F200.000
G1 X5.861 Y-6.410 F200.000
G1 X6.090 Y-6.699 F200.000
G1 X6.226 Y-6.820 F200.000
G1 X6.353 Y-6.914 F200.000
G1 X6.560 Y-7.011 F200.000
G1 X6.786 Y-7.068 F200.000
G1 X6.842 Y-7.071 F200.000
G1 X6.898 Y-7.056 F200.000
G1 X7.120 Y-6.857 F200.000
G1 X7.120 Y-6.857 F200.000
G1 X7.184 Y-6.748 F200.000
G1 X7.203 Y-6.662 F200.000
G0 X7.195 Y-6.635
G0 X7.098 Y-6.511
G0 X6.041 Y-5.470
G1 X6.015 Y-5.444 F200.000
G1 X5.936 Y-5.376 F200.000
G1 X5.880 Y-5.357 F200.000
G1 X5.793 Y-5.372 F200.000
G1 X5.688 Y-5.440 F200.000
G1 X5.688 Y-5.440 F200.000
G1 X5.526 Y-5.617 F200.000
G1 X5.462 Y-5.718 F200.000
G1 X5.444 Y-5.774 F200.000
G1 X5.429 Y-6.000 F200.000
G1 X5.459 Y-6.226 F200.000
G1 X5.474 Y-6.282 F200.000
G1 X5.620 Y-6.620 F200.000
G1 X5.820 Y-6.891 F200.000
G1 X5.951 Y-7.019 F200.000
G1 X6.177 Y-7.180 F200.000
G1 X6.391 Y-7.271 F200.000
G1 X6.560 Y-7.308 F200.000
G1 X6.617 Y-7.297 F200.000
G1 X6.669 Y-7.267 F200.000
G1 X6.895 Y-7.068 F200.000
G1 X6.895 Y-7.068 F200.000
G1 X6.966 Y-6.962 F200.000
G1 X6.989 Y-6.876 F200.000
G0 X6.985 Y-6.850
G0 X6.887 Y-6.726
G0 X5.820 Y-5.684
G1 X5.793 Y-5.658 F200.000
G1 X5.714 Y-5.594 F200.000
G1 X5.658 Y-5.571 F200.000
G1 X5.571 Y-5.583 F200.000
G1 X5.466 Y-5.643 F200.000
G1 X5.466 Y-5.643 F200.000
G1 X5.301 Y-5.816 F200.000
G1 X5.237 Y-5.917 F200.000
G1 X5.218 Y-5.974 F200.000
G1 X5.199 Y-6.256 F200.000
G1 X5.233 Y-6.481 F200.000
G1 X5.372 Y-6.823 F200.000
G1 X5.549 Y-7.086 F200.000
G1 X5.673 Y-7.214 F200.000
G1 X5.797 Y-7.320 F200.000
G1 X5.962 Y-7.429 F200.000
G1 X6.124 Y-7.496 F200.000
G1 X6.237 Y-7.526 F200.000
G1 X6.293 Y-7.526 F200.000
G1 X6.350 Y-7.511 F200.000
G1 X6.635 Y-7.293 F200.000
G1 X6.635 Y-7.293 F200.000
G1 X6.714 Y-7.192 F200.000
G1 X6.741 Y-7.109 F200.000
G0 X6.737 Y-7.079
G0 X6.677 Y-6.989
G0 X5.598 Y-5.891
G1 X5.571 Y-5.865 F200.000
G1 X5.492 Y-5.797 F200.000
G1 X5.436 Y-5.774 F200.000
G1 X5.350 Y-5.778 F200.000
G1 X5.241 Y-5.835 F200.000
G1 X5.241 Y-5.835 F200.000
G1 X5.109 Y-5.955 F200.000
G1 X5.034 Y-6.049 F200.000
G1 X5.004 Y-6.102 F200.000
G1 X4.966 Y-6.271 F200.000
G1 X4.966 Y-6.553 F200.000
G1 X4.985 Y-6.665 F200.000
G1 X5.113 Y-7.011 F200.000
G1 X5.282 Y-7.274 F200.000
G1 X5.406 Y-7.417 F200.000
G1 X5.632 Y-7.605 F200.000
G1 X5.835 Y-7.711 F200.000
G1 X5.944 Y-7.741 F200.000
G1 X6.000 Y-7.744 F200.000
G1 X6.056 Y-7.733 F200.000
G1 X6.301 Y-7.560 F200.000
G1 X6.301 Y-7.560 F200.000
G1 X6.380 Y-7.459 F200.000
G1 X6.406 Y-7.372 F200.000
G0 X6.406 Y-7.346
G0 X6.320 Y-7.214
G0 X5.350 Y-6.086
G1 X5.327 Y-6.060 F200.000
G1 X5.256 Y-5.985 F200.000
G1 X5.203 Y-5.962 F200.000
G1 X5.117 Y-5.966 F200.000
G1 X5.004 Y-6.019 F200.000
G1 X5.004 Y-6.019 F200.000
G1 X4.827 Y-6.184 F200.000
G1 X4.759 Y-6.286 F200.000
G1 X4.711 Y-6.511 F200.000
G1 X4.711 Y-6.737 F200.000
G1 X4.726 Y-6.850 F200.000
G1 X4.846 Y-7.199 F200.000
G1 X5.019 Y-7.485 F200.000
G1 X5.143 Y-7.624 F200.000
G1 X5.342 Y-7.801 F200.000
G1 X5.492 Y-7.891 F200.000
G1 X5.654 Y-7.947 F200.000
G1 X5.711 Y-7.947 F200.000
G1 X5.767 Y-7.936 F200.000
G1 X5.917 Y-7.838 F200.000
G1 X5.917 Y-7.838 F200.000
G1 X6.000 Y-7.744 F200.000
G1 X6.034 Y-7.662 F200.000
G0 X6.034 Y-7.635
G0 X5.959 Y-7.492
G0 X5.102 Y-6.289
G1 X5.079 Y-6.259 F200.000
G1 X5.011 Y-6.180 F200.000
G1 X4.962 Y-6.154 F200.000
G1 X4.872 Y-6.150 F200.000
G1 X4.759 Y-6.195 F200.000
G1 X4.759 Y-6.195 F200.000
G1 X4.579 Y-6.353 F200.000
G1 X4.511 Y-6.447 F200.000
G1 X4.466 Y-6.617 F200.000
G1 X4.447 Y-6.842 F200.000
G1 X4.455 Y-6.955 F200.000
G1 X4.549 Y-7.312 F200.000
G1 X4.688 Y-7.583 F200.000
G1 X4.789 Y-7.726 F200.000
G1 X4.898 Y-7.853 F200.000
G1 X5.120 Y-8.038 F200.000
G1 X5.274 Y-8.117 F200.000
G1 X5.331 Y-8.135 F200.000
G1 X5.387 Y-8.143 F200.000
G1 X5.444 Y-8.139 F200.000
G1 X5.692 Y-7.985 F200.000
G1 X5.692 Y-7.985 F200.000
G1 X5.778 Y-7.891 F200.000
G1 X5.812 Y-7.812 F200.000
G0 X5.808 Y-7.782
G0 X5.733 Y-7.647
G0 X4.853 Y-6.462
G1 X4.831 Y-6.432 F200.000
G1 X4.763 Y-6.353 F200.000
G1 X4.714 Y-6.323 F200.000
G1 X4.624 Y-6.320 F200.000
G1 X4.511 Y-6.361 F200.000
G1 X4.511 Y-6.361 F200.000
G1 X4.368 Y-6.470 F200.000
G1 X4.286 Y-6.556 F200.000
G1 X4.256 Y-6.609 F200.000
G1 X4.195 Y-6.835 F200.000
G1 X4.180 Y-7.060 F200.000
G1 X4.184 Y-7.117 F200.000
G1 X4.267 Y-7.477 F200.000
G1 X4.398 Y-7.752 F200.000
G1 X4.492 Y-7.902 F200.000
G1 X4.613 Y-8.045 F200.000
G1 X4.812 Y-8.218 F200.000
G1 X4.962 Y-8.297 F200.000
G1 X5.075 Y-8.331 F200.000
G1 X5.132 Y-8.323 F200.000
G1 X5.342 Y-8.203 F200.000
G1 X5.342 Y-8.203 F200.000
G1 X5.432 Y-8.117 F200.000
G1 X5.470 Y-8.034 F200.000
G0 X5.474 Y-8.008
G0 X5.406 Y-7.865
G0 X4.632 Y-6.605
G1 X4.613 Y-6.575 F200.000
G1 X4.553 Y-6.492 F200.000
G1 X4.504 Y-6.462 F200.000
G1 X4.417 Y-6.455 F200.000
G1 X4.305 Y-6.489 F200.000
G1 X4.305 Y-6.489 F200.000
G1 X4.102 Y-6.624 F200.000
G1 X4.019 Y-6.711 F200.000
G1 X3.985 Y-6.759 F200.000
G1 X3.921 Y-6.985 F200.000
G1 X3.902 Y-7.267 F200.000
G1 X3.977 Y-7.628 F200.000
G1 X4.094 Y-7.902 F200.000
G1 X4.192 Y-8.060 F200.000
G1 X4.297 Y-8.192 F200.000
G1 X4.489 Y-8.372 F200.000
G1 X4.639 Y-8.462 F200.000
G1 X4.692 Y-8.485 F200.000
G1 X4.748 Y-8.496 F200.000
G1 X4.805 Y-8.496 F200.000
G1 X5.015 Y-8.391 F200.000
G1 X5.015 Y-8.391 F200.000
G1 X5.105 Y-8.305 F200.000
G1 X5.143 Y-8.222 F200.000
G0 X5.147 Y-8.195
G0 X5.086 Y-8.049
G0 X4.365 Y-6.767
G1 X4.346 Y-6.733 F200.000
G1 X4.289 Y-6.647 F200.000
G1 X4.241 Y-6.613 F200.000
G1 X4.154 Y-6.602 F200.000
G1 X4.041 Y-6.632 F200.000
G1 X4.041 Y-6.632 F200.000
G1 X3.842 Y-6.767 F200.000
G1 X3.759 Y-6.853 F200.000
G1 X3.707 Y-6.959 F200.000
G1 X3.647 Y-7.184 F200.000
G1 X3.628 Y-7.410 F200.000
G1 X3.688 Y-7.774 F200.000
G1 X3.793 Y-8.041 F200.000
G1 X3.880 Y-8.192 F200.000
G1 X3.989 Y-8.338 F200.000
G1 X4.177 Y-8.523 F200.000
G1 X4.320 Y-8.620 F200.000
G1 X4.372 Y-8.647 F200.000
G1 X4.429 Y-8.658 F200.000
G1 X4.485 Y-8.654 F200.000
G1 X4.590 Y-8.605 F200.000
G1 X4.590 Y-8.605 F200.000
G1 X4.684 Y-8.523 F200.000
G1 X4.729 Y-8.444 F200.000
G0 X4.733 Y-8.417
G0 X4.684 Y-8.263
G0 X4.086 Y-6.917
G1 X4.071 Y-6.883 F200.000
G1 X4.023 Y-6.793 F200.000
G1 X3.977 Y-6.756 F200.000
G1 X3.891 Y-6.741 F200.000
G1 X3.774 Y-6.767 F200.000
G1 X3.774 Y-6.767 F200.000
G1 X3.568 Y-6.898 F200.000
G1 X3.481 Y-6.985 F200.000
G1 X3.391 Y-7.207 F200.000
G1 X3.346 Y-7.489 F200.000
G1 X3.383 Y-7.857 F200.000
G1 X3.485 Y-8.158 F200.000
G1 X3.564 Y-8.312 F200.000
G1 X3.658 Y-8.451 F200.000
G1 X3.786 Y-8.605 F200.000
G1 X3.962 Y-8.748 F200.000
G1 X4.068 Y-8.801 F200.000
G1 X4.124 Y-8.805 F200.000
G1 X4.289 Y-8.741 F200.000
G1 X4.289 Y-8.741 F200.000
G1 X4.387 Y-8.665 F200.000
G1 X4.436 Y-8.590 F200.000
G0 X4.440 Y-8.560
G0 X4.398 Y-8.406
G0 X3.861 Y-7.038
G1 X3.846 Y-7.004 F200.000
G1 X3.805 Y-6.910 F200.000
G1 X3.759 Y-6.872 F200.000
G1 X3.673 Y-6.850 F200.000
G1 X3.556 Y-6.868 F200.000
G1 X3.556 Y-6.868 F200.000
G1 X3.342 Y-6.977 F200.000
G1 X3.244 Y-7.049 F200.000
G1 X3.203 Y-7.094 F200.000
G1 X3.124 Y-7.256 F200.000
G1 X3.064 Y-7.481 F200.000
G1 X3.049 Y-7.594 F200.000
G1 X3.079 Y-7.962 F200.000
G1 X3.162 Y-8.244 F200.000
G1 X3.233 Y-8.406 F200.000
G1 X3.323 Y-8.556 F200.000
G1 X3.485 Y-8.759 F200.000
G1 X3.613 Y-8.872 F200.000
G1 X3.711 Y-8.932 F200.000
G1 X3.767 Y-8.944 F200.000
G1 X3.823 Y-8.932 F200.000
G1 X3.823 Y-8.932 F200.000
G1 X3.921 Y-8.861 F200.000
G1 X3.974 Y-8.786 F200.000
G0 X3.977 Y-8.759
G0 X3.947 Y-8.602
G0 X3.515 Y-7.188
G1 X3.504 Y-7.154 F200.000
G1 X3.470 Y-7.056 F200.000
G1 X3.425 Y-7.015 F200.000
G1 X3.342 Y-6.992 F200.000
G1 X3.226 Y-7.008 F200.000
G1 X3.226 Y-7.008 F200.000
G1 X3.008 Y-7.124 F200.000
G1 X2.921 Y-7.207 F200.000
G1 X2.820 Y-7.425 F200.000
G1 X2.756 Y-7.707 F200.000
G1 X2.771 Y-8.075 F200.000
G1 X2.857 Y-8.387 F200.000
G1 X2.929 Y-8.549 F200.000
G1 X3.113 Y-8.842 F200.000
G1 X3.278 Y-9.004 F200.000
G1 X3.380 Y-9.056 F200.000
G1 X3.436 Y-9.064 F200.000
G1 X3.549 Y-9.030 F200.000
G1 X3.549 Y-9.030 F200.000
G1 X3.654 Y-8.966 F200.000
G1 X3.711 Y-8.898 F200.000
G0 X3.718 Y-8.872
G0 X3.692 Y-8.714
G0 X3.286 Y-7.274
G1 X3.274 Y-7.241 F200.000
G1 X3.241 Y-7.143 F200.000
G1 X3.199 Y-7.102 F200.000
G1 X3.117 Y-7.079 F200.000
G1 X3.000 Y-7.094 F200.000
G1 X3.000 Y-7.094 F200.000
G1 X2.778 Y-7.199 F200.000
G1 X2.680 Y-7.271 F200.000
G1 X2.560 Y-7.474 F200.000
G1 X2.485 Y-7.699 F200.000
G1 X2.474 Y-7.756 F200.000
G1 X2.462 Y-8.124 F200.000
G1 X2.530 Y-8.459 F200.000
G1 X2.590 Y-8.632 F200.000
G1 X2.692 Y-8.838 F200.000
G1 X2.797 Y-8.977 F200.000
G1 X2.970 Y-9.132 F200.000
G1 X3.023 Y-9.158 F200.000
G1 X3.079 Y-9.169 F200.000
G1 X3.192 Y-9.143 F200.000
G1 X3.192 Y-9.143 F200.000
G1 X3.297 Y-9.083 F200.000
G1 X3.357 Y-9.015 F200.000
G0 X3.365 Y-8.989
G0 X3.346 Y-8.831
G0 X2.996 Y-7.380
G1 X2.985 Y-7.346 F200.000
G1 X2.955 Y-7.248 F200.000
G1 X2.917 Y-7.207 F200.000
G1 X2.835 Y-7.177 F200.000
G1 X2.718 Y-7.188 F200.000
G1 X2.718 Y-7.188 F200.000
G1 X2.496 Y-7.282 F200.000
G1 X2.398 Y-7.350 F200.000
G1 X2.297 Y-7.496 F200.000
G1 X2.244 Y-7.602 F200.000
G1 X2.177 Y-7.827 F200.000
G1 X2.150 Y-8.195 F200.000
G1 X2.195 Y-8.519 F200.000
G1 X2.248 Y-8.688 F200.000
G1 X2.312 Y-8.838 F200.000
G1 X2.451 Y-9.060 F200.000
G1 X2.617 Y-9.222 F200.000
G1 X2.665 Y-9.252 F200.000
G1 X2.722 Y-9.263 F200.000
G1 X2.835 Y-9.237 F200.000
G1 X2.835 Y-9.237 F200.000
G1 X2.940 Y-9.177 F200.000
G1 X3.000 Y-9.109 F200.000
G0 X3.008 Y-9.079
G0 X2.992 Y-8.921
G0 X2.695 Y-7.477
G1 X2.692 Y-7.444 F200.000
G1 X2.662 Y-7.342 F200.000
G1 X2.624 Y-7.301 F200.000
G1 X2.545 Y-7.267 F200.000
G1 X2.429 Y-7.271 F200.000
G1 X2.429 Y-7.271 F200.000
G1 X2.252 Y-7.331 F200.000
G1 X2.147 Y-7.387 F200.000
G1 X2.098 Y-7.425 F200.000
G1 X1.996 Y-7.571 F200.000
G1 X1.921 Y-7.729 F200.000
G1 X1.872 Y-7.898 F200.000
G1 X1.827 Y-8.267 F200.000
G1 X1.876 Y-8.635 F200.000
G1 X1.925 Y-8.797 F200.000
G1 X2.038 Y-9.041 F200.000
G1 X2.173 Y-9.229 F200.000
G1 X2.256 Y-9.308 F200.000
G1 X2.308 Y-9.335 F200.000
G1 X2.365 Y-9.342 F200.000
G1 X2.365 Y-9.342 F200.000
G1 X2.477 Y-9.289 F200.000
G1 X2.538 Y-9.226 F200.000
G0 X2.549 Y-9.199
G0 X2.553 Y-9.041
G0 X2.391 Y-7.568
G1 X2.383 Y-7.530 F200.000
G1 X2.365 Y-7.429 F200.000
G1 X2.331 Y-7.383 F200.000
G1 X2.252 Y-7.346 F200.000
G1 X2.135 Y-7.342 F200.000
G1 X2.135 Y-7.342 F200.000
G1 X2.015 Y-7.372 F200.000
G1 X1.850 Y-7.451 F200.000
G1 X1.805 Y-7.489 F200.000
G1 X1.669 Y-7.684 F200.000
G1 X1.594 Y-7.842 F200.000
G1 X1.556 Y-7.955 F200.000
G1 X1.508 Y-8.323 F200.000
G1 X1.534 Y-8.639 F200.000
G1 X1.575 Y-8.820 F200.000
G1 X1.654 Y-9.041 F200.000
G1 X1.771 Y-9.244 F200.000
G1 X1.887 Y-9.368 F200.000
G1 X1.936 Y-9.398 F200.000
G1 X1.992 Y-9.410 F200.000
G1 X1.992 Y-9.410 F200.000
G1 X2.105 Y-9.365 F200.000
G1 X2.169 Y-9.305 F200.000
G0 X2.180 Y-9.278
G0 X2.192 Y-9.117
G0 X2.143 Y-7.613
G1 X2.143 Y-7.575 F200.000
G1 X2.128 Y-7.474 F200.000
G1 X2.098 Y-7.429 F200.000
G1 X2.019 Y-7.391 F200.000
G1 X1.902 Y-7.387 F200.000
G1 X1.902 Y-7.387 F200.000
G1 X1.662 Y-7.447 F200.000
G1 X1.553 Y-7.500 F200.000
G1 X1.466 Y-7.583 F200.000
G1 X1.342 Y-7.786 F200.000
G1 X1.263 Y-8.008 F200.000
G1 X1.199 Y-8.372 F200.000
G1 X1.218 Y-8.741 F200.000
G1 X1.271 Y-8.947 F200.000
G1 X1.380 Y-9.199 F200.000
G1 X1.515 Y-9.387 F200.000
G1 X1.556 Y-9.429 F200.000
G1 X1.609 Y-9.455 F200.000
G1 X1.665 Y-9.459 F200.000
G1 X1.665 Y-9.459 F200.000
G1 X1.778 Y-9.417 F200.000
G1 X1.846 Y-9.361 F200.000
G0 X1.857 Y-9.338
G0 X1.872 Y-9.177
G0 X1.835 Y-7.673
G1 X1.835 Y-7.635 F200.000
G1 X1.823 Y-7.534 F200.000
G1 X1.793 Y-7.485 F200.000
G1 X1.722 Y-7.444 F200.000
G1 X1.605 Y-7.432 F200.000
G1 X1.605 Y-7.432 F200.000
G1 X1.425 Y-7.470 F200.000
G1 X1.312 Y-7.519 F200.000
G1 X1.259 Y-7.553 F200.000
G1 X1.113 Y-7.744 F200.000
G1 X1.011 Y-7.959 F200.000
G1 X0.906 Y-8.376 F200.000
G1 X0.902 Y-8.744 F200.000
G1 X0.944 Y-8.959 F200.000
G1 X1.045 Y-9.214 F200.000
G1 X1.135 Y-9.357 F200.000
G1 X1.211 Y-9.444 F200.000
G1 X1.259 Y-9.477 F200.000
G1 X1.316 Y-9.496 F200.000
G1 X1.316 Y-9.496 F200.000
G1 X1.429 Y-9.455 F200.000
G1 X1.496 Y-9.398 F200.000
G0 X1.511 Y-9.376
G0 X1.526 Y-9.214
G0 X1.534 Y-7.711
G1 X1.534 Y-7.673 F200.000
G1 X1.526 Y-7.571 F200.000
G1 X1.496 Y-7.523 F200.000
G1 X1.425 Y-7.481 F200.000
G1 X1.308 Y-7.470 F200.000
G1 X1.308 Y-7.470 F200.000
G1 X1.128 Y-7.511 F200.000
G1 X1.019 Y-7.560 F200.000
G1 X0.970 Y-7.598 F200.000
G1 X0.797 Y-7.838 F200.000
G1 X0.699 Y-8.053 F200.000
G1 X0.602 Y-8.410 F200.000
G1 X0.590 Y-8.778 F200.000
G1 X0.624 Y-8.974 F200.000
G1 X0.669 Y-9.120 F200.000
G1 X0.816 Y-9.372 F200.000
G1 X0.891 Y-9.459 F200.000
G1 X0.936 Y-9.496 F200.000
G1 X0.989 Y-9.519 F200.000
G1 X1.045 Y-9.515 F200.000
G1 X1.045 Y-9.515 F200.000
G1 X1.162 Y-9.477 F200.000
G1 X1.229 Y-9.425 F200.000
G0 X1.244 Y-9.398
G0 X1.263 Y-9.241
G0 X1.289 Y-7.741
G1 X1.293 Y-7.703 F200.000
G1 X1.286 Y-7.602 F200.000
G1 X1.256 Y-7.553 F200.000
G1 X1.184 Y-7.511 F200.000
G1 X1.068 Y-7.500 F200.000
G1 X1.068 Y-7.500 F200.000
G1 X0.887 Y-7.526 F200.000
G1 X0.771 Y-7.571 F200.000
G1 X0.718 Y-7.602 F200.000
G1 X0.598 Y-7.733 F200.000
G1 X0.447 Y-7.989 F200.000
G1 X0.308 Y-8.395 F200.000
G1 X0.282 Y-8.763 F200.000
G1 X0.308 Y-8.955 F200.000
G1 X0.346 Y-9.094 F200.000
G1 X0.444 Y-9.305 F200.000
G1 X0.583 Y-9.485 F200.000
G1 X0.632 Y-9.515 F200.000
G1 X0.688 Y-9.530 F200.000
G1 X0.688 Y-9.530 F200.000
G1 X0.805 Y-9.500 F200.000
G1 X0.880 Y-9.447 F200.000
G0 X0.895 Y-9.425
G0 X0.925 Y-9.267
G0 X1.038 Y-7.771
G1 X1.041 Y-7.733 F200.000
G1 X1.041 Y-7.662 F200.000
G1 X1.023 Y-7.598 F200.000
G1 X0.974 Y-7.553 F200.000
G1 X0.831 Y-7.515 F200.000
G1 X0.831 Y-7.515 F200.000
G1 X0.590 Y-7.549 F200.000
G1 X0.477 Y-7.594 F200.000
G1 X0.346 Y-7.718 F200.000
G1 X0.237 Y-7.857 F200.000
G1 X0.150 Y-8.015 F200.000
G1 X0.019 Y-8.361 F200.000
G1 X-0.026 Y-8.729 F200.000
G1 X-0.004 Y-8.932 F200.000
G1 X0.049 Y-9.128 F200.000
G1 X0.177 Y-9.383 F200.000
G1 X0.248 Y-9.470 F200.000
G1 X0.293 Y-9.504 F200.000
G1 X0.346 Y-9.526 F200.000
G1 X0.402 Y-9.530 F200.000
G1 X0.402 Y-9.530 F200.000
G1 X0.519 Y-9.500 F200.000
G1 X0.594 Y-9.447 F200.000
G0 X0.609 Y-9.425
G0 X0.635 Y-9.271
G0 X0.737 Y-7.793
G1 X0.741 Y-7.756 F200.000
G1 X0.737 Y-7.654 F200.000
G1 X0.714 Y-7.602 F200.000
G1 X0.643 Y-7.549 F200.000
G1 X0.530 Y-7.523 F200.000
G1 X0.530 Y-7.523 F200.000
G1 X0.350 Y-7.545 F200.000
G1 X0.233 Y-7.583 F200.000
G1 X0.094 Y-7.699 F200.000
G1 X-0.056 Y-7.883 F200.000
G1 X-0.117 Y-7.981 F200.000
G1 X-0.271 Y-8.320 F200.000
G1 X-0.331 Y-8.684 F200.000
G1 X-0.301 Y-8.981 F200.000
G1 X-0.252 Y-9.162 F200.000
G1 X-0.143 Y-9.368 F200.000
G1 X-0.068 Y-9.462 F200.000
G1 X0.034 Y-9.523 F200.000
G1 X0.034 Y-9.523 F200.000
G1 X0.150 Y-9.500 F200.000
G1 X0.226 Y-9.455 F200.000
G0 X0.241 Y-9.432
G0 X0.278 Y-9.274
G0 X0.481 Y-7.793
G1 X0.489 Y-7.756 F200.000
G1 X0.492 Y-7.654 F200.000
G1 X0.474 Y-7.602 F200.000
G1 X0.402 Y-7.549 F200.000
G1 X0.289 Y-7.523 F200.000
G1 X0.289 Y-7.523 F200.000
G1 X0.109 Y-7.534 F200.000
G1 X-0.008 Y-7.560 F200.000
G1 X-0.060 Y-7.583 F200.000
G1 X-0.278 Y-7.774 F200.000
G1 X-0.414 Y-7.962 F200.000
G1 X-0.571 Y-8.297 F200.000
G1 X-0.635 Y-8.654 F200.000
G1 X-0.632 Y-8.820 F200.000
G1 X-0.617 Y-8.966 F200.000
G1 X-0.568 Y-9.154 F200.000
G1 X-0.459 Y-9.361 F200.000
G1 X-0.383 Y-9.455 F200.000
G1 X-0.331 Y-9.489 F200.000
G1 X-0.271 Y-9.504 F200.000
G1 X-0.271 Y-9.504 F200.000
G1 X-0.143 Y-9.485 F200.000
G1 X-0.060 Y-9.444 F200.000
G0 X-0.041 Y-9.425
G0 X0.000 Y-9.271
G0 X0.229 Y-7.793
G1 X0.237 Y-7.756 F200.000
G1 X0.244 Y-7.654 F200.000
G1 X0.226 Y-7.598 F200.000
G1 X0.158 Y-7.541 F200.000
G1 X0.049 Y-7.508 F200.000
G1 X0.049 Y-7.508 F200.000
G1 X-0.177 Y-7.508 F200.000
G1 X-0.289 Y-7.526 F200.000
G1 X-0.342 Y-7.549 F200.000
G1 X-0.523 Y-7.692 F200.000
G1 X-0.669 Y-7.872 F200.000
G1 X-0.865 Y-8.252 F200.000
G1 X-0.944 Y-8.613 F200.000
G1 X-0.947 Y-8.782 F200.000
G1 X-0.936 Y-8.929 F200.000
G1 X-0.891 Y-9.124 F200.000
G1 X-0.782 Y-9.335 F200.000
G1 X-0.748 Y-9.383 F200.000
G1 X-0.703 Y-9.425 F200.000
G1 X-0.650 Y-9.455 F200.000
G1 X-0.590 Y-9.466 F200.000
G1 X-0.590 Y-9.466 F200.000
G1 X-0.462 Y-9.455 F200.000
G1 X-0.376 Y-9.417 F200.000
G0 X-0.357 Y-9.395
G0 X-0.312 Y-9.244
G0 X-0.049 Y-7.782
G1 X-0.045 Y-7.748 F200.000
G1 X-0.034 Y-7.643 F200.000
G1 X-0.056 Y-7.586 F200.000
G1 X-0.124 Y-7.526 F200.000
G1 X-0.244 Y-7.485 F200.000
G1 X-0.244 Y-7.485 F200.000
G1 X-0.470 Y-7.481 F200.000
G1 X-0.583 Y-7.504 F200.000
G1 X-0.635 Y-7.526 F200.000
G1 X-0.816 Y-7.669 F200.000
G1 X-1.000 Y-7.891 F200.000
G1 X-1.169 Y-8.218 F200.000
G1 X-1.252 Y-8.553 F200.000
G1 X-1.263 Y-8.729 F200.000
G1 X-1.256 Y-8.883 F200.000
G1 X-1.195 Y-9.109 F200.000
G1 X-1.120 Y-9.271 F200.000
G1 X-1.053 Y-9.368 F200.000
G1 X-1.004 Y-9.402 F200.000
G1 X-0.947 Y-9.421 F200.000
G1 X-0.887 Y-9.429 F200.000
G1 X-0.887 Y-9.429 F200.000
G1 X-0.759 Y-9.417 F200.000
G1 X-0.673 Y-9.380 F200.000
G0 X-0.654 Y-9.361
G0 X-0.605 Y-9.207
G0 X-0.297 Y-7.752
G1 X-0.289 Y-7.718 F200.000
G1 X-0.278 Y-7.613 F200.000
G1 X-0.297 Y-7.556 F200.000
G1 X-0.365 Y-7.496 F200.000
G1 X-0.485 Y-7.455 F200.000
G1 X-0.485 Y-7.455 F200.000
G1 X-0.711 Y-7.440 F200.000
G1 X-0.880 Y-7.462 F200.000
G1 X-1.026 Y-7.556 F200.000
G1 X-1.192 Y-7.714 F200.000
G1 X-1.297 Y-7.853 F200.000
G1 X-1.474 Y-8.177 F200.000
G1 X-1.564 Y-8.534 F200.000
G1 X-1.575 Y-8.707 F200.000
G1 X-1.553 Y-8.914 F200.000
G1 X-1.459 Y-9.192 F200.000
G1 X-1.398 Y-9.293 F200.000
G1 X-1.353 Y-9.335 F200.000
G1 X-1.301 Y-9.365 F200.000
G1 X-1.241 Y-9.376 F200.000
G1 X-1.241 Y-9.376 F200.000
G1 X-1.079 Y-9.361 F200.000
G1 X-1.026 Y-9.331 F200.000
G0 X-1.008 Y-9.312
G0 X-0.955 Y-9.162
G0 X-0.662 Y-7.718
G1 X-0.658 Y-7.684 F200.000
G1 X-0.647 Y-7.579 F200.000
G1 X-0.662 Y-7.523 F200.000
G1 X-0.726 Y-7.455 F200.000
G1 X-0.838 Y-7.402 F200.000
G1 X-0.838 Y-7.402 F200.000
G1 X-1.008 Y-7.387 F200.000
G1 X-1.120 Y-7.398 F200.000
G1 X-1.177 Y-7.414 F200.000
G1 X-1.410 Y-7.583 F200.000
G1 X-1.560 Y-7.756 F200.000
G1 X-1.756 Y-8.071 F200.000
G1 X-1.865 Y-8.425 F200.000
G1 X-1.880 Y-8.594 F200.000
G1 X-1.880 Y-8.737 F200.000
G1 X-1.838 Y-8.962 F200.000
G1 X-1.752 Y-9.180 F200.000
G1 X-1.722 Y-9.233 F200.000
G1 X-1.677 Y-9.274 F200.000
G1 X-1.617 Y-9.293 F200.000
G1 X-1.617 Y-9.293 F200.000
G1 X-1.489 Y-9.289 F200.000
G1 X-1.402 Y-9.256 F200.000
G0 X-1.380 Y-9.237
G0 X-1.316 Y-9.090
G0 X-0.910 Y-7.669
G1 X-0.898 Y-7.635 F200.000
G1 X-0.883 Y-7.534 F200.000
G1 X-0.898 Y-7.477 F200.000
G1 X-0.959 Y-7.410 F200.000
G1 X-1.075 Y-7.357 F200.000
G1 X-1.075 Y-7.357 F200.000
G1 X-1.301 Y-7.338 F200.000
G1 X-1.414 Y-7.353 F200.000
G1 X-1.658 Y-7.508 F200.000
G1 X-1.786 Y-7.624 F200.000
G1 X-2.034 Y-7.974 F200.000
G1 X-2.158 Y-8.323 F200.000
G1 X-2.180 Y-8.485 F200.000
G1 X-2.188 Y-8.624 F200.000
G1 X-2.177 Y-8.812 F200.000
G1 X-2.083 Y-9.090 F200.000
G1 X-2.053 Y-9.143 F200.000
G1 X-2.008 Y-9.184 F200.000
G1 X-1.951 Y-9.211 F200.000
G1 X-1.951 Y-9.211 F200.000
G1 X-1.823 Y-9.214 F200.000
G1 X-1.733 Y-9.188 F200.000
G0 X-1.714 Y-9.169
G0 X-1.643 Y-9.026
G0 X-1.158 Y-7.613
G1 X-1.143 Y-7.579 F200.000
G1 X-1.120 Y-7.481 F200.000
G1 X-1.132 Y-7.421 F200.000
G1 X-1.192 Y-7.357 F200.000
G1 X-1.308 Y-7.305 F200.000
G1 X-1.308 Y-7.305 F200.000
G1 X-1.477 Y-7.271 F200.000
G1 X-1.590 Y-7.267 F200.000
G1 X-1.647 Y-7.274 F200.000
G1 X-1.805 Y-7.346 F200.000
G1 X-1.992 Y-7.477 F200.000
G1 X-2.113 Y-7.598 F200.000
G1 X-2.327 Y-7.898 F200.000
G1 X-2.451 Y-8.207 F200.000
G1 X-2.485 Y-8.380 F200.000
G1 X-2.496 Y-8.530 F200.000
G1 X-2.489 Y-8.722 F200.000
G1 X-2.444 Y-8.891 F200.000
G1 X-2.368 Y-9.053 F200.000
G1 X-2.323 Y-9.094 F200.000
G1 X-2.267 Y-9.120 F200.000
G1 X-2.267 Y-9.120 F200.000
G1 X-2.139 Y-9.132 F200.000
G1 X-2.049 Y-9.105 F200.000
G0 X-2.030 Y-9.090
G0 X-1.959 Y-8.947
G0 X-1.462 Y-7.541
G1 X-1.447 Y-7.508 F200.000
G1 X-1.421 Y-7.410 F200.000
G1 X-1.432 Y-7.350 F200.000
G1 X-1.489 Y-7.282 F200.000
G1 X-1.598 Y-7.222 F200.000
G1 X-1.598 Y-7.222 F200.000
G1 X-1.767 Y-7.188 F200.000
G1 X-1.880 Y-7.184 F200.000
G1 X-1.936 Y-7.192 F200.000
G1 X-2.098 Y-7.259 F200.000
G1 X-2.327 Y-7.432 F200.000
G1 X-2.368 Y-7.474 F200.000
G1 X-2.598 Y-7.763 F200.000
G1 X-2.748 Y-8.102 F200.000
G1 X-2.789 Y-8.274 F200.000
G1 X-2.805 Y-8.485 F200.000
G1 X-2.767 Y-8.767 F200.000
G1 X-2.703 Y-8.932 F200.000
G1 X-2.662 Y-8.977 F200.000
G1 X-2.613 Y-9.011 F200.000
G1 X-2.613 Y-9.011 F200.000
G1 X-2.455 Y-9.023 F200.000
G1 X-2.398 Y-9.008 F200.000
G0 X-2.376 Y-8.989
G0 X-2.293 Y-8.853
G0 X-1.699 Y-7.477
G1 X-1.684 Y-7.444 F200.000
G1 X-1.654 Y-7.346 F200.000
G1 X-1.662 Y-7.289 F200.000
G1 X-1.718 Y-7.218 F200.000
G1 X-1.827 Y-7.150 F200.000
G1 X-1.827 Y-7.150 F200.000
G1 X-2.053 Y-7.094 F200.000
G1 X-2.165 Y-7.090 F200.000
G1 X-2.222 Y-7.098 F200.000
G1 X-2.477 Y-7.226 F200.000
G1 X-2.613 Y-7.331 F200.000
G1 X-2.887 Y-7.658 F200.000
G1 X-3.041 Y-7.977 F200.000
G1 X-3.086 Y-8.147 F200.000
G1 X-3.113 Y-8.353 F200.000
G1 X-3.098 Y-8.579 F200.000
G1 X-3.053 Y-8.748 F200.000
G1 X-3.030 Y-8.801 F200.000
G1 X-2.992 Y-8.850 F200.000
G1 X-2.947 Y-8.887 F200.000
G1 X-2.891 Y-8.910 F200.000
G1 X-2.891 Y-8.910 F200.000
G1 X-2.733 Y-8.921 F200.000
G1 X-2.677 Y-8.906 F200.000
G0 X-2.654 Y-8.887
G0 X-2.571 Y-8.748
G0 X-1.996 Y-7.391
G1 X-1.981 Y-7.357 F200.000
G1 X-1.951 Y-7.259 F200.000
G1 X-1.959 Y-7.199 F200.000
G1 X-2.008 Y-7.128 F200.000
G1 X-2.109 Y-7.053 F200.000
G1 X-2.109 Y-7.053 F200.000
G1 X-2.335 Y-6.992 F200.000
G1 X-2.447 Y-6.985 F200.000
G1 X-2.609 Y-7.038 F200.000
G1 X-2.853 Y-7.188 F200.000
G1 X-2.940 Y-7.263 F200.000
G1 X-3.180 Y-7.545 F200.000
G1 X-3.342 Y-7.868 F200.000
G1 X-3.387 Y-8.034 F200.000
G1 X-3.414 Y-8.241 F200.000
G1 X-3.398 Y-8.466 F200.000
G1 X-3.353 Y-8.635 F200.000
G1 X-3.327 Y-8.688 F200.000
G1 X-3.289 Y-8.733 F200.000
G1 X-3.184 Y-8.789 F200.000
G1 X-3.184 Y-8.789 F200.000
G1 X-3.026 Y-8.812 F200.000
G1 X-2.970 Y-8.797 F200.000
G0 X-2.947 Y-8.782
G0 X-2.865 Y-8.647
G0 X-2.282 Y-7.286
G1 X-2.267 Y-7.252 F200.000
G1 X-2.237 Y-7.154 F200.000
G1 X-2.241 Y-7.094 F200.000
G1 X-2.289 Y-7.019 F200.000
G1 X-2.391 Y-6.944 F200.000
G1 X-2.391 Y-6.944 F200.000
G1 X-2.617 Y-6.880 F200.000
G1 X-2.729 Y-6.876 F200.000
G1 X-2.944 Y-6.955 F200.000
G1 X-3.135 Y-7.079 F200.000
G1 X-3.180 Y-7.117 F200.000
G1 X-3.436 Y-7.383 F200.000
G1 X-3.617 Y-7.703 F200.000
G1 X-3.669 Y-7.865 F200.000
G1 X-3.703 Y-8.008 F200.000
G1 X-3.718 Y-8.203 F200.000
G1 X-3.692 Y-8.429 F200.000
G1 X-3.677 Y-8.485 F200.000
G1 X-3.650 Y-8.538 F200.000
G1 X-3.613 Y-8.583 F200.000
G1 X-3.564 Y-8.617 F200.000
G1 X-3.564 Y-8.617 F200.000
G1 X-3.436 Y-8.643 F200.000
G1 X-3.346 Y-8.632 F200.000
G0 X-3.323 Y-8.617
G0 X-3.233 Y-8.489
G0 X-2.519 Y-7.184
G1 X-2.500 Y-7.154 F200.000
G1 X-2.459 Y-7.060 F200.000
G1 X-2.462 Y-7.000 F200.000
G1 X-2.508 Y-6.925 F200.000
G1 X-2.609 Y-6.850 F200.000
G1 X-2.609 Y-6.850 F200.000
G1 X-2.831 Y-6.763 F200.000
G1 X-2.944 Y-6.748 F200.000
G1 X-3.000 Y-6.752 F200.000
G1 X-3.218 Y-6.827 F200.000
G1 X-3.459 Y-6.985 F200.000
G1 X-3.718 Y-7.248 F200.000
G1 X-3.906 Y-7.568 F200.000
G1 X-3.962 Y-7.733 F200.000
G1 X-4.008 Y-7.932 F200.000
G1 X-4.011 Y-8.158 F200.000
G1 X-3.981 Y-8.327 F200.000
G1 X-3.959 Y-8.383 F200.000
G1 X-3.925 Y-8.432 F200.000
G1 X-3.872 Y-8.466 F200.000
G1 X-3.872 Y-8.466 F200.000
G1 X-3.744 Y-8.492 F200.000
G1 X-3.654 Y-8.481 F200.000
G0 X-3.632 Y-8.466
G0 X-3.534 Y-8.338
G0 X-2.797 Y-7.060
G1 X-2.778 Y-7.026 F200.000
G1 X-2.737 Y-6.932 F200.000
G1 X-2.737 Y-6.876 F200.000
G1 X-2.778 Y-6.797 F200.000
G1 X-2.880 Y-6.718 F200.000
G1 X-2.880 Y-6.718 F200.000
G1 X-3.041 Y-6.647 F200.000
G1 X-3.154 Y-6.620 F200.000
G1 X-3.211 Y-6.617 F200.000
G1 X-3.432 Y-6.677 F200.000
G1 X-3.635 Y-6.782 F200.000
G1 X-3.729 Y-6.850 F200.000
G1 X-3.996 Y-7.105 F200.000
G1 X-4.192 Y-7.421 F200.000
G1 X-4.252 Y-7.579 F200.000
G1 X-4.305 Y-7.835 F200.000
G1 X-4.308 Y-8.060 F200.000
G1 X-4.289 Y-8.173 F200.000
G1 X-4.263 Y-8.226 F200.000
G1 X-4.226 Y-8.271 F200.000
G1 X-4.173 Y-8.305 F200.000
G1 X-4.173 Y-8.305 F200.000
G1 X-4.049 Y-8.338 F200.000
G1 X-3.959 Y-8.331 F200.000
G0 X-3.936 Y-8.320
G0 X-3.838 Y-8.195
G0 X-3.079 Y-6.921
G1 X-3.060 Y-6.891 F200.000
G1 X-3.015 Y-6.797 F200.000
G1 X-3.015 Y-6.741 F200.000
G1 X-3.053 Y-6.662 F200.000
G1 X-3.147 Y-6.579 F200.000
G1 X-3.147 Y-6.579 F200.000
G1 X-3.308 Y-6.508 F200.000
G1 X-3.421 Y-6.481 F200.000
G1 X-3.477 Y-6.477 F200.000
G1 X-3.756 Y-6.560 F200.000
G1 X-3.955 Y-6.665 F200.000
G1 X-4.233 Y-6.910 F200.000
G1 X-4.429 Y-7.180 F200.000
G1 X-4.504 Y-7.338 F200.000
G1 X-4.560 Y-7.492 F200.000
G1 X-4.605 Y-7.688 F200.000
G1 X-4.605 Y-7.914 F200.000
G1 X-4.575 Y-8.026 F200.000
G1 X-4.541 Y-8.075 F200.000
G1 X-4.447 Y-8.147 F200.000
G1 X-4.447 Y-8.147 F200.000
G1 X-4.323 Y-8.188 F200.000
G1 X-4.233 Y-8.188 F200.000
G0 X-4.211 Y-8.177
G0 X-4.109 Y-8.053
G0 X-3.297 Y-6.801
G1 X-3.278 Y-6.771 F200.000
G1 X-3.229 Y-6.680 F200.000
G1 X-3.226 Y-6.620 F200.000
G1 X-3.263 Y-6.541 F200.000
G1 X-3.353 Y-6.459 F200.000
G1 X-3.353 Y-6.459 F200.000
G1 X-3.568 Y-6.357 F200.000
G1 X-3.680 Y-6.327 F200.000
G1 X-3.850 Y-6.346 F200.000
G1 X-4.068 Y-6.425 F200.000
G1 X-4.218 Y-6.508 F200.000
G1 X-4.500 Y-6.744 F200.000
G1 X-4.695 Y-7.000 F200.000
G1 X-4.778 Y-7.158 F200.000
G1 X-4.868 Y-7.421 F200.000
G1 X-4.895 Y-7.703 F200.000
G1 X-4.883 Y-7.816 F200.000
G1 X-4.853 Y-7.868 F200.000
G1 X-4.763 Y-7.944 F200.000
G1 X-4.763 Y-7.944 F200.000
G1 X-4.639 Y-7.985 F200.000
G1 X-4.549 Y-7.985 F200.000
G0 X-4.523 Y-7.974
G0 X-4.417 Y-7.853
G0 X-3.568 Y-6.650
G1 X-3.545 Y-6.620 F200.000
G1 X-3.492 Y-6.530 F200.000
G1 X-3.485 Y-6.474 F200.000
G1 X-3.519 Y-6.387 F200.000
G1 X-3.605 Y-6.297 F200.000
G1 X-3.605 Y-6.297 F200.000
G1 X-3.820 Y-6.192 F200.000
G1 X-3.876 Y-6.173 F200.000
G1 X-3.932 Y-6.165 F200.000
G1 X-4.102 Y-6.188 F200.000
G1 X-4.323 Y-6.263 F200.000
G1 X-4.429 Y-6.316 F200.000
G1 X-4.726 Y-6.534 F200.000
G1 X-4.947 Y-6.801 F200.000
G1 X-5.038 Y-6.955 F200.000
G1 X-5.120 Y-7.158 F200.000
G1 X-5.169 Y-7.383 F200.000
G1 X-5.169 Y-7.553 F200.000
G1 X-5.162 Y-7.609 F200.000
G1 X-5.139 Y-7.662 F200.000
G1 X-5.102 Y-7.707 F200.000
G1 X-5.053 Y-7.741 F200.000
G1 X-5.053 Y-7.741 F200.000
G1 X-4.936 Y-7.789 F200.000
G1 X-4.846 Y-7.789 F200.000
G0 X-4.820 Y-7.782
G0 X-4.707 Y-7.669
G0 X-3.782 Y-6.515
G1 X-3.759 Y-6.485 F200.000
G1 X-3.703 Y-6.398 F200.000
G1 X-3.695 Y-6.342 F200.000
G1 X-3.722 Y-6.256 F200.000
G1 X-3.805 Y-6.162 F200.000
G1 X-3.805 Y-6.162 F200.000
G1 X-4.008 Y-6.041 F200.000
G1 X-4.117 Y-6.000 F200.000
G1 X-4.173 Y-5.992 F200.000
G1 X-4.398 Y-6.023 F200.000
G1 X-4.617 Y-6.098 F200.000
G1 X-4.669 Y-6.124 F200.000
G1 X-4.970 Y-6.338 F200.000
G1 X-5.180 Y-6.568 F200.000
G1 X-5.278 Y-6.722 F200.000
G1 X-5.353 Y-6.872 F200.000
G1 X-5.421 Y-7.064 F200.000
G1 X-5.451 Y-7.289 F200.000
G1 X-5.444 Y-7.402 F200.000
G1 X-5.417 Y-7.455 F200.000
G1 X-5.331 Y-7.534 F200.000
G1 X-5.331 Y-7.534 F200.000
G1 X-5.214 Y-7.586 F200.000
G1 X-5.124 Y-7.594 F200.000
G0 X-5.098 Y-7.583
G0 X-4.985 Y-7.477
G0 X-4.034 Y-6.335
G1 X-4.011 Y-6.305 F200.000
G1 X-3.951 Y-6.222 F200.000
G1 X-3.940 Y-6.162 F200.000
G1 X-3.966 Y-6.079 F200.000
G1 X-4.049 Y-5.989 F200.000
G1 X-4.049 Y-5.989 F200.000
G1 X-4.195 Y-5.891 F200.000
G1 X-4.357 Y-5.823 F200.000
G1 X-4.526 Y-5.820 F200.000
G1 X-4.695 Y-5.853 F200.000
G1 X-4.910 Y-5.936 F200.000
G1 X-5.218 Y-6.143 F200.000
G1 X-5.447 Y-6.387 F200.000
G1 X-5.549 Y-6.538 F200.000
G1 X-5.647 Y-6.733 F200.000
G1 X-5.711 Y-6.959 F200.000
G1 X-5.722 Y-7.128 F200.000
G1 X-5.718 Y-7.184 F200.000
G1 X-5.695 Y-7.237 F200.000
G1 X-5.605 Y-7.316 F200.000
G1 X-5.605 Y-7.316 F200.000
G1 X-5.492 Y-7.372 F200.000
G1 X-5.402 Y-7.383 F200.000
G0 X-5.376 Y-7.372
G0 X-5.259 Y-7.267
G0 X-4.278 Y-6.150
G1 X-4.256 Y-6.124 F200.000
G1 X-4.195 Y-6.041 F200.000
G1 X-4.180 Y-5.981 F200.000
G1 X-4.207 Y-5.898 F200.000
G1 X-4.282 Y-5.801 F200.000
G1 X-4.282 Y-5.801 F200.000
G1 X-4.481 Y-5.669 F200.000
G1 X-4.590 Y-5.624 F200.000
G1 X-4.816 Y-5.635 F200.000
G1 X-5.094 Y-5.714 F200.000
G1 X-5.414 Y-5.898 F200.000
G1 X-5.635 Y-6.102 F200.000
G1 X-5.748 Y-6.241 F200.000
G1 X-5.835 Y-6.383 F200.000
G1 X-5.921 Y-6.564 F200.000
G1 X-5.970 Y-6.733 F200.000
G1 X-5.989 Y-6.902 F200.000
G1 X-5.977 Y-6.959 F200.000
G1 X-5.955 Y-7.015 F200.000
G1 X-5.868 Y-7.094 F200.000
G1 X-5.868 Y-7.094 F200.000
G1 X-5.756 Y-7.150 F200.000
G1 X-5.665 Y-7.162 F200.000
G0 X-5.639 Y-7.154
G0 X-5.515 Y-7.053
G0 X-4.477 Y-5.992
G1 X-4.451 Y-5.966 F200.000
G1 X-4.387 Y-5.887 F200.000
G1 X-4.372 Y-5.831 F200.000
G1 X-4.391 Y-5.744 F200.000
G1 X-4.462 Y-5.643 F200.000
G1 X-4.462 Y-5.643 F200.000
G1 X-4.703 Y-5.466 F200.000
G1 X-4.812 Y-5.421 F200.000
G1 X-4.981 Y-5.421 F200.000
G1 X-5.207 Y-5.466 F200.000
G1 X-5.320 Y-5.504 F200.000
G1 X-5.643 Y-5.680 F200.000
G1 X-5.910 Y-5.914 F200.000
G1 X-6.019 Y-6.053 F200.000
G1 X-6.132 Y-6.241 F200.000
G1 X-6.211 Y-6.459 F200.000
G1 X-6.241 Y-6.684 F200.000
G1 X-6.226 Y-6.741 F200.000
G1 X-6.147 Y-6.827 F200.000
G1 X-6.147 Y-6.827 F200.000
G1 X-6.038 Y-6.891 F200.000
G1 X-5.947 Y-6.910 F200.000
G0 X-5.921 Y-6.902
G0 X-5.793 Y-6.808
G0 X-4.714 Y-5.789
G1 X-4.688 Y-5.763 F200.000
G1 X-4.620 Y-5.688 F200.000
G1 X-4.602 Y-5.632 F200.000
G1 X-4.617 Y-5.545 F200.000
G1 X-4.684 Y-5.440 F200.000
G1 X-4.684 Y-5.440 F200.000
G1 X-4.865 Y-5.289 F200.000
G1 X-4.970 Y-5.237 F200.000
G1 X-5.026 Y-5.222 F200.000
G1 X-5.252 Y-5.218 F200.000
G1 X-5.477 Y-5.263 F200.000
G1 X-5.534 Y-5.282 F200.000
G1 X-5.865 Y-5.447 F200.000
G1 X-6.135 Y-5.677 F200.000
G1 X-6.252 Y-5.812 F200.000
G1 X-6.395 Y-6.049 F200.000
G1 X-6.470 Y-6.271 F200.000
G1 X-6.489 Y-6.383 F200.000
G1 X-6.485 Y-6.440 F200.000
G1 X-6.466 Y-6.496 F200.000
G1 X-6.383 Y-6.586 F200.000
G1 X-6.383 Y-6.586 F200.000
G1 X-6.278 Y-6.658 F200.000
G1 X-6.192 Y-6.677 F200.000
G0 X-6.162 Y-6.669
G0 X-6.034 Y-6.579
G0 X-4.929 Y-5.571
G1 X-4.902 Y-5.545 F200.000
G1 X-4.831 Y-5.470 F200.000
G1 X-4.812 Y-5.417 F200.000
G1 X-4.827 Y-5.331 F200.000
G1 X-4.895 Y-5.226 F200.000
G1 X-4.895 Y-5.226 F200.000
G1 X-5.030 Y-5.105 F200.000
G1 X-5.184 Y-5.015 F200.000
G1 X-5.241 Y-5.000 F200.000
G1 X-5.466 Y-4.996 F200.000
G1 X-5.748 Y-5.053 F200.000
G1 X-6.083 Y-5.211 F200.000
G1 X-6.353 Y-5.425 F200.000
G1 X-6.474 Y-5.560 F200.000
G1 X-6.594 Y-5.737 F200.000
G1 X-6.688 Y-5.947 F200.000
G1 X-6.726 Y-6.117 F200.000
G1 X-6.722 Y-6.173 F200.000
G1 X-6.707 Y-6.229 F200.000
G1 X-6.628 Y-6.320 F200.000
G1 X-6.628 Y-6.316 F200.000
G1 X-6.523 Y-6.387 F200.000
G1 X-6.436 Y-6.410 F200.000
G0 X-6.410 Y-6.406
G0 X-6.278 Y-6.320
G0 X-5.143 Y-5.350
G1 X-5.117 Y-5.327 F200.000
G1 X-5.045 Y-5.256 F200.000
G1 X-5.023 Y-5.203 F200.000
G1 X-5.038 Y-5.117 F200.000
G1 X-5.105 Y-5.011 F200.000
G1 X-5.105 Y-5.011 F200.000
G1 X-5.289 Y-4.850 F200.000
G1 X-5.395 Y-4.797 F200.000
G1 X-5.564 Y-4.774 F200.000
G1 X-5.789 Y-4.786 F200.000
G1 X-5.902 Y-4.808 F200.000
G1 X-6.244 Y-4.944 F200.000
G1 X-6.511 Y-5.128 F200.000
G1 X-6.635 Y-5.244 F200.000
G1 X-6.737 Y-5.368 F200.000
G1 X-6.846 Y-5.534 F200.000
G1 X-6.932 Y-5.748 F200.000
G1 X-6.955 Y-5.861 F200.000
G1 X-6.947 Y-5.917 F200.000
G1 X-6.925 Y-5.974 F200.000
G1 X-6.883 Y-6.019 F200.000
G1 X-6.883 Y-6.019 F200.000
G1 X-6.778 Y-6.090 F200.000
G1 X-6.692 Y-6.113 F200.000
G0 X-6.665 Y-6.109
G0 X-6.526 Y-6.030
G0 X-5.331 Y-5.165
G1 X-5.301 Y-5.143 F200.000
G1 X-5.222 Y-5.075 F200.000
G1 X-5.199 Y-5.026 F200.000
G1 X-5.207 Y-4.940 F200.000
G1 X-5.263 Y-4.831 F200.000
G1 X-5.263 Y-4.831 F200.000
G1 X-5.429 Y-4.658 F200.000
G1 X-5.523 Y-4.586 F200.000
G1 X-5.575 Y-4.564 F200.000
G1 X-5.801 Y-4.530 F200.000
G1 X-6.083 Y-4.560 F200.000
G1 X-6.432 Y-4.684 F200.000
G1 X-6.703 Y-4.857 F200.000
G1 X-6.831 Y-4.970 F200.000
G1 X-6.944 Y-5.094 F200.000
G1 X-7.083 Y-5.308 F200.000
G1 X-7.128 Y-5.414 F200.000
G1 X-7.169 Y-5.583 F200.000
G1 X-7.162 Y-5.639 F200.000
G1 X-7.139 Y-5.692 F200.000
G1 X-7.102 Y-5.741 F200.000
G1 X-7.102 Y-5.741 F200.000
G1 X-7.000 Y-5.820 F200.000
G1 X-6.914 Y-5.850 F200.000
G0 X-6.887 Y-5.846
G0 X-6.744 Y-5.771
G0 X-5.526 Y-4.929
G1 X-5.496 Y-4.906 F200.000
G1 X-5.417 Y-4.842 F200.000
G1 X-5.391 Y-4.789 F200.000
G1 X-5.398 Y-4.707 F200.000
G1 X-5.451 Y-4.598 F200.000
G1 X-5.451 Y-4.598 F200.000
G1 X-5.568 Y-4.455 F200.000
G1 X-5.707 Y-4.342 F200.000
G1 X-5.872 Y-4.293 F200.000
G1 X-6.098 Y-4.278 F200.000
G1 X-6.267 Y-4.301 F200.000
G1 X-6.617 Y-4.417 F200.000
G1 X-6.891 Y-4.586 F200.000
G1 X-7.019 Y-4.692 F200.000
G1 X-7.139 Y-4.820 F200.000
G1 X-7.289 Y-5.034 F200.000
G1 X-7.357 Y-5.195 F200.000
G1 X-7.372 Y-5.252 F200.000
G1 X-7.376 Y-5.308 F200.000
G1 X-7.365 Y-5.365 F200.000
G1 X-7.301 Y-5.466 F200.000
G1 X-7.301 Y-5.466 F200.000
G1 X-7.207 Y-5.553 F200.000
G1 X-7.124 Y-5.586 F200.000
G0 X-7.098 Y-5.586
G0 X-6.955 Y-5.515
G0 X-5.722 Y-4.692
G1 X-5.692 Y-4.669 F200.000
G1 X-5.609 Y-4.605 F200.000
G1 X-5.583 Y-4.553 F200.000
G1 X-5.583 Y-4.466 F200.000
G1 X-5.628 Y-4.353 F200.000
G1 X-5.628 Y-4.353 F200.000
G1 X-5.737 Y-4.211 F200.000
G1 X-5.823 Y-4.128 F200.000
G1 X-5.925 Y-4.068 F200.000
G1 X-6.207 Y-4.023 F200.000
G1 X-6.432 Y-4.034 F200.000
G1 X-6.786 Y-4.143 F200.000
G1 X-7.053 Y-4.289 F200.000
G1 X-7.203 Y-4.402 F200.000
G1 X-7.410 Y-4.624 F200.000
G1 X-7.530 Y-4.823 F200.000
G1 X-7.571 Y-4.932 F200.000
G1 X-7.579 Y-4.989 F200.000
G1 X-7.571 Y-5.045 F200.000
G1 X-7.515 Y-5.150 F200.000
G1 X-7.515 Y-5.150 F200.000
G1 X-7.421 Y-5.237 F200.000
G1 X-7.342 Y-5.271 F200.000
G0 X-7.312 Y-5.271
G0 X-7.169 Y-5.203
G0 X-5.898 Y-4.432
G1 X-5.868 Y-4.414 F200.000
G1 X-5.782 Y-4.353 F200.000
G1 X-5.756 Y-4.305 F200.000
G1 X-5.752 Y-4.218 F200.000
G1 X-5.793 Y-4.105 F200.000
G1 X-5.793 Y-4.105 F200.000
G1 X-5.944 Y-3.917 F200.000
G1 X-6.038 Y-3.838 F200.000
G1 X-6.090 Y-3.812 F200.000
G1 X-6.372 Y-3.756 F200.000
G1 X-6.598 Y-3.763 F200.000
G1 X-6.955 Y-3.861 F200.000
G1 X-7.233 Y-4.008 F200.000
G1 X-7.380 Y-4.113 F200.000
G1 X-7.620 Y-4.357 F200.000
G1 X-7.711 Y-4.508 F200.000
G1 X-7.756 Y-4.613 F200.000
G1 X-7.767 Y-4.669 F200.000
G1 X-7.763 Y-4.726 F200.000
G1 X-7.711 Y-4.831 F200.000
G1 X-7.711 Y-4.831 F200.000
G1 X-7.620 Y-4.917 F200.000
G1 X-7.538 Y-4.959 F200.000
G0 X-7.511 Y-4.959
G0 X-7.365 Y-4.898
G0 X-6.068 Y-4.173
G1 X-6.034 Y-4.154 F200.000
G1 X-5.947 Y-4.098 F200.000
G1 X-5.917 Y-4.049 F200.000
G1 X-5.914 Y-3.962 F200.000
G1 X-5.955 Y-3.853 F200.000
G1 X-5.955 Y-3.853 F200.000
G1 X-6.060 Y-3.703 F200.000
G1 X-6.143 Y-3.617 F200.000
G1 X-6.192 Y-3.579 F200.000
G1 X-6.357 Y-3.523 F200.000
G1 X-6.639 Y-3.489 F200.000
G1 X-6.752 Y-3.492 F200.000
G1 X-7.113 Y-3.579 F200.000
G1 X-7.387 Y-3.711 F200.000
G1 X-7.538 Y-3.808 F200.000
G1 X-7.726 Y-3.970 F200.000
G1 X-7.835 Y-4.105 F200.000
G1 X-7.944 Y-4.308 F200.000
G1 X-7.947 Y-4.365 F200.000
G1 X-7.936 Y-4.421 F200.000
G1 X-7.880 Y-4.526 F200.000
G1 X-7.880 Y-4.526 F200.000
G1 X-7.793 Y-4.617 F200.000
G1 X-7.714 Y-4.658 F200.000
G0 X-7.688 Y-4.662
G0 X-7.538 Y-4.602
G0 X-6.241 Y-3.910
G1 X-6.207 Y-3.891 F200.000
G1 X-6.117 Y-3.838 F200.000
G1 X-6.083 Y-3.789 F200.000
G1 X-6.071 Y-3.703 F200.000
G1 X-6.102 Y-3.590 F200.000
G1 X-6.102 Y-3.590 F200.000
G1 X-6.207 Y-3.440 F200.000
G1 X-6.293 Y-3.353 F200.000
G1 X-6.342 Y-3.320 F200.000
G1 X-6.564 Y-3.244 F200.000
G1 X-6.846 Y-3.218 F200.000
G1 X-7.211 Y-3.278 F200.000
G1 X-7.526 Y-3.402 F200.000
G1 X-7.684 Y-3.496 F200.000
G1 X-7.861 Y-3.635 F200.000
G1 X-8.011 Y-3.808 F200.000
G1 X-8.098 Y-3.959 F200.000
G1 X-8.113 Y-4.015 F200.000
G1 X-8.109 Y-4.071 F200.000
G1 X-8.060 Y-4.177 F200.000
G1 X-8.060 Y-4.177 F200.000
G1 X-7.981 Y-4.274 F200.000
G1 X-7.902 Y-4.320 F200.000
G0 X-7.876 Y-4.323
G0 X-7.722 Y-4.278
G0 X-6.357 Y-3.684
G1 X-6.323 Y-3.669 F200.000
G1 X-6.233 Y-3.624 F200.000
G1 X-6.199 Y-3.579 F200.000
G1 X-6.184 Y-3.492 F200.000
G1 X-6.214 Y-3.380 F200.000
G1 X-6.214 Y-3.380 F200.000
G1 X-6.335 Y-3.169 F200.000
G1 X-6.414 Y-3.079 F200.000
G1 X-6.462 Y-3.041 F200.000
G1 X-6.688 Y-2.966 F200.000
G1 X-6.970 Y-2.929 F200.000
G1 X-7.338 Y-2.974 F200.000
G1 X-7.632 Y-3.075 F200.000
G1 X-7.786 Y-3.154 F200.000
G1 X-7.925 Y-3.252 F200.000
G1 X-8.117 Y-3.429 F200.000
G1 X-8.218 Y-3.568 F200.000
G1 X-8.244 Y-3.617 F200.000
G1 X-8.259 Y-3.673 F200.000
G1 X-8.263 Y-3.729 F200.000
G1 X-8.222 Y-3.842 F200.000
G1 X-8.222 Y-3.842 F200.000
G1 X-8.120 Y-3.962 F200.000
G1 X-8.068 Y-3.992 F200.000
G0 X-8.041 Y-3.996
G0 X-7.887 Y-3.955
G0 X-6.500 Y-3.414
G1 X-6.466 Y-3.398 F200.000
G1 X-6.372 Y-3.357 F200.000
G1 X-6.335 Y-3.312 F200.000
G1 X-6.316 Y-3.226 F200.000
G1 X-6.342 Y-3.109 F200.000
G1 X-6.342 Y-3.109 F200.000
G1 X-6.462 Y-2.895 F200.000
G1 X-6.541 Y-2.801 F200.000
G1 X-6.695 Y-2.718 F200.000
G1 X-6.977 Y-2.643 F200.000
G1 X-7.090 Y-2.632 F200.000
G1 X-7.459 Y-2.665 F200.000
G1 X-7.763 Y-2.763 F200.000
G1 X-7.925 Y-2.846 F200.000
G1 X-8.158 Y-3.011 F200.000
G1 X-8.278 Y-3.132 F200.000
G1 X-8.376 Y-3.274 F200.000
G1 X-8.398 Y-3.327 F200.000
G1 X-8.402 Y-3.383 F200.000
G1 X-8.361 Y-3.496 F200.000
G1 X-8.361 Y-3.496 F200.000
G1 X-8.289 Y-3.594 F200.000
G1 X-8.214 Y-3.647 F200.000
G0 X-8.188 Y-3.650
G0 X-8.030 Y-3.617
G0 X-6.635 Y-3.132
G1 X-6.602 Y-3.117 F200.000
G1 X-6.508 Y-3.075 F200.000
G1 X-6.466 Y-3.034 F200.000
G1 X-6.444 Y-2.947 F200.000
G1 X-6.462 Y-2.831 F200.000
G1 X-6.462 Y-2.831 F200.000
G1 X-6.541 Y-2.665 F200.000
G1 X-6.609 Y-2.564 F200.000
G1 X-6.650 Y-2.519 F200.000
G1 X-6.805 Y-2.432 F200.000
G1 X-7.086 Y-2.350 F200.000
G1 X-7.199 Y-2.335 F200.000
G1 X-7.568 Y-2.361 F200.000
G1 X-7.861 Y-2.444 F200.000
G1 X-8.023 Y-2.515 F200.000
G1 X-8.312 Y-2.707 F200.000
G1 X-8.432 Y-2.827 F200.000
G1 X-8.500 Y-2.921 F200.000
G1 X-8.523 Y-2.974 F200.000
G1 X-8.530 Y-3.030 F200.000
G1 X-8.489 Y-3.143 F200.000
G1 X-8.489 Y-3.143 F200.000
G1 X-8.421 Y-3.248 F200.000
G1 X-8.346 Y-3.301 F200.000
G0 X-8.320 Y-3.308
G0 X-8.162 Y-3.278
G0 X-6.756 Y-2.838
G1 X-6.722 Y-2.827 F200.000
G1 X-6.624 Y-2.786 F200.000
G1 X-6.579 Y-2.733 F200.000
G1 X-6.556 Y-2.643 F200.000
G1 X-6.568 Y-2.553 F200.000
G1 X-6.568 Y-2.553 F200.000
G1 X-6.673 Y-2.335 F200.000
G1 X-6.744 Y-2.241 F200.000
G1 X-6.789 Y-2.199 F200.000
G1 X-7.004 Y-2.098 F200.000
G1 X-7.286 Y-2.034 F200.000
G1 X-7.654 Y-2.045 F200.000
G1 X-7.962 Y-2.120 F200.000
G1 X-8.135 Y-2.188 F200.000
G1 X-8.346 Y-2.305 F200.000
G1 X-8.519 Y-2.451 F200.000
G1 X-8.628 Y-2.583 F200.000
G1 X-8.643 Y-2.639 F200.000
G1 X-8.635 Y-2.695 F200.000
G1 X-8.602 Y-2.808 F200.000
G1 X-8.602 Y-2.808 F200.000
G1 X-8.538 Y-2.914 F200.000
G1 X-8.470 Y-2.970 F200.000
G0 X-8.444 Y-2.977
G0 X-8.286 Y-2.951
G0 X-6.857 Y-2.553
G1 X-6.823 Y-2.541 F200.000
G1 X-6.726 Y-2.504 F200.000
G1 X-6.680 Y-2.451 F200.000
G1 X-6.658 Y-2.361 F200.000
G1 X-6.669 Y-2.271 F200.000
G1 X-6.669 Y-2.271 F200.000
G1 X-6.759 Y-2.049 F200.000
G1 X-6.827 Y-1.947 F200.000
G1 X-6.872 Y-1.906 F200.000
G1 X-7.083 Y-1.801 F200.000
G1 X-7.308 Y-1.737 F200.000
G1 X-7.677 Y-1.722 F200.000
G1 X-7.992 Y-1.771 F200.000
G1 X-8.173 Y-1.827 F200.000
G1 X-8.338 Y-1.898 F200.000
G1 X-8.519 Y-2.015 F200.000
G1 X-8.647 Y-2.132 F200.000
G1 X-8.718 Y-2.226 F200.000
G1 X-8.737 Y-2.282 F200.000
G1 X-8.711 Y-2.451 F200.000
G1 X-8.711 Y-2.451 F200.000
G1 X-8.650 Y-2.556 F200.000
G1 X-8.583 Y-2.617 F200.000
G0 X-8.556 Y-2.624
G0 X-8.402 Y-2.605
G0 X-6.947 Y-2.259
G1 X-6.914 Y-2.248 F200.000
G1 X-6.816 Y-2.218 F200.000
G1 X-6.774 Y-2.180 F200.000
G1 X-6.744 Y-2.098 F200.000
G1 X-6.752 Y-1.981 F200.000
G1 X-6.752 Y-1.981 F200.000
G1 X-6.838 Y-1.756 F200.000
G1 X-6.906 Y-1.658 F200.000
G1 X-7.053 Y-1.556 F200.000
G1 X-7.271 Y-1.462 F200.000
G1 X-7.383 Y-1.432 F200.000
G1 X-7.752 Y-1.402 F200.000
G1 X-8.117 Y-1.455 F200.000
G1 X-8.301 Y-1.511 F200.000
G1 X-8.553 Y-1.639 F200.000
G1 X-8.692 Y-1.744 F200.000
G1 X-8.805 Y-1.872 F200.000
G1 X-8.820 Y-1.929 F200.000
G1 X-8.816 Y-1.985 F200.000
G1 X-8.789 Y-2.098 F200.000
G1 X-8.789 Y-2.098 F200.000
G1 X-8.737 Y-2.207 F200.000
G1 X-8.673 Y-2.271 F200.000
G0 X-8.647 Y-2.278
G0 X-8.489 Y-2.263
G0 X-7.045 Y-1.962
G1 X-7.008 Y-1.955 F200.000
G1 X-6.906 Y-1.929 F200.000
G1 X-6.861 Y-1.891 F200.000
G1 X-6.827 Y-1.808 F200.000
G1 X-6.823 Y-1.692 F200.000
G1 X-6.823 Y-1.692 F200.000
G1 X-6.910 Y-1.459 F200.000
G1 X-6.940 Y-1.406 F200.000
G1 X-6.981 Y-1.361 F200.000
G1 X-7.184 Y-1.241 F200.000
G1 X-7.410 Y-1.165 F200.000
G1 X-7.774 Y-1.102 F200.000
G1 X-8.143 Y-1.128 F200.000
G1 X-8.335 Y-1.180 F200.000
G1 X-8.583 Y-1.289 F200.000
G1 X-8.771 Y-1.425 F200.000
G1 X-8.887 Y-1.553 F200.000
G1 X-8.902 Y-1.609 F200.000
G1 X-8.898 Y-1.665 F200.000
G1 X-8.898 Y-1.665 F200.000
G1 X-8.835 Y-1.771 F200.000
G1 X-8.767 Y-1.831 F200.000
G0 X-8.737 Y-1.838
G0 X-8.575 Y-1.838
G0 X-7.109 Y-1.695
G1 X-7.071 Y-1.695 F200.000
G1 X-6.970 Y-1.677 F200.000
G1 X-6.921 Y-1.639 F200.000
G1 X-6.883 Y-1.545 F200.000
G1 X-6.876 Y-1.455 F200.000
G1 X-6.876 Y-1.455 F200.000
G1 X-6.947 Y-1.222 F200.000
G1 X-7.015 Y-1.120 F200.000
G1 X-7.214 Y-0.985 F200.000
G1 X-7.432 Y-0.898 F200.000
G1 X-7.853 Y-0.808 F200.000
G1 X-8.222 Y-0.827 F200.000
G1 X-8.421 Y-0.876 F200.000
G1 X-8.617 Y-0.959 F200.000
G1 X-8.763 Y-1.053 F200.000
G1 X-8.891 Y-1.169 F200.000
G1 X-8.929 Y-1.214 F200.000
G1 X-8.951 Y-1.267 F200.000
G1 X-8.936 Y-1.549 F200.000
G1 X-8.936 Y-1.549 F200.000
G1 X-8.872 Y-1.654 F200.000
G1 X-8.805 Y-1.711 F200.000
G0 X-8.774 Y-1.722
G0 X-8.617 Y-1.711
G0 X-7.147 Y-1.474
G1 X-7.109 Y-1.466 F200.000
G1 X-7.008 Y-1.444 F200.000
G1 X-6.959 Y-1.402 F200.000
G1 X-6.921 Y-1.308 F200.000
G1 X-6.914 Y-1.218 F200.000
G1 X-6.914 Y-1.218 F200.000
G1 X-6.955 Y-1.038 F200.000
G1 X-7.004 Y-0.925 F200.000
