(Exported by FreeCAD)
(Post Processor: grbl_post)
(Output Time:2023-08-11 23:16:39.207865)
(Begin preamble)
G17 G90
G21
(Block-name: G54)
(Block-expand: 0)
(Block-enable: 1)
(Begin operation: G54)
(Path: G54)
G54
G0 Z5.000
(Finish operation: G54)
(Block-name: 3mm Endmill003)
(Block-expand: 0)
(Block-enable: 1)
(Begin operation: 3mm Endmill003)
(Path: 3mm Endmill003)
(3mm Endmill003)
(Begin toolchange)
( M6 T2 )
(Finish operation: 3mm Endmill003)
(Block-name: Profile_fill_rod-0_IN_Z-10)
(Block-expand: 0)
(Block-enable: 1)
(Begin operation: Profile_fill_rod-0_IN_Z-10)
(Path: Profile_fill_rod-0_IN_Z-10)
(Profile_fill_rod-0_IN_Z-10)
(Compensated Tool Path. Diameter: 3.0)
G0 Z5.000
G0 X1.763 Y1.765
G0 Z3.000
G1 X1.763 Y1.765 Z-3.000 F100.000
G2 X2.403 Y0.677 Z-3.000 I-1.773 J-1.775 K0.000 F200.000
G2 X-0.857 Y-2.345 Z-3.000 I-2.403 J-0.677 K0.000 F200.000
G3 X-1.665 Y-2.039 Z-3.000 I-1.707 J-3.285 K0.000 F200.000
G2 X-1.691 Y-1.997 Z-3.000 I0.015 J0.039 K0.000 F200.000
G3 X-1.500 Y-1.238 Z-3.000 I-1.850 J0.870 K0.000 F200.000
G1 X-1.500 Y1.238 Z-3.000 F200.000
G3 X-1.689 Y1.988 Z-3.000 I-1.621 J-0.011 K0.000 F200.000
G2 X-1.665 Y2.039 Z-3.000 I0.039 J0.012 K0.000 F200.000
G3 X-1.264 Y2.163 Z-3.000 I-0.550 J2.469 K0.000 F200.000
G2 X1.763 Y1.765 Z-3.000 I1.254 J-2.173 K0.000 F200.000
G1 X1.763 Y1.765 Z-6.000 F100.000
G2 X2.403 Y0.677 Z-6.000 I-1.773 J-1.775 K0.000 F200.000
G2 X-0.857 Y-2.345 Z-6.000 I-2.403 J-0.677 K0.000 F200.000
G3 X-1.665 Y-2.039 Z-6.000 I-1.707 J-3.285 K0.000 F200.000
G2 X-1.691 Y-1.997 Z-6.000 I0.015 J0.039 K0.000 F200.000
G3 X-1.500 Y-1.238 Z-6.000 I-1.850 J0.870 K0.000 F200.000
G1 X-1.500 Y1.238 Z-6.000 F200.000
G3 X-1.689 Y1.988 Z-6.000 I-1.621 J-0.011 K0.000 F200.000
G2 X-1.665 Y2.039 Z-6.000 I0.039 J0.012 K0.000 F200.000
G3 X-1.264 Y2.163 Z-6.000 I-0.550 J2.469 K0.000 F200.000
G2 X1.763 Y1.765 Z-6.000 I1.254 J-2.173 K0.000 F200.000
G1 X1.763 Y1.765 Z-9.000 F100.000
G2 X2.403 Y0.677 Z-9.000 I-1.773 J-1.775 K0.000 F200.000
G2 X-0.857 Y-2.345 Z-9.000 I-2.403 J-0.677 K0.000 F200.000
G3 X-1.665 Y-2.039 Z-9.000 I-1.707 J-3.285 K0.000 F200.000
G2 X-1.691 Y-1.997 Z-9.000 I0.015 J0.039 K0.000 F200.000
G3 X-1.500 Y-1.238 Z-9.000 I-1.850 J0.870 K0.000 F200.000
G1 X-1.500 Y1.238 Z-9.000 F200.000
G3 X-1.689 Y1.988 Z-9.000 I-1.621 J-0.011 K0.000 F200.000
G2 X-1.665 Y2.039 Z-9.000 I0.039 J0.012 K0.000 F200.000
G3 X-1.264 Y2.163 Z-9.000 I-0.550 J2.469 K0.000 F200.000
G2 X1.763 Y1.765 Z-9.000 I1.254 J-2.173 K0.000 F200.000
G1 X1.763 Y1.765 Z-10.000 F100.000
G2 X2.403 Y0.677 Z-10.000 I-1.773 J-1.775 K0.000 F200.000
G2 X-0.857 Y-2.345 Z-10.000 I-2.403 J-0.677 K0.000 F200.000
G3 X-1.665 Y-2.039 Z-10.000 I-1.707 J-3.285 K0.000 F200.000
G2 X-1.691 Y-1.997 Z-10.000 I0.015 J0.039 K0.000 F200.000
G3 X-1.500 Y-1.238 Z-10.000 I-1.850 J0.870 K0.000 F200.000
G1 X-1.500 Y1.238 Z-10.000 F200.000
G3 X-1.689 Y1.988 Z-10.000 I-1.621 J-0.011 K0.000 F200.000
G2 X-1.665 Y2.039 Z-10.000 I0.039 J0.012 K0.000 F200.000
G3 X-1.264 Y2.163 Z-10.000 I-0.550 J2.469 K0.000 F200.000
G2 X1.763 Y1.765 Z-10.000 I1.254 J-2.173 K0.000 F200.000
G0 Z5.000
G0 Z5.000
(Finish operation: Profile_fill_rod-0_IN_Z-10)
(Block-name: G54)
(Block-expand: 0)
(Block-enable: 1)
(Begin operation: G54)
(Path: G54)
G54
G0 Z5.000
(Finish operation: G54)
(Block-name: 3mm Endmill003)
(Block-expand: 0)
(Block-enable: 1)
(Begin operation: 3mm Endmill003)
(Path: 3mm Endmill003)
(3mm Endmill003)
(Begin toolchange)
( M6 T2 )
(Finish operation: 3mm Endmill003)
(Block-name: Profile_fill_rod-05_INZ-10)
(Block-expand: 0)
(Block-enable: 1)
(Begin operation: Profile_fill_rod-05_INZ-10)
(Path: Profile_fill_rod-05_INZ-10)
(Profile_fill_rod-05_INZ-10)
(Compensated Tool Path. Diameter: 3.0)
G0 Z5.000
G0 X1.799 Y1.801
G0 Z3.000
G1 X1.799 Y1.801 Z-3.000 F100.000
G2 X2.451 Y0.690 Z-3.000 I-1.808 J-1.810 K0.000 F200.000
G2 X-0.874 Y-2.392 Z-3.000 I-2.451 J-0.690 K0.000 F200.000
G3 X-1.682 Y-2.086 Z-3.000 I-1.693 J-3.249 K0.000 F200.000
G2 X-1.741 Y-1.992 Z-3.000 I0.032 J0.086 K0.000 F200.000
G3 X-1.550 Y-1.238 Z-3.000 I-1.959 J0.898 K0.000 F200.000
G1 X-1.550 Y1.238 Z-3.000 F200.000
G3 X-1.738 Y1.973 Z-3.000 I-1.576 J-0.011 K0.000 F200.000
G2 X-1.682 Y2.086 Z-3.000 I0.088 J0.027 K0.000 F200.000
G3 X-1.284 Y2.209 Z-3.000 I-0.543 J2.452 K0.000 F200.000
G2 X1.799 Y1.801 Z-3.000 I1.275 J-2.218 K0.000 F200.000
G1 X1.799 Y1.801 Z-6.000 F100.000
G2 X2.451 Y0.690 Z-6.000 I-1.808 J-1.810 K0.000 F200.000
G2 X-0.874 Y-2.392 Z-6.000 I-2.451 J-0.690 K0.000 F200.000
G3 X-1.682 Y-2.086 Z-6.000 I-1.693 J-3.249 K0.000 F200.000
G2 X-1.741 Y-1.992 Z-6.000 I0.032 J0.086 K0.000 F200.000
G3 X-1.550 Y-1.238 Z-6.000 I-1.959 J0.898 K0.000 F200.000
G1 X-1.550 Y1.238 Z-6.000 F200.000
G3 X-1.738 Y1.973 Z-6.000 I-1.576 J-0.011 K0.000 F200.000
G2 X-1.682 Y2.086 Z-6.000 I0.088 J0.027 K0.000 F200.000
G3 X-1.284 Y2.209 Z-6.000 I-0.543 J2.452 K0.000 F200.000
G2 X1.799 Y1.801 Z-6.000 I1.275 J-2.218 K0.000 F200.000
G1 X1.799 Y1.801 Z-9.000 F100.000
G2 X2.451 Y0.690 Z-9.000 I-1.808 J-1.810 K0.000 F200.000
G2 X-0.874 Y-2.392 Z-9.000 I-2.451 J-0.690 K0.000 F200.000
G3 X-1.682 Y-2.086 Z-9.000 I-1.693 J-3.249 K0.000 F200.000
G2 X-1.741 Y-1.992 Z-9.000 I0.032 J0.086 K0.000 F200.000
G3 X-1.550 Y-1.238 Z-9.000 I-1.959 J0.898 K0.000 F200.000
G1 X-1.550 Y1.238 Z-9.000 F200.000
G3 X-1.738 Y1.973 Z-9.000 I-1.576 J-0.011 K0.000 F200.000
G2 X-1.682 Y2.086 Z-9.000 I0.088 J0.027 K0.000 F200.000
G3 X-1.284 Y2.209 Z-9.000 I-0.543 J2.452 K0.000 F200.000
G2 X1.799 Y1.801 Z-9.000 I1.275 J-2.218 K0.000 F200.000
G1 X1.799 Y1.801 Z-10.000 F100.000
G2 X2.451 Y0.690 Z-10.000 I-1.808 J-1.810 K0.000 F200.000
G2 X-0.874 Y-2.392 Z-10.000 I-2.451 J-0.690 K0.000 F200.000
G3 X-1.682 Y-2.086 Z-10.000 I-1.693 J-3.249 K0.000 F200.000
G2 X-1.741 Y-1.992 Z-10.000 I0.032 J0.086 K0.000 F200.000
G3 X-1.550 Y-1.238 Z-10.000 I-1.959 J0.898 K0.000 F200.000
G1 X-1.550 Y1.238 Z-10.000 F200.000
G3 X-1.738 Y1.973 Z-10.000 I-1.576 J-0.011 K0.000 F200.000
G2 X-1.682 Y2.086 Z-10.000 I0.088 J0.027 K0.000 F200.000
G3 X-1.284 Y2.209 Z-10.000 I-0.543 J2.452 K0.000 F200.000
G2 X1.799 Y1.801 Z-10.000 I1.275 J-2.218 K0.000 F200.000
G0 Z5.000
G0 Z5.000
(Finish operation: Profile_fill_rod-05_INZ-10)
(Block-name: G54)
(Block-expand: 0)
(Block-enable: 1)
(Begin operation: G54)
(Path: G54)
G54
G0 Z5.000
(Finish operation: G54)
(Block-name: 3mm Endmill001)
(Block-expand: 0)
(Block-enable: 1)
(Begin operation: 3mm Endmill001)
(Path: 3mm Endmill001)
(3mm Endmill001)
(Begin toolchange)
( M6 T2 )
(Finish operation: 3mm Endmill001)
(Block-name: Profile-0_OUTZ-4)
(Block-expand: 0)
(Block-enable: 1)
(Begin operation: Profile-0_OUTZ-4)
(Path: Profile-0_OUTZ-4)
(Profile-0_OUTZ-4)
(Compensated Tool Path. Diameter: 3.0)
G0 Z5.000
G0 X5.802 Y5.302
G0 Z3.000
G1 X5.802 Y5.302 Z-3.000
G2 X2.250 Y-7.291 Z-3.000 I-5.302 J-5.302 K0.000
G2 X-1.250 Y7.291 Z-3.000 I-1.750 J7.291 K0.000
G2 X5.802 Y5.302 Z-3.000 I1.750 J-7.291 K0.000
G1 X5.802 Y5.302 Z-4.000
G2 X2.250 Y-7.291 Z-4.000 I-5.302 J-5.302 K0.000
G2 X-1.250 Y7.291 Z-4.000 I-1.750 J7.291 K0.000
G2 X5.802 Y5.302 Z-4.000 I1.750 J-7.291 K0.000
G0 Z5.000
G0 Z5.000
(Finish operation: Profile-0_OUTZ-4)
(Block-name: G54)
(Block-expand: 0)
(Block-enable: 1)
(Begin operation: G54)
(Path: G54)
G54
G0 Z5.000
(Finish operation: G54)
(Block-name: 3mm Endmill001)
(Block-expand: 0)
(Block-enable: 1)
(Begin operation: 3mm Endmill001)
(Path: 3mm Endmill001)
(3mm Endmill001)
(Begin toolchange)
( M6 T2 )
(Finish operation: 3mm Endmill001)
(Block-name: Profile-05_OUTZ-4)
(Block-expand: 0)
(Block-enable: 1)
(Begin operation: Profile-05_OUTZ-4)
(Path: Profile-05_OUTZ-4)
(Profile-05_OUTZ-4)
(Compensated Tool Path. Diameter: 3.0)
G0 Z5.000
G0 X5.767 Y5.267
G0 Z3.000
G1 X5.767 Y5.267 Z-3.000
G2 X2.237 Y-7.243 Z-3.000 I-5.267 J-5.267 K0.000
G2 X-1.237 Y7.243 Z-3.000 I-1.737 J7.243 K0.000
G2 X5.767 Y5.267 Z-3.000 I1.737 J-7.243 K0.000
G1 X5.767 Y5.267 Z-4.000
G2 X2.237 Y-7.243 Z-4.000 I-5.267 J-5.267 K0.000
G2 X-1.237 Y7.243 Z-4.000 I-1.737 J7.243 K0.000
G2 X5.767 Y5.267 Z-4.000 I1.737 J-7.243 K0.000
G0 Z5.000
G0 Z5.000
(Finish operation: Profile-05_OUTZ-4)
(Block-name: G54)
(Block-expand: 0)
(Block-enable: 1)
(Begin operation: G54)
(Path: G54)
G54
G0 Z5.000
(Finish operation: G54)
(Block-name: 3mm Endmill003)
(Block-expand: 0)
(Block-enable: 1)
(Begin operation: 3mm Endmill003)
(Path: 3mm Endmill003)
(3mm Endmill003)
(Begin toolchange)
( M6 T2 )
(Finish operation: 3mm Endmill003)
(Block-name: Profile_empty_rod-0_IN_Z-10)
(Block-expand: 0)
(Block-enable: 1)
(Begin operation: Profile_empty_rod-0_IN_Z-10)
(Path: Profile_empty_rod-0_IN_Z-10)
(Profile_empty_rod-0_IN_Z-10)
(Compensated Tool Path. Diameter: 3.0)
G0 Z5.000
G0 X1.765 Y1.765
G0 Z3.000
G1 X1.765 Y1.765 Z-3.000 F100.000
G2 X0.822 Y-2.357 Z-3.000 I-1.765 J-1.765 K0.000 F200.000
G2 X-0.857 Y-2.345 Z-3.000 I-0.822 J2.357 K0.000 F200.000
G3 X-1.497 Y-2.082 Z-3.000 I-1.910 J-3.741 K0.000 F200.000
G2 X-1.685 Y-2.022 Z-3.000 I-0.043 J0.189 K0.000 F200.000
G3 X-1.884 Y-1.651 Z-3.000 I-2.331 J-1.017 K0.000 F200.000
G2 X-2.137 Y1.290 Z-3.000 I1.911 J1.646 K0.000 F200.000
G3 X-1.759 Y1.866 Z-3.000 I-3.276 J2.564 K0.000 F200.000
G2 X-1.665 Y2.038 Z-3.000 I0.194 J0.006 K0.000 F200.000
G3 X-1.264 Y2.163 Z-3.000 I-0.556 J2.486 K0.000 F200.000
G2 X-0.528 Y2.440 Z-3.000 I1.369 J-2.525 K0.000 F200.000
G2 X1.765 Y1.765 Z-3.000 I0.528 J-2.440 K0.000 F200.000
G1 X1.765 Y1.765 Z-6.000 F100.000
G2 X0.822 Y-2.357 Z-6.000 I-1.765 J-1.765 K0.000 F200.000
G2 X-0.857 Y-2.345 Z-6.000 I-0.822 J2.357 K0.000 F200.000
G3 X-1.497 Y-2.082 Z-6.000 I-1.910 J-3.741 K0.000 F200.000
G2 X-1.685 Y-2.022 Z-6.000 I-0.043 J0.189 K0.000 F200.000
G3 X-1.884 Y-1.651 Z-6.000 I-2.331 J-1.017 K0.000 F200.000
G2 X-2.137 Y1.290 Z-6.000 I1.911 J1.646 K0.000 F200.000
G3 X-1.759 Y1.866 Z-6.000 I-3.276 J2.564 K0.000 F200.000
G2 X-1.665 Y2.038 Z-6.000 I0.194 J0.006 K0.000 F200.000
G3 X-1.264 Y2.163 Z-6.000 I-0.556 J2.486 K0.000 F200.000
G2 X-0.528 Y2.440 Z-6.000 I1.369 J-2.525 K0.000 F200.000
G2 X1.765 Y1.765 Z-6.000 I0.528 J-2.440 K0.000 F200.000
G1 X1.765 Y1.765 Z-9.000 F100.000
G2 X0.822 Y-2.357 Z-9.000 I-1.765 J-1.765 K0.000 F200.000
G2 X-0.857 Y-2.345 Z-9.000 I-0.822 J2.357 K0.000 F200.000
G3 X-1.497 Y-2.082 Z-9.000 I-1.910 J-3.741 K0.000 F200.000
G2 X-1.685 Y-2.022 Z-9.000 I-0.043 J0.189 K0.000 F200.000
G3 X-1.884 Y-1.651 Z-9.000 I-2.331 J-1.017 K0.000 F200.000
G2 X-2.137 Y1.290 Z-9.000 I1.911 J1.646 K0.000 F200.000
G3 X-1.759 Y1.866 Z-9.000 I-3.276 J2.564 K0.000 F200.000
G2 X-1.665 Y2.038 Z-9.000 I0.194 J0.006 K0.000 F200.000
G3 X-1.264 Y2.163 Z-9.000 I-0.556 J2.486 K0.000 F200.000
G2 X-0.528 Y2.440 Z-9.000 I1.369 J-2.525 K0.000 F200.000
G2 X1.765 Y1.765 Z-9.000 I0.528 J-2.440 K0.000 F200.000
G1 X1.765 Y1.765 Z-10.000 F100.000
G2 X0.822 Y-2.357 Z-10.000 I-1.765 J-1.765 K0.000 F200.000
G2 X-0.857 Y-2.345 Z-10.000 I-0.822 J2.357 K0.000 F200.000
G3 X-1.497 Y-2.082 Z-10.000 I-1.910 J-3.741 K0.000 F200.000
G2 X-1.685 Y-2.022 Z-10.000 I-0.043 J0.189 K0.000 F200.000
G3 X-1.884 Y-1.651 Z-10.000 I-2.331 J-1.017 K0.000 F200.000
G2 X-2.137 Y1.290 Z-10.000 I1.911 J1.646 K0.000 F200.000
G3 X-1.759 Y1.866 Z-10.000 I-3.276 J2.564 K0.000 F200.000
G2 X-1.665 Y2.038 Z-10.000 I0.194 J0.006 K0.000 F200.000
G3 X-1.264 Y2.163 Z-10.000 I-0.556 J2.486 K0.000 F200.000
G2 X-0.528 Y2.440 Z-10.000 I1.369 J-2.525 K0.000 F200.000
G2 X1.765 Y1.765 Z-10.000 I0.528 J-2.440 K0.000 F200.000
G0 Z5.000
G0 Z5.000
(Finish operation: Profile_empty_rod-0_IN_Z-10)
(Block-name: G54)
(Block-expand: 0)
(Block-enable: 1)
(Begin operation: G54)
(Path: G54)
G54
G0 Z5.000
(Finish operation: G54)
(Block-name: 3mm Endmill003)
(Block-expand: 0)
(Block-enable: 1)
(Begin operation: 3mm Endmill003)
(Path: 3mm Endmill003)
(3mm Endmill003)
(Begin toolchange)
( M6 T2 )
(Finish operation: 3mm Endmill003)
(Block-name: Profile_empty_rod-05_INZ-10)
(Block-expand: 0)
(Block-enable: 1)
(Begin operation: Profile_empty_rod-05_INZ-10)
(Path: Profile_empty_rod-05_INZ-10)
(Profile_empty_rod-05_INZ-10)
(Compensated Tool Path. Diameter: 3.0)
G0 Z5.000
G0 X1.801 Y1.801
G0 Z3.000
G1 X1.801 Y1.801 Z-3.000 F100.000
G2 X0.839 Y-2.404 Z-3.000 I-1.801 J-1.801 K0.000 F200.000
G2 X-0.874 Y-2.392 Z-3.000 I-0.839 J2.404 K0.000 F200.000
G3 X-1.510 Y-2.130 Z-3.000 I-1.900 J-3.714 K0.000 F200.000
G2 X-1.728 Y-2.048 Z-3.000 I-0.038 J0.230 K0.000 F200.000
G3 X-1.925 Y-1.680 Z-3.000 I-2.317 J-1.007 K0.000 F200.000
G2 X-2.180 Y1.316 Z-3.000 I1.951 J1.675 K0.000 F200.000
G3 X-1.805 Y1.887 Z-3.000 I-3.251 J2.548 K0.000 F200.000
G2 X-1.682 Y2.085 Z-3.000 I0.233 J-0.007 K0.000 F200.000
G3 X-1.284 Y2.209 Z-3.000 I-0.550 J2.471 K0.000 F200.000
G2 X-0.539 Y2.489 Z-3.000 I1.386 J-2.559 K0.000 F200.000
G2 X1.801 Y1.801 Z-3.000 I0.539 J-2.489 K0.000 F200.000
G1 X1.801 Y1.801 Z-6.000 F100.000
G2 X0.839 Y-2.404 Z-6.000 I-1.801 J-1.801 K0.000 F200.000
G2 X-0.874 Y-2.392 Z-6.000 I-0.839 J2.404 K0.000 F200.000
G3 X-1.510 Y-2.130 Z-6.000 I-1.900 J-3.714 K0.000 F200.000
G2 X-1.728 Y-2.048 Z-6.000 I-0.038 J0.230 K0.000 F200.000
G3 X-1.925 Y-1.680 Z-6.000 I-2.317 J-1.007 K0.000 F200.000
G2 X-2.180 Y1.316 Z-6.000 I1.951 J1.675 K0.000 F200.000
G3 X-1.805 Y1.887 Z-6.000 I-3.251 J2.548 K0.000 F200.000
G2 X-1.682 Y2.085 Z-6.000 I0.233 J-0.007 K0.000 F200.000
G3 X-1.284 Y2.209 Z-6.000 I-0.550 J2.471 K0.000 F200.000
G2 X-0.539 Y2.489 Z-6.000 I1.386 J-2.559 K0.000 F200.000
G2 X1.801 Y1.801 Z-6.000 I0.539 J-2.489 K0.000 F200.000
G1 X1.801 Y1.801 Z-9.000 F100.000
G2 X0.839 Y-2.404 Z-9.000 I-1.801 J-1.801 K0.000 F200.000
G2 X-0.874 Y-2.392 Z-9.000 I-0.839 J2.404 K0.000 F200.000
G3 X-1.510 Y-2.130 Z-9.000 I-1.900 J-3.714 K0.000 F200.000
G2 X-1.728 Y-2.048 Z-9.000 I-0.038 J0.230 K0.000 F200.000
G3 X-1.925 Y-1.680 Z-9.000 I-2.317 J-1.007 K0.000 F200.000
G2 X-2.180 Y1.316 Z-9.000 I1.951 J1.675 K0.000 F200.000
G3 X-1.805 Y1.887 Z-9.000 I-3.251 J2.548 K0.000 F200.000
G2 X-1.682 Y2.085 Z-9.000 I0.233 J-0.007 K0.000 F200.000
G3 X-1.284 Y2.209 Z-9.000 I-0.550 J2.471 K0.000 F200.000
G2 X-0.539 Y2.489 Z-9.000 I1.386 J-2.559 K0.000 F200.000
G2 X1.801 Y1.801 Z-9.000 I0.539 J-2.489 K0.000 F200.000
G1 X1.801 Y1.801 Z-10.000 F100.000
G2 X0.839 Y-2.404 Z-10.000 I-1.801 J-1.801 K0.000 F200.000
G2 X-0.874 Y-2.392 Z-10.000 I-0.839 J2.404 K0.000 F200.000
G3 X-1.510 Y-2.130 Z-10.000 I-1.900 J-3.714 K0.000 F200.000
G2 X-1.728 Y-2.048 Z-10.000 I-0.038 J0.230 K0.000 F200.000
G3 X-1.925 Y-1.680 Z-10.000 I-2.317 J-1.007 K0.000 F200.000
G2 X-2.180 Y1.316 Z-10.000 I1.951 J1.675 K0.000 F200.000
G3 X-1.805 Y1.887 Z-10.000 I-3.251 J2.548 K0.000 F200.000
G2 X-1.682 Y2.085 Z-10.000 I0.233 J-0.007 K0.000 F200.000
G3 X-1.284 Y2.209 Z-10.000 I-0.550 J2.471 K0.000 F200.000
G2 X-0.539 Y2.489 Z-10.000 I1.386 J-2.559 K0.000 F200.000
G2 X1.801 Y1.801 Z-10.000 I0.539 J-2.489 K0.000 F200.000
G0 Z5.000
G0 Z5.000
(Finish operation: Profile_empty_rod-05_INZ-10)
(Block-name: post_amble)
(Block-expand: 0)
(Block-enable: 1)
(Begin postamble)
M5
G17 G90
M2
