(Exported by FreeCAD)
(Post Processor: grbl_post)
(Output Time:2023-08-11 00:00:00.828152)
(Begin preamble)
G17 G90
G21
(Block-name: G54)
(Block-expand: 0)
(Block-enable: 1)
(Begin operation: G54)
(Path: G54)
G54
G0 Z5.000
(Finish operation: G54)
(Block-name: 33mm Endmill001)
(Block-expand: 0)
(Block-enable: 1)
(Begin operation: 33mm Endmill001)
(Path: 33mm Endmill001)
(33mm Endmill001)
(Begin toolchange)
( M6 T2 )
(Finish operation: 33mm Endmill001)
(Block-name: Profile+1_)
(Block-expand: 0)
(Block-enable: 1)
(Begin operation: Profile+1_)
(Path: Profile+1_)
(Profile+1_)
(Compensated Tool Path. Diameter: 33.0)
G0 Z5.000
G0 X-45.000
G0 X-23.993
G0 X-23.993 Z3.000
G1 X-23.993 Y-0.000 Z-6.500 F100.000
G2 X-2.153 Y23.435 Z-6.500 I23.493 J-0.000 K0.000 F200.000
G2 X1.153 Y-23.435 Z-6.500 I1.653 J-23.435 K0.000 F200.000
G2 X-23.993 Y-0.000 Z-6.500 I-1.653 J23.435 K0.000 F200.000
G1 X-23.993 Y-0.000 Z-8.000 F100.000
G2 X-2.153 Y23.435 Z-8.000 I23.493 J-0.000 K0.000 F200.000
G2 X1.153 Y-23.435 Z-8.000 I1.653 J-23.435 K0.000 F200.000
G2 X-23.993 Y-0.000 Z-8.000 I-1.653 J23.435 K0.000 F200.000
G1 X-23.993 Y-0.000 Z-9.500 F100.000
G2 X-2.153 Y23.435 Z-9.500 I23.493 J-0.000 K0.000 F200.000
G2 X1.153 Y-23.435 Z-9.500 I1.653 J-23.435 K0.000 F200.000
G2 X-23.993 Y-0.000 Z-9.500 I-1.653 J23.435 K0.000 F200.000
G1 X-23.993 Y-0.000 Z-11.000 F100.000
G2 X-2.153 Y23.435 Z-11.000 I23.493 J-0.000 K0.000 F200.000
G2 X1.153 Y-23.435 Z-11.000 I1.653 J-23.435 K0.000 F200.000
G2 X-23.993 Y-0.000 Z-11.000 I-1.653 J23.435 K0.000 F200.000
G0 Z5.000
G0 Z5.000
(Finish operation: Profile+1_)
(Block-name: Profile+0_5)
(Block-expand: 0)
(Block-enable: 1)
(Begin operation: Profile+0_5)
(Path: Profile+0_5)
(Profile+0_5)
(Compensated Tool Path. Diameter: 33.0)
G0 Z5.000
G0 X-45.000
G0 X-23.493
G0 X-23.493 Z3.000
G1 X-23.493 Y-0.000 Z-6.500 F100.000
G2 X-2.125 Y22.936 Z-6.500 I22.993 J-0.000 K0.000 F200.000
G2 X1.125 Y-22.936 Z-6.500 I1.625 J-22.936 K0.000 F200.000
G2 X-23.493 Y-0.000 Z-6.500 I-1.625 J22.936 K0.000 F200.000
G1 X-23.493 Y-0.000 Z-8.000 F100.000
G2 X-2.125 Y22.936 Z-8.000 I22.993 J-0.000 K0.000 F200.000
G2 X1.125 Y-22.936 Z-8.000 I1.625 J-22.936 K0.000 F200.000
G2 X-23.493 Y-0.000 Z-8.000 I-1.625 J22.936 K0.000 F200.000
G1 X-23.493 Y-0.000 Z-9.500 F100.000
G2 X-2.125 Y22.936 Z-9.500 I22.993 J-0.000 K0.000 F200.000
G2 X1.125 Y-22.936 Z-9.500 I1.625 J-22.936 K0.000 F200.000
G2 X-23.493 Y-0.000 Z-9.500 I-1.625 J22.936 K0.000 F200.000
G1 X-23.493 Y-0.000 Z-11.000 F100.000
G2 X-2.125 Y22.936 Z-11.000 I22.993 J-0.000 K0.000 F200.000
G2 X1.125 Y-22.936 Z-11.000 I1.625 J-22.936 K0.000 F200.000
G2 X-23.493 Y-0.000 Z-11.000 I-1.625 J22.936 K0.000 F200.000
G0 Z5.000
G0 Z5.000
(Finish operation: Profile+0_5)
(Block-name: Profile+0_1)
(Block-expand: 0)
(Block-enable: 1)
(Begin operation: Profile+0_1)
(Path: Profile+0_1)
(Profile+0_1)
(Compensated Tool Path. Diameter: 33.0)
G0 Z5.000
G0 X-45.000
G0 X-23.093
G0 X-23.093 Z3.000
G1 X-23.093 Y0.000 Z-6.500 F100.000
G2 X-2.103 Y22.536 Z-6.500 I22.593 J0.000 K0.000 F200.000
G2 X1.103 Y-22.536 Z-6.500 I1.603 J-22.536 K0.000 F200.000
G2 X-23.093 Y0.000 Z-6.500 I-1.603 J22.536 K0.000 F200.000
G1 X-23.093 Y0.000 Z-8.000 F100.000
G2 X-2.103 Y22.536 Z-8.000 I22.593 J0.000 K0.000 F200.000
G2 X1.103 Y-22.536 Z-8.000 I1.603 J-22.536 K0.000 F200.000
G2 X-23.093 Y0.000 Z-8.000 I-1.603 J22.536 K0.000 F200.000
G1 X-23.093 Y0.000 Z-9.500 F100.000
G2 X-2.103 Y22.536 Z-9.500 I22.593 J0.000 K0.000 F200.000
G2 X1.103 Y-22.536 Z-9.500 I1.603 J-22.536 K0.000 F200.000
G2 X-23.093 Y0.000 Z-9.500 I-1.603 J22.536 K0.000 F200.000
G1 X-23.093 Y0.000 Z-11.000 F100.000
G2 X-2.103 Y22.536 Z-11.000 I22.593 J0.000 K0.000 F200.000
G2 X1.103 Y-22.536 Z-11.000 I1.603 J-22.536 K0.000 F200.000
G2 X-23.093 Y0.000 Z-11.000 I-1.603 J22.536 K0.000 F200.000
G0 Z5.000
G0 Z5.000
(Finish operation: Profile+0_1)
(Block-name: Profile+0_05)
(Block-expand: 0)
(Block-enable: 1)
(Begin operation: Profile+0_05)
(Path: Profile+0_05)
(Profile+0_05)
(Compensated Tool Path. Diameter: 33.0)
G0 Z5.000
G0 X-45.000
G0 X-23.043
G0 X-23.043 Z3.000
G1 X-23.043 Y-0.000 Z-6.500 F100.000
G2 X-2.100 Y22.486 Z-6.500 I22.543 J-0.000 K0.000 F200.000
G2 X1.100 Y-22.486 Z-6.500 I1.600 J-22.486 K0.000 F200.000
G2 X-23.043 Y-0.000 Z-6.500 I-1.600 J22.486 K0.000 F200.000
G1 X-23.043 Y-0.000 Z-8.000 F100.000
G2 X-2.100 Y22.486 Z-8.000 I22.543 J-0.000 K0.000 F200.000
G2 X1.100 Y-22.486 Z-8.000 I1.600 J-22.486 K0.000 F200.000
G2 X-23.043 Y-0.000 Z-8.000 I-1.600 J22.486 K0.000 F200.000
G1 X-23.043 Y-0.000 Z-9.500 F100.000
G2 X-2.100 Y22.486 Z-9.500 I22.543 J-0.000 K0.000 F200.000
G2 X1.100 Y-22.486 Z-9.500 I1.600 J-22.486 K0.000 F200.000
G2 X-23.043 Y-0.000 Z-9.500 I-1.600 J22.486 K0.000 F200.000
G1 X-23.043 Y-0.000 Z-11.000 F100.000
G2 X-2.100 Y22.486 Z-11.000 I22.543 J-0.000 K0.000 F200.000
G2 X1.100 Y-22.486 Z-11.000 I1.600 J-22.486 K0.000 F200.000
G2 X-23.043 Y-0.000 Z-11.000 I-1.600 J22.486 K0.000 F200.000
G0 Z5.000
G0 Z5.000
(Finish operation: Profile+0_05)
(Block-name: Profile+0)
(Block-expand: 0)
(Block-enable: 1)
(Begin operation: Profile+0)
(Path: Profile+0)
(Profile+0)
(Compensated Tool Path. Diameter: 33.0)
G0 Z5.000
G0 X-45.000
G0 X-22.993
G0 X-22.993 Z3.000
G1 X-22.993 Y-0.000 Z-6.500 F100.000
G2 X-2.097 Y22.436 Z-6.500 I22.493 J-0.000 K0.000 F200.000
G2 X1.097 Y-22.436 Z-6.500 I1.597 J-22.436 K0.000 F200.000
G2 X-22.993 Y-0.000 Z-6.500 I-1.597 J22.436 K0.000 F200.000
G1 X-22.993 Y-0.000 Z-8.000 F100.000
G2 X-2.097 Y22.436 Z-8.000 I22.493 J-0.000 K0.000 F200.000
G2 X1.097 Y-22.436 Z-8.000 I1.597 J-22.436 K0.000 F200.000
G2 X-22.993 Y-0.000 Z-8.000 I-1.597 J22.436 K0.000 F200.000
G1 X-22.993 Y-0.000 Z-9.500 F100.000
G2 X-2.097 Y22.436 Z-9.500 I22.493 J-0.000 K0.000 F200.000
G2 X1.097 Y-22.436 Z-9.500 I1.597 J-22.436 K0.000 F200.000
G2 X-22.993 Y-0.000 Z-9.500 I-1.597 J22.436 K0.000 F200.000
G1 X-22.993 Y-0.000 Z-11.000 F100.000
G2 X-2.097 Y22.436 Z-11.000 I22.493 J-0.000 K0.000 F200.000
G2 X1.097 Y-22.436 Z-11.000 I1.597 J-22.436 K0.000 F200.000
G2 X-22.993 Y-0.000 Z-11.000 I-1.597 J22.436 K0.000 F200.000
G0 Z5.000
G0 Z5.000
(Finish operation: Profile+0)
(Block-name: Profile-0_05)
(Block-expand: 0)
(Block-enable: 1)
(Begin operation: Profile-0_05)
(Path: Profile-0_05)
(Profile-0_05)
(Compensated Tool Path. Diameter: 33.0)
G0 Z5.000
G0 X-45.000
G0 X-22.993
G0 X-22.993 Z3.000
G1 X-22.993 Y-0.000 Z-6.500 F100.000
G2 X-2.097 Y22.436 Z-6.500 I22.493 J-0.000 K0.000 F200.000
G2 X1.097 Y-22.436 Z-6.500 I1.597 J-22.436 K0.000 F200.000
G2 X-22.993 Y-0.000 Z-6.500 I-1.597 J22.436 K0.000 F200.000
G1 X-22.993 Y-0.000 Z-8.000 F100.000
G2 X-2.097 Y22.436 Z-8.000 I22.493 J-0.000 K0.000 F200.000
G2 X1.097 Y-22.436 Z-8.000 I1.597 J-22.436 K0.000 F200.000
G2 X-22.993 Y-0.000 Z-8.000 I-1.597 J22.436 K0.000 F200.000
G1 X-22.993 Y-0.000 Z-9.500 F100.000
G2 X-2.097 Y22.436 Z-9.500 I22.493 J-0.000 K0.000 F200.000
G2 X1.097 Y-22.436 Z-9.500 I1.597 J-22.436 K0.000 F200.000
G2 X-22.993 Y-0.000 Z-9.500 I-1.597 J22.436 K0.000 F200.000
G1 X-22.993 Y-0.000 Z-11.000 F100.000
G2 X-2.097 Y22.436 Z-11.000 I22.493 J-0.000 K0.000 F200.000
G2 X1.097 Y-22.436 Z-11.000 I1.597 J-22.436 K0.000 F200.000
G2 X-22.993 Y-0.000 Z-11.000 I-1.597 J22.436 K0.000 F200.000
G0 Z5.000
G0 Z5.000
(Finish operation: Profile-0_05)
(Block-name: post_amble)
(Block-expand: 0)
(Block-enable: 1)
(Begin postamble)
M5
G17 G90
M2
