(Exported by FreeCAD)
(Post Processor: grbl_post)
(Output Time:2023-08-20 01:53:54.879643)
(Begin preamble)
G17 G90
G21
(Block-name: G54)
(Block-expand: 0)
(Block-enable: 1)
(Begin operation: G54)
(Path: G54)
G54
G0 Z2.000
(Finish operation: G54)
(Block-name: 3mm Endmill003)
(Block-expand: 0)
(Block-enable: 1)
(Begin operation: 3mm Endmill003)
(Path: 3mm Endmill003)
(3mm Endmill003)
(Begin toolchange)
( M6 T2 )
(Finish operation: 3mm Endmill003)
(Block-name: Adaptive_back_side)
(Block-expand: 0)
(Block-enable: 1)
(Begin operation: Adaptive_back_side)
(Path: Adaptive_back_side)
(Adaptive_back_side)
(Helix to depth: -1.000000)
G0 Z2.000
G0 X1.396 Y0.657 Z2.000
G0 X1.396 Y0.657 Z0.000
G1 X1.396 Y0.657 Z0.000 F100.000
G1 X1.396 Y0.657 Z0.000 F100.000
G1 X1.251 Y0.820 Z-0.019 F100.000
G1 X1.076 Y0.951 Z-0.039 F100.000
G1 X0.879 Y1.046 Z-0.058 F100.000
G1 X0.668 Y1.101 Z-0.077 F100.000
G1 X0.450 Y1.113 Z-0.097 F100.000
G1 X0.234 Y1.083 Z-0.116 F100.000
G1 X0.027 Y1.011 Z-0.135 F100.000
G1 X-0.161 Y0.900 Z-0.154 F100.000
G1 X-0.324 Y0.754 Z-0.174 F100.000
G1 X-0.455 Y0.580 Z-0.193 F100.000
G1 X-0.550 Y0.383 Z-0.212 F100.000
G1 X-0.605 Y0.172 Z-0.232 F100.000
G1 X-0.617 Y-0.046 Z-0.251 F100.000
G1 X-0.586 Y-0.263 Z-0.270 F100.000
G1 X-0.514 Y-0.469 Z-0.290 F100.000
G1 X-0.404 Y-0.657 Z-0.309 F100.000
G1 X-0.258 Y-0.820 Z-0.328 F100.000
G1 X-0.084 Y-0.951 Z-0.348 F100.000
G1 X0.113 Y-1.046 Z-0.367 F100.000
G1 X0.325 Y-1.101 Z-0.386 F100.000
G1 X0.543 Y-1.113 Z-0.405 F100.000
G1 X0.759 Y-1.083 Z-0.425 F100.000
G1 X0.965 Y-1.011 Z-0.444 F100.000
G1 X1.153 Y-0.900 Z-0.463 F100.000
G1 X1.316 Y-0.754 Z-0.483 F100.000
G1 X1.448 Y-0.580 Z-0.502 F100.000
G1 X1.542 Y-0.383 Z-0.521 F100.000
G1 X1.597 Y-0.172 Z-0.541 F100.000
G1 X1.609 Y0.046 Z-0.560 F100.000
G1 X1.579 Y0.263 Z-0.579 F100.000
G1 X1.507 Y0.469 Z-0.599 F100.000
G1 X1.396 Y0.657 Z-0.618 F100.000
G1 X1.251 Y0.820 Z-0.637 F100.000
G1 X1.076 Y0.951 Z-0.657 F100.000
G1 X0.879 Y1.046 Z-0.676 F100.000
G1 X0.668 Y1.101 Z-0.695 F100.000
G1 X0.450 Y1.113 Z-0.714 F100.000
G1 X0.234 Y1.083 Z-0.734 F100.000
G1 X0.027 Y1.011 Z-0.753 F100.000
G1 X-0.161 Y0.900 Z-0.772 F100.000
G1 X-0.324 Y0.754 Z-0.792 F100.000
G1 X-0.455 Y0.580 Z-0.811 F100.000
G1 X-0.550 Y0.383 Z-0.830 F100.000
G1 X-0.605 Y0.172 Z-0.850 F100.000
G1 X-0.617 Y-0.046 Z-0.869 F100.000
G1 X-0.586 Y-0.263 Z-0.888 F100.000
G1 X-0.514 Y-0.469 Z-0.908 F100.000
G1 X-0.404 Y-0.657 Z-0.927 F100.000
G1 X-0.258 Y-0.820 Z-0.946 F100.000
G1 X-0.084 Y-0.951 Z-0.965 F100.000
G1 X0.113 Y-1.046 Z-0.985 F100.000
G1 X0.325 Y-1.101 Z-1.000 F200.000
G1 X0.543 Y-1.113 Z-1.000 F200.000
G1 X0.759 Y-1.083 Z-1.000 F200.000
G1 X0.965 Y-1.011 Z-1.000 F200.000
G1 X1.153 Y-0.900 Z-1.000 F200.000
G1 X1.316 Y-0.754 Z-1.000 F200.000
G1 X1.448 Y-0.580 Z-1.000 F200.000
G1 X1.542 Y-0.383 Z-1.000 F200.000
G1 X1.597 Y-0.172 Z-1.000 F200.000
G1 X1.609 Y0.046 Z-1.000 F200.000
G1 X1.579 Y0.263 Z-1.000 F200.000
G1 X1.507 Y0.469 Z-1.000 F200.000
G1 X1.396 Y0.657 Z-1.000 F200.000
G1 X1.251 Y0.820 Z-1.000 F200.000
G1 X1.076 Y0.951 Z-1.000 F200.000
G1 X0.879 Y1.046 Z-1.000 F200.000
G1 X0.668 Y1.101 Z-1.000 F200.000
G1 X0.450 Y1.113 Z-1.000 F200.000
G1 X0.234 Y1.083 Z-1.000 F200.000
G1 X0.027 Y1.011 Z-1.000 F200.000
G1 X-0.161 Y0.900 Z-1.000 F200.000
G1 X-0.324 Y0.754 Z-1.000 F200.000
G1 X-0.455 Y0.580 Z-1.000 F200.000
G1 X-0.550 Y0.383 Z-1.000 F200.000
G1 X-0.605 Y0.172 Z-1.000 F200.000
G1 X-0.617 Y-0.046 Z-1.000 F200.000
G1 X-0.586 Y-0.263 Z-1.000 F200.000
G1 X-0.514 Y-0.469 Z-1.000 F200.000
G1 X-0.404 Y-0.657 Z-1.000 F200.000
G1 X-0.258 Y-0.820 Z-1.000 F200.000
G1 X-0.084 Y-0.951 Z-1.000 F200.000
G1 X0.113 Y-1.046 Z-1.000 F200.000
(Adaptive - depth: -1.000000)
G1 X0.496 Y-1.124 F200.000
G1 X0.538 Y-1.165 F200.000
G1 X0.647 Y-1.207 F200.000
G1 X0.759 Y-1.226 F200.000
G1 X0.929 Y-1.214 F200.000
G1 X0.985 Y-1.203 F200.000
G1 X1.331 Y-1.068 F200.000
G1 X1.515 Y-0.917 F200.000
G1 X1.602 Y-0.820 F200.000
G1 X1.680 Y-0.711 F200.000
G1 X1.778 Y-0.538 F200.000
G1 X1.861 Y-0.297 F200.000
G1 X1.887 Y-0.094 F200.000
G1 X1.891 Y0.060 F200.000
G1 X1.872 Y0.256 F200.000
G1 X1.816 Y0.477 F200.000
G1 X1.722 Y0.680 F200.000
G1 X1.620 Y0.838 F200.000
G1 X1.496 Y0.981 F200.000
G1 X1.342 Y1.117 F200.000
G1 X1.162 Y1.233 F200.000
G1 X0.977 Y1.316 F200.000
G1 X0.778 Y1.376 F200.000
G1 X0.571 Y1.406 F200.000
G1 X0.365 Y1.406 F200.000
G1 X0.158 Y1.365 F200.000
G1 X-0.008 Y1.312 F200.000
G1 X-0.195 Y1.222 F200.000
G1 X-0.383 Y1.102 F200.000
G1 X-0.553 Y0.940 F200.000
G1 X-0.669 Y0.797 F200.000
G1 X-0.778 Y0.617 F200.000
G1 X-0.850 Y0.421 F200.000
G1 X-0.891 Y0.244 F200.000
G1 X-0.906 Y0.045 F200.000
G1 X-0.902 Y-0.147 F200.000
G1 X-0.857 Y-0.376 F200.000
G1 X-0.789 Y-0.575 F200.000
G1 X-0.688 Y-0.759 F200.000
G1 X-0.575 Y-0.910 F200.000
G1 X-0.432 Y-1.053 F200.000
G1 X-0.271 Y-1.177 F200.000
G1 X-0.086 Y-1.293 F200.000
G1 X0.150 Y-1.414 F200.000
G1 X0.432 Y-1.485 F200.000
G1 X0.827 Y-1.504 F200.000
G1 X1.192 Y-1.444 F200.000
G1 X1.470 Y-1.312 F200.000
G1 X1.594 Y-1.226 F200.000
G1 X1.703 Y-1.128 F200.000
G1 X1.827 Y-0.996 F200.000
G1 X1.981 Y-0.774 F200.000
G1 X2.094 Y-0.553 F200.000
G1 X2.158 Y-0.335 F200.000
G1 X2.192 Y-0.150 F200.000
G1 X2.199 Y0.064 F200.000
G1 X2.180 Y0.267 F200.000
G1 X2.128 Y0.496 F200.000
G1 X2.056 Y0.699 F200.000
G1 X1.944 Y0.917 F200.000
G1 X1.805 Y1.105 F200.000
G1 X1.665 Y1.256 F200.000
G1 X1.489 Y1.398 F200.000
G1 X1.301 Y1.519 F200.000
G1 X1.086 Y1.617 F200.000
G1 X0.865 Y1.684 F200.000
G1 X0.635 Y1.714 F200.000
G1 X0.432 Y1.718 F200.000
G1 X0.214 Y1.692 F200.000
G1 X0.000 Y1.639 F200.000
G1 X-0.222 Y1.560 F200.000
G1 X-0.455 Y1.436 F200.000
G1 X-0.643 Y1.293 F200.000
G1 X-0.793 Y1.150 F200.000
G1 X-0.940 Y0.970 F200.000
G1 X-1.056 Y0.774 F200.000
G1 X-1.139 Y0.568 F200.000
G1 X-1.188 Y0.376 F200.000
G1 X-1.218 Y0.162 F200.000
G1 X-1.222 Y-0.075 F200.000
G1 X-1.192 Y-0.327 F200.000
G1 X-1.135 Y-0.556 F200.000
G1 X-1.045 Y-0.763 F200.000
G1 X-0.944 Y-0.932 F200.000
G1 X-0.816 Y-1.109 F200.000
G1 X-0.643 Y-1.297 F200.000
G1 X-0.436 Y-1.466 F200.000
G1 X-0.233 Y-1.602 F200.000
G1 X0.000 Y-1.707 F200.000
G1 X0.203 Y-1.774 F200.000
G1 X0.432 Y-1.820 F200.000
G1 X0.665 Y-1.842 F200.000
G1 X0.947 Y-1.831 F200.000
G1 X1.192 Y-1.778 F200.000
G1 X1.383 Y-1.718 F200.000
G1 X1.605 Y-1.613 F200.000
G1 X1.793 Y-1.481 F200.000
G1 X1.944 Y-1.350 F200.000
G1 X2.094 Y-1.188 F200.000
G1 X2.248 Y-0.974 F200.000
G1 X2.372 Y-0.744 F200.000
G1 X2.455 Y-0.511 F200.000
G1 X2.504 Y-0.305 F200.000
G1 X2.526 Y-0.068 F200.000
G1 X2.526 Y0.158 F200.000
G1 X2.492 Y0.414 F200.000
G1 X2.432 Y0.647 F200.000
G1 X2.350 Y0.876 F200.000
G1 X2.226 Y1.113 F200.000
G1 X2.083 Y1.320 F200.000
G1 X1.906 Y1.504 F200.000
G1 X1.744 Y1.639 F200.000
G1 X1.549 Y1.774 F200.000
G1 X1.312 Y1.891 F200.000
G1 X1.086 Y1.970 F200.000
G1 X0.846 Y2.026 F200.000
G1 X0.598 Y2.056 F200.000
G1 X0.331 Y2.056 F200.000
G1 X0.079 Y2.015 F200.000
G1 X-0.135 Y1.959 F200.000
G1 X-0.365 Y1.876 F200.000
G1 X-0.624 Y1.737 F200.000
G1 X-0.831 Y1.594 F200.000
G1 X-1.023 Y1.414 F200.000
G1 X-1.162 Y1.252 F200.000
G1 X-1.293 Y1.049 F200.000
G1 X-1.395 Y0.835 F200.000
G1 X-1.474 Y0.617 F200.000
G1 X-1.530 Y0.361 F200.000
G1 X-1.560 Y0.120 F200.000
G1 X-1.560 Y-0.150 F200.000
G1 X-1.530 Y-0.406 F200.000
G1 X-1.462 Y-0.654 F200.000
G1 X-1.380 Y-0.861 F200.000
G1 X-1.263 Y-1.075 F200.000
G1 X-1.132 Y-1.274 F200.000
G1 X-0.940 Y-1.496 F200.000
G1 X-0.752 Y-1.673 F200.000
G1 X-0.523 Y-1.846 F200.000
G1 X-0.274 Y-1.977 F200.000
G1 X-0.068 Y-2.068 F200.000
G1 X0.180 Y-2.139 F200.000
G1 X0.425 Y-2.180 F200.000
G1 X0.692 Y-2.195 F200.000
G1 X0.947 Y-2.180 F200.000
G1 X1.207 Y-2.135 F200.000
G1 X1.459 Y-2.060 F200.000
G1 X1.699 Y-1.959 F200.000
G1 X1.921 Y-1.820 F200.000
G1 X2.094 Y-1.684 F200.000
G1 X2.271 Y-1.515 F200.000
G1 X2.447 Y-1.308 F200.000
G1 X2.609 Y-1.064 F200.000
G1 X2.726 Y-0.820 F200.000
G1 X2.797 Y-0.602 F200.000
G1 X2.850 Y-0.376 F200.000
G1 X2.883 Y-0.102 F200.000
G1 X2.883 Y0.180 F200.000
G1 X2.857 Y0.436 F200.000
G1 X2.797 Y0.703 F200.000
G1 X2.711 Y0.959 F200.000
G1 X2.598 Y1.199 F200.000
G1 X2.455 Y1.429 F200.000
G1 X2.289 Y1.643 F200.000
G1 X2.094 Y1.831 F200.000
G1 X1.906 Y1.981 F200.000
G1 X1.684 Y2.117 F200.000
G1 X1.455 Y2.229 F200.000
G1 X1.180 Y2.327 F200.000
G1 X0.917 Y2.387 F200.000
G1 X0.647 Y2.421 F200.000
G1 X0.372 Y2.425 F200.000
G1 X0.102 Y2.398 F200.000
G1 X-0.162 Y2.342 F200.000
G1 X-0.417 Y2.256 F200.000
G1 X-0.662 Y2.143 F200.000
G1 X-0.895 Y2.004 F200.000
G1 X-1.109 Y1.838 F200.000
G1 X-1.305 Y1.650 F200.000
G1 X-1.477 Y1.444 F200.000
G1 X-1.620 Y1.214 F200.000
G1 X-1.726 Y1.000 F200.000
G1 X-1.816 Y0.756 F200.000
G1 X-1.887 Y0.481 F200.000
G1 X-1.932 Y0.184 F200.000
G1 X-1.944 Y-0.090 F200.000
G1 X-1.910 Y-0.372 F200.000
G1 X-1.865 Y-0.586 F200.000
G1 X-1.789 Y-0.835 F200.000
G1 X-1.677 Y-1.102 F200.000
G1 X-1.526 Y-1.372 F200.000
G1 X-1.365 Y-1.605 F200.000
G1 X-1.162 Y-1.820 F200.000
G1 X-0.985 Y-1.977 F200.000
G1 X-0.767 Y-2.139 F200.000
G1 X-0.508 Y-2.293 F200.000
G1 X-0.226 Y-2.421 F200.000
G1 X0.053 Y-2.504 F200.000
G1 X0.293 Y-2.553 F200.000
G1 X0.571 Y-2.579 F200.000
G1 X0.838 Y-2.575 F200.000
G1 X1.124 Y-2.541 F200.000
G1 X1.398 Y-2.477 F200.000
G1 X1.665 Y-2.387 F200.000
G1 X1.925 Y-2.267 F200.000
G1 X2.165 Y-2.120 F200.000
G1 X2.383 Y-1.940 F200.000
G1 X2.549 Y-1.774 F200.000
G1 X2.718 Y-1.575 F200.000
G1 X2.898 Y-1.316 F200.000
G1 X3.041 Y-1.030 F200.000
G1 X3.135 Y-0.797 F200.000
G1 X3.214 Y-0.515 F200.000
G1 X3.259 Y-0.233 F200.000
G1 X3.278 Y0.038 F200.000
G1 X3.267 Y0.320 F200.000
G1 X3.222 Y0.598 F200.000
G1 X3.150 Y0.868 F200.000
G1 X3.056 Y1.132 F200.000
G1 X2.917 Y1.414 F200.000
G1 X2.763 Y1.662 F200.000
G1 X2.575 Y1.891 F200.000
G1 X2.398 Y2.068 F200.000
G1 X2.184 Y2.248 F200.000
G1 X1.921 Y2.417 F200.000
G1 X1.673 Y2.545 F200.000
G1 X1.402 Y2.654 F200.000
G1 X1.120 Y2.733 F200.000
G1 X0.838 Y2.789 F200.000
G1 X0.519 Y2.816 F200.000
G1 X0.218 Y2.801 F200.000
G1 X-0.034 Y2.767 F200.000
G1 X-0.312 Y2.699 F200.000
G1 X-0.579 Y2.609 F200.000
G1 X-0.868 Y2.474 F200.000
G1 X-1.124 Y2.323 F200.000
G1 X-1.357 Y2.139 F200.000
G1 X-1.534 Y1.970 F200.000
G1 X-1.718 Y1.759 F200.000
G1 X-1.891 Y1.504 F200.000
G1 X-2.023 Y1.263 F200.000
G1 X-2.139 Y1.000 F200.000
G1 X-2.244 Y0.684 F200.000
G1 X-2.305 Y0.361 F200.000
G1 X-2.323 Y0.098 F200.000
G1 X-2.320 Y-0.158 F200.000
G1 X-2.289 Y-0.432 F200.000
G1 X-2.229 Y-0.744 F200.000
G1 X-2.132 Y-1.064 F200.000
G1 X-2.000 Y-1.342 F200.000
G1 X-1.876 Y-1.560 F200.000
G1 X-1.707 Y-1.801 F200.000
G1 X-1.500 Y-2.034 F200.000
G1 X-1.293 Y-2.226 F200.000
G1 X-1.060 Y-2.410 F200.000
G1 X-0.767 Y-2.594 F200.000
G1 X-0.496 Y-2.733 F200.000
G1 X-0.195 Y-2.838 F200.000
G1 X0.049 Y-2.902 F200.000
G1 X0.331 Y-2.951 F200.000
G1 X0.647 Y-2.977 F200.000
G1 X0.981 Y-2.970 F200.000
G1 X1.289 Y-2.917 F200.000
G1 X1.530 Y-2.857 F200.000
G1 X1.805 Y-2.756 F200.000
G1 X2.060 Y-2.635 F200.000
G1 X2.350 Y-2.462 F200.000
G1 X2.594 Y-2.282 F200.000
G1 X2.820 Y-2.079 F200.000
G1 X3.023 Y-1.835 F200.000
G1 X3.165 Y-1.632 F200.000
G1 X3.312 Y-1.383 F200.000
G1 X3.447 Y-1.090 F200.000
G1 X3.560 Y-0.771 F200.000
G1 X3.639 Y-0.462 F200.000
G1 X3.677 Y-0.139 F200.000
G1 X3.684 Y0.117 F200.000
G1 X3.662 Y0.410 F200.000
G1 X3.617 Y0.695 F200.000
G1 X3.530 Y1.008 F200.000
G1 X3.429 Y1.293 F200.000
G1 X3.282 Y1.602 F200.000
G1 X3.105 Y1.868 F200.000
G1 X2.947 Y2.071 F200.000
G1 X2.737 Y2.289 F200.000
G1 X2.523 Y2.485 F200.000
G1 X2.229 Y2.699 F200.000
G1 X1.959 Y2.861 F200.000
G1 X1.669 Y3.000 F200.000
G1 X1.357 Y3.113 F200.000
G1 X1.041 Y3.177 F200.000
G1 X0.797 Y3.211 F200.000
G1 X0.504 Y3.226 F200.000
G1 X0.169 Y3.211 F200.000
G1 X-0.162 Y3.162 F200.000
G1 X-0.470 Y3.090 F200.000
G1 X-0.778 Y2.985 F200.000
G1 X-1.068 Y2.838 F200.000
G1 X-1.282 Y2.707 F200.000
G1 X-1.519 Y2.526 F200.000
G1 X-1.737 Y2.335 F200.000
G1 X-1.977 Y2.071 F200.000
G1 X-2.165 Y1.823 F200.000
G1 X-2.335 Y1.556 F200.000
G1 X-2.481 Y1.263 F200.000
G1 X-2.598 Y0.962 F200.000
G1 X-2.673 Y0.650 F200.000
G1 X-2.714 Y0.387 F200.000
G1 X-2.729 Y0.086 F200.000
G1 X-2.726 Y-0.203 F200.000
G1 X-2.688 Y-0.571 F200.000
G1 X-2.617 Y-0.921 F200.000
G1 X-2.500 Y-1.237 F200.000
G1 X-2.402 Y-1.451 F200.000
G1 X-2.259 Y-1.714 F200.000
G1 X-2.071 Y-2.000 F200.000
G1 X-1.842 Y-2.282 F200.000
G1 X-1.602 Y-2.511 F200.000
G1 X-1.391 Y-2.684 F200.000
G1 X-1.128 Y-2.865 F200.000
G1 X-0.823 Y-3.030 F200.000
G1 X-0.541 Y-3.154 F200.000
G1 X-0.233 Y-3.256 F200.000
G1 X0.079 Y-3.327 F200.000
G1 X0.395 Y-3.368 F200.000
G1 X0.714 Y-3.387 F200.000
G1 X1.071 Y-3.372 F200.000
G1 X1.395 Y-3.316 F200.000
G1 X1.654 Y-3.252 F200.000
G1 X1.951 Y-3.143 F200.000
G1 X2.226 Y-3.019 F200.000
G1 X2.541 Y-2.838 F200.000
G1 X2.805 Y-2.650 F200.000
G1 X3.049 Y-2.432 F200.000
G1 X3.244 Y-2.226 F200.000
G1 X3.436 Y-1.977 F200.000
G1 X3.605 Y-1.718 F200.000
G1 X3.759 Y-1.417 F200.000
G1 X3.883 Y-1.120 F200.000
G1 X3.992 Y-0.778 F200.000
G1 X4.064 Y-0.447 F200.000
G1 X4.090 Y-0.109 F200.000
G1 X4.094 Y0.150 F200.000
G1 X4.075 Y0.455 F200.000
G1 X4.023 Y0.805 F200.000
G1 X3.932 Y1.162 F200.000
G1 X3.808 Y1.477 F200.000
G1 X3.692 Y1.722 F200.000
G1 X3.523 Y1.996 F200.000
G1 X3.342 Y2.244 F200.000
G1 X3.109 Y2.508 F200.000
G1 X2.872 Y2.733 F200.000
G1 X2.620 Y2.940 F200.000
G1 X2.312 Y3.147 F200.000
G1 X2.011 Y3.312 F200.000
G1 X1.688 Y3.440 F200.000
G1 X1.429 Y3.519 F200.000
G1 X1.120 Y3.590 F200.000
G1 X0.774 Y3.635 F200.000
G1 X0.432 Y3.647 F200.000
G1 X0.098 Y3.632 F200.000
G1 X-0.241 Y3.586 F200.000
G1 X-0.568 Y3.511 F200.000
G1 X-0.887 Y3.406 F200.000
G1 X-1.192 Y3.259 F200.000
G1 X-1.425 Y3.124 F200.000
G1 X-1.677 Y2.944 F200.000
G1 X-1.910 Y2.748 F200.000
G1 X-2.177 Y2.489 F200.000
G1 X-2.417 Y2.207 F200.000
G1 X-2.613 Y1.917 F200.000
G1 X-2.763 Y1.658 F200.000
G1 X-2.906 Y1.346 F200.000
G1 X-3.015 Y1.034 F200.000
G1 X-3.094 Y0.718 F200.000
G1 X-3.147 Y0.391 F200.000
G1 X-3.169 Y0.060 F200.000
G1 X-3.162 Y-0.263 F200.000
G1 X-3.124 Y-0.590 F200.000
G1 X-3.056 Y-0.914 F200.000
G1 X-2.959 Y-1.229 F200.000
G1 X-2.835 Y-1.534 F200.000
G1 X-2.684 Y-1.827 F200.000
G1 X-2.511 Y-2.109 F200.000
G1 X-2.289 Y-2.406 F200.000
G1 X-2.060 Y-2.665 F200.000
G1 X-1.808 Y-2.906 F200.000
G1 X-1.530 Y-3.128 F200.000
G1 X-1.233 Y-3.312 F200.000
G1 X-0.977 Y-3.447 F200.000
G1 X-0.669 Y-3.571 F200.000
G1 X-0.365 Y-3.669 F200.000
G1 X-0.015 Y-3.752 F200.000
G1 X0.350 Y-3.805 F200.000
G1 X0.695 Y-3.827 F200.000
G1 X1.053 Y-3.808 F200.000
G1 X1.353 Y-3.771 F200.000
G1 X1.680 Y-3.699 F200.000
G1 X1.996 Y-3.594 F200.000
G1 X2.293 Y-3.466 F200.000
G1 X2.586 Y-3.316 F200.000
G1 X2.898 Y-3.117 F200.000
G1 X3.169 Y-2.910 F200.000
G1 X3.421 Y-2.665 F200.000
G1 X3.617 Y-2.444 F200.000
G1 X3.816 Y-2.184 F200.000
G1 X4.011 Y-1.876 F200.000
G1 X4.184 Y-1.545 F200.000
G1 X4.323 Y-1.218 F200.000
G1 X4.417 Y-0.868 F200.000
G1 X4.470 Y-0.602 F200.000
G1 X4.511 Y-0.278 F200.000
G1 X4.530 Y0.090 F200.000
G1 X4.515 Y0.459 F200.000
G1 X4.459 Y0.820 F200.000
G1 X4.395 Y1.105 F200.000
G1 X4.286 Y1.436 F200.000
G1 X4.158 Y1.744 F200.000
G1 X3.989 Y2.064 F200.000
G1 X3.801 Y2.357 F200.000
G1 X3.590 Y2.632 F200.000
G1 X3.350 Y2.891 F200.000
G1 X3.090 Y3.128 F200.000
G1 X2.812 Y3.342 F200.000
G1 X2.519 Y3.530 F200.000
G1 X2.211 Y3.695 F200.000
G1 X1.887 Y3.831 F200.000
G1 X1.553 Y3.940 F200.000
G1 X1.211 Y4.019 F200.000
G1 X0.865 Y4.071 F200.000
G1 X0.515 Y4.094 F200.000
G1 X0.165 Y4.086 F200.000
G1 X-0.180 Y4.049 F200.000
G1 X-0.523 Y3.981 F200.000
G1 X-0.857 Y3.883 F200.000
G1 X-1.180 Y3.759 F200.000
G1 X-1.492 Y3.605 F200.000
G1 X-1.782 Y3.414 F200.000
G1 X-2.000 Y3.244 F200.000
G1 X-2.241 Y3.038 F200.000
G1 X-2.504 Y2.774 F200.000
G1 X-2.744 Y2.489 F200.000
G1 X-2.966 Y2.192 F200.000
G1 X-3.147 Y1.865 F200.000
G1 X-3.271 Y1.602 F200.000
G1 X-3.398 Y1.267 F200.000
G1 X-3.496 Y0.932 F200.000
G1 X-3.571 Y0.568 F200.000
G1 X-3.602 Y0.207 F200.000
G1 X-3.605 Y-0.094 F200.000
G1 X-3.579 Y-0.436 F200.000
G1 X-3.530 Y-0.767 F200.000
G1 X-3.444 Y-1.128 F200.000
G1 X-3.331 Y-1.466 F200.000
G1 X-3.192 Y-1.801 F200.000
G1 X-3.019 Y-2.132 F200.000
G1 X-2.823 Y-2.440 F200.000
G1 X-2.602 Y-2.733 F200.000
G1 X-2.357 Y-3.008 F200.000
G1 X-2.090 Y-3.263 F200.000
G1 X-1.793 Y-3.481 F200.000
G1 X-1.556 Y-3.632 F200.000
G1 X-1.263 Y-3.793 F200.000
G1 X-0.921 Y-3.947 F200.000
G1 X-0.568 Y-4.071 F200.000
G1 X-0.207 Y-4.173 F200.000
G1 X0.158 Y-4.244 F200.000
G1 X0.526 Y-4.271 F200.000
G1 X0.820 Y-4.274 F200.000
G1 X1.169 Y-4.244 F200.000
G1 X1.508 Y-4.192 F200.000
G1 X1.868 Y-4.102 F200.000
G1 X2.214 Y-3.985 F200.000
G1 X2.553 Y-3.842 F200.000
G1 X2.880 Y-3.669 F200.000
G1 X3.184 Y-3.462 F200.000
G1 X3.432 Y-3.267 F200.000
G1 X3.688 Y-3.026 F200.000
G1 X3.921 Y-2.774 F200.000
G1 X4.147 Y-2.477 F200.000
G1 X4.342 Y-2.177 F200.000
G1 X4.515 Y-1.857 F200.000
G1 X4.662 Y-1.519 F200.000
G1 X4.778 Y-1.177 F200.000
G1 X4.868 Y-0.823 F200.000
G1 X4.929 Y-0.462 F200.000
G1 X4.959 Y-0.098 F200.000
G1 X4.959 Y0.263 F200.000
G1 X4.929 Y0.624 F200.000
G1 X4.868 Y0.981 F200.000
G1 X4.778 Y1.335 F200.000
G1 X4.662 Y1.677 F200.000
G1 X4.515 Y2.011 F200.000
G1 X4.342 Y2.331 F200.000
G1 X4.143 Y2.635 F200.000
G1 X3.921 Y2.925 F200.000
G1 X3.677 Y3.195 F200.000
G1 X3.410 Y3.444 F200.000
G1 X3.124 Y3.669 F200.000
G1 X2.820 Y3.868 F200.000
G1 X2.500 Y4.045 F200.000
G1 X2.165 Y4.195 F200.000
G1 X1.820 Y4.316 F200.000
G1 X1.466 Y4.414 F200.000
G1 X1.098 Y4.481 F200.000
G1 X0.726 Y4.523 F200.000
G1 X0.353 Y4.538 F200.000
G1 X-0.015 Y4.523 F200.000
G1 X-0.383 Y4.477 F200.000
G1 X-0.744 Y4.387 F200.000
G1 X-1.023 Y4.297 F200.000
G1 X-1.346 Y4.169 F200.000
G1 X-1.680 Y4.004 F200.000
G1 X-2.000 Y3.816 F200.000
G1 X-2.297 Y3.590 F200.000
G1 X-2.530 Y3.387 F200.000
G1 X-2.789 Y3.135 F200.000
G1 X-3.038 Y2.857 F200.000
G1 X-3.263 Y2.560 F200.000
G1 X-3.466 Y2.248 F200.000
G1 X-3.632 Y1.914 F200.000
G1 X-3.752 Y1.628 F200.000
G1 X-3.868 Y1.274 F200.000
G1 X-3.959 Y0.925 F200.000
G1 X-4.019 Y0.556 F200.000
G1 X-4.053 Y0.184 F200.000
G1 X-4.060 Y-0.184 F200.000
G1 X-4.023 Y-0.553 F200.000
G1 X-3.970 Y-0.853 F200.000
G1 X-3.887 Y-1.199 F200.000
G1 X-3.778 Y-1.553 F200.000
G1 X-3.643 Y-1.898 F200.000
G1 X-3.485 Y-2.233 F200.000
G1 X-3.305 Y-2.556 F200.000
G1 X-3.086 Y-2.857 F200.000
G1 X-2.887 Y-3.102 F200.000
G1 X-2.628 Y-3.368 F200.000
G1 X-2.346 Y-3.613 F200.000
G1 X-2.060 Y-3.827 F200.000
G1 X-1.748 Y-4.034 F200.000
G1 X-1.421 Y-4.211 F200.000
G1 X-1.083 Y-4.365 F200.000
G1 X-0.733 Y-4.496 F200.000
G1 X-0.372 Y-4.598 F200.000
G1 X-0.008 Y-4.673 F200.000
G1 X0.361 Y-4.722 F200.000
G1 X0.729 Y-4.729 F200.000
G1 X1.041 Y-4.714 F200.000
G1 X1.406 Y-4.665 F200.000
G1 X1.759 Y-4.598 F200.000
G1 X2.117 Y-4.496 F200.000
G1 X2.466 Y-4.368 F200.000
G1 X2.805 Y-4.214 F200.000
G1 X3.128 Y-4.034 F200.000
G1 X3.440 Y-3.831 F200.000
G1 X3.733 Y-3.602 F200.000
G1 X4.008 Y-3.353 F200.000
G1 X4.263 Y-3.083 F200.000
G1 X4.489 Y-2.786 F200.000
G1 X4.662 Y-2.523 F200.000
G1 X4.842 Y-2.211 F200.000
G1 X5.004 Y-1.876 F200.000
G1 X5.139 Y-1.530 F200.000
G1 X5.256 Y-1.173 F200.000
G1 X5.346 Y-0.812 F200.000
G1 X5.391 Y-0.440 F200.000
G1 X5.414 Y-0.120 F200.000
G1 X5.410 Y0.248 F200.000
G1 X5.383 Y0.617 F200.000
G1 X5.327 Y0.981 F200.000
G1 X5.244 Y1.342 F200.000
G1 X5.139 Y1.695 F200.000
G1 X5.004 Y2.041 F200.000
G1 X4.846 Y2.376 F200.000
G1 X4.665 Y2.699 F200.000
G1 X4.459 Y3.008 F200.000
G1 X4.218 Y3.293 F200.000
G1 X3.996 Y3.526 F200.000
G1 X3.718 Y3.774 F200.000
G1 X3.429 Y4.004 F200.000
G1 X3.120 Y4.211 F200.000
G1 X2.797 Y4.395 F200.000
G1 X2.462 Y4.556 F200.000
G1 X2.117 Y4.692 F200.000
G1 X1.759 Y4.805 F200.000
G1 X1.395 Y4.891 F200.000
G1 X1.026 Y4.951 F200.000
G1 X0.654 Y4.985 F200.000
G1 X0.282 Y4.989 F200.000
G1 X-0.609 Y4.872 F200.000
G1 X-1.357 Y4.643 F200.000
G1 X-2.158 Y4.226 F200.000
G1 X-2.560 Y3.940 F200.000
G1 X-2.936 Y3.620 F200.000
G1 X-3.316 Y3.214 F200.000
G1 X-3.620 Y2.823 F200.000
G1 X-3.876 Y2.402 F200.000
G1 X-4.094 Y1.955 F200.000
G1 X-4.132 Y1.835 F200.000
G1 X-4.263 Y1.485 F200.000
G1 X-4.376 Y1.064 F200.000
G1 X-4.455 Y0.635 F200.000
G1 X-4.492 Y0.083 F200.000
G1 X-4.455 Y-0.571 F200.000
G1 X-4.380 Y-1.053 F200.000
G1 X-4.203 Y-1.692 F200.000
G1 X-3.966 Y-2.226 F200.000
G1 X-3.778 Y-2.613 F200.000
G1 X-3.143 Y-3.410 F200.000
G1 X-2.673 Y-3.883 F200.000
G1 X-1.756 Y-4.485 F200.000
G1 X-0.865 Y-4.857 F200.000
G1 X0.090 Y-5.086 F200.000
G1 X0.880 Y-5.143 F200.000
G1 X1.444 Y-5.090 F200.000
G1 X2.233 Y-4.891 F200.000
G1 X2.996 Y-4.568 F200.000
G1 X3.805 Y-4.056 F200.000
G1 X4.293 Y-3.617 F200.000
G1 X4.726 Y-3.109 F200.000
G1 X5.180 Y-2.398 F200.000
G1 X5.504 Y-1.677 F200.000
G1 X5.677 Y-1.083 F200.000
G1 X5.797 Y-0.120 F200.000
G1 X5.778 Y0.620 F200.000
G1 X5.665 Y1.353 F200.000
G1 X5.335 Y2.301 F200.000
G1 X5.023 Y2.872 F200.000
G1 X4.560 Y3.489 F200.000
G1 X4.004 Y4.041 F200.000
G1 X3.320 Y4.541 F200.000
G1 X2.620 Y4.910 F200.000
G1 X1.868 Y5.180 F200.000
G1 X0.906 Y5.361 F200.000
G1 X-0.165 Y5.365 F200.000
G1 X-0.673 Y5.289 F200.000
G1 X-1.237 Y5.132 F200.000
G1 X-2.041 Y4.767 F200.000
G1 X-2.737 Y4.305 F200.000
G1 X-3.560 Y3.530 F200.000
G1 X-4.056 Y2.846 F200.000
G1 X-4.402 Y2.199 F200.000
G1 X-4.673 Y1.451 F200.000
G1 X-4.861 Y0.429 F200.000
G1 X-4.853 Y-0.613 F200.000
G1 X-4.782 Y-1.120 F200.000
G1 X-4.462 Y-2.135 F200.000
G1 X-4.165 Y-2.711 F200.000
G1 X-3.459 Y-3.662 F200.000
G1 X-2.891 Y-4.195 F200.000
G1 X-2.353 Y-4.590 F200.000
G1 X-1.538 Y-5.015 F200.000
G1 X-0.789 Y-5.282 F200.000
G1 X-0.188 Y-5.429 F200.000
G1 X0.556 Y-5.474 F200.000
G1 X1.120 Y-5.432 F200.000
G1 X2.079 Y-5.241 F200.000
G1 X2.752 Y-4.985 F200.000
G1 X3.226 Y-4.744 F200.000
G1 X3.812 Y-4.353 F200.000
G1 X4.474 Y-3.756 F200.000
G1 X5.008 Y-3.102 F200.000
G1 X5.380 Y-2.474 F200.000
G1 X5.583 Y-2.026 F200.000
G1 X5.771 Y-1.451 F200.000
G1 X5.883 Y-0.970 F200.000
G1 X5.944 Y-0.549 F200.000
G1 X5.966 Y-0.008 F200.000
G1 X5.914 Y0.782 F200.000
G1 X5.737 Y1.571 F200.000
G1 X5.556 Y2.075 F200.000
G1 X5.214 Y2.767 F200.000
G1 X4.812 Y3.365 F200.000
G1 X4.071 Y4.143 F200.000
G1 X3.598 Y4.511 F200.000
G1 X2.970 Y4.883 F200.000
G1 X2.244 Y5.188 F200.000
G1 X1.282 Y5.417 F200.000
G1 X0.440 Y5.466 F200.000
G1 X-0.094 Y5.432 F200.000
G1 X-1.053 Y5.244 F200.000
G1 X-1.726 Y4.992 F200.000
G1 X-2.252 Y4.726 F200.000
G1 X-2.850 Y4.323 F200.000
G1 X-3.628 Y3.590 F200.000
G1 X-3.966 Y3.165 F200.000
G1 X-4.372 Y2.489 F200.000
G1 X-4.643 Y1.872 F200.000
G1 X-4.801 Y1.342 F200.000
G1 X-4.925 Y0.741 F200.000
G1 X-4.970 Y0.019 F200.000
G1 X-4.914 Y-0.771 F200.000
G1 X-4.726 Y-1.617 F200.000
G1 X-4.538 Y-2.120 F200.000
G1 X-4.368 Y-2.496 F200.000
G1 X-3.966 Y-3.158 F200.000
G1 X-3.598 Y-3.620 F200.000
G1 X-3.090 Y-4.128 F200.000
G1 X-2.470 Y-4.594 F200.000
G1 X-1.883 Y-4.921 F200.000
G1 X-1.492 Y-5.098 F200.000
G1 X-1.263 Y-5.184 F200.000
G1 X-0.602 Y-5.353 F200.000
G1 X-0.602 Y-5.353 F200.000
G1 X-0.538 Y-5.365 F200.000
G1 X-0.538 Y-5.365 F200.000
G1 X-0.526 Y-5.398 F200.000
G1 X-0.526 Y-5.398 F200.000
G1 X-0.466 Y-5.414 F200.000
G1 X-0.466 Y-5.414 F200.000
G1 X-0.462 Y-5.406 F200.000
G1 X-0.256 Y-5.451 F200.000
G1 X0.274 Y-5.496 F200.000
G1 X0.485 Y-5.504 F200.000
G1 X1.075 Y-5.466 F200.000
G1 X1.530 Y-5.395 F200.000
G1 X1.891 Y-5.316 F200.000
G1 X2.090 Y-5.263 F200.000
G1 X2.346 Y-5.177 F200.000
G1 X2.793 Y-4.996 F200.000
G1 X3.184 Y-4.801 F200.000
G1 X3.515 Y-4.598 F200.000
G1 X3.744 Y-4.440 F200.000
G1 X4.105 Y-4.147 F200.000
G1 X4.481 Y-3.786 F200.000
G1 X4.699 Y-3.549 F200.000
G1 X5.026 Y-3.124 F200.000
G1 X5.086 Y-3.034 F200.000
G1 X5.429 Y-2.436 F200.000
G1 X5.602 Y-2.045 F200.000
G1 X5.793 Y-1.485 F200.000
G1 X5.925 Y-0.910 F200.000
G1 X5.951 Y-0.741 F200.000
G1 X5.992 Y-0.214 F200.000
G1 X5.996 Y-0.049 F200.000
G1 X5.962 Y0.602 F200.000
G1 X5.944 Y0.782 F200.000
G1 X5.902 Y0.996 F200.000
G1 X5.752 Y1.624 F200.000
G1 X5.609 Y2.019 F200.000
G1 X5.410 Y2.459 F200.000
G1 X5.241 Y2.774 F200.000
G1 X5.075 Y3.045 F200.000
G1 X4.842 Y3.372 F200.000
G1 X4.526 Y3.741 F200.000
G1 X4.045 Y4.195 F200.000
G1 X3.880 Y4.335 F200.000
G1 X3.530 Y4.590 F200.000
G1 X2.944 Y4.925 F200.000
G1 X2.481 Y5.128 F200.000
G1 X2.248 Y5.218 F200.000
G1 X1.756 Y5.350 F200.000
G1 X1.256 Y5.451 F200.000
G1 X0.748 Y5.492 F200.000
G1 X0.459 Y5.496 F200.000
G1 X-0.075 Y5.462 F200.000
G1 X-0.526 Y5.395 F200.000
G1 X-1.094 Y5.259 F200.000
G1 X-1.350 Y5.173 F200.000
G1 X-1.793 Y4.992 F200.000
G1 X-2.199 Y4.789 F200.000
G1 X-2.530 Y4.586 F200.000
G1 X-2.703 Y4.466 F200.000
G1 X-3.158 Y4.098 F200.000
G1 X-3.485 Y3.782 F200.000
G1 X-3.703 Y3.545 F200.000
G1 X-4.030 Y3.120 F200.000
G1 X-4.124 Y2.977 F200.000
G1 X-4.410 Y2.470 F200.000
G1 X-4.628 Y1.985 F200.000
G1 X-4.744 Y1.669 F200.000
G1 X-4.797 Y1.489 F200.000
G1 X-4.917 Y0.962 F200.000
G1 X-4.951 Y0.748 F200.000
G1 X-4.992 Y0.271 F200.000
G1 X-4.981 Y-0.335 F200.000
G1 X-4.947 Y-0.741 F200.000
G1 X-4.898 Y-1.015 F200.000
G1 X-4.827 Y-1.335 F200.000
G1 X-4.707 Y-1.763 F200.000
G1 X-4.575 Y-2.105 F200.000
G1 X-4.414 Y-2.459 F200.000
G1 X-4.102 Y-3.008 F200.000
G1 X-3.936 Y-3.248 F200.000
G1 X-3.632 Y-3.620 F200.000
G1 X-3.282 Y-3.985 F200.000
G1 X-3.083 Y-4.169 F200.000
G1 X-2.853 Y-4.357 F200.000
G1 X-2.455 Y-4.635 F200.000
G1 X-1.981 Y-4.902 F200.000
G1 X-1.556 Y-5.102 F200.000
G1 X-1.248 Y-5.214 F200.000
G1 X-1.068 Y-5.271 F200.000
G1 X-0.759 Y-5.350 F200.000
G1 X-0.466 Y-5.414 F200.000
G1 X-0.466 Y-5.414 F200.000
G0 Z2.000
G0 Z2.000
(Finish operation: Adaptive_back_side)
(Block-name: post_amble)
(Block-expand: 0)
(Block-enable: 1)
(Begin postamble)
M5
G17 G90
M2
