(Exported by FreeCAD)
(Post Processor: grbl_post)
(Output Time:2023-08-10 14:00:08.343700)
(Begin preamble)
G17 G90
G21
(Block-name: G54)
(Block-expand: 0)
(Block-enable: 1)
(Begin operation: G54)
(Path: G54)
G54
G0 Z5.000
(Finish operation: G54)
(Block-name: 3mm Endmill003)
(Block-expand: 0)
(Block-enable: 1)
(Begin operation: 3mm Endmill003)
(Path: 3mm Endmill003)
(3mm Endmill003)
(Begin toolchange)
( M6 T2 )
(Finish operation: 3mm Endmill003)
(Block-name: Profile)
(Block-expand: 0)
(Block-enable: 1)
(Begin operation: Profile)
(Path: Profile)
(Profile)
(Compensated Tool Path. Diameter: 3.0)
G0 Z5.000
G0 X1.765 Y1.765
G0 Z3.000
G1 X1.765 Y1.765 Z-3.000 F100.000
G2 X0.822 Y-2.357 Z-3.000 I-1.765 J-1.765 K0.000 F200.000
G2 X-0.857 Y-2.345 Z-3.000 I-0.822 J2.357 K0.000 F200.000
G3 X-1.497 Y-2.082 Z-3.000 I-1.910 J-3.741 K0.000 F200.000
G2 X-1.685 Y-2.022 Z-3.000 I-0.043 J0.189 K0.000 F200.000
G3 X-1.884 Y-1.651 Z-3.000 I-2.331 J-1.017 K0.000 F200.000
G2 X-2.137 Y1.290 Z-3.000 I1.911 J1.646 K0.000 F200.000
G3 X-1.759 Y1.866 Z-3.000 I-3.276 J2.564 K0.000 F200.000
G2 X-1.665 Y2.038 Z-3.000 I0.194 J0.006 K0.000 F200.000
G3 X-1.264 Y2.163 Z-3.000 I-0.556 J2.486 K0.000 F200.000
G2 X-0.528 Y2.440 Z-3.000 I1.369 J-2.525 K0.000 F200.000
G2 X1.765 Y1.765 Z-3.000 I0.528 J-2.440 K0.000 F200.000
G1 X1.765 Y1.765 Z-5.000 F100.000
G2 X0.822 Y-2.357 Z-5.000 I-1.765 J-1.765 K0.000 F200.000
G2 X-0.857 Y-2.345 Z-5.000 I-0.822 J2.357 K0.000 F200.000
G3 X-1.497 Y-2.082 Z-5.000 I-1.910 J-3.741 K0.000 F200.000
G2 X-1.685 Y-2.022 Z-5.000 I-0.043 J0.189 K0.000 F200.000
G3 X-1.884 Y-1.651 Z-5.000 I-2.331 J-1.017 K0.000 F200.000
G2 X-2.137 Y1.290 Z-5.000 I1.911 J1.646 K0.000 F200.000
G3 X-1.759 Y1.866 Z-5.000 I-3.276 J2.564 K0.000 F200.000
G2 X-1.665 Y2.038 Z-5.000 I0.194 J0.006 K0.000 F200.000
G3 X-1.264 Y2.163 Z-5.000 I-0.556 J2.486 K0.000 F200.000
G2 X-0.528 Y2.440 Z-5.000 I1.369 J-2.525 K0.000 F200.000
G2 X1.765 Y1.765 Z-5.000 I0.528 J-2.440 K0.000 F200.000
G0 Z5.000
G0 Z5.000
(Finish operation: Profile)
(Block-name: G54)
(Block-expand: 0)
(Block-enable: 1)
(Begin operation: G54)
(Path: G54)
G54
G0 Z5.000
(Finish operation: G54)
(Block-name: 3mm Endmill003)
(Block-expand: 0)
(Block-enable: 1)
(Begin operation: 3mm Endmill003)
(Path: 3mm Endmill003)
(3mm Endmill003)
(Begin toolchange)
( M6 T2 )
(Finish operation: 3mm Endmill003)
(Block-name: Profile002)
(Block-expand: 0)
(Block-enable: 1)
(Begin operation: Profile002)
(Path: Profile002)
(Profile002)
(Compensated Tool Path. Diameter: 3.0)
G0 Z5.000
G0 X5.658 Y5.632
G0 Z3.000
G1 X5.658 Y5.632 Z-8.000 F100.000
G2 X7.999 Y0.046 Z-8.000 I-5.652 J-5.652 K0.000 F200.000
G1 X7.955 Y-0.792 Z-8.000 F200.000
G2 X-7.956 Y0.674 Z-8.000 I-7.948 J0.811 K0.000 F200.000
G2 X5.658 Y5.632 Z-8.000 I7.963 J-0.693 K0.000 F200.000
G1 X5.658 Y5.632 Z-10.000 F100.000
G2 X7.999 Y0.046 Z-10.000 I-5.652 J-5.652 K0.000 F200.000
G1 X7.955 Y-0.792 Z-10.000 F200.000
G2 X-7.956 Y0.674 Z-10.000 I-7.948 J0.811 K0.000 F200.000
G2 X5.658 Y5.632 Z-10.000 I7.963 J-0.693 K0.000 F200.000
G0 Z5.000
G0 Z5.000
G0 X5.658 Y5.632
G0 Z3.000
G1 X5.658 Y5.632 Z-8.000 F100.000
G2 X7.999 Y0.046 Z-8.000 I-5.652 J-5.652 K0.000 F200.000
G1 X7.955 Y-0.792 Z-8.000 F200.000
G2 X-7.956 Y0.674 Z-8.000 I-7.948 J0.811 K0.000 F200.000
G2 X5.658 Y5.632 Z-8.000 I7.963 J-0.693 K0.000 F200.000
G1 X5.658 Y5.632 Z-10.000 F100.000
G2 X7.999 Y0.046 Z-10.000 I-5.652 J-5.652 K0.000 F200.000
G1 X7.955 Y-0.792 Z-10.000 F200.000
G2 X-7.956 Y0.674 Z-10.000 I-7.948 J0.811 K0.000 F200.000
G2 X5.658 Y5.632 Z-10.000 I7.963 J-0.693 K0.000 F200.000
G0 Z5.000
G0 Z5.000
(Finish operation: Profile002)
(Block-name: G54)
(Block-expand: 0)
(Block-enable: 1)
(Begin operation: G54)
(Path: G54)
G54
G0 Z5.000
(Finish operation: G54)
(Block-name: 3mm Endmill003)
(Block-expand: 0)
(Block-enable: 1)
(Begin operation: 3mm Endmill003)
(Path: 3mm Endmill003)
(3mm Endmill003)
(Begin toolchange)
( M6 T2 )
(Finish operation: 3mm Endmill003)
(Block-name: Profile003)
(Block-expand: 0)
(Block-enable: 1)
(Begin operation: Profile003)
(Path: Profile003)
(Profile003)
(Compensated Tool Path. Diameter: 3.0)
G0 Z5.000
G0 X1.801 Y1.801
G0 Z3.000
G1 X1.801 Y1.801 Z-3.000 F100.000
G2 X0.839 Y-2.404 Z-3.000 I-1.801 J-1.801 K0.000 F200.000
G2 X-0.874 Y-2.392 Z-3.000 I-0.839 J2.404 K0.000 F200.000
G3 X-1.510 Y-2.130 Z-3.000 I-1.900 J-3.714 K0.000 F200.000
G2 X-1.728 Y-2.048 Z-3.000 I-0.038 J0.230 K0.000 F200.000
G3 X-1.925 Y-1.680 Z-3.000 I-2.317 J-1.007 K0.000 F200.000
G2 X-2.180 Y1.316 Z-3.000 I1.951 J1.675 K0.000 F200.000
G3 X-1.805 Y1.887 Z-3.000 I-3.251 J2.548 K0.000 F200.000
G2 X-1.682 Y2.085 Z-3.000 I0.233 J-0.007 K0.000 F200.000
G3 X-1.284 Y2.209 Z-3.000 I-0.550 J2.471 K0.000 F200.000
G2 X-0.539 Y2.489 Z-3.000 I1.386 J-2.559 K0.000 F200.000
G2 X1.801 Y1.801 Z-3.000 I0.539 J-2.489 K0.000 F200.000
G1 X1.801 Y1.801 Z-5.000 F100.000
G2 X0.839 Y-2.404 Z-5.000 I-1.801 J-1.801 K0.000 F200.000
G2 X-0.874 Y-2.392 Z-5.000 I-0.839 J2.404 K0.000 F200.000
G3 X-1.510 Y-2.130 Z-5.000 I-1.900 J-3.714 K0.000 F200.000
G2 X-1.728 Y-2.048 Z-5.000 I-0.038 J0.230 K0.000 F200.000
G3 X-1.925 Y-1.680 Z-5.000 I-2.317 J-1.007 K0.000 F200.000
G2 X-2.180 Y1.316 Z-5.000 I1.951 J1.675 K0.000 F200.000
G3 X-1.805 Y1.887 Z-5.000 I-3.251 J2.548 K0.000 F200.000
G2 X-1.682 Y2.085 Z-5.000 I0.233 J-0.007 K0.000 F200.000
G3 X-1.284 Y2.209 Z-5.000 I-0.550 J2.471 K0.000 F200.000
G2 X-0.539 Y2.489 Z-5.000 I1.386 J-2.559 K0.000 F200.000
G2 X1.801 Y1.801 Z-5.000 I0.539 J-2.489 K0.000 F200.000
G0 Z5.000
G0 Z5.000
(Finish operation: Profile003)
(Block-name: G54)
(Block-expand: 0)
(Block-enable: 1)
(Begin operation: G54)
(Path: G54)
G54
G0 Z5.000
(Finish operation: G54)
(Block-name: 3mm Endmill003)
(Block-expand: 0)
(Block-enable: 1)
(Begin operation: 3mm Endmill003)
(Path: 3mm Endmill003)
(3mm Endmill003)
(Begin toolchange)
( M6 T2 )
(Finish operation: 3mm Endmill003)
(Block-name: Profile004)
(Block-expand: 0)
(Block-enable: 1)
(Begin operation: Profile004)
(Path: Profile004)
(Profile004)
(Compensated Tool Path. Diameter: 3.0)
G0 Z5.000
G0 X5.623 Y5.596
G0 Z3.000
G1 X5.623 Y5.596 Z-8.000 F100.000
G2 X7.949 Y0.045 Z-8.000 I-5.616 J-5.617 K0.000 F200.000
G1 X7.905 Y-0.789 Z-8.000 F200.000
G2 X-7.906 Y0.672 Z-8.000 I-7.899 J0.808 K0.000 F200.000
G2 X5.623 Y5.596 Z-8.000 I7.913 J-0.692 K0.000 F200.000
G1 X5.623 Y5.596 Z-10.000 F100.000
G2 X7.949 Y0.045 Z-10.000 I-5.616 J-5.617 K0.000 F200.000
G1 X7.905 Y-0.789 Z-10.000 F200.000
G2 X-7.906 Y0.672 Z-10.000 I-7.899 J0.808 K0.000 F200.000
G2 X5.623 Y5.596 Z-10.000 I7.913 J-0.692 K0.000 F200.000
G0 Z5.000
G0 Z5.000
G0 X5.623 Y5.596
G0 Z3.000
G1 X5.623 Y5.596 Z-8.000 F100.000
G2 X7.949 Y0.045 Z-8.000 I-5.616 J-5.617 K0.000 F200.000
G1 X7.905 Y-0.789 Z-8.000 F200.000
G2 X-7.906 Y0.672 Z-8.000 I-7.899 J0.808 K0.000 F200.000
G2 X5.623 Y5.596 Z-8.000 I7.913 J-0.692 K0.000 F200.000
G1 X5.623 Y5.596 Z-10.000 F100.000
G2 X7.949 Y0.045 Z-10.000 I-5.616 J-5.617 K0.000 F200.000
G1 X7.905 Y-0.789 Z-10.000 F200.000
G2 X-7.906 Y0.672 Z-10.000 I-7.899 J0.808 K0.000 F200.000
G2 X5.623 Y5.596 Z-10.000 I7.913 J-0.692 K0.000 F200.000
G0 Z5.000
G0 Z5.000
(Finish operation: Profile004)
(Block-name: post_amble)
(Block-expand: 0)
(Block-enable: 1)
(Begin postamble)
M5
G17 G90
M2
