(Exported by FreeCAD)
(Post Processor: grbl_post)
(Output Time:2023-08-12 16:01:51.494483)
(Begin preamble)
G17 G90
G21
(Block-name: G54)
(Block-expand: 0)
(Block-enable: 1)
(Begin operation: G54)
(Path: G54)
G54
G0 Z5.000
(Finish operation: G54)
(Block-name: 3mm Endmill001)
(Block-expand: 0)
(Block-enable: 1)
(Begin operation: 3mm Endmill001)
(Path: 3mm Endmill001)
(3mm Endmill001)
(Begin toolchange)
( M6 T2 )
(Finish operation: 3mm Endmill001)
(Block-name: Out_cont_Z-4mm)
(Block-expand: 0)
(Block-enable: 1)
(Begin operation: Out_cont_Z-4mm)
(Path: Out_cont_Z-4mm)
(Out_cont_Z-4mm)
(Helix to depth: -4.000000)
G0 Z5.000
G0 X7.543 Y7.177 Z5.000
G0 X7.543 Y7.177 Z3.000
G1 X7.543 Y7.177 Z0.000
G2 X4.563 Y7.177 Z-0.412 I-1.490
G2 X7.543 Y7.177 Z-0.825 I1.490
G2 X4.563 Y7.177 Z-1.237 I-1.490
G2 X7.543 Y7.177 Z-1.649 I1.490
G2 X4.563 Y7.177 Z-2.061 I-1.490
G2 X7.543 Y7.177 Z-2.474 I1.490
G2 X4.563 Y7.177 Z-2.886 I-1.490
G2 X7.543 Y7.177 Z-3.298 I1.490
G2 X4.563 Y7.177 Z-3.649 I-1.490
G2 X7.543 Y7.177 Z-4.000 I1.490
G2 X4.563 Y7.177 Z-4.000 I-1.490
G2 X7.543 Y7.177 Z-4.000 I1.490
(Adaptive - depth: -4.000000)
G1 X6.053 Y5.677
G1 X6.094 Y5.632
G1 X6.199 Y5.579
G1 X6.368 Y5.541
G1 X6.538 Y5.538
G1 X6.898 Y5.628
G1 X7.113 Y5.737
G1 X7.241 Y5.823
G1 X7.372 Y5.936
G1 X7.515 Y6.102
G1 X7.647 Y6.297
G1 X7.752 Y6.511
G1 X7.827 Y6.729
G1 X7.876 Y7.071
G1 X7.853 Y7.410
G1 X7.816 Y7.579
G1 X7.759 Y7.684
G1 X6.951 Y8.387
G1 X6.410 Y8.771
G1 X6.192 Y8.872
G1 X6.011 Y8.910
G1 X5.650 Y8.887
G1 X5.410 Y8.831
G1 X5.011 Y8.650
G1 X4.718 Y8.417
G1 X4.598 Y8.278
G1 X4.500 Y8.147
G1 X4.398 Y7.959
G1 X4.305 Y7.741
G1 X4.233 Y7.474
G1 X4.211 Y7.237
G1 X4.226 Y6.853
G1 X4.278 Y6.613
G1 X4.305 Y6.560
G1 X4.305 Y6.560
G1 X4.447 Y6.504
G1 X4.474 Y6.500
G1 X4.504 Y6.492
G0 X4.534 Y6.485
G0 X5.094 Y6.113
G1 X5.120 Y6.098
G1 X5.218 Y6.026
G1 X5.365 Y5.797
G1 X5.365 Y5.797
G1 X5.827 Y5.417
G1 X5.985 Y5.331
G1 X6.154 Y5.274
G1 X6.492 Y5.229
G1 X6.662 Y5.237
G1 X7.023 Y5.323
G1 X7.323 Y5.474
G1 X7.466 Y5.571
G1 X7.594 Y5.684
G1 X7.737 Y5.831
G1 X7.925 Y6.083
G1 X8.060 Y6.320
G1 X8.150 Y6.560
G1 X8.214 Y6.868
G1 X8.218 Y7.150
G1 X8.207 Y7.207
G1 X8.184 Y7.259
G1 X8.026 Y7.436
G1 X8.026 Y7.436
G1 X7.917 Y7.504
G1 X7.831 Y7.523
G0 X7.805 Y7.515
G0 X7.707 Y7.451
G0 X5.887 Y5.707
G1 X5.861 Y5.680
G1 X5.789 Y5.602
G1 X5.771 Y5.545
G1 X5.786 Y5.459
G1 X5.853 Y5.353
G1 X5.853 Y5.353
G1 X6.026 Y5.180
G1 X6.226 Y5.045
G1 X6.391 Y4.985
G1 X6.673 Y4.947
G1 X6.898 Y4.959
G1 X7.256 Y5.056
G1 X7.541 Y5.199
G1 X7.703 Y5.305
G1 X7.853 Y5.432
G1 X8.011 Y5.590
G1 X8.199 Y5.823
G1 X8.361 Y6.083
G1 X8.466 Y6.331
G1 X8.534 Y6.669
G1 X8.538 Y6.838
G1 X8.519 Y6.895
G1 X8.406 Y7.034
G1 X8.406 Y7.034
G1 X8.301 Y7.105
G1 X8.214 Y7.128
G0 X8.188 Y7.124
G0 X8.090 Y7.064
G0 X6.192 Y5.395
G1 X6.165 Y5.368
G1 X6.090 Y5.293
G1 X6.071 Y5.241
G1 X6.079 Y5.154
G1 X6.139 Y5.045
G1 X6.139 Y5.045
G1 X6.395 Y4.793
G1 X6.496 Y4.726
G1 X6.722 Y4.665
G1 X7.004 Y4.658
G1 X7.117 Y4.673
G1 X7.474 Y4.774
G1 X7.805 Y4.940
G1 X7.981 Y5.056
G1 X8.132 Y5.180
G1 X8.305 Y5.350
G1 X8.504 Y5.590
G1 X8.658 Y5.850
G1 X8.774 Y6.124
G1 X8.835 Y6.406
G1 X8.835 Y6.462
G1 X8.820 Y6.519
G1 X8.793 Y6.571
G1 X8.756 Y6.617
G1 X8.756 Y6.617
G1 X8.654 Y6.695
G1 X8.568 Y6.722
G0 X8.541 Y6.722
G0 X8.444 Y6.665
G0 X6.489 Y5.075
G1 X6.459 Y5.049
G1 X6.380 Y4.977
G1 X6.357 Y4.925
G1 X6.361 Y4.838
G1 X6.414 Y4.726
G1 X6.414 Y4.726
G1 X6.575 Y4.545
G1 X6.665 Y4.470
G1 X6.718 Y4.440
G1 X7.000 Y4.383
G1 X7.282 Y4.387
G1 X7.643 Y4.470
G1 X7.981 Y4.620
G1 X8.158 Y4.729
G1 X8.316 Y4.846
G1 X8.496 Y5.004
G1 X8.714 Y5.237
G1 X8.902 Y5.511
G1 X9.038 Y5.786
G1 X9.098 Y6.011
G1 X9.105 Y6.068
G1 X9.083 Y6.180
G1 X8.981 Y6.327
G1 X8.981 Y6.327
G1 X8.887 Y6.410
G1 X8.805 Y6.444
G0 X8.778 Y6.440
G0 X8.680 Y6.387
G0 X6.718 Y4.793
G1 X6.688 Y4.767
G1 X6.609 Y4.695
G1 X6.583 Y4.643
G1 X6.583 Y4.556
G1 X6.632 Y4.444
G1 X6.632 Y4.444
G1 X6.789 Y4.259
G1 X6.883 Y4.184
G1 X7.049 Y4.124
G1 X7.331 Y4.090
G1 X7.444 Y4.090
G1 X7.808 Y4.162
G1 X8.120 Y4.278
G1 X8.312 Y4.376
G1 X8.492 Y4.496
G1 X8.680 Y4.647
G1 X8.906 Y4.861
G1 X9.117 Y5.113
G1 X9.286 Y5.421
G1 X9.365 Y5.695
G1 X9.342 Y5.808
G1 X9.278 Y5.906
G1 X9.278 Y5.906
G1 X9.184 Y5.989
G1 X9.102 Y6.023
G0 X9.075 Y6.023
G0 X8.970 Y5.974
G0 X6.898 Y4.538
G1 X6.868 Y4.515
G1 X6.786 Y4.447
G1 X6.759 Y4.395
G1 X6.756 Y4.308
G1 X6.801 Y4.195
G1 X6.801 Y4.195
G1 X6.947 Y4.000
G1 X7.083 Y3.887
G1 X7.365 Y3.812
G1 X7.647 Y3.797
G1 X8.011 Y3.857
G1 X8.357 Y3.985
G1 X8.553 Y4.083
G1 X8.729 Y4.192
G1 X8.951 Y4.353
G1 X9.192 Y4.583
G1 X9.372 Y4.808
G1 X9.526 Y5.064
G1 X9.602 Y5.286
G1 X9.605 Y5.342
G1 X9.598 Y5.398
G1 X9.538 Y5.500
G1 X9.538 Y5.500
G1 X9.444 Y5.586
G1 X9.365 Y5.620
G0 X9.335 Y5.620
G0 X9.229 Y5.579
G0 X7.083 Y4.271
G1 X7.049 Y4.252
G1 X6.962 Y4.188
G1 X6.932 Y4.139
G1 X6.925 Y4.053
G1 X6.962 Y3.940
G1 X6.962 Y3.940
G1 X7.102 Y3.741
G1 X7.188 Y3.654
G1 X7.237 Y3.620
G1 X7.462 Y3.541
G1 X7.801 Y3.496
G1 X8.169 Y3.541
G1 X8.492 Y3.635
G1 X8.692 Y3.722
G1 X8.880 Y3.823
G1 X9.105 Y3.970
G1 X9.353 Y4.180
G1 X9.553 Y4.387
G1 X9.741 Y4.677
G1 X9.808 Y4.835
G1 X9.823 Y4.891
G1 X9.827 Y4.947
G1 X9.820 Y5.004
G1 X9.763 Y5.109
G1 X9.763 Y5.109
G1 X9.677 Y5.199
G1 X9.594 Y5.237
G0 X9.568 Y5.241
G0 X9.459 Y5.203
G0 X7.256 Y4.008
G1 X7.218 Y3.985
G1 X7.132 Y3.929
G1 X7.094 Y3.880
G1 X7.083 Y3.793
G1 X7.113 Y3.680
G1 X7.113 Y3.680
G1 X7.282 Y3.425
G1 X7.368 Y3.342
G1 X7.586 Y3.252
G1 X7.868 Y3.195
G1 X7.925 Y3.192
G1 X8.293 Y3.214
G1 X8.654 Y3.301
G1 X8.865 Y3.380
G1 X9.053 Y3.470
G1 X9.274 Y3.602
G1 X9.519 Y3.789
G1 X9.726 Y3.989
G1 X9.929 Y4.263
G1 X10.004 Y4.417
G1 X10.023 Y4.474
G1 X10.030 Y4.530
G1 X10.026 Y4.586
G1 X9.951 Y4.748
G1 X9.951 Y4.748
G1 X9.872 Y4.842
G1 X9.793 Y4.887
G0 X9.767 Y4.891
G0 X9.658 Y4.853
G0 X7.425 Y3.684
G1 X7.387 Y3.669
G1 X7.301 Y3.613
G1 X7.263 Y3.564
G1 X7.252 Y3.477
G1 X7.282 Y3.365
G1 X7.282 Y3.365
G1 X7.402 Y3.158
G1 X7.481 Y3.068
G1 X7.526 Y3.030
G1 X7.684 Y2.955
G1 X7.966 Y2.883
G1 X8.023 Y2.876
G1 X8.391 Y2.876
G1 X8.756 Y2.940
G1 X8.970 Y3.008
G1 X9.162 Y3.086
G1 X9.383 Y3.203
G1 X9.647 Y3.380
G1 X9.876 Y3.571
G1 X10.098 Y3.835
G1 X10.207 Y4.038
G1 X10.222 Y4.094
G1 X10.222 Y4.150
G1 X10.158 Y4.316
G1 X10.158 Y4.316
G1 X10.083 Y4.414
G1 X10.008 Y4.462
G0 X9.981 Y4.466
G0 X9.872 Y4.436
G0 X7.564 Y3.406
G1 X7.526 Y3.391
G1 X7.436 Y3.338
G1 X7.398 Y3.293
G1 X7.383 Y3.207
G1 X7.410 Y3.094
G1 X7.410 Y3.094
G1 X7.523 Y2.876
G1 X7.639 Y2.741
G1 X7.850 Y2.635
G1 X8.188 Y2.549
G1 X8.556 Y2.541
G1 X8.921 Y2.598
G1 X9.132 Y2.658
G1 X9.327 Y2.733
G1 X9.556 Y2.846
G1 X9.827 Y3.015
G1 X10.120 Y3.252
G1 X10.301 Y3.477
G1 X10.383 Y3.628
G1 X10.395 Y3.684
G1 X10.395 Y3.741
G1 X10.286 Y4.023
G1 X10.286 Y4.023
G1 X10.211 Y4.120
G1 X10.135 Y4.169
G0 X10.109 Y4.173
G0 X10.000 Y4.143
G0 X7.695 Y3.132
G1 X7.658 Y3.113
G1 X7.568 Y3.064
G1 X7.530 Y3.019
G1 X7.508 Y2.932
G1 X7.526 Y2.816
G1 X7.526 Y2.816
G1 X7.658 Y2.545
G1 X7.733 Y2.451
G1 X7.936 Y2.331
G1 X8.274 Y2.226
G1 X8.643 Y2.199
G1 X9.011 Y2.237
G1 X9.226 Y2.286
G1 X9.425 Y2.350
G1 X9.658 Y2.451
G1 X9.929 Y2.602
G1 X10.195 Y2.789
G1 X10.402 Y3.000
G1 X10.530 Y3.192
G1 X10.545 Y3.248
G1 X10.549 Y3.305
G1 X10.511 Y3.417
G1 X10.511 Y3.417
G1 X10.444 Y3.523
G1 X10.376 Y3.579
G0 X10.350 Y3.586
G0 X10.237 Y3.568
G0 X7.842 Y2.771
G1 X7.805 Y2.759
G1 X7.703 Y2.711
G1 X7.662 Y2.658
G1 X7.639 Y2.568
G1 X7.650 Y2.477
G1 X7.650 Y2.477
G1 X7.752 Y2.256
G1 X7.823 Y2.154
G1 X8.019 Y2.019
G1 X8.293 Y1.910
G1 X8.350 Y1.895
G1 X8.718 Y1.853
G1 X9.083 Y1.872
G1 X9.305 Y1.914
G1 X9.508 Y1.970
G1 X9.748 Y2.053
G1 X10.056 Y2.207
G1 X10.305 Y2.376
G1 X10.526 Y2.586
G1 X10.658 Y2.774
G1 X10.673 Y2.831
G1 X10.677 Y2.887
G1 X10.613 Y3.113
G1 X10.613 Y3.113
G1 X10.545 Y3.218
G1 X10.477 Y3.274
G0 X10.451 Y3.282
G0 X10.338 Y3.263
G0 X7.940 Y2.485
G1 X7.902 Y2.474
G1 X7.805 Y2.432
G1 X7.763 Y2.391
G1 X7.733 Y2.308
G1 X7.744 Y2.192
G1 X7.744 Y2.192
G1 X7.857 Y1.910
G1 X7.932 Y1.812
G1 X8.128 Y1.684
G1 X8.402 Y1.568
G1 X8.767 Y1.504
G1 X9.135 Y1.504
G1 X9.368 Y1.530
G1 X9.590 Y1.575
G1 X9.853 Y1.662
G1 X10.113 Y1.774
G1 X10.361 Y1.925
G1 X10.553 Y2.071
G1 X10.744 Y2.289
G1 X10.774 Y2.338
G1 X10.789 Y2.395
G1 X10.793 Y2.451
G1 X10.752 Y2.620
G1 X10.752 Y2.620
G1 X10.692 Y2.726
G1 X10.624 Y2.786
G0 X10.598 Y2.793
G0 X10.481 Y2.782
G0 X8.045 Y2.180
G1 X8.004 Y2.173
G1 X7.906 Y2.139
G1 X7.861 Y2.102
G1 X7.827 Y2.019
G1 X7.823 Y1.902
G1 X7.823 Y1.902
G1 X7.898 Y1.665
G1 X7.955 Y1.556
G1 X7.992 Y1.508
G1 X8.135 Y1.395
G1 X8.350 Y1.293
G1 X8.462 Y1.256
G1 X8.823 Y1.169
G1 X9.192 Y1.147
G1 X9.462 Y1.169
G1 X9.677 Y1.211
G1 X9.898 Y1.271
G1 X10.173 Y1.376
G1 X10.462 Y1.530
G1 X10.726 Y1.737
G1 X10.842 Y1.865
G1 X10.872 Y1.914
G1 X10.887 Y1.970
G1 X10.887 Y2.026
G1 X10.865 Y2.139
G1 X10.865 Y2.139
G1 X10.812 Y2.248
G1 X10.748 Y2.312
G0 X10.722 Y2.320
G0 X10.609 Y2.316
G0 X8.124 Y1.823
G1 X8.083 Y1.816
G1 X7.981 Y1.786
G1 X7.936 Y1.748
G1 X7.902 Y1.669
G1 X7.906 Y1.553
G1 X7.906 Y1.553
G1 X7.962 Y1.376
G1 X8.019 Y1.267
G1 X8.056 Y1.218
G1 X8.301 Y1.049
G1 X8.515 Y0.951
G1 X8.868 Y0.838
G1 X9.237 Y0.801
G1 X9.485 Y0.808
G1 X9.688 Y0.835
G1 X9.906 Y0.883
G1 X10.203 Y0.977
G1 X10.519 Y1.124
G1 X10.756 Y1.282
G1 X10.914 Y1.451
G1 X10.944 Y1.500
G1 X10.959 Y1.556
G1 X10.929 Y1.782
G1 X10.929 Y1.782
G1 X10.883 Y1.895
G1 X10.823 Y1.955
G0 X10.797 Y1.966
G0 X10.684 Y1.966
G0 X8.192 Y1.575
G1 X8.150 Y1.571
G1 X8.049 Y1.545
G1 X8.000 Y1.504
G1 X7.962 Y1.410
G1 X7.955 Y1.320
G1 X7.955 Y1.320
G1 X8.015 Y1.083
G1 X8.068 Y0.974
G1 X8.105 Y0.925
G1 X8.342 Y0.737
G1 X8.553 Y0.635
G1 X8.902 Y0.511
G1 X9.267 Y0.455
G1 X9.538 Y0.451
G1 X9.748 Y0.470
G1 X9.974 Y0.511
G1 X10.248 Y0.590
G1 X10.538 Y0.714
G1 X10.771 Y0.853
G1 X10.936 Y1.011
G1 X11.000 Y1.105
G1 X11.015 Y1.162
G1 X10.989 Y1.387
G1 X10.989 Y1.387
G1 X10.944 Y1.500
G1 X10.883 Y1.560
G0 X10.857 Y1.571
G0 X10.744 Y1.575
G0 X8.237 Y1.271
G1 X8.195 Y1.267
G1 X8.094 Y1.244
G1 X8.045 Y1.207
G1 X8.008 Y1.113
G1 X8.000 Y1.023
G1 X8.000 Y1.023
G1 X8.034 Y0.842
G1 X8.075 Y0.726
G1 X8.105 Y0.673
G1 X8.327 Y0.470
G1 X8.583 Y0.320
G1 X8.929 Y0.184
G1 X9.293 Y0.109
G1 X9.575 Y0.098
G1 X9.782 Y0.105
G1 X10.015 Y0.139
G1 X10.289 Y0.207
G1 X10.571 Y0.316
G1 X10.801 Y0.451
G1 X11.008 Y0.650
G1 X11.038 Y0.699
G1 X11.049 Y0.756
G1 X11.045 Y0.812
G1 X11.045 Y0.812
G1 X11.008 Y0.929
G1 X10.951 Y0.996
G0 X10.929 Y1.011
G0 X10.812 Y1.026
G0 X8.274 Y1.011
G1 X8.237 Y1.011
G1 X8.132 Y1.000
G1 X8.083 Y0.970
G1 X8.038 Y0.898
G1 X8.023 Y0.782
G1 X8.023 Y0.782
G1 X8.060 Y0.541
G1 X8.102 Y0.425
G1 X8.132 Y0.372
G1 X8.346 Y0.162
G1 X8.598 Y0.000
G1 X8.936 Y-0.150
G1 X9.297 Y-0.237
G1 X9.575 Y-0.263
G1 X9.786 Y-0.259
G1 X10.004 Y-0.237
G1 X10.293 Y-0.177
G1 X10.575 Y-0.079
G1 X10.808 Y0.045
G1 X11.023 Y0.233
G1 X11.053 Y0.282
G1 X11.071 Y0.335
G1 X11.064 Y0.560
G1 X11.064 Y0.560
G1 X11.034 Y0.677
G1 X10.981 Y0.744
G0 X10.959 Y0.759
G0 X10.846 Y0.774
G0 X8.308 Y0.658
G1 X8.271 Y0.658
G1 X8.165 Y0.647
G1 X8.117 Y0.617
G1 X8.071 Y0.541
G1 X8.056 Y0.425
G1 X8.056 Y0.425
G1 X8.098 Y0.184
G1 X8.143 Y0.071
G1 X8.380 Y-0.180
G1 X8.568 Y-0.316
G1 X8.898 Y-0.481
G1 X9.252 Y-0.586
G1 X9.474 Y-0.620
G1 X9.673 Y-0.632
G1 X9.925 Y-0.624
G1 X10.226 Y-0.579
G1 X10.496 Y-0.508
G1 X10.752 Y-0.395
G1 X10.985 Y-0.211
G1 X11.026 Y-0.169
G1 X11.060 Y-0.117
G1 X11.079 Y-0.056
G1 X11.071 Y0.282
G1 X11.071 Y0.282
G1 X11.041 Y0.398
G1 X10.989 Y0.466
G0 X10.966 Y0.481
G0 X10.853 Y0.492
G0 X8.335 Y0.357
G1 X8.297 Y0.357
G1 X8.192 Y0.342
G1 X8.139 Y0.312
G1 X8.090 Y0.241
G1 X8.071 Y0.124
G1 X8.071 Y0.124
G1 X8.109 Y-0.165
G1 X8.154 Y-0.274
G1 X8.346 Y-0.485
G1 X8.526 Y-0.628
G1 X8.846 Y-0.812
G1 X9.195 Y-0.932
G1 X9.410 Y-0.977
G1 X9.609 Y-1.000
G1 X9.865 Y-1.004
G1 X10.173 Y-0.977
G1 X10.459 Y-0.906
G1 X10.669 Y-0.823
G1 X10.921 Y-0.662
G1 X11.011 Y-0.583
G1 X11.071 Y-0.481
G1 X11.079 Y-0.120
G1 X11.079 Y-0.120
G1 X11.053 Y0.000
G1 X11.008 Y0.071
G0 X10.985 Y0.086
G0 X10.872 Y0.102
G0 X8.350 Y0.053
G1 X8.312 Y0.053
G1 X8.207 Y0.045
G1 X8.150 Y0.019
G1 X8.098 Y-0.049
G1 X8.068 Y-0.169
G1 X8.068 Y-0.169
G1 X8.083 Y-0.395
G1 X8.109 Y-0.508
G1 X8.229 Y-0.703
G1 X8.346 Y-0.831
G1 X8.526 Y-0.977
G1 X8.846 Y-1.165
G1 X9.192 Y-1.297
G1 X9.410 Y-1.346
G1 X9.613 Y-1.372
G1 X9.861 Y-1.380
G1 X10.147 Y-1.357
G1 X10.429 Y-1.293
G1 X10.707 Y-1.184
G1 X10.906 Y-1.056
G1 X10.996 Y-0.977
G1 X11.026 Y-0.925
G1 X11.053 Y-0.684
G1 X11.053 Y-0.684
G1 X11.034 Y-0.556
G1 X10.992 Y-0.474
G0 X10.970 Y-0.459
G0 X10.857 Y-0.432
G0 X8.346 Y-0.252
G1 X8.308 Y-0.252
G1 X8.203 Y-0.252
G1 X8.147 Y-0.278
G1 X8.090 Y-0.350
G1 X8.053 Y-0.470
G1 X8.053 Y-0.470
G1 X8.053 Y-0.695
G1 X8.071 Y-0.808
G1 X8.117 Y-0.914
G1 X8.252 Y-1.098
G1 X8.466 Y-1.293
G1 X8.774 Y-1.496
G1 X9.117 Y-1.639
G1 X9.338 Y-1.699
G1 X9.534 Y-1.737
G1 X9.797 Y-1.756
G1 X10.068 Y-1.741
G1 X10.335 Y-1.699
G1 X10.594 Y-1.620
G1 X10.850 Y-1.474
G1 X10.947 Y-1.398
G1 X10.981 Y-1.350
G1 X11.000 Y-1.293
G1 X11.034 Y-0.932
G1 X11.034 Y-0.932
G1 X11.015 Y-0.805
G1 X10.974 Y-0.726
G0 X10.951 Y-0.707
G0 X10.838 Y-0.680
G0 X8.316 Y-0.549
G1 X8.278 Y-0.549
G1 X8.173 Y-0.549
G1 X8.117 Y-0.575
G1 X8.060 Y-0.647
G1 X8.023 Y-0.767
G1 X8.023 Y-0.767
G1 X8.015 Y-1.049
G1 X8.034 Y-1.162
G1 X8.053 Y-1.218
G1 X8.222 Y-1.451
G1 X8.432 Y-1.647
G1 X8.737 Y-1.853
G1 X9.075 Y-2.004
G1 X9.305 Y-2.068
G1 X9.492 Y-2.105
G1 X9.752 Y-2.128
G1 X10.045 Y-2.124
G1 X10.350 Y-2.079
G1 X10.583 Y-2.008
G1 X10.789 Y-1.891
G1 X10.887 Y-1.816
G1 X10.925 Y-1.767
G1 X10.944 Y-1.707
G1 X10.981 Y-1.466
G1 X10.981 Y-1.466
G1 X10.970 Y-1.338
G1 X10.932 Y-1.256
G0 X10.910 Y-1.237
G0 X10.801 Y-1.203
G0 X8.289 Y-0.925
G1 X8.252 Y-0.921
G1 X8.143 Y-0.917
G1 X8.086 Y-0.940
G1 X8.026 Y-1.008
G1 X7.985 Y-1.128
G1 X7.985 Y-1.128
G1 X7.970 Y-1.353
G1 X8.000 Y-1.523
G1 X8.120 Y-1.718
G1 X8.316 Y-1.932
G1 X8.609 Y-2.158
G1 X8.936 Y-2.327
G1 X9.150 Y-2.402
G1 X9.342 Y-2.451
G1 X9.598 Y-2.492
G1 X9.902 Y-2.508
G1 X10.195 Y-2.481
G1 X10.436 Y-2.429
G1 X10.756 Y-2.267
G1 X10.805 Y-2.233
G1 X10.842 Y-2.184
G1 X10.865 Y-2.128
G1 X10.891 Y-2.008
G1 X10.891 Y-2.008
G1 X10.887 Y-1.880
G1 X10.853 Y-1.793
G0 X10.835 Y-1.774
G0 X10.729 Y-1.729
G0 X8.244 Y-1.233
G1 X8.203 Y-1.226
G1 X8.098 Y-1.214
G1 X8.041 Y-1.233
G1 X7.981 Y-1.301
G1 X7.940 Y-1.421
G1 X7.940 Y-1.421
G1 X7.910 Y-1.647
G1 X7.917 Y-1.759
G1 X7.932 Y-1.816
G1 X8.041 Y-2.019
G1 X8.184 Y-2.199
G1 X8.267 Y-2.282
G1 X8.560 Y-2.508
G1 X8.883 Y-2.684
G1 X9.117 Y-2.771
G1 X9.316 Y-2.827
G1 X9.575 Y-2.872
G1 X9.853 Y-2.887
G1 X10.135 Y-2.872
G1 X10.406 Y-2.812
G1 X10.665 Y-2.677
G1 X10.714 Y-2.639
G1 X10.752 Y-2.594
G1 X10.816 Y-2.353
G1 X10.816 Y-2.353
G1 X10.812 Y-2.226
G1 X10.778 Y-2.139
G0 X10.759 Y-2.117
G0 X10.654 Y-2.075
G0 X8.199 Y-1.545
G1 X8.158 Y-1.538
G1 X8.053 Y-1.523
G1 X7.996 Y-1.538
G1 X7.929 Y-1.602
G1 X7.868 Y-1.714
G1 X7.868 Y-1.714
G1 X7.835 Y-1.940
G1 X7.838 Y-2.053
G1 X7.850 Y-2.109
G1 X7.981 Y-2.365
G1 X8.162 Y-2.586
G1 X8.440 Y-2.831
G1 X8.756 Y-3.023
G1 X8.962 Y-3.109
G1 X9.158 Y-3.173
G1 X9.410 Y-3.229
G1 X9.703 Y-3.259
G1 X9.989 Y-3.259
G1 X10.267 Y-3.214
G1 X10.538 Y-3.098
G1 X10.590 Y-3.068
G1 X10.628 Y-3.023
G1 X10.673 Y-2.914
G1 X10.688 Y-2.853
G1 X10.688 Y-2.853
G1 X10.692 Y-2.726
G1 X10.665 Y-2.639
G0 X10.647 Y-2.617
G0 X10.541 Y-2.568
G0 X8.124 Y-1.850
G1 X8.083 Y-1.842
G1 X7.981 Y-1.820
G1 X7.925 Y-1.835
G1 X7.857 Y-1.895
G1 X7.797 Y-2.008
G1 X7.797 Y-2.008
G1 X7.752 Y-2.289
G1 X7.759 Y-2.402
G1 X7.876 Y-2.662
G1 X8.045 Y-2.895
G1 X8.312 Y-3.150
G1 X8.620 Y-3.353
G1 X8.820 Y-3.447
G1 X9.011 Y-3.519
G1 X9.256 Y-3.586
G1 X9.556 Y-3.635
G1 X9.850 Y-3.639
G1 X10.094 Y-3.613
G1 X10.372 Y-3.519
G1 X10.425 Y-3.492
G1 X10.511 Y-3.410
G1 X10.571 Y-3.241
G1 X10.571 Y-3.241
G1 X10.583 Y-3.113
G1 X10.556 Y-3.023
G0 X10.541 Y-3.004
G0 X10.440 Y-2.951
G0 X8.053 Y-2.158
G1 X8.015 Y-2.147
G1 X7.910 Y-2.120
G1 X7.853 Y-2.132
G1 X7.782 Y-2.184
G1 X7.714 Y-2.293
G1 X7.714 Y-2.293
G1 X7.650 Y-2.575
G1 X7.650 Y-2.688
G1 X7.699 Y-2.853
G1 X7.914 Y-3.199
G1 X8.169 Y-3.466
G1 X8.470 Y-3.680
G1 X8.662 Y-3.782
G1 X8.853 Y-3.861
G1 X9.090 Y-3.936
G1 X9.395 Y-4.000
G1 X9.703 Y-4.015
G1 X9.936 Y-4.000
G1 X10.271 Y-3.891
G1 X10.361 Y-3.816
G1 X10.387 Y-3.759
G1 X10.387 Y-3.759
G1 X10.398 Y-3.602
G1 X10.383 Y-3.545
G0 X10.365 Y-3.523
G0 X10.271 Y-3.459
G0 X7.951 Y-2.462
G1 X7.917 Y-2.447
G1 X7.816 Y-2.414
G1 X7.756 Y-2.421
G1 X7.684 Y-2.470
G1 X7.617 Y-2.579
G1 X7.617 Y-2.579
G1 X7.534 Y-2.861
G1 X7.523 Y-2.974
G1 X7.530 Y-3.030
G1 X7.639 Y-3.297
G1 X7.763 Y-3.492
G1 X8.008 Y-3.771
G1 X8.301 Y-3.996
G1 X8.489 Y-4.105
G1 X8.673 Y-4.192
G1 X8.910 Y-4.278
G1 X9.218 Y-4.353
G1 X9.515 Y-4.383
G1 X9.812 Y-4.368
G1 X10.094 Y-4.282
G1 X10.147 Y-4.256
G1 X10.192 Y-4.214
G1 X10.244 Y-4.105
G1 X10.244 Y-4.105
G1 X10.263 Y-3.977
G1 X10.248 Y-3.891
G0 X10.229 Y-3.868
G0 X10.135 Y-3.805
G0 X7.831 Y-2.808
G1 X7.793 Y-2.793
G1 X7.695 Y-2.759
G1 X7.635 Y-2.763
G1 X7.560 Y-2.812
G1 X7.485 Y-2.914
G1 X7.485 Y-2.914
G1 X7.410 Y-3.139
G1 X7.391 Y-3.252
G1 X7.391 Y-3.308
G1 X7.485 Y-3.579
G1 X7.635 Y-3.827
G1 X7.876 Y-4.105
G1 X8.162 Y-4.338
G1 X8.365 Y-4.462
G1 X8.549 Y-4.549
G1 X8.763 Y-4.632
G1 X9.071 Y-4.714
G1 X9.395 Y-4.752
G1 X9.692 Y-4.737
G1 X9.861 Y-4.692
G1 X9.970 Y-4.643
G1 X10.015 Y-4.605
G1 X10.150 Y-4.335
G1 X10.150 Y-4.335
G1 X10.169 Y-4.207
G1 X10.154 Y-4.120
G0 X10.135 Y-4.098
G0 X10.041 Y-4.038
G0 X7.714 Y-3.079
G1 X7.680 Y-3.064
G1 X7.579 Y-3.034
G1 X7.519 Y-3.038
G1 X7.444 Y-3.086
G1 X7.368 Y-3.188
G1 X7.368 Y-3.188
G1 X7.278 Y-3.406
G1 X7.252 Y-3.519
G1 X7.252 Y-3.632
G1 X7.342 Y-3.906
G1 X7.451 Y-4.109
G1 X7.684 Y-4.395
G1 X7.959 Y-4.635
G1 X8.147 Y-4.763
G1 X8.331 Y-4.865
G1 X8.564 Y-4.966
G1 X8.850 Y-5.056
G1 X9.147 Y-5.113
G1 X9.429 Y-5.117
G1 X9.654 Y-5.075
G1 X9.763 Y-5.030
G1 X9.812 Y-4.992
G1 X9.880 Y-4.895
G1 X9.932 Y-4.789
G1 X9.932 Y-4.789
G1 X9.959 Y-4.662
G1 X9.947 Y-4.575
G0 X9.932 Y-4.549
G0 X9.842 Y-4.485
G0 X7.586 Y-3.376
G1 X7.553 Y-3.361
G1 X7.455 Y-3.320
G1 X7.395 Y-3.323
G1 X7.316 Y-3.365
G1 X7.233 Y-3.459
G1 X7.233 Y-3.459
G1 X7.117 Y-3.729
G1 X7.090 Y-3.842
G1 X7.090 Y-3.898
G1 X7.147 Y-4.124
G1 X7.271 Y-4.383
G1 X7.489 Y-4.680
G1 X7.756 Y-4.936
G1 X7.940 Y-5.071
G1 X8.117 Y-5.180
G1 X8.346 Y-5.293
G1 X8.635 Y-5.402
G1 X8.940 Y-5.462
G1 X9.173 Y-5.477
G1 X9.455 Y-5.440
G1 X9.564 Y-5.402
G1 X9.613 Y-5.365
G1 X9.677 Y-5.263
G1 X9.677 Y-5.263
G1 X9.711 Y-5.139
G1 X9.703 Y-5.049
G0 X9.692 Y-5.026
G0 X9.602 Y-4.955
G0 X7.414 Y-3.707
G1 X7.380 Y-3.688
G1 X7.282 Y-3.643
G1 X7.226 Y-3.643
G1 X7.147 Y-3.680
G1 X7.064 Y-3.774
G1 X7.064 Y-3.774
G1 X6.966 Y-3.985
G1 X6.936 Y-4.098
G1 X6.962 Y-4.323
G1 X7.060 Y-4.594
G1 X7.086 Y-4.647
G1 X7.286 Y-4.959
G1 X7.538 Y-5.226
G1 X7.711 Y-5.365
G1 X7.872 Y-5.474
G1 X8.094 Y-5.594
G1 X8.383 Y-5.718
G1 X8.699 Y-5.801
G1 X8.944 Y-5.831
G1 X9.169 Y-5.820
G1 X9.282 Y-5.797
G1 X9.335 Y-5.771
G1 X9.380 Y-5.733
G1 X9.447 Y-5.635
G1 X9.447 Y-5.635
G1 X9.492 Y-5.515
G1 X9.492 Y-5.425
G0 X9.481 Y-5.402
G0 X9.395 Y-5.327
G0 X7.263 Y-3.985
G1 X7.233 Y-3.962
G1 X7.139 Y-3.914
G1 X7.079 Y-3.910
G1 X6.996 Y-3.940
G1 X6.906 Y-4.030
G1 X6.906 Y-4.030
G1 X6.797 Y-4.237
G1 X6.767 Y-4.350
G1 X6.778 Y-4.575
G1 X6.861 Y-4.853
G1 X6.883 Y-4.906
G1 X7.068 Y-5.226
G1 X7.308 Y-5.504
G1 X7.474 Y-5.654
G1 X7.643 Y-5.782
G1 X7.865 Y-5.914
G1 X8.124 Y-6.034
G1 X8.402 Y-6.128
G1 X8.733 Y-6.180
G1 X8.959 Y-6.169
G1 X9.071 Y-6.139
G1 X9.120 Y-6.109
G1 X9.229 Y-5.962
G1 X9.229 Y-5.962
G1 X9.274 Y-5.842
G1 X9.274 Y-5.752
G0 X9.263 Y-5.726
G0 X9.180 Y-5.647
G0 X7.128 Y-4.199
G1 X7.094 Y-4.173
G1 X7.004 Y-4.120
G1 X6.947 Y-4.113
G1 X6.861 Y-4.143
G1 X6.771 Y-4.226
G1 X6.771 Y-4.226
G1 X6.617 Y-4.481
G1 X6.560 Y-4.650
G1 X6.575 Y-4.876
G1 X6.658 Y-5.154
G1 X6.680 Y-5.207
G1 X6.865 Y-5.526
G1 X7.098 Y-5.812
G1 X7.263 Y-5.966
G1 X7.421 Y-6.090
G1 X7.654 Y-6.241
G1 X7.925 Y-6.376
G1 X8.207 Y-6.470
G1 X8.444 Y-6.519
G1 X8.669 Y-6.523
G1 X8.782 Y-6.508
G1 X8.835 Y-6.485
G1 X8.883 Y-6.447
G1 X9.034 Y-6.256
G1 X9.034 Y-6.256
G1 X9.079 Y-6.135
G1 X9.079 Y-6.045
G0 X9.068 Y-6.019
G0 X8.985 Y-5.940
G0 X6.925 Y-4.492
G1 X6.891 Y-4.470
G1 X6.801 Y-4.417
G1 X6.744 Y-4.410
G1 X6.658 Y-4.440
G1 X6.568 Y-4.523
G1 X6.568 Y-4.523
G1 X6.436 Y-4.722
G1 X6.368 Y-4.887
G1 X6.365 Y-5.056
G1 X6.417 Y-5.338
G1 X6.455 Y-5.447
G1 X6.620 Y-5.778
G1 X6.842 Y-6.075
G1 X7.004 Y-6.241
G1 X7.162 Y-6.380
G1 X7.376 Y-6.526
G1 X7.624 Y-6.665
G1 X7.902 Y-6.782
G1 X8.177 Y-6.853
G1 X8.459 Y-6.861
G1 X8.515 Y-6.846
G1 X8.568 Y-6.820
G1 X8.617 Y-6.782
G1 X8.733 Y-6.643
G1 X8.733 Y-6.643
G1 X8.786 Y-6.526
G1 X8.793 Y-6.436
G0 X8.782 Y-6.410
G0 X8.707 Y-6.327
G0 X6.707 Y-4.801
G1 X6.677 Y-4.774
G1 X6.586 Y-4.718
G1 X6.530 Y-4.707
G1 X6.444 Y-4.733
G1 X6.346 Y-4.808
G1 X6.346 Y-4.808
G1 X6.211 Y-5.008
G1 X6.165 Y-5.117
G1 X6.150 Y-5.286
G1 X6.180 Y-5.511
G1 X6.226 Y-5.680
G1 X6.372 Y-6.019
G1 X6.579 Y-6.327
G1 X6.729 Y-6.492
G1 X6.868 Y-6.624
G1 X7.064 Y-6.782
G1 X7.346 Y-6.959
G1 X7.628 Y-7.086
G1 X7.921 Y-7.173
G1 X8.090 Y-7.184
G1 X8.203 Y-7.177
G1 X8.259 Y-7.158
G1 X8.312 Y-7.128
G1 X8.353 Y-7.086
G1 X8.353 Y-7.086
G1 X8.417 Y-6.977
G1 X8.429 Y-6.887
G0 X8.421 Y-6.861
G0 X8.353 Y-6.771
G0 X6.500 Y-5.049
G1 X6.470 Y-5.019
G1 X6.387 Y-4.955
G1 X6.331 Y-4.940
G1 X6.248 Y-4.959
G1 X6.150 Y-5.034
G1 X6.150 Y-5.034
G1 X6.004 Y-5.226
G1 X5.951 Y-5.331
G1 X5.925 Y-5.500
G1 X5.947 Y-5.782
G1 X5.985 Y-5.951
G1 X6.135 Y-6.289
G1 X6.335 Y-6.602
G1 X6.492 Y-6.789
G1 X6.647 Y-6.944
G1 X6.857 Y-7.113
G1 X7.090 Y-7.267
G1 X7.361 Y-7.406
G1 X7.639 Y-7.477
G1 X7.865 Y-7.496
G1 X7.921 Y-7.492
G1 X7.977 Y-7.474
G1 X8.064 Y-7.395
G1 X8.064 Y-7.395
G1 X8.128 Y-7.286
G1 X8.139 Y-7.195
G0 X8.132 Y-7.169
G0 X8.068 Y-7.075
G0 X6.301 Y-5.286
G1 X6.271 Y-5.256
G1 X6.192 Y-5.188
G1 X6.135 Y-5.173
G1 X6.049 Y-5.188
G1 X5.947 Y-5.256
G1 X5.947 Y-5.256
G1 X5.759 Y-5.489
G1 X5.707 Y-5.598
G1 X5.688 Y-5.880
G1 X5.733 Y-6.162
G1 X5.861 Y-6.508
G1 X6.045 Y-6.827
G1 X6.184 Y-7.011
G1 X6.327 Y-7.169
G1 X6.515 Y-7.342
G1 X6.767 Y-7.530
G1 X7.038 Y-7.673
G1 X7.316 Y-7.771
G1 X7.541 Y-7.801
G1 X7.598 Y-7.801
G1 X7.654 Y-7.782
G1 X7.838 Y-7.620
G1 X7.838 Y-7.620
G1 X7.910 Y-7.515
G1 X7.925 Y-7.429
G0 X7.921 Y-7.402
G0 X7.853 Y-7.308
G0 X6.049 Y-5.541
G1 X6.023 Y-5.515
G1 X5.940 Y-5.447
G1 X5.883 Y-5.429
G1 X5.797 Y-5.444
G1 X5.692 Y-5.511
G1 X5.692 Y-5.511
G1 X5.534 Y-5.688
G1 X5.474 Y-5.789
G1 X5.455 Y-5.846
G1 X5.436 Y-6.128
G1 X5.459 Y-6.353
G1 X5.568 Y-6.707
G1 X5.737 Y-7.034
G1 X5.861 Y-7.218
G1 X5.996 Y-7.383
G1 X6.177 Y-7.564
G1 X6.406 Y-7.756
G1 X6.665 Y-7.925
G1 X6.929 Y-8.038
G1 X7.211 Y-8.094
G1 X7.267 Y-8.090
G1 X7.323 Y-8.071
G1 X7.417 Y-7.996
G1 X7.417 Y-7.996
G1 X7.489 Y-7.895
G1 X7.511 Y-7.808
G0 X7.508 Y-7.782
G0 X7.447 Y-7.684
G0 X5.816 Y-5.774
G1 X5.793 Y-5.744
G1 X5.718 Y-5.673
G1 X5.665 Y-5.650
G1 X5.579 Y-5.654
G1 X5.470 Y-5.711
G1 X5.470 Y-5.711
G1 X5.305 Y-5.883
G1 X5.241 Y-5.981
G1 X5.192 Y-6.150
G1 X5.173 Y-6.432
G1 X5.180 Y-6.545
G1 X5.274 Y-6.902
G1 X5.414 Y-7.207
G1 X5.523 Y-7.395
G1 X5.654 Y-7.571
G1 X5.816 Y-7.756
G1 X6.053 Y-7.977
G1 X6.312 Y-8.173
G1 X6.575 Y-8.305
G1 X6.797 Y-8.365
G1 X6.910 Y-8.376
G1 X6.966 Y-8.365
G1 X7.064 Y-8.297
G1 X7.064 Y-8.297
G1 X7.135 Y-8.195
G1 X7.158 Y-8.109
G0 X7.154 Y-8.083
G0 X7.102 Y-7.981
G0 X5.583 Y-5.981
G1 X5.556 Y-5.951
G1 X5.489 Y-5.872
G1 X5.436 Y-5.846
G1 X5.350 Y-5.853
G1 X5.241 Y-5.906
G1 X5.241 Y-5.906
G1 X5.098 Y-6.023
G1 X4.985 Y-6.162
G1 X4.959 Y-6.214
G1 X4.902 Y-6.496
G1 X4.902 Y-6.778
G1 X4.989 Y-7.139
G1 X5.139 Y-7.477
G1 X5.248 Y-7.665
G1 X5.368 Y-7.842
G1 X5.556 Y-8.064
G1 X5.789 Y-8.274
G1 X6.004 Y-8.429
G1 X6.218 Y-8.553
G1 X6.436 Y-8.628
G1 X6.492 Y-8.639
G1 X6.549 Y-8.639
G1 X6.605 Y-8.628
G1 X6.654 Y-8.598
G1 X6.654 Y-8.598
G1 X6.737 Y-8.504
G1 X6.771 Y-8.421
G0 X6.771 Y-8.395
G0 X6.722 Y-8.289
G0 X5.331 Y-6.180
G1 X5.312 Y-6.147
G1 X5.248 Y-6.064
G1 X5.195 Y-6.038
G1 X5.109 Y-6.034
G1 X4.996 Y-6.079
G1 X4.996 Y-6.079
G1 X4.767 Y-6.274
G1 X4.665 Y-6.421
G1 X4.609 Y-6.703
G1 X4.605 Y-6.929
G1 X4.673 Y-7.293
G1 X4.797 Y-7.639
G1 X4.902 Y-7.846
G1 X5.011 Y-8.019
G1 X5.165 Y-8.222
G1 X5.391 Y-8.459
G1 X5.620 Y-8.654
G1 X5.868 Y-8.801
G1 X6.086 Y-8.880
G1 X6.143 Y-8.891
G1 X6.256 Y-8.872
G1 X6.353 Y-8.808
G1 X6.353 Y-8.808
G1 X6.440 Y-8.714
G1 X6.474 Y-8.635
G0 X6.474 Y-8.605
G0 X6.425 Y-8.504
G0 X5.038 Y-6.380
G1 X5.019 Y-6.346
G1 X4.955 Y-6.263
G1 X4.902 Y-6.237
G1 X4.816 Y-6.241
G1 X4.707 Y-6.293
G1 X4.707 Y-6.293
G1 X4.515 Y-6.444
G1 X4.436 Y-6.538
G1 X4.357 Y-6.759
G1 X4.312 Y-7.098
G1 X4.361 Y-7.466
G1 X4.451 Y-7.759
G1 X4.534 Y-7.959
G1 X4.643 Y-8.162
G1 X4.801 Y-8.391
G1 X4.985 Y-8.617
G1 X5.207 Y-8.835
G1 X5.447 Y-9.004
G1 X5.605 Y-9.079
G1 X5.774 Y-9.124
G1 X5.831 Y-9.120
G1 X5.887 Y-9.105
G1 X5.887 Y-9.105
G1 X5.974 Y-9.011
G1 X6.008 Y-8.929
G0 X6.008 Y-8.902
G0 X5.970 Y-8.793
G0 X4.774 Y-6.575
G1 X4.756 Y-6.538
G1 X4.699 Y-6.451
G1 X4.650 Y-6.417
G1 X4.564 Y-6.414
G1 X4.451 Y-6.451
G1 X4.451 Y-6.451
G1 X4.252 Y-6.594
G1 X4.165 Y-6.680
G1 X4.132 Y-6.729
G1 X4.038 Y-7.011
G1 X4.004 Y-7.293
G1 X4.045 Y-7.662
G1 X4.150 Y-8.015
G1 X4.233 Y-8.218
G1 X4.335 Y-8.406
G1 X4.470 Y-8.620
G1 X4.684 Y-8.883
G1 X4.959 Y-9.128
G1 X5.207 Y-9.274
G1 X5.368 Y-9.335
G1 X5.425 Y-9.338
G1 X5.481 Y-9.327
G1 X5.534 Y-9.297
G1 X5.534 Y-9.297
G1 X5.624 Y-9.211
G1 X5.665 Y-9.132
G0 X5.669 Y-9.105
G0 X5.632 Y-8.996
G0 X4.462 Y-6.774
G1 X4.447 Y-6.737
G1 X4.391 Y-6.650
G1 X4.342 Y-6.613
G1 X4.256 Y-6.602
G1 X4.143 Y-6.635
G1 X4.143 Y-6.635
G1 X3.940 Y-6.767
G1 X3.853 Y-6.853
G1 X3.793 Y-6.955
G1 X3.711 Y-7.237
G1 X3.692 Y-7.406
G1 X3.711 Y-7.774
G1 X3.793 Y-8.135
G1 X3.868 Y-8.346
G1 X3.962 Y-8.545
G1 X4.090 Y-8.767
G1 X4.274 Y-9.015
G1 X4.477 Y-9.233
G1 X4.703 Y-9.410
G1 X4.962 Y-9.538
G1 X5.019 Y-9.541
G1 X5.075 Y-9.534
G1 X5.180 Y-9.485
G1 X5.180 Y-9.485
G1 X5.274 Y-9.406
G1 X5.320 Y-9.327
G0 X5.323 Y-9.301
G0 X5.289 Y-9.192
G0 X4.192 Y-6.917
G1 X4.177 Y-6.883
G1 X4.124 Y-6.793
G1 X4.075 Y-6.756
G1 X3.989 Y-6.744
G1 X3.876 Y-6.774
G1 X3.876 Y-6.774
G1 X3.669 Y-6.895
G1 X3.579 Y-6.974
G1 X3.511 Y-7.071
G1 X3.425 Y-7.289
G1 X3.376 Y-7.515
G1 X3.380 Y-7.883
G1 X3.436 Y-8.229
G1 X3.500 Y-8.459
G1 X3.583 Y-8.665
G1 X3.699 Y-8.898
G1 X3.865 Y-9.150
G1 X4.049 Y-9.372
G1 X4.305 Y-9.594
G1 X4.560 Y-9.726
G1 X4.617 Y-9.729
G1 X4.673 Y-9.722
G1 X4.782 Y-9.677
G1 X4.782 Y-9.677
G1 X4.880 Y-9.602
G1 X4.929 Y-9.526
G0 X4.936 Y-9.500
G0 X4.910 Y-9.391
G0 X3.917 Y-7.060
G1 X3.902 Y-7.026
G1 X3.853 Y-6.932
G1 X3.808 Y-6.895
G1 X3.722 Y-6.876
G1 X3.605 Y-6.898
G1 X3.605 Y-6.898
G1 X3.342 Y-7.049
G1 X3.297 Y-7.086
G1 X3.195 Y-7.233
G1 X3.090 Y-7.508
G1 X3.056 Y-7.677
G1 X3.049 Y-8.045
G1 X3.098 Y-8.414
G1 X3.162 Y-8.639
G1 X3.233 Y-8.838
G1 X3.350 Y-9.075
G1 X3.508 Y-9.331
G1 X3.692 Y-9.568
G1 X3.947 Y-9.797
G1 X4.098 Y-9.883
G1 X4.211 Y-9.898
G1 X4.267 Y-9.880
G1 X4.267 Y-9.876
G1 X4.365 Y-9.805
G1 X4.417 Y-9.729
G0 X4.425 Y-9.703
G0 X4.406 Y-9.590
G0 X3.624 Y-7.195
G1 X3.613 Y-7.158
G1 X3.571 Y-7.060
G1 X3.526 Y-7.019
G1 X3.444 Y-6.996
G1 X3.327 Y-7.015
G1 X3.327 Y-7.015
G1 X3.053 Y-7.143
G1 X2.959 Y-7.218
G1 X2.835 Y-7.421
G1 X2.722 Y-7.752
G1 X2.695 Y-8.120
G1 X2.729 Y-8.489
G1 X2.778 Y-8.714
G1 X2.842 Y-8.917
G1 X2.940 Y-9.154
G1 X3.090 Y-9.432
G1 X3.271 Y-9.692
G1 X3.477 Y-9.902
G1 X3.665 Y-10.030
G1 X3.722 Y-10.049
G1 X3.778 Y-10.053
G1 X3.947 Y-10.000
G1 X3.947 Y-10.000
G1 X4.045 Y-9.929
G1 X4.098 Y-9.853
G0 X4.105 Y-9.827
G0 X4.086 Y-9.714
G0 X3.286 Y-7.323
G1 X3.274 Y-7.286
G1 X3.233 Y-7.188
G1 X3.188 Y-7.147
G1 X3.105 Y-7.124
G1 X2.989 Y-7.139
G1 X2.989 Y-7.139
G1 X2.714 Y-7.271
G1 X2.620 Y-7.346
G1 X2.496 Y-7.549
G1 X2.395 Y-7.827
G1 X2.346 Y-8.195
G1 X2.357 Y-8.556
G1 X2.391 Y-8.774
G1 X2.444 Y-8.977
G1 X2.526 Y-9.214
G1 X2.662 Y-9.500
G1 X2.831 Y-9.774
G1 X3.019 Y-9.996
G1 X3.150 Y-10.105
G1 X3.248 Y-10.165
G1 X3.305 Y-10.180
G1 X3.361 Y-10.184
G1 X3.417 Y-10.169
G1 X3.417 Y-10.169
G1 X3.523 Y-10.105
G1 X3.579 Y-10.038
G0 X3.586 Y-10.011
G0 X3.575 Y-9.895
G0 X2.932 Y-7.455
G1 X2.921 Y-7.414
G1 X2.887 Y-7.316
G1 X2.850 Y-7.274
G1 X2.767 Y-7.244
G1 X2.650 Y-7.256
G1 X2.650 Y-7.256
G1 X2.429 Y-7.346
G1 X2.327 Y-7.410
G1 X2.218 Y-7.549
G1 X2.086 Y-7.812
G1 X2.049 Y-7.925
G1 X1.989 Y-8.289
G1 X1.992 Y-8.658
G1 X2.023 Y-8.887
G1 X2.071 Y-9.102
G1 X2.150 Y-9.350
G1 X2.271 Y-9.632
G1 X2.429 Y-9.910
G1 X2.617 Y-10.128
G1 X2.793 Y-10.271
G1 X2.902 Y-10.301
G1 X3.015 Y-10.274
G1 X3.015 Y-10.274
G1 X3.124 Y-10.222
G1 X3.188 Y-10.154
G0 X3.195 Y-10.128
G0 X3.188 Y-10.015
G0 X2.635 Y-7.553
G1 X2.628 Y-7.515
G1 X2.598 Y-7.414
G1 X2.560 Y-7.368
G1 X2.477 Y-7.335
G1 X2.361 Y-7.338
G1 X2.361 Y-7.338
G1 X2.128 Y-7.410
G1 X2.019 Y-7.466
G1 X1.970 Y-7.504
G1 X1.805 Y-7.748
G1 X1.711 Y-7.966
G1 X1.632 Y-8.327
G1 X1.617 Y-8.695
G1 X1.632 Y-8.917
G1 X1.669 Y-9.132
G1 X1.733 Y-9.383
G1 X1.846 Y-9.684
G1 X1.992 Y-9.955
G1 X2.180 Y-10.203
G1 X2.353 Y-10.357
G1 X2.406 Y-10.380
G1 X2.462 Y-10.387
G1 X2.519 Y-10.380
G1 X2.519 Y-10.376
G1 X2.632 Y-10.323
G1 X2.692 Y-10.259
G0 X2.703 Y-10.233
G0 X2.703 Y-10.120
G0 X2.271 Y-7.650
G1 X2.267 Y-7.609
G1 X2.241 Y-7.508
G1 X2.207 Y-7.459
G1 X2.128 Y-7.421
G1 X2.011 Y-7.417
G1 X2.011 Y-7.417
G1 X1.831 Y-7.466
G1 X1.722 Y-7.515
G1 X1.624 Y-7.590
G1 X1.477 Y-7.778
G1 X1.398 Y-7.940
G1 X1.361 Y-8.053
G1 X1.274 Y-8.414
G1 X1.248 Y-8.782
G1 X1.263 Y-9.060
G1 X1.305 Y-9.286
G1 X1.357 Y-9.500
G1 X1.466 Y-9.793
G1 X1.643 Y-10.128
G1 X1.786 Y-10.312
G1 X1.914 Y-10.429
G1 X1.966 Y-10.451
G1 X2.023 Y-10.462
G1 X2.079 Y-10.451
G1 X2.079 Y-10.451
G1 X2.192 Y-10.406
G1 X2.256 Y-10.346
G0 X2.267 Y-10.320
G0 X2.271 Y-10.207
G0 X1.966 Y-7.703
G1 X1.962 Y-7.662
G1 X1.944 Y-7.560
G1 X1.910 Y-7.511
G1 X1.831 Y-7.474
G1 X1.714 Y-7.470
G1 X1.714 Y-7.470
G1 X1.477 Y-7.530
G1 X1.368 Y-7.586
G1 X1.248 Y-7.722
G1 X1.071 Y-8.030
G1 X0.951 Y-8.380
G1 X0.895 Y-8.744
G1 X0.895 Y-8.996
G1 X0.914 Y-9.199
G1 X0.951 Y-9.432
G1 X1.030 Y-9.737
G1 X1.158 Y-10.056
G1 X1.308 Y-10.301
G1 X1.425 Y-10.429
G1 X1.519 Y-10.496
G1 X1.571 Y-10.519
G1 X1.684 Y-10.508
G1 X1.684 Y-10.508
G1 X1.797 Y-10.462
G1 X1.861 Y-10.402
G0 X1.872 Y-10.376
G0 X1.880 Y-10.263
G0 X1.658 Y-7.756
G1 X1.658 Y-7.714
G1 X1.639 Y-7.613
G1 X1.609 Y-7.564
G1 X1.534 Y-7.523
G1 X1.417 Y-7.511
G1 X1.417 Y-7.511
G1 X1.180 Y-7.568
G1 X1.071 Y-7.620
G1 X0.910 Y-7.797
G1 X0.759 Y-8.053
G1 X0.620 Y-8.395
G1 X0.549 Y-8.759
G1 X0.534 Y-9.000
G1 X0.541 Y-9.207
G1 X0.568 Y-9.447
G1 X0.632 Y-9.759
G1 X0.744 Y-10.075
G1 X0.868 Y-10.301
G1 X1.064 Y-10.511
G1 X1.173 Y-10.556
G1 X1.286 Y-10.545
G1 X1.286 Y-10.545
G1 X1.402 Y-10.508
G1 X1.470 Y-10.451
G0 X1.481 Y-10.429
G0 X1.496 Y-10.312
G0 X1.410 Y-7.786
G1 X1.410 Y-7.748
G1 X1.398 Y-7.643
G1 X1.368 Y-7.594
G1 X1.293 Y-7.549
G1 X1.177 Y-7.534
G1 X1.177 Y-7.534
G1 X0.936 Y-7.575
G1 X0.820 Y-7.617
G1 X0.767 Y-7.647
G1 X0.602 Y-7.820
G1 X0.440 Y-8.071
G1 X0.289 Y-8.410
G1 X0.199 Y-8.771
G1 X0.169 Y-9.049
G1 X0.169 Y-9.259
G1 X0.188 Y-9.489
G1 X0.241 Y-9.774
G1 X0.338 Y-10.075
G1 X0.466 Y-10.320
G1 X0.617 Y-10.492
G1 X0.662 Y-10.530
G1 X0.714 Y-10.556
G1 X0.771 Y-10.571
G1 X0.827 Y-10.571
G1 X0.827 Y-10.571
G1 X0.944 Y-10.541
G1 X1.015 Y-10.489
G0 X1.030 Y-10.466
G0 X1.053 Y-10.353
G0 X1.102 Y-7.812
G1 X1.105 Y-7.774
G1 X1.098 Y-7.669
G1 X1.068 Y-7.620
G1 X0.996 Y-7.575
G1 X0.880 Y-7.560
G1 X0.880 Y-7.560
G1 X0.639 Y-7.590
G1 X0.523 Y-7.628
G1 X0.425 Y-7.695
G1 X0.222 Y-7.917
G1 X0.124 Y-8.064
G1 X-0.045 Y-8.391
G1 X-0.154 Y-8.744
G1 X-0.195 Y-9.015
G1 X-0.207 Y-9.222
G1 X-0.195 Y-9.459
G1 X-0.154 Y-9.741
G1 X-0.075 Y-10.034
G1 X0.041 Y-10.278
G1 X0.184 Y-10.462
G1 X0.267 Y-10.541
G1 X0.320 Y-10.564
G1 X0.376 Y-10.575
G1 X0.432 Y-10.575
G1 X0.432 Y-10.575
G1 X0.549 Y-10.549
G1 X0.624 Y-10.496
G0 X0.639 Y-10.474
G0 X0.662 Y-10.361
G0 X0.786 Y-7.835
G1 X0.789 Y-7.797
G1 X0.786 Y-7.692
G1 X0.756 Y-7.635
G1 X0.669 Y-7.586
G1 X0.579 Y-7.568
G1 X0.579 Y-7.568
G1 X0.338 Y-7.594
G1 X0.222 Y-7.632
G1 X0.030 Y-7.782
G1 X-0.195 Y-8.041
G1 X-0.383 Y-8.361
G1 X-0.508 Y-8.711
G1 X-0.549 Y-8.917
G1 X-0.571 Y-9.109
G1 X-0.575 Y-9.350
G1 X-0.549 Y-9.654
G1 X-0.489 Y-9.955
G1 X-0.383 Y-10.214
G1 X-0.211 Y-10.455
G1 X-0.169 Y-10.500
G1 X-0.120 Y-10.538
G1 X-0.064 Y-10.564
G1 X0.053 Y-10.571
G1 X0.053 Y-10.571
G1 X0.169 Y-10.553
G1 X0.244 Y-10.508
G0 X0.259 Y-10.485
G0 X0.289 Y-10.372
G0 X0.477 Y-7.846
G1 X0.481 Y-7.808
G1 X0.474 Y-7.699
G1 X0.440 Y-7.639
G1 X0.365 Y-7.586
G1 X0.278 Y-7.564
G1 X0.278 Y-7.564
G1 X-0.019 Y-7.590
G1 X-0.128 Y-7.628
G1 X-0.353 Y-7.805
G1 X-0.541 Y-8.023
G1 X-0.733 Y-8.338
G1 X-0.865 Y-8.684
G1 X-0.914 Y-8.898
G1 X-0.944 Y-9.102
G1 X-0.955 Y-9.357
G1 X-0.932 Y-9.650
G1 X-0.868 Y-9.932
G1 X-0.789 Y-10.150
G1 X-0.669 Y-10.353
G1 X-0.553 Y-10.492
G1 X-0.500 Y-10.523
G1 X-0.440 Y-10.538
G1 X-0.380 Y-10.541
G1 X-0.380 Y-10.541
G1 X-0.252 Y-10.523
G1 X-0.169 Y-10.477
G0 X-0.154 Y-10.455
G0 X-0.120 Y-10.346
G0 X0.173 Y-7.842
G1 X0.180 Y-7.801
G1 X0.184 Y-7.699
G1 X0.162 Y-7.643
G1 X0.098 Y-7.586
G1 X-0.015 Y-7.553
G1 X-0.015 Y-7.553
G1 X-0.241 Y-7.553
G1 X-0.410 Y-7.586
G1 X-0.605 Y-7.711
G1 X-0.850 Y-7.959
G1 X-1.056 Y-8.263
G1 X-1.207 Y-8.602
G1 X-1.263 Y-8.808
G1 X-1.301 Y-9.004
G1 X-1.323 Y-9.248
G1 X-1.316 Y-9.538
G1 X-1.278 Y-9.831
G1 X-1.199 Y-10.098
G1 X-1.049 Y-10.350
G1 X-0.970 Y-10.440
G1 X-0.917 Y-10.470
G1 X-0.861 Y-10.489
G1 X-0.801 Y-10.496
G1 X-0.801 Y-10.496
G1 X-0.673 Y-10.485
G1 X-0.586 Y-10.444
G0 X-0.568 Y-10.421
G0 X-0.534 Y-10.316
G0 X-0.120 Y-7.827
G1 X-0.117 Y-7.786
G1 X-0.105 Y-7.680
G1 X-0.128 Y-7.628
G1 X-0.195 Y-7.568
G1 X-0.316 Y-7.526
G1 X-0.316 Y-7.526
G1 X-0.541 Y-7.511
G1 X-0.711 Y-7.534
G1 X-0.910 Y-7.639
G1 X-1.162 Y-7.868
G1 X-1.414 Y-8.214
G1 X-1.568 Y-8.553
G1 X-1.635 Y-8.774
G1 X-1.673 Y-8.977
G1 X-1.699 Y-9.211
G1 X-1.703 Y-9.519
G1 X-1.654 Y-9.831
G1 X-1.560 Y-10.109
G1 X-1.436 Y-10.312
G1 X-1.398 Y-10.357
G1 X-1.297 Y-10.425
G1 X-1.177 Y-10.444
G1 X-1.177 Y-10.444
G1 X-1.015 Y-10.429
G1 X-0.962 Y-10.398
G0 X-0.944 Y-10.380
G0 X-0.906 Y-10.274
G0 X-0.485 Y-7.793
G1 X-0.481 Y-7.752
G1 X-0.470 Y-7.647
G1 X-0.489 Y-7.590
G1 X-0.556 Y-7.530
G1 X-0.673 Y-7.481
G1 X-0.673 Y-7.481
G1 X-0.898 Y-7.466
G1 X-1.011 Y-7.477
G1 X-1.068 Y-7.492
G1 X-1.357 Y-7.677
G1 X-1.526 Y-7.835
G1 X-1.748 Y-8.132
G1 X-1.914 Y-8.462
G1 X-1.985 Y-8.669
G1 X-2.034 Y-8.868
G1 X-2.068 Y-9.113
G1 X-2.079 Y-9.410
G1 X-2.056 Y-9.714
G1 X-1.985 Y-9.985
G1 X-1.876 Y-10.192
G1 X-1.805 Y-10.286
G1 X-1.703 Y-10.346
G1 X-1.583 Y-10.376
G1 X-1.583 Y-10.376
G1 X-1.455 Y-10.372
G1 X-1.368 Y-10.335
G0 X-1.346 Y-10.316
G0 X-1.305 Y-10.211
G0 X-0.789 Y-7.741
G1 X-0.782 Y-7.699
G1 X-0.767 Y-7.594
G1 X-0.786 Y-7.538
G1 X-0.850 Y-7.477
G1 X-0.966 Y-7.429
G1 X-0.966 Y-7.429
G1 X-1.192 Y-7.398
G1 X-1.305 Y-7.402
G1 X-1.361 Y-7.414
G1 X-1.613 Y-7.549
G1 X-1.831 Y-7.733
G1 X-2.068 Y-8.015
G1 X-2.248 Y-8.338
G1 X-2.327 Y-8.538
G1 X-2.383 Y-8.729
G1 X-2.432 Y-8.974
G1 X-2.462 Y-9.282
G1 X-2.447 Y-9.586
G1 X-2.398 Y-9.823
G1 X-2.308 Y-10.041
G1 X-2.214 Y-10.192
G1 X-2.165 Y-10.229
G1 X-2.049 Y-10.267
G1 X-2.049 Y-10.267
G1 X-1.887 Y-10.259
G1 X-1.835 Y-10.237
G0 X-1.812 Y-10.218
G0 X-1.763 Y-10.113
G0 X-1.094 Y-7.684
G1 X-1.086 Y-7.643
G1 X-1.068 Y-7.541
G1 X-1.083 Y-7.485
G1 X-1.143 Y-7.417
G1 X-1.259 Y-7.365
G1 X-1.259 Y-7.365
G1 X-1.541 Y-7.323
G1 X-1.654 Y-7.331
G1 X-1.868 Y-7.425
G1 X-2.147 Y-7.632
G1 X-2.391 Y-7.906
G1 X-2.583 Y-8.222
G1 X-2.669 Y-8.417
G1 X-2.733 Y-8.613
G1 X-2.797 Y-8.853
G1 X-2.838 Y-9.188
G1 X-2.835 Y-9.470
G1 X-2.793 Y-9.707
G1 X-2.684 Y-9.981
G1 X-2.617 Y-10.079
G1 X-2.571 Y-10.117
G1 X-2.455 Y-10.158
G1 X-2.455 Y-10.158
G1 X-2.327 Y-10.162
G1 X-2.241 Y-10.135
G0 X-2.218 Y-10.117
G0 X-2.165 Y-10.015
G0 X-1.406 Y-7.617
G1 X-1.391 Y-7.579
G1 X-1.368 Y-7.477
G1 X-1.380 Y-7.417
G1 X-1.436 Y-7.350
G1 X-1.549 Y-7.289
G1 X-1.549 Y-7.289
G1 X-1.831 Y-7.229
G1 X-1.944 Y-7.229
G1 X-2.207 Y-7.342
G1 X-2.440 Y-7.504
G1 X-2.699 Y-7.767
G1 X-2.910 Y-8.071
G1 X-3.008 Y-8.274
G1 X-3.075 Y-8.447
G1 X-3.143 Y-8.684
G1 X-3.199 Y-8.992
G1 X-3.207 Y-9.305
G1 X-3.180 Y-9.545
G1 X-3.086 Y-9.827
G1 X-3.030 Y-9.932
G1 X-2.985 Y-9.974
G1 X-2.932 Y-10.004
G1 X-2.876 Y-10.023
G1 X-2.876 Y-10.023
G1 X-2.748 Y-10.034
G1 X-2.658 Y-10.011
G0 X-2.635 Y-9.996
G0 X-2.579 Y-9.895
G0 X-1.707 Y-7.534
G1 X-1.695 Y-7.496
G1 X-1.665 Y-7.395
G1 X-1.677 Y-7.338
G1 X-1.729 Y-7.267
G1 X-1.838 Y-7.199
G1 X-1.838 Y-7.199
G1 X-2.120 Y-7.124
G1 X-2.233 Y-7.117
G1 X-2.289 Y-7.124
G1 X-2.553 Y-7.241
G1 X-2.789 Y-7.406
G1 X-3.049 Y-7.669
G1 X-3.263 Y-7.970
G1 X-3.376 Y-8.188
G1 X-3.447 Y-8.380
G1 X-3.515 Y-8.602
G1 X-3.568 Y-8.906
G1 X-3.586 Y-9.203
G1 X-3.556 Y-9.477
G1 X-3.455 Y-9.752
G1 X-3.417 Y-9.801
G1 X-3.372 Y-9.842
G1 X-3.259 Y-9.887
G1 X-3.259 Y-9.887
G1 X-3.132 Y-9.906
G1 X-3.045 Y-9.891
G0 X-3.023 Y-9.872
G0 X-2.962 Y-9.774
G0 X-2.049 Y-7.417
G1 X-2.038 Y-7.380
G1 X-2.008 Y-7.278
G1 X-2.015 Y-7.222
G1 X-2.068 Y-7.150
G1 X-2.177 Y-7.083
G1 X-2.177 Y-7.083
G1 X-2.346 Y-7.026
G1 X-2.515 Y-7.004
G1 X-2.571 Y-7.008
G1 X-2.789 Y-7.083
G1 X-3.041 Y-7.229
G1 X-3.323 Y-7.470
G1 X-3.553 Y-7.759
G1 X-3.669 Y-7.955
G1 X-3.763 Y-8.139
G1 X-3.853 Y-8.387
G1 X-3.925 Y-8.658
G1 X-3.966 Y-8.955
G1 X-3.959 Y-9.233
G1 X-3.906 Y-9.459
G1 X-3.831 Y-9.620
G1 X-3.789 Y-9.662
G1 X-3.680 Y-9.722
G1 X-3.624 Y-9.741
G1 X-3.624 Y-9.741
G1 X-3.496 Y-9.759
G1 X-3.410 Y-9.744
G0 X-3.387 Y-9.726
G0 X-3.323 Y-9.632
G0 X-2.350 Y-7.312
G1 X-2.335 Y-7.278
G1 X-2.301 Y-7.177
G1 X-2.305 Y-7.117
G1 X-2.353 Y-7.041
G1 X-2.455 Y-6.966
G1 X-2.455 Y-6.966
G1 X-2.677 Y-6.891
G1 X-2.789 Y-6.872
G1 X-2.846 Y-6.872
G1 X-3.068 Y-6.936
G1 X-3.372 Y-7.094
G1 X-3.654 Y-7.331
G1 X-3.895 Y-7.613
G1 X-4.015 Y-7.805
G1 X-4.109 Y-7.985
G1 X-4.203 Y-8.218
G1 X-4.286 Y-8.511
G1 X-4.327 Y-8.812
G1 X-4.327 Y-9.049
G1 X-4.282 Y-9.274
G1 X-4.244 Y-9.387
G1 X-4.214 Y-9.440
G1 X-4.173 Y-9.485
G1 X-4.124 Y-9.519
G1 X-4.015 Y-9.568
G1 X-4.015 Y-9.568
G1 X-3.887 Y-9.594
G1 X-3.801 Y-9.583
G0 X-3.774 Y-9.568
G0 X-3.711 Y-9.474
G0 X-2.635 Y-7.199
G1 X-2.617 Y-7.162
G1 X-2.579 Y-7.064
G1 X-2.583 Y-7.004
G1 X-2.628 Y-6.925
G1 X-2.726 Y-6.842
G1 X-2.726 Y-6.842
G1 X-3.004 Y-6.741
G1 X-3.117 Y-6.726
G1 X-3.286 Y-6.759
G1 X-3.605 Y-6.891
G1 X-3.947 Y-7.147
G1 X-4.195 Y-7.421
G1 X-4.320 Y-7.598
G1 X-4.421 Y-7.778
G1 X-4.526 Y-8.004
G1 X-4.628 Y-8.297
G1 X-4.680 Y-8.602
G1 X-4.695 Y-8.835
G1 X-4.662 Y-9.060
G1 X-4.628 Y-9.173
G1 X-4.602 Y-9.226
G1 X-4.564 Y-9.274
G1 X-4.515 Y-9.312
G1 X-4.406 Y-9.365
G1 X-4.406 Y-9.365
G1 X-4.248 Y-9.395
G1 X-4.192 Y-9.383
G0 X-4.165 Y-9.372
G0 X-4.098 Y-9.282
G0 X-2.914 Y-7.064
G1 X-2.898 Y-7.026
G1 X-2.857 Y-6.932
G1 X-2.857 Y-6.872
G1 X-2.898 Y-6.793
G1 X-2.996 Y-6.711
G1 X-2.996 Y-6.711
G1 X-3.211 Y-6.609
G1 X-3.323 Y-6.575
G1 X-3.436 Y-6.568
G1 X-3.605 Y-6.602
G1 X-3.925 Y-6.733
G1 X-4.229 Y-6.944
G1 X-4.489 Y-7.207
G1 X-4.624 Y-7.380
G1 X-4.737 Y-7.556
G1 X-4.850 Y-7.786
G1 X-4.955 Y-8.053
G1 X-5.034 Y-8.353
G1 X-5.060 Y-8.635
G1 X-5.034 Y-8.861
G1 X-5.004 Y-8.974
G1 X-4.936 Y-9.071
G1 X-4.831 Y-9.132
G1 X-4.831 Y-9.132
G1 X-4.707 Y-9.169
G1 X-4.617 Y-9.165
G0 X-4.594 Y-9.154
G0 X-4.523 Y-9.068
G0 X-3.252 Y-6.891
G1 X-3.229 Y-6.853
G1 X-3.184 Y-6.759
G1 X-3.180 Y-6.703
G1 X-3.218 Y-6.624
G1 X-3.312 Y-6.538
G1 X-3.312 Y-6.538
G1 X-3.526 Y-6.432
G1 X-3.639 Y-6.402
G1 X-3.695 Y-6.398
G1 X-3.921 Y-6.436
G1 X-4.192 Y-6.545
G1 X-4.504 Y-6.741
G1 X-4.778 Y-6.989
G1 X-4.932 Y-7.173
G1 X-5.053 Y-7.342
G1 X-5.184 Y-7.575
G1 X-5.297 Y-7.838
G1 X-5.380 Y-8.105
G1 X-5.414 Y-8.383
G1 X-5.398 Y-8.609
G1 X-5.376 Y-8.722
G1 X-5.353 Y-8.778
G1 X-5.320 Y-8.827
G1 X-5.173 Y-8.929
G1 X-5.173 Y-8.929
G1 X-5.049 Y-8.974
G1 X-4.959 Y-8.974
G0 X-4.936 Y-8.962
G0 X-4.861 Y-8.876
G0 X-3.511 Y-6.733
G1 X-3.489 Y-6.699
G1 X-3.440 Y-6.605
G1 X-3.436 Y-6.545
G1 X-3.474 Y-6.466
G1 X-3.568 Y-6.383
G1 X-3.568 Y-6.383
G1 X-3.774 Y-6.267
G1 X-3.887 Y-6.226
G1 X-3.944 Y-6.214
G1 X-4.113 Y-6.226
G1 X-4.444 Y-6.323
G1 X-4.496 Y-6.346
G1 X-4.812 Y-6.538
G1 X-5.086 Y-6.774
G1 X-5.233 Y-6.936
G1 X-5.357 Y-7.105
G1 X-5.489 Y-7.320
G1 X-5.620 Y-7.598
G1 X-5.718 Y-7.880
G1 X-5.763 Y-8.158
G1 X-5.744 Y-8.440
G1 X-5.733 Y-8.496
G1 X-5.703 Y-8.549
G1 X-5.662 Y-8.594
G1 X-5.564 Y-8.665
G1 X-5.564 Y-8.665
G1 X-5.447 Y-8.714
G1 X-5.357 Y-8.718
G0 X-5.331 Y-8.707
G0 X-5.252 Y-8.628
G0 X-3.793 Y-6.571
G1 X-3.767 Y-6.538
G1 X-3.714 Y-6.447
G1 X-3.707 Y-6.391
G1 X-3.737 Y-6.305
G1 X-3.820 Y-6.214
G1 X-3.820 Y-6.214
G1 X-4.071 Y-6.060
G1 X-4.184 Y-6.023
G1 X-4.353 Y-6.019
G1 X-4.579 Y-6.064
G1 X-4.741 Y-6.120
G1 X-5.068 Y-6.293
G1 X-5.357 Y-6.523
G1 X-5.511 Y-6.684
G1 X-5.639 Y-6.838
G1 X-5.782 Y-7.053
G1 X-5.932 Y-7.331
G1 X-6.041 Y-7.628
G1 X-6.098 Y-7.925
G1 X-6.083 Y-8.207
G1 X-6.064 Y-8.263
G1 X-6.034 Y-8.316
G1 X-5.936 Y-8.391
G1 X-5.936 Y-8.391
G1 X-5.820 Y-8.440
G1 X-5.729 Y-8.444
G0 X-5.703 Y-8.436
G0 X-5.620 Y-8.357
G0 X-4.098 Y-6.361
G1 X-4.071 Y-6.331
G1 X-4.015 Y-6.241
G1 X-4.004 Y-6.184
G1 X-4.030 Y-6.098
G1 X-4.109 Y-6.000
G1 X-4.109 Y-6.000
G1 X-4.365 Y-5.846
G1 X-4.477 Y-5.816
G1 X-4.759 Y-5.835
G1 X-4.985 Y-5.895
G1 X-5.320 Y-6.056
G1 X-5.620 Y-6.271
G1 X-5.793 Y-6.432
G1 X-5.932 Y-6.586
G1 X-6.086 Y-6.801
G1 X-6.229 Y-7.045
G1 X-6.353 Y-7.320
G1 X-6.425 Y-7.594
G1 X-6.440 Y-7.820
G1 X-6.429 Y-7.932
G1 X-6.410 Y-7.989
G1 X-6.376 Y-8.038
G1 X-6.282 Y-8.113
G1 X-6.282 Y-8.113
G1 X-6.165 Y-8.169
G1 X-6.075 Y-8.177
G0 X-6.049 Y-8.165
G0 X-5.962 Y-8.094
G0 X-4.346 Y-6.169
G1 X-4.323 Y-6.135
G1 X-4.259 Y-6.053
G1 X-4.248 Y-5.992
G1 X-4.267 Y-5.910
G1 X-4.342 Y-5.812
G1 X-4.342 Y-5.812
G1 X-4.534 Y-5.677
G1 X-4.695 Y-5.609
G1 X-4.977 Y-5.609
G1 X-5.259 Y-5.669
G1 X-5.598 Y-5.820
G1 X-5.902 Y-6.026
G1 X-6.079 Y-6.184
G1 X-6.226 Y-6.338
G1 X-6.387 Y-6.545
G1 X-6.549 Y-6.805
G1 X-6.673 Y-7.064
G1 X-6.752 Y-7.338
G1 X-6.767 Y-7.564
G1 X-6.763 Y-7.620
G1 X-6.748 Y-7.677
G1 X-6.718 Y-7.729
G1 X-6.628 Y-7.812
G1 X-6.628 Y-7.812
G1 X-6.519 Y-7.876
G1 X-6.429 Y-7.887
G0 X-6.402 Y-7.880
G0 X-6.312 Y-7.812
G0 X-4.586 Y-5.974
G1 X-4.556 Y-5.944
G1 X-4.492 Y-5.861
G1 X-4.477 Y-5.805
G1 X-4.496 Y-5.718
G1 X-4.571 Y-5.620
G1 X-4.571 Y-5.620
G1 X-4.805 Y-5.436
G1 X-4.910 Y-5.383
G1 X-5.135 Y-5.365
G1 X-5.474 Y-5.410
G1 X-5.816 Y-5.545
G1 X-6.109 Y-5.722
G1 X-6.282 Y-5.853
G1 X-6.447 Y-6.011
G1 X-6.617 Y-6.199
G1 X-6.805 Y-6.459
G1 X-6.951 Y-6.718
G1 X-7.049 Y-6.989
G1 X-7.083 Y-7.271
G1 X-7.079 Y-7.327
G1 X-7.060 Y-7.383
G1 X-6.771 Y-7.680
G1 X-6.771 Y-7.680
G1 X-6.662 Y-7.744
G1 X-6.571 Y-7.756
G0 X-6.545 Y-7.748
G0 X-6.459 Y-7.677
G0 X-4.850 Y-5.741
G1 X-4.823 Y-5.711
G1 X-4.763 Y-5.624
G1 X-4.748 Y-5.564
G1 X-4.763 Y-5.477
G1 X-4.831 Y-5.372
G1 X-4.831 Y-5.372
G1 X-5.015 Y-5.222
G1 X-5.117 Y-5.165
G1 X-5.286 Y-5.128
G1 X-5.511 Y-5.128
G1 X-5.737 Y-5.165
G1 X-6.083 Y-5.293
G1 X-6.402 Y-5.477
G1 X-6.579 Y-5.613
G1 X-6.741 Y-5.756
G1 X-6.936 Y-5.966
G1 X-7.117 Y-6.207
G1 X-7.297 Y-6.575
G1 X-7.372 Y-6.857
G1 X-7.383 Y-6.970
G1 X-7.372 Y-7.026
G1 X-7.350 Y-7.083
G1 X-7.105 Y-7.346
G1 X-7.105 Y-7.346
G1 X-6.996 Y-7.414
G1 X-6.910 Y-7.429
G0 X-6.883 Y-7.425
G0 X-6.793 Y-7.357
G0 X-5.071 Y-5.519
G1 X-5.041 Y-5.489
G1 X-4.977 Y-5.406
G1 X-4.959 Y-5.350
G1 X-4.974 Y-5.263
G1 X-5.041 Y-5.158
G1 X-5.041 Y-5.158
G1 X-5.214 Y-4.992
G1 X-5.316 Y-4.929
G1 X-5.368 Y-4.906
G1 X-5.650 Y-4.868
G1 X-5.932 Y-4.891
G1 X-6.286 Y-5.004
G1 X-6.598 Y-5.158
G1 X-6.786 Y-5.286
G1 X-6.947 Y-5.417
G1 X-7.128 Y-5.590
G1 X-7.335 Y-5.838
G1 X-7.504 Y-6.098
G1 X-7.624 Y-6.365
G1 X-7.673 Y-6.590
G1 X-7.677 Y-6.647
G1 X-7.662 Y-6.703
G1 X-7.635 Y-6.756
G1 X-7.398 Y-7.026
G1 X-7.398 Y-7.026
G1 X-7.293 Y-7.098
G1 X-7.207 Y-7.120
G0 X-7.177 Y-7.117
G0 X-7.086 Y-7.053
G0 X-5.289 Y-5.286
G1 X-5.259 Y-5.259
G1 X-5.192 Y-5.180
G1 X-5.173 Y-5.124
G1 X-5.180 Y-5.038
G1 X-5.241 Y-4.932
G1 X-5.241 Y-4.932
G1 X-5.406 Y-4.759
G1 X-5.553 Y-4.658
G1 X-5.835 Y-4.605
G1 X-6.060 Y-4.605
G1 X-6.117 Y-4.613
G1 X-6.474 Y-4.703
G1 X-6.812 Y-4.853
G1 X-7.008 Y-4.974
G1 X-7.173 Y-5.098
G1 X-7.365 Y-5.267
G1 X-7.575 Y-5.496
G1 X-7.756 Y-5.759
G1 X-7.872 Y-5.985
G1 X-7.932 Y-6.211
G1 X-7.940 Y-6.323
G1 X-7.925 Y-6.380
G1 X-7.741 Y-6.620
G1 X-7.741 Y-6.620
G1 X-7.639 Y-6.699
G1 X-7.553 Y-6.726
G0 X-7.526 Y-6.726
G0 X-7.429 Y-6.669
G0 X-5.500 Y-5.045
G1 X-5.466 Y-5.023
G1 X-5.391 Y-4.947
G1 X-5.368 Y-4.895
G1 X-5.372 Y-4.808
G1 X-5.429 Y-4.699
G1 X-5.429 Y-4.699
G1 X-5.586 Y-4.515
G1 X-5.726 Y-4.402
G1 X-5.778 Y-4.376
G1 X-6.004 Y-4.327
G1 X-6.286 Y-4.323
G1 X-6.647 Y-4.395
G1 X-6.992 Y-4.530
G1 X-7.188 Y-4.635
G1 X-7.372 Y-4.756
G1 X-7.575 Y-4.921
G1 X-7.789 Y-5.135
G1 X-7.977 Y-5.368
G1 X-8.135 Y-5.673
G1 X-8.199 Y-5.895
G1 X-8.203 Y-5.951
G1 X-8.192 Y-6.008
G1 X-7.955 Y-6.350
G1 X-7.955 Y-6.350
G1 X-7.853 Y-6.429
G1 X-7.767 Y-6.455
G0 X-7.741 Y-6.455
G0 X-7.643 Y-6.395
G0 X-5.729 Y-4.763
G1 X-5.699 Y-4.741
G1 X-5.624 Y-4.665
G1 X-5.598 Y-4.613
G1 X-5.598 Y-4.526
G1 X-5.647 Y-4.414
G1 X-5.647 Y-4.414
G1 X-5.797 Y-4.226
G1 X-5.887 Y-4.147
G1 X-5.940 Y-4.117
G1 X-6.165 Y-4.056
G1 X-6.447 Y-4.034
G1 X-6.868 Y-4.102
G1 X-7.214 Y-4.229
G1 X-7.414 Y-4.331
G1 X-7.598 Y-4.444
G1 X-7.820 Y-4.613
G1 X-8.034 Y-4.816
G1 X-8.222 Y-5.038
G1 X-8.365 Y-5.286
G1 X-8.440 Y-5.504
G1 X-8.451 Y-5.560
G1 X-8.447 Y-5.617
G1 X-8.429 Y-5.673
G1 X-8.229 Y-5.966
G1 X-8.229 Y-5.966
G1 X-8.135 Y-6.053
G1 X-8.053 Y-6.086
G0 X-8.026 Y-6.083
G0 X-7.925 Y-6.034
G0 X-5.906 Y-4.515
G1 X-5.876 Y-4.489
G1 X-5.797 Y-4.421
G1 X-5.767 Y-4.368
G1 X-5.767 Y-4.278
G1 X-5.812 Y-4.165
G1 X-5.812 Y-4.165
G1 X-6.000 Y-3.929
G1 X-6.094 Y-3.850
G1 X-6.316 Y-3.771
G1 X-6.654 Y-3.733
G1 X-7.023 Y-3.778
G1 X-7.376 Y-3.887
G1 X-7.571 Y-3.977
G1 X-7.752 Y-4.075
G1 X-7.981 Y-4.229
G1 X-8.233 Y-4.447
G1 X-8.429 Y-4.665
G1 X-8.564 Y-4.872
G1 X-8.658 Y-5.083
G1 X-8.680 Y-5.195
G1 X-8.673 Y-5.252
G1 X-8.500 Y-5.568
G1 X-8.500 Y-5.568
G1 X-8.406 Y-5.654
G1 X-8.323 Y-5.688
G0 X-8.297 Y-5.688
G0 X-8.192 Y-5.639
G0 X-6.120 Y-4.203
G1 X-6.090 Y-4.180
G1 X-6.008 Y-4.113
G1 X-5.977 Y-4.060
G1 X-5.970 Y-3.974
G1 X-6.008 Y-3.861
G1 X-6.008 Y-3.861
G1 X-6.147 Y-3.665
G1 X-6.233 Y-3.579
G1 X-6.282 Y-3.545
G1 X-6.504 Y-3.470
G1 X-6.786 Y-3.429
G1 X-7.154 Y-3.455
G1 X-7.515 Y-3.545
G1 X-7.726 Y-3.624
G1 X-7.917 Y-3.718
G1 X-8.135 Y-3.853
G1 X-8.372 Y-4.034
G1 X-8.594 Y-4.244
G1 X-8.797 Y-4.523
G1 X-8.872 Y-4.677
G1 X-8.891 Y-4.733
G1 X-8.898 Y-4.789
G1 X-8.895 Y-4.846
G1 X-8.699 Y-5.214
G1 X-8.699 Y-5.214
G1 X-8.613 Y-5.305
G1 X-8.534 Y-5.342
G0 X-8.508 Y-5.342
G0 X-8.406 Y-5.301
G0 X-6.278 Y-3.936
G1 X-6.244 Y-3.917
G1 X-6.162 Y-3.853
G1 X-6.132 Y-3.801
G1 X-6.120 Y-3.714
G1 X-6.154 Y-3.602
G1 X-6.154 Y-3.602
G1 X-6.320 Y-3.350
G1 X-6.406 Y-3.271
G1 X-6.628 Y-3.180
G1 X-6.966 Y-3.113
G1 X-7.335 Y-3.132
G1 X-7.680 Y-3.207
G1 X-7.895 Y-3.282
G1 X-8.083 Y-3.365
G1 X-8.323 Y-3.500
G1 X-8.579 Y-3.688
G1 X-8.789 Y-3.887
G1 X-8.947 Y-4.086
G1 X-9.079 Y-4.338
G1 X-9.094 Y-4.395
G1 X-9.094 Y-4.451
G1 X-8.910 Y-4.820
G1 X-8.910 Y-4.816
G1 X-8.827 Y-4.910
G1 X-8.748 Y-4.955
G0 X-8.722 Y-4.955
G0 X-8.617 Y-4.917
G0 X-6.432 Y-3.662
G1 X-6.395 Y-3.643
G1 X-6.308 Y-3.583
G1 X-6.274 Y-3.534
G1 X-6.263 Y-3.447
G1 X-6.293 Y-3.335
G1 X-6.293 Y-3.335
G1 X-6.447 Y-3.075
G1 X-6.530 Y-2.989
G1 X-6.741 Y-2.887
G1 X-7.079 Y-2.805
G1 X-7.447 Y-2.801
G1 X-7.812 Y-2.861
G1 X-8.030 Y-2.925
G1 X-8.222 Y-3.000
G1 X-8.451 Y-3.117
G1 X-8.695 Y-3.278
G1 X-8.921 Y-3.466
G1 X-9.143 Y-3.722
G1 X-9.233 Y-3.872
G1 X-9.256 Y-3.925
G1 X-9.267 Y-3.981
G1 X-9.267 Y-4.038
G1 X-9.105 Y-4.429
G1 X-9.105 Y-4.429
G1 X-9.023 Y-4.523
G1 X-8.944 Y-4.568
G0 X-8.917 Y-4.571
G0 X-8.808 Y-4.534
G0 X-6.583 Y-3.383
G1 X-6.545 Y-3.368
G1 X-6.455 Y-3.312
G1 X-6.421 Y-3.263
G1 X-6.398 Y-3.177
G1 X-6.417 Y-3.060
G1 X-6.417 Y-3.060
G1 X-6.526 Y-2.842
G1 X-6.639 Y-2.695
G1 X-6.846 Y-2.575
G1 X-7.184 Y-2.477
G1 X-7.553 Y-2.459
G1 X-7.921 Y-2.504
G1 X-8.147 Y-2.560
G1 X-8.353 Y-2.632
G1 X-8.594 Y-2.744
G1 X-8.842 Y-2.895
G1 X-9.075 Y-3.071
G1 X-9.271 Y-3.278
G1 X-9.398 Y-3.470
G1 X-9.425 Y-3.523
G1 X-9.436 Y-3.579
G1 X-9.436 Y-3.635
G1 X-9.278 Y-4.019
G1 X-9.278 Y-4.019
G1 X-9.203 Y-4.117
G1 X-9.132 Y-4.165
G0 X-9.102 Y-4.169
G0 X-8.996 Y-4.139
G0 X-6.714 Y-3.049
G1 X-6.680 Y-3.030
G1 X-6.586 Y-2.981
G1 X-6.553 Y-2.932
G1 X-6.534 Y-2.846
G1 X-6.556 Y-2.729
G1 X-6.556 Y-2.729
G1 X-6.662 Y-2.508
G1 X-6.729 Y-2.410
G1 X-6.771 Y-2.365
G1 X-6.977 Y-2.248
G1 X-7.259 Y-2.158
G1 X-7.316 Y-2.147
G1 X-7.684 Y-2.117
G1 X-8.053 Y-2.150
G1 X-8.278 Y-2.199
G1 X-8.481 Y-2.263
G1 X-8.726 Y-2.365
G1 X-8.996 Y-2.515
G1 X-9.233 Y-2.680
G1 X-9.436 Y-2.883
G1 X-9.564 Y-3.071
G1 X-9.583 Y-3.124
G1 X-9.586 Y-3.180
G1 X-9.477 Y-3.519
G1 X-9.477 Y-3.519
G1 X-9.410 Y-3.624
G1 X-9.365 Y-3.665
G1 X-9.338 Y-3.680
G0 X-9.312 Y-3.684
G0 X-9.203 Y-3.662
G0 X-6.876 Y-2.699
G1 X-6.842 Y-2.680
G1 X-6.744 Y-2.635
G1 X-6.703 Y-2.590
G1 X-6.677 Y-2.508
G1 X-6.684 Y-2.391
G1 X-6.684 Y-2.391
G1 X-6.756 Y-2.222
G1 X-6.857 Y-2.068
G1 X-7.056 Y-1.936
G1 X-7.391 Y-1.816
G1 X-7.759 Y-1.771
G1 X-8.128 Y-1.786
G1 X-8.353 Y-1.820
G1 X-8.571 Y-1.876
G1 X-8.816 Y-1.966
G1 X-9.083 Y-2.094
G1 X-9.335 Y-2.263
G1 X-9.560 Y-2.470
G1 X-9.695 Y-2.654
G1 X-9.711 Y-2.711
G1 X-9.711 Y-2.767
G1 X-9.613 Y-3.105
G1 X-9.613 Y-3.105
G1 X-9.545 Y-3.211
G1 X-9.474 Y-3.267
G0 X-9.447 Y-3.274
G0 X-9.335 Y-3.252
G0 X-6.966 Y-2.402
G1 X-6.929 Y-2.391
G1 X-6.835 Y-2.346
G1 X-6.793 Y-2.305
G1 X-6.763 Y-2.222
G1 X-6.774 Y-2.105
G1 X-6.774 Y-2.105
G1 X-6.861 Y-1.876
G1 X-6.925 Y-1.774
G1 X-6.966 Y-1.729
G1 X-7.165 Y-1.598
G1 X-7.436 Y-1.489
G1 X-7.801 Y-1.421
G1 X-8.169 Y-1.417
G1 X-8.406 Y-1.444
G1 X-8.620 Y-1.485
G1 X-8.876 Y-1.564
G1 X-9.150 Y-1.680
G1 X-9.398 Y-1.831
G1 X-9.632 Y-2.008
G1 X-9.748 Y-2.135
G1 X-9.808 Y-2.237
G1 X-9.820 Y-2.293
G1 X-9.729 Y-2.688
G1 X-9.729 Y-2.688
G1 X-9.669 Y-2.793
G1 X-9.602 Y-2.853
G0 X-9.575 Y-2.861
G0 X-9.462 Y-2.846
G0 X-7.068 Y-2.105
G1 X-7.026 Y-2.094
G1 X-6.929 Y-2.056
G1 X-6.883 Y-2.015
G1 X-6.850 Y-1.932
G1 X-6.850 Y-1.816
G1 X-6.850 Y-1.816
G1 X-6.955 Y-1.530
G1 X-7.023 Y-1.432
G1 X-7.222 Y-1.301
G1 X-7.496 Y-1.188
G1 X-7.853 Y-1.094
G1 X-8.222 Y-1.064
G1 X-8.508 Y-1.086
G1 X-8.722 Y-1.124
G1 X-8.944 Y-1.188
G1 X-9.199 Y-1.286
G1 X-9.477 Y-1.425
G1 X-9.726 Y-1.605
G1 X-9.876 Y-1.778
G1 X-9.902 Y-1.831
G1 X-9.914 Y-1.887
G1 X-9.842 Y-2.226
G1 X-9.842 Y-2.226
G1 X-9.789 Y-2.338
G1 X-9.726 Y-2.398
G0 X-9.699 Y-2.410
G0 X-9.586 Y-2.398
G0 X-7.147 Y-1.793
G1 X-7.105 Y-1.786
G1 X-7.008 Y-1.752
G1 X-6.959 Y-1.711
G1 X-6.921 Y-1.613
G1 X-6.914 Y-1.523
G1 X-6.914 Y-1.523
G1 X-6.989 Y-1.286
G1 X-7.049 Y-1.180
G1 X-7.282 Y-0.996
G1 X-7.549 Y-0.868
G1 X-7.902 Y-0.759
G1 X-8.271 Y-0.714
G1 X-8.545 Y-0.726
G1 X-8.744 Y-0.752
G1 X-8.959 Y-0.797
G1 X-9.252 Y-0.891
G1 X-9.560 Y-1.034
G1 X-9.793 Y-1.211
G1 X-9.951 Y-1.380
G1 X-9.974 Y-1.432
G1 X-9.940 Y-1.714
G1 X-9.940 Y-1.714
G1 X-9.876 Y-1.853
G1 X-9.835 Y-1.895
G0 X-9.812 Y-1.906
G0 X-9.699 Y-1.906
G0 X-7.203 Y-1.485
G1 X-7.162 Y-1.481
G1 X-7.060 Y-1.455
G1 X-7.011 Y-1.414
G1 X-6.974 Y-1.320
G1 X-6.966 Y-1.229
G1 X-6.966 Y-1.229
G1 X-7.008 Y-1.049
G1 X-7.056 Y-0.936
G1 X-7.090 Y-0.883
G1 X-7.271 Y-0.726
G1 X-7.579 Y-0.553
G1 X-7.929 Y-0.425
G1 X-8.293 Y-0.365
G1 X-8.560 Y-0.361
G1 X-8.759 Y-0.380
G1 X-8.974 Y-0.417
G1 X-9.271 Y-0.500
G1 X-9.579 Y-0.628
G1 X-9.812 Y-0.774
G1 X-9.970 Y-0.936
G1 X-10.004 Y-0.985
G1 X-10.023 Y-1.041
G1 X-9.989 Y-1.380
G1 X-9.989 Y-1.380
G1 X-9.925 Y-1.519
G1 X-9.883 Y-1.560
G0 X-9.861 Y-1.571
G0 X-9.744 Y-1.575
G0 X-7.237 Y-1.241
G1 X-7.195 Y-1.237
G1 X-7.094 Y-1.214
G1 X-7.045 Y-1.173
G1 X-7.008 Y-1.079
G1 X-7.000 Y-0.989
G1 X-7.000 Y-0.989
G1 X-7.049 Y-0.748
G1 X-7.090 Y-0.635
G1 X-7.120 Y-0.583
G1 X-7.297 Y-0.417
G1 X-7.549 Y-0.256
G1 X-7.887 Y-0.105
G1 X-8.248 Y-0.023
G1 X-8.504 Y-0.004
G1 X-8.695 Y-0.004
G1 X-8.940 Y-0.026
G1 X-9.241 Y-0.090
G1 X-9.523 Y-0.184
G1 X-9.767 Y-0.320
G1 X-9.940 Y-0.466
G1 X-10.015 Y-0.553
G1 X-10.060 Y-0.662
G1 X-10.030 Y-1.000
G1 X-10.030 Y-1.000
G1 X-9.989 Y-1.113
G1 X-9.929 Y-1.180
G0 X-9.906 Y-1.192
G0 X-9.793 Y-1.199
G0 X-7.293 Y-0.940
G1 X-7.252 Y-0.936
G1 X-7.150 Y-0.917
G1 X-7.098 Y-0.883
G1 X-7.053 Y-0.808
G1 X-7.034 Y-0.692
G1 X-7.034 Y-0.692
G1 X-7.075 Y-0.451
G1 X-7.117 Y-0.335
G1 X-7.184 Y-0.237
G1 X-7.312 Y-0.109
G1 X-7.556 Y0.060
G1 X-7.887 Y0.226
G1 X-8.244 Y0.327
G1 X-8.470 Y0.357
G1 X-8.662 Y0.368
G1 X-8.925 Y0.353
G1 X-9.214 Y0.305
G1 X-9.489 Y0.229
G1 X-9.744 Y0.109
G1 X-9.970 Y-0.079
G1 X-10.041 Y-0.165
G1 X-10.079 Y-0.274
G1 X-10.068 Y-0.500
G1 X-10.068 Y-0.500
G1 X-10.034 Y-0.617
G1 X-9.981 Y-0.684
G0 X-9.955 Y-0.695
G0 X-9.842 Y-0.711
G0 X-7.327 Y-0.624
G1 X-7.289 Y-0.624
G1 X-7.184 Y-0.613
G1 X-7.132 Y-0.583
G1 X-7.083 Y-0.511
G1 X-7.056 Y-0.395
G1 X-7.056 Y-0.395
G1 X-7.086 Y-0.154
G1 X-7.143 Y0.015
G1 X-7.293 Y0.192
G1 X-7.564 Y0.402
G1 X-7.891 Y0.575
G1 X-8.244 Y0.680
G1 X-8.462 Y0.714
G1 X-8.662 Y0.729
G1 X-8.914 Y0.726
G1 X-9.218 Y0.688
G1 X-9.508 Y0.609
G1 X-9.726 Y0.508
G1 X-9.917 Y0.372
G1 X-10.041 Y0.244
G1 X-10.068 Y0.188
G1 X-10.079 Y0.128
G1 X-10.079 Y-0.218
G1 X-10.079 Y-0.218
G1 X-10.053 Y-0.335
G1 X-10.000 Y-0.406
G0 X-9.977 Y-0.421
G0 X-9.865 Y-0.436
G0 X-7.342 Y-0.320
G1 X-7.305 Y-0.320
G1 X-7.199 Y-0.308
G1 X-7.147 Y-0.278
G1 X-7.094 Y-0.207
G1 X-7.068 Y-0.094
G1 X-7.068 Y-0.094
G1 X-7.083 Y0.135
G1 X-7.128 Y0.305
G1 X-7.188 Y0.402
G1 X-7.342 Y0.575
G1 X-7.526 Y0.718
G1 X-7.850 Y0.898
G1 X-8.195 Y1.026
G1 X-8.436 Y1.075
G1 X-8.643 Y1.102
G1 X-8.906 Y1.105
G1 X-9.188 Y1.075
G1 X-9.455 Y1.011
G1 X-9.673 Y0.925
G1 X-9.966 Y0.718
G1 X-10.008 Y0.677
G1 X-10.041 Y0.624
G1 X-10.064 Y0.568
G1 X-10.079 Y0.207
G1 X-10.079 Y0.207
G1 X-10.053 Y0.079
G1 X-10.000 Y0.004
G0 X-9.977 Y-0.008
G0 X-9.865 Y-0.023
G0 X-7.353 Y0.026
G1 X-7.316 Y0.030
G1 X-7.211 Y0.038
G1 X-7.154 Y0.068
G1 X-7.098 Y0.139
G1 X-7.064 Y0.263
G1 X-7.064 Y0.263
G1 X-7.075 Y0.489
G1 X-7.102 Y0.602
G1 X-7.124 Y0.654
G1 X-7.301 Y0.876
G1 X-7.519 Y1.060
G1 X-7.835 Y1.252
G1 X-8.180 Y1.387
G1 X-8.402 Y1.440
G1 X-8.605 Y1.470
G1 X-8.865 Y1.481
G1 X-9.147 Y1.462
G1 X-9.425 Y1.402
G1 X-9.692 Y1.297
G1 X-9.936 Y1.124
G1 X-9.981 Y1.083
G1 X-10.015 Y1.030
G1 X-10.034 Y0.974
G1 X-10.064 Y0.613
G1 X-10.064 Y0.613
G1 X-10.041 Y0.485
G1 X-9.996 Y0.406
G0 X-9.974 Y0.391
G0 X-9.861 Y0.368
G0 X-7.338 Y0.335
G1 X-7.301 Y0.335
G1 X-7.195 Y0.342
G1 X-7.139 Y0.368
G1 X-7.083 Y0.440
G1 X-7.049 Y0.564
G1 X-7.049 Y0.564
G1 X-7.049 Y0.789
G1 X-7.068 Y0.902
G1 X-7.086 Y0.955
G1 X-7.256 Y1.188
G1 X-7.470 Y1.383
G1 X-7.778 Y1.590
G1 X-8.117 Y1.737
G1 X-8.331 Y1.797
G1 X-8.526 Y1.835
G1 X-8.782 Y1.857
G1 X-9.075 Y1.846
G1 X-9.342 Y1.797
G1 X-9.564 Y1.733
G1 X-9.820 Y1.586
G1 X-9.914 Y1.511
G1 X-9.981 Y1.414
G1 X-10.019 Y1.113
G1 X-10.019 Y1.113
G1 X-10.004 Y0.985
G1 X-9.962 Y0.902
G0 X-9.940 Y0.887
G0 X-9.831 Y0.857
G0 X-7.320 Y0.650
G1 X-7.282 Y0.650
G1 X-7.173 Y0.647
G1 X-7.117 Y0.673
G1 X-7.056 Y0.741
G1 X-7.015 Y0.861
G1 X-7.015 Y0.861
G1 X-7.000 Y1.030
G1 X-7.015 Y1.199
G1 X-7.053 Y1.308
G1 X-7.218 Y1.541
G1 X-7.387 Y1.703
G1 X-7.684 Y1.921
G1 X-8.019 Y2.079
G1 X-8.233 Y2.150
G1 X-8.440 Y2.199
G1 X-8.707 Y2.226
G1 X-8.966 Y2.229
G1 X-9.263 Y2.199
G1 X-9.530 Y2.120
G1 X-9.741 Y2.008
G1 X-9.838 Y1.936
G1 X-9.914 Y1.846
G1 X-9.932 Y1.786
G1 X-9.974 Y1.485
G1 X-9.974 Y1.481
G1 X-9.962 Y1.353
G1 X-9.925 Y1.271
G0 X-9.902 Y1.252
G0 X-9.793 Y1.218
G0 X-7.282 Y0.955
G1 X-7.244 Y0.951
G1 X-7.135 Y0.947
G1 X-7.079 Y0.970
G1 X-7.019 Y1.038
G1 X-6.977 Y1.158
G1 X-6.977 Y1.158
G1 X-6.959 Y1.440
G1 X-6.970 Y1.553
G1 X-6.985 Y1.609
G1 X-7.139 Y1.853
G1 X-7.301 Y2.023
G1 X-7.590 Y2.252
G1 X-7.917 Y2.425
G1 X-8.128 Y2.500
G1 X-8.320 Y2.549
G1 X-8.571 Y2.594
G1 X-8.887 Y2.613
G1 X-9.192 Y2.586
G1 X-9.425 Y2.530
G1 X-9.692 Y2.398
G1 X-9.786 Y2.327
G1 X-9.823 Y2.278
G1 X-9.917 Y1.861
G1 X-9.917 Y1.861
G1 X-9.914 Y1.733
G1 X-9.880 Y1.647
G0 X-9.861 Y1.628
G0 X-9.752 Y1.594
G0 X-7.244 Y1.320
G1 X-7.203 Y1.316
G1 X-7.098 Y1.312
G1 X-7.041 Y1.331
G1 X-6.974 Y1.395
G1 X-6.921 Y1.511
G1 X-6.921 Y1.511
G1 X-6.887 Y1.737
G1 X-6.895 Y1.850
G1 X-6.985 Y2.060
G1 X-7.162 Y2.289
G1 X-7.244 Y2.372
G1 X-7.530 Y2.605
G1 X-7.853 Y2.782
G1 X-8.064 Y2.865
G1 X-8.259 Y2.921
G1 X-8.515 Y2.966
G1 X-8.805 Y2.989
G1 X-9.094 Y2.974
G1 X-9.338 Y2.921
G1 X-9.556 Y2.827
G1 X-9.658 Y2.767
G1 X-9.733 Y2.673
G1 X-9.827 Y2.312
G1 X-9.827 Y2.312
G1 X-9.823 Y2.184
G1 X-9.789 Y2.098
G0 X-9.771 Y2.079
G0 X-9.665 Y2.041
G0 X-7.173 Y1.620
G1 X-7.132 Y1.617
G1 X-7.026 Y1.605
G1 X-6.970 Y1.624
G1 X-6.902 Y1.688
G1 X-6.850 Y1.805
G1 X-6.850 Y1.805
G1 X-6.812 Y2.030
G1 X-6.823 Y2.199
G1 X-6.914 Y2.410
G1 X-7.124 Y2.680
G1 X-7.402 Y2.925
G1 X-7.718 Y3.117
G1 X-7.921 Y3.207
G1 X-8.120 Y3.274
G1 X-8.380 Y3.335
G1 X-8.669 Y3.365
G1 X-8.944 Y3.357
G1 X-9.180 Y3.327
G1 X-9.402 Y3.248
G1 X-9.556 Y3.158
G1 X-9.632 Y3.064
G1 X-9.726 Y2.707
G1 X-9.726 Y2.707
G1 X-9.729 Y2.579
G1 X-9.703 Y2.492
G0 X-9.684 Y2.470
G0 X-9.579 Y2.429
G0 X-7.102 Y1.921
G1 X-7.060 Y1.914
G1 X-6.955 Y1.902
G1 X-6.898 Y1.917
G1 X-6.831 Y1.981
G1 X-6.778 Y2.098
G1 X-6.778 Y2.098
G1 X-6.718 Y2.380
G1 X-6.714 Y2.436
G1 X-6.737 Y2.549
G1 X-6.865 Y2.805
G1 X-7.008 Y2.989
G1 X-7.274 Y3.244
G1 X-7.583 Y3.451
G1 X-7.797 Y3.553
G1 X-7.981 Y3.624
G1 X-8.237 Y3.692
G1 X-8.511 Y3.733
G1 X-8.801 Y3.744
G1 X-9.075 Y3.707
G1 X-9.244 Y3.650
G1 X-9.402 Y3.575
G1 X-9.447 Y3.534
G1 X-9.481 Y3.485
G1 X-9.602 Y3.147
G1 X-9.602 Y3.147
G1 X-9.617 Y3.019
G1 X-9.605 Y2.959
G1 X-9.594 Y2.932
G0 X-9.575 Y2.910
G0 X-9.474 Y2.865
G0 X-7.026 Y2.229
G1 X-6.989 Y2.222
G1 X-6.883 Y2.203
G1 X-6.823 Y2.214
G1 X-6.752 Y2.271
G1 X-6.684 Y2.380
G1 X-6.684 Y2.380
G1 X-6.609 Y2.662
G1 X-6.609 Y2.774
G1 X-6.680 Y2.992
G1 X-6.868 Y3.282
G1 X-7.120 Y3.549
G1 X-7.417 Y3.767
G1 X-7.624 Y3.880
G1 X-7.808 Y3.962
G1 X-8.060 Y4.041
G1 X-8.342 Y4.094
G1 X-8.613 Y4.117
G1 X-8.883 Y4.098
G1 X-9.109 Y4.038
G1 X-9.218 Y3.992
G1 X-9.267 Y3.962
G1 X-9.342 Y3.872
G1 X-9.466 Y3.530
G1 X-9.466 Y3.530
G1 X-9.481 Y3.402
G1 X-9.459 Y3.316
G0 X-9.440 Y3.293
G0 X-9.338 Y3.244
G0 X-6.921 Y2.523
G1 X-6.880 Y2.511
G1 X-6.778 Y2.489
G1 X-6.718 Y2.496
G1 X-6.647 Y2.553
G1 X-6.579 Y2.662
G1 X-6.579 Y2.662
G1 X-6.496 Y2.944
G1 X-6.485 Y3.056
G1 X-6.489 Y3.113
G1 X-6.624 Y3.432
G1 X-6.722 Y3.579
G1 X-6.970 Y3.853
G1 X-7.256 Y4.086
G1 X-7.470 Y4.214
G1 X-7.654 Y4.305
G1 X-7.902 Y4.395
G1 X-8.173 Y4.459
G1 X-8.447 Y4.492
G1 X-8.718 Y4.481
G1 X-8.944 Y4.425
G1 X-9.056 Y4.380
G1 X-9.105 Y4.350
G1 X-9.147 Y4.308
G1 X-9.274 Y4.030
G1 X-9.274 Y4.030
G1 X-9.293 Y3.902
G1 X-9.274 Y3.816
G0 X-9.259 Y3.793
G0 X-9.162 Y3.737
G0 X-6.801 Y2.883
G1 X-6.763 Y2.872
G1 X-6.662 Y2.842
G1 X-6.602 Y2.850
G1 X-6.526 Y2.895
G1 X-6.447 Y2.996
G1 X-6.447 Y2.996
G1 X-6.372 Y3.222
G1 X-6.353 Y3.335
G1 X-6.353 Y3.391
G1 X-6.447 Y3.662
G1 X-6.590 Y3.910
G1 X-6.831 Y4.192
G1 X-7.113 Y4.429
G1 X-7.323 Y4.560
G1 X-7.511 Y4.650
G1 X-7.733 Y4.741
G1 X-8.041 Y4.823
G1 X-8.331 Y4.857
G1 X-8.624 Y4.842
G1 X-8.793 Y4.801
G1 X-8.906 Y4.756
G1 X-8.951 Y4.718
G1 X-8.989 Y4.669
G1 X-9.143 Y4.338
G1 X-9.143 Y4.338
G1 X-9.162 Y4.211
G1 X-9.147 Y4.124
G0 X-9.128 Y4.102
G0 X-9.030 Y4.045
G0 X-6.677 Y3.158
G1 X-6.639 Y3.147
G1 X-6.538 Y3.117
G1 X-6.477 Y3.124
G1 X-6.402 Y3.169
G1 X-6.327 Y3.271
G1 X-6.327 Y3.271
G1 X-6.237 Y3.489
G1 X-6.211 Y3.602
G1 X-6.211 Y3.714
G1 X-6.274 Y3.932
G1 X-6.406 Y4.188
G1 X-6.632 Y4.481
G1 X-6.906 Y4.729
G1 X-7.102 Y4.865
G1 X-7.286 Y4.974
G1 X-7.538 Y5.083
G1 X-7.805 Y5.165
G1 X-8.086 Y5.214
G1 X-8.327 Y5.229
G1 X-8.553 Y5.199
G1 X-8.665 Y5.165
G1 X-8.763 Y5.098
G1 X-8.962 Y4.726
G1 X-8.962 Y4.726
G1 X-8.989 Y4.598
G1 X-8.977 Y4.511
G0 X-8.962 Y4.489
G0 X-8.868 Y4.425
G0 X-6.549 Y3.447
G1 X-6.515 Y3.432
G1 X-6.414 Y3.398
G1 X-6.353 Y3.398
G1 X-6.274 Y3.444
G1 X-6.192 Y3.538
G1 X-6.192 Y3.538
G1 X-6.090 Y3.756
G1 X-6.056 Y3.868
G1 X-6.049 Y3.925
G1 X-6.071 Y4.094
G1 X-6.150 Y4.312
G1 X-6.229 Y4.470
G1 X-6.444 Y4.771
G1 X-6.707 Y5.030
G1 X-6.891 Y5.169
G1 X-7.064 Y5.278
G1 X-7.301 Y5.395
G1 X-7.571 Y5.496
G1 X-7.865 Y5.560
G1 X-8.162 Y5.583
G1 X-8.387 Y5.553
G1 X-8.444 Y5.538
G1 X-8.545 Y5.477
G1 X-8.703 Y5.222
G1 X-8.729 Y5.165
G1 X-8.729 Y5.165
G1 X-8.763 Y5.041
G1 X-8.756 Y4.955
G0 X-8.744 Y4.929
G0 X-8.650 Y4.865
G0 X-6.372 Y3.774
G1 X-6.335 Y3.756
G1 X-6.237 Y3.718
G1 X-6.177 Y3.722
G1 X-6.098 Y3.759
G1 X-6.015 Y3.853
G1 X-6.015 Y3.853
G1 X-5.914 Y4.064
G1 X-5.883 Y4.177
G1 X-5.914 Y4.402
G1 X-6.011 Y4.673
G1 X-6.233 Y5.041
G1 X-6.481 Y5.316
G1 X-6.665 Y5.470
G1 X-6.842 Y5.586
G1 X-7.049 Y5.699
G1 X-7.320 Y5.816
G1 X-7.609 Y5.898
G1 X-7.880 Y5.932
G1 X-8.162 Y5.914
G1 X-8.218 Y5.902
G1 X-8.271 Y5.876
G1 X-8.320 Y5.838
G1 X-8.489 Y5.590
G1 X-8.489 Y5.590
G1 X-8.530 Y5.466
G1 X-8.526 Y5.376
G0 X-8.511 Y5.353
G0 X-8.425 Y5.282
G0 X-6.222 Y4.060
G1 X-6.188 Y4.038
G1 X-6.090 Y3.996
G1 X-6.030 Y3.989
G1 X-5.944 Y4.023
G1 X-5.853 Y4.105
G1 X-5.853 Y4.105
G1 X-5.741 Y4.312
G1 X-5.703 Y4.425
G1 X-5.695 Y4.481
G1 X-5.744 Y4.763
G1 X-5.823 Y4.977
G1 X-6.004 Y5.301
G1 X-6.241 Y5.586
G1 X-6.414 Y5.741
G1 X-6.571 Y5.865
G1 X-6.797 Y6.004
G1 X-7.068 Y6.132
G1 X-7.338 Y6.229
G1 X-7.673 Y6.282
G1 X-7.955 Y6.263
G1 X-8.011 Y6.244
G1 X-8.060 Y6.214
G1 X-8.263 Y5.921
G1 X-8.263 Y5.921
G1 X-8.308 Y5.801
G1 X-8.308 Y5.711
G0 X-8.297 Y5.688
G0 X-8.214 Y5.613
G0 X-6.056 Y4.312
G1 X-6.019 Y4.293
G1 X-5.925 Y4.244
G1 X-5.865 Y4.241
G1 X-5.778 Y4.271
G1 X-5.688 Y4.353
G1 X-5.688 Y4.353
G1 X-5.541 Y4.613
G1 X-5.511 Y4.726
G1 X-5.523 Y4.951
G1 X-5.605 Y5.229
G1 X-5.805 Y5.605
G1 X-6.034 Y5.895
G1 X-6.199 Y6.053
G1 X-6.361 Y6.184
G1 X-6.579 Y6.327
G1 X-6.838 Y6.459
G1 X-7.120 Y6.568
G1 X-7.398 Y6.624
G1 X-7.624 Y6.628
G1 X-7.680 Y6.620
G1 X-7.737 Y6.602
G1 X-7.786 Y6.568
G1 X-8.011 Y6.278
G1 X-8.011 Y6.278
G1 X-8.064 Y6.162
G1 X-8.071 Y6.071
G0 X-8.060 Y6.049
G0 X-7.977 Y5.970
G0 X-5.876 Y4.571
G1 X-5.842 Y4.549
G1 X-5.752 Y4.496
G1 X-5.692 Y4.489
G1 X-5.605 Y4.515
G1 X-5.511 Y4.598
G1 X-5.511 Y4.598
G1 X-5.376 Y4.793
G1 X-5.327 Y4.898
G1 X-5.305 Y5.011
G1 X-5.316 Y5.237
G1 X-5.395 Y5.519
G1 X-5.556 Y5.850
G1 X-5.774 Y6.150
G1 X-5.929 Y6.316
G1 X-6.090 Y6.459
G1 X-6.301 Y6.613
G1 X-6.553 Y6.759
G1 X-6.827 Y6.880
G1 X-7.158 Y6.955
G1 X-7.383 Y6.959
G1 X-7.440 Y6.947
G1 X-7.492 Y6.921
G1 X-7.722 Y6.650
G1 X-7.722 Y6.650
G1 X-7.774 Y6.534
G1 X-7.782 Y6.444
G0 X-7.771 Y6.417
G0 X-7.695 Y6.335
G0 X-5.684 Y4.823
G1 X-5.654 Y4.797
G1 X-5.564 Y4.741
G1 X-5.508 Y4.729
G1 X-5.421 Y4.756
G1 X-5.323 Y4.831
G1 X-5.323 Y4.831
G1 X-5.180 Y5.023
G1 X-5.124 Y5.128
G1 X-5.094 Y5.241
G1 X-5.094 Y5.466
G1 X-5.139 Y5.692
G1 X-5.308 Y6.086
G1 X-5.508 Y6.398
G1 X-5.677 Y6.590
G1 X-5.827 Y6.741
G1 X-6.041 Y6.910
G1 X-6.282 Y7.060
G1 X-6.541 Y7.184
G1 X-6.808 Y7.263
G1 X-7.090 Y7.278
G1 X-7.147 Y7.267
G1 X-7.203 Y7.244
G1 X-7.481 Y6.940
G1 X-7.481 Y6.936
G1 X-7.538 Y6.823
G1 X-7.545 Y6.733
G0 X-7.538 Y6.707
G0 X-7.462 Y6.624
G0 X-5.455 Y5.105
G1 X-5.425 Y5.079
G1 X-5.335 Y5.023
G1 X-5.274 Y5.011
G1 X-5.188 Y5.030
G1 X-5.090 Y5.105
G1 X-5.090 Y5.105
G1 X-4.944 Y5.293
G1 X-4.887 Y5.398
G1 X-4.868 Y5.455
G1 X-4.861 Y5.737
G1 X-4.921 Y6.019
G1 X-5.060 Y6.361
G1 X-5.256 Y6.677
G1 X-5.417 Y6.872
G1 X-5.568 Y7.023
G1 X-5.756 Y7.180
G1 X-6.011 Y7.353
G1 X-6.286 Y7.496
G1 X-6.680 Y7.586
G1 X-6.793 Y7.590
G1 X-6.850 Y7.579
G1 X-6.902 Y7.556
G1 X-7.192 Y7.263
G1 X-7.192 Y7.263
G1 X-7.256 Y7.154
G1 X-7.271 Y7.064
G0 X-7.267 Y7.038
G0 X-7.192 Y6.951
G0 X-5.252 Y5.342
G1 X-5.222 Y5.316
G1 X-5.135 Y5.256
G1 X-5.075 Y5.241
G1 X-4.989 Y5.256
G1 X-4.883 Y5.323
G1 X-4.883 Y5.323
G1 X-4.726 Y5.504
G1 X-4.662 Y5.605
G1 X-4.639 Y5.662
G1 X-4.613 Y5.944
G1 X-4.654 Y6.226
G1 X-4.778 Y6.575
G1 X-4.959 Y6.898
G1 X-5.105 Y7.090
G1 X-5.244 Y7.244
G1 X-5.440 Y7.429
G1 X-5.688 Y7.613
G1 X-5.951 Y7.752
G1 X-6.162 Y7.842
G1 X-6.387 Y7.887
G1 X-6.500 Y7.887
G1 X-6.556 Y7.868
G1 X-6.827 Y7.628
G1 X-6.827 Y7.628
G1 X-6.898 Y7.523
G1 X-6.917 Y7.462
G1 X-6.917 Y7.436
G0 X-6.914 Y7.410
G0 X-6.846 Y7.316
G0 X-5.030 Y5.575
G1 X-5.004 Y5.549
G1 X-4.921 Y5.481
G1 X-4.865 Y5.459
G1 X-4.778 Y5.470
G1 X-4.669 Y5.530
G1 X-4.669 Y5.530
G1 X-4.504 Y5.699
G1 X-4.432 Y5.797
G1 X-4.387 Y5.906
G1 X-4.357 Y6.132
G1 X-4.372 Y6.357
G1 X-4.489 Y6.767
G1 X-4.650 Y7.098
G1 X-4.793 Y7.308
G1 X-4.925 Y7.470
G1 X-5.094 Y7.643
G1 X-5.327 Y7.838
G1 X-5.602 Y8.019
G1 X-5.868 Y8.128
G1 X-6.094 Y8.177
G1 X-6.150 Y8.180
G1 X-6.207 Y8.165
G1 X-6.530 Y7.906
G1 X-6.530 Y7.906
G1 X-6.602 Y7.801
G1 X-6.620 Y7.714
G0 X-6.617 Y7.688
G0 X-6.549 Y7.594
G0 X-4.759 Y5.820
G1 X-4.729 Y5.789
G1 X-4.650 Y5.722
G1 X-4.594 Y5.703
G1 X-4.508 Y5.711
G1 X-4.398 Y5.771
G1 X-4.398 Y5.771
G1 X-4.226 Y5.940
G1 X-4.158 Y6.041
G1 X-4.135 Y6.094
G1 X-4.094 Y6.376
G1 X-4.113 Y6.658
G1 X-4.211 Y7.015
G1 X-4.368 Y7.350
G1 X-4.496 Y7.553
G1 X-4.632 Y7.729
G1 X-4.805 Y7.914
G1 X-5.026 Y8.109
G1 X-5.331 Y8.312
G1 X-5.598 Y8.417
G1 X-5.767 Y8.451
G1 X-5.823 Y8.447
G1 X-5.880 Y8.432
G1 X-6.165 Y8.211
G1 X-6.165 Y8.211
G1 X-6.237 Y8.109
G1 X-6.259 Y8.023
G0 X-6.256 Y7.996
G0 X-6.195 Y7.902
G0 X-4.519 Y6.015
G1 X-4.492 Y5.989
G1 X-4.414 Y5.914
G1 X-4.361 Y5.895
G1 X-4.274 Y5.902
G1 X-4.165 Y5.962
G1 X-4.165 Y5.962
G1 X-3.985 Y6.120
G1 X-3.883 Y6.267
G1 X-3.823 Y6.549
G1 X-3.827 Y6.831
G1 X-3.906 Y7.192
G1 X-4.045 Y7.534
G1 X-4.154 Y7.729
G1 X-4.271 Y7.902
G1 X-4.436 Y8.098
G1 X-4.662 Y8.316
G1 X-4.914 Y8.500
G1 X-5.184 Y8.643
G1 X-5.410 Y8.703
G1 X-5.466 Y8.703
G1 X-5.523 Y8.692
G1 X-5.865 Y8.447
G1 X-5.865 Y8.447
G1 X-5.944 Y8.346
G1 X-5.970 Y8.259
G0 X-5.970 Y8.233
G0 X-5.910 Y8.135
G0 X-4.278 Y6.222
G1 X-4.256 Y6.192
G1 X-4.180 Y6.117
G1 X-4.128 Y6.094
G1 X-4.011 Y6.102
G1 X-3.925 Y6.139
G1 X-3.925 Y6.139
G1 X-3.695 Y6.335
G1 X-3.624 Y6.429
G1 X-3.568 Y6.594
G1 X-3.530 Y6.876
G1 X-3.534 Y6.989
G1 X-3.602 Y7.353
G1 X-3.722 Y7.703
G1 X-3.835 Y7.932
G1 X-3.947 Y8.120
G1 X-4.120 Y8.335
G1 X-4.293 Y8.515
G1 X-4.515 Y8.695
G1 X-4.793 Y8.865
G1 X-5.011 Y8.940
G1 X-5.068 Y8.951
G1 X-5.124 Y8.947
G1 X-5.180 Y8.925
G1 X-5.477 Y8.726
G1 X-5.477 Y8.726
G1 X-5.564 Y8.632
G1 X-5.598 Y8.549
G0 X-5.594 Y8.523
G0 X-5.545 Y8.421
G0 X-4.026 Y6.410
G1 X-4.000 Y6.380
G1 X-3.932 Y6.301
G1 X-3.880 Y6.271
G1 X-3.789 Y6.267
G1 X-3.677 Y6.308
G1 X-3.677 Y6.308
G1 X-3.432 Y6.489
G1 X-3.353 Y6.575
G1 X-3.323 Y6.628
G1 X-3.259 Y6.853
G1 X-3.237 Y7.135
G1 X-3.278 Y7.504
G1 X-3.383 Y7.857
G1 X-3.474 Y8.064
G1 X-3.575 Y8.248
G1 X-3.722 Y8.462
G1 X-3.910 Y8.684
G1 X-4.132 Y8.895
G1 X-4.414 Y9.079
G1 X-4.628 Y9.169
G1 X-4.684 Y9.180
G1 X-4.741 Y9.177
G1 X-5.098 Y8.974
G1 X-5.098 Y8.974
G1 X-5.184 Y8.887
G1 X-5.222 Y8.808
G0 X-5.222 Y8.778
G0 X-5.177 Y8.677
G0 X-3.718 Y6.609
G1 X-3.692 Y6.579
G1 X-3.624 Y6.496
G1 X-3.575 Y6.466
G1 X-3.485 Y6.459
G1 X-3.372 Y6.500
G1 X-3.372 Y6.500
G1 X-3.128 Y6.673
G1 X-3.049 Y6.763
G1 X-2.981 Y6.929
G1 X-2.925 Y7.211
G1 X-2.921 Y7.323
G1 X-2.959 Y7.692
G1 X-3.056 Y8.049
G1 X-3.147 Y8.267
G1 X-3.248 Y8.459
G1 X-3.391 Y8.680
G1 X-3.586 Y8.925
G1 X-3.944 Y9.233
G1 X-4.195 Y9.368
G1 X-4.248 Y9.387
G1 X-4.305 Y9.395
G1 X-4.361 Y9.387
G1 X-4.677 Y9.222
G1 X-4.677 Y9.222
G1 X-4.767 Y9.139
G1 X-4.808 Y9.060
G0 X-4.808 Y9.034
G0 X-4.767 Y8.929
G0 X-3.444 Y6.782
G1 X-3.425 Y6.748
G1 X-3.365 Y6.662
G1 X-3.312 Y6.628
G1 X-3.226 Y6.617
G1 X-3.113 Y6.647
G1 X-3.113 Y6.647
G1 X-2.861 Y6.812
G1 X-2.774 Y6.898
G1 X-2.695 Y7.060
G1 X-2.624 Y7.342
G1 X-2.609 Y7.455
G1 X-2.628 Y7.823
G1 X-2.711 Y8.184
G1 X-2.786 Y8.395
G1 X-2.876 Y8.590
G1 X-3.000 Y8.808
G1 X-3.188 Y9.068
G1 X-3.414 Y9.297
G1 X-3.602 Y9.451
G1 X-3.805 Y9.556
G1 X-3.914 Y9.586
G1 X-3.970 Y9.583
G1 X-4.286 Y9.432
G1 X-4.286 Y9.432
G1 X-4.395 Y9.323
G1 X-4.421 Y9.267
G0 X-4.421 Y9.241
G0 X-4.383 Y9.135
G0 X-3.124 Y6.959
G1 X-3.102 Y6.921
G1 X-3.041 Y6.835
G1 X-2.992 Y6.801
G1 X-2.906 Y6.789
G1 X-2.793 Y6.816
G1 X-2.793 Y6.816
G1 X-2.586 Y6.936
G1 X-2.492 Y7.015
G1 X-2.425 Y7.113
G1 X-2.323 Y7.391
G1 X-2.286 Y7.617
G1 X-2.297 Y7.985
G1 X-2.368 Y8.350
G1 X-2.440 Y8.571
G1 X-2.526 Y8.774
G1 X-2.654 Y9.004
G1 X-2.820 Y9.241
G1 X-3.098 Y9.545
G1 X-3.338 Y9.711
G1 X-3.444 Y9.759
G1 X-3.556 Y9.767
G1 X-3.936 Y9.602
G1 X-3.936 Y9.602
G1 X-4.030 Y9.523
G1 X-4.075 Y9.444
G0 X-4.079 Y9.417
G0 X-4.041 Y9.308
G0 X-2.846 Y7.090
G1 X-2.827 Y7.053
G1 X-2.771 Y6.966
G1 X-2.722 Y6.929
G1 X-2.635 Y6.917
G1 X-2.523 Y6.944
G1 X-2.523 Y6.944
G1 X-2.305 Y7.049
G1 X-2.207 Y7.120
G1 X-2.132 Y7.211
G1 X-2.030 Y7.425
G1 X-1.959 Y7.707
G1 X-1.951 Y8.075
G1 X-2.004 Y8.440
G1 X-2.064 Y8.662
G1 X-2.135 Y8.857
G1 X-2.244 Y9.090
G1 X-2.414 Y9.372
G1 X-2.695 Y9.695
G1 X-2.974 Y9.891
G1 X-3.026 Y9.917
G1 X-3.139 Y9.932
G1 X-3.474 Y9.801
G1 X-3.474 Y9.801
G1 X-3.571 Y9.726
G1 X-3.620 Y9.654
G0 X-3.624 Y9.624
G0 X-3.594 Y9.519
G0 X-2.511 Y7.241
G1 X-2.492 Y7.203
G1 X-2.444 Y7.113
G1 X-2.395 Y7.075
G1 X-2.308 Y7.056
G1 X-2.192 Y7.079
G1 X-2.192 Y7.079
G1 X-1.974 Y7.184
G1 X-1.876 Y7.256
G1 X-1.774 Y7.402
G1 X-1.662 Y7.677
G1 X-1.632 Y7.789
G1 X-1.605 Y8.158
G1 X-1.635 Y8.508
G1 X-1.680 Y8.729
G1 X-1.744 Y8.932
G1 X-1.835 Y9.165
G1 X-1.996 Y9.466
G1 X-2.184 Y9.718
G1 X-2.350 Y9.895
G1 X-2.586 Y10.060
G1 X-2.643 Y10.079
G1 X-2.699 Y10.083
G1 X-3.038 Y9.970
G1 X-3.038 Y9.970
G1 X-3.143 Y9.902
G1 X-3.195 Y9.827
G0 X-3.199 Y9.801
G0 X-3.177 Y9.692
G0 X-2.214 Y7.372
G1 X-2.195 Y7.338
G1 X-2.150 Y7.241
G1 X-2.105 Y7.199
G1 X-1.992 Y7.169
G1 X-1.906 Y7.177
G1 X-1.906 Y7.177
G1 X-1.677 Y7.267
G1 X-1.575 Y7.331
G1 X-1.466 Y7.470
G1 X-1.387 Y7.628
G1 X-1.320 Y7.853
G1 X-1.274 Y8.222
G1 X-1.286 Y8.590
G1 X-1.331 Y8.853
G1 X-1.387 Y9.056
G1 X-1.470 Y9.286
G1 X-1.605 Y9.564
G1 X-1.812 Y9.880
G1 X-1.970 Y10.049
G1 X-2.158 Y10.188
G1 X-2.214 Y10.203
G1 X-2.271 Y10.207
G1 X-2.496 Y10.143
G1 X-2.496 Y10.143
G1 X-2.602 Y10.083
G1 X-2.662 Y10.015
G0 X-2.669 Y9.989
G0 X-2.654 Y9.876
G0 X-1.906 Y7.462
G1 X-1.895 Y7.421
G1 X-1.857 Y7.323
G1 X-1.816 Y7.282
G1 X-1.733 Y7.252
G1 X-1.617 Y7.263
G1 X-1.617 Y7.263
G1 X-1.387 Y7.350
G1 X-1.286 Y7.414
G1 X-1.211 Y7.504
G1 X-1.079 Y7.767
G1 X-1.026 Y7.936
G1 X-0.955 Y8.301
G1 X-0.947 Y8.669
G1 X-0.977 Y8.940
G1 X-1.030 Y9.154
G1 X-1.094 Y9.357
G1 X-1.207 Y9.628
G1 X-1.376 Y9.925
G1 X-1.598 Y10.188
G1 X-1.737 Y10.293
G1 X-1.793 Y10.312
G1 X-1.850 Y10.312
G1 X-2.188 Y10.229
G1 X-2.188 Y10.229
G1 X-2.293 Y10.169
G1 X-2.353 Y10.102
G0 X-2.361 Y10.075
G0 X-2.346 Y9.962
G0 X-1.620 Y7.560
G1 X-1.609 Y7.519
G1 X-1.571 Y7.421
G1 X-1.530 Y7.376
G1 X-1.447 Y7.342
G1 X-1.331 Y7.346
G1 X-1.331 Y7.346
G1 X-1.154 Y7.398
G1 X-1.045 Y7.455
G1 X-0.996 Y7.492
G1 X-0.887 Y7.635
G1 X-0.759 Y7.902
G1 X-0.639 Y8.316
G1 X-0.605 Y8.684
G1 X-0.620 Y8.966
G1 X-0.654 Y9.177
G1 X-0.711 Y9.398
G1 X-0.808 Y9.669
G1 X-0.944 Y9.951
G1 X-1.113 Y10.192
G1 X-1.286 Y10.346
G1 X-1.335 Y10.380
G1 X-1.391 Y10.395
G1 X-1.617 Y10.365
G1 X-1.729 Y10.338
G1 X-1.729 Y10.338
G1 X-1.838 Y10.286
G1 X-1.902 Y10.222
G0 X-1.910 Y10.195
G0 X-1.902 Y10.083
G0 X-1.316 Y7.635
G1 X-1.308 Y7.598
G1 X-1.274 Y7.496
G1 X-1.237 Y7.451
G1 X-1.154 Y7.417
G1 X-1.038 Y7.414
G1 X-1.038 Y7.414
G1 X-0.805 Y7.492
G1 X-0.703 Y7.560
G1 X-0.590 Y7.699
G1 X-0.447 Y7.959
G1 X-0.308 Y8.368
G1 X-0.256 Y8.737
G1 X-0.259 Y9.008
G1 X-0.282 Y9.211
G1 X-0.327 Y9.436
G1 X-0.414 Y9.718
G1 X-0.541 Y10.008
G1 X-0.695 Y10.237
G1 X-0.910 Y10.429
G1 X-0.962 Y10.451
G1 X-1.019 Y10.462
G1 X-1.357 Y10.410
G1 X-1.357 Y10.410
G1 X-1.470 Y10.365
G1 X-1.530 Y10.305
G0 X-1.541 Y10.278
G0 X-1.538 Y10.165
G0 X-1.064 Y7.695
G1 X-1.056 Y7.654
G1 X-1.030 Y7.553
G1 X-0.992 Y7.504
G1 X-0.917 Y7.466
G1 X-0.801 Y7.455
G1 X-0.801 Y7.455
G1 X-0.564 Y7.511
G1 X-0.455 Y7.564
G1 X-0.406 Y7.602
G1 X-0.222 Y7.835
G1 X-0.117 Y8.045
G1 X0.015 Y8.391
G1 X0.086 Y8.756
G1 X0.094 Y9.049
G1 X0.079 Y9.259
G1 X0.041 Y9.492
G1 X-0.034 Y9.774
G1 X-0.147 Y10.034
G1 X-0.297 Y10.274
G1 X-0.462 Y10.436
G1 X-0.556 Y10.500
G1 X-0.613 Y10.515
G1 X-0.951 Y10.474
G1 X-0.951 Y10.474
G1 X-1.064 Y10.429
G1 X-1.124 Y10.368
G0 X-1.135 Y10.342
G0 X-1.135 Y10.229
G0 X-0.756 Y7.737
G1 X-0.752 Y7.695
G1 X-0.729 Y7.594
G1 X-0.695 Y7.545
G1 X-0.620 Y7.508
G1 X-0.504 Y7.496
G1 X-0.504 Y7.496
G1 X-0.263 Y7.553
G1 X-0.154 Y7.602
G1 X-0.023 Y7.726
G1 X0.211 Y8.056
G1 X0.357 Y8.395
G1 X0.440 Y8.756
G1 X0.459 Y8.970
G1 X0.459 Y9.169
G1 X0.432 Y9.417
G1 X0.376 Y9.707
G1 X0.271 Y10.000
G1 X0.162 Y10.214
G1 X-0.034 Y10.440
G1 X-0.120 Y10.515
G1 X-0.229 Y10.553
G1 X-0.568 Y10.526
G1 X-0.568 Y10.526
G1 X-0.684 Y10.489
G1 X-0.752 Y10.432
G0 X-0.763 Y10.410
G0 X-0.767 Y10.293
G0 X-0.455 Y7.778
G1 X-0.451 Y7.741
G1 X-0.432 Y7.635
G1 X-0.398 Y7.586
G1 X-0.323 Y7.549
G1 X-0.207 Y7.538
G1 X-0.207 Y7.538
G1 X0.086 Y7.594
G1 X0.188 Y7.643
G1 X0.357 Y7.801
G1 X0.526 Y8.034
G1 X0.707 Y8.417
G1 X0.797 Y8.774
G1 X0.823 Y9.011
G1 X0.823 Y9.214
G1 X0.805 Y9.444
G1 X0.752 Y9.744
G1 X0.647 Y10.045
G1 X0.541 Y10.256
G1 X0.350 Y10.481
G1 X0.252 Y10.549
G1 X0.195 Y10.571
G1 X-0.098 Y10.564
G1 X-0.098 Y10.564
G1 X-0.214 Y10.526
G1 X-0.282 Y10.470
G0 X-0.293 Y10.447
G0 X-0.305 Y10.331
G0 X-0.150 Y7.820
G1 X-0.150 Y7.782
G1 X-0.128 Y7.673
G1 X-0.090 Y7.617
G1 X-0.004 Y7.571
G1 X0.086 Y7.560
G1 X0.086 Y7.560
G1 X0.368 Y7.594
G1 X0.477 Y7.632
G1 X0.571 Y7.699
G1 X0.838 Y8.004
G1 X0.872 Y8.053
G1 X1.041 Y8.380
G1 X1.147 Y8.733
G1 X1.177 Y8.940
G1 X1.192 Y9.132
G1 X1.188 Y9.406
G1 X1.150 Y9.714
G1 X1.068 Y10.000
G1 X0.974 Y10.207
G1 X0.835 Y10.398
G1 X0.707 Y10.526
G1 X0.654 Y10.556
G1 X0.598 Y10.575
G1 X0.237 Y10.571
G1 X0.237 Y10.571
G1 X0.109 Y10.541
G1 X0.034 Y10.489
G0 X0.019 Y10.466
G0 X0.008 Y10.353
G0 X0.135 Y7.842
G1 X0.139 Y7.805
G1 X0.154 Y7.699
G1 X0.184 Y7.647
G1 X0.263 Y7.594
G1 X0.387 Y7.568
G1 X0.387 Y7.568
G1 X0.669 Y7.590
G1 X0.778 Y7.620
G1 X0.876 Y7.680
G1 X1.049 Y7.838
G1 X1.188 Y8.023
G1 X1.383 Y8.335
G1 X1.526 Y8.677
G1 X1.571 Y8.955
G1 X1.586 Y9.323
G1 X1.560 Y9.620
G1 X1.489 Y9.944
G1 X1.350 Y10.244
G1 X1.117 Y10.523
G1 X1.064 Y10.553
G1 X1.004 Y10.568
G1 X0.643 Y10.575
G1 X0.643 Y10.575
G1 X0.515 Y10.549
G1 X0.459 Y10.523
G1 X0.436 Y10.500
G0 X0.421 Y10.477
G0 X0.406 Y10.365
G0 X0.504 Y7.842
G1 X0.508 Y7.805
G1 X0.519 Y7.699
G1 X0.549 Y7.643
G1 X0.624 Y7.590
G1 X0.748 Y7.564
G1 X0.748 Y7.564
G1 X0.974 Y7.575
G1 X1.086 Y7.602
G1 X1.139 Y7.624
G1 X1.237 Y7.692
G1 X1.289 Y7.718
G1 X1.402 Y7.744
G1 X1.628 Y7.741
G1 X2.023 Y7.635
G1 X2.338 Y7.474
G1 X2.632 Y7.278
G1 X2.684 Y7.252
G1 X3.184 Y7.075
G1 X3.184 Y7.075
G1 X3.244 Y7.053
G1 X3.305 Y7.045
G1 X3.365 Y7.053
G0 Z5.000
G0 X3.365 Y7.053
G0 X0.868 Y7.613
G1 Z-4.000
G1 X0.868 Y7.613
G1 X0.921 Y7.579
G1 X0.981 Y7.556
G1 X1.045 Y7.549
G1 X1.045 Y7.549
G1 X1.496 Y7.504
G1 X1.496 Y7.504
G1 X1.556 Y7.500
G1 X1.617 Y7.511
G1 X1.673 Y7.534
G1 X1.726 Y7.564
G0 Z5.000
G0 X1.726 Y7.564
G0 X5.992 Y8.936
G1 Z-4.000
G1 X5.992 Y8.936
G1 X5.970 Y8.996
G1 X5.940 Y9.053
G1 X5.898 Y9.102
G1 X5.846 Y9.139
G1 X5.846 Y9.139
G1 X5.665 Y9.158
G1 X5.365 Y9.117
G1 X5.008 Y8.996
G1 X4.680 Y8.816
G1 X4.338 Y8.662
G1 X3.966 Y8.695
G1 X3.759 Y8.763
G1 X3.613 Y8.831
G1 X3.353 Y8.989
G1 X3.086 Y9.199
G1 X2.887 Y9.387
G1 X2.677 Y9.609
G1 X2.188 Y10.169
G1 X1.865 Y10.444
G1 X1.756 Y10.496
G1 X1.094 Y10.560
G1 X1.094 Y10.560
G1 X0.966 Y10.541
G1 X0.910 Y10.519
G1 X0.895 Y10.504
G0 X0.887 Y10.485
G0 X0.947 Y10.414
G0 X3.368 Y8.568
G0 X4.496 Y8.402
G0 X4.677 Y8.459
G0 X5.722 Y8.929
G1 X5.752 Y8.940
G1 X5.835 Y8.981
G1 X5.861 Y9.019
G1 X5.853 Y9.068
G1 X5.782 Y9.158
G1 X5.737 Y9.195
G1 X5.737 Y9.195
G1 X5.511 Y9.286
G1 X5.331 Y9.320
G1 X4.910 Y9.350
G1 X4.549 Y9.425
G1 X3.985 Y9.650
G1 X3.038 Y10.226
G1 X2.868 Y10.301
G1 X1.786 Y10.496
G1 X1.786 Y10.496
G1 X1.658 Y10.485
G1 X1.583 Y10.447
G0 X1.579 Y10.432
G0 X1.643 Y10.372
G0 X2.583 Y9.831
G0 X3.654 Y9.402
G0 X3.970 Y9.226
G0 X5.053 Y8.947
G0 X5.459 Y9.079
G1 X5.485 Y9.090
G1 X5.568 Y9.124
G1 X5.598 Y9.158
G1 X5.590 Y9.207
G1 X5.519 Y9.297
G1 X5.474 Y9.335
G1 X5.474 Y9.335
G1 X4.650 Y9.733
G1 X3.684 Y10.090
G1 X2.970 Y10.282
G1 X2.966 Y10.282
G1 X2.838 Y10.278
G1 X2.778 Y10.263
G1 X2.756 Y10.248
G0 X2.744 Y10.226
G0 X2.756 Y10.124
G0 X3.902 Y7.090
G1 X3.917 Y7.053
G1 X3.962 Y6.936
G1 X4.079 Y6.688
G1 X4.192 Y6.583
G1 X4.192 Y6.583
G1 X4.188 Y6.575
G1 X4.297 Y6.523
G1 X4.767 Y6.222
G1 X5.252 Y5.865
G1 X5.560 Y5.598
G1 X5.853 Y5.320
G1 X6.094 Y5.064
G1 X6.406 Y4.699
G1 X6.628 Y4.406
G1 X6.805 Y4.147
G1 X7.049 Y3.756
G1 X7.218 Y3.440
G1 X7.410 Y3.041
G1 X7.553 Y2.680
G1 X7.771 Y2.023
G1 X7.929 Y1.353
G1 X7.985 Y0.936
G1 X8.041 Y0.293
G1 X8.049 Y-0.113
G1 X8.030 Y-0.455
G1 X7.962 Y-1.109
G1 X7.883 Y-1.571
G1 X7.714 Y-2.222
G1 X7.609 Y-2.534
G1 X7.492 Y-2.838
G1 X7.316 Y-3.241
G1 X7.162 Y-3.553
G1 X6.914 Y-3.977
G1 X6.568 Y-4.485
G1 X6.293 Y-4.831
G1 X6.008 Y-5.158
G1 X5.538 Y-5.620
G1 X5.098 Y-5.985
G1 X4.515 Y-6.391
G1 X4.177 Y-6.586
G1 X3.793 Y-6.789
G1 X3.432 Y-6.951
G1 X2.733 Y-7.207
G1 X1.970 Y-7.402
G1 X1.635 Y-7.459
G1 X1.263 Y-7.504
G1 X0.816 Y-7.538
G1 X0.492 Y-7.545
G1 X0.060 Y-7.534
G1 X-0.301 Y-7.504
G1 X-0.925 Y-7.414
G1 X-1.511 Y-7.274
G1 X-2.241 Y-7.030
G1 X-2.541 Y-6.902
G1 X-2.898 Y-6.733
G1 X-3.274 Y-6.534
G1 X-3.628 Y-6.316
G1 X-3.947 Y-6.094
G1 X-4.256 Y-5.857
G1 X-4.526 Y-5.628
G1 X-4.782 Y-5.387
G1 X-5.075 Y-5.086
G1 X-5.316 Y-4.808
G1 X-5.523 Y-4.545
G1 X-6.011 Y-3.816
G1 X-6.188 Y-3.496
G1 X-6.387 Y-3.083
G1 X-6.635 Y-2.474
G1 X-6.771 Y-2.026
G1 X-6.917 Y-1.406
G1 X-6.985 Y-0.932
G1 X-7.030 Y-0.481
G1 X-7.045 Y-0.019
G1 X-7.015 Y0.662
G1 X-6.906 Y1.470
G1 X-6.692 Y2.305
G1 X-6.455 Y2.921
G1 X-6.192 Y3.489
G1 X-5.883 Y4.030
G1 X-5.489 Y4.590
G1 X-5.263 Y4.868
G1 X-4.932 Y5.237
G1 X-4.421 Y5.718
G1 X-4.105 Y5.977
G1 X-3.598 Y6.335
G1 X-3.466 Y6.417
G1 X-2.823 Y6.774
G1 X-2.387 Y6.974
G1 X-1.805 Y7.188
G1 X-1.361 Y7.312
G1 X-0.910 Y7.414
G1 X-0.132 Y7.519
G1 X0.233 Y7.541
G1 X0.583 Y7.545
G1 X0.951 Y7.530
G1 X1.368 Y7.496
G1 X1.737 Y7.447
G1 X2.530 Y7.271
G1 X2.902 Y7.154
G1 X3.688 Y6.842
G1 X4.192 Y6.583
G1 X4.192 Y6.583
G1 X4.192 Y6.583
G1 X4.338 Y6.549
G1 X4.391 Y6.556
G0 X4.417 Y6.568
G0 X4.489 Y6.654
G0 X5.857 Y8.820
G1 X5.876 Y8.850
G1 X5.936 Y8.959
G1 X5.936 Y9.015
G1 X5.898 Y9.098
G1 X5.812 Y9.188
G1 X5.812 Y9.188
G1 X5.218 Y9.504
G1 X4.609 Y9.778
G1 X3.741 Y10.105
G1 X3.180 Y10.263
G1 X2.594 Y10.391
G1 X2.090 Y10.489
G1 X1.586 Y10.549
G1 X1.090 Y10.590
G1 X0.481 Y10.605
G1 X0.109 Y10.602
G1 X-0.711 Y10.541
G1 X-1.455 Y10.425
G1 X-2.267 Y10.241
G1 X-2.711 Y10.109
G1 X-3.305 Y9.902
G1 X-3.883 Y9.662
G1 X-4.293 Y9.459
G1 X-4.793 Y9.188
G1 X-5.226 Y8.929
G1 X-5.733 Y8.583
G1 X-6.120 Y8.286
G1 X-6.545 Y7.929
G1 X-6.947 Y7.553
G1 X-7.361 Y7.128
G1 X-7.699 Y6.726
G1 X-8.102 Y6.203
G1 X-8.541 Y5.556
G1 X-8.643 Y5.387
G1 X-8.929 Y4.865
G1 X-9.165 Y4.365
G1 X-9.357 Y3.917
G1 X-9.508 Y3.511
G1 X-9.680 Y2.996
G1 X-9.865 Y2.267
G1 X-9.959 Y1.793
G1 X-10.041 Y1.211
G1 X-10.086 Y0.726
G1 X-10.105 Y0.338
G1 X-10.105 Y-0.406
G1 X-10.075 Y-0.887
G1 X-10.011 Y-1.406
G1 X-9.929 Y-1.959
G1 X-9.805 Y-2.530
G1 X-9.654 Y-3.083
G1 X-9.477 Y-3.605
G1 X-9.162 Y-4.380
G1 X-8.771 Y-5.139
G1 X-8.496 Y-5.620
G1 X-8.060 Y-6.267
G1 X-7.617 Y-6.823
G1 X-7.180 Y-7.308
G1 X-6.853 Y-7.639
G1 X-6.429 Y-8.026
G1 X-5.977 Y-8.395
G1 X-5.560 Y-8.703
G1 X-5.056 Y-9.034
G1 X-4.722 Y-9.237
G1 X-4.128 Y-9.545
G1 X-3.624 Y-9.774
G1 X-3.237 Y-9.929
G1 X-2.564 Y-10.154
G1 X-2.120 Y-10.278
G1 X-1.571 Y-10.402
G1 X-1.023 Y-10.500
G1 X-0.500 Y-10.564
G1 X0.109 Y-10.602
G1 X0.586 Y-10.605
G1 X1.038 Y-10.590
G1 X1.737 Y-10.534
G1 X2.267 Y-10.455
G1 X2.789 Y-10.353
G1 X3.301 Y-10.229
G1 X3.974 Y-10.019
G1 X4.688 Y-9.744
G1 X4.891 Y-9.658
G1 X5.320 Y-9.444
G1 X5.902 Y-9.128
G1 X6.222 Y-8.929
G1 X7.015 Y-8.372
G1 X7.233 Y-8.199
G1 X7.650 Y-7.835
G1 X7.992 Y-7.511
G1 X8.421 Y-7.053
G1 X8.714 Y-6.707
G1 X8.981 Y-6.372
G1 X9.662 Y-5.350
G1 X9.914 Y-4.891
G1 X10.154 Y-4.387
G1 X10.391 Y-3.827
G1 X10.575 Y-3.327
G1 X10.695 Y-2.940
G1 X10.838 Y-2.376
G1 X10.932 Y-1.947
G1 X11.023 Y-1.342
G1 X11.098 Y-0.481
G1 X11.109 Y0.019
G1 X11.083 Y0.688
G1 X11.026 Y1.305
G1 X10.906 Y2.071
G1 X10.816 Y2.481
G1 X10.647 Y3.098
G1 X10.530 Y3.455
G1 X10.312 Y4.026
G1 X10.132 Y4.436
G1 X9.861 Y4.992
G1 X9.579 Y5.485
G1 X9.090 Y6.229
G1 X8.665 Y6.778
G1 X8.256 Y7.241
G1 X7.914 Y7.590
G1 X7.508 Y7.966
G1 X6.970 Y8.406
G1 X6.365 Y8.846
G1 X5.812 Y9.188
G1 X5.812 Y9.188
G0 Z5.000
G0 Z5.000
(Finish operation: Out_cont_Z-4mm)
(Block-name: In_empty_rod_Z-2mm)
(Block-expand: 0)
(Block-enable: 1)
(Begin operation: In_empty_rod_Z-2mm)
(Path: In_empty_rod_Z-2mm)
(In_empty_rod_Z-2mm)
(Helix to depth: -2.000000)
G0 Z5.000
G0 X0.738 Y0.000 Z5.000
G0 X0.738 Y0.000 Z3.000
G1 X0.738 Y0.000 Z0.000
G2 X-0.738 Y0.000 Z-0.206 I-0.738
G2 X0.738 Y0.000 Z-0.411 I0.738
G2 X-0.738 Y0.000 Z-0.617 I-0.738
G2 X0.738 Y0.000 Z-0.822 I0.738
G2 X-0.738 Y0.000 Z-1.028 I-0.738
G2 X0.738 Y0.000 Z-1.234 I0.738
G2 X-0.738 Y0.000 Z-1.439 I-0.738
G2 X0.738 Y0.000 Z-1.645 I0.738
G2 X-0.738 Y0.000 Z-1.822 I-0.738
G2 X0.738 Y0.000 Z-2.000 I0.738
G2 X-0.738 Y0.000 Z-2.000 I-0.738
G2 X0.738 Y0.000 Z-2.000 I0.738
(Adaptive - depth: -2.000000)
G1 X0.000 Y-0.748
G1 X0.041 Y-0.789
G1 X0.154 Y-0.820
G1 X0.267 Y-0.820
G1 X0.436 Y-0.774
G1 X0.489 Y-0.748
G1 X0.714 Y-0.594
G1 X0.838 Y-0.432
G1 X0.895 Y-0.316
G1 X0.932 Y-0.188
G1 X0.951 Y-0.041
G1 X0.951 Y0.128
G1 X0.910 Y0.323
G1 X0.842 Y0.477
G1 X0.756 Y0.602
G1 X0.654 Y0.711
G1 X0.515 Y0.820
G1 X0.346 Y0.906
G1 X0.180 Y0.955
G1 X0.019 Y0.970
G1 X-0.132 Y0.962
G1 X-0.305 Y0.925
G1 X-0.470 Y0.853
G1 X-0.613 Y0.756
G1 X-0.726 Y0.647
G1 X-0.831 Y0.511
G1 X-0.914 Y0.346
G1 X-0.959 Y0.180
G1 X-0.977 Y0.019
G1 X-0.966 Y-0.147
G1 X-0.925 Y-0.305
G1 X-0.861 Y-0.455
G1 X-0.763 Y-0.602
G1 X-0.650 Y-0.726
G1 X-0.508 Y-0.842
G1 X-0.342 Y-0.944
G1 X-0.169 Y-1.008
G1 X0.120 Y-1.049
G1 X0.402 Y-1.019
G1 X0.744 Y-0.876
G1 X0.921 Y-0.722
G1 X0.996 Y-0.624
G1 X1.064 Y-0.515
G1 X1.135 Y-0.361
G1 X1.192 Y-0.147
G1 X1.207 Y0.056
G1 X1.192 Y0.229
G1 X1.150 Y0.395
G1 X1.083 Y0.564
G1 X0.977 Y0.741
G1 X0.846 Y0.891
G1 X0.711 Y1.008
G1 X0.545 Y1.109
G1 X0.368 Y1.180
G1 X0.184 Y1.226
G1 X-0.004 Y1.241
G1 X-0.188 Y1.226
G1 X-0.368 Y1.180
G1 X-0.541 Y1.113
G1 X-0.722 Y1.008
G1 X-0.872 Y0.883
G1 X-1.004 Y0.733
G1 X-1.098 Y0.583
G1 X-1.173 Y0.406
G1 X-1.218 Y0.222
G1 X-1.233 Y0.038
G1 X-1.229 Y-0.147
G1 X-1.184 Y-0.357
G1 X-1.117 Y-0.541
G1 X-1.019 Y-0.714
G1 X-0.906 Y-0.857
G1 X-0.767 Y-0.992
G1 X-0.602 Y-1.117
G1 X-0.410 Y-1.214
G1 X-0.218 Y-1.282
G1 X-0.015 Y-1.323
G1 X0.192 Y-1.335
G1 X0.395 Y-1.316
G1 X0.594 Y-1.259
G1 X0.763 Y-1.188
G1 X0.932 Y-1.083
G1 X1.079 Y-0.955
G1 X1.203 Y-0.808
G1 X1.312 Y-0.647
G1 X1.402 Y-0.447
G1 X1.459 Y-0.252
G1 X1.489 Y-0.045
G1 X1.489 Y0.158
G1 X1.459 Y0.361
G1 X1.398 Y0.556
G1 X1.312 Y0.744
G1 X1.203 Y0.917
G1 X1.064 Y1.090
G1 X0.887 Y1.241
G1 X0.718 Y1.346
G1 X0.541 Y1.425
G1 X0.342 Y1.489
G1 X0.102 Y1.526
G1 X-0.105 Y1.530
G1 X-0.320 Y1.508
G1 X-0.534 Y1.451
G1 X-0.729 Y1.361
G1 X-0.887 Y1.263
G1 X-1.049 Y1.135
G1 X-1.203 Y0.970
G1 X-1.331 Y0.789
G1 X-1.425 Y0.590
G1 X-1.485 Y0.402
G1 X-1.523 Y0.192
G1 X-1.538 Y-0.011
G1 X-1.519 Y-0.248
G1 X-1.470 Y-0.459
G1 X-1.395 Y-0.665
G1 X-1.289 Y-0.865
G1 X-1.154 Y-1.041
G1 X-1.015 Y-1.184
G1 X-0.850 Y-1.320
G1 X-0.647 Y-1.444
G1 X-0.421 Y-1.545
G1 X-0.199 Y-1.613
G1 X0.034 Y-1.643
G1 X0.229 Y-1.647
G1 X0.447 Y-1.624
G1 X0.680 Y-1.560
G1 X0.880 Y-1.474
G1 X1.053 Y-1.372
G1 X1.226 Y-1.241
G1 X1.391 Y-1.068
G1 X1.523 Y-0.891
G1 X1.632 Y-0.692
G1 X1.714 Y-0.481
G1 X1.771 Y-0.267
G1 X1.801 Y-0.023
G1 X1.801 Y0.203
G1 X1.771 Y0.432
G1 X1.711 Y0.662
G1 X1.624 Y0.876
G1 X1.500 Y1.071
G1 X1.380 Y1.222
G1 X1.226 Y1.376
G1 X1.023 Y1.538
G1 X0.805 Y1.669
G1 X0.579 Y1.763
G1 X0.376 Y1.820
G1 X0.139 Y1.853
G1 X-0.086 Y1.861
G1 X-0.342 Y1.835
G1 X-0.575 Y1.782
G1 X-0.797 Y1.695
G1 X-0.985 Y1.594
G1 X-1.173 Y1.459
G1 X-1.342 Y1.305
G1 X-1.504 Y1.117
G1 X-1.635 Y0.917
G1 X-1.733 Y0.699
G1 X-1.797 Y0.492
G1 X-1.842 Y0.267
G1 X-1.861 Y0.015
G1 X-1.850 Y-0.233
G1 X-1.812 Y-0.474
G1 X-1.741 Y-0.711
G1 X-1.647 Y-0.921
G1 X-1.523 Y-1.128
G1 X-1.372 Y-1.316
G1 X-1.199 Y-1.485
G1 X-1.008 Y-1.632
G1 X-0.801 Y-1.752
G1 X-0.583 Y-1.853
G1 X-0.162 Y-1.940
G1 X0.241 Y-1.959
G1 X0.579 Y-1.914
G1 X0.914 Y-1.801
G1 X1.267 Y-1.590
G1 X1.489 Y-1.395
G1 X1.756 Y-1.064
G1 X1.929 Y-0.737
G1 X2.041 Y-0.387
G1 X2.102 Y0.086
G1 X2.071 Y0.481
G1 X1.992 Y0.763
G1 X1.782 Y1.188
G1 X1.519 Y1.515
G1 X1.293 Y1.711
G1 X0.985 Y1.906
G1 X0.586 Y2.068
G1 X0.165 Y2.147
G1 X-0.293 Y2.150
G1 X-0.688 Y2.075
G1 X-1.015 Y1.944
G1 X-1.365 Y1.711
G1 X-1.624 Y1.459
G1 X-1.838 Y1.162
G1 X-2.023 Y0.778
G1 X-2.132 Y0.365
G1 X-2.162 Y-0.165
G1 X-2.109 Y-0.560
G1 X-1.974 Y-0.951
G1 X-1.831 Y-1.214
G1 X-1.568 Y-1.545
G1 X-1.256 Y-1.827
G1 X-1.000 Y-1.989
G1 X-0.541 Y-2.169
G1 X0.056 Y-2.278
G1 X0.395 Y-2.278
G1 X0.733 Y-2.211
G1 X1.169 Y-2.030
G1 X1.466 Y-1.835
G1 X1.812 Y-1.500
G1 X2.026 Y-1.207
G1 X2.169 Y-0.936
G1 X2.297 Y-0.594
G1 X2.372 Y-0.233
G1 X2.387 Y0.117
G1 X2.361 Y0.455
G1 X2.222 Y0.962
G1 X2.090 Y1.226
G1 X1.842 Y1.568
G1 X1.677 Y1.744
G1 X1.350 Y2.008
G1 X0.914 Y2.237
G1 X0.568 Y2.350
G1 X0.267 Y2.410
G1 X-0.256 Y2.406
G1 X-0.707 Y2.312
G1 X-1.094 Y2.154
G1 X-1.568 Y1.917
G1 X-1.617 Y1.883
G1 X-1.737 Y1.748
G1 X-2.071 Y1.244
G1 X-2.218 Y0.977
G1 X-2.361 Y0.508
G1 X-2.421 Y0.026
G1 X-2.395 Y-0.312
G1 X-2.327 Y-0.650
G1 X-2.233 Y-0.932
G1 X-2.034 Y-1.301
G1 X-1.620 Y-1.887
G1 X-1.579 Y-1.932
G1 X-1.477 Y-2.000
G1 X-1.192 Y-2.105
G1 X-0.917 Y-2.241
G1 X-0.391 Y-2.387
G1 X0.026 Y-2.421
G1 X0.308 Y-2.402
G1 X0.647 Y-2.331
G1 X0.929 Y-2.237
G1 X1.297 Y-2.045
G1 X1.538 Y-1.868
G1 X1.759 Y-1.665
G1 X2.049 Y-1.282
G1 X2.195 Y-1.023
G1 X2.338 Y-0.628
G1 X2.406 Y-0.267
G1 X2.421 Y0.030
G1 X2.398 Y0.312
G1 X2.387 Y0.368
G1 X2.387 Y0.368
G1 X2.350 Y0.447
G0 X2.327 Y0.470
G0 X2.229 Y0.526
G0 X-1.180 Y1.932
G1 X-1.218 Y1.947
G1 X-1.365 Y2.000
G1 X-1.492 Y2.000
G1 X-1.492 Y2.000
G1 X-1.605 Y1.962
G1 X-1.673 Y1.865
G1 X-1.673 Y1.865
G1 X-1.680 Y1.835
G0 X-1.688 Y1.805
G0 X-1.677 Y-1.496
G1 X-1.677 Y-1.538
G1 X-1.650 Y-1.902
G1 X-1.650 Y-1.902
G1 X-1.617 Y-1.951
G1 X-1.564 Y-1.981
G1 X-1.564 Y-1.981
G1 X-1.549 Y-1.981
G1 X-1.549 Y-1.981
G1 X-1.598 Y-1.974
G1 X-1.594 Y-1.992
G1 X-1.594 Y-1.992
G1 X-1.590 Y-1.981
G1 X-1.301 Y-2.090
G1 X-0.959 Y-2.252
G1 X-0.711 Y-2.338
G1 X-0.470 Y-2.398
G1 X-0.312 Y-2.425
G1 X0.094 Y-2.444
G1 X0.286 Y-2.432
G1 X0.598 Y-2.372
G1 X0.816 Y-2.305
G1 X1.038 Y-2.218
G1 X1.248 Y-2.109
G1 X1.462 Y-1.962
G1 X1.805 Y-1.658
G1 X2.075 Y-1.293
G1 X2.158 Y-1.154
G1 X2.293 Y-0.857
G1 X2.368 Y-0.605
G1 X2.398 Y-0.470
G1 X2.436 Y-0.229
G1 X2.447 Y0.045
G1 X2.421 Y0.338
G1 X2.376 Y0.575
G1 X2.327 Y0.752
G1 X2.214 Y1.045
G1 X2.124 Y1.222
G1 X2.008 Y1.398
G1 X1.861 Y1.579
G1 X1.665 Y1.789
G1 X1.492 Y1.940
G1 X1.256 Y2.098
G1 X0.981 Y2.237
G1 X0.647 Y2.357
G1 X0.485 Y2.395
G1 X0.237 Y2.436
G1 X-0.041 Y2.447
G1 X-0.282 Y2.432
G1 X-0.647 Y2.357
G1 X-1.015 Y2.226
G1 X-1.312 Y2.086
G1 X-1.556 Y2.011
G1 X-1.647 Y1.962
G1 X-1.827 Y1.643
G1 X-2.120 Y1.211
G1 X-2.248 Y0.962
G1 X-2.297 Y0.838
G1 X-2.395 Y0.466
G1 X-2.432 Y0.244
G1 X-2.447 Y0.026
G1 X-2.440 Y-0.192
G1 X-2.353 Y-0.662
G1 X-2.252 Y-0.955
G1 X-2.203 Y-1.056
G1 X-2.045 Y-1.331
G1 X-1.793 Y-1.695
G1 X-1.677 Y-1.917
G1 X-1.639 Y-1.966
G1 X-1.594 Y-1.992
G1 X-1.594 Y-1.992
G0 Z5.000
G0 Z5.000
(Finish operation: In_empty_rod_Z-2mm)
(Block-name: Out_cont_Z-11mm)
(Block-expand: 0)
(Block-enable: 1)
(Begin operation: Out_cont_Z-11mm)
(Path: Out_cont_Z-11mm)
(Out_cont_Z-11mm)
(Helix to depth: -8.000000)
G0 Z5.000
G0 X6.716 Y7.989 Z5.000
G0 X6.716 Y7.989 Z3.000
G1 X6.716 Y7.989 Z-4.000
G2 X3.736 Y7.989 Z-4.412 I-1.490
G2 X6.716 Y7.989 Z-4.825 I1.490
G2 X3.736 Y7.989 Z-5.237 I-1.490
G2 X6.716 Y7.989 Z-5.649 I1.490
G2 X3.736 Y7.989 Z-6.061 I-1.490
G2 X6.716 Y7.989 Z-6.474 I1.490
G2 X3.736 Y7.989 Z-6.886 I-1.490
G2 X6.716 Y7.989 Z-7.298 I1.490
G2 X3.736 Y7.989 Z-7.649 I-1.490
G2 X6.716 Y7.989 Z-8.000 I1.490
G2 X3.736 Y7.989 Z-8.000 I-1.490
G2 X6.716 Y7.989 Z-8.000 I1.490
(Adaptive - depth: -8.000000)
G1 X5.226 Y6.489
G1 X5.267 Y6.444
G1 X5.372 Y6.391
G1 X5.541 Y6.353
G1 X5.711 Y6.350
G1 X6.071 Y6.440
G1 X6.286 Y6.549
G1 X6.414 Y6.635
G1 X6.545 Y6.748
G1 X6.688 Y6.914
G1 X6.820 Y7.109
G1 X6.925 Y7.323
G1 X7.000 Y7.541
G1 X7.041 Y7.771
G1 X7.053 Y7.977
G1 X7.004 Y8.316
G1 X6.936 Y8.541
G1 X6.835 Y8.688
G1 X6.195 Y9.154
G1 X6.195 Y9.154
G1 X6.041 Y9.211
G1 X6.008 Y9.222
G1 X5.917 Y9.271
G1 X5.759 Y9.429
G1 X5.759 Y9.429
G1 X5.496 Y9.586
G1 X5.271 Y9.677
G1 X5.150 Y9.703
G1 X4.910 Y9.703
G1 X4.549 Y9.620
G1 X4.432 Y9.575
G1 X4.102 Y9.395
G1 X3.823 Y9.143
G1 X3.714 Y9.004
G1 X3.628 Y8.868
G1 X3.534 Y8.680
G1 X3.447 Y8.425
G1 X3.395 Y8.177
G1 X3.383 Y7.936
G1 X3.402 Y7.669
G1 X3.492 Y7.312
G1 X3.519 Y7.256
G1 X3.564 Y7.218
G1 X3.564 Y7.218
G1 X3.711 Y7.192
G1 X3.767 Y7.207
G0 X3.793 Y7.218
G0 X3.906 Y7.350
G0 X5.331 Y9.346
G1 X5.353 Y9.376
G1 X5.417 Y9.481
G1 X5.421 Y9.538
G1 X5.383 Y9.613
G1 X5.293 Y9.699
G1 X5.293 Y9.699
G1 X5.023 Y9.835
G1 X4.842 Y9.880
G1 X4.662 Y9.883
G1 X4.421 Y9.838
G1 X4.124 Y9.737
G1 X4.068 Y9.711
G1 X3.748 Y9.511
G1 X3.504 Y9.274
G1 X3.391 Y9.124
G1 X3.297 Y8.981
G1 X3.188 Y8.763
G1 X3.094 Y8.496
G1 X3.034 Y8.237
G1 X3.008 Y7.797
G1 X3.038 Y7.556
G1 X3.053 Y7.496
G1 X3.086 Y7.444
G1 X3.086 Y7.444
G1 X3.203 Y7.406
G1 X3.289 Y7.410
G0 X3.312 Y7.425
G0 X3.429 Y7.549
G0 X4.970 Y9.560
G1 X4.992 Y9.586
G1 X5.060 Y9.692
G1 X5.060 Y9.744
G1 X5.019 Y9.820
G1 X4.921 Y9.898
G1 X4.921 Y9.898
G1 X4.703 Y9.996
G1 X4.523 Y10.041
G1 X4.402 Y10.053
G1 X4.162 Y10.011
G1 X3.865 Y9.910
G1 X3.752 Y9.857
G1 X3.436 Y9.658
G1 X3.165 Y9.398
G1 X3.045 Y9.241
G1 X2.947 Y9.094
G1 X2.835 Y8.868
G1 X2.737 Y8.609
G1 X2.662 Y8.316
G1 X2.624 Y7.985
G1 X2.632 Y7.805
G1 X2.677 Y7.624
G1 X2.718 Y7.583
G1 X2.718 Y7.583
G1 X2.865 Y7.556
G1 X2.921 Y7.571
G0 X2.944 Y7.583
G0 X3.064 Y7.711
G0 X4.647 Y9.714
G1 X4.669 Y9.741
G1 X4.737 Y9.846
G1 X4.737 Y9.898
G1 X4.695 Y9.974
G1 X4.598 Y10.053
G1 X4.598 Y10.053
G1 X4.316 Y10.162
G1 X4.135 Y10.195
G1 X4.075 Y10.199
G1 X3.774 Y10.139
G1 X3.429 Y9.996
G1 X3.109 Y9.801
G1 X2.835 Y9.545
G1 X2.699 Y9.372
G1 X2.594 Y9.218
G1 X2.474 Y8.992
G1 X2.361 Y8.707
G1 X2.282 Y8.429
G1 X2.252 Y8.030
G1 X2.274 Y7.850
G1 X2.312 Y7.733
G1 X2.357 Y7.695
G1 X2.357 Y7.695
G1 X2.474 Y7.680
G1 X2.560 Y7.699
G0 X2.583 Y7.714
G0 X2.699 Y7.846
G0 X4.263 Y9.895
G1 X4.286 Y9.921
G1 X4.353 Y10.023
G1 X4.350 Y10.075
G1 X4.308 Y10.147
G1 X4.211 Y10.222
G1 X4.211 Y10.222
G1 X3.981 Y10.305
G1 X3.741 Y10.338
G1 X3.440 Y10.282
G1 X3.150 Y10.165
G1 X3.041 Y10.105
G1 X2.733 Y9.895
G1 X2.462 Y9.635
G1 X2.297 Y9.425
G1 X2.180 Y9.244
G1 X2.068 Y9.019
G1 X1.974 Y8.767
G1 X1.910 Y8.500
G1 X1.887 Y8.117
G1 X1.917 Y7.936
G1 X1.962 Y7.820
G1 X1.962 Y7.820
G1 X2.079 Y7.805
G1 X2.165 Y7.823
G0 X2.188 Y7.838
G0 X2.308 Y7.970
G0 X3.936 Y10.034
G1 X3.962 Y10.060
G1 X4.026 Y10.162
G1 X4.026 Y10.214
G1 X3.977 Y10.286
G1 X3.876 Y10.353
G1 X3.876 Y10.353
G1 X3.586 Y10.447
G1 X3.406 Y10.470
G1 X3.286 Y10.462
G1 X2.929 Y10.350
G1 X2.650 Y10.207
G1 X2.342 Y9.996
G1 X2.075 Y9.733
G1 X1.929 Y9.541
G1 X1.816 Y9.372
G1 X1.692 Y9.124
G1 X1.598 Y8.850
G1 X1.545 Y8.602
G1 X1.519 Y8.256
G1 X1.541 Y8.075
G1 X1.575 Y7.959
G1 X1.605 Y7.906
G1 X1.654 Y7.876
G1 X1.654 Y7.876
G1 X1.801 Y7.880
G1 X1.857 Y7.902
G0 X1.880 Y7.917
G0 X1.996 Y8.053
G0 X3.556 Y10.180
G1 X3.579 Y10.211
G1 X3.643 Y10.316
G1 X3.639 Y10.365
G1 X3.586 Y10.432
G1 X3.481 Y10.492
G1 X3.481 Y10.492
G1 X3.124 Y10.579
G1 X2.944 Y10.590
G1 X2.703 Y10.530
G1 X2.308 Y10.346
G1 X1.951 Y10.094
G1 X1.688 Y9.827
G1 X1.538 Y9.624
G1 X1.429 Y9.440
G1 X1.327 Y9.229
G1 X1.229 Y8.947
G1 X1.165 Y8.662
G1 X1.154 Y8.391
G1 X1.203 Y8.150
G1 X1.271 Y7.985
G1 X1.312 Y7.944
G1 X1.312 Y7.944
G1 X1.440 Y7.955
G1 X1.504 Y7.981
G0 X1.530 Y8.000
G0 X1.643 Y8.139
G0 X3.158 Y10.305
G1 X3.180 Y10.335
G1 X3.241 Y10.440
G1 X3.237 Y10.489
G1 X3.184 Y10.556
G1 X3.079 Y10.617
G1 X3.079 Y10.617
G1 X2.782 Y10.688
G1 X2.602 Y10.699
G1 X2.481 Y10.688
G1 X2.241 Y10.613
G1 X1.906 Y10.444
G1 X1.553 Y10.188
G1 X1.297 Y9.914
G1 X1.165 Y9.722
G1 X1.068 Y9.556
G1 X0.959 Y9.320
G1 X0.861 Y9.030
G1 X0.816 Y8.733
G1 X0.812 Y8.523
G1 X0.831 Y8.320
G1 X0.887 Y8.147
G1 X0.944 Y8.038
G1 X0.985 Y7.996
G1 X1.041 Y7.977
G1 X1.041 Y7.977
G1 X1.169 Y7.989
G1 X1.233 Y8.015
G0 X1.256 Y8.034
G0 X1.361 Y8.180
G0 X2.711 Y10.417
G1 X2.729 Y10.447
G1 X2.782 Y10.556
G1 X2.774 Y10.609
G1 X2.722 Y10.677
G1 X2.617 Y10.737
G1 X2.617 Y10.737
G1 X2.376 Y10.786
G1 X2.135 Y10.789
G1 X1.895 Y10.729
G1 X1.560 Y10.564
G1 X1.406 Y10.459
G1 X1.117 Y10.218
G1 X0.876 Y9.932
G1 X0.748 Y9.729
G1 X0.654 Y9.541
G1 X0.564 Y9.320
G1 X0.485 Y9.015
G1 X0.459 Y8.737
G1 X0.470 Y8.519
G1 X0.508 Y8.320
G1 X0.579 Y8.150
G1 X0.643 Y8.049
G1 X0.695 Y8.023
G1 X0.752 Y8.015
G1 X0.752 Y8.015
G1 X0.880 Y8.026
G1 X0.944 Y8.053
G0 X0.966 Y8.071
G0 X1.064 Y8.222
G0 X2.316 Y10.519
G1 X2.335 Y10.549
G1 X2.383 Y10.662
G1 X2.376 Y10.711
G1 X2.316 Y10.774
G1 X2.207 Y10.827
G1 X2.207 Y10.827
G1 X1.966 Y10.872
G1 X1.726 Y10.872
G1 X1.605 Y10.850
G1 X1.372 Y10.756
G1 X1.056 Y10.553
G1 X0.726 Y10.267
G1 X0.489 Y9.977
G1 X0.338 Y9.714
G1 X0.252 Y9.511
G1 X0.184 Y9.308
G1 X0.124 Y9.034
G1 X0.102 Y8.744
G1 X0.132 Y8.492
G1 X0.207 Y8.259
G1 X0.297 Y8.098
G1 X0.342 Y8.056
G1 X0.398 Y8.038
G1 X0.455 Y8.034
G1 X0.455 Y8.034
G1 X0.571 Y8.045
G1 X0.650 Y8.086
G0 X0.673 Y8.105
G0 X0.759 Y8.259
G0 X1.914 Y10.605
G1 X1.929 Y10.639
G1 X1.974 Y10.752
G1 X1.962 Y10.801
G1 X1.902 Y10.861
G1 X1.793 Y10.906
G1 X1.793 Y10.906
G1 X1.492 Y10.944
G1 X1.312 Y10.936
G1 X1.192 Y10.910
G1 X0.914 Y10.778
G1 X0.609 Y10.549
G1 X0.331 Y10.297
G1 X0.105 Y10.000
G1 X-0.034 Y9.744
G1 X-0.117 Y9.538
G1 X-0.184 Y9.327
G1 X-0.244 Y9.019
G1 X-0.244 Y8.741
G1 X-0.218 Y8.541
G1 X-0.169 Y8.346
G1 X-0.079 Y8.180
G1 X0.000 Y8.079
G1 X0.053 Y8.049
G1 X0.053 Y8.049
G1 X0.169 Y8.068
G1 X0.248 Y8.113
G0 X0.267 Y8.135
G0 X0.353 Y8.289
G0 X1.504 Y10.673
G1 X1.519 Y10.707
G1 X1.564 Y10.820
G1 X1.549 Y10.868
G1 X1.485 Y10.925
G1 X1.376 Y10.970
G1 X1.376 Y10.970
G1 X1.075 Y10.992
G1 X0.895 Y10.977
G1 X0.774 Y10.944
G1 X0.500 Y10.797
G1 X0.248 Y10.605
G1 X-0.068 Y10.305
G1 X-0.286 Y10.004
G1 X-0.429 Y9.726
G1 X-0.504 Y9.508
G1 X-0.556 Y9.312
G1 X-0.598 Y9.034
G1 X-0.602 Y8.756
G1 X-0.560 Y8.508
G1 X-0.492 Y8.320
G1 X-0.398 Y8.158
G1 X-0.320 Y8.064
G1 X-0.263 Y8.041
G1 X-0.263 Y8.041
G1 X-0.135 Y8.068
G1 X-0.060 Y8.117
G0 X-0.038 Y8.139
G0 X0.038 Y8.301
G0 X1.034 Y10.729
G1 X1.049 Y10.763
G1 X1.086 Y10.880
G1 X1.071 Y10.925
G1 X1.008 Y10.981
G1 X0.898 Y11.019
G1 X0.898 Y11.019
G1 X0.598 Y11.023
G1 X0.417 Y10.989
G1 X0.357 Y10.970
G1 X-0.015 Y10.741
G1 X-0.199 Y10.586
G1 X-0.500 Y10.274
G1 X-0.703 Y9.962
G1 X-0.812 Y9.726
G1 X-0.880 Y9.526
G1 X-0.932 Y9.308
G1 X-0.966 Y8.996
G1 X-0.951 Y8.729
G1 X-0.910 Y8.523
G1 X-0.846 Y8.327
G1 X-0.752 Y8.165
G1 X-0.673 Y8.068
G1 X-0.620 Y8.034
G1 X-0.560 Y8.026
G1 X-0.560 Y8.026
G1 X-0.432 Y8.053
G1 X-0.357 Y8.102
G0 X-0.338 Y8.124
G0 X-0.259 Y8.286
G0 X0.684 Y10.756
G1 X0.699 Y10.789
G1 X0.737 Y10.906
G1 X0.718 Y10.955
G1 X0.654 Y11.008
G1 X0.541 Y11.041
G1 X0.541 Y11.041
G1 X0.241 Y11.045
G1 X0.060 Y11.015
G1 X-0.056 Y10.977
G1 X-0.361 Y10.797
G1 X-0.632 Y10.560
G1 X-0.921 Y10.237
G1 X-1.109 Y9.914
G1 X-1.199 Y9.695
G1 X-1.256 Y9.500
G1 X-1.301 Y9.278
G1 X-1.327 Y8.981
G1 X-1.305 Y8.688
G1 X-1.252 Y8.470
G1 X-1.177 Y8.282
G1 X-1.075 Y8.124
G1 X-0.989 Y8.030
G1 X-0.932 Y8.000
G1 X-0.932 Y8.000
G1 X-0.782 Y8.049
G1 X-0.733 Y8.086
G0 X-0.714 Y8.109
G0 X-0.643 Y8.274
G0 X0.218 Y10.778
G1 X0.229 Y10.812
G1 X0.263 Y10.929
G1 X0.244 Y10.977
G1 X0.173 Y11.026
G1 X0.060 Y11.053
G1 X0.060 Y11.053
G1 X-0.282 Y11.034
G1 X-0.451 Y10.989
G1 X-0.662 Y10.876
G1 X-0.981 Y10.609
G1 X-1.102 Y10.474
G1 X-1.335 Y10.180
G1 X-1.511 Y9.850
G1 X-1.594 Y9.613
G1 X-1.639 Y9.417
G1 X-1.677 Y9.188
G1 X-1.684 Y8.876
G1 X-1.643 Y8.609
G1 X-1.583 Y8.414
G1 X-1.504 Y8.233
G1 X-1.395 Y8.079
G1 X-1.308 Y7.989
G1 X-1.252 Y7.959
G1 X-1.192 Y7.959
G1 X-1.192 Y7.959
G1 X-1.068 Y8.000
G1 X-0.996 Y8.060
G0 X-0.981 Y8.083
G0 X-0.917 Y8.248
G0 X-0.165 Y10.778
G1 X-0.154 Y10.812
G1 X-0.132 Y10.932
G1 X-0.154 Y10.977
G1 X-0.229 Y11.023
G1 X-0.353 Y11.045
G1 X-0.353 Y11.045
G1 X-0.692 Y11.023
G1 X-0.861 Y10.977
G1 X-1.019 Y10.898
G1 X-1.256 Y10.714
G1 X-1.496 Y10.451
G1 X-1.722 Y10.154
G1 X-1.887 Y9.820
G1 X-1.962 Y9.590
G1 X-2.004 Y9.391
G1 X-2.034 Y9.173
G1 X-2.034 Y8.857
G1 X-1.992 Y8.583
G1 X-1.925 Y8.372
G1 X-1.846 Y8.195
G1 X-1.695 Y7.992
G1 X-1.598 Y7.910
G1 X-1.538 Y7.902
G1 X-1.538 Y7.902
G1 X-1.414 Y7.944
G1 X-1.342 Y8.004
G0 X-1.327 Y8.026
G0 X-1.267 Y8.195
G0 X-0.575 Y10.774
G1 X-0.568 Y10.812
G1 X-0.549 Y10.932
G1 X-0.571 Y10.974
G1 X-0.647 Y11.015
G1 X-0.774 Y11.030
G1 X-0.774 Y11.030
G1 X-1.113 Y10.989
G1 X-1.282 Y10.940
G1 X-1.387 Y10.891
G1 X-1.579 Y10.752
G1 X-1.831 Y10.492
G1 X-2.113 Y10.086
G1 X-2.271 Y9.748
G1 X-2.342 Y9.492
G1 X-2.376 Y9.286
G1 X-2.395 Y9.064
G1 X-2.383 Y8.771
G1 X-2.331 Y8.492
G1 X-2.256 Y8.278
G1 X-2.169 Y8.098
G1 X-2.056 Y7.951
G1 X-1.962 Y7.865
G1 X-1.906 Y7.835
G1 X-1.846 Y7.835
G1 X-1.846 Y7.835
G1 X-1.729 Y7.883
G1 X-1.662 Y7.947
G0 X-1.647 Y7.974
G0 X-1.598 Y8.143
G0 X-1.045 Y10.722
G1 X-1.038 Y10.759
G1 X-1.023 Y10.880
G1 X-1.049 Y10.925
G1 X-1.124 Y10.966
G1 X-1.252 Y10.981
G1 X-1.252 Y10.981
G1 X-1.590 Y10.921
G1 X-1.808 Y10.835
G1 X-2.079 Y10.602
G1 X-2.305 Y10.320
G1 X-2.541 Y9.955
G1 X-2.673 Y9.605
G1 X-2.726 Y9.361
G1 X-2.748 Y9.165
G1 X-2.756 Y8.944
G1 X-2.729 Y8.628
G1 X-2.658 Y8.346
G1 X-2.571 Y8.147
G1 X-2.477 Y7.985
G1 X-2.350 Y7.842
G1 X-2.252 Y7.763
G1 X-2.192 Y7.744
G1 X-2.192 Y7.744
G1 X-2.075 Y7.801
G1 X-2.008 Y7.865
G0 X-1.996 Y7.891
G0 X-1.955 Y8.064
G0 X-1.508 Y10.662
G1 X-1.504 Y10.699
G1 X-1.496 Y10.820
G1 X-1.523 Y10.865
G1 X-1.602 Y10.902
G1 X-1.729 Y10.914
G1 X-1.729 Y10.914
G1 X-1.955 Y10.872
G1 X-2.173 Y10.782
G1 X-2.455 Y10.556
G1 X-2.647 Y10.323
G1 X-2.932 Y9.850
G1 X-3.053 Y9.496
G1 X-3.094 Y9.259
G1 X-3.113 Y9.064
G1 X-3.113 Y8.831
G1 X-3.075 Y8.530
G1 X-3.000 Y8.256
G1 X-2.906 Y8.045
G1 X-2.797 Y7.876
G1 X-2.669 Y7.741
G1 X-2.568 Y7.665
G1 X-2.508 Y7.647
G1 X-2.508 Y7.647
G1 X-2.398 Y7.707
G1 X-2.335 Y7.774
G0 X-2.323 Y7.805
G0 X-2.282 Y7.977
G0 X-1.857 Y10.617
G1 X-1.853 Y10.654
G1 X-1.846 Y10.774
G1 X-1.872 Y10.816
G1 X-1.955 Y10.850
G1 X-2.083 Y10.853
G1 X-2.083 Y10.853
G1 X-2.365 Y10.793
G1 X-2.583 Y10.703
G1 X-2.684 Y10.639
G1 X-2.936 Y10.380
G1 X-3.079 Y10.184
G1 X-3.308 Y9.748
G1 X-3.421 Y9.391
G1 X-3.466 Y9.090
G1 X-3.474 Y8.880
G1 X-3.462 Y8.665
G1 X-3.417 Y8.395
G1 X-3.335 Y8.124
G1 X-3.214 Y7.898
G1 X-3.060 Y7.699
G1 X-2.917 Y7.575
G1 X-2.861 Y7.545
G1 X-2.801 Y7.545
G1 X-2.801 Y7.545
G1 X-2.669 Y7.632
G1 X-2.632 Y7.680
G0 X-2.620 Y7.711
G0 X-2.590 Y7.883
G0 X-2.320 Y10.523
G1 X-2.316 Y10.560
G1 X-2.312 Y10.680
G1 X-2.342 Y10.722
G1 X-2.425 Y10.752
G1 X-2.553 Y10.752
G1 X-2.553 Y10.752
G1 X-2.835 Y10.673
G1 X-2.996 Y10.598
G1 X-3.094 Y10.530
G1 X-3.372 Y10.207
G1 X-3.500 Y10.004
G1 X-3.699 Y9.617
G1 X-3.797 Y9.256
G1 X-3.827 Y9.015
G1 X-3.838 Y8.805
G1 X-3.820 Y8.560
G1 X-3.763 Y8.289
G1 X-3.688 Y8.060
G1 X-3.583 Y7.831
G1 X-3.432 Y7.620
G1 X-3.293 Y7.496
G1 X-3.188 Y7.432
G1 X-3.128 Y7.421
G1 X-3.128 Y7.421
G1 X-3.019 Y7.485
G1 X-2.959 Y7.553
G0 X-2.947 Y7.583
G0 X-2.921 Y7.756
G0 X-2.714 Y10.440
G1 X-2.714 Y10.477
G1 X-2.718 Y10.598
G1 X-2.748 Y10.635
G1 X-2.831 Y10.662
G1 X-2.959 Y10.654
G1 X-2.959 Y10.654
G1 X-3.241 Y10.560
G1 X-3.398 Y10.477
G1 X-3.579 Y10.323
G1 X-3.801 Y10.038
G1 X-3.944 Y9.771
G1 X-4.090 Y9.429
G1 X-4.173 Y9.064
G1 X-4.192 Y8.823
G1 X-4.184 Y8.624
G1 X-4.158 Y8.395
G1 X-4.090 Y8.102
G1 X-3.985 Y7.838
G1 X-3.861 Y7.635
G1 X-3.744 Y7.481
G1 X-3.602 Y7.361
G1 X-3.492 Y7.297
G1 X-3.432 Y7.286
G1 X-3.432 Y7.286
G1 X-3.323 Y7.353
G1 X-3.271 Y7.425
G0 X-3.259 Y7.451
G0 X-3.241 Y7.632
G0 X-3.169 Y10.301
G1 X-3.169 Y10.338
G1 X-3.173 Y10.459
G1 X-3.207 Y10.496
G1 X-3.289 Y10.523
G1 X-3.417 Y10.515
G1 X-3.417 Y10.515
G1 X-3.797 Y10.353
G1 X-3.895 Y10.286
G1 X-4.056 Y10.105
G1 X-4.274 Y9.744
G1 X-4.462 Y9.286
G1 X-4.534 Y8.917
G1 X-4.545 Y8.669
G1 X-4.534 Y8.459
G1 X-4.496 Y8.222
G1 X-4.421 Y7.951
G1 X-4.308 Y7.699
G1 X-4.188 Y7.500
G1 X-4.041 Y7.327
G1 X-3.842 Y7.177
G1 X-3.786 Y7.147
G1 X-3.726 Y7.139
G1 X-3.726 Y7.139
G1 X-3.620 Y7.211
G1 X-3.568 Y7.286
G0 X-3.560 Y7.312
G0 X-3.549 Y7.492
G0 X-3.560 Y10.169
G1 X-3.560 Y10.207
G1 X-3.571 Y10.327
G1 X-3.605 Y10.365
G1 X-3.692 Y10.387
G1 X-3.816 Y10.372
G1 X-3.816 Y10.372
G1 X-4.090 Y10.263
G1 X-4.244 Y10.169
G1 X-4.335 Y10.094
G1 X-4.519 Y9.857
G1 X-4.726 Y9.417
G1 X-4.846 Y9.064
G1 X-4.895 Y8.692
G1 X-4.891 Y8.444
G1 X-4.865 Y8.241
G1 X-4.823 Y8.023
G1 X-4.722 Y7.718
G1 X-4.586 Y7.466
G1 X-4.459 Y7.293
G1 X-4.327 Y7.150
G1 X-4.173 Y7.041
G1 X-4.060 Y6.985
G1 X-4.000 Y6.985
G1 X-4.000 Y6.985
G1 X-3.898 Y7.060
G1 X-3.850 Y7.139
G0 X-3.842 Y7.165
G0 X-3.838 Y7.342
G0 X-3.992 Y10.004
G1 X-3.996 Y10.041
G1 X-4.011 Y10.162
G1 X-4.049 Y10.195
G1 X-4.135 Y10.214
G1 X-4.259 Y10.195
G1 X-4.259 Y10.195
G1 X-4.474 Y10.105
G1 X-4.714 Y9.936
G1 X-4.793 Y9.850
G1 X-4.955 Y9.586
G1 X-5.094 Y9.244
G1 X-5.207 Y8.887
G1 X-5.244 Y8.515
G1 X-5.233 Y8.263
G1 X-5.199 Y8.056
G1 X-5.150 Y7.846
G1 X-5.049 Y7.564
G1 X-4.914 Y7.297
G1 X-4.748 Y7.086
G1 X-4.613 Y6.955
G1 X-4.455 Y6.853
G1 X-4.338 Y6.805
G1 X-4.278 Y6.820
G1 X-4.278 Y6.816
G1 X-4.188 Y6.906
G1 X-4.147 Y6.989
G0 X-4.143 Y7.019
G0 X-4.147 Y7.195
G0 X-4.376 Y9.850
G1 X-4.376 Y9.887
G1 X-4.398 Y10.008
G1 X-4.436 Y10.041
G1 X-4.523 Y10.053
G1 X-4.647 Y10.026
