(Exported by FreeCAD)
(Post Processor: grbl_post)
(Output Time:2023-08-25 11:30:47.673697)
(Begin preamble)
G17 G90
G21
(Block-name: G54)
(Block-expand: 0)
(Block-enable: 1)
(Begin operation: G54)
(Path: G54)
G54
G0 Z11.000
(Finish operation: G54)
(Block-name: 1.5mm Endmill001)
(Block-expand: 0)
(Block-enable: 1)
(Begin operation: 1.5mm Endmill001)
(Path: 1.5mm Endmill001)
(1.5mm Endmill001)
(Begin toolchange)
( M6 T3 )
(Finish operation: 1.5mm Endmill001)
(Block-name: Profile)
(Block-expand: 0)
(Block-enable: 1)
(Begin operation: Profile)
(Path: Profile)
(Profile)
(Compensated Tool Path. Diameter: 1.5)
G0 Z11.000
G0 X19.152 Y20.781
G0 Z9.000
G1 X19.152 Y20.781 Z-1.500 F100.000
G2 X19.176 Y20.726 Z-1.500 I-0.083 J-0.068 K0.000 F200.000
G3 X21.135 Y18.569 Z-1.500 I1.513 J-0.594 K0.000 F200.000
G2 X21.337 Y18.493 Z-1.500 I0.074 J-0.110 K0.000 F200.000
G3 X23.165 Y16.145 Z-1.500 I1.451 J-0.756 K0.000 F200.000
G2 X23.244 Y16.031 Z-1.500 I-0.027 J-0.104 K0.000 F200.000
G3 X24.684 Y13.498 Z-1.500 I1.347 J-0.910 K0.000 F200.000
G2 X24.864 Y13.379 Z-1.500 I0.048 J-0.124 K0.000 F200.000
G3 X26.134 Y10.688 Z-1.500 I1.251 J-1.055 K0.000 F200.000
G2 X26.187 Y10.560 Z-1.500 I-0.049 J-0.095 K0.000 F200.000
G3 X27.038 Y7.773 Z-1.500 I1.115 J-1.183 K0.000 F200.000
G2 X27.188 Y7.618 Z-1.500 I0.019 J-0.131 K0.000 F200.000
G3 X27.839 Y4.714 Z-1.500 I0.990 J-1.303 K0.000 F200.000
G2 X27.863 Y4.578 Z-1.500 I-0.069 J-0.082 K0.000 F200.000
G3 X28.084 Y1.672 Z-1.500 I0.829 J-1.398 K0.000 F200.000
G2 X28.203 Y1.498 Z-1.500 I-0.016 J-0.139 K0.000 F200.000
G3 X28.162 Y-1.472 Z-1.500 I0.683 J-1.495 K0.000 F200.000
G2 X28.186 Y-1.616 Z-1.500 I-0.036 J-0.080 K0.000 F200.000
G3 X27.156 Y-2.644 Z-1.500 I0.574 J-1.604 K0.000 F200.000
G3 X27.811 Y-4.543 Z-1.500 I1.485 J-0.550 K0.000 F200.000
G2 X27.810 Y-4.733 Z-1.500 I-0.062 J-0.095 K0.000 F200.000
G3 X27.188 Y-7.617 Z-1.500 I0.362 J-1.587 K0.000 F200.000
G2 X27.152 Y-7.751 Z-1.500 I-0.094 J-0.046 K0.000 F200.000
G3 X26.112 Y-10.474 Z-1.500 I0.153 J-1.618 K0.000 F200.000
G2 X26.135 Y-10.688 Z-1.500 I-0.065 J-0.115 K0.000 F200.000
G3 X24.865 Y-13.379 Z-1.500 I-0.019 J-1.636 K0.000 F200.000
G2 X24.799 Y-13.501 Z-1.500 I-0.105 J-0.023 K0.000 F200.000
G3 X23.189 Y-15.930 Z-1.500 I-0.204 J-1.613 K0.000 F200.000
G2 X23.165 Y-16.144 Z-1.500 I-0.089 J-0.098 K0.000 F200.000
G3 X21.337 Y-18.492 Z-1.500 I-0.376 J-1.592 K0.000 F200.000
G2 X21.247 Y-18.598 Z-1.500 I-0.107 J0.001 K0.000 F200.000
G3 X19.144 Y-20.615 Z-1.500 I-0.552 J-1.529 K0.000 F200.000
G2 X19.074 Y-20.819 Z-1.500 I-0.108 J-0.077 K0.000 F200.000
G3 X16.777 Y-22.711 Z-1.500 I-0.715 J-1.472 K0.000 F200.000
G2 X16.665 Y-22.794 Z-1.500 I-0.105 J0.024 K0.000 F200.000
G3 X14.173 Y-24.303 Z-1.500 I-0.873 J-1.371 K0.000 F200.000
G2 X14.059 Y-24.486 Z-1.500 I-0.122 J-0.051 K0.000 F200.000
G3 X11.404 Y-25.830 Z-1.500 I-1.020 J-1.280 K0.000 F200.000
G2 X11.277 Y-25.886 Z-1.500 I-0.097 J0.047 K0.000 F200.000
G3 X8.515 Y-26.814 Z-1.500 I-1.152 J-1.147 K0.000 F200.000
G2 X8.364 Y-26.968 Z-1.500 I-0.131 J-0.023 K0.000 F200.000
G3 X5.480 Y-27.699 Z-1.500 I-1.275 J-1.026 K0.000 F200.000
G2 X5.344 Y-27.726 Z-1.500 I-0.084 J0.067 K0.000 F200.000
G3 X2.445 Y-28.027 Z-1.500 I-1.375 J-0.867 K0.000 F200.000
G2 X2.264 Y-28.145 Z-1.500 I-0.132 J0.006 K0.000 F200.000
G3 X-0.638 Y-28.090 Z-1.500 I-1.465 J-0.718 K0.000 F200.000
G2 X-0.719 Y-28.235 Z-1.500 I-0.231 J0.034 K0.000 F200.000
G2 X-0.849 Y-28.224 Z-1.500 I-0.040 J0.287 K0.000 F200.000
G3 X-3.743 Y-27.884 Z-1.500 I-1.531 J-0.546 K0.000 F200.000
G2 X-3.945 Y-27.959 Z-1.500 I-0.128 J0.035 K0.000 F200.000
G3 X-6.865 Y-27.388 Z-1.500 I-1.591 J-0.383 K0.000 F200.000
G2 X-7.000 Y-27.355 Z-1.500 I-0.048 J0.096 K0.000 F200.000
G3 X-9.750 Y-26.390 Z-1.500 I-1.613 J-0.198 K0.000 F200.000
G2 X-9.964 Y-26.419 Z-1.500 I-0.117 J0.062 K0.000 F200.000
G3 X-12.689 Y-25.224 Z-1.500 I-1.636 J-0.026 K0.000 F200.000
G2 X-12.813 Y-25.162 Z-1.500 I-0.026 J0.104 K0.000 F200.000
G3 X-15.285 Y-23.619 Z-1.500 I-1.618 J0.160 K0.000 F200.000
G2 X-15.500 Y-23.601 Z-1.500 I-0.101 J0.086 K0.000 F200.000
G3 X-17.897 Y-21.839 Z-1.500 I-1.602 J0.332 K0.000 F200.000
G2 X-18.005 Y-21.751 Z-1.500 I-0.002 J0.107 K0.000 F200.000
G3 X-20.080 Y-19.705 Z-1.500 I-1.544 J0.510 K0.000 F200.000
G2 X-20.286 Y-19.640 Z-1.500 I-0.080 J0.106 K0.000 F200.000
G3 X-22.240 Y-17.396 Z-1.500 I-1.491 J0.675 K0.000 F200.000
G2 X-22.326 Y-17.287 Z-1.500 I0.021 J0.105 K0.000 F200.000
G3 X-23.903 Y-14.837 Z-1.500 I-1.395 J0.835 K0.000 F200.000
G2 X-24.090 Y-14.729 Z-1.500 I-0.054 J0.121 K0.000 F200.000
G3 X-25.506 Y-12.112 Z-1.500 I-1.307 J0.984 K0.000 F200.000
G2 X-25.566 Y-11.986 Z-1.500 I0.044 J0.098 K0.000 F200.000
G3 X-26.569 Y-9.251 Z-1.500 I-1.178 J1.120 K0.000 F200.000
G2 X-26.727 Y-9.104 Z-1.500 I-0.027 J0.130 K0.000 F200.000
G3 X-27.537 Y-6.241 Z-1.500 I-1.060 J1.246 K0.000 F200.000
G2 X-27.568 Y-6.106 Z-1.500 I0.064 J0.086 K0.000 F200.000
G3 X-27.949 Y-3.217 Z-1.500 I-0.905 J1.350 K0.000 F200.000
G2 X-28.071 Y-3.039 Z-1.500 I0.002 J0.133 K0.000 F200.000
G3 X-28.122 Y-0.131 Z-1.500 I-0.753 J1.441 K0.000 F200.000
G2 X-28.234 Y0.074 Z-1.500 I0.004 J0.136 K0.000 F200.000
G3 X-27.983 Y2.989 Z-1.500 I-0.618 J1.521 K0.000 F200.000
G2 X-28.057 Y3.176 Z-1.500 I0.001 J0.109 K0.000 F200.000
G3 X-27.480 Y6.033 Z-1.500 I-0.418 J1.571 K0.000 F200.000
G2 X-27.537 Y6.240 Z-1.500 I0.046 J0.124 K0.000 F200.000
G3 X-26.728 Y9.104 Z-1.500 I-0.251 J1.617 K0.000 F200.000
G2 X-26.683 Y9.235 Z-1.500 I0.099 J0.040 K0.000 F200.000
G3 X-25.495 Y11.896 Z-1.500 I-0.064 J1.624 K0.000 F200.000
G2 X-25.506 Y12.111 Z-1.500 I0.072 J0.112 K0.000 F200.000
G3 X-24.090 Y14.728 Z-1.500 I0.109 J1.633 K0.000 F200.000
G2 X-24.018 Y14.847 Z-1.500 I0.106 J0.017 K0.000 F200.000
G3 X-22.276 Y17.183 Z-1.500 I0.293 J1.599 K0.000 F200.000
G2 X-22.240 Y17.396 Z-1.500 I0.094 J0.093 K0.000 F200.000
G3 X-20.286 Y19.640 Z-1.500 I0.463 J1.569 K0.000 F200.000
G2 X-20.190 Y19.740 Z-1.500 I0.107 J-0.007 K0.000 F200.000
G3 X-17.980 Y21.639 Z-1.500 I0.635 J1.496 K0.000 F200.000
G2 X-17.898 Y21.838 Z-1.500 I0.112 J0.071 K0.000 F200.000
G3 X-15.500 Y23.601 Z-1.500 I0.795 J1.430 K0.000 F200.000
G2 X-15.384 Y23.677 Z-1.500 I0.103 J-0.030 K0.000 F200.000
G3 X-12.812 Y25.047 Z-1.500 I0.947 J1.321 K0.000 F200.000
G2 X-12.689 Y25.224 Z-1.500 I0.125 J0.044 K0.000 F200.000
G3 X-9.964 Y26.419 Z-1.500 I1.089 J1.221 K0.000 F200.000
G2 X-9.834 Y26.468 Z-1.500 I0.094 J-0.052 K0.000 F200.000
G3 X-7.025 Y27.242 Z-1.500 I1.213 J1.082 K0.000 F200.000
G2 X-6.866 Y27.388 Z-1.500 I0.132 J0.016 K0.000 F200.000
G3 X-3.946 Y27.959 Z-1.500 I1.330 J0.954 K0.000 F200.000
G2 X-3.808 Y27.978 Z-1.500 I0.080 J-0.071 K0.000 F200.000
G3 X-0.898 Y28.119 Z-1.500 I1.420 J0.790 K0.000 F200.000
G2 X-0.711 Y28.227 Z-1.500 I0.132 J-0.013 K0.000 F200.000
G3 X2.264 Y28.145 Z-1.500 I1.506 J0.640 K0.000 F200.000
G2 X2.402 Y28.134 Z-1.500 I0.063 J-0.087 K0.000 F200.000
G3 X5.273 Y27.635 Z-1.500 I1.559 J0.461 K0.000 F200.000
G2 X5.479 Y27.699 Z-1.500 I0.126 J-0.042 K0.000 F200.000
G3 X8.364 Y26.968 Z-1.500 I1.609 J0.295 K0.000 F200.000
G2 X8.497 Y26.928 Z-1.500 I0.042 J-0.099 K0.000 F200.000
G3 X11.189 Y25.813 Z-1.500 I1.622 J0.109 K0.000 F200.000
G2 X11.404 Y25.830 Z-1.500 I0.114 J-0.068 K0.000 F200.000
G3 X14.059 Y24.487 Z-1.500 I1.635 J-0.064 K0.000 F200.000
G2 X14.179 Y24.418 Z-1.500 I0.020 J-0.106 K0.000 F200.000
G3 X16.563 Y22.741 Z-1.500 I1.606 J-0.249 K0.000 F200.000
G2 X16.776 Y22.711 Z-1.500 I0.096 J-0.092 K0.000 F200.000
G3 X19.073 Y20.820 Z-1.500 I1.582 J-0.420 K0.000 F200.000
G2 X19.152 Y20.781 Z-1.500 I-0.004 J-0.107 K0.000 F200.000
G1 X19.152 Y20.781 Z-3.000 F100.000
G2 X19.176 Y20.726 Z-3.000 I-0.083 J-0.068 K0.000 F200.000
G3 X21.135 Y18.569 Z-3.000 I1.513 J-0.594 K0.000 F200.000
G2 X21.337 Y18.493 Z-3.000 I0.074 J-0.110 K0.000 F200.000
G3 X23.165 Y16.145 Z-3.000 I1.451 J-0.756 K0.000 F200.000
G2 X23.244 Y16.031 Z-3.000 I-0.027 J-0.104 K0.000 F200.000
G3 X24.684 Y13.498 Z-3.000 I1.347 J-0.910 K0.000 F200.000
G2 X24.864 Y13.379 Z-3.000 I0.048 J-0.124 K0.000 F200.000
G3 X26.134 Y10.688 Z-3.000 I1.251 J-1.055 K0.000 F200.000
G2 X26.187 Y10.560 Z-3.000 I-0.049 J-0.095 K0.000 F200.000
G3 X27.038 Y7.773 Z-3.000 I1.115 J-1.183 K0.000 F200.000
G2 X27.188 Y7.618 Z-3.000 I0.019 J-0.131 K0.000 F200.000
G3 X27.839 Y4.714 Z-3.000 I0.990 J-1.303 K0.000 F200.000
G2 X27.863 Y4.578 Z-3.000 I-0.069 J-0.082 K0.000 F200.000
G3 X28.084 Y1.672 Z-3.000 I0.829 J-1.398 K0.000 F200.000
G2 X28.203 Y1.498 Z-3.000 I-0.016 J-0.139 K0.000 F200.000
G3 X28.162 Y-1.472 Z-3.000 I0.683 J-1.495 K0.000 F200.000
G2 X28.186 Y-1.616 Z-3.000 I-0.036 J-0.080 K0.000 F200.000
G3 X27.156 Y-2.644 Z-3.000 I0.574 J-1.604 K0.000 F200.000
G3 X27.811 Y-4.543 Z-3.000 I1.485 J-0.550 K0.000 F200.000
G2 X27.810 Y-4.733 Z-3.000 I-0.062 J-0.095 K0.000 F200.000
G3 X27.188 Y-7.617 Z-3.000 I0.362 J-1.587 K0.000 F200.000
G2 X27.152 Y-7.751 Z-3.000 I-0.094 J-0.046 K0.000 F200.000
G3 X26.112 Y-10.474 Z-3.000 I0.153 J-1.618 K0.000 F200.000
G2 X26.135 Y-10.688 Z-3.000 I-0.065 J-0.115 K0.000 F200.000
G3 X24.865 Y-13.379 Z-3.000 I-0.019 J-1.636 K0.000 F200.000
G2 X24.799 Y-13.501 Z-3.000 I-0.105 J-0.023 K0.000 F200.000
G3 X23.189 Y-15.930 Z-3.000 I-0.204 J-1.613 K0.000 F200.000
G2 X23.165 Y-16.144 Z-3.000 I-0.089 J-0.098 K0.000 F200.000
G3 X21.337 Y-18.492 Z-3.000 I-0.376 J-1.592 K0.000 F200.000
G2 X21.247 Y-18.598 Z-3.000 I-0.107 J0.001 K0.000 F200.000
G3 X19.144 Y-20.615 Z-3.000 I-0.552 J-1.529 K0.000 F200.000
G2 X19.074 Y-20.819 Z-3.000 I-0.108 J-0.077 K0.000 F200.000
G3 X16.777 Y-22.711 Z-3.000 I-0.715 J-1.472 K0.000 F200.000
G2 X16.665 Y-22.794 Z-3.000 I-0.105 J0.024 K0.000 F200.000
G3 X14.173 Y-24.303 Z-3.000 I-0.873 J-1.371 K0.000 F200.000
G2 X14.059 Y-24.486 Z-3.000 I-0.122 J-0.051 K0.000 F200.000
G3 X11.404 Y-25.830 Z-3.000 I-1.020 J-1.280 K0.000 F200.000
G2 X11.277 Y-25.886 Z-3.000 I-0.097 J0.047 K0.000 F200.000
G3 X8.515 Y-26.814 Z-3.000 I-1.152 J-1.147 K0.000 F200.000
G2 X8.364 Y-26.968 Z-3.000 I-0.131 J-0.023 K0.000 F200.000
G3 X5.480 Y-27.699 Z-3.000 I-1.275 J-1.026 K0.000 F200.000
G2 X5.344 Y-27.726 Z-3.000 I-0.084 J0.067 K0.000 F200.000
G3 X2.445 Y-28.027 Z-3.000 I-1.375 J-0.867 K0.000 F200.000
G2 X2.264 Y-28.145 Z-3.000 I-0.132 J0.006 K0.000 F200.000
G3 X-0.638 Y-28.090 Z-3.000 I-1.465 J-0.718 K0.000 F200.000
G2 X-0.719 Y-28.235 Z-3.000 I-0.231 J0.034 K0.000 F200.000
G2 X-0.849 Y-28.224 Z-3.000 I-0.040 J0.287 K0.000 F200.000
G3 X-3.743 Y-27.884 Z-3.000 I-1.531 J-0.546 K0.000 F200.000
G2 X-3.945 Y-27.959 Z-3.000 I-0.128 J0.035 K0.000 F200.000
G3 X-6.865 Y-27.388 Z-3.000 I-1.591 J-0.383 K0.000 F200.000
G2 X-7.000 Y-27.355 Z-3.000 I-0.048 J0.096 K0.000 F200.000
G3 X-9.750 Y-26.390 Z-3.000 I-1.613 J-0.198 K0.000 F200.000
G2 X-9.964 Y-26.419 Z-3.000 I-0.117 J0.062 K0.000 F200.000
G3 X-12.689 Y-25.224 Z-3.000 I-1.636 J-0.026 K0.000 F200.000
G2 X-12.813 Y-25.162 Z-3.000 I-0.026 J0.104 K0.000 F200.000
G3 X-15.285 Y-23.619 Z-3.000 I-1.618 J0.160 K0.000 F200.000
G2 X-15.500 Y-23.601 Z-3.000 I-0.101 J0.086 K0.000 F200.000
G3 X-17.897 Y-21.839 Z-3.000 I-1.602 J0.332 K0.000 F200.000
G2 X-18.005 Y-21.751 Z-3.000 I-0.002 J0.107 K0.000 F200.000
G3 X-20.080 Y-19.705 Z-3.000 I-1.544 J0.510 K0.000 F200.000
G2 X-20.286 Y-19.640 Z-3.000 I-0.080 J0.106 K0.000 F200.000
G3 X-22.240 Y-17.396 Z-3.000 I-1.491 J0.675 K0.000 F200.000
G2 X-22.326 Y-17.287 Z-3.000 I0.021 J0.105 K0.000 F200.000
G3 X-23.903 Y-14.837 Z-3.000 I-1.395 J0.835 K0.000 F200.000
G2 X-24.090 Y-14.729 Z-3.000 I-0.054 J0.121 K0.000 F200.000
G3 X-25.506 Y-12.112 Z-3.000 I-1.307 J0.984 K0.000 F200.000
G2 X-25.566 Y-11.986 Z-3.000 I0.044 J0.098 K0.000 F200.000
G3 X-26.569 Y-9.251 Z-3.000 I-1.178 J1.120 K0.000 F200.000
G2 X-26.727 Y-9.104 Z-3.000 I-0.027 J0.130 K0.000 F200.000
G3 X-27.537 Y-6.241 Z-3.000 I-1.060 J1.246 K0.000 F200.000
G2 X-27.568 Y-6.106 Z-3.000 I0.064 J0.086 K0.000 F200.000
G3 X-27.949 Y-3.217 Z-3.000 I-0.905 J1.350 K0.000 F200.000
G2 X-28.071 Y-3.039 Z-3.000 I0.002 J0.133 K0.000 F200.000
G3 X-28.122 Y-0.131 Z-3.000 I-0.753 J1.441 K0.000 F200.000
G2 X-28.234 Y0.074 Z-3.000 I0.004 J0.136 K0.000 F200.000
G3 X-27.983 Y2.989 Z-3.000 I-0.618 J1.521 K0.000 F200.000
G2 X-28.057 Y3.176 Z-3.000 I0.001 J0.109 K0.000 F200.000
G3 X-27.480 Y6.033 Z-3.000 I-0.418 J1.571 K0.000 F200.000
G2 X-27.537 Y6.240 Z-3.000 I0.046 J0.124 K0.000 F200.000
G3 X-26.728 Y9.104 Z-3.000 I-0.251 J1.617 K0.000 F200.000
G2 X-26.683 Y9.235 Z-3.000 I0.099 J0.040 K0.000 F200.000
G3 X-25.495 Y11.896 Z-3.000 I-0.064 J1.624 K0.000 F200.000
G2 X-25.506 Y12.111 Z-3.000 I0.072 J0.112 K0.000 F200.000
G3 X-24.090 Y14.728 Z-3.000 I0.109 J1.633 K0.000 F200.000
G2 X-24.018 Y14.847 Z-3.000 I0.106 J0.017 K0.000 F200.000
G3 X-22.276 Y17.183 Z-3.000 I0.293 J1.599 K0.000 F200.000
G2 X-22.240 Y17.396 Z-3.000 I0.094 J0.093 K0.000 F200.000
G3 X-20.286 Y19.640 Z-3.000 I0.463 J1.569 K0.000 F200.000
G2 X-20.190 Y19.740 Z-3.000 I0.107 J-0.007 K0.000 F200.000
G3 X-17.980 Y21.639 Z-3.000 I0.635 J1.496 K0.000 F200.000
G2 X-17.898 Y21.838 Z-3.000 I0.112 J0.071 K0.000 F200.000
G3 X-15.500 Y23.601 Z-3.000 I0.795 J1.430 K0.000 F200.000
G2 X-15.384 Y23.677 Z-3.000 I0.103 J-0.030 K0.000 F200.000
G3 X-12.812 Y25.047 Z-3.000 I0.947 J1.321 K0.000 F200.000
G2 X-12.689 Y25.224 Z-3.000 I0.125 J0.044 K0.000 F200.000
G3 X-9.964 Y26.419 Z-3.000 I1.089 J1.221 K0.000 F200.000
G2 X-9.834 Y26.468 Z-3.000 I0.094 J-0.052 K0.000 F200.000
G3 X-7.025 Y27.242 Z-3.000 I1.213 J1.082 K0.000 F200.000
G2 X-6.866 Y27.388 Z-3.000 I0.132 J0.016 K0.000 F200.000
G3 X-3.946 Y27.959 Z-3.000 I1.330 J0.954 K0.000 F200.000
G2 X-3.808 Y27.978 Z-3.000 I0.080 J-0.071 K0.000 F200.000
G3 X-0.898 Y28.119 Z-3.000 I1.420 J0.790 K0.000 F200.000
G2 X-0.711 Y28.227 Z-3.000 I0.132 J-0.013 K0.000 F200.000
G3 X2.264 Y28.145 Z-3.000 I1.506 J0.640 K0.000 F200.000
G2 X2.402 Y28.134 Z-3.000 I0.063 J-0.087 K0.000 F200.000
G3 X5.273 Y27.635 Z-3.000 I1.559 J0.461 K0.000 F200.000
G2 X5.479 Y27.699 Z-3.000 I0.126 J-0.042 K0.000 F200.000
G3 X8.364 Y26.968 Z-3.000 I1.609 J0.295 K0.000 F200.000
G2 X8.497 Y26.928 Z-3.000 I0.042 J-0.099 K0.000 F200.000
G3 X11.189 Y25.813 Z-3.000 I1.622 J0.109 K0.000 F200.000
G2 X11.404 Y25.830 Z-3.000 I0.114 J-0.068 K0.000 F200.000
G3 X14.059 Y24.487 Z-3.000 I1.635 J-0.064 K0.000 F200.000
G2 X14.179 Y24.418 Z-3.000 I0.020 J-0.106 K0.000 F200.000
G3 X16.563 Y22.741 Z-3.000 I1.606 J-0.249 K0.000 F200.000
G2 X16.776 Y22.711 Z-3.000 I0.096 J-0.092 K0.000 F200.000
G3 X19.073 Y20.820 Z-3.000 I1.582 J-0.420 K0.000 F200.000
G2 X19.152 Y20.781 Z-3.000 I-0.004 J-0.107 K0.000 F200.000
G1 X19.152 Y20.781 Z-4.500 F100.000
G2 X19.176 Y20.726 Z-4.500 I-0.083 J-0.068 K0.000 F200.000
G3 X21.135 Y18.569 Z-4.500 I1.513 J-0.594 K0.000 F200.000
G2 X21.337 Y18.493 Z-4.500 I0.074 J-0.110 K0.000 F200.000
G3 X23.165 Y16.145 Z-4.500 I1.451 J-0.756 K0.000 F200.000
G2 X23.244 Y16.031 Z-4.500 I-0.027 J-0.104 K0.000 F200.000
G3 X24.684 Y13.498 Z-4.500 I1.347 J-0.910 K0.000 F200.000
G2 X24.864 Y13.379 Z-4.500 I0.048 J-0.124 K0.000 F200.000
G3 X26.134 Y10.688 Z-4.500 I1.251 J-1.055 K0.000 F200.000
G2 X26.187 Y10.560 Z-4.500 I-0.049 J-0.095 K0.000 F200.000
G3 X27.038 Y7.773 Z-4.500 I1.115 J-1.183 K0.000 F200.000
G2 X27.188 Y7.618 Z-4.500 I0.019 J-0.131 K0.000 F200.000
G3 X27.839 Y4.714 Z-4.500 I0.990 J-1.303 K0.000 F200.000
G2 X27.863 Y4.578 Z-4.500 I-0.069 J-0.082 K0.000 F200.000
G3 X28.084 Y1.672 Z-4.500 I0.829 J-1.398 K0.000 F200.000
G2 X28.203 Y1.498 Z-4.500 I-0.016 J-0.139 K0.000 F200.000
G3 X28.162 Y-1.472 Z-4.500 I0.683 J-1.495 K0.000 F200.000
G2 X28.186 Y-1.616 Z-4.500 I-0.036 J-0.080 K0.000 F200.000
G3 X27.156 Y-2.644 Z-4.500 I0.574 J-1.604 K0.000 F200.000
G3 X27.811 Y-4.543 Z-4.500 I1.485 J-0.550 K0.000 F200.000
G2 X27.810 Y-4.733 Z-4.500 I-0.062 J-0.095 K0.000 F200.000
G3 X27.188 Y-7.617 Z-4.500 I0.362 J-1.587 K0.000 F200.000
G2 X27.152 Y-7.751 Z-4.500 I-0.094 J-0.046 K0.000 F200.000
G3 X26.112 Y-10.474 Z-4.500 I0.153 J-1.618 K0.000 F200.000
G2 X26.135 Y-10.688 Z-4.500 I-0.065 J-0.115 K0.000 F200.000
G3 X24.865 Y-13.379 Z-4.500 I-0.019 J-1.636 K0.000 F200.000
G2 X24.799 Y-13.501 Z-4.500 I-0.105 J-0.023 K0.000 F200.000
G3 X23.189 Y-15.930 Z-4.500 I-0.204 J-1.613 K0.000 F200.000
G2 X23.165 Y-16.144 Z-4.500 I-0.089 J-0.098 K0.000 F200.000
G3 X21.337 Y-18.492 Z-4.500 I-0.376 J-1.592 K0.000 F200.000
G2 X21.247 Y-18.598 Z-4.500 I-0.107 J0.001 K0.000 F200.000
G3 X19.144 Y-20.615 Z-4.500 I-0.552 J-1.529 K0.000 F200.000
G2 X19.074 Y-20.819 Z-4.500 I-0.108 J-0.077 K0.000 F200.000
G3 X16.777 Y-22.711 Z-4.500 I-0.715 J-1.472 K0.000 F200.000
G2 X16.665 Y-22.794 Z-4.500 I-0.105 J0.024 K0.000 F200.000
G3 X14.173 Y-24.303 Z-4.500 I-0.873 J-1.371 K0.000 F200.000
G2 X14.059 Y-24.486 Z-4.500 I-0.122 J-0.051 K0.000 F200.000
G3 X11.404 Y-25.830 Z-4.500 I-1.020 J-1.280 K0.000 F200.000
G2 X11.277 Y-25.886 Z-4.500 I-0.097 J0.047 K0.000 F200.000
G3 X8.515 Y-26.814 Z-4.500 I-1.152 J-1.147 K0.000 F200.000
G2 X8.364 Y-26.968 Z-4.500 I-0.131 J-0.023 K0.000 F200.000
G3 X5.480 Y-27.699 Z-4.500 I-1.275 J-1.026 K0.000 F200.000
G2 X5.344 Y-27.726 Z-4.500 I-0.084 J0.067 K0.000 F200.000
G3 X2.445 Y-28.027 Z-4.500 I-1.375 J-0.867 K0.000 F200.000
G2 X2.264 Y-28.145 Z-4.500 I-0.132 J0.006 K0.000 F200.000
G3 X-0.638 Y-28.090 Z-4.500 I-1.465 J-0.718 K0.000 F200.000
G2 X-0.719 Y-28.235 Z-4.500 I-0.231 J0.034 K0.000 F200.000
G2 X-0.849 Y-28.224 Z-4.500 I-0.040 J0.287 K0.000 F200.000
G3 X-3.743 Y-27.884 Z-4.500 I-1.531 J-0.546 K0.000 F200.000
G2 X-3.945 Y-27.959 Z-4.500 I-0.128 J0.035 K0.000 F200.000
G3 X-6.865 Y-27.388 Z-4.500 I-1.591 J-0.383 K0.000 F200.000
G2 X-7.000 Y-27.355 Z-4.500 I-0.048 J0.096 K0.000 F200.000
G3 X-9.750 Y-26.390 Z-4.500 I-1.613 J-0.198 K0.000 F200.000
G2 X-9.964 Y-26.419 Z-4.500 I-0.117 J0.062 K0.000 F200.000
G3 X-12.689 Y-25.224 Z-4.500 I-1.636 J-0.026 K0.000 F200.000
G2 X-12.813 Y-25.162 Z-4.500 I-0.026 J0.104 K0.000 F200.000
G3 X-15.285 Y-23.619 Z-4.500 I-1.618 J0.160 K0.000 F200.000
G2 X-15.500 Y-23.601 Z-4.500 I-0.101 J0.086 K0.000 F200.000
G3 X-17.897 Y-21.839 Z-4.500 I-1.602 J0.332 K0.000 F200.000
G2 X-18.005 Y-21.751 Z-4.500 I-0.002 J0.107 K0.000 F200.000
G3 X-20.080 Y-19.705 Z-4.500 I-1.544 J0.510 K0.000 F200.000
G2 X-20.286 Y-19.640 Z-4.500 I-0.080 J0.106 K0.000 F200.000
G3 X-22.240 Y-17.396 Z-4.500 I-1.491 J0.675 K0.000 F200.000
G2 X-22.326 Y-17.287 Z-4.500 I0.021 J0.105 K0.000 F200.000
G3 X-23.903 Y-14.837 Z-4.500 I-1.395 J0.835 K0.000 F200.000
G2 X-24.090 Y-14.729 Z-4.500 I-0.054 J0.121 K0.000 F200.000
G3 X-25.506 Y-12.112 Z-4.500 I-1.307 J0.984 K0.000 F200.000
G2 X-25.566 Y-11.986 Z-4.500 I0.044 J0.098 K0.000 F200.000
G3 X-26.569 Y-9.251 Z-4.500 I-1.178 J1.120 K0.000 F200.000
G2 X-26.727 Y-9.104 Z-4.500 I-0.027 J0.130 K0.000 F200.000
G3 X-27.537 Y-6.241 Z-4.500 I-1.060 J1.246 K0.000 F200.000
G2 X-27.568 Y-6.106 Z-4.500 I0.064 J0.086 K0.000 F200.000
G3 X-27.949 Y-3.217 Z-4.500 I-0.905 J1.350 K0.000 F200.000
G2 X-28.071 Y-3.039 Z-4.500 I0.002 J0.133 K0.000 F200.000
G3 X-28.122 Y-0.131 Z-4.500 I-0.753 J1.441 K0.000 F200.000
G2 X-28.234 Y0.074 Z-4.500 I0.004 J0.136 K0.000 F200.000
G3 X-27.983 Y2.989 Z-4.500 I-0.618 J1.521 K0.000 F200.000
G2 X-28.057 Y3.176 Z-4.500 I0.001 J0.109 K0.000 F200.000
G3 X-27.480 Y6.033 Z-4.500 I-0.418 J1.571 K0.000 F200.000
G2 X-27.537 Y6.240 Z-4.500 I0.046 J0.124 K0.000 F200.000
G3 X-26.728 Y9.104 Z-4.500 I-0.251 J1.617 K0.000 F200.000
G2 X-26.683 Y9.235 Z-4.500 I0.099 J0.040 K0.000 F200.000
G3 X-25.495 Y11.896 Z-4.500 I-0.064 J1.624 K0.000 F200.000
G2 X-25.506 Y12.111 Z-4.500 I0.072 J0.112 K0.000 F200.000
G3 X-24.090 Y14.728 Z-4.500 I0.109 J1.633 K0.000 F200.000
G2 X-24.018 Y14.847 Z-4.500 I0.106 J0.017 K0.000 F200.000
G3 X-22.276 Y17.183 Z-4.500 I0.293 J1.599 K0.000 F200.000
G2 X-22.240 Y17.396 Z-4.500 I0.094 J0.093 K0.000 F200.000
G3 X-20.286 Y19.640 Z-4.500 I0.463 J1.569 K0.000 F200.000
G2 X-20.190 Y19.740 Z-4.500 I0.107 J-0.007 K0.000 F200.000
G3 X-17.980 Y21.639 Z-4.500 I0.635 J1.496 K0.000 F200.000
G2 X-17.898 Y21.838 Z-4.500 I0.112 J0.071 K0.000 F200.000
G3 X-15.500 Y23.601 Z-4.500 I0.795 J1.430 K0.000 F200.000
G2 X-15.384 Y23.677 Z-4.500 I0.103 J-0.030 K0.000 F200.000
G3 X-12.812 Y25.047 Z-4.500 I0.947 J1.321 K0.000 F200.000
G2 X-12.689 Y25.224 Z-4.500 I0.125 J0.044 K0.000 F200.000
G3 X-9.964 Y26.419 Z-4.500 I1.089 J1.221 K0.000 F200.000
G2 X-9.834 Y26.468 Z-4.500 I0.094 J-0.052 K0.000 F200.000
G3 X-7.025 Y27.242 Z-4.500 I1.213 J1.082 K0.000 F200.000
G2 X-6.866 Y27.388 Z-4.500 I0.132 J0.016 K0.000 F200.000
G3 X-3.946 Y27.959 Z-4.500 I1.330 J0.954 K0.000 F200.000
G2 X-3.808 Y27.978 Z-4.500 I0.080 J-0.071 K0.000 F200.000
G3 X-0.898 Y28.119 Z-4.500 I1.420 J0.790 K0.000 F200.000
G2 X-0.711 Y28.227 Z-4.500 I0.132 J-0.013 K0.000 F200.000
G3 X2.264 Y28.145 Z-4.500 I1.506 J0.640 K0.000 F200.000
G2 X2.402 Y28.134 Z-4.500 I0.063 J-0.087 K0.000 F200.000
G3 X5.273 Y27.635 Z-4.500 I1.559 J0.461 K0.000 F200.000
G2 X5.479 Y27.699 Z-4.500 I0.126 J-0.042 K0.000 F200.000
G3 X8.364 Y26.968 Z-4.500 I1.609 J0.295 K0.000 F200.000
G2 X8.497 Y26.928 Z-4.500 I0.042 J-0.099 K0.000 F200.000
G3 X11.189 Y25.813 Z-4.500 I1.622 J0.109 K0.000 F200.000
G2 X11.404 Y25.830 Z-4.500 I0.114 J-0.068 K0.000 F200.000
G3 X14.059 Y24.487 Z-4.500 I1.635 J-0.064 K0.000 F200.000
G2 X14.179 Y24.418 Z-4.500 I0.020 J-0.106 K0.000 F200.000
G3 X16.563 Y22.741 Z-4.500 I1.606 J-0.249 K0.000 F200.000
G2 X16.776 Y22.711 Z-4.500 I0.096 J-0.092 K0.000 F200.000
G3 X19.073 Y20.820 Z-4.500 I1.582 J-0.420 K0.000 F200.000
G2 X19.152 Y20.781 Z-4.500 I-0.004 J-0.107 K0.000 F200.000
G1 X19.152 Y20.781 Z-6.000 F100.000
G2 X19.176 Y20.726 Z-6.000 I-0.083 J-0.068 K0.000 F200.000
G3 X21.135 Y18.569 Z-6.000 I1.513 J-0.594 K0.000 F200.000
G2 X21.337 Y18.493 Z-6.000 I0.074 J-0.110 K0.000 F200.000
G3 X23.165 Y16.145 Z-6.000 I1.451 J-0.756 K0.000 F200.000
G2 X23.244 Y16.031 Z-6.000 I-0.027 J-0.104 K0.000 F200.000
G3 X24.684 Y13.498 Z-6.000 I1.347 J-0.910 K0.000 F200.000
G2 X24.864 Y13.379 Z-6.000 I0.048 J-0.124 K0.000 F200.000
G3 X26.134 Y10.688 Z-6.000 I1.251 J-1.055 K0.000 F200.000
G2 X26.187 Y10.560 Z-6.000 I-0.049 J-0.095 K0.000 F200.000
G3 X27.038 Y7.773 Z-6.000 I1.115 J-1.183 K0.000 F200.000
G2 X27.188 Y7.618 Z-6.000 I0.019 J-0.131 K0.000 F200.000
G3 X27.839 Y4.714 Z-6.000 I0.990 J-1.303 K0.000 F200.000
G2 X27.863 Y4.578 Z-6.000 I-0.069 J-0.082 K0.000 F200.000
G3 X28.084 Y1.672 Z-6.000 I0.829 J-1.398 K0.000 F200.000
G2 X28.203 Y1.498 Z-6.000 I-0.016 J-0.139 K0.000 F200.000
G3 X28.162 Y-1.472 Z-6.000 I0.683 J-1.495 K0.000 F200.000
G2 X28.186 Y-1.616 Z-6.000 I-0.036 J-0.080 K0.000 F200.000
G3 X27.156 Y-2.644 Z-6.000 I0.574 J-1.604 K0.000 F200.000
G3 X27.811 Y-4.543 Z-6.000 I1.485 J-0.550 K0.000 F200.000
G2 X27.810 Y-4.733 Z-6.000 I-0.062 J-0.095 K0.000 F200.000
G3 X27.188 Y-7.617 Z-6.000 I0.362 J-1.587 K0.000 F200.000
G2 X27.152 Y-7.751 Z-6.000 I-0.094 J-0.046 K0.000 F200.000
G3 X26.112 Y-10.474 Z-6.000 I0.153 J-1.618 K0.000 F200.000
G2 X26.135 Y-10.688 Z-6.000 I-0.065 J-0.115 K0.000 F200.000
G3 X24.865 Y-13.379 Z-6.000 I-0.019 J-1.636 K0.000 F200.000
G2 X24.799 Y-13.501 Z-6.000 I-0.105 J-0.023 K0.000 F200.000
G3 X23.189 Y-15.930 Z-6.000 I-0.204 J-1.613 K0.000 F200.000
G2 X23.165 Y-16.144 Z-6.000 I-0.089 J-0.098 K0.000 F200.000
G3 X21.337 Y-18.492 Z-6.000 I-0.376 J-1.592 K0.000 F200.000
G2 X21.247 Y-18.598 Z-6.000 I-0.107 J0.001 K0.000 F200.000
G3 X19.144 Y-20.615 Z-6.000 I-0.552 J-1.529 K0.000 F200.000
G2 X19.074 Y-20.819 Z-6.000 I-0.108 J-0.077 K0.000 F200.000
G3 X16.777 Y-22.711 Z-6.000 I-0.715 J-1.472 K0.000 F200.000
G2 X16.665 Y-22.794 Z-6.000 I-0.105 J0.024 K0.000 F200.000
G3 X14.173 Y-24.303 Z-6.000 I-0.873 J-1.371 K0.000 F200.000
G2 X14.059 Y-24.486 Z-6.000 I-0.122 J-0.051 K0.000 F200.000
G3 X11.404 Y-25.830 Z-6.000 I-1.020 J-1.280 K0.000 F200.000
G2 X11.277 Y-25.886 Z-6.000 I-0.097 J0.047 K0.000 F200.000
G3 X8.515 Y-26.814 Z-6.000 I-1.152 J-1.147 K0.000 F200.000
G2 X8.364 Y-26.968 Z-6.000 I-0.131 J-0.023 K0.000 F200.000
G3 X5.480 Y-27.699 Z-6.000 I-1.275 J-1.026 K0.000 F200.000
G2 X5.344 Y-27.726 Z-6.000 I-0.084 J0.067 K0.000 F200.000
G3 X2.445 Y-28.027 Z-6.000 I-1.375 J-0.867 K0.000 F200.000
G2 X2.264 Y-28.145 Z-6.000 I-0.132 J0.006 K0.000 F200.000
G3 X-0.638 Y-28.090 Z-6.000 I-1.465 J-0.718 K0.000 F200.000
G2 X-0.719 Y-28.235 Z-6.000 I-0.231 J0.034 K0.000 F200.000
G2 X-0.849 Y-28.224 Z-6.000 I-0.040 J0.287 K0.000 F200.000
G3 X-3.743 Y-27.884 Z-6.000 I-1.531 J-0.546 K0.000 F200.000
G2 X-3.945 Y-27.959 Z-6.000 I-0.128 J0.035 K0.000 F200.000
G3 X-6.865 Y-27.388 Z-6.000 I-1.591 J-0.383 K0.000 F200.000
G2 X-7.000 Y-27.355 Z-6.000 I-0.048 J0.096 K0.000 F200.000
G3 X-9.750 Y-26.390 Z-6.000 I-1.613 J-0.198 K0.000 F200.000
G2 X-9.964 Y-26.419 Z-6.000 I-0.117 J0.062 K0.000 F200.000
G3 X-12.689 Y-25.224 Z-6.000 I-1.636 J-0.026 K0.000 F200.000
G2 X-12.813 Y-25.162 Z-6.000 I-0.026 J0.104 K0.000 F200.000
G3 X-15.285 Y-23.619 Z-6.000 I-1.618 J0.160 K0.000 F200.000
G2 X-15.500 Y-23.601 Z-6.000 I-0.101 J0.086 K0.000 F200.000
G3 X-17.897 Y-21.839 Z-6.000 I-1.602 J0.332 K0.000 F200.000
G2 X-18.005 Y-21.751 Z-6.000 I-0.002 J0.107 K0.000 F200.000
G3 X-20.080 Y-19.705 Z-6.000 I-1.544 J0.510 K0.000 F200.000
G2 X-20.286 Y-19.640 Z-6.000 I-0.080 J0.106 K0.000 F200.000
G3 X-22.240 Y-17.396 Z-6.000 I-1.491 J0.675 K0.000 F200.000
G2 X-22.326 Y-17.287 Z-6.000 I0.021 J0.105 K0.000 F200.000
G3 X-23.903 Y-14.837 Z-6.000 I-1.395 J0.835 K0.000 F200.000
G2 X-24.090 Y-14.729 Z-6.000 I-0.054 J0.121 K0.000 F200.000
G3 X-25.506 Y-12.112 Z-6.000 I-1.307 J0.984 K0.000 F200.000
G2 X-25.566 Y-11.986 Z-6.000 I0.044 J0.098 K0.000 F200.000
G3 X-26.569 Y-9.251 Z-6.000 I-1.178 J1.120 K0.000 F200.000
G2 X-26.727 Y-9.104 Z-6.000 I-0.027 J0.130 K0.000 F200.000
G3 X-27.537 Y-6.241 Z-6.000 I-1.060 J1.246 K0.000 F200.000
G2 X-27.568 Y-6.106 Z-6.000 I0.064 J0.086 K0.000 F200.000
G3 X-27.949 Y-3.217 Z-6.000 I-0.905 J1.350 K0.000 F200.000
G2 X-28.071 Y-3.039 Z-6.000 I0.002 J0.133 K0.000 F200.000
G3 X-28.122 Y-0.131 Z-6.000 I-0.753 J1.441 K0.000 F200.000
G2 X-28.234 Y0.074 Z-6.000 I0.004 J0.136 K0.000 F200.000
G3 X-27.983 Y2.989 Z-6.000 I-0.618 J1.521 K0.000 F200.000
G2 X-28.057 Y3.176 Z-6.000 I0.001 J0.109 K0.000 F200.000
G3 X-27.480 Y6.033 Z-6.000 I-0.418 J1.571 K0.000 F200.000
G2 X-27.537 Y6.240 Z-6.000 I0.046 J0.124 K0.000 F200.000
G3 X-26.728 Y9.104 Z-6.000 I-0.251 J1.617 K0.000 F200.000
G2 X-26.683 Y9.235 Z-6.000 I0.099 J0.040 K0.000 F200.000
G3 X-25.495 Y11.896 Z-6.000 I-0.064 J1.624 K0.000 F200.000
G2 X-25.506 Y12.111 Z-6.000 I0.072 J0.112 K0.000 F200.000
G3 X-24.090 Y14.728 Z-6.000 I0.109 J1.633 K0.000 F200.000
G2 X-24.018 Y14.847 Z-6.000 I0.106 J0.017 K0.000 F200.000
G3 X-22.276 Y17.183 Z-6.000 I0.293 J1.599 K0.000 F200.000
G2 X-22.240 Y17.396 Z-6.000 I0.094 J0.093 K0.000 F200.000
G3 X-20.286 Y19.640 Z-6.000 I0.463 J1.569 K0.000 F200.000
G2 X-20.190 Y19.740 Z-6.000 I0.107 J-0.007 K0.000 F200.000
G3 X-17.980 Y21.639 Z-6.000 I0.635 J1.496 K0.000 F200.000
G2 X-17.898 Y21.838 Z-6.000 I0.112 J0.071 K0.000 F200.000
G3 X-15.500 Y23.601 Z-6.000 I0.795 J1.430 K0.000 F200.000
G2 X-15.384 Y23.677 Z-6.000 I0.103 J-0.030 K0.000 F200.000
G3 X-12.812 Y25.047 Z-6.000 I0.947 J1.321 K0.000 F200.000
G2 X-12.689 Y25.224 Z-6.000 I0.125 J0.044 K0.000 F200.000
G3 X-9.964 Y26.419 Z-6.000 I1.089 J1.221 K0.000 F200.000
G2 X-9.834 Y26.468 Z-6.000 I0.094 J-0.052 K0.000 F200.000
G3 X-7.025 Y27.242 Z-6.000 I1.213 J1.082 K0.000 F200.000
G2 X-6.866 Y27.388 Z-6.000 I0.132 J0.016 K0.000 F200.000
G3 X-3.946 Y27.959 Z-6.000 I1.330 J0.954 K0.000 F200.000
G2 X-3.808 Y27.978 Z-6.000 I0.080 J-0.071 K0.000 F200.000
G3 X-0.898 Y28.119 Z-6.000 I1.420 J0.790 K0.000 F200.000
G2 X-0.711 Y28.227 Z-6.000 I0.132 J-0.013 K0.000 F200.000
G3 X2.264 Y28.145 Z-6.000 I1.506 J0.640 K0.000 F200.000
G2 X2.402 Y28.134 Z-6.000 I0.063 J-0.087 K0.000 F200.000
G3 X5.273 Y27.635 Z-6.000 I1.559 J0.461 K0.000 F200.000
G2 X5.479 Y27.699 Z-6.000 I0.126 J-0.042 K0.000 F200.000
G3 X8.364 Y26.968 Z-6.000 I1.609 J0.295 K0.000 F200.000
G2 X8.497 Y26.928 Z-6.000 I0.042 J-0.099 K0.000 F200.000
G3 X11.189 Y25.813 Z-6.000 I1.622 J0.109 K0.000 F200.000
G2 X11.404 Y25.830 Z-6.000 I0.114 J-0.068 K0.000 F200.000
G3 X14.059 Y24.487 Z-6.000 I1.635 J-0.064 K0.000 F200.000
G2 X14.179 Y24.418 Z-6.000 I0.020 J-0.106 K0.000 F200.000
G3 X16.563 Y22.741 Z-6.000 I1.606 J-0.249 K0.000 F200.000
G2 X16.776 Y22.711 Z-6.000 I0.096 J-0.092 K0.000 F200.000
G3 X19.073 Y20.820 Z-6.000 I1.582 J-0.420 K0.000 F200.000
G2 X19.152 Y20.781 Z-6.000 I-0.004 J-0.107 K0.000 F200.000
G0 Z11.000
G0 Z11.000
(Finish operation: Profile)
(Block-name: post_amble)
(Block-expand: 0)
(Block-enable: 1)
(Begin postamble)
M5
G17 G90
M2
