(Exported by FreeCAD)
(Post Processor: grbl_post)
(Output Time:2023-08-21 23:26:36.797599)
(Begin preamble)
G17 G90
G21
(Block-name: G54)
(Block-expand: 0)
(Block-enable: 1)
(Begin operation: G54)
(Path: G54)
G54
G0 Z5.000
(Finish operation: G54)
(Block-name: 3mm Endmill001)
(Block-expand: 0)
(Block-enable: 1)
(Begin operation: 3mm Endmill001)
(Path: 3mm Endmill001)
(3mm Endmill001)
(Begin toolchange)
( M6 T2 )
(Finish operation: 3mm Endmill001)
(Block-name: Adaptive)
(Block-expand: 0)
(Block-enable: 1)
(Begin operation: Adaptive)
(Path: Adaptive)
(Adaptive)
(Helix to depth: -6.000000)
G0 Z5.000
G0 X-1.742 Y54.981 Z5.000
G0 X-1.742 Y54.981 Z3.000
G1 X-1.742 Y54.981 Z0.000 F100.000
G1 X-1.742 Y54.981 Z0.000 F100.000
G1 X-1.819 Y54.699 Z-0.026 F100.000
G1 X-1.839 Y54.408 Z-0.052 F100.000
G1 X-1.802 Y54.118 Z-0.077 F100.000
G1 X-1.709 Y53.841 Z-0.103 F100.000
G1 X-1.564 Y53.587 Z-0.129 F100.000
G1 X-1.372 Y53.367 Z-0.155 F100.000
G1 X-1.141 Y53.189 Z-0.180 F100.000
G1 X-0.879 Y53.058 Z-0.206 F100.000
G1 X-0.597 Y52.982 Z-0.232 F100.000
G1 X-0.306 Y52.962 Z-0.258 F100.000
G1 X-0.016 Y52.999 Z-0.283 F100.000
G1 X0.261 Y53.092 Z-0.309 F100.000
G1 X0.514 Y53.237 Z-0.335 F100.000
G1 X0.734 Y53.429 Z-0.361 F100.000
G1 X0.913 Y53.660 Z-0.387 F100.000
G1 X1.043 Y53.921 Z-0.412 F100.000
G1 X1.120 Y54.203 Z-0.438 F100.000
G1 X1.140 Y54.495 Z-0.464 F100.000
G1 X1.103 Y54.784 Z-0.490 F100.000
G1 X1.010 Y55.061 Z-0.515 F100.000
G1 X0.865 Y55.315 Z-0.541 F100.000
G1 X0.673 Y55.535 Z-0.567 F100.000
G1 X0.442 Y55.714 Z-0.593 F100.000
G1 X0.180 Y55.844 Z-0.618 F100.000
G1 X-0.102 Y55.920 Z-0.644 F100.000
G1 X-0.393 Y55.940 Z-0.670 F100.000
G1 X-0.683 Y55.903 Z-0.696 F100.000
G1 X-0.960 Y55.810 Z-0.721 F100.000
G1 X-1.213 Y55.665 Z-0.747 F100.000
G1 X-1.434 Y55.473 Z-0.773 F100.000
G1 X-1.612 Y55.242 Z-0.799 F100.000
G1 X-1.742 Y54.981 Z-0.825 F100.000
G1 X-1.819 Y54.699 Z-0.850 F100.000
G1 X-1.839 Y54.408 Z-0.876 F100.000
G1 X-1.802 Y54.118 Z-0.902 F100.000
G1 X-1.709 Y53.841 Z-0.928 F100.000
G1 X-1.564 Y53.587 Z-0.953 F100.000
G1 X-1.372 Y53.367 Z-0.979 F100.000
G1 X-1.141 Y53.189 Z-1.005 F100.000
G1 X-0.879 Y53.058 Z-1.031 F100.000
G1 X-0.597 Y52.982 Z-1.056 F100.000
G1 X-0.306 Y52.962 Z-1.082 F100.000
G1 X-0.016 Y52.999 Z-1.108 F100.000
G1 X0.261 Y53.092 Z-1.134 F100.000
G1 X0.514 Y53.237 Z-1.160 F100.000
G1 X0.734 Y53.429 Z-1.185 F100.000
G1 X0.913 Y53.660 Z-1.211 F100.000
G1 X1.043 Y53.921 Z-1.237 F100.000
G1 X1.120 Y54.203 Z-1.263 F100.000
G1 X1.140 Y54.495 Z-1.288 F100.000
G1 X1.103 Y54.784 Z-1.314 F100.000
G1 X1.010 Y55.061 Z-1.340 F100.000
G1 X0.865 Y55.315 Z-1.366 F100.000
G1 X0.673 Y55.535 Z-1.391 F100.000
G1 X0.442 Y55.714 Z-1.417 F100.000
G1 X0.180 Y55.844 Z-1.443 F100.000
G1 X-0.102 Y55.920 Z-1.469 F100.000
G1 X-0.393 Y55.940 Z-1.495 F100.000
G1 X-0.683 Y55.903 Z-1.520 F100.000
G1 X-0.960 Y55.810 Z-1.546 F100.000
G1 X-1.213 Y55.665 Z-1.572 F100.000
G1 X-1.434 Y55.473 Z-1.598 F100.000
G1 X-1.612 Y55.242 Z-1.623 F100.000
G1 X-1.742 Y54.981 Z-1.649 F100.000
G1 X-1.819 Y54.699 Z-1.675 F100.000
G1 X-1.839 Y54.408 Z-1.701 F100.000
G1 X-1.802 Y54.118 Z-1.726 F100.000
G1 X-1.709 Y53.841 Z-1.752 F100.000
G1 X-1.564 Y53.587 Z-1.778 F100.000
G1 X-1.372 Y53.367 Z-1.804 F100.000
G1 X-1.141 Y53.189 Z-1.829 F100.000
G1 X-0.879 Y53.058 Z-1.855 F100.000
G1 X-0.597 Y52.982 Z-1.881 F100.000
G1 X-0.306 Y52.962 Z-1.907 F100.000
G1 X-0.016 Y52.999 Z-1.933 F100.000
G1 X0.261 Y53.092 Z-1.958 F100.000
G1 X0.514 Y53.237 Z-1.984 F100.000
G1 X0.734 Y53.429 Z-2.010 F100.000
G1 X0.913 Y53.660 Z-2.036 F100.000
G1 X1.043 Y53.921 Z-2.061 F100.000
G1 X1.120 Y54.203 Z-2.087 F100.000
G1 X1.140 Y54.495 Z-2.113 F100.000
G1 X1.103 Y54.784 Z-2.139 F100.000
G1 X1.010 Y55.061 Z-2.164 F100.000
G1 X0.865 Y55.315 Z-2.190 F100.000
G1 X0.673 Y55.535 Z-2.216 F100.000
G1 X0.442 Y55.714 Z-2.242 F100.000
G1 X0.180 Y55.844 Z-2.268 F100.000
G1 X-0.102 Y55.920 Z-2.293 F100.000
G1 X-0.393 Y55.940 Z-2.319 F100.000
G1 X-0.683 Y55.903 Z-2.345 F100.000
G1 X-0.960 Y55.810 Z-2.371 F100.000
G1 X-1.213 Y55.665 Z-2.396 F100.000
G1 X-1.434 Y55.473 Z-2.422 F100.000
G1 X-1.612 Y55.242 Z-2.448 F100.000
G1 X-1.742 Y54.981 Z-2.474 F100.000
G1 X-1.819 Y54.699 Z-2.499 F100.000
G1 X-1.839 Y54.408 Z-2.525 F100.000
G1 X-1.802 Y54.118 Z-2.551 F100.000
G1 X-1.709 Y53.841 Z-2.577 F100.000
G1 X-1.564 Y53.587 Z-2.603 F100.000
G1 X-1.372 Y53.367 Z-2.628 F100.000
G1 X-1.141 Y53.189 Z-2.654 F100.000
G1 X-0.879 Y53.058 Z-2.680 F100.000
G1 X-0.597 Y52.982 Z-2.706 F100.000
G1 X-0.306 Y52.962 Z-2.731 F100.000
G1 X-0.016 Y52.999 Z-2.757 F100.000
G1 X0.261 Y53.092 Z-2.783 F100.000
G1 X0.514 Y53.237 Z-2.809 F100.000
G1 X0.734 Y53.429 Z-2.834 F100.000
G1 X0.913 Y53.660 Z-2.860 F100.000
G1 X1.043 Y53.921 Z-2.886 F100.000
G1 X1.120 Y54.203 Z-2.912 F100.000
G1 X1.140 Y54.495 Z-2.937 F100.000
G1 X1.103 Y54.784 Z-2.963 F100.000
G1 X1.010 Y55.061 Z-2.989 F100.000
G1 X0.865 Y55.315 Z-3.015 F100.000
G1 X0.673 Y55.535 Z-3.041 F100.000
G1 X0.442 Y55.714 Z-3.066 F100.000
G1 X0.180 Y55.844 Z-3.092 F100.000
G1 X-0.102 Y55.920 Z-3.118 F100.000
G1 X-0.393 Y55.940 Z-3.144 F100.000
G1 X-0.683 Y55.903 Z-3.169 F100.000
G1 X-0.960 Y55.810 Z-3.195 F100.000
G1 X-1.213 Y55.665 Z-3.221 F100.000
G1 X-1.434 Y55.473 Z-3.247 F100.000
G1 X-1.612 Y55.242 Z-3.272 F100.000
G1 X-1.742 Y54.981 Z-3.298 F100.000
G1 X-1.819 Y54.699 Z-3.324 F100.000
G1 X-1.839 Y54.408 Z-3.350 F100.000
G1 X-1.802 Y54.118 Z-3.376 F100.000
G1 X-1.709 Y53.841 Z-3.401 F100.000
G1 X-1.564 Y53.587 Z-3.427 F100.000
G1 X-1.372 Y53.367 Z-3.453 F100.000
G1 X-1.141 Y53.189 Z-3.479 F100.000
G1 X-0.879 Y53.058 Z-3.504 F100.000
G1 X-0.597 Y52.982 Z-3.530 F100.000
G1 X-0.306 Y52.962 Z-3.556 F100.000
G1 X-0.016 Y52.999 Z-3.582 F100.000
G1 X0.261 Y53.092 Z-3.607 F100.000
G1 X0.514 Y53.237 Z-3.633 F100.000
G1 X0.734 Y53.429 Z-3.659 F100.000
G1 X0.913 Y53.660 Z-3.685 F100.000
G1 X1.043 Y53.921 Z-3.711 F100.000
G1 X1.120 Y54.203 Z-3.736 F100.000
G1 X1.140 Y54.495 Z-3.762 F100.000
G1 X1.103 Y54.784 Z-3.788 F100.000
G1 X1.010 Y55.061 Z-3.814 F100.000
G1 X0.865 Y55.315 Z-3.839 F100.000
G1 X0.673 Y55.535 Z-3.865 F100.000
G1 X0.442 Y55.714 Z-3.891 F100.000
G1 X0.180 Y55.844 Z-3.917 F100.000
G1 X-0.102 Y55.920 Z-3.942 F100.000
G1 X-0.393 Y55.940 Z-3.968 F100.000
G1 X-0.683 Y55.903 Z-3.994 F100.000
G1 X-0.960 Y55.810 Z-4.020 F100.000
G1 X-1.213 Y55.665 Z-4.046 F100.000
G1 X-1.434 Y55.473 Z-4.071 F100.000
G1 X-1.612 Y55.242 Z-4.097 F100.000
G1 X-1.742 Y54.981 Z-4.123 F100.000
G1 X-1.819 Y54.699 Z-4.149 F100.000
G1 X-1.839 Y54.408 Z-4.174 F100.000
G1 X-1.802 Y54.118 Z-4.200 F100.000
G1 X-1.709 Y53.841 Z-4.226 F100.000
G1 X-1.564 Y53.587 Z-4.252 F100.000
G1 X-1.372 Y53.367 Z-4.277 F100.000
G1 X-1.141 Y53.189 Z-4.303 F100.000
G1 X-0.879 Y53.058 Z-4.329 F100.000
G1 X-0.597 Y52.982 Z-4.355 F100.000
G1 X-0.306 Y52.962 Z-4.380 F100.000
G1 X-0.016 Y52.999 Z-4.406 F100.000
G1 X0.261 Y53.092 Z-4.432 F100.000
G1 X0.514 Y53.237 Z-4.458 F100.000
G1 X0.734 Y53.429 Z-4.484 F100.000
G1 X0.913 Y53.660 Z-4.509 F100.000
G1 X1.043 Y53.921 Z-4.535 F100.000
G1 X1.120 Y54.203 Z-4.561 F100.000
G1 X1.140 Y54.495 Z-4.587 F100.000
G1 X1.103 Y54.784 Z-4.612 F100.000
G1 X1.010 Y55.061 Z-4.638 F100.000
G1 X0.865 Y55.315 Z-4.664 F100.000
G1 X0.673 Y55.535 Z-4.690 F100.000
G1 X0.442 Y55.714 Z-4.715 F100.000
G1 X0.180 Y55.844 Z-4.741 F100.000
G1 X-0.102 Y55.920 Z-4.767 F100.000
G1 X-0.393 Y55.940 Z-4.793 F100.000
G1 X-0.683 Y55.903 Z-4.819 F100.000
G1 X-0.960 Y55.810 Z-4.844 F100.000
G1 X-1.213 Y55.665 Z-4.870 F100.000
G1 X-1.434 Y55.473 Z-4.896 F100.000
G1 X-1.612 Y55.242 Z-4.922 F100.000
G1 X-1.742 Y54.981 Z-4.947 F100.000
G1 X-1.819 Y54.699 Z-4.973 F100.000
G1 X-1.839 Y54.408 Z-4.999 F100.000
G1 X-1.802 Y54.118 Z-5.025 F100.000
G1 X-1.709 Y53.841 Z-5.050 F100.000
G1 X-1.564 Y53.587 Z-5.076 F100.000
G1 X-1.372 Y53.367 Z-5.102 F100.000
G1 X-1.141 Y53.189 Z-5.128 F100.000
G1 X-0.879 Y53.058 Z-5.154 F100.000
G1 X-0.597 Y52.982 Z-5.179 F100.000
G1 X-0.306 Y52.962 Z-5.205 F100.000
G1 X-0.016 Y52.999 Z-5.231 F100.000
G1 X0.261 Y53.092 Z-5.257 F100.000
G1 X0.514 Y53.237 Z-5.282 F100.000
G1 X0.734 Y53.429 Z-5.308 F100.000
G1 X0.913 Y53.660 Z-5.334 F100.000
G1 X1.043 Y53.921 Z-5.360 F100.000
G1 X1.120 Y54.203 Z-5.385 F100.000
G1 X1.140 Y54.495 Z-5.411 F100.000
G1 X1.103 Y54.784 Z-5.437 F100.000
G1 X1.010 Y55.061 Z-5.463 F100.000
G1 X0.865 Y55.315 Z-5.488 F100.000
G1 X0.673 Y55.535 Z-5.514 F100.000
G1 X0.442 Y55.714 Z-5.540 F100.000
G1 X0.180 Y55.844 Z-5.566 F100.000
G1 X-0.102 Y55.920 Z-5.592 F100.000
G1 X-0.393 Y55.940 Z-5.617 F100.000
G1 X-0.683 Y55.903 Z-5.643 F100.000
G1 X-0.960 Y55.810 Z-5.669 F100.000
G1 X-1.213 Y55.665 Z-5.695 F100.000
G1 X-1.434 Y55.473 Z-5.720 F100.000
G1 X-1.612 Y55.242 Z-5.746 F100.000
G1 X-1.742 Y54.981 Z-5.772 F100.000
G1 X-1.819 Y54.699 Z-5.798 F100.000
G1 X-1.839 Y54.408 Z-5.823 F100.000
G1 X-1.802 Y54.118 Z-5.849 F100.000
G1 X-1.709 Y53.841 Z-5.875 F100.000
G1 X-1.564 Y53.587 Z-5.901 F100.000
G1 X-1.372 Y53.367 Z-5.927 F100.000
G1 X-1.141 Y53.189 Z-5.952 F100.000
G1 X-0.879 Y53.058 Z-5.978 F100.000
G1 X-0.597 Y52.982 Z-6.000 F200.000
G1 X-0.306 Y52.962 Z-6.000 F200.000
G1 X-0.016 Y52.999 Z-6.000 F200.000
G1 X0.261 Y53.092 Z-6.000 F200.000
G1 X0.514 Y53.237 Z-6.000 F200.000
G1 X0.734 Y53.429 Z-6.000 F200.000
G1 X0.913 Y53.660 Z-6.000 F200.000
G1 X1.043 Y53.921 Z-6.000 F200.000
G1 X1.120 Y54.203 Z-6.000 F200.000
G1 X1.140 Y54.495 Z-6.000 F200.000
G1 X1.103 Y54.784 Z-6.000 F200.000
G1 X1.010 Y55.061 Z-6.000 F200.000
G1 X0.865 Y55.315 Z-6.000 F200.000
G1 X0.673 Y55.535 Z-6.000 F200.000
G1 X0.442 Y55.714 Z-6.000 F200.000
G1 X0.180 Y55.844 Z-6.000 F200.000
G1 X-0.102 Y55.920 Z-6.000 F200.000
G1 X-0.393 Y55.940 Z-6.000 F200.000
G1 X-0.683 Y55.903 Z-6.000 F200.000
G1 X-0.960 Y55.810 Z-6.000 F200.000
G1 X-1.213 Y55.665 Z-6.000 F200.000
G1 X-1.434 Y55.473 Z-6.000 F200.000
G1 X-1.612 Y55.242 Z-6.000 F200.000
G1 X-1.742 Y54.981 Z-6.000 F200.000
G1 X-1.819 Y54.699 Z-6.000 F200.000
G1 X-1.839 Y54.408 Z-6.000 F200.000
G1 X-1.802 Y54.118 Z-6.000 F200.000
G1 X-1.709 Y53.841 Z-6.000 F200.000
G1 X-1.564 Y53.587 Z-6.000 F200.000
G1 X-1.372 Y53.367 Z-6.000 F200.000
G1 X-1.141 Y53.189 Z-6.000 F200.000
G1 X-0.879 Y53.058 Z-6.000 F200.000
(Adaptive - depth: -6.000000)
G1 X0.064 Y52.962 F200.000
G1 X0.459 Y52.962 F200.000
G1 X0.571 Y52.981 F200.000
G1 X0.729 Y53.053 F200.000
G1 X0.962 Y53.226 F200.000
G1 X1.083 Y53.350 F200.000
G1 X1.289 Y53.658 F200.000
G1 X1.414 Y53.970 F200.000
G1 X1.455 Y54.150 F200.000
G1 X1.474 Y54.320 F200.000
G1 X1.477 Y54.530 F200.000
G1 X1.447 Y54.793 F200.000
G1 X1.383 Y55.045 F200.000
G1 X1.289 Y55.271 F200.000
G1 X1.180 Y55.455 F200.000
G1 X0.887 Y55.759 F200.000
G1 X0.744 Y55.872 F200.000
G1 X0.579 Y55.947 F200.000
G1 X-0.132 Y55.974 F200.000
G1 X-0.244 Y55.966 F200.000
G1 X-0.244 Y55.966 F200.000
G1 X-0.361 Y55.932 F200.000
G1 X-0.429 Y55.883 F200.000
G0 X-0.440 Y55.857
G0 X-0.432 Y55.748
G0 X0.211 Y53.233
G1 X0.222 Y53.195 F200.000
G1 X0.267 Y53.060 F200.000
G1 X0.335 Y52.992 F200.000
G1 X0.481 Y52.932 F200.000
G1 X0.481 Y52.932 F200.000
G1 X0.763 Y52.910 F200.000
G1 X0.932 Y52.929 F200.000
G1 X1.083 Y53.008 F200.000
G1 X1.312 Y53.188 F200.000
G1 X1.391 Y53.271 F200.000
G1 X1.602 Y53.575 F200.000
G1 X1.737 Y53.891 F200.000
G1 X1.782 Y54.079 F200.000
G1 X1.808 Y54.248 F200.000
G1 X1.823 Y54.485 F200.000
G1 X1.805 Y54.767 F200.000
G1 X1.748 Y55.026 F200.000
G1 X1.673 Y55.241 F200.000
G1 X1.575 Y55.444 F200.000
G1 X1.312 Y55.774 F200.000
G1 X1.214 Y55.850 F200.000
G1 X1.162 Y55.880 F200.000
G1 X1.041 Y55.898 F200.000
G1 X1.041 Y55.898 F200.000
G1 X0.914 Y55.883 F200.000
G1 X0.835 Y55.842 F200.000
G0 X0.816 Y55.820
G0 X0.789 Y55.711
G0 X0.635 Y53.203
G1 X0.635 Y53.162 F200.000
G1 X0.635 Y53.056 F200.000
G1 X0.658 Y53.000 F200.000
G1 X0.722 Y52.932 F200.000
G1 X0.838 Y52.883 F200.000
G1 X0.838 Y52.883 F200.000
G1 X1.120 Y52.846 F200.000
G1 X1.233 Y52.857 F200.000
G1 X1.342 Y52.902 F200.000
G1 X1.489 Y52.996 F200.000
G1 X1.662 Y53.150 F200.000
G1 X1.891 Y53.440 F200.000
G1 X2.053 Y53.774 F200.000
G1 X2.109 Y53.962 F200.000
G1 X2.147 Y54.139 F200.000
G1 X2.173 Y54.368 F200.000
G1 X2.173 Y54.658 F200.000
G1 X2.139 Y54.940 F200.000
G1 X2.071 Y55.199 F200.000
G1 X1.880 Y55.564 F200.000
G1 X1.771 Y55.707 F200.000
G1 X1.673 Y55.778 F200.000
G1 X1.613 Y55.793 F200.000
G1 X1.613 Y55.793 F200.000
G1 X1.485 Y55.789 F200.000
G1 X1.398 Y55.756 F200.000
G0 X1.380 Y55.737
G0 X1.342 Y55.632
G0 X0.947 Y53.139
G1 X0.944 Y53.098 F200.000
G1 X0.932 Y52.992 F200.000
G1 X0.951 Y52.936 F200.000
G1 X1.015 Y52.868 F200.000
G1 X1.132 Y52.816 F200.000
G1 X1.132 Y52.816 F200.000
G1 X1.357 Y52.771 F200.000
G1 X1.470 Y52.771 F200.000
G1 X1.526 Y52.782 F200.000
G1 X1.684 Y52.853 F200.000
G1 X1.872 Y52.985 F200.000
G1 X1.955 Y53.060 F200.000
G1 X2.195 Y53.342 F200.000
G1 X2.372 Y53.665 F200.000
G1 X2.440 Y53.853 F200.000
G1 X2.485 Y54.030 F200.000
G1 X2.523 Y54.259 F200.000
G1 X2.541 Y54.553 F200.000
G1 X2.526 Y54.857 F200.000
G1 X2.447 Y55.180 F200.000
G1 X2.259 Y55.549 F200.000
G1 X2.222 Y55.598 F200.000
G1 X2.177 Y55.635 F200.000
G1 X2.068 Y55.680 F200.000
G1 X2.008 Y55.695 F200.000
G1 X2.008 Y55.695 F200.000
G1 X1.880 Y55.699 F200.000
G1 X1.793 Y55.669 F200.000
G0 X1.774 Y55.650
G0 X1.733 Y55.545
G0 X1.259 Y53.075
G1 X1.256 Y53.034 F200.000
G1 X1.241 Y52.929 F200.000
G1 X1.256 Y52.868 F200.000
G1 X1.308 Y52.793 F200.000
G1 X1.417 Y52.726 F200.000
G1 X1.417 Y52.726 F200.000
G1 X1.643 Y52.665 F200.000
G1 X1.756 Y52.665 F200.000
G1 X1.917 Y52.722 F200.000
G1 X2.162 Y52.872 F200.000
G1 X2.252 Y52.947 F200.000
G1 X2.504 Y53.218 F200.000
G1 X2.692 Y53.538 F200.000
G1 X2.767 Y53.722 F200.000
G1 X2.823 Y53.887 F200.000
G1 X2.880 Y54.147 F200.000
G1 X2.914 Y54.447 F200.000
G1 X2.906 Y54.756 F200.000
G1 X2.850 Y55.053 F200.000
G1 X2.718 Y55.383 F200.000
G1 X2.684 Y55.432 F200.000
G1 X2.586 Y55.508 F200.000
G1 X2.417 Y55.568 F200.000
G1 X2.417 Y55.568 F200.000
G1 X2.289 Y55.583 F200.000
G1 X2.229 Y55.571 F200.000
G1 X2.203 Y55.560 F200.000
G0 X2.184 Y55.541
G0 X2.135 Y55.440
G0 X1.556 Y52.970
G1 X1.545 Y52.932 F200.000
G1 X1.530 Y52.827 F200.000
G1 X1.541 Y52.767 F200.000
G1 X1.617 Y52.669 F200.000
G1 X1.695 Y52.617 F200.000
G1 X1.695 Y52.617 F200.000
G1 X1.921 Y52.553 F200.000
G1 X2.034 Y52.545 F200.000
G1 X2.252 Y52.617 F200.000
G1 X2.496 Y52.771 F200.000
G1 X2.763 Y53.026 F200.000
G1 X2.977 Y53.327 F200.000
G1 X3.071 Y53.508 F200.000
G1 X3.143 Y53.688 F200.000
G1 X3.211 Y53.914 F200.000
G1 X3.267 Y54.203 F200.000
G1 X3.289 Y54.523 F200.000
G1 X3.271 Y54.801 F200.000
G1 X3.199 Y55.083 F200.000
G1 X3.154 Y55.192 F200.000
G1 X3.124 Y55.241 F200.000
G1 X3.038 Y55.320 F200.000
G1 X2.925 Y55.372 F200.000
G1 X2.925 Y55.372 F200.000
G1 X2.797 Y55.398 F200.000
G1 X2.737 Y55.395 F200.000
G1 X2.711 Y55.387 F200.000
G0 X2.688 Y55.372
G0 X2.635 Y55.274
G0 X1.872 Y52.872
G1 X1.857 Y52.831 F200.000
G1 X1.835 Y52.729 F200.000
G1 X1.838 Y52.665 F200.000
G1 X1.880 Y52.586 F200.000
G1 X1.974 Y52.500 F200.000
G1 X1.974 Y52.500 F200.000
G1 X2.143 Y52.436 F200.000
G1 X2.256 Y52.421 F200.000
G1 X2.312 Y52.425 F200.000
G1 X2.534 Y52.496 F200.000
G1 X2.786 Y52.635 F200.000
G1 X3.064 Y52.876 F200.000
G1 X3.289 Y53.169 F200.000
G1 X3.391 Y53.342 F200.000
G1 X3.474 Y53.523 F200.000
G1 X3.553 Y53.744 F200.000
G1 X3.628 Y54.049 F200.000
G1 X3.669 Y54.368 F200.000
G1 X3.650 Y54.707 F200.000
G1 X3.590 Y54.932 F200.000
G1 X3.538 Y55.041 F200.000
G1 X3.500 Y55.086 F200.000
G1 X3.455 Y55.124 F200.000
G1 X3.346 Y55.177 F200.000
G1 X3.346 Y55.177 F200.000
G1 X3.218 Y55.203 F200.000
G1 X3.132 Y55.192 F200.000
G0 X3.109 Y55.177
G0 X3.049 Y55.083
G0 X2.094 Y52.744
G1 X2.079 Y52.711 F200.000
G1 X2.049 Y52.609 F200.000
G1 X2.049 Y52.549 F200.000
G1 X2.090 Y52.470 F200.000
G1 X2.184 Y52.383 F200.000
G1 X2.184 Y52.383 F200.000
G1 X2.406 Y52.293 F200.000
G1 X2.519 Y52.278 F200.000
G1 X2.801 Y52.346 F200.000
G1 X3.008 Y52.447 F200.000
G1 X3.305 Y52.665 F200.000
G1 X3.556 Y52.936 F200.000
G1 X3.669 Y53.105 F200.000
G1 X3.759 Y53.263 F200.000
G1 X3.868 Y53.492 F200.000
G1 X3.977 Y53.816 F200.000
G1 X4.030 Y54.117 F200.000
G1 X4.030 Y54.462 F200.000
G1 X3.974 Y54.744 F200.000
G1 X3.914 Y54.846 F200.000
G1 X3.763 Y54.955 F200.000
G1 X3.763 Y54.955 F200.000
G1 X3.639 Y54.992 F200.000
G1 X3.553 Y54.989 F200.000
G0 X3.526 Y54.974
G0 X3.459 Y54.883
G0 X2.320 Y52.628
G1 X2.305 Y52.594 F200.000
G1 X2.263 Y52.492 F200.000
G1 X2.263 Y52.432 F200.000
G1 X2.301 Y52.350 F200.000
G1 X2.391 Y52.263 F200.000
G1 X2.391 Y52.263 F200.000
G1 X2.658 Y52.132 F200.000
G1 X2.771 Y52.117 F200.000
G1 X2.940 Y52.139 F200.000
G1 X3.211 Y52.237 F200.000
G1 X3.263 Y52.263 F200.000
G1 X3.571 Y52.466 F200.000
G1 X3.835 Y52.726 F200.000
G1 X3.962 Y52.891 F200.000
G1 X4.071 Y53.060 F200.000
G1 X4.188 Y53.274 F200.000
G1 X4.308 Y53.583 F200.000
G1 X4.376 Y53.872 F200.000
G1 X4.398 Y54.222 F200.000
G1 X4.368 Y54.447 F200.000
G1 X4.353 Y54.504 F200.000
G1 X4.293 Y54.605 F200.000
G1 X4.143 Y54.711 F200.000
G1 X4.143 Y54.711 F200.000
G1 X4.019 Y54.752 F200.000
G1 X3.929 Y54.752 F200.000
G0 X3.906 Y54.741
G0 X3.835 Y54.650
G0 X2.602 Y52.466
G1 X2.583 Y52.429 F200.000
G1 X2.534 Y52.335 F200.000
G1 X2.530 Y52.274 F200.000
G1 X2.556 Y52.188 F200.000
G1 X2.639 Y52.094 F200.000
G1 X2.639 Y52.094 F200.000
G1 X2.842 Y51.970 F200.000
G1 X2.955 Y51.932 F200.000
G1 X3.180 Y51.947 F200.000
G1 X3.406 Y52.011 F200.000
G1 X3.782 Y52.214 F200.000
G1 X4.064 Y52.451 F200.000
G1 X4.207 Y52.613 F200.000
G1 X4.323 Y52.763 F200.000
G1 X4.466 Y52.992 F200.000
G1 X4.605 Y53.278 F200.000
G1 X4.699 Y53.568 F200.000
G1 X4.748 Y53.921 F200.000
G1 X4.733 Y54.203 F200.000
G1 X4.714 Y54.259 F200.000
G1 X4.684 Y54.312 F200.000
G1 X4.500 Y54.462 F200.000
G1 X4.500 Y54.462 F200.000
G1 X4.383 Y54.511 F200.000
G1 X4.293 Y54.515 F200.000
G0 X4.271 Y54.504
G0 X4.195 Y54.421
G0 X2.857 Y52.278
G1 X2.835 Y52.248 F200.000
G1 X2.786 Y52.154 F200.000
G1 X2.774 Y52.094 F200.000
G1 X2.797 Y52.008 F200.000
G1 X2.872 Y51.910 F200.000
G1 X2.872 Y51.910 F200.000
G1 X3.015 Y51.805 F200.000
G1 X3.120 Y51.756 F200.000
G1 X3.177 Y51.741 F200.000
G1 X3.459 Y51.752 F200.000
G1 X3.684 Y51.816 F200.000
G1 X4.015 Y51.977 F200.000
G1 X4.312 Y52.199 F200.000
G1 X4.470 Y52.353 F200.000
G1 X4.594 Y52.500 F200.000
G1 X4.733 Y52.699 F200.000
G1 X4.883 Y52.959 F200.000
G1 X5.015 Y53.267 F200.000
G1 X5.086 Y53.545 F200.000
G1 X5.105 Y53.771 F200.000
G1 X5.094 Y53.883 F200.000
G1 X5.049 Y53.992 F200.000
G1 X4.970 Y54.079 F200.000
G1 X4.880 Y54.154 F200.000
G1 X4.880 Y54.154 F200.000
G1 X4.763 Y54.211 F200.000
G1 X4.673 Y54.218 F200.000
G0 X4.647 Y54.207
G0 X4.564 Y54.132
G0 X3.056 Y52.117
G1 X3.034 Y52.086 F200.000
G1 X2.977 Y51.996 F200.000
G1 X2.962 Y51.936 F200.000
G1 X2.981 Y51.850 F200.000
G1 X3.049 Y51.744 F200.000
G1 X3.049 Y51.744 F200.000
G1 X3.241 Y51.598 F200.000
G1 X3.346 Y51.545 F200.000
G1 X3.571 Y51.526 F200.000
G1 X3.910 Y51.590 F200.000
G1 X4.252 Y51.733 F200.000
G1 X4.560 Y51.940 F200.000
G1 X4.722 Y52.083 F200.000
G1 X4.857 Y52.226 F200.000
G1 X5.011 Y52.417 F200.000
G1 X5.180 Y52.684 F200.000
G1 X5.312 Y52.955 F200.000
G1 X5.410 Y53.286 F200.000
G1 X5.432 Y53.511 F200.000
G1 X5.429 Y53.568 F200.000
G1 X5.410 Y53.624 F200.000
G1 X5.380 Y53.677 F200.000
G1 X5.214 Y53.842 F200.000
G1 X5.214 Y53.842 F200.000
G1 X5.105 Y53.906 F200.000
G1 X5.015 Y53.921 F200.000
G0 X4.989 Y53.917
G0 X4.902 Y53.842
G0 X3.293 Y51.906
G1 X3.267 Y51.876 F200.000
G1 X3.207 Y51.789 F200.000
G1 X3.188 Y51.729 F200.000
G1 X3.199 Y51.643 F200.000
G1 X3.259 Y51.534 F200.000
G1 X3.259 Y51.534 F200.000
G1 X3.387 Y51.414 F200.000
G1 X3.489 Y51.350 F200.000
G1 X3.545 Y51.327 F200.000
G1 X3.771 Y51.297 F200.000
G1 X4.053 Y51.327 F200.000
G1 X4.406 Y51.440 F200.000
G1 X4.729 Y51.620 F200.000
G1 X5.030 Y51.861 F200.000
G1 X5.222 Y52.064 F200.000
G1 X5.414 Y52.316 F200.000
G1 X5.568 Y52.586 F200.000
G1 X5.684 Y52.872 F200.000
G1 X5.737 Y53.211 F200.000
G1 X5.726 Y53.267 F200.000
G1 X5.703 Y53.323 F200.000
G1 X5.583 Y53.459 F200.000
G1 X5.583 Y53.459 F200.000
G1 X5.477 Y53.530 F200.000
G1 X5.391 Y53.553 F200.000
G0 X5.361 Y53.549
G0 X5.271 Y53.485
G0 X3.470 Y51.714
G1 X3.440 Y51.684 F200.000
G1 X3.372 Y51.605 F200.000
G1 X3.353 Y51.549 F200.000
G1 X3.361 Y51.462 F200.000
G1 X3.421 Y51.353 F200.000
G1 X3.421 Y51.353 F200.000
G1 X3.632 Y51.147 F200.000
G1 X3.680 Y51.113 F200.000
G1 X3.733 Y51.090 F200.000
G1 X3.902 Y51.056 F200.000
G1 X4.184 Y51.053 F200.000
G1 X4.241 Y51.060 F200.000
G1 X4.598 Y51.158 F200.000
G1 X4.921 Y51.312 F200.000
G1 X5.102 Y51.429 F200.000
G1 X5.259 Y51.553 F200.000
G1 X5.432 Y51.718 F200.000
G1 X5.635 Y51.951 F200.000
G1 X5.820 Y52.222 F200.000
G1 X5.977 Y52.590 F200.000
G1 X6.023 Y52.816 F200.000
G1 X6.019 Y52.872 F200.000
G1 X6.004 Y52.929 F200.000
G1 X5.895 Y53.075 F200.000
G1 X5.895 Y53.075 F200.000
G1 X5.793 Y53.154 F200.000
G1 X5.707 Y53.180 F200.000
G0 X5.680 Y53.180
G0 X5.583 Y53.120
G0 X3.692 Y51.474
G1 X3.662 Y51.447 F200.000
G1 X3.586 Y51.372 F200.000
G1 X3.560 Y51.320 F200.000
G1 X3.560 Y51.229 F200.000
G1 X3.605 Y51.117 F200.000
G1 X3.605 Y51.117 F200.000
G1 X3.722 Y50.977 F200.000
G1 X3.861 Y50.865 F200.000
G1 X4.083 Y50.801 F200.000
G1 X4.365 Y50.786 F200.000
G1 X4.421 Y50.789 F200.000
G1 X4.782 Y50.868 F200.000
G1 X5.109 Y51.004 F200.000
G1 X5.286 Y51.105 F200.000
G1 X5.455 Y51.218 F200.000
G1 X5.662 Y51.395 F200.000
G1 X5.865 Y51.605 F200.000
G1 X6.049 Y51.842 F200.000
G1 X6.233 Y52.199 F200.000
G1 X6.289 Y52.425 F200.000
G1 X6.274 Y52.538 F200.000
G1 X6.113 Y52.786 F200.000
G1 X6.113 Y52.786 F200.000
G1 X6.019 Y52.868 F200.000
G1 X5.936 Y52.902 F200.000
G0 X5.910 Y52.898
G0 X5.812 Y52.846
G0 X3.880 Y51.226
G1 X3.850 Y51.203 F200.000
G1 X3.771 Y51.128 F200.000
G1 X3.744 Y51.075 F200.000
G1 X3.737 Y50.985 F200.000
G1 X3.774 Y50.872 F200.000
G1 X3.774 Y50.872 F200.000
G1 X3.880 Y50.726 F200.000
G1 X3.966 Y50.639 F200.000
G1 X4.015 Y50.605 F200.000
G1 X4.297 Y50.523 F200.000
G1 X4.523 Y50.500 F200.000
G1 X4.891 Y50.549 F200.000
G1 X5.188 Y50.643 F200.000
G1 X5.376 Y50.729 F200.000
G1 X5.553 Y50.827 F200.000
G1 X5.786 Y50.989 F200.000
G1 X6.011 Y51.188 F200.000
G1 X6.214 Y51.402 F200.000
G1 X6.414 Y51.692 F200.000
G1 X6.523 Y51.959 F200.000
G1 X6.538 Y52.015 F200.000
G1 X6.538 Y52.071 F200.000
G1 X6.526 Y52.128 F200.000
G1 X6.406 Y52.335 F200.000
G1 X6.406 Y52.335 F200.000
G1 X6.320 Y52.425 F200.000
G1 X6.241 Y52.462 F200.000
G0 X6.211 Y52.462
G0 X6.109 Y52.417
G0 X4.019 Y51.000
G1 X3.985 Y50.981 F200.000
G1 X3.902 Y50.914 F200.000
G1 X3.872 Y50.861 F200.000
G1 X3.861 Y50.774 F200.000
G1 X3.895 Y50.662 F200.000
G1 X3.895 Y50.662 F200.000
G1 X4.068 Y50.414 F200.000
G1 X4.158 Y50.338 F200.000
G1 X4.323 Y50.271 F200.000
G1 X4.605 Y50.211 F200.000
G1 X4.662 Y50.207 F200.000
G1 X5.030 Y50.237 F200.000
G1 X5.357 Y50.323 F200.000
G1 X5.556 Y50.406 F200.000
G1 X5.726 Y50.489 F200.000
G1 X5.959 Y50.635 F200.000
G1 X6.214 Y50.835 F200.000
G1 X6.440 Y51.060 F200.000
G1 X6.658 Y51.368 F200.000
G1 X6.733 Y51.526 F200.000
G1 X6.752 Y51.583 F200.000
G1 X6.756 Y51.639 F200.000
G1 X6.748 Y51.695 F200.000
G1 X6.673 Y51.853 F200.000
G1 X6.673 Y51.853 F200.000
G1 X6.590 Y51.947 F200.000
G1 X6.511 Y51.992 F200.000
G0 X6.485 Y51.992
G0 X6.380 Y51.955
G0 X4.192 Y50.726
G1 X4.154 Y50.707 F200.000
G1 X4.068 Y50.647 F200.000
G1 X4.034 Y50.598 F200.000
G1 X4.011 Y50.511 F200.000
G1 X4.030 Y50.395 F200.000
G1 X4.030 Y50.395 F200.000
G1 X4.150 Y50.180 F200.000
G1 X4.229 Y50.086 F200.000
G1 X4.440 Y49.981 F200.000
G1 X4.722 Y49.906 F200.000
G1 X4.778 Y49.898 F200.000
G1 X5.147 Y49.910 F200.000
G1 X5.492 Y49.981 F200.000
G1 X5.695 Y50.056 F200.000
G1 X5.868 Y50.132 F200.000
G1 X6.124 Y50.271 F200.000
G1 X6.395 Y50.462 F200.000
G1 X6.617 Y50.673 F200.000
G1 X6.801 Y50.898 F200.000
G1 X6.936 Y51.150 F200.000
G1 X6.944 Y51.207 F200.000
G1 X6.936 Y51.263 F200.000
G1 X6.891 Y51.372 F200.000
G1 X6.891 Y51.372 F200.000
G1 X6.816 Y51.470 F200.000
G1 X6.741 Y51.519 F200.000
G0 X6.711 Y51.523
G0 X6.602 Y51.492
G0 X4.305 Y50.436
G1 X4.267 Y50.421 F200.000
G1 X4.177 Y50.368 F200.000
G1 X4.139 Y50.323 F200.000
G1 X4.120 Y50.237 F200.000
G1 X4.147 Y50.120 F200.000
G1 X4.147 Y50.120 F200.000
G1 X4.289 Y49.853 F200.000
G1 X4.331 Y49.808 F200.000
G1 X4.429 Y49.741 F200.000
G1 X4.703 Y49.628 F200.000
G1 X4.816 Y49.602 F200.000
G1 X5.184 Y49.575 F200.000
G1 X5.553 Y49.624 F200.000
G1 X5.759 Y49.677 F200.000
G1 X5.951 Y49.744 F200.000
G1 X6.177 Y49.850 F200.000
G1 X6.436 Y50.004 F200.000
G1 X6.684 Y50.192 F200.000
G1 X6.959 Y50.481 F200.000
G1 X7.079 Y50.680 F200.000
G1 X7.094 Y50.737 F200.000
G1 X7.098 Y50.793 F200.000
G1 X7.026 Y51.019 F200.000
G1 X7.026 Y51.015 F200.000
G1 X6.959 Y51.117 F200.000
G1 X6.883 Y51.169 F200.000
G0 X6.857 Y51.173
G0 X6.748 Y51.147
G0 X4.436 Y50.147
G1 X4.398 Y50.132 F200.000
G1 X4.305 Y50.083 F200.000
G1 X4.263 Y50.038 F200.000
G1 X4.237 Y49.955 F200.000
G1 X4.248 Y49.838 F200.000
G1 X4.248 Y49.838 F200.000
G1 X4.320 Y49.669 F200.000
G1 X4.383 Y49.564 F200.000
G1 X4.425 Y49.519 F200.000
G1 X4.680 Y49.361 F200.000
G1 X4.906 Y49.286 F200.000
G1 X5.274 Y49.244 F200.000
G1 X5.643 Y49.271 F200.000
G1 X5.861 Y49.316 F200.000
G1 X6.060 Y49.376 F200.000
G1 X6.297 Y49.474 F200.000
G1 X6.568 Y49.617 F200.000
G1 X6.823 Y49.789 F200.000
G1 X7.071 Y50.030 F200.000
G1 X7.207 Y50.218 F200.000
G1 X7.237 Y50.327 F200.000
G1 X7.207 Y50.440 F200.000
G1 X7.207 Y50.440 F200.000
G1 X7.147 Y50.545 F200.000
G1 X7.079 Y50.605 F200.000
G0 X7.053 Y50.613
G0 X6.940 Y50.598
G0 X4.519 Y49.895
G1 X4.477 Y49.883 F200.000
G1 X4.380 Y49.850 F200.000
G1 X4.338 Y49.808 F200.000
G1 X4.308 Y49.726 F200.000
G1 X4.316 Y49.609 F200.000
G1 X4.316 Y49.609 F200.000
G1 X4.391 Y49.376 F200.000
G1 X4.447 Y49.267 F200.000
G1 X4.485 Y49.218 F200.000
G1 X4.680 Y49.083 F200.000
G1 X4.955 Y48.966 F200.000
G1 X5.320 Y48.902 F200.000
G1 X5.688 Y48.906 F200.000
G1 X6.068 Y48.977 F200.000
G1 X6.335 Y49.060 F200.000
G1 X6.650 Y49.199 F200.000
G1 X6.921 Y49.372 F200.000
G1 X7.214 Y49.639 F200.000
G1 X7.320 Y49.778 F200.000
G1 X7.335 Y49.835 F200.000
G1 X7.331 Y49.891 F200.000
G1 X7.331 Y49.891 F200.000
G1 X7.278 Y50.004 F200.000
G1 X7.214 Y50.064 F200.000
G0 X7.188 Y50.075
G0 X7.075 Y50.071
G0 X4.613 Y49.583
G1 X4.571 Y49.575 F200.000
G1 X4.470 Y49.549 F200.000
G1 X4.421 Y49.511 F200.000
G1 X4.383 Y49.432 F200.000
G1 X4.380 Y49.316 F200.000
G1 X4.380 Y49.316 F200.000
G1 X4.440 Y49.079 F200.000
G1 X4.492 Y48.970 F200.000
G1 X4.620 Y48.846 F200.000
G1 X4.767 Y48.744 F200.000
G1 X4.981 Y48.643 F200.000
G1 X5.342 Y48.560 F200.000
G1 X5.711 Y48.541 F200.000
G1 X5.925 Y48.556 F200.000
G1 X6.139 Y48.590 F200.000
G1 X6.383 Y48.658 F200.000
G1 X6.654 Y48.759 F200.000
G1 X6.929 Y48.902 F200.000
G1 X7.165 Y49.056 F200.000
G1 X7.368 Y49.263 F200.000
G1 X7.414 Y49.372 F200.000
G1 X7.406 Y49.485 F200.000
G1 X7.406 Y49.485 F200.000
G1 X7.353 Y49.598 F200.000
G1 X7.289 Y49.658 F200.000
G0 X7.263 Y49.669
G0 X7.150 Y49.669
G0 X4.684 Y49.271
G1 X4.643 Y49.267 F200.000
G1 X4.538 Y49.237 F200.000
G1 X4.481 Y49.192 F200.000
G1 X4.436 Y49.105 F200.000
G1 X4.421 Y49.019 F200.000
G1 X4.421 Y49.019 F200.000
G1 X4.466 Y48.778 F200.000
G1 X4.515 Y48.665 F200.000
G1 X4.639 Y48.534 F200.000
G1 X4.887 Y48.368 F200.000
G1 X4.940 Y48.342 F200.000
G1 X5.293 Y48.226 F200.000
G1 X5.662 Y48.177 F200.000
G1 X5.887 Y48.173 F200.000
G1 X6.102 Y48.188 F200.000
G1 X6.361 Y48.237 F200.000
G1 X6.632 Y48.316 F200.000
G1 X6.895 Y48.425 F200.000
G1 X7.184 Y48.590 F200.000
G1 X7.402 Y48.774 F200.000
G1 X7.432 Y48.823 F200.000
G1 X7.451 Y48.876 F200.000
G1 X7.451 Y48.932 F200.000
G1 X7.451 Y48.932 F200.000
G1 X7.417 Y49.049 F200.000
G1 X7.368 Y49.117 F200.000
G0 X7.342 Y49.132
G0 X7.229 Y49.143
G0 X4.703 Y48.951
G1 X4.665 Y48.951 F200.000
G1 X4.556 Y48.929 F200.000
G1 X4.500 Y48.891 F200.000
G1 X4.455 Y48.805 F200.000
G1 X4.440 Y48.718 F200.000
G1 X4.440 Y48.718 F200.000
G1 X4.485 Y48.477 F200.000
G1 X4.526 Y48.365 F200.000
G1 X4.643 Y48.229 F200.000
G1 X4.880 Y48.049 F200.000
G1 X4.932 Y48.019 F200.000
G1 X5.278 Y47.880 F200.000
G1 X5.643 Y47.805 F200.000
G1 X5.861 Y47.789 F200.000
G1 X6.068 Y47.793 F200.000
G1 X6.320 Y47.823 F200.000
G1 X6.609 Y47.887 F200.000
G1 X6.891 Y47.985 F200.000
G1 X7.199 Y48.128 F200.000
G1 X7.425 Y48.301 F200.000
G1 X7.451 Y48.353 F200.000
G1 X7.466 Y48.410 F200.000
G1 X7.470 Y48.523 F200.000
G1 X7.470 Y48.523 F200.000
G1 X7.436 Y48.639 F200.000
G1 X7.387 Y48.711 F200.000
G0 X7.361 Y48.722
G0 X7.248 Y48.737
G0 X4.722 Y48.647
G1 X4.684 Y48.647 F200.000
G1 X4.575 Y48.628 F200.000
G1 X4.519 Y48.586 F200.000
G1 X4.474 Y48.504 F200.000
G1 X4.459 Y48.417 F200.000
G1 X4.459 Y48.417 F200.000
G1 X4.466 Y48.237 F200.000
G1 X4.492 Y48.117 F200.000
G1 X4.515 Y48.060 F200.000
G1 X4.673 Y47.872 F200.000
G1 X4.906 Y47.688 F200.000
G1 X5.244 Y47.534 F200.000
G1 X5.602 Y47.440 F200.000
G1 X5.820 Y47.410 F200.000
G1 X6.019 Y47.402 F200.000
G1 X6.263 Y47.414 F200.000
G1 X6.575 Y47.462 F200.000
G1 X6.872 Y47.545 F200.000
G1 X7.192 Y47.680 F200.000
G1 X7.338 Y47.774 F200.000
G1 X7.383 Y47.812 F200.000
G1 X7.421 Y47.857 F200.000
G1 X7.447 Y47.910 F200.000
G1 X7.447 Y47.910 F200.000
G1 X7.425 Y48.026 F200.000
G1 X7.380 Y48.102 F200.000
G0 X7.357 Y48.120
G0 X7.244 Y48.147
G0 X4.733 Y48.376
G1 X4.695 Y48.380 F200.000
G1 X4.590 Y48.380 F200.000
G1 X4.534 Y48.357 F200.000
G1 X4.477 Y48.293 F200.000
G1 X4.444 Y48.180 F200.000
G1 X4.444 Y48.180 F200.000
G1 X4.444 Y47.940 F200.000
G1 X4.462 Y47.820 F200.000
G1 X4.485 Y47.763 F200.000
G1 X4.590 Y47.613 F200.000
G1 X4.808 Y47.402 F200.000
G1 X4.857 Y47.365 F200.000
G1 X5.184 Y47.188 F200.000
G1 X5.504 Y47.083 F200.000
G1 X5.711 Y47.041 F200.000
G1 X5.921 Y47.015 F200.000
G1 X6.199 Y47.011 F200.000
G1 X6.500 Y47.038 F200.000
G1 X6.789 Y47.090 F200.000
G1 X7.120 Y47.211 F200.000
G1 X7.323 Y47.323 F200.000
G1 X7.361 Y47.365 F200.000
G1 X7.387 Y47.414 F200.000
G1 X7.410 Y47.526 F200.000
G1 X7.410 Y47.526 F200.000
G1 X7.395 Y47.643 F200.000
G1 X7.353 Y47.718 F200.000
G0 X7.331 Y47.737
G0 X7.222 Y47.767
G0 X4.722 Y48.060
G1 X4.680 Y48.068 F200.000
G1 X4.575 Y48.071 F200.000
G1 X4.519 Y48.053 F200.000
G1 X4.459 Y47.989 F200.000
G1 X4.417 Y47.880 F200.000
G1 X4.417 Y47.880 F200.000
G1 X4.398 Y47.639 F200.000
G1 X4.417 Y47.519 F200.000
G1 X4.436 Y47.462 F200.000
G1 X4.609 Y47.214 F200.000
G1 X4.737 Y47.086 F200.000
G1 X5.045 Y46.880 F200.000
G1 X5.387 Y46.737 F200.000
G1 X5.594 Y46.677 F200.000
G1 X5.797 Y46.639 F200.000
G1 X6.045 Y46.613 F200.000
G1 X6.380 Y46.613 F200.000
G1 X6.692 Y46.647 F200.000
G1 X7.030 Y46.741 F200.000
G1 X7.233 Y46.842 F200.000
G1 X7.274 Y46.883 F200.000
G1 X7.301 Y46.932 F200.000
G1 X7.301 Y46.932 F200.000
G1 X7.297 Y47.049 F200.000
G1 X7.259 Y47.132 F200.000
G0 X7.241 Y47.150
G0 X7.135 Y47.192
G0 X4.669 Y47.744
G1 X4.632 Y47.756 F200.000
G1 X4.526 Y47.771 F200.000
G1 X4.470 Y47.752 F200.000
G1 X4.425 Y47.711 F200.000
G1 X4.365 Y47.586 F200.000
G1 X4.365 Y47.586 F200.000
G1 X4.342 Y47.346 F200.000
G1 X4.357 Y47.226 F200.000
G1 X4.466 Y47.008 F200.000
G1 X4.658 Y46.767 F200.000
G1 X4.959 Y46.545 F200.000
G1 X5.271 Y46.391 F200.000
G1 X5.481 Y46.320 F200.000
G1 X5.669 Y46.271 F200.000
G1 X5.940 Y46.222 F200.000
G1 X6.282 Y46.203 F200.000
G1 X6.590 Y46.214 F200.000
G1 X6.891 Y46.278 F200.000
G1 X7.105 Y46.368 F200.000
G1 X7.150 Y46.406 F200.000
G1 X7.180 Y46.455 F200.000
G1 X7.180 Y46.455 F200.000
G1 X7.184 Y46.571 F200.000
G1 X7.158 Y46.654 F200.000
G0 X7.139 Y46.673
G0 X7.038 Y46.726
G0 X4.635 Y47.477
G1 X4.594 Y47.492 F200.000
G1 X4.485 Y47.511 F200.000
G1 X4.421 Y47.492 F200.000
G1 X4.350 Y47.432 F200.000
G1 X4.305 Y47.353 F200.000
G1 X4.305 Y47.353 F200.000
G1 X4.259 Y47.113 F200.000
G1 X4.259 Y46.992 F200.000
G1 X4.312 Y46.820 F200.000
G1 X4.432 Y46.609 F200.000
G1 X4.545 Y46.466 F200.000
G1 X4.831 Y46.226 F200.000
G1 X5.154 Y46.041 F200.000
G1 X5.346 Y45.959 F200.000
G1 X5.541 Y45.895 F200.000
G1 X5.808 Y45.835 F200.000
G1 X6.124 Y45.797 F200.000
G1 X6.432 Y45.789 F200.000
G1 X6.786 Y45.842 F200.000
G1 X6.947 Y45.898 F200.000
G1 X6.992 Y45.932 F200.000
G1 X7.026 Y45.977 F200.000
G1 X7.026 Y45.977 F200.000
G1 X7.038 Y46.124 F200.000
G1 X7.023 Y46.180 F200.000
G0 X7.004 Y46.203
G0 X6.906 Y46.259
G0 X4.549 Y47.173
G1 X4.515 Y47.188 F200.000
G1 X4.425 Y47.218 F200.000
G1 X4.361 Y47.214 F200.000
G1 X4.308 Y47.184 F200.000
G1 X4.222 Y47.064 F200.000
G1 X4.222 Y47.064 F200.000
G1 X4.158 Y46.763 F200.000
G1 X4.158 Y46.703 F200.000
G1 X4.207 Y46.526 F200.000
G1 X4.353 Y46.256 F200.000
G1 X4.387 Y46.207 F200.000
G1 X4.650 Y45.944 F200.000
G1 X4.947 Y45.737 F200.000
G1 X5.139 Y45.632 F200.000
G1 X5.338 Y45.549 F200.000
G1 X5.579 Y45.474 F200.000
G1 X5.876 Y45.410 F200.000
G1 X6.192 Y45.380 F200.000
G1 X6.590 Y45.402 F200.000
G1 X6.759 Y45.447 F200.000
G1 X6.808 Y45.474 F200.000
G1 X6.846 Y45.515 F200.000
G1 X6.846 Y45.515 F200.000
G1 X6.865 Y45.632 F200.000
G1 X6.850 Y45.714 F200.000
G0 X6.831 Y45.737
G0 X6.737 Y45.801
G0 X4.474 Y46.921
G1 X4.440 Y46.940 F200.000
G1 X4.342 Y46.977 F200.000
G1 X4.282 Y46.977 F200.000
G1 X4.207 Y46.929 F200.000
G1 X4.139 Y46.842 F200.000
G1 X4.139 Y46.842 F200.000
G1 X4.041 Y46.545 F200.000
G1 X4.026 Y46.425 F200.000
G1 X4.071 Y46.244 F200.000
G1 X4.143 Y46.075 F200.000
G1 X4.233 Y45.917 F200.000
G1 X4.477 Y45.639 F200.000
G1 X4.771 Y45.410 F200.000
G1 X4.955 Y45.297 F200.000
G1 X5.139 Y45.207 F200.000
G1 X5.372 Y45.117 F200.000
G1 X5.680 Y45.030 F200.000
G1 X6.000 Y44.977 F200.000
G1 X6.350 Y44.974 F200.000
G1 X6.519 Y45.004 F200.000
G1 X6.575 Y45.023 F200.000
G1 X6.624 Y45.056 F200.000
G1 X6.707 Y45.203 F200.000
G1 X6.707 Y45.203 F200.000
G1 X6.737 Y45.346 F200.000
G1 X6.726 Y45.402 F200.000
G0 X6.714 Y45.425
G0 X6.620 Y45.489
G0 X4.346 Y46.575
G1 X4.312 Y46.594 F200.000
G1 X4.214 Y46.635 F200.000
G1 X4.154 Y46.635 F200.000
G1 X4.075 Y46.598 F200.000
G1 X3.992 Y46.511 F200.000
G1 X3.992 Y46.511 F200.000
G1 X3.914 Y46.338 F200.000
G1 X3.880 Y46.218 F200.000
G1 X3.876 Y46.158 F200.000
G1 X3.951 Y45.861 F200.000
G1 X4.060 Y45.639 F200.000
G1 X4.289 Y45.346 F200.000
G1 X4.568 Y45.098 F200.000
G1 X4.744 Y44.974 F200.000
G1 X4.932 Y44.865 F200.000
G1 X5.165 Y44.759 F200.000
G1 X5.459 Y44.658 F200.000
G1 X5.774 Y44.586 F200.000
G1 X6.233 Y44.575 F200.000
G1 X6.289 Y44.583 F200.000
G1 X6.346 Y44.602 F200.000
G1 X6.391 Y44.635 F200.000
G1 X6.391 Y44.635 F200.000
G1 X6.429 Y44.748 F200.000
G1 X6.425 Y44.831 F200.000
G0 X6.414 Y44.857
G0 X6.327 Y44.932
G0 X4.188 Y46.297
G1 X4.158 Y46.320 F200.000
G1 X4.064 Y46.368 F200.000
G1 X4.004 Y46.376 F200.000
G1 X3.929 Y46.338 F200.000
G1 X3.846 Y46.252 F200.000
G1 X3.846 Y46.252 F200.000
G1 X3.767 Y46.083 F200.000
G1 X3.722 Y45.902 F200.000
G1 X3.744 Y45.722 F200.000
G1 X3.820 Y45.489 F200.000
G1 X3.872 Y45.376 F200.000
G1 X4.083 Y45.068 F200.000
G1 X4.346 Y44.805 F200.000
G1 X4.511 Y44.669 F200.000
G1 X4.684 Y44.556 F200.000
G1 X4.902 Y44.436 F200.000
G1 X5.214 Y44.305 F200.000
G1 X5.692 Y44.177 F200.000
G1 X5.917 Y44.154 F200.000
G1 X6.030 Y44.162 F200.000
G1 X6.083 Y44.180 F200.000
G1 X6.124 Y44.222 F200.000
G1 X6.124 Y44.222 F200.000
G1 X6.177 Y44.353 F200.000
G1 X6.173 Y44.410 F200.000
G0 X6.162 Y44.436
G0 X6.083 Y44.515
G0 X4.053 Y46.004
G1 X4.023 Y46.026 F200.000
G1 X3.917 Y46.090 F200.000
G1 X3.865 Y46.098 F200.000
G1 X3.782 Y46.071 F200.000
G1 X3.695 Y45.992 F200.000
G1 X3.695 Y45.992 F200.000
G1 X3.628 Y45.887 F200.000
G1 X3.560 Y45.714 F200.000
G1 X3.556 Y45.534 F200.000
G1 X3.590 Y45.353 F200.000
G1 X3.673 Y45.120 F200.000
G1 X3.865 Y44.801 F200.000
G1 X4.109 Y44.519 F200.000
G1 X4.278 Y44.368 F200.000
G1 X4.444 Y44.244 F200.000
G1 X4.658 Y44.113 F200.000
G1 X4.944 Y43.970 F200.000
G1 X5.436 Y43.801 F200.000
G1 X5.662 Y43.771 F200.000
G1 X5.718 Y43.771 F200.000
G1 X5.774 Y43.786 F200.000
G1 X5.823 Y43.816 F200.000
G1 X5.823 Y43.816 F200.000
G1 X5.876 Y43.921 F200.000
G1 X5.883 Y44.008 F200.000
G0 X5.872 Y44.030
G0 X5.801 Y44.117
G0 X3.887 Y45.801
G1 X3.861 Y45.827 F200.000
G1 X3.774 Y45.891 F200.000
G1 X3.718 Y45.902 F200.000
G1 X3.635 Y45.876 F200.000
G1 X3.549 Y45.801 F200.000
G1 X3.549 Y45.801 F200.000
G1 X3.440 Y45.647 F200.000
G1 X3.365 Y45.474 F200.000
G1 X3.353 Y45.414 F200.000
G1 X3.383 Y45.113 F200.000
G1 X3.432 Y44.932 F200.000
G1 X3.594 Y44.598 F200.000
G1 X3.816 Y44.297 F200.000
G1 X3.962 Y44.135 F200.000
G1 X4.120 Y43.992 F200.000
G1 X4.323 Y43.842 F200.000
G1 X4.586 Y43.677 F200.000
G1 X4.898 Y43.530 F200.000
G1 X5.293 Y43.425 F200.000
G1 X5.406 Y43.414 F200.000
G1 X5.462 Y43.425 F200.000
G1 X5.511 Y43.459 F200.000
G1 X5.511 Y43.459 F200.000
G1 X5.575 Y43.583 F200.000
G1 X5.583 Y43.643 F200.000
G0 X5.575 Y43.669
G0 X5.508 Y43.759
G0 X3.707 Y45.530
G1 X3.677 Y45.560 F200.000
G1 X3.598 Y45.628 F200.000
G1 X3.538 Y45.643 F200.000
G1 X3.440 Y45.617 F200.000
G1 X3.365 Y45.564 F200.000
G1 X3.365 Y45.564 F200.000
G1 X3.244 Y45.417 F200.000
G1 X3.184 Y45.308 F200.000
G1 X3.165 Y45.248 F200.000
G1 X3.158 Y44.947 F200.000
G1 X3.203 Y44.707 F200.000
G1 X3.342 Y44.361 F200.000
G1 X3.538 Y44.053 F200.000
G1 X3.677 Y43.883 F200.000
G1 X3.823 Y43.733 F200.000
G1 X4.011 Y43.571 F200.000
G1 X4.274 Y43.383 F200.000
G1 X4.632 Y43.188 F200.000
G1 X4.914 Y43.090 F200.000
G1 X5.083 Y43.064 F200.000
G1 X5.139 Y43.083 F200.000
G1 X5.139 Y43.083 F200.000
G1 X5.203 Y43.180 F200.000
G1 X5.222 Y43.267 F200.000
G0 X5.214 Y43.293
G0 X5.154 Y43.391
G0 X3.500 Y45.297
G1 X3.474 Y45.327 F200.000
G1 X3.391 Y45.414 F200.000
G1 X3.338 Y45.429 F200.000
G1 X3.256 Y45.414 F200.000
G1 X3.158 Y45.350 F200.000
G1 X3.158 Y45.350 F200.000
G1 X2.996 Y45.154 F200.000
G1 X2.944 Y45.038 F200.000
G1 X2.921 Y44.857 F200.000
G1 X2.944 Y44.556 F200.000
G1 X2.955 Y44.496 F200.000
G1 X3.075 Y44.143 F200.000
G1 X3.256 Y43.816 F200.000
G1 X3.387 Y43.635 F200.000
G1 X3.523 Y43.481 F200.000
G1 X3.703 Y43.305 F200.000
G1 X3.959 Y43.102 F200.000
G1 X4.402 Y42.838 F200.000
G1 X4.624 Y42.763 F200.000
G1 X4.680 Y42.752 F200.000
G1 X4.737 Y42.752 F200.000
G1 X4.793 Y42.771 F200.000
G1 X4.793 Y42.771 F200.000
G1 X4.872 Y42.883 F200.000
G1 X4.887 Y42.944 F200.000
G0 X4.883 Y42.970
G0 X4.831 Y43.071
G0 X3.312 Y45.109
G1 X3.289 Y45.143 F200.000
G1 X3.218 Y45.222 F200.000
G1 X3.169 Y45.248 F200.000
G1 X3.109 Y45.244 F200.000
G1 X2.981 Y45.184 F200.000
G1 X2.981 Y45.184 F200.000
G1 X2.842 Y45.056 F200.000
G1 X2.763 Y44.955 F200.000
G1 X2.733 Y44.898 F200.000
G1 X2.677 Y44.598 F200.000
G1 X2.692 Y44.297 F200.000
G1 X2.793 Y43.936 F200.000
G1 X2.951 Y43.605 F200.000
G1 X3.068 Y43.421 F200.000
G1 X3.195 Y43.252 F200.000
G1 X3.383 Y43.045 F200.000
G1 X3.620 Y42.831 F200.000
G1 X3.981 Y42.575 F200.000
G1 X4.256 Y42.462 F200.000
G1 X4.312 Y42.447 F200.000
G1 X4.368 Y42.447 F200.000
G1 X4.417 Y42.477 F200.000
G1 X4.417 Y42.477 F200.000
G1 X4.496 Y42.568 F200.000
G1 X4.526 Y42.647 F200.000
G0 X4.523 Y42.677
G0 X4.477 Y42.778
G0 X3.079 Y44.898
G1 X3.056 Y44.929 F200.000
G1 X2.989 Y45.026 F200.000
G1 X2.940 Y45.049 F200.000
G1 X2.857 Y45.045 F200.000
G1 X2.752 Y44.992 F200.000
G1 X2.752 Y44.992 F200.000
G1 X2.571 Y44.820 F200.000
G1 X2.500 Y44.718 F200.000
G1 X2.436 Y44.477 F200.000
G1 X2.421 Y44.177 F200.000
G1 X2.485 Y43.808 F200.000
G1 X2.609 Y43.470 F200.000
G1 X2.707 Y43.274 F200.000
G1 X2.823 Y43.094 F200.000
G1 X2.974 Y42.891 F200.000
G1 X3.188 Y42.654 F200.000
G1 X3.455 Y42.436 F200.000
G1 X3.831 Y42.218 F200.000
G1 X3.944 Y42.180 F200.000
G1 X4.000 Y42.188 F200.000
G1 X4.000 Y42.188 F200.000
G1 X4.094 Y42.301 F200.000
G1 X4.113 Y42.357 F200.000
G0 X4.113 Y42.383
G0 X4.071 Y42.492
G0 X2.831 Y44.695
G1 X2.812 Y44.733 F200.000
G1 X2.752 Y44.820 F200.000
G1 X2.703 Y44.853 F200.000
G1 X2.643 Y44.857 F200.000
G1 X2.511 Y44.812 F200.000
G1 X2.511 Y44.812 F200.000
G1 X2.365 Y44.695 F200.000
G1 X2.278 Y44.602 F200.000
G1 X2.244 Y44.549 F200.000
G1 X2.162 Y44.252 F200.000
G1 X2.143 Y44.011 F200.000
G1 X2.184 Y43.639 F200.000
G1 X2.293 Y43.282 F200.000
G1 X2.380 Y43.083 F200.000
G1 X2.481 Y42.902 F200.000
G1 X2.620 Y42.695 F200.000
G1 X2.820 Y42.455 F200.000
G1 X3.053 Y42.233 F200.000
G1 X3.391 Y42.004 F200.000
G1 X3.496 Y41.955 F200.000
G1 X3.553 Y41.947 F200.000
G1 X3.609 Y41.962 F200.000
G1 X3.609 Y41.962 F200.000
G1 X3.707 Y42.049 F200.000
G1 X3.737 Y42.105 F200.000
G0 X3.741 Y42.135
G0 X3.711 Y42.244
G0 X2.571 Y44.504
G1 X2.556 Y44.541 F200.000
G1 X2.504 Y44.632 F200.000
G1 X2.455 Y44.665 F200.000
G1 X2.398 Y44.677 F200.000
G1 X2.259 Y44.647 F200.000
G1 X2.259 Y44.647 F200.000
G1 X2.105 Y44.541 F200.000
G1 X2.019 Y44.455 F200.000
G1 X1.981 Y44.402 F200.000
G1 X1.914 Y44.229 F200.000
G1 X1.846 Y43.868 F200.000
G1 X1.868 Y43.496 F200.000
G1 X1.955 Y43.132 F200.000
G1 X2.038 Y42.921 F200.000
G1 X2.124 Y42.744 F200.000
G1 X2.244 Y42.530 F200.000
G1 X2.466 Y42.241 F200.000
G1 X2.718 Y41.974 F200.000
G1 X2.951 Y41.793 F200.000
G1 X3.056 Y41.737 F200.000
G1 X3.113 Y41.726 F200.000
G1 X3.169 Y41.737 F200.000
G1 X3.169 Y41.737 F200.000
G1 X3.267 Y41.801 F200.000
G1 X3.320 Y41.868 F200.000
G0 X3.323 Y41.895
G0 X3.297 Y42.004
G0 X2.350 Y44.380
G1 X2.335 Y44.414 F200.000
G1 X2.286 Y44.526 F200.000
G1 X2.241 Y44.556 F200.000
G1 X2.158 Y44.564 F200.000
G1 X2.049 Y44.534 F200.000
G1 X2.049 Y44.534 F200.000
G1 X1.835 Y44.402 F200.000
G1 X1.744 Y44.316 F200.000
G1 X1.639 Y44.090 F200.000
G1 X1.564 Y43.789 F200.000
G1 X1.556 Y43.417 F200.000
G1 X1.609 Y43.068 F200.000
G1 X1.673 Y42.846 F200.000
G1 X1.748 Y42.647 F200.000
G1 X1.857 Y42.417 F200.000
G1 X2.026 Y42.139 F200.000
G1 X2.361 Y41.748 F200.000
G1 X2.545 Y41.598 F200.000
G1 X2.650 Y41.541 F200.000
G1 X2.707 Y41.538 F200.000
G1 X2.707 Y41.538 F200.000
G1 X2.805 Y41.605 F200.000
G1 X2.853 Y41.677 F200.000
G0 X2.857 Y41.703
G0 X2.827 Y41.872
G0 X2.124 Y44.241
G1 X2.113 Y44.274 F200.000
G1 X2.071 Y44.391 F200.000
G1 X2.030 Y44.425 F200.000
G1 X1.947 Y44.447 F200.000
G1 X1.831 Y44.432 F200.000
G1 X1.831 Y44.432 F200.000
G1 X1.662 Y44.353 F200.000
G1 X1.515 Y44.241 F200.000
G1 X1.474 Y44.192 F200.000
G1 X1.387 Y44.026 F200.000
G1 X1.312 Y43.786 F200.000
G1 X1.259 Y43.353 F200.000
G1 X1.282 Y42.981 F200.000
G1 X1.335 Y42.718 F200.000
G1 X1.398 Y42.511 F200.000
G1 X1.489 Y42.293 F200.000
G1 X1.624 Y42.034 F200.000
G1 X1.812 Y41.763 F200.000
G1 X2.086 Y41.477 F200.000
G1 X2.180 Y41.406 F200.000
G1 X2.237 Y41.387 F200.000
G1 X2.293 Y41.395 F200.000
G1 X2.293 Y41.395 F200.000
G1 X2.398 Y41.451 F200.000
G1 X2.455 Y41.519 F200.000
G0 X2.462 Y41.541
G0 X2.451 Y41.658
G0 X1.831 Y44.139
G1 X1.823 Y44.173 F200.000
G1 X1.786 Y44.289 F200.000
G1 X1.748 Y44.323 F200.000
G1 X1.665 Y44.342 F200.000
G1 X1.553 Y44.323 F200.000
G1 X1.553 Y44.323 F200.000
G1 X1.380 Y44.244 F200.000
G1 X1.278 Y44.173 F200.000
G1 X1.233 Y44.128 F200.000
G1 X1.143 Y43.962 F200.000
G1 X1.026 Y43.605 F200.000
G1 X0.962 Y43.237 F200.000
G1 X0.962 Y42.865 F200.000
G1 X1.008 Y42.579 F200.000
G1 X1.064 Y42.372 F200.000
G1 X1.135 Y42.173 F200.000
G1 X1.263 Y41.902 F200.000
G1 X1.541 Y41.474 F200.000
G1 X1.665 Y41.342 F200.000
G1 X1.759 Y41.267 F200.000
G1 X1.816 Y41.252 F200.000
G1 X1.816 Y41.252 F200.000
G1 X1.921 Y41.301 F200.000
G1 X1.981 Y41.365 F200.000
G0 X1.989 Y41.391
G0 X1.985 Y41.504
G0 X1.538 Y43.996
G1 X1.534 Y44.034 F200.000
G1 X1.504 Y44.154 F200.000
G1 X1.466 Y44.195 F200.000
G1 X1.387 Y44.222 F200.000
G1 X1.271 Y44.218 F200.000
G1 X1.271 Y44.218 F200.000
G1 X1.105 Y44.139 F200.000
G1 X1.008 Y44.060 F200.000
G1 X0.846 Y43.793 F200.000
G1 X0.774 Y43.617 F200.000
G1 X0.665 Y43.259 F200.000
G1 X0.628 Y42.887 F200.000
G1 X0.643 Y42.628 F200.000
G1 X0.677 Y42.440 F200.000
G1 X0.729 Y42.237 F200.000
G1 X0.820 Y41.970 F200.000
G1 X0.974 Y41.628 F200.000
G1 X1.173 Y41.331 F200.000
G1 X1.305 Y41.203 F200.000
G1 X1.357 Y41.173 F200.000
G1 X1.414 Y41.169 F200.000
G1 X1.414 Y41.169 F200.000
G1 X1.526 Y41.211 F200.000
G1 X1.586 Y41.271 F200.000
G0 X1.598 Y41.293
G0 X1.605 Y41.410
G0 X1.350 Y43.951
G1 X1.346 Y43.989 F200.000
G1 X1.327 Y44.109 F200.000
G1 X1.293 Y44.150 F200.000
G1 X1.214 Y44.177 F200.000
G1 X1.098 Y44.173 F200.000
G1 X1.098 Y44.173 F200.000
G1 X0.977 Y44.135 F200.000
G1 X0.812 Y44.045 F200.000
G1 X0.650 Y43.853 F200.000
G1 X0.504 Y43.575 F200.000
G1 X0.365 Y43.226 F200.000
G1 X0.308 Y42.857 F200.000
G1 X0.308 Y42.617 F200.000
G1 X0.327 Y42.429 F200.000
G1 X0.361 Y42.222 F200.000
G1 X0.447 Y41.902 F200.000
G1 X0.579 Y41.564 F200.000
G1 X0.748 Y41.301 F200.000
G1 X0.868 Y41.169 F200.000
G1 X0.914 Y41.132 F200.000
G1 X0.966 Y41.105 F200.000
G1 X1.023 Y41.102 F200.000
G1 X1.023 Y41.102 F200.000
G1 X1.162 Y41.150 F200.000
G1 X1.203 Y41.188 F200.000
G0 X1.214 Y41.214
G0 X1.229 Y41.327
G0 X1.102 Y43.872
G1 X1.102 Y43.910 F200.000
G1 X1.090 Y44.030 F200.000
G1 X1.056 Y44.071 F200.000
G1 X0.981 Y44.109 F200.000
G1 X0.865 Y44.120 F200.000
G1 X0.865 Y44.120 F200.000
G1 X0.744 Y44.094 F200.000
G1 X0.571 Y44.015 F200.000
G1 X0.477 Y43.932 F200.000
G1 X0.357 Y43.786 F200.000
G1 X0.203 Y43.511 F200.000
G1 X0.056 Y43.165 F200.000
G1 X-0.019 Y42.801 F200.000
G1 X-0.030 Y42.549 F200.000
G1 X-0.023 Y42.346 F200.000
G1 X0.008 Y42.113 F200.000
G1 X0.075 Y41.835 F200.000
G1 X0.177 Y41.556 F200.000
G1 X0.301 Y41.320 F200.000
G1 X0.455 Y41.132 F200.000
G1 X0.500 Y41.090 F200.000
G1 X0.553 Y41.060 F200.000
G1 X0.609 Y41.053 F200.000
G1 X0.609 Y41.053 F200.000
G1 X0.748 Y41.102 F200.000
G1 X0.789 Y41.139 F200.000
G0 X0.805 Y41.165
G0 X0.823 Y41.278
G0 X0.853 Y43.835
G1 X0.857 Y43.872 F200.000
G1 X0.850 Y43.992 F200.000
G1 X0.820 Y44.034 F200.000
G1 X0.744 Y44.071 F200.000
G1 X0.628 Y44.083 F200.000
G1 X0.628 Y44.083 F200.000
G1 X0.387 Y44.023 F200.000
G1 X0.278 Y43.962 F200.000
G1 X0.026 Y43.684 F200.000
G1 X-0.071 Y43.530 F200.000
G1 X-0.244 Y43.199 F200.000
G1 X-0.346 Y42.838 F200.000
G1 X-0.372 Y42.617 F200.000
G1 X-0.383 Y42.429 F200.000
G1 X-0.368 Y42.169 F200.000
G1 X-0.323 Y41.891 F200.000
G1 X-0.244 Y41.598 F200.000
G1 X-0.128 Y41.342 F200.000
G1 X0.019 Y41.139 F200.000
G1 X0.105 Y41.056 F200.000
G1 X0.158 Y41.030 F200.000
G1 X0.214 Y41.026 F200.000
G1 X0.214 Y41.026 F200.000
G1 X0.331 Y41.056 F200.000
G1 X0.383 Y41.094 F200.000
G0 X0.406 Y41.120
G0 X0.436 Y41.237
G0 X0.602 Y43.789
G1 X0.602 Y43.827 F200.000
G1 X0.602 Y43.947 F200.000
G1 X0.575 Y43.996 F200.000
G1 X0.504 Y44.038 F200.000
G1 X0.387 Y44.056 F200.000
G1 X0.387 Y44.056 F200.000
G1 X0.267 Y44.045 F200.000
G1 X0.086 Y43.989 F200.000
G1 X-0.019 Y43.929 F200.000
G1 X-0.237 Y43.718 F200.000
G1 X-0.380 Y43.523 F200.000
G1 X-0.560 Y43.195 F200.000
G1 X-0.677 Y42.842 F200.000
G1 X-0.718 Y42.613 F200.000
G1 X-0.737 Y42.414 F200.000
G1 X-0.733 Y42.154 F200.000
G1 X-0.699 Y41.876 F200.000
G1 X-0.635 Y41.598 F200.000
G1 X-0.526 Y41.342 F200.000
G1 X-0.425 Y41.184 F200.000
G1 X-0.342 Y41.090 F200.000
G1 X-0.293 Y41.049 F200.000
G1 X-0.233 Y41.030 F200.000
G1 X-0.173 Y41.026 F200.000
G1 X-0.173 Y41.026 F200.000
G1 X-0.045 Y41.041 F200.000
G1 X0.011 Y41.075 F200.000
G0 X0.030 Y41.098
G0 X0.068 Y41.214
G0 X0.301 Y43.767
G1 X0.301 Y43.805 F200.000
G1 X0.305 Y43.925 F200.000
G1 X0.278 Y43.974 F200.000
G1 X0.207 Y44.015 F200.000
G1 X0.090 Y44.034 F200.000
G1 X0.090 Y44.034 F200.000
G1 X-0.139 Y44.008 F200.000
G1 X-0.248 Y43.966 F200.000
G1 X-0.481 Y43.774 F200.000
G1 X-0.635 Y43.590 F200.000
G1 X-0.842 Y43.282 F200.000
G1 X-0.989 Y42.940 F200.000
G1 X-1.049 Y42.714 F200.000
G1 X-1.079 Y42.519 F200.000
G1 X-1.094 Y42.286 F200.000
G1 X-1.083 Y41.992 F200.000
G1 X-1.038 Y41.692 F200.000
G1 X-0.951 Y41.432 F200.000
G1 X-0.831 Y41.214 F200.000
G1 X-0.756 Y41.113 F200.000
G1 X-0.707 Y41.075 F200.000
G1 X-0.647 Y41.056 F200.000
G1 X-0.526 Y41.041 F200.000
G1 X-0.526 Y41.041 F200.000
G1 X-0.398 Y41.049 F200.000
G1 X-0.316 Y41.090 F200.000
G0 X-0.301 Y41.113
G0 X-0.267 Y41.218
G0 X0.053 Y43.741
G1 X0.056 Y43.778 F200.000
G1 X0.068 Y43.902 F200.000
G1 X0.045 Y43.951 F200.000
G1 X-0.023 Y44.000 F200.000
G1 X-0.147 Y44.034 F200.000
G1 X-0.147 Y44.034 F200.000
G1 X-0.316 Y44.034 F200.000
G1 X-0.485 Y44.000 F200.000
G1 X-0.774 Y43.793 F200.000
G1 X-0.940 Y43.617 F200.000
G1 X-1.165 Y43.320 F200.000
G1 X-1.323 Y42.981 F200.000
G1 X-1.383 Y42.782 F200.000
G1 X-1.421 Y42.598 F200.000
G1 X-1.451 Y42.353 F200.000
G1 X-1.455 Y42.045 F200.000
G1 X-1.417 Y41.748 F200.000
G1 X-1.357 Y41.508 F200.000
G1 X-1.244 Y41.282 F200.000
G1 X-1.173 Y41.177 F200.000
G1 X-1.128 Y41.132 F200.000
G1 X-1.071 Y41.102 F200.000
G1 X-1.071 Y41.102 F200.000
G1 X-0.910 Y41.113 F200.000
G1 X-0.857 Y41.139 F200.000
G0 X-0.838 Y41.158
G0 X-0.797 Y41.263
G0 X-0.252 Y43.756
G1 X-0.244 Y43.797 F200.000
G1 X-0.229 Y43.902 F200.000
G1 X-0.252 Y43.959 F200.000
G1 X-0.323 Y44.015 F200.000
G1 X-0.444 Y44.056 F200.000
G1 X-0.444 Y44.056 F200.000
G1 X-0.613 Y44.056 F200.000
G1 X-0.726 Y44.038 F200.000
G1 X-0.936 Y43.932 F200.000
G1 X-1.165 Y43.741 F200.000
G1 X-1.451 Y43.414 F200.000
G1 X-1.632 Y43.086 F200.000
G1 X-1.711 Y42.872 F200.000
G1 X-1.759 Y42.684 F200.000
G1 X-1.797 Y42.462 F200.000
G1 X-1.820 Y42.158 F200.000
G1 X-1.805 Y41.835 F200.000
G1 X-1.744 Y41.564 F200.000
G1 X-1.643 Y41.335 F200.000
G1 X-1.571 Y41.229 F200.000
G1 X-1.523 Y41.192 F200.000
G1 X-1.462 Y41.177 F200.000
G1 X-1.462 Y41.177 F200.000
G1 X-1.301 Y41.180 F200.000
G1 X-1.248 Y41.203 F200.000
G0 X-1.226 Y41.222
G0 X-1.177 Y41.327
G0 X-0.508 Y43.774
G1 X-0.500 Y43.808 F200.000
G1 X-0.477 Y43.929 F200.000
G1 X-0.496 Y43.981 F200.000
G1 X-0.564 Y44.041 F200.000
G1 X-0.684 Y44.086 F200.000
G1 X-0.684 Y44.086 F200.000
G1 X-0.853 Y44.098 F200.000
G1 X-1.023 Y44.075 F200.000
G1 X-1.233 Y43.970 F200.000
G1 X-1.515 Y43.741 F200.000
G1 X-1.767 Y43.466 F200.000
G1 X-1.959 Y43.147 F200.000
G1 X-2.038 Y42.951 F200.000
G1 X-2.094 Y42.774 F200.000
G1 X-2.147 Y42.534 F200.000
G1 X-2.180 Y42.241 F200.000
G1 X-2.180 Y41.936 F200.000
G1 X-2.132 Y41.662 F200.000
G1 X-2.041 Y41.429 F200.000
G1 X-1.977 Y41.320 F200.000
G1 X-1.929 Y41.282 F200.000
G1 X-1.748 Y41.237 F200.000
G1 X-1.748 Y41.237 F200.000
G1 X-1.620 Y41.222 F200.000
G1 X-1.534 Y41.248 F200.000
G0 X-1.511 Y41.267
G0 X-1.462 Y41.368
G0 X-0.763 Y43.786
G1 X-0.752 Y43.820 F200.000
G1 X-0.726 Y43.940 F200.000
G1 X-0.744 Y43.996 F200.000
G1 X-0.805 Y44.064 F200.000
G1 X-0.921 Y44.124 F200.000
G1 X-0.921 Y44.124 F200.000
G1 X-1.090 Y44.158 F200.000
G1 X-1.259 Y44.158 F200.000
G1 X-1.316 Y44.147 F200.000
G1 X-1.575 Y44.011 F200.000
G1 X-1.767 Y43.865 F200.000
G1 X-2.038 Y43.609 F200.000
G1 X-2.252 Y43.305 F200.000
G1 X-2.342 Y43.117 F200.000
G1 X-2.410 Y42.944 F200.000
G1 X-2.477 Y42.711 F200.000
G1 X-2.534 Y42.402 F200.000
G1 X-2.556 Y42.090 F200.000
G1 X-2.526 Y41.805 F200.000
G1 X-2.417 Y41.511 F200.000
G1 X-2.387 Y41.455 F200.000
G1 X-2.346 Y41.410 F200.000
G1 X-2.169 Y41.346 F200.000
G1 X-2.169 Y41.346 F200.000
G1 X-2.041 Y41.331 F200.000
G1 X-1.951 Y41.353 F200.000
G0 X-1.932 Y41.368
G0 X-1.876 Y41.470
G0 X-1.056 Y43.868
G1 X-1.045 Y43.906 F200.000
G1 X-1.019 Y44.008 F200.000
G1 X-1.034 Y44.068 F200.000
G1 X-1.094 Y44.139 F200.000
G1 X-1.211 Y44.199 F200.000
G1 X-1.211 Y44.199 F200.000
G1 X-1.436 Y44.241 F200.000
G1 X-1.549 Y44.233 F200.000
G1 X-1.823 Y44.120 F200.000
G1 X-2.023 Y43.989 F200.000
G1 X-2.308 Y43.752 F200.000
G1 X-2.538 Y43.459 F200.000
G1 X-2.635 Y43.289 F200.000
G1 X-2.711 Y43.124 F200.000
G1 X-2.789 Y42.902 F200.000
G1 X-2.868 Y42.594 F200.000
G1 X-2.914 Y42.256 F200.000
G1 X-2.902 Y41.966 F200.000
G1 X-2.816 Y41.665 F200.000
G1 X-2.789 Y41.609 F200.000
G1 X-2.748 Y41.560 F200.000
G1 X-2.459 Y41.444 F200.000
G1 X-2.459 Y41.444 F200.000
G1 X-2.297 Y41.429 F200.000
G1 X-2.241 Y41.444 F200.000
G0 X-2.218 Y41.462
G0 X-2.162 Y41.560
G0 X-1.305 Y43.921
G1 X-1.293 Y43.955 F200.000
G1 X-1.259 Y44.075 F200.000
G1 X-1.271 Y44.132 F200.000
G1 X-1.327 Y44.203 F200.000
G1 X-1.436 Y44.274 F200.000
G1 X-1.436 Y44.274 F200.000
G1 X-1.658 Y44.331 F200.000
G1 X-1.771 Y44.335 F200.000
G1 X-1.940 Y44.293 F200.000
G1 X-2.207 Y44.169 F200.000
G1 X-2.305 Y44.105 F200.000
G1 X-2.602 Y43.880 F200.000
G1 X-2.842 Y43.598 F200.000
G1 X-2.947 Y43.425 F200.000
G1 X-3.026 Y43.267 F200.000
G1 X-3.117 Y43.053 F200.000
G1 X-3.218 Y42.733 F200.000
G1 X-3.267 Y42.383 F200.000
G1 X-3.267 Y42.150 F200.000
G1 X-3.199 Y41.850 F200.000
G1 X-3.177 Y41.789 F200.000
G1 X-3.143 Y41.737 F200.000
G1 X-2.921 Y41.624 F200.000
G1 X-2.921 Y41.624 F200.000
G1 X-2.793 Y41.590 F200.000
G1 X-2.707 Y41.602 F200.000
G0 X-2.680 Y41.617
G0 X-2.617 Y41.711
G0 X-1.545 Y44.015
G1 X-1.530 Y44.049 F200.000
G1 X-1.489 Y44.165 F200.000
G1 X-1.500 Y44.222 F200.000
G1 X-1.553 Y44.293 F200.000
G1 X-1.662 Y44.365 F200.000
G1 X-1.662 Y44.365 F200.000
G1 X-1.880 Y44.432 F200.000
G1 X-2.049 Y44.444 F200.000
G1 X-2.274 Y44.387 F200.000
G1 X-2.594 Y44.226 F200.000
G1 X-2.895 Y44.008 F200.000
G1 X-3.147 Y43.733 F200.000
G1 X-3.259 Y43.564 F200.000
G1 X-3.350 Y43.402 F200.000
G1 X-3.447 Y43.184 F200.000
G1 X-3.553 Y42.883 F200.000
G1 X-3.613 Y42.545 F200.000
G1 X-3.620 Y42.308 F200.000
G1 X-3.579 Y42.068 F200.000
G1 X-3.534 Y41.951 F200.000
G1 X-3.496 Y41.902 F200.000
G1 X-3.331 Y41.812 F200.000
G1 X-3.271 Y41.789 F200.000
G1 X-3.271 Y41.789 F200.000
G1 X-3.143 Y41.752 F200.000
G1 X-3.056 Y41.759 F200.000
G0 X-3.030 Y41.771
G0 X-2.966 Y41.861
G0 X-1.846 Y44.113
G1 X-1.831 Y44.150 F200.000
G1 X-1.789 Y44.248 F200.000
G1 X-1.793 Y44.312 F200.000
G1 X-1.838 Y44.391 F200.000
G1 X-1.940 Y44.477 F200.000
G1 X-1.940 Y44.477 F200.000
G1 X-2.102 Y44.545 F200.000
G1 X-2.214 Y44.571 F200.000
G1 X-2.383 Y44.564 F200.000
G1 X-2.714 Y44.451 F200.000
G1 X-2.820 Y44.395 F200.000
G1 X-3.135 Y44.199 F200.000
G1 X-3.406 Y43.944 F200.000
G1 X-3.541 Y43.767 F200.000
G1 X-3.647 Y43.605 F200.000
G1 X-3.763 Y43.376 F200.000
G1 X-3.868 Y43.109 F200.000
G1 X-3.947 Y42.816 F200.000
G1 X-3.970 Y42.538 F200.000
G1 X-3.944 Y42.297 F200.000
G1 X-3.910 Y42.177 F200.000
G1 X-3.876 Y42.124 F200.000
G1 X-3.613 Y41.962 F200.000
G1 X-3.613 Y41.962 F200.000
G1 X-3.455 Y41.917 F200.000
G1 X-3.395 Y41.925 F200.000
G0 X-3.372 Y41.940
G0 X-3.301 Y42.026
G0 X-2.068 Y44.229
G1 X-2.049 Y44.267 F200.000
G1 X-2.004 Y44.365 F200.000
G1 X-2.004 Y44.425 F200.000
G1 X-2.049 Y44.504 F200.000
G1 X-2.150 Y44.590 F200.000
G1 X-2.150 Y44.590 F200.000
G1 X-2.308 Y44.665 F200.000
G1 X-2.477 Y44.711 F200.000
G1 X-2.647 Y44.699 F200.000
G1 X-2.872 Y44.643 F200.000
G1 X-3.038 Y44.575 F200.000
G1 X-3.365 Y44.402 F200.000
G1 X-3.650 Y44.165 F200.000
G1 X-3.789 Y44.011 F200.000
G1 X-3.902 Y43.861 F200.000
G1 X-4.030 Y43.654 F200.000
G1 X-4.158 Y43.383 F200.000
G1 X-4.256 Y43.105 F200.000
G1 X-4.305 Y42.831 F200.000
G1 X-4.293 Y42.530 F200.000
G1 X-4.267 Y42.410 F200.000
G1 X-4.237 Y42.353 F200.000
G1 X-4.030 Y42.207 F200.000
G1 X-4.030 Y42.207 F200.000
G1 X-3.910 Y42.150 F200.000
G1 X-3.850 Y42.143 F200.000
G1 X-3.820 Y42.147 F200.000
G0 X-3.797 Y42.158
G0 X-3.718 Y42.241
G0 X-2.353 Y44.368
G1 X-2.331 Y44.398 F200.000
G1 X-2.274 Y44.508 F200.000
G1 X-2.274 Y44.564 F200.000
G1 X-2.312 Y44.647 F200.000
G1 X-2.410 Y44.741 F200.000
G1 X-2.410 Y44.741 F200.000
G1 X-2.560 Y44.820 F200.000
G1 X-2.726 Y44.865 F200.000
G1 X-2.951 Y44.850 F200.000
G1 X-3.177 Y44.793 F200.000
G1 X-3.628 Y44.594 F200.000
G1 X-3.921 Y44.365 F200.000
G1 X-4.068 Y44.214 F200.000
G1 X-4.188 Y44.071 F200.000
G1 X-4.331 Y43.857 F200.000
G1 X-4.466 Y43.602 F200.000
G1 X-4.564 Y43.327 F200.000
G1 X-4.624 Y43.094 F200.000
G1 X-4.628 Y42.793 F200.000
G1 X-4.609 Y42.673 F200.000
G1 X-4.583 Y42.617 F200.000
G1 X-4.545 Y42.568 F200.000
G1 X-4.342 Y42.417 F200.000
G1 X-4.342 Y42.417 F200.000
G1 X-4.222 Y42.361 F200.000
G1 X-4.132 Y42.353 F200.000
G0 X-4.105 Y42.365
G0 X-4.026 Y42.444
G0 X-2.575 Y44.496
G1 X-2.553 Y44.526 F200.000
G1 X-2.489 Y44.632 F200.000
G1 X-2.485 Y44.692 F200.000
G1 X-2.519 Y44.778 F200.000
G1 X-2.609 Y44.876 F200.000
G1 X-2.609 Y44.876 F200.000
G1 X-2.752 Y44.974 F200.000
G1 X-2.914 Y45.041 F200.000
G1 X-3.195 Y45.041 F200.000
G1 X-3.477 Y44.966 F200.000
G1 X-3.823 Y44.835 F200.000
G1 X-4.132 Y44.628 F200.000
G1 X-4.293 Y44.481 F200.000
G1 X-4.429 Y44.331 F200.000
G1 X-4.560 Y44.158 F200.000
G1 X-4.722 Y43.895 F200.000
G1 X-4.853 Y43.609 F200.000
G1 X-4.925 Y43.342 F200.000
G1 X-4.940 Y43.102 F200.000
G1 X-4.925 Y42.921 F200.000
G1 X-4.898 Y42.865 F200.000
G1 X-4.658 Y42.662 F200.000
G1 X-4.658 Y42.662 F200.000
G1 X-4.541 Y42.594 F200.000
G1 X-4.451 Y42.583 F200.000
G0 X-4.425 Y42.590
G0 X-4.342 Y42.669
G0 X-2.820 Y44.688
G1 X-2.797 Y44.714 F200.000
G1 X-2.733 Y44.820 F200.000
G1 X-2.729 Y44.876 F200.000
G1 X-2.759 Y44.962 F200.000
G1 X-2.846 Y45.060 F200.000
G1 X-2.846 Y45.060 F200.000
G1 X-2.981 Y45.162 F200.000
G1 X-3.139 Y45.229 F200.000
G1 X-3.421 Y45.237 F200.000
G1 X-3.703 Y45.180 F200.000
G1 X-4.053 Y45.056 F200.000
G1 X-4.368 Y44.861 F200.000
G1 X-4.534 Y44.722 F200.000
G1 X-4.673 Y44.586 F200.000
G1 X-4.835 Y44.395 F200.000
G1 X-5.000 Y44.147 F200.000
G1 X-5.135 Y43.887 F200.000
G1 X-5.222 Y43.620 F200.000
G1 X-5.252 Y43.380 F200.000
G1 X-5.248 Y43.259 F200.000
G1 X-5.237 Y43.199 F200.000
G1 X-5.211 Y43.143 F200.000
G1 X-4.936 Y42.891 F200.000
G1 X-4.936 Y42.891 F200.000
G1 X-4.820 Y42.823 F200.000
G1 X-4.729 Y42.812 F200.000
G0 X-4.703 Y42.820
G0 X-4.617 Y42.895
G0 X-3.026 Y44.842
G1 X-3.000 Y44.876 F200.000
G1 X-2.940 Y44.962 F200.000
G1 X-2.929 Y45.023 F200.000
G1 X-2.947 Y45.113 F200.000
G1 X-3.023 Y45.222 F200.000
G1 X-3.023 Y45.222 F200.000
G1 X-3.207 Y45.365 F200.000
G1 X-3.308 Y45.414 F200.000
G1 X-3.534 Y45.444 F200.000
G1 X-3.816 Y45.425 F200.000
G1 X-4.229 Y45.308 F200.000
G1 X-4.556 Y45.139 F200.000
G1 X-4.718 Y45.019 F200.000
G1 X-4.857 Y44.898 F200.000
G1 X-5.038 Y44.711 F200.000
G1 X-5.226 Y44.474 F200.000
G1 X-5.387 Y44.199 F200.000
G1 X-5.481 Y43.970 F200.000
G1 X-5.534 Y43.669 F200.000
G1 X-5.538 Y43.549 F200.000
G1 X-5.523 Y43.489 F200.000
G1 X-5.278 Y43.211 F200.000
G1 X-5.278 Y43.211 F200.000
G1 X-5.139 Y43.124 F200.000
G1 X-5.083 Y43.113 F200.000
G0 X-5.056 Y43.120
G0 X-4.962 Y43.184
G0 X-3.218 Y45.015
G1 X-3.192 Y45.045 F200.000
G1 X-3.124 Y45.128 F200.000
G1 X-3.105 Y45.188 F200.000
G1 X-3.124 Y45.278 F200.000
G1 X-3.195 Y45.387 F200.000
G1 X-3.195 Y45.387 F200.000
G1 X-3.365 Y45.545 F200.000
G1 X-3.515 Y45.635 F200.000
G1 X-3.797 Y45.669 F200.000
G1 X-4.079 Y45.647 F200.000
G1 X-4.440 Y45.556 F200.000
G1 X-4.774 Y45.395 F200.000
G1 X-4.936 Y45.286 F200.000
G1 X-5.075 Y45.173 F200.000
G1 X-5.259 Y45.000 F200.000
G1 X-5.470 Y44.759 F200.000
G1 X-5.647 Y44.474 F200.000
G1 X-5.744 Y44.259 F200.000
G1 X-5.805 Y43.959 F200.000
G1 X-5.805 Y43.838 F200.000
G1 X-5.789 Y43.778 F200.000
G1 X-5.541 Y43.496 F200.000
G1 X-5.541 Y43.496 F200.000
G1 X-5.436 Y43.414 F200.000
G1 X-5.350 Y43.391 F200.000
G0 X-5.320 Y43.395
G0 X-5.229 Y43.459
G0 X-3.429 Y45.233
G1 X-3.406 Y45.259 F200.000
G1 X-3.323 Y45.353 F200.000
G1 X-3.312 Y45.406 F200.000
G1 X-3.331 Y45.496 F200.000
G1 X-3.402 Y45.605 F200.000
G1 X-3.402 Y45.605 F200.000
G1 X-3.519 Y45.737 F200.000
G1 X-3.613 Y45.808 F200.000
G1 X-3.665 Y45.835 F200.000
G1 X-3.891 Y45.887 F200.000
G1 X-4.229 Y45.887 F200.000
G1 X-4.594 Y45.823 F200.000
G1 X-4.932 Y45.688 F200.000
G1 X-5.105 Y45.586 F200.000
G1 X-5.256 Y45.477 F200.000
G1 X-5.432 Y45.335 F200.000
G1 X-5.684 Y45.079 F200.000
G1 X-5.872 Y44.820 F200.000
G1 X-5.981 Y44.605 F200.000
G1 X-6.056 Y44.305 F200.000
G1 X-6.064 Y44.184 F200.000
G1 X-6.045 Y44.124 F200.000
G1 X-5.820 Y43.812 F200.000
G1 X-5.816 Y43.812 F200.000
G1 X-5.714 Y43.726 F200.000
G1 X-5.628 Y43.699 F200.000
G0 X-5.602 Y43.699
G0 X-5.508 Y43.759
G0 X-3.609 Y45.425
G1 X-3.583 Y45.451 F200.000
G1 X-3.508 Y45.526 F200.000
G1 X-3.485 Y45.586 F200.000
G1 X-3.489 Y45.677 F200.000
G1 X-3.545 Y45.797 F200.000
G1 X-3.545 Y45.797 F200.000
G1 X-3.692 Y45.970 F200.000
G1 X-3.831 Y46.071 F200.000
G1 X-4.056 Y46.132 F200.000
G1 X-4.338 Y46.147 F200.000
G1 X-4.763 Y46.094 F200.000
G1 X-5.113 Y45.970 F200.000
G1 X-5.293 Y45.876 F200.000
G1 X-5.455 Y45.771 F200.000
G1 X-5.643 Y45.628 F200.000
G1 X-5.872 Y45.410 F200.000
G1 X-6.079 Y45.165 F200.000
G1 X-6.222 Y44.917 F200.000
G1 X-6.305 Y44.617 F200.000
G1 X-6.308 Y44.556 F200.000
G1 X-6.297 Y44.496 F200.000
G1 X-6.086 Y44.180 F200.000
G1 X-6.086 Y44.180 F200.000
G1 X-5.989 Y44.090 F200.000
G1 X-5.902 Y44.056 F200.000
G0 X-5.876 Y44.060
G0 X-5.774 Y44.113
G0 X-3.797 Y45.673
G1 X-3.763 Y45.699 F200.000
G1 X-3.688 Y45.771 F200.000
G1 X-3.662 Y45.827 F200.000
G1 X-3.669 Y45.917 F200.000
G1 X-3.722 Y46.038 F200.000
G1 X-3.722 Y46.038 F200.000
G1 X-3.868 Y46.214 F200.000
G1 X-3.959 Y46.286 F200.000
G1 X-4.180 Y46.361 F200.000
G1 X-4.462 Y46.398 F200.000
G1 X-4.887 Y46.372 F200.000
G1 X-5.244 Y46.271 F200.000
G1 X-5.429 Y46.188 F200.000
G1 X-5.594 Y46.094 F200.000
G1 X-5.789 Y45.962 F200.000
G1 X-6.030 Y45.771 F200.000
G1 X-6.278 Y45.492 F200.000
G1 X-6.410 Y45.293 F200.000
G1 X-6.508 Y45.004 F200.000
G1 X-6.519 Y44.944 F200.000
G1 X-6.519 Y44.883 F200.000
G1 X-6.500 Y44.823 F200.000
G1 X-6.338 Y44.556 F200.000
G1 X-6.338 Y44.553 F200.000
G1 X-6.244 Y44.455 F200.000
G1 X-6.165 Y44.417 F200.000
G0 X-6.135 Y44.417
G0 X-6.034 Y44.462
G0 X-3.959 Y45.883
G1 X-3.929 Y45.906 F200.000
G1 X-3.846 Y45.974 F200.000
G1 X-3.816 Y46.026 F200.000
G1 X-3.808 Y46.120 F200.000
G1 X-3.846 Y46.244 F200.000
G1 X-3.846 Y46.244 F200.000
G1 X-3.981 Y46.432 F200.000
G1 X-4.064 Y46.511 F200.000
G1 X-4.327 Y46.620 F200.000
G1 X-4.609 Y46.665 F200.000
G1 X-4.977 Y46.665 F200.000
G1 X-5.342 Y46.590 F200.000
G1 X-5.545 Y46.515 F200.000
G1 X-5.722 Y46.436 F200.000
G1 X-5.944 Y46.305 F200.000
G1 X-6.173 Y46.135 F200.000
G1 X-6.387 Y45.936 F200.000
G1 X-6.556 Y45.714 F200.000
G1 X-6.684 Y45.440 F200.000
G1 X-6.718 Y45.320 F200.000
G1 X-6.714 Y45.259 F200.000
G1 X-6.556 Y44.917 F200.000
G1 X-6.556 Y44.917 F200.000
G1 X-6.466 Y44.816 F200.000
G1 X-6.387 Y44.771 F200.000
G0 X-6.357 Y44.771
G0 X-6.252 Y44.812
G0 X-4.124 Y46.150
G1 X-4.094 Y46.173 F200.000
G1 X-4.008 Y46.237 F200.000
G1 X-3.974 Y46.289 F200.000
G1 X-3.962 Y46.383 F200.000
G1 X-3.992 Y46.508 F200.000
G1 X-3.992 Y46.508 F200.000
G1 X-4.086 Y46.654 F200.000
G1 X-4.165 Y46.741 F200.000
G1 X-4.211 Y46.778 F200.000
G1 X-4.474 Y46.891 F200.000
G1 X-4.699 Y46.940 F200.000
G1 X-5.068 Y46.966 F200.000
G1 X-5.436 Y46.914 F200.000
G1 X-5.628 Y46.857 F200.000
G1 X-5.797 Y46.789 F200.000
G1 X-6.011 Y46.684 F200.000
G1 X-6.274 Y46.519 F200.000
G1 X-6.526 Y46.320 F200.000
G1 X-6.714 Y46.105 F200.000
G1 X-6.835 Y45.891 F200.000
G1 X-6.880 Y45.778 F200.000
G1 X-6.895 Y45.718 F200.000
G1 X-6.895 Y45.658 F200.000
G1 X-6.812 Y45.429 F200.000
G1 X-6.726 Y45.259 F200.000
G1 X-6.726 Y45.259 F200.000
G1 X-6.643 Y45.154 F200.000
G1 X-6.564 Y45.105 F200.000
G0 X-6.538 Y45.102
G0 X-6.432 Y45.139
G0 X-4.248 Y46.372
G1 X-4.211 Y46.395 F200.000
G1 X-4.124 Y46.455 F200.000
G1 X-4.086 Y46.504 F200.000
G1 X-4.071 Y46.598 F200.000
G1 X-4.094 Y46.722 F200.000
G1 X-4.094 Y46.722 F200.000
G1 X-4.165 Y46.880 F200.000
G1 X-4.267 Y47.015 F200.000
G1 X-4.361 Y47.083 F200.000
G1 X-4.571 Y47.177 F200.000
G1 X-4.797 Y47.229 F200.000
G1 X-5.165 Y47.271 F200.000
G1 X-5.534 Y47.233 F200.000
G1 X-5.741 Y47.184 F200.000
G1 X-5.929 Y47.124 F200.000
G1 X-6.158 Y47.023 F200.000
G1 X-6.414 Y46.880 F200.000
G1 X-6.665 Y46.695 F200.000
G1 X-6.857 Y46.489 F200.000
G1 X-6.985 Y46.282 F200.000
G1 X-7.034 Y46.169 F200.000
G1 X-7.049 Y46.049 F200.000
G1 X-6.917 Y45.688 F200.000
G1 X-6.917 Y45.688 F200.000
G1 X-6.842 Y45.579 F200.000
G1 X-6.771 Y45.523 F200.000
G0 X-6.741 Y45.519
G0 X-6.635 Y45.549
G0 X-4.357 Y46.665
G1 X-4.323 Y46.684 F200.000
G1 X-4.229 Y46.737 F200.000
G1 X-4.192 Y46.789 F200.000
G1 X-4.177 Y46.880 F200.000
G1 X-4.199 Y47.004 F200.000
G1 X-4.199 Y47.004 F200.000
G1 X-4.267 Y47.162 F200.000
G1 X-4.331 Y47.256 F200.000
G1 X-4.421 Y47.331 F200.000
G1 X-4.624 Y47.440 F200.000
G1 X-4.842 Y47.511 F200.000
G1 X-5.207 Y47.579 F200.000
G1 X-5.575 Y47.571 F200.000
G1 X-5.786 Y47.538 F200.000
G1 X-5.974 Y47.492 F200.000
G1 X-6.211 Y47.406 F200.000
G1 X-6.466 Y47.282 F200.000
G1 X-6.722 Y47.120 F200.000
G1 X-6.929 Y46.936 F200.000
G1 X-7.132 Y46.632 F200.000
G1 X-7.158 Y46.575 F200.000
G1 X-7.173 Y46.515 F200.000
G1 X-7.173 Y46.455 F200.000
G1 X-7.068 Y46.094 F200.000
G1 X-7.068 Y46.094 F200.000
G1 X-6.981 Y45.955 F200.000
G1 X-6.932 Y45.921 F200.000
G0 X-6.906 Y45.914
G0 X-6.797 Y45.936
G0 X-4.455 Y46.906
G1 X-4.421 Y46.921 F200.000
G1 X-4.323 Y46.970 F200.000
G1 X-4.282 Y47.015 F200.000
G1 X-4.256 Y47.105 F200.000
G1 X-4.267 Y47.233 F200.000
G1 X-4.267 Y47.233 F200.000
G1 X-4.353 Y47.451 F200.000
G1 X-4.417 Y47.545 F200.000
G1 X-4.504 Y47.620 F200.000
G1 X-4.703 Y47.737 F200.000
G1 X-4.921 Y47.816 F200.000
G1 X-5.282 Y47.895 F200.000
G1 X-5.650 Y47.906 F200.000
G1 X-5.868 Y47.880 F200.000
G1 X-6.053 Y47.842 F200.000
G1 X-6.289 Y47.767 F200.000
G1 X-6.556 Y47.650 F200.000
G1 X-6.808 Y47.508 F200.000
G1 X-7.019 Y47.331 F200.000
G1 X-7.173 Y47.143 F200.000
G1 X-7.263 Y46.985 F200.000
G1 X-7.282 Y46.925 F200.000
G1 X-7.286 Y46.865 F200.000
G1 X-7.188 Y46.504 F200.000
G1 X-7.188 Y46.504 F200.000
G1 X-7.128 Y46.387 F200.000
G1 X-7.083 Y46.342 F200.000
G1 X-7.060 Y46.327 F200.000
G0 X-7.034 Y46.320
G0 X-6.921 Y46.338
G0 X-4.553 Y47.203
G1 X-4.515 Y47.218 F200.000
G1 X-4.421 Y47.259 F200.000
G1 X-4.376 Y47.308 F200.000
G1 X-4.342 Y47.395 F200.000
G1 X-4.350 Y47.523 F200.000
G1 X-4.350 Y47.523 F200.000
G1 X-4.421 Y47.741 F200.000
G1 X-4.481 Y47.835 F200.000
G1 X-4.759 Y48.034 F200.000
G1 X-4.970 Y48.124 F200.000
G1 X-5.327 Y48.218 F200.000
G1 X-5.695 Y48.244 F200.000
G1 X-5.917 Y48.229 F200.000
G1 X-6.109 Y48.199 F200.000
G1 X-6.353 Y48.135 F200.000
G1 X-6.620 Y48.034 F200.000
G1 X-6.868 Y47.906 F200.000
G1 X-7.090 Y47.744 F200.000
G1 X-7.282 Y47.511 F200.000
G1 X-7.346 Y47.406 F200.000
G1 X-7.361 Y47.346 F200.000
G1 X-7.365 Y47.286 F200.000
G1 X-7.297 Y46.925 F200.000
G1 X-7.297 Y46.925 F200.000
G1 X-7.248 Y46.801 F200.000
G1 X-7.207 Y46.752 F200.000
G1 X-7.184 Y46.737 F200.000
G0 X-7.158 Y46.726
G0 X-7.049 Y46.737
G0 X-4.620 Y47.455
G1 X-4.579 Y47.466 F200.000
G1 X-4.481 Y47.504 F200.000
G1 X-4.432 Y47.545 F200.000
G1 X-4.395 Y47.632 F200.000
G1 X-4.391 Y47.759 F200.000
G1 X-4.391 Y47.759 F200.000
G1 X-4.470 Y48.038 F200.000
G1 X-4.530 Y48.135 F200.000
G1 X-4.711 Y48.278 F200.000
G1 X-4.962 Y48.414 F200.000
G1 X-5.312 Y48.534 F200.000
G1 X-5.677 Y48.586 F200.000
G1 X-5.895 Y48.586 F200.000
G1 X-6.083 Y48.571 F200.000
G1 X-6.327 Y48.526 F200.000
G1 X-6.617 Y48.440 F200.000
G1 X-6.883 Y48.320 F200.000
G1 X-7.098 Y48.180 F200.000
G1 X-7.308 Y47.966 F200.000
G1 X-7.380 Y47.868 F200.000
G1 X-7.425 Y47.752 F200.000
G1 X-7.383 Y47.391 F200.000
G1 X-7.383 Y47.391 F200.000
G1 X-7.335 Y47.267 F200.000
G1 X-7.271 Y47.203 F200.000
G0 X-7.244 Y47.192
G0 X-7.132 Y47.195
G0 X-4.680 Y47.763
G1 X-4.643 Y47.774 F200.000
G1 X-4.541 Y47.808 F200.000
G1 X-4.492 Y47.846 F200.000
G1 X-4.447 Y47.929 F200.000
G1 X-4.436 Y48.056 F200.000
G1 X-4.436 Y48.056 F200.000
G1 X-4.485 Y48.282 F200.000
G1 X-4.538 Y48.383 F200.000
G1 X-4.748 Y48.583 F200.000
G1 X-4.940 Y48.707 F200.000
G1 X-5.278 Y48.853 F200.000
G1 X-5.639 Y48.929 F200.000
G1 X-5.838 Y48.940 F200.000
G1 X-6.030 Y48.940 F200.000
G1 X-6.293 Y48.906 F200.000
G1 X-6.571 Y48.842 F200.000
G1 X-6.846 Y48.737 F200.000
G1 X-7.056 Y48.632 F200.000
G1 X-7.286 Y48.436 F200.000
G1 X-7.406 Y48.301 F200.000
G1 X-7.440 Y48.248 F200.000
G1 X-7.462 Y48.192 F200.000
G1 X-7.436 Y47.831 F200.000
G1 X-7.436 Y47.831 F200.000
G1 X-7.398 Y47.707 F200.000
G1 X-7.342 Y47.635 F200.000
G0 X-7.320 Y47.624
G0 X-7.207 Y47.620
G0 X-4.707 Y48.015
G1 X-4.665 Y48.023 F200.000
G1 X-4.564 Y48.049 F200.000
G1 X-4.515 Y48.086 F200.000
G1 X-4.470 Y48.165 F200.000
G1 X-4.459 Y48.293 F200.000
G1 X-4.459 Y48.293 F200.000
G1 X-4.485 Y48.519 F200.000
G1 X-4.519 Y48.628 F200.000
G1 X-4.624 Y48.767 F200.000
G1 X-4.797 Y48.925 F200.000
G1 X-4.944 Y49.019 F200.000
G1 X-5.274 Y49.180 F200.000
G1 X-5.632 Y49.274 F200.000
G1 X-5.838 Y49.297 F200.000
G1 X-6.023 Y49.301 F200.000
G1 X-6.263 Y49.282 F200.000
G1 X-6.545 Y49.233 F200.000
G1 X-6.850 Y49.143 F200.000
G1 X-7.102 Y49.019 F200.000
G1 X-7.335 Y48.831 F200.000
G1 X-7.417 Y48.741 F200.000
G1 X-7.447 Y48.688 F200.000
G1 X-7.466 Y48.632 F200.000
G1 X-7.466 Y48.211 F200.000
G1 X-7.466 Y48.211 F200.000
G1 X-7.436 Y48.083 F200.000
G1 X-7.406 Y48.026 F200.000
G1 X-7.383 Y48.008 F200.000
G0 X-7.361 Y47.992
G0 X-7.248 Y47.985
G0 X-4.733 Y48.271
G1 X-4.695 Y48.278 F200.000
G1 X-4.590 Y48.297 F200.000
G1 X-4.538 Y48.331 F200.000
G1 X-4.485 Y48.410 F200.000
G1 X-4.459 Y48.534 F200.000
G1 X-4.459 Y48.534 F200.000
G1 X-4.474 Y48.816 F200.000
G1 X-4.504 Y48.929 F200.000
G1 X-4.639 Y49.113 F200.000
G1 X-4.910 Y49.331 F200.000
G1 X-5.233 Y49.508 F200.000
G1 X-5.586 Y49.617 F200.000
G1 X-5.797 Y49.647 F200.000
G1 X-5.977 Y49.658 F200.000
G1 X-6.214 Y49.654 F200.000
G1 X-6.545 Y49.617 F200.000
G1 X-6.861 Y49.530 F200.000
G1 X-7.079 Y49.429 F200.000
G1 X-7.320 Y49.252 F200.000
G1 X-7.406 Y49.165 F200.000
G1 X-7.436 Y49.113 F200.000
G1 X-7.451 Y49.053 F200.000
G1 X-7.466 Y48.692 F200.000
G1 X-7.466 Y48.692 F200.000
G1 X-7.444 Y48.564 F200.000
G1 X-7.417 Y48.508 F200.000
G1 X-7.398 Y48.485 F200.000
G0 X-7.376 Y48.470
G0 X-7.263 Y48.459
G0 X-4.733 Y48.590
G1 X-4.695 Y48.594 F200.000
G1 X-4.590 Y48.609 F200.000
G1 X-4.534 Y48.639 F200.000
G1 X-4.481 Y48.711 F200.000
G1 X-4.447 Y48.835 F200.000
G1 X-4.447 Y48.835 F200.000
G1 X-4.444 Y49.060 F200.000
G1 X-4.462 Y49.173 F200.000
G1 X-4.481 Y49.229 F200.000
G1 X-4.617 Y49.417 F200.000
G1 X-4.831 Y49.613 F200.000
G1 X-5.143 Y49.812 F200.000
G1 X-5.489 Y49.944 F200.000
G1 X-5.684 Y49.985 F200.000
G1 X-5.861 Y50.011 F200.000
G1 X-6.117 Y50.026 F200.000
G1 X-6.432 Y50.011 F200.000
G1 X-6.737 Y49.951 F200.000
G1 X-6.959 Y49.872 F200.000
G1 X-7.263 Y49.688 F200.000
G1 X-7.353 Y49.609 F200.000
G1 X-7.406 Y49.500 F200.000
G1 X-7.444 Y49.139 F200.000
G1 X-7.444 Y49.139 F200.000
G1 X-7.429 Y49.011 F200.000
G1 X-7.387 Y48.932 F200.000
G0 X-7.365 Y48.914
G0 X-7.256 Y48.895
G0 X-4.729 Y48.910
G1 X-4.692 Y48.910 F200.000
G1 X-4.583 Y48.917 F200.000
G1 X-4.526 Y48.944 F200.000
G1 X-4.451 Y49.041 F200.000
G1 X-4.417 Y49.132 F200.000
G1 X-4.417 Y49.132 F200.000
G1 X-4.398 Y49.357 F200.000
G1 X-4.414 Y49.470 F200.000
G1 X-4.459 Y49.575 F200.000
G1 X-4.594 Y49.763 F200.000
G1 X-4.763 Y49.921 F200.000
G1 X-5.068 Y50.132 F200.000
G1 X-5.406 Y50.282 F200.000
G1 X-5.613 Y50.338 F200.000
G1 X-5.808 Y50.376 F200.000
G1 X-6.056 Y50.398 F200.000
G1 X-6.357 Y50.395 F200.000
G1 X-6.658 Y50.357 F200.000
G1 X-6.981 Y50.248 F200.000
G1 X-7.233 Y50.086 F200.000
G1 X-7.308 Y49.996 F200.000
G1 X-7.395 Y49.579 F200.000
G1 X-7.395 Y49.579 F200.000
G1 X-7.383 Y49.451 F200.000
G1 X-7.365 Y49.391 F200.000
G1 X-7.346 Y49.368 F200.000
G0 X-7.323 Y49.350
G0 X-7.214 Y49.323
G0 X-4.677 Y49.214
G1 X-4.639 Y49.214 F200.000
G1 X-4.530 Y49.218 F200.000
G1 X-4.474 Y49.241 F200.000
G1 X-4.414 Y49.308 F200.000
G1 X-4.365 Y49.429 F200.000
G1 X-4.365 Y49.429 F200.000
G1 X-4.335 Y49.654 F200.000
G1 X-4.350 Y49.767 F200.000
G1 X-4.530 Y50.060 F200.000
G1 X-4.688 Y50.229 F200.000
G1 X-4.981 Y50.451 F200.000
G1 X-5.312 Y50.617 F200.000
G1 X-5.519 Y50.684 F200.000
G1 X-5.711 Y50.729 F200.000
G1 X-5.955 Y50.767 F200.000
G1 X-6.271 Y50.778 F200.000
G1 X-6.575 Y50.744 F200.000
G1 X-6.801 Y50.688 F200.000
G1 X-7.068 Y50.564 F200.000
G1 X-7.162 Y50.496 F200.000
G1 X-7.199 Y50.447 F200.000
G1 X-7.226 Y50.391 F200.000
G1 X-7.308 Y50.030 F200.000
G1 X-7.308 Y50.030 F200.000
G1 X-7.305 Y49.902 F200.000
G1 X-7.271 Y49.816 F200.000
G0 X-7.252 Y49.797
G0 X-7.147 Y49.763
G0 X-4.647 Y49.481
G1 X-4.605 Y49.477 F200.000
G1 X-4.500 Y49.470 F200.000
G1 X-4.440 Y49.489 F200.000
G1 X-4.368 Y49.549 F200.000
G1 X-4.301 Y49.658 F200.000
G1 X-4.301 Y49.658 F200.000
G1 X-4.256 Y49.883 F200.000
G1 X-4.263 Y50.053 F200.000
G1 X-4.335 Y50.211 F200.000
G1 X-4.541 Y50.485 F200.000
G1 X-4.816 Y50.733 F200.000
G1 X-5.135 Y50.921 F200.000
G1 X-5.338 Y51.008 F200.000
G1 X-5.534 Y51.071 F200.000
G1 X-5.786 Y51.124 F200.000
G1 X-6.056 Y51.150 F200.000
G1 X-6.346 Y51.147 F200.000
G1 X-6.617 Y51.117 F200.000
G1 X-6.944 Y50.985 F200.000
G1 X-6.996 Y50.955 F200.000
G1 X-7.075 Y50.865 F200.000
G1 X-7.192 Y50.519 F200.000
G1 X-7.192 Y50.515 F200.000
G1 X-7.195 Y50.387 F200.000
G1 X-7.169 Y50.301 F200.000
G0 X-7.150 Y50.282
G0 X-7.045 Y50.241
G0 X-4.564 Y49.782
G1 X-4.523 Y49.778 F200.000
G1 X-4.417 Y49.763 F200.000
G1 X-4.357 Y49.782 F200.000
G1 X-4.286 Y49.838 F200.000
G1 X-4.218 Y49.947 F200.000
G1 X-4.218 Y49.947 F200.000
G1 X-4.154 Y50.229 F200.000
G1 X-4.162 Y50.342 F200.000
G1 X-4.256 Y50.549 F200.000
G1 X-4.417 Y50.786 F200.000
G1 X-4.684 Y51.041 F200.000
G1 X-4.992 Y51.244 F200.000
G1 X-5.188 Y51.335 F200.000
G1 X-5.365 Y51.398 F200.000
G1 X-5.594 Y51.462 F200.000
G1 X-5.914 Y51.519 F200.000
G1 X-6.244 Y51.538 F200.000
G1 X-6.534 Y51.496 F200.000
G1 X-6.759 Y51.417 F200.000
G1 X-6.865 Y51.361 F200.000
G1 X-6.906 Y51.320 F200.000
G1 X-6.936 Y51.267 F200.000
G1 X-7.056 Y50.929 F200.000
G1 X-7.056 Y50.929 F200.000
G1 X-7.068 Y50.801 F200.000
G1 X-7.045 Y50.711 F200.000
G0 X-7.026 Y50.692
G0 X-6.925 Y50.647
G0 X-4.459 Y50.079
G1 X-4.421 Y50.071 F200.000
G1 X-4.316 Y50.056 F200.000
G1 X-4.256 Y50.068 F200.000
G1 X-4.184 Y50.120 F200.000
G1 X-4.117 Y50.229 F200.000
G1 X-4.117 Y50.229 F200.000
G1 X-4.056 Y50.398 F200.000
G1 X-4.038 Y50.511 F200.000
G1 X-4.038 Y50.568 F200.000
G1 X-4.113 Y50.786 F200.000
G1 X-4.263 Y51.038 F200.000
G1 X-4.511 Y51.312 F200.000
G1 X-4.805 Y51.534 F200.000
G1 X-4.989 Y51.635 F200.000
G1 X-5.162 Y51.714 F200.000
G1 X-5.395 Y51.797 F200.000
G1 X-5.718 Y51.876 F200.000
G1 X-6.041 Y51.910 F200.000
G1 X-6.297 Y51.895 F200.000
G1 X-6.579 Y51.820 F200.000
G1 X-6.688 Y51.767 F200.000
G1 X-6.733 Y51.726 F200.000
G1 X-6.910 Y51.338 F200.000
G1 X-6.910 Y51.338 F200.000
G1 X-6.929 Y51.211 F200.000
G1 X-6.910 Y51.124 F200.000
G0 X-6.895 Y51.102
G0 X-6.793 Y51.053
G0 X-4.372 Y50.327
G1 X-4.331 Y50.316 F200.000
G1 X-4.229 Y50.289 F200.000
G1 X-4.165 Y50.301 F200.000
G1 X-4.090 Y50.346 F200.000
G1 X-4.015 Y50.447 F200.000
G1 X-4.015 Y50.447 F200.000
G1 X-3.925 Y50.665 F200.000
G1 X-3.902 Y50.778 F200.000
G1 X-3.902 Y50.835 F200.000
G1 X-3.966 Y51.056 F200.000
G1 X-4.071 Y51.263 F200.000
G1 X-4.335 Y51.602 F200.000
G1 X-4.620 Y51.838 F200.000
G1 X-4.816 Y51.959 F200.000
G1 X-4.992 Y52.053 F200.000
G1 X-5.244 Y52.154 F200.000
G1 X-5.526 Y52.233 F200.000
G1 X-5.827 Y52.274 F200.000
G1 X-6.071 Y52.278 F200.000
G1 X-6.353 Y52.226 F200.000
G1 X-6.462 Y52.180 F200.000
G1 X-6.508 Y52.143 F200.000
G1 X-6.575 Y52.045 F200.000
G1 X-6.744 Y51.718 F200.000
G1 X-6.744 Y51.718 F200.000
G1 X-6.771 Y51.590 F200.000
G1 X-6.759 Y51.504 F200.000
G0 X-6.744 Y51.481
G0 X-6.647 Y51.429
G0 X-4.237 Y50.613
G1 X-4.199 Y50.602 F200.000
G1 X-4.094 Y50.571 F200.000
G1 X-4.034 Y50.575 F200.000
G1 X-3.955 Y50.617 F200.000
G1 X-3.872 Y50.711 F200.000
G1 X-3.872 Y50.711 F200.000
G1 X-3.774 Y50.925 F200.000
G1 X-3.748 Y51.038 F200.000
G1 X-3.767 Y51.207 F200.000
G1 X-3.895 Y51.530 F200.000
G1 X-4.105 Y51.835 F200.000
G1 X-4.368 Y52.094 F200.000
G1 X-4.541 Y52.226 F200.000
G1 X-4.714 Y52.335 F200.000
G1 X-4.940 Y52.444 F200.000
G1 X-5.203 Y52.541 F200.000
G1 X-5.492 Y52.613 F200.000
G1 X-5.767 Y52.650 F200.000
G1 X-6.049 Y52.628 F200.000
G1 X-6.162 Y52.602 F200.000
G1 X-6.214 Y52.579 F200.000
G1 X-6.305 Y52.504 F200.000
G1 X-6.492 Y52.192 F200.000
G1 X-6.492 Y52.192 F200.000
G1 X-6.526 Y52.068 F200.000
G1 X-6.519 Y51.981 F200.000
G0 X-6.508 Y51.959
G0 X-6.414 Y51.895
G0 X-4.098 Y50.914
G1 X-4.060 Y50.898 F200.000
G1 X-3.962 Y50.861 F200.000
G1 X-3.868 Y50.865 F200.000
G1 X-3.714 Y50.966 F200.000
G1 X-3.714 Y50.966 F200.000
G1 X-3.605 Y51.169 F200.000
G1 X-3.575 Y51.282 F200.000
G1 X-3.579 Y51.338 F200.000
G1 X-3.530 Y51.508 F200.000
G1 X-3.365 Y51.820 F200.000
G1 X-3.214 Y52.004 F200.000
G1 X-3.120 Y52.079 F200.000
G1 X-2.959 Y52.158 F200.000
G1 X-2.301 Y52.323 F200.000
G1 X-1.523 Y52.695 F200.000
G1 X-1.282 Y52.771 F200.000
G1 X-1.282 Y52.771 F200.000
G1 X-1.222 Y52.789 F200.000
G0 Z5.000
G0 X-1.222 Y52.789
G0 X-3.575 Y51.158
G1 Z-6.000 F100.000
G1 X-3.575 Y51.158 F200.000
G1 X-3.534 Y51.207 F200.000
G1 X-3.534 Y51.207 F200.000
G1 X-3.429 Y51.350 F200.000
G1 X-3.429 Y51.350 F200.000
G1 X-3.395 Y51.402 F200.000
G1 X-3.372 Y51.462 F200.000
G1 X-3.361 Y51.523 F200.000
G1 X-3.361 Y51.583 F200.000
G0 Z5.000
G0 X-3.361 Y51.583
G0 X-0.515 Y55.861
G1 Z-6.000 F100.000
G1 X-0.515 Y55.861 F200.000
G1 X-0.571 Y55.895 F200.000
G1 X-0.632 Y55.921 F200.000
G1 X-0.695 Y55.932 F200.000
G1 X-0.759 Y55.929 F200.000
G1 X-0.759 Y55.929 F200.000
G1 X-1.154 Y55.872 F200.000
G1 X-1.432 Y55.774 F200.000
G1 X-1.534 Y55.714 F200.000
G1 X-1.707 Y55.553 F200.000
G1 X-1.887 Y55.305 F200.000
G1 X-1.944 Y55.199 F200.000
G1 X-2.094 Y54.857 F200.000
G1 X-2.177 Y54.492 F200.000
G1 X-2.244 Y54.278 F200.000
G1 X-2.417 Y53.947 F200.000
G1 X-2.673 Y53.699 F200.000
G1 X-2.774 Y53.624 F200.000
G1 X-3.053 Y53.485 F200.000
G1 X-3.338 Y53.383 F200.000
G1 X-3.669 Y53.312 F200.000
G1 X-3.959 Y53.274 F200.000
G1 X-4.267 Y53.248 F200.000
G1 X-5.004 Y53.233 F200.000
G1 X-5.485 Y53.199 F200.000
G1 X-5.767 Y53.135 F200.000
G1 X-5.872 Y53.083 F200.000
G1 X-5.921 Y53.049 F200.000
G1 X-6.207 Y52.658 F200.000
G1 X-6.237 Y52.605 F200.000
G1 X-6.237 Y52.605 F200.000
G1 X-6.278 Y52.481 F200.000
G1 X-6.282 Y52.421 F200.000
G1 X-6.274 Y52.398 F200.000
G0 X-6.263 Y52.383
G0 X-6.165 Y52.383
G0 X-3.060 Y53.071
G0 X-2.342 Y53.500
G0 X-1.786 Y54.395
G0 X-1.229 Y55.605
G1 X-1.218 Y55.635 F200.000
G1 X-1.184 Y55.718 F200.000
G1 X-1.188 Y55.767 F200.000
G1 X-1.226 Y55.801 F200.000
G1 X-1.346 Y55.823 F200.000
G1 X-1.410 Y55.823 F200.000
G1 X-1.410 Y55.823 F200.000
G1 X-1.579 Y55.793 F200.000
G1 X-1.797 Y55.707 F200.000
G1 X-1.898 Y55.643 F200.000
G1 X-2.068 Y55.470 F200.000
G1 X-2.387 Y55.030 F200.000
G1 X-2.662 Y54.778 F200.000
G1 X-2.970 Y54.568 F200.000
G1 X-3.211 Y54.432 F200.000
G1 X-3.459 Y54.320 F200.000
G1 X-3.756 Y54.214 F200.000
G1 X-5.132 Y53.838 F200.000
G1 X-5.289 Y53.759 F200.000
G1 X-5.338 Y53.722 F200.000
G1 X-5.857 Y53.139 F200.000
G1 X-5.857 Y53.139 F200.000
G1 X-5.906 Y53.023 F200.000
G1 X-5.910 Y52.962 F200.000
G1 X-5.906 Y52.944 F200.000
G0 X-5.895 Y52.929
G0 X-5.805 Y52.947
G0 X-2.857 Y54.214
G0 X-2.203 Y54.752
G0 X-1.861 Y55.124
G0 X-1.643 Y55.545
G1 X-1.628 Y55.575 F200.000
G1 X-1.598 Y55.665 F200.000
G1 X-1.602 Y55.688 F200.000
G1 X-1.635 Y55.722 F200.000
G1 X-1.722 Y55.741 F200.000
G1 X-1.820 Y55.737 F200.000
G1 X-1.820 Y55.737 F200.000
G1 X-2.045 Y55.673 F200.000
G1 X-4.297 Y54.609 F200.000
G1 X-5.004 Y54.053 F200.000
G1 X-5.259 Y53.805 F200.000
G1 X-5.259 Y53.805 F200.000
G1 X-5.323 Y53.695 F200.000
G1 X-5.335 Y53.617 F200.000
G0 X-5.323 Y53.602
G0 X-5.199 Y53.632
G0 X-4.365 Y53.989
G0 X-3.523 Y54.538
G0 X-2.350 Y55.124
G0 X-2.120 Y55.432
G1 X-2.105 Y55.459 F200.000
G1 X-2.060 Y55.538 F200.000
G1 X-2.060 Y55.575 F200.000
G1 X-2.098 Y55.602 F200.000
G1 X-2.218 Y55.609 F200.000
G1 X-2.282 Y55.602 F200.000
G1 X-2.282 Y55.602 F200.000
G1 X-3.049 Y55.312 F200.000
G1 X-3.846 Y54.902 F200.000
G1 X-4.049 Y54.774 F200.000
G1 X-4.049 Y54.774 F200.000
G1 X-4.135 Y54.684 F200.000
G1 X-4.173 Y54.605 F200.000
G0 X-4.173 Y54.575
G0 X-4.128 Y54.470
G0 X-2.865 Y52.414
G1 X-2.846 Y52.383 F200.000
G1 X-2.711 Y52.173 F200.000
G1 X-2.658 Y52.143 F200.000
G1 X-2.571 Y52.143 F200.000
G1 X-2.462 Y52.188 F200.000
G1 X-2.462 Y52.188 F200.000
G1 X-2.139 Y52.387 F200.000
G1 X-1.718 Y52.583 F200.000
G1 X-1.211 Y52.763 F200.000
G1 X-0.669 Y52.876 F200.000
G1 X-0.523 Y52.898 F200.000
G1 X-0.075 Y52.940 F200.000
G1 X0.342 Y52.925 F200.000
G1 X1.030 Y52.816 F200.000
G1 X1.203 Y52.767 F200.000
G1 X1.872 Y52.523 F200.000
G1 X2.184 Y52.361 F200.000
G1 X2.695 Y52.023 F200.000
G1 X3.278 Y51.485 F200.000
G1 X3.526 Y51.184 F200.000
G1 X3.782 Y50.820 F200.000
G1 X4.086 Y50.214 F200.000
G1 X4.211 Y49.876 F200.000
G1 X4.346 Y49.380 F200.000
G1 X4.398 Y49.034 F200.000
G1 X4.436 Y48.444 F200.000
G1 X4.402 Y47.951 F200.000
G1 X4.301 Y47.410 F200.000
G1 X4.098 Y46.793 F200.000
G1 X3.876 Y46.342 F200.000
G1 X3.692 Y46.030 F200.000
G1 X3.421 Y45.677 F200.000
G1 X3.320 Y45.556 F200.000
G1 X3.004 Y45.233 F200.000
G1 X2.583 Y44.891 F200.000
G1 X2.421 Y44.778 F200.000
G1 X2.019 Y44.545 F200.000
G1 X1.722 Y44.410 F200.000
G1 X1.278 Y44.248 F200.000
G1 X0.872 Y44.147 F200.000
G1 X0.432 Y44.086 F200.000
G1 X-0.034 Y44.056 F200.000
G1 X-0.165 Y44.060 F200.000
G1 X-0.620 Y44.105 F200.000
G1 X-1.004 Y44.173 F200.000
G1 X-1.421 Y44.293 F200.000
G1 X-1.786 Y44.436 F200.000
G1 X-1.944 Y44.511 F200.000
G1 X-2.365 Y44.741 F200.000
G1 X-2.759 Y45.026 F200.000
G1 X-3.158 Y45.383 F200.000
G1 X-3.432 Y45.680 F200.000
G1 X-3.688 Y46.030 F200.000
G1 X-3.902 Y46.387 F200.000
G1 X-4.094 Y46.793 F200.000
G1 X-4.207 Y47.109 F200.000
G1 X-4.323 Y47.541 F200.000
G1 X-4.402 Y47.962 F200.000
G1 X-4.436 Y48.323 F200.000
G1 X-4.414 Y48.947 F200.000
G1 X-4.387 Y49.165 F200.000
G1 X-4.293 Y49.613 F200.000
G1 X-4.169 Y50.011 F200.000
G1 X-4.019 Y50.387 F200.000
G1 X-3.703 Y50.947 F200.000
G1 X-3.282 Y51.485 F200.000
G1 X-3.192 Y51.579 F200.000
G1 X-2.816 Y51.921 F200.000
G1 X-2.462 Y52.188 F200.000
G1 X-2.462 Y52.188 F200.000
G1 X-2.462 Y52.188 F200.000
G1 X-2.353 Y52.301 F200.000
G1 X-2.335 Y52.357 F200.000
G0 X-2.331 Y52.383
G0 X-2.376 Y52.489
G0 X-3.722 Y54.662
G1 X-3.741 Y54.692 F200.000
G1 X-3.812 Y54.793 F200.000
G1 X-3.865 Y54.820 F200.000
G1 X-3.955 Y54.820 F200.000
G1 X-4.075 Y54.782 F200.000
G1 X-4.075 Y54.782 F200.000
G1 X-4.327 Y54.624 F200.000
G1 X-4.571 Y54.440 F200.000
G1 X-5.056 Y54.038 F200.000
G1 X-5.267 Y53.838 F200.000
G1 X-5.733 Y53.327 F200.000
G1 X-5.891 Y53.139 F200.000
G1 X-6.256 Y52.635 F200.000
G1 X-6.444 Y52.335 F200.000
G1 X-6.782 Y51.707 F200.000
G1 X-6.857 Y51.545 F200.000
G1 X-7.098 Y50.906 F200.000
G1 X-7.203 Y50.586 F200.000
G1 X-7.338 Y50.038 F200.000
G1 X-7.414 Y49.650 F200.000
G1 X-7.451 Y49.376 F200.000
G1 X-7.492 Y48.846 F200.000
G1 X-7.500 Y48.545 F200.000
G1 X-7.477 Y47.962 F200.000
G1 X-7.417 Y47.421 F200.000
G1 X-7.323 Y46.906 F200.000
G1 X-7.256 Y46.628 F200.000
G1 X-7.083 Y46.056 F200.000
G1 X-6.955 Y45.711 F200.000
G1 X-6.812 Y45.368 F200.000
G1 X-6.560 Y44.865 F200.000
G1 X-6.195 Y44.278 F200.000
G1 X-5.835 Y43.793 F200.000
G1 X-5.665 Y43.590 F200.000
G1 X-5.229 Y43.120 F200.000
G1 X-4.981 Y42.891 F200.000
G1 X-4.515 Y42.508 F200.000
G1 X-4.301 Y42.353 F200.000
G1 X-3.996 Y42.150 F200.000
G1 X-3.782 Y42.023 F200.000
G1 X-3.421 Y41.827 F200.000
G1 X-3.177 Y41.707 F200.000
G1 X-2.579 Y41.455 F200.000
G1 X-2.282 Y41.353 F200.000
G1 X-2.004 Y41.271 F200.000
G1 X-1.647 Y41.184 F200.000
G1 X-1.041 Y41.068 F200.000
G1 X-0.466 Y41.011 F200.000
G1 X-0.120 Y40.996 F200.000
G1 X0.241 Y40.996 F200.000
G1 X0.466 Y41.008 F200.000
G1 X0.786 Y41.038 F200.000
G1 X1.068 Y41.079 F200.000
G1 X1.703 Y41.199 F200.000
G1 X2.113 Y41.305 F200.000
G1 X2.680 Y41.492 F200.000
G1 X3.218 Y41.726 F200.000
G1 X3.444 Y41.838 F200.000
G1 X3.782 Y42.023 F200.000
G1 X4.323 Y42.368 F200.000
G1 X4.568 Y42.549 F200.000
G1 X5.030 Y42.936 F200.000
G1 X5.481 Y43.380 F200.000
G1 X5.865 Y43.823 F200.000
G1 X6.233 Y44.331 F200.000
G1 X6.429 Y44.643 F200.000
G1 X6.733 Y45.195 F200.000
G1 X6.850 Y45.447 F200.000
G1 X7.079 Y46.026 F200.000
G1 X7.165 Y46.301 F200.000
G1 X7.323 Y46.887 F200.000
G1 X7.436 Y47.538 F200.000
G1 X7.492 Y48.229 F200.000
G1 X7.500 Y48.541 F200.000
G1 X7.470 Y49.094 F200.000
G1 X7.425 Y49.523 F200.000
G1 X7.323 Y50.083 F200.000
G1 X7.274 Y50.308 F200.000
G1 X7.086 Y50.929 F200.000
G1 X6.929 Y51.357 F200.000
G1 X6.726 Y51.805 F200.000
G1 X6.564 Y52.120 F200.000
G1 X6.425 Y52.361 F200.000
G1 X6.068 Y52.898 F200.000
G1 X5.857 Y53.180 F200.000
G1 X5.421 Y53.677 F200.000
G1 X4.977 Y54.105 F200.000
G1 X4.523 Y54.477 F200.000
G1 X4.252 Y54.673 F200.000
G1 X3.778 Y54.974 F200.000
G1 X3.398 Y55.180 F200.000
G1 X2.872 Y55.425 F200.000
G1 X2.620 Y55.526 F200.000
G1 X2.282 Y55.643 F200.000
G1 X2.004 Y55.726 F200.000
G1 X1.647 Y55.812 F200.000
G1 X1.041 Y55.929 F200.000
G1 X0.466 Y55.985 F200.000
G1 X0.120 Y56.000 F200.000
G1 X-0.132 Y56.000 F200.000
G1 X-0.827 Y55.947 F200.000
G1 X-1.071 Y55.914 F200.000
G1 X-1.707 Y55.793 F200.000
G1 X-2.117 Y55.688 F200.000
G1 X-2.684 Y55.500 F200.000
G1 X-3.233 Y55.263 F200.000
G1 X-3.801 Y54.959 F200.000
G1 X-4.079 Y54.786 F200.000
G1 X-4.075 Y54.782 F200.000
G0 Z5.000
(Helix to depth: -6.000000)
G0 Z5.000
G0 X-22.017 Y17.898 Z5.000
G0 X-22.017 Y17.898 Z3.000
G1 X-22.017 Y17.898 Z0.000 F100.000
G1 X-22.017 Y17.898 Z0.000 F100.000
G1 X-22.093 Y17.616 Z-0.026 F100.000
G1 X-22.113 Y17.325 Z-0.052 F100.000
G1 X-22.076 Y17.035 Z-0.077 F100.000
G1 X-21.983 Y16.758 Z-0.103 F100.000
G1 X-21.838 Y16.505 Z-0.129 F100.000
G1 X-21.646 Y16.284 Z-0.155 F100.000
G1 X-21.415 Y16.106 Z-0.180 F100.000
G1 X-21.154 Y15.976 Z-0.206 F100.000
G1 X-20.872 Y15.899 Z-0.232 F100.000
G1 X-20.581 Y15.879 Z-0.258 F100.000
G1 X-20.291 Y15.916 Z-0.283 F100.000
G1 X-20.014 Y16.009 Z-0.309 F100.000
G1 X-19.760 Y16.154 Z-0.335 F100.000
G1 X-19.540 Y16.346 Z-0.361 F100.000
G1 X-19.362 Y16.577 Z-0.387 F100.000
G1 X-19.231 Y16.839 Z-0.412 F100.000
G1 X-19.155 Y17.121 Z-0.438 F100.000
G1 X-19.135 Y17.412 Z-0.464 F100.000
G1 X-19.172 Y17.702 Z-0.490 F100.000
G1 X-19.265 Y17.979 Z-0.515 F100.000
G1 X-19.410 Y18.232 Z-0.541 F100.000
G1 X-19.602 Y18.452 Z-0.567 F100.000
G1 X-19.833 Y18.631 Z-0.593 F100.000
G1 X-20.094 Y18.761 Z-0.618 F100.000
G1 X-20.376 Y18.838 Z-0.644 F100.000
G1 X-20.668 Y18.858 Z-0.670 F100.000
G1 X-20.957 Y18.821 Z-0.696 F100.000
G1 X-21.234 Y18.728 Z-0.721 F100.000
G1 X-21.488 Y18.583 Z-0.747 F100.000
G1 X-21.708 Y18.391 Z-0.773 F100.000
G1 X-21.887 Y18.160 Z-0.799 F100.000
G1 X-22.017 Y17.898 Z-0.825 F100.000
G1 X-22.093 Y17.616 Z-0.850 F100.000
G1 X-22.113 Y17.325 Z-0.876 F100.000
G1 X-22.076 Y17.035 Z-0.902 F100.000
G1 X-21.983 Y16.758 Z-0.928 F100.000
G1 X-21.838 Y16.505 Z-0.953 F100.000
G1 X-21.646 Y16.284 Z-0.979 F100.000
G1 X-21.415 Y16.106 Z-1.005 F100.000
G1 X-21.154 Y15.976 Z-1.031 F100.000
G1 X-20.872 Y15.899 Z-1.056 F100.000
G1 X-20.581 Y15.879 Z-1.082 F100.000
G1 X-20.291 Y15.916 Z-1.108 F100.000
G1 X-20.014 Y16.009 Z-1.134 F100.000
G1 X-19.760 Y16.154 Z-1.160 F100.000
G1 X-19.540 Y16.346 Z-1.185 F100.000
G1 X-19.362 Y16.577 Z-1.211 F100.000
G1 X-19.231 Y16.839 Z-1.237 F100.000
G1 X-19.155 Y17.121 Z-1.263 F100.000
G1 X-19.135 Y17.412 Z-1.288 F100.000
G1 X-19.172 Y17.702 Z-1.314 F100.000
G1 X-19.265 Y17.979 Z-1.340 F100.000
G1 X-19.410 Y18.232 Z-1.366 F100.000
G1 X-19.602 Y18.452 Z-1.391 F100.000
G1 X-19.833 Y18.631 Z-1.417 F100.000
G1 X-20.094 Y18.761 Z-1.443 F100.000
G1 X-20.376 Y18.838 Z-1.469 F100.000
G1 X-20.668 Y18.858 Z-1.495 F100.000
G1 X-20.957 Y18.821 Z-1.520 F100.000
G1 X-21.234 Y18.728 Z-1.546 F100.000
G1 X-21.488 Y18.583 Z-1.572 F100.000
G1 X-21.708 Y18.391 Z-1.598 F100.000
G1 X-21.887 Y18.160 Z-1.623 F100.000
G1 X-22.017 Y17.898 Z-1.649 F100.000
G1 X-22.093 Y17.616 Z-1.675 F100.000
G1 X-22.113 Y17.325 Z-1.701 F100.000
G1 X-22.076 Y17.035 Z-1.726 F100.000
G1 X-21.983 Y16.758 Z-1.752 F100.000
G1 X-21.838 Y16.505 Z-1.778 F100.000
G1 X-21.646 Y16.284 Z-1.804 F100.000
G1 X-21.415 Y16.106 Z-1.829 F100.000
G1 X-21.154 Y15.976 Z-1.855 F100.000
G1 X-20.872 Y15.899 Z-1.881 F100.000
G1 X-20.581 Y15.879 Z-1.907 F100.000
G1 X-20.291 Y15.916 Z-1.933 F100.000
G1 X-20.014 Y16.009 Z-1.958 F100.000
G1 X-19.760 Y16.154 Z-1.984 F100.000
G1 X-19.540 Y16.346 Z-2.010 F100.000
G1 X-19.362 Y16.577 Z-2.036 F100.000
G1 X-19.231 Y16.839 Z-2.061 F100.000
G1 X-19.155 Y17.121 Z-2.087 F100.000
G1 X-19.135 Y17.412 Z-2.113 F100.000
G1 X-19.172 Y17.702 Z-2.139 F100.000
G1 X-19.265 Y17.979 Z-2.164 F100.000
G1 X-19.410 Y18.232 Z-2.190 F100.000
G1 X-19.602 Y18.452 Z-2.216 F100.000
G1 X-19.833 Y18.631 Z-2.242 F100.000
G1 X-20.094 Y18.761 Z-2.268 F100.000
G1 X-20.376 Y18.838 Z-2.293 F100.000
G1 X-20.668 Y18.858 Z-2.319 F100.000
G1 X-20.957 Y18.821 Z-2.345 F100.000
G1 X-21.234 Y18.728 Z-2.371 F100.000
G1 X-21.488 Y18.583 Z-2.396 F100.000
G1 X-21.708 Y18.391 Z-2.422 F100.000
G1 X-21.887 Y18.160 Z-2.448 F100.000
G1 X-22.017 Y17.898 Z-2.474 F100.000
G1 X-22.093 Y17.616 Z-2.499 F100.000
G1 X-22.113 Y17.325 Z-2.525 F100.000
G1 X-22.076 Y17.035 Z-2.551 F100.000
G1 X-21.983 Y16.758 Z-2.577 F100.000
G1 X-21.838 Y16.505 Z-2.603 F100.000
G1 X-21.646 Y16.284 Z-2.628 F100.000
G1 X-21.415 Y16.106 Z-2.654 F100.000
G1 X-21.154 Y15.976 Z-2.680 F100.000
G1 X-20.872 Y15.899 Z-2.706 F100.000
G1 X-20.581 Y15.879 Z-2.731 F100.000
G1 X-20.291 Y15.916 Z-2.757 F100.000
G1 X-20.014 Y16.009 Z-2.783 F100.000
G1 X-19.760 Y16.154 Z-2.809 F100.000
G1 X-19.540 Y16.346 Z-2.834 F100.000
G1 X-19.362 Y16.577 Z-2.860 F100.000
G1 X-19.231 Y16.839 Z-2.886 F100.000
G1 X-19.155 Y17.121 Z-2.912 F100.000
G1 X-19.135 Y17.412 Z-2.937 F100.000
G1 X-19.172 Y17.702 Z-2.963 F100.000
G1 X-19.265 Y17.979 Z-2.989 F100.000
G1 X-19.410 Y18.232 Z-3.015 F100.000
G1 X-19.602 Y18.452 Z-3.041 F100.000
G1 X-19.833 Y18.631 Z-3.066 F100.000
G1 X-20.094 Y18.761 Z-3.092 F100.000
G1 X-20.376 Y18.838 Z-3.118 F100.000
G1 X-20.668 Y18.858 Z-3.144 F100.000
G1 X-20.957 Y18.821 Z-3.169 F100.000
G1 X-21.234 Y18.728 Z-3.195 F100.000
G1 X-21.488 Y18.583 Z-3.221 F100.000
G1 X-21.708 Y18.391 Z-3.247 F100.000
G1 X-21.887 Y18.160 Z-3.272 F100.000
G1 X-22.017 Y17.898 Z-3.298 F100.000
G1 X-22.093 Y17.616 Z-3.324 F100.000
G1 X-22.113 Y17.325 Z-3.350 F100.000
G1 X-22.076 Y17.035 Z-3.376 F100.000
G1 X-21.983 Y16.758 Z-3.401 F100.000
G1 X-21.838 Y16.505 Z-3.427 F100.000
G1 X-21.646 Y16.284 Z-3.453 F100.000
G1 X-21.415 Y16.106 Z-3.479 F100.000
G1 X-21.154 Y15.976 Z-3.504 F100.000
G1 X-20.872 Y15.899 Z-3.530 F100.000
G1 X-20.581 Y15.879 Z-3.556 F100.000
G1 X-20.291 Y15.916 Z-3.582 F100.000
G1 X-20.014 Y16.009 Z-3.607 F100.000
G1 X-19.760 Y16.154 Z-3.633 F100.000
G1 X-19.540 Y16.346 Z-3.659 F100.000
G1 X-19.362 Y16.577 Z-3.685 F100.000
G1 X-19.231 Y16.839 Z-3.711 F100.000
G1 X-19.155 Y17.121 Z-3.736 F100.000
G1 X-19.135 Y17.412 Z-3.762 F100.000
G1 X-19.172 Y17.702 Z-3.788 F100.000
G1 X-19.265 Y17.979 Z-3.814 F100.000
G1 X-19.410 Y18.232 Z-3.839 F100.000
G1 X-19.602 Y18.452 Z-3.865 F100.000
G1 X-19.833 Y18.631 Z-3.891 F100.000
G1 X-20.094 Y18.761 Z-3.917 F100.000
G1 X-20.376 Y18.838 Z-3.942 F100.000
G1 X-20.668 Y18.858 Z-3.968 F100.000
G1 X-20.957 Y18.821 Z-3.994 F100.000
G1 X-21.234 Y18.728 Z-4.020 F100.000
G1 X-21.488 Y18.583 Z-4.046 F100.000
G1 X-21.708 Y18.391 Z-4.071 F100.000
G1 X-21.887 Y18.160 Z-4.097 F100.000
G1 X-22.017 Y17.898 Z-4.123 F100.000
G1 X-22.093 Y17.616 Z-4.149 F100.000
G1 X-22.113 Y17.325 Z-4.174 F100.000
G1 X-22.076 Y17.035 Z-4.200 F100.000
G1 X-21.983 Y16.758 Z-4.226 F100.000
G1 X-21.838 Y16.505 Z-4.252 F100.000
G1 X-21.646 Y16.284 Z-4.277 F100.000
G1 X-21.415 Y16.106 Z-4.303 F100.000
G1 X-21.154 Y15.976 Z-4.329 F100.000
G1 X-20.872 Y15.899 Z-4.355 F100.000
G1 X-20.581 Y15.879 Z-4.380 F100.000
G1 X-20.291 Y15.916 Z-4.406 F100.000
G1 X-20.014 Y16.009 Z-4.432 F100.000
G1 X-19.760 Y16.154 Z-4.458 F100.000
G1 X-19.540 Y16.346 Z-4.484 F100.000
G1 X-19.362 Y16.577 Z-4.509 F100.000
G1 X-19.231 Y16.839 Z-4.535 F100.000
G1 X-19.155 Y17.121 Z-4.561 F100.000
G1 X-19.135 Y17.412 Z-4.587 F100.000
G1 X-19.172 Y17.702 Z-4.612 F100.000
G1 X-19.265 Y17.979 Z-4.638 F100.000
G1 X-19.410 Y18.232 Z-4.664 F100.000
G1 X-19.602 Y18.452 Z-4.690 F100.000
G1 X-19.833 Y18.631 Z-4.715 F100.000
G1 X-20.094 Y18.761 Z-4.741 F100.000
G1 X-20.376 Y18.838 Z-4.767 F100.000
G1 X-20.668 Y18.858 Z-4.793 F100.000
G1 X-20.957 Y18.821 Z-4.819 F100.000
G1 X-21.234 Y18.728 Z-4.844 F100.000
G1 X-21.488 Y18.583 Z-4.870 F100.000
G1 X-21.708 Y18.391 Z-4.896 F100.000
G1 X-21.887 Y18.160 Z-4.922 F100.000
G1 X-22.017 Y17.898 Z-4.947 F100.000
G1 X-22.093 Y17.616 Z-4.973 F100.000
G1 X-22.113 Y17.325 Z-4.999 F100.000
G1 X-22.076 Y17.035 Z-5.025 F100.000
G1 X-21.983 Y16.758 Z-5.050 F100.000
G1 X-21.838 Y16.505 Z-5.076 F100.000
G1 X-21.646 Y16.284 Z-5.102 F100.000
G1 X-21.415 Y16.106 Z-5.128 F100.000
G1 X-21.154 Y15.976 Z-5.154 F100.000
G1 X-20.872 Y15.899 Z-5.179 F100.000
G1 X-20.581 Y15.879 Z-5.205 F100.000
G1 X-20.291 Y15.916 Z-5.231 F100.000
G1 X-20.014 Y16.009 Z-5.257 F100.000
G1 X-19.760 Y16.154 Z-5.282 F100.000
G1 X-19.540 Y16.346 Z-5.308 F100.000
G1 X-19.362 Y16.577 Z-5.334 F100.000
G1 X-19.231 Y16.839 Z-5.360 F100.000
G1 X-19.155 Y17.121 Z-5.385 F100.000
G1 X-19.135 Y17.412 Z-5.411 F100.000
G1 X-19.172 Y17.702 Z-5.437 F100.000
G1 X-19.265 Y17.979 Z-5.463 F100.000
G1 X-19.410 Y18.232 Z-5.488 F100.000
G1 X-19.602 Y18.452 Z-5.514 F100.000
G1 X-19.833 Y18.631 Z-5.540 F100.000
G1 X-20.094 Y18.761 Z-5.566 F100.000
G1 X-20.376 Y18.838 Z-5.592 F100.000
G1 X-20.668 Y18.858 Z-5.617 F100.000
G1 X-20.957 Y18.821 Z-5.643 F100.000
G1 X-21.234 Y18.728 Z-5.669 F100.000
G1 X-21.488 Y18.583 Z-5.695 F100.000
G1 X-21.708 Y18.391 Z-5.720 F100.000
G1 X-21.887 Y18.160 Z-5.746 F100.000
G1 X-22.017 Y17.898 Z-5.772 F100.000
G1 X-22.093 Y17.616 Z-5.798 F100.000
G1 X-22.113 Y17.325 Z-5.823 F100.000
G1 X-22.076 Y17.035 Z-5.849 F100.000
G1 X-21.983 Y16.758 Z-5.875 F100.000
G1 X-21.838 Y16.505 Z-5.901 F100.000
G1 X-21.646 Y16.284 Z-5.927 F100.000
G1 X-21.415 Y16.106 Z-5.952 F100.000
G1 X-21.154 Y15.976 Z-5.978 F100.000
G1 X-20.872 Y15.899 Z-6.000 F200.000
G1 X-20.581 Y15.879 Z-6.000 F200.000
G1 X-20.291 Y15.916 Z-6.000 F200.000
G1 X-20.014 Y16.009 Z-6.000 F200.000
G1 X-19.760 Y16.154 Z-6.000 F200.000
G1 X-19.540 Y16.346 Z-6.000 F200.000
G1 X-19.362 Y16.577 Z-6.000 F200.000
G1 X-19.231 Y16.839 Z-6.000 F200.000
G1 X-19.155 Y17.121 Z-6.000 F200.000
G1 X-19.135 Y17.412 Z-6.000 F200.000
G1 X-19.172 Y17.702 Z-6.000 F200.000
G1 X-19.265 Y17.979 Z-6.000 F200.000
G1 X-19.410 Y18.232 Z-6.000 F200.000
G1 X-19.602 Y18.452 Z-6.000 F200.000
G1 X-19.833 Y18.631 Z-6.000 F200.000
G1 X-20.094 Y18.761 Z-6.000 F200.000
G1 X-20.376 Y18.838 Z-6.000 F200.000
G1 X-20.668 Y18.858 Z-6.000 F200.000
G1 X-20.957 Y18.821 Z-6.000 F200.000
G1 X-21.234 Y18.728 Z-6.000 F200.000
G1 X-21.488 Y18.583 Z-6.000 F200.000
G1 X-21.708 Y18.391 Z-6.000 F200.000
G1 X-21.887 Y18.160 Z-6.000 F200.000
G1 X-22.017 Y17.898 Z-6.000 F200.000
G1 X-22.093 Y17.616 Z-6.000 F200.000
G1 X-22.113 Y17.325 Z-6.000 F200.000
G1 X-22.076 Y17.035 Z-6.000 F200.000
G1 X-21.983 Y16.758 Z-6.000 F200.000
G1 X-21.838 Y16.505 Z-6.000 F200.000
G1 X-21.646 Y16.284 Z-6.000 F200.000
G1 X-21.415 Y16.106 Z-6.000 F200.000
G1 X-21.154 Y15.976 Z-6.000 F200.000
(Adaptive - depth: -6.000000)
G1 X-20.624 Y15.868 F200.000
G1 X-20.579 Y15.823 F200.000
G1 X-20.462 Y15.771 F200.000
G1 X-20.282 Y15.737 F200.000
G1 X-20.102 Y15.737 F200.000
G1 X-20.041 Y15.744 F200.000
G1 X-19.989 Y15.771 F200.000
G1 X-19.989 Y15.771 F200.000
G1 X-19.921 Y15.906 F200.000
G1 X-19.917 Y15.936 F200.000
G1 X-19.910 Y15.962 F200.000
G0 X-19.898 Y15.989
G0 X-19.590 Y16.387
G1 X-19.568 Y16.414 F200.000
G1 X-19.470 Y16.511 F200.000
G1 X-19.263 Y16.643 F200.000
G1 X-19.263 Y16.643 F200.000
G1 X-18.932 Y17.060 F200.000
G1 X-18.853 Y17.214 F200.000
G1 X-18.820 Y17.383 F200.000
G1 X-18.808 Y17.553 F200.000
G1 X-18.842 Y17.835 F200.000
G1 X-18.970 Y18.180 F200.000
G1 X-19.143 Y18.466 F200.000
G1 X-19.267 Y18.617 F200.000
G1 X-19.398 Y18.744 F200.000
G1 X-19.575 Y18.880 F200.000
G1 X-19.797 Y19.011 F200.000
G1 X-20.034 Y19.117 F200.000
G1 X-20.274 Y19.173 F200.000
G1 X-20.519 Y19.203 F200.000
G1 X-20.914 Y19.173 F200.000
G1 X-21.026 Y19.143 F200.000
G1 X-21.079 Y19.117 F200.000
G1 X-21.128 Y19.079 F200.000
G1 X-21.680 Y18.451 F200.000
G1 X-21.680 Y18.451 F200.000
G1 X-21.741 Y18.338 F200.000
G1 X-21.752 Y18.278 F200.000
G1 X-21.752 Y18.252 F200.000
G0 X-21.741 Y18.226
G0 X-21.654 Y18.162
G0 X-19.256 Y17.056
G1 X-19.218 Y17.041 F200.000
G1 X-19.086 Y16.996 F200.000
G1 X-18.996 Y17.008 F200.000
G1 X-18.868 Y17.094 F200.000
G1 X-18.868 Y17.094 F200.000
G1 X-18.639 Y17.372 F200.000
G1 X-18.583 Y17.477 F200.000
G1 X-18.564 Y17.534 F200.000
G1 X-18.545 Y17.816 F200.000
G1 X-18.586 Y18.098 F200.000
G1 X-18.722 Y18.444 F200.000
G1 X-18.910 Y18.741 F200.000
G1 X-19.041 Y18.895 F200.000
G1 X-19.177 Y19.026 F200.000
G1 X-19.357 Y19.169 F200.000
G1 X-19.605 Y19.320 F200.000
G1 X-19.850 Y19.432 F200.000
G1 X-20.158 Y19.519 F200.000
G1 X-20.553 Y19.553 F200.000
G1 X-20.665 Y19.538 F200.000
G1 X-20.718 Y19.515 F200.000
G1 X-21.094 Y19.117 F200.000
G1 X-21.094 Y19.117 F200.000
G1 X-21.158 Y19.008 F200.000
G1 X-21.169 Y18.947 F200.000
G1 X-21.169 Y18.917 F200.000
G0 X-21.162 Y18.895
G0 X-21.083 Y18.816
G0 X-18.962 Y17.406
G1 X-18.929 Y17.383 F200.000
G1 X-18.838 Y17.331 F200.000
G1 X-18.778 Y17.320 F200.000
G1 X-18.688 Y17.335 F200.000
G1 X-18.583 Y17.402 F200.000
G1 X-18.583 Y17.402 F200.000
G1 X-18.425 Y17.579 F200.000
G1 X-18.335 Y17.729 F200.000
G1 X-18.312 Y17.786 F200.000
G1 X-18.289 Y17.955 F200.000
G1 X-18.308 Y18.237 F200.000
G1 X-18.331 Y18.350 F200.000
G1 X-18.466 Y18.695 F200.000
G1 X-18.658 Y19.004 F200.000
G1 X-18.789 Y19.162 F200.000
G1 X-18.921 Y19.297 F200.000
G1 X-19.117 Y19.459 F200.000
G1 X-19.361 Y19.620 F200.000
G1 X-19.628 Y19.744 F200.000
G1 X-19.910 Y19.842 F200.000
G1 X-20.248 Y19.883 F200.000
G1 X-20.305 Y19.883 F200.000
G1 X-20.414 Y19.846 F200.000
G1 X-20.703 Y19.538 F200.000
G1 X-20.703 Y19.538 F200.000
G1 X-20.767 Y19.429 F200.000
G1 X-20.778 Y19.338 F200.000
G0 X-20.771 Y19.312
G0 X-20.695 Y19.229
G0 X-18.707 Y17.677
G1 X-18.673 Y17.654 F200.000
G1 X-18.586 Y17.594 F200.000
G1 X-18.526 Y17.579 F200.000
G1 X-18.440 Y17.594 F200.000
G1 X-18.335 Y17.662 F200.000
G1 X-18.335 Y17.662 F200.000
G1 X-18.177 Y17.842 F200.000
G1 X-18.109 Y17.940 F200.000
G1 X-18.064 Y18.049 F200.000
G1 X-18.045 Y18.331 F200.000
G1 X-18.086 Y18.613 F200.000
G1 X-18.218 Y18.959 F200.000
G1 X-18.406 Y19.274 F200.000
G1 X-18.541 Y19.444 F200.000
G1 X-18.684 Y19.590 F200.000
G1 X-18.872 Y19.752 F200.000
G1 X-19.109 Y19.914 F200.000
G1 X-19.368 Y20.053 F200.000
G1 X-19.684 Y20.162 F200.000
G1 X-19.966 Y20.199 F200.000
G1 X-20.023 Y20.192 F200.000
G1 X-20.079 Y20.173 F200.000
G1 X-20.372 Y19.887 F200.000
G1 X-20.372 Y19.887 F200.000
G1 X-20.436 Y19.778 F200.000
G1 X-20.451 Y19.688 F200.000
G0 X-20.447 Y19.662
G0 X-20.376 Y19.575
G0 X-18.451 Y17.944
G1 X-18.417 Y17.921 F200.000
G1 X-18.335 Y17.857 F200.000
G1 X-18.274 Y17.842 F200.000
G1 X-18.162 Y17.868 F200.000
G1 X-18.083 Y17.917 F200.000
G1 X-18.083 Y17.917 F200.000
G1 X-17.921 Y18.094 F200.000
G1 X-17.831 Y18.244 F200.000
G1 X-17.812 Y18.301 F200.000
G1 X-17.789 Y18.583 F200.000
G1 X-17.831 Y18.865 F200.000
G1 X-17.955 Y19.214 F200.000
G1 X-18.139 Y19.534 F200.000
G1 X-18.278 Y19.714 F200.000
G1 X-18.421 Y19.872 F200.000
G1 X-18.613 Y20.041 F200.000
G1 X-18.846 Y20.211 F200.000
G1 X-19.117 Y20.365 F200.000
G1 X-19.440 Y20.477 F200.000
G1 X-19.665 Y20.508 F200.000
G1 X-19.722 Y20.496 F200.000
G1 X-19.778 Y20.474 F200.000
G1 X-20.075 Y20.184 F200.000
G1 X-20.075 Y20.184 F200.000
G1 X-20.139 Y20.075 F200.000
G1 X-20.154 Y19.985 F200.000
G0 X-20.150 Y19.959
G0 X-20.079 Y19.868
G0 X-18.188 Y18.199
G1 X-18.162 Y18.173 F200.000
G1 X-18.075 Y18.109 F200.000
G1 X-18.019 Y18.094 F200.000
G1 X-17.906 Y18.120 F200.000
G1 X-17.827 Y18.169 F200.000
G1 X-17.827 Y18.169 F200.000
G1 X-17.665 Y18.346 F200.000
G1 X-17.575 Y18.496 F200.000
G1 X-17.538 Y18.665 F200.000
G1 X-17.538 Y18.947 F200.000
G1 X-17.564 Y19.117 F200.000
G1 X-17.684 Y19.466 F200.000
G1 X-17.861 Y19.789 F200.000
G1 X-17.996 Y19.981 F200.000
G1 X-18.139 Y20.147 F200.000
G1 X-18.331 Y20.327 F200.000
G1 X-18.560 Y20.500 F200.000
G1 X-18.812 Y20.650 F200.000
G1 X-19.071 Y20.756 F200.000
G1 X-19.297 Y20.801 F200.000
G1 X-19.353 Y20.805 F200.000
G1 X-19.466 Y20.774 F200.000
G1 X-19.726 Y20.526 F200.000
G1 X-19.726 Y20.526 F200.000
G1 X-19.793 Y20.421 F200.000
G1 X-19.812 Y20.335 F200.000
G0 X-19.805 Y20.308
G0 X-19.737 Y20.214
G0 X-17.925 Y18.459
G1 X-17.898 Y18.432 F200.000
G1 X-17.816 Y18.365 F200.000
G1 X-17.759 Y18.346 F200.000
G1 X-17.647 Y18.372 F200.000
G1 X-17.568 Y18.421 F200.000
G1 X-17.568 Y18.421 F200.000
G1 X-17.406 Y18.598 F200.000
G1 X-17.338 Y18.695 F200.000
G1 X-17.293 Y18.805 F200.000
G1 X-17.263 Y19.030 F200.000
G1 X-17.274 Y19.256 F200.000
G1 X-17.297 Y19.368 F200.000
G1 X-17.402 Y19.722 F200.000
G1 X-17.575 Y20.049 F200.000
G1 X-17.703 Y20.233 F200.000
G1 X-17.838 Y20.398 F200.000
G1 X-18.026 Y20.586 F200.000
G1 X-18.271 Y20.782 F200.000
G1 X-18.526 Y20.936 F200.000
G1 X-18.759 Y21.034 F200.000
G1 X-19.041 Y21.090 F200.000
G1 X-19.098 Y21.083 F200.000
G1 X-19.154 Y21.060 F200.000
G1 X-19.380 Y20.853 F200.000
G1 X-19.380 Y20.853 F200.000
G1 X-19.451 Y20.748 F200.000
G1 X-19.474 Y20.662 F200.000
G0 X-19.470 Y20.632
G0 X-19.406 Y20.538
G0 X-17.665 Y18.718
G1 X-17.639 Y18.692 F200.000
G1 X-17.560 Y18.620 F200.000
G1 X-17.504 Y18.602 F200.000
G1 X-17.417 Y18.609 F200.000
G1 X-17.308 Y18.669 F200.000
G1 X-17.308 Y18.669 F200.000
G1 X-17.143 Y18.846 F200.000
G1 X-17.053 Y18.996 F200.000
G1 X-17.008 Y19.222 F200.000
G1 X-17.011 Y19.560 F200.000
G1 X-17.019 Y19.617 F200.000
G1 X-17.124 Y19.970 F200.000
G1 X-17.271 Y20.267 F200.000
G1 X-17.383 Y20.451 F200.000
