(Exported by FreeCAD)
(Post Processor: grbl_post)
(Output Time:2023-08-23 12:08:20.788343)
(Begin preamble)
G17 G90
G21
(Block-name: G54)
(Block-expand: 0)
(Block-enable: 1)
(Begin operation: G54)
(Path: G54)
G54
G0 Z5.000
(Finish operation: G54)
(Block-name: 3mm Endmill001)
(Block-expand: 0)
(Block-enable: 1)
(Begin operation: 3mm Endmill001)
(Path: 3mm Endmill001)
(3mm Endmill001)
(Begin toolchange)
( M6 T2 )
(Finish operation: 3mm Endmill001)
(Block-name: Profile)
(Block-expand: 0)
(Block-enable: 1)
(Begin operation: Profile)
(Path: Profile)
(Profile)
(Compensated Tool Path. Diameter: 3.0)
G0 Z5.000
G0 X-36.771 Y-19.019
G0 Z3.000
G1 X-36.771 Y-19.019 Z-1.500 F100.000
G2 X-40.643 Y-31.522 Z-1.500 I-5.231 J-5.231 K0.000 F200.000
G2 X-43.362 Y-16.978 Z-1.500 I-1.359 J7.272 K0.000 F200.000
G2 X-36.771 Y-19.019 Z-1.500 I1.359 J-7.272 K0.000 F200.000
G1 X-36.771 Y-19.019 Z-3.000 F100.000
G2 X-40.643 Y-31.522 Z-3.000 I-5.231 J-5.231 K0.000 F200.000
G2 X-43.362 Y-16.978 Z-3.000 I-1.359 J7.272 K0.000 F200.000
G2 X-36.771 Y-19.019 Z-3.000 I1.359 J-7.272 K0.000 F200.000
G1 X-36.771 Y-19.019 Z-4.500 F100.000
G2 X-40.643 Y-31.522 Z-4.500 I-5.231 J-5.231 K0.000 F200.000
G2 X-43.362 Y-16.978 Z-4.500 I-1.359 J7.272 K0.000 F200.000
G2 X-36.771 Y-19.019 Z-4.500 I1.359 J-7.272 K0.000 F200.000
G1 X-36.771 Y-19.019 Z-6.000 F100.000
G2 X-40.643 Y-31.522 Z-6.000 I-5.231 J-5.231 K0.000 F200.000
G2 X-43.362 Y-16.978 Z-6.000 I-1.359 J7.272 K0.000 F200.000
G2 X-36.771 Y-19.019 Z-6.000 I1.359 J-7.272 K0.000 F200.000
G0 Z5.000
G0 Z5.000
G0 X-36.771 Y-19.019
G0 X-25.225 Y-13.047
G0 X-25.225 Y-13.047 Z3.000
G1 X-25.225 Y-13.047 Z-1.500 F100.000
G2 X-2.168 Y28.317 Z-1.500 I25.225 J13.047 K0.000 F200.000
G2 X2.168 Y-28.317 Z-1.500 I2.168 J-28.317 K0.000 F200.000
G2 X-25.225 Y-13.047 Z-1.500 I-2.168 J28.317 K0.000 F200.000
G1 X-25.225 Y-13.047 Z-3.000 F100.000
G2 X-2.168 Y28.317 Z-3.000 I25.225 J13.047 K0.000 F200.000
G2 X2.168 Y-28.317 Z-3.000 I2.168 J-28.317 K0.000 F200.000
G2 X-25.225 Y-13.047 Z-3.000 I-2.168 J28.317 K0.000 F200.000
G1 X-25.225 Y-13.047 Z-4.500 F100.000
G2 X-2.168 Y28.317 Z-4.500 I25.225 J13.047 K0.000 F200.000
G2 X2.168 Y-28.317 Z-4.500 I2.168 J-28.317 K0.000 F200.000
G2 X-25.225 Y-13.047 Z-4.500 I-2.168 J28.317 K0.000 F200.000
G1 X-25.225 Y-13.047 Z-6.000 F100.000
G2 X-2.168 Y28.317 Z-6.000 I25.225 J13.047 K0.000 F200.000
G2 X2.168 Y-28.317 Z-6.000 I2.168 J-28.317 K0.000 F200.000
G2 X-25.225 Y-13.047 Z-6.000 I-2.168 J28.317 K0.000 F200.000
G0 Z5.000
G0 Z5.000
G0 X-25.225 Y-13.047
G0 X-2.806 Y41.654
G0 X-2.806 Y41.654 Z3.000
G1 X-2.806 Y41.654 Z-1.500 F100.000
G2 X-1.359 Y55.772 Z-1.500 I2.806 J6.846 K0.000 F200.000
G2 X7.272 Y49.859 Z-1.500 I1.359 J-7.272 K0.000 F200.000
G2 X1.359 Y41.228 Z-1.500 I-7.272 J-1.359 K0.000 F200.000
G2 X-2.806 Y41.654 Z-1.500 I-1.359 J7.272 K0.000 F200.000
G1 X-2.806 Y41.654 Z-3.000 F100.000
G2 X-1.359 Y55.772 Z-3.000 I2.806 J6.846 K0.000 F200.000
G2 X7.272 Y49.859 Z-3.000 I1.359 J-7.272 K0.000 F200.000
G2 X1.359 Y41.228 Z-3.000 I-7.272 J-1.359 K0.000 F200.000
G2 X-2.806 Y41.654 Z-3.000 I-1.359 J7.272 K0.000 F200.000
G1 X-2.806 Y41.654 Z-4.500 F100.000
G2 X-1.359 Y55.772 Z-4.500 I2.806 J6.846 K0.000 F200.000
G2 X7.272 Y49.859 Z-4.500 I1.359 J-7.272 K0.000 F200.000
G2 X1.359 Y41.228 Z-4.500 I-7.272 J-1.359 K0.000 F200.000
G2 X-2.806 Y41.654 Z-4.500 I-1.359 J7.272 K0.000 F200.000
G1 X-2.806 Y41.654 Z-6.000 F100.000
G2 X-1.359 Y55.772 Z-6.000 I2.806 J6.846 K0.000 F200.000
G2 X7.272 Y49.859 Z-6.000 I1.359 J-7.272 K0.000 F200.000
G2 X1.359 Y41.228 Z-6.000 I-7.272 J-1.359 K0.000 F200.000
G2 X-2.806 Y41.654 Z-6.000 I-1.359 J7.272 K0.000 F200.000
G0 Z5.000
G0 Z5.000
G0 X-2.806 Y41.654
G0 X37.843 Y-18.132
G0 X37.843 Y-18.132 Z3.000
G1 X37.843 Y-18.132 Z-1.500 F100.000
G2 X40.643 Y-16.978 Z-1.500 I4.160 J-6.118 K0.000 F200.000
G2 X49.275 Y-22.891 Z-1.500 I1.359 J-7.272 K0.000 F200.000
G2 X43.362 Y-31.522 Z-1.500 I-7.272 J-1.359 K0.000 F200.000
G2 X37.843 Y-18.132 Z-1.500 I-1.359 J7.272 K0.000 F200.000
G1 X37.843 Y-18.132 Z-3.000 F100.000
G2 X40.643 Y-16.978 Z-3.000 I4.160 J-6.118 K0.000 F200.000
G2 X49.275 Y-22.891 Z-3.000 I1.359 J-7.272 K0.000 F200.000
G2 X43.362 Y-31.522 Z-3.000 I-7.272 J-1.359 K0.000 F200.000
G2 X37.843 Y-18.132 Z-3.000 I-1.359 J7.272 K0.000 F200.000
G1 X37.843 Y-18.132 Z-4.500 F100.000
G2 X40.643 Y-16.978 Z-4.500 I4.160 J-6.118 K0.000 F200.000
G2 X49.275 Y-22.891 Z-4.500 I1.359 J-7.272 K0.000 F200.000
G2 X43.362 Y-31.522 Z-4.500 I-7.272 J-1.359 K0.000 F200.000
G2 X37.843 Y-18.132 Z-4.500 I-1.359 J7.272 K0.000 F200.000
G1 X37.843 Y-18.132 Z-6.000 F100.000
G2 X40.643 Y-16.978 Z-6.000 I4.160 J-6.118 K0.000 F200.000
G2 X49.275 Y-22.891 Z-6.000 I1.359 J-7.272 K0.000 F200.000
G2 X43.362 Y-31.522 Z-6.000 I-7.272 J-1.359 K0.000 F200.000
G2 X37.843 Y-18.132 Z-6.000 I-1.359 J7.272 K0.000 F200.000
G0 Z5.000
G0 Z5.000
(Finish operation: Profile)
(Block-name: G54)
(Block-expand: 0)
(Block-enable: 1)
(Begin operation: G54)
(Path: G54)
G54
G0 Z5.000
(Finish operation: G54)
(Block-name: 3mm Endmill001)
(Block-expand: 0)
(Block-enable: 1)
(Begin operation: 3mm Endmill001)
(Path: 3mm Endmill001)
(3mm Endmill001)
(Begin toolchange)
( M6 T2 )
(Finish operation: 3mm Endmill001)
(Block-name: Profile001)
(Block-expand: 0)
(Block-enable: 1)
(Begin operation: Profile001)
(Path: Profile001)
(Profile001)
(Compensated Tool Path. Diameter: 3.0)
G0 Z5.000
G0 X-36.700 Y-18.948
G0 Z3.000
G1 X-36.700 Y-18.948 Z-3.000 F100.000
G2 X-40.624 Y-31.621 Z-3.000 I-5.302 J-5.302 K0.000 F200.000
G2 X-43.380 Y-16.879 Z-3.000 I-1.378 J7.371 K0.000 F200.000
G2 X-36.700 Y-18.948 Z-3.000 I1.378 J-7.371 K0.000 F200.000
G1 X-36.700 Y-18.948 Z-6.000 F100.000
G2 X-40.624 Y-31.621 Z-6.000 I-5.302 J-5.302 K0.000 F200.000
G2 X-43.380 Y-16.879 Z-6.000 I-1.378 J7.371 K0.000 F200.000
G2 X-36.700 Y-18.948 Z-6.000 I1.378 J-7.371 K0.000 F200.000
G0 Z5.000
G0 Z5.000
G0 X-36.700 Y-18.948
G0 X-25.324 Y-13.074
G0 X-25.324 Y-13.074 Z3.000
G1 X-25.324 Y-13.074 Z-3.000 F100.000
G2 X-2.176 Y28.416 Z-3.000 I25.324 J13.074 K0.000 F200.000
G2 X2.176 Y-28.416 Z-3.000 I2.176 J-28.416 K0.000 F200.000
G2 X-25.324 Y-13.074 Z-3.000 I-2.176 J28.416 K0.000 F200.000
G1 X-25.324 Y-13.074 Z-6.000 F100.000
G2 X-2.176 Y28.416 Z-6.000 I25.324 J13.074 K0.000 F200.000
G2 X2.176 Y-28.416 Z-6.000 I2.176 J-28.416 K0.000 F200.000
G2 X-25.324 Y-13.074 Z-6.000 I-2.176 J28.416 K0.000 F200.000
G0 Z5.000
G0 Z5.000
G0 X-25.324 Y-13.074
G0 X-2.852 Y41.565
G0 X-2.852 Y41.565 Z3.000
G1 X-2.852 Y41.565 Z-3.000 F100.000
G2 X-1.378 Y55.871 Z-3.000 I2.852 J6.935 K0.000 F200.000
G2 X1.378 Y41.129 Z-3.000 I1.378 J-7.371 K0.000 F200.000
G2 X-2.852 Y41.565 Z-3.000 I-1.378 J7.371 K0.000 F200.000
G1 X-2.852 Y41.565 Z-6.000 F100.000
G2 X-1.378 Y55.871 Z-6.000 I2.852 J6.935 K0.000 F200.000
G2 X1.378 Y41.129 Z-6.000 I1.378 J-7.371 K0.000 F200.000
G2 X-2.852 Y41.565 Z-6.000 I-1.378 J7.371 K0.000 F200.000
G0 Z5.000
G0 Z5.000
G0 X-2.852 Y41.565
G0 X37.779 Y-18.054
G0 X37.779 Y-18.054 Z3.000
G1 X37.779 Y-18.054 Z-3.000 F100.000
G2 X40.624 Y-16.879 Z-3.000 I4.223 J-6.196 K0.000 F200.000
G2 X49.373 Y-22.872 Z-3.000 I1.378 J-7.371 K0.000 F200.000
G2 X43.380 Y-31.621 Z-3.000 I-7.371 J-1.378 K0.000 F200.000
G2 X37.779 Y-18.054 Z-3.000 I-1.378 J7.371 K0.000 F200.000
G1 X37.779 Y-18.054 Z-6.000 F100.000
G2 X40.624 Y-16.879 Z-6.000 I4.223 J-6.196 K0.000 F200.000
G2 X49.373 Y-22.872 Z-6.000 I1.378 J-7.371 K0.000 F200.000
G2 X43.380 Y-31.621 Z-6.000 I-7.371 J-1.378 K0.000 F200.000
G2 X37.779 Y-18.054 Z-6.000 I-1.378 J7.371 K0.000 F200.000
G0 Z5.000
G0 Z5.000
(Finish operation: Profile001)
(Block-name: G54)
(Block-expand: 0)
(Block-enable: 1)
(Begin operation: G54)
(Path: G54)
G54
G0 Z5.000
(Finish operation: G54)
(Block-name: 3mm Endmill001)
(Block-expand: 0)
(Block-enable: 1)
(Begin operation: 3mm Endmill001)
(Path: 3mm Endmill001)
(3mm Endmill001)
(Begin toolchange)
( M6 T2 )
(Finish operation: 3mm Endmill001)
(Block-name: Profile003)
(Block-expand: 0)
(Block-enable: 1)
(Begin operation: Profile003)
(Path: Profile003)
(Profile003)
(Compensated Tool Path. Diameter: 3.0)
G0 Z5.000
G0 X-35.285 Y-17.533
G0 Z3.000
G1 X-35.285 Y-17.533 Z-2.000 F100.000
G2 X-40.234 Y-33.583 Z-2.000 I-6.717 J-6.717 K0.000 F200.000
G2 X-43.770 Y-14.917 Z-2.000 I-1.768 J9.333 K0.000 F200.000
G2 X-35.285 Y-17.533 Z-2.000 I1.768 J-9.333 K0.000 F200.000
G0 Z5.000
G0 Z5.000
G0 X-35.285 Y-17.533
G0 X-27.314 Y-13.572
G0 X-27.314 Y-13.572 Z3.000
G1 X-27.314 Y-13.572 Z-2.000 F100.000
G2 X-2.341 Y30.410 Z-2.000 I27.314 J13.572 K0.000 F200.000
G2 X2.341 Y-30.410 Z-2.000 I2.341 J-30.410 K0.000 F200.000
G2 X-27.314 Y-13.572 Z-2.000 I-2.341 J30.410 K0.000 F200.000
G0 Z5.000
G0 Z5.000
G0 X-27.314 Y-13.572
G0 X-3.826 Y39.805
G0 X-3.826 Y39.805 Z3.000
G1 X-3.826 Y39.805 Z-2.000 F100.000
G2 X-1.768 Y57.833 Z-2.000 I3.826 J8.695 K0.000 F200.000
G2 X1.768 Y39.167 Z-2.000 I1.768 J-9.333 K0.000 F200.000
G2 X-3.826 Y39.805 Z-2.000 I-1.768 J9.333 K0.000 F200.000
G0 Z5.000
G0 Z5.000
G0 X-3.826 Y39.805
G0 X36.475 Y-16.524
G0 X36.475 Y-16.524 Z3.000
G1 X36.475 Y-16.524 Z-2.000 F100.000
G2 X40.234 Y-14.917 Z-2.000 I5.527 J-7.726 K0.000 F200.000
G2 X43.770 Y-33.583 Z-2.000 I1.768 J-9.333 K0.000 F200.000
G2 X36.475 Y-16.524 Z-2.000 I-1.768 J9.333 K0.000 F200.000
G0 Z5.000
G0 Z5.000
(Finish operation: Profile003)
(Block-name: G54)
(Block-expand: 0)
(Block-enable: 1)
(Begin operation: G54)
(Path: G54)
G54
G0 Z5.000
(Finish operation: G54)
(Block-name: 3mm Endmill001)
(Block-expand: 0)
(Block-enable: 1)
(Begin operation: 3mm Endmill001)
(Path: 3mm Endmill001)
(3mm Endmill001)
(Begin toolchange)
( M6 T2 )
(Finish operation: 3mm Endmill001)
(Block-name: Profile002)
(Block-expand: 0)
(Block-enable: 1)
(Begin operation: Profile002)
(Path: Profile002)
(Profile002)
(Compensated Tool Path. Diameter: 3.0)
G0 Z5.000
G0 X52.148 Y57.148
G0 Z3.000
G1 X52.148 Y57.148 Z-1.500 F100.000
G2 X56.499 Y46.700 Z-1.500 I-10.506 J-10.505 K0.000 F200.000
G1 X56.500 Y-44.918 Z-1.500 F200.000
G2 X39.972 Y-61.499 Z-1.500 I-16.582 J0.001 K0.000 F200.000
G1 X-41.577 Y-61.500 Z-1.500 F200.000
G2 X-56.499 Y-46.633 Z-1.500 I0.002 J14.924 K0.000 F200.000
G1 X-56.500 Y44.444 Z-1.500 F200.000
G2 X-39.497 Y61.499 Z-1.500 I17.057 J-0.001 K0.000 F200.000
G1 X41.644 Y61.500 Z-1.500 F200.000
G2 X52.148 Y57.148 Z-1.500 I-0.002 J-14.857 K0.000 F200.000
G1 X52.148 Y57.148 Z-3.000 F100.000
G2 X56.499 Y46.700 Z-3.000 I-10.506 J-10.505 K0.000 F200.000
G1 X56.500 Y-44.918 Z-3.000 F200.000
G2 X39.972 Y-61.499 Z-3.000 I-16.582 J0.001 K0.000 F200.000
G1 X-41.577 Y-61.500 Z-3.000 F200.000
G2 X-56.499 Y-46.633 Z-3.000 I0.002 J14.924 K0.000 F200.000
G1 X-56.500 Y44.444 Z-3.000 F200.000
G2 X-39.497 Y61.499 Z-3.000 I17.057 J-0.001 K0.000 F200.000
G1 X41.644 Y61.500 Z-3.000 F200.000
G2 X52.148 Y57.148 Z-3.000 I-0.002 J-14.857 K0.000 F200.000
G1 X52.148 Y57.148 Z-4.500 F100.000
G2 X56.499 Y46.700 Z-4.500 I-10.506 J-10.505 K0.000 F200.000
G1 X56.500 Y-44.918 Z-4.500 F200.000
G2 X39.972 Y-61.499 Z-4.500 I-16.582 J0.001 K0.000 F200.000
G1 X-41.577 Y-61.500 Z-4.500 F200.000
G2 X-56.499 Y-46.633 Z-4.500 I0.002 J14.924 K0.000 F200.000
G1 X-56.500 Y44.444 Z-4.500 F200.000
G2 X-39.497 Y61.499 Z-4.500 I17.057 J-0.001 K0.000 F200.000
G1 X41.644 Y61.500 Z-4.500 F200.000
G2 X52.148 Y57.148 Z-4.500 I-0.002 J-14.857 K0.000 F200.000
G1 X52.148 Y57.148 Z-6.000 F100.000
G2 X56.499 Y46.700 Z-6.000 I-10.506 J-10.505 K0.000 F200.000
G1 X56.500 Y-44.918 Z-6.000 F200.000
G2 X39.972 Y-61.499 Z-6.000 I-16.582 J0.001 K0.000 F200.000
G1 X-41.577 Y-61.500 Z-6.000 F200.000
G2 X-56.499 Y-46.633 Z-6.000 I0.002 J14.924 K0.000 F200.000
G1 X-56.500 Y44.444 Z-6.000 F200.000
G2 X-39.497 Y61.499 Z-6.000 I17.057 J-0.001 K0.000 F200.000
G1 X41.644 Y61.500 Z-6.000 F200.000
G2 X52.148 Y57.148 Z-6.000 I-0.002 J-14.857 K0.000 F200.000
G0 Z5.000
G0 Z5.000
(Finish operation: Profile002)
(Block-name: post_amble)
(Block-expand: 0)
(Block-enable: 1)
(Begin postamble)
M5
G17 G90
M2
