(Exported by FreeCAD)
(Post Processor: grbl_post)
(Output Time:2023-08-25 11:57:04.778742)
(Begin preamble)
G17 G90
G21
(Block-name: G54)
(Block-expand: 0)
(Block-enable: 1)
(Begin operation: G54)
(Path: G54)
G54
G0 Z5.000
(Finish operation: G54)
(Block-name: 3mm Endmill001)
(Block-expand: 0)
(Block-enable: 1)
(Begin operation: 3mm Endmill001)
(Path: 3mm Endmill001)
(3mm Endmill001)
(Begin toolchange)
( M6 T2 )
(Finish operation: 3mm Endmill001)
(Block-name: Profile_hole)
(Block-expand: 0)
(Block-enable: 1)
(Begin operation: Profile_hole)
(Path: Profile_hole)
(Profile_hole)
(Compensated Tool Path. Diameter: 3.0)
G0 Z5.000
G0 X-36.771 Y-19.019
G0 Z3.000
G1 X-36.771 Y-19.019 Z-1.500 F100.000
G2 X-40.643 Y-31.522 Z-1.500 I-5.231 J-5.231 K0.000 F200.000
G2 X-43.362 Y-16.978 Z-1.500 I-1.359 J7.272 K0.000 F200.000
G2 X-36.771 Y-19.019 Z-1.500 I1.359 J-7.272 K0.000 F200.000
G1 X-36.771 Y-19.019 Z-3.000 F100.000
G2 X-40.643 Y-31.522 Z-3.000 I-5.231 J-5.231 K0.000 F200.000
G2 X-43.362 Y-16.978 Z-3.000 I-1.359 J7.272 K0.000 F200.000
G2 X-36.771 Y-19.019 Z-3.000 I1.359 J-7.272 K0.000 F200.000
G1 X-36.771 Y-19.019 Z-4.500 F100.000
G2 X-40.643 Y-31.522 Z-4.500 I-5.231 J-5.231 K0.000 F200.000
G2 X-43.362 Y-16.978 Z-4.500 I-1.359 J7.272 K0.000 F200.000
G2 X-36.771 Y-19.019 Z-4.500 I1.359 J-7.272 K0.000 F200.000
G1 X-36.771 Y-19.019 Z-6.000 F100.000
G2 X-40.643 Y-31.522 Z-6.000 I-5.231 J-5.231 K0.000 F200.000
G2 X-43.362 Y-16.978 Z-6.000 I-1.359 J7.272 K0.000 F200.000
G2 X-36.771 Y-19.019 Z-6.000 I1.359 J-7.272 K0.000 F200.000
G0 Z5.000
G0 Z5.000
G0 X-36.771 Y-19.019
G0 X-7.333 Y-42.621
G0 X-7.333 Y-42.621 Z3.000
G1 X-7.333 Y-42.621 Z-1.500 F100.000
G2 X9.325 Y-47.327 Z-1.500 I7.333 J-5.879 K0.000 F200.000
G2 X-9.325 Y-49.673 Z-1.500 I-9.325 J-1.173 K0.000 F200.000
G2 X-7.333 Y-42.621 Z-1.500 I9.325 J1.173 K0.000 F200.000
G1 X-7.333 Y-42.621 Z-3.000 F100.000
G2 X9.325 Y-47.327 Z-3.000 I7.333 J-5.879 K0.000 F200.000
G2 X-9.325 Y-49.673 Z-3.000 I-9.325 J-1.173 K0.000 F200.000
G2 X-7.333 Y-42.621 Z-3.000 I9.325 J1.173 K0.000 F200.000
G1 X-7.333 Y-42.621 Z-4.500 F100.000
G2 X9.325 Y-47.327 Z-4.500 I7.333 J-5.879 K0.000 F200.000
G2 X-9.325 Y-49.673 Z-4.500 I-9.325 J-1.173 K0.000 F200.000
G2 X-7.333 Y-42.621 Z-4.500 I9.325 J1.173 K0.000 F200.000
G1 X-7.333 Y-42.621 Z-6.000 F100.000
G2 X9.325 Y-47.327 Z-6.000 I7.333 J-5.879 K0.000 F200.000
G2 X-9.325 Y-49.673 Z-6.000 I-9.325 J-1.173 K0.000 F200.000
G2 X-7.333 Y-42.621 Z-6.000 I9.325 J1.173 K0.000 F200.000
G0 Z5.000
G0 Z5.000
G0 X-7.333 Y-42.621
G0 X35.069 Y-26.832
G0 X35.069 Y-26.832 Z3.000
G1 X35.069 Y-26.832 Z-1.500 F100.000
G2 X40.643 Y-16.978 Z-1.500 I6.933 J2.582 K0.000 F200.000
G2 X49.275 Y-22.891 Z-1.500 I1.359 J-7.272 K0.000 F200.000
G2 X43.362 Y-31.522 Z-1.500 I-7.272 J-1.359 K0.000 F200.000
G2 X35.069 Y-26.832 Z-1.500 I-1.359 J7.272 K0.000 F200.000
G1 X35.069 Y-26.832 Z-3.000 F100.000
G2 X40.643 Y-16.978 Z-3.000 I6.933 J2.582 K0.000 F200.000
G2 X49.275 Y-22.891 Z-3.000 I1.359 J-7.272 K0.000 F200.000
G2 X43.362 Y-31.522 Z-3.000 I-7.272 J-1.359 K0.000 F200.000
G2 X35.069 Y-26.832 Z-3.000 I-1.359 J7.272 K0.000 F200.000
G1 X35.069 Y-26.832 Z-4.500 F100.000
G2 X40.643 Y-16.978 Z-4.500 I6.933 J2.582 K0.000 F200.000
G2 X49.275 Y-22.891 Z-4.500 I1.359 J-7.272 K0.000 F200.000
G2 X43.362 Y-31.522 Z-4.500 I-7.272 J-1.359 K0.000 F200.000
G2 X35.069 Y-26.832 Z-4.500 I-1.359 J7.272 K0.000 F200.000
G1 X35.069 Y-26.832 Z-6.000 F100.000
G2 X40.643 Y-16.978 Z-6.000 I6.933 J2.582 K0.000 F200.000
G2 X49.275 Y-22.891 Z-6.000 I1.359 J-7.272 K0.000 F200.000
G2 X43.362 Y-31.522 Z-6.000 I-7.272 J-1.359 K0.000 F200.000
G2 X35.069 Y-26.832 Z-6.000 I-1.359 J7.272 K0.000 F200.000
G0 Z5.000
G0 Z5.000
G0 X35.069 Y-26.832
G0 X20.967 Y-16.042
G0 X20.967 Y-16.042 Z3.000
G1 X20.967 Y-16.042 Z-1.500 F100.000
G2 X2.083 Y-26.317 Z-1.500 I-20.967 J16.042 K0.000 F200.000
G2 X-2.083 Y26.317 Z-1.500 I-2.083 J26.317 K0.000 F200.000
G2 X20.967 Y-16.042 Z-1.500 I2.083 J-26.317 K0.000 F200.000
G1 X20.967 Y-16.042 Z-3.000 F100.000
G2 X2.083 Y-26.317 Z-3.000 I-20.967 J16.042 K0.000 F200.000
G2 X-2.083 Y26.317 Z-3.000 I-2.083 J26.317 K0.000 F200.000
G2 X20.967 Y-16.042 Z-3.000 I2.083 J-26.317 K0.000 F200.000
G1 X20.967 Y-16.042 Z-4.500 F100.000
G2 X2.083 Y-26.317 Z-4.500 I-20.967 J16.042 K0.000 F200.000
G2 X-2.083 Y26.317 Z-4.500 I-2.083 J26.317 K0.000 F200.000
G2 X20.967 Y-16.042 Z-4.500 I2.083 J-26.317 K0.000 F200.000
G1 X20.967 Y-16.042 Z-6.000 F100.000
G2 X2.083 Y-26.317 Z-6.000 I-20.967 J16.042 K0.000 F200.000
G2 X-2.083 Y26.317 Z-6.000 I-2.083 J26.317 K0.000 F200.000
G2 X20.967 Y-16.042 Z-6.000 I2.083 J-26.317 K0.000 F200.000
G0 Z5.000
G0 Z5.000
G0 X20.967 Y-16.042
G0 X37.653 Y15.919
G0 X37.653 Y15.919 Z3.000
G1 X37.653 Y15.919 Z-1.500 F100.000
G2 X40.022 Y33.438 Z-1.500 I4.350 J8.331 K0.000 F200.000
G2 X51.190 Y26.230 Z-1.500 I1.980 J-9.188 K0.000 F200.000
G2 X43.982 Y15.062 Z-1.500 I-9.188 J-1.980 K0.000 F200.000
G2 X37.653 Y15.919 Z-1.500 I-1.980 J9.188 K0.000 F200.000
G1 X37.653 Y15.919 Z-3.000 F100.000
G2 X40.022 Y33.438 Z-3.000 I4.350 J8.331 K0.000 F200.000
G2 X51.190 Y26.230 Z-3.000 I1.980 J-9.188 K0.000 F200.000
G2 X43.982 Y15.062 Z-3.000 I-9.188 J-1.980 K0.000 F200.000
G2 X37.653 Y15.919 Z-3.000 I-1.980 J9.188 K0.000 F200.000
G1 X37.653 Y15.919 Z-4.500 F100.000
G2 X40.022 Y33.438 Z-4.500 I4.350 J8.331 K0.000 F200.000
G2 X51.190 Y26.230 Z-4.500 I1.980 J-9.188 K0.000 F200.000
G2 X43.982 Y15.062 Z-4.500 I-9.188 J-1.980 K0.000 F200.000
G2 X37.653 Y15.919 Z-4.500 I-1.980 J9.188 K0.000 F200.000
G1 X37.653 Y15.919 Z-6.000 F100.000
G2 X40.022 Y33.438 Z-6.000 I4.350 J8.331 K0.000 F200.000
G2 X51.190 Y26.230 Z-6.000 I1.980 J-9.188 K0.000 F200.000
G2 X43.982 Y15.062 Z-6.000 I-9.188 J-1.980 K0.000 F200.000
G2 X37.653 Y15.919 Z-6.000 I-1.980 J9.188 K0.000 F200.000
G0 Z5.000
G0 Z5.000
G0 X37.653 Y15.919
G0 X5.595 Y43.659
G0 X5.595 Y43.659 Z3.000
G1 X5.595 Y43.659 Z-1.500 F100.000
G2 X1.359 Y41.228 Z-1.500 I-5.595 J4.841 K0.000 F200.000
G2 X-1.359 Y55.772 Z-1.500 I-1.359 J7.272 K0.000 F200.000
G2 X5.595 Y43.659 Z-1.500 I1.359 J-7.272 K0.000 F200.000
G1 X5.595 Y43.659 Z-3.000 F100.000
G2 X1.359 Y41.228 Z-3.000 I-5.595 J4.841 K0.000 F200.000
G2 X-1.359 Y55.772 Z-3.000 I-1.359 J7.272 K0.000 F200.000
G2 X5.595 Y43.659 Z-3.000 I1.359 J-7.272 K0.000 F200.000
G1 X5.595 Y43.659 Z-4.500 F100.000
G2 X1.359 Y41.228 Z-4.500 I-5.595 J4.841 K0.000 F200.000
G2 X-1.359 Y55.772 Z-4.500 I-1.359 J7.272 K0.000 F200.000
G2 X5.595 Y43.659 Z-4.500 I1.359 J-7.272 K0.000 F200.000
G1 X5.595 Y43.659 Z-6.000 F100.000
G2 X1.359 Y41.228 Z-6.000 I-5.595 J4.841 K0.000 F200.000
G2 X-1.359 Y55.772 Z-6.000 I-1.359 J7.272 K0.000 F200.000
G2 X5.595 Y43.659 Z-6.000 I1.359 J-7.272 K0.000 F200.000
G0 Z5.000
G0 Z5.000
G0 X5.595 Y43.659
G0 X-33.299 Y27.799
G0 X-33.299 Y27.799 Z3.000
G1 X-33.299 Y27.799 Z-1.500 F100.000
G2 X-32.732 Y25.797 Z-1.500 I-8.703 J-3.549 K0.000 F200.000
G2 X-40.455 Y14.980 Z-1.500 I-9.270 J-1.547 K0.000 F200.000
G2 X-51.273 Y22.703 Z-1.500 I-1.547 J9.270 K0.000 F200.000
G2 X-33.299 Y27.799 Z-1.500 I9.270 J1.547 K0.000 F200.000
G1 X-33.299 Y27.799 Z-3.000 F100.000
G2 X-32.732 Y25.797 Z-3.000 I-8.703 J-3.549 K0.000 F200.000
G2 X-40.455 Y14.980 Z-3.000 I-9.270 J-1.547 K0.000 F200.000
G2 X-51.273 Y22.703 Z-3.000 I-1.547 J9.270 K0.000 F200.000
G2 X-33.299 Y27.799 Z-3.000 I9.270 J1.547 K0.000 F200.000
G1 X-33.299 Y27.799 Z-4.500 F100.000
G2 X-32.732 Y25.797 Z-4.500 I-8.703 J-3.549 K0.000 F200.000
G2 X-40.455 Y14.980 Z-4.500 I-9.270 J-1.547 K0.000 F200.000
G2 X-51.273 Y22.703 Z-4.500 I-1.547 J9.270 K0.000 F200.000
G2 X-33.299 Y27.799 Z-4.500 I9.270 J1.547 K0.000 F200.000
G1 X-33.299 Y27.799 Z-6.000 F100.000
G2 X-32.732 Y25.797 Z-6.000 I-8.703 J-3.549 K0.000 F200.000
G2 X-40.455 Y14.980 Z-6.000 I-9.270 J-1.547 K0.000 F200.000
G2 X-51.273 Y22.703 Z-6.000 I-1.547 J9.270 K0.000 F200.000
G2 X-33.299 Y27.799 Z-6.000 I9.270 J1.547 K0.000 F200.000
G0 Z5.000
G0 Z5.000
(Finish operation: Profile_hole)
(Block-name: G54)
(Block-expand: 0)
(Block-enable: 1)
(Begin operation: G54)
(Path: G54)
G54
G0 Z5.000
(Finish operation: G54)
(Block-name: 3mm Endmill001)
(Block-expand: 0)
(Block-enable: 1)
(Begin operation: 3mm Endmill001)
(Path: 3mm Endmill001)
(3mm Endmill001)
(Begin toolchange)
( M6 T2 )
(Finish operation: 3mm Endmill001)
(Block-name: Profile_hole001)
(Block-expand: 0)
(Block-enable: 1)
(Begin operation: Profile_hole001)
(Path: Profile_hole001)
(Profile_hole001)
(Compensated Tool Path. Diameter: 3.0)
G0 Z5.000
G0 X-36.771 Y-19.019
G0 Z3.000
G1 X-36.771 Y-19.019 Z-1.500 F100.000
G2 X-40.643 Y-31.522 Z-1.500 I-5.231 J-5.231 K0.000 F200.000
G2 X-43.362 Y-16.978 Z-1.500 I-1.359 J7.272 K0.000 F200.000
G2 X-36.771 Y-19.019 Z-1.500 I1.359 J-7.272 K0.000 F200.000
G1 X-36.771 Y-19.019 Z-3.000 F100.000
G2 X-40.643 Y-31.522 Z-3.000 I-5.231 J-5.231 K0.000 F200.000
G2 X-43.362 Y-16.978 Z-3.000 I-1.359 J7.272 K0.000 F200.000
G2 X-36.771 Y-19.019 Z-3.000 I1.359 J-7.272 K0.000 F200.000
G1 X-36.771 Y-19.019 Z-4.500 F100.000
G2 X-40.643 Y-31.522 Z-4.500 I-5.231 J-5.231 K0.000 F200.000
G2 X-43.362 Y-16.978 Z-4.500 I-1.359 J7.272 K0.000 F200.000
G2 X-36.771 Y-19.019 Z-4.500 I1.359 J-7.272 K0.000 F200.000
G1 X-36.771 Y-19.019 Z-6.000 F100.000
G2 X-40.643 Y-31.522 Z-6.000 I-5.231 J-5.231 K0.000 F200.000
G2 X-43.362 Y-16.978 Z-6.000 I-1.359 J7.272 K0.000 F200.000
G2 X-36.771 Y-19.019 Z-6.000 I1.359 J-7.272 K0.000 F200.000
G0 Z5.000
G0 Z5.000
G0 X-36.771 Y-19.019
G0 X-3.538 Y42.003
G0 X-3.538 Y42.003 Z3.000
G1 X-3.538 Y42.003 Z-1.500 F100.000
G2 X-1.359 Y55.772 Z-1.500 I3.538 J6.497 K0.000 F200.000
G2 X7.272 Y49.859 Z-1.500 I1.359 J-7.272 K0.000 F200.000
G2 X1.359 Y41.228 Z-1.500 I-7.272 J-1.359 K0.000 F200.000
G2 X-3.538 Y42.003 Z-1.500 I-1.359 J7.272 K0.000 F200.000
G1 X-3.538 Y42.003 Z-3.000 F100.000
G2 X-1.359 Y55.772 Z-3.000 I3.538 J6.497 K0.000 F200.000
G2 X7.272 Y49.859 Z-3.000 I1.359 J-7.272 K0.000 F200.000
G2 X1.359 Y41.228 Z-3.000 I-7.272 J-1.359 K0.000 F200.000
G2 X-3.538 Y42.003 Z-3.000 I-1.359 J7.272 K0.000 F200.000
G1 X-3.538 Y42.003 Z-4.500 F100.000
G2 X-1.359 Y55.772 Z-4.500 I3.538 J6.497 K0.000 F200.000
G2 X7.272 Y49.859 Z-4.500 I1.359 J-7.272 K0.000 F200.000
G2 X1.359 Y41.228 Z-4.500 I-7.272 J-1.359 K0.000 F200.000
G2 X-3.538 Y42.003 Z-4.500 I-1.359 J7.272 K0.000 F200.000
G1 X-3.538 Y42.003 Z-6.000 F100.000
G2 X-1.359 Y55.772 Z-6.000 I3.538 J6.497 K0.000 F200.000
G2 X7.272 Y49.859 Z-6.000 I1.359 J-7.272 K0.000 F200.000
G2 X1.359 Y41.228 Z-6.000 I-7.272 J-1.359 K0.000 F200.000
G2 X-3.538 Y42.003 Z-6.000 I-1.359 J7.272 K0.000 F200.000
G0 Z5.000
G0 Z5.000
G0 X-3.538 Y42.003
G0 X37.811 Y-18.153
G0 X37.811 Y-18.153 Z3.000
G1 X37.811 Y-18.153 Z-1.500 F100.000
G2 X40.643 Y-16.978 Z-1.500 I4.191 J-6.097 K0.000 F200.000
G2 X49.275 Y-22.891 Z-1.500 I1.359 J-7.272 K0.000 F200.000
G2 X43.362 Y-31.522 Z-1.500 I-7.272 J-1.359 K0.000 F200.000
G2 X37.811 Y-18.153 Z-1.500 I-1.359 J7.272 K0.000 F200.000
G1 X37.811 Y-18.153 Z-3.000 F100.000
G2 X40.643 Y-16.978 Z-3.000 I4.191 J-6.097 K0.000 F200.000
G2 X49.275 Y-22.891 Z-3.000 I1.359 J-7.272 K0.000 F200.000
G2 X43.362 Y-31.522 Z-3.000 I-7.272 J-1.359 K0.000 F200.000
G2 X37.811 Y-18.153 Z-3.000 I-1.359 J7.272 K0.000 F200.000
G1 X37.811 Y-18.153 Z-4.500 F100.000
G2 X40.643 Y-16.978 Z-4.500 I4.191 J-6.097 K0.000 F200.000
G2 X49.275 Y-22.891 Z-4.500 I1.359 J-7.272 K0.000 F200.000
G2 X43.362 Y-31.522 Z-4.500 I-7.272 J-1.359 K0.000 F200.000
G2 X37.811 Y-18.153 Z-4.500 I-1.359 J7.272 K0.000 F200.000
G1 X37.811 Y-18.153 Z-6.000 F100.000
G2 X40.643 Y-16.978 Z-6.000 I4.191 J-6.097 K0.000 F200.000
G2 X49.275 Y-22.891 Z-6.000 I1.359 J-7.272 K0.000 F200.000
G2 X43.362 Y-31.522 Z-6.000 I-7.272 J-1.359 K0.000 F200.000
G2 X37.811 Y-18.153 Z-6.000 I-1.359 J7.272 K0.000 F200.000
G0 Z5.000
G0 Z5.000
(Finish operation: Profile_hole001)
(Block-name: G54)
(Block-expand: 0)
(Block-enable: 1)
(Begin operation: G54)
(Path: G54)
G54
G0 Z5.000
(Finish operation: G54)
(Block-name: 3mm Endmill001)
(Block-expand: 0)
(Block-enable: 1)
(Begin operation: 3mm Endmill001)
(Path: 3mm Endmill001)
(3mm Endmill001)
(Begin toolchange)
( M6 T2 )
(Finish operation: 3mm Endmill001)
(Block-name: Profile_CoverCut)
(Block-expand: 0)
(Block-enable: 1)
(Begin operation: Profile_CoverCut)
(Path: Profile_CoverCut)
(Profile003)
(Compensated Tool Path. Diameter: 3.0)
G0 Z5.000
G0 X20.859 Y20.859
G0 Z3.000
G1 X20.859 Y20.859 Z-2.000 F100.000
G2 X2.984 Y-29.348 Z-2.000 I-20.859 J-20.859 K0.000 F200.000
G2 X-2.984 Y29.348 Z-2.000 I-2.984 J29.348 K0.000 F200.000
G2 X20.859 Y20.859 Z-2.000 I2.984 J-29.348 K0.000 F200.000
G0 Z5.000
G0 Z5.000
(Finish operation: Profile_CoverCut)
(Block-name: G54)
(Block-expand: 0)
(Block-enable: 1)
(Begin operation: G54)
(Path: G54)
G54
G0 Z5.000
(Finish operation: G54)
(Block-name: 3mm Endmill001)
(Block-expand: 0)
(Block-enable: 1)
(Begin operation: 3mm Endmill001)
(Path: 3mm Endmill001)
(3mm Endmill001)
(Begin toolchange)
( M6 T2 )
(Finish operation: 3mm Endmill001)
(Block-name: Profile_OutCut)
(Block-expand: 0)
(Block-enable: 1)
(Begin operation: Profile_OutCut)
(Path: Profile_OutCut)
(Profile_OutCut)
(Compensated Tool Path. Diameter: 3.0)
G0 Z5.000
G0 X52.148 Y57.148
G0 Z3.000
G1 X52.148 Y57.148 Z-1.500 F100.000
G2 X56.499 Y46.700 Z-1.500 I-10.506 J-10.505 K0.000 F200.000
G1 X56.500 Y-44.918 Z-1.500 F200.000
G2 X39.972 Y-61.499 Z-1.500 I-16.582 J0.001 K0.000 F200.000
G1 X-41.577 Y-61.500 Z-1.500 F200.000
G2 X-56.499 Y-46.633 Z-1.500 I0.002 J14.924 K0.000 F200.000
G1 X-56.500 Y44.444 Z-1.500 F200.000
G2 X-39.497 Y61.499 Z-1.500 I17.057 J-0.001 K0.000 F200.000
G1 X41.644 Y61.500 Z-1.500 F200.000
G2 X52.148 Y57.148 Z-1.500 I-0.002 J-14.857 K0.000 F200.000
G1 X52.148 Y57.148 Z-3.000 F100.000
G2 X56.499 Y46.700 Z-3.000 I-10.506 J-10.505 K0.000 F200.000
G1 X56.500 Y-44.918 Z-3.000 F200.000
G2 X39.972 Y-61.499 Z-3.000 I-16.582 J0.001 K0.000 F200.000
G1 X-41.577 Y-61.500 Z-3.000 F200.000
G2 X-56.499 Y-46.633 Z-3.000 I0.002 J14.924 K0.000 F200.000
G1 X-56.500 Y44.444 Z-3.000 F200.000
G2 X-39.497 Y61.499 Z-3.000 I17.057 J-0.001 K0.000 F200.000
G1 X41.644 Y61.500 Z-3.000 F200.000
G2 X52.148 Y57.148 Z-3.000 I-0.002 J-14.857 K0.000 F200.000
G1 X52.148 Y57.148 Z-4.500 F100.000
G2 X56.499 Y46.700 Z-4.500 I-10.506 J-10.505 K0.000 F200.000
G1 X56.500 Y-44.918 Z-4.500 F200.000
G2 X39.972 Y-61.499 Z-4.500 I-16.582 J0.001 K0.000 F200.000
G1 X-41.577 Y-61.500 Z-4.500 F200.000
G2 X-56.499 Y-46.633 Z-4.500 I0.002 J14.924 K0.000 F200.000
G1 X-56.500 Y44.444 Z-4.500 F200.000
G2 X-39.497 Y61.499 Z-4.500 I17.057 J-0.001 K0.000 F200.000
G1 X41.644 Y61.500 Z-4.500 F200.000
G2 X52.148 Y57.148 Z-4.500 I-0.002 J-14.857 K0.000 F200.000
G1 X52.148 Y57.148 Z-6.000 F100.000
G2 X56.499 Y46.700 Z-6.000 I-10.506 J-10.505 K0.000 F200.000
G1 X56.500 Y-44.918 Z-6.000 F200.000
G2 X39.972 Y-61.499 Z-6.000 I-16.582 J0.001 K0.000 F200.000
G1 X-41.577 Y-61.500 Z-6.000 F200.000
G2 X-56.499 Y-46.633 Z-6.000 I0.002 J14.924 K0.000 F200.000
G1 X-56.500 Y44.444 Z-6.000 F200.000
G2 X-39.497 Y61.499 Z-6.000 I17.057 J-0.001 K0.000 F200.000
G1 X41.644 Y61.500 Z-6.000 F200.000
G2 X52.148 Y57.148 Z-6.000 I-0.002 J-14.857 K0.000 F200.000
G0 Z5.000
G0 Z5.000
(Finish operation: Profile_OutCut)
(Block-name: post_amble)
(Block-expand: 0)
(Block-enable: 1)
(Begin postamble)
M5
G17 G90
M2
