(Exported by FreeCAD)
(Post Processor: grbl_post)
(Output Time:2023-08-25 12:07:51.025533)
(Begin preamble)
G17 G90
G21
(Block-name: G54)
(Block-expand: 0)
(Block-enable: 1)
(Begin operation: G54)
(Path: G54)
G54
G0 Z5.000
(Finish operation: G54)
(Block-name: 3mm Endmill001)
(Block-expand: 0)
(Block-enable: 1)
(Begin operation: 3mm Endmill001)
(Path: 3mm Endmill001)
(3mm Endmill001)
(Begin toolchange)
( M6 T2 )
(Finish operation: 3mm Endmill001)
(Block-name: Profile_hole)
(Block-expand: 0)
(Block-enable: 1)
(Begin operation: Profile_hole)
(Path: Profile_hole)
(Profile_hole)
(Compensated Tool Path. Diameter: 3.0)
G0 Z5.000
G0 X18.667 Y18.667
G0 Z3.000
G1 X18.667 Y18.667 Z-1.500 F100.000
G2 X3.457 Y-26.172 Z-1.500 I-18.667 J-18.667 K0.000 F200.000
G2 X-3.504 Y26.166 Z-1.500 I-3.457 J26.172 K0.000 F200.000
G2 X18.667 Y18.667 Z-1.500 I3.504 J-26.166 K0.000 F200.000
G1 X18.667 Y18.667 Z-3.000 F100.000
G2 X3.457 Y-26.172 Z-3.000 I-18.667 J-18.667 K0.000 F200.000
G2 X-3.504 Y26.166 Z-3.000 I-3.457 J26.172 K0.000 F200.000
G2 X18.667 Y18.667 Z-3.000 I3.504 J-26.166 K0.000 F200.000
G1 X18.667 Y18.667 Z-4.500 F100.000
G2 X3.457 Y-26.172 Z-4.500 I-18.667 J-18.667 K0.000 F200.000
G2 X-3.504 Y26.166 Z-4.500 I-3.457 J26.172 K0.000 F200.000
G2 X18.667 Y18.667 Z-4.500 I3.504 J-26.166 K0.000 F200.000
G1 X18.667 Y18.667 Z-6.000 F100.000
G2 X3.457 Y-26.172 Z-6.000 I-18.667 J-18.667 K0.000 F200.000
G2 X-3.504 Y26.166 Z-6.000 I-3.457 J26.172 K0.000 F200.000
G2 X18.667 Y18.667 Z-6.000 I3.504 J-26.166 K0.000 F200.000
G0 Z5.000
G0 Z5.000
G0 X18.667 Y18.667
G0 X41.133 Y24.042
G0 X41.133 Y24.042 Z3.000
G1 X41.133 Y24.042 Z-1.500 F100.000
G2 X41.697 Y25.090 Z-1.500 I0.869 J0.208 K0.000 F200.000
G2 X42.842 Y24.556 Z-1.500 I0.306 J-0.840 K0.000 F200.000
G2 X42.308 Y23.410 Z-1.500 I-0.840 J-0.306 K0.000 F200.000
G2 X41.133 Y24.042 Z-1.500 I-0.306 J0.840 K0.000 F200.000
G1 X41.133 Y24.042 Z-3.000 F100.000
G2 X41.697 Y25.090 Z-3.000 I0.869 J0.208 K0.000 F200.000
G2 X42.842 Y24.556 Z-3.000 I0.306 J-0.840 K0.000 F200.000
G2 X42.308 Y23.410 Z-3.000 I-0.840 J-0.306 K0.000 F200.000
G2 X41.133 Y24.042 Z-3.000 I-0.306 J0.840 K0.000 F200.000
G1 X41.133 Y24.042 Z-4.500 F100.000
G2 X41.697 Y25.090 Z-4.500 I0.869 J0.208 K0.000 F200.000
G2 X42.842 Y24.556 Z-4.500 I0.306 J-0.840 K0.000 F200.000
G2 X42.308 Y23.410 Z-4.500 I-0.840 J-0.306 K0.000 F200.000
G2 X41.133 Y24.042 Z-4.500 I-0.306 J0.840 K0.000 F200.000
G1 X41.133 Y24.042 Z-6.000 F100.000
G2 X41.697 Y25.090 Z-6.000 I0.869 J0.208 K0.000 F200.000
G2 X42.842 Y24.556 Z-6.000 I0.306 J-0.840 K0.000 F200.000
G2 X42.308 Y23.410 Z-6.000 I-0.840 J-0.306 K0.000 F200.000
G2 X41.133 Y24.042 Z-6.000 I-0.306 J0.840 K0.000 F200.000
G0 Z5.000
G0 Z5.000
G0 X41.133 Y24.042
G0 X6.359 Y44.719
G0 X6.359 Y44.719 Z3.000
G1 X6.359 Y44.719 Z-1.500 F100.000
G2 X1.359 Y41.228 Z-1.500 I-6.359 J3.781 K0.000 F200.000
G2 X-1.359 Y55.772 Z-1.500 I-1.359 J7.272 K0.000 F200.000
G2 X6.359 Y44.719 Z-1.500 I1.359 J-7.272 K0.000 F200.000
G1 X6.359 Y44.719 Z-3.000 F100.000
G2 X1.359 Y41.228 Z-3.000 I-6.359 J3.781 K0.000 F200.000
G2 X-1.359 Y55.772 Z-3.000 I-1.359 J7.272 K0.000 F200.000
G2 X6.359 Y44.719 Z-3.000 I1.359 J-7.272 K0.000 F200.000
G1 X6.359 Y44.719 Z-4.500 F100.000
G2 X1.359 Y41.228 Z-4.500 I-6.359 J3.781 K0.000 F200.000
G2 X-1.359 Y55.772 Z-4.500 I-1.359 J7.272 K0.000 F200.000
G2 X6.359 Y44.719 Z-4.500 I1.359 J-7.272 K0.000 F200.000
G1 X6.359 Y44.719 Z-6.000 F100.000
G2 X1.359 Y41.228 Z-6.000 I-6.359 J3.781 K0.000 F200.000
G2 X-1.359 Y55.772 Z-6.000 I-1.359 J7.272 K0.000 F200.000
G2 X6.359 Y44.719 Z-6.000 I1.359 J-7.272 K0.000 F200.000
G0 Z5.000
G0 Z5.000
G0 X6.359 Y44.719
G0 X-41.179 Y24.598
G0 X-41.179 Y24.598 Z3.000
G1 X-41.179 Y24.598 Z-1.500 F100.000
G2 X-41.697 Y23.410 Z-1.500 I-0.823 J-0.348 K0.000 F200.000
G2 X-42.842 Y23.944 Z-1.500 I-0.306 J0.840 K0.000 F200.000
G2 X-42.308 Y25.090 Z-1.500 I0.840 J0.306 K0.000 F200.000
G2 X-41.179 Y24.598 Z-1.500 I0.306 J-0.840 K0.000 F200.000
G1 X-41.179 Y24.598 Z-3.000 F100.000
G2 X-41.697 Y23.410 Z-3.000 I-0.823 J-0.348 K0.000 F200.000
G2 X-42.842 Y23.944 Z-3.000 I-0.306 J0.840 K0.000 F200.000
G2 X-42.308 Y25.090 Z-3.000 I0.840 J0.306 K0.000 F200.000
G2 X-41.179 Y24.598 Z-3.000 I0.306 J-0.840 K0.000 F200.000
G1 X-41.179 Y24.598 Z-4.500 F100.000
G2 X-41.697 Y23.410 Z-4.500 I-0.823 J-0.348 K0.000 F200.000
G2 X-42.842 Y23.944 Z-4.500 I-0.306 J0.840 K0.000 F200.000
G2 X-42.308 Y25.090 Z-4.500 I0.840 J0.306 K0.000 F200.000
G2 X-41.179 Y24.598 Z-4.500 I0.306 J-0.840 K0.000 F200.000
G1 X-41.179 Y24.598 Z-6.000 F100.000
G2 X-41.697 Y23.410 Z-6.000 I-0.823 J-0.348 K0.000 F200.000
G2 X-42.842 Y23.944 Z-6.000 I-0.306 J0.840 K0.000 F200.000
G2 X-42.308 Y25.090 Z-6.000 I0.840 J0.306 K0.000 F200.000
G2 X-41.179 Y24.598 Z-6.000 I0.306 J-0.840 K0.000 F200.000
G0 Z5.000
G0 Z5.000
G0 X-41.179 Y24.598
G0 X-0.439 Y-47.721
G0 X-0.439 Y-47.721 Z3.000
G1 X-0.439 Y-47.721 Z-1.500 F100.000
G2 X-0.306 Y-47.660 Z-1.500 I0.439 J-0.779 K0.000 F200.000
G2 X0.306 Y-49.340 Z-1.500 I0.306 J-0.840 K0.000 F200.000
G2 X-0.439 Y-47.721 Z-1.500 I-0.306 J0.840 K0.000 F200.000
G1 X-0.439 Y-47.721 Z-3.000 F100.000
G2 X-0.306 Y-47.660 Z-3.000 I0.439 J-0.779 K0.000 F200.000
G2 X0.306 Y-49.340 Z-3.000 I0.306 J-0.840 K0.000 F200.000
G2 X-0.439 Y-47.721 Z-3.000 I-0.306 J0.840 K0.000 F200.000
G1 X-0.439 Y-47.721 Z-4.500 F100.000
G2 X-0.306 Y-47.660 Z-4.500 I0.439 J-0.779 K0.000 F200.000
G2 X0.306 Y-49.340 Z-4.500 I0.306 J-0.840 K0.000 F200.000
G2 X-0.439 Y-47.721 Z-4.500 I-0.306 J0.840 K0.000 F200.000
G1 X-0.439 Y-47.721 Z-6.000 F100.000
G2 X-0.306 Y-47.660 Z-6.000 I0.439 J-0.779 K0.000 F200.000
G2 X0.306 Y-49.340 Z-6.000 I0.306 J-0.840 K0.000 F200.000
G2 X-0.439 Y-47.721 Z-6.000 I-0.306 J0.840 K0.000 F200.000
G0 Z5.000
G0 Z5.000
(Finish operation: Profile_hole)
(Block-name: Profile_hole001)
(Block-expand: 0)
(Block-enable: 1)
(Begin operation: Profile_hole001)
(Path: Profile_hole001)
(Profile_hole001)
(Compensated Tool Path. Diameter: 3.0)
G0 Z5.000
G0 X5.231 Y53.731
G0 Z3.000
G1 X5.231 Y53.731 Z-1.500 F100.000
G2 X1.359 Y41.228 Z-1.500 I-5.231 J-5.231 K0.000 F200.000
G2 X-1.359 Y55.772 Z-1.500 I-1.359 J7.272 K0.000 F200.000
G2 X5.231 Y53.731 Z-1.500 I1.359 J-7.272 K0.000 F200.000
G1 X5.231 Y53.731 Z-3.000 F100.000
G2 X1.359 Y41.228 Z-3.000 I-5.231 J-5.231 K0.000 F200.000
G2 X-1.359 Y55.772 Z-3.000 I-1.359 J7.272 K0.000 F200.000
G2 X5.231 Y53.731 Z-3.000 I1.359 J-7.272 K0.000 F200.000
G1 X5.231 Y53.731 Z-4.500 F100.000
G2 X1.359 Y41.228 Z-4.500 I-5.231 J-5.231 K0.000 F200.000
G2 X-1.359 Y55.772 Z-4.500 I-1.359 J7.272 K0.000 F200.000
G2 X5.231 Y53.731 Z-4.500 I1.359 J-7.272 K0.000 F200.000
G1 X5.231 Y53.731 Z-6.000 F100.000
G2 X1.359 Y41.228 Z-6.000 I-5.231 J-5.231 K0.000 F200.000
G2 X-1.359 Y55.772 Z-6.000 I-1.359 J7.272 K0.000 F200.000
G2 X5.231 Y53.731 Z-6.000 I1.359 J-7.272 K0.000 F200.000
G0 Z5.000
G0 Z5.000
(Finish operation: Profile_hole001)
(Block-name: Drilling)
(Block-expand: 0)
(Block-enable: 1)
(Begin operation: Drilling)
(Path: Drilling)
(Drilling)
(Begin Drilling)
G0 Z5.000
G90
G98
G0 X42.002 Y-24.250
G0 Z3.000
G83 X42.002 Y-24.250 Z-4.000 F100.000 Q0.750 R3.000
G0 X-42.002 Y-24.250
G0 Z3.000
G83 X-42.002 Y-24.250 Z-4.000 F100.000 Q0.750 R3.000
G80
G0 Z3.000
G0 Z5.000
(Finish operation: Drilling)
(Block-name: Profile_OutCut)
(Block-expand: 0)
(Block-enable: 1)
(Begin operation: Profile_OutCut)
(Path: Profile_OutCut)
(Profile_OutCut)
(Compensated Tool Path. Diameter: 3.0)
G0 Z5.000
G0 X52.148 Y57.148
G0 Z3.000
G1 X52.148 Y57.148 Z-1.500 F100.000
G2 X56.499 Y46.700 Z-1.500 I-10.506 J-10.505 K0.000 F200.000
G1 X56.500 Y-44.918 Z-1.500 F200.000
G2 X39.972 Y-61.499 Z-1.500 I-16.582 J0.001 K0.000 F200.000
G1 X-41.577 Y-61.500 Z-1.500 F200.000
G2 X-56.499 Y-46.633 Z-1.500 I0.002 J14.924 K0.000 F200.000
G1 X-56.500 Y44.444 Z-1.500 F200.000
G2 X-39.497 Y61.499 Z-1.500 I17.057 J-0.001 K0.000 F200.000
G1 X41.644 Y61.500 Z-1.500 F200.000
G2 X52.148 Y57.148 Z-1.500 I-0.002 J-14.857 K0.000 F200.000
G1 X52.148 Y57.148 Z-3.000 F100.000
G2 X56.499 Y46.700 Z-3.000 I-10.506 J-10.505 K0.000 F200.000
G1 X56.500 Y-44.918 Z-3.000 F200.000
G2 X39.972 Y-61.499 Z-3.000 I-16.582 J0.001 K0.000 F200.000
G1 X-41.577 Y-61.500 Z-3.000 F200.000
G2 X-56.499 Y-46.633 Z-3.000 I0.002 J14.924 K0.000 F200.000
G1 X-56.500 Y44.444 Z-3.000 F200.000
G2 X-39.497 Y61.499 Z-3.000 I17.057 J-0.001 K0.000 F200.000
G1 X41.644 Y61.500 Z-3.000 F200.000
G2 X52.148 Y57.148 Z-3.000 I-0.002 J-14.857 K0.000 F200.000
G1 X52.148 Y57.148 Z-4.500 F100.000
G2 X56.499 Y46.700 Z-4.500 I-10.506 J-10.505 K0.000 F200.000
G1 X56.500 Y-44.918 Z-4.500 F200.000
G2 X39.972 Y-61.499 Z-4.500 I-16.582 J0.001 K0.000 F200.000
G1 X-41.577 Y-61.500 Z-4.500 F200.000
G2 X-56.499 Y-46.633 Z-4.500 I0.002 J14.924 K0.000 F200.000
G1 X-56.500 Y44.444 Z-4.500 F200.000
G2 X-39.497 Y61.499 Z-4.500 I17.057 J-0.001 K0.000 F200.000
G1 X41.644 Y61.500 Z-4.500 F200.000
G2 X52.148 Y57.148 Z-4.500 I-0.002 J-14.857 K0.000 F200.000
G1 X52.148 Y57.148 Z-6.000 F100.000
G2 X56.499 Y46.700 Z-6.000 I-10.506 J-10.505 K0.000 F200.000
G1 X56.500 Y-44.918 Z-6.000 F200.000
G2 X39.972 Y-61.499 Z-6.000 I-16.582 J0.001 K0.000 F200.000
G1 X-41.577 Y-61.500 Z-6.000 F200.000
G2 X-56.499 Y-46.633 Z-6.000 I0.002 J14.924 K0.000 F200.000
G1 X-56.500 Y44.444 Z-6.000 F200.000
G2 X-39.497 Y61.499 Z-6.000 I17.057 J-0.001 K0.000 F200.000
G1 X41.644 Y61.500 Z-6.000 F200.000
G2 X52.148 Y57.148 Z-6.000 I-0.002 J-14.857 K0.000 F200.000
G0 Z5.000
G0 Z5.000
(Finish operation: Profile_OutCut)
(Block-name: post_amble)
(Block-expand: 0)
(Block-enable: 1)
(Begin postamble)
M5
G17 G90
M2
