(Exported by FreeCAD)
(Post Processor: grbl_post)
(Output Time:2025-11-30 11:32:04.244469)
(Begin preamble)
G17 G90
G21
(Block-name: Fixture)
(Block-expand: 0)
(Block-enable: 1)
(Begin operation: Fixture)
(Path: Fixture)
G54
(Finish operation: Fixture)
(Block-name: 3mm Endmill001)
(Block-expand: 0)
(Block-enable: 1)
(Begin operation: 3mm Endmill001)
(Path: 3mm Endmill001)
(3mm Endmill001)
(Begin toolchange)
( M6 T2 )
M3 S10000
(Finish operation: 3mm Endmill001)
(Block-name: MillFace)
(Block-expand: 0)
(Block-enable: 1)
(Begin operation: MillFace)
(Path: MillFace)
(MillFace)
G0 Z5.000
G0
G0 X-0.067 Y0.486
G0 X-0.067 Y0.486 Z3.000
G1 X-0.067 Y0.486 Z0.000 F400.000
G3 X0.054 Y-0.487 Z0.000 I0.061 J-0.487 K0.000 F400.000
G3 X0.481 Y0.060 Z0.000 I-0.060 J0.487 K0.000 F400.000
G3 X-0.067 Y0.486 Z0.000 I-0.487 J-0.061 K0.000 F400.000
G0 Z5.000
G0 X-0.254 Y1.975 Z5.000
G0 X-0.254 Y1.975 Z3.000
G1 X-0.254 Y1.975 Z0.000 F400.000
G3 X0.238 Y-1.976 Z0.000 I0.248 J-1.975 K0.000 F400.000
G3 X1.970 Y0.246 Z0.000 I-0.244 J1.976 K0.000 F400.000
G3 X-0.254 Y1.975 Z0.000 I-1.976 J-0.246 K0.000 F400.000
G0 Z5.000
G0 X-0.440 Y3.464 Z5.000
G0 X-0.440 Y3.464 Z3.000
G1 X-0.440 Y3.464 Z0.000 F400.000
G3 X0.423 Y-3.465 Z0.000 I0.434 J-3.464 K0.000 F400.000
G3 X3.458 Y0.431 Z0.000 I-0.429 J3.465 K0.000 F400.000
G3 X-0.440 Y3.464 Z0.000 I-3.465 J-0.431 K0.000 F400.000
G0 Z5.000
G0 X-0.627 Y4.953 Z5.000
G0 X-0.627 Y4.953 Z3.000
G1 X-0.627 Y4.953 Z0.000 F400.000
G3 X0.607 Y-4.954 Z0.000 I0.621 J-4.953 K0.000 F400.000
G3 X4.947 Y0.617 Z0.000 I-0.613 J4.954 K0.000 F400.000
G3 X-0.627 Y4.953 Z0.000 I-4.953 J-0.617 K0.000 F400.000
G0 Z5.000
G0 X-0.813 Y6.442 Z5.000
G0 X-0.813 Y6.442 Z3.000
G1 X-0.813 Y6.442 Z0.000 F400.000
G3 X0.791 Y-6.443 Z0.000 I0.807 J-6.442 K0.000 F400.000
G3 X6.436 Y0.802 Z0.000 I-0.797 J6.443 K0.000 F400.000
G3 X-0.813 Y6.442 Z0.000 I-6.442 J-0.802 K0.000 F400.000
G0 Z5.000
G0 X-1.000 Y7.931 Z5.000
G0 X-1.000 Y7.931 Z3.000
G1 X-1.000 Y7.931 Z0.000 F400.000
G3 X0.975 Y-7.932 Z0.000 I0.994 J-7.931 K0.000 F400.000
G3 X7.925 Y0.988 Z0.000 I-0.981 J7.932 K0.000 F400.000
G3 X-1.000 Y7.931 Z0.000 I-7.931 J-0.988 K0.000 F400.000
G0 Z5.000
G0 X-1.187 Y9.419 Z5.000
G0 X-1.187 Y9.419 Z3.000
G1 X-1.187 Y9.419 Z0.000 F400.000
G3 X1.160 Y-9.421 Z0.000 I1.181 J-9.419 K0.000 F400.000
G3 X9.414 Y1.173 Z0.000 I-1.166 J9.421 K0.000 F400.000
G3 X-1.187 Y9.419 Z0.000 I-9.420 J-1.173 K0.000 F400.000
G0 Z5.000
G0 X-1.373 Y10.908 Z5.000
G0 X-1.373 Y10.908 Z3.000
G1 X-1.373 Y10.908 Z0.000 F400.000
G3 X1.344 Y-10.910 Z0.000 I1.367 J-10.908 K0.000 F400.000
G3 X10.903 Y1.358 Z0.000 I-1.350 J10.910 K0.000 F400.000
G3 X-1.373 Y10.908 Z0.000 I-10.909 J-1.358 K0.000 F400.000
G0 Z5.000
G0 X-1.560 Y12.397 Z5.000
G0 X-1.560 Y12.397 Z3.000
G1 X-1.560 Y12.397 Z0.000 F400.000
G3 X1.528 Y-12.400 Z0.000 I1.554 J-12.397 K0.000 F400.000
G3 X12.392 Y1.544 Z0.000 I-1.534 J12.399 K0.000 F400.000
G3 X-1.560 Y12.397 Z0.000 I-12.398 J-1.544 K0.000 F400.000
G0 Z5.000
G0 X-1.746 Y13.886 Z5.000
G0 X-1.746 Y13.886 Z3.000
G1 X-1.746 Y13.886 Z0.000 F400.000
G3 X1.712 Y-13.889 Z0.000 I1.740 J-13.886 K0.000 F400.000
G3 X13.881 Y1.729 Z0.000 I-1.718 J13.889 K0.000 F400.000
G3 X-1.746 Y13.886 Z0.000 I-13.887 J-1.729 K0.000 F400.000
G0 Z5.000
G0 X-1.933 Y15.375 Z5.000
G0 X-1.933 Y15.375 Z3.000
G1 X-1.933 Y15.375 Z0.000 F400.000
G3 X1.897 Y-15.378 Z0.000 I1.927 J-15.375 K0.000 F400.000
G3 X15.370 Y1.915 Z0.000 I-1.903 J15.378 K0.000 F400.000
G3 X-1.933 Y15.375 Z0.000 I-15.376 J-1.915 K0.000 F400.000
G0 Z5.000
G0 X-2.119 Y16.863 Z5.000
G0 X-2.119 Y16.863 Z3.000
G1 X-2.119 Y16.863 Z0.000 F400.000
G3 X2.081 Y-16.867 Z0.000 I2.113 J-16.864 K0.000 F400.000
G3 X16.859 Y2.100 Z0.000 I-2.087 J16.867 K0.000 F400.000
G3 X-2.119 Y16.863 Z0.000 I-16.865 J-2.100 K0.000 F400.000
G0 Z5.000
G0 X-2.306 Y18.352 Z5.000
G0 X-2.306 Y18.352 Z3.000
G1 X-2.306 Y18.352 Z0.000 F400.000
G3 X2.265 Y-18.356 Z0.000 I2.300 J-18.352 K0.000 F400.000
G3 X18.348 Y2.285 Z0.000 I-2.271 J18.356 K0.000 F400.000
G3 X-2.306 Y18.352 Z0.000 I-18.354 J-2.286 K0.000 F400.000
G0 Z5.000
G0 X-2.493 Y19.841 Z5.000
G0 X-2.493 Y19.841 Z3.000
G1 X-2.493 Y19.841 Z0.000 F400.000
G3 X2.449 Y-19.845 Z0.000 I2.486 J-19.841 K0.000 F400.000
G3 X19.837 Y2.471 Z0.000 I-2.455 J19.845 K0.000 F400.000
G3 X-2.493 Y19.841 Z0.000 I-19.843 J-2.471 K0.000 F400.000
G0 Z5.000
G0 X-2.679 Y21.330 Z5.000
G0 X-2.679 Y21.330 Z3.000
G1 X-2.679 Y21.330 Z0.000 F400.000
G3 X2.634 Y-21.334 Z0.000 I2.673 J-21.330 K0.000 F400.000
G3 X21.326 Y2.656 Z0.000 I-2.640 J21.334 K0.000 F400.000
G3 X-2.679 Y21.330 Z0.000 I-21.332 J-2.656 K0.000 F400.000
G0 Z5.000
G0 X-2.866 Y22.819 Z5.000
G0 X-2.866 Y22.819 Z3.000
G1 X-2.866 Y22.819 Z0.000 F400.000
G3 X2.818 Y-22.823 Z0.000 I2.860 J-22.819 K0.000 F400.000
G3 X22.815 Y2.842 Z0.000 I-2.824 J22.823 K0.000 F400.000
G3 X-2.866 Y22.819 Z0.000 I-22.821 J-2.842 K0.000 F400.000
G0 Z5.000
G0 X-3.052 Y24.308 Z5.000
G0 X-3.052 Y24.308 Z3.000
G1 X-3.052 Y24.308 Z0.000 F400.000
G3 X3.002 Y-24.312 Z0.000 I3.046 J-24.308 K0.000 F400.000
G3 X24.304 Y3.027 Z0.000 I-3.008 J24.312 K0.000 F400.000
G3 X-3.052 Y24.308 Z0.000 I-24.310 J-3.027 K0.000 F400.000
G0 Z5.000
G0 X-3.239 Y25.796 Z5.000
G0 X-3.239 Y25.796 Z3.000
G1 X-3.239 Y25.796 Z0.000 F400.000
G3 X3.186 Y-25.801 Z0.000 I3.233 J-25.796 K0.000 F400.000
G3 X25.793 Y3.213 Z0.000 I-3.192 J25.801 K0.000 F400.000
G3 X-3.239 Y25.796 Z0.000 I-25.799 J-3.213 K0.000 F400.000
G0 Z5.000
G0 X-3.425 Y27.285 Z5.000
G0 X-3.425 Y27.285 Z3.000
G1 X-3.425 Y27.285 Z0.000 F400.000
G3 X3.371 Y-27.291 Z0.000 I3.419 J-27.285 K0.000 F400.000
G3 X27.282 Y3.398 Z0.000 I-3.377 J27.291 K0.000 F400.000
G3 X-3.425 Y27.285 Z0.000 I-27.288 J-3.398 K0.000 F400.000
G0 Z5.000
G0 X-3.612 Y28.774 Z5.000
G0 X-3.612 Y28.774 Z3.000
G1 X-3.612 Y28.774 Z0.000 F400.000
G3 X3.555 Y-28.780 Z0.000 I3.606 J-28.774 K0.000 F400.000
G3 X28.771 Y3.583 Z0.000 I-3.561 J28.780 K0.000 F400.000
G3 X-3.612 Y28.774 Z0.000 I-28.777 J-3.583 K0.000 F400.000
G0 Z5.000
G0 X-3.799 Y30.263 Z5.000
G0 X-3.799 Y30.263 Z3.000
G1 X-3.799 Y30.263 Z0.000 F400.000
G3 X3.739 Y-30.269 Z0.000 I3.792 J-30.263 K0.000 F400.000
G3 X30.260 Y3.769 Z0.000 I-3.745 J30.269 K0.000 F400.000
G3 X-3.799 Y30.263 Z0.000 I-30.266 J-3.769 K0.000 F400.000
G0 Z5.000
G0 Z5.000
(Finish operation: MillFace)
(Block-name: Fixture)
(Block-expand: 0)
(Block-enable: 1)
(Begin operation: Fixture)
(Path: Fixture)
G54
(Finish operation: Fixture)
(Block-name: CentralHoleDraft)
(Block-expand: 0)
(Block-enable: 1)
(Begin operation: CentralHoleDraft)
(Path: CentralHoleDraft)
(CentralHoleDraft)
(Helix to depth: -6.000000)
G0 Z5.000
G0 X0.321 Y-0.934 Z5.000
G0 X0.321 Y-0.934 Z3.000
G1 X0.321 Y-0.934 Z0.000 F400.000
G1 X0.321 Y-0.934 Z0.000 F400.000
G1 X0.497 Y-0.852 Z-0.017 F400.000
G1 X0.653 Y-0.737 Z-0.034 F400.000
G1 X0.785 Y-0.594 Z-0.052 F400.000
G1 X0.885 Y-0.428 Z-0.069 F400.000
G1 X0.952 Y-0.246 Z-0.086 F400.000
G1 X0.981 Y-0.054 Z-0.103 F400.000
G1 X0.973 Y0.140 Z-0.120 F400.000
G1 X0.926 Y0.329 Z-0.137 F400.000
G1 X0.844 Y0.505 Z-0.155 F400.000
G1 X0.729 Y0.661 Z-0.172 F400.000
G1 X0.586 Y0.792 Z-0.189 F400.000
G1 X0.420 Y0.893 Z-0.206 F400.000
G1 X0.238 Y0.959 Z-0.223 F400.000
G1 X0.046 Y0.989 Z-0.240 F400.000
G1 X-0.148 Y0.980 Z-0.258 F400.000
G1 X-0.336 Y0.934 Z-0.275 F400.000
G1 X-0.512 Y0.852 Z-0.292 F400.000
G1 X-0.669 Y0.737 Z-0.309 F400.000
G1 X-0.800 Y0.594 Z-0.326 F400.000
G1 X-0.900 Y0.428 Z-0.344 F400.000
G1 X-0.967 Y0.246 Z-0.361 F400.000
G1 X-0.996 Y0.054 Z-0.378 F400.000
G1 X-0.988 Y-0.140 Z-0.395 F400.000
G1 X-0.941 Y-0.329 Z-0.412 F400.000
G1 X-0.859 Y-0.505 Z-0.429 F400.000
G1 X-0.745 Y-0.661 Z-0.447 F400.000
G1 X-0.601 Y-0.792 Z-0.464 F400.000
G1 X-0.435 Y-0.893 Z-0.481 F400.000
G1 X-0.253 Y-0.959 Z-0.498 F400.000
G1 X-0.061 Y-0.989 Z-0.515 F400.000
G1 X0.133 Y-0.980 Z-0.533 F400.000
G1 X0.321 Y-0.934 Z-0.550 F400.000
G1 X0.497 Y-0.852 Z-0.567 F400.000
G1 X0.653 Y-0.737 Z-0.584 F400.000
G1 X0.785 Y-0.594 Z-0.601 F400.000
G1 X0.885 Y-0.428 Z-0.618 F400.000
G1 X0.952 Y-0.246 Z-0.636 F400.000
G1 X0.981 Y-0.054 Z-0.653 F400.000
G1 X0.973 Y0.140 Z-0.670 F400.000
G1 X0.926 Y0.329 Z-0.687 F400.000
G1 X0.844 Y0.505 Z-0.704 F400.000
G1 X0.729 Y0.661 Z-0.721 F400.000
G1 X0.586 Y0.792 Z-0.739 F400.000
G1 X0.420 Y0.893 Z-0.756 F400.000
G1 X0.238 Y0.959 Z-0.773 F400.000
G1 X0.046 Y0.989 Z-0.790 F400.000
G1 X-0.148 Y0.980 Z-0.807 F400.000
G1 X-0.336 Y0.934 Z-0.825 F400.000
G1 X-0.512 Y0.852 Z-0.842 F400.000
G1 X-0.669 Y0.737 Z-0.859 F400.000
G1 X-0.800 Y0.594 Z-0.876 F400.000
G1 X-0.900 Y0.428 Z-0.893 F400.000
G1 X-0.967 Y0.246 Z-0.910 F400.000
G1 X-0.996 Y0.054 Z-0.928 F400.000
G1 X-0.988 Y-0.140 Z-0.945 F400.000
G1 X-0.941 Y-0.329 Z-0.962 F400.000
G1 X-0.859 Y-0.505 Z-0.979 F400.000
G1 X-0.745 Y-0.661 Z-0.996 F400.000
G1 X-0.601 Y-0.792 Z-1.014 F400.000
G1 X-0.435 Y-0.893 Z-1.031 F400.000
G1 X-0.253 Y-0.959 Z-1.048 F400.000
G1 X-0.061 Y-0.989 Z-1.065 F400.000
G1 X0.133 Y-0.980 Z-1.082 F400.000
G1 X0.321 Y-0.934 Z-1.099 F400.000
G1 X0.497 Y-0.852 Z-1.117 F400.000
G1 X0.653 Y-0.737 Z-1.134 F400.000
G1 X0.785 Y-0.594 Z-1.151 F400.000
G1 X0.885 Y-0.428 Z-1.168 F400.000
G1 X0.952 Y-0.246 Z-1.185 F400.000
G1 X0.981 Y-0.054 Z-1.202 F400.000
G1 X0.973 Y0.140 Z-1.220 F400.000
G1 X0.926 Y0.329 Z-1.237 F400.000
G1 X0.844 Y0.505 Z-1.254 F400.000
G1 X0.729 Y0.661 Z-1.271 F400.000
G1 X0.586 Y0.792 Z-1.288 F400.000
G1 X0.420 Y0.893 Z-1.306 F400.000
G1 X0.238 Y0.959 Z-1.323 F400.000
G1 X0.046 Y0.989 Z-1.340 F400.000
G1 X-0.148 Y0.980 Z-1.357 F400.000
G1 X-0.336 Y0.934 Z-1.374 F400.000
G1 X-0.512 Y0.852 Z-1.391 F400.000
G1 X-0.669 Y0.737 Z-1.409 F400.000
G1 X-0.800 Y0.594 Z-1.426 F400.000
G1 X-0.900 Y0.428 Z-1.443 F400.000
G1 X-0.967 Y0.246 Z-1.460 F400.000
G1 X-0.996 Y0.054 Z-1.477 F400.000
G1 X-0.988 Y-0.140 Z-1.495 F400.000
G1 X-0.941 Y-0.329 Z-1.512 F400.000
G1 X-0.859 Y-0.505 Z-1.529 F400.000
G1 X-0.745 Y-0.661 Z-1.546 F400.000
G1 X-0.601 Y-0.792 Z-1.563 F400.000
G1 X-0.435 Y-0.893 Z-1.580 F400.000
G1 X-0.253 Y-0.959 Z-1.598 F400.000
G1 X-0.061 Y-0.989 Z-1.615 F400.000
G1 X0.133 Y-0.980 Z-1.632 F400.000
G1 X0.321 Y-0.934 Z-1.649 F400.000
G1 X0.497 Y-0.852 Z-1.666 F400.000
G1 X0.653 Y-0.737 Z-1.683 F400.000
G1 X0.785 Y-0.594 Z-1.701 F400.000
G1 X0.885 Y-0.428 Z-1.718 F400.000
G1 X0.952 Y-0.246 Z-1.735 F400.000
G1 X0.981 Y-0.054 Z-1.752 F400.000
G1 X0.973 Y0.140 Z-1.769 F400.000
G1 X0.926 Y0.329 Z-1.787 F400.000
G1 X0.844 Y0.505 Z-1.804 F400.000
G1 X0.729 Y0.661 Z-1.821 F400.000
G1 X0.586 Y0.792 Z-1.838 F400.000
G1 X0.420 Y0.893 Z-1.855 F400.000
G1 X0.238 Y0.959 Z-1.872 F400.000
G1 X0.046 Y0.989 Z-1.890 F400.000
G1 X-0.148 Y0.980 Z-1.907 F400.000
G1 X-0.336 Y0.934 Z-1.924 F400.000
G1 X-0.512 Y0.852 Z-1.941 F400.000
G1 X-0.669 Y0.737 Z-1.958 F400.000
G1 X-0.800 Y0.594 Z-1.976 F400.000
G1 X-0.900 Y0.428 Z-1.993 F400.000
G1 X-0.967 Y0.246 Z-2.010 F400.000
G1 X-0.996 Y0.054 Z-2.027 F400.000
G1 X-0.988 Y-0.140 Z-2.044 F400.000
G1 X-0.941 Y-0.329 Z-2.061 F400.000
G1 X-0.859 Y-0.505 Z-2.079 F400.000
G1 X-0.745 Y-0.661 Z-2.096 F400.000
G1 X-0.601 Y-0.792 Z-2.113 F400.000
G1 X-0.435 Y-0.893 Z-2.130 F400.000
G1 X-0.253 Y-0.959 Z-2.147 F400.000
G1 X-0.061 Y-0.989 Z-2.164 F400.000
G1 X0.133 Y-0.980 Z-2.182 F400.000
G1 X0.321 Y-0.934 Z-2.199 F400.000
G1 X0.497 Y-0.852 Z-2.216 F400.000
G1 X0.653 Y-0.737 Z-2.233 F400.000
G1 X0.785 Y-0.594 Z-2.250 F400.000
G1 X0.885 Y-0.428 Z-2.268 F400.000
G1 X0.952 Y-0.246 Z-2.285 F400.000
G1 X0.981 Y-0.054 Z-2.302 F400.000
G1 X0.973 Y0.140 Z-2.319 F400.000
G1 X0.926 Y0.329 Z-2.336 F400.000
G1 X0.844 Y0.505 Z-2.353 F400.000
G1 X0.729 Y0.661 Z-2.371 F400.000
G1 X0.586 Y0.792 Z-2.388 F400.000
G1 X0.420 Y0.893 Z-2.405 F400.000
G1 X0.238 Y0.959 Z-2.422 F400.000
G1 X0.046 Y0.989 Z-2.439 F400.000
G1 X-0.148 Y0.980 Z-2.457 F400.000
G1 X-0.336 Y0.934 Z-2.474 F400.000
G1 X-0.512 Y0.852 Z-2.491 F400.000
G1 X-0.669 Y0.737 Z-2.508 F400.000
G1 X-0.800 Y0.594 Z-2.525 F400.000
G1 X-0.900 Y0.428 Z-2.542 F400.000
G1 X-0.967 Y0.246 Z-2.560 F400.000
G1 X-0.996 Y0.054 Z-2.577 F400.000
G1 X-0.988 Y-0.140 Z-2.594 F400.000
G1 X-0.941 Y-0.329 Z-2.611 F400.000
G1 X-0.859 Y-0.505 Z-2.628 F400.000
G1 X-0.745 Y-0.661 Z-2.645 F400.000
G1 X-0.601 Y-0.792 Z-2.663 F400.000
G1 X-0.435 Y-0.893 Z-2.680 F400.000
G1 X-0.253 Y-0.959 Z-2.697 F400.000
G1 X-0.061 Y-0.989 Z-2.714 F400.000
G1 X0.133 Y-0.980 Z-2.731 F400.000
G1 X0.321 Y-0.934 Z-2.749 F400.000
G1 X0.497 Y-0.852 Z-2.766 F400.000
G1 X0.653 Y-0.737 Z-2.783 F400.000
G1 X0.785 Y-0.594 Z-2.800 F400.000
G1 X0.885 Y-0.428 Z-2.817 F400.000
G1 X0.952 Y-0.246 Z-2.834 F400.000
G1 X0.981 Y-0.054 Z-2.852 F400.000
G1 X0.973 Y0.140 Z-2.869 F400.000
G1 X0.926 Y0.329 Z-2.886 F400.000
G1 X0.844 Y0.505 Z-2.903 F400.000
G1 X0.729 Y0.661 Z-2.920 F400.000
G1 X0.586 Y0.792 Z-2.937 F400.000
G1 X0.420 Y0.893 Z-2.955 F400.000
G1 X0.238 Y0.959 Z-2.972 F400.000
G1 X0.046 Y0.989 Z-2.989 F400.000
G1 X-0.148 Y0.980 Z-3.006 F400.000
G1 X-0.336 Y0.934 Z-3.023 F400.000
G1 X-0.512 Y0.852 Z-3.041 F400.000
G1 X-0.669 Y0.737 Z-3.058 F400.000
G1 X-0.800 Y0.594 Z-3.075 F400.000
G1 X-0.900 Y0.428 Z-3.092 F400.000
G1 X-0.967 Y0.246 Z-3.109 F400.000
G1 X-0.996 Y0.054 Z-3.126 F400.000
G1 X-0.988 Y-0.140 Z-3.144 F400.000
G1 X-0.941 Y-0.329 Z-3.161 F400.000
G1 X-0.859 Y-0.505 Z-3.178 F400.000
G1 X-0.745 Y-0.661 Z-3.195 F400.000
G1 X-0.601 Y-0.792 Z-3.212 F400.000
G1 X-0.435 Y-0.893 Z-3.230 F400.000
G1 X-0.253 Y-0.959 Z-3.247 F400.000
G1 X-0.061 Y-0.989 Z-3.264 F400.000
G1 X0.133 Y-0.980 Z-3.281 F400.000
G1 X0.321 Y-0.934 Z-3.298 F400.000
G1 X0.497 Y-0.852 Z-3.315 F400.000
G1 X0.653 Y-0.737 Z-3.333 F400.000
G1 X0.785 Y-0.594 Z-3.350 F400.000
G1 X0.885 Y-0.428 Z-3.367 F400.000
G1 X0.952 Y-0.246 Z-3.384 F400.000
G1 X0.981 Y-0.054 Z-3.401 F400.000
G1 X0.973 Y0.140 Z-3.418 F400.000
G1 X0.926 Y0.329 Z-3.436 F400.000
G1 X0.844 Y0.505 Z-3.453 F400.000
G1 X0.729 Y0.661 Z-3.470 F400.000
G1 X0.586 Y0.792 Z-3.487 F400.000
G1 X0.420 Y0.893 Z-3.504 F400.000
G1 X0.238 Y0.959 Z-3.522 F400.000
G1 X0.046 Y0.989 Z-3.539 F400.000
G1 X-0.148 Y0.980 Z-3.556 F400.000
G1 X-0.336 Y0.934 Z-3.573 F400.000
G1 X-0.512 Y0.852 Z-3.590 F400.000
G1 X-0.669 Y0.737 Z-3.607 F400.000
G1 X-0.800 Y0.594 Z-3.625 F400.000
G1 X-0.900 Y0.428 Z-3.642 F400.000
G1 X-0.967 Y0.246 Z-3.659 F400.000
G1 X-0.996 Y0.054 Z-3.676 F400.000
G1 X-0.988 Y-0.140 Z-3.693 F400.000
G1 X-0.941 Y-0.329 Z-3.711 F400.000
G1 X-0.859 Y-0.505 Z-3.728 F400.000
G1 X-0.745 Y-0.661 Z-3.745 F400.000
G1 X-0.601 Y-0.792 Z-3.762 F400.000
G1 X-0.435 Y-0.893 Z-3.779 F400.000
G1 X-0.253 Y-0.959 Z-3.796 F400.000
G1 X-0.061 Y-0.989 Z-3.814 F400.000
G1 X0.133 Y-0.980 Z-3.831 F400.000
G1 X0.321 Y-0.934 Z-3.848 F400.000
G1 X0.497 Y-0.852 Z-3.865 F400.000
G1 X0.653 Y-0.737 Z-3.882 F400.000
G1 X0.785 Y-0.594 Z-3.899 F400.000
G1 X0.885 Y-0.428 Z-3.917 F400.000
G1 X0.952 Y-0.246 Z-3.934 F400.000
G1 X0.981 Y-0.054 Z-3.951 F400.000
G1 X0.973 Y0.140 Z-3.968 F400.000
G1 X0.926 Y0.329 Z-3.985 F400.000
G1 X0.844 Y0.505 Z-4.003 F400.000
G1 X0.729 Y0.661 Z-4.020 F400.000
G1 X0.586 Y0.792 Z-4.037 F400.000
G1 X0.420 Y0.893 Z-4.054 F400.000
G1 X0.238 Y0.959 Z-4.071 F400.000
G1 X0.046 Y0.989 Z-4.088 F400.000
G1 X-0.148 Y0.980 Z-4.106 F400.000
G1 X-0.336 Y0.934 Z-4.123 F400.000
G1 X-0.512 Y0.852 Z-4.140 F400.000
G1 X-0.669 Y0.737 Z-4.157 F400.000
G1 X-0.800 Y0.594 Z-4.174 F400.000
G1 X-0.900 Y0.428 Z-4.192 F400.000
G1 X-0.967 Y0.246 Z-4.209 F400.000
G1 X-0.996 Y0.054 Z-4.226 F400.000
G1 X-0.988 Y-0.140 Z-4.243 F400.000
G1 X-0.941 Y-0.329 Z-4.260 F400.000
G1 X-0.859 Y-0.505 Z-4.277 F400.000
G1 X-0.745 Y-0.661 Z-4.295 F400.000
G1 X-0.601 Y-0.792 Z-4.312 F400.000
G1 X-0.435 Y-0.893 Z-4.329 F400.000
G1 X-0.253 Y-0.959 Z-4.346 F400.000
G1 X-0.061 Y-0.989 Z-4.363 F400.000
G1 X0.133 Y-0.980 Z-4.380 F400.000
G1 X0.321 Y-0.934 Z-4.398 F400.000
G1 X0.497 Y-0.852 Z-4.415 F400.000
G1 X0.653 Y-0.737 Z-4.432 F400.000
G1 X0.785 Y-0.594 Z-4.449 F400.000
G1 X0.885 Y-0.428 Z-4.466 F400.000
G1 X0.952 Y-0.246 Z-4.484 F400.000
G1 X0.981 Y-0.054 Z-4.501 F400.000
G1 X0.973 Y0.140 Z-4.518 F400.000
G1 X0.926 Y0.329 Z-4.535 F400.000
G1 X0.844 Y0.505 Z-4.552 F400.000
G1 X0.729 Y0.661 Z-4.569 F400.000
G1 X0.586 Y0.792 Z-4.587 F400.000
G1 X0.420 Y0.893 Z-4.604 F400.000
G1 X0.238 Y0.959 Z-4.621 F400.000
G1 X0.046 Y0.989 Z-4.638 F400.000
G1 X-0.148 Y0.980 Z-4.655 F400.000
G1 X-0.336 Y0.934 Z-4.673 F400.000
G1 X-0.512 Y0.852 Z-4.690 F400.000
G1 X-0.669 Y0.737 Z-4.707 F400.000
G1 X-0.800 Y0.594 Z-4.724 F400.000
G1 X-0.900 Y0.428 Z-4.741 F400.000
G1 X-0.967 Y0.246 Z-4.758 F400.000
G1 X-0.996 Y0.054 Z-4.776 F400.000
G1 X-0.988 Y-0.140 Z-4.793 F400.000
G1 X-0.941 Y-0.329 Z-4.810 F400.000
G1 X-0.859 Y-0.505 Z-4.827 F400.000
G1 X-0.745 Y-0.661 Z-4.844 F400.000
G1 X-0.601 Y-0.792 Z-4.861 F400.000
G1 X-0.435 Y-0.893 Z-4.879 F400.000
G1 X-0.253 Y-0.959 Z-4.896 F400.000
G1 X-0.061 Y-0.989 Z-4.913 F400.000
G1 X0.133 Y-0.980 Z-4.930 F400.000
G1 X0.321 Y-0.934 Z-4.947 F400.000
G1 X0.497 Y-0.852 Z-4.965 F400.000
G1 X0.653 Y-0.737 Z-4.982 F400.000
G1 X0.785 Y-0.594 Z-4.999 F400.000
G1 X0.885 Y-0.428 Z-5.016 F400.000
G1 X0.952 Y-0.246 Z-5.033 F400.000
G1 X0.981 Y-0.054 Z-5.050 F400.000
G1 X0.973 Y0.140 Z-5.068 F400.000
G1 X0.926 Y0.329 Z-5.085 F400.000
G1 X0.844 Y0.505 Z-5.102 F400.000
G1 X0.729 Y0.661 Z-5.119 F400.000
G1 X0.586 Y0.792 Z-5.136 F400.000
G1 X0.420 Y0.893 Z-5.154 F400.000
G1 X0.238 Y0.959 Z-5.171 F400.000
G1 X0.046 Y0.989 Z-5.188 F400.000
G1 X-0.148 Y0.980 Z-5.205 F400.000
G1 X-0.336 Y0.934 Z-5.222 F400.000
G1 X-0.512 Y0.852 Z-5.239 F400.000
G1 X-0.669 Y0.737 Z-5.257 F400.000
G1 X-0.800 Y0.594 Z-5.274 F400.000
G1 X-0.900 Y0.428 Z-5.291 F400.000
G1 X-0.967 Y0.246 Z-5.308 F400.000
G1 X-0.996 Y0.054 Z-5.325 F400.000
G1 X-0.988 Y-0.140 Z-5.342 F400.000
G1 X-0.941 Y-0.329 Z-5.360 F400.000
G1 X-0.859 Y-0.505 Z-5.377 F400.000
G1 X-0.745 Y-0.661 Z-5.394 F400.000
G1 X-0.601 Y-0.792 Z-5.411 F400.000
G1 X-0.435 Y-0.893 Z-5.428 F400.000
G1 X-0.253 Y-0.959 Z-5.446 F400.000
G1 X-0.061 Y-0.989 Z-5.463 F400.000
G1 X0.133 Y-0.980 Z-5.480 F400.000
G1 X0.321 Y-0.934 Z-5.497 F400.000
G1 X0.497 Y-0.852 Z-5.514 F400.000
G1 X0.653 Y-0.737 Z-5.531 F400.000
G1 X0.785 Y-0.594 Z-5.549 F400.000
G1 X0.885 Y-0.428 Z-5.566 F400.000
G1 X0.952 Y-0.246 Z-5.583 F400.000
G1 X0.981 Y-0.054 Z-5.600 F400.000
G1 X0.973 Y0.140 Z-5.617 F400.000
G1 X0.926 Y0.329 Z-5.635 F400.000
G1 X0.844 Y0.505 Z-5.652 F400.000
G1 X0.729 Y0.661 Z-5.669 F400.000
G1 X0.586 Y0.792 Z-5.686 F400.000
G1 X0.420 Y0.893 Z-5.703 F400.000
G1 X0.238 Y0.959 Z-5.720 F400.000
G1 X0.046 Y0.989 Z-5.738 F400.000
G1 X-0.148 Y0.980 Z-5.755 F400.000
G1 X-0.336 Y0.934 Z-5.772 F400.000
G1 X-0.512 Y0.852 Z-5.789 F400.000
G1 X-0.669 Y0.737 Z-5.806 F400.000
G1 X-0.800 Y0.594 Z-5.823 F400.000
G1 X-0.900 Y0.428 Z-5.841 F400.000
G1 X-0.967 Y0.246 Z-5.858 F400.000
G1 X-0.996 Y0.054 Z-5.875 F400.000
G1 X-0.988 Y-0.140 Z-5.892 F400.000
G1 X-0.941 Y-0.329 Z-5.909 F400.000
G1 X-0.859 Y-0.505 Z-5.927 F400.000
G1 X-0.745 Y-0.661 Z-5.944 F400.000
G1 X-0.601 Y-0.792 Z-5.961 F400.000
G1 X-0.435 Y-0.893 Z-5.978 F400.000
G1 X-0.253 Y-0.959 Z-5.995 F400.000
G1 X-0.061 Y-0.989 Z-6.000 F400.000
G1 X0.133 Y-0.980 Z-6.000 F400.000
G1 X0.321 Y-0.934 Z-6.000 F400.000
G1 X0.497 Y-0.852 Z-6.000 F400.000
G1 X0.653 Y-0.737 Z-6.000 F400.000
G1 X0.785 Y-0.594 Z-6.000 F400.000
G1 X0.885 Y-0.428 Z-6.000 F400.000
G1 X0.952 Y-0.246 Z-6.000 F400.000
G1 X0.981 Y-0.054 Z-6.000 F400.000
G1 X0.973 Y0.140 Z-6.000 F400.000
G1 X0.926 Y0.329 Z-6.000 F400.000
G1 X0.844 Y0.505 Z-6.000 F400.000
G1 X0.729 Y0.661 Z-6.000 F400.000
G1 X0.586 Y0.792 Z-6.000 F400.000
G1 X0.420 Y0.893 Z-6.000 F400.000
G1 X0.238 Y0.959 Z-6.000 F400.000
G1 X0.046 Y0.989 Z-6.000 F400.000
G1 X-0.148 Y0.980 Z-6.000 F400.000
G1 X-0.336 Y0.934 Z-6.000 F400.000
G1 X-0.512 Y0.852 Z-6.000 F400.000
G1 X-0.669 Y0.737 Z-6.000 F400.000
G1 X-0.800 Y0.594 Z-6.000 F400.000
G1 X-0.900 Y0.428 Z-6.000 F400.000
G1 X-0.967 Y0.246 Z-6.000 F400.000
G1 X-0.996 Y0.054 Z-6.000 F400.000
G1 X-0.988 Y-0.140 Z-6.000 F400.000
G1 X-0.941 Y-0.329 Z-6.000 F400.000
G1 X-0.859 Y-0.505 Z-6.000 F400.000
G1 X-0.745 Y-0.661 Z-6.000 F400.000
G1 X-0.601 Y-0.792 Z-6.000 F400.000
G1 X-0.435 Y-0.893 Z-6.000 F400.000
G1 X-0.253 Y-0.959 Z-6.000 F400.000
(Adaptive - depth: -6.000000)
G1 X-0.008 Y-1.000 F400.000
G1 X0.034 Y-1.041 F400.000
G1 X0.143 Y-1.079 F400.000
G1 X0.312 Y-1.090 F400.000
G1 X0.481 Y-1.056 F400.000
G1 X0.816 Y-0.898 F400.000
G1 X0.966 Y-0.752 F400.000
G1 X1.038 Y-0.654 F400.000
G1 X1.102 Y-0.541 F400.000
G1 X1.173 Y-0.372 F400.000
G1 X1.229 Y-0.147 F400.000
G1 X1.241 Y0.064 F400.000
G1 X1.222 Y0.241 F400.000
G1 X1.177 Y0.414 F400.000
G1 X1.105 Y0.586 F400.000
G1 X1.000 Y0.756 F400.000
G1 X0.876 Y0.898 F400.000
G1 X0.729 Y1.023 F400.000
G1 X0.560 Y1.124 F400.000
G1 X0.383 Y1.199 F400.000
G1 X0.195 Y1.244 F400.000
G1 X0.004 Y1.263 F400.000
G1 X-0.184 Y1.252 F400.000
G1 X-0.368 Y1.211 F400.000
G1 X-0.549 Y1.147 F400.000
G1 X-0.741 Y1.041 F400.000
G1 X-0.895 Y0.914 F400.000
G1 X-1.011 Y0.786 F400.000
G1 X-1.120 Y0.620 F400.000
G1 X-1.195 Y0.447 F400.000
G1 X-1.248 Y0.267 F400.000
G1 X-1.271 Y0.075 F400.000
G1 X-1.267 Y-0.109 F400.000
G1 X-1.229 Y-0.316 F400.000
G1 X-1.165 Y-0.500 F400.000
G1 X-1.075 Y-0.677 F400.000
G1 X-0.959 Y-0.838 F400.000
G1 X-0.816 Y-0.977 F400.000
G1 X-0.665 Y-1.090 F400.000
G1 X-0.485 Y-1.199 F400.000
G1 X-0.256 Y-1.305 F400.000
G1 X0.154 Y-1.361 F400.000
G1 X0.323 Y-1.357 F400.000
G1 X0.688 Y-1.282 F400.000
G1 X0.940 Y-1.143 F400.000
G1 X1.143 Y-0.955 F400.000
G1 X1.263 Y-0.801 F400.000
G1 X1.387 Y-0.590 F400.000
G1 X1.477 Y-0.346 F400.000
G1 X1.511 Y-0.154 F400.000
G1 X1.523 Y0.015 F400.000
G1 X1.515 Y0.214 F400.000
G1 X1.466 Y0.470 F400.000
G1 X1.383 Y0.680 F400.000
G1 X1.293 Y0.842 F400.000
G1 X1.180 Y0.996 F400.000
G1 X1.026 Y1.162 F400.000
G1 X0.842 Y1.305 F400.000
G1 X0.654 Y1.410 F400.000
G1 X0.466 Y1.489 F400.000
G1 X0.252 Y1.541 F400.000
G1 X0.041 Y1.564 F400.000
G1 X-0.165 Y1.556 F400.000
G1 X-0.376 Y1.523 F400.000
G1 X-0.594 Y1.455 F400.000
G1 X-0.789 Y1.361 F400.000
G1 X-0.974 Y1.244 F400.000
G1 X-1.135 Y1.094 F400.000
G1 X-1.259 Y0.947 F400.000
G1 X-1.372 Y0.767 F400.000
G1 X-1.462 Y0.579 F400.000
G1 X-1.538 Y0.342 F400.000
G1 X-1.568 Y0.120 F400.000
G1 X-1.571 Y-0.071 F400.000
G1 X-1.549 Y-0.286 F400.000
G1 X-1.489 Y-0.511 F400.000
G1 X-1.410 Y-0.711 F400.000
G1 X-1.301 Y-0.902 F400.000
G1 X-1.165 Y-1.075 F400.000
G1 X-1.011 Y-1.229 F400.000
G1 X-0.838 Y-1.368 F400.000
G1 X-0.620 Y-1.496 F400.000
G1 X-0.410 Y-1.586 F400.000
G1 X-0.184 Y-1.647 F400.000
G1 X0.026 Y-1.677 F400.000
G1 X0.248 Y-1.684 F400.000
G1 X0.504 Y-1.654 F400.000
G1 X0.726 Y-1.590 F400.000
G1 X0.910 Y-1.515 F400.000
G1 X1.105 Y-1.398 F400.000
G1 X1.274 Y-1.263 F400.000
G1 X1.425 Y-1.109 F400.000
G1 X1.556 Y-0.929 F400.000
G1 X1.662 Y-0.737 F400.000
G1 X1.744 Y-0.534 F400.000
G1 X1.808 Y-0.301 F400.000
G1 X1.842 Y-0.045 F400.000
G1 X1.846 Y0.188 F400.000
G1 X1.808 Y0.429 F400.000
G1 X1.756 Y0.617 F400.000
G1 X1.673 Y0.823 F400.000
G1 X1.553 Y1.041 F400.000
G1 X1.402 Y1.248 F400.000
G1 X1.229 Y1.421 F400.000
G1 X1.068 Y1.549 F400.000
G1 X0.865 Y1.669 F400.000
G1 X0.658 Y1.763 F400.000
G1 X0.410 Y1.838 F400.000
G1 X0.177 Y1.880 F400.000
G1 X-0.060 Y1.895 F400.000
G1 X-0.301 Y1.876 F400.000
G1 X-0.534 Y1.831 F400.000
G1 X-0.759 Y1.756 F400.000
G1 X-0.974 Y1.643 F400.000
G1 X-1.143 Y1.526 F400.000
G1 X-1.320 Y1.380 F400.000
G1 X-1.489 Y1.188 F400.000
G1 X-1.620 Y1.000 F400.000
G1 X-1.729 Y0.789 F400.000
G1 X-1.816 Y0.564 F400.000
G1 X-1.876 Y0.316 F400.000
G1 X-1.898 Y0.071 F400.000
G1 X-1.895 Y-0.143 F400.000
G1 X-1.865 Y-0.376 F400.000
G1 X-1.805 Y-0.620 F400.000
G1 X-1.711 Y-0.868 F400.000
G1 X-1.586 Y-1.086 F400.000
G1 X-1.459 Y-1.263 F400.000
G1 X-1.289 Y-1.440 F400.000
G1 X-1.109 Y-1.594 F400.000
G1 X-0.880 Y-1.744 F400.000
G1 X-0.658 Y-1.857 F400.000
G1 X-0.421 Y-1.947 F400.000
G1 X-0.169 Y-2.008 F400.000
G1 X0.079 Y-2.030 F400.000
G1 X0.301 Y-2.026 F400.000
G1 X0.541 Y-1.996 F400.000
G1 X0.797 Y-1.929 F400.000
G1 X1.023 Y-1.838 F400.000
G1 X1.241 Y-1.714 F400.000
G1 X1.417 Y-1.583 F400.000
G1 X1.594 Y-1.425 F400.000
G1 X1.767 Y-1.218 F400.000
G1 X1.898 Y-1.015 F400.000
G1 X2.011 Y-0.793 F400.000
G1 X2.098 Y-0.556 F400.000
G1 X2.154 Y-0.312 F400.000
G1 X2.188 Y-0.060 F400.000
G1 X2.188 Y0.211 F400.000
G1 X2.162 Y0.462 F400.000
G1 X2.094 Y0.711 F400.000
G1 X2.015 Y0.921 F400.000
G1 X1.902 Y1.143 F400.000
G1 X1.756 Y1.368 F400.000
G1 X1.579 Y1.579 F400.000
G1 X1.383 Y1.756 F400.000
G1 X1.195 Y1.891 F400.000
G1 X0.970 Y2.015 F400.000
G1 X0.741 Y2.113 F400.000
G1 X0.474 Y2.192 F400.000
G1 X0.218 Y2.237 F400.000
G1 X-0.038 Y2.252 F400.000
G1 X-0.301 Y2.237 F400.000
G1 X-0.560 Y2.192 F400.000
G1 X-0.812 Y2.120 F400.000
G1 X-1.053 Y2.019 F400.000
G1 X-1.274 Y1.880 F400.000
G1 X-1.444 Y1.748 F400.000
G1 X-1.620 Y1.579 F400.000
G1 X-1.789 Y1.376 F400.000
G1 X-1.947 Y1.132 F400.000
G1 X-2.068 Y0.898 F400.000
G1 X-2.165 Y0.647 F400.000
G1 X-2.233 Y0.380 F400.000
G1 X-2.259 Y0.109 F400.000
G1 X-2.259 Y-0.109 F400.000
G1 X-2.237 Y-0.361 F400.000
G1 X-2.177 Y-0.635 F400.000
G1 X-2.090 Y-0.898 F400.000
G1 X-1.977 Y-1.143 F400.000
G1 X-1.835 Y-1.380 F400.000
G1 X-1.658 Y-1.590 F400.000
G1 X-1.504 Y-1.744 F400.000
G1 X-1.308 Y-1.906 F400.000
G1 X-1.071 Y-2.064 F400.000
G1 X-0.793 Y-2.207 F400.000
G1 X-0.526 Y-2.297 F400.000
G1 X-0.297 Y-2.353 F400.000
G1 X-0.026 Y-2.387 F400.000
G1 X0.229 Y-2.395 F400.000
G1 X0.515 Y-2.368 F400.000
G1 X0.782 Y-2.316 F400.000
G1 X1.041 Y-2.233 F400.000
G1 X1.293 Y-2.120 F400.000
G1 X1.523 Y-1.970 F400.000
G1 X1.692 Y-1.835 F400.000
G1 X1.872 Y-1.658 F400.000
G1 X2.053 Y-1.447 F400.000
G1 X2.226 Y-1.188 F400.000
G1 X2.350 Y-0.936 F400.000
G1 X2.440 Y-0.703 F400.000
G1 X2.511 Y-0.432 F400.000
G1 X2.549 Y-0.165 F400.000
G1 X2.564 Y0.094 F400.000
G1 X2.545 Y0.391 F400.000
G1 X2.496 Y0.665 F400.000
G1 X2.414 Y0.932 F400.000
G1 X2.316 Y1.158 F400.000
G1 X2.188 Y1.391 F400.000
G1 X2.019 Y1.635 F400.000
G1 X1.827 Y1.861 F400.000
G1 X1.609 Y2.049 F400.000
G1 X1.421 Y2.184 F400.000
G1 X1.188 Y2.323 F400.000
G1 X0.914 Y2.451 F400.000
G1 X0.617 Y2.553 F400.000
G1 X0.327 Y2.605 F400.000
G1 X0.094 Y2.628 F400.000
G1 X-0.177 Y2.628 F400.000
G1 X-0.477 Y2.598 F400.000
G1 X-0.771 Y2.538 F400.000
G1 X-1.045 Y2.436 F400.000
G1 X-1.259 Y2.335 F400.000
G1 X-1.492 Y2.188 F400.000
G1 X-1.703 Y2.023 F400.000
G1 X-1.910 Y1.823 F400.000
G1 X-2.086 Y1.613 F400.000
G1 X-2.244 Y1.387 F400.000
G1 X-2.395 Y1.109 F400.000
G1 X-2.508 Y0.842 F400.000
G1 X-2.583 Y0.556 F400.000
G1 X-2.624 Y0.312 F400.000
G1 X-2.639 Y0.038 F400.000
G1 X-2.632 Y-0.226 F400.000
G1 X-2.586 Y-0.549 F400.000
G1 X-2.523 Y-0.831 F400.000
G1 X-2.406 Y-1.132 F400.000
G1 X-2.293 Y-1.361 F400.000
G1 X-2.143 Y-1.602 F400.000
G1 X-1.962 Y-1.823 F400.000
G1 X-1.771 Y-2.019 F400.000
G1 X-1.556 Y-2.203 F400.000
G1 X-1.289 Y-2.383 F400.000
G1 X-1.034 Y-2.523 F400.000
G1 X-0.759 Y-2.639 F400.000
G1 X-0.462 Y-2.718 F400.000
G1 X-0.218 Y-2.763 F400.000
G1 X0.060 Y-2.782 F400.000
G1 X0.331 Y-2.778 F400.000
G1 X0.658 Y-2.744 F400.000
G1 X0.981 Y-2.662 F400.000
G1 X1.218 Y-2.571 F400.000
G1 X1.447 Y-2.459 F400.000
G1 X1.684 Y-2.316 F400.000
G1 X1.936 Y-2.128 F400.000
G1 X2.169 Y-1.914 F400.000
G1 X2.365 Y-1.684 F400.000
G1 X2.515 Y-1.470 F400.000
G1 X2.658 Y-1.214 F400.000
G1 X2.767 Y-0.951 F400.000
G1 X2.850 Y-0.680 F400.000
G1 X2.914 Y-0.398 F400.000
G1 X2.947 Y-0.068 F400.000
G1 X2.951 Y0.226 F400.000
G1 X2.917 Y0.526 F400.000
G1 X2.861 Y0.786 F400.000
G1 X2.778 Y1.060 F400.000
G1 X2.650 Y1.353 F400.000
G1 X2.511 Y1.605 F400.000
G1 X2.342 Y1.853 F400.000
G1 X2.147 Y2.086 F400.000
G1 X1.932 Y2.293 F400.000
G1 X1.695 Y2.481 F400.000
G1 X1.440 Y2.643 F400.000
G1 X1.169 Y2.778 F400.000
G1 X0.887 Y2.887 F400.000
G1 X0.598 Y2.966 F400.000
G1 X0.301 Y3.019 F400.000
G1 X0.000 Y3.041 F400.000
G1 X-0.297 Y3.034 F400.000
G1 X-0.594 Y2.996 F400.000
G1 X-0.887 Y2.929 F400.000
G1 X-1.169 Y2.831 F400.000
G1 X-1.436 Y2.695 F400.000
G1 X-1.647 Y2.564 F400.000
G1 X-1.872 Y2.398 F400.000
G1 X-2.117 Y2.180 F400.000
G1 X-2.350 Y1.925 F400.000
G1 X-2.534 Y1.669 F400.000
G1 X-2.677 Y1.432 F400.000
G1 X-2.808 Y1.150 F400.000
G1 X-2.906 Y0.868 F400.000
G1 X-2.974 Y0.583 F400.000
G1 X-3.015 Y0.282 F400.000
G1 X-3.034 Y-0.011 F400.000
G1 X-3.019 Y-0.357 F400.000
G1 X-2.977 Y-0.665 F400.000
G1 X-2.895 Y-0.974 F400.000
G1 X-2.801 Y-1.226 F400.000
G1 X-2.669 Y-1.496 F400.000
G1 X-2.519 Y-1.748 F400.000
G1 X-2.327 Y-2.008 F400.000
G1 X-2.120 Y-2.233 F400.000
G1 X-1.891 Y-2.440 F400.000
G1 X-1.639 Y-2.628 F400.000
G1 X-1.380 Y-2.793 F400.000
G1 X-1.056 Y-2.955 F400.000
G1 X-0.748 Y-3.056 F400.000
G1 X-0.508 Y-3.120 F400.000
G1 X-0.207 Y-3.169 F400.000
G1 X0.117 Y-3.192 F400.000
G1 X0.440 Y-3.184 F400.000
G1 X0.756 Y-3.147 F400.000
G1 X1.071 Y-3.060 F400.000
G1 X1.305 Y-2.977 F400.000
G1 X1.571 Y-2.857 F400.000
G1 X1.857 Y-2.695 F400.000
G1 X2.135 Y-2.500 F400.000
G1 X2.380 Y-2.293 F400.000
G1 X2.602 Y-2.045 F400.000
G1 X2.759 Y-1.838 F400.000
G1 X2.917 Y-1.583 F400.000
G1 X3.049 Y-1.320 F400.000
G1 X3.177 Y-1.000 F400.000
G1 X3.274 Y-0.665 F400.000
G1 X3.327 Y-0.342 F400.000
G1 X3.350 Y-0.068 F400.000
G1 X3.353 Y0.241 F400.000
G1 X3.316 Y0.594 F400.000
G1 X3.259 Y0.898 F400.000
G1 X3.169 Y1.211 F400.000
G1 X3.041 Y1.515 F400.000
G1 X2.910 Y1.763 F400.000
G1 X2.741 Y2.023 F400.000
G1 X2.545 Y2.259 F400.000
G1 X2.338 Y2.477 F400.000
G1 X2.075 Y2.703 F400.000
G1 X1.816 Y2.887 F400.000
G1 X1.538 Y3.049 F400.000
G1 X1.244 Y3.192 F400.000
G1 X0.906 Y3.316 F400.000
G1 X0.579 Y3.391 F400.000
G1 X0.305 Y3.436 F400.000
G1 X-0.011 Y3.455 F400.000
G1 X-0.316 Y3.447 F400.000
G1 X-0.650 Y3.406 F400.000
G1 X-0.966 Y3.335 F400.000
G1 X-1.274 Y3.237 F400.000
G1 X-1.568 Y3.094 F400.000
G1 X-1.786 Y2.966 F400.000
G1 X-2.030 Y2.801 F400.000
G1 X-2.320 Y2.564 F400.000
G1 X-2.586 Y2.305 F400.000
G1 X-2.793 Y2.030 F400.000
G1 X-2.929 Y1.823 F400.000
G1 X-3.079 Y1.553 F400.000
G1 X-3.222 Y1.226 F400.000
G1 X-3.335 Y0.891 F400.000
G1 X-3.402 Y0.556 F400.000
G1 X-3.436 Y0.274 F400.000
G1 X-3.455 Y-0.045 F400.000
G1 X-3.432 Y-0.414 F400.000
G1 X-3.387 Y-0.729 F400.000
G1 X-3.305 Y-1.053 F400.000
G1 X-3.211 Y-1.320 F400.000
G1 X-3.083 Y-1.605 F400.000
G1 X-2.914 Y-1.910 F400.000
G1 X-2.714 Y-2.203 F400.000
G1 X-2.489 Y-2.455 F400.000
G1 X-2.289 Y-2.650 F400.000
G1 X-2.045 Y-2.857 F400.000
G1 X-1.741 Y-3.071 F400.000
G1 X-1.421 Y-3.256 F400.000
G1 X-1.090 Y-3.387 F400.000
G1 X-0.850 Y-3.466 F400.000
G1 X-0.541 Y-3.541 F400.000
G1 X-0.195 Y-3.594 F400.000
G1 X0.162 Y-3.617 F400.000
G1 X0.500 Y-3.609 F400.000
G1 X0.842 Y-3.553 F400.000
G1 X1.102 Y-3.492 F400.000
G1 X1.402 Y-3.395 F400.000
G1 X1.722 Y-3.259 F400.000
G1 X2.041 Y-3.090 F400.000
G1 X2.323 Y-2.895 F400.000
G1 X2.549 Y-2.714 F400.000
G1 X2.786 Y-2.481 F400.000
G1 X2.989 Y-2.233 F400.000
G1 X3.165 Y-1.977 F400.000
G1 X3.331 Y-1.703 F400.000
G1 X3.489 Y-1.365 F400.000
G1 X3.605 Y-1.045 F400.000
G1 X3.699 Y-0.711 F400.000
G1 X3.763 Y-0.357 F400.000
G1 X3.782 Y-0.011 F400.000
G1 X3.778 Y0.259 F400.000
G1 X3.752 Y0.575 F400.000
G1 X3.688 Y0.940 F400.000
G1 X3.594 Y1.297 F400.000
G1 X3.462 Y1.632 F400.000
G1 X3.323 Y1.891 F400.000
G1 X3.184 Y2.120 F400.000
G1 X2.977 Y2.402 F400.000
G1 X2.733 Y2.684 F400.000
G1 X2.459 Y2.936 F400.000
G1 X2.222 Y3.124 F400.000
G1 X1.932 Y3.316 F400.000
G1 X1.635 Y3.481 F400.000
G1 X1.293 Y3.635 F400.000
G1 X0.959 Y3.752 F400.000
G1 X0.609 Y3.827 F400.000
G1 X0.327 Y3.868 F400.000
G1 X0.000 Y3.883 F400.000
G1 X-0.316 Y3.876 F400.000
G1 X-0.684 Y3.831 F400.000
G1 X-1.015 Y3.759 F400.000
G1 X-1.346 Y3.662 F400.000
G1 X-1.673 Y3.530 F400.000
G1 X-1.974 Y3.361 F400.000
G1 X-2.203 Y3.211 F400.000
G1 X-2.455 Y3.015 F400.000
G1 X-2.729 Y2.767 F400.000
G1 X-2.981 Y2.492 F400.000
G1 X-3.195 Y2.207 F400.000
G1 X-3.361 Y1.951 F400.000
G1 X-3.519 Y1.643 F400.000
G1 X-3.643 Y1.331 F400.000
G1 X-3.737 Y1.015 F400.000
G1 X-3.812 Y0.688 F400.000
G1 X-3.861 Y0.316 F400.000
G1 X-3.880 Y-0.030 F400.000
G1 X-3.872 Y-0.383 F400.000
G1 X-3.831 Y-0.744 F400.000
G1 X-3.744 Y-1.090 F400.000
G1 X-3.662 Y-1.350 F400.000
G1 X-3.541 Y-1.654 F400.000
G1 X-3.376 Y-1.985 F400.000
G1 X-3.184 Y-2.301 F400.000
G1 X-2.959 Y-2.594 F400.000
G1 X-2.752 Y-2.823 F400.000
G1 X-2.496 Y-3.060 F400.000
G1 X-2.226 Y-3.271 F400.000
G1 X-1.944 Y-3.451 F400.000
G1 X-1.643 Y-3.620 F400.000
G1 X-1.301 Y-3.771 F400.000
G1 X-0.962 Y-3.887 F400.000
G1 X-0.609 Y-3.981 F400.000
G1 X-0.241 Y-4.045 F400.000
G1 X0.120 Y-4.060 F400.000
G1 X0.391 Y-4.053 F400.000
G1 X0.718 Y-4.019 F400.000
G1 X1.079 Y-3.951 F400.000
G1 X1.436 Y-3.853 F400.000
G1 X1.771 Y-3.722 F400.000
G1 X2.049 Y-3.590 F400.000
G1 X2.350 Y-3.410 F400.000
G1 X2.620 Y-3.211 F400.000
G1 X2.868 Y-2.992 F400.000
G1 X3.109 Y-2.756 F400.000
G1 X3.346 Y-2.470 F400.000
G1 X3.549 Y-2.180 F400.000
G1 X3.737 Y-1.868 F400.000
G1 X3.898 Y-1.534 F400.000
G1 X4.030 Y-1.192 F400.000
G1 X4.120 Y-0.838 F400.000
G1 X4.173 Y-0.545 F400.000
G1 X4.211 Y-0.207 F400.000
G1 X4.226 Y0.162 F400.000
G1 X4.207 Y0.530 F400.000
G1 X4.150 Y0.895 F400.000
G1 X4.079 Y1.207 F400.000
G1 X3.966 Y1.553 F400.000
G1 X3.827 Y1.876 F400.000
G1 X3.665 Y2.180 F400.000
G1 X3.474 Y2.477 F400.000
G1 X3.259 Y2.756 F400.000
G1 X3.023 Y3.015 F400.000
G1 X2.767 Y3.252 F400.000
G1 X2.496 Y3.474 F400.000
G1 X2.188 Y3.680 F400.000
G1 X1.868 Y3.857 F400.000
G1 X1.530 Y4.015 F400.000
G1 X1.180 Y4.143 F400.000
G1 X0.820 Y4.233 F400.000
G1 X0.511 Y4.286 F400.000
G1 X0.162 Y4.316 F400.000
G1 X-0.177 Y4.320 F400.000
G1 X-0.545 Y4.297 F400.000
G1 X-0.914 Y4.244 F400.000
G1 X-1.271 Y4.150 F400.000
G1 X-1.564 Y4.053 F400.000
G1 X-1.895 Y3.910 F400.000
G1 X-2.199 Y3.741 F400.000
G1 X-2.481 Y3.553 F400.000
G1 X-2.756 Y3.335 F400.000
G1 X-3.011 Y3.102 F400.000
G1 X-3.267 Y2.831 F400.000
G1 X-3.500 Y2.541 F400.000
G1 X-3.711 Y2.237 F400.000
G1 X-3.880 Y1.906 F400.000
G1 X-3.992 Y1.643 F400.000
G1 X-4.113 Y1.312 F400.000
G1 X-4.211 Y0.951 F400.000
G1 X-4.282 Y0.583 F400.000
G1 X-4.327 Y0.211 F400.000
G1 X-4.331 Y-0.158 F400.000
G1 X-4.312 Y-0.470 F400.000
G1 X-4.259 Y-0.835 F400.000
G1 X-4.177 Y-1.184 F400.000
G1 X-4.071 Y-1.511 F400.000
G1 X-3.944 Y-1.842 F400.000
G1 X-3.778 Y-2.173 F400.000
G1 X-3.586 Y-2.492 F400.000
G1 X-3.376 Y-2.797 F400.000
G1 X-3.128 Y-3.075 F400.000
G1 X-2.902 Y-3.297 F400.000
G1 X-2.624 Y-3.530 F400.000
G1 X-2.335 Y-3.737 F400.000
G1 X-2.015 Y-3.929 F400.000
G1 X-1.684 Y-4.090 F400.000
G1 X-1.338 Y-4.229 F400.000
G1 X-0.985 Y-4.346 F400.000
G1 X-0.620 Y-4.432 F400.000
G1 X-0.248 Y-4.481 F400.000
G1 X0.071 Y-4.504 F400.000
G1 X0.440 Y-4.496 F400.000
G1 X0.801 Y-4.459 F400.000
G1 X1.147 Y-4.395 F400.000
G1 X1.496 Y-4.297 F400.000
G1 X1.835 Y-4.173 F400.000
G1 X2.162 Y-4.023 F400.000
G1 X2.477 Y-3.850 F400.000
G1 X2.786 Y-3.643 F400.000
G1 X3.079 Y-3.414 F400.000
G1 X3.353 Y-3.162 F400.000
G1 X3.605 Y-2.887 F400.000
G1 X3.823 Y-2.586 F400.000
G1 X3.981 Y-2.338 F400.000
G1 X4.154 Y-2.034 F400.000
G1 X4.312 Y-1.695 F400.000
G1 X4.447 Y-1.346 F400.000
G1 X4.545 Y-0.985 F400.000
G1 X4.613 Y-0.658 F400.000
G1 X4.658 Y-0.286 F400.000
G1 X4.673 Y0.083 F400.000
G1 X4.662 Y0.447 F400.000
G1 X4.617 Y0.816 F400.000
G1 X4.545 Y1.180 F400.000
G1 X4.444 Y1.538 F400.000
G1 X4.316 Y1.883 F400.000
G1 X4.158 Y2.222 F400.000
G1 X3.974 Y2.545 F400.000
G1 X3.767 Y2.853 F400.000
G1 X3.534 Y3.143 F400.000
G1 X3.278 Y3.414 F400.000
G1 X3.004 Y3.665 F400.000
G1 X2.711 Y3.895 F400.000
G1 X2.398 Y4.098 F400.000
G1 X2.071 Y4.278 F400.000
G1 X1.729 Y4.429 F400.000
G1 X1.376 Y4.553 F400.000
G1 X1.015 Y4.650 F400.000
G1 X0.647 Y4.718 F400.000
G1 X0.274 Y4.756 F400.000
G1 X-0.094 Y4.774 F400.000
G1 X-0.462 Y4.759 F400.000
G1 X-0.831 Y4.718 F400.000
G1 X-1.195 Y4.650 F400.000
G1 X-1.549 Y4.541 F400.000
G1 X-1.842 Y4.432 F400.000
G1 X-2.177 Y4.274 F400.000
G1 X-2.492 Y4.094 F400.000
G1 X-2.801 Y3.883 F400.000
G1 X-3.090 Y3.650 F400.000
G1 X-3.361 Y3.395 F400.000
G1 X-3.617 Y3.124 F400.000
G1 X-3.850 Y2.831 F400.000
G1 X-4.060 Y2.523 F400.000
G1 X-4.237 Y2.195 F400.000
G1 X-4.368 Y1.902 F400.000
G1 X-4.508 Y1.556 F400.000
G1 X-4.620 Y1.199 F400.000
G1 X-4.707 Y0.835 F400.000
G1 X-4.756 Y0.462 F400.000
G1 X-4.782 Y0.113 F400.000
G1 X-4.778 Y-0.256 F400.000
G1 X-4.744 Y-0.624 F400.000
G1 X-4.684 Y-0.989 F400.000
G1 X-4.598 Y-1.350 F400.000
G1 X-4.481 Y-1.703 F400.000
G1 X-4.346 Y-2.049 F400.000
G1 X-4.180 Y-2.383 F400.000
G1 X-3.992 Y-2.703 F400.000
G1 X-3.786 Y-3.011 F400.000
G1 X-3.553 Y-3.301 F400.000
G1 X-3.293 Y-3.568 F400.000
G1 X-3.041 Y-3.797 F400.000
G1 X-2.744 Y-4.023 F400.000
G1 X-2.429 Y-4.222 F400.000
G1 X-2.105 Y-4.398 F400.000
G1 X-1.767 Y-4.556 F400.000
G1 X-1.421 Y-4.692 F400.000
G1 X-1.064 Y-4.801 F400.000
G1 X-0.699 Y-4.887 F400.000
G1 X-0.327 Y-4.932 F400.000
G1 X-0.004 Y-4.951 F400.000
G1 X0.365 Y-4.959 F400.000
G1 X0.733 Y-4.925 F400.000
G1 X1.102 Y-4.872 F400.000
G1 X1.462 Y-4.793 F400.000
G1 X1.816 Y-4.684 F400.000
G1 X2.158 Y-4.538 F400.000
G1 X2.455 Y-4.391 F400.000
G1 X2.778 Y-4.207 F400.000
G1 X3.083 Y-3.992 F400.000
G1 X3.372 Y-3.759 F400.000
G1 X3.643 Y-3.504 F400.000
G1 X3.898 Y-3.233 F400.000
G1 X4.132 Y-2.944 F400.000
G1 X4.346 Y-2.639 F400.000
G1 X4.538 Y-2.320 F400.000
G1 X4.707 Y-1.989 F400.000
G1 X4.842 Y-1.643 F400.000
G1 X4.951 Y-1.301 F400.000
G1 X5.038 Y-0.936 F400.000
G1 X5.094 Y-0.568 F400.000
G1 X5.124 Y-0.195 F400.000
G1 X5.135 Y0.173 F400.000
G1 X5.113 Y0.541 F400.000
G1 X5.068 Y0.910 F400.000
G1 X4.996 Y1.274 F400.000
G1 X4.898 Y1.632 F400.000
G1 X4.778 Y1.981 F400.000
G1 X4.632 Y2.323 F400.000
G1 X4.462 Y2.654 F400.000
G1 X4.271 Y2.970 F400.000
G1 X4.041 Y3.263 F400.000
G1 X3.835 Y3.500 F400.000
G1 X3.575 Y3.767 F400.000
G1 X3.301 Y4.015 F400.000
G1 X3.008 Y4.244 F400.000
G1 X2.699 Y4.455 F400.000
G1 X2.372 Y4.635 F400.000
G1 X2.038 Y4.797 F400.000
G1 X1.692 Y4.936 F400.000
G1 X1.335 Y5.045 F400.000
G1 X0.970 Y5.132 F400.000
G1 X0.602 Y5.192 F400.000
G1 X0.229 Y5.226 F400.000
G1 X-0.139 Y5.233 F400.000
G1 X-0.508 Y5.222 F400.000
G1 X-0.876 Y5.180 F400.000
G1 X-1.241 Y5.117 F400.000
G1 X-1.598 Y5.011 F400.000
G1 X-1.910 Y4.902 F400.000
G1 X-2.248 Y4.748 F400.000
G1 X-2.579 Y4.575 F400.000
G1 X-2.895 Y4.376 F400.000
G1 X-3.195 Y4.158 F400.000
G1 X-3.481 Y3.921 F400.000
G1 X-3.748 Y3.662 F400.000
G1 X-3.996 Y3.383 F400.000
G1 X-4.226 Y3.090 F400.000
G1 X-4.432 Y2.782 F400.000
G1 X-4.617 Y2.459 F400.000
G1 X-4.778 Y2.124 F400.000
G1 X-4.917 Y1.778 F400.000
G1 X-5.030 Y1.421 F400.000
G1 X-5.124 Y1.060 F400.000
G1 X-5.192 Y0.692 F400.000
G1 X-5.233 Y0.320 F400.000
G1 X-5.252 Y-0.049 F400.000
G1 X-5.244 Y-0.417 F400.000
G1 X-5.195 Y-0.786 F400.000
G1 X-5.135 Y-1.109 F400.000
G1 X-5.049 Y-1.470 F400.000
G1 X-4.940 Y-1.823 F400.000
G1 X-4.808 Y-2.169 F400.000
G1 X-4.658 Y-2.508 F400.000
G1 X-4.485 Y-2.835 F400.000
G1 X-4.274 Y-3.143 F400.000
G1 X-4.068 Y-3.421 F400.000
G1 X-3.823 Y-3.699 F400.000
G1 X-3.556 Y-3.959 F400.000
G1 X-3.271 Y-4.199 F400.000
G1 X-2.970 Y-4.417 F400.000
G1 X-2.658 Y-4.620 F400.000
G1 X-2.335 Y-4.805 F400.000
G1 X-2.000 Y-4.966 F400.000
G1 X-1.654 Y-5.109 F400.000
G1 X-1.297 Y-5.222 F400.000
G1 X-0.936 Y-5.316 F400.000
G1 X-0.568 Y-5.380 F400.000
G1 X-0.195 Y-5.417 F400.000
G1 X0.173 Y-5.432 F400.000
G1 X0.541 Y-5.417 F400.000
G1 X0.910 Y-5.376 F400.000
G1 X1.274 Y-5.308 F400.000
G1 X1.635 Y-5.214 F400.000
G1 X1.989 Y-5.098 F400.000
G1 X2.335 Y-4.962 F400.000
G1 X2.669 Y-4.801 F400.000
G1 X2.992 Y-4.617 F400.000
G1 X3.305 Y-4.414 F400.000
G1 X3.602 Y-4.188 F400.000
G1 X3.883 Y-3.944 F400.000
G1 X4.139 Y-3.673 F400.000
G1 X4.357 Y-3.414 F400.000
G1 X4.586 Y-3.120 F400.000
G1 X4.793 Y-2.808 F400.000
G1 X4.977 Y-2.485 F400.000
G1 X5.147 Y-2.154 F400.000
G1 X5.278 Y-1.805 F400.000
G1 X5.391 Y-1.459 F400.000
G1 X5.481 Y-1.098 F400.000
G1 X5.541 Y-0.729 F400.000
G1 X5.579 Y-0.357 F400.000
G1 X5.602 Y0.011 F400.000
G1 X5.590 Y0.380 F400.000
G1 X5.560 Y0.748 F400.000
G1 X5.508 Y1.117 F400.000
G1 X5.429 Y1.477 F400.000
G1 X5.327 Y1.835 F400.000
G1 X5.203 Y2.184 F400.000
G1 X5.056 Y2.526 F400.000
G1 X4.891 Y2.857 F400.000
G1 X4.692 Y3.169 F400.000
G1 X4.485 Y3.459 F400.000
G1 X4.248 Y3.744 F400.000
G1 X3.992 Y4.015 F400.000
G1 X3.726 Y4.274 F400.000
G1 X3.440 Y4.511 F400.000
G1 X3.139 Y4.733 F400.000
G1 X2.827 Y4.936 F400.000
G1 X2.500 Y5.117 F400.000
G1 X2.158 Y5.263 F400.000
G1 X1.820 Y5.387 F400.000
G1 X1.462 Y5.500 F400.000
G1 X1.098 Y5.586 F400.000
G1 X0.729 Y5.650 F400.000
G1 X0.357 Y5.695 F400.000
G1 X-0.011 Y5.714 F400.000
G1 X-0.380 Y5.711 F400.000
G1 X-0.748 Y5.688 F400.000
G1 X-1.113 Y5.628 F400.000
G1 X-1.474 Y5.538 F400.000
G1 X-1.816 Y5.432 F400.000
G1 X-2.162 Y5.301 F400.000
G1 X-2.500 Y5.150 F400.000
G1 X-2.827 Y4.977 F400.000
G1 X-3.143 Y4.786 F400.000
G1 X-3.447 Y4.571 F400.000
G1 X-3.737 Y4.338 F400.000
G1 X-4.011 Y4.090 F400.000
G1 X-4.259 Y3.816 F400.000
G1 X-4.492 Y3.530 F400.000
G1 X-4.707 Y3.226 F400.000
G1 X-4.906 Y2.910 F400.000
G1 X-5.079 Y2.579 F400.000
G1 X-5.233 Y2.237 F400.000
G1 X-5.372 Y1.891 F400.000
G1 X-5.485 Y1.534 F400.000
G1 X-5.579 Y1.173 F400.000
G1 X-5.654 Y0.808 F400.000
G1 X-5.707 Y0.436 F400.000
G1 X-5.718 Y0.064 F400.000
G1 X-5.714 Y-0.289 F400.000
G1 X-5.680 Y-0.658 F400.000
G1 X-5.632 Y-1.026 F400.000
G1 X-5.556 Y-1.391 F400.000
G1 X-5.459 Y-1.748 F400.000
G1 X-5.342 Y-2.102 F400.000
G1 X-5.203 Y-2.444 F400.000
G1 X-5.041 Y-2.778 F400.000
G1 X-4.861 Y-3.102 F400.000
G1 X-4.658 Y-3.414 F400.000
G1 X-4.436 Y-3.714 F400.000
G1 X-4.188 Y-3.989 F400.000
G1 X-3.929 Y-4.248 F400.000
G1 X-3.647 Y-4.492 F400.000
G1 X-3.353 Y-4.722 F400.000
G1 X-3.049 Y-4.936 F400.000
G1 X-2.729 Y-5.128 F400.000
G1 X-2.402 Y-5.305 F400.000
G1 X-2.064 Y-5.462 F400.000
G1 X-1.714 Y-5.598 F400.000
G1 X-1.357 Y-5.699 F400.000
G1 X-0.992 Y-5.786 F400.000
G1 X-0.624 Y-5.846 F400.000
G1 X-0.252 Y-5.880 F400.000
G1 X0.117 Y-5.898 F400.000
G1 X0.485 Y-5.887 F400.000
G1 X0.853 Y-5.853 F400.000
G1 X1.222 Y-5.801 F400.000
G1 X1.583 Y-5.722 F400.000
G1 X1.940 Y-5.620 F400.000
G1 X2.289 Y-5.500 F400.000
G1 X2.632 Y-5.357 F400.000
G1 X2.962 Y-5.192 F400.000
G1 X3.286 Y-5.008 F400.000
G1 X3.594 Y-4.801 F400.000
G1 X3.891 Y-4.575 F400.000
G1 X4.173 Y-4.335 F400.000
G1 X4.440 Y-4.075 F400.000
G1 X4.680 Y-3.789 F400.000
G1 X4.902 Y-3.500 F400.000
G1 X5.113 Y-3.192 F400.000
G1 X5.305 Y-2.872 F400.000
G1 X5.477 Y-2.541 F400.000
G1 X5.632 Y-2.203 F400.000
G1 X5.767 Y-1.853 F400.000
G1 X5.880 Y-1.496 F400.000
G1 X5.959 Y-1.132 F400.000
G1 X6.019 Y-0.767 F400.000
G1 X6.060 Y-0.395 F400.000
G1 X6.071 Y-0.023 F400.000
G1 X6.071 Y0.346 F400.000
G1 X6.045 Y0.714 F400.000
G1 X5.996 Y1.083 F400.000
G1 X5.929 Y1.447 F400.000
G1 X5.838 Y1.808 F400.000
G1 X5.729 Y2.162 F400.000
G1 X5.598 Y2.508 F400.000
G1 X5.432 Y2.838 F400.000
G1 X5.252 Y3.165 F400.000
G1 X5.049 Y3.477 F400.000
G1 X4.831 Y3.778 F400.000
G1 X4.594 Y4.064 F400.000
G1 X4.338 Y4.335 F400.000
G1 X4.068 Y4.590 F400.000
G1 X3.786 Y4.835 F400.000
G1 X3.489 Y5.060 F400.000
G1 X3.180 Y5.271 F400.000
G1 X2.861 Y5.462 F400.000
G1 X2.523 Y5.620 F400.000
G1 X2.180 Y5.767 F400.000
G1 X1.827 Y5.887 F400.000
G1 X1.466 Y5.989 F400.000
G1 X1.102 Y6.068 F400.000
G1 X0.733 Y6.132 F400.000
G1 X0.361 Y6.173 F400.000
G1 X-0.008 Y6.192 F400.000
G1 X-0.376 Y6.195 F400.000
G1 X-0.744 Y6.158 F400.000
G1 X-1.113 Y6.105 F400.000
G1 X-1.474 Y6.026 F400.000
G1 X-1.831 Y5.929 F400.000
G1 X-2.180 Y5.808 F400.000
G1 X-2.523 Y5.665 F400.000
G1 X-2.857 Y5.504 F400.000
G1 X-3.180 Y5.320 F400.000
G1 X-3.492 Y5.117 F400.000
G1 X-3.797 Y4.902 F400.000
G1 X-4.083 Y4.665 F400.000
G1 X-4.357 Y4.414 F400.000
G1 X-4.609 Y4.139 F400.000
G1 X-4.846 Y3.853 F400.000
G1 X-5.064 Y3.553 F400.000
G1 X-5.259 Y3.237 F400.000
G1 X-5.444 Y2.914 F400.000
G1 X-5.605 Y2.575 F400.000
G1 X-5.756 Y2.233 F400.000
G1 X-5.883 Y1.883 F400.000
G1 X-5.992 Y1.526 F400.000
G1 X-6.083 Y1.165 F400.000
G1 X-6.139 Y0.797 F400.000
G1 X-6.180 Y0.425 F400.000
G1 X-6.195 Y0.053 F400.000
G1 X-6.192 Y-0.316 F400.000
G1 X-6.165 Y-0.684 F400.000
G1 X-6.117 Y-1.053 F400.000
G1 X-6.045 Y-1.417 F400.000
G1 X-5.955 Y-1.778 F400.000
G1 X-5.842 Y-2.132 F400.000
G1 X-5.707 Y-2.477 F400.000
G1 X-5.553 Y-2.816 F400.000
G1 X-5.380 Y-3.143 F400.000
G1 X-5.188 Y-3.459 F400.000
G1 X-4.977 Y-3.763 F400.000
G1 X-4.748 Y-4.056 F400.000
G1 X-4.504 Y-4.335 F400.000
G1 X-4.241 Y-4.598 F400.000
G1 X-3.962 Y-4.846 F400.000
G1 X-3.669 Y-5.079 F400.000
G1 X-3.365 Y-5.293 F400.000
G1 X-3.053 Y-5.496 F400.000
G1 X-2.726 Y-5.677 F400.000
G1 X-2.391 Y-5.842 F400.000
G1 X-2.049 Y-5.989 F400.000
G1 X-1.692 Y-6.102 F400.000
G1 X-1.331 Y-6.199 F400.000
G1 X-0.966 Y-6.274 F400.000
G1 X-0.598 Y-6.331 F400.000
G1 X-0.226 Y-6.365 F400.000
G1 X0.143 Y-6.376 F400.000
G1 X0.511 Y-6.368 F400.000
G1 X0.880 Y-6.335 F400.000
G1 X1.248 Y-6.282 F400.000
G1 X1.613 Y-6.207 F400.000
G1 X1.970 Y-6.113 F400.000
G1 X2.323 Y-5.996 F400.000
G1 X2.669 Y-5.861 F400.000
G1 X3.008 Y-5.707 F400.000
G1 X3.335 Y-5.530 F400.000
G1 X3.650 Y-5.335 F400.000
G1 X3.955 Y-5.124 F400.000
G1 X4.248 Y-4.895 F400.000
G1 X4.526 Y-4.650 F400.000
G1 X4.789 Y-4.387 F400.000
G1 X5.038 Y-4.109 F400.000
G1 X5.271 Y-3.820 F400.000
G1 X5.485 Y-3.515 F400.000
G1 X5.684 Y-3.199 F400.000
G1 X5.865 Y-2.872 F400.000
G1 X6.026 Y-2.534 F400.000
G1 X6.165 Y-2.188 F400.000
G1 X6.286 Y-1.835 F400.000
G1 X6.387 Y-1.474 F400.000
G1 X6.466 Y-1.109 F400.000
G1 X6.523 Y-0.741 F400.000
G1 X6.560 Y-0.368 F400.000
G1 X6.575 Y0.000 F400.000
G1 X6.568 Y0.368 F400.000
G1 X6.541 Y0.737 F400.000
G1 X6.492 Y1.105 F400.000
G1 X6.421 Y1.470 F400.000
G1 X6.331 Y1.831 F400.000
G1 X6.226 Y2.188 F400.000
G1 X6.098 Y2.538 F400.000
G1 X5.955 Y2.880 F400.000
G1 X5.782 Y3.207 F400.000
G1 X5.594 Y3.526 F400.000
G1 X5.383 Y3.835 F400.000
G1 X5.162 Y4.132 F400.000
G1 X4.921 Y4.414 F400.000
G1 X4.669 Y4.688 F400.000
G1 X4.402 Y4.947 F400.000
G1 X4.120 Y5.192 F400.000
G1 X3.827 Y5.421 F400.000
G1 X3.523 Y5.635 F400.000
G1 X3.199 Y5.820 F400.000
G1 X2.868 Y5.992 F400.000
G1 X2.526 Y6.143 F400.000
G1 X2.177 Y6.278 F400.000
G1 X1.820 Y6.391 F400.000
G1 X1.459 Y6.489 F400.000
G1 X1.094 Y6.568 F400.000
G1 X0.726 Y6.624 F400.000
G1 X0.353 Y6.665 F400.000
G1 X-0.015 Y6.684 F400.000
G1 X-0.383 Y6.684 F400.000
G1 X-0.752 Y6.647 F400.000
G1 X-1.120 Y6.598 F400.000
G1 X-1.485 Y6.523 F400.000
G1 X-1.846 Y6.429 F400.000
G1 X-2.199 Y6.312 F400.000
G1 X-2.545 Y6.177 F400.000
G1 X-2.883 Y6.023 F400.000
G1 X-3.214 Y5.853 F400.000
G1 X-3.534 Y5.665 F400.000
G1 X-3.846 Y5.462 F400.000
G1 X-4.147 Y5.244 F400.000
G1 X-4.432 Y5.008 F400.000
G1 X-4.707 Y4.756 F400.000
G1 X-4.955 Y4.477 F400.000
G1 X-5.192 Y4.188 F400.000
G1 X-5.414 Y3.891 F400.000
G1 X-5.620 Y3.579 F400.000
G1 X-5.808 Y3.256 F400.000
G1 X-5.981 Y2.925 F400.000
G1 X-6.135 Y2.586 F400.000
G1 X-6.271 Y2.241 F400.000
G1 X-6.387 Y1.887 F400.000
G1 X-6.485 Y1.526 F400.000
G1 X-6.564 Y1.162 F400.000
G1 X-6.624 Y0.793 F400.000
G1 X-6.665 Y0.421 F400.000
G1 X-6.688 Y0.049 F400.000
G1 X-6.692 Y-0.320 F400.000
G1 X-6.673 Y-0.688 F400.000
G1 X-6.620 Y-1.056 F400.000
G1 X-6.553 Y-1.421 F400.000
G1 X-6.466 Y-1.782 F400.000
G1 X-6.361 Y-2.139 F400.000
G1 X-6.237 Y-2.489 F400.000
G1 X-6.094 Y-2.831 F400.000
G1 X-5.932 Y-3.165 F400.000
G1 X-5.752 Y-3.489 F400.000
G1 X-5.556 Y-3.805 F400.000
G1 X-5.342 Y-4.109 F400.000
G1 X-5.113 Y-4.402 F400.000
G1 X-4.865 Y-4.677 F400.000
G1 X-4.602 Y-4.940 F400.000
G1 X-4.323 Y-5.188 F400.000
G1 X-3.729 Y-5.639 F400.000
G1 X-3.421 Y-5.846 F400.000
G1 X-3.102 Y-6.034 F400.000
G1 X-2.774 Y-6.211 F400.000
G1 X-2.432 Y-6.361 F400.000
G1 X-2.086 Y-6.496 F400.000
G1 X-1.729 Y-6.602 F400.000
G1 X-1.365 Y-6.688 F400.000
G1 X-1.000 Y-6.763 F400.000
G1 X-0.632 Y-6.816 F400.000
G1 X-0.259 Y-6.850 F400.000
G1 X0.109 Y-6.865 F400.000
G1 X0.477 Y-6.861 F400.000
G1 X0.846 Y-6.838 F400.000
G1 X1.214 Y-6.797 F400.000
G1 X1.579 Y-6.722 F400.000
G1 X1.940 Y-6.635 F400.000
G1 X2.293 Y-6.526 F400.000
G1 X2.643 Y-6.402 F400.000
G1 X2.985 Y-6.256 F400.000
G1 X3.320 Y-6.090 F400.000
G1 X3.643 Y-5.910 F400.000
G1 X3.955 Y-5.711 F400.000
G1 X4.259 Y-5.496 F400.000
G1 X4.553 Y-5.267 F400.000
G1 X4.831 Y-5.019 F400.000
G1 X5.098 Y-4.759 F400.000
G1 X5.350 Y-4.485 F400.000
G1 X5.586 Y-4.195 F400.000
G1 X5.808 Y-3.895 F400.000
G1 X6.011 Y-3.583 F400.000
G1 X6.199 Y-3.259 F400.000
G1 X6.368 Y-2.929 F400.000
G1 X6.523 Y-2.586 F400.000
G1 X6.658 Y-2.237 F400.000
G1 X6.774 Y-1.883 F400.000
G1 X6.872 Y-1.523 F400.000
G1 X6.951 Y-1.158 F400.000
G1 X7.011 Y-0.789 F400.000
G1 X7.049 Y-0.417 F400.000
G1 X7.068 Y-0.045 F400.000
G1 X7.068 Y0.323 F400.000
G1 X7.045 Y0.692 F400.000
G1 X7.004 Y1.060 F400.000
G1 X6.944 Y1.425 F400.000
G1 X6.865 Y1.786 F400.000
G1 X6.767 Y2.143 F400.000
G1 X6.650 Y2.496 F400.000
G1 X6.515 Y2.842 F400.000
G1 X6.361 Y3.180 F400.000
G1 X6.188 Y3.508 F400.000
G1 X5.996 Y3.827 F400.000
G1 X5.789 Y4.135 F400.000
G1 X5.568 Y4.432 F400.000
G1 X5.331 Y4.718 F400.000
G1 X5.079 Y4.989 F400.000
G1 X4.812 Y5.248 F400.000
G1 X4.530 Y5.492 F400.000
G1 X4.237 Y5.722 F400.000
G1 X3.932 Y5.936 F400.000
G1 X3.617 Y6.132 F400.000
G1 X3.289 Y6.312 F400.000
G1 X2.955 Y6.481 F400.000
G1 X2.613 Y6.628 F400.000
G1 X2.263 Y6.759 F400.000
G1 X1.910 Y6.876 F400.000
G1 X1.549 Y6.974 F400.000
G1 X1.184 Y7.056 F400.000
G1 X0.816 Y7.120 F400.000
G1 X0.444 Y7.165 F400.000
G1 X0.071 Y7.173 F400.000
G1 X-0.297 Y7.169 F400.000
G1 X-0.665 Y7.143 F400.000
G1 X-1.034 Y7.102 F400.000
G1 X-1.398 Y7.038 F400.000
G1 X-1.759 Y6.955 F400.000
G1 X-2.117 Y6.853 F400.000
G1 X-2.466 Y6.733 F400.000
G1 X-2.812 Y6.594 F400.000
G1 X-3.150 Y6.436 F400.000
G1 X-3.477 Y6.263 F400.000
G1 X-3.797 Y6.071 F400.000
G1 X-4.109 Y5.868 F400.000
G1 X-4.410 Y5.647 F400.000
G1 X-4.699 Y5.414 F400.000
G1 X-4.977 Y5.165 F400.000
G1 X-5.233 Y4.895 F400.000
G1 X-5.481 Y4.617 F400.000
G1 X-5.714 Y4.323 F400.000
G1 X-5.925 Y4.019 F400.000
G1 X-6.124 Y3.703 F400.000
G1 X-6.305 Y3.376 F400.000
G1 X-6.466 Y3.038 F400.000
G1 X-6.617 Y2.695 F400.000
G1 X-6.744 Y2.346 F400.000
G1 X-6.857 Y1.989 F400.000
G1 X-6.955 Y1.628 F400.000
G1 X-7.038 Y1.263 F400.000
G1 X-7.102 Y0.895 F400.000
G1 X-7.150 Y0.523 F400.000
G1 X-7.169 Y0.150 F400.000
G1 X-7.177 Y-0.218 F400.000
G1 X-7.162 Y-0.586 F400.000
G1 X-7.124 Y-0.955 F400.000
G1 X-7.071 Y-1.323 F400.000
G1 X-7.000 Y-1.688 F400.000
G1 X-6.906 Y-2.045 F400.000
G1 X-6.793 Y-2.398 F400.000
G1 X-6.662 Y-2.744 F400.000
G1 X-6.511 Y-3.083 F400.000
G1 X-6.346 Y-3.414 F400.000
G1 X-5.970 Y-4.053 F400.000
G1 X-5.759 Y-4.357 F400.000
G1 X-5.534 Y-4.654 F400.000
G1 X-5.297 Y-4.940 F400.000
G1 X-5.038 Y-5.207 F400.000
G1 X-4.767 Y-5.462 F400.000
G1 X-4.485 Y-5.703 F400.000
G1 X-4.188 Y-5.929 F400.000
G1 X-3.880 Y-6.139 F400.000
G1 X-3.564 Y-6.338 F400.000
G1 X-3.237 Y-6.519 F400.000
G1 X-2.902 Y-6.684 F400.000
G1 X-2.560 Y-6.835 F400.000
G1 X-2.211 Y-6.966 F400.000
G1 X-1.857 Y-7.083 F400.000
G1 X-1.496 Y-7.180 F400.000
G1 X-1.128 Y-7.252 F400.000
G1 X-0.759 Y-7.308 F400.000
G1 X-0.387 Y-7.346 F400.000
G1 X-0.015 Y-7.361 F400.000
G1 X0.353 Y-7.365 F400.000
G1 X0.722 Y-7.346 F400.000
G1 X1.090 Y-7.308 F400.000
G1 X1.459 Y-7.256 F400.000
G1 X1.823 Y-7.184 F400.000
G1 X2.184 Y-7.094 F400.000
G1 X2.538 Y-6.977 F400.000
G1 X2.883 Y-6.846 F400.000
G1 X3.222 Y-6.695 F400.000
G1 X3.553 Y-6.526 F400.000
G1 X3.876 Y-6.346 F400.000
G1 X4.188 Y-6.147 F400.000
G1 X4.492 Y-5.932 F400.000
G1 X4.786 Y-5.703 F400.000
G1 X5.068 Y-5.459 F400.000
G1 X5.342 Y-5.207 F400.000
G1 X5.602 Y-4.940 F400.000
G1 X5.850 Y-4.662 F400.000
G1 X6.075 Y-4.365 F400.000
G1 X6.289 Y-4.060 F400.000
G1 X6.485 Y-3.744 F400.000
G1 X6.669 Y-3.421 F400.000
G1 X6.835 Y-3.086 F400.000
G1 X6.981 Y-2.744 F400.000
G1 X7.237 Y-2.041 F400.000
G1 X7.338 Y-1.680 F400.000
G1 X7.425 Y-1.316 F400.000
G1 X7.481 Y-0.947 F400.000
G1 X7.526 Y-0.575 F400.000
G1 X7.549 Y-0.203 F400.000
G1 X7.556 Y0.165 F400.000
G1 X7.545 Y0.534 F400.000
G1 X7.515 Y0.902 F400.000
G1 X7.470 Y1.271 F400.000
G1 X7.406 Y1.635 F400.000
G1 X7.323 Y1.996 F400.000
G1 X7.226 Y2.353 F400.000
G1 X7.109 Y2.707 F400.000
G1 X6.977 Y3.053 F400.000
G1 X6.816 Y3.387 F400.000
G1 X6.643 Y3.714 F400.000
G1 X6.451 Y4.030 F400.000
G1 X6.248 Y4.342 F400.000
G1 X6.026 Y4.639 F400.000
G1 X5.789 Y4.929 F400.000
G1 X5.541 Y5.207 F400.000
G1 X5.278 Y5.470 F400.000
G1 X5.004 Y5.722 F400.000
G1 X4.718 Y5.959 F400.000
G1 X4.421 Y6.184 F400.000
G1 X4.113 Y6.395 F400.000
G1 X3.793 Y6.590 F400.000
G1 X3.466 Y6.771 F400.000
G1 X2.793 Y7.086 F400.000
G1 X2.444 Y7.222 F400.000
G1 X2.090 Y7.342 F400.000
G1 X1.733 Y7.447 F400.000
G1 X1.368 Y7.538 F400.000
G1 X1.000 Y7.598 F400.000
G1 X0.628 Y7.647 F400.000
G1 X0.256 Y7.662 F400.000
G1 X-0.481 Y7.654 F400.000
G1 X-0.850 Y7.624 F400.000
G1 X-1.218 Y7.575 F400.000
G1 X-1.583 Y7.515 F400.000
G1 X-1.944 Y7.436 F400.000
G1 X-2.647 Y7.203 F400.000
G1 X-2.989 Y7.060 F400.000
G1 X-3.327 Y6.906 F400.000
G1 X-3.654 Y6.733 F400.000
G1 X-3.974 Y6.545 F400.000
G1 X-4.286 Y6.342 F400.000
G1 X-4.590 Y6.128 F400.000
G1 X-4.883 Y5.898 F400.000
G1 X-5.165 Y5.658 F400.000
G1 X-5.436 Y5.402 F400.000
G1 X-5.695 Y5.135 F400.000
G1 X-5.932 Y4.846 F400.000
G1 X-6.154 Y4.549 F400.000
G1 X-6.560 Y3.921 F400.000
G1 X-6.737 Y3.594 F400.000
G1 X-6.898 Y3.259 F400.000
G1 X-7.049 Y2.917 F400.000
G1 X-7.180 Y2.568 F400.000
G1 X-7.406 Y1.857 F400.000
G1 X-7.492 Y1.492 F400.000
G1 X-7.568 Y1.128 F400.000
G1 X-7.628 Y0.759 F400.000
G1 X-7.673 Y0.015 F400.000
G1 X-7.669 Y-0.353 F400.000
G1 X-7.650 Y-0.722 F400.000
G1 X-7.613 Y-1.090 F400.000
G1 X-7.556 Y-1.455 F400.000
G1 X-7.485 Y-1.820 F400.000
G1 X-7.395 Y-2.180 F400.000
G1 X-7.286 Y-2.534 F400.000
G1 X-7.150 Y-2.880 F400.000
G1 X-7.000 Y-3.218 F400.000
G1 X-6.838 Y-3.553 F400.000
G1 X-6.662 Y-3.880 F400.000
G1 X-6.470 Y-4.195 F400.000
G1 X-6.263 Y-4.504 F400.000
G1 X-6.041 Y-4.805 F400.000
G1 X-5.808 Y-5.094 F400.000
G1 X-5.560 Y-5.372 F400.000
G1 X-5.301 Y-5.639 F400.000
G1 X-5.030 Y-5.895 F400.000
G1 X-4.741 Y-6.128 F400.000
G1 X-4.444 Y-6.350 F400.000
G1 X-4.135 Y-6.560 F400.000
G1 X-3.820 Y-6.756 F400.000
G1 X-3.492 Y-6.936 F400.000
G1 X-3.162 Y-7.105 F400.000
G1 X-2.823 Y-7.259 F400.000
G1 X-2.477 Y-7.398 F400.000
G1 X-2.124 Y-7.523 F400.000
G1 X-1.763 Y-7.617 F400.000
G1 X-1.398 Y-7.699 F400.000
G1 X-0.662 Y-7.812 F400.000
G1 X-0.289 Y-7.842 F400.000
G1 X0.079 Y-7.857 F400.000
G1 X0.447 Y-7.857 F400.000
G1 X0.816 Y-7.838 F400.000
G1 X1.184 Y-7.801 F400.000
G1 X1.553 Y-7.748 F400.000
G1 X1.917 Y-7.677 F400.000
G1 X2.278 Y-7.590 F400.000
G1 X2.632 Y-7.477 F400.000
G1 X2.981 Y-7.350 F400.000
G1 X3.323 Y-7.203 F400.000
G1 X3.654 Y-7.038 F400.000
G1 X3.977 Y-6.857 F400.000
G1 X4.297 Y-6.665 F400.000
G1 X4.609 Y-6.462 F400.000
G1 X4.910 Y-6.244 F400.000
G1 X5.203 Y-6.015 F400.000
G1 X5.485 Y-5.774 F400.000
G1 X5.756 Y-5.519 F400.000
G1 X6.008 Y-5.244 F400.000
G1 X6.252 Y-4.962 F400.000
G1 X6.481 Y-4.669 F400.000
G1 X6.692 Y-4.365 F400.000
G1 X6.891 Y-4.049 F400.000
G1 X7.075 Y-3.722 F400.000
G1 X7.241 Y-3.387 F400.000
G1 X7.534 Y-2.699 F400.000
G1 X7.654 Y-2.346 F400.000
G1 X7.763 Y-1.989 F400.000
G1 X7.857 Y-1.628 F400.000
G1 X7.936 Y-1.263 F400.000
G1 X8.000 Y-0.895 F400.000
G1 X8.030 Y-0.523 F400.000
G1 X8.049 Y-0.150 F400.000
G1 X8.056 Y0.218 F400.000
G1 X8.045 Y0.586 F400.000
G1 X8.015 Y0.955 F400.000
G1 X7.974 Y1.323 F400.000
G1 X7.914 Y1.688 F400.000
G1 X7.838 Y2.053 F400.000
G1 X7.620 Y2.763 F400.000
G1 X7.485 Y3.109 F400.000
G1 X7.331 Y3.447 F400.000
G1 X6.985 Y4.105 F400.000
G1 X6.786 Y4.421 F400.000
G1 X6.575 Y4.729 F400.000
G1 X6.353 Y5.026 F400.000
G1 X6.117 Y5.312 F400.000
G1 X5.868 Y5.590 F400.000
G1 X5.609 Y5.857 F400.000
G1 X5.335 Y6.109 F400.000
G1 X5.053 Y6.350 F400.000
G1 X4.748 Y6.568 F400.000
G1 X4.124 Y6.974 F400.000
G1 X3.801 Y7.158 F400.000
G1 X3.470 Y7.327 F400.000
G1 X3.132 Y7.485 F400.000
G1 X2.789 Y7.632 F400.000
G1 X2.440 Y7.763 F400.000
G1 X2.083 Y7.868 F400.000
G1 X1.722 Y7.962 F400.000
G1 X1.357 Y8.038 F400.000
G1 X0.989 Y8.090 F400.000
G1 X0.617 Y8.128 F400.000
G1 X-0.124 Y8.158 F400.000
G1 X-0.492 Y8.147 F400.000
G1 X-0.861 Y8.120 F400.000
G1 X-1.229 Y8.083 F400.000
G1 X-1.594 Y8.026 F400.000
G1 X-1.955 Y7.940 F400.000
G1 X-2.312 Y7.842 F400.000
G1 X-3.015 Y7.594 F400.000
G1 X-3.357 Y7.447 F400.000
G1 X-3.692 Y7.286 F400.000
G1 X-4.019 Y7.109 F400.000
G1 X-4.338 Y6.917 F400.000
G1 X-4.647 Y6.711 F400.000
G1 X-4.947 Y6.492 F400.000
G1 X-5.237 Y6.259 F400.000
G1 X-5.515 Y6.015 F400.000
G1 X-5.782 Y5.759 F400.000
G1 X-6.038 Y5.489 F400.000
G1 X-6.282 Y5.207 F400.000
G1 X-6.504 Y4.906 F400.000
G1 X-6.714 Y4.598 F400.000
G1 X-6.914 Y4.282 F400.000
G1 X-7.098 Y3.959 F400.000
G1 X-7.267 Y3.628 F400.000
G1 X-7.425 Y3.289 F400.000
G1 X-7.568 Y2.944 F400.000
G1 X-7.695 Y2.594 F400.000
G1 X-7.808 Y2.237 F400.000
G1 X-7.906 Y1.876 F400.000
G1 X-7.992 Y1.511 F400.000
G1 X-8.064 Y1.143 F400.000
G1 X-8.120 Y0.774 F400.000
G1 X-8.154 Y0.402 F400.000
G1 X-8.177 Y0.030 F400.000
G1 X-8.180 Y-0.338 F400.000
G1 X-8.165 Y-0.707 F400.000
G1 X-8.135 Y-1.075 F400.000
G1 X-8.086 Y-1.444 F400.000
G1 X-8.023 Y-1.808 F400.000
G1 X-7.929 Y-2.165 F400.000
G1 X-7.823 Y-2.523 F400.000
G1 X-7.560 Y-3.218 F400.000
G1 X-7.402 Y-3.556 F400.000
G1 X-7.229 Y-3.887 F400.000
G1 X-7.045 Y-4.211 F400.000
G1 X-6.850 Y-4.526 F400.000
G1 X-6.639 Y-4.831 F400.000
G1 X-6.417 Y-5.128 F400.000
G1 X-6.184 Y-5.417 F400.000
G1 X-5.940 Y-5.695 F400.000
G1 X-5.684 Y-5.966 F400.000
G1 X-5.410 Y-6.214 F400.000
G1 X-5.128 Y-6.455 F400.000
G1 X-4.831 Y-6.680 F400.000
G1 X-4.526 Y-6.895 F400.000
G1 X-4.211 Y-7.094 F400.000
G1 X-3.560 Y-7.462 F400.000
G1 X-3.226 Y-7.624 F400.000
G1 X-2.883 Y-7.774 F400.000
G1 X-2.538 Y-7.910 F400.000
G1 X-2.180 Y-8.019 F400.000
G1 X-1.820 Y-8.117 F400.000
G1 X-1.455 Y-8.195 F400.000
G1 X-1.086 Y-8.256 F400.000
G1 X-0.714 Y-8.301 F400.000
G1 X-0.342 Y-8.335 F400.000
G1 X0.026 Y-8.357 F400.000
G1 X0.395 Y-8.361 F400.000
G1 X0.763 Y-8.353 F400.000
G1 X1.132 Y-8.316 F400.000
G1 X1.500 Y-8.267 F400.000
G1 X1.865 Y-8.199 F400.000
G1 X2.226 Y-8.117 F400.000
G1 X2.583 Y-8.019 F400.000
G1 X2.936 Y-7.906 F400.000
G1 X3.282 Y-7.778 F400.000
G1 X3.617 Y-7.620 F400.000
G1 X4.274 Y-7.274 F400.000
G1 X4.590 Y-7.083 F400.000
G1 X4.898 Y-6.876 F400.000
G1 X5.199 Y-6.658 F400.000
G1 X5.492 Y-6.429 F400.000
G1 X5.774 Y-6.188 F400.000
G1 X6.049 Y-5.936 F400.000
G1 X6.312 Y-5.673 F400.000
G1 X6.786 Y-5.098 F400.000
G1 X7.207 Y-4.485 F400.000
G1 X7.398 Y-4.165 F400.000
G1 X7.575 Y-3.838 F400.000
G1 X7.741 Y-3.504 F400.000
G1 X7.887 Y-3.162 F400.000
G1 X8.147 Y-2.462 F400.000
G1 X8.256 Y-2.105 F400.000
G1 X8.350 Y-1.744 F400.000
G1 X8.417 Y-1.376 F400.000
G1 X8.474 Y-1.008 F400.000
G1 X8.515 Y-0.635 F400.000
G1 X8.545 Y-0.263 F400.000
G1 X8.556 Y0.105 F400.000
G1 X8.553 Y0.474 F400.000
G1 X8.534 Y0.842 F400.000
G1 X8.500 Y1.211 F400.000
G1 X8.451 Y1.579 F400.000
G1 X8.286 Y2.301 F400.000
G1 X8.177 Y2.654 F400.000
G1 X8.056 Y3.004 F400.000
G1 X7.917 Y3.350 F400.000
G1 X7.763 Y3.688 F400.000
G1 X7.594 Y4.019 F400.000
G1 X7.218 Y4.662 F400.000
G1 X7.011 Y4.970 F400.000
G1 X6.793 Y5.271 F400.000
G1 X6.564 Y5.564 F400.000
G1 X6.323 Y5.846 F400.000
G1 X6.071 Y6.120 F400.000
G1 X5.801 Y6.376 F400.000
G1 X5.218 Y6.842 F400.000
G1 X4.917 Y7.060 F400.000
G1 X4.605 Y7.263 F400.000
G1 X4.286 Y7.455 F400.000
G1 X3.628 Y7.808 F400.000
G1 X3.289 Y7.966 F400.000
G1 X2.947 Y8.113 F400.000
G1 X2.598 Y8.241 F400.000
G1 X2.244 Y8.357 F400.000
G1 X1.880 Y8.440 F400.000
G1 X1.511 Y8.511 F400.000
G1 X1.143 Y8.568 F400.000
G1 X0.771 Y8.613 F400.000
G1 X0.398 Y8.639 F400.000
G1 X0.026 Y8.654 F400.000
G1 X-0.342 Y8.654 F400.000
G1 X-0.711 Y8.639 F400.000
G1 X-1.079 Y8.609 F400.000
G1 X-1.447 Y8.564 F400.000
G1 X-1.812 Y8.489 F400.000
G1 X-2.173 Y8.402 F400.000
G1 X-2.530 Y8.297 F400.000
G1 X-2.883 Y8.180 F400.000
G1 X-3.571 Y7.902 F400.000
G1 X-3.906 Y7.744 F400.000
G1 X-4.237 Y7.571 F400.000
G1 X-4.560 Y7.387 F400.000
G1 X-4.872 Y7.184 F400.000
G1 X-5.177 Y6.970 F400.000
G1 X-5.470 Y6.744 F400.000
G1 X-5.752 Y6.504 F400.000
G1 X-6.023 Y6.252 F400.000
G1 X-6.282 Y5.985 F400.000
G1 X-6.530 Y5.707 F400.000
G1 X-6.767 Y5.417 F400.000
G1 X-6.989 Y5.117 F400.000
G1 X-7.195 Y4.808 F400.000
G1 X-7.391 Y4.489 F400.000
G1 X-7.571 Y4.162 F400.000
G1 X-7.737 Y3.827 F400.000
G1 X-8.030 Y3.139 F400.000
G1 X-8.271 Y2.432 F400.000
G1 X-8.376 Y2.075 F400.000
G1 X-8.466 Y1.714 F400.000
G1 X-8.545 Y1.350 F400.000
G1 X-8.643 Y0.609 F400.000
G1 X-8.669 Y0.237 F400.000
G1 X-8.677 Y-0.132 F400.000
G1 X-8.673 Y-0.500 F400.000
G1 X-8.620 Y-1.237 F400.000
G1 X-8.571 Y-1.605 F400.000
G1 X-8.406 Y-2.327 F400.000
G1 X-8.297 Y-2.680 F400.000
G1 X-8.034 Y-3.376 F400.000
G1 X-7.711 Y-4.049 F400.000
G1 X-7.530 Y-4.376 F400.000
G1 X-7.338 Y-4.692 F400.000
G1 X-7.135 Y-5.004 F400.000
G1 X-6.917 Y-5.305 F400.000
G1 X-6.688 Y-5.598 F400.000
G1 X-6.447 Y-5.883 F400.000
G1 X-6.195 Y-6.158 F400.000
G1 X-5.932 Y-6.421 F400.000
G1 X-5.662 Y-6.673 F400.000
G1 X-5.372 Y-6.910 F400.000
G1 X-5.075 Y-7.135 F400.000
G1 X-4.767 Y-7.346 F400.000
G1 X-4.451 Y-7.541 F400.000
G1 X-3.801 Y-7.906 F400.000
G1 X-3.466 Y-8.071 F400.000
G1 X-3.128 Y-8.226 F400.000
G1 X-2.425 Y-8.481 F400.000
G1 X-2.068 Y-8.586 F400.000
G1 X-1.703 Y-8.673 F400.000
G1 X-1.338 Y-8.748 F400.000
G1 X-0.970 Y-8.808 F400.000
G1 X-0.598 Y-8.850 F400.000
G1 X-0.226 Y-8.876 F400.000
G1 X0.143 Y-8.887 F400.000
G1 X0.511 Y-8.883 F400.000
G1 X0.880 Y-8.865 F400.000
G1 X1.248 Y-8.827 F400.000
G1 X1.617 Y-8.774 F400.000
G1 X1.981 Y-8.707 F400.000
G1 X2.342 Y-8.624 F400.000
G1 X2.699 Y-8.526 F400.000
G1 X3.053 Y-8.414 F400.000
G1 X3.398 Y-8.274 F400.000
G1 X3.737 Y-8.124 F400.000
G1 X4.395 Y-7.786 F400.000
G1 X4.714 Y-7.594 F400.000
G1 X5.335 Y-7.180 F400.000
G1 X5.921 Y-6.722 F400.000
G1 X6.203 Y-6.477 F400.000
G1 X6.474 Y-6.222 F400.000
G1 X6.729 Y-5.951 F400.000
G1 X6.977 Y-5.673 F400.000
G1 X7.211 Y-5.383 F400.000
G1 X7.429 Y-5.083 F400.000
G1 X7.635 Y-4.774 F400.000
G1 X7.827 Y-4.455 F400.000
G1 X8.008 Y-4.128 F400.000
G1 X8.173 Y-3.793 F400.000
G1 X8.323 Y-3.451 F400.000
G1 X8.586 Y-2.752 F400.000
G1 X8.695 Y-2.395 F400.000
G1 X8.793 Y-2.034 F400.000
G1 X8.876 Y-1.669 F400.000
G1 X8.944 Y-1.301 F400.000
G1 X9.000 Y-0.932 F400.000
G1 X9.041 Y-0.560 F400.000
G1 X9.068 Y-0.188 F400.000
G1 X9.079 Y0.180 F400.000
G1 X9.075 Y0.549 F400.000
G1 X9.045 Y0.917 F400.000
G1 X9.004 Y1.286 F400.000
G1 X8.944 Y1.650 F400.000
G1 X8.872 Y2.015 F400.000
G1 X8.786 Y2.376 F400.000
G1 X8.684 Y2.733 F400.000
G1 X8.568 Y3.086 F400.000
G1 X8.436 Y3.432 F400.000
G1 X8.289 Y3.774 F400.000
G1 X8.132 Y4.109 F400.000
G1 X7.959 Y4.436 F400.000
G1 X7.774 Y4.759 F400.000
G1 X7.575 Y5.071 F400.000
G1 X7.365 Y5.376 F400.000
G1 X7.139 Y5.673 F400.000
G1 X6.902 Y5.959 F400.000
G1 X6.654 Y6.237 F400.000
G1 X6.395 Y6.504 F400.000
G1 X6.124 Y6.759 F400.000
G1 X5.842 Y7.004 F400.000
G1 X5.553 Y7.237 F400.000
G1 X5.252 Y7.459 F400.000
G1 X4.944 Y7.669 F400.000
G1 X4.628 Y7.865 F400.000
G1 X4.305 Y8.049 F400.000
G1 X3.974 Y8.218 F400.000
G1 X3.635 Y8.376 F400.000
G1 X3.289 Y8.519 F400.000
G1 X2.940 Y8.647 F400.000
G1 X2.583 Y8.759 F400.000
G1 X2.222 Y8.861 F400.000
G1 X1.857 Y8.947 F400.000
G1 X1.489 Y9.019 F400.000
G1 X1.120 Y9.075 F400.000
G1 X0.748 Y9.117 F400.000
G1 X0.376 Y9.143 F400.000
G1 X-0.365 Y9.158 F400.000
G1 X-0.733 Y9.143 F400.000
G1 X-1.102 Y9.113 F400.000
G1 X-1.470 Y9.071 F400.000
G1 X-2.195 Y8.921 F400.000
G1 X-2.553 Y8.823 F400.000
G1 X-2.906 Y8.707 F400.000
G1 X-3.256 Y8.579 F400.000
G1 X-3.944 Y8.293 F400.000
G1 X-4.278 Y8.132 F400.000
G1 X-4.921 Y7.756 F400.000
G1 X-5.229 Y7.549 F400.000
G1 X-5.823 Y7.098 F400.000
G1 X-6.105 Y6.853 F400.000
G1 X-6.376 Y6.598 F400.000
G1 X-6.635 Y6.331 F400.000
G1 X-6.883 Y6.053 F400.000
G1 X-7.120 Y5.763 F400.000
G1 X-7.346 Y5.466 F400.000
G1 X-7.556 Y5.158 F400.000
G1 X-7.756 Y4.842 F400.000
G1 X-8.117 Y4.192 F400.000
G1 X-8.278 Y3.853 F400.000
G1 X-8.429 Y3.511 F400.000
G1 X-8.568 Y3.165 F400.000
G1 X-8.692 Y2.812 F400.000
G1 X-8.801 Y2.455 F400.000
G1 X-8.898 Y2.094 F400.000
G1 X-8.981 Y1.729 F400.000
G1 X-9.053 Y1.361 F400.000
G1 X-9.109 Y0.992 F400.000
G1 X-9.154 Y0.620 F400.000
G1 X-9.184 Y0.248 F400.000
G1 X-9.199 Y-0.120 F400.000
G1 X-9.203 Y-0.489 F400.000
G1 X-9.180 Y-0.857 F400.000
G1 X-9.135 Y-1.226 F400.000
G1 X-9.079 Y-1.590 F400.000
G1 X-9.011 Y-1.955 F400.000
G1 X-8.921 Y-2.316 F400.000
G1 X-8.816 Y-2.673 F400.000
G1 X-8.699 Y-3.026 F400.000
G1 X-8.571 Y-3.376 F400.000
G1 X-8.429 Y-3.718 F400.000
G1 X-8.271 Y-4.056 F400.000
G1 X-8.102 Y-4.387 F400.000
G1 X-7.917 Y-4.711 F400.000
G1 X-7.722 Y-5.026 F400.000
G1 X-7.515 Y-5.335 F400.000
G1 X-7.297 Y-5.635 F400.000
G1 X-7.068 Y-5.929 F400.000
G1 X-6.827 Y-6.211 F400.000
G1 X-6.575 Y-6.485 F400.000
G1 X-6.312 Y-6.748 F400.000
G1 X-6.041 Y-7.004 F400.000
G1 X-5.759 Y-7.248 F400.000
G1 X-5.470 Y-7.481 F400.000
G1 X-4.850 Y-7.895 F400.000
G1 X-4.534 Y-8.090 F400.000
G1 X-4.211 Y-8.274 F400.000
G1 X-3.545 Y-8.605 F400.000
G1 X-3.203 Y-8.756 F400.000
G1 X-2.492 Y-8.989 F400.000
G1 X-2.135 Y-9.094 F400.000
G1 X-1.771 Y-9.177 F400.000
G1 X-1.406 Y-9.248 F400.000
G1 X-1.038 Y-9.308 F400.000
G1 X-0.665 Y-9.350 F400.000
G1 X-0.293 Y-9.380 F400.000
G1 X0.075 Y-9.395 F400.000
G1 X0.444 Y-9.395 F400.000
G1 X0.812 Y-9.380 F400.000
G1 X1.180 Y-9.350 F400.000
G1 X1.549 Y-9.305 F400.000
G1 X1.914 Y-9.244 F400.000
G1 X2.278 Y-9.169 F400.000
G1 X2.639 Y-9.083 F400.000
G1 X3.342 Y-8.842 F400.000
G1 X4.023 Y-8.549 F400.000
G1 X4.680 Y-8.203 F400.000
G1 X5.000 Y-8.015 F400.000
G1 X5.617 Y-7.602 F400.000
G1 X6.203 Y-7.143 F400.000
G1 X6.485 Y-6.898 F400.000
G1 X6.756 Y-6.643 F400.000
G1 X7.019 Y-6.380 F400.000
G1 X7.271 Y-6.105 F400.000
G1 X7.511 Y-5.823 F400.000
G1 X7.955 Y-5.222 F400.000
G1 X8.158 Y-4.910 F400.000
G1 X8.346 Y-4.590 F400.000
G1 X8.523 Y-4.263 F400.000
G1 X8.688 Y-3.929 F400.000
G1 X8.838 Y-3.586 F400.000
G1 X8.974 Y-3.241 F400.000
G1 X9.094 Y-2.887 F400.000
G1 X9.199 Y-2.530 F400.000
G1 X9.376 Y-1.805 F400.000
G1 X9.444 Y-1.436 F400.000
G1 X9.500 Y-1.068 F400.000
G1 X9.545 Y-0.695 F400.000
G1 X9.575 Y-0.323 F400.000
G1 X9.594 Y0.045 F400.000
G1 X9.598 Y0.414 F400.000
G1 X9.579 Y0.782 F400.000
G1 X9.549 Y1.150 F400.000
G1 X9.504 Y1.519 F400.000
G1 X9.440 Y1.883 F400.000
G1 X9.365 Y2.244 F400.000
G1 X9.271 Y2.602 F400.000
G1 X9.162 Y2.955 F400.000
G1 X9.038 Y3.305 F400.000
G1 X8.752 Y3.992 F400.000
G1 X8.590 Y4.327 F400.000
G1 X8.417 Y4.654 F400.000
G1 X8.233 Y4.977 F400.000
G1 X8.034 Y5.293 F400.000
G1 X7.605 Y5.902 F400.000
G1 X7.376 Y6.192 F400.000
G1 X7.135 Y6.474 F400.000
G1 X6.883 Y6.748 F400.000
G1 X6.620 Y7.011 F400.000
G1 X6.342 Y7.259 F400.000
G1 X6.056 Y7.500 F400.000
G1 X5.763 Y7.726 F400.000
G1 X5.459 Y7.940 F400.000
G1 X4.827 Y8.338 F400.000
G1 X4.500 Y8.515 F400.000
G1 X4.165 Y8.680 F400.000
G1 X3.827 Y8.835 F400.000
G1 X3.481 Y8.977 F400.000
G1 X3.132 Y9.105 F400.000
G1 X2.778 Y9.222 F400.000
G1 X2.417 Y9.323 F400.000
G1 X2.056 Y9.414 F400.000
G1 X1.692 Y9.489 F400.000
G1 X1.323 Y9.549 F400.000
G1 X0.951 Y9.598 F400.000
G1 X0.579 Y9.632 F400.000
G1 X0.207 Y9.650 F400.000
G1 X-0.530 Y9.658 F400.000
G1 X-0.898 Y9.643 F400.000
G1 X-1.635 Y9.553 F400.000
G1 X-2.000 Y9.489 F400.000
G1 X-2.361 Y9.406 F400.000
G1 X-2.718 Y9.312 F400.000
G1 X-3.071 Y9.199 F400.000
G1 X-3.421 Y9.071 F400.000
G1 X-3.763 Y8.932 F400.000
G1 X-4.436 Y8.617 F400.000
G1 X-4.763 Y8.440 F400.000
G1 X-5.083 Y8.252 F400.000
G1 X-5.395 Y8.053 F400.000
G1 X-5.699 Y7.842 F400.000
G1 X-5.996 Y7.620 F400.000
G1 X-6.286 Y7.387 F400.000
G1 X-6.823 Y6.872 F400.000
G1 X-7.075 Y6.598 F400.000
G1 X-7.320 Y6.316 F400.000
G1 X-7.553 Y6.023 F400.000
G1 X-7.774 Y5.722 F400.000
G1 X-8.188 Y5.102 F400.000
G1 X-8.556 Y4.455 F400.000
G1 X-8.726 Y4.124 F400.000
G1 X-8.883 Y3.786 F400.000
G1 X-9.023 Y3.440 F400.000
G1 X-9.150 Y3.090 F400.000
G1 X-9.263 Y2.733 F400.000
G1 X-9.361 Y2.372 F400.000
G1 X-9.447 Y2.008 F400.000
G1 X-9.583 Y1.271 F400.000
G1 X-9.673 Y0.526 F400.000
G1 X-9.703 Y0.154 F400.000
G1 X-9.707 Y-0.583 F400.000
G1 X-9.688 Y-0.951 F400.000
G1 X-9.650 Y-1.320 F400.000
G1 X-9.590 Y-1.684 F400.000
G1 X-9.519 Y-2.049 F400.000
G1 X-9.429 Y-2.410 F400.000
G1 X-9.327 Y-2.767 F400.000
G1 X-9.211 Y-3.120 F400.000
G1 X-8.944 Y-3.812 F400.000
G1 X-8.789 Y-4.150 F400.000
G1 X-8.624 Y-4.481 F400.000
G1 X-8.447 Y-4.808 F400.000
G1 X-8.259 Y-5.128 F400.000
G1 X-8.060 Y-5.440 F400.000
G1 X-7.850 Y-5.748 F400.000
G1 X-7.628 Y-6.045 F400.000
G1 X-7.154 Y-6.617 F400.000
G1 X-6.902 Y-6.891 F400.000
G1 X-6.639 Y-7.154 F400.000
G1 X-6.368 Y-7.410 F400.000
G1 X-5.786 Y-7.872 F400.000
G1 X-5.173 Y-8.297 F400.000
G1 X-4.853 Y-8.492 F400.000
G1 X-4.530 Y-8.677 F400.000
G1 X-4.199 Y-8.850 F400.000
G1 X-3.861 Y-9.008 F400.000
G1 X-3.519 Y-9.154 F400.000
G1 X-3.173 Y-9.289 F400.000
G1 X-2.820 Y-9.414 F400.000
G1 X-2.462 Y-9.526 F400.000
G1 X-2.102 Y-9.624 F400.000
G1 X-1.737 Y-9.711 F400.000
G1 X-1.372 Y-9.782 F400.000
G1 X-1.004 Y-9.842 F400.000
G1 X-0.632 Y-9.887 F400.000
G1 X0.109 Y-9.910 F400.000
G1 X0.477 Y-9.910 F400.000
G1 X0.846 Y-9.898 F400.000
G1 X1.214 Y-9.872 F400.000
G1 X1.583 Y-9.835 F400.000
G1 X2.312 Y-9.692 F400.000
G1 X2.673 Y-9.602 F400.000
G1 X3.026 Y-9.489 F400.000
G1 X3.722 Y-9.233 F400.000
G1 X4.398 Y-8.929 F400.000
G1 X4.729 Y-8.759 F400.000
G1 X5.372 Y-8.391 F400.000
G1 X5.684 Y-8.192 F400.000
G1 X5.989 Y-7.981 F400.000
G1 X6.571 Y-7.523 F400.000
G1 X6.850 Y-7.278 F400.000
G1 X7.120 Y-7.023 F400.000
G1 X7.380 Y-6.756 F400.000
G1 X7.628 Y-6.481 F400.000
G1 X7.868 Y-6.195 F400.000
G1 X8.098 Y-5.902 F400.000
G1 X8.316 Y-5.598 F400.000
G1 X8.523 Y-5.286 F400.000
G1 X8.718 Y-4.966 F400.000
G1 X8.898 Y-4.639 F400.000
G1 X9.068 Y-4.308 F400.000
G1 X9.226 Y-3.970 F400.000
G1 X9.368 Y-3.624 F400.000
G1 X9.500 Y-3.274 F400.000
G1 X9.617 Y-2.921 F400.000
G1 X9.722 Y-2.564 F400.000
G1 X9.812 Y-2.203 F400.000
G1 X9.891 Y-1.838 F400.000
G1 X10.011 Y-1.102 F400.000
G1 X10.053 Y-0.729 F400.000
G1 X10.083 Y-0.357 F400.000
G1 X10.102 Y0.011 F400.000
G1 X10.109 Y0.380 F400.000
G1 X10.105 Y0.748 F400.000
G1 X10.038 Y1.485 F400.000
G1 X9.898 Y2.214 F400.000
G1 X9.808 Y2.575 F400.000
G1 X9.707 Y2.932 F400.000
G1 X9.590 Y3.286 F400.000
G1 X9.459 Y3.632 F400.000
G1 X9.165 Y4.312 F400.000
G1 X9.000 Y4.643 F400.000
G1 X8.639 Y5.293 F400.000
G1 X8.444 Y5.609 F400.000
G1 X8.237 Y5.917 F400.000
G1 X7.793 Y6.511 F400.000
G1 X7.556 Y6.797 F400.000
G1 X7.297 Y7.064 F400.000
G1 X7.030 Y7.323 F400.000
G1 X6.470 Y7.816 F400.000
G1 X6.177 Y8.045 F400.000
G1 X5.568 Y8.474 F400.000
G1 X5.252 Y8.669 F400.000
G1 X4.929 Y8.853 F400.000
G1 X4.598 Y9.026 F400.000
G1 X4.263 Y9.188 F400.000
G1 X3.921 Y9.338 F400.000
G1 X3.575 Y9.477 F400.000
G1 X3.222 Y9.602 F400.000
G1 X2.865 Y9.714 F400.000
G1 X2.504 Y9.816 F400.000
G1 X2.139 Y9.902 F400.000
G1 X1.406 Y10.045 F400.000
G1 X1.038 Y10.098 F400.000
G1 X0.665 Y10.139 F400.000
G1 X-0.075 Y10.169 F400.000
G1 X-0.444 Y10.165 F400.000
G1 X-0.812 Y10.150 F400.000
G1 X-1.180 Y10.120 F400.000
G1 X-1.549 Y10.079 F400.000
G1 X-1.917 Y10.026 F400.000
G1 X-2.282 Y9.959 F400.000
G1 X-2.996 Y9.763 F400.000
G1 X-3.350 Y9.647 F400.000
G1 X-3.695 Y9.511 F400.000
G1 X-4.376 Y9.214 F400.000
G1 X-4.711 Y9.049 F400.000
G1 X-5.361 Y8.688 F400.000
G1 X-5.677 Y8.492 F400.000
G1 X-5.981 Y8.278 F400.000
G1 X-6.278 Y8.053 F400.000
G1 X-6.568 Y7.816 F400.000
G1 X-6.842 Y7.564 F400.000
G1 X-7.365 Y7.034 F400.000
G1 X-7.846 Y6.462 F400.000
G1 X-8.071 Y6.165 F400.000
G1 X-8.496 Y5.553 F400.000
G1 X-8.883 Y4.914 F400.000
G1 X-9.064 Y4.586 F400.000
G1 X-9.383 Y3.910 F400.000
G1 X-9.526 Y3.564 F400.000
G1 X-9.654 Y3.214 F400.000
G1 X-9.759 Y2.857 F400.000
G1 X-9.944 Y2.135 F400.000
G1 X-10.019 Y1.771 F400.000
G1 X-10.139 Y1.034 F400.000
G1 X-10.180 Y0.662 F400.000
G1 X-10.233 Y-0.079 F400.000
G1 X-10.218 Y-0.816 F400.000
G1 X-10.192 Y-1.184 F400.000
G1 X-10.071 Y-1.914 F400.000
G1 X-9.989 Y-2.274 F400.000
G1 X-9.895 Y-2.635 F400.000
G1 X-9.673 Y-3.342 F400.000
G1 X-9.545 Y-3.692 F400.000
G1 X-9.252 Y-4.372 F400.000
G1 X-9.090 Y-4.707 F400.000
G1 X-8.917 Y-5.034 F400.000
G1 X-8.733 Y-5.357 F400.000
G1 X-8.538 Y-5.673 F400.000
G1 X-8.331 Y-5.981 F400.000
G1 X-7.880 Y-6.575 F400.000
G1 X-7.639 Y-6.861 F400.000
G1 X-7.387 Y-7.135 F400.000
G1 X-7.128 Y-7.402 F400.000
G1 X-6.857 Y-7.658 F400.000
G1 X-6.575 Y-7.902 F400.000
G1 X-6.286 Y-8.135 F400.000
G1 X-5.989 Y-8.357 F400.000
G1 X-5.680 Y-8.568 F400.000
G1 X-5.049 Y-8.962 F400.000
G1 X-4.391 Y-9.316 F400.000
G1 X-4.056 Y-9.481 F400.000
G1 X-3.714 Y-9.635 F400.000
G1 X-3.368 Y-9.778 F400.000
G1 X-2.658 Y-10.004 F400.000
G1 X-2.297 Y-10.105 F400.000
G1 X-1.936 Y-10.195 F400.000
G1 X-1.571 Y-10.274 F400.000
G1 X-0.835 Y-10.387 F400.000
G1 X-0.462 Y-10.410 F400.000
G1 X0.278 Y-10.432 F400.000
G1 X0.647 Y-10.432 F400.000
G1 X1.015 Y-10.417 F400.000
G1 X1.383 Y-10.380 F400.000
G1 X1.752 Y-10.327 F400.000
G1 X2.117 Y-10.263 F400.000
G1 X2.477 Y-10.180 F400.000
G1 X2.835 Y-10.083 F400.000
G1 X3.538 Y-9.850 F400.000
G1 X3.883 Y-9.718 F400.000
G1 X4.564 Y-9.425 F400.000
G1 X4.898 Y-9.263 F400.000
G1 X5.549 Y-8.910 F400.000
G1 X6.169 Y-8.496 F400.000
G1 X6.466 Y-8.274 F400.000
G1 X7.038 Y-7.793 F400.000
G1 X7.312 Y-7.545 F400.000
G1 X7.575 Y-7.282 F400.000
G1 X7.831 Y-7.011 F400.000
G1 X8.079 Y-6.733 F400.000
G1 X8.545 Y-6.154 F400.000
G1 X8.763 Y-5.853 F400.000
G1 X9.169 Y-5.229 F400.000
G1 X9.357 Y-4.906 F400.000
G1 X9.680 Y-4.233 F400.000
G1 X9.823 Y-3.887 F400.000
G1 X10.075 Y-3.184 F400.000
G1 X10.180 Y-2.827 F400.000
G1 X10.274 Y-2.466 F400.000
G1 X10.432 Y-1.737 F400.000
G1 X10.492 Y-1.368 F400.000
G1 X10.583 Y-0.624 F400.000
G1 X10.628 Y0.117 F400.000
G1 X10.635 Y0.485 F400.000
G1 X10.590 Y1.222 F400.000
G1 X10.549 Y1.590 F400.000
G1 X10.492 Y1.955 F400.000
G1 X10.410 Y2.316 F400.000
G1 X10.214 Y3.030 F400.000
G1 X10.102 Y3.383 F400.000
G1 X9.974 Y3.733 F400.000
G1 X9.835 Y4.079 F400.000
G1 X9.684 Y4.417 F400.000
G1 X9.523 Y4.752 F400.000
G1 X9.350 Y5.079 F400.000
G1 X8.977 Y5.722 F400.000
G1 X8.564 Y6.342 F400.000
G1 X8.346 Y6.643 F400.000
G1 X7.861 Y7.207 F400.000
G1 X7.605 Y7.477 F400.000
G1 X7.335 Y7.733 F400.000
G1 X7.056 Y7.981 F400.000
G1 X6.477 Y8.451 F400.000
G1 X5.868 Y8.880 F400.000
G1 X5.556 Y9.083 F400.000
G1 X4.910 Y9.451 F400.000
G1 X4.579 Y9.620 F400.000
G1 X4.241 Y9.778 F400.000
G1 X3.898 Y9.925 F400.000
G1 X3.195 Y10.165 F400.000
G1 X2.477 Y10.361 F400.000
G1 X2.113 Y10.440 F400.000
G1 X1.744 Y10.508 F400.000
G1 X1.004 Y10.613 F400.000
G1 X0.632 Y10.647 F400.000
G1 X-0.109 Y10.684 F400.000
G1 X-0.477 Y10.684 F400.000
G1 X-0.846 Y10.673 F400.000
G1 X-1.214 Y10.650 F400.000
G1 X-1.951 Y10.553 F400.000
G1 X-2.316 Y10.485 F400.000
G1 X-2.677 Y10.398 F400.000
G1 X-3.034 Y10.301 F400.000
G1 X-3.387 Y10.188 F400.000
G1 X-3.737 Y10.060 F400.000
G1 X-4.079 Y9.921 F400.000
G1 X-4.752 Y9.609 F400.000
G1 X-5.083 Y9.444 F400.000
G1 X-5.410 Y9.263 F400.000
G1 X-6.041 Y8.872 F400.000
G1 X-6.346 Y8.662 F400.000
G1 X-6.925 Y8.195 F400.000
G1 X-7.203 Y7.947 F400.000
G1 X-7.466 Y7.684 F400.000
G1 X-7.722 Y7.414 F400.000
G1 X-7.966 Y7.132 F400.000
G1 X-8.429 Y6.545 F400.000
G1 X-8.861 Y5.940 F400.000
G1 X-9.068 Y5.628 F400.000
G1 X-9.447 Y4.985 F400.000
G1 X-9.624 Y4.658 F400.000
G1 X-9.921 Y3.974 F400.000
G1 X-10.053 Y3.624 F400.000
G1 X-10.169 Y3.271 F400.000
G1 X-10.372 Y2.553 F400.000
G1 X-10.462 Y2.188 F400.000
G1 X-10.605 Y1.455 F400.000
G1 X-10.662 Y1.086 F400.000
G1 X-10.707 Y0.714 F400.000
G1 X-10.752 Y-0.026 F400.000
G1 X-10.756 Y-0.395 F400.000
G1 X-10.744 Y-0.763 F400.000
G1 X-10.722 Y-1.132 F400.000
G1 X-10.617 Y-1.865 F400.000
G1 X-10.545 Y-2.229 F400.000
G1 X-10.451 Y-2.590 F400.000
G1 X-10.237 Y-3.301 F400.000
G1 X-10.117 Y-3.650 F400.000
G1 X-9.838 Y-4.338 F400.000
G1 X-9.523 Y-5.011 F400.000
G1 X-9.169 Y-5.665 F400.000
G1 X-8.752 Y-6.278 F400.000
G1 X-8.301 Y-6.872 F400.000
G1 X-8.060 Y-7.158 F400.000
G1 X-7.812 Y-7.436 F400.000
G1 X-7.556 Y-7.707 F400.000
G1 X-7.004 Y-8.207 F400.000
G1 X-6.421 Y-8.669 F400.000
G1 X-6.117 Y-8.887 F400.000
G1 X-5.492 Y-9.293 F400.000
G1 X-4.846 Y-9.665 F400.000
G1 X-4.180 Y-9.996 F400.000
G1 X-3.492 Y-10.282 F400.000
G1 X-3.143 Y-10.410 F400.000
G1 X-2.429 Y-10.628 F400.000
G1 X-1.695 Y-10.778 F400.000
G1 X-1.327 Y-10.842 F400.000
G1 X-0.211 Y-10.947 F400.000
G1 X0.158 Y-10.959 F400.000
G1 X0.895 Y-10.951 F400.000
G1 X1.263 Y-10.929 F400.000
G1 X1.632 Y-10.880 F400.000
G1 X1.996 Y-10.812 F400.000
G1 X2.718 Y-10.647 F400.000
G1 X3.075 Y-10.549 F400.000
G1 X3.778 Y-10.316 F400.000
G1 X4.124 Y-10.184 F400.000
G1 X4.466 Y-10.041 F400.000
G1 X4.805 Y-9.887 F400.000
G1 X5.135 Y-9.722 F400.000
G1 X5.786 Y-9.361 F400.000
G1 X6.102 Y-9.165 F400.000
G1 X6.714 Y-8.744 F400.000
G1 X7.011 Y-8.519 F400.000
G1 X7.564 Y-8.019 F400.000
G1 X7.831 Y-7.763 F400.000
G1 X8.090 Y-7.496 F400.000
G1 X8.583 Y-6.940 F400.000
G1 X9.041 Y-6.353 F400.000
G1 X9.259 Y-6.049 F400.000
G1 X9.466 Y-5.741 F400.000
G1 X9.831 Y-5.090 F400.000
G1 X9.996 Y-4.756 F400.000
G1 X10.150 Y-4.417 F400.000
G1 X10.293 Y-4.071 F400.000
G1 X10.425 Y-3.722 F400.000
G1 X10.658 Y-3.011 F400.000
G1 X10.846 Y-2.289 F400.000
G1 X10.929 Y-1.925 F400.000
G1 X11.056 Y-1.188 F400.000
G1 X11.105 Y-0.816 F400.000
G1 X11.147 Y-0.071 F400.000
G1 X11.150 Y0.297 F400.000
G1 X11.143 Y0.665 F400.000
G1 X11.124 Y1.034 F400.000
G1 X11.090 Y1.402 F400.000
G1 X11.034 Y1.767 F400.000
G1 X10.891 Y2.496 F400.000
G1 X10.797 Y2.853 F400.000
G1 X10.692 Y3.211 F400.000
G1 X10.451 Y3.914 F400.000
G1 X10.312 Y4.259 F400.000
G1 X10.004 Y4.932 F400.000
G1 X9.835 Y5.263 F400.000
G1 X9.466 Y5.910 F400.000
G1 X9.267 Y6.222 F400.000
G1 X8.838 Y6.831 F400.000
G1 X8.372 Y7.410 F400.000
G1 X8.117 Y7.680 F400.000
G1 X7.853 Y7.944 F400.000
G1 X7.301 Y8.444 F400.000
G1 X7.011 Y8.680 F400.000
G1 X6.410 Y9.124 F400.000
G1 X5.786 Y9.534 F400.000
G1 X5.466 Y9.726 F400.000
G1 X4.808 Y10.079 F400.000
G1 X4.124 Y10.376 F400.000
G1 X3.774 Y10.508 F400.000
G1 X3.421 Y10.628 F400.000
G1 X3.064 Y10.737 F400.000
G1 X2.703 Y10.835 F400.000
G1 X2.338 Y10.921 F400.000
G1 X1.974 Y10.996 F400.000
G1 X1.605 Y11.060 F400.000
G1 X1.233 Y11.109 F400.000
G1 X0.861 Y11.147 F400.000
G1 X0.489 Y11.173 F400.000
G1 X-0.252 Y11.199 F400.000
G1 X-0.620 Y11.195 F400.000
G1 X-1.357 Y11.158 F400.000
G1 X-2.090 Y11.053 F400.000
G1 X-2.455 Y10.981 F400.000
G1 X-2.816 Y10.895 F400.000
G1 X-3.173 Y10.797 F400.000
G1 X-3.526 Y10.684 F400.000
G1 X-3.876 Y10.556 F400.000
G1 X-4.564 Y10.274 F400.000
G1 X-4.898 Y10.117 F400.000
G1 X-5.556 Y9.771 F400.000
G1 X-6.188 Y9.380 F400.000
G1 X-6.797 Y8.951 F400.000
G1 X-7.376 Y8.485 F400.000
G1 X-7.647 Y8.229 F400.000
G1 X-7.910 Y7.966 F400.000
G1 X-8.162 Y7.692 F400.000
G1 X-8.406 Y7.410 F400.000
G1 X-8.868 Y6.827 F400.000
G1 X-9.297 Y6.218 F400.000
G1 X-9.500 Y5.906 F400.000
G1 X-9.876 Y5.263 F400.000
G1 X-10.214 Y4.598 F400.000
G1 X-10.368 Y4.259 F400.000
G1 X-10.624 Y3.560 F400.000
G1 X-10.835 Y2.842 F400.000
G1 X-11.011 Y2.113 F400.000
G1 X-11.147 Y1.376 F400.000
G1 X-11.203 Y1.008 F400.000
G1 X-11.259 Y0.263 F400.000
G1 X-11.271 Y-0.105 F400.000
G1 X-11.271 Y-0.474 F400.000
G1 X-11.259 Y-0.842 F400.000
G1 X-11.237 Y-1.211 F400.000
G1 X-11.128 Y-1.944 F400.000
G1 X-11.053 Y-2.308 F400.000
G1 X-10.966 Y-2.669 F400.000
G1 X-10.759 Y-3.380 F400.000
G1 X-10.639 Y-3.729 F400.000
G1 X-10.508 Y-4.075 F400.000
G1 X-10.218 Y-4.759 F400.000
G1 X-10.060 Y-5.094 F400.000
G1 X-9.718 Y-5.752 F400.000
G1 X-9.323 Y-6.380 F400.000
G1 X-9.113 Y-6.684 F400.000
G1 X-8.654 Y-7.271 F400.000
G1 X-8.410 Y-7.553 F400.000
G1 X-8.154 Y-7.823 F400.000
G1 X-7.891 Y-8.086 F400.000
G1 X-7.338 Y-8.586 F400.000
G1 X-6.759 Y-9.053 F400.000
G1 X-6.459 Y-9.274 F400.000
G1 X-5.838 Y-9.688 F400.000
G1 X-5.195 Y-10.068 F400.000
G1 X-4.534 Y-10.414 F400.000
G1 X-3.846 Y-10.703 F400.000
G1 X-3.143 Y-10.951 F400.000
G1 X-2.786 Y-11.060 F400.000
G1 X-2.425 Y-11.158 F400.000
G1 X-2.060 Y-11.244 F400.000
G1 X-0.955 Y-11.410 F400.000
G1 X-0.211 Y-11.477 F400.000
G1 X0.526 Y-11.485 F400.000
G1 X0.895 Y-11.470 F400.000
G1 X1.263 Y-11.440 F400.000
G1 X1.632 Y-11.398 F400.000
G1 X2.000 Y-11.346 F400.000
G1 X2.365 Y-11.278 F400.000
G1 X2.726 Y-11.199 F400.000
G1 X3.086 Y-11.105 F400.000
G1 X3.444 Y-11.000 F400.000
G1 X3.797 Y-10.883 F400.000
G1 X4.143 Y-10.756 F400.000
G1 X4.485 Y-10.613 F400.000
G1 X5.158 Y-10.301 F400.000
G1 X5.808 Y-9.947 F400.000
G1 X6.128 Y-9.759 F400.000
G1 X6.440 Y-9.560 F400.000
G1 X7.049 Y-9.132 F400.000
G1 X7.342 Y-8.906 F400.000
G1 X7.632 Y-8.669 F400.000
G1 X8.169 Y-8.154 F400.000
G1 X8.432 Y-7.891 F400.000
G1 X8.684 Y-7.617 F400.000
G1 X9.165 Y-7.049 F400.000
G1 X9.617 Y-6.455 F400.000
G1 X9.827 Y-6.150 F400.000
G1 X10.199 Y-5.504 F400.000
G1 X10.530 Y-4.831 F400.000
G1 X10.677 Y-4.489 F400.000
G1 X10.944 Y-3.789 F400.000
G1 X11.169 Y-3.079 F400.000
G1 X11.271 Y-2.718 F400.000
G1 X11.436 Y-1.989 F400.000
G1 X11.504 Y-1.620 F400.000
G1 X11.609 Y-0.880 F400.000
G1 X11.647 Y-0.508 F400.000
G1 X11.665 Y0.233 F400.000
G1 X11.665 Y0.602 F400.000
G1 X11.613 Y1.338 F400.000
G1 X11.571 Y1.707 F400.000
G1 X11.515 Y2.071 F400.000
G1 X11.447 Y2.436 F400.000
G1 X11.357 Y2.797 F400.000
G1 X11.147 Y3.508 F400.000
G1 X11.026 Y3.857 F400.000
G1 X10.756 Y4.545 F400.000
G1 X10.605 Y4.883 F400.000
G1 X10.444 Y5.218 F400.000
G1 X10.090 Y5.872 F400.000
G1 X9.898 Y6.192 F400.000
G1 X9.485 Y6.808 F400.000
G1 X9.034 Y7.402 F400.000
G1 X8.797 Y7.688 F400.000
G1 X8.549 Y7.966 F400.000
G1 X8.293 Y8.237 F400.000
G1 X8.030 Y8.500 F400.000
G1 X7.752 Y8.748 F400.000
G1 X7.466 Y8.989 F400.000
G1 X6.876 Y9.440 F400.000
G1 X6.256 Y9.853 F400.000
G1 X5.613 Y10.233 F400.000
G1 X4.951 Y10.579 F400.000
G1 X4.613 Y10.741 F400.000
G1 X3.914 Y11.008 F400.000
G1 X3.203 Y11.233 F400.000
G1 X2.842 Y11.331 F400.000
G1 X2.477 Y11.417 F400.000
G1 X2.113 Y11.492 F400.000
G1 X1.744 Y11.556 F400.000
G1 X1.376 Y11.609 F400.000
G1 X1.004 Y11.650 F400.000
G1 X0.632 Y11.680 F400.000
G1 X-0.109 Y11.714 F400.000
G1 X-0.477 Y11.714 F400.000
G1 X-1.214 Y11.684 F400.000
G1 X-1.583 Y11.654 F400.000
G1 X-1.951 Y11.605 F400.000
G1 X-2.316 Y11.541 F400.000
G1 X-2.680 Y11.466 F400.000
G1 X-3.395 Y11.271 F400.000
G1 X-3.748 Y11.154 F400.000
G1 X-4.098 Y11.026 F400.000
G1 X-4.444 Y10.887 F400.000
G1 X-5.120 Y10.583 F400.000
G1 X-5.778 Y10.237 F400.000
G1 X-6.102 Y10.053 F400.000
G1 X-6.729 Y9.654 F400.000
G1 X-7.034 Y9.444 F400.000
G1 X-7.609 Y8.974 F400.000
G1 X-7.883 Y8.722 F400.000
G1 X-8.147 Y8.459 F400.000
G1 X-8.654 Y7.914 F400.000
G1 X-8.898 Y7.632 F400.000
G1 X-9.361 Y7.049 F400.000
G1 X-9.583 Y6.748 F400.000
G1 X-9.996 Y6.128 F400.000
G1 X-10.361 Y5.477 F400.000
G1 X-10.530 Y5.143 F400.000
G1 X-10.835 Y4.459 F400.000
G1 X-11.098 Y3.763 F400.000
G1 X-11.214 Y3.410 F400.000
G1 X-11.320 Y3.053 F400.000
G1 X-11.500 Y2.327 F400.000
G1 X-11.575 Y1.962 F400.000
G1 X-11.639 Y1.594 F400.000
G1 X-11.692 Y1.226 F400.000
G1 X-11.733 Y0.853 F400.000
G1 X-11.763 Y0.481 F400.000
G1 X-11.793 Y-0.259 F400.000
G1 X-11.793 Y-0.628 F400.000
G1 X-11.733 Y-1.365 F400.000
G1 X-11.684 Y-1.733 F400.000
G1 X-11.545 Y-2.462 F400.000
G1 X-11.455 Y-2.823 F400.000
G1 X-11.248 Y-3.538 F400.000
G1 X-11.004 Y-4.237 F400.000
G1 X-10.868 Y-4.583 F400.000
G1 X-10.571 Y-5.263 F400.000
G1 X-10.222 Y-5.917 F400.000
G1 X-10.030 Y-6.237 F400.000
G1 X-9.620 Y-6.857 F400.000
G1 X-9.169 Y-7.451 F400.000
G1 X-8.932 Y-7.741 F400.000
G1 X-8.688 Y-8.019 F400.000
G1 X-8.432 Y-8.289 F400.000
G1 X-8.169 Y-8.553 F400.000
G1 X-7.898 Y-8.808 F400.000
G1 X-7.620 Y-9.056 F400.000
G1 X-7.030 Y-9.508 F400.000
G1 X-6.421 Y-9.936 F400.000
G1 X-5.786 Y-10.327 F400.000
G1 X-5.135 Y-10.688 F400.000
G1 X-4.801 Y-10.857 F400.000
G1 X-4.120 Y-11.165 F400.000
G1 X-3.417 Y-11.417 F400.000
G1 X-3.060 Y-11.526 F400.000
G1 X-2.699 Y-11.620 F400.000
G1 X-1.970 Y-11.782 F400.000
G1 X-1.233 Y-11.902 F400.000
G1 X-0.861 Y-11.951 F400.000
G1 X-0.489 Y-11.989 F400.000
G1 X0.252 Y-12.019 F400.000
G1 X0.620 Y-12.019 F400.000
G1 X1.357 Y-11.959 F400.000
G1 X2.090 Y-11.853 F400.000
G1 X2.820 Y-11.707 F400.000
G1 X3.180 Y-11.620 F400.000
G1 X3.538 Y-11.523 F400.000
G1 X3.891 Y-11.414 F400.000
G1 X4.583 Y-11.150 F400.000
G1 X4.925 Y-11.004 F400.000
G1 X5.259 Y-10.842 F400.000
G1 X5.914 Y-10.492 F400.000
G1 X6.237 Y-10.308 F400.000
G1 X6.865 Y-9.910 F400.000
G1 X7.470 Y-9.481 F400.000
G1 X8.038 Y-9.004 F400.000
G1 X8.312 Y-8.752 F400.000
G1 X8.575 Y-8.489 F400.000
G1 X9.086 Y-7.947 F400.000
G1 X9.564 Y-7.376 F400.000
G1 X9.793 Y-7.083 F400.000
G1 X10.226 Y-6.477 F400.000
G1 X10.609 Y-5.835 F400.000
G1 X10.786 Y-5.508 F400.000
G1 X11.102 Y-4.835 F400.000
G1 X11.241 Y-4.489 F400.000
G1 X11.492 Y-3.786 F400.000
G1 X11.609 Y-3.432 F400.000
G1 X11.816 Y-2.714 F400.000
G1 X11.906 Y-2.353 F400.000
G1 X12.049 Y-1.620 F400.000
G1 X12.105 Y-1.252 F400.000
G1 X12.173 Y-0.508 F400.000
G1 X12.192 Y-0.135 F400.000
G1 X12.195 Y0.233 F400.000
G1 X12.188 Y0.602 F400.000
G1 X12.169 Y0.970 F400.000
G1 X12.135 Y1.338 F400.000
G1 X12.090 Y1.707 F400.000
G1 X12.034 Y2.071 F400.000
G1 X11.966 Y2.436 F400.000
G1 X11.883 Y2.797 F400.000
G1 X11.789 Y3.154 F400.000
G1 X11.684 Y3.511 F400.000
G1 X11.568 Y3.865 F400.000
G1 X11.308 Y4.560 F400.000
G1 X11.008 Y5.241 F400.000
G1 X10.669 Y5.902 F400.000
G1 X10.293 Y6.545 F400.000
G1 X9.880 Y7.165 F400.000
G1 X9.436 Y7.759 F400.000
G1 X8.936 Y8.312 F400.000
G1 X8.680 Y8.583 F400.000
G1 X8.135 Y9.090 F400.000
G1 X7.853 Y9.335 F400.000
G1 X7.560 Y9.568 F400.000
G1 X6.959 Y10.004 F400.000
G1 X6.650 Y10.214 F400.000
G1 X6.015 Y10.605 F400.000
G1 X5.692 Y10.789 F400.000
G1 X5.026 Y11.128 F400.000
G1 X4.338 Y11.417 F400.000
G1 X3.989 Y11.545 F400.000
G1 X3.635 Y11.662 F400.000
G1 X3.278 Y11.767 F400.000
G1 X2.917 Y11.861 F400.000
G1 X2.553 Y11.944 F400.000
G1 X2.184 Y12.015 F400.000
G1 X1.075 Y12.173 F400.000
G1 X0.331 Y12.237 F400.000
G1 X-0.406 Y12.256 F400.000
G1 X-0.774 Y12.252 F400.000
G1 X-1.143 Y12.237 F400.000
G1 X-1.880 Y12.150 F400.000
G1 X-2.244 Y12.090 F400.000
G1 X-2.609 Y12.019 F400.000
G1 X-2.970 Y11.936 F400.000
G1 X-3.327 Y11.842 F400.000
G1 X-3.684 Y11.737 F400.000
G1 X-4.038 Y11.620 F400.000
G1 X-4.387 Y11.492 F400.000
G1 X-4.729 Y11.353 F400.000
G1 X-5.068 Y11.203 F400.000
G1 X-5.402 Y11.041 F400.000
G1 X-5.733 Y10.868 F400.000
G1 X-6.380 Y10.500 F400.000
G1 X-7.004 Y10.094 F400.000
G1 X-7.308 Y9.883 F400.000
G1 X-7.883 Y9.414 F400.000
G1 X-8.162 Y9.165 F400.000
G1 X-8.432 Y8.910 F400.000
G1 X-8.695 Y8.647 F400.000
G1 X-8.947 Y8.372 F400.000
G1 X-9.429 Y7.801 F400.000
G1 X-9.662 Y7.511 F400.000
G1 X-10.098 Y6.910 F400.000
G1 X-10.308 Y6.602 F400.000
G1 X-10.508 Y6.289 F400.000
G1 X-10.872 Y5.639 F400.000
G1 X-11.041 Y5.305 F400.000
G1 X-11.342 Y4.624 F400.000
G1 X-11.477 Y4.274 F400.000
G1 X-11.602 Y3.921 F400.000
G1 X-11.714 Y3.564 F400.000
G1 X-11.816 Y3.203 F400.000
G1 X-11.996 Y2.477 F400.000
G1 X-12.203 Y1.376 F400.000
G1 X-12.252 Y1.004 F400.000
G1 X-12.301 Y0.259 F400.000
G1 X-12.312 Y-0.109 F400.000
G1 X-12.312 Y-0.477 F400.000
G1 X-12.301 Y-0.846 F400.000
G1 X-12.278 Y-1.214 F400.000
G1 X-12.173 Y-1.947 F400.000
G1 X-12.023 Y-2.673 F400.000
G1 X-11.936 Y-3.034 F400.000
G1 X-11.726 Y-3.744 F400.000
G1 X-11.481 Y-4.444 F400.000
G1 X-11.203 Y-5.132 F400.000
G1 X-10.872 Y-5.797 F400.000
G1 X-10.508 Y-6.447 F400.000
G1 X-10.312 Y-6.763 F400.000
G1 X-9.891 Y-7.376 F400.000
G1 X-9.440 Y-7.966 F400.000
G1 X-8.940 Y-8.515 F400.000
G1 X-8.410 Y-9.038 F400.000
G1 X-8.132 Y-9.286 F400.000
G1 X-7.556 Y-9.759 F400.000
G1 X-7.259 Y-9.985 F400.000
G1 X-6.647 Y-10.406 F400.000
G1 X-6.331 Y-10.605 F400.000
G1 X-5.361 Y-11.158 F400.000
G1 X-5.030 Y-11.331 F400.000
G1 X-4.350 Y-11.639 F400.000
G1 X-4.004 Y-11.778 F400.000
G1 X-3.293 Y-12.008 F400.000
G1 X-2.571 Y-12.195 F400.000
G1 X-2.207 Y-12.274 F400.000
G1 X-1.838 Y-12.342 F400.000
G1 X-1.102 Y-12.451 F400.000
G1 X-0.357 Y-12.519 F400.000
G1 X0.011 Y-12.541 F400.000
G1 X0.748 Y-12.530 F400.000
G1 X1.117 Y-12.508 F400.000
G1 X1.853 Y-12.417 F400.000
G1 X2.218 Y-12.361 F400.000
G1 X2.947 Y-12.214 F400.000
G1 X3.308 Y-12.128 F400.000
G1 X3.665 Y-12.030 F400.000
G1 X4.368 Y-11.797 F400.000
G1 X4.714 Y-11.665 F400.000
G1 X5.395 Y-11.372 F400.000
G1 X5.729 Y-11.211 F400.000
G1 X6.056 Y-11.038 F400.000
G1 X6.695 Y-10.662 F400.000
G1 X7.008 Y-10.459 F400.000
G1 X7.609 Y-10.023 F400.000
G1 X7.906 Y-9.797 F400.000
G1 X8.474 Y-9.316 F400.000
G1 X9.004 Y-8.793 F400.000
G1 X9.263 Y-8.526 F400.000
G1 X9.515 Y-8.252 F400.000
G1 X10.000 Y-7.684 F400.000
G1 X10.440 Y-7.083 F400.000
G1 X10.647 Y-6.774 F400.000
G1 X11.030 Y-6.132 F400.000
G1 X11.207 Y-5.801 F400.000
G1 X11.372 Y-5.466 F400.000
G1 X11.526 Y-5.128 F400.000
G1 X11.812 Y-4.436 F400.000
G1 X12.060 Y-3.733 F400.000
G1 X12.173 Y-3.376 F400.000
G1 X12.368 Y-2.654 F400.000
G1 X12.455 Y-2.289 F400.000
G1 X12.530 Y-1.925 F400.000
G1 X12.632 Y-1.184 F400.000
G1 X12.692 Y-0.440 F400.000
G1 X12.707 Y-0.068 F400.000
G1 X12.711 Y0.301 F400.000
G1 X12.703 Y0.669 F400.000
G1 X12.684 Y1.038 F400.000
G1 X12.617 Y1.774 F400.000
G1 X12.485 Y2.504 F400.000
G1 X12.312 Y3.226 F400.000
G1 X12.207 Y3.583 F400.000
G1 X11.838 Y4.635 F400.000
G1 X11.545 Y5.316 F400.000
G1 X11.222 Y5.985 F400.000
G1 X10.868 Y6.635 F400.000
G1 X10.459 Y7.256 F400.000
G1 X10.015 Y7.853 F400.000
G1 X9.782 Y8.143 F400.000
G1 X9.289 Y8.699 F400.000
G1 X9.030 Y8.966 F400.000
G1 X8.763 Y9.226 F400.000
G1 X8.489 Y9.477 F400.000
G1 X7.921 Y9.959 F400.000
G1 X7.327 Y10.410 F400.000
G1 X6.707 Y10.823 F400.000
G1 X6.064 Y11.199 F400.000
G1 X5.398 Y11.538 F400.000
G1 X4.718 Y11.838 F400.000
G1 X4.372 Y11.974 F400.000
G1 X3.669 Y12.214 F400.000
G1 X3.312 Y12.320 F400.000
G1 X2.583 Y12.477 F400.000
G1 X1.846 Y12.613 F400.000
G1 X1.105 Y12.711 F400.000
G1 X0.361 Y12.778 F400.000
G1 X-0.376 Y12.789 F400.000
G1 X-0.744 Y12.782 F400.000
G1 X-1.113 Y12.759 F400.000
G1 X-1.481 Y12.726 F400.000
G1 X-1.850 Y12.680 F400.000
G1 X-2.214 Y12.624 F400.000
G1 X-2.579 Y12.556 F400.000
G1 X-2.940 Y12.477 F400.000
G1 X-3.301 Y12.387 F400.000
G1 X-3.658 Y12.286 F400.000
G1 X-4.011 Y12.173 F400.000
G1 X-4.361 Y12.049 F400.000
G1 X-5.049 Y11.774 F400.000
G1 X-5.722 Y11.459 F400.000
G1 X-6.380 Y11.113 F400.000
G1 X-7.015 Y10.729 F400.000
G1 X-7.620 Y10.301 F400.000
G1 X-7.914 Y10.075 F400.000
G1 X-8.477 Y9.594 F400.000
G1 X-8.748 Y9.338 F400.000
G1 X-9.011 Y9.075 F400.000
G1 X-9.263 Y8.801 F400.000
G1 X-9.752 Y8.237 F400.000
G1 X-10.211 Y7.647 F400.000
G1 X-10.639 Y7.038 F400.000
G1 X-11.038 Y6.410 F400.000
G1 X-11.406 Y5.759 F400.000
G1 X-11.726 Y5.086 F400.000
G1 X-11.872 Y4.744 F400.000
G1 X-12.128 Y4.041 F400.000
G1 X-12.241 Y3.684 F400.000
G1 X-12.342 Y3.323 F400.000
G1 X-12.432 Y2.959 F400.000
G1 X-12.590 Y2.229 F400.000
G1 X-12.763 Y1.124 F400.000
G1 X-12.805 Y0.752 F400.000
G1 X-12.846 Y0.008 F400.000
G1 X-12.853 Y-0.361 F400.000
G1 X-12.812 Y-1.098 F400.000
G1 X-12.722 Y-1.835 F400.000
G1 X-12.662 Y-2.199 F400.000
G1 X-12.504 Y-2.925 F400.000
G1 X-12.308 Y-3.639 F400.000
G1 X-12.075 Y-4.342 F400.000
G1 X-11.947 Y-4.692 F400.000
G1 X-11.662 Y-5.380 F400.000
G1 X-11.346 Y-6.053 F400.000
G1 X-10.981 Y-6.699 F400.000
G1 X-10.786 Y-7.015 F400.000
G1 X-10.365 Y-7.628 F400.000
G1 X-9.906 Y-8.214 F400.000
G1 X-9.662 Y-8.496 F400.000
G1 X-9.410 Y-8.771 F400.000
G1 X-8.887 Y-9.301 F400.000
G1 X-8.335 Y-9.797 F400.000
G1 X-8.049 Y-10.038 F400.000
G1 X-7.459 Y-10.489 F400.000
G1 X-6.846 Y-10.910 F400.000
G1 X-6.211 Y-11.301 F400.000
G1 X-5.883 Y-11.485 F400.000
G1 X-5.218 Y-11.823 F400.000
G1 X-4.880 Y-11.981 F400.000
G1 X-4.192 Y-12.267 F400.000
G1 X-3.842 Y-12.395 F400.000
G1 X-3.124 Y-12.602 F400.000
G1 X-2.395 Y-12.771 F400.000
G1 X-1.658 Y-12.898 F400.000
G1 X-0.917 Y-13.000 F400.000
G1 X-0.545 Y-13.038 F400.000
G1 X0.195 Y-13.068 F400.000
G1 X0.564 Y-13.068 F400.000
G1 X1.301 Y-13.030 F400.000
G1 X1.669 Y-12.992 F400.000
G1 X2.038 Y-12.944 F400.000
G1 X2.402 Y-12.883 F400.000
G1 X2.767 Y-12.812 F400.000
G1 X3.128 Y-12.729 F400.000
G1 X3.485 Y-12.635 F400.000
G1 X3.838 Y-12.530 F400.000
G1 X4.192 Y-12.414 F400.000
G1 X5.233 Y-12.019 F400.000
G1 X5.575 Y-11.872 F400.000
G1 X5.910 Y-11.711 F400.000
G1 X6.880 Y-11.158 F400.000
G1 X7.504 Y-10.752 F400.000
G1 X8.109 Y-10.316 F400.000
G1 X8.677 Y-9.838 F400.000
G1 X8.951 Y-9.586 F400.000
G1 X9.481 Y-9.064 F400.000
G1 X9.741 Y-8.797 F400.000
G1 X9.989 Y-8.523 F400.000
G1 X10.466 Y-7.947 F400.000
G1 X10.692 Y-7.650 F400.000
G1 X11.102 Y-7.026 F400.000
G1 X11.477 Y-6.383 F400.000
G1 X11.816 Y-5.718 F400.000
G1 X11.974 Y-5.380 F400.000
G1 X12.263 Y-4.692 F400.000
G1 X12.639 Y-3.635 F400.000
G1 X12.850 Y-2.917 F400.000
G1 X13.004 Y-2.188 F400.000
G1 X13.068 Y-1.820 F400.000
G1 X13.165 Y-1.075 F400.000
G1 X13.218 Y-0.331 F400.000
G1 X13.233 Y0.038 F400.000
G1 X13.237 Y0.406 F400.000
G1 X13.214 Y1.143 F400.000
G1 X13.128 Y1.880 F400.000
G1 X13.000 Y2.609 F400.000
G1 X12.917 Y2.970 F400.000
G1 X12.722 Y3.684 F400.000
G1 X12.613 Y4.038 F400.000
G1 X12.365 Y4.737 F400.000
G1 X12.229 Y5.083 F400.000
G1 X11.929 Y5.763 F400.000
G1 X11.767 Y6.098 F400.000
G1 X11.414 Y6.752 F400.000
G1 X11.011 Y7.376 F400.000
G1 X10.575 Y7.981 F400.000
G1 X10.346 Y8.274 F400.000
G1 X9.861 Y8.838 F400.000
G1 X9.605 Y9.109 F400.000
G1 X9.075 Y9.632 F400.000
G1 X8.801 Y9.883 F400.000
G1 X8.229 Y10.365 F400.000
G1 X7.940 Y10.598 F400.000
G1 X7.338 Y11.038 F400.000
G1 X6.703 Y11.432 F400.000
G1 X6.053 Y11.797 F400.000
G1 X5.383 Y12.128 F400.000
G1 X5.045 Y12.282 F400.000
G1 X4.699 Y12.425 F400.000
G1 X3.992 Y12.665 F400.000
G1 X3.635 Y12.771 F400.000
G1 X2.541 Y13.030 F400.000
G1 X1.805 Y13.162 F400.000
G1 X1.436 Y13.218 F400.000
G1 X1.064 Y13.263 F400.000
G1 X0.320 Y13.312 F400.000
G1 X-0.417 Y13.320 F400.000
G1 X-0.786 Y13.308 F400.000
G1 X-1.523 Y13.256 F400.000
G1 X-2.259 Y13.165 F400.000
G1 X-2.624 Y13.105 F400.000
G1 X-3.346 Y12.929 F400.000
G1 X-4.056 Y12.714 F400.000
G1 X-4.752 Y12.459 F400.000
G1 X-5.098 Y12.320 F400.000
G1 X-5.774 Y12.015 F400.000
G1 X-6.440 Y11.677 F400.000
G1 X-6.767 Y11.500 F400.000
G1 X-7.395 Y11.105 F400.000
G1 X-7.703 Y10.895 F400.000
G1 X-8.297 Y10.447 F400.000
G1 X-8.861 Y9.966 F400.000
G1 X-9.387 Y9.440 F400.000
G1 X-9.643 Y9.169 F400.000
G1 X-10.132 Y8.609 F400.000
G1 X-10.598 Y8.026 F400.000
G1 X-11.034 Y7.421 F400.000
G1 X-11.440 Y6.797 F400.000
G1 X-11.632 Y6.477 F400.000
G1 X-11.981 Y5.820 F400.000
G1 X-12.282 Y5.135 F400.000
G1 X-12.545 Y4.436 F400.000
G1 X-12.771 Y3.726 F400.000
G1 X-12.872 Y3.365 F400.000
G1 X-12.962 Y3.004 F400.000
G1 X-13.184 Y1.902 F400.000
G1 X-13.335 Y0.789 F400.000
G1 X-13.372 Y0.045 F400.000
G1 X-13.376 Y-0.323 F400.000
G1 X-13.346 Y-1.060 F400.000
G1 X-13.316 Y-1.429 F400.000
G1 X-13.218 Y-2.165 F400.000
G1 X-13.150 Y-2.530 F400.000
G1 X-13.071 Y-2.891 F400.000
G1 X-12.981 Y-3.252 F400.000
G1 X-12.880 Y-3.609 F400.000
G1 X-12.654 Y-4.316 F400.000
G1 X-12.391 Y-5.011 F400.000
G1 X-12.248 Y-5.353 F400.000
G1 X-11.932 Y-6.026 F400.000
G1 X-11.586 Y-6.684 F400.000
G1 X-11.211 Y-7.323 F400.000
G1 X-11.008 Y-7.635 F400.000
G1 X-10.560 Y-8.233 F400.000
G1 X-10.083 Y-8.805 F400.000
G1 X-9.831 Y-9.079 F400.000
G1 X-9.312 Y-9.613 F400.000
G1 X-8.767 Y-10.120 F400.000
G1 X-8.203 Y-10.602 F400.000
G1 X-7.910 Y-10.831 F400.000
G1 X-6.981 Y-11.451 F400.000
G1 X-6.342 Y-11.835 F400.000
G1 X-5.684 Y-12.192 F400.000
G1 X-5.350 Y-12.361 F400.000
G1 X-4.665 Y-12.658 F400.000
G1 X-4.316 Y-12.793 F400.000
G1 X-3.605 Y-13.026 F400.000
G1 X-3.244 Y-13.128 F400.000
G1 X-2.883 Y-13.218 F400.000
G1 X-2.519 Y-13.297 F400.000
G1 X-1.782 Y-13.429 F400.000
G1 X-1.041 Y-13.526 F400.000
G1 X-0.669 Y-13.564 F400.000
G1 X-0.297 Y-13.590 F400.000
G1 X0.440 Y-13.613 F400.000
G1 X0.808 Y-13.609 F400.000
G1 X1.545 Y-13.545 F400.000
G1 X2.282 Y-13.444 F400.000
G1 X2.647 Y-13.376 F400.000
G1 X3.368 Y-13.211 F400.000
G1 X4.432 Y-12.887 F400.000
G1 X5.128 Y-12.632 F400.000
G1 X5.474 Y-12.492 F400.000
G1 X6.147 Y-12.180 F400.000
G1 X6.477 Y-12.011 F400.000
G1 X7.120 Y-11.643 F400.000
G1 X7.436 Y-11.447 F400.000
G1 X8.049 Y-11.026 F400.000
G1 X8.639 Y-10.575 F400.000
G1 X8.925 Y-10.335 F400.000
G1 X9.203 Y-10.086 F400.000
G1 X9.474 Y-9.831 F400.000
G1 X9.737 Y-9.568 F400.000
G1 X10.248 Y-9.026 F400.000
G1 X10.733 Y-8.462 F400.000
G1 X10.966 Y-8.173 F400.000
G1 X11.387 Y-7.556 F400.000
G1 X11.774 Y-6.921 F400.000
G1 X12.128 Y-6.263 F400.000
G1 X12.293 Y-5.929 F400.000
G1 X12.602 Y-5.248 F400.000
G1 X12.880 Y-4.553 F400.000
G1 X13.128 Y-3.850 F400.000
G1 X13.241 Y-3.492 F400.000
G1 X13.417 Y-2.767 F400.000
G1 X13.564 Y-2.034 F400.000
G1 X13.624 Y-1.665 F400.000
G1 X13.714 Y-0.921 F400.000
G1 X13.767 Y-0.177 F400.000
G1 X13.782 Y0.192 F400.000
G1 X13.756 Y0.929 F400.000
G1 X13.688 Y1.665 F400.000
G1 X13.635 Y2.034 F400.000
G1 X13.500 Y2.763 F400.000
G1 X13.417 Y3.124 F400.000
G1 X13.323 Y3.481 F400.000
G1 X13.113 Y4.192 F400.000
G1 X12.865 Y4.891 F400.000
G1 X12.586 Y5.579 F400.000
G1 X12.278 Y6.252 F400.000
G1 X11.932 Y6.910 F400.000
G1 X11.323 Y7.842 F400.000
G1 X10.880 Y8.440 F400.000
G1 X10.406 Y9.015 F400.000
G1 X9.910 Y9.568 F400.000
G1 X9.650 Y9.835 F400.000
G1 X9.383 Y10.094 F400.000
G1 X8.823 Y10.583 F400.000
G1 X8.534 Y10.816 F400.000
G1 X7.624 Y11.466 F400.000
G1 X6.989 Y11.861 F400.000
G1 X6.342 Y12.229 F400.000
G1 X5.677 Y12.568 F400.000
G1 X5.338 Y12.726 F400.000
G1 X4.643 Y13.000 F400.000
G1 X4.289 Y13.120 F400.000
G1 X3.932 Y13.229 F400.000
G1 X3.571 Y13.327 F400.000
G1 X2.477 Y13.579 F400.000
G1 X1.741 Y13.711 F400.000
G1 X1.372 Y13.767 F400.000
G1 X0.628 Y13.827 F400.000
G1 X-0.113 Y13.850 F400.000
G1 X-0.850 Y13.835 F400.000
G1 X-1.218 Y13.816 F400.000
G1 X-1.586 Y13.786 F400.000
G1 X-2.323 Y13.695 F400.000
G1 X-2.688 Y13.635 F400.000
G1 X-3.410 Y13.466 F400.000
G1 X-3.767 Y13.365 F400.000
G1 X-4.474 Y13.132 F400.000
G1 X-4.823 Y13.004 F400.000
G1 X-5.511 Y12.722 F400.000
G1 X-6.184 Y12.406 F400.000
G1 X-6.842 Y12.060 F400.000
G1 X-7.485 Y11.684 F400.000
G1 X-7.797 Y11.485 F400.000
G1 X-8.395 Y11.045 F400.000
G1 X-8.684 Y10.812 F400.000
G1 X-9.237 Y10.312 F400.000
G1 X-9.508 Y10.056 F400.000
G1 X-10.026 Y9.523 F400.000
G1 X-10.278 Y9.248 F400.000
G1 X-10.763 Y8.680 F400.000
G1 X-11.222 Y8.098 F400.000
G1 X-11.639 Y7.477 F400.000
G1 X-12.026 Y6.842 F400.000
G1 X-12.380 Y6.184 F400.000
G1 X-12.545 Y5.850 F400.000
G1 X-12.846 Y5.169 F400.000
G1 X-13.207 Y4.109 F400.000
G1 X-13.504 Y3.030 F400.000
G1 X-13.662 Y2.301 F400.000
G1 X-13.789 Y1.564 F400.000
G1 X-13.861 Y0.820 F400.000
G1 X-13.898 Y0.075 F400.000
G1 X-13.902 Y-0.293 F400.000
G1 X-13.880 Y-1.030 F400.000
G1 X-13.820 Y-1.767 F400.000
G1 X-13.695 Y-2.496 F400.000
G1 X-13.530 Y-3.218 F400.000
G1 X-13.331 Y-3.932 F400.000
G1 X-13.098 Y-4.635 F400.000
G1 X-12.835 Y-5.331 F400.000
G1 X-12.541 Y-6.011 F400.000
G1 X-12.218 Y-6.677 F400.000
G1 X-11.846 Y-7.320 F400.000
G1 X-11.647 Y-7.635 F400.000
G1 X-11.218 Y-8.244 F400.000
G1 X-10.992 Y-8.538 F400.000
G1 X-10.511 Y-9.109 F400.000
G1 X-10.004 Y-9.654 F400.000
G1 X-9.477 Y-10.180 F400.000
G1 X-9.207 Y-10.436 F400.000
G1 X-8.929 Y-10.684 F400.000
G1 X-8.342 Y-11.147 F400.000
G1 X-7.737 Y-11.583 F400.000
G1 X-7.113 Y-11.989 F400.000
G1 X-6.793 Y-12.184 F400.000
G1 X-6.143 Y-12.545 F400.000
G1 X-5.477 Y-12.876 F400.000
G1 X-4.797 Y-13.177 F400.000
G1 X-4.451 Y-13.316 F400.000
G1 X-3.737 Y-13.538 F400.000
G1 X-3.376 Y-13.639 F400.000
G1 X-2.650 Y-13.812 F400.000
G1 X-2.286 Y-13.887 F400.000
G1 X-1.917 Y-13.951 F400.000
G1 X-1.177 Y-14.049 F400.000
G1 X-0.432 Y-14.109 F400.000
G1 X0.308 Y-14.132 F400.000
G1 X1.045 Y-14.117 F400.000
G1 X1.414 Y-14.094 F400.000
G1 X2.150 Y-14.000 F400.000
G1 X2.880 Y-13.865 F400.000
G1 X3.241 Y-13.782 F400.000
G1 X4.312 Y-13.481 F400.000
G1 X5.015 Y-13.241 F400.000
G1 X5.703 Y-12.970 F400.000
G1 X6.045 Y-12.823 F400.000
G1 X6.707 Y-12.489 F400.000
G1 X7.350 Y-12.120 F400.000
G1 X7.974 Y-11.714 F400.000
G1 X8.579 Y-11.282 F400.000
G1 X9.162 Y-10.823 F400.000
G1 X9.447 Y-10.586 F400.000
G1 X9.992 Y-10.079 F400.000
G1 X10.256 Y-9.816 F400.000
G1 X10.752 Y-9.263 F400.000
G1 X11.218 Y-8.684 F400.000
G1 X11.444 Y-8.387 F400.000
G1 X11.865 Y-7.774 F400.000
G1 X12.068 Y-7.462 F400.000
G1 X12.444 Y-6.820 F400.000
G1 X12.789 Y-6.162 F400.000
G1 X13.090 Y-5.477 F400.000
G1 X13.233 Y-5.132 F400.000
G1 X13.489 Y-4.432 F400.000
G1 X13.714 Y-3.722 F400.000
G1 X13.816 Y-3.361 F400.000
G1 X13.989 Y-2.635 F400.000
G1 X14.132 Y-1.902 F400.000
G1 X14.237 Y-1.162 F400.000
G1 X14.278 Y-0.789 F400.000
G1 X14.312 Y-0.045 F400.000
G1 X14.312 Y0.323 F400.000
G1 X14.274 Y1.060 F400.000
G1 X14.199 Y1.797 F400.000
G1 X14.147 Y2.165 F400.000
G1 X14.011 Y2.895 F400.000
G1 X13.929 Y3.256 F400.000
G1 X13.733 Y3.970 F400.000
G1 X13.508 Y4.677 F400.000
G1 X13.248 Y5.372 F400.000
G1 X12.962 Y6.060 F400.000
G1 X12.808 Y6.398 F400.000
G1 X12.447 Y7.049 F400.000
G1 X12.259 Y7.368 F400.000
G1 X11.853 Y7.992 F400.000
G1 X11.643 Y8.297 F400.000
G1 X11.192 Y8.891 F400.000
G1 X10.711 Y9.462 F400.000
G1 X10.207 Y10.008 F400.000
G1 X9.944 Y10.271 F400.000
G1 X9.673 Y10.526 F400.000
G1 X9.113 Y11.015 F400.000
G1 X8.530 Y11.477 F400.000
G1 X8.229 Y11.699 F400.000
G1 X7.613 Y12.113 F400.000
G1 X6.974 Y12.496 F400.000
G1 X6.316 Y12.850 F400.000
G1 X5.981 Y13.015 F400.000
