(Exported by FreeCAD)
(Post Processor: grbl_post)
(Output Time:2025-11-30 19:29:25.261873)
(Begin preamble)
G17 G90
G21
(Block-name: Fixture)
(Block-expand: 0)
(Block-enable: 1)
(Begin operation: Fixture)
(Path: Fixture)
G54
(Finish operation: Fixture)
(Block-name: 3mm Endmill003)
(Block-expand: 0)
(Block-enable: 1)
(Begin operation: 3mm Endmill003)
(Path: 3mm Endmill003)
(3mm Endmill003)
(Begin toolchange)
( M6 T2 )
M3 S10000
(Finish operation: 3mm Endmill003)
(Block-name: MillFace001)
(Block-expand: 0)
(Block-enable: 1)
(Begin operation: MillFace001)
(Path: MillFace001)
(MillFace001)
G0 Z5.000
G0
G0 X-0.047 Y0.488
G0 X-0.047 Y0.488 Z3.000
G1 X-0.047 Y0.488 Z-0.000 F400.000
G3 X-0.488 Y-0.048 Z-0.000 I0.047 J-0.488 K0.000 F400.000
G3 X0.050 Y-0.488 Z-0.000 I0.488 J0.048 K0.000 F400.000
G3 X-0.047 Y0.488 Z-0.000 I-0.050 J0.488 K0.000 F400.000
G0 Z5.000
G0 X-0.191 Y1.982 Z5.000
G0 X-0.191 Y1.982 Z3.000
G1 X-0.191 Y1.982 Z-0.000 F400.000
G3 X-1.981 Y-0.197 Z-0.000 I0.190 J-1.982 K0.000 F400.000
G3 X0.203 Y-1.980 Z-0.000 I1.981 J0.197 K0.000 F400.000
G3 X-0.191 Y1.982 Z-0.000 I-0.203 J1.980 K0.000 F400.000
G0 Z5.000
G0 X-0.334 Y3.475 Z5.000
G0 X-0.334 Y3.475 Z3.000
G1 X-0.334 Y3.475 Z-0.000 F400.000
G3 X-3.474 Y-0.345 Z-0.000 I0.334 J-3.475 K0.000 F400.000
G3 X0.356 Y-3.473 Z-0.000 I3.474 J0.345 K0.000 F400.000
G3 X-0.334 Y3.475 Z-0.000 I-0.356 J3.473 K0.000 F400.000
G0 Z5.000
G0 X-0.478 Y4.969 Z5.000
G0 X-0.478 Y4.969 Z3.000
G1 X-0.478 Y4.969 Z-0.000 F400.000
G3 X-4.967 Y-0.493 Z-0.000 I0.478 J-4.969 K0.000 F400.000
G3 X0.509 Y-4.966 Z-0.000 I4.967 J0.493 K0.000 F400.000
G3 X-0.478 Y4.969 Z-0.000 I-0.509 J4.966 K0.000 F400.000
G0 Z5.000
G0 X-0.621 Y6.463 Z5.000
G0 X-0.621 Y6.463 Z3.000
G1 X-0.621 Y6.463 Z-0.000 F400.000
G3 X-6.461 Y-0.641 Z-0.000 I0.621 J-6.462 K0.000 F400.000
G3 X0.662 Y-6.458 Z-0.000 I6.460 J0.641 K0.000 F400.000
G3 X-0.621 Y6.463 Z-0.000 I-0.662 J6.458 K0.000 F400.000
G0 Z5.000
G0 X-0.765 Y7.956 Z5.000
G0 X-0.765 Y7.956 Z3.000
G1 X-0.765 Y7.956 Z-0.000 F400.000
G3 X-7.954 Y-0.790 Z-0.000 I0.765 J-7.956 K0.000 F400.000
G3 X0.814 Y-7.951 Z-0.000 I7.954 J0.790 K0.000 F400.000
G3 X-0.765 Y7.956 Z-0.000 I-0.815 J7.951 K0.000 F400.000
G0 Z5.000
G0 X-0.908 Y9.450 Z5.000
G0 X-0.908 Y9.450 Z3.000
G1 X-0.908 Y9.450 Z-0.000 F400.000
G3 X-9.447 Y-0.938 Z-0.000 I0.908 J-9.450 K0.000 F400.000
G3 X0.967 Y-9.444 Z-0.000 I9.447 J0.938 K0.000 F400.000
G3 X-0.908 Y9.450 Z-0.000 I-0.967 J9.444 K0.000 F400.000
G0 Z5.000
G0 X-1.052 Y10.943 Z5.000
G0 X-1.052 Y10.943 Z3.000
G1 X-1.052 Y10.943 Z-0.000 F400.000
G3 X-10.940 Y-1.086 Z-0.000 I1.052 J-10.943 K0.000 F400.000
G3 X1.120 Y-10.936 Z-0.000 I10.940 J1.086 K0.000 F400.000
G3 X-1.052 Y10.943 Z-0.000 I-1.120 J10.936 K0.000 F400.000
G0 Z5.000
G0 X-1.196 Y12.437 Z5.000
G0 X-1.196 Y12.437 Z3.000
G1 X-1.196 Y12.437 Z-0.000 F400.000
G3 X-12.433 Y-1.234 Z-0.000 I1.195 J-12.437 K0.000 F400.000
G3 X1.273 Y-12.429 Z-0.000 I12.433 J1.234 K0.000 F400.000
G3 X-1.196 Y12.437 Z-0.000 I-1.273 J12.429 K0.000 F400.000
G0 Z5.000
G0 X-1.339 Y13.930 Z5.000
G0 X-1.339 Y13.930 Z3.000
G1 X-1.339 Y13.930 Z-0.000 F400.000
G3 X-13.926 Y-1.382 Z-0.000 I1.339 J-13.930 K0.000 F400.000
G3 X1.426 Y-13.922 Z-0.000 I13.926 J1.383 K0.000 F400.000
G3 X-1.339 Y13.930 Z-0.000 I-1.426 J13.922 K0.000 F400.000
G0 Z5.000
G0 X-1.483 Y15.424 Z5.000
G0 X-1.483 Y15.424 Z3.000
G1 X-1.483 Y15.424 Z-0.000 F400.000
G3 X-15.419 Y-1.531 Z-0.000 I1.483 J-15.424 K0.000 F400.000
G3 X1.579 Y-15.414 Z-0.000 I15.419 J1.531 K0.000 F400.000
G3 X-1.483 Y15.424 Z-0.000 I-1.579 J15.414 K0.000 F400.000
G0 Z5.000
G0 X-1.626 Y16.917 Z5.000
G0 X-1.626 Y16.917 Z3.000
G1 X-1.626 Y16.917 Z-0.000 F400.000
G3 X-16.912 Y-1.679 Z-0.000 I1.626 J-16.917 K0.000 F400.000
G3 X1.732 Y-16.907 Z-0.000 I16.912 J1.679 K0.000 F400.000
G3 X-1.626 Y16.917 Z-0.000 I-1.732 J16.907 K0.000 F400.000
G0 Z5.000
G0 X-1.770 Y18.411 Z5.000
G0 X-1.770 Y18.411 Z3.000
G1 X-1.770 Y18.411 Z-0.000 F400.000
G3 X-18.405 Y-1.827 Z-0.000 I1.770 J-18.411 K0.000 F400.000
G3 X1.885 Y-18.400 Z-0.000 I18.405 J1.827 K0.000 F400.000
G3 X-1.770 Y18.411 Z-0.000 I-1.885 J18.400 K0.000 F400.000
G0 Z5.000
G0 X-1.913 Y19.905 Z5.000
G0 X-1.913 Y19.905 Z3.000
G1 X-1.913 Y19.905 Z-0.000 F400.000
G3 X-19.899 Y-1.975 Z-0.000 I1.913 J-19.905 K0.000 F400.000
G3 X2.038 Y-19.892 Z-0.000 I19.899 J1.975 K0.000 F400.000
G3 X-1.913 Y19.905 Z-0.000 I-2.038 J19.892 K0.000 F400.000
G0 Z5.000
G0 X-2.057 Y21.398 Z5.000
G0 X-2.057 Y21.398 Z3.000
G1 X-2.057 Y21.398 Z-0.000 F400.000
G3 X-21.392 Y-2.124 Z-0.000 I2.057 J-21.398 K0.000 F400.000
G3 X2.190 Y-21.385 Z-0.000 I21.392 J2.124 K0.000 F400.000
G3 X-2.057 Y21.398 Z-0.000 I-2.190 J21.385 K0.000 F400.000
G0 Z5.000
G0 X-2.201 Y22.892 Z5.000
G0 X-2.201 Y22.892 Z3.000
G1 X-2.201 Y22.892 Z-0.000 F400.000
G3 X-22.885 Y-2.272 Z-0.000 I2.201 J-22.892 K0.000 F400.000
G3 X2.343 Y-22.878 Z-0.000 I22.885 J2.272 K0.000 F400.000
G3 X-2.201 Y22.892 Z-0.000 I-2.343 J22.878 K0.000 F400.000
G0 Z5.000
G0 X-2.344 Y24.385 Z5.000
G0 X-2.344 Y24.385 Z3.000
G1 X-2.344 Y24.385 Z-0.000 F400.000
G3 X-24.378 Y-2.420 Z-0.000 I2.344 J-24.385 K0.000 F400.000
G3 X2.496 Y-24.370 Z-0.000 I24.378 J2.420 K0.000 F400.000
G3 X-2.344 Y24.385 Z-0.000 I-2.496 J24.370 K0.000 F400.000
G0 Z5.000
G0 X-2.488 Y25.879 Z5.000
G0 X-2.488 Y25.879 Z3.000
G1 X-2.488 Y25.879 Z-0.000 F400.000
G3 X-25.871 Y-2.568 Z-0.000 I2.488 J-25.879 K0.000 F400.000
G3 X2.649 Y-25.863 Z-0.000 I25.871 J2.568 K0.000 F400.000
G3 X-2.488 Y25.879 Z-0.000 I-2.649 J25.863 K0.000 F400.000
G0 Z5.000
G0 X-2.631 Y27.372 Z5.000
G0 X-2.631 Y27.372 Z3.000
G1 X-2.631 Y27.372 Z-0.000 F400.000
G3 X-27.364 Y-2.717 Z-0.000 I2.631 J-27.372 K0.000 F400.000
G3 X2.802 Y-27.355 Z-0.000 I27.364 J2.717 K0.000 F400.000
G3 X-2.631 Y27.372 Z-0.000 I-2.802 J27.356 K0.000 F400.000
G0 Z5.000
G0 X-2.775 Y28.866 Z5.000
G0 X-2.775 Y28.866 Z3.000
G1 X-2.775 Y28.866 Z-0.000 F400.000
G3 X-28.857 Y-2.865 Z-0.000 I2.775 J-28.866 K0.000 F400.000
G3 X2.955 Y-28.848 Z-0.000 I28.857 J2.865 K0.000 F400.000
G3 X-2.775 Y28.866 Z-0.000 I-2.955 J28.848 K0.000 F400.000
G0 Z5.000
G0 X-2.918 Y30.360 Z5.000
G0 X-2.918 Y30.360 Z3.000
G1 X-2.918 Y30.360 Z-0.000 F400.000
G3 X-30.350 Y-3.013 Z-0.000 I2.918 J-30.360 K0.000 F400.000
G3 X3.108 Y-30.341 Z-0.000 I30.350 J3.013 K0.000 F400.000
G3 X-2.918 Y30.360 Z-0.000 I-3.108 J30.341 K0.000 F400.000
G0 Z5.000
G0 Z5.000
(Finish operation: MillFace001)
(Block-name: FrontSurface)
(Block-expand: 0)
(Block-enable: 1)
(Begin operation: FrontSurface)
(Path: FrontSurface)
(FrontSurface)
(Helix to depth: -1.500000)
G0 Z5.000
G0 X1.076 Y-22.356 Z5.000
G0 X1.076 Y-22.356 Z3.000
G1 X1.076 Y-22.356 Z0.000 F400.000
G1 X1.076 Y-22.356 Z0.000 F400.000
G1 X1.069 Y-22.162 Z-0.017 F400.000
G1 X1.024 Y-21.973 Z-0.034 F400.000
G1 X0.943 Y-21.796 Z-0.052 F400.000
G1 X0.830 Y-21.639 Z-0.069 F400.000
G1 X0.688 Y-21.507 Z-0.086 F400.000
G1 X0.523 Y-21.405 Z-0.103 F400.000
G1 X0.341 Y-21.337 Z-0.120 F400.000
G1 X0.150 Y-21.306 Z-0.137 F400.000
G1 X-0.044 Y-21.313 Z-0.155 F400.000
G1 X-0.233 Y-21.357 Z-0.172 F400.000
G1 X-0.410 Y-21.438 Z-0.189 F400.000
G1 X-0.567 Y-21.551 Z-0.206 F400.000
G1 X-0.700 Y-21.693 Z-0.223 F400.000
G1 X-0.802 Y-21.858 Z-0.240 F400.000
G1 X-0.869 Y-22.040 Z-0.258 F400.000
G1 X-0.901 Y-22.232 Z-0.275 F400.000
G1 X-0.894 Y-22.426 Z-0.292 F400.000
G1 X-0.849 Y-22.615 Z-0.309 F400.000
G1 X-0.768 Y-22.791 Z-0.326 F400.000
G1 X-0.655 Y-22.949 Z-0.344 F400.000
G1 X-0.513 Y-23.081 Z-0.361 F400.000
G1 X-0.348 Y-23.183 Z-0.378 F400.000
G1 X-0.166 Y-23.251 Z-0.395 F400.000
G1 X0.025 Y-23.282 Z-0.412 F400.000
G1 X0.219 Y-23.275 Z-0.429 F400.000
G1 X0.408 Y-23.230 Z-0.447 F400.000
G1 X0.585 Y-23.150 Z-0.464 F400.000
G1 X0.742 Y-23.036 Z-0.481 F400.000
G1 X0.875 Y-22.894 Z-0.498 F400.000
G1 X0.977 Y-22.729 Z-0.515 F400.000
G1 X1.044 Y-22.547 Z-0.533 F400.000
G1 X1.076 Y-22.356 Z-0.550 F400.000
G1 X1.069 Y-22.162 Z-0.567 F400.000
G1 X1.024 Y-21.973 Z-0.584 F400.000
G1 X0.943 Y-21.796 Z-0.601 F400.000
G1 X0.830 Y-21.639 Z-0.618 F400.000
G1 X0.688 Y-21.507 Z-0.636 F400.000
G1 X0.523 Y-21.405 Z-0.653 F400.000
G1 X0.341 Y-21.337 Z-0.670 F400.000
G1 X0.150 Y-21.306 Z-0.687 F400.000
G1 X-0.044 Y-21.313 Z-0.704 F400.000
G1 X-0.233 Y-21.357 Z-0.721 F400.000
G1 X-0.410 Y-21.438 Z-0.739 F400.000
G1 X-0.567 Y-21.551 Z-0.756 F400.000
G1 X-0.700 Y-21.693 Z-0.773 F400.000
G1 X-0.802 Y-21.858 Z-0.790 F400.000
G1 X-0.869 Y-22.040 Z-0.807 F400.000
G1 X-0.901 Y-22.232 Z-0.825 F400.000
G1 X-0.894 Y-22.426 Z-0.842 F400.000
G1 X-0.849 Y-22.615 Z-0.859 F400.000
G1 X-0.768 Y-22.791 Z-0.876 F400.000
G1 X-0.655 Y-22.949 Z-0.893 F400.000
G1 X-0.513 Y-23.081 Z-0.910 F400.000
G1 X-0.348 Y-23.183 Z-0.928 F400.000
G1 X-0.166 Y-23.251 Z-0.945 F400.000
G1 X0.025 Y-23.282 Z-0.962 F400.000
G1 X0.219 Y-23.275 Z-0.979 F400.000
G1 X0.408 Y-23.230 Z-0.996 F400.000
G1 X0.585 Y-23.150 Z-1.014 F400.000
G1 X0.742 Y-23.036 Z-1.031 F400.000
G1 X0.875 Y-22.894 Z-1.048 F400.000
G1 X0.977 Y-22.729 Z-1.065 F400.000
G1 X1.044 Y-22.547 Z-1.082 F400.000
G1 X1.076 Y-22.356 Z-1.099 F400.000
G1 X1.069 Y-22.162 Z-1.117 F400.000
G1 X1.024 Y-21.973 Z-1.134 F400.000
G1 X0.943 Y-21.796 Z-1.151 F400.000
G1 X0.830 Y-21.639 Z-1.168 F400.000
G1 X0.688 Y-21.507 Z-1.185 F400.000
G1 X0.523 Y-21.405 Z-1.202 F400.000
G1 X0.341 Y-21.337 Z-1.220 F400.000
G1 X0.150 Y-21.306 Z-1.237 F400.000
G1 X-0.044 Y-21.313 Z-1.254 F400.000
G1 X-0.233 Y-21.357 Z-1.271 F400.000
G1 X-0.410 Y-21.438 Z-1.288 F400.000
G1 X-0.567 Y-21.551 Z-1.306 F400.000
G1 X-0.700 Y-21.693 Z-1.323 F400.000
G1 X-0.802 Y-21.858 Z-1.340 F400.000
G1 X-0.869 Y-22.040 Z-1.357 F400.000
G1 X-0.901 Y-22.232 Z-1.374 F400.000
G1 X-0.894 Y-22.426 Z-1.391 F400.000
G1 X-0.849 Y-22.615 Z-1.409 F400.000
G1 X-0.768 Y-22.791 Z-1.426 F400.000
G1 X-0.655 Y-22.949 Z-1.443 F400.000
G1 X-0.513 Y-23.081 Z-1.460 F400.000
G1 X-0.348 Y-23.183 Z-1.477 F400.000
G1 X-0.166 Y-23.251 Z-1.495 F400.000
G1 X0.025 Y-23.282 Z-1.500 F400.000
G1 X0.219 Y-23.275 Z-1.500 F400.000
G1 X0.408 Y-23.230 Z-1.500 F400.000
G1 X0.585 Y-23.150 Z-1.500 F400.000
G1 X0.742 Y-23.036 Z-1.500 F400.000
G1 X0.875 Y-22.894 Z-1.500 F400.000
G1 X0.977 Y-22.729 Z-1.500 F400.000
G1 X1.044 Y-22.547 Z-1.500 F400.000
G1 X1.076 Y-22.356 Z-1.500 F400.000
G1 X1.069 Y-22.162 Z-1.500 F400.000
G1 X1.024 Y-21.973 Z-1.500 F400.000
G1 X0.943 Y-21.796 Z-1.500 F400.000
G1 X0.830 Y-21.639 Z-1.500 F400.000
G1 X0.688 Y-21.507 Z-1.500 F400.000
G1 X0.523 Y-21.405 Z-1.500 F400.000
G1 X0.341 Y-21.337 Z-1.500 F400.000
G1 X0.150 Y-21.306 Z-1.500 F400.000
G1 X-0.044 Y-21.313 Z-1.500 F400.000
G1 X-0.233 Y-21.357 Z-1.500 F400.000
G1 X-0.410 Y-21.438 Z-1.500 F400.000
G1 X-0.567 Y-21.551 Z-1.500 F400.000
G1 X-0.700 Y-21.693 Z-1.500 F400.000
G1 X-0.802 Y-21.858 Z-1.500 F400.000
G1 X-0.869 Y-22.040 Z-1.500 F400.000
G1 X-0.901 Y-22.232 Z-1.500 F400.000
G1 X-0.894 Y-22.426 Z-1.500 F400.000
G1 X-0.849 Y-22.615 Z-1.500 F400.000
G1 X-0.768 Y-22.791 Z-1.500 F400.000
G1 X-0.655 Y-22.949 Z-1.500 F400.000
G1 X-0.513 Y-23.081 Z-1.500 F400.000
G1 X-0.348 Y-23.183 Z-1.500 F400.000
G1 X-0.166 Y-23.251 Z-1.500 F400.000
(Adaptive - depth: -1.500000)
G1 X0.087 Y-23.294 F400.000
G1 X0.156 Y-23.363 F400.000
G1 X0.206 Y-23.444 F400.000
G1 X0.369 Y-23.544 F400.000
G1 X0.556 Y-23.594 F400.000
G1 X0.744 Y-23.600 F400.000
G1 X0.838 Y-23.587 F400.000
G1 X1.188 Y-23.469 F400.000
G1 X1.444 Y-23.281 F400.000
G1 X1.581 Y-23.125 F400.000
G1 X1.688 Y-22.950 F400.000
G1 X1.794 Y-22.738 F400.000
G1 X1.900 Y-22.375 F400.000
G1 X1.913 Y-22.044 F400.000
G1 X1.875 Y-21.806 F400.000
G1 X1.800 Y-21.581 F400.000
G1 X1.688 Y-21.337 F400.000
G1 X1.494 Y-21.031 F400.000
G1 X1.244 Y-20.756 F400.000
G1 X0.975 Y-20.581 F400.000
G1 X0.769 Y-20.475 F400.000
G1 X0.475 Y-20.394 F400.000
G1 X0.194 Y-20.350 F400.000
G1 X-0.125 Y-20.356 F400.000
G1 X-0.412 Y-20.413 F400.000
G1 X-0.694 Y-20.512 F400.000
G1 X-0.956 Y-20.663 F400.000
G1 X-1.188 Y-20.856 F400.000
G1 X-1.406 Y-21.062 F400.000
G1 X-1.619 Y-21.363 F400.000
G1 X-1.756 Y-21.669 F400.000
G1 X-1.825 Y-21.944 F400.000
G1 X-1.850 Y-22.206 F400.000
G1 X-1.850 Y-22.494 F400.000
G1 X-1.775 Y-22.856 F400.000
G1 X-1.656 Y-23.144 F400.000
G1 X-1.519 Y-23.387 F400.000
G1 X-1.113 Y-23.869 F400.000
G1 X-0.838 Y-24.119 F400.000
G1 X-0.525 Y-24.325 F400.000
G1 X-0.181 Y-24.475 F400.000
G1 X0.119 Y-24.556 F400.000
G1 X0.425 Y-24.600 F400.000
G1 X0.762 Y-24.587 F400.000
G1 X1.081 Y-24.525 F400.000
G1 X1.394 Y-24.438 F400.000
G1 X1.731 Y-24.275 F400.000
G1 X2.031 Y-24.081 F400.000
G1 X2.300 Y-23.825 F400.000
G1 X2.487 Y-23.594 F400.000
G1 X2.663 Y-23.300 F400.000
G1 X2.781 Y-22.988 F400.000
G1 X2.875 Y-22.681 F400.000
G1 X2.919 Y-22.306 F400.000
G1 X2.913 Y-21.956 F400.000
G1 X2.862 Y-21.594 F400.000
G1 X2.781 Y-21.225 F400.000
G1 X2.644 Y-20.869 F400.000
G1 X2.469 Y-20.531 F400.000
G1 X2.237 Y-20.231 F400.000
G1 X2.013 Y-20.000 F400.000
G1 X1.719 Y-19.769 F400.000
G1 X1.400 Y-19.587 F400.000
G1 X1.075 Y-19.450 F400.000
G1 X0.731 Y-19.331 F400.000
G1 X0.356 Y-19.269 F400.000
G1 X-0.013 Y-19.244 F400.000
G1 X-0.381 Y-19.256 F400.000
G1 X-0.744 Y-19.344 F400.000
G1 X-1.062 Y-19.450 F400.000
G1 X-1.394 Y-19.613 F400.000
G1 X-1.994 Y-20.044 F400.000
G1 X-2.250 Y-20.312 F400.000
G1 X-2.475 Y-20.606 F400.000
G1 X-2.663 Y-20.925 F400.000
G1 X-2.812 Y-21.262 F400.000
G1 X-2.919 Y-21.619 F400.000
G1 X-2.981 Y-21.988 F400.000
G1 X-3.000 Y-22.356 F400.000
G1 X-2.975 Y-22.725 F400.000
G1 X-2.900 Y-23.087 F400.000
G1 X-2.788 Y-23.444 F400.000
G1 X-2.631 Y-23.781 F400.000
G1 X-2.431 Y-24.100 F400.000
G1 X-1.956 Y-24.675 F400.000
G1 X-1.669 Y-24.919 F400.000
G1 X-1.363 Y-25.137 F400.000
G1 X-1.038 Y-25.331 F400.000
G1 X-0.694 Y-25.481 F400.000
G1 X-0.338 Y-25.600 F400.000
G1 X0.025 Y-25.681 F400.000
G1 X0.394 Y-25.725 F400.000
G1 X0.762 Y-25.731 F400.000
G1 X1.131 Y-25.700 F400.000
G1 X1.500 Y-25.631 F400.000
G1 X1.856 Y-25.525 F400.000
G1 X2.194 Y-25.363 F400.000
G1 X2.513 Y-25.175 F400.000
G1 X2.812 Y-24.950 F400.000
G1 X3.075 Y-24.681 F400.000
G1 X3.312 Y-24.387 F400.000
G1 X3.531 Y-24.081 F400.000
G1 X3.706 Y-23.750 F400.000
G1 X3.850 Y-23.400 F400.000
G1 X3.962 Y-23.038 F400.000
G1 X4.031 Y-22.669 F400.000
G1 X4.062 Y-22.294 F400.000
G1 X4.056 Y-21.919 F400.000
G1 X3.956 Y-21.169 F400.000
G1 X3.850 Y-20.806 F400.000
G1 X3.719 Y-20.450 F400.000
G1 X3.562 Y-20.106 F400.000
G1 X3.356 Y-19.788 F400.000
G1 X3.131 Y-19.481 F400.000
G1 X2.875 Y-19.200 F400.000
G1 X2.594 Y-18.950 F400.000
G1 X2.288 Y-18.725 F400.000
G1 X1.962 Y-18.531 F400.000
G1 X1.619 Y-18.369 F400.000
G1 X1.262 Y-18.238 F400.000
G1 X0.894 Y-18.144 F400.000
G1 X0.519 Y-18.087 F400.000
G1 X-0.225 Y-18.056 F400.000
G1 X-0.594 Y-18.087 F400.000
G1 X-0.963 Y-18.144 F400.000
G1 X-1.319 Y-18.256 F400.000
G1 X-1.663 Y-18.387 F400.000
G1 X-2.319 Y-18.738 F400.000
G1 X-2.619 Y-18.956 F400.000
G1 X-2.900 Y-19.194 F400.000
G1 X-3.150 Y-19.462 F400.000
G1 X-3.381 Y-19.750 F400.000
G1 X-3.581 Y-20.062 F400.000
G1 X-3.913 Y-20.725 F400.000
G1 X-4.031 Y-21.075 F400.000
G1 X-4.125 Y-21.431 F400.000
G1 X-4.194 Y-21.794 F400.000
G1 X-4.231 Y-22.163 F400.000
G1 X-4.237 Y-22.531 F400.000
G1 X-4.194 Y-22.900 F400.000
G1 X-4.125 Y-23.269 F400.000
G1 X-4.025 Y-23.625 F400.000
G1 X-3.881 Y-23.969 F400.000
G1 X-3.538 Y-24.631 F400.000
G1 X-3.325 Y-24.938 F400.000
G1 X-3.087 Y-25.231 F400.000
G1 X-2.837 Y-25.506 F400.000
G1 X-2.562 Y-25.756 F400.000
G1 X-2.269 Y-25.988 F400.000
G1 X-1.956 Y-26.200 F400.000
G1 X-1.631 Y-26.387 F400.000
G1 X-1.294 Y-26.550 F400.000
G1 X-0.944 Y-26.688 F400.000
G1 X-0.581 Y-26.800 F400.000
G1 X-0.212 Y-26.881 F400.000
G1 X0.156 Y-26.938 F400.000
G1 X0.525 Y-26.962 F400.000
G1 X0.894 Y-26.962 F400.000
G1 X1.262 Y-26.931 F400.000
G1 X1.631 Y-26.875 F400.000
G1 X1.988 Y-26.769 F400.000
G1 X2.337 Y-26.644 F400.000
G1 X2.675 Y-26.488 F400.000
G1 X2.994 Y-26.294 F400.000
G1 X3.300 Y-26.075 F400.000
G1 X3.869 Y-25.581 F400.000
G1 X4.119 Y-25.300 F400.000
G1 X4.350 Y-25.006 F400.000
G1 X4.562 Y-24.694 F400.000
G1 X4.750 Y-24.369 F400.000
G1 X4.912 Y-24.031 F400.000
G1 X5.050 Y-23.681 F400.000
G1 X5.162 Y-23.319 F400.000
G1 X5.225 Y-22.944 F400.000
G1 X5.300 Y-22.194 F400.000
G1 X5.287 Y-21.819 F400.000
G1 X5.250 Y-21.444 F400.000
G1 X5.188 Y-21.069 F400.000
G1 X5.094 Y-20.700 F400.000
G1 X4.975 Y-20.337 F400.000
G1 X4.681 Y-19.637 F400.000
G1 X4.500 Y-19.306 F400.000
G1 X4.300 Y-18.981 F400.000
G1 X4.069 Y-18.681 F400.000
G1 X3.819 Y-18.394 F400.000
G1 X3.550 Y-18.125 F400.000
G1 X3.263 Y-17.881 F400.000
G1 X2.956 Y-17.656 F400.000
G1 X2.638 Y-17.456 F400.000
G1 X2.300 Y-17.281 F400.000
G1 X1.956 Y-17.125 F400.000
G1 X1.600 Y-17.000 F400.000
G1 X1.238 Y-16.900 F400.000
G1 X0.869 Y-16.825 F400.000
G1 X0.494 Y-16.775 F400.000
G1 X0.119 Y-16.756 F400.000
G1 X-0.250 Y-16.762 F400.000
G1 X-0.619 Y-16.800 F400.000
G1 X-0.988 Y-16.863 F400.000
G1 X-1.712 Y-17.038 F400.000
G1 X-2.062 Y-17.163 F400.000
G1 X-2.406 Y-17.306 F400.000
G1 X-2.731 Y-17.481 F400.000
G1 X-3.050 Y-17.675 F400.000
G1 X-3.350 Y-17.887 F400.000
G1 X-3.631 Y-18.125 F400.000
G1 X-3.900 Y-18.381 F400.000
G1 X-4.150 Y-18.656 F400.000
G1 X-4.375 Y-18.950 F400.000
G1 X-4.581 Y-19.256 F400.000
G1 X-4.763 Y-19.575 F400.000
G1 X-4.925 Y-19.906 F400.000
G1 X-5.200 Y-20.594 F400.000
G1 X-5.306 Y-20.950 F400.000
G1 X-5.394 Y-21.312 F400.000
G1 X-5.450 Y-21.681 F400.000
G1 X-5.487 Y-22.050 F400.000
G1 X-5.500 Y-22.419 F400.000
G1 X-5.481 Y-22.788 F400.000
G1 X-5.444 Y-23.156 F400.000
G1 X-5.256 Y-23.875 F400.000
G1 X-4.987 Y-24.569 F400.000
G1 X-4.819 Y-24.900 F400.000
G1 X-4.631 Y-25.225 F400.000
G1 X-4.425 Y-25.538 F400.000
G1 X-4.200 Y-25.837 F400.000
G1 X-3.956 Y-26.119 F400.000
G1 X-3.694 Y-26.387 F400.000
G1 X-3.419 Y-26.637 F400.000
G1 X-3.125 Y-26.875 F400.000
G1 X-2.819 Y-27.094 F400.000
G1 X-2.500 Y-27.294 F400.000
G1 X-1.837 Y-27.650 F400.000
G1 X-1.144 Y-27.938 F400.000
G1 X-0.412 Y-28.125 F400.000
G1 X-0.044 Y-28.188 F400.000
G1 X0.325 Y-28.225 F400.000
G1 X0.694 Y-28.244 F400.000
G1 X1.062 Y-28.238 F400.000
G1 X1.431 Y-28.206 F400.000
G1 X1.800 Y-28.137 F400.000
G1 X2.163 Y-28.050 F400.000
G1 X2.519 Y-27.938 F400.000
G1 X2.862 Y-27.794 F400.000
G1 X3.194 Y-27.625 F400.000
G1 X3.831 Y-27.231 F400.000
G1 X4.131 Y-27.006 F400.000
G1 X4.419 Y-26.762 F400.000
G1 X4.694 Y-26.506 F400.000
G1 X4.950 Y-26.231 F400.000
G1 X5.194 Y-25.944 F400.000
G1 X5.419 Y-25.644 F400.000
G1 X5.625 Y-25.331 F400.000
G1 X5.812 Y-25.006 F400.000
G1 X5.981 Y-24.669 F400.000
G1 X6.131 Y-24.325 F400.000
G1 X6.263 Y-23.969 F400.000
G1 X6.369 Y-23.606 F400.000
G1 X6.456 Y-23.238 F400.000
G1 X6.525 Y-22.869 F400.000
G1 X6.569 Y-22.494 F400.000
G1 X6.594 Y-22.119 F400.000
G1 X6.544 Y-21.369 F400.000
G1 X6.481 Y-20.994 F400.000
G1 X6.394 Y-20.625 F400.000
G1 X6.175 Y-19.900 F400.000
G1 X5.713 Y-18.863 F400.000
G1 X5.325 Y-18.206 F400.000
G1 X4.850 Y-17.613 F400.000
G1 X4.594 Y-17.337 F400.000
G1 X4.312 Y-17.081 F400.000
G1 X4.019 Y-16.837 F400.000
G1 X3.712 Y-16.613 F400.000
G1 X3.394 Y-16.406 F400.000
G1 X3.062 Y-16.219 F400.000
G1 X2.719 Y-16.056 F400.000
G1 X2.369 Y-15.912 F400.000
G1 X2.013 Y-15.787 F400.000
G1 X1.650 Y-15.688 F400.000
G1 X1.281 Y-15.606 F400.000
G1 X0.531 Y-15.494 F400.000
G1 X0.156 Y-15.469 F400.000
G1 X-0.581 Y-15.469 F400.000
G1 X-0.950 Y-15.500 F400.000
G1 X-1.681 Y-15.637 F400.000
G1 X-2.038 Y-15.738 F400.000
G1 X-2.388 Y-15.863 F400.000
G1 X-2.731 Y-16.006 F400.000
G1 X-3.394 Y-16.337 F400.000
G1 X-4.019 Y-16.738 F400.000
G1 X-4.319 Y-16.956 F400.000
G1 X-4.606 Y-17.194 F400.000
G1 X-5.119 Y-17.725 F400.000
G1 X-5.350 Y-18.012 F400.000
G1 X-5.562 Y-18.319 F400.000
G1 X-5.756 Y-18.637 F400.000
G1 X-6.106 Y-19.300 F400.000
G1 X-6.381 Y-19.994 F400.000
G1 X-6.500 Y-20.344 F400.000
G1 X-6.600 Y-20.700 F400.000
G1 X-6.750 Y-21.425 F400.000
G1 X-6.800 Y-21.794 F400.000
G1 X-6.812 Y-22.531 F400.000
G1 X-6.787 Y-22.900 F400.000
G1 X-6.737 Y-23.269 F400.000
G1 X-6.669 Y-23.637 F400.000
G1 X-6.575 Y-24.000 F400.000
G1 X-6.463 Y-24.356 F400.000
G1 X-6.331 Y-24.706 F400.000
G1 X-6.019 Y-25.381 F400.000
G1 X-5.644 Y-26.025 F400.000
G1 X-5.438 Y-26.337 F400.000
G1 X-4.975 Y-26.925 F400.000
G1 X-4.725 Y-27.206 F400.000
G1 X-4.169 Y-27.706 F400.000
G1 X-3.869 Y-27.931 F400.000
G1 X-3.244 Y-28.344 F400.000
G1 X-2.575 Y-28.694 F400.000
G1 X-2.231 Y-28.856 F400.000
G1 X-1.531 Y-29.137 F400.000
G1 X-1.175 Y-29.262 F400.000
G1 X-0.812 Y-29.356 F400.000
G1 X-0.444 Y-29.431 F400.000
G1 X-0.069 Y-29.488 F400.000
G1 X0.300 Y-29.519 F400.000
G1 X0.669 Y-29.525 F400.000
G1 X1.038 Y-29.512 F400.000
G1 X1.406 Y-29.475 F400.000
G1 X2.144 Y-29.363 F400.000
G1 X2.862 Y-29.175 F400.000
G1 X3.544 Y-28.875 F400.000
G1 X4.200 Y-28.519 F400.000
G1 X4.812 Y-28.094 F400.000
G1 X5.106 Y-27.863 F400.000
G1 X5.388 Y-27.613 F400.000
G1 X5.656 Y-27.350 F400.000
G1 X5.912 Y-27.075 F400.000
G1 X6.156 Y-26.788 F400.000
G1 X6.594 Y-26.181 F400.000
G1 X6.794 Y-25.863 F400.000
G1 X7.144 Y-25.194 F400.000
G1 X7.294 Y-24.850 F400.000
G1 X7.544 Y-24.144 F400.000
G1 X7.644 Y-23.781 F400.000
G1 X7.725 Y-23.413 F400.000
G1 X7.787 Y-23.038 F400.000
G1 X7.831 Y-22.663 F400.000
G1 X7.856 Y-22.288 F400.000
G1 X7.862 Y-21.913 F400.000
G1 X7.850 Y-21.538 F400.000
G1 X7.819 Y-21.163 F400.000
G1 X7.769 Y-20.788 F400.000
G1 X7.581 Y-20.050 F400.000
G1 X7.350 Y-19.331 F400.000
G1 X6.888 Y-18.294 F400.000
G1 X6.513 Y-17.637 F400.000
G1 X6.306 Y-17.319 F400.000
G1 X5.825 Y-16.731 F400.000
G1 X5.569 Y-16.456 F400.000
G1 X5.006 Y-15.950 F400.000
G1 X4.706 Y-15.719 F400.000
G1 X4.394 Y-15.506 F400.000
G1 X3.744 Y-15.119 F400.000
G1 X2.962 Y-14.756 F400.000
G1 X1.575 Y-14.306 F400.000
G1 X0.575 Y-14.181 F400.000
G1 X-1.613 Y-14.200 F400.000
G1 X-2.269 Y-14.281 F400.000
G1 X-3.413 Y-14.769 F400.000
G1 X-3.744 Y-14.938 F400.000
G1 X-4.694 Y-15.512 F400.000
G1 X-5.281 Y-15.963 F400.000
G1 X-5.562 Y-16.200 F400.000
G1 X-5.831 Y-16.456 F400.000
G1 X-6.312 Y-17.025 F400.000
G1 X-6.531 Y-17.325 F400.000
G1 X-7.094 Y-18.281 F400.000
G1 X-7.550 Y-19.294 F400.000
G1 X-7.794 Y-19.994 F400.000
G1 X-7.994 Y-20.712 F400.000
G1 X-8.100 Y-21.450 F400.000
G1 X-8.125 Y-21.819 F400.000
G1 X-8.113 Y-22.556 F400.000
G1 X-8.050 Y-23.294 F400.000
G1 X-7.925 Y-24.031 F400.000
G1 X-7.844 Y-24.394 F400.000
G1 X-7.600 Y-25.094 F400.000
G1 X-7.456 Y-25.438 F400.000
G1 X-7.125 Y-26.106 F400.000
G1 X-6.737 Y-26.744 F400.000
G1 X-6.531 Y-27.056 F400.000
G1 X-6.069 Y-27.644 F400.000
G1 X-5.819 Y-27.925 F400.000
G1 X-5.287 Y-28.456 F400.000
G1 X-4.719 Y-28.944 F400.000
G1 X-4.112 Y-29.381 F400.000
G1 X-2.150 Y-30.219 F400.000
G1 X-1.450 Y-30.375 F400.000
G1 X2.575 Y-30.312 F400.000
G1 X3.606 Y-30.113 F400.000
G1 X3.975 Y-29.981 F400.000
G1 X4.763 Y-29.562 F400.000
G1 X6.037 Y-28.700 F400.000
G1 X6.319 Y-28.456 F400.000
G1 X6.856 Y-27.931 F400.000
G1 X7.331 Y-27.344 F400.000
G1 X7.769 Y-26.731 F400.000
G1 X8.319 Y-25.744 F400.000
G1 X8.619 Y-25.050 F400.000
G1 X8.869 Y-24.344 F400.000
G1 X9.037 Y-23.606 F400.000
G1 X9.094 Y-23.231 F400.000
G1 X9.131 Y-22.856 F400.000
G1 X9.169 Y-22.106 F400.000
G1 X9.119 Y-20.981 F400.000
G1 X9.075 Y-20.606 F400.000
G1 X8.906 Y-19.869 F400.000
G1 X8.800 Y-19.506 F400.000
G1 X8.550 Y-18.794 F400.000
G1 X8.069 Y-17.756 F400.000
G1 X7.694 Y-17.100 F400.000
G1 X7.269 Y-16.469 F400.000
G1 X6.806 Y-15.869 F400.000
G1 X6.556 Y-15.581 F400.000
G1 X6.000 Y-15.062 F400.000
G1 X5.706 Y-14.819 F400.000
G1 X5.081 Y-14.387 F400.000
G1 X4.100 Y-13.844 F400.000
G1 X3.900 Y-13.800 F400.000
G1 X3.800 Y-13.806 F400.000
G1 X2.700 Y-14.062 F400.000
G1 X2.600 Y-14.075 F400.000
G1 X2.600 Y-14.075 F400.000
G1 X2.375 Y-14.144 F400.000
G1 X2.119 Y-14.319 F400.000
G0 X2.062 Y-14.375
G0 X1.400 Y-14.956
G0 X1.262 Y-15.019
G0 X-0.613 Y-15.019
G0 X-0.756 Y-14.988
G0 X-1.225 Y-14.719
G1 X-1.288 Y-14.675 F400.000
G1 X-1.544 Y-14.500 F400.000
G1 X-1.850 Y-14.269 F400.000
G1 X-2.144 Y-14.156 F400.000
G1 X-2.144 Y-14.156 F400.000
G1 X-3.644 Y-13.881 F400.000
G1 X-4.019 Y-13.856 F400.000
G1 X-4.206 Y-13.875 F400.000
G1 X-5.088 Y-14.256 F400.000
G1 X-5.725 Y-14.631 F400.000
G1 X-6.319 Y-15.075 F400.000
G1 X-6.850 Y-15.588 F400.000
G1 X-7.100 Y-15.863 F400.000
G1 X-7.750 Y-16.762 F400.000
G1 X-8.306 Y-17.725 F400.000
G1 X-8.781 Y-18.731 F400.000
G1 X-9.050 Y-19.419 F400.000
G1 X-9.250 Y-20.131 F400.000
G1 X-9.331 Y-20.494 F400.000
G1 X-9.431 Y-21.231 F400.000
G1 X-9.469 Y-21.969 F400.000
G1 X-9.463 Y-22.337 F400.000
G1 X-9.369 Y-23.444 F400.000
G1 X-9.175 Y-24.544 F400.000
G1 X-8.963 Y-25.256 F400.000
G1 X-8.838 Y-25.606 F400.000
G1 X-8.537 Y-26.288 F400.000
G1 X-8.369 Y-26.619 F400.000
G1 X-7.981 Y-27.262 F400.000
G1 X-7.331 Y-28.175 F400.000
G1 X-6.856 Y-28.756 F400.000
G1 X-6.600 Y-29.025 F400.000
G1 X-5.644 Y-29.769 F400.000
G1 X-5.175 Y-29.975 F400.000
G1 X-1.975 Y-30.350 F400.000
G1 X-1.975 Y-30.350 F400.000
G1 X-1.738 Y-30.325 F400.000
G1 X-1.594 Y-30.275 F400.000
G1 X-1.475 Y-30.200 F400.000
G0 X-1.444 Y-30.144
G0 X-1.419 Y-30.012
G0 X-1.456 Y-29.619
G0 X-3.344 Y-14.656
G1 X-3.356 Y-14.531 F400.000
G1 X-3.406 Y-14.244 F400.000
G1 X-3.475 Y-14.094 F400.000
G1 X-3.625 Y-13.919 F400.000
G1 X-3.900 Y-13.769 F400.000
G1 X-3.900 Y-13.769 F400.000
G1 X-5.213 Y-13.381 F400.000
G1 X-5.494 Y-13.356 F400.000
G1 X-5.775 Y-13.406 F400.000
G1 X-6.481 Y-13.713 F400.000
G1 X-6.806 Y-13.887 F400.000
G1 X-7.112 Y-14.100 F400.000
G1 X-7.400 Y-14.338 F400.000
G1 X-7.938 Y-14.844 F400.000
G1 X-8.412 Y-15.419 F400.000
G1 X-8.856 Y-16.012 F400.000
G1 X-9.438 Y-16.962 F400.000
G1 X-9.769 Y-17.625 F400.000
G1 X-10.056 Y-18.306 F400.000
G1 X-10.306 Y-19.006 F400.000
G1 X-10.506 Y-19.719 F400.000
G1 X-10.669 Y-20.444 F400.000
G1 X-10.781 Y-21.181 F400.000
G1 X-10.844 Y-21.919 F400.000
G1 X-10.825 Y-22.656 F400.000
G1 X-10.794 Y-23.025 F400.000
G1 X-10.625 Y-24.131 F400.000
G1 X-10.369 Y-25.219 F400.000
G1 X-10.150 Y-25.931 F400.000
G1 X-9.869 Y-26.619 F400.000
G1 X-9.713 Y-26.956 F400.000
G1 X-9.350 Y-27.613 F400.000
G1 X-8.938 Y-28.238 F400.000
G1 X-8.144 Y-29.137 F400.000
G1 X-7.906 Y-29.325 F400.000
G1 X-7.731 Y-29.419 F400.000
G1 X-5.531 Y-29.919 F400.000
G1 X-5.531 Y-29.919 F400.000
G1 X-5.294 Y-29.913 F400.000
G1 X-5.144 Y-29.875 F400.000
G1 X-5.019 Y-29.806 F400.000
G0 X-4.981 Y-29.756
G0 X-4.938 Y-29.631
G0 X-4.925 Y-29.238
G0 X-5.025 Y-14.181
G1 X-5.031 Y-14.056 F400.000
G1 X-5.044 Y-13.769 F400.000
G1 X-5.088 Y-13.606 F400.000
G1 X-5.169 Y-13.475 F400.000
G1 X-5.331 Y-13.319 F400.000
G1 X-5.463 Y-13.231 F400.000
G1 X-5.463 Y-13.231 F400.000
G1 X-6.275 Y-12.894 F400.000
G1 X-6.650 Y-12.806 F400.000
G1 X-6.838 Y-12.806 F400.000
G1 X-7.300 Y-12.944 F400.000
G1 X-7.650 Y-13.106 F400.000
G1 X-7.975 Y-13.287 F400.000
G1 X-8.281 Y-13.500 F400.000
G1 X-8.850 Y-13.969 F400.000
G1 X-9.113 Y-14.231 F400.000
G1 X-9.825 Y-15.075 F400.000
G1 X-10.444 Y-16.006 F400.000
G1 X-10.794 Y-16.663 F400.000
G1 X-11.113 Y-17.331 F400.000
G1 X-11.531 Y-18.363 F400.000
G1 X-11.769 Y-19.062 F400.000
G1 X-11.875 Y-19.419 F400.000
G1 X-12.037 Y-20.144 F400.000
G1 X-12.100 Y-20.512 F400.000
G1 X-12.181 Y-21.250 F400.000
G1 X-12.206 Y-21.988 F400.000
G1 X-12.181 Y-22.725 F400.000
G1 X-12.106 Y-23.462 F400.000
G1 X-11.925 Y-24.569 F400.000
G1 X-11.688 Y-25.656 F400.000
G1 X-11.450 Y-26.369 F400.000
G1 X-11.162 Y-27.062 F400.000
G1 X-10.775 Y-27.812 F400.000
G1 X-10.300 Y-28.462 F400.000
G1 X-10.156 Y-28.606 F400.000
G1 X-9.994 Y-28.725 F400.000
G1 X-8.062 Y-29.331 F400.000
G1 X-8.062 Y-29.331 F400.000
G1 X-7.825 Y-29.350 F400.000
G1 X-7.669 Y-29.331 F400.000
G1 X-7.537 Y-29.275 F400.000
G0 X-7.494 Y-29.231
G0 X-7.444 Y-29.106
G0 X-7.400 Y-28.712
G0 X-6.194 Y-13.713
G1 X-6.188 Y-13.588 F400.000
G1 X-6.175 Y-13.294 F400.000
G1 X-6.213 Y-13.137 F400.000
G1 X-6.325 Y-12.931 F400.000
G1 X-6.550 Y-12.725 F400.000
G1 X-6.550 Y-12.725 F400.000
G1 X-7.250 Y-12.356 F400.000
G1 X-7.719 Y-12.200 F400.000
G1 X-7.906 Y-12.188 F400.000
G1 X-8.550 Y-12.363 F400.000
G1 X-9.056 Y-12.613 F400.000
G1 X-9.669 Y-13.025 F400.000
G1 X-9.950 Y-13.262 F400.000
G1 X-10.219 Y-13.519 F400.000
G1 X-10.475 Y-13.787 F400.000
G1 X-10.950 Y-14.356 F400.000
G1 X-11.575 Y-15.281 F400.000
G1 X-12.119 Y-16.250 F400.000
G1 X-12.569 Y-17.269 F400.000
G1 X-13.094 Y-18.663 F400.000
G1 X-13.281 Y-19.375 F400.000
G1 X-13.363 Y-19.738 F400.000
G1 X-13.481 Y-20.475 F400.000
G1 X-13.525 Y-20.844 F400.000
G1 X-13.569 Y-21.581 F400.000
G1 X-13.556 Y-22.319 F400.000
G1 X-13.469 Y-23.425 F400.000
G1 X-13.325 Y-24.531 F400.000
G1 X-13.194 Y-25.269 F400.000
G1 X-13.006 Y-25.994 F400.000
G1 X-12.781 Y-26.706 F400.000
G1 X-12.656 Y-27.056 F400.000
G1 X-12.319 Y-27.656 F400.000
G1 X-12.113 Y-27.875 F400.000
G1 X-12.031 Y-27.931 F400.000
G1 X-10.344 Y-28.606 F400.000
G1 X-10.344 Y-28.606 F400.000
G1 X-10.113 Y-28.644 F400.000
G1 X-9.956 Y-28.644 F400.000
G1 X-9.825 Y-28.600 F400.000
G0 X-9.775 Y-28.556
G0 X-9.719 Y-28.438
G0 X-9.644 Y-28.044
G0 X-7.319 Y-13.137
G1 X-7.300 Y-13.012 F400.000
G1 X-7.269 Y-12.719 F400.000
G1 X-7.287 Y-12.562 F400.000
G1 X-7.381 Y-12.350 F400.000
G1 X-7.588 Y-12.125 F400.000
G1 X-7.588 Y-12.125 F400.000
G1 X-8.444 Y-11.631 F400.000
G1 X-8.631 Y-11.562 F400.000
G1 X-8.912 Y-11.537 F400.000
G1 X-9.194 Y-11.575 F400.000
G1 X-9.656 Y-11.713 F400.000
G1 X-9.994 Y-11.869 F400.000
G1 X-10.637 Y-12.238 F400.000
G1 X-10.938 Y-12.450 F400.000
G1 X-11.225 Y-12.681 F400.000
G1 X-11.488 Y-12.944 F400.000
G1 X-11.738 Y-13.219 F400.000
G1 X-12.425 Y-14.094 F400.000
G1 X-13.025 Y-15.031 F400.000
G1 X-13.369 Y-15.688 F400.000
G1 X-13.994 Y-17.031 F400.000
G1 X-14.244 Y-17.731 F400.000
G1 X-14.456 Y-18.444 F400.000
G1 X-14.625 Y-19.169 F400.000
G1 X-14.812 Y-20.269 F400.000
G1 X-14.906 Y-21.006 F400.000
G1 X-14.931 Y-22.481 F400.000
G1 X-14.856 Y-23.587 F400.000
G1 X-14.706 Y-24.694 F400.000
G1 X-14.488 Y-25.788 F400.000
G1 X-14.400 Y-26.150 F400.000
G1 X-14.137 Y-26.781 F400.000
G1 X-13.950 Y-27.012 F400.000
G1 X-12.300 Y-27.806 F400.000
G1 X-12.300 Y-27.806 F400.000
G1 X-12.075 Y-27.863 F400.000
G1 X-11.919 Y-27.875 F400.000
G1 X-11.781 Y-27.837 F400.000
G0 X-11.731 Y-27.800
G0 X-11.669 Y-27.688
G0 X-11.569 Y-27.300
G0 X-8.375 Y-12.481
G1 X-8.344 Y-12.356 F400.000
G1 X-8.300 Y-12.069 F400.000
G1 X-8.306 Y-11.906 F400.000
G1 X-8.387 Y-11.688 F400.000
G1 X-8.575 Y-11.450 F400.000
G1 X-8.575 Y-11.450 F400.000
G1 X-9.144 Y-11.044 F400.000
G1 X-9.500 Y-10.869 F400.000
G1 X-9.594 Y-10.838 F400.000
G1 X-10.062 Y-10.838 F400.000
G1 X-10.531 Y-10.919 F400.000
G1 X-10.881 Y-11.044 F400.000
G1 X-11.213 Y-11.206 F400.000
G1 X-11.537 Y-11.387 F400.000
G1 X-11.844 Y-11.594 F400.000
G1 X-12.131 Y-11.831 F400.000
G1 X-12.675 Y-12.338 F400.000
G1 X-12.931 Y-12.606 F400.000
G1 X-13.400 Y-13.175 F400.000
G1 X-13.838 Y-13.775 F400.000
G1 X-14.238 Y-14.400 F400.000
G1 X-14.600 Y-15.044 F400.000
G1 X-15.075 Y-16.050 F400.000
G1 X-15.581 Y-17.444 F400.000
G1 X-15.900 Y-18.512 F400.000
G1 X-15.994 Y-18.869 F400.000
G1 X-16.137 Y-19.594 F400.000
G1 X-16.275 Y-20.700 F400.000
G1 X-16.319 Y-21.806 F400.000
G1 X-16.288 Y-22.913 F400.000
G1 X-16.163 Y-24.387 F400.000
G1 X-16.119 Y-24.756 F400.000
G1 X-16.050 Y-25.125 F400.000
G1 X-15.806 Y-25.869 F400.000
G1 X-15.700 Y-26.031 F400.000
G1 X-15.631 Y-26.100 F400.000
G1 X-14.131 Y-26.931 F400.000
G1 X-14.131 Y-26.931 F400.000
G1 X-13.906 Y-27.000 F400.000
G1 X-13.750 Y-27.012 F400.000
G1 X-13.613 Y-26.988 F400.000
G0 X-13.562 Y-26.950
G0 X-13.488 Y-26.837
G0 X-13.369 Y-26.462
G0 X-9.256 Y-11.825
G1 X-9.219 Y-11.706 F400.000
G1 X-9.156 Y-11.425 F400.000
G1 X-9.150 Y-11.262 F400.000
G1 X-9.219 Y-11.044 F400.000
G1 X-9.394 Y-10.794 F400.000
G1 X-9.394 Y-10.794 F400.000
G1 X-10.000 Y-10.269 F400.000
G1 X-10.338 Y-10.062 F400.000
G1 X-10.431 Y-10.025 F400.000
G1 X-10.806 Y-9.994 F400.000
G1 X-11.275 Y-10.050 F400.000
G1 X-11.725 Y-10.181 F400.000
G1 X-12.069 Y-10.325 F400.000
G1 X-12.713 Y-10.688 F400.000
G1 X-13.012 Y-10.906 F400.000
G1 X-13.581 Y-11.387 F400.000
G1 X-14.100 Y-11.919 F400.000
G1 X-14.344 Y-12.194 F400.000
G1 X-14.800 Y-12.781 F400.000
G1 X-15.225 Y-13.387 F400.000
G1 X-15.812 Y-14.338 F400.000
G1 X-16.137 Y-15.000 F400.000
G1 X-16.438 Y-15.675 F400.000
G1 X-16.831 Y-16.712 F400.000
G1 X-17.169 Y-17.775 F400.000
G1 X-17.431 Y-18.856 F400.000
G1 X-17.575 Y-19.581 F400.000
G1 X-17.631 Y-19.950 F400.000
G1 X-17.694 Y-20.688 F400.000
G1 X-17.719 Y-21.794 F400.000
G1 X-17.700 Y-22.531 F400.000
G1 X-17.644 Y-23.269 F400.000
G1 X-17.631 Y-23.637 F400.000
G1 X-17.519 Y-24.475 F400.000
G1 X-17.444 Y-24.756 F400.000
G1 X-17.356 Y-24.931 F400.000
G1 X-17.300 Y-25.012 F400.000
G1 X-15.863 Y-25.956 F400.000
G1 X-15.863 Y-25.956 F400.000
G1 X-15.644 Y-26.044 F400.000
G1 X-15.494 Y-26.069 F400.000
G1 X-15.356 Y-26.056 F400.000
G0 X-15.300 Y-26.025
G0 X-15.225 Y-25.919
G0 X-15.081 Y-25.544
G0 X-10.194 Y-11.012
G1 X-10.156 Y-10.894 F400.000
G1 X-10.069 Y-10.613 F400.000
G1 X-10.056 Y-10.450 F400.000
G1 X-10.106 Y-10.225 F400.000
G1 X-10.262 Y-9.969 F400.000
G1 X-10.262 Y-9.969 F400.000
G1 X-10.906 Y-9.344 F400.000
G1 X-11.156 Y-9.194 F400.000
G1 X-11.438 Y-9.131 F400.000
G1 X-11.812 Y-9.131 F400.000
G1 X-12.094 Y-9.169 F400.000
G1 X-12.456 Y-9.256 F400.000
G1 X-12.806 Y-9.381 F400.000
G1 X-13.475 Y-9.706 F400.000
G1 X-13.787 Y-9.906 F400.000
G1 X-14.375 Y-10.356 F400.000
G1 X-14.662 Y-10.594 F400.000
G1 X-15.194 Y-11.113 F400.000
G1 X-15.444 Y-11.387 F400.000
G1 X-16.125 Y-12.262 F400.000
G1 X-16.725 Y-13.194 F400.000
G1 X-17.250 Y-14.175 F400.000
G1 X-17.881 Y-15.519 F400.000
G1 X-18.262 Y-16.562 F400.000
G1 X-18.663 Y-17.994 F400.000
G1 X-18.913 Y-19.081 F400.000
G1 X-19.062 Y-20.188 F400.000
G1 X-19.106 Y-20.925 F400.000
G1 X-19.094 Y-22.400 F400.000
G1 X-18.988 Y-23.519 F400.000
G1 X-18.969 Y-23.613 F400.000
G1 X-18.887 Y-23.788 F400.000
G1 X-18.831 Y-23.869 F400.000
G1 X-17.550 Y-24.837 F400.000
G1 X-17.550 Y-24.837 F400.000
G1 X-17.337 Y-24.931 F400.000
G1 X-17.188 Y-24.969 F400.000
G1 X-17.044 Y-24.956 F400.000
G0 X-16.994 Y-24.931
G0 X-16.906 Y-24.831
G0 X-16.744 Y-24.462
G0 X-10.969 Y-10.244
G1 X-10.925 Y-10.125 F400.000
G1 X-10.825 Y-9.850 F400.000
G1 X-10.800 Y-9.688 F400.000
G1 X-10.831 Y-9.463 F400.000
G1 X-10.975 Y-9.194 F400.000
G1 X-10.975 Y-9.194 F400.000
G1 X-11.425 Y-8.637 F400.000
G1 X-11.725 Y-8.387 F400.000
G1 X-11.906 Y-8.300 F400.000
G1 X-12.281 Y-8.225 F400.000
G1 X-12.750 Y-8.231 F400.000
G1 X-13.119 Y-8.281 F400.000
G1 X-13.475 Y-8.387 F400.000
G1 X-13.819 Y-8.519 F400.000
G1 X-14.156 Y-8.669 F400.000
G1 X-14.794 Y-9.044 F400.000
G1 X-15.394 Y-9.481 F400.000
G1 X-15.681 Y-9.719 F400.000
G1 X-16.212 Y-10.225 F400.000
G1 X-16.462 Y-10.500 F400.000
G1 X-17.381 Y-11.669 F400.000
G1 X-17.988 Y-12.600 F400.000
G1 X-18.531 Y-13.575 F400.000
G1 X-19.025 Y-14.569 F400.000
G1 X-19.431 Y-15.606 F400.000
G1 X-19.856 Y-17.031 F400.000
G1 X-20.206 Y-18.481 F400.000
G1 X-20.281 Y-18.844 F400.000
G1 X-20.438 Y-19.950 F400.000
G1 X-20.494 Y-20.688 F400.000
G1 X-20.456 Y-22.269 F400.000
G1 X-20.444 Y-22.363 F400.000
G1 X-20.375 Y-22.544 F400.000
G1 X-20.319 Y-22.625 F400.000
G1 X-19.012 Y-23.725 F400.000
G1 X-19.012 Y-23.725 F400.000
G1 X-18.806 Y-23.837 F400.000
G1 X-18.663 Y-23.881 F400.000
G1 X-18.519 Y-23.881 F400.000
G0 X-18.462 Y-23.850
G0 X-18.375 Y-23.756
G0 X-18.194 Y-23.400
G0 X-11.769 Y-9.281
G1 X-11.719 Y-9.169 F400.000
G1 X-11.588 Y-8.819 F400.000
G1 X-11.575 Y-8.588 F400.000
G1 X-11.637 Y-8.369 F400.000
G1 X-11.706 Y-8.238 F400.000
G1 X-11.706 Y-8.238 F400.000
G1 X-12.056 Y-7.750 F400.000
G1 X-12.338 Y-7.475 F400.000
G1 X-12.506 Y-7.375 F400.000
G1 X-13.069 Y-7.263 F400.000
G1 X-13.350 Y-7.250 F400.000
G1 X-13.719 Y-7.275 F400.000
G1 X-14.081 Y-7.356 F400.000
G1 X-14.438 Y-7.469 F400.000
G1 X-14.787 Y-7.600 F400.000
G1 X-15.450 Y-7.938 F400.000
G1 X-16.075 Y-8.338 F400.000
G1 X-16.375 Y-8.556 F400.000
G1 X-16.931 Y-9.037 F400.000
G1 X-17.194 Y-9.300 F400.000
G1 X-17.700 Y-9.844 F400.000
G1 X-18.387 Y-10.719 F400.000
G1 X-19.006 Y-11.637 F400.000
G1 X-19.587 Y-12.588 F400.000
G1 X-19.950 Y-13.231 F400.000
G1 X-20.413 Y-14.244 F400.000
G1 X-20.800 Y-15.281 F400.000
G1 X-21.231 Y-16.700 F400.000
G1 X-21.494 Y-17.781 F400.000
G1 X-21.700 Y-18.875 F400.000
G1 X-21.850 Y-19.981 F400.000
G1 X-21.887 Y-20.538 F400.000
G1 X-21.869 Y-20.913 F400.000
G1 X-21.794 Y-21.194 F400.000
G1 X-21.600 Y-21.425 F400.000
G1 X-20.512 Y-22.456 F400.000
G1 X-20.512 Y-22.456 F400.000
G1 X-20.312 Y-22.575 F400.000
G1 X-20.163 Y-22.625 F400.000
G1 X-20.025 Y-22.631 F400.000
G0 X-19.969 Y-22.606
G0 X-19.875 Y-22.519
G0 X-19.675 Y-22.169
G0 X-12.406 Y-8.406
G1 X-12.344 Y-8.287 F400.000
G1 X-12.194 Y-7.944 F400.000
G1 X-12.175 Y-7.719 F400.000
G1 X-12.275 Y-7.356 F400.000
G1 X-12.275 Y-7.356 F400.000
G1 X-12.713 Y-6.681 F400.000
G1 X-12.919 Y-6.469 F400.000
G1 X-13.094 Y-6.381 F400.000
G1 X-13.562 Y-6.263 F400.000
G1 X-13.844 Y-6.231 F400.000
G1 X-14.213 Y-6.225 F400.000
G1 X-14.581 Y-6.281 F400.000
G1 X-14.944 Y-6.362 F400.000
G1 X-15.300 Y-6.463 F400.000
G1 X-15.981 Y-6.756 F400.000
G1 X-16.312 Y-6.919 F400.000
G1 X-16.931 Y-7.325 F400.000
G1 X-17.519 Y-7.775 F400.000
G1 X-18.062 Y-8.275 F400.000
G1 X-18.325 Y-8.537 F400.000
G1 X-18.831 Y-9.081 F400.000
G1 X-19.531 Y-9.938 F400.000
G1 X-20.169 Y-10.844 F400.000
G1 X-20.562 Y-11.475 F400.000
G1 X-21.425 Y-13.106 F400.000
G1 X-21.738 Y-13.781 F400.000
G1 X-22.012 Y-14.469 F400.000
G1 X-22.250 Y-15.169 F400.000
G1 X-22.456 Y-15.881 F400.000
G1 X-22.900 Y-17.688 F400.000
G1 X-23.125 Y-18.775 F400.000
G1 X-23.181 Y-19.431 F400.000
G1 X-23.131 Y-19.712 F400.000
G1 X-23.087 Y-19.800 F400.000
G1 X-21.944 Y-21.069 F400.000
G1 X-21.944 Y-21.069 F400.000
G1 X-21.750 Y-21.200 F400.000
G1 X-21.613 Y-21.262 F400.000
G1 X-21.475 Y-21.281 F400.000
G0 X-21.413 Y-21.262
G0 X-21.312 Y-21.175
G0 X-21.094 Y-20.837
G0 X-13.000 Y-7.475
G1 X-12.931 Y-7.362 F400.000
G1 X-12.756 Y-7.031 F400.000
G1 X-12.713 Y-6.806 F400.000
G1 X-12.781 Y-6.438 F400.000
G1 X-12.781 Y-6.438 F400.000
G1 X-13.169 Y-5.725 F400.000
G1 X-13.363 Y-5.494 F400.000
G1 X-13.525 Y-5.381 F400.000
G1 X-13.988 Y-5.225 F400.000
G1 X-14.269 Y-5.169 F400.000
G1 X-14.637 Y-5.156 F400.000
G1 X-15.006 Y-5.175 F400.000
G1 X-15.375 Y-5.231 F400.000
G1 X-15.738 Y-5.312 F400.000
G1 X-16.438 Y-5.556 F400.000
G1 X-16.775 Y-5.719 F400.000
G1 X-17.425 Y-6.075 F400.000
G1 X-18.331 Y-6.719 F400.000
G1 X-18.887 Y-7.213 F400.000
G1 X-19.425 Y-7.725 F400.000
G1 X-20.181 Y-8.537 F400.000
G1 X-20.875 Y-9.400 F400.000
G1 X-21.512 Y-10.319 F400.000
G1 X-22.075 Y-11.275 F400.000
G1 X-22.419 Y-11.931 F400.000
G1 X-23.056 Y-13.275 F400.000
G1 X-23.462 Y-14.312 F400.000
G1 X-23.800 Y-15.375 F400.000
G1 X-24.331 Y-17.644 F400.000
G1 X-24.369 Y-17.925 F400.000
G1 X-24.337 Y-18.206 F400.000
G1 X-24.294 Y-18.294 F400.000
G1 X-23.244 Y-19.613 F400.000
G1 X-23.244 Y-19.613 F400.000
G1 X-23.069 Y-19.762 F400.000
G1 X-22.931 Y-19.831 F400.000
G1 X-22.794 Y-19.863 F400.000
G0 X-22.738 Y-19.844
G0 X-22.631 Y-19.769
G0 X-22.387 Y-19.444
G0 X-13.494 Y-6.506
G1 X-13.419 Y-6.400 F400.000
G1 X-13.225 Y-6.081 F400.000
G1 X-13.169 Y-5.856 F400.000
G1 X-13.219 Y-5.487 F400.000
G1 X-13.219 Y-5.487 F400.000
G1 X-13.488 Y-4.838 F400.000
G1 X-13.706 Y-4.500 F400.000
G1 X-13.850 Y-4.362 F400.000
G1 X-14.113 Y-4.237 F400.000
G1 X-14.581 Y-4.106 F400.000
G1 X-14.950 Y-4.062 F400.000
G1 X-15.319 Y-4.056 F400.000
G1 X-15.688 Y-4.075 F400.000
G1 X-16.056 Y-4.131 F400.000
G1 X-16.419 Y-4.219 F400.000
G1 X-17.119 Y-4.456 F400.000
G1 X-17.794 Y-4.769 F400.000
G1 X-18.119 Y-4.944 F400.000
G1 X-18.744 Y-5.344 F400.000
G1 X-19.044 Y-5.562 F400.000
G1 X-19.625 Y-6.031 F400.000
G1 X-20.700 Y-7.050 F400.000
G1 X-21.212 Y-7.588 F400.000
G1 X-21.919 Y-8.438 F400.000
G1 X-22.556 Y-9.356 F400.000
G1 X-23.131 Y-10.306 F400.000
G1 X-24.000 Y-11.944 F400.000
G1 X-24.469 Y-12.950 F400.000
G1 X-24.850 Y-14.000 F400.000
G1 X-25.169 Y-15.069 F400.000
G1 X-25.469 Y-16.344 F400.000
G1 X-25.456 Y-16.625 F400.000
G1 X-24.569 Y-17.931 F400.000
G1 X-24.450 Y-18.087 F400.000
G1 X-24.450 Y-18.087 F400.000
G1 X-24.275 Y-18.244 F400.000
G1 X-24.144 Y-18.319 F400.000
G1 X-24.006 Y-18.350 F400.000
G0 X-23.944 Y-18.337
G0 X-23.837 Y-18.269
G0 X-23.575 Y-17.956
G0 X-13.925 Y-5.513
G1 X-13.850 Y-5.406 F400.000
G1 X-13.637 Y-5.100 F400.000
G1 X-13.562 Y-4.875 F400.000
G1 X-13.556 Y-4.650 F400.000
G1 X-13.588 Y-4.506 F400.000
G1 X-13.588 Y-4.506 F400.000
G1 X-13.812 Y-3.831 F400.000
G1 X-13.950 Y-3.562 F400.000
G1 X-14.075 Y-3.406 F400.000
G1 X-14.325 Y-3.237 F400.000
G1 X-14.588 Y-3.112 F400.000
G1 X-14.869 Y-3.025 F400.000
G1 X-15.231 Y-2.950 F400.000
G1 X-15.600 Y-2.919 F400.000
G1 X-15.969 Y-2.919 F400.000
G1 X-16.337 Y-2.938 F400.000
G1 X-16.706 Y-2.994 F400.000
G1 X-17.069 Y-3.081 F400.000
G1 X-17.775 Y-3.306 F400.000
G1 X-18.113 Y-3.456 F400.000
G1 X-18.775 Y-3.788 F400.000
G1 X-19.406 Y-4.188 F400.000
G1 X-20.019 Y-4.606 F400.000
G1 X-20.887 Y-5.300 F400.000
G1 X-21.706 Y-6.050 F400.000
G1 X-22.212 Y-6.581 F400.000
G1 X-22.925 Y-7.425 F400.000
G1 X-23.369 Y-8.019 F400.000
G1 X-23.969 Y-8.956 F400.000
G1 X-25.069 Y-10.887 F400.000
G1 X-25.569 Y-11.881 F400.000
G1 X-25.975 Y-12.919 F400.000
G1 X-26.494 Y-14.637 F400.000
G1 X-26.506 Y-14.731 F400.000
G1 X-26.494 Y-14.919 F400.000
G1 X-26.163 Y-15.531 F400.000
G1 X-25.575 Y-16.456 F400.000
G1 X-25.575 Y-16.456 F400.000
G1 X-25.413 Y-16.631 F400.000
G1 X-25.288 Y-16.719 F400.000
G1 X-25.156 Y-16.762 F400.000
G0 X-25.094 Y-16.756
G0 X-24.981 Y-16.694
G0 X-24.706 Y-16.394
G0 X-14.281 Y-4.481
G1 X-14.200 Y-4.381 F400.000
G1 X-13.969 Y-4.081 F400.000
G1 X-13.881 Y-3.862 F400.000
G1 X-13.863 Y-3.638 F400.000
G1 X-13.881 Y-3.494 F400.000
G1 X-13.881 Y-3.494 F400.000
G1 X-14.056 Y-2.794 F400.000
G1 X-14.238 Y-2.431 F400.000
G1 X-14.300 Y-2.350 F400.000
G1 X-14.537 Y-2.169 F400.000
G1 X-14.975 Y-1.944 F400.000
G1 X-15.425 Y-1.812 F400.000
G1 X-15.794 Y-1.750 F400.000
G1 X-16.531 Y-1.712 F400.000
G1 X-16.900 Y-1.738 F400.000
G1 X-17.269 Y-1.788 F400.000
G1 X-17.631 Y-1.863 F400.000
G1 X-17.988 Y-1.969 F400.000
G1 X-18.337 Y-2.100 F400.000
G1 X-19.350 Y-2.569 F400.000
G1 X-20.000 Y-2.931 F400.000
G1 X-20.625 Y-3.331 F400.000
G1 X-21.219 Y-3.769 F400.000
G1 X-22.344 Y-4.731 F400.000
G1 X-22.881 Y-5.244 F400.000
G1 X-23.387 Y-5.787 F400.000
G1 X-24.100 Y-6.650 F400.000
G1 X-24.738 Y-7.556 F400.000
G1 X-25.725 Y-9.125 F400.000
G1 X-26.456 Y-10.412 F400.000
G1 X-26.919 Y-11.425 F400.000
G1 X-27.425 Y-12.863 F400.000
G1 X-27.425 Y-13.144 F400.000
G1 X-26.619 Y-14.719 F400.000
G1 X-26.619 Y-14.719 F400.000
G1 X-26.469 Y-14.894 F400.000
G1 X-26.350 Y-14.994 F400.000
G1 X-26.219 Y-15.044 F400.000
G0 X-26.163 Y-15.044
G0 X-26.044 Y-14.981
G0 X-25.750 Y-14.706
G0 X-14.575 Y-3.419
G1 X-14.481 Y-3.325 F400.000
G1 X-14.231 Y-3.044 F400.000
G1 X-14.125 Y-2.837 F400.000
G1 X-14.100 Y-2.469 F400.000
G1 X-14.100 Y-2.469 F400.000
G1 X-14.256 Y-1.669 F400.000
G1 X-14.325 Y-1.481 F400.000
G1 X-14.431 Y-1.312 F400.000
G1 X-14.750 Y-1.069 F400.000
G1 X-15.106 Y-0.894 F400.000
G1 X-15.450 Y-0.750 F400.000
G1 X-15.800 Y-0.631 F400.000
G1 X-16.169 Y-0.569 F400.000
G1 X-16.538 Y-0.531 F400.000
G1 X-16.906 Y-0.512 F400.000
G1 X-17.275 Y-0.537 F400.000
G1 X-17.644 Y-0.594 F400.000
G1 X-18.369 Y-0.769 F400.000
G1 X-18.725 Y-0.875 F400.000
G1 X-19.756 Y-1.281 F400.000
G1 X-20.750 Y-1.781 F400.000
G1 X-21.700 Y-2.362 F400.000
G1 X-22.600 Y-3.019 F400.000
G1 X-23.169 Y-3.500 F400.000
G1 X-23.700 Y-4.013 F400.000
G1 X-24.206 Y-4.556 F400.000
G1 X-25.812 Y-6.581 F400.000
G1 X-26.031 Y-6.881 F400.000
G1 X-27.381 Y-9.100 F400.000
G1 X-28.231 Y-10.875 F400.000
G1 X-28.275 Y-11.156 F400.000
G1 X-28.262 Y-11.250 F400.000
G1 X-27.613 Y-12.756 F400.000
G1 X-27.613 Y-12.756 F400.000
G1 X-27.481 Y-12.944 F400.000
G1 X-27.369 Y-13.044 F400.000
G1 X-27.244 Y-13.106 F400.000
G0 X-27.181 Y-13.106
G0 X-27.062 Y-13.056
G0 X-26.750 Y-12.800
G0 X-14.819 Y-2.337
G1 X-14.719 Y-2.256 F400.000
G1 X-14.444 Y-1.994 F400.000
G1 X-14.319 Y-1.794 F400.000
G1 X-14.238 Y-1.431 F400.000
G1 X-14.238 Y-1.431 F400.000
G1 X-14.312 Y-0.831 F400.000
G1 X-14.431 Y-0.444 F400.000
G1 X-14.544 Y-0.281 F400.000
G1 X-14.838 Y-0.019 F400.000
G1 X-15.162 Y0.188 F400.000
G1 X-15.488 Y0.369 F400.000
G1 X-15.838 Y0.487 F400.000
G1 X-16.194 Y0.581 F400.000
G1 X-16.556 Y0.656 F400.000
G1 X-16.925 Y0.681 F400.000
G1 X-17.294 Y0.675 F400.000
G1 X-18.031 Y0.613 F400.000
G1 X-18.394 Y0.531 F400.000
G1 X-19.475 Y0.231 F400.000
G1 X-20.519 Y-0.144 F400.000
G1 X-21.194 Y-0.450 F400.000
G1 X-21.850 Y-0.794 F400.000
G1 X-22.481 Y-1.175 F400.000
G1 X-23.087 Y-1.594 F400.000
G1 X-23.669 Y-2.050 F400.000
G1 X-24.225 Y-2.544 F400.000
G1 X-24.744 Y-3.069 F400.000
G1 X-25.250 Y-3.612 F400.000
G1 X-26.200 Y-4.744 F400.000
G1 X-27.081 Y-5.931 F400.000
G1 X-27.694 Y-6.862 F400.000
G1 X-28.438 Y-8.150 F400.000
G1 X-28.919 Y-9.075 F400.000
G1 X-28.950 Y-9.262 F400.000
G1 X-28.938 Y-9.356 F400.000
G1 X-28.481 Y-10.669 F400.000
G1 X-28.481 Y-10.669 F400.000
G1 X-28.369 Y-10.863 F400.000
G1 X-28.269 Y-10.975 F400.000
G1 X-28.150 Y-11.050 F400.000
G0 X-28.094 Y-11.056
G0 X-27.969 Y-11.012
G0 X-27.637 Y-10.787
G0 X-14.912 Y-1.400
G1 X-14.806 Y-1.325 F400.000
G1 X-14.519 Y-1.081 F400.000
G1 X-14.387 Y-0.894 F400.000
G1 X-14.319 Y-0.675 F400.000
G1 X-14.306 Y-0.531 F400.000
G1 X-14.306 Y-0.531 F400.000
G1 X-14.369 Y0.344 F400.000
G1 X-14.444 Y0.625 F400.000
G1 X-14.488 Y0.706 F400.000
G1 X-14.744 Y0.988 F400.000
G1 X-15.044 Y1.225 F400.000
G1 X-15.438 Y1.469 F400.000
G1 X-15.775 Y1.619 F400.000
G1 X-16.131 Y1.731 F400.000
G1 X-16.494 Y1.812 F400.000
G1 X-17.231 Y1.894 F400.000
G1 X-17.600 Y1.887 F400.000
G1 X-18.706 Y1.781 F400.000
G1 X-19.431 Y1.637 F400.000
G1 X-19.794 Y1.544 F400.000
G1 X-20.500 Y1.306 F400.000
G1 X-21.194 Y1.038 F400.000
G1 X-22.212 Y0.569 F400.000
G1 X-22.869 Y0.212 F400.000
G1 X-23.488 Y-0.200 F400.000
G1 X-24.087 Y-0.637 F400.000
G1 X-24.938 Y-1.350 F400.000
G1 X-25.744 Y-2.106 F400.000
G1 X-26.269 Y-2.631 F400.000
G1 X-26.994 Y-3.481 F400.000
G1 X-28.131 Y-4.938 F400.000
G1 X-28.350 Y-5.237 F400.000
G1 X-29.456 Y-7.081 F400.000
G1 X-29.506 Y-7.269 F400.000
G1 X-29.500 Y-7.362 F400.000
G1 X-29.125 Y-8.769 F400.000
G1 X-29.125 Y-8.769 F400.000
G1 X-29.019 Y-8.969 F400.000
G1 X-28.919 Y-9.088 F400.000
G1 X-28.800 Y-9.162 F400.000
G0 X-28.738 Y-9.175
G0 X-28.613 Y-9.137
G0 X-28.269 Y-8.931
G0 X-14.981 Y-0.331
G1 X-14.869 Y-0.256 F400.000
G1 X-14.562 Y-0.037 F400.000
G1 X-14.419 Y0.144 F400.000
G1 X-14.338 Y0.356 F400.000
G1 X-14.312 Y0.512 F400.000
G1 X-14.312 Y0.512 F400.000
G1 X-14.281 Y1.169 F400.000
G1 X-14.319 Y1.544 F400.000
G1 X-14.381 Y1.725 F400.000
G1 X-14.544 Y1.956 F400.000
G1 X-14.825 Y2.225 F400.000
G1 X-14.975 Y2.337 F400.000
G1 X-15.606 Y2.725 F400.000
G1 X-15.950 Y2.862 F400.000
G1 X-16.306 Y2.969 F400.000
G1 X-16.669 Y3.056 F400.000
G1 X-17.406 Y3.131 F400.000
G1 X-18.144 Y3.131 F400.000
G1 X-18.881 Y3.069 F400.000
G1 X-19.250 Y3.019 F400.000
G1 X-19.981 Y2.875 F400.000
G1 X-20.700 Y2.675 F400.000
G1 X-21.406 Y2.425 F400.000
G1 X-22.431 Y1.975 F400.000
G1 X-23.425 Y1.456 F400.000
G1 X-23.750 Y1.269 F400.000
G1 X-24.375 Y0.856 F400.000
G1 X-24.975 Y0.406 F400.000
G1 X-25.544 Y-0.075 F400.000
G1 X-25.819 Y-0.325 F400.000
G1 X-26.106 Y-0.562 F400.000
G1 X-26.919 Y-1.319 F400.000
G1 X-27.444 Y-1.844 F400.000
G1 X-28.413 Y-2.956 F400.000
G1 X-29.106 Y-3.825 F400.000
G1 X-29.869 Y-5.006 F400.000
G1 X-29.950 Y-5.281 F400.000
G1 X-29.625 Y-6.875 F400.000
G1 X-29.625 Y-6.875 F400.000
G1 X-29.531 Y-7.088 F400.000
G1 X-29.438 Y-7.206 F400.000
G1 X-29.325 Y-7.294 F400.000
G0 X-29.269 Y-7.306
G0 X-29.137 Y-7.281
G0 X-28.781 Y-7.094
G0 X-14.963 Y0.731
G1 X-14.863 Y0.794 F400.000
G1 X-14.512 Y1.012 F400.000
G1 X-14.369 Y1.188 F400.000
G1 X-14.238 Y1.556 F400.000
G1 X-14.238 Y1.556 F400.000
G1 X-14.156 Y2.212 F400.000
G1 X-14.162 Y2.494 F400.000
G1 X-14.200 Y2.681 F400.000
G1 X-14.231 Y2.769 F400.000
G1 X-14.506 Y3.156 F400.000
G1 X-14.787 Y3.419 F400.000
G1 X-15.088 Y3.638 F400.000
G1 X-15.400 Y3.837 F400.000
G1 X-15.738 Y3.994 F400.000
G1 X-16.087 Y4.125 F400.000
G1 X-16.444 Y4.231 F400.000
G1 X-17.169 Y4.362 F400.000
G1 X-17.906 Y4.419 F400.000
G1 X-18.275 Y4.419 F400.000
G1 X-19.012 Y4.369 F400.000
G1 X-20.119 Y4.194 F400.000
G1 X-21.206 Y3.919 F400.000
G1 X-21.913 Y3.688 F400.000
G1 X-22.950 Y3.263 F400.000
G1 X-23.619 Y2.931 F400.000
G1 X-24.269 Y2.562 F400.000
G1 X-24.900 Y2.156 F400.000
G1 X-25.800 Y1.481 F400.000
G1 X-26.663 Y0.762 F400.000
G1 X-28.038 Y-0.500 F400.000
G1 X-29.075 Y-1.562 F400.000
G1 X-29.800 Y-2.413 F400.000
G1 X-30.137 Y-2.888 F400.000
G1 X-30.250 Y-3.156 F400.000
G1 X-30.062 Y-4.656 F400.000
G1 X-30.062 Y-4.656 F400.000
G1 X-29.994 Y-4.869 F400.000
G1 X-29.919 Y-5.000 F400.000
G1 X-29.819 Y-5.094 F400.000
G0 X-29.762 Y-5.112
G0 X-29.631 Y-5.094
G0 X-29.262 Y-4.938
G0 X-14.887 Y1.844
G1 X-14.775 Y1.900 F400.000
G1 X-14.438 Y2.081 F400.000
G1 X-14.256 Y2.250 F400.000
G1 X-14.081 Y2.594 F400.000
G1 X-14.081 Y2.594 F400.000
G1 X-13.963 Y3.250 F400.000
G1 X-13.956 Y3.625 F400.000
G1 X-14.006 Y3.812 F400.000
G1 X-14.269 Y4.219 F400.000
G1 X-14.469 Y4.431 F400.000
G1 X-14.756 Y4.669 F400.000
G1 X-15.056 Y4.888 F400.000
G1 X-15.375 Y5.075 F400.000
G1 X-15.706 Y5.244 F400.000
G1 X-16.050 Y5.388 F400.000
G1 X-16.400 Y5.506 F400.000
G1 X-16.756 Y5.600 F400.000
G1 X-17.119 Y5.669 F400.000
G1 X-17.488 Y5.713 F400.000
G1 X-18.225 Y5.737 F400.000
G1 X-18.962 Y5.700 F400.000
G1 X-19.331 Y5.662 F400.000
G1 X-20.438 Y5.487 F400.000
G1 X-21.525 Y5.237 F400.000
G1 X-22.244 Y5.037 F400.000
G1 X-22.944 Y4.763 F400.000
G1 X-23.288 Y4.612 F400.000
G1 X-23.950 Y4.263 F400.000
G1 X-24.288 Y4.100 F400.000
G1 X-25.262 Y3.538 F400.000
G1 X-25.581 Y3.337 F400.000
G1 X-26.194 Y2.900 F400.000
G1 X-26.775 Y2.425 F400.000
G1 X-27.075 Y2.200 F400.000
G1 X-27.925 Y1.469 F400.000
G1 X-29.012 Y0.438 F400.000
G1 X-29.981 Y-0.569 F400.000
G1 X-30.288 Y-0.931 F400.000
G1 X-30.375 Y-1.100 F400.000
G1 X-30.394 Y-1.194 F400.000
G1 X-30.319 Y-2.413 F400.000
G1 X-30.319 Y-2.413 F400.000
G1 X-30.256 Y-2.625 F400.000
G1 X-30.188 Y-2.763 F400.000
G1 X-30.094 Y-2.856 F400.000
G0 X-30.038 Y-2.881
G0 X-29.906 Y-2.875
G0 X-29.525 Y-2.744
G0 X-14.713 Y2.938
G1 X-14.600 Y2.981 F400.000
G1 X-14.225 Y3.144 F400.000
G1 X-14.044 Y3.288 F400.000
G1 X-13.844 Y3.619 F400.000
G1 X-13.844 Y3.619 F400.000
G1 X-13.681 Y4.275 F400.000
G1 X-13.662 Y4.556 F400.000
G1 X-13.688 Y4.744 F400.000
G1 X-13.956 Y5.250 F400.000
G1 X-14.131 Y5.475 F400.000
G1 X-14.394 Y5.737 F400.000
G1 X-14.975 Y6.200 F400.000
G1 X-15.300 Y6.381 F400.000
G1 X-15.631 Y6.544 F400.000
G1 X-15.975 Y6.681 F400.000
G1 X-16.325 Y6.800 F400.000
G1 X-16.688 Y6.888 F400.000
G1 X-17.056 Y6.950 F400.000
G1 X-17.794 Y7.031 F400.000
G1 X-18.531 Y7.031 F400.000
G1 X-19.269 Y7.000 F400.000
G1 X-20.375 Y6.869 F400.000
G1 X-21.469 Y6.644 F400.000
G1 X-22.544 Y6.331 F400.000
G1 X-23.244 Y6.075 F400.000
G1 X-23.931 Y5.781 F400.000
G1 X-25.600 Y4.938 F400.000
G1 X-26.238 Y4.537 F400.000
G1 X-27.150 Y3.888 F400.000
G1 X-28.031 Y3.194 F400.000
G1 X-28.881 Y2.456 F400.000
G1 X-29.694 Y1.681 F400.000
G1 X-29.819 Y1.525 F400.000
G1 X-30.238 Y1.087 F400.000
G1 X-30.300 Y1.006 F400.000
G1 X-30.394 Y0.831 F400.000
G1 X-30.413 Y-0.531 F400.000
G1 X-30.413 Y-0.531 F400.000
G1 X-30.369 Y-0.750 F400.000
G1 X-30.306 Y-0.887 F400.000
G1 X-30.219 Y-0.994 F400.000
G0 X-30.163 Y-1.019
G0 X-30.038 Y-1.019
G0 X-29.644 Y-0.906
G0 X-14.475 Y4.013
G1 X-14.356 Y4.050 F400.000
G1 X-13.969 Y4.194 F400.000
G1 X-13.781 Y4.319 F400.000
G1 X-13.544 Y4.625 F400.000
G1 X-13.544 Y4.625 F400.000
G1 X-13.325 Y5.281 F400.000
G1 X-13.287 Y5.562 F400.000
G1 X-13.294 Y5.750 F400.000
G1 X-13.431 Y6.106 F400.000
G1 X-13.700 Y6.506 F400.000
G1 X-13.944 Y6.787 F400.000
G1 X-14.213 Y7.044 F400.000
G1 X-14.506 Y7.275 F400.000
G1 X-14.806 Y7.487 F400.000
G1 X-15.125 Y7.675 F400.000
G1 X-15.463 Y7.831 F400.000
G1 X-15.806 Y7.963 F400.000
G1 X-16.519 Y8.169 F400.000
G1 X-17.250 Y8.294 F400.000
G1 X-17.619 Y8.331 F400.000
G1 X-18.725 Y8.363 F400.000
G1 X-19.831 Y8.287 F400.000
G1 X-20.569 Y8.194 F400.000
G1 X-21.675 Y7.994 F400.000
G1 X-22.400 Y7.825 F400.000
G1 X-23.113 Y7.588 F400.000
G1 X-23.462 Y7.456 F400.000
G1 X-23.806 Y7.306 F400.000
G1 X-24.156 Y7.175 F400.000
G1 X-25.169 Y6.694 F400.000
G1 X-26.156 Y6.156 F400.000
G1 X-27.419 Y5.356 F400.000
G1 X-28.325 Y4.700 F400.000
G1 X-29.194 Y3.987 F400.000
G1 X-30.094 Y3.081 F400.000
G1 X-30.262 Y2.831 F400.000
G1 X-30.356 Y1.931 F400.000
G1 X-30.375 Y1.431 F400.000
G1 X-30.375 Y1.431 F400.000
G1 X-30.337 Y1.194 F400.000
G1 X-30.288 Y1.050 F400.000
G1 X-30.206 Y0.938 F400.000
G0 X-30.150 Y0.906
G0 X-30.019 Y0.894
G0 X-29.625 Y0.988
G0 X-14.119 Y5.037
G1 X-14.000 Y5.069 F400.000
G1 X-13.606 Y5.194 F400.000
G1 X-13.412 Y5.312 F400.000
G1 X-13.169 Y5.606 F400.000
G1 X-13.169 Y5.606 F400.000
G1 X-12.912 Y6.250 F400.000
G1 X-12.850 Y6.531 F400.000
G1 X-12.850 Y6.719 F400.000
G1 X-12.969 Y7.081 F400.000
G1 X-13.150 Y7.419 F400.000
G1 X-13.431 Y7.794 F400.000
G1 X-13.681 Y8.062 F400.000
G1 X-13.956 Y8.312 F400.000
G1 X-14.244 Y8.550 F400.000
G1 X-14.550 Y8.756 F400.000
G1 X-14.869 Y8.944 F400.000
G1 X-15.200 Y9.106 F400.000
G1 X-15.544 Y9.244 F400.000
G1 X-15.900 Y9.356 F400.000
G1 X-16.625 Y9.531 F400.000
G1 X-17.363 Y9.637 F400.000
G1 X-18.469 Y9.700 F400.000
G1 X-19.206 Y9.694 F400.000
G1 X-20.312 Y9.619 F400.000
G1 X-21.419 Y9.469 F400.000
G1 X-22.150 Y9.338 F400.000
G1 X-22.863 Y9.137 F400.000
G1 X-23.569 Y8.887 F400.000
G1 X-24.606 Y8.463 F400.000
G1 X-25.281 Y8.150 F400.000
G1 X-26.275 Y7.638 F400.000
G1 X-27.244 Y7.075 F400.000
G1 X-28.800 Y6.031 F400.000
G1 X-29.106 Y5.812 F400.000
G1 X-29.469 Y5.463 F400.000
G1 X-29.850 Y5.144 F400.000
G1 X-30.019 Y4.900 F400.000
G1 X-30.250 Y3.200 F400.000
G1 X-30.250 Y3.200 F400.000
G1 X-30.231 Y2.962 F400.000
G1 X-30.188 Y2.812 F400.000
G1 X-30.113 Y2.694 F400.000
G0 X-30.056 Y2.663
G0 X-29.931 Y2.644
G0 X-29.525 Y2.719
G0 X-13.700 Y6.050
G1 X-13.575 Y6.075 F400.000
G1 X-13.131 Y6.200 F400.000
G1 X-12.925 Y6.325 F400.000
G1 X-12.719 Y6.556 F400.000
G1 X-12.719 Y6.556 F400.000
G1 X-12.419 Y7.175 F400.000
G1 X-12.331 Y7.456 F400.000
G1 X-12.319 Y7.644 F400.000
G1 X-12.419 Y8.019 F400.000
G1 X-12.625 Y8.450 F400.000
G1 X-12.825 Y8.762 F400.000
G1 X-13.056 Y9.050 F400.000
G1 X-13.312 Y9.319 F400.000
G1 X-13.588 Y9.569 F400.000
G1 X-13.881 Y9.794 F400.000
G1 X-14.194 Y9.994 F400.000
G1 X-14.850 Y10.331 F400.000
G1 X-15.550 Y10.594 F400.000
G1 X-15.906 Y10.694 F400.000
G1 X-16.994 Y10.919 F400.000
G1 X-18.100 Y11.031 F400.000
G1 X-18.837 Y11.050 F400.000
G1 X-19.575 Y11.044 F400.000
G1 X-20.681 Y10.975 F400.000
G1 X-21.419 Y10.894 F400.000
G1 X-22.150 Y10.756 F400.000
G1 X-22.869 Y10.569 F400.000
G1 X-23.575 Y10.331 F400.000
G1 X-24.275 Y10.069 F400.000
G1 X-25.306 Y9.625 F400.000
G1 X-26.644 Y8.956 F400.000
G1 X-28.275 Y8.037 F400.000
G1 X-28.587 Y7.838 F400.000
G1 X-29.419 Y7.144 F400.000
G1 X-29.613 Y6.912 F400.000
G1 X-29.988 Y5.119 F400.000
G1 X-29.988 Y5.119 F400.000
G1 X-29.981 Y4.881 F400.000
G1 X-29.944 Y4.731 F400.000
G1 X-29.875 Y4.612 F400.000
G0 X-29.825 Y4.575
G0 X-29.700 Y4.550
G0 X-29.294 Y4.594
G0 X-13.213 Y7.025
G1 X-13.081 Y7.044 F400.000
G1 X-12.706 Y7.112 F400.000
G1 X-12.488 Y7.213 F400.000
G1 X-12.206 Y7.469 F400.000
G1 X-12.206 Y7.469 F400.000
G1 X-11.863 Y8.075 F400.000
G1 X-11.731 Y8.444 F400.000
G1 X-11.725 Y8.537 F400.000
G1 X-11.825 Y9.006 F400.000
G1 X-11.931 Y9.269 F400.000
G1 X-12.100 Y9.600 F400.000
G1 X-12.300 Y9.912 F400.000
G1 X-12.531 Y10.200 F400.000
G1 X-12.794 Y10.463 F400.000
G1 X-13.363 Y10.938 F400.000
G1 X-14.000 Y11.319 F400.000
G1 X-14.669 Y11.637 F400.000
G1 X-15.012 Y11.775 F400.000
G1 X-15.719 Y12.000 F400.000
G1 X-16.444 Y12.169 F400.000
G1 X-17.919 Y12.369 F400.000
G1 X-19.025 Y12.431 F400.000
G1 X-19.762 Y12.438 F400.000
G1 X-20.869 Y12.381 F400.000
G1 X-21.238 Y12.344 F400.000
G1 X-21.975 Y12.219 F400.000
G1 X-22.337 Y12.137 F400.000
G1 X-23.406 Y11.831 F400.000
G1 X-24.456 Y11.463 F400.000
G1 X-25.831 Y10.887 F400.000
G1 X-27.519 Y10.100 F400.000
G1 X-28.250 Y9.675 F400.000
G1 X-28.812 Y9.256 F400.000
G1 X-29.012 Y9.037 F400.000
G1 X-29.062 Y8.950 F400.000
G1 X-29.556 Y7.169 F400.000
G1 X-29.556 Y7.169 F400.000
G1 X-29.569 Y6.931 F400.000
G1 X-29.544 Y6.775 F400.000
G1 X-29.488 Y6.650 F400.000
G0 X-29.444 Y6.612
G0 X-29.319 Y6.581
G0 X-28.906 Y6.606
G0 X-12.675 Y7.987
G1 X-12.544 Y8.000 F400.000
G1 X-12.088 Y8.069 F400.000
G1 X-11.869 Y8.156 F400.000
G1 X-11.625 Y8.344 F400.000
G1 X-11.625 Y8.344 F400.000
G1 X-11.188 Y9.000 F400.000
G1 X-11.113 Y9.175 F400.000
G1 X-11.069 Y9.363 F400.000
G1 X-11.088 Y9.644 F400.000
G1 X-11.250 Y10.200 F400.000
G1 X-11.412 Y10.531 F400.000
G1 X-11.600 Y10.850 F400.000
G1 X-11.819 Y11.150 F400.000
G1 X-12.056 Y11.431 F400.000
G1 X-12.319 Y11.694 F400.000
G1 X-12.606 Y11.931 F400.000
G1 X-13.213 Y12.350 F400.000
G1 X-13.863 Y12.706 F400.000
G1 X-14.200 Y12.863 F400.000
G1 X-14.894 Y13.125 F400.000
G1 X-15.606 Y13.344 F400.000
G1 X-16.694 Y13.588 F400.000
G1 X-17.800 Y13.725 F400.000
G1 X-18.906 Y13.806 F400.000
G1 X-20.012 Y13.831 F400.000
G1 X-20.381 Y13.825 F400.000
G1 X-21.488 Y13.700 F400.000
G1 X-22.219 Y13.556 F400.000
G1 X-22.944 Y13.387 F400.000
G1 X-24.019 Y13.075 F400.000
G1 X-25.075 Y12.713 F400.000
G1 X-26.456 Y12.144 F400.000
G1 X-27.550 Y11.606 F400.000
G1 X-28.125 Y11.238 F400.000
G1 X-28.337 Y11.037 F400.000
G1 X-28.981 Y9.219 F400.000
G1 X-28.981 Y9.219 F400.000
G1 X-29.012 Y8.988 F400.000
G1 X-29.000 Y8.831 F400.000
G1 X-28.950 Y8.706 F400.000
G0 X-28.906 Y8.662
G0 X-28.788 Y8.619
G0 X-28.375 Y8.613
G0 X-12.025 Y8.856
G1 X-11.894 Y8.856 F400.000
G1 X-11.438 Y8.894 F400.000
G1 X-11.219 Y8.975 F400.000
G1 X-10.981 Y9.169 F400.000
G1 X-10.981 Y9.169 F400.000
G1 X-10.550 Y9.713 F400.000
G1 X-10.406 Y9.975 F400.000
G1 X-10.356 Y10.162 F400.000
G1 X-10.381 Y10.631 F400.000
G1 X-10.469 Y11.006 F400.000
G1 X-10.594 Y11.356 F400.000
G1 X-10.769 Y11.688 F400.000
G1 X-11.181 Y12.300 F400.000
G1 X-11.431 Y12.575 F400.000
G1 X-11.700 Y12.831 F400.000
G1 X-12.281 Y13.294 F400.000
G1 X-12.581 Y13.506 F400.000
G1 X-13.225 Y13.881 F400.000
G1 X-13.556 Y14.044 F400.000
G1 X-14.250 Y14.319 F400.000
G1 X-14.956 Y14.550 F400.000
G1 X-16.038 Y14.831 F400.000
G1 X-17.125 Y15.062 F400.000
G1 X-17.863 Y15.144 F400.000
G1 X-18.969 Y15.213 F400.000
G1 X-20.444 Y15.219 F400.000
G1 X-21.181 Y15.150 F400.000
G1 X-22.288 Y14.969 F400.000
G1 X-23.375 Y14.700 F400.000
G1 X-24.444 Y14.381 F400.000
G1 X-25.850 Y13.881 F400.000
G1 X-26.887 Y13.425 F400.000
G1 X-27.238 Y13.231 F400.000
G1 X-27.469 Y13.044 F400.000
G1 X-28.288 Y11.181 F400.000
G1 X-28.288 Y11.181 F400.000
G1 X-28.325 Y10.950 F400.000
G1 X-28.325 Y10.794 F400.000
G1 X-28.281 Y10.662 F400.000
G0 X-28.238 Y10.619
G0 X-28.119 Y10.575
G0 X-27.706 Y10.537
G0 X-11.356 Y9.744
G1 X-11.225 Y9.738 F400.000
G1 X-10.769 Y9.738 F400.000
G1 X-10.537 Y9.800 F400.000
G1 X-10.275 Y9.950 F400.000
G1 X-10.275 Y9.950 F400.000
G1 X-9.750 Y10.531 F400.000
G1 X-9.600 Y10.787 F400.000
G1 X-9.569 Y10.881 F400.000
G1 X-9.544 Y11.350 F400.000
G1 X-9.581 Y11.631 F400.000
G1 X-9.713 Y12.081 F400.000
G1 X-9.863 Y12.419 F400.000
G1 X-10.238 Y13.056 F400.000
G1 X-10.463 Y13.350 F400.000
G1 X-10.713 Y13.625 F400.000
G1 X-11.250 Y14.137 F400.000
G1 X-11.838 Y14.588 F400.000
G1 X-12.144 Y14.794 F400.000
G1 X-12.787 Y15.162 F400.000
G1 X-13.119 Y15.325 F400.000
G1 X-14.156 Y15.731 F400.000
G1 X-15.581 Y16.144 F400.000
G1 X-16.306 Y16.319 F400.000
G1 X-17.781 Y16.525 F400.000
G1 X-18.887 Y16.619 F400.000
G1 X-19.994 Y16.656 F400.000
G1 X-21.100 Y16.569 F400.000
G1 X-22.206 Y16.387 F400.000
G1 X-24.381 Y15.863 F400.000
G1 X-25.444 Y15.519 F400.000
G1 X-26.231 Y15.144 F400.000
G1 X-26.469 Y14.969 F400.000
G1 X-27.219 Y13.556 F400.000
G1 X-27.219 Y13.556 F400.000
G1 X-27.288 Y13.331 F400.000
G1 X-27.300 Y13.175 F400.000
G1 X-27.275 Y13.037 F400.000
G0 X-27.238 Y12.994
G0 X-27.125 Y12.931
G0 X-26.719 Y12.863
G0 X-10.613 Y10.562
G1 X-10.481 Y10.544 F400.000
G1 X-10.025 Y10.506 F400.000
G1 X-9.794 Y10.544 F400.000
G1 X-9.519 Y10.675 F400.000
G1 X-9.519 Y10.675 F400.000
G1 X-9.006 Y11.156 F400.000
G1 X-8.825 Y11.394 F400.000
G1 X-8.731 Y11.569 F400.000
G1 X-8.675 Y11.944 F400.000
G1 X-8.713 Y12.412 F400.000
G1 X-8.787 Y12.775 F400.000
G1 X-8.919 Y13.125 F400.000
G1 X-9.075 Y13.463 F400.000
G1 X-9.250 Y13.787 F400.000
G1 X-9.681 Y14.387 F400.000
G1 X-9.931 Y14.662 F400.000
G1 X-10.463 Y15.181 F400.000
G1 X-11.044 Y15.650 F400.000
G1 X-11.650 Y16.075 F400.000
G1 X-12.300 Y16.431 F400.000
G1 X-12.637 Y16.587 F400.000
G1 X-13.669 Y17.006 F400.000
G1 X-14.369 Y17.244 F400.000
G1 X-15.444 Y17.544 F400.000
G1 X-16.531 Y17.769 F400.000
G1 X-17.637 Y17.919 F400.000
G1 X-19.113 Y18.019 F400.000
G1 X-19.850 Y18.044 F400.000
G1 X-20.956 Y17.975 F400.000
G1 X-21.694 Y17.881 F400.000
G1 X-22.794 Y17.681 F400.000
G1 X-23.881 Y17.419 F400.000
G1 X-24.988 Y17.044 F400.000
G1 X-25.244 Y16.894 F400.000
G1 X-25.325 Y16.831 F400.000
G1 X-26.200 Y15.450 F400.000
G1 X-26.200 Y15.450 F400.000
G1 X-26.275 Y15.225 F400.000
G1 X-26.300 Y15.075 F400.000
G1 X-26.275 Y14.938 F400.000
G0 X-26.238 Y14.887
G0 X-26.131 Y14.825
G0 X-25.731 Y14.719
G0 X-9.800 Y11.281
G1 X-9.669 Y11.250 F400.000
G1 X-9.294 Y11.188 F400.000
G1 X-9.062 Y11.206 F400.000
G1 X-8.719 Y11.356 F400.000
G1 X-8.719 Y11.356 F400.000
G1 X-8.094 Y11.850 F400.000
G1 X-7.906 Y12.081 F400.000
G1 X-7.856 Y12.169 F400.000
G1 X-7.775 Y12.544 F400.000
G1 X-7.775 Y13.012 F400.000
G1 X-7.819 Y13.381 F400.000
G1 X-7.925 Y13.738 F400.000
G1 X-8.056 Y14.081 F400.000
G1 X-8.219 Y14.412 F400.000
G1 X-8.400 Y14.738 F400.000
G1 X-8.600 Y15.050 F400.000
G1 X-9.075 Y15.625 F400.000
G1 X-9.325 Y15.900 F400.000
G1 X-9.869 Y16.406 F400.000
G1 X-10.444 Y16.869 F400.000
G1 X-10.744 Y17.087 F400.000
G1 X-11.375 Y17.481 F400.000
G1 X-11.700 Y17.663 F400.000
G1 X-12.369 Y17.975 F400.000
G1 X-13.406 Y18.375 F400.000
G1 X-14.475 Y18.700 F400.000
G1 X-15.919 Y19.069 F400.000
G1 X-17.019 Y19.250 F400.000
G1 X-17.756 Y19.331 F400.000
G1 X-19.231 Y19.438 F400.000
G1 X-20.337 Y19.425 F400.000
G1 X-21.444 Y19.331 F400.000
G1 X-22.550 Y19.163 F400.000
G1 X-23.663 Y18.850 F400.000
G1 X-24.012 Y18.663 F400.000
G1 X-25.081 Y17.212 F400.000
G1 X-25.081 Y17.212 F400.000
G1 X-25.175 Y17.000 F400.000
G1 X-25.206 Y16.850 F400.000
G1 X-25.194 Y16.712 F400.000
G0 X-25.163 Y16.663
G0 X-25.056 Y16.587
G0 X-24.663 Y16.456
G0 X-8.938 Y11.956
G1 X-8.812 Y11.925 F400.000
G1 X-8.444 Y11.831 F400.000
G1 X-8.213 Y11.831 F400.000
G1 X-7.862 Y11.963 F400.000
G1 X-7.862 Y11.963 F400.000
G1 X-7.275 Y12.363 F400.000
G1 X-7.056 Y12.575 F400.000
G1 X-6.944 Y12.744 F400.000
G1 X-6.844 Y13.119 F400.000
G1 X-6.806 Y13.588 F400.000
G1 X-6.831 Y13.956 F400.000
G1 X-6.906 Y14.319 F400.000
G1 X-7.013 Y14.675 F400.000
G1 X-7.138 Y15.025 F400.000
G1 X-7.300 Y15.356 F400.000
G1 X-7.487 Y15.675 F400.000
G1 X-7.912 Y16.281 F400.000
G1 X-8.144 Y16.575 F400.000
G1 X-8.650 Y17.119 F400.000
G1 X-8.919 Y17.375 F400.000
G1 X-9.781 Y18.075 F400.000
G1 X-10.713 Y18.681 F400.000
G1 X-11.369 Y19.038 F400.000
G1 X-12.037 Y19.350 F400.000
G1 X-13.081 Y19.731 F400.000
G1 X-14.850 Y20.275 F400.000
G1 X-15.938 Y20.506 F400.000
G1 X-17.413 Y20.712 F400.000
G1 X-18.887 Y20.837 F400.000
G1 X-19.256 Y20.856 F400.000
G1 X-20.363 Y20.825 F400.000
G1 X-21.100 Y20.756 F400.000
G1 X-22.219 Y20.562 F400.000
G1 X-22.488 Y20.444 F400.000
G1 X-22.569 Y20.394 F400.000
G1 X-23.663 Y19.106 F400.000
G1 X-23.663 Y19.106 F400.000
G1 X-23.775 Y18.900 F400.000
G1 X-23.819 Y18.756 F400.000
G1 X-23.819 Y18.619 F400.000
G0 X-23.788 Y18.562
G0 X-23.694 Y18.481
G0 X-23.312 Y18.325
G0 X-8.044 Y12.606
G1 X-7.919 Y12.562 F400.000
G1 X-7.475 Y12.425 F400.000
G1 X-7.250 Y12.419 F400.000
G1 X-6.963 Y12.500 F400.000
G1 X-6.963 Y12.500 F400.000
G1 X-6.269 Y12.919 F400.000
G1 X-6.112 Y13.050 F400.000
G1 X-5.987 Y13.206 F400.000
G1 X-5.856 Y13.575 F400.000
G1 X-5.781 Y14.044 F400.000
G1 X-5.769 Y14.412 F400.000
G1 X-5.819 Y14.781 F400.000
G1 X-5.900 Y15.144 F400.000
G1 X-6.000 Y15.500 F400.000
G1 X-6.294 Y16.181 F400.000
G1 X-6.675 Y16.812 F400.000
G1 X-7.112 Y17.413 F400.000
G1 X-7.350 Y17.694 F400.000
G1 X-7.862 Y18.225 F400.000
G1 X-8.137 Y18.475 F400.000
G1 X-8.706 Y18.956 F400.000
G1 X-9.613 Y19.594 F400.000
G1 X-10.244 Y19.975 F400.000
G1 X-10.900 Y20.319 F400.000
G1 X-11.575 Y20.625 F400.000
G1 X-12.613 Y21.025 F400.000
G1 X-14.019 Y21.494 F400.000
G1 X-14.375 Y21.600 F400.000
G1 X-15.463 Y21.831 F400.000
G1 X-16.569 Y22.000 F400.000
G1 X-17.675 Y22.131 F400.000
G1 X-19.519 Y22.262 F400.000
G1 X-20.637 Y22.163 F400.000
G1 X-20.913 Y22.062 F400.000
G1 X-20.994 Y22.012 F400.000
G1 X-22.306 Y20.681 F400.000
G1 X-22.306 Y20.681 F400.000
G1 X-22.431 Y20.488 F400.000
G1 X-22.488 Y20.344 F400.000
G1 X-22.494 Y20.206 F400.000
G0 X-22.475 Y20.150
G0 X-22.381 Y20.062
G0 X-22.012 Y19.881
G0 X-7.094 Y13.169
G1 X-6.975 Y13.113 F400.000
G1 X-6.544 Y12.944 F400.000
G1 X-6.319 Y12.919 F400.000
G1 X-6.025 Y12.975 F400.000
G1 X-6.025 Y12.975 F400.000
G1 X-5.388 Y13.287 F400.000
G1 X-5.138 Y13.463 F400.000
G1 X-5.006 Y13.613 F400.000
G1 X-4.812 Y14.062 F400.000
G1 X-4.725 Y14.438 F400.000
G1 X-4.706 Y14.806 F400.000
G1 X-4.719 Y15.175 F400.000
G1 X-4.769 Y15.544 F400.000
G1 X-4.844 Y15.906 F400.000
G1 X-4.950 Y16.262 F400.000
G1 X-5.088 Y16.606 F400.000
G1 X-5.419 Y17.269 F400.000
G1 X-5.819 Y17.894 F400.000
G1 X-6.037 Y18.194 F400.000
G1 X-6.763 Y19.038 F400.000
G1 X-7.294 Y19.556 F400.000
G1 X-7.569 Y19.806 F400.000
G1 X-8.150 Y20.275 F400.000
G1 X-8.756 Y20.706 F400.000
G1 X-9.387 Y21.100 F400.000
G1 X-10.044 Y21.450 F400.000
G1 X-10.719 Y21.756 F400.000
G1 X-12.444 Y22.438 F400.000
G1 X-13.494 Y22.788 F400.000
G1 X-14.206 Y23.000 F400.000
G1 X-15.294 Y23.225 F400.000
G1 X-15.662 Y23.275 F400.000
G1 X-16.025 Y23.344 F400.000
G1 X-17.500 Y23.519 F400.000
G1 X-18.988 Y23.587 F400.000
G1 X-19.269 Y23.519 F400.000
G1 X-20.631 Y22.344 F400.000
G1 X-20.631 Y22.344 F400.000
G1 X-20.769 Y22.163 F400.000
G1 X-20.831 Y22.025 F400.000
G1 X-20.850 Y21.887 F400.000
G0 X-20.831 Y21.825
G0 X-20.750 Y21.731
G0 X-20.394 Y21.525
G0 X-6.106 Y13.650
G1 X-5.994 Y13.588 F400.000
G1 X-5.575 Y13.394 F400.000
G1 X-5.350 Y13.350 F400.000
G1 X-5.056 Y13.381 F400.000
G1 X-5.056 Y13.381 F400.000
G1 X-4.400 Y13.650 F400.000
G1 X-4.062 Y13.869 F400.000
G1 X-3.812 Y14.294 F400.000
G1 X-3.688 Y14.662 F400.000
G1 X-3.619 Y15.031 F400.000
G1 X-3.600 Y15.400 F400.000
G1 X-3.606 Y15.769 F400.000
G1 X-3.638 Y16.137 F400.000
G1 X-3.706 Y16.500 F400.000
G1 X-3.806 Y16.856 F400.000
G1 X-3.931 Y17.206 F400.000
G1 X-4.419 Y18.206 F400.000
G1 X-4.825 Y18.825 F400.000
G1 X-5.275 Y19.413 F400.000
G1 X-5.769 Y19.969 F400.000
G1 X-6.025 Y20.238 F400.000
G1 X-6.569 Y20.744 F400.000
G1 X-7.131 Y21.225 F400.000
G1 X-8.019 Y21.900 F400.000
G1 X-8.656 Y22.288 F400.000
G1 X-8.981 Y22.469 F400.000
G1 X-9.981 Y22.950 F400.000
G1 X-10.669 Y23.231 F400.000
G1 X-11.006 Y23.387 F400.000
G1 X-12.387 Y23.931 F400.000
G1 X-13.450 Y24.269 F400.000
G1 X-14.531 Y24.538 F400.000
G1 X-15.625 Y24.744 F400.000
G1 X-17.206 Y24.887 F400.000
G1 X-17.488 Y24.844 F400.000
G1 X-17.581 Y24.812 F400.000
G1 X-19.031 Y23.725 F400.000
G1 X-19.031 Y23.725 F400.000
G1 X-19.188 Y23.550 F400.000
G1 X-19.262 Y23.419 F400.000
G1 X-19.294 Y23.281 F400.000
G0 X-19.281 Y23.225
G0 X-19.200 Y23.125
G0 X-18.863 Y22.887
G0 X-5.094 Y14.069
G1 X-4.987 Y14.000 F400.000
G1 X-4.581 Y13.769 F400.000
G1 X-4.356 Y13.713 F400.000
G1 X-4.062 Y13.719 F400.000
G1 X-4.062 Y13.719 F400.000
G1 X-3.375 Y13.938 F400.000
G1 X-3.100 Y14.069 F400.000
G1 X-2.944 Y14.194 F400.000
G1 X-2.694 Y14.619 F400.000
G1 X-2.594 Y14.900 F400.000
G1 X-2.506 Y15.262 F400.000
G1 X-2.450 Y15.631 F400.000
G1 X-2.431 Y16.000 F400.000
G1 X-2.431 Y16.369 F400.000
G1 X-2.481 Y16.738 F400.000
G1 X-2.556 Y17.100 F400.000
G1 X-2.769 Y17.812 F400.000
G1 X-3.069 Y18.488 F400.000
G1 X-3.237 Y18.819 F400.000
G1 X-3.631 Y19.450 F400.000
G1 X-4.062 Y20.050 F400.000
G1 X-4.544 Y20.619 F400.000
G1 X-5.037 Y21.169 F400.000
G1 X-5.819 Y21.950 F400.000
G1 X-6.094 Y22.200 F400.000
G1 X-6.681 Y22.650 F400.000
G1 X-7.294 Y23.062 F400.000
G1 X-7.925 Y23.450 F400.000
G1 X-8.906 Y23.969 F400.000
G1 X-10.925 Y24.894 F400.000
G1 X-12.312 Y25.400 F400.000
G1 X-13.381 Y25.719 F400.000
G1 X-14.463 Y25.981 F400.000
G1 X-15.400 Y26.087 F400.000
G1 X-15.681 Y26.050 F400.000
G1 X-15.775 Y26.012 F400.000
G1 X-16.944 Y25.262 F400.000
G1 X-16.944 Y25.262 F400.000
G1 X-17.106 Y25.100 F400.000
G1 X-17.194 Y24.969 F400.000
G1 X-17.231 Y24.837 F400.000
G0 X-17.219 Y24.781
G0 X-17.150 Y24.675
G0 X-16.831 Y24.406
G0 X-4.044 Y14.412
G1 X-3.938 Y14.331 F400.000
G1 X-3.562 Y14.069 F400.000
G1 X-3.344 Y13.994 F400.000
G1 X-3.050 Y13.981 F400.000
G1 X-3.050 Y13.981 F400.000
G1 X-2.350 Y14.137 F400.000
G1 X-2.069 Y14.256 F400.000
G1 X-1.900 Y14.369 F400.000
G1 X-1.663 Y14.688 F400.000
G1 X-1.481 Y15.037 F400.000
G1 X-1.344 Y15.488 F400.000
G1 X-1.275 Y15.856 F400.000
G1 X-1.244 Y16.225 F400.000
G1 X-1.231 Y16.594 F400.000
G1 X-1.256 Y16.962 F400.000
G1 X-1.312 Y17.331 F400.000
G1 X-1.481 Y18.056 F400.000
G1 X-1.606 Y18.406 F400.000
G1 X-1.887 Y19.094 F400.000
G1 X-2.044 Y19.431 F400.000
G1 X-2.394 Y20.081 F400.000
G1 X-2.812 Y20.688 F400.000
G1 X-3.263 Y21.275 F400.000
G1 X-4.256 Y22.375 F400.000
G1 X-4.775 Y22.900 F400.000
G1 X-5.325 Y23.394 F400.000
G1 X-5.919 Y23.837 F400.000
G1 X-6.531 Y24.250 F400.000
G1 X-7.825 Y24.975 F400.000
G1 X-8.819 Y25.481 F400.000
G1 X-10.169 Y26.100 F400.000
G1 X-11.544 Y26.656 F400.000
G1 X-13.363 Y27.125 F400.000
G1 X-13.644 Y27.131 F400.000
G1 X-13.738 Y27.119 F400.000
G1 X-15.319 Y26.275 F400.000
G1 X-15.319 Y26.275 F400.000
G1 X-15.494 Y26.125 F400.000
G1 X-15.588 Y26.006 F400.000
G1 X-15.637 Y25.881 F400.000
G0 X-15.631 Y25.819
G0 X-15.562 Y25.706
G0 X-15.262 Y25.425
G0 X-2.981 Y14.656
G1 X-2.881 Y14.569 F400.000
G1 X-2.519 Y14.287 F400.000
G1 X-2.306 Y14.200 F400.000
G1 X-2.013 Y14.169 F400.000
G1 X-2.013 Y14.169 F400.000
G1 X-1.312 Y14.287 F400.000
G1 X-1.025 Y14.400 F400.000
G1 X-0.938 Y14.450 F400.000
G1 X-0.863 Y14.519 F400.000
G1 X-0.625 Y14.838 F400.000
G1 X-0.438 Y15.188 F400.000
G1 X-0.294 Y15.531 F400.000
G1 X-0.188 Y15.887 F400.000
G1 X-0.119 Y16.256 F400.000
G1 X-0.087 Y16.625 F400.000
G1 X-0.087 Y17.363 F400.000
G1 X-0.138 Y17.731 F400.000
G1 X-0.287 Y18.456 F400.000
G1 X-0.381 Y18.812 F400.000
G1 X-0.625 Y19.512 F400.000
G1 X-0.769 Y19.856 F400.000
G1 X-1.106 Y20.512 F400.000
G1 X-1.488 Y21.150 F400.000
G1 X-2.125 Y22.056 F400.000
G1 X-2.837 Y22.900 F400.000
G1 X-3.612 Y23.700 F400.000
G1 X-4.419 Y24.462 F400.000
G1 X-5.000 Y24.925 F400.000
G1 X-5.606 Y25.350 F400.000
G1 X-6.237 Y25.744 F400.000
G1 X-7.213 Y26.281 F400.000
G1 X-9.894 Y27.556 F400.000
G1 X-11.431 Y28.044 F400.000
G1 X-11.713 Y28.056 F400.000
G1 X-13.331 Y27.344 F400.000
G1 X-13.331 Y27.344 F400.000
G1 X-13.519 Y27.200 F400.000
G1 X-13.619 Y27.087 F400.000
G1 X-13.675 Y26.962 F400.000
G0 X-13.675 Y26.900
G0 X-13.625 Y26.788
G0 X-13.350 Y26.481
G0 X-2.044 Y14.812
G1 X-1.950 Y14.719 F400.000
G1 X-1.650 Y14.438 F400.000
G1 X-1.419 Y14.312 F400.000
G1 X-1.119 Y14.262 F400.000
G1 X-1.119 Y14.262 F400.000
G1 X-0.319 Y14.350 F400.000
G1 X-0.125 Y14.406 F400.000
G1 X0.050 Y14.500 F400.000
G1 X0.263 Y14.681 F400.000
G1 X0.600 Y15.156 F400.000
G1 X0.781 Y15.481 F400.000
G1 X0.912 Y15.831 F400.000
G1 X1.012 Y16.188 F400.000
G1 X1.094 Y16.550 F400.000
G1 X1.131 Y16.919 F400.000
G1 X1.137 Y17.288 F400.000
G1 X1.094 Y18.025 F400.000
G1 X0.963 Y18.762 F400.000
G1 X0.869 Y19.125 F400.000
G1 X0.506 Y20.181 F400.000
G1 X0.188 Y20.856 F400.000
G1 X-0.169 Y21.512 F400.000
G1 X-0.550 Y22.150 F400.000
G1 X-1.188 Y23.062 F400.000
G1 X-1.881 Y23.925 F400.000
G1 X-2.388 Y24.469 F400.000
G1 X-2.919 Y24.988 F400.000
G1 X-3.475 Y25.481 F400.000
G1 X-4.056 Y25.950 F400.000
G1 X-4.963 Y26.587 F400.000
G1 X-5.594 Y26.975 F400.000
G1 X-6.575 Y27.500 F400.000
G1 X-6.894 Y27.688 F400.000
G1 X-8.213 Y28.369 F400.000
G1 X-9.363 Y28.819 F400.000
G1 X-9.644 Y28.844 F400.000
G1 X-11.331 Y28.225 F400.000
G1 X-11.331 Y28.225 F400.000
G1 X-11.575 Y28.044 F400.000
G1 X-11.669 Y27.925 F400.000
G1 X-11.694 Y27.863 F400.000
G0 X-11.694 Y27.800
G0 X-11.650 Y27.681
G0 X-11.400 Y27.363
G0 X-0.956 Y14.919
G1 X-0.875 Y14.819 F400.000
G1 X-0.619 Y14.544 F400.000
G1 X-0.431 Y14.406 F400.000
G1 X-0.219 Y14.331 F400.000
G1 X-0.075 Y14.312 F400.000
G1 X-0.075 Y14.312 F400.000
G1 X0.769 Y14.350 F400.000
G1 X1.044 Y14.425 F400.000
G1 X1.131 Y14.469 F400.000
G1 X1.475 Y14.794 F400.000
G1 X1.706 Y15.100 F400.000
G1 X1.906 Y15.412 F400.000
G1 X2.056 Y15.750 F400.000
G1 X2.181 Y16.100 F400.000
G1 X2.269 Y16.462 F400.000
G1 X2.362 Y17.200 F400.000
G1 X2.381 Y17.569 F400.000
G1 X2.369 Y17.938 F400.000
G1 X2.337 Y18.306 F400.000
G1 X2.219 Y19.044 F400.000
G1 X2.131 Y19.406 F400.000
G1 X1.794 Y20.475 F400.000
G1 X1.506 Y21.163 F400.000
G1 X1.181 Y21.831 F400.000
G1 X0.812 Y22.481 F400.000
G1 X0.000 Y23.738 F400.000
G1 X-0.212 Y24.044 F400.000
G1 X-0.675 Y24.619 F400.000
G1 X-0.919 Y24.900 F400.000
G1 X-1.438 Y25.431 F400.000
G1 X-1.688 Y25.706 F400.000
G1 X-2.225 Y26.219 F400.000
G1 X-3.069 Y26.944 F400.000
G1 X-3.962 Y27.600 F400.000
G1 X-4.581 Y28.006 F400.000
G1 X-5.544 Y28.569 F400.000
G1 X-7.213 Y29.419 F400.000
G1 X-7.400 Y29.462 F400.000
G1 X-7.494 Y29.469 F400.000
G1 X-8.994 Y29.050 F400.000
G1 X-8.994 Y29.050 F400.000
G1 X-9.194 Y28.944 F400.000
G1 X-9.312 Y28.850 F400.000
G1 X-9.387 Y28.731 F400.000
G0 X-9.394 Y28.675
G0 X-9.363 Y28.550
G0 X-9.137 Y28.206
G0 X0.106 Y14.994
G1 X0.175 Y14.894 F400.000
G1 X0.425 Y14.569 F400.000
G1 X0.606 Y14.419 F400.000
G1 X0.969 Y14.281 F400.000
G1 X0.969 Y14.281 F400.000
G1 X1.719 Y14.250 F400.000
G1 X2.000 Y14.287 F400.000
G1 X2.181 Y14.356 F400.000
G1 X2.612 Y14.725 F400.000
G1 X2.962 Y15.169 F400.000
G1 X3.138 Y15.494 F400.000
G1 X3.413 Y16.188 F400.000
G1 X3.500 Y16.550 F400.000
G1 X3.600 Y17.288 F400.000
G1 X3.625 Y17.656 F400.000
G1 X3.600 Y18.394 F400.000
G1 X3.562 Y18.762 F400.000
G1 X3.444 Y19.500 F400.000
G1 X3.256 Y20.219 F400.000
G1 X3.031 Y20.931 F400.000
G1 X2.619 Y21.969 F400.000
G1 X2.294 Y22.644 F400.000
G1 X1.931 Y23.300 F400.000
G1 X1.538 Y23.931 F400.000
G1 X0.881 Y24.844 F400.000
G1 X-0.569 Y26.544 F400.000
G1 X-0.819 Y26.812 F400.000
G1 X-1.631 Y27.562 F400.000
G1 X-2.500 Y28.256 F400.000
G1 X-3.400 Y28.913 F400.000
G1 X-4.331 Y29.525 F400.000
G1 X-5.025 Y29.875 F400.000
G1 X-5.306 Y29.944 F400.000
G1 X-7.088 Y29.581 F400.000
G1 X-7.088 Y29.581 F400.000
G1 X-7.294 Y29.488 F400.000
G1 X-7.412 Y29.394 F400.000
G1 X-7.494 Y29.281 F400.000
G0 X-7.506 Y29.225
G0 X-7.475 Y29.100
G0 X-7.275 Y28.744
G0 X1.181 Y14.919
G1 X1.250 Y14.819 F400.000
G1 X1.481 Y14.475 F400.000
G1 X1.650 Y14.319 F400.000
G1 X2.013 Y14.175 F400.000
G1 X2.013 Y14.175 F400.000
G1 X2.763 Y14.088 F400.000
G1 X2.950 Y14.094 F400.000
G1 X3.138 Y14.137 F400.000
G1 X3.462 Y14.344 F400.000
G1 X3.812 Y14.669 F400.000
G1 X4.056 Y14.944 F400.000
G1 X4.250 Y15.256 F400.000
G1 X4.562 Y15.925 F400.000
G1 X4.681 Y16.275 F400.000
G1 X4.763 Y16.637 F400.000
G1 X4.869 Y17.375 F400.000
G1 X4.906 Y17.744 F400.000
G1 X4.906 Y18.481 F400.000
G1 X4.888 Y18.850 F400.000
G1 X4.787 Y19.587 F400.000
G1 X4.713 Y19.950 F400.000
G1 X4.525 Y20.675 F400.000
G1 X4.281 Y21.381 F400.000
G1 X4.013 Y22.081 F400.000
G1 X3.394 Y23.444 F400.000
G1 X3.050 Y24.106 F400.000
G1 X2.650 Y24.744 F400.000
G1 X2.212 Y25.350 F400.000
G1 X1.038 Y26.806 F400.000
G1 X0.294 Y27.644 F400.000
G1 X0.037 Y27.913 F400.000
G1 X-1.075 Y28.900 F400.000
G1 X-2.737 Y30.137 F400.000
G1 X-3.006 Y30.231 F400.000
G1 X-3.100 Y30.250 F400.000
G1 X-4.600 Y30.069 F400.000
G1 X-4.600 Y30.069 F400.000
G1 X-4.812 Y29.994 F400.000
G1 X-4.938 Y29.913 F400.000
G1 X-5.031 Y29.812 F400.000
G0 X-5.050 Y29.756
G0 X-5.031 Y29.625
G0 X-4.862 Y29.256
G0 X2.300 Y14.794
G1 X2.356 Y14.681 F400.000
G1 X2.544 Y14.350 F400.000
G1 X2.700 Y14.169 F400.000
G1 X3.044 Y13.981 F400.000
G1 X3.044 Y13.981 F400.000
G1 X3.794 Y13.831 F400.000
G1 X3.981 Y13.825 F400.000
G1 X4.169 Y13.856 F400.000
G1 X4.256 Y13.894 F400.000
G1 X4.725 Y14.231 F400.000
G1 X5.112 Y14.644 F400.000
G1 X5.338 Y14.938 F400.000
G1 X5.525 Y15.256 F400.000
G1 X5.688 Y15.588 F400.000
G1 X5.825 Y15.931 F400.000
G1 X5.944 Y16.281 F400.000
G1 X6.106 Y17.006 F400.000
G1 X6.156 Y17.375 F400.000
G1 X6.213 Y18.481 F400.000
G1 X6.144 Y19.587 F400.000
G1 X6.094 Y19.956 F400.000
G1 X5.925 Y20.681 F400.000
G1 X5.706 Y21.394 F400.000
G1 X5.444 Y22.094 F400.000
G1 X5.325 Y22.450 F400.000
G1 X4.750 Y23.825 F400.000
G1 X4.594 Y24.163 F400.000
G1 X4.231 Y24.812 F400.000
G1 X3.831 Y25.444 F400.000
G1 X3.394 Y26.050 F400.000
G1 X3.156 Y26.344 F400.000
G1 X2.481 Y27.238 F400.000
G1 X1.762 Y28.106 F400.000
G1 X1.512 Y28.387 F400.000
G1 X0.975 Y28.913 F400.000
G1 X0.419 Y29.419 F400.000
G1 X0.131 Y29.663 F400.000
G1 X-0.731 Y30.281 F400.000
G1 X-0.994 Y30.387 F400.000
G1 X-2.212 Y30.337 F400.000
G1 X-2.212 Y30.337 F400.000
G1 X-2.425 Y30.275 F400.000
G1 X-2.562 Y30.206 F400.000
G1 X-2.663 Y30.113 F400.000
G0 X-2.688 Y30.056
G0 X-2.681 Y29.925
G0 X-2.544 Y29.544
G0 X3.375 Y14.569
G1 X3.419 Y14.450 F400.000
G1 X3.581 Y14.106 F400.000
G1 X3.731 Y13.919 F400.000
G1 X3.919 Y13.787 F400.000
G1 X4.062 Y13.725 F400.000
G1 X4.062 Y13.725 F400.000
G1 X4.719 Y13.556 F400.000
G1 X5.000 Y13.531 F400.000
G1 X5.188 Y13.556 F400.000
G1 X5.688 Y13.850 F400.000
G1 X5.838 Y13.963 F400.000
G1 X6.112 Y14.213 F400.000
G1 X6.356 Y14.494 F400.000
G1 X6.575 Y14.794 F400.000
G1 X6.775 Y15.106 F400.000
G1 X6.938 Y15.438 F400.000
G1 X7.194 Y16.131 F400.000
G1 X7.294 Y16.488 F400.000
G1 X7.475 Y17.587 F400.000
G1 X7.513 Y18.325 F400.000
G1 X7.513 Y19.062 F400.000
G1 X7.469 Y19.800 F400.000
G1 X7.338 Y20.538 F400.000
G1 X7.256 Y20.900 F400.000
G1 X7.050 Y21.619 F400.000
G1 X6.694 Y22.675 F400.000
G1 X6.281 Y23.719 F400.000
G1 X5.812 Y24.738 F400.000
G1 X5.287 Y25.725 F400.000
G1 X4.875 Y26.350 F400.000
G1 X4.438 Y26.962 F400.000
G1 X3.969 Y27.550 F400.000
G1 X3.750 Y27.850 F400.000
G1 X2.806 Y29.019 F400.000
G1 X2.288 Y29.562 F400.000
G1 X1.325 Y30.288 F400.000
G1 X1.137 Y30.375 F400.000
G1 X1.038 Y30.400 F400.000
G1 X-0.244 Y30.413 F400.000
G1 X-0.244 Y30.413 F400.000
G1 X-0.463 Y30.369 F400.000
G1 X-0.600 Y30.306 F400.000
G1 X-0.706 Y30.219 F400.000
G0 X-0.731 Y30.163
G0 X-0.731 Y30.038
G0 X-0.619 Y29.644
G0 X4.287 Y14.350
G1 X4.325 Y14.231 F400.000
G1 X4.469 Y13.844 F400.000
G1 X4.600 Y13.662 F400.000
G1 X4.919 Y13.444 F400.000
G1 X4.919 Y13.444 F400.000
G1 X5.750 Y13.162 F400.000
G1 X6.031 Y13.125 F400.000
G1 X6.125 Y13.137 F400.000
G1 X6.556 Y13.325 F400.000
G1 X6.875 Y13.537 F400.000
G1 X7.162 Y13.775 F400.000
G1 X7.419 Y14.044 F400.000
G1 X7.656 Y14.331 F400.000
G1 X7.862 Y14.637 F400.000
G1 X8.044 Y14.956 F400.000
G1 X8.344 Y15.637 F400.000
G1 X8.562 Y16.344 F400.000
G1 X8.644 Y16.706 F400.000
G1 X8.762 Y17.444 F400.000
G1 X8.838 Y18.181 F400.000
G1 X8.863 Y19.288 F400.000
G1 X8.850 Y19.656 F400.000
G1 X8.762 Y20.394 F400.000
G1 X8.694 Y20.762 F400.000
G1 X8.512 Y21.488 F400.000
G1 X8.300 Y22.200 F400.000
G1 X7.694 Y23.962 F400.000
G1 X7.244 Y24.988 F400.000
G1 X6.906 Y25.650 F400.000
G1 X6.344 Y26.619 F400.000
G1 X5.706 Y27.544 F400.000
G1 X4.338 Y29.325 F400.000
G1 X3.531 Y30.081 F400.000
G1 X3.269 Y30.231 F400.000
G1 X1.969 Y30.356 F400.000
G1 X1.769 Y30.363 F400.000
G1 X1.769 Y30.363 F400.000
G1 X1.531 Y30.337 F400.000
G1 X1.381 Y30.288 F400.000
G1 X1.269 Y30.212 F400.000
G0 X1.238 Y30.156
G0 X1.225 Y30.031
G0 X1.312 Y29.631
G0 X5.331 Y13.994
G1 X5.369 Y13.869 F400.000
G1 X5.475 Y13.500 F400.000
G1 X5.594 Y13.294 F400.000
G1 X5.756 Y13.131 F400.000
G1 X5.888 Y13.044 F400.000
G1 X5.888 Y13.044 F400.000
G1 X6.606 Y12.731 F400.000
G1 X6.888 Y12.656 F400.000
G1 X7.075 Y12.644 F400.000
G1 X7.169 Y12.662 F400.000
G1 X7.256 Y12.700 F400.000
G1 X7.338 Y12.756 F400.000
G1 X7.600 Y12.863 F400.000
G1 X8.062 Y13.175 F400.000
G1 X8.344 Y13.419 F400.000
G1 X8.600 Y13.688 F400.000
G1 X8.838 Y13.969 F400.000
G1 X9.050 Y14.275 F400.000
G1 X9.238 Y14.594 F400.000
G1 X9.556 Y15.262 F400.000
G1 X9.794 Y15.963 F400.000
G1 X9.981 Y16.681 F400.000
G1 X10.175 Y17.781 F400.000
G1 X10.238 Y18.519 F400.000
G1 X10.250 Y19.256 F400.000
G1 X10.213 Y19.994 F400.000
G1 X10.094 Y20.731 F400.000
G1 X9.938 Y21.456 F400.000
G1 X9.519 Y22.887 F400.000
G1 X9.037 Y24.306 F400.000
G1 X8.906 Y24.656 F400.000
G1 X8.606 Y25.344 F400.000
G1 X8.094 Y26.344 F400.000
G1 X7.319 Y27.619 F400.000
G1 X6.250 Y29.150 F400.000
G1 X5.600 Y29.781 F400.000
G1 X5.344 Y29.944 F400.000
G1 X3.544 Y30.206 F400.000
G1 X3.544 Y30.206 F400.000
G1 X3.306 Y30.188 F400.000
G1 X3.156 Y30.150 F400.000
G1 X3.038 Y30.075 F400.000
G0 X3.006 Y30.025
G0 X2.987 Y29.900
G0 X3.056 Y29.494
G0 X6.338 Y13.569
G1 X6.362 Y13.438 F400.000
G1 X6.487 Y12.994 F400.000
G1 X6.606 Y12.787 F400.000
G1 X6.831 Y12.581 F400.000
G1 X6.831 Y12.581 F400.000
G1 X7.431 Y12.256 F400.000
G1 X7.806 Y12.137 F400.000
G1 X7.994 Y12.125 F400.000
G1 X8.450 Y12.269 F400.000
G1 X8.713 Y12.400 F400.000
G1 X9.331 Y12.806 F400.000
G1 X9.600 Y13.062 F400.000
G1 X9.850 Y13.338 F400.000
G1 X10.088 Y13.625 F400.000
G1 X10.300 Y13.925 F400.000
G1 X10.481 Y14.250 F400.000
G1 X10.950 Y15.256 F400.000
G1 X11.181 Y15.963 F400.000
G1 X11.281 Y16.319 F400.000
G1 X11.431 Y17.044 F400.000
G1 X11.569 Y18.150 F400.000
G1 X11.619 Y19.256 F400.000
G1 X11.531 Y20.363 F400.000
G1 X11.406 Y21.100 F400.000
G1 X11.250 Y21.825 F400.000
G1 X10.844 Y23.262 F400.000
G1 X10.387 Y24.688 F400.000
G1 X9.969 Y25.725 F400.000
G1 X9.656 Y26.400 F400.000
G1 X9.131 Y27.387 F400.000
G1 X8.550 Y28.344 F400.000
G1 X8.344 Y28.656 F400.000
G1 X7.831 Y29.256 F400.000
G1 X7.588 Y29.438 F400.000
G1 X5.794 Y29.856 F400.000
G1 X5.794 Y29.856 F400.000
G1 X5.556 Y29.863 F400.000
G1 X5.400 Y29.837 F400.000
G1 X5.281 Y29.775 F400.000
G0 X5.244 Y29.725
G0 X5.213 Y29.600
G0 X5.250 Y29.194
G0 X7.312 Y13.062
G1 X7.331 Y12.931 F400.000
G1 X7.419 Y12.481 F400.000
G1 X7.525 Y12.269 F400.000
G1 X7.731 Y12.044 F400.000
G1 X7.731 Y12.044 F400.000
G1 X8.225 Y11.725 F400.000
G1 X8.488 Y11.600 F400.000
G1 X8.675 Y11.544 F400.000
G1 X8.769 Y11.531 F400.000
G1 X8.956 Y11.556 F400.000
G1 X9.506 Y11.719 F400.000
G1 X9.925 Y11.919 F400.000
G1 X10.238 Y12.119 F400.000
G1 X10.531 Y12.344 F400.000
G1 X10.800 Y12.594 F400.000
G1 X11.050 Y12.869 F400.000
G1 X11.494 Y13.463 F400.000
G1 X11.869 Y14.100 F400.000
G1 X12.031 Y14.431 F400.000
G1 X12.306 Y15.119 F400.000
G1 X12.531 Y15.831 F400.000
G1 X12.694 Y16.556 F400.000
G1 X12.831 Y17.288 F400.000
G1 X12.925 Y18.025 F400.000
G1 X12.969 Y18.762 F400.000
G1 X12.969 Y19.500 F400.000
G1 X12.919 Y20.238 F400.000
G1 X12.819 Y20.975 F400.000
G1 X12.594 Y22.069 F400.000
G1 X11.887 Y24.581 F400.000
G1 X11.775 Y24.938 F400.000
G1 X11.381 Y25.981 F400.000
G1 X11.081 Y26.669 F400.000
G1 X10.575 Y27.669 F400.000
G1 X9.887 Y28.644 F400.000
G1 X9.656 Y28.837 F400.000
G1 X7.881 Y29.375 F400.000
G1 X7.881 Y29.375 F400.000
G1 X7.644 Y29.394 F400.000
G1 X7.487 Y29.381 F400.000
G1 X7.362 Y29.325 F400.000
G0 X7.319 Y29.281
G0 X7.287 Y29.163
G0 X7.294 Y28.750
G0 X8.238 Y12.475
G1 X8.244 Y12.344 F400.000
G1 X8.287 Y11.969 F400.000
G1 X8.363 Y11.744 F400.000
G1 X8.588 Y11.438 F400.000
G1 X8.588 Y11.438 F400.000
G1 X9.069 Y11.088 F400.000
G1 X9.419 Y10.906 F400.000
G1 X9.606 Y10.856 F400.000
G1 X10.169 Y10.931 F400.000
G1 X10.450 Y11.012 F400.000
G1 X10.794 Y11.156 F400.000
G1 X11.113 Y11.344 F400.000
G1 X11.412 Y11.556 F400.000
G1 X11.700 Y11.787 F400.000
G1 X11.963 Y12.050 F400.000
G1 X12.450 Y12.613 F400.000
G1 X12.863 Y13.225 F400.000
G1 X13.050 Y13.544 F400.000
G1 X13.363 Y14.213 F400.000
G1 X13.631 Y14.900 F400.000
G1 X13.938 Y15.969 F400.000
G1 X14.081 Y16.694 F400.000
G1 X14.256 Y17.794 F400.000
G1 X14.300 Y18.163 F400.000
G1 X14.344 Y19.269 F400.000
G1 X14.312 Y20.006 F400.000
G1 X14.281 Y20.375 F400.000
G1 X14.175 Y21.113 F400.000
G1 X13.725 Y23.300 F400.000
G1 X13.431 Y24.381 F400.000
G1 X13.088 Y25.450 F400.000
G1 X12.694 Y26.500 F400.000
G1 X12.550 Y26.844 F400.000
G1 X11.919 Y27.844 F400.000
G1 X11.719 Y28.056 F400.000
G1 X11.637 Y28.113 F400.000
G1 X9.925 Y28.750 F400.000
G1 X9.925 Y28.750 F400.000
G1 X9.694 Y28.788 F400.000
G1 X9.537 Y28.788 F400.000
G1 X9.412 Y28.744 F400.000
G0 X9.369 Y28.700
G0 X9.325 Y28.581
G0 X9.306 Y28.169
G0 X9.119 Y11.831
G1 X9.119 Y11.700 F400.000
G1 X9.144 Y11.244 F400.000
G1 X9.219 Y11.025 F400.000
G1 X9.406 Y10.781 F400.000
G1 X9.406 Y10.781 F400.000
G1 X9.856 Y10.387 F400.000
G1 X10.100 Y10.219 F400.000
G1 X10.369 Y10.106 F400.000
G1 X10.556 Y10.100 F400.000
G1 X10.650 Y10.119 F400.000
G1 X10.931 Y10.137 F400.000
G1 X11.213 Y10.200 F400.000
G1 X11.556 Y10.331 F400.000
G1 X12.213 Y10.669 F400.000
G1 X12.800 Y11.119 F400.000
G1 X13.069 Y11.369 F400.000
G1 X13.556 Y11.925 F400.000
G1 X13.769 Y12.225 F400.000
G1 X14.156 Y12.850 F400.000
G1 X14.338 Y13.175 F400.000
G1 X14.656 Y13.844 F400.000
G1 X14.931 Y14.537 F400.000
G1 X15.156 Y15.244 F400.000
G1 X15.425 Y16.331 F400.000
G1 X15.619 Y17.431 F400.000
G1 X15.713 Y18.169 F400.000
G1 X15.738 Y19.275 F400.000
G1 X15.688 Y20.012 F400.000
G1 X15.606 Y20.750 F400.000
G1 X15.419 Y21.856 F400.000
G1 X15.369 Y22.225 F400.000
G1 X15.231 Y22.962 F400.000
G1 X14.981 Y24.050 F400.000
G1 X14.662 Y25.119 F400.000
G1 X14.213 Y26.350 F400.000
G1 X13.931 Y26.875 F400.000
G1 X13.744 Y27.106 F400.000
G1 X13.662 Y27.169 F400.000
G1 X11.894 Y28.000 F400.000
G1 X11.894 Y28.000 F400.000
G1 X11.669 Y28.056 F400.000
G1 X11.512 Y28.069 F400.000
G1 X11.381 Y28.031 F400.000
G0 X11.331 Y27.994
G0 X11.281 Y27.881
G0 X11.238 Y27.469
G0 X9.969 Y11.137
G1 X9.963 Y11.006 F400.000
G1 X9.956 Y10.550 F400.000
G1 X10.012 Y10.325 F400.000
G1 X10.169 Y10.062 F400.000
G1 X10.169 Y10.062 F400.000
G1 X10.669 Y9.575 F400.000
G1 X10.912 Y9.406 F400.000
G1 X11.094 Y9.331 F400.000
G1 X11.750 Y9.325 F400.000
G1 X11.938 Y9.363 F400.000
G1 X12.294 Y9.463 F400.000
G1 X12.644 Y9.581 F400.000
G1 X13.300 Y9.931 F400.000
G1 X13.606 Y10.137 F400.000
G1 X13.894 Y10.375 F400.000
G1 X14.162 Y10.625 F400.000
G1 X14.412 Y10.900 F400.000
G1 X14.869 Y11.481 F400.000
G1 X15.275 Y12.100 F400.000
G1 X15.463 Y12.419 F400.000
G1 X15.800 Y13.081 F400.000
G1 X16.087 Y13.762 F400.000
G1 X16.450 Y14.819 F400.000
G1 X16.738 Y15.887 F400.000
G1 X16.962 Y16.975 F400.000
G1 X17.050 Y17.712 F400.000
G1 X17.087 Y18.450 F400.000
G1 X17.075 Y19.556 F400.000
G1 X17.006 Y20.663 F400.000
G1 X16.837 Y22.137 F400.000
G1 X16.675 Y22.863 F400.000
G1 X16.606 Y23.231 F400.000
G1 X16.325 Y24.319 F400.000
G1 X15.825 Y25.781 F400.000
G1 X15.725 Y25.950 F400.000
G1 X15.600 Y26.100 F400.000
G1 X13.925 Y27.031 F400.000
G1 X13.925 Y27.031 F400.000
G1 X13.700 Y27.100 F400.000
G1 X13.544 Y27.113 F400.000
G1 X13.406 Y27.087 F400.000
G0 X13.363 Y27.050
G0 X13.300 Y26.938
G0 X13.225 Y26.531
G0 X10.769 Y10.381
G1 X10.750 Y10.250 F400.000
G1 X10.713 Y9.794 F400.000
G1 X10.750 Y9.562 F400.000
G1 X10.881 Y9.287 F400.000
G1 X10.881 Y9.287 F400.000
G1 X11.281 Y8.831 F400.000
G1 X11.506 Y8.631 F400.000
G1 X11.756 Y8.481 F400.000
G1 X12.131 Y8.419 F400.000
G1 X12.600 Y8.438 F400.000
G1 X12.963 Y8.512 F400.000
G1 X13.319 Y8.619 F400.000
G1 X13.662 Y8.762 F400.000
G1 X13.994 Y8.925 F400.000
G1 X14.306 Y9.119 F400.000
G1 X14.894 Y9.569 F400.000
G1 X15.162 Y9.825 F400.000
G1 X15.669 Y10.369 F400.000
G1 X16.325 Y11.269 F400.000
G1 X16.869 Y12.238 F400.000
G1 X17.344 Y13.244 F400.000
G1 X17.619 Y13.931 F400.000
G1 X17.975 Y14.988 F400.000
G1 X18.275 Y16.438 F400.000
G1 X18.425 Y17.544 F400.000
G1 X18.500 Y18.650 F400.000
G1 X18.500 Y19.756 F400.000
G1 X18.431 Y20.863 F400.000
G1 X18.350 Y21.600 F400.000
G1 X18.163 Y22.706 F400.000
G1 X17.806 Y24.075 F400.000
G1 X17.613 Y24.637 F400.000
G1 X17.450 Y24.887 F400.000
G1 X16.700 Y25.419 F400.000
G1 X15.925 Y25.913 F400.000
G1 X15.925 Y25.913 F400.000
G1 X15.706 Y25.994 F400.000
G1 X15.556 Y26.019 F400.000
G1 X15.419 Y26.000 F400.000
G0 X15.369 Y25.962
G0 X15.300 Y25.856
G0 X15.194 Y25.456
G0 X11.481 Y9.550
G1 X11.450 Y9.419 F400.000
G1 X11.381 Y9.044 F400.000
G1 X11.387 Y8.812 F400.000
G1 X11.463 Y8.600 F400.000
G1 X11.537 Y8.469 F400.000
G1 X11.537 Y8.469 F400.000
G1 X12.037 Y7.838 F400.000
G1 X12.181 Y7.700 F400.000
G1 X12.350 Y7.600 F400.000
G1 X12.819 Y7.500 F400.000
G1 X13.194 Y7.494 F400.000
G1 X13.562 Y7.544 F400.000
G1 X13.925 Y7.612 F400.000
G1 X14.275 Y7.737 F400.000
G1 X14.613 Y7.888 F400.000
G1 X14.944 Y8.056 F400.000
G1 X15.556 Y8.469 F400.000
G1 X15.838 Y8.706 F400.000
G1 X16.637 Y9.481 F400.000
G1 X16.881 Y9.762 F400.000
G1 X17.325 Y10.356 F400.000
G1 X17.725 Y10.981 F400.000
G1 X18.087 Y11.625 F400.000
G1 X18.425 Y12.287 F400.000
G1 X18.881 Y13.300 F400.000
G1 X19.019 Y13.644 F400.000
G1 X19.344 Y14.713 F400.000
G1 X19.500 Y15.438 F400.000
G1 X19.694 Y16.538 F400.000
G1 X19.831 Y17.644 F400.000
G1 X19.906 Y18.750 F400.000
G1 X19.925 Y19.856 F400.000
G1 X19.919 Y20.225 F400.000
G1 X19.794 Y21.331 F400.000
G1 X19.731 Y21.700 F400.000
G1 X19.688 Y22.069 F400.000
G1 X19.619 Y22.438 F400.000
G1 X19.381 Y23.281 F400.000
G1 X19.238 Y23.544 F400.000
G1 X17.644 Y24.762 F400.000
G1 X17.644 Y24.762 F400.000
G1 X17.431 Y24.863 F400.000
G1 X17.281 Y24.900 F400.000
G1 X17.144 Y24.894 F400.000
G0 X17.087 Y24.863
G0 X17.012 Y24.762
G0 X16.881 Y24.375
G0 X12.181 Y8.688
G1 X12.144 Y8.562 F400.000
G1 X12.031 Y8.113 F400.000
G1 X12.031 Y7.888 F400.000
G1 X12.125 Y7.600 F400.000
G1 X12.125 Y7.600 F400.000
G1 X12.569 Y6.931 F400.000
G1 X12.775 Y6.719 F400.000
G1 X12.856 Y6.662 F400.000
G1 X13.137 Y6.569 F400.000
G1 X13.700 Y6.487 F400.000
G1 X14.069 Y6.494 F400.000
G1 X14.431 Y6.556 F400.000
G1 X14.787 Y6.656 F400.000
G1 X15.137 Y6.775 F400.000
G1 X15.800 Y7.100 F400.000
G1 X16.419 Y7.506 F400.000
G1 X17.000 Y7.963 F400.000
G1 X17.275 Y8.213 F400.000
G1 X17.794 Y8.744 F400.000
G1 X18.269 Y9.312 F400.000
G1 X18.694 Y9.919 F400.000
G1 X19.087 Y10.550 F400.000
G1 X19.600 Y11.537 F400.000
G1 X20.188 Y12.900 F400.000
G1 X20.450 Y13.588 F400.000
G1 X20.775 Y14.656 F400.000
G1 X20.944 Y15.381 F400.000
G1 X21.075 Y16.113 F400.000
G1 X21.169 Y16.850 F400.000
G1 X21.269 Y17.956 F400.000
G1 X21.331 Y19.800 F400.000
G1 X21.244 Y21.000 F400.000
G1 X21.119 Y21.656 F400.000
G1 X20.962 Y22.012 F400.000
G1 X20.906 Y22.094 F400.000
G1 X19.406 Y23.419 F400.000
G1 X19.406 Y23.419 F400.000
G1 X19.200 Y23.531 F400.000
G1 X19.056 Y23.575 F400.000
G1 X18.919 Y23.575 F400.000
G0 X18.863 Y23.550
G0 X18.781 Y23.450
G0 X18.619 Y23.075
G0 X12.769 Y7.775
G1 X12.725 Y7.650 F400.000
G1 X12.588 Y7.206 F400.000
G1 X12.575 Y6.981 F400.000
G1 X12.644 Y6.688 F400.000
G1 X12.644 Y6.688 F400.000
G1 X13.100 Y5.900 F400.000
G1 X13.231 Y5.756 F400.000
G1 X13.387 Y5.644 F400.000
G1 X13.756 Y5.519 F400.000
G1 X14.131 Y5.456 F400.000
G1 X14.500 Y5.450 F400.000
G1 X14.869 Y5.487 F400.000
G1 X15.231 Y5.556 F400.000
G1 X15.588 Y5.650 F400.000
G1 X16.281 Y5.919 F400.000
G1 X16.931 Y6.269 F400.000
G1 X17.244 Y6.469 F400.000
G1 X18.113 Y7.156 F400.000
G1 X18.644 Y7.675 F400.000
G1 X18.900 Y7.944 F400.000
G1 X19.369 Y8.519 F400.000
G1 X19.794 Y9.125 F400.000
G1 X20.194 Y9.750 F400.000
G1 X20.738 Y10.719 F400.000
G1 X21.225 Y11.719 F400.000
G1 X21.656 Y12.744 F400.000
G1 X21.913 Y13.444 F400.000
G1 X22.231 Y14.506 F400.000
G1 X22.369 Y15.231 F400.000
G1 X22.525 Y16.337 F400.000
G1 X22.637 Y17.444 F400.000
G1 X22.738 Y18.919 F400.000
G1 X22.725 Y19.475 F400.000
G1 X22.675 Y20.038 F400.000
G1 X22.594 Y20.319 F400.000
G1 X22.550 Y20.406 F400.000
G1 X21.238 Y21.769 F400.000
G1 X21.238 Y21.769 F400.000
G1 X21.044 Y21.900 F400.000
G1 X20.906 Y21.956 F400.000
G1 X20.769 Y21.969 F400.000
G0 X20.712 Y21.950
G0 X20.625 Y21.856
G0 X20.431 Y21.494
G0 X13.325 Y6.825
G1 X13.269 Y6.706 F400.000
G1 X13.094 Y6.275 F400.000
G1 X13.062 Y6.050 F400.000
G1 X13.106 Y5.750 F400.000
G1 X13.106 Y5.750 F400.000
G1 X13.344 Y5.188 F400.000
G1 X13.556 Y4.850 F400.000
G1 X13.694 Y4.706 F400.000
G1 X14.037 Y4.525 F400.000
G1 X14.506 Y4.406 F400.000
G1 X14.875 Y4.375 F400.000
G1 X15.244 Y4.381 F400.000
G1 X15.613 Y4.425 F400.000
G1 X15.981 Y4.487 F400.000
G1 X16.337 Y4.588 F400.000
G1 X16.688 Y4.719 F400.000
G1 X17.363 Y5.025 F400.000
G1 X18.006 Y5.394 F400.000
G1 X18.319 Y5.594 F400.000
G1 X18.619 Y5.812 F400.000
G1 X19.175 Y6.300 F400.000
G1 X19.700 Y6.819 F400.000
G1 X20.413 Y7.669 F400.000
G1 X21.062 Y8.575 F400.000
G1 X21.663 Y9.512 F400.000
G1 X22.038 Y10.150 F400.000
G1 X22.363 Y10.812 F400.000
G1 X22.925 Y12.188 F400.000
G1 X23.300 Y13.238 F400.000
G1 X23.413 Y13.588 F400.000
G1 X23.675 Y14.669 F400.000
G1 X23.806 Y15.400 F400.000
G1 X23.956 Y16.506 F400.000
G1 X24.075 Y18.363 F400.000
G1 X24.006 Y18.644 F400.000
G1 X22.750 Y20.181 F400.000
G1 X22.750 Y20.181 F400.000
G1 X22.569 Y20.331 F400.000
G1 X22.431 Y20.400 F400.000
G1 X22.300 Y20.425 F400.000
G0 X22.238 Y20.406
G0 X22.144 Y20.325
G0 X21.925 Y19.975
G0 X13.781 Y5.819
G1 X13.713 Y5.706 F400.000
G1 X13.512 Y5.287 F400.000
G1 X13.463 Y5.062 F400.000
G1 X13.494 Y4.769 F400.000
G1 X13.494 Y4.769 F400.000
G1 X13.781 Y4.006 F400.000
G1 X13.950 Y3.750 F400.000
G1 X14.100 Y3.619 F400.000
G1 X14.444 Y3.444 F400.000
G1 X14.819 Y3.331 F400.000
G1 X15.188 Y3.269 F400.000
G1 X15.556 Y3.250 F400.000
G1 X16.294 Y3.300 F400.000
G1 X16.656 Y3.369 F400.000
G1 X17.012 Y3.469 F400.000
G1 X17.706 Y3.731 F400.000
G1 X18.044 Y3.881 F400.000
G1 X18.688 Y4.244 F400.000
G1 X19.600 Y4.888 F400.000
G1 X20.156 Y5.375 F400.000
G1 X20.425 Y5.631 F400.000
G1 X20.944 Y6.162 F400.000
G1 X21.663 Y7.006 F400.000
G1 X22.319 Y7.900 F400.000
G1 X22.725 Y8.519 F400.000
G1 X23.269 Y9.488 F400.000
G1 X23.744 Y10.494 F400.000
G1 X24.175 Y11.519 F400.000
G1 X24.562 Y12.556 F400.000
G1 X24.863 Y13.625 F400.000
G1 X25.019 Y14.350 F400.000
G1 X25.288 Y15.912 F400.000
G1 X25.337 Y16.569 F400.000
G1 X25.294 Y16.850 F400.000
G1 X25.256 Y16.944 F400.000
G1 X24.156 Y18.475 F400.000
G1 X24.156 Y18.475 F400.000
G1 X23.981 Y18.625 F400.000
G1 X23.850 Y18.700 F400.000
G1 X23.712 Y18.731 F400.000
G0 X23.656 Y18.719
G0 X23.550 Y18.644
G0 X23.306 Y18.312
G0 X14.144 Y4.794
G1 X14.075 Y4.688 F400.000
G1 X13.875 Y4.362 F400.000
G1 X13.794 Y4.138 F400.000
G1 X13.800 Y3.769 F400.000
G1 X13.800 Y3.769 F400.000
G1 X14.050 Y2.987 F400.000
G1 X14.200 Y2.725 F400.000
G1 X14.344 Y2.587 F400.000
G1 X14.681 Y2.381 F400.000
G1 X14.956 Y2.275 F400.000
G1 X15.319 Y2.181 F400.000
G1 X15.688 Y2.119 F400.000
G1 X16.425 Y2.094 F400.000
G1 X16.794 Y2.125 F400.000
G1 X17.163 Y2.181 F400.000
G1 X17.525 Y2.263 F400.000
G1 X17.881 Y2.375 F400.000
G1 X18.569 Y2.656 F400.000
G1 X18.906 Y2.812 F400.000
G1 X19.550 Y3.181 F400.000
G1 X19.856 Y3.388 F400.000
G1 X20.731 Y4.069 F400.000
G1 X21.550 Y4.819 F400.000
G1 X22.300 Y5.631 F400.000
G1 X23.225 Y6.787 F400.000
G1 X23.663 Y7.388 F400.000
G1 X24.062 Y8.012 F400.000
G1 X24.600 Y8.988 F400.000
G1 X24.913 Y9.656 F400.000
G1 X25.613 Y11.369 F400.000
G1 X26.087 Y12.775 F400.000
G1 X26.294 Y13.488 F400.000
G1 X26.481 Y14.694 F400.000
G1 X26.462 Y14.975 F400.000
G1 X26.275 Y15.331 F400.000
G1 X25.500 Y16.575 F400.000
G1 X25.500 Y16.575 F400.000
G1 X25.337 Y16.738 F400.000
G1 X25.212 Y16.825 F400.000
G1 X25.081 Y16.863 F400.000
G0 X25.025 Y16.856
G0 X24.913 Y16.788
G0 X24.650 Y16.475
G0 X14.519 Y3.731
G1 X14.438 Y3.631 F400.000
G1 X14.169 Y3.256 F400.000
G1 X14.081 Y3.044 F400.000
G1 X14.050 Y2.750 F400.000
G1 X14.050 Y2.750 F400.000
G1 X14.194 Y2.050 F400.000
G1 X14.306 Y1.762 F400.000
G1 X14.425 Y1.600 F400.000
G1 X14.738 Y1.363 F400.000
G1 X15.094 Y1.188 F400.000
G1 X15.444 Y1.062 F400.000
G1 X15.800 Y0.963 F400.000
G1 X16.169 Y0.919 F400.000
G1 X16.538 Y0.900 F400.000
G1 X16.906 Y0.900 F400.000
G1 X17.644 Y1.000 F400.000
G1 X18.369 Y1.181 F400.000
G1 X18.719 Y1.300 F400.000
G1 X19.738 Y1.756 F400.000
G1 X20.381 Y2.125 F400.000
G1 X20.994 Y2.538 F400.000
G1 X21.863 Y3.231 F400.000
G1 X22.675 Y3.994 F400.000
G1 X23.425 Y4.806 F400.000
G1 X24.119 Y5.669 F400.000
G1 X24.775 Y6.569 F400.000
G1 X25.188 Y7.181 F400.000
G1 X25.744 Y8.144 F400.000
G1 X26.075 Y8.806 F400.000
G1 X26.525 Y9.825 F400.000
G1 X27.069 Y11.206 F400.000
G1 X27.319 Y11.906 F400.000
G1 X27.500 Y12.750 F400.000
G1 X27.481 Y13.031 F400.000
G1 X26.631 Y14.694 F400.000
G1 X26.631 Y14.694 F400.000
G1 X26.481 Y14.869 F400.000
G1 X26.363 Y14.969 F400.000
G1 X26.231 Y15.019 F400.000
G0 X26.175 Y15.012
G0 X26.062 Y14.956
G0 X25.775 Y14.662
G0 X14.700 Y2.669
G1 X14.613 Y2.569 F400.000
G1 X14.369 Y2.281 F400.000
G1 X14.256 Y2.069 F400.000
G1 X14.206 Y1.706 F400.000
G1 X14.206 Y1.706 F400.000
G1 X14.294 Y1.106 F400.000
G1 X14.387 Y0.812 F400.000
G1 X14.488 Y0.637 F400.000
G1 X14.713 Y0.438 F400.000
G1 X15.131 Y0.181 F400.000
G1 X15.463 Y0.006 F400.000
G1 X15.812 Y-0.119 F400.000
G1 X16.175 Y-0.200 F400.000
G1 X16.544 Y-0.250 F400.000
G1 X16.913 Y-0.275 F400.000
G1 X17.281 Y-0.281 F400.000
G1 X17.650 Y-0.244 F400.000
G1 X18.387 Y-0.119 F400.000
G1 X18.750 Y-0.037 F400.000
G1 X19.462 Y0.175 F400.000
G1 X19.812 Y0.306 F400.000
G1 X20.481 Y0.619 F400.000
G1 X20.806 Y0.794 F400.000
G1 X21.431 Y1.194 F400.000
G1 X22.038 Y1.619 F400.000
G1 X22.906 Y2.312 F400.000
G1 X23.725 Y3.062 F400.000
G1 X24.244 Y3.594 F400.000
G1 X24.738 Y4.150 F400.000
G1 X25.206 Y4.731 F400.000
G1 X25.844 Y5.638 F400.000
G1 X26.844 Y7.194 F400.000
G1 X27.031 Y7.513 F400.000
G1 X27.519 Y8.512 F400.000
G1 X27.950 Y9.537 F400.000
G1 X28.312 Y10.625 F400.000
G1 X28.350 Y10.906 F400.000
G1 X28.350 Y11.000 F400.000
G1 X27.663 Y12.644 F400.000
G1 X27.663 Y12.644 F400.000
G1 X27.531 Y12.831 F400.000
G1 X27.419 Y12.931 F400.000
G1 X27.294 Y12.994 F400.000
G0 X27.231 Y12.994
G0 X27.113 Y12.938
G0 X26.800 Y12.675
G0 X14.863 Y1.725
G1 X14.762 Y1.637 F400.000
G1 X14.494 Y1.369 F400.000
G1 X14.363 Y1.175 F400.000
G1 X14.300 Y0.956 F400.000
G1 X14.287 Y0.812 F400.000
G1 X14.287 Y0.812 F400.000
G1 X14.387 Y-0.081 F400.000
G1 X14.450 Y-0.263 F400.000
G1 X14.494 Y-0.344 F400.000
G1 X14.750 Y-0.631 F400.000
G1 X14.975 Y-0.812 F400.000
G1 X15.469 Y-1.087 F400.000
G1 X15.806 Y-1.244 F400.000
G1 X16.163 Y-1.356 F400.000
G1 X16.525 Y-1.431 F400.000
G1 X16.894 Y-1.488 F400.000
G1 X17.631 Y-1.500 F400.000
G1 X18.369 Y-1.425 F400.000
G1 X19.100 Y-1.281 F400.000
G1 X19.462 Y-1.188 F400.000
G1 X20.169 Y-0.950 F400.000
G1 X20.850 Y-0.650 F400.000
G1 X21.181 Y-0.481 F400.000
G1 X22.150 Y0.081 F400.000
G1 X22.769 Y0.487 F400.000
G1 X23.363 Y0.931 F400.000
G1 X24.781 Y2.131 F400.000
G1 X25.050 Y2.381 F400.000
G1 X25.556 Y2.925 F400.000
G1 X26.031 Y3.494 F400.000
G1 X26.688 Y4.388 F400.000
G1 X27.531 Y5.606 F400.000
G1 X28.125 Y6.550 F400.000
G1 X28.306 Y6.869 F400.000
G1 X28.631 Y7.531 F400.000
G1 X29.062 Y8.581 F400.000
G1 X29.087 Y8.863 F400.000
G1 X28.525 Y10.550 F400.000
G1 X28.525 Y10.550 F400.000
G1 X28.413 Y10.744 F400.000
G1 X28.312 Y10.856 F400.000
G1 X28.194 Y10.925 F400.000
G0 X28.137 Y10.931
G0 X28.019 Y10.894
G0 X27.688 Y10.650
G0 X14.950 Y0.644
G1 X14.844 Y0.562 F400.000
G1 X14.556 Y0.312 F400.000
G1 X14.412 Y0.125 F400.000
G1 X14.338 Y-0.081 F400.000
G1 X14.312 Y-0.231 F400.000
G1 X14.312 Y-0.231 F400.000
G1 X14.319 Y-0.981 F400.000
G1 X14.375 Y-1.262 F400.000
G1 X14.450 Y-1.438 F400.000
G1 X14.706 Y-1.725 F400.000
G1 X15.006 Y-1.962 F400.000
G1 X15.319 Y-2.169 F400.000
G1 X15.644 Y-2.344 F400.000
G1 X15.988 Y-2.475 F400.000
G1 X16.344 Y-2.581 F400.000
G1 X16.706 Y-2.656 F400.000
G1 X17.075 Y-2.712 F400.000
G1 X17.444 Y-2.731 F400.000
G1 X18.181 Y-2.725 F400.000
G1 X18.550 Y-2.681 F400.000
G1 X19.288 Y-2.562 F400.000
G1 X20.363 Y-2.269 F400.000
G1 X21.056 Y-1.994 F400.000
G1 X21.731 Y-1.681 F400.000
G1 X22.712 Y-1.137 F400.000
G1 X23.650 Y-0.519 F400.000
G1 X25.406 Y0.850 F400.000
G1 X25.688 Y1.094 F400.000
G1 X26.219 Y1.613 F400.000
G1 X26.962 Y2.438 F400.000
G1 X27.869 Y3.606 F400.000
G1 X28.938 Y5.119 F400.000
G1 X29.606 Y6.394 F400.000
G1 X29.663 Y6.675 F400.000
G1 X29.219 Y8.456 F400.000
G1 X29.219 Y8.456 F400.000
G1 X29.113 Y8.656 F400.000
G1 X29.019 Y8.775 F400.000
G1 X28.900 Y8.850 F400.000
G0 X28.837 Y8.856
G0 X28.719 Y8.825
G0 X28.369 Y8.606
G0 X14.981 Y-0.431
G1 X14.875 Y-0.506 F400.000
G1 X14.569 Y-0.731 F400.000
G1 X14.406 Y-0.912 F400.000
G1 X14.262 Y-1.275 F400.000
G1 X14.262 Y-1.275 F400.000
G1 X14.206 Y-2.025 F400.000
G1 X14.238 Y-2.306 F400.000
G1 X14.300 Y-2.487 F400.000
G1 X14.594 Y-2.856 F400.000
G1 X14.819 Y-3.044 F400.000
G1 X15.119 Y-3.256 F400.000
G1 X15.438 Y-3.444 F400.000
G1 X16.119 Y-3.744 F400.000
G1 X16.475 Y-3.856 F400.000
G1 X16.837 Y-3.938 F400.000
G1 X17.206 Y-3.994 F400.000
G1 X17.575 Y-4.025 F400.000
G1 X18.312 Y-4.019 F400.000
G1 X19.050 Y-3.938 F400.000
G1 X19.419 Y-3.875 F400.000
G1 X20.144 Y-3.700 F400.000
G1 X20.856 Y-3.481 F400.000
G1 X21.900 Y-3.081 F400.000
G1 X22.906 Y-2.594 F400.000
G1 X23.550 Y-2.225 F400.000
G1 X24.181 Y-1.819 F400.000
G1 X25.387 Y-0.925 F400.000
G1 X26.556 Y0.013 F400.000
G1 X27.350 Y0.787 F400.000
G1 X28.087 Y1.619 F400.000
G1 X29.238 Y3.069 F400.000
