(Exported by FreeCAD)
(Post Processor: grbl_post)
(Output Time:2025-11-28 19:44:04.155227)
(Begin preamble)
G17 G90
G21
(Block-name: Fixture)
(Block-expand: 0)
(Block-enable: 1)
(Begin operation: Fixture)
(Path: Fixture)
G54
(Finish operation: Fixture)
(Block-name: 3mm Endmill001)
(Block-expand: 0)
(Block-enable: 1)
(Begin operation: 3mm Endmill001)
(Path: 3mm Endmill001)
(3mm Endmill001)
(Begin toolchange)
( M6 T2 )
M3 S10000
(Finish operation: 3mm Endmill001)
(Block-name: RampEntryDressup)
(Block-expand: 0)
(Block-enable: 1)
(Begin operation: RampEntryDressup)
(Path: RampEntryDressup)
G0 X0.000 Y0.000 Z5.000
G0 X7.848 Y7.848 Z5.000
G0 X7.848 Y7.848 Z3.000
G1 X8.436 Y7.212 Z2.500 F400.000
G1 X8.972 Y6.533 Z2.000 F400.000
G1 X9.454 Y5.814 Z1.500 F400.000
G1 X8.972 Y6.533 Z1.000 F400.000
G1 X8.436 Y7.212 Z0.500 F400.000
G1 X7.848 Y7.848 Z-0.000 F400.000
G2 X1.532 Y-10.993 Z-0.000 I-7.848 J-7.848 K0.000 F400.000
G2 X-10.993 Y-1.532 Z-0.000 I-1.532 J10.993 K0.000 F400.000
G2 X-1.532 Y10.993 Z-0.000 I10.993 J1.532 K0.000 F400.000
G2 X7.848 Y7.848 Z-0.000 I1.532 J-10.993 K0.000 F400.000
G1 X8.436 Y7.212 Z-0.500 F400.000
G1 X8.972 Y6.533 Z-1.000 F400.000
G1 X9.454 Y5.814 Z-1.500 F400.000
G1 X8.972 Y6.533 Z-2.000 F400.000
G1 X8.436 Y7.212 Z-2.500 F400.000
G1 X7.848 Y7.848 Z-3.000 F400.000
G2 X1.532 Y-10.993 Z-3.000 I-7.848 J-7.848 K0.000 F400.000
G2 X-10.993 Y-1.532 Z-3.000 I-1.532 J10.993 K0.000 F400.000
G2 X-1.532 Y10.993 Z-3.000 I10.993 J1.532 K0.000 F400.000
G2 X7.848 Y7.848 Z-3.000 I1.532 J-10.993 K0.000 F400.000
G1 X8.436 Y7.212 Z-3.500 F400.000
G1 X8.972 Y6.533 Z-4.000 F400.000
G1 X9.454 Y5.814 Z-4.500 F400.000
G1 X8.972 Y6.533 Z-5.000 F400.000
G1 X8.436 Y7.212 Z-5.500 F400.000
G1 X7.848 Y7.848 Z-6.000 F400.000
G2 X1.532 Y-10.993 Z-6.000 I-7.848 J-7.848 K0.000 F400.000
G2 X-10.993 Y-1.532 Z-6.000 I-1.532 J10.993 K0.000 F400.000
G2 X-1.532 Y10.993 Z-6.000 I10.993 J1.532 K0.000 F400.000
G2 X7.848 Y7.848 Z-6.000 I1.532 J-10.993 K0.000 F400.000
G1 X8.379 Y7.278 Z-6.450 F400.000
G1 X7.848 Y7.848 Z-6.900 F400.000
G2 X1.532 Y-10.993 Z-6.900 I-7.848 J-7.848 K0.000 F400.000
G2 X-10.993 Y-1.532 Z-6.900 I-1.532 J10.993 K0.000 F400.000
G2 X-1.532 Y10.993 Z-6.900 I10.993 J1.532 K0.000 F400.000
G2 X7.848 Y7.848 Z-6.900 I1.532 J-10.993 K0.000 F400.000
G0 X7.848 Y7.848 Z5.000
(Finish operation: RampEntryDressup)
(Block-name: Adaptive)
(Block-expand: 0)
(Block-enable: 1)
(Begin operation: Adaptive)
(Path: Adaptive)
(Adaptive)
(Helix to depth: -6.900000)
G0 Z5.000
G0 X-9.806 Y10.139 Z5.000
G0 X-9.806 Y10.139 Z3.000
G1 X-9.806 Y10.139 Z0.000 F400.000
G1 X-9.806 Y10.139 Z0.000 F400.000
G1 X-10.023 Y9.944 Z-0.026 F400.000
G1 X-10.199 Y9.711 Z-0.052 F400.000
G1 X-10.325 Y9.447 Z-0.077 F400.000
G1 X-10.398 Y9.164 Z-0.103 F400.000
G1 X-10.414 Y8.873 Z-0.129 F400.000
G1 X-10.372 Y8.584 Z-0.155 F400.000
G1 X-10.276 Y8.308 Z-0.180 F400.000
G1 X-10.127 Y8.057 Z-0.206 F400.000
G1 X-9.932 Y7.839 Z-0.232 F400.000
G1 X-9.698 Y7.664 Z-0.258 F400.000
G1 X-9.435 Y7.537 Z-0.283 F400.000
G1 X-9.152 Y7.465 Z-0.309 F400.000
G1 X-8.860 Y7.449 Z-0.335 F400.000
G1 X-8.571 Y7.490 Z-0.361 F400.000
G1 X-8.296 Y7.587 Z-0.387 F400.000
G1 X-8.044 Y7.736 Z-0.412 F400.000
G1 X-7.827 Y7.931 Z-0.438 F400.000
G1 X-7.651 Y8.164 Z-0.464 F400.000
G1 X-7.525 Y8.428 Z-0.490 F400.000
G1 X-7.452 Y8.711 Z-0.515 F400.000
G1 X-7.436 Y9.002 Z-0.541 F400.000
G1 X-7.478 Y9.291 Z-0.567 F400.000
G1 X-7.574 Y9.567 Z-0.593 F400.000
G1 X-7.723 Y9.818 Z-0.618 F400.000
G1 X-7.918 Y10.036 Z-0.644 F400.000
G1 X-8.152 Y10.211 Z-0.670 F400.000
G1 X-8.415 Y10.338 Z-0.696 F400.000
G1 X-8.698 Y10.410 Z-0.721 F400.000
G1 X-8.990 Y10.426 Z-0.747 F400.000
G1 X-9.279 Y10.385 Z-0.773 F400.000
G1 X-9.554 Y10.288 Z-0.799 F400.000
G1 X-9.806 Y10.139 Z-0.825 F400.000
G1 X-10.023 Y9.944 Z-0.850 F400.000
G1 X-10.199 Y9.711 Z-0.876 F400.000
G1 X-10.325 Y9.447 Z-0.902 F400.000
G1 X-10.398 Y9.164 Z-0.928 F400.000
G1 X-10.414 Y8.873 Z-0.953 F400.000
G1 X-10.372 Y8.584 Z-0.979 F400.000
G1 X-10.276 Y8.308 Z-1.005 F400.000
G1 X-10.127 Y8.057 Z-1.031 F400.000
G1 X-9.932 Y7.839 Z-1.056 F400.000
G1 X-9.698 Y7.664 Z-1.082 F400.000
G1 X-9.435 Y7.537 Z-1.108 F400.000
G1 X-9.152 Y7.465 Z-1.134 F400.000
G1 X-8.860 Y7.449 Z-1.160 F400.000
G1 X-8.571 Y7.490 Z-1.185 F400.000
G1 X-8.296 Y7.587 Z-1.211 F400.000
G1 X-8.044 Y7.736 Z-1.237 F400.000
G1 X-7.827 Y7.931 Z-1.263 F400.000
G1 X-7.651 Y8.164 Z-1.288 F400.000
G1 X-7.525 Y8.428 Z-1.314 F400.000
G1 X-7.452 Y8.711 Z-1.340 F400.000
G1 X-7.436 Y9.002 Z-1.366 F400.000
G1 X-7.478 Y9.291 Z-1.391 F400.000
G1 X-7.574 Y9.567 Z-1.417 F400.000
G1 X-7.723 Y9.818 Z-1.443 F400.000
G1 X-7.918 Y10.036 Z-1.469 F400.000
G1 X-8.152 Y10.211 Z-1.495 F400.000
G1 X-8.415 Y10.338 Z-1.520 F400.000
G1 X-8.698 Y10.410 Z-1.546 F400.000
G1 X-8.990 Y10.426 Z-1.572 F400.000
G1 X-9.279 Y10.385 Z-1.598 F400.000
G1 X-9.554 Y10.288 Z-1.623 F400.000
G1 X-9.806 Y10.139 Z-1.649 F400.000
G1 X-10.023 Y9.944 Z-1.675 F400.000
G1 X-10.199 Y9.711 Z-1.701 F400.000
G1 X-10.325 Y9.447 Z-1.726 F400.000
G1 X-10.398 Y9.164 Z-1.752 F400.000
G1 X-10.414 Y8.873 Z-1.778 F400.000
G1 X-10.372 Y8.584 Z-1.804 F400.000
G1 X-10.276 Y8.308 Z-1.829 F400.000
G1 X-10.127 Y8.057 Z-1.855 F400.000
G1 X-9.932 Y7.839 Z-1.881 F400.000
G1 X-9.698 Y7.664 Z-1.907 F400.000
G1 X-9.435 Y7.537 Z-1.933 F400.000
G1 X-9.152 Y7.465 Z-1.958 F400.000
G1 X-8.860 Y7.449 Z-1.984 F400.000
G1 X-8.571 Y7.490 Z-2.010 F400.000
G1 X-8.296 Y7.587 Z-2.036 F400.000
G1 X-8.044 Y7.736 Z-2.061 F400.000
G1 X-7.827 Y7.931 Z-2.087 F400.000
G1 X-7.651 Y8.164 Z-2.113 F400.000
G1 X-7.525 Y8.428 Z-2.139 F400.000
G1 X-7.452 Y8.711 Z-2.164 F400.000
G1 X-7.436 Y9.002 Z-2.190 F400.000
G1 X-7.478 Y9.291 Z-2.216 F400.000
G1 X-7.574 Y9.567 Z-2.242 F400.000
G1 X-7.723 Y9.818 Z-2.268 F400.000
G1 X-7.918 Y10.036 Z-2.293 F400.000
G1 X-8.152 Y10.211 Z-2.319 F400.000
G1 X-8.415 Y10.338 Z-2.345 F400.000
G1 X-8.698 Y10.410 Z-2.371 F400.000
G1 X-8.990 Y10.426 Z-2.396 F400.000
G1 X-9.279 Y10.385 Z-2.422 F400.000
G1 X-9.554 Y10.288 Z-2.448 F400.000
G1 X-9.806 Y10.139 Z-2.474 F400.000
G1 X-10.023 Y9.944 Z-2.499 F400.000
G1 X-10.199 Y9.711 Z-2.525 F400.000
G1 X-10.325 Y9.447 Z-2.551 F400.000
G1 X-10.398 Y9.164 Z-2.577 F400.000
G1 X-10.414 Y8.873 Z-2.603 F400.000
G1 X-10.372 Y8.584 Z-2.628 F400.000
G1 X-10.276 Y8.308 Z-2.654 F400.000
G1 X-10.127 Y8.057 Z-2.680 F400.000
G1 X-9.932 Y7.839 Z-2.706 F400.000
G1 X-9.698 Y7.664 Z-2.731 F400.000
G1 X-9.435 Y7.537 Z-2.757 F400.000
G1 X-9.152 Y7.465 Z-2.783 F400.000
G1 X-8.860 Y7.449 Z-2.809 F400.000
G1 X-8.571 Y7.490 Z-2.834 F400.000
G1 X-8.296 Y7.587 Z-2.860 F400.000
G1 X-8.044 Y7.736 Z-2.886 F400.000
G1 X-7.827 Y7.931 Z-2.912 F400.000
G1 X-7.651 Y8.164 Z-2.937 F400.000
G1 X-7.525 Y8.428 Z-2.963 F400.000
G1 X-7.452 Y8.711 Z-2.989 F400.000
G1 X-7.436 Y9.002 Z-3.015 F400.000
G1 X-7.478 Y9.291 Z-3.041 F400.000
G1 X-7.574 Y9.567 Z-3.066 F400.000
G1 X-7.723 Y9.818 Z-3.092 F400.000
G1 X-7.918 Y10.036 Z-3.118 F400.000
G1 X-8.152 Y10.211 Z-3.144 F400.000
G1 X-8.415 Y10.338 Z-3.169 F400.000
G1 X-8.698 Y10.410 Z-3.195 F400.000
G1 X-8.990 Y10.426 Z-3.221 F400.000
G1 X-9.279 Y10.385 Z-3.247 F400.000
G1 X-9.554 Y10.288 Z-3.272 F400.000
G1 X-9.806 Y10.139 Z-3.298 F400.000
G1 X-10.023 Y9.944 Z-3.324 F400.000
G1 X-10.199 Y9.711 Z-3.350 F400.000
G1 X-10.325 Y9.447 Z-3.376 F400.000
G1 X-10.398 Y9.164 Z-3.401 F400.000
G1 X-10.414 Y8.873 Z-3.427 F400.000
G1 X-10.372 Y8.584 Z-3.453 F400.000
G1 X-10.276 Y8.308 Z-3.479 F400.000
G1 X-10.127 Y8.057 Z-3.504 F400.000
G1 X-9.932 Y7.839 Z-3.530 F400.000
G1 X-9.698 Y7.664 Z-3.556 F400.000
G1 X-9.435 Y7.537 Z-3.582 F400.000
G1 X-9.152 Y7.465 Z-3.607 F400.000
G1 X-8.860 Y7.449 Z-3.633 F400.000
G1 X-8.571 Y7.490 Z-3.659 F400.000
G1 X-8.296 Y7.587 Z-3.685 F400.000
G1 X-8.044 Y7.736 Z-3.711 F400.000
G1 X-7.827 Y7.931 Z-3.736 F400.000
G1 X-7.651 Y8.164 Z-3.762 F400.000
G1 X-7.525 Y8.428 Z-3.788 F400.000
G1 X-7.452 Y8.711 Z-3.814 F400.000
G1 X-7.436 Y9.002 Z-3.839 F400.000
G1 X-7.478 Y9.291 Z-3.865 F400.000
G1 X-7.574 Y9.567 Z-3.891 F400.000
G1 X-7.723 Y9.818 Z-3.917 F400.000
G1 X-7.918 Y10.036 Z-3.942 F400.000
G1 X-8.152 Y10.211 Z-3.968 F400.000
G1 X-8.415 Y10.338 Z-3.994 F400.000
G1 X-8.698 Y10.410 Z-4.020 F400.000
G1 X-8.990 Y10.426 Z-4.046 F400.000
G1 X-9.279 Y10.385 Z-4.071 F400.000
G1 X-9.554 Y10.288 Z-4.097 F400.000
G1 X-9.806 Y10.139 Z-4.123 F400.000
G1 X-10.023 Y9.944 Z-4.149 F400.000
G1 X-10.199 Y9.711 Z-4.174 F400.000
G1 X-10.325 Y9.447 Z-4.200 F400.000
G1 X-10.398 Y9.164 Z-4.226 F400.000
G1 X-10.414 Y8.873 Z-4.252 F400.000
G1 X-10.372 Y8.584 Z-4.277 F400.000
G1 X-10.276 Y8.308 Z-4.303 F400.000
G1 X-10.127 Y8.057 Z-4.329 F400.000
G1 X-9.932 Y7.839 Z-4.355 F400.000
G1 X-9.698 Y7.664 Z-4.380 F400.000
G1 X-9.435 Y7.537 Z-4.406 F400.000
G1 X-9.152 Y7.465 Z-4.432 F400.000
G1 X-8.860 Y7.449 Z-4.458 F400.000
G1 X-8.571 Y7.490 Z-4.484 F400.000
G1 X-8.296 Y7.587 Z-4.509 F400.000
G1 X-8.044 Y7.736 Z-4.535 F400.000
G1 X-7.827 Y7.931 Z-4.561 F400.000
G1 X-7.651 Y8.164 Z-4.587 F400.000
G1 X-7.525 Y8.428 Z-4.612 F400.000
G1 X-7.452 Y8.711 Z-4.638 F400.000
G1 X-7.436 Y9.002 Z-4.664 F400.000
G1 X-7.478 Y9.291 Z-4.690 F400.000
G1 X-7.574 Y9.567 Z-4.715 F400.000
G1 X-7.723 Y9.818 Z-4.741 F400.000
G1 X-7.918 Y10.036 Z-4.767 F400.000
G1 X-8.152 Y10.211 Z-4.793 F400.000
G1 X-8.415 Y10.338 Z-4.819 F400.000
G1 X-8.698 Y10.410 Z-4.844 F400.000
G1 X-8.990 Y10.426 Z-4.870 F400.000
G1 X-9.279 Y10.385 Z-4.896 F400.000
G1 X-9.554 Y10.288 Z-4.922 F400.000
G1 X-9.806 Y10.139 Z-4.947 F400.000
G1 X-10.023 Y9.944 Z-4.973 F400.000
G1 X-10.199 Y9.711 Z-4.999 F400.000
G1 X-10.325 Y9.447 Z-5.025 F400.000
G1 X-10.398 Y9.164 Z-5.050 F400.000
G1 X-10.414 Y8.873 Z-5.076 F400.000
G1 X-10.372 Y8.584 Z-5.102 F400.000
G1 X-10.276 Y8.308 Z-5.128 F400.000
G1 X-10.127 Y8.057 Z-5.154 F400.000
G1 X-9.932 Y7.839 Z-5.179 F400.000
G1 X-9.698 Y7.664 Z-5.205 F400.000
G1 X-9.435 Y7.537 Z-5.231 F400.000
G1 X-9.152 Y7.465 Z-5.257 F400.000
G1 X-8.860 Y7.449 Z-5.282 F400.000
G1 X-8.571 Y7.490 Z-5.308 F400.000
G1 X-8.296 Y7.587 Z-5.334 F400.000
G1 X-8.044 Y7.736 Z-5.360 F400.000
G1 X-7.827 Y7.931 Z-5.385 F400.000
G1 X-7.651 Y8.164 Z-5.411 F400.000
G1 X-7.525 Y8.428 Z-5.437 F400.000
G1 X-7.452 Y8.711 Z-5.463 F400.000
G1 X-7.436 Y9.002 Z-5.488 F400.000
G1 X-7.478 Y9.291 Z-5.514 F400.000
G1 X-7.574 Y9.567 Z-5.540 F400.000
G1 X-7.723 Y9.818 Z-5.566 F400.000
G1 X-7.918 Y10.036 Z-5.592 F400.000
G1 X-8.152 Y10.211 Z-5.617 F400.000
G1 X-8.415 Y10.338 Z-5.643 F400.000
G1 X-8.698 Y10.410 Z-5.669 F400.000
G1 X-8.990 Y10.426 Z-5.695 F400.000
G1 X-9.279 Y10.385 Z-5.720 F400.000
G1 X-9.554 Y10.288 Z-5.746 F400.000
G1 X-9.806 Y10.139 Z-5.772 F400.000
G1 X-10.023 Y9.944 Z-5.798 F400.000
G1 X-10.199 Y9.711 Z-5.823 F400.000
G1 X-10.325 Y9.447 Z-5.849 F400.000
G1 X-10.398 Y9.164 Z-5.875 F400.000
G1 X-10.414 Y8.873 Z-5.901 F400.000
G1 X-10.372 Y8.584 Z-5.927 F400.000
G1 X-10.276 Y8.308 Z-5.952 F400.000
G1 X-10.127 Y8.057 Z-5.978 F400.000
G1 X-9.932 Y7.839 Z-6.004 F400.000
G1 X-9.698 Y7.664 Z-6.030 F400.000
G1 X-9.435 Y7.537 Z-6.055 F400.000
G1 X-9.152 Y7.465 Z-6.081 F400.000
G1 X-8.860 Y7.449 Z-6.107 F400.000
G1 X-8.571 Y7.490 Z-6.133 F400.000
G1 X-8.296 Y7.587 Z-6.158 F400.000
G1 X-8.044 Y7.736 Z-6.184 F400.000
G1 X-7.827 Y7.931 Z-6.210 F400.000
G1 X-7.651 Y8.164 Z-6.236 F400.000
G1 X-7.525 Y8.428 Z-6.262 F400.000
G1 X-7.452 Y8.711 Z-6.287 F400.000
G1 X-7.436 Y9.002 Z-6.313 F400.000
G1 X-7.478 Y9.291 Z-6.339 F400.000
G1 X-7.574 Y9.567 Z-6.365 F400.000
G1 X-7.723 Y9.818 Z-6.390 F400.000
G1 X-7.918 Y10.036 Z-6.416 F400.000
G1 X-8.152 Y10.211 Z-6.442 F400.000
G1 X-8.415 Y10.338 Z-6.468 F400.000
G1 X-8.698 Y10.410 Z-6.493 F400.000
G1 X-8.990 Y10.426 Z-6.519 F400.000
G1 X-9.279 Y10.385 Z-6.545 F400.000
G1 X-9.554 Y10.288 Z-6.571 F400.000
G1 X-9.806 Y10.139 Z-6.596 F400.000
G1 X-10.023 Y9.944 Z-6.622 F400.000
G1 X-10.199 Y9.711 Z-6.648 F400.000
G1 X-10.325 Y9.447 Z-6.674 F400.000
G1 X-10.398 Y9.164 Z-6.700 F400.000
G1 X-10.414 Y8.873 Z-6.725 F400.000
G1 X-10.372 Y8.584 Z-6.751 F400.000
G1 X-10.276 Y8.308 Z-6.777 F400.000
G1 X-10.127 Y8.057 Z-6.803 F400.000
G1 X-9.932 Y7.839 Z-6.828 F400.000
G1 X-9.698 Y7.664 Z-6.854 F400.000
G1 X-9.435 Y7.537 Z-6.880 F400.000
G1 X-9.152 Y7.465 Z-6.900 F400.000
G1 X-8.860 Y7.449 Z-6.900 F400.000
G1 X-8.571 Y7.490 Z-6.900 F400.000
G1 X-8.296 Y7.587 Z-6.900 F400.000
G1 X-8.044 Y7.736 Z-6.900 F400.000
G1 X-7.827 Y7.931 Z-6.900 F400.000
G1 X-7.651 Y8.164 Z-6.900 F400.000
G1 X-7.525 Y8.428 Z-6.900 F400.000
G1 X-7.452 Y8.711 Z-6.900 F400.000
G1 X-7.436 Y9.002 Z-6.900 F400.000
G1 X-7.478 Y9.291 Z-6.900 F400.000
G1 X-7.574 Y9.567 Z-6.900 F400.000
G1 X-7.723 Y9.818 Z-6.900 F400.000
G1 X-7.918 Y10.036 Z-6.900 F400.000
G1 X-8.152 Y10.211 Z-6.900 F400.000
G1 X-8.415 Y10.338 Z-6.900 F400.000
G1 X-8.698 Y10.410 Z-6.900 F400.000
G1 X-8.990 Y10.426 Z-6.900 F400.000
G1 X-9.279 Y10.385 Z-6.900 F400.000
G1 X-9.554 Y10.288 Z-6.900 F400.000
G1 X-9.806 Y10.139 Z-6.900 F400.000
G1 X-10.023 Y9.944 Z-6.900 F400.000
G1 X-10.199 Y9.711 Z-6.900 F400.000
G1 X-10.325 Y9.447 Z-6.900 F400.000
G1 X-10.398 Y9.164 Z-6.900 F400.000
G1 X-10.414 Y8.873 Z-6.900 F400.000
G1 X-10.372 Y8.584 Z-6.900 F400.000
G1 X-10.276 Y8.308 Z-6.900 F400.000
G1 X-10.127 Y8.057 Z-6.900 F400.000
G1 X-9.932 Y7.839 Z-6.900 F400.000
G1 X-9.698 Y7.664 Z-6.900 F400.000
G1 X-9.435 Y7.537 Z-6.900 F400.000
(Adaptive - depth: -6.900000)
G1 X-8.925 Y7.438 F400.000
G1 X-8.850 Y7.362 F400.000
G1 X-8.794 Y7.275 F400.000
G1 X-8.625 Y7.144 F400.000
G1 X-8.537 Y7.200 F400.000
G1 X-8.537 Y7.200 F400.000
G1 X-8.412 Y7.388 F400.000
G1 X-8.331 Y7.606 F400.000
G1 X-8.306 Y7.688 F400.000
G0 X-8.269 Y7.763
G1 X-8.225 Y7.838 F400.000
G1 X-8.075 Y8.025 F400.000
G1 X-7.963 Y8.113 F400.000
G1 X-7.544 Y8.262 F400.000
G1 X-7.412 Y8.338 F400.000
G1 X-7.412 Y8.338 F400.000
G1 X-6.906 Y8.812 F400.000
G1 X-6.781 Y8.969 F400.000
G1 X-6.688 Y9.144 F400.000
G1 X-6.644 Y9.425 F400.000
G1 X-6.662 Y9.706 F400.000
G1 X-6.731 Y9.988 F400.000
G1 X-6.881 Y10.325 F400.000
G1 X-7.094 Y10.625 F400.000
G1 X-7.331 Y10.875 F400.000
G1 X-7.737 Y11.169 F400.000
G1 X-7.906 Y11.256 F400.000
G1 X-8.181 Y11.344 F400.000
G1 X-8.275 Y11.350 F400.000
G1 X-8.369 Y11.338 F400.000
G1 X-8.463 Y11.300 F400.000
G1 X-9.463 Y10.469 F400.000
G1 X-9.463 Y10.469 F400.000
G1 X-9.606 Y10.287 F400.000
G1 X-9.675 Y10.150 F400.000
G1 X-9.700 Y10.012 F400.000
G0 X-9.681 Y9.956
G0 X-9.594 Y9.869
G0 X-7.694 Y8.944
G1 X-7.619 Y8.906 F400.000
G1 X-7.375 Y8.806 F400.000
G1 X-7.219 Y8.775 F400.000
G1 X-6.994 Y8.794 F400.000
G1 X-6.719 Y8.912 F400.000
G1 X-6.719 Y8.912 F400.000
G1 X-6.156 Y9.350 F400.000
G1 X-5.969 Y9.581 F400.000
G1 X-5.925 Y9.669 F400.000
G1 X-5.869 Y9.950 F400.000
G1 X-5.869 Y10.231 F400.000
G1 X-5.900 Y10.419 F400.000
G1 X-6.006 Y10.775 F400.000
G1 X-6.169 Y11.106 F400.000
G1 X-6.369 Y11.419 F400.000
G1 X-6.681 Y11.756 F400.000
G1 X-6.906 Y11.938 F400.000
G1 X-7.069 Y12.037 F400.000
G1 X-7.162 Y12.062 F400.000
G1 X-7.256 Y12.069 F400.000
G1 X-7.350 Y12.050 F400.000
G1 X-7.925 Y11.669 F400.000
G1 X-7.925 Y11.669 F400.000
G1 X-8.088 Y11.506 F400.000
G1 X-8.175 Y11.381 F400.000
G1 X-8.213 Y11.250 F400.000
G0 X-8.206 Y11.188
G0 X-8.144 Y11.069
G0 X-6.756 Y9.694
G1 X-6.694 Y9.631 F400.000
G1 X-6.500 Y9.469 F400.000
G1 X-6.362 Y9.406 F400.000
G1 X-6.213 Y9.394 F400.000
G1 X-5.994 Y9.444 F400.000
G1 X-5.856 Y9.506 F400.000
G1 X-5.856 Y9.506 F400.000
G1 X-5.431 Y9.781 F400.000
G1 X-5.213 Y9.988 F400.000
G1 X-5.112 Y10.156 F400.000
G1 X-5.037 Y10.531 F400.000
G1 X-5.037 Y10.906 F400.000
G1 X-5.112 Y11.269 F400.000
G1 X-5.237 Y11.619 F400.000
G1 X-5.406 Y11.950 F400.000
G1 X-5.606 Y12.262 F400.000
G1 X-5.800 Y12.475 F400.000
G1 X-6.025 Y12.656 F400.000
G1 X-6.119 Y12.681 F400.000
G1 X-6.213 Y12.669 F400.000
G1 X-6.737 Y12.400 F400.000
G1 X-6.737 Y12.400 F400.000
G1 X-6.912 Y12.250 F400.000
G1 X-7.006 Y12.131 F400.000
G1 X-7.056 Y12.000 F400.000
G0 X-7.062 Y11.931
G0 X-6.987 Y11.738
G0 X-6.019 Y10.181
G1 X-5.975 Y10.106 F400.000
G1 X-5.825 Y9.900 F400.000
G1 X-5.700 Y9.819 F400.000
G1 X-5.556 Y9.794 F400.000
G1 X-5.338 Y9.825 F400.000
G1 X-5.200 Y9.875 F400.000
G1 X-5.200 Y9.875 F400.000
G1 X-4.931 Y10.025 F400.000
G1 X-4.656 Y10.156 F400.000
G1 X-4.412 Y10.338 F400.000
G1 X-4.281 Y10.481 F400.000
G1 X-4.231 Y10.569 F400.000
G1 X-4.131 Y10.944 F400.000
G1 X-4.094 Y11.319 F400.000
G1 X-4.131 Y11.688 F400.000
G1 X-4.225 Y12.044 F400.000
G1 X-4.362 Y12.387 F400.000
G1 X-4.531 Y12.719 F400.000
G1 X-4.700 Y12.950 F400.000
G1 X-4.838 Y13.088 F400.000
G1 X-4.919 Y13.137 F400.000
G1 X-5.013 Y13.169 F400.000
G1 X-5.106 Y13.156 F400.000
G1 X-5.388 Y13.056 F400.000
G1 X-5.562 Y12.975 F400.000
G1 X-5.562 Y12.975 F400.000
G1 X-5.750 Y12.844 F400.000
G1 X-5.850 Y12.731 F400.000
G1 X-5.912 Y12.600 F400.000
G0 X-5.925 Y12.537
G0 X-5.869 Y12.331
G0 X-5.050 Y10.713
G1 X-5.013 Y10.637 F400.000
G1 X-4.875 Y10.419 F400.000
G1 X-4.756 Y10.325 F400.000
G1 X-4.619 Y10.287 F400.000
G1 X-4.250 Y10.325 F400.000
G1 X-4.250 Y10.325 F400.000
G1 X-4.162 Y10.375 F400.000
G1 X-3.788 Y10.525 F400.000
G1 X-3.462 Y10.750 F400.000
G1 X-3.337 Y10.900 F400.000
G1 X-3.169 Y11.363 F400.000
G1 X-3.138 Y11.550 F400.000
G1 X-3.112 Y11.919 F400.000
G1 X-3.150 Y12.287 F400.000
G1 X-3.244 Y12.650 F400.000
G1 X-3.462 Y13.150 F400.000
G1 X-3.688 Y13.463 F400.000
G1 X-3.763 Y13.519 F400.000
G1 X-3.850 Y13.556 F400.000
G1 X-3.944 Y13.544 F400.000
G1 X-4.412 Y13.406 F400.000
G1 X-4.412 Y13.406 F400.000
G1 X-4.606 Y13.294 F400.000
G1 X-4.719 Y13.194 F400.000
G1 X-4.800 Y13.075 F400.000
G0 X-4.812 Y13.006
G0 X-4.756 Y12.731
G0 X-4.150 Y11.081
G1 X-4.119 Y11.000 F400.000
G1 X-4.013 Y10.769 F400.000
G1 X-3.906 Y10.662 F400.000
G1 X-3.775 Y10.613 F400.000
G1 X-3.550 Y10.606 F400.000
G1 X-3.406 Y10.631 F400.000
G1 X-3.406 Y10.631 F400.000
G1 X-2.825 Y10.825 F400.000
G1 X-2.562 Y10.975 F400.000
G1 X-2.419 Y11.113 F400.000
G1 X-2.269 Y11.363 F400.000
G1 X-2.144 Y11.738 F400.000
G1 X-2.094 Y12.200 F400.000
G1 X-2.106 Y12.569 F400.000
G1 X-2.163 Y12.938 F400.000
G1 X-2.350 Y13.469 F400.000
G1 X-2.500 Y13.719 F400.000
G1 X-2.562 Y13.794 F400.000
G1 X-2.644 Y13.844 F400.000
G1 X-2.737 Y13.856 F400.000
G1 X-3.206 Y13.756 F400.000
G1 X-3.206 Y13.756 F400.000
G1 X-3.469 Y13.600 F400.000
G1 X-3.575 Y13.494 F400.000
G1 X-3.612 Y13.431 F400.000
G0 X-3.631 Y13.369
G0 X-3.612 Y13.081
G0 X-3.219 Y11.394
G1 X-3.200 Y11.312 F400.000
G1 X-3.125 Y11.069 F400.000
G1 X-3.031 Y10.956 F400.000
G1 X-2.900 Y10.894 F400.000
G1 X-2.538 Y10.869 F400.000
G1 X-2.538 Y10.869 F400.000
G1 X-2.444 Y10.906 F400.000
G1 X-1.844 Y11.050 F400.000
G1 X-1.575 Y11.181 F400.000
G1 X-1.431 Y11.319 F400.000
G1 X-1.250 Y11.669 F400.000
G1 X-1.163 Y11.950 F400.000
G1 X-1.094 Y12.319 F400.000
G1 X-1.069 Y12.688 F400.000
G1 X-1.094 Y13.056 F400.000
G1 X-1.169 Y13.419 F400.000
G1 X-1.394 Y13.938 F400.000
G1 X-1.462 Y14.000 F400.000
G1 X-1.550 Y14.037 F400.000
G1 X-2.019 Y13.969 F400.000
G1 X-2.019 Y13.969 F400.000
G1 X-2.231 Y13.894 F400.000
G1 X-2.362 Y13.819 F400.000
G1 X-2.462 Y13.719 F400.000
G0 X-2.487 Y13.656
G0 X-2.500 Y13.369
G0 X-2.281 Y11.619
G1 X-2.269 Y11.531 F400.000
G1 X-2.219 Y11.281 F400.000
G1 X-2.138 Y11.162 F400.000
G1 X-2.019 Y11.088 F400.000
G1 X-1.800 Y11.037 F400.000
G1 X-1.656 Y11.037 F400.000
G1 X-1.656 Y11.037 F400.000
G1 X-1.056 Y11.144 F400.000
G1 X-0.769 Y11.256 F400.000
G1 X-0.681 Y11.306 F400.000
G1 X-0.544 Y11.450 F400.000
G1 X-0.263 Y11.969 F400.000
G1 X-0.138 Y12.319 F400.000
G1 X-0.062 Y12.681 F400.000
G1 X-0.037 Y13.050 F400.000
G1 X-0.069 Y13.419 F400.000
G1 X-0.219 Y13.875 F400.000
G1 X-0.263 Y13.963 F400.000
G1 X-0.325 Y14.037 F400.000
G1 X-0.400 Y14.094 F400.000
G1 X-0.494 Y14.106 F400.000
G1 X-0.869 Y14.094 F400.000
G1 X-0.869 Y14.094 F400.000
G1 X-1.081 Y14.031 F400.000
G1 X-1.219 Y13.963 F400.000
G1 X-1.325 Y13.869 F400.000
G0 X-1.356 Y13.806
G0 X-1.387 Y13.519
G0 X-1.331 Y11.762
G1 X-1.331 Y11.675 F400.000
G1 X-1.306 Y11.425 F400.000
G1 X-1.231 Y11.294 F400.000
G1 X-1.119 Y11.213 F400.000
G1 X-0.906 Y11.150 F400.000
G1 X-0.762 Y11.137 F400.000
G1 X-0.762 Y11.137 F400.000
G1 X-0.163 Y11.200 F400.000
G1 X0.119 Y11.281 F400.000
G1 X0.287 Y11.381 F400.000
G1 X0.537 Y11.669 F400.000
G1 X0.725 Y12.006 F400.000
G1 X0.887 Y12.338 F400.000
G1 X0.981 Y12.700 F400.000
G1 X1.019 Y13.069 F400.000
G1 X1.006 Y13.400 F400.000
G1 X0.944 Y13.681 F400.000
G1 X0.831 Y13.956 F400.000
G1 X0.769 Y14.031 F400.000
G1 X0.688 Y14.094 F400.000
G1 X0.188 Y14.113 F400.000
G1 X0.188 Y14.113 F400.000
G1 X-0.037 Y14.069 F400.000
G1 X-0.175 Y14.006 F400.000
G1 X-0.287 Y13.919 F400.000
G0 X-0.325 Y13.863
G0 X-0.375 Y13.575
G0 X-0.400 Y11.825
G1 X-0.406 Y11.738 F400.000
G1 X-0.394 Y11.481 F400.000
G1 X-0.325 Y11.356 F400.000
G1 X-0.219 Y11.262 F400.000
G1 X-0.013 Y11.188 F400.000
G1 X0.131 Y11.162 F400.000
G1 X0.131 Y11.162 F400.000
G1 X0.787 Y11.162 F400.000
G1 X0.975 Y11.194 F400.000
G1 X1.156 Y11.262 F400.000
G1 X1.306 Y11.375 F400.000
G1 X1.506 Y11.588 F400.000
G1 X1.719 Y11.906 F400.000
G1 X1.900 Y12.231 F400.000
G1 X2.006 Y12.588 F400.000
G1 X2.069 Y12.956 F400.000
G1 X2.081 Y13.300 F400.000
G1 X2.013 Y13.675 F400.000
G1 X1.950 Y13.863 F400.000
G1 X1.887 Y13.938 F400.000
G1 X1.812 Y14.000 F400.000
G1 X1.413 Y14.050 F400.000
G1 X1.413 Y14.050 F400.000
G1 X1.175 Y14.025 F400.000
G1 X1.025 Y13.975 F400.000
G1 X0.900 Y13.900 F400.000
G0 X0.856 Y13.844
G0 X0.769 Y13.569
G0 X0.525 Y11.819
G1 X0.512 Y11.731 F400.000
G1 X0.500 Y11.475 F400.000
G1 X0.519 Y11.406 F400.000
G1 X0.606 Y11.287 F400.000
G1 X0.731 Y11.206 F400.000
G1 X1.031 Y11.113 F400.000
G1 X1.031 Y11.113 F400.000
G1 X1.688 Y11.062 F400.000
G1 X1.969 Y11.100 F400.000
G1 X2.150 Y11.175 F400.000
G1 X2.300 Y11.287 F400.000
G1 X2.675 Y11.725 F400.000
G1 X2.862 Y12.044 F400.000
G1 X3.013 Y12.381 F400.000
G1 X3.100 Y12.744 F400.000
G1 X3.144 Y13.088 F400.000
G1 X3.138 Y13.369 F400.000
G1 X3.069 Y13.650 F400.000
G1 X2.938 Y13.800 F400.000
G1 X2.638 Y13.875 F400.000
G1 X2.638 Y13.875 F400.000
G1 X2.400 Y13.869 F400.000
G1 X2.181 Y13.806 F400.000
G1 X2.119 Y13.762 F400.000
G0 X2.069 Y13.713
G0 X1.950 Y13.450
G0 X1.500 Y11.738
G1 X1.475 Y11.656 F400.000
G1 X1.431 Y11.406 F400.000
G1 X1.444 Y11.331 F400.000
G1 X1.512 Y11.206 F400.000
G1 X1.631 Y11.113 F400.000
G1 X1.919 Y10.994 F400.000
G1 X1.919 Y10.994 F400.000
G1 X2.106 Y10.975 F400.000
G1 X2.575 Y10.881 F400.000
G1 X2.763 Y10.875 F400.000
G1 X2.950 Y10.906 F400.000
G1 X3.200 Y11.031 F400.000
G1 X3.487 Y11.287 F400.000
G1 X3.837 Y11.731 F400.000
G1 X4.006 Y12.062 F400.000
G1 X4.131 Y12.412 F400.000
G1 X4.200 Y12.775 F400.000
G1 X4.206 Y13.150 F400.000
G1 X4.175 Y13.338 F400.000
G1 X4.138 Y13.425 F400.000
G1 X4.075 Y13.506 F400.000
G1 X3.681 Y13.619 F400.000
G1 X3.681 Y13.619 F400.000
G1 X3.444 Y13.637 F400.000
G1 X3.288 Y13.625 F400.000
G1 X3.150 Y13.569 F400.000
G0 X3.100 Y13.525
G0 X2.969 Y13.262
G0 X2.425 Y11.575
G1 X2.400 Y11.494 F400.000
G1 X2.344 Y11.244 F400.000
G1 X2.350 Y11.169 F400.000
G1 X2.413 Y11.044 F400.000
G1 X2.525 Y10.938 F400.000
G1 X2.800 Y10.800 F400.000
G1 X2.800 Y10.800 F400.000
G1 X3.644 Y10.606 F400.000
G1 X3.831 Y10.613 F400.000
G1 X3.925 Y10.631 F400.000
G1 X4.331 Y10.881 F400.000
G1 X4.544 Y11.075 F400.000
G1 X4.794 Y11.350 F400.000
G1 X4.987 Y11.662 F400.000
G1 X5.144 Y12.000 F400.000
G1 X5.250 Y12.350 F400.000
G1 X5.294 Y12.819 F400.000
G1 X5.269 Y13.006 F400.000
G1 X5.219 Y13.094 F400.000
G1 X5.138 Y13.150 F400.000
G1 X4.662 Y13.319 F400.000
G1 X4.662 Y13.319 F400.000
G1 X4.431 Y13.356 F400.000
G1 X4.275 Y13.356 F400.000
G1 X4.138 Y13.312 F400.000
G0 X4.088 Y13.269
G0 X3.987 Y13.088
G0 X3.475 Y11.331
G1 X3.450 Y11.250 F400.000
G1 X3.400 Y11.000 F400.000
G1 X3.425 Y10.850 F400.000
G1 X3.500 Y10.719 F400.000
G1 X3.669 Y10.569 F400.000
G1 X3.800 Y10.488 F400.000
G1 X3.800 Y10.488 F400.000
G1 X4.450 Y10.294 F400.000
G1 X4.638 Y10.275 F400.000
G1 X4.825 Y10.300 F400.000
G1 X5.250 Y10.525 F400.000
G1 X5.481 Y10.694 F400.000
G1 X5.737 Y10.963 F400.000
G1 X5.956 Y11.262 F400.000
G1 X6.131 Y11.588 F400.000
G1 X6.263 Y11.938 F400.000
G1 X6.331 Y12.406 F400.000
G1 X6.331 Y12.500 F400.000
G1 X6.300 Y12.594 F400.000
G1 X6.231 Y12.662 F400.000
G1 X6.050 Y12.750 F400.000
G1 X6.050 Y12.750 F400.000
G1 X5.825 Y12.806 F400.000
G1 X5.669 Y12.819 F400.000
G1 X5.525 Y12.787 F400.000
G0 X5.463 Y12.750
G0 X5.287 Y12.519
G0 X4.419 Y10.975
G1 X4.381 Y10.900 F400.000
G1 X4.275 Y10.669 F400.000
G1 X4.269 Y10.594 F400.000
G1 X4.306 Y10.456 F400.000
G1 X4.388 Y10.338 F400.000
G1 X4.631 Y10.150 F400.000
G1 X4.631 Y10.150 F400.000
G1 X5.269 Y9.900 F400.000
G1 X5.456 Y9.856 F400.000
G1 X5.644 Y9.856 F400.000
G1 X5.919 Y9.950 F400.000
G1 X6.256 Y10.137 F400.000
G1 X6.619 Y10.425 F400.000
G1 X6.862 Y10.706 F400.000
G1 X7.069 Y11.019 F400.000
G1 X7.231 Y11.350 F400.000
G1 X7.331 Y11.725 F400.000
G1 X7.356 Y11.912 F400.000
G1 X7.331 Y12.006 F400.000
G1 X7.287 Y12.094 F400.000
G1 X6.844 Y12.338 F400.000
G1 X6.844 Y12.338 F400.000
G1 X6.619 Y12.412 F400.000
G1 X6.469 Y12.438 F400.000
G1 X6.325 Y12.412 F400.000
G0 X6.269 Y12.381
G0 X6.131 Y12.219
G0 X5.263 Y10.606
G1 X5.225 Y10.531 F400.000
G1 X5.119 Y10.300 F400.000
G1 X5.119 Y10.150 F400.000
G1 X5.169 Y10.012 F400.000
G1 X5.319 Y9.838 F400.000
G1 X5.438 Y9.744 F400.000
G1 X5.438 Y9.744 F400.000
G1 X6.050 Y9.431 F400.000
G1 X6.331 Y9.356 F400.000
G1 X6.425 Y9.350 F400.000
G1 X6.881 Y9.475 F400.000
G1 X7.219 Y9.650 F400.000
G1 X7.513 Y9.881 F400.000
G1 X7.769 Y10.150 F400.000
G1 X7.994 Y10.444 F400.000
G1 X8.213 Y10.850 F400.000
G1 X8.312 Y11.219 F400.000
G1 X8.312 Y11.312 F400.000
G1 X8.287 Y11.406 F400.000
G1 X8.219 Y11.481 F400.000
G1 X8.050 Y11.594 F400.000
G1 X8.050 Y11.594 F400.000
G1 X7.838 Y11.688 F400.000
G1 X7.688 Y11.719 F400.000
G1 X7.537 Y11.706 F400.000
G0 X7.475 Y11.681
G0 X7.256 Y11.488
G0 X6.131 Y10.119
G1 X6.081 Y10.050 F400.000
G1 X5.938 Y9.844 F400.000
G1 X5.919 Y9.769 F400.000
G1 X5.931 Y9.631 F400.000
G1 X5.994 Y9.500 F400.000
G1 X6.206 Y9.275 F400.000
G1 X6.206 Y9.275 F400.000
G1 X6.794 Y8.906 F400.000
G1 X7.069 Y8.800 F400.000
G1 X7.162 Y8.781 F400.000
G1 X7.256 Y8.781 F400.000
G1 X7.719 Y8.900 F400.000
G1 X7.981 Y9.019 F400.000
G1 X8.300 Y9.206 F400.000
G1 X8.581 Y9.450 F400.000
G1 X8.825 Y9.725 F400.000
G1 X9.037 Y10.025 F400.000
G1 X9.194 Y10.375 F400.000
G1 X9.231 Y10.562 F400.000
G1 X9.213 Y10.656 F400.000
G1 X9.162 Y10.744 F400.000
G1 X8.769 Y11.056 F400.000
G1 X8.769 Y11.056 F400.000
G1 X8.562 Y11.169 F400.000
G1 X8.412 Y11.213 F400.000
G1 X8.269 Y11.213 F400.000
G0 X8.206 Y11.188
G0 X7.994 Y11.000
G0 X6.906 Y9.619
G1 X6.850 Y9.550 F400.000
G1 X6.713 Y9.338 F400.000
G1 X6.681 Y9.194 F400.000
G1 X6.713 Y9.050 F400.000
G1 X6.831 Y8.856 F400.000
G1 X6.931 Y8.744 F400.000
G1 X6.931 Y8.744 F400.000
G1 X7.487 Y8.331 F400.000
G1 X7.750 Y8.200 F400.000
G1 X7.844 Y8.169 F400.000
G1 X8.125 Y8.162 F400.000
G1 X8.406 Y8.219 F400.000
G1 X8.681 Y8.312 F400.000
G1 X9.019 Y8.463 F400.000
G1 X9.325 Y8.675 F400.000
G1 X9.600 Y8.925 F400.000
G1 X9.819 Y9.194 F400.000
G1 X10.081 Y9.700 F400.000
G1 X10.088 Y9.794 F400.000
G1 X10.062 Y9.887 F400.000
G1 X9.650 Y10.312 F400.000
G1 X9.650 Y10.312 F400.000
G1 X9.450 Y10.431 F400.000
G1 X9.300 Y10.481 F400.000
G1 X9.156 Y10.494 F400.000
G0 X9.094 Y10.469
G0 X8.931 Y10.344
G0 X7.763 Y8.956
G1 X7.706 Y8.887 F400.000
G1 X7.556 Y8.681 F400.000
G1 X7.519 Y8.531 F400.000
G1 X7.537 Y8.387 F400.000
G1 X7.631 Y8.181 F400.000
G1 X7.725 Y8.062 F400.000
G1 X7.725 Y8.062 F400.000
G1 X8.156 Y7.650 F400.000
G1 X8.406 Y7.500 F400.000
G1 X8.588 Y7.438 F400.000
G1 X8.963 Y7.431 F400.000
G1 X9.244 Y7.487 F400.000
G1 X9.681 Y7.662 F400.000
G1 X10.006 Y7.844 F400.000
G1 X10.300 Y8.069 F400.000
G1 X10.625 Y8.406 F400.000
G1 X10.787 Y8.644 F400.000
G1 X10.869 Y8.819 F400.000
G1 X10.875 Y8.912 F400.000
G1 X10.863 Y9.006 F400.000
G1 X10.475 Y9.456 F400.000
G1 X10.475 Y9.456 F400.000
G1 X10.294 Y9.600 F400.000
G1 X10.156 Y9.669 F400.000
G1 X10.012 Y9.694 F400.000
G0 X9.944 Y9.681
G0 X9.769 Y9.569
G0 X8.463 Y8.287
G1 X8.400 Y8.225 F400.000
G1 X8.231 Y8.031 F400.000
G1 X8.181 Y7.894 F400.000
G1 X8.188 Y7.750 F400.000
G1 X8.262 Y7.537 F400.000
G1 X8.344 Y7.406 F400.000
G1 X8.344 Y7.406 F400.000
G1 X8.738 Y6.969 F400.000
G1 X8.969 Y6.787 F400.000
G1 X9.144 Y6.694 F400.000
G1 X9.519 Y6.644 F400.000
G1 X9.894 Y6.681 F400.000
G1 X10.344 Y6.819 F400.000
G1 X10.675 Y6.981 F400.000
G1 X10.981 Y7.188 F400.000
G1 X11.319 Y7.500 F400.000
G1 X11.544 Y7.812 F400.000
G1 X11.588 Y7.900 F400.000
G1 X11.600 Y7.994 F400.000
G1 X11.575 Y8.088 F400.000
G1 X11.281 Y8.488 F400.000
G1 X11.281 Y8.488 F400.000
G1 X11.113 Y8.644 F400.000
G1 X10.981 Y8.725 F400.000
G1 X10.844 Y8.762 F400.000
G0 X10.775 Y8.762
G0 X10.581 Y8.669
G0 X9.100 Y7.556
G1 X9.031 Y7.506 F400.000
G1 X8.844 Y7.331 F400.000
G1 X8.781 Y7.200 F400.000
G1 X8.775 Y7.056 F400.000
G1 X8.844 Y6.850 F400.000
G1 X8.919 Y6.719 F400.000
G1 X8.919 Y6.719 F400.000
G1 X9.406 Y6.088 F400.000
G1 X9.637 Y5.900 F400.000
G1 X9.912 Y5.819 F400.000
G1 X10.287 Y5.794 F400.000
G1 X10.475 Y5.812 F400.000
G1 X10.838 Y5.888 F400.000
G1 X11.181 Y6.019 F400.000
G1 X11.506 Y6.194 F400.000
G1 X11.812 Y6.406 F400.000
G1 X12.137 Y6.750 F400.000
G1 X12.194 Y6.825 F400.000
G1 X12.225 Y6.919 F400.000
G1 X12.238 Y7.013 F400.000
G1 X11.988 Y7.444 F400.000
G1 X11.988 Y7.444 F400.000
G1 X11.831 Y7.619 F400.000
G1 X11.706 Y7.706 F400.000
G1 X11.569 Y7.756 F400.000
G0 X11.500 Y7.756
G0 X11.306 Y7.681
G0 X9.762 Y6.669
G1 X9.688 Y6.625 F400.000
G1 X9.488 Y6.469 F400.000
G1 X9.412 Y6.344 F400.000
G1 X9.394 Y6.200 F400.000
G1 X9.444 Y5.981 F400.000
G1 X9.506 Y5.844 F400.000
G1 X9.506 Y5.844 F400.000
G1 X9.844 Y5.338 F400.000
G1 X10.050 Y5.119 F400.000
G1 X10.219 Y5.019 F400.000
G1 X10.688 Y4.919 F400.000
G1 X10.969 Y4.906 F400.000
G1 X11.338 Y4.944 F400.000
G1 X11.694 Y5.050 F400.000
G1 X12.031 Y5.206 F400.000
G1 X12.325 Y5.381 F400.000
G1 X12.550 Y5.556 F400.000
G1 X12.744 Y5.775 F400.000
G1 X12.794 Y5.963 F400.000
G1 X12.625 Y6.319 F400.000
G1 X12.625 Y6.319 F400.000
G1 X12.475 Y6.494 F400.000
G1 X12.356 Y6.594 F400.000
G1 X12.219 Y6.650 F400.000
G0 X12.150 Y6.656
G0 X11.875 Y6.575
G0 X10.269 Y5.838
G1 X10.188 Y5.800 F400.000
G1 X9.969 Y5.675 F400.000
G1 X9.912 Y5.619 F400.000
G1 X9.863 Y5.487 F400.000
G1 X9.863 Y5.344 F400.000
G1 X9.950 Y5.062 F400.000
G1 X9.950 Y5.062 F400.000
G1 X10.231 Y4.519 F400.000
G1 X10.406 Y4.275 F400.000
G1 X10.550 Y4.138 F400.000
G1 X10.637 Y4.088 F400.000
G1 X11.012 Y3.975 F400.000
G1 X11.294 Y3.944 F400.000
G1 X11.662 Y3.944 F400.000
G1 X12.025 Y4.013 F400.000
G1 X12.375 Y4.131 F400.000
G1 X12.856 Y4.381 F400.000
G1 X13.081 Y4.550 F400.000
G1 X13.213 Y4.688 F400.000
G1 X13.250 Y4.775 F400.000
G1 X13.244 Y4.869 F400.000
G1 X13.037 Y5.431 F400.000
G1 X13.037 Y5.431 F400.000
G1 X12.912 Y5.619 F400.000
G1 X12.806 Y5.731 F400.000
G1 X12.688 Y5.800 F400.000
G0 X12.619 Y5.812
G0 X12.488 Y5.781
G0 X10.775 Y4.894
G1 X10.700 Y4.856 F400.000
G1 X10.481 Y4.725 F400.000
G1 X10.387 Y4.606 F400.000
G1 X10.344 Y4.469 F400.000
G1 X10.344 Y4.250 F400.000
G1 X10.381 Y4.106 F400.000
G1 X10.381 Y4.106 F400.000
G1 X10.575 Y3.638 F400.000
G1 X10.731 Y3.381 F400.000
G1 X10.863 Y3.237 F400.000
G1 X11.119 Y3.094 F400.000
G1 X11.588 Y2.969 F400.000
G1 X12.050 Y2.950 F400.000
G1 X12.419 Y2.994 F400.000
G1 X12.775 Y3.087 F400.000
G1 X13.287 Y3.312 F400.000
G1 X13.525 Y3.475 F400.000
G1 X13.581 Y3.550 F400.000
G1 X13.613 Y3.638 F400.000
G1 X13.606 Y3.731 F400.000
G1 X13.475 Y4.200 F400.000
G1 X13.475 Y4.200 F400.000
G1 X13.369 Y4.400 F400.000
G1 X13.269 Y4.513 F400.000
G1 X13.150 Y4.594 F400.000
G0 X13.081 Y4.612
G0 X12.875 Y4.581
G0 X11.137 Y3.994
G1 X11.056 Y3.962 F400.000
G1 X10.825 Y3.862 F400.000
G1 X10.719 Y3.756 F400.000
G1 X10.669 Y3.625 F400.000
G1 X10.656 Y3.400 F400.000
G1 X10.681 Y3.256 F400.000
G1 X10.681 Y3.256 F400.000
G1 X10.869 Y2.669 F400.000
G1 X11.019 Y2.406 F400.000
G1 X11.081 Y2.325 F400.000
G1 X11.325 Y2.156 F400.000
G1 X11.688 Y2.013 F400.000
G1 X11.875 Y1.962 F400.000
G1 X12.244 Y1.919 F400.000
G1 X12.613 Y1.925 F400.000
G1 X12.981 Y1.981 F400.000
G1 X13.338 Y2.081 F400.000
G1 X13.600 Y2.188 F400.000
G1 X13.762 Y2.288 F400.000
G1 X13.831 Y2.350 F400.000
G1 X13.881 Y2.431 F400.000
G1 X13.894 Y2.525 F400.000
G1 X13.794 Y2.994 F400.000
G1 X13.794 Y2.994 F400.000
G1 X13.700 Y3.206 F400.000
G1 X13.606 Y3.331 F400.000
G1 X13.494 Y3.419 F400.000
G0 X13.431 Y3.438
G0 X13.144 Y3.425
G0 X11.431 Y3.062
G1 X11.350 Y3.044 F400.000
G1 X11.106 Y2.975 F400.000
G1 X10.994 Y2.881 F400.000
G1 X10.931 Y2.750 F400.000
G1 X10.906 Y2.388 F400.000
G1 X10.906 Y2.388 F400.000
G1 X10.938 Y2.288 F400.000
G1 X11.031 Y1.788 F400.000
G1 X11.144 Y1.500 F400.000
G1 X11.256 Y1.337 F400.000
G1 X11.506 Y1.169 F400.000
G1 X11.869 Y1.025 F400.000
G1 X12.325 Y0.912 F400.000
G1 X12.694 Y0.875 F400.000
G1 X13.062 Y0.894 F400.000
G1 X13.431 Y0.956 F400.000
G1 X13.950 Y1.188 F400.000
G1 X14.012 Y1.262 F400.000
G1 X14.044 Y1.350 F400.000
G1 X14.006 Y1.819 F400.000
G1 X14.006 Y1.819 F400.000
G1 X13.938 Y2.031 F400.000
G1 X13.869 Y2.169 F400.000
G1 X13.769 Y2.269 F400.000
G0 X13.706 Y2.300
G0 X13.500 Y2.306
G0 X11.631 Y2.000
G1 X11.550 Y1.981 F400.000
G1 X11.375 Y1.944 F400.000
G1 X11.294 Y1.906 F400.000
G1 X11.225 Y1.850 F400.000
G1 X11.131 Y1.719 F400.000
G1 X11.088 Y1.569 F400.000
G1 X11.081 Y1.350 F400.000
G1 X11.081 Y1.350 F400.000
G1 X11.162 Y0.850 F400.000
G1 X11.231 Y0.656 F400.000
G1 X11.338 Y0.487 F400.000
G1 X11.650 Y0.250 F400.000
G1 X12.006 Y0.075 F400.000
G1 X12.350 Y-0.056 F400.000
G1 X12.713 Y-0.131 F400.000
G1 X13.081 Y-0.150 F400.000
G1 X13.450 Y-0.125 F400.000
G1 X13.825 Y-0.006 F400.000
G1 X14.000 Y0.081 F400.000
G1 X14.069 Y0.150 F400.000
G1 X14.113 Y0.231 F400.000
G1 X14.100 Y0.700 F400.000
G1 X14.100 Y0.700 F400.000
G1 X14.044 Y0.912 F400.000
G1 X13.931 Y1.113 F400.000
G1 X13.881 Y1.156 F400.000
G0 X13.825 Y1.194
G0 X13.537 Y1.225
G0 X11.762 Y1.175
G1 X11.675 Y1.175 F400.000
G1 X11.500 Y1.156 F400.000
G1 X11.412 Y1.131 F400.000
G1 X11.338 Y1.087 F400.000
G1 X11.231 Y0.969 F400.000
G1 X11.175 Y0.825 F400.000
G1 X11.144 Y0.606 F400.000
G1 X11.144 Y0.606 F400.000
G1 X11.225 Y-0.087 F400.000
G1 X11.275 Y-0.275 F400.000
G1 X11.369 Y-0.444 F400.000
G1 X11.731 Y-0.756 F400.000
G1 X11.975 Y-0.900 F400.000
G1 X12.306 Y-1.062 F400.000
G1 X12.662 Y-1.163 F400.000
G1 X13.031 Y-1.212 F400.000
G1 X13.381 Y-1.206 F400.000
G1 X13.756 Y-1.119 F400.000
G1 X13.938 Y-1.044 F400.000
G1 X14.019 Y-0.981 F400.000
G1 X14.081 Y-0.900 F400.000
G1 X14.100 Y-0.500 F400.000
G1 X14.100 Y-0.500 F400.000
G1 X14.075 Y-0.263 F400.000
G1 X14.025 Y-0.119 F400.000
G1 X13.938 Y0.000 F400.000
G0 X13.881 Y0.031
G0 X13.606 Y0.094
G0 X11.863 Y0.219
G1 X11.775 Y0.225 F400.000
G1 X11.519 Y0.225 F400.000
G1 X11.387 Y0.169 F400.000
G1 X11.287 Y0.062 F400.000
G1 X11.194 Y-0.138 F400.000
G1 X11.162 Y-0.287 F400.000
G1 X11.162 Y-0.287 F400.000
G1 X11.162 Y-0.944 F400.000
G1 X11.219 Y-1.225 F400.000
G1 X11.250 Y-1.312 F400.000
G1 X11.481 Y-1.606 F400.000
G1 X11.869 Y-1.887 F400.000
G1 X12.200 Y-2.056 F400.000
G1 X12.550 Y-2.175 F400.000
G1 X12.912 Y-2.244 F400.000
G1 X13.275 Y-2.281 F400.000
G1 X13.556 Y-2.244 F400.000
G1 X13.838 Y-2.156 F400.000
G1 X13.912 Y-2.094 F400.000
G1 X13.969 Y-2.013 F400.000
G1 X14.025 Y-1.613 F400.000
G1 X14.025 Y-1.613 F400.000
G1 X14.006 Y-1.375 F400.000
G1 X13.963 Y-1.225 F400.000
G1 X13.887 Y-1.100 F400.000
G0 X13.831 Y-1.056
G0 X13.556 Y-0.969
G0 X11.825 Y-0.700
G1 X11.744 Y-0.688 F400.000
G1 X11.488 Y-0.675 F400.000
G1 X11.412 Y-0.694 F400.000
G1 X11.294 Y-0.775 F400.000
G1 X11.206 Y-0.894 F400.000
G1 X11.100 Y-1.188 F400.000
G1 X11.100 Y-1.188 F400.000
G1 X11.037 Y-1.750 F400.000
G1 X11.050 Y-2.031 F400.000
G1 X11.094 Y-2.219 F400.000
G1 X11.131 Y-2.306 F400.000
G1 X11.375 Y-2.600 F400.000
G1 X11.681 Y-2.844 F400.000
G1 X11.988 Y-3.050 F400.000
G1 X12.331 Y-3.194 F400.000
G1 X12.688 Y-3.294 F400.000
G1 X13.056 Y-3.344 F400.000
G1 X13.338 Y-3.331 F400.000
G1 X13.619 Y-3.263 F400.000
G1 X13.694 Y-3.200 F400.000
G1 X13.756 Y-3.125 F400.000
G1 X13.875 Y-2.625 F400.000
G1 X13.875 Y-2.625 F400.000
G1 X13.869 Y-2.388 F400.000
G1 X13.831 Y-2.237 F400.000
G1 X13.762 Y-2.106 F400.000
G0 X13.713 Y-2.062
G0 X13.512 Y-1.975
G0 X11.700 Y-1.619
G1 X11.613 Y-1.600 F400.000
G1 X11.363 Y-1.575 F400.000
G1 X11.287 Y-1.587 F400.000
G1 X11.162 Y-1.663 F400.000
G1 X11.075 Y-1.781 F400.000
G1 X10.969 Y-2.075 F400.000
G1 X10.969 Y-2.075 F400.000
G1 X10.844 Y-2.731 F400.000
G1 X10.844 Y-3.013 F400.000
G1 X10.894 Y-3.200 F400.000
G1 X11.106 Y-3.513 F400.000
G1 X11.387 Y-3.775 F400.000
G1 X11.688 Y-3.994 F400.000
G1 X12.012 Y-4.169 F400.000
G1 X12.356 Y-4.306 F400.000
G1 X12.719 Y-4.388 F400.000
G1 X13.188 Y-4.388 F400.000
G1 X13.281 Y-4.375 F400.000
G1 X13.369 Y-4.338 F400.000
G1 X13.444 Y-4.275 F400.000
G1 X13.569 Y-3.881 F400.000
G1 X13.569 Y-3.881 F400.000
G1 X13.588 Y-3.644 F400.000
G1 X13.562 Y-3.487 F400.000
G1 X13.506 Y-3.356 F400.000
G0 X13.463 Y-3.300
G0 X13.275 Y-3.206
G0 X11.512 Y-2.712
G1 X11.431 Y-2.688 F400.000
G1 X11.181 Y-2.644 F400.000
G1 X11.037 Y-2.675 F400.000
G1 X10.919 Y-2.763 F400.000
G1 X10.787 Y-2.956 F400.000
G1 X10.725 Y-3.100 F400.000
G1 X10.725 Y-3.100 F400.000
G1 X10.581 Y-3.663 F400.000
G1 X10.562 Y-3.850 F400.000
G1 X10.588 Y-4.037 F400.000
G1 X10.769 Y-4.375 F400.000
G1 X11.075 Y-4.737 F400.000
G1 X11.356 Y-4.975 F400.000
G1 X11.669 Y-5.175 F400.000
G1 X12.006 Y-5.325 F400.000
G1 X12.363 Y-5.425 F400.000
G1 X12.831 Y-5.463 F400.000
G1 X12.925 Y-5.450 F400.000
G1 X13.012 Y-5.400 F400.000
G1 X13.075 Y-5.325 F400.000
G1 X13.188 Y-5.044 F400.000
G1 X13.188 Y-5.044 F400.000
G1 X13.225 Y-4.812 F400.000
G1 X13.225 Y-4.656 F400.000
G1 X13.181 Y-4.519 F400.000
G0 X13.137 Y-4.463
G0 X12.894 Y-4.312
G0 X11.256 Y-3.650
G1 X11.175 Y-3.619 F400.000
G1 X10.931 Y-3.544 F400.000
G1 X10.856 Y-3.544 F400.000
G1 X10.719 Y-3.594 F400.000
G1 X10.606 Y-3.694 F400.000
G1 X10.444 Y-3.950 F400.000
G1 X10.444 Y-3.950 F400.000
G1 X10.250 Y-4.500 F400.000
G1 X10.206 Y-4.781 F400.000
G1 X10.206 Y-4.875 F400.000
G1 X10.225 Y-4.969 F400.000
G1 X10.344 Y-5.231 F400.000
G1 X10.631 Y-5.619 F400.000
G1 X10.887 Y-5.888 F400.000
G1 X11.188 Y-6.106 F400.000
G1 X11.512 Y-6.287 F400.000
G1 X11.856 Y-6.425 F400.000
G1 X12.325 Y-6.500 F400.000
G1 X12.419 Y-6.500 F400.000
G1 X12.512 Y-6.469 F400.000
G1 X12.581 Y-6.400 F400.000
G1 X12.800 Y-5.950 F400.000
G1 X12.800 Y-5.950 F400.000
G1 X12.863 Y-5.725 F400.000
G1 X12.875 Y-5.569 F400.000
G1 X12.844 Y-5.425 F400.000
G0 X12.806 Y-5.369
G0 X12.637 Y-5.250
G0 X10.956 Y-4.544
G1 X10.875 Y-4.513 F400.000
G1 X10.631 Y-4.431 F400.000
G1 X10.481 Y-4.438 F400.000
G1 X10.350 Y-4.500 F400.000
G1 X10.081 Y-4.775 F400.000
G1 X10.081 Y-4.775 F400.000
G1 X9.875 Y-5.225 F400.000
G1 X9.769 Y-5.600 F400.000
G1 X9.769 Y-5.787 F400.000
G1 X9.956 Y-6.231 F400.000
G1 X10.119 Y-6.469 F400.000
G1 X10.356 Y-6.750 F400.000
G1 X10.631 Y-6.994 F400.000
G1 X10.938 Y-7.200 F400.000
G1 X11.269 Y-7.369 F400.000
G1 X11.637 Y-7.469 F400.000
G1 X11.825 Y-7.494 F400.000
G1 X11.919 Y-7.469 F400.000
G1 X12.006 Y-7.419 F400.000
G1 X12.225 Y-7.069 F400.000
G1 X12.225 Y-7.069 F400.000
G1 X12.300 Y-6.844 F400.000
G1 X12.325 Y-6.694 F400.000
G1 X12.300 Y-6.550 F400.000
G0 X12.269 Y-6.487
G0 X12.050 Y-6.306
G0 X10.525 Y-5.412
G1 X10.450 Y-5.369 F400.000
G1 X10.219 Y-5.256 F400.000
G1 X10.144 Y-5.244 F400.000
G1 X10.006 Y-5.275 F400.000
G1 X9.875 Y-5.350 F400.000
G1 X9.669 Y-5.575 F400.000
G1 X9.669 Y-5.575 F400.000
G1 X9.387 Y-6.094 F400.000
G1 X9.294 Y-6.375 F400.000
G1 X9.269 Y-6.562 F400.000
G1 X9.450 Y-7.112 F400.000
G1 X9.537 Y-7.275 F400.000
G1 X9.744 Y-7.588 F400.000
G1 X10.000 Y-7.856 F400.000
G1 X10.287 Y-8.088 F400.000
G1 X10.600 Y-8.281 F400.000
G1 X10.863 Y-8.387 F400.000
G1 X11.144 Y-8.456 F400.000
G1 X11.238 Y-8.444 F400.000
G1 X11.331 Y-8.406 F400.000
G1 X11.637 Y-8.000 F400.000
G1 X11.637 Y-8.000 F400.000
G1 X11.725 Y-7.781 F400.000
G1 X11.750 Y-7.631 F400.000
G1 X11.738 Y-7.487 F400.000
G0 X11.713 Y-7.425
G0 X11.500 Y-7.225
G0 X10.050 Y-6.231
G1 X9.975 Y-6.188 F400.000
G1 X9.756 Y-6.062 F400.000
G1 X9.606 Y-6.044 F400.000
G1 X9.469 Y-6.088 F400.000
G1 X9.287 Y-6.225 F400.000
G1 X9.188 Y-6.338 F400.000
G1 X9.188 Y-6.338 F400.000
G1 X8.800 Y-6.919 F400.000
G1 X8.688 Y-7.188 F400.000
G1 X8.662 Y-7.375 F400.000
G1 X8.744 Y-7.750 F400.000
G1 X8.900 Y-8.100 F400.000
G1 X9.094 Y-8.419 F400.000
G1 X9.338 Y-8.700 F400.000
G1 X9.613 Y-8.950 F400.000
G1 X9.919 Y-9.162 F400.000
G1 X10.269 Y-9.312 F400.000
G1 X10.456 Y-9.350 F400.000
G1 X10.550 Y-9.338 F400.000
G1 X10.631 Y-9.281 F400.000
G1 X10.887 Y-8.981 F400.000
G1 X10.887 Y-8.981 F400.000
G1 X11.000 Y-8.775 F400.000
G1 X11.044 Y-8.625 F400.000
G1 X11.050 Y-8.481 F400.000
G0 X11.025 Y-8.419
G0 X10.887 Y-8.262
G0 X9.431 Y-7.144
G1 X9.363 Y-7.094 F400.000
G1 X9.150 Y-6.950 F400.000
G1 X9.006 Y-6.925 F400.000
G1 X8.863 Y-6.950 F400.000
G1 X8.669 Y-7.069 F400.000
G1 X8.556 Y-7.175 F400.000
G1 X8.556 Y-7.175 F400.000
G1 X8.188 Y-7.650 F400.000
G1 X8.056 Y-7.912 F400.000
G1 X8.031 Y-8.006 F400.000
G1 X8.062 Y-8.381 F400.000
G1 X8.175 Y-8.756 F400.000
G1 X8.331 Y-9.094 F400.000
G1 X8.544 Y-9.400 F400.000
G1 X8.787 Y-9.681 F400.000
G1 X9.069 Y-9.925 F400.000
G1 X9.400 Y-10.119 F400.000
G1 X9.575 Y-10.194 F400.000
G1 X9.669 Y-10.206 F400.000
G1 X9.762 Y-10.188 F400.000
G1 X10.581 Y-9.344 F400.000
G1 X10.581 Y-9.344 F400.000
G1 X10.700 Y-9.137 F400.000
G1 X10.750 Y-8.994 F400.000
G1 X10.756 Y-8.850 F400.000
G0 X10.731 Y-8.794
G0 X10.637 Y-8.700
G0 X8.900 Y-7.806
G1 X8.825 Y-7.769 F400.000
G1 X8.588 Y-7.662 F400.000
G1 X8.431 Y-7.638 F400.000
G1 X8.281 Y-7.656 F400.000
G1 X7.944 Y-7.831 F400.000
G1 X7.944 Y-7.831 F400.000
G1 X7.487 Y-8.344 F400.000
G1 X7.381 Y-8.512 F400.000
G1 X7.319 Y-8.694 F400.000
G1 X7.319 Y-9.069 F400.000
G1 X7.412 Y-9.444 F400.000
G1 X7.544 Y-9.787 F400.000
G1 X7.725 Y-10.113 F400.000
G1 X7.950 Y-10.406 F400.000
G1 X8.281 Y-10.731 F400.000
G1 X8.688 Y-10.981 F400.000
G1 X8.781 Y-10.994 F400.000
G1 X8.875 Y-10.981 F400.000
G1 X9.694 Y-10.262 F400.000
G1 X9.694 Y-10.262 F400.000
G1 X9.825 Y-10.069 F400.000
G1 X9.881 Y-9.931 F400.000
G1 X9.894 Y-9.787 F400.000
G0 X9.875 Y-9.725
G0 X9.794 Y-9.619
G0 X8.225 Y-8.506
G1 X8.150 Y-8.456 F400.000
G1 X7.931 Y-8.319 F400.000
G1 X7.781 Y-8.281 F400.000
G1 X7.631 Y-8.287 F400.000
G1 X7.419 Y-8.369 F400.000
G1 X7.287 Y-8.450 F400.000
G1 X7.287 Y-8.450 F400.000
G1 X6.781 Y-8.925 F400.000
G1 X6.612 Y-9.169 F400.000
G1 X6.575 Y-9.262 F400.000
G1 X6.544 Y-9.637 F400.000
G1 X6.588 Y-10.012 F400.000
G1 X6.694 Y-10.369 F400.000
G1 X6.844 Y-10.706 F400.000
G1 X7.037 Y-11.025 F400.000
G1 X7.338 Y-11.381 F400.000
G1 X7.631 Y-11.619 F400.000
G1 X7.713 Y-11.669 F400.000
G1 X7.806 Y-11.688 F400.000
G1 X7.900 Y-11.688 F400.000
G1 X8.387 Y-11.363 F400.000
G1 X8.544 Y-11.244 F400.000
G1 X8.544 Y-11.244 F400.000
G1 X8.694 Y-11.069 F400.000
G1 X8.769 Y-10.938 F400.000
G1 X8.806 Y-10.794 F400.000
G0 X8.794 Y-10.731
G0 X8.694 Y-10.550
G0 X7.463 Y-9.188
G1 X7.400 Y-9.119 F400.000
G1 X7.219 Y-8.944 F400.000
G1 X7.081 Y-8.887 F400.000
G1 X6.931 Y-8.881 F400.000
G1 X6.719 Y-8.944 F400.000
G1 X6.588 Y-9.012 F400.000
G1 X6.588 Y-9.012 F400.000
G1 X6.100 Y-9.369 F400.000
G1 X5.888 Y-9.581 F400.000
G1 X5.781 Y-9.750 F400.000
G1 X5.700 Y-10.125 F400.000
G1 X5.700 Y-10.500 F400.000
G1 X5.781 Y-10.956 F400.000
G1 X5.919 Y-11.300 F400.000
G1 X6.094 Y-11.625 F400.000
G1 X6.438 Y-12.062 F400.000
G1 X6.650 Y-12.256 F400.000
G1 X6.731 Y-12.306 F400.000
G1 X6.825 Y-12.319 F400.000
G1 X6.919 Y-12.294 F400.000
G1 X7.525 Y-11.944 F400.000
G1 X7.525 Y-11.944 F400.000
G1 X7.688 Y-11.781 F400.000
G1 X7.775 Y-11.656 F400.000
G1 X7.819 Y-11.525 F400.000
G0 X7.812 Y-11.456
G0 X7.719 Y-11.275
G0 X6.581 Y-9.875
G1 X6.525 Y-9.806 F400.000
G1 X6.356 Y-9.619 F400.000
G1 X6.219 Y-9.544 F400.000
G1 X6.075 Y-9.519 F400.000
G1 X5.713 Y-9.588 F400.000
G1 X5.713 Y-9.588 F400.000
G1 X5.281 Y-9.850 F400.000
G1 X5.056 Y-10.044 F400.000
G1 X4.925 Y-10.194 F400.000
G1 X4.875 Y-10.281 F400.000
G1 X4.800 Y-10.562 F400.000
G1 X4.769 Y-11.031 F400.000
G1 X4.825 Y-11.400 F400.000
G1 X4.931 Y-11.756 F400.000
G1 X5.081 Y-12.094 F400.000
G1 X5.256 Y-12.419 F400.000
G1 X5.562 Y-12.781 F400.000
G1 X5.638 Y-12.838 F400.000
G1 X5.731 Y-12.863 F400.000
G1 X5.825 Y-12.850 F400.000
G1 X6.612 Y-12.469 F400.000
G1 X6.612 Y-12.469 F400.000
G1 X6.787 Y-12.319 F400.000
G1 X6.881 Y-12.200 F400.000
G1 X6.931 Y-12.069 F400.000
G0 X6.931 Y-12.000
G0 X6.850 Y-11.812
G0 X5.775 Y-10.338
G1 X5.725 Y-10.269 F400.000
G1 X5.556 Y-10.069 F400.000
G1 X5.425 Y-9.994 F400.000
G1 X5.281 Y-9.956 F400.000
G1 X5.062 Y-9.975 F400.000
G1 X4.919 Y-10.019 F400.000
G1 X4.919 Y-10.019 F400.000
G1 X4.375 Y-10.294 F400.000
G1 X4.069 Y-10.550 F400.000
G1 X4.013 Y-10.631 F400.000
G1 X3.888 Y-11.006 F400.000
G1 X3.837 Y-11.381 F400.000
G1 X3.850 Y-11.750 F400.000
G1 X3.906 Y-12.119 F400.000
G1 X4.013 Y-12.475 F400.000
G1 X4.263 Y-12.975 F400.000
G1 X4.438 Y-13.200 F400.000
G1 X4.506 Y-13.269 F400.000
G1 X4.594 Y-13.306 F400.000
G1 X4.688 Y-13.306 F400.000
G1 X5.525 Y-12.994 F400.000
G1 X5.525 Y-12.994 F400.000
G1 X5.713 Y-12.863 F400.000
G1 X5.812 Y-12.750 F400.000
G1 X5.875 Y-12.619 F400.000
G0 X5.881 Y-12.556
G0 X5.819 Y-12.356
G0 X4.912 Y-10.800
G1 X4.875 Y-10.725 F400.000
G1 X4.731 Y-10.512 F400.000
G1 X4.606 Y-10.419 F400.000
G1 X4.469 Y-10.369 F400.000
G1 X4.244 Y-10.363 F400.000
G1 X4.100 Y-10.387 F400.000
G1 X4.100 Y-10.387 F400.000
G1 X3.444 Y-10.656 F400.000
G1 X3.194 Y-10.825 F400.000
G1 X3.125 Y-10.900 F400.000
G1 X3.075 Y-10.988 F400.000
G1 X2.888 Y-11.550 F400.000
G1 X2.831 Y-12.012 F400.000
G1 X2.856 Y-12.381 F400.000
G1 X2.925 Y-12.744 F400.000
G1 X3.044 Y-13.094 F400.000
G1 X3.269 Y-13.519 F400.000
G1 X3.325 Y-13.594 F400.000
G1 X3.406 Y-13.644 F400.000
G1 X3.500 Y-13.662 F400.000
G1 X4.344 Y-13.431 F400.000
G1 X4.344 Y-13.431 F400.000
G1 X4.537 Y-13.319 F400.000
G1 X4.650 Y-13.219 F400.000
G1 X4.725 Y-13.100 F400.000
G0 X4.737 Y-13.037
G0 X4.688 Y-12.831
G0 X3.888 Y-11.181
G1 X3.850 Y-11.100 F400.000
G1 X3.763 Y-10.944 F400.000
G1 X3.638 Y-10.812 F400.000
G1 X3.481 Y-10.731 F400.000
G1 X3.331 Y-10.706 F400.000
G1 X3.106 Y-10.719 F400.000
G1 X3.106 Y-10.719 F400.000
G1 X2.519 Y-10.912 F400.000
G1 X2.256 Y-11.056 F400.000
G1 X2.119 Y-11.200 F400.000
G1 X1.950 Y-11.556 F400.000
G1 X1.863 Y-11.838 F400.000
G1 X1.800 Y-12.206 F400.000
G1 X1.794 Y-12.575 F400.000
G1 X1.831 Y-12.944 F400.000
G1 X2.013 Y-13.575 F400.000
G1 X2.150 Y-13.825 F400.000
G1 X2.312 Y-13.925 F400.000
G1 X2.594 Y-13.887 F400.000
G1 X3.062 Y-13.787 F400.000
G1 X3.062 Y-13.787 F400.000
G1 X3.275 Y-13.700 F400.000
G1 X3.400 Y-13.613 F400.000
G1 X3.487 Y-13.500 F400.000
G0 X3.506 Y-13.438
G0 X3.487 Y-13.231
G0 X2.938 Y-11.475
G1 X2.913 Y-11.394 F400.000
G1 X2.825 Y-11.150 F400.000
G1 X2.725 Y-11.037 F400.000
G1 X2.594 Y-10.969 F400.000
G1 X2.375 Y-10.931 F400.000
G1 X2.231 Y-10.938 F400.000
G1 X2.231 Y-10.938 F400.000
G1 X1.631 Y-11.062 F400.000
G1 X1.444 Y-11.131 F400.000
G1 X1.275 Y-11.238 F400.000
G1 X1.200 Y-11.306 F400.000
G1 X1.012 Y-11.650 F400.000
G1 X0.806 Y-12.287 F400.000
G1 X0.756 Y-12.656 F400.000
G1 X0.756 Y-13.025 F400.000
G1 X0.806 Y-13.394 F400.000
G1 X0.938 Y-13.756 F400.000
G1 X1.025 Y-13.931 F400.000
G1 X1.087 Y-14.006 F400.000
G1 X1.169 Y-14.056 F400.000
G1 X1.262 Y-14.062 F400.000
G1 X1.637 Y-14.025 F400.000
G1 X1.637 Y-14.025 F400.000
G1 X1.850 Y-13.950 F400.000
G1 X1.981 Y-13.875 F400.000
G1 X2.081 Y-13.775 F400.000
G0 X2.112 Y-13.713
G0 X2.125 Y-13.419
G0 X1.956 Y-11.662
G1 X1.950 Y-11.575 F400.000
G1 X1.906 Y-11.325 F400.000
G1 X1.869 Y-11.256 F400.000
G1 X1.769 Y-11.162 F400.000
G1 X1.631 Y-11.106 F400.000
G1 X1.344 Y-11.081 F400.000
G1 X1.344 Y-11.081 F400.000
G1 X0.744 Y-11.181 F400.000
G1 X0.463 Y-11.294 F400.000
G1 X0.312 Y-11.419 F400.000
G1 X0.087 Y-11.750 F400.000
G1 X-0.037 Y-12.012 F400.000
G1 X-0.156 Y-12.363 F400.000
G1 X-0.237 Y-12.725 F400.000
G1 X-0.263 Y-13.094 F400.000
G1 X-0.237 Y-13.463 F400.000
G1 X-0.081 Y-13.925 F400.000
G1 X-0.037 Y-14.012 F400.000
G1 X0.031 Y-14.075 F400.000
G1 X0.119 Y-14.113 F400.000
G1 X1.056 Y-14.081 F400.000
G1 X1.056 Y-14.081 F400.000
G1 X1.269 Y-14.019 F400.000
G1 X1.406 Y-13.950 F400.000
G1 X1.506 Y-13.856 F400.000
G0 X1.531 Y-13.794
G0 X1.538 Y-13.662
G0 X1.100 Y-11.806
G1 X1.081 Y-11.725 F400.000
G1 X1.006 Y-11.475 F400.000
G1 X0.919 Y-11.350 F400.000
G1 X0.800 Y-11.256 F400.000
G1 X0.450 Y-11.156 F400.000
G1 X0.450 Y-11.156 F400.000
G1 X-0.138 Y-11.194 F400.000
G1 X-0.419 Y-11.262 F400.000
G1 X-0.506 Y-11.300 F400.000
G1 X-0.650 Y-11.419 F400.000
G1 X-0.887 Y-11.713 F400.000
G1 X-1.031 Y-11.963 F400.000
G1 X-1.188 Y-12.300 F400.000
G1 X-1.281 Y-12.656 F400.000
G1 X-1.331 Y-13.025 F400.000
G1 X-1.331 Y-13.387 F400.000
G1 X-1.275 Y-13.669 F400.000
G1 X-1.175 Y-13.944 F400.000
G1 X-1.113 Y-14.019 F400.000
G1 X-1.031 Y-14.075 F400.000
G1 X-0.031 Y-14.113 F400.000
G1 X-0.031 Y-14.113 F400.000
G1 X0.188 Y-14.069 F400.000
G1 X0.325 Y-14.006 F400.000
G1 X0.438 Y-13.919 F400.000
G0 X0.463 Y-13.863
G0 X0.481 Y-13.731
G0 X0.175 Y-11.875
G1 X0.156 Y-11.794 F400.000
G1 X0.100 Y-11.537 F400.000
G1 X0.019 Y-11.400 F400.000
G1 X-0.087 Y-11.294 F400.000
G1 X-0.294 Y-11.194 F400.000
G1 X-0.444 Y-11.150 F400.000
G1 X-0.444 Y-11.150 F400.000
G1 X-1.006 Y-11.137 F400.000
G1 X-1.288 Y-11.175 F400.000
G1 X-1.469 Y-11.238 F400.000
G1 X-1.544 Y-11.294 F400.000
G1 X-1.919 Y-11.725 F400.000
G1 X-2.163 Y-12.125 F400.000
G1 X-2.294 Y-12.469 F400.000
G1 X-2.375 Y-12.831 F400.000
G1 X-2.406 Y-13.181 F400.000
G1 X-2.362 Y-13.556 F400.000
G1 X-2.269 Y-13.838 F400.000
G1 X-2.200 Y-13.906 F400.000
G1 X-2.106 Y-13.950 F400.000
G1 X-1.206 Y-14.069 F400.000
G1 X-1.206 Y-14.069 F400.000
G1 X-0.969 Y-14.044 F400.000
G1 X-0.825 Y-13.994 F400.000
G1 X-0.706 Y-13.912 F400.000
G0 X-0.675 Y-13.856
G0 X-0.644 Y-13.725
G0 X-0.775 Y-11.838
G1 X-0.781 Y-11.750 F400.000
G1 X-0.819 Y-11.494 F400.000
G1 X-0.881 Y-11.350 F400.000
G1 X-0.988 Y-11.244 F400.000
G1 X-1.194 Y-11.131 F400.000
G1 X-1.344 Y-11.081 F400.000
G1 X-1.344 Y-11.081 F400.000
G1 X-1.906 Y-11.012 F400.000
G1 X-2.281 Y-11.044 F400.000
G1 X-2.462 Y-11.106 F400.000
G1 X-2.538 Y-11.162 F400.000
G1 X-2.869 Y-11.500 F400.000
G1 X-3.188 Y-11.956 F400.000
G1 X-3.337 Y-12.294 F400.000
G1 X-3.438 Y-12.650 F400.000
G1 X-3.481 Y-13.000 F400.000
G1 X-3.475 Y-13.281 F400.000
G1 X-3.413 Y-13.562 F400.000
G1 X-3.288 Y-13.719 F400.000
G1 X-2.587 Y-13.881 F400.000
G1 X-2.288 Y-13.925 F400.000
G1 X-2.288 Y-13.925 F400.000
G1 X-2.050 Y-13.919 F400.000
G1 X-1.900 Y-13.881 F400.000
G1 X-1.781 Y-13.812 F400.000
G0 X-1.738 Y-13.756
G0 X-1.700 Y-13.631
G0 X-1.712 Y-11.731
G1 X-1.719 Y-11.644 F400.000
G1 X-1.738 Y-11.387 F400.000
G1 X-1.794 Y-11.244 F400.000
G1 X-1.894 Y-11.125 F400.000
G1 X-2.231 Y-10.938 F400.000
G1 X-2.231 Y-10.938 F400.000
G1 X-2.794 Y-10.825 F400.000
G1 X-3.169 Y-10.819 F400.000
G1 X-3.350 Y-10.869 F400.000
G1 X-3.725 Y-11.169 F400.000
G1 X-3.925 Y-11.369 F400.000
G1 X-4.150 Y-11.662 F400.000
G1 X-4.325 Y-11.988 F400.000
G1 X-4.456 Y-12.331 F400.000
G1 X-4.537 Y-12.694 F400.000
G1 X-4.544 Y-13.069 F400.000
G1 X-4.519 Y-13.256 F400.000
G1 X-4.469 Y-13.344 F400.000
G1 X-4.400 Y-13.412 F400.000
G1 X-3.406 Y-13.688 F400.000
G1 X-3.406 Y-13.688 F400.000
G1 X-3.169 Y-13.700 F400.000
G1 X-3.013 Y-13.675 F400.000
G1 X-2.888 Y-13.619 F400.000
G0 X-2.844 Y-13.569
G0 X-2.794 Y-13.444
G0 X-2.650 Y-11.550
G1 X-2.644 Y-11.463 F400.000
G1 X-2.644 Y-11.206 F400.000
G1 X-2.694 Y-11.056 F400.000
G1 X-2.781 Y-10.931 F400.000
G1 X-3.106 Y-10.719 F400.000
G1 X-3.106 Y-10.719 F400.000
G1 X-3.763 Y-10.537 F400.000
G1 X-4.044 Y-10.519 F400.000
G1 X-4.138 Y-10.531 F400.000
G1 X-4.319 Y-10.606 F400.000
G1 X-4.706 Y-10.881 F400.000
G1 X-5.094 Y-11.294 F400.000
G1 X-5.294 Y-11.606 F400.000
G1 X-5.456 Y-11.938 F400.000
G1 X-5.581 Y-12.387 F400.000
G1 X-5.606 Y-12.669 F400.000
G1 X-5.588 Y-12.856 F400.000
G1 X-5.544 Y-12.944 F400.000
G1 X-5.469 Y-13.012 F400.000
G1 X-4.525 Y-13.363 F400.000
G1 X-4.525 Y-13.363 F400.000
G1 X-4.294 Y-13.400 F400.000
G1 X-4.138 Y-13.400 F400.000
G1 X-4.006 Y-13.356 F400.000
G0 X-3.956 Y-13.312
G0 X-3.900 Y-13.194
G0 X-3.569 Y-11.269
G1 X-3.550 Y-11.188 F400.000
G1 X-3.531 Y-10.925 F400.000
G1 X-3.562 Y-10.775 F400.000
G1 X-3.644 Y-10.650 F400.000
G1 X-3.819 Y-10.506 F400.000
G1 X-3.956 Y-10.431 F400.000
G1 X-3.956 Y-10.431 F400.000
G1 X-4.612 Y-10.200 F400.000
G1 X-4.894 Y-10.156 F400.000
G1 X-4.987 Y-10.156 F400.000
G1 X-5.081 Y-10.175 F400.000
G1 X-5.344 Y-10.294 F400.000
G1 X-5.731 Y-10.569 F400.000
G1 X-5.994 Y-10.825 F400.000
G1 X-6.219 Y-11.119 F400.000
G1 X-6.406 Y-11.438 F400.000
G1 X-6.550 Y-11.781 F400.000
G1 X-6.625 Y-12.156 F400.000
G1 X-6.625 Y-12.344 F400.000
G1 X-6.588 Y-12.438 F400.000
G1 X-6.525 Y-12.512 F400.000
G1 X-5.606 Y-12.950 F400.000
G1 X-5.606 Y-12.950 F400.000
G1 X-5.381 Y-13.006 F400.000
G1 X-5.225 Y-13.019 F400.000
G1 X-5.088 Y-12.981 F400.000
G0 X-5.037 Y-12.944
G0 X-4.963 Y-12.825
G0 X-4.475 Y-10.963
G1 X-4.450 Y-10.881 F400.000
G1 X-4.406 Y-10.625 F400.000
G1 X-4.425 Y-10.469 F400.000
G1 X-4.494 Y-10.338 F400.000
G1 X-4.650 Y-10.169 F400.000
G1 X-4.781 Y-10.081 F400.000
G1 X-4.781 Y-10.081 F400.000
G1 X-5.406 Y-9.781 F400.000
G1 X-5.688 Y-9.706 F400.000
G1 X-5.875 Y-9.694 F400.000
G1 X-6.062 Y-9.750 F400.000
G1 X-6.562 Y-10.031 F400.000
G1 X-6.844 Y-10.269 F400.000
G1 X-7.100 Y-10.537 F400.000
G1 X-7.319 Y-10.838 F400.000
G1 X-7.487 Y-11.169 F400.000
G1 X-7.594 Y-11.537 F400.000
G1 X-7.619 Y-11.725 F400.000
G1 X-7.600 Y-11.819 F400.000
G1 X-7.562 Y-11.912 F400.000
G1 X-6.787 Y-12.369 F400.000
G1 X-6.694 Y-12.412 F400.000
G1 X-6.694 Y-12.412 F400.000
G1 X-6.469 Y-12.488 F400.000
G1 X-6.319 Y-12.512 F400.000
G1 X-6.181 Y-12.488 F400.000
G0 X-6.125 Y-12.456
G0 X-6.050 Y-12.344
G0 X-5.450 Y-10.488
G1 X-5.425 Y-10.406 F400.000
G1 X-5.369 Y-10.150 F400.000
G1 X-5.381 Y-9.994 F400.000
G1 X-5.444 Y-9.856 F400.000
G1 X-5.588 Y-9.681 F400.000
G1 X-5.713 Y-9.588 F400.000
G1 X-5.713 Y-9.588 F400.000
G1 X-6.237 Y-9.300 F400.000
G1 X-6.519 Y-9.206 F400.000
G1 X-6.612 Y-9.188 F400.000
G1 X-6.894 Y-9.238 F400.000
G1 X-7.331 Y-9.431 F400.000
G1 X-7.713 Y-9.694 F400.000
G1 X-7.981 Y-9.950 F400.000
G1 X-8.213 Y-10.238 F400.000
G1 X-8.406 Y-10.550 F400.000
G1 X-8.556 Y-11.012 F400.000
G1 X-8.562 Y-11.106 F400.000
G1 X-8.544 Y-11.200 F400.000
G1 X-8.481 Y-11.275 F400.000
G1 X-7.750 Y-11.794 F400.000
G1 X-7.662 Y-11.844 F400.000
G1 X-7.662 Y-11.844 F400.000
G1 X-7.450 Y-11.938 F400.000
G1 X-7.300 Y-11.969 F400.000
G1 X-7.162 Y-11.956 F400.000
G0 X-7.106 Y-11.925
G0 X-7.019 Y-11.825
G0 X-6.287 Y-10.012
G1 X-6.256 Y-9.931 F400.000
G1 X-6.181 Y-9.688 F400.000
G1 X-6.181 Y-9.531 F400.000
G1 X-6.225 Y-9.387 F400.000
G1 X-6.356 Y-9.200 F400.000
G1 X-6.463 Y-9.094 F400.000
G1 X-6.463 Y-9.094 F400.000
G1 X-6.638 Y-8.994 F400.000
G1 X-6.875 Y-8.812 F400.000
G1 X-7.231 Y-8.644 F400.000
G1 X-7.419 Y-8.606 F400.000
G1 X-7.700 Y-8.644 F400.000
G1 X-7.975 Y-8.738 F400.000
G1 X-8.150 Y-8.819 F400.000
G1 X-8.469 Y-9.006 F400.000
G1 X-8.762 Y-9.231 F400.000
G1 X-9.019 Y-9.500 F400.000
G1 X-9.281 Y-9.875 F400.000
G1 X-9.431 Y-10.225 F400.000
G1 X-9.456 Y-10.319 F400.000
G1 X-9.456 Y-10.412 F400.000
G1 X-9.431 Y-10.506 F400.000
G1 X-8.575 Y-11.206 F400.000
G1 X-8.575 Y-11.206 F400.000
G1 X-8.369 Y-11.319 F400.000
G1 X-8.225 Y-11.363 F400.000
G1 X-8.081 Y-11.363 F400.000
G0 X-8.025 Y-11.331
G0 X-7.931 Y-11.238
G0 X-7.069 Y-9.475
G1 X-7.031 Y-9.400 F400.000
G1 X-6.938 Y-9.156 F400.000
G1 X-6.925 Y-9.000 F400.000
G1 X-6.963 Y-8.856 F400.000
G1 X-7.081 Y-8.662 F400.000
G1 X-7.181 Y-8.550 F400.000
G1 X-7.181 Y-8.550 F400.000
G1 X-7.725 Y-8.119 F400.000
G1 X-7.987 Y-7.981 F400.000
G1 X-8.081 Y-7.950 F400.000
G1 X-8.175 Y-7.938 F400.000
G1 X-8.363 Y-7.956 F400.000
G1 X-8.831 Y-8.088 F400.000
G1 X-9.162 Y-8.250 F400.000
G1 X-9.475 Y-8.450 F400.000
G1 X-9.756 Y-8.694 F400.000
G1 X-10.062 Y-9.044 F400.000
G1 X-10.281 Y-9.469 F400.000
G1 X-10.287 Y-9.562 F400.000
G1 X-10.275 Y-9.656 F400.000
G1 X-9.594 Y-10.369 F400.000
G1 X-9.519 Y-10.431 F400.000
G1 X-9.519 Y-10.431 F400.000
G1 X-9.319 Y-10.550 F400.000
G1 X-9.169 Y-10.600 F400.000
G1 X-9.031 Y-10.606 F400.000
G0 X-8.969 Y-10.581
G0 X-8.869 Y-10.494
G0 X-7.838 Y-8.875
G1 X-7.794 Y-8.800 F400.000
G1 X-7.669 Y-8.575 F400.000
G1 X-7.638 Y-8.425 F400.000
G1 X-7.656 Y-8.275 F400.000
G1 X-7.750 Y-8.069 F400.000
G1 X-7.838 Y-7.944 F400.000
G1 X-7.838 Y-7.944 F400.000
G1 X-8.338 Y-7.456 F400.000
G1 X-8.588 Y-7.287 F400.000
G1 X-8.769 Y-7.225 F400.000
G1 X-9.144 Y-7.225 F400.000
G1 X-9.519 Y-7.325 F400.000
G1 X-9.863 Y-7.463 F400.000
G1 X-10.188 Y-7.638 F400.000
G1 X-10.481 Y-7.862 F400.000
G1 X-10.806 Y-8.200 F400.000
G1 X-11.012 Y-8.512 F400.000
G1 X-11.056 Y-8.600 F400.000
G1 X-11.069 Y-8.694 F400.000
G1 X-11.050 Y-8.787 F400.000
G1 X-10.331 Y-9.606 F400.000
G1 X-10.331 Y-9.606 F400.000
G1 X-10.137 Y-9.744 F400.000
G1 X-10.000 Y-9.806 F400.000
G1 X-9.863 Y-9.825 F400.000
G0 X-9.800 Y-9.806
G0 X-9.694 Y-9.725
G0 X-8.600 Y-8.106
G1 X-8.556 Y-8.031 F400.000
G1 X-8.419 Y-7.812 F400.000
G1 X-8.381 Y-7.662 F400.000
G1 X-8.394 Y-7.513 F400.000
G1 X-8.469 Y-7.300 F400.000
G1 X-8.550 Y-7.169 F400.000
G1 X-8.550 Y-7.169 F400.000
G1 X-8.944 Y-6.725 F400.000
G1 X-9.175 Y-6.537 F400.000
G1 X-9.356 Y-6.463 F400.000
G1 X-9.637 Y-6.425 F400.000
G1 X-10.012 Y-6.444 F400.000
G1 X-10.106 Y-6.463 F400.000
G1 X-10.456 Y-6.581 F400.000
G1 X-10.794 Y-6.737 F400.000
G1 X-11.106 Y-6.931 F400.000
G1 X-11.400 Y-7.156 F400.000
G1 X-11.706 Y-7.525 F400.000
G1 X-11.756 Y-7.606 F400.000
G1 X-11.775 Y-7.700 F400.000
G1 X-11.762 Y-7.794 F400.000
G1 X-11.075 Y-8.762 F400.000
G1 X-11.075 Y-8.762 F400.000
G1 X-10.894 Y-8.906 F400.000
G1 X-10.756 Y-8.975 F400.000
G1 X-10.613 Y-9.000 F400.000
G0 X-10.550 Y-8.988
G0 X-10.438 Y-8.906
G0 X-9.244 Y-7.400
G1 X-9.194 Y-7.331 F400.000
G1 X-9.044 Y-7.119 F400.000
G1 X-8.994 Y-6.969 F400.000
G1 X-8.988 Y-6.819 F400.000
G1 X-9.106 Y-6.463 F400.000
G1 X-9.106 Y-6.463 F400.000
G1 X-9.456 Y-5.963 F400.000
G1 X-9.669 Y-5.750 F400.000
G1 X-9.838 Y-5.644 F400.000
G1 X-10.213 Y-5.569 F400.000
G1 X-10.588 Y-5.575 F400.000
G1 X-10.956 Y-5.638 F400.000
G1 X-11.306 Y-5.763 F400.000
G1 X-11.637 Y-5.931 F400.000
G1 X-11.950 Y-6.131 F400.000
G1 X-12.225 Y-6.394 F400.000
G1 X-12.344 Y-6.544 F400.000
G1 X-12.381 Y-6.631 F400.000
G1 X-12.394 Y-6.725 F400.000
G1 X-12.113 Y-7.250 F400.000
G1 X-12.006 Y-7.412 F400.000
G1 X-12.006 Y-7.412 F400.000
G1 X-11.844 Y-7.581 F400.000
G1 X-11.719 Y-7.669 F400.000
G1 X-11.588 Y-7.719 F400.000
G0 X-11.519 Y-7.713
G0 X-11.325 Y-7.631
G0 X-9.831 Y-6.556
G1 X-9.762 Y-6.506 F400.000
G1 X-9.569 Y-6.338 F400.000
G1 X-9.500 Y-6.206 F400.000
G1 X-9.481 Y-6.062 F400.000
G1 X-9.531 Y-5.844 F400.000
G1 X-9.594 Y-5.706 F400.000
G1 X-9.594 Y-5.706 F400.000
G1 X-9.963 Y-5.106 F400.000
G1 X-10.094 Y-4.950 F400.000
G1 X-10.244 Y-4.819 F400.000
G1 X-10.331 Y-4.769 F400.000
G1 X-10.706 Y-4.669 F400.000
G1 X-11.081 Y-4.644 F400.000
G1 X-11.450 Y-4.694 F400.000
G1 X-11.806 Y-4.794 F400.000
G1 X-12.144 Y-4.944 F400.000
G1 X-12.550 Y-5.169 F400.000
G1 X-12.838 Y-5.431 F400.000
G1 X-12.894 Y-5.506 F400.000
G1 X-12.925 Y-5.600 F400.000
G1 X-12.925 Y-5.694 F400.000
G1 X-12.588 Y-6.394 F400.000
G1 X-12.588 Y-6.394 F400.000
G1 X-12.438 Y-6.569 F400.000
G1 X-12.319 Y-6.669 F400.000
G1 X-12.188 Y-6.725 F400.000
G0 X-12.119 Y-6.725
G0 X-11.925 Y-6.650
G0 X-10.412 Y-5.619
G1 X-10.338 Y-5.575 F400.000
G1 X-10.137 Y-5.412 F400.000
G1 X-10.056 Y-5.287 F400.000
G1 X-10.025 Y-5.144 F400.000
G1 X-10.044 Y-4.925 F400.000
G1 X-10.094 Y-4.781 F400.000
G1 X-10.094 Y-4.781 F400.000
G1 X-10.363 Y-4.237 F400.000
G1 X-10.544 Y-3.994 F400.000
G1 X-10.694 Y-3.862 F400.000
G1 X-11.069 Y-3.737 F400.000
G1 X-11.444 Y-3.688 F400.000
G1 X-11.812 Y-3.694 F400.000
G1 X-12.175 Y-3.763 F400.000
G1 X-12.531 Y-3.869 F400.000
G1 X-12.869 Y-4.025 F400.000
G1 X-13.113 Y-4.175 F400.000
G1 X-13.319 Y-4.369 F400.000
G1 X-13.356 Y-4.456 F400.000
G1 X-13.363 Y-4.550 F400.000
G1 X-13.081 Y-5.300 F400.000
G1 X-13.081 Y-5.300 F400.000
G1 X-12.963 Y-5.494 F400.000
G1 X-12.856 Y-5.606 F400.000
G1 X-12.738 Y-5.681 F400.000
G0 X-12.669 Y-5.688
G0 X-12.537 Y-5.662
G0 X-10.856 Y-4.750
G1 X-10.781 Y-4.713 F400.000
G1 X-10.562 Y-4.575 F400.000
G1 X-10.469 Y-4.456 F400.000
G1 X-10.419 Y-4.319 F400.000
G1 X-10.412 Y-4.094 F400.000
G1 X-10.438 Y-3.950 F400.000
G1 X-10.438 Y-3.950 F400.000
G1 X-10.700 Y-3.300 F400.000
G1 X-10.869 Y-3.050 F400.000
G1 X-11.019 Y-2.925 F400.000
G1 X-11.281 Y-2.800 F400.000
G1 X-11.750 Y-2.681 F400.000
G1 X-12.119 Y-2.669 F400.000
G1 X-12.488 Y-2.706 F400.000
G1 X-12.850 Y-2.794 F400.000
G1 X-13.363 Y-3.013 F400.000
G1 X-13.600 Y-3.169 F400.000
G1 X-13.662 Y-3.244 F400.000
G1 X-13.700 Y-3.331 F400.000
G1 X-13.519 Y-4.081 F400.000
G1 X-13.519 Y-4.081 F400.000
G1 X-13.412 Y-4.281 F400.000
G1 X-13.319 Y-4.400 F400.000
G1 X-13.206 Y-4.481 F400.000
G0 X-13.144 Y-4.500
G0 X-13.012 Y-4.481
G0 X-11.256 Y-3.719
G1 X-11.175 Y-3.688 F400.000
G1 X-10.950 Y-3.569 F400.000
G1 X-10.844 Y-3.456 F400.000
G1 X-10.781 Y-3.325 F400.000
G1 X-10.756 Y-3.100 F400.000
G1 X-10.769 Y-2.956 F400.000
G1 X-10.769 Y-2.956 F400.000
G1 X-10.906 Y-2.462 F400.000
G1 X-11.037 Y-2.188 F400.000
G1 X-11.156 Y-2.031 F400.000
G1 X-11.494 Y-1.825 F400.000
G1 X-11.863 Y-1.700 F400.000
G1 X-12.231 Y-1.637 F400.000
G1 X-12.600 Y-1.637 F400.000
G1 X-12.969 Y-1.675 F400.000
G1 X-13.425 Y-1.794 F400.000
G1 X-13.850 Y-2.006 F400.000
G1 X-13.912 Y-2.081 F400.000
G1 X-13.950 Y-2.169 F400.000
G1 X-13.831 Y-2.825 F400.000
G1 X-13.831 Y-2.825 F400.000
G1 X-13.738 Y-3.038 F400.000
G1 X-13.644 Y-3.163 F400.000
G1 X-13.531 Y-3.250 F400.000
G0 X-13.469 Y-3.269
G0 X-13.256 Y-3.250
G0 X-11.519 Y-2.769
G1 X-11.438 Y-2.744 F400.000
G1 X-11.194 Y-2.656 F400.000
G1 X-11.081 Y-2.562 F400.000
G1 X-11.006 Y-2.438 F400.000
G1 X-10.963 Y-2.219 F400.000
G1 X-10.963 Y-2.075 F400.000
G1 X-10.963 Y-2.075 F400.000
G1 X-11.062 Y-1.575 F400.000
G1 X-11.175 Y-1.288 F400.000
G1 X-11.281 Y-1.119 F400.000
G1 X-11.438 Y-0.994 F400.000
G1 X-11.794 Y-0.819 F400.000
G1 X-11.981 Y-0.756 F400.000
G1 X-12.344 Y-0.669 F400.000
G1 X-12.713 Y-0.619 F400.000
G1 X-13.081 Y-0.625 F400.000
G1 X-13.450 Y-0.675 F400.000
G1 X-13.812 Y-0.806 F400.000
G1 X-13.981 Y-0.900 F400.000
G1 X-14.037 Y-0.975 F400.000
G1 X-14.069 Y-1.062 F400.000
G1 X-14.037 Y-1.438 F400.000
G1 X-14.037 Y-1.438 F400.000
G1 X-13.975 Y-1.650 F400.000
G1 X-13.906 Y-1.788 F400.000
G1 X-13.812 Y-1.894 F400.000
G0 X-13.750 Y-1.919
G0 X-13.469 Y-1.944
G0 X-11.719 Y-1.788
G1 X-11.631 Y-1.775 F400.000
G1 X-11.456 Y-1.750 F400.000
G1 X-11.369 Y-1.725 F400.000
G1 X-11.294 Y-1.675 F400.000
G1 X-11.188 Y-1.550 F400.000
G1 X-11.131 Y-1.406 F400.000
G1 X-11.100 Y-1.188 F400.000
G1 X-11.100 Y-1.188 F400.000
G1 X-11.162 Y-0.688 F400.000
G1 X-11.219 Y-0.494 F400.000
G1 X-11.306 Y-0.312 F400.000
G1 X-11.369 Y-0.231 F400.000
G1 X-11.844 Y0.106 F400.000
G1 X-12.363 Y0.325 F400.000
G1 X-12.725 Y0.406 F400.000
G1 X-13.094 Y0.431 F400.000
G1 X-13.463 Y0.412 F400.000
G1 X-13.838 Y0.300 F400.000
G1 X-14.012 Y0.206 F400.000
G1 X-14.081 Y0.131 F400.000
G1 X-14.119 Y0.037 F400.000
G1 X-14.081 Y-0.900 F400.000
G1 X-14.081 Y-0.900 F400.000
G1 X-14.019 Y-1.113 F400.000
G1 X-13.950 Y-1.250 F400.000
G1 X-13.856 Y-1.350 F400.000
G0 X-13.794 Y-1.375
G0 X-13.662 Y-1.381
G0 X-11.806 Y-0.938
G1 X-11.725 Y-0.919 F400.000
G1 X-11.475 Y-0.844 F400.000
G1 X-11.350 Y-0.756 F400.000
G1 X-11.256 Y-0.637 F400.000
G1 X-11.181 Y-0.431 F400.000
G1 X-11.162 Y-0.287 F400.000
G1 X-11.162 Y-0.287 F400.000
G1 X-11.200 Y0.287 F400.000
G1 X-11.275 Y0.569 F400.000
G1 X-11.375 Y0.731 F400.000
G1 X-11.575 Y0.931 F400.000
G1 X-11.812 Y1.094 F400.000
G1 X-12.331 Y1.325 F400.000
G1 X-12.681 Y1.444 F400.000
G1 X-13.050 Y1.494 F400.000
G1 X-13.419 Y1.494 F400.000
G1 X-13.794 Y1.406 F400.000
G1 X-13.975 Y1.319 F400.000
G1 X-14.037 Y1.244 F400.000
G1 X-14.075 Y1.044 F400.000
G1 X-14.113 Y0.244 F400.000
G1 X-14.113 Y0.244 F400.000
G1 X-14.088 Y0.013 F400.000
G1 X-14.037 Y-0.125 F400.000
G1 X-13.950 Y-0.231 F400.000
G0 X-13.894 Y-0.269
G0 X-13.688 Y-0.294
G0 X-11.850 Y-0.138
G1 X-11.762 Y-0.125 F400.000
G1 X-11.506 Y-0.087 F400.000
G1 X-11.375 Y-0.019 F400.000
G1 X-11.275 Y0.087 F400.000
G1 X-11.181 Y0.300 F400.000
G1 X-11.150 Y0.456 F400.000
G1 X-11.150 Y0.456 F400.000
G1 X-11.137 Y1.206 F400.000
G1 X-11.194 Y1.488 F400.000
G1 X-11.231 Y1.575 F400.000
G1 X-11.469 Y1.863 F400.000
G1 X-11.769 Y2.100 F400.000
G1 X-12.169 Y2.337 F400.000
G1 X-12.519 Y2.469 F400.000
G1 X-12.881 Y2.544 F400.000
G1 X-13.231 Y2.569 F400.000
G1 X-13.606 Y2.525 F400.000
G1 X-13.794 Y2.469 F400.000
G1 X-13.869 Y2.406 F400.000
G1 X-13.919 Y2.319 F400.000
G1 X-14.050 Y1.319 F400.000
G1 X-14.050 Y1.319 F400.000
G1 X-14.031 Y1.081 F400.000
G1 X-13.981 Y0.931 F400.000
G1 X-13.906 Y0.812 F400.000
G0 X-13.850 Y0.775
G0 X-13.719 Y0.750
G0 X-11.812 Y0.919
G1 X-11.725 Y0.931 F400.000
G1 X-11.469 Y0.969 F400.000
G1 X-11.325 Y1.038 F400.000
G1 X-11.219 Y1.144 F400.000
G1 X-11.106 Y1.350 F400.000
G1 X-11.056 Y1.500 F400.000
G1 X-11.056 Y1.500 F400.000
G1 X-10.994 Y2.062 F400.000
G1 X-11.012 Y2.344 F400.000
G1 X-11.062 Y2.531 F400.000
G1 X-11.287 Y2.837 F400.000
G1 X-11.581 Y3.094 F400.000
G1 X-11.887 Y3.306 F400.000
G1 X-12.225 Y3.462 F400.000
G1 X-12.581 Y3.575 F400.000
G1 X-12.931 Y3.631 F400.000
G1 X-13.400 Y3.625 F400.000
G1 X-13.494 Y3.612 F400.000
G1 X-13.581 Y3.575 F400.000
G1 X-13.656 Y3.513 F400.000
G1 X-13.875 Y2.612 F400.000
G1 X-13.887 Y2.513 F400.000
G1 X-13.887 Y2.513 F400.000
G1 X-13.881 Y2.275 F400.000
G1 X-13.844 Y2.125 F400.000
G1 X-13.775 Y2.000 F400.000
G0 X-13.725 Y1.956
G0 X-13.594 Y1.919
G0 X-11.681 Y1.875
G1 X-11.594 Y1.875 F400.000
G1 X-11.338 Y1.887 F400.000
G1 X-11.194 Y1.944 F400.000
G1 X-11.075 Y2.044 F400.000
G1 X-10.963 Y2.237 F400.000
G1 X-10.912 Y2.388 F400.000
G1 X-10.912 Y2.388 F400.000
G1 X-10.775 Y3.044 F400.000
G1 X-10.769 Y3.231 F400.000
G1 X-10.800 Y3.419 F400.000
G1 X-10.931 Y3.669 F400.000
G1 X-11.175 Y3.956 F400.000
G1 X-11.319 Y4.081 F400.000
G1 X-11.619 Y4.300 F400.000
G1 X-11.944 Y4.475 F400.000
G1 X-12.294 Y4.606 F400.000
G1 X-12.750 Y4.706 F400.000
G1 X-13.125 Y4.706 F400.000
G1 X-13.219 Y4.681 F400.000
G1 X-13.306 Y4.631 F400.000
G1 X-13.519 Y4.075 F400.000
G1 X-13.644 Y3.575 F400.000
G1 X-13.644 Y3.575 F400.000
G1 X-13.662 Y3.337 F400.000
G1 X-13.637 Y3.181 F400.000
G1 X-13.581 Y3.050 F400.000
G0 X-13.531 Y3.006
G0 X-13.412 Y2.956
G0 X-11.525 Y2.812
G1 X-11.438 Y2.812 F400.000
G1 X-11.175 Y2.812 F400.000
G1 X-11.025 Y2.856 F400.000
G1 X-10.900 Y2.944 F400.000
G1 X-10.756 Y3.119 F400.000
G1 X-10.681 Y3.256 F400.000
G1 X-10.681 Y3.256 F400.000
G1 X-10.494 Y3.913 F400.000
G1 X-10.475 Y4.194 F400.000
G1 X-10.512 Y4.381 F400.000
G1 X-10.694 Y4.713 F400.000
G1 X-10.819 Y4.862 F400.000
G1 X-10.863 Y4.950 F400.000
G1 X-10.887 Y5.044 F400.000
G1 X-10.794 Y5.331 F400.000
G1 X-10.719 Y5.431 F400.000
G1 X-10.613 Y5.494 F400.000
G1 X-10.512 Y5.506 F400.000
G1 X-10.412 Y5.481 F400.000
G1 X-10.319 Y5.431 F400.000
G1 X-10.250 Y5.356 F400.000
G1 X-10.219 Y5.256 F400.000
G1 X-10.019 Y5.244 F400.000
G1 X-9.925 Y5.287 F400.000
G1 X-9.869 Y5.369 F400.000
G1 X-9.775 Y5.406 F400.000
G1 X-9.475 Y5.906 F400.000
G1 X-9.475 Y5.906 F400.000
G1 X-9.369 Y6.194 F400.000
G1 X-9.363 Y6.412 F400.000
G0 X-9.375 Y6.487
G0 X-10.106 Y8.425
G1 X-10.131 Y8.500 F400.000
G1 X-10.356 Y9.056 F400.000
G1 X-10.400 Y9.106 F400.000
G1 X-10.450 Y9.137 F400.000
G1 X-10.569 Y9.144 F400.000
G1 X-10.706 Y9.094 F400.000
G1 X-10.950 Y8.912 F400.000
G1 X-10.950 Y8.912 F400.000
G1 X-11.075 Y8.525 F400.000
G1 X-11.094 Y8.225 F400.000
G1 X-11.194 Y7.831 F400.000
G1 X-11.394 Y7.369 F400.000
G1 X-11.588 Y7.144 F400.000
G1 X-11.906 Y6.906 F400.000
G1 X-12.256 Y6.725 F400.000
G1 X-12.488 Y6.544 F400.000
G1 X-12.550 Y6.469 F400.000
G1 X-13.062 Y5.362 F400.000
G1 X-13.306 Y4.706 F400.000
G1 X-13.306 Y4.706 F400.000
G1 X-13.344 Y4.475 F400.000
G1 X-13.325 Y4.256 F400.000
G1 X-13.300 Y4.206 F400.000
G0 X-13.269 Y4.194
G0 X-13.188 Y4.231
G0 X-10.894 Y6.800
G0 X-10.600 Y7.331
G0 X-10.544 Y7.544
G0 X-10.575 Y8.531
G1 X-10.581 Y8.606 F400.000
G1 X-10.594 Y8.825 F400.000
G1 X-10.619 Y8.881 F400.000
G1 X-10.656 Y8.912 F400.000
G1 X-10.706 Y8.919 F400.000
G1 X-10.825 Y8.894 F400.000
G1 X-11.012 Y8.769 F400.000
G1 X-11.125 Y8.669 F400.000
G1 X-11.125 Y8.669 F400.000
G1 X-11.613 Y8.037 F400.000
G1 X-12.306 Y6.925 F400.000
G1 X-12.306 Y6.925 F400.000
G1 X-12.375 Y6.700 F400.000
G1 X-12.394 Y6.550 F400.000
G1 X-12.375 Y6.406 F400.000
G0 X-12.344 Y6.338
G0 X-12.069 Y6.081
G0 X-10.950 Y5.263
G1 X-10.881 Y5.213 F400.000
G1 X-10.444 Y4.894 F400.000
G1 X-10.294 Y4.844 F400.000
G1 X-10.156 Y4.869 F400.000
G1 X-10.025 Y4.938 F400.000
G1 X-9.812 Y5.156 F400.000
G1 X-9.812 Y5.156 F400.000
G1 X-9.781 Y5.231 F400.000
G1 X-9.537 Y5.662 F400.000
G1 X-9.031 Y6.444 F400.000
G1 X-8.194 Y7.487 F400.000
G1 X-7.556 Y8.125 F400.000
G1 X-6.912 Y8.675 F400.000
G1 X-6.494 Y9.000 F400.000
G1 X-5.688 Y9.519 F400.000
G1 X-4.963 Y9.925 F400.000
G1 X-4.125 Y10.306 F400.000
G1 X-3.281 Y10.594 F400.000
G1 X-2.400 Y10.831 F400.000
G1 X-1.919 Y10.931 F400.000
G1 X-1.188 Y11.037 F400.000
G1 X-0.525 Y11.081 F400.000
G1 X0.281 Y11.094 F400.000
G1 X1.219 Y11.031 F400.000
G1 X2.169 Y10.881 F400.000
G1 X2.950 Y10.694 F400.000
G1 X3.431 Y10.544 F400.000
G1 X4.244 Y10.244 F400.000
G1 X5.125 Y9.838 F400.000
G1 X5.812 Y9.456 F400.000
G1 X6.638 Y8.887 F400.000
G1 X7.369 Y8.300 F400.000
G1 X7.681 Y8.012 F400.000
G1 X8.262 Y7.400 F400.000
G1 X8.881 Y6.662 F400.000
G1 X9.125 Y6.312 F400.000
G1 X9.656 Y5.456 F400.000
G1 X10.019 Y4.769 F400.000
G1 X10.238 Y4.281 F400.000
G1 X10.537 Y3.469 F400.000
G1 X10.688 Y2.969 F400.000
G1 X10.875 Y2.181 F400.000
G1 X11.025 Y1.200 F400.000
G1 X11.088 Y0.438 F400.000
G1 X11.100 Y-0.069 F400.000
G1 X11.050 Y-0.956 F400.000
G1 X11.000 Y-1.413 F400.000
G1 X10.825 Y-2.431 F400.000
G1 X10.625 Y-3.200 F400.000
G1 X10.200 Y-4.381 F400.000
G1 X9.775 Y-5.244 F400.000
G1 X9.494 Y-5.737 F400.000
G1 X9.075 Y-6.388 F400.000
G1 X8.519 Y-7.112 F400.000
G1 X8.194 Y-7.487 F400.000
G1 X7.562 Y-8.119 F400.000
G1 X6.900 Y-8.694 F400.000
G1 X6.494 Y-9.000 F400.000
G1 X5.688 Y-9.525 F400.000
G1 X4.925 Y-9.944 F400.000
G1 X4.125 Y-10.306 F400.000
G1 X3.281 Y-10.594 F400.000
G1 X2.400 Y-10.831 F400.000
G1 X1.913 Y-10.931 F400.000
G1 X1.056 Y-11.044 F400.000
G1 X0.525 Y-11.081 F400.000
G1 X-0.275 Y-11.094 F400.000
G1 X-1.219 Y-11.031 F400.000
G1 X-2.169 Y-10.881 F400.000
G1 X-2.950 Y-10.694 F400.000
G1 X-3.431 Y-10.544 F400.000
G1 X-4.244 Y-10.244 F400.000
G1 X-5.125 Y-9.838 F400.000
G1 X-5.812 Y-9.456 F400.000
G1 X-6.638 Y-8.887 F400.000
G1 X-7.369 Y-8.300 F400.000
G1 X-7.681 Y-8.012 F400.000
G1 X-8.275 Y-7.381 F400.000
G1 X-8.969 Y-6.544 F400.000
G1 X-9.088 Y-6.381 F400.000
G1 X-9.656 Y-5.456 F400.000
G1 X-10.019 Y-4.769 F400.000
G1 X-10.238 Y-4.281 F400.000
G1 X-10.537 Y-3.469 F400.000
G1 X-10.688 Y-2.969 F400.000
G1 X-10.875 Y-2.181 F400.000
G1 X-11.025 Y-1.200 F400.000
G1 X-11.088 Y-0.438 F400.000
G1 X-11.100 Y0.075 F400.000
G1 X-11.050 Y0.950 F400.000
G1 X-11.000 Y1.419 F400.000
G1 X-10.825 Y2.413 F400.000
G1 X-10.631 Y3.194 F400.000
G1 X-10.338 Y4.019 F400.000
G1 X-10.188 Y4.388 F400.000
G1 X-9.819 Y5.162 F400.000
G1 X-9.812 Y5.156 F400.000
G1 X-9.812 Y5.156 F400.000
G1 X-9.756 Y5.450 F400.000
G1 X-9.762 Y5.594 F400.000
G1 X-9.781 Y5.656 F400.000
G0 X-9.819 Y5.719
G0 X-10.050 Y5.888
G0 X-11.694 Y6.744
G1 X-11.762 Y6.781 F400.000
G1 X-11.969 Y6.881 F400.000
G1 X-12.106 Y6.906 F400.000
G1 X-12.244 Y6.875 F400.000
G1 X-12.425 Y6.744 F400.000
G1 X-12.581 Y6.575 F400.000
G1 X-12.581 Y6.575 F400.000
G1 X-13.006 Y5.706 F400.000
G1 X-13.319 Y4.900 F400.000
G1 X-13.575 Y4.150 F400.000
G1 X-13.944 Y2.681 F400.000
G1 X-14.081 Y1.863 F400.000
G1 X-14.150 Y1.050 F400.000
G1 X-14.200 Y0.125 F400.000
G1 X-14.169 Y-0.825 F400.000
G1 X-14.075 Y-1.887 F400.000
G1 X-13.925 Y-2.775 F400.000
G1 X-13.575 Y-4.150 F400.000
G1 X-13.412 Y-4.644 F400.000
G1 X-12.988 Y-5.737 F400.000
G1 X-12.738 Y-6.269 F400.000
G1 X-12.156 Y-7.331 F400.000
G1 X-11.731 Y-8.000 F400.000
G1 X-11.113 Y-8.838 F400.000
G1 X-10.494 Y-9.544 F400.000
G1 X-9.594 Y-10.475 F400.000
G1 X-9.194 Y-10.819 F400.000
G1 X-8.275 Y-11.537 F400.000
G1 X-7.375 Y-12.131 F400.000
G1 X-6.400 Y-12.675 F400.000
G1 X-5.213 Y-13.206 F400.000
G1 X-4.231 Y-13.550 F400.000
G1 X-3.606 Y-13.719 F400.000
G1 X-2.581 Y-13.963 F400.000
G1 X-1.469 Y-14.131 F400.000
G1 X-0.800 Y-14.175 F400.000
G1 X-0.169 Y-14.194 F400.000
G1 X0.906 Y-14.169 F400.000
G1 X1.631 Y-14.106 F400.000
G1 X2.600 Y-13.963 F400.000
G1 X3.369 Y-13.787 F400.000
G1 X4.400 Y-13.494 F400.000
G1 X5.269 Y-13.188 F400.000
G1 X6.550 Y-12.600 F400.000
G1 X7.469 Y-12.069 F400.000
G1 X8.300 Y-11.525 F400.000
G1 X8.994 Y-10.981 F400.000
G1 X9.800 Y-10.275 F400.000
G1 X10.569 Y-9.469 F400.000
G1 X11.006 Y-8.956 F400.000
G1 X11.681 Y-8.075 F400.000
G1 X12.300 Y-7.094 F400.000
G1 X12.556 Y-6.625 F400.000
G1 X13.056 Y-5.581 F400.000
G1 X13.300 Y-4.950 F400.000
G1 X13.581 Y-4.125 F400.000
G1 X13.944 Y-2.681 F400.000
G1 X14.081 Y-1.863 F400.000
G1 X14.150 Y-1.062 F400.000
G1 X14.200 Y-0.125 F400.000
G1 X14.169 Y0.800 F400.000
G1 X14.081 Y1.850 F400.000
G1 X13.919 Y2.812 F400.000
G1 X13.581 Y4.138 F400.000
G1 X13.125 Y5.419 F400.000
G1 X12.713 Y6.312 F400.000
G1 X12.206 Y7.237 F400.000
G1 X11.706 Y8.031 F400.000
G1 X11.119 Y8.831 F400.000
G1 X10.500 Y9.544 F400.000
G1 X9.644 Y10.425 F400.000
G1 X9.194 Y10.819 F400.000
G1 X8.275 Y11.537 F400.000
G1 X7.375 Y12.131 F400.000
G1 X6.400 Y12.675 F400.000
G1 X5.213 Y13.206 F400.000
G1 X4.231 Y13.550 F400.000
G1 X3.625 Y13.713 F400.000
G1 X2.581 Y13.963 F400.000
G1 X1.469 Y14.131 F400.000
G1 X0.800 Y14.175 F400.000
G1 X0.169 Y14.194 F400.000
G1 X-0.906 Y14.169 F400.000
G1 X-1.631 Y14.106 F400.000
G1 X-2.600 Y13.963 F400.000
G1 X-3.369 Y13.787 F400.000
G1 X-4.444 Y13.481 F400.000
G1 X-5.263 Y13.194 F400.000
G1 X-6.575 Y12.581 F400.000
G1 X-7.406 Y12.113 F400.000
G1 X-8.312 Y11.512 F400.000
G1 X-8.938 Y11.031 F400.000
G1 X-9.831 Y10.238 F400.000
G1 X-10.631 Y9.406 F400.000
G1 X-11.012 Y8.956 F400.000
G1 X-11.588 Y8.206 F400.000
G1 X-12.275 Y7.138 F400.000
G1 X-12.581 Y6.575 F400.000
G1 X-12.581 Y6.575 F400.000
G0 Z5.000
G0 Z5.000
(Finish operation: Adaptive)
(Block-name: post_amble)
(Block-expand: 0)
(Block-enable: 1)
(Begin postamble)
M5
G17 G90
M2
