(Exported by FreeCAD)
(Post Processor: grbl_post)
(Output Time:2024-03-17 14:25:07.335020)
(Begin preamble)
G17 G90
G21
(Block-name: Fixture)
(Block-expand: 0)
(Block-enable: 1)
(Begin operation: Fixture)
(Path: Fixture)
G54
(Finish operation: Fixture)
(Block-name: 3mm Endmill001)
(Block-expand: 0)
(Block-enable: 1)
(Begin operation: 3mm Endmill001)
(Path: 3mm Endmill001)
(3mm Endmill001)
(Begin toolchange)
( M6 T3 )
M3 S8000
(Finish operation: 3mm Endmill001)
(Block-name: Adaptive_OUTSIDE_CTBR)
(Block-expand: 0)
(Block-enable: 1)
(Begin operation: Adaptive_OUTSIDE_CTBR)
(Path: Adaptive_OUTSIDE_CTBR)
(Adaptive_OUTSIDE_CTBR)
(Helix to depth: -2.000000)
G0 Z15.000
G0 X-1.108 Y16.098 Z15.000
G0 X-1.108 Y16.098 Z3.000
G1 X-1.108 Y16.098 Z0.000 F420.000
G1 X-1.108 Y16.098 Z0.000 F420.000
G1 X-1.110 Y15.880 Z-0.019 F420.000
G1 X-1.070 Y15.665 Z-0.039 F420.000
G1 X-0.988 Y15.463 Z-0.058 F420.000
G1 X-0.869 Y15.280 Z-0.077 F420.000
G1 X-0.716 Y15.124 Z-0.097 F420.000
G1 X-0.536 Y15.000 Z-0.116 F420.000
G1 X-0.335 Y14.915 Z-0.135 F420.000
G1 X-0.121 Y14.870 Z-0.155 F420.000
G1 X0.097 Y14.867 Z-0.174 F420.000
G1 X0.312 Y14.908 Z-0.193 F420.000
G1 X0.515 Y14.989 Z-0.212 F420.000
G1 X0.698 Y15.109 Z-0.232 F420.000
G1 X0.854 Y15.261 Z-0.251 F420.000
G1 X0.977 Y15.442 Z-0.270 F420.000
G1 X1.063 Y15.643 Z-0.290 F420.000
G1 X1.108 Y15.856 Z-0.309 F420.000
G1 X1.110 Y16.075 Z-0.328 F420.000
G1 X1.070 Y16.289 Z-0.348 F420.000
G1 X0.988 Y16.492 Z-0.367 F420.000
G1 X0.869 Y16.675 Z-0.386 F420.000
G1 X0.716 Y16.831 Z-0.406 F420.000
G1 X0.536 Y16.954 Z-0.425 F420.000
G1 X0.335 Y17.040 Z-0.444 F420.000
G1 X0.121 Y17.085 Z-0.464 F420.000
G1 X-0.097 Y17.087 Z-0.483 F420.000
G1 X-0.312 Y17.047 Z-0.502 F420.000
G1 X-0.515 Y16.966 Z-0.521 F420.000
G1 X-0.698 Y16.846 Z-0.541 F420.000
G1 X-0.854 Y16.693 Z-0.560 F420.000
G1 X-0.977 Y16.513 Z-0.579 F420.000
G1 X-1.063 Y16.312 Z-0.599 F420.000
G1 X-1.108 Y16.098 Z-0.618 F420.000
G1 X-1.110 Y15.880 Z-0.637 F420.000
G1 X-1.070 Y15.665 Z-0.657 F420.000
G1 X-0.988 Y15.463 Z-0.676 F420.000
G1 X-0.869 Y15.280 Z-0.695 F420.000
G1 X-0.716 Y15.124 Z-0.715 F420.000
G1 X-0.536 Y15.000 Z-0.734 F420.000
G1 X-0.335 Y14.915 Z-0.753 F420.000
G1 X-0.121 Y14.870 Z-0.773 F420.000
G1 X0.097 Y14.867 Z-0.792 F420.000
G1 X0.312 Y14.908 Z-0.811 F420.000
G1 X0.515 Y14.989 Z-0.830 F420.000
G1 X0.698 Y15.109 Z-0.850 F420.000
G1 X0.854 Y15.261 Z-0.869 F420.000
G1 X0.977 Y15.442 Z-0.888 F420.000
G1 X1.063 Y15.643 Z-0.908 F420.000
G1 X1.108 Y15.856 Z-0.927 F420.000
G1 X1.110 Y16.075 Z-0.946 F420.000
G1 X1.070 Y16.289 Z-0.966 F420.000
G1 X0.988 Y16.492 Z-0.985 F420.000
G1 X0.869 Y16.675 Z-1.004 F420.000
G1 X0.716 Y16.831 Z-1.024 F420.000
G1 X0.536 Y16.954 Z-1.043 F420.000
G1 X0.335 Y17.040 Z-1.062 F420.000
G1 X0.121 Y17.085 Z-1.082 F420.000
G1 X-0.097 Y17.087 Z-1.101 F420.000
G1 X-0.312 Y17.047 Z-1.120 F420.000
G1 X-0.515 Y16.966 Z-1.139 F420.000
G1 X-0.698 Y16.846 Z-1.159 F420.000
G1 X-0.854 Y16.693 Z-1.178 F420.000
G1 X-0.977 Y16.513 Z-1.197 F420.000
G1 X-1.063 Y16.312 Z-1.217 F420.000
G1 X-1.108 Y16.098 Z-1.236 F420.000
G1 X-1.110 Y15.880 Z-1.255 F420.000
G1 X-1.070 Y15.665 Z-1.275 F420.000
G1 X-0.988 Y15.463 Z-1.294 F420.000
G1 X-0.869 Y15.280 Z-1.313 F420.000
G1 X-0.716 Y15.124 Z-1.333 F420.000
G1 X-0.536 Y15.000 Z-1.352 F420.000
G1 X-0.335 Y14.915 Z-1.371 F420.000
G1 X-0.121 Y14.870 Z-1.391 F420.000
G1 X0.097 Y14.867 Z-1.410 F420.000
G1 X0.312 Y14.908 Z-1.429 F420.000
G1 X0.515 Y14.989 Z-1.449 F420.000
G1 X0.698 Y15.109 Z-1.468 F420.000
G1 X0.854 Y15.261 Z-1.487 F420.000
G1 X0.977 Y15.442 Z-1.506 F420.000
G1 X1.063 Y15.643 Z-1.526 F420.000
G1 X1.108 Y15.856 Z-1.545 F420.000
G1 X1.110 Y16.075 Z-1.564 F420.000
G1 X1.070 Y16.289 Z-1.584 F420.000
G1 X0.988 Y16.492 Z-1.603 F420.000
G1 X0.869 Y16.675 Z-1.622 F420.000
G1 X0.716 Y16.831 Z-1.642 F420.000
G1 X0.536 Y16.954 Z-1.661 F420.000
G1 X0.335 Y17.040 Z-1.680 F420.000
G1 X0.121 Y17.085 Z-1.700 F420.000
G1 X-0.097 Y17.087 Z-1.719 F420.000
G1 X-0.312 Y17.047 Z-1.738 F420.000
G1 X-0.515 Y16.966 Z-1.758 F420.000
G1 X-0.698 Y16.846 Z-1.777 F420.000
G1 X-0.854 Y16.693 Z-1.796 F420.000
G1 X-0.977 Y16.513 Z-1.815 F420.000
G1 X-1.063 Y16.312 Z-1.835 F420.000
G1 X-1.108 Y16.098 Z-1.854 F420.000
G1 X-1.110 Y15.880 Z-1.873 F420.000
G1 X-1.070 Y15.665 Z-1.893 F420.000
G1 X-0.988 Y15.463 Z-1.912 F420.000
G1 X-0.869 Y15.280 Z-1.931 F420.000
G1 X-0.716 Y15.124 Z-1.951 F420.000
G1 X-0.536 Y15.000 Z-1.970 F420.000
G1 X-0.335 Y14.915 Z-1.989 F420.000
G1 X-0.121 Y14.870 Z-2.000 F420.000
G1 X0.097 Y14.867 Z-2.000 F420.000
G1 X0.312 Y14.908 Z-2.000 F420.000
G1 X0.515 Y14.989 Z-2.000 F420.000
G1 X0.698 Y15.109 Z-2.000 F420.000
G1 X0.854 Y15.261 Z-2.000 F420.000
G1 X0.977 Y15.442 Z-2.000 F420.000
G1 X1.063 Y15.643 Z-2.000 F420.000
G1 X1.108 Y15.856 Z-2.000 F420.000
G1 X1.110 Y16.075 Z-2.000 F420.000
G1 X1.070 Y16.289 Z-2.000 F420.000
G1 X0.988 Y16.492 Z-2.000 F420.000
G1 X0.869 Y16.675 Z-2.000 F420.000
G1 X0.716 Y16.831 Z-2.000 F420.000
G1 X0.536 Y16.954 Z-2.000 F420.000
G1 X0.335 Y17.040 Z-2.000 F420.000
G1 X0.121 Y17.085 Z-2.000 F420.000
G1 X-0.097 Y17.087 Z-2.000 F420.000
G1 X-0.312 Y17.047 Z-2.000 F420.000
G1 X-0.515 Y16.966 Z-2.000 F420.000
G1 X-0.698 Y16.846 Z-2.000 F420.000
G1 X-0.854 Y16.693 Z-2.000 F420.000
G1 X-0.977 Y16.513 Z-2.000 F420.000
G1 X-1.063 Y16.312 Z-2.000 F420.000
G1 X-1.108 Y16.098 Z-2.000 F420.000
G1 X-1.110 Y15.880 Z-2.000 F420.000
G1 X-1.070 Y15.665 Z-2.000 F420.000
G1 X-0.988 Y15.463 Z-2.000 F420.000
G1 X-0.869 Y15.280 Z-2.000 F420.000
G1 X-0.716 Y15.124 Z-2.000 F420.000
G1 X-0.536 Y15.000 Z-2.000 F420.000
G1 X-0.335 Y14.915 Z-2.000 F420.000
(Adaptive - depth: -2.000000)
G1 X0.000 Y14.853 F420.000
G1 X0.062 Y14.785 F420.000
G1 X0.220 Y14.706 F420.000
G1 X0.475 Y14.667 F420.000
G1 X0.644 Y14.689 F420.000
G1 X0.729 Y14.718 F420.000
G1 X1.056 Y14.893 F420.000
G1 X1.288 Y15.124 F420.000
G1 X1.401 Y15.299 F420.000
G1 X1.486 Y15.469 F420.000
G1 X1.559 Y15.723 F420.000
G1 X1.588 Y15.994 F420.000
G1 X1.565 Y16.260 F420.000
G1 X1.508 Y16.492 F420.000
G1 X1.401 Y16.734 F420.000
G1 X1.254 Y16.949 F420.000
G1 X1.085 Y17.141 F420.000
G1 X0.853 Y17.322 F420.000
G1 X0.616 Y17.452 F420.000
G1 X0.356 Y17.531 F420.000
G1 X0.113 Y17.565 F420.000
G1 X-0.141 Y17.565 F420.000
G1 X-0.429 Y17.508 F420.000
G1 X-0.678 Y17.418 F420.000
G1 X-0.915 Y17.288 F420.000
G1 X-1.130 Y17.113 F420.000
G1 X-1.311 Y16.910 F420.000
G1 X-1.446 Y16.672 F420.000
G1 X-1.531 Y16.452 F420.000
G1 X-1.588 Y16.198 F420.000
G1 X-1.599 Y15.921 F420.000
G1 X-1.565 Y15.638 F420.000
G1 X-1.480 Y15.379 F420.000
G1 X-1.367 Y15.153 F420.000
G1 X-1.209 Y14.932 F420.000
G1 X-1.023 Y14.740 F420.000
G1 X-0.802 Y14.548 F420.000
G1 X-0.497 Y14.350 F420.000
G1 X-0.147 Y14.209 F420.000
G1 X0.198 Y14.136 F420.000
G1 X0.537 Y14.130 F420.000
G1 X0.791 Y14.181 F420.000
G1 X1.119 Y14.311 F420.000
G1 X1.424 Y14.514 F420.000
G1 X1.689 Y14.768 F420.000
G1 X1.864 Y15.028 F420.000
G1 X1.972 Y15.249 F420.000
G1 X2.062 Y15.503 F420.000
G1 X2.119 Y15.825 F420.000
G1 X2.124 Y16.130 F420.000
G1 X2.090 Y16.424 F420.000
G1 X2.000 Y16.718 F420.000
G1 X1.887 Y16.960 F420.000
G1 X1.734 Y17.209 F420.000
G1 X1.514 Y17.480 F420.000
G1 X1.237 Y17.706 F420.000
G1 X1.006 Y17.859 F420.000
G1 X0.565 Y18.000 F420.000
G1 X-0.062 Y18.068 F420.000
G1 X-0.486 Y18.023 F420.000
G1 X-0.904 Y17.881 F420.000
G1 X-1.209 Y17.701 F420.000
G1 X-1.497 Y17.469 F420.000
G1 X-1.740 Y17.186 F420.000
G1 X-1.904 Y16.904 F420.000
G1 X-2.006 Y16.655 F420.000
G1 X-2.085 Y16.390 F420.000
G1 X-2.130 Y16.040 F420.000
G1 X-2.124 Y15.712 F420.000
G1 X-2.062 Y15.401 F420.000
G1 X-1.977 Y15.147 F420.000
G1 X-1.836 Y14.876 F420.000
G1 X-1.678 Y14.621 F420.000
G1 X-1.441 Y14.328 F420.000
G1 X-1.090 Y14.017 F420.000
G1 X-0.599 Y13.746 F420.000
G1 X-0.147 Y13.599 F420.000
G1 X0.537 Y13.542 F420.000
G1 X1.045 Y13.605 F420.000
G1 X1.373 Y13.712 F420.000
G1 X1.802 Y13.994 F420.000
G1 X2.158 Y14.362 F420.000
G1 X2.305 Y14.571 F420.000
G1 X2.480 Y14.898 F420.000
G1 X2.616 Y15.243 F420.000
G1 X2.701 Y15.605 F420.000
G1 X2.729 Y15.955 F420.000
G1 X2.723 Y16.260 F420.000
G1 X2.661 Y16.621 F420.000
G1 X2.559 Y16.949 F420.000
G1 X2.418 Y17.254 F420.000
G1 X2.232 Y17.548 F420.000
G1 X2.011 Y17.814 F420.000
G1 X1.655 Y18.085 F420.000
G1 X1.079 Y18.373 F420.000
G1 X0.718 Y18.452 F420.000
G1 X-0.678 Y18.446 F420.000
G1 X-1.102 Y18.367 F420.000
G1 X-1.186 Y18.339 F420.000
G1 X-1.571 Y18.113 F420.000
G1 X-1.910 Y17.814 F420.000
G1 X-2.266 Y17.390 F420.000
G1 X-2.446 Y17.062 F420.000
G1 X-2.582 Y16.712 F420.000
G1 X-2.661 Y16.390 F420.000
G1 X-2.695 Y16.073 F420.000
G1 X-2.701 Y15.734 F420.000
G1 X-2.650 Y15.362 F420.000
G1 X-2.559 Y15.017 F420.000
G1 X-2.429 Y14.678 F420.000
G1 X-2.254 Y14.350 F420.000
G1 X-2.017 Y14.051 F420.000
G1 X-1.672 Y13.718 F420.000
G1 X-1.508 Y13.616 F420.000
G1 X-0.514 Y13.503 F420.000
G1 X-0.514 Y13.503 F420.000
G1 X-0.186 Y13.582 F420.000
G0 X-0.147 Y13.593
G0 X0.373 Y13.616
G1 X0.418 Y13.621 F420.000
G1 X1.017 Y13.537 F420.000
G1 X1.017 Y13.537 F420.000
G1 X2.034 Y13.718 F420.000
G1 X2.350 Y13.847 F420.000
G1 X2.492 Y13.944 F420.000
G1 X2.729 Y14.198 F420.000
G1 X2.966 Y14.559 F420.000
G1 X3.079 Y14.797 F420.000
G1 X3.220 Y15.141 F420.000
G1 X3.305 Y15.503 F420.000
G1 X3.345 Y15.870 F420.000
G1 X3.345 Y16.237 F420.000
G1 X3.305 Y16.599 F420.000
G1 X3.220 Y16.960 F420.000
G1 X3.090 Y17.311 F420.000
G1 X2.927 Y17.644 F420.000
G1 X2.712 Y17.949 F420.000
G1 X2.226 Y18.367 F420.000
G1 X2.062 Y18.446 F420.000
G1 X1.068 Y18.458 F420.000
G1 X1.068 Y18.458 F420.000
G1 X0.876 Y18.412 F420.000
G1 X0.791 Y18.367 F420.000
G1 X0.763 Y18.333 F420.000
G0 X0.746 Y18.299
G0 X0.757 Y18.141
G0 X1.955 Y14.119
G1 X1.972 Y14.062 F420.000
G1 X2.040 Y13.893 F420.000
G1 X2.102 Y13.836 F420.000
G1 X2.232 Y13.797 F420.000
G1 X2.424 Y13.814 F420.000
G1 X2.424 Y13.814 F420.000
G1 X2.927 Y13.960 F420.000
G1 X3.158 Y14.079 F420.000
G1 X3.299 Y14.186 F420.000
G1 X3.605 Y14.610 F420.000
G1 X3.808 Y15.090 F420.000
G1 X3.904 Y15.446 F420.000
G1 X3.960 Y15.814 F420.000
G1 X3.972 Y16.181 F420.000
G1 X3.949 Y16.548 F420.000
G1 X3.887 Y16.915 F420.000
G1 X3.785 Y17.271 F420.000
G1 X3.650 Y17.616 F420.000
G1 X3.480 Y17.949 F420.000
G1 X3.051 Y18.412 F420.000
G1 X2.966 Y18.452 F420.000
G1 X2.605 Y18.458 F420.000
G1 X2.605 Y18.458 F420.000
G1 X2.412 Y18.412 F420.000
G1 X2.328 Y18.367 F420.000
G1 X2.299 Y18.333 F420.000
G0 X2.277 Y18.299
G0 X2.266 Y18.136
G0 X2.768 Y14.311
G1 X2.780 Y14.249 F420.000
G1 X2.814 Y14.102 F420.000
G1 X2.876 Y14.034 F420.000
G1 X3.006 Y14.006 F420.000
G1 X3.198 Y14.034 F420.000
G1 X3.198 Y14.034 F420.000
G1 X3.751 Y14.277 F420.000
G1 X4.034 Y14.475 F420.000
G1 X4.232 Y14.757 F420.000
G1 X4.429 Y15.232 F420.000
G1 X4.497 Y15.486 F420.000
G1 X4.571 Y15.847 F420.000
G1 X4.599 Y16.215 F420.000
G1 X4.593 Y16.582 F420.000
G1 X4.542 Y16.949 F420.000
G1 X4.463 Y17.311 F420.000
G1 X4.345 Y17.661 F420.000
G1 X4.186 Y18.000 F420.000
G1 X3.921 Y18.356 F420.000
G1 X3.853 Y18.418 F420.000
G1 X3.774 Y18.458 F420.000
G1 X3.503 Y18.458 F420.000
G1 X3.503 Y18.458 F420.000
G1 X3.311 Y18.412 F420.000
G1 X3.226 Y18.367 F420.000
G1 X3.198 Y18.333 F420.000
G0 X3.175 Y18.299
G0 X3.164 Y18.130
G0 X3.599 Y14.633
G1 X3.610 Y14.571 F420.000
G1 X3.644 Y14.424 F420.000
G1 X3.706 Y14.367 F420.000
G1 X3.836 Y14.339 F420.000
G1 X4.028 Y14.379 F420.000
G1 X4.028 Y14.379 F420.000
G1 X4.486 Y14.627 F420.000
G1 X4.689 Y14.785 F420.000
G1 X4.808 Y14.915 F420.000
G1 X4.966 Y15.226 F420.000
G1 X5.147 Y15.893 F420.000
G1 X5.209 Y16.254 F420.000
G1 X5.220 Y16.621 F420.000
G1 X5.192 Y16.989 F420.000
G1 X5.119 Y17.350 F420.000
G1 X5.011 Y17.706 F420.000
G1 X4.864 Y18.045 F420.000
G1 X4.610 Y18.407 F420.000
G1 X4.531 Y18.452 F420.000
G1 X4.350 Y18.458 F420.000
G1 X4.345 Y18.458 F420.000
G1 X4.153 Y18.412 F420.000
G1 X4.068 Y18.367 F420.000
G1 X4.034 Y18.333 F420.000
G0 X4.017 Y18.299
G0 X4.000 Y18.130
G0 X4.333 Y14.977
G1 X4.339 Y14.921 F420.000
G1 X4.373 Y14.774 F420.000
G1 X4.429 Y14.718 F420.000
G1 X4.559 Y14.706 F420.000
G1 X4.746 Y14.757 F420.000
G1 X4.746 Y14.757 F420.000
G1 X5.186 Y15.045 F420.000
G1 X5.435 Y15.282 F420.000
G1 X5.537 Y15.424 F420.000
G1 X5.667 Y15.746 F420.000
G1 X5.785 Y16.339 F420.000
G1 X5.825 Y16.791 F420.000
G1 X5.802 Y17.158 F420.000
G1 X5.729 Y17.520 F420.000
G1 X5.616 Y17.876 F420.000
G1 X5.446 Y18.192 F420.000
G1 X5.288 Y18.412 F420.000
G1 X5.209 Y18.458 F420.000
G1 X4.667 Y18.458 F420.000
G1 X4.667 Y18.458 F420.000
G1 X4.475 Y18.412 F420.000
G1 X4.390 Y18.367 F420.000
G1 X4.362 Y18.333 F420.000
G0 X4.339 Y18.299
G0 X4.345 Y18.136
G0 X4.983 Y15.373
G1 X5.000 Y15.316 F420.000
G1 X5.051 Y15.175 F420.000
G1 X5.113 Y15.124 F420.000
G1 X5.249 Y15.124 F420.000
G1 X5.429 Y15.186 F420.000
G1 X5.429 Y15.186 F420.000
G1 X5.966 Y15.616 F420.000
G1 X6.136 Y15.814 F420.000
G1 X6.220 Y15.966 F420.000
G1 X6.356 Y16.475 F420.000
G1 X6.390 Y16.983 F420.000
G1 X6.367 Y17.350 F420.000
G1 X6.294 Y17.712 F420.000
G1 X6.175 Y18.062 F420.000
G1 X5.989 Y18.367 F420.000
G1 X5.927 Y18.429 F420.000
G1 X5.842 Y18.458 F420.000
G1 X5.480 Y18.458 F420.000
G1 X5.480 Y18.458 F420.000
G1 X5.288 Y18.412 F420.000
G1 X5.203 Y18.367 F420.000
G1 X5.175 Y18.333 F420.000
G0 X5.158 Y18.299
G0 X5.158 Y18.136
G0 X5.706 Y15.864
G1 X5.723 Y15.814 F420.000
G1 X5.774 Y15.672 F420.000
G1 X5.836 Y15.633 F420.000
G1 X5.966 Y15.644 F420.000
G1 X6.141 Y15.734 F420.000
G1 X6.141 Y15.734 F420.000
G1 X6.576 Y16.141 F420.000
G1 X6.774 Y16.424 F420.000
G1 X6.836 Y16.588 F420.000
G1 X6.921 Y17.181 F420.000
G1 X6.893 Y17.605 F420.000
G1 X6.808 Y17.966 F420.000
G1 X6.701 Y18.209 F420.000
G1 X6.605 Y18.356 F420.000
G1 X6.542 Y18.424 F420.000
G1 X6.458 Y18.458 F420.000
G1 X6.006 Y18.458 F420.000
G1 X6.006 Y18.458 F420.000
G1 X5.814 Y18.412 F420.000
G1 X5.729 Y18.367 F420.000
G1 X5.701 Y18.339 F420.000
G0 X5.684 Y18.299
G0 X5.706 Y18.141
G0 X6.345 Y16.429
G1 X6.362 Y16.384 F420.000
G1 X6.441 Y16.232 F420.000
G1 X6.508 Y16.203 F420.000
G1 X6.633 Y16.237 F420.000
G1 X6.797 Y16.345 F420.000
G1 X6.797 Y16.345 F420.000
G1 X7.147 Y16.729 F420.000
G1 X7.322 Y17.028 F420.000
G1 X7.379 Y17.192 F420.000
G1 X7.401 Y17.531 F420.000
G1 X7.356 Y17.870 F420.000
G1 X7.237 Y18.203 F420.000
G1 X7.085 Y18.424 F420.000
G1 X7.000 Y18.458 F420.000
G1 X6.819 Y18.458 F420.000
G1 X6.819 Y18.458 F420.000
G1 X6.627 Y18.412 F420.000
G1 X6.542 Y18.367 F420.000
G1 X6.514 Y18.339 F420.000
G0 X6.497 Y18.305
G0 X6.542 Y18.096
G0 X6.960 Y17.062
G1 X6.977 Y17.017 F420.000
G1 X7.045 Y16.887 F420.000
G1 X7.119 Y16.859 F420.000
G1 X7.243 Y16.893 F420.000
G1 X7.390 Y17.023 F420.000
G1 X7.390 Y17.023 F420.000
G1 X7.650 Y17.373 F420.000
G1 X7.751 Y17.610 F420.000
G1 X7.785 Y17.780 F420.000
G1 X7.751 Y18.034 F420.000
G1 X7.661 Y18.282 F420.000
G1 X7.559 Y18.429 F420.000
G1 X7.475 Y18.458 F420.000
G1 X7.384 Y18.458 F420.000
G1 X7.384 Y18.458 F420.000
G1 X7.192 Y18.412 F420.000
G1 X7.107 Y18.367 F420.000
G1 X7.079 Y18.339 F420.000
G0 X7.068 Y18.305
G0 X7.379 Y17.605
G1 X7.401 Y17.565 F420.000
G1 X7.463 Y17.446 F420.000
G1 X7.525 Y17.407 F420.000
G1 X7.605 Y17.418 F420.000
G1 X7.751 Y17.525 F420.000
G1 X7.819 Y17.599 F420.000
G1 X7.819 Y17.599 F420.000
G1 X7.960 Y17.814 F420.000
G1 X8.045 Y18.056 F420.000
G1 X8.056 Y18.141 F420.000
G1 X8.051 Y18.226 F420.000
G1 X7.983 Y18.390 F420.000
G1 X7.915 Y18.446 F420.000
G1 X7.825 Y18.458 F420.000
G1 X7.825 Y18.458 F420.000
G1 X7.701 Y18.424 F420.000
G0 X7.684 Y18.401
G0 X7.825 Y18.119
G1 X7.853 Y18.085 F420.000
G1 X7.927 Y17.977 F420.000
G1 X7.989 Y17.949 F420.000
G1 X8.107 Y18.051 F420.000
G1 X8.107 Y18.051 F420.000
G1 X8.181 Y18.203 F420.000
G1 X8.215 Y18.373 F420.000
G1 X8.169 Y18.452 F420.000
G1 X8.079 Y18.458 F420.000
G1 X8.079 Y18.458 F420.000
G1 X8.062 Y18.441 F420.000
G1 X8.062 Y18.418 F420.000
G1 X8.147 Y18.345 F420.000
G1 X8.215 Y18.333 F420.000
G1 X8.271 Y18.367 F420.000
G1 X8.271 Y18.367 F420.000
G1 X8.215 Y18.435 F420.000
G1 X8.215 Y18.435 F420.000
G1 X7.972 Y18.441 F420.000
G1 X7.881 Y18.412 F420.000
G0 X7.842 Y18.390
G0 X7.452 Y17.966
G0 X7.328 Y17.938
G0 X0.350 Y17.944
G0 X-0.401 Y18.215
G1 X-0.441 Y18.232 F420.000
G1 X-0.655 Y18.328 F420.000
G1 X-0.876 Y18.429 F420.000
G1 X-1.023 Y18.458 F420.000
G1 X-1.023 Y18.458 F420.000
G1 X-1.531 Y18.446 F420.000
G1 X-1.785 Y18.395 F420.000
G1 X-1.955 Y18.333 F420.000
G1 X-2.322 Y18.068 F420.000
G1 X-2.582 Y17.814 F420.000
G1 X-2.910 Y17.362 F420.000
G1 X-3.073 Y17.023 F420.000
G1 X-3.198 Y16.672 F420.000
G1 X-3.271 Y16.305 F420.000
G1 X-3.305 Y15.972 F420.000
G1 X-3.294 Y15.599 F420.000
G1 X-3.254 Y15.237 F420.000
G1 X-3.164 Y14.870 F420.000
G1 X-2.994 Y14.435 F420.000
G1 X-2.701 Y13.949 F420.000
G1 X-2.633 Y13.881 F420.000
G1 X-2.548 Y13.842 F420.000
G1 X-2.006 Y13.701 F420.000
G1 X-2.000 Y13.701 F420.000
G1 X-1.808 Y13.678 F420.000
G1 X-1.718 Y13.695 F420.000
G1 X-1.678 Y13.712 F420.000
G0 X-1.655 Y13.740
G0 X-1.616 Y13.898
G0 X-1.475 Y18.028
G1 X-1.475 Y18.085 F420.000
G1 X-1.480 Y18.271 F420.000
G1 X-1.525 Y18.339 F420.000
G1 X-1.638 Y18.418 F420.000
G1 X-1.831 Y18.458 F420.000
G1 X-1.831 Y18.458 F420.000
G1 X-2.254 Y18.441 F420.000
G1 X-2.508 Y18.379 F420.000
G1 X-2.734 Y18.249 F420.000
G1 X-3.073 Y17.949 F420.000
G1 X-3.311 Y17.667 F420.000
G1 X-3.531 Y17.362 F420.000
G1 X-3.689 Y17.023 F420.000
G1 X-3.814 Y16.667 F420.000
G1 X-3.887 Y16.299 F420.000
G1 X-3.927 Y15.972 F420.000
G1 X-3.932 Y15.599 F420.000
G1 X-3.893 Y15.226 F420.000
G1 X-3.819 Y14.859 F420.000
G1 X-3.729 Y14.588 F420.000
G1 X-3.571 Y14.249 F420.000
G1 X-3.508 Y14.175 F420.000
G1 X-2.972 Y13.966 F420.000
G1 X-2.972 Y13.966 F420.000
G1 X-2.780 Y13.938 F420.000
G1 X-2.689 Y13.955 F420.000
G1 X-2.650 Y13.972 F420.000
G0 X-2.621 Y14.000
G0 X-2.571 Y14.153
G0 X-2.124 Y18.028
G1 X-2.119 Y18.085 F420.000
G1 X-2.113 Y18.271 F420.000
G1 X-2.153 Y18.339 F420.000
G1 X-2.266 Y18.418 F420.000
G1 X-2.458 Y18.458 F420.000
G1 X-2.458 Y18.458 F420.000
G1 X-2.881 Y18.441 F420.000
G1 X-3.136 Y18.379 F420.000
G1 X-3.362 Y18.249 F420.000
G1 X-3.571 Y18.073 F420.000
G1 X-3.864 Y17.729 F420.000
G1 X-4.090 Y17.435 F420.000
G1 X-4.271 Y17.107 F420.000
G1 X-4.412 Y16.757 F420.000
G1 X-4.503 Y16.395 F420.000
G1 X-4.554 Y16.068 F420.000
G1 X-4.582 Y15.695 F420.000
G1 X-4.554 Y15.322 F420.000
G1 X-4.395 Y14.689 F420.000
G1 X-4.362 Y14.605 F420.000
G1 X-4.305 Y14.525 F420.000
G1 X-3.802 Y14.282 F420.000
G1 X-3.802 Y14.282 F420.000
G1 X-3.610 Y14.237 F420.000
G1 X-3.520 Y14.249 F420.000
G1 X-3.480 Y14.260 F420.000
G0 X-3.452 Y14.282
G0 X-3.390 Y14.435
G0 X-2.768 Y18.034
G1 X-2.763 Y18.085 F420.000
G1 X-2.746 Y18.271 F420.000
G1 X-2.785 Y18.339 F420.000
G1 X-2.898 Y18.418 F420.000
G1 X-3.090 Y18.458 F420.000
G1 X-3.090 Y18.458 F420.000
G1 X-3.514 Y18.441 F420.000
G1 X-3.768 Y18.373 F420.000
G1 X-4.136 Y18.113 F420.000
G1 X-4.328 Y17.921 F420.000
G1 X-4.718 Y17.401 F420.000
G1 X-4.893 Y17.073 F420.000
G1 X-5.028 Y16.723 F420.000
G1 X-5.124 Y16.362 F420.000
G1 X-5.186 Y15.989 F420.000
G1 X-5.186 Y15.435 F420.000
G1 X-5.124 Y15.073 F420.000
G1 X-5.085 Y14.989 F420.000
G1 X-4.938 Y14.876 F420.000
G1 X-4.610 Y14.695 F420.000
G1 X-4.610 Y14.695 F420.000
G1 X-4.424 Y14.627 F420.000
G1 X-4.333 Y14.621 F420.000
G1 X-4.294 Y14.633 F420.000
G0 X-4.266 Y14.650
G0 X-4.192 Y14.797
G0 X-3.418 Y18.040
G1 X-3.407 Y18.090 F420.000
G1 X-3.379 Y18.271 F420.000
G1 X-3.412 Y18.345 F420.000
G1 X-3.531 Y18.418 F420.000
G1 X-3.718 Y18.458 F420.000
G1 X-3.718 Y18.458 F420.000
G1 X-4.141 Y18.441 F420.000
G1 X-4.395 Y18.373 F420.000
G1 X-4.621 Y18.232 F420.000
G1 X-4.944 Y17.915 F420.000
G1 X-5.333 Y17.401 F420.000
G1 X-5.514 Y17.073 F420.000
G1 X-5.650 Y16.723 F420.000
G1 X-5.751 Y16.362 F420.000
G1 X-5.825 Y15.814 F420.000
G1 X-5.814 Y15.542 F420.000
G1 X-5.780 Y15.458 F420.000
G1 X-5.407 Y15.175 F420.000
G1 X-5.407 Y15.175 F420.000
G1 X-5.220 Y15.102 F420.000
G1 X-5.130 Y15.096 F420.000
G1 X-5.090 Y15.102 F420.000
G0 X-5.056 Y15.119
G0 X-4.977 Y15.260
G0 X-4.068 Y18.051
G1 X-4.051 Y18.102 F420.000
G1 X-4.011 Y18.271 F420.000
G1 X-4.045 Y18.345 F420.000
G1 X-4.158 Y18.418 F420.000
G1 X-4.345 Y18.458 F420.000
G1 X-4.345 Y18.458 F420.000
G1 X-4.768 Y18.429 F420.000
G1 X-4.938 Y18.390 F420.000
G1 X-5.102 Y18.311 F420.000
G1 X-5.452 Y18.034 F420.000
G1 X-5.746 Y17.684 F420.000
G1 X-5.966 Y17.384 F420.000
G1 X-6.141 Y17.051 F420.000
G1 X-6.282 Y16.706 F420.000
G1 X-6.390 Y16.164 F420.000
G1 X-6.395 Y16.073 F420.000
G1 X-6.379 Y15.983 F420.000
G1 X-6.328 Y15.904 F420.000
G1 X-6.119 Y15.718 F420.000
G1 X-6.119 Y15.718 F420.000
G1 X-5.944 Y15.621 F420.000
G1 X-5.853 Y15.605 F420.000
G1 X-5.814 Y15.605 F420.000
G0 X-5.774 Y15.621
G0 X-5.678 Y15.751
G0 X-4.638 Y18.056
G1 X-4.616 Y18.107 F420.000
G1 X-4.565 Y18.232 F420.000
G1 X-4.565 Y18.311 F420.000
G1 X-4.616 Y18.373 F420.000
G1 X-4.746 Y18.429 F420.000
G1 X-4.887 Y18.458 F420.000
G1 X-4.887 Y18.458 F420.000
G1 X-5.311 Y18.441 F420.000
G1 X-5.565 Y18.373 F420.000
G1 X-5.723 Y18.294 F420.000
G1 X-6.006 Y18.073 F420.000
G1 X-6.362 Y17.667 F420.000
G1 X-6.588 Y17.373 F420.000
G1 X-6.763 Y17.045 F420.000
G1 X-6.881 Y16.599 F420.000
G1 X-6.893 Y16.508 F420.000
G1 X-6.864 Y16.418 F420.000
G1 X-6.734 Y16.277 F420.000
G1 X-6.734 Y16.277 F420.000
G1 X-6.571 Y16.164 F420.000
G1 X-6.486 Y16.136 F420.000
G1 X-6.441 Y16.136 F420.000
G0 X-6.407 Y16.141
G0 X-6.299 Y16.266
G0 X-5.282 Y18.073
G1 X-5.260 Y18.119 F420.000
G1 X-5.198 Y18.237 F420.000
G1 X-5.198 Y18.311 F420.000
G1 X-5.249 Y18.373 F420.000
G1 X-5.373 Y18.429 F420.000
G1 X-5.514 Y18.458 F420.000
G1 X-5.514 Y18.458 F420.000
G1 X-5.938 Y18.441 F420.000
G1 X-6.192 Y18.373 F420.000
G1 X-6.418 Y18.243 F420.000
G1 X-6.695 Y18.011 F420.000
G1 X-6.932 Y17.734 F420.000
G1 X-7.153 Y17.435 F420.000
G1 X-7.294 Y16.994 F420.000
G1 X-7.288 Y16.904 F420.000
G1 X-7.232 Y16.831 F420.000
G1 X-7.232 Y16.825 F420.000
G1 X-7.073 Y16.701 F420.000
G1 X-6.983 Y16.672 F420.000
G1 X-6.944 Y16.672 F420.000
G0 X-6.904 Y16.678
G0 X-6.757 Y16.842
G0 X-5.927 Y18.085
G1 X-5.898 Y18.124 F420.000
G1 X-5.831 Y18.243 F420.000
G1 X-5.825 Y18.311 F420.000
G1 X-5.876 Y18.373 F420.000
G1 X-6.000 Y18.429 F420.000
G1 X-6.141 Y18.458 F420.000
G1 X-6.141 Y18.458 F420.000
G1 X-6.565 Y18.441 F420.000
G1 X-6.819 Y18.379 F420.000
G1 X-7.045 Y18.249 F420.000
G1 X-7.305 Y17.994 F420.000
G1 X-7.469 Y17.774 F420.000
G1 X-7.588 Y17.525 F420.000
G1 X-7.616 Y17.435 F420.000
G1 X-7.621 Y17.345 F420.000
G1 X-7.588 Y17.260 F420.000
G1 X-7.588 Y17.260 F420.000
G1 X-7.435 Y17.130 F420.000
G1 X-7.350 Y17.090 F420.000
G1 X-7.311 Y17.085 F420.000
G0 X-7.271 Y17.090
G0 X-7.124 Y17.249
G0 X-6.554 Y18.085
G1 X-6.531 Y18.124 F420.000
G1 X-6.458 Y18.243 F420.000
G1 X-6.452 Y18.311 F420.000
G1 X-6.503 Y18.373 F420.000
G1 X-6.627 Y18.429 F420.000
G1 X-6.768 Y18.458 F420.000
G1 X-6.768 Y18.458 F420.000
G1 X-7.023 Y18.458 F420.000
G1 X-7.277 Y18.407 F420.000
G1 X-7.441 Y18.339 F420.000
G1 X-7.650 Y18.164 F420.000
G1 X-7.819 Y17.944 F420.000
G1 X-7.893 Y17.780 F420.000
G1 X-7.881 Y17.689 F420.000
G1 X-7.825 Y17.610 F420.000
G1 X-7.825 Y17.605 F420.000
G1 X-7.684 Y17.463 F420.000
G1 X-7.605 Y17.418 F420.000
G1 X-7.565 Y17.412 F420.000
G0 X-7.531 Y17.418
G0 X-7.085 Y18.079
G1 X-7.062 Y18.119 F420.000
G1 X-7.000 Y18.237 F420.000
G1 X-6.994 Y18.311 F420.000
G1 X-7.045 Y18.373 F420.000
G1 X-7.169 Y18.429 F420.000
G1 X-7.311 Y18.458 F420.000
G1 X-7.311 Y18.458 F420.000
G1 X-7.650 Y18.441 F420.000
G1 X-7.898 Y18.356 F420.000
G1 X-7.966 Y18.299 F420.000
G1 X-8.073 Y18.147 F420.000
G1 X-8.096 Y18.056 F420.000
G1 X-8.062 Y17.972 F420.000
G1 X-8.062 Y17.966 F420.000
G1 X-7.921 Y17.831 F420.000
G1 X-7.887 Y17.819 F420.000
G0 X-7.859 Y17.825
G0 X-7.678 Y18.124
G1 X-7.661 Y18.164 F420.000
G1 X-7.610 Y18.288 F420.000
G1 X-7.616 Y18.362 F420.000
G1 X-7.672 Y18.412 F420.000
G1 X-7.847 Y18.458 F420.000
G1 X-7.847 Y18.458 F420.000
G1 X-8.017 Y18.446 F420.000
G1 X-8.181 Y18.379 F420.000
G1 X-8.237 Y18.311 F420.000
G1 X-8.215 Y18.220 F420.000
G1 X-8.164 Y18.141 F420.000
G1 X-8.158 Y18.141 F420.000
G1 X-8.068 Y18.056 F420.000
G0 X-8.045 Y18.056
G0 X-7.989 Y18.153
G1 X-7.977 Y18.198 F420.000
G1 X-7.955 Y18.328 F420.000
G1 X-7.972 Y18.401 F420.000
G1 X-8.034 Y18.435 F420.000
G1 X-8.119 Y18.458 F420.000
G1 X-8.119 Y18.458 F420.000
G1 X-8.203 Y18.452 F420.000
G1 X-8.266 Y18.384 F420.000
G1 X-8.260 Y18.294 F420.000
G1 X-8.260 Y18.294 F420.000
G1 X-8.243 Y18.282 F420.000
G1 X-8.243 Y18.282 F420.000
G1 X-8.277 Y18.299 F420.000
G1 X-8.294 Y18.271 F420.000
G1 X-8.294 Y18.271 F420.000
G1 X-7.960 Y17.729 F420.000
G1 X-7.571 Y17.169 F420.000
G1 X-7.407 Y16.966 F420.000
G1 X-6.853 Y16.339 F420.000
G1 X-6.695 Y16.181 F420.000
G1 X-6.079 Y15.633 F420.000
G1 X-5.520 Y15.203 F420.000
G1 X-4.932 Y14.825 F420.000
G1 X-4.322 Y14.486 F420.000
G1 X-3.921 Y14.288 F420.000
G1 X-3.000 Y13.927 F420.000
G1 X-1.853 Y13.621 F420.000
G1 X-1.610 Y13.576 F420.000
G1 X-0.831 Y13.480 F420.000
G1 X-0.203 Y13.446 F420.000
G1 X0.294 Y13.446 F420.000
G1 X0.836 Y13.480 F420.000
G1 X1.316 Y13.542 F420.000
G1 X1.989 Y13.655 F420.000
G1 X3.085 Y13.955 F420.000
G1 X4.051 Y14.345 F420.000
G1 X4.373 Y14.508 F420.000
G1 X4.949 Y14.836 F420.000
G1 X5.610 Y15.271 F420.000
G1 X6.158 Y15.701 F420.000
G1 X6.689 Y16.175 F420.000
G1 X6.870 Y16.356 F420.000
G1 X7.215 Y16.734 F420.000
G1 X7.588 Y17.198 F420.000
G1 X8.006 Y17.791 F420.000
G1 X8.299 Y18.288 F420.000
G1 X8.311 Y18.339 F420.000
G1 X8.282 Y18.441 F420.000
G1 X8.237 Y18.480 F420.000
G1 X8.164 Y18.503 F420.000
G1 X-8.198 Y18.492 F420.000
G1 X-8.271 Y18.458 F420.000
G1 X-8.294 Y18.424 F420.000
G1 X-8.311 Y18.362 F420.000
G1 X-8.299 Y18.282 F420.000
G1 X-8.294 Y18.271 F420.000
G0 Z15.000
G0 Z15.000
(Finish operation: Adaptive_OUTSIDE_CTBR)
(Block-name: Drilling)
(Block-expand: 0)
(Block-enable: 1)
(Begin operation: Drilling)
(Path: Drilling)
(Drilling)
(Begin Drilling)
G0 Z15.000
G90
G98
G0 X-15.500 Y7.500
G83 X-15.500 Y7.500 Z-2.000 F420.000 Q0.600 R3.000
G0 X15.500 Y7.500
G83 X15.500 Y7.500 Z-2.000 F420.000 Q0.600 R3.000
G80
G0 Z3.000
G0 Z15.000
(Finish operation: Drilling)
(Block-name: post_amble)
(Block-expand: 0)
(Block-enable: 1)
(Begin postamble)
M5
G17 G90
M2
