(Exported by FreeCAD)
(Post Processor: grbl_post)
(Output Time:2024-01-28 22:08:37.360418)
(Begin preamble)
G17 G90
G21
(Block-name: Fixture)
(Block-expand: 0)
(Block-enable: 1)
(Begin operation: Fixture)
(Path: Fixture)
G54
(Finish operation: Fixture)
(Block-name: 6mm Endmill001)
(Block-expand: 0)
(Block-enable: 1)
(Begin operation: 6mm Endmill001)
(Path: 6mm Endmill001)
(6mm Endmill001)
(Begin toolchange)
( M6 T2 )
M3 S4000
(Finish operation: 6mm Endmill001)
(Block-name: Adaptive)
(Block-expand: 0)
(Block-enable: 1)
(Begin operation: Adaptive)
(Path: Adaptive)
(Adaptive)
(Helix to depth: -3.500000)
G0 Z31.000
G0 X0.277 Y-0.237 Z31.000
G0 X0.277 Y-0.237 Z11.000
G1 X0.277 Y-0.237 Z1.000 F600.000
G1 X0.277 Y-0.237 Z1.000 F600.000
G1 X0.318 Y-0.179 Z0.987 F600.000
G1 X0.347 Y-0.113 Z0.974 F600.000
G1 X0.362 Y-0.043 Z0.961 F600.000
G1 X0.364 Y0.028 Z0.948 F600.000
G1 X0.351 Y0.099 Z0.935 F600.000
G1 X0.325 Y0.166 Z0.922 F600.000
G1 X0.287 Y0.226 Z0.909 F600.000
G1 X0.237 Y0.277 Z0.896 F600.000
G1 X0.179 Y0.318 Z0.883 F600.000
G1 X0.113 Y0.347 Z0.870 F600.000
G1 X0.043 Y0.362 Z0.857 F600.000
G1 X-0.028 Y0.364 Z0.844 F600.000
G1 X-0.099 Y0.351 Z0.831 F600.000
G1 X-0.166 Y0.325 Z0.818 F600.000
G1 X-0.226 Y0.287 Z0.805 F600.000
G1 X-0.277 Y0.237 Z0.792 F600.000
G1 X-0.318 Y0.179 Z0.779 F600.000
G1 X-0.347 Y0.113 Z0.766 F600.000
G1 X-0.362 Y0.043 Z0.753 F600.000
G1 X-0.364 Y-0.028 Z0.740 F600.000
G1 X-0.351 Y-0.099 Z0.727 F600.000
G1 X-0.325 Y-0.166 Z0.714 F600.000
G1 X-0.287 Y-0.226 Z0.701 F600.000
G1 X-0.237 Y-0.277 Z0.688 F600.000
G1 X-0.179 Y-0.318 Z0.675 F600.000
G1 X-0.113 Y-0.347 Z0.662 F600.000
G1 X-0.043 Y-0.362 Z0.649 F600.000
G1 X0.028 Y-0.364 Z0.636 F600.000
G1 X0.099 Y-0.351 Z0.623 F600.000
G1 X0.166 Y-0.325 Z0.611 F600.000
G1 X0.226 Y-0.287 Z0.598 F600.000
G1 X0.277 Y-0.237 Z0.585 F600.000
G1 X0.318 Y-0.179 Z0.572 F600.000
G1 X0.347 Y-0.113 Z0.559 F600.000
G1 X0.362 Y-0.043 Z0.546 F600.000
G1 X0.364 Y0.028 Z0.533 F600.000
G1 X0.351 Y0.099 Z0.520 F600.000
G1 X0.325 Y0.166 Z0.507 F600.000
G1 X0.287 Y0.226 Z0.494 F600.000
G1 X0.237 Y0.277 Z0.481 F600.000
G1 X0.179 Y0.318 Z0.468 F600.000
G1 X0.113 Y0.347 Z0.455 F600.000
G1 X0.043 Y0.362 Z0.442 F600.000
G1 X-0.028 Y0.364 Z0.429 F600.000
G1 X-0.099 Y0.351 Z0.416 F600.000
G1 X-0.166 Y0.325 Z0.403 F600.000
G1 X-0.226 Y0.287 Z0.390 F600.000
G1 X-0.277 Y0.237 Z0.377 F600.000
G1 X-0.318 Y0.179 Z0.364 F600.000
G1 X-0.347 Y0.113 Z0.351 F600.000
G1 X-0.362 Y0.043 Z0.338 F600.000
G1 X-0.364 Y-0.028 Z0.325 F600.000
G1 X-0.351 Y-0.099 Z0.312 F600.000
G1 X-0.325 Y-0.166 Z0.299 F600.000
G1 X-0.287 Y-0.226 Z0.286 F600.000
G1 X-0.237 Y-0.277 Z0.273 F600.000
G1 X-0.179 Y-0.318 Z0.260 F600.000
G1 X-0.113 Y-0.347 Z0.247 F600.000
G1 X-0.043 Y-0.362 Z0.234 F600.000
G1 X0.028 Y-0.364 Z0.221 F600.000
G1 X0.099 Y-0.351 Z0.208 F600.000
G1 X0.166 Y-0.325 Z0.195 F600.000
G1 X0.226 Y-0.287 Z0.182 F600.000
G1 X0.277 Y-0.237 Z0.169 F600.000
G1 X0.318 Y-0.179 Z0.156 F600.000
G1 X0.347 Y-0.113 Z0.143 F600.000
G1 X0.362 Y-0.043 Z0.130 F600.000
G1 X0.364 Y0.028 Z0.117 F600.000
G1 X0.351 Y0.099 Z0.104 F600.000
G1 X0.325 Y0.166 Z0.091 F600.000
G1 X0.287 Y0.226 Z0.078 F600.000
G1 X0.237 Y0.277 Z0.065 F600.000
G1 X0.179 Y0.318 Z0.052 F600.000
G1 X0.113 Y0.347 Z0.039 F600.000
G1 X0.043 Y0.362 Z0.026 F600.000
G1 X-0.028 Y0.364 Z0.013 F600.000
G1 X-0.099 Y0.351 Z0.000 F600.000
G1 X-0.166 Y0.325 Z-0.013 F600.000
G1 X-0.226 Y0.287 Z-0.026 F600.000
G1 X-0.277 Y0.237 Z-0.039 F600.000
G1 X-0.318 Y0.179 Z-0.052 F600.000
G1 X-0.347 Y0.113 Z-0.065 F600.000
G1 X-0.362 Y0.043 Z-0.078 F600.000
G1 X-0.364 Y-0.028 Z-0.091 F600.000
G1 X-0.351 Y-0.099 Z-0.104 F600.000
G1 X-0.325 Y-0.166 Z-0.117 F600.000
G1 X-0.287 Y-0.226 Z-0.130 F600.000
G1 X-0.237 Y-0.277 Z-0.143 F600.000
G1 X-0.179 Y-0.318 Z-0.155 F600.000
G1 X-0.113 Y-0.347 Z-0.168 F600.000
G1 X-0.043 Y-0.362 Z-0.181 F600.000
G1 X0.028 Y-0.364 Z-0.194 F600.000
G1 X0.099 Y-0.351 Z-0.207 F600.000
G1 X0.166 Y-0.325 Z-0.220 F600.000
G1 X0.226 Y-0.287 Z-0.233 F600.000
G1 X0.277 Y-0.237 Z-0.246 F600.000
G1 X0.318 Y-0.179 Z-0.259 F600.000
G1 X0.347 Y-0.113 Z-0.272 F600.000
G1 X0.362 Y-0.043 Z-0.285 F600.000
G1 X0.364 Y0.028 Z-0.298 F600.000
G1 X0.351 Y0.099 Z-0.311 F600.000
G1 X0.325 Y0.166 Z-0.324 F600.000
G1 X0.287 Y0.226 Z-0.337 F600.000
G1 X0.237 Y0.277 Z-0.350 F600.000
G1 X0.179 Y0.318 Z-0.363 F600.000
G1 X0.113 Y0.347 Z-0.376 F600.000
G1 X0.043 Y0.362 Z-0.389 F600.000
G1 X-0.028 Y0.364 Z-0.402 F600.000
G1 X-0.099 Y0.351 Z-0.415 F600.000
G1 X-0.166 Y0.325 Z-0.428 F600.000
G1 X-0.226 Y0.287 Z-0.441 F600.000
G1 X-0.277 Y0.237 Z-0.454 F600.000
G1 X-0.318 Y0.179 Z-0.467 F600.000
G1 X-0.347 Y0.113 Z-0.480 F600.000
G1 X-0.362 Y0.043 Z-0.493 F600.000
G1 X-0.364 Y-0.028 Z-0.506 F600.000
G1 X-0.351 Y-0.099 Z-0.519 F600.000
G1 X-0.325 Y-0.166 Z-0.532 F600.000
G1 X-0.287 Y-0.226 Z-0.545 F600.000
G1 X-0.237 Y-0.277 Z-0.558 F600.000
G1 X-0.179 Y-0.318 Z-0.571 F600.000
G1 X-0.113 Y-0.347 Z-0.584 F600.000
G1 X-0.043 Y-0.362 Z-0.597 F600.000
G1 X0.028 Y-0.364 Z-0.610 F600.000
G1 X0.099 Y-0.351 Z-0.623 F600.000
G1 X0.166 Y-0.325 Z-0.636 F600.000
G1 X0.226 Y-0.287 Z-0.649 F600.000
G1 X0.277 Y-0.237 Z-0.662 F600.000
G1 X0.318 Y-0.179 Z-0.675 F600.000
G1 X0.347 Y-0.113 Z-0.688 F600.000
G1 X0.362 Y-0.043 Z-0.701 F600.000
G1 X0.364 Y0.028 Z-0.714 F600.000
G1 X0.351 Y0.099 Z-0.727 F600.000
G1 X0.325 Y0.166 Z-0.740 F600.000
G1 X0.287 Y0.226 Z-0.753 F600.000
G1 X0.237 Y0.277 Z-0.766 F600.000
G1 X0.179 Y0.318 Z-0.779 F600.000
G1 X0.113 Y0.347 Z-0.792 F600.000
G1 X0.043 Y0.362 Z-0.805 F600.000
G1 X-0.028 Y0.364 Z-0.818 F600.000
G1 X-0.099 Y0.351 Z-0.831 F600.000
G1 X-0.166 Y0.325 Z-0.844 F600.000
G1 X-0.226 Y0.287 Z-0.857 F600.000
G1 X-0.277 Y0.237 Z-0.870 F600.000
G1 X-0.318 Y0.179 Z-0.883 F600.000
G1 X-0.347 Y0.113 Z-0.896 F600.000
G1 X-0.362 Y0.043 Z-0.909 F600.000
G1 X-0.364 Y-0.028 Z-0.922 F600.000
G1 X-0.351 Y-0.099 Z-0.934 F600.000
G1 X-0.325 Y-0.166 Z-0.947 F600.000
G1 X-0.287 Y-0.226 Z-0.960 F600.000
G1 X-0.237 Y-0.277 Z-0.973 F600.000
G1 X-0.179 Y-0.318 Z-0.986 F600.000
G1 X-0.113 Y-0.347 Z-0.999 F600.000
G1 X-0.043 Y-0.362 Z-1.012 F600.000
G1 X0.028 Y-0.364 Z-1.025 F600.000
G1 X0.099 Y-0.351 Z-1.038 F600.000
G1 X0.166 Y-0.325 Z-1.051 F600.000
G1 X0.226 Y-0.287 Z-1.064 F600.000
G1 X0.277 Y-0.237 Z-1.077 F600.000
G1 X0.318 Y-0.179 Z-1.090 F600.000
G1 X0.347 Y-0.113 Z-1.103 F600.000
G1 X0.362 Y-0.043 Z-1.116 F600.000
G1 X0.364 Y0.028 Z-1.129 F600.000
G1 X0.351 Y0.099 Z-1.142 F600.000
G1 X0.325 Y0.166 Z-1.155 F600.000
G1 X0.287 Y0.226 Z-1.168 F600.000
G1 X0.237 Y0.277 Z-1.181 F600.000
G1 X0.179 Y0.318 Z-1.194 F600.000
G1 X0.113 Y0.347 Z-1.207 F600.000
G1 X0.043 Y0.362 Z-1.220 F600.000
G1 X-0.028 Y0.364 Z-1.233 F600.000
G1 X-0.099 Y0.351 Z-1.246 F600.000
G1 X-0.166 Y0.325 Z-1.259 F600.000
G1 X-0.226 Y0.287 Z-1.272 F600.000
G1 X-0.277 Y0.237 Z-1.285 F600.000
G1 X-0.318 Y0.179 Z-1.298 F600.000
G1 X-0.347 Y0.113 Z-1.311 F600.000
G1 X-0.362 Y0.043 Z-1.324 F600.000
G1 X-0.364 Y-0.028 Z-1.337 F600.000
G1 X-0.351 Y-0.099 Z-1.350 F600.000
G1 X-0.325 Y-0.166 Z-1.363 F600.000
G1 X-0.287 Y-0.226 Z-1.376 F600.000
G1 X-0.237 Y-0.277 Z-1.389 F600.000
G1 X-0.179 Y-0.318 Z-1.402 F600.000
G1 X-0.113 Y-0.347 Z-1.415 F600.000
G1 X-0.043 Y-0.362 Z-1.428 F600.000
G1 X0.028 Y-0.364 Z-1.441 F600.000
G1 X0.099 Y-0.351 Z-1.454 F600.000
G1 X0.166 Y-0.325 Z-1.467 F600.000
G1 X0.226 Y-0.287 Z-1.480 F600.000
G1 X0.277 Y-0.237 Z-1.493 F600.000
G1 X0.318 Y-0.179 Z-1.506 F600.000
G1 X0.347 Y-0.113 Z-1.519 F600.000
G1 X0.362 Y-0.043 Z-1.532 F600.000
G1 X0.364 Y0.028 Z-1.545 F600.000
G1 X0.351 Y0.099 Z-1.558 F600.000
G1 X0.325 Y0.166 Z-1.571 F600.000
G1 X0.287 Y0.226 Z-1.584 F600.000
G1 X0.237 Y0.277 Z-1.597 F600.000
G1 X0.179 Y0.318 Z-1.610 F600.000
G1 X0.113 Y0.347 Z-1.623 F600.000
G1 X0.043 Y0.362 Z-1.636 F600.000
G1 X-0.028 Y0.364 Z-1.649 F600.000
G1 X-0.099 Y0.351 Z-1.662 F600.000
G1 X-0.166 Y0.325 Z-1.675 F600.000
G1 X-0.226 Y0.287 Z-1.688 F600.000
G1 X-0.277 Y0.237 Z-1.700 F600.000
G1 X-0.318 Y0.179 Z-1.713 F600.000
G1 X-0.347 Y0.113 Z-1.726 F600.000
G1 X-0.362 Y0.043 Z-1.739 F600.000
G1 X-0.364 Y-0.028 Z-1.752 F600.000
G1 X-0.351 Y-0.099 Z-1.765 F600.000
G1 X-0.325 Y-0.166 Z-1.778 F600.000
G1 X-0.287 Y-0.226 Z-1.791 F600.000
G1 X-0.237 Y-0.277 Z-1.804 F600.000
G1 X-0.179 Y-0.318 Z-1.817 F600.000
G1 X-0.113 Y-0.347 Z-1.830 F600.000
G1 X-0.043 Y-0.362 Z-1.843 F600.000
G1 X0.028 Y-0.364 Z-1.856 F600.000
G1 X0.099 Y-0.351 Z-1.869 F600.000
G1 X0.166 Y-0.325 Z-1.882 F600.000
G1 X0.226 Y-0.287 Z-1.895 F600.000
G1 X0.277 Y-0.237 Z-1.908 F600.000
G1 X0.318 Y-0.179 Z-1.921 F600.000
G1 X0.347 Y-0.113 Z-1.934 F600.000
G1 X0.362 Y-0.043 Z-1.947 F600.000
G1 X0.364 Y0.028 Z-1.960 F600.000
G1 X0.351 Y0.099 Z-1.973 F600.000
G1 X0.325 Y0.166 Z-1.986 F600.000
G1 X0.287 Y0.226 Z-1.999 F600.000
G1 X0.237 Y0.277 Z-2.012 F600.000
G1 X0.179 Y0.318 Z-2.025 F600.000
G1 X0.113 Y0.347 Z-2.038 F600.000
G1 X0.043 Y0.362 Z-2.051 F600.000
G1 X-0.028 Y0.364 Z-2.064 F600.000
G1 X-0.099 Y0.351 Z-2.077 F600.000
G1 X-0.166 Y0.325 Z-2.090 F600.000
G1 X-0.226 Y0.287 Z-2.103 F600.000
G1 X-0.277 Y0.237 Z-2.116 F600.000
G1 X-0.318 Y0.179 Z-2.129 F600.000
G1 X-0.347 Y0.113 Z-2.142 F600.000
G1 X-0.362 Y0.043 Z-2.155 F600.000
G1 X-0.364 Y-0.028 Z-2.168 F600.000
G1 X-0.351 Y-0.099 Z-2.181 F600.000
G1 X-0.325 Y-0.166 Z-2.194 F600.000
G1 X-0.287 Y-0.226 Z-2.207 F600.000
G1 X-0.237 Y-0.277 Z-2.220 F600.000
G1 X-0.179 Y-0.318 Z-2.233 F600.000
G1 X-0.113 Y-0.347 Z-2.246 F600.000
G1 X-0.043 Y-0.362 Z-2.259 F600.000
G1 X0.028 Y-0.364 Z-2.272 F600.000
G1 X0.099 Y-0.351 Z-2.285 F600.000
G1 X0.166 Y-0.325 Z-2.298 F600.000
G1 X0.226 Y-0.287 Z-2.311 F600.000
G1 X0.277 Y-0.237 Z-2.324 F600.000
G1 X0.318 Y-0.179 Z-2.337 F600.000
G1 X0.347 Y-0.113 Z-2.350 F600.000
G1 X0.362 Y-0.043 Z-2.363 F600.000
G1 X0.364 Y0.028 Z-2.376 F600.000
G1 X0.351 Y0.099 Z-2.389 F600.000
G1 X0.325 Y0.166 Z-2.402 F600.000
G1 X0.287 Y0.226 Z-2.415 F600.000
G1 X0.237 Y0.277 Z-2.428 F600.000
G1 X0.179 Y0.318 Z-2.441 F600.000
G1 X0.113 Y0.347 Z-2.454 F600.000
G1 X0.043 Y0.362 Z-2.466 F600.000
G1 X-0.028 Y0.364 Z-2.479 F600.000
G1 X-0.099 Y0.351 Z-2.492 F600.000
G1 X-0.166 Y0.325 Z-2.505 F600.000
G1 X-0.226 Y0.287 Z-2.518 F600.000
G1 X-0.277 Y0.237 Z-2.531 F600.000
G1 X-0.318 Y0.179 Z-2.544 F600.000
G1 X-0.347 Y0.113 Z-2.557 F600.000
G1 X-0.362 Y0.043 Z-2.570 F600.000
G1 X-0.364 Y-0.028 Z-2.583 F600.000
G1 X-0.351 Y-0.099 Z-2.596 F600.000
G1 X-0.325 Y-0.166 Z-2.609 F600.000
G1 X-0.287 Y-0.226 Z-2.622 F600.000
G1 X-0.237 Y-0.277 Z-2.635 F600.000
G1 X-0.179 Y-0.318 Z-2.648 F600.000
G1 X-0.113 Y-0.347 Z-2.661 F600.000
G1 X-0.043 Y-0.362 Z-2.674 F600.000
G1 X0.028 Y-0.364 Z-2.687 F600.000
G1 X0.099 Y-0.351 Z-2.700 F600.000
G1 X0.166 Y-0.325 Z-2.713 F600.000
G1 X0.226 Y-0.287 Z-2.726 F600.000
G1 X0.277 Y-0.237 Z-2.739 F600.000
G1 X0.318 Y-0.179 Z-2.752 F600.000
G1 X0.347 Y-0.113 Z-2.765 F600.000
G1 X0.362 Y-0.043 Z-2.778 F600.000
G1 X0.364 Y0.028 Z-2.791 F600.000
G1 X0.351 Y0.099 Z-2.804 F600.000
G1 X0.325 Y0.166 Z-2.817 F600.000
G1 X0.287 Y0.226 Z-2.830 F600.000
G1 X0.237 Y0.277 Z-2.843 F600.000
G1 X0.179 Y0.318 Z-2.856 F600.000
G1 X0.113 Y0.347 Z-2.869 F600.000
G1 X0.043 Y0.362 Z-2.882 F600.000
G1 X-0.028 Y0.364 Z-2.895 F600.000
G1 X-0.099 Y0.351 Z-2.908 F600.000
G1 X-0.166 Y0.325 Z-2.921 F600.000
G1 X-0.226 Y0.287 Z-2.934 F600.000
G1 X-0.277 Y0.237 Z-2.947 F600.000
G1 X-0.318 Y0.179 Z-2.960 F600.000
G1 X-0.347 Y0.113 Z-2.973 F600.000
G1 X-0.362 Y0.043 Z-2.986 F600.000
G1 X-0.364 Y-0.028 Z-2.999 F600.000
G1 X-0.351 Y-0.099 Z-3.012 F600.000
G1 X-0.325 Y-0.166 Z-3.025 F600.000
G1 X-0.287 Y-0.226 Z-3.038 F600.000
G1 X-0.237 Y-0.277 Z-3.051 F600.000
G1 X-0.179 Y-0.318 Z-3.064 F600.000
G1 X-0.113 Y-0.347 Z-3.077 F600.000
G1 X-0.043 Y-0.362 Z-3.090 F600.000
G1 X0.028 Y-0.364 Z-3.103 F600.000
G1 X0.099 Y-0.351 Z-3.116 F600.000
G1 X0.166 Y-0.325 Z-3.129 F600.000
G1 X0.226 Y-0.287 Z-3.142 F600.000
G1 X0.277 Y-0.237 Z-3.155 F600.000
G1 X0.318 Y-0.179 Z-3.168 F600.000
G1 X0.347 Y-0.113 Z-3.181 F600.000
G1 X0.362 Y-0.043 Z-3.194 F600.000
G1 X0.364 Y0.028 Z-3.207 F600.000
G1 X0.351 Y0.099 Z-3.220 F600.000
G1 X0.325 Y0.166 Z-3.233 F600.000
G1 X0.287 Y0.226 Z-3.245 F600.000
G1 X0.237 Y0.277 Z-3.258 F600.000
G1 X0.179 Y0.318 Z-3.271 F600.000
G1 X0.113 Y0.347 Z-3.284 F600.000
G1 X0.043 Y0.362 Z-3.297 F600.000
G1 X-0.028 Y0.364 Z-3.310 F600.000
G1 X-0.099 Y0.351 Z-3.323 F600.000
G1 X-0.166 Y0.325 Z-3.336 F600.000
G1 X-0.226 Y0.287 Z-3.349 F600.000
G1 X-0.277 Y0.237 Z-3.362 F600.000
G1 X-0.318 Y0.179 Z-3.375 F600.000
G1 X-0.347 Y0.113 Z-3.388 F600.000
G1 X-0.362 Y0.043 Z-3.401 F600.000
G1 X-0.364 Y-0.028 Z-3.414 F600.000
G1 X-0.351 Y-0.099 Z-3.427 F600.000
G1 X-0.325 Y-0.166 Z-3.440 F600.000
G1 X-0.287 Y-0.226 Z-3.453 F600.000
G1 X-0.237 Y-0.277 Z-3.466 F600.000
G1 X-0.179 Y-0.318 Z-3.479 F600.000
G1 X-0.113 Y-0.347 Z-3.492 F600.000
G1 X-0.043 Y-0.362 Z-3.500 F600.000
G1 X0.028 Y-0.364 Z-3.500 F600.000
G1 X0.099 Y-0.351 Z-3.500 F600.000
G1 X0.166 Y-0.325 Z-3.500 F600.000
G1 X0.226 Y-0.287 Z-3.500 F600.000
G1 X0.277 Y-0.237 Z-3.500 F600.000
G1 X0.318 Y-0.179 Z-3.500 F600.000
G1 X0.347 Y-0.113 Z-3.500 F600.000
G1 X0.362 Y-0.043 Z-3.500 F600.000
G1 X0.364 Y0.028 Z-3.500 F600.000
G1 X0.351 Y0.099 Z-3.500 F600.000
G1 X0.325 Y0.166 Z-3.500 F600.000
G1 X0.287 Y0.226 Z-3.500 F600.000
G1 X0.237 Y0.277 Z-3.500 F600.000
G1 X0.179 Y0.318 Z-3.500 F600.000
G1 X0.113 Y0.347 Z-3.500 F600.000
G1 X0.043 Y0.362 Z-3.500 F600.000
G1 X-0.028 Y0.364 Z-3.500 F600.000
G1 X-0.099 Y0.351 Z-3.500 F600.000
G1 X-0.166 Y0.325 Z-3.500 F600.000
G1 X-0.226 Y0.287 Z-3.500 F600.000
G1 X-0.277 Y0.237 Z-3.500 F600.000
G1 X-0.318 Y0.179 Z-3.500 F600.000
G1 X-0.347 Y0.113 Z-3.500 F600.000
G1 X-0.362 Y0.043 Z-3.500 F600.000
G1 X-0.364 Y-0.028 Z-3.500 F600.000
G1 X-0.351 Y-0.099 Z-3.500 F600.000
G1 X-0.325 Y-0.166 Z-3.500 F600.000
G1 X-0.287 Y-0.226 Z-3.500 F600.000
G1 X-0.237 Y-0.277 Z-3.500 F600.000
G1 X-0.179 Y-0.318 Z-3.500 F600.000
G1 X-0.113 Y-0.347 Z-3.500 F600.000
(Adaptive - depth: -3.500000)
G1 X0.000 Y-0.375 F600.000
G1 X0.087 Y-0.412 F600.000
G1 X0.181 Y-0.412 F600.000
G1 X0.275 Y-0.381 F600.000
G1 X0.356 Y-0.325 F600.000
G1 X0.425 Y-0.250 F600.000
G1 X0.500 Y-0.062 F600.000
G1 X0.506 Y0.031 F600.000
G1 X0.494 Y0.125 F600.000
G1 X0.463 Y0.219 F600.000
G1 X0.412 Y0.306 F600.000
G1 X0.344 Y0.381 F600.000
G1 X0.263 Y0.444 F600.000
G1 X0.175 Y0.487 F600.000
G1 X-0.019 Y0.519 F600.000
G1 X-0.113 Y0.506 F600.000
G1 X-0.206 Y0.475 F600.000
G1 X-0.369 Y0.362 F600.000
G1 X-0.481 Y0.200 F600.000
G1 X-0.512 Y0.106 F600.000
G1 X-0.512 Y-0.087 F600.000
G1 X-0.487 Y-0.181 F600.000
G1 X-0.388 Y-0.350 F600.000
G1 X-0.319 Y-0.419 F600.000
G1 X-0.144 Y-0.512 F600.000
G1 X-0.044 Y-0.537 F600.000
G1 X0.237 Y-0.469 F600.000
G1 X0.325 Y-0.419 F600.000
G1 X0.456 Y-0.269 F600.000
G1 X0.525 Y-0.075 F600.000
G1 X0.525 Y-0.075 F600.000
G1 X0.537 Y0.050 F600.000
G1 X0.537 Y0.050 F600.000
G1 X0.556 Y0.062 F600.000
G1 X0.556 Y0.062 F600.000
G1 X0.544 Y0.194 F600.000
G1 X0.544 Y0.194 F600.000
G1 X0.531 Y0.188 F600.000
G1 X0.525 Y0.244 F600.000
G1 X0.463 Y0.356 F600.000
G1 X0.312 Y0.494 F600.000
G1 X0.119 Y0.581 F600.000
G1 X-0.169 Y0.550 F600.000
G1 X-0.394 Y0.431 F600.000
G1 X-0.481 Y0.331 F600.000
G1 X-0.569 Y0.144 F600.000
G1 X-0.588 Y-0.006 F600.000
G1 X-0.569 Y-0.119 F600.000
G1 X-0.487 Y-0.312 F600.000
G1 X-0.325 Y-0.487 F600.000
G1 X-0.156 Y-0.569 F600.000
G1 X0.050 Y-0.588 F600.000
G1 X0.219 Y-0.537 F600.000
G1 X0.406 Y-0.425 F600.000
G1 X0.525 Y-0.275 F600.000
G1 X0.556 Y-0.175 F600.000
G1 X0.575 Y-0.006 F600.000
G1 X0.544 Y0.194 F600.000
G1 X0.544 Y0.194 F600.000
G0 Z31.000
G0 Z31.000
(Finish operation: Adaptive)
(Block-name: post_amble)
(Block-expand: 0)
(Block-enable: 1)
(Begin postamble)
M5
G17 G90
M2
