(Exported by FreeCAD)
(Post Processor: grbl_post)
(Output Time:2023-11-09 23:34:03.810257)
(Begin preamble)
G17 G90
G21
(Block-name: Fixture)
(Block-expand: 0)
(Block-enable: 1)
(Begin operation: Fixture)
(Path: Fixture)
G54
(Finish operation: Fixture)
(Block-name: 3mm Endmill001)
(Block-expand: 0)
(Block-enable: 1)
(Begin operation: 3mm Endmill001)
(Path: 3mm Endmill001)
(3mm Endmill001)
(Begin toolchange)
( M6 T3 )
(Finish operation: 3mm Endmill001)
(Block-name: Profile001)
(Block-expand: 0)
(Block-enable: 1)
(Begin operation: Profile001)
(Path: Profile001)
(Profile001)
(Compensated Tool Path. Diameter: 3.0)
G0 Z5.000
G0 X-38.440 Y-2.000
G0 Z3.000
G1 X-38.440 Y-2.000 Z-1.500 F200.000
G1 X-38.440 Y-4.000 Z-1.500 F400.000
G1 X-43.940 Y-4.000 Z-1.500 F400.000
G3 X-45.440 Y-5.500 Z-1.500 I0.000 J-1.500 K0.000 F400.000
G1 X-45.440 Y-7.500 Z-1.500 F400.000
G1 X-75.440 Y-7.500 Z-1.500 F400.000
G1 X-75.440 Y1.500 Z-1.500 F400.000
G1 X-45.440 Y1.500 Z-1.500 F400.000
G1 X-45.440 Y-0.500 Z-1.500 F400.000
G3 X-43.940 Y-2.000 Z-1.500 I1.500 J0.000 K0.000 F400.000
G1 X-38.440 Y-2.000 Z-1.500 F400.000
G1 X-38.440 Y-2.000 Z-3.000 F200.000
G1 X-38.440 Y-4.000 Z-3.000 F400.000
G1 X-43.940 Y-4.000 Z-3.000 F400.000
G3 X-45.440 Y-5.500 Z-3.000 I0.000 J-1.500 K0.000 F400.000
G1 X-45.440 Y-7.500 Z-3.000 F400.000
G1 X-75.440 Y-7.500 Z-3.000 F400.000
G1 X-75.440 Y1.500 Z-3.000 F400.000
G1 X-45.440 Y1.500 Z-3.000 F400.000
G1 X-45.440 Y-0.500 Z-3.000 F400.000
G3 X-43.940 Y-2.000 Z-3.000 I1.500 J0.000 K0.000 F400.000
G1 X-38.440 Y-2.000 Z-3.000 F400.000
G1 X-38.440 Y-2.000 Z-4.500 F200.000
G1 X-38.440 Y-4.000 Z-4.500 F400.000
G1 X-43.940 Y-4.000 Z-4.500 F400.000
G3 X-45.440 Y-5.500 Z-4.500 I0.000 J-1.500 K0.000 F400.000
G1 X-45.440 Y-7.500 Z-4.500 F400.000
G1 X-75.440 Y-7.500 Z-4.500 F400.000
G1 X-75.440 Y1.500 Z-4.500 F400.000
G1 X-45.440 Y1.500 Z-4.500 F400.000
G1 X-45.440 Y-0.500 Z-4.500 F400.000
G3 X-43.940 Y-2.000 Z-4.500 I1.500 J0.000 K0.000 F400.000
G1 X-38.440 Y-2.000 Z-4.500 F400.000
G1 X-38.440 Y-2.000 Z-6.000 F200.000
G1 X-38.440 Y-4.000 Z-6.000 F400.000
G1 X-43.940 Y-4.000 Z-6.000 F400.000
G3 X-45.440 Y-5.500 Z-6.000 I0.000 J-1.500 K0.000 F400.000
G1 X-45.440 Y-7.500 Z-6.000 F400.000
G1 X-75.440 Y-7.500 Z-6.000 F400.000
G1 X-75.440 Y1.500 Z-6.000 F400.000
G1 X-45.440 Y1.500 Z-6.000 F400.000
G1 X-45.440 Y-0.500 Z-6.000 F400.000
G3 X-43.940 Y-2.000 Z-6.000 I1.500 J0.000 K0.000 F400.000
G1 X-38.440 Y-2.000 Z-6.000 F400.000
G1 X-38.440 Y-2.000 Z-7.500 F200.000
G1 X-38.440 Y-4.000 Z-7.500 F400.000
G1 X-43.940 Y-4.000 Z-7.500 F400.000
G3 X-45.440 Y-5.500 Z-7.500 I0.000 J-1.500 K0.000 F400.000
G1 X-45.440 Y-7.500 Z-7.500 F400.000
G1 X-75.440 Y-7.500 Z-7.500 F400.000
G1 X-75.440 Y1.500 Z-7.500 F400.000
G1 X-45.440 Y1.500 Z-7.500 F400.000
G1 X-45.440 Y-0.500 Z-7.500 F400.000
G3 X-43.940 Y-2.000 Z-7.500 I1.500 J0.000 K0.000 F400.000
G1 X-38.440 Y-2.000 Z-7.500 F400.000
G1 X-38.440 Y-2.000 Z-8.000 F200.000
G1 X-38.440 Y-4.000 Z-8.000 F400.000
G1 X-43.940 Y-4.000 Z-8.000 F400.000
G3 X-45.440 Y-5.500 Z-8.000 I0.000 J-1.500 K0.000 F400.000
G1 X-45.440 Y-7.500 Z-8.000 F400.000
G1 X-75.440 Y-7.500 Z-8.000 F400.000
G1 X-75.440 Y1.500 Z-8.000 F400.000
G1 X-45.440 Y1.500 Z-8.000 F400.000
G1 X-45.440 Y-0.500 Z-8.000 F400.000
G3 X-43.940 Y-2.000 Z-8.000 I1.500 J0.000 K0.000 F400.000
G1 X-38.440 Y-2.000 Z-8.000 F400.000
G0 Z5.000
G0 Z5.000
(Finish operation: Profile001)
(Block-name: Fixture)
(Block-expand: 0)
(Block-enable: 1)
(Begin operation: Fixture)
(Path: Fixture)
G54
(Finish operation: Fixture)
(Block-name: Profile)
(Block-expand: 0)
(Block-enable: 1)
(Begin operation: Profile)
(Path: Profile)
(Profile)
(Compensated Tool Path. Diameter: 3.0)
G0 Z5.000
(Finish operation: Profile)
(Block-name: post_amble)
(Block-expand: 0)
(Block-enable: 1)
(Begin postamble)
M5
G17 G90
M2
