(Exported by FreeCAD)
(Post Processor: grbl_post)
(Output Time:2024-01-29 22:36:46.812448)
(Begin preamble)
G17 G90
G21
(Block-name: Fixture)
(Block-expand: 0)
(Block-enable: 1)
(Begin operation: Fixture)
(Path: Fixture)
G54
(Finish operation: Fixture)
(Block-name: 3mm Endmill001)
(Block-expand: 0)
(Block-enable: 1)
(Begin operation: 3mm Endmill001)
(Path: 3mm Endmill001)
(3mm Endmill001)
(Begin toolchange)
( M6 T3 )
M3 S8000
(Finish operation: 3mm Endmill001)
(Block-name: Adaptive)
(Block-expand: 0)
(Block-enable: 1)
(Begin operation: Adaptive)
(Path: Adaptive)
(Adaptive)
(Helix to depth: -3.000000)
G0 Z15.000
G0 X-49.267 Y-85.838 Z15.000
G0 X-49.267 Y-85.838 Z3.000
G1 X-49.267 Y-85.838 Z0.000 F420.000
G1 X-49.267 Y-85.838 Z0.000 F420.000
G1 X-49.116 Y-85.680 Z-0.019 F420.000
G1 X-49.000 Y-85.495 Z-0.039 F420.000
G1 X-48.922 Y-85.291 Z-0.058 F420.000
G1 X-48.885 Y-85.076 Z-0.077 F420.000
G1 X-48.891 Y-84.857 Z-0.097 F420.000
G1 X-48.939 Y-84.644 Z-0.116 F420.000
G1 X-49.028 Y-84.445 Z-0.135 F420.000
G1 X-49.154 Y-84.267 Z-0.154 F420.000
G1 X-49.313 Y-84.116 Z-0.174 F420.000
G1 X-49.498 Y-84.000 Z-0.193 F420.000
G1 X-49.701 Y-83.922 Z-0.212 F420.000
G1 X-49.917 Y-83.885 Z-0.232 F420.000
G1 X-50.135 Y-83.891 Z-0.251 F420.000
G1 X-50.348 Y-83.939 Z-0.270 F420.000
G1 X-50.547 Y-84.028 Z-0.290 F420.000
G1 X-50.726 Y-84.154 Z-0.309 F420.000
G1 X-50.876 Y-84.313 Z-0.328 F420.000
G1 X-50.992 Y-84.498 Z-0.348 F420.000
G1 X-51.071 Y-84.701 Z-0.367 F420.000
G1 X-51.107 Y-84.917 Z-0.386 F420.000
G1 X-51.102 Y-85.135 Z-0.405 F420.000
G1 X-51.053 Y-85.348 Z-0.425 F420.000
G1 X-50.964 Y-85.547 Z-0.444 F420.000
G1 X-50.838 Y-85.726 Z-0.463 F420.000
G1 X-50.680 Y-85.876 Z-0.483 F420.000
G1 X-50.495 Y-85.992 Z-0.502 F420.000
G1 X-50.291 Y-86.071 Z-0.521 F420.000
G1 X-50.076 Y-86.107 Z-0.541 F420.000
G1 X-49.857 Y-86.102 Z-0.560 F420.000
G1 X-49.644 Y-86.053 Z-0.579 F420.000
G1 X-49.445 Y-85.964 Z-0.599 F420.000
G1 X-49.267 Y-85.838 Z-0.618 F420.000
G1 X-49.116 Y-85.680 Z-0.637 F420.000
G1 X-49.000 Y-85.495 Z-0.657 F420.000
G1 X-48.922 Y-85.291 Z-0.676 F420.000
G1 X-48.885 Y-85.076 Z-0.695 F420.000
G1 X-48.891 Y-84.857 Z-0.714 F420.000
G1 X-48.939 Y-84.644 Z-0.734 F420.000
G1 X-49.028 Y-84.445 Z-0.753 F420.000
G1 X-49.154 Y-84.267 Z-0.772 F420.000
G1 X-49.313 Y-84.116 Z-0.792 F420.000
G1 X-49.498 Y-84.000 Z-0.811 F420.000
G1 X-49.701 Y-83.922 Z-0.830 F420.000
G1 X-49.917 Y-83.885 Z-0.850 F420.000
G1 X-50.135 Y-83.891 Z-0.869 F420.000
G1 X-50.348 Y-83.939 Z-0.888 F420.000
G1 X-50.547 Y-84.028 Z-0.908 F420.000
G1 X-50.726 Y-84.154 Z-0.927 F420.000
G1 X-50.876 Y-84.313 Z-0.946 F420.000
G1 X-50.992 Y-84.498 Z-0.965 F420.000
G1 X-51.071 Y-84.701 Z-0.985 F420.000
G1 X-51.107 Y-84.917 Z-1.004 F420.000
G1 X-51.102 Y-85.135 Z-1.023 F420.000
G1 X-51.053 Y-85.348 Z-1.043 F420.000
G1 X-50.964 Y-85.547 Z-1.062 F420.000
G1 X-50.838 Y-85.726 Z-1.081 F420.000
G1 X-50.680 Y-85.876 Z-1.101 F420.000
G1 X-50.495 Y-85.992 Z-1.120 F420.000
G1 X-50.291 Y-86.071 Z-1.139 F420.000
G1 X-50.076 Y-86.107 Z-1.159 F420.000
G1 X-49.857 Y-86.102 Z-1.178 F420.000
G1 X-49.644 Y-86.053 Z-1.197 F420.000
G1 X-49.445 Y-85.964 Z-1.216 F420.000
G1 X-49.267 Y-85.838 Z-1.236 F420.000
G1 X-49.116 Y-85.680 Z-1.255 F420.000
G1 X-49.000 Y-85.495 Z-1.274 F420.000
G1 X-48.922 Y-85.291 Z-1.294 F420.000
G1 X-48.885 Y-85.076 Z-1.313 F420.000
G1 X-48.891 Y-84.857 Z-1.332 F420.000
G1 X-48.939 Y-84.644 Z-1.352 F420.000
G1 X-49.028 Y-84.445 Z-1.371 F420.000
G1 X-49.154 Y-84.267 Z-1.390 F420.000
G1 X-49.313 Y-84.116 Z-1.410 F420.000
G1 X-49.498 Y-84.000 Z-1.429 F420.000
G1 X-49.701 Y-83.922 Z-1.448 F420.000
G1 X-49.917 Y-83.885 Z-1.468 F420.000
G1 X-50.135 Y-83.891 Z-1.487 F420.000
G1 X-50.348 Y-83.939 Z-1.506 F420.000
G1 X-50.547 Y-84.028 Z-1.525 F420.000
G1 X-50.726 Y-84.154 Z-1.545 F420.000
G1 X-50.876 Y-84.313 Z-1.564 F420.000
G1 X-50.992 Y-84.498 Z-1.583 F420.000
G1 X-51.071 Y-84.701 Z-1.603 F420.000
G1 X-51.107 Y-84.917 Z-1.622 F420.000
G1 X-51.102 Y-85.135 Z-1.641 F420.000
G1 X-51.053 Y-85.348 Z-1.661 F420.000
G1 X-50.964 Y-85.547 Z-1.680 F420.000
G1 X-50.838 Y-85.726 Z-1.699 F420.000
G1 X-50.680 Y-85.876 Z-1.719 F420.000
G1 X-50.495 Y-85.992 Z-1.738 F420.000
G1 X-50.291 Y-86.071 Z-1.757 F420.000
G1 X-50.076 Y-86.107 Z-1.776 F420.000
G1 X-49.857 Y-86.102 Z-1.796 F420.000
G1 X-49.644 Y-86.053 Z-1.815 F420.000
G1 X-49.445 Y-85.964 Z-1.834 F420.000
G1 X-49.267 Y-85.838 Z-1.854 F420.000
G1 X-49.116 Y-85.680 Z-1.873 F420.000
G1 X-49.000 Y-85.495 Z-1.892 F420.000
G1 X-48.922 Y-85.291 Z-1.912 F420.000
G1 X-48.885 Y-85.076 Z-1.931 F420.000
G1 X-48.891 Y-84.857 Z-1.950 F420.000
G1 X-48.939 Y-84.644 Z-1.970 F420.000
G1 X-49.028 Y-84.445 Z-1.989 F420.000
G1 X-49.154 Y-84.267 Z-2.008 F420.000
G1 X-49.313 Y-84.116 Z-2.027 F420.000
G1 X-49.498 Y-84.000 Z-2.047 F420.000
G1 X-49.701 Y-83.922 Z-2.066 F420.000
G1 X-49.917 Y-83.885 Z-2.085 F420.000
G1 X-50.135 Y-83.891 Z-2.105 F420.000
G1 X-50.348 Y-83.939 Z-2.124 F420.000
G1 X-50.547 Y-84.028 Z-2.143 F420.000
G1 X-50.726 Y-84.154 Z-2.163 F420.000
G1 X-50.876 Y-84.313 Z-2.182 F420.000
G1 X-50.992 Y-84.498 Z-2.201 F420.000
G1 X-51.071 Y-84.701 Z-2.221 F420.000
G1 X-51.107 Y-84.917 Z-2.240 F420.000
G1 X-51.102 Y-85.135 Z-2.259 F420.000
G1 X-51.053 Y-85.348 Z-2.279 F420.000
G1 X-50.964 Y-85.547 Z-2.298 F420.000
G1 X-50.838 Y-85.726 Z-2.317 F420.000
G1 X-50.680 Y-85.876 Z-2.336 F420.000
G1 X-50.495 Y-85.992 Z-2.356 F420.000
G1 X-50.291 Y-86.071 Z-2.375 F420.000
G1 X-50.076 Y-86.107 Z-2.394 F420.000
G1 X-49.857 Y-86.102 Z-2.414 F420.000
G1 X-49.644 Y-86.053 Z-2.433 F420.000
G1 X-49.445 Y-85.964 Z-2.452 F420.000
G1 X-49.267 Y-85.838 Z-2.472 F420.000
G1 X-49.116 Y-85.680 Z-2.491 F420.000
G1 X-49.000 Y-85.495 Z-2.510 F420.000
G1 X-48.922 Y-85.291 Z-2.530 F420.000
G1 X-48.885 Y-85.076 Z-2.549 F420.000
G1 X-48.891 Y-84.857 Z-2.568 F420.000
G1 X-48.939 Y-84.644 Z-2.587 F420.000
G1 X-49.028 Y-84.445 Z-2.607 F420.000
G1 X-49.154 Y-84.267 Z-2.626 F420.000
G1 X-49.313 Y-84.116 Z-2.645 F420.000
G1 X-49.498 Y-84.000 Z-2.665 F420.000
G1 X-49.701 Y-83.922 Z-2.684 F420.000
G1 X-49.917 Y-83.885 Z-2.703 F420.000
G1 X-50.135 Y-83.891 Z-2.723 F420.000
G1 X-50.348 Y-83.939 Z-2.742 F420.000
G1 X-50.547 Y-84.028 Z-2.761 F420.000
G1 X-50.726 Y-84.154 Z-2.781 F420.000
G1 X-50.876 Y-84.313 Z-2.800 F420.000
G1 X-50.992 Y-84.498 Z-2.819 F420.000
G1 X-51.071 Y-84.701 Z-2.838 F420.000
G1 X-51.107 Y-84.917 Z-2.858 F420.000
G1 X-51.102 Y-85.135 Z-2.877 F420.000
G1 X-51.053 Y-85.348 Z-2.896 F420.000
G1 X-50.964 Y-85.547 Z-2.916 F420.000
G1 X-50.838 Y-85.726 Z-2.935 F420.000
G1 X-50.680 Y-85.876 Z-2.954 F420.000
G1 X-50.495 Y-85.992 Z-2.974 F420.000
G1 X-50.291 Y-86.071 Z-2.993 F420.000
G1 X-50.076 Y-86.107 Z-3.000 F420.000
G1 X-49.857 Y-86.102 Z-3.000 F420.000
G1 X-49.644 Y-86.053 Z-3.000 F420.000
G1 X-49.445 Y-85.964 Z-3.000 F420.000
G1 X-49.267 Y-85.838 Z-3.000 F420.000
G1 X-49.116 Y-85.680 Z-3.000 F420.000
G1 X-49.000 Y-85.495 Z-3.000 F420.000
G1 X-48.922 Y-85.291 Z-3.000 F420.000
G1 X-48.885 Y-85.076 Z-3.000 F420.000
G1 X-48.891 Y-84.857 Z-3.000 F420.000
G1 X-48.939 Y-84.644 Z-3.000 F420.000
G1 X-49.028 Y-84.445 Z-3.000 F420.000
G1 X-49.154 Y-84.267 Z-3.000 F420.000
G1 X-49.313 Y-84.116 Z-3.000 F420.000
G1 X-49.498 Y-84.000 Z-3.000 F420.000
G1 X-49.701 Y-83.922 Z-3.000 F420.000
G1 X-49.917 Y-83.885 Z-3.000 F420.000
G1 X-50.135 Y-83.891 Z-3.000 F420.000
G1 X-50.348 Y-83.939 Z-3.000 F420.000
G1 X-50.547 Y-84.028 Z-3.000 F420.000
G1 X-50.726 Y-84.154 Z-3.000 F420.000
G1 X-50.876 Y-84.313 Z-3.000 F420.000
G1 X-50.992 Y-84.498 Z-3.000 F420.000
G1 X-51.071 Y-84.701 Z-3.000 F420.000
G1 X-51.107 Y-84.917 Z-3.000 F420.000
G1 X-51.102 Y-85.135 Z-3.000 F420.000
G1 X-51.053 Y-85.348 Z-3.000 F420.000
G1 X-50.964 Y-85.547 Z-3.000 F420.000
G1 X-50.838 Y-85.726 Z-3.000 F420.000
G1 X-50.680 Y-85.876 Z-3.000 F420.000
G1 X-50.495 Y-85.992 Z-3.000 F420.000
G1 X-50.291 Y-86.071 Z-3.000 F420.000
(Adaptive - depth: -3.000000)
G1 X-49.996 Y-86.120 F420.000
G1 X-49.951 Y-86.162 F420.000
G1 X-49.774 Y-86.211 F420.000
G1 X-49.594 Y-86.211 F420.000
G1 X-49.474 Y-86.184 F420.000
G1 X-49.177 Y-86.064 F420.000
G1 X-48.981 Y-85.914 F420.000
G1 X-48.880 Y-85.805 F420.000
G1 X-48.789 Y-85.684 F420.000
G1 X-48.699 Y-85.511 F420.000
G1 X-48.628 Y-85.312 F420.000
G1 X-48.590 Y-85.098 F420.000
G1 X-48.583 Y-84.910 F420.000
G1 X-48.605 Y-84.707 F420.000
G1 X-48.658 Y-84.511 F420.000
G1 X-48.733 Y-84.331 F420.000
G1 X-48.835 Y-84.158 F420.000
G1 X-48.970 Y-83.992 F420.000
G1 X-49.120 Y-83.857 F420.000
G1 X-49.289 Y-83.741 F420.000
G1 X-49.474 Y-83.650 F420.000
G1 X-49.669 Y-83.590 F420.000
G1 X-49.872 Y-83.556 F420.000
G1 X-50.075 Y-83.553 F420.000
G1 X-50.278 Y-83.579 F420.000
G1 X-50.474 Y-83.635 F420.000
G1 X-50.658 Y-83.722 F420.000
G1 X-50.831 Y-83.831 F420.000
G1 X-50.989 Y-83.962 F420.000
G1 X-51.132 Y-84.128 F420.000
G1 X-51.244 Y-84.301 F420.000
G1 X-51.335 Y-84.492 F420.000
G1 X-51.387 Y-84.699 F420.000
G1 X-51.410 Y-84.880 F420.000
G1 X-51.410 Y-85.079 F420.000
G1 X-51.380 Y-85.293 F420.000
G1 X-51.320 Y-85.508 F420.000
G1 X-51.222 Y-85.699 F420.000
G1 X-51.120 Y-85.850 F420.000
G1 X-50.981 Y-86.000 F420.000
G1 X-50.827 Y-86.128 F420.000
G1 X-50.643 Y-86.252 F420.000
G1 X-50.429 Y-86.368 F420.000
G1 X-50.165 Y-86.466 F420.000
G1 X-49.805 Y-86.504 F420.000
G1 X-49.684 Y-86.504 F420.000
G1 X-49.316 Y-86.447 F420.000
G1 X-49.015 Y-86.312 F420.000
G1 X-48.778 Y-86.132 F420.000
G1 X-48.635 Y-85.977 F420.000
G1 X-48.492 Y-85.778 F420.000
G1 X-48.380 Y-85.556 F420.000
G1 X-48.312 Y-85.350 F420.000
G1 X-48.271 Y-85.147 F420.000
G1 X-48.259 Y-84.925 F420.000
G1 X-48.271 Y-84.711 F420.000
G1 X-48.316 Y-84.477 F420.000
G1 X-48.387 Y-84.267 F420.000
G1 X-48.485 Y-84.068 F420.000
G1 X-48.609 Y-83.880 F420.000
G1 X-48.759 Y-83.711 F420.000
G1 X-48.929 Y-83.564 F420.000
G1 X-49.117 Y-83.440 F420.000
G1 X-49.320 Y-83.342 F420.000
G1 X-49.534 Y-83.271 F420.000
G1 X-49.752 Y-83.222 F420.000
G1 X-50.000 Y-83.203 F420.000
G1 X-50.229 Y-83.214 F420.000
G1 X-50.459 Y-83.263 F420.000
G1 X-50.654 Y-83.331 F420.000
G1 X-50.853 Y-83.432 F420.000
G1 X-51.038 Y-83.553 F420.000
G1 X-51.226 Y-83.718 F420.000
G1 X-51.380 Y-83.891 F420.000
G1 X-51.511 Y-84.083 F420.000
G1 X-51.620 Y-84.293 F420.000
G1 X-51.692 Y-84.515 F420.000
G1 X-51.733 Y-84.718 F420.000
G1 X-51.748 Y-84.944 F420.000
G1 X-51.737 Y-85.165 F420.000
G1 X-51.692 Y-85.406 F420.000
G1 X-51.620 Y-85.628 F420.000
G1 X-51.515 Y-85.835 F420.000
G1 X-51.398 Y-86.008 F420.000
G1 X-51.256 Y-86.180 F420.000
G1 X-51.071 Y-86.361 F420.000
G1 X-50.846 Y-86.530 F420.000
G1 X-50.628 Y-86.658 F420.000
G1 X-50.380 Y-86.752 F420.000
G1 X-50.180 Y-86.805 F420.000
G1 X-49.944 Y-86.842 F420.000
G1 X-49.692 Y-86.842 F420.000
G1 X-49.462 Y-86.816 F420.000
G1 X-49.226 Y-86.759 F420.000
G1 X-49.000 Y-86.673 F420.000
G1 X-48.789 Y-86.560 F420.000
G1 X-48.598 Y-86.417 F420.000
G1 X-48.444 Y-86.271 F420.000
G1 X-48.297 Y-86.090 F420.000
G1 X-48.169 Y-85.902 F420.000
G1 X-48.049 Y-85.654 F420.000
G1 X-47.970 Y-85.425 F420.000
G1 X-47.921 Y-85.184 F420.000
G1 X-47.902 Y-84.959 F420.000
G1 X-47.906 Y-84.722 F420.000
G1 X-47.947 Y-84.462 F420.000
G1 X-48.015 Y-84.229 F420.000
G1 X-48.109 Y-84.004 F420.000
G1 X-48.229 Y-83.786 F420.000
G1 X-48.387 Y-83.564 F420.000
G1 X-48.564 Y-83.380 F420.000
G1 X-48.741 Y-83.237 F420.000
G1 X-48.932 Y-83.109 F420.000
G1 X-49.169 Y-82.996 F420.000
G1 X-49.395 Y-82.914 F420.000
G1 X-49.665 Y-82.850 F420.000
G1 X-49.921 Y-82.823 F420.000
G1 X-50.173 Y-82.831 F420.000
G1 X-50.402 Y-82.861 F420.000
G1 X-50.639 Y-82.925 F420.000
G1 X-50.865 Y-83.011 F420.000
G1 X-51.102 Y-83.139 F420.000
G1 X-51.308 Y-83.286 F420.000
G1 X-51.500 Y-83.451 F420.000
G1 X-51.669 Y-83.643 F420.000
G1 X-51.816 Y-83.850 F420.000
G1 X-51.929 Y-84.079 F420.000
G1 X-52.004 Y-84.282 F420.000
G1 X-52.064 Y-84.515 F420.000
G1 X-52.102 Y-84.789 F420.000
G1 X-52.109 Y-85.064 F420.000
G1 X-52.075 Y-85.327 F420.000
G1 X-52.026 Y-85.549 F420.000
G1 X-51.940 Y-85.789 F420.000
G1 X-51.827 Y-86.008 F420.000
G1 X-51.692 Y-86.211 F420.000
G1 X-51.538 Y-86.406 F420.000
G1 X-51.331 Y-86.617 F420.000
G1 X-51.098 Y-86.805 F420.000
G1 X-50.853 Y-86.947 F420.000
G1 X-50.647 Y-87.045 F420.000
G1 X-50.391 Y-87.128 F420.000
G1 X-50.139 Y-87.177 F420.000
G1 X-49.887 Y-87.199 F420.000
G1 X-49.628 Y-87.192 F420.000
G1 X-49.372 Y-87.162 F420.000
G1 X-49.083 Y-87.090 F420.000
G1 X-48.827 Y-86.996 F420.000
G1 X-48.586 Y-86.857 F420.000
G1 X-48.417 Y-86.741 F420.000
G1 X-48.229 Y-86.579 F420.000
G1 X-48.045 Y-86.376 F420.000
G1 X-47.887 Y-86.154 F420.000
G1 X-47.759 Y-85.925 F420.000
G1 X-47.654 Y-85.677 F420.000
G1 X-47.575 Y-85.417 F420.000
G1 X-47.526 Y-85.158 F420.000
G1 X-47.508 Y-84.711 F420.000
G1 X-47.568 Y-84.289 F420.000
G1 X-47.722 Y-83.823 F420.000
G1 X-47.895 Y-83.504 F420.000
G1 X-48.154 Y-83.169 F420.000
G1 X-48.515 Y-82.853 F420.000
G1 X-49.030 Y-82.560 F420.000
G1 X-49.425 Y-82.436 F420.000
G1 X-49.932 Y-82.368 F420.000
G1 X-50.327 Y-82.395 F420.000
G1 X-50.880 Y-82.556 F420.000
G1 X-51.338 Y-82.789 F420.000
G1 X-51.699 Y-83.071 F420.000
G1 X-52.034 Y-83.462 F420.000
G1 X-52.233 Y-83.812 F420.000
G1 X-52.361 Y-84.132 F420.000
G1 X-52.462 Y-84.639 F420.000
G1 X-52.474 Y-85.120 F420.000
G1 X-52.425 Y-85.489 F420.000
G1 X-52.346 Y-85.774 F420.000
G1 X-52.259 Y-85.985 F420.000
G1 X-52.150 Y-86.199 F420.000
G1 X-51.992 Y-86.447 F420.000
G1 X-51.801 Y-86.692 F420.000
G1 X-51.586 Y-86.914 F420.000
G1 X-51.353 Y-87.090 F420.000
G1 X-50.692 Y-87.421 F420.000
G1 X-50.090 Y-87.530 F420.000
G1 X-49.669 Y-87.553 F420.000
G1 X-49.248 Y-87.504 F420.000
G1 X-48.774 Y-87.353 F420.000
G1 X-48.440 Y-87.184 F420.000
G1 X-48.086 Y-86.929 F420.000
G1 X-47.737 Y-86.568 F420.000
G1 X-47.455 Y-86.154 F420.000
G1 X-47.248 Y-85.695 F420.000
G1 X-47.113 Y-85.154 F420.000
G1 X-47.083 Y-84.673 F420.000
G1 X-47.113 Y-84.312 F420.000
G1 X-47.218 Y-83.951 F420.000
G1 X-47.462 Y-83.455 F420.000
G1 X-47.665 Y-83.158 F420.000
G1 X-47.906 Y-82.887 F420.000
G1 X-48.132 Y-82.688 F420.000
G1 X-48.474 Y-82.444 F420.000
G1 X-48.951 Y-82.214 F420.000
G1 X-49.402 Y-82.083 F420.000
G1 X-49.741 Y-82.030 F420.000
G1 X-50.192 Y-82.030 F420.000
G1 X-50.699 Y-82.113 F420.000
G1 X-51.244 Y-82.305 F420.000
G1 X-51.556 Y-82.466 F420.000
G1 X-52.019 Y-82.823 F420.000
G1 X-52.357 Y-83.207 F420.000
G1 X-52.643 Y-83.711 F420.000
G1 X-52.793 Y-84.150 F420.000
G1 X-52.853 Y-84.489 F420.000
G1 X-52.861 Y-85.165 F420.000
G1 X-52.763 Y-85.673 F420.000
G1 X-52.489 Y-86.327 F420.000
G1 X-52.188 Y-86.774 F420.000
G1 X-51.853 Y-87.120 F420.000
G1 X-51.417 Y-87.444 F420.000
G1 X-51.098 Y-87.613 F420.000
G1 X-50.695 Y-87.759 F420.000
G1 X-49.914 Y-87.906 F420.000
G1 X-49.613 Y-87.906 F420.000
G1 X-49.011 Y-87.789 F420.000
G1 X-48.891 Y-87.752 F420.000
G1 X-48.436 Y-87.530 F420.000
G1 X-48.075 Y-87.263 F420.000
G1 X-47.647 Y-86.812 F420.000
G1 X-47.466 Y-86.549 F420.000
G1 X-47.259 Y-86.158 F420.000
G1 X-47.079 Y-85.560 F420.000
G1 X-47.034 Y-85.199 F420.000
G1 X-47.034 Y-85.199 F420.000
G1 X-47.053 Y-85.071 F420.000
G1 X-47.098 Y-84.992 F420.000
G0 X-47.120 Y-84.974
G0 X-47.229 Y-84.929
G0 X-52.350 Y-83.684
G1 X-52.395 Y-83.673 F420.000
G1 X-52.523 Y-83.650 F420.000
G1 X-52.605 Y-83.680 F420.000
G1 X-52.695 Y-83.771 F420.000
G1 X-52.729 Y-83.827 F420.000
G1 X-52.729 Y-83.827 F420.000
G1 X-52.797 Y-83.985 F420.000
G1 X-52.921 Y-84.436 F420.000
G1 X-52.966 Y-84.831 F420.000
G1 X-52.962 Y-85.226 F420.000
G1 X-52.891 Y-85.677 F420.000
G1 X-52.722 Y-86.184 F420.000
G1 X-52.526 Y-86.553 F420.000
G1 X-52.323 Y-86.846 F420.000
G1 X-52.083 Y-87.117 F420.000
G1 X-51.857 Y-87.316 F420.000
G1 X-51.564 Y-87.526 F420.000
G1 X-51.083 Y-87.767 F420.000
G1 X-50.680 Y-87.895 F420.000
G1 X-50.199 Y-87.966 F420.000
G1 X-49.838 Y-87.966 F420.000
G1 X-49.477 Y-87.921 F420.000
G0 Z15.000
(Helix to depth: -3.000000)
G0 Z15.000
G0 X-109.267 Y-85.838 Z15.000
G0 X-109.267 Y-85.838 Z3.000
G1 X-109.267 Y-85.838 Z0.000 F420.000
G1 X-109.267 Y-85.838 Z0.000 F420.000
G1 X-109.116 Y-85.680 Z-0.019 F420.000
G1 X-109.000 Y-85.495 Z-0.039 F420.000
G1 X-108.922 Y-85.291 Z-0.058 F420.000
G1 X-108.885 Y-85.076 Z-0.077 F420.000
G1 X-108.891 Y-84.857 Z-0.097 F420.000
G1 X-108.939 Y-84.644 Z-0.116 F420.000
G1 X-109.028 Y-84.445 Z-0.135 F420.000
G1 X-109.154 Y-84.267 Z-0.154 F420.000
G1 X-109.313 Y-84.116 Z-0.174 F420.000
G1 X-109.498 Y-84.000 Z-0.193 F420.000
G1 X-109.701 Y-83.922 Z-0.212 F420.000
G1 X-109.917 Y-83.885 Z-0.232 F420.000
G1 X-110.135 Y-83.891 Z-0.251 F420.000
G1 X-110.348 Y-83.939 Z-0.270 F420.000
G1 X-110.547 Y-84.028 Z-0.290 F420.000
G1 X-110.726 Y-84.154 Z-0.309 F420.000
G1 X-110.876 Y-84.313 Z-0.328 F420.000
G1 X-110.992 Y-84.498 Z-0.348 F420.000
G1 X-111.071 Y-84.701 Z-0.367 F420.000
G1 X-111.107 Y-84.917 Z-0.386 F420.000
G1 X-111.102 Y-85.135 Z-0.405 F420.000
G1 X-111.053 Y-85.348 Z-0.425 F420.000
G1 X-110.964 Y-85.547 Z-0.444 F420.000
G1 X-110.838 Y-85.726 Z-0.463 F420.000
G1 X-110.680 Y-85.876 Z-0.483 F420.000
G1 X-110.495 Y-85.992 Z-0.502 F420.000
G1 X-110.291 Y-86.071 Z-0.521 F420.000
G1 X-110.076 Y-86.107 Z-0.541 F420.000
G1 X-109.857 Y-86.102 Z-0.560 F420.000
G1 X-109.644 Y-86.053 Z-0.579 F420.000
G1 X-109.445 Y-85.964 Z-0.599 F420.000
G1 X-109.267 Y-85.838 Z-0.618 F420.000
G1 X-109.116 Y-85.680 Z-0.637 F420.000
G1 X-109.000 Y-85.495 Z-0.657 F420.000
G1 X-108.922 Y-85.291 Z-0.676 F420.000
G1 X-108.885 Y-85.076 Z-0.695 F420.000
G1 X-108.891 Y-84.857 Z-0.714 F420.000
G1 X-108.939 Y-84.644 Z-0.734 F420.000
G1 X-109.028 Y-84.445 Z-0.753 F420.000
G1 X-109.154 Y-84.267 Z-0.772 F420.000
G1 X-109.313 Y-84.116 Z-0.792 F420.000
G1 X-109.498 Y-84.000 Z-0.811 F420.000
G1 X-109.701 Y-83.922 Z-0.830 F420.000
G1 X-109.917 Y-83.885 Z-0.850 F420.000
G1 X-110.135 Y-83.891 Z-0.869 F420.000
G1 X-110.348 Y-83.939 Z-0.888 F420.000
G1 X-110.547 Y-84.028 Z-0.908 F420.000
G1 X-110.726 Y-84.154 Z-0.927 F420.000
G1 X-110.876 Y-84.313 Z-0.946 F420.000
G1 X-110.992 Y-84.498 Z-0.965 F420.000
G1 X-111.071 Y-84.701 Z-0.985 F420.000
G1 X-111.107 Y-84.917 Z-1.004 F420.000
G1 X-111.102 Y-85.135 Z-1.023 F420.000
G1 X-111.053 Y-85.348 Z-1.043 F420.000
G1 X-110.964 Y-85.547 Z-1.062 F420.000
G1 X-110.838 Y-85.726 Z-1.081 F420.000
G1 X-110.680 Y-85.876 Z-1.101 F420.000
G1 X-110.495 Y-85.992 Z-1.120 F420.000
G1 X-110.291 Y-86.071 Z-1.139 F420.000
G1 X-110.076 Y-86.107 Z-1.159 F420.000
G1 X-109.857 Y-86.102 Z-1.178 F420.000
G1 X-109.644 Y-86.053 Z-1.197 F420.000
G1 X-109.445 Y-85.964 Z-1.216 F420.000
G1 X-109.267 Y-85.838 Z-1.236 F420.000
G1 X-109.116 Y-85.680 Z-1.255 F420.000
G1 X-109.000 Y-85.495 Z-1.274 F420.000
G1 X-108.922 Y-85.291 Z-1.294 F420.000
G1 X-108.885 Y-85.076 Z-1.313 F420.000
G1 X-108.891 Y-84.857 Z-1.332 F420.000
G1 X-108.939 Y-84.644 Z-1.352 F420.000
G1 X-109.028 Y-84.445 Z-1.371 F420.000
G1 X-109.154 Y-84.267 Z-1.390 F420.000
G1 X-109.313 Y-84.116 Z-1.410 F420.000
G1 X-109.498 Y-84.000 Z-1.429 F420.000
G1 X-109.701 Y-83.922 Z-1.448 F420.000
G1 X-109.917 Y-83.885 Z-1.468 F420.000
G1 X-110.135 Y-83.891 Z-1.487 F420.000
G1 X-110.348 Y-83.939 Z-1.506 F420.000
G1 X-110.547 Y-84.028 Z-1.525 F420.000
G1 X-110.726 Y-84.154 Z-1.545 F420.000
G1 X-110.876 Y-84.313 Z-1.564 F420.000
G1 X-110.992 Y-84.498 Z-1.583 F420.000
G1 X-111.071 Y-84.701 Z-1.603 F420.000
G1 X-111.107 Y-84.917 Z-1.622 F420.000
G1 X-111.102 Y-85.135 Z-1.641 F420.000
G1 X-111.053 Y-85.348 Z-1.661 F420.000
G1 X-110.964 Y-85.547 Z-1.680 F420.000
G1 X-110.838 Y-85.726 Z-1.699 F420.000
G1 X-110.680 Y-85.876 Z-1.719 F420.000
G1 X-110.495 Y-85.992 Z-1.738 F420.000
G1 X-110.291 Y-86.071 Z-1.757 F420.000
G1 X-110.076 Y-86.107 Z-1.776 F420.000
G1 X-109.857 Y-86.102 Z-1.796 F420.000
G1 X-109.644 Y-86.053 Z-1.815 F420.000
G1 X-109.445 Y-85.964 Z-1.834 F420.000
G1 X-109.267 Y-85.838 Z-1.854 F420.000
G1 X-109.116 Y-85.680 Z-1.873 F420.000
G1 X-109.000 Y-85.495 Z-1.892 F420.000
G1 X-108.922 Y-85.291 Z-1.912 F420.000
G1 X-108.885 Y-85.076 Z-1.931 F420.000
G1 X-108.891 Y-84.857 Z-1.950 F420.000
G1 X-108.939 Y-84.644 Z-1.970 F420.000
G1 X-109.028 Y-84.445 Z-1.989 F420.000
G1 X-109.154 Y-84.267 Z-2.008 F420.000
G1 X-109.313 Y-84.116 Z-2.027 F420.000
G1 X-109.498 Y-84.000 Z-2.047 F420.000
G1 X-109.701 Y-83.922 Z-2.066 F420.000
G1 X-109.917 Y-83.885 Z-2.085 F420.000
G1 X-110.135 Y-83.891 Z-2.105 F420.000
G1 X-110.348 Y-83.939 Z-2.124 F420.000
G1 X-110.547 Y-84.028 Z-2.143 F420.000
G1 X-110.726 Y-84.154 Z-2.163 F420.000
G1 X-110.876 Y-84.313 Z-2.182 F420.000
G1 X-110.992 Y-84.498 Z-2.201 F420.000
G1 X-111.071 Y-84.701 Z-2.221 F420.000
G1 X-111.107 Y-84.917 Z-2.240 F420.000
G1 X-111.102 Y-85.135 Z-2.259 F420.000
G1 X-111.053 Y-85.348 Z-2.279 F420.000
G1 X-110.964 Y-85.547 Z-2.298 F420.000
G1 X-110.838 Y-85.726 Z-2.317 F420.000
G1 X-110.680 Y-85.876 Z-2.336 F420.000
G1 X-110.495 Y-85.992 Z-2.356 F420.000
G1 X-110.291 Y-86.071 Z-2.375 F420.000
G1 X-110.076 Y-86.107 Z-2.394 F420.000
G1 X-109.857 Y-86.102 Z-2.414 F420.000
G1 X-109.644 Y-86.053 Z-2.433 F420.000
G1 X-109.445 Y-85.964 Z-2.452 F420.000
G1 X-109.267 Y-85.838 Z-2.472 F420.000
G1 X-109.116 Y-85.680 Z-2.491 F420.000
G1 X-109.000 Y-85.495 Z-2.510 F420.000
G1 X-108.922 Y-85.291 Z-2.530 F420.000
G1 X-108.885 Y-85.076 Z-2.549 F420.000
G1 X-108.891 Y-84.857 Z-2.568 F420.000
G1 X-108.939 Y-84.644 Z-2.587 F420.000
G1 X-109.028 Y-84.445 Z-2.607 F420.000
G1 X-109.154 Y-84.267 Z-2.626 F420.000
G1 X-109.313 Y-84.116 Z-2.645 F420.000
G1 X-109.498 Y-84.000 Z-2.665 F420.000
G1 X-109.701 Y-83.922 Z-2.684 F420.000
G1 X-109.917 Y-83.885 Z-2.703 F420.000
G1 X-110.135 Y-83.891 Z-2.723 F420.000
G1 X-110.348 Y-83.939 Z-2.742 F420.000
G1 X-110.547 Y-84.028 Z-2.761 F420.000
G1 X-110.726 Y-84.154 Z-2.781 F420.000
G1 X-110.876 Y-84.313 Z-2.800 F420.000
G1 X-110.992 Y-84.498 Z-2.819 F420.000
G1 X-111.071 Y-84.701 Z-2.838 F420.000
G1 X-111.107 Y-84.917 Z-2.858 F420.000
G1 X-111.102 Y-85.135 Z-2.877 F420.000
G1 X-111.053 Y-85.348 Z-2.896 F420.000
G1 X-110.964 Y-85.547 Z-2.916 F420.000
G1 X-110.838 Y-85.726 Z-2.935 F420.000
G1 X-110.680 Y-85.876 Z-2.954 F420.000
G1 X-110.495 Y-85.992 Z-2.974 F420.000
G1 X-110.291 Y-86.071 Z-2.993 F420.000
G1 X-110.076 Y-86.107 Z-3.000 F420.000
G1 X-109.857 Y-86.102 Z-3.000 F420.000
G1 X-109.644 Y-86.053 Z-3.000 F420.000
G1 X-109.445 Y-85.964 Z-3.000 F420.000
G1 X-109.267 Y-85.838 Z-3.000 F420.000
G1 X-109.116 Y-85.680 Z-3.000 F420.000
G1 X-109.000 Y-85.495 Z-3.000 F420.000
G1 X-108.922 Y-85.291 Z-3.000 F420.000
G1 X-108.885 Y-85.076 Z-3.000 F420.000
G1 X-108.891 Y-84.857 Z-3.000 F420.000
G1 X-108.939 Y-84.644 Z-3.000 F420.000
G1 X-109.028 Y-84.445 Z-3.000 F420.000
G1 X-109.154 Y-84.267 Z-3.000 F420.000
G1 X-109.313 Y-84.116 Z-3.000 F420.000
G1 X-109.498 Y-84.000 Z-3.000 F420.000
G1 X-109.701 Y-83.922 Z-3.000 F420.000
G1 X-109.917 Y-83.885 Z-3.000 F420.000
G1 X-110.135 Y-83.891 Z-3.000 F420.000
G1 X-110.348 Y-83.939 Z-3.000 F420.000
G1 X-110.547 Y-84.028 Z-3.000 F420.000
G1 X-110.726 Y-84.154 Z-3.000 F420.000
G1 X-110.876 Y-84.313 Z-3.000 F420.000
G1 X-110.992 Y-84.498 Z-3.000 F420.000
G1 X-111.071 Y-84.701 Z-3.000 F420.000
G1 X-111.107 Y-84.917 Z-3.000 F420.000
G1 X-111.102 Y-85.135 Z-3.000 F420.000
G1 X-111.053 Y-85.348 Z-3.000 F420.000
G1 X-110.964 Y-85.547 Z-3.000 F420.000
G1 X-110.838 Y-85.726 Z-3.000 F420.000
G1 X-110.680 Y-85.876 Z-3.000 F420.000
G1 X-110.495 Y-85.992 Z-3.000 F420.000
G1 X-110.291 Y-86.071 Z-3.000 F420.000
(Adaptive - depth: -3.000000)
G1 X-109.996 Y-86.120 F420.000
G1 X-109.951 Y-86.162 F420.000
G1 X-109.774 Y-86.211 F420.000
G1 X-109.594 Y-86.211 F420.000
G1 X-109.474 Y-86.184 F420.000
G1 X-109.165 Y-86.060 F420.000
G1 X-108.970 Y-85.906 F420.000
G1 X-108.872 Y-85.797 F420.000
G1 X-108.789 Y-85.680 F420.000
G1 X-108.703 Y-85.519 F420.000
G1 X-108.624 Y-85.305 F420.000
G1 X-108.586 Y-85.079 F420.000
G1 X-108.583 Y-84.891 F420.000
G1 X-108.605 Y-84.707 F420.000
G1 X-108.654 Y-84.515 F420.000
G1 X-108.741 Y-84.320 F420.000
G1 X-108.846 Y-84.150 F420.000
G1 X-108.974 Y-83.992 F420.000
G1 X-109.139 Y-83.846 F420.000
G1 X-109.308 Y-83.729 F420.000
G1 X-109.500 Y-83.643 F420.000
G1 X-109.684 Y-83.586 F420.000
G1 X-109.883 Y-83.556 F420.000
G1 X-110.083 Y-83.556 F420.000
G1 X-110.278 Y-83.586 F420.000
G1 X-110.470 Y-83.639 F420.000
G1 X-110.673 Y-83.733 F420.000
G1 X-110.850 Y-83.846 F420.000
G1 X-111.008 Y-83.981 F420.000
G1 X-111.147 Y-84.139 F420.000
G1 X-111.259 Y-84.312 F420.000
G1 X-111.342 Y-84.508 F420.000
G1 X-111.391 Y-84.684 F420.000
G1 X-111.417 Y-84.883 F420.000
G1 X-111.414 Y-85.094 F420.000
G1 X-111.380 Y-85.308 F420.000
G1 X-111.320 Y-85.508 F420.000
G1 X-111.229 Y-85.699 F420.000
G1 X-111.105 Y-85.872 F420.000
G1 X-110.981 Y-86.004 F420.000
G1 X-110.823 Y-86.135 F420.000
G1 X-110.643 Y-86.252 F420.000
G1 X-110.429 Y-86.368 F420.000
G1 X-110.150 Y-86.470 F420.000
G1 X-109.669 Y-86.504 F420.000
G1 X-109.301 Y-86.440 F420.000
G1 X-109.030 Y-86.320 F420.000
G1 X-108.891 Y-86.229 F420.000
G1 X-108.771 Y-86.128 F420.000
G1 X-108.643 Y-85.992 F420.000
G1 X-108.504 Y-85.801 F420.000
G1 X-108.391 Y-85.583 F420.000
G1 X-108.312 Y-85.376 F420.000
G1 X-108.267 Y-85.147 F420.000
G1 X-108.252 Y-84.940 F420.000
G1 X-108.263 Y-84.722 F420.000
G1 X-108.308 Y-84.508 F420.000
G1 X-108.376 Y-84.305 F420.000
G1 X-108.481 Y-84.094 F420.000
G1 X-108.602 Y-83.906 F420.000
G1 X-108.759 Y-83.722 F420.000
G1 X-108.932 Y-83.564 F420.000
G1 X-109.128 Y-83.436 F420.000
G1 X-109.312 Y-83.346 F420.000
G1 X-109.519 Y-83.271 F420.000
G1 X-109.759 Y-83.222 F420.000
G1 X-109.981 Y-83.207 F420.000
G1 X-110.207 Y-83.218 F420.000
G1 X-110.432 Y-83.263 F420.000
G1 X-110.647 Y-83.335 F420.000
G1 X-110.853 Y-83.432 F420.000
G1 X-111.045 Y-83.560 F420.000
G1 X-111.218 Y-83.707 F420.000
G1 X-111.372 Y-83.880 F420.000
G1 X-111.504 Y-84.071 F420.000
G1 X-111.609 Y-84.278 F420.000
G1 X-111.688 Y-84.496 F420.000
G1 X-111.737 Y-84.722 F420.000
G1 X-111.756 Y-84.951 F420.000
G1 X-111.744 Y-85.180 F420.000
G1 X-111.703 Y-85.410 F420.000
G1 X-111.632 Y-85.632 F420.000
G1 X-111.526 Y-85.838 F420.000
G1 X-111.414 Y-86.004 F420.000
G1 X-111.274 Y-86.169 F420.000
G1 X-111.090 Y-86.346 F420.000
G1 X-110.872 Y-86.519 F420.000
G1 X-110.624 Y-86.654 F420.000
G1 X-110.417 Y-86.737 F420.000
G1 X-110.195 Y-86.797 F420.000
G1 X-109.955 Y-86.835 F420.000
G1 X-109.699 Y-86.842 F420.000
G1 X-109.459 Y-86.820 F420.000
G1 X-109.214 Y-86.767 F420.000
G1 X-108.981 Y-86.677 F420.000
G1 X-108.797 Y-86.571 F420.000
G1 X-108.635 Y-86.451 F420.000
G1 X-108.474 Y-86.301 F420.000
G1 X-108.301 Y-86.105 F420.000
G1 X-108.143 Y-85.868 F420.000
G1 X-108.038 Y-85.635 F420.000
G1 X-107.966 Y-85.440 F420.000
G1 X-107.917 Y-85.203 F420.000
G1 X-107.898 Y-84.974 F420.000
G1 X-107.902 Y-84.722 F420.000
G1 X-107.940 Y-84.459 F420.000
G1 X-108.011 Y-84.218 F420.000
G1 X-108.098 Y-84.011 F420.000
G1 X-108.214 Y-83.797 F420.000
G1 X-108.376 Y-83.583 F420.000
G1 X-108.541 Y-83.402 F420.000
G1 X-108.733 Y-83.241 F420.000
G1 X-108.944 Y-83.102 F420.000
G1 X-109.165 Y-82.992 F420.000
G1 X-109.402 Y-82.910 F420.000
G1 X-109.647 Y-82.853 F420.000
G1 X-109.895 Y-82.827 F420.000
G1 X-110.143 Y-82.831 F420.000
G1 X-110.391 Y-82.865 F420.000
G1 X-110.632 Y-82.929 F420.000
G1 X-110.865 Y-83.019 F420.000
G1 X-111.083 Y-83.139 F420.000
G1 X-111.286 Y-83.282 F420.000
G1 X-111.474 Y-83.444 F420.000
G1 X-111.662 Y-83.650 F420.000
G1 X-111.812 Y-83.861 F420.000
G1 X-111.929 Y-84.094 F420.000
G1 X-112.008 Y-84.301 F420.000
G1 X-112.071 Y-84.538 F420.000
G1 X-112.113 Y-84.816 F420.000
G1 X-112.113 Y-85.086 F420.000
G1 X-112.090 Y-85.312 F420.000
G1 X-112.034 Y-85.564 F420.000
G1 X-111.947 Y-85.801 F420.000
G1 X-111.838 Y-86.019 F420.000
G1 X-111.699 Y-86.229 F420.000
G1 X-111.538 Y-86.421 F420.000
G1 X-111.361 Y-86.594 F420.000
G1 X-111.139 Y-86.774 F420.000
G1 X-110.883 Y-86.936 F420.000
G1 X-110.628 Y-87.049 F420.000
G1 X-110.406 Y-87.124 F420.000
G1 X-110.143 Y-87.180 F420.000
G1 X-109.883 Y-87.203 F420.000
G1 X-109.632 Y-87.199 F420.000
G1 X-109.372 Y-87.169 F420.000
G1 X-109.079 Y-87.098 F420.000
G1 X-108.827 Y-86.992 F420.000
G1 X-108.632 Y-86.883 F420.000
G1 X-108.440 Y-86.752 F420.000
G1 X-108.233 Y-86.579 F420.000
G1 X-108.038 Y-86.365 F420.000
G1 X-107.880 Y-86.154 F420.000
G1 X-107.741 Y-85.917 F420.000
G1 X-107.643 Y-85.662 F420.000
G1 X-107.583 Y-85.455 F420.000
G1 X-107.534 Y-85.211 F420.000
G1 X-107.511 Y-84.914 F420.000
G1 X-107.538 Y-84.432 F420.000
G1 X-107.665 Y-83.959 F420.000
G1 X-107.850 Y-83.575 F420.000
G1 X-108.102 Y-83.233 F420.000
G1 X-108.312 Y-83.015 F420.000
G1 X-108.692 Y-82.729 F420.000
G1 X-108.955 Y-82.590 F420.000
G1 X-109.402 Y-82.440 F420.000
G1 X-109.910 Y-82.365 F420.000
G1 X-110.305 Y-82.395 F420.000
G1 X-110.914 Y-82.571 F420.000
G1 X-111.124 Y-82.669 F420.000
G1 X-111.553 Y-82.951 F420.000
G1 X-111.842 Y-83.229 F420.000
G1 X-112.173 Y-83.703 F420.000
G1 X-112.338 Y-84.068 F420.000
G1 X-112.462 Y-84.632 F420.000
G1 X-112.477 Y-85.113 F420.000
G1 X-112.436 Y-85.481 F420.000
G1 X-112.350 Y-85.789 F420.000
G1 X-112.211 Y-86.117 F420.000
G1 X-112.049 Y-86.380 F420.000
G1 X-111.914 Y-86.571 F420.000
G1 X-111.714 Y-86.789 F420.000
G1 X-111.508 Y-86.977 F420.000
G1 X-111.098 Y-87.248 F420.000
G1 X-110.635 Y-87.414 F420.000
G1 X-109.914 Y-87.541 F420.000
G1 X-109.492 Y-87.541 F420.000
G1 X-109.071 Y-87.459 F420.000
G1 X-108.609 Y-87.278 F420.000
G1 X-108.233 Y-87.045 F420.000
G1 X-107.853 Y-86.714 F420.000
G1 X-107.617 Y-86.429 F420.000
G1 X-107.391 Y-86.053 F420.000
G1 X-107.267 Y-85.767 F420.000
G1 X-107.117 Y-85.165 F420.000
G1 X-107.083 Y-84.684 F420.000
G1 X-107.147 Y-84.203 F420.000
G1 X-107.211 Y-83.962 F420.000
G1 X-107.455 Y-83.466 F420.000
G1 X-107.695 Y-83.124 F420.000
G1 X-107.895 Y-82.898 F420.000
G1 X-108.169 Y-82.658 F420.000
G1 X-108.568 Y-82.391 F420.000
G1 X-108.944 Y-82.218 F420.000
G1 X-109.451 Y-82.075 F420.000
G1 X-109.789 Y-82.030 F420.000
G1 X-110.184 Y-82.030 F420.000
G1 X-110.635 Y-82.098 F420.000
G1 X-111.026 Y-82.214 F420.000
G1 X-111.492 Y-82.432 F420.000
G1 X-112.004 Y-82.808 F420.000
G1 X-112.342 Y-83.192 F420.000
G1 X-112.602 Y-83.647 F420.000
G1 X-112.711 Y-83.910 F420.000
G1 X-112.861 Y-84.643 F420.000
G1 X-112.857 Y-85.207 F420.000
G1 X-112.771 Y-85.658 F420.000
G1 X-112.583 Y-86.158 F420.000
G1 X-112.308 Y-86.617 F420.000
G1 X-111.951 Y-87.026 F420.000
G1 X-111.632 Y-87.301 F420.000
G1 X-111.271 Y-87.515 F420.000
G1 X-110.876 Y-87.684 F420.000
G1 X-110.094 Y-87.880 F420.000
G1 X-109.914 Y-87.902 F420.000
G1 X-109.553 Y-87.898 F420.000
G1 X-109.011 Y-87.789 F420.000
G1 X-108.718 Y-87.677 F420.000
G1 X-108.436 Y-87.530 F420.000
G1 X-108.079 Y-87.267 F420.000
G1 X-107.650 Y-86.816 F420.000
G1 X-107.440 Y-86.504 F420.000
G1 X-107.263 Y-86.165 F420.000
G1 X-107.079 Y-85.568 F420.000
G1 X-107.034 Y-85.207 F420.000
G1 X-107.034 Y-85.207 F420.000
G1 X-107.053 Y-85.079 F420.000
G1 X-107.098 Y-85.000 F420.000
G0 X-107.120 Y-84.977
G0 X-107.226 Y-84.932
G0 X-112.226 Y-83.496
G1 X-112.271 Y-83.481 F420.000
G1 X-112.398 Y-83.455 F420.000
G1 X-112.485 Y-83.474 F420.000
G1 X-112.583 Y-83.556 F420.000
G1 X-112.624 Y-83.609 F420.000
G1 X-112.624 Y-83.609 F420.000
G1 X-112.793 Y-83.970 F420.000
G1 X-112.917 Y-84.421 F420.000
G1 X-112.966 Y-84.816 F420.000
G1 X-112.959 Y-85.267 F420.000
G1 X-112.895 Y-85.662 F420.000
G1 X-112.726 Y-86.169 F420.000
G1 X-112.538 Y-86.538 F420.000
G1 X-112.297 Y-86.876 F420.000
G1 X-112.098 Y-87.102 F420.000
G1 X-111.872 Y-87.305 F420.000
G1 X-111.530 Y-87.549 F420.000
G1 X-111.045 Y-87.782 F420.000
G1 X-110.639 Y-87.906 F420.000
G1 X-110.218 Y-87.966 F420.000
G1 X-109.917 Y-87.974 F420.000
G1 X-109.556 Y-87.936 F420.000
G0 Z15.000
(Helix to depth: -3.000000)
G0 Z15.000
G0 X-49.267 Y-145.838 Z15.000
G0 X-49.267 Y-145.838 Z3.000
G1 X-49.267 Y-145.838 Z0.000 F420.000
G1 X-49.267 Y-145.838 Z0.000 F420.000
G1 X-49.116 Y-145.680 Z-0.019 F420.000
G1 X-49.000 Y-145.495 Z-0.039 F420.000
G1 X-48.922 Y-145.291 Z-0.058 F420.000
G1 X-48.885 Y-145.076 Z-0.077 F420.000
G1 X-48.891 Y-144.857 Z-0.097 F420.000
G1 X-48.939 Y-144.644 Z-0.116 F420.000
G1 X-49.028 Y-144.445 Z-0.135 F420.000
G1 X-49.154 Y-144.267 Z-0.154 F420.000
G1 X-49.313 Y-144.116 Z-0.174 F420.000
G1 X-49.498 Y-144.000 Z-0.193 F420.000
G1 X-49.701 Y-143.922 Z-0.212 F420.000
G1 X-49.917 Y-143.885 Z-0.232 F420.000
G1 X-50.135 Y-143.891 Z-0.251 F420.000
G1 X-50.348 Y-143.939 Z-0.270 F420.000
G1 X-50.547 Y-144.028 Z-0.290 F420.000
G1 X-50.726 Y-144.154 Z-0.309 F420.000
G1 X-50.876 Y-144.313 Z-0.328 F420.000
G1 X-50.992 Y-144.498 Z-0.348 F420.000
G1 X-51.071 Y-144.701 Z-0.367 F420.000
G1 X-51.107 Y-144.917 Z-0.386 F420.000
G1 X-51.102 Y-145.135 Z-0.405 F420.000
G1 X-51.053 Y-145.348 Z-0.425 F420.000
G1 X-50.964 Y-145.547 Z-0.444 F420.000
G1 X-50.838 Y-145.726 Z-0.463 F420.000
G1 X-50.680 Y-145.876 Z-0.483 F420.000
G1 X-50.495 Y-145.992 Z-0.502 F420.000
G1 X-50.291 Y-146.071 Z-0.521 F420.000
G1 X-50.076 Y-146.107 Z-0.541 F420.000
G1 X-49.857 Y-146.102 Z-0.560 F420.000
G1 X-49.644 Y-146.053 Z-0.579 F420.000
G1 X-49.445 Y-145.964 Z-0.599 F420.000
G1 X-49.267 Y-145.838 Z-0.618 F420.000
G1 X-49.116 Y-145.680 Z-0.637 F420.000
G1 X-49.000 Y-145.495 Z-0.657 F420.000
G1 X-48.922 Y-145.291 Z-0.676 F420.000
G1 X-48.885 Y-145.076 Z-0.695 F420.000
G1 X-48.891 Y-144.857 Z-0.714 F420.000
G1 X-48.939 Y-144.644 Z-0.734 F420.000
G1 X-49.028 Y-144.445 Z-0.753 F420.000
G1 X-49.154 Y-144.267 Z-0.772 F420.000
G1 X-49.313 Y-144.116 Z-0.792 F420.000
G1 X-49.498 Y-144.000 Z-0.811 F420.000
G1 X-49.701 Y-143.922 Z-0.830 F420.000
G1 X-49.917 Y-143.885 Z-0.850 F420.000
G1 X-50.135 Y-143.891 Z-0.869 F420.000
G1 X-50.348 Y-143.939 Z-0.888 F420.000
G1 X-50.547 Y-144.028 Z-0.908 F420.000
G1 X-50.726 Y-144.154 Z-0.927 F420.000
G1 X-50.876 Y-144.313 Z-0.946 F420.000
G1 X-50.992 Y-144.498 Z-0.965 F420.000
G1 X-51.071 Y-144.701 Z-0.985 F420.000
G1 X-51.107 Y-144.917 Z-1.004 F420.000
G1 X-51.102 Y-145.135 Z-1.023 F420.000
G1 X-51.053 Y-145.348 Z-1.043 F420.000
G1 X-50.964 Y-145.547 Z-1.062 F420.000
G1 X-50.838 Y-145.726 Z-1.081 F420.000
G1 X-50.680 Y-145.876 Z-1.101 F420.000
G1 X-50.495 Y-145.992 Z-1.120 F420.000
G1 X-50.291 Y-146.071 Z-1.139 F420.000
G1 X-50.076 Y-146.107 Z-1.159 F420.000
G1 X-49.857 Y-146.102 Z-1.178 F420.000
G1 X-49.644 Y-146.053 Z-1.197 F420.000
G1 X-49.445 Y-145.964 Z-1.216 F420.000
G1 X-49.267 Y-145.838 Z-1.236 F420.000
G1 X-49.116 Y-145.680 Z-1.255 F420.000
G1 X-49.000 Y-145.495 Z-1.274 F420.000
G1 X-48.922 Y-145.291 Z-1.294 F420.000
G1 X-48.885 Y-145.076 Z-1.313 F420.000
G1 X-48.891 Y-144.857 Z-1.332 F420.000
G1 X-48.939 Y-144.644 Z-1.352 F420.000
G1 X-49.028 Y-144.445 Z-1.371 F420.000
G1 X-49.154 Y-144.267 Z-1.390 F420.000
G1 X-49.313 Y-144.116 Z-1.410 F420.000
G1 X-49.498 Y-144.000 Z-1.429 F420.000
G1 X-49.701 Y-143.922 Z-1.448 F420.000
G1 X-49.917 Y-143.885 Z-1.468 F420.000
G1 X-50.135 Y-143.891 Z-1.487 F420.000
G1 X-50.348 Y-143.939 Z-1.506 F420.000
G1 X-50.547 Y-144.028 Z-1.525 F420.000
G1 X-50.726 Y-144.154 Z-1.545 F420.000
G1 X-50.876 Y-144.313 Z-1.564 F420.000
G1 X-50.992 Y-144.498 Z-1.583 F420.000
G1 X-51.071 Y-144.701 Z-1.603 F420.000
G1 X-51.107 Y-144.917 Z-1.622 F420.000
G1 X-51.102 Y-145.135 Z-1.641 F420.000
G1 X-51.053 Y-145.348 Z-1.661 F420.000
G1 X-50.964 Y-145.547 Z-1.680 F420.000
G1 X-50.838 Y-145.726 Z-1.699 F420.000
G1 X-50.680 Y-145.876 Z-1.719 F420.000
G1 X-50.495 Y-145.992 Z-1.738 F420.000
G1 X-50.291 Y-146.071 Z-1.757 F420.000
G1 X-50.076 Y-146.107 Z-1.776 F420.000
G1 X-49.857 Y-146.102 Z-1.796 F420.000
G1 X-49.644 Y-146.053 Z-1.815 F420.000
G1 X-49.445 Y-145.964 Z-1.834 F420.000
G1 X-49.267 Y-145.838 Z-1.854 F420.000
G1 X-49.116 Y-145.680 Z-1.873 F420.000
G1 X-49.000 Y-145.495 Z-1.892 F420.000
G1 X-48.922 Y-145.291 Z-1.912 F420.000
G1 X-48.885 Y-145.076 Z-1.931 F420.000
G1 X-48.891 Y-144.857 Z-1.950 F420.000
G1 X-48.939 Y-144.644 Z-1.970 F420.000
G1 X-49.028 Y-144.445 Z-1.989 F420.000
G1 X-49.154 Y-144.267 Z-2.008 F420.000
G1 X-49.313 Y-144.116 Z-2.027 F420.000
G1 X-49.498 Y-144.000 Z-2.047 F420.000
G1 X-49.701 Y-143.922 Z-2.066 F420.000
G1 X-49.917 Y-143.885 Z-2.085 F420.000
G1 X-50.135 Y-143.891 Z-2.105 F420.000
G1 X-50.348 Y-143.939 Z-2.124 F420.000
G1 X-50.547 Y-144.028 Z-2.143 F420.000
G1 X-50.726 Y-144.154 Z-2.163 F420.000
G1 X-50.876 Y-144.313 Z-2.182 F420.000
G1 X-50.992 Y-144.498 Z-2.201 F420.000
G1 X-51.071 Y-144.701 Z-2.221 F420.000
G1 X-51.107 Y-144.917 Z-2.240 F420.000
G1 X-51.102 Y-145.135 Z-2.259 F420.000
G1 X-51.053 Y-145.348 Z-2.279 F420.000
G1 X-50.964 Y-145.547 Z-2.298 F420.000
G1 X-50.838 Y-145.726 Z-2.317 F420.000
G1 X-50.680 Y-145.876 Z-2.336 F420.000
G1 X-50.495 Y-145.992 Z-2.356 F420.000
G1 X-50.291 Y-146.071 Z-2.375 F420.000
G1 X-50.076 Y-146.107 Z-2.394 F420.000
G1 X-49.857 Y-146.102 Z-2.414 F420.000
G1 X-49.644 Y-146.053 Z-2.433 F420.000
G1 X-49.445 Y-145.964 Z-2.452 F420.000
G1 X-49.267 Y-145.838 Z-2.472 F420.000
G1 X-49.116 Y-145.680 Z-2.491 F420.000
G1 X-49.000 Y-145.495 Z-2.510 F420.000
G1 X-48.922 Y-145.291 Z-2.530 F420.000
G1 X-48.885 Y-145.076 Z-2.549 F420.000
G1 X-48.891 Y-144.857 Z-2.568 F420.000
G1 X-48.939 Y-144.644 Z-2.587 F420.000
G1 X-49.028 Y-144.445 Z-2.607 F420.000
G1 X-49.154 Y-144.267 Z-2.626 F420.000
G1 X-49.313 Y-144.116 Z-2.645 F420.000
G1 X-49.498 Y-144.000 Z-2.665 F420.000
G1 X-49.701 Y-143.922 Z-2.684 F420.000
G1 X-49.917 Y-143.885 Z-2.703 F420.000
G1 X-50.135 Y-143.891 Z-2.723 F420.000
G1 X-50.348 Y-143.939 Z-2.742 F420.000
G1 X-50.547 Y-144.028 Z-2.761 F420.000
G1 X-50.726 Y-144.154 Z-2.781 F420.000
G1 X-50.876 Y-144.313 Z-2.800 F420.000
G1 X-50.992 Y-144.498 Z-2.819 F420.000
G1 X-51.071 Y-144.701 Z-2.838 F420.000
G1 X-51.107 Y-144.917 Z-2.858 F420.000
G1 X-51.102 Y-145.135 Z-2.877 F420.000
G1 X-51.053 Y-145.348 Z-2.896 F420.000
G1 X-50.964 Y-145.547 Z-2.916 F420.000
G1 X-50.838 Y-145.726 Z-2.935 F420.000
G1 X-50.680 Y-145.876 Z-2.954 F420.000
G1 X-50.495 Y-145.992 Z-2.974 F420.000
G1 X-50.291 Y-146.071 Z-2.993 F420.000
G1 X-50.076 Y-146.107 Z-3.000 F420.000
G1 X-49.857 Y-146.102 Z-3.000 F420.000
G1 X-49.644 Y-146.053 Z-3.000 F420.000
G1 X-49.445 Y-145.964 Z-3.000 F420.000
G1 X-49.267 Y-145.838 Z-3.000 F420.000
G1 X-49.116 Y-145.680 Z-3.000 F420.000
G1 X-49.000 Y-145.495 Z-3.000 F420.000
G1 X-48.922 Y-145.291 Z-3.000 F420.000
G1 X-48.885 Y-145.076 Z-3.000 F420.000
G1 X-48.891 Y-144.857 Z-3.000 F420.000
G1 X-48.939 Y-144.644 Z-3.000 F420.000
G1 X-49.028 Y-144.445 Z-3.000 F420.000
G1 X-49.154 Y-144.267 Z-3.000 F420.000
G1 X-49.313 Y-144.116 Z-3.000 F420.000
G1 X-49.498 Y-144.000 Z-3.000 F420.000
G1 X-49.701 Y-143.922 Z-3.000 F420.000
G1 X-49.917 Y-143.885 Z-3.000 F420.000
G1 X-50.135 Y-143.891 Z-3.000 F420.000
G1 X-50.348 Y-143.939 Z-3.000 F420.000
G1 X-50.547 Y-144.028 Z-3.000 F420.000
G1 X-50.726 Y-144.154 Z-3.000 F420.000
G1 X-50.876 Y-144.313 Z-3.000 F420.000
G1 X-50.992 Y-144.498 Z-3.000 F420.000
G1 X-51.071 Y-144.701 Z-3.000 F420.000
G1 X-51.107 Y-144.917 Z-3.000 F420.000
G1 X-51.102 Y-145.135 Z-3.000 F420.000
G1 X-51.053 Y-145.348 Z-3.000 F420.000
G1 X-50.964 Y-145.547 Z-3.000 F420.000
G1 X-50.838 Y-145.726 Z-3.000 F420.000
G1 X-50.680 Y-145.876 Z-3.000 F420.000
G1 X-50.495 Y-145.992 Z-3.000 F420.000
G1 X-50.291 Y-146.071 Z-3.000 F420.000
(Adaptive - depth: -3.000000)
G1 X-49.996 Y-146.120 F420.000
G1 X-49.951 Y-146.162 F420.000
G1 X-49.774 Y-146.211 F420.000
G1 X-49.594 Y-146.211 F420.000
G1 X-49.474 Y-146.184 F420.000
G1 X-49.173 Y-146.064 F420.000
G1 X-48.970 Y-145.906 F420.000
G1 X-48.872 Y-145.797 F420.000
G1 X-48.789 Y-145.677 F420.000
G1 X-48.703 Y-145.519 F420.000
G1 X-48.620 Y-145.286 F420.000
G1 X-48.583 Y-145.079 F420.000
G1 X-48.579 Y-144.891 F420.000
G1 X-48.602 Y-144.711 F420.000
G1 X-48.650 Y-144.523 F420.000
G1 X-48.737 Y-144.320 F420.000
G1 X-48.850 Y-144.135 F420.000
G1 X-48.985 Y-143.977 F420.000
G1 X-49.124 Y-143.853 F420.000
G1 X-49.293 Y-143.741 F420.000
G1 X-49.492 Y-143.650 F420.000
G1 X-49.680 Y-143.594 F420.000
G1 X-49.883 Y-143.564 F420.000
G1 X-50.086 Y-143.564 F420.000
G1 X-50.289 Y-143.594 F420.000
G1 X-50.485 Y-143.654 F420.000
G1 X-50.669 Y-143.741 F420.000
G1 X-50.842 Y-143.846 F420.000
G1 X-51.019 Y-143.996 F420.000
G1 X-51.154 Y-144.158 F420.000
G1 X-51.256 Y-144.316 F420.000
G1 X-51.342 Y-144.511 F420.000
G1 X-51.395 Y-144.707 F420.000
G1 X-51.421 Y-144.906 F420.000
G1 X-51.417 Y-145.109 F420.000
G1 X-51.383 Y-145.312 F420.000
G1 X-51.320 Y-145.508 F420.000
G1 X-51.229 Y-145.692 F420.000
G1 X-51.113 Y-145.861 F420.000
G1 X-50.974 Y-146.011 F420.000
G1 X-50.812 Y-146.143 F420.000
G1 X-50.639 Y-146.256 F420.000
G1 X-50.421 Y-146.368 F420.000
G1 X-50.154 Y-146.466 F420.000
G1 X-49.974 Y-146.492 F420.000
G1 X-49.673 Y-146.500 F420.000
G1 X-49.305 Y-146.440 F420.000
G1 X-49.049 Y-146.331 F420.000
G1 X-48.917 Y-146.248 F420.000
G1 X-48.797 Y-146.150 F420.000
G1 X-48.658 Y-146.008 F420.000
G1 X-48.511 Y-145.816 F420.000
G1 X-48.391 Y-145.602 F420.000
G1 X-48.312 Y-145.387 F420.000
G1 X-48.267 Y-145.195 F420.000
G1 X-48.248 Y-144.974 F420.000
G1 X-48.259 Y-144.759 F420.000
G1 X-48.293 Y-144.549 F420.000
G1 X-48.368 Y-144.316 F420.000
G1 X-48.462 Y-144.113 F420.000
G1 X-48.583 Y-143.921 F420.000
G1 X-48.729 Y-143.744 F420.000
G1 X-48.895 Y-143.594 F420.000
G1 X-49.079 Y-143.466 F420.000
G1 X-49.278 Y-143.365 F420.000
G1 X-49.489 Y-143.286 F420.000
G1 X-49.726 Y-143.233 F420.000
G1 X-49.955 Y-143.211 F420.000
G1 X-50.184 Y-143.218 F420.000
G1 X-50.414 Y-143.263 F420.000
G1 X-50.609 Y-143.323 F420.000
G1 X-50.812 Y-143.414 F420.000
G1 X-51.015 Y-143.545 F420.000
G1 X-51.188 Y-143.684 F420.000
G1 X-51.361 Y-143.868 F420.000
G1 X-51.500 Y-144.060 F420.000
G1 X-51.609 Y-144.271 F420.000
G1 X-51.684 Y-144.466 F420.000
G1 X-51.737 Y-144.688 F420.000
G1 X-51.756 Y-144.910 F420.000
G1 X-51.748 Y-145.128 F420.000
G1 X-51.707 Y-145.350 F420.000
G1 X-51.643 Y-145.564 F420.000
G1 X-51.541 Y-145.786 F420.000
G1 X-51.417 Y-145.985 F420.000
G1 X-51.271 Y-146.165 F420.000
G1 X-51.105 Y-146.335 F420.000
G1 X-50.895 Y-146.496 F420.000
G1 X-50.684 Y-146.620 F420.000
G1 X-50.459 Y-146.722 F420.000
G1 X-50.218 Y-146.797 F420.000
G1 X-49.974 Y-146.842 F420.000
G1 X-49.726 Y-146.850 F420.000
G1 X-49.511 Y-146.831 F420.000
G1 X-49.278 Y-146.778 F420.000
G1 X-49.056 Y-146.695 F420.000
G1 X-48.853 Y-146.590 F420.000
G1 X-48.658 Y-146.455 F420.000
G1 X-48.481 Y-146.305 F420.000
G1 X-48.312 Y-146.113 F420.000
G1 X-48.177 Y-145.917 F420.000
G1 X-48.064 Y-145.703 F420.000
G1 X-47.977 Y-145.474 F420.000
G1 X-47.921 Y-145.237 F420.000
G1 X-47.895 Y-144.996 F420.000
G1 X-47.898 Y-144.756 F420.000
G1 X-47.929 Y-144.515 F420.000
G1 X-47.989 Y-144.282 F420.000
G1 X-48.079 Y-144.056 F420.000
G1 X-48.192 Y-143.842 F420.000
G1 X-48.346 Y-143.624 F420.000
G1 X-48.511 Y-143.440 F420.000
G1 X-48.699 Y-143.271 F420.000
G1 X-48.910 Y-143.124 F420.000
G1 X-49.132 Y-143.008 F420.000
G1 X-49.365 Y-142.917 F420.000
G1 X-49.609 Y-142.853 F420.000
G1 X-49.857 Y-142.831 F420.000
G1 X-50.071 Y-142.831 F420.000
G1 X-50.308 Y-142.853 F420.000
G1 X-50.586 Y-142.917 F420.000
G1 X-50.846 Y-143.008 F420.000
G1 X-51.079 Y-143.135 F420.000
G1 X-51.256 Y-143.256 F420.000
G1 X-51.444 Y-143.414 F420.000
G1 X-51.624 Y-143.605 F420.000
G1 X-51.793 Y-143.831 F420.000
G1 X-51.917 Y-144.064 F420.000
G1 X-52.004 Y-144.271 F420.000
G1 X-52.071 Y-144.515 F420.000
G1 X-52.105 Y-144.759 F420.000
G1 X-52.113 Y-145.000 F420.000
G1 X-52.086 Y-145.244 F420.000
G1 X-52.038 Y-145.485 F420.000
G1 X-51.951 Y-145.744 F420.000
G1 X-51.842 Y-145.974 F420.000
G1 X-51.707 Y-146.195 F420.000
G1 X-51.545 Y-146.402 F420.000
G1 X-51.361 Y-146.586 F420.000
G1 X-51.158 Y-146.748 F420.000
G1 X-50.940 Y-146.895 F420.000
G1 X-50.677 Y-147.026 F420.000
G1 X-50.421 Y-147.120 F420.000
G1 X-50.150 Y-147.177 F420.000
G1 X-49.929 Y-147.199 F420.000
G1 X-49.673 Y-147.203 F420.000
G1 X-49.395 Y-147.173 F420.000
G1 X-49.120 Y-147.102 F420.000
G1 X-48.902 Y-147.023 F420.000
G1 X-48.669 Y-146.906 F420.000
G1 X-48.455 Y-146.763 F420.000
G1 X-48.263 Y-146.602 F420.000
G1 X-48.086 Y-146.414 F420.000
G1 X-47.929 Y-146.214 F420.000
G1 X-47.782 Y-145.966 F420.000
G1 X-47.673 Y-145.726 F420.000
G1 X-47.586 Y-145.470 F420.000
G1 X-47.530 Y-145.203 F420.000
G1 X-47.500 Y-144.756 F420.000
G1 X-47.553 Y-144.335 F420.000
G1 X-47.703 Y-143.868 F420.000
G1 X-48.008 Y-143.346 F420.000
G1 X-48.244 Y-143.075 F420.000
G1 X-48.665 Y-142.748 F420.000
G1 X-49.090 Y-142.538 F420.000
G1 X-49.598 Y-142.406 F420.000
G1 X-50.049 Y-142.372 F420.000
G1 X-50.444 Y-142.425 F420.000
G1 X-50.992 Y-142.609 F420.000
G1 X-51.440 Y-142.872 F420.000
G1 X-51.831 Y-143.214 F420.000
G1 X-52.165 Y-143.680 F420.000
G1 X-52.308 Y-143.992 F420.000
G1 X-52.444 Y-144.500 F420.000
G1 X-52.474 Y-144.782 F420.000
G1 X-52.470 Y-145.150 F420.000
G1 X-52.417 Y-145.519 F420.000
G1 X-52.335 Y-145.805 F420.000
G1 X-52.244 Y-146.019 F420.000
G1 X-52.128 Y-146.229 F420.000
G1 X-51.989 Y-146.444 F420.000
G1 X-51.778 Y-146.707 F420.000
G1 X-51.545 Y-146.936 F420.000
G1 X-51.305 Y-147.117 F420.000
G1 X-51.008 Y-147.286 F420.000
G1 X-50.417 Y-147.466 F420.000
G1 X-49.816 Y-147.545 F420.000
G1 X-49.395 Y-147.523 F420.000
G1 X-48.974 Y-147.421 F420.000
G1 X-48.628 Y-147.278 F420.000
G1 X-48.252 Y-147.045 F420.000
G1 X-47.876 Y-146.714 F420.000
G1 X-47.560 Y-146.320 F420.000
G1 X-47.297 Y-145.823 F420.000
G1 X-47.150 Y-145.342 F420.000
G1 X-47.086 Y-144.861 F420.000
G1 X-47.124 Y-144.320 F420.000
G1 X-47.214 Y-143.959 F420.000
G1 X-47.455 Y-143.466 F420.000
G1 X-47.695 Y-143.124 F420.000
G1 X-47.895 Y-142.898 F420.000
G1 X-48.169 Y-142.658 F420.000
G1 X-48.568 Y-142.391 F420.000
G1 X-48.944 Y-142.218 F420.000
G1 X-49.451 Y-142.075 F420.000
G1 X-49.789 Y-142.030 F420.000
G1 X-50.184 Y-142.030 F420.000
G1 X-50.635 Y-142.098 F420.000
G1 X-50.974 Y-142.195 F420.000
G1 X-51.444 Y-142.406 F420.000
G1 X-51.782 Y-142.624 F420.000
G1 X-52.049 Y-142.850 F420.000
G1 X-52.350 Y-143.192 F420.000
G1 X-52.662 Y-143.744 F420.000
G1 X-52.771 Y-144.071 F420.000
G1 X-52.861 Y-144.579 F420.000
G1 X-52.853 Y-145.199 F420.000
G1 X-52.748 Y-145.707 F420.000
G1 X-52.624 Y-146.041 F420.000
G1 X-52.338 Y-146.556 F420.000
G1 X-52.034 Y-146.932 F420.000
G1 X-51.628 Y-147.289 F420.000
G1 X-51.267 Y-147.511 F420.000
G1 X-50.816 Y-147.703 F420.000
G1 X-50.154 Y-147.865 F420.000
G1 X-49.793 Y-147.902 F420.000
G1 X-49.432 Y-147.880 F420.000
G1 X-48.951 Y-147.767 F420.000
G1 X-48.714 Y-147.677 F420.000
G1 X-48.432 Y-147.526 F420.000
G1 X-48.075 Y-147.263 F420.000
G1 X-47.647 Y-146.812 F420.000
G1 X-47.289 Y-146.222 F420.000
G1 X-47.158 Y-145.868 F420.000
G1 X-47.079 Y-145.568 F420.000
G1 X-47.034 Y-145.207 F420.000
G1 X-47.034 Y-145.207 F420.000
G1 X-47.053 Y-145.079 F420.000
G1 X-47.098 Y-145.000 F420.000
G0 X-47.120 Y-144.981
G0 X-47.229 Y-144.936
G0 X-52.350 Y-143.684
G1 X-52.395 Y-143.673 F420.000
G1 X-52.523 Y-143.650 F420.000
G1 X-52.605 Y-143.680 F420.000
G1 X-52.695 Y-143.771 F420.000
G1 X-52.729 Y-143.827 F420.000
G1 X-52.729 Y-143.827 F420.000
G1 X-52.797 Y-143.985 F420.000
G1 X-52.921 Y-144.436 F420.000
G1 X-52.966 Y-144.831 F420.000
G1 X-52.962 Y-145.226 F420.000
G1 X-52.891 Y-145.677 F420.000
G1 X-52.722 Y-146.184 F420.000
G1 X-52.526 Y-146.553 F420.000
G1 X-52.323 Y-146.846 F420.000
G1 X-52.083 Y-147.117 F420.000
G1 X-51.857 Y-147.316 F420.000
G1 X-51.564 Y-147.526 F420.000
G1 X-51.083 Y-147.767 F420.000
G1 X-50.613 Y-147.910 F420.000
G1 X-50.252 Y-147.966 F420.000
G1 X-49.891 Y-147.970 F420.000
G1 X-49.289 Y-147.883 F420.000
G1 X-49.169 Y-147.850 F420.000
G0 Z15.000
(Helix to depth: -3.000000)
G0 Z15.000
G0 X-109.267 Y-145.838 Z15.000
G0 X-109.267 Y-145.838 Z3.000
G1 X-109.267 Y-145.838 Z0.000 F420.000
G1 X-109.267 Y-145.838 Z0.000 F420.000
G1 X-109.116 Y-145.680 Z-0.019 F420.000
G1 X-109.000 Y-145.495 Z-0.039 F420.000
G1 X-108.922 Y-145.291 Z-0.058 F420.000
G1 X-108.885 Y-145.076 Z-0.077 F420.000
G1 X-108.891 Y-144.857 Z-0.097 F420.000
G1 X-108.939 Y-144.644 Z-0.116 F420.000
G1 X-109.028 Y-144.445 Z-0.135 F420.000
G1 X-109.154 Y-144.267 Z-0.154 F420.000
G1 X-109.313 Y-144.116 Z-0.174 F420.000
G1 X-109.498 Y-144.000 Z-0.193 F420.000
G1 X-109.701 Y-143.922 Z-0.212 F420.000
G1 X-109.917 Y-143.885 Z-0.232 F420.000
G1 X-110.135 Y-143.891 Z-0.251 F420.000
G1 X-110.348 Y-143.939 Z-0.270 F420.000
G1 X-110.547 Y-144.028 Z-0.290 F420.000
G1 X-110.726 Y-144.154 Z-0.309 F420.000
G1 X-110.876 Y-144.313 Z-0.328 F420.000
G1 X-110.992 Y-144.498 Z-0.348 F420.000
G1 X-111.071 Y-144.701 Z-0.367 F420.000
G1 X-111.107 Y-144.917 Z-0.386 F420.000
G1 X-111.102 Y-145.135 Z-0.405 F420.000
G1 X-111.053 Y-145.348 Z-0.425 F420.000
G1 X-110.964 Y-145.547 Z-0.444 F420.000
G1 X-110.838 Y-145.726 Z-0.463 F420.000
G1 X-110.680 Y-145.876 Z-0.483 F420.000
G1 X-110.495 Y-145.992 Z-0.502 F420.000
G1 X-110.291 Y-146.071 Z-0.521 F420.000
G1 X-110.076 Y-146.107 Z-0.541 F420.000
G1 X-109.857 Y-146.102 Z-0.560 F420.000
G1 X-109.644 Y-146.053 Z-0.579 F420.000
G1 X-109.445 Y-145.964 Z-0.599 F420.000
G1 X-109.267 Y-145.838 Z-0.618 F420.000
G1 X-109.116 Y-145.680 Z-0.637 F420.000
G1 X-109.000 Y-145.495 Z-0.657 F420.000
G1 X-108.922 Y-145.291 Z-0.676 F420.000
G1 X-108.885 Y-145.076 Z-0.695 F420.000
G1 X-108.891 Y-144.857 Z-0.714 F420.000
G1 X-108.939 Y-144.644 Z-0.734 F420.000
G1 X-109.028 Y-144.445 Z-0.753 F420.000
G1 X-109.154 Y-144.267 Z-0.772 F420.000
G1 X-109.313 Y-144.116 Z-0.792 F420.000
G1 X-109.498 Y-144.000 Z-0.811 F420.000
G1 X-109.701 Y-143.922 Z-0.830 F420.000
G1 X-109.917 Y-143.885 Z-0.850 F420.000
G1 X-110.135 Y-143.891 Z-0.869 F420.000
G1 X-110.348 Y-143.939 Z-0.888 F420.000
G1 X-110.547 Y-144.028 Z-0.908 F420.000
G1 X-110.726 Y-144.154 Z-0.927 F420.000
G1 X-110.876 Y-144.313 Z-0.946 F420.000
G1 X-110.992 Y-144.498 Z-0.965 F420.000
G1 X-111.071 Y-144.701 Z-0.985 F420.000
G1 X-111.107 Y-144.917 Z-1.004 F420.000
G1 X-111.102 Y-145.135 Z-1.023 F420.000
G1 X-111.053 Y-145.348 Z-1.043 F420.000
G1 X-110.964 Y-145.547 Z-1.062 F420.000
G1 X-110.838 Y-145.726 Z-1.081 F420.000
G1 X-110.680 Y-145.876 Z-1.101 F420.000
G1 X-110.495 Y-145.992 Z-1.120 F420.000
G1 X-110.291 Y-146.071 Z-1.139 F420.000
G1 X-110.076 Y-146.107 Z-1.159 F420.000
G1 X-109.857 Y-146.102 Z-1.178 F420.000
G1 X-109.644 Y-146.053 Z-1.197 F420.000
G1 X-109.445 Y-145.964 Z-1.216 F420.000
G1 X-109.267 Y-145.838 Z-1.236 F420.000
G1 X-109.116 Y-145.680 Z-1.255 F420.000
G1 X-109.000 Y-145.495 Z-1.274 F420.000
G1 X-108.922 Y-145.291 Z-1.294 F420.000
G1 X-108.885 Y-145.076 Z-1.313 F420.000
G1 X-108.891 Y-144.857 Z-1.332 F420.000
G1 X-108.939 Y-144.644 Z-1.352 F420.000
G1 X-109.028 Y-144.445 Z-1.371 F420.000
G1 X-109.154 Y-144.267 Z-1.390 F420.000
G1 X-109.313 Y-144.116 Z-1.410 F420.000
G1 X-109.498 Y-144.000 Z-1.429 F420.000
G1 X-109.701 Y-143.922 Z-1.448 F420.000
G1 X-109.917 Y-143.885 Z-1.468 F420.000
G1 X-110.135 Y-143.891 Z-1.487 F420.000
G1 X-110.348 Y-143.939 Z-1.506 F420.000
G1 X-110.547 Y-144.028 Z-1.525 F420.000
G1 X-110.726 Y-144.154 Z-1.545 F420.000
G1 X-110.876 Y-144.313 Z-1.564 F420.000
G1 X-110.992 Y-144.498 Z-1.583 F420.000
G1 X-111.071 Y-144.701 Z-1.603 F420.000
G1 X-111.107 Y-144.917 Z-1.622 F420.000
G1 X-111.102 Y-145.135 Z-1.641 F420.000
G1 X-111.053 Y-145.348 Z-1.661 F420.000
G1 X-110.964 Y-145.547 Z-1.680 F420.000
G1 X-110.838 Y-145.726 Z-1.699 F420.000
G1 X-110.680 Y-145.876 Z-1.719 F420.000
G1 X-110.495 Y-145.992 Z-1.738 F420.000
G1 X-110.291 Y-146.071 Z-1.757 F420.000
G1 X-110.076 Y-146.107 Z-1.776 F420.000
G1 X-109.857 Y-146.102 Z-1.796 F420.000
G1 X-109.644 Y-146.053 Z-1.815 F420.000
G1 X-109.445 Y-145.964 Z-1.834 F420.000
G1 X-109.267 Y-145.838 Z-1.854 F420.000
G1 X-109.116 Y-145.680 Z-1.873 F420.000
G1 X-109.000 Y-145.495 Z-1.892 F420.000
G1 X-108.922 Y-145.291 Z-1.912 F420.000
G1 X-108.885 Y-145.076 Z-1.931 F420.000
G1 X-108.891 Y-144.857 Z-1.950 F420.000
G1 X-108.939 Y-144.644 Z-1.970 F420.000
G1 X-109.028 Y-144.445 Z-1.989 F420.000
G1 X-109.154 Y-144.267 Z-2.008 F420.000
G1 X-109.313 Y-144.116 Z-2.027 F420.000
G1 X-109.498 Y-144.000 Z-2.047 F420.000
G1 X-109.701 Y-143.922 Z-2.066 F420.000
G1 X-109.917 Y-143.885 Z-2.085 F420.000
G1 X-110.135 Y-143.891 Z-2.105 F420.000
G1 X-110.348 Y-143.939 Z-2.124 F420.000
G1 X-110.547 Y-144.028 Z-2.143 F420.000
G1 X-110.726 Y-144.154 Z-2.163 F420.000
G1 X-110.876 Y-144.313 Z-2.182 F420.000
G1 X-110.992 Y-144.498 Z-2.201 F420.000
G1 X-111.071 Y-144.701 Z-2.221 F420.000
G1 X-111.107 Y-144.917 Z-2.240 F420.000
G1 X-111.102 Y-145.135 Z-2.259 F420.000
G1 X-111.053 Y-145.348 Z-2.279 F420.000
G1 X-110.964 Y-145.547 Z-2.298 F420.000
G1 X-110.838 Y-145.726 Z-2.317 F420.000
G1 X-110.680 Y-145.876 Z-2.336 F420.000
G1 X-110.495 Y-145.992 Z-2.356 F420.000
G1 X-110.291 Y-146.071 Z-2.375 F420.000
G1 X-110.076 Y-146.107 Z-2.394 F420.000
G1 X-109.857 Y-146.102 Z-2.414 F420.000
G1 X-109.644 Y-146.053 Z-2.433 F420.000
G1 X-109.445 Y-145.964 Z-2.452 F420.000
G1 X-109.267 Y-145.838 Z-2.472 F420.000
G1 X-109.116 Y-145.680 Z-2.491 F420.000
G1 X-109.000 Y-145.495 Z-2.510 F420.000
G1 X-108.922 Y-145.291 Z-2.530 F420.000
G1 X-108.885 Y-145.076 Z-2.549 F420.000
G1 X-108.891 Y-144.857 Z-2.568 F420.000
G1 X-108.939 Y-144.644 Z-2.587 F420.000
G1 X-109.028 Y-144.445 Z-2.607 F420.000
G1 X-109.154 Y-144.267 Z-2.626 F420.000
G1 X-109.313 Y-144.116 Z-2.645 F420.000
G1 X-109.498 Y-144.000 Z-2.665 F420.000
G1 X-109.701 Y-143.922 Z-2.684 F420.000
G1 X-109.917 Y-143.885 Z-2.703 F420.000
G1 X-110.135 Y-143.891 Z-2.723 F420.000
G1 X-110.348 Y-143.939 Z-2.742 F420.000
G1 X-110.547 Y-144.028 Z-2.761 F420.000
G1 X-110.726 Y-144.154 Z-2.781 F420.000
G1 X-110.876 Y-144.313 Z-2.800 F420.000
G1 X-110.992 Y-144.498 Z-2.819 F420.000
G1 X-111.071 Y-144.701 Z-2.838 F420.000
G1 X-111.107 Y-144.917 Z-2.858 F420.000
G1 X-111.102 Y-145.135 Z-2.877 F420.000
G1 X-111.053 Y-145.348 Z-2.896 F420.000
G1 X-110.964 Y-145.547 Z-2.916 F420.000
G1 X-110.838 Y-145.726 Z-2.935 F420.000
G1 X-110.680 Y-145.876 Z-2.954 F420.000
G1 X-110.495 Y-145.992 Z-2.974 F420.000
G1 X-110.291 Y-146.071 Z-2.993 F420.000
G1 X-110.076 Y-146.107 Z-3.000 F420.000
G1 X-109.857 Y-146.102 Z-3.000 F420.000
G1 X-109.644 Y-146.053 Z-3.000 F420.000
G1 X-109.445 Y-145.964 Z-3.000 F420.000
G1 X-109.267 Y-145.838 Z-3.000 F420.000
G1 X-109.116 Y-145.680 Z-3.000 F420.000
G1 X-109.000 Y-145.495 Z-3.000 F420.000
G1 X-108.922 Y-145.291 Z-3.000 F420.000
G1 X-108.885 Y-145.076 Z-3.000 F420.000
G1 X-108.891 Y-144.857 Z-3.000 F420.000
G1 X-108.939 Y-144.644 Z-3.000 F420.000
G1 X-109.028 Y-144.445 Z-3.000 F420.000
G1 X-109.154 Y-144.267 Z-3.000 F420.000
G1 X-109.313 Y-144.116 Z-3.000 F420.000
G1 X-109.498 Y-144.000 Z-3.000 F420.000
G1 X-109.701 Y-143.922 Z-3.000 F420.000
G1 X-109.917 Y-143.885 Z-3.000 F420.000
G1 X-110.135 Y-143.891 Z-3.000 F420.000
G1 X-110.348 Y-143.939 Z-3.000 F420.000
G1 X-110.547 Y-144.028 Z-3.000 F420.000
G1 X-110.726 Y-144.154 Z-3.000 F420.000
G1 X-110.876 Y-144.313 Z-3.000 F420.000
G1 X-110.992 Y-144.498 Z-3.000 F420.000
G1 X-111.071 Y-144.701 Z-3.000 F420.000
G1 X-111.107 Y-144.917 Z-3.000 F420.000
G1 X-111.102 Y-145.135 Z-3.000 F420.000
G1 X-111.053 Y-145.348 Z-3.000 F420.000
G1 X-110.964 Y-145.547 Z-3.000 F420.000
G1 X-110.838 Y-145.726 Z-3.000 F420.000
G1 X-110.680 Y-145.876 Z-3.000 F420.000
G1 X-110.495 Y-145.992 Z-3.000 F420.000
G1 X-110.291 Y-146.071 Z-3.000 F420.000
(Adaptive - depth: -3.000000)
G1 X-109.996 Y-146.120 F420.000
G1 X-109.951 Y-146.162 F420.000
G1 X-109.774 Y-146.211 F420.000
G1 X-109.594 Y-146.211 F420.000
G1 X-109.474 Y-146.184 F420.000
G1 X-109.162 Y-146.060 F420.000
G1 X-108.974 Y-145.914 F420.000
G1 X-108.876 Y-145.805 F420.000
G1 X-108.793 Y-145.688 F420.000
G1 X-108.707 Y-145.526 F420.000
G1 X-108.628 Y-145.305 F420.000
G1 X-108.583 Y-145.086 F420.000
G1 X-108.583 Y-144.876 F420.000
G1 X-108.602 Y-144.711 F420.000
G1 X-108.650 Y-144.519 F420.000
G1 X-108.737 Y-144.320 F420.000
G1 X-108.846 Y-144.139 F420.000
G1 X-108.977 Y-143.977 F420.000
G1 X-109.135 Y-143.842 F420.000
G1 X-109.293 Y-143.741 F420.000
G1 X-109.474 Y-143.650 F420.000
G1 X-109.680 Y-143.590 F420.000
G1 X-109.880 Y-143.560 F420.000
G1 X-110.083 Y-143.560 F420.000
G1 X-110.289 Y-143.590 F420.000
G1 X-110.485 Y-143.647 F420.000
G1 X-110.669 Y-143.733 F420.000
G1 X-110.842 Y-143.838 F420.000
G1 X-111.015 Y-143.985 F420.000
G1 X-111.150 Y-144.147 F420.000
G1 X-111.252 Y-144.305 F420.000
G1 X-111.338 Y-144.496 F420.000
G1 X-111.391 Y-144.692 F420.000
G1 X-111.417 Y-144.891 F420.000
G1 X-111.414 Y-145.094 F420.000
G1 X-111.380 Y-145.297 F420.000
G1 X-111.316 Y-145.492 F420.000
G1 X-111.229 Y-145.680 F420.000
G1 X-111.105 Y-145.865 F420.000
G1 X-110.966 Y-146.023 F420.000
G1 X-110.805 Y-146.162 F420.000
G1 X-110.624 Y-146.278 F420.000
G1 X-110.432 Y-146.376 F420.000
G1 X-110.192 Y-146.462 F420.000
G1 X-109.831 Y-146.508 F420.000
G1 X-109.711 Y-146.508 F420.000
G1 X-109.338 Y-146.455 F420.000
G1 X-109.049 Y-146.331 F420.000
G1 X-108.921 Y-146.248 F420.000
G1 X-108.805 Y-146.158 F420.000
G1 X-108.662 Y-146.011 F420.000
G1 X-108.523 Y-145.831 F420.000
G1 X-108.406 Y-145.617 F420.000
G1 X-108.323 Y-145.410 F420.000
G1 X-108.274 Y-145.184 F420.000
G1 X-108.256 Y-144.992 F420.000
G1 X-108.259 Y-144.778 F420.000
G1 X-108.293 Y-144.541 F420.000
G1 X-108.361 Y-144.305 F420.000
G1 X-108.462 Y-144.094 F420.000
G1 X-108.564 Y-143.932 F420.000
G1 X-108.703 Y-143.759 F420.000
G1 X-108.880 Y-143.602 F420.000
G1 X-109.053 Y-143.474 F420.000
G1 X-109.271 Y-143.357 F420.000
G1 X-109.489 Y-143.278 F420.000
G1 X-109.714 Y-143.229 F420.000
G1 X-109.921 Y-143.211 F420.000
G1 X-110.143 Y-143.218 F420.000
G1 X-110.383 Y-143.256 F420.000
G1 X-110.624 Y-143.327 F420.000
G1 X-110.842 Y-143.425 F420.000
G1 X-111.026 Y-143.538 F420.000
G1 X-111.207 Y-143.684 F420.000
G1 X-111.361 Y-143.850 F420.000
G1 X-111.492 Y-144.034 F420.000
G1 X-111.602 Y-144.233 F420.000
G1 X-111.680 Y-144.444 F420.000
G1 X-111.733 Y-144.665 F420.000
G1 X-111.756 Y-144.891 F420.000
G1 X-111.748 Y-145.117 F420.000
G1 X-111.711 Y-145.342 F420.000
G1 X-111.647 Y-145.560 F420.000
G1 X-111.553 Y-145.767 F420.000
G1 X-111.436 Y-145.966 F420.000
G1 X-111.278 Y-146.165 F420.000
G1 X-111.109 Y-146.335 F420.000
G1 X-110.921 Y-146.485 F420.000
G1 X-110.711 Y-146.609 F420.000
G1 X-110.489 Y-146.707 F420.000
G1 X-110.256 Y-146.778 F420.000
G1 X-110.019 Y-146.823 F420.000
G1 X-109.752 Y-146.842 F420.000
G1 X-109.504 Y-146.823 F420.000
G1 X-109.282 Y-146.782 F420.000
G1 X-109.049 Y-146.699 F420.000
G1 X-108.853 Y-146.602 F420.000
G1 X-108.665 Y-146.474 F420.000
G1 X-108.492 Y-146.323 F420.000
G1 X-108.331 Y-146.143 F420.000
G1 X-108.195 Y-145.947 F420.000
G1 X-108.086 Y-145.737 F420.000
G1 X-107.996 Y-145.515 F420.000
G1 X-107.932 Y-145.259 F420.000
G1 X-107.902 Y-145.015 F420.000
G1 X-107.898 Y-144.767 F420.000
G1 X-107.925 Y-144.515 F420.000
G1 X-107.981 Y-144.271 F420.000
G1 X-108.068 Y-144.038 F420.000
G1 X-108.188 Y-143.820 F420.000
G1 X-108.312 Y-143.643 F420.000
G1 X-108.466 Y-143.462 F420.000
G1 X-108.665 Y-143.286 F420.000
G1 X-108.876 Y-143.135 F420.000
G1 X-109.094 Y-143.015 F420.000
G1 X-109.338 Y-142.929 F420.000
G1 X-109.549 Y-142.876 F420.000
G1 X-109.789 Y-142.838 F420.000
G1 X-110.071 Y-142.831 F420.000
G1 X-110.346 Y-142.853 F420.000
G1 X-110.602 Y-142.917 F420.000
G1 X-110.808 Y-142.989 F420.000
G1 X-111.034 Y-143.102 F420.000
G1 X-111.241 Y-143.233 F420.000
G1 X-111.444 Y-143.402 F420.000
G1 X-111.617 Y-143.586 F420.000
G1 X-111.771 Y-143.789 F420.000
G1 X-111.898 Y-144.011 F420.000
G1 X-112.000 Y-144.244 F420.000
G1 X-112.068 Y-144.492 F420.000
G1 X-112.102 Y-144.714 F420.000
G1 X-112.113 Y-144.955 F420.000
G1 X-112.090 Y-145.218 F420.000
G1 X-112.041 Y-145.455 F420.000
G1 X-111.970 Y-145.695 F420.000
G1 X-111.853 Y-145.955 F420.000
G1 X-111.722 Y-146.177 F420.000
G1 X-111.564 Y-146.387 F420.000
G1 X-111.380 Y-146.583 F420.000
G1 X-111.180 Y-146.752 F420.000
G1 X-110.951 Y-146.891 F420.000
G1 X-110.752 Y-146.989 F420.000
G1 X-110.519 Y-147.079 F420.000
G1 X-110.214 Y-147.158 F420.000
G1 X-109.917 Y-147.203 F420.000
G1 X-109.632 Y-147.203 F420.000
G1 X-109.398 Y-147.173 F420.000
G1 X-109.173 Y-147.120 F420.000
G1 X-108.940 Y-147.041 F420.000
G1 X-108.692 Y-146.917 F420.000
G1 X-108.481 Y-146.782 F420.000
G1 X-108.282 Y-146.620 F420.000
G1 X-108.102 Y-146.432 F420.000
G1 X-107.944 Y-146.226 F420.000
G1 X-107.808 Y-146.008 F420.000
G1 X-107.688 Y-145.744 F420.000
G1 X-107.602 Y-145.492 F420.000
G1 X-107.541 Y-145.229 F420.000
G1 X-107.511 Y-144.959 F420.000
G1 X-107.538 Y-144.391 F420.000
G1 X-107.650 Y-143.977 F420.000
G1 X-107.744 Y-143.752 F420.000
G1 X-107.962 Y-143.391 F420.000
G1 X-108.195 Y-143.113 F420.000
G1 X-108.466 Y-142.872 F420.000
G1 X-108.929 Y-142.602 F420.000
G1 X-109.429 Y-142.432 F420.000
G1 X-109.880 Y-142.368 F420.000
G1 X-110.331 Y-142.402 F420.000
G1 X-110.887 Y-142.560 F420.000
G1 X-111.203 Y-142.707 F420.000
G1 X-111.673 Y-143.049 F420.000
G1 X-111.914 Y-143.297 F420.000
G1 X-112.169 Y-143.677 F420.000
G1 X-112.372 Y-144.158 F420.000
G1 X-112.462 Y-144.609 F420.000
G1 X-112.474 Y-144.778 F420.000
G1 X-112.477 Y-145.147 F420.000
G1 X-112.425 Y-145.515 F420.000
G1 X-112.346 Y-145.789 F420.000
G1 X-112.263 Y-145.989 F420.000
G1 X-112.154 Y-146.199 F420.000
G1 X-111.989 Y-146.455 F420.000
G1 X-111.789 Y-146.707 F420.000
G1 X-111.556 Y-146.925 F420.000
G1 X-111.372 Y-147.071 F420.000
G1 X-111.079 Y-147.244 F420.000
G1 X-110.624 Y-147.436 F420.000
G1 X-110.083 Y-147.538 F420.000
G1 X-109.662 Y-147.556 F420.000
G1 X-109.241 Y-147.500 F420.000
G1 X-108.767 Y-147.346 F420.000
G1 X-108.331 Y-147.105 F420.000
G1 X-107.992 Y-146.831 F420.000
G1 X-107.624 Y-146.406 F420.000
G1 X-107.398 Y-146.030 F420.000
G1 X-107.274 Y-145.744 F420.000
G1 X-107.124 Y-145.143 F420.000
G1 X-107.090 Y-144.662 F420.000
G1 X-107.147 Y-144.180 F420.000
G1 X-107.222 Y-143.940 F420.000
G1 X-107.466 Y-143.447 F420.000
G1 X-107.669 Y-143.154 F420.000
G1 X-107.906 Y-142.887 F420.000
G1 X-108.132 Y-142.688 F420.000
G1 X-108.575 Y-142.387 F420.000
G1 X-108.944 Y-142.218 F420.000
G1 X-109.451 Y-142.075 F420.000
G1 X-109.789 Y-142.030 F420.000
G1 X-110.184 Y-142.030 F420.000
G1 X-110.635 Y-142.098 F420.000
G1 X-111.026 Y-142.214 F420.000
G1 X-111.444 Y-142.406 F420.000
G1 X-111.782 Y-142.624 F420.000
G1 X-112.049 Y-142.850 F420.000
G1 X-112.350 Y-143.192 F420.000
G1 X-112.665 Y-143.744 F420.000
G1 X-112.789 Y-144.128 F420.000
G1 X-112.872 Y-144.748 F420.000
G1 X-112.835 Y-145.368 F420.000
G1 X-112.718 Y-145.820 F420.000
G1 X-112.504 Y-146.305 F420.000
G1 X-112.090 Y-146.883 F420.000
G1 X-111.827 Y-147.135 F420.000
G1 X-111.444 Y-147.421 F420.000
G1 X-110.898 Y-147.684 F420.000
G1 X-110.425 Y-147.823 F420.000
G1 X-110.004 Y-147.895 F420.000
G1 X-109.583 Y-147.898 F420.000
G1 X-109.102 Y-147.812 F420.000
G1 X-108.744 Y-147.688 F420.000
G1 X-108.410 Y-147.508 F420.000
G1 X-108.102 Y-147.289 F420.000
G1 X-107.876 Y-147.075 F420.000
G1 X-107.632 Y-146.789 F420.000
G1 X-107.451 Y-146.526 F420.000
G1 X-107.229 Y-146.075 F420.000
G1 X-107.086 Y-145.598 F420.000
G1 X-107.034 Y-145.177 F420.000
G1 X-107.034 Y-144.816 F420.000
G1 X-107.034 Y-144.816 F420.000
G1 X-107.083 Y-144.665 F420.000
G1 X-107.120 Y-144.617 F420.000
G0 X-107.147 Y-144.602
G0 X-107.256 Y-144.564
G0 X-112.338 Y-143.654
G1 X-112.383 Y-143.647 F420.000
G1 X-112.511 Y-143.632 F420.000
G1 X-112.598 Y-143.662 F420.000
G1 X-112.688 Y-143.752 F420.000
G1 X-112.722 Y-143.808 F420.000
G1 X-112.722 Y-143.808 F420.000
G1 X-112.808 Y-144.023 F420.000
G1 X-112.925 Y-144.474 F420.000
G1 X-112.966 Y-144.812 F420.000
G1 X-112.959 Y-145.263 F420.000
G1 X-112.880 Y-145.714 F420.000
G1 X-112.703 Y-146.218 F420.000
G1 X-112.541 Y-146.534 F420.000
G1 X-112.301 Y-146.872 F420.000
G1 X-112.102 Y-147.098 F420.000
G1 X-111.827 Y-147.338 F420.000
G1 X-111.534 Y-147.545 F420.000
G1 X-111.094 Y-147.763 F420.000
G1 X-110.624 Y-147.906 F420.000
G1 X-110.203 Y-147.966 F420.000
G1 X-109.842 Y-147.966 F420.000
G1 X-109.361 Y-147.898 F420.000
G1 X-109.060 Y-147.816 F420.000
G0 Z15.000
(Helix to depth: -6.000000)
G0 Z15.000
G0 X-49.267 Y-85.838 Z15.000
G0 X-49.267 Y-85.838 Z3.000
G1 X-49.267 Y-85.838 Z-3.000 F420.000
G1 X-49.267 Y-85.838 Z-3.000 F420.000
G1 X-49.116 Y-85.680 Z-3.019 F420.000
G1 X-49.000 Y-85.495 Z-3.039 F420.000
G1 X-48.922 Y-85.291 Z-3.058 F420.000
G1 X-48.885 Y-85.076 Z-3.077 F420.000
G1 X-48.891 Y-84.857 Z-3.097 F420.000
G1 X-48.939 Y-84.644 Z-3.116 F420.000
G1 X-49.028 Y-84.445 Z-3.135 F420.000
G1 X-49.154 Y-84.267 Z-3.154 F420.000
G1 X-49.313 Y-84.116 Z-3.174 F420.000
G1 X-49.498 Y-84.000 Z-3.193 F420.000
G1 X-49.701 Y-83.922 Z-3.212 F420.000
G1 X-49.917 Y-83.885 Z-3.232 F420.000
G1 X-50.135 Y-83.891 Z-3.251 F420.000
G1 X-50.348 Y-83.939 Z-3.270 F420.000
G1 X-50.547 Y-84.028 Z-3.290 F420.000
G1 X-50.726 Y-84.154 Z-3.309 F420.000
G1 X-50.876 Y-84.313 Z-3.328 F420.000
G1 X-50.992 Y-84.498 Z-3.348 F420.000
G1 X-51.071 Y-84.701 Z-3.367 F420.000
G1 X-51.107 Y-84.917 Z-3.386 F420.000
G1 X-51.102 Y-85.135 Z-3.405 F420.000
G1 X-51.053 Y-85.348 Z-3.425 F420.000
G1 X-50.964 Y-85.547 Z-3.444 F420.000
G1 X-50.838 Y-85.726 Z-3.463 F420.000
G1 X-50.680 Y-85.876 Z-3.483 F420.000
G1 X-50.495 Y-85.992 Z-3.502 F420.000
G1 X-50.291 Y-86.071 Z-3.521 F420.000
G1 X-50.076 Y-86.107 Z-3.541 F420.000
G1 X-49.857 Y-86.102 Z-3.560 F420.000
G1 X-49.644 Y-86.053 Z-3.579 F420.000
G1 X-49.445 Y-85.964 Z-3.599 F420.000
G1 X-49.267 Y-85.838 Z-3.618 F420.000
G1 X-49.116 Y-85.680 Z-3.637 F420.000
G1 X-49.000 Y-85.495 Z-3.657 F420.000
G1 X-48.922 Y-85.291 Z-3.676 F420.000
G1 X-48.885 Y-85.076 Z-3.695 F420.000
G1 X-48.891 Y-84.857 Z-3.714 F420.000
G1 X-48.939 Y-84.644 Z-3.734 F420.000
G1 X-49.028 Y-84.445 Z-3.753 F420.000
G1 X-49.154 Y-84.267 Z-3.772 F420.000
G1 X-49.313 Y-84.116 Z-3.792 F420.000
G1 X-49.498 Y-84.000 Z-3.811 F420.000
G1 X-49.701 Y-83.922 Z-3.830 F420.000
G1 X-49.917 Y-83.885 Z-3.850 F420.000
G1 X-50.135 Y-83.891 Z-3.869 F420.000
G1 X-50.348 Y-83.939 Z-3.888 F420.000
G1 X-50.547 Y-84.028 Z-3.908 F420.000
G1 X-50.726 Y-84.154 Z-3.927 F420.000
G1 X-50.876 Y-84.313 Z-3.946 F420.000
G1 X-50.992 Y-84.498 Z-3.965 F420.000
G1 X-51.071 Y-84.701 Z-3.985 F420.000
G1 X-51.107 Y-84.917 Z-4.004 F420.000
G1 X-51.102 Y-85.135 Z-4.023 F420.000
G1 X-51.053 Y-85.348 Z-4.043 F420.000
G1 X-50.964 Y-85.547 Z-4.062 F420.000
G1 X-50.838 Y-85.726 Z-4.081 F420.000
G1 X-50.680 Y-85.876 Z-4.101 F420.000
G1 X-50.495 Y-85.992 Z-4.120 F420.000
G1 X-50.291 Y-86.071 Z-4.139 F420.000
G1 X-50.076 Y-86.107 Z-4.159 F420.000
G1 X-49.857 Y-86.102 Z-4.178 F420.000
G1 X-49.644 Y-86.053 Z-4.197 F420.000
G1 X-49.445 Y-85.964 Z-4.216 F420.000
G1 X-49.267 Y-85.838 Z-4.236 F420.000
G1 X-49.116 Y-85.680 Z-4.255 F420.000
G1 X-49.000 Y-85.495 Z-4.274 F420.000
G1 X-48.922 Y-85.291 Z-4.294 F420.000
G1 X-48.885 Y-85.076 Z-4.313 F420.000
G1 X-48.891 Y-84.857 Z-4.332 F420.000
G1 X-48.939 Y-84.644 Z-4.352 F420.000
G1 X-49.028 Y-84.445 Z-4.371 F420.000
G1 X-49.154 Y-84.267 Z-4.390 F420.000
G1 X-49.313 Y-84.116 Z-4.410 F420.000
G1 X-49.498 Y-84.000 Z-4.429 F420.000
G1 X-49.701 Y-83.922 Z-4.448 F420.000
G1 X-49.917 Y-83.885 Z-4.468 F420.000
G1 X-50.135 Y-83.891 Z-4.487 F420.000
G1 X-50.348 Y-83.939 Z-4.506 F420.000
G1 X-50.547 Y-84.028 Z-4.525 F420.000
G1 X-50.726 Y-84.154 Z-4.545 F420.000
G1 X-50.876 Y-84.313 Z-4.564 F420.000
G1 X-50.992 Y-84.498 Z-4.583 F420.000
G1 X-51.071 Y-84.701 Z-4.603 F420.000
G1 X-51.107 Y-84.917 Z-4.622 F420.000
G1 X-51.102 Y-85.135 Z-4.641 F420.000
G1 X-51.053 Y-85.348 Z-4.661 F420.000
G1 X-50.964 Y-85.547 Z-4.680 F420.000
G1 X-50.838 Y-85.726 Z-4.699 F420.000
G1 X-50.680 Y-85.876 Z-4.719 F420.000
G1 X-50.495 Y-85.992 Z-4.738 F420.000
G1 X-50.291 Y-86.071 Z-4.757 F420.000
G1 X-50.076 Y-86.107 Z-4.776 F420.000
G1 X-49.857 Y-86.102 Z-4.796 F420.000
G1 X-49.644 Y-86.053 Z-4.815 F420.000
G1 X-49.445 Y-85.964 Z-4.834 F420.000
G1 X-49.267 Y-85.838 Z-4.854 F420.000
G1 X-49.116 Y-85.680 Z-4.873 F420.000
G1 X-49.000 Y-85.495 Z-4.892 F420.000
G1 X-48.922 Y-85.291 Z-4.912 F420.000
G1 X-48.885 Y-85.076 Z-4.931 F420.000
G1 X-48.891 Y-84.857 Z-4.950 F420.000
G1 X-48.939 Y-84.644 Z-4.970 F420.000
G1 X-49.028 Y-84.445 Z-4.989 F420.000
G1 X-49.154 Y-84.267 Z-5.008 F420.000
G1 X-49.313 Y-84.116 Z-5.027 F420.000
G1 X-49.498 Y-84.000 Z-5.047 F420.000
G1 X-49.701 Y-83.922 Z-5.066 F420.000
G1 X-49.917 Y-83.885 Z-5.085 F420.000
G1 X-50.135 Y-83.891 Z-5.105 F420.000
G1 X-50.348 Y-83.939 Z-5.124 F420.000
G1 X-50.547 Y-84.028 Z-5.143 F420.000
G1 X-50.726 Y-84.154 Z-5.163 F420.000
G1 X-50.876 Y-84.313 Z-5.182 F420.000
G1 X-50.992 Y-84.498 Z-5.201 F420.000
G1 X-51.071 Y-84.701 Z-5.221 F420.000
G1 X-51.107 Y-84.917 Z-5.240 F420.000
G1 X-51.102 Y-85.135 Z-5.259 F420.000
G1 X-51.053 Y-85.348 Z-5.279 F420.000
G1 X-50.964 Y-85.547 Z-5.298 F420.000
G1 X-50.838 Y-85.726 Z-5.317 F420.000
G1 X-50.680 Y-85.876 Z-5.336 F420.000
G1 X-50.495 Y-85.992 Z-5.356 F420.000
G1 X-50.291 Y-86.071 Z-5.375 F420.000
G1 X-50.076 Y-86.107 Z-5.394 F420.000
G1 X-49.857 Y-86.102 Z-5.414 F420.000
G1 X-49.644 Y-86.053 Z-5.433 F420.000
G1 X-49.445 Y-85.964 Z-5.452 F420.000
G1 X-49.267 Y-85.838 Z-5.472 F420.000
G1 X-49.116 Y-85.680 Z-5.491 F420.000
G1 X-49.000 Y-85.495 Z-5.510 F420.000
G1 X-48.922 Y-85.291 Z-5.530 F420.000
G1 X-48.885 Y-85.076 Z-5.549 F420.000
G1 X-48.891 Y-84.857 Z-5.568 F420.000
G1 X-48.939 Y-84.644 Z-5.587 F420.000
G1 X-49.028 Y-84.445 Z-5.607 F420.000
G1 X-49.154 Y-84.267 Z-5.626 F420.000
G1 X-49.313 Y-84.116 Z-5.645 F420.000
G1 X-49.498 Y-84.000 Z-5.665 F420.000
G1 X-49.701 Y-83.922 Z-5.684 F420.000
G1 X-49.917 Y-83.885 Z-5.703 F420.000
G1 X-50.135 Y-83.891 Z-5.723 F420.000
G1 X-50.348 Y-83.939 Z-5.742 F420.000
G1 X-50.547 Y-84.028 Z-5.761 F420.000
G1 X-50.726 Y-84.154 Z-5.781 F420.000
G1 X-50.876 Y-84.313 Z-5.800 F420.000
G1 X-50.992 Y-84.498 Z-5.819 F420.000
G1 X-51.071 Y-84.701 Z-5.838 F420.000
G1 X-51.107 Y-84.917 Z-5.858 F420.000
G1 X-51.102 Y-85.135 Z-5.877 F420.000
G1 X-51.053 Y-85.348 Z-5.896 F420.000
G1 X-50.964 Y-85.547 Z-5.916 F420.000
G1 X-50.838 Y-85.726 Z-5.935 F420.000
G1 X-50.680 Y-85.876 Z-5.954 F420.000
G1 X-50.495 Y-85.992 Z-5.974 F420.000
G1 X-50.291 Y-86.071 Z-5.993 F420.000
G1 X-50.076 Y-86.107 Z-6.000 F420.000
G1 X-49.857 Y-86.102 Z-6.000 F420.000
G1 X-49.644 Y-86.053 Z-6.000 F420.000
G1 X-49.445 Y-85.964 Z-6.000 F420.000
G1 X-49.267 Y-85.838 Z-6.000 F420.000
G1 X-49.116 Y-85.680 Z-6.000 F420.000
G1 X-49.000 Y-85.495 Z-6.000 F420.000
G1 X-48.922 Y-85.291 Z-6.000 F420.000
G1 X-48.885 Y-85.076 Z-6.000 F420.000
G1 X-48.891 Y-84.857 Z-6.000 F420.000
G1 X-48.939 Y-84.644 Z-6.000 F420.000
G1 X-49.028 Y-84.445 Z-6.000 F420.000
G1 X-49.154 Y-84.267 Z-6.000 F420.000
G1 X-49.313 Y-84.116 Z-6.000 F420.000
G1 X-49.498 Y-84.000 Z-6.000 F420.000
G1 X-49.701 Y-83.922 Z-6.000 F420.000
G1 X-49.917 Y-83.885 Z-6.000 F420.000
G1 X-50.135 Y-83.891 Z-6.000 F420.000
G1 X-50.348 Y-83.939 Z-6.000 F420.000
G1 X-50.547 Y-84.028 Z-6.000 F420.000
G1 X-50.726 Y-84.154 Z-6.000 F420.000
G1 X-50.876 Y-84.313 Z-6.000 F420.000
G1 X-50.992 Y-84.498 Z-6.000 F420.000
G1 X-51.071 Y-84.701 Z-6.000 F420.000
G1 X-51.107 Y-84.917 Z-6.000 F420.000
G1 X-51.102 Y-85.135 Z-6.000 F420.000
G1 X-51.053 Y-85.348 Z-6.000 F420.000
G1 X-50.964 Y-85.547 Z-6.000 F420.000
G1 X-50.838 Y-85.726 Z-6.000 F420.000
G1 X-50.680 Y-85.876 Z-6.000 F420.000
G1 X-50.495 Y-85.992 Z-6.000 F420.000
G1 X-50.291 Y-86.071 Z-6.000 F420.000
(Adaptive - depth: -6.000000)
G1 X-49.996 Y-86.120 F420.000
G1 X-49.951 Y-86.162 F420.000
G1 X-49.774 Y-86.211 F420.000
G1 X-49.594 Y-86.211 F420.000
G1 X-49.474 Y-86.184 F420.000
G1 X-49.177 Y-86.064 F420.000
G1 X-48.981 Y-85.914 F420.000
G1 X-48.880 Y-85.805 F420.000
G1 X-48.789 Y-85.684 F420.000
G1 X-48.699 Y-85.511 F420.000
G1 X-48.628 Y-85.312 F420.000
G1 X-48.590 Y-85.098 F420.000
G1 X-48.583 Y-84.910 F420.000
G1 X-48.605 Y-84.707 F420.000
G1 X-48.658 Y-84.511 F420.000
G1 X-48.733 Y-84.331 F420.000
G1 X-48.835 Y-84.158 F420.000
G1 X-48.970 Y-83.992 F420.000
G1 X-49.120 Y-83.857 F420.000
G1 X-49.289 Y-83.741 F420.000
G1 X-49.474 Y-83.650 F420.000
G1 X-49.669 Y-83.590 F420.000
G1 X-49.872 Y-83.556 F420.000
G1 X-50.075 Y-83.553 F420.000
G1 X-50.278 Y-83.579 F420.000
G1 X-50.474 Y-83.635 F420.000
G1 X-50.658 Y-83.722 F420.000
G1 X-50.831 Y-83.831 F420.000
G1 X-50.989 Y-83.962 F420.000
G1 X-51.132 Y-84.128 F420.000
G1 X-51.244 Y-84.301 F420.000
G1 X-51.335 Y-84.492 F420.000
G1 X-51.387 Y-84.699 F420.000
G1 X-51.410 Y-84.880 F420.000
G1 X-51.410 Y-85.079 F420.000
G1 X-51.380 Y-85.293 F420.000
G1 X-51.320 Y-85.508 F420.000
G1 X-51.222 Y-85.699 F420.000
G1 X-51.120 Y-85.850 F420.000
G1 X-50.981 Y-86.000 F420.000
G1 X-50.827 Y-86.128 F420.000
G1 X-50.643 Y-86.252 F420.000
G1 X-50.429 Y-86.368 F420.000
G1 X-50.165 Y-86.466 F420.000
G1 X-49.805 Y-86.504 F420.000
G1 X-49.684 Y-86.504 F420.000
G1 X-49.316 Y-86.447 F420.000
G1 X-49.015 Y-86.312 F420.000
G1 X-48.778 Y-86.132 F420.000
G1 X-48.635 Y-85.977 F420.000
G1 X-48.492 Y-85.778 F420.000
G1 X-48.380 Y-85.556 F420.000
G1 X-48.312 Y-85.350 F420.000
G1 X-48.271 Y-85.147 F420.000
G1 X-48.259 Y-84.925 F420.000
G1 X-48.271 Y-84.711 F420.000
G1 X-48.316 Y-84.477 F420.000
G1 X-48.387 Y-84.267 F420.000
G1 X-48.485 Y-84.068 F420.000
G1 X-48.609 Y-83.880 F420.000
G1 X-48.759 Y-83.711 F420.000
G1 X-48.929 Y-83.564 F420.000
G1 X-49.117 Y-83.440 F420.000
G1 X-49.320 Y-83.342 F420.000
G1 X-49.534 Y-83.271 F420.000
G1 X-49.752 Y-83.222 F420.000
G1 X-50.000 Y-83.203 F420.000
G1 X-50.229 Y-83.214 F420.000
G1 X-50.459 Y-83.263 F420.000
G1 X-50.654 Y-83.331 F420.000
G1 X-50.853 Y-83.432 F420.000
G1 X-51.038 Y-83.553 F420.000
G1 X-51.226 Y-83.718 F420.000
G1 X-51.380 Y-83.891 F420.000
G1 X-51.511 Y-84.083 F420.000
G1 X-51.620 Y-84.293 F420.000
G1 X-51.692 Y-84.515 F420.000
G1 X-51.733 Y-84.718 F420.000
G1 X-51.748 Y-84.944 F420.000
G1 X-51.737 Y-85.165 F420.000
G1 X-51.692 Y-85.406 F420.000
G1 X-51.620 Y-85.628 F420.000
G1 X-51.515 Y-85.835 F420.000
G1 X-51.398 Y-86.008 F420.000
G1 X-51.256 Y-86.180 F420.000
G1 X-51.071 Y-86.361 F420.000
G1 X-50.846 Y-86.530 F420.000
G1 X-50.628 Y-86.658 F420.000
G1 X-50.380 Y-86.752 F420.000
G1 X-50.180 Y-86.805 F420.000
G1 X-49.944 Y-86.842 F420.000
G1 X-49.692 Y-86.842 F420.000
G1 X-49.462 Y-86.816 F420.000
G1 X-49.226 Y-86.759 F420.000
G1 X-49.000 Y-86.673 F420.000
G1 X-48.789 Y-86.560 F420.000
G1 X-48.598 Y-86.417 F420.000
G1 X-48.444 Y-86.271 F420.000
G1 X-48.297 Y-86.090 F420.000
G1 X-48.169 Y-85.902 F420.000
G1 X-48.049 Y-85.654 F420.000
G1 X-47.970 Y-85.425 F420.000
G1 X-47.921 Y-85.184 F420.000
G1 X-47.902 Y-84.959 F420.000
G1 X-47.906 Y-84.722 F420.000
G1 X-47.947 Y-84.462 F420.000
G1 X-48.015 Y-84.229 F420.000
G1 X-48.109 Y-84.004 F420.000
G1 X-48.229 Y-83.786 F420.000
G1 X-48.387 Y-83.564 F420.000
G1 X-48.564 Y-83.380 F420.000
G1 X-48.741 Y-83.237 F420.000
G1 X-48.932 Y-83.109 F420.000
G1 X-49.169 Y-82.996 F420.000
G1 X-49.395 Y-82.914 F420.000
G1 X-49.665 Y-82.850 F420.000
G1 X-49.921 Y-82.823 F420.000
G1 X-50.173 Y-82.831 F420.000
G1 X-50.402 Y-82.861 F420.000
G1 X-50.639 Y-82.925 F420.000
G1 X-50.865 Y-83.011 F420.000
G1 X-51.102 Y-83.139 F420.000
G1 X-51.308 Y-83.286 F420.000
G1 X-51.500 Y-83.451 F420.000
G1 X-51.669 Y-83.643 F420.000
G1 X-51.816 Y-83.850 F420.000
G1 X-51.929 Y-84.079 F420.000
G1 X-52.004 Y-84.282 F420.000
G1 X-52.064 Y-84.515 F420.000
G1 X-52.102 Y-84.789 F420.000
G1 X-52.109 Y-85.064 F420.000
G1 X-52.075 Y-85.327 F420.000
G1 X-52.026 Y-85.549 F420.000
G1 X-51.940 Y-85.789 F420.000
G1 X-51.827 Y-86.008 F420.000
G1 X-51.692 Y-86.211 F420.000
G1 X-51.538 Y-86.406 F420.000
G1 X-51.331 Y-86.617 F420.000
G1 X-51.098 Y-86.805 F420.000
G1 X-50.853 Y-86.947 F420.000
G1 X-50.647 Y-87.045 F420.000
G1 X-50.391 Y-87.128 F420.000
G1 X-50.139 Y-87.177 F420.000
G1 X-49.887 Y-87.199 F420.000
G1 X-49.628 Y-87.192 F420.000
G1 X-49.372 Y-87.162 F420.000
G1 X-49.083 Y-87.090 F420.000
G1 X-48.827 Y-86.996 F420.000
G1 X-48.586 Y-86.857 F420.000
G1 X-48.417 Y-86.741 F420.000
G1 X-48.229 Y-86.579 F420.000
G1 X-48.045 Y-86.376 F420.000
G1 X-47.887 Y-86.154 F420.000
G1 X-47.759 Y-85.925 F420.000
G1 X-47.654 Y-85.677 F420.000
G1 X-47.575 Y-85.417 F420.000
G1 X-47.526 Y-85.158 F420.000
G1 X-47.508 Y-84.711 F420.000
G1 X-47.568 Y-84.289 F420.000
G1 X-47.722 Y-83.823 F420.000
G1 X-47.895 Y-83.504 F420.000
G1 X-48.154 Y-83.169 F420.000
G1 X-48.515 Y-82.853 F420.000
G1 X-49.030 Y-82.560 F420.000
G1 X-49.425 Y-82.436 F420.000
G1 X-49.932 Y-82.368 F420.000
G1 X-50.327 Y-82.395 F420.000
G1 X-50.880 Y-82.556 F420.000
G1 X-51.338 Y-82.789 F420.000
G1 X-51.699 Y-83.071 F420.000
G1 X-52.034 Y-83.462 F420.000
G1 X-52.233 Y-83.812 F420.000
G1 X-52.361 Y-84.132 F420.000
G1 X-52.462 Y-84.639 F420.000
G1 X-52.474 Y-85.120 F420.000
G1 X-52.425 Y-85.489 F420.000
G1 X-52.346 Y-85.774 F420.000
G1 X-52.259 Y-85.985 F420.000
G1 X-52.150 Y-86.199 F420.000
G1 X-51.992 Y-86.447 F420.000
G1 X-51.801 Y-86.692 F420.000
G1 X-51.586 Y-86.914 F420.000
G1 X-51.353 Y-87.090 F420.000
G1 X-50.692 Y-87.421 F420.000
G1 X-50.090 Y-87.530 F420.000
G1 X-49.669 Y-87.553 F420.000
G1 X-49.248 Y-87.504 F420.000
G1 X-48.774 Y-87.353 F420.000
G1 X-48.440 Y-87.184 F420.000
G1 X-48.086 Y-86.929 F420.000
G1 X-47.737 Y-86.568 F420.000
G1 X-47.455 Y-86.154 F420.000
G1 X-47.248 Y-85.695 F420.000
G1 X-47.113 Y-85.154 F420.000
G1 X-47.083 Y-84.673 F420.000
G1 X-47.113 Y-84.312 F420.000
G1 X-47.218 Y-83.951 F420.000
G1 X-47.462 Y-83.455 F420.000
G1 X-47.665 Y-83.158 F420.000
G1 X-47.906 Y-82.887 F420.000
G1 X-48.132 Y-82.688 F420.000
G1 X-48.474 Y-82.444 F420.000
G1 X-48.951 Y-82.214 F420.000
G1 X-49.402 Y-82.083 F420.000
G1 X-49.741 Y-82.030 F420.000
G1 X-50.192 Y-82.030 F420.000
G1 X-50.699 Y-82.113 F420.000
G1 X-51.244 Y-82.305 F420.000
G1 X-51.556 Y-82.466 F420.000
G1 X-52.019 Y-82.823 F420.000
G1 X-52.357 Y-83.207 F420.000
G1 X-52.643 Y-83.711 F420.000
G1 X-52.793 Y-84.150 F420.000
G1 X-52.853 Y-84.489 F420.000
G1 X-52.861 Y-85.165 F420.000
G1 X-52.763 Y-85.673 F420.000
G1 X-52.489 Y-86.327 F420.000
G1 X-52.188 Y-86.774 F420.000
G1 X-51.853 Y-87.120 F420.000
G1 X-51.417 Y-87.444 F420.000
G1 X-51.098 Y-87.613 F420.000
G1 X-50.695 Y-87.759 F420.000
G1 X-49.914 Y-87.906 F420.000
G1 X-49.613 Y-87.906 F420.000
G1 X-49.011 Y-87.789 F420.000
G1 X-48.891 Y-87.752 F420.000
G1 X-48.436 Y-87.530 F420.000
G1 X-48.075 Y-87.263 F420.000
G1 X-47.647 Y-86.812 F420.000
G1 X-47.466 Y-86.549 F420.000
G1 X-47.259 Y-86.158 F420.000
G1 X-47.079 Y-85.560 F420.000
G1 X-47.034 Y-85.199 F420.000
G1 X-47.034 Y-85.199 F420.000
G1 X-47.053 Y-85.071 F420.000
G1 X-47.098 Y-84.992 F420.000
G0 X-47.120 Y-84.974
G0 X-47.229 Y-84.929
G0 X-52.350 Y-83.684
G1 X-52.395 Y-83.673 F420.000
G1 X-52.523 Y-83.650 F420.000
G1 X-52.605 Y-83.680 F420.000
G1 X-52.695 Y-83.771 F420.000
G1 X-52.729 Y-83.827 F420.000
G1 X-52.729 Y-83.827 F420.000
G1 X-52.797 Y-83.985 F420.000
G1 X-52.921 Y-84.436 F420.000
G1 X-52.966 Y-84.831 F420.000
G1 X-52.962 Y-85.226 F420.000
G1 X-52.891 Y-85.677 F420.000
G1 X-52.722 Y-86.184 F420.000
G1 X-52.526 Y-86.553 F420.000
G1 X-52.323 Y-86.846 F420.000
G1 X-52.083 Y-87.117 F420.000
G1 X-51.857 Y-87.316 F420.000
G1 X-51.564 Y-87.526 F420.000
G1 X-51.083 Y-87.767 F420.000
G1 X-50.680 Y-87.895 F420.000
G1 X-50.199 Y-87.966 F420.000
G1 X-49.838 Y-87.966 F420.000
G1 X-49.477 Y-87.921 F420.000
G0 Z15.000
(Helix to depth: -6.000000)
G0 Z15.000
G0 X-109.267 Y-85.838 Z15.000
G0 X-109.267 Y-85.838 Z3.000
G1 X-109.267 Y-85.838 Z-3.000 F420.000
G1 X-109.267 Y-85.838 Z-3.000 F420.000
G1 X-109.116 Y-85.680 Z-3.019 F420.000
G1 X-109.000 Y-85.495 Z-3.039 F420.000
G1 X-108.922 Y-85.291 Z-3.058 F420.000
G1 X-108.885 Y-85.076 Z-3.077 F420.000
G1 X-108.891 Y-84.857 Z-3.097 F420.000
G1 X-108.939 Y-84.644 Z-3.116 F420.000
G1 X-109.028 Y-84.445 Z-3.135 F420.000
G1 X-109.154 Y-84.267 Z-3.154 F420.000
G1 X-109.313 Y-84.116 Z-3.174 F420.000
G1 X-109.498 Y-84.000 Z-3.193 F420.000
G1 X-109.701 Y-83.922 Z-3.212 F420.000
G1 X-109.917 Y-83.885 Z-3.232 F420.000
G1 X-110.135 Y-83.891 Z-3.251 F420.000
G1 X-110.348 Y-83.939 Z-3.270 F420.000
G1 X-110.547 Y-84.028 Z-3.290 F420.000
G1 X-110.726 Y-84.154 Z-3.309 F420.000
G1 X-110.876 Y-84.313 Z-3.328 F420.000
G1 X-110.992 Y-84.498 Z-3.348 F420.000
G1 X-111.071 Y-84.701 Z-3.367 F420.000
G1 X-111.107 Y-84.917 Z-3.386 F420.000
G1 X-111.102 Y-85.135 Z-3.405 F420.000
G1 X-111.053 Y-85.348 Z-3.425 F420.000
G1 X-110.964 Y-85.547 Z-3.444 F420.000
G1 X-110.838 Y-85.726 Z-3.463 F420.000
G1 X-110.680 Y-85.876 Z-3.483 F420.000
G1 X-110.495 Y-85.992 Z-3.502 F420.000
G1 X-110.291 Y-86.071 Z-3.521 F420.000
G1 X-110.076 Y-86.107 Z-3.541 F420.000
G1 X-109.857 Y-86.102 Z-3.560 F420.000
G1 X-109.644 Y-86.053 Z-3.579 F420.000
G1 X-109.445 Y-85.964 Z-3.599 F420.000
G1 X-109.267 Y-85.838 Z-3.618 F420.000
G1 X-109.116 Y-85.680 Z-3.637 F420.000
G1 X-109.000 Y-85.495 Z-3.657 F420.000
G1 X-108.922 Y-85.291 Z-3.676 F420.000
G1 X-108.885 Y-85.076 Z-3.695 F420.000
G1 X-108.891 Y-84.857 Z-3.714 F420.000
G1 X-108.939 Y-84.644 Z-3.734 F420.000
G1 X-109.028 Y-84.445 Z-3.753 F420.000
G1 X-109.154 Y-84.267 Z-3.772 F420.000
G1 X-109.313 Y-84.116 Z-3.792 F420.000
G1 X-109.498 Y-84.000 Z-3.811 F420.000
G1 X-109.701 Y-83.922 Z-3.830 F420.000
G1 X-109.917 Y-83.885 Z-3.850 F420.000
G1 X-110.135 Y-83.891 Z-3.869 F420.000
G1 X-110.348 Y-83.939 Z-3.888 F420.000
G1 X-110.547 Y-84.028 Z-3.908 F420.000
G1 X-110.726 Y-84.154 Z-3.927 F420.000
G1 X-110.876 Y-84.313 Z-3.946 F420.000
G1 X-110.992 Y-84.498 Z-3.965 F420.000
G1 X-111.071 Y-84.701 Z-3.985 F420.000
G1 X-111.107 Y-84.917 Z-4.004 F420.000
G1 X-111.102 Y-85.135 Z-4.023 F420.000
G1 X-111.053 Y-85.348 Z-4.043 F420.000
G1 X-110.964 Y-85.547 Z-4.062 F420.000
G1 X-110.838 Y-85.726 Z-4.081 F420.000
G1 X-110.680 Y-85.876 Z-4.101 F420.000
G1 X-110.495 Y-85.992 Z-4.120 F420.000
G1 X-110.291 Y-86.071 Z-4.139 F420.000
G1 X-110.076 Y-86.107 Z-4.159 F420.000
G1 X-109.857 Y-86.102 Z-4.178 F420.000
G1 X-109.644 Y-86.053 Z-4.197 F420.000
G1 X-109.445 Y-85.964 Z-4.216 F420.000
G1 X-109.267 Y-85.838 Z-4.236 F420.000
G1 X-109.116 Y-85.680 Z-4.255 F420.000
G1 X-109.000 Y-85.495 Z-4.274 F420.000
G1 X-108.922 Y-85.291 Z-4.294 F420.000
G1 X-108.885 Y-85.076 Z-4.313 F420.000
G1 X-108.891 Y-84.857 Z-4.332 F420.000
G1 X-108.939 Y-84.644 Z-4.352 F420.000
G1 X-109.028 Y-84.445 Z-4.371 F420.000
G1 X-109.154 Y-84.267 Z-4.390 F420.000
G1 X-109.313 Y-84.116 Z-4.410 F420.000
G1 X-109.498 Y-84.000 Z-4.429 F420.000
G1 X-109.701 Y-83.922 Z-4.448 F420.000
G1 X-109.917 Y-83.885 Z-4.468 F420.000
G1 X-110.135 Y-83.891 Z-4.487 F420.000
G1 X-110.348 Y-83.939 Z-4.506 F420.000
G1 X-110.547 Y-84.028 Z-4.525 F420.000
G1 X-110.726 Y-84.154 Z-4.545 F420.000
G1 X-110.876 Y-84.313 Z-4.564 F420.000
G1 X-110.992 Y-84.498 Z-4.583 F420.000
G1 X-111.071 Y-84.701 Z-4.603 F420.000
G1 X-111.107 Y-84.917 Z-4.622 F420.000
G1 X-111.102 Y-85.135 Z-4.641 F420.000
G1 X-111.053 Y-85.348 Z-4.661 F420.000
G1 X-110.964 Y-85.547 Z-4.680 F420.000
G1 X-110.838 Y-85.726 Z-4.699 F420.000
G1 X-110.680 Y-85.876 Z-4.719 F420.000
G1 X-110.495 Y-85.992 Z-4.738 F420.000
G1 X-110.291 Y-86.071 Z-4.757 F420.000
G1 X-110.076 Y-86.107 Z-4.776 F420.000
G1 X-109.857 Y-86.102 Z-4.796 F420.000
G1 X-109.644 Y-86.053 Z-4.815 F420.000
G1 X-109.445 Y-85.964 Z-4.834 F420.000
G1 X-109.267 Y-85.838 Z-4.854 F420.000
G1 X-109.116 Y-85.680 Z-4.873 F420.000
G1 X-109.000 Y-85.495 Z-4.892 F420.000
G1 X-108.922 Y-85.291 Z-4.912 F420.000
G1 X-108.885 Y-85.076 Z-4.931 F420.000
G1 X-108.891 Y-84.857 Z-4.950 F420.000
G1 X-108.939 Y-84.644 Z-4.970 F420.000
G1 X-109.028 Y-84.445 Z-4.989 F420.000
G1 X-109.154 Y-84.267 Z-5.008 F420.000
G1 X-109.313 Y-84.116 Z-5.027 F420.000
G1 X-109.498 Y-84.000 Z-5.047 F420.000
G1 X-109.701 Y-83.922 Z-5.066 F420.000
G1 X-109.917 Y-83.885 Z-5.085 F420.000
G1 X-110.135 Y-83.891 Z-5.105 F420.000
G1 X-110.348 Y-83.939 Z-5.124 F420.000
G1 X-110.547 Y-84.028 Z-5.143 F420.000
G1 X-110.726 Y-84.154 Z-5.163 F420.000
G1 X-110.876 Y-84.313 Z-5.182 F420.000
G1 X-110.992 Y-84.498 Z-5.201 F420.000
G1 X-111.071 Y-84.701 Z-5.221 F420.000
G1 X-111.107 Y-84.917 Z-5.240 F420.000
G1 X-111.102 Y-85.135 Z-5.259 F420.000
G1 X-111.053 Y-85.348 Z-5.279 F420.000
G1 X-110.964 Y-85.547 Z-5.298 F420.000
G1 X-110.838 Y-85.726 Z-5.317 F420.000
G1 X-110.680 Y-85.876 Z-5.336 F420.000
G1 X-110.495 Y-85.992 Z-5.356 F420.000
G1 X-110.291 Y-86.071 Z-5.375 F420.000
G1 X-110.076 Y-86.107 Z-5.394 F420.000
G1 X-109.857 Y-86.102 Z-5.414 F420.000
G1 X-109.644 Y-86.053 Z-5.433 F420.000
G1 X-109.445 Y-85.964 Z-5.452 F420.000
G1 X-109.267 Y-85.838 Z-5.472 F420.000
G1 X-109.116 Y-85.680 Z-5.491 F420.000
G1 X-109.000 Y-85.495 Z-5.510 F420.000
G1 X-108.922 Y-85.291 Z-5.530 F420.000
G1 X-108.885 Y-85.076 Z-5.549 F420.000
G1 X-108.891 Y-84.857 Z-5.568 F420.000
G1 X-108.939 Y-84.644 Z-5.587 F420.000
G1 X-109.028 Y-84.445 Z-5.607 F420.000
G1 X-109.154 Y-84.267 Z-5.626 F420.000
G1 X-109.313 Y-84.116 Z-5.645 F420.000
G1 X-109.498 Y-84.000 Z-5.665 F420.000
G1 X-109.701 Y-83.922 Z-5.684 F420.000
G1 X-109.917 Y-83.885 Z-5.703 F420.000
G1 X-110.135 Y-83.891 Z-5.723 F420.000
G1 X-110.348 Y-83.939 Z-5.742 F420.000
G1 X-110.547 Y-84.028 Z-5.761 F420.000
G1 X-110.726 Y-84.154 Z-5.781 F420.000
G1 X-110.876 Y-84.313 Z-5.800 F420.000
G1 X-110.992 Y-84.498 Z-5.819 F420.000
G1 X-111.071 Y-84.701 Z-5.838 F420.000
G1 X-111.107 Y-84.917 Z-5.858 F420.000
G1 X-111.102 Y-85.135 Z-5.877 F420.000
G1 X-111.053 Y-85.348 Z-5.896 F420.000
G1 X-110.964 Y-85.547 Z-5.916 F420.000
G1 X-110.838 Y-85.726 Z-5.935 F420.000
G1 X-110.680 Y-85.876 Z-5.954 F420.000
G1 X-110.495 Y-85.992 Z-5.974 F420.000
G1 X-110.291 Y-86.071 Z-5.993 F420.000
G1 X-110.076 Y-86.107 Z-6.000 F420.000
G1 X-109.857 Y-86.102 Z-6.000 F420.000
G1 X-109.644 Y-86.053 Z-6.000 F420.000
G1 X-109.445 Y-85.964 Z-6.000 F420.000
G1 X-109.267 Y-85.838 Z-6.000 F420.000
G1 X-109.116 Y-85.680 Z-6.000 F420.000
G1 X-109.000 Y-85.495 Z-6.000 F420.000
G1 X-108.922 Y-85.291 Z-6.000 F420.000
G1 X-108.885 Y-85.076 Z-6.000 F420.000
G1 X-108.891 Y-84.857 Z-6.000 F420.000
G1 X-108.939 Y-84.644 Z-6.000 F420.000
G1 X-109.028 Y-84.445 Z-6.000 F420.000
G1 X-109.154 Y-84.267 Z-6.000 F420.000
G1 X-109.313 Y-84.116 Z-6.000 F420.000
G1 X-109.498 Y-84.000 Z-6.000 F420.000
G1 X-109.701 Y-83.922 Z-6.000 F420.000
G1 X-109.917 Y-83.885 Z-6.000 F420.000
G1 X-110.135 Y-83.891 Z-6.000 F420.000
G1 X-110.348 Y-83.939 Z-6.000 F420.000
G1 X-110.547 Y-84.028 Z-6.000 F420.000
G1 X-110.726 Y-84.154 Z-6.000 F420.000
G1 X-110.876 Y-84.313 Z-6.000 F420.000
G1 X-110.992 Y-84.498 Z-6.000 F420.000
G1 X-111.071 Y-84.701 Z-6.000 F420.000
G1 X-111.107 Y-84.917 Z-6.000 F420.000
G1 X-111.102 Y-85.135 Z-6.000 F420.000
G1 X-111.053 Y-85.348 Z-6.000 F420.000
G1 X-110.964 Y-85.547 Z-6.000 F420.000
G1 X-110.838 Y-85.726 Z-6.000 F420.000
G1 X-110.680 Y-85.876 Z-6.000 F420.000
G1 X-110.495 Y-85.992 Z-6.000 F420.000
G1 X-110.291 Y-86.071 Z-6.000 F420.000
(Adaptive - depth: -6.000000)
G1 X-109.996 Y-86.120 F420.000
G1 X-109.951 Y-86.162 F420.000
G1 X-109.774 Y-86.211 F420.000
G1 X-109.594 Y-86.211 F420.000
G1 X-109.474 Y-86.184 F420.000
G1 X-109.165 Y-86.060 F420.000
G1 X-108.970 Y-85.906 F420.000
G1 X-108.872 Y-85.797 F420.000
G1 X-108.789 Y-85.680 F420.000
G1 X-108.703 Y-85.519 F420.000
G1 X-108.624 Y-85.305 F420.000
G1 X-108.586 Y-85.079 F420.000
G1 X-108.583 Y-84.891 F420.000
G1 X-108.605 Y-84.707 F420.000
G1 X-108.654 Y-84.515 F420.000
G1 X-108.741 Y-84.320 F420.000
G1 X-108.846 Y-84.150 F420.000
G1 X-108.974 Y-83.992 F420.000
G1 X-109.139 Y-83.846 F420.000
G1 X-109.308 Y-83.729 F420.000
G1 X-109.500 Y-83.643 F420.000
G1 X-109.684 Y-83.586 F420.000
G1 X-109.883 Y-83.556 F420.000
G1 X-110.083 Y-83.556 F420.000
G1 X-110.278 Y-83.586 F420.000
G1 X-110.470 Y-83.639 F420.000
G1 X-110.673 Y-83.733 F420.000
G1 X-110.850 Y-83.846 F420.000
G1 X-111.008 Y-83.981 F420.000
G1 X-111.147 Y-84.139 F420.000
G1 X-111.259 Y-84.312 F420.000
G1 X-111.342 Y-84.508 F420.000
G1 X-111.391 Y-84.684 F420.000
G1 X-111.417 Y-84.883 F420.000
G1 X-111.414 Y-85.094 F420.000
G1 X-111.380 Y-85.308 F420.000
G1 X-111.320 Y-85.508 F420.000
G1 X-111.229 Y-85.699 F420.000
G1 X-111.105 Y-85.872 F420.000
G1 X-110.981 Y-86.004 F420.000
G1 X-110.823 Y-86.135 F420.000
G1 X-110.643 Y-86.252 F420.000
G1 X-110.429 Y-86.368 F420.000
G1 X-110.150 Y-86.470 F420.000
G1 X-109.669 Y-86.504 F420.000
G1 X-109.301 Y-86.440 F420.000
G1 X-109.030 Y-86.320 F420.000
G1 X-108.891 Y-86.229 F420.000
G1 X-108.771 Y-86.128 F420.000
G1 X-108.643 Y-85.992 F420.000
G1 X-108.504 Y-85.801 F420.000
G1 X-108.391 Y-85.583 F420.000
G1 X-108.312 Y-85.376 F420.000
G1 X-108.267 Y-85.147 F420.000
G1 X-108.252 Y-84.940 F420.000
G1 X-108.263 Y-84.722 F420.000
G1 X-108.308 Y-84.508 F420.000
G1 X-108.376 Y-84.305 F420.000
G1 X-108.481 Y-84.094 F420.000
G1 X-108.602 Y-83.906 F420.000
G1 X-108.759 Y-83.722 F420.000
G1 X-108.932 Y-83.564 F420.000
G1 X-109.128 Y-83.436 F420.000
G1 X-109.312 Y-83.346 F420.000
G1 X-109.519 Y-83.271 F420.000
G1 X-109.759 Y-83.222 F420.000
G1 X-109.981 Y-83.207 F420.000
G1 X-110.207 Y-83.218 F420.000
G1 X-110.432 Y-83.263 F420.000
G1 X-110.647 Y-83.335 F420.000
G1 X-110.853 Y-83.432 F420.000
G1 X-111.045 Y-83.560 F420.000
G1 X-111.218 Y-83.707 F420.000
G1 X-111.372 Y-83.880 F420.000
G1 X-111.504 Y-84.071 F420.000
G1 X-111.609 Y-84.278 F420.000
G1 X-111.688 Y-84.496 F420.000
G1 X-111.737 Y-84.722 F420.000
G1 X-111.756 Y-84.951 F420.000
G1 X-111.744 Y-85.180 F420.000
G1 X-111.703 Y-85.410 F420.000
G1 X-111.632 Y-85.632 F420.000
G1 X-111.526 Y-85.838 F420.000
G1 X-111.414 Y-86.004 F420.000
G1 X-111.274 Y-86.169 F420.000
G1 X-111.090 Y-86.346 F420.000
G1 X-110.872 Y-86.519 F420.000
G1 X-110.624 Y-86.654 F420.000
G1 X-110.417 Y-86.737 F420.000
G1 X-110.195 Y-86.797 F420.000
G1 X-109.955 Y-86.835 F420.000
G1 X-109.699 Y-86.842 F420.000
G1 X-109.459 Y-86.820 F420.000
G1 X-109.214 Y-86.767 F420.000
G1 X-108.981 Y-86.677 F420.000
G1 X-108.797 Y-86.571 F420.000
G1 X-108.635 Y-86.451 F420.000
G1 X-108.474 Y-86.301 F420.000
G1 X-108.301 Y-86.105 F420.000
G1 X-108.143 Y-85.868 F420.000
G1 X-108.038 Y-85.635 F420.000
G1 X-107.966 Y-85.440 F420.000
G1 X-107.917 Y-85.203 F420.000
G1 X-107.898 Y-84.974 F420.000
G1 X-107.902 Y-84.722 F420.000
G1 X-107.940 Y-84.459 F420.000
G1 X-108.011 Y-84.218 F420.000
G1 X-108.098 Y-84.011 F420.000
G1 X-108.214 Y-83.797 F420.000
G1 X-108.376 Y-83.583 F420.000
G1 X-108.541 Y-83.402 F420.000
G1 X-108.733 Y-83.241 F420.000
G1 X-108.944 Y-83.102 F420.000
G1 X-109.165 Y-82.992 F420.000
G1 X-109.402 Y-82.910 F420.000
G1 X-109.647 Y-82.853 F420.000
G1 X-109.895 Y-82.827 F420.000
G1 X-110.143 Y-82.831 F420.000
G1 X-110.391 Y-82.865 F420.000
G1 X-110.632 Y-82.929 F420.000
G1 X-110.865 Y-83.019 F420.000
G1 X-111.083 Y-83.139 F420.000
G1 X-111.286 Y-83.282 F420.000
G1 X-111.474 Y-83.444 F420.000
G1 X-111.662 Y-83.650 F420.000
G1 X-111.812 Y-83.861 F420.000
G1 X-111.929 Y-84.094 F420.000
G1 X-112.008 Y-84.301 F420.000
G1 X-112.071 Y-84.538 F420.000
G1 X-112.113 Y-84.816 F420.000
G1 X-112.113 Y-85.086 F420.000
G1 X-112.090 Y-85.312 F420.000
G1 X-112.034 Y-85.564 F420.000
G1 X-111.947 Y-85.801 F420.000
G1 X-111.838 Y-86.019 F420.000
G1 X-111.699 Y-86.229 F420.000
G1 X-111.538 Y-86.421 F420.000
G1 X-111.361 Y-86.594 F420.000
G1 X-111.139 Y-86.774 F420.000
G1 X-110.883 Y-86.936 F420.000
G1 X-110.628 Y-87.049 F420.000
G1 X-110.406 Y-87.124 F420.000
G1 X-110.143 Y-87.180 F420.000
G1 X-109.883 Y-87.203 F420.000
G1 X-109.632 Y-87.199 F420.000
G1 X-109.372 Y-87.169 F420.000
G1 X-109.079 Y-87.098 F420.000
G1 X-108.827 Y-86.992 F420.000
G1 X-108.632 Y-86.883 F420.000
G1 X-108.440 Y-86.752 F420.000
G1 X-108.233 Y-86.579 F420.000
G1 X-108.038 Y-86.365 F420.000
G1 X-107.880 Y-86.154 F420.000
G1 X-107.741 Y-85.917 F420.000
G1 X-107.643 Y-85.662 F420.000
G1 X-107.583 Y-85.455 F420.000
G1 X-107.534 Y-85.211 F420.000
G1 X-107.511 Y-84.914 F420.000
G1 X-107.538 Y-84.432 F420.000
G1 X-107.665 Y-83.959 F420.000
G1 X-107.850 Y-83.575 F420.000
G1 X-108.102 Y-83.233 F420.000
G1 X-108.312 Y-83.015 F420.000
G1 X-108.692 Y-82.729 F420.000
G1 X-108.955 Y-82.590 F420.000
G1 X-109.402 Y-82.440 F420.000
G1 X-109.910 Y-82.365 F420.000
G1 X-110.305 Y-82.395 F420.000
G1 X-110.914 Y-82.571 F420.000
G1 X-111.124 Y-82.669 F420.000
G1 X-111.553 Y-82.951 F420.000
G1 X-111.842 Y-83.229 F420.000
G1 X-112.173 Y-83.703 F420.000
G1 X-112.338 Y-84.068 F420.000
G1 X-112.462 Y-84.632 F420.000
G1 X-112.477 Y-85.113 F420.000
G1 X-112.436 Y-85.481 F420.000
G1 X-112.350 Y-85.789 F420.000
G1 X-112.211 Y-86.117 F420.000
G1 X-112.049 Y-86.380 F420.000
G1 X-111.914 Y-86.571 F420.000
G1 X-111.714 Y-86.789 F420.000
G1 X-111.508 Y-86.977 F420.000
G1 X-111.098 Y-87.248 F420.000
G1 X-110.635 Y-87.414 F420.000
G1 X-109.914 Y-87.541 F420.000
G1 X-109.492 Y-87.541 F420.000
G1 X-109.071 Y-87.459 F420.000
G1 X-108.609 Y-87.278 F420.000
G1 X-108.233 Y-87.045 F420.000
G1 X-107.853 Y-86.714 F420.000
G1 X-107.617 Y-86.429 F420.000
G1 X-107.391 Y-86.053 F420.000
G1 X-107.267 Y-85.767 F420.000
G1 X-107.117 Y-85.165 F420.000
G1 X-107.083 Y-84.684 F420.000
G1 X-107.147 Y-84.203 F420.000
G1 X-107.211 Y-83.962 F420.000
G1 X-107.455 Y-83.466 F420.000
G1 X-107.695 Y-83.124 F420.000
G1 X-107.895 Y-82.898 F420.000
G1 X-108.169 Y-82.658 F420.000
G1 X-108.568 Y-82.391 F420.000
G1 X-108.944 Y-82.218 F420.000
G1 X-109.451 Y-82.075 F420.000
G1 X-109.789 Y-82.030 F420.000
G1 X-110.184 Y-82.030 F420.000
G1 X-110.635 Y-82.098 F420.000
G1 X-111.026 Y-82.214 F420.000
G1 X-111.492 Y-82.432 F420.000
G1 X-112.004 Y-82.808 F420.000
G1 X-112.342 Y-83.192 F420.000
G1 X-112.602 Y-83.647 F420.000
G1 X-112.711 Y-83.910 F420.000
G1 X-112.861 Y-84.643 F420.000
G1 X-112.857 Y-85.207 F420.000
G1 X-112.771 Y-85.658 F420.000
G1 X-112.583 Y-86.158 F420.000
G1 X-112.308 Y-86.617 F420.000
G1 X-111.951 Y-87.026 F420.000
G1 X-111.632 Y-87.301 F420.000
G1 X-111.271 Y-87.515 F420.000
G1 X-110.876 Y-87.684 F420.000
G1 X-110.094 Y-87.880 F420.000
G1 X-109.914 Y-87.902 F420.000
G1 X-109.553 Y-87.898 F420.000
G1 X-109.011 Y-87.789 F420.000
G1 X-108.718 Y-87.677 F420.000
G1 X-108.436 Y-87.530 F420.000
G1 X-108.079 Y-87.267 F420.000
G1 X-107.650 Y-86.816 F420.000
G1 X-107.440 Y-86.504 F420.000
G1 X-107.263 Y-86.165 F420.000
G1 X-107.079 Y-85.568 F420.000
G1 X-107.034 Y-85.207 F420.000
G1 X-107.034 Y-85.207 F420.000
G1 X-107.053 Y-85.079 F420.000
G1 X-107.098 Y-85.000 F420.000
G0 X-107.120 Y-84.977
G0 X-107.226 Y-84.932
G0 X-112.226 Y-83.496
G1 X-112.271 Y-83.481 F420.000
G1 X-112.398 Y-83.455 F420.000
G1 X-112.485 Y-83.474 F420.000
G1 X-112.583 Y-83.556 F420.000
G1 X-112.624 Y-83.609 F420.000
G1 X-112.624 Y-83.609 F420.000
G1 X-112.793 Y-83.970 F420.000
G1 X-112.917 Y-84.421 F420.000
G1 X-112.966 Y-84.816 F420.000
G1 X-112.959 Y-85.267 F420.000
G1 X-112.895 Y-85.662 F420.000
G1 X-112.726 Y-86.169 F420.000
G1 X-112.538 Y-86.538 F420.000
G1 X-112.297 Y-86.876 F420.000
G1 X-112.098 Y-87.102 F420.000
G1 X-111.872 Y-87.305 F420.000
G1 X-111.530 Y-87.549 F420.000
G1 X-111.045 Y-87.782 F420.000
G1 X-110.639 Y-87.906 F420.000
G1 X-110.218 Y-87.966 F420.000
G1 X-109.917 Y-87.974 F420.000
G1 X-109.556 Y-87.936 F420.000
G0 Z15.000
(Helix to depth: -6.000000)
G0 Z15.000
G0 X-49.267 Y-145.838 Z15.000
G0 X-49.267 Y-145.838 Z3.000
G1 X-49.267 Y-145.838 Z-3.000 F420.000
G1 X-49.267 Y-145.838 Z-3.000 F420.000
G1 X-49.116 Y-145.680 Z-3.019 F420.000
G1 X-49.000 Y-145.495 Z-3.039 F420.000
G1 X-48.922 Y-145.291 Z-3.058 F420.000
G1 X-48.885 Y-145.076 Z-3.077 F420.000
G1 X-48.891 Y-144.857 Z-3.097 F420.000
G1 X-48.939 Y-144.644 Z-3.116 F420.000
G1 X-49.028 Y-144.445 Z-3.135 F420.000
G1 X-49.154 Y-144.267 Z-3.154 F420.000
G1 X-49.313 Y-144.116 Z-3.174 F420.000
G1 X-49.498 Y-144.000 Z-3.193 F420.000
G1 X-49.701 Y-143.922 Z-3.212 F420.000
G1 X-49.917 Y-143.885 Z-3.232 F420.000
G1 X-50.135 Y-143.891 Z-3.251 F420.000
G1 X-50.348 Y-143.939 Z-3.270 F420.000
G1 X-50.547 Y-144.028 Z-3.290 F420.000
G1 X-50.726 Y-144.154 Z-3.309 F420.000
G1 X-50.876 Y-144.313 Z-3.328 F420.000
G1 X-50.992 Y-144.498 Z-3.348 F420.000
G1 X-51.071 Y-144.701 Z-3.367 F420.000
G1 X-51.107 Y-144.917 Z-3.386 F420.000
G1 X-51.102 Y-145.135 Z-3.405 F420.000
G1 X-51.053 Y-145.348 Z-3.425 F420.000
G1 X-50.964 Y-145.547 Z-3.444 F420.000
G1 X-50.838 Y-145.726 Z-3.463 F420.000
G1 X-50.680 Y-145.876 Z-3.483 F420.000
G1 X-50.495 Y-145.992 Z-3.502 F420.000
G1 X-50.291 Y-146.071 Z-3.521 F420.000
G1 X-50.076 Y-146.107 Z-3.541 F420.000
G1 X-49.857 Y-146.102 Z-3.560 F420.000
G1 X-49.644 Y-146.053 Z-3.579 F420.000
G1 X-49.445 Y-145.964 Z-3.599 F420.000
G1 X-49.267 Y-145.838 Z-3.618 F420.000
G1 X-49.116 Y-145.680 Z-3.637 F420.000
G1 X-49.000 Y-145.495 Z-3.657 F420.000
G1 X-48.922 Y-145.291 Z-3.676 F420.000
G1 X-48.885 Y-145.076 Z-3.695 F420.000
G1 X-48.891 Y-144.857 Z-3.714 F420.000
G1 X-48.939 Y-144.644 Z-3.734 F420.000
G1 X-49.028 Y-144.445 Z-3.753 F420.000
G1 X-49.154 Y-144.267 Z-3.772 F420.000
G1 X-49.313 Y-144.116 Z-3.792 F420.000
G1 X-49.498 Y-144.000 Z-3.811 F420.000
G1 X-49.701 Y-143.922 Z-3.830 F420.000
G1 X-49.917 Y-143.885 Z-3.850 F420.000
G1 X-50.135 Y-143.891 Z-3.869 F420.000
G1 X-50.348 Y-143.939 Z-3.888 F420.000
G1 X-50.547 Y-144.028 Z-3.908 F420.000
G1 X-50.726 Y-144.154 Z-3.927 F420.000
G1 X-50.876 Y-144.313 Z-3.946 F420.000
G1 X-50.992 Y-144.498 Z-3.965 F420.000
G1 X-51.071 Y-144.701 Z-3.985 F420.000
G1 X-51.107 Y-144.917 Z-4.004 F420.000
G1 X-51.102 Y-145.135 Z-4.023 F420.000
G1 X-51.053 Y-145.348 Z-4.043 F420.000
G1 X-50.964 Y-145.547 Z-4.062 F420.000
G1 X-50.838 Y-145.726 Z-4.081 F420.000
G1 X-50.680 Y-145.876 Z-4.101 F420.000
G1 X-50.495 Y-145.992 Z-4.120 F420.000
G1 X-50.291 Y-146.071 Z-4.139 F420.000
G1 X-50.076 Y-146.107 Z-4.159 F420.000
G1 X-49.857 Y-146.102 Z-4.178 F420.000
G1 X-49.644 Y-146.053 Z-4.197 F420.000
G1 X-49.445 Y-145.964 Z-4.216 F420.000
G1 X-49.267 Y-145.838 Z-4.236 F420.000
G1 X-49.116 Y-145.680 Z-4.255 F420.000
G1 X-49.000 Y-145.495 Z-4.274 F420.000
G1 X-48.922 Y-145.291 Z-4.294 F420.000
G1 X-48.885 Y-145.076 Z-4.313 F420.000
G1 X-48.891 Y-144.857 Z-4.332 F420.000
G1 X-48.939 Y-144.644 Z-4.352 F420.000
G1 X-49.028 Y-144.445 Z-4.371 F420.000
G1 X-49.154 Y-144.267 Z-4.390 F420.000
G1 X-49.313 Y-144.116 Z-4.410 F420.000
G1 X-49.498 Y-144.000 Z-4.429 F420.000
G1 X-49.701 Y-143.922 Z-4.448 F420.000
G1 X-49.917 Y-143.885 Z-4.468 F420.000
G1 X-50.135 Y-143.891 Z-4.487 F420.000
G1 X-50.348 Y-143.939 Z-4.506 F420.000
G1 X-50.547 Y-144.028 Z-4.525 F420.000
G1 X-50.726 Y-144.154 Z-4.545 F420.000
G1 X-50.876 Y-144.313 Z-4.564 F420.000
G1 X-50.992 Y-144.498 Z-4.583 F420.000
G1 X-51.071 Y-144.701 Z-4.603 F420.000
G1 X-51.107 Y-144.917 Z-4.622 F420.000
G1 X-51.102 Y-145.135 Z-4.641 F420.000
G1 X-51.053 Y-145.348 Z-4.661 F420.000
G1 X-50.964 Y-145.547 Z-4.680 F420.000
G1 X-50.838 Y-145.726 Z-4.699 F420.000
G1 X-50.680 Y-145.876 Z-4.719 F420.000
G1 X-50.495 Y-145.992 Z-4.738 F420.000
G1 X-50.291 Y-146.071 Z-4.757 F420.000
G1 X-50.076 Y-146.107 Z-4.776 F420.000
G1 X-49.857 Y-146.102 Z-4.796 F420.000
G1 X-49.644 Y-146.053 Z-4.815 F420.000
G1 X-49.445 Y-145.964 Z-4.834 F420.000
G1 X-49.267 Y-145.838 Z-4.854 F420.000
G1 X-49.116 Y-145.680 Z-4.873 F420.000
G1 X-49.000 Y-145.495 Z-4.892 F420.000
G1 X-48.922 Y-145.291 Z-4.912 F420.000
G1 X-48.885 Y-145.076 Z-4.931 F420.000
G1 X-48.891 Y-144.857 Z-4.950 F420.000
G1 X-48.939 Y-144.644 Z-4.970 F420.000
G1 X-49.028 Y-144.445 Z-4.989 F420.000
G1 X-49.154 Y-144.267 Z-5.008 F420.000
G1 X-49.313 Y-144.116 Z-5.027 F420.000
G1 X-49.498 Y-144.000 Z-5.047 F420.000
G1 X-49.701 Y-143.922 Z-5.066 F420.000
G1 X-49.917 Y-143.885 Z-5.085 F420.000
G1 X-50.135 Y-143.891 Z-5.105 F420.000
G1 X-50.348 Y-143.939 Z-5.124 F420.000
G1 X-50.547 Y-144.028 Z-5.143 F420.000
G1 X-50.726 Y-144.154 Z-5.163 F420.000
G1 X-50.876 Y-144.313 Z-5.182 F420.000
G1 X-50.992 Y-144.498 Z-5.201 F420.000
G1 X-51.071 Y-144.701 Z-5.221 F420.000
G1 X-51.107 Y-144.917 Z-5.240 F420.000
G1 X-51.102 Y-145.135 Z-5.259 F420.000
G1 X-51.053 Y-145.348 Z-5.279 F420.000
G1 X-50.964 Y-145.547 Z-5.298 F420.000
G1 X-50.838 Y-145.726 Z-5.317 F420.000
G1 X-50.680 Y-145.876 Z-5.336 F420.000
G1 X-50.495 Y-145.992 Z-5.356 F420.000
G1 X-50.291 Y-146.071 Z-5.375 F420.000
G1 X-50.076 Y-146.107 Z-5.394 F420.000
G1 X-49.857 Y-146.102 Z-5.414 F420.000
G1 X-49.644 Y-146.053 Z-5.433 F420.000
G1 X-49.445 Y-145.964 Z-5.452 F420.000
G1 X-49.267 Y-145.838 Z-5.472 F420.000
G1 X-49.116 Y-145.680 Z-5.491 F420.000
G1 X-49.000 Y-145.495 Z-5.510 F420.000
G1 X-48.922 Y-145.291 Z-5.530 F420.000
G1 X-48.885 Y-145.076 Z-5.549 F420.000
G1 X-48.891 Y-144.857 Z-5.568 F420.000
G1 X-48.939 Y-144.644 Z-5.587 F420.000
G1 X-49.028 Y-144.445 Z-5.607 F420.000
G1 X-49.154 Y-144.267 Z-5.626 F420.000
G1 X-49.313 Y-144.116 Z-5.645 F420.000
G1 X-49.498 Y-144.000 Z-5.665 F420.000
G1 X-49.701 Y-143.922 Z-5.684 F420.000
G1 X-49.917 Y-143.885 Z-5.703 F420.000
G1 X-50.135 Y-143.891 Z-5.723 F420.000
G1 X-50.348 Y-143.939 Z-5.742 F420.000
G1 X-50.547 Y-144.028 Z-5.761 F420.000
G1 X-50.726 Y-144.154 Z-5.781 F420.000
G1 X-50.876 Y-144.313 Z-5.800 F420.000
G1 X-50.992 Y-144.498 Z-5.819 F420.000
G1 X-51.071 Y-144.701 Z-5.838 F420.000
