(Exported by FreeCAD)
(Post Processor: grbl_post)
(Output Time:2023-11-04 15:13:37.907849)
(Begin preamble)
G17 G90
G21
(Block-name: Fixture)
(Block-expand: 0)
(Block-enable: 1)
(Begin operation: Fixture)
(Path: Fixture)
G54
(Finish operation: Fixture)
(Block-name: 6mm Endmill001)
(Block-expand: 0)
(Block-enable: 1)
(Begin operation: 6mm Endmill001)
(Path: 6mm Endmill001)
(6mm Endmill001)
(Begin toolchange)
( M6 T2 )
(Finish operation: 6mm Endmill001)
(Block-name: Adaptive)
(Block-expand: 0)
(Block-enable: 1)
(Begin operation: Adaptive)
(Path: Adaptive)
(Adaptive)
(Helix to depth: -6.000000)
G0 Z5.000
G0 X-0.668 Y24.062 Z5.000
G0 X-0.668 Y24.062 Z3.000
G1 X-0.668 Y24.062 Z0.000 F200.000
G1 X-0.668 Y24.062 Z0.000 F200.000
G1 X-0.492 Y24.144 Z-0.017 F200.000
G1 X-0.335 Y24.259 Z-0.034 F200.000
G1 X-0.204 Y24.402 Z-0.052 F200.000
G1 X-0.104 Y24.568 Z-0.069 F200.000
G1 X-0.037 Y24.751 Z-0.086 F200.000
G1 X-0.008 Y24.942 Z-0.103 F200.000
G1 X-0.016 Y25.136 Z-0.120 F200.000
G1 X-0.062 Y25.325 Z-0.137 F200.000
G1 X-0.144 Y25.501 Z-0.155 F200.000
G1 X-0.259 Y25.657 Z-0.172 F200.000
G1 X-0.402 Y25.788 Z-0.189 F200.000
G1 X-0.568 Y25.889 Z-0.206 F200.000
G1 X-0.751 Y25.955 Z-0.223 F200.000
G1 X-0.942 Y25.985 Z-0.240 F200.000
G1 X-1.136 Y25.976 Z-0.258 F200.000
G1 X-1.325 Y25.930 Z-0.275 F200.000
G1 X-1.501 Y25.848 Z-0.292 F200.000
G1 X-1.657 Y25.733 Z-0.309 F200.000
G1 X-1.788 Y25.590 Z-0.326 F200.000
G1 X-1.889 Y25.424 Z-0.344 F200.000
G1 X-1.955 Y25.242 Z-0.361 F200.000
G1 X-1.985 Y25.050 Z-0.378 F200.000
G1 X-1.976 Y24.856 Z-0.395 F200.000
G1 X-1.930 Y24.668 Z-0.412 F200.000
G1 X-1.848 Y24.492 Z-0.429 F200.000
G1 X-1.733 Y24.335 Z-0.447 F200.000
G1 X-1.590 Y24.204 Z-0.464 F200.000
G1 X-1.424 Y24.104 Z-0.481 F200.000
G1 X-1.242 Y24.037 Z-0.498 F200.000
G1 X-1.050 Y24.008 Z-0.515 F200.000
G1 X-0.856 Y24.016 Z-0.533 F200.000
G1 X-0.668 Y24.062 Z-0.550 F200.000
G1 X-0.492 Y24.144 Z-0.567 F200.000
G1 X-0.335 Y24.259 Z-0.584 F200.000
G1 X-0.204 Y24.402 Z-0.601 F200.000
G1 X-0.104 Y24.568 Z-0.618 F200.000
G1 X-0.037 Y24.751 Z-0.636 F200.000
G1 X-0.008 Y24.942 Z-0.653 F200.000
G1 X-0.016 Y25.136 Z-0.670 F200.000
G1 X-0.062 Y25.325 Z-0.687 F200.000
G1 X-0.144 Y25.501 Z-0.704 F200.000
G1 X-0.259 Y25.657 Z-0.721 F200.000
G1 X-0.402 Y25.788 Z-0.739 F200.000
G1 X-0.568 Y25.889 Z-0.756 F200.000
G1 X-0.751 Y25.955 Z-0.773 F200.000
G1 X-0.942 Y25.985 Z-0.790 F200.000
G1 X-1.136 Y25.976 Z-0.807 F200.000
G1 X-1.325 Y25.930 Z-0.825 F200.000
G1 X-1.501 Y25.848 Z-0.842 F200.000
G1 X-1.657 Y25.733 Z-0.859 F200.000
G1 X-1.788 Y25.590 Z-0.876 F200.000
G1 X-1.889 Y25.424 Z-0.893 F200.000
G1 X-1.955 Y25.242 Z-0.910 F200.000
G1 X-1.985 Y25.050 Z-0.928 F200.000
G1 X-1.976 Y24.856 Z-0.945 F200.000
G1 X-1.930 Y24.668 Z-0.962 F200.000
G1 X-1.848 Y24.492 Z-0.979 F200.000
G1 X-1.733 Y24.335 Z-0.996 F200.000
G1 X-1.590 Y24.204 Z-1.014 F200.000
G1 X-1.424 Y24.104 Z-1.031 F200.000
G1 X-1.242 Y24.037 Z-1.048 F200.000
G1 X-1.050 Y24.008 Z-1.065 F200.000
G1 X-0.856 Y24.016 Z-1.082 F200.000
G1 X-0.668 Y24.062 Z-1.099 F200.000
G1 X-0.492 Y24.144 Z-1.117 F200.000
G1 X-0.335 Y24.259 Z-1.134 F200.000
G1 X-0.204 Y24.402 Z-1.151 F200.000
G1 X-0.104 Y24.568 Z-1.168 F200.000
G1 X-0.037 Y24.751 Z-1.185 F200.000
G1 X-0.008 Y24.942 Z-1.202 F200.000
G1 X-0.016 Y25.136 Z-1.220 F200.000
G1 X-0.062 Y25.325 Z-1.237 F200.000
G1 X-0.144 Y25.501 Z-1.254 F200.000
G1 X-0.259 Y25.657 Z-1.271 F200.000
G1 X-0.402 Y25.788 Z-1.288 F200.000
G1 X-0.568 Y25.889 Z-1.306 F200.000
G1 X-0.751 Y25.955 Z-1.323 F200.000
G1 X-0.942 Y25.985 Z-1.340 F200.000
G1 X-1.136 Y25.976 Z-1.357 F200.000
G1 X-1.325 Y25.930 Z-1.374 F200.000
G1 X-1.501 Y25.848 Z-1.391 F200.000
G1 X-1.657 Y25.733 Z-1.409 F200.000
G1 X-1.788 Y25.590 Z-1.426 F200.000
G1 X-1.889 Y25.424 Z-1.443 F200.000
G1 X-1.955 Y25.242 Z-1.460 F200.000
G1 X-1.985 Y25.050 Z-1.477 F200.000
G1 X-1.976 Y24.856 Z-1.495 F200.000
G1 X-1.930 Y24.668 Z-1.512 F200.000
G1 X-1.848 Y24.492 Z-1.529 F200.000
G1 X-1.733 Y24.335 Z-1.546 F200.000
G1 X-1.590 Y24.204 Z-1.563 F200.000
G1 X-1.424 Y24.104 Z-1.580 F200.000
G1 X-1.242 Y24.037 Z-1.598 F200.000
G1 X-1.050 Y24.008 Z-1.615 F200.000
G1 X-0.856 Y24.016 Z-1.632 F200.000
G1 X-0.668 Y24.062 Z-1.649 F200.000
G1 X-0.492 Y24.144 Z-1.666 F200.000
G1 X-0.335 Y24.259 Z-1.683 F200.000
G1 X-0.204 Y24.402 Z-1.701 F200.000
G1 X-0.104 Y24.568 Z-1.718 F200.000
G1 X-0.037 Y24.751 Z-1.735 F200.000
G1 X-0.008 Y24.942 Z-1.752 F200.000
G1 X-0.016 Y25.136 Z-1.769 F200.000
G1 X-0.062 Y25.325 Z-1.787 F200.000
G1 X-0.144 Y25.501 Z-1.804 F200.000
G1 X-0.259 Y25.657 Z-1.821 F200.000
G1 X-0.402 Y25.788 Z-1.838 F200.000
G1 X-0.568 Y25.889 Z-1.855 F200.000
G1 X-0.751 Y25.955 Z-1.872 F200.000
G1 X-0.942 Y25.985 Z-1.890 F200.000
G1 X-1.136 Y25.976 Z-1.907 F200.000
G1 X-1.325 Y25.930 Z-1.924 F200.000
G1 X-1.501 Y25.848 Z-1.941 F200.000
G1 X-1.657 Y25.733 Z-1.958 F200.000
G1 X-1.788 Y25.590 Z-1.976 F200.000
G1 X-1.889 Y25.424 Z-1.993 F200.000
G1 X-1.955 Y25.242 Z-2.010 F200.000
G1 X-1.985 Y25.050 Z-2.027 F200.000
G1 X-1.976 Y24.856 Z-2.044 F200.000
G1 X-1.930 Y24.668 Z-2.061 F200.000
G1 X-1.848 Y24.492 Z-2.079 F200.000
G1 X-1.733 Y24.335 Z-2.096 F200.000
G1 X-1.590 Y24.204 Z-2.113 F200.000
G1 X-1.424 Y24.104 Z-2.130 F200.000
G1 X-1.242 Y24.037 Z-2.147 F200.000
G1 X-1.050 Y24.008 Z-2.164 F200.000
G1 X-0.856 Y24.016 Z-2.182 F200.000
G1 X-0.668 Y24.062 Z-2.199 F200.000
G1 X-0.492 Y24.144 Z-2.216 F200.000
G1 X-0.335 Y24.259 Z-2.233 F200.000
G1 X-0.204 Y24.402 Z-2.250 F200.000
G1 X-0.104 Y24.568 Z-2.268 F200.000
G1 X-0.037 Y24.751 Z-2.285 F200.000
G1 X-0.008 Y24.942 Z-2.302 F200.000
G1 X-0.016 Y25.136 Z-2.319 F200.000
G1 X-0.062 Y25.325 Z-2.336 F200.000
G1 X-0.144 Y25.501 Z-2.353 F200.000
G1 X-0.259 Y25.657 Z-2.371 F200.000
G1 X-0.402 Y25.788 Z-2.388 F200.000
G1 X-0.568 Y25.889 Z-2.405 F200.000
G1 X-0.751 Y25.955 Z-2.422 F200.000
G1 X-0.942 Y25.985 Z-2.439 F200.000
G1 X-1.136 Y25.976 Z-2.457 F200.000
G1 X-1.325 Y25.930 Z-2.474 F200.000
G1 X-1.501 Y25.848 Z-2.491 F200.000
G1 X-1.657 Y25.733 Z-2.508 F200.000
G1 X-1.788 Y25.590 Z-2.525 F200.000
G1 X-1.889 Y25.424 Z-2.542 F200.000
G1 X-1.955 Y25.242 Z-2.560 F200.000
G1 X-1.985 Y25.050 Z-2.577 F200.000
G1 X-1.976 Y24.856 Z-2.594 F200.000
G1 X-1.930 Y24.668 Z-2.611 F200.000
G1 X-1.848 Y24.492 Z-2.628 F200.000
G1 X-1.733 Y24.335 Z-2.645 F200.000
G1 X-1.590 Y24.204 Z-2.663 F200.000
G1 X-1.424 Y24.104 Z-2.680 F200.000
G1 X-1.242 Y24.037 Z-2.697 F200.000
G1 X-1.050 Y24.008 Z-2.714 F200.000
G1 X-0.856 Y24.016 Z-2.731 F200.000
G1 X-0.668 Y24.062 Z-2.749 F200.000
G1 X-0.492 Y24.144 Z-2.766 F200.000
G1 X-0.335 Y24.259 Z-2.783 F200.000
G1 X-0.204 Y24.402 Z-2.800 F200.000
G1 X-0.104 Y24.568 Z-2.817 F200.000
G1 X-0.037 Y24.751 Z-2.834 F200.000
G1 X-0.008 Y24.942 Z-2.852 F200.000
G1 X-0.016 Y25.136 Z-2.869 F200.000
G1 X-0.062 Y25.325 Z-2.886 F200.000
G1 X-0.144 Y25.501 Z-2.903 F200.000
G1 X-0.259 Y25.657 Z-2.920 F200.000
G1 X-0.402 Y25.788 Z-2.937 F200.000
G1 X-0.568 Y25.889 Z-2.955 F200.000
G1 X-0.751 Y25.955 Z-2.972 F200.000
G1 X-0.942 Y25.985 Z-2.989 F200.000
G1 X-1.136 Y25.976 Z-3.006 F200.000
G1 X-1.325 Y25.930 Z-3.023 F200.000
G1 X-1.501 Y25.848 Z-3.041 F200.000
G1 X-1.657 Y25.733 Z-3.058 F200.000
G1 X-1.788 Y25.590 Z-3.075 F200.000
G1 X-1.889 Y25.424 Z-3.092 F200.000
G1 X-1.955 Y25.242 Z-3.109 F200.000
G1 X-1.985 Y25.050 Z-3.126 F200.000
G1 X-1.976 Y24.856 Z-3.144 F200.000
G1 X-1.930 Y24.668 Z-3.161 F200.000
G1 X-1.848 Y24.492 Z-3.178 F200.000
G1 X-1.733 Y24.335 Z-3.195 F200.000
G1 X-1.590 Y24.204 Z-3.212 F200.000
G1 X-1.424 Y24.104 Z-3.230 F200.000
G1 X-1.242 Y24.037 Z-3.247 F200.000
G1 X-1.050 Y24.008 Z-3.264 F200.000
G1 X-0.856 Y24.016 Z-3.281 F200.000
G1 X-0.668 Y24.062 Z-3.298 F200.000
G1 X-0.492 Y24.144 Z-3.315 F200.000
G1 X-0.335 Y24.259 Z-3.333 F200.000
G1 X-0.204 Y24.402 Z-3.350 F200.000
G1 X-0.104 Y24.568 Z-3.367 F200.000
G1 X-0.037 Y24.751 Z-3.384 F200.000
G1 X-0.008 Y24.942 Z-3.401 F200.000
G1 X-0.016 Y25.136 Z-3.418 F200.000
G1 X-0.062 Y25.325 Z-3.436 F200.000
G1 X-0.144 Y25.501 Z-3.453 F200.000
G1 X-0.259 Y25.657 Z-3.470 F200.000
G1 X-0.402 Y25.788 Z-3.487 F200.000
G1 X-0.568 Y25.889 Z-3.504 F200.000
G1 X-0.751 Y25.955 Z-3.522 F200.000
G1 X-0.942 Y25.985 Z-3.539 F200.000
G1 X-1.136 Y25.976 Z-3.556 F200.000
G1 X-1.325 Y25.930 Z-3.573 F200.000
G1 X-1.501 Y25.848 Z-3.590 F200.000
G1 X-1.657 Y25.733 Z-3.607 F200.000
G1 X-1.788 Y25.590 Z-3.625 F200.000
G1 X-1.889 Y25.424 Z-3.642 F200.000
G1 X-1.955 Y25.242 Z-3.659 F200.000
G1 X-1.985 Y25.050 Z-3.676 F200.000
G1 X-1.976 Y24.856 Z-3.693 F200.000
G1 X-1.930 Y24.668 Z-3.711 F200.000
G1 X-1.848 Y24.492 Z-3.728 F200.000
G1 X-1.733 Y24.335 Z-3.745 F200.000
G1 X-1.590 Y24.204 Z-3.762 F200.000
G1 X-1.424 Y24.104 Z-3.779 F200.000
G1 X-1.242 Y24.037 Z-3.796 F200.000
G1 X-1.050 Y24.008 Z-3.814 F200.000
G1 X-0.856 Y24.016 Z-3.831 F200.000
G1 X-0.668 Y24.062 Z-3.848 F200.000
G1 X-0.492 Y24.144 Z-3.865 F200.000
G1 X-0.335 Y24.259 Z-3.882 F200.000
G1 X-0.204 Y24.402 Z-3.899 F200.000
G1 X-0.104 Y24.568 Z-3.917 F200.000
G1 X-0.037 Y24.751 Z-3.934 F200.000
G1 X-0.008 Y24.942 Z-3.951 F200.000
G1 X-0.016 Y25.136 Z-3.968 F200.000
G1 X-0.062 Y25.325 Z-3.985 F200.000
G1 X-0.144 Y25.501 Z-4.003 F200.000
G1 X-0.259 Y25.657 Z-4.020 F200.000
G1 X-0.402 Y25.788 Z-4.037 F200.000
G1 X-0.568 Y25.889 Z-4.054 F200.000
G1 X-0.751 Y25.955 Z-4.071 F200.000
G1 X-0.942 Y25.985 Z-4.088 F200.000
G1 X-1.136 Y25.976 Z-4.106 F200.000
G1 X-1.325 Y25.930 Z-4.123 F200.000
G1 X-1.501 Y25.848 Z-4.140 F200.000
G1 X-1.657 Y25.733 Z-4.157 F200.000
G1 X-1.788 Y25.590 Z-4.174 F200.000
G1 X-1.889 Y25.424 Z-4.192 F200.000
G1 X-1.955 Y25.242 Z-4.209 F200.000
G1 X-1.985 Y25.050 Z-4.226 F200.000
G1 X-1.976 Y24.856 Z-4.243 F200.000
G1 X-1.930 Y24.668 Z-4.260 F200.000
G1 X-1.848 Y24.492 Z-4.277 F200.000
G1 X-1.733 Y24.335 Z-4.295 F200.000
G1 X-1.590 Y24.204 Z-4.312 F200.000
G1 X-1.424 Y24.104 Z-4.329 F200.000
G1 X-1.242 Y24.037 Z-4.346 F200.000
G1 X-1.050 Y24.008 Z-4.363 F200.000
G1 X-0.856 Y24.016 Z-4.380 F200.000
G1 X-0.668 Y24.062 Z-4.398 F200.000
G1 X-0.492 Y24.144 Z-4.415 F200.000
G1 X-0.335 Y24.259 Z-4.432 F200.000
G1 X-0.204 Y24.402 Z-4.449 F200.000
G1 X-0.104 Y24.568 Z-4.466 F200.000
G1 X-0.037 Y24.751 Z-4.484 F200.000
G1 X-0.008 Y24.942 Z-4.501 F200.000
G1 X-0.016 Y25.136 Z-4.518 F200.000
G1 X-0.062 Y25.325 Z-4.535 F200.000
G1 X-0.144 Y25.501 Z-4.552 F200.000
G1 X-0.259 Y25.657 Z-4.569 F200.000
G1 X-0.402 Y25.788 Z-4.587 F200.000
G1 X-0.568 Y25.889 Z-4.604 F200.000
G1 X-0.751 Y25.955 Z-4.621 F200.000
G1 X-0.942 Y25.985 Z-4.638 F200.000
G1 X-1.136 Y25.976 Z-4.655 F200.000
G1 X-1.325 Y25.930 Z-4.673 F200.000
G1 X-1.501 Y25.848 Z-4.690 F200.000
G1 X-1.657 Y25.733 Z-4.707 F200.000
G1 X-1.788 Y25.590 Z-4.724 F200.000
G1 X-1.889 Y25.424 Z-4.741 F200.000
G1 X-1.955 Y25.242 Z-4.758 F200.000
G1 X-1.985 Y25.050 Z-4.776 F200.000
G1 X-1.976 Y24.856 Z-4.793 F200.000
G1 X-1.930 Y24.668 Z-4.810 F200.000
G1 X-1.848 Y24.492 Z-4.827 F200.000
G1 X-1.733 Y24.335 Z-4.844 F200.000
G1 X-1.590 Y24.204 Z-4.861 F200.000
G1 X-1.424 Y24.104 Z-4.879 F200.000
G1 X-1.242 Y24.037 Z-4.896 F200.000
G1 X-1.050 Y24.008 Z-4.913 F200.000
G1 X-0.856 Y24.016 Z-4.930 F200.000
G1 X-0.668 Y24.062 Z-4.947 F200.000
G1 X-0.492 Y24.144 Z-4.965 F200.000
G1 X-0.335 Y24.259 Z-4.982 F200.000
G1 X-0.204 Y24.402 Z-4.999 F200.000
G1 X-0.104 Y24.568 Z-5.016 F200.000
G1 X-0.037 Y24.751 Z-5.033 F200.000
G1 X-0.008 Y24.942 Z-5.050 F200.000
G1 X-0.016 Y25.136 Z-5.068 F200.000
G1 X-0.062 Y25.325 Z-5.085 F200.000
G1 X-0.144 Y25.501 Z-5.102 F200.000
G1 X-0.259 Y25.657 Z-5.119 F200.000
G1 X-0.402 Y25.788 Z-5.136 F200.000
G1 X-0.568 Y25.889 Z-5.154 F200.000
G1 X-0.751 Y25.955 Z-5.171 F200.000
G1 X-0.942 Y25.985 Z-5.188 F200.000
G1 X-1.136 Y25.976 Z-5.205 F200.000
G1 X-1.325 Y25.930 Z-5.222 F200.000
G1 X-1.501 Y25.848 Z-5.239 F200.000
G1 X-1.657 Y25.733 Z-5.257 F200.000
G1 X-1.788 Y25.590 Z-5.274 F200.000
G1 X-1.889 Y25.424 Z-5.291 F200.000
G1 X-1.955 Y25.242 Z-5.308 F200.000
G1 X-1.985 Y25.050 Z-5.325 F200.000
G1 X-1.976 Y24.856 Z-5.342 F200.000
G1 X-1.930 Y24.668 Z-5.360 F200.000
G1 X-1.848 Y24.492 Z-5.377 F200.000
G1 X-1.733 Y24.335 Z-5.394 F200.000
G1 X-1.590 Y24.204 Z-5.411 F200.000
G1 X-1.424 Y24.104 Z-5.428 F200.000
G1 X-1.242 Y24.037 Z-5.446 F200.000
G1 X-1.050 Y24.008 Z-5.463 F200.000
G1 X-0.856 Y24.016 Z-5.480 F200.000
G1 X-0.668 Y24.062 Z-5.497 F200.000
G1 X-0.492 Y24.144 Z-5.514 F200.000
G1 X-0.335 Y24.259 Z-5.531 F200.000
G1 X-0.204 Y24.402 Z-5.549 F200.000
G1 X-0.104 Y24.568 Z-5.566 F200.000
G1 X-0.037 Y24.751 Z-5.583 F200.000
G1 X-0.008 Y24.942 Z-5.600 F200.000
G1 X-0.016 Y25.136 Z-5.617 F200.000
G1 X-0.062 Y25.325 Z-5.635 F200.000
G1 X-0.144 Y25.501 Z-5.652 F200.000
G1 X-0.259 Y25.657 Z-5.669 F200.000
G1 X-0.402 Y25.788 Z-5.686 F200.000
G1 X-0.568 Y25.889 Z-5.703 F200.000
G1 X-0.751 Y25.955 Z-5.720 F200.000
G1 X-0.942 Y25.985 Z-5.738 F200.000
G1 X-1.136 Y25.976 Z-5.755 F200.000
G1 X-1.325 Y25.930 Z-5.772 F200.000
G1 X-1.501 Y25.848 Z-5.789 F200.000
G1 X-1.657 Y25.733 Z-5.806 F200.000
G1 X-1.788 Y25.590 Z-5.823 F200.000
G1 X-1.889 Y25.424 Z-5.841 F200.000
G1 X-1.955 Y25.242 Z-5.858 F200.000
G1 X-1.985 Y25.050 Z-5.875 F200.000
G1 X-1.976 Y24.856 Z-5.892 F200.000
G1 X-1.930 Y24.668 Z-5.909 F200.000
G1 X-1.848 Y24.492 Z-5.927 F200.000
G1 X-1.733 Y24.335 Z-5.944 F200.000
G1 X-1.590 Y24.204 Z-5.961 F200.000
G1 X-1.424 Y24.104 Z-5.978 F200.000
G1 X-1.242 Y24.037 Z-5.995 F200.000
G1 X-1.050 Y24.008 Z-6.000 F400.000
G1 X-0.856 Y24.016 Z-6.000 F400.000
G1 X-0.668 Y24.062 Z-6.000 F400.000
G1 X-0.492 Y24.144 Z-6.000 F400.000
G1 X-0.335 Y24.259 Z-6.000 F400.000
G1 X-0.204 Y24.402 Z-6.000 F400.000
G1 X-0.104 Y24.568 Z-6.000 F400.000
G1 X-0.037 Y24.751 Z-6.000 F400.000
G1 X-0.008 Y24.942 Z-6.000 F400.000
G1 X-0.016 Y25.136 Z-6.000 F400.000
G1 X-0.062 Y25.325 Z-6.000 F400.000
G1 X-0.144 Y25.501 Z-6.000 F400.000
G1 X-0.259 Y25.657 Z-6.000 F400.000
G1 X-0.402 Y25.788 Z-6.000 F400.000
G1 X-0.568 Y25.889 Z-6.000 F400.000
G1 X-0.751 Y25.955 Z-6.000 F400.000
G1 X-0.942 Y25.985 Z-6.000 F400.000
G1 X-1.136 Y25.976 Z-6.000 F400.000
G1 X-1.325 Y25.930 Z-6.000 F400.000
G1 X-1.501 Y25.848 Z-6.000 F400.000
G1 X-1.657 Y25.733 Z-6.000 F400.000
G1 X-1.788 Y25.590 Z-6.000 F400.000
G1 X-1.889 Y25.424 Z-6.000 F400.000
G1 X-1.955 Y25.242 Z-6.000 F400.000
G1 X-1.985 Y25.050 Z-6.000 F400.000
G1 X-1.976 Y24.856 Z-6.000 F400.000
G1 X-1.930 Y24.668 Z-6.000 F400.000
G1 X-1.848 Y24.492 Z-6.000 F400.000
G1 X-1.733 Y24.335 Z-6.000 F400.000
G1 X-1.590 Y24.204 Z-6.000 F400.000
G1 X-1.424 Y24.104 Z-6.000 F400.000
G1 X-1.242 Y24.037 Z-6.000 F400.000
(Adaptive - depth: -6.000000)
G1 X-0.996 Y23.996 F400.000
G1 X-0.940 Y23.966 F400.000
G1 X-0.820 Y23.944 F400.000
G1 X-0.699 Y23.947 F400.000
G1 X-0.519 Y23.989 F400.000
G1 X-0.353 Y24.068 F400.000
G1 X-0.252 Y24.139 F400.000
G1 X0.056 Y24.508 F400.000
G1 X0.132 Y24.729 F400.000
G1 X0.150 Y24.842 F400.000
G1 X0.158 Y24.966 F400.000
G1 X0.150 Y25.147 F400.000
G1 X0.086 Y25.398 F400.000
G1 X0.004 Y25.575 F400.000
G1 X-0.086 Y25.707 F400.000
G1 X-0.192 Y25.823 F400.000
G1 X-0.335 Y25.940 F400.000
G1 X-0.500 Y26.038 F400.000
G1 X-0.684 Y26.109 F400.000
G1 X-0.872 Y26.147 F400.000
G1 X-1.053 Y26.154 F400.000
G1 X-1.241 Y26.128 F400.000
G1 X-1.410 Y26.075 F400.000
G1 X-1.568 Y26.000 F400.000
G1 X-1.729 Y25.891 F400.000
G1 X-1.872 Y25.756 F400.000
G1 X-1.981 Y25.602 F400.000
G1 X-2.060 Y25.451 F400.000
G1 X-2.117 Y25.274 F400.000
G1 X-2.147 Y25.094 F400.000
G1 X-2.147 Y24.898 F400.000
G1 X-2.117 Y24.711 F400.000
G1 X-2.053 Y24.530 F400.000
G1 X-1.970 Y24.376 F400.000
G1 X-1.861 Y24.229 F400.000
G1 X-1.726 Y24.098 F400.000
G1 X-1.519 Y23.955 F400.000
G1 X-1.233 Y23.823 F400.000
G1 X-0.992 Y23.763 F400.000
G1 X-0.812 Y23.752 F400.000
G1 X-0.632 Y23.774 F400.000
G1 X-0.455 Y23.827 F400.000
G1 X-0.241 Y23.940 F400.000
G1 X0.113 Y24.263 F400.000
G1 X0.263 Y24.553 F400.000
G1 X0.301 Y24.673 F400.000
G1 X0.323 Y24.797 F400.000
G1 X0.335 Y24.962 F400.000
G1 X0.320 Y25.207 F400.000
G1 X0.259 Y25.444 F400.000
G1 X0.180 Y25.617 F400.000
G1 X0.090 Y25.759 F400.000
G1 X-0.030 Y25.910 F400.000
G1 X-0.184 Y26.049 F400.000
G1 X-0.353 Y26.158 F400.000
G1 X-0.530 Y26.241 F400.000
G1 X-0.722 Y26.297 F400.000
G1 X-0.917 Y26.323 F400.000
G1 X-1.113 Y26.320 F400.000
G1 X-1.308 Y26.286 F400.000
G1 X-1.496 Y26.229 F400.000
G1 X-1.692 Y26.135 F400.000
G1 X-1.857 Y26.011 F400.000
G1 X-1.985 Y25.887 F400.000
G1 X-2.105 Y25.726 F400.000
G1 X-2.199 Y25.556 F400.000
G1 X-2.274 Y25.357 F400.000
G1 X-2.316 Y25.162 F400.000
G1 X-2.327 Y24.962 F400.000
G1 X-2.308 Y24.771 F400.000
G1 X-2.259 Y24.575 F400.000
G1 X-2.184 Y24.391 F400.000
G1 X-2.083 Y24.222 F400.000
G1 X-1.959 Y24.068 F400.000
G1 X-1.801 Y23.914 F400.000
G1 X-1.568 Y23.748 F400.000
G1 X-1.278 Y23.620 F400.000
G1 X-0.977 Y23.556 F400.000
G1 X-0.737 Y23.556 F400.000
G1 X-0.556 Y23.590 F400.000
G1 X-0.214 Y23.726 F400.000
G1 X-0.011 Y23.857 F400.000
G1 X0.195 Y24.056 F400.000
G1 X0.357 Y24.293 F400.000
G1 X0.444 Y24.508 F400.000
G1 X0.511 Y24.846 F400.000
G1 X0.508 Y25.128 F400.000
G1 X0.462 Y25.353 F400.000
G1 X0.327 Y25.680 F400.000
G1 X0.124 Y25.974 F400.000
G1 X-0.045 Y26.139 F400.000
G1 X-0.233 Y26.271 F400.000
G1 X-0.549 Y26.414 F400.000
G1 X-0.831 Y26.474 F400.000
G1 X-1.169 Y26.477 F400.000
G1 X-1.338 Y26.455 F400.000
G1 X-1.617 Y26.361 F400.000
G1 X-1.872 Y26.207 F400.000
G1 X-2.090 Y26.004 F400.000
G1 X-2.237 Y25.808 F400.000
G1 X-2.395 Y25.481 F400.000
G1 X-2.459 Y25.244 F400.000
G1 X-2.477 Y24.944 F400.000
G1 X-2.440 Y24.643 F400.000
G1 X-2.342 Y24.346 F400.000
G1 X-2.192 Y24.071 F400.000
G1 X-1.947 Y23.786 F400.000
G1 X-1.703 Y23.590 F400.000
G1 X-1.485 Y23.470 F400.000
G1 X-1.252 Y23.383 F400.000
G1 X-1.011 Y23.338 F400.000
G1 X-0.711 Y23.338 F400.000
G1 X-0.470 Y23.383 F400.000
G1 X-0.184 Y23.489 F400.000
G1 X0.117 Y23.673 F400.000
G1 X0.327 Y23.868 F400.000
G1 X0.523 Y24.154 F400.000
G1 X0.632 Y24.421 F400.000
G1 X0.699 Y24.759 F400.000
G1 X0.695 Y25.098 F400.000
G1 X0.643 Y25.380 F400.000
G1 X0.541 Y25.654 F400.000
G1 X0.459 Y25.812 F400.000
G1 X0.282 Y26.053 F400.000
G1 X0.068 Y26.259 F400.000
G1 X-0.222 Y26.451 F400.000
G1 X-0.545 Y26.583 F400.000
G1 X-0.883 Y26.650 F400.000
G1 X-1.165 Y26.654 F400.000
G1 X-1.504 Y26.590 F400.000
G1 X-1.774 Y26.474 F400.000
G1 X-2.064 Y26.267 F400.000
G1 X-2.308 Y26.000 F400.000
G1 X-2.466 Y25.744 F400.000
G1 X-2.541 Y25.575 F400.000
G1 X-2.620 Y25.274 F400.000
G1 X-2.647 Y24.914 F400.000
G1 X-2.602 Y24.553 F400.000
G1 X-2.504 Y24.256 F400.000
G1 X-2.391 Y24.030 F400.000
G1 X-2.169 Y23.726 F400.000
G1 X-1.898 Y23.466 F400.000
G1 X-1.692 Y23.323 F400.000
G1 X-1.406 Y23.195 F400.000
G1 X-1.105 Y23.117 F400.000
G1 X-0.805 Y23.094 F400.000
G1 X-0.504 Y23.128 F400.000
G1 X-0.154 Y23.237 F400.000
G1 X0.158 Y23.402 F400.000
G1 X0.421 Y23.624 F400.000
G1 X0.602 Y23.846 F400.000
G1 X0.744 Y24.094 F400.000
G1 X0.861 Y24.421 F400.000
G1 X0.917 Y24.816 F400.000
G1 X0.887 Y25.211 F400.000
G1 X0.801 Y25.549 F400.000
G1 X0.617 Y25.917 F400.000
G1 X0.353 Y26.248 F400.000
G1 X0.128 Y26.444 F400.000
G1 X-0.218 Y26.654 F400.000
G1 X-0.485 Y26.759 F400.000
G1 X-0.880 Y26.835 F400.000
G1 X-1.274 Y26.831 F400.000
G1 X-1.556 Y26.771 F400.000
G1 X-1.827 Y26.654 F400.000
G1 X-2.079 Y26.496 F400.000
G1 X-2.259 Y26.338 F400.000
G1 X-2.489 Y26.056 F400.000
G1 X-2.662 Y25.729 F400.000
G1 X-2.767 Y25.440 F400.000
G1 X-2.823 Y25.139 F400.000
G1 X-2.827 Y24.778 F400.000
G1 X-2.767 Y24.417 F400.000
G1 X-2.609 Y24.008 F400.000
G1 X-2.414 Y23.684 F400.000
G1 X-2.169 Y23.402 F400.000
G1 X-1.929 Y23.207 F400.000
G1 X-1.602 Y23.019 F400.000
G1 X-1.188 Y22.891 F400.000
G1 X-0.827 Y22.850 F400.000
G1 X-0.406 Y22.895 F400.000
G1 X0.102 Y23.075 F400.000
G1 X0.297 Y23.195 F400.000
G1 X0.643 Y23.504 F400.000
G1 X0.936 Y23.925 F400.000
G1 X1.071 Y24.241 F400.000
G1 X1.154 Y24.635 F400.000
G1 X1.154 Y25.030 F400.000
G1 X1.075 Y25.425 F400.000
G1 X0.891 Y25.861 F400.000
G1 X0.695 Y26.162 F400.000
G1 X0.406 Y26.466 F400.000
G1 X0.068 Y26.718 F400.000
G1 X-0.297 Y26.898 F400.000
G1 X-0.744 Y27.015 F400.000
G1 X-1.083 Y27.038 F400.000
G1 X-1.477 Y26.992 F400.000
G1 X-1.816 Y26.880 F400.000
G1 X-2.173 Y26.669 F400.000
G1 X-2.477 Y26.383 F400.000
G1 X-2.756 Y25.981 F400.000
G1 X-2.883 Y25.707 F400.000
G1 X-2.974 Y25.414 F400.000
G1 X-3.030 Y24.932 F400.000
G1 X-3.004 Y24.571 F400.000
G1 X-2.876 Y24.090 F400.000
G1 X-2.688 Y23.695 F400.000
G1 X-2.462 Y23.391 F400.000
G1 X-2.241 Y23.173 F400.000
G1 X-2.143 Y23.098 F400.000
G1 X-1.981 Y23.008 F400.000
G1 X-1.639 Y22.868 F400.000
G1 X-1.398 Y22.808 F400.000
G1 X-0.917 Y22.778 F400.000
G1 X-0.496 Y22.835 F400.000
G1 X-0.496 Y22.835 F400.000
G1 X-0.432 Y22.853 F400.000
G0 Z5.000
G0 X-0.432 Y22.853
G0 X-0.496 Y22.835
G1 Z-6.000 F200.000
G1 X-0.496 Y22.835 F400.000
G1 X-0.436 Y22.850 F400.000
G1 X-0.436 Y22.850 F400.000
G1 X-0.256 Y22.906 F400.000
G1 X-0.256 Y22.906 F400.000
G1 X-0.150 Y22.974 F400.000
G1 X-0.094 Y23.049 F400.000
G0 X-0.079 Y23.075
G0 X0.083 Y23.447
G0 X0.639 Y24.060
G0 X0.850 Y24.180
G1 X0.876 Y24.192 F400.000
G1 X1.038 Y24.286 F400.000
G1 X1.117 Y24.387 F400.000
G1 X1.154 Y24.481 F400.000
G1 X1.154 Y24.481 F400.000
G1 X1.214 Y24.876 F400.000
G1 X1.214 Y25.102 F400.000
G1 X1.173 Y25.440 F400.000
G1 X1.004 Y25.947 F400.000
G1 X0.925 Y26.105 F400.000
G1 X0.639 Y26.492 F400.000
G1 X0.226 Y26.842 F400.000
G1 X0.015 Y26.966 F400.000
G1 X-0.353 Y27.120 F400.000
G1 X-0.805 Y27.211 F400.000
G1 X-1.143 Y27.211 F400.000
G1 X-1.481 Y27.162 F400.000
G1 X-1.763 Y27.079 F400.000
G1 X-2.177 Y26.868 F400.000
G1 X-2.549 Y26.568 F400.000
G1 X-2.748 Y26.342 F400.000
G1 X-2.940 Y26.034 F400.000
G1 X-3.135 Y25.519 F400.000
G1 X-3.207 Y25.158 F400.000
G1 X-3.211 Y24.797 F400.000
G1 X-3.139 Y24.436 F400.000
G1 X-3.090 Y24.256 F400.000
G1 X-2.902 Y23.861 F400.000
G1 X-2.726 Y23.602 F400.000
G1 X-2.508 Y23.372 F400.000
G1 X-2.410 Y23.289 F400.000
G1 X-2.406 Y23.289 F400.000
G1 X-2.289 Y23.222 F400.000
G1 X-2.229 Y23.211 F400.000
G1 X-2.207 Y23.214 F400.000
G0 X-2.192 Y23.222
G0 X-2.188 Y23.316
G0 X-2.695 Y26.030
G1 X-2.703 Y26.068 F400.000
G1 X-2.726 Y26.158 F400.000
G1 X-2.752 Y26.192 F400.000
G1 X-2.797 Y26.192 F400.000
G1 X-2.895 Y26.128 F400.000
G1 X-2.940 Y26.083 F400.000
G1 X-2.940 Y26.083 F400.000
G1 X-3.068 Y25.805 F400.000
G1 X-3.143 Y25.579 F400.000
G1 X-3.214 Y25.218 F400.000
G1 X-3.218 Y25.158 F400.000
G1 X-3.218 Y25.158 F400.000
G1 X-3.211 Y25.139 F400.000
G0 X-3.199 Y25.135
G0 X-3.165 Y25.154
G0 X-3.158 Y25.173
G1 X-3.158 Y25.195 F400.000
G1 X-3.180 Y25.241 F400.000
G1 X-3.211 Y25.252 F400.000
G1 X-3.237 Y25.237 F400.000
G1 X-3.237 Y25.237 F400.000
G1 X-3.248 Y25.019 F400.000
G1 X-3.241 Y24.816 F400.000
G1 X-3.177 Y24.489 F400.000
G1 X-3.102 Y24.226 F400.000
G1 X-3.011 Y24.015 F400.000
G1 X-2.917 Y23.835 F400.000
G1 X-2.778 Y23.624 F400.000
G1 X-2.639 Y23.462 F400.000
G1 X-2.477 Y23.308 F400.000
G1 X-2.327 Y23.184 F400.000
G1 X-2.026 Y23.000 F400.000
G1 X-1.801 Y22.898 F400.000
G1 X-1.669 Y22.850 F400.000
G1 X-1.508 Y22.808 F400.000
G1 X-1.195 Y22.759 F400.000
G1 X-0.865 Y22.752 F400.000
G1 X-0.748 Y22.763 F400.000
G1 X-0.583 Y22.793 F400.000
G1 X-0.233 Y22.887 F400.000
G1 X-0.177 Y22.910 F400.000
G1 X0.289 Y23.158 F400.000
G1 X0.549 Y23.380 F400.000
G1 X0.756 Y23.594 F400.000
G1 X0.944 Y23.883 F400.000
G1 X1.064 Y24.124 F400.000
G1 X1.162 Y24.395 F400.000
G1 X1.207 Y24.579 F400.000
G1 X1.241 Y24.805 F400.000
G1 X1.241 Y25.060 F400.000
G1 X1.199 Y25.429 F400.000
G1 X1.135 Y25.673 F400.000
G1 X1.075 Y25.850 F400.000
G1 X0.936 Y26.132 F400.000
G1 X0.695 Y26.470 F400.000
G1 X0.530 Y26.635 F400.000
G1 X0.372 Y26.771 F400.000
G1 X0.011 Y27.000 F400.000
G1 X-0.177 Y27.086 F400.000
G1 X-0.474 Y27.188 F400.000
G1 X-0.695 Y27.226 F400.000
G1 X-1.030 Y27.244 F400.000
G1 X-1.466 Y27.195 F400.000
G1 X-1.665 Y27.139 F400.000
G1 X-1.996 Y27.011 F400.000
G1 X-2.301 Y26.827 F400.000
G1 X-2.519 Y26.647 F400.000
G1 X-2.778 Y26.372 F400.000
G1 X-2.910 Y26.184 F400.000
G1 X-3.008 Y26.008 F400.000
G1 X-3.094 Y25.808 F400.000
G1 X-3.158 Y25.613 F400.000
G1 X-3.218 Y25.353 F400.000
G1 X-3.237 Y25.237 F400.000
G1 X-3.237 Y25.237 F400.000
G0 Z5.000
(Helix to depth: -6.000000)
G0 Z5.000
G0 X-0.668 Y-25.930 Z5.000
G0 X-0.668 Y-25.930 Z3.000
G1 X-0.668 Y-25.930 Z0.000 F200.000
G1 X-0.668 Y-25.930 Z0.000 F200.000
G1 X-0.492 Y-25.848 Z-0.017 F200.000
G1 X-0.335 Y-25.733 Z-0.034 F200.000
G1 X-0.204 Y-25.590 Z-0.052 F200.000
G1 X-0.104 Y-25.424 Z-0.069 F200.000
G1 X-0.037 Y-25.242 Z-0.086 F200.000
G1 X-0.008 Y-25.050 Z-0.103 F200.000
G1 X-0.016 Y-24.856 Z-0.120 F200.000
G1 X-0.062 Y-24.668 Z-0.137 F200.000
G1 X-0.144 Y-24.492 Z-0.155 F200.000
G1 X-0.259 Y-24.335 Z-0.172 F200.000
G1 X-0.402 Y-24.204 Z-0.189 F200.000
G1 X-0.568 Y-24.104 Z-0.206 F200.000
G1 X-0.751 Y-24.037 Z-0.223 F200.000
G1 X-0.942 Y-24.008 Z-0.240 F200.000
G1 X-1.136 Y-24.016 Z-0.258 F200.000
G1 X-1.325 Y-24.062 Z-0.275 F200.000
G1 X-1.501 Y-24.144 Z-0.292 F200.000
G1 X-1.657 Y-24.259 Z-0.309 F200.000
G1 X-1.788 Y-24.402 Z-0.326 F200.000
G1 X-1.889 Y-24.568 Z-0.344 F200.000
G1 X-1.955 Y-24.751 Z-0.361 F200.000
G1 X-1.985 Y-24.942 Z-0.378 F200.000
G1 X-1.976 Y-25.136 Z-0.395 F200.000
G1 X-1.930 Y-25.325 Z-0.412 F200.000
G1 X-1.848 Y-25.501 Z-0.429 F200.000
G1 X-1.733 Y-25.657 Z-0.447 F200.000
G1 X-1.590 Y-25.788 Z-0.464 F200.000
G1 X-1.424 Y-25.889 Z-0.481 F200.000
G1 X-1.242 Y-25.955 Z-0.498 F200.000
G1 X-1.050 Y-25.985 Z-0.515 F200.000
G1 X-0.856 Y-25.976 Z-0.533 F200.000
G1 X-0.668 Y-25.930 Z-0.550 F200.000
G1 X-0.492 Y-25.848 Z-0.567 F200.000
G1 X-0.335 Y-25.733 Z-0.584 F200.000
G1 X-0.204 Y-25.590 Z-0.601 F200.000
G1 X-0.104 Y-25.424 Z-0.618 F200.000
G1 X-0.037 Y-25.242 Z-0.636 F200.000
G1 X-0.008 Y-25.050 Z-0.653 F200.000
G1 X-0.016 Y-24.856 Z-0.670 F200.000
G1 X-0.062 Y-24.668 Z-0.687 F200.000
G1 X-0.144 Y-24.492 Z-0.704 F200.000
G1 X-0.259 Y-24.335 Z-0.721 F200.000
G1 X-0.402 Y-24.204 Z-0.739 F200.000
G1 X-0.568 Y-24.104 Z-0.756 F200.000
G1 X-0.751 Y-24.037 Z-0.773 F200.000
G1 X-0.942 Y-24.008 Z-0.790 F200.000
G1 X-1.136 Y-24.016 Z-0.807 F200.000
G1 X-1.325 Y-24.062 Z-0.825 F200.000
G1 X-1.501 Y-24.144 Z-0.842 F200.000
G1 X-1.657 Y-24.259 Z-0.859 F200.000
G1 X-1.788 Y-24.402 Z-0.876 F200.000
G1 X-1.889 Y-24.568 Z-0.893 F200.000
G1 X-1.955 Y-24.751 Z-0.910 F200.000
G1 X-1.985 Y-24.942 Z-0.928 F200.000
G1 X-1.976 Y-25.136 Z-0.945 F200.000
G1 X-1.930 Y-25.325 Z-0.962 F200.000
G1 X-1.848 Y-25.501 Z-0.979 F200.000
G1 X-1.733 Y-25.657 Z-0.996 F200.000
G1 X-1.590 Y-25.788 Z-1.014 F200.000
G1 X-1.424 Y-25.889 Z-1.031 F200.000
G1 X-1.242 Y-25.955 Z-1.048 F200.000
G1 X-1.050 Y-25.985 Z-1.065 F200.000
G1 X-0.856 Y-25.976 Z-1.082 F200.000
G1 X-0.668 Y-25.930 Z-1.099 F200.000
G1 X-0.492 Y-25.848 Z-1.117 F200.000
G1 X-0.335 Y-25.733 Z-1.134 F200.000
G1 X-0.204 Y-25.590 Z-1.151 F200.000
G1 X-0.104 Y-25.424 Z-1.168 F200.000
G1 X-0.037 Y-25.242 Z-1.185 F200.000
G1 X-0.008 Y-25.050 Z-1.202 F200.000
G1 X-0.016 Y-24.856 Z-1.220 F200.000
G1 X-0.062 Y-24.668 Z-1.237 F200.000
G1 X-0.144 Y-24.492 Z-1.254 F200.000
G1 X-0.259 Y-24.335 Z-1.271 F200.000
G1 X-0.402 Y-24.204 Z-1.288 F200.000
G1 X-0.568 Y-24.104 Z-1.306 F200.000
G1 X-0.751 Y-24.037 Z-1.323 F200.000
G1 X-0.942 Y-24.008 Z-1.340 F200.000
G1 X-1.136 Y-24.016 Z-1.357 F200.000
G1 X-1.325 Y-24.062 Z-1.374 F200.000
G1 X-1.501 Y-24.144 Z-1.391 F200.000
G1 X-1.657 Y-24.259 Z-1.409 F200.000
G1 X-1.788 Y-24.402 Z-1.426 F200.000
G1 X-1.889 Y-24.568 Z-1.443 F200.000
G1 X-1.955 Y-24.751 Z-1.460 F200.000
G1 X-1.985 Y-24.942 Z-1.477 F200.000
G1 X-1.976 Y-25.136 Z-1.495 F200.000
G1 X-1.930 Y-25.325 Z-1.512 F200.000
G1 X-1.848 Y-25.501 Z-1.529 F200.000
G1 X-1.733 Y-25.657 Z-1.546 F200.000
G1 X-1.590 Y-25.788 Z-1.563 F200.000
G1 X-1.424 Y-25.889 Z-1.580 F200.000
G1 X-1.242 Y-25.955 Z-1.598 F200.000
G1 X-1.050 Y-25.985 Z-1.615 F200.000
G1 X-0.856 Y-25.976 Z-1.632 F200.000
G1 X-0.668 Y-25.930 Z-1.649 F200.000
G1 X-0.492 Y-25.848 Z-1.666 F200.000
G1 X-0.335 Y-25.733 Z-1.683 F200.000
G1 X-0.204 Y-25.590 Z-1.701 F200.000
G1 X-0.104 Y-25.424 Z-1.718 F200.000
G1 X-0.037 Y-25.242 Z-1.735 F200.000
G1 X-0.008 Y-25.050 Z-1.752 F200.000
G1 X-0.016 Y-24.856 Z-1.769 F200.000
G1 X-0.062 Y-24.668 Z-1.787 F200.000
G1 X-0.144 Y-24.492 Z-1.804 F200.000
G1 X-0.259 Y-24.335 Z-1.821 F200.000
G1 X-0.402 Y-24.204 Z-1.838 F200.000
G1 X-0.568 Y-24.104 Z-1.855 F200.000
G1 X-0.751 Y-24.037 Z-1.872 F200.000
G1 X-0.942 Y-24.008 Z-1.890 F200.000
G1 X-1.136 Y-24.016 Z-1.907 F200.000
G1 X-1.325 Y-24.062 Z-1.924 F200.000
G1 X-1.501 Y-24.144 Z-1.941 F200.000
G1 X-1.657 Y-24.259 Z-1.958 F200.000
G1 X-1.788 Y-24.402 Z-1.976 F200.000
G1 X-1.889 Y-24.568 Z-1.993 F200.000
G1 X-1.955 Y-24.751 Z-2.010 F200.000
G1 X-1.985 Y-24.942 Z-2.027 F200.000
G1 X-1.976 Y-25.136 Z-2.044 F200.000
G1 X-1.930 Y-25.325 Z-2.061 F200.000
G1 X-1.848 Y-25.501 Z-2.079 F200.000
G1 X-1.733 Y-25.657 Z-2.096 F200.000
G1 X-1.590 Y-25.788 Z-2.113 F200.000
G1 X-1.424 Y-25.889 Z-2.130 F200.000
G1 X-1.242 Y-25.955 Z-2.147 F200.000
G1 X-1.050 Y-25.985 Z-2.164 F200.000
G1 X-0.856 Y-25.976 Z-2.182 F200.000
G1 X-0.668 Y-25.930 Z-2.199 F200.000
G1 X-0.492 Y-25.848 Z-2.216 F200.000
G1 X-0.335 Y-25.733 Z-2.233 F200.000
G1 X-0.204 Y-25.590 Z-2.250 F200.000
G1 X-0.104 Y-25.424 Z-2.268 F200.000
G1 X-0.037 Y-25.242 Z-2.285 F200.000
G1 X-0.008 Y-25.050 Z-2.302 F200.000
G1 X-0.016 Y-24.856 Z-2.319 F200.000
G1 X-0.062 Y-24.668 Z-2.336 F200.000
G1 X-0.144 Y-24.492 Z-2.353 F200.000
G1 X-0.259 Y-24.335 Z-2.371 F200.000
G1 X-0.402 Y-24.204 Z-2.388 F200.000
G1 X-0.568 Y-24.104 Z-2.405 F200.000
G1 X-0.751 Y-24.037 Z-2.422 F200.000
G1 X-0.942 Y-24.008 Z-2.439 F200.000
G1 X-1.136 Y-24.016 Z-2.457 F200.000
G1 X-1.325 Y-24.062 Z-2.474 F200.000
G1 X-1.501 Y-24.144 Z-2.491 F200.000
G1 X-1.657 Y-24.259 Z-2.508 F200.000
G1 X-1.788 Y-24.402 Z-2.525 F200.000
G1 X-1.889 Y-24.568 Z-2.542 F200.000
G1 X-1.955 Y-24.751 Z-2.560 F200.000
G1 X-1.985 Y-24.942 Z-2.577 F200.000
G1 X-1.976 Y-25.136 Z-2.594 F200.000
G1 X-1.930 Y-25.325 Z-2.611 F200.000
G1 X-1.848 Y-25.501 Z-2.628 F200.000
G1 X-1.733 Y-25.657 Z-2.645 F200.000
G1 X-1.590 Y-25.788 Z-2.663 F200.000
G1 X-1.424 Y-25.889 Z-2.680 F200.000
G1 X-1.242 Y-25.955 Z-2.697 F200.000
G1 X-1.050 Y-25.985 Z-2.714 F200.000
G1 X-0.856 Y-25.976 Z-2.731 F200.000
G1 X-0.668 Y-25.930 Z-2.749 F200.000
G1 X-0.492 Y-25.848 Z-2.766 F200.000
G1 X-0.335 Y-25.733 Z-2.783 F200.000
G1 X-0.204 Y-25.590 Z-2.800 F200.000
G1 X-0.104 Y-25.424 Z-2.817 F200.000
G1 X-0.037 Y-25.242 Z-2.834 F200.000
G1 X-0.008 Y-25.050 Z-2.852 F200.000
G1 X-0.016 Y-24.856 Z-2.869 F200.000
G1 X-0.062 Y-24.668 Z-2.886 F200.000
G1 X-0.144 Y-24.492 Z-2.903 F200.000
G1 X-0.259 Y-24.335 Z-2.920 F200.000
G1 X-0.402 Y-24.204 Z-2.937 F200.000
G1 X-0.568 Y-24.104 Z-2.955 F200.000
G1 X-0.751 Y-24.037 Z-2.972 F200.000
G1 X-0.942 Y-24.008 Z-2.989 F200.000
G1 X-1.136 Y-24.016 Z-3.006 F200.000
G1 X-1.325 Y-24.062 Z-3.023 F200.000
G1 X-1.501 Y-24.144 Z-3.041 F200.000
G1 X-1.657 Y-24.259 Z-3.058 F200.000
G1 X-1.788 Y-24.402 Z-3.075 F200.000
G1 X-1.889 Y-24.568 Z-3.092 F200.000
G1 X-1.955 Y-24.751 Z-3.109 F200.000
G1 X-1.985 Y-24.942 Z-3.126 F200.000
G1 X-1.976 Y-25.136 Z-3.144 F200.000
G1 X-1.930 Y-25.325 Z-3.161 F200.000
G1 X-1.848 Y-25.501 Z-3.178 F200.000
G1 X-1.733 Y-25.657 Z-3.195 F200.000
G1 X-1.590 Y-25.788 Z-3.212 F200.000
G1 X-1.424 Y-25.889 Z-3.230 F200.000
G1 X-1.242 Y-25.955 Z-3.247 F200.000
G1 X-1.050 Y-25.985 Z-3.264 F200.000
G1 X-0.856 Y-25.976 Z-3.281 F200.000
G1 X-0.668 Y-25.930 Z-3.298 F200.000
G1 X-0.492 Y-25.848 Z-3.315 F200.000
G1 X-0.335 Y-25.733 Z-3.333 F200.000
G1 X-0.204 Y-25.590 Z-3.350 F200.000
G1 X-0.104 Y-25.424 Z-3.367 F200.000
G1 X-0.037 Y-25.242 Z-3.384 F200.000
G1 X-0.008 Y-25.050 Z-3.401 F200.000
G1 X-0.016 Y-24.856 Z-3.418 F200.000
G1 X-0.062 Y-24.668 Z-3.436 F200.000
G1 X-0.144 Y-24.492 Z-3.453 F200.000
G1 X-0.259 Y-24.335 Z-3.470 F200.000
G1 X-0.402 Y-24.204 Z-3.487 F200.000
G1 X-0.568 Y-24.104 Z-3.504 F200.000
G1 X-0.751 Y-24.037 Z-3.522 F200.000
G1 X-0.942 Y-24.008 Z-3.539 F200.000
G1 X-1.136 Y-24.016 Z-3.556 F200.000
G1 X-1.325 Y-24.062 Z-3.573 F200.000
G1 X-1.501 Y-24.144 Z-3.590 F200.000
G1 X-1.657 Y-24.259 Z-3.607 F200.000
G1 X-1.788 Y-24.402 Z-3.625 F200.000
G1 X-1.889 Y-24.568 Z-3.642 F200.000
G1 X-1.955 Y-24.751 Z-3.659 F200.000
G1 X-1.985 Y-24.942 Z-3.676 F200.000
G1 X-1.976 Y-25.136 Z-3.693 F200.000
G1 X-1.930 Y-25.325 Z-3.711 F200.000
G1 X-1.848 Y-25.501 Z-3.728 F200.000
G1 X-1.733 Y-25.657 Z-3.745 F200.000
G1 X-1.590 Y-25.788 Z-3.762 F200.000
G1 X-1.424 Y-25.889 Z-3.779 F200.000
G1 X-1.242 Y-25.955 Z-3.796 F200.000
G1 X-1.050 Y-25.985 Z-3.814 F200.000
G1 X-0.856 Y-25.976 Z-3.831 F200.000
G1 X-0.668 Y-25.930 Z-3.848 F200.000
G1 X-0.492 Y-25.848 Z-3.865 F200.000
G1 X-0.335 Y-25.733 Z-3.882 F200.000
G1 X-0.204 Y-25.590 Z-3.899 F200.000
G1 X-0.104 Y-25.424 Z-3.917 F200.000
G1 X-0.037 Y-25.242 Z-3.934 F200.000
G1 X-0.008 Y-25.050 Z-3.951 F200.000
G1 X-0.016 Y-24.856 Z-3.968 F200.000
G1 X-0.062 Y-24.668 Z-3.985 F200.000
G1 X-0.144 Y-24.492 Z-4.003 F200.000
G1 X-0.259 Y-24.335 Z-4.020 F200.000
G1 X-0.402 Y-24.204 Z-4.037 F200.000
G1 X-0.568 Y-24.104 Z-4.054 F200.000
G1 X-0.751 Y-24.037 Z-4.071 F200.000
G1 X-0.942 Y-24.008 Z-4.088 F200.000
G1 X-1.136 Y-24.016 Z-4.106 F200.000
G1 X-1.325 Y-24.062 Z-4.123 F200.000
G1 X-1.501 Y-24.144 Z-4.140 F200.000
G1 X-1.657 Y-24.259 Z-4.157 F200.000
G1 X-1.788 Y-24.402 Z-4.174 F200.000
G1 X-1.889 Y-24.568 Z-4.192 F200.000
G1 X-1.955 Y-24.751 Z-4.209 F200.000
G1 X-1.985 Y-24.942 Z-4.226 F200.000
G1 X-1.976 Y-25.136 Z-4.243 F200.000
G1 X-1.930 Y-25.325 Z-4.260 F200.000
G1 X-1.848 Y-25.501 Z-4.277 F200.000
G1 X-1.733 Y-25.657 Z-4.295 F200.000
G1 X-1.590 Y-25.788 Z-4.312 F200.000
G1 X-1.424 Y-25.889 Z-4.329 F200.000
G1 X-1.242 Y-25.955 Z-4.346 F200.000
G1 X-1.050 Y-25.985 Z-4.363 F200.000
G1 X-0.856 Y-25.976 Z-4.380 F200.000
G1 X-0.668 Y-25.930 Z-4.398 F200.000
G1 X-0.492 Y-25.848 Z-4.415 F200.000
G1 X-0.335 Y-25.733 Z-4.432 F200.000
G1 X-0.204 Y-25.590 Z-4.449 F200.000
G1 X-0.104 Y-25.424 Z-4.466 F200.000
G1 X-0.037 Y-25.242 Z-4.484 F200.000
G1 X-0.008 Y-25.050 Z-4.501 F200.000
G1 X-0.016 Y-24.856 Z-4.518 F200.000
G1 X-0.062 Y-24.668 Z-4.535 F200.000
G1 X-0.144 Y-24.492 Z-4.552 F200.000
G1 X-0.259 Y-24.335 Z-4.569 F200.000
G1 X-0.402 Y-24.204 Z-4.587 F200.000
G1 X-0.568 Y-24.104 Z-4.604 F200.000
G1 X-0.751 Y-24.037 Z-4.621 F200.000
G1 X-0.942 Y-24.008 Z-4.638 F200.000
G1 X-1.136 Y-24.016 Z-4.655 F200.000
G1 X-1.325 Y-24.062 Z-4.673 F200.000
G1 X-1.501 Y-24.144 Z-4.690 F200.000
G1 X-1.657 Y-24.259 Z-4.707 F200.000
G1 X-1.788 Y-24.402 Z-4.724 F200.000
G1 X-1.889 Y-24.568 Z-4.741 F200.000
G1 X-1.955 Y-24.751 Z-4.758 F200.000
G1 X-1.985 Y-24.942 Z-4.776 F200.000
G1 X-1.976 Y-25.136 Z-4.793 F200.000
G1 X-1.930 Y-25.325 Z-4.810 F200.000
G1 X-1.848 Y-25.501 Z-4.827 F200.000
G1 X-1.733 Y-25.657 Z-4.844 F200.000
G1 X-1.590 Y-25.788 Z-4.861 F200.000
G1 X-1.424 Y-25.889 Z-4.879 F200.000
G1 X-1.242 Y-25.955 Z-4.896 F200.000
G1 X-1.050 Y-25.985 Z-4.913 F200.000
G1 X-0.856 Y-25.976 Z-4.930 F200.000
G1 X-0.668 Y-25.930 Z-4.947 F200.000
G1 X-0.492 Y-25.848 Z-4.965 F200.000
G1 X-0.335 Y-25.733 Z-4.982 F200.000
G1 X-0.204 Y-25.590 Z-4.999 F200.000
G1 X-0.104 Y-25.424 Z-5.016 F200.000
G1 X-0.037 Y-25.242 Z-5.033 F200.000
G1 X-0.008 Y-25.050 Z-5.050 F200.000
G1 X-0.016 Y-24.856 Z-5.068 F200.000
G1 X-0.062 Y-24.668 Z-5.085 F200.000
G1 X-0.144 Y-24.492 Z-5.102 F200.000
G1 X-0.259 Y-24.335 Z-5.119 F200.000
G1 X-0.402 Y-24.204 Z-5.136 F200.000
G1 X-0.568 Y-24.104 Z-5.154 F200.000
G1 X-0.751 Y-24.037 Z-5.171 F200.000
G1 X-0.942 Y-24.008 Z-5.188 F200.000
G1 X-1.136 Y-24.016 Z-5.205 F200.000
G1 X-1.325 Y-24.062 Z-5.222 F200.000
G1 X-1.501 Y-24.144 Z-5.239 F200.000
G1 X-1.657 Y-24.259 Z-5.257 F200.000
G1 X-1.788 Y-24.402 Z-5.274 F200.000
G1 X-1.889 Y-24.568 Z-5.291 F200.000
G1 X-1.955 Y-24.751 Z-5.308 F200.000
G1 X-1.985 Y-24.942 Z-5.325 F200.000
G1 X-1.976 Y-25.136 Z-5.342 F200.000
G1 X-1.930 Y-25.325 Z-5.360 F200.000
G1 X-1.848 Y-25.501 Z-5.377 F200.000
G1 X-1.733 Y-25.657 Z-5.394 F200.000
G1 X-1.590 Y-25.788 Z-5.411 F200.000
G1 X-1.424 Y-25.889 Z-5.428 F200.000
G1 X-1.242 Y-25.955 Z-5.446 F200.000
G1 X-1.050 Y-25.985 Z-5.463 F200.000
G1 X-0.856 Y-25.976 Z-5.480 F200.000
G1 X-0.668 Y-25.930 Z-5.497 F200.000
G1 X-0.492 Y-25.848 Z-5.514 F200.000
G1 X-0.335 Y-25.733 Z-5.531 F200.000
G1 X-0.204 Y-25.590 Z-5.549 F200.000
G1 X-0.104 Y-25.424 Z-5.566 F200.000
G1 X-0.037 Y-25.242 Z-5.583 F200.000
G1 X-0.008 Y-25.050 Z-5.600 F200.000
G1 X-0.016 Y-24.856 Z-5.617 F200.000
G1 X-0.062 Y-24.668 Z-5.635 F200.000
G1 X-0.144 Y-24.492 Z-5.652 F200.000
G1 X-0.259 Y-24.335 Z-5.669 F200.000
G1 X-0.402 Y-24.204 Z-5.686 F200.000
G1 X-0.568 Y-24.104 Z-5.703 F200.000
G1 X-0.751 Y-24.037 Z-5.720 F200.000
G1 X-0.942 Y-24.008 Z-5.738 F200.000
G1 X-1.136 Y-24.016 Z-5.755 F200.000
G1 X-1.325 Y-24.062 Z-5.772 F200.000
G1 X-1.501 Y-24.144 Z-5.789 F200.000
G1 X-1.657 Y-24.259 Z-5.806 F200.000
G1 X-1.788 Y-24.402 Z-5.823 F200.000
G1 X-1.889 Y-24.568 Z-5.841 F200.000
G1 X-1.955 Y-24.751 Z-5.858 F200.000
G1 X-1.985 Y-24.942 Z-5.875 F200.000
G1 X-1.976 Y-25.136 Z-5.892 F200.000
G1 X-1.930 Y-25.325 Z-5.909 F200.000
G1 X-1.848 Y-25.501 Z-5.927 F200.000
G1 X-1.733 Y-25.657 Z-5.944 F200.000
G1 X-1.590 Y-25.788 Z-5.961 F200.000
G1 X-1.424 Y-25.889 Z-5.978 F200.000
G1 X-1.242 Y-25.955 Z-5.995 F200.000
G1 X-1.050 Y-25.985 Z-6.000 F400.000
G1 X-0.856 Y-25.976 Z-6.000 F400.000
G1 X-0.668 Y-25.930 Z-6.000 F400.000
G1 X-0.492 Y-25.848 Z-6.000 F400.000
G1 X-0.335 Y-25.733 Z-6.000 F400.000
G1 X-0.204 Y-25.590 Z-6.000 F400.000
G1 X-0.104 Y-25.424 Z-6.000 F400.000
G1 X-0.037 Y-25.242 Z-6.000 F400.000
G1 X-0.008 Y-25.050 Z-6.000 F400.000
G1 X-0.016 Y-24.856 Z-6.000 F400.000
G1 X-0.062 Y-24.668 Z-6.000 F400.000
G1 X-0.144 Y-24.492 Z-6.000 F400.000
G1 X-0.259 Y-24.335 Z-6.000 F400.000
G1 X-0.402 Y-24.204 Z-6.000 F400.000
G1 X-0.568 Y-24.104 Z-6.000 F400.000
G1 X-0.751 Y-24.037 Z-6.000 F400.000
G1 X-0.942 Y-24.008 Z-6.000 F400.000
G1 X-1.136 Y-24.016 Z-6.000 F400.000
G1 X-1.325 Y-24.062 Z-6.000 F400.000
G1 X-1.501 Y-24.144 Z-6.000 F400.000
G1 X-1.657 Y-24.259 Z-6.000 F400.000
G1 X-1.788 Y-24.402 Z-6.000 F400.000
G1 X-1.889 Y-24.568 Z-6.000 F400.000
G1 X-1.955 Y-24.751 Z-6.000 F400.000
G1 X-1.985 Y-24.942 Z-6.000 F400.000
G1 X-1.976 Y-25.136 Z-6.000 F400.000
G1 X-1.930 Y-25.325 Z-6.000 F400.000
G1 X-1.848 Y-25.501 Z-6.000 F400.000
G1 X-1.733 Y-25.657 Z-6.000 F400.000
G1 X-1.590 Y-25.788 Z-6.000 F400.000
G1 X-1.424 Y-25.889 Z-6.000 F400.000
G1 X-1.242 Y-25.955 Z-6.000 F400.000
(Adaptive - depth: -6.000000)
G1 X-0.996 Y-25.996 F400.000
G1 X-0.944 Y-26.023 F400.000
G1 X-0.763 Y-26.038 F400.000
G1 X-0.583 Y-26.004 F400.000
G1 X-0.410 Y-25.925 F400.000
G1 X-0.256 Y-25.816 F400.000
G1 X0.038 Y-25.477 F400.000
G1 X0.124 Y-25.237 F400.000
G1 X0.143 Y-25.120 F400.000
G1 X0.150 Y-25.000 F400.000
G1 X0.139 Y-24.820 F400.000
G1 X0.079 Y-24.586 F400.000
G1 X0.000 Y-24.410 F400.000
G1 X-0.090 Y-24.274 F400.000
G1 X-0.199 Y-24.150 F400.000
G1 X-0.342 Y-24.034 F400.000
G1 X-0.508 Y-23.936 F400.000
G1 X-0.688 Y-23.865 F400.000
G1 X-0.876 Y-23.831 F400.000
G1 X-1.041 Y-23.823 F400.000
G1 X-1.222 Y-23.842 F400.000
G1 X-1.410 Y-23.898 F400.000
G1 X-1.579 Y-23.981 F400.000
G1 X-1.729 Y-24.083 F400.000
G1 X-1.865 Y-24.211 F400.000
G1 X-1.977 Y-24.357 F400.000
G1 X-2.064 Y-24.523 F400.000
G1 X-2.124 Y-24.699 F400.000
G1 X-2.154 Y-24.883 F400.000
G1 X-2.154 Y-25.068 F400.000
G1 X-2.124 Y-25.252 F400.000
G1 X-2.068 Y-25.429 F400.000
G1 X-1.981 Y-25.594 F400.000
G1 X-1.868 Y-25.744 F400.000
G1 X-1.733 Y-25.876 F400.000
G1 X-1.526 Y-26.004 F400.000
G1 X-1.244 Y-26.120 F400.000
G1 X-1.004 Y-26.173 F400.000
G1 X-0.763 Y-26.177 F400.000
G1 X-0.583 Y-26.143 F400.000
G1 X-0.466 Y-26.102 F400.000
G1 X-0.195 Y-25.936 F400.000
G1 X0.147 Y-25.598 F400.000
G1 X0.263 Y-25.327 F400.000
G1 X0.289 Y-25.207 F400.000
G1 X0.305 Y-25.086 F400.000
G1 X0.308 Y-24.914 F400.000
G1 X0.274 Y-24.643 F400.000
G1 X0.195 Y-24.421 F400.000
G1 X0.117 Y-24.274 F400.000
G1 X0.015 Y-24.135 F400.000
G1 X-0.117 Y-23.992 F400.000
G1 X-0.286 Y-23.857 F400.000
G1 X-0.466 Y-23.756 F400.000
G1 X-0.647 Y-23.684 F400.000
G1 X-0.850 Y-23.643 F400.000
G1 X-1.030 Y-23.632 F400.000
G1 X-1.222 Y-23.647 F400.000
G1 X-1.417 Y-23.695 F400.000
G1 X-1.598 Y-23.767 F400.000
G1 X-1.774 Y-23.872 F400.000
G1 X-1.929 Y-24.000 F400.000
G1 X-2.064 Y-24.147 F400.000
G1 X-2.173 Y-24.312 F400.000
G1 X-2.259 Y-24.492 F400.000
G1 X-2.316 Y-24.684 F400.000
G1 X-2.338 Y-24.883 F400.000
G1 X-2.335 Y-25.071 F400.000
G1 X-2.305 Y-25.271 F400.000
G1 X-2.241 Y-25.474 F400.000
G1 X-2.150 Y-25.658 F400.000
G1 X-2.030 Y-25.823 F400.000
G1 X-1.902 Y-25.955 F400.000
G1 X-1.748 Y-26.079 F400.000
G1 X-1.564 Y-26.192 F400.000
G1 X-1.271 Y-26.289 F400.000
G1 X-0.970 Y-26.327 F400.000
G1 X-0.729 Y-26.316 F400.000
G1 X-0.489 Y-26.259 F400.000
G1 X-0.259 Y-26.154 F400.000
G1 X0.139 Y-25.883 F400.000
G1 X0.368 Y-25.541 F400.000
G1 X0.459 Y-25.195 F400.000
G1 X0.474 Y-24.955 F400.000
G1 X0.440 Y-24.654 F400.000
G1 X0.346 Y-24.357 F400.000
G1 X0.195 Y-24.086 F400.000
G1 X-0.045 Y-23.805 F400.000
G1 X-0.282 Y-23.628 F400.000
G1 X-0.549 Y-23.500 F400.000
G1 X-0.831 Y-23.429 F400.000
G1 X-1.113 Y-23.414 F400.000
G1 X-1.338 Y-23.440 F400.000
G1 X-1.665 Y-23.553 F400.000
G1 X-1.962 Y-23.737 F400.000
G1 X-2.169 Y-23.932 F400.000
G1 X-2.335 Y-24.169 F400.000
G1 X-2.447 Y-24.432 F400.000
G1 X-2.515 Y-24.771 F400.000
G1 X-2.515 Y-25.109 F400.000
G1 X-2.470 Y-25.335 F400.000
G1 X-2.335 Y-25.662 F400.000
G1 X-2.128 Y-25.951 F400.000
G1 X-1.861 Y-26.192 F400.000
G1 X-1.538 Y-26.365 F400.000
G1 X-1.244 Y-26.455 F400.000
G1 X-0.944 Y-26.492 F400.000
G1 X-0.643 Y-26.474 F400.000
G1 X-0.282 Y-26.357 F400.000
G1 X-0.113 Y-26.274 F400.000
G1 X0.132 Y-26.094 F400.000
G1 X0.301 Y-25.921 F400.000
G1 X0.462 Y-25.665 F400.000
G1 X0.553 Y-25.440 F400.000
G1 X0.620 Y-25.079 F400.000
G1 X0.624 Y-24.778 F400.000
G1 X0.568 Y-24.477 F400.000
G1 X0.432 Y-24.128 F400.000
G1 X0.305 Y-23.914 F400.000
G1 X0.056 Y-23.632 F400.000
G1 X-0.229 Y-23.414 F400.000
G1 X-0.492 Y-23.286 F400.000
G1 X-0.831 Y-23.192 F400.000
G1 X-1.169 Y-23.173 F400.000
G1 X-1.395 Y-23.195 F400.000
G1 X-1.722 Y-23.308 F400.000
G1 X-2.023 Y-23.481 F400.000
G1 X-2.241 Y-23.665 F400.000
G1 X-2.459 Y-23.936 F400.000
G1 X-2.590 Y-24.192 F400.000
G1 X-2.703 Y-24.583 F400.000
G1 X-2.726 Y-24.977 F400.000
G1 X-2.688 Y-25.259 F400.000
G1 X-2.575 Y-25.594 F400.000
G1 X-2.361 Y-25.947 F400.000
G1 X-2.117 Y-26.207 F400.000
G1 X-1.872 Y-26.387 F400.000
G1 X-1.658 Y-26.504 F400.000
G1 X-1.312 Y-26.620 F400.000
G1 X-1.011 Y-26.665 F400.000
G1 X-0.650 Y-26.650 F400.000
G1 X-0.350 Y-26.579 F400.000
G1 X-0.011 Y-26.417 F400.000
G1 X0.271 Y-26.192 F400.000
G1 X0.470 Y-25.966 F400.000
G1 X0.647 Y-25.650 F400.000
G1 X0.759 Y-25.301 F400.000
G1 X0.805 Y-24.940 F400.000
G1 X0.786 Y-24.639 F400.000
G1 X0.703 Y-24.278 F400.000
G1 X0.553 Y-23.932 F400.000
G1 X0.342 Y-23.624 F400.000
G1 X0.124 Y-23.398 F400.000
G1 X-0.169 Y-23.184 F400.000
G1 X-0.432 Y-23.049 F400.000
G1 X-0.827 Y-22.940 F400.000
G1 X-1.165 Y-22.917 F400.000
G1 X-1.504 Y-22.962 F400.000
G1 X-1.835 Y-23.075 F400.000
G1 X-2.135 Y-23.248 F400.000
G1 X-2.440 Y-23.511 F400.000
G1 X-2.711 Y-23.883 F400.000
G1 X-2.865 Y-24.252 F400.000
G1 X-2.944 Y-24.647 F400.000
G1 X-2.940 Y-25.041 F400.000
G1 X-2.868 Y-25.380 F400.000
G1 X-2.711 Y-25.759 F400.000
G1 X-2.515 Y-26.060 F400.000
G1 X-2.226 Y-26.365 F400.000
G1 X-2.034 Y-26.508 F400.000
G1 X-1.541 Y-26.744 F400.000
G1 X-1.241 Y-26.820 F400.000
G1 X-0.820 Y-26.853 F400.000
G1 X-0.519 Y-26.816 F400.000
G1 X-0.222 Y-26.726 F400.000
G1 X0.105 Y-26.553 F400.000
G1 X0.387 Y-26.331 F400.000
G1 X0.654 Y-26.008 F400.000
G1 X0.831 Y-25.684 F400.000
G1 X0.940 Y-25.335 F400.000
G1 X0.996 Y-24.914 F400.000
G1 X0.974 Y-24.553 F400.000
G1 X0.868 Y-24.132 F400.000
G1 X0.718 Y-23.789 F400.000
G1 X0.470 Y-23.429 F400.000
G1 X0.248 Y-23.207 F400.000
G1 X-0.056 Y-22.996 F400.000
G1 X-0.327 Y-22.880 F400.000
G1 X-0.553 Y-22.820 F400.000
G1 X-0.835 Y-22.782 F400.000
G1 X-1.117 Y-22.782 F400.000
G1 X-1.455 Y-22.827 F400.000
G1 X-1.737 Y-22.910 F400.000
G1 X-2.053 Y-23.045 F400.000
G1 X-2.297 Y-23.199 F400.000
G1 X-2.560 Y-23.425 F400.000
G1 X-2.752 Y-23.632 F400.000
G1 X-2.966 Y-23.970 F400.000
G1 X-3.079 Y-24.233 F400.000
G1 X-3.169 Y-24.684 F400.000
G1 X-3.180 Y-24.853 F400.000
G1 X-3.135 Y-25.248 F400.000
G1 X-2.955 Y-25.748 F400.000
G1 X-2.872 Y-25.906 F400.000
G1 X-2.628 Y-26.244 F400.000
G1 X-2.327 Y-26.534 F400.000
G1 X-1.921 Y-26.797 F400.000
G1 X-1.526 Y-26.955 F400.000
G1 X-1.105 Y-27.038 F400.000
G1 X-0.684 Y-27.041 F400.000
G1 X-0.383 Y-26.985 F400.000
G1 X0.019 Y-26.827 F400.000
G1 X0.323 Y-26.639 F400.000
G1 X0.628 Y-26.353 F400.000
G1 X0.842 Y-26.068 F400.000
G1 X0.985 Y-25.801 F400.000
G1 X1.094 Y-25.515 F400.000
G1 X1.165 Y-25.154 F400.000
G1 X1.180 Y-24.853 F400.000
G1 X1.158 Y-24.553 F400.000
G1 X1.105 Y-24.312 F400.000
G1 X1.015 Y-24.071 F400.000
G1 X0.861 Y-23.797 F400.000
G1 X0.673 Y-23.534 F400.000
G1 X0.293 Y-23.195 F400.000
G1 X0.241 Y-23.158 F400.000
G1 X0.241 Y-23.158 F400.000
G1 X0.117 Y-23.109 F400.000
G1 X0.026 Y-23.105 F400.000
G0 X0.000 Y-23.113
G0 X-2.872 Y-24.346
G1 X-2.906 Y-24.361 F400.000
G1 X-3.049 Y-24.432 F400.000
G1 X-3.135 Y-24.526 F400.000
G1 X-3.188 Y-24.647 F400.000
G1 X-3.188 Y-24.647 F400.000
G1 X-3.218 Y-24.816 F400.000
G1 X-3.218 Y-25.154 F400.000
G1 X-3.158 Y-25.492 F400.000
G1 X-3.049 Y-25.827 F400.000
G1 X-2.861 Y-26.192 F400.000
G1 X-2.722 Y-26.387 F400.000
G1 X-2.372 Y-26.722 F400.000
G1 X-2.226 Y-26.835 F400.000
G1 X-1.906 Y-27.011 F400.000
G1 X-1.624 Y-27.124 F400.000
G1 X-1.203 Y-27.214 F400.000
G1 X-0.902 Y-27.218 F400.000
G1 X-0.481 Y-27.158 F400.000
G1 X-0.241 Y-27.083 F400.000
G1 X0.094 Y-26.929 F400.000
G1 X0.293 Y-26.805 F400.000
G1 X0.647 Y-26.489 F400.000
G1 X0.831 Y-26.248 F400.000
G1 X1.060 Y-25.823 F400.000
G1 X1.180 Y-25.417 F400.000
G1 X1.214 Y-25.177 F400.000
G1 X1.214 Y-24.876 F400.000
G1 X1.177 Y-24.575 F400.000
G1 X1.177 Y-24.575 F400.000
G1 X1.162 Y-24.560 F400.000
G0 X1.147 Y-24.553
G0 X1.132 Y-24.560
G1 X1.124 Y-24.571 F400.000
G1 X1.143 Y-24.594 F400.000
G1 X1.177 Y-24.594 F400.000
G1 X1.199 Y-24.568 F400.000
G1 X1.199 Y-24.568 F400.000
G1 X1.135 Y-24.323 F400.000
G1 X1.075 Y-24.147 F400.000
G1 X0.936 Y-23.865 F400.000
G1 X0.695 Y-23.526 F400.000
G1 X0.530 Y-23.361 F400.000
G1 X0.372 Y-23.226 F400.000
G1 X0.011 Y-22.996 F400.000
G1 X-0.177 Y-22.910 F400.000
G1 X-0.474 Y-22.808 F400.000
G1 X-0.695 Y-22.771 F400.000
G1 X-1.030 Y-22.752 F400.000
G1 X-1.466 Y-22.801 F400.000
G1 X-1.665 Y-22.857 F400.000
G1 X-1.996 Y-22.985 F400.000
G1 X-2.301 Y-23.169 F400.000
G1 X-2.519 Y-23.350 F400.000
G1 X-2.778 Y-23.624 F400.000
G1 X-2.910 Y-23.812 F400.000
G1 X-3.008 Y-23.989 F400.000
G1 X-3.094 Y-24.188 F400.000
G1 X-3.158 Y-24.383 F400.000
G1 X-3.218 Y-24.643 F400.000
G1 X-3.237 Y-24.759 F400.000
G1 X-3.248 Y-24.977 F400.000
G1 X-3.241 Y-25.180 F400.000
G1 X-3.177 Y-25.508 F400.000
G1 X-3.102 Y-25.771 F400.000
G1 X-3.011 Y-25.981 F400.000
G1 X-2.917 Y-26.162 F400.000
G1 X-2.778 Y-26.372 F400.000
G1 X-2.639 Y-26.534 F400.000
G1 X-2.477 Y-26.688 F400.000
G1 X-2.327 Y-26.812 F400.000
G1 X-2.026 Y-26.996 F400.000
G1 X-1.801 Y-27.098 F400.000
G1 X-1.669 Y-27.147 F400.000
G1 X-1.508 Y-27.188 F400.000
G1 X-1.195 Y-27.237 F400.000
G1 X-0.865 Y-27.244 F400.000
G1 X-0.748 Y-27.233 F400.000
G1 X-0.583 Y-27.203 F400.000
G1 X-0.233 Y-27.109 F400.000
G1 X-0.177 Y-27.086 F400.000
G1 X0.289 Y-26.838 F400.000
G1 X0.549 Y-26.617 F400.000
G1 X0.756 Y-26.402 F400.000
G1 X0.944 Y-26.113 F400.000
G1 X1.064 Y-25.872 F400.000
G1 X1.162 Y-25.602 F400.000
G1 X1.214 Y-25.387 F400.000
G1 X1.241 Y-25.154 F400.000
G1 X1.241 Y-24.936 F400.000
G1 X1.199 Y-24.568 F400.000
G1 X1.199 Y-24.568 F400.000
G0 Z5.000
(Helix to depth: -12.000000)
G0 Z5.000
G0 X-0.668 Y24.062 Z5.000
G0 X-0.668 Y24.062 Z3.000
G1 X-0.668 Y24.062 Z-6.000 F200.000
G1 X-0.668 Y24.062 Z-6.000 F200.000
G1 X-0.492 Y24.144 Z-6.017 F200.000
G1 X-0.335 Y24.259 Z-6.034 F200.000
G1 X-0.204 Y24.402 Z-6.052 F200.000
G1 X-0.104 Y24.568 Z-6.069 F200.000
G1 X-0.037 Y24.751 Z-6.086 F200.000
G1 X-0.008 Y24.942 Z-6.103 F200.000
G1 X-0.016 Y25.136 Z-6.120 F200.000
G1 X-0.062 Y25.325 Z-6.137 F200.000
G1 X-0.144 Y25.501 Z-6.155 F200.000
G1 X-0.259 Y25.657 Z-6.172 F200.000
G1 X-0.402 Y25.788 Z-6.189 F200.000
G1 X-0.568 Y25.889 Z-6.206 F200.000
G1 X-0.751 Y25.955 Z-6.223 F200.000
G1 X-0.942 Y25.985 Z-6.240 F200.000
G1 X-1.136 Y25.976 Z-6.258 F200.000
G1 X-1.325 Y25.930 Z-6.275 F200.000
G1 X-1.501 Y25.848 Z-6.292 F200.000
G1 X-1.657 Y25.733 Z-6.309 F200.000
G1 X-1.788 Y25.590 Z-6.326 F200.000
G1 X-1.889 Y25.424 Z-6.344 F200.000
G1 X-1.955 Y25.242 Z-6.361 F200.000
G1 X-1.985 Y25.050 Z-6.378 F200.000
G1 X-1.976 Y24.856 Z-6.395 F200.000
G1 X-1.930 Y24.668 Z-6.412 F200.000
G1 X-1.848 Y24.492 Z-6.429 F200.000
G1 X-1.733 Y24.335 Z-6.447 F200.000
G1 X-1.590 Y24.204 Z-6.464 F200.000
G1 X-1.424 Y24.104 Z-6.481 F200.000
G1 X-1.242 Y24.037 Z-6.498 F200.000
G1 X-1.050 Y24.008 Z-6.515 F200.000
G1 X-0.856 Y24.016 Z-6.533 F200.000
G1 X-0.668 Y24.062 Z-6.550 F200.000
G1 X-0.492 Y24.144 Z-6.567 F200.000
G1 X-0.335 Y24.259 Z-6.584 F200.000
G1 X-0.204 Y24.402 Z-6.601 F200.000
G1 X-0.104 Y24.568 Z-6.618 F200.000
G1 X-0.037 Y24.751 Z-6.636 F200.000
G1 X-0.008 Y24.942 Z-6.653 F200.000
G1 X-0.016 Y25.136 Z-6.670 F200.000
G1 X-0.062 Y25.325 Z-6.687 F200.000
G1 X-0.144 Y25.501 Z-6.704 F200.000
G1 X-0.259 Y25.657 Z-6.721 F200.000
G1 X-0.402 Y25.788 Z-6.739 F200.000
G1 X-0.568 Y25.889 Z-6.756 F200.000
G1 X-0.751 Y25.955 Z-6.773 F200.000
G1 X-0.942 Y25.985 Z-6.790 F200.000
G1 X-1.136 Y25.976 Z-6.807 F200.000
G1 X-1.325 Y25.930 Z-6.825 F200.000
G1 X-1.501 Y25.848 Z-6.842 F200.000
G1 X-1.657 Y25.733 Z-6.859 F200.000
G1 X-1.788 Y25.590 Z-6.876 F200.000
G1 X-1.889 Y25.424 Z-6.893 F200.000
G1 X-1.955 Y25.242 Z-6.910 F200.000
G1 X-1.985 Y25.050 Z-6.928 F200.000
G1 X-1.976 Y24.856 Z-6.945 F200.000
G1 X-1.930 Y24.668 Z-6.962 F200.000
G1 X-1.848 Y24.492 Z-6.979 F200.000
G1 X-1.733 Y24.335 Z-6.996 F200.000
G1 X-1.590 Y24.204 Z-7.014 F200.000
G1 X-1.424 Y24.104 Z-7.031 F200.000
G1 X-1.242 Y24.037 Z-7.048 F200.000
G1 X-1.050 Y24.008 Z-7.065 F200.000
G1 X-0.856 Y24.016 Z-7.082 F200.000
G1 X-0.668 Y24.062 Z-7.099 F200.000
G1 X-0.492 Y24.144 Z-7.117 F200.000
G1 X-0.335 Y24.259 Z-7.134 F200.000
G1 X-0.204 Y24.402 Z-7.151 F200.000
G1 X-0.104 Y24.568 Z-7.168 F200.000
G1 X-0.037 Y24.751 Z-7.185 F200.000
G1 X-0.008 Y24.942 Z-7.202 F200.000
G1 X-0.016 Y25.136 Z-7.220 F200.000
G1 X-0.062 Y25.325 Z-7.237 F200.000
G1 X-0.144 Y25.501 Z-7.254 F200.000
G1 X-0.259 Y25.657 Z-7.271 F200.000
G1 X-0.402 Y25.788 Z-7.288 F200.000
G1 X-0.568 Y25.889 Z-7.306 F200.000
G1 X-0.751 Y25.955 Z-7.323 F200.000
G1 X-0.942 Y25.985 Z-7.340 F200.000
G1 X-1.136 Y25.976 Z-7.357 F200.000
G1 X-1.325 Y25.930 Z-7.374 F200.000
G1 X-1.501 Y25.848 Z-7.391 F200.000
G1 X-1.657 Y25.733 Z-7.409 F200.000
G1 X-1.788 Y25.590 Z-7.426 F200.000
G1 X-1.889 Y25.424 Z-7.443 F200.000
G1 X-1.955 Y25.242 Z-7.460 F200.000
G1 X-1.985 Y25.050 Z-7.477 F200.000
G1 X-1.976 Y24.856 Z-7.495 F200.000
G1 X-1.930 Y24.668 Z-7.512 F200.000
G1 X-1.848 Y24.492 Z-7.529 F200.000
G1 X-1.733 Y24.335 Z-7.546 F200.000
G1 X-1.590 Y24.204 Z-7.563 F200.000
G1 X-1.424 Y24.104 Z-7.580 F200.000
G1 X-1.242 Y24.037 Z-7.598 F200.000
G1 X-1.050 Y24.008 Z-7.615 F200.000
G1 X-0.856 Y24.016 Z-7.632 F200.000
G1 X-0.668 Y24.062 Z-7.649 F200.000
G1 X-0.492 Y24.144 Z-7.666 F200.000
G1 X-0.335 Y24.259 Z-7.683 F200.000
G1 X-0.204 Y24.402 Z-7.701 F200.000
G1 X-0.104 Y24.568 Z-7.718 F200.000
G1 X-0.037 Y24.751 Z-7.735 F200.000
G1 X-0.008 Y24.942 Z-7.752 F200.000
G1 X-0.016 Y25.136 Z-7.769 F200.000
G1 X-0.062 Y25.325 Z-7.787 F200.000
G1 X-0.144 Y25.501 Z-7.804 F200.000
G1 X-0.259 Y25.657 Z-7.821 F200.000
G1 X-0.402 Y25.788 Z-7.838 F200.000
G1 X-0.568 Y25.889 Z-7.855 F200.000
G1 X-0.751 Y25.955 Z-7.872 F200.000
G1 X-0.942 Y25.985 Z-7.890 F200.000
G1 X-1.136 Y25.976 Z-7.907 F200.000
G1 X-1.325 Y25.930 Z-7.924 F200.000
G1 X-1.501 Y25.848 Z-7.941 F200.000
G1 X-1.657 Y25.733 Z-7.958 F200.000
G1 X-1.788 Y25.590 Z-7.976 F200.000
G1 X-1.889 Y25.424 Z-7.993 F200.000
G1 X-1.955 Y25.242 Z-8.010 F200.000
G1 X-1.985 Y25.050 Z-8.027 F200.000
G1 X-1.976 Y24.856 Z-8.044 F200.000
G1 X-1.930 Y24.668 Z-8.061 F200.000
G1 X-1.848 Y24.492 Z-8.079 F200.000
G1 X-1.733 Y24.335 Z-8.096 F200.000
G1 X-1.590 Y24.204 Z-8.113 F200.000
G1 X-1.424 Y24.104 Z-8.130 F200.000
G1 X-1.242 Y24.037 Z-8.147 F200.000
G1 X-1.050 Y24.008 Z-8.164 F200.000
G1 X-0.856 Y24.016 Z-8.182 F200.000
G1 X-0.668 Y24.062 Z-8.199 F200.000
G1 X-0.492 Y24.144 Z-8.216 F200.000
G1 X-0.335 Y24.259 Z-8.233 F200.000
G1 X-0.204 Y24.402 Z-8.250 F200.000
G1 X-0.104 Y24.568 Z-8.268 F200.000
G1 X-0.037 Y24.751 Z-8.285 F200.000
G1 X-0.008 Y24.942 Z-8.302 F200.000
G1 X-0.016 Y25.136 Z-8.319 F200.000
G1 X-0.062 Y25.325 Z-8.336 F200.000
G1 X-0.144 Y25.501 Z-8.353 F200.000
G1 X-0.259 Y25.657 Z-8.371 F200.000
G1 X-0.402 Y25.788 Z-8.388 F200.000
G1 X-0.568 Y25.889 Z-8.405 F200.000
G1 X-0.751 Y25.955 Z-8.422 F200.000
G1 X-0.942 Y25.985 Z-8.439 F200.000
G1 X-1.136 Y25.976 Z-8.457 F200.000
G1 X-1.325 Y25.930 Z-8.474 F200.000
G1 X-1.501 Y25.848 Z-8.491 F200.000
G1 X-1.657 Y25.733 Z-8.508 F200.000
G1 X-1.788 Y25.590 Z-8.525 F200.000
G1 X-1.889 Y25.424 Z-8.542 F200.000
G1 X-1.955 Y25.242 Z-8.560 F200.000
G1 X-1.985 Y25.050 Z-8.577 F200.000
G1 X-1.976 Y24.856 Z-8.594 F200.000
G1 X-1.930 Y24.668 Z-8.611 F200.000
G1 X-1.848 Y24.492 Z-8.628 F200.000
G1 X-1.733 Y24.335 Z-8.645 F200.000
G1 X-1.590 Y24.204 Z-8.663 F200.000
G1 X-1.424 Y24.104 Z-8.680 F200.000
G1 X-1.242 Y24.037 Z-8.697 F200.000
G1 X-1.050 Y24.008 Z-8.714 F200.000
G1 X-0.856 Y24.016 Z-8.731 F200.000
G1 X-0.668 Y24.062 Z-8.749 F200.000
G1 X-0.492 Y24.144 Z-8.766 F200.000
G1 X-0.335 Y24.259 Z-8.783 F200.000
G1 X-0.204 Y24.402 Z-8.800 F200.000
G1 X-0.104 Y24.568 Z-8.817 F200.000
G1 X-0.037 Y24.751 Z-8.834 F200.000
G1 X-0.008 Y24.942 Z-8.852 F200.000
G1 X-0.016 Y25.136 Z-8.869 F200.000
G1 X-0.062 Y25.325 Z-8.886 F200.000
G1 X-0.144 Y25.501 Z-8.903 F200.000
G1 X-0.259 Y25.657 Z-8.920 F200.000
G1 X-0.402 Y25.788 Z-8.937 F200.000
G1 X-0.568 Y25.889 Z-8.955 F200.000
G1 X-0.751 Y25.955 Z-8.972 F200.000
G1 X-0.942 Y25.985 Z-8.989 F200.000
G1 X-1.136 Y25.976 Z-9.006 F200.000
G1 X-1.325 Y25.930 Z-9.023 F200.000
G1 X-1.501 Y25.848 Z-9.041 F200.000
G1 X-1.657 Y25.733 Z-9.058 F200.000
G1 X-1.788 Y25.590 Z-9.075 F200.000
G1 X-1.889 Y25.424 Z-9.092 F200.000
G1 X-1.955 Y25.242 Z-9.109 F200.000
G1 X-1.985 Y25.050 Z-9.126 F200.000
G1 X-1.976 Y24.856 Z-9.144 F200.000
G1 X-1.930 Y24.668 Z-9.161 F200.000
G1 X-1.848 Y24.492 Z-9.178 F200.000
G1 X-1.733 Y24.335 Z-9.195 F200.000
G1 X-1.590 Y24.204 Z-9.212 F200.000
G1 X-1.424 Y24.104 Z-9.230 F200.000
G1 X-1.242 Y24.037 Z-9.247 F200.000
G1 X-1.050 Y24.008 Z-9.264 F200.000
G1 X-0.856 Y24.016 Z-9.281 F200.000
G1 X-0.668 Y24.062 Z-9.298 F200.000
G1 X-0.492 Y24.144 Z-9.315 F200.000
G1 X-0.335 Y24.259 Z-9.333 F200.000
G1 X-0.204 Y24.402 Z-9.350 F200.000
G1 X-0.104 Y24.568 Z-9.367 F200.000
G1 X-0.037 Y24.751 Z-9.384 F200.000
G1 X-0.008 Y24.942 Z-9.401 F200.000
G1 X-0.016 Y25.136 Z-9.418 F200.000
G1 X-0.062 Y25.325 Z-9.436 F200.000
G1 X-0.144 Y25.501 Z-9.453 F200.000
G1 X-0.259 Y25.657 Z-9.470 F200.000
G1 X-0.402 Y25.788 Z-9.487 F200.000
G1 X-0.568 Y25.889 Z-9.504 F200.000
G1 X-0.751 Y25.955 Z-9.522 F200.000
G1 X-0.942 Y25.985 Z-9.539 F200.000
G1 X-1.136 Y25.976 Z-9.556 F200.000
G1 X-1.325 Y25.930 Z-9.573 F200.000
G1 X-1.501 Y25.848 Z-9.590 F200.000
G1 X-1.657 Y25.733 Z-9.607 F200.000
G1 X-1.788 Y25.590 Z-9.625 F200.000
G1 X-1.889 Y25.424 Z-9.642 F200.000
G1 X-1.955 Y25.242 Z-9.659 F200.000
G1 X-1.985 Y25.050 Z-9.676 F200.000
G1 X-1.976 Y24.856 Z-9.693 F200.000
G1 X-1.930 Y24.668 Z-9.711 F200.000
G1 X-1.848 Y24.492 Z-9.728 F200.000
G1 X-1.733 Y24.335 Z-9.745 F200.000
G1 X-1.590 Y24.204 Z-9.762 F200.000
G1 X-1.424 Y24.104 Z-9.779 F200.000
G1 X-1.242 Y24.037 Z-9.796 F200.000
G1 X-1.050 Y24.008 Z-9.814 F200.000
G1 X-0.856 Y24.016 Z-9.831 F200.000
G1 X-0.668 Y24.062 Z-9.848 F200.000
G1 X-0.492 Y24.144 Z-9.865 F200.000
G1 X-0.335 Y24.259 Z-9.882 F200.000
G1 X-0.204 Y24.402 Z-9.899 F200.000
G1 X-0.104 Y24.568 Z-9.917 F200.000
G1 X-0.037 Y24.751 Z-9.934 F200.000
G1 X-0.008 Y24.942 Z-9.951 F200.000
G1 X-0.016 Y25.136 Z-9.968 F200.000
G1 X-0.062 Y25.325 Z-9.985 F200.000
G1 X-0.144 Y25.501 Z-10.003 F200.000
G1 X-0.259 Y25.657 Z-10.020 F200.000
G1 X-0.402 Y25.788 Z-10.037 F200.000
G1 X-0.568 Y25.889 Z-10.054 F200.000
G1 X-0.751 Y25.955 Z-10.071 F200.000
G1 X-0.942 Y25.985 Z-10.088 F200.000
G1 X-1.136 Y25.976 Z-10.106 F200.000
G1 X-1.325 Y25.930 Z-10.123 F200.000
G1 X-1.501 Y25.848 Z-10.140 F200.000
G1 X-1.657 Y25.733 Z-10.157 F200.000
G1 X-1.788 Y25.590 Z-10.174 F200.000
G1 X-1.889 Y25.424 Z-10.192 F200.000
G1 X-1.955 Y25.242 Z-10.209 F200.000
G1 X-1.985 Y25.050 Z-10.226 F200.000
G1 X-1.976 Y24.856 Z-10.243 F200.000
G1 X-1.930 Y24.668 Z-10.260 F200.000
G1 X-1.848 Y24.492 Z-10.277 F200.000
G1 X-1.733 Y24.335 Z-10.295 F200.000
G1 X-1.590 Y24.204 Z-10.312 F200.000
G1 X-1.424 Y24.104 Z-10.329 F200.000
G1 X-1.242 Y24.037 Z-10.346 F200.000
G1 X-1.050 Y24.008 Z-10.363 F200.000
G1 X-0.856 Y24.016 Z-10.380 F200.000
G1 X-0.668 Y24.062 Z-10.398 F200.000
G1 X-0.492 Y24.144 Z-10.415 F200.000
G1 X-0.335 Y24.259 Z-10.432 F200.000
G1 X-0.204 Y24.402 Z-10.449 F200.000
G1 X-0.104 Y24.568 Z-10.466 F200.000
G1 X-0.037 Y24.751 Z-10.484 F200.000
G1 X-0.008 Y24.942 Z-10.501 F200.000
G1 X-0.016 Y25.136 Z-10.518 F200.000
G1 X-0.062 Y25.325 Z-10.535 F200.000
G1 X-0.144 Y25.501 Z-10.552 F200.000
G1 X-0.259 Y25.657 Z-10.569 F200.000
G1 X-0.402 Y25.788 Z-10.587 F200.000
G1 X-0.568 Y25.889 Z-10.604 F200.000
G1 X-0.751 Y25.955 Z-10.621 F200.000
G1 X-0.942 Y25.985 Z-10.638 F200.000
G1 X-1.136 Y25.976 Z-10.655 F200.000
G1 X-1.325 Y25.930 Z-10.673 F200.000
G1 X-1.501 Y25.848 Z-10.690 F200.000
G1 X-1.657 Y25.733 Z-10.707 F200.000
G1 X-1.788 Y25.590 Z-10.724 F200.000
G1 X-1.889 Y25.424 Z-10.741 F200.000
G1 X-1.955 Y25.242 Z-10.758 F200.000
G1 X-1.985 Y25.050 Z-10.776 F200.000
G1 X-1.976 Y24.856 Z-10.793 F200.000
G1 X-1.930 Y24.668 Z-10.810 F200.000
G1 X-1.848 Y24.492 Z-10.827 F200.000
G1 X-1.733 Y24.335 Z-10.844 F200.000
G1 X-1.590 Y24.204 Z-10.861 F200.000
G1 X-1.424 Y24.104 Z-10.879 F200.000
G1 X-1.242 Y24.037 Z-10.896 F200.000
G1 X-1.050 Y24.008 Z-10.913 F200.000
G1 X-0.856 Y24.016 Z-10.930 F200.000
G1 X-0.668 Y24.062 Z-10.947 F200.000
G1 X-0.492 Y24.144 Z-10.965 F200.000
G1 X-0.335 Y24.259 Z-10.982 F200.000
G1 X-0.204 Y24.402 Z-10.999 F200.000
G1 X-0.104 Y24.568 Z-11.016 F200.000
G1 X-0.037 Y24.751 Z-11.033 F200.000
G1 X-0.008 Y24.942 Z-11.050 F200.000
G1 X-0.016 Y25.136 Z-11.068 F200.000
G1 X-0.062 Y25.325 Z-11.085 F200.000
G1 X-0.144 Y25.501 Z-11.102 F200.000
G1 X-0.259 Y25.657 Z-11.119 F200.000
G1 X-0.402 Y25.788 Z-11.136 F200.000
G1 X-0.568 Y25.889 Z-11.154 F200.000
G1 X-0.751 Y25.955 Z-11.171 F200.000
G1 X-0.942 Y25.985 Z-11.188 F200.000
G1 X-1.136 Y25.976 Z-11.205 F200.000
G1 X-1.325 Y25.930 Z-11.222 F200.000
G1 X-1.501 Y25.848 Z-11.239 F200.000
G1 X-1.657 Y25.733 Z-11.257 F200.000
G1 X-1.788 Y25.590 Z-11.274 F200.000
G1 X-1.889 Y25.424 Z-11.291 F200.000
G1 X-1.955 Y25.242 Z-11.308 F200.000
G1 X-1.985 Y25.050 Z-11.325 F200.000
G1 X-1.976 Y24.856 Z-11.342 F200.000
G1 X-1.930 Y24.668 Z-11.360 F200.000
G1 X-1.848 Y24.492 Z-11.377 F200.000
G1 X-1.733 Y24.335 Z-11.394 F200.000
G1 X-1.590 Y24.204 Z-11.411 F200.000
G1 X-1.424 Y24.104 Z-11.428 F200.000
G1 X-1.242 Y24.037 Z-11.446 F200.000
G1 X-1.050 Y24.008 Z-11.463 F200.000
G1 X-0.856 Y24.016 Z-11.480 F200.000
G1 X-0.668 Y24.062 Z-11.497 F200.000
G1 X-0.492 Y24.144 Z-11.514 F200.000
G1 X-0.335 Y24.259 Z-11.531 F200.000
G1 X-0.204 Y24.402 Z-11.549 F200.000
G1 X-0.104 Y24.568 Z-11.566 F200.000
G1 X-0.037 Y24.751 Z-11.583 F200.000
G1 X-0.008 Y24.942 Z-11.600 F200.000
G1 X-0.016 Y25.136 Z-11.617 F200.000
G1 X-0.062 Y25.325 Z-11.635 F200.000
G1 X-0.144 Y25.501 Z-11.652 F200.000
G1 X-0.259 Y25.657 Z-11.669 F200.000
G1 X-0.402 Y25.788 Z-11.686 F200.000
G1 X-0.568 Y25.889 Z-11.703 F200.000
G1 X-0.751 Y25.955 Z-11.720 F200.000
G1 X-0.942 Y25.985 Z-11.738 F200.000
G1 X-1.136 Y25.976 Z-11.755 F200.000
G1 X-1.325 Y25.930 Z-11.772 F200.000
G1 X-1.501 Y25.848 Z-11.789 F200.000
G1 X-1.657 Y25.733 Z-11.806 F200.000
G1 X-1.788 Y25.590 Z-11.823 F200.000
G1 X-1.889 Y25.424 Z-11.841 F200.000
G1 X-1.955 Y25.242 Z-11.858 F200.000
G1 X-1.985 Y25.050 Z-11.875 F200.000
G1 X-1.976 Y24.856 Z-11.892 F200.000
G1 X-1.930 Y24.668 Z-11.909 F200.000
G1 X-1.848 Y24.492 Z-11.927 F200.000
G1 X-1.733 Y24.335 Z-11.944 F200.000
G1 X-1.590 Y24.204 Z-11.961 F200.000
G1 X-1.424 Y24.104 Z-11.978 F200.000
G1 X-1.242 Y24.037 Z-11.995 F200.000
G1 X-1.050 Y24.008 Z-12.000 F400.000
G1 X-0.856 Y24.016 Z-12.000 F400.000
G1 X-0.668 Y24.062 Z-12.000 F400.000
G1 X-0.492 Y24.144 Z-12.000 F400.000
G1 X-0.335 Y24.259 Z-12.000 F400.000
G1 X-0.204 Y24.402 Z-12.000 F400.000
G1 X-0.104 Y24.568 Z-12.000 F400.000
G1 X-0.037 Y24.751 Z-12.000 F400.000
G1 X-0.008 Y24.942 Z-12.000 F400.000
G1 X-0.016 Y25.136 Z-12.000 F400.000
G1 X-0.062 Y25.325 Z-12.000 F400.000
G1 X-0.144 Y25.501 Z-12.000 F400.000
G1 X-0.259 Y25.657 Z-12.000 F400.000
G1 X-0.402 Y25.788 Z-12.000 F400.000
G1 X-0.568 Y25.889 Z-12.000 F400.000
G1 X-0.751 Y25.955 Z-12.000 F400.000
G1 X-0.942 Y25.985 Z-12.000 F400.000
G1 X-1.136 Y25.976 Z-12.000 F400.000
G1 X-1.325 Y25.930 Z-12.000 F400.000
G1 X-1.501 Y25.848 Z-12.000 F400.000
G1 X-1.657 Y25.733 Z-12.000 F400.000
G1 X-1.788 Y25.590 Z-12.000 F400.000
G1 X-1.889 Y25.424 Z-12.000 F400.000
G1 X-1.955 Y25.242 Z-12.000 F400.000
G1 X-1.985 Y25.050 Z-12.000 F400.000
G1 X-1.976 Y24.856 Z-12.000 F400.000
G1 X-1.930 Y24.668 Z-12.000 F400.000
G1 X-1.848 Y24.492 Z-12.000 F400.000
G1 X-1.733 Y24.335 Z-12.000 F400.000
G1 X-1.590 Y24.204 Z-12.000 F400.000
G1 X-1.424 Y24.104 Z-12.000 F400.000
G1 X-1.242 Y24.037 Z-12.000 F400.000
(Adaptive - depth: -12.000000)
G1 X-0.996 Y23.996 F400.000
G1 X-0.940 Y23.966 F400.000
G1 X-0.820 Y23.944 F400.000
G1 X-0.699 Y23.947 F400.000
G1 X-0.519 Y23.989 F400.000
G1 X-0.353 Y24.068 F400.000
G1 X-0.252 Y24.139 F400.000
G1 X0.056 Y24.508 F400.000
G1 X0.132 Y24.729 F400.000
G1 X0.150 Y24.842 F400.000
G1 X0.158 Y24.966 F400.000
G1 X0.150 Y25.147 F400.000
G1 X0.086 Y25.398 F400.000
G1 X0.004 Y25.575 F400.000
G1 X-0.086 Y25.707 F400.000
G1 X-0.192 Y25.823 F400.000
G1 X-0.335 Y25.940 F400.000
G1 X-0.500 Y26.038 F400.000
G1 X-0.684 Y26.109 F400.000
G1 X-0.872 Y26.147 F400.000
G1 X-1.053 Y26.154 F400.000
G1 X-1.241 Y26.128 F400.000
G1 X-1.410 Y26.075 F400.000
G1 X-1.568 Y26.000 F400.000
G1 X-1.729 Y25.891 F400.000
G1 X-1.872 Y25.756 F400.000
G1 X-1.981 Y25.602 F400.000
G1 X-2.060 Y25.451 F400.000
G1 X-2.117 Y25.274 F400.000
G1 X-2.147 Y25.094 F400.000
G1 X-2.147 Y24.898 F400.000
G1 X-2.117 Y24.711 F400.000
G1 X-2.053 Y24.530 F400.000
G1 X-1.970 Y24.376 F400.000
G1 X-1.861 Y24.229 F400.000
G1 X-1.726 Y24.098 F400.000
G1 X-1.519 Y23.955 F400.000
G1 X-1.233 Y23.823 F400.000
G1 X-0.992 Y23.763 F400.000
G1 X-0.812 Y23.752 F400.000
G1 X-0.632 Y23.774 F400.000
G1 X-0.455 Y23.827 F400.000
G1 X-0.241 Y23.940 F400.000
G1 X0.113 Y24.263 F400.000
G1 X0.263 Y24.553 F400.000
G1 X0.301 Y24.673 F400.000
G1 X0.323 Y24.797 F400.000
G1 X0.335 Y24.962 F400.000
G1 X0.320 Y25.207 F400.000
G1 X0.259 Y25.444 F400.000
G1 X0.180 Y25.617 F400.000
G1 X0.090 Y25.759 F400.000
G1 X-0.030 Y25.910 F400.000
G1 X-0.184 Y26.049 F400.000
G1 X-0.353 Y26.158 F400.000
G1 X-0.530 Y26.241 F400.000
G1 X-0.722 Y26.297 F400.000
G1 X-0.917 Y26.323 F400.000
G1 X-1.113 Y26.320 F400.000
G1 X-1.308 Y26.286 F400.000
G1 X-1.496 Y26.229 F400.000
G1 X-1.692 Y26.135 F400.000
G1 X-1.857 Y26.011 F400.000
G1 X-1.985 Y25.887 F400.000
G1 X-2.105 Y25.726 F400.000
G1 X-2.199 Y25.556 F400.000
G1 X-2.274 Y25.357 F400.000
G1 X-2.316 Y25.162 F400.000
G1 X-2.327 Y24.962 F400.000
G1 X-2.308 Y24.771 F400.000
G1 X-2.259 Y24.575 F400.000
G1 X-2.184 Y24.391 F400.000
G1 X-2.083 Y24.222 F400.000
G1 X-1.959 Y24.068 F400.000
G1 X-1.801 Y23.914 F400.000
G1 X-1.568 Y23.748 F400.000
G1 X-1.278 Y23.620 F400.000
G1 X-0.977 Y23.556 F400.000
G1 X-0.737 Y23.556 F400.000
G1 X-0.556 Y23.590 F400.000
G1 X-0.214 Y23.726 F400.000
G1 X-0.011 Y23.857 F400.000
G1 X0.195 Y24.056 F400.000
G1 X0.357 Y24.293 F400.000
G1 X0.444 Y24.508 F400.000
G1 X0.511 Y24.846 F400.000
G1 X0.508 Y25.128 F400.000
G1 X0.462 Y25.353 F400.000
G1 X0.327 Y25.680 F400.000
G1 X0.124 Y25.974 F400.000
G1 X-0.045 Y26.139 F400.000
G1 X-0.233 Y26.271 F400.000
G1 X-0.549 Y26.414 F400.000
G1 X-0.831 Y26.474 F400.000
G1 X-1.169 Y26.477 F400.000
G1 X-1.338 Y26.455 F400.000
G1 X-1.617 Y26.361 F400.000
G1 X-1.872 Y26.207 F400.000
G1 X-2.090 Y26.004 F400.000
G1 X-2.237 Y25.808 F400.000
G1 X-2.395 Y25.481 F400.000
G1 X-2.459 Y25.244 F400.000
G1 X-2.477 Y24.944 F400.000
G1 X-2.440 Y24.643 F400.000
G1 X-2.342 Y24.346 F400.000
G1 X-2.192 Y24.071 F400.000
G1 X-1.947 Y23.786 F400.000
G1 X-1.703 Y23.590 F400.000
G1 X-1.485 Y23.470 F400.000
G1 X-1.252 Y23.383 F400.000
G1 X-1.011 Y23.338 F400.000
G1 X-0.711 Y23.338 F400.000
G1 X-0.470 Y23.383 F400.000
G1 X-0.184 Y23.489 F400.000
G1 X0.117 Y23.673 F400.000
G1 X0.327 Y23.868 F400.000
G1 X0.523 Y24.154 F400.000
G1 X0.632 Y24.421 F400.000
G1 X0.699 Y24.759 F400.000
G1 X0.695 Y25.098 F400.000
G1 X0.643 Y25.380 F400.000
G1 X0.541 Y25.654 F400.000
G1 X0.459 Y25.812 F400.000
G1 X0.282 Y26.053 F400.000
G1 X0.068 Y26.259 F400.000
G1 X-0.222 Y26.451 F400.000
G1 X-0.545 Y26.583 F400.000
G1 X-0.883 Y26.650 F400.000
G1 X-1.165 Y26.654 F400.000
G1 X-1.504 Y26.590 F400.000
G1 X-1.774 Y26.474 F400.000
G1 X-2.064 Y26.267 F400.000
G1 X-2.308 Y26.000 F400.000
G1 X-2.466 Y25.744 F400.000
G1 X-2.541 Y25.575 F400.000
G1 X-2.620 Y25.274 F400.000
G1 X-2.647 Y24.914 F400.000
G1 X-2.602 Y24.553 F400.000
G1 X-2.504 Y24.256 F400.000
G1 X-2.391 Y24.030 F400.000
G1 X-2.169 Y23.726 F400.000
G1 X-1.898 Y23.466 F400.000
G1 X-1.692 Y23.323 F400.000
G1 X-1.406 Y23.195 F400.000
G1 X-1.105 Y23.117 F400.000
G1 X-0.805 Y23.094 F400.000
G1 X-0.504 Y23.128 F400.000
G1 X-0.154 Y23.237 F400.000
G1 X0.158 Y23.402 F400.000
G1 X0.421 Y23.624 F400.000
G1 X0.602 Y23.846 F400.000
G1 X0.744 Y24.094 F400.000
G1 X0.861 Y24.421 F400.000
G1 X0.917 Y24.816 F400.000
G1 X0.887 Y25.211 F400.000
G1 X0.801 Y25.549 F400.000
G1 X0.617 Y25.917 F400.000
G1 X0.353 Y26.248 F400.000
G1 X0.128 Y26.444 F400.000
G1 X-0.218 Y26.654 F400.000
G1 X-0.485 Y26.759 F400.000
G1 X-0.880 Y26.835 F400.000
G1 X-1.274 Y26.831 F400.000
G1 X-1.556 Y26.771 F400.000
G1 X-1.827 Y26.654 F400.000
G1 X-2.079 Y26.496 F400.000
G1 X-2.259 Y26.338 F400.000
G1 X-2.489 Y26.056 F400.000
G1 X-2.662 Y25.729 F400.000
G1 X-2.767 Y25.440 F400.000
G1 X-2.823 Y25.139 F400.000
G1 X-2.827 Y24.778 F400.000
G1 X-2.767 Y24.417 F400.000
G1 X-2.609 Y24.008 F400.000
G1 X-2.414 Y23.684 F400.000
G1 X-2.169 Y23.402 F400.000
G1 X-1.929 Y23.207 F400.000
G1 X-1.602 Y23.019 F400.000
G1 X-1.188 Y22.891 F400.000
G1 X-0.827 Y22.850 F400.000
G1 X-0.406 Y22.895 F400.000
G1 X0.102 Y23.075 F400.000
G1 X0.297 Y23.195 F400.000
G1 X0.643 Y23.504 F400.000
G1 X0.936 Y23.925 F400.000
G1 X1.071 Y24.241 F400.000
G1 X1.154 Y24.635 F400.000
G1 X1.154 Y25.030 F400.000
G1 X1.075 Y25.425 F400.000
G1 X0.891 Y25.861 F400.000
G1 X0.695 Y26.162 F400.000
G1 X0.406 Y26.466 F400.000
G1 X0.068 Y26.718 F400.000
G1 X-0.297 Y26.898 F400.000
G1 X-0.744 Y27.015 F400.000
G1 X-1.083 Y27.038 F400.000
G1 X-1.477 Y26.992 F400.000
G1 X-1.816 Y26.880 F400.000
G1 X-2.173 Y26.669 F400.000
G1 X-2.477 Y26.383 F400.000
G1 X-2.756 Y25.981 F400.000
G1 X-2.883 Y25.707 F400.000
G1 X-2.974 Y25.414 F400.000
G1 X-3.030 Y24.932 F400.000
G1 X-3.004 Y24.571 F400.000
G1 X-2.876 Y24.090 F400.000
G1 X-2.688 Y23.695 F400.000
G1 X-2.462 Y23.391 F400.000
G1 X-2.241 Y23.173 F400.000
G1 X-2.143 Y23.098 F400.000
G1 X-1.981 Y23.008 F400.000
G1 X-1.639 Y22.868 F400.000
G1 X-1.398 Y22.808 F400.000
G1 X-0.917 Y22.778 F400.000
G1 X-0.496 Y22.835 F400.000
G1 X-0.496 Y22.835 F400.000
G1 X-0.432 Y22.853 F400.000
G0 Z5.000
G0 X-0.432 Y22.853
G0 X-0.496 Y22.835
G1 Z-12.000 F200.000
G1 X-0.496 Y22.835 F400.000
G1 X-0.436 Y22.850 F400.000
G1 X-0.436 Y22.850 F400.000
G1 X-0.256 Y22.906 F400.000
G1 X-0.256 Y22.906 F400.000
G1 X-0.150 Y22.974 F400.000
G1 X-0.094 Y23.049 F400.000
G0 X-0.079 Y23.075
G0 X0.083 Y23.447
G0 X0.639 Y24.060
G0 X0.850 Y24.180
G1 X0.876 Y24.192 F400.000
G1 X1.038 Y24.286 F400.000
G1 X1.117 Y24.387 F400.000
G1 X1.154 Y24.481 F400.000
G1 X1.154 Y24.481 F400.000
G1 X1.214 Y24.876 F400.000
G1 X1.214 Y25.102 F400.000
G1 X1.173 Y25.440 F400.000
G1 X1.004 Y25.947 F400.000
G1 X0.925 Y26.105 F400.000
G1 X0.639 Y26.492 F400.000
G1 X0.226 Y26.842 F400.000
G1 X0.015 Y26.966 F400.000
G1 X-0.353 Y27.120 F400.000
G1 X-0.805 Y27.211 F400.000
G1 X-1.143 Y27.211 F400.000
G1 X-1.481 Y27.162 F400.000
G1 X-1.763 Y27.079 F400.000
G1 X-2.177 Y26.868 F400.000
G1 X-2.549 Y26.568 F400.000
G1 X-2.748 Y26.342 F400.000
G1 X-2.940 Y26.034 F400.000
G1 X-3.135 Y25.519 F400.000
G1 X-3.207 Y25.158 F400.000
G1 X-3.211 Y24.797 F400.000
G1 X-3.139 Y24.436 F400.000
G1 X-3.090 Y24.256 F400.000
G1 X-2.902 Y23.861 F400.000
G1 X-2.726 Y23.602 F400.000
G1 X-2.508 Y23.372 F400.000
G1 X-2.410 Y23.289 F400.000
G1 X-2.406 Y23.289 F400.000
G1 X-2.289 Y23.222 F400.000
G1 X-2.229 Y23.211 F400.000
G1 X-2.207 Y23.214 F400.000
G0 X-2.192 Y23.222
G0 X-2.188 Y23.316
G0 X-2.695 Y26.030
G1 X-2.703 Y26.068 F400.000
G1 X-2.726 Y26.158 F400.000
G1 X-2.752 Y26.192 F400.000
G1 X-2.797 Y26.192 F400.000
G1 X-2.895 Y26.128 F400.000
G1 X-2.940 Y26.083 F400.000
G1 X-2.940 Y26.083 F400.000
G1 X-3.068 Y25.805 F400.000
G1 X-3.143 Y25.579 F400.000
G1 X-3.214 Y25.218 F400.000
G1 X-3.218 Y25.158 F400.000
G1 X-3.218 Y25.158 F400.000
G1 X-3.211 Y25.139 F400.000
G0 X-3.199 Y25.135
G0 X-3.165 Y25.154
G0 X-3.158 Y25.173
G1 X-3.158 Y25.195 F400.000
G1 X-3.180 Y25.241 F400.000
G1 X-3.211 Y25.252 F400.000
G1 X-3.237 Y25.237 F400.000
G1 X-3.237 Y25.237 F400.000
G1 X-3.248 Y25.019 F400.000
G1 X-3.241 Y24.816 F400.000
G1 X-3.177 Y24.489 F400.000
G1 X-3.102 Y24.226 F400.000
G1 X-3.011 Y24.015 F400.000
G1 X-2.917 Y23.835 F400.000
G1 X-2.778 Y23.624 F400.000
G1 X-2.639 Y23.462 F400.000
G1 X-2.477 Y23.308 F400.000
G1 X-2.327 Y23.184 F400.000
G1 X-2.026 Y23.000 F400.000
G1 X-1.801 Y22.898 F400.000
G1 X-1.669 Y22.850 F400.000
G1 X-1.508 Y22.808 F400.000
G1 X-1.195 Y22.759 F400.000
G1 X-0.865 Y22.752 F400.000
G1 X-0.748 Y22.763 F400.000
G1 X-0.583 Y22.793 F400.000
G1 X-0.233 Y22.887 F400.000
G1 X-0.177 Y22.910 F400.000
G1 X0.289 Y23.158 F400.000
G1 X0.549 Y23.380 F400.000
G1 X0.756 Y23.594 F400.000
G1 X0.944 Y23.883 F400.000
G1 X1.064 Y24.124 F400.000
G1 X1.162 Y24.395 F400.000
G1 X1.207 Y24.579 F400.000
G1 X1.241 Y24.805 F400.000
G1 X1.241 Y25.060 F400.000
G1 X1.199 Y25.429 F400.000
G1 X1.135 Y25.673 F400.000
G1 X1.075 Y25.850 F400.000
G1 X0.936 Y26.132 F400.000
G1 X0.695 Y26.470 F400.000
G1 X0.530 Y26.635 F400.000
G1 X0.372 Y26.771 F400.000
G1 X0.011 Y27.000 F400.000
G1 X-0.177 Y27.086 F400.000
G1 X-0.474 Y27.188 F400.000
G1 X-0.695 Y27.226 F400.000
G1 X-1.030 Y27.244 F400.000
G1 X-1.466 Y27.195 F400.000
G1 X-1.665 Y27.139 F400.000
G1 X-1.996 Y27.011 F400.000
G1 X-2.301 Y26.827 F400.000
G1 X-2.519 Y26.647 F400.000
G1 X-2.778 Y26.372 F400.000
G1 X-2.910 Y26.184 F400.000
G1 X-3.008 Y26.008 F400.000
G1 X-3.094 Y25.808 F400.000
G1 X-3.158 Y25.613 F400.000
G1 X-3.218 Y25.353 F400.000
G1 X-3.237 Y25.237 F400.000
G1 X-3.237 Y25.237 F400.000
G0 Z5.000
(Helix to depth: -12.000000)
G0 Z5.000
G0 X-0.668 Y-25.930 Z5.000
G0 X-0.668 Y-25.930 Z3.000
G1 X-0.668 Y-25.930 Z-6.000 F200.000
G1 X-0.668 Y-25.930 Z-6.000 F200.000
G1 X-0.492 Y-25.848 Z-6.017 F200.000
G1 X-0.335 Y-25.733 Z-6.034 F200.000
G1 X-0.204 Y-25.590 Z-6.052 F200.000
G1 X-0.104 Y-25.424 Z-6.069 F200.000
G1 X-0.037 Y-25.242 Z-6.086 F200.000
G1 X-0.008 Y-25.050 Z-6.103 F200.000
G1 X-0.016 Y-24.856 Z-6.120 F200.000
G1 X-0.062 Y-24.668 Z-6.137 F200.000
G1 X-0.144 Y-24.492 Z-6.155 F200.000
G1 X-0.259 Y-24.335 Z-6.172 F200.000
G1 X-0.402 Y-24.204 Z-6.189 F200.000
G1 X-0.568 Y-24.104 Z-6.206 F200.000
G1 X-0.751 Y-24.037 Z-6.223 F200.000
G1 X-0.942 Y-24.008 Z-6.240 F200.000
G1 X-1.136 Y-24.016 Z-6.258 F200.000
G1 X-1.325 Y-24.062 Z-6.275 F200.000
G1 X-1.501 Y-24.144 Z-6.292 F200.000
G1 X-1.657 Y-24.259 Z-6.309 F200.000
G1 X-1.788 Y-24.402 Z-6.326 F200.000
G1 X-1.889 Y-24.568 Z-6.344 F200.000
G1 X-1.955 Y-24.751 Z-6.361 F200.000
G1 X-1.985 Y-24.942 Z-6.378 F200.000
G1 X-1.976 Y-25.136 Z-6.395 F200.000
G1 X-1.930 Y-25.325 Z-6.412 F200.000
G1 X-1.848 Y-25.501 Z-6.429 F200.000
G1 X-1.733 Y-25.657 Z-6.447 F200.000
G1 X-1.590 Y-25.788 Z-6.464 F200.000
G1 X-1.424 Y-25.889 Z-6.481 F200.000
G1 X-1.242 Y-25.955 Z-6.498 F200.000
G1 X-1.050 Y-25.985 Z-6.515 F200.000
G1 X-0.856 Y-25.976 Z-6.533 F200.000
G1 X-0.668 Y-25.930 Z-6.550 F200.000
G1 X-0.492 Y-25.848 Z-6.567 F200.000
G1 X-0.335 Y-25.733 Z-6.584 F200.000
G1 X-0.204 Y-25.590 Z-6.601 F200.000
G1 X-0.104 Y-25.424 Z-6.618 F200.000
G1 X-0.037 Y-25.242 Z-6.636 F200.000
G1 X-0.008 Y-25.050 Z-6.653 F200.000
G1 X-0.016 Y-24.856 Z-6.670 F200.000
G1 X-0.062 Y-24.668 Z-6.687 F200.000
G1 X-0.144 Y-24.492 Z-6.704 F200.000
G1 X-0.259 Y-24.335 Z-6.721 F200.000
G1 X-0.402 Y-24.204 Z-6.739 F200.000
G1 X-0.568 Y-24.104 Z-6.756 F200.000
G1 X-0.751 Y-24.037 Z-6.773 F200.000
G1 X-0.942 Y-24.008 Z-6.790 F200.000
G1 X-1.136 Y-24.016 Z-6.807 F200.000
G1 X-1.325 Y-24.062 Z-6.825 F200.000
G1 X-1.501 Y-24.144 Z-6.842 F200.000
G1 X-1.657 Y-24.259 Z-6.859 F200.000
G1 X-1.788 Y-24.402 Z-6.876 F200.000
G1 X-1.889 Y-24.568 Z-6.893 F200.000
G1 X-1.955 Y-24.751 Z-6.910 F200.000
G1 X-1.985 Y-24.942 Z-6.928 F200.000
G1 X-1.976 Y-25.136 Z-6.945 F200.000
G1 X-1.930 Y-25.325 Z-6.962 F200.000
G1 X-1.848 Y-25.501 Z-6.979 F200.000
G1 X-1.733 Y-25.657 Z-6.996 F200.000
G1 X-1.590 Y-25.788 Z-7.014 F200.000
G1 X-1.424 Y-25.889 Z-7.031 F200.000
G1 X-1.242 Y-25.955 Z-7.048 F200.000
G1 X-1.050 Y-25.985 Z-7.065 F200.000
G1 X-0.856 Y-25.976 Z-7.082 F200.000
G1 X-0.668 Y-25.930 Z-7.099 F200.000
G1 X-0.492 Y-25.848 Z-7.117 F200.000
G1 X-0.335 Y-25.733 Z-7.134 F200.000
G1 X-0.204 Y-25.590 Z-7.151 F200.000
G1 X-0.104 Y-25.424 Z-7.168 F200.000
G1 X-0.037 Y-25.242 Z-7.185 F200.000
G1 X-0.008 Y-25.050 Z-7.202 F200.000
G1 X-0.016 Y-24.856 Z-7.220 F200.000
G1 X-0.062 Y-24.668 Z-7.237 F200.000
G1 X-0.144 Y-24.492 Z-7.254 F200.000
G1 X-0.259 Y-24.335 Z-7.271 F200.000
G1 X-0.402 Y-24.204 Z-7.288 F200.000
G1 X-0.568 Y-24.104 Z-7.306 F200.000
G1 X-0.751 Y-24.037 Z-7.323 F200.000
G1 X-0.942 Y-24.008 Z-7.340 F200.000
G1 X-1.136 Y-24.016 Z-7.357 F200.000
G1 X-1.325 Y-24.062 Z-7.374 F200.000
G1 X-1.501 Y-24.144 Z-7.391 F200.000
G1 X-1.657 Y-24.259 Z-7.409 F200.000
G1 X-1.788 Y-24.402 Z-7.426 F200.000
G1 X-1.889 Y-24.568 Z-7.443 F200.000
G1 X-1.955 Y-24.751 Z-7.460 F200.000
G1 X-1.985 Y-24.942 Z-7.477 F200.000
G1 X-1.976 Y-25.136 Z-7.495 F200.000
G1 X-1.930 Y-25.325 Z-7.512 F200.000
G1 X-1.848 Y-25.501 Z-7.529 F200.000
G1 X-1.733 Y-25.657 Z-7.546 F200.000
G1 X-1.590 Y-25.788 Z-7.563 F200.000
G1 X-1.424 Y-25.889 Z-7.580 F200.000
G1 X-1.242 Y-25.955 Z-7.598 F200.000
G1 X-1.050 Y-25.985 Z-7.615 F200.000
G1 X-0.856 Y-25.976 Z-7.632 F200.000
G1 X-0.668 Y-25.930 Z-7.649 F200.000
G1 X-0.492 Y-25.848 Z-7.666 F200.000
G1 X-0.335 Y-25.733 Z-7.683 F200.000
G1 X-0.204 Y-25.590 Z-7.701 F200.000
G1 X-0.104 Y-25.424 Z-7.718 F200.000
G1 X-0.037 Y-25.242 Z-7.735 F200.000
G1 X-0.008 Y-25.050 Z-7.752 F200.000
G1 X-0.016 Y-24.856 Z-7.769 F200.000
G1 X-0.062 Y-24.668 Z-7.787 F200.000
G1 X-0.144 Y-24.492 Z-7.804 F200.000
G1 X-0.259 Y-24.335 Z-7.821 F200.000
G1 X-0.402 Y-24.204 Z-7.838 F200.000
G1 X-0.568 Y-24.104 Z-7.855 F200.000
G1 X-0.751 Y-24.037 Z-7.872 F200.000
G1 X-0.942 Y-24.008 Z-7.890 F200.000
G1 X-1.136 Y-24.016 Z-7.907 F200.000
G1 X-1.325 Y-24.062 Z-7.924 F200.000
G1 X-1.501 Y-24.144 Z-7.941 F200.000
G1 X-1.657 Y-24.259 Z-7.958 F200.000
G1 X-1.788 Y-24.402 Z-7.976 F200.000
G1 X-1.889 Y-24.568 Z-7.993 F200.000
G1 X-1.955 Y-24.751 Z-8.010 F200.000
G1 X-1.985 Y-24.942 Z-8.027 F200.000
G1 X-1.976 Y-25.136 Z-8.044 F200.000
G1 X-1.930 Y-25.325 Z-8.061 F200.000
G1 X-1.848 Y-25.501 Z-8.079 F200.000
G1 X-1.733 Y-25.657 Z-8.096 F200.000
G1 X-1.590 Y-25.788 Z-8.113 F200.000
G1 X-1.424 Y-25.889 Z-8.130 F200.000
G1 X-1.242 Y-25.955 Z-8.147 F200.000
G1 X-1.050 Y-25.985 Z-8.164 F200.000
G1 X-0.856 Y-25.976 Z-8.182 F200.000
G1 X-0.668 Y-25.930 Z-8.199 F200.000
G1 X-0.492 Y-25.848 Z-8.216 F200.000
G1 X-0.335 Y-25.733 Z-8.233 F200.000
G1 X-0.204 Y-25.590 Z-8.250 F200.000
G1 X-0.104 Y-25.424 Z-8.268 F200.000
G1 X-0.037 Y-25.242 Z-8.285 F200.000
G1 X-0.008 Y-25.050 Z-8.302 F200.000
G1 X-0.016 Y-24.856 Z-8.319 F200.000
G1 X-0.062 Y-24.668 Z-8.336 F200.000
G1 X-0.144 Y-24.492 Z-8.353 F200.000
G1 X-0.259 Y-24.335 Z-8.371 F200.000
G1 X-0.402 Y-24.204 Z-8.388 F200.000
G1 X-0.568 Y-24.104 Z-8.405 F200.000
G1 X-0.751 Y-24.037 Z-8.422 F200.000
G1 X-0.942 Y-24.008 Z-8.439 F200.000
G1 X-1.136 Y-24.016 Z-8.457 F200.000
G1 X-1.325 Y-24.062 Z-8.474 F200.000
G1 X-1.501 Y-24.144 Z-8.491 F200.000
G1 X-1.657 Y-24.259 Z-8.508 F200.000
G1 X-1.788 Y-24.402 Z-8.525 F200.000
G1 X-1.889 Y-24.568 Z-8.542 F200.000
G1 X-1.955 Y-24.751 Z-8.560 F200.000
G1 X-1.985 Y-24.942 Z-8.577 F200.000
G1 X-1.976 Y-25.136 Z-8.594 F200.000
G1 X-1.930 Y-25.325 Z-8.611 F200.000
G1 X-1.848 Y-25.501 Z-8.628 F200.000
G1 X-1.733 Y-25.657 Z-8.645 F200.000
G1 X-1.590 Y-25.788 Z-8.663 F200.000
G1 X-1.424 Y-25.889 Z-8.680 F200.000
G1 X-1.242 Y-25.955 Z-8.697 F200.000
G1 X-1.050 Y-25.985 Z-8.714 F200.000
G1 X-0.856 Y-25.976 Z-8.731 F200.000
G1 X-0.668 Y-25.930 Z-8.749 F200.000
G1 X-0.492 Y-25.848 Z-8.766 F200.000
G1 X-0.335 Y-25.733 Z-8.783 F200.000
G1 X-0.204 Y-25.590 Z-8.800 F200.000
G1 X-0.104 Y-25.424 Z-8.817 F200.000
G1 X-0.037 Y-25.242 Z-8.834 F200.000
G1 X-0.008 Y-25.050 Z-8.852 F200.000
G1 X-0.016 Y-24.856 Z-8.869 F200.000
G1 X-0.062 Y-24.668 Z-8.886 F200.000
G1 X-0.144 Y-24.492 Z-8.903 F200.000
G1 X-0.259 Y-24.335 Z-8.920 F200.000
G1 X-0.402 Y-24.204 Z-8.937 F200.000
G1 X-0.568 Y-24.104 Z-8.955 F200.000
G1 X-0.751 Y-24.037 Z-8.972 F200.000
G1 X-0.942 Y-24.008 Z-8.989 F200.000
G1 X-1.136 Y-24.016 Z-9.006 F200.000
G1 X-1.325 Y-24.062 Z-9.023 F200.000
G1 X-1.501 Y-24.144 Z-9.041 F200.000
G1 X-1.657 Y-24.259 Z-9.058 F200.000
G1 X-1.788 Y-24.402 Z-9.075 F200.000
G1 X-1.889 Y-24.568 Z-9.092 F200.000
G1 X-1.955 Y-24.751 Z-9.109 F200.000
G1 X-1.985 Y-24.942 Z-9.126 F200.000
G1 X-1.976 Y-25.136 Z-9.144 F200.000
G1 X-1.930 Y-25.325 Z-9.161 F200.000
G1 X-1.848 Y-25.501 Z-9.178 F200.000
G1 X-1.733 Y-25.657 Z-9.195 F200.000
G1 X-1.590 Y-25.788 Z-9.212 F200.000
G1 X-1.424 Y-25.889 Z-9.230 F200.000
G1 X-1.242 Y-25.955 Z-9.247 F200.000
G1 X-1.050 Y-25.985 Z-9.264 F200.000
G1 X-0.856 Y-25.976 Z-9.281 F200.000
G1 X-0.668 Y-25.930 Z-9.298 F200.000
G1 X-0.492 Y-25.848 Z-9.315 F200.000
G1 X-0.335 Y-25.733 Z-9.333 F200.000
G1 X-0.204 Y-25.590 Z-9.350 F200.000
G1 X-0.104 Y-25.424 Z-9.367 F200.000
G1 X-0.037 Y-25.242 Z-9.384 F200.000
G1 X-0.008 Y-25.050 Z-9.401 F200.000
G1 X-0.016 Y-24.856 Z-9.418 F200.000
G1 X-0.062 Y-24.668 Z-9.436 F200.000
G1 X-0.144 Y-24.492 Z-9.453 F200.000
G1 X-0.259 Y-24.335 Z-9.470 F200.000
G1 X-0.402 Y-24.204 Z-9.487 F200.000
G1 X-0.568 Y-24.104 Z-9.504 F200.000
G1 X-0.751 Y-24.037 Z-9.522 F200.000
G1 X-0.942 Y-24.008 Z-9.539 F200.000
G1 X-1.136 Y-24.016 Z-9.556 F200.000
G1 X-1.325 Y-24.062 Z-9.573 F200.000
G1 X-1.501 Y-24.144 Z-9.590 F200.000
G1 X-1.657 Y-24.259 Z-9.607 F200.000
G1 X-1.788 Y-24.402 Z-9.625 F200.000
G1 X-1.889 Y-24.568 Z-9.642 F200.000
G1 X-1.955 Y-24.751 Z-9.659 F200.000
G1 X-1.985 Y-24.942 Z-9.676 F200.000
G1 X-1.976 Y-25.136 Z-9.693 F200.000
G1 X-1.930 Y-25.325 Z-9.711 F200.000
G1 X-1.848 Y-25.501 Z-9.728 F200.000
G1 X-1.733 Y-25.657 Z-9.745 F200.000
G1 X-1.590 Y-25.788 Z-9.762 F200.000
G1 X-1.424 Y-25.889 Z-9.779 F200.000
G1 X-1.242 Y-25.955 Z-9.796 F200.000
G1 X-1.050 Y-25.985 Z-9.814 F200.000
G1 X-0.856 Y-25.976 Z-9.831 F200.000
G1 X-0.668 Y-25.930 Z-9.848 F200.000
G1 X-0.492 Y-25.848 Z-9.865 F200.000
G1 X-0.335 Y-25.733 Z-9.882 F200.000
G1 X-0.204 Y-25.590 Z-9.899 F200.000
G1 X-0.104 Y-25.424 Z-9.917 F200.000
G1 X-0.037 Y-25.242 Z-9.934 F200.000
G1 X-0.008 Y-25.050 Z-9.951 F200.000
G1 X-0.016 Y-24.856 Z-9.968 F200.000
G1 X-0.062 Y-24.668 Z-9.985 F200.000
G1 X-0.144 Y-24.492 Z-10.003 F200.000
G1 X-0.259 Y-24.335 Z-10.020 F200.000
G1 X-0.402 Y-24.204 Z-10.037 F200.000
G1 X-0.568 Y-24.104 Z-10.054 F200.000
G1 X-0.751 Y-24.037 Z-10.071 F200.000
G1 X-0.942 Y-24.008 Z-10.088 F200.000
G1 X-1.136 Y-24.016 Z-10.106 F200.000
G1 X-1.325 Y-24.062 Z-10.123 F200.000
G1 X-1.501 Y-24.144 Z-10.140 F200.000
G1 X-1.657 Y-24.259 Z-10.157 F200.000
G1 X-1.788 Y-24.402 Z-10.174 F200.000
G1 X-1.889 Y-24.568 Z-10.192 F200.000
G1 X-1.955 Y-24.751 Z-10.209 F200.000
G1 X-1.985 Y-24.942 Z-10.226 F200.000
G1 X-1.976 Y-25.136 Z-10.243 F200.000
G1 X-1.930 Y-25.325 Z-10.260 F200.000
G1 X-1.848 Y-25.501 Z-10.277 F200.000
G1 X-1.733 Y-25.657 Z-10.295 F200.000
G1 X-1.590 Y-25.788 Z-10.312 F200.000
G1 X-1.424 Y-25.889 Z-10.329 F200.000
G1 X-1.242 Y-25.955 Z-10.346 F200.000
G1 X-1.050 Y-25.985 Z-10.363 F200.000
G1 X-0.856 Y-25.976 Z-10.380 F200.000
G1 X-0.668 Y-25.930 Z-10.398 F200.000
G1 X-0.492 Y-25.848 Z-10.415 F200.000
G1 X-0.335 Y-25.733 Z-10.432 F200.000
G1 X-0.204 Y-25.590 Z-10.449 F200.000
G1 X-0.104 Y-25.424 Z-10.466 F200.000
G1 X-0.037 Y-25.242 Z-10.484 F200.000
G1 X-0.008 Y-25.050 Z-10.501 F200.000
G1 X-0.016 Y-24.856 Z-10.518 F200.000
G1 X-0.062 Y-24.668 Z-10.535 F200.000
G1 X-0.144 Y-24.492 Z-10.552 F200.000
G1 X-0.259 Y-24.335 Z-10.569 F200.000
G1 X-0.402 Y-24.204 Z-10.587 F200.000
G1 X-0.568 Y-24.104 Z-10.604 F200.000
G1 X-0.751 Y-24.037 Z-10.621 F200.000
G1 X-0.942 Y-24.008 Z-10.638 F200.000
G1 X-1.136 Y-24.016 Z-10.655 F200.000
G1 X-1.325 Y-24.062 Z-10.673 F200.000
G1 X-1.501 Y-24.144 Z-10.690 F200.000
G1 X-1.657 Y-24.259 Z-10.707 F200.000
G1 X-1.788 Y-24.402 Z-10.724 F200.000
G1 X-1.889 Y-24.568 Z-10.741 F200.000
G1 X-1.955 Y-24.751 Z-10.758 F200.000
G1 X-1.985 Y-24.942 Z-10.776 F200.000
G1 X-1.976 Y-25.136 Z-10.793 F200.000
G1 X-1.930 Y-25.325 Z-10.810 F200.000
G1 X-1.848 Y-25.501 Z-10.827 F200.000
G1 X-1.733 Y-25.657 Z-10.844 F200.000
G1 X-1.590 Y-25.788 Z-10.861 F200.000
G1 X-1.424 Y-25.889 Z-10.879 F200.000
G1 X-1.242 Y-25.955 Z-10.896 F200.000
G1 X-1.050 Y-25.985 Z-10.913 F200.000
G1 X-0.856 Y-25.976 Z-10.930 F200.000
G1 X-0.668 Y-25.930 Z-10.947 F200.000
G1 X-0.492 Y-25.848 Z-10.965 F200.000
G1 X-0.335 Y-25.733 Z-10.982 F200.000
G1 X-0.204 Y-25.590 Z-10.999 F200.000
G1 X-0.104 Y-25.424 Z-11.016 F200.000
G1 X-0.037 Y-25.242 Z-11.033 F200.000
G1 X-0.008 Y-25.050 Z-11.050 F200.000
G1 X-0.016 Y-24.856 Z-11.068 F200.000
G1 X-0.062 Y-24.668 Z-11.085 F200.000
G1 X-0.144 Y-24.492 Z-11.102 F200.000
G1 X-0.259 Y-24.335 Z-11.119 F200.000
G1 X-0.402 Y-24.204 Z-11.136 F200.000
G1 X-0.568 Y-24.104 Z-11.154 F200.000
G1 X-0.751 Y-24.037 Z-11.171 F200.000
G1 X-0.942 Y-24.008 Z-11.188 F200.000
G1 X-1.136 Y-24.016 Z-11.205 F200.000
G1 X-1.325 Y-24.062 Z-11.222 F200.000
G1 X-1.501 Y-24.144 Z-11.239 F200.000
G1 X-1.657 Y-24.259 Z-11.257 F200.000
G1 X-1.788 Y-24.402 Z-11.274 F200.000
G1 X-1.889 Y-24.568 Z-11.291 F200.000
G1 X-1.955 Y-24.751 Z-11.308 F200.000
G1 X-1.985 Y-24.942 Z-11.325 F200.000
G1 X-1.976 Y-25.136 Z-11.342 F200.000
G1 X-1.930 Y-25.325 Z-11.360 F200.000
G1 X-1.848 Y-25.501 Z-11.377 F200.000
G1 X-1.733 Y-25.657 Z-11.394 F200.000
G1 X-1.590 Y-25.788 Z-11.411 F200.000
G1 X-1.424 Y-25.889 Z-11.428 F200.000
G1 X-1.242 Y-25.955 Z-11.446 F200.000
G1 X-1.050 Y-25.985 Z-11.463 F200.000
G1 X-0.856 Y-25.976 Z-11.480 F200.000
G1 X-0.668 Y-25.930 Z-11.497 F200.000
G1 X-0.492 Y-25.848 Z-11.514 F200.000
G1 X-0.335 Y-25.733 Z-11.531 F200.000
G1 X-0.204 Y-25.590 Z-11.549 F200.000
G1 X-0.104 Y-25.424 Z-11.566 F200.000
G1 X-0.037 Y-25.242 Z-11.583 F200.000
G1 X-0.008 Y-25.050 Z-11.600 F200.000
G1 X-0.016 Y-24.856 Z-11.617 F200.000
G1 X-0.062 Y-24.668 Z-11.635 F200.000
G1 X-0.144 Y-24.492 Z-11.652 F200.000
G1 X-0.259 Y-24.335 Z-11.669 F200.000
G1 X-0.402 Y-24.204 Z-11.686 F200.000
G1 X-0.568 Y-24.104 Z-11.703 F200.000
G1 X-0.751 Y-24.037 Z-11.720 F200.000
G1 X-0.942 Y-24.008 Z-11.738 F200.000
G1 X-1.136 Y-24.016 Z-11.755 F200.000
G1 X-1.325 Y-24.062 Z-11.772 F200.000
G1 X-1.501 Y-24.144 Z-11.789 F200.000
G1 X-1.657 Y-24.259 Z-11.806 F200.000
G1 X-1.788 Y-24.402 Z-11.823 F200.000
G1 X-1.889 Y-24.568 Z-11.841 F200.000
G1 X-1.955 Y-24.751 Z-11.858 F200.000
G1 X-1.985 Y-24.942 Z-11.875 F200.000
G1 X-1.976 Y-25.136 Z-11.892 F200.000
G1 X-1.930 Y-25.325 Z-11.909 F200.000
G1 X-1.848 Y-25.501 Z-11.927 F200.000
G1 X-1.733 Y-25.657 Z-11.944 F200.000
G1 X-1.590 Y-25.788 Z-11.961 F200.000
G1 X-1.424 Y-25.889 Z-11.978 F200.000
G1 X-1.242 Y-25.955 Z-11.995 F200.000
G1 X-1.050 Y-25.985 Z-12.000 F400.000
G1 X-0.856 Y-25.976 Z-12.000 F400.000
G1 X-0.668 Y-25.930 Z-12.000 F400.000
G1 X-0.492 Y-25.848 Z-12.000 F400.000
G1 X-0.335 Y-25.733 Z-12.000 F400.000
G1 X-0.204 Y-25.590 Z-12.000 F400.000
G1 X-0.104 Y-25.424 Z-12.000 F400.000
G1 X-0.037 Y-25.242 Z-12.000 F400.000
G1 X-0.008 Y-25.050 Z-12.000 F400.000
G1 X-0.016 Y-24.856 Z-12.000 F400.000
G1 X-0.062 Y-24.668 Z-12.000 F400.000
G1 X-0.144 Y-24.492 Z-12.000 F400.000
G1 X-0.259 Y-24.335 Z-12.000 F400.000
G1 X-0.402 Y-24.204 Z-12.000 F400.000
G1 X-0.568 Y-24.104 Z-12.000 F400.000
G1 X-0.751 Y-24.037 Z-12.000 F400.000
G1 X-0.942 Y-24.008 Z-12.000 F400.000
G1 X-1.136 Y-24.016 Z-12.000 F400.000
G1 X-1.325 Y-24.062 Z-12.000 F400.000
G1 X-1.501 Y-24.144 Z-12.000 F400.000
G1 X-1.657 Y-24.259 Z-12.000 F400.000
G1 X-1.788 Y-24.402 Z-12.000 F400.000
G1 X-1.889 Y-24.568 Z-12.000 F400.000
G1 X-1.955 Y-24.751 Z-12.000 F400.000
G1 X-1.985 Y-24.942 Z-12.000 F400.000
G1 X-1.976 Y-25.136 Z-12.000 F400.000
G1 X-1.930 Y-25.325 Z-12.000 F400.000
G1 X-1.848 Y-25.501 Z-12.000 F400.000
G1 X-1.733 Y-25.657 Z-12.000 F400.000
G1 X-1.590 Y-25.788 Z-12.000 F400.000
G1 X-1.424 Y-25.889 Z-12.000 F400.000
G1 X-1.242 Y-25.955 Z-12.000 F400.000
(Adaptive - depth: -12.000000)
G1 X-0.996 Y-25.996 F400.000
G1 X-0.944 Y-26.023 F400.000
G1 X-0.763 Y-26.038 F400.000
G1 X-0.583 Y-26.004 F400.000
G1 X-0.410 Y-25.925 F400.000
G1 X-0.256 Y-25.816 F400.000
G1 X0.038 Y-25.477 F400.000
G1 X0.124 Y-25.237 F400.000
G1 X0.143 Y-25.120 F400.000
G1 X0.150 Y-25.000 F400.000
G1 X0.139 Y-24.820 F400.000
G1 X0.079 Y-24.586 F400.000
G1 X0.000 Y-24.410 F400.000
G1 X-0.090 Y-24.274 F400.000
G1 X-0.199 Y-24.150 F400.000
G1 X-0.342 Y-24.034 F400.000
G1 X-0.508 Y-23.936 F400.000
G1 X-0.688 Y-23.865 F400.000
G1 X-0.876 Y-23.831 F400.000
G1 X-1.041 Y-23.823 F400.000
G1 X-1.222 Y-23.842 F400.000
G1 X-1.410 Y-23.898 F400.000
G1 X-1.579 Y-23.981 F400.000
G1 X-1.729 Y-24.083 F400.000
G1 X-1.865 Y-24.211 F400.000
G1 X-1.977 Y-24.357 F400.000
G1 X-2.064 Y-24.523 F400.000
G1 X-2.124 Y-24.699 F400.000
G1 X-2.154 Y-24.883 F400.000
G1 X-2.154 Y-25.068 F400.000
G1 X-2.124 Y-25.252 F400.000
G1 X-2.068 Y-25.429 F400.000
G1 X-1.981 Y-25.594 F400.000
G1 X-1.868 Y-25.744 F400.000
G1 X-1.733 Y-25.876 F400.000
G1 X-1.526 Y-26.004 F400.000
G1 X-1.244 Y-26.120 F400.000
G1 X-1.004 Y-26.173 F400.000
G1 X-0.763 Y-26.177 F400.000
G1 X-0.583 Y-26.143 F400.000
G1 X-0.466 Y-26.102 F400.000
G1 X-0.195 Y-25.936 F400.000
G1 X0.147 Y-25.598 F400.000
G1 X0.263 Y-25.327 F400.000
G1 X0.289 Y-25.207 F400.000
G1 X0.305 Y-25.086 F400.000
G1 X0.308 Y-24.914 F400.000
G1 X0.274 Y-24.643 F400.000
G1 X0.195 Y-24.421 F400.000
G1 X0.117 Y-24.274 F400.000
G1 X0.015 Y-24.135 F400.000
G1 X-0.117 Y-23.992 F400.000
G1 X-0.286 Y-23.857 F400.000
G1 X-0.466 Y-23.756 F400.000
G1 X-0.647 Y-23.684 F400.000
G1 X-0.850 Y-23.643 F400.000
G1 X-1.030 Y-23.632 F400.000
G1 X-1.222 Y-23.647 F400.000
G1 X-1.417 Y-23.695 F400.000
G1 X-1.598 Y-23.767 F400.000
G1 X-1.774 Y-23.872 F400.000
G1 X-1.929 Y-24.000 F400.000
G1 X-2.064 Y-24.147 F400.000
G1 X-2.173 Y-24.312 F400.000
G1 X-2.259 Y-24.492 F400.000
G1 X-2.316 Y-24.684 F400.000
G1 X-2.338 Y-24.883 F400.000
G1 X-2.335 Y-25.071 F400.000
G1 X-2.305 Y-25.271 F400.000
G1 X-2.241 Y-25.474 F400.000
G1 X-2.150 Y-25.658 F400.000
G1 X-2.030 Y-25.823 F400.000
G1 X-1.902 Y-25.955 F400.000
G1 X-1.748 Y-26.079 F400.000
G1 X-1.564 Y-26.192 F400.000
G1 X-1.271 Y-26.289 F400.000
G1 X-0.970 Y-26.327 F400.000
G1 X-0.729 Y-26.316 F400.000
G1 X-0.489 Y-26.259 F400.000
G1 X-0.259 Y-26.154 F400.000
G1 X0.139 Y-25.883 F400.000
G1 X0.368 Y-25.541 F400.000
G1 X0.459 Y-25.195 F400.000
G1 X0.474 Y-24.955 F400.000
G1 X0.440 Y-24.654 F400.000
G1 X0.346 Y-24.357 F400.000
G1 X0.195 Y-24.086 F400.000
G1 X-0.045 Y-23.805 F400.000
G1 X-0.282 Y-23.628 F400.000
G1 X-0.549 Y-23.500 F400.000
G1 X-0.831 Y-23.429 F400.000
G1 X-1.113 Y-23.414 F400.000
G1 X-1.338 Y-23.440 F400.000
G1 X-1.665 Y-23.553 F400.000
G1 X-1.962 Y-23.737 F400.000
G1 X-2.169 Y-23.932 F400.000
G1 X-2.335 Y-24.169 F400.000
G1 X-2.447 Y-24.432 F400.000
G1 X-2.515 Y-24.771 F400.000
G1 X-2.515 Y-25.109 F400.000
G1 X-2.470 Y-25.335 F400.000
G1 X-2.335 Y-25.662 F400.000
G1 X-2.128 Y-25.951 F400.000
G1 X-1.861 Y-26.192 F400.000
G1 X-1.538 Y-26.365 F400.000
G1 X-1.244 Y-26.455 F400.000
G1 X-0.944 Y-26.492 F400.000
G1 X-0.643 Y-26.474 F400.000
G1 X-0.282 Y-26.357 F400.000
G1 X-0.113 Y-26.274 F400.000
G1 X0.132 Y-26.094 F400.000
G1 X0.301 Y-25.921 F400.000
G1 X0.462 Y-25.665 F400.000
G1 X0.553 Y-25.440 F400.000
G1 X0.620 Y-25.079 F400.000
G1 X0.624 Y-24.778 F400.000
G1 X0.568 Y-24.477 F400.000
G1 X0.432 Y-24.128 F400.000
G1 X0.305 Y-23.914 F400.000
G1 X0.056 Y-23.632 F400.000
G1 X-0.229 Y-23.414 F400.000
G1 X-0.492 Y-23.286 F400.000
G1 X-0.831 Y-23.192 F400.000
G1 X-1.169 Y-23.173 F400.000
G1 X-1.395 Y-23.195 F400.000
G1 X-1.722 Y-23.308 F400.000
G1 X-2.023 Y-23.481 F400.000
G1 X-2.241 Y-23.665 F400.000
G1 X-2.459 Y-23.936 F400.000
G1 X-2.590 Y-24.192 F400.000
G1 X-2.703 Y-24.583 F400.000
G1 X-2.726 Y-24.977 F400.000
G1 X-2.688 Y-25.259 F400.000
G1 X-2.575 Y-25.594 F400.000
G1 X-2.361 Y-25.947 F400.000
G1 X-2.117 Y-26.207 F400.000
G1 X-1.872 Y-26.387 F400.000
G1 X-1.658 Y-26.504 F400.000
G1 X-1.312 Y-26.620 F400.000
G1 X-1.011 Y-26.665 F400.000
G1 X-0.650 Y-26.650 F400.000
G1 X-0.350 Y-26.579 F400.000
G1 X-0.011 Y-26.417 F400.000
G1 X0.271 Y-26.192 F400.000
G1 X0.470 Y-25.966 F400.000
G1 X0.647 Y-25.650 F400.000
G1 X0.759 Y-25.301 F400.000
G1 X0.805 Y-24.940 F400.000
G1 X0.786 Y-24.639 F400.000
G1 X0.703 Y-24.278 F400.000
G1 X0.553 Y-23.932 F400.000
G1 X0.342 Y-23.624 F400.000
G1 X0.124 Y-23.398 F400.000
G1 X-0.169 Y-23.184 F400.000
G1 X-0.432 Y-23.049 F400.000
G1 X-0.827 Y-22.940 F400.000
G1 X-1.165 Y-22.917 F400.000
G1 X-1.504 Y-22.962 F400.000
G1 X-1.835 Y-23.075 F400.000
G1 X-2.135 Y-23.248 F400.000
G1 X-2.440 Y-23.511 F400.000
G1 X-2.711 Y-23.883 F400.000
G1 X-2.865 Y-24.252 F400.000
G1 X-2.944 Y-24.647 F400.000
G1 X-2.940 Y-25.041 F400.000
G1 X-2.868 Y-25.380 F400.000
G1 X-2.711 Y-25.759 F400.000
G1 X-2.515 Y-26.060 F400.000
G1 X-2.226 Y-26.365 F400.000
G1 X-2.034 Y-26.508 F400.000
G1 X-1.541 Y-26.744 F400.000
G1 X-1.241 Y-26.820 F400.000
G1 X-0.820 Y-26.853 F400.000
G1 X-0.519 Y-26.816 F400.000
G1 X-0.222 Y-26.726 F400.000
G1 X0.105 Y-26.553 F400.000
G1 X0.387 Y-26.331 F400.000
G1 X0.654 Y-26.008 F400.000
G1 X0.831 Y-25.684 F400.000
G1 X0.940 Y-25.335 F400.000
G1 X0.996 Y-24.914 F400.000
G1 X0.974 Y-24.553 F400.000
G1 X0.868 Y-24.132 F400.000
G1 X0.718 Y-23.789 F400.000
G1 X0.470 Y-23.429 F400.000
G1 X0.248 Y-23.207 F400.000
G1 X-0.056 Y-22.996 F400.000
G1 X-0.327 Y-22.880 F400.000
G1 X-0.553 Y-22.820 F400.000
G1 X-0.835 Y-22.782 F400.000
G1 X-1.117 Y-22.782 F400.000
G1 X-1.455 Y-22.827 F400.000
G1 X-1.737 Y-22.910 F400.000
G1 X-2.053 Y-23.045 F400.000
G1 X-2.297 Y-23.199 F400.000
G1 X-2.560 Y-23.425 F400.000
G1 X-2.752 Y-23.632 F400.000
G1 X-2.966 Y-23.970 F400.000
G1 X-3.079 Y-24.233 F400.000
G1 X-3.169 Y-24.684 F400.000
G1 X-3.180 Y-24.853 F400.000
G1 X-3.135 Y-25.248 F400.000
G1 X-2.955 Y-25.748 F400.000
G1 X-2.872 Y-25.906 F400.000
G1 X-2.628 Y-26.244 F400.000
G1 X-2.327 Y-26.534 F400.000
G1 X-1.921 Y-26.797 F400.000
G1 X-1.526 Y-26.955 F400.000
G1 X-1.105 Y-27.038 F400.000
G1 X-0.684 Y-27.041 F400.000
G1 X-0.383 Y-26.985 F400.000
G1 X0.019 Y-26.827 F400.000
G1 X0.323 Y-26.639 F400.000
G1 X0.628 Y-26.353 F400.000
G1 X0.842 Y-26.068 F400.000
G1 X0.985 Y-25.801 F400.000
G1 X1.094 Y-25.515 F400.000
G1 X1.165 Y-25.154 F400.000
G1 X1.180 Y-24.853 F400.000
G1 X1.158 Y-24.553 F400.000
G1 X1.105 Y-24.312 F400.000
G1 X1.015 Y-24.071 F400.000
G1 X0.861 Y-23.797 F400.000
G1 X0.673 Y-23.534 F400.000
G1 X0.293 Y-23.195 F400.000
G1 X0.241 Y-23.158 F400.000
G1 X0.241 Y-23.158 F400.000
G1 X0.117 Y-23.109 F400.000
G1 X0.026 Y-23.105 F400.000
G0 X0.000 Y-23.113
G0 X-2.872 Y-24.346
G1 X-2.906 Y-24.361 F400.000
G1 X-3.049 Y-24.432 F400.000
G1 X-3.135 Y-24.526 F400.000
G1 X-3.188 Y-24.647 F400.000
G1 X-3.188 Y-24.647 F400.000
G1 X-3.218 Y-24.816 F400.000
G1 X-3.218 Y-25.154 F400.000
G1 X-3.158 Y-25.492 F400.000
G1 X-3.049 Y-25.827 F400.000
G1 X-2.861 Y-26.192 F400.000
G1 X-2.722 Y-26.387 F400.000
G1 X-2.372 Y-26.722 F400.000
G1 X-2.226 Y-26.835 F400.000
G1 X-1.906 Y-27.011 F400.000
G1 X-1.624 Y-27.124 F400.000
G1 X-1.203 Y-27.214 F400.000
G1 X-0.902 Y-27.218 F400.000
G1 X-0.481 Y-27.158 F400.000
G1 X-0.241 Y-27.083 F400.000
G1 X0.094 Y-26.929 F400.000
G1 X0.293 Y-26.805 F400.000
G1 X0.647 Y-26.489 F400.000
G1 X0.831 Y-26.248 F400.000
G1 X1.060 Y-25.823 F400.000
G1 X1.180 Y-25.417 F400.000
G1 X1.214 Y-25.177 F400.000
G1 X1.214 Y-24.876 F400.000
G1 X1.177 Y-24.575 F400.000
G1 X1.177 Y-24.575 F400.000
G1 X1.162 Y-24.560 F400.000
G0 X1.147 Y-24.553
G0 X1.132 Y-24.560
G1 X1.124 Y-24.571 F400.000
G1 X1.143 Y-24.594 F400.000
G1 X1.177 Y-24.594 F400.000
G1 X1.199 Y-24.568 F400.000
G1 X1.199 Y-24.568 F400.000
G1 X1.135 Y-24.323 F400.000
G1 X1.075 Y-24.147 F400.000
G1 X0.936 Y-23.865 F400.000
G1 X0.695 Y-23.526 F400.000
G1 X0.530 Y-23.361 F400.000
G1 X0.372 Y-23.226 F400.000
G1 X0.011 Y-22.996 F400.000
G1 X-0.177 Y-22.910 F400.000
G1 X-0.474 Y-22.808 F400.000
G1 X-0.695 Y-22.771 F400.000
G1 X-1.030 Y-22.752 F400.000
G1 X-1.466 Y-22.801 F400.000
G1 X-1.665 Y-22.857 F400.000
G1 X-1.996 Y-22.985 F400.000
G1 X-2.301 Y-23.169 F400.000
G1 X-2.519 Y-23.350 F400.000
G1 X-2.778 Y-23.624 F400.000
G1 X-2.910 Y-23.812 F400.000
G1 X-3.008 Y-23.989 F400.000
G1 X-3.094 Y-24.188 F400.000
G1 X-3.158 Y-24.383 F400.000
G1 X-3.218 Y-24.643 F400.000
G1 X-3.237 Y-24.759 F400.000
G1 X-3.248 Y-24.977 F400.000
G1 X-3.241 Y-25.180 F400.000
G1 X-3.177 Y-25.508 F400.000
G1 X-3.102 Y-25.771 F400.000
G1 X-3.011 Y-25.981 F400.000
G1 X-2.917 Y-26.162 F400.000
G1 X-2.778 Y-26.372 F400.000
G1 X-2.639 Y-26.534 F400.000
G1 X-2.477 Y-26.688 F400.000
G1 X-2.327 Y-26.812 F400.000
G1 X-2.026 Y-26.996 F400.000
G1 X-1.801 Y-27.098 F400.000
G1 X-1.669 Y-27.147 F400.000
G1 X-1.508 Y-27.188 F400.000
G1 X-1.195 Y-27.237 F400.000
G1 X-0.865 Y-27.244 F400.000
G1 X-0.748 Y-27.233 F400.000
G1 X-0.583 Y-27.203 F400.000
G1 X-0.233 Y-27.109 F400.000
G1 X-0.177 Y-27.086 F400.000
G1 X0.289 Y-26.838 F400.000
G1 X0.549 Y-26.617 F400.000
G1 X0.756 Y-26.402 F400.000
G1 X0.944 Y-26.113 F400.000
G1 X1.064 Y-25.872 F400.000
G1 X1.162 Y-25.602 F400.000
G1 X1.214 Y-25.387 F400.000
G1 X1.241 Y-25.154 F400.000
G1 X1.241 Y-24.936 F400.000
G1 X1.199 Y-24.568 F400.000
G1 X1.199 Y-24.568 F400.000
G0 Z5.000
(Helix to depth: -12.500000)
G0 Z5.000
G0 X-0.637 Y24.074 Z5.000
G0 X-0.637 Y24.074 Z3.000
G1 X-0.637 Y24.074 Z-12.000 F200.000
G1 X-0.637 Y24.074 Z-12.000 F200.000
G1 X-0.464 Y24.162 Z-12.017 F200.000
G1 X-0.311 Y24.282 Z-12.034 F200.000
G1 X-0.185 Y24.429 Z-12.052 F200.000
G1 X-0.090 Y24.598 Z-12.069 F200.000
G1 X-0.030 Y24.783 Z-12.086 F200.000
G1 X-0.006 Y24.976 Z-12.103 F200.000
G1 X-0.021 Y25.169 Z-12.120 F200.000
G1 X-0.074 Y25.356 Z-12.137 F200.000
G1 X-0.162 Y25.529 Z-12.155 F200.000
G1 X-0.282 Y25.682 Z-12.172 F200.000
G1 X-0.429 Y25.808 Z-12.189 F200.000
G1 X-0.598 Y25.903 Z-12.206 F200.000
G1 X-0.783 Y25.963 Z-12.223 F200.000
G1 X-0.976 Y25.986 Z-12.240 F200.000
G1 X-1.169 Y25.971 Z-12.258 F200.000
G1 X-1.356 Y25.919 Z-12.275 F200.000
G1 X-1.529 Y25.831 Z-12.292 F200.000
G1 X-1.682 Y25.711 Z-12.309 F200.000
G1 X-1.808 Y25.563 Z-12.326 F200.000
G1 X-1.903 Y25.394 Z-12.344 F200.000
G1 X-1.963 Y25.210 Z-12.361 F200.000
G1 X-1.986 Y25.017 Z-12.378 F200.000
G1 X-1.971 Y24.823 Z-12.395 F200.000
G1 X-1.919 Y24.637 Z-12.412 F200.000
G1 X-1.831 Y24.464 Z-12.429 F200.000
G1 X-1.711 Y24.311 Z-12.447 F200.000
G1 X-1.563 Y24.185 Z-12.464 F200.000
G1 X-1.394 Y24.090 Z-12.481 F200.000
G1 X-1.210 Y24.030 Z-12.498 F200.000
G1 X-1.017 Y24.006 Z-12.500 F400.000
G1 X-0.823 Y24.021 Z-12.500 F400.000
G1 X-0.637 Y24.074 Z-12.500 F400.000
G1 X-0.464 Y24.162 Z-12.500 F400.000
G1 X-0.311 Y24.282 Z-12.500 F400.000
G1 X-0.185 Y24.429 Z-12.500 F400.000
G1 X-0.090 Y24.598 Z-12.500 F400.000
G1 X-0.030 Y24.783 Z-12.500 F400.000
G1 X-0.006 Y24.976 Z-12.500 F400.000
G1 X-0.021 Y25.169 Z-12.500 F400.000
G1 X-0.074 Y25.356 Z-12.500 F400.000
G1 X-0.162 Y25.529 Z-12.500 F400.000
G1 X-0.282 Y25.682 Z-12.500 F400.000
G1 X-0.429 Y25.808 Z-12.500 F400.000
G1 X-0.598 Y25.903 Z-12.500 F400.000
G1 X-0.783 Y25.963 Z-12.500 F400.000
G1 X-0.976 Y25.986 Z-12.500 F400.000
G1 X-1.169 Y25.971 Z-12.500 F400.000
G1 X-1.356 Y25.919 Z-12.500 F400.000
G1 X-1.529 Y25.831 Z-12.500 F400.000
G1 X-1.682 Y25.711 Z-12.500 F400.000
G1 X-1.808 Y25.563 Z-12.500 F400.000
G1 X-1.903 Y25.394 Z-12.500 F400.000
G1 X-1.963 Y25.210 Z-12.500 F400.000
G1 X-1.986 Y25.017 Z-12.500 F400.000
G1 X-1.971 Y24.823 Z-12.500 F400.000
G1 X-1.919 Y24.637 Z-12.500 F400.000
G1 X-1.831 Y24.464 Z-12.500 F400.000
G1 X-1.711 Y24.311 Z-12.500 F400.000
G1 X-1.563 Y24.185 Z-12.500 F400.000
G1 X-1.394 Y24.090 Z-12.500 F400.000
G1 X-1.210 Y24.030 Z-12.500 F400.000
(Adaptive - depth: -12.500000)
G1 X-0.996 Y23.996 F400.000
G1 X-0.940 Y23.966 F400.000
G1 X-0.820 Y23.944 F400.000
G1 X-0.699 Y23.947 F400.000
G1 X-0.519 Y23.989 F400.000
G1 X-0.353 Y24.068 F400.000
G1 X-0.252 Y24.139 F400.000
G1 X0.056 Y24.508 F400.000
G1 X0.132 Y24.729 F400.000
G1 X0.150 Y24.842 F400.000
G1 X0.158 Y24.966 F400.000
G1 X0.150 Y25.147 F400.000
G1 X0.086 Y25.398 F400.000
G1 X0.004 Y25.575 F400.000
G1 X-0.086 Y25.707 F400.000
G1 X-0.192 Y25.823 F400.000
G1 X-0.335 Y25.940 F400.000
G1 X-0.500 Y26.038 F400.000
G1 X-0.684 Y26.109 F400.000
G1 X-0.872 Y26.147 F400.000
G1 X-1.053 Y26.154 F400.000
G1 X-1.241 Y26.128 F400.000
G1 X-1.410 Y26.075 F400.000
G1 X-1.568 Y26.000 F400.000
G1 X-1.729 Y25.891 F400.000
G1 X-1.872 Y25.756 F400.000
G1 X-1.981 Y25.602 F400.000
G1 X-2.060 Y25.451 F400.000
G1 X-2.117 Y25.274 F400.000
G1 X-2.147 Y25.094 F400.000
G1 X-2.147 Y24.898 F400.000
G1 X-2.117 Y24.711 F400.000
G1 X-2.053 Y24.530 F400.000
G1 X-1.970 Y24.376 F400.000
G1 X-1.861 Y24.229 F400.000
G1 X-1.726 Y24.098 F400.000
G1 X-1.519 Y23.955 F400.000
G1 X-1.233 Y23.823 F400.000
G1 X-0.992 Y23.763 F400.000
G1 X-0.812 Y23.752 F400.000
G1 X-0.632 Y23.774 F400.000
G1 X-0.455 Y23.827 F400.000
G1 X-0.241 Y23.940 F400.000
G1 X0.113 Y24.263 F400.000
G1 X0.263 Y24.553 F400.000
G1 X0.301 Y24.673 F400.000
G1 X0.323 Y24.797 F400.000
G1 X0.335 Y24.962 F400.000
G1 X0.320 Y25.207 F400.000
G1 X0.259 Y25.444 F400.000
G1 X0.180 Y25.617 F400.000
G1 X0.090 Y25.759 F400.000
G1 X-0.030 Y25.910 F400.000
G1 X-0.184 Y26.049 F400.000
G1 X-0.353 Y26.158 F400.000
G1 X-0.530 Y26.241 F400.000
G1 X-0.722 Y26.297 F400.000
G1 X-0.917 Y26.323 F400.000
G1 X-1.113 Y26.320 F400.000
G1 X-1.308 Y26.286 F400.000
G1 X-1.496 Y26.229 F400.000
G1 X-1.692 Y26.135 F400.000
G1 X-1.857 Y26.011 F400.000
G1 X-1.985 Y25.887 F400.000
G1 X-2.105 Y25.726 F400.000
G1 X-2.199 Y25.556 F400.000
G1 X-2.274 Y25.357 F400.000
G1 X-2.316 Y25.162 F400.000
G1 X-2.327 Y24.962 F400.000
G1 X-2.308 Y24.771 F400.000
G1 X-2.259 Y24.575 F400.000
G1 X-2.184 Y24.391 F400.000
G1 X-2.083 Y24.222 F400.000
G1 X-1.959 Y24.068 F400.000
G1 X-1.801 Y23.914 F400.000
G1 X-1.568 Y23.748 F400.000
G1 X-1.278 Y23.620 F400.000
G1 X-0.977 Y23.556 F400.000
G1 X-0.737 Y23.556 F400.000
G1 X-0.556 Y23.590 F400.000
G1 X-0.214 Y23.726 F400.000
G1 X-0.011 Y23.857 F400.000
G1 X0.195 Y24.056 F400.000
G1 X0.357 Y24.293 F400.000
G1 X0.444 Y24.508 F400.000
G1 X0.511 Y24.846 F400.000
G1 X0.508 Y25.128 F400.000
G1 X0.462 Y25.353 F400.000
G1 X0.327 Y25.680 F400.000
G1 X0.124 Y25.974 F400.000
G1 X-0.045 Y26.139 F400.000
G1 X-0.233 Y26.271 F400.000
G1 X-0.549 Y26.414 F400.000
G1 X-0.831 Y26.474 F400.000
G1 X-1.169 Y26.477 F400.000
G1 X-1.338 Y26.455 F400.000
G1 X-1.617 Y26.361 F400.000
G1 X-1.872 Y26.207 F400.000
G1 X-2.090 Y26.004 F400.000
G1 X-2.237 Y25.808 F400.000
G1 X-2.395 Y25.481 F400.000
G1 X-2.459 Y25.244 F400.000
G1 X-2.477 Y24.944 F400.000
G1 X-2.440 Y24.643 F400.000
G1 X-2.342 Y24.346 F400.000
G1 X-2.192 Y24.071 F400.000
G1 X-1.947 Y23.786 F400.000
