(Exported by FreeCAD)
(Post Processor: grbl_post)
(Output Time:2023-11-03 22:56:40.612773)
(Begin preamble)
G17 G90
G21
(Block-name: Fixture)
(Block-expand: 0)
(Block-enable: 1)
(Begin operation: Fixture)
(Path: Fixture)
G54
(Finish operation: Fixture)
(Block-name: 6mm Endmill001)
(Block-expand: 0)
(Block-enable: 1)
(Begin operation: 6mm Endmill001)
(Path: 6mm Endmill001)
(6mm Endmill001)
(Begin toolchange)
( M6 T2 )
(Finish operation: 6mm Endmill001)
(Block-name: Adaptive)
(Block-expand: 0)
(Block-enable: 1)
(Begin operation: Adaptive)
(Path: Adaptive)
(Adaptive)
(Helix to depth: -6.000000)
G0 Z5.000
G0 X1.509 Y57.845 Z5.000
G0 X1.509 Y57.845 Z3.000
G1 X1.509 Y57.845 Z0.000 F200.000
G1 X1.509 Y57.845 Z0.000 F200.000
G1 X1.803 Y58.171 Z-0.039 F200.000
G1 X2.028 Y58.549 Z-0.077 F200.000
G1 X2.175 Y58.963 Z-0.116 F200.000
G1 X2.238 Y59.397 Z-0.155 F200.000
G1 X2.215 Y59.836 Z-0.193 F200.000
G1 X2.107 Y60.261 Z-0.232 F200.000
G1 X1.918 Y60.658 Z-0.271 F200.000
G1 X1.655 Y61.009 Z-0.309 F200.000
G1 X1.329 Y61.303 Z-0.348 F200.000
G1 X0.951 Y61.528 Z-0.387 F200.000
G1 X0.537 Y61.675 Z-0.425 F200.000
G1 X0.103 Y61.738 Z-0.464 F200.000
G1 X-0.336 Y61.715 Z-0.502 F200.000
G1 X-0.761 Y61.607 Z-0.541 F200.000
G1 X-1.158 Y61.418 Z-0.580 F200.000
G1 X-1.509 Y61.155 Z-0.618 F200.000
G1 X-1.803 Y60.829 Z-0.657 F200.000
G1 X-2.028 Y60.451 Z-0.696 F200.000
G1 X-2.175 Y60.037 Z-0.734 F200.000
G1 X-2.238 Y59.603 Z-0.773 F200.000
G1 X-2.215 Y59.164 Z-0.812 F200.000
G1 X-2.107 Y58.739 Z-0.850 F200.000
G1 X-1.918 Y58.342 Z-0.889 F200.000
G1 X-1.655 Y57.991 Z-0.928 F200.000
G1 X-1.329 Y57.697 Z-0.966 F200.000
G1 X-0.951 Y57.472 Z-1.005 F200.000
G1 X-0.537 Y57.325 Z-1.044 F200.000
G1 X-0.103 Y57.262 Z-1.082 F200.000
G1 X0.336 Y57.285 Z-1.121 F200.000
G1 X0.761 Y57.393 Z-1.160 F200.000
G1 X1.158 Y57.582 Z-1.198 F200.000
G1 X1.509 Y57.845 Z-1.237 F200.000
G1 X1.803 Y58.171 Z-1.275 F200.000
G1 X2.028 Y58.549 Z-1.314 F200.000
G1 X2.175 Y58.963 Z-1.353 F200.000
G1 X2.238 Y59.397 Z-1.391 F200.000
G1 X2.215 Y59.836 Z-1.430 F200.000
G1 X2.107 Y60.261 Z-1.469 F200.000
G1 X1.918 Y60.658 Z-1.507 F200.000
G1 X1.655 Y61.009 Z-1.546 F200.000
G1 X1.329 Y61.303 Z-1.585 F200.000
G1 X0.951 Y61.528 Z-1.623 F200.000
G1 X0.537 Y61.675 Z-1.662 F200.000
G1 X0.103 Y61.738 Z-1.701 F200.000
G1 X-0.336 Y61.715 Z-1.739 F200.000
G1 X-0.761 Y61.607 Z-1.778 F200.000
G1 X-1.158 Y61.418 Z-1.817 F200.000
G1 X-1.509 Y61.155 Z-1.855 F200.000
G1 X-1.803 Y60.829 Z-1.894 F200.000
G1 X-2.028 Y60.451 Z-1.933 F200.000
G1 X-2.175 Y60.037 Z-1.971 F200.000
G1 X-2.238 Y59.603 Z-2.010 F200.000
G1 X-2.215 Y59.164 Z-2.049 F200.000
G1 X-2.107 Y58.739 Z-2.087 F200.000
G1 X-1.918 Y58.342 Z-2.126 F200.000
G1 X-1.655 Y57.991 Z-2.164 F200.000
G1 X-1.329 Y57.697 Z-2.203 F200.000
G1 X-0.951 Y57.472 Z-2.242 F200.000
G1 X-0.537 Y57.325 Z-2.280 F200.000
G1 X-0.103 Y57.262 Z-2.319 F200.000
G1 X0.336 Y57.285 Z-2.358 F200.000
G1 X0.761 Y57.393 Z-2.396 F200.000
G1 X1.158 Y57.582 Z-2.435 F200.000
G1 X1.509 Y57.845 Z-2.474 F200.000
G1 X1.803 Y58.171 Z-2.512 F200.000
G1 X2.028 Y58.549 Z-2.551 F200.000
G1 X2.175 Y58.963 Z-2.590 F200.000
G1 X2.238 Y59.397 Z-2.628 F200.000
G1 X2.215 Y59.836 Z-2.667 F200.000
G1 X2.107 Y60.261 Z-2.706 F200.000
G1 X1.918 Y60.658 Z-2.744 F200.000
G1 X1.655 Y61.009 Z-2.783 F200.000
G1 X1.329 Y61.303 Z-2.822 F200.000
G1 X0.951 Y61.528 Z-2.860 F200.000
G1 X0.537 Y61.675 Z-2.899 F200.000
G1 X0.103 Y61.738 Z-2.937 F200.000
G1 X-0.336 Y61.715 Z-2.976 F200.000
G1 X-0.761 Y61.607 Z-3.015 F200.000
G1 X-1.158 Y61.418 Z-3.053 F200.000
G1 X-1.509 Y61.155 Z-3.092 F200.000
G1 X-1.803 Y60.829 Z-3.131 F200.000
G1 X-2.028 Y60.451 Z-3.169 F200.000
G1 X-2.175 Y60.037 Z-3.208 F200.000
G1 X-2.238 Y59.603 Z-3.247 F200.000
G1 X-2.215 Y59.164 Z-3.285 F200.000
G1 X-2.107 Y58.739 Z-3.324 F200.000
G1 X-1.918 Y58.342 Z-3.363 F200.000
G1 X-1.655 Y57.991 Z-3.401 F200.000
G1 X-1.329 Y57.697 Z-3.440 F200.000
G1 X-0.951 Y57.472 Z-3.479 F200.000
G1 X-0.537 Y57.325 Z-3.517 F200.000
G1 X-0.103 Y57.262 Z-3.556 F200.000
G1 X0.336 Y57.285 Z-3.595 F200.000
G1 X0.761 Y57.393 Z-3.633 F200.000
G1 X1.158 Y57.582 Z-3.672 F200.000
G1 X1.509 Y57.845 Z-3.711 F200.000
G1 X1.803 Y58.171 Z-3.749 F200.000
G1 X2.028 Y58.549 Z-3.788 F200.000
G1 X2.175 Y58.963 Z-3.826 F200.000
G1 X2.238 Y59.397 Z-3.865 F200.000
G1 X2.215 Y59.836 Z-3.904 F200.000
G1 X2.107 Y60.261 Z-3.942 F200.000
G1 X1.918 Y60.658 Z-3.981 F200.000
G1 X1.655 Y61.009 Z-4.020 F200.000
G1 X1.329 Y61.303 Z-4.058 F200.000
G1 X0.951 Y61.528 Z-4.097 F200.000
G1 X0.537 Y61.675 Z-4.136 F200.000
G1 X0.103 Y61.738 Z-4.174 F200.000
G1 X-0.336 Y61.715 Z-4.213 F200.000
G1 X-0.761 Y61.607 Z-4.252 F200.000
G1 X-1.158 Y61.418 Z-4.290 F200.000
G1 X-1.509 Y61.155 Z-4.329 F200.000
G1 X-1.803 Y60.829 Z-4.368 F200.000
G1 X-2.028 Y60.451 Z-4.406 F200.000
G1 X-2.175 Y60.037 Z-4.445 F200.000
G1 X-2.238 Y59.603 Z-4.484 F200.000
G1 X-2.215 Y59.164 Z-4.522 F200.000
G1 X-2.107 Y58.739 Z-4.561 F200.000
G1 X-1.918 Y58.342 Z-4.600 F200.000
G1 X-1.655 Y57.991 Z-4.638 F200.000
G1 X-1.329 Y57.697 Z-4.677 F200.000
G1 X-0.951 Y57.472 Z-4.715 F200.000
G1 X-0.537 Y57.325 Z-4.754 F200.000
G1 X-0.103 Y57.262 Z-4.793 F200.000
G1 X0.336 Y57.285 Z-4.831 F200.000
G1 X0.761 Y57.393 Z-4.870 F200.000
G1 X1.158 Y57.582 Z-4.909 F200.000
G1 X1.509 Y57.845 Z-4.947 F200.000
G1 X1.803 Y58.171 Z-4.986 F200.000
G1 X2.028 Y58.549 Z-5.025 F200.000
G1 X2.175 Y58.963 Z-5.063 F200.000
G1 X2.238 Y59.397 Z-5.102 F200.000
G1 X2.215 Y59.836 Z-5.141 F200.000
G1 X2.107 Y60.261 Z-5.179 F200.000
G1 X1.918 Y60.658 Z-5.218 F200.000
G1 X1.655 Y61.009 Z-5.257 F200.000
G1 X1.329 Y61.303 Z-5.295 F200.000
G1 X0.951 Y61.528 Z-5.334 F200.000
G1 X0.537 Y61.675 Z-5.373 F200.000
G1 X0.103 Y61.738 Z-5.411 F200.000
G1 X-0.336 Y61.715 Z-5.450 F200.000
G1 X-0.761 Y61.607 Z-5.488 F200.000
G1 X-1.158 Y61.418 Z-5.527 F200.000
G1 X-1.509 Y61.155 Z-5.566 F200.000
G1 X-1.803 Y60.829 Z-5.604 F200.000
G1 X-2.028 Y60.451 Z-5.643 F200.000
G1 X-2.175 Y60.037 Z-5.682 F200.000
G1 X-2.238 Y59.603 Z-5.720 F200.000
G1 X-2.215 Y59.164 Z-5.759 F200.000
G1 X-2.107 Y58.739 Z-5.798 F200.000
G1 X-1.918 Y58.342 Z-5.836 F200.000
G1 X-1.655 Y57.991 Z-5.875 F200.000
G1 X-1.329 Y57.697 Z-5.914 F200.000
G1 X-0.951 Y57.472 Z-5.952 F200.000
G1 X-0.537 Y57.325 Z-5.991 F200.000
G1 X-0.103 Y57.262 Z-6.000 F400.000
G1 X0.336 Y57.285 Z-6.000 F400.000
G1 X0.761 Y57.393 Z-6.000 F400.000
G1 X1.158 Y57.582 Z-6.000 F400.000
G1 X1.509 Y57.845 Z-6.000 F400.000
G1 X1.803 Y58.171 Z-6.000 F400.000
G1 X2.028 Y58.549 Z-6.000 F400.000
G1 X2.175 Y58.963 Z-6.000 F400.000
G1 X2.238 Y59.397 Z-6.000 F400.000
G1 X2.215 Y59.836 Z-6.000 F400.000
G1 X2.107 Y60.261 Z-6.000 F400.000
G1 X1.918 Y60.658 Z-6.000 F400.000
G1 X1.655 Y61.009 Z-6.000 F400.000
G1 X1.329 Y61.303 Z-6.000 F400.000
G1 X0.951 Y61.528 Z-6.000 F400.000
G1 X0.537 Y61.675 Z-6.000 F400.000
G1 X0.103 Y61.738 Z-6.000 F400.000
G1 X-0.336 Y61.715 Z-6.000 F400.000
G1 X-0.761 Y61.607 Z-6.000 F400.000
G1 X-1.158 Y61.418 Z-6.000 F400.000
G1 X-1.509 Y61.155 Z-6.000 F400.000
G1 X-1.803 Y60.829 Z-6.000 F400.000
G1 X-2.028 Y60.451 Z-6.000 F400.000
G1 X-2.175 Y60.037 Z-6.000 F400.000
G1 X-2.238 Y59.603 Z-6.000 F400.000
G1 X-2.215 Y59.164 Z-6.000 F400.000
G1 X-2.107 Y58.739 Z-6.000 F400.000
G1 X-1.918 Y58.342 Z-6.000 F400.000
G1 X-1.655 Y57.991 Z-6.000 F400.000
G1 X-1.329 Y57.697 Z-6.000 F400.000
G1 X-0.951 Y57.472 Z-6.000 F400.000
G1 X-0.537 Y57.325 Z-6.000 F400.000
(Adaptive - depth: -6.000000)
G1 X0.000 Y57.250 F400.000
G1 X0.069 Y57.175 F400.000
G1 X0.250 Y57.087 F400.000
G1 X0.531 Y57.031 F400.000
G1 X0.812 Y57.031 F400.000
G1 X1.525 Y57.250 F400.000
G1 X1.819 Y57.438 F400.000
G1 X1.988 Y57.575 F400.000
G1 X2.169 Y57.763 F400.000
G1 X2.388 Y58.038 F400.000
G1 X2.600 Y58.444 F400.000
G1 X2.712 Y58.763 F400.000
G1 X2.788 Y59.087 F400.000
G1 X2.819 Y59.450 F400.000
G1 X2.806 Y59.831 F400.000
G1 X2.731 Y60.219 F400.000
G1 X2.625 Y60.544 F400.000
G1 X2.462 Y60.881 F400.000
G1 X2.256 Y61.188 F400.000
G1 X2.025 Y61.462 F400.000
G1 X1.719 Y61.737 F400.000
G1 X1.406 Y61.956 F400.000
G1 X1.062 Y62.119 F400.000
G1 X0.738 Y62.225 F400.000
G1 X0.138 Y62.294 F400.000
G1 X-0.431 Y62.269 F400.000
G1 X-0.900 Y62.150 F400.000
G1 X-1.663 Y61.775 F400.000
G1 X-2.081 Y61.413 F400.000
G1 X-2.263 Y61.194 F400.000
G1 X-2.406 Y60.975 F400.000
G1 X-2.556 Y60.681 F400.000
G1 X-2.700 Y60.288 F400.000
G1 X-2.788 Y59.869 F400.000
G1 X-2.825 Y59.481 F400.000
G1 X-2.794 Y59.075 F400.000
G1 X-2.719 Y58.744 F400.000
G1 X-2.606 Y58.425 F400.000
G1 X-2.450 Y58.100 F400.000
G1 X-2.231 Y57.763 F400.000
G1 X-1.962 Y57.450 F400.000
G1 X-1.663 Y57.194 F400.000
G1 X-1.381 Y56.994 F400.000
G1 X-0.831 Y56.688 F400.000
G1 X-0.144 Y56.462 F400.000
G1 X0.519 Y56.375 F400.000
G1 X0.988 Y56.406 F400.000
G1 X1.544 Y56.556 F400.000
G1 X2.056 Y56.812 F400.000
G1 X2.438 Y57.106 F400.000
G1 X2.875 Y57.612 F400.000
G1 X2.975 Y57.775 F400.000
G1 X3.300 Y58.450 F400.000
G1 X3.444 Y59.062 F400.000
G1 X3.475 Y59.375 F400.000
G1 X3.469 Y59.675 F400.000
G1 X3.425 Y60.044 F400.000
G1 X3.319 Y60.500 F400.000
G1 X3.169 Y60.913 F400.000
G1 X2.969 Y61.288 F400.000
G1 X2.450 Y61.888 F400.000
G1 X1.887 Y62.312 F400.000
G1 X1.438 Y62.550 F400.000
G1 X0.956 Y62.725 F400.000
G1 X0.456 Y62.819 F400.000
G1 X-0.506 Y62.825 F400.000
G1 X-1.069 Y62.712 F400.000
G1 X-1.613 Y62.481 F400.000
G1 X-2.112 Y62.156 F400.000
G1 X-2.475 Y61.812 F400.000
G1 X-2.775 Y61.419 F400.000
G1 X-3.169 Y60.781 F400.000
G1 X-3.400 Y60.062 F400.000
G1 X-3.438 Y59.731 F400.000
G1 X-3.444 Y59.469 F400.000
G1 X-3.425 Y59.150 F400.000
G1 X-3.350 Y58.644 F400.000
G1 X-3.169 Y58.106 F400.000
G1 X-2.888 Y57.594 F400.000
G1 X-2.425 Y57.019 F400.000
G1 X-1.881 Y56.525 F400.000
G1 X-1.356 Y56.181 F400.000
G1 X-1.069 Y56.069 F400.000
G1 X0.963 Y56.056 F400.000
G1 X1.619 Y56.106 F400.000
G1 X2.181 Y56.269 F400.000
G1 X2.531 Y56.425 F400.000
G1 X3.075 Y56.806 F400.000
G1 X3.406 Y57.144 F400.000
G1 X3.669 Y57.544 F400.000
G1 X3.962 Y58.256 F400.000
G1 X4.119 Y59.100 F400.000
G1 X4.119 Y59.850 F400.000
G1 X3.994 Y60.506 F400.000
G1 X3.694 Y61.231 F400.000
G1 X3.119 Y62.044 F400.000
G1 X2.669 Y62.438 F400.000
G1 X2.325 Y62.656 F400.000
G1 X2.044 Y62.781 F400.000
G1 X1.644 Y62.881 F400.000
G1 X-1.175 Y62.931 F400.000
G1 X-1.644 Y62.862 F400.000
G1 X-2.206 Y62.669 F400.000
G1 X-2.631 Y62.413 F400.000
G1 X-2.938 Y62.156 F400.000
G1 X-3.319 Y61.688 F400.000
G1 X-3.587 Y61.256 F400.000
G1 X-3.856 Y60.606 F400.000
G1 X-4.019 Y59.706 F400.000
G1 X-4.019 Y59.006 F400.000
G1 X-3.913 Y58.406 F400.000
G1 X-3.581 Y57.531 F400.000
G1 X-3.312 Y57.081 F400.000
G1 X-2.975 Y56.688 F400.000
G1 X-2.719 Y56.513 F400.000
G1 X-2.069 Y56.225 F400.000
G1 X-1.669 Y56.119 F400.000
G1 X-1.669 Y56.119 F400.000
G1 X-1.344 Y56.138 F400.000
G1 X-1.225 Y56.181 F400.000
G0 X-1.163 Y56.206
G0 X-0.300 Y56.681
G0 X2.456 Y56.788
G1 X2.519 Y56.788 F400.000
G1 X2.950 Y56.788 F400.000
G1 X3.194 Y56.881 F400.000
G1 X3.306 Y56.950 F400.000
G1 X3.306 Y56.950 F400.000
G1 X3.812 Y57.519 F400.000
G1 X4.100 Y58.013 F400.000
G1 X4.275 Y58.456 F400.000
G1 X4.375 Y58.831 F400.000
G1 X4.431 Y59.487 F400.000
G1 X4.381 Y60.050 F400.000
G1 X4.250 Y60.612 F400.000
G1 X3.906 Y61.325 F400.000
G1 X3.744 Y61.569 F400.000
G1 X3.337 Y62.019 F400.000
G1 X2.956 Y62.325 F400.000
G1 X2.525 Y62.581 F400.000
G1 X2.525 Y62.581 F400.000
G1 X2.275 Y62.638 F400.000
G1 X2.087 Y62.631 F400.000
G0 X2.025 Y62.619
G0 X1.106 Y62.300
G0 X-0.969 Y62.288
G0 X-1.594 Y62.494
G1 X-1.656 Y62.519 F400.000
G1 X-2.069 Y62.644 F400.000
G1 X-2.319 Y62.638 F400.000
G1 X-2.444 Y62.612 F400.000
G1 X-2.444 Y62.612 F400.000
G1 X-2.794 Y62.425 F400.000
G1 X-3.119 Y62.200 F400.000
G1 X-3.562 Y61.794 F400.000
G1 X-3.925 Y61.306 F400.000
G1 X-4.112 Y60.956 F400.000
G1 X-4.269 Y60.581 F400.000
G1 X-4.388 Y60.081 F400.000
G1 X-4.444 Y59.481 F400.000
G1 X-4.356 Y58.781 F400.000
G1 X-4.213 Y58.281 F400.000
G1 X-4.094 Y57.994 F400.000
G1 X-3.769 Y57.456 F400.000
G1 X-3.425 Y57.062 F400.000
G1 X-3.425 Y57.062 F400.000
G1 X-3.394 Y57.044 F400.000
G1 X-3.388 Y57.050 F400.000
G1 X-3.425 Y57.075 F400.000
G1 X-3.462 Y57.062 F400.000
G1 X-3.462 Y57.019 F400.000
G1 X-3.462 Y57.019 F400.000
G1 X-3.062 Y56.675 F400.000
G1 X-2.844 Y56.525 F400.000
G1 X-2.419 Y56.300 F400.000
G1 X-1.950 Y56.125 F400.000
G1 X-1.594 Y56.050 F400.000
G1 X-1.288 Y56.006 F400.000
G1 X-0.838 Y55.994 F400.000
G1 X0.887 Y55.994 F400.000
G1 X1.562 Y56.044 F400.000
G1 X2.188 Y56.206 F400.000
G1 X2.538 Y56.356 F400.000
G1 X2.812 Y56.513 F400.000
G1 X3.175 Y56.763 F400.000
G1 X3.450 Y57.000 F400.000
G1 X3.819 Y57.431 F400.000
G1 X3.962 Y57.644 F400.000
G1 X4.181 Y58.056 F400.000
G1 X4.350 Y58.500 F400.000
G1 X4.425 Y58.831 F400.000
G1 X4.481 Y59.250 F400.000
G1 X4.487 Y59.406 F400.000
G1 X4.456 Y59.919 F400.000
G1 X4.394 Y60.263 F400.000
G1 X4.300 Y60.644 F400.000
G1 X4.144 Y61.013 F400.000
G1 X3.944 Y61.369 F400.000
G1 X3.794 Y61.594 F400.000
G1 X3.531 Y61.900 F400.000
G1 X3.337 Y62.094 F400.000
G1 X3.081 Y62.300 F400.000
G1 X2.850 Y62.462 F400.000
G1 X2.344 Y62.725 F400.000
G1 X1.988 Y62.856 F400.000
G1 X1.562 Y62.944 F400.000
G1 X1.200 Y62.987 F400.000
G1 X0.869 Y63.006 F400.000
G1 X-0.931 Y63.000 F400.000
G1 X-1.337 Y62.969 F400.000
G1 X-1.669 Y62.919 F400.000
G1 X-2.212 Y62.769 F400.000
G1 X-2.544 Y62.631 F400.000
G1 X-2.856 Y62.456 F400.000
G1 X-3.081 Y62.306 F400.000
G1 X-3.562 Y61.875 F400.000
G1 X-3.888 Y61.456 F400.000
G1 X-4.056 Y61.188 F400.000
G1 X-4.175 Y60.956 F400.000
G1 X-4.319 Y60.600 F400.000
G1 X-4.444 Y60.087 F400.000
G1 X-4.487 Y59.750 F400.000
G1 X-4.494 Y59.538 F400.000
G1 X-4.469 Y59.156 F400.000
G1 X-4.412 Y58.775 F400.000
G1 X-4.287 Y58.325 F400.000
G1 X-4.131 Y57.950 F400.000
G1 X-3.956 Y57.638 F400.000
G1 X-3.800 Y57.406 F400.000
G1 X-3.462 Y57.019 F400.000
G1 X-3.462 Y57.019 F400.000
G0 Z5.000
(Helix to depth: -6.000000)
G0 Z5.000
G0 X1.497 Y-61.155 Z5.000
G0 X1.497 Y-61.155 Z3.000
G1 X1.497 Y-61.155 Z0.000 F200.000
G1 X1.497 Y-61.155 Z0.000 F200.000
G1 X1.791 Y-60.829 Z-0.039 F200.000
G1 X2.015 Y-60.451 Z-0.077 F200.000
G1 X2.162 Y-60.037 Z-0.116 F200.000
G1 X2.225 Y-59.603 Z-0.155 F200.000
G1 X2.202 Y-59.164 Z-0.193 F200.000
G1 X2.094 Y-58.739 Z-0.232 F200.000
G1 X1.905 Y-58.342 Z-0.271 F200.000
G1 X1.643 Y-57.991 Z-0.309 F200.000
G1 X1.316 Y-57.697 Z-0.348 F200.000
G1 X0.939 Y-57.472 Z-0.387 F200.000
G1 X0.525 Y-57.325 Z-0.425 F200.000
G1 X0.090 Y-57.262 Z-0.464 F200.000
G1 X-0.348 Y-57.285 Z-0.502 F200.000
G1 X-0.774 Y-57.393 Z-0.541 F200.000
G1 X-1.170 Y-57.582 Z-0.580 F200.000
G1 X-1.522 Y-57.845 Z-0.618 F200.000
G1 X-1.816 Y-58.171 Z-0.657 F200.000
G1 X-2.040 Y-58.549 Z-0.696 F200.000
G1 X-2.187 Y-58.963 Z-0.734 F200.000
G1 X-2.250 Y-59.397 Z-0.773 F200.000
G1 X-2.227 Y-59.836 Z-0.812 F200.000
G1 X-2.119 Y-60.261 Z-0.850 F200.000
G1 X-1.930 Y-60.658 Z-0.889 F200.000
G1 X-1.668 Y-61.009 Z-0.928 F200.000
G1 X-1.341 Y-61.303 Z-0.966 F200.000
G1 X-0.964 Y-61.528 Z-1.005 F200.000
G1 X-0.550 Y-61.675 Z-1.044 F200.000
G1 X-0.115 Y-61.738 Z-1.082 F200.000
G1 X0.323 Y-61.715 Z-1.121 F200.000
G1 X0.749 Y-61.607 Z-1.160 F200.000
G1 X1.145 Y-61.418 Z-1.198 F200.000
G1 X1.497 Y-61.155 Z-1.237 F200.000
G1 X1.791 Y-60.829 Z-1.275 F200.000
G1 X2.015 Y-60.451 Z-1.314 F200.000
G1 X2.162 Y-60.037 Z-1.353 F200.000
G1 X2.225 Y-59.603 Z-1.391 F200.000
G1 X2.202 Y-59.164 Z-1.430 F200.000
G1 X2.094 Y-58.739 Z-1.469 F200.000
G1 X1.905 Y-58.342 Z-1.507 F200.000
G1 X1.643 Y-57.991 Z-1.546 F200.000
G1 X1.316 Y-57.697 Z-1.585 F200.000
G1 X0.939 Y-57.472 Z-1.623 F200.000
G1 X0.525 Y-57.325 Z-1.662 F200.000
G1 X0.090 Y-57.262 Z-1.701 F200.000
G1 X-0.348 Y-57.285 Z-1.739 F200.000
G1 X-0.774 Y-57.393 Z-1.778 F200.000
G1 X-1.170 Y-57.582 Z-1.817 F200.000
G1 X-1.522 Y-57.845 Z-1.855 F200.000
G1 X-1.816 Y-58.171 Z-1.894 F200.000
G1 X-2.040 Y-58.549 Z-1.933 F200.000
G1 X-2.187 Y-58.963 Z-1.971 F200.000
G1 X-2.250 Y-59.397 Z-2.010 F200.000
G1 X-2.227 Y-59.836 Z-2.049 F200.000
G1 X-2.119 Y-60.261 Z-2.087 F200.000
G1 X-1.930 Y-60.658 Z-2.126 F200.000
G1 X-1.668 Y-61.009 Z-2.164 F200.000
G1 X-1.341 Y-61.303 Z-2.203 F200.000
G1 X-0.964 Y-61.528 Z-2.242 F200.000
G1 X-0.550 Y-61.675 Z-2.280 F200.000
G1 X-0.115 Y-61.738 Z-2.319 F200.000
G1 X0.323 Y-61.715 Z-2.358 F200.000
G1 X0.749 Y-61.607 Z-2.396 F200.000
G1 X1.145 Y-61.418 Z-2.435 F200.000
G1 X1.497 Y-61.155 Z-2.474 F200.000
G1 X1.791 Y-60.829 Z-2.512 F200.000
G1 X2.015 Y-60.451 Z-2.551 F200.000
G1 X2.162 Y-60.037 Z-2.590 F200.000
G1 X2.225 Y-59.603 Z-2.628 F200.000
G1 X2.202 Y-59.164 Z-2.667 F200.000
G1 X2.094 Y-58.739 Z-2.706 F200.000
G1 X1.905 Y-58.342 Z-2.744 F200.000
G1 X1.643 Y-57.991 Z-2.783 F200.000
G1 X1.316 Y-57.697 Z-2.822 F200.000
G1 X0.939 Y-57.472 Z-2.860 F200.000
G1 X0.525 Y-57.325 Z-2.899 F200.000
G1 X0.090 Y-57.262 Z-2.937 F200.000
G1 X-0.348 Y-57.285 Z-2.976 F200.000
G1 X-0.774 Y-57.393 Z-3.015 F200.000
G1 X-1.170 Y-57.582 Z-3.053 F200.000
G1 X-1.522 Y-57.845 Z-3.092 F200.000
G1 X-1.816 Y-58.171 Z-3.131 F200.000
G1 X-2.040 Y-58.549 Z-3.169 F200.000
G1 X-2.187 Y-58.963 Z-3.208 F200.000
G1 X-2.250 Y-59.397 Z-3.247 F200.000
G1 X-2.227 Y-59.836 Z-3.285 F200.000
G1 X-2.119 Y-60.261 Z-3.324 F200.000
G1 X-1.930 Y-60.658 Z-3.363 F200.000
G1 X-1.668 Y-61.009 Z-3.401 F200.000
G1 X-1.341 Y-61.303 Z-3.440 F200.000
G1 X-0.964 Y-61.528 Z-3.479 F200.000
G1 X-0.550 Y-61.675 Z-3.517 F200.000
G1 X-0.115 Y-61.738 Z-3.556 F200.000
G1 X0.323 Y-61.715 Z-3.595 F200.000
G1 X0.749 Y-61.607 Z-3.633 F200.000
G1 X1.145 Y-61.418 Z-3.672 F200.000
G1 X1.497 Y-61.155 Z-3.711 F200.000
G1 X1.791 Y-60.829 Z-3.749 F200.000
G1 X2.015 Y-60.451 Z-3.788 F200.000
G1 X2.162 Y-60.037 Z-3.826 F200.000
G1 X2.225 Y-59.603 Z-3.865 F200.000
G1 X2.202 Y-59.164 Z-3.904 F200.000
G1 X2.094 Y-58.739 Z-3.942 F200.000
G1 X1.905 Y-58.342 Z-3.981 F200.000
G1 X1.643 Y-57.991 Z-4.020 F200.000
G1 X1.316 Y-57.697 Z-4.058 F200.000
G1 X0.939 Y-57.472 Z-4.097 F200.000
G1 X0.525 Y-57.325 Z-4.136 F200.000
G1 X0.090 Y-57.262 Z-4.174 F200.000
G1 X-0.348 Y-57.285 Z-4.213 F200.000
G1 X-0.774 Y-57.393 Z-4.252 F200.000
G1 X-1.170 Y-57.582 Z-4.290 F200.000
G1 X-1.522 Y-57.845 Z-4.329 F200.000
G1 X-1.816 Y-58.171 Z-4.368 F200.000
G1 X-2.040 Y-58.549 Z-4.406 F200.000
G1 X-2.187 Y-58.963 Z-4.445 F200.000
G1 X-2.250 Y-59.397 Z-4.484 F200.000
G1 X-2.227 Y-59.836 Z-4.522 F200.000
G1 X-2.119 Y-60.261 Z-4.561 F200.000
G1 X-1.930 Y-60.658 Z-4.600 F200.000
G1 X-1.668 Y-61.009 Z-4.638 F200.000
G1 X-1.341 Y-61.303 Z-4.677 F200.000
G1 X-0.964 Y-61.528 Z-4.715 F200.000
G1 X-0.550 Y-61.675 Z-4.754 F200.000
G1 X-0.115 Y-61.738 Z-4.793 F200.000
G1 X0.323 Y-61.715 Z-4.831 F200.000
G1 X0.749 Y-61.607 Z-4.870 F200.000
G1 X1.145 Y-61.418 Z-4.909 F200.000
G1 X1.497 Y-61.155 Z-4.947 F200.000
G1 X1.791 Y-60.829 Z-4.986 F200.000
G1 X2.015 Y-60.451 Z-5.025 F200.000
G1 X2.162 Y-60.037 Z-5.063 F200.000
G1 X2.225 Y-59.603 Z-5.102 F200.000
G1 X2.202 Y-59.164 Z-5.141 F200.000
G1 X2.094 Y-58.739 Z-5.179 F200.000
G1 X1.905 Y-58.342 Z-5.218 F200.000
G1 X1.643 Y-57.991 Z-5.257 F200.000
G1 X1.316 Y-57.697 Z-5.295 F200.000
G1 X0.939 Y-57.472 Z-5.334 F200.000
G1 X0.525 Y-57.325 Z-5.373 F200.000
G1 X0.090 Y-57.262 Z-5.411 F200.000
G1 X-0.348 Y-57.285 Z-5.450 F200.000
G1 X-0.774 Y-57.393 Z-5.488 F200.000
G1 X-1.170 Y-57.582 Z-5.527 F200.000
G1 X-1.522 Y-57.845 Z-5.566 F200.000
G1 X-1.816 Y-58.171 Z-5.604 F200.000
G1 X-2.040 Y-58.549 Z-5.643 F200.000
G1 X-2.187 Y-58.963 Z-5.682 F200.000
G1 X-2.250 Y-59.397 Z-5.720 F200.000
G1 X-2.227 Y-59.836 Z-5.759 F200.000
G1 X-2.119 Y-60.261 Z-5.798 F200.000
G1 X-1.930 Y-60.658 Z-5.836 F200.000
G1 X-1.668 Y-61.009 Z-5.875 F200.000
G1 X-1.341 Y-61.303 Z-5.914 F200.000
G1 X-0.964 Y-61.528 Z-5.952 F200.000
G1 X-0.550 Y-61.675 Z-5.991 F200.000
G1 X-0.115 Y-61.738 Z-6.000 F400.000
G1 X0.323 Y-61.715 Z-6.000 F400.000
G1 X0.749 Y-61.607 Z-6.000 F400.000
G1 X1.145 Y-61.418 Z-6.000 F400.000
G1 X1.497 Y-61.155 Z-6.000 F400.000
G1 X1.791 Y-60.829 Z-6.000 F400.000
G1 X2.015 Y-60.451 Z-6.000 F400.000
G1 X2.162 Y-60.037 Z-6.000 F400.000
G1 X2.225 Y-59.603 Z-6.000 F400.000
G1 X2.202 Y-59.164 Z-6.000 F400.000
G1 X2.094 Y-58.739 Z-6.000 F400.000
G1 X1.905 Y-58.342 Z-6.000 F400.000
G1 X1.643 Y-57.991 Z-6.000 F400.000
G1 X1.316 Y-57.697 Z-6.000 F400.000
G1 X0.939 Y-57.472 Z-6.000 F400.000
G1 X0.525 Y-57.325 Z-6.000 F400.000
G1 X0.090 Y-57.262 Z-6.000 F400.000
G1 X-0.348 Y-57.285 Z-6.000 F400.000
G1 X-0.774 Y-57.393 Z-6.000 F400.000
G1 X-1.170 Y-57.582 Z-6.000 F400.000
G1 X-1.522 Y-57.845 Z-6.000 F400.000
G1 X-1.816 Y-58.171 Z-6.000 F400.000
G1 X-2.040 Y-58.549 Z-6.000 F400.000
G1 X-2.187 Y-58.963 Z-6.000 F400.000
G1 X-2.250 Y-59.397 Z-6.000 F400.000
G1 X-2.227 Y-59.836 Z-6.000 F400.000
G1 X-2.119 Y-60.261 Z-6.000 F400.000
G1 X-1.930 Y-60.658 Z-6.000 F400.000
G1 X-1.668 Y-61.009 Z-6.000 F400.000
G1 X-1.341 Y-61.303 Z-6.000 F400.000
G1 X-0.964 Y-61.528 Z-6.000 F400.000
G1 X-0.550 Y-61.675 Z-6.000 F400.000
(Adaptive - depth: -6.000000)
G1 X-0.013 Y-61.750 F400.000
G1 X0.056 Y-61.819 F400.000
G1 X0.225 Y-61.894 F400.000
G1 X0.506 Y-61.938 F400.000
G1 X0.787 Y-61.925 F400.000
G1 X1.506 Y-61.719 F400.000
G1 X1.806 Y-61.519 F400.000
G1 X1.969 Y-61.381 F400.000
G1 X2.138 Y-61.200 F400.000
G1 X2.344 Y-60.931 F400.000
G1 X2.575 Y-60.513 F400.000
G1 X2.700 Y-60.150 F400.000
G1 X2.763 Y-59.825 F400.000
G1 X2.788 Y-59.500 F400.000
G1 X2.769 Y-59.131 F400.000
G1 X2.694 Y-58.744 F400.000
G1 X2.581 Y-58.394 F400.000
G1 X2.419 Y-58.050 F400.000
G1 X2.206 Y-57.731 F400.000
G1 X1.962 Y-57.450 F400.000
G1 X1.681 Y-57.200 F400.000
G1 X1.363 Y-57.000 F400.000
G1 X1.062 Y-56.856 F400.000
G1 X0.619 Y-56.712 F400.000
G1 X0.119 Y-56.638 F400.000
G1 X-0.356 Y-56.644 F400.000
G1 X-0.825 Y-56.731 F400.000
G1 X-1.275 Y-56.900 F400.000
G1 X-1.894 Y-57.319 F400.000
G1 X-2.225 Y-57.669 F400.000
G1 X-2.394 Y-57.900 F400.000
G1 X-2.538 Y-58.150 F400.000
G1 X-2.688 Y-58.494 F400.000
G1 X-2.806 Y-58.913 F400.000
G1 X-2.856 Y-59.312 F400.000
G1 X-2.862 Y-59.663 F400.000
G1 X-2.819 Y-60.050 F400.000
G1 X-2.719 Y-60.425 F400.000
G1 X-2.569 Y-60.769 F400.000
G1 X-2.394 Y-61.056 F400.000
G1 X-2.169 Y-61.350 F400.000
G1 X-1.887 Y-61.625 F400.000
G1 X-1.594 Y-61.844 F400.000
G1 X-1.281 Y-62.050 F400.000
G1 X-0.825 Y-62.288 F400.000
G1 X-0.231 Y-62.438 F400.000
G1 X0.438 Y-62.513 F400.000
G1 X0.906 Y-62.481 F400.000
G1 X1.375 Y-62.356 F400.000
G1 X1.900 Y-62.094 F400.000
G1 X2.288 Y-61.781 F400.000
G1 X2.819 Y-61.250 F400.000
G1 X3.188 Y-60.594 F400.000
G1 X3.281 Y-60.306 F400.000
G1 X3.381 Y-59.763 F400.000
G1 X3.400 Y-59.219 F400.000
G1 X3.350 Y-58.719 F400.000
G1 X3.237 Y-58.312 F400.000
G1 X3.119 Y-58.000 F400.000
G1 X2.875 Y-57.550 F400.000
G1 X2.319 Y-56.925 F400.000
G1 X1.919 Y-56.594 F400.000
G1 X1.281 Y-56.244 F400.000
G1 X0.887 Y-56.112 F400.000
G1 X0.487 Y-56.056 F400.000
G1 X-0.944 Y-56.081 F400.000
G1 X-1.500 Y-56.225 F400.000
G1 X-1.919 Y-56.450 F400.000
G1 X-2.369 Y-56.806 F400.000
G1 X-2.700 Y-57.156 F400.000
G1 X-3.069 Y-57.712 F400.000
G1 X-3.269 Y-58.150 F400.000
G1 X-3.487 Y-58.862 F400.000
G1 X-3.544 Y-59.606 F400.000
G1 X-3.506 Y-59.944 F400.000
G1 X-3.456 Y-60.219 F400.000
G1 X-3.344 Y-60.594 F400.000
G1 X-3.175 Y-60.987 F400.000
G1 X-2.719 Y-61.631 F400.000
G1 X-2.144 Y-62.188 F400.000
G1 X-1.819 Y-62.425 F400.000
G1 X-1.188 Y-62.756 F400.000
G1 X-1.000 Y-62.831 F400.000
G1 X-0.300 Y-62.950 F400.000
G1 X1.031 Y-62.938 F400.000
G1 X1.688 Y-62.806 F400.000
G1 X2.225 Y-62.556 F400.000
G1 X2.925 Y-61.994 F400.000
G1 X3.306 Y-61.531 F400.000
G1 X3.644 Y-60.906 F400.000
G1 X3.819 Y-60.438 F400.000
G1 X3.969 Y-59.638 F400.000
G1 X3.969 Y-58.938 F400.000
G1 X3.844 Y-58.237 F400.000
G1 X3.581 Y-57.562 F400.000
G1 X3.319 Y-57.112 F400.000
G1 X2.975 Y-56.719 F400.000
G1 X2.825 Y-56.581 F400.000
G1 X2.456 Y-56.381 F400.000
G1 X1.975 Y-56.194 F400.000
G1 X1.675 Y-56.119 F400.000
G1 X1.275 Y-56.062 F400.000
G1 X1.275 Y-56.062 F400.000
G1 X1.019 Y-56.087 F400.000
G1 X0.900 Y-56.125 F400.000
G1 X0.838 Y-56.144 F400.000
G0 X0.781 Y-56.156
G0 X-0.319 Y-56.181
G1 X-0.381 Y-56.188 F400.000
G1 X-0.625 Y-56.175 F400.000
G1 X-1.038 Y-56.069 F400.000
G1 X-1.169 Y-56.062 F400.000
G1 X-1.169 Y-56.062 F400.000
G1 X-1.637 Y-56.119 F400.000
G1 X-2.194 Y-56.275 F400.000
G1 X-2.544 Y-56.425 F400.000
G1 X-3.094 Y-56.794 F400.000
G1 X-3.375 Y-57.062 F400.000
G1 X-3.775 Y-57.612 F400.000
G1 X-4.037 Y-58.237 F400.000
G1 X-4.188 Y-58.987 F400.000
G1 X-4.213 Y-59.456 F400.000
G1 X-4.162 Y-60.019 F400.000
G1 X-3.987 Y-60.675 F400.000
G1 X-3.638 Y-61.388 F400.000
G1 X-3.237 Y-61.950 F400.000
G1 X-2.737 Y-62.425 F400.000
G1 X-2.487 Y-62.600 F400.000
G1 X-2.019 Y-62.788 F400.000
G1 X-1.319 Y-62.919 F400.000
G1 X-0.719 Y-62.950 F400.000
G1 X-0.719 Y-62.950 F400.000
G1 X-0.463 Y-62.900 F400.000
G1 X-0.356 Y-62.844 F400.000
G1 X-0.319 Y-62.800 F400.000
G0 X-0.300 Y-62.756
G0 X-0.306 Y-62.663
G0 X-2.975 Y-57.306
G1 X-3.013 Y-57.237 F400.000
G1 X-3.119 Y-57.062 F400.000
G1 X-3.169 Y-57.038 F400.000
G1 X-3.275 Y-57.031 F400.000
G1 X-3.438 Y-57.100 F400.000
G1 X-3.587 Y-57.231 F400.000
G1 X-3.587 Y-57.231 F400.000
G1 X-3.975 Y-57.775 F400.000
G1 X-4.112 Y-58.025 F400.000
G1 X-4.256 Y-58.375 F400.000
G1 X-4.406 Y-59.031 F400.000
G1 X-4.438 Y-59.594 F400.000
G1 X-4.369 Y-60.156 F400.000
G1 X-4.094 Y-61.000 F400.000
G1 X-3.781 Y-61.513 F400.000
G1 X-3.388 Y-61.969 F400.000
G1 X-2.931 Y-62.344 F400.000
G1 X-2.763 Y-62.450 F400.000
G1 X-2.763 Y-62.450 F400.000
G1 X-2.519 Y-62.525 F400.000
G1 X-2.325 Y-62.531 F400.000
G0 X-2.263 Y-62.531
G0 X-2.200 Y-62.519
G0 X-0.444 Y-62.256
G0 X0.331 Y-62.312
G0 X0.863 Y-62.581
G1 X0.912 Y-62.612 F400.000
G1 X1.294 Y-62.819 F400.000
G1 X1.481 Y-62.869 F400.000
G1 X1.675 Y-62.869 F400.000
G1 X1.675 Y-62.869 F400.000
G1 X2.144 Y-62.744 F400.000
G1 X2.500 Y-62.594 F400.000
G1 X3.006 Y-62.288 F400.000
G1 X3.469 Y-61.894 F400.000
G1 X3.837 Y-61.438 F400.000
G1 X4.131 Y-60.900 F400.000
G1 X4.281 Y-60.525 F400.000
G1 X4.388 Y-60.025 F400.000
G1 X4.431 Y-59.525 F400.000
G1 X4.406 Y-59.125 F400.000
G1 X4.312 Y-58.625 F400.000
G1 X4.150 Y-58.131 F400.000
G1 X4.013 Y-57.850 F400.000
G1 X3.731 Y-57.413 F400.000
G1 X3.312 Y-56.956 F400.000
G1 X3.312 Y-56.956 F400.000
G1 X3.281 Y-56.938 F400.000
G1 X3.269 Y-56.938 F400.000
G1 X3.294 Y-56.950 F400.000
G1 X3.312 Y-56.919 F400.000
G1 X3.319 Y-56.888 F400.000
G1 X3.319 Y-56.888 F400.000
G1 X3.081 Y-56.694 F400.000
G1 X2.850 Y-56.531 F400.000
G1 X2.344 Y-56.269 F400.000
G1 X1.950 Y-56.125 F400.000
G1 X1.594 Y-56.050 F400.000
G1 X1.288 Y-56.006 F400.000
G1 X0.838 Y-55.994 F400.000
G1 X-0.900 Y-55.994 F400.000
G1 X-1.538 Y-56.044 F400.000
G1 X-2.194 Y-56.212 F400.000
G1 X-2.544 Y-56.362 F400.000
G1 X-2.856 Y-56.538 F400.000
G1 X-3.081 Y-56.688 F400.000
G1 X-3.450 Y-57.006 F400.000
G1 X-3.625 Y-57.194 F400.000
G1 X-3.900 Y-57.550 F400.000
G1 X-4.037 Y-57.781 F400.000
G1 X-4.219 Y-58.131 F400.000
G1 X-4.306 Y-58.350 F400.000
G1 X-4.444 Y-58.906 F400.000
G1 X-4.487 Y-59.244 F400.000
G1 X-4.494 Y-59.456 F400.000
G1 X-4.475 Y-59.819 F400.000
G1 X-4.381 Y-60.337 F400.000
G1 X-4.300 Y-60.644 F400.000
G1 X-4.156 Y-60.987 F400.000
G1 X-3.900 Y-61.438 F400.000
G1 X-3.800 Y-61.587 F400.000
G1 X-3.462 Y-61.975 F400.000
G1 X-3.062 Y-62.319 F400.000
G1 X-2.844 Y-62.469 F400.000
G1 X-2.419 Y-62.694 F400.000
G1 X-1.988 Y-62.856 F400.000
G1 X-1.562 Y-62.944 F400.000
G1 X-1.200 Y-62.987 F400.000
G1 X-0.869 Y-63.006 F400.000
G1 X0.769 Y-63.006 F400.000
G1 X1.494 Y-62.956 F400.000
G1 X1.669 Y-62.925 F400.000
G1 X2.169 Y-62.794 F400.000
G1 X2.538 Y-62.638 F400.000
G1 X2.812 Y-62.481 F400.000
G1 X3.175 Y-62.231 F400.000
G1 X3.450 Y-61.994 F400.000
G1 X3.819 Y-61.562 F400.000
G1 X3.944 Y-61.375 F400.000
G1 X4.213 Y-60.862 F400.000
G1 X4.338 Y-60.544 F400.000
G1 X4.431 Y-60.163 F400.000
G1 X4.487 Y-59.594 F400.000
G1 X4.456 Y-59.075 F400.000
G1 X4.394 Y-58.731 F400.000
G1 X4.294 Y-58.331 F400.000
G1 X4.138 Y-57.962 F400.000
G1 X3.981 Y-57.675 F400.000
G1 X3.794 Y-57.400 F400.000
G1 X3.531 Y-57.094 F400.000
G1 X3.319 Y-56.888 F400.000
G1 X3.319 Y-56.888 F400.000
G0 Z5.000
(Helix to depth: -12.000000)
G0 Z5.000
G0 X1.509 Y57.845 Z5.000
G0 X1.509 Y57.845 Z3.000
G1 X1.509 Y57.845 Z-6.000 F200.000
G1 X1.509 Y57.845 Z-6.000 F200.000
G1 X1.803 Y58.171 Z-6.039 F200.000
G1 X2.028 Y58.549 Z-6.077 F200.000
G1 X2.175 Y58.963 Z-6.116 F200.000
G1 X2.238 Y59.397 Z-6.155 F200.000
G1 X2.215 Y59.836 Z-6.193 F200.000
G1 X2.107 Y60.261 Z-6.232 F200.000
G1 X1.918 Y60.658 Z-6.271 F200.000
G1 X1.655 Y61.009 Z-6.309 F200.000
G1 X1.329 Y61.303 Z-6.348 F200.000
G1 X0.951 Y61.528 Z-6.387 F200.000
G1 X0.537 Y61.675 Z-6.425 F200.000
G1 X0.103 Y61.738 Z-6.464 F200.000
G1 X-0.336 Y61.715 Z-6.502 F200.000
G1 X-0.761 Y61.607 Z-6.541 F200.000
G1 X-1.158 Y61.418 Z-6.580 F200.000
G1 X-1.509 Y61.155 Z-6.618 F200.000
G1 X-1.803 Y60.829 Z-6.657 F200.000
G1 X-2.028 Y60.451 Z-6.696 F200.000
G1 X-2.175 Y60.037 Z-6.734 F200.000
G1 X-2.238 Y59.603 Z-6.773 F200.000
G1 X-2.215 Y59.164 Z-6.812 F200.000
G1 X-2.107 Y58.739 Z-6.850 F200.000
G1 X-1.918 Y58.342 Z-6.889 F200.000
G1 X-1.655 Y57.991 Z-6.928 F200.000
G1 X-1.329 Y57.697 Z-6.966 F200.000
G1 X-0.951 Y57.472 Z-7.005 F200.000
G1 X-0.537 Y57.325 Z-7.044 F200.000
G1 X-0.103 Y57.262 Z-7.082 F200.000
G1 X0.336 Y57.285 Z-7.121 F200.000
G1 X0.761 Y57.393 Z-7.160 F200.000
G1 X1.158 Y57.582 Z-7.198 F200.000
G1 X1.509 Y57.845 Z-7.237 F200.000
G1 X1.803 Y58.171 Z-7.275 F200.000
G1 X2.028 Y58.549 Z-7.314 F200.000
G1 X2.175 Y58.963 Z-7.353 F200.000
G1 X2.238 Y59.397 Z-7.391 F200.000
G1 X2.215 Y59.836 Z-7.430 F200.000
G1 X2.107 Y60.261 Z-7.469 F200.000
G1 X1.918 Y60.658 Z-7.507 F200.000
G1 X1.655 Y61.009 Z-7.546 F200.000
G1 X1.329 Y61.303 Z-7.585 F200.000
G1 X0.951 Y61.528 Z-7.623 F200.000
G1 X0.537 Y61.675 Z-7.662 F200.000
G1 X0.103 Y61.738 Z-7.701 F200.000
G1 X-0.336 Y61.715 Z-7.739 F200.000
G1 X-0.761 Y61.607 Z-7.778 F200.000
G1 X-1.158 Y61.418 Z-7.817 F200.000
G1 X-1.509 Y61.155 Z-7.855 F200.000
G1 X-1.803 Y60.829 Z-7.894 F200.000
G1 X-2.028 Y60.451 Z-7.933 F200.000
G1 X-2.175 Y60.037 Z-7.971 F200.000
G1 X-2.238 Y59.603 Z-8.010 F200.000
G1 X-2.215 Y59.164 Z-8.049 F200.000
G1 X-2.107 Y58.739 Z-8.087 F200.000
G1 X-1.918 Y58.342 Z-8.126 F200.000
G1 X-1.655 Y57.991 Z-8.164 F200.000
G1 X-1.329 Y57.697 Z-8.203 F200.000
G1 X-0.951 Y57.472 Z-8.242 F200.000
G1 X-0.537 Y57.325 Z-8.280 F200.000
G1 X-0.103 Y57.262 Z-8.319 F200.000
G1 X0.336 Y57.285 Z-8.358 F200.000
G1 X0.761 Y57.393 Z-8.396 F200.000
G1 X1.158 Y57.582 Z-8.435 F200.000
G1 X1.509 Y57.845 Z-8.474 F200.000
G1 X1.803 Y58.171 Z-8.512 F200.000
G1 X2.028 Y58.549 Z-8.551 F200.000
G1 X2.175 Y58.963 Z-8.590 F200.000
G1 X2.238 Y59.397 Z-8.628 F200.000
G1 X2.215 Y59.836 Z-8.667 F200.000
G1 X2.107 Y60.261 Z-8.706 F200.000
G1 X1.918 Y60.658 Z-8.744 F200.000
G1 X1.655 Y61.009 Z-8.783 F200.000
G1 X1.329 Y61.303 Z-8.822 F200.000
G1 X0.951 Y61.528 Z-8.860 F200.000
G1 X0.537 Y61.675 Z-8.899 F200.000
G1 X0.103 Y61.738 Z-8.937 F200.000
G1 X-0.336 Y61.715 Z-8.976 F200.000
G1 X-0.761 Y61.607 Z-9.015 F200.000
G1 X-1.158 Y61.418 Z-9.053 F200.000
G1 X-1.509 Y61.155 Z-9.092 F200.000
G1 X-1.803 Y60.829 Z-9.131 F200.000
G1 X-2.028 Y60.451 Z-9.169 F200.000
G1 X-2.175 Y60.037 Z-9.208 F200.000
G1 X-2.238 Y59.603 Z-9.247 F200.000
G1 X-2.215 Y59.164 Z-9.285 F200.000
G1 X-2.107 Y58.739 Z-9.324 F200.000
G1 X-1.918 Y58.342 Z-9.363 F200.000
G1 X-1.655 Y57.991 Z-9.401 F200.000
G1 X-1.329 Y57.697 Z-9.440 F200.000
G1 X-0.951 Y57.472 Z-9.479 F200.000
G1 X-0.537 Y57.325 Z-9.517 F200.000
G1 X-0.103 Y57.262 Z-9.556 F200.000
G1 X0.336 Y57.285 Z-9.595 F200.000
G1 X0.761 Y57.393 Z-9.633 F200.000
G1 X1.158 Y57.582 Z-9.672 F200.000
G1 X1.509 Y57.845 Z-9.711 F200.000
G1 X1.803 Y58.171 Z-9.749 F200.000
G1 X2.028 Y58.549 Z-9.788 F200.000
G1 X2.175 Y58.963 Z-9.826 F200.000
G1 X2.238 Y59.397 Z-9.865 F200.000
G1 X2.215 Y59.836 Z-9.904 F200.000
G1 X2.107 Y60.261 Z-9.942 F200.000
G1 X1.918 Y60.658 Z-9.981 F200.000
G1 X1.655 Y61.009 Z-10.020 F200.000
G1 X1.329 Y61.303 Z-10.058 F200.000
G1 X0.951 Y61.528 Z-10.097 F200.000
G1 X0.537 Y61.675 Z-10.136 F200.000
G1 X0.103 Y61.738 Z-10.174 F200.000
G1 X-0.336 Y61.715 Z-10.213 F200.000
G1 X-0.761 Y61.607 Z-10.252 F200.000
G1 X-1.158 Y61.418 Z-10.290 F200.000
G1 X-1.509 Y61.155 Z-10.329 F200.000
G1 X-1.803 Y60.829 Z-10.368 F200.000
G1 X-2.028 Y60.451 Z-10.406 F200.000
G1 X-2.175 Y60.037 Z-10.445 F200.000
G1 X-2.238 Y59.603 Z-10.484 F200.000
G1 X-2.215 Y59.164 Z-10.522 F200.000
G1 X-2.107 Y58.739 Z-10.561 F200.000
G1 X-1.918 Y58.342 Z-10.600 F200.000
G1 X-1.655 Y57.991 Z-10.638 F200.000
G1 X-1.329 Y57.697 Z-10.677 F200.000
G1 X-0.951 Y57.472 Z-10.715 F200.000
G1 X-0.537 Y57.325 Z-10.754 F200.000
G1 X-0.103 Y57.262 Z-10.793 F200.000
G1 X0.336 Y57.285 Z-10.831 F200.000
G1 X0.761 Y57.393 Z-10.870 F200.000
G1 X1.158 Y57.582 Z-10.909 F200.000
G1 X1.509 Y57.845 Z-10.947 F200.000
G1 X1.803 Y58.171 Z-10.986 F200.000
G1 X2.028 Y58.549 Z-11.025 F200.000
G1 X2.175 Y58.963 Z-11.063 F200.000
G1 X2.238 Y59.397 Z-11.102 F200.000
G1 X2.215 Y59.836 Z-11.141 F200.000
G1 X2.107 Y60.261 Z-11.179 F200.000
G1 X1.918 Y60.658 Z-11.218 F200.000
G1 X1.655 Y61.009 Z-11.257 F200.000
G1 X1.329 Y61.303 Z-11.295 F200.000
G1 X0.951 Y61.528 Z-11.334 F200.000
G1 X0.537 Y61.675 Z-11.373 F200.000
G1 X0.103 Y61.738 Z-11.411 F200.000
G1 X-0.336 Y61.715 Z-11.450 F200.000
G1 X-0.761 Y61.607 Z-11.488 F200.000
G1 X-1.158 Y61.418 Z-11.527 F200.000
G1 X-1.509 Y61.155 Z-11.566 F200.000
G1 X-1.803 Y60.829 Z-11.604 F200.000
G1 X-2.028 Y60.451 Z-11.643 F200.000
G1 X-2.175 Y60.037 Z-11.682 F200.000
G1 X-2.238 Y59.603 Z-11.720 F200.000
G1 X-2.215 Y59.164 Z-11.759 F200.000
G1 X-2.107 Y58.739 Z-11.798 F200.000
G1 X-1.918 Y58.342 Z-11.836 F200.000
G1 X-1.655 Y57.991 Z-11.875 F200.000
G1 X-1.329 Y57.697 Z-11.914 F200.000
G1 X-0.951 Y57.472 Z-11.952 F200.000
G1 X-0.537 Y57.325 Z-11.991 F200.000
G1 X-0.103 Y57.262 Z-12.000 F400.000
G1 X0.336 Y57.285 Z-12.000 F400.000
G1 X0.761 Y57.393 Z-12.000 F400.000
G1 X1.158 Y57.582 Z-12.000 F400.000
G1 X1.509 Y57.845 Z-12.000 F400.000
G1 X1.803 Y58.171 Z-12.000 F400.000
G1 X2.028 Y58.549 Z-12.000 F400.000
G1 X2.175 Y58.963 Z-12.000 F400.000
G1 X2.238 Y59.397 Z-12.000 F400.000
G1 X2.215 Y59.836 Z-12.000 F400.000
G1 X2.107 Y60.261 Z-12.000 F400.000
G1 X1.918 Y60.658 Z-12.000 F400.000
G1 X1.655 Y61.009 Z-12.000 F400.000
G1 X1.329 Y61.303 Z-12.000 F400.000
G1 X0.951 Y61.528 Z-12.000 F400.000
G1 X0.537 Y61.675 Z-12.000 F400.000
G1 X0.103 Y61.738 Z-12.000 F400.000
G1 X-0.336 Y61.715 Z-12.000 F400.000
G1 X-0.761 Y61.607 Z-12.000 F400.000
G1 X-1.158 Y61.418 Z-12.000 F400.000
G1 X-1.509 Y61.155 Z-12.000 F400.000
G1 X-1.803 Y60.829 Z-12.000 F400.000
G1 X-2.028 Y60.451 Z-12.000 F400.000
G1 X-2.175 Y60.037 Z-12.000 F400.000
G1 X-2.238 Y59.603 Z-12.000 F400.000
G1 X-2.215 Y59.164 Z-12.000 F400.000
G1 X-2.107 Y58.739 Z-12.000 F400.000
G1 X-1.918 Y58.342 Z-12.000 F400.000
G1 X-1.655 Y57.991 Z-12.000 F400.000
G1 X-1.329 Y57.697 Z-12.000 F400.000
G1 X-0.951 Y57.472 Z-12.000 F400.000
G1 X-0.537 Y57.325 Z-12.000 F400.000
(Adaptive - depth: -12.000000)
G1 X0.000 Y57.250 F400.000
G1 X0.069 Y57.175 F400.000
G1 X0.250 Y57.087 F400.000
G1 X0.531 Y57.031 F400.000
G1 X0.812 Y57.031 F400.000
G1 X1.525 Y57.250 F400.000
G1 X1.819 Y57.438 F400.000
G1 X1.988 Y57.575 F400.000
G1 X2.169 Y57.763 F400.000
G1 X2.388 Y58.038 F400.000
G1 X2.600 Y58.444 F400.000
G1 X2.712 Y58.763 F400.000
G1 X2.788 Y59.087 F400.000
G1 X2.819 Y59.450 F400.000
G1 X2.806 Y59.831 F400.000
G1 X2.731 Y60.219 F400.000
G1 X2.625 Y60.544 F400.000
G1 X2.462 Y60.881 F400.000
G1 X2.256 Y61.188 F400.000
G1 X2.025 Y61.462 F400.000
G1 X1.719 Y61.737 F400.000
G1 X1.406 Y61.956 F400.000
G1 X1.062 Y62.119 F400.000
G1 X0.738 Y62.225 F400.000
G1 X0.138 Y62.294 F400.000
G1 X-0.431 Y62.269 F400.000
G1 X-0.900 Y62.150 F400.000
G1 X-1.663 Y61.775 F400.000
G1 X-2.081 Y61.413 F400.000
G1 X-2.263 Y61.194 F400.000
G1 X-2.406 Y60.975 F400.000
G1 X-2.556 Y60.681 F400.000
G1 X-2.700 Y60.288 F400.000
G1 X-2.788 Y59.869 F400.000
G1 X-2.825 Y59.481 F400.000
G1 X-2.794 Y59.075 F400.000
G1 X-2.719 Y58.744 F400.000
G1 X-2.606 Y58.425 F400.000
G1 X-2.450 Y58.100 F400.000
G1 X-2.231 Y57.763 F400.000
G1 X-1.962 Y57.450 F400.000
G1 X-1.663 Y57.194 F400.000
G1 X-1.381 Y56.994 F400.000
G1 X-0.831 Y56.688 F400.000
G1 X-0.144 Y56.462 F400.000
G1 X0.519 Y56.375 F400.000
G1 X0.988 Y56.406 F400.000
G1 X1.544 Y56.556 F400.000
G1 X2.056 Y56.812 F400.000
G1 X2.438 Y57.106 F400.000
G1 X2.875 Y57.612 F400.000
G1 X2.975 Y57.775 F400.000
G1 X3.300 Y58.450 F400.000
G1 X3.444 Y59.062 F400.000
G1 X3.475 Y59.375 F400.000
G1 X3.469 Y59.675 F400.000
G1 X3.425 Y60.044 F400.000
G1 X3.319 Y60.500 F400.000
G1 X3.169 Y60.913 F400.000
G1 X2.969 Y61.288 F400.000
G1 X2.450 Y61.888 F400.000
G1 X1.887 Y62.312 F400.000
G1 X1.438 Y62.550 F400.000
G1 X0.956 Y62.725 F400.000
G1 X0.456 Y62.819 F400.000
G1 X-0.506 Y62.825 F400.000
G1 X-1.069 Y62.712 F400.000
G1 X-1.613 Y62.481 F400.000
G1 X-2.112 Y62.156 F400.000
G1 X-2.475 Y61.812 F400.000
G1 X-2.775 Y61.419 F400.000
G1 X-3.169 Y60.781 F400.000
G1 X-3.400 Y60.062 F400.000
G1 X-3.438 Y59.731 F400.000
G1 X-3.444 Y59.469 F400.000
G1 X-3.425 Y59.150 F400.000
G1 X-3.350 Y58.644 F400.000
G1 X-3.169 Y58.106 F400.000
G1 X-2.888 Y57.594 F400.000
G1 X-2.425 Y57.019 F400.000
G1 X-1.881 Y56.525 F400.000
G1 X-1.356 Y56.181 F400.000
G1 X-1.069 Y56.069 F400.000
G1 X0.963 Y56.056 F400.000
G1 X1.619 Y56.106 F400.000
G1 X2.181 Y56.269 F400.000
G1 X2.531 Y56.425 F400.000
G1 X3.075 Y56.806 F400.000
G1 X3.406 Y57.144 F400.000
G1 X3.669 Y57.544 F400.000
G1 X3.962 Y58.256 F400.000
G1 X4.119 Y59.100 F400.000
G1 X4.119 Y59.850 F400.000
G1 X3.994 Y60.506 F400.000
G1 X3.694 Y61.231 F400.000
G1 X3.119 Y62.044 F400.000
G1 X2.669 Y62.438 F400.000
G1 X2.325 Y62.656 F400.000
G1 X2.044 Y62.781 F400.000
G1 X1.644 Y62.881 F400.000
G1 X-1.175 Y62.931 F400.000
G1 X-1.644 Y62.862 F400.000
G1 X-2.206 Y62.669 F400.000
G1 X-2.631 Y62.413 F400.000
G1 X-2.938 Y62.156 F400.000
G1 X-3.319 Y61.688 F400.000
G1 X-3.587 Y61.256 F400.000
G1 X-3.856 Y60.606 F400.000
G1 X-4.019 Y59.706 F400.000
G1 X-4.019 Y59.006 F400.000
G1 X-3.913 Y58.406 F400.000
G1 X-3.581 Y57.531 F400.000
G1 X-3.312 Y57.081 F400.000
G1 X-2.975 Y56.688 F400.000
G1 X-2.719 Y56.513 F400.000
G1 X-2.069 Y56.225 F400.000
G1 X-1.669 Y56.119 F400.000
G1 X-1.669 Y56.119 F400.000
G1 X-1.344 Y56.138 F400.000
G1 X-1.225 Y56.181 F400.000
G0 X-1.163 Y56.206
G0 X-0.300 Y56.681
G0 X2.456 Y56.788
G1 X2.519 Y56.788 F400.000
G1 X2.950 Y56.788 F400.000
G1 X3.194 Y56.881 F400.000
G1 X3.306 Y56.950 F400.000
G1 X3.306 Y56.950 F400.000
G1 X3.812 Y57.519 F400.000
G1 X4.100 Y58.013 F400.000
G1 X4.275 Y58.456 F400.000
G1 X4.375 Y58.831 F400.000
G1 X4.431 Y59.487 F400.000
G1 X4.381 Y60.050 F400.000
G1 X4.250 Y60.612 F400.000
G1 X3.906 Y61.325 F400.000
G1 X3.744 Y61.569 F400.000
G1 X3.337 Y62.019 F400.000
G1 X2.956 Y62.325 F400.000
G1 X2.525 Y62.581 F400.000
G1 X2.525 Y62.581 F400.000
G1 X2.275 Y62.638 F400.000
G1 X2.087 Y62.631 F400.000
G0 X2.025 Y62.619
G0 X1.106 Y62.300
G0 X-0.969 Y62.288
G0 X-1.594 Y62.494
G1 X-1.656 Y62.519 F400.000
G1 X-2.069 Y62.644 F400.000
G1 X-2.319 Y62.638 F400.000
G1 X-2.444 Y62.612 F400.000
G1 X-2.444 Y62.612 F400.000
G1 X-2.794 Y62.425 F400.000
G1 X-3.119 Y62.200 F400.000
G1 X-3.562 Y61.794 F400.000
G1 X-3.925 Y61.306 F400.000
G1 X-4.112 Y60.956 F400.000
G1 X-4.269 Y60.581 F400.000
G1 X-4.388 Y60.081 F400.000
G1 X-4.444 Y59.481 F400.000
G1 X-4.356 Y58.781 F400.000
G1 X-4.213 Y58.281 F400.000
G1 X-4.094 Y57.994 F400.000
G1 X-3.769 Y57.456 F400.000
G1 X-3.425 Y57.062 F400.000
G1 X-3.425 Y57.062 F400.000
G1 X-3.394 Y57.044 F400.000
G1 X-3.388 Y57.050 F400.000
G1 X-3.425 Y57.075 F400.000
G1 X-3.462 Y57.062 F400.000
G1 X-3.462 Y57.019 F400.000
G1 X-3.462 Y57.019 F400.000
G1 X-3.062 Y56.675 F400.000
G1 X-2.844 Y56.525 F400.000
G1 X-2.419 Y56.300 F400.000
G1 X-1.950 Y56.125 F400.000
G1 X-1.594 Y56.050 F400.000
G1 X-1.288 Y56.006 F400.000
G1 X-0.838 Y55.994 F400.000
G1 X0.887 Y55.994 F400.000
G1 X1.562 Y56.044 F400.000
G1 X2.188 Y56.206 F400.000
G1 X2.538 Y56.356 F400.000
G1 X2.812 Y56.513 F400.000
G1 X3.175 Y56.763 F400.000
G1 X3.450 Y57.000 F400.000
G1 X3.819 Y57.431 F400.000
G1 X3.962 Y57.644 F400.000
G1 X4.181 Y58.056 F400.000
G1 X4.350 Y58.500 F400.000
G1 X4.425 Y58.831 F400.000
G1 X4.481 Y59.250 F400.000
G1 X4.487 Y59.406 F400.000
G1 X4.456 Y59.919 F400.000
G1 X4.394 Y60.263 F400.000
G1 X4.300 Y60.644 F400.000
G1 X4.144 Y61.013 F400.000
G1 X3.944 Y61.369 F400.000
G1 X3.794 Y61.594 F400.000
G1 X3.531 Y61.900 F400.000
G1 X3.337 Y62.094 F400.000
G1 X3.081 Y62.300 F400.000
G1 X2.850 Y62.462 F400.000
G1 X2.344 Y62.725 F400.000
G1 X1.988 Y62.856 F400.000
G1 X1.562 Y62.944 F400.000
G1 X1.200 Y62.987 F400.000
G1 X0.869 Y63.006 F400.000
G1 X-0.931 Y63.000 F400.000
G1 X-1.337 Y62.969 F400.000
G1 X-1.669 Y62.919 F400.000
G1 X-2.212 Y62.769 F400.000
G1 X-2.544 Y62.631 F400.000
G1 X-2.856 Y62.456 F400.000
G1 X-3.081 Y62.306 F400.000
G1 X-3.562 Y61.875 F400.000
G1 X-3.888 Y61.456 F400.000
G1 X-4.056 Y61.188 F400.000
G1 X-4.175 Y60.956 F400.000
G1 X-4.319 Y60.600 F400.000
G1 X-4.444 Y60.087 F400.000
G1 X-4.487 Y59.750 F400.000
G1 X-4.494 Y59.538 F400.000
G1 X-4.469 Y59.156 F400.000
G1 X-4.412 Y58.775 F400.000
G1 X-4.287 Y58.325 F400.000
G1 X-4.131 Y57.950 F400.000
G1 X-3.956 Y57.638 F400.000
G1 X-3.800 Y57.406 F400.000
G1 X-3.462 Y57.019 F400.000
G1 X-3.462 Y57.019 F400.000
G0 Z5.000
(Helix to depth: -12.000000)
G0 Z5.000
G0 X1.497 Y-61.155 Z5.000
G0 X1.497 Y-61.155 Z3.000
G1 X1.497 Y-61.155 Z-6.000 F200.000
G1 X1.497 Y-61.155 Z-6.000 F200.000
G1 X1.791 Y-60.829 Z-6.039 F200.000
G1 X2.015 Y-60.451 Z-6.077 F200.000
G1 X2.162 Y-60.037 Z-6.116 F200.000
G1 X2.225 Y-59.603 Z-6.155 F200.000
G1 X2.202 Y-59.164 Z-6.193 F200.000
G1 X2.094 Y-58.739 Z-6.232 F200.000
G1 X1.905 Y-58.342 Z-6.271 F200.000
G1 X1.643 Y-57.991 Z-6.309 F200.000
G1 X1.316 Y-57.697 Z-6.348 F200.000
G1 X0.939 Y-57.472 Z-6.387 F200.000
G1 X0.525 Y-57.325 Z-6.425 F200.000
G1 X0.090 Y-57.262 Z-6.464 F200.000
G1 X-0.348 Y-57.285 Z-6.502 F200.000
G1 X-0.774 Y-57.393 Z-6.541 F200.000
G1 X-1.170 Y-57.582 Z-6.580 F200.000
G1 X-1.522 Y-57.845 Z-6.618 F200.000
G1 X-1.816 Y-58.171 Z-6.657 F200.000
G1 X-2.040 Y-58.549 Z-6.696 F200.000
G1 X-2.187 Y-58.963 Z-6.734 F200.000
G1 X-2.250 Y-59.397 Z-6.773 F200.000
G1 X-2.227 Y-59.836 Z-6.812 F200.000
G1 X-2.119 Y-60.261 Z-6.850 F200.000
G1 X-1.930 Y-60.658 Z-6.889 F200.000
G1 X-1.668 Y-61.009 Z-6.928 F200.000
G1 X-1.341 Y-61.303 Z-6.966 F200.000
G1 X-0.964 Y-61.528 Z-7.005 F200.000
G1 X-0.550 Y-61.675 Z-7.044 F200.000
G1 X-0.115 Y-61.738 Z-7.082 F200.000
G1 X0.323 Y-61.715 Z-7.121 F200.000
G1 X0.749 Y-61.607 Z-7.160 F200.000
G1 X1.145 Y-61.418 Z-7.198 F200.000
G1 X1.497 Y-61.155 Z-7.237 F200.000
G1 X1.791 Y-60.829 Z-7.275 F200.000
G1 X2.015 Y-60.451 Z-7.314 F200.000
G1 X2.162 Y-60.037 Z-7.353 F200.000
G1 X2.225 Y-59.603 Z-7.391 F200.000
G1 X2.202 Y-59.164 Z-7.430 F200.000
G1 X2.094 Y-58.739 Z-7.469 F200.000
G1 X1.905 Y-58.342 Z-7.507 F200.000
G1 X1.643 Y-57.991 Z-7.546 F200.000
G1 X1.316 Y-57.697 Z-7.585 F200.000
G1 X0.939 Y-57.472 Z-7.623 F200.000
G1 X0.525 Y-57.325 Z-7.662 F200.000
G1 X0.090 Y-57.262 Z-7.701 F200.000
G1 X-0.348 Y-57.285 Z-7.739 F200.000
G1 X-0.774 Y-57.393 Z-7.778 F200.000
G1 X-1.170 Y-57.582 Z-7.817 F200.000
G1 X-1.522 Y-57.845 Z-7.855 F200.000
G1 X-1.816 Y-58.171 Z-7.894 F200.000
G1 X-2.040 Y-58.549 Z-7.933 F200.000
G1 X-2.187 Y-58.963 Z-7.971 F200.000
G1 X-2.250 Y-59.397 Z-8.010 F200.000
G1 X-2.227 Y-59.836 Z-8.049 F200.000
G1 X-2.119 Y-60.261 Z-8.087 F200.000
G1 X-1.930 Y-60.658 Z-8.126 F200.000
G1 X-1.668 Y-61.009 Z-8.164 F200.000
G1 X-1.341 Y-61.303 Z-8.203 F200.000
G1 X-0.964 Y-61.528 Z-8.242 F200.000
G1 X-0.550 Y-61.675 Z-8.280 F200.000
G1 X-0.115 Y-61.738 Z-8.319 F200.000
G1 X0.323 Y-61.715 Z-8.358 F200.000
G1 X0.749 Y-61.607 Z-8.396 F200.000
G1 X1.145 Y-61.418 Z-8.435 F200.000
G1 X1.497 Y-61.155 Z-8.474 F200.000
G1 X1.791 Y-60.829 Z-8.512 F200.000
G1 X2.015 Y-60.451 Z-8.551 F200.000
G1 X2.162 Y-60.037 Z-8.590 F200.000
G1 X2.225 Y-59.603 Z-8.628 F200.000
G1 X2.202 Y-59.164 Z-8.667 F200.000
G1 X2.094 Y-58.739 Z-8.706 F200.000
G1 X1.905 Y-58.342 Z-8.744 F200.000
G1 X1.643 Y-57.991 Z-8.783 F200.000
G1 X1.316 Y-57.697 Z-8.822 F200.000
G1 X0.939 Y-57.472 Z-8.860 F200.000
G1 X0.525 Y-57.325 Z-8.899 F200.000
G1 X0.090 Y-57.262 Z-8.937 F200.000
G1 X-0.348 Y-57.285 Z-8.976 F200.000
G1 X-0.774 Y-57.393 Z-9.015 F200.000
G1 X-1.170 Y-57.582 Z-9.053 F200.000
G1 X-1.522 Y-57.845 Z-9.092 F200.000
G1 X-1.816 Y-58.171 Z-9.131 F200.000
G1 X-2.040 Y-58.549 Z-9.169 F200.000
G1 X-2.187 Y-58.963 Z-9.208 F200.000
G1 X-2.250 Y-59.397 Z-9.247 F200.000
G1 X-2.227 Y-59.836 Z-9.285 F200.000
G1 X-2.119 Y-60.261 Z-9.324 F200.000
G1 X-1.930 Y-60.658 Z-9.363 F200.000
G1 X-1.668 Y-61.009 Z-9.401 F200.000
G1 X-1.341 Y-61.303 Z-9.440 F200.000
G1 X-0.964 Y-61.528 Z-9.479 F200.000
G1 X-0.550 Y-61.675 Z-9.517 F200.000
G1 X-0.115 Y-61.738 Z-9.556 F200.000
G1 X0.323 Y-61.715 Z-9.595 F200.000
G1 X0.749 Y-61.607 Z-9.633 F200.000
G1 X1.145 Y-61.418 Z-9.672 F200.000
G1 X1.497 Y-61.155 Z-9.711 F200.000
G1 X1.791 Y-60.829 Z-9.749 F200.000
G1 X2.015 Y-60.451 Z-9.788 F200.000
G1 X2.162 Y-60.037 Z-9.826 F200.000
G1 X2.225 Y-59.603 Z-9.865 F200.000
G1 X2.202 Y-59.164 Z-9.904 F200.000
G1 X2.094 Y-58.739 Z-9.942 F200.000
G1 X1.905 Y-58.342 Z-9.981 F200.000
G1 X1.643 Y-57.991 Z-10.020 F200.000
G1 X1.316 Y-57.697 Z-10.058 F200.000
G1 X0.939 Y-57.472 Z-10.097 F200.000
G1 X0.525 Y-57.325 Z-10.136 F200.000
G1 X0.090 Y-57.262 Z-10.174 F200.000
G1 X-0.348 Y-57.285 Z-10.213 F200.000
G1 X-0.774 Y-57.393 Z-10.252 F200.000
G1 X-1.170 Y-57.582 Z-10.290 F200.000
G1 X-1.522 Y-57.845 Z-10.329 F200.000
G1 X-1.816 Y-58.171 Z-10.368 F200.000
G1 X-2.040 Y-58.549 Z-10.406 F200.000
G1 X-2.187 Y-58.963 Z-10.445 F200.000
G1 X-2.250 Y-59.397 Z-10.484 F200.000
G1 X-2.227 Y-59.836 Z-10.522 F200.000
G1 X-2.119 Y-60.261 Z-10.561 F200.000
G1 X-1.930 Y-60.658 Z-10.600 F200.000
G1 X-1.668 Y-61.009 Z-10.638 F200.000
G1 X-1.341 Y-61.303 Z-10.677 F200.000
G1 X-0.964 Y-61.528 Z-10.715 F200.000
G1 X-0.550 Y-61.675 Z-10.754 F200.000
G1 X-0.115 Y-61.738 Z-10.793 F200.000
G1 X0.323 Y-61.715 Z-10.831 F200.000
G1 X0.749 Y-61.607 Z-10.870 F200.000
G1 X1.145 Y-61.418 Z-10.909 F200.000
G1 X1.497 Y-61.155 Z-10.947 F200.000
G1 X1.791 Y-60.829 Z-10.986 F200.000
G1 X2.015 Y-60.451 Z-11.025 F200.000
G1 X2.162 Y-60.037 Z-11.063 F200.000
G1 X2.225 Y-59.603 Z-11.102 F200.000
G1 X2.202 Y-59.164 Z-11.141 F200.000
G1 X2.094 Y-58.739 Z-11.179 F200.000
G1 X1.905 Y-58.342 Z-11.218 F200.000
G1 X1.643 Y-57.991 Z-11.257 F200.000
G1 X1.316 Y-57.697 Z-11.295 F200.000
G1 X0.939 Y-57.472 Z-11.334 F200.000
G1 X0.525 Y-57.325 Z-11.373 F200.000
G1 X0.090 Y-57.262 Z-11.411 F200.000
G1 X-0.348 Y-57.285 Z-11.450 F200.000
G1 X-0.774 Y-57.393 Z-11.488 F200.000
G1 X-1.170 Y-57.582 Z-11.527 F200.000
G1 X-1.522 Y-57.845 Z-11.566 F200.000
G1 X-1.816 Y-58.171 Z-11.604 F200.000
G1 X-2.040 Y-58.549 Z-11.643 F200.000
G1 X-2.187 Y-58.963 Z-11.682 F200.000
G1 X-2.250 Y-59.397 Z-11.720 F200.000
G1 X-2.227 Y-59.836 Z-11.759 F200.000
G1 X-2.119 Y-60.261 Z-11.798 F200.000
G1 X-1.930 Y-60.658 Z-11.836 F200.000
G1 X-1.668 Y-61.009 Z-11.875 F200.000
G1 X-1.341 Y-61.303 Z-11.914 F200.000
G1 X-0.964 Y-61.528 Z-11.952 F200.000
G1 X-0.550 Y-61.675 Z-11.991 F200.000
G1 X-0.115 Y-61.738 Z-12.000 F400.000
G1 X0.323 Y-61.715 Z-12.000 F400.000
G1 X0.749 Y-61.607 Z-12.000 F400.000
G1 X1.145 Y-61.418 Z-12.000 F400.000
G1 X1.497 Y-61.155 Z-12.000 F400.000
G1 X1.791 Y-60.829 Z-12.000 F400.000
G1 X2.015 Y-60.451 Z-12.000 F400.000
G1 X2.162 Y-60.037 Z-12.000 F400.000
G1 X2.225 Y-59.603 Z-12.000 F400.000
G1 X2.202 Y-59.164 Z-12.000 F400.000
G1 X2.094 Y-58.739 Z-12.000 F400.000
G1 X1.905 Y-58.342 Z-12.000 F400.000
G1 X1.643 Y-57.991 Z-12.000 F400.000
G1 X1.316 Y-57.697 Z-12.000 F400.000
G1 X0.939 Y-57.472 Z-12.000 F400.000
G1 X0.525 Y-57.325 Z-12.000 F400.000
G1 X0.090 Y-57.262 Z-12.000 F400.000
G1 X-0.348 Y-57.285 Z-12.000 F400.000
G1 X-0.774 Y-57.393 Z-12.000 F400.000
G1 X-1.170 Y-57.582 Z-12.000 F400.000
G1 X-1.522 Y-57.845 Z-12.000 F400.000
G1 X-1.816 Y-58.171 Z-12.000 F400.000
G1 X-2.040 Y-58.549 Z-12.000 F400.000
G1 X-2.187 Y-58.963 Z-12.000 F400.000
G1 X-2.250 Y-59.397 Z-12.000 F400.000
G1 X-2.227 Y-59.836 Z-12.000 F400.000
G1 X-2.119 Y-60.261 Z-12.000 F400.000
G1 X-1.930 Y-60.658 Z-12.000 F400.000
G1 X-1.668 Y-61.009 Z-12.000 F400.000
G1 X-1.341 Y-61.303 Z-12.000 F400.000
G1 X-0.964 Y-61.528 Z-12.000 F400.000
G1 X-0.550 Y-61.675 Z-12.000 F400.000
(Adaptive - depth: -12.000000)
G1 X-0.013 Y-61.750 F400.000
G1 X0.056 Y-61.819 F400.000
G1 X0.225 Y-61.894 F400.000
G1 X0.506 Y-61.938 F400.000
G1 X0.787 Y-61.925 F400.000
G1 X1.506 Y-61.719 F400.000
G1 X1.806 Y-61.519 F400.000
G1 X1.969 Y-61.381 F400.000
G1 X2.138 Y-61.200 F400.000
G1 X2.344 Y-60.931 F400.000
G1 X2.575 Y-60.513 F400.000
G1 X2.700 Y-60.150 F400.000
G1 X2.763 Y-59.825 F400.000
G1 X2.788 Y-59.500 F400.000
G1 X2.769 Y-59.131 F400.000
G1 X2.694 Y-58.744 F400.000
G1 X2.581 Y-58.394 F400.000
G1 X2.419 Y-58.050 F400.000
G1 X2.206 Y-57.731 F400.000
G1 X1.962 Y-57.450 F400.000
G1 X1.681 Y-57.200 F400.000
G1 X1.363 Y-57.000 F400.000
G1 X1.062 Y-56.856 F400.000
G1 X0.619 Y-56.712 F400.000
G1 X0.119 Y-56.638 F400.000
G1 X-0.356 Y-56.644 F400.000
G1 X-0.825 Y-56.731 F400.000
G1 X-1.275 Y-56.900 F400.000
G1 X-1.894 Y-57.319 F400.000
G1 X-2.225 Y-57.669 F400.000
G1 X-2.394 Y-57.900 F400.000
G1 X-2.538 Y-58.150 F400.000
G1 X-2.688 Y-58.494 F400.000
G1 X-2.806 Y-58.913 F400.000
G1 X-2.856 Y-59.312 F400.000
G1 X-2.862 Y-59.663 F400.000
G1 X-2.819 Y-60.050 F400.000
G1 X-2.719 Y-60.425 F400.000
G1 X-2.569 Y-60.769 F400.000
G1 X-2.394 Y-61.056 F400.000
G1 X-2.169 Y-61.350 F400.000
G1 X-1.887 Y-61.625 F400.000
G1 X-1.594 Y-61.844 F400.000
G1 X-1.281 Y-62.050 F400.000
G1 X-0.825 Y-62.288 F400.000
G1 X-0.231 Y-62.438 F400.000
G1 X0.438 Y-62.513 F400.000
G1 X0.906 Y-62.481 F400.000
G1 X1.375 Y-62.356 F400.000
G1 X1.900 Y-62.094 F400.000
G1 X2.288 Y-61.781 F400.000
G1 X2.819 Y-61.250 F400.000
G1 X3.188 Y-60.594 F400.000
G1 X3.281 Y-60.306 F400.000
G1 X3.381 Y-59.763 F400.000
G1 X3.400 Y-59.219 F400.000
G1 X3.350 Y-58.719 F400.000
G1 X3.237 Y-58.312 F400.000
G1 X3.119 Y-58.000 F400.000
G1 X2.875 Y-57.550 F400.000
G1 X2.319 Y-56.925 F400.000
G1 X1.919 Y-56.594 F400.000
G1 X1.281 Y-56.244 F400.000
G1 X0.887 Y-56.112 F400.000
G1 X0.487 Y-56.056 F400.000
G1 X-0.944 Y-56.081 F400.000
G1 X-1.500 Y-56.225 F400.000
G1 X-1.919 Y-56.450 F400.000
G1 X-2.369 Y-56.806 F400.000
G1 X-2.700 Y-57.156 F400.000
G1 X-3.069 Y-57.712 F400.000
G1 X-3.269 Y-58.150 F400.000
G1 X-3.487 Y-58.862 F400.000
G1 X-3.544 Y-59.606 F400.000
G1 X-3.506 Y-59.944 F400.000
G1 X-3.456 Y-60.219 F400.000
G1 X-3.344 Y-60.594 F400.000
G1 X-3.175 Y-60.987 F400.000
G1 X-2.719 Y-61.631 F400.000
G1 X-2.144 Y-62.188 F400.000
G1 X-1.819 Y-62.425 F400.000
G1 X-1.188 Y-62.756 F400.000
G1 X-1.000 Y-62.831 F400.000
G1 X-0.300 Y-62.950 F400.000
G1 X1.031 Y-62.938 F400.000
G1 X1.688 Y-62.806 F400.000
G1 X2.225 Y-62.556 F400.000
G1 X2.925 Y-61.994 F400.000
G1 X3.306 Y-61.531 F400.000
G1 X3.644 Y-60.906 F400.000
G1 X3.819 Y-60.438 F400.000
G1 X3.969 Y-59.638 F400.000
G1 X3.969 Y-58.938 F400.000
G1 X3.844 Y-58.237 F400.000
G1 X3.581 Y-57.562 F400.000
G1 X3.319 Y-57.112 F400.000
G1 X2.975 Y-56.719 F400.000
G1 X2.825 Y-56.581 F400.000
G1 X2.456 Y-56.381 F400.000
G1 X1.975 Y-56.194 F400.000
G1 X1.675 Y-56.119 F400.000
G1 X1.275 Y-56.062 F400.000
G1 X1.275 Y-56.062 F400.000
G1 X1.019 Y-56.087 F400.000
G1 X0.900 Y-56.125 F400.000
G1 X0.838 Y-56.144 F400.000
G0 X0.781 Y-56.156
G0 X-0.319 Y-56.181
G1 X-0.381 Y-56.188 F400.000
G1 X-0.625 Y-56.175 F400.000
G1 X-1.038 Y-56.069 F400.000
G1 X-1.169 Y-56.062 F400.000
G1 X-1.169 Y-56.062 F400.000
G1 X-1.637 Y-56.119 F400.000
G1 X-2.194 Y-56.275 F400.000
G1 X-2.544 Y-56.425 F400.000
G1 X-3.094 Y-56.794 F400.000
G1 X-3.375 Y-57.062 F400.000
G1 X-3.775 Y-57.612 F400.000
G1 X-4.037 Y-58.237 F400.000
G1 X-4.188 Y-58.987 F400.000
G1 X-4.213 Y-59.456 F400.000
G1 X-4.162 Y-60.019 F400.000
G1 X-3.987 Y-60.675 F400.000
G1 X-3.638 Y-61.388 F400.000
G1 X-3.237 Y-61.950 F400.000
G1 X-2.737 Y-62.425 F400.000
G1 X-2.487 Y-62.600 F400.000
G1 X-2.019 Y-62.788 F400.000
G1 X-1.319 Y-62.919 F400.000
G1 X-0.719 Y-62.950 F400.000
G1 X-0.719 Y-62.950 F400.000
G1 X-0.463 Y-62.900 F400.000
G1 X-0.356 Y-62.844 F400.000
G1 X-0.319 Y-62.800 F400.000
G0 X-0.300 Y-62.756
G0 X-0.306 Y-62.663
G0 X-2.975 Y-57.306
G1 X-3.013 Y-57.237 F400.000
G1 X-3.119 Y-57.062 F400.000
G1 X-3.169 Y-57.038 F400.000
G1 X-3.275 Y-57.031 F400.000
G1 X-3.438 Y-57.100 F400.000
G1 X-3.587 Y-57.231 F400.000
G1 X-3.587 Y-57.231 F400.000
G1 X-3.975 Y-57.775 F400.000
G1 X-4.112 Y-58.025 F400.000
G1 X-4.256 Y-58.375 F400.000
G1 X-4.406 Y-59.031 F400.000
G1 X-4.438 Y-59.594 F400.000
G1 X-4.369 Y-60.156 F400.000
G1 X-4.094 Y-61.000 F400.000
G1 X-3.781 Y-61.513 F400.000
G1 X-3.388 Y-61.969 F400.000
G1 X-2.931 Y-62.344 F400.000
G1 X-2.763 Y-62.450 F400.000
G1 X-2.763 Y-62.450 F400.000
G1 X-2.519 Y-62.525 F400.000
G1 X-2.325 Y-62.531 F400.000
G0 X-2.263 Y-62.531
G0 X-2.200 Y-62.519
G0 X-0.444 Y-62.256
G0 X0.331 Y-62.312
G0 X0.863 Y-62.581
G1 X0.912 Y-62.612 F400.000
G1 X1.294 Y-62.819 F400.000
G1 X1.481 Y-62.869 F400.000
G1 X1.675 Y-62.869 F400.000
G1 X1.675 Y-62.869 F400.000
G1 X2.144 Y-62.744 F400.000
G1 X2.500 Y-62.594 F400.000
G1 X3.006 Y-62.288 F400.000
G1 X3.469 Y-61.894 F400.000
G1 X3.837 Y-61.438 F400.000
G1 X4.131 Y-60.900 F400.000
G1 X4.281 Y-60.525 F400.000
G1 X4.388 Y-60.025 F400.000
G1 X4.431 Y-59.525 F400.000
G1 X4.406 Y-59.125 F400.000
G1 X4.312 Y-58.625 F400.000
G1 X4.150 Y-58.131 F400.000
G1 X4.013 Y-57.850 F400.000
G1 X3.731 Y-57.413 F400.000
G1 X3.312 Y-56.956 F400.000
G1 X3.312 Y-56.956 F400.000
G1 X3.281 Y-56.938 F400.000
G1 X3.269 Y-56.938 F400.000
G1 X3.294 Y-56.950 F400.000
G1 X3.312 Y-56.919 F400.000
G1 X3.319 Y-56.888 F400.000
G1 X3.319 Y-56.888 F400.000
G1 X3.081 Y-56.694 F400.000
G1 X2.850 Y-56.531 F400.000
G1 X2.344 Y-56.269 F400.000
G1 X1.950 Y-56.125 F400.000
G1 X1.594 Y-56.050 F400.000
G1 X1.288 Y-56.006 F400.000
G1 X0.838 Y-55.994 F400.000
G1 X-0.900 Y-55.994 F400.000
G1 X-1.538 Y-56.044 F400.000
G1 X-2.194 Y-56.212 F400.000
G1 X-2.544 Y-56.362 F400.000
G1 X-2.856 Y-56.538 F400.000
G1 X-3.081 Y-56.688 F400.000
G1 X-3.450 Y-57.006 F400.000
G1 X-3.625 Y-57.194 F400.000
G1 X-3.900 Y-57.550 F400.000
G1 X-4.037 Y-57.781 F400.000
G1 X-4.219 Y-58.131 F400.000
G1 X-4.306 Y-58.350 F400.000
G1 X-4.444 Y-58.906 F400.000
G1 X-4.487 Y-59.244 F400.000
G1 X-4.494 Y-59.456 F400.000
G1 X-4.475 Y-59.819 F400.000
G1 X-4.381 Y-60.337 F400.000
G1 X-4.300 Y-60.644 F400.000
G1 X-4.156 Y-60.987 F400.000
G1 X-3.900 Y-61.438 F400.000
G1 X-3.800 Y-61.587 F400.000
G1 X-3.462 Y-61.975 F400.000
G1 X-3.062 Y-62.319 F400.000
G1 X-2.844 Y-62.469 F400.000
G1 X-2.419 Y-62.694 F400.000
G1 X-1.988 Y-62.856 F400.000
G1 X-1.562 Y-62.944 F400.000
G1 X-1.200 Y-62.987 F400.000
G1 X-0.869 Y-63.006 F400.000
G1 X0.769 Y-63.006 F400.000
G1 X1.494 Y-62.956 F400.000
G1 X1.669 Y-62.925 F400.000
G1 X2.169 Y-62.794 F400.000
G1 X2.538 Y-62.638 F400.000
G1 X2.812 Y-62.481 F400.000
G1 X3.175 Y-62.231 F400.000
G1 X3.450 Y-61.994 F400.000
G1 X3.819 Y-61.562 F400.000
G1 X3.944 Y-61.375 F400.000
G1 X4.213 Y-60.862 F400.000
G1 X4.338 Y-60.544 F400.000
G1 X4.431 Y-60.163 F400.000
G1 X4.487 Y-59.594 F400.000
G1 X4.456 Y-59.075 F400.000
G1 X4.394 Y-58.731 F400.000
G1 X4.294 Y-58.331 F400.000
G1 X4.138 Y-57.962 F400.000
G1 X3.981 Y-57.675 F400.000
G1 X3.794 Y-57.400 F400.000
G1 X3.531 Y-57.094 F400.000
G1 X3.319 Y-56.888 F400.000
G1 X3.319 Y-56.888 F400.000
G0 Z5.000
(Helix to depth: -12.500000)
G0 Z5.000
G0 X-0.883 Y61.559 Z5.000
G0 X-0.883 Y61.559 Z3.000
G1 X-0.883 Y61.559 Z-12.000 F200.000
G1 X-0.883 Y61.559 Z-12.000 F200.000
G1 X-1.268 Y61.347 Z-12.039 F200.000
G1 X-1.604 Y61.064 Z-12.077 F200.000
G1 X-1.878 Y60.721 Z-12.116 F200.000
G1 X-2.080 Y60.331 Z-12.155 F200.000
G1 X-2.202 Y59.909 Z-12.193 F200.000
G1 X-2.240 Y59.472 Z-12.232 F200.000
G1 X-2.191 Y59.035 Z-12.271 F200.000
G1 X-2.059 Y58.617 Z-12.309 F200.000
G1 X-1.847 Y58.232 Z-12.348 F200.000
G1 X-1.564 Y57.896 Z-12.387 F200.000
G1 X-1.221 Y57.622 Z-12.425 F200.000
G1 X-0.831 Y57.420 Z-12.464 F200.000
G1 X-0.409 Y57.298 Z-12.500 F400.000
G1 X0.028 Y57.260 Z-12.500 F400.000
G1 X0.465 Y57.309 Z-12.500 F400.000
G1 X0.883 Y57.441 Z-12.500 F400.000
G1 X1.268 Y57.653 Z-12.500 F400.000
G1 X1.604 Y57.936 Z-12.500 F400.000
G1 X1.878 Y58.279 Z-12.500 F400.000
G1 X2.080 Y58.669 Z-12.500 F400.000
G1 X2.202 Y59.091 Z-12.500 F400.000
G1 X2.240 Y59.528 Z-12.500 F400.000
G1 X2.191 Y59.965 Z-12.500 F400.000
G1 X2.059 Y60.383 Z-12.500 F400.000
G1 X1.847 Y60.768 Z-12.500 F400.000
G1 X1.564 Y61.104 Z-12.500 F400.000
G1 X1.221 Y61.378 Z-12.500 F400.000
G1 X0.831 Y61.580 Z-12.500 F400.000
G1 X0.409 Y61.702 Z-12.500 F400.000
G1 X-0.028 Y61.740 Z-12.500 F400.000
G1 X-0.465 Y61.691 Z-12.500 F400.000
G1 X-0.883 Y61.559 Z-12.500 F400.000
G1 X-1.268 Y61.347 Z-12.500 F400.000
G1 X-1.604 Y61.064 Z-12.500 F400.000
G1 X-1.878 Y60.721 Z-12.500 F400.000
G1 X-2.080 Y60.331 Z-12.500 F400.000
G1 X-2.202 Y59.909 Z-12.500 F400.000
G1 X-2.240 Y59.472 Z-12.500 F400.000
G1 X-2.191 Y59.035 Z-12.500 F400.000
G1 X-2.059 Y58.617 Z-12.500 F400.000
G1 X-1.847 Y58.232 Z-12.500 F400.000
G1 X-1.564 Y57.896 Z-12.500 F400.000
G1 X-1.221 Y57.622 Z-12.500 F400.000
G1 X-0.831 Y57.420 Z-12.500 F400.000
(Adaptive - depth: -12.500000)
G1 X0.000 Y57.250 F400.000
G1 X0.069 Y57.175 F400.000
G1 X0.250 Y57.087 F400.000
G1 X0.531 Y57.031 F400.000
G1 X0.812 Y57.031 F400.000
G1 X1.525 Y57.250 F400.000
G1 X1.819 Y57.438 F400.000
G1 X1.988 Y57.575 F400.000
G1 X2.169 Y57.763 F400.000
G1 X2.388 Y58.038 F400.000
G1 X2.600 Y58.444 F400.000
G1 X2.712 Y58.763 F400.000
G1 X2.788 Y59.087 F400.000
G1 X2.819 Y59.450 F400.000
G1 X2.806 Y59.831 F400.000
G1 X2.731 Y60.219 F400.000
G1 X2.625 Y60.544 F400.000
G1 X2.462 Y60.881 F400.000
G1 X2.256 Y61.188 F400.000
G1 X2.025 Y61.462 F400.000
G1 X1.719 Y61.737 F400.000
G1 X1.406 Y61.956 F400.000
G1 X1.062 Y62.119 F400.000
G1 X0.738 Y62.225 F400.000
G1 X0.138 Y62.294 F400.000
G1 X-0.431 Y62.269 F400.000
G1 X-0.900 Y62.150 F400.000
G1 X-1.663 Y61.775 F400.000
G1 X-2.081 Y61.413 F400.000
G1 X-2.263 Y61.194 F400.000
G1 X-2.406 Y60.975 F400.000
G1 X-2.556 Y60.681 F400.000
G1 X-2.700 Y60.288 F400.000
G1 X-2.788 Y59.869 F400.000
G1 X-2.825 Y59.481 F400.000
G1 X-2.794 Y59.075 F400.000
G1 X-2.719 Y58.744 F400.000
G1 X-2.606 Y58.425 F400.000
G1 X-2.450 Y58.100 F400.000
G1 X-2.231 Y57.763 F400.000
G1 X-1.962 Y57.450 F400.000
G1 X-1.663 Y57.194 F400.000
G1 X-1.381 Y56.994 F400.000
G1 X-0.831 Y56.688 F400.000
G1 X-0.144 Y56.462 F400.000
G1 X0.519 Y56.375 F400.000
G1 X0.988 Y56.406 F400.000
G1 X1.544 Y56.556 F400.000
G1 X2.056 Y56.812 F400.000
G1 X2.438 Y57.106 F400.000
G1 X2.875 Y57.612 F400.000
G1 X2.975 Y57.775 F400.000
G1 X3.300 Y58.450 F400.000
G1 X3.444 Y59.062 F400.000
G1 X3.475 Y59.375 F400.000
G1 X3.469 Y59.675 F400.000
G1 X3.425 Y60.044 F400.000
G1 X3.319 Y60.500 F400.000
G1 X3.169 Y60.913 F400.000
G1 X2.969 Y61.288 F400.000
G1 X2.450 Y61.888 F400.000
G1 X1.887 Y62.312 F400.000
G1 X1.438 Y62.550 F400.000
G1 X0.956 Y62.725 F400.000
G1 X0.456 Y62.819 F400.000
G1 X-0.506 Y62.825 F400.000
G1 X-1.069 Y62.712 F400.000
G1 X-1.613 Y62.481 F400.000
G1 X-2.112 Y62.156 F400.000
G1 X-2.475 Y61.812 F400.000
G1 X-2.775 Y61.419 F400.000
G1 X-3.169 Y60.781 F400.000
G1 X-3.400 Y60.062 F400.000
G1 X-3.438 Y59.731 F400.000
G1 X-3.444 Y59.469 F400.000
G1 X-3.425 Y59.150 F400.000
G1 X-3.350 Y58.644 F400.000
G1 X-3.169 Y58.106 F400.000
G1 X-2.888 Y57.594 F400.000
G1 X-2.425 Y57.019 F400.000
G1 X-1.881 Y56.525 F400.000
G1 X-1.356 Y56.181 F400.000
G1 X-1.069 Y56.069 F400.000
G1 X0.963 Y56.056 F400.000
G1 X1.619 Y56.106 F400.000
G1 X2.181 Y56.269 F400.000
G1 X2.531 Y56.425 F400.000
G1 X3.075 Y56.806 F400.000
G1 X3.406 Y57.144 F400.000
G1 X3.669 Y57.544 F400.000
G1 X3.962 Y58.256 F400.000
G1 X4.119 Y59.100 F400.000
G1 X4.119 Y59.850 F400.000
G1 X3.994 Y60.506 F400.000
G1 X3.694 Y61.231 F400.000
G1 X3.119 Y62.044 F400.000
G1 X2.669 Y62.438 F400.000
G1 X2.325 Y62.656 F400.000
G1 X2.044 Y62.781 F400.000
G1 X1.644 Y62.881 F400.000
G1 X-1.175 Y62.931 F400.000
G1 X-1.644 Y62.862 F400.000
G1 X-2.206 Y62.669 F400.000
G1 X-2.631 Y62.413 F400.000
G1 X-2.938 Y62.156 F400.000
G1 X-3.319 Y61.688 F400.000
G1 X-3.587 Y61.256 F400.000
G1 X-3.856 Y60.606 F400.000
G1 X-4.019 Y59.706 F400.000
G1 X-4.019 Y59.006 F400.000
G1 X-3.913 Y58.406 F400.000
G1 X-3.581 Y57.531 F400.000
G1 X-3.312 Y57.081 F400.000
G1 X-2.975 Y56.688 F400.000
G1 X-2.719 Y56.513 F400.000
G1 X-2.069 Y56.225 F400.000
G1 X-1.669 Y56.119 F400.000
G1 X-1.669 Y56.119 F400.000
G1 X-1.344 Y56.138 F400.000
G1 X-1.225 Y56.181 F400.000
G0 X-1.163 Y56.206
G0 X-0.300 Y56.681
G0 X2.456 Y56.788
G1 X2.519 Y56.788 F400.000
G1 X2.950 Y56.788 F400.000
G1 X3.194 Y56.881 F400.000
G1 X3.306 Y56.950 F400.000
G1 X3.306 Y56.950 F400.000
G1 X3.812 Y57.519 F400.000
G1 X4.100 Y58.013 F400.000
G1 X4.275 Y58.456 F400.000
G1 X4.375 Y58.831 F400.000
G1 X4.431 Y59.487 F400.000
G1 X4.381 Y60.050 F400.000
G1 X4.250 Y60.612 F400.000
G1 X3.906 Y61.325 F400.000
G1 X3.744 Y61.569 F400.000
G1 X3.337 Y62.019 F400.000
G1 X2.956 Y62.325 F400.000
G1 X2.525 Y62.581 F400.000
G1 X2.525 Y62.581 F400.000
G1 X2.275 Y62.638 F400.000
G1 X2.087 Y62.631 F400.000
G0 X2.025 Y62.619
G0 X1.106 Y62.300
G0 X-0.969 Y62.288
G0 X-1.594 Y62.494
G1 X-1.656 Y62.519 F400.000
G1 X-2.069 Y62.644 F400.000
G1 X-2.319 Y62.638 F400.000
G1 X-2.444 Y62.612 F400.000
G1 X-2.444 Y62.612 F400.000
G1 X-2.794 Y62.425 F400.000
G1 X-3.119 Y62.200 F400.000
G1 X-3.562 Y61.794 F400.000
G1 X-3.925 Y61.306 F400.000
G1 X-4.112 Y60.956 F400.000
G1 X-4.269 Y60.581 F400.000
G1 X-4.388 Y60.081 F400.000
G1 X-4.444 Y59.481 F400.000
G1 X-4.356 Y58.781 F400.000
G1 X-4.213 Y58.281 F400.000
G1 X-4.094 Y57.994 F400.000
G1 X-3.769 Y57.456 F400.000
G1 X-3.425 Y57.062 F400.000
G1 X-3.425 Y57.062 F400.000
G1 X-3.394 Y57.044 F400.000
G1 X-3.388 Y57.050 F400.000
G1 X-3.425 Y57.075 F400.000
G1 X-3.462 Y57.062 F400.000
G1 X-3.462 Y57.019 F400.000
G1 X-3.462 Y57.019 F400.000
G1 X-3.062 Y56.675 F400.000
G1 X-2.844 Y56.525 F400.000
G1 X-2.419 Y56.300 F400.000
G1 X-1.950 Y56.125 F400.000
G1 X-1.594 Y56.050 F400.000
G1 X-1.288 Y56.006 F400.000
G1 X-0.838 Y55.994 F400.000
G1 X0.887 Y55.994 F400.000
G1 X1.562 Y56.044 F400.000
G1 X2.188 Y56.206 F400.000
G1 X2.538 Y56.356 F400.000
G1 X2.812 Y56.513 F400.000
G1 X3.175 Y56.763 F400.000
G1 X3.450 Y57.000 F400.000
G1 X3.819 Y57.431 F400.000
G1 X3.962 Y57.644 F400.000
G1 X4.181 Y58.056 F400.000
G1 X4.350 Y58.500 F400.000
G1 X4.425 Y58.831 F400.000
G1 X4.481 Y59.250 F400.000
G1 X4.487 Y59.406 F400.000
G1 X4.456 Y59.919 F400.000
G1 X4.394 Y60.263 F400.000
G1 X4.300 Y60.644 F400.000
G1 X4.144 Y61.013 F400.000
G1 X3.944 Y61.369 F400.000
G1 X3.794 Y61.594 F400.000
G1 X3.531 Y61.900 F400.000
G1 X3.337 Y62.094 F400.000
G1 X3.081 Y62.300 F400.000
G1 X2.850 Y62.462 F400.000
G1 X2.344 Y62.725 F400.000
G1 X1.988 Y62.856 F400.000
G1 X1.562 Y62.944 F400.000
G1 X1.200 Y62.987 F400.000
G1 X0.869 Y63.006 F400.000
G1 X-0.931 Y63.000 F400.000
G1 X-1.337 Y62.969 F400.000
G1 X-1.669 Y62.919 F400.000
G1 X-2.212 Y62.769 F400.000
G1 X-2.544 Y62.631 F400.000
G1 X-2.856 Y62.456 F400.000
G1 X-3.081 Y62.306 F400.000
G1 X-3.562 Y61.875 F400.000
G1 X-3.888 Y61.456 F400.000
G1 X-4.056 Y61.188 F400.000
G1 X-4.175 Y60.956 F400.000
G1 X-4.319 Y60.600 F400.000
G1 X-4.444 Y60.087 F400.000
G1 X-4.487 Y59.750 F400.000
G1 X-4.494 Y59.538 F400.000
G1 X-4.469 Y59.156 F400.000
G1 X-4.412 Y58.775 F400.000
G1 X-4.287 Y58.325 F400.000
G1 X-4.131 Y57.950 F400.000
G1 X-3.956 Y57.638 F400.000
G1 X-3.800 Y57.406 F400.000
G1 X-3.462 Y57.019 F400.000
G1 X-3.462 Y57.019 F400.000
G0 Z5.000
(Helix to depth: -12.500000)
G0 Z5.000
G0 X-0.896 Y-57.441 Z5.000
G0 X-0.896 Y-57.441 Z3.000
G1 X-0.896 Y-57.441 Z-12.000 F200.000
G1 X-0.896 Y-57.441 Z-12.000 F200.000
G1 X-1.280 Y-57.653 Z-12.039 F200.000
G1 X-1.616 Y-57.936 Z-12.077 F200.000
G1 X-1.890 Y-58.279 Z-12.116 F200.000
G1 X-2.093 Y-58.669 Z-12.155 F200.000
G1 X-2.215 Y-59.091 Z-12.193 F200.000
G1 X-2.252 Y-59.528 Z-12.232 F200.000
G1 X-2.204 Y-59.965 Z-12.271 F200.000
G1 X-2.071 Y-60.383 Z-12.309 F200.000
G1 X-1.859 Y-60.768 Z-12.348 F200.000
G1 X-1.576 Y-61.104 Z-12.387 F200.000
G1 X-1.234 Y-61.378 Z-12.425 F200.000
G1 X-0.844 Y-61.580 Z-12.464 F200.000
G1 X-0.422 Y-61.702 Z-12.500 F400.000
G1 X0.016 Y-61.740 Z-12.500 F400.000
G1 X0.452 Y-61.691 Z-12.500 F400.000
G1 X0.871 Y-61.559 Z-12.500 F400.000
G1 X1.255 Y-61.347 Z-12.500 F400.000
G1 X1.591 Y-61.064 Z-12.500 F400.000
G1 X1.865 Y-60.721 Z-12.500 F400.000
G1 X2.068 Y-60.331 Z-12.500 F400.000
G1 X2.190 Y-59.909 Z-12.500 F400.000
G1 X2.227 Y-59.472 Z-12.500 F400.000
G1 X2.179 Y-59.035 Z-12.500 F400.000
G1 X2.046 Y-58.617 Z-12.500 F400.000
G1 X1.834 Y-58.232 Z-12.500 F400.000
G1 X1.551 Y-57.896 Z-12.500 F400.000
G1 X1.209 Y-57.622 Z-12.500 F400.000
G1 X0.819 Y-57.420 Z-12.500 F400.000
G1 X0.397 Y-57.298 Z-12.500 F400.000
G1 X-0.041 Y-57.260 Z-12.500 F400.000
G1 X-0.477 Y-57.309 Z-12.500 F400.000
G1 X-0.896 Y-57.441 Z-12.500 F400.000
G1 X-1.280 Y-57.653 Z-12.500 F400.000
G1 X-1.616 Y-57.936 Z-12.500 F400.000
G1 X-1.890 Y-58.279 Z-12.500 F400.000
G1 X-2.093 Y-58.669 Z-12.500 F400.000
G1 X-2.215 Y-59.091 Z-12.500 F400.000
G1 X-2.252 Y-59.528 Z-12.500 F400.000
G1 X-2.204 Y-59.965 Z-12.500 F400.000
G1 X-2.071 Y-60.383 Z-12.500 F400.000
G1 X-1.859 Y-60.768 Z-12.500 F400.000
G1 X-1.576 Y-61.104 Z-12.500 F400.000
G1 X-1.234 Y-61.378 Z-12.500 F400.000
G1 X-0.844 Y-61.580 Z-12.500 F400.000
(Adaptive - depth: -12.500000)
G1 X-0.013 Y-61.750 F400.000
G1 X0.056 Y-61.819 F400.000
G1 X0.225 Y-61.894 F400.000
G1 X0.506 Y-61.938 F400.000
G1 X0.787 Y-61.925 F400.000
G1 X1.506 Y-61.719 F400.000
G1 X1.806 Y-61.519 F400.000
G1 X1.969 Y-61.381 F400.000
G1 X2.138 Y-61.200 F400.000
G1 X2.344 Y-60.931 F400.000
G1 X2.575 Y-60.513 F400.000
G1 X2.700 Y-60.150 F400.000
G1 X2.763 Y-59.825 F400.000
G1 X2.788 Y-59.500 F400.000
G1 X2.769 Y-59.131 F400.000
G1 X2.694 Y-58.744 F400.000
G1 X2.581 Y-58.394 F400.000
G1 X2.419 Y-58.050 F400.000
G1 X2.206 Y-57.731 F400.000
G1 X1.962 Y-57.450 F400.000
G1 X1.681 Y-57.200 F400.000
G1 X1.363 Y-57.000 F400.000
G1 X1.062 Y-56.856 F400.000
G1 X0.619 Y-56.712 F400.000
G1 X0.119 Y-56.638 F400.000
G1 X-0.356 Y-56.644 F400.000
G1 X-0.825 Y-56.731 F400.000
G1 X-1.275 Y-56.900 F400.000
G1 X-1.894 Y-57.319 F400.000
G1 X-2.225 Y-57.669 F400.000
G1 X-2.394 Y-57.900 F400.000
G1 X-2.538 Y-58.150 F400.000
G1 X-2.688 Y-58.494 F400.000
G1 X-2.806 Y-58.913 F400.000
G1 X-2.856 Y-59.312 F400.000
G1 X-2.862 Y-59.663 F400.000
G1 X-2.819 Y-60.050 F400.000
G1 X-2.719 Y-60.425 F400.000
G1 X-2.569 Y-60.769 F400.000
G1 X-2.394 Y-61.056 F400.000
G1 X-2.169 Y-61.350 F400.000
G1 X-1.887 Y-61.625 F400.000
G1 X-1.594 Y-61.844 F400.000
G1 X-1.281 Y-62.050 F400.000
G1 X-0.825 Y-62.288 F400.000
G1 X-0.231 Y-62.438 F400.000
G1 X0.438 Y-62.513 F400.000
G1 X0.906 Y-62.481 F400.000
G1 X1.375 Y-62.356 F400.000
G1 X1.900 Y-62.094 F400.000
G1 X2.288 Y-61.781 F400.000
G1 X2.819 Y-61.250 F400.000
G1 X3.188 Y-60.594 F400.000
G1 X3.281 Y-60.306 F400.000
G1 X3.381 Y-59.763 F400.000
G1 X3.400 Y-59.219 F400.000
G1 X3.350 Y-58.719 F400.000
G1 X3.237 Y-58.312 F400.000
G1 X3.119 Y-58.000 F400.000
G1 X2.875 Y-57.550 F400.000
G1 X2.319 Y-56.925 F400.000
G1 X1.919 Y-56.594 F400.000
G1 X1.281 Y-56.244 F400.000
G1 X0.887 Y-56.112 F400.000
G1 X0.487 Y-56.056 F400.000
G1 X-0.944 Y-56.081 F400.000
G1 X-1.500 Y-56.225 F400.000
G1 X-1.919 Y-56.450 F400.000
G1 X-2.369 Y-56.806 F400.000
G1 X-2.700 Y-57.156 F400.000
G1 X-3.069 Y-57.712 F400.000
G1 X-3.269 Y-58.150 F400.000
G1 X-3.487 Y-58.862 F400.000
G1 X-3.544 Y-59.606 F400.000
G1 X-3.506 Y-59.944 F400.000
G1 X-3.456 Y-60.219 F400.000
G1 X-3.344 Y-60.594 F400.000
G1 X-3.175 Y-60.987 F400.000
G1 X-2.719 Y-61.631 F400.000
G1 X-2.144 Y-62.188 F400.000
G1 X-1.819 Y-62.425 F400.000
G1 X-1.188 Y-62.756 F400.000
G1 X-1.000 Y-62.831 F400.000
G1 X-0.300 Y-62.950 F400.000
G1 X1.031 Y-62.938 F400.000
G1 X1.688 Y-62.806 F400.000
G1 X2.225 Y-62.556 F400.000
G1 X2.925 Y-61.994 F400.000
G1 X3.306 Y-61.531 F400.000
G1 X3.644 Y-60.906 F400.000
G1 X3.819 Y-60.438 F400.000
G1 X3.969 Y-59.638 F400.000
G1 X3.969 Y-58.938 F400.000
G1 X3.844 Y-58.237 F400.000
G1 X3.581 Y-57.562 F400.000
G1 X3.319 Y-57.112 F400.000
G1 X2.975 Y-56.719 F400.000
G1 X2.825 Y-56.581 F400.000
G1 X2.456 Y-56.381 F400.000
G1 X1.975 Y-56.194 F400.000
G1 X1.675 Y-56.119 F400.000
G1 X1.275 Y-56.062 F400.000
G1 X1.275 Y-56.062 F400.000
G1 X1.019 Y-56.087 F400.000
G1 X0.900 Y-56.125 F400.000
G1 X0.838 Y-56.144 F400.000
G0 X0.781 Y-56.156
G0 X-0.319 Y-56.181
G1 X-0.381 Y-56.188 F400.000
G1 X-0.625 Y-56.175 F400.000
G1 X-1.038 Y-56.069 F400.000
G1 X-1.169 Y-56.062 F400.000
G1 X-1.169 Y-56.062 F400.000
G1 X-1.637 Y-56.119 F400.000
G1 X-2.194 Y-56.275 F400.000
G1 X-2.544 Y-56.425 F400.000
G1 X-3.094 Y-56.794 F400.000
G1 X-3.375 Y-57.062 F400.000
G1 X-3.775 Y-57.612 F400.000
G1 X-4.037 Y-58.237 F400.000
G1 X-4.188 Y-58.987 F400.000
G1 X-4.213 Y-59.456 F400.000
G1 X-4.162 Y-60.019 F400.000
G1 X-3.987 Y-60.675 F400.000
G1 X-3.638 Y-61.388 F400.000
G1 X-3.237 Y-61.950 F400.000
G1 X-2.737 Y-62.425 F400.000
G1 X-2.487 Y-62.600 F400.000
G1 X-2.019 Y-62.788 F400.000
G1 X-1.319 Y-62.919 F400.000
G1 X-0.719 Y-62.950 F400.000
G1 X-0.719 Y-62.950 F400.000
G1 X-0.463 Y-62.900 F400.000
G1 X-0.356 Y-62.844 F400.000
G1 X-0.319 Y-62.800 F400.000
G0 X-0.300 Y-62.756
G0 X-0.306 Y-62.663
G0 X-2.975 Y-57.306
G1 X-3.013 Y-57.237 F400.000
G1 X-3.119 Y-57.062 F400.000
G1 X-3.169 Y-57.038 F400.000
G1 X-3.275 Y-57.031 F400.000
G1 X-3.438 Y-57.100 F400.000
G1 X-3.587 Y-57.231 F400.000
G1 X-3.587 Y-57.231 F400.000
G1 X-3.975 Y-57.775 F400.000
G1 X-4.112 Y-58.025 F400.000
G1 X-4.256 Y-58.375 F400.000
G1 X-4.406 Y-59.031 F400.000
G1 X-4.438 Y-59.594 F400.000
G1 X-4.369 Y-60.156 F400.000
G1 X-4.094 Y-61.000 F400.000
G1 X-3.781 Y-61.513 F400.000
G1 X-3.388 Y-61.969 F400.000
G1 X-2.931 Y-62.344 F400.000
G1 X-2.763 Y-62.450 F400.000
G1 X-2.763 Y-62.450 F400.000
G1 X-2.519 Y-62.525 F400.000
G1 X-2.325 Y-62.531 F400.000
G0 X-2.263 Y-62.531
G0 X-2.200 Y-62.519
G0 X-0.444 Y-62.256
G0 X0.331 Y-62.312
G0 X0.863 Y-62.581
G1 X0.912 Y-62.612 F400.000
G1 X1.294 Y-62.819 F400.000
G1 X1.481 Y-62.869 F400.000
G1 X1.675 Y-62.869 F400.000
G1 X1.675 Y-62.869 F400.000
G1 X2.144 Y-62.744 F400.000
G1 X2.500 Y-62.594 F400.000
G1 X3.006 Y-62.288 F400.000
G1 X3.469 Y-61.894 F400.000
G1 X3.837 Y-61.438 F400.000
G1 X4.131 Y-60.900 F400.000
G1 X4.281 Y-60.525 F400.000
G1 X4.388 Y-60.025 F400.000
G1 X4.431 Y-59.525 F400.000
G1 X4.406 Y-59.125 F400.000
G1 X4.312 Y-58.625 F400.000
G1 X4.150 Y-58.131 F400.000
G1 X4.013 Y-57.850 F400.000
G1 X3.731 Y-57.413 F400.000
G1 X3.312 Y-56.956 F400.000
G1 X3.312 Y-56.956 F400.000
G1 X3.281 Y-56.938 F400.000
G1 X3.269 Y-56.938 F400.000
G1 X3.294 Y-56.950 F400.000
G1 X3.312 Y-56.919 F400.000
G1 X3.319 Y-56.888 F400.000
G1 X3.319 Y-56.888 F400.000
G1 X3.081 Y-56.694 F400.000
G1 X2.850 Y-56.531 F400.000
G1 X2.344 Y-56.269 F400.000
G1 X1.950 Y-56.125 F400.000
G1 X1.594 Y-56.050 F400.000
G1 X1.288 Y-56.006 F400.000
G1 X0.838 Y-55.994 F400.000
G1 X-0.900 Y-55.994 F400.000
G1 X-1.538 Y-56.044 F400.000
G1 X-2.194 Y-56.212 F400.000
G1 X-2.544 Y-56.362 F400.000
G1 X-2.856 Y-56.538 F400.000
G1 X-3.081 Y-56.688 F400.000
G1 X-3.450 Y-57.006 F400.000
G1 X-3.625 Y-57.194 F400.000
G1 X-3.900 Y-57.550 F400.000
G1 X-4.037 Y-57.781 F400.000
G1 X-4.219 Y-58.131 F400.000
G1 X-4.306 Y-58.350 F400.000
G1 X-4.444 Y-58.906 F400.000
G1 X-4.487 Y-59.244 F400.000
G1 X-4.494 Y-59.456 F400.000
G1 X-4.475 Y-59.819 F400.000
G1 X-4.381 Y-60.337 F400.000
G1 X-4.300 Y-60.644 F400.000
G1 X-4.156 Y-60.987 F400.000
G1 X-3.900 Y-61.438 F400.000
G1 X-3.800 Y-61.587 F400.000
G1 X-3.462 Y-61.975 F400.000
G1 X-3.062 Y-62.319 F400.000
G1 X-2.844 Y-62.469 F400.000
G1 X-2.419 Y-62.694 F400.000
G1 X-1.988 Y-62.856 F400.000
G1 X-1.562 Y-62.944 F400.000
G1 X-1.200 Y-62.987 F400.000
G1 X-0.869 Y-63.006 F400.000
G1 X0.769 Y-63.006 F400.000
G1 X1.494 Y-62.956 F400.000
G1 X1.669 Y-62.925 F400.000
G1 X2.169 Y-62.794 F400.000
G1 X2.538 Y-62.638 F400.000
G1 X2.812 Y-62.481 F400.000
G1 X3.175 Y-62.231 F400.000
G1 X3.450 Y-61.994 F400.000
G1 X3.819 Y-61.562 F400.000
G1 X3.944 Y-61.375 F400.000
G1 X4.213 Y-60.862 F400.000
G1 X4.338 Y-60.544 F400.000
G1 X4.431 Y-60.163 F400.000
G1 X4.487 Y-59.594 F400.000
G1 X4.456 Y-59.075 F400.000
G1 X4.394 Y-58.731 F400.000
G1 X4.294 Y-58.331 F400.000
G1 X4.138 Y-57.962 F400.000
G1 X3.981 Y-57.675 F400.000
G1 X3.794 Y-57.400 F400.000
G1 X3.531 Y-57.094 F400.000
G1 X3.319 Y-56.888 F400.000
G1 X3.319 Y-56.888 F400.000
G0 Z5.000
G0 Z5.000
(Finish operation: Adaptive)
(Block-name: Adaptive001)
(Block-expand: 0)
(Block-enable: 1)
(Begin operation: Adaptive001)
(Path: Adaptive001)
(Adaptive001)
(Helix to depth: -18.500000)
G0 Z5.000
G0 X0.355 Y58.562 Z5.000
G0 X0.355 Y58.562 Z3.000
G1 X0.355 Y58.562 Z-12.500 F200.000
G1 X0.355 Y58.562 Z-12.500 F200.000
G1 X0.531 Y58.644 Z-12.517 F200.000
G1 X0.687 Y58.759 Z-12.534 F200.000
G1 X0.818 Y58.902 Z-12.552 F200.000
G1 X0.919 Y59.068 Z-12.569 F200.000
G1 X0.985 Y59.251 Z-12.586 F200.000
G1 X1.015 Y59.442 Z-12.603 F200.000
G1 X1.006 Y59.636 Z-12.620 F200.000
G1 X0.960 Y59.825 Z-12.637 F200.000
G1 X0.878 Y60.001 Z-12.655 F200.000
G1 X0.763 Y60.157 Z-12.672 F200.000
G1 X0.620 Y60.288 Z-12.689 F200.000
G1 X0.454 Y60.389 Z-12.706 F200.000
G1 X0.272 Y60.455 Z-12.723 F200.000
G1 X0.080 Y60.485 Z-12.740 F200.000
G1 X-0.114 Y60.476 Z-12.758 F200.000
G1 X-0.302 Y60.430 Z-12.775 F200.000
G1 X-0.478 Y60.348 Z-12.792 F200.000
G1 X-0.635 Y60.233 Z-12.809 F200.000
G1 X-0.766 Y60.090 Z-12.826 F200.000
G1 X-0.866 Y59.924 Z-12.844 F200.000
G1 X-0.933 Y59.742 Z-12.861 F200.000
G1 X-0.962 Y59.550 Z-12.878 F200.000
G1 X-0.954 Y59.356 Z-12.895 F200.000
G1 X-0.908 Y59.168 Z-12.912 F200.000
G1 X-0.825 Y58.992 Z-12.929 F200.000
G1 X-0.711 Y58.835 Z-12.947 F200.000
G1 X-0.568 Y58.704 Z-12.964 F200.000
G1 X-0.402 Y58.604 Z-12.981 F200.000
G1 X-0.219 Y58.537 Z-12.998 F200.000
G1 X-0.027 Y58.508 Z-13.015 F200.000
G1 X0.166 Y58.516 Z-13.033 F200.000
G1 X0.355 Y58.562 Z-13.050 F200.000
G1 X0.531 Y58.644 Z-13.067 F200.000
G1 X0.687 Y58.759 Z-13.084 F200.000
G1 X0.818 Y58.902 Z-13.101 F200.000
G1 X0.919 Y59.068 Z-13.118 F200.000
G1 X0.985 Y59.251 Z-13.136 F200.000
G1 X1.015 Y59.442 Z-13.153 F200.000
G1 X1.006 Y59.636 Z-13.170 F200.000
G1 X0.960 Y59.825 Z-13.187 F200.000
G1 X0.878 Y60.001 Z-13.204 F200.000
G1 X0.763 Y60.157 Z-13.221 F200.000
G1 X0.620 Y60.288 Z-13.239 F200.000
G1 X0.454 Y60.389 Z-13.256 F200.000
G1 X0.272 Y60.455 Z-13.273 F200.000
G1 X0.080 Y60.485 Z-13.290 F200.000
G1 X-0.114 Y60.476 Z-13.307 F200.000
G1 X-0.302 Y60.430 Z-13.325 F200.000
G1 X-0.478 Y60.348 Z-13.342 F200.000
G1 X-0.635 Y60.233 Z-13.359 F200.000
G1 X-0.766 Y60.090 Z-13.376 F200.000
G1 X-0.866 Y59.924 Z-13.393 F200.000
G1 X-0.933 Y59.742 Z-13.410 F200.000
G1 X-0.962 Y59.550 Z-13.428 F200.000
G1 X-0.954 Y59.356 Z-13.445 F200.000
G1 X-0.908 Y59.168 Z-13.462 F200.000
G1 X-0.825 Y58.992 Z-13.479 F200.000
G1 X-0.711 Y58.835 Z-13.496 F200.000
G1 X-0.568 Y58.704 Z-13.514 F200.000
G1 X-0.402 Y58.604 Z-13.531 F200.000
G1 X-0.219 Y58.537 Z-13.548 F200.000
G1 X-0.027 Y58.508 Z-13.565 F200.000
G1 X0.166 Y58.516 Z-13.582 F200.000
G1 X0.355 Y58.562 Z-13.599 F200.000
G1 X0.531 Y58.644 Z-13.617 F200.000
G1 X0.687 Y58.759 Z-13.634 F200.000
G1 X0.818 Y58.902 Z-13.651 F200.000
G1 X0.919 Y59.068 Z-13.668 F200.000
G1 X0.985 Y59.251 Z-13.685 F200.000
G1 X1.015 Y59.442 Z-13.702 F200.000
G1 X1.006 Y59.636 Z-13.720 F200.000
G1 X0.960 Y59.825 Z-13.737 F200.000
G1 X0.878 Y60.001 Z-13.754 F200.000
G1 X0.763 Y60.157 Z-13.771 F200.000
G1 X0.620 Y60.288 Z-13.788 F200.000
G1 X0.454 Y60.389 Z-13.806 F200.000
G1 X0.272 Y60.455 Z-13.823 F200.000
G1 X0.080 Y60.485 Z-13.840 F200.000
G1 X-0.114 Y60.476 Z-13.857 F200.000
G1 X-0.302 Y60.430 Z-13.874 F200.000
G1 X-0.478 Y60.348 Z-13.891 F200.000
G1 X-0.635 Y60.233 Z-13.909 F200.000
G1 X-0.766 Y60.090 Z-13.926 F200.000
G1 X-0.866 Y59.924 Z-13.943 F200.000
G1 X-0.933 Y59.742 Z-13.960 F200.000
G1 X-0.962 Y59.550 Z-13.977 F200.000
G1 X-0.954 Y59.356 Z-13.995 F200.000
G1 X-0.908 Y59.168 Z-14.012 F200.000
G1 X-0.825 Y58.992 Z-14.029 F200.000
G1 X-0.711 Y58.835 Z-14.046 F200.000
G1 X-0.568 Y58.704 Z-14.063 F200.000
G1 X-0.402 Y58.604 Z-14.080 F200.000
G1 X-0.219 Y58.537 Z-14.098 F200.000
G1 X-0.027 Y58.508 Z-14.115 F200.000
G1 X0.166 Y58.516 Z-14.132 F200.000
G1 X0.355 Y58.562 Z-14.149 F200.000
G1 X0.531 Y58.644 Z-14.166 F200.000
G1 X0.687 Y58.759 Z-14.183 F200.000
G1 X0.818 Y58.902 Z-14.201 F200.000
G1 X0.919 Y59.068 Z-14.218 F200.000
G1 X0.985 Y59.251 Z-14.235 F200.000
G1 X1.015 Y59.442 Z-14.252 F200.000
G1 X1.006 Y59.636 Z-14.269 F200.000
G1 X0.960 Y59.825 Z-14.287 F200.000
G1 X0.878 Y60.001 Z-14.304 F200.000
G1 X0.763 Y60.157 Z-14.321 F200.000
G1 X0.620 Y60.288 Z-14.338 F200.000
G1 X0.454 Y60.389 Z-14.355 F200.000
G1 X0.272 Y60.455 Z-14.372 F200.000
G1 X0.080 Y60.485 Z-14.390 F200.000
G1 X-0.114 Y60.476 Z-14.407 F200.000
G1 X-0.302 Y60.430 Z-14.424 F200.000
G1 X-0.478 Y60.348 Z-14.441 F200.000
G1 X-0.635 Y60.233 Z-14.458 F200.000
G1 X-0.766 Y60.090 Z-14.476 F200.000
G1 X-0.866 Y59.924 Z-14.493 F200.000
G1 X-0.933 Y59.742 Z-14.510 F200.000
G1 X-0.962 Y59.550 Z-14.527 F200.000
G1 X-0.954 Y59.356 Z-14.544 F200.000
G1 X-0.908 Y59.168 Z-14.561 F200.000
G1 X-0.825 Y58.992 Z-14.579 F200.000
G1 X-0.711 Y58.835 Z-14.596 F200.000
G1 X-0.568 Y58.704 Z-14.613 F200.000
G1 X-0.402 Y58.604 Z-14.630 F200.000
G1 X-0.219 Y58.537 Z-14.647 F200.000
G1 X-0.027 Y58.508 Z-14.664 F200.000
G1 X0.166 Y58.516 Z-14.682 F200.000
G1 X0.355 Y58.562 Z-14.699 F200.000
G1 X0.531 Y58.644 Z-14.716 F200.000
G1 X0.687 Y58.759 Z-14.733 F200.000
G1 X0.818 Y58.902 Z-14.750 F200.000
G1 X0.919 Y59.068 Z-14.768 F200.000
G1 X0.985 Y59.251 Z-14.785 F200.000
G1 X1.015 Y59.442 Z-14.802 F200.000
G1 X1.006 Y59.636 Z-14.819 F200.000
G1 X0.960 Y59.825 Z-14.836 F200.000
G1 X0.878 Y60.001 Z-14.853 F200.000
G1 X0.763 Y60.157 Z-14.871 F200.000
G1 X0.620 Y60.288 Z-14.888 F200.000
G1 X0.454 Y60.389 Z-14.905 F200.000
G1 X0.272 Y60.455 Z-14.922 F200.000
G1 X0.080 Y60.485 Z-14.939 F200.000
G1 X-0.114 Y60.476 Z-14.957 F200.000
G1 X-0.302 Y60.430 Z-14.974 F200.000
G1 X-0.478 Y60.348 Z-14.991 F200.000
G1 X-0.635 Y60.233 Z-15.008 F200.000
G1 X-0.766 Y60.090 Z-15.025 F200.000
G1 X-0.866 Y59.924 Z-15.042 F200.000
G1 X-0.933 Y59.742 Z-15.060 F200.000
G1 X-0.962 Y59.550 Z-15.077 F200.000
G1 X-0.954 Y59.356 Z-15.094 F200.000
G1 X-0.908 Y59.168 Z-15.111 F200.000
G1 X-0.825 Y58.992 Z-15.128 F200.000
G1 X-0.711 Y58.835 Z-15.145 F200.000
G1 X-0.568 Y58.704 Z-15.163 F200.000
G1 X-0.402 Y58.604 Z-15.180 F200.000
G1 X-0.219 Y58.537 Z-15.197 F200.000
G1 X-0.027 Y58.508 Z-15.214 F200.000
G1 X0.166 Y58.516 Z-15.231 F200.000
G1 X0.355 Y58.562 Z-15.249 F200.000
G1 X0.531 Y58.644 Z-15.266 F200.000
G1 X0.687 Y58.759 Z-15.283 F200.000
G1 X0.818 Y58.902 Z-15.300 F200.000
G1 X0.919 Y59.068 Z-15.317 F200.000
G1 X0.985 Y59.251 Z-15.334 F200.000
G1 X1.015 Y59.442 Z-15.352 F200.000
G1 X1.006 Y59.636 Z-15.369 F200.000
G1 X0.960 Y59.825 Z-15.386 F200.000
G1 X0.878 Y60.001 Z-15.403 F200.000
G1 X0.763 Y60.157 Z-15.420 F200.000
G1 X0.620 Y60.288 Z-15.437 F200.000
G1 X0.454 Y60.389 Z-15.455 F200.000
G1 X0.272 Y60.455 Z-15.472 F200.000
G1 X0.080 Y60.485 Z-15.489 F200.000
G1 X-0.114 Y60.476 Z-15.506 F200.000
G1 X-0.302 Y60.430 Z-15.523 F200.000
G1 X-0.478 Y60.348 Z-15.541 F200.000
G1 X-0.635 Y60.233 Z-15.558 F200.000
G1 X-0.766 Y60.090 Z-15.575 F200.000
G1 X-0.866 Y59.924 Z-15.592 F200.000
G1 X-0.933 Y59.742 Z-15.609 F200.000
G1 X-0.962 Y59.550 Z-15.626 F200.000
G1 X-0.954 Y59.356 Z-15.644 F200.000
G1 X-0.908 Y59.168 Z-15.661 F200.000
G1 X-0.825 Y58.992 Z-15.678 F200.000
G1 X-0.711 Y58.835 Z-15.695 F200.000
G1 X-0.568 Y58.704 Z-15.712 F200.000
G1 X-0.402 Y58.604 Z-15.730 F200.000
G1 X-0.219 Y58.537 Z-15.747 F200.000
G1 X-0.027 Y58.508 Z-15.764 F200.000
G1 X0.166 Y58.516 Z-15.781 F200.000
G1 X0.355 Y58.562 Z-15.798 F200.000
G1 X0.531 Y58.644 Z-15.815 F200.000
G1 X0.687 Y58.759 Z-15.833 F200.000
G1 X0.818 Y58.902 Z-15.850 F200.000
G1 X0.919 Y59.068 Z-15.867 F200.000
G1 X0.985 Y59.251 Z-15.884 F200.000
G1 X1.015 Y59.442 Z-15.901 F200.000
G1 X1.006 Y59.636 Z-15.918 F200.000
G1 X0.960 Y59.825 Z-15.936 F200.000
G1 X0.878 Y60.001 Z-15.953 F200.000
G1 X0.763 Y60.157 Z-15.970 F200.000
G1 X0.620 Y60.288 Z-15.987 F200.000
G1 X0.454 Y60.389 Z-16.004 F200.000
G1 X0.272 Y60.455 Z-16.022 F200.000
G1 X0.080 Y60.485 Z-16.039 F200.000
G1 X-0.114 Y60.476 Z-16.056 F200.000
G1 X-0.302 Y60.430 Z-16.073 F200.000
G1 X-0.478 Y60.348 Z-16.090 F200.000
G1 X-0.635 Y60.233 Z-16.107 F200.000
G1 X-0.766 Y60.090 Z-16.125 F200.000
G1 X-0.866 Y59.924 Z-16.142 F200.000
G1 X-0.933 Y59.742 Z-16.159 F200.000
G1 X-0.962 Y59.550 Z-16.176 F200.000
G1 X-0.954 Y59.356 Z-16.193 F200.000
G1 X-0.908 Y59.168 Z-16.211 F200.000
G1 X-0.825 Y58.992 Z-16.228 F200.000
G1 X-0.711 Y58.835 Z-16.245 F200.000
G1 X-0.568 Y58.704 Z-16.262 F200.000
G1 X-0.402 Y58.604 Z-16.279 F200.000
G1 X-0.219 Y58.537 Z-16.296 F200.000
G1 X-0.027 Y58.508 Z-16.314 F200.000
G1 X0.166 Y58.516 Z-16.331 F200.000
G1 X0.355 Y58.562 Z-16.348 F200.000
G1 X0.531 Y58.644 Z-16.365 F200.000
G1 X0.687 Y58.759 Z-16.382 F200.000
G1 X0.818 Y58.902 Z-16.399 F200.000
G1 X0.919 Y59.068 Z-16.417 F200.000
G1 X0.985 Y59.251 Z-16.434 F200.000
G1 X1.015 Y59.442 Z-16.451 F200.000
G1 X1.006 Y59.636 Z-16.468 F200.000
G1 X0.960 Y59.825 Z-16.485 F200.000
G1 X0.878 Y60.001 Z-16.503 F200.000
G1 X0.763 Y60.157 Z-16.520 F200.000
G1 X0.620 Y60.288 Z-16.537 F200.000
G1 X0.454 Y60.389 Z-16.554 F200.000
G1 X0.272 Y60.455 Z-16.571 F200.000
G1 X0.080 Y60.485 Z-16.588 F200.000
G1 X-0.114 Y60.476 Z-16.606 F200.000
G1 X-0.302 Y60.430 Z-16.623 F200.000
G1 X-0.478 Y60.348 Z-16.640 F200.000
G1 X-0.635 Y60.233 Z-16.657 F200.000
G1 X-0.766 Y60.090 Z-16.674 F200.000
G1 X-0.866 Y59.924 Z-16.692 F200.000
G1 X-0.933 Y59.742 Z-16.709 F200.000
G1 X-0.962 Y59.550 Z-16.726 F200.000
G1 X-0.954 Y59.356 Z-16.743 F200.000
G1 X-0.908 Y59.168 Z-16.760 F200.000
G1 X-0.825 Y58.992 Z-16.777 F200.000
G1 X-0.711 Y58.835 Z-16.795 F200.000
G1 X-0.568 Y58.704 Z-16.812 F200.000
G1 X-0.402 Y58.604 Z-16.829 F200.000
G1 X-0.219 Y58.537 Z-16.846 F200.000
G1 X-0.027 Y58.508 Z-16.863 F200.000
G1 X0.166 Y58.516 Z-16.880 F200.000
G1 X0.355 Y58.562 Z-16.898 F200.000
G1 X0.531 Y58.644 Z-16.915 F200.000
G1 X0.687 Y58.759 Z-16.932 F200.000
G1 X0.818 Y58.902 Z-16.949 F200.000
G1 X0.919 Y59.068 Z-16.966 F200.000
G1 X0.985 Y59.251 Z-16.984 F200.000
G1 X1.015 Y59.442 Z-17.001 F200.000
G1 X1.006 Y59.636 Z-17.018 F200.000
G1 X0.960 Y59.825 Z-17.035 F200.000
G1 X0.878 Y60.001 Z-17.052 F200.000
G1 X0.763 Y60.157 Z-17.069 F200.000
G1 X0.620 Y60.288 Z-17.087 F200.000
G1 X0.454 Y60.389 Z-17.104 F200.000
G1 X0.272 Y60.455 Z-17.121 F200.000
G1 X0.080 Y60.485 Z-17.138 F200.000
G1 X-0.114 Y60.476 Z-17.155 F200.000
G1 X-0.302 Y60.430 Z-17.173 F200.000
G1 X-0.478 Y60.348 Z-17.190 F200.000
G1 X-0.635 Y60.233 Z-17.207 F200.000
G1 X-0.766 Y60.090 Z-17.224 F200.000
G1 X-0.866 Y59.924 Z-17.241 F200.000
G1 X-0.933 Y59.742 Z-17.258 F200.000
G1 X-0.962 Y59.550 Z-17.276 F200.000
G1 X-0.954 Y59.356 Z-17.293 F200.000
G1 X-0.908 Y59.168 Z-17.310 F200.000
G1 X-0.825 Y58.992 Z-17.327 F200.000
G1 X-0.711 Y58.835 Z-17.344 F200.000
G1 X-0.568 Y58.704 Z-17.361 F200.000
G1 X-0.402 Y58.604 Z-17.379 F200.000
G1 X-0.219 Y58.537 Z-17.396 F200.000
G1 X-0.027 Y58.508 Z-17.413 F200.000
G1 X0.166 Y58.516 Z-17.430 F200.000
G1 X0.355 Y58.562 Z-17.447 F200.000
G1 X0.531 Y58.644 Z-17.465 F200.000
G1 X0.687 Y58.759 Z-17.482 F200.000
G1 X0.818 Y58.902 Z-17.499 F200.000
G1 X0.919 Y59.068 Z-17.516 F200.000
G1 X0.985 Y59.251 Z-17.533 F200.000
G1 X1.015 Y59.442 Z-17.550 F200.000
G1 X1.006 Y59.636 Z-17.568 F200.000
G1 X0.960 Y59.825 Z-17.585 F200.000
G1 X0.878 Y60.001 Z-17.602 F200.000
G1 X0.763 Y60.157 Z-17.619 F200.000
G1 X0.620 Y60.288 Z-17.636 F200.000
G1 X0.454 Y60.389 Z-17.654 F200.000
G1 X0.272 Y60.455 Z-17.671 F200.000
G1 X0.080 Y60.485 Z-17.688 F200.000
G1 X-0.114 Y60.476 Z-17.705 F200.000
G1 X-0.302 Y60.430 Z-17.722 F200.000
G1 X-0.478 Y60.348 Z-17.739 F200.000
G1 X-0.635 Y60.233 Z-17.757 F200.000
G1 X-0.766 Y60.090 Z-17.774 F200.000
G1 X-0.866 Y59.924 Z-17.791 F200.000
G1 X-0.933 Y59.742 Z-17.808 F200.000
G1 X-0.962 Y59.550 Z-17.825 F200.000
G1 X-0.954 Y59.356 Z-17.842 F200.000
G1 X-0.908 Y59.168 Z-17.860 F200.000
G1 X-0.825 Y58.992 Z-17.877 F200.000
G1 X-0.711 Y58.835 Z-17.894 F200.000
G1 X-0.568 Y58.704 Z-17.911 F200.000
G1 X-0.402 Y58.604 Z-17.928 F200.000
G1 X-0.219 Y58.537 Z-17.946 F200.000
G1 X-0.027 Y58.508 Z-17.963 F200.000
G1 X0.166 Y58.516 Z-17.980 F200.000
G1 X0.355 Y58.562 Z-17.997 F200.000
G1 X0.531 Y58.644 Z-18.014 F200.000
G1 X0.687 Y58.759 Z-18.031 F200.000
G1 X0.818 Y58.902 Z-18.049 F200.000
G1 X0.919 Y59.068 Z-18.066 F200.000
G1 X0.985 Y59.251 Z-18.083 F200.000
G1 X1.015 Y59.442 Z-18.100 F200.000
G1 X1.006 Y59.636 Z-18.117 F200.000
G1 X0.960 Y59.825 Z-18.135 F200.000
G1 X0.878 Y60.001 Z-18.152 F200.000
G1 X0.763 Y60.157 Z-18.169 F200.000
G1 X0.620 Y60.288 Z-18.186 F200.000
G1 X0.454 Y60.389 Z-18.203 F200.000
G1 X0.272 Y60.455 Z-18.220 F200.000
G1 X0.080 Y60.485 Z-18.238 F200.000
G1 X-0.114 Y60.476 Z-18.255 F200.000
G1 X-0.302 Y60.430 Z-18.272 F200.000
G1 X-0.478 Y60.348 Z-18.289 F200.000
G1 X-0.635 Y60.233 Z-18.306 F200.000
G1 X-0.766 Y60.090 Z-18.323 F200.000
G1 X-0.866 Y59.924 Z-18.341 F200.000
G1 X-0.933 Y59.742 Z-18.358 F200.000
G1 X-0.962 Y59.550 Z-18.375 F200.000
G1 X-0.954 Y59.356 Z-18.392 F200.000
G1 X-0.908 Y59.168 Z-18.409 F200.000
G1 X-0.825 Y58.992 Z-18.427 F200.000
G1 X-0.711 Y58.835 Z-18.444 F200.000
G1 X-0.568 Y58.704 Z-18.461 F200.000
G1 X-0.402 Y58.604 Z-18.478 F200.000
G1 X-0.219 Y58.537 Z-18.495 F200.000
G1 X-0.027 Y58.508 Z-18.500 F400.000
G1 X0.166 Y58.516 Z-18.500 F400.000
G1 X0.355 Y58.562 Z-18.500 F400.000
G1 X0.531 Y58.644 Z-18.500 F400.000
G1 X0.687 Y58.759 Z-18.500 F400.000
G1 X0.818 Y58.902 Z-18.500 F400.000
G1 X0.919 Y59.068 Z-18.500 F400.000
G1 X0.985 Y59.251 Z-18.500 F400.000
G1 X1.015 Y59.442 Z-18.500 F400.000
G1 X1.006 Y59.636 Z-18.500 F400.000
G1 X0.960 Y59.825 Z-18.500 F400.000
G1 X0.878 Y60.001 Z-18.500 F400.000
G1 X0.763 Y60.157 Z-18.500 F400.000
G1 X0.620 Y60.288 Z-18.500 F400.000
G1 X0.454 Y60.389 Z-18.500 F400.000
G1 X0.272 Y60.455 Z-18.500 F400.000
G1 X0.080 Y60.485 Z-18.500 F400.000
G1 X-0.114 Y60.476 Z-18.500 F400.000
G1 X-0.302 Y60.430 Z-18.500 F400.000
G1 X-0.478 Y60.348 Z-18.500 F400.000
G1 X-0.635 Y60.233 Z-18.500 F400.000
G1 X-0.766 Y60.090 Z-18.500 F400.000
G1 X-0.866 Y59.924 Z-18.500 F400.000
G1 X-0.933 Y59.742 Z-18.500 F400.000
G1 X-0.962 Y59.550 Z-18.500 F400.000
G1 X-0.954 Y59.356 Z-18.500 F400.000
G1 X-0.908 Y59.168 Z-18.500 F400.000
G1 X-0.825 Y58.992 Z-18.500 F400.000
G1 X-0.711 Y58.835 Z-18.500 F400.000
G1 X-0.568 Y58.704 Z-18.500 F400.000
G1 X-0.402 Y58.604 Z-18.500 F400.000
G1 X-0.219 Y58.537 Z-18.500 F400.000
(Adaptive - depth: -18.500000)
G1 X0.026 Y58.496 F400.000
G1 X0.079 Y58.466 F400.000
G1 X0.248 Y58.440 F400.000
G1 X0.361 Y58.444 F400.000
G1 X0.530 Y58.489 F400.000
G1 X0.733 Y58.598 F400.000
G1 X0.865 Y58.707 F400.000
G1 X0.974 Y58.838 F400.000
G1 X1.086 Y59.038 F400.000
G1 X1.192 Y59.504 F400.000
G1 X1.169 Y59.711 F400.000
G1 X1.139 Y59.827 F400.000
G1 X1.090 Y59.951 F400.000
G1 X1.000 Y60.117 F400.000
G1 X0.842 Y60.293 F400.000
G1 X0.647 Y60.440 F400.000
G1 X0.429 Y60.545 F400.000
G1 X0.192 Y60.605 F400.000
G1 X-0.102 Y60.617 F400.000
G1 X-0.327 Y60.571 F400.000
G1 X-0.489 Y60.504 F400.000
G1 X-0.692 Y60.372 F400.000
G1 X-0.895 Y60.150 F400.000
G1 X-0.989 Y59.992 F400.000
G1 X-1.011 Y59.936 F400.000
G1 X-1.128 Y59.496 F400.000
G1 X-1.102 Y59.256 F400.000
G1 X-1.071 Y59.147 F400.000
G1 X-1.023 Y59.026 F400.000
G1 X-0.936 Y58.861 F400.000
G1 X-0.820 Y58.714 F400.000
G1 X-0.632 Y58.545 F400.000
G1 X-0.417 Y58.410 F400.000
G1 X-0.128 Y58.293 F400.000
G1 X-0.008 Y58.271 F400.000
G1 X0.331 Y58.271 F400.000
G1 X0.556 Y58.316 F400.000
G1 X0.763 Y58.406 F400.000
G1 X0.947 Y58.545 F400.000
G1 X1.132 Y58.767 F400.000
G1 X1.267 Y59.023 F400.000
G1 X1.316 Y59.192 F400.000
G1 X1.350 Y59.669 F400.000
G1 X1.286 Y59.925 F400.000
G1 X1.237 Y60.030 F400.000
G1 X1.060 Y60.271 F400.000
G1 X0.846 Y60.474 F400.000
G1 X0.590 Y60.632 F400.000
G1 X0.477 Y60.677 F400.000
G1 X0.177 Y60.722 F400.000
G1 X-0.282 Y60.711 F400.000
G1 X-0.508 Y60.662 F400.000
G1 X-0.665 Y60.579 F400.000
G1 X-0.895 Y60.387 F400.000
G1 X-1.041 Y60.192 F400.000
G1 X-1.177 Y59.921 F400.000
G1 X-1.289 Y59.451 F400.000
G1 X-1.263 Y59.211 F400.000
G1 X-1.233 Y59.094 F400.000
G1 X-1.094 Y58.805 F400.000
G1 X-0.947 Y58.602 F400.000
G1 X-0.722 Y58.383 F400.000
G1 X-0.620 Y58.308 F400.000
G1 X-0.564 Y58.282 F400.000
G1 X-0.504 Y58.271 F400.000
G1 X-0.504 Y58.271 F400.000
G1 X-0.346 Y58.301 F400.000
G1 X-0.316 Y58.316 F400.000
G1 X-0.289 Y58.327 F400.000
G0 X-0.259 Y58.335
G0 X0.038 Y58.346
G1 X0.068 Y58.346 F400.000
G1 X0.214 Y58.335 F400.000
G1 X0.395 Y58.274 F400.000
G1 X0.459 Y58.271 F400.000
G1 X0.459 Y58.271 F400.000
G1 X0.797 Y58.286 F400.000
G1 X0.910 Y58.312 F400.000
G1 X1.011 Y58.365 F400.000
G1 X1.180 Y58.523 F400.000
G1 X1.320 Y58.711 F400.000
G1 X1.459 Y59.026 F400.000
G1 X1.523 Y59.308 F400.000
G1 X1.523 Y59.590 F400.000
G1 X1.481 Y59.816 F400.000
G1 X1.421 Y59.985 F400.000
G1 X1.308 Y60.195 F400.000
G1 X1.124 Y60.432 F400.000
G1 X0.947 Y60.594 F400.000
G1 X0.789 Y60.684 F400.000
G1 X0.669 Y60.718 F400.000
G1 X0.609 Y60.722 F400.000
G1 X0.609 Y60.722 F400.000
G1 X0.481 Y60.692 F400.000
G1 X0.425 Y60.662 F400.000
G1 X0.406 Y60.639 F400.000
G0 X0.391 Y60.617
G0 X0.383 Y60.504
G0 X0.613 Y58.530
G1 X0.620 Y58.492 F400.000
G1 X0.639 Y58.391 F400.000
G1 X0.673 Y58.338 F400.000
G1 X0.752 Y58.289 F400.000
G1 X0.880 Y58.271 F400.000
G1 X0.880 Y58.271 F400.000
G1 X1.049 Y58.293 F400.000
G1 X1.158 Y58.327 F400.000
G1 X1.256 Y58.387 F400.000
G1 X1.414 Y58.553 F400.000
G1 X1.541 Y58.744 F400.000
G1 X1.654 Y59.011 F400.000
G1 X1.707 Y59.293 F400.000
G1 X1.711 Y59.575 F400.000
G1 X1.650 Y59.857 F400.000
G1 X1.515 Y60.184 F400.000
G1 X1.308 Y60.477 F400.000
G1 X1.128 Y60.639 F400.000
G1 X1.079 Y60.673 F400.000
G1 X0.962 Y60.714 F400.000
G1 X0.902 Y60.722 F400.000
G1 X0.902 Y60.722 F400.000
G1 X0.774 Y60.692 F400.000
G1 X0.695 Y60.639 F400.000
G0 X0.684 Y60.617
G0 X0.673 Y60.504
G0 X0.853 Y58.530
G1 X0.857 Y58.492 F400.000
G1 X0.876 Y58.391 F400.000
G1 X0.910 Y58.342 F400.000
G1 X0.989 Y58.297 F400.000
G1 X1.117 Y58.282 F400.000
G1 X1.117 Y58.282 F400.000
G1 X1.338 Y58.338 F400.000
G1 X1.489 Y58.421 F400.000
G1 X1.575 Y58.492 F400.000
G1 X1.756 Y58.786 F400.000
G1 X1.853 Y59.056 F400.000
G1 X1.895 Y59.395 F400.000
G1 X1.872 Y59.733 F400.000
G1 X1.741 Y60.124 F400.000
G1 X1.658 Y60.282 F400.000
G1 X1.481 Y60.523 F400.000
G1 X1.342 Y60.635 F400.000
G1 X1.177 Y60.707 F400.000
G1 X1.056 Y60.718 F400.000
G1 X1.056 Y60.718 F400.000
G1 X0.929 Y60.699 F400.000
G1 X0.872 Y60.677 F400.000
G1 X0.850 Y60.658 F400.000
G0 X0.835 Y60.635
G0 X0.831 Y60.526
G0 X1.173 Y58.541
G1 X1.180 Y58.504 F400.000
G1 X1.207 Y58.406 F400.000
G1 X1.248 Y58.365 F400.000
G1 X1.335 Y58.350 F400.000
G1 X1.462 Y58.372 F400.000
G1 X1.462 Y58.372 F400.000
G1 X1.620 Y58.447 F400.000
G1 X1.797 Y58.594 F400.000
G1 X1.932 Y58.778 F400.000
G1 X2.008 Y58.936 F400.000
G1 X2.056 Y59.105 F400.000
G1 X2.083 Y59.500 F400.000
G1 X2.038 Y59.838 F400.000
G1 X1.921 Y60.173 F400.000
G1 X1.868 Y60.278 F400.000
G1 X1.718 Y60.466 F400.000
G1 X1.628 Y60.545 F400.000
G1 X1.346 Y60.669 F400.000
G1 X1.286 Y60.684 F400.000
G1 X1.286 Y60.684 F400.000
G1 X1.158 Y60.680 F400.000
G1 X1.098 Y60.662 F400.000
G1 X1.075 Y60.647 F400.000
G0 X1.060 Y60.628
G0 X1.068 Y60.523
G0 X1.575 Y58.699
G1 X1.586 Y58.662 F400.000
G1 X1.624 Y58.568 F400.000
G1 X1.665 Y58.545 F400.000
G1 X1.752 Y58.564 F400.000
G1 X1.861 Y58.635 F400.000
G1 X1.861 Y58.635 F400.000
G1 X1.940 Y58.718 F400.000
G1 X2.068 Y58.914 F400.000
G1 X2.158 Y59.124 F400.000
G1 X2.214 Y59.462 F400.000
G1 X2.199 Y59.688 F400.000
G1 X2.143 Y59.914 F400.000
G1 X2.045 Y60.128 F400.000
G1 X1.902 Y60.316 F400.000
G1 X1.774 Y60.440 F400.000
G1 X1.774 Y60.440 F400.000
G1 X1.628 Y60.504 F400.000
G1 X1.564 Y60.515 F400.000
G0 X1.534 Y60.515
G0 X1.414 Y60.500
G0 X0.643 Y60.376
G0 X0.263 Y60.402
G0 X0.011 Y60.530
G1 X-0.011 Y60.545 F400.000
G1 X-0.090 Y60.594 F400.000
G1 X-0.259 Y60.692 F400.000
G1 X-0.387 Y60.718 F400.000
G1 X-0.387 Y60.718 F400.000
G1 X-0.556 Y60.707 F400.000
G1 X-0.726 Y60.665 F400.000
G1 X-0.876 Y60.579 F400.000
G1 X-1.053 Y60.421 F400.000
G1 X-1.195 Y60.229 F400.000
G1 X-1.312 Y60.015 F400.000
G1 X-1.376 Y59.846 F400.000
G1 X-1.406 Y59.726 F400.000
G1 X-1.447 Y59.244 F400.000
G1 X-1.380 Y59.004 F400.000
G1 X-1.244 Y58.722 F400.000
G1 X-1.068 Y58.462 F400.000
G1 X-0.981 Y58.368 F400.000
G1 X-0.880 Y58.293 F400.000
G1 X-0.820 Y58.271 F400.000
G1 X-0.820 Y58.271 F400.000
G1 X-0.692 Y58.289 F400.000
G1 X-0.613 Y58.335 F400.000
G0 X-0.598 Y58.357
G0 X-0.568 Y58.470
G0 X-0.395 Y60.436
G1 X-0.395 Y60.474 F400.000
G1 X-0.395 Y60.594 F400.000
G1 X-0.421 Y60.639 F400.000
G1 X-0.496 Y60.692 F400.000
G1 X-0.624 Y60.718 F400.000
G1 X-0.624 Y60.718 F400.000
G1 X-0.793 Y60.707 F400.000
G1 X-0.962 Y60.650 F400.000
G1 X-1.150 Y60.504 F400.000
G1 X-1.308 Y60.327 F400.000
G1 X-1.459 Y60.064 F400.000
G1 X-1.564 Y59.778 F400.000
G1 X-1.598 Y59.598 F400.000
G1 X-1.598 Y59.297 F400.000
G1 X-1.541 Y58.996 F400.000
G1 X-1.406 Y58.647 F400.000
G1 X-1.312 Y58.485 F400.000
G1 X-1.188 Y58.342 F400.000
G1 X-1.139 Y58.305 F400.000
G1 X-1.083 Y58.278 F400.000
G1 X-1.083 Y58.278 F400.000
G1 X-0.955 Y58.289 F400.000
G1 X-0.872 Y58.331 F400.000
G0 X-0.857 Y58.353
G0 X-0.827 Y58.462
G0 X-0.639 Y60.436
G1 X-0.635 Y60.470 F400.000
G1 X-0.635 Y60.594 F400.000
G1 X-0.662 Y60.639 F400.000
G1 X-0.737 Y60.692 F400.000
G1 X-0.865 Y60.718 F400.000
G1 X-0.865 Y60.718 F400.000
G1 X-1.034 Y60.692 F400.000
G1 X-1.143 Y60.650 F400.000
G1 X-1.289 Y60.545 F400.000
G1 X-1.455 Y60.372 F400.000
G1 X-1.586 Y60.173 F400.000
G1 X-1.684 Y59.951 F400.000
G1 X-1.744 Y59.711 F400.000
G1 X-1.767 Y59.289 F400.000
G1 X-1.714 Y58.929 F400.000
G1 X-1.635 Y58.692 F400.000
G1 X-1.474 Y58.421 F400.000
G1 X-1.376 Y58.342 F400.000
G1 X-1.320 Y58.320 F400.000
G1 X-1.320 Y58.320 F400.000
G1 X-1.158 Y58.323 F400.000
G1 X-1.105 Y58.346 F400.000
G0 X-1.086 Y58.365
G0 X-1.053 Y58.470
G0 X-0.820 Y60.459
G1 X-0.816 Y60.496 F400.000
G1 X-0.812 Y60.613 F400.000
G1 X-0.842 Y60.658 F400.000
G1 X-0.917 Y60.699 F400.000
G1 X-1.045 Y60.714 F400.000
G1 X-1.045 Y60.714 F400.000
G1 X-1.214 Y60.680 F400.000
G1 X-1.376 Y60.609 F400.000
G1 X-1.515 Y60.500 F400.000
G1 X-1.673 Y60.316 F400.000
G1 X-1.793 Y60.102 F400.000
G1 X-1.906 Y59.752 F400.000
G1 X-1.951 Y59.331 F400.000
G1 X-1.936 Y59.090 F400.000
G1 X-1.865 Y58.789 F400.000
G1 X-1.820 Y58.673 F400.000
G1 X-1.714 Y58.519 F400.000
G1 X-1.560 Y58.414 F400.000
G1 X-1.560 Y58.414 F400.000
G1 X-1.402 Y58.387 F400.000
G1 X-1.346 Y58.402 F400.000
G0 X-1.327 Y58.417
G0 X-1.293 Y58.523
G0 X-1.049 Y60.451
G1 X-1.045 Y60.489 F400.000
G1 X-1.041 Y60.605 F400.000
G1 X-1.071 Y60.647 F400.000
G1 X-1.154 Y60.677 F400.000
G1 X-1.282 Y60.677 F400.000
G1 X-1.282 Y60.677 F400.000
G1 X-1.451 Y60.624 F400.000
G1 X-1.658 Y60.504 F400.000
G1 X-1.827 Y60.335 F400.000
G1 X-1.951 Y60.132 F400.000
G1 X-2.060 Y59.850 F400.000
G1 X-2.128 Y59.489 F400.000
G1 X-2.132 Y59.248 F400.000
G1 X-2.105 Y59.068 F400.000
G1 X-2.045 Y58.887 F400.000
G1 X-1.944 Y58.729 F400.000
G1 X-1.767 Y58.549 F400.000
G1 X-1.767 Y58.549 F400.000
G1 X-1.617 Y58.481 F400.000
G1 X-1.564 Y58.477 F400.000
G0 X-1.545 Y58.489
G0 X-1.519 Y58.583
G0 X-1.474 Y60.353
G1 X-1.474 Y60.391 F400.000
G1 X-1.474 Y60.481 F400.000
G1 X-1.496 Y60.523 F400.000
G1 X-1.541 Y60.538 F400.000
G1 X-1.628 Y60.523 F400.000
G1 X-1.714 Y60.481 F400.000
G1 X-1.714 Y60.481 F400.000
G1 X-1.895 Y60.327 F400.000
G1 X-2.041 Y60.135 F400.000
G1 X-2.169 Y59.857 F400.000
G1 X-2.218 Y59.556 F400.000
G1 X-2.199 Y59.316 F400.000
G1 X-2.139 Y59.075 F400.000
G1 X-2.086 Y58.962 F400.000
G1 X-2.086 Y58.962 F400.000
G1 X-2.060 Y58.902 F400.000
G1 X-2.060 Y58.902 F400.000
G1 X-2.098 Y58.944 F400.000
G1 X-2.098 Y58.944 F400.000
G1 X-2.079 Y58.887 F400.000
G1 X-2.079 Y58.887 F400.000
G1 X-2.041 Y58.820 F400.000
G1 X-1.861 Y58.594 F400.000
G1 X-1.647 Y58.432 F400.000
G1 X-1.380 Y58.312 F400.000
G1 X-1.143 Y58.259 F400.000
G1 X-0.962 Y58.244 F400.000
G1 X0.857 Y58.244 F400.000
G1 X1.165 Y58.267 F400.000
G1 X1.406 Y58.320 F400.000
G1 X1.628 Y58.421 F400.000
G1 X1.865 Y58.602 F400.000
G1 X2.026 Y58.797 F400.000
G1 X2.079 Y58.887 F400.000
G1 X2.203 Y59.177 F400.000
G1 X2.233 Y59.338 F400.000
G1 X2.241 Y59.440 F400.000
G1 X2.233 Y59.628 F400.000
G1 X2.188 Y59.861 F400.000
G1 X2.098 Y60.079 F400.000
G1 X2.041 Y60.173 F400.000
G1 X1.947 Y60.301 F400.000
G1 X1.812 Y60.436 F400.000
G1 X1.658 Y60.560 F400.000
G1 X1.447 Y60.662 F400.000
G1 X1.331 Y60.699 F400.000
G1 X1.139 Y60.737 F400.000
G1 X0.970 Y60.752 F400.000
G1 X-0.992 Y60.741 F400.000
G1 X-1.162 Y60.726 F400.000
G1 X-1.357 Y60.688 F400.000
G1 X-1.643 Y60.560 F400.000
G1 X-1.887 Y60.380 F400.000
G1 X-2.068 Y60.143 F400.000
G1 X-2.188 Y59.876 F400.000
G1 X-2.214 Y59.767 F400.000
G1 X-2.237 Y59.594 F400.000
G1 X-2.229 Y59.323 F400.000
G1 X-2.184 Y59.132 F400.000
G1 X-2.079 Y58.887 F400.000
G1 X-2.079 Y58.887 F400.000
G0 Z5.000
(Helix to depth: -18.500000)
G0 Z5.000
G0 X0.355 Y-60.430 Z5.000
G0 X0.355 Y-60.430 Z3.000
G1 X0.355 Y-60.430 Z-12.500 F200.000
G1 X0.355 Y-60.430 Z-12.500 F200.000
G1 X0.531 Y-60.348 Z-12.517 F200.000
G1 X0.687 Y-60.233 Z-12.534 F200.000
G1 X0.818 Y-60.090 Z-12.552 F200.000
G1 X0.919 Y-59.924 Z-12.569 F200.000
G1 X0.985 Y-59.742 Z-12.586 F200.000
G1 X1.015 Y-59.550 Z-12.603 F200.000
G1 X1.006 Y-59.356 Z-12.620 F200.000
G1 X0.960 Y-59.168 Z-12.637 F200.000
G1 X0.878 Y-58.992 Z-12.655 F200.000
G1 X0.763 Y-58.835 Z-12.672 F200.000
G1 X0.620 Y-58.704 Z-12.689 F200.000
G1 X0.454 Y-58.604 Z-12.706 F200.000
G1 X0.272 Y-58.537 Z-12.723 F200.000
G1 X0.080 Y-58.508 Z-12.740 F200.000
G1 X-0.114 Y-58.516 Z-12.758 F200.000
G1 X-0.302 Y-58.562 Z-12.775 F200.000
G1 X-0.478 Y-58.644 Z-12.792 F200.000
G1 X-0.635 Y-58.759 Z-12.809 F200.000
G1 X-0.766 Y-58.902 Z-12.826 F200.000
G1 X-0.866 Y-59.068 Z-12.844 F200.000
G1 X-0.933 Y-59.251 Z-12.861 F200.000
G1 X-0.962 Y-59.442 Z-12.878 F200.000
G1 X-0.954 Y-59.636 Z-12.895 F200.000
G1 X-0.908 Y-59.825 Z-12.912 F200.000
G1 X-0.825 Y-60.001 Z-12.929 F200.000
G1 X-0.711 Y-60.157 Z-12.947 F200.000
G1 X-0.568 Y-60.288 Z-12.964 F200.000
G1 X-0.402 Y-60.389 Z-12.981 F200.000
G1 X-0.219 Y-60.455 Z-12.998 F200.000
G1 X-0.027 Y-60.485 Z-13.015 F200.000
G1 X0.166 Y-60.476 Z-13.033 F200.000
G1 X0.355 Y-60.430 Z-13.050 F200.000
G1 X0.531 Y-60.348 Z-13.067 F200.000
G1 X0.687 Y-60.233 Z-13.084 F200.000
G1 X0.818 Y-60.090 Z-13.101 F200.000
G1 X0.919 Y-59.924 Z-13.118 F200.000
G1 X0.985 Y-59.742 Z-13.136 F200.000
G1 X1.015 Y-59.550 Z-13.153 F200.000
G1 X1.006 Y-59.356 Z-13.170 F200.000
G1 X0.960 Y-59.168 Z-13.187 F200.000
G1 X0.878 Y-58.992 Z-13.204 F200.000
G1 X0.763 Y-58.835 Z-13.221 F200.000
G1 X0.620 Y-58.704 Z-13.239 F200.000
G1 X0.454 Y-58.604 Z-13.256 F200.000
G1 X0.272 Y-58.537 Z-13.273 F200.000
G1 X0.080 Y-58.508 Z-13.290 F200.000
G1 X-0.114 Y-58.516 Z-13.307 F200.000
G1 X-0.302 Y-58.562 Z-13.325 F200.000
G1 X-0.478 Y-58.644 Z-13.342 F200.000
G1 X-0.635 Y-58.759 Z-13.359 F200.000
G1 X-0.766 Y-58.902 Z-13.376 F200.000
G1 X-0.866 Y-59.068 Z-13.393 F200.000
G1 X-0.933 Y-59.251 Z-13.410 F200.000
G1 X-0.962 Y-59.442 Z-13.428 F200.000
G1 X-0.954 Y-59.636 Z-13.445 F200.000
G1 X-0.908 Y-59.825 Z-13.462 F200.000
G1 X-0.825 Y-60.001 Z-13.479 F200.000
G1 X-0.711 Y-60.157 Z-13.496 F200.000
G1 X-0.568 Y-60.288 Z-13.514 F200.000
G1 X-0.402 Y-60.389 Z-13.531 F200.000
G1 X-0.219 Y-60.455 Z-13.548 F200.000
G1 X-0.027 Y-60.485 Z-13.565 F200.000
G1 X0.166 Y-60.476 Z-13.582 F200.000
G1 X0.355 Y-60.430 Z-13.599 F200.000
G1 X0.531 Y-60.348 Z-13.617 F200.000
G1 X0.687 Y-60.233 Z-13.634 F200.000
G1 X0.818 Y-60.090 Z-13.651 F200.000
G1 X0.919 Y-59.924 Z-13.668 F200.000
G1 X0.985 Y-59.742 Z-13.685 F200.000
G1 X1.015 Y-59.550 Z-13.702 F200.000
G1 X1.006 Y-59.356 Z-13.720 F200.000
G1 X0.960 Y-59.168 Z-13.737 F200.000
G1 X0.878 Y-58.992 Z-13.754 F200.000
G1 X0.763 Y-58.835 Z-13.771 F200.000
G1 X0.620 Y-58.704 Z-13.788 F200.000
G1 X0.454 Y-58.604 Z-13.806 F200.000
G1 X0.272 Y-58.537 Z-13.823 F200.000
G1 X0.080 Y-58.508 Z-13.840 F200.000
G1 X-0.114 Y-58.516 Z-13.857 F200.000
G1 X-0.302 Y-58.562 Z-13.874 F200.000
G1 X-0.478 Y-58.644 Z-13.891 F200.000
G1 X-0.635 Y-58.759 Z-13.909 F200.000
G1 X-0.766 Y-58.902 Z-13.926 F200.000
