(Exported by FreeCAD)
(Post Processor: grbl_post)
(Output Time:2024-02-20 16:02:39.098269)
(Begin preamble)
G17 G90
G21
(Block-name: Fixture)
(Block-expand: 0)
(Block-enable: 1)
(Begin operation: Fixture)
(Path: Fixture)
G54
(Finish operation: Fixture)
(Block-name: 3mm Endmill001)
(Block-expand: 0)
(Block-enable: 1)
(Begin operation: 3mm Endmill001)
(Path: 3mm Endmill001)
(3mm Endmill001)
(Begin toolchange)
( M6 T3 )
M3 S8000
(Finish operation: 3mm Endmill001)
(Block-name: Adaptive_OUTSIDE_CTBR)
(Block-expand: 0)
(Block-enable: 1)
(Begin operation: Adaptive_OUTSIDE_CTBR)
(Path: Adaptive_OUTSIDE_CTBR)
(Adaptive_OUTSIDE_CTBR)
(Helix to depth: -5.540000)
G0 Z15.000
G0 X-29.976 Y-11.110 Z15.000
G0 X-29.976 Y-11.110 Z3.000
G1 X-29.976 Y-11.110 Z0.000 F420.000
G1 X-29.976 Y-11.110 Z0.000 F420.000
G1 X-29.759 Y-11.085 Z-0.019 F420.000
G1 X-29.551 Y-11.017 Z-0.039 F420.000
G1 X-29.360 Y-10.911 Z-0.058 F420.000
G1 X-29.194 Y-10.769 Z-0.077 F420.000
G1 X-29.059 Y-10.598 Z-0.097 F420.000
G1 X-28.959 Y-10.403 Z-0.116 F420.000
G1 X-28.900 Y-10.193 Z-0.135 F420.000
G1 X-28.882 Y-9.976 Z-0.154 F420.000
G1 X-28.908 Y-9.759 Z-0.174 F420.000
G1 X-28.975 Y-9.551 Z-0.193 F420.000
G1 X-29.082 Y-9.360 Z-0.212 F420.000
G1 X-29.223 Y-9.194 Z-0.232 F420.000
G1 X-29.395 Y-9.059 Z-0.251 F420.000
G1 X-29.589 Y-8.959 Z-0.270 F420.000
G1 X-29.799 Y-8.900 Z-0.290 F420.000
G1 X-30.017 Y-8.882 Z-0.309 F420.000
G1 X-30.234 Y-8.908 Z-0.328 F420.000
G1 X-30.442 Y-8.975 Z-0.348 F420.000
G1 X-30.632 Y-9.082 Z-0.367 F420.000
G1 X-30.799 Y-9.223 Z-0.386 F420.000
G1 X-30.934 Y-9.395 Z-0.405 F420.000
G1 X-31.033 Y-9.589 Z-0.425 F420.000
G1 X-31.093 Y-9.799 Z-0.444 F420.000
G1 X-31.110 Y-10.017 Z-0.463 F420.000
G1 X-31.085 Y-10.234 Z-0.483 F420.000
G1 X-31.017 Y-10.442 Z-0.502 F420.000
G1 X-30.911 Y-10.632 Z-0.521 F420.000
G1 X-30.769 Y-10.799 Z-0.541 F420.000
G1 X-30.598 Y-10.934 Z-0.560 F420.000
G1 X-30.403 Y-11.033 Z-0.579 F420.000
G1 X-30.193 Y-11.093 Z-0.599 F420.000
G1 X-29.976 Y-11.110 Z-0.618 F420.000
G1 X-29.759 Y-11.085 Z-0.637 F420.000
G1 X-29.551 Y-11.017 Z-0.657 F420.000
G1 X-29.360 Y-10.911 Z-0.676 F420.000
G1 X-29.194 Y-10.769 Z-0.695 F420.000
G1 X-29.059 Y-10.598 Z-0.714 F420.000
G1 X-28.959 Y-10.403 Z-0.734 F420.000
G1 X-28.900 Y-10.193 Z-0.753 F420.000
G1 X-28.882 Y-9.976 Z-0.772 F420.000
G1 X-28.908 Y-9.759 Z-0.792 F420.000
G1 X-28.975 Y-9.551 Z-0.811 F420.000
G1 X-29.082 Y-9.360 Z-0.830 F420.000
G1 X-29.223 Y-9.194 Z-0.850 F420.000
G1 X-29.395 Y-9.059 Z-0.869 F420.000
G1 X-29.589 Y-8.959 Z-0.888 F420.000
G1 X-29.799 Y-8.900 Z-0.908 F420.000
G1 X-30.017 Y-8.882 Z-0.927 F420.000
G1 X-30.234 Y-8.908 Z-0.946 F420.000
G1 X-30.442 Y-8.975 Z-0.965 F420.000
G1 X-30.632 Y-9.082 Z-0.985 F420.000
G1 X-30.799 Y-9.223 Z-1.004 F420.000
G1 X-30.934 Y-9.395 Z-1.023 F420.000
G1 X-31.033 Y-9.589 Z-1.043 F420.000
G1 X-31.093 Y-9.799 Z-1.062 F420.000
G1 X-31.110 Y-10.017 Z-1.081 F420.000
G1 X-31.085 Y-10.234 Z-1.101 F420.000
G1 X-31.017 Y-10.442 Z-1.120 F420.000
G1 X-30.911 Y-10.632 Z-1.139 F420.000
G1 X-30.769 Y-10.799 Z-1.159 F420.000
G1 X-30.598 Y-10.934 Z-1.178 F420.000
G1 X-30.403 Y-11.033 Z-1.197 F420.000
G1 X-30.193 Y-11.093 Z-1.216 F420.000
G1 X-29.976 Y-11.110 Z-1.236 F420.000
G1 X-29.759 Y-11.085 Z-1.255 F420.000
G1 X-29.551 Y-11.017 Z-1.274 F420.000
G1 X-29.360 Y-10.911 Z-1.294 F420.000
G1 X-29.194 Y-10.769 Z-1.313 F420.000
G1 X-29.059 Y-10.598 Z-1.332 F420.000
G1 X-28.959 Y-10.403 Z-1.352 F420.000
G1 X-28.900 Y-10.193 Z-1.371 F420.000
G1 X-28.882 Y-9.976 Z-1.390 F420.000
G1 X-28.908 Y-9.759 Z-1.410 F420.000
G1 X-28.975 Y-9.551 Z-1.429 F420.000
G1 X-29.082 Y-9.360 Z-1.448 F420.000
G1 X-29.223 Y-9.194 Z-1.468 F420.000
G1 X-29.395 Y-9.059 Z-1.487 F420.000
G1 X-29.589 Y-8.959 Z-1.506 F420.000
G1 X-29.799 Y-8.900 Z-1.525 F420.000
G1 X-30.017 Y-8.882 Z-1.545 F420.000
G1 X-30.234 Y-8.908 Z-1.564 F420.000
G1 X-30.442 Y-8.975 Z-1.583 F420.000
G1 X-30.632 Y-9.082 Z-1.603 F420.000
G1 X-30.799 Y-9.223 Z-1.622 F420.000
G1 X-30.934 Y-9.395 Z-1.641 F420.000
G1 X-31.033 Y-9.589 Z-1.661 F420.000
G1 X-31.093 Y-9.799 Z-1.680 F420.000
G1 X-31.110 Y-10.017 Z-1.699 F420.000
G1 X-31.085 Y-10.234 Z-1.719 F420.000
G1 X-31.017 Y-10.442 Z-1.738 F420.000
G1 X-30.911 Y-10.632 Z-1.757 F420.000
G1 X-30.769 Y-10.799 Z-1.776 F420.000
G1 X-30.598 Y-10.934 Z-1.796 F420.000
G1 X-30.403 Y-11.033 Z-1.815 F420.000
G1 X-30.193 Y-11.093 Z-1.834 F420.000
G1 X-29.976 Y-11.110 Z-1.854 F420.000
G1 X-29.759 Y-11.085 Z-1.873 F420.000
G1 X-29.551 Y-11.017 Z-1.892 F420.000
G1 X-29.360 Y-10.911 Z-1.912 F420.000
G1 X-29.194 Y-10.769 Z-1.931 F420.000
G1 X-29.059 Y-10.598 Z-1.950 F420.000
G1 X-28.959 Y-10.403 Z-1.970 F420.000
G1 X-28.900 Y-10.193 Z-1.989 F420.000
G1 X-28.882 Y-9.976 Z-2.008 F420.000
G1 X-28.908 Y-9.759 Z-2.027 F420.000
G1 X-28.975 Y-9.551 Z-2.047 F420.000
G1 X-29.082 Y-9.360 Z-2.066 F420.000
G1 X-29.223 Y-9.194 Z-2.085 F420.000
G1 X-29.395 Y-9.059 Z-2.105 F420.000
G1 X-29.589 Y-8.959 Z-2.124 F420.000
G1 X-29.799 Y-8.900 Z-2.143 F420.000
G1 X-30.017 Y-8.882 Z-2.163 F420.000
G1 X-30.234 Y-8.908 Z-2.182 F420.000
G1 X-30.442 Y-8.975 Z-2.201 F420.000
G1 X-30.632 Y-9.082 Z-2.221 F420.000
G1 X-30.799 Y-9.223 Z-2.240 F420.000
G1 X-30.934 Y-9.395 Z-2.259 F420.000
G1 X-31.033 Y-9.589 Z-2.279 F420.000
G1 X-31.093 Y-9.799 Z-2.298 F420.000
G1 X-31.110 Y-10.017 Z-2.317 F420.000
G1 X-31.085 Y-10.234 Z-2.336 F420.000
G1 X-31.017 Y-10.442 Z-2.356 F420.000
G1 X-30.911 Y-10.632 Z-2.375 F420.000
G1 X-30.769 Y-10.799 Z-2.394 F420.000
G1 X-30.598 Y-10.934 Z-2.414 F420.000
G1 X-30.403 Y-11.033 Z-2.433 F420.000
G1 X-30.193 Y-11.093 Z-2.452 F420.000
G1 X-29.976 Y-11.110 Z-2.472 F420.000
G1 X-29.759 Y-11.085 Z-2.491 F420.000
G1 X-29.551 Y-11.017 Z-2.510 F420.000
G1 X-29.360 Y-10.911 Z-2.530 F420.000
G1 X-29.194 Y-10.769 Z-2.549 F420.000
G1 X-29.059 Y-10.598 Z-2.568 F420.000
G1 X-28.959 Y-10.403 Z-2.587 F420.000
G1 X-28.900 Y-10.193 Z-2.607 F420.000
G1 X-28.882 Y-9.976 Z-2.626 F420.000
G1 X-28.908 Y-9.759 Z-2.645 F420.000
G1 X-28.975 Y-9.551 Z-2.665 F420.000
G1 X-29.082 Y-9.360 Z-2.684 F420.000
G1 X-29.223 Y-9.194 Z-2.703 F420.000
G1 X-29.395 Y-9.059 Z-2.723 F420.000
G1 X-29.589 Y-8.959 Z-2.742 F420.000
G1 X-29.799 Y-8.900 Z-2.761 F420.000
G1 X-30.017 Y-8.882 Z-2.781 F420.000
G1 X-30.234 Y-8.908 Z-2.800 F420.000
G1 X-30.442 Y-8.975 Z-2.819 F420.000
G1 X-30.632 Y-9.082 Z-2.838 F420.000
G1 X-30.799 Y-9.223 Z-2.858 F420.000
G1 X-30.934 Y-9.395 Z-2.877 F420.000
G1 X-31.033 Y-9.589 Z-2.896 F420.000
G1 X-31.093 Y-9.799 Z-2.916 F420.000
G1 X-31.110 Y-10.017 Z-2.935 F420.000
G1 X-31.085 Y-10.234 Z-2.954 F420.000
G1 X-31.017 Y-10.442 Z-2.974 F420.000
G1 X-30.911 Y-10.632 Z-2.993 F420.000
G1 X-30.769 Y-10.799 Z-3.012 F420.000
G1 X-30.598 Y-10.934 Z-3.032 F420.000
G1 X-30.403 Y-11.033 Z-3.051 F420.000
G1 X-30.193 Y-11.093 Z-3.070 F420.000
G1 X-29.976 Y-11.110 Z-3.090 F420.000
G1 X-29.759 Y-11.085 Z-3.109 F420.000
G1 X-29.551 Y-11.017 Z-3.128 F420.000
G1 X-29.360 Y-10.911 Z-3.147 F420.000
G1 X-29.194 Y-10.769 Z-3.167 F420.000
G1 X-29.059 Y-10.598 Z-3.186 F420.000
G1 X-28.959 Y-10.403 Z-3.205 F420.000
G1 X-28.900 Y-10.193 Z-3.225 F420.000
G1 X-28.882 Y-9.976 Z-3.244 F420.000
G1 X-28.908 Y-9.759 Z-3.263 F420.000
G1 X-28.975 Y-9.551 Z-3.283 F420.000
G1 X-29.082 Y-9.360 Z-3.302 F420.000
G1 X-29.223 Y-9.194 Z-3.321 F420.000
G1 X-29.395 Y-9.059 Z-3.341 F420.000
G1 X-29.589 Y-8.959 Z-3.360 F420.000
G1 X-29.799 Y-8.900 Z-3.379 F420.000
G1 X-30.017 Y-8.882 Z-3.398 F420.000
G1 X-30.234 Y-8.908 Z-3.418 F420.000
G1 X-30.442 Y-8.975 Z-3.437 F420.000
G1 X-30.632 Y-9.082 Z-3.456 F420.000
G1 X-30.799 Y-9.223 Z-3.476 F420.000
G1 X-30.934 Y-9.395 Z-3.495 F420.000
G1 X-31.033 Y-9.589 Z-3.514 F420.000
G1 X-31.093 Y-9.799 Z-3.534 F420.000
G1 X-31.110 Y-10.017 Z-3.553 F420.000
G1 X-31.085 Y-10.234 Z-3.572 F420.000
G1 X-31.017 Y-10.442 Z-3.592 F420.000
G1 X-30.911 Y-10.632 Z-3.611 F420.000
G1 X-30.769 Y-10.799 Z-3.630 F420.000
G1 X-30.598 Y-10.934 Z-3.649 F420.000
G1 X-30.403 Y-11.033 Z-3.669 F420.000
G1 X-30.193 Y-11.093 Z-3.688 F420.000
G1 X-29.976 Y-11.110 Z-3.707 F420.000
G1 X-29.759 Y-11.085 Z-3.727 F420.000
G1 X-29.551 Y-11.017 Z-3.746 F420.000
G1 X-29.360 Y-10.911 Z-3.765 F420.000
G1 X-29.194 Y-10.769 Z-3.785 F420.000
G1 X-29.059 Y-10.598 Z-3.804 F420.000
G1 X-28.959 Y-10.403 Z-3.823 F420.000
G1 X-28.900 Y-10.193 Z-3.843 F420.000
G1 X-28.882 Y-9.976 Z-3.862 F420.000
G1 X-28.908 Y-9.759 Z-3.881 F420.000
G1 X-28.975 Y-9.551 Z-3.901 F420.000
G1 X-29.082 Y-9.360 Z-3.920 F420.000
G1 X-29.223 Y-9.194 Z-3.939 F420.000
G1 X-29.395 Y-9.059 Z-3.958 F420.000
G1 X-29.589 Y-8.959 Z-3.978 F420.000
G1 X-29.799 Y-8.900 Z-3.997 F420.000
G1 X-30.017 Y-8.882 Z-4.016 F420.000
G1 X-30.234 Y-8.908 Z-4.036 F420.000
G1 X-30.442 Y-8.975 Z-4.055 F420.000
G1 X-30.632 Y-9.082 Z-4.074 F420.000
G1 X-30.799 Y-9.223 Z-4.094 F420.000
G1 X-30.934 Y-9.395 Z-4.113 F420.000
G1 X-31.033 Y-9.589 Z-4.132 F420.000
G1 X-31.093 Y-9.799 Z-4.152 F420.000
G1 X-31.110 Y-10.017 Z-4.171 F420.000
G1 X-31.085 Y-10.234 Z-4.190 F420.000
G1 X-31.017 Y-10.442 Z-4.209 F420.000
G1 X-30.911 Y-10.632 Z-4.229 F420.000
G1 X-30.769 Y-10.799 Z-4.248 F420.000
G1 X-30.598 Y-10.934 Z-4.267 F420.000
G1 X-30.403 Y-11.033 Z-4.287 F420.000
G1 X-30.193 Y-11.093 Z-4.306 F420.000
G1 X-29.976 Y-11.110 Z-4.325 F420.000
G1 X-29.759 Y-11.085 Z-4.345 F420.000
G1 X-29.551 Y-11.017 Z-4.364 F420.000
G1 X-29.360 Y-10.911 Z-4.383 F420.000
G1 X-29.194 Y-10.769 Z-4.403 F420.000
G1 X-29.059 Y-10.598 Z-4.422 F420.000
G1 X-28.959 Y-10.403 Z-4.441 F420.000
G1 X-28.900 Y-10.193 Z-4.460 F420.000
G1 X-28.882 Y-9.976 Z-4.480 F420.000
G1 X-28.908 Y-9.759 Z-4.499 F420.000
G1 X-28.975 Y-9.551 Z-4.518 F420.000
G1 X-29.082 Y-9.360 Z-4.538 F420.000
G1 X-29.223 Y-9.194 Z-4.557 F420.000
G1 X-29.395 Y-9.059 Z-4.576 F420.000
G1 X-29.589 Y-8.959 Z-4.596 F420.000
G1 X-29.799 Y-8.900 Z-4.615 F420.000
G1 X-30.017 Y-8.882 Z-4.634 F420.000
G1 X-30.234 Y-8.908 Z-4.654 F420.000
G1 X-30.442 Y-8.975 Z-4.673 F420.000
G1 X-30.632 Y-9.082 Z-4.692 F420.000
G1 X-30.799 Y-9.223 Z-4.712 F420.000
G1 X-30.934 Y-9.395 Z-4.731 F420.000
G1 X-31.033 Y-9.589 Z-4.750 F420.000
G1 X-31.093 Y-9.799 Z-4.769 F420.000
G1 X-31.110 Y-10.017 Z-4.789 F420.000
G1 X-31.085 Y-10.234 Z-4.808 F420.000
G1 X-31.017 Y-10.442 Z-4.827 F420.000
G1 X-30.911 Y-10.632 Z-4.847 F420.000
G1 X-30.769 Y-10.799 Z-4.866 F420.000
G1 X-30.598 Y-10.934 Z-4.885 F420.000
G1 X-30.403 Y-11.033 Z-4.905 F420.000
G1 X-30.193 Y-11.093 Z-4.924 F420.000
G1 X-29.976 Y-11.110 Z-4.943 F420.000
G1 X-29.759 Y-11.085 Z-4.963 F420.000
G1 X-29.551 Y-11.017 Z-4.982 F420.000
G1 X-29.360 Y-10.911 Z-5.001 F420.000
G1 X-29.194 Y-10.769 Z-5.020 F420.000
G1 X-29.059 Y-10.598 Z-5.040 F420.000
G1 X-28.959 Y-10.403 Z-5.059 F420.000
G1 X-28.900 Y-10.193 Z-5.078 F420.000
G1 X-28.882 Y-9.976 Z-5.098 F420.000
G1 X-28.908 Y-9.759 Z-5.117 F420.000
G1 X-28.975 Y-9.551 Z-5.136 F420.000
G1 X-29.082 Y-9.360 Z-5.156 F420.000
G1 X-29.223 Y-9.194 Z-5.175 F420.000
G1 X-29.395 Y-9.059 Z-5.194 F420.000
G1 X-29.589 Y-8.959 Z-5.214 F420.000
G1 X-29.799 Y-8.900 Z-5.233 F420.000
G1 X-30.017 Y-8.882 Z-5.252 F420.000
G1 X-30.234 Y-8.908 Z-5.271 F420.000
G1 X-30.442 Y-8.975 Z-5.291 F420.000
G1 X-30.632 Y-9.082 Z-5.310 F420.000
G1 X-30.799 Y-9.223 Z-5.329 F420.000
G1 X-30.934 Y-9.395 Z-5.349 F420.000
G1 X-31.033 Y-9.589 Z-5.368 F420.000
G1 X-31.093 Y-9.799 Z-5.387 F420.000
G1 X-31.110 Y-10.017 Z-5.407 F420.000
G1 X-31.085 Y-10.234 Z-5.426 F420.000
G1 X-31.017 Y-10.442 Z-5.445 F420.000
G1 X-30.911 Y-10.632 Z-5.465 F420.000
G1 X-30.769 Y-10.799 Z-5.484 F420.000
G1 X-30.598 Y-10.934 Z-5.503 F420.000
G1 X-30.403 Y-11.033 Z-5.523 F420.000
G1 X-30.193 Y-11.093 Z-5.540 F420.000
G1 X-29.976 Y-11.110 Z-5.540 F420.000
G1 X-29.759 Y-11.085 Z-5.540 F420.000
G1 X-29.551 Y-11.017 Z-5.540 F420.000
G1 X-29.360 Y-10.911 Z-5.540 F420.000
G1 X-29.194 Y-10.769 Z-5.540 F420.000
G1 X-29.059 Y-10.598 Z-5.540 F420.000
G1 X-28.959 Y-10.403 Z-5.540 F420.000
G1 X-28.900 Y-10.193 Z-5.540 F420.000
G1 X-28.882 Y-9.976 Z-5.540 F420.000
G1 X-28.908 Y-9.759 Z-5.540 F420.000
G1 X-28.975 Y-9.551 Z-5.540 F420.000
G1 X-29.082 Y-9.360 Z-5.540 F420.000
G1 X-29.223 Y-9.194 Z-5.540 F420.000
G1 X-29.395 Y-9.059 Z-5.540 F420.000
G1 X-29.589 Y-8.959 Z-5.540 F420.000
G1 X-29.799 Y-8.900 Z-5.540 F420.000
G1 X-30.017 Y-8.882 Z-5.540 F420.000
G1 X-30.234 Y-8.908 Z-5.540 F420.000
G1 X-30.442 Y-8.975 Z-5.540 F420.000
G1 X-30.632 Y-9.082 Z-5.540 F420.000
G1 X-30.799 Y-9.223 Z-5.540 F420.000
G1 X-30.934 Y-9.395 Z-5.540 F420.000
G1 X-31.033 Y-9.589 Z-5.540 F420.000
G1 X-31.093 Y-9.799 Z-5.540 F420.000
G1 X-31.110 Y-10.017 Z-5.540 F420.000
G1 X-31.085 Y-10.234 Z-5.540 F420.000
G1 X-31.017 Y-10.442 Z-5.540 F420.000
G1 X-30.911 Y-10.632 Z-5.540 F420.000
G1 X-30.769 Y-10.799 Z-5.540 F420.000
G1 X-30.598 Y-10.934 Z-5.540 F420.000
G1 X-30.403 Y-11.033 Z-5.540 F420.000
(Adaptive - depth: -5.540000)
G1 X-29.996 Y-11.120 F420.000
G1 X-29.951 Y-11.162 F420.000
G1 X-29.774 Y-11.211 F420.000
G1 X-29.594 Y-11.211 F420.000
G1 X-29.474 Y-11.184 F420.000
G1 X-29.165 Y-11.064 F420.000
G1 X-28.966 Y-10.906 F420.000
G1 X-28.872 Y-10.801 F420.000
G1 X-28.786 Y-10.680 F420.000
G1 X-28.699 Y-10.515 F420.000
G1 X-28.624 Y-10.308 F420.000
G1 X-28.583 Y-10.094 F420.000
G1 X-28.575 Y-9.887 F420.000
G1 X-28.602 Y-9.699 F420.000
G1 X-28.650 Y-9.523 F420.000
G1 X-28.722 Y-9.342 F420.000
G1 X-28.846 Y-9.147 F420.000
G1 X-28.974 Y-8.992 F420.000
G1 X-29.128 Y-8.853 F420.000
G1 X-29.305 Y-8.737 F420.000
G1 X-29.489 Y-8.647 F420.000
G1 X-29.684 Y-8.586 F420.000
G1 X-29.887 Y-8.556 F420.000
G1 X-30.090 Y-8.553 F420.000
G1 X-30.293 Y-8.579 F420.000
G1 X-30.489 Y-8.635 F420.000
G1 X-30.673 Y-8.726 F420.000
G1 X-30.827 Y-8.827 F420.000
G1 X-30.981 Y-8.951 F420.000
G1 X-31.143 Y-9.139 F420.000
G1 X-31.256 Y-9.312 F420.000
G1 X-31.338 Y-9.511 F420.000
G1 X-31.387 Y-9.692 F420.000
G1 X-31.417 Y-9.891 F420.000
G1 X-31.417 Y-10.105 F420.000
G1 X-31.380 Y-10.320 F420.000
G1 X-31.323 Y-10.496 F420.000
G1 X-31.233 Y-10.680 F420.000
G1 X-31.120 Y-10.853 F420.000
G1 X-30.974 Y-11.019 F420.000
G1 X-30.812 Y-11.154 F420.000
G1 X-30.632 Y-11.271 F420.000
G1 X-30.440 Y-11.368 F420.000
G1 X-30.192 Y-11.462 F420.000
G1 X-29.831 Y-11.504 F420.000
G1 X-29.650 Y-11.500 F420.000
G1 X-29.282 Y-11.436 F420.000
G1 X-29.008 Y-11.308 F420.000
G1 X-28.876 Y-11.218 F420.000
G1 X-28.759 Y-11.120 F420.000
G1 X-28.620 Y-10.970 F420.000
G1 X-28.485 Y-10.782 F420.000
G1 X-28.372 Y-10.568 F420.000
G1 X-28.301 Y-10.350 F420.000
G1 X-28.259 Y-10.150 F420.000
G1 X-28.248 Y-9.932 F420.000
G1 X-28.259 Y-9.718 F420.000
G1 X-28.308 Y-9.485 F420.000
G1 X-28.380 Y-9.274 F420.000
G1 X-28.477 Y-9.075 F420.000
G1 X-28.605 Y-8.887 F420.000
G1 X-28.756 Y-8.718 F420.000
G1 X-28.925 Y-8.571 F420.000
G1 X-29.113 Y-8.447 F420.000
G1 X-29.312 Y-8.346 F420.000
G1 X-29.545 Y-8.267 F420.000
G1 X-29.771 Y-8.222 F420.000
G1 X-30.000 Y-8.203 F420.000
G1 X-30.233 Y-8.214 F420.000
G1 X-30.462 Y-8.263 F420.000
G1 X-30.654 Y-8.327 F420.000
G1 X-30.853 Y-8.429 F420.000
G1 X-31.038 Y-8.549 F420.000
G1 X-31.222 Y-8.711 F420.000
G1 X-31.376 Y-8.883 F420.000
G1 X-31.508 Y-9.071 F420.000
G1 X-31.613 Y-9.282 F420.000
G1 X-31.692 Y-9.500 F420.000
G1 X-31.741 Y-9.729 F420.000
G1 X-31.759 Y-9.962 F420.000
G1 X-31.741 Y-10.195 F420.000
G1 X-31.703 Y-10.391 F420.000
G1 X-31.635 Y-10.602 F420.000
G1 X-31.530 Y-10.820 F420.000
G1 X-31.398 Y-11.026 F420.000
G1 X-31.248 Y-11.211 F420.000
G1 X-31.071 Y-11.376 F420.000
G1 X-30.876 Y-11.519 F420.000
G1 X-30.665 Y-11.635 F420.000
G1 X-30.440 Y-11.726 F420.000
G1 X-30.207 Y-11.793 F420.000
G1 X-29.932 Y-11.835 F420.000
G1 X-29.680 Y-11.846 F420.000
G1 X-29.425 Y-11.812 F420.000
G1 X-29.226 Y-11.763 F420.000
G1 X-29.004 Y-11.680 F420.000
G1 X-28.801 Y-11.568 F420.000
G1 X-28.620 Y-11.436 F420.000
G1 X-28.451 Y-11.282 F420.000
G1 X-28.286 Y-11.090 F420.000
G1 X-28.143 Y-10.876 F420.000
G1 X-28.038 Y-10.654 F420.000
G1 X-27.966 Y-10.447 F420.000
G1 X-27.917 Y-10.214 F420.000
G1 X-27.891 Y-9.981 F420.000
G1 X-27.898 Y-9.711 F420.000
G1 X-27.936 Y-9.466 F420.000
G1 X-28.000 Y-9.226 F420.000
G1 X-28.094 Y-8.992 F420.000
G1 X-28.214 Y-8.774 F420.000
G1 X-28.368 Y-8.575 F420.000
G1 X-28.511 Y-8.425 F420.000
G1 X-28.688 Y-8.274 F420.000
G1 X-28.917 Y-8.120 F420.000
G1 X-29.165 Y-7.996 F420.000
G1 X-29.410 Y-7.902 F420.000
G1 X-29.673 Y-7.846 F420.000
G1 X-29.891 Y-7.823 F420.000
G1 X-30.135 Y-7.827 F420.000
G1 X-30.376 Y-7.857 F420.000
G1 X-30.628 Y-7.921 F420.000
G1 X-30.861 Y-8.011 F420.000
G1 X-31.086 Y-8.128 F420.000
G1 X-31.293 Y-8.271 F420.000
G1 X-31.485 Y-8.436 F420.000
G1 X-31.654 Y-8.624 F420.000
G1 X-31.801 Y-8.831 F420.000
G1 X-31.921 Y-9.053 F420.000
G1 X-32.015 Y-9.289 F420.000
G1 X-32.079 Y-9.534 F420.000
G1 X-32.113 Y-9.786 F420.000
G1 X-32.120 Y-10.038 F420.000
G1 X-32.098 Y-10.289 F420.000
G1 X-32.034 Y-10.538 F420.000
G1 X-31.959 Y-10.744 F420.000
G1 X-31.857 Y-10.966 F420.000
G1 X-31.699 Y-11.218 F420.000
G1 X-31.523 Y-11.444 F420.000
G1 X-31.320 Y-11.632 F420.000
G1 X-31.147 Y-11.763 F420.000
G1 X-30.929 Y-11.902 F420.000
G1 X-30.662 Y-12.034 F420.000
G1 X-30.380 Y-12.135 F420.000
G1 X-30.102 Y-12.192 F420.000
G1 X-29.872 Y-12.207 F420.000
G1 X-29.654 Y-12.203 F420.000
G1 X-29.368 Y-12.169 F420.000
G1 X-29.079 Y-12.094 F420.000
G1 X-28.835 Y-11.996 F420.000
G1 X-28.624 Y-11.880 F420.000
G1 X-28.432 Y-11.752 F420.000
G1 X-28.222 Y-11.571 F420.000
G1 X-28.038 Y-11.368 F420.000
G1 X-27.883 Y-11.162 F420.000
G1 X-27.748 Y-10.929 F420.000
G1 X-27.643 Y-10.684 F420.000
G1 X-27.564 Y-10.432 F420.000
G1 X-27.515 Y-10.173 F420.000
G1 X-27.496 Y-9.910 F420.000
G1 X-27.508 Y-9.647 F420.000
G1 X-27.549 Y-9.383 F420.000
G1 X-27.617 Y-9.128 F420.000
G1 X-27.714 Y-8.883 F420.000
G1 X-27.838 Y-8.650 F420.000
G1 X-27.989 Y-8.432 F420.000
G1 X-28.154 Y-8.229 F420.000
G1 X-28.368 Y-8.026 F420.000
G1 X-28.586 Y-7.861 F420.000
G1 X-28.823 Y-7.714 F420.000
G1 X-29.079 Y-7.594 F420.000
G1 X-29.342 Y-7.504 F420.000
G1 X-29.613 Y-7.451 F420.000
G1 X-29.850 Y-7.429 F420.000
G1 X-30.109 Y-7.429 F420.000
G1 X-30.398 Y-7.459 F420.000
G1 X-30.688 Y-7.523 F420.000
G1 X-30.955 Y-7.620 F420.000
G1 X-31.169 Y-7.722 F420.000
G1 X-31.398 Y-7.861 F420.000
G1 X-31.635 Y-8.038 F420.000
G1 X-31.857 Y-8.244 F420.000
G1 X-32.038 Y-8.470 F420.000
G1 X-32.169 Y-8.669 F420.000
G1 X-32.293 Y-8.914 F420.000
G1 X-32.383 Y-9.162 F420.000
G1 X-32.451 Y-9.410 F420.000
G1 X-32.496 Y-9.711 F420.000
G1 X-32.508 Y-9.981 F420.000
G1 X-32.481 Y-10.256 F420.000
G1 X-32.440 Y-10.500 F420.000
G1 X-32.353 Y-10.782 F420.000
G1 X-32.248 Y-11.034 F420.000
G1 X-32.109 Y-11.293 F420.000
G1 X-31.947 Y-11.530 F420.000
G1 X-31.763 Y-11.748 F420.000
G1 X-31.553 Y-11.947 F420.000
G1 X-31.323 Y-12.124 F420.000
G1 X-31.079 Y-12.278 F420.000
G1 X-30.820 Y-12.406 F420.000
G1 X-30.541 Y-12.492 F420.000
G1 X-30.312 Y-12.541 F420.000
G1 X-30.045 Y-12.579 F420.000
G1 X-29.726 Y-12.590 F420.000
G1 X-29.402 Y-12.568 F420.000
G1 X-29.105 Y-12.500 F420.000
G1 X-28.887 Y-12.432 F420.000
G1 X-28.632 Y-12.323 F420.000
G1 X-28.368 Y-12.177 F420.000
G1 X-28.124 Y-12.008 F420.000
G1 X-27.902 Y-11.816 F420.000
G1 X-27.707 Y-11.594 F420.000
G1 X-27.560 Y-11.391 F420.000
G1 X-27.421 Y-11.150 F420.000
G1 X-27.305 Y-10.902 F420.000
G1 X-27.195 Y-10.586 F420.000
G1 X-27.128 Y-10.301 F420.000
G1 X-27.098 Y-10.004 F420.000
G1 X-27.098 Y-9.756 F420.000
G1 X-27.120 Y-9.477 F420.000
G1 X-27.184 Y-9.177 F420.000
G1 X-27.267 Y-8.914 F420.000
G1 X-27.380 Y-8.650 F420.000
G1 X-27.515 Y-8.398 F420.000
G1 X-27.699 Y-8.128 F420.000
G1 X-27.891 Y-7.898 F420.000
G1 X-28.113 Y-7.692 F420.000
G1 X-28.323 Y-7.526 F420.000
G1 X-28.564 Y-7.368 F420.000
G1 X-28.850 Y-7.229 F420.000
G1 X-29.120 Y-7.128 F420.000
G1 X-29.410 Y-7.060 F420.000
G1 X-29.662 Y-7.019 F420.000
G1 X-29.970 Y-7.000 F420.000
G1 X-30.289 Y-7.019 F420.000
G1 X-30.579 Y-7.060 F420.000
G1 X-30.872 Y-7.143 F420.000
G1 X-31.113 Y-7.233 F420.000
G1 X-31.368 Y-7.353 F420.000
G1 X-31.658 Y-7.526 F420.000
G1 X-31.921 Y-7.733 F420.000
G1 X-32.113 Y-7.921 F420.000
G1 X-32.289 Y-8.120 F420.000
G1 X-32.470 Y-8.387 F420.000
G1 X-32.609 Y-8.632 F420.000
G1 X-32.741 Y-8.925 F420.000
G1 X-32.835 Y-9.214 F420.000
G1 X-32.883 Y-9.511 F420.000
G1 X-32.902 Y-9.744 F420.000
G1 X-32.906 Y-10.019 F420.000
G1 X-32.872 Y-10.361 F420.000
G1 X-32.808 Y-10.688 F420.000
G1 X-32.707 Y-10.985 F420.000
G1 X-32.609 Y-11.211 F420.000
G1 X-32.470 Y-11.474 F420.000
G1 X-32.278 Y-11.763 F420.000
G1 X-32.068 Y-12.026 F420.000
G1 X-31.835 Y-12.252 F420.000
G1 X-31.620 Y-12.417 F420.000
G1 X-31.402 Y-12.553 F420.000
G1 X-31.150 Y-12.684 F420.000
G1 X-30.838 Y-12.812 F420.000
G1 X-30.508 Y-12.910 F420.000
G1 X-30.192 Y-12.970 F420.000
G1 X-29.895 Y-13.000 F420.000
G1 X-29.575 Y-13.000 F420.000
G1 X-29.263 Y-12.959 F420.000
G1 X-29.008 Y-12.902 F420.000
G1 X-28.726 Y-12.808 F420.000
G1 X-28.462 Y-12.695 F420.000
G1 X-28.177 Y-12.538 F420.000
G1 X-27.929 Y-12.365 F420.000
G1 X-27.692 Y-12.165 F420.000
G1 X-27.474 Y-11.944 F420.000
G1 X-27.282 Y-11.703 F420.000
G1 X-27.113 Y-11.447 F420.000
G1 X-26.970 Y-11.177 F420.000
G1 X-26.853 Y-10.891 F420.000
G1 X-26.767 Y-10.598 F420.000
G1 X-26.711 Y-10.297 F420.000
G1 X-26.680 Y-9.992 F420.000
G1 X-26.680 Y-9.688 F420.000
G1 X-26.711 Y-9.383 F420.000
G1 X-26.771 Y-9.083 F420.000
G1 X-26.861 Y-8.789 F420.000
G1 X-26.974 Y-8.504 F420.000
G1 X-27.132 Y-8.195 F420.000
G1 X-27.301 Y-7.929 F420.000
G1 X-27.496 Y-7.673 F420.000
G1 X-27.726 Y-7.440 F420.000
G1 X-27.940 Y-7.252 F420.000
G1 X-28.195 Y-7.071 F420.000
G1 X-28.462 Y-6.921 F420.000
G1 X-28.737 Y-6.801 F420.000
G1 X-29.023 Y-6.699 F420.000
G1 X-29.350 Y-6.624 F420.000
G1 X-29.662 Y-6.579 F420.000
G1 X-29.977 Y-6.564 F420.000
G1 X-30.297 Y-6.579 F420.000
G1 X-30.613 Y-6.624 F420.000
G1 X-30.921 Y-6.699 F420.000
G1 X-31.226 Y-6.805 F420.000
G1 X-31.515 Y-6.936 F420.000
G1 X-31.789 Y-7.094 F420.000
G1 X-32.049 Y-7.274 F420.000
G1 X-32.289 Y-7.481 F420.000
G1 X-32.511 Y-7.707 F420.000
G1 X-32.711 Y-7.955 F420.000
G1 X-32.887 Y-8.218 F420.000
G1 X-33.038 Y-8.496 F420.000
G1 X-33.150 Y-8.793 F420.000
G1 X-33.222 Y-9.049 F420.000
G1 X-33.282 Y-9.342 F420.000
G1 X-33.323 Y-9.684 F420.000
G1 X-33.331 Y-10.053 F420.000
G1 X-33.293 Y-10.387 F420.000
G1 X-33.244 Y-10.650 F420.000
G1 X-33.162 Y-10.959 F420.000
G1 X-33.034 Y-11.286 F420.000
G1 X-32.898 Y-11.564 F420.000
G1 X-32.729 Y-11.842 F420.000
G1 X-32.538 Y-12.113 F420.000
G1 X-32.293 Y-12.395 F420.000
G1 X-32.038 Y-12.620 F420.000
G1 X-31.816 Y-12.778 F420.000
G1 X-31.586 Y-12.925 F420.000
G1 X-31.271 Y-13.086 F420.000
G1 X-30.929 Y-13.222 F420.000
G1 X-30.617 Y-13.320 F420.000
G1 X-30.274 Y-13.395 F420.000
G1 X-29.929 Y-13.421 F420.000
G1 X-29.658 Y-13.425 F420.000
G1 X-29.342 Y-13.395 F420.000
G1 X-29.038 Y-13.342 F420.000
G1 X-28.692 Y-13.248 F420.000
G1 X-28.383 Y-13.132 F420.000
G1 X-28.083 Y-12.989 F420.000
G1 X-27.797 Y-12.805 F420.000
G1 X-27.583 Y-12.643 F420.000
G1 X-27.350 Y-12.440 F420.000
G1 X-27.094 Y-12.169 F420.000
G1 X-26.872 Y-11.887 F420.000
G1 X-26.695 Y-11.590 F420.000
G1 X-26.571 Y-11.342 F420.000
G1 X-26.451 Y-11.045 F420.000
G1 X-26.346 Y-10.714 F420.000
G1 X-26.271 Y-10.361 F420.000
G1 X-26.237 Y-10.019 F420.000
G1 X-26.229 Y-9.726 F420.000
G1 X-26.256 Y-9.398 F420.000
G1 X-26.312 Y-9.083 F420.000
G1 X-26.395 Y-8.778 F420.000
G1 X-26.496 Y-8.474 F420.000
G1 X-26.647 Y-8.132 F420.000
G1 X-26.827 Y-7.805 F420.000
G1 X-27.034 Y-7.511 F420.000
G1 X-27.229 Y-7.286 F420.000
G1 X-27.436 Y-7.083 F420.000
G1 X-27.677 Y-6.883 F420.000
G1 X-27.966 Y-6.684 F420.000
G1 X-28.274 Y-6.511 F420.000
G1 X-28.583 Y-6.372 F420.000
G1 X-28.910 Y-6.256 F420.000
G1 X-29.244 Y-6.169 F420.000
G1 X-29.586 Y-6.124 F420.000
G1 X-29.876 Y-6.105 F420.000
G1 X-30.199 Y-6.113 F420.000
G1 X-30.553 Y-6.150 F420.000
G1 X-30.906 Y-6.222 F420.000
G1 X-31.237 Y-6.316 F420.000
G1 X-31.560 Y-6.451 F420.000
G1 X-31.820 Y-6.583 F420.000
G1 X-32.098 Y-6.759 F420.000
G1 X-32.357 Y-6.947 F420.000
G1 X-32.632 Y-7.195 F420.000
G1 X-32.868 Y-7.444 F420.000
G1 X-33.090 Y-7.718 F420.000
G1 X-33.289 Y-8.019 F420.000
G1 X-33.440 Y-8.335 F420.000
G1 X-33.534 Y-8.571 F420.000
G1 X-33.628 Y-8.872 F420.000
G1 X-33.707 Y-9.229 F420.000
G1 X-33.756 Y-9.598 F420.000
G1 X-33.774 Y-9.947 F420.000
G1 X-33.748 Y-10.312 F420.000
G1 X-33.707 Y-10.594 F420.000
G1 X-33.628 Y-10.914 F420.000
G1 X-33.526 Y-11.218 F420.000
G1 X-33.380 Y-11.560 F420.000
G1 X-33.226 Y-11.865 F420.000
G1 X-33.026 Y-12.180 F420.000
G1 X-32.805 Y-12.474 F420.000
G1 X-32.549 Y-12.741 F420.000
G1 X-32.331 Y-12.936 F420.000
G1 X-32.060 Y-13.139 F420.000
G1 X-31.782 Y-13.316 F420.000
G1 X-31.459 Y-13.485 F420.000
G1 X-31.139 Y-13.617 F420.000
G1 X-30.808 Y-13.722 F420.000
G1 X-30.462 Y-13.797 F420.000
G1 X-30.117 Y-13.842 F420.000
G1 X-29.767 Y-13.861 F420.000
G1 X-29.417 Y-13.850 F420.000
G1 X-29.071 Y-13.797 F420.000
G1 X-28.782 Y-13.729 F420.000
G1 X-28.466 Y-13.632 F420.000
G1 X-28.120 Y-13.492 F420.000
G1 X-27.786 Y-13.323 F420.000
G1 X-27.481 Y-13.128 F420.000
G1 X-27.226 Y-12.932 F420.000
G1 X-26.966 Y-12.695 F420.000
G1 X-26.733 Y-12.444 F420.000
G1 X-26.526 Y-12.177 F420.000
G1 X-26.338 Y-11.887 F420.000
G1 X-26.180 Y-11.586 F420.000
G1 X-26.049 Y-11.271 F420.000
G1 X-25.944 Y-10.944 F420.000
G1 X-25.861 Y-10.613 F420.000
G1 X-25.805 Y-10.244 F420.000
G1 X-25.778 Y-9.887 F420.000
G1 X-25.793 Y-9.523 F420.000
G1 X-25.827 Y-9.218 F420.000
G1 X-25.895 Y-8.883 F420.000
G1 X-25.981 Y-8.560 F420.000
G1 X-26.105 Y-8.207 F420.000
G1 X-26.259 Y-7.865 F420.000
G1 X-26.447 Y-7.541 F420.000
G1 X-26.635 Y-7.282 F420.000
G1 X-26.831 Y-7.049 F420.000
G1 X-27.060 Y-6.812 F420.000
G1 X-27.338 Y-6.568 F420.000
G1 X-27.635 Y-6.346 F420.000
G1 X-27.947 Y-6.147 F420.000
G1 X-28.282 Y-5.985 F420.000
G1 X-28.560 Y-5.872 F420.000
G1 X-28.898 Y-5.771 F420.000
G1 X-29.233 Y-5.695 F420.000
G1 X-29.602 Y-5.647 F420.000
G1 X-29.959 Y-5.632 F420.000
G1 X-30.316 Y-5.643 F420.000
G1 X-30.680 Y-5.684 F420.000
G1 X-31.034 Y-5.756 F420.000
G1 X-31.376 Y-5.868 F420.000
G1 X-31.647 Y-5.981 F420.000
G1 X-31.951 Y-6.128 F420.000
G1 X-32.271 Y-6.316 F420.000
G1 X-32.571 Y-6.530 F420.000
G1 X-32.857 Y-6.763 F420.000
G1 X-33.124 Y-7.019 F420.000
G1 X-33.357 Y-7.308 F420.000
G1 X-33.523 Y-7.538 F420.000
G1 X-33.699 Y-7.842 F420.000
G1 X-33.850 Y-8.147 F420.000
G1 X-33.985 Y-8.492 F420.000
G1 X-34.086 Y-8.838 F420.000
G1 X-34.162 Y-9.192 F420.000
G1 X-34.207 Y-9.560 F420.000
G1 X-34.222 Y-9.925 F420.000
G1 X-34.195 Y-10.289 F420.000
G1 X-34.154 Y-10.590 F420.000
G1 X-34.083 Y-10.929 F420.000
G1 X-33.977 Y-11.286 F420.000
G1 X-33.842 Y-11.632 F420.000
G1 X-33.684 Y-11.966 F420.000
G1 X-33.500 Y-12.289 F420.000
G1 X-33.289 Y-12.598 F420.000
G1 X-33.045 Y-12.876 F420.000
G1 X-32.838 Y-13.083 F420.000
G1 X-32.571 Y-13.312 F420.000
G1 X-32.271 Y-13.530 F420.000
G1 X-31.955 Y-13.726 F420.000
G1 X-31.624 Y-13.895 F420.000
G1 X-31.278 Y-14.038 F420.000
G1 X-30.925 Y-14.154 F420.000
G1 X-30.564 Y-14.244 F420.000
G1 X-30.192 Y-14.293 F420.000
G1 X-29.876 Y-14.312 F420.000
G1 X-29.519 Y-14.305 F420.000
G1 X-29.169 Y-14.263 F420.000
G1 X-28.835 Y-14.203 F420.000
G1 X-28.474 Y-14.102 F420.000
G1 X-28.135 Y-13.985 F420.000
G1 X-27.793 Y-13.835 F420.000
G1 X-27.462 Y-13.658 F420.000
G1 X-27.147 Y-13.459 F420.000
G1 X-26.853 Y-13.222 F420.000
G1 X-26.617 Y-13.004 F420.000
G1 X-26.368 Y-12.733 F420.000
G1 X-26.150 Y-12.447 F420.000
G1 X-25.962 Y-12.154 F420.000
G1 X-25.797 Y-11.838 F420.000
G1 X-25.650 Y-11.515 F420.000
G1 X-25.523 Y-11.162 F420.000
G1 X-25.425 Y-10.801 F420.000
G1 X-25.350 Y-10.432 F420.000
G1 X-25.320 Y-10.060 F420.000
G1 X-25.312 Y-9.744 F420.000
G1 X-25.335 Y-9.380 F420.000
G1 X-25.380 Y-9.023 F420.000
G1 X-25.459 Y-8.658 F420.000
G1 X-25.568 Y-8.301 F420.000
G1 X-25.703 Y-7.951 F420.000
G1 X-25.865 Y-7.617 F420.000
G1 X-26.053 Y-7.293 F420.000
G1 X-26.263 Y-6.985 F420.000
G1 X-26.496 Y-6.695 F420.000
G1 X-26.759 Y-6.432 F420.000
G1 X-27.000 Y-6.222 F420.000
G1 X-27.286 Y-6.000 F420.000
G1 X-27.598 Y-5.797 F420.000
G1 X-27.925 Y-5.620 F420.000
G1 X-28.267 Y-5.477 F420.000
G1 X-28.583 Y-5.368 F420.000
G1 X-28.940 Y-5.267 F420.000
G1 X-29.305 Y-5.203 F420.000
G1 X-29.673 Y-5.162 F420.000
G1 X-30.041 Y-5.147 F420.000
G1 X-30.410 Y-5.165 F420.000
G1 X-30.778 Y-5.211 F420.000
G1 X-31.139 Y-5.293 F420.000
G1 X-31.451 Y-5.387 F420.000
G1 X-31.789 Y-5.523 F420.000
G1 X-32.113 Y-5.677 F420.000
G1 X-32.436 Y-5.857 F420.000
G1 X-32.744 Y-6.064 F420.000
G1 X-33.038 Y-6.289 F420.000
G1 X-33.312 Y-6.538 F420.000
G1 X-33.568 Y-6.805 F420.000
G1 X-33.793 Y-7.098 F420.000
G1 X-33.974 Y-7.368 F420.000
G1 X-34.150 Y-7.688 F420.000
G1 X-34.305 Y-8.015 F420.000
G1 X-34.432 Y-8.361 F420.000
G1 X-34.534 Y-8.718 F420.000
G1 X-34.609 Y-9.079 F420.000
G1 X-34.654 Y-9.447 F420.000
G1 X-34.673 Y-9.816 F420.000
G1 X-34.662 Y-10.184 F420.000
G1 X-34.624 Y-10.553 F420.000
G1 X-34.556 Y-10.917 F420.000
G1 X-34.462 Y-11.274 F420.000
G1 X-34.342 Y-11.624 F420.000
G1 X-34.195 Y-11.966 F420.000
G1 X-34.030 Y-12.297 F420.000
G1 X-33.838 Y-12.613 F420.000
G1 X-33.617 Y-12.914 F420.000
G1 X-33.380 Y-13.195 F420.000
G1 X-33.117 Y-13.459 F420.000
G1 X-32.835 Y-13.703 F420.000
G1 X-32.538 Y-13.925 F420.000
G1 X-32.222 Y-14.124 F420.000
G1 X-31.887 Y-14.289 F420.000
G1 X-31.586 Y-14.414 F420.000
G1 X-31.241 Y-14.541 F420.000
G1 X-30.880 Y-14.639 F420.000
G1 X-30.515 Y-14.714 F420.000
G1 X-30.143 Y-14.752 F420.000
G1 X-29.801 Y-14.767 F420.000
G1 X-29.429 Y-14.752 F420.000
G1 X-29.056 Y-14.707 F420.000
G1 X-28.688 Y-14.635 F420.000
G1 X-28.327 Y-14.534 F420.000
G1 X-27.974 Y-14.410 F420.000
G1 X-27.628 Y-14.267 F420.000
G1 X-27.293 Y-14.098 F420.000
G1 X-26.977 Y-13.895 F420.000
G1 X-26.688 Y-13.688 F420.000
G1 X-26.402 Y-13.444 F420.000
G1 X-26.139 Y-13.177 F420.000
G1 X-25.895 Y-12.895 F420.000
G1 X-25.673 Y-12.594 F420.000
G1 X-25.474 Y-12.274 F420.000
G1 X-25.301 Y-11.944 F420.000
G1 X-25.154 Y-11.598 F420.000
G1 X-25.034 Y-11.244 F420.000
G1 X-24.940 Y-10.883 F420.000
G1 X-24.876 Y-10.515 F420.000
G1 X-24.838 Y-10.143 F420.000
G1 X-24.831 Y-9.771 F420.000
G1 X-24.850 Y-9.398 F420.000
G1 X-24.898 Y-9.026 F420.000
G1 X-24.966 Y-8.658 F420.000
G1 X-25.064 Y-8.297 F420.000
G1 X-25.188 Y-7.944 F420.000
G1 X-25.335 Y-7.602 F420.000
G1 X-25.508 Y-7.271 F420.000
G1 X-25.695 Y-6.951 F420.000
G1 X-25.910 Y-6.647 F420.000
G1 X-26.143 Y-6.357 F420.000
G1 X-26.406 Y-6.094 F420.000
G1 X-26.662 Y-5.865 F420.000
G1 X-26.959 Y-5.639 F420.000
G1 X-27.267 Y-5.432 F420.000
G1 X-27.590 Y-5.248 F420.000
G1 X-27.925 Y-5.090 F420.000
G1 X-28.271 Y-4.955 F420.000
G1 X-28.624 Y-4.846 F420.000
G1 X-28.985 Y-4.763 F420.000
G1 X-29.350 Y-4.707 F420.000
G1 X-29.718 Y-4.677 F420.000
G1 X-30.086 Y-4.662 F420.000
G1 X-30.455 Y-4.677 F420.000
G1 X-30.823 Y-4.718 F420.000
G1 X-31.184 Y-4.797 F420.000
G1 X-31.508 Y-4.887 F420.000
G1 X-31.853 Y-5.015 F420.000
G1 X-32.192 Y-5.165 F420.000
G1 X-32.519 Y-5.342 F420.000
G1 X-32.835 Y-5.534 F420.000
G1 X-33.135 Y-5.748 F420.000
G1 X-33.421 Y-5.981 F420.000
G1 X-33.692 Y-6.233 F420.000
G1 X-33.944 Y-6.504 F420.000
G1 X-34.165 Y-6.797 F420.000
G1 X-34.361 Y-7.083 F420.000
G1 X-34.541 Y-7.406 F420.000
G1 X-34.703 Y-7.741 F420.000
G1 X-34.838 Y-8.086 F420.000
G1 X-34.947 Y-8.440 F420.000
G1 X-35.034 Y-8.801 F420.000
G1 X-35.094 Y-9.165 F420.000
G1 X-35.128 Y-9.534 F420.000
G1 X-35.135 Y-9.902 F420.000
G1 X-35.117 Y-10.271 F420.000
G1 X-35.071 Y-10.639 F420.000
G1 X-35.011 Y-11.004 F420.000
G1 X-34.921 Y-11.365 F420.000
G1 X-34.808 Y-11.718 F420.000
G1 X-34.673 Y-12.064 F420.000
G1 X-34.515 Y-12.398 F420.000
G1 X-34.323 Y-12.718 F420.000
G1 X-34.128 Y-13.008 F420.000
G1 X-33.902 Y-13.305 F420.000
G1 X-33.650 Y-13.579 F420.000
G1 X-33.383 Y-13.838 F420.000
G1 X-33.098 Y-14.079 F420.000
G1 X-32.797 Y-14.297 F420.000
G1 X-32.481 Y-14.496 F420.000
G1 X-32.150 Y-14.673 F420.000
G1 X-31.808 Y-14.823 F420.000
G1 X-31.459 Y-14.951 F420.000
G1 X-31.098 Y-15.053 F420.000
G1 X-30.733 Y-15.132 F420.000
G1 X-30.365 Y-15.184 F420.000
G1 X-29.992 Y-15.211 F420.000
G1 X-29.620 Y-15.218 F420.000
G1 X-29.248 Y-15.199 F420.000
G1 X-28.876 Y-15.150 F420.000
G1 X-28.508 Y-15.083 F420.000
G1 X-28.147 Y-14.985 F420.000
G1 X-27.793 Y-14.865 F420.000
G1 X-27.451 Y-14.711 F420.000
G1 X-27.135 Y-14.545 F420.000
G1 X-26.812 Y-14.353 F420.000
G1 X-26.504 Y-14.139 F420.000
G1 X-26.211 Y-13.906 F420.000
G1 X-25.932 Y-13.654 F420.000
G1 X-25.673 Y-13.383 F420.000
G1 X-25.444 Y-13.086 F420.000
G1 X-25.248 Y-12.808 F420.000
G1 X-25.049 Y-12.489 F420.000
G1 X-24.880 Y-12.154 F420.000
G1 X-24.733 Y-11.808 F420.000
G1 X-24.609 Y-11.455 F420.000
G1 X-24.504 Y-11.094 F420.000
G1 X-24.425 Y-10.729 F420.000
G1 X-24.368 Y-10.361 F420.000
G1 X-24.350 Y-9.989 F420.000
G1 X-24.350 Y-9.624 F420.000
G1 X-24.380 Y-9.252 F420.000
G1 X-24.425 Y-8.880 F420.000
G1 X-24.500 Y-8.515 F420.000
G1 X-24.598 Y-8.154 F420.000
G1 X-24.718 Y-7.801 F420.000
G1 X-24.861 Y-7.455 F420.000
G1 X-25.026 Y-7.120 F420.000
G1 X-25.214 Y-6.797 F420.000
G1 X-25.421 Y-6.489 F420.000
G1 X-25.647 Y-6.192 F420.000
G1 X-25.891 Y-5.910 F420.000
G1 X-26.154 Y-5.647 F420.000
G1 X-26.432 Y-5.402 F420.000
G1 X-26.726 Y-5.177 F420.000
G1 X-27.034 Y-4.970 F420.000
G1 X-27.365 Y-4.797 F420.000
G1 X-27.669 Y-4.650 F420.000
G1 X-28.015 Y-4.519 F420.000
G1 X-28.368 Y-4.402 F420.000
G1 X-28.729 Y-4.312 F420.000
G1 X-29.094 Y-4.244 F420.000
G1 X-29.462 Y-4.195 F420.000
G1 X-29.831 Y-4.173 F420.000
G1 X-30.199 Y-4.173 F420.000
G1 X-30.568 Y-4.195 F420.000
G1 X-30.936 Y-4.241 F420.000
G1 X-31.297 Y-4.323 F420.000
G1 X-31.647 Y-4.421 F420.000
G1 X-31.992 Y-4.549 F420.000
G1 X-32.335 Y-4.692 F420.000
G1 X-32.662 Y-4.861 F420.000
G1 X-32.981 Y-5.045 F420.000
G1 X-33.289 Y-5.248 F420.000
G1 X-33.586 Y-5.470 F420.000
G1 X-33.868 Y-5.707 F420.000
G1 X-34.124 Y-5.974 F420.000
G1 X-34.365 Y-6.244 F420.000
G1 X-34.586 Y-6.538 F420.000
G1 X-34.786 Y-6.850 F420.000
G1 X-34.966 Y-7.173 F420.000
G1 X-35.128 Y-7.504 F420.000
G1 X-35.263 Y-7.850 F420.000
G1 X-35.376 Y-8.203 F420.000
G1 X-35.466 Y-8.560 F420.000
G1 X-35.541 Y-8.921 F420.000
G1 X-35.590 Y-9.289 F420.000
G1 X-35.617 Y-9.658 F420.000
G1 X-35.609 Y-10.026 F420.000
G1 X-35.583 Y-10.395 F420.000
G1 X-35.541 Y-10.763 F420.000
G1 X-35.474 Y-11.128 F420.000
G1 X-35.383 Y-11.489 F420.000
G1 X-35.274 Y-11.842 F420.000
G1 X-35.139 Y-12.188 F420.000
G1 X-34.985 Y-12.526 F420.000
G1 X-34.812 Y-12.853 F420.000
G1 X-34.605 Y-13.162 F420.000
G1 X-34.387 Y-13.455 F420.000
G1 X-34.143 Y-13.737 F420.000
G1 X-33.887 Y-14.008 F420.000
G1 X-33.613 Y-14.256 F420.000
G1 X-33.323 Y-14.489 F420.000
G1 X-33.019 Y-14.703 F420.000
G1 X-32.699 Y-14.898 F420.000
G1 X-32.368 Y-15.075 F420.000
G1 X-32.030 Y-15.229 F420.000
G1 X-31.680 Y-15.361 F420.000
G1 X-31.323 Y-15.474 F420.000
G1 X-30.962 Y-15.564 F420.000
G1 X-30.594 Y-15.632 F420.000
G1 X-30.222 Y-15.677 F420.000
G1 X-29.850 Y-15.699 F420.000
G1 X-29.477 Y-15.695 F420.000
G1 X-29.105 Y-15.669 F420.000
G1 X-28.733 Y-15.620 F420.000
G1 X-28.365 Y-15.549 F420.000
G1 X-28.004 Y-15.455 F420.000
G1 X-27.654 Y-15.323 F420.000
G1 X-27.331 Y-15.184 F420.000
G1 X-26.996 Y-15.019 F420.000
G1 X-26.673 Y-14.831 F420.000
G1 X-26.361 Y-14.624 F420.000
G1 X-26.060 Y-14.398 F420.000
G1 X-25.774 Y-14.158 F420.000
G1 X-25.504 Y-13.898 F420.000
G1 X-25.248 Y-13.624 F420.000
G1 X-24.677 Y-12.801 F420.000
G1 X-24.180 Y-11.722 F420.000
G1 X-23.906 Y-10.639 F420.000
G1 X-23.827 Y-9.496 F420.000
G1 X-23.883 Y-8.835 F420.000
G1 X-24.226 Y-7.534 F420.000
G1 X-24.669 Y-6.602 F420.000
G1 X-25.342 Y-5.669 F420.000
G1 X-25.932 Y-5.071 F420.000
G1 X-26.654 Y-4.538 F420.000
G1 X-27.756 Y-3.985 F420.000
G1 X-28.489 Y-3.759 F420.000
G1 X-29.617 Y-3.617 F420.000
G1 X-30.462 Y-3.635 F420.000
G1 X-31.195 Y-3.748 F420.000
G1 X-32.244 Y-4.071 F420.000
G1 X-32.977 Y-4.421 F420.000
G1 X-33.744 Y-4.925 F420.000
G1 X-34.504 Y-5.624 F420.000
G1 X-34.996 Y-6.267 F420.000
G1 X-35.481 Y-7.128 F420.000
G1 X-35.789 Y-7.947 F420.000
G1 X-35.977 Y-8.737 F420.000
G1 X-36.068 Y-9.977 F420.000
G1 X-35.891 Y-11.274 F420.000
G1 X-35.485 Y-12.447 F420.000
G1 X-35.026 Y-13.267 F420.000
G1 X-34.440 Y-14.015 F420.000
G1 X-34.195 Y-14.297 F420.000
G1 X-33.244 Y-15.038 F420.000
G1 X-32.331 Y-15.534 F420.000
G1 X-31.470 Y-15.853 F420.000
G1 X-30.508 Y-16.071 F420.000
G1 X-29.545 Y-16.139 F420.000
G1 X-28.763 Y-16.068 F420.000
G1 X-27.680 Y-15.786 F420.000
G1 X-26.880 Y-15.451 F420.000
G1 X-25.917 Y-14.857 F420.000
G1 X-25.387 Y-14.421 F420.000
G1 X-24.609 Y-13.523 F420.000
G1 X-24.263 Y-12.996 F420.000
G1 X-24.023 Y-12.489 F420.000
G1 X-23.741 Y-11.654 F420.000
G1 X-23.568 Y-10.752 F420.000
G1 X-23.530 Y-9.910 F420.000
G1 X-23.575 Y-9.248 F420.000
G1 X-23.695 Y-8.526 F420.000
G1 X-23.850 Y-7.996 F420.000
G1 X-23.970 Y-7.643 F420.000
G1 X-24.195 Y-7.135 F420.000
G1 X-24.335 Y-6.865 F420.000
G1 X-24.947 Y-5.951 F420.000
G1 X-25.549 Y-5.293 F420.000
G1 X-26.045 Y-4.872 F420.000
G1 X-26.237 Y-4.729 F420.000
G1 X-26.237 Y-4.729 F420.000
G1 X-26.380 Y-4.677 F420.000
G1 X-26.410 Y-4.665 F420.000
G1 X-26.508 Y-4.602 F420.000
G1 X-26.639 Y-4.466 F420.000
G1 X-26.639 Y-4.466 F420.000
G1 X-27.105 Y-4.211 F420.000
G1 X-27.105 Y-4.211 F420.000
G1 X-27.135 Y-4.203 F420.000
G0 X-27.165 Y-4.203
G0 X-27.226 Y-4.211
G1 X-27.252 Y-4.211 F420.000
G1 X-27.289 Y-4.184 F420.000
G1 X-27.383 Y-4.075 F420.000
G1 X-27.383 Y-4.075 F420.000
G1 X-27.489 Y-4.026 F420.000
G1 X-27.489 Y-4.026 F420.000
G1 X-27.579 Y-4.011 F420.000
G1 X-27.613 Y-4.015 F420.000
G1 X-27.711 Y-4.026 F420.000
G1 X-27.759 Y-4.008 F420.000
G1 X-27.883 Y-3.887 F420.000
G1 X-27.940 Y-3.857 F420.000
G1 X-27.940 Y-3.857 F420.000
G1 X-28.278 Y-3.756 F420.000
G1 X-28.274 Y-3.756 F420.000
G1 X-28.425 Y-3.752 F420.000
G1 X-28.455 Y-3.752 F420.000
G1 X-28.692 Y-3.658 F420.000
G1 X-28.692 Y-3.658 F420.000
G1 X-29.707 Y-3.530 F420.000
G1 X-30.553 Y-3.549 F420.000
G1 X-31.455 Y-3.695 F420.000
G1 X-32.297 Y-3.947 F420.000
G1 X-33.030 Y-4.282 F420.000
G1 X-33.568 Y-4.602 F420.000
G1 X-34.432 Y-5.282 F420.000
G1 X-35.056 Y-5.959 F420.000
G1 X-35.669 Y-6.868 F420.000
G1 X-35.947 Y-7.440 F420.000
G1 X-36.165 Y-8.019 F420.000
G1 X-36.327 Y-8.639 F420.000
G1 X-36.462 Y-9.654 F420.000
G1 X-36.440 Y-10.500 F420.000
G1 X-36.207 Y-11.684 F420.000
G1 X-35.835 Y-12.677 F420.000
G1 X-35.553 Y-13.199 F420.000
G1 X-35.056 Y-13.932 F420.000
G1 X-34.173 Y-14.842 F420.000
G1 X-33.241 Y-15.515 F420.000
G1 X-32.143 Y-16.045 F420.000
G1 X-30.898 Y-16.398 F420.000
G1 X-30.357 Y-16.462 F420.000
G1 X-29.575 Y-16.459 F420.000
G1 X-28.673 Y-16.335 F420.000
G1 X-27.891 Y-16.120 F420.000
G1 X-27.305 Y-15.883 F420.000
G1 X-26.797 Y-15.628 F420.000
G1 X-26.068 Y-15.139 F420.000
G1 X-25.632 Y-14.778 F420.000
G1 X-25.075 Y-14.203 F420.000
G1 X-24.805 Y-13.853 F420.000
G1 X-24.805 Y-13.853 F420.000
G1 X-24.748 Y-13.729 F420.000
G1 X-24.741 Y-13.669 F420.000
G1 X-24.744 Y-13.643 F420.000
G0 X-24.759 Y-13.624
G0 X-24.853 Y-13.583
G0 X-35.996 Y-11.368
G1 X-36.060 Y-11.357 F420.000
G1 X-36.173 Y-11.338 F420.000
G1 X-36.222 Y-11.353 F420.000
G1 X-36.252 Y-11.395 F420.000
G1 X-36.274 Y-11.515 F420.000
G1 X-36.271 Y-11.579 F420.000
G1 X-36.271 Y-11.579 F420.000
G1 X-35.925 Y-12.590 F420.000
G1 X-35.481 Y-13.436 F420.000
G1 X-34.767 Y-14.380 F420.000
G1 X-34.252 Y-14.876 F420.000
G1 X-33.583 Y-15.387 F420.000
G1 X-32.639 Y-15.910 F420.000
G1 X-31.846 Y-16.207 F420.000
G1 X-31.064 Y-16.383 F420.000
G1 X-31.064 Y-16.383 F420.000
G1 X-31.045 Y-16.376 F420.000
G0 X-31.034 Y-16.365
G0 X-31.034 Y-16.350
G1 X-31.038 Y-16.338 F420.000
G1 X-31.056 Y-16.350 F420.000
G1 X-31.053 Y-16.383 F420.000
G1 X-31.026 Y-16.421 F420.000
G1 X-31.026 Y-16.421 F420.000
G1 X-30.410 Y-16.485 F420.000
G1 X-30.117 Y-16.500 F420.000
G1 X-29.586 Y-16.489 F420.000
G1 X-29.226 Y-16.455 F420.000
G1 X-29.034 Y-16.429 F420.000
G1 X-28.335 Y-16.286 F420.000
G1 X-27.857 Y-16.139 F420.000
G1 X-27.628 Y-16.053 F420.000
G1 X-27.267 Y-15.895 F420.000
G1 X-26.857 Y-15.695 F420.000
G1 X-26.564 Y-15.519 F420.000
G1 X-26.023 Y-15.139 F420.000
G1 X-25.820 Y-14.977 F420.000
G1 X-25.410 Y-14.605 F420.000
G1 X-25.026 Y-14.184 F420.000
G1 X-24.823 Y-13.929 F420.000
G1 X-24.489 Y-13.447 F420.000
G1 X-24.252 Y-13.030 F420.000
G1 X-23.962 Y-12.402 F420.000
G1 X-23.876 Y-12.177 F420.000
G1 X-23.726 Y-11.699 F420.000
G1 X-23.579 Y-11.034 F420.000
G1 X-23.549 Y-10.827 F420.000
G1 X-23.504 Y-10.203 F420.000
G1 X-23.500 Y-9.944 F420.000
G1 X-23.538 Y-9.312 F420.000
G1 X-23.677 Y-8.485 F420.000
G1 X-23.748 Y-8.218 F420.000
G1 X-23.959 Y-7.598 F420.000
G1 X-24.173 Y-7.120 F420.000
G1 X-24.342 Y-6.797 F420.000
G1 X-24.628 Y-6.338 F420.000
G1 X-24.737 Y-6.180 F420.000
G1 X-25.188 Y-5.624 F420.000
G1 X-25.553 Y-5.256 F420.000
G1 X-26.004 Y-4.872 F420.000
G1 X-26.263 Y-4.677 F420.000
G1 X-26.729 Y-4.380 F420.000
G1 X-26.936 Y-4.263 F420.000
G1 X-27.492 Y-4.000 F420.000
G1 X-28.124 Y-3.771 F420.000
G1 X-28.252 Y-3.733 F420.000
G1 X-28.947 Y-3.579 F420.000
G1 X-29.180 Y-3.541 F420.000
G1 X-29.684 Y-3.504 F420.000
G1 X-29.996 Y-3.496 F420.000
G1 X-30.624 Y-3.530 F420.000
G1 X-30.906 Y-3.564 F420.000
G1 X-31.451 Y-3.665 F420.000
G1 X-31.752 Y-3.741 F420.000
G1 X-32.312 Y-3.925 F420.000
G1 X-32.887 Y-4.177 F420.000
G1 X-33.064 Y-4.267 F420.000
G1 X-33.635 Y-4.617 F420.000
G1 X-33.823 Y-4.744 F420.000
G1 X-34.331 Y-5.154 F420.000
G1 X-34.650 Y-5.459 F420.000
G1 X-34.883 Y-5.714 F420.000
G1 X-35.132 Y-6.008 F420.000
G1 X-35.286 Y-6.211 F420.000
G1 X-35.590 Y-6.684 F420.000
G1 X-35.707 Y-6.883 F420.000
G1 X-35.846 Y-7.162 F420.000
G1 X-35.992 Y-7.481 F420.000
G1 X-36.192 Y-8.008 F420.000
G1 X-36.338 Y-8.564 F420.000
G1 X-36.451 Y-9.180 F420.000
G1 X-36.489 Y-9.643 F420.000
G1 X-36.500 Y-9.985 F420.000
G1 X-36.466 Y-10.665 F420.000
G1 X-36.331 Y-11.447 F420.000
G1 X-36.286 Y-11.643 F420.000
G1 X-36.083 Y-12.278 F420.000
G1 X-35.906 Y-12.703 F420.000
G1 X-35.726 Y-13.071 F420.000
G1 X-35.481 Y-13.481 F420.000
G1 X-35.263 Y-13.805 F420.000
G1 X-35.090 Y-14.034 F420.000
G1 X-34.752 Y-14.432 F420.000
G1 X-34.571 Y-14.620 F420.000
G1 X-34.335 Y-14.838 F420.000
G1 X-33.823 Y-15.252 F420.000
G1 X-33.617 Y-15.402 F420.000
G1 X-33.150 Y-15.684 F420.000
G1 X-32.902 Y-15.816 F420.000
G1 X-32.665 Y-15.929 F420.000
G1 X-32.308 Y-16.075 F420.000
G1 X-31.812 Y-16.244 F420.000
G1 X-31.586 Y-16.308 F420.000
G1 X-31.026 Y-16.421 F420.000
G1 X-31.026 Y-16.421 F420.000
G0 Z15.000
G0 Z15.000
(Finish operation: Adaptive_OUTSIDE_CTBR)
(Block-name: post_amble)
(Block-expand: 0)
(Block-enable: 1)
(Begin postamble)
M5
G17 G90
M2
