(Exported by FreeCAD)
(Post Processor: grbl_post)
(Output Time:2024-02-14 00:18:00.587232)
(Begin preamble)
G17 G90
G21
(Block-name: Fixture)
(Block-expand: 0)
(Block-enable: 1)
(Begin operation: Fixture)
(Path: Fixture)
G54
(Finish operation: Fixture)
(Block-name: 3mm Endmill001)
(Block-expand: 0)
(Block-enable: 1)
(Begin operation: 3mm Endmill001)
(Path: 3mm Endmill001)
(3mm Endmill001)
(Begin toolchange)
( M6 T3 )
M3 S8000
(Finish operation: 3mm Endmill001)
(Block-name: Adaptive_OUTSIDE_CTBR)
(Block-expand: 0)
(Block-enable: 1)
(Begin operation: Adaptive_OUTSIDE_CTBR)
(Path: Adaptive_OUTSIDE_CTBR)
(Adaptive_OUTSIDE_CTBR)
(Helix to depth: -5.540000)
G0 Z15.000
G0 X-9.976 Y68.882 Z15.000
G0 X-9.976 Y68.882 Z3.000
G1 X-9.976 Y68.882 Z0.000 F420.000
G1 X-9.976 Y68.882 Z0.000 F420.000
G1 X-9.759 Y68.908 Z-0.019 F420.000
G1 X-9.551 Y68.975 Z-0.039 F420.000
G1 X-9.360 Y69.082 Z-0.058 F420.000
G1 X-9.194 Y69.223 Z-0.077 F420.000
G1 X-9.059 Y69.395 Z-0.097 F420.000
G1 X-8.959 Y69.589 Z-0.116 F420.000
G1 X-8.900 Y69.799 Z-0.135 F420.000
G1 X-8.882 Y70.017 Z-0.154 F420.000
G1 X-8.908 Y70.234 Z-0.174 F420.000
G1 X-8.975 Y70.442 Z-0.193 F420.000
G1 X-9.082 Y70.632 Z-0.212 F420.000
G1 X-9.223 Y70.799 Z-0.232 F420.000
G1 X-9.395 Y70.934 Z-0.251 F420.000
G1 X-9.589 Y71.033 Z-0.270 F420.000
G1 X-9.799 Y71.093 Z-0.290 F420.000
G1 X-10.017 Y71.110 Z-0.309 F420.000
G1 X-10.234 Y71.085 Z-0.328 F420.000
G1 X-10.442 Y71.017 Z-0.348 F420.000
G1 X-10.632 Y70.911 Z-0.367 F420.000
G1 X-10.799 Y70.769 Z-0.386 F420.000
G1 X-10.934 Y70.598 Z-0.405 F420.000
G1 X-11.033 Y70.403 Z-0.425 F420.000
G1 X-11.093 Y70.193 Z-0.444 F420.000
G1 X-11.110 Y69.976 Z-0.463 F420.000
G1 X-11.085 Y69.759 Z-0.483 F420.000
G1 X-11.017 Y69.551 Z-0.502 F420.000
G1 X-10.911 Y69.360 Z-0.521 F420.000
G1 X-10.769 Y69.194 Z-0.541 F420.000
G1 X-10.598 Y69.059 Z-0.560 F420.000
G1 X-10.403 Y68.959 Z-0.579 F420.000
G1 X-10.193 Y68.900 Z-0.599 F420.000
G1 X-9.976 Y68.882 Z-0.618 F420.000
G1 X-9.759 Y68.908 Z-0.637 F420.000
G1 X-9.551 Y68.975 Z-0.657 F420.000
G1 X-9.360 Y69.082 Z-0.676 F420.000
G1 X-9.194 Y69.223 Z-0.695 F420.000
G1 X-9.059 Y69.395 Z-0.714 F420.000
G1 X-8.959 Y69.589 Z-0.734 F420.000
G1 X-8.900 Y69.799 Z-0.753 F420.000
G1 X-8.882 Y70.017 Z-0.772 F420.000
G1 X-8.908 Y70.234 Z-0.792 F420.000
G1 X-8.975 Y70.442 Z-0.811 F420.000
G1 X-9.082 Y70.632 Z-0.830 F420.000
G1 X-9.223 Y70.799 Z-0.850 F420.000
G1 X-9.395 Y70.934 Z-0.869 F420.000
G1 X-9.589 Y71.033 Z-0.888 F420.000
G1 X-9.799 Y71.093 Z-0.908 F420.000
G1 X-10.017 Y71.110 Z-0.927 F420.000
G1 X-10.234 Y71.085 Z-0.946 F420.000
G1 X-10.442 Y71.017 Z-0.965 F420.000
G1 X-10.632 Y70.911 Z-0.985 F420.000
G1 X-10.799 Y70.769 Z-1.004 F420.000
G1 X-10.934 Y70.598 Z-1.023 F420.000
G1 X-11.033 Y70.403 Z-1.043 F420.000
G1 X-11.093 Y70.193 Z-1.062 F420.000
G1 X-11.110 Y69.976 Z-1.081 F420.000
G1 X-11.085 Y69.759 Z-1.101 F420.000
G1 X-11.017 Y69.551 Z-1.120 F420.000
G1 X-10.911 Y69.360 Z-1.139 F420.000
G1 X-10.769 Y69.194 Z-1.159 F420.000
G1 X-10.598 Y69.059 Z-1.178 F420.000
G1 X-10.403 Y68.959 Z-1.197 F420.000
G1 X-10.193 Y68.900 Z-1.216 F420.000
G1 X-9.976 Y68.882 Z-1.236 F420.000
G1 X-9.759 Y68.908 Z-1.255 F420.000
G1 X-9.551 Y68.975 Z-1.274 F420.000
G1 X-9.360 Y69.082 Z-1.294 F420.000
G1 X-9.194 Y69.223 Z-1.313 F420.000
G1 X-9.059 Y69.395 Z-1.332 F420.000
G1 X-8.959 Y69.589 Z-1.352 F420.000
G1 X-8.900 Y69.799 Z-1.371 F420.000
G1 X-8.882 Y70.017 Z-1.390 F420.000
G1 X-8.908 Y70.234 Z-1.410 F420.000
G1 X-8.975 Y70.442 Z-1.429 F420.000
G1 X-9.082 Y70.632 Z-1.448 F420.000
G1 X-9.223 Y70.799 Z-1.468 F420.000
G1 X-9.395 Y70.934 Z-1.487 F420.000
G1 X-9.589 Y71.033 Z-1.506 F420.000
G1 X-9.799 Y71.093 Z-1.525 F420.000
G1 X-10.017 Y71.110 Z-1.545 F420.000
G1 X-10.234 Y71.085 Z-1.564 F420.000
G1 X-10.442 Y71.017 Z-1.583 F420.000
G1 X-10.632 Y70.911 Z-1.603 F420.000
G1 X-10.799 Y70.769 Z-1.622 F420.000
G1 X-10.934 Y70.598 Z-1.641 F420.000
G1 X-11.033 Y70.403 Z-1.661 F420.000
G1 X-11.093 Y70.193 Z-1.680 F420.000
G1 X-11.110 Y69.976 Z-1.699 F420.000
G1 X-11.085 Y69.759 Z-1.719 F420.000
G1 X-11.017 Y69.551 Z-1.738 F420.000
G1 X-10.911 Y69.360 Z-1.757 F420.000
G1 X-10.769 Y69.194 Z-1.776 F420.000
G1 X-10.598 Y69.059 Z-1.796 F420.000
G1 X-10.403 Y68.959 Z-1.815 F420.000
G1 X-10.193 Y68.900 Z-1.834 F420.000
G1 X-9.976 Y68.882 Z-1.854 F420.000
G1 X-9.759 Y68.908 Z-1.873 F420.000
G1 X-9.551 Y68.975 Z-1.892 F420.000
G1 X-9.360 Y69.082 Z-1.912 F420.000
G1 X-9.194 Y69.223 Z-1.931 F420.000
G1 X-9.059 Y69.395 Z-1.950 F420.000
G1 X-8.959 Y69.589 Z-1.970 F420.000
G1 X-8.900 Y69.799 Z-1.989 F420.000
G1 X-8.882 Y70.017 Z-2.008 F420.000
G1 X-8.908 Y70.234 Z-2.027 F420.000
G1 X-8.975 Y70.442 Z-2.047 F420.000
G1 X-9.082 Y70.632 Z-2.066 F420.000
G1 X-9.223 Y70.799 Z-2.085 F420.000
G1 X-9.395 Y70.934 Z-2.105 F420.000
G1 X-9.589 Y71.033 Z-2.124 F420.000
G1 X-9.799 Y71.093 Z-2.143 F420.000
G1 X-10.017 Y71.110 Z-2.163 F420.000
G1 X-10.234 Y71.085 Z-2.182 F420.000
G1 X-10.442 Y71.017 Z-2.201 F420.000
G1 X-10.632 Y70.911 Z-2.221 F420.000
G1 X-10.799 Y70.769 Z-2.240 F420.000
G1 X-10.934 Y70.598 Z-2.259 F420.000
G1 X-11.033 Y70.403 Z-2.279 F420.000
G1 X-11.093 Y70.193 Z-2.298 F420.000
G1 X-11.110 Y69.976 Z-2.317 F420.000
G1 X-11.085 Y69.759 Z-2.336 F420.000
G1 X-11.017 Y69.551 Z-2.356 F420.000
G1 X-10.911 Y69.360 Z-2.375 F420.000
G1 X-10.769 Y69.194 Z-2.394 F420.000
G1 X-10.598 Y69.059 Z-2.414 F420.000
G1 X-10.403 Y68.959 Z-2.433 F420.000
G1 X-10.193 Y68.900 Z-2.452 F420.000
G1 X-9.976 Y68.882 Z-2.472 F420.000
G1 X-9.759 Y68.908 Z-2.491 F420.000
G1 X-9.551 Y68.975 Z-2.510 F420.000
G1 X-9.360 Y69.082 Z-2.530 F420.000
G1 X-9.194 Y69.223 Z-2.549 F420.000
G1 X-9.059 Y69.395 Z-2.568 F420.000
G1 X-8.959 Y69.589 Z-2.587 F420.000
G1 X-8.900 Y69.799 Z-2.607 F420.000
G1 X-8.882 Y70.017 Z-2.626 F420.000
G1 X-8.908 Y70.234 Z-2.645 F420.000
G1 X-8.975 Y70.442 Z-2.665 F420.000
G1 X-9.082 Y70.632 Z-2.684 F420.000
G1 X-9.223 Y70.799 Z-2.703 F420.000
G1 X-9.395 Y70.934 Z-2.723 F420.000
G1 X-9.589 Y71.033 Z-2.742 F420.000
G1 X-9.799 Y71.093 Z-2.761 F420.000
G1 X-10.017 Y71.110 Z-2.781 F420.000
G1 X-10.234 Y71.085 Z-2.800 F420.000
G1 X-10.442 Y71.017 Z-2.819 F420.000
G1 X-10.632 Y70.911 Z-2.838 F420.000
G1 X-10.799 Y70.769 Z-2.858 F420.000
G1 X-10.934 Y70.598 Z-2.877 F420.000
G1 X-11.033 Y70.403 Z-2.896 F420.000
G1 X-11.093 Y70.193 Z-2.916 F420.000
G1 X-11.110 Y69.976 Z-2.935 F420.000
G1 X-11.085 Y69.759 Z-2.954 F420.000
G1 X-11.017 Y69.551 Z-2.974 F420.000
G1 X-10.911 Y69.360 Z-2.993 F420.000
G1 X-10.769 Y69.194 Z-3.012 F420.000
G1 X-10.598 Y69.059 Z-3.032 F420.000
G1 X-10.403 Y68.959 Z-3.051 F420.000
G1 X-10.193 Y68.900 Z-3.070 F420.000
G1 X-9.976 Y68.882 Z-3.090 F420.000
G1 X-9.759 Y68.908 Z-3.109 F420.000
G1 X-9.551 Y68.975 Z-3.128 F420.000
G1 X-9.360 Y69.082 Z-3.147 F420.000
G1 X-9.194 Y69.223 Z-3.167 F420.000
G1 X-9.059 Y69.395 Z-3.186 F420.000
G1 X-8.959 Y69.589 Z-3.205 F420.000
G1 X-8.900 Y69.799 Z-3.225 F420.000
G1 X-8.882 Y70.017 Z-3.244 F420.000
G1 X-8.908 Y70.234 Z-3.263 F420.000
G1 X-8.975 Y70.442 Z-3.283 F420.000
G1 X-9.082 Y70.632 Z-3.302 F420.000
G1 X-9.223 Y70.799 Z-3.321 F420.000
G1 X-9.395 Y70.934 Z-3.341 F420.000
G1 X-9.589 Y71.033 Z-3.360 F420.000
G1 X-9.799 Y71.093 Z-3.379 F420.000
G1 X-10.017 Y71.110 Z-3.398 F420.000
G1 X-10.234 Y71.085 Z-3.418 F420.000
G1 X-10.442 Y71.017 Z-3.437 F420.000
G1 X-10.632 Y70.911 Z-3.456 F420.000
G1 X-10.799 Y70.769 Z-3.476 F420.000
G1 X-10.934 Y70.598 Z-3.495 F420.000
G1 X-11.033 Y70.403 Z-3.514 F420.000
G1 X-11.093 Y70.193 Z-3.534 F420.000
G1 X-11.110 Y69.976 Z-3.553 F420.000
G1 X-11.085 Y69.759 Z-3.572 F420.000
G1 X-11.017 Y69.551 Z-3.592 F420.000
G1 X-10.911 Y69.360 Z-3.611 F420.000
G1 X-10.769 Y69.194 Z-3.630 F420.000
G1 X-10.598 Y69.059 Z-3.649 F420.000
G1 X-10.403 Y68.959 Z-3.669 F420.000
G1 X-10.193 Y68.900 Z-3.688 F420.000
G1 X-9.976 Y68.882 Z-3.707 F420.000
G1 X-9.759 Y68.908 Z-3.727 F420.000
G1 X-9.551 Y68.975 Z-3.746 F420.000
G1 X-9.360 Y69.082 Z-3.765 F420.000
G1 X-9.194 Y69.223 Z-3.785 F420.000
G1 X-9.059 Y69.395 Z-3.804 F420.000
G1 X-8.959 Y69.589 Z-3.823 F420.000
G1 X-8.900 Y69.799 Z-3.843 F420.000
G1 X-8.882 Y70.017 Z-3.862 F420.000
G1 X-8.908 Y70.234 Z-3.881 F420.000
G1 X-8.975 Y70.442 Z-3.901 F420.000
G1 X-9.082 Y70.632 Z-3.920 F420.000
G1 X-9.223 Y70.799 Z-3.939 F420.000
G1 X-9.395 Y70.934 Z-3.958 F420.000
G1 X-9.589 Y71.033 Z-3.978 F420.000
G1 X-9.799 Y71.093 Z-3.997 F420.000
G1 X-10.017 Y71.110 Z-4.016 F420.000
G1 X-10.234 Y71.085 Z-4.036 F420.000
G1 X-10.442 Y71.017 Z-4.055 F420.000
G1 X-10.632 Y70.911 Z-4.074 F420.000
G1 X-10.799 Y70.769 Z-4.094 F420.000
G1 X-10.934 Y70.598 Z-4.113 F420.000
G1 X-11.033 Y70.403 Z-4.132 F420.000
G1 X-11.093 Y70.193 Z-4.152 F420.000
G1 X-11.110 Y69.976 Z-4.171 F420.000
G1 X-11.085 Y69.759 Z-4.190 F420.000
G1 X-11.017 Y69.551 Z-4.209 F420.000
G1 X-10.911 Y69.360 Z-4.229 F420.000
G1 X-10.769 Y69.194 Z-4.248 F420.000
G1 X-10.598 Y69.059 Z-4.267 F420.000
G1 X-10.403 Y68.959 Z-4.287 F420.000
G1 X-10.193 Y68.900 Z-4.306 F420.000
G1 X-9.976 Y68.882 Z-4.325 F420.000
G1 X-9.759 Y68.908 Z-4.345 F420.000
G1 X-9.551 Y68.975 Z-4.364 F420.000
G1 X-9.360 Y69.082 Z-4.383 F420.000
G1 X-9.194 Y69.223 Z-4.403 F420.000
G1 X-9.059 Y69.395 Z-4.422 F420.000
G1 X-8.959 Y69.589 Z-4.441 F420.000
G1 X-8.900 Y69.799 Z-4.460 F420.000
G1 X-8.882 Y70.017 Z-4.480 F420.000
G1 X-8.908 Y70.234 Z-4.499 F420.000
G1 X-8.975 Y70.442 Z-4.518 F420.000
G1 X-9.082 Y70.632 Z-4.538 F420.000
G1 X-9.223 Y70.799 Z-4.557 F420.000
G1 X-9.395 Y70.934 Z-4.576 F420.000
G1 X-9.589 Y71.033 Z-4.596 F420.000
G1 X-9.799 Y71.093 Z-4.615 F420.000
G1 X-10.017 Y71.110 Z-4.634 F420.000
G1 X-10.234 Y71.085 Z-4.654 F420.000
G1 X-10.442 Y71.017 Z-4.673 F420.000
G1 X-10.632 Y70.911 Z-4.692 F420.000
G1 X-10.799 Y70.769 Z-4.712 F420.000
G1 X-10.934 Y70.598 Z-4.731 F420.000
G1 X-11.033 Y70.403 Z-4.750 F420.000
G1 X-11.093 Y70.193 Z-4.769 F420.000
G1 X-11.110 Y69.976 Z-4.789 F420.000
G1 X-11.085 Y69.759 Z-4.808 F420.000
G1 X-11.017 Y69.551 Z-4.827 F420.000
G1 X-10.911 Y69.360 Z-4.847 F420.000
G1 X-10.769 Y69.194 Z-4.866 F420.000
G1 X-10.598 Y69.059 Z-4.885 F420.000
G1 X-10.403 Y68.959 Z-4.905 F420.000
G1 X-10.193 Y68.900 Z-4.924 F420.000
G1 X-9.976 Y68.882 Z-4.943 F420.000
G1 X-9.759 Y68.908 Z-4.963 F420.000
G1 X-9.551 Y68.975 Z-4.982 F420.000
G1 X-9.360 Y69.082 Z-5.001 F420.000
G1 X-9.194 Y69.223 Z-5.020 F420.000
G1 X-9.059 Y69.395 Z-5.040 F420.000
G1 X-8.959 Y69.589 Z-5.059 F420.000
G1 X-8.900 Y69.799 Z-5.078 F420.000
G1 X-8.882 Y70.017 Z-5.098 F420.000
G1 X-8.908 Y70.234 Z-5.117 F420.000
G1 X-8.975 Y70.442 Z-5.136 F420.000
G1 X-9.082 Y70.632 Z-5.156 F420.000
G1 X-9.223 Y70.799 Z-5.175 F420.000
G1 X-9.395 Y70.934 Z-5.194 F420.000
G1 X-9.589 Y71.033 Z-5.214 F420.000
G1 X-9.799 Y71.093 Z-5.233 F420.000
G1 X-10.017 Y71.110 Z-5.252 F420.000
G1 X-10.234 Y71.085 Z-5.271 F420.000
G1 X-10.442 Y71.017 Z-5.291 F420.000
G1 X-10.632 Y70.911 Z-5.310 F420.000
G1 X-10.799 Y70.769 Z-5.329 F420.000
G1 X-10.934 Y70.598 Z-5.349 F420.000
G1 X-11.033 Y70.403 Z-5.368 F420.000
G1 X-11.093 Y70.193 Z-5.387 F420.000
G1 X-11.110 Y69.976 Z-5.407 F420.000
G1 X-11.085 Y69.759 Z-5.426 F420.000
G1 X-11.017 Y69.551 Z-5.445 F420.000
G1 X-10.911 Y69.360 Z-5.465 F420.000
G1 X-10.769 Y69.194 Z-5.484 F420.000
G1 X-10.598 Y69.059 Z-5.503 F420.000
G1 X-10.403 Y68.959 Z-5.523 F420.000
G1 X-10.193 Y68.900 Z-5.540 F420.000
G1 X-9.976 Y68.882 Z-5.540 F420.000
G1 X-9.759 Y68.908 Z-5.540 F420.000
G1 X-9.551 Y68.975 Z-5.540 F420.000
G1 X-9.360 Y69.082 Z-5.540 F420.000
G1 X-9.194 Y69.223 Z-5.540 F420.000
G1 X-9.059 Y69.395 Z-5.540 F420.000
G1 X-8.959 Y69.589 Z-5.540 F420.000
G1 X-8.900 Y69.799 Z-5.540 F420.000
G1 X-8.882 Y70.017 Z-5.540 F420.000
G1 X-8.908 Y70.234 Z-5.540 F420.000
G1 X-8.975 Y70.442 Z-5.540 F420.000
G1 X-9.082 Y70.632 Z-5.540 F420.000
G1 X-9.223 Y70.799 Z-5.540 F420.000
G1 X-9.395 Y70.934 Z-5.540 F420.000
G1 X-9.589 Y71.033 Z-5.540 F420.000
G1 X-9.799 Y71.093 Z-5.540 F420.000
G1 X-10.017 Y71.110 Z-5.540 F420.000
G1 X-10.234 Y71.085 Z-5.540 F420.000
G1 X-10.442 Y71.017 Z-5.540 F420.000
G1 X-10.632 Y70.911 Z-5.540 F420.000
G1 X-10.799 Y70.769 Z-5.540 F420.000
G1 X-10.934 Y70.598 Z-5.540 F420.000
G1 X-11.033 Y70.403 Z-5.540 F420.000
G1 X-11.093 Y70.193 Z-5.540 F420.000
G1 X-11.110 Y69.976 Z-5.540 F420.000
G1 X-11.085 Y69.759 Z-5.540 F420.000
G1 X-11.017 Y69.551 Z-5.540 F420.000
G1 X-10.911 Y69.360 Z-5.540 F420.000
G1 X-10.769 Y69.194 Z-5.540 F420.000
G1 X-10.598 Y69.059 Z-5.540 F420.000
G1 X-10.403 Y68.959 Z-5.540 F420.000
(Adaptive - depth: -5.540000)
G1 X-9.996 Y68.872 F420.000
G1 X-9.951 Y68.827 F420.000
G1 X-9.835 Y68.782 F420.000
G1 X-9.654 Y68.759 F420.000
G1 X-9.534 Y68.763 F420.000
G1 X-9.474 Y68.774 F420.000
G1 X-9.132 Y68.921 F420.000
G1 X-8.977 Y69.041 F420.000
G1 X-8.887 Y69.135 F420.000
G1 X-8.793 Y69.259 F420.000
G1 X-8.695 Y69.432 F420.000
G1 X-8.617 Y69.647 F420.000
G1 X-8.579 Y69.857 F420.000
G1 X-8.568 Y70.038 F420.000
G1 X-8.586 Y70.241 F420.000
G1 X-8.635 Y70.432 F420.000
G1 X-8.703 Y70.613 F420.000
G1 X-8.816 Y70.805 F420.000
G1 X-8.944 Y70.962 F420.000
G1 X-9.094 Y71.105 F420.000
G1 X-9.267 Y71.226 F420.000
G1 X-9.451 Y71.320 F420.000
G1 X-9.650 Y71.380 F420.000
G1 X-9.838 Y71.410 F420.000
G1 X-10.038 Y71.417 F420.000
G1 X-10.259 Y71.387 F420.000
G1 X-10.459 Y71.335 F420.000
G1 X-10.650 Y71.252 F420.000
G1 X-10.835 Y71.139 F420.000
G1 X-10.992 Y71.000 F420.000
G1 X-11.120 Y70.857 F420.000
G1 X-11.229 Y70.684 F420.000
G1 X-11.312 Y70.500 F420.000
G1 X-11.372 Y70.308 F420.000
G1 X-11.402 Y70.086 F420.000
G1 X-11.402 Y69.880 F420.000
G1 X-11.368 Y69.673 F420.000
G1 X-11.312 Y69.492 F420.000
G1 X-11.229 Y69.308 F420.000
G1 X-11.109 Y69.128 F420.000
G1 X-10.974 Y68.977 F420.000
G1 X-10.816 Y68.846 F420.000
G1 X-10.643 Y68.726 F420.000
G1 X-10.417 Y68.602 F420.000
G1 X-10.090 Y68.481 F420.000
G1 X-9.850 Y68.436 F420.000
G1 X-9.789 Y68.432 F420.000
G1 X-9.417 Y68.474 F420.000
G1 X-9.143 Y68.564 F420.000
G1 X-8.977 Y68.650 F420.000
G1 X-8.838 Y68.744 F420.000
G1 X-8.688 Y68.876 F420.000
G1 X-8.541 Y69.049 F420.000
G1 X-8.425 Y69.237 F420.000
G1 X-8.335 Y69.432 F420.000
G1 X-8.271 Y69.643 F420.000
G1 X-8.237 Y69.857 F420.000
G1 X-8.229 Y70.071 F420.000
G1 X-8.256 Y70.308 F420.000
G1 X-8.308 Y70.526 F420.000
G1 X-8.387 Y70.741 F420.000
G1 X-8.496 Y70.944 F420.000
G1 X-8.628 Y71.128 F420.000
G1 X-8.782 Y71.293 F420.000
G1 X-8.959 Y71.436 F420.000
G1 X-9.150 Y71.556 F420.000
G1 X-9.357 Y71.650 F420.000
G1 X-9.575 Y71.714 F420.000
G1 X-9.801 Y71.752 F420.000
G1 X-10.026 Y71.759 F420.000
G1 X-10.252 Y71.737 F420.000
G1 X-10.474 Y71.684 F420.000
G1 X-10.688 Y71.602 F420.000
G1 X-10.891 Y71.492 F420.000
G1 X-11.075 Y71.357 F420.000
G1 X-11.241 Y71.199 F420.000
G1 X-11.387 Y71.023 F420.000
G1 X-11.508 Y70.827 F420.000
G1 X-11.602 Y70.617 F420.000
G1 X-11.669 Y70.395 F420.000
G1 X-11.707 Y70.165 F420.000
G1 X-11.718 Y69.936 F420.000
G1 X-11.699 Y69.707 F420.000
G1 X-11.650 Y69.481 F420.000
G1 X-11.571 Y69.263 F420.000
G1 X-11.459 Y69.060 F420.000
G1 X-11.342 Y68.895 F420.000
G1 X-11.180 Y68.711 F420.000
G1 X-10.989 Y68.538 F420.000
G1 X-10.771 Y68.380 F420.000
G1 X-10.545 Y68.256 F420.000
G1 X-10.301 Y68.165 F420.000
G1 X-10.086 Y68.113 F420.000
G1 X-9.846 Y68.083 F420.000
G1 X-9.609 Y68.086 F420.000
G1 X-9.376 Y68.117 F420.000
G1 X-9.147 Y68.177 F420.000
G1 X-8.925 Y68.267 F420.000
G1 X-8.722 Y68.380 F420.000
G1 X-8.530 Y68.523 F420.000
G1 X-8.361 Y68.688 F420.000
G1 X-8.211 Y68.872 F420.000
G1 X-8.086 Y69.075 F420.000
G1 X-7.989 Y69.289 F420.000
G1 X-7.921 Y69.515 F420.000
G1 X-7.880 Y69.748 F420.000
G1 X-7.861 Y69.981 F420.000
G1 X-7.868 Y70.248 F420.000
G1 X-7.914 Y70.526 F420.000
G1 X-7.996 Y70.774 F420.000
G1 X-8.079 Y70.970 F420.000
G1 X-8.207 Y71.184 F420.000
G1 X-8.350 Y71.376 F420.000
G1 X-8.541 Y71.575 F420.000
G1 X-8.737 Y71.737 F420.000
G1 X-8.955 Y71.865 F420.000
G1 X-9.154 Y71.955 F420.000
G1 X-9.383 Y72.034 F420.000
G1 X-9.658 Y72.094 F420.000
G1 X-9.932 Y72.120 F420.000
G1 X-10.195 Y72.102 F420.000
G1 X-10.398 Y72.068 F420.000
G1 X-10.635 Y72.000 F420.000
G1 X-10.876 Y71.898 F420.000
G1 X-11.117 Y71.767 F420.000
G1 X-11.323 Y71.609 F420.000
G1 X-11.489 Y71.455 F420.000
G1 X-11.647 Y71.259 F420.000
G1 X-11.782 Y71.056 F420.000
G1 X-11.902 Y70.812 F420.000
G1 X-11.989 Y70.571 F420.000
G1 X-12.049 Y70.323 F420.000
G1 X-12.079 Y70.064 F420.000
G1 X-12.071 Y69.808 F420.000
G1 X-12.041 Y69.583 F420.000
G1 X-11.977 Y69.342 F420.000
G1 X-11.887 Y69.113 F420.000
G1 X-11.763 Y68.880 F420.000
G1 X-11.620 Y68.669 F420.000
G1 X-11.444 Y68.455 F420.000
G1 X-11.233 Y68.252 F420.000
G1 X-11.011 Y68.090 F420.000
G1 X-10.801 Y67.966 F420.000
G1 X-10.553 Y67.857 F420.000
G1 X-10.305 Y67.774 F420.000
G1 X-10.026 Y67.718 F420.000
G1 X-9.759 Y67.703 F420.000
G1 X-9.526 Y67.711 F420.000
G1 X-9.267 Y67.752 F420.000
G1 X-9.023 Y67.820 F420.000
G1 X-8.771 Y67.921 F420.000
G1 X-8.541 Y68.045 F420.000
G1 X-8.327 Y68.192 F420.000
G1 X-8.132 Y68.365 F420.000
G1 X-7.955 Y68.560 F420.000
G1 X-7.808 Y68.778 F420.000
G1 X-7.699 Y68.977 F420.000
G1 X-7.594 Y69.229 F420.000
G1 X-7.523 Y69.496 F420.000
G1 X-7.481 Y69.752 F420.000
G1 X-7.466 Y70.019 F420.000
G1 X-7.477 Y70.282 F420.000
G1 X-7.526 Y70.579 F420.000
G1 X-7.598 Y70.846 F420.000
G1 X-7.707 Y71.105 F420.000
G1 X-7.823 Y71.320 F420.000
G1 X-7.977 Y71.538 F420.000
G1 X-8.150 Y71.737 F420.000
G1 X-8.361 Y71.932 F420.000
G1 X-8.579 Y72.094 F420.000
G1 X-8.816 Y72.233 F420.000
G1 X-9.071 Y72.350 F420.000
G1 X-9.335 Y72.436 F420.000
G1 X-9.605 Y72.485 F420.000
G1 X-9.842 Y72.504 F420.000
G1 X-10.102 Y72.496 F420.000
G1 X-10.383 Y72.455 F420.000
G1 X-10.639 Y72.398 F420.000
G1 X-10.955 Y72.289 F420.000
G1 X-11.211 Y72.154 F420.000
G1 X-11.402 Y72.030 F420.000
G1 X-11.617 Y71.853 F420.000
G1 X-11.797 Y71.662 F420.000
G1 X-11.959 Y71.462 F420.000
G1 X-12.120 Y71.203 F420.000
G1 X-12.241 Y70.955 F420.000
G1 X-12.335 Y70.695 F420.000
G1 X-12.402 Y70.421 F420.000
G1 X-12.440 Y70.143 F420.000
G1 X-12.447 Y69.865 F420.000
G1 X-12.425 Y69.586 F420.000
G1 X-12.361 Y69.312 F420.000
G1 X-12.286 Y69.086 F420.000
G1 X-12.180 Y68.842 F420.000
G1 X-12.038 Y68.583 F420.000
G1 X-11.853 Y68.320 F420.000
G1 X-11.654 Y68.105 F420.000
G1 X-11.470 Y67.936 F420.000
G1 X-11.241 Y67.767 F420.000
G1 X-10.981 Y67.613 F420.000
G1 X-10.703 Y67.481 F420.000
G1 X-10.425 Y67.383 F420.000
G1 X-10.128 Y67.323 F420.000
G1 X-9.887 Y67.297 F420.000
G1 X-9.613 Y67.297 F420.000
G1 X-9.102 Y67.361 F420.000
G1 X-8.579 Y67.530 F420.000
G1 X-8.308 Y67.665 F420.000
G1 X-7.917 Y67.951 F420.000
G1 X-7.549 Y68.342 F420.000
G1 X-7.244 Y68.853 F420.000
G1 X-7.056 Y69.410 F420.000
G1 X-6.985 Y69.974 F420.000
G1 X-7.026 Y70.538 F420.000
G1 X-7.173 Y71.038 F420.000
G1 X-7.462 Y71.598 F420.000
G1 X-7.748 Y71.959 F420.000
G1 X-8.229 Y72.372 F420.000
G1 X-8.680 Y72.628 F420.000
G1 X-9.233 Y72.812 F420.000
G1 X-9.853 Y72.891 F420.000
G1 X-10.361 Y72.857 F420.000
G1 X-10.868 Y72.722 F420.000
G1 X-11.297 Y72.523 F420.000
G1 X-11.774 Y72.169 F420.000
G1 X-12.177 Y71.722 F420.000
G1 X-12.406 Y71.365 F420.000
G1 X-12.583 Y70.977 F420.000
G1 X-12.707 Y70.564 F420.000
G1 X-12.767 Y70.203 F420.000
G1 X-12.767 Y69.662 F420.000
G1 X-12.680 Y69.180 F420.000
G1 X-12.459 Y68.598 F420.000
G1 X-12.271 Y68.271 F420.000
G1 X-11.914 Y67.831 F420.000
G1 X-11.489 Y67.462 F420.000
G1 X-11.060 Y67.195 F420.000
G1 X-10.538 Y66.989 F420.000
G1 X-9.936 Y66.868 F420.000
G1 X-9.575 Y66.853 F420.000
G1 X-9.274 Y66.876 F420.000
G1 X-9.094 Y66.910 F420.000
G1 X-8.695 Y67.049 F420.000
G1 X-8.162 Y67.350 F420.000
G1 X-7.831 Y67.613 F420.000
G1 X-7.398 Y68.094 F420.000
G1 X-7.173 Y68.444 F420.000
G1 X-6.981 Y68.865 F420.000
G1 X-6.827 Y69.429 F420.000
G1 X-6.786 Y69.767 F420.000
G1 X-6.782 Y70.218 F420.000
G1 X-6.850 Y70.669 F420.000
G1 X-7.000 Y71.177 F420.000
G1 X-7.289 Y71.744 F420.000
G1 X-7.722 Y72.278 F420.000
G1 X-7.801 Y72.361 F420.000
G1 X-8.064 Y72.579 F420.000
G1 X-8.605 Y72.906 F420.000
G1 X-9.090 Y73.090 F420.000
G1 X-9.711 Y73.211 F420.000
G1 X-10.331 Y73.203 F420.000
G1 X-10.782 Y73.113 F420.000
G1 X-11.177 Y72.970 F420.000
G1 X-11.594 Y72.752 F420.000
G1 X-12.023 Y72.421 F420.000
G1 X-12.425 Y71.974 F420.000
G1 X-12.797 Y71.361 F420.000
G1 X-13.011 Y70.782 F420.000
G1 X-13.109 Y70.241 F420.000
G1 X-13.113 Y69.579 F420.000
G1 X-13.015 Y69.038 F420.000
G1 X-12.872 Y68.624 F420.000
G1 X-12.699 Y68.286 F420.000
G1 X-12.459 Y67.921 F420.000
G1 X-12.380 Y67.823 F420.000
G1 X-11.910 Y67.406 F420.000
G1 X-11.647 Y67.226 F420.000
G1 X-11.312 Y67.053 F420.000
G1 X-10.774 Y66.868 F420.000
G1 X-10.293 Y66.786 F420.000
G1 X-9.692 Y66.789 F420.000
G1 X-9.692 Y66.789 F420.000
G1 X-9.568 Y66.831 F420.000
G1 X-9.519 Y66.868 F420.000
G1 X-9.504 Y66.891 F420.000
G0 X-9.492 Y66.914
G0 X-9.504 Y67.023
G0 X-11.241 Y72.635
G1 X-11.256 Y72.680 F420.000
G1 X-11.301 Y72.805 F420.000
G1 X-11.346 Y72.835 F420.000
G1 X-11.432 Y72.846 F420.000
G1 X-11.556 Y72.816 F420.000
G1 X-11.556 Y72.816 F420.000
G1 X-12.049 Y72.485 F420.000
G1 X-12.477 Y72.056 F420.000
G1 X-12.624 Y71.868 F420.000
G1 X-12.872 Y71.455 F420.000
G1 X-12.977 Y71.229 F420.000
G1 X-13.083 Y70.944 F420.000
G1 X-13.169 Y70.583 F420.000
G1 X-13.218 Y70.162 F420.000
G1 X-13.211 Y69.680 F420.000
G1 X-13.102 Y69.139 F420.000
G1 X-12.955 Y68.722 F420.000
G1 X-12.722 Y68.271 F420.000
G1 X-12.722 Y68.271 F420.000
G1 X-12.703 Y68.259 F420.000
G0 X-12.688 Y68.259
G0 X-12.677 Y68.267
G1 X-12.673 Y68.278 F420.000
G1 X-12.695 Y68.293 F420.000
G1 X-12.722 Y68.274 F420.000
G1 X-12.729 Y68.241 F420.000
G1 X-12.729 Y68.241 F420.000
G1 X-12.508 Y67.936 F420.000
G1 X-12.387 Y67.797 F420.000
G1 X-12.128 Y67.549 F420.000
G1 X-11.940 Y67.395 F420.000
G1 X-11.609 Y67.173 F420.000
G1 X-11.398 Y67.064 F420.000
G1 X-11.150 Y66.959 F420.000
G1 X-10.808 Y66.850 F420.000
G1 X-10.402 Y66.771 F420.000
G1 X-10.109 Y66.748 F420.000
G1 X-9.944 Y66.748 F420.000
G1 X-9.677 Y66.763 F420.000
G1 X-9.278 Y66.831 F420.000
G1 X-9.143 Y66.865 F420.000
G1 X-8.771 Y66.992 F420.000
G1 X-8.594 Y67.068 F420.000
G1 X-8.305 Y67.226 F420.000
G1 X-8.154 Y67.323 F420.000
G1 X-7.816 Y67.594 F420.000
G1 X-7.564 Y67.850 F420.000
G1 X-7.346 Y68.124 F420.000
G1 X-7.226 Y68.301 F420.000
G1 X-7.139 Y68.455 F420.000
G1 X-6.944 Y68.880 F420.000
G1 X-6.853 Y69.192 F420.000
G1 X-6.782 Y69.523 F420.000
G1 X-6.767 Y69.647 F420.000
G1 X-6.748 Y70.075 F420.000
G1 X-6.759 Y70.222 F420.000
G1 X-6.823 Y70.669 F420.000
G1 X-6.925 Y71.041 F420.000
G1 X-6.974 Y71.180 F420.000
G1 X-7.229 Y71.699 F420.000
G1 X-7.297 Y71.808 F420.000
G1 X-7.410 Y71.962 F420.000
G1 X-7.695 Y72.289 F420.000
G1 X-7.801 Y72.395 F420.000
G1 X-8.086 Y72.624 F420.000
G1 X-8.451 Y72.857 F420.000
G1 X-8.782 Y73.011 F420.000
G1 X-9.090 Y73.120 F420.000
G1 X-9.455 Y73.207 F420.000
G1 X-9.831 Y73.244 F420.000
G1 X-10.030 Y73.252 F420.000
G1 X-10.233 Y73.244 F420.000
G1 X-10.545 Y73.195 F420.000
G1 X-10.820 Y73.139 F420.000
G1 X-11.169 Y73.026 F420.000
G1 X-11.462 Y72.895 F420.000
G1 X-11.647 Y72.797 F420.000
G1 X-12.094 Y72.485 F420.000
G1 X-12.368 Y72.214 F420.000
G1 X-12.511 Y72.056 F420.000
G1 X-12.643 Y71.891 F420.000
G1 X-12.865 Y71.530 F420.000
G1 X-12.996 Y71.259 F420.000
G1 X-13.079 Y71.041 F420.000
G1 X-13.199 Y70.568 F420.000
G1 X-13.241 Y70.226 F420.000
G1 X-13.252 Y69.940 F420.000
G1 X-13.233 Y69.639 F420.000
G1 X-13.188 Y69.380 F420.000
G1 X-13.109 Y69.068 F420.000
G1 X-13.045 Y68.880 F420.000
G1 X-12.947 Y68.632 F420.000
G1 X-12.842 Y68.429 F420.000
G1 X-12.729 Y68.241 F420.000
G1 X-12.729 Y68.241 F420.000
G0 Z15.000
(Helix to depth: -5.540000)
G0 Z15.000
G0 X-94.976 Y48.882 Z15.000
G0 X-94.976 Y48.882 Z3.000
G1 X-94.976 Y48.882 Z0.000 F420.000
G1 X-94.976 Y48.882 Z0.000 F420.000
G1 X-94.759 Y48.908 Z-0.019 F420.000
G1 X-94.551 Y48.975 Z-0.039 F420.000
G1 X-94.360 Y49.082 Z-0.058 F420.000
G1 X-94.194 Y49.223 Z-0.077 F420.000
G1 X-94.059 Y49.395 Z-0.097 F420.000
G1 X-93.959 Y49.589 Z-0.116 F420.000
G1 X-93.900 Y49.799 Z-0.135 F420.000
G1 X-93.882 Y50.017 Z-0.154 F420.000
G1 X-93.908 Y50.234 Z-0.174 F420.000
G1 X-93.975 Y50.442 Z-0.193 F420.000
G1 X-94.082 Y50.632 Z-0.212 F420.000
G1 X-94.223 Y50.799 Z-0.232 F420.000
G1 X-94.395 Y50.934 Z-0.251 F420.000
G1 X-94.589 Y51.033 Z-0.270 F420.000
G1 X-94.799 Y51.093 Z-0.290 F420.000
G1 X-95.017 Y51.110 Z-0.309 F420.000
G1 X-95.234 Y51.085 Z-0.328 F420.000
G1 X-95.442 Y51.017 Z-0.348 F420.000
G1 X-95.632 Y50.911 Z-0.367 F420.000
G1 X-95.799 Y50.769 Z-0.386 F420.000
G1 X-95.934 Y50.598 Z-0.405 F420.000
G1 X-96.033 Y50.403 Z-0.425 F420.000
G1 X-96.093 Y50.193 Z-0.444 F420.000
G1 X-96.110 Y49.976 Z-0.463 F420.000
G1 X-96.085 Y49.759 Z-0.483 F420.000
G1 X-96.017 Y49.551 Z-0.502 F420.000
G1 X-95.911 Y49.360 Z-0.521 F420.000
G1 X-95.769 Y49.194 Z-0.541 F420.000
G1 X-95.598 Y49.059 Z-0.560 F420.000
G1 X-95.403 Y48.959 Z-0.579 F420.000
G1 X-95.193 Y48.900 Z-0.599 F420.000
G1 X-94.976 Y48.882 Z-0.618 F420.000
G1 X-94.759 Y48.908 Z-0.637 F420.000
G1 X-94.551 Y48.975 Z-0.657 F420.000
G1 X-94.360 Y49.082 Z-0.676 F420.000
G1 X-94.194 Y49.223 Z-0.695 F420.000
G1 X-94.059 Y49.395 Z-0.714 F420.000
G1 X-93.959 Y49.589 Z-0.734 F420.000
G1 X-93.900 Y49.799 Z-0.753 F420.000
G1 X-93.882 Y50.017 Z-0.772 F420.000
G1 X-93.908 Y50.234 Z-0.792 F420.000
G1 X-93.975 Y50.442 Z-0.811 F420.000
G1 X-94.082 Y50.632 Z-0.830 F420.000
G1 X-94.223 Y50.799 Z-0.850 F420.000
G1 X-94.395 Y50.934 Z-0.869 F420.000
G1 X-94.589 Y51.033 Z-0.888 F420.000
G1 X-94.799 Y51.093 Z-0.908 F420.000
G1 X-95.017 Y51.110 Z-0.927 F420.000
G1 X-95.234 Y51.085 Z-0.946 F420.000
G1 X-95.442 Y51.017 Z-0.965 F420.000
G1 X-95.632 Y50.911 Z-0.985 F420.000
G1 X-95.799 Y50.769 Z-1.004 F420.000
G1 X-95.934 Y50.598 Z-1.023 F420.000
G1 X-96.033 Y50.403 Z-1.043 F420.000
G1 X-96.093 Y50.193 Z-1.062 F420.000
G1 X-96.110 Y49.976 Z-1.081 F420.000
G1 X-96.085 Y49.759 Z-1.101 F420.000
G1 X-96.017 Y49.551 Z-1.120 F420.000
G1 X-95.911 Y49.360 Z-1.139 F420.000
G1 X-95.769 Y49.194 Z-1.159 F420.000
G1 X-95.598 Y49.059 Z-1.178 F420.000
G1 X-95.403 Y48.959 Z-1.197 F420.000
G1 X-95.193 Y48.900 Z-1.216 F420.000
G1 X-94.976 Y48.882 Z-1.236 F420.000
G1 X-94.759 Y48.908 Z-1.255 F420.000
G1 X-94.551 Y48.975 Z-1.274 F420.000
G1 X-94.360 Y49.082 Z-1.294 F420.000
G1 X-94.194 Y49.223 Z-1.313 F420.000
G1 X-94.059 Y49.395 Z-1.332 F420.000
G1 X-93.959 Y49.589 Z-1.352 F420.000
G1 X-93.900 Y49.799 Z-1.371 F420.000
G1 X-93.882 Y50.017 Z-1.390 F420.000
G1 X-93.908 Y50.234 Z-1.410 F420.000
G1 X-93.975 Y50.442 Z-1.429 F420.000
G1 X-94.082 Y50.632 Z-1.448 F420.000
G1 X-94.223 Y50.799 Z-1.468 F420.000
G1 X-94.395 Y50.934 Z-1.487 F420.000
G1 X-94.589 Y51.033 Z-1.506 F420.000
G1 X-94.799 Y51.093 Z-1.525 F420.000
G1 X-95.017 Y51.110 Z-1.545 F420.000
G1 X-95.234 Y51.085 Z-1.564 F420.000
G1 X-95.442 Y51.017 Z-1.583 F420.000
G1 X-95.632 Y50.911 Z-1.603 F420.000
G1 X-95.799 Y50.769 Z-1.622 F420.000
G1 X-95.934 Y50.598 Z-1.641 F420.000
G1 X-96.033 Y50.403 Z-1.661 F420.000
G1 X-96.093 Y50.193 Z-1.680 F420.000
G1 X-96.110 Y49.976 Z-1.699 F420.000
G1 X-96.085 Y49.759 Z-1.719 F420.000
G1 X-96.017 Y49.551 Z-1.738 F420.000
G1 X-95.911 Y49.360 Z-1.757 F420.000
G1 X-95.769 Y49.194 Z-1.776 F420.000
G1 X-95.598 Y49.059 Z-1.796 F420.000
G1 X-95.403 Y48.959 Z-1.815 F420.000
G1 X-95.193 Y48.900 Z-1.834 F420.000
G1 X-94.976 Y48.882 Z-1.854 F420.000
G1 X-94.759 Y48.908 Z-1.873 F420.000
G1 X-94.551 Y48.975 Z-1.892 F420.000
G1 X-94.360 Y49.082 Z-1.912 F420.000
G1 X-94.194 Y49.223 Z-1.931 F420.000
G1 X-94.059 Y49.395 Z-1.950 F420.000
G1 X-93.959 Y49.589 Z-1.970 F420.000
G1 X-93.900 Y49.799 Z-1.989 F420.000
G1 X-93.882 Y50.017 Z-2.008 F420.000
G1 X-93.908 Y50.234 Z-2.027 F420.000
G1 X-93.975 Y50.442 Z-2.047 F420.000
G1 X-94.082 Y50.632 Z-2.066 F420.000
G1 X-94.223 Y50.799 Z-2.085 F420.000
G1 X-94.395 Y50.934 Z-2.105 F420.000
G1 X-94.589 Y51.033 Z-2.124 F420.000
G1 X-94.799 Y51.093 Z-2.143 F420.000
G1 X-95.017 Y51.110 Z-2.163 F420.000
G1 X-95.234 Y51.085 Z-2.182 F420.000
G1 X-95.442 Y51.017 Z-2.201 F420.000
G1 X-95.632 Y50.911 Z-2.221 F420.000
G1 X-95.799 Y50.769 Z-2.240 F420.000
G1 X-95.934 Y50.598 Z-2.259 F420.000
G1 X-96.033 Y50.403 Z-2.279 F420.000
G1 X-96.093 Y50.193 Z-2.298 F420.000
G1 X-96.110 Y49.976 Z-2.317 F420.000
G1 X-96.085 Y49.759 Z-2.336 F420.000
G1 X-96.017 Y49.551 Z-2.356 F420.000
G1 X-95.911 Y49.360 Z-2.375 F420.000
G1 X-95.769 Y49.194 Z-2.394 F420.000
G1 X-95.598 Y49.059 Z-2.414 F420.000
G1 X-95.403 Y48.959 Z-2.433 F420.000
G1 X-95.193 Y48.900 Z-2.452 F420.000
G1 X-94.976 Y48.882 Z-2.472 F420.000
G1 X-94.759 Y48.908 Z-2.491 F420.000
G1 X-94.551 Y48.975 Z-2.510 F420.000
G1 X-94.360 Y49.082 Z-2.530 F420.000
G1 X-94.194 Y49.223 Z-2.549 F420.000
G1 X-94.059 Y49.395 Z-2.568 F420.000
G1 X-93.959 Y49.589 Z-2.587 F420.000
G1 X-93.900 Y49.799 Z-2.607 F420.000
G1 X-93.882 Y50.017 Z-2.626 F420.000
G1 X-93.908 Y50.234 Z-2.645 F420.000
G1 X-93.975 Y50.442 Z-2.665 F420.000
G1 X-94.082 Y50.632 Z-2.684 F420.000
G1 X-94.223 Y50.799 Z-2.703 F420.000
G1 X-94.395 Y50.934 Z-2.723 F420.000
G1 X-94.589 Y51.033 Z-2.742 F420.000
G1 X-94.799 Y51.093 Z-2.761 F420.000
G1 X-95.017 Y51.110 Z-2.781 F420.000
G1 X-95.234 Y51.085 Z-2.800 F420.000
G1 X-95.442 Y51.017 Z-2.819 F420.000
G1 X-95.632 Y50.911 Z-2.838 F420.000
G1 X-95.799 Y50.769 Z-2.858 F420.000
G1 X-95.934 Y50.598 Z-2.877 F420.000
G1 X-96.033 Y50.403 Z-2.896 F420.000
G1 X-96.093 Y50.193 Z-2.916 F420.000
G1 X-96.110 Y49.976 Z-2.935 F420.000
G1 X-96.085 Y49.759 Z-2.954 F420.000
G1 X-96.017 Y49.551 Z-2.974 F420.000
G1 X-95.911 Y49.360 Z-2.993 F420.000
G1 X-95.769 Y49.194 Z-3.012 F420.000
G1 X-95.598 Y49.059 Z-3.032 F420.000
G1 X-95.403 Y48.959 Z-3.051 F420.000
G1 X-95.193 Y48.900 Z-3.070 F420.000
G1 X-94.976 Y48.882 Z-3.090 F420.000
G1 X-94.759 Y48.908 Z-3.109 F420.000
G1 X-94.551 Y48.975 Z-3.128 F420.000
G1 X-94.360 Y49.082 Z-3.147 F420.000
G1 X-94.194 Y49.223 Z-3.167 F420.000
G1 X-94.059 Y49.395 Z-3.186 F420.000
G1 X-93.959 Y49.589 Z-3.205 F420.000
G1 X-93.900 Y49.799 Z-3.225 F420.000
G1 X-93.882 Y50.017 Z-3.244 F420.000
G1 X-93.908 Y50.234 Z-3.263 F420.000
G1 X-93.975 Y50.442 Z-3.283 F420.000
G1 X-94.082 Y50.632 Z-3.302 F420.000
G1 X-94.223 Y50.799 Z-3.321 F420.000
G1 X-94.395 Y50.934 Z-3.341 F420.000
G1 X-94.589 Y51.033 Z-3.360 F420.000
G1 X-94.799 Y51.093 Z-3.379 F420.000
G1 X-95.017 Y51.110 Z-3.398 F420.000
G1 X-95.234 Y51.085 Z-3.418 F420.000
G1 X-95.442 Y51.017 Z-3.437 F420.000
G1 X-95.632 Y50.911 Z-3.456 F420.000
G1 X-95.799 Y50.769 Z-3.476 F420.000
G1 X-95.934 Y50.598 Z-3.495 F420.000
G1 X-96.033 Y50.403 Z-3.514 F420.000
G1 X-96.093 Y50.193 Z-3.534 F420.000
G1 X-96.110 Y49.976 Z-3.553 F420.000
G1 X-96.085 Y49.759 Z-3.572 F420.000
G1 X-96.017 Y49.551 Z-3.592 F420.000
G1 X-95.911 Y49.360 Z-3.611 F420.000
G1 X-95.769 Y49.194 Z-3.630 F420.000
G1 X-95.598 Y49.059 Z-3.649 F420.000
G1 X-95.403 Y48.959 Z-3.669 F420.000
G1 X-95.193 Y48.900 Z-3.688 F420.000
G1 X-94.976 Y48.882 Z-3.707 F420.000
G1 X-94.759 Y48.908 Z-3.727 F420.000
G1 X-94.551 Y48.975 Z-3.746 F420.000
G1 X-94.360 Y49.082 Z-3.765 F420.000
G1 X-94.194 Y49.223 Z-3.785 F420.000
G1 X-94.059 Y49.395 Z-3.804 F420.000
G1 X-93.959 Y49.589 Z-3.823 F420.000
G1 X-93.900 Y49.799 Z-3.843 F420.000
G1 X-93.882 Y50.017 Z-3.862 F420.000
G1 X-93.908 Y50.234 Z-3.881 F420.000
G1 X-93.975 Y50.442 Z-3.901 F420.000
G1 X-94.082 Y50.632 Z-3.920 F420.000
G1 X-94.223 Y50.799 Z-3.939 F420.000
G1 X-94.395 Y50.934 Z-3.958 F420.000
G1 X-94.589 Y51.033 Z-3.978 F420.000
G1 X-94.799 Y51.093 Z-3.997 F420.000
G1 X-95.017 Y51.110 Z-4.016 F420.000
G1 X-95.234 Y51.085 Z-4.036 F420.000
G1 X-95.442 Y51.017 Z-4.055 F420.000
G1 X-95.632 Y50.911 Z-4.074 F420.000
G1 X-95.799 Y50.769 Z-4.094 F420.000
G1 X-95.934 Y50.598 Z-4.113 F420.000
G1 X-96.033 Y50.403 Z-4.132 F420.000
G1 X-96.093 Y50.193 Z-4.152 F420.000
G1 X-96.110 Y49.976 Z-4.171 F420.000
G1 X-96.085 Y49.759 Z-4.190 F420.000
G1 X-96.017 Y49.551 Z-4.209 F420.000
G1 X-95.911 Y49.360 Z-4.229 F420.000
G1 X-95.769 Y49.194 Z-4.248 F420.000
G1 X-95.598 Y49.059 Z-4.267 F420.000
G1 X-95.403 Y48.959 Z-4.287 F420.000
G1 X-95.193 Y48.900 Z-4.306 F420.000
G1 X-94.976 Y48.882 Z-4.325 F420.000
G1 X-94.759 Y48.908 Z-4.345 F420.000
G1 X-94.551 Y48.975 Z-4.364 F420.000
G1 X-94.360 Y49.082 Z-4.383 F420.000
G1 X-94.194 Y49.223 Z-4.403 F420.000
G1 X-94.059 Y49.395 Z-4.422 F420.000
G1 X-93.959 Y49.589 Z-4.441 F420.000
G1 X-93.900 Y49.799 Z-4.460 F420.000
G1 X-93.882 Y50.017 Z-4.480 F420.000
G1 X-93.908 Y50.234 Z-4.499 F420.000
G1 X-93.975 Y50.442 Z-4.518 F420.000
G1 X-94.082 Y50.632 Z-4.538 F420.000
G1 X-94.223 Y50.799 Z-4.557 F420.000
G1 X-94.395 Y50.934 Z-4.576 F420.000
G1 X-94.589 Y51.033 Z-4.596 F420.000
G1 X-94.799 Y51.093 Z-4.615 F420.000
G1 X-95.017 Y51.110 Z-4.634 F420.000
G1 X-95.234 Y51.085 Z-4.654 F420.000
G1 X-95.442 Y51.017 Z-4.673 F420.000
G1 X-95.632 Y50.911 Z-4.692 F420.000
G1 X-95.799 Y50.769 Z-4.712 F420.000
G1 X-95.934 Y50.598 Z-4.731 F420.000
G1 X-96.033 Y50.403 Z-4.750 F420.000
G1 X-96.093 Y50.193 Z-4.769 F420.000
G1 X-96.110 Y49.976 Z-4.789 F420.000
G1 X-96.085 Y49.759 Z-4.808 F420.000
G1 X-96.017 Y49.551 Z-4.827 F420.000
G1 X-95.911 Y49.360 Z-4.847 F420.000
G1 X-95.769 Y49.194 Z-4.866 F420.000
G1 X-95.598 Y49.059 Z-4.885 F420.000
G1 X-95.403 Y48.959 Z-4.905 F420.000
G1 X-95.193 Y48.900 Z-4.924 F420.000
G1 X-94.976 Y48.882 Z-4.943 F420.000
G1 X-94.759 Y48.908 Z-4.963 F420.000
G1 X-94.551 Y48.975 Z-4.982 F420.000
G1 X-94.360 Y49.082 Z-5.001 F420.000
G1 X-94.194 Y49.223 Z-5.020 F420.000
G1 X-94.059 Y49.395 Z-5.040 F420.000
G1 X-93.959 Y49.589 Z-5.059 F420.000
G1 X-93.900 Y49.799 Z-5.078 F420.000
G1 X-93.882 Y50.017 Z-5.098 F420.000
G1 X-93.908 Y50.234 Z-5.117 F420.000
G1 X-93.975 Y50.442 Z-5.136 F420.000
G1 X-94.082 Y50.632 Z-5.156 F420.000
G1 X-94.223 Y50.799 Z-5.175 F420.000
G1 X-94.395 Y50.934 Z-5.194 F420.000
G1 X-94.589 Y51.033 Z-5.214 F420.000
G1 X-94.799 Y51.093 Z-5.233 F420.000
G1 X-95.017 Y51.110 Z-5.252 F420.000
G1 X-95.234 Y51.085 Z-5.271 F420.000
G1 X-95.442 Y51.017 Z-5.291 F420.000
G1 X-95.632 Y50.911 Z-5.310 F420.000
G1 X-95.799 Y50.769 Z-5.329 F420.000
G1 X-95.934 Y50.598 Z-5.349 F420.000
G1 X-96.033 Y50.403 Z-5.368 F420.000
G1 X-96.093 Y50.193 Z-5.387 F420.000
G1 X-96.110 Y49.976 Z-5.407 F420.000
G1 X-96.085 Y49.759 Z-5.426 F420.000
G1 X-96.017 Y49.551 Z-5.445 F420.000
G1 X-95.911 Y49.360 Z-5.465 F420.000
G1 X-95.769 Y49.194 Z-5.484 F420.000
G1 X-95.598 Y49.059 Z-5.503 F420.000
G1 X-95.403 Y48.959 Z-5.523 F420.000
G1 X-95.193 Y48.900 Z-5.540 F420.000
G1 X-94.976 Y48.882 Z-5.540 F420.000
G1 X-94.759 Y48.908 Z-5.540 F420.000
G1 X-94.551 Y48.975 Z-5.540 F420.000
G1 X-94.360 Y49.082 Z-5.540 F420.000
G1 X-94.194 Y49.223 Z-5.540 F420.000
G1 X-94.059 Y49.395 Z-5.540 F420.000
G1 X-93.959 Y49.589 Z-5.540 F420.000
G1 X-93.900 Y49.799 Z-5.540 F420.000
G1 X-93.882 Y50.017 Z-5.540 F420.000
G1 X-93.908 Y50.234 Z-5.540 F420.000
G1 X-93.975 Y50.442 Z-5.540 F420.000
G1 X-94.082 Y50.632 Z-5.540 F420.000
G1 X-94.223 Y50.799 Z-5.540 F420.000
G1 X-94.395 Y50.934 Z-5.540 F420.000
G1 X-94.589 Y51.033 Z-5.540 F420.000
G1 X-94.799 Y51.093 Z-5.540 F420.000
G1 X-95.017 Y51.110 Z-5.540 F420.000
G1 X-95.234 Y51.085 Z-5.540 F420.000
G1 X-95.442 Y51.017 Z-5.540 F420.000
G1 X-95.632 Y50.911 Z-5.540 F420.000
G1 X-95.799 Y50.769 Z-5.540 F420.000
G1 X-95.934 Y50.598 Z-5.540 F420.000
G1 X-96.033 Y50.403 Z-5.540 F420.000
G1 X-96.093 Y50.193 Z-5.540 F420.000
G1 X-96.110 Y49.976 Z-5.540 F420.000
G1 X-96.085 Y49.759 Z-5.540 F420.000
G1 X-96.017 Y49.551 Z-5.540 F420.000
G1 X-95.911 Y49.360 Z-5.540 F420.000
G1 X-95.769 Y49.194 Z-5.540 F420.000
G1 X-95.598 Y49.059 Z-5.540 F420.000
G1 X-95.403 Y48.959 Z-5.540 F420.000
(Adaptive - depth: -5.540000)
G1 X-94.996 Y48.872 F420.000
G1 X-94.951 Y48.827 F420.000
G1 X-94.774 Y48.767 F420.000
G1 X-94.594 Y48.756 F420.000
G1 X-94.474 Y48.774 F420.000
G1 X-94.132 Y48.925 F420.000
G1 X-93.966 Y49.056 F420.000
G1 X-93.872 Y49.158 F420.000
G1 X-93.789 Y49.271 F420.000
G1 X-93.695 Y49.444 F420.000
G1 X-93.613 Y49.662 F420.000
G1 X-93.575 Y49.891 F420.000
G1 X-93.571 Y50.071 F420.000
G1 X-93.594 Y50.259 F420.000
G1 X-93.639 Y50.451 F420.000
G1 X-93.729 Y50.662 F420.000
G1 X-93.835 Y50.838 F420.000
G1 X-93.970 Y50.996 F420.000
G1 X-94.109 Y51.120 F420.000
G1 X-94.271 Y51.229 F420.000
G1 X-94.466 Y51.327 F420.000
G1 X-94.677 Y51.387 F420.000
G1 X-94.865 Y51.417 F420.000
G1 X-95.071 Y51.417 F420.000
G1 X-95.274 Y51.387 F420.000
G1 X-95.470 Y51.335 F420.000
G1 X-95.677 Y51.244 F420.000
G1 X-95.853 Y51.132 F420.000
G1 X-96.008 Y50.989 F420.000
G1 X-96.124 Y50.850 F420.000
G1 X-96.233 Y50.680 F420.000
G1 X-96.320 Y50.474 F420.000
G1 X-96.372 Y50.282 F420.000
G1 X-96.398 Y50.075 F420.000
G1 X-96.395 Y49.865 F420.000
G1 X-96.361 Y49.658 F420.000
G1 X-96.301 Y49.459 F420.000
G1 X-96.211 Y49.271 F420.000
G1 X-96.094 Y49.098 F420.000
G1 X-95.947 Y48.947 F420.000
G1 X-95.805 Y48.835 F420.000
G1 X-95.639 Y48.722 F420.000
G1 X-95.402 Y48.590 F420.000
G1 X-95.098 Y48.477 F420.000
G1 X-94.857 Y48.432 F420.000
G1 X-94.797 Y48.429 F420.000
G1 X-94.425 Y48.466 F420.000
G1 X-94.132 Y48.564 F420.000
G1 X-93.974 Y48.647 F420.000
G1 X-93.835 Y48.741 F420.000
G1 X-93.688 Y48.876 F420.000
G1 X-93.549 Y49.038 F420.000
G1 X-93.425 Y49.237 F420.000
G1 X-93.335 Y49.432 F420.000
G1 X-93.271 Y49.643 F420.000
G1 X-93.233 Y49.865 F420.000
G1 X-93.226 Y50.083 F420.000
G1 X-93.248 Y50.301 F420.000
G1 X-93.301 Y50.515 F420.000
G1 X-93.376 Y50.722 F420.000
G1 X-93.492 Y50.936 F420.000
G1 X-93.624 Y51.120 F420.000
G1 X-93.782 Y51.289 F420.000
G1 X-93.962 Y51.440 F420.000
G1 X-94.162 Y51.556 F420.000
G1 X-94.350 Y51.639 F420.000
G1 X-94.564 Y51.699 F420.000
G1 X-94.778 Y51.737 F420.000
G1 X-95.045 Y51.744 F420.000
G1 X-95.278 Y51.722 F420.000
G1 X-95.511 Y51.673 F420.000
G1 X-95.741 Y51.579 F420.000
G1 X-95.914 Y51.485 F420.000
G1 X-96.094 Y51.353 F420.000
G1 X-96.252 Y51.195 F420.000
G1 X-96.387 Y51.030 F420.000
G1 X-96.511 Y50.823 F420.000
G1 X-96.605 Y50.617 F420.000
G1 X-96.680 Y50.383 F420.000
G1 X-96.722 Y50.150 F420.000
G1 X-96.726 Y49.914 F420.000
G1 X-96.707 Y49.703 F420.000
G1 X-96.654 Y49.477 F420.000
G1 X-96.571 Y49.263 F420.000
G1 X-96.466 Y49.064 F420.000
G1 X-96.331 Y48.880 F420.000
G1 X-96.184 Y48.711 F420.000
G1 X-95.985 Y48.530 F420.000
G1 X-95.771 Y48.380 F420.000
G1 X-95.549 Y48.259 F420.000
G1 X-95.308 Y48.165 F420.000
G1 X-95.056 Y48.109 F420.000
G1 X-94.842 Y48.083 F420.000
G1 X-94.602 Y48.086 F420.000
G1 X-94.368 Y48.120 F420.000
G1 X-94.147 Y48.180 F420.000
G1 X-93.932 Y48.271 F420.000
G1 X-93.729 Y48.387 F420.000
G1 X-93.541 Y48.526 F420.000
G1 X-93.357 Y48.703 F420.000
G1 X-93.207 Y48.891 F420.000
G1 X-93.079 Y49.094 F420.000
G1 X-92.977 Y49.316 F420.000
G1 X-92.910 Y49.545 F420.000
G1 X-92.872 Y49.756 F420.000
G1 X-92.853 Y49.985 F420.000
G1 X-92.868 Y50.259 F420.000
G1 X-92.914 Y50.515 F420.000
G1 X-92.992 Y50.756 F420.000
G1 X-93.083 Y50.959 F420.000
G1 X-93.207 Y51.169 F420.000
G1 X-93.368 Y51.383 F420.000
G1 X-93.556 Y51.579 F420.000
G1 X-93.763 Y51.737 F420.000
G1 X-93.944 Y51.846 F420.000
G1 X-94.165 Y51.951 F420.000
G1 X-94.421 Y52.034 F420.000
G1 X-94.677 Y52.086 F420.000
G1 X-94.932 Y52.113 F420.000
G1 X-95.192 Y52.105 F420.000
G1 X-95.447 Y52.056 F420.000
G1 X-95.647 Y51.996 F420.000
G1 X-95.872 Y51.906 F420.000
G1 X-96.124 Y51.759 F420.000
G1 X-96.320 Y51.617 F420.000
G1 X-96.504 Y51.432 F420.000
G1 X-96.643 Y51.259 F420.000
G1 X-96.774 Y51.056 F420.000
G1 X-96.898 Y50.816 F420.000
G1 X-96.996 Y50.549 F420.000
G1 X-97.053 Y50.289 F420.000
G1 X-97.079 Y50.056 F420.000
G1 X-97.075 Y49.801 F420.000
G1 X-97.041 Y49.553 F420.000
G1 X-96.970 Y49.316 F420.000
G1 X-96.891 Y49.117 F420.000
G1 X-96.771 Y48.880 F420.000
G1 X-96.605 Y48.635 F420.000
G1 X-96.429 Y48.421 F420.000
G1 X-96.222 Y48.233 F420.000
G1 X-96.030 Y48.090 F420.000
G1 X-95.801 Y47.959 F420.000
G1 X-95.564 Y47.853 F420.000
G1 X-95.286 Y47.767 F420.000
G1 X-95.023 Y47.714 F420.000
G1 X-94.752 Y47.699 F420.000
G1 X-94.523 Y47.711 F420.000
G1 X-94.271 Y47.752 F420.000
G1 X-94.026 Y47.820 F420.000
G1 X-93.771 Y47.925 F420.000
G1 X-93.541 Y48.049 F420.000
G1 X-93.327 Y48.199 F420.000
G1 X-93.132 Y48.376 F420.000
G1 X-92.955 Y48.571 F420.000
G1 X-92.805 Y48.786 F420.000
G1 X-92.677 Y49.015 F420.000
G1 X-92.579 Y49.259 F420.000
G1 X-92.508 Y49.511 F420.000
G1 X-92.466 Y49.771 F420.000
G1 X-92.455 Y50.030 F420.000
G1 X-92.474 Y50.289 F420.000
G1 X-92.515 Y50.549 F420.000
G1 X-92.598 Y50.835 F420.000
G1 X-92.699 Y51.086 F420.000
G1 X-92.835 Y51.327 F420.000
G1 X-92.977 Y51.526 F420.000
G1 X-93.150 Y51.726 F420.000
G1 X-93.361 Y51.925 F420.000
G1 X-93.602 Y52.102 F420.000
G1 X-93.850 Y52.237 F420.000
G1 X-94.060 Y52.327 F420.000
G1 X-94.316 Y52.410 F420.000
G1 X-94.609 Y52.470 F420.000
G1 X-94.910 Y52.500 F420.000
G1 X-95.199 Y52.481 F420.000
G1 X-95.421 Y52.451 F420.000
G1 X-95.684 Y52.387 F420.000
G1 X-95.959 Y52.286 F420.000
G1 X-96.218 Y52.147 F420.000
G1 X-96.417 Y52.015 F420.000
G1 X-96.628 Y51.838 F420.000
G1 X-96.812 Y51.643 F420.000
G1 X-96.974 Y51.440 F420.000
G1 X-97.135 Y51.192 F420.000
G1 X-97.274 Y50.910 F420.000
G1 X-97.365 Y50.635 F420.000
G1 X-97.421 Y50.402 F420.000
G1 X-97.451 Y50.128 F420.000
G1 X-97.447 Y49.865 F420.000
G1 X-97.417 Y49.605 F420.000
G1 X-97.365 Y49.342 F420.000
G1 X-97.274 Y49.056 F420.000
G1 X-97.154 Y48.778 F420.000
G1 X-97.008 Y48.530 F420.000
G1 X-96.853 Y48.323 F420.000
G1 X-96.669 Y48.113 F420.000
G1 X-96.444 Y47.910 F420.000
G1 X-96.218 Y47.744 F420.000
G1 X-95.970 Y47.598 F420.000
G1 X-95.703 Y47.477 F420.000
G1 X-95.429 Y47.387 F420.000
G1 X-95.147 Y47.327 F420.000
G1 X-94.861 Y47.293 F420.000
G1 X-94.575 Y47.301 F420.000
G1 X-94.147 Y47.361 F420.000
G1 X-93.729 Y47.481 F420.000
G1 X-93.241 Y47.722 F420.000
G1 X-92.947 Y47.936 F420.000
G1 X-92.643 Y48.229 F420.000
G1 X-92.365 Y48.613 F420.000
G1 X-92.226 Y48.876 F420.000
G1 X-92.056 Y49.383 F420.000
G1 X-91.981 Y49.947 F420.000
G1 X-91.989 Y50.286 F420.000
G1 X-92.090 Y50.793 F420.000
G1 X-92.252 Y51.222 F420.000
G1 X-92.481 Y51.620 F420.000
G1 X-92.733 Y51.932 F420.000
G1 X-93.071 Y52.248 F420.000
G1 X-93.549 Y52.556 F420.000
G1 X-93.981 Y52.733 F420.000
G1 X-94.376 Y52.831 F420.000
G1 X-95.053 Y52.883 F420.000
G1 X-95.560 Y52.816 F420.000
G1 X-96.011 Y52.662 F420.000
G1 X-96.327 Y52.496 F420.000
G1 X-96.756 Y52.180 F420.000
G1 X-97.169 Y51.744 F420.000
G1 X-97.462 Y51.286 F420.000
G1 X-97.665 Y50.778 F420.000
G1 X-97.767 Y50.237 F420.000
G1 X-97.767 Y49.635 F420.000
G1 X-97.673 Y49.154 F420.000
G1 X-97.447 Y48.571 F420.000
G1 X-97.184 Y48.143 F420.000
G1 X-96.812 Y47.722 F420.000
G1 X-96.474 Y47.444 F420.000
G1 X-96.041 Y47.188 F420.000
G1 X-95.515 Y46.985 F420.000
G1 X-94.853 Y46.868 F420.000
G1 X-94.372 Y46.865 F420.000
G1 X-94.132 Y46.895 F420.000
G1 X-93.617 Y47.086 F420.000
G1 X-93.143 Y47.365 F420.000
G1 X-92.812 Y47.632 F420.000
G1 X-92.492 Y47.977 F420.000
G1 X-92.278 Y48.267 F420.000
G1 X-91.989 Y48.842 F420.000
G1 X-91.820 Y49.462 F420.000
G1 X-91.789 Y49.688 F420.000
G1 X-91.786 Y50.252 F420.000
G1 X-91.846 Y50.647 F420.000
G1 X-91.992 Y51.154 F420.000
G1 X-92.218 Y51.628 F420.000
G1 X-92.410 Y51.917 F420.000
G1 X-92.793 Y52.350 F420.000
G1 X-93.060 Y52.575 F420.000
G1 X-93.402 Y52.797 F420.000
G1 X-93.763 Y52.977 F420.000
G1 X-94.203 Y53.120 F420.000
G1 X-94.711 Y53.211 F420.000
G1 X-95.331 Y53.203 F420.000
G1 X-95.782 Y53.109 F420.000
G1 X-96.177 Y52.974 F420.000
G1 X-96.598 Y52.752 F420.000
G1 X-97.071 Y52.380 F420.000
G1 X-97.474 Y51.929 F420.000
G1 X-97.733 Y51.515 F420.000
G1 X-97.929 Y51.068 F420.000
G1 X-98.090 Y50.406 F420.000
G1 X-98.132 Y49.805 F420.000
G1 X-98.060 Y49.203 F420.000
G1 X-97.861 Y48.609 F420.000
G1 X-97.692 Y48.271 F420.000
G1 X-97.489 Y47.955 F420.000
G1 X-97.139 Y47.590 F420.000
G1 X-96.944 Y47.429 F420.000
G1 X-96.628 Y47.218 F420.000
G1 X-96.000 Y46.932 F420.000
G1 X-95.459 Y46.805 F420.000
G1 X-94.857 Y46.778 F420.000
G1 X-94.857 Y46.778 F420.000
G1 X-94.707 Y46.827 F420.000
G1 X-94.662 Y46.865 F420.000
G0 X-94.650 Y46.887
G0 X-94.658 Y46.996
G0 X-96.229 Y52.643
G1 X-96.244 Y52.688 F420.000
G1 X-96.286 Y52.812 F420.000
G1 X-96.331 Y52.842 F420.000
G1 X-96.417 Y52.853 F420.000
G1 X-96.541 Y52.823 F420.000
G1 X-96.541 Y52.823 F420.000
G1 X-97.038 Y52.492 F420.000
G1 X-97.342 Y52.207 F420.000
G1 X-97.613 Y51.887 F420.000
G1 X-97.865 Y51.470 F420.000
G1 X-98.011 Y51.139 F420.000
G1 X-98.169 Y50.605 F420.000
G1 X-98.214 Y50.244 F420.000
G1 X-98.207 Y49.643 F420.000
G1 X-98.109 Y49.162 F420.000
G1 X-97.962 Y48.741 F420.000
G1 X-97.823 Y48.459 F420.000
G1 X-97.823 Y48.459 F420.000
G1 X-97.805 Y48.444 F420.000
G0 X-97.789 Y48.444
G0 X-97.778 Y48.455
G1 X-97.778 Y48.466 F420.000
G1 X-97.801 Y48.477 F420.000
G1 X-97.831 Y48.462 F420.000
G1 X-97.842 Y48.429 F420.000
G1 X-97.842 Y48.429 F420.000
G1 X-97.729 Y48.241 F420.000
G1 X-97.508 Y47.936 F420.000
G1 X-97.387 Y47.797 F420.000
G1 X-97.128 Y47.549 F420.000
G1 X-96.940 Y47.395 F420.000
G1 X-96.609 Y47.173 F420.000
G1 X-96.406 Y47.068 F420.000
G1 X-95.944 Y46.887 F420.000
G1 X-95.812 Y46.850 F420.000
G1 X-95.402 Y46.771 F420.000
G1 X-95.109 Y46.748 F420.000
G1 X-94.944 Y46.748 F420.000
G1 X-94.677 Y46.763 F420.000
G1 X-94.278 Y46.831 F420.000
G1 X-94.150 Y46.861 F420.000
G1 X-93.771 Y46.992 F420.000
G1 X-93.594 Y47.068 F420.000
G1 X-93.305 Y47.226 F420.000
G1 X-93.154 Y47.323 F420.000
G1 X-92.816 Y47.594 F420.000
G1 X-92.564 Y47.850 F420.000
G1 X-92.346 Y48.124 F420.000
G1 X-92.226 Y48.301 F420.000
G1 X-92.139 Y48.455 F420.000
G1 X-91.944 Y48.880 F420.000
G1 X-91.853 Y49.192 F420.000
G1 X-91.782 Y49.523 F420.000
G1 X-91.767 Y49.647 F420.000
G1 X-91.748 Y50.075 F420.000
G1 X-91.759 Y50.222 F420.000
G1 X-91.823 Y50.669 F420.000
G1 X-91.925 Y51.041 F420.000
G1 X-91.974 Y51.180 F420.000
G1 X-92.229 Y51.699 F420.000
G1 X-92.297 Y51.808 F420.000
G1 X-92.410 Y51.962 F420.000
G1 X-92.695 Y52.289 F420.000
G1 X-92.801 Y52.395 F420.000
G1 X-93.086 Y52.624 F420.000
G1 X-93.451 Y52.857 F420.000
G1 X-93.556 Y52.914 F420.000
G1 X-93.782 Y53.011 F420.000
G1 X-94.090 Y53.120 F420.000
G1 X-94.455 Y53.207 F420.000
G1 X-94.831 Y53.244 F420.000
G1 X-95.030 Y53.252 F420.000
G1 X-95.233 Y53.244 F420.000
G1 X-95.545 Y53.195 F420.000
G1 X-95.820 Y53.139 F420.000
G1 X-96.169 Y53.026 F420.000
G1 X-96.462 Y52.895 F420.000
G1 X-96.647 Y52.797 F420.000
G1 X-97.094 Y52.485 F420.000
G1 X-97.368 Y52.214 F420.000
G1 X-97.511 Y52.056 F420.000
G1 X-97.643 Y51.891 F420.000
G1 X-97.865 Y51.530 F420.000
G1 X-97.996 Y51.259 F420.000
G1 X-98.079 Y51.041 F420.000
G1 X-98.199 Y50.568 F420.000
G1 X-98.241 Y50.226 F420.000
G1 X-98.252 Y49.940 F420.000
G1 X-98.233 Y49.639 F420.000
G1 X-98.188 Y49.380 F420.000
G1 X-98.109 Y49.068 F420.000
G1 X-98.045 Y48.880 F420.000
G1 X-97.947 Y48.632 F420.000
G1 X-97.842 Y48.429 F420.000
G1 X-97.842 Y48.429 F420.000
G0 Z15.000
(Helix to depth: -5.540000)
G0 Z15.000
G0 X-74.976 Y48.882 Z15.000
G0 X-74.976 Y48.882 Z3.000
G1 X-74.976 Y48.882 Z0.000 F420.000
G1 X-74.976 Y48.882 Z0.000 F420.000
G1 X-74.759 Y48.908 Z-0.019 F420.000
G1 X-74.551 Y48.975 Z-0.039 F420.000
G1 X-74.360 Y49.082 Z-0.058 F420.000
G1 X-74.194 Y49.223 Z-0.077 F420.000
G1 X-74.059 Y49.395 Z-0.097 F420.000
G1 X-73.959 Y49.589 Z-0.116 F420.000
G1 X-73.900 Y49.799 Z-0.135 F420.000
G1 X-73.882 Y50.017 Z-0.154 F420.000
G1 X-73.908 Y50.234 Z-0.174 F420.000
G1 X-73.975 Y50.442 Z-0.193 F420.000
G1 X-74.082 Y50.632 Z-0.212 F420.000
G1 X-74.223 Y50.799 Z-0.232 F420.000
G1 X-74.395 Y50.934 Z-0.251 F420.000
G1 X-74.589 Y51.033 Z-0.270 F420.000
G1 X-74.799 Y51.093 Z-0.290 F420.000
G1 X-75.017 Y51.110 Z-0.309 F420.000
G1 X-75.234 Y51.085 Z-0.328 F420.000
G1 X-75.442 Y51.017 Z-0.348 F420.000
G1 X-75.632 Y50.911 Z-0.367 F420.000
G1 X-75.799 Y50.769 Z-0.386 F420.000
G1 X-75.934 Y50.598 Z-0.405 F420.000
G1 X-76.033 Y50.403 Z-0.425 F420.000
G1 X-76.093 Y50.193 Z-0.444 F420.000
G1 X-76.110 Y49.976 Z-0.463 F420.000
G1 X-76.085 Y49.759 Z-0.483 F420.000
G1 X-76.017 Y49.551 Z-0.502 F420.000
G1 X-75.911 Y49.360 Z-0.521 F420.000
G1 X-75.769 Y49.194 Z-0.541 F420.000
G1 X-75.598 Y49.059 Z-0.560 F420.000
G1 X-75.403 Y48.959 Z-0.579 F420.000
G1 X-75.193 Y48.900 Z-0.599 F420.000
G1 X-74.976 Y48.882 Z-0.618 F420.000
G1 X-74.759 Y48.908 Z-0.637 F420.000
G1 X-74.551 Y48.975 Z-0.657 F420.000
G1 X-74.360 Y49.082 Z-0.676 F420.000
G1 X-74.194 Y49.223 Z-0.695 F420.000
G1 X-74.059 Y49.395 Z-0.714 F420.000
G1 X-73.959 Y49.589 Z-0.734 F420.000
G1 X-73.900 Y49.799 Z-0.753 F420.000
G1 X-73.882 Y50.017 Z-0.772 F420.000
G1 X-73.908 Y50.234 Z-0.792 F420.000
G1 X-73.975 Y50.442 Z-0.811 F420.000
G1 X-74.082 Y50.632 Z-0.830 F420.000
G1 X-74.223 Y50.799 Z-0.850 F420.000
G1 X-74.395 Y50.934 Z-0.869 F420.000
G1 X-74.589 Y51.033 Z-0.888 F420.000
G1 X-74.799 Y51.093 Z-0.908 F420.000
G1 X-75.017 Y51.110 Z-0.927 F420.000
G1 X-75.234 Y51.085 Z-0.946 F420.000
G1 X-75.442 Y51.017 Z-0.965 F420.000
G1 X-75.632 Y50.911 Z-0.985 F420.000
G1 X-75.799 Y50.769 Z-1.004 F420.000
G1 X-75.934 Y50.598 Z-1.023 F420.000
G1 X-76.033 Y50.403 Z-1.043 F420.000
G1 X-76.093 Y50.193 Z-1.062 F420.000
G1 X-76.110 Y49.976 Z-1.081 F420.000
G1 X-76.085 Y49.759 Z-1.101 F420.000
G1 X-76.017 Y49.551 Z-1.120 F420.000
G1 X-75.911 Y49.360 Z-1.139 F420.000
G1 X-75.769 Y49.194 Z-1.159 F420.000
G1 X-75.598 Y49.059 Z-1.178 F420.000
G1 X-75.403 Y48.959 Z-1.197 F420.000
G1 X-75.193 Y48.900 Z-1.216 F420.000
G1 X-74.976 Y48.882 Z-1.236 F420.000
G1 X-74.759 Y48.908 Z-1.255 F420.000
G1 X-74.551 Y48.975 Z-1.274 F420.000
G1 X-74.360 Y49.082 Z-1.294 F420.000
G1 X-74.194 Y49.223 Z-1.313 F420.000
G1 X-74.059 Y49.395 Z-1.332 F420.000
G1 X-73.959 Y49.589 Z-1.352 F420.000
G1 X-73.900 Y49.799 Z-1.371 F420.000
G1 X-73.882 Y50.017 Z-1.390 F420.000
G1 X-73.908 Y50.234 Z-1.410 F420.000
G1 X-73.975 Y50.442 Z-1.429 F420.000
G1 X-74.082 Y50.632 Z-1.448 F420.000
G1 X-74.223 Y50.799 Z-1.468 F420.000
G1 X-74.395 Y50.934 Z-1.487 F420.000
G1 X-74.589 Y51.033 Z-1.506 F420.000
G1 X-74.799 Y51.093 Z-1.525 F420.000
G1 X-75.017 Y51.110 Z-1.545 F420.000
G1 X-75.234 Y51.085 Z-1.564 F420.000
G1 X-75.442 Y51.017 Z-1.583 F420.000
G1 X-75.632 Y50.911 Z-1.603 F420.000
G1 X-75.799 Y50.769 Z-1.622 F420.000
G1 X-75.934 Y50.598 Z-1.641 F420.000
G1 X-76.033 Y50.403 Z-1.661 F420.000
G1 X-76.093 Y50.193 Z-1.680 F420.000
G1 X-76.110 Y49.976 Z-1.699 F420.000
G1 X-76.085 Y49.759 Z-1.719 F420.000
G1 X-76.017 Y49.551 Z-1.738 F420.000
G1 X-75.911 Y49.360 Z-1.757 F420.000
G1 X-75.769 Y49.194 Z-1.776 F420.000
G1 X-75.598 Y49.059 Z-1.796 F420.000
G1 X-75.403 Y48.959 Z-1.815 F420.000
G1 X-75.193 Y48.900 Z-1.834 F420.000
G1 X-74.976 Y48.882 Z-1.854 F420.000
G1 X-74.759 Y48.908 Z-1.873 F420.000
G1 X-74.551 Y48.975 Z-1.892 F420.000
G1 X-74.360 Y49.082 Z-1.912 F420.000
G1 X-74.194 Y49.223 Z-1.931 F420.000
G1 X-74.059 Y49.395 Z-1.950 F420.000
G1 X-73.959 Y49.589 Z-1.970 F420.000
G1 X-73.900 Y49.799 Z-1.989 F420.000
G1 X-73.882 Y50.017 Z-2.008 F420.000
G1 X-73.908 Y50.234 Z-2.027 F420.000
G1 X-73.975 Y50.442 Z-2.047 F420.000
G1 X-74.082 Y50.632 Z-2.066 F420.000
G1 X-74.223 Y50.799 Z-2.085 F420.000
G1 X-74.395 Y50.934 Z-2.105 F420.000
G1 X-74.589 Y51.033 Z-2.124 F420.000
G1 X-74.799 Y51.093 Z-2.143 F420.000
G1 X-75.017 Y51.110 Z-2.163 F420.000
G1 X-75.234 Y51.085 Z-2.182 F420.000
G1 X-75.442 Y51.017 Z-2.201 F420.000
G1 X-75.632 Y50.911 Z-2.221 F420.000
G1 X-75.799 Y50.769 Z-2.240 F420.000
G1 X-75.934 Y50.598 Z-2.259 F420.000
G1 X-76.033 Y50.403 Z-2.279 F420.000
G1 X-76.093 Y50.193 Z-2.298 F420.000
G1 X-76.110 Y49.976 Z-2.317 F420.000
G1 X-76.085 Y49.759 Z-2.336 F420.000
G1 X-76.017 Y49.551 Z-2.356 F420.000
G1 X-75.911 Y49.360 Z-2.375 F420.000
G1 X-75.769 Y49.194 Z-2.394 F420.000
G1 X-75.598 Y49.059 Z-2.414 F420.000
G1 X-75.403 Y48.959 Z-2.433 F420.000
G1 X-75.193 Y48.900 Z-2.452 F420.000
G1 X-74.976 Y48.882 Z-2.472 F420.000
G1 X-74.759 Y48.908 Z-2.491 F420.000
G1 X-74.551 Y48.975 Z-2.510 F420.000
G1 X-74.360 Y49.082 Z-2.530 F420.000
G1 X-74.194 Y49.223 Z-2.549 F420.000
G1 X-74.059 Y49.395 Z-2.568 F420.000
G1 X-73.959 Y49.589 Z-2.587 F420.000
G1 X-73.900 Y49.799 Z-2.607 F420.000
G1 X-73.882 Y50.017 Z-2.626 F420.000
G1 X-73.908 Y50.234 Z-2.645 F420.000
G1 X-73.975 Y50.442 Z-2.665 F420.000
G1 X-74.082 Y50.632 Z-2.684 F420.000
G1 X-74.223 Y50.799 Z-2.703 F420.000
G1 X-74.395 Y50.934 Z-2.723 F420.000
G1 X-74.589 Y51.033 Z-2.742 F420.000
G1 X-74.799 Y51.093 Z-2.761 F420.000
G1 X-75.017 Y51.110 Z-2.781 F420.000
G1 X-75.234 Y51.085 Z-2.800 F420.000
G1 X-75.442 Y51.017 Z-2.819 F420.000
G1 X-75.632 Y50.911 Z-2.838 F420.000
G1 X-75.799 Y50.769 Z-2.858 F420.000
G1 X-75.934 Y50.598 Z-2.877 F420.000
G1 X-76.033 Y50.403 Z-2.896 F420.000
G1 X-76.093 Y50.193 Z-2.916 F420.000
G1 X-76.110 Y49.976 Z-2.935 F420.000
G1 X-76.085 Y49.759 Z-2.954 F420.000
G1 X-76.017 Y49.551 Z-2.974 F420.000
G1 X-75.911 Y49.360 Z-2.993 F420.000
G1 X-75.769 Y49.194 Z-3.012 F420.000
G1 X-75.598 Y49.059 Z-3.032 F420.000
G1 X-75.403 Y48.959 Z-3.051 F420.000
G1 X-75.193 Y48.900 Z-3.070 F420.000
G1 X-74.976 Y48.882 Z-3.090 F420.000
G1 X-74.759 Y48.908 Z-3.109 F420.000
G1 X-74.551 Y48.975 Z-3.128 F420.000
G1 X-74.360 Y49.082 Z-3.147 F420.000
G1 X-74.194 Y49.223 Z-3.167 F420.000
G1 X-74.059 Y49.395 Z-3.186 F420.000
G1 X-73.959 Y49.589 Z-3.205 F420.000
G1 X-73.900 Y49.799 Z-3.225 F420.000
G1 X-73.882 Y50.017 Z-3.244 F420.000
G1 X-73.908 Y50.234 Z-3.263 F420.000
G1 X-73.975 Y50.442 Z-3.283 F420.000
G1 X-74.082 Y50.632 Z-3.302 F420.000
G1 X-74.223 Y50.799 Z-3.321 F420.000
G1 X-74.395 Y50.934 Z-3.341 F420.000
G1 X-74.589 Y51.033 Z-3.360 F420.000
G1 X-74.799 Y51.093 Z-3.379 F420.000
G1 X-75.017 Y51.110 Z-3.398 F420.000
G1 X-75.234 Y51.085 Z-3.418 F420.000
G1 X-75.442 Y51.017 Z-3.437 F420.000
G1 X-75.632 Y50.911 Z-3.456 F420.000
G1 X-75.799 Y50.769 Z-3.476 F420.000
G1 X-75.934 Y50.598 Z-3.495 F420.000
G1 X-76.033 Y50.403 Z-3.514 F420.000
G1 X-76.093 Y50.193 Z-3.534 F420.000
G1 X-76.110 Y49.976 Z-3.553 F420.000
G1 X-76.085 Y49.759 Z-3.572 F420.000
G1 X-76.017 Y49.551 Z-3.592 F420.000
G1 X-75.911 Y49.360 Z-3.611 F420.000
G1 X-75.769 Y49.194 Z-3.630 F420.000
G1 X-75.598 Y49.059 Z-3.649 F420.000
G1 X-75.403 Y48.959 Z-3.669 F420.000
G1 X-75.193 Y48.900 Z-3.688 F420.000
G1 X-74.976 Y48.882 Z-3.707 F420.000
G1 X-74.759 Y48.908 Z-3.727 F420.000
G1 X-74.551 Y48.975 Z-3.746 F420.000
G1 X-74.360 Y49.082 Z-3.765 F420.000
G1 X-74.194 Y49.223 Z-3.785 F420.000
G1 X-74.059 Y49.395 Z-3.804 F420.000
G1 X-73.959 Y49.589 Z-3.823 F420.000
G1 X-73.900 Y49.799 Z-3.843 F420.000
G1 X-73.882 Y50.017 Z-3.862 F420.000
G1 X-73.908 Y50.234 Z-3.881 F420.000
G1 X-73.975 Y50.442 Z-3.901 F420.000
G1 X-74.082 Y50.632 Z-3.920 F420.000
G1 X-74.223 Y50.799 Z-3.939 F420.000
G1 X-74.395 Y50.934 Z-3.958 F420.000
G1 X-74.589 Y51.033 Z-3.978 F420.000
G1 X-74.799 Y51.093 Z-3.997 F420.000
G1 X-75.017 Y51.110 Z-4.016 F420.000
G1 X-75.234 Y51.085 Z-4.036 F420.000
G1 X-75.442 Y51.017 Z-4.055 F420.000
G1 X-75.632 Y50.911 Z-4.074 F420.000
G1 X-75.799 Y50.769 Z-4.094 F420.000
G1 X-75.934 Y50.598 Z-4.113 F420.000
G1 X-76.033 Y50.403 Z-4.132 F420.000
G1 X-76.093 Y50.193 Z-4.152 F420.000
G1 X-76.110 Y49.976 Z-4.171 F420.000
G1 X-76.085 Y49.759 Z-4.190 F420.000
G1 X-76.017 Y49.551 Z-4.209 F420.000
G1 X-75.911 Y49.360 Z-4.229 F420.000
G1 X-75.769 Y49.194 Z-4.248 F420.000
G1 X-75.598 Y49.059 Z-4.267 F420.000
G1 X-75.403 Y48.959 Z-4.287 F420.000
G1 X-75.193 Y48.900 Z-4.306 F420.000
G1 X-74.976 Y48.882 Z-4.325 F420.000
G1 X-74.759 Y48.908 Z-4.345 F420.000
G1 X-74.551 Y48.975 Z-4.364 F420.000
G1 X-74.360 Y49.082 Z-4.383 F420.000
G1 X-74.194 Y49.223 Z-4.403 F420.000
G1 X-74.059 Y49.395 Z-4.422 F420.000
G1 X-73.959 Y49.589 Z-4.441 F420.000
G1 X-73.900 Y49.799 Z-4.460 F420.000
G1 X-73.882 Y50.017 Z-4.480 F420.000
G1 X-73.908 Y50.234 Z-4.499 F420.000
G1 X-73.975 Y50.442 Z-4.518 F420.000
G1 X-74.082 Y50.632 Z-4.538 F420.000
G1 X-74.223 Y50.799 Z-4.557 F420.000
G1 X-74.395 Y50.934 Z-4.576 F420.000
G1 X-74.589 Y51.033 Z-4.596 F420.000
G1 X-74.799 Y51.093 Z-4.615 F420.000
G1 X-75.017 Y51.110 Z-4.634 F420.000
G1 X-75.234 Y51.085 Z-4.654 F420.000
G1 X-75.442 Y51.017 Z-4.673 F420.000
G1 X-75.632 Y50.911 Z-4.692 F420.000
G1 X-75.799 Y50.769 Z-4.712 F420.000
G1 X-75.934 Y50.598 Z-4.731 F420.000
G1 X-76.033 Y50.403 Z-4.750 F420.000
G1 X-76.093 Y50.193 Z-4.769 F420.000
G1 X-76.110 Y49.976 Z-4.789 F420.000
G1 X-76.085 Y49.759 Z-4.808 F420.000
G1 X-76.017 Y49.551 Z-4.827 F420.000
G1 X-75.911 Y49.360 Z-4.847 F420.000
G1 X-75.769 Y49.194 Z-4.866 F420.000
G1 X-75.598 Y49.059 Z-4.885 F420.000
G1 X-75.403 Y48.959 Z-4.905 F420.000
G1 X-75.193 Y48.900 Z-4.924 F420.000
G1 X-74.976 Y48.882 Z-4.943 F420.000
G1 X-74.759 Y48.908 Z-4.963 F420.000
G1 X-74.551 Y48.975 Z-4.982 F420.000
G1 X-74.360 Y49.082 Z-5.001 F420.000
G1 X-74.194 Y49.223 Z-5.020 F420.000
G1 X-74.059 Y49.395 Z-5.040 F420.000
G1 X-73.959 Y49.589 Z-5.059 F420.000
G1 X-73.900 Y49.799 Z-5.078 F420.000
G1 X-73.882 Y50.017 Z-5.098 F420.000
G1 X-73.908 Y50.234 Z-5.117 F420.000
G1 X-73.975 Y50.442 Z-5.136 F420.000
G1 X-74.082 Y50.632 Z-5.156 F420.000
G1 X-74.223 Y50.799 Z-5.175 F420.000
G1 X-74.395 Y50.934 Z-5.194 F420.000
G1 X-74.589 Y51.033 Z-5.214 F420.000
G1 X-74.799 Y51.093 Z-5.233 F420.000
G1 X-75.017 Y51.110 Z-5.252 F420.000
G1 X-75.234 Y51.085 Z-5.271 F420.000
G1 X-75.442 Y51.017 Z-5.291 F420.000
G1 X-75.632 Y50.911 Z-5.310 F420.000
G1 X-75.799 Y50.769 Z-5.329 F420.000
G1 X-75.934 Y50.598 Z-5.349 F420.000
G1 X-76.033 Y50.403 Z-5.368 F420.000
G1 X-76.093 Y50.193 Z-5.387 F420.000
G1 X-76.110 Y49.976 Z-5.407 F420.000
G1 X-76.085 Y49.759 Z-5.426 F420.000
G1 X-76.017 Y49.551 Z-5.445 F420.000
G1 X-75.911 Y49.360 Z-5.465 F420.000
G1 X-75.769 Y49.194 Z-5.484 F420.000
G1 X-75.598 Y49.059 Z-5.503 F420.000
G1 X-75.403 Y48.959 Z-5.523 F420.000
G1 X-75.193 Y48.900 Z-5.540 F420.000
G1 X-74.976 Y48.882 Z-5.540 F420.000
G1 X-74.759 Y48.908 Z-5.540 F420.000
G1 X-74.551 Y48.975 Z-5.540 F420.000
G1 X-74.360 Y49.082 Z-5.540 F420.000
G1 X-74.194 Y49.223 Z-5.540 F420.000
G1 X-74.059 Y49.395 Z-5.540 F420.000
G1 X-73.959 Y49.589 Z-5.540 F420.000
G1 X-73.900 Y49.799 Z-5.540 F420.000
G1 X-73.882 Y50.017 Z-5.540 F420.000
G1 X-73.908 Y50.234 Z-5.540 F420.000
G1 X-73.975 Y50.442 Z-5.540 F420.000
G1 X-74.082 Y50.632 Z-5.540 F420.000
G1 X-74.223 Y50.799 Z-5.540 F420.000
G1 X-74.395 Y50.934 Z-5.540 F420.000
G1 X-74.589 Y51.033 Z-5.540 F420.000
G1 X-74.799 Y51.093 Z-5.540 F420.000
G1 X-75.017 Y51.110 Z-5.540 F420.000
G1 X-75.234 Y51.085 Z-5.540 F420.000
G1 X-75.442 Y51.017 Z-5.540 F420.000
G1 X-75.632 Y50.911 Z-5.540 F420.000
G1 X-75.799 Y50.769 Z-5.540 F420.000
G1 X-75.934 Y50.598 Z-5.540 F420.000
G1 X-76.033 Y50.403 Z-5.540 F420.000
G1 X-76.093 Y50.193 Z-5.540 F420.000
G1 X-76.110 Y49.976 Z-5.540 F420.000
G1 X-76.085 Y49.759 Z-5.540 F420.000
G1 X-76.017 Y49.551 Z-5.540 F420.000
G1 X-75.911 Y49.360 Z-5.540 F420.000
G1 X-75.769 Y49.194 Z-5.540 F420.000
G1 X-75.598 Y49.059 Z-5.540 F420.000
G1 X-75.403 Y48.959 Z-5.540 F420.000
(Adaptive - depth: -5.540000)
G1 X-74.996 Y48.872 F420.000
G1 X-74.951 Y48.827 F420.000
G1 X-74.774 Y48.767 F420.000
G1 X-74.594 Y48.756 F420.000
G1 X-74.474 Y48.774 F420.000
G1 X-74.169 Y48.902 F420.000
G1 X-73.989 Y49.045 F420.000
G1 X-73.891 Y49.143 F420.000
G1 X-73.793 Y49.271 F420.000
G1 X-73.695 Y49.447 F420.000
G1 X-73.620 Y49.662 F420.000
G1 X-73.579 Y49.846 F420.000
G1 X-73.564 Y50.049 F420.000
G1 X-73.583 Y50.252 F420.000
G1 X-73.628 Y50.447 F420.000
G1 X-73.703 Y50.635 F420.000
G1 X-73.805 Y50.812 F420.000
G1 X-73.929 Y50.970 F420.000
G1 X-74.079 Y51.109 F420.000
G1 X-74.248 Y51.226 F420.000
G1 X-74.432 Y51.316 F420.000
G1 X-74.628 Y51.376 F420.000
G1 X-74.831 Y51.410 F420.000
G1 X-75.034 Y51.414 F420.000
G1 X-75.237 Y51.391 F420.000
G1 X-75.455 Y51.335 F420.000
G1 X-75.647 Y51.252 F420.000
G1 X-75.831 Y51.143 F420.000
G1 X-75.992 Y51.004 F420.000
G1 X-76.117 Y50.865 F420.000
G1 X-76.229 Y50.692 F420.000
G1 X-76.312 Y50.508 F420.000
G1 X-76.368 Y50.316 F420.000
G1 X-76.402 Y50.113 F420.000
G1 X-76.402 Y49.891 F420.000
G1 X-76.376 Y49.684 F420.000
G1 X-76.312 Y49.481 F420.000
G1 X-76.233 Y49.312 F420.000
G1 X-76.120 Y49.143 F420.000
G1 X-75.992 Y48.992 F420.000
G1 X-75.812 Y48.838 F420.000
G1 X-75.639 Y48.718 F420.000
G1 X-75.425 Y48.598 F420.000
G1 X-75.117 Y48.477 F420.000
G1 X-74.876 Y48.432 F420.000
G1 X-74.756 Y48.425 F420.000
G1 X-74.383 Y48.474 F420.000
G1 X-74.068 Y48.598 F420.000
G1 X-73.925 Y48.680 F420.000
G1 X-73.797 Y48.774 F420.000
G1 X-73.658 Y48.914 F420.000
G1 X-73.519 Y49.090 F420.000
G1 X-73.398 Y49.293 F420.000
G1 X-73.305 Y49.511 F420.000
G1 X-73.248 Y49.737 F420.000
G1 X-73.222 Y49.944 F420.000
G1 X-73.222 Y50.165 F420.000
G1 X-73.256 Y50.383 F420.000
G1 X-73.316 Y50.590 F420.000
G1 X-73.398 Y50.793 F420.000
G1 X-73.526 Y51.011 F420.000
G1 X-73.665 Y51.192 F420.000
G1 X-73.838 Y51.350 F420.000
G1 X-73.989 Y51.462 F420.000
G1 X-74.192 Y51.575 F420.000
G1 X-74.410 Y51.662 F420.000
G1 X-74.647 Y51.726 F420.000
G1 X-74.883 Y51.752 F420.000
G1 X-75.098 Y51.752 F420.000
G1 X-75.331 Y51.718 F420.000
G1 X-75.549 Y51.654 F420.000
G1 X-75.759 Y51.564 F420.000
G1 X-75.955 Y51.447 F420.000
G1 X-76.135 Y51.305 F420.000
G1 X-76.297 Y51.143 F420.000
G1 X-76.436 Y50.959 F420.000
G1 X-76.549 Y50.759 F420.000
G1 X-76.635 Y50.545 F420.000
G1 X-76.695 Y50.323 F420.000
G1 X-76.726 Y50.094 F420.000
G1 X-76.726 Y49.865 F420.000
G1 X-76.695 Y49.635 F420.000
G1 X-76.635 Y49.410 F420.000
G1 X-76.541 Y49.199 F420.000
G1 X-76.436 Y49.023 F420.000
G1 X-76.301 Y48.842 F420.000
G1 X-76.132 Y48.662 F420.000
G1 X-75.921 Y48.481 F420.000
G1 X-75.699 Y48.331 F420.000
G1 X-75.462 Y48.218 F420.000
G1 X-75.252 Y48.143 F420.000
G1 X-75.008 Y48.090 F420.000
G1 X-74.767 Y48.071 F420.000
G1 X-74.530 Y48.086 F420.000
G1 X-74.327 Y48.124 F420.000
G1 X-74.105 Y48.192 F420.000
G1 X-73.880 Y48.297 F420.000
G1 X-73.688 Y48.417 F420.000
G1 X-73.508 Y48.564 F420.000
G1 X-73.342 Y48.733 F420.000
G1 X-73.180 Y48.947 F420.000
G1 X-73.056 Y49.158 F420.000
G1 X-72.955 Y49.383 F420.000
G1 X-72.883 Y49.624 F420.000
G1 X-72.850 Y49.868 F420.000
G1 X-72.842 Y50.079 F420.000
G1 X-72.861 Y50.312 F420.000
G1 X-72.914 Y50.568 F420.000
G1 X-72.996 Y50.816 F420.000
G1 X-73.102 Y51.041 F420.000
G1 X-73.237 Y51.259 F420.000
G1 X-73.398 Y51.459 F420.000
G1 X-73.586 Y51.628 F420.000
G1 X-73.756 Y51.752 F420.000
G1 X-73.959 Y51.872 F420.000
G1 X-74.211 Y51.985 F420.000
G1 X-74.481 Y52.071 F420.000
G1 X-74.744 Y52.109 F420.000
G1 X-74.955 Y52.120 F420.000
G1 X-75.203 Y52.105 F420.000
G1 X-75.470 Y52.056 F420.000
G1 X-75.718 Y51.974 F420.000
G1 X-75.925 Y51.880 F420.000
G1 X-76.139 Y51.748 F420.000
G1 X-76.338 Y51.598 F420.000
G1 X-76.541 Y51.402 F420.000
G1 X-76.699 Y51.195 F420.000
G1 X-76.820 Y50.989 F420.000
G1 X-76.917 Y50.786 F420.000
G1 X-77.004 Y50.530 F420.000
G1 X-77.060 Y50.256 F420.000
G1 X-77.075 Y50.000 F420.000
G1 X-77.068 Y49.774 F420.000
G1 X-77.026 Y49.523 F420.000
G1 X-76.955 Y49.286 F420.000
G1 X-76.865 Y49.060 F420.000
G1 X-76.729 Y48.820 F420.000
G1 X-76.579 Y48.613 F420.000
G1 X-76.410 Y48.417 F420.000
G1 X-76.195 Y48.218 F420.000
G1 X-75.955 Y48.041 F420.000
G1 X-75.707 Y47.910 F420.000
G1 X-75.492 Y47.820 F420.000
G1 X-75.233 Y47.744 F420.000
G1 X-74.977 Y47.707 F420.000
G1 X-74.729 Y47.695 F420.000
G1 X-74.474 Y47.714 F420.000
G1 X-74.222 Y47.763 F420.000
G1 X-73.981 Y47.838 F420.000
G1 X-73.744 Y47.940 F420.000
G1 X-73.500 Y48.083 F420.000
G1 X-73.289 Y48.241 F420.000
G1 X-73.094 Y48.421 F420.000
G1 X-72.917 Y48.628 F420.000
G1 X-72.767 Y48.850 F420.000
G1 X-72.643 Y49.086 F420.000
G1 X-72.545 Y49.335 F420.000
G1 X-72.477 Y49.590 F420.000
G1 X-72.444 Y49.853 F420.000
G1 X-72.440 Y50.086 F420.000
G1 X-72.459 Y50.338 F420.000
G1 X-72.511 Y50.620 F420.000
G1 X-72.594 Y50.895 F420.000
G1 X-72.699 Y51.150 F420.000
G1 X-72.846 Y51.391 F420.000
G1 X-72.985 Y51.579 F420.000
G1 X-73.158 Y51.771 F420.000
G1 X-73.380 Y51.959 F420.000
G1 X-73.590 Y52.109 F420.000
G1 X-73.853 Y52.256 F420.000
G1 X-74.113 Y52.365 F420.000
G1 X-74.380 Y52.447 F420.000
G1 X-74.665 Y52.489 F420.000
G1 X-74.895 Y52.500 F420.000
G1 X-75.158 Y52.489 F420.000
G1 X-75.447 Y52.451 F420.000
G1 X-75.759 Y52.361 F420.000
G1 X-75.989 Y52.274 F420.000
G1 X-76.237 Y52.135 F420.000
G1 X-76.432 Y51.996 F420.000
G1 X-76.628 Y51.835 F420.000
G1 X-76.838 Y51.620 F420.000
G1 X-77.026 Y51.376 F420.000
G1 X-77.169 Y51.128 F420.000
G1 X-77.271 Y50.910 F420.000
G1 X-77.357 Y50.647 F420.000
G1 X-77.414 Y50.383 F420.000
G1 X-77.444 Y50.098 F420.000
G1 X-77.444 Y49.823 F420.000
G1 X-77.414 Y49.545 F420.000
G1 X-77.353 Y49.271 F420.000
G1 X-77.256 Y49.008 F420.000
G1 X-77.154 Y48.797 F420.000
G1 X-77.023 Y48.571 F420.000
G1 X-76.838 Y48.312 F420.000
G1 X-76.602 Y48.045 F420.000
G1 X-76.365 Y47.846 F420.000
G1 X-76.169 Y47.703 F420.000
G1 X-75.910 Y47.560 F420.000
G1 X-75.654 Y47.455 F420.000
G1 X-75.398 Y47.376 F420.000
G1 X-75.124 Y47.323 F420.000
G1 X-74.850 Y47.297 F420.000
G1 X-74.545 Y47.301 F420.000
G1 X-74.139 Y47.357 F420.000
G1 X-73.613 Y47.526 F420.000
G1 X-73.184 Y47.763 F420.000
G1 X-72.808 Y48.068 F420.000
G1 X-72.492 Y48.432 F420.000
G1 X-72.192 Y48.947 F420.000
G1 X-72.030 Y49.447 F420.000
G1 X-71.959 Y50.011 F420.000
G1 X-72.000 Y50.519 F420.000
G1 X-72.158 Y51.075 F420.000
G1 X-72.425 Y51.583 F420.000
G1 X-72.831 Y52.060 F420.000
G1 X-73.229 Y52.383 F420.000
G1 X-73.579 Y52.586 F420.000
G1 X-74.004 Y52.756 F420.000
G1 X-74.680 Y52.883 F420.000
G1 X-75.188 Y52.883 F420.000
G1 X-75.639 Y52.797 F420.000
G1 X-76.184 Y52.575 F420.000
G1 X-76.680 Y52.241 F420.000
G1 X-77.068 Y51.865 F420.000
G1 X-77.353 Y51.477 F420.000
G1 X-77.613 Y50.929 F420.000
G1 X-77.744 Y50.395 F420.000
G1 X-77.789 Y49.853 F420.000
G1 X-77.718 Y49.312 F420.000
G1 X-77.541 Y48.778 F420.000
G1 X-77.342 Y48.387 F420.000
G1 X-76.966 Y47.883 F420.000
G1 X-76.650 Y47.583 F420.000
G1 X-76.293 Y47.327 F420.000
G1 X-75.793 Y47.083 F420.000
G1 X-75.312 Y46.940 F420.000
G1 X-74.711 Y46.861 F420.000
G1 X-74.229 Y46.891 F420.000
G1 X-74.049 Y46.925 F420.000
G1 X-73.650 Y47.071 F420.000
G1 X-73.177 Y47.342 F420.000
G1 X-72.838 Y47.605 F420.000
G1 X-72.368 Y48.135 F420.000
G1 X-72.150 Y48.492 F420.000
G1 X-71.981 Y48.865 F420.000
G1 X-71.827 Y49.429 F420.000
G1 X-71.786 Y49.767 F420.000
G1 X-71.782 Y50.218 F420.000
G1 X-71.850 Y50.669 F420.000
G1 X-72.000 Y51.177 F420.000
G1 X-72.323 Y51.793 F420.000
G1 X-72.421 Y51.936 F420.000
G1 X-72.801 Y52.361 F420.000
G1 X-73.064 Y52.579 F420.000
G1 X-73.662 Y52.932 F420.000
G1 X-74.203 Y53.120 F420.000
G1 X-74.711 Y53.211 F420.000
G1 X-75.331 Y53.203 F420.000
G1 X-75.782 Y53.113 F420.000
G1 X-76.177 Y52.970 F420.000
G1 X-76.598 Y52.744 F420.000
G1 X-77.113 Y52.335 F420.000
G1 X-77.470 Y51.929 F420.000
G1 X-77.835 Y51.308 F420.000
G1 X-77.985 Y50.910 F420.000
G1 X-78.120 Y50.248 F420.000
G1 X-78.139 Y49.827 F420.000
G1 X-78.079 Y49.286 F420.000
G1 X-77.872 Y48.632 F420.000
G1 X-77.673 Y48.237 F420.000
G1 X-77.380 Y47.827 F420.000
G1 X-76.910 Y47.406 F420.000
G1 X-76.481 Y47.139 F420.000
G1 X-76.312 Y47.053 F420.000
G1 X-75.898 Y46.902 F420.000
G1 X-75.297 Y46.786 F420.000
G1 X-74.695 Y46.789 F420.000
G1 X-74.695 Y46.789 F420.000
G1 X-74.545 Y46.842 F420.000
G1 X-74.504 Y46.880 F420.000
G0 X-74.492 Y46.902
G0 X-74.504 Y47.011
G0 X-76.132 Y52.692
G1 X-76.147 Y52.737 F420.000
G1 X-76.192 Y52.861 F420.000
G1 X-76.237 Y52.891 F420.000
G1 X-76.323 Y52.902 F420.000
G1 X-76.447 Y52.872 F420.000
G1 X-76.447 Y52.872 F420.000
G1 X-76.605 Y52.789 F420.000
G1 X-76.996 Y52.526 F420.000
G1 X-77.308 Y52.244 F420.000
G1 X-77.620 Y51.876 F420.000
G1 X-77.846 Y51.515 F420.000
G1 X-77.974 Y51.237 F420.000
G1 X-78.079 Y50.951 F420.000
G1 X-78.169 Y50.590 F420.000
G1 X-78.214 Y50.229 F420.000
G1 X-78.211 Y49.688 F420.000
G1 X-78.120 Y49.207 F420.000
G1 X-77.959 Y48.729 F420.000
G1 X-77.726 Y48.278 F420.000
G1 X-77.726 Y48.278 F420.000
G1 X-77.707 Y48.267 F420.000
G0 X-77.688 Y48.267
G0 X-77.677 Y48.274
G1 X-77.673 Y48.286 F420.000
G1 X-77.695 Y48.297 F420.000
G1 X-77.722 Y48.278 F420.000
G1 X-77.729 Y48.241 F420.000
G1 X-77.729 Y48.241 F420.000
G1 X-77.508 Y47.936 F420.000
G1 X-77.387 Y47.797 F420.000
G1 X-77.128 Y47.549 F420.000
G1 X-76.940 Y47.395 F420.000
G1 X-76.609 Y47.173 F420.000
G1 X-76.406 Y47.068 F420.000
G1 X-75.944 Y46.887 F420.000
G1 X-75.812 Y46.850 F420.000
G1 X-75.402 Y46.771 F420.000
G1 X-75.109 Y46.748 F420.000
G1 X-74.944 Y46.748 F420.000
G1 X-74.677 Y46.763 F420.000
G1 X-74.278 Y46.831 F420.000
G1 X-74.150 Y46.861 F420.000
G1 X-73.771 Y46.992 F420.000
G1 X-73.594 Y47.068 F420.000
G1 X-73.305 Y47.226 F420.000
G1 X-73.154 Y47.323 F420.000
G1 X-72.816 Y47.594 F420.000
G1 X-72.564 Y47.850 F420.000
G1 X-72.346 Y48.124 F420.000
G1 X-72.226 Y48.301 F420.000
G1 X-72.139 Y48.455 F420.000
G1 X-71.944 Y48.880 F420.000
G1 X-71.853 Y49.192 F420.000
G1 X-71.782 Y49.523 F420.000
G1 X-71.767 Y49.647 F420.000
G1 X-71.748 Y50.075 F420.000
G1 X-71.759 Y50.222 F420.000
G1 X-71.823 Y50.669 F420.000
G1 X-71.925 Y51.041 F420.000
G1 X-71.974 Y51.180 F420.000
G1 X-72.229 Y51.699 F420.000
G1 X-72.297 Y51.808 F420.000
G1 X-72.410 Y51.962 F420.000
G1 X-72.695 Y52.289 F420.000
G1 X-72.801 Y52.395 F420.000
G1 X-73.086 Y52.624 F420.000
G1 X-73.451 Y52.857 F420.000
G1 X-73.556 Y52.914 F420.000
G1 X-73.782 Y53.011 F420.000
G1 X-74.090 Y53.120 F420.000
G1 X-74.455 Y53.207 F420.000
G1 X-74.831 Y53.244 F420.000
G1 X-75.030 Y53.252 F420.000
G1 X-75.233 Y53.244 F420.000
G1 X-75.545 Y53.195 F420.000
G1 X-75.820 Y53.139 F420.000
G1 X-76.169 Y53.026 F420.000
G1 X-76.462 Y52.895 F420.000
G1 X-76.647 Y52.797 F420.000
G1 X-77.094 Y52.485 F420.000
G1 X-77.368 Y52.214 F420.000
G1 X-77.511 Y52.056 F420.000
G1 X-77.643 Y51.891 F420.000
G1 X-77.865 Y51.530 F420.000
G1 X-77.996 Y51.259 F420.000
G1 X-78.079 Y51.041 F420.000
G1 X-78.199 Y50.568 F420.000
G1 X-78.241 Y50.226 F420.000
G1 X-78.252 Y49.940 F420.000
G1 X-78.233 Y49.639 F420.000
G1 X-78.188 Y49.380 F420.000
G1 X-78.109 Y49.068 F420.000
G1 X-78.045 Y48.880 F420.000
G1 X-77.947 Y48.632 F420.000
G1 X-77.842 Y48.429 F420.000
G1 X-77.729 Y48.241 F420.000
G1 X-77.729 Y48.241 F420.000
G0 Z15.000
(Helix to depth: -5.540000)
G0 Z15.000
G0 X-9.976 Y48.882 Z15.000
G0 X-9.976 Y48.882 Z3.000
G1 X-9.976 Y48.882 Z0.000 F420.000
G1 X-9.976 Y48.882 Z0.000 F420.000
G1 X-9.759 Y48.908 Z-0.019 F420.000
G1 X-9.551 Y48.975 Z-0.039 F420.000
G1 X-9.360 Y49.082 Z-0.058 F420.000
G1 X-9.194 Y49.223 Z-0.077 F420.000
G1 X-9.059 Y49.395 Z-0.097 F420.000
G1 X-8.959 Y49.589 Z-0.116 F420.000
G1 X-8.900 Y49.799 Z-0.135 F420.000
G1 X-8.882 Y50.017 Z-0.154 F420.000
G1 X-8.908 Y50.234 Z-0.174 F420.000
G1 X-8.975 Y50.442 Z-0.193 F420.000
G1 X-9.082 Y50.632 Z-0.212 F420.000
G1 X-9.223 Y50.799 Z-0.232 F420.000
G1 X-9.395 Y50.934 Z-0.251 F420.000
G1 X-9.589 Y51.033 Z-0.270 F420.000
G1 X-9.799 Y51.093 Z-0.290 F420.000
G1 X-10.017 Y51.110 Z-0.309 F420.000
G1 X-10.234 Y51.085 Z-0.328 F420.000
G1 X-10.442 Y51.017 Z-0.348 F420.000
G1 X-10.632 Y50.911 Z-0.367 F420.000
G1 X-10.799 Y50.769 Z-0.386 F420.000
G1 X-10.934 Y50.598 Z-0.405 F420.000
G1 X-11.033 Y50.403 Z-0.425 F420.000
G1 X-11.093 Y50.193 Z-0.444 F420.000
G1 X-11.110 Y49.976 Z-0.463 F420.000
G1 X-11.085 Y49.759 Z-0.483 F420.000
G1 X-11.017 Y49.551 Z-0.502 F420.000
G1 X-10.911 Y49.360 Z-0.521 F420.000
G1 X-10.769 Y49.194 Z-0.541 F420.000
G1 X-10.598 Y49.059 Z-0.560 F420.000
G1 X-10.403 Y48.959 Z-0.579 F420.000
G1 X-10.193 Y48.900 Z-0.599 F420.000
G1 X-9.976 Y48.882 Z-0.618 F420.000
G1 X-9.759 Y48.908 Z-0.637 F420.000
G1 X-9.551 Y48.975 Z-0.657 F420.000
G1 X-9.360 Y49.082 Z-0.676 F420.000
G1 X-9.194 Y49.223 Z-0.695 F420.000
G1 X-9.059 Y49.395 Z-0.714 F420.000
G1 X-8.959 Y49.589 Z-0.734 F420.000
G1 X-8.900 Y49.799 Z-0.753 F420.000
G1 X-8.882 Y50.017 Z-0.772 F420.000
G1 X-8.908 Y50.234 Z-0.792 F420.000
G1 X-8.975 Y50.442 Z-0.811 F420.000
G1 X-9.082 Y50.632 Z-0.830 F420.000
G1 X-9.223 Y50.799 Z-0.850 F420.000
G1 X-9.395 Y50.934 Z-0.869 F420.000
G1 X-9.589 Y51.033 Z-0.888 F420.000
G1 X-9.799 Y51.093 Z-0.908 F420.000
G1 X-10.017 Y51.110 Z-0.927 F420.000
G1 X-10.234 Y51.085 Z-0.946 F420.000
G1 X-10.442 Y51.017 Z-0.965 F420.000
G1 X-10.632 Y50.911 Z-0.985 F420.000
G1 X-10.799 Y50.769 Z-1.004 F420.000
G1 X-10.934 Y50.598 Z-1.023 F420.000
G1 X-11.033 Y50.403 Z-1.043 F420.000
G1 X-11.093 Y50.193 Z-1.062 F420.000
G1 X-11.110 Y49.976 Z-1.081 F420.000
G1 X-11.085 Y49.759 Z-1.101 F420.000
G1 X-11.017 Y49.551 Z-1.120 F420.000
G1 X-10.911 Y49.360 Z-1.139 F420.000
G1 X-10.769 Y49.194 Z-1.159 F420.000
G1 X-10.598 Y49.059 Z-1.178 F420.000
G1 X-10.403 Y48.959 Z-1.197 F420.000
G1 X-10.193 Y48.900 Z-1.216 F420.000
G1 X-9.976 Y48.882 Z-1.236 F420.000
G1 X-9.759 Y48.908 Z-1.255 F420.000
G1 X-9.551 Y48.975 Z-1.274 F420.000
G1 X-9.360 Y49.082 Z-1.294 F420.000
G1 X-9.194 Y49.223 Z-1.313 F420.000
G1 X-9.059 Y49.395 Z-1.332 F420.000
G1 X-8.959 Y49.589 Z-1.352 F420.000
G1 X-8.900 Y49.799 Z-1.371 F420.000
G1 X-8.882 Y50.017 Z-1.390 F420.000
G1 X-8.908 Y50.234 Z-1.410 F420.000
G1 X-8.975 Y50.442 Z-1.429 F420.000
G1 X-9.082 Y50.632 Z-1.448 F420.000
G1 X-9.223 Y50.799 Z-1.468 F420.000
G1 X-9.395 Y50.934 Z-1.487 F420.000
G1 X-9.589 Y51.033 Z-1.506 F420.000
G1 X-9.799 Y51.093 Z-1.525 F420.000
G1 X-10.017 Y51.110 Z-1.545 F420.000
G1 X-10.234 Y51.085 Z-1.564 F420.000
G1 X-10.442 Y51.017 Z-1.583 F420.000
G1 X-10.632 Y50.911 Z-1.603 F420.000
G1 X-10.799 Y50.769 Z-1.622 F420.000
G1 X-10.934 Y50.598 Z-1.641 F420.000
G1 X-11.033 Y50.403 Z-1.661 F420.000
G1 X-11.093 Y50.193 Z-1.680 F420.000
G1 X-11.110 Y49.976 Z-1.699 F420.000
G1 X-11.085 Y49.759 Z-1.719 F420.000
G1 X-11.017 Y49.551 Z-1.738 F420.000
G1 X-10.911 Y49.360 Z-1.757 F420.000
G1 X-10.769 Y49.194 Z-1.776 F420.000
G1 X-10.598 Y49.059 Z-1.796 F420.000
G1 X-10.403 Y48.959 Z-1.815 F420.000
G1 X-10.193 Y48.900 Z-1.834 F420.000
G1 X-9.976 Y48.882 Z-1.854 F420.000
G1 X-9.759 Y48.908 Z-1.873 F420.000
G1 X-9.551 Y48.975 Z-1.892 F420.000
G1 X-9.360 Y49.082 Z-1.912 F420.000
G1 X-9.194 Y49.223 Z-1.931 F420.000
G1 X-9.059 Y49.395 Z-1.950 F420.000
G1 X-8.959 Y49.589 Z-1.970 F420.000
G1 X-8.900 Y49.799 Z-1.989 F420.000
G1 X-8.882 Y50.017 Z-2.008 F420.000
G1 X-8.908 Y50.234 Z-2.027 F420.000
G1 X-8.975 Y50.442 Z-2.047 F420.000
G1 X-9.082 Y50.632 Z-2.066 F420.000
G1 X-9.223 Y50.799 Z-2.085 F420.000
G1 X-9.395 Y50.934 Z-2.105 F420.000
G1 X-9.589 Y51.033 Z-2.124 F420.000
G1 X-9.799 Y51.093 Z-2.143 F420.000
G1 X-10.017 Y51.110 Z-2.163 F420.000
G1 X-10.234 Y51.085 Z-2.182 F420.000
G1 X-10.442 Y51.017 Z-2.201 F420.000
G1 X-10.632 Y50.911 Z-2.221 F420.000
G1 X-10.799 Y50.769 Z-2.240 F420.000
G1 X-10.934 Y50.598 Z-2.259 F420.000
G1 X-11.033 Y50.403 Z-2.279 F420.000
G1 X-11.093 Y50.193 Z-2.298 F420.000
G1 X-11.110 Y49.976 Z-2.317 F420.000
G1 X-11.085 Y49.759 Z-2.336 F420.000
G1 X-11.017 Y49.551 Z-2.356 F420.000
G1 X-10.911 Y49.360 Z-2.375 F420.000
G1 X-10.769 Y49.194 Z-2.394 F420.000
G1 X-10.598 Y49.059 Z-2.414 F420.000
G1 X-10.403 Y48.959 Z-2.433 F420.000
G1 X-10.193 Y48.900 Z-2.452 F420.000
G1 X-9.976 Y48.882 Z-2.472 F420.000
G1 X-9.759 Y48.908 Z-2.491 F420.000
G1 X-9.551 Y48.975 Z-2.510 F420.000
G1 X-9.360 Y49.082 Z-2.530 F420.000
G1 X-9.194 Y49.223 Z-2.549 F420.000
G1 X-9.059 Y49.395 Z-2.568 F420.000
G1 X-8.959 Y49.589 Z-2.587 F420.000
G1 X-8.900 Y49.799 Z-2.607 F420.000
G1 X-8.882 Y50.017 Z-2.626 F420.000
G1 X-8.908 Y50.234 Z-2.645 F420.000
G1 X-8.975 Y50.442 Z-2.665 F420.000
G1 X-9.082 Y50.632 Z-2.684 F420.000
G1 X-9.223 Y50.799 Z-2.703 F420.000
G1 X-9.395 Y50.934 Z-2.723 F420.000
G1 X-9.589 Y51.033 Z-2.742 F420.000
G1 X-9.799 Y51.093 Z-2.761 F420.000
G1 X-10.017 Y51.110 Z-2.781 F420.000
G1 X-10.234 Y51.085 Z-2.800 F420.000
G1 X-10.442 Y51.017 Z-2.819 F420.000
G1 X-10.632 Y50.911 Z-2.838 F420.000
G1 X-10.799 Y50.769 Z-2.858 F420.000
G1 X-10.934 Y50.598 Z-2.877 F420.000
G1 X-11.033 Y50.403 Z-2.896 F420.000
G1 X-11.093 Y50.193 Z-2.916 F420.000
G1 X-11.110 Y49.976 Z-2.935 F420.000
G1 X-11.085 Y49.759 Z-2.954 F420.000
G1 X-11.017 Y49.551 Z-2.974 F420.000
G1 X-10.911 Y49.360 Z-2.993 F420.000
G1 X-10.769 Y49.194 Z-3.012 F420.000
G1 X-10.598 Y49.059 Z-3.032 F420.000
G1 X-10.403 Y48.959 Z-3.051 F420.000
G1 X-10.193 Y48.900 Z-3.070 F420.000
G1 X-9.976 Y48.882 Z-3.090 F420.000
G1 X-9.759 Y48.908 Z-3.109 F420.000
G1 X-9.551 Y48.975 Z-3.128 F420.000
G1 X-9.360 Y49.082 Z-3.147 F420.000
G1 X-9.194 Y49.223 Z-3.167 F420.000
G1 X-9.059 Y49.395 Z-3.186 F420.000
G1 X-8.959 Y49.589 Z-3.205 F420.000
G1 X-8.900 Y49.799 Z-3.225 F420.000
G1 X-8.882 Y50.017 Z-3.244 F420.000
G1 X-8.908 Y50.234 Z-3.263 F420.000
G1 X-8.975 Y50.442 Z-3.283 F420.000
G1 X-9.082 Y50.632 Z-3.302 F420.000
G1 X-9.223 Y50.799 Z-3.321 F420.000
G1 X-9.395 Y50.934 Z-3.341 F420.000
G1 X-9.589 Y51.033 Z-3.360 F420.000
G1 X-9.799 Y51.093 Z-3.379 F420.000
G1 X-10.017 Y51.110 Z-3.398 F420.000
G1 X-10.234 Y51.085 Z-3.418 F420.000
G1 X-10.442 Y51.017 Z-3.437 F420.000
G1 X-10.632 Y50.911 Z-3.456 F420.000
G1 X-10.799 Y50.769 Z-3.476 F420.000
G1 X-10.934 Y50.598 Z-3.495 F420.000
G1 X-11.033 Y50.403 Z-3.514 F420.000
G1 X-11.093 Y50.193 Z-3.534 F420.000
G1 X-11.110 Y49.976 Z-3.553 F420.000
G1 X-11.085 Y49.759 Z-3.572 F420.000
G1 X-11.017 Y49.551 Z-3.592 F420.000
G1 X-10.911 Y49.360 Z-3.611 F420.000
G1 X-10.769 Y49.194 Z-3.630 F420.000
G1 X-10.598 Y49.059 Z-3.649 F420.000
G1 X-10.403 Y48.959 Z-3.669 F420.000
G1 X-10.193 Y48.900 Z-3.688 F420.000
G1 X-9.976 Y48.882 Z-3.707 F420.000
G1 X-9.759 Y48.908 Z-3.727 F420.000
G1 X-9.551 Y48.975 Z-3.746 F420.000
G1 X-9.360 Y49.082 Z-3.765 F420.000
G1 X-9.194 Y49.223 Z-3.785 F420.000
G1 X-9.059 Y49.395 Z-3.804 F420.000
G1 X-8.959 Y49.589 Z-3.823 F420.000
G1 X-8.900 Y49.799 Z-3.843 F420.000
G1 X-8.882 Y50.017 Z-3.862 F420.000
G1 X-8.908 Y50.234 Z-3.881 F420.000
G1 X-8.975 Y50.442 Z-3.901 F420.000
G1 X-9.082 Y50.632 Z-3.920 F420.000
G1 X-9.223 Y50.799 Z-3.939 F420.000
G1 X-9.395 Y50.934 Z-3.958 F420.000
G1 X-9.589 Y51.033 Z-3.978 F420.000
G1 X-9.799 Y51.093 Z-3.997 F420.000
G1 X-10.017 Y51.110 Z-4.016 F420.000
G1 X-10.234 Y51.085 Z-4.036 F420.000
G1 X-10.442 Y51.017 Z-4.055 F420.000
G1 X-10.632 Y50.911 Z-4.074 F420.000
G1 X-10.799 Y50.769 Z-4.094 F420.000
G1 X-10.934 Y50.598 Z-4.113 F420.000
G1 X-11.033 Y50.403 Z-4.132 F420.000
G1 X-11.093 Y50.193 Z-4.152 F420.000
G1 X-11.110 Y49.976 Z-4.171 F420.000
G1 X-11.085 Y49.759 Z-4.190 F420.000
G1 X-11.017 Y49.551 Z-4.209 F420.000
G1 X-10.911 Y49.360 Z-4.229 F420.000
G1 X-10.769 Y49.194 Z-4.248 F420.000
G1 X-10.598 Y49.059 Z-4.267 F420.000
G1 X-10.403 Y48.959 Z-4.287 F420.000
G1 X-10.193 Y48.900 Z-4.306 F420.000
G1 X-9.976 Y48.882 Z-4.325 F420.000
G1 X-9.759 Y48.908 Z-4.345 F420.000
G1 X-9.551 Y48.975 Z-4.364 F420.000
G1 X-9.360 Y49.082 Z-4.383 F420.000
G1 X-9.194 Y49.223 Z-4.403 F420.000
G1 X-9.059 Y49.395 Z-4.422 F420.000
G1 X-8.959 Y49.589 Z-4.441 F420.000
G1 X-8.900 Y49.799 Z-4.460 F420.000
G1 X-8.882 Y50.017 Z-4.480 F420.000
G1 X-8.908 Y50.234 Z-4.499 F420.000
G1 X-8.975 Y50.442 Z-4.518 F420.000
G1 X-9.082 Y50.632 Z-4.538 F420.000
G1 X-9.223 Y50.799 Z-4.557 F420.000
G1 X-9.395 Y50.934 Z-4.576 F420.000
G1 X-9.589 Y51.033 Z-4.596 F420.000
G1 X-9.799 Y51.093 Z-4.615 F420.000
G1 X-10.017 Y51.110 Z-4.634 F420.000
G1 X-10.234 Y51.085 Z-4.654 F420.000
G1 X-10.442 Y51.017 Z-4.673 F420.000
G1 X-10.632 Y50.911 Z-4.692 F420.000
G1 X-10.799 Y50.769 Z-4.712 F420.000
G1 X-10.934 Y50.598 Z-4.731 F420.000
G1 X-11.033 Y50.403 Z-4.750 F420.000
G1 X-11.093 Y50.193 Z-4.769 F420.000
G1 X-11.110 Y49.976 Z-4.789 F420.000
G1 X-11.085 Y49.759 Z-4.808 F420.000
G1 X-11.017 Y49.551 Z-4.827 F420.000
G1 X-10.911 Y49.360 Z-4.847 F420.000
G1 X-10.769 Y49.194 Z-4.866 F420.000
G1 X-10.598 Y49.059 Z-4.885 F420.000
G1 X-10.403 Y48.959 Z-4.905 F420.000
G1 X-10.193 Y48.900 Z-4.924 F420.000
G1 X-9.976 Y48.882 Z-4.943 F420.000
G1 X-9.759 Y48.908 Z-4.963 F420.000
G1 X-9.551 Y48.975 Z-4.982 F420.000
G1 X-9.360 Y49.082 Z-5.001 F420.000
G1 X-9.194 Y49.223 Z-5.020 F420.000
G1 X-9.059 Y49.395 Z-5.040 F420.000
G1 X-8.959 Y49.589 Z-5.059 F420.000
G1 X-8.900 Y49.799 Z-5.078 F420.000
G1 X-8.882 Y50.017 Z-5.098 F420.000
G1 X-8.908 Y50.234 Z-5.117 F420.000
G1 X-8.975 Y50.442 Z-5.136 F420.000
G1 X-9.082 Y50.632 Z-5.156 F420.000
G1 X-9.223 Y50.799 Z-5.175 F420.000
G1 X-9.395 Y50.934 Z-5.194 F420.000
G1 X-9.589 Y51.033 Z-5.214 F420.000
G1 X-9.799 Y51.093 Z-5.233 F420.000
G1 X-10.017 Y51.110 Z-5.252 F420.000
G1 X-10.234 Y51.085 Z-5.271 F420.000
G1 X-10.442 Y51.017 Z-5.291 F420.000
G1 X-10.632 Y50.911 Z-5.310 F420.000
G1 X-10.799 Y50.769 Z-5.329 F420.000
G1 X-10.934 Y50.598 Z-5.349 F420.000
G1 X-11.033 Y50.403 Z-5.368 F420.000
G1 X-11.093 Y50.193 Z-5.387 F420.000
G1 X-11.110 Y49.976 Z-5.407 F420.000
G1 X-11.085 Y49.759 Z-5.426 F420.000
G1 X-11.017 Y49.551 Z-5.445 F420.000
G1 X-10.911 Y49.360 Z-5.465 F420.000
G1 X-10.769 Y49.194 Z-5.484 F420.000
G1 X-10.598 Y49.059 Z-5.503 F420.000
G1 X-10.403 Y48.959 Z-5.523 F420.000
G1 X-10.193 Y48.900 Z-5.540 F420.000
G1 X-9.976 Y48.882 Z-5.540 F420.000
G1 X-9.759 Y48.908 Z-5.540 F420.000
G1 X-9.551 Y48.975 Z-5.540 F420.000
G1 X-9.360 Y49.082 Z-5.540 F420.000
G1 X-9.194 Y49.223 Z-5.540 F420.000
G1 X-9.059 Y49.395 Z-5.540 F420.000
G1 X-8.959 Y49.589 Z-5.540 F420.000
G1 X-8.900 Y49.799 Z-5.540 F420.000
G1 X-8.882 Y50.017 Z-5.540 F420.000
G1 X-8.908 Y50.234 Z-5.540 F420.000
G1 X-8.975 Y50.442 Z-5.540 F420.000
G1 X-9.082 Y50.632 Z-5.540 F420.000
G1 X-9.223 Y50.799 Z-5.540 F420.000
G1 X-9.395 Y50.934 Z-5.540 F420.000
G1 X-9.589 Y51.033 Z-5.540 F420.000
G1 X-9.799 Y51.093 Z-5.540 F420.000
G1 X-10.017 Y51.110 Z-5.540 F420.000
G1 X-10.234 Y51.085 Z-5.540 F420.000
G1 X-10.442 Y51.017 Z-5.540 F420.000
G1 X-10.632 Y50.911 Z-5.540 F420.000
G1 X-10.799 Y50.769 Z-5.540 F420.000
G1 X-10.934 Y50.598 Z-5.540 F420.000
G1 X-11.033 Y50.403 Z-5.540 F420.000
G1 X-11.093 Y50.193 Z-5.540 F420.000
G1 X-11.110 Y49.976 Z-5.540 F420.000
G1 X-11.085 Y49.759 Z-5.540 F420.000
G1 X-11.017 Y49.551 Z-5.540 F420.000
G1 X-10.911 Y49.360 Z-5.540 F420.000
G1 X-10.769 Y49.194 Z-5.540 F420.000
G1 X-10.598 Y49.059 Z-5.540 F420.000
G1 X-10.403 Y48.959 Z-5.540 F420.000
(Adaptive - depth: -5.540000)
G1 X-9.996 Y48.872 F420.000
G1 X-9.951 Y48.827 F420.000
G1 X-9.835 Y48.782 F420.000
G1 X-9.654 Y48.759 F420.000
G1 X-9.474 Y48.778 F420.000
G1 X-9.169 Y48.902 F420.000
G1 X-8.981 Y49.041 F420.000
G1 X-8.876 Y49.147 F420.000
G1 X-8.782 Y49.271 F420.000
G1 X-8.692 Y49.440 F420.000
G1 X-8.620 Y49.632 F420.000
G1 X-8.579 Y49.835 F420.000
G1 X-8.568 Y50.034 F420.000
G1 X-8.586 Y50.237 F420.000
G1 X-8.635 Y50.436 F420.000
G1 X-8.711 Y50.624 F420.000
G1 X-8.812 Y50.801 F420.000
G1 X-8.940 Y50.959 F420.000
G1 X-9.090 Y51.098 F420.000
G1 X-9.259 Y51.214 F420.000
G1 X-9.444 Y51.305 F420.000
G1 X-9.639 Y51.368 F420.000
G1 X-9.842 Y51.402 F420.000
G1 X-10.045 Y51.410 F420.000
G1 X-10.263 Y51.383 F420.000
G1 X-10.466 Y51.331 F420.000
G1 X-10.662 Y51.244 F420.000
G1 X-10.823 Y51.143 F420.000
G1 X-10.977 Y51.011 F420.000
G1 X-11.113 Y50.861 F420.000
G1 X-11.229 Y50.680 F420.000
G1 X-11.320 Y50.492 F420.000
G1 X-11.376 Y50.293 F420.000
G1 X-11.402 Y50.098 F420.000
G1 X-11.402 Y49.895 F420.000
G1 X-11.368 Y49.692 F420.000
G1 X-11.312 Y49.496 F420.000
G1 X-11.218 Y49.297 F420.000
G1 X-11.105 Y49.120 F420.000
G1 X-10.970 Y48.962 F420.000
G1 X-10.808 Y48.823 F420.000
G1 X-10.632 Y48.707 F420.000
G1 X-10.444 Y48.605 F420.000
G1 X-10.132 Y48.489 F420.000
G1 X-9.831 Y48.432 F420.000
G1 X-9.771 Y48.429 F420.000
G1 X-9.398 Y48.466 F420.000
G1 X-9.056 Y48.598 F420.000
G1 X-8.917 Y48.680 F420.000
G1 X-8.797 Y48.771 F420.000
G1 X-8.658 Y48.902 F420.000
G1 X-8.500 Y49.098 F420.000
G1 X-8.387 Y49.301 F420.000
G1 X-8.308 Y49.481 F420.000
G1 X-8.252 Y49.699 F420.000
G1 X-8.226 Y49.914 F420.000
G1 X-8.226 Y50.139 F420.000
G1 X-8.256 Y50.361 F420.000
G1 X-8.316 Y50.575 F420.000
G1 X-8.402 Y50.782 F420.000
G1 X-8.519 Y50.974 F420.000
G1 X-8.654 Y51.150 F420.000
G1 X-8.827 Y51.323 F420.000
G1 X-9.011 Y51.462 F420.000
G1 X-9.214 Y51.571 F420.000
G1 X-9.410 Y51.650 F420.000
G1 X-9.624 Y51.711 F420.000
G1 X-9.865 Y51.744 F420.000
G1 X-10.109 Y51.748 F420.000
G1 X-10.346 Y51.711 F420.000
G1 X-10.545 Y51.654 F420.000
G1 X-10.756 Y51.564 F420.000
G1 X-10.947 Y51.455 F420.000
G1 X-11.143 Y51.305 F420.000
G1 X-11.308 Y51.139 F420.000
G1 X-11.451 Y50.955 F420.000
G1 X-11.564 Y50.744 F420.000
G1 X-11.639 Y50.560 F420.000
G1 X-11.692 Y50.342 F420.000
G1 X-11.722 Y50.124 F420.000
G1 X-11.722 Y49.876 F420.000
G1 X-11.692 Y49.647 F420.000
G1 X-11.632 Y49.421 F420.000
G1 X-11.541 Y49.199 F420.000
G1 X-11.425 Y48.992 F420.000
G1 X-11.286 Y48.805 F420.000
G1 X-11.120 Y48.635 F420.000
G1 X-10.936 Y48.489 F420.000
G1 X-10.741 Y48.357 F420.000
G1 X-10.496 Y48.233 F420.000
G1 X-10.226 Y48.143 F420.000
G1 X-10.000 Y48.098 F420.000
G1 X-9.774 Y48.079 F420.000
G1 X-9.530 Y48.090 F420.000
G1 X-9.301 Y48.132 F420.000
G1 X-9.075 Y48.199 F420.000
G1 X-8.857 Y48.297 F420.000
G1 X-8.658 Y48.421 F420.000
G1 X-8.477 Y48.568 F420.000
G1 X-8.316 Y48.737 F420.000
G1 X-8.177 Y48.925 F420.000
G1 X-8.064 Y49.128 F420.000
G1 X-7.974 Y49.342 F420.000
G1 X-7.898 Y49.590 F420.000
G1 X-7.857 Y49.853 F420.000
G1 X-7.853 Y50.102 F420.000
G1 X-7.872 Y50.320 F420.000
G1 X-7.925 Y50.556 F420.000
G1 X-7.996 Y50.778 F420.000
G1 X-8.117 Y51.026 F420.000
G1 X-8.248 Y51.237 F420.000
G1 X-8.414 Y51.429 F420.000
G1 X-8.571 Y51.586 F420.000
G1 X-8.789 Y51.748 F420.000
G1 X-9.008 Y51.872 F420.000
G1 X-9.233 Y51.970 F420.000
G1 X-9.477 Y52.041 F420.000
G1 X-9.726 Y52.083 F420.000
G1 X-9.974 Y52.102 F420.000
G1 X-10.248 Y52.086 F420.000
G1 X-10.500 Y52.034 F420.000
G1 X-10.711 Y51.966 F420.000
G1 X-10.940 Y51.865 F420.000
G1 X-11.177 Y51.718 F420.000
G1 X-11.372 Y51.568 F420.000
G1 X-11.553 Y51.380 F420.000
G1 X-11.692 Y51.199 F420.000
G1 X-11.820 Y50.992 F420.000
G1 X-11.932 Y50.752 F420.000
G1 X-12.019 Y50.492 F420.000
G1 X-12.064 Y50.237 F420.000
G1 X-12.079 Y50.011 F420.000
G1 X-12.064 Y49.763 F420.000
G1 X-12.026 Y49.519 F420.000
G1 X-11.951 Y49.252 F420.000
G1 X-11.853 Y49.015 F420.000
G1 X-11.729 Y48.789 F420.000
G1 X-11.568 Y48.579 F420.000
G1 X-11.410 Y48.410 F420.000
G1 X-11.226 Y48.241 F420.000
G1 X-10.985 Y48.068 F420.000
G1 X-10.726 Y47.921 F420.000
G1 X-10.466 Y47.816 F420.000
G1 X-10.229 Y47.752 F420.000
G1 X-9.996 Y47.711 F420.000
G1 X-9.722 Y47.695 F420.000
G1 X-9.440 Y47.714 F420.000
G1 X-9.180 Y47.759 F420.000
G1 X-8.921 Y47.846 F420.000
G1 X-8.714 Y47.940 F420.000
G1 X-8.496 Y48.071 F420.000
G1 X-8.297 Y48.222 F420.000
G1 X-8.098 Y48.414 F420.000
G1 X-7.932 Y48.613 F420.000
G1 X-7.789 Y48.827 F420.000
G1 X-7.669 Y49.064 F420.000
G1 X-7.579 Y49.308 F420.000
G1 X-7.508 Y49.560 F420.000
G1 X-7.462 Y49.868 F420.000
G1 X-7.459 Y50.143 F420.000
G1 X-7.477 Y50.383 F420.000
G1 X-7.534 Y50.650 F420.000
G1 X-7.617 Y50.898 F420.000
G1 X-7.722 Y51.132 F420.000
G1 X-7.853 Y51.361 F420.000
G1 X-8.030 Y51.598 F420.000
G1 X-8.214 Y51.797 F420.000
G1 X-8.421 Y51.977 F420.000
G1 X-8.650 Y52.135 F420.000
G1 X-8.895 Y52.259 F420.000
G1 X-9.120 Y52.346 F420.000
G1 X-9.376 Y52.417 F420.000
G1 X-9.658 Y52.470 F420.000
G1 X-9.962 Y52.492 F420.000
G1 X-10.248 Y52.470 F420.000
G1 X-10.481 Y52.432 F420.000
G1 X-10.744 Y52.361 F420.000
G1 X-11.015 Y52.248 F420.000
G1 X-11.248 Y52.124 F420.000
G1 X-11.477 Y51.966 F420.000
G1 X-11.688 Y51.786 F420.000
G1 X-11.876 Y51.586 F420.000
G1 X-12.041 Y51.368 F420.000
G1 X-12.180 Y51.132 F420.000
G1 X-12.293 Y50.880 F420.000
G1 X-12.380 Y50.617 F420.000
G1 X-12.436 Y50.346 F420.000
G1 X-12.455 Y50.071 F420.000
G1 X-12.455 Y49.838 F420.000
G1 X-12.417 Y49.549 F420.000
G1 X-12.361 Y49.289 F420.000
G1 X-12.259 Y48.985 F420.000
G1 X-12.128 Y48.726 F420.000
G1 X-12.000 Y48.515 F420.000
G1 X-11.823 Y48.289 F420.000
G1 X-11.635 Y48.090 F420.000
G1 X-11.406 Y47.883 F420.000
G1 X-11.143 Y47.695 F420.000
G1 X-10.880 Y47.553 F420.000
G1 X-10.643 Y47.451 F420.000
G1 X-10.365 Y47.365 F420.000
G1 X-10.090 Y47.312 F420.000
G1 X-9.816 Y47.289 F420.000
G1 X-9.293 Y47.320 F420.000
G1 X-8.756 Y47.459 F420.000
G1 X-8.320 Y47.669 F420.000
G1 X-7.925 Y47.955 F420.000
G1 X-7.590 Y48.301 F420.000
G1 X-7.323 Y48.699 F420.000
G1 X-7.098 Y49.244 F420.000
G1 X-6.985 Y49.808 F420.000
G1 X-6.985 Y50.316 F420.000
G1 X-7.094 Y50.823 F420.000
G1 X-7.289 Y51.305 F420.000
G1 X-7.635 Y51.827 F420.000
G1 X-7.910 Y52.117 F420.000
G1 X-8.429 Y52.485 F420.000
G1 X-9.008 Y52.729 F420.000
G1 X-9.402 Y52.827 F420.000
G1 X-9.853 Y52.876 F420.000
G1 X-10.192 Y52.868 F420.000
G1 X-10.756 Y52.756 F420.000
G1 X-11.195 Y52.571 F420.000
G1 X-11.695 Y52.241 F420.000
G1 X-11.876 Y52.083 F420.000
G1 X-12.233 Y51.677 F420.000
G1 X-12.455 Y51.316 F420.000
G1 X-12.684 Y50.748 F420.000
G1 X-12.786 Y50.207 F420.000
G1 X-12.789 Y49.726 F420.000
G1 X-12.695 Y49.184 F420.000
G1 X-12.496 Y48.658 F420.000
G1 X-12.278 Y48.278 F420.000
G1 X-11.921 Y47.838 F420.000
G1 X-11.500 Y47.470 F420.000
G1 X-11.068 Y47.207 F420.000
G1 X-10.665 Y47.034 F420.000
G1 X-10.124 Y46.898 F420.000
G1 X-9.703 Y46.853 F420.000
G1 X-9.282 Y46.883 F420.000
G1 X-9.041 Y46.929 F420.000
G1 X-8.695 Y47.049 F420.000
G1 X-8.372 Y47.218 F420.000
G1 X-7.831 Y47.613 F420.000
G1 X-7.511 Y47.955 F420.000
G1 X-7.263 Y48.289 F420.000
G1 X-6.977 Y48.872 F420.000
G1 X-6.816 Y49.492 F420.000
G1 X-6.778 Y50.113 F420.000
G1 X-6.782 Y50.226 F420.000
G1 X-6.838 Y50.620 F420.000
G1 X-6.981 Y51.128 F420.000
G1 X-7.233 Y51.654 F420.000
G1 X-7.504 Y52.030 F420.000
G1 X-7.816 Y52.372 F420.000
G1 X-8.090 Y52.594 F420.000
G1 X-8.741 Y52.970 F420.000
G1 X-9.124 Y53.102 F420.000
G1 X-9.744 Y53.214 F420.000
G1 X-10.308 Y53.203 F420.000
G1 X-10.816 Y53.102 F420.000
G1 X-11.154 Y52.977 F420.000
G1 X-11.575 Y52.759 F420.000
G1 X-12.053 Y52.402 F420.000
G1 X-12.489 Y51.902 F420.000
G1 X-12.748 Y51.496 F420.000
G1 X-12.947 Y51.053 F420.000
G1 X-13.109 Y50.391 F420.000
G1 X-13.147 Y49.789 F420.000
G1 X-13.064 Y49.188 F420.000
G1 X-12.868 Y48.598 F420.000
G1 X-12.699 Y48.259 F420.000
G1 X-12.523 Y47.996 F420.000
G1 X-12.132 Y47.586 F420.000
G1 X-11.936 Y47.425 F420.000
G1 X-11.620 Y47.214 F420.000
G1 X-11.226 Y47.019 F420.000
G1 X-10.992 Y46.929 F420.000
G1 X-10.451 Y46.805 F420.000
G1 X-10.271 Y46.782 F420.000
G1 X-9.910 Y46.774 F420.000
G1 X-9.910 Y46.774 F420.000
G1 X-9.759 Y46.823 F420.000
G1 X-9.714 Y46.861 F420.000
G0 X-9.703 Y46.887
G0 X-9.711 Y46.996
G0 X-11.143 Y52.692
G1 X-11.154 Y52.737 F420.000
G1 X-11.195 Y52.861 F420.000
G1 X-11.237 Y52.891 F420.000
G1 X-11.323 Y52.902 F420.000
G1 X-11.447 Y52.872 F420.000
G1 X-11.447 Y52.872 F420.000
G1 X-11.951 Y52.560 F420.000
G1 X-12.308 Y52.241 F420.000
G1 X-12.586 Y51.921 F420.000
G1 X-12.898 Y51.402 F420.000
G1 X-13.079 Y50.955 F420.000
G1 X-13.169 Y50.594 F420.000
G1 X-13.214 Y50.233 F420.000
G1 X-13.211 Y49.692 F420.000
G1 X-13.105 Y49.150 F420.000
G1 X-12.959 Y48.729 F420.000
G1 X-12.906 Y48.617 F420.000
G1 X-12.906 Y48.617 F420.000
G1 X-12.891 Y48.602 F420.000
G0 X-12.876 Y48.602
G0 X-12.853 Y48.628
G1 X-12.853 Y48.647 F420.000
G1 X-12.880 Y48.669 F420.000
G1 X-12.917 Y48.673 F420.000
G1 X-12.947 Y48.632 F420.000
G1 X-12.947 Y48.632 F420.000
G1 X-12.842 Y48.429 F420.000
G1 X-12.729 Y48.241 F420.000
G1 X-12.508 Y47.936 F420.000
G1 X-12.387 Y47.797 F420.000
G1 X-12.128 Y47.549 F420.000
G1 X-11.940 Y47.395 F420.000
G1 X-11.609 Y47.173 F420.000
G1 X-11.406 Y47.068 F420.000
G1 X-10.944 Y46.887 F420.000
G1 X-10.812 Y46.850 F420.000
G1 X-10.402 Y46.771 F420.000
G1 X-10.109 Y46.748 F420.000
G1 X-9.944 Y46.748 F420.000
G1 X-9.677 Y46.763 F420.000
G1 X-9.278 Y46.831 F420.000
G1 X-9.150 Y46.861 F420.000
G1 X-8.771 Y46.992 F420.000
G1 X-8.594 Y47.068 F420.000
G1 X-8.305 Y47.226 F420.000
G1 X-8.154 Y47.323 F420.000
G1 X-7.816 Y47.594 F420.000
G1 X-7.564 Y47.850 F420.000
G1 X-7.346 Y48.124 F420.000
G1 X-7.226 Y48.301 F420.000
G1 X-7.139 Y48.455 F420.000
G1 X-6.944 Y48.880 F420.000
G1 X-6.853 Y49.192 F420.000
G1 X-6.782 Y49.523 F420.000
G1 X-6.767 Y49.647 F420.000
G1 X-6.748 Y50.075 F420.000
G1 X-6.759 Y50.222 F420.000
G1 X-6.823 Y50.669 F420.000
G1 X-6.925 Y51.041 F420.000
G1 X-6.974 Y51.180 F420.000
G1 X-7.229 Y51.699 F420.000
G1 X-7.297 Y51.808 F420.000
G1 X-7.410 Y51.962 F420.000
G1 X-7.695 Y52.289 F420.000
G1 X-7.801 Y52.395 F420.000
G1 X-8.086 Y52.624 F420.000
G1 X-8.451 Y52.857 F420.000
G1 X-8.556 Y52.914 F420.000
G1 X-8.782 Y53.011 F420.000
G1 X-9.090 Y53.120 F420.000
G1 X-9.455 Y53.207 F420.000
G1 X-9.831 Y53.244 F420.000
G1 X-10.030 Y53.252 F420.000
G1 X-10.233 Y53.244 F420.000
G1 X-10.545 Y53.195 F420.000
G1 X-10.820 Y53.139 F420.000
G1 X-11.169 Y53.026 F420.000
G1 X-11.462 Y52.895 F420.000
G1 X-11.647 Y52.797 F420.000
G1 X-12.094 Y52.485 F420.000
G1 X-12.368 Y52.214 F420.000
G1 X-12.511 Y52.056 F420.000
G1 X-12.643 Y51.891 F420.000
G1 X-12.865 Y51.530 F420.000
G1 X-12.996 Y51.259 F420.000
G1 X-13.079 Y51.041 F420.000
G1 X-13.199 Y50.568 F420.000
G1 X-13.241 Y50.226 F420.000
G1 X-13.252 Y49.940 F420.000
G1 X-13.233 Y49.639 F420.000
G1 X-13.188 Y49.380 F420.000
G1 X-13.109 Y49.068 F420.000
G1 X-13.045 Y48.880 F420.000
G1 X-12.947 Y48.632 F420.000
G1 X-12.947 Y48.632 F420.000
G0 Z15.000
(Helix to depth: -5.540000)
G0 Z15.000
G0 X-94.976 Y28.882 Z15.000
G0 X-94.976 Y28.882 Z3.000
G1 X-94.976 Y28.882 Z0.000 F420.000
G1 X-94.976 Y28.882 Z0.000 F420.000
G1 X-94.759 Y28.908 Z-0.019 F420.000
G1 X-94.551 Y28.975 Z-0.039 F420.000
G1 X-94.360 Y29.082 Z-0.058 F420.000
G1 X-94.194 Y29.223 Z-0.077 F420.000
G1 X-94.059 Y29.395 Z-0.097 F420.000
G1 X-93.959 Y29.589 Z-0.116 F420.000
G1 X-93.900 Y29.799 Z-0.135 F420.000
G1 X-93.882 Y30.017 Z-0.154 F420.000
G1 X-93.908 Y30.234 Z-0.174 F420.000
G1 X-93.975 Y30.442 Z-0.193 F420.000
G1 X-94.082 Y30.632 Z-0.212 F420.000
G1 X-94.223 Y30.799 Z-0.232 F420.000
G1 X-94.395 Y30.934 Z-0.251 F420.000
G1 X-94.589 Y31.033 Z-0.270 F420.000
G1 X-94.799 Y31.093 Z-0.290 F420.000
G1 X-95.017 Y31.110 Z-0.309 F420.000
G1 X-95.234 Y31.085 Z-0.328 F420.000
G1 X-95.442 Y31.017 Z-0.348 F420.000
G1 X-95.632 Y30.911 Z-0.367 F420.000
G1 X-95.799 Y30.769 Z-0.386 F420.000
G1 X-95.934 Y30.598 Z-0.405 F420.000
G1 X-96.033 Y30.403 Z-0.425 F420.000
G1 X-96.093 Y30.193 Z-0.444 F420.000
G1 X-96.110 Y29.976 Z-0.463 F420.000
G1 X-96.085 Y29.759 Z-0.483 F420.000
G1 X-96.017 Y29.551 Z-0.502 F420.000
G1 X-95.911 Y29.360 Z-0.521 F420.000
G1 X-95.769 Y29.194 Z-0.541 F420.000
G1 X-95.598 Y29.059 Z-0.560 F420.000
G1 X-95.403 Y28.959 Z-0.579 F420.000
G1 X-95.193 Y28.900 Z-0.599 F420.000
G1 X-94.976 Y28.882 Z-0.618 F420.000
G1 X-94.759 Y28.908 Z-0.637 F420.000
G1 X-94.551 Y28.975 Z-0.657 F420.000
G1 X-94.360 Y29.082 Z-0.676 F420.000
G1 X-94.194 Y29.223 Z-0.695 F420.000
G1 X-94.059 Y29.395 Z-0.714 F420.000
G1 X-93.959 Y29.589 Z-0.734 F420.000
G1 X-93.900 Y29.799 Z-0.753 F420.000
G1 X-93.882 Y30.017 Z-0.772 F420.000
G1 X-93.908 Y30.234 Z-0.792 F420.000
G1 X-93.975 Y30.442 Z-0.811 F420.000
G1 X-94.082 Y30.632 Z-0.830 F420.000
G1 X-94.223 Y30.799 Z-0.850 F420.000
G1 X-94.395 Y30.934 Z-0.869 F420.000
G1 X-94.589 Y31.033 Z-0.888 F420.000
G1 X-94.799 Y31.093 Z-0.908 F420.000
G1 X-95.017 Y31.110 Z-0.927 F420.000
G1 X-95.234 Y31.085 Z-0.946 F420.000
G1 X-95.442 Y31.017 Z-0.965 F420.000
G1 X-95.632 Y30.911 Z-0.985 F420.000
G1 X-95.799 Y30.769 Z-1.004 F420.000
G1 X-95.934 Y30.598 Z-1.023 F420.000
G1 X-96.033 Y30.403 Z-1.043 F420.000
G1 X-96.093 Y30.193 Z-1.062 F420.000
G1 X-96.110 Y29.976 Z-1.081 F420.000
G1 X-96.085 Y29.759 Z-1.101 F420.000
G1 X-96.017 Y29.551 Z-1.120 F420.000
G1 X-95.911 Y29.360 Z-1.139 F420.000
G1 X-95.769 Y29.194 Z-1.159 F420.000
G1 X-95.598 Y29.059 Z-1.178 F420.000
G1 X-95.403 Y28.959 Z-1.197 F420.000
G1 X-95.193 Y28.900 Z-1.216 F420.000
G1 X-94.976 Y28.882 Z-1.236 F420.000
G1 X-94.759 Y28.908 Z-1.255 F420.000
G1 X-94.551 Y28.975 Z-1.274 F420.000
G1 X-94.360 Y29.082 Z-1.294 F420.000
G1 X-94.194 Y29.223 Z-1.313 F420.000
G1 X-94.059 Y29.395 Z-1.332 F420.000
G1 X-93.959 Y29.589 Z-1.352 F420.000
G1 X-93.900 Y29.799 Z-1.371 F420.000
G1 X-93.882 Y30.017 Z-1.390 F420.000
G1 X-93.908 Y30.234 Z-1.410 F420.000
G1 X-93.975 Y30.442 Z-1.429 F420.000
G1 X-94.082 Y30.632 Z-1.448 F420.000
G1 X-94.223 Y30.799 Z-1.468 F420.000
G1 X-94.395 Y30.934 Z-1.487 F420.000
G1 X-94.589 Y31.033 Z-1.506 F420.000
G1 X-94.799 Y31.093 Z-1.525 F420.000
G1 X-95.017 Y31.110 Z-1.545 F420.000
G1 X-95.234 Y31.085 Z-1.564 F420.000
G1 X-95.442 Y31.017 Z-1.583 F420.000
G1 X-95.632 Y30.911 Z-1.603 F420.000
G1 X-95.799 Y30.769 Z-1.622 F420.000
G1 X-95.934 Y30.598 Z-1.641 F420.000
G1 X-96.033 Y30.403 Z-1.661 F420.000
G1 X-96.093 Y30.193 Z-1.680 F420.000
G1 X-96.110 Y29.976 Z-1.699 F420.000
G1 X-96.085 Y29.759 Z-1.719 F420.000
G1 X-96.017 Y29.551 Z-1.738 F420.000
G1 X-95.911 Y29.360 Z-1.757 F420.000
G1 X-95.769 Y29.194 Z-1.776 F420.000
G1 X-95.598 Y29.059 Z-1.796 F420.000
G1 X-95.403 Y28.959 Z-1.815 F420.000
G1 X-95.193 Y28.900 Z-1.834 F420.000
G1 X-94.976 Y28.882 Z-1.854 F420.000
G1 X-94.759 Y28.908 Z-1.873 F420.000
G1 X-94.551 Y28.975 Z-1.892 F420.000
G1 X-94.360 Y29.082 Z-1.912 F420.000
G1 X-94.194 Y29.223 Z-1.931 F420.000
G1 X-94.059 Y29.395 Z-1.950 F420.000
G1 X-93.959 Y29.589 Z-1.970 F420.000
G1 X-93.900 Y29.799 Z-1.989 F420.000
G1 X-93.882 Y30.017 Z-2.008 F420.000
G1 X-93.908 Y30.234 Z-2.027 F420.000
G1 X-93.975 Y30.442 Z-2.047 F420.000
G1 X-94.082 Y30.632 Z-2.066 F420.000
G1 X-94.223 Y30.799 Z-2.085 F420.000
G1 X-94.395 Y30.934 Z-2.105 F420.000
G1 X-94.589 Y31.033 Z-2.124 F420.000
G1 X-94.799 Y31.093 Z-2.143 F420.000
G1 X-95.017 Y31.110 Z-2.163 F420.000
G1 X-95.234 Y31.085 Z-2.182 F420.000
G1 X-95.442 Y31.017 Z-2.201 F420.000
G1 X-95.632 Y30.911 Z-2.221 F420.000
G1 X-95.799 Y30.769 Z-2.240 F420.000
G1 X-95.934 Y30.598 Z-2.259 F420.000
G1 X-96.033 Y30.403 Z-2.279 F420.000
G1 X-96.093 Y30.193 Z-2.298 F420.000
G1 X-96.110 Y29.976 Z-2.317 F420.000
G1 X-96.085 Y29.759 Z-2.336 F420.000
G1 X-96.017 Y29.551 Z-2.356 F420.000
G1 X-95.911 Y29.360 Z-2.375 F420.000
G1 X-95.769 Y29.194 Z-2.394 F420.000
G1 X-95.598 Y29.059 Z-2.414 F420.000
G1 X-95.403 Y28.959 Z-2.433 F420.000
G1 X-95.193 Y28.900 Z-2.452 F420.000
G1 X-94.976 Y28.882 Z-2.472 F420.000
G1 X-94.759 Y28.908 Z-2.491 F420.000
G1 X-94.551 Y28.975 Z-2.510 F420.000
G1 X-94.360 Y29.082 Z-2.530 F420.000
G1 X-94.194 Y29.223 Z-2.549 F420.000
G1 X-94.059 Y29.395 Z-2.568 F420.000
G1 X-93.959 Y29.589 Z-2.587 F420.000
G1 X-93.900 Y29.799 Z-2.607 F420.000
G1 X-93.882 Y30.017 Z-2.626 F420.000
G1 X-93.908 Y30.234 Z-2.645 F420.000
G1 X-93.975 Y30.442 Z-2.665 F420.000
G1 X-94.082 Y30.632 Z-2.684 F420.000
G1 X-94.223 Y30.799 Z-2.703 F420.000
G1 X-94.395 Y30.934 Z-2.723 F420.000
G1 X-94.589 Y31.033 Z-2.742 F420.000
G1 X-94.799 Y31.093 Z-2.761 F420.000
G1 X-95.017 Y31.110 Z-2.781 F420.000
G1 X-95.234 Y31.085 Z-2.800 F420.000
G1 X-95.442 Y31.017 Z-2.819 F420.000
G1 X-95.632 Y30.911 Z-2.838 F420.000
G1 X-95.799 Y30.769 Z-2.858 F420.000
G1 X-95.934 Y30.598 Z-2.877 F420.000
G1 X-96.033 Y30.403 Z-2.896 F420.000
G1 X-96.093 Y30.193 Z-2.916 F420.000
G1 X-96.110 Y29.976 Z-2.935 F420.000
G1 X-96.085 Y29.759 Z-2.954 F420.000
G1 X-96.017 Y29.551 Z-2.974 F420.000
G1 X-95.911 Y29.360 Z-2.993 F420.000
G1 X-95.769 Y29.194 Z-3.012 F420.000
G1 X-95.598 Y29.059 Z-3.032 F420.000
G1 X-95.403 Y28.959 Z-3.051 F420.000
G1 X-95.193 Y28.900 Z-3.070 F420.000
G1 X-94.976 Y28.882 Z-3.090 F420.000
G1 X-94.759 Y28.908 Z-3.109 F420.000
G1 X-94.551 Y28.975 Z-3.128 F420.000
G1 X-94.360 Y29.082 Z-3.147 F420.000
G1 X-94.194 Y29.223 Z-3.167 F420.000
G1 X-94.059 Y29.395 Z-3.186 F420.000
G1 X-93.959 Y29.589 Z-3.205 F420.000
G1 X-93.900 Y29.799 Z-3.225 F420.000
G1 X-93.882 Y30.017 Z-3.244 F420.000
G1 X-93.908 Y30.234 Z-3.263 F420.000
G1 X-93.975 Y30.442 Z-3.283 F420.000
G1 X-94.082 Y30.632 Z-3.302 F420.000
G1 X-94.223 Y30.799 Z-3.321 F420.000
G1 X-94.395 Y30.934 Z-3.341 F420.000
G1 X-94.589 Y31.033 Z-3.360 F420.000
G1 X-94.799 Y31.093 Z-3.379 F420.000
G1 X-95.017 Y31.110 Z-3.398 F420.000
G1 X-95.234 Y31.085 Z-3.418 F420.000
G1 X-95.442 Y31.017 Z-3.437 F420.000
G1 X-95.632 Y30.911 Z-3.456 F420.000
G1 X-95.799 Y30.769 Z-3.476 F420.000
G1 X-95.934 Y30.598 Z-3.495 F420.000
G1 X-96.033 Y30.403 Z-3.514 F420.000
G1 X-96.093 Y30.193 Z-3.534 F420.000
G1 X-96.110 Y29.976 Z-3.553 F420.000
G1 X-96.085 Y29.759 Z-3.572 F420.000
G1 X-96.017 Y29.551 Z-3.592 F420.000
G1 X-95.911 Y29.360 Z-3.611 F420.000
G1 X-95.769 Y29.194 Z-3.630 F420.000
G1 X-95.598 Y29.059 Z-3.649 F420.000
G1 X-95.403 Y28.959 Z-3.669 F420.000
G1 X-95.193 Y28.900 Z-3.688 F420.000
G1 X-94.976 Y28.882 Z-3.707 F420.000
G1 X-94.759 Y28.908 Z-3.727 F420.000
G1 X-94.551 Y28.975 Z-3.746 F420.000
G1 X-94.360 Y29.082 Z-3.765 F420.000
G1 X-94.194 Y29.223 Z-3.785 F420.000
G1 X-94.059 Y29.395 Z-3.804 F420.000
G1 X-93.959 Y29.589 Z-3.823 F420.000
G1 X-93.900 Y29.799 Z-3.843 F420.000
G1 X-93.882 Y30.017 Z-3.862 F420.000
G1 X-93.908 Y30.234 Z-3.881 F420.000
G1 X-93.975 Y30.442 Z-3.901 F420.000
G1 X-94.082 Y30.632 Z-3.920 F420.000
G1 X-94.223 Y30.799 Z-3.939 F420.000
G1 X-94.395 Y30.934 Z-3.958 F420.000
G1 X-94.589 Y31.033 Z-3.978 F420.000
G1 X-94.799 Y31.093 Z-3.997 F420.000
G1 X-95.017 Y31.110 Z-4.016 F420.000
G1 X-95.234 Y31.085 Z-4.036 F420.000
G1 X-95.442 Y31.017 Z-4.055 F420.000
G1 X-95.632 Y30.911 Z-4.074 F420.000
G1 X-95.799 Y30.769 Z-4.094 F420.000
