(Exported by FreeCAD)
(Post Processor: grbl_post)
(Output Time:2024-01-30 00:29:06.342325)
(Begin preamble)
G17 G90
G21
(Block-name: Fixture)
(Block-expand: 0)
(Block-enable: 1)
(Begin operation: Fixture)
(Path: Fixture)
G54
(Finish operation: Fixture)
(Block-name: 3mm Endmill001)
(Block-expand: 0)
(Block-enable: 1)
(Begin operation: 3mm Endmill001)
(Path: 3mm Endmill001)
(3mm Endmill001)
(Begin toolchange)
( M6 T3 )
M3 S8000
(Finish operation: 3mm Endmill001)
(Block-name: Adaptive_OUTSIDE_CTBR)
(Block-expand: 0)
(Block-enable: 1)
(Begin operation: Adaptive_OUTSIDE_CTBR)
(Path: Adaptive_OUTSIDE_CTBR)
(Adaptive_OUTSIDE)
(Helix to depth: -3.000000)
G0 Z15.000
G0 X-9.267 Y69.154 Z15.000
G0 X-9.267 Y69.154 Z3.000
G1 X-9.267 Y69.154 Z0.000 F420.000
G1 X-9.267 Y69.154 Z0.000 F420.000
G1 X-9.116 Y69.313 Z-0.019 F420.000
G1 X-9.000 Y69.498 Z-0.039 F420.000
G1 X-8.922 Y69.701 Z-0.058 F420.000
G1 X-8.885 Y69.917 Z-0.077 F420.000
G1 X-8.891 Y70.135 Z-0.097 F420.000
G1 X-8.939 Y70.348 Z-0.116 F420.000
G1 X-9.028 Y70.547 Z-0.135 F420.000
G1 X-9.154 Y70.726 Z-0.154 F420.000
G1 X-9.313 Y70.876 Z-0.174 F420.000
G1 X-9.498 Y70.992 Z-0.193 F420.000
G1 X-9.701 Y71.071 Z-0.212 F420.000
G1 X-9.917 Y71.107 Z-0.232 F420.000
G1 X-10.135 Y71.102 Z-0.251 F420.000
G1 X-10.348 Y71.053 Z-0.270 F420.000
G1 X-10.547 Y70.964 Z-0.290 F420.000
G1 X-10.726 Y70.838 Z-0.309 F420.000
G1 X-10.876 Y70.680 Z-0.328 F420.000
G1 X-10.992 Y70.495 Z-0.348 F420.000
G1 X-11.071 Y70.291 Z-0.367 F420.000
G1 X-11.107 Y70.076 Z-0.386 F420.000
G1 X-11.102 Y69.857 Z-0.405 F420.000
G1 X-11.053 Y69.644 Z-0.425 F420.000
G1 X-10.964 Y69.445 Z-0.444 F420.000
G1 X-10.838 Y69.267 Z-0.463 F420.000
G1 X-10.680 Y69.116 Z-0.483 F420.000
G1 X-10.495 Y69.000 Z-0.502 F420.000
G1 X-10.291 Y68.922 Z-0.521 F420.000
G1 X-10.076 Y68.885 Z-0.541 F420.000
G1 X-9.857 Y68.891 Z-0.560 F420.000
G1 X-9.644 Y68.939 Z-0.579 F420.000
G1 X-9.445 Y69.028 Z-0.599 F420.000
G1 X-9.267 Y69.154 Z-0.618 F420.000
G1 X-9.116 Y69.313 Z-0.637 F420.000
G1 X-9.000 Y69.498 Z-0.657 F420.000
G1 X-8.922 Y69.701 Z-0.676 F420.000
G1 X-8.885 Y69.917 Z-0.695 F420.000
G1 X-8.891 Y70.135 Z-0.714 F420.000
G1 X-8.939 Y70.348 Z-0.734 F420.000
G1 X-9.028 Y70.547 Z-0.753 F420.000
G1 X-9.154 Y70.726 Z-0.772 F420.000
G1 X-9.313 Y70.876 Z-0.792 F420.000
G1 X-9.498 Y70.992 Z-0.811 F420.000
G1 X-9.701 Y71.071 Z-0.830 F420.000
G1 X-9.917 Y71.107 Z-0.850 F420.000
G1 X-10.135 Y71.102 Z-0.869 F420.000
G1 X-10.348 Y71.053 Z-0.888 F420.000
G1 X-10.547 Y70.964 Z-0.908 F420.000
G1 X-10.726 Y70.838 Z-0.927 F420.000
G1 X-10.876 Y70.680 Z-0.946 F420.000
G1 X-10.992 Y70.495 Z-0.965 F420.000
G1 X-11.071 Y70.291 Z-0.985 F420.000
G1 X-11.107 Y70.076 Z-1.004 F420.000
G1 X-11.102 Y69.857 Z-1.023 F420.000
G1 X-11.053 Y69.644 Z-1.043 F420.000
G1 X-10.964 Y69.445 Z-1.062 F420.000
G1 X-10.838 Y69.267 Z-1.081 F420.000
G1 X-10.680 Y69.116 Z-1.101 F420.000
G1 X-10.495 Y69.000 Z-1.120 F420.000
G1 X-10.291 Y68.922 Z-1.139 F420.000
G1 X-10.076 Y68.885 Z-1.159 F420.000
G1 X-9.857 Y68.891 Z-1.178 F420.000
G1 X-9.644 Y68.939 Z-1.197 F420.000
G1 X-9.445 Y69.028 Z-1.216 F420.000
G1 X-9.267 Y69.154 Z-1.236 F420.000
G1 X-9.116 Y69.313 Z-1.255 F420.000
G1 X-9.000 Y69.498 Z-1.274 F420.000
G1 X-8.922 Y69.701 Z-1.294 F420.000
G1 X-8.885 Y69.917 Z-1.313 F420.000
G1 X-8.891 Y70.135 Z-1.332 F420.000
G1 X-8.939 Y70.348 Z-1.352 F420.000
G1 X-9.028 Y70.547 Z-1.371 F420.000
G1 X-9.154 Y70.726 Z-1.390 F420.000
G1 X-9.313 Y70.876 Z-1.410 F420.000
G1 X-9.498 Y70.992 Z-1.429 F420.000
G1 X-9.701 Y71.071 Z-1.448 F420.000
G1 X-9.917 Y71.107 Z-1.468 F420.000
G1 X-10.135 Y71.102 Z-1.487 F420.000
G1 X-10.348 Y71.053 Z-1.506 F420.000
G1 X-10.547 Y70.964 Z-1.525 F420.000
G1 X-10.726 Y70.838 Z-1.545 F420.000
G1 X-10.876 Y70.680 Z-1.564 F420.000
G1 X-10.992 Y70.495 Z-1.583 F420.000
G1 X-11.071 Y70.291 Z-1.603 F420.000
G1 X-11.107 Y70.076 Z-1.622 F420.000
G1 X-11.102 Y69.857 Z-1.641 F420.000
G1 X-11.053 Y69.644 Z-1.661 F420.000
G1 X-10.964 Y69.445 Z-1.680 F420.000
G1 X-10.838 Y69.267 Z-1.699 F420.000
G1 X-10.680 Y69.116 Z-1.719 F420.000
G1 X-10.495 Y69.000 Z-1.738 F420.000
G1 X-10.291 Y68.922 Z-1.757 F420.000
G1 X-10.076 Y68.885 Z-1.776 F420.000
G1 X-9.857 Y68.891 Z-1.796 F420.000
G1 X-9.644 Y68.939 Z-1.815 F420.000
G1 X-9.445 Y69.028 Z-1.834 F420.000
G1 X-9.267 Y69.154 Z-1.854 F420.000
G1 X-9.116 Y69.313 Z-1.873 F420.000
G1 X-9.000 Y69.498 Z-1.892 F420.000
G1 X-8.922 Y69.701 Z-1.912 F420.000
G1 X-8.885 Y69.917 Z-1.931 F420.000
G1 X-8.891 Y70.135 Z-1.950 F420.000
G1 X-8.939 Y70.348 Z-1.970 F420.000
G1 X-9.028 Y70.547 Z-1.989 F420.000
G1 X-9.154 Y70.726 Z-2.008 F420.000
G1 X-9.313 Y70.876 Z-2.027 F420.000
G1 X-9.498 Y70.992 Z-2.047 F420.000
G1 X-9.701 Y71.071 Z-2.066 F420.000
G1 X-9.917 Y71.107 Z-2.085 F420.000
G1 X-10.135 Y71.102 Z-2.105 F420.000
G1 X-10.348 Y71.053 Z-2.124 F420.000
G1 X-10.547 Y70.964 Z-2.143 F420.000
G1 X-10.726 Y70.838 Z-2.163 F420.000
G1 X-10.876 Y70.680 Z-2.182 F420.000
G1 X-10.992 Y70.495 Z-2.201 F420.000
G1 X-11.071 Y70.291 Z-2.221 F420.000
G1 X-11.107 Y70.076 Z-2.240 F420.000
G1 X-11.102 Y69.857 Z-2.259 F420.000
G1 X-11.053 Y69.644 Z-2.279 F420.000
G1 X-10.964 Y69.445 Z-2.298 F420.000
G1 X-10.838 Y69.267 Z-2.317 F420.000
G1 X-10.680 Y69.116 Z-2.336 F420.000
G1 X-10.495 Y69.000 Z-2.356 F420.000
G1 X-10.291 Y68.922 Z-2.375 F420.000
G1 X-10.076 Y68.885 Z-2.394 F420.000
G1 X-9.857 Y68.891 Z-2.414 F420.000
G1 X-9.644 Y68.939 Z-2.433 F420.000
G1 X-9.445 Y69.028 Z-2.452 F420.000
G1 X-9.267 Y69.154 Z-2.472 F420.000
G1 X-9.116 Y69.313 Z-2.491 F420.000
G1 X-9.000 Y69.498 Z-2.510 F420.000
G1 X-8.922 Y69.701 Z-2.530 F420.000
G1 X-8.885 Y69.917 Z-2.549 F420.000
G1 X-8.891 Y70.135 Z-2.568 F420.000
G1 X-8.939 Y70.348 Z-2.587 F420.000
G1 X-9.028 Y70.547 Z-2.607 F420.000
G1 X-9.154 Y70.726 Z-2.626 F420.000
G1 X-9.313 Y70.876 Z-2.645 F420.000
G1 X-9.498 Y70.992 Z-2.665 F420.000
G1 X-9.701 Y71.071 Z-2.684 F420.000
G1 X-9.917 Y71.107 Z-2.703 F420.000
G1 X-10.135 Y71.102 Z-2.723 F420.000
G1 X-10.348 Y71.053 Z-2.742 F420.000
G1 X-10.547 Y70.964 Z-2.761 F420.000
G1 X-10.726 Y70.838 Z-2.781 F420.000
G1 X-10.876 Y70.680 Z-2.800 F420.000
G1 X-10.992 Y70.495 Z-2.819 F420.000
G1 X-11.071 Y70.291 Z-2.838 F420.000
G1 X-11.107 Y70.076 Z-2.858 F420.000
G1 X-11.102 Y69.857 Z-2.877 F420.000
G1 X-11.053 Y69.644 Z-2.896 F420.000
G1 X-10.964 Y69.445 Z-2.916 F420.000
G1 X-10.838 Y69.267 Z-2.935 F420.000
G1 X-10.680 Y69.116 Z-2.954 F420.000
G1 X-10.495 Y69.000 Z-2.974 F420.000
G1 X-10.291 Y68.922 Z-2.993 F420.000
G1 X-10.076 Y68.885 Z-3.000 F420.000
G1 X-9.857 Y68.891 Z-3.000 F420.000
G1 X-9.644 Y68.939 Z-3.000 F420.000
G1 X-9.445 Y69.028 Z-3.000 F420.000
G1 X-9.267 Y69.154 Z-3.000 F420.000
G1 X-9.116 Y69.313 Z-3.000 F420.000
G1 X-9.000 Y69.498 Z-3.000 F420.000
G1 X-8.922 Y69.701 Z-3.000 F420.000
G1 X-8.885 Y69.917 Z-3.000 F420.000
G1 X-8.891 Y70.135 Z-3.000 F420.000
G1 X-8.939 Y70.348 Z-3.000 F420.000
G1 X-9.028 Y70.547 Z-3.000 F420.000
G1 X-9.154 Y70.726 Z-3.000 F420.000
G1 X-9.313 Y70.876 Z-3.000 F420.000
G1 X-9.498 Y70.992 Z-3.000 F420.000
G1 X-9.701 Y71.071 Z-3.000 F420.000
G1 X-9.917 Y71.107 Z-3.000 F420.000
G1 X-10.135 Y71.102 Z-3.000 F420.000
G1 X-10.348 Y71.053 Z-3.000 F420.000
G1 X-10.547 Y70.964 Z-3.000 F420.000
G1 X-10.726 Y70.838 Z-3.000 F420.000
G1 X-10.876 Y70.680 Z-3.000 F420.000
G1 X-10.992 Y70.495 Z-3.000 F420.000
G1 X-11.071 Y70.291 Z-3.000 F420.000
G1 X-11.107 Y70.076 Z-3.000 F420.000
G1 X-11.102 Y69.857 Z-3.000 F420.000
G1 X-11.053 Y69.644 Z-3.000 F420.000
G1 X-10.964 Y69.445 Z-3.000 F420.000
G1 X-10.838 Y69.267 Z-3.000 F420.000
G1 X-10.680 Y69.116 Z-3.000 F420.000
G1 X-10.495 Y69.000 Z-3.000 F420.000
G1 X-10.291 Y68.922 Z-3.000 F420.000
(Adaptive - depth: -3.000000)
G1 X-9.996 Y68.872 F420.000
G1 X-9.951 Y68.827 F420.000
G1 X-9.774 Y68.767 F420.000
G1 X-9.594 Y68.756 F420.000
G1 X-9.474 Y68.774 F420.000
G1 X-9.169 Y68.902 F420.000
G1 X-8.989 Y69.045 F420.000
G1 X-8.891 Y69.143 F420.000
G1 X-8.793 Y69.271 F420.000
G1 X-8.695 Y69.447 F420.000
G1 X-8.620 Y69.662 F420.000
G1 X-8.579 Y69.846 F420.000
G1 X-8.564 Y70.049 F420.000
G1 X-8.583 Y70.256 F420.000
G1 X-8.635 Y70.451 F420.000
G1 X-8.707 Y70.620 F420.000
G1 X-8.805 Y70.793 F420.000
G1 X-8.947 Y70.970 F420.000
G1 X-9.094 Y71.105 F420.000
G1 X-9.263 Y71.226 F420.000
G1 X-9.451 Y71.320 F420.000
G1 X-9.650 Y71.380 F420.000
G1 X-9.838 Y71.410 F420.000
G1 X-10.038 Y71.417 F420.000
G1 X-10.259 Y71.387 F420.000
G1 X-10.459 Y71.335 F420.000
G1 X-10.650 Y71.252 F420.000
G1 X-10.835 Y71.139 F420.000
G1 X-10.992 Y71.000 F420.000
G1 X-11.120 Y70.857 F420.000
G1 X-11.229 Y70.684 F420.000
G1 X-11.312 Y70.496 F420.000
G1 X-11.372 Y70.305 F420.000
G1 X-11.402 Y70.083 F420.000
G1 X-11.402 Y69.876 F420.000
G1 X-11.368 Y69.669 F420.000
G1 X-11.312 Y69.489 F420.000
G1 X-11.226 Y69.308 F420.000
G1 X-11.117 Y69.139 F420.000
G1 X-10.966 Y68.970 F420.000
G1 X-10.808 Y68.835 F420.000
G1 X-10.632 Y68.714 F420.000
G1 X-10.421 Y68.598 F420.000
G1 X-10.109 Y68.477 F420.000
G1 X-9.868 Y68.432 F420.000
G1 X-9.808 Y68.429 F420.000
G1 X-9.436 Y68.462 F420.000
G1 X-9.117 Y68.575 F420.000
G1 X-8.966 Y68.658 F420.000
G1 X-8.835 Y68.748 F420.000
G1 X-8.688 Y68.883 F420.000
G1 X-8.541 Y69.056 F420.000
G1 X-8.414 Y69.259 F420.000
G1 X-8.323 Y69.459 F420.000
G1 X-8.256 Y69.677 F420.000
G1 X-8.226 Y69.902 F420.000
G1 X-8.222 Y70.105 F420.000
G1 X-8.248 Y70.323 F420.000
G1 X-8.301 Y70.534 F420.000
G1 X-8.387 Y70.748 F420.000
G1 X-8.496 Y70.944 F420.000
G1 X-8.628 Y71.124 F420.000
G1 X-8.801 Y71.305 F420.000
G1 X-8.981 Y71.451 F420.000
G1 X-9.184 Y71.568 F420.000
G1 X-9.372 Y71.647 F420.000
G1 X-9.586 Y71.711 F420.000
G1 X-9.823 Y71.748 F420.000
G1 X-10.060 Y71.752 F420.000
G1 X-10.293 Y71.722 F420.000
G1 X-10.500 Y71.669 F420.000
G1 X-10.714 Y71.590 F420.000
G1 X-10.932 Y71.470 F420.000
G1 X-11.117 Y71.335 F420.000
G1 X-11.282 Y71.165 F420.000
G1 X-11.406 Y71.004 F420.000
G1 X-11.519 Y70.812 F420.000
G1 X-11.609 Y70.613 F420.000
G1 X-11.684 Y70.357 F420.000
G1 X-11.722 Y70.124 F420.000
G1 X-11.722 Y69.887 F420.000
G1 X-11.699 Y69.684 F420.000
G1 X-11.643 Y69.466 F420.000
G1 X-11.564 Y69.259 F420.000
G1 X-11.444 Y69.045 F420.000
G1 X-11.308 Y68.857 F420.000
G1 X-11.154 Y68.684 F420.000
G1 X-10.955 Y68.508 F420.000
G1 X-10.737 Y68.361 F420.000
G1 X-10.515 Y68.244 F420.000
G1 X-10.271 Y68.158 F420.000
G1 X-10.053 Y68.105 F420.000
G1 X-9.812 Y68.079 F420.000
G1 X-9.571 Y68.086 F420.000
G1 X-9.342 Y68.128 F420.000
G1 X-9.135 Y68.192 F420.000
G1 X-8.925 Y68.282 F420.000
G1 X-8.703 Y68.410 F420.000
G1 X-8.500 Y68.564 F420.000
G1 X-8.331 Y68.741 F420.000
G1 X-8.199 Y68.910 F420.000
G1 X-8.079 Y69.113 F420.000
G1 X-7.985 Y69.320 F420.000
G1 X-7.910 Y69.568 F420.000
G1 X-7.868 Y69.805 F420.000
G1 X-7.857 Y70.045 F420.000
G1 X-7.876 Y70.289 F420.000
G1 X-7.917 Y70.526 F420.000
G1 X-7.996 Y70.782 F420.000
G1 X-8.102 Y71.011 F420.000
G1 X-8.237 Y71.226 F420.000
G1 X-8.380 Y71.402 F420.000
G1 X-8.553 Y71.571 F420.000
G1 X-8.741 Y71.722 F420.000
G1 X-8.981 Y71.868 F420.000
G1 X-9.211 Y71.974 F420.000
G1 X-9.455 Y72.056 F420.000
G1 X-9.714 Y72.102 F420.000
G1 X-9.940 Y72.117 F420.000
G1 X-10.188 Y72.105 F420.000
G1 X-10.432 Y72.060 F420.000
G1 X-10.665 Y71.989 F420.000
G1 X-10.895 Y71.895 F420.000
G1 X-11.139 Y71.756 F420.000
G1 X-11.338 Y71.598 F420.000
G1 X-11.496 Y71.444 F420.000
G1 X-11.654 Y71.244 F420.000
G1 X-11.786 Y71.041 F420.000
G1 X-11.914 Y70.793 F420.000
G1 X-12.000 Y70.523 F420.000
G1 X-12.045 Y70.297 F420.000
G1 X-12.064 Y70.071 F420.000
G1 X-12.060 Y69.827 F420.000
G1 X-12.019 Y69.538 F420.000
G1 X-11.955 Y69.293 F420.000
G1 X-11.853 Y69.053 F420.000
G1 X-11.744 Y68.857 F420.000
G1 X-11.605 Y68.654 F420.000
G1 X-11.417 Y68.432 F420.000
G1 X-11.199 Y68.226 F420.000
G1 X-10.974 Y68.064 F420.000
G1 X-10.767 Y67.944 F420.000
G1 X-10.519 Y67.838 F420.000
G1 X-10.267 Y67.767 F420.000
G1 X-10.015 Y67.722 F420.000
G1 X-9.756 Y67.707 F420.000
G1 X-9.500 Y67.722 F420.000
G1 X-9.248 Y67.767 F420.000
G1 X-8.996 Y67.835 F420.000
G1 X-8.726 Y67.944 F420.000
G1 X-8.496 Y68.083 F420.000
G1 X-8.316 Y68.214 F420.000
G1 X-8.128 Y68.387 F420.000
G1 X-7.947 Y68.594 F420.000
G1 X-7.669 Y69.019 F420.000
G1 X-7.534 Y69.342 F420.000
G1 X-7.425 Y69.850 F420.000
G1 X-7.425 Y70.301 F420.000
G1 X-7.500 Y70.695 F420.000
G1 X-7.620 Y71.019 F420.000
G1 X-7.786 Y71.323 F420.000
G1 X-8.071 Y71.684 F420.000
G1 X-8.462 Y72.026 F420.000
G1 X-8.658 Y72.154 F420.000
G1 X-8.970 Y72.301 F420.000
G1 X-9.477 Y72.440 F420.000
G1 X-9.959 Y72.489 F420.000
G1 X-10.440 Y72.436 F420.000
G1 X-10.797 Y72.342 F420.000
G1 X-11.075 Y72.222 F420.000
G1 X-11.271 Y72.109 F420.000
G1 X-11.455 Y71.974 F420.000
G1 X-11.643 Y71.812 F420.000
G1 X-11.861 Y71.586 F420.000
G1 X-12.068 Y71.316 F420.000
G1 X-12.207 Y71.056 F420.000
G1 X-12.293 Y70.842 F420.000
G1 X-12.361 Y70.620 F420.000
G1 X-12.414 Y70.342 F420.000
G1 X-12.440 Y70.045 F420.000
G1 X-12.436 Y69.748 F420.000
G1 X-12.387 Y69.455 F420.000
G1 X-12.331 Y69.226 F420.000
G1 X-12.233 Y68.970 F420.000
G1 X-12.117 Y68.729 F420.000
G1 X-11.951 Y68.470 F420.000
G1 X-11.741 Y68.203 F420.000
G1 X-11.361 Y67.872 F420.000
G1 X-11.049 Y67.662 F420.000
G1 X-10.594 Y67.451 F420.000
G1 X-10.053 Y67.316 F420.000
G1 X-9.632 Y67.289 F420.000
G1 X-9.271 Y67.320 F420.000
G1 X-8.793 Y67.444 F420.000
G1 X-8.402 Y67.617 F420.000
G1 X-8.000 Y67.887 F420.000
G1 X-7.695 Y68.173 F420.000
G1 X-7.402 Y68.553 F420.000
G1 X-7.229 Y68.921 F420.000
G1 X-7.086 Y69.429 F420.000
G1 X-7.034 Y69.767 F420.000
G1 X-7.041 Y70.274 F420.000
G1 X-7.105 Y70.669 F420.000
G1 X-7.188 Y70.951 F420.000
G1 X-7.398 Y71.429 F420.000
G1 X-7.722 Y71.906 F420.000
G1 X-8.086 Y72.263 F420.000
G1 X-8.417 Y72.492 F420.000
G1 X-8.887 Y72.711 F420.000
G1 X-9.395 Y72.838 F420.000
G1 X-10.015 Y72.880 F420.000
G1 X-10.523 Y72.812 F420.000
G1 X-11.079 Y72.620 F420.000
G1 X-11.586 Y72.316 F420.000
G1 X-11.989 Y71.962 F420.000
G1 X-12.320 Y71.538 F420.000
G1 X-12.519 Y71.162 F420.000
G1 X-12.707 Y70.571 F420.000
G1 X-12.767 Y70.211 F420.000
G1 X-12.767 Y69.669 F420.000
G1 X-12.680 Y69.188 F420.000
G1 X-12.455 Y68.605 F420.000
G1 X-12.071 Y68.030 F420.000
G1 X-11.722 Y67.673 F420.000
G1 X-11.316 Y67.376 F420.000
G1 X-11.041 Y67.229 F420.000
G1 X-10.872 Y67.162 F420.000
G1 X-10.571 Y67.079 F420.000
G1 X-10.211 Y67.030 F420.000
G1 X-9.669 Y67.045 F420.000
G1 X-9.248 Y67.124 F420.000
G1 X-8.947 Y67.214 F420.000
G1 X-8.455 Y67.462 F420.000
G1 X-8.158 Y67.665 F420.000
G1 X-8.068 Y67.744 F420.000
G1 X-8.068 Y67.744 F420.000
G1 X-7.981 Y67.868 F420.000
G1 X-7.966 Y67.929 F420.000
G0 X-7.962 Y67.959
G0 X-8.538 Y72.305
G1 X-8.541 Y72.346 F420.000
G1 X-8.575 Y72.504 F420.000
G1 X-8.643 Y72.613 F420.000
G1 X-8.748 Y72.695 F420.000
G1 X-8.748 Y72.695 F420.000
G1 X-8.959 Y72.789 F420.000
G1 X-9.466 Y72.925 F420.000
G1 X-9.748 Y72.959 F420.000
G1 X-10.312 Y72.951 F420.000
G1 X-10.763 Y72.865 F420.000
G1 X-11.045 Y72.782 F420.000
G1 X-11.523 Y72.545 F420.000
G1 X-11.951 Y72.233 F420.000
G1 X-12.169 Y72.026 F420.000
G1 X-12.538 Y71.549 F420.000
G1 X-12.707 Y71.229 F420.000
G1 X-12.816 Y70.947 F420.000
G1 X-12.914 Y70.590 F420.000
G1 X-12.966 Y70.229 F420.000
G1 X-12.966 Y69.808 F420.000
G1 X-12.876 Y69.267 F420.000
G1 X-12.711 Y68.789 F420.000
G1 X-12.538 Y68.451 F420.000
G1 X-12.278 Y68.090 F420.000
G1 X-12.064 Y67.865 F420.000
G1 X-11.774 Y67.620 F420.000
G1 X-11.515 Y67.444 F420.000
G1 X-11.515 Y67.444 F420.000
G1 X-11.391 Y67.398 F420.000
G1 X-11.297 Y67.395 F420.000
G0 X-11.267 Y67.395
G0 X-8.053 Y67.981
G1 X-8.011 Y67.989 F420.000
G1 X-7.774 Y68.045 F420.000
G1 X-7.647 Y68.132 F420.000
G1 X-7.647 Y68.132 F420.000
G1 X-7.387 Y68.523 F420.000
G1 X-7.282 Y68.726 F420.000
G1 X-7.154 Y69.045 F420.000
G1 X-7.079 Y69.305 F420.000
G1 X-7.015 Y69.688 F420.000
G1 X-7.004 Y69.865 F420.000
G1 X-7.019 Y70.312 F420.000
G1 X-7.038 Y70.462 F420.000
G1 X-7.105 Y70.774 F420.000
G1 X-7.241 Y71.162 F420.000
G1 X-7.372 Y71.447 F420.000
G1 X-7.451 Y71.583 F420.000
G1 X-7.654 Y71.868 F420.000
G1 X-7.820 Y72.056 F420.000
G1 X-8.008 Y72.237 F420.000
G1 X-8.188 Y72.383 F420.000
G1 X-8.451 Y72.568 F420.000
G1 X-8.774 Y72.741 F420.000
G1 X-8.910 Y72.801 F420.000
G1 X-9.113 Y72.865 F420.000
G1 X-9.477 Y72.951 F420.000
G1 X-9.718 Y72.985 F420.000
G1 X-10.045 Y72.996 F420.000
G1 X-10.263 Y72.981 F420.000
G1 X-10.639 Y72.921 F420.000
G1 X-11.075 Y72.797 F420.000
G1 X-11.226 Y72.729 F420.000
G1 X-11.590 Y72.534 F420.000
G1 X-11.898 Y72.316 F420.000
G1 X-12.150 Y72.090 F420.000
G1 X-12.305 Y71.917 F420.000
G1 X-12.545 Y71.586 F420.000
G1 X-12.635 Y71.429 F420.000
G1 X-12.756 Y71.177 F420.000
G1 X-12.835 Y70.974 F420.000
G1 X-12.925 Y70.658 F420.000
G1 X-12.974 Y70.383 F420.000
G1 X-13.000 Y70.064 F420.000
G1 X-12.996 Y69.853 F420.000
G1 X-12.966 Y69.602 F420.000
G1 X-12.914 Y69.305 F420.000
G1 X-12.797 Y68.936 F420.000
G1 X-12.737 Y68.786 F420.000
G1 X-12.594 Y68.492 F420.000
G1 X-12.342 Y68.128 F420.000
G1 X-12.184 Y67.947 F420.000
G1 X-11.914 Y67.695 F420.000
G1 X-11.598 Y67.462 F420.000
G1 X-11.327 Y67.308 F420.000
G1 X-11.162 Y67.229 F420.000
G1 X-11.019 Y67.173 F420.000
G1 X-10.534 Y67.045 F420.000
G1 X-10.222 Y67.008 F420.000
G1 X-10.068 Y67.000 F420.000
G1 X-9.707 Y67.015 F420.000
G1 X-9.372 Y67.068 F420.000
G1 X-8.925 Y67.195 F420.000
G1 X-8.752 Y67.271 F420.000
G1 X-8.429 Y67.447 F420.000
G1 X-8.117 Y67.665 F420.000
G1 X-7.868 Y67.887 F420.000
G1 X-7.647 Y68.132 F420.000
G1 X-7.647 Y68.132 F420.000
G0 Z15.000
(Helix to depth: -3.000000)
G0 Z15.000
G0 X-69.267 Y69.154 Z15.000
G0 X-69.267 Y69.154 Z3.000
G1 X-69.267 Y69.154 Z0.000 F420.000
G1 X-69.267 Y69.154 Z0.000 F420.000
G1 X-69.116 Y69.313 Z-0.019 F420.000
G1 X-69.000 Y69.498 Z-0.039 F420.000
G1 X-68.922 Y69.701 Z-0.058 F420.000
G1 X-68.885 Y69.917 Z-0.077 F420.000
G1 X-68.891 Y70.135 Z-0.097 F420.000
G1 X-68.939 Y70.348 Z-0.116 F420.000
G1 X-69.028 Y70.547 Z-0.135 F420.000
G1 X-69.154 Y70.726 Z-0.154 F420.000
G1 X-69.313 Y70.876 Z-0.174 F420.000
G1 X-69.498 Y70.992 Z-0.193 F420.000
G1 X-69.701 Y71.071 Z-0.212 F420.000
G1 X-69.917 Y71.107 Z-0.232 F420.000
G1 X-70.135 Y71.102 Z-0.251 F420.000
G1 X-70.348 Y71.053 Z-0.270 F420.000
G1 X-70.547 Y70.964 Z-0.290 F420.000
G1 X-70.726 Y70.838 Z-0.309 F420.000
G1 X-70.876 Y70.680 Z-0.328 F420.000
G1 X-70.992 Y70.495 Z-0.348 F420.000
G1 X-71.071 Y70.291 Z-0.367 F420.000
G1 X-71.107 Y70.076 Z-0.386 F420.000
G1 X-71.102 Y69.857 Z-0.405 F420.000
G1 X-71.053 Y69.644 Z-0.425 F420.000
G1 X-70.964 Y69.445 Z-0.444 F420.000
G1 X-70.838 Y69.267 Z-0.463 F420.000
G1 X-70.680 Y69.116 Z-0.483 F420.000
G1 X-70.495 Y69.000 Z-0.502 F420.000
G1 X-70.291 Y68.922 Z-0.521 F420.000
G1 X-70.076 Y68.885 Z-0.541 F420.000
G1 X-69.857 Y68.891 Z-0.560 F420.000
G1 X-69.644 Y68.939 Z-0.579 F420.000
G1 X-69.445 Y69.028 Z-0.599 F420.000
G1 X-69.267 Y69.154 Z-0.618 F420.000
G1 X-69.116 Y69.313 Z-0.637 F420.000
G1 X-69.000 Y69.498 Z-0.657 F420.000
G1 X-68.922 Y69.701 Z-0.676 F420.000
G1 X-68.885 Y69.917 Z-0.695 F420.000
G1 X-68.891 Y70.135 Z-0.714 F420.000
G1 X-68.939 Y70.348 Z-0.734 F420.000
G1 X-69.028 Y70.547 Z-0.753 F420.000
G1 X-69.154 Y70.726 Z-0.772 F420.000
G1 X-69.313 Y70.876 Z-0.792 F420.000
G1 X-69.498 Y70.992 Z-0.811 F420.000
G1 X-69.701 Y71.071 Z-0.830 F420.000
G1 X-69.917 Y71.107 Z-0.850 F420.000
G1 X-70.135 Y71.102 Z-0.869 F420.000
G1 X-70.348 Y71.053 Z-0.888 F420.000
G1 X-70.547 Y70.964 Z-0.908 F420.000
G1 X-70.726 Y70.838 Z-0.927 F420.000
G1 X-70.876 Y70.680 Z-0.946 F420.000
G1 X-70.992 Y70.495 Z-0.965 F420.000
G1 X-71.071 Y70.291 Z-0.985 F420.000
G1 X-71.107 Y70.076 Z-1.004 F420.000
G1 X-71.102 Y69.857 Z-1.023 F420.000
G1 X-71.053 Y69.644 Z-1.043 F420.000
G1 X-70.964 Y69.445 Z-1.062 F420.000
G1 X-70.838 Y69.267 Z-1.081 F420.000
G1 X-70.680 Y69.116 Z-1.101 F420.000
G1 X-70.495 Y69.000 Z-1.120 F420.000
G1 X-70.291 Y68.922 Z-1.139 F420.000
G1 X-70.076 Y68.885 Z-1.159 F420.000
G1 X-69.857 Y68.891 Z-1.178 F420.000
G1 X-69.644 Y68.939 Z-1.197 F420.000
G1 X-69.445 Y69.028 Z-1.216 F420.000
G1 X-69.267 Y69.154 Z-1.236 F420.000
G1 X-69.116 Y69.313 Z-1.255 F420.000
G1 X-69.000 Y69.498 Z-1.274 F420.000
G1 X-68.922 Y69.701 Z-1.294 F420.000
G1 X-68.885 Y69.917 Z-1.313 F420.000
G1 X-68.891 Y70.135 Z-1.332 F420.000
G1 X-68.939 Y70.348 Z-1.352 F420.000
G1 X-69.028 Y70.547 Z-1.371 F420.000
G1 X-69.154 Y70.726 Z-1.390 F420.000
G1 X-69.313 Y70.876 Z-1.410 F420.000
G1 X-69.498 Y70.992 Z-1.429 F420.000
G1 X-69.701 Y71.071 Z-1.448 F420.000
G1 X-69.917 Y71.107 Z-1.468 F420.000
G1 X-70.135 Y71.102 Z-1.487 F420.000
G1 X-70.348 Y71.053 Z-1.506 F420.000
G1 X-70.547 Y70.964 Z-1.525 F420.000
G1 X-70.726 Y70.838 Z-1.545 F420.000
G1 X-70.876 Y70.680 Z-1.564 F420.000
G1 X-70.992 Y70.495 Z-1.583 F420.000
G1 X-71.071 Y70.291 Z-1.603 F420.000
G1 X-71.107 Y70.076 Z-1.622 F420.000
G1 X-71.102 Y69.857 Z-1.641 F420.000
G1 X-71.053 Y69.644 Z-1.661 F420.000
G1 X-70.964 Y69.445 Z-1.680 F420.000
G1 X-70.838 Y69.267 Z-1.699 F420.000
G1 X-70.680 Y69.116 Z-1.719 F420.000
G1 X-70.495 Y69.000 Z-1.738 F420.000
G1 X-70.291 Y68.922 Z-1.757 F420.000
G1 X-70.076 Y68.885 Z-1.776 F420.000
G1 X-69.857 Y68.891 Z-1.796 F420.000
G1 X-69.644 Y68.939 Z-1.815 F420.000
G1 X-69.445 Y69.028 Z-1.834 F420.000
G1 X-69.267 Y69.154 Z-1.854 F420.000
G1 X-69.116 Y69.313 Z-1.873 F420.000
G1 X-69.000 Y69.498 Z-1.892 F420.000
G1 X-68.922 Y69.701 Z-1.912 F420.000
G1 X-68.885 Y69.917 Z-1.931 F420.000
G1 X-68.891 Y70.135 Z-1.950 F420.000
G1 X-68.939 Y70.348 Z-1.970 F420.000
G1 X-69.028 Y70.547 Z-1.989 F420.000
G1 X-69.154 Y70.726 Z-2.008 F420.000
G1 X-69.313 Y70.876 Z-2.027 F420.000
G1 X-69.498 Y70.992 Z-2.047 F420.000
G1 X-69.701 Y71.071 Z-2.066 F420.000
G1 X-69.917 Y71.107 Z-2.085 F420.000
G1 X-70.135 Y71.102 Z-2.105 F420.000
G1 X-70.348 Y71.053 Z-2.124 F420.000
G1 X-70.547 Y70.964 Z-2.143 F420.000
G1 X-70.726 Y70.838 Z-2.163 F420.000
G1 X-70.876 Y70.680 Z-2.182 F420.000
G1 X-70.992 Y70.495 Z-2.201 F420.000
G1 X-71.071 Y70.291 Z-2.221 F420.000
G1 X-71.107 Y70.076 Z-2.240 F420.000
G1 X-71.102 Y69.857 Z-2.259 F420.000
G1 X-71.053 Y69.644 Z-2.279 F420.000
G1 X-70.964 Y69.445 Z-2.298 F420.000
G1 X-70.838 Y69.267 Z-2.317 F420.000
G1 X-70.680 Y69.116 Z-2.336 F420.000
G1 X-70.495 Y69.000 Z-2.356 F420.000
G1 X-70.291 Y68.922 Z-2.375 F420.000
G1 X-70.076 Y68.885 Z-2.394 F420.000
G1 X-69.857 Y68.891 Z-2.414 F420.000
G1 X-69.644 Y68.939 Z-2.433 F420.000
G1 X-69.445 Y69.028 Z-2.452 F420.000
G1 X-69.267 Y69.154 Z-2.472 F420.000
G1 X-69.116 Y69.313 Z-2.491 F420.000
G1 X-69.000 Y69.498 Z-2.510 F420.000
G1 X-68.922 Y69.701 Z-2.530 F420.000
G1 X-68.885 Y69.917 Z-2.549 F420.000
G1 X-68.891 Y70.135 Z-2.568 F420.000
G1 X-68.939 Y70.348 Z-2.587 F420.000
G1 X-69.028 Y70.547 Z-2.607 F420.000
G1 X-69.154 Y70.726 Z-2.626 F420.000
G1 X-69.313 Y70.876 Z-2.645 F420.000
G1 X-69.498 Y70.992 Z-2.665 F420.000
G1 X-69.701 Y71.071 Z-2.684 F420.000
G1 X-69.917 Y71.107 Z-2.703 F420.000
G1 X-70.135 Y71.102 Z-2.723 F420.000
G1 X-70.348 Y71.053 Z-2.742 F420.000
G1 X-70.547 Y70.964 Z-2.761 F420.000
G1 X-70.726 Y70.838 Z-2.781 F420.000
G1 X-70.876 Y70.680 Z-2.800 F420.000
G1 X-70.992 Y70.495 Z-2.819 F420.000
G1 X-71.071 Y70.291 Z-2.838 F420.000
G1 X-71.107 Y70.076 Z-2.858 F420.000
G1 X-71.102 Y69.857 Z-2.877 F420.000
G1 X-71.053 Y69.644 Z-2.896 F420.000
G1 X-70.964 Y69.445 Z-2.916 F420.000
G1 X-70.838 Y69.267 Z-2.935 F420.000
G1 X-70.680 Y69.116 Z-2.954 F420.000
G1 X-70.495 Y69.000 Z-2.974 F420.000
G1 X-70.291 Y68.922 Z-2.993 F420.000
G1 X-70.076 Y68.885 Z-3.000 F420.000
G1 X-69.857 Y68.891 Z-3.000 F420.000
G1 X-69.644 Y68.939 Z-3.000 F420.000
G1 X-69.445 Y69.028 Z-3.000 F420.000
G1 X-69.267 Y69.154 Z-3.000 F420.000
G1 X-69.116 Y69.313 Z-3.000 F420.000
G1 X-69.000 Y69.498 Z-3.000 F420.000
G1 X-68.922 Y69.701 Z-3.000 F420.000
G1 X-68.885 Y69.917 Z-3.000 F420.000
G1 X-68.891 Y70.135 Z-3.000 F420.000
G1 X-68.939 Y70.348 Z-3.000 F420.000
G1 X-69.028 Y70.547 Z-3.000 F420.000
G1 X-69.154 Y70.726 Z-3.000 F420.000
G1 X-69.313 Y70.876 Z-3.000 F420.000
G1 X-69.498 Y70.992 Z-3.000 F420.000
G1 X-69.701 Y71.071 Z-3.000 F420.000
G1 X-69.917 Y71.107 Z-3.000 F420.000
G1 X-70.135 Y71.102 Z-3.000 F420.000
G1 X-70.348 Y71.053 Z-3.000 F420.000
G1 X-70.547 Y70.964 Z-3.000 F420.000
G1 X-70.726 Y70.838 Z-3.000 F420.000
G1 X-70.876 Y70.680 Z-3.000 F420.000
G1 X-70.992 Y70.495 Z-3.000 F420.000
G1 X-71.071 Y70.291 Z-3.000 F420.000
G1 X-71.107 Y70.076 Z-3.000 F420.000
G1 X-71.102 Y69.857 Z-3.000 F420.000
G1 X-71.053 Y69.644 Z-3.000 F420.000
G1 X-70.964 Y69.445 Z-3.000 F420.000
G1 X-70.838 Y69.267 Z-3.000 F420.000
G1 X-70.680 Y69.116 Z-3.000 F420.000
G1 X-70.495 Y69.000 Z-3.000 F420.000
G1 X-70.291 Y68.922 Z-3.000 F420.000
(Adaptive - depth: -3.000000)
G1 X-69.996 Y68.872 F420.000
G1 X-69.951 Y68.827 F420.000
G1 X-69.774 Y68.767 F420.000
G1 X-69.594 Y68.756 F420.000
G1 X-69.474 Y68.774 F420.000
G1 X-69.158 Y68.906 F420.000
G1 X-68.985 Y69.041 F420.000
G1 X-68.887 Y69.143 F420.000
G1 X-68.793 Y69.267 F420.000
G1 X-68.699 Y69.436 F420.000
G1 X-68.620 Y69.650 F420.000
G1 X-68.575 Y69.857 F420.000
G1 X-68.568 Y70.064 F420.000
G1 X-68.586 Y70.241 F420.000
G1 X-68.635 Y70.432 F420.000
G1 X-68.707 Y70.613 F420.000
G1 X-68.820 Y70.805 F420.000
G1 X-68.947 Y70.962 F420.000
G1 X-69.098 Y71.102 F420.000
G1 X-69.271 Y71.222 F420.000
G1 X-69.459 Y71.316 F420.000
G1 X-69.658 Y71.380 F420.000
G1 X-69.865 Y71.410 F420.000
G1 X-70.049 Y71.417 F420.000
G1 X-70.267 Y71.391 F420.000
G1 X-70.466 Y71.335 F420.000
G1 X-70.650 Y71.252 F420.000
G1 X-70.827 Y71.139 F420.000
G1 X-70.985 Y71.004 F420.000
G1 X-71.120 Y70.850 F420.000
G1 X-71.233 Y70.677 F420.000
G1 X-71.320 Y70.489 F420.000
G1 X-71.380 Y70.289 F420.000
G1 X-71.410 Y70.083 F420.000
G1 X-71.410 Y69.876 F420.000
G1 X-71.376 Y69.669 F420.000
G1 X-71.320 Y69.489 F420.000
G1 X-71.237 Y69.305 F420.000
G1 X-71.117 Y69.124 F420.000
G1 X-70.981 Y68.974 F420.000
G1 X-70.823 Y68.842 F420.000
G1 X-70.650 Y68.722 F420.000
G1 X-70.425 Y68.598 F420.000
G1 X-70.105 Y68.474 F420.000
G1 X-69.865 Y68.429 F420.000
G1 X-69.805 Y68.425 F420.000
G1 X-69.432 Y68.459 F420.000
G1 X-69.128 Y68.564 F420.000
G1 X-68.985 Y68.643 F420.000
G1 X-68.865 Y68.726 F420.000
G1 X-68.711 Y68.857 F420.000
G1 X-68.534 Y69.068 F420.000
G1 X-68.414 Y69.267 F420.000
G1 X-68.331 Y69.451 F420.000
G1 X-68.271 Y69.650 F420.000
G1 X-68.237 Y69.861 F420.000
G1 X-68.229 Y70.083 F420.000
G1 X-68.256 Y70.312 F420.000
G1 X-68.308 Y70.530 F420.000
G1 X-68.391 Y70.741 F420.000
G1 X-68.500 Y70.940 F420.000
G1 X-68.632 Y71.120 F420.000
G1 X-68.789 Y71.282 F420.000
G1 X-68.962 Y71.425 F420.000
G1 X-69.173 Y71.556 F420.000
G1 X-69.387 Y71.654 F420.000
G1 X-69.613 Y71.718 F420.000
G1 X-69.820 Y71.748 F420.000
G1 X-70.041 Y71.752 F420.000
G1 X-70.263 Y71.729 F420.000
G1 X-70.496 Y71.673 F420.000
G1 X-70.711 Y71.590 F420.000
G1 X-70.914 Y71.481 F420.000
G1 X-71.102 Y71.346 F420.000
G1 X-71.271 Y71.188 F420.000
G1 X-71.417 Y71.008 F420.000
G1 X-71.534 Y70.805 F420.000
G1 X-71.617 Y70.613 F420.000
G1 X-71.680 Y70.398 F420.000
G1 X-71.722 Y70.158 F420.000
G1 X-71.733 Y69.917 F420.000
G1 X-71.707 Y69.680 F420.000
G1 X-71.658 Y69.474 F420.000
G1 X-71.575 Y69.256 F420.000
G1 X-71.466 Y69.056 F420.000
G1 X-71.335 Y68.876 F420.000
G1 X-71.184 Y68.707 F420.000
G1 X-70.992 Y68.534 F420.000
G1 X-70.763 Y68.376 F420.000
G1 X-70.541 Y68.252 F420.000
G1 X-70.301 Y68.154 F420.000
G1 X-70.041 Y68.094 F420.000
G1 X-69.827 Y68.075 F420.000
G1 X-69.617 Y68.079 F420.000
G1 X-69.391 Y68.105 F420.000
G1 X-69.132 Y68.177 F420.000
G1 X-68.917 Y68.271 F420.000
G1 X-68.729 Y68.380 F420.000
G1 X-68.541 Y68.526 F420.000
G1 X-68.376 Y68.688 F420.000
G1 X-68.222 Y68.883 F420.000
G1 X-68.102 Y69.086 F420.000
G1 X-68.000 Y69.301 F420.000
G1 X-67.917 Y69.564 F420.000
G1 X-67.876 Y69.808 F420.000
G1 X-67.861 Y70.030 F420.000
G1 X-67.876 Y70.274 F420.000
G1 X-67.921 Y70.508 F420.000
G1 X-67.989 Y70.733 F420.000
G1 X-68.102 Y70.977 F420.000
G1 X-68.229 Y71.188 F420.000
G1 X-68.380 Y71.387 F420.000
G1 X-68.556 Y71.568 F420.000
G1 X-68.752 Y71.722 F420.000
G1 X-68.962 Y71.853 F420.000
G1 X-69.192 Y71.959 F420.000
G1 X-69.429 Y72.038 F420.000
G1 X-69.677 Y72.086 F420.000
G1 X-69.929 Y72.105 F420.000
G1 X-70.177 Y72.094 F420.000
G1 X-70.429 Y72.053 F420.000
G1 X-70.673 Y71.985 F420.000
G1 X-70.910 Y71.887 F420.000
G1 X-71.132 Y71.763 F420.000
G1 X-71.338 Y71.613 F420.000
G1 X-71.519 Y71.432 F420.000
G1 X-71.654 Y71.263 F420.000
G1 X-71.786 Y71.060 F420.000
G1 X-71.910 Y70.816 F420.000
G1 X-72.004 Y70.556 F420.000
G1 X-72.056 Y70.297 F420.000
G1 X-72.079 Y70.071 F420.000
G1 X-72.075 Y69.820 F420.000
G1 X-72.038 Y69.571 F420.000
G1 X-71.974 Y69.338 F420.000
G1 X-71.883 Y69.105 F420.000
G1 X-71.756 Y68.865 F420.000
G1 X-71.613 Y68.654 F420.000
G1 X-71.444 Y68.459 F420.000
G1 X-71.256 Y68.274 F420.000
G1 X-71.008 Y68.086 F420.000
G1 X-70.771 Y67.944 F420.000
G1 X-70.515 Y67.831 F420.000
G1 X-70.282 Y67.756 F420.000
G1 X-70.023 Y67.703 F420.000
G1 X-69.763 Y67.684 F420.000
G1 X-69.508 Y67.703 F420.000
G1 X-69.282 Y67.741 F420.000
G1 X-69.045 Y67.805 F420.000
G1 X-68.782 Y67.910 F420.000
G1 X-68.538 Y68.041 F420.000
G1 X-68.323 Y68.203 F420.000
G1 X-68.158 Y68.353 F420.000
G1 X-67.989 Y68.545 F420.000
G1 X-67.827 Y68.771 F420.000
G1 X-67.609 Y69.177 F420.000
G1 X-67.481 Y69.571 F420.000
G1 X-67.425 Y70.023 F420.000
G1 X-67.451 Y70.417 F420.000
G1 X-67.613 Y70.970 F420.000
G1 X-67.797 Y71.327 F420.000
G1 X-68.083 Y71.692 F420.000
G1 X-68.425 Y71.992 F420.000
G1 X-68.876 Y72.252 F420.000
G1 X-69.320 Y72.398 F420.000
G1 X-69.489 Y72.432 F420.000
G1 X-69.853 Y72.485 F420.000
G1 X-70.222 Y72.477 F420.000
G1 X-70.504 Y72.425 F420.000
G1 X-70.861 Y72.323 F420.000
G1 X-71.195 Y72.162 F420.000
G1 X-71.421 Y72.015 F420.000
G1 X-71.602 Y71.868 F420.000
G1 X-71.778 Y71.692 F420.000
G1 X-71.955 Y71.481 F420.000
G1 X-72.113 Y71.233 F420.000
G1 X-72.237 Y70.989 F420.000
G1 X-72.338 Y70.729 F420.000
G1 X-72.410 Y70.455 F420.000
G1 X-72.451 Y70.177 F420.000
G1 X-72.455 Y69.898 F420.000
G1 X-72.432 Y69.658 F420.000
G1 X-72.380 Y69.398 F420.000
G1 X-72.305 Y69.147 F420.000
G1 X-72.192 Y68.868 F420.000
G1 X-72.041 Y68.594 F420.000
G1 X-71.880 Y68.353 F420.000
G1 X-71.575 Y68.038 F420.000
G1 X-71.278 Y67.801 F420.000
G1 X-70.902 Y67.575 F420.000
G1 X-70.620 Y67.447 F420.000
G1 X-70.079 Y67.305 F420.000
G1 X-69.598 Y67.278 F420.000
G1 X-69.117 Y67.338 F420.000
G1 X-68.650 Y67.489 F420.000
G1 X-68.274 Y67.688 F420.000
G1 X-67.846 Y68.019 F420.000
G1 X-67.455 Y68.470 F420.000
G1 X-67.391 Y68.571 F420.000
G1 X-67.222 Y68.940 F420.000
G1 X-67.102 Y69.335 F420.000
G1 X-67.034 Y69.786 F420.000
G1 X-67.038 Y70.237 F420.000
G1 X-67.098 Y70.632 F420.000
G1 X-67.214 Y71.023 F420.000
G1 X-67.406 Y71.444 F420.000
G1 X-67.737 Y71.921 F420.000
G1 X-68.113 Y72.278 F420.000
G1 X-68.398 Y72.474 F420.000
G1 X-68.921 Y72.714 F420.000
G1 X-69.372 Y72.831 F420.000
G1 X-69.992 Y72.883 F420.000
G1 X-70.556 Y72.812 F420.000
G1 X-71.109 Y72.617 F420.000
G1 X-71.564 Y72.338 F420.000
G1 X-71.925 Y72.026 F420.000
G1 X-72.203 Y71.703 F420.000
G1 X-72.462 Y71.297 F420.000
G1 X-72.665 Y70.789 F420.000
G1 X-72.767 Y70.248 F420.000
G1 X-72.782 Y69.887 F420.000
G1 X-72.718 Y69.346 F420.000
G1 X-72.500 Y68.695 F420.000
G1 X-72.289 Y68.316 F420.000
G1 X-71.936 Y67.876 F420.000
G1 X-71.515 Y67.500 F420.000
G1 X-71.086 Y67.237 F420.000
G1 X-70.970 Y67.188 F420.000
G1 X-70.549 Y67.075 F420.000
G1 X-70.128 Y67.030 F420.000
G1 X-69.647 Y67.049 F420.000
G1 X-69.286 Y67.113 F420.000
G1 X-68.925 Y67.222 F420.000
G1 X-68.440 Y67.470 F420.000
G1 X-68.102 Y67.714 F420.000
G1 X-68.102 Y67.714 F420.000
G1 X-68.015 Y67.838 F420.000
G1 X-68.000 Y67.898 F420.000
G0 X-67.996 Y67.929
G0 X-68.459 Y72.248
G1 X-68.462 Y72.289 F420.000
G1 X-68.504 Y72.477 F420.000
G1 X-68.575 Y72.583 F420.000
G1 X-68.654 Y72.647 F420.000
G1 X-68.654 Y72.647 F420.000
G1 X-68.962 Y72.789 F420.000
G1 X-69.470 Y72.925 F420.000
G1 X-69.808 Y72.966 F420.000
G1 X-70.316 Y72.951 F420.000
G1 X-70.711 Y72.880 F420.000
G1 X-71.105 Y72.756 F420.000
G1 X-71.575 Y72.511 F420.000
G1 X-71.914 Y72.267 F420.000
G1 X-72.135 Y72.064 F420.000
G1 X-72.297 Y71.883 F420.000
G1 X-72.541 Y71.541 F420.000
G1 X-72.756 Y71.105 F420.000
G1 X-72.902 Y70.639 F420.000
G1 X-72.966 Y70.218 F420.000
G1 X-72.966 Y69.797 F420.000
G1 X-72.891 Y69.316 F420.000
G1 X-72.729 Y68.835 F420.000
G1 X-72.564 Y68.496 F420.000
G1 X-72.274 Y68.086 F420.000
G1 X-72.060 Y67.861 F420.000
G1 X-71.823 Y67.654 F420.000
G1 X-71.508 Y67.440 F420.000
G1 X-71.508 Y67.440 F420.000
G1 X-71.383 Y67.395 F420.000
G1 X-71.289 Y67.391 F420.000
G0 X-71.259 Y67.391
G0 X-68.053 Y67.981
G1 X-68.011 Y67.989 F420.000
G1 X-67.774 Y68.045 F420.000
G1 X-67.647 Y68.132 F420.000
G1 X-67.647 Y68.132 F420.000
G1 X-67.387 Y68.523 F420.000
G1 X-67.282 Y68.726 F420.000
G1 X-67.154 Y69.045 F420.000
G1 X-67.079 Y69.305 F420.000
G1 X-67.015 Y69.688 F420.000
G1 X-67.004 Y69.865 F420.000
G1 X-67.019 Y70.312 F420.000
G1 X-67.038 Y70.462 F420.000
G1 X-67.105 Y70.774 F420.000
G1 X-67.241 Y71.162 F420.000
G1 X-67.372 Y71.447 F420.000
G1 X-67.451 Y71.583 F420.000
G1 X-67.654 Y71.868 F420.000
G1 X-67.820 Y72.056 F420.000
G1 X-68.008 Y72.237 F420.000
G1 X-68.188 Y72.383 F420.000
G1 X-68.451 Y72.568 F420.000
G1 X-68.774 Y72.741 F420.000
G1 X-68.910 Y72.801 F420.000
G1 X-69.113 Y72.865 F420.000
G1 X-69.489 Y72.955 F420.000
G1 X-69.805 Y72.992 F420.000
G1 X-70.177 Y72.989 F420.000
G1 X-70.380 Y72.970 F420.000
G1 X-70.617 Y72.929 F420.000
G1 X-71.075 Y72.797 F420.000
G1 X-71.226 Y72.729 F420.000
G1 X-71.590 Y72.534 F420.000
G1 X-71.898 Y72.316 F420.000
G1 X-72.150 Y72.090 F420.000
G1 X-72.305 Y71.917 F420.000
G1 X-72.545 Y71.586 F420.000
G1 X-72.635 Y71.429 F420.000
G1 X-72.756 Y71.177 F420.000
G1 X-72.835 Y70.974 F420.000
G1 X-72.925 Y70.658 F420.000
G1 X-72.974 Y70.383 F420.000
G1 X-73.000 Y70.064 F420.000
G1 X-72.996 Y69.853 F420.000
G1 X-72.966 Y69.602 F420.000
G1 X-72.914 Y69.305 F420.000
G1 X-72.797 Y68.936 F420.000
G1 X-72.737 Y68.786 F420.000
G1 X-72.594 Y68.492 F420.000
G1 X-72.342 Y68.128 F420.000
G1 X-72.184 Y67.947 F420.000
G1 X-71.914 Y67.695 F420.000
G1 X-71.598 Y67.462 F420.000
G1 X-71.327 Y67.308 F420.000
G1 X-71.162 Y67.229 F420.000
G1 X-71.019 Y67.173 F420.000
G1 X-70.556 Y67.049 F420.000
G1 X-70.274 Y67.011 F420.000
G1 X-70.026 Y67.000 F420.000
G1 X-69.699 Y67.015 F420.000
G1 X-69.361 Y67.071 F420.000
G1 X-68.925 Y67.195 F420.000
G1 X-68.752 Y67.271 F420.000
G1 X-68.429 Y67.447 F420.000
G1 X-68.117 Y67.665 F420.000
G1 X-67.868 Y67.887 F420.000
G1 X-67.647 Y68.132 F420.000
G1 X-67.647 Y68.132 F420.000
G0 Z15.000
(Helix to depth: -3.000000)
G0 Z15.000
G0 X-9.267 Y9.154 Z15.000
G0 X-9.267 Y9.154 Z3.000
G1 X-9.267 Y9.154 Z0.000 F420.000
G1 X-9.267 Y9.154 Z0.000 F420.000
G1 X-9.116 Y9.313 Z-0.019 F420.000
G1 X-9.000 Y9.498 Z-0.039 F420.000
G1 X-8.922 Y9.701 Z-0.058 F420.000
G1 X-8.885 Y9.917 Z-0.077 F420.000
G1 X-8.891 Y10.135 Z-0.097 F420.000
G1 X-8.939 Y10.348 Z-0.116 F420.000
G1 X-9.028 Y10.547 Z-0.135 F420.000
G1 X-9.154 Y10.726 Z-0.154 F420.000
G1 X-9.313 Y10.876 Z-0.174 F420.000
G1 X-9.498 Y10.992 Z-0.193 F420.000
G1 X-9.701 Y11.071 Z-0.212 F420.000
G1 X-9.917 Y11.107 Z-0.232 F420.000
G1 X-10.135 Y11.102 Z-0.251 F420.000
G1 X-10.348 Y11.053 Z-0.270 F420.000
G1 X-10.547 Y10.964 Z-0.290 F420.000
G1 X-10.726 Y10.838 Z-0.309 F420.000
G1 X-10.876 Y10.680 Z-0.328 F420.000
G1 X-10.992 Y10.495 Z-0.348 F420.000
G1 X-11.071 Y10.291 Z-0.367 F420.000
G1 X-11.107 Y10.076 Z-0.386 F420.000
G1 X-11.102 Y9.857 Z-0.405 F420.000
G1 X-11.053 Y9.644 Z-0.425 F420.000
G1 X-10.964 Y9.445 Z-0.444 F420.000
G1 X-10.838 Y9.267 Z-0.463 F420.000
G1 X-10.680 Y9.116 Z-0.483 F420.000
G1 X-10.495 Y9.000 Z-0.502 F420.000
G1 X-10.291 Y8.922 Z-0.521 F420.000
G1 X-10.076 Y8.885 Z-0.541 F420.000
G1 X-9.857 Y8.891 Z-0.560 F420.000
G1 X-9.644 Y8.939 Z-0.579 F420.000
G1 X-9.445 Y9.028 Z-0.599 F420.000
G1 X-9.267 Y9.154 Z-0.618 F420.000
G1 X-9.116 Y9.313 Z-0.637 F420.000
G1 X-9.000 Y9.498 Z-0.657 F420.000
G1 X-8.922 Y9.701 Z-0.676 F420.000
G1 X-8.885 Y9.917 Z-0.695 F420.000
G1 X-8.891 Y10.135 Z-0.714 F420.000
G1 X-8.939 Y10.348 Z-0.734 F420.000
G1 X-9.028 Y10.547 Z-0.753 F420.000
G1 X-9.154 Y10.726 Z-0.772 F420.000
G1 X-9.313 Y10.876 Z-0.792 F420.000
G1 X-9.498 Y10.992 Z-0.811 F420.000
G1 X-9.701 Y11.071 Z-0.830 F420.000
G1 X-9.917 Y11.107 Z-0.850 F420.000
G1 X-10.135 Y11.102 Z-0.869 F420.000
G1 X-10.348 Y11.053 Z-0.888 F420.000
G1 X-10.547 Y10.964 Z-0.908 F420.000
G1 X-10.726 Y10.838 Z-0.927 F420.000
G1 X-10.876 Y10.680 Z-0.946 F420.000
G1 X-10.992 Y10.495 Z-0.965 F420.000
G1 X-11.071 Y10.291 Z-0.985 F420.000
G1 X-11.107 Y10.076 Z-1.004 F420.000
G1 X-11.102 Y9.857 Z-1.023 F420.000
G1 X-11.053 Y9.644 Z-1.043 F420.000
G1 X-10.964 Y9.445 Z-1.062 F420.000
G1 X-10.838 Y9.267 Z-1.081 F420.000
G1 X-10.680 Y9.116 Z-1.101 F420.000
G1 X-10.495 Y9.000 Z-1.120 F420.000
G1 X-10.291 Y8.922 Z-1.139 F420.000
G1 X-10.076 Y8.885 Z-1.159 F420.000
G1 X-9.857 Y8.891 Z-1.178 F420.000
G1 X-9.644 Y8.939 Z-1.197 F420.000
G1 X-9.445 Y9.028 Z-1.216 F420.000
G1 X-9.267 Y9.154 Z-1.236 F420.000
G1 X-9.116 Y9.313 Z-1.255 F420.000
G1 X-9.000 Y9.498 Z-1.274 F420.000
G1 X-8.922 Y9.701 Z-1.294 F420.000
G1 X-8.885 Y9.917 Z-1.313 F420.000
G1 X-8.891 Y10.135 Z-1.332 F420.000
G1 X-8.939 Y10.348 Z-1.352 F420.000
G1 X-9.028 Y10.547 Z-1.371 F420.000
G1 X-9.154 Y10.726 Z-1.390 F420.000
G1 X-9.313 Y10.876 Z-1.410 F420.000
G1 X-9.498 Y10.992 Z-1.429 F420.000
G1 X-9.701 Y11.071 Z-1.448 F420.000
G1 X-9.917 Y11.107 Z-1.468 F420.000
G1 X-10.135 Y11.102 Z-1.487 F420.000
G1 X-10.348 Y11.053 Z-1.506 F420.000
G1 X-10.547 Y10.964 Z-1.525 F420.000
G1 X-10.726 Y10.838 Z-1.545 F420.000
G1 X-10.876 Y10.680 Z-1.564 F420.000
G1 X-10.992 Y10.495 Z-1.583 F420.000
G1 X-11.071 Y10.291 Z-1.603 F420.000
G1 X-11.107 Y10.076 Z-1.622 F420.000
G1 X-11.102 Y9.857 Z-1.641 F420.000
G1 X-11.053 Y9.644 Z-1.661 F420.000
G1 X-10.964 Y9.445 Z-1.680 F420.000
G1 X-10.838 Y9.267 Z-1.699 F420.000
G1 X-10.680 Y9.116 Z-1.719 F420.000
G1 X-10.495 Y9.000 Z-1.738 F420.000
G1 X-10.291 Y8.922 Z-1.757 F420.000
G1 X-10.076 Y8.885 Z-1.776 F420.000
G1 X-9.857 Y8.891 Z-1.796 F420.000
G1 X-9.644 Y8.939 Z-1.815 F420.000
G1 X-9.445 Y9.028 Z-1.834 F420.000
G1 X-9.267 Y9.154 Z-1.854 F420.000
G1 X-9.116 Y9.313 Z-1.873 F420.000
G1 X-9.000 Y9.498 Z-1.892 F420.000
G1 X-8.922 Y9.701 Z-1.912 F420.000
G1 X-8.885 Y9.917 Z-1.931 F420.000
G1 X-8.891 Y10.135 Z-1.950 F420.000
G1 X-8.939 Y10.348 Z-1.970 F420.000
G1 X-9.028 Y10.547 Z-1.989 F420.000
G1 X-9.154 Y10.726 Z-2.008 F420.000
G1 X-9.313 Y10.876 Z-2.027 F420.000
G1 X-9.498 Y10.992 Z-2.047 F420.000
G1 X-9.701 Y11.071 Z-2.066 F420.000
G1 X-9.917 Y11.107 Z-2.085 F420.000
G1 X-10.135 Y11.102 Z-2.105 F420.000
G1 X-10.348 Y11.053 Z-2.124 F420.000
G1 X-10.547 Y10.964 Z-2.143 F420.000
G1 X-10.726 Y10.838 Z-2.163 F420.000
G1 X-10.876 Y10.680 Z-2.182 F420.000
G1 X-10.992 Y10.495 Z-2.201 F420.000
G1 X-11.071 Y10.291 Z-2.221 F420.000
G1 X-11.107 Y10.076 Z-2.240 F420.000
G1 X-11.102 Y9.857 Z-2.259 F420.000
G1 X-11.053 Y9.644 Z-2.279 F420.000
G1 X-10.964 Y9.445 Z-2.298 F420.000
G1 X-10.838 Y9.267 Z-2.317 F420.000
G1 X-10.680 Y9.116 Z-2.336 F420.000
G1 X-10.495 Y9.000 Z-2.356 F420.000
G1 X-10.291 Y8.922 Z-2.375 F420.000
G1 X-10.076 Y8.885 Z-2.394 F420.000
G1 X-9.857 Y8.891 Z-2.414 F420.000
G1 X-9.644 Y8.939 Z-2.433 F420.000
G1 X-9.445 Y9.028 Z-2.452 F420.000
G1 X-9.267 Y9.154 Z-2.472 F420.000
G1 X-9.116 Y9.313 Z-2.491 F420.000
G1 X-9.000 Y9.498 Z-2.510 F420.000
G1 X-8.922 Y9.701 Z-2.530 F420.000
G1 X-8.885 Y9.917 Z-2.549 F420.000
G1 X-8.891 Y10.135 Z-2.568 F420.000
G1 X-8.939 Y10.348 Z-2.587 F420.000
G1 X-9.028 Y10.547 Z-2.607 F420.000
G1 X-9.154 Y10.726 Z-2.626 F420.000
G1 X-9.313 Y10.876 Z-2.645 F420.000
G1 X-9.498 Y10.992 Z-2.665 F420.000
G1 X-9.701 Y11.071 Z-2.684 F420.000
G1 X-9.917 Y11.107 Z-2.703 F420.000
G1 X-10.135 Y11.102 Z-2.723 F420.000
G1 X-10.348 Y11.053 Z-2.742 F420.000
G1 X-10.547 Y10.964 Z-2.761 F420.000
G1 X-10.726 Y10.838 Z-2.781 F420.000
G1 X-10.876 Y10.680 Z-2.800 F420.000
G1 X-10.992 Y10.495 Z-2.819 F420.000
G1 X-11.071 Y10.291 Z-2.838 F420.000
G1 X-11.107 Y10.076 Z-2.858 F420.000
G1 X-11.102 Y9.857 Z-2.877 F420.000
G1 X-11.053 Y9.644 Z-2.896 F420.000
G1 X-10.964 Y9.445 Z-2.916 F420.000
G1 X-10.838 Y9.267 Z-2.935 F420.000
G1 X-10.680 Y9.116 Z-2.954 F420.000
G1 X-10.495 Y9.000 Z-2.974 F420.000
G1 X-10.291 Y8.922 Z-2.993 F420.000
G1 X-10.076 Y8.885 Z-3.000 F420.000
G1 X-9.857 Y8.891 Z-3.000 F420.000
G1 X-9.644 Y8.939 Z-3.000 F420.000
G1 X-9.445 Y9.028 Z-3.000 F420.000
G1 X-9.267 Y9.154 Z-3.000 F420.000
G1 X-9.116 Y9.313 Z-3.000 F420.000
G1 X-9.000 Y9.498 Z-3.000 F420.000
G1 X-8.922 Y9.701 Z-3.000 F420.000
G1 X-8.885 Y9.917 Z-3.000 F420.000
G1 X-8.891 Y10.135 Z-3.000 F420.000
G1 X-8.939 Y10.348 Z-3.000 F420.000
G1 X-9.028 Y10.547 Z-3.000 F420.000
G1 X-9.154 Y10.726 Z-3.000 F420.000
G1 X-9.313 Y10.876 Z-3.000 F420.000
G1 X-9.498 Y10.992 Z-3.000 F420.000
G1 X-9.701 Y11.071 Z-3.000 F420.000
G1 X-9.917 Y11.107 Z-3.000 F420.000
G1 X-10.135 Y11.102 Z-3.000 F420.000
G1 X-10.348 Y11.053 Z-3.000 F420.000
G1 X-10.547 Y10.964 Z-3.000 F420.000
G1 X-10.726 Y10.838 Z-3.000 F420.000
G1 X-10.876 Y10.680 Z-3.000 F420.000
G1 X-10.992 Y10.495 Z-3.000 F420.000
G1 X-11.071 Y10.291 Z-3.000 F420.000
G1 X-11.107 Y10.076 Z-3.000 F420.000
G1 X-11.102 Y9.857 Z-3.000 F420.000
G1 X-11.053 Y9.644 Z-3.000 F420.000
G1 X-10.964 Y9.445 Z-3.000 F420.000
G1 X-10.838 Y9.267 Z-3.000 F420.000
G1 X-10.680 Y9.116 Z-3.000 F420.000
G1 X-10.495 Y9.000 Z-3.000 F420.000
G1 X-10.291 Y8.922 Z-3.000 F420.000
(Adaptive - depth: -3.000000)
G1 X-9.996 Y8.872 F420.000
G1 X-9.951 Y8.827 F420.000
G1 X-9.835 Y8.782 F420.000
G1 X-9.654 Y8.759 F420.000
G1 X-9.534 Y8.763 F420.000
G1 X-9.474 Y8.774 F420.000
G1 X-9.132 Y8.925 F420.000
G1 X-8.974 Y9.049 F420.000
G1 X-8.883 Y9.143 F420.000
G1 X-8.789 Y9.267 F420.000
G1 X-8.695 Y9.440 F420.000
G1 X-8.620 Y9.647 F420.000
G1 X-8.575 Y9.853 F420.000
G1 X-8.568 Y10.060 F420.000
G1 X-8.586 Y10.248 F420.000
G1 X-8.635 Y10.447 F420.000
G1 X-8.714 Y10.632 F420.000
G1 X-8.816 Y10.801 F420.000
G1 X-8.940 Y10.959 F420.000
G1 X-9.098 Y11.105 F420.000
G1 X-9.267 Y11.222 F420.000
G1 X-9.451 Y11.312 F420.000
G1 X-9.650 Y11.376 F420.000
G1 X-9.853 Y11.410 F420.000
G1 X-10.060 Y11.414 F420.000
G1 X-10.267 Y11.387 F420.000
G1 X-10.470 Y11.331 F420.000
G1 X-10.662 Y11.248 F420.000
G1 X-10.838 Y11.132 F420.000
G1 X-10.981 Y11.008 F420.000
G1 X-11.113 Y10.853 F420.000
G1 X-11.226 Y10.688 F420.000
G1 X-11.323 Y10.477 F420.000
G1 X-11.376 Y10.271 F420.000
G1 X-11.402 Y10.086 F420.000
G1 X-11.398 Y9.880 F420.000
G1 X-11.365 Y9.680 F420.000
G1 X-11.308 Y9.492 F420.000
G1 X-11.218 Y9.293 F420.000
G1 X-11.098 Y9.109 F420.000
G1 X-10.951 Y8.951 F420.000
G1 X-10.805 Y8.827 F420.000
G1 X-10.635 Y8.711 F420.000
G1 X-10.417 Y8.590 F420.000
G1 X-10.083 Y8.470 F420.000
G1 X-9.782 Y8.432 F420.000
G1 X-9.410 Y8.470 F420.000
G1 X-9.083 Y8.586 F420.000
G1 X-8.932 Y8.673 F420.000
G1 X-8.812 Y8.763 F420.000
G1 X-8.684 Y8.883 F420.000
G1 X-8.538 Y9.064 F420.000
G1 X-8.410 Y9.274 F420.000
G1 X-8.312 Y9.489 F420.000
G1 X-8.256 Y9.722 F420.000
G1 X-8.229 Y9.910 F420.000
G1 X-8.226 Y10.124 F420.000
G1 X-8.259 Y10.357 F420.000
G1 X-8.316 Y10.560 F420.000
G1 X-8.402 Y10.763 F420.000
G1 X-8.511 Y10.955 F420.000
G1 X-8.662 Y11.150 F420.000
G1 X-8.823 Y11.312 F420.000
G1 X-9.004 Y11.455 F420.000
G1 X-9.207 Y11.571 F420.000
G1 X-9.417 Y11.662 F420.000
G1 X-9.647 Y11.714 F420.000
G1 X-9.842 Y11.737 F420.000
G1 X-10.060 Y11.741 F420.000
G1 X-10.327 Y11.703 F420.000
G1 X-10.545 Y11.647 F420.000
G1 X-10.763 Y11.560 F420.000
G1 X-10.974 Y11.440 F420.000
G1 X-11.154 Y11.289 F420.000
G1 X-11.289 Y11.150 F420.000
G1 X-11.425 Y10.974 F420.000
G1 X-11.549 Y10.756 F420.000
G1 X-11.639 Y10.541 F420.000
G1 X-11.695 Y10.312 F420.000
G1 X-11.718 Y10.105 F420.000
G1 X-11.714 Y9.880 F420.000
G1 X-11.688 Y9.658 F420.000
G1 X-11.620 Y9.414 F420.000
G1 X-11.534 Y9.199 F420.000
G1 X-11.414 Y8.996 F420.000
G1 X-11.286 Y8.827 F420.000
G1 X-11.117 Y8.647 F420.000
G1 X-10.921 Y8.481 F420.000
G1 X-10.695 Y8.331 F420.000
G1 X-10.466 Y8.214 F420.000
G1 X-10.218 Y8.135 F420.000
G1 X-10.015 Y8.094 F420.000
G1 X-9.778 Y8.075 F420.000
G1 X-9.545 Y8.090 F420.000
G1 X-9.323 Y8.132 F420.000
G1 X-9.098 Y8.199 F420.000
G1 X-8.853 Y8.312 F420.000
G1 X-8.650 Y8.444 F420.000
G1 X-8.477 Y8.583 F420.000
G1 X-8.312 Y8.756 F420.000
G1 X-8.177 Y8.944 F420.000
G1 X-8.064 Y9.147 F420.000
G1 X-7.970 Y9.365 F420.000
G1 X-7.902 Y9.617 F420.000
G1 X-7.868 Y9.853 F420.000
G1 X-7.861 Y10.098 F420.000
G1 X-7.883 Y10.346 F420.000
G1 X-7.936 Y10.586 F420.000
G1 X-8.019 Y10.820 F420.000
G1 X-8.128 Y11.041 F420.000
G1 X-8.263 Y11.248 F420.000
G1 X-8.421 Y11.436 F420.000
G1 X-8.598 Y11.609 F420.000
G1 X-8.820 Y11.774 F420.000
G1 X-9.041 Y11.895 F420.000
G1 X-9.252 Y11.981 F420.000
G1 X-9.492 Y12.045 F420.000
G1 X-9.733 Y12.083 F420.000
G1 X-9.996 Y12.094 F420.000
G1 X-10.248 Y12.075 F420.000
G1 X-10.496 Y12.026 F420.000
G1 X-10.741 Y11.947 F420.000
G1 X-10.974 Y11.842 F420.000
G1 X-11.192 Y11.711 F420.000
G1 X-11.391 Y11.553 F420.000
G1 X-11.571 Y11.372 F420.000
G1 X-11.722 Y11.165 F420.000
G1 X-11.835 Y10.974 F420.000
G1 X-11.932 Y10.748 F420.000
G1 X-12.004 Y10.519 F420.000
G1 X-12.049 Y10.259 F420.000
G1 X-12.064 Y10.011 F420.000
G1 X-12.056 Y9.763 F420.000
G1 X-12.011 Y9.481 F420.000
G1 X-11.932 Y9.233 F420.000
G1 X-11.842 Y9.019 F420.000
G1 X-11.711 Y8.797 F420.000
G1 X-11.564 Y8.594 F420.000
G1 X-11.368 Y8.380 F420.000
G1 X-11.173 Y8.199 F420.000
G1 X-10.932 Y8.026 F420.000
G1 X-10.677 Y7.898 F420.000
G1 X-10.474 Y7.816 F420.000
G1 X-10.222 Y7.752 F420.000
G1 X-9.974 Y7.714 F420.000
G1 X-9.699 Y7.703 F420.000
G1 X-9.436 Y7.726 F420.000
G1 X-9.177 Y7.774 F420.000
G1 X-8.921 Y7.853 F420.000
G1 X-8.684 Y7.966 F420.000
G1 X-8.485 Y8.086 F420.000
G1 X-8.286 Y8.241 F420.000
G1 X-8.090 Y8.429 F420.000
G1 X-7.914 Y8.643 F420.000
G1 X-7.628 Y9.128 F420.000
G1 X-7.481 Y9.575 F420.000
G1 X-7.421 Y10.026 F420.000
G1 X-7.444 Y10.421 F420.000
G1 X-7.586 Y10.921 F420.000
G1 X-7.793 Y11.327 F420.000
G1 X-8.075 Y11.688 F420.000
G1 X-8.421 Y11.989 F420.000
G1 X-8.617 Y12.117 F420.000
G1 X-8.985 Y12.289 F420.000
G1 X-9.376 Y12.402 F420.000
G1 X-9.741 Y12.462 F420.000
G1 X-10.109 Y12.470 F420.000
G1 X-10.391 Y12.440 F420.000
G1 X-10.624 Y12.383 F420.000
G1 X-10.850 Y12.312 F420.000
G1 X-11.120 Y12.192 F420.000
G1 X-11.380 Y12.038 F420.000
G1 X-11.594 Y11.868 F420.000
G1 X-11.767 Y11.703 F420.000
G1 X-11.940 Y11.492 F420.000
G1 X-12.083 Y11.278 F420.000
G1 X-12.214 Y11.023 F420.000
G1 X-12.312 Y10.767 F420.000
G1 X-12.383 Y10.500 F420.000
G1 X-12.425 Y10.222 F420.000
G1 X-12.436 Y9.947 F420.000
G1 X-12.417 Y9.673 F420.000
G1 X-12.368 Y9.402 F420.000
G1 X-12.293 Y9.135 F420.000
G1 X-12.188 Y8.880 F420.000
G1 X-12.056 Y8.635 F420.000
G1 X-11.906 Y8.402 F420.000
G1 X-11.665 Y8.120 F420.000
G1 X-11.229 Y7.767 F420.000
G1 X-10.733 Y7.500 F420.000
G1 X-10.256 Y7.353 F420.000
G1 X-9.714 Y7.286 F420.000
G1 X-9.293 Y7.308 F420.000
G1 X-8.759 Y7.447 F420.000
G1 X-8.323 Y7.662 F420.000
G1 X-7.887 Y7.981 F420.000
G1 X-7.492 Y8.432 F420.000
G1 X-7.391 Y8.579 F420.000
G1 X-7.195 Y9.008 F420.000
G1 X-7.090 Y9.402 F420.000
G1 X-7.034 Y9.741 F420.000
G1 X-7.038 Y10.248 F420.000
G1 X-7.113 Y10.699 F420.000
G1 X-7.305 Y11.244 F420.000
G1 X-7.496 Y11.598 F420.000
G1 X-7.808 Y12.004 F420.000
G1 X-8.199 Y12.346 F420.000
G1 X-8.602 Y12.575 F420.000
G1 X-9.030 Y12.744 F420.000
G1 X-9.650 Y12.861 F420.000
G1 X-10.214 Y12.861 F420.000
G1 X-10.722 Y12.759 F420.000
G1 X-11.214 Y12.556 F420.000
G1 X-11.519 Y12.372 F420.000
G1 X-11.929 Y12.019 F420.000
G1 X-12.199 Y11.695 F420.000
G1 X-12.455 Y11.282 F420.000
G1 X-12.658 Y10.774 F420.000
G1 X-12.759 Y10.233 F420.000
G1 X-12.759 Y9.692 F420.000
G1 X-12.665 Y9.150 F420.000
G1 X-12.462 Y8.624 F420.000
G1 X-12.203 Y8.192 F420.000
G1 X-11.789 Y7.722 F420.000
G1 X-11.496 Y7.485 F420.000
G1 X-11.068 Y7.229 F420.000
G1 X-10.530 Y7.071 F420.000
G1 X-10.169 Y7.030 F420.000
G1 X-9.688 Y7.041 F420.000
G1 X-9.327 Y7.102 F420.000
G1 X-8.910 Y7.229 F420.000
G1 X-8.477 Y7.447 F420.000
G1 X-8.177 Y7.650 F420.000
G1 X-8.177 Y7.650 F420.000
G1 X-8.079 Y7.771 F420.000
G1 X-8.056 Y7.827 F420.000
G0 X-8.049 Y7.857
G0 X-8.402 Y12.214
G1 X-8.406 Y12.256 F420.000
G1 X-8.432 Y12.414 F420.000
G1 X-8.492 Y12.526 F420.000
G1 X-8.594 Y12.613 F420.000
G1 X-8.594 Y12.613 F420.000
G1 X-8.955 Y12.789 F420.000
G1 X-9.462 Y12.925 F420.000
G1 X-9.744 Y12.959 F420.000
G1 X-10.308 Y12.951 F420.000
G1 X-10.816 Y12.850 F420.000
G1 X-11.098 Y12.759 F420.000
G1 X-11.571 Y12.515 F420.000
G1 X-11.865 Y12.308 F420.000
G1 X-12.132 Y12.068 F420.000
G1 X-12.293 Y11.887 F420.000
G1 X-12.538 Y11.545 F420.000
G1 X-12.707 Y11.226 F420.000
G1 X-12.835 Y10.883 F420.000
G1 X-12.914 Y10.586 F420.000
G1 X-12.966 Y10.226 F420.000
G1 X-12.966 Y9.805 F420.000
G1 X-12.891 Y9.323 F420.000
G1 X-12.733 Y8.842 F420.000
G1 X-12.568 Y8.504 F420.000
G1 X-12.278 Y8.090 F420.000
G1 X-12.064 Y7.865 F420.000
G1 X-11.827 Y7.658 F420.000
G1 X-11.519 Y7.444 F420.000
G1 X-11.519 Y7.444 F420.000
G1 X-11.395 Y7.398 F420.000
G1 X-11.301 Y7.395 F420.000
G0 X-11.271 Y7.395
G0 X-8.053 Y7.981
G1 X-8.011 Y7.989 F420.000
G1 X-7.774 Y8.045 F420.000
G1 X-7.647 Y8.132 F420.000
G1 X-7.647 Y8.132 F420.000
G1 X-7.387 Y8.523 F420.000
G1 X-7.282 Y8.726 F420.000
G1 X-7.154 Y9.045 F420.000
G1 X-7.079 Y9.305 F420.000
G1 X-7.015 Y9.688 F420.000
G1 X-7.004 Y9.865 F420.000
G1 X-7.019 Y10.312 F420.000
G1 X-7.038 Y10.462 F420.000
G1 X-7.105 Y10.774 F420.000
G1 X-7.241 Y11.162 F420.000
G1 X-7.372 Y11.447 F420.000
G1 X-7.451 Y11.583 F420.000
G1 X-7.654 Y11.868 F420.000
G1 X-7.820 Y12.056 F420.000
G1 X-8.008 Y12.237 F420.000
G1 X-8.188 Y12.383 F420.000
G1 X-8.451 Y12.568 F420.000
G1 X-8.774 Y12.741 F420.000
G1 X-8.910 Y12.801 F420.000
G1 X-9.113 Y12.865 F420.000
G1 X-9.477 Y12.951 F420.000
G1 X-9.718 Y12.985 F420.000
G1 X-10.045 Y12.996 F420.000
G1 X-10.263 Y12.981 F420.000
G1 X-10.639 Y12.921 F420.000
G1 X-11.075 Y12.797 F420.000
G1 X-11.226 Y12.729 F420.000
G1 X-11.590 Y12.534 F420.000
G1 X-11.898 Y12.316 F420.000
G1 X-12.150 Y12.090 F420.000
G1 X-12.305 Y11.917 F420.000
G1 X-12.545 Y11.586 F420.000
G1 X-12.635 Y11.429 F420.000
G1 X-12.756 Y11.177 F420.000
G1 X-12.835 Y10.974 F420.000
G1 X-12.925 Y10.658 F420.000
G1 X-12.974 Y10.383 F420.000
G1 X-13.000 Y10.064 F420.000
G1 X-12.996 Y9.853 F420.000
G1 X-12.966 Y9.602 F420.000
G1 X-12.914 Y9.305 F420.000
G1 X-12.797 Y8.936 F420.000
G1 X-12.737 Y8.786 F420.000
G1 X-12.594 Y8.492 F420.000
G1 X-12.342 Y8.128 F420.000
G1 X-12.184 Y7.947 F420.000
G1 X-11.914 Y7.695 F420.000
G1 X-11.598 Y7.462 F420.000
G1 X-11.327 Y7.308 F420.000
G1 X-11.162 Y7.229 F420.000
G1 X-11.019 Y7.173 F420.000
G1 X-10.534 Y7.045 F420.000
G1 X-10.222 Y7.008 F420.000
G1 X-10.068 Y7.000 F420.000
G1 X-9.707 Y7.015 F420.000
G1 X-9.372 Y7.068 F420.000
G1 X-8.925 Y7.195 F420.000
G1 X-8.752 Y7.271 F420.000
G1 X-8.429 Y7.447 F420.000
G1 X-8.117 Y7.665 F420.000
G1 X-7.868 Y7.887 F420.000
G1 X-7.647 Y8.132 F420.000
G1 X-7.647 Y8.132 F420.000
G0 Z15.000
(Helix to depth: -3.000000)
G0 Z15.000
G0 X-69.267 Y9.154 Z15.000
G0 X-69.267 Y9.154 Z3.000
G1 X-69.267 Y9.154 Z0.000 F420.000
G1 X-69.267 Y9.154 Z0.000 F420.000
G1 X-69.116 Y9.313 Z-0.019 F420.000
G1 X-69.000 Y9.498 Z-0.039 F420.000
G1 X-68.922 Y9.701 Z-0.058 F420.000
G1 X-68.885 Y9.917 Z-0.077 F420.000
G1 X-68.891 Y10.135 Z-0.097 F420.000
G1 X-68.939 Y10.348 Z-0.116 F420.000
G1 X-69.028 Y10.547 Z-0.135 F420.000
G1 X-69.154 Y10.726 Z-0.154 F420.000
G1 X-69.313 Y10.876 Z-0.174 F420.000
G1 X-69.498 Y10.992 Z-0.193 F420.000
G1 X-69.701 Y11.071 Z-0.212 F420.000
G1 X-69.917 Y11.107 Z-0.232 F420.000
G1 X-70.135 Y11.102 Z-0.251 F420.000
G1 X-70.348 Y11.053 Z-0.270 F420.000
G1 X-70.547 Y10.964 Z-0.290 F420.000
G1 X-70.726 Y10.838 Z-0.309 F420.000
G1 X-70.876 Y10.680 Z-0.328 F420.000
G1 X-70.992 Y10.495 Z-0.348 F420.000
G1 X-71.071 Y10.291 Z-0.367 F420.000
G1 X-71.107 Y10.076 Z-0.386 F420.000
G1 X-71.102 Y9.857 Z-0.405 F420.000
G1 X-71.053 Y9.644 Z-0.425 F420.000
G1 X-70.964 Y9.445 Z-0.444 F420.000
G1 X-70.838 Y9.267 Z-0.463 F420.000
G1 X-70.680 Y9.116 Z-0.483 F420.000
G1 X-70.495 Y9.000 Z-0.502 F420.000
G1 X-70.291 Y8.922 Z-0.521 F420.000
G1 X-70.076 Y8.885 Z-0.541 F420.000
G1 X-69.857 Y8.891 Z-0.560 F420.000
G1 X-69.644 Y8.939 Z-0.579 F420.000
G1 X-69.445 Y9.028 Z-0.599 F420.000
G1 X-69.267 Y9.154 Z-0.618 F420.000
G1 X-69.116 Y9.313 Z-0.637 F420.000
G1 X-69.000 Y9.498 Z-0.657 F420.000
G1 X-68.922 Y9.701 Z-0.676 F420.000
G1 X-68.885 Y9.917 Z-0.695 F420.000
G1 X-68.891 Y10.135 Z-0.714 F420.000
G1 X-68.939 Y10.348 Z-0.734 F420.000
G1 X-69.028 Y10.547 Z-0.753 F420.000
G1 X-69.154 Y10.726 Z-0.772 F420.000
G1 X-69.313 Y10.876 Z-0.792 F420.000
G1 X-69.498 Y10.992 Z-0.811 F420.000
G1 X-69.701 Y11.071 Z-0.830 F420.000
G1 X-69.917 Y11.107 Z-0.850 F420.000
G1 X-70.135 Y11.102 Z-0.869 F420.000
G1 X-70.348 Y11.053 Z-0.888 F420.000
G1 X-70.547 Y10.964 Z-0.908 F420.000
G1 X-70.726 Y10.838 Z-0.927 F420.000
G1 X-70.876 Y10.680 Z-0.946 F420.000
G1 X-70.992 Y10.495 Z-0.965 F420.000
G1 X-71.071 Y10.291 Z-0.985 F420.000
G1 X-71.107 Y10.076 Z-1.004 F420.000
G1 X-71.102 Y9.857 Z-1.023 F420.000
G1 X-71.053 Y9.644 Z-1.043 F420.000
G1 X-70.964 Y9.445 Z-1.062 F420.000
G1 X-70.838 Y9.267 Z-1.081 F420.000
G1 X-70.680 Y9.116 Z-1.101 F420.000
G1 X-70.495 Y9.000 Z-1.120 F420.000
G1 X-70.291 Y8.922 Z-1.139 F420.000
G1 X-70.076 Y8.885 Z-1.159 F420.000
G1 X-69.857 Y8.891 Z-1.178 F420.000
G1 X-69.644 Y8.939 Z-1.197 F420.000
G1 X-69.445 Y9.028 Z-1.216 F420.000
G1 X-69.267 Y9.154 Z-1.236 F420.000
G1 X-69.116 Y9.313 Z-1.255 F420.000
G1 X-69.000 Y9.498 Z-1.274 F420.000
G1 X-68.922 Y9.701 Z-1.294 F420.000
G1 X-68.885 Y9.917 Z-1.313 F420.000
G1 X-68.891 Y10.135 Z-1.332 F420.000
G1 X-68.939 Y10.348 Z-1.352 F420.000
G1 X-69.028 Y10.547 Z-1.371 F420.000
G1 X-69.154 Y10.726 Z-1.390 F420.000
G1 X-69.313 Y10.876 Z-1.410 F420.000
G1 X-69.498 Y10.992 Z-1.429 F420.000
G1 X-69.701 Y11.071 Z-1.448 F420.000
G1 X-69.917 Y11.107 Z-1.468 F420.000
G1 X-70.135 Y11.102 Z-1.487 F420.000
G1 X-70.348 Y11.053 Z-1.506 F420.000
G1 X-70.547 Y10.964 Z-1.525 F420.000
G1 X-70.726 Y10.838 Z-1.545 F420.000
G1 X-70.876 Y10.680 Z-1.564 F420.000
G1 X-70.992 Y10.495 Z-1.583 F420.000
G1 X-71.071 Y10.291 Z-1.603 F420.000
G1 X-71.107 Y10.076 Z-1.622 F420.000
G1 X-71.102 Y9.857 Z-1.641 F420.000
G1 X-71.053 Y9.644 Z-1.661 F420.000
G1 X-70.964 Y9.445 Z-1.680 F420.000
G1 X-70.838 Y9.267 Z-1.699 F420.000
G1 X-70.680 Y9.116 Z-1.719 F420.000
G1 X-70.495 Y9.000 Z-1.738 F420.000
G1 X-70.291 Y8.922 Z-1.757 F420.000
G1 X-70.076 Y8.885 Z-1.776 F420.000
G1 X-69.857 Y8.891 Z-1.796 F420.000
G1 X-69.644 Y8.939 Z-1.815 F420.000
G1 X-69.445 Y9.028 Z-1.834 F420.000
G1 X-69.267 Y9.154 Z-1.854 F420.000
G1 X-69.116 Y9.313 Z-1.873 F420.000
G1 X-69.000 Y9.498 Z-1.892 F420.000
G1 X-68.922 Y9.701 Z-1.912 F420.000
G1 X-68.885 Y9.917 Z-1.931 F420.000
G1 X-68.891 Y10.135 Z-1.950 F420.000
G1 X-68.939 Y10.348 Z-1.970 F420.000
G1 X-69.028 Y10.547 Z-1.989 F420.000
G1 X-69.154 Y10.726 Z-2.008 F420.000
G1 X-69.313 Y10.876 Z-2.027 F420.000
G1 X-69.498 Y10.992 Z-2.047 F420.000
G1 X-69.701 Y11.071 Z-2.066 F420.000
G1 X-69.917 Y11.107 Z-2.085 F420.000
G1 X-70.135 Y11.102 Z-2.105 F420.000
G1 X-70.348 Y11.053 Z-2.124 F420.000
G1 X-70.547 Y10.964 Z-2.143 F420.000
G1 X-70.726 Y10.838 Z-2.163 F420.000
G1 X-70.876 Y10.680 Z-2.182 F420.000
G1 X-70.992 Y10.495 Z-2.201 F420.000
G1 X-71.071 Y10.291 Z-2.221 F420.000
G1 X-71.107 Y10.076 Z-2.240 F420.000
G1 X-71.102 Y9.857 Z-2.259 F420.000
G1 X-71.053 Y9.644 Z-2.279 F420.000
G1 X-70.964 Y9.445 Z-2.298 F420.000
G1 X-70.838 Y9.267 Z-2.317 F420.000
G1 X-70.680 Y9.116 Z-2.336 F420.000
G1 X-70.495 Y9.000 Z-2.356 F420.000
G1 X-70.291 Y8.922 Z-2.375 F420.000
G1 X-70.076 Y8.885 Z-2.394 F420.000
G1 X-69.857 Y8.891 Z-2.414 F420.000
G1 X-69.644 Y8.939 Z-2.433 F420.000
G1 X-69.445 Y9.028 Z-2.452 F420.000
G1 X-69.267 Y9.154 Z-2.472 F420.000
G1 X-69.116 Y9.313 Z-2.491 F420.000
G1 X-69.000 Y9.498 Z-2.510 F420.000
G1 X-68.922 Y9.701 Z-2.530 F420.000
G1 X-68.885 Y9.917 Z-2.549 F420.000
G1 X-68.891 Y10.135 Z-2.568 F420.000
G1 X-68.939 Y10.348 Z-2.587 F420.000
G1 X-69.028 Y10.547 Z-2.607 F420.000
G1 X-69.154 Y10.726 Z-2.626 F420.000
G1 X-69.313 Y10.876 Z-2.645 F420.000
G1 X-69.498 Y10.992 Z-2.665 F420.000
G1 X-69.701 Y11.071 Z-2.684 F420.000
G1 X-69.917 Y11.107 Z-2.703 F420.000
G1 X-70.135 Y11.102 Z-2.723 F420.000
G1 X-70.348 Y11.053 Z-2.742 F420.000
G1 X-70.547 Y10.964 Z-2.761 F420.000
G1 X-70.726 Y10.838 Z-2.781 F420.000
G1 X-70.876 Y10.680 Z-2.800 F420.000
G1 X-70.992 Y10.495 Z-2.819 F420.000
G1 X-71.071 Y10.291 Z-2.838 F420.000
G1 X-71.107 Y10.076 Z-2.858 F420.000
G1 X-71.102 Y9.857 Z-2.877 F420.000
G1 X-71.053 Y9.644 Z-2.896 F420.000
G1 X-70.964 Y9.445 Z-2.916 F420.000
G1 X-70.838 Y9.267 Z-2.935 F420.000
G1 X-70.680 Y9.116 Z-2.954 F420.000
G1 X-70.495 Y9.000 Z-2.974 F420.000
G1 X-70.291 Y8.922 Z-2.993 F420.000
G1 X-70.076 Y8.885 Z-3.000 F420.000
G1 X-69.857 Y8.891 Z-3.000 F420.000
G1 X-69.644 Y8.939 Z-3.000 F420.000
G1 X-69.445 Y9.028 Z-3.000 F420.000
G1 X-69.267 Y9.154 Z-3.000 F420.000
G1 X-69.116 Y9.313 Z-3.000 F420.000
G1 X-69.000 Y9.498 Z-3.000 F420.000
G1 X-68.922 Y9.701 Z-3.000 F420.000
G1 X-68.885 Y9.917 Z-3.000 F420.000
G1 X-68.891 Y10.135 Z-3.000 F420.000
G1 X-68.939 Y10.348 Z-3.000 F420.000
G1 X-69.028 Y10.547 Z-3.000 F420.000
G1 X-69.154 Y10.726 Z-3.000 F420.000
G1 X-69.313 Y10.876 Z-3.000 F420.000
G1 X-69.498 Y10.992 Z-3.000 F420.000
G1 X-69.701 Y11.071 Z-3.000 F420.000
G1 X-69.917 Y11.107 Z-3.000 F420.000
G1 X-70.135 Y11.102 Z-3.000 F420.000
G1 X-70.348 Y11.053 Z-3.000 F420.000
G1 X-70.547 Y10.964 Z-3.000 F420.000
G1 X-70.726 Y10.838 Z-3.000 F420.000
G1 X-70.876 Y10.680 Z-3.000 F420.000
G1 X-70.992 Y10.495 Z-3.000 F420.000
G1 X-71.071 Y10.291 Z-3.000 F420.000
G1 X-71.107 Y10.076 Z-3.000 F420.000
G1 X-71.102 Y9.857 Z-3.000 F420.000
G1 X-71.053 Y9.644 Z-3.000 F420.000
G1 X-70.964 Y9.445 Z-3.000 F420.000
G1 X-70.838 Y9.267 Z-3.000 F420.000
G1 X-70.680 Y9.116 Z-3.000 F420.000
G1 X-70.495 Y9.000 Z-3.000 F420.000
G1 X-70.291 Y8.922 Z-3.000 F420.000
(Adaptive - depth: -3.000000)
G1 X-69.996 Y8.872 F420.000
G1 X-69.951 Y8.827 F420.000
G1 X-69.774 Y8.767 F420.000
G1 X-69.594 Y8.756 F420.000
G1 X-69.474 Y8.774 F420.000
G1 X-69.158 Y8.906 F420.000
G1 X-68.985 Y9.041 F420.000
G1 X-68.887 Y9.143 F420.000
G1 X-68.793 Y9.267 F420.000
G1 X-68.699 Y9.436 F420.000
G1 X-68.620 Y9.650 F420.000
G1 X-68.575 Y9.857 F420.000
G1 X-68.568 Y10.064 F420.000
G1 X-68.586 Y10.241 F420.000
G1 X-68.635 Y10.432 F420.000
G1 X-68.707 Y10.613 F420.000
G1 X-68.820 Y10.805 F420.000
G1 X-68.947 Y10.962 F420.000
G1 X-69.098 Y11.102 F420.000
G1 X-69.271 Y11.218 F420.000
G1 X-69.459 Y11.312 F420.000
G1 X-69.658 Y11.376 F420.000
G1 X-69.865 Y11.406 F420.000
G1 X-70.049 Y11.414 F420.000
G1 X-70.271 Y11.387 F420.000
G1 X-70.470 Y11.331 F420.000
G1 X-70.658 Y11.252 F420.000
G1 X-70.835 Y11.135 F420.000
G1 X-70.977 Y11.011 F420.000
G1 X-71.109 Y10.857 F420.000
G1 X-71.218 Y10.688 F420.000
G1 X-71.308 Y10.489 F420.000
G1 X-71.365 Y10.289 F420.000
G1 X-71.395 Y10.083 F420.000
G1 X-71.395 Y9.872 F420.000
G1 X-71.365 Y9.665 F420.000
G1 X-71.305 Y9.462 F420.000
G1 X-71.211 Y9.271 F420.000
G1 X-71.105 Y9.113 F420.000
G1 X-70.966 Y8.959 F420.000
G1 X-70.808 Y8.831 F420.000
G1 X-70.643 Y8.718 F420.000
G1 X-70.421 Y8.594 F420.000
G1 X-70.143 Y8.485 F420.000
G1 X-69.842 Y8.429 F420.000
G1 X-69.782 Y8.425 F420.000
G1 X-69.410 Y8.462 F420.000
G1 X-69.086 Y8.586 F420.000
G1 X-68.947 Y8.669 F420.000
G1 X-68.823 Y8.759 F420.000
G1 X-68.684 Y8.891 F420.000
G1 X-68.534 Y9.079 F420.000
G1 X-68.410 Y9.286 F420.000
G1 X-68.320 Y9.489 F420.000
G1 X-68.263 Y9.714 F420.000
G1 X-68.237 Y9.910 F420.000
G1 X-68.233 Y10.124 F420.000
G1 X-68.267 Y10.365 F420.000
G1 X-68.323 Y10.571 F420.000
G1 X-68.410 Y10.778 F420.000
G1 X-68.526 Y10.974 F420.000
G1 X-68.662 Y11.150 F420.000
G1 X-68.823 Y11.308 F420.000
G1 X-69.000 Y11.447 F420.000
G1 X-69.211 Y11.571 F420.000
G1 X-69.421 Y11.662 F420.000
G1 X-69.650 Y11.718 F420.000
G1 X-69.857 Y11.744 F420.000
G1 X-70.079 Y11.748 F420.000
G1 X-70.320 Y11.714 F420.000
G1 X-70.538 Y11.658 F420.000
G1 X-70.752 Y11.571 F420.000
G1 X-70.955 Y11.455 F420.000
G1 X-71.135 Y11.308 F420.000
G1 X-71.271 Y11.165 F420.000
G1 X-71.402 Y10.992 F420.000
G1 X-71.526 Y10.782 F420.000
G1 X-71.628 Y10.541 F420.000
G1 X-71.684 Y10.305 F420.000
G1 X-71.711 Y10.105 F420.000
G1 X-71.714 Y9.876 F420.000
G1 X-71.680 Y9.624 F420.000
G1 X-71.624 Y9.402 F420.000
G1 X-71.538 Y9.184 F420.000
G1 X-71.410 Y8.981 F420.000
G1 X-71.289 Y8.827 F420.000
G1 X-71.139 Y8.665 F420.000
G1 X-70.940 Y8.496 F420.000
G1 X-70.699 Y8.331 F420.000
G1 X-70.440 Y8.211 F420.000
G1 X-70.233 Y8.147 F420.000
G1 X-70.023 Y8.105 F420.000
G1 X-69.789 Y8.083 F420.000
G1 X-69.508 Y8.098 F420.000
G1 X-69.274 Y8.147 F420.000
G1 X-69.079 Y8.207 F420.000
G1 X-68.865 Y8.312 F420.000
G1 X-68.673 Y8.432 F420.000
G1 X-68.485 Y8.590 F420.000
G1 X-68.323 Y8.763 F420.000
G1 X-68.184 Y8.955 F420.000
G1 X-68.071 Y9.162 F420.000
G1 X-67.981 Y9.380 F420.000
G1 X-67.914 Y9.632 F420.000
G1 X-67.880 Y9.872 F420.000
G1 X-67.872 Y10.117 F420.000
G1 X-67.895 Y10.365 F420.000
G1 X-67.947 Y10.605 F420.000
G1 X-68.030 Y10.842 F420.000
G1 X-68.139 Y11.068 F420.000
G1 X-68.274 Y11.274 F420.000
G1 X-68.436 Y11.466 F420.000
G1 X-68.617 Y11.635 F420.000
G1 X-68.816 Y11.782 F420.000
G1 X-69.034 Y11.906 F420.000
G1 X-69.263 Y12.000 F420.000
G1 X-69.504 Y12.068 F420.000
G1 X-69.752 Y12.105 F420.000
G1 X-70.000 Y12.113 F420.000
G1 X-70.248 Y12.090 F420.000
G1 X-70.492 Y12.045 F420.000
G1 X-70.759 Y11.959 F420.000
G1 X-70.992 Y11.846 F420.000
G1 X-71.180 Y11.722 F420.000
G1 X-71.353 Y11.575 F420.000
G1 X-71.519 Y11.406 F420.000
G1 X-71.692 Y11.184 F420.000
G1 X-71.835 Y10.947 F420.000
G1 X-71.936 Y10.703 F420.000
G1 X-72.004 Y10.485 F420.000
G1 X-72.053 Y10.237 F420.000
G1 X-72.068 Y9.966 F420.000
G1 X-72.056 Y9.718 F420.000
G1 X-72.008 Y9.466 F420.000
G1 X-71.940 Y9.248 F420.000
G1 X-71.838 Y9.023 F420.000
G1 X-71.718 Y8.812 F420.000
G1 X-71.545 Y8.571 F420.000
G1 X-71.350 Y8.357 F420.000
G1 X-71.139 Y8.177 F420.000
G1 X-70.932 Y8.030 F420.000
G1 X-70.688 Y7.910 F420.000
G1 X-70.470 Y7.827 F420.000
G1 X-70.229 Y7.759 F420.000
G1 X-69.947 Y7.718 F420.000
G1 X-69.673 Y7.707 F420.000
G1 X-69.406 Y7.726 F420.000
G1 X-69.139 Y7.786 F420.000
G1 X-68.929 Y7.857 F420.000
G1 X-68.699 Y7.966 F420.000
G1 X-68.485 Y8.094 F420.000
G1 X-68.263 Y8.267 F420.000
G1 X-68.079 Y8.447 F420.000
G1 X-67.914 Y8.650 F420.000
G1 X-67.632 Y9.135 F420.000
G1 X-67.500 Y9.526 F420.000
G1 X-67.429 Y10.090 F420.000
G1 X-67.451 Y10.429 F420.000
G1 X-67.590 Y10.929 F420.000
G1 X-67.737 Y11.241 F420.000
G1 X-68.004 Y11.617 F420.000
G1 X-68.335 Y11.936 F420.000
G1 X-68.714 Y12.188 F420.000
G1 X-69.147 Y12.365 F420.000
G1 X-69.711 Y12.474 F420.000
G1 X-70.135 Y12.485 F420.000
G1 X-70.613 Y12.402 F420.000
G1 X-70.962 Y12.278 F420.000
G1 X-71.207 Y12.154 F420.000
G1 X-71.391 Y12.026 F420.000
G1 X-71.564 Y11.887 F420.000
G1 X-71.774 Y11.684 F420.000
G1 X-71.977 Y11.429 F420.000
G1 X-72.128 Y11.199 F420.000
G1 X-72.252 Y10.929 F420.000
G1 X-72.327 Y10.707 F420.000
G1 X-72.391 Y10.451 F420.000
G1 X-72.432 Y10.162 F420.000
G1 X-72.444 Y9.850 F420.000
G1 X-72.406 Y9.560 F420.000
G1 X-72.361 Y9.346 F420.000
G1 X-72.278 Y9.090 F420.000
G1 X-72.165 Y8.827 F420.000
G1 X-72.011 Y8.556 F420.000
G1 X-71.805 Y8.271 F420.000
G1 X-71.436 Y7.925 F420.000
G1 X-71.023 Y7.643 F420.000
G1 X-70.568 Y7.440 F420.000
G1 X-70.086 Y7.320 F420.000
G1 X-69.545 Y7.289 F420.000
G1 X-69.124 Y7.342 F420.000
G1 X-68.658 Y7.492 F420.000
G1 X-68.229 Y7.722 F420.000
G1 X-67.853 Y8.023 F420.000
G1 X-67.500 Y8.429 F420.000
G1 X-67.368 Y8.628 F420.000
G1 X-67.199 Y9.000 F420.000
G1 X-67.102 Y9.338 F420.000
G1 X-67.034 Y9.789 F420.000
G1 X-67.038 Y10.241 F420.000
G1 X-67.098 Y10.635 F420.000
G1 X-67.195 Y10.974 F420.000
G1 X-67.459 Y11.545 F420.000
G1 X-67.729 Y11.917 F420.000
G1 X-68.102 Y12.274 F420.000
G1 X-68.383 Y12.470 F420.000
G1 X-68.850 Y12.695 F420.000
G1 X-69.410 Y12.842 F420.000
G1 X-70.030 Y12.883 F420.000
G1 X-70.538 Y12.820 F420.000
G1 X-71.038 Y12.650 F420.000
G1 X-71.353 Y12.481 F420.000
G1 X-71.737 Y12.203 F420.000
G1 X-72.147 Y11.771 F420.000
G1 X-72.410 Y11.361 F420.000
G1 X-72.620 Y10.861 F420.000
G1 X-72.737 Y10.380 F420.000
G1 X-72.771 Y9.838 F420.000
G1 X-72.699 Y9.297 F420.000
G1 X-72.500 Y8.707 F420.000
G1 X-72.387 Y8.481 F420.000
G1 X-72.143 Y8.117 F420.000
G1 X-71.711 Y7.662 F420.000
G1 X-71.357 Y7.398 F420.000
G1 X-71.030 Y7.214 F420.000
G1 X-70.549 Y7.075 F420.000
G1 X-70.128 Y7.030 F420.000
G1 X-69.647 Y7.049 F420.000
G1 X-69.286 Y7.113 F420.000
G1 X-68.925 Y7.222 F420.000
G1 X-68.436 Y7.474 F420.000
G1 X-68.188 Y7.643 F420.000
G1 X-68.188 Y7.643 F420.000
G1 X-68.180 Y7.662 F420.000
G0 X-68.184 Y7.680
G1 X-68.195 Y7.692 F420.000
G1 X-68.195 Y7.688 F420.000
G1 X-68.199 Y7.692 F420.000
G1 X-68.195 Y7.673 F420.000
G1 X-68.150 Y7.669 F420.000
G1 X-68.150 Y7.669 F420.000
G1 X-67.883 Y7.910 F420.000
G1 X-67.883 Y7.910 F420.000
G1 X-67.805 Y8.045 F420.000
G1 X-67.793 Y8.105 F420.000
G0 X-67.793 Y8.132
G0 X-68.489 Y12.278
G1 X-68.496 Y12.320 F420.000
G1 X-68.545 Y12.508 F420.000
G1 X-68.620 Y12.613 F420.000
G1 X-68.699 Y12.673 F420.000
G1 X-68.699 Y12.673 F420.000
G1 X-68.910 Y12.771 F420.000
G1 X-69.474 Y12.925 F420.000
G1 X-69.812 Y12.966 F420.000
G1 X-70.263 Y12.955 F420.000
G1 X-70.714 Y12.880 F420.000
G1 X-71.053 Y12.778 F420.000
G1 X-71.575 Y12.511 F420.000
G1 X-71.914 Y12.267 F420.000
G1 X-72.135 Y12.064 F420.000
G1 X-72.297 Y11.883 F420.000
G1 X-72.541 Y11.541 F420.000
G1 X-72.801 Y10.989 F420.000
G1 X-72.925 Y10.519 F420.000
G1 X-72.966 Y10.218 F420.000
G1 X-72.966 Y9.797 F420.000
G1 X-72.891 Y9.316 F420.000
G1 X-72.729 Y8.835 F420.000
G1 X-72.564 Y8.496 F420.000
G1 X-72.229 Y8.038 F420.000
G1 X-71.823 Y7.654 F420.000
G1 X-71.511 Y7.440 F420.000
G1 X-71.511 Y7.436 F420.000
G1 X-71.492 Y7.432 F420.000
G0 X-71.481 Y7.436
G0 X-71.485 Y7.474
G0 X-71.496 Y7.492
G1 X-71.519 Y7.504 F420.000
G1 X-71.568 Y7.508 F420.000
G1 X-71.598 Y7.492 F420.000
G1 X-71.598 Y7.462 F420.000
G1 X-71.598 Y7.462 F420.000
G1 X-71.327 Y7.308 F420.000
G1 X-71.162 Y7.229 F420.000
G1 X-71.019 Y7.173 F420.000
G1 X-70.556 Y7.049 F420.000
G1 X-70.274 Y7.011 F420.000
G1 X-70.026 Y7.000 F420.000
G1 X-69.699 Y7.015 F420.000
G1 X-69.361 Y7.071 F420.000
G1 X-68.925 Y7.195 F420.000
G1 X-68.752 Y7.271 F420.000
G1 X-68.429 Y7.447 F420.000
G1 X-68.117 Y7.665 F420.000
G1 X-67.868 Y7.887 F420.000
G1 X-67.647 Y8.132 F420.000
G1 X-67.387 Y8.523 F420.000
G1 X-67.282 Y8.726 F420.000
G1 X-67.154 Y9.045 F420.000
G1 X-67.079 Y9.305 F420.000
G1 X-67.015 Y9.688 F420.000
G1 X-67.004 Y9.865 F420.000
G1 X-67.019 Y10.312 F420.000
G1 X-67.038 Y10.462 F420.000
G1 X-67.105 Y10.774 F420.000
G1 X-67.241 Y11.162 F420.000
G1 X-67.372 Y11.447 F420.000
G1 X-67.451 Y11.583 F420.000
G1 X-67.654 Y11.868 F420.000
G1 X-67.820 Y12.056 F420.000
G1 X-68.008 Y12.237 F420.000
G1 X-68.188 Y12.383 F420.000
G1 X-68.451 Y12.568 F420.000
G1 X-68.774 Y12.741 F420.000
G1 X-68.910 Y12.801 F420.000
G1 X-69.113 Y12.865 F420.000
G1 X-69.489 Y12.955 F420.000
G1 X-69.805 Y12.992 F420.000
G1 X-70.177 Y12.989 F420.000
G1 X-70.380 Y12.970 F420.000
G1 X-70.617 Y12.929 F420.000
G1 X-71.075 Y12.797 F420.000
G1 X-71.226 Y12.729 F420.000
G1 X-71.590 Y12.534 F420.000
G1 X-71.898 Y12.316 F420.000
G1 X-72.150 Y12.090 F420.000
G1 X-72.305 Y11.917 F420.000
G1 X-72.545 Y11.586 F420.000
G1 X-72.635 Y11.429 F420.000
G1 X-72.756 Y11.177 F420.000
G1 X-72.835 Y10.974 F420.000
G1 X-72.925 Y10.658 F420.000
G1 X-72.974 Y10.383 F420.000
G1 X-73.000 Y10.064 F420.000
G1 X-72.996 Y9.853 F420.000
G1 X-72.966 Y9.602 F420.000
G1 X-72.914 Y9.305 F420.000
G1 X-72.797 Y8.936 F420.000
G1 X-72.737 Y8.786 F420.000
G1 X-72.594 Y8.492 F420.000
G1 X-72.342 Y8.128 F420.000
G1 X-72.184 Y7.947 F420.000
G1 X-71.914 Y7.695 F420.000
G1 X-71.598 Y7.462 F420.000
G1 X-71.598 Y7.462 F420.000
G0 Z15.000
(Helix to depth: -6.000000)
G0 Z15.000
G0 X-9.267 Y69.154 Z15.000
G0 X-9.267 Y69.154 Z3.000
G1 X-9.267 Y69.154 Z-3.000 F420.000
G1 X-9.267 Y69.154 Z-3.000 F420.000
G1 X-9.116 Y69.313 Z-3.019 F420.000
G1 X-9.000 Y69.498 Z-3.039 F420.000
G1 X-8.922 Y69.701 Z-3.058 F420.000
G1 X-8.885 Y69.917 Z-3.077 F420.000
G1 X-8.891 Y70.135 Z-3.097 F420.000
G1 X-8.939 Y70.348 Z-3.116 F420.000
G1 X-9.028 Y70.547 Z-3.135 F420.000
G1 X-9.154 Y70.726 Z-3.154 F420.000
G1 X-9.313 Y70.876 Z-3.174 F420.000
G1 X-9.498 Y70.992 Z-3.193 F420.000
G1 X-9.701 Y71.071 Z-3.212 F420.000
G1 X-9.917 Y71.107 Z-3.232 F420.000
G1 X-10.135 Y71.102 Z-3.251 F420.000
G1 X-10.348 Y71.053 Z-3.270 F420.000
G1 X-10.547 Y70.964 Z-3.290 F420.000
G1 X-10.726 Y70.838 Z-3.309 F420.000
G1 X-10.876 Y70.680 Z-3.328 F420.000
G1 X-10.992 Y70.495 Z-3.348 F420.000
G1 X-11.071 Y70.291 Z-3.367 F420.000
G1 X-11.107 Y70.076 Z-3.386 F420.000
G1 X-11.102 Y69.857 Z-3.405 F420.000
G1 X-11.053 Y69.644 Z-3.425 F420.000
G1 X-10.964 Y69.445 Z-3.444 F420.000
G1 X-10.838 Y69.267 Z-3.463 F420.000
G1 X-10.680 Y69.116 Z-3.483 F420.000
G1 X-10.495 Y69.000 Z-3.502 F420.000
G1 X-10.291 Y68.922 Z-3.521 F420.000
G1 X-10.076 Y68.885 Z-3.541 F420.000
G1 X-9.857 Y68.891 Z-3.560 F420.000
G1 X-9.644 Y68.939 Z-3.579 F420.000
G1 X-9.445 Y69.028 Z-3.599 F420.000
G1 X-9.267 Y69.154 Z-3.618 F420.000
G1 X-9.116 Y69.313 Z-3.637 F420.000
G1 X-9.000 Y69.498 Z-3.657 F420.000
G1 X-8.922 Y69.701 Z-3.676 F420.000
G1 X-8.885 Y69.917 Z-3.695 F420.000
G1 X-8.891 Y70.135 Z-3.714 F420.000
G1 X-8.939 Y70.348 Z-3.734 F420.000
G1 X-9.028 Y70.547 Z-3.753 F420.000
G1 X-9.154 Y70.726 Z-3.772 F420.000
G1 X-9.313 Y70.876 Z-3.792 F420.000
G1 X-9.498 Y70.992 Z-3.811 F420.000
G1 X-9.701 Y71.071 Z-3.830 F420.000
G1 X-9.917 Y71.107 Z-3.850 F420.000
G1 X-10.135 Y71.102 Z-3.869 F420.000
G1 X-10.348 Y71.053 Z-3.888 F420.000
G1 X-10.547 Y70.964 Z-3.908 F420.000
G1 X-10.726 Y70.838 Z-3.927 F420.000
G1 X-10.876 Y70.680 Z-3.946 F420.000
G1 X-10.992 Y70.495 Z-3.965 F420.000
G1 X-11.071 Y70.291 Z-3.985 F420.000
G1 X-11.107 Y70.076 Z-4.004 F420.000
G1 X-11.102 Y69.857 Z-4.023 F420.000
G1 X-11.053 Y69.644 Z-4.043 F420.000
G1 X-10.964 Y69.445 Z-4.062 F420.000
G1 X-10.838 Y69.267 Z-4.081 F420.000
G1 X-10.680 Y69.116 Z-4.101 F420.000
G1 X-10.495 Y69.000 Z-4.120 F420.000
G1 X-10.291 Y68.922 Z-4.139 F420.000
G1 X-10.076 Y68.885 Z-4.159 F420.000
G1 X-9.857 Y68.891 Z-4.178 F420.000
G1 X-9.644 Y68.939 Z-4.197 F420.000
G1 X-9.445 Y69.028 Z-4.216 F420.000
G1 X-9.267 Y69.154 Z-4.236 F420.000
G1 X-9.116 Y69.313 Z-4.255 F420.000
G1 X-9.000 Y69.498 Z-4.274 F420.000
G1 X-8.922 Y69.701 Z-4.294 F420.000
G1 X-8.885 Y69.917 Z-4.313 F420.000
G1 X-8.891 Y70.135 Z-4.332 F420.000
G1 X-8.939 Y70.348 Z-4.352 F420.000
G1 X-9.028 Y70.547 Z-4.371 F420.000
G1 X-9.154 Y70.726 Z-4.390 F420.000
G1 X-9.313 Y70.876 Z-4.410 F420.000
G1 X-9.498 Y70.992 Z-4.429 F420.000
G1 X-9.701 Y71.071 Z-4.448 F420.000
G1 X-9.917 Y71.107 Z-4.468 F420.000
G1 X-10.135 Y71.102 Z-4.487 F420.000
G1 X-10.348 Y71.053 Z-4.506 F420.000
G1 X-10.547 Y70.964 Z-4.525 F420.000
G1 X-10.726 Y70.838 Z-4.545 F420.000
G1 X-10.876 Y70.680 Z-4.564 F420.000
G1 X-10.992 Y70.495 Z-4.583 F420.000
G1 X-11.071 Y70.291 Z-4.603 F420.000
G1 X-11.107 Y70.076 Z-4.622 F420.000
G1 X-11.102 Y69.857 Z-4.641 F420.000
G1 X-11.053 Y69.644 Z-4.661 F420.000
G1 X-10.964 Y69.445 Z-4.680 F420.000
G1 X-10.838 Y69.267 Z-4.699 F420.000
G1 X-10.680 Y69.116 Z-4.719 F420.000
G1 X-10.495 Y69.000 Z-4.738 F420.000
G1 X-10.291 Y68.922 Z-4.757 F420.000
G1 X-10.076 Y68.885 Z-4.776 F420.000
G1 X-9.857 Y68.891 Z-4.796 F420.000
G1 X-9.644 Y68.939 Z-4.815 F420.000
G1 X-9.445 Y69.028 Z-4.834 F420.000
G1 X-9.267 Y69.154 Z-4.854 F420.000
G1 X-9.116 Y69.313 Z-4.873 F420.000
G1 X-9.000 Y69.498 Z-4.892 F420.000
G1 X-8.922 Y69.701 Z-4.912 F420.000
G1 X-8.885 Y69.917 Z-4.931 F420.000
G1 X-8.891 Y70.135 Z-4.950 F420.000
G1 X-8.939 Y70.348 Z-4.970 F420.000
G1 X-9.028 Y70.547 Z-4.989 F420.000
G1 X-9.154 Y70.726 Z-5.008 F420.000
G1 X-9.313 Y70.876 Z-5.027 F420.000
G1 X-9.498 Y70.992 Z-5.047 F420.000
G1 X-9.701 Y71.071 Z-5.066 F420.000
G1 X-9.917 Y71.107 Z-5.085 F420.000
G1 X-10.135 Y71.102 Z-5.105 F420.000
G1 X-10.348 Y71.053 Z-5.124 F420.000
G1 X-10.547 Y70.964 Z-5.143 F420.000
G1 X-10.726 Y70.838 Z-5.163 F420.000
G1 X-10.876 Y70.680 Z-5.182 F420.000
G1 X-10.992 Y70.495 Z-5.201 F420.000
G1 X-11.071 Y70.291 Z-5.221 F420.000
G1 X-11.107 Y70.076 Z-5.240 F420.000
G1 X-11.102 Y69.857 Z-5.259 F420.000
G1 X-11.053 Y69.644 Z-5.279 F420.000
G1 X-10.964 Y69.445 Z-5.298 F420.000
G1 X-10.838 Y69.267 Z-5.317 F420.000
G1 X-10.680 Y69.116 Z-5.336 F420.000
G1 X-10.495 Y69.000 Z-5.356 F420.000
G1 X-10.291 Y68.922 Z-5.375 F420.000
G1 X-10.076 Y68.885 Z-5.394 F420.000
G1 X-9.857 Y68.891 Z-5.414 F420.000
G1 X-9.644 Y68.939 Z-5.433 F420.000
G1 X-9.445 Y69.028 Z-5.452 F420.000
G1 X-9.267 Y69.154 Z-5.472 F420.000
G1 X-9.116 Y69.313 Z-5.491 F420.000
G1 X-9.000 Y69.498 Z-5.510 F420.000
G1 X-8.922 Y69.701 Z-5.530 F420.000
G1 X-8.885 Y69.917 Z-5.549 F420.000
G1 X-8.891 Y70.135 Z-5.568 F420.000
G1 X-8.939 Y70.348 Z-5.587 F420.000
G1 X-9.028 Y70.547 Z-5.607 F420.000
G1 X-9.154 Y70.726 Z-5.626 F420.000
G1 X-9.313 Y70.876 Z-5.645 F420.000
G1 X-9.498 Y70.992 Z-5.665 F420.000
G1 X-9.701 Y71.071 Z-5.684 F420.000
G1 X-9.917 Y71.107 Z-5.703 F420.000
G1 X-10.135 Y71.102 Z-5.723 F420.000
G1 X-10.348 Y71.053 Z-5.742 F420.000
G1 X-10.547 Y70.964 Z-5.761 F420.000
G1 X-10.726 Y70.838 Z-5.781 F420.000
G1 X-10.876 Y70.680 Z-5.800 F420.000
G1 X-10.992 Y70.495 Z-5.819 F420.000
G1 X-11.071 Y70.291 Z-5.838 F420.000
G1 X-11.107 Y70.076 Z-5.858 F420.000
G1 X-11.102 Y69.857 Z-5.877 F420.000
G1 X-11.053 Y69.644 Z-5.896 F420.000
G1 X-10.964 Y69.445 Z-5.916 F420.000
G1 X-10.838 Y69.267 Z-5.935 F420.000
G1 X-10.680 Y69.116 Z-5.954 F420.000
G1 X-10.495 Y69.000 Z-5.974 F420.000
G1 X-10.291 Y68.922 Z-5.993 F420.000
G1 X-10.076 Y68.885 Z-6.000 F420.000
G1 X-9.857 Y68.891 Z-6.000 F420.000
G1 X-9.644 Y68.939 Z-6.000 F420.000
G1 X-9.445 Y69.028 Z-6.000 F420.000
G1 X-9.267 Y69.154 Z-6.000 F420.000
G1 X-9.116 Y69.313 Z-6.000 F420.000
G1 X-9.000 Y69.498 Z-6.000 F420.000
G1 X-8.922 Y69.701 Z-6.000 F420.000
G1 X-8.885 Y69.917 Z-6.000 F420.000
G1 X-8.891 Y70.135 Z-6.000 F420.000
G1 X-8.939 Y70.348 Z-6.000 F420.000
G1 X-9.028 Y70.547 Z-6.000 F420.000
G1 X-9.154 Y70.726 Z-6.000 F420.000
G1 X-9.313 Y70.876 Z-6.000 F420.000
G1 X-9.498 Y70.992 Z-6.000 F420.000
G1 X-9.701 Y71.071 Z-6.000 F420.000
G1 X-9.917 Y71.107 Z-6.000 F420.000
G1 X-10.135 Y71.102 Z-6.000 F420.000
G1 X-10.348 Y71.053 Z-6.000 F420.000
G1 X-10.547 Y70.964 Z-6.000 F420.000
G1 X-10.726 Y70.838 Z-6.000 F420.000
G1 X-10.876 Y70.680 Z-6.000 F420.000
G1 X-10.992 Y70.495 Z-6.000 F420.000
G1 X-11.071 Y70.291 Z-6.000 F420.000
G1 X-11.107 Y70.076 Z-6.000 F420.000
G1 X-11.102 Y69.857 Z-6.000 F420.000
G1 X-11.053 Y69.644 Z-6.000 F420.000
G1 X-10.964 Y69.445 Z-6.000 F420.000
G1 X-10.838 Y69.267 Z-6.000 F420.000
G1 X-10.680 Y69.116 Z-6.000 F420.000
G1 X-10.495 Y69.000 Z-6.000 F420.000
G1 X-10.291 Y68.922 Z-6.000 F420.000
(Adaptive - depth: -6.000000)
G1 X-9.996 Y68.872 F420.000
G1 X-9.951 Y68.827 F420.000
G1 X-9.774 Y68.767 F420.000
G1 X-9.594 Y68.756 F420.000
G1 X-9.474 Y68.774 F420.000
G1 X-9.169 Y68.902 F420.000
G1 X-8.989 Y69.045 F420.000
G1 X-8.891 Y69.143 F420.000
G1 X-8.793 Y69.271 F420.000
G1 X-8.695 Y69.447 F420.000
G1 X-8.620 Y69.662 F420.000
G1 X-8.579 Y69.846 F420.000
G1 X-8.564 Y70.049 F420.000
G1 X-8.583 Y70.256 F420.000
G1 X-8.635 Y70.451 F420.000
G1 X-8.707 Y70.620 F420.000
G1 X-8.805 Y70.793 F420.000
G1 X-8.947 Y70.970 F420.000
G1 X-9.094 Y71.105 F420.000
G1 X-9.263 Y71.226 F420.000
G1 X-9.451 Y71.320 F420.000
G1 X-9.650 Y71.380 F420.000
G1 X-9.838 Y71.410 F420.000
G1 X-10.038 Y71.417 F420.000
G1 X-10.259 Y71.387 F420.000
G1 X-10.459 Y71.335 F420.000
G1 X-10.650 Y71.252 F420.000
G1 X-10.835 Y71.139 F420.000
G1 X-10.992 Y71.000 F420.000
G1 X-11.120 Y70.857 F420.000
G1 X-11.229 Y70.684 F420.000
G1 X-11.312 Y70.496 F420.000
G1 X-11.372 Y70.305 F420.000
G1 X-11.402 Y70.083 F420.000
G1 X-11.402 Y69.876 F420.000
G1 X-11.368 Y69.669 F420.000
G1 X-11.312 Y69.489 F420.000
G1 X-11.226 Y69.308 F420.000
G1 X-11.117 Y69.139 F420.000
G1 X-10.966 Y68.970 F420.000
G1 X-10.808 Y68.835 F420.000
G1 X-10.632 Y68.714 F420.000
G1 X-10.421 Y68.598 F420.000
G1 X-10.109 Y68.477 F420.000
G1 X-9.868 Y68.432 F420.000
G1 X-9.808 Y68.429 F420.000
G1 X-9.436 Y68.462 F420.000
G1 X-9.117 Y68.575 F420.000
G1 X-8.966 Y68.658 F420.000
G1 X-8.835 Y68.748 F420.000
G1 X-8.688 Y68.883 F420.000
G1 X-8.541 Y69.056 F420.000
G1 X-8.414 Y69.259 F420.000
G1 X-8.323 Y69.459 F420.000
G1 X-8.256 Y69.677 F420.000
G1 X-8.226 Y69.902 F420.000
G1 X-8.222 Y70.105 F420.000
G1 X-8.248 Y70.323 F420.000
G1 X-8.301 Y70.534 F420.000
G1 X-8.387 Y70.748 F420.000
G1 X-8.496 Y70.944 F420.000
G1 X-8.628 Y71.124 F420.000
G1 X-8.801 Y71.305 F420.000
G1 X-8.981 Y71.451 F420.000
G1 X-9.184 Y71.568 F420.000
G1 X-9.372 Y71.647 F420.000
G1 X-9.586 Y71.711 F420.000
G1 X-9.823 Y71.748 F420.000
G1 X-10.060 Y71.752 F420.000
G1 X-10.293 Y71.722 F420.000
G1 X-10.500 Y71.669 F420.000
G1 X-10.714 Y71.590 F420.000
G1 X-10.932 Y71.470 F420.000
G1 X-11.117 Y71.335 F420.000
G1 X-11.282 Y71.165 F420.000
G1 X-11.406 Y71.004 F420.000
G1 X-11.519 Y70.812 F420.000
G1 X-11.609 Y70.613 F420.000
G1 X-11.684 Y70.357 F420.000
G1 X-11.722 Y70.124 F420.000
G1 X-11.722 Y69.887 F420.000
G1 X-11.699 Y69.684 F420.000
G1 X-11.643 Y69.466 F420.000
G1 X-11.564 Y69.259 F420.000
G1 X-11.444 Y69.045 F420.000
G1 X-11.308 Y68.857 F420.000
G1 X-11.154 Y68.684 F420.000
G1 X-10.955 Y68.508 F420.000
G1 X-10.737 Y68.361 F420.000
G1 X-10.515 Y68.244 F420.000
G1 X-10.271 Y68.158 F420.000
G1 X-10.053 Y68.105 F420.000
G1 X-9.812 Y68.079 F420.000
G1 X-9.571 Y68.086 F420.000
G1 X-9.342 Y68.128 F420.000
G1 X-9.135 Y68.192 F420.000
G1 X-8.925 Y68.282 F420.000
G1 X-8.703 Y68.410 F420.000
G1 X-8.500 Y68.564 F420.000
G1 X-8.331 Y68.741 F420.000
G1 X-8.199 Y68.910 F420.000
G1 X-8.079 Y69.113 F420.000
G1 X-7.985 Y69.320 F420.000
G1 X-7.910 Y69.568 F420.000
G1 X-7.868 Y69.805 F420.000
G1 X-7.857 Y70.045 F420.000
G1 X-7.876 Y70.289 F420.000
G1 X-7.917 Y70.526 F420.000
G1 X-7.996 Y70.782 F420.000
G1 X-8.102 Y71.011 F420.000
G1 X-8.237 Y71.226 F420.000
G1 X-8.380 Y71.402 F420.000
G1 X-8.553 Y71.571 F420.000
G1 X-8.741 Y71.722 F420.000
G1 X-8.981 Y71.868 F420.000
G1 X-9.211 Y71.974 F420.000
G1 X-9.455 Y72.056 F420.000
G1 X-9.714 Y72.102 F420.000
G1 X-9.940 Y72.117 F420.000
G1 X-10.188 Y72.105 F420.000
G1 X-10.432 Y72.060 F420.000
G1 X-10.665 Y71.989 F420.000
G1 X-10.895 Y71.895 F420.000
G1 X-11.139 Y71.756 F420.000
G1 X-11.338 Y71.598 F420.000
G1 X-11.496 Y71.444 F420.000
G1 X-11.654 Y71.244 F420.000
G1 X-11.786 Y71.041 F420.000
G1 X-11.914 Y70.793 F420.000
G1 X-12.000 Y70.523 F420.000
G1 X-12.045 Y70.297 F420.000
G1 X-12.064 Y70.071 F420.000
G1 X-12.060 Y69.827 F420.000
G1 X-12.019 Y69.538 F420.000
G1 X-11.955 Y69.293 F420.000
G1 X-11.853 Y69.053 F420.000
G1 X-11.744 Y68.857 F420.000
G1 X-11.605 Y68.654 F420.000
G1 X-11.417 Y68.432 F420.000
G1 X-11.199 Y68.226 F420.000
G1 X-10.974 Y68.064 F420.000
G1 X-10.767 Y67.944 F420.000
G1 X-10.519 Y67.838 F420.000
G1 X-10.267 Y67.767 F420.000
G1 X-10.015 Y67.722 F420.000
G1 X-9.756 Y67.707 F420.000
G1 X-9.500 Y67.722 F420.000
G1 X-9.248 Y67.767 F420.000
G1 X-8.996 Y67.835 F420.000
G1 X-8.726 Y67.944 F420.000
G1 X-8.496 Y68.083 F420.000
G1 X-8.316 Y68.214 F420.000
G1 X-8.128 Y68.387 F420.000
G1 X-7.947 Y68.594 F420.000
G1 X-7.669 Y69.019 F420.000
G1 X-7.534 Y69.342 F420.000
G1 X-7.425 Y69.850 F420.000
G1 X-7.425 Y70.301 F420.000
G1 X-7.500 Y70.695 F420.000
G1 X-7.620 Y71.019 F420.000
G1 X-7.786 Y71.323 F420.000
G1 X-8.071 Y71.684 F420.000
G1 X-8.462 Y72.026 F420.000
G1 X-8.658 Y72.154 F420.000
G1 X-8.970 Y72.301 F420.000
G1 X-9.477 Y72.440 F420.000
G1 X-9.959 Y72.489 F420.000
G1 X-10.440 Y72.436 F420.000
G1 X-10.797 Y72.342 F420.000
G1 X-11.075 Y72.222 F420.000
G1 X-11.271 Y72.109 F420.000
G1 X-11.455 Y71.974 F420.000
G1 X-11.643 Y71.812 F420.000
G1 X-11.861 Y71.586 F420.000
G1 X-12.068 Y71.316 F420.000
G1 X-12.207 Y71.056 F420.000
G1 X-12.293 Y70.842 F420.000
G1 X-12.361 Y70.620 F420.000
G1 X-12.414 Y70.342 F420.000
G1 X-12.440 Y70.045 F420.000
G1 X-12.436 Y69.748 F420.000
G1 X-12.387 Y69.455 F420.000
G1 X-12.331 Y69.226 F420.000
G1 X-12.233 Y68.970 F420.000
G1 X-12.117 Y68.729 F420.000
G1 X-11.951 Y68.470 F420.000
G1 X-11.741 Y68.203 F420.000
G1 X-11.361 Y67.872 F420.000
G1 X-11.049 Y67.662 F420.000
G1 X-10.594 Y67.451 F420.000
G1 X-10.053 Y67.316 F420.000
G1 X-9.632 Y67.289 F420.000
G1 X-9.271 Y67.320 F420.000
G1 X-8.793 Y67.444 F420.000
G1 X-8.402 Y67.617 F420.000
G1 X-8.000 Y67.887 F420.000
G1 X-7.695 Y68.173 F420.000
G1 X-7.402 Y68.553 F420.000
G1 X-7.229 Y68.921 F420.000
G1 X-7.086 Y69.429 F420.000
G1 X-7.034 Y69.767 F420.000
G1 X-7.041 Y70.274 F420.000
G1 X-7.105 Y70.669 F420.000
G1 X-7.188 Y70.951 F420.000
G1 X-7.398 Y71.429 F420.000
G1 X-7.722 Y71.906 F420.000
G1 X-8.086 Y72.263 F420.000
G1 X-8.417 Y72.492 F420.000
G1 X-8.887 Y72.711 F420.000
G1 X-9.395 Y72.838 F420.000
G1 X-10.015 Y72.880 F420.000
G1 X-10.523 Y72.812 F420.000
G1 X-11.079 Y72.620 F420.000
G1 X-11.586 Y72.316 F420.000
G1 X-11.989 Y71.962 F420.000
G1 X-12.320 Y71.538 F420.000
G1 X-12.519 Y71.162 F420.000
G1 X-12.707 Y70.571 F420.000
G1 X-12.767 Y70.211 F420.000
G1 X-12.767 Y69.669 F420.000
G1 X-12.680 Y69.188 F420.000
G1 X-12.455 Y68.605 F420.000
G1 X-12.071 Y68.030 F420.000
G1 X-11.722 Y67.673 F420.000
G1 X-11.316 Y67.376 F420.000
G1 X-11.041 Y67.229 F420.000
G1 X-10.872 Y67.162 F420.000
G1 X-10.571 Y67.079 F420.000
G1 X-10.211 Y67.030 F420.000
G1 X-9.669 Y67.045 F420.000
G1 X-9.248 Y67.124 F420.000
G1 X-8.947 Y67.214 F420.000
G1 X-8.455 Y67.462 F420.000
G1 X-8.158 Y67.665 F420.000
G1 X-8.068 Y67.744 F420.000
G1 X-8.068 Y67.744 F420.000
G1 X-7.981 Y67.868 F420.000
G1 X-7.966 Y67.929 F420.000
G0 X-7.962 Y67.959
G0 X-8.538 Y72.305
G1 X-8.541 Y72.346 F420.000
G1 X-8.575 Y72.504 F420.000
G1 X-8.643 Y72.613 F420.000
G1 X-8.748 Y72.695 F420.000
G1 X-8.748 Y72.695 F420.000
G1 X-8.959 Y72.789 F420.000
G1 X-9.466 Y72.925 F420.000
G1 X-9.748 Y72.959 F420.000
G1 X-10.312 Y72.951 F420.000
G1 X-10.763 Y72.865 F420.000
G1 X-11.045 Y72.782 F420.000
G1 X-11.523 Y72.545 F420.000
G1 X-11.951 Y72.233 F420.000
G1 X-12.169 Y72.026 F420.000
G1 X-12.538 Y71.549 F420.000
G1 X-12.707 Y71.229 F420.000
G1 X-12.816 Y70.947 F420.000
G1 X-12.914 Y70.590 F420.000
G1 X-12.966 Y70.229 F420.000
G1 X-12.966 Y69.808 F420.000
G1 X-12.876 Y69.267 F420.000
G1 X-12.711 Y68.789 F420.000
G1 X-12.538 Y68.451 F420.000
G1 X-12.278 Y68.090 F420.000
G1 X-12.064 Y67.865 F420.000
G1 X-11.774 Y67.620 F420.000
G1 X-11.515 Y67.444 F420.000
G1 X-11.515 Y67.444 F420.000
G1 X-11.391 Y67.398 F420.000
G1 X-11.297 Y67.395 F420.000
G0 X-11.267 Y67.395
G0 X-8.053 Y67.981
G1 X-8.011 Y67.989 F420.000
G1 X-7.774 Y68.045 F420.000
G1 X-7.647 Y68.132 F420.000
G1 X-7.647 Y68.132 F420.000
G1 X-7.387 Y68.523 F420.000
G1 X-7.282 Y68.726 F420.000
G1 X-7.154 Y69.045 F420.000
G1 X-7.079 Y69.305 F420.000
G1 X-7.015 Y69.688 F420.000
G1 X-7.004 Y69.865 F420.000
G1 X-7.019 Y70.312 F420.000
G1 X-7.038 Y70.462 F420.000
G1 X-7.105 Y70.774 F420.000
G1 X-7.241 Y71.162 F420.000
G1 X-7.372 Y71.447 F420.000
G1 X-7.451 Y71.583 F420.000
G1 X-7.654 Y71.868 F420.000
G1 X-7.820 Y72.056 F420.000
G1 X-8.008 Y72.237 F420.000
G1 X-8.188 Y72.383 F420.000
G1 X-8.451 Y72.568 F420.000
G1 X-8.774 Y72.741 F420.000
G1 X-8.910 Y72.801 F420.000
G1 X-9.113 Y72.865 F420.000
G1 X-9.477 Y72.951 F420.000
G1 X-9.718 Y72.985 F420.000
G1 X-10.045 Y72.996 F420.000
G1 X-10.263 Y72.981 F420.000
G1 X-10.639 Y72.921 F420.000
G1 X-11.075 Y72.797 F420.000
G1 X-11.226 Y72.729 F420.000
G1 X-11.590 Y72.534 F420.000
G1 X-11.898 Y72.316 F420.000
G1 X-12.150 Y72.090 F420.000
G1 X-12.305 Y71.917 F420.000
G1 X-12.545 Y71.586 F420.000
G1 X-12.635 Y71.429 F420.000
G1 X-12.756 Y71.177 F420.000
G1 X-12.835 Y70.974 F420.000
G1 X-12.925 Y70.658 F420.000
G1 X-12.974 Y70.383 F420.000
G1 X-13.000 Y70.064 F420.000
G1 X-12.996 Y69.853 F420.000
G1 X-12.966 Y69.602 F420.000
G1 X-12.914 Y69.305 F420.000
G1 X-12.797 Y68.936 F420.000
G1 X-12.737 Y68.786 F420.000
G1 X-12.594 Y68.492 F420.000
G1 X-12.342 Y68.128 F420.000
G1 X-12.184 Y67.947 F420.000
G1 X-11.914 Y67.695 F420.000
G1 X-11.598 Y67.462 F420.000
G1 X-11.327 Y67.308 F420.000
G1 X-11.162 Y67.229 F420.000
G1 X-11.019 Y67.173 F420.000
G1 X-10.534 Y67.045 F420.000
G1 X-10.222 Y67.008 F420.000
G1 X-10.068 Y67.000 F420.000
G1 X-9.707 Y67.015 F420.000
G1 X-9.372 Y67.068 F420.000
G1 X-8.925 Y67.195 F420.000
G1 X-8.752 Y67.271 F420.000
G1 X-8.429 Y67.447 F420.000
G1 X-8.117 Y67.665 F420.000
G1 X-7.868 Y67.887 F420.000
G1 X-7.647 Y68.132 F420.000
G1 X-7.647 Y68.132 F420.000
G0 Z15.000
(Helix to depth: -6.000000)
G0 Z15.000
G0 X-69.267 Y69.154 Z15.000
G0 X-69.267 Y69.154 Z3.000
G1 X-69.267 Y69.154 Z-3.000 F420.000
G1 X-69.267 Y69.154 Z-3.000 F420.000
G1 X-69.116 Y69.313 Z-3.019 F420.000
G1 X-69.000 Y69.498 Z-3.039 F420.000
G1 X-68.922 Y69.701 Z-3.058 F420.000
G1 X-68.885 Y69.917 Z-3.077 F420.000
G1 X-68.891 Y70.135 Z-3.097 F420.000
G1 X-68.939 Y70.348 Z-3.116 F420.000
G1 X-69.028 Y70.547 Z-3.135 F420.000
G1 X-69.154 Y70.726 Z-3.154 F420.000
G1 X-69.313 Y70.876 Z-3.174 F420.000
G1 X-69.498 Y70.992 Z-3.193 F420.000
G1 X-69.701 Y71.071 Z-3.212 F420.000
G1 X-69.917 Y71.107 Z-3.232 F420.000
G1 X-70.135 Y71.102 Z-3.251 F420.000
G1 X-70.348 Y71.053 Z-3.270 F420.000
G1 X-70.547 Y70.964 Z-3.290 F420.000
G1 X-70.726 Y70.838 Z-3.309 F420.000
G1 X-70.876 Y70.680 Z-3.328 F420.000
G1 X-70.992 Y70.495 Z-3.348 F420.000
G1 X-71.071 Y70.291 Z-3.367 F420.000
G1 X-71.107 Y70.076 Z-3.386 F420.000
G1 X-71.102 Y69.857 Z-3.405 F420.000
G1 X-71.053 Y69.644 Z-3.425 F420.000
G1 X-70.964 Y69.445 Z-3.444 F420.000
G1 X-70.838 Y69.267 Z-3.463 F420.000
G1 X-70.680 Y69.116 Z-3.483 F420.000
G1 X-70.495 Y69.000 Z-3.502 F420.000
G1 X-70.291 Y68.922 Z-3.521 F420.000
G1 X-70.076 Y68.885 Z-3.541 F420.000
G1 X-69.857 Y68.891 Z-3.560 F420.000
G1 X-69.644 Y68.939 Z-3.579 F420.000
G1 X-69.445 Y69.028 Z-3.599 F420.000
G1 X-69.267 Y69.154 Z-3.618 F420.000
G1 X-69.116 Y69.313 Z-3.637 F420.000
G1 X-69.000 Y69.498 Z-3.657 F420.000
G1 X-68.922 Y69.701 Z-3.676 F420.000
G1 X-68.885 Y69.917 Z-3.695 F420.000
G1 X-68.891 Y70.135 Z-3.714 F420.000
G1 X-68.939 Y70.348 Z-3.734 F420.000
G1 X-69.028 Y70.547 Z-3.753 F420.000
G1 X-69.154 Y70.726 Z-3.772 F420.000
G1 X-69.313 Y70.876 Z-3.792 F420.000
G1 X-69.498 Y70.992 Z-3.811 F420.000
G1 X-69.701 Y71.071 Z-3.830 F420.000
G1 X-69.917 Y71.107 Z-3.850 F420.000
G1 X-70.135 Y71.102 Z-3.869 F420.000
G1 X-70.348 Y71.053 Z-3.888 F420.000
G1 X-70.547 Y70.964 Z-3.908 F420.000
G1 X-70.726 Y70.838 Z-3.927 F420.000
G1 X-70.876 Y70.680 Z-3.946 F420.000
G1 X-70.992 Y70.495 Z-3.965 F420.000
G1 X-71.071 Y70.291 Z-3.985 F420.000
G1 X-71.107 Y70.076 Z-4.004 F420.000
G1 X-71.102 Y69.857 Z-4.023 F420.000
G1 X-71.053 Y69.644 Z-4.043 F420.000
G1 X-70.964 Y69.445 Z-4.062 F420.000
G1 X-70.838 Y69.267 Z-4.081 F420.000
G1 X-70.680 Y69.116 Z-4.101 F420.000
G1 X-70.495 Y69.000 Z-4.120 F420.000
G1 X-70.291 Y68.922 Z-4.139 F420.000
G1 X-70.076 Y68.885 Z-4.159 F420.000
G1 X-69.857 Y68.891 Z-4.178 F420.000
G1 X-69.644 Y68.939 Z-4.197 F420.000
G1 X-69.445 Y69.028 Z-4.216 F420.000
G1 X-69.267 Y69.154 Z-4.236 F420.000
G1 X-69.116 Y69.313 Z-4.255 F420.000
G1 X-69.000 Y69.498 Z-4.274 F420.000
G1 X-68.922 Y69.701 Z-4.294 F420.000
G1 X-68.885 Y69.917 Z-4.313 F420.000
G1 X-68.891 Y70.135 Z-4.332 F420.000
G1 X-68.939 Y70.348 Z-4.352 F420.000
G1 X-69.028 Y70.547 Z-4.371 F420.000
G1 X-69.154 Y70.726 Z-4.390 F420.000
G1 X-69.313 Y70.876 Z-4.410 F420.000
G1 X-69.498 Y70.992 Z-4.429 F420.000
G1 X-69.701 Y71.071 Z-4.448 F420.000
G1 X-69.917 Y71.107 Z-4.468 F420.000
G1 X-70.135 Y71.102 Z-4.487 F420.000
G1 X-70.348 Y71.053 Z-4.506 F420.000
G1 X-70.547 Y70.964 Z-4.525 F420.000
G1 X-70.726 Y70.838 Z-4.545 F420.000
G1 X-70.876 Y70.680 Z-4.564 F420.000
G1 X-70.992 Y70.495 Z-4.583 F420.000
G1 X-71.071 Y70.291 Z-4.603 F420.000
G1 X-71.107 Y70.076 Z-4.622 F420.000
G1 X-71.102 Y69.857 Z-4.641 F420.000
G1 X-71.053 Y69.644 Z-4.661 F420.000
G1 X-70.964 Y69.445 Z-4.680 F420.000
G1 X-70.838 Y69.267 Z-4.699 F420.000
G1 X-70.680 Y69.116 Z-4.719 F420.000
G1 X-70.495 Y69.000 Z-4.738 F420.000
G1 X-70.291 Y68.922 Z-4.757 F420.000
G1 X-70.076 Y68.885 Z-4.776 F420.000
G1 X-69.857 Y68.891 Z-4.796 F420.000
G1 X-69.644 Y68.939 Z-4.815 F420.000
G1 X-69.445 Y69.028 Z-4.834 F420.000
G1 X-69.267 Y69.154 Z-4.854 F420.000
G1 X-69.116 Y69.313 Z-4.873 F420.000
G1 X-69.000 Y69.498 Z-4.892 F420.000
G1 X-68.922 Y69.701 Z-4.912 F420.000
G1 X-68.885 Y69.917 Z-4.931 F420.000
G1 X-68.891 Y70.135 Z-4.950 F420.000
G1 X-68.939 Y70.348 Z-4.970 F420.000
G1 X-69.028 Y70.547 Z-4.989 F420.000
G1 X-69.154 Y70.726 Z-5.008 F420.000
G1 X-69.313 Y70.876 Z-5.027 F420.000
G1 X-69.498 Y70.992 Z-5.047 F420.000
G1 X-69.701 Y71.071 Z-5.066 F420.000
G1 X-69.917 Y71.107 Z-5.085 F420.000
G1 X-70.135 Y71.102 Z-5.105 F420.000
G1 X-70.348 Y71.053 Z-5.124 F420.000
G1 X-70.547 Y70.964 Z-5.143 F420.000
G1 X-70.726 Y70.838 Z-5.163 F420.000
G1 X-70.876 Y70.680 Z-5.182 F420.000
G1 X-70.992 Y70.495 Z-5.201 F420.000
G1 X-71.071 Y70.291 Z-5.221 F420.000
G1 X-71.107 Y70.076 Z-5.240 F420.000
G1 X-71.102 Y69.857 Z-5.259 F420.000
G1 X-71.053 Y69.644 Z-5.279 F420.000
G1 X-70.964 Y69.445 Z-5.298 F420.000
G1 X-70.838 Y69.267 Z-5.317 F420.000
G1 X-70.680 Y69.116 Z-5.336 F420.000
G1 X-70.495 Y69.000 Z-5.356 F420.000
G1 X-70.291 Y68.922 Z-5.375 F420.000
G1 X-70.076 Y68.885 Z-5.394 F420.000
G1 X-69.857 Y68.891 Z-5.414 F420.000
G1 X-69.644 Y68.939 Z-5.433 F420.000
G1 X-69.445 Y69.028 Z-5.452 F420.000
G1 X-69.267 Y69.154 Z-5.472 F420.000
G1 X-69.116 Y69.313 Z-5.491 F420.000
G1 X-69.000 Y69.498 Z-5.510 F420.000
G1 X-68.922 Y69.701 Z-5.530 F420.000
G1 X-68.885 Y69.917 Z-5.549 F420.000
G1 X-68.891 Y70.135 Z-5.568 F420.000
G1 X-68.939 Y70.348 Z-5.587 F420.000
G1 X-69.028 Y70.547 Z-5.607 F420.000
G1 X-69.154 Y70.726 Z-5.626 F420.000
G1 X-69.313 Y70.876 Z-5.645 F420.000
G1 X-69.498 Y70.992 Z-5.665 F420.000
G1 X-69.701 Y71.071 Z-5.684 F420.000
G1 X-69.917 Y71.107 Z-5.703 F420.000
G1 X-70.135 Y71.102 Z-5.723 F420.000
G1 X-70.348 Y71.053 Z-5.742 F420.000
G1 X-70.547 Y70.964 Z-5.761 F420.000
G1 X-70.726 Y70.838 Z-5.781 F420.000
G1 X-70.876 Y70.680 Z-5.800 F420.000
G1 X-70.992 Y70.495 Z-5.819 F420.000
G1 X-71.071 Y70.291 Z-5.838 F420.000
G1 X-71.107 Y70.076 Z-5.858 F420.000
G1 X-71.102 Y69.857 Z-5.877 F420.000
G1 X-71.053 Y69.644 Z-5.896 F420.000
G1 X-70.964 Y69.445 Z-5.916 F420.000
G1 X-70.838 Y69.267 Z-5.935 F420.000
G1 X-70.680 Y69.116 Z-5.954 F420.000
G1 X-70.495 Y69.000 Z-5.974 F420.000
G1 X-70.291 Y68.922 Z-5.993 F420.000
G1 X-70.076 Y68.885 Z-6.000 F420.000
G1 X-69.857 Y68.891 Z-6.000 F420.000
G1 X-69.644 Y68.939 Z-6.000 F420.000
G1 X-69.445 Y69.028 Z-6.000 F420.000
G1 X-69.267 Y69.154 Z-6.000 F420.000
G1 X-69.116 Y69.313 Z-6.000 F420.000
G1 X-69.000 Y69.498 Z-6.000 F420.000
G1 X-68.922 Y69.701 Z-6.000 F420.000
G1 X-68.885 Y69.917 Z-6.000 F420.000
G1 X-68.891 Y70.135 Z-6.000 F420.000
G1 X-68.939 Y70.348 Z-6.000 F420.000
G1 X-69.028 Y70.547 Z-6.000 F420.000
G1 X-69.154 Y70.726 Z-6.000 F420.000
G1 X-69.313 Y70.876 Z-6.000 F420.000
G1 X-69.498 Y70.992 Z-6.000 F420.000
G1 X-69.701 Y71.071 Z-6.000 F420.000
G1 X-69.917 Y71.107 Z-6.000 F420.000
G1 X-70.135 Y71.102 Z-6.000 F420.000
G1 X-70.348 Y71.053 Z-6.000 F420.000
G1 X-70.547 Y70.964 Z-6.000 F420.000
G1 X-70.726 Y70.838 Z-6.000 F420.000
G1 X-70.876 Y70.680 Z-6.000 F420.000
G1 X-70.992 Y70.495 Z-6.000 F420.000
G1 X-71.071 Y70.291 Z-6.000 F420.000
G1 X-71.107 Y70.076 Z-6.000 F420.000
G1 X-71.102 Y69.857 Z-6.000 F420.000
G1 X-71.053 Y69.644 Z-6.000 F420.000
G1 X-70.964 Y69.445 Z-6.000 F420.000
G1 X-70.838 Y69.267 Z-6.000 F420.000
G1 X-70.680 Y69.116 Z-6.000 F420.000
G1 X-70.495 Y69.000 Z-6.000 F420.000
G1 X-70.291 Y68.922 Z-6.000 F420.000
(Adaptive - depth: -6.000000)
G1 X-69.996 Y68.872 F420.000
G1 X-69.951 Y68.827 F420.000
G1 X-69.774 Y68.767 F420.000
G1 X-69.594 Y68.756 F420.000
G1 X-69.474 Y68.774 F420.000
G1 X-69.158 Y68.906 F420.000
G1 X-68.985 Y69.041 F420.000
G1 X-68.887 Y69.143 F420.000
G1 X-68.793 Y69.267 F420.000
G1 X-68.699 Y69.436 F420.000
G1 X-68.620 Y69.650 F420.000
G1 X-68.575 Y69.857 F420.000
G1 X-68.568 Y70.064 F420.000
G1 X-68.586 Y70.241 F420.000
G1 X-68.635 Y70.432 F420.000
G1 X-68.707 Y70.613 F420.000
G1 X-68.820 Y70.805 F420.000
G1 X-68.947 Y70.962 F420.000
G1 X-69.098 Y71.102 F420.000
G1 X-69.271 Y71.222 F420.000
G1 X-69.459 Y71.316 F420.000
G1 X-69.658 Y71.380 F420.000
G1 X-69.865 Y71.410 F420.000
G1 X-70.049 Y71.417 F420.000
G1 X-70.267 Y71.391 F420.000
G1 X-70.466 Y71.335 F420.000
G1 X-70.650 Y71.252 F420.000
G1 X-70.827 Y71.139 F420.000
G1 X-70.985 Y71.004 F420.000
G1 X-71.120 Y70.850 F420.000
G1 X-71.233 Y70.677 F420.000
G1 X-71.320 Y70.489 F420.000
G1 X-71.380 Y70.289 F420.000
G1 X-71.410 Y70.083 F420.000
G1 X-71.410 Y69.876 F420.000
G1 X-71.376 Y69.669 F420.000
G1 X-71.320 Y69.489 F420.000
G1 X-71.237 Y69.305 F420.000
G1 X-71.117 Y69.124 F420.000
G1 X-70.981 Y68.974 F420.000
G1 X-70.823 Y68.842 F420.000
G1 X-70.650 Y68.722 F420.000
G1 X-70.425 Y68.598 F420.000
G1 X-70.105 Y68.474 F420.000
G1 X-69.865 Y68.429 F420.000
G1 X-69.805 Y68.425 F420.000
G1 X-69.432 Y68.459 F420.000
G1 X-69.128 Y68.564 F420.000
G1 X-68.985 Y68.643 F420.000
G1 X-68.865 Y68.726 F420.000
G1 X-68.711 Y68.857 F420.000
G1 X-68.534 Y69.068 F420.000
G1 X-68.414 Y69.267 F420.000
G1 X-68.331 Y69.451 F420.000
G1 X-68.271 Y69.650 F420.000
G1 X-68.237 Y69.861 F420.000
G1 X-68.229 Y70.083 F420.000
G1 X-68.256 Y70.312 F420.000
G1 X-68.308 Y70.530 F420.000
G1 X-68.391 Y70.741 F420.000
G1 X-68.500 Y70.940 F420.000
G1 X-68.632 Y71.120 F420.000
G1 X-68.789 Y71.282 F420.000
G1 X-68.962 Y71.425 F420.000
G1 X-69.173 Y71.556 F420.000
G1 X-69.387 Y71.654 F420.000
G1 X-69.613 Y71.718 F420.000
G1 X-69.820 Y71.748 F420.000
G1 X-70.041 Y71.752 F420.000
G1 X-70.263 Y71.729 F420.000
G1 X-70.496 Y71.673 F420.000
G1 X-70.711 Y71.590 F420.000
G1 X-70.914 Y71.481 F420.000
G1 X-71.102 Y71.346 F420.000
G1 X-71.271 Y71.188 F420.000
G1 X-71.417 Y71.008 F420.000
G1 X-71.534 Y70.805 F420.000
G1 X-71.617 Y70.613 F420.000
G1 X-71.680 Y70.398 F420.000
G1 X-71.722 Y70.158 F420.000
G1 X-71.733 Y69.917 F420.000
G1 X-71.707 Y69.680 F420.000
G1 X-71.658 Y69.474 F420.000
G1 X-71.575 Y69.256 F420.000
G1 X-71.466 Y69.056 F420.000
G1 X-71.335 Y68.876 F420.000
G1 X-71.184 Y68.707 F420.000
G1 X-70.992 Y68.534 F420.000
G1 X-70.763 Y68.376 F420.000
G1 X-70.541 Y68.252 F420.000
G1 X-70.301 Y68.154 F420.000
G1 X-70.041 Y68.094 F420.000
G1 X-69.827 Y68.075 F420.000
G1 X-69.617 Y68.079 F420.000
G1 X-69.391 Y68.105 F420.000
G1 X-69.132 Y68.177 F420.000
G1 X-68.917 Y68.271 F420.000
G1 X-68.729 Y68.380 F420.000
G1 X-68.541 Y68.526 F420.000
G1 X-68.376 Y68.688 F420.000
G1 X-68.222 Y68.883 F420.000
G1 X-68.102 Y69.086 F420.000
G1 X-68.000 Y69.301 F420.000
G1 X-67.917 Y69.564 F420.000
G1 X-67.876 Y69.808 F420.000
G1 X-67.861 Y70.030 F420.000
G1 X-67.876 Y70.274 F420.000
G1 X-67.921 Y70.508 F420.000
G1 X-67.989 Y70.733 F420.000
G1 X-68.102 Y70.977 F420.000
G1 X-68.229 Y71.188 F420.000
G1 X-68.380 Y71.387 F420.000
G1 X-68.556 Y71.568 F420.000
G1 X-68.752 Y71.722 F420.000
G1 X-68.962 Y71.853 F420.000
G1 X-69.192 Y71.959 F420.000
G1 X-69.429 Y72.038 F420.000
G1 X-69.677 Y72.086 F420.000
G1 X-69.929 Y72.105 F420.000
G1 X-70.177 Y72.094 F420.000
G1 X-70.429 Y72.053 F420.000
G1 X-70.673 Y71.985 F420.000
G1 X-70.910 Y71.887 F420.000
G1 X-71.132 Y71.763 F420.000
G1 X-71.338 Y71.613 F420.000
G1 X-71.519 Y71.432 F420.000
G1 X-71.654 Y71.263 F420.000
G1 X-71.786 Y71.060 F420.000
G1 X-71.910 Y70.816 F420.000
G1 X-72.004 Y70.556 F420.000
G1 X-72.056 Y70.297 F420.000
G1 X-72.079 Y70.071 F420.000
G1 X-72.075 Y69.820 F420.000
G1 X-72.038 Y69.571 F420.000
G1 X-71.974 Y69.338 F420.000
G1 X-71.883 Y69.105 F420.000
G1 X-71.756 Y68.865 F420.000
G1 X-71.613 Y68.654 F420.000
G1 X-71.444 Y68.459 F420.000
G1 X-71.256 Y68.274 F420.000
G1 X-71.008 Y68.086 F420.000
G1 X-70.771 Y67.944 F420.000
G1 X-70.515 Y67.831 F420.000
G1 X-70.282 Y67.756 F420.000
G1 X-70.023 Y67.703 F420.000
G1 X-69.763 Y67.684 F420.000
G1 X-69.508 Y67.703 F420.000
G1 X-69.282 Y67.741 F420.000
G1 X-69.045 Y67.805 F420.000
G1 X-68.782 Y67.910 F420.000
G1 X-68.538 Y68.041 F420.000
G1 X-68.323 Y68.203 F420.000
G1 X-68.158 Y68.353 F420.000
G1 X-67.989 Y68.545 F420.000
G1 X-67.827 Y68.771 F420.000
G1 X-67.609 Y69.177 F420.000
G1 X-67.481 Y69.571 F420.000
G1 X-67.425 Y70.023 F420.000
G1 X-67.451 Y70.417 F420.000
G1 X-67.613 Y70.970 F420.000
G1 X-67.797 Y71.327 F420.000
G1 X-68.083 Y71.692 F420.000
G1 X-68.425 Y71.992 F420.000
G1 X-68.876 Y72.252 F420.000
G1 X-69.320 Y72.398 F420.000
G1 X-69.489 Y72.432 F420.000
G1 X-69.853 Y72.485 F420.000
G1 X-70.222 Y72.477 F420.000
G1 X-70.504 Y72.425 F420.000
G1 X-70.861 Y72.323 F420.000
G1 X-71.195 Y72.162 F420.000
G1 X-71.421 Y72.015 F420.000
G1 X-71.602 Y71.868 F420.000
G1 X-71.778 Y71.692 F420.000
G1 X-71.955 Y71.481 F420.000
G1 X-72.113 Y71.233 F420.000
G1 X-72.237 Y70.989 F420.000
G1 X-72.338 Y70.729 F420.000
G1 X-72.410 Y70.455 F420.000
G1 X-72.451 Y70.177 F420.000
G1 X-72.455 Y69.898 F420.000
G1 X-72.432 Y69.658 F420.000
G1 X-72.380 Y69.398 F420.000
G1 X-72.305 Y69.147 F420.000
G1 X-72.192 Y68.868 F420.000
G1 X-72.041 Y68.594 F420.000
G1 X-71.880 Y68.353 F420.000
G1 X-71.575 Y68.038 F420.000
G1 X-71.278 Y67.801 F420.000
G1 X-70.902 Y67.575 F420.000
G1 X-70.620 Y67.447 F420.000
G1 X-70.079 Y67.305 F420.000
G1 X-69.598 Y67.278 F420.000
G1 X-69.117 Y67.338 F420.000
G1 X-68.650 Y67.489 F420.000
G1 X-68.274 Y67.688 F420.000
G1 X-67.846 Y68.019 F420.000
G1 X-67.455 Y68.470 F420.000
G1 X-67.391 Y68.571 F420.000
G1 X-67.222 Y68.940 F420.000
G1 X-67.102 Y69.335 F420.000
G1 X-67.034 Y69.786 F420.000
G1 X-67.038 Y70.237 F420.000
G1 X-67.098 Y70.632 F420.000
G1 X-67.214 Y71.023 F420.000
G1 X-67.406 Y71.444 F420.000
G1 X-67.737 Y71.921 F420.000
G1 X-68.113 Y72.278 F420.000
G1 X-68.398 Y72.474 F420.000
G1 X-68.921 Y72.714 F420.000
G1 X-69.372 Y72.831 F420.000
G1 X-69.992 Y72.883 F420.000
G1 X-70.556 Y72.812 F420.000
G1 X-71.109 Y72.617 F420.000
G1 X-71.564 Y72.338 F420.000
G1 X-71.925 Y72.026 F420.000
G1 X-72.203 Y71.703 F420.000
G1 X-72.462 Y71.297 F420.000
G1 X-72.665 Y70.789 F420.000
G1 X-72.767 Y70.248 F420.000
G1 X-72.782 Y69.887 F420.000
G1 X-72.718 Y69.346 F420.000
G1 X-72.500 Y68.695 F420.000
G1 X-72.289 Y68.316 F420.000
G1 X-71.936 Y67.876 F420.000
G1 X-71.515 Y67.500 F420.000
G1 X-71.086 Y67.237 F420.000
G1 X-70.970 Y67.188 F420.000
G1 X-70.549 Y67.075 F420.000
G1 X-70.128 Y67.030 F420.000
G1 X-69.647 Y67.049 F420.000
G1 X-69.286 Y67.113 F420.000
G1 X-68.925 Y67.222 F420.000
G1 X-68.440 Y67.470 F420.000
G1 X-68.102 Y67.714 F420.000
G1 X-68.102 Y67.714 F420.000
G1 X-68.015 Y67.838 F420.000
G1 X-68.000 Y67.898 F420.000
G0 X-67.996 Y67.929
G0 X-68.459 Y72.248
G1 X-68.462 Y72.289 F420.000
G1 X-68.504 Y72.477 F420.000
G1 X-68.575 Y72.583 F420.000
G1 X-68.654 Y72.647 F420.000
G1 X-68.654 Y72.647 F420.000
G1 X-68.962 Y72.789 F420.000
G1 X-69.470 Y72.925 F420.000
G1 X-69.808 Y72.966 F420.000
G1 X-70.316 Y72.951 F420.000
G1 X-70.711 Y72.880 F420.000
G1 X-71.105 Y72.756 F420.000
G1 X-71.575 Y72.511 F420.000
G1 X-71.914 Y72.267 F420.000
G1 X-72.135 Y72.064 F420.000
G1 X-72.297 Y71.883 F420.000
G1 X-72.541 Y71.541 F420.000
G1 X-72.756 Y71.105 F420.000
G1 X-72.902 Y70.639 F420.000
G1 X-72.966 Y70.218 F420.000
G1 X-72.966 Y69.797 F420.000
G1 X-72.891 Y69.316 F420.000
G1 X-72.729 Y68.835 F420.000
G1 X-72.564 Y68.496 F420.000
G1 X-72.274 Y68.086 F420.000
G1 X-72.060 Y67.861 F420.000
G1 X-71.823 Y67.654 F420.000
G1 X-71.508 Y67.440 F420.000
G1 X-71.508 Y67.440 F420.000
G1 X-71.383 Y67.395 F420.000
G1 X-71.289 Y67.391 F420.000
G0 X-71.259 Y67.391
G0 X-68.053 Y67.981
G1 X-68.011 Y67.989 F420.000
G1 X-67.774 Y68.045 F420.000
G1 X-67.647 Y68.132 F420.000
G1 X-67.647 Y68.132 F420.000
G1 X-67.387 Y68.523 F420.000
G1 X-67.282 Y68.726 F420.000
G1 X-67.154 Y69.045 F420.000
G1 X-67.079 Y69.305 F420.000
G1 X-67.015 Y69.688 F420.000
G1 X-67.004 Y69.865 F420.000
G1 X-67.019 Y70.312 F420.000
G1 X-67.038 Y70.462 F420.000
G1 X-67.105 Y70.774 F420.000
G1 X-67.241 Y71.162 F420.000
G1 X-67.372 Y71.447 F420.000
G1 X-67.451 Y71.583 F420.000
G1 X-67.654 Y71.868 F420.000
G1 X-67.820 Y72.056 F420.000
G1 X-68.008 Y72.237 F420.000
G1 X-68.188 Y72.383 F420.000
G1 X-68.451 Y72.568 F420.000
G1 X-68.774 Y72.741 F420.000
G1 X-68.910 Y72.801 F420.000
G1 X-69.113 Y72.865 F420.000
G1 X-69.489 Y72.955 F420.000
G1 X-69.805 Y72.992 F420.000
G1 X-70.177 Y72.989 F420.000
G1 X-70.380 Y72.970 F420.000
G1 X-70.617 Y72.929 F420.000
G1 X-71.075 Y72.797 F420.000
G1 X-71.226 Y72.729 F420.000
G1 X-71.590 Y72.534 F420.000
G1 X-71.898 Y72.316 F420.000
