(Exported by FreeCAD)
(Post Processor: script_module)
(Output Time:2024-12-10 08:47:33.167669)
(Begin preamble)
G17 G90
G21
(Block-name: Fixture)
(Block-expand: 0)
(Block-enable: 1)
(Begin operation: Fixture)
(Path: Fixture)
G54
(Finish operation: Fixture)
(Block-name: 2mm Endmill001)
(Block-expand: 0)
(Block-enable: 1)
(Begin operation: 2mm Endmill001)
(Path: 2mm Endmill001)
(2mm Endmill001)
(Begin toolchange)
( M6 T3 )
M3 S10000
(Finish operation: 2mm Endmill001)
(Block-name: CutHole)
(Block-expand: 0)
(Block-enable: 1)
(Begin operation: CutHole)
(Path: CutHole)
(Adaptive)
(Helix to depth: -3.000000)
G0 Z6.000
G0 X-21.165 Y34.752 Z6.000
G0 X-21.165 Y34.752 Z4.000
G1 X-21.165 Y34.752 Z1.000 F400.000
G1 X-21.165 Y34.752 Z1.000 F400.000
G1 X-21.131 Y34.719 Z0.996 F400.000
G1 X-21.092 Y34.694 Z0.991 F400.000
G1 X-21.048 Y34.677 Z0.987 F400.000
G1 X-21.002 Y34.668 Z0.983 F400.000
G1 X-20.954 Y34.669 Z0.979 F400.000
G1 X-20.909 Y34.679 Z0.974 F400.000
G1 X-20.865 Y34.698 Z0.970 F400.000
G1 X-20.827 Y34.725 Z0.966 F400.000
G1 X-20.794 Y34.759 Z0.961 F400.000
G1 X-20.769 Y34.798 Z0.957 F400.000
G1 X-20.752 Y34.842 Z0.953 F400.000
G1 X-20.743 Y34.888 Z0.948 F400.000
G1 X-20.744 Y34.936 Z0.944 F400.000
G1 X-20.754 Y34.981 Z0.940 F400.000
G1 X-20.773 Y35.025 Z0.936 F400.000
G1 X-20.800 Y35.063 Z0.931 F400.000
G1 X-20.834 Y35.096 Z0.927 F400.000
G1 X-20.873 Y35.121 Z0.923 F400.000
G1 X-20.917 Y35.138 Z0.918 F400.000
G1 X-20.963 Y35.147 Z0.914 F400.000
G1 X-21.011 Y35.146 Z0.910 F400.000
G1 X-21.056 Y35.136 Z0.906 F400.000
G1 X-21.100 Y35.117 Z0.901 F400.000
G1 X-21.138 Y35.090 Z0.897 F400.000
G1 X-21.171 Y35.056 Z0.893 F400.000
G1 X-21.196 Y35.017 Z0.888 F400.000
G1 X-21.213 Y34.973 Z0.884 F400.000
G1 X-21.222 Y34.927 Z0.880 F400.000
G1 X-21.221 Y34.879 Z0.875 F400.000
G1 X-21.211 Y34.834 Z0.871 F400.000
G1 X-21.192 Y34.790 Z0.867 F400.000
G1 X-21.165 Y34.752 Z0.863 F400.000
G1 X-21.131 Y34.719 Z0.858 F400.000
G1 X-21.092 Y34.694 Z0.854 F400.000
G1 X-21.048 Y34.677 Z0.850 F400.000
G1 X-21.002 Y34.668 Z0.845 F400.000
G1 X-20.954 Y34.669 Z0.841 F400.000
G1 X-20.909 Y34.679 Z0.837 F400.000
G1 X-20.865 Y34.698 Z0.833 F400.000
G1 X-20.827 Y34.725 Z0.828 F400.000
G1 X-20.794 Y34.759 Z0.824 F400.000
G1 X-20.769 Y34.798 Z0.820 F400.000
G1 X-20.752 Y34.842 Z0.815 F400.000
G1 X-20.743 Y34.888 Z0.811 F400.000
G1 X-20.744 Y34.936 Z0.807 F400.000
G1 X-20.754 Y34.981 Z0.802 F400.000
G1 X-20.773 Y35.025 Z0.798 F400.000
G1 X-20.800 Y35.063 Z0.794 F400.000
G1 X-20.834 Y35.096 Z0.790 F400.000
G1 X-20.873 Y35.121 Z0.785 F400.000
G1 X-20.917 Y35.138 Z0.781 F400.000
G1 X-20.963 Y35.147 Z0.777 F400.000
G1 X-21.011 Y35.146 Z0.772 F400.000
G1 X-21.056 Y35.136 Z0.768 F400.000
G1 X-21.100 Y35.117 Z0.764 F400.000
G1 X-21.138 Y35.090 Z0.760 F400.000
G1 X-21.171 Y35.056 Z0.755 F400.000
G1 X-21.196 Y35.017 Z0.751 F400.000
G1 X-21.213 Y34.973 Z0.747 F400.000
G1 X-21.222 Y34.927 Z0.742 F400.000
G1 X-21.221 Y34.879 Z0.738 F400.000
G1 X-21.211 Y34.834 Z0.734 F400.000
G1 X-21.192 Y34.790 Z0.729 F400.000
G1 X-21.165 Y34.752 Z0.725 F400.000
G1 X-21.131 Y34.719 Z0.721 F400.000
G1 X-21.092 Y34.694 Z0.717 F400.000
G1 X-21.048 Y34.677 Z0.712 F400.000
G1 X-21.002 Y34.668 Z0.708 F400.000
G1 X-20.954 Y34.669 Z0.704 F400.000
G1 X-20.909 Y34.679 Z0.699 F400.000
G1 X-20.865 Y34.698 Z0.695 F400.000
G1 X-20.827 Y34.725 Z0.691 F400.000
G1 X-20.794 Y34.759 Z0.686 F400.000
G1 X-20.769 Y34.798 Z0.682 F400.000
G1 X-20.752 Y34.842 Z0.678 F400.000
G1 X-20.743 Y34.888 Z0.674 F400.000
G1 X-20.744 Y34.936 Z0.669 F400.000
G1 X-20.754 Y34.981 Z0.665 F400.000
G1 X-20.773 Y35.025 Z0.661 F400.000
G1 X-20.800 Y35.063 Z0.656 F400.000
G1 X-20.834 Y35.096 Z0.652 F400.000
G1 X-20.873 Y35.121 Z0.648 F400.000
G1 X-20.917 Y35.138 Z0.644 F400.000
G1 X-20.963 Y35.147 Z0.639 F400.000
G1 X-21.011 Y35.146 Z0.635 F400.000
G1 X-21.056 Y35.136 Z0.631 F400.000
G1 X-21.100 Y35.117 Z0.626 F400.000
G1 X-21.138 Y35.090 Z0.622 F400.000
G1 X-21.171 Y35.056 Z0.618 F400.000
G1 X-21.196 Y35.017 Z0.613 F400.000
G1 X-21.213 Y34.973 Z0.609 F400.000
G1 X-21.222 Y34.927 Z0.605 F400.000
G1 X-21.221 Y34.879 Z0.601 F400.000
G1 X-21.211 Y34.834 Z0.596 F400.000
G1 X-21.192 Y34.790 Z0.592 F400.000
G1 X-21.165 Y34.752 Z0.588 F400.000
G1 X-21.131 Y34.719 Z0.583 F400.000
G1 X-21.092 Y34.694 Z0.579 F400.000
G1 X-21.048 Y34.677 Z0.575 F400.000
G1 X-21.002 Y34.668 Z0.571 F400.000
G1 X-20.954 Y34.669 Z0.566 F400.000
G1 X-20.909 Y34.679 Z0.562 F400.000
G1 X-20.865 Y34.698 Z0.558 F400.000
G1 X-20.827 Y34.725 Z0.553 F400.000
G1 X-20.794 Y34.759 Z0.549 F400.000
G1 X-20.769 Y34.798 Z0.545 F400.000
G1 X-20.752 Y34.842 Z0.540 F400.000
G1 X-20.743 Y34.888 Z0.536 F400.000
G1 X-20.744 Y34.936 Z0.532 F400.000
G1 X-20.754 Y34.981 Z0.528 F400.000
G1 X-20.773 Y35.025 Z0.523 F400.000
G1 X-20.800 Y35.063 Z0.519 F400.000
G1 X-20.834 Y35.096 Z0.515 F400.000
G1 X-20.873 Y35.121 Z0.510 F400.000
G1 X-20.917 Y35.138 Z0.506 F400.000
G1 X-20.963 Y35.147 Z0.502 F400.000
G1 X-21.011 Y35.146 Z0.498 F400.000
G1 X-21.056 Y35.136 Z0.493 F400.000
G1 X-21.100 Y35.117 Z0.489 F400.000
G1 X-21.138 Y35.090 Z0.485 F400.000
G1 X-21.171 Y35.056 Z0.480 F400.000
G1 X-21.196 Y35.017 Z0.476 F400.000
G1 X-21.213 Y34.973 Z0.472 F400.000
G1 X-21.222 Y34.927 Z0.467 F400.000
G1 X-21.221 Y34.879 Z0.463 F400.000
G1 X-21.211 Y34.834 Z0.459 F400.000
G1 X-21.192 Y34.790 Z0.455 F400.000
G1 X-21.165 Y34.752 Z0.450 F400.000
G1 X-21.131 Y34.719 Z0.446 F400.000
G1 X-21.092 Y34.694 Z0.442 F400.000
G1 X-21.048 Y34.677 Z0.437 F400.000
G1 X-21.002 Y34.668 Z0.433 F400.000
G1 X-20.954 Y34.669 Z0.429 F400.000
G1 X-20.909 Y34.679 Z0.425 F400.000
G1 X-20.865 Y34.698 Z0.420 F400.000
G1 X-20.827 Y34.725 Z0.416 F400.000
G1 X-20.794 Y34.759 Z0.412 F400.000
G1 X-20.769 Y34.798 Z0.407 F400.000
G1 X-20.752 Y34.842 Z0.403 F400.000
G1 X-20.743 Y34.888 Z0.399 F400.000
G1 X-20.744 Y34.936 Z0.394 F400.000
G1 X-20.754 Y34.981 Z0.390 F400.000
G1 X-20.773 Y35.025 Z0.386 F400.000
G1 X-20.800 Y35.063 Z0.382 F400.000
G1 X-20.834 Y35.096 Z0.377 F400.000
G1 X-20.873 Y35.121 Z0.373 F400.000
G1 X-20.917 Y35.138 Z0.369 F400.000
G1 X-20.963 Y35.147 Z0.364 F400.000
G1 X-21.011 Y35.146 Z0.360 F400.000
G1 X-21.056 Y35.136 Z0.356 F400.000
G1 X-21.100 Y35.117 Z0.352 F400.000
G1 X-21.138 Y35.090 Z0.347 F400.000
G1 X-21.171 Y35.056 Z0.343 F400.000
G1 X-21.196 Y35.017 Z0.339 F400.000
G1 X-21.213 Y34.973 Z0.334 F400.000
G1 X-21.222 Y34.927 Z0.330 F400.000
G1 X-21.221 Y34.879 Z0.326 F400.000
G1 X-21.211 Y34.834 Z0.321 F400.000
G1 X-21.192 Y34.790 Z0.317 F400.000
G1 X-21.165 Y34.752 Z0.313 F400.000
G1 X-21.131 Y34.719 Z0.309 F400.000
G1 X-21.092 Y34.694 Z0.304 F400.000
G1 X-21.048 Y34.677 Z0.300 F400.000
G1 X-21.002 Y34.668 Z0.296 F400.000
G1 X-20.954 Y34.669 Z0.291 F400.000
G1 X-20.909 Y34.679 Z0.287 F400.000
G1 X-20.865 Y34.698 Z0.283 F400.000
G1 X-20.827 Y34.725 Z0.279 F400.000
G1 X-20.794 Y34.759 Z0.274 F400.000
G1 X-20.769 Y34.798 Z0.270 F400.000
G1 X-20.752 Y34.842 Z0.266 F400.000
G1 X-20.743 Y34.888 Z0.261 F400.000
G1 X-20.744 Y34.936 Z0.257 F400.000
G1 X-20.754 Y34.981 Z0.253 F400.000
G1 X-20.773 Y35.025 Z0.248 F400.000
G1 X-20.800 Y35.063 Z0.244 F400.000
G1 X-20.834 Y35.096 Z0.240 F400.000
G1 X-20.873 Y35.121 Z0.236 F400.000
G1 X-20.917 Y35.138 Z0.231 F400.000
G1 X-20.963 Y35.147 Z0.227 F400.000
G1 X-21.011 Y35.146 Z0.223 F400.000
G1 X-21.056 Y35.136 Z0.218 F400.000
G1 X-21.100 Y35.117 Z0.214 F400.000
G1 X-21.138 Y35.090 Z0.210 F400.000
G1 X-21.171 Y35.056 Z0.206 F400.000
G1 X-21.196 Y35.017 Z0.201 F400.000
G1 X-21.213 Y34.973 Z0.197 F400.000
G1 X-21.222 Y34.927 Z0.193 F400.000
G1 X-21.221 Y34.879 Z0.188 F400.000
G1 X-21.211 Y34.834 Z0.184 F400.000
G1 X-21.192 Y34.790 Z0.180 F400.000
G1 X-21.165 Y34.752 Z0.175 F400.000
G1 X-21.131 Y34.719 Z0.171 F400.000
G1 X-21.092 Y34.694 Z0.167 F400.000
G1 X-21.048 Y34.677 Z0.163 F400.000
G1 X-21.002 Y34.668 Z0.158 F400.000
G1 X-20.954 Y34.669 Z0.154 F400.000
G1 X-20.909 Y34.679 Z0.150 F400.000
G1 X-20.865 Y34.698 Z0.145 F400.000
G1 X-20.827 Y34.725 Z0.141 F400.000
G1 X-20.794 Y34.759 Z0.137 F400.000
G1 X-20.769 Y34.798 Z0.132 F400.000
G1 X-20.752 Y34.842 Z0.128 F400.000
G1 X-20.743 Y34.888 Z0.124 F400.000
G1 X-20.744 Y34.936 Z0.120 F400.000
G1 X-20.754 Y34.981 Z0.115 F400.000
G1 X-20.773 Y35.025 Z0.111 F400.000
G1 X-20.800 Y35.063 Z0.107 F400.000
G1 X-20.834 Y35.096 Z0.102 F400.000
G1 X-20.873 Y35.121 Z0.098 F400.000
G1 X-20.917 Y35.138 Z0.094 F400.000
G1 X-20.963 Y35.147 Z0.090 F400.000
G1 X-21.011 Y35.146 Z0.085 F400.000
G1 X-21.056 Y35.136 Z0.081 F400.000
G1 X-21.100 Y35.117 Z0.077 F400.000
G1 X-21.138 Y35.090 Z0.072 F400.000
G1 X-21.171 Y35.056 Z0.068 F400.000
G1 X-21.196 Y35.017 Z0.064 F400.000
G1 X-21.213 Y34.973 Z0.059 F400.000
G1 X-21.222 Y34.927 Z0.055 F400.000
G1 X-21.221 Y34.879 Z0.051 F400.000
G1 X-21.211 Y34.834 Z0.047 F400.000
G1 X-21.192 Y34.790 Z0.042 F400.000
G1 X-21.165 Y34.752 Z0.038 F400.000
G1 X-21.131 Y34.719 Z0.034 F400.000
G1 X-21.092 Y34.694 Z0.029 F400.000
G1 X-21.048 Y34.677 Z0.025 F400.000
G1 X-21.002 Y34.668 Z0.021 F400.000
G1 X-20.954 Y34.669 Z0.017 F400.000
G1 X-20.909 Y34.679 Z0.012 F400.000
G1 X-20.865 Y34.698 Z0.008 F400.000
G1 X-20.827 Y34.725 Z0.004 F400.000
G1 X-20.794 Y34.759 Z-0.001 F400.000
G1 X-20.769 Y34.798 Z-0.005 F400.000
G1 X-20.752 Y34.842 Z-0.009 F400.000
G1 X-20.743 Y34.888 Z-0.014 F400.000
G1 X-20.744 Y34.936 Z-0.018 F400.000
G1 X-20.754 Y34.981 Z-0.022 F400.000
G1 X-20.773 Y35.025 Z-0.026 F400.000
G1 X-20.800 Y35.063 Z-0.031 F400.000
G1 X-20.834 Y35.096 Z-0.035 F400.000
G1 X-20.873 Y35.121 Z-0.039 F400.000
G1 X-20.917 Y35.138 Z-0.044 F400.000
G1 X-20.963 Y35.147 Z-0.048 F400.000
G1 X-21.011 Y35.146 Z-0.052 F400.000
G1 X-21.056 Y35.136 Z-0.056 F400.000
G1 X-21.100 Y35.117 Z-0.061 F400.000
G1 X-21.138 Y35.090 Z-0.065 F400.000
G1 X-21.171 Y35.056 Z-0.069 F400.000
G1 X-21.196 Y35.017 Z-0.074 F400.000
G1 X-21.213 Y34.973 Z-0.078 F400.000
G1 X-21.222 Y34.927 Z-0.082 F400.000
G1 X-21.221 Y34.879 Z-0.087 F400.000
G1 X-21.211 Y34.834 Z-0.091 F400.000
G1 X-21.192 Y34.790 Z-0.095 F400.000
G1 X-21.165 Y34.752 Z-0.099 F400.000
G1 X-21.131 Y34.719 Z-0.104 F400.000
G1 X-21.092 Y34.694 Z-0.108 F400.000
G1 X-21.048 Y34.677 Z-0.112 F400.000
G1 X-21.002 Y34.668 Z-0.117 F400.000
G1 X-20.954 Y34.669 Z-0.121 F400.000
G1 X-20.909 Y34.679 Z-0.125 F400.000
G1 X-20.865 Y34.698 Z-0.129 F400.000
G1 X-20.827 Y34.725 Z-0.134 F400.000
G1 X-20.794 Y34.759 Z-0.138 F400.000
G1 X-20.769 Y34.798 Z-0.142 F400.000
G1 X-20.752 Y34.842 Z-0.147 F400.000
G1 X-20.743 Y34.888 Z-0.151 F400.000
G1 X-20.744 Y34.936 Z-0.155 F400.000
G1 X-20.754 Y34.981 Z-0.160 F400.000
G1 X-20.773 Y35.025 Z-0.164 F400.000
G1 X-20.800 Y35.063 Z-0.168 F400.000
G1 X-20.834 Y35.096 Z-0.172 F400.000
G1 X-20.873 Y35.121 Z-0.177 F400.000
G1 X-20.917 Y35.138 Z-0.181 F400.000
G1 X-20.963 Y35.147 Z-0.185 F400.000
G1 X-21.011 Y35.146 Z-0.190 F400.000
G1 X-21.056 Y35.136 Z-0.194 F400.000
G1 X-21.100 Y35.117 Z-0.198 F400.000
G1 X-21.138 Y35.090 Z-0.202 F400.000
G1 X-21.171 Y35.056 Z-0.207 F400.000
G1 X-21.196 Y35.017 Z-0.211 F400.000
G1 X-21.213 Y34.973 Z-0.215 F400.000
G1 X-21.222 Y34.927 Z-0.220 F400.000
G1 X-21.221 Y34.879 Z-0.224 F400.000
G1 X-21.211 Y34.834 Z-0.228 F400.000
G1 X-21.192 Y34.790 Z-0.233 F400.000
G1 X-21.165 Y34.752 Z-0.237 F400.000
G1 X-21.131 Y34.719 Z-0.241 F400.000
G1 X-21.092 Y34.694 Z-0.245 F400.000
G1 X-21.048 Y34.677 Z-0.250 F400.000
G1 X-21.002 Y34.668 Z-0.254 F400.000
G1 X-20.954 Y34.669 Z-0.258 F400.000
G1 X-20.909 Y34.679 Z-0.263 F400.000
G1 X-20.865 Y34.698 Z-0.267 F400.000
G1 X-20.827 Y34.725 Z-0.271 F400.000
G1 X-20.794 Y34.759 Z-0.275 F400.000
G1 X-20.769 Y34.798 Z-0.280 F400.000
G1 X-20.752 Y34.842 Z-0.284 F400.000
G1 X-20.743 Y34.888 Z-0.288 F400.000
G1 X-20.744 Y34.936 Z-0.293 F400.000
G1 X-20.754 Y34.981 Z-0.297 F400.000
G1 X-20.773 Y35.025 Z-0.301 F400.000
G1 X-20.800 Y35.063 Z-0.306 F400.000
G1 X-20.834 Y35.096 Z-0.310 F400.000
G1 X-20.873 Y35.121 Z-0.314 F400.000
G1 X-20.917 Y35.138 Z-0.318 F400.000
G1 X-20.963 Y35.147 Z-0.323 F400.000
G1 X-21.011 Y35.146 Z-0.327 F400.000
G1 X-21.056 Y35.136 Z-0.331 F400.000
G1 X-21.100 Y35.117 Z-0.336 F400.000
G1 X-21.138 Y35.090 Z-0.340 F400.000
G1 X-21.171 Y35.056 Z-0.344 F400.000
G1 X-21.196 Y35.017 Z-0.349 F400.000
G1 X-21.213 Y34.973 Z-0.353 F400.000
G1 X-21.222 Y34.927 Z-0.357 F400.000
G1 X-21.221 Y34.879 Z-0.361 F400.000
G1 X-21.211 Y34.834 Z-0.366 F400.000
G1 X-21.192 Y34.790 Z-0.370 F400.000
G1 X-21.165 Y34.752 Z-0.374 F400.000
G1 X-21.131 Y34.719 Z-0.379 F400.000
G1 X-21.092 Y34.694 Z-0.383 F400.000
G1 X-21.048 Y34.677 Z-0.387 F400.000
G1 X-21.002 Y34.668 Z-0.391 F400.000
G1 X-20.954 Y34.669 Z-0.396 F400.000
G1 X-20.909 Y34.679 Z-0.400 F400.000
G1 X-20.865 Y34.698 Z-0.404 F400.000
G1 X-20.827 Y34.725 Z-0.409 F400.000
G1 X-20.794 Y34.759 Z-0.413 F400.000
G1 X-20.769 Y34.798 Z-0.417 F400.000
G1 X-20.752 Y34.842 Z-0.422 F400.000
G1 X-20.743 Y34.888 Z-0.426 F400.000
G1 X-20.744 Y34.936 Z-0.430 F400.000
G1 X-20.754 Y34.981 Z-0.434 F400.000
G1 X-20.773 Y35.025 Z-0.439 F400.000
G1 X-20.800 Y35.063 Z-0.443 F400.000
G1 X-20.834 Y35.096 Z-0.447 F400.000
G1 X-20.873 Y35.121 Z-0.452 F400.000
G1 X-20.917 Y35.138 Z-0.456 F400.000
G1 X-20.963 Y35.147 Z-0.460 F400.000
G1 X-21.011 Y35.146 Z-0.464 F400.000
G1 X-21.056 Y35.136 Z-0.469 F400.000
G1 X-21.100 Y35.117 Z-0.473 F400.000
G1 X-21.138 Y35.090 Z-0.477 F400.000
G1 X-21.171 Y35.056 Z-0.482 F400.000
G1 X-21.196 Y35.017 Z-0.486 F400.000
G1 X-21.213 Y34.973 Z-0.490 F400.000
G1 X-21.222 Y34.927 Z-0.495 F400.000
G1 X-21.221 Y34.879 Z-0.499 F400.000
G1 X-21.211 Y34.834 Z-0.503 F400.000
G1 X-21.192 Y34.790 Z-0.507 F400.000
G1 X-21.165 Y34.752 Z-0.512 F400.000
G1 X-21.131 Y34.719 Z-0.516 F400.000
G1 X-21.092 Y34.694 Z-0.520 F400.000
G1 X-21.048 Y34.677 Z-0.525 F400.000
G1 X-21.002 Y34.668 Z-0.529 F400.000
G1 X-20.954 Y34.669 Z-0.533 F400.000
G1 X-20.909 Y34.679 Z-0.537 F400.000
G1 X-20.865 Y34.698 Z-0.542 F400.000
G1 X-20.827 Y34.725 Z-0.546 F400.000
G1 X-20.794 Y34.759 Z-0.550 F400.000
G1 X-20.769 Y34.798 Z-0.555 F400.000
G1 X-20.752 Y34.842 Z-0.559 F400.000
G1 X-20.743 Y34.888 Z-0.563 F400.000
G1 X-20.744 Y34.936 Z-0.568 F400.000
G1 X-20.754 Y34.981 Z-0.572 F400.000
G1 X-20.773 Y35.025 Z-0.576 F400.000
G1 X-20.800 Y35.063 Z-0.580 F400.000
G1 X-20.834 Y35.096 Z-0.585 F400.000
G1 X-20.873 Y35.121 Z-0.589 F400.000
G1 X-20.917 Y35.138 Z-0.593 F400.000
G1 X-20.963 Y35.147 Z-0.598 F400.000
G1 X-21.011 Y35.146 Z-0.602 F400.000
G1 X-21.056 Y35.136 Z-0.606 F400.000
G1 X-21.100 Y35.117 Z-0.610 F400.000
G1 X-21.138 Y35.090 Z-0.615 F400.000
G1 X-21.171 Y35.056 Z-0.619 F400.000
G1 X-21.196 Y35.017 Z-0.623 F400.000
G1 X-21.213 Y34.973 Z-0.628 F400.000
G1 X-21.222 Y34.927 Z-0.632 F400.000
G1 X-21.221 Y34.879 Z-0.636 F400.000
G1 X-21.211 Y34.834 Z-0.641 F400.000
G1 X-21.192 Y34.790 Z-0.645 F400.000
G1 X-21.165 Y34.752 Z-0.649 F400.000
G1 X-21.131 Y34.719 Z-0.653 F400.000
G1 X-21.092 Y34.694 Z-0.658 F400.000
G1 X-21.048 Y34.677 Z-0.662 F400.000
G1 X-21.002 Y34.668 Z-0.666 F400.000
G1 X-20.954 Y34.669 Z-0.671 F400.000
G1 X-20.909 Y34.679 Z-0.675 F400.000
G1 X-20.865 Y34.698 Z-0.679 F400.000
G1 X-20.827 Y34.725 Z-0.683 F400.000
G1 X-20.794 Y34.759 Z-0.688 F400.000
G1 X-20.769 Y34.798 Z-0.692 F400.000
G1 X-20.752 Y34.842 Z-0.696 F400.000
G1 X-20.743 Y34.888 Z-0.701 F400.000
G1 X-20.744 Y34.936 Z-0.705 F400.000
G1 X-20.754 Y34.981 Z-0.709 F400.000
G1 X-20.773 Y35.025 Z-0.714 F400.000
G1 X-20.800 Y35.063 Z-0.718 F400.000
G1 X-20.834 Y35.096 Z-0.722 F400.000
G1 X-20.873 Y35.121 Z-0.726 F400.000
G1 X-20.917 Y35.138 Z-0.731 F400.000
G1 X-20.963 Y35.147 Z-0.735 F400.000
G1 X-21.011 Y35.146 Z-0.739 F400.000
G1 X-21.056 Y35.136 Z-0.744 F400.000
G1 X-21.100 Y35.117 Z-0.748 F400.000
G1 X-21.138 Y35.090 Z-0.752 F400.000
G1 X-21.171 Y35.056 Z-0.756 F400.000
G1 X-21.196 Y35.017 Z-0.761 F400.000
G1 X-21.213 Y34.973 Z-0.765 F400.000
G1 X-21.222 Y34.927 Z-0.769 F400.000
G1 X-21.221 Y34.879 Z-0.774 F400.000
G1 X-21.211 Y34.834 Z-0.778 F400.000
G1 X-21.192 Y34.790 Z-0.782 F400.000
G1 X-21.165 Y34.752 Z-0.787 F400.000
G1 X-21.131 Y34.719 Z-0.791 F400.000
G1 X-21.092 Y34.694 Z-0.795 F400.000
G1 X-21.048 Y34.677 Z-0.799 F400.000
G1 X-21.002 Y34.668 Z-0.804 F400.000
G1 X-20.954 Y34.669 Z-0.808 F400.000
G1 X-20.909 Y34.679 Z-0.812 F400.000
G1 X-20.865 Y34.698 Z-0.817 F400.000
G1 X-20.827 Y34.725 Z-0.821 F400.000
G1 X-20.794 Y34.759 Z-0.825 F400.000
G1 X-20.769 Y34.798 Z-0.829 F400.000
G1 X-20.752 Y34.842 Z-0.834 F400.000
G1 X-20.743 Y34.888 Z-0.838 F400.000
G1 X-20.744 Y34.936 Z-0.842 F400.000
G1 X-20.754 Y34.981 Z-0.847 F400.000
G1 X-20.773 Y35.025 Z-0.851 F400.000
G1 X-20.800 Y35.063 Z-0.855 F400.000
G1 X-20.834 Y35.096 Z-0.860 F400.000
G1 X-20.873 Y35.121 Z-0.864 F400.000
G1 X-20.917 Y35.138 Z-0.868 F400.000
G1 X-20.963 Y35.147 Z-0.872 F400.000
G1 X-21.011 Y35.146 Z-0.877 F400.000
G1 X-21.056 Y35.136 Z-0.881 F400.000
G1 X-21.100 Y35.117 Z-0.885 F400.000
G1 X-21.138 Y35.090 Z-0.890 F400.000
G1 X-21.171 Y35.056 Z-0.894 F400.000
G1 X-21.196 Y35.017 Z-0.898 F400.000
G1 X-21.213 Y34.973 Z-0.903 F400.000
G1 X-21.222 Y34.927 Z-0.907 F400.000
G1 X-21.221 Y34.879 Z-0.911 F400.000
G1 X-21.211 Y34.834 Z-0.915 F400.000
G1 X-21.192 Y34.790 Z-0.920 F400.000
G1 X-21.165 Y34.752 Z-0.924 F400.000
G1 X-21.131 Y34.719 Z-0.928 F400.000
G1 X-21.092 Y34.694 Z-0.933 F400.000
G1 X-21.048 Y34.677 Z-0.937 F400.000
G1 X-21.002 Y34.668 Z-0.941 F400.000
G1 X-20.954 Y34.669 Z-0.945 F400.000
G1 X-20.909 Y34.679 Z-0.950 F400.000
G1 X-20.865 Y34.698 Z-0.954 F400.000
G1 X-20.827 Y34.725 Z-0.958 F400.000
G1 X-20.794 Y34.759 Z-0.963 F400.000
G1 X-20.769 Y34.798 Z-0.967 F400.000
G1 X-20.752 Y34.842 Z-0.971 F400.000
G1 X-20.743 Y34.888 Z-0.976 F400.000
G1 X-20.744 Y34.936 Z-0.980 F400.000
G1 X-20.754 Y34.981 Z-0.984 F400.000
G1 X-20.773 Y35.025 Z-0.988 F400.000
G1 X-20.800 Y35.063 Z-0.993 F400.000
G1 X-20.834 Y35.096 Z-0.997 F400.000
G1 X-20.873 Y35.121 Z-1.001 F400.000
G1 X-20.917 Y35.138 Z-1.006 F400.000
G1 X-20.963 Y35.147 Z-1.010 F400.000
G1 X-21.011 Y35.146 Z-1.014 F400.000
G1 X-21.056 Y35.136 Z-1.018 F400.000
G1 X-21.100 Y35.117 Z-1.023 F400.000
G1 X-21.138 Y35.090 Z-1.027 F400.000
G1 X-21.171 Y35.056 Z-1.031 F400.000
G1 X-21.196 Y35.017 Z-1.036 F400.000
G1 X-21.213 Y34.973 Z-1.040 F400.000
G1 X-21.222 Y34.927 Z-1.044 F400.000
G1 X-21.221 Y34.879 Z-1.049 F400.000
G1 X-21.211 Y34.834 Z-1.053 F400.000
G1 X-21.192 Y34.790 Z-1.057 F400.000
G1 X-21.165 Y34.752 Z-1.061 F400.000
G1 X-21.131 Y34.719 Z-1.066 F400.000
G1 X-21.092 Y34.694 Z-1.070 F400.000
G1 X-21.048 Y34.677 Z-1.074 F400.000
G1 X-21.002 Y34.668 Z-1.079 F400.000
G1 X-20.954 Y34.669 Z-1.083 F400.000
G1 X-20.909 Y34.679 Z-1.087 F400.000
G1 X-20.865 Y34.698 Z-1.091 F400.000
G1 X-20.827 Y34.725 Z-1.096 F400.000
G1 X-20.794 Y34.759 Z-1.100 F400.000
G1 X-20.769 Y34.798 Z-1.104 F400.000
G1 X-20.752 Y34.842 Z-1.109 F400.000
G1 X-20.743 Y34.888 Z-1.113 F400.000
G1 X-20.744 Y34.936 Z-1.117 F400.000
G1 X-20.754 Y34.981 Z-1.122 F400.000
G1 X-20.773 Y35.025 Z-1.126 F400.000
G1 X-20.800 Y35.063 Z-1.130 F400.000
G1 X-20.834 Y35.096 Z-1.134 F400.000
G1 X-20.873 Y35.121 Z-1.139 F400.000
G1 X-20.917 Y35.138 Z-1.143 F400.000
G1 X-20.963 Y35.147 Z-1.147 F400.000
G1 X-21.011 Y35.146 Z-1.152 F400.000
G1 X-21.056 Y35.136 Z-1.156 F400.000
G1 X-21.100 Y35.117 Z-1.160 F400.000
G1 X-21.138 Y35.090 Z-1.164 F400.000
G1 X-21.171 Y35.056 Z-1.169 F400.000
G1 X-21.196 Y35.017 Z-1.173 F400.000
G1 X-21.213 Y34.973 Z-1.177 F400.000
G1 X-21.222 Y34.927 Z-1.182 F400.000
G1 X-21.221 Y34.879 Z-1.186 F400.000
G1 X-21.211 Y34.834 Z-1.190 F400.000
G1 X-21.192 Y34.790 Z-1.195 F400.000
G1 X-21.165 Y34.752 Z-1.199 F400.000
G1 X-21.131 Y34.719 Z-1.203 F400.000
G1 X-21.092 Y34.694 Z-1.207 F400.000
G1 X-21.048 Y34.677 Z-1.212 F400.000
G1 X-21.002 Y34.668 Z-1.216 F400.000
G1 X-20.954 Y34.669 Z-1.220 F400.000
G1 X-20.909 Y34.679 Z-1.225 F400.000
G1 X-20.865 Y34.698 Z-1.229 F400.000
G1 X-20.827 Y34.725 Z-1.233 F400.000
G1 X-20.794 Y34.759 Z-1.237 F400.000
G1 X-20.769 Y34.798 Z-1.242 F400.000
G1 X-20.752 Y34.842 Z-1.246 F400.000
G1 X-20.743 Y34.888 Z-1.250 F400.000
G1 X-20.744 Y34.936 Z-1.255 F400.000
G1 X-20.754 Y34.981 Z-1.259 F400.000
G1 X-20.773 Y35.025 Z-1.263 F400.000
G1 X-20.800 Y35.063 Z-1.268 F400.000
G1 X-20.834 Y35.096 Z-1.272 F400.000
G1 X-20.873 Y35.121 Z-1.276 F400.000
G1 X-20.917 Y35.138 Z-1.280 F400.000
G1 X-20.963 Y35.147 Z-1.285 F400.000
G1 X-21.011 Y35.146 Z-1.289 F400.000
G1 X-21.056 Y35.136 Z-1.293 F400.000
G1 X-21.100 Y35.117 Z-1.298 F400.000
G1 X-21.138 Y35.090 Z-1.302 F400.000
G1 X-21.171 Y35.056 Z-1.306 F400.000
G1 X-21.196 Y35.017 Z-1.310 F400.000
G1 X-21.213 Y34.973 Z-1.315 F400.000
G1 X-21.222 Y34.927 Z-1.319 F400.000
G1 X-21.221 Y34.879 Z-1.323 F400.000
G1 X-21.211 Y34.834 Z-1.328 F400.000
G1 X-21.192 Y34.790 Z-1.332 F400.000
G1 X-21.165 Y34.752 Z-1.336 F400.000
G1 X-21.131 Y34.719 Z-1.341 F400.000
G1 X-21.092 Y34.694 Z-1.345 F400.000
G1 X-21.048 Y34.677 Z-1.349 F400.000
G1 X-21.002 Y34.668 Z-1.353 F400.000
G1 X-20.954 Y34.669 Z-1.358 F400.000
G1 X-20.909 Y34.679 Z-1.362 F400.000
G1 X-20.865 Y34.698 Z-1.366 F400.000
G1 X-20.827 Y34.725 Z-1.371 F400.000
G1 X-20.794 Y34.759 Z-1.375 F400.000
G1 X-20.769 Y34.798 Z-1.379 F400.000
G1 X-20.752 Y34.842 Z-1.383 F400.000
G1 X-20.743 Y34.888 Z-1.388 F400.000
G1 X-20.744 Y34.936 Z-1.392 F400.000
G1 X-20.754 Y34.981 Z-1.396 F400.000
G1 X-20.773 Y35.025 Z-1.401 F400.000
G1 X-20.800 Y35.063 Z-1.405 F400.000
G1 X-20.834 Y35.096 Z-1.409 F400.000
G1 X-20.873 Y35.121 Z-1.414 F400.000
G1 X-20.917 Y35.138 Z-1.418 F400.000
G1 X-20.963 Y35.147 Z-1.422 F400.000
G1 X-21.011 Y35.146 Z-1.426 F400.000
G1 X-21.056 Y35.136 Z-1.431 F400.000
G1 X-21.100 Y35.117 Z-1.435 F400.000
G1 X-21.138 Y35.090 Z-1.439 F400.000
G1 X-21.171 Y35.056 Z-1.444 F400.000
G1 X-21.196 Y35.017 Z-1.448 F400.000
G1 X-21.213 Y34.973 Z-1.452 F400.000
G1 X-21.222 Y34.927 Z-1.457 F400.000
G1 X-21.221 Y34.879 Z-1.461 F400.000
G1 X-21.211 Y34.834 Z-1.465 F400.000
G1 X-21.192 Y34.790 Z-1.469 F400.000
G1 X-21.165 Y34.752 Z-1.474 F400.000
G1 X-21.131 Y34.719 Z-1.478 F400.000
G1 X-21.092 Y34.694 Z-1.482 F400.000
G1 X-21.048 Y34.677 Z-1.487 F400.000
G1 X-21.002 Y34.668 Z-1.491 F400.000
G1 X-20.954 Y34.669 Z-1.495 F400.000
G1 X-20.909 Y34.679 Z-1.499 F400.000
G1 X-20.865 Y34.698 Z-1.504 F400.000
G1 X-20.827 Y34.725 Z-1.508 F400.000
G1 X-20.794 Y34.759 Z-1.512 F400.000
G1 X-20.769 Y34.798 Z-1.517 F400.000
G1 X-20.752 Y34.842 Z-1.521 F400.000
G1 X-20.743 Y34.888 Z-1.525 F400.000
G1 X-20.744 Y34.936 Z-1.530 F400.000
G1 X-20.754 Y34.981 Z-1.534 F400.000
G1 X-20.773 Y35.025 Z-1.538 F400.000
G1 X-20.800 Y35.063 Z-1.542 F400.000
G1 X-20.834 Y35.096 Z-1.547 F400.000
G1 X-20.873 Y35.121 Z-1.551 F400.000
G1 X-20.917 Y35.138 Z-1.555 F400.000
G1 X-20.963 Y35.147 Z-1.560 F400.000
G1 X-21.011 Y35.146 Z-1.564 F400.000
G1 X-21.056 Y35.136 Z-1.568 F400.000
G1 X-21.100 Y35.117 Z-1.572 F400.000
G1 X-21.138 Y35.090 Z-1.577 F400.000
G1 X-21.171 Y35.056 Z-1.581 F400.000
G1 X-21.196 Y35.017 Z-1.585 F400.000
G1 X-21.213 Y34.973 Z-1.590 F400.000
G1 X-21.222 Y34.927 Z-1.594 F400.000
G1 X-21.221 Y34.879 Z-1.598 F400.000
G1 X-21.211 Y34.834 Z-1.603 F400.000
G1 X-21.192 Y34.790 Z-1.607 F400.000
G1 X-21.165 Y34.752 Z-1.611 F400.000
G1 X-21.131 Y34.719 Z-1.615 F400.000
G1 X-21.092 Y34.694 Z-1.620 F400.000
G1 X-21.048 Y34.677 Z-1.624 F400.000
G1 X-21.002 Y34.668 Z-1.628 F400.000
G1 X-20.954 Y34.669 Z-1.633 F400.000
G1 X-20.909 Y34.679 Z-1.637 F400.000
G1 X-20.865 Y34.698 Z-1.641 F400.000
G1 X-20.827 Y34.725 Z-1.645 F400.000
G1 X-20.794 Y34.759 Z-1.650 F400.000
G1 X-20.769 Y34.798 Z-1.654 F400.000
G1 X-20.752 Y34.842 Z-1.658 F400.000
G1 X-20.743 Y34.888 Z-1.663 F400.000
G1 X-20.744 Y34.936 Z-1.667 F400.000
G1 X-20.754 Y34.981 Z-1.671 F400.000
G1 X-20.773 Y35.025 Z-1.676 F400.000
G1 X-20.800 Y35.063 Z-1.680 F400.000
G1 X-20.834 Y35.096 Z-1.684 F400.000
G1 X-20.873 Y35.121 Z-1.688 F400.000
G1 X-20.917 Y35.138 Z-1.693 F400.000
G1 X-20.963 Y35.147 Z-1.697 F400.000
G1 X-21.011 Y35.146 Z-1.701 F400.000
G1 X-21.056 Y35.136 Z-1.706 F400.000
G1 X-21.100 Y35.117 Z-1.710 F400.000
G1 X-21.138 Y35.090 Z-1.714 F400.000
G1 X-21.171 Y35.056 Z-1.718 F400.000
G1 X-21.196 Y35.017 Z-1.723 F400.000
G1 X-21.213 Y34.973 Z-1.727 F400.000
G1 X-21.222 Y34.927 Z-1.731 F400.000
G1 X-21.221 Y34.879 Z-1.736 F400.000
G1 X-21.211 Y34.834 Z-1.740 F400.000
G1 X-21.192 Y34.790 Z-1.744 F400.000
G1 X-21.165 Y34.752 Z-1.749 F400.000
G1 X-21.131 Y34.719 Z-1.753 F400.000
G1 X-21.092 Y34.694 Z-1.757 F400.000
G1 X-21.048 Y34.677 Z-1.761 F400.000
G1 X-21.002 Y34.668 Z-1.766 F400.000
G1 X-20.954 Y34.669 Z-1.770 F400.000
G1 X-20.909 Y34.679 Z-1.774 F400.000
G1 X-20.865 Y34.698 Z-1.779 F400.000
G1 X-20.827 Y34.725 Z-1.783 F400.000
G1 X-20.794 Y34.759 Z-1.787 F400.000
G1 X-20.769 Y34.798 Z-1.791 F400.000
G1 X-20.752 Y34.842 Z-1.796 F400.000
G1 X-20.743 Y34.888 Z-1.800 F400.000
G1 X-20.744 Y34.936 Z-1.804 F400.000
G1 X-20.754 Y34.981 Z-1.809 F400.000
G1 X-20.773 Y35.025 Z-1.813 F400.000
G1 X-20.800 Y35.063 Z-1.817 F400.000
G1 X-20.834 Y35.096 Z-1.822 F400.000
G1 X-20.873 Y35.121 Z-1.826 F400.000
G1 X-20.917 Y35.138 Z-1.830 F400.000
G1 X-20.963 Y35.147 Z-1.834 F400.000
G1 X-21.011 Y35.146 Z-1.839 F400.000
G1 X-21.056 Y35.136 Z-1.843 F400.000
G1 X-21.100 Y35.117 Z-1.847 F400.000
G1 X-21.138 Y35.090 Z-1.852 F400.000
G1 X-21.171 Y35.056 Z-1.856 F400.000
G1 X-21.196 Y35.017 Z-1.860 F400.000
G1 X-21.213 Y34.973 Z-1.864 F400.000
G1 X-21.222 Y34.927 Z-1.869 F400.000
G1 X-21.221 Y34.879 Z-1.873 F400.000
G1 X-21.211 Y34.834 Z-1.877 F400.000
G1 X-21.192 Y34.790 Z-1.882 F400.000
G1 X-21.165 Y34.752 Z-1.886 F400.000
G1 X-21.131 Y34.719 Z-1.890 F400.000
G1 X-21.092 Y34.694 Z-1.895 F400.000
G1 X-21.048 Y34.677 Z-1.899 F400.000
G1 X-21.002 Y34.668 Z-1.903 F400.000
G1 X-20.954 Y34.669 Z-1.907 F400.000
G1 X-20.909 Y34.679 Z-1.912 F400.000
G1 X-20.865 Y34.698 Z-1.916 F400.000
G1 X-20.827 Y34.725 Z-1.920 F400.000
G1 X-20.794 Y34.759 Z-1.925 F400.000
G1 X-20.769 Y34.798 Z-1.929 F400.000
G1 X-20.752 Y34.842 Z-1.933 F400.000
G1 X-20.743 Y34.888 Z-1.937 F400.000
G1 X-20.744 Y34.936 Z-1.942 F400.000
G1 X-20.754 Y34.981 Z-1.946 F400.000
G1 X-20.773 Y35.025 Z-1.950 F400.000
G1 X-20.800 Y35.063 Z-1.955 F400.000
G1 X-20.834 Y35.096 Z-1.959 F400.000
G1 X-20.873 Y35.121 Z-1.963 F400.000
G1 X-20.917 Y35.138 Z-1.968 F400.000
G1 X-20.963 Y35.147 Z-1.972 F400.000
G1 X-21.011 Y35.146 Z-1.976 F400.000
G1 X-21.056 Y35.136 Z-1.980 F400.000
G1 X-21.100 Y35.117 Z-1.985 F400.000
G1 X-21.138 Y35.090 Z-1.989 F400.000
G1 X-21.171 Y35.056 Z-1.993 F400.000
G1 X-21.196 Y35.017 Z-1.998 F400.000
G1 X-21.213 Y34.973 Z-2.002 F400.000
G1 X-21.222 Y34.927 Z-2.006 F400.000
G1 X-21.221 Y34.879 Z-2.011 F400.000
G1 X-21.211 Y34.834 Z-2.015 F400.000
G1 X-21.192 Y34.790 Z-2.019 F400.000
G1 X-21.165 Y34.752 Z-2.023 F400.000
G1 X-21.131 Y34.719 Z-2.028 F400.000
G1 X-21.092 Y34.694 Z-2.032 F400.000
G1 X-21.048 Y34.677 Z-2.036 F400.000
G1 X-21.002 Y34.668 Z-2.041 F400.000
G1 X-20.954 Y34.669 Z-2.045 F400.000
G1 X-20.909 Y34.679 Z-2.049 F400.000
G1 X-20.865 Y34.698 Z-2.053 F400.000
G1 X-20.827 Y34.725 Z-2.058 F400.000
G1 X-20.794 Y34.759 Z-2.062 F400.000
G1 X-20.769 Y34.798 Z-2.066 F400.000
G1 X-20.752 Y34.842 Z-2.071 F400.000
G1 X-20.743 Y34.888 Z-2.075 F400.000
G1 X-20.744 Y34.936 Z-2.079 F400.000
G1 X-20.754 Y34.981 Z-2.084 F400.000
G1 X-20.773 Y35.025 Z-2.088 F400.000
G1 X-20.800 Y35.063 Z-2.092 F400.000
G1 X-20.834 Y35.096 Z-2.096 F400.000
G1 X-20.873 Y35.121 Z-2.101 F400.000
G1 X-20.917 Y35.138 Z-2.105 F400.000
G1 X-20.963 Y35.147 Z-2.109 F400.000
G1 X-21.011 Y35.146 Z-2.114 F400.000
G1 X-21.056 Y35.136 Z-2.118 F400.000
G1 X-21.100 Y35.117 Z-2.122 F400.000
G1 X-21.138 Y35.090 Z-2.126 F400.000
G1 X-21.171 Y35.056 Z-2.131 F400.000
G1 X-21.196 Y35.017 Z-2.135 F400.000
G1 X-21.213 Y34.973 Z-2.139 F400.000
G1 X-21.222 Y34.927 Z-2.144 F400.000
G1 X-21.221 Y34.879 Z-2.148 F400.000
G1 X-21.211 Y34.834 Z-2.152 F400.000
G1 X-21.192 Y34.790 Z-2.157 F400.000
G1 X-21.165 Y34.752 Z-2.161 F400.000
G1 X-21.131 Y34.719 Z-2.165 F400.000
G1 X-21.092 Y34.694 Z-2.169 F400.000
G1 X-21.048 Y34.677 Z-2.174 F400.000
G1 X-21.002 Y34.668 Z-2.178 F400.000
G1 X-20.954 Y34.669 Z-2.182 F400.000
G1 X-20.909 Y34.679 Z-2.187 F400.000
G1 X-20.865 Y34.698 Z-2.191 F400.000
G1 X-20.827 Y34.725 Z-2.195 F400.000
G1 X-20.794 Y34.759 Z-2.199 F400.000
G1 X-20.769 Y34.798 Z-2.204 F400.000
G1 X-20.752 Y34.842 Z-2.208 F400.000
G1 X-20.743 Y34.888 Z-2.212 F400.000
G1 X-20.744 Y34.936 Z-2.217 F400.000
G1 X-20.754 Y34.981 Z-2.221 F400.000
G1 X-20.773 Y35.025 Z-2.225 F400.000
G1 X-20.800 Y35.063 Z-2.230 F400.000
G1 X-20.834 Y35.096 Z-2.234 F400.000
G1 X-20.873 Y35.121 Z-2.238 F400.000
G1 X-20.917 Y35.138 Z-2.242 F400.000
G1 X-20.963 Y35.147 Z-2.247 F400.000
G1 X-21.011 Y35.146 Z-2.251 F400.000
G1 X-21.056 Y35.136 Z-2.255 F400.000
G1 X-21.100 Y35.117 Z-2.260 F400.000
G1 X-21.138 Y35.090 Z-2.264 F400.000
G1 X-21.171 Y35.056 Z-2.268 F400.000
G1 X-21.196 Y35.017 Z-2.272 F400.000
G1 X-21.213 Y34.973 Z-2.277 F400.000
G1 X-21.222 Y34.927 Z-2.281 F400.000
G1 X-21.221 Y34.879 Z-2.285 F400.000
G1 X-21.211 Y34.834 Z-2.290 F400.000
G1 X-21.192 Y34.790 Z-2.294 F400.000
G1 X-21.165 Y34.752 Z-2.298 F400.000
G1 X-21.131 Y34.719 Z-2.303 F400.000
G1 X-21.092 Y34.694 Z-2.307 F400.000
G1 X-21.048 Y34.677 Z-2.311 F400.000
G1 X-21.002 Y34.668 Z-2.315 F400.000
G1 X-20.954 Y34.669 Z-2.320 F400.000
G1 X-20.909 Y34.679 Z-2.324 F400.000
G1 X-20.865 Y34.698 Z-2.328 F400.000
G1 X-20.827 Y34.725 Z-2.333 F400.000
G1 X-20.794 Y34.759 Z-2.337 F400.000
G1 X-20.769 Y34.798 Z-2.341 F400.000
G1 X-20.752 Y34.842 Z-2.345 F400.000
G1 X-20.743 Y34.888 Z-2.350 F400.000
G1 X-20.744 Y34.936 Z-2.354 F400.000
G1 X-20.754 Y34.981 Z-2.358 F400.000
G1 X-20.773 Y35.025 Z-2.363 F400.000
G1 X-20.800 Y35.063 Z-2.367 F400.000
G1 X-20.834 Y35.096 Z-2.371 F400.000
G1 X-20.873 Y35.121 Z-2.376 F400.000
G1 X-20.917 Y35.138 Z-2.380 F400.000
G1 X-20.963 Y35.147 Z-2.384 F400.000
G1 X-21.011 Y35.146 Z-2.388 F400.000
G1 X-21.056 Y35.136 Z-2.393 F400.000
G1 X-21.100 Y35.117 Z-2.397 F400.000
G1 X-21.138 Y35.090 Z-2.401 F400.000
G1 X-21.171 Y35.056 Z-2.406 F400.000
G1 X-21.196 Y35.017 Z-2.410 F400.000
G1 X-21.213 Y34.973 Z-2.414 F400.000
G1 X-21.222 Y34.927 Z-2.418 F400.000
G1 X-21.221 Y34.879 Z-2.423 F400.000
G1 X-21.211 Y34.834 Z-2.427 F400.000
G1 X-21.192 Y34.790 Z-2.431 F400.000
G1 X-21.165 Y34.752 Z-2.436 F400.000
G1 X-21.131 Y34.719 Z-2.440 F400.000
G1 X-21.092 Y34.694 Z-2.444 F400.000
G1 X-21.048 Y34.677 Z-2.449 F400.000
G1 X-21.002 Y34.668 Z-2.453 F400.000
G1 X-20.954 Y34.669 Z-2.457 F400.000
G1 X-20.909 Y34.679 Z-2.461 F400.000
G1 X-20.865 Y34.698 Z-2.466 F400.000
G1 X-20.827 Y34.725 Z-2.470 F400.000
G1 X-20.794 Y34.759 Z-2.474 F400.000
G1 X-20.769 Y34.798 Z-2.479 F400.000
G1 X-20.752 Y34.842 Z-2.483 F400.000
G1 X-20.743 Y34.888 Z-2.487 F400.000
G1 X-20.744 Y34.936 Z-2.492 F400.000
G1 X-20.754 Y34.981 Z-2.496 F400.000
G1 X-20.773 Y35.025 Z-2.500 F400.000
G1 X-20.800 Y35.063 Z-2.504 F400.000
G1 X-20.834 Y35.096 Z-2.509 F400.000
G1 X-20.873 Y35.121 Z-2.513 F400.000
G1 X-20.917 Y35.138 Z-2.517 F400.000
G1 X-20.963 Y35.147 Z-2.522 F400.000
G1 X-21.011 Y35.146 Z-2.526 F400.000
G1 X-21.056 Y35.136 Z-2.530 F400.000
G1 X-21.100 Y35.117 Z-2.534 F400.000
G1 X-21.138 Y35.090 Z-2.539 F400.000
G1 X-21.171 Y35.056 Z-2.543 F400.000
G1 X-21.196 Y35.017 Z-2.547 F400.000
G1 X-21.213 Y34.973 Z-2.552 F400.000
G1 X-21.222 Y34.927 Z-2.556 F400.000
G1 X-21.221 Y34.879 Z-2.560 F400.000
G1 X-21.211 Y34.834 Z-2.565 F400.000
G1 X-21.192 Y34.790 Z-2.569 F400.000
G1 X-21.165 Y34.752 Z-2.573 F400.000
G1 X-21.131 Y34.719 Z-2.577 F400.000
G1 X-21.092 Y34.694 Z-2.582 F400.000
G1 X-21.048 Y34.677 Z-2.586 F400.000
G1 X-21.002 Y34.668 Z-2.590 F400.000
G1 X-20.954 Y34.669 Z-2.595 F400.000
G1 X-20.909 Y34.679 Z-2.599 F400.000
G1 X-20.865 Y34.698 Z-2.603 F400.000
G1 X-20.827 Y34.725 Z-2.607 F400.000
G1 X-20.794 Y34.759 Z-2.612 F400.000
G1 X-20.769 Y34.798 Z-2.616 F400.000
G1 X-20.752 Y34.842 Z-2.620 F400.000
G1 X-20.743 Y34.888 Z-2.625 F400.000
G1 X-20.744 Y34.936 Z-2.629 F400.000
G1 X-20.754 Y34.981 Z-2.633 F400.000
G1 X-20.773 Y35.025 Z-2.638 F400.000
G1 X-20.800 Y35.063 Z-2.642 F400.000
G1 X-20.834 Y35.096 Z-2.646 F400.000
G1 X-20.873 Y35.121 Z-2.650 F400.000
G1 X-20.917 Y35.138 Z-2.655 F400.000
G1 X-20.963 Y35.147 Z-2.659 F400.000
G1 X-21.011 Y35.146 Z-2.663 F400.000
G1 X-21.056 Y35.136 Z-2.668 F400.000
G1 X-21.100 Y35.117 Z-2.672 F400.000
G1 X-21.138 Y35.090 Z-2.676 F400.000
G1 X-21.171 Y35.056 Z-2.680 F400.000
G1 X-21.196 Y35.017 Z-2.685 F400.000
G1 X-21.213 Y34.973 Z-2.689 F400.000
G1 X-21.222 Y34.927 Z-2.693 F400.000
G1 X-21.221 Y34.879 Z-2.698 F400.000
G1 X-21.211 Y34.834 Z-2.702 F400.000
G1 X-21.192 Y34.790 Z-2.706 F400.000
G1 X-21.165 Y34.752 Z-2.711 F400.000
G1 X-21.131 Y34.719 Z-2.715 F400.000
G1 X-21.092 Y34.694 Z-2.719 F400.000
G1 X-21.048 Y34.677 Z-2.723 F400.000
G1 X-21.002 Y34.668 Z-2.728 F400.000
G1 X-20.954 Y34.669 Z-2.732 F400.000
G1 X-20.909 Y34.679 Z-2.736 F400.000
G1 X-20.865 Y34.698 Z-2.741 F400.000
G1 X-20.827 Y34.725 Z-2.745 F400.000
G1 X-20.794 Y34.759 Z-2.749 F400.000
G1 X-20.769 Y34.798 Z-2.753 F400.000
G1 X-20.752 Y34.842 Z-2.758 F400.000
G1 X-20.743 Y34.888 Z-2.762 F400.000
G1 X-20.744 Y34.936 Z-2.766 F400.000
G1 X-20.754 Y34.981 Z-2.771 F400.000
G1 X-20.773 Y35.025 Z-2.775 F400.000
G1 X-20.800 Y35.063 Z-2.779 F400.000
G1 X-20.834 Y35.096 Z-2.784 F400.000
G1 X-20.873 Y35.121 Z-2.788 F400.000
G1 X-20.917 Y35.138 Z-2.792 F400.000
G1 X-20.963 Y35.147 Z-2.796 F400.000
G1 X-21.011 Y35.146 Z-2.801 F400.000
G1 X-21.056 Y35.136 Z-2.805 F400.000
G1 X-21.100 Y35.117 Z-2.809 F400.000
G1 X-21.138 Y35.090 Z-2.814 F400.000
G1 X-21.171 Y35.056 Z-2.818 F400.000
G1 X-21.196 Y35.017 Z-2.822 F400.000
G1 X-21.213 Y34.973 Z-2.826 F400.000
G1 X-21.222 Y34.927 Z-2.831 F400.000
G1 X-21.221 Y34.879 Z-2.835 F400.000
G1 X-21.211 Y34.834 Z-2.839 F400.000
G1 X-21.192 Y34.790 Z-2.844 F400.000
G1 X-21.165 Y34.752 Z-2.848 F400.000
G1 X-21.131 Y34.719 Z-2.852 F400.000
G1 X-21.092 Y34.694 Z-2.857 F400.000
G1 X-21.048 Y34.677 Z-2.861 F400.000
G1 X-21.002 Y34.668 Z-2.865 F400.000
G1 X-20.954 Y34.669 Z-2.869 F400.000
G1 X-20.909 Y34.679 Z-2.874 F400.000
G1 X-20.865 Y34.698 Z-2.878 F400.000
G1 X-20.827 Y34.725 Z-2.882 F400.000
G1 X-20.794 Y34.759 Z-2.887 F400.000
G1 X-20.769 Y34.798 Z-2.891 F400.000
G1 X-20.752 Y34.842 Z-2.895 F400.000
G1 X-20.743 Y34.888 Z-2.899 F400.000
G1 X-20.744 Y34.936 Z-2.904 F400.000
G1 X-20.754 Y34.981 Z-2.908 F400.000
G1 X-20.773 Y35.025 Z-2.912 F400.000
G1 X-20.800 Y35.063 Z-2.917 F400.000
G1 X-20.834 Y35.096 Z-2.921 F400.000
G1 X-20.873 Y35.121 Z-2.925 F400.000
G1 X-20.917 Y35.138 Z-2.930 F400.000
G1 X-20.963 Y35.147 Z-2.934 F400.000
G1 X-21.011 Y35.146 Z-2.938 F400.000
G1 X-21.056 Y35.136 Z-2.942 F400.000
G1 X-21.100 Y35.117 Z-2.947 F400.000
G1 X-21.138 Y35.090 Z-2.951 F400.000
G1 X-21.171 Y35.056 Z-2.955 F400.000
G1 X-21.196 Y35.017 Z-2.960 F400.000
G1 X-21.213 Y34.973 Z-2.964 F400.000
G1 X-21.222 Y34.927 Z-2.968 F400.000
G1 X-21.221 Y34.879 Z-2.972 F400.000
G1 X-21.211 Y34.834 Z-2.977 F400.000
G1 X-21.192 Y34.790 Z-2.981 F400.000
G1 X-21.165 Y34.752 Z-2.985 F400.000
G1 X-21.131 Y34.719 Z-2.990 F400.000
G1 X-21.092 Y34.694 Z-2.994 F400.000
G1 X-21.048 Y34.677 Z-2.998 F400.000
G1 X-21.002 Y34.668 Z-3.000 F400.000
G1 X-20.954 Y34.669 Z-3.000 F400.000
G1 X-20.909 Y34.679 Z-3.000 F400.000
G1 X-20.865 Y34.698 Z-3.000 F400.000
G1 X-20.827 Y34.725 Z-3.000 F400.000
G1 X-20.794 Y34.759 Z-3.000 F400.000
G1 X-20.769 Y34.798 Z-3.000 F400.000
G1 X-20.752 Y34.842 Z-3.000 F400.000
G1 X-20.743 Y34.888 Z-3.000 F400.000
G1 X-20.744 Y34.936 Z-3.000 F400.000
G1 X-20.754 Y34.981 Z-3.000 F400.000
G1 X-20.773 Y35.025 Z-3.000 F400.000
G1 X-20.800 Y35.063 Z-3.000 F400.000
G1 X-20.834 Y35.096 Z-3.000 F400.000
G1 X-20.873 Y35.121 Z-3.000 F400.000
G1 X-20.917 Y35.138 Z-3.000 F400.000
G1 X-20.963 Y35.147 Z-3.000 F400.000
G1 X-21.011 Y35.146 Z-3.000 F400.000
G1 X-21.056 Y35.136 Z-3.000 F400.000
G1 X-21.100 Y35.117 Z-3.000 F400.000
G1 X-21.138 Y35.090 Z-3.000 F400.000
G1 X-21.171 Y35.056 Z-3.000 F400.000
G1 X-21.196 Y35.017 Z-3.000 F400.000
G1 X-21.213 Y34.973 Z-3.000 F400.000
G1 X-21.222 Y34.927 Z-3.000 F400.000
G1 X-21.221 Y34.879 Z-3.000 F400.000
G1 X-21.211 Y34.834 Z-3.000 F400.000
G1 X-21.192 Y34.790 Z-3.000 F400.000
G1 X-21.165 Y34.752 Z-3.000 F400.000
G1 X-21.131 Y34.719 Z-3.000 F400.000
G1 X-21.092 Y34.694 Z-3.000 F400.000
G1 X-21.048 Y34.677 Z-3.000 F400.000
(Adaptive - depth: -3.000000)
G1 X-20.983 Y34.657 F400.000
G1 X-20.964 Y34.649 F400.000
G1 X-20.924 Y34.644 F400.000
G1 X-20.884 Y34.648 F400.000
G1 X-20.845 Y34.659 F400.000
G1 X-20.791 Y34.689 F400.000
G1 X-20.760 Y34.715 F400.000
G1 X-20.734 Y34.745 F400.000
G1 X-20.686 Y34.873 F400.000
G1 X-20.684 Y34.925 F400.000
G1 X-20.688 Y34.960 F400.000
G1 X-20.698 Y34.999 F400.000
G1 X-20.720 Y35.050 F400.000
G1 X-20.758 Y35.104 F400.000
G1 X-20.799 Y35.142 F400.000
G1 X-20.840 Y35.169 F400.000
G1 X-20.887 Y35.189 F400.000
G1 X-20.941 Y35.200 F400.000
G1 X-20.995 Y35.201 F400.000
G1 X-21.047 Y35.194 F400.000
G1 X-21.101 Y35.175 F400.000
G1 X-21.149 Y35.148 F400.000
G1 X-21.191 Y35.112 F400.000
G1 X-21.225 Y35.070 F400.000
G1 X-21.249 Y35.024 F400.000
G1 X-21.265 Y34.976 F400.000
G1 X-21.273 Y34.919 F400.000
G1 X-21.270 Y34.862 F400.000
G1 X-21.256 Y34.809 F400.000
G1 X-21.235 Y34.763 F400.000
G1 X-21.204 Y34.718 F400.000
G1 X-21.124 Y34.650 F400.000
G1 X-21.029 Y34.606 F400.000
G1 X-20.949 Y34.591 F400.000
G1 X-20.889 Y34.595 F400.000
G1 X-20.829 Y34.610 F400.000
G1 X-20.774 Y34.636 F400.000
G1 X-20.727 Y34.674 F400.000
G1 X-20.651 Y34.792 F400.000
G1 X-20.634 Y34.858 F400.000
G1 X-20.629 Y34.899 F400.000
G1 X-20.630 Y34.943 F400.000
G1 X-20.640 Y34.998 F400.000
G1 X-20.664 Y35.059 F400.000
G1 X-20.695 Y35.110 F400.000
G1 X-20.733 Y35.155 F400.000
G1 X-20.780 Y35.193 F400.000
G1 X-20.826 Y35.220 F400.000
G1 X-20.883 Y35.240 F400.000
G1 X-20.939 Y35.250 F400.000
G1 X-21.014 Y35.248 F400.000
G1 X-21.166 Y35.199 F400.000
G1 X-21.219 Y35.156 F400.000
G1 X-21.241 Y35.130 F400.000
G1 X-21.264 Y35.096 F400.000
G1 X-21.289 Y35.049 F400.000
G1 X-21.315 Y34.971 F400.000
G1 X-21.321 Y34.900 F400.000
G1 X-21.316 Y34.849 F400.000
G1 X-21.304 Y34.801 F400.000
G1 X-21.281 Y34.750 F400.000
G1 X-21.250 Y34.699 F400.000
G1 X-21.189 Y34.633 F400.000
G1 X-21.121 Y34.584 F400.000
G1 X-21.045 Y34.550 F400.000
G1 X-20.965 Y34.534 F400.000
G1 X-20.865 Y34.538 F400.000
G1 X-20.788 Y34.561 F400.000
G1 X-20.734 Y34.591 F400.000
G1 X-20.625 Y34.708 F400.000
G1 X-20.594 Y34.771 F400.000
G1 X-20.581 Y34.810 F400.000
G1 X-20.571 Y34.856 F400.000
G1 X-20.567 Y34.924 F400.000
G1 X-20.578 Y34.995 F400.000
G1 X-20.594 Y35.053 F400.000
G1 X-20.620 Y35.106 F400.000
G1 X-20.652 Y35.155 F400.000
G1 X-20.698 Y35.204 F400.000
G1 X-20.750 Y35.245 F400.000
G1 X-20.805 Y35.275 F400.000
G1 X-20.898 Y35.300 F400.000
G1 X-21.010 Y35.303 F400.000
G1 X-21.085 Y35.289 F400.000
G1 X-21.157 Y35.259 F400.000
G1 X-21.282 Y35.161 F400.000
G1 X-21.332 Y35.085 F400.000
G1 X-21.350 Y35.044 F400.000
G1 X-21.363 Y34.999 F400.000
G1 X-21.371 Y34.940 F400.000
G1 X-21.371 Y34.867 F400.000
G1 X-21.359 Y34.797 F400.000
G1 X-21.337 Y34.740 F400.000
G1 X-21.310 Y34.689 F400.000
G1 X-21.274 Y34.635 F400.000
G1 X-21.221 Y34.581 F400.000
G1 X-21.150 Y34.529 F400.000
G1 X-21.075 Y34.495 F400.000
G1 X-20.995 Y34.475 F400.000
G1 X-20.895 Y34.469 F400.000
G1 X-20.835 Y34.476 F400.000
G1 X-20.740 Y34.511 F400.000
G1 X-20.671 Y34.553 F400.000
G1 X-20.640 Y34.578 F400.000
G1 X-20.546 Y34.706 F400.000
G1 X-20.519 Y34.779 F400.000
G1 X-20.508 Y34.822 F400.000
G1 X-20.500 Y34.875 F400.000
G1 X-20.500 Y34.944 F400.000
G1 X-20.512 Y35.021 F400.000
G1 X-20.534 Y35.086 F400.000
G1 X-20.564 Y35.146 F400.000
G1 X-20.601 Y35.199 F400.000
G1 X-20.646 Y35.246 F400.000
G1 X-20.698 Y35.288 F400.000
G1 X-20.782 Y35.331 F400.000
G1 X-20.875 Y35.356 F400.000
G1 X-20.988 Y35.365 F400.000
G1 X-21.062 Y35.355 F400.000
G1 X-21.155 Y35.322 F400.000
G1 X-21.207 Y35.295 F400.000
G1 X-21.270 Y35.245 F400.000
G1 X-21.376 Y35.125 F400.000
G1 X-21.415 Y35.032 F400.000
G1 X-21.425 Y34.989 F400.000
G1 X-21.430 Y34.945 F400.000
G1 X-21.431 Y34.884 F400.000
G1 X-21.419 Y34.795 F400.000
G1 X-21.396 Y34.722 F400.000
G1 X-21.369 Y34.664 F400.000
G1 X-21.332 Y34.608 F400.000
G1 X-21.274 Y34.540 F400.000
G1 X-21.209 Y34.487 F400.000
G1 X-21.117 Y34.438 F400.000
G1 X-21.019 Y34.406 F400.000
G1 X-20.939 Y34.395 F400.000
G1 X-20.839 Y34.400 F400.000
G1 X-20.740 Y34.426 F400.000
G1 X-20.668 Y34.462 F400.000
G1 X-20.586 Y34.521 F400.000
G1 X-20.531 Y34.579 F400.000
G1 X-20.455 Y34.720 F400.000
G1 X-20.431 Y34.809 F400.000
G1 X-20.424 Y34.861 F400.000
G1 X-20.421 Y34.919 F400.000
G1 X-20.429 Y34.992 F400.000
G1 X-20.448 Y35.069 F400.000
G1 X-20.474 Y35.136 F400.000
G1 X-20.511 Y35.201 F400.000
G1 X-20.554 Y35.258 F400.000
G1 X-20.610 Y35.311 F400.000
G1 X-20.690 Y35.364 F400.000
G1 X-20.797 Y35.407 F400.000
G1 X-20.891 Y35.425 F400.000
G1 X-21.004 Y35.428 F400.000
G1 X-21.098 Y35.410 F400.000
G1 X-21.189 Y35.374 F400.000
G1 X-21.289 Y35.309 F400.000
G1 X-21.360 Y35.237 F400.000
G1 X-21.454 Y35.108 F400.000
G1 X-21.490 Y34.994 F400.000
G1 X-21.496 Y34.903 F400.000
G1 X-21.494 Y34.840 F400.000
G1 X-21.474 Y34.740 F400.000
G1 X-21.444 Y34.660 F400.000
G1 X-21.410 Y34.597 F400.000
G1 X-21.343 Y34.510 F400.000
G1 X-21.247 Y34.428 F400.000
G1 X-21.176 Y34.384 F400.000
G1 X-21.060 Y34.339 F400.000
G1 X-20.920 Y34.321 F400.000
G1 X-20.760 Y34.330 F400.000
G1 X-20.700 Y34.345 F400.000
G1 X-20.593 Y34.403 F400.000
G1 X-20.486 Y34.492 F400.000
G1 X-20.424 Y34.570 F400.000
G1 X-20.363 Y34.718 F400.000
G1 X-20.344 Y34.810 F400.000
G1 X-20.337 Y34.870 F400.000
G1 X-20.337 Y34.936 F400.000
G1 X-20.349 Y35.019 F400.000
G1 X-20.371 Y35.099 F400.000
G1 X-20.400 Y35.170 F400.000
G1 X-20.440 Y35.240 F400.000
G1 X-20.501 Y35.318 F400.000
G1 X-20.605 Y35.401 F400.000
G1 X-20.706 Y35.455 F400.000
G1 X-20.816 Y35.485 F400.000
G1 X-20.985 Y35.492 F400.000
G1 X-21.098 Y35.480 F400.000
G1 X-21.171 Y35.454 F400.000
G1 X-21.258 Y35.407 F400.000
G1 X-21.367 Y35.321 F400.000
G1 X-21.434 Y35.248 F400.000
G1 X-21.521 Y35.114 F400.000
G1 X-21.559 Y34.987 F400.000
G1 X-21.565 Y34.935 F400.000
G1 X-21.566 Y34.886 F400.000
G1 X-21.562 Y34.818 F400.000
G1 X-21.544 Y34.718 F400.000
G1 X-21.514 Y34.635 F400.000
G1 X-21.480 Y34.571 F400.000
G1 X-21.431 Y34.499 F400.000
G1 X-21.345 Y34.407 F400.000
G1 X-21.244 Y34.333 F400.000
G1 X-21.204 Y34.319 F400.000
G1 X-21.204 Y34.319 F400.000
G1 X-21.151 Y34.329 F400.000
G1 X-21.141 Y34.334 F400.000
G1 X-21.133 Y34.337 F400.000
G0 X-21.122 Y34.340
G0 X-20.913 Y34.344
G1 X-20.902 Y34.344 F400.000
G1 X-20.854 Y34.340 F400.000
G1 X-20.796 Y34.320 F400.000
G1 X-20.776 Y34.319 F400.000
G1 X-20.776 Y34.319 F400.000
G1 X-20.656 Y34.320 F400.000
G1 X-20.576 Y34.334 F400.000
G1 X-20.538 Y34.349 F400.000
G1 X-20.455 Y34.406 F400.000
G1 X-20.372 Y34.492 F400.000
G1 X-20.319 Y34.575 F400.000
G1 X-20.265 Y34.725 F400.000
G1 X-20.249 Y34.841 F400.000
G1 X-20.246 Y34.904 F400.000
G1 X-20.251 Y34.971 F400.000
G1 X-20.265 Y35.051 F400.000
G1 X-20.295 Y35.145 F400.000
G1 X-20.329 Y35.220 F400.000
G1 X-20.392 Y35.320 F400.000
G1 X-20.485 Y35.416 F400.000
G1 X-20.579 Y35.483 F400.000
G1 X-20.634 Y35.498 F400.000
G1 X-21.159 Y35.494 F400.000
G1 X-21.234 Y35.479 F400.000
G1 X-21.321 Y35.435 F400.000
G1 X-21.446 Y35.334 F400.000
G1 X-21.499 Y35.274 F400.000
G1 X-21.521 Y35.240 F400.000
G1 X-21.600 Y35.100 F400.000
G1 X-21.634 Y34.966 F400.000
G1 X-21.639 Y34.910 F400.000
G1 X-21.639 Y34.858 F400.000
G1 X-21.633 Y34.782 F400.000
G1 X-21.613 Y34.682 F400.000
G1 X-21.580 Y34.591 F400.000
G1 X-21.523 Y34.487 F400.000
G1 X-21.444 Y34.390 F400.000
G1 X-21.381 Y34.335 F400.000
G1 X-21.363 Y34.325 F400.000
G1 X-21.343 Y34.319 F400.000
G1 X-21.343 Y34.319 F400.000
G1 X-21.290 Y34.329 F400.000
G1 X-21.271 Y34.339 F400.000
G0 X-21.262 Y34.345
G0 X-21.137 Y34.434
G0 X-20.977 Y34.461
G0 X-20.727 Y34.367
G1 X-20.716 Y34.362 F400.000
G1 X-20.674 Y34.344 F400.000
G1 X-20.626 Y34.322 F400.000
G1 X-20.596 Y34.319 F400.000
G1 X-20.596 Y34.319 F400.000
G1 X-20.496 Y34.325 F400.000
G1 X-20.436 Y34.340 F400.000
G1 X-20.385 Y34.371 F400.000
G1 X-20.286 Y34.471 F400.000
G1 X-20.221 Y34.571 F400.000
G1 X-20.172 Y34.724 F400.000
G1 X-20.157 Y34.833 F400.000
G1 X-20.154 Y34.900 F400.000
G1 X-20.157 Y34.975 F400.000
G1 X-20.171 Y35.062 F400.000
G1 X-20.199 Y35.157 F400.000
G1 X-20.235 Y35.241 F400.000
G1 X-20.320 Y35.376 F400.000
G1 X-20.399 Y35.460 F400.000
G1 X-20.430 Y35.483 F400.000
G1 X-20.466 Y35.496 F400.000
G1 X-20.523 Y35.498 F400.000
G1 X-20.523 Y35.498 F400.000
G1 X-20.561 Y35.487 F400.000
G1 X-20.585 Y35.470 F400.000
G0 X-20.590 Y35.462
G0 X-20.595 Y35.425
G0 X-20.554 Y34.407
G1 X-20.554 Y34.394 F400.000
G1 X-20.550 Y34.359 F400.000
G1 X-20.540 Y34.341 F400.000
G1 X-20.516 Y34.325 F400.000
G1 X-20.476 Y34.319 F400.000
G1 X-20.476 Y34.319 F400.000
G1 X-20.396 Y34.322 F400.000
G1 X-20.337 Y34.337 F400.000
G1 X-20.302 Y34.358 F400.000
G1 X-20.240 Y34.410 F400.000
G1 X-20.155 Y34.519 F400.000
G1 X-20.126 Y34.571 F400.000
G1 X-20.078 Y34.724 F400.000
G1 X-20.061 Y34.851 F400.000
G1 X-20.059 Y34.921 F400.000
G1 X-20.062 Y34.995 F400.000
G1 X-20.079 Y35.085 F400.000
G1 X-20.104 Y35.180 F400.000
G1 X-20.169 Y35.326 F400.000
G1 X-20.235 Y35.420 F400.000
G1 X-20.290 Y35.474 F400.000
G1 X-20.305 Y35.485 F400.000
G1 X-20.341 Y35.498 F400.000
G1 X-20.398 Y35.498 F400.000
G1 X-20.398 Y35.498 F400.000
G1 X-20.436 Y35.487 F400.000
G1 X-20.460 Y35.470 F400.000
G0 X-20.465 Y35.462
G0 X-20.471 Y35.425
G0 X-20.453 Y34.407
G1 X-20.453 Y34.394 F400.000
G1 X-20.449 Y34.359 F400.000
G1 X-20.440 Y34.341 F400.000
G1 X-20.416 Y34.325 F400.000
G1 X-20.376 Y34.319 F400.000
G1 X-20.376 Y34.319 F400.000
G1 X-20.296 Y34.322 F400.000
G1 X-20.236 Y34.337 F400.000
G1 X-20.201 Y34.358 F400.000
G1 X-20.155 Y34.396 F400.000
G1 X-20.067 Y34.505 F400.000
G1 X-20.029 Y34.574 F400.000
G1 X-19.981 Y34.726 F400.000
G1 X-19.965 Y34.846 F400.000
G1 X-19.961 Y34.919 F400.000
G1 X-19.964 Y34.998 F400.000
G1 X-19.979 Y35.099 F400.000
G1 X-20.004 Y35.194 F400.000
G1 X-20.061 Y35.334 F400.000
G1 X-20.114 Y35.414 F400.000
G1 X-20.152 Y35.456 F400.000
G1 X-20.183 Y35.481 F400.000
G1 X-20.219 Y35.496 F400.000
G1 X-20.312 Y35.498 F400.000
G1 X-20.312 Y35.498 F400.000
G1 X-20.351 Y35.487 F400.000
G1 X-20.375 Y35.470 F400.000
G0 X-20.380 Y35.462
G0 X-20.385 Y35.425
G0 X-20.354 Y34.407
G1 X-20.354 Y34.394 F400.000
G1 X-20.350 Y34.359 F400.000
G1 X-20.340 Y34.341 F400.000
G1 X-20.316 Y34.325 F400.000
G1 X-20.276 Y34.319 F400.000
G1 X-20.276 Y34.319 F400.000
G1 X-20.196 Y34.322 F400.000
G1 X-20.136 Y34.337 F400.000
G1 X-20.071 Y34.383 F400.000
G1 X-19.991 Y34.472 F400.000
G1 X-19.931 Y34.574 F400.000
G1 X-19.884 Y34.726 F400.000
G1 X-19.865 Y34.855 F400.000
G1 X-19.861 Y34.932 F400.000
G1 X-19.865 Y35.010 F400.000
G1 X-19.878 Y35.105 F400.000
G1 X-19.904 Y35.211 F400.000
G1 X-19.964 Y35.358 F400.000
G1 X-20.019 Y35.436 F400.000
G1 X-20.059 Y35.475 F400.000
G1 X-20.075 Y35.486 F400.000
G1 X-20.111 Y35.498 F400.000
G1 X-20.205 Y35.498 F400.000
G1 X-20.204 Y35.498 F400.000
G1 X-20.242 Y35.487 F400.000
G1 X-20.266 Y35.470 F400.000
G0 X-20.271 Y35.462
G0 X-20.276 Y35.425
G0 X-20.253 Y34.407
G1 X-20.253 Y34.394 F400.000
G1 X-20.249 Y34.359 F400.000
G1 X-20.240 Y34.341 F400.000
G1 X-20.216 Y34.325 F400.000
G1 X-20.176 Y34.319 F400.000
G1 X-20.176 Y34.319 F400.000
G1 X-20.096 Y34.322 F400.000
G1 X-20.038 Y34.337 F400.000
G1 X-20.020 Y34.346 F400.000
G1 X-19.945 Y34.413 F400.000
G1 X-19.871 Y34.506 F400.000
G1 X-19.832 Y34.575 F400.000
G1 X-19.784 Y34.727 F400.000
G1 X-19.764 Y34.852 F400.000
G1 X-19.759 Y34.930 F400.000
G1 X-19.761 Y35.013 F400.000
G1 X-19.771 Y35.104 F400.000
G1 X-19.796 Y35.216 F400.000
G1 X-19.856 Y35.364 F400.000
G1 X-19.911 Y35.443 F400.000
G1 X-19.954 Y35.480 F400.000
G1 X-19.990 Y35.495 F400.000
G1 X-20.065 Y35.498 F400.000
G1 X-20.065 Y35.498 F400.000
G1 X-20.104 Y35.487 F400.000
G1 X-20.128 Y35.470 F400.000
G0 X-20.133 Y35.462
G0 X-20.140 Y35.425
G0 X-20.150 Y34.407
G1 X-20.151 Y34.394 F400.000
G1 X-20.149 Y34.359 F400.000
G1 X-20.140 Y34.341 F400.000
G1 X-20.116 Y34.325 F400.000
G1 X-20.076 Y34.319 F400.000
G1 X-20.076 Y34.319 F400.000
G1 X-19.996 Y34.322 F400.000
G1 X-19.956 Y34.331 F400.000
G1 X-19.920 Y34.349 F400.000
G1 X-19.845 Y34.414 F400.000
G1 X-19.771 Y34.509 F400.000
G1 X-19.734 Y34.578 F400.000
G1 X-19.684 Y34.729 F400.000
G1 X-19.663 Y34.852 F400.000
G1 X-19.656 Y34.932 F400.000
G1 X-19.656 Y35.016 F400.000
G1 X-19.668 Y35.117 F400.000
G1 X-19.690 Y35.216 F400.000
G1 X-19.730 Y35.324 F400.000
G1 X-19.766 Y35.391 F400.000
G1 X-19.814 Y35.451 F400.000
G1 X-19.843 Y35.477 F400.000
G1 X-19.859 Y35.487 F400.000
G1 X-19.895 Y35.498 F400.000
G1 X-19.970 Y35.498 F400.000
G1 X-19.970 Y35.498 F400.000
G1 X-20.009 Y35.487 F400.000
G1 X-20.032 Y35.470 F400.000
G0 X-20.038 Y35.462
G0 X-20.044 Y35.425
G0 X-20.050 Y34.407
G1 X-20.051 Y34.394 F400.000
G1 X-20.049 Y34.359 F400.000
G1 X-20.040 Y34.341 F400.000
G1 X-20.016 Y34.325 F400.000
G1 X-19.976 Y34.319 F400.000
G1 X-19.976 Y34.319 F400.000
G1 X-19.916 Y34.322 F400.000
G1 X-19.856 Y34.337 F400.000
G1 X-19.804 Y34.369 F400.000
G1 X-19.731 Y34.438 F400.000
G1 X-19.660 Y34.532 F400.000
G1 X-19.631 Y34.585 F400.000
G1 X-19.580 Y34.736 F400.000
G1 X-19.558 Y34.871 F400.000
G1 X-19.552 Y34.950 F400.000
G1 X-19.554 Y35.029 F400.000
G1 X-19.565 Y35.126 F400.000
G1 X-19.587 Y35.227 F400.000
G1 X-19.649 Y35.371 F400.000
G1 X-19.705 Y35.449 F400.000
G1 X-19.750 Y35.486 F400.000
G1 X-19.767 Y35.494 F400.000
G1 X-19.786 Y35.498 F400.000
G1 X-19.880 Y35.498 F400.000
G1 X-19.880 Y35.498 F400.000
G1 X-19.919 Y35.487 F400.000
G1 X-19.942 Y35.470 F400.000
G0 X-19.948 Y35.462
G0 X-19.954 Y35.425
G0 X-19.953 Y34.407
G1 X-19.953 Y34.394 F400.000
G1 X-19.949 Y34.359 F400.000
G1 X-19.940 Y34.341 F400.000
G1 X-19.916 Y34.325 F400.000
G1 X-19.876 Y34.319 F400.000
G1 X-19.876 Y34.319 F400.000
G1 X-19.816 Y34.322 F400.000
G1 X-19.756 Y34.337 F400.000
G1 X-19.738 Y34.345 F400.000
G1 X-19.659 Y34.407 F400.000
G1 X-19.594 Y34.483 F400.000
G1 X-19.531 Y34.583 F400.000
G1 X-19.480 Y34.734 F400.000
G1 X-19.457 Y34.851 F400.000
G1 X-19.450 Y34.932 F400.000
G1 X-19.449 Y35.013 F400.000
G1 X-19.459 Y35.114 F400.000
G1 X-19.480 Y35.214 F400.000
G1 X-19.525 Y35.337 F400.000
G1 X-19.576 Y35.419 F400.000
G1 X-19.629 Y35.474 F400.000
G1 X-19.644 Y35.485 F400.000
G1 X-19.680 Y35.498 F400.000
G1 X-19.755 Y35.498 F400.000
G1 X-19.755 Y35.498 F400.000
G1 X-19.794 Y35.487 F400.000
G1 X-19.817 Y35.470 F400.000
G0 X-19.823 Y35.462
G0 X-19.830 Y35.425
G0 X-19.850 Y34.407
G1 X-19.851 Y34.394 F400.000
G1 X-19.849 Y34.359 F400.000
G1 X-19.840 Y34.341 F400.000
G1 X-19.816 Y34.325 F400.000
G1 X-19.776 Y34.319 F400.000
G1 X-19.776 Y34.319 F400.000
G1 X-19.716 Y34.322 F400.000
G1 X-19.656 Y34.337 F400.000
G1 X-19.589 Y34.381 F400.000
G1 X-19.492 Y34.481 F400.000
G1 X-19.430 Y34.583 F400.000
G1 X-19.378 Y34.733 F400.000
G1 X-19.352 Y34.876 F400.000
G1 X-19.346 Y34.954 F400.000
G1 X-19.346 Y35.036 F400.000
G1 X-19.358 Y35.130 F400.000
G1 X-19.396 Y35.281 F400.000
G1 X-19.457 Y35.400 F400.000
G1 X-19.492 Y35.445 F400.000
G1 X-19.535 Y35.484 F400.000
G1 X-19.571 Y35.498 F400.000
G1 X-19.609 Y35.498 F400.000
G1 X-19.609 Y35.498 F400.000
G1 X-19.648 Y35.487 F400.000
G1 X-19.672 Y35.470 F400.000
G0 X-19.677 Y35.462
G0 X-19.686 Y35.425
G0 X-19.766 Y34.407
G1 X-19.767 Y34.394 F400.000
G1 X-19.767 Y34.359 F400.000
G1 X-19.760 Y34.341 F400.000
G1 X-19.736 Y34.325 F400.000
G1 X-19.696 Y34.319 F400.000
G1 X-19.696 Y34.319 F400.000
G1 X-19.616 Y34.322 F400.000
G1 X-19.558 Y34.337 F400.000
G1 X-19.505 Y34.369 F400.000
G1 X-19.418 Y34.450 F400.000
G1 X-19.348 Y34.546 F400.000
G1 X-19.304 Y34.634 F400.000
G1 X-19.260 Y34.788 F400.000
G1 X-19.242 Y34.945 F400.000
G1 X-19.242 Y35.024 F400.000
G1 X-19.249 Y35.099 F400.000
G1 X-19.280 Y35.246 F400.000
G1 X-19.332 Y35.369 F400.000
G1 X-19.387 Y35.446 F400.000
G1 X-19.415 Y35.472 F400.000
G1 X-19.449 Y35.490 F400.000
G1 X-19.468 Y35.495 F400.000
G1 X-19.543 Y35.498 F400.000
G1 X-19.543 Y35.498 F400.000
G1 X-19.581 Y35.487 F400.000
G1 X-19.606 Y35.470 F400.000
G0 X-19.611 Y35.462
G0 X-19.619 Y35.425
G0 X-19.669 Y34.407
G1 X-19.669 Y34.394 F400.000
G1 X-19.669 Y34.359 F400.000
G1 X-19.660 Y34.341 F400.000
G1 X-19.636 Y34.325 F400.000
G1 X-19.596 Y34.319 F400.000
G1 X-19.596 Y34.319 F400.000
G1 X-19.516 Y34.322 F400.000
G1 X-19.456 Y34.337 F400.000
G1 X-19.420 Y34.355 F400.000
G1 X-19.344 Y34.419 F400.000
G1 X-19.258 Y34.529 F400.000
G1 X-19.180 Y34.688 F400.000
G1 X-19.133 Y34.875 F400.000
G1 X-19.124 Y35.025 F400.000
G1 X-19.146 Y35.194 F400.000
G1 X-19.184 Y35.304 F400.000
G1 X-19.241 Y35.404 F400.000
G1 X-19.280 Y35.445 F400.000
G1 X-19.331 Y35.472 F400.000
G1 X-19.444 Y35.495 F400.000
G1 X-19.444 Y35.494 F400.000
G1 X-19.492 Y35.485 F400.000
G1 X-19.509 Y35.475 F400.000
G0 X-19.514 Y35.468
G0 X-19.521 Y35.431
G0 X-19.547 Y34.409
G1 X-19.549 Y34.395 F400.000
G1 X-19.547 Y34.370 F400.000
G1 X-19.540 Y34.349 F400.000
G1 X-19.524 Y34.334 F400.000
G1 X-19.476 Y34.321 F400.000
G1 X-19.476 Y34.321 F400.000
G1 X-19.416 Y34.329 F400.000
G1 X-19.339 Y34.352 F400.000
G1 X-19.269 Y34.394 F400.000
G1 X-19.211 Y34.449 F400.000
G1 X-19.130 Y34.560 F400.000
G1 X-19.061 Y34.703 F400.000
G1 X-19.017 Y34.871 F400.000
G1 X-19.008 Y35.059 F400.000
G1 X-19.026 Y35.190 F400.000
G1 X-19.043 Y35.246 F400.000
G1 X-19.089 Y35.329 F400.000
G1 X-19.145 Y35.380 F400.000
G1 X-19.194 Y35.410 F400.000
G1 X-19.194 Y35.409 F400.000
G1 X-19.241 Y35.419 F400.000
G1 X-19.259 Y35.415 F400.000
G0 X-19.265 Y35.410
G0 X-19.276 Y35.376
G0 X-19.407 Y34.417
G1 X-19.410 Y34.404 F400.000
G1 X-19.411 Y34.369 F400.000
G1 X-19.402 Y34.354 F400.000
G1 X-19.378 Y34.343 F400.000
G1 X-19.339 Y34.343 F400.000
G1 X-19.339 Y34.343 F400.000
G1 X-19.226 Y34.388 F400.000
G1 X-19.156 Y34.431 F400.000
G1 X-19.081 Y34.496 F400.000
G1 X-19.006 Y34.590 F400.000
G1 X-18.960 Y34.678 F400.000
G1 X-18.924 Y34.790 F400.000
G1 X-18.913 Y34.884 F400.000
G1 X-18.919 Y34.996 F400.000
G1 X-18.934 Y35.071 F400.000
G1 X-18.986 Y35.195 F400.000
G1 X-19.016 Y35.244 F400.000
G1 X-19.016 Y35.244 F400.000
G1 X-19.058 Y35.271 F400.000
G1 X-19.076 Y35.278 F400.000
G0 X-19.086 Y35.279
G0 X-19.146 Y35.284
G0 X-20.867 Y35.375
G0 X-21.055 Y35.445
G1 X-21.065 Y35.449 F400.000
G1 X-21.111 Y35.469 F400.000
G1 X-21.160 Y35.491 F400.000
G1 X-21.192 Y35.498 F400.000
G1 X-21.192 Y35.498 F400.000
G1 X-21.286 Y35.491 F400.000
G1 X-21.343 Y35.476 F400.000
G1 X-21.378 Y35.459 F400.000
G1 X-21.457 Y35.401 F400.000
G1 X-21.530 Y35.331 F400.000
G1 X-21.601 Y35.235 F400.000
G1 X-21.676 Y35.094 F400.000
G1 X-21.710 Y34.965 F400.000
G1 X-21.716 Y34.905 F400.000
G1 X-21.718 Y34.847 F400.000
G1 X-21.712 Y34.770 F400.000
G1 X-21.694 Y34.671 F400.000
G1 X-21.666 Y34.583 F400.000
G1 X-21.619 Y34.484 F400.000
G1 X-21.558 Y34.399 F400.000
G1 X-21.499 Y34.340 F400.000
G1 X-21.481 Y34.329 F400.000
G1 X-21.462 Y34.321 F400.000
G1 X-21.462 Y34.321 F400.000
G1 X-21.420 Y34.328 F400.000
G1 X-21.394 Y34.343 F400.000
G0 X-21.387 Y34.350
G0 X-21.376 Y34.386
G0 X-21.221 Y35.403
G1 X-21.220 Y35.415 F400.000
G1 X-21.216 Y35.456 F400.000
G1 X-21.225 Y35.471 F400.000
G1 X-21.250 Y35.489 F400.000
G1 X-21.293 Y35.498 F400.000
G1 X-21.293 Y35.498 F400.000
G1 X-21.367 Y35.494 F400.000
G1 X-21.424 Y35.479 F400.000
G1 X-21.460 Y35.461 F400.000
G1 X-21.540 Y35.403 F400.000
G1 X-21.636 Y35.301 F400.000
G1 X-21.681 Y35.235 F400.000
G1 X-21.755 Y35.093 F400.000
G1 X-21.790 Y34.958 F400.000
G1 X-21.796 Y34.892 F400.000
G1 X-21.797 Y34.834 F400.000
G1 X-21.794 Y34.758 F400.000
G1 X-21.775 Y34.645 F400.000
G1 X-21.741 Y34.541 F400.000
G1 X-21.679 Y34.432 F400.000
G1 X-21.626 Y34.367 F400.000
G1 X-21.596 Y34.339 F400.000
G1 X-21.579 Y34.328 F400.000
G1 X-21.560 Y34.320 F400.000
G1 X-21.560 Y34.320 F400.000
G1 X-21.517 Y34.326 F400.000
G1 X-21.491 Y34.341 F400.000
G0 X-21.485 Y34.349
G0 X-21.474 Y34.385
G0 X-21.320 Y35.403
G1 X-21.319 Y35.415 F400.000
G1 X-21.316 Y35.456 F400.000
G1 X-21.325 Y35.471 F400.000
G1 X-21.350 Y35.489 F400.000
G1 X-21.392 Y35.498 F400.000
G1 X-21.392 Y35.498 F400.000
G1 X-21.449 Y35.494 F400.000
G1 X-21.505 Y35.479 F400.000
G1 X-21.540 Y35.461 F400.000
G1 X-21.649 Y35.374 F400.000
G1 X-21.715 Y35.300 F400.000
G1 X-21.760 Y35.233 F400.000
G1 X-21.835 Y35.091 F400.000
G1 X-21.875 Y34.936 F400.000
G1 X-21.881 Y34.873 F400.000
G1 X-21.883 Y34.816 F400.000
G1 X-21.878 Y34.735 F400.000
G1 X-21.858 Y34.627 F400.000
G1 X-21.828 Y34.536 F400.000
G1 X-21.766 Y34.426 F400.000
G1 X-21.714 Y34.360 F400.000
G1 X-21.683 Y34.331 F400.000
G1 X-21.664 Y34.322 F400.000
G1 X-21.644 Y34.319 F400.000
G1 X-21.644 Y34.319 F400.000
G1 X-21.601 Y34.325 F400.000
G1 X-21.575 Y34.340 F400.000
G0 X-21.569 Y34.347
G0 X-21.558 Y34.384
G0 X-21.401 Y35.403
G1 X-21.400 Y35.415 F400.000
G1 X-21.396 Y35.456 F400.000
G1 X-21.405 Y35.471 F400.000
G1 X-21.430 Y35.489 F400.000
G1 X-21.473 Y35.498 F400.000
G1 X-21.473 Y35.498 F400.000
G1 X-21.529 Y35.494 F400.000
G1 X-21.585 Y35.479 F400.000
G1 X-21.620 Y35.461 F400.000
G1 X-21.699 Y35.400 F400.000
G1 X-21.794 Y35.300 F400.000
G1 X-21.830 Y35.251 F400.000
G1 X-21.916 Y35.093 F400.000
G1 X-21.957 Y34.946 F400.000
G1 X-21.965 Y34.879 F400.000
G1 X-21.968 Y34.820 F400.000
G1 X-21.965 Y34.742 F400.000
G1 X-21.946 Y34.629 F400.000
G1 X-21.918 Y34.535 F400.000
G1 X-21.858 Y34.425 F400.000
G1 X-21.805 Y34.360 F400.000
G1 X-21.774 Y34.331 F400.000
G1 X-21.755 Y34.322 F400.000
G1 X-21.735 Y34.319 F400.000
G1 X-21.735 Y34.319 F400.000
G1 X-21.692 Y34.325 F400.000
G1 X-21.666 Y34.340 F400.000
G0 X-21.660 Y34.347
G0 X-21.649 Y34.384
G0 X-21.481 Y35.403
G1 X-21.480 Y35.415 F400.000
G1 X-21.476 Y35.456 F400.000
G1 X-21.485 Y35.471 F400.000
G1 X-21.510 Y35.489 F400.000
G1 X-21.552 Y35.498 F400.000
G1 X-21.552 Y35.498 F400.000
G1 X-21.609 Y35.494 F400.000
G1 X-21.665 Y35.479 F400.000
G1 X-21.747 Y35.425 F400.000
G1 X-21.872 Y35.296 F400.000
G1 X-21.907 Y35.248 F400.000
G1 X-21.990 Y35.110 F400.000
G1 X-22.039 Y34.958 F400.000
G1 X-22.049 Y34.889 F400.000
G1 X-22.054 Y34.830 F400.000
G1 X-22.054 Y34.749 F400.000
G1 X-22.038 Y34.640 F400.000
G1 X-22.014 Y34.554 F400.000
G1 X-21.969 Y34.460 F400.000
G1 X-21.922 Y34.391 F400.000
G1 X-21.880 Y34.345 F400.000
G1 X-21.864 Y34.331 F400.000
G1 X-21.845 Y34.322 F400.000
G1 X-21.825 Y34.319 F400.000
G1 X-21.825 Y34.319 F400.000
G1 X-21.782 Y34.325 F400.000
G1 X-21.756 Y34.340 F400.000
G0 X-21.750 Y34.347
G0 X-21.738 Y34.384
G0 X-21.562 Y35.403
G1 X-21.560 Y35.415 F400.000
G1 X-21.556 Y35.456 F400.000
G1 X-21.565 Y35.471 F400.000
G1 X-21.590 Y35.489 F400.000
G1 X-21.633 Y35.498 F400.000
G1 X-21.633 Y35.498 F400.000
G1 X-21.707 Y35.489 F400.000
G1 X-21.745 Y35.477 F400.000
G1 X-21.811 Y35.435 F400.000
G1 X-21.900 Y35.356 F400.000
G1 X-21.966 Y35.280 F400.000
G1 X-22.073 Y35.111 F400.000
G1 X-22.122 Y34.959 F400.000
G1 X-22.133 Y34.891 F400.000
G1 X-22.137 Y34.834 F400.000
G1 X-22.137 Y34.754 F400.000
G1 X-22.128 Y34.651 F400.000
G1 X-22.100 Y34.546 F400.000
G1 X-22.065 Y34.470 F400.000
G1 X-22.006 Y34.384 F400.000
G1 X-21.962 Y34.339 F400.000
G1 X-21.945 Y34.328 F400.000
G1 X-21.926 Y34.320 F400.000
G1 X-21.926 Y34.320 F400.000
G1 X-21.884 Y34.326 F400.000
G1 X-21.858 Y34.341 F400.000
G0 X-21.851 Y34.349
G0 X-21.839 Y34.385
G0 X-21.644 Y35.403
G1 X-21.641 Y35.415 F400.000
G1 X-21.637 Y35.456 F400.000
G1 X-21.645 Y35.471 F400.000
G1 X-21.670 Y35.489 F400.000
G1 X-21.712 Y35.498 F400.000
G1 X-21.712 Y35.498 F400.000
G1 X-21.788 Y35.489 F400.000
G1 X-21.825 Y35.477 F400.000
G1 X-21.907 Y35.424 F400.000
G1 X-22.023 Y35.312 F400.000
G1 X-22.081 Y35.233 F400.000
G1 X-22.163 Y35.094 F400.000
G1 X-22.210 Y34.940 F400.000
G1 X-22.220 Y34.871 F400.000
G1 X-22.224 Y34.812 F400.000
G1 X-22.224 Y34.735 F400.000
G1 X-22.207 Y34.617 F400.000
G1 X-22.174 Y34.510 F400.000
G1 X-22.122 Y34.419 F400.000
G1 X-22.070 Y34.354 F400.000
G1 X-22.038 Y34.329 F400.000
G1 X-22.019 Y34.321 F400.000
G1 X-22.019 Y34.321 F400.000
G1 X-21.976 Y34.328 F400.000
G1 X-21.950 Y34.343 F400.000
G0 X-21.944 Y34.350
G0 X-21.930 Y34.386
G0 X-21.724 Y35.403
G1 X-21.721 Y35.415 F400.000
G1 X-21.718 Y35.456 F400.000
G1 X-21.725 Y35.471 F400.000
G1 X-21.750 Y35.489 F400.000
G1 X-21.793 Y35.498 F400.000
G1 X-21.793 Y35.498 F400.000
G1 X-21.849 Y35.494 F400.000
G1 X-21.905 Y35.479 F400.000
G1 X-21.971 Y35.439 F400.000
G1 X-22.075 Y35.346 F400.000
G1 X-22.150 Y35.252 F400.000
G1 X-22.244 Y35.097 F400.000
G1 X-22.295 Y34.945 F400.000
G1 X-22.306 Y34.873 F400.000
G1 X-22.311 Y34.815 F400.000
G1 X-22.311 Y34.730 F400.000
G1 X-22.297 Y34.627 F400.000
G1 X-22.274 Y34.541 F400.000
G1 X-22.229 Y34.447 F400.000
G1 X-22.168 Y34.362 F400.000
G1 X-22.136 Y34.334 F400.000
G1 X-22.117 Y34.324 F400.000
G1 X-22.098 Y34.319 F400.000
G1 X-22.098 Y34.319 F400.000
G1 X-22.055 Y34.325 F400.000
G1 X-22.029 Y34.340 F400.000
G0 X-22.023 Y34.347
G0 X-22.009 Y34.384
G0 X-21.804 Y35.403
G1 X-21.801 Y35.415 F400.000
G1 X-21.797 Y35.456 F400.000
G1 X-21.805 Y35.471 F400.000
G1 X-21.830 Y35.489 F400.000
G1 X-21.872 Y35.498 F400.000
G1 X-21.872 Y35.498 F400.000
G1 X-21.929 Y35.494 F400.000
G1 X-21.985 Y35.479 F400.000
G1 X-22.051 Y35.439 F400.000
G1 X-22.196 Y35.303 F400.000
G1 X-22.242 Y35.236 F400.000
G1 X-22.329 Y35.101 F400.000
G1 X-22.380 Y34.950 F400.000
G1 X-22.391 Y34.880 F400.000
G1 X-22.396 Y34.822 F400.000
G1 X-22.398 Y34.746 F400.000
G1 X-22.385 Y34.630 F400.000
G1 X-22.351 Y34.514 F400.000
G1 X-22.324 Y34.458 F400.000
G1 X-22.262 Y34.373 F400.000
G1 X-22.234 Y34.343 F400.000
G1 X-22.218 Y34.330 F400.000
G1 X-22.199 Y34.321 F400.000
G1 X-22.199 Y34.321 F400.000
G1 X-22.156 Y34.328 F400.000
G1 X-22.130 Y34.343 F400.000
G0 X-22.124 Y34.350
G0 X-22.110 Y34.386
G0 X-21.885 Y35.403
G1 X-21.883 Y35.415 F400.000
G1 X-21.878 Y35.456 F400.000
G1 X-21.885 Y35.471 F400.000
G1 X-21.910 Y35.489 F400.000
G1 X-21.953 Y35.498 F400.000
G1 X-21.953 Y35.498 F400.000
G1 X-22.009 Y35.494 F400.000
G1 X-22.065 Y35.479 F400.000
G1 X-22.100 Y35.461 F400.000
G1 X-22.251 Y35.333 F400.000
G1 X-22.328 Y35.239 F400.000
G1 X-22.413 Y35.102 F400.000
G1 X-22.465 Y34.951 F400.000
G1 X-22.476 Y34.884 F400.000
G1 X-22.483 Y34.825 F400.000
G1 X-22.485 Y34.745 F400.000
G1 X-22.473 Y34.630 F400.000
G1 X-22.449 Y34.539 F400.000
G1 X-22.404 Y34.445 F400.000
G1 X-22.343 Y34.360 F400.000
G1 X-22.311 Y34.331 F400.000
G1 X-22.293 Y34.322 F400.000
G1 X-22.273 Y34.319 F400.000
G1 X-22.273 Y34.319 F400.000
G1 X-22.230 Y34.325 F400.000
G1 X-22.204 Y34.340 F400.000
G0 X-22.198 Y34.347
G0 X-22.184 Y34.384
G0 X-21.965 Y35.403
G1 X-21.962 Y35.415 F400.000
G1 X-21.957 Y35.456 F400.000
G1 X-21.965 Y35.471 F400.000
G1 X-21.990 Y35.489 F400.000
G1 X-22.032 Y35.498 F400.000
G1 X-22.032 Y35.498 F400.000
G1 X-22.089 Y35.494 F400.000
G1 X-22.145 Y35.480 F400.000
G1 X-22.181 Y35.462 F400.000
G1 X-22.306 Y35.364 F400.000
G1 X-22.386 Y35.274 F400.000
G1 X-22.495 Y35.106 F400.000
G1 X-22.550 Y34.955 F400.000
G1 X-22.564 Y34.886 F400.000
G1 X-22.570 Y34.826 F400.000
G1 X-22.571 Y34.751 F400.000
G1 X-22.562 Y34.650 F400.000
G1 X-22.538 Y34.546 F400.000
G1 X-22.494 Y34.451 F400.000
G1 X-22.448 Y34.383 F400.000
G1 X-22.405 Y34.337 F400.000
G1 X-22.367 Y34.320 F400.000
G1 X-22.367 Y34.320 F400.000
G1 X-22.325 Y34.326 F400.000
G1 X-22.299 Y34.341 F400.000
G0 X-22.293 Y34.349
G0 X-22.279 Y34.385
G0 X-22.045 Y35.403
G1 X-22.043 Y35.415 F400.000
G1 X-22.038 Y35.456 F400.000
G1 X-22.045 Y35.471 F400.000
G1 X-22.070 Y35.489 F400.000
G1 X-22.113 Y35.498 F400.000
G1 X-22.113 Y35.498 F400.000
G1 X-22.169 Y35.494 F400.000
G1 X-22.244 Y35.472 F400.000
G1 X-22.326 Y35.419 F400.000
G1 X-22.442 Y35.310 F400.000
G1 X-22.490 Y35.246 F400.000
G1 X-22.578 Y35.112 F400.000
G1 X-22.634 Y34.962 F400.000
G1 X-22.648 Y34.892 F400.000
G1 X-22.654 Y34.833 F400.000
G1 X-22.656 Y34.759 F400.000
G1 X-22.648 Y34.653 F400.000
G1 X-22.626 Y34.556 F400.000
G1 X-22.575 Y34.443 F400.000
G1 X-22.527 Y34.374 F400.000
G1 X-22.483 Y34.330 F400.000
G1 X-22.464 Y34.321 F400.000
G1 X-22.464 Y34.321 F400.000
G1 X-22.421 Y34.328 F400.000
G1 X-22.395 Y34.343 F400.000
G0 X-22.389 Y34.350
G0 X-22.374 Y34.386
G0 X-22.126 Y35.404
G1 X-22.124 Y35.416 F400.000
G1 X-22.117 Y35.456 F400.000
G1 X-22.125 Y35.472 F400.000
G1 X-22.151 Y35.489 F400.000
G1 X-22.192 Y35.498 F400.000
G1 X-22.192 Y35.498 F400.000
G1 X-22.249 Y35.494 F400.000
G1 X-22.305 Y35.481 F400.000
G1 X-22.359 Y35.455 F400.000
G1 X-22.469 Y35.367 F400.000
G1 X-22.561 Y35.264 F400.000
G1 X-22.670 Y35.096 F400.000
G1 X-22.723 Y34.945 F400.000
G1 X-22.735 Y34.875 F400.000
G1 X-22.740 Y34.815 F400.000
G1 X-22.741 Y34.741 F400.000
G1 X-22.731 Y34.636 F400.000
G1 X-22.679 Y34.479 F400.000
G1 X-22.625 Y34.389 F400.000
G1 X-22.584 Y34.343 F400.000
G1 X-22.547 Y34.322 F400.000
G1 X-22.547 Y34.322 F400.000
G1 X-22.495 Y34.331 F400.000
G1 X-22.479 Y34.343 F400.000
G0 X-22.473 Y34.349
G0 X-22.457 Y34.385
G0 X-22.206 Y35.404
G1 X-22.204 Y35.416 F400.000
G1 X-22.198 Y35.456 F400.000
G1 X-22.205 Y35.472 F400.000
G1 X-22.231 Y35.489 F400.000
G1 X-22.273 Y35.498 F400.000
G1 X-22.273 Y35.498 F400.000
G1 X-22.366 Y35.487 F400.000
G1 X-22.404 Y35.476 F400.000
G1 X-22.488 Y35.424 F400.000
G1 X-22.619 Y35.300 F400.000
G1 X-22.690 Y35.204 F400.000
G1 X-22.710 Y35.169 F400.000
G1 X-22.781 Y35.025 F400.000
G1 X-22.821 Y34.870 F400.000
G1 X-22.826 Y34.760 F400.000
G1 X-22.810 Y34.620 F400.000
G1 X-22.765 Y34.483 F400.000
G1 X-22.725 Y34.409 F400.000
G1 X-22.700 Y34.376 F400.000
G1 X-22.669 Y34.350 F400.000
G1 X-22.650 Y34.341 F400.000
G1 X-22.650 Y34.341 F400.000
G1 X-22.608 Y34.339 F400.000
G1 X-22.579 Y34.347 F400.000
G0 X-22.571 Y34.354
G0 X-22.556 Y34.389
G0 X-22.289 Y35.404
G1 X-22.285 Y35.416 F400.000
G1 X-22.277 Y35.456 F400.000
G1 X-22.286 Y35.472 F400.000
G1 X-22.311 Y35.489 F400.000
G1 X-22.352 Y35.498 F400.000
G1 X-22.352 Y35.498 F400.000
G1 X-22.446 Y35.487 F400.000
G1 X-22.501 Y35.469 F400.000
G1 X-22.614 Y35.389 F400.000
G1 X-22.710 Y35.288 F400.000
G1 X-22.759 Y35.222 F400.000
G1 X-22.826 Y35.096 F400.000
G1 X-22.861 Y35.002 F400.000
G1 X-22.894 Y34.822 F400.000
G1 X-22.898 Y34.703 F400.000
G1 X-22.884 Y34.602 F400.000
G1 X-22.846 Y34.484 F400.000
G1 X-22.816 Y34.429 F400.000
G1 X-22.788 Y34.398 F400.000
G1 X-22.770 Y34.386 F400.000
G1 X-22.770 Y34.385 F400.000
G1 X-22.716 Y34.376 F400.000
G1 X-22.698 Y34.379 F400.000
G0 X-22.690 Y34.384
G0 X-22.672 Y34.416
G0 X-22.370 Y35.404
G1 X-22.366 Y35.416 F400.000
G1 X-22.359 Y35.456 F400.000
G1 X-22.366 Y35.472 F400.000
G1 X-22.391 Y35.489 F400.000
G1 X-22.433 Y35.498 F400.000
G1 X-22.433 Y35.498 F400.000
G1 X-22.508 Y35.494 F400.000
G1 X-22.564 Y35.479 F400.000
G1 X-22.616 Y35.453 F400.000
G1 X-22.710 Y35.377 F400.000
G1 X-22.802 Y35.273 F400.000
G1 X-22.876 Y35.153 F400.000
G1 X-22.939 Y34.980 F400.000
G1 X-22.965 Y34.840 F400.000
G1 X-22.971 Y34.700 F400.000
G1 X-22.960 Y34.600 F400.000
G1 X-22.950 Y34.560 F400.000
G1 X-22.922 Y34.504 F400.000
G1 X-22.910 Y34.487 F400.000
G1 X-22.829 Y34.421 F400.000
G1 X-22.829 Y34.421 F400.000
G1 X-22.788 Y34.406 F400.000
G1 X-22.767 Y34.405 F400.000
G1 X-22.759 Y34.407 F400.000
G0 X-22.751 Y34.411
G0 X-22.735 Y34.444
G0 X-22.468 Y35.405
G1 X-22.464 Y35.417 F400.000
G1 X-22.456 Y35.449 F400.000
G1 X-22.460 Y35.465 F400.000
G1 X-22.473 Y35.479 F400.000
G1 X-22.511 Y35.492 F400.000
G1 X-22.532 Y35.495 F400.000
G1 X-22.532 Y35.495 F400.000
G1 X-22.589 Y35.489 F400.000
G1 X-22.664 Y35.465 F400.000
G1 X-22.716 Y35.438 F400.000
G1 X-22.749 Y35.415 F400.000
G1 X-22.846 Y35.315 F400.000
G1 X-22.935 Y35.180 F400.000
G1 X-23.004 Y35.011 F400.000
G1 X-23.036 Y34.871 F400.000
G1 X-23.047 Y34.751 F400.000
G1 X-23.036 Y34.671 F400.000
G1 X-22.988 Y34.580 F400.000
G1 X-22.975 Y34.562 F400.000
G1 X-22.975 Y34.562 F400.000
G1 X-22.940 Y34.535 F400.000
G1 X-22.921 Y34.528 F400.000
G1 X-22.914 Y34.526 F400.000
G0 X-22.906 Y34.529
G0 X-22.889 Y34.559
G0 X-22.604 Y35.405
G1 X-22.600 Y35.419 F400.000
G1 X-22.593 Y35.451 F400.000
G1 X-22.601 Y35.465 F400.000
G1 X-22.628 Y35.474 F400.000
G1 X-22.670 Y35.471 F400.000
G1 X-22.670 Y35.471 F400.000
G1 X-22.779 Y35.426 F400.000
G1 X-22.859 Y35.370 F400.000
G1 X-22.929 Y35.297 F400.000
G1 X-23.016 Y35.161 F400.000
G1 X-23.067 Y35.028 F400.000
G1 X-23.085 Y34.947 F400.000
G1 X-23.084 Y34.847 F400.000
G1 X-23.070 Y34.767 F400.000
G1 X-23.058 Y34.727 F400.000
G1 X-23.058 Y34.727 F400.000
G1 X-23.035 Y34.690 F400.000
G1 X-23.020 Y34.676 F400.000
G1 X-23.012 Y34.672 F400.000
G0 X-23.006 Y34.674
G0 X-22.992 Y34.700
G0 X-22.845 Y35.300
G1 X-22.843 Y35.311 F400.000
G1 X-22.837 Y35.347 F400.000
G1 X-22.840 Y35.352 F400.000
G1 X-22.855 Y35.355 F400.000
G1 X-22.891 Y35.341 F400.000
G1 X-22.909 Y35.330 F400.000
G1 X-22.909 Y35.330 F400.000
G1 X-22.986 Y35.239 F400.000
G1 X-23.044 Y35.134 F400.000
G1 X-23.080 Y34.996 F400.000
G1 X-23.082 Y34.976 F400.000
G1 X-23.082 Y34.976 F400.000
G1 X-23.080 Y34.970 F400.000
G0 X-23.076 Y34.966
G0 X-23.065 Y34.969
G0 X-23.061 Y34.971
G1 X-23.061 Y34.976 F400.000
G1 X-23.070 Y34.984 F400.000
G1 X-23.082 Y34.984 F400.000
G1 X-23.093 Y34.975 F400.000
G1 X-23.093 Y34.975 F400.000
G1 X-23.096 Y34.904 F400.000
G1 X-23.094 Y34.861 F400.000
G1 X-23.084 Y34.785 F400.000
G1 X-23.074 Y34.744 F400.000
G1 X-23.055 Y34.688 F400.000
G1 X-23.000 Y34.580 F400.000
G1 X-22.936 Y34.500 F400.000
G1 X-22.895 Y34.461 F400.000
G1 X-22.841 Y34.419 F400.000
G1 X-22.771 Y34.376 F400.000
G1 X-22.655 Y34.334 F400.000
G1 X-22.565 Y34.315 F400.000
G1 X-22.448 Y34.309 F400.000
G1 X-19.511 Y34.310 F400.000
G1 X-19.451 Y34.314 F400.000
G1 X-19.367 Y34.326 F400.000
G1 X-19.337 Y34.334 F400.000
G1 X-19.284 Y34.352 F400.000
G1 X-19.218 Y34.381 F400.000
G1 X-19.157 Y34.419 F400.000
G1 X-19.098 Y34.468 F400.000
G1 X-19.056 Y34.508 F400.000
G1 X-19.030 Y34.538 F400.000
G1 X-19.010 Y34.566 F400.000
G1 X-18.951 Y34.670 F400.000
G1 X-18.919 Y34.765 F400.000
G1 X-18.905 Y34.855 F400.000
G1 X-18.902 Y34.904 F400.000
G1 X-18.905 Y34.972 F400.000
G1 X-18.911 Y35.016 F400.000
G1 X-18.925 Y35.075 F400.000
G1 X-18.942 Y35.127 F400.000
G1 X-18.984 Y35.210 F400.000
G1 X-19.004 Y35.241 F400.000
G1 X-19.069 Y35.325 F400.000
G1 X-19.145 Y35.391 F400.000
G1 X-19.253 Y35.454 F400.000
G1 X-19.380 Y35.495 F400.000
G1 X-19.434 Y35.502 F400.000
G1 X-19.550 Y35.509 F400.000
G1 X-22.555 Y35.505 F400.000
G1 X-22.650 Y35.487 F400.000
G1 X-22.705 Y35.470 F400.000
G1 X-22.790 Y35.431 F400.000
G1 X-22.841 Y35.400 F400.000
G1 X-22.870 Y35.379 F400.000
G1 X-22.922 Y35.331 F400.000
G1 X-22.995 Y35.242 F400.000
G1 X-23.026 Y35.191 F400.000
G1 X-23.054 Y35.133 F400.000
G1 X-23.070 Y35.087 F400.000
G1 X-23.084 Y35.032 F400.000
G1 X-23.093 Y34.975 F400.000
G1 X-23.093 Y34.975 F400.000
G0 Z6.000
(Helix to depth: -3.000000)
G0 Z6.000
G0 X-21.161 Y24.254 Z6.000
G0 X-21.161 Y24.254 Z4.000
G1 X-21.161 Y24.254 Z1.000 F400.000
G1 X-21.161 Y24.254 Z1.000 F400.000
G1 X-21.127 Y24.222 Z0.996 F400.000
G1 X-21.088 Y24.196 Z0.991 F400.000
G1 X-21.044 Y24.179 Z0.987 F400.000
G1 X-20.998 Y24.171 Z0.983 F400.000
G1 X-20.951 Y24.172 Z0.979 F400.000
G1 X-20.905 Y24.182 Z0.974 F400.000
G1 X-20.862 Y24.200 Z0.970 F400.000
G1 X-20.823 Y24.227 Z0.966 F400.000
G1 X-20.790 Y24.261 Z0.961 F400.000
G1 X-20.765 Y24.301 Z0.957 F400.000
G1 X-20.748 Y24.345 Z0.953 F400.000
G1 X-20.740 Y24.391 Z0.948 F400.000
G1 X-20.740 Y24.438 Z0.944 F400.000
G1 X-20.750 Y24.484 Z0.940 F400.000
G1 X-20.769 Y24.527 Z0.936 F400.000
G1 X-20.796 Y24.566 Z0.931 F400.000
G1 X-20.830 Y24.598 Z0.927 F400.000
G1 X-20.870 Y24.624 Z0.923 F400.000
G1 X-20.913 Y24.641 Z0.918 F400.000
G1 X-20.960 Y24.649 Z0.914 F400.000
G1 X-21.007 Y24.648 Z0.910 F400.000
G1 X-21.053 Y24.638 Z0.906 F400.000
G1 X-21.096 Y24.620 Z0.901 F400.000
G1 X-21.134 Y24.593 Z0.897 F400.000
G1 X-21.167 Y24.559 Z0.893 F400.000
G1 X-21.192 Y24.519 Z0.888 F400.000
G1 X-21.210 Y24.475 Z0.884 F400.000
G1 X-21.218 Y24.429 Z0.880 F400.000
G1 X-21.217 Y24.382 Z0.875 F400.000
G1 X-21.207 Y24.336 Z0.871 F400.000
G1 X-21.188 Y24.293 Z0.867 F400.000
G1 X-21.161 Y24.254 Z0.863 F400.000
G1 X-21.127 Y24.222 Z0.858 F400.000
G1 X-21.088 Y24.196 Z0.854 F400.000
G1 X-21.044 Y24.179 Z0.850 F400.000
G1 X-20.998 Y24.171 Z0.845 F400.000
G1 X-20.951 Y24.172 Z0.841 F400.000
G1 X-20.905 Y24.182 Z0.837 F400.000
G1 X-20.862 Y24.200 Z0.833 F400.000
G1 X-20.823 Y24.227 Z0.828 F400.000
G1 X-20.790 Y24.261 Z0.824 F400.000
G1 X-20.765 Y24.301 Z0.820 F400.000
G1 X-20.748 Y24.345 Z0.815 F400.000
G1 X-20.740 Y24.391 Z0.811 F400.000
G1 X-20.740 Y24.438 Z0.807 F400.000
G1 X-20.750 Y24.484 Z0.802 F400.000
G1 X-20.769 Y24.527 Z0.798 F400.000
G1 X-20.796 Y24.566 Z0.794 F400.000
G1 X-20.830 Y24.598 Z0.790 F400.000
G1 X-20.870 Y24.624 Z0.785 F400.000
G1 X-20.913 Y24.641 Z0.781 F400.000
G1 X-20.960 Y24.649 Z0.777 F400.000
G1 X-21.007 Y24.648 Z0.772 F400.000
G1 X-21.053 Y24.638 Z0.768 F400.000
G1 X-21.096 Y24.620 Z0.764 F400.000
G1 X-21.134 Y24.593 Z0.760 F400.000
G1 X-21.167 Y24.559 Z0.755 F400.000
G1 X-21.192 Y24.519 Z0.751 F400.000
G1 X-21.210 Y24.475 Z0.747 F400.000
G1 X-21.218 Y24.429 Z0.742 F400.000
G1 X-21.217 Y24.382 Z0.738 F400.000
G1 X-21.207 Y24.336 Z0.734 F400.000
G1 X-21.188 Y24.293 Z0.729 F400.000
G1 X-21.161 Y24.254 Z0.725 F400.000
G1 X-21.127 Y24.222 Z0.721 F400.000
G1 X-21.088 Y24.196 Z0.717 F400.000
G1 X-21.044 Y24.179 Z0.712 F400.000
G1 X-20.998 Y24.171 Z0.708 F400.000
G1 X-20.951 Y24.172 Z0.704 F400.000
G1 X-20.905 Y24.182 Z0.699 F400.000
G1 X-20.862 Y24.200 Z0.695 F400.000
G1 X-20.823 Y24.227 Z0.691 F400.000
G1 X-20.790 Y24.261 Z0.686 F400.000
G1 X-20.765 Y24.301 Z0.682 F400.000
G1 X-20.748 Y24.345 Z0.678 F400.000
G1 X-20.740 Y24.391 Z0.674 F400.000
G1 X-20.740 Y24.438 Z0.669 F400.000
G1 X-20.750 Y24.484 Z0.665 F400.000
G1 X-20.769 Y24.527 Z0.661 F400.000
G1 X-20.796 Y24.566 Z0.656 F400.000
G1 X-20.830 Y24.598 Z0.652 F400.000
G1 X-20.870 Y24.624 Z0.648 F400.000
G1 X-20.913 Y24.641 Z0.644 F400.000
G1 X-20.960 Y24.649 Z0.639 F400.000
G1 X-21.007 Y24.648 Z0.635 F400.000
G1 X-21.053 Y24.638 Z0.631 F400.000
G1 X-21.096 Y24.620 Z0.626 F400.000
G1 X-21.134 Y24.593 Z0.622 F400.000
G1 X-21.167 Y24.559 Z0.618 F400.000
G1 X-21.192 Y24.519 Z0.613 F400.000
G1 X-21.210 Y24.475 Z0.609 F400.000
G1 X-21.218 Y24.429 Z0.605 F400.000
G1 X-21.217 Y24.382 Z0.601 F400.000
G1 X-21.207 Y24.336 Z0.596 F400.000
G1 X-21.188 Y24.293 Z0.592 F400.000
G1 X-21.161 Y24.254 Z0.588 F400.000
G1 X-21.127 Y24.222 Z0.583 F400.000
G1 X-21.088 Y24.196 Z0.579 F400.000
G1 X-21.044 Y24.179 Z0.575 F400.000
G1 X-20.998 Y24.171 Z0.571 F400.000
G1 X-20.951 Y24.172 Z0.566 F400.000
G1 X-20.905 Y24.182 Z0.562 F400.000
G1 X-20.862 Y24.200 Z0.558 F400.000
G1 X-20.823 Y24.227 Z0.553 F400.000
G1 X-20.790 Y24.261 Z0.549 F400.000
G1 X-20.765 Y24.301 Z0.545 F400.000
G1 X-20.748 Y24.345 Z0.540 F400.000
G1 X-20.740 Y24.391 Z0.536 F400.000
G1 X-20.740 Y24.438 Z0.532 F400.000
G1 X-20.750 Y24.484 Z0.528 F400.000
G1 X-20.769 Y24.527 Z0.523 F400.000
G1 X-20.796 Y24.566 Z0.519 F400.000
G1 X-20.830 Y24.598 Z0.515 F400.000
G1 X-20.870 Y24.624 Z0.510 F400.000
G1 X-20.913 Y24.641 Z0.506 F400.000
G1 X-20.960 Y24.649 Z0.502 F400.000
G1 X-21.007 Y24.648 Z0.498 F400.000
G1 X-21.053 Y24.638 Z0.493 F400.000
G1 X-21.096 Y24.620 Z0.489 F400.000
G1 X-21.134 Y24.593 Z0.485 F400.000
G1 X-21.167 Y24.559 Z0.480 F400.000
G1 X-21.192 Y24.519 Z0.476 F400.000
G1 X-21.210 Y24.475 Z0.472 F400.000
G1 X-21.218 Y24.429 Z0.467 F400.000
G1 X-21.217 Y24.382 Z0.463 F400.000
G1 X-21.207 Y24.336 Z0.459 F400.000
G1 X-21.188 Y24.293 Z0.455 F400.000
G1 X-21.161 Y24.254 Z0.450 F400.000
G1 X-21.127 Y24.222 Z0.446 F400.000
G1 X-21.088 Y24.196 Z0.442 F400.000
G1 X-21.044 Y24.179 Z0.437 F400.000
G1 X-20.998 Y24.171 Z0.433 F400.000
G1 X-20.951 Y24.172 Z0.429 F400.000
G1 X-20.905 Y24.182 Z0.425 F400.000
G1 X-20.862 Y24.200 Z0.420 F400.000
G1 X-20.823 Y24.227 Z0.416 F400.000
G1 X-20.790 Y24.261 Z0.412 F400.000
G1 X-20.765 Y24.301 Z0.407 F400.000
G1 X-20.748 Y24.345 Z0.403 F400.000
G1 X-20.740 Y24.391 Z0.399 F400.000
G1 X-20.740 Y24.438 Z0.394 F400.000
G1 X-20.750 Y24.484 Z0.390 F400.000
G1 X-20.769 Y24.527 Z0.386 F400.000
G1 X-20.796 Y24.566 Z0.382 F400.000
G1 X-20.830 Y24.598 Z0.377 F400.000
G1 X-20.870 Y24.624 Z0.373 F400.000
G1 X-20.913 Y24.641 Z0.369 F400.000
G1 X-20.960 Y24.649 Z0.364 F400.000
G1 X-21.007 Y24.648 Z0.360 F400.000
G1 X-21.053 Y24.638 Z0.356 F400.000
G1 X-21.096 Y24.620 Z0.352 F400.000
G1 X-21.134 Y24.593 Z0.347 F400.000
G1 X-21.167 Y24.559 Z0.343 F400.000
G1 X-21.192 Y24.519 Z0.339 F400.000
G1 X-21.210 Y24.475 Z0.334 F400.000
G1 X-21.218 Y24.429 Z0.330 F400.000
G1 X-21.217 Y24.382 Z0.326 F400.000
G1 X-21.207 Y24.336 Z0.321 F400.000
G1 X-21.188 Y24.293 Z0.317 F400.000
G1 X-21.161 Y24.254 Z0.313 F400.000
G1 X-21.127 Y24.222 Z0.309 F400.000
G1 X-21.088 Y24.196 Z0.304 F400.000
G1 X-21.044 Y24.179 Z0.300 F400.000
G1 X-20.998 Y24.171 Z0.296 F400.000
G1 X-20.951 Y24.172 Z0.291 F400.000
G1 X-20.905 Y24.182 Z0.287 F400.000
G1 X-20.862 Y24.200 Z0.283 F400.000
G1 X-20.823 Y24.227 Z0.279 F400.000
G1 X-20.790 Y24.261 Z0.274 F400.000
G1 X-20.765 Y24.301 Z0.270 F400.000
G1 X-20.748 Y24.345 Z0.266 F400.000
G1 X-20.740 Y24.391 Z0.261 F400.000
G1 X-20.740 Y24.438 Z0.257 F400.000
G1 X-20.750 Y24.484 Z0.253 F400.000
G1 X-20.769 Y24.527 Z0.248 F400.000
G1 X-20.796 Y24.566 Z0.244 F400.000
G1 X-20.830 Y24.598 Z0.240 F400.000
G1 X-20.870 Y24.624 Z0.236 F400.000
G1 X-20.913 Y24.641 Z0.231 F400.000
G1 X-20.960 Y24.649 Z0.227 F400.000
G1 X-21.007 Y24.648 Z0.223 F400.000
G1 X-21.053 Y24.638 Z0.218 F400.000
G1 X-21.096 Y24.620 Z0.214 F400.000
G1 X-21.134 Y24.593 Z0.210 F400.000
G1 X-21.167 Y24.559 Z0.206 F400.000
G1 X-21.192 Y24.519 Z0.201 F400.000
G1 X-21.210 Y24.475 Z0.197 F400.000
G1 X-21.218 Y24.429 Z0.193 F400.000
G1 X-21.217 Y24.382 Z0.188 F400.000
G1 X-21.207 Y24.336 Z0.184 F400.000
G1 X-21.188 Y24.293 Z0.180 F400.000
G1 X-21.161 Y24.254 Z0.175 F400.000
G1 X-21.127 Y24.222 Z0.171 F400.000
G1 X-21.088 Y24.196 Z0.167 F400.000
G1 X-21.044 Y24.179 Z0.163 F400.000
G1 X-20.998 Y24.171 Z0.158 F400.000
G1 X-20.951 Y24.172 Z0.154 F400.000
G1 X-20.905 Y24.182 Z0.150 F400.000
G1 X-20.862 Y24.200 Z0.145 F400.000
G1 X-20.823 Y24.227 Z0.141 F400.000
G1 X-20.790 Y24.261 Z0.137 F400.000
G1 X-20.765 Y24.301 Z0.132 F400.000
G1 X-20.748 Y24.345 Z0.128 F400.000
G1 X-20.740 Y24.391 Z0.124 F400.000
G1 X-20.740 Y24.438 Z0.120 F400.000
G1 X-20.750 Y24.484 Z0.115 F400.000
G1 X-20.769 Y24.527 Z0.111 F400.000
G1 X-20.796 Y24.566 Z0.107 F400.000
G1 X-20.830 Y24.598 Z0.102 F400.000
G1 X-20.870 Y24.624 Z0.098 F400.000
G1 X-20.913 Y24.641 Z0.094 F400.000
G1 X-20.960 Y24.649 Z0.090 F400.000
G1 X-21.007 Y24.648 Z0.085 F400.000
G1 X-21.053 Y24.638 Z0.081 F400.000
G1 X-21.096 Y24.620 Z0.077 F400.000
G1 X-21.134 Y24.593 Z0.072 F400.000
G1 X-21.167 Y24.559 Z0.068 F400.000
G1 X-21.192 Y24.519 Z0.064 F400.000
G1 X-21.210 Y24.475 Z0.059 F400.000
G1 X-21.218 Y24.429 Z0.055 F400.000
G1 X-21.217 Y24.382 Z0.051 F400.000
G1 X-21.207 Y24.336 Z0.047 F400.000
G1 X-21.188 Y24.293 Z0.042 F400.000
G1 X-21.161 Y24.254 Z0.038 F400.000
G1 X-21.127 Y24.222 Z0.034 F400.000
G1 X-21.088 Y24.196 Z0.029 F400.000
G1 X-21.044 Y24.179 Z0.025 F400.000
G1 X-20.998 Y24.171 Z0.021 F400.000
G1 X-20.951 Y24.172 Z0.017 F400.000
G1 X-20.905 Y24.182 Z0.012 F400.000
G1 X-20.862 Y24.200 Z0.008 F400.000
G1 X-20.823 Y24.227 Z0.004 F400.000
G1 X-20.790 Y24.261 Z-0.001 F400.000
G1 X-20.765 Y24.301 Z-0.005 F400.000
G1 X-20.748 Y24.345 Z-0.009 F400.000
G1 X-20.740 Y24.391 Z-0.014 F400.000
G1 X-20.740 Y24.438 Z-0.018 F400.000
G1 X-20.750 Y24.484 Z-0.022 F400.000
G1 X-20.769 Y24.527 Z-0.026 F400.000
G1 X-20.796 Y24.566 Z-0.031 F400.000
G1 X-20.830 Y24.598 Z-0.035 F400.000
G1 X-20.870 Y24.624 Z-0.039 F400.000
G1 X-20.913 Y24.641 Z-0.044 F400.000
G1 X-20.960 Y24.649 Z-0.048 F400.000
G1 X-21.007 Y24.648 Z-0.052 F400.000
G1 X-21.053 Y24.638 Z-0.056 F400.000
G1 X-21.096 Y24.620 Z-0.061 F400.000
G1 X-21.134 Y24.593 Z-0.065 F400.000
G1 X-21.167 Y24.559 Z-0.069 F400.000
G1 X-21.192 Y24.519 Z-0.074 F400.000
G1 X-21.210 Y24.475 Z-0.078 F400.000
G1 X-21.218 Y24.429 Z-0.082 F400.000
G1 X-21.217 Y24.382 Z-0.087 F400.000
G1 X-21.207 Y24.336 Z-0.091 F400.000
G1 X-21.188 Y24.293 Z-0.095 F400.000
G1 X-21.161 Y24.254 Z-0.099 F400.000
G1 X-21.127 Y24.222 Z-0.104 F400.000
G1 X-21.088 Y24.196 Z-0.108 F400.000
G1 X-21.044 Y24.179 Z-0.112 F400.000
G1 X-20.998 Y24.171 Z-0.117 F400.000
G1 X-20.951 Y24.172 Z-0.121 F400.000
G1 X-20.905 Y24.182 Z-0.125 F400.000
G1 X-20.862 Y24.200 Z-0.129 F400.000
G1 X-20.823 Y24.227 Z-0.134 F400.000
G1 X-20.790 Y24.261 Z-0.138 F400.000
G1 X-20.765 Y24.301 Z-0.142 F400.000
G1 X-20.748 Y24.345 Z-0.147 F400.000
G1 X-20.740 Y24.391 Z-0.151 F400.000
G1 X-20.740 Y24.438 Z-0.155 F400.000
G1 X-20.750 Y24.484 Z-0.160 F400.000
G1 X-20.769 Y24.527 Z-0.164 F400.000
G1 X-20.796 Y24.566 Z-0.168 F400.000
G1 X-20.830 Y24.598 Z-0.172 F400.000
G1 X-20.870 Y24.624 Z-0.177 F400.000
G1 X-20.913 Y24.641 Z-0.181 F400.000
G1 X-20.960 Y24.649 Z-0.185 F400.000
G1 X-21.007 Y24.648 Z-0.190 F400.000
G1 X-21.053 Y24.638 Z-0.194 F400.000
G1 X-21.096 Y24.620 Z-0.198 F400.000
G1 X-21.134 Y24.593 Z-0.202 F400.000
G1 X-21.167 Y24.559 Z-0.207 F400.000
G1 X-21.192 Y24.519 Z-0.211 F400.000
G1 X-21.210 Y24.475 Z-0.215 F400.000
G1 X-21.218 Y24.429 Z-0.220 F400.000
G1 X-21.217 Y24.382 Z-0.224 F400.000
G1 X-21.207 Y24.336 Z-0.228 F400.000
G1 X-21.188 Y24.293 Z-0.233 F400.000
G1 X-21.161 Y24.254 Z-0.237 F400.000
G1 X-21.127 Y24.222 Z-0.241 F400.000
G1 X-21.088 Y24.196 Z-0.245 F400.000
G1 X-21.044 Y24.179 Z-0.250 F400.000
G1 X-20.998 Y24.171 Z-0.254 F400.000
G1 X-20.951 Y24.172 Z-0.258 F400.000
G1 X-20.905 Y24.182 Z-0.263 F400.000
G1 X-20.862 Y24.200 Z-0.267 F400.000
G1 X-20.823 Y24.227 Z-0.271 F400.000
G1 X-20.790 Y24.261 Z-0.275 F400.000
G1 X-20.765 Y24.301 Z-0.280 F400.000
G1 X-20.748 Y24.345 Z-0.284 F400.000
G1 X-20.740 Y24.391 Z-0.288 F400.000
G1 X-20.740 Y24.438 Z-0.293 F400.000
G1 X-20.750 Y24.484 Z-0.297 F400.000
G1 X-20.769 Y24.527 Z-0.301 F400.000
G1 X-20.796 Y24.566 Z-0.306 F400.000
G1 X-20.830 Y24.598 Z-0.310 F400.000
G1 X-20.870 Y24.624 Z-0.314 F400.000
G1 X-20.913 Y24.641 Z-0.318 F400.000
G1 X-20.960 Y24.649 Z-0.323 F400.000
G1 X-21.007 Y24.648 Z-0.327 F400.000
G1 X-21.053 Y24.638 Z-0.331 F400.000
G1 X-21.096 Y24.620 Z-0.336 F400.000
G1 X-21.134 Y24.593 Z-0.340 F400.000
G1 X-21.167 Y24.559 Z-0.344 F400.000
G1 X-21.192 Y24.519 Z-0.349 F400.000
G1 X-21.210 Y24.475 Z-0.353 F400.000
G1 X-21.218 Y24.429 Z-0.357 F400.000
G1 X-21.217 Y24.382 Z-0.361 F400.000
G1 X-21.207 Y24.336 Z-0.366 F400.000
G1 X-21.188 Y24.293 Z-0.370 F400.000
G1 X-21.161 Y24.254 Z-0.374 F400.000
G1 X-21.127 Y24.222 Z-0.379 F400.000
G1 X-21.088 Y24.196 Z-0.383 F400.000
G1 X-21.044 Y24.179 Z-0.387 F400.000
G1 X-20.998 Y24.171 Z-0.391 F400.000
G1 X-20.951 Y24.172 Z-0.396 F400.000
G1 X-20.905 Y24.182 Z-0.400 F400.000
G1 X-20.862 Y24.200 Z-0.404 F400.000
G1 X-20.823 Y24.227 Z-0.409 F400.000
G1 X-20.790 Y24.261 Z-0.413 F400.000
G1 X-20.765 Y24.301 Z-0.417 F400.000
G1 X-20.748 Y24.345 Z-0.422 F400.000
G1 X-20.740 Y24.391 Z-0.426 F400.000
G1 X-20.740 Y24.438 Z-0.430 F400.000
G1 X-20.750 Y24.484 Z-0.434 F400.000
G1 X-20.769 Y24.527 Z-0.439 F400.000
G1 X-20.796 Y24.566 Z-0.443 F400.000
G1 X-20.830 Y24.598 Z-0.447 F400.000
G1 X-20.870 Y24.624 Z-0.452 F400.000
G1 X-20.913 Y24.641 Z-0.456 F400.000
G1 X-20.960 Y24.649 Z-0.460 F400.000
G1 X-21.007 Y24.648 Z-0.464 F400.000
G1 X-21.053 Y24.638 Z-0.469 F400.000
G1 X-21.096 Y24.620 Z-0.473 F400.000
G1 X-21.134 Y24.593 Z-0.477 F400.000
G1 X-21.167 Y24.559 Z-0.482 F400.000
G1 X-21.192 Y24.519 Z-0.486 F400.000
G1 X-21.210 Y24.475 Z-0.490 F400.000
G1 X-21.218 Y24.429 Z-0.495 F400.000
G1 X-21.217 Y24.382 Z-0.499 F400.000
G1 X-21.207 Y24.336 Z-0.503 F400.000
G1 X-21.188 Y24.293 Z-0.507 F400.000
G1 X-21.161 Y24.254 Z-0.512 F400.000
G1 X-21.127 Y24.222 Z-0.516 F400.000
G1 X-21.088 Y24.196 Z-0.520 F400.000
G1 X-21.044 Y24.179 Z-0.525 F400.000
G1 X-20.998 Y24.171 Z-0.529 F400.000
G1 X-20.951 Y24.172 Z-0.533 F400.000
G1 X-20.905 Y24.182 Z-0.537 F400.000
G1 X-20.862 Y24.200 Z-0.542 F400.000
G1 X-20.823 Y24.227 Z-0.546 F400.000
G1 X-20.790 Y24.261 Z-0.550 F400.000
G1 X-20.765 Y24.301 Z-0.555 F400.000
G1 X-20.748 Y24.345 Z-0.559 F400.000
G1 X-20.740 Y24.391 Z-0.563 F400.000
G1 X-20.740 Y24.438 Z-0.568 F400.000
G1 X-20.750 Y24.484 Z-0.572 F400.000
G1 X-20.769 Y24.527 Z-0.576 F400.000
G1 X-20.796 Y24.566 Z-0.580 F400.000
G1 X-20.830 Y24.598 Z-0.585 F400.000
G1 X-20.870 Y24.624 Z-0.589 F400.000
G1 X-20.913 Y24.641 Z-0.593 F400.000
G1 X-20.960 Y24.649 Z-0.598 F400.000
G1 X-21.007 Y24.648 Z-0.602 F400.000
G1 X-21.053 Y24.638 Z-0.606 F400.000
G1 X-21.096 Y24.620 Z-0.610 F400.000
G1 X-21.134 Y24.593 Z-0.615 F400.000
G1 X-21.167 Y24.559 Z-0.619 F400.000
G1 X-21.192 Y24.519 Z-0.623 F400.000
G1 X-21.210 Y24.475 Z-0.628 F400.000
G1 X-21.218 Y24.429 Z-0.632 F400.000
G1 X-21.217 Y24.382 Z-0.636 F400.000
G1 X-21.207 Y24.336 Z-0.641 F400.000
G1 X-21.188 Y24.293 Z-0.645 F400.000
G1 X-21.161 Y24.254 Z-0.649 F400.000
G1 X-21.127 Y24.222 Z-0.653 F400.000
G1 X-21.088 Y24.196 Z-0.658 F400.000
G1 X-21.044 Y24.179 Z-0.662 F400.000
G1 X-20.998 Y24.171 Z-0.666 F400.000
G1 X-20.951 Y24.172 Z-0.671 F400.000
G1 X-20.905 Y24.182 Z-0.675 F400.000
G1 X-20.862 Y24.200 Z-0.679 F400.000
G1 X-20.823 Y24.227 Z-0.683 F400.000
G1 X-20.790 Y24.261 Z-0.688 F400.000
G1 X-20.765 Y24.301 Z-0.692 F400.000
G1 X-20.748 Y24.345 Z-0.696 F400.000
G1 X-20.740 Y24.391 Z-0.701 F400.000
G1 X-20.740 Y24.438 Z-0.705 F400.000
G1 X-20.750 Y24.484 Z-0.709 F400.000
G1 X-20.769 Y24.527 Z-0.714 F400.000
G1 X-20.796 Y24.566 Z-0.718 F400.000
G1 X-20.830 Y24.598 Z-0.722 F400.000
G1 X-20.870 Y24.624 Z-0.726 F400.000
G1 X-20.913 Y24.641 Z-0.731 F400.000
G1 X-20.960 Y24.649 Z-0.735 F400.000
G1 X-21.007 Y24.648 Z-0.739 F400.000
G1 X-21.053 Y24.638 Z-0.744 F400.000
G1 X-21.096 Y24.620 Z-0.748 F400.000
G1 X-21.134 Y24.593 Z-0.752 F400.000
G1 X-21.167 Y24.559 Z-0.756 F400.000
G1 X-21.192 Y24.519 Z-0.761 F400.000
G1 X-21.210 Y24.475 Z-0.765 F400.000
G1 X-21.218 Y24.429 Z-0.769 F400.000
G1 X-21.217 Y24.382 Z-0.774 F400.000
G1 X-21.207 Y24.336 Z-0.778 F400.000
G1 X-21.188 Y24.293 Z-0.782 F400.000
G1 X-21.161 Y24.254 Z-0.787 F400.000
G1 X-21.127 Y24.222 Z-0.791 F400.000
G1 X-21.088 Y24.196 Z-0.795 F400.000
G1 X-21.044 Y24.179 Z-0.799 F400.000
G1 X-20.998 Y24.171 Z-0.804 F400.000
G1 X-20.951 Y24.172 Z-0.808 F400.000
G1 X-20.905 Y24.182 Z-0.812 F400.000
G1 X-20.862 Y24.200 Z-0.817 F400.000
G1 X-20.823 Y24.227 Z-0.821 F400.000
G1 X-20.790 Y24.261 Z-0.825 F400.000
G1 X-20.765 Y24.301 Z-0.829 F400.000
G1 X-20.748 Y24.345 Z-0.834 F400.000
G1 X-20.740 Y24.391 Z-0.838 F400.000
G1 X-20.740 Y24.438 Z-0.842 F400.000
G1 X-20.750 Y24.484 Z-0.847 F400.000
G1 X-20.769 Y24.527 Z-0.851 F400.000
G1 X-20.796 Y24.566 Z-0.855 F400.000
G1 X-20.830 Y24.598 Z-0.860 F400.000
G1 X-20.870 Y24.624 Z-0.864 F400.000
G1 X-20.913 Y24.641 Z-0.868 F400.000
G1 X-20.960 Y24.649 Z-0.872 F400.000
G1 X-21.007 Y24.648 Z-0.877 F400.000
G1 X-21.053 Y24.638 Z-0.881 F400.000
G1 X-21.096 Y24.620 Z-0.885 F400.000
G1 X-21.134 Y24.593 Z-0.890 F400.000
G1 X-21.167 Y24.559 Z-0.894 F400.000
G1 X-21.192 Y24.519 Z-0.898 F400.000
G1 X-21.210 Y24.475 Z-0.903 F400.000
G1 X-21.218 Y24.429 Z-0.907 F400.000
G1 X-21.217 Y24.382 Z-0.911 F400.000
G1 X-21.207 Y24.336 Z-0.915 F400.000
G1 X-21.188 Y24.293 Z-0.920 F400.000
G1 X-21.161 Y24.254 Z-0.924 F400.000
G1 X-21.127 Y24.222 Z-0.928 F400.000
G1 X-21.088 Y24.196 Z-0.933 F400.000
G1 X-21.044 Y24.179 Z-0.937 F400.000
G1 X-20.998 Y24.171 Z-0.941 F400.000
G1 X-20.951 Y24.172 Z-0.945 F400.000
G1 X-20.905 Y24.182 Z-0.950 F400.000
G1 X-20.862 Y24.200 Z-0.954 F400.000
G1 X-20.823 Y24.227 Z-0.958 F400.000
G1 X-20.790 Y24.261 Z-0.963 F400.000
G1 X-20.765 Y24.301 Z-0.967 F400.000
G1 X-20.748 Y24.345 Z-0.971 F400.000
G1 X-20.740 Y24.391 Z-0.976 F400.000
G1 X-20.740 Y24.438 Z-0.980 F400.000
G1 X-20.750 Y24.484 Z-0.984 F400.000
G1 X-20.769 Y24.527 Z-0.988 F400.000
G1 X-20.796 Y24.566 Z-0.993 F400.000
G1 X-20.830 Y24.598 Z-0.997 F400.000
G1 X-20.870 Y24.624 Z-1.001 F400.000
G1 X-20.913 Y24.641 Z-1.006 F400.000
G1 X-20.960 Y24.649 Z-1.010 F400.000
G1 X-21.007 Y24.648 Z-1.014 F400.000
G1 X-21.053 Y24.638 Z-1.018 F400.000
G1 X-21.096 Y24.620 Z-1.023 F400.000
G1 X-21.134 Y24.593 Z-1.027 F400.000
G1 X-21.167 Y24.559 Z-1.031 F400.000
G1 X-21.192 Y24.519 Z-1.036 F400.000
G1 X-21.210 Y24.475 Z-1.040 F400.000
G1 X-21.218 Y24.429 Z-1.044 F400.000
G1 X-21.217 Y24.382 Z-1.049 F400.000
G1 X-21.207 Y24.336 Z-1.053 F400.000
G1 X-21.188 Y24.293 Z-1.057 F400.000
G1 X-21.161 Y24.254 Z-1.061 F400.000
G1 X-21.127 Y24.222 Z-1.066 F400.000
G1 X-21.088 Y24.196 Z-1.070 F400.000
G1 X-21.044 Y24.179 Z-1.074 F400.000
G1 X-20.998 Y24.171 Z-1.079 F400.000
G1 X-20.951 Y24.172 Z-1.083 F400.000
G1 X-20.905 Y24.182 Z-1.087 F400.000
G1 X-20.862 Y24.200 Z-1.091 F400.000
G1 X-20.823 Y24.227 Z-1.096 F400.000
G1 X-20.790 Y24.261 Z-1.100 F400.000
G1 X-20.765 Y24.301 Z-1.104 F400.000
G1 X-20.748 Y24.345 Z-1.109 F400.000
G1 X-20.740 Y24.391 Z-1.113 F400.000
G1 X-20.740 Y24.438 Z-1.117 F400.000
G1 X-20.750 Y24.484 Z-1.122 F400.000
G1 X-20.769 Y24.527 Z-1.126 F400.000
G1 X-20.796 Y24.566 Z-1.130 F400.000
G1 X-20.830 Y24.598 Z-1.134 F400.000
G1 X-20.870 Y24.624 Z-1.139 F400.000
G1 X-20.913 Y24.641 Z-1.143 F400.000
G1 X-20.960 Y24.649 Z-1.147 F400.000
G1 X-21.007 Y24.648 Z-1.152 F400.000
G1 X-21.053 Y24.638 Z-1.156 F400.000
G1 X-21.096 Y24.620 Z-1.160 F400.000
G1 X-21.134 Y24.593 Z-1.164 F400.000
G1 X-21.167 Y24.559 Z-1.169 F400.000
G1 X-21.192 Y24.519 Z-1.173 F400.000
G1 X-21.210 Y24.475 Z-1.177 F400.000
G1 X-21.218 Y24.429 Z-1.182 F400.000
G1 X-21.217 Y24.382 Z-1.186 F400.000
G1 X-21.207 Y24.336 Z-1.190 F400.000
G1 X-21.188 Y24.293 Z-1.195 F400.000
G1 X-21.161 Y24.254 Z-1.199 F400.000
G1 X-21.127 Y24.222 Z-1.203 F400.000
G1 X-21.088 Y24.196 Z-1.207 F400.000
G1 X-21.044 Y24.179 Z-1.212 F400.000
G1 X-20.998 Y24.171 Z-1.216 F400.000
G1 X-20.951 Y24.172 Z-1.220 F400.000
G1 X-20.905 Y24.182 Z-1.225 F400.000
G1 X-20.862 Y24.200 Z-1.229 F400.000
G1 X-20.823 Y24.227 Z-1.233 F400.000
G1 X-20.790 Y24.261 Z-1.237 F400.000
G1 X-20.765 Y24.301 Z-1.242 F400.000
G1 X-20.748 Y24.345 Z-1.246 F400.000
G1 X-20.740 Y24.391 Z-1.250 F400.000
G1 X-20.740 Y24.438 Z-1.255 F400.000
G1 X-20.750 Y24.484 Z-1.259 F400.000
G1 X-20.769 Y24.527 Z-1.263 F400.000
G1 X-20.796 Y24.566 Z-1.268 F400.000
G1 X-20.830 Y24.598 Z-1.272 F400.000
G1 X-20.870 Y24.624 Z-1.276 F400.000
G1 X-20.913 Y24.641 Z-1.280 F400.000
G1 X-20.960 Y24.649 Z-1.285 F400.000
G1 X-21.007 Y24.648 Z-1.289 F400.000
G1 X-21.053 Y24.638 Z-1.293 F400.000
G1 X-21.096 Y24.620 Z-1.298 F400.000
G1 X-21.134 Y24.593 Z-1.302 F400.000
G1 X-21.167 Y24.559 Z-1.306 F400.000
G1 X-21.192 Y24.519 Z-1.310 F400.000
G1 X-21.210 Y24.475 Z-1.315 F400.000
G1 X-21.218 Y24.429 Z-1.319 F400.000
G1 X-21.217 Y24.382 Z-1.323 F400.000
G1 X-21.207 Y24.336 Z-1.328 F400.000
G1 X-21.188 Y24.293 Z-1.332 F400.000
G1 X-21.161 Y24.254 Z-1.336 F400.000
G1 X-21.127 Y24.222 Z-1.341 F400.000
G1 X-21.088 Y24.196 Z-1.345 F400.000
G1 X-21.044 Y24.179 Z-1.349 F400.000
G1 X-20.998 Y24.171 Z-1.353 F400.000
G1 X-20.951 Y24.172 Z-1.358 F400.000
G1 X-20.905 Y24.182 Z-1.362 F400.000
G1 X-20.862 Y24.200 Z-1.366 F400.000
G1 X-20.823 Y24.227 Z-1.371 F400.000
G1 X-20.790 Y24.261 Z-1.375 F400.000
G1 X-20.765 Y24.301 Z-1.379 F400.000
G1 X-20.748 Y24.345 Z-1.383 F400.000
G1 X-20.740 Y24.391 Z-1.388 F400.000
G1 X-20.740 Y24.438 Z-1.392 F400.000
G1 X-20.750 Y24.484 Z-1.396 F400.000
G1 X-20.769 Y24.527 Z-1.401 F400.000
G1 X-20.796 Y24.566 Z-1.405 F400.000
G1 X-20.830 Y24.598 Z-1.409 F400.000
G1 X-20.870 Y24.624 Z-1.414 F400.000
G1 X-20.913 Y24.641 Z-1.418 F400.000
G1 X-20.960 Y24.649 Z-1.422 F400.000
G1 X-21.007 Y24.648 Z-1.426 F400.000
G1 X-21.053 Y24.638 Z-1.431 F400.000
G1 X-21.096 Y24.620 Z-1.435 F400.000
G1 X-21.134 Y24.593 Z-1.439 F400.000
G1 X-21.167 Y24.559 Z-1.444 F400.000
G1 X-21.192 Y24.519 Z-1.448 F400.000
G1 X-21.210 Y24.475 Z-1.452 F400.000
G1 X-21.218 Y24.429 Z-1.457 F400.000
G1 X-21.217 Y24.382 Z-1.461 F400.000
G1 X-21.207 Y24.336 Z-1.465 F400.000
G1 X-21.188 Y24.293 Z-1.469 F400.000
G1 X-21.161 Y24.254 Z-1.474 F400.000
G1 X-21.127 Y24.222 Z-1.478 F400.000
G1 X-21.088 Y24.196 Z-1.482 F400.000
G1 X-21.044 Y24.179 Z-1.487 F400.000
G1 X-20.998 Y24.171 Z-1.491 F400.000
G1 X-20.951 Y24.172 Z-1.495 F400.000
G1 X-20.905 Y24.182 Z-1.499 F400.000
G1 X-20.862 Y24.200 Z-1.504 F400.000
G1 X-20.823 Y24.227 Z-1.508 F400.000
G1 X-20.790 Y24.261 Z-1.512 F400.000
G1 X-20.765 Y24.301 Z-1.517 F400.000
G1 X-20.748 Y24.345 Z-1.521 F400.000
G1 X-20.740 Y24.391 Z-1.525 F400.000
G1 X-20.740 Y24.438 Z-1.530 F400.000
G1 X-20.750 Y24.484 Z-1.534 F400.000
G1 X-20.769 Y24.527 Z-1.538 F400.000
G1 X-20.796 Y24.566 Z-1.542 F400.000
G1 X-20.830 Y24.598 Z-1.547 F400.000
G1 X-20.870 Y24.624 Z-1.551 F400.000
G1 X-20.913 Y24.641 Z-1.555 F400.000
G1 X-20.960 Y24.649 Z-1.560 F400.000
G1 X-21.007 Y24.648 Z-1.564 F400.000
G1 X-21.053 Y24.638 Z-1.568 F400.000
G1 X-21.096 Y24.620 Z-1.572 F400.000
G1 X-21.134 Y24.593 Z-1.577 F400.000
G1 X-21.167 Y24.559 Z-1.581 F400.000
G1 X-21.192 Y24.519 Z-1.585 F400.000
G1 X-21.210 Y24.475 Z-1.590 F400.000
G1 X-21.218 Y24.429 Z-1.594 F400.000
G1 X-21.217 Y24.382 Z-1.598 F400.000
G1 X-21.207 Y24.336 Z-1.603 F400.000
G1 X-21.188 Y24.293 Z-1.607 F400.000
G1 X-21.161 Y24.254 Z-1.611 F400.000
G1 X-21.127 Y24.222 Z-1.615 F400.000
G1 X-21.088 Y24.196 Z-1.620 F400.000
G1 X-21.044 Y24.179 Z-1.624 F400.000
G1 X-20.998 Y24.171 Z-1.628 F400.000
G1 X-20.951 Y24.172 Z-1.633 F400.000
G1 X-20.905 Y24.182 Z-1.637 F400.000
G1 X-20.862 Y24.200 Z-1.641 F400.000
G1 X-20.823 Y24.227 Z-1.645 F400.000
G1 X-20.790 Y24.261 Z-1.650 F400.000
G1 X-20.765 Y24.301 Z-1.654 F400.000
G1 X-20.748 Y24.345 Z-1.658 F400.000
G1 X-20.740 Y24.391 Z-1.663 F400.000
G1 X-20.740 Y24.438 Z-1.667 F400.000
G1 X-20.750 Y24.484 Z-1.671 F400.000
G1 X-20.769 Y24.527 Z-1.676 F400.000
G1 X-20.796 Y24.566 Z-1.680 F400.000
G1 X-20.830 Y24.598 Z-1.684 F400.000
G1 X-20.870 Y24.624 Z-1.688 F400.000
G1 X-20.913 Y24.641 Z-1.693 F400.000
G1 X-20.960 Y24.649 Z-1.697 F400.000
G1 X-21.007 Y24.648 Z-1.701 F400.000
G1 X-21.053 Y24.638 Z-1.706 F400.000
G1 X-21.096 Y24.620 Z-1.710 F400.000
G1 X-21.134 Y24.593 Z-1.714 F400.000
G1 X-21.167 Y24.559 Z-1.718 F400.000
G1 X-21.192 Y24.519 Z-1.723 F400.000
G1 X-21.210 Y24.475 Z-1.727 F400.000
G1 X-21.218 Y24.429 Z-1.731 F400.000
G1 X-21.217 Y24.382 Z-1.736 F400.000
G1 X-21.207 Y24.336 Z-1.740 F400.000
G1 X-21.188 Y24.293 Z-1.744 F400.000
G1 X-21.161 Y24.254 Z-1.749 F400.000
G1 X-21.127 Y24.222 Z-1.753 F400.000
G1 X-21.088 Y24.196 Z-1.757 F400.000
G1 X-21.044 Y24.179 Z-1.761 F400.000
G1 X-20.998 Y24.171 Z-1.766 F400.000
G1 X-20.951 Y24.172 Z-1.770 F400.000
G1 X-20.905 Y24.182 Z-1.774 F400.000
G1 X-20.862 Y24.200 Z-1.779 F400.000
G1 X-20.823 Y24.227 Z-1.783 F400.000
G1 X-20.790 Y24.261 Z-1.787 F400.000
G1 X-20.765 Y24.301 Z-1.791 F400.000
G1 X-20.748 Y24.345 Z-1.796 F400.000
G1 X-20.740 Y24.391 Z-1.800 F400.000
G1 X-20.740 Y24.438 Z-1.804 F400.000
G1 X-20.750 Y24.484 Z-1.809 F400.000
G1 X-20.769 Y24.527 Z-1.813 F400.000
G1 X-20.796 Y24.566 Z-1.817 F400.000
G1 X-20.830 Y24.598 Z-1.822 F400.000
G1 X-20.870 Y24.624 Z-1.826 F400.000
G1 X-20.913 Y24.641 Z-1.830 F400.000
G1 X-20.960 Y24.649 Z-1.834 F400.000
G1 X-21.007 Y24.648 Z-1.839 F400.000
G1 X-21.053 Y24.638 Z-1.843 F400.000
G1 X-21.096 Y24.620 Z-1.847 F400.000
G1 X-21.134 Y24.593 Z-1.852 F400.000
G1 X-21.167 Y24.559 Z-1.856 F400.000
G1 X-21.192 Y24.519 Z-1.860 F400.000
G1 X-21.210 Y24.475 Z-1.864 F400.000
G1 X-21.218 Y24.429 Z-1.869 F400.000
G1 X-21.217 Y24.382 Z-1.873 F400.000
G1 X-21.207 Y24.336 Z-1.877 F400.000
G1 X-21.188 Y24.293 Z-1.882 F400.000
G1 X-21.161 Y24.254 Z-1.886 F400.000
G1 X-21.127 Y24.222 Z-1.890 F400.000
G1 X-21.088 Y24.196 Z-1.895 F400.000
G1 X-21.044 Y24.179 Z-1.899 F400.000
G1 X-20.998 Y24.171 Z-1.903 F400.000
G1 X-20.951 Y24.172 Z-1.907 F400.000
G1 X-20.905 Y24.182 Z-1.912 F400.000
G1 X-20.862 Y24.200 Z-1.916 F400.000
G1 X-20.823 Y24.227 Z-1.920 F400.000
G1 X-20.790 Y24.261 Z-1.925 F400.000
G1 X-20.765 Y24.301 Z-1.929 F400.000
G1 X-20.748 Y24.345 Z-1.933 F400.000
G1 X-20.740 Y24.391 Z-1.937 F400.000
G1 X-20.740 Y24.438 Z-1.942 F400.000
G1 X-20.750 Y24.484 Z-1.946 F400.000
G1 X-20.769 Y24.527 Z-1.950 F400.000
G1 X-20.796 Y24.566 Z-1.955 F400.000
G1 X-20.830 Y24.598 Z-1.959 F400.000
G1 X-20.870 Y24.624 Z-1.963 F400.000
G1 X-20.913 Y24.641 Z-1.968 F400.000
G1 X-20.960 Y24.649 Z-1.972 F400.000
G1 X-21.007 Y24.648 Z-1.976 F400.000
G1 X-21.053 Y24.638 Z-1.980 F400.000
G1 X-21.096 Y24.620 Z-1.985 F400.000
G1 X-21.134 Y24.593 Z-1.989 F400.000
G1 X-21.167 Y24.559 Z-1.993 F400.000
G1 X-21.192 Y24.519 Z-1.998 F400.000
G1 X-21.210 Y24.475 Z-2.002 F400.000
G1 X-21.218 Y24.429 Z-2.006 F400.000
G1 X-21.217 Y24.382 Z-2.011 F400.000
G1 X-21.207 Y24.336 Z-2.015 F400.000
G1 X-21.188 Y24.293 Z-2.019 F400.000
G1 X-21.161 Y24.254 Z-2.023 F400.000
G1 X-21.127 Y24.222 Z-2.028 F400.000
G1 X-21.088 Y24.196 Z-2.032 F400.000
G1 X-21.044 Y24.179 Z-2.036 F400.000
G1 X-20.998 Y24.171 Z-2.041 F400.000
G1 X-20.951 Y24.172 Z-2.045 F400.000
G1 X-20.905 Y24.182 Z-2.049 F400.000
G1 X-20.862 Y24.200 Z-2.053 F400.000
G1 X-20.823 Y24.227 Z-2.058 F400.000
G1 X-20.790 Y24.261 Z-2.062 F400.000
G1 X-20.765 Y24.301 Z-2.066 F400.000
G1 X-20.748 Y24.345 Z-2.071 F400.000
G1 X-20.740 Y24.391 Z-2.075 F400.000
G1 X-20.740 Y24.438 Z-2.079 F400.000
G1 X-20.750 Y24.484 Z-2.084 F400.000
G1 X-20.769 Y24.527 Z-2.088 F400.000
G1 X-20.796 Y24.566 Z-2.092 F400.000
G1 X-20.830 Y24.598 Z-2.096 F400.000
G1 X-20.870 Y24.624 Z-2.101 F400.000
G1 X-20.913 Y24.641 Z-2.105 F400.000
G1 X-20.960 Y24.649 Z-2.109 F400.000
G1 X-21.007 Y24.648 Z-2.114 F400.000
G1 X-21.053 Y24.638 Z-2.118 F400.000
G1 X-21.096 Y24.620 Z-2.122 F400.000
G1 X-21.134 Y24.593 Z-2.126 F400.000
G1 X-21.167 Y24.559 Z-2.131 F400.000
G1 X-21.192 Y24.519 Z-2.135 F400.000
G1 X-21.210 Y24.475 Z-2.139 F400.000
G1 X-21.218 Y24.429 Z-2.144 F400.000
G1 X-21.217 Y24.382 Z-2.148 F400.000
G1 X-21.207 Y24.336 Z-2.152 F400.000
G1 X-21.188 Y24.293 Z-2.157 F400.000
G1 X-21.161 Y24.254 Z-2.161 F400.000
G1 X-21.127 Y24.222 Z-2.165 F400.000
G1 X-21.088 Y24.196 Z-2.169 F400.000
G1 X-21.044 Y24.179 Z-2.174 F400.000
G1 X-20.998 Y24.171 Z-2.178 F400.000
G1 X-20.951 Y24.172 Z-2.182 F400.000
G1 X-20.905 Y24.182 Z-2.187 F400.000
G1 X-20.862 Y24.200 Z-2.191 F400.000
G1 X-20.823 Y24.227 Z-2.195 F400.000
G1 X-20.790 Y24.261 Z-2.199 F400.000
G1 X-20.765 Y24.301 Z-2.204 F400.000
G1 X-20.748 Y24.345 Z-2.208 F400.000
G1 X-20.740 Y24.391 Z-2.212 F400.000
G1 X-20.740 Y24.438 Z-2.217 F400.000
G1 X-20.750 Y24.484 Z-2.221 F400.000
G1 X-20.769 Y24.527 Z-2.225 F400.000
G1 X-20.796 Y24.566 Z-2.230 F400.000
G1 X-20.830 Y24.598 Z-2.234 F400.000
G1 X-20.870 Y24.624 Z-2.238 F400.000
G1 X-20.913 Y24.641 Z-2.242 F400.000
G1 X-20.960 Y24.649 Z-2.247 F400.000
G1 X-21.007 Y24.648 Z-2.251 F400.000
G1 X-21.053 Y24.638 Z-2.255 F400.000
G1 X-21.096 Y24.620 Z-2.260 F400.000
G1 X-21.134 Y24.593 Z-2.264 F400.000
G1 X-21.167 Y24.559 Z-2.268 F400.000
G1 X-21.192 Y24.519 Z-2.272 F400.000
G1 X-21.210 Y24.475 Z-2.277 F400.000
G1 X-21.218 Y24.429 Z-2.281 F400.000
G1 X-21.217 Y24.382 Z-2.285 F400.000
G1 X-21.207 Y24.336 Z-2.290 F400.000
G1 X-21.188 Y24.293 Z-2.294 F400.000
G1 X-21.161 Y24.254 Z-2.298 F400.000
G1 X-21.127 Y24.222 Z-2.303 F400.000
G1 X-21.088 Y24.196 Z-2.307 F400.000
G1 X-21.044 Y24.179 Z-2.311 F400.000
G1 X-20.998 Y24.171 Z-2.315 F400.000
G1 X-20.951 Y24.172 Z-2.320 F400.000
G1 X-20.905 Y24.182 Z-2.324 F400.000
G1 X-20.862 Y24.200 Z-2.328 F400.000
G1 X-20.823 Y24.227 Z-2.333 F400.000
G1 X-20.790 Y24.261 Z-2.337 F400.000
G1 X-20.765 Y24.301 Z-2.341 F400.000
G1 X-20.748 Y24.345 Z-2.345 F400.000
G1 X-20.740 Y24.391 Z-2.350 F400.000
G1 X-20.740 Y24.438 Z-2.354 F400.000
G1 X-20.750 Y24.484 Z-2.358 F400.000
G1 X-20.769 Y24.527 Z-2.363 F400.000
G1 X-20.796 Y24.566 Z-2.367 F400.000
G1 X-20.830 Y24.598 Z-2.371 F400.000
G1 X-20.870 Y24.624 Z-2.376 F400.000
G1 X-20.913 Y24.641 Z-2.380 F400.000
G1 X-20.960 Y24.649 Z-2.384 F400.000
G1 X-21.007 Y24.648 Z-2.388 F400.000
G1 X-21.053 Y24.638 Z-2.393 F400.000
G1 X-21.096 Y24.620 Z-2.397 F400.000
G1 X-21.134 Y24.593 Z-2.401 F400.000
G1 X-21.167 Y24.559 Z-2.406 F400.000
G1 X-21.192 Y24.519 Z-2.410 F400.000
G1 X-21.210 Y24.475 Z-2.414 F400.000
G1 X-21.218 Y24.429 Z-2.418 F400.000
G1 X-21.217 Y24.382 Z-2.423 F400.000
G1 X-21.207 Y24.336 Z-2.427 F400.000
G1 X-21.188 Y24.293 Z-2.431 F400.000
G1 X-21.161 Y24.254 Z-2.436 F400.000
G1 X-21.127 Y24.222 Z-2.440 F400.000
G1 X-21.088 Y24.196 Z-2.444 F400.000
G1 X-21.044 Y24.179 Z-2.449 F400.000
G1 X-20.998 Y24.171 Z-2.453 F400.000
G1 X-20.951 Y24.172 Z-2.457 F400.000
