(Exported by FreeCAD)
(Post Processor: script_module)
(Output Time:2024-12-10 08:21:09.970759)
(Begin preamble)
G17 G90
G21
(Block-name: Fixture)
(Block-expand: 0)
(Block-enable: 1)
(Begin operation: Fixture)
(Path: Fixture)
G54
(Finish operation: Fixture)
(Block-name: 3mm Endmill001)
(Block-expand: 0)
(Block-enable: 1)
(Begin operation: 3mm Endmill001)
(Path: 3mm Endmill001)
(3mm Endmill001)
(Begin toolchange)
( M6 T2 )
M3 S10000
(Finish operation: 3mm Endmill001)
(Block-name: FaceMill)
(Block-expand: 0)
(Block-enable: 1)
(Begin operation: FaceMill)
(Path: FaceMill)
(FaceMill)
(Helix to depth: 0.000000)
G0 Z7.000
G0 X-1.100 Y-11.275 Z7.000
G0 X-1.100 Y-11.275 Z5.000
G1 X-1.100 Y-11.275 Z2.000 F400.000
G1 X-1.100 Y-11.275 Z2.000 F400.000
G1 X-1.111 Y-11.492 Z1.981 F400.000
G1 X-1.079 Y-11.708 Z1.961 F400.000
G1 X-1.006 Y-11.914 Z1.942 F400.000
G1 X-0.895 Y-12.101 Z1.923 F400.000
G1 X-0.749 Y-12.263 Z1.904 F400.000
G1 X-0.574 Y-12.393 Z1.884 F400.000
G1 X-0.377 Y-12.487 Z1.865 F400.000
G1 X-0.166 Y-12.540 Z1.846 F400.000
G1 X0.052 Y-12.552 Z1.827 F400.000
G1 X0.267 Y-12.520 Z1.807 F400.000
G1 X0.473 Y-12.447 Z1.788 F400.000
G1 X0.660 Y-12.336 Z1.769 F400.000
G1 X0.822 Y-12.190 Z1.749 F400.000
G1 X0.952 Y-12.015 Z1.730 F400.000
G1 X1.046 Y-11.818 Z1.711 F400.000
G1 X1.100 Y-11.607 Z1.692 F400.000
G1 X1.111 Y-11.389 Z1.672 F400.000
G1 X1.079 Y-11.173 Z1.653 F400.000
G1 X1.006 Y-10.968 Z1.634 F400.000
G1 X0.895 Y-10.781 Z1.615 F400.000
G1 X0.749 Y-10.619 Z1.595 F400.000
G1 X0.574 Y-10.488 Z1.576 F400.000
G1 X0.377 Y-10.395 Z1.557 F400.000
G1 X0.166 Y-10.341 Z1.537 F400.000
G1 X-0.052 Y-10.330 Z1.518 F400.000
G1 X-0.267 Y-10.361 Z1.499 F400.000
G1 X-0.473 Y-10.434 Z1.480 F400.000
G1 X-0.660 Y-10.546 Z1.460 F400.000
G1 X-0.822 Y-10.692 Z1.441 F400.000
G1 X-0.952 Y-10.867 Z1.422 F400.000
G1 X-1.046 Y-11.063 Z1.402 F400.000
G1 X-1.100 Y-11.275 Z1.383 F400.000
G1 X-1.111 Y-11.492 Z1.364 F400.000
G1 X-1.079 Y-11.708 Z1.345 F400.000
G1 X-1.006 Y-11.914 Z1.325 F400.000
G1 X-0.895 Y-12.101 Z1.306 F400.000
G1 X-0.749 Y-12.263 Z1.287 F400.000
G1 X-0.574 Y-12.393 Z1.268 F400.000
G1 X-0.377 Y-12.487 Z1.248 F400.000
G1 X-0.166 Y-12.540 Z1.229 F400.000
G1 X0.052 Y-12.552 Z1.210 F400.000
G1 X0.267 Y-12.520 Z1.190 F400.000
G1 X0.473 Y-12.447 Z1.171 F400.000
G1 X0.660 Y-12.336 Z1.152 F400.000
G1 X0.822 Y-12.190 Z1.133 F400.000
G1 X0.952 Y-12.015 Z1.113 F400.000
G1 X1.046 Y-11.818 Z1.094 F400.000
G1 X1.100 Y-11.607 Z1.075 F400.000
G1 X1.111 Y-11.389 Z1.056 F400.000
G1 X1.079 Y-11.173 Z1.036 F400.000
G1 X1.006 Y-10.968 Z1.017 F400.000
G1 X0.895 Y-10.781 Z0.998 F400.000
G1 X0.749 Y-10.619 Z0.978 F400.000
G1 X0.574 Y-10.488 Z0.959 F400.000
G1 X0.377 Y-10.395 Z0.940 F400.000
G1 X0.166 Y-10.341 Z0.921 F400.000
G1 X-0.052 Y-10.330 Z0.901 F400.000
G1 X-0.267 Y-10.361 Z0.882 F400.000
G1 X-0.473 Y-10.434 Z0.863 F400.000
G1 X-0.660 Y-10.546 Z0.844 F400.000
G1 X-0.822 Y-10.692 Z0.824 F400.000
G1 X-0.952 Y-10.867 Z0.805 F400.000
G1 X-1.046 Y-11.063 Z0.786 F400.000
G1 X-1.100 Y-11.275 Z0.766 F400.000
G1 X-1.111 Y-11.492 Z0.747 F400.000
G1 X-1.079 Y-11.708 Z0.728 F400.000
G1 X-1.006 Y-11.914 Z0.709 F400.000
G1 X-0.895 Y-12.101 Z0.689 F400.000
G1 X-0.749 Y-12.263 Z0.670 F400.000
G1 X-0.574 Y-12.393 Z0.651 F400.000
G1 X-0.377 Y-12.487 Z0.631 F400.000
G1 X-0.166 Y-12.540 Z0.612 F400.000
G1 X0.052 Y-12.552 Z0.593 F400.000
G1 X0.267 Y-12.520 Z0.574 F400.000
G1 X0.473 Y-12.447 Z0.554 F400.000
G1 X0.660 Y-12.336 Z0.535 F400.000
G1 X0.822 Y-12.190 Z0.516 F400.000
G1 X0.952 Y-12.015 Z0.497 F400.000
G1 X1.046 Y-11.818 Z0.477 F400.000
G1 X1.100 Y-11.607 Z0.458 F400.000
G1 X1.111 Y-11.389 Z0.439 F400.000
G1 X1.079 Y-11.173 Z0.419 F400.000
G1 X1.006 Y-10.968 Z0.400 F400.000
G1 X0.895 Y-10.781 Z0.381 F400.000
G1 X0.749 Y-10.619 Z0.362 F400.000
G1 X0.574 Y-10.488 Z0.342 F400.000
G1 X0.377 Y-10.395 Z0.323 F400.000
G1 X0.166 Y-10.341 Z0.304 F400.000
G1 X-0.052 Y-10.330 Z0.285 F400.000
G1 X-0.267 Y-10.361 Z0.265 F400.000
G1 X-0.473 Y-10.434 Z0.246 F400.000
G1 X-0.660 Y-10.546 Z0.227 F400.000
G1 X-0.822 Y-10.692 Z0.207 F400.000
G1 X-0.952 Y-10.867 Z0.188 F400.000
G1 X-1.046 Y-11.063 Z0.169 F400.000
G1 X-1.100 Y-11.275 Z0.150 F400.000
G1 X-1.111 Y-11.492 Z0.130 F400.000
G1 X-1.079 Y-11.708 Z0.111 F400.000
G1 X-1.006 Y-11.914 Z0.092 F400.000
G1 X-0.895 Y-12.101 Z0.073 F400.000
G1 X-0.749 Y-12.263 Z0.053 F400.000
G1 X-0.574 Y-12.393 Z0.034 F400.000
G1 X-0.377 Y-12.487 Z0.015 F400.000
G1 X-0.166 Y-12.540 Z0.000 F400.000
G1 X0.052 Y-12.552 Z0.000 F400.000
G1 X0.267 Y-12.520 Z0.000 F400.000
G1 X0.473 Y-12.447 Z0.000 F400.000
G1 X0.660 Y-12.336 Z0.000 F400.000
G1 X0.822 Y-12.190 Z0.000 F400.000
G1 X0.952 Y-12.015 Z0.000 F400.000
G1 X1.046 Y-11.818 Z0.000 F400.000
G1 X1.100 Y-11.607 Z0.000 F400.000
G1 X1.111 Y-11.389 Z0.000 F400.000
G1 X1.079 Y-11.173 Z0.000 F400.000
G1 X1.006 Y-10.968 Z0.000 F400.000
G1 X0.895 Y-10.781 Z0.000 F400.000
G1 X0.749 Y-10.619 Z0.000 F400.000
G1 X0.574 Y-10.488 Z0.000 F400.000
G1 X0.377 Y-10.395 Z0.000 F400.000
G1 X0.166 Y-10.341 Z0.000 F400.000
G1 X-0.052 Y-10.330 Z0.000 F400.000
G1 X-0.267 Y-10.361 Z0.000 F400.000
G1 X-0.473 Y-10.434 Z0.000 F400.000
G1 X-0.660 Y-10.546 Z0.000 F400.000
G1 X-0.822 Y-10.692 Z0.000 F400.000
G1 X-0.952 Y-10.867 Z0.000 F400.000
G1 X-1.046 Y-11.063 Z0.000 F400.000
G1 X-1.100 Y-11.275 Z0.000 F400.000
G1 X-1.111 Y-11.492 Z0.000 F400.000
G1 X-1.079 Y-11.708 Z0.000 F400.000
G1 X-1.006 Y-11.914 Z0.000 F400.000
G1 X-0.895 Y-12.101 Z0.000 F400.000
G1 X-0.749 Y-12.263 Z0.000 F400.000
G1 X-0.574 Y-12.393 Z0.000 F400.000
G1 X-0.377 Y-12.487 Z0.000 F400.000
(Adaptive - depth: 0.000000)
G1 X0.000 Y-12.563 F400.000
G1 X0.037 Y-12.600 F400.000
G1 X0.136 Y-12.641 F400.000
G1 X0.288 Y-12.661 F400.000
G1 X0.441 Y-12.651 F400.000
G1 X0.793 Y-12.532 F400.000
G1 X0.956 Y-12.417 F400.000
G1 X1.041 Y-12.332 F400.000
G1 X1.122 Y-12.231 F400.000
G1 X1.217 Y-12.085 F400.000
G1 X1.312 Y-11.881 F400.000
G1 X1.369 Y-11.675 F400.000
G1 X1.397 Y-11.495 F400.000
G1 X1.393 Y-11.292 F400.000
G1 X1.366 Y-11.119 F400.000
G1 X1.312 Y-10.942 F400.000
G1 X1.234 Y-10.769 F400.000
G1 X1.122 Y-10.597 F400.000
G1 X0.997 Y-10.451 F400.000
G1 X0.851 Y-10.319 F400.000
G1 X0.685 Y-10.207 F400.000
G1 X0.508 Y-10.119 F400.000
G1 X0.322 Y-10.058 F400.000
G1 X0.129 Y-10.027 F400.000
G1 X-0.044 Y-10.020 F400.000
G1 X-0.227 Y-10.037 F400.000
G1 X-0.427 Y-10.081 F400.000
G1 X-0.624 Y-10.156 F400.000
G1 X-0.797 Y-10.258 F400.000
G1 X-0.932 Y-10.359 F400.000
G1 X-1.068 Y-10.498 F400.000
G1 X-1.183 Y-10.647 F400.000
G1 X-1.285 Y-10.831 F400.000
G1 X-1.356 Y-11.014 F400.000
G1 X-1.403 Y-11.207 F400.000
G1 X-1.424 Y-11.407 F400.000
G1 X-1.417 Y-11.603 F400.000
G1 X-1.376 Y-11.797 F400.000
G1 X-1.322 Y-11.959 F400.000
G1 X-1.237 Y-12.129 F400.000
G1 X-1.125 Y-12.298 F400.000
G1 X-0.990 Y-12.454 F400.000
G1 X-0.834 Y-12.580 F400.000
G1 X-0.681 Y-12.681 F400.000
G1 X-0.488 Y-12.793 F400.000
G1 X-0.224 Y-12.902 F400.000
G1 X0.197 Y-12.953 F400.000
G1 X0.566 Y-12.925 F400.000
G1 X0.841 Y-12.831 F400.000
G1 X0.966 Y-12.759 F400.000
G1 X1.075 Y-12.685 F400.000
G1 X1.214 Y-12.559 F400.000
G1 X1.359 Y-12.397 F400.000
G1 X1.488 Y-12.207 F400.000
G1 X1.586 Y-12.020 F400.000
G1 X1.654 Y-11.810 F400.000
G1 X1.688 Y-11.631 F400.000
G1 X1.705 Y-11.427 F400.000
G1 X1.692 Y-11.200 F400.000
G1 X1.654 Y-10.997 F400.000
G1 X1.590 Y-10.793 F400.000
G1 X1.498 Y-10.597 F400.000
G1 X1.386 Y-10.417 F400.000
G1 X1.251 Y-10.251 F400.000
G1 X1.098 Y-10.102 F400.000
G1 X0.915 Y-9.963 F400.000
G1 X0.725 Y-9.854 F400.000
G1 X0.522 Y-9.773 F400.000
G1 X0.332 Y-9.722 F400.000
G1 X0.122 Y-9.695 F400.000
G1 X-0.081 Y-9.688 F400.000
G1 X-0.329 Y-9.715 F400.000
G1 X-0.542 Y-9.763 F400.000
G1 X-0.749 Y-9.844 F400.000
G1 X-0.919 Y-9.932 F400.000
G1 X-1.092 Y-10.054 F400.000
G1 X-1.247 Y-10.193 F400.000
G1 X-1.400 Y-10.369 F400.000
G1 X-1.522 Y-10.549 F400.000
G1 X-1.620 Y-10.742 F400.000
G1 X-1.698 Y-10.953 F400.000
G1 X-1.746 Y-11.166 F400.000
G1 X-1.759 Y-11.386 F400.000
G1 X-1.749 Y-11.573 F400.000
G1 X-1.715 Y-11.780 F400.000
G1 X-1.654 Y-11.993 F400.000
G1 X-1.563 Y-12.207 F400.000
G1 X-1.451 Y-12.400 F400.000
G1 X-1.315 Y-12.583 F400.000
G1 X-1.159 Y-12.746 F400.000
G1 X-0.983 Y-12.892 F400.000
G1 X-0.797 Y-13.020 F400.000
G1 X-0.566 Y-13.139 F400.000
G1 X-0.339 Y-13.214 F400.000
G1 X-0.139 Y-13.261 F400.000
G1 X0.088 Y-13.292 F400.000
G1 X0.332 Y-13.295 F400.000
G1 X0.576 Y-13.261 F400.000
G1 X0.769 Y-13.207 F400.000
G1 X0.953 Y-13.132 F400.000
G1 X1.139 Y-13.031 F400.000
G1 X1.332 Y-12.888 F400.000
G1 X1.492 Y-12.742 F400.000
G1 X1.637 Y-12.573 F400.000
G1 X1.763 Y-12.383 F400.000
G1 X1.864 Y-12.183 F400.000
G1 X1.942 Y-11.973 F400.000
G1 X1.997 Y-11.756 F400.000
G1 X2.027 Y-11.508 F400.000
G1 X2.031 Y-11.278 F400.000
G1 X2.007 Y-11.044 F400.000
G1 X1.956 Y-10.810 F400.000
G1 X1.881 Y-10.586 F400.000
G1 X1.780 Y-10.373 F400.000
G1 X1.647 Y-10.173 F400.000
G1 X1.515 Y-10.014 F400.000
G1 X1.356 Y-9.854 F400.000
G1 X1.166 Y-9.702 F400.000
G1 X0.949 Y-9.566 F400.000
G1 X0.732 Y-9.461 F400.000
G1 X0.498 Y-9.386 F400.000
G1 X0.285 Y-9.339 F400.000
G1 X0.051 Y-9.315 F400.000
G1 X-0.176 Y-9.322 F400.000
G1 X-0.400 Y-9.353 F400.000
G1 X-0.624 Y-9.403 F400.000
G1 X-0.875 Y-9.498 F400.000
G1 X-1.088 Y-9.603 F400.000
G1 X-1.292 Y-9.742 F400.000
G1 X-1.458 Y-9.885 F400.000
G1 X-1.617 Y-10.054 F400.000
G1 X-1.759 Y-10.237 F400.000
G1 X-1.892 Y-10.464 F400.000
G1 X-1.993 Y-10.685 F400.000
G1 X-2.061 Y-10.922 F400.000
G1 X-2.095 Y-11.122 F400.000
G1 X-2.115 Y-11.349 F400.000
G1 X-2.102 Y-11.607 F400.000
G1 X-2.064 Y-11.834 F400.000
G1 X-2.000 Y-12.064 F400.000
G1 X-1.915 Y-12.292 F400.000
G1 X-1.793 Y-12.529 F400.000
G1 X-1.654 Y-12.739 F400.000
G1 X-1.495 Y-12.936 F400.000
G1 X-1.312 Y-13.115 F400.000
G1 X-1.105 Y-13.261 F400.000
G1 X-0.932 Y-13.363 F400.000
G1 X-0.722 Y-13.464 F400.000
G1 X-0.458 Y-13.563 F400.000
G1 X-0.166 Y-13.634 F400.000
G1 X0.098 Y-13.661 F400.000
G1 X0.308 Y-13.658 F400.000
G1 X0.519 Y-13.637 F400.000
G1 X0.769 Y-13.583 F400.000
G1 X1.014 Y-13.498 F400.000
G1 X1.234 Y-13.397 F400.000
G1 X1.451 Y-13.264 F400.000
G1 X1.641 Y-13.102 F400.000
G1 X1.780 Y-12.963 F400.000
G1 X1.925 Y-12.783 F400.000
G1 X2.078 Y-12.559 F400.000
G1 X2.214 Y-12.302 F400.000
G1 X2.298 Y-12.054 F400.000
G1 X2.353 Y-11.847 F400.000
G1 X2.386 Y-11.597 F400.000
G1 X2.400 Y-11.356 F400.000
G1 X2.383 Y-11.075 F400.000
G1 X2.339 Y-10.817 F400.000
G1 X2.271 Y-10.566 F400.000
G1 X2.166 Y-10.322 F400.000
G1 X2.058 Y-10.122 F400.000
G1 X1.915 Y-9.915 F400.000
G1 X1.759 Y-9.725 F400.000
G1 X1.556 Y-9.529 F400.000
G1 X1.353 Y-9.369 F400.000
G1 X1.132 Y-9.231 F400.000
G1 X0.895 Y-9.112 F400.000
G1 X0.647 Y-9.020 F400.000
G1 X0.390 Y-8.966 F400.000
G1 X0.180 Y-8.939 F400.000
G1 X-0.058 Y-8.929 F400.000
G1 X-0.346 Y-8.949 F400.000
G1 X-0.614 Y-8.997 F400.000
G1 X-0.868 Y-9.075 F400.000
G1 X-1.078 Y-9.163 F400.000
G1 X-1.302 Y-9.285 F400.000
G1 X-1.508 Y-9.424 F400.000
G1 X-1.725 Y-9.607 F400.000
G1 X-1.908 Y-9.797 F400.000
G1 X-2.071 Y-10.003 F400.000
G1 X-2.214 Y-10.231 F400.000
G1 X-2.322 Y-10.471 F400.000
G1 X-2.397 Y-10.681 F400.000
G1 X-2.451 Y-10.925 F400.000
G1 X-2.481 Y-11.166 F400.000
G1 X-2.488 Y-11.444 F400.000
G1 X-2.468 Y-11.698 F400.000
G1 X-2.420 Y-11.953 F400.000
G1 X-2.353 Y-12.207 F400.000
G1 X-2.241 Y-12.495 F400.000
G1 X-2.119 Y-12.742 F400.000
G1 X-1.963 Y-12.976 F400.000
G1 X-1.814 Y-13.159 F400.000
G1 X-1.627 Y-13.346 F400.000
G1 X-1.424 Y-13.508 F400.000
G1 X-1.210 Y-13.647 F400.000
G1 X-0.980 Y-13.773 F400.000
G1 X-0.702 Y-13.885 F400.000
G1 X-0.444 Y-13.963 F400.000
G1 X-0.173 Y-14.017 F400.000
G1 X0.105 Y-14.044 F400.000
G1 X0.376 Y-14.034 F400.000
G1 X0.607 Y-14.007 F400.000
G1 X0.861 Y-13.949 F400.000
G1 X1.102 Y-13.871 F400.000
G1 X1.369 Y-13.753 F400.000
G1 X1.603 Y-13.620 F400.000
G1 X1.817 Y-13.454 F400.000
G1 X1.980 Y-13.302 F400.000
G1 X2.153 Y-13.115 F400.000
G1 X2.332 Y-12.881 F400.000
G1 X2.488 Y-12.627 F400.000
G1 X2.600 Y-12.366 F400.000
G1 X2.671 Y-12.159 F400.000
G1 X2.732 Y-11.905 F400.000
G1 X2.776 Y-11.620 F400.000
G1 X2.793 Y-11.308 F400.000
G1 X2.773 Y-11.024 F400.000
G1 X2.736 Y-10.780 F400.000
G1 X2.664 Y-10.508 F400.000
G1 X2.569 Y-10.254 F400.000
G1 X2.454 Y-10.014 F400.000
G1 X2.308 Y-9.780 F400.000
G1 X2.149 Y-9.563 F400.000
G1 X1.949 Y-9.342 F400.000
G1 X1.742 Y-9.156 F400.000
G1 X1.515 Y-8.986 F400.000
G1 X1.271 Y-8.837 F400.000
G1 X1.010 Y-8.722 F400.000
G1 X0.786 Y-8.644 F400.000
G1 X0.529 Y-8.576 F400.000
G1 X0.227 Y-8.536 F400.000
G1 X-0.034 Y-8.519 F400.000
G1 X-0.336 Y-8.529 F400.000
G1 X-0.620 Y-8.569 F400.000
G1 X-0.892 Y-8.644 F400.000
G1 X-1.105 Y-8.722 F400.000
G1 X-1.342 Y-8.831 F400.000
G1 X-1.617 Y-8.990 F400.000
G1 X-1.868 Y-9.169 F400.000
G1 X-2.081 Y-9.369 F400.000
G1 X-2.237 Y-9.539 F400.000
G1 X-2.400 Y-9.763 F400.000
G1 X-2.539 Y-9.990 F400.000
G1 X-2.671 Y-10.261 F400.000
G1 X-2.766 Y-10.522 F400.000
G1 X-2.841 Y-10.793 F400.000
G1 X-2.888 Y-11.078 F400.000
G1 X-2.898 Y-11.359 F400.000
G1 X-2.888 Y-11.593 F400.000
G1 X-2.854 Y-11.858 F400.000
G1 X-2.790 Y-12.159 F400.000
G1 X-2.692 Y-12.471 F400.000
G1 X-2.576 Y-12.749 F400.000
G1 X-2.420 Y-13.017 F400.000
G1 X-2.285 Y-13.214 F400.000
G1 X-2.105 Y-13.424 F400.000
G1 X-1.912 Y-13.620 F400.000
G1 X-1.664 Y-13.824 F400.000
G1 X-1.427 Y-13.986 F400.000
G1 X-1.173 Y-14.129 F400.000
G1 X-0.895 Y-14.251 F400.000
G1 X-0.614 Y-14.346 F400.000
G1 X-0.322 Y-14.407 F400.000
G1 X-0.071 Y-14.437 F400.000
G1 X0.203 Y-14.444 F400.000
G1 X0.475 Y-14.431 F400.000
G1 X0.803 Y-14.383 F400.000
G1 X1.088 Y-14.315 F400.000
G1 X1.366 Y-14.207 F400.000
G1 X1.573 Y-14.105 F400.000
G1 X1.803 Y-13.959 F400.000
G1 X2.017 Y-13.803 F400.000
G1 X2.258 Y-13.593 F400.000
G1 X2.481 Y-13.356 F400.000
G1 X2.658 Y-13.115 F400.000
G1 X2.786 Y-12.908 F400.000
G1 X2.912 Y-12.651 F400.000
G1 X3.014 Y-12.397 F400.000
G1 X3.105 Y-12.078 F400.000
G1 X3.163 Y-11.786 F400.000
G1 X3.197 Y-11.488 F400.000
G1 X3.200 Y-11.180 F400.000
G1 X3.176 Y-10.878 F400.000
G1 X3.112 Y-10.580 F400.000
G1 X3.044 Y-10.353 F400.000
G1 X2.946 Y-10.095 F400.000
G1 X2.814 Y-9.814 F400.000
G1 X2.634 Y-9.512 F400.000
G1 X2.444 Y-9.268 F400.000
G1 X2.278 Y-9.081 F400.000
G1 X2.064 Y-8.875 F400.000
G1 X1.807 Y-8.678 F400.000
G1 X1.566 Y-8.522 F400.000
G1 X1.302 Y-8.383 F400.000
G1 X1.020 Y-8.268 F400.000
G1 X0.736 Y-8.180 F400.000
G1 X0.441 Y-8.115 F400.000
G1 X0.142 Y-8.088 F400.000
G1 X-0.105 Y-8.085 F400.000
G1 X-0.383 Y-8.102 F400.000
G1 X-0.712 Y-8.156 F400.000
G1 X-1.020 Y-8.234 F400.000
G1 X-1.312 Y-8.332 F400.000
G1 X-1.597 Y-8.468 F400.000
G1 X-1.824 Y-8.600 F400.000
G1 X-2.061 Y-8.769 F400.000
G1 X-2.278 Y-8.959 F400.000
G1 X-2.471 Y-9.163 F400.000
G1 X-2.654 Y-9.383 F400.000
G1 X-2.834 Y-9.654 F400.000
G1 X-2.976 Y-9.915 F400.000
G1 X-3.098 Y-10.193 F400.000
G1 X-3.197 Y-10.488 F400.000
G1 X-3.268 Y-10.783 F400.000
G1 X-3.312 Y-11.081 F400.000
G1 X-3.329 Y-11.386 F400.000
G1 X-3.319 Y-11.688 F400.000
G1 X-3.281 Y-11.990 F400.000
G1 X-3.207 Y-12.285 F400.000
G1 X-3.129 Y-12.519 F400.000
G1 X-3.024 Y-12.783 F400.000
G1 X-2.858 Y-13.112 F400.000
G1 X-2.675 Y-13.407 F400.000
G1 X-2.468 Y-13.661 F400.000
G1 X-2.295 Y-13.847 F400.000
G1 X-2.068 Y-14.051 F400.000
G1 X-1.834 Y-14.227 F400.000
G1 X-1.556 Y-14.403 F400.000
G1 X-1.281 Y-14.542 F400.000
G1 X-0.997 Y-14.661 F400.000
G1 X-0.695 Y-14.756 F400.000
G1 X-0.390 Y-14.824 F400.000
G1 X-0.078 Y-14.854 F400.000
G1 X0.176 Y-14.864 F400.000
G1 X0.512 Y-14.851 F400.000
G1 X0.851 Y-14.803 F400.000
G1 X1.146 Y-14.725 F400.000
G1 X1.390 Y-14.641 F400.000
G1 X1.661 Y-14.515 F400.000
G1 X1.912 Y-14.380 F400.000
G1 X2.207 Y-14.183 F400.000
G1 X2.451 Y-13.986 F400.000
G1 X2.675 Y-13.763 F400.000
G1 X2.847 Y-13.559 F400.000
G1 X3.017 Y-13.315 F400.000
G1 X3.166 Y-13.064 F400.000
G1 X3.322 Y-12.756 F400.000
G1 X3.451 Y-12.427 F400.000
G1 X3.536 Y-12.108 F400.000
G1 X3.586 Y-11.851 F400.000
G1 X3.617 Y-11.542 F400.000
G1 X3.624 Y-11.244 F400.000
G1 X3.600 Y-10.895 F400.000
G1 X3.553 Y-10.576 F400.000
G1 X3.468 Y-10.268 F400.000
G1 X3.380 Y-10.024 F400.000
G1 X3.261 Y-9.753 F400.000
G1 X3.095 Y-9.441 F400.000
G1 X2.898 Y-9.136 F400.000
G1 X2.688 Y-8.878 F400.000
G1 X2.498 Y-8.675 F400.000
G1 X2.258 Y-8.461 F400.000
G1 X2.010 Y-8.278 F400.000
G1 X1.753 Y-8.122 F400.000
G1 X1.475 Y-7.983 F400.000
G1 X1.190 Y-7.864 F400.000
G1 X0.844 Y-7.756 F400.000
G1 X0.529 Y-7.685 F400.000
G1 X0.203 Y-7.654 F400.000
G1 X-0.047 Y-7.647 F400.000
G1 X-0.342 Y-7.658 F400.000
G1 X-0.698 Y-7.698 F400.000
G1 X-1.058 Y-7.773 F400.000
G1 X-1.376 Y-7.885 F400.000
G1 X-1.607 Y-7.980 F400.000
G1 X-1.881 Y-8.122 F400.000
G1 X-2.159 Y-8.298 F400.000
G1 X-2.431 Y-8.502 F400.000
G1 X-2.668 Y-8.725 F400.000
G1 X-2.851 Y-8.925 F400.000
G1 X-3.044 Y-9.166 F400.000
G1 X-3.227 Y-9.454 F400.000
G1 X-3.373 Y-9.725 F400.000
G1 X-3.502 Y-10.020 F400.000
G1 X-3.603 Y-10.329 F400.000
G1 X-3.678 Y-10.637 F400.000
G1 X-3.736 Y-10.953 F400.000
G1 X-3.766 Y-11.322 F400.000
G1 X-3.753 Y-11.654 F400.000
G1 X-3.725 Y-11.908 F400.000
G1 X-3.671 Y-12.217 F400.000
G1 X-3.583 Y-12.549 F400.000
G1 X-3.464 Y-12.885 F400.000
G1 X-3.329 Y-13.190 F400.000
G1 X-3.153 Y-13.488 F400.000
G1 X-2.997 Y-13.715 F400.000
G1 X-2.797 Y-13.959 F400.000
G1 X-2.576 Y-14.180 F400.000
G1 X-2.353 Y-14.380 F400.000
G1 X-2.064 Y-14.600 F400.000
G1 X-1.753 Y-14.797 F400.000
G1 X-1.444 Y-14.949 F400.000
G1 X-1.176 Y-15.061 F400.000
G1 X-0.861 Y-15.159 F400.000
G1 X-0.549 Y-15.227 F400.000
G1 X-0.237 Y-15.268 F400.000
G1 X0.078 Y-15.292 F400.000
G1 X0.447 Y-15.285 F400.000
G1 X0.780 Y-15.254 F400.000
G1 X1.119 Y-15.183 F400.000
G1 X1.386 Y-15.108 F400.000
G1 X1.685 Y-14.997 F400.000
G1 X1.963 Y-14.858 F400.000
G1 X2.220 Y-14.702 F400.000
G1 X2.475 Y-14.529 F400.000
G1 X2.756 Y-14.292 F400.000
G1 X2.990 Y-14.064 F400.000
G1 X3.200 Y-13.807 F400.000
G1 X3.359 Y-13.580 F400.000
G1 X3.522 Y-13.319 F400.000
G1 X3.695 Y-12.986 F400.000
G1 X3.841 Y-12.644 F400.000
G1 X3.946 Y-12.295 F400.000
G1 X4.003 Y-12.014 F400.000
G1 X4.037 Y-11.732 F400.000
G1 X4.058 Y-11.427 F400.000
G1 X4.054 Y-11.054 F400.000
G1 X4.020 Y-10.681 F400.000
G1 X3.946 Y-10.332 F400.000
G1 X3.861 Y-10.068 F400.000
G1 X3.769 Y-9.817 F400.000
G1 X3.620 Y-9.478 F400.000
G1 X3.437 Y-9.153 F400.000
G1 X3.254 Y-8.864 F400.000
G1 X3.014 Y-8.576 F400.000
G1 X2.827 Y-8.380 F400.000
G1 X2.586 Y-8.166 F400.000
G1 X2.336 Y-7.973 F400.000
G1 X2.020 Y-7.769 F400.000
G1 X1.722 Y-7.610 F400.000
G1 X1.410 Y-7.471 F400.000
G1 X1.078 Y-7.356 F400.000
G1 X0.746 Y-7.268 F400.000
G1 X0.403 Y-7.220 F400.000
G1 X0.139 Y-7.200 F400.000
G1 X-0.169 Y-7.193 F400.000
G1 X-0.539 Y-7.217 F400.000
G1 X-0.905 Y-7.268 F400.000
G1 X-1.254 Y-7.363 F400.000
G1 X-1.505 Y-7.444 F400.000
G1 X-1.807 Y-7.566 F400.000
G1 X-2.129 Y-7.729 F400.000
G1 X-2.434 Y-7.929 F400.000
G1 X-2.661 Y-8.098 F400.000
G1 X-2.905 Y-8.319 F400.000
G1 X-3.129 Y-8.549 F400.000
G1 X-3.363 Y-8.837 F400.000
G1 X-3.556 Y-9.115 F400.000
G1 X-3.732 Y-9.410 F400.000
G1 X-3.885 Y-9.725 F400.000
G1 X-4.010 Y-10.044 F400.000
G1 X-4.098 Y-10.380 F400.000
G1 X-4.153 Y-10.651 F400.000
G1 X-4.193 Y-10.969 F400.000
G1 X-4.214 Y-11.336 F400.000
G1 X-4.203 Y-11.705 F400.000
G1 X-4.169 Y-12.054 F400.000
G1 X-4.105 Y-12.414 F400.000
G1 X-4.000 Y-12.763 F400.000
G1 X-3.905 Y-13.024 F400.000
G1 X-3.763 Y-13.322 F400.000
G1 X-3.607 Y-13.603 F400.000
G1 X-3.400 Y-13.912 F400.000
G1 X-3.186 Y-14.183 F400.000
G1 X-2.953 Y-14.441 F400.000
G1 X-2.688 Y-14.688 F400.000
G1 X-2.414 Y-14.908 F400.000
G1 X-2.122 Y-15.112 F400.000
G1 X-1.807 Y-15.278 F400.000
G1 X-1.556 Y-15.390 F400.000
G1 X-1.251 Y-15.502 F400.000
G1 X-0.908 Y-15.603 F400.000
G1 X-0.542 Y-15.681 F400.000
G1 X-0.186 Y-15.732 F400.000
G1 X0.183 Y-15.742 F400.000
G1 X0.475 Y-15.732 F400.000
G1 X0.810 Y-15.698 F400.000
G1 X1.176 Y-15.627 F400.000
G1 X1.498 Y-15.539 F400.000
G1 X1.824 Y-15.410 F400.000
G1 X2.078 Y-15.288 F400.000
G1 X2.356 Y-15.136 F400.000
G1 X2.668 Y-14.932 F400.000
G1 X2.963 Y-14.705 F400.000
G1 X3.227 Y-14.447 F400.000
G1 X3.417 Y-14.244 F400.000
G1 X3.627 Y-13.973 F400.000
G1 X3.810 Y-13.705 F400.000
G1 X4.000 Y-13.383 F400.000
G1 X4.163 Y-13.047 F400.000
G1 X4.295 Y-12.698 F400.000
G1 X4.376 Y-12.397 F400.000
G1 X4.434 Y-12.108 F400.000
G1 X4.481 Y-11.786 F400.000
G1 X4.508 Y-11.414 F400.000
G1 X4.508 Y-11.041 F400.000
G1 X4.471 Y-10.668 F400.000
G1 X4.410 Y-10.369 F400.000
G1 X4.339 Y-10.088 F400.000
G1 X4.227 Y-9.742 F400.000
G1 X4.088 Y-9.393 F400.000
G1 X3.912 Y-9.061 F400.000
G1 X3.749 Y-8.790 F400.000
G1 X3.532 Y-8.485 F400.000
G1 X3.295 Y-8.207 F400.000
G1 X3.044 Y-7.963 F400.000
G1 X2.817 Y-7.769 F400.000
G1 X2.553 Y-7.566 F400.000
G1 X2.237 Y-7.363 F400.000
G1 X1.908 Y-7.183 F400.000
G1 X1.563 Y-7.037 F400.000
G1 X1.278 Y-6.936 F400.000
G1 X0.929 Y-6.844 F400.000
G1 X0.590 Y-6.783 F400.000
G1 X0.258 Y-6.742 F400.000
G1 X-0.112 Y-6.729 F400.000
G1 X-0.464 Y-6.742 F400.000
G1 X-0.820 Y-6.780 F400.000
G1 X-1.176 Y-6.847 F400.000
G1 X-1.522 Y-6.939 F400.000
G1 X-1.858 Y-7.071 F400.000
G1 X-2.112 Y-7.190 F400.000
G1 X-2.400 Y-7.349 F400.000
G1 X-2.712 Y-7.549 F400.000
G1 X-3.007 Y-7.773 F400.000
G1 X-3.285 Y-8.017 F400.000
G1 X-3.532 Y-8.292 F400.000
G1 X-3.708 Y-8.512 F400.000
G1 X-3.905 Y-8.790 F400.000
G1 X-4.098 Y-9.105 F400.000
G1 X-4.268 Y-9.434 F400.000
G1 X-4.400 Y-9.780 F400.000
G1 X-4.488 Y-10.058 F400.000
G1 X-4.576 Y-10.403 F400.000
G1 X-4.641 Y-10.769 F400.000
G1 X-4.678 Y-11.139 F400.000
G1 X-4.692 Y-11.508 F400.000
G1 X-4.661 Y-11.878 F400.000
G1 X-4.620 Y-12.173 F400.000
G1 X-4.546 Y-12.515 F400.000
G1 X-4.451 Y-12.847 F400.000
G1 X-4.322 Y-13.197 F400.000
G1 X-4.169 Y-13.529 F400.000
G1 X-3.993 Y-13.854 F400.000
G1 X-3.790 Y-14.166 F400.000
G1 X-3.566 Y-14.464 F400.000
G1 X-3.312 Y-14.736 F400.000
G1 X-3.092 Y-14.942 F400.000
G1 X-2.827 Y-15.166 F400.000
G1 X-2.525 Y-15.386 F400.000
G1 X-2.210 Y-15.583 F400.000
G1 X-1.875 Y-15.746 F400.000
G1 X-1.600 Y-15.861 F400.000
G1 X-1.258 Y-15.983 F400.000
G1 X-0.895 Y-16.081 F400.000
G1 X-0.529 Y-16.156 F400.000
G1 X-0.156 Y-16.186 F400.000
G1 X0.136 Y-16.197 F400.000
G1 X0.488 Y-16.193 F400.000
G1 X0.858 Y-16.149 F400.000
G1 X1.210 Y-16.088 F400.000
G1 X1.569 Y-15.986 F400.000
G1 X1.858 Y-15.881 F400.000
G1 X2.180 Y-15.746 F400.000
G1 X2.508 Y-15.569 F400.000
G1 X2.800 Y-15.386 F400.000
G1 X3.092 Y-15.173 F400.000
G1 X3.366 Y-14.932 F400.000
G1 X3.617 Y-14.681 F400.000
G1 X3.854 Y-14.407 F400.000
G1 X4.078 Y-14.119 F400.000
G1 X4.281 Y-13.807 F400.000
G1 X4.464 Y-13.481 F400.000
G1 X4.614 Y-13.139 F400.000
G1 X4.715 Y-12.854 F400.000
G1 X4.810 Y-12.508 F400.000
G1 X4.885 Y-12.169 F400.000
G1 X4.936 Y-11.800 F400.000
G1 X4.959 Y-11.427 F400.000
G1 X4.963 Y-11.054 F400.000
G1 X4.936 Y-10.681 F400.000
G1 X4.868 Y-10.312 F400.000
G1 X4.800 Y-10.020 F400.000
G1 X4.698 Y-9.678 F400.000
G1 X4.566 Y-9.329 F400.000
G1 X4.410 Y-8.986 F400.000
G1 X4.234 Y-8.658 F400.000
G1 X4.024 Y-8.349 F400.000
G1 X3.831 Y-8.098 F400.000
G1 X3.583 Y-7.824 F400.000
G1 X3.319 Y-7.576 F400.000
G1 X3.051 Y-7.356 F400.000
G1 X2.766 Y-7.139 F400.000
G1 X2.447 Y-6.942 F400.000
G1 X2.119 Y-6.766 F400.000
G1 X1.780 Y-6.607 F400.000
G1 X1.427 Y-6.475 F400.000
G1 X1.064 Y-6.383 F400.000
G1 X0.769 Y-6.322 F400.000
G1 X0.407 Y-6.271 F400.000
G1 X0.034 Y-6.247 F400.000
G1 X-0.336 Y-6.247 F400.000
G1 X-0.705 Y-6.275 F400.000
G1 X-1.071 Y-6.325 F400.000
G1 X-1.431 Y-6.417 F400.000
G1 X-1.715 Y-6.505 F400.000
G1 X-2.051 Y-6.641 F400.000
G1 X-2.366 Y-6.786 F400.000
G1 X-2.688 Y-6.969 F400.000
G1 X-2.997 Y-7.173 F400.000
G1 X-3.295 Y-7.393 F400.000
G1 X-3.576 Y-7.637 F400.000
G1 X-3.827 Y-7.908 F400.000
G1 X-4.020 Y-8.142 F400.000
G1 X-4.237 Y-8.434 F400.000
G1 X-4.437 Y-8.746 F400.000
G1 X-4.617 Y-9.071 F400.000
G1 X-4.776 Y-9.407 F400.000
G1 X-4.895 Y-9.756 F400.000
G1 X-4.980 Y-10.054 F400.000
G1 X-5.064 Y-10.417 F400.000
G1 X-5.125 Y-10.783 F400.000
G1 X-5.159 Y-11.153 F400.000
G1 X-5.156 Y-11.522 F400.000
G1 X-5.139 Y-11.837 F400.000
G1 X-5.088 Y-12.207 F400.000
G1 X-5.017 Y-12.573 F400.000
G1 X-4.919 Y-12.932 F400.000
G1 X-4.797 Y-13.285 F400.000
G1 X-4.651 Y-13.627 F400.000
G1 X-4.481 Y-13.959 F400.000
G1 X-4.292 Y-14.278 F400.000
G1 X-4.081 Y-14.583 F400.000
G1 X-3.837 Y-14.864 F400.000
G1 X-3.624 Y-15.085 F400.000
G1 X-3.359 Y-15.332 F400.000
G1 X-3.071 Y-15.569 F400.000
G1 X-2.766 Y-15.786 F400.000
G1 X-2.451 Y-15.983 F400.000
G1 X-2.115 Y-16.149 F400.000
G1 X-1.810 Y-16.281 F400.000
G1 X-1.458 Y-16.410 F400.000
G1 X-1.095 Y-16.508 F400.000
G1 X-0.729 Y-16.586 F400.000
G1 X-0.359 Y-16.641 F400.000
G1 X0.010 Y-16.668 F400.000
G1 X0.380 Y-16.671 F400.000
G1 X0.749 Y-16.647 F400.000
G1 X1.115 Y-16.583 F400.000
G1 X1.407 Y-16.515 F400.000
G1 X1.753 Y-16.414 F400.000
G1 X2.102 Y-16.285 F400.000
G1 X2.441 Y-16.132 F400.000
G1 X2.769 Y-15.959 F400.000
G1 X3.085 Y-15.763 F400.000
G1 X3.386 Y-15.546 F400.000
G1 X3.664 Y-15.298 F400.000
G1 X3.892 Y-15.075 F400.000
G1 X4.142 Y-14.800 F400.000
G1 X4.376 Y-14.508 F400.000
G1 X4.590 Y-14.203 F400.000
G1 X4.786 Y-13.885 F400.000
G1 X4.946 Y-13.546 F400.000
G1 X5.064 Y-13.264 F400.000
G1 X5.186 Y-12.912 F400.000
G1 X5.278 Y-12.549 F400.000
G1 X5.353 Y-12.190 F400.000
G1 X5.400 Y-11.820 F400.000
G1 X5.424 Y-11.447 F400.000
G1 X5.427 Y-11.075 F400.000
G1 X5.403 Y-10.702 F400.000
G1 X5.356 Y-10.329 F400.000
G1 X5.285 Y-9.959 F400.000
G1 X5.176 Y-9.600 F400.000
G1 X5.068 Y-9.298 F400.000
G1 X4.922 Y-8.953 F400.000
G1 X4.753 Y-8.617 F400.000
G1 X4.563 Y-8.295 F400.000
G1 X4.346 Y-7.990 F400.000
G1 X4.129 Y-7.722 F400.000
G1 X3.871 Y-7.447 F400.000
G1 X3.600 Y-7.186 F400.000
G1 X3.312 Y-6.946 F400.000
G1 X3.007 Y-6.725 F400.000
G1 X2.692 Y-6.522 F400.000
G1 X2.363 Y-6.342 F400.000
G1 X2.024 Y-6.183 F400.000
G1 X1.675 Y-6.047 F400.000
G1 X1.315 Y-5.936 F400.000
G1 X0.953 Y-5.847 F400.000
G1 X0.583 Y-5.783 F400.000
G1 X0.210 Y-5.756 F400.000
G1 X-0.105 Y-5.749 F400.000
G1 X-0.475 Y-5.763 F400.000
G1 X-0.844 Y-5.800 F400.000
G1 X-1.210 Y-5.861 F400.000
G1 X-1.569 Y-5.956 F400.000
G1 X-1.898 Y-6.061 F400.000
G1 X-2.244 Y-6.193 F400.000
G1 X-2.580 Y-6.353 F400.000
G1 X-2.905 Y-6.532 F400.000
G1 X-3.217 Y-6.732 F400.000
G1 X-3.515 Y-6.953 F400.000
G1 X-3.800 Y-7.190 F400.000
G1 X-4.068 Y-7.447 F400.000
G1 X-4.319 Y-7.722 F400.000
G1 X-4.549 Y-8.010 F400.000
G1 X-4.759 Y-8.315 F400.000
G1 X-4.949 Y-8.634 F400.000
G1 X-5.119 Y-8.963 F400.000
G1 X-5.254 Y-9.308 F400.000
G1 X-5.363 Y-9.614 F400.000
G1 X-5.464 Y-9.969 F400.000
G1 X-5.546 Y-10.332 F400.000
G1 X-5.607 Y-10.698 F400.000
G1 X-5.631 Y-11.068 F400.000
G1 X-5.637 Y-11.400 F400.000
G1 X-5.617 Y-11.769 F400.000
G1 X-5.580 Y-12.139 F400.000
G1 X-5.515 Y-12.505 F400.000
G1 X-5.431 Y-12.868 F400.000
G1 X-5.322 Y-13.224 F400.000
G1 X-5.193 Y-13.573 F400.000
G1 X-5.041 Y-13.912 F400.000
G1 X-4.868 Y-14.241 F400.000
G1 X-4.675 Y-14.559 F400.000
G1 X-4.464 Y-14.864 F400.000
G1 X-4.224 Y-15.149 F400.000
G1 X-3.997 Y-15.390 F400.000
G1 X-3.725 Y-15.647 F400.000
G1 X-3.441 Y-15.888 F400.000
G1 X-3.139 Y-16.108 F400.000
G1 X-2.827 Y-16.312 F400.000
G1 X-2.502 Y-16.495 F400.000
G1 X-2.166 Y-16.658 F400.000
G1 X-1.820 Y-16.800 F400.000
G1 X-1.461 Y-16.908 F400.000
G1 X-1.125 Y-16.993 F400.000
G1 X-0.759 Y-17.068 F400.000
G1 X-0.386 Y-17.112 F400.000
G1 X-0.014 Y-17.136 F400.000
G1 X0.356 Y-17.136 F400.000
G1 X0.725 Y-17.108 F400.000
G1 X1.095 Y-17.061 F400.000
G1 X1.461 Y-16.990 F400.000
G1 X1.820 Y-16.895 F400.000
G1 X2.173 Y-16.776 F400.000
G1 X2.519 Y-16.637 F400.000
G1 X2.854 Y-16.475 F400.000
G1 X3.173 Y-16.281 F400.000
G1 X3.444 Y-16.095 F400.000
G1 X3.736 Y-15.861 F400.000
G1 X4.017 Y-15.617 F400.000
G1 X4.285 Y-15.356 F400.000
G1 X4.532 Y-15.078 F400.000
G1 X4.766 Y-14.786 F400.000
G1 X4.983 Y-14.481 F400.000
G1 X5.180 Y-14.166 F400.000
G1 X5.342 Y-13.831 F400.000
G1 X5.468 Y-13.539 F400.000
G1 X5.597 Y-13.186 F400.000
G1 X5.705 Y-12.827 F400.000
G1 X5.790 Y-12.461 F400.000
G1 X5.854 Y-12.092 F400.000
G1 X5.895 Y-11.719 F400.000
G1 X5.915 Y-11.346 F400.000
G1 X5.912 Y-10.973 F400.000
G1 X5.888 Y-10.600 F400.000
G1 X5.827 Y-10.231 F400.000
G1 X5.756 Y-9.892 F400.000
G1 X5.654 Y-9.532 F400.000
G1 X5.536 Y-9.176 F400.000
G1 X5.393 Y-8.831 F400.000
G1 X5.231 Y-8.495 F400.000
G1 X5.047 Y-8.166 F400.000
G1 X4.844 Y-7.851 F400.000
G1 X4.624 Y-7.549 F400.000
G1 X4.386 Y-7.261 F400.000
G1 X4.119 Y-6.997 F400.000
G1 X3.864 Y-6.766 F400.000
G1 X3.573 Y-6.529 F400.000
G1 X3.268 Y-6.308 F400.000
G1 X2.953 Y-6.108 F400.000
G1 X2.627 Y-5.925 F400.000
G1 X2.292 Y-5.759 F400.000
G1 X1.946 Y-5.614 F400.000
G1 X1.593 Y-5.488 F400.000
G1 X1.227 Y-5.400 F400.000
G1 X0.895 Y-5.336 F400.000
G1 X0.522 Y-5.288 F400.000
G1 X0.149 Y-5.261 F400.000
G1 X-0.220 Y-5.261 F400.000
G1 X-0.590 Y-5.281 F400.000
G1 X-0.959 Y-5.325 F400.000
G1 X-1.325 Y-5.393 F400.000
G1 X-1.685 Y-5.481 F400.000
G1 X-2.037 Y-5.593 F400.000
G1 X-2.383 Y-5.725 F400.000
G1 X-2.719 Y-5.881 F400.000
G1 X-3.047 Y-6.051 F400.000
G1 X-3.366 Y-6.241 F400.000
G1 X-3.671 Y-6.447 F400.000
G1 X-3.966 Y-6.671 F400.000
G1 X-4.247 Y-6.912 F400.000
G1 X-4.502 Y-7.180 F400.000
G1 X-4.725 Y-7.434 F400.000
G1 X-4.949 Y-7.729 F400.000
G1 X-5.159 Y-8.034 F400.000
G1 X-5.349 Y-8.353 F400.000
G1 X-5.519 Y-8.681 F400.000
G1 X-5.671 Y-9.020 F400.000
G1 X-5.800 Y-9.366 F400.000
G1 X-5.908 Y-9.719 F400.000
G1 X-5.997 Y-10.078 F400.000
G1 X-6.064 Y-10.444 F400.000
G1 X-6.112 Y-10.814 F400.000
G1 X-6.136 Y-11.183 F400.000
G1 X-6.125 Y-11.553 F400.000
G1 X-6.098 Y-11.898 F400.000
G1 X-6.054 Y-12.268 F400.000
G1 X-5.986 Y-12.634 F400.000
G1 X-5.898 Y-12.993 F400.000
G1 X-5.793 Y-13.349 F400.000
G1 X-5.668 Y-13.698 F400.000
G1 X-5.522 Y-14.041 F400.000
G1 X-5.359 Y-14.376 F400.000
G1 X-5.163 Y-14.695 F400.000
G1 X-4.963 Y-14.990 F400.000
G1 X-4.736 Y-15.285 F400.000
G1 X-4.492 Y-15.566 F400.000
G1 X-4.231 Y-15.834 F400.000
G1 X-3.956 Y-16.085 F400.000
G1 X-3.668 Y-16.319 F400.000
G1 X-3.363 Y-16.536 F400.000
G1 X-3.047 Y-16.736 F400.000
G1 X-2.722 Y-16.915 F400.000
G1 X-2.386 Y-17.078 F400.000
G1 X-2.041 Y-17.220 F400.000
G1 X-1.688 Y-17.342 F400.000
G1 X-1.329 Y-17.444 F400.000
G1 X-0.963 Y-17.522 F400.000
G1 X-0.593 Y-17.580 F400.000
G1 X-0.220 Y-17.617 F400.000
G1 X0.149 Y-17.631 F400.000
G1 X0.519 Y-17.624 F400.000
G1 X0.888 Y-17.593 F400.000
G1 X1.258 Y-17.542 F400.000
G1 X1.620 Y-17.471 F400.000
G1 X1.980 Y-17.376 F400.000
G1 X2.332 Y-17.261 F400.000
G1 X2.671 Y-17.108 F400.000
G1 X2.959 Y-16.963 F400.000
G1 X3.285 Y-16.780 F400.000
G1 X3.597 Y-16.576 F400.000
G1 X3.895 Y-16.356 F400.000
G1 X4.183 Y-16.119 F400.000
G1 X4.458 Y-15.868 F400.000
G1 X4.719 Y-15.600 F400.000
G1 X4.963 Y-15.319 F400.000
G1 X5.190 Y-15.024 F400.000
G1 X5.400 Y-14.715 F400.000
G1 X5.593 Y-14.397 F400.000
G1 X5.769 Y-14.068 F400.000
G1 X5.925 Y-13.729 F400.000
G1 X6.047 Y-13.376 F400.000
G1 X6.146 Y-13.051 F400.000
G1 X6.237 Y-12.688 F400.000
G1 X6.312 Y-12.322 F400.000
G1 X6.363 Y-11.953 F400.000
G1 X6.397 Y-11.580 F400.000
G1 X6.410 Y-11.207 F400.000
G1 X6.403 Y-10.834 F400.000
G1 X6.356 Y-10.461 F400.000
G1 X6.305 Y-10.142 F400.000
G1 X6.227 Y-9.776 F400.000
G1 X6.129 Y-9.414 F400.000
G1 X6.010 Y-9.058 F400.000
G1 X5.875 Y-8.708 F400.000
G1 X5.719 Y-8.366 F400.000
G1 X5.546 Y-8.034 F400.000
G1 X5.356 Y-7.712 F400.000
G1 X5.136 Y-7.407 F400.000
G1 X4.908 Y-7.119 F400.000
G1 X4.658 Y-6.841 F400.000
G1 X4.393 Y-6.576 F400.000
G1 X4.112 Y-6.329 F400.000
G1 X3.817 Y-6.098 F400.000
G1 X3.508 Y-5.881 F400.000
G1 X3.193 Y-5.678 F400.000
G1 X2.864 Y-5.495 F400.000
G1 X2.529 Y-5.329 F400.000
G1 X2.186 Y-5.176 F400.000
G1 X1.834 Y-5.044 F400.000
G1 X1.471 Y-4.942 F400.000
G1 X1.105 Y-4.868 F400.000
G1 X0.749 Y-4.817 F400.000
G1 X0.376 Y-4.776 F400.000
G1 X0.003 Y-4.759 F400.000
G1 X-0.366 Y-4.763 F400.000
G1 X-0.736 Y-4.783 F400.000
G1 X-1.102 Y-4.837 F400.000
G1 X-1.464 Y-4.908 F400.000
G1 X-1.824 Y-5.000 F400.000
G1 X-2.180 Y-5.108 F400.000
G1 X-2.525 Y-5.241 F400.000
G1 X-2.864 Y-5.390 F400.000
G1 X-3.193 Y-5.556 F400.000
G1 X-3.512 Y-5.742 F400.000
G1 X-3.824 Y-5.939 F400.000
G1 X-4.125 Y-6.156 F400.000
G1 X-4.414 Y-6.386 F400.000
G1 X-4.678 Y-6.644 F400.000
G1 X-4.922 Y-6.902 F400.000
G1 X-5.159 Y-7.186 F400.000
G1 X-5.383 Y-7.481 F400.000
G1 X-5.590 Y-7.790 F400.000
G1 X-5.780 Y-8.108 F400.000
G1 X-5.953 Y-8.437 F400.000
G1 X-6.105 Y-8.776 F400.000
G1 X-6.237 Y-9.122 F400.000
G1 X-6.353 Y-9.475 F400.000
G1 X-6.447 Y-9.834 F400.000
G1 X-6.522 Y-10.197 F400.000
G1 X-6.576 Y-10.563 F400.000
G1 X-6.610 Y-10.932 F400.000
G1 X-6.624 Y-11.302 F400.000
G1 X-6.617 Y-11.671 F400.000
G1 X-6.590 Y-12.041 F400.000
G1 X-6.542 Y-12.410 F400.000
G1 X-6.475 Y-12.776 F400.000
G1 X-6.386 Y-13.139 F400.000
G1 X-6.281 Y-13.495 F400.000
G1 X-6.156 Y-13.844 F400.000
G1 X-6.010 Y-14.186 F400.000
G1 X-5.847 Y-14.522 F400.000
G1 X-5.664 Y-14.847 F400.000
G1 X-5.454 Y-15.156 F400.000
G1 X-5.231 Y-15.454 F400.000
G1 X-4.993 Y-15.742 F400.000
G1 X-4.742 Y-16.017 F400.000
G1 X-4.475 Y-16.278 F400.000
G1 X-4.197 Y-16.525 F400.000
G1 X-3.905 Y-16.759 F400.000
G1 X-3.603 Y-16.976 F400.000
G1 X-3.285 Y-17.173 F400.000
G1 X-2.959 Y-17.356 F400.000
G1 X-2.624 Y-17.519 F400.000
G1 X-2.278 Y-17.661 F400.000
G1 X-1.925 Y-17.786 F400.000
G1 X-1.566 Y-17.892 F400.000
G1 X-1.200 Y-17.976 F400.000
G1 X-0.831 Y-18.041 F400.000
G1 X-0.458 Y-18.085 F400.000
G1 X-0.085 Y-18.108 F400.000
G1 X0.285 Y-18.112 F400.000
G1 X0.654 Y-18.102 F400.000
G1 X1.024 Y-18.068 F400.000
G1 X1.393 Y-18.017 F400.000
G1 X1.756 Y-17.936 F400.000
G1 X2.115 Y-17.837 F400.000
G1 X2.468 Y-17.719 F400.000
G1 X2.810 Y-17.576 F400.000
G1 X3.146 Y-17.417 F400.000
G1 X3.471 Y-17.237 F400.000
G1 X3.786 Y-17.037 F400.000
G1 X4.088 Y-16.820 F400.000
G1 X4.383 Y-16.593 F400.000
G1 X4.661 Y-16.346 F400.000
G1 X4.925 Y-16.085 F400.000
G1 X5.176 Y-15.810 F400.000
G1 X5.414 Y-15.522 F400.000
G1 X5.634 Y-15.220 F400.000
G1 X5.844 Y-14.912 F400.000
G1 X6.037 Y-14.590 F400.000
G1 X6.214 Y-14.261 F400.000
G1 X6.359 Y-13.915 F400.000
G1 X6.488 Y-13.573 F400.000
G1 X6.607 Y-13.217 F400.000
G1 X6.705 Y-12.854 F400.000
G1 X6.783 Y-12.488 F400.000
G1 X6.844 Y-12.119 F400.000
G1 X6.888 Y-11.746 F400.000
G1 X6.912 Y-11.373 F400.000
G1 X6.905 Y-11.000 F400.000
G1 X6.881 Y-10.627 F400.000
G1 X6.837 Y-10.254 F400.000
G1 X6.766 Y-9.885 F400.000
G1 X6.678 Y-9.522 F400.000
G1 X6.447 Y-8.807 F400.000
G1 X6.312 Y-8.458 F400.000
G1 X6.156 Y-8.115 F400.000
G1 X5.973 Y-7.786 F400.000
G1 X5.780 Y-7.464 F400.000
G1 X5.566 Y-7.156 F400.000
G1 X5.336 Y-6.861 F400.000
G1 X5.092 Y-6.576 F400.000
G1 X4.831 Y-6.305 F400.000
G1 X4.556 Y-6.051 F400.000
G1 X4.268 Y-5.810 F400.000
G1 X3.966 Y-5.586 F400.000
G1 X3.658 Y-5.373 F400.000
G1 X3.336 Y-5.180 F400.000
G1 X3.003 Y-5.003 F400.000
G1 X2.664 Y-4.841 F400.000
G1 X2.319 Y-4.698 F400.000
G1 X1.966 Y-4.573 F400.000
G1 X1.607 Y-4.464 F400.000
G1 X1.241 Y-4.386 F400.000
G1 X0.871 Y-4.322 F400.000
G1 X0.498 Y-4.281 F400.000
G1 X0.125 Y-4.258 F400.000
G1 X-0.244 Y-4.258 F400.000
G1 X-0.614 Y-4.278 F400.000
G1 X-0.983 Y-4.315 F400.000
G1 X-1.349 Y-4.373 F400.000
G1 X-1.712 Y-4.451 F400.000
G1 X-2.071 Y-4.549 F400.000
G1 X-2.424 Y-4.664 F400.000
G1 X-2.769 Y-4.800 F400.000
G1 X-3.108 Y-4.946 F400.000
G1 X-3.437 Y-5.112 F400.000
G1 X-3.759 Y-5.295 F400.000
G1 X-4.075 Y-5.492 F400.000
G1 X-4.376 Y-5.705 F400.000
G1 X-4.668 Y-5.932 F400.000
G1 X-4.939 Y-6.183 F400.000
G1 X-5.200 Y-6.444 F400.000
G1 X-5.447 Y-6.722 F400.000
G1 X-5.675 Y-7.014 F400.000
G1 X-5.888 Y-7.315 F400.000
G1 X-6.088 Y-7.627 F400.000
G1 X-6.268 Y-7.953 F400.000
G1 X-6.431 Y-8.285 F400.000
G1 X-6.576 Y-8.624 F400.000
G1 X-6.705 Y-8.973 F400.000
G1 X-6.824 Y-9.325 F400.000
G1 X-6.922 Y-9.685 F400.000
G1 X-7.003 Y-10.047 F400.000
G1 X-7.061 Y-10.414 F400.000
G1 X-7.105 Y-10.783 F400.000
G1 X-7.129 Y-11.153 F400.000
G1 X-7.132 Y-11.522 F400.000
G1 X-7.119 Y-11.892 F400.000
G1 X-7.085 Y-12.261 F400.000
G1 X-7.031 Y-12.627 F400.000
G1 X-6.946 Y-12.990 F400.000
G1 X-6.847 Y-13.349 F400.000
G1 X-6.736 Y-13.705 F400.000
G1 X-6.607 Y-14.054 F400.000
G1 X-6.461 Y-14.397 F400.000
G1 X-6.302 Y-14.732 F400.000
G1 X-6.115 Y-15.054 F400.000
G1 X-5.919 Y-15.369 F400.000
G1 X-5.705 Y-15.675 F400.000
G1 X-5.471 Y-15.966 F400.000
G1 X-5.224 Y-16.244 F400.000
G1 X-4.963 Y-16.508 F400.000
G1 X-4.688 Y-16.759 F400.000
G1 X-4.400 Y-16.997 F400.000
G1 X-4.105 Y-17.224 F400.000
G1 X-3.797 Y-17.434 F400.000
G1 X-3.478 Y-17.627 F400.000
G1 X-3.153 Y-17.807 F400.000
G1 X-2.817 Y-17.969 F400.000
G1 X-2.475 Y-18.115 F400.000
G1 X-2.125 Y-18.247 F400.000
G1 X-1.769 Y-18.359 F400.000
G1 X-1.403 Y-18.444 F400.000
G1 X-1.037 Y-18.515 F400.000
G1 X-0.664 Y-18.563 F400.000
G1 X-0.292 Y-18.597 F400.000
G1 X0.078 Y-18.610 F400.000
G1 X0.447 Y-18.603 F400.000
G1 X0.817 Y-18.580 F400.000
G1 X1.186 Y-18.536 F400.000
G1 X1.553 Y-18.478 F400.000
G1 X1.915 Y-18.400 F400.000
G1 X2.275 Y-18.308 F400.000
G1 X2.627 Y-18.190 F400.000
G1 X2.969 Y-18.044 F400.000
G1 X3.305 Y-17.885 F400.000
G1 X3.634 Y-17.708 F400.000
G1 X3.953 Y-17.515 F400.000
G1 X4.261 Y-17.305 F400.000
G1 X4.559 Y-17.081 F400.000
G1 X4.847 Y-16.844 F400.000
G1 X5.122 Y-16.593 F400.000
G1 X5.383 Y-16.329 F400.000
G1 X5.631 Y-16.051 F400.000
G1 X5.864 Y-15.759 F400.000
G1 X6.085 Y-15.458 F400.000
G1 X6.288 Y-15.146 F400.000
G1 X6.478 Y-14.824 F400.000
G1 X6.651 Y-14.492 F400.000
G1 X6.807 Y-14.153 F400.000
G1 X6.946 Y-13.807 F400.000
G1 X7.068 Y-13.454 F400.000
G1 X7.173 Y-13.095 F400.000
G1 X7.261 Y-12.732 F400.000
G1 X7.329 Y-12.363 F400.000
G1 X7.380 Y-11.993 F400.000
G1 X7.400 Y-11.620 F400.000
G1 X7.407 Y-11.247 F400.000
G1 X7.390 Y-10.875 F400.000
G1 X7.359 Y-10.502 F400.000
G1 X7.305 Y-10.132 F400.000
G1 X7.234 Y-9.766 F400.000
G1 X7.153 Y-9.400 F400.000
G1 X7.047 Y-9.041 F400.000
G1 X6.929 Y-8.685 F400.000
G1 X6.793 Y-8.336 F400.000
G1 X6.641 Y-7.993 F400.000
G1 X6.475 Y-7.658 F400.000
G1 X6.292 Y-7.329 F400.000
G1 X6.081 Y-7.017 F400.000
G1 X5.861 Y-6.712 F400.000
G1 X5.624 Y-6.420 F400.000
G1 X5.373 Y-6.142 F400.000
G1 X5.108 Y-5.878 F400.000
G1 X4.831 Y-5.627 F400.000
G1 X4.539 Y-5.390 F400.000
G1 X4.241 Y-5.163 F400.000
G1 X3.929 Y-4.953 F400.000
G1 X3.610 Y-4.756 F400.000
G1 X3.281 Y-4.573 F400.000
G1 X2.946 Y-4.407 F400.000
G1 X2.603 Y-4.254 F400.000
G1 X2.254 Y-4.119 F400.000
G1 X1.895 Y-4.014 F400.000
G1 X1.532 Y-3.922 F400.000
G1 X1.163 Y-3.851 F400.000
G1 X0.790 Y-3.803 F400.000
G1 X0.417 Y-3.766 F400.000
G1 X0.044 Y-3.753 F400.000
G1 X-0.325 Y-3.749 F400.000
G1 X-0.695 Y-3.763 F400.000
G1 X-1.064 Y-3.797 F400.000
G1 X-1.431 Y-3.858 F400.000
G1 X-1.793 Y-3.929 F400.000
G1 X-2.153 Y-4.020 F400.000
G1 X-2.505 Y-4.136 F400.000
G1 X-2.851 Y-4.264 F400.000
G1 X-3.190 Y-4.414 F400.000
G1 X-3.525 Y-4.573 F400.000
G1 X-3.851 Y-4.753 F400.000
G1 X-4.166 Y-4.946 F400.000
G1 X-4.471 Y-5.153 F400.000
G1 X-4.766 Y-5.376 F400.000
G1 X-5.051 Y-5.614 F400.000
G1 X-5.325 Y-5.864 F400.000
G1 X-5.586 Y-6.129 F400.000
G1 X-5.834 Y-6.403 F400.000
G1 X-6.068 Y-6.692 F400.000
G1 X-6.288 Y-6.990 F400.000
G1 X-6.495 Y-7.298 F400.000
G1 X-6.685 Y-7.617 F400.000
G1 X-6.844 Y-7.953 F400.000
G1 X-6.993 Y-8.292 F400.000
G1 X-7.132 Y-8.634 F400.000
G1 X-7.254 Y-8.983 F400.000
G1 X-7.359 Y-9.339 F400.000
G1 X-7.451 Y-9.698 F400.000
G1 X-7.525 Y-10.061 F400.000
G1 X-7.583 Y-10.427 F400.000
G1 X-7.627 Y-10.797 F400.000
G1 X-7.637 Y-11.166 F400.000
G1 X-7.637 Y-11.536 F400.000
G1 X-7.617 Y-11.905 F400.000
G1 X-7.580 Y-12.275 F400.000
G1 X-7.525 Y-12.641 F400.000
G1 X-7.451 Y-13.003 F400.000
G1 X-7.359 Y-13.363 F400.000
G1 X-7.251 Y-13.719 F400.000
G1 X-7.132 Y-14.071 F400.000
G1 X-6.997 Y-14.417 F400.000
G1 X-6.844 Y-14.756 F400.000
G1 X-6.668 Y-15.085 F400.000
G1 X-6.478 Y-15.407 F400.000
G1 X-6.271 Y-15.719 F400.000
G1 X-6.051 Y-16.020 F400.000
G1 X-5.817 Y-16.312 F400.000
G1 X-5.569 Y-16.590 F400.000
G1 X-5.308 Y-16.858 F400.000
G1 X-5.034 Y-17.112 F400.000
G1 X-4.749 Y-17.353 F400.000
G1 X-4.454 Y-17.580 F400.000
G1 X-4.146 Y-17.793 F400.000
G1 X-3.834 Y-17.997 F400.000
G1 X-3.508 Y-18.183 F400.000
G1 X-3.176 Y-18.356 F400.000
G1 X-2.837 Y-18.515 F400.000
G1 X-2.492 Y-18.658 F400.000
G1 X-2.136 Y-18.773 F400.000
G1 X-1.776 Y-18.878 F400.000
G1 X-1.410 Y-18.963 F400.000
G1 X-1.041 Y-19.024 F400.000
G1 X-0.668 Y-19.068 F400.000
G1 X0.075 Y-19.108 F400.000
G1 X0.444 Y-19.102 F400.000
G1 X0.814 Y-19.078 F400.000
G1 X1.183 Y-19.041 F400.000
G1 X1.549 Y-18.983 F400.000
G1 X1.915 Y-18.912 F400.000
G1 X2.278 Y-18.824 F400.000
G1 X2.634 Y-18.719 F400.000
G1 X2.980 Y-18.580 F400.000
G1 X3.322 Y-18.431 F400.000
G1 X3.654 Y-18.261 F400.000
G1 X3.980 Y-18.078 F400.000
G1 X4.298 Y-17.885 F400.000
G1 X4.603 Y-17.671 F400.000
G1 X4.902 Y-17.447 F400.000
G1 X5.190 Y-17.210 F400.000
G1 X5.464 Y-16.959 F400.000
G1 X5.729 Y-16.698 F400.000
G1 X5.983 Y-16.424 F400.000
G1 X6.224 Y-16.139 F400.000
G1 X6.441 Y-15.834 F400.000
G1 X6.647 Y-15.522 F400.000
G1 X6.841 Y-15.203 F400.000
G1 X7.020 Y-14.875 F400.000
G1 X7.183 Y-14.539 F400.000
G1 X7.332 Y-14.197 F400.000
G1 X7.468 Y-13.847 F400.000
G1 X7.586 Y-13.492 F400.000
G1 X7.688 Y-13.132 F400.000
G1 X7.763 Y-12.766 F400.000
G1 X7.824 Y-12.397 F400.000
G1 X7.864 Y-12.024 F400.000
G1 X7.892 Y-11.651 F400.000
G1 X7.898 Y-11.278 F400.000
G1 X7.888 Y-10.905 F400.000
G1 X7.861 Y-10.532 F400.000
G1 X7.817 Y-10.159 F400.000
G1 X7.753 Y-9.790 F400.000
G1 X7.671 Y-9.424 F400.000
G1 X7.573 Y-9.061 F400.000
G1 X7.464 Y-8.702 F400.000
G1 X7.339 Y-8.349 F400.000
G1 X7.200 Y-8.000 F400.000
G1 X7.047 Y-7.658 F400.000
G1 X6.868 Y-7.329 F400.000
G1 X6.678 Y-7.007 F400.000
G1 X6.471 Y-6.695 F400.000
G1 X6.251 Y-6.390 F400.000
G1 X6.017 Y-6.098 F400.000
G1 X5.769 Y-5.817 F400.000
G1 X5.508 Y-5.546 F400.000
G1 X5.237 Y-5.288 F400.000
G1 X4.953 Y-5.041 F400.000
G1 X4.658 Y-4.807 F400.000
G1 X4.353 Y-4.586 F400.000
G1 X4.037 Y-4.383 F400.000
G1 X3.715 Y-4.193 F400.000
G1 X3.383 Y-4.017 F400.000
G1 X3.044 Y-3.858 F400.000
G1 X2.698 Y-3.715 F400.000
G1 X2.342 Y-3.597 F400.000
G1 X1.983 Y-3.492 F400.000
G1 X1.617 Y-3.403 F400.000
G1 X1.247 Y-3.339 F400.000
G1 X0.502 Y-3.251 F400.000
G1 X-0.241 Y-3.224 F400.000
G1 X-0.610 Y-3.231 F400.000
G1 X-0.980 Y-3.254 F400.000
G1 X-1.346 Y-3.302 F400.000
G1 X-1.712 Y-3.363 F400.000
G1 X-2.427 Y-3.559 F400.000
G1 X-2.780 Y-3.678 F400.000
G1 X-3.125 Y-3.814 F400.000
G1 X-3.464 Y-3.963 F400.000
G1 X-3.797 Y-4.125 F400.000
G1 X-4.122 Y-4.302 F400.000
G1 X-4.441 Y-4.495 F400.000
G1 X-4.749 Y-4.702 F400.000
G1 X-5.047 Y-4.919 F400.000
G1 X-5.336 Y-5.149 F400.000
G1 X-5.614 Y-5.393 F400.000
G1 X-5.871 Y-5.661 F400.000
G1 X-6.119 Y-5.936 F400.000
G1 X-6.359 Y-6.217 F400.000
G1 X-6.586 Y-6.508 F400.000
G1 X-6.800 Y-6.810 F400.000
G1 X-7.166 Y-7.454 F400.000
G1 X-7.332 Y-7.786 F400.000
G1 X-7.485 Y-8.125 F400.000
G1 X-7.620 Y-8.471 F400.000
G1 X-7.742 Y-8.820 F400.000
G1 X-7.851 Y-9.176 F400.000
G1 X-7.942 Y-9.536 F400.000
G1 X-8.020 Y-9.898 F400.000
G1 X-8.081 Y-10.264 F400.000
G1 X-8.129 Y-10.634 F400.000
G1 X-8.146 Y-11.003 F400.000
G1 X-8.153 Y-11.373 F400.000
G1 X-8.139 Y-11.742 F400.000
G1 X-8.112 Y-12.112 F400.000
G1 X-8.064 Y-12.481 F400.000
G1 X-8.000 Y-12.847 F400.000
G1 X-7.922 Y-13.210 F400.000
G1 X-7.719 Y-13.925 F400.000
G1 X-7.593 Y-14.275 F400.000
G1 X-7.454 Y-14.620 F400.000
G1 X-7.302 Y-14.959 F400.000
G1 X-7.136 Y-15.292 F400.000
G1 X-6.742 Y-15.925 F400.000
G1 X-6.525 Y-16.227 F400.000
G1 X-6.298 Y-16.522 F400.000
G1 X-6.054 Y-16.807 F400.000
G1 X-5.800 Y-17.078 F400.000
G1 X-5.532 Y-17.339 F400.000
G1 X-5.254 Y-17.586 F400.000
G1 X-4.966 Y-17.824 F400.000
G1 X-4.668 Y-18.047 F400.000
G1 X-4.359 Y-18.258 F400.000
G1 X-3.719 Y-18.644 F400.000
G1 X-3.386 Y-18.817 F400.000
G1 X-3.047 Y-18.976 F400.000
G1 X-2.698 Y-19.108 F400.000
G1 X-2.346 Y-19.231 F400.000
G1 X-1.986 Y-19.332 F400.000
G1 X-1.624 Y-19.420 F400.000
G1 X-1.258 Y-19.492 F400.000
G1 X-0.888 Y-19.546 F400.000
G1 X-0.515 Y-19.583 F400.000
G1 X-0.142 Y-19.603 F400.000
G1 X0.227 Y-19.607 F400.000
G1 X0.597 Y-19.593 F400.000
G1 X0.966 Y-19.563 F400.000
G1 X1.336 Y-19.522 F400.000
G1 X1.702 Y-19.464 F400.000
G1 X2.064 Y-19.393 F400.000
G1 X2.424 Y-19.295 F400.000
G1 X2.780 Y-19.183 F400.000
G1 X3.129 Y-19.054 F400.000
G1 X3.471 Y-18.905 F400.000
G1 X3.807 Y-18.742 F400.000
G1 X4.132 Y-18.563 F400.000
G1 X4.454 Y-18.373 F400.000
G1 X4.763 Y-18.166 F400.000
G1 X5.064 Y-17.946 F400.000
G1 X5.356 Y-17.715 F400.000
G1 X5.637 Y-17.471 F400.000
G1 X5.908 Y-17.214 F400.000
G1 X6.169 Y-16.946 F400.000
G1 X6.417 Y-16.668 F400.000
G1 X6.654 Y-16.380 F400.000
G1 X6.878 Y-16.081 F400.000
G1 X7.088 Y-15.773 F400.000
G1 X7.285 Y-15.454 F400.000
G1 X7.468 Y-15.129 F400.000
G1 X7.637 Y-14.797 F400.000
G1 X7.793 Y-14.458 F400.000
G1 X7.932 Y-14.112 F400.000
G1 X8.041 Y-13.753 F400.000
G1 X8.139 Y-13.393 F400.000
G1 X8.224 Y-13.027 F400.000
G1 X8.292 Y-12.658 F400.000
G1 X8.342 Y-12.288 F400.000
G1 X8.376 Y-11.915 F400.000
G1 X8.397 Y-11.542 F400.000
G1 X8.400 Y-11.169 F400.000
G1 X8.386 Y-10.797 F400.000
G1 X8.356 Y-10.424 F400.000
G1 X8.312 Y-10.051 F400.000
G1 X8.251 Y-9.681 F400.000
G1 X8.173 Y-9.315 F400.000
G1 X8.081 Y-8.953 F400.000
G1 X7.973 Y-8.593 F400.000
G1 X7.851 Y-8.241 F400.000
G1 X7.712 Y-7.892 F400.000
G1 X7.559 Y-7.549 F400.000
G1 X7.390 Y-7.214 F400.000
G1 X7.207 Y-6.885 F400.000
G1 X7.010 Y-6.566 F400.000
G1 X6.800 Y-6.254 F400.000
G1 X6.576 Y-5.953 F400.000
G1 X6.342 Y-5.661 F400.000
G1 X6.085 Y-5.386 F400.000
G1 X5.820 Y-5.122 F400.000
G1 X5.542 Y-4.871 F400.000
G1 X5.258 Y-4.627 F400.000
G1 X4.966 Y-4.393 F400.000
G1 X4.661 Y-4.173 F400.000
G1 X4.353 Y-3.963 F400.000
G1 X3.698 Y-3.597 F400.000
G1 X3.359 Y-3.434 F400.000
G1 X3.014 Y-3.288 F400.000
G1 X2.661 Y-3.156 F400.000
G1 X2.305 Y-3.041 F400.000
G1 X1.942 Y-2.942 F400.000
G1 X1.576 Y-2.861 F400.000
G1 X1.207 Y-2.797 F400.000
G1 X0.834 Y-2.749 F400.000
G1 X0.461 Y-2.719 F400.000
G1 X0.088 Y-2.698 F400.000
G1 X-0.281 Y-2.695 F400.000
G1 X-0.651 Y-2.708 F400.000
G1 X-1.020 Y-2.736 F400.000
G1 X-1.390 Y-2.780 F400.000
G1 X-1.756 Y-2.837 F400.000
G1 X-2.115 Y-2.925 F400.000
G1 X-2.471 Y-3.024 F400.000
G1 X-3.173 Y-3.268 F400.000
G1 X-3.515 Y-3.414 F400.000
G1 X-3.851 Y-3.573 F400.000
G1 X-4.180 Y-3.742 F400.000
G1 X-4.502 Y-3.925 F400.000
G1 X-4.817 Y-4.122 F400.000
G1 X-5.122 Y-4.332 F400.000
G1 X-5.417 Y-4.556 F400.000
G1 X-5.705 Y-4.790 F400.000
G1 X-5.983 Y-5.034 F400.000
G1 X-6.251 Y-5.292 F400.000
G1 X-6.508 Y-5.559 F400.000
G1 X-6.969 Y-6.142 F400.000
G1 X-7.180 Y-6.447 F400.000
G1 X-7.376 Y-6.759 F400.000
G1 X-7.559 Y-7.081 F400.000
G1 X-7.885 Y-7.749 F400.000
G1 X-8.027 Y-8.092 F400.000
G1 X-8.156 Y-8.441 F400.000
G1 X-8.271 Y-8.793 F400.000
G1 X-8.373 Y-9.149 F400.000
G1 X-8.458 Y-9.508 F400.000
G1 X-8.529 Y-9.871 F400.000
G1 X-8.586 Y-10.237 F400.000
G1 X-8.627 Y-10.607 F400.000
G1 X-8.654 Y-10.976 F400.000
G1 X-8.668 Y-11.346 F400.000
G1 X-8.664 Y-11.715 F400.000
G1 X-8.637 Y-12.085 F400.000
G1 X-8.597 Y-12.454 F400.000
G1 X-8.539 Y-12.820 F400.000
G1 X-8.461 Y-13.183 F400.000
G1 X-8.369 Y-13.542 F400.000
G1 X-8.268 Y-13.898 F400.000
G1 X-8.146 Y-14.251 F400.000
G1 X-8.010 Y-14.597 F400.000
G1 X-7.705 Y-15.275 F400.000
G1 X-7.532 Y-15.603 F400.000
G1 X-7.349 Y-15.925 F400.000
G1 X-6.922 Y-16.536 F400.000
G1 X-6.447 Y-17.112 F400.000
G1 X-6.193 Y-17.386 F400.000
G1 X-5.929 Y-17.651 F400.000
G1 X-5.658 Y-17.905 F400.000
G1 X-5.373 Y-18.146 F400.000
G1 X-5.081 Y-18.376 F400.000
G1 X-4.780 Y-18.597 F400.000
G1 X-4.471 Y-18.803 F400.000
G1 X-4.153 Y-19.000 F400.000
G1 X-3.820 Y-19.173 F400.000
G1 X-3.485 Y-19.336 F400.000
G1 X-3.139 Y-19.481 F400.000
G1 X-2.431 Y-19.725 F400.000
G1 X-2.071 Y-19.824 F400.000
G1 X-1.705 Y-19.908 F400.000
G1 X-1.339 Y-19.980 F400.000
G1 X-0.969 Y-20.034 F400.000
G1 X-0.597 Y-20.071 F400.000
G1 X-0.224 Y-20.092 F400.000
G1 X0.515 Y-20.098 F400.000
G1 X0.885 Y-20.078 F400.000
G1 X1.254 Y-20.044 F400.000
G1 X1.624 Y-20.000 F400.000
G1 X1.990 Y-19.939 F400.000
G1 X2.708 Y-19.742 F400.000
G1 X3.061 Y-19.620 F400.000
G1 X3.407 Y-19.485 F400.000
G1 X3.746 Y-19.332 F400.000
G1 X4.078 Y-19.163 F400.000
G1 X4.722 Y-18.790 F400.000
G1 X5.031 Y-18.583 F400.000
G1 X5.332 Y-18.366 F400.000
G1 X5.627 Y-18.139 F400.000
G1 X5.912 Y-17.898 F400.000
G1 X6.186 Y-17.647 F400.000
G1 X6.451 Y-17.383 F400.000
G1 X6.705 Y-17.108 F400.000
G1 X6.949 Y-16.824 F400.000
G1 X7.180 Y-16.532 F400.000
G1 X7.400 Y-16.231 F400.000
G1 X7.607 Y-15.919 F400.000
G1 X7.800 Y-15.600 F400.000
G1 X7.983 Y-15.275 F400.000
G1 X8.142 Y-14.936 F400.000
G1 X8.292 Y-14.593 F400.000
G1 X8.424 Y-14.244 F400.000
G1 X8.539 Y-13.888 F400.000
G1 X8.641 Y-13.529 F400.000
G1 X8.725 Y-13.163 F400.000
G1 X8.793 Y-12.793 F400.000
G1 X8.844 Y-12.424 F400.000
G1 X8.878 Y-12.051 F400.000
G1 X8.902 Y-11.678 F400.000
G1 X8.905 Y-11.305 F400.000
G1 X8.895 Y-10.932 F400.000
G1 X8.871 Y-10.559 F400.000
G1 X8.837 Y-10.186 F400.000
G1 X8.786 Y-9.814 F400.000
G1 X8.725 Y-9.444 F400.000
G1 X8.651 Y-9.078 F400.000
G1 X8.441 Y-8.359 F400.000
G1 X8.315 Y-8.007 F400.000
G1 X8.169 Y-7.661 F400.000
G1 X8.014 Y-7.322 F400.000
G1 X7.847 Y-6.986 F400.000
G1 X7.664 Y-6.661 F400.000
G1 X7.468 Y-6.339 F400.000
G1 X7.261 Y-6.027 F400.000
G1 X7.041 Y-5.722 F400.000
G1 X6.810 Y-5.427 F400.000
G1 X6.556 Y-5.149 F400.000
G1 X6.295 Y-4.878 F400.000
G1 X6.027 Y-4.614 F400.000
G1 X5.749 Y-4.363 F400.000
G1 X5.166 Y-3.888 F400.000
G1 X4.864 Y-3.668 F400.000
G1 X4.224 Y-3.281 F400.000
G1 X3.892 Y-3.108 F400.000
G1 X3.549 Y-2.953 F400.000
G1 X3.203 Y-2.810 F400.000
G1 X2.854 Y-2.678 F400.000
G1 X2.498 Y-2.563 F400.000
G1 X2.136 Y-2.461 F400.000
G1 X1.769 Y-2.373 F400.000
G1 X1.400 Y-2.302 F400.000
G1 X1.031 Y-2.244 F400.000
G1 X0.658 Y-2.203 F400.000
G1 X0.285 Y-2.176 F400.000
G1 X-0.085 Y-2.166 F400.000
G1 X-0.454 Y-2.169 F400.000
G1 X-0.824 Y-2.190 F400.000
G1 X-1.193 Y-2.224 F400.000
G1 X-1.559 Y-2.271 F400.000
G1 X-1.925 Y-2.336 F400.000
G1 X-2.288 Y-2.414 F400.000
G1 X-2.647 Y-2.508 F400.000
G1 X-3.342 Y-2.766 F400.000
G1 X-3.685 Y-2.908 F400.000
G1 X-4.020 Y-3.064 F400.000
G1 X-4.349 Y-3.234 F400.000
G1 X-4.671 Y-3.414 F400.000
G1 X-4.986 Y-3.607 F400.000
G1 X-5.295 Y-3.814 F400.000
G1 X-5.597 Y-4.031 F400.000
G1 X-5.888 Y-4.258 F400.000
G1 X-6.173 Y-4.495 F400.000
G1 X-6.447 Y-4.742 F400.000
G1 X-6.702 Y-5.010 F400.000
G1 X-6.949 Y-5.285 F400.000
G1 X-7.183 Y-5.573 F400.000
G1 X-7.407 Y-5.868 F400.000
G1 X-7.617 Y-6.173 F400.000
G1 X-7.817 Y-6.485 F400.000
G1 X-8.003 Y-6.803 F400.000
G1 X-8.176 Y-7.132 F400.000
G1 X-8.336 Y-7.468 F400.000
G1 X-8.481 Y-7.810 F400.000
G1 X-8.614 Y-8.156 F400.000
G1 X-8.729 Y-8.508 F400.000
G1 X-8.831 Y-8.864 F400.000
G1 X-9.000 Y-9.586 F400.000
G1 X-9.064 Y-9.953 F400.000
G1 X-9.115 Y-10.319 F400.000
G1 X-9.156 Y-10.688 F400.000
G1 X-9.183 Y-11.058 F400.000
G1 X-9.183 Y-11.797 F400.000
G1 X-9.159 Y-12.166 F400.000
G1 X-9.119 Y-12.536 F400.000
G1 X-9.064 Y-12.902 F400.000
G1 X-8.983 Y-13.264 F400.000
G1 X-8.892 Y-13.624 F400.000
G1 X-8.783 Y-13.980 F400.000
G1 X-8.664 Y-14.332 F400.000
G1 X-8.536 Y-14.681 F400.000
G1 X-8.390 Y-15.024 F400.000
G1 X-8.234 Y-15.359 F400.000
G1 X-8.064 Y-15.692 F400.000
G1 X-7.881 Y-16.017 F400.000
G1 X-7.688 Y-16.336 F400.000
G1 X-7.247 Y-16.939 F400.000
G1 X-6.769 Y-17.512 F400.000
G1 X-6.512 Y-17.783 F400.000
G1 X-6.247 Y-18.044 F400.000
G1 X-5.973 Y-18.298 F400.000
G1 X-5.397 Y-18.773 F400.000
G1 X-5.098 Y-18.997 F400.000
G1 X-4.790 Y-19.207 F400.000
G1 X-4.475 Y-19.407 F400.000
G1 X-3.814 Y-19.753 F400.000
G1 X-3.471 Y-19.905 F400.000
G1 X-3.122 Y-20.041 F400.000
G1 X-2.769 Y-20.163 F400.000
G1 X-2.410 Y-20.268 F400.000
G1 X-2.047 Y-20.356 F400.000
G1 X-1.681 Y-20.431 F400.000
G1 X-1.312 Y-20.495 F400.000
G1 X-0.942 Y-20.546 F400.000
G1 X-0.569 Y-20.583 F400.000
G1 X-0.197 Y-20.610 F400.000
G1 X0.173 Y-20.624 F400.000
G1 X0.542 Y-20.624 F400.000
G1 X0.912 Y-20.610 F400.000
G1 X1.651 Y-20.522 F400.000
G1 X2.017 Y-20.458 F400.000
G1 X2.380 Y-20.373 F400.000
G1 X2.739 Y-20.275 F400.000
G1 X3.092 Y-20.159 F400.000
G1 X3.441 Y-20.027 F400.000
G1 X3.783 Y-19.881 F400.000
G1 X4.119 Y-19.722 F400.000
G1 X4.447 Y-19.546 F400.000
G1 X5.085 Y-19.159 F400.000
G1 X5.397 Y-18.953 F400.000
G1 X5.993 Y-18.505 F400.000
G1 X6.281 Y-18.268 F400.000
G1 X6.814 Y-17.742 F400.000
G1 X7.308 Y-17.183 F400.000
G1 X7.539 Y-16.888 F400.000
G1 X7.759 Y-16.586 F400.000
G1 X7.969 Y-16.278 F400.000
G1 X8.166 Y-15.959 F400.000
G1 X8.353 Y-15.634 F400.000
G1 X8.529 Y-15.305 F400.000
G1 X8.692 Y-14.969 F400.000
G1 X8.956 Y-14.268 F400.000
G1 X9.064 Y-13.908 F400.000
G1 X9.159 Y-13.546 F400.000
G1 X9.241 Y-13.180 F400.000
G1 X9.305 Y-12.810 F400.000
G1 X9.353 Y-12.441 F400.000
G1 X9.386 Y-12.068 F400.000
G1 X9.414 Y-11.322 F400.000
G1 X9.403 Y-10.949 F400.000
G1 X9.383 Y-10.576 F400.000
G1 X9.349 Y-10.203 F400.000
G1 X9.302 Y-9.831 F400.000
G1 X9.241 Y-9.461 F400.000
G1 X9.166 Y-9.095 F400.000
G1 X9.078 Y-8.729 F400.000
G1 X8.976 Y-8.366 F400.000
G1 X8.864 Y-8.010 F400.000
G1 X8.739 Y-7.658 F400.000
G1 X8.420 Y-6.976 F400.000
G1 X8.251 Y-6.641 F400.000
G1 X8.064 Y-6.315 F400.000
G1 X7.868 Y-5.997 F400.000
G1 X7.661 Y-5.685 F400.000
G1 X7.441 Y-5.380 F400.000
G1 X7.210 Y-5.085 F400.000
G1 X6.698 Y-4.536 F400.000
G1 X6.153 Y-4.024 F400.000
G1 X5.868 Y-3.776 F400.000
G1 X5.576 Y-3.542 F400.000
G1 X4.966 Y-3.108 F400.000
G1 X4.651 Y-2.908 F400.000
G1 X3.983 Y-2.563 F400.000
G1 X3.641 Y-2.410 F400.000
G1 X3.292 Y-2.275 F400.000
G1 X2.580 Y-2.037 F400.000
G1 X1.851 Y-1.854 F400.000
G1 X1.485 Y-1.780 F400.000
G1 X1.115 Y-1.722 F400.000
G1 X0.742 Y-1.675 F400.000
G1 X0.369 Y-1.641 F400.000
G1 X-0.369 Y-1.634 F400.000
G1 X-0.739 Y-1.647 F400.000
G1 X-1.108 Y-1.681 F400.000
G1 X-1.478 Y-1.729 F400.000
G1 X-1.844 Y-1.790 F400.000
G1 X-2.207 Y-1.868 F400.000
G1 X-2.566 Y-1.959 F400.000
G1 X-2.922 Y-2.064 F400.000
G1 X-3.271 Y-2.183 F400.000
G1 X-3.959 Y-2.454 F400.000
G1 X-4.295 Y-2.610 F400.000
G1 X-4.627 Y-2.776 F400.000
G1 X-4.953 Y-2.953 F400.000
G1 X-5.271 Y-3.142 F400.000
G1 X-5.583 Y-3.342 F400.000
G1 X-6.169 Y-3.793 F400.000
G1 X-6.451 Y-4.034 F400.000
G1 X-6.722 Y-4.285 F400.000
G1 X-6.983 Y-4.546 F400.000
G1 X-7.234 Y-4.817 F400.000
G1 X-7.475 Y-5.098 F400.000
G1 X-7.705 Y-5.390 F400.000
G1 X-7.922 Y-5.688 F400.000
G1 X-8.129 Y-5.997 F400.000
G1 X-8.322 Y-6.312 F400.000
G1 X-8.502 Y-6.634 F400.000
G1 X-8.671 Y-6.963 F400.000
G1 X-8.827 Y-7.298 F400.000
G1 X-8.969 Y-7.641 F400.000
G1 X-9.098 Y-7.990 F400.000
G1 X-9.214 Y-8.342 F400.000
G1 X-9.410 Y-9.058 F400.000
G1 X-9.488 Y-9.420 F400.000
G1 X-9.556 Y-9.786 F400.000
G1 X-9.614 Y-10.153 F400.000
G1 X-9.658 Y-10.522 F400.000
G1 X-9.688 Y-10.892 F400.000
G1 X-9.708 Y-11.261 F400.000
G1 X-9.715 Y-11.631 F400.000
G1 X-9.661 Y-12.369 F400.000
G1 X-9.614 Y-12.739 F400.000
G1 X-9.546 Y-13.105 F400.000
G1 X-9.464 Y-13.468 F400.000
G1 X-9.261 Y-14.183 F400.000
G1 X-9.146 Y-14.536 F400.000
G1 X-8.875 Y-15.231 F400.000
G1 X-8.722 Y-15.569 F400.000
G1 X-8.369 Y-16.224 F400.000
G1 X-8.176 Y-16.542 F400.000
G1 X-7.969 Y-16.854 F400.000
G1 X-7.508 Y-17.437 F400.000
G1 X-7.268 Y-17.722 F400.000
G1 X-7.017 Y-17.997 F400.000
G1 X-6.756 Y-18.261 F400.000
G1 X-6.488 Y-18.519 F400.000
G1 X-6.210 Y-18.769 F400.000
G1 X-5.925 Y-19.010 F400.000
G1 X-5.336 Y-19.464 F400.000
G1 X-4.702 Y-19.858 F400.000
G1 X-4.373 Y-20.037 F400.000
G1 X-4.037 Y-20.200 F400.000
G1 X-3.695 Y-20.349 F400.000
G1 X-2.993 Y-20.614 F400.000
G1 X-2.637 Y-20.725 F400.000
G1 X-2.275 Y-20.824 F400.000
G1 X-1.912 Y-20.912 F400.000
G1 X-1.546 Y-20.983 F400.000
G1 X-1.176 Y-21.041 F400.000
G1 X-0.803 Y-21.085 F400.000
G1 X-0.431 Y-21.115 F400.000
G1 X-0.058 Y-21.132 F400.000
G1 X0.312 Y-21.136 F400.000
G1 X0.681 Y-21.125 F400.000
G1 X1.051 Y-21.102 F400.000
G1 X1.420 Y-21.064 F400.000
G1 X1.790 Y-21.014 F400.000
G1 X2.156 Y-20.949 F400.000
G1 X2.519 Y-20.871 F400.000
G1 X3.231 Y-20.654 F400.000
G1 X3.580 Y-20.525 F400.000
G1 X3.922 Y-20.376 F400.000
G1 X4.258 Y-20.217 F400.000
G1 X4.590 Y-20.047 F400.000
G1 X4.915 Y-19.868 F400.000
G1 X5.234 Y-19.675 F400.000
G1 X5.546 Y-19.471 F400.000
G1 X5.851 Y-19.258 F400.000
G1 X6.149 Y-19.034 F400.000
G1 X6.437 Y-18.800 F400.000
G1 X6.719 Y-18.556 F400.000
G1 X6.990 Y-18.302 F400.000
G1 X7.254 Y-18.037 F400.000
G1 X7.508 Y-17.766 F400.000
G1 X7.969 Y-17.180 F400.000
G1 X8.393 Y-16.566 F400.000
G1 X8.593 Y-16.251 F400.000
G1 X8.780 Y-15.929 F400.000
G1 X9.112 Y-15.261 F400.000
G1 X9.261 Y-14.919 F400.000
G1 X9.393 Y-14.569 F400.000
G1 X9.515 Y-14.217 F400.000
G1 X9.610 Y-13.854 F400.000
G1 X9.695 Y-13.488 F400.000
G1 X9.763 Y-13.119 F400.000
G1 X9.820 Y-12.749 F400.000
G1 X9.898 Y-12.003 F400.000
G1 X9.919 Y-11.631 F400.000
G1 X9.925 Y-10.885 F400.000
G1 X9.912 Y-10.512 F400.000
G1 X9.824 Y-9.766 F400.000
G1 X9.688 Y-9.027 F400.000
G1 X9.600 Y-8.661 F400.000
G1 X9.498 Y-8.298 F400.000
G1 X9.386 Y-7.939 F400.000
G1 X9.261 Y-7.586 F400.000
G1 X9.125 Y-7.237 F400.000
G1 X8.807 Y-6.556 F400.000
G1 X8.631 Y-6.227 F400.000
G1 X8.437 Y-5.905 F400.000
G1 X8.234 Y-5.590 F400.000
G1 X8.017 Y-5.281 F400.000
G1 X7.790 Y-4.983 F400.000
G1 X7.549 Y-4.695 F400.000
G1 X7.041 Y-4.142 F400.000
G1 X6.773 Y-3.881 F400.000
G1 X6.495 Y-3.627 F400.000
G1 X6.210 Y-3.383 F400.000
G1 X5.915 Y-3.149 F400.000
G1 X5.614 Y-2.925 F400.000
G1 X5.305 Y-2.712 F400.000
G1 X4.990 Y-2.508 F400.000
G1 X4.668 Y-2.315 F400.000
G1 X3.993 Y-1.990 F400.000
G1 X3.647 Y-1.847 F400.000
G1 X3.298 Y-1.715 F400.000
G1 X2.942 Y-1.597 F400.000
G1 X2.583 Y-1.492 F400.000
G1 X1.854 Y-1.315 F400.000
G1 X1.485 Y-1.247 F400.000
G1 X1.115 Y-1.190 F400.000
G1 X0.742 Y-1.142 F400.000
G1 X0.369 Y-1.108 F400.000
G1 X-0.369 Y-1.108 F400.000
G1 X-1.108 Y-1.156 F400.000
G1 X-1.478 Y-1.200 F400.000
G1 X-1.844 Y-1.258 F400.000
G1 X-2.207 Y-1.329 F400.000
G1 X-2.569 Y-1.414 F400.000
G1 X-2.929 Y-1.512 F400.000
G1 X-3.281 Y-1.620 F400.000
G1 X-3.631 Y-1.742 F400.000
G1 X-3.976 Y-1.878 F400.000
G1 X-4.315 Y-2.027 F400.000
G1 X-4.651 Y-2.186 F400.000
G1 X-4.980 Y-2.359 F400.000
G1 X-5.302 Y-2.542 F400.000
G1 X-5.617 Y-2.739 F400.000
G1 X-5.925 Y-2.946 F400.000
G1 X-6.227 Y-3.163 F400.000
G1 X-6.519 Y-3.390 F400.000
G1 X-6.803 Y-3.627 F400.000
G1 X-7.078 Y-3.875 F400.000
G1 X-7.342 Y-4.132 F400.000
G1 X-7.593 Y-4.403 F400.000
G1 X-7.837 Y-4.685 F400.000
G1 X-8.068 Y-4.976 F400.000
G1 X-8.285 Y-5.278 F400.000
G1 X-8.492 Y-5.586 F400.000
G1 X-8.688 Y-5.898 F400.000
G1 X-8.871 Y-6.220 F400.000
G1 X-9.044 Y-6.549 F400.000
G1 X-9.207 Y-6.881 F400.000
G1 X-9.356 Y-7.220 F400.000
G1 X-9.620 Y-7.912 F400.000
G1 X-9.736 Y-8.264 F400.000
G1 X-9.841 Y-8.620 F400.000
G1 X-9.936 Y-8.980 F400.000
G1 X-10.017 Y-9.342 F400.000
G1 X-10.088 Y-9.705 F400.000
G1 X-10.146 Y-10.071 F400.000
G1 X-10.193 Y-10.441 F400.000
G1 X-10.227 Y-10.810 F400.000
G1 X-10.241 Y-11.549 F400.000
G1 X-10.227 Y-11.919 F400.000
G1 X-10.197 Y-12.288 F400.000
G1 X-10.153 Y-12.658 F400.000
G1 X-10.095 Y-13.024 F400.000
G1 X-10.020 Y-13.386 F400.000
G1 X-9.932 Y-13.749 F400.000
G1 X-9.722 Y-14.461 F400.000
G1 X-9.597 Y-14.810 F400.000
G1 X-9.458 Y-15.156 F400.000
G1 X-9.153 Y-15.837 F400.000
G1 X-8.807 Y-16.495 F400.000
G1 X-8.400 Y-17.115 F400.000
G1 X-7.953 Y-17.712 F400.000
G1 X-7.712 Y-17.997 F400.000
G1 X-7.461 Y-18.271 F400.000
G1 X-6.939 Y-18.803 F400.000
G1 X-6.664 Y-19.054 F400.000
G1 X-6.095 Y-19.536 F400.000
G1 X-5.797 Y-19.763 F400.000
G1 X-5.495 Y-19.980 F400.000
G1 X-4.858 Y-20.366 F400.000
G1 X-4.522 Y-20.532 F400.000
G1 X-3.841 Y-20.841 F400.000
G1 X-3.492 Y-20.976 F400.000
G1 X-2.783 Y-21.214 F400.000
G1 X-2.424 Y-21.315 F400.000
G1 X-2.061 Y-21.407 F400.000
G1 X-1.695 Y-21.485 F400.000
G1 X-1.325 Y-21.553 F400.000
G1 X-0.956 Y-21.607 F400.000
G1 X-0.210 Y-21.661 F400.000
G1 X0.159 Y-21.668 F400.000
G1 X0.529 Y-21.658 F400.000
G1 X0.898 Y-21.637 F400.000
G1 X1.268 Y-21.607 F400.000
G1 X1.637 Y-21.559 F400.000
G1 X2.003 Y-21.502 F400.000
G1 X2.369 Y-21.431 F400.000
G1 X2.732 Y-21.346 F400.000
G1 X3.092 Y-21.251 F400.000
G1 X3.444 Y-21.132 F400.000
G1 X3.793 Y-21.003 F400.000
G1 X4.136 Y-20.858 F400.000
G1 X4.471 Y-20.695 F400.000
G1 X5.125 Y-20.342 F400.000
G1 X5.447 Y-20.153 F400.000
G1 X5.759 Y-19.953 F400.000
G1 X6.369 Y-19.525 F400.000
G1 X6.664 Y-19.298 F400.000
G1 X6.953 Y-19.061 F400.000
G1 X7.488 Y-18.542 F400.000
G1 X7.742 Y-18.268 F400.000
G1 X8.220 Y-17.695 F400.000
G1 X8.447 Y-17.400 F400.000
G1 X8.871 Y-16.786 F400.000
G1 X9.071 Y-16.471 F400.000
G1 X9.420 Y-15.810 F400.000
G1 X9.725 Y-15.129 F400.000
G1 X9.861 Y-14.780 F400.000
G1 X9.983 Y-14.427 F400.000
G1 X10.081 Y-14.064 F400.000
G1 X10.169 Y-13.702 F400.000
G1 X10.305 Y-12.966 F400.000
G1 X10.397 Y-12.220 F400.000
G1 X10.427 Y-11.847 F400.000
G1 X10.444 Y-11.475 F400.000
G1 X10.451 Y-11.102 F400.000
G1 X10.447 Y-10.729 F400.000
G1 X10.380 Y-9.983 F400.000
G1 X10.325 Y-9.614 F400.000
G1 X10.261 Y-9.244 F400.000
G1 X10.183 Y-8.878 F400.000
G1 X10.092 Y-8.515 F400.000
G1 X9.881 Y-7.797 F400.000
G1 X9.759 Y-7.444 F400.000
G1 X9.627 Y-7.095 F400.000
G1 X9.485 Y-6.749 F400.000
G1 X9.142 Y-6.081 F400.000
G1 X8.953 Y-5.756 F400.000
G1 X8.753 Y-5.437 F400.000
G1 X8.542 Y-5.125 F400.000
G1 X8.322 Y-4.824 F400.000
G1 X8.092 Y-4.529 F400.000
G1 X7.847 Y-4.244 F400.000
G1 X7.593 Y-3.966 F400.000
G1 X7.064 Y-3.434 F400.000
G1 X6.786 Y-3.183 F400.000
G1 X6.210 Y-2.702 F400.000
G1 X5.912 Y-2.475 F400.000
G1 X5.607 Y-2.258 F400.000
G1 X4.959 Y-1.878 F400.000
G1 X4.627 Y-1.705 F400.000
G1 X4.288 Y-1.542 F400.000
G1 X3.942 Y-1.393 F400.000
G1 X3.593 Y-1.258 F400.000
G1 X3.237 Y-1.136 F400.000
G1 X2.878 Y-1.027 F400.000
G1 X2.515 Y-0.932 F400.000
G1 X1.783 Y-0.773 F400.000
G1 X1.414 Y-0.712 F400.000
G1 X1.041 Y-0.661 F400.000
G1 X0.668 Y-0.620 F400.000
G1 X0.295 Y-0.593 F400.000
G1 X-0.444 Y-0.593 F400.000
G1 X-1.183 Y-0.641 F400.000
G1 X-1.553 Y-0.685 F400.000
G1 X-1.919 Y-0.739 F400.000
G1 X-2.285 Y-0.803 F400.000
G1 X-2.647 Y-0.881 F400.000
G1 X-3.007 Y-0.973 F400.000
G1 X-3.363 Y-1.075 F400.000
G1 X-3.715 Y-1.190 F400.000
G1 X-4.403 Y-1.468 F400.000
G1 X-4.739 Y-1.624 F400.000
G1 X-5.393 Y-1.973 F400.000
G1 X-5.708 Y-2.166 F400.000
G1 X-6.325 Y-2.580 F400.000
G1 X-6.627 Y-2.797 F400.000
G1 X-7.203 Y-3.264 F400.000
G1 X-7.475 Y-3.519 F400.000
G1 X-7.739 Y-3.780 F400.000
G1 X-7.993 Y-4.051 F400.000
G1 X-8.234 Y-4.332 F400.000
G1 X-8.464 Y-4.620 F400.000
G1 X-8.685 Y-4.919 F400.000
G1 X-8.892 Y-5.227 F400.000
G1 X-9.278 Y-5.861 F400.000
G1 X-9.454 Y-6.186 F400.000
G1 X-9.620 Y-6.519 F400.000
G1 X-9.776 Y-6.854 F400.000
G1 X-9.919 Y-7.197 F400.000
G1 X-10.051 Y-7.542 F400.000
G1 X-10.285 Y-8.247 F400.000
G1 X-10.386 Y-8.603 F400.000
G1 X-10.563 Y-9.325 F400.000
G1 X-10.634 Y-9.688 F400.000
G1 X-10.725 Y-10.427 F400.000
G1 X-10.753 Y-10.797 F400.000
G1 X-10.763 Y-11.166 F400.000
G1 X-10.763 Y-11.536 F400.000
G1 X-10.746 Y-11.905 F400.000
G1 X-10.715 Y-12.275 F400.000
G1 X-10.671 Y-12.644 F400.000
G1 X-10.614 Y-13.010 F400.000
G1 X-10.542 Y-13.376 F400.000
G1 X-10.369 Y-14.098 F400.000
G1 X-10.264 Y-14.454 F400.000
G1 X-10.149 Y-14.807 F400.000
G1 X-10.024 Y-15.156 F400.000
G1 X-9.885 Y-15.502 F400.000
G1 X-9.736 Y-15.844 F400.000
G1 X-9.576 Y-16.180 F400.000
G1 X-9.400 Y-16.505 F400.000
G1 X-9.214 Y-16.827 F400.000
G1 X-9.017 Y-17.142 F400.000
G1 X-8.807 Y-17.447 F400.000
G1 X-8.586 Y-17.746 F400.000
G1 X-8.115 Y-18.325 F400.000
G1 X-7.864 Y-18.603 F400.000
G1 X-7.607 Y-18.871 F400.000
G1 X-7.339 Y-19.132 F400.000
G1 X-6.786 Y-19.631 F400.000
G1 X-6.203 Y-20.098 F400.000
G1 X-5.905 Y-20.322 F400.000
G1 X-5.271 Y-20.715 F400.000
G1 X-4.946 Y-20.895 F400.000
G1 X-4.610 Y-21.058 F400.000
G1 X-3.925 Y-21.356 F400.000
G1 X-3.576 Y-21.492 F400.000
G1 X-2.868 Y-21.729 F400.000
G1 X-2.508 Y-21.834 F400.000
G1 X-2.146 Y-21.925 F400.000
G1 X-1.780 Y-22.007 F400.000
G1 X-1.414 Y-22.078 F400.000
G1 X-0.668 Y-22.153 F400.000
G1 X0.075 Y-22.180 F400.000
G1 X0.444 Y-22.183 F400.000
G1 X1.183 Y-22.149 F400.000
G1 X1.919 Y-22.047 F400.000
G1 X2.285 Y-21.980 F400.000
G1 X2.647 Y-21.902 F400.000
G1 X3.007 Y-21.810 F400.000
G1 X3.363 Y-21.705 F400.000
G1 X3.715 Y-21.590 F400.000
G1 X4.400 Y-21.298 F400.000
G1 X5.068 Y-20.966 F400.000
G1 X5.712 Y-20.597 F400.000
G1 X6.027 Y-20.397 F400.000
G1 X6.641 Y-19.973 F400.000
G1 X6.939 Y-19.749 F400.000
G1 X7.498 Y-19.258 F400.000
G1 X7.766 Y-18.997 F400.000
G1 X8.020 Y-18.725 F400.000
G1 X8.508 Y-18.159 F400.000
G1 X8.742 Y-17.868 F400.000
G1 X9.183 Y-17.268 F400.000
G1 X9.576 Y-16.634 F400.000
G1 X9.759 Y-16.308 F400.000
G1 X9.929 Y-15.976 F400.000
G1 X10.088 Y-15.637 F400.000
G1 X10.234 Y-15.295 F400.000
G1 X10.464 Y-14.583 F400.000
G1 X10.566 Y-14.224 F400.000
G1 X10.658 Y-13.861 F400.000
G1 X10.732 Y-13.495 F400.000
G1 X10.797 Y-13.125 F400.000
G1 X10.898 Y-12.383 F400.000
G1 X10.932 Y-12.010 F400.000
G1 X10.973 Y-11.264 F400.000
G1 X10.976 Y-10.892 F400.000
G1 X10.932 Y-10.146 F400.000
G1 X10.892 Y-9.773 F400.000
G1 X10.837 Y-9.403 F400.000
G1 X10.678 Y-8.671 F400.000
G1 X10.586 Y-8.308 F400.000
G1 X10.485 Y-7.949 F400.000
G1 X10.373 Y-7.590 F400.000
G1 X10.251 Y-7.234 F400.000
G1 X9.953 Y-6.546 F400.000
G1 X9.617 Y-5.875 F400.000
G1 X9.434 Y-5.549 F400.000
G1 X9.241 Y-5.227 F400.000
G1 X9.037 Y-4.912 F400.000
G1 X8.824 Y-4.603 F400.000
G1 X8.353 Y-4.017 F400.000
G1 X7.844 Y-3.464 F400.000
G1 X7.305 Y-2.939 F400.000
G1 X7.024 Y-2.688 F400.000
G1 X6.444 Y-2.214 F400.000
G1 X6.146 Y-1.986 F400.000
G1 X5.512 Y-1.583 F400.000
G1 X5.186 Y-1.397 F400.000
G1 X4.851 Y-1.227 F400.000
G1 X4.512 Y-1.068 F400.000
G1 X4.166 Y-0.922 F400.000
G1 X3.817 Y-0.786 F400.000
G1 X3.461 Y-0.664 F400.000
G1 X3.102 Y-0.556 F400.000
G1 X2.739 Y-0.458 F400.000
G1 X2.007 Y-0.292 F400.000
G1 X1.637 Y-0.227 F400.000
G1 X0.895 Y-0.125 F400.000
G1 X0.522 Y-0.092 F400.000
G1 X0.149 Y-0.068 F400.000
G1 X-0.590 Y-0.081 F400.000
G1 X-1.329 Y-0.132 F400.000
G1 X-1.698 Y-0.176 F400.000
G1 X-2.431 Y-0.298 F400.000
G1 X-2.793 Y-0.376 F400.000
G1 X-3.153 Y-0.464 F400.000
G1 X-3.861 Y-0.681 F400.000
G1 X-4.210 Y-0.807 F400.000
G1 X-4.553 Y-0.946 F400.000
G1 X-4.892 Y-1.095 F400.000
G1 X-5.224 Y-1.258 F400.000
G1 X-5.868 Y-1.631 F400.000
G1 X-6.183 Y-1.827 F400.000
G1 X-6.793 Y-2.247 F400.000
G1 X-7.092 Y-2.468 F400.000
G1 X-7.651 Y-2.953 F400.000
G1 X-7.919 Y-3.207 F400.000
G1 X-8.176 Y-3.475 F400.000
G1 X-8.424 Y-3.749 F400.000
G1 X-8.661 Y-4.034 F400.000
G1 X-8.888 Y-4.325 F400.000
G1 X-9.319 Y-4.929 F400.000
G1 X-9.712 Y-5.559 F400.000
G1 X-9.895 Y-5.881 F400.000
G1 X-10.068 Y-6.210 F400.000
G1 X-10.231 Y-6.542 F400.000
G1 X-10.515 Y-7.231 F400.000
G1 X-10.641 Y-7.580 F400.000
G1 X-10.858 Y-8.292 F400.000
G1 X-10.949 Y-8.651 F400.000
G1 X-11.105 Y-9.376 F400.000
G1 X-11.166 Y-9.742 F400.000
G1 X-11.217 Y-10.108 F400.000
G1 X-11.258 Y-10.478 F400.000
G1 X-11.285 Y-10.847 F400.000
G1 X-11.285 Y-11.586 F400.000
G1 X-11.268 Y-11.956 F400.000
G1 X-11.231 Y-12.325 F400.000
G1 X-11.183 Y-12.695 F400.000
G1 X-11.061 Y-13.427 F400.000
G1 X-10.980 Y-13.790 F400.000
G1 X-10.790 Y-14.508 F400.000
G1 X-10.559 Y-15.217 F400.000
G1 X-10.431 Y-15.566 F400.000
G1 X-10.119 Y-16.241 F400.000
G1 X-9.953 Y-16.573 F400.000
G1 X-9.580 Y-17.214 F400.000
G1 X-9.376 Y-17.525 F400.000
G1 X-9.163 Y-17.831 F400.000
G1 X-8.939 Y-18.129 F400.000
G1 X-8.705 Y-18.420 F400.000
G1 X-8.214 Y-18.980 F400.000
G1 X-7.956 Y-19.247 F400.000
G1 X-7.692 Y-19.508 F400.000
G1 X-7.420 Y-19.763 F400.000
G1 X-6.851 Y-20.244 F400.000
G1 X-6.556 Y-20.475 F400.000
G1 X-5.946 Y-20.908 F400.000
G1 X-5.298 Y-21.281 F400.000
G1 X-4.631 Y-21.617 F400.000
G1 X-4.288 Y-21.769 F400.000
G1 X-3.593 Y-22.041 F400.000
G1 X-3.237 Y-22.159 F400.000
G1 X-2.519 Y-22.369 F400.000
G1 X-1.790 Y-22.539 F400.000
G1 X-1.047 Y-22.641 F400.000
G1 X-0.302 Y-22.695 F400.000
G1 X0.068 Y-22.705 F400.000
G1 X0.437 Y-22.702 F400.000
G1 X0.807 Y-22.688 F400.000
G1 X1.176 Y-22.661 F400.000
G1 X1.546 Y-22.624 F400.000
G1 X1.915 Y-22.573 F400.000
G1 X2.281 Y-22.512 F400.000
G1 X2.644 Y-22.437 F400.000
G1 X3.007 Y-22.353 F400.000
G1 X3.366 Y-22.254 F400.000
G1 X4.068 Y-22.003 F400.000
G1 X4.749 Y-21.705 F400.000
G1 X5.414 Y-21.369 F400.000
G1 X5.739 Y-21.186 F400.000
G1 X6.373 Y-20.797 F400.000
G1 X6.983 Y-20.369 F400.000
G1 X7.281 Y-20.146 F400.000
G1 X7.847 Y-19.658 F400.000
G1 X8.108 Y-19.390 F400.000
G1 X8.614 Y-18.841 F400.000
G1 X8.858 Y-18.559 F400.000
G1 X9.322 Y-17.973 F400.000
G1 X9.756 Y-17.363 F400.000
G1 X10.139 Y-16.722 F400.000
G1 X10.315 Y-16.393 F400.000
G1 X10.478 Y-16.058 F400.000
G1 X10.624 Y-15.712 F400.000
G1 X10.759 Y-15.363 F400.000
G1 X10.878 Y-15.010 F400.000
G1 X11.081 Y-14.292 F400.000
G1 X11.169 Y-13.929 F400.000
G1 X11.312 Y-13.193 F400.000
G1 X11.366 Y-12.824 F400.000
G1 X11.410 Y-12.451 F400.000
G1 X11.475 Y-11.705 F400.000
G1 X11.502 Y-10.959 F400.000
G1 X11.471 Y-10.214 F400.000
G1 X11.424 Y-9.841 F400.000
G1 X11.302 Y-9.102 F400.000
G1 X11.146 Y-8.369 F400.000
G1 X11.054 Y-8.007 F400.000
G1 X10.834 Y-7.292 F400.000
G1 X10.698 Y-6.942 F400.000
G1 X10.553 Y-6.597 F400.000
G1 X10.234 Y-5.919 F400.000
G1 X10.058 Y-5.586 F400.000
G1 X9.871 Y-5.261 F400.000
G1 X9.675 Y-4.939 F400.000
G1 X9.254 Y-4.319 F400.000
G1 X9.031 Y-4.017 F400.000
G1 X8.556 Y-3.434 F400.000
G1 X8.305 Y-3.156 F400.000
G1 X8.044 Y-2.885 F400.000
G1 X7.776 Y-2.620 F400.000
G1 X7.502 Y-2.366 F400.000
G1 X7.217 Y-2.119 F400.000
G1 X6.925 Y-1.881 F400.000
G1 X6.627 Y-1.654 F400.000
G1 X6.000 Y-1.241 F400.000
G1 X5.678 Y-1.051 F400.000
G1 X5.346 Y-0.875 F400.000
G1 X5.010 Y-0.708 F400.000
G1 X4.668 Y-0.556 F400.000
G1 X4.319 Y-0.417 F400.000
G1 X3.610 Y-0.169 F400.000
G1 X2.892 Y0.037 F400.000
G1 X2.529 Y0.129 F400.000
G1 X1.797 Y0.285 F400.000
G1 X1.427 Y0.349 F400.000
G1 X1.054 Y0.393 F400.000
G1 X0.681 Y0.420 F400.000
G1 X-0.061 Y0.447 F400.000
G1 X-0.431 Y0.447 F400.000
G1 X-0.800 Y0.434 F400.000
G1 X-1.169 Y0.410 F400.000
G1 X-1.539 Y0.376 F400.000
G1 X-1.908 Y0.332 F400.000
G1 X-2.275 Y0.278 F400.000
G1 X-3.000 Y0.115 F400.000
G1 X-3.715 Y-0.085 F400.000
G1 X-4.068 Y-0.200 F400.000
G1 X-4.763 Y-0.458 F400.000
G1 X-5.437 Y-0.769 F400.000
G1 X-5.766 Y-0.942 F400.000
G1 X-6.085 Y-1.129 F400.000
G1 X-6.400 Y-1.325 F400.000
G1 X-7.014 Y-1.742 F400.000
G1 X-7.597 Y-2.197 F400.000
G1 X-7.881 Y-2.434 F400.000
G1 X-8.156 Y-2.681 F400.000
G1 X-8.668 Y-3.220 F400.000
G1 X-9.146 Y-3.786 F400.000
G1 X-9.590 Y-4.380 F400.000
G1 X-9.800 Y-4.685 F400.000
G1 X-10.193 Y-5.312 F400.000
G1 X-10.380 Y-5.634 F400.000
G1 X-10.556 Y-5.959 F400.000
G1 X-10.861 Y-6.634 F400.000
G1 X-10.997 Y-6.980 F400.000
G1 X-11.122 Y-7.329 F400.000
G1 X-11.237 Y-7.681 F400.000
G1 X-11.339 Y-8.037 F400.000
G1 X-11.519 Y-8.756 F400.000
G1 X-11.593 Y-9.119 F400.000
G1 X-11.715 Y-9.851 F400.000
G1 X-11.763 Y-10.220 F400.000
G1 X-11.800 Y-10.590 F400.000
G1 X-11.817 Y-11.329 F400.000
G1 X-11.810 Y-11.698 F400.000
G1 X-11.783 Y-12.068 F400.000
G1 X-11.746 Y-12.437 F400.000
G1 X-11.637 Y-13.173 F400.000
G1 X-11.492 Y-13.898 F400.000
G1 X-11.403 Y-14.261 F400.000
G1 X-11.200 Y-14.976 F400.000
G1 X-11.085 Y-15.329 F400.000
G1 X-10.807 Y-16.020 F400.000
G1 X-10.651 Y-16.359 F400.000
G1 X-10.305 Y-17.017 F400.000
G1 X-10.115 Y-17.336 F400.000
G1 X-9.708 Y-17.959 F400.000
G1 X-9.261 Y-18.556 F400.000
G1 X-9.027 Y-18.844 F400.000
G1 X-8.783 Y-19.125 F400.000
G1 X-8.529 Y-19.400 F400.000
G1 X-8.268 Y-19.668 F400.000
G1 X-7.729 Y-20.180 F400.000
G1 X-7.163 Y-20.664 F400.000
G1 X-6.871 Y-20.898 F400.000
G1 X-6.254 Y-21.322 F400.000
G1 X-5.939 Y-21.519 F400.000
G1 X-5.285 Y-21.878 F400.000
G1 X-4.610 Y-22.197 F400.000
G1 X-4.264 Y-22.339 F400.000
G1 X-3.563 Y-22.597 F400.000
G1 X-2.851 Y-22.817 F400.000
G1 X-2.488 Y-22.915 F400.000
G1 X-2.125 Y-23.003 F400.000
G1 X-1.386 Y-23.122 F400.000
G1 X-0.641 Y-23.200 F400.000
G1 X-0.268 Y-23.220 F400.000
G1 X0.102 Y-23.231 F400.000
G1 X0.471 Y-23.231 F400.000
G1 X0.841 Y-23.220 F400.000
G1 X1.210 Y-23.200 F400.000
G1 X1.580 Y-23.166 F400.000
G1 X2.312 Y-23.041 F400.000
G1 X2.675 Y-22.969 F400.000
G1 X3.037 Y-22.881 F400.000
G1 X3.753 Y-22.678 F400.000
G1 X4.105 Y-22.559 F400.000
G1 X4.790 Y-22.264 F400.000
G1 X5.129 Y-22.108 F400.000
G1 X5.790 Y-21.763 F400.000
G1 X6.112 Y-21.576 F400.000
G1 X6.742 Y-21.176 F400.000
G1 X7.346 Y-20.742 F400.000
G1 X7.929 Y-20.275 F400.000
G1 X8.468 Y-19.756 F400.000
G1 X8.976 Y-19.210 F400.000
G1 X9.224 Y-18.932 F400.000
G1 X9.695 Y-18.353 F400.000
G1 X9.922 Y-18.054 F400.000
G1 X10.329 Y-17.427 F400.000
G1 X10.519 Y-17.105 F400.000
G1 X10.864 Y-16.444 F400.000
G1 X11.020 Y-16.105 F400.000
G1 X11.163 Y-15.759 F400.000
G1 X11.295 Y-15.410 F400.000
G1 X11.414 Y-15.054 F400.000
G1 X11.522 Y-14.695 F400.000
G1 X11.617 Y-14.332 F400.000
G1 X11.698 Y-13.966 F400.000
G1 X11.834 Y-13.231 F400.000
G1 X11.892 Y-12.861 F400.000
G1 X11.976 Y-12.115 F400.000
G1 X12.007 Y-11.742 F400.000
G1 X12.027 Y-11.369 F400.000
G1 X12.017 Y-10.624 F400.000
G1 X11.993 Y-10.251 F400.000
G1 X11.905 Y-9.505 F400.000
G1 X11.776 Y-8.766 F400.000
G1 X11.695 Y-8.400 F400.000
G1 X11.505 Y-7.675 F400.000
G1 X11.397 Y-7.315 F400.000
G1 X11.278 Y-6.959 F400.000
G1 X10.986 Y-6.268 F400.000
G1 X10.658 Y-5.593 F400.000
G1 X10.292 Y-4.939 F400.000
G1 X10.098 Y-4.617 F400.000
G1 X9.678 Y-3.993 F400.000
G1 X9.224 Y-3.397 F400.000
G1 X8.983 Y-3.108 F400.000
G1 X8.736 Y-2.827 F400.000
G1 X8.481 Y-2.553 F400.000
G1 X8.217 Y-2.285 F400.000
G1 X7.939 Y-2.034 F400.000
G1 X7.654 Y-1.790 F400.000
G1 X7.064 Y-1.325 F400.000
G1 X6.447 Y-0.898 F400.000
G1 X6.132 Y-0.698 F400.000
G1 X5.468 Y-0.349 F400.000
G1 X5.129 Y-0.190 F400.000
G1 X4.783 Y-0.041 F400.000
G1 X4.081 Y0.220 F400.000
G1 X3.725 Y0.336 F400.000
G1 X2.641 Y0.637 F400.000
G1 X1.908 Y0.800 F400.000
G1 X1.169 Y0.908 F400.000
G1 X0.797 Y0.949 F400.000
G1 X0.424 Y0.976 F400.000
G1 X0.051 Y0.993 F400.000
G1 X-0.319 Y1.000 F400.000
G1 X-0.688 Y0.993 F400.000
G1 X-1.058 Y0.976 F400.000
G1 X-1.427 Y0.949 F400.000
G1 X-2.159 Y0.834 F400.000
G1 X-2.525 Y0.766 F400.000
G1 X-2.888 Y0.688 F400.000
G1 X-3.607 Y0.505 F400.000
G1 X-3.963 Y0.400 F400.000
G1 X-4.315 Y0.285 F400.000
G1 X-4.664 Y0.159 F400.000
G1 X-5.346 Y-0.139 F400.000
G1 X-5.678 Y-0.302 F400.000
G1 X-6.325 Y-0.664 F400.000
G1 X-6.953 Y-1.061 F400.000
G1 X-7.258 Y-1.271 F400.000
G1 X-7.851 Y-1.719 F400.000
G1 X-8.139 Y-1.953 F400.000
G1 X-8.420 Y-2.197 F400.000
G1 X-8.946 Y-2.719 F400.000
G1 X-9.197 Y-2.993 F400.000
G1 X-9.664 Y-3.569 F400.000
G1 X-10.102 Y-4.169 F400.000
G1 X-10.312 Y-4.475 F400.000
G1 X-10.705 Y-5.102 F400.000
G1 X-11.047 Y-5.759 F400.000
G1 X-11.353 Y-6.434 F400.000
G1 X-11.492 Y-6.776 F400.000
G1 X-11.620 Y-7.125 F400.000
G1 X-11.739 Y-7.478 F400.000
G1 X-11.847 Y-7.834 F400.000
G1 X-11.946 Y-8.193 F400.000
G1 X-12.034 Y-8.553 F400.000
G1 X-12.108 Y-8.915 F400.000
G1 X-12.173 Y-9.281 F400.000
G1 X-12.227 Y-9.647 F400.000
G1 X-12.271 Y-10.017 F400.000
G1 X-12.305 Y-10.386 F400.000
G1 X-12.329 Y-10.756 F400.000
G1 X-12.339 Y-11.125 F400.000
G1 X-12.339 Y-11.495 F400.000
G1 X-12.329 Y-11.864 F400.000
G1 X-12.308 Y-12.234 F400.000
G1 X-12.203 Y-12.969 F400.000
G1 X-12.142 Y-13.336 F400.000
G1 X-12.071 Y-13.702 F400.000
G1 X-11.902 Y-14.427 F400.000
G1 X-11.803 Y-14.786 F400.000
G1 X-11.580 Y-15.495 F400.000
G1 X-11.458 Y-15.844 F400.000
G1 X-11.163 Y-16.529 F400.000
G1 X-11.000 Y-16.864 F400.000
G1 X-10.641 Y-17.519 F400.000
G1 X-10.444 Y-17.837 F400.000
G1 X-10.237 Y-18.149 F400.000
G1 X-10.020 Y-18.454 F400.000
G1 X-9.793 Y-18.749 F400.000
G1 X-9.312 Y-19.319 F400.000
G1 X-9.064 Y-19.597 F400.000
G1 X-8.807 Y-19.864 F400.000
G1 X-8.278 Y-20.386 F400.000
G1 X-7.722 Y-20.885 F400.000
G1 X-7.437 Y-21.125 F400.000
G1 X-6.834 Y-21.566 F400.000
G1 X-6.525 Y-21.773 F400.000
G1 X-5.885 Y-22.153 F400.000
G1 X-5.556 Y-22.329 F400.000
G1 X-5.220 Y-22.492 F400.000
G1 X-4.536 Y-22.793 F400.000
G1 X-4.186 Y-22.929 F400.000
G1 X-3.478 Y-23.173 F400.000
G1 X-3.122 Y-23.285 F400.000
G1 X-2.400 Y-23.481 F400.000
G1 X-1.664 Y-23.620 F400.000
G1 X-1.295 Y-23.675 F400.000
G1 X-0.549 Y-23.742 F400.000
G1 X-0.176 Y-23.759 F400.000
G1 X0.193 Y-23.763 F400.000
G1 X0.932 Y-23.742 F400.000
G1 X1.302 Y-23.715 F400.000
G1 X1.671 Y-23.678 F400.000
G1 X2.041 Y-23.631 F400.000
G1 X2.407 Y-23.573 F400.000
G1 X3.129 Y-23.400 F400.000
G1 X3.488 Y-23.305 F400.000
G1 X4.193 Y-23.068 F400.000
G1 X4.542 Y-22.936 F400.000
G1 X4.885 Y-22.790 F400.000
G1 X5.559 Y-22.475 F400.000
G1 X6.214 Y-22.122 F400.000
G1 X6.536 Y-21.936 F400.000
G1 X7.163 Y-21.536 F400.000
G1 X7.766 Y-21.102 F400.000
G1 X8.329 Y-20.610 F400.000
G1 X8.603 Y-20.356 F400.000
G1 X8.871 Y-20.095 F400.000
G1 X9.129 Y-19.827 F400.000
G1 X9.380 Y-19.553 F400.000
G1 X9.861 Y-18.983 F400.000
G1 X10.092 Y-18.688 F400.000
G1 X10.525 Y-18.078 F400.000
G1 X10.925 Y-17.447 F400.000
G1 X11.112 Y-17.125 F400.000
G1 X11.444 Y-16.458 F400.000
G1 X11.593 Y-16.115 F400.000
G1 X11.729 Y-15.766 F400.000
G1 X11.854 Y-15.414 F400.000
G1 X11.966 Y-15.058 F400.000
G1 X12.068 Y-14.698 F400.000
G1 X12.241 Y-13.969 F400.000
G1 X12.376 Y-13.231 F400.000
G1 X12.431 Y-12.861 F400.000
G1 X12.512 Y-12.115 F400.000
G1 X12.559 Y-11.369 F400.000
G1 X12.542 Y-10.624 F400.000
G1 X12.481 Y-9.878 F400.000
G1 X12.434 Y-9.505 F400.000
G1 X12.376 Y-9.136 F400.000
G1 X12.234 Y-8.400 F400.000
G1 X12.051 Y-7.671 F400.000
G1 X11.292 Y-5.786 F400.000
G1 X11.136 Y-5.444 F400.000
G1 X10.790 Y-4.780 F400.000
G1 X10.417 Y-4.132 F400.000
G1 X9.986 Y-3.515 F400.000
G1 X9.525 Y-2.922 F400.000
G1 X9.281 Y-2.637 F400.000
G1 X9.031 Y-2.359 F400.000
G1 X8.773 Y-2.088 F400.000
G1 X8.508 Y-1.824 F400.000
G1 X8.234 Y-1.566 F400.000
G1 X7.654 Y-1.088 F400.000
G1 X7.353 Y-0.864 F400.000
G1 X7.044 Y-0.651 F400.000
G1 X6.729 Y-0.447 F400.000
G1 X6.407 Y-0.258 F400.000
G1 X6.078 Y-0.078 F400.000
G1 X5.407 Y0.251 F400.000
G1 X4.719 Y0.542 F400.000
G1 X4.017 Y0.800 F400.000
G1 X3.661 Y0.919 F400.000
G1 X3.302 Y1.027 F400.000
G1 X2.580 Y1.217 F400.000
G1 X1.841 Y1.349 F400.000
G1 X1.098 Y1.444 F400.000
G1 X0.725 Y1.478 F400.000
G1 X0.353 Y1.502 F400.000
G1 X-0.017 Y1.515 F400.000
G1 X-0.386 Y1.519 F400.000
G1 X-0.756 Y1.512 F400.000
G1 X-1.125 Y1.495 F400.000
G1 X-1.495 Y1.468 F400.000
G1 X-2.231 Y1.359 F400.000
G1 X-2.963 Y1.217 F400.000
G1 X-3.325 Y1.129 F400.000
G1 X-4.041 Y0.925 F400.000
G1 X-4.393 Y0.810 F400.000
G1 X-5.088 Y0.553 F400.000
G1 X-5.431 Y0.410 F400.000
G1 X-6.095 Y0.075 F400.000
G1 X-6.417 Y-0.105 F400.000
G1 X-6.736 Y-0.295 F400.000
G1 X-7.359 Y-0.698 F400.000
G1 X-7.959 Y-1.132 F400.000
G1 X-8.251 Y-1.359 F400.000
G1 X-8.814 Y-1.841 F400.000
G1 X-9.088 Y-2.092 F400.000
G1 X-9.600 Y-2.631 F400.000
G1 X-9.844 Y-2.908 F400.000
G1 X-10.298 Y-3.495 F400.000
G1 X-11.095 Y-4.715 F400.000
G1 X-11.959 Y-6.529 F400.000
G1 X-12.461 Y-8.180 F400.000
G1 X-12.749 Y-9.715 F400.000
G1 X-12.827 Y-10.488 F400.000
G1 X-12.786 Y-12.268 F400.000
G1 X-12.759 Y-12.637 F400.000
G1 X-12.719 Y-13.007 F400.000
G1 X-12.610 Y-13.739 F400.000
G1 X-12.441 Y-14.464 F400.000
G1 X-12.241 Y-15.180 F400.000
G1 X-12.125 Y-15.532 F400.000
G1 X-11.868 Y-16.231 F400.000
G1 X-11.576 Y-16.912 F400.000
G1 X-11.227 Y-17.566 F400.000
G1 X-11.037 Y-17.885 F400.000
G1 X-10.617 Y-18.502 F400.000
G1 X-10.176 Y-19.102 F400.000
G1 X-9.705 Y-19.681 F400.000
G1 X-9.461 Y-19.963 F400.000
G1 X-9.210 Y-20.237 F400.000
G1 X-8.678 Y-20.756 F400.000
G1 X-8.400 Y-21.007 F400.000
G1 X-7.824 Y-21.481 F400.000
G1 X-7.529 Y-21.712 F400.000
G1 X-6.919 Y-22.146 F400.000
G1 X-6.607 Y-22.353 F400.000
G1 X-5.953 Y-22.715 F400.000
G1 X-5.278 Y-23.041 F400.000
G1 X-4.590 Y-23.336 F400.000
G1 X-3.888 Y-23.593 F400.000
G1 X-3.532 Y-23.712 F400.000
G1 X-3.173 Y-23.820 F400.000
G1 X-2.451 Y-24.010 F400.000
G1 X-1.217 Y-24.207 F400.000
G1 X1.451 Y-24.214 F400.000
G1 X2.936 Y-23.980 F400.000
G1 X3.298 Y-23.895 F400.000
G1 X3.658 Y-23.797 F400.000
G1 X4.363 Y-23.563 F400.000
G1 X4.712 Y-23.431 F400.000
G1 X5.393 Y-23.132 F400.000
G1 X6.061 Y-22.807 F400.000
G1 X6.715 Y-22.454 F400.000
G1 X7.339 Y-22.051 F400.000
G1 X7.644 Y-21.837 F400.000
G1 X8.231 Y-21.376 F400.000
G1 X8.519 Y-21.139 F400.000
G1 X8.797 Y-20.888 F400.000
G1 X9.332 Y-20.369 F400.000
G1 X9.590 Y-20.098 F400.000
G1 X9.841 Y-19.820 F400.000
G1 X10.315 Y-19.244 F400.000
G1 X10.766 Y-18.647 F400.000
G1 X11.186 Y-18.031 F400.000
G1 X11.563 Y-17.383 F400.000
G1 X11.736 Y-17.054 F400.000
G1 X11.898 Y-16.719 F400.000
G1 X12.051 Y-16.376 F400.000
G1 X12.193 Y-16.031 F400.000
G1 X12.322 Y-15.681 F400.000
G1 X12.441 Y-15.325 F400.000
G1 X12.549 Y-14.966 F400.000
G1 X12.644 Y-14.603 F400.000
G1 X12.729 Y-14.237 F400.000
G1 X13.017 Y-11.539 F400.000
G1 X12.858 Y-9.153 F400.000
G1 X12.688 Y-8.285 F400.000
G1 X12.444 Y-7.529 F400.000
G1 X11.315 Y-4.759 F400.000
G1 X10.736 Y-3.739 F400.000
G1 X10.169 Y-2.946 F400.000
G1 X9.715 Y-2.346 F400.000
G1 X9.471 Y-2.061 F400.000
G1 X9.217 Y-1.783 F400.000
G1 X8.949 Y-1.522 F400.000
G1 X8.393 Y-1.017 F400.000
G1 X7.803 Y-0.556 F400.000
G1 X7.190 Y-0.129 F400.000
G1 X6.871 Y0.068 F400.000
G1 X6.220 Y0.434 F400.000
G1 X5.888 Y0.603 F400.000
G1 X5.549 Y0.763 F400.000
G1 X5.207 Y0.912 F400.000
G1 X4.861 Y1.051 F400.000
G1 X4.159 Y1.308 F400.000
G1 X3.444 Y1.532 F400.000
G1 X3.085 Y1.634 F400.000
G1 X2.722 Y1.725 F400.000
G1 X1.983 Y1.858 F400.000
G1 X1.241 Y1.956 F400.000
G1 X0.495 Y2.020 F400.000
G1 X-0.247 Y2.054 F400.000
G1 X-0.986 Y2.037 F400.000
G1 X-1.356 Y2.014 F400.000
G1 X-1.725 Y1.976 F400.000
G1 X-2.095 Y1.929 F400.000
G1 X-2.461 Y1.871 F400.000
G1 X-2.827 Y1.800 F400.000
G1 X-3.190 Y1.719 F400.000
G1 X-3.549 Y1.627 F400.000
G1 X-3.905 Y1.525 F400.000
G1 X-4.610 Y1.298 F400.000
G1 X-5.305 Y1.034 F400.000
G1 X-5.651 Y0.892 F400.000
G1 X-6.319 Y0.563 F400.000
G1 X-6.644 Y0.383 F400.000
G1 X-7.278 Y-0.007 F400.000
G1 X-7.892 Y-0.424 F400.000
G1 X-8.485 Y-0.868 F400.000
G1 X-9.058 Y-1.336 F400.000
G1 X-9.336 Y-1.580 F400.000
G1 X-9.600 Y-1.837 F400.000
G1 X-10.617 Y-3.031 F400.000
G1 X-10.797 Y-3.342 F400.000
G1 X-13.071 Y-9.169 F400.000
G1 X-13.169 Y-9.525 F400.000
G1 X-13.220 Y-9.983 F400.000
G1 X-13.183 Y-13.034 F400.000
G1 X-12.797 Y-14.966 F400.000
G1 X-12.688 Y-15.376 F400.000
G1 X-12.580 Y-15.732 F400.000
G1 X-12.339 Y-16.437 F400.000
G1 X-12.044 Y-17.119 F400.000
G1 X-11.885 Y-17.454 F400.000
G1 X-11.708 Y-17.783 F400.000
G1 X-11.312 Y-18.414 F400.000
G1 X-10.892 Y-19.031 F400.000
G1 X-10.437 Y-19.624 F400.000
G1 X-9.956 Y-20.193 F400.000
G1 X-9.705 Y-20.468 F400.000
G1 X-9.447 Y-20.736 F400.000
G1 X-9.183 Y-20.997 F400.000
G1 X-8.912 Y-21.251 F400.000
G1 X-8.634 Y-21.498 F400.000
G1 X-8.058 Y-21.973 F400.000
G1 X-7.759 Y-22.200 F400.000
G1 X-7.149 Y-22.627 F400.000
G1 X-6.837 Y-22.831 F400.000
G1 X-6.183 Y-23.190 F400.000
G1 X-5.508 Y-23.515 F400.000
G1 X-4.820 Y-23.810 F400.000
G1 X-4.119 Y-24.075 F400.000
G1 X-2.546 Y-24.451 F400.000
G1 X2.644 Y-24.454 F400.000
G1 X3.203 Y-24.373 F400.000
G1 X4.729 Y-23.932 F400.000
G1 X5.081 Y-23.810 F400.000
G1 X5.427 Y-23.675 F400.000
G1 X6.108 Y-23.369 F400.000
G1 X6.441 Y-23.200 F400.000
G1 X6.766 Y-23.020 F400.000
G1 X7.088 Y-22.831 F400.000
G1 X7.403 Y-22.631 F400.000
G1 X7.712 Y-22.420 F400.000
G1 X8.312 Y-21.980 F400.000
G1 X8.885 Y-21.505 F400.000
G1 X9.166 Y-21.258 F400.000
G1 X9.437 Y-21.003 F400.000
G1 X9.702 Y-20.742 F400.000
G1 X9.959 Y-20.475 F400.000
G1 X10.210 Y-20.200 F400.000
G1 X10.692 Y-19.631 F400.000
G1 X11.146 Y-19.037 F400.000
G1 X11.566 Y-18.420 F400.000
G1 X11.766 Y-18.105 F400.000
G1 X12.139 Y-17.458 F400.000
G1 X12.461 Y-16.783 F400.000
G1 X12.607 Y-16.437 F400.000
G1 X12.739 Y-16.088 F400.000
G1 X12.969 Y-15.302 F400.000
G1 X13.166 Y-14.488 F400.000
G1 X13.220 Y-14.054 F400.000
G1 X13.220 Y-9.553 F400.000
G1 X13.214 Y-9.498 F400.000
G1 X12.705 Y-8.193 F400.000
G1 X12.705 Y-8.193 F400.000
G1 X12.637 Y-8.081 F400.000
G1 X12.566 Y-8.017 F400.000
G0 X12.539 Y-8.000
G0 X12.227 Y-7.753
G0 X11.620 Y-6.468
G0 X11.305 Y-5.458
G0 X11.332 Y-5.197
G1 X11.339 Y-5.163 F400.000
G1 X11.346 Y-5.125 F400.000
G1 X11.380 Y-4.898 F400.000
G1 X11.363 Y-4.780 F400.000
G1 X11.363 Y-4.780 F400.000
G1 X10.566 Y-2.824 F400.000
G1 X10.369 Y-2.478 F400.000
G1 X9.858 Y-1.797 F400.000
G1 X9.346 Y-1.227 F400.000
G1 X9.081 Y-0.963 F400.000
G1 X8.807 Y-0.708 F400.000
G1 X8.522 Y-0.464 F400.000
G1 X8.227 Y-0.231 F400.000
G1 X7.620 Y0.203 F400.000
G1 X6.986 Y0.600 F400.000
G1 X6.661 Y0.786 F400.000
G1 X6.000 Y1.132 F400.000
G1 X5.319 Y1.437 F400.000
G1 X4.973 Y1.576 F400.000
G1 X4.624 Y1.705 F400.000
G1 X3.919 Y1.942 F400.000
G1 X3.200 Y2.153 F400.000
G1 X2.468 Y2.308 F400.000
G1 X1.729 Y2.431 F400.000
G1 X1.356 Y2.478 F400.000
G1 X0.983 Y2.515 F400.000
G1 X0.610 Y2.542 F400.000
G1 X-0.132 Y2.569 F400.000
G1 X-0.502 Y2.569 F400.000
G1 X-0.871 Y2.559 F400.000
G1 X-1.610 Y2.512 F400.000
G1 X-1.980 Y2.475 F400.000
G1 X-2.349 Y2.427 F400.000
G1 X-2.715 Y2.369 F400.000
G1 X-3.441 Y2.210 F400.000
G1 X-4.156 Y2.014 F400.000
G1 X-4.861 Y1.780 F400.000
G1 X-5.556 Y1.515 F400.000
G1 X-5.898 Y1.373 F400.000
G1 X-6.563 Y1.034 F400.000
G1 X-7.207 Y0.661 F400.000
G1 X-7.525 Y0.468 F400.000
G1 X-8.139 Y0.047 F400.000
G1 X-8.736 Y-0.393 F400.000
G1 X-9.312 Y-0.861 F400.000
G1 X-10.034 Y-1.553 F400.000
G1 X-10.159 Y-1.719 F400.000
G1 X-10.556 Y-2.722 F400.000
G1 X-10.556 Y-2.722 F400.000
G1 X-10.573 Y-2.841 F400.000
G1 X-10.566 Y-2.898 F400.000
G1 X-10.556 Y-2.922 F400.000
G0 X-10.539 Y-2.939
G0 X-10.437 Y-2.959
G0 X10.261 Y-2.956
G1 X10.356 Y-2.956 F400.000
G1 X10.488 Y-2.953 F400.000
G1 X10.536 Y-2.932 F400.000
G1 X10.563 Y-2.888 F400.000
G1 X10.569 Y-2.800 F400.000
G1 X10.553 Y-2.715 F400.000
G1 X10.553 Y-2.715 F400.000
G1 X10.081 Y-1.573 F400.000
G1 X9.912 Y-1.281 F400.000
G1 X9.224 Y-0.532 F400.000
G1 X8.963 Y-0.261 F400.000
G1 X8.695 Y0.000 F400.000
G1 X8.410 Y0.241 F400.000
G1 X8.115 Y0.468 F400.000
G1 X7.495 Y0.885 F400.000
G1 X6.854 Y1.271 F400.000
G1 X6.525 Y1.451 F400.000
G1 X5.858 Y1.783 F400.000
G1 X5.515 Y1.936 F400.000
G1 X5.169 Y2.078 F400.000
G1 X4.468 Y2.336 F400.000
G1 X4.112 Y2.451 F400.000
G1 X3.753 Y2.556 F400.000
G1 X3.390 Y2.651 F400.000
G1 X3.027 Y2.736 F400.000
G1 X2.661 Y2.810 F400.000
G1 X1.922 Y2.939 F400.000
G1 X1.180 Y3.034 F400.000
G1 X0.807 Y3.071 F400.000
G1 X0.434 Y3.098 F400.000
G1 X-0.678 Y3.102 F400.000
G1 X-1.786 Y3.044 F400.000
G1 X-2.525 Y2.942 F400.000
G1 X-2.892 Y2.881 F400.000
G1 X-3.617 Y2.719 F400.000
G1 X-3.976 Y2.620 F400.000
G1 X-4.688 Y2.403 F400.000
G1 X-5.041 Y2.281 F400.000
G1 X-5.736 Y2.014 F400.000
G1 X-6.078 Y1.868 F400.000
G1 X-6.417 Y1.712 F400.000
G1 X-7.071 Y1.356 F400.000
G1 X-7.712 Y0.976 F400.000
G1 X-8.332 Y0.569 F400.000
G1 X-8.936 Y0.136 F400.000
G1 X-9.305 Y-0.156 F400.000
G1 X-9.637 Y-0.492 F400.000
G1 X-9.729 Y-0.617 F400.000
G1 X-10.007 Y-1.329 F400.000
G1 X-10.007 Y-1.329 F400.000
G1 X-10.024 Y-1.447 F400.000
G1 X-10.017 Y-1.505 F400.000
G1 X-10.007 Y-1.529 F400.000
G0 X-9.990 Y-1.546
G0 X-9.888 Y-1.566
G0 X9.763 Y-1.668
G1 X9.851 Y-1.671 F400.000
G1 X9.983 Y-1.668 F400.000
G1 X10.031 Y-1.647 F400.000
G1 X10.058 Y-1.607 F400.000
G1 X10.064 Y-1.519 F400.000
G1 X10.047 Y-1.434 F400.000
G1 X10.047 Y-1.434 F400.000
G1 X9.742 Y-0.702 F400.000
G1 X9.573 Y-0.407 F400.000
G1 X9.020 Y0.220 F400.000
G1 X8.590 Y0.631 F400.000
G1 X8.312 Y0.878 F400.000
G1 X8.020 Y1.108 F400.000
G1 X7.719 Y1.329 F400.000
G1 X7.410 Y1.539 F400.000
G1 X7.092 Y1.732 F400.000
G1 X6.431 Y2.085 F400.000
G1 X6.095 Y2.247 F400.000
G1 X5.061 Y2.678 F400.000
G1 X4.353 Y2.922 F400.000
G1 X3.997 Y3.034 F400.000
G1 X3.637 Y3.136 F400.000
G1 X2.908 Y3.312 F400.000
G1 X2.173 Y3.454 F400.000
G1 X1.803 Y3.512 F400.000
G1 X1.058 Y3.600 F400.000
G1 X0.685 Y3.631 F400.000
G1 X0.312 Y3.651 F400.000
G1 X-0.797 Y3.637 F400.000
G1 X-1.536 Y3.603 F400.000
G1 X-2.275 Y3.522 F400.000
G1 X-2.641 Y3.468 F400.000
G1 X-3.373 Y3.332 F400.000
G1 X-3.736 Y3.251 F400.000
G1 X-4.095 Y3.159 F400.000
G1 X-4.451 Y3.058 F400.000
G1 X-4.807 Y2.946 F400.000
G1 X-5.508 Y2.695 F400.000
G1 X-5.854 Y2.556 F400.000
G1 X-6.532 Y2.251 F400.000
G1 X-6.864 Y2.085 F400.000
G1 X-7.519 Y1.725 F400.000
G1 X-8.153 Y1.332 F400.000
G1 X-8.464 Y1.129 F400.000
G1 X-8.973 Y0.746 F400.000
G1 X-9.254 Y0.485 F400.000
G1 X-9.349 Y0.349 F400.000
G1 X-9.678 Y-0.488 F400.000
G1 X-9.678 Y-0.488 F400.000
G1 X-9.695 Y-0.607 F400.000
G1 X-9.688 Y-0.664 F400.000
G1 X-9.678 Y-0.688 F400.000
G0 X-9.661 Y-0.705
G0 X-9.559 Y-0.725
G0 X9.414 Y-0.773
G1 X9.502 Y-0.776 F400.000
G1 X9.631 Y-0.773 F400.000
G1 X9.678 Y-0.753 F400.000
G1 X9.705 Y-0.712 F400.000
G1 X9.712 Y-0.624 F400.000
G1 X9.695 Y-0.539 F400.000
G1 X9.695 Y-0.539 F400.000
G1 X9.349 Y0.268 F400.000
G1 X9.210 Y0.498 F400.000
G1 X8.536 Y1.203 F400.000
G1 X8.268 Y1.461 F400.000
G1 X7.983 Y1.702 F400.000
G1 X7.681 Y1.922 F400.000
G1 X7.369 Y2.129 F400.000
G1 X7.051 Y2.322 F400.000
G1 X6.725 Y2.505 F400.000
G1 X6.051 Y2.827 F400.000
G1 X5.363 Y3.119 F400.000
G1 X4.661 Y3.376 F400.000
G1 X4.305 Y3.492 F400.000
G1 X3.583 Y3.695 F400.000
G1 X3.220 Y3.783 F400.000
G1 X2.488 Y3.932 F400.000
G1 X2.119 Y3.993 F400.000
G1 X1.376 Y4.088 F400.000
G1 X1.003 Y4.122 F400.000
G1 X0.631 Y4.146 F400.000
G1 X-0.481 Y4.173 F400.000
G1 X-1.590 Y4.136 F400.000
G1 X-1.959 Y4.108 F400.000
G1 X-2.329 Y4.064 F400.000
G1 X-3.427 Y3.868 F400.000
G1 X-3.790 Y3.790 F400.000
G1 X-4.153 Y3.702 F400.000
G1 X-4.864 Y3.492 F400.000
G1 X-5.217 Y3.373 F400.000
G1 X-5.912 Y3.108 F400.000
G1 X-6.254 Y2.963 F400.000
G1 X-6.929 Y2.647 F400.000
G1 X-7.590 Y2.302 F400.000
G1 X-8.234 Y1.929 F400.000
G1 X-8.624 Y1.651 F400.000
G1 X-8.868 Y1.444 F400.000
G1 X-8.966 Y1.315 F400.000
G1 X-9.329 Y0.400 F400.000
G1 X-9.329 Y0.400 F400.000
G1 X-9.346 Y0.271 F400.000
G1 X-9.339 Y0.214 F400.000
G1 X-9.329 Y0.190 F400.000
G0 X-9.308 Y0.169
G0 X-9.207 Y0.149
G0 X9.064 Y0.098
G1 X9.149 Y0.098 F400.000
G1 X9.278 Y0.098 F400.000
G1 X9.329 Y0.119 F400.000
G1 X9.356 Y0.166 F400.000
G1 X9.363 Y0.254 F400.000
G1 X9.346 Y0.349 F400.000
G1 X9.346 Y0.349 F400.000
G1 X9.027 Y1.092 F400.000
G1 X8.888 Y1.325 F400.000
G1 X8.319 Y1.915 F400.000
G1 X7.919 Y2.268 F400.000
G1 X7.627 Y2.498 F400.000
G1 X7.319 Y2.708 F400.000
G1 X7.000 Y2.905 F400.000
G1 X6.675 Y3.085 F400.000
G1 X6.342 Y3.254 F400.000
G1 X5.661 Y3.559 F400.000
G1 X4.963 Y3.827 F400.000
G1 X4.607 Y3.946 F400.000
G1 X3.888 Y4.156 F400.000
G1 X3.525 Y4.254 F400.000
G1 X2.797 Y4.417 F400.000
G1 X2.061 Y4.553 F400.000
G1 X1.692 Y4.607 F400.000
G1 X0.946 Y4.675 F400.000
G1 X0.573 Y4.695 F400.000
G1 X-0.539 Y4.719 F400.000
G1 X-1.278 Y4.705 F400.000
G1 X-2.017 Y4.641 F400.000
G1 X-2.386 Y4.600 F400.000
G1 X-3.119 Y4.481 F400.000
G1 X-3.481 Y4.407 F400.000
G1 X-4.207 Y4.237 F400.000
G1 X-5.278 Y3.925 F400.000
G1 X-5.631 Y3.807 F400.000
G1 X-6.319 Y3.522 F400.000
G1 X-6.997 Y3.210 F400.000
G1 X-7.329 Y3.044 F400.000
G1 X-7.983 Y2.688 F400.000
G1 X-8.508 Y2.305 F400.000
G1 X-8.644 Y2.139 F400.000
G1 X-8.946 Y1.376 F400.000
G1 X-8.946 Y1.376 F400.000
G1 X-8.963 Y1.247 F400.000
G1 X-8.956 Y1.190 F400.000
G1 X-8.946 Y1.166 F400.000
G0 X-8.925 Y1.146
G0 X-8.824 Y1.125
G0 X8.739 Y0.936
G1 X8.824 Y0.936 F400.000
G1 X8.949 Y0.936 F400.000
G1 X9.000 Y0.956 F400.000
G1 X9.027 Y1.003 F400.000
G1 X9.034 Y1.092 F400.000
G1 X9.017 Y1.186 F400.000
G1 X9.017 Y1.186 F400.000
G1 X8.719 Y1.878 F400.000
G1 X8.542 Y2.153 F400.000
G1 X7.919 Y2.749 F400.000
G1 X7.641 Y2.997 F400.000
G1 X7.342 Y3.220 F400.000
G1 X7.027 Y3.424 F400.000
G1 X6.705 Y3.614 F400.000
G1 X6.037 Y3.946 F400.000
G1 X5.695 Y4.095 F400.000
G1 X5.349 Y4.234 F400.000
G1 X4.644 Y4.481 F400.000
G1 X3.925 Y4.695 F400.000
G1 X3.563 Y4.790 F400.000
G1 X2.834 Y4.953 F400.000
G1 X2.095 Y5.081 F400.000
G1 X1.353 Y5.176 F400.000
G1 X0.607 Y5.237 F400.000
G1 X0.234 Y5.254 F400.000
G1 X-0.505 Y5.261 F400.000
G1 X-1.614 Y5.214 F400.000
G1 X-2.353 Y5.146 F400.000
G1 X-3.088 Y5.037 F400.000
G1 X-3.454 Y4.973 F400.000
G1 X-4.180 Y4.810 F400.000
G1 X-4.895 Y4.614 F400.000
G1 X-5.603 Y4.383 F400.000
G1 X-6.298 Y4.119 F400.000
G1 X-6.980 Y3.820 F400.000
G1 X-7.647 Y3.488 F400.000
G1 X-8.217 Y3.081 F400.000
G1 X-8.322 Y2.959 F400.000
G1 X-8.603 Y2.247 F400.000
G1 X-8.603 Y2.247 F400.000
G1 X-8.620 Y2.119 F400.000
G1 X-8.614 Y2.061 F400.000
G1 X-8.603 Y2.037 F400.000
G0 X-8.583 Y2.017
G0 X-8.481 Y1.993
G0 X8.458 Y1.661
G1 X8.539 Y1.661 F400.000
G1 X8.664 Y1.661 F400.000
G1 X8.715 Y1.681 F400.000
G1 X8.742 Y1.729 F400.000
G1 X8.749 Y1.817 F400.000
G1 X8.732 Y1.912 F400.000
G1 X8.732 Y1.912 F400.000
G1 X8.431 Y2.607 F400.000
G1 X8.319 Y2.793 F400.000
G1 X8.031 Y3.115 F400.000
G1 X7.342 Y3.715 F400.000
G1 X7.037 Y3.932 F400.000
G1 X6.722 Y4.132 F400.000
G1 X6.397 Y4.312 F400.000
G1 X5.715 Y4.624 F400.000
G1 X5.369 Y4.766 F400.000
G1 X5.020 Y4.898 F400.000
G1 X4.664 Y5.017 F400.000
G1 X3.946 Y5.231 F400.000
G1 X3.583 Y5.322 F400.000
G1 X2.851 Y5.478 F400.000
G1 X1.742 Y5.654 F400.000
G1 X0.997 Y5.736 F400.000
G1 X0.251 Y5.790 F400.000
G1 X-0.119 Y5.807 F400.000
G1 X-0.858 Y5.803 F400.000
G1 X-1.227 Y5.790 F400.000
G1 X-1.966 Y5.729 F400.000
G1 X-2.705 Y5.641 F400.000
G1 X-3.437 Y5.522 F400.000
G1 X-3.803 Y5.454 F400.000
G1 X-4.166 Y5.376 F400.000
G1 X-4.885 Y5.190 F400.000
G1 X-5.241 Y5.085 F400.000
G1 X-5.942 Y4.841 F400.000
G1 X-6.288 Y4.708 F400.000
G1 X-6.631 Y4.566 F400.000
G1 X-7.305 Y4.254 F400.000
G1 X-7.763 Y3.983 F400.000
G1 X-7.936 Y3.847 F400.000
G1 X-8.003 Y3.763 F400.000
G1 X-8.305 Y3.000 F400.000
G1 X-8.302 Y3.000 F400.000
G1 X-8.319 Y2.871 F400.000
G1 X-8.312 Y2.814 F400.000
G1 X-8.302 Y2.790 F400.000
G0 X-8.281 Y2.769
G0 X-8.180 Y2.746
G0 X8.176 Y2.383
G1 X8.258 Y2.383 F400.000
G1 X8.380 Y2.383 F400.000
G1 X8.431 Y2.403 F400.000
G1 X8.458 Y2.451 F400.000
G1 X8.464 Y2.539 F400.000
G1 X8.447 Y2.634 F400.000
G1 X8.447 Y2.634 F400.000
G1 X8.176 Y3.281 F400.000
G1 X8.037 Y3.515 F400.000
G1 X7.858 Y3.722 F400.000
G1 X7.373 Y4.153 F400.000
G1 X7.085 Y4.390 F400.000
G1 X6.776 Y4.603 F400.000
G1 X6.454 Y4.793 F400.000
G1 X6.129 Y4.973 F400.000
G1 X5.790 Y5.129 F400.000
G1 X5.444 Y5.275 F400.000
G1 X5.095 Y5.407 F400.000
G1 X4.386 Y5.644 F400.000
G1 X4.027 Y5.746 F400.000
G1 X3.664 Y5.837 F400.000
G1 X2.932 Y5.997 F400.000
G1 X2.193 Y6.125 F400.000
G1 X1.078 Y6.271 F400.000
G1 X0.705 Y6.308 F400.000
G1 X-0.037 Y6.342 F400.000
G1 X-0.407 Y6.346 F400.000
G1 X-1.146 Y6.329 F400.000
G1 X-1.515 Y6.308 F400.000
G1 X-2.254 Y6.244 F400.000
G1 X-2.990 Y6.149 F400.000
G1 X-3.722 Y6.020 F400.000
G1 X-4.085 Y5.946 F400.000
G1 X-4.807 Y5.769 F400.000
G1 X-5.522 Y5.566 F400.000
G1 X-5.875 Y5.451 F400.000
G1 X-6.566 Y5.173 F400.000
G1 X-6.908 Y5.027 F400.000
G1 X-7.244 Y4.864 F400.000
G1 X-7.569 Y4.685 F400.000
G1 X-7.695 Y4.583 F400.000
G1 X-7.729 Y4.539 F400.000
G1 X-7.844 Y4.169 F400.000
G1 X-7.986 Y3.814 F400.000
G1 X-7.986 Y3.814 F400.000
G1 X-8.003 Y3.685 F400.000
G1 X-7.997 Y3.627 F400.000
G1 X-7.986 Y3.603 F400.000
G0 X-7.966 Y3.583
G0 X-7.864 Y3.559
G0 X7.871 Y3.169
G1 X7.949 Y3.169 F400.000
G1 X8.071 Y3.169 F400.000
G1 X8.122 Y3.190 F400.000
G1 X8.149 Y3.234 F400.000
G1 X8.156 Y3.322 F400.000
G1 X8.139 Y3.417 F400.000
G1 X8.139 Y3.417 F400.000
G1 X7.885 Y4.010 F400.000
G1 X7.739 Y4.237 F400.000
G1 X7.271 Y4.688 F400.000
G1 X6.990 Y4.932 F400.000
G1 X6.688 Y5.153 F400.000
G1 X6.373 Y5.349 F400.000
G1 X6.044 Y5.529 F400.000
G1 X5.708 Y5.692 F400.000
G1 X5.366 Y5.841 F400.000
G1 X5.017 Y5.976 F400.000
G1 X4.664 Y6.098 F400.000
G1 X3.946 Y6.302 F400.000
G1 X3.220 Y6.478 F400.000
G1 X2.488 Y6.620 F400.000
G1 X1.749 Y6.736 F400.000
G1 X1.376 Y6.783 F400.000
G1 X0.631 Y6.851 F400.000
G1 X0.258 Y6.875 F400.000
G1 X-0.481 Y6.895 F400.000
G1 X-0.851 Y6.895 F400.000
G1 X-1.590 Y6.868 F400.000
G1 X-2.698 Y6.746 F400.000
G1 X-3.797 Y6.566 F400.000
G1 X-4.525 Y6.417 F400.000
G1 X-5.241 Y6.217 F400.000
G1 X-5.949 Y5.990 F400.000
G1 X-6.298 Y5.864 F400.000
G1 X-6.644 Y5.729 F400.000
G1 X-6.983 Y5.576 F400.000
G1 X-7.312 Y5.403 F400.000
G1 X-7.644 Y5.119 F400.000
G1 X-7.681 Y5.078 F400.000
G1 X-7.708 Y5.031 F400.000
G1 X-7.722 Y4.976 F400.000
G1 X-7.722 Y4.705 F400.000
G1 X-7.742 Y4.542 F400.000
G1 X-7.742 Y4.542 F400.000
G1 X-7.732 Y4.414 F400.000
G1 X-7.708 Y4.356 F400.000
G1 X-7.692 Y4.332 F400.000
G0 X-7.671 Y4.315
G0 X-7.563 Y4.292
G0 X7.590 Y3.895
G1 X7.664 Y3.895 F400.000
G1 X7.786 Y3.895 F400.000
G1 X7.837 Y3.915 F400.000
G1 X7.864 Y3.959 F400.000
G1 X7.871 Y4.047 F400.000
G1 X7.854 Y4.142 F400.000
G1 X7.854 Y4.142 F400.000
G1 X7.692 Y4.600 F400.000
G1 X7.546 Y4.827 F400.000
G1 X7.254 Y5.139 F400.000
G1 X6.993 Y5.403 F400.000
G1 X6.702 Y5.637 F400.000
G1 X6.393 Y5.847 F400.000
G1 X6.102 Y6.020 F400.000
G1 X5.790 Y6.180 F400.000
G1 X5.447 Y6.332 F400.000
G1 X5.102 Y6.471 F400.000
G1 X4.749 Y6.597 F400.000
G1 X4.393 Y6.712 F400.000
G1 X3.671 Y6.915 F400.000
G1 X3.305 Y7.000 F400.000
G1 X2.573 Y7.146 F400.000
G1 X2.203 Y7.210 F400.000
G1 X1.464 Y7.315 F400.000
G1 X1.092 Y7.359 F400.000
G1 X0.346 Y7.420 F400.000
G1 X-0.024 Y7.441 F400.000
G1 X-0.763 Y7.437 F400.000
G1 X-1.502 Y7.403 F400.000
G1 X-2.241 Y7.336 F400.000
G1 X-2.980 Y7.247 F400.000
G1 X-4.078 Y7.068 F400.000
G1 X-4.803 Y6.898 F400.000
G1 X-5.163 Y6.803 F400.000
G1 X-5.871 Y6.580 F400.000
G1 X-6.220 Y6.454 F400.000
G1 X-6.908 Y6.176 F400.000
G1 X-7.234 Y5.997 F400.000
G1 X-7.539 Y5.783 F400.000
G1 X-7.681 Y5.617 F400.000
G1 X-7.722 Y5.515 F400.000
G1 X-7.722 Y5.027 F400.000
G1 X-7.722 Y5.024 F400.000
G1 X-7.695 Y4.895 F400.000
G1 X-7.668 Y4.841 F400.000
G1 X-7.647 Y4.820 F400.000
G0 X-7.624 Y4.803
G0 X-7.512 Y4.783
G0 X7.424 Y4.359
G1 X7.498 Y4.359 F400.000
G1 X7.617 Y4.359 F400.000
G1 X7.671 Y4.376 F400.000
G1 X7.705 Y4.420 F400.000
G1 X7.732 Y4.505 F400.000
G1 X7.732 Y4.603 F400.000
G1 X7.732 Y4.603 F400.000
G1 X7.692 Y4.908 F400.000
G1 X7.644 Y5.061 F400.000
G1 X7.403 Y5.420 F400.000
G1 X7.007 Y5.858 F400.000
G1 X6.729 Y6.105 F400.000
G1 X6.427 Y6.325 F400.000
G1 X6.153 Y6.495 F400.000
G1 X5.875 Y6.641 F400.000
G1 X5.559 Y6.793 F400.000
G1 X5.217 Y6.942 F400.000
G1 X4.868 Y7.081 F400.000
G1 X4.515 Y7.200 F400.000
G1 X3.797 Y7.410 F400.000
G1 X3.434 Y7.502 F400.000
G1 X2.336 Y7.722 F400.000
G1 X1.966 Y7.786 F400.000
G1 X1.227 Y7.892 F400.000
G1 X0.854 Y7.936 F400.000
G1 X0.108 Y7.969 F400.000
G1 X-0.631 Y7.976 F400.000
G1 X-1.369 Y7.949 F400.000
G1 X-1.739 Y7.925 F400.000
G1 X-2.478 Y7.851 F400.000
G1 X-3.217 Y7.759 F400.000
G1 X-4.315 Y7.576 F400.000
G1 X-4.678 Y7.492 F400.000
G1 X-5.397 Y7.292 F400.000
G1 X-5.753 Y7.183 F400.000
G1 X-6.454 Y6.932 F400.000
G1 X-6.793 Y6.780 F400.000
G1 X-7.122 Y6.607 F400.000
G1 X-7.437 Y6.407 F400.000
G1 X-7.664 Y6.169 F400.000
G1 X-7.712 Y6.071 F400.000
G1 X-7.722 Y6.017 F400.000
G1 X-7.722 Y5.583 F400.000
G1 X-7.722 Y5.583 F400.000
G1 X-7.695 Y5.454 F400.000
G1 X-7.668 Y5.400 F400.000
G1 X-7.647 Y5.380 F400.000
G0 X-7.624 Y5.363
G0 X-7.512 Y5.339
G0 X7.369 Y4.732
G1 X7.444 Y4.729 F400.000
G1 X7.593 Y4.732 F400.000
G1 X7.644 Y4.763 F400.000
G1 X7.692 Y4.837 F400.000
G1 X7.719 Y4.963 F400.000
G1 X7.719 Y4.963 F400.000
G1 X7.705 Y5.268 F400.000
G1 X7.654 Y5.471 F400.000
G1 X7.553 Y5.661 F400.000
G1 X7.264 Y6.047 F400.000
G1 X7.024 Y6.332 F400.000
G1 X6.749 Y6.583 F400.000
G1 X6.461 Y6.803 F400.000
G1 X5.980 Y7.095 F400.000
G1 X5.647 Y7.268 F400.000
G1 X5.308 Y7.424 F400.000
G1 X4.963 Y7.566 F400.000
G1 X4.254 Y7.810 F400.000
G1 X3.532 Y8.010 F400.000
G1 X2.800 Y8.173 F400.000
G1 X1.692 Y8.363 F400.000
G1 X0.949 Y8.454 F400.000
G1 X0.203 Y8.505 F400.000
G1 X-0.166 Y8.519 F400.000
G1 X-0.536 Y8.522 F400.000
G1 X-1.275 Y8.502 F400.000
G1 X-1.644 Y8.478 F400.000
G1 X-2.383 Y8.414 F400.000
G1 X-3.122 Y8.319 F400.000
G1 X-3.854 Y8.203 F400.000
G1 X-4.583 Y8.061 F400.000
G1 X-4.946 Y7.980 F400.000
G1 X-5.305 Y7.885 F400.000
G1 X-6.010 Y7.654 F400.000
G1 X-6.356 Y7.522 F400.000
G1 X-6.698 Y7.376 F400.000
G1 X-7.031 Y7.210 F400.000
G1 X-7.349 Y7.017 F400.000
G1 X-7.624 Y6.749 F400.000
G1 X-7.688 Y6.664 F400.000
G1 X-7.722 Y6.559 F400.000
G1 X-7.722 Y6.071 F400.000
G1 X-7.722 Y6.071 F400.000
G1 X-7.695 Y5.942 F400.000
G1 X-7.668 Y5.888 F400.000
G1 X-7.647 Y5.868 F400.000
G0 X-7.624 Y5.851
G0 X-7.512 Y5.827
G0 X7.369 Y5.153
G1 X7.444 Y5.149 F400.000
G1 X7.593 Y5.153 F400.000
G1 X7.644 Y5.183 F400.000
G1 X7.692 Y5.258 F400.000
G1 X7.719 Y5.383 F400.000
G1 X7.719 Y5.383 F400.000
G1 X7.715 Y5.637 F400.000
G1 X7.668 Y5.892 F400.000
G1 X7.583 Y6.088 F400.000
G1 X7.342 Y6.447 F400.000
G1 X7.041 Y6.820 F400.000
G1 X6.769 Y7.075 F400.000
G1 X6.495 Y7.288 F400.000
G1 X6.254 Y7.444 F400.000
G1 X6.010 Y7.586 F400.000
G1 X5.681 Y7.763 F400.000
G1 X5.342 Y7.922 F400.000
G1 X4.647 Y8.200 F400.000
G1 X4.295 Y8.322 F400.000
G1 X3.939 Y8.434 F400.000
G1 X3.580 Y8.532 F400.000
G1 X3.217 Y8.620 F400.000
G1 X2.485 Y8.769 F400.000
G1 X2.115 Y8.837 F400.000
G1 X1.376 Y8.942 F400.000
G1 X1.003 Y8.986 F400.000
G1 X0.258 Y9.047 F400.000
G1 X-0.112 Y9.068 F400.000
G1 X-1.220 Y9.047 F400.000
G1 X-1.590 Y9.031 F400.000
G1 X-2.329 Y8.973 F400.000
G1 X-2.698 Y8.936 F400.000
G1 X-3.437 Y8.837 F400.000
G1 X-4.169 Y8.715 F400.000
G1 X-4.536 Y8.644 F400.000
G1 X-5.254 Y8.454 F400.000
G1 X-5.963 Y8.231 F400.000
G1 X-6.312 Y8.105 F400.000
G1 X-6.651 Y7.956 F400.000
G1 X-6.983 Y7.790 F400.000
G1 X-7.302 Y7.597 F400.000
G1 X-7.617 Y7.295 F400.000
G1 X-7.685 Y7.210 F400.000
G1 X-7.722 Y7.108 F400.000
