(Exported by FreeCAD)
(Post Processor: script_module)
(Output Time:2024-12-12 00:06:41.656192)
(Begin preamble)
G17 G90
G21
(Block-name: Fixture)
(Block-expand: 0)
(Block-enable: 1)
(Begin operation: Fixture)
(Path: Fixture)
G54
(Finish operation: Fixture)
(Block-name: 2mm Endmill003)
(Block-expand: 0)
(Block-enable: 1)
(Begin operation: 2mm Endmill003)
(Path: 2mm Endmill003)
(2mm Endmill003)
(Begin toolchange)
( M6 T3 )
M3 S10000
(Finish operation: 2mm Endmill003)
(Block-name: Adaptive003)
(Block-expand: 0)
(Block-enable: 1)
(Begin operation: Adaptive003)
(Path: Adaptive003)
(Adaptive003)
(Helix to depth: -1.000000)
G0 Z6.000
G0 X-0.088 Y8.923 Z6.000
G0 X-0.088 Y8.923 Z4.000
G1 X-0.088 Y8.923 Z1.000 F200.000
G1 X-0.088 Y8.923 Z1.000 F200.000
G1 X-0.071 Y8.907 Z0.998 F200.000
G1 X-0.052 Y8.895 Z0.996 F200.000
G1 X-0.031 Y8.887 Z0.994 F200.000
G1 X-0.009 Y8.883 Z0.991 F200.000
G1 X0.013 Y8.883 Z0.989 F200.000
G1 X0.035 Y8.888 Z0.987 F200.000
G1 X0.056 Y8.897 Z0.985 F200.000
G1 X0.075 Y8.910 Z0.983 F200.000
G1 X0.090 Y8.926 Z0.981 F200.000
G1 X0.102 Y8.945 Z0.979 F200.000
G1 X0.111 Y8.966 Z0.976 F200.000
G1 X0.115 Y8.988 Z0.974 F200.000
G1 X0.114 Y9.011 Z0.972 F200.000
G1 X0.109 Y9.033 Z0.970 F200.000
G1 X0.100 Y9.054 Z0.968 F200.000
G1 X0.088 Y9.072 Z0.966 F200.000
G1 X0.071 Y9.088 Z0.963 F200.000
G1 X0.052 Y9.100 Z0.961 F200.000
G1 X0.031 Y9.108 Z0.959 F200.000
G1 X0.009 Y9.112 Z0.957 F200.000
G1 X-0.013 Y9.112 Z0.955 F200.000
G1 X-0.035 Y9.107 Z0.953 F200.000
G1 X-0.056 Y9.098 Z0.951 F200.000
G1 X-0.075 Y9.085 Z0.948 F200.000
G1 X-0.090 Y9.069 Z0.946 F200.000
G1 X-0.102 Y9.050 Z0.944 F200.000
G1 X-0.111 Y9.029 Z0.942 F200.000
G1 X-0.115 Y9.007 Z0.940 F200.000
G1 X-0.114 Y8.984 Z0.938 F200.000
G1 X-0.109 Y8.962 Z0.936 F200.000
G1 X-0.100 Y8.941 Z0.933 F200.000
G1 X-0.088 Y8.923 Z0.931 F200.000
G1 X-0.071 Y8.907 Z0.929 F200.000
G1 X-0.052 Y8.895 Z0.927 F200.000
G1 X-0.031 Y8.887 Z0.925 F200.000
G1 X-0.009 Y8.883 Z0.923 F200.000
G1 X0.013 Y8.883 Z0.921 F200.000
G1 X0.035 Y8.888 Z0.918 F200.000
G1 X0.056 Y8.897 Z0.916 F200.000
G1 X0.075 Y8.910 Z0.914 F200.000
G1 X0.090 Y8.926 Z0.912 F200.000
G1 X0.102 Y8.945 Z0.910 F200.000
G1 X0.111 Y8.966 Z0.908 F200.000
G1 X0.115 Y8.988 Z0.906 F200.000
G1 X0.114 Y9.011 Z0.903 F200.000
G1 X0.109 Y9.033 Z0.901 F200.000
G1 X0.100 Y9.054 Z0.899 F200.000
G1 X0.088 Y9.072 Z0.897 F200.000
G1 X0.071 Y9.088 Z0.895 F200.000
G1 X0.052 Y9.100 Z0.893 F200.000
G1 X0.031 Y9.108 Z0.890 F200.000
G1 X0.009 Y9.112 Z0.888 F200.000
G1 X-0.013 Y9.112 Z0.886 F200.000
G1 X-0.035 Y9.107 Z0.884 F200.000
G1 X-0.056 Y9.098 Z0.882 F200.000
G1 X-0.075 Y9.085 Z0.880 F200.000
G1 X-0.090 Y9.069 Z0.878 F200.000
G1 X-0.102 Y9.050 Z0.875 F200.000
G1 X-0.111 Y9.029 Z0.873 F200.000
G1 X-0.115 Y9.007 Z0.871 F200.000
G1 X-0.114 Y8.984 Z0.869 F200.000
G1 X-0.109 Y8.962 Z0.867 F200.000
G1 X-0.100 Y8.941 Z0.865 F200.000
G1 X-0.088 Y8.923 Z0.863 F200.000
G1 X-0.071 Y8.907 Z0.860 F200.000
G1 X-0.052 Y8.895 Z0.858 F200.000
G1 X-0.031 Y8.887 Z0.856 F200.000
G1 X-0.009 Y8.883 Z0.854 F200.000
G1 X0.013 Y8.883 Z0.852 F200.000
G1 X0.035 Y8.888 Z0.850 F200.000
G1 X0.056 Y8.897 Z0.848 F200.000
G1 X0.075 Y8.910 Z0.845 F200.000
G1 X0.090 Y8.926 Z0.843 F200.000
G1 X0.102 Y8.945 Z0.841 F200.000
G1 X0.111 Y8.966 Z0.839 F200.000
G1 X0.115 Y8.988 Z0.837 F200.000
G1 X0.114 Y9.011 Z0.835 F200.000
G1 X0.109 Y9.033 Z0.833 F200.000
G1 X0.100 Y9.054 Z0.830 F200.000
G1 X0.088 Y9.072 Z0.828 F200.000
G1 X0.071 Y9.088 Z0.826 F200.000
G1 X0.052 Y9.100 Z0.824 F200.000
G1 X0.031 Y9.108 Z0.822 F200.000
G1 X0.009 Y9.112 Z0.820 F200.000
G1 X-0.013 Y9.112 Z0.817 F200.000
G1 X-0.035 Y9.107 Z0.815 F200.000
G1 X-0.056 Y9.098 Z0.813 F200.000
G1 X-0.075 Y9.085 Z0.811 F200.000
G1 X-0.090 Y9.069 Z0.809 F200.000
G1 X-0.102 Y9.050 Z0.807 F200.000
G1 X-0.111 Y9.029 Z0.805 F200.000
G1 X-0.115 Y9.007 Z0.802 F200.000
G1 X-0.114 Y8.984 Z0.800 F200.000
G1 X-0.109 Y8.962 Z0.798 F200.000
G1 X-0.100 Y8.941 Z0.796 F200.000
G1 X-0.088 Y8.923 Z0.794 F200.000
G1 X-0.071 Y8.907 Z0.792 F200.000
G1 X-0.052 Y8.895 Z0.790 F200.000
G1 X-0.031 Y8.887 Z0.787 F200.000
G1 X-0.009 Y8.883 Z0.785 F200.000
G1 X0.013 Y8.883 Z0.783 F200.000
G1 X0.035 Y8.888 Z0.781 F200.000
G1 X0.056 Y8.897 Z0.779 F200.000
G1 X0.075 Y8.910 Z0.777 F200.000
G1 X0.090 Y8.926 Z0.775 F200.000
G1 X0.102 Y8.945 Z0.772 F200.000
G1 X0.111 Y8.966 Z0.770 F200.000
G1 X0.115 Y8.988 Z0.768 F200.000
G1 X0.114 Y9.011 Z0.766 F200.000
G1 X0.109 Y9.033 Z0.764 F200.000
G1 X0.100 Y9.054 Z0.762 F200.000
G1 X0.088 Y9.072 Z0.760 F200.000
G1 X0.071 Y9.088 Z0.757 F200.000
G1 X0.052 Y9.100 Z0.755 F200.000
G1 X0.031 Y9.108 Z0.753 F200.000
G1 X0.009 Y9.112 Z0.751 F200.000
G1 X-0.013 Y9.112 Z0.749 F200.000
G1 X-0.035 Y9.107 Z0.747 F200.000
G1 X-0.056 Y9.098 Z0.744 F200.000
G1 X-0.075 Y9.085 Z0.742 F200.000
G1 X-0.090 Y9.069 Z0.740 F200.000
G1 X-0.102 Y9.050 Z0.738 F200.000
G1 X-0.111 Y9.029 Z0.736 F200.000
G1 X-0.115 Y9.007 Z0.734 F200.000
G1 X-0.114 Y8.984 Z0.732 F200.000
G1 X-0.109 Y8.962 Z0.729 F200.000
G1 X-0.100 Y8.941 Z0.727 F200.000
G1 X-0.088 Y8.923 Z0.725 F200.000
G1 X-0.071 Y8.907 Z0.723 F200.000
G1 X-0.052 Y8.895 Z0.721 F200.000
G1 X-0.031 Y8.887 Z0.719 F200.000
G1 X-0.009 Y8.883 Z0.717 F200.000
G1 X0.013 Y8.883 Z0.714 F200.000
G1 X0.035 Y8.888 Z0.712 F200.000
G1 X0.056 Y8.897 Z0.710 F200.000
G1 X0.075 Y8.910 Z0.708 F200.000
G1 X0.090 Y8.926 Z0.706 F200.000
G1 X0.102 Y8.945 Z0.704 F200.000
G1 X0.111 Y8.966 Z0.702 F200.000
G1 X0.115 Y8.988 Z0.699 F200.000
G1 X0.114 Y9.011 Z0.697 F200.000
G1 X0.109 Y9.033 Z0.695 F200.000
G1 X0.100 Y9.054 Z0.693 F200.000
G1 X0.088 Y9.072 Z0.691 F200.000
G1 X0.071 Y9.088 Z0.689 F200.000
G1 X0.052 Y9.100 Z0.686 F200.000
G1 X0.031 Y9.108 Z0.684 F200.000
G1 X0.009 Y9.112 Z0.682 F200.000
G1 X-0.013 Y9.112 Z0.680 F200.000
G1 X-0.035 Y9.107 Z0.678 F200.000
G1 X-0.056 Y9.098 Z0.676 F200.000
G1 X-0.075 Y9.085 Z0.674 F200.000
G1 X-0.090 Y9.069 Z0.671 F200.000
G1 X-0.102 Y9.050 Z0.669 F200.000
G1 X-0.111 Y9.029 Z0.667 F200.000
G1 X-0.115 Y9.007 Z0.665 F200.000
G1 X-0.114 Y8.984 Z0.663 F200.000
G1 X-0.109 Y8.962 Z0.661 F200.000
G1 X-0.100 Y8.941 Z0.659 F200.000
G1 X-0.088 Y8.923 Z0.656 F200.000
G1 X-0.071 Y8.907 Z0.654 F200.000
G1 X-0.052 Y8.895 Z0.652 F200.000
G1 X-0.031 Y8.887 Z0.650 F200.000
G1 X-0.009 Y8.883 Z0.648 F200.000
G1 X0.013 Y8.883 Z0.646 F200.000
G1 X0.035 Y8.888 Z0.644 F200.000
G1 X0.056 Y8.897 Z0.641 F200.000
G1 X0.075 Y8.910 Z0.639 F200.000
G1 X0.090 Y8.926 Z0.637 F200.000
G1 X0.102 Y8.945 Z0.635 F200.000
G1 X0.111 Y8.966 Z0.633 F200.000
G1 X0.115 Y8.988 Z0.631 F200.000
G1 X0.114 Y9.011 Z0.629 F200.000
G1 X0.109 Y9.033 Z0.626 F200.000
G1 X0.100 Y9.054 Z0.624 F200.000
G1 X0.088 Y9.072 Z0.622 F200.000
G1 X0.071 Y9.088 Z0.620 F200.000
G1 X0.052 Y9.100 Z0.618 F200.000
G1 X0.031 Y9.108 Z0.616 F200.000
G1 X0.009 Y9.112 Z0.613 F200.000
G1 X-0.013 Y9.112 Z0.611 F200.000
G1 X-0.035 Y9.107 Z0.609 F200.000
G1 X-0.056 Y9.098 Z0.607 F200.000
G1 X-0.075 Y9.085 Z0.605 F200.000
G1 X-0.090 Y9.069 Z0.603 F200.000
G1 X-0.102 Y9.050 Z0.601 F200.000
G1 X-0.111 Y9.029 Z0.598 F200.000
G1 X-0.115 Y9.007 Z0.596 F200.000
G1 X-0.114 Y8.984 Z0.594 F200.000
G1 X-0.109 Y8.962 Z0.592 F200.000
G1 X-0.100 Y8.941 Z0.590 F200.000
G1 X-0.088 Y8.923 Z0.588 F200.000
G1 X-0.071 Y8.907 Z0.586 F200.000
G1 X-0.052 Y8.895 Z0.583 F200.000
G1 X-0.031 Y8.887 Z0.581 F200.000
G1 X-0.009 Y8.883 Z0.579 F200.000
G1 X0.013 Y8.883 Z0.577 F200.000
G1 X0.035 Y8.888 Z0.575 F200.000
G1 X0.056 Y8.897 Z0.573 F200.000
G1 X0.075 Y8.910 Z0.571 F200.000
G1 X0.090 Y8.926 Z0.568 F200.000
G1 X0.102 Y8.945 Z0.566 F200.000
G1 X0.111 Y8.966 Z0.564 F200.000
G1 X0.115 Y8.988 Z0.562 F200.000
G1 X0.114 Y9.011 Z0.560 F200.000
G1 X0.109 Y9.033 Z0.558 F200.000
G1 X0.100 Y9.054 Z0.556 F200.000
G1 X0.088 Y9.072 Z0.553 F200.000
G1 X0.071 Y9.088 Z0.551 F200.000
G1 X0.052 Y9.100 Z0.549 F200.000
G1 X0.031 Y9.108 Z0.547 F200.000
G1 X0.009 Y9.112 Z0.545 F200.000
G1 X-0.013 Y9.112 Z0.543 F200.000
G1 X-0.035 Y9.107 Z0.540 F200.000
G1 X-0.056 Y9.098 Z0.538 F200.000
G1 X-0.075 Y9.085 Z0.536 F200.000
G1 X-0.090 Y9.069 Z0.534 F200.000
G1 X-0.102 Y9.050 Z0.532 F200.000
G1 X-0.111 Y9.029 Z0.530 F200.000
G1 X-0.115 Y9.007 Z0.528 F200.000
G1 X-0.114 Y8.984 Z0.525 F200.000
G1 X-0.109 Y8.962 Z0.523 F200.000
G1 X-0.100 Y8.941 Z0.521 F200.000
G1 X-0.088 Y8.923 Z0.519 F200.000
G1 X-0.071 Y8.907 Z0.517 F200.000
G1 X-0.052 Y8.895 Z0.515 F200.000
G1 X-0.031 Y8.887 Z0.513 F200.000
G1 X-0.009 Y8.883 Z0.510 F200.000
G1 X0.013 Y8.883 Z0.508 F200.000
G1 X0.035 Y8.888 Z0.506 F200.000
G1 X0.056 Y8.897 Z0.504 F200.000
G1 X0.075 Y8.910 Z0.502 F200.000
G1 X0.090 Y8.926 Z0.500 F200.000
G1 X0.102 Y8.945 Z0.498 F200.000
G1 X0.111 Y8.966 Z0.495 F200.000
G1 X0.115 Y8.988 Z0.493 F200.000
G1 X0.114 Y9.011 Z0.491 F200.000
G1 X0.109 Y9.033 Z0.489 F200.000
G1 X0.100 Y9.054 Z0.487 F200.000
G1 X0.088 Y9.072 Z0.485 F200.000
G1 X0.071 Y9.088 Z0.483 F200.000
G1 X0.052 Y9.100 Z0.480 F200.000
G1 X0.031 Y9.108 Z0.478 F200.000
G1 X0.009 Y9.112 Z0.476 F200.000
G1 X-0.013 Y9.112 Z0.474 F200.000
G1 X-0.035 Y9.107 Z0.472 F200.000
G1 X-0.056 Y9.098 Z0.470 F200.000
G1 X-0.075 Y9.085 Z0.467 F200.000
G1 X-0.090 Y9.069 Z0.465 F200.000
G1 X-0.102 Y9.050 Z0.463 F200.000
G1 X-0.111 Y9.029 Z0.461 F200.000
G1 X-0.115 Y9.007 Z0.459 F200.000
G1 X-0.114 Y8.984 Z0.457 F200.000
G1 X-0.109 Y8.962 Z0.455 F200.000
G1 X-0.100 Y8.941 Z0.452 F200.000
G1 X-0.088 Y8.923 Z0.450 F200.000
G1 X-0.071 Y8.907 Z0.448 F200.000
G1 X-0.052 Y8.895 Z0.446 F200.000
G1 X-0.031 Y8.887 Z0.444 F200.000
G1 X-0.009 Y8.883 Z0.442 F200.000
G1 X0.013 Y8.883 Z0.440 F200.000
G1 X0.035 Y8.888 Z0.437 F200.000
G1 X0.056 Y8.897 Z0.435 F200.000
G1 X0.075 Y8.910 Z0.433 F200.000
G1 X0.090 Y8.926 Z0.431 F200.000
G1 X0.102 Y8.945 Z0.429 F200.000
G1 X0.111 Y8.966 Z0.427 F200.000
G1 X0.115 Y8.988 Z0.425 F200.000
G1 X0.114 Y9.011 Z0.422 F200.000
G1 X0.109 Y9.033 Z0.420 F200.000
G1 X0.100 Y9.054 Z0.418 F200.000
G1 X0.088 Y9.072 Z0.416 F200.000
G1 X0.071 Y9.088 Z0.414 F200.000
G1 X0.052 Y9.100 Z0.412 F200.000
G1 X0.031 Y9.108 Z0.409 F200.000
G1 X0.009 Y9.112 Z0.407 F200.000
G1 X-0.013 Y9.112 Z0.405 F200.000
G1 X-0.035 Y9.107 Z0.403 F200.000
G1 X-0.056 Y9.098 Z0.401 F200.000
G1 X-0.075 Y9.085 Z0.399 F200.000
G1 X-0.090 Y9.069 Z0.397 F200.000
G1 X-0.102 Y9.050 Z0.394 F200.000
G1 X-0.111 Y9.029 Z0.392 F200.000
G1 X-0.115 Y9.007 Z0.390 F200.000
G1 X-0.114 Y8.984 Z0.388 F200.000
G1 X-0.109 Y8.962 Z0.386 F200.000
G1 X-0.100 Y8.941 Z0.384 F200.000
G1 X-0.088 Y8.923 Z0.382 F200.000
G1 X-0.071 Y8.907 Z0.379 F200.000
G1 X-0.052 Y8.895 Z0.377 F200.000
G1 X-0.031 Y8.887 Z0.375 F200.000
G1 X-0.009 Y8.883 Z0.373 F200.000
G1 X0.013 Y8.883 Z0.371 F200.000
G1 X0.035 Y8.888 Z0.369 F200.000
G1 X0.056 Y8.897 Z0.367 F200.000
G1 X0.075 Y8.910 Z0.364 F200.000
G1 X0.090 Y8.926 Z0.362 F200.000
G1 X0.102 Y8.945 Z0.360 F200.000
G1 X0.111 Y8.966 Z0.358 F200.000
G1 X0.115 Y8.988 Z0.356 F200.000
G1 X0.114 Y9.011 Z0.354 F200.000
G1 X0.109 Y9.033 Z0.352 F200.000
G1 X0.100 Y9.054 Z0.349 F200.000
G1 X0.088 Y9.072 Z0.347 F200.000
G1 X0.071 Y9.088 Z0.345 F200.000
G1 X0.052 Y9.100 Z0.343 F200.000
G1 X0.031 Y9.108 Z0.341 F200.000
G1 X0.009 Y9.112 Z0.339 F200.000
G1 X-0.013 Y9.112 Z0.336 F200.000
G1 X-0.035 Y9.107 Z0.334 F200.000
G1 X-0.056 Y9.098 Z0.332 F200.000
G1 X-0.075 Y9.085 Z0.330 F200.000
G1 X-0.090 Y9.069 Z0.328 F200.000
G1 X-0.102 Y9.050 Z0.326 F200.000
G1 X-0.111 Y9.029 Z0.324 F200.000
G1 X-0.115 Y9.007 Z0.321 F200.000
G1 X-0.114 Y8.984 Z0.319 F200.000
G1 X-0.109 Y8.962 Z0.317 F200.000
G1 X-0.100 Y8.941 Z0.315 F200.000
G1 X-0.088 Y8.923 Z0.313 F200.000
G1 X-0.071 Y8.907 Z0.311 F200.000
G1 X-0.052 Y8.895 Z0.309 F200.000
G1 X-0.031 Y8.887 Z0.306 F200.000
G1 X-0.009 Y8.883 Z0.304 F200.000
G1 X0.013 Y8.883 Z0.302 F200.000
G1 X0.035 Y8.888 Z0.300 F200.000
G1 X0.056 Y8.897 Z0.298 F200.000
G1 X0.075 Y8.910 Z0.296 F200.000
G1 X0.090 Y8.926 Z0.294 F200.000
G1 X0.102 Y8.945 Z0.291 F200.000
G1 X0.111 Y8.966 Z0.289 F200.000
G1 X0.115 Y8.988 Z0.287 F200.000
G1 X0.114 Y9.011 Z0.285 F200.000
G1 X0.109 Y9.033 Z0.283 F200.000
G1 X0.100 Y9.054 Z0.281 F200.000
G1 X0.088 Y9.072 Z0.279 F200.000
G1 X0.071 Y9.088 Z0.276 F200.000
G1 X0.052 Y9.100 Z0.274 F200.000
G1 X0.031 Y9.108 Z0.272 F200.000
G1 X0.009 Y9.112 Z0.270 F200.000
G1 X-0.013 Y9.112 Z0.268 F200.000
G1 X-0.035 Y9.107 Z0.266 F200.000
G1 X-0.056 Y9.098 Z0.263 F200.000
G1 X-0.075 Y9.085 Z0.261 F200.000
G1 X-0.090 Y9.069 Z0.259 F200.000
G1 X-0.102 Y9.050 Z0.257 F200.000
G1 X-0.111 Y9.029 Z0.255 F200.000
G1 X-0.115 Y9.007 Z0.253 F200.000
G1 X-0.114 Y8.984 Z0.251 F200.000
G1 X-0.109 Y8.962 Z0.248 F200.000
G1 X-0.100 Y8.941 Z0.246 F200.000
G1 X-0.088 Y8.923 Z0.244 F200.000
G1 X-0.071 Y8.907 Z0.242 F200.000
G1 X-0.052 Y8.895 Z0.240 F200.000
G1 X-0.031 Y8.887 Z0.238 F200.000
G1 X-0.009 Y8.883 Z0.236 F200.000
G1 X0.013 Y8.883 Z0.233 F200.000
G1 X0.035 Y8.888 Z0.231 F200.000
G1 X0.056 Y8.897 Z0.229 F200.000
G1 X0.075 Y8.910 Z0.227 F200.000
G1 X0.090 Y8.926 Z0.225 F200.000
G1 X0.102 Y8.945 Z0.223 F200.000
G1 X0.111 Y8.966 Z0.221 F200.000
G1 X0.115 Y8.988 Z0.218 F200.000
G1 X0.114 Y9.011 Z0.216 F200.000
G1 X0.109 Y9.033 Z0.214 F200.000
G1 X0.100 Y9.054 Z0.212 F200.000
G1 X0.088 Y9.072 Z0.210 F200.000
G1 X0.071 Y9.088 Z0.208 F200.000
G1 X0.052 Y9.100 Z0.206 F200.000
G1 X0.031 Y9.108 Z0.203 F200.000
G1 X0.009 Y9.112 Z0.201 F200.000
G1 X-0.013 Y9.112 Z0.199 F200.000
G1 X-0.035 Y9.107 Z0.197 F200.000
G1 X-0.056 Y9.098 Z0.195 F200.000
G1 X-0.075 Y9.085 Z0.193 F200.000
G1 X-0.090 Y9.069 Z0.190 F200.000
G1 X-0.102 Y9.050 Z0.188 F200.000
G1 X-0.111 Y9.029 Z0.186 F200.000
G1 X-0.115 Y9.007 Z0.184 F200.000
G1 X-0.114 Y8.984 Z0.182 F200.000
G1 X-0.109 Y8.962 Z0.180 F200.000
G1 X-0.100 Y8.941 Z0.178 F200.000
G1 X-0.088 Y8.923 Z0.175 F200.000
G1 X-0.071 Y8.907 Z0.173 F200.000
G1 X-0.052 Y8.895 Z0.171 F200.000
G1 X-0.031 Y8.887 Z0.169 F200.000
G1 X-0.009 Y8.883 Z0.167 F200.000
G1 X0.013 Y8.883 Z0.165 F200.000
G1 X0.035 Y8.888 Z0.163 F200.000
G1 X0.056 Y8.897 Z0.160 F200.000
G1 X0.075 Y8.910 Z0.158 F200.000
G1 X0.090 Y8.926 Z0.156 F200.000
G1 X0.102 Y8.945 Z0.154 F200.000
G1 X0.111 Y8.966 Z0.152 F200.000
G1 X0.115 Y8.988 Z0.150 F200.000
G1 X0.114 Y9.011 Z0.148 F200.000
G1 X0.109 Y9.033 Z0.145 F200.000
G1 X0.100 Y9.054 Z0.143 F200.000
G1 X0.088 Y9.072 Z0.141 F200.000
G1 X0.071 Y9.088 Z0.139 F200.000
G1 X0.052 Y9.100 Z0.137 F200.000
G1 X0.031 Y9.108 Z0.135 F200.000
G1 X0.009 Y9.112 Z0.132 F200.000
G1 X-0.013 Y9.112 Z0.130 F200.000
G1 X-0.035 Y9.107 Z0.128 F200.000
G1 X-0.056 Y9.098 Z0.126 F200.000
G1 X-0.075 Y9.085 Z0.124 F200.000
G1 X-0.090 Y9.069 Z0.122 F200.000
G1 X-0.102 Y9.050 Z0.120 F200.000
G1 X-0.111 Y9.029 Z0.117 F200.000
G1 X-0.115 Y9.007 Z0.115 F200.000
G1 X-0.114 Y8.984 Z0.113 F200.000
G1 X-0.109 Y8.962 Z0.111 F200.000
G1 X-0.100 Y8.941 Z0.109 F200.000
G1 X-0.088 Y8.923 Z0.107 F200.000
G1 X-0.071 Y8.907 Z0.105 F200.000
G1 X-0.052 Y8.895 Z0.102 F200.000
G1 X-0.031 Y8.887 Z0.100 F200.000
G1 X-0.009 Y8.883 Z0.098 F200.000
G1 X0.013 Y8.883 Z0.096 F200.000
G1 X0.035 Y8.888 Z0.094 F200.000
G1 X0.056 Y8.897 Z0.092 F200.000
G1 X0.075 Y8.910 Z0.090 F200.000
G1 X0.090 Y8.926 Z0.087 F200.000
G1 X0.102 Y8.945 Z0.085 F200.000
G1 X0.111 Y8.966 Z0.083 F200.000
G1 X0.115 Y8.988 Z0.081 F200.000
G1 X0.114 Y9.011 Z0.079 F200.000
G1 X0.109 Y9.033 Z0.077 F200.000
G1 X0.100 Y9.054 Z0.075 F200.000
G1 X0.088 Y9.072 Z0.072 F200.000
G1 X0.071 Y9.088 Z0.070 F200.000
G1 X0.052 Y9.100 Z0.068 F200.000
G1 X0.031 Y9.108 Z0.066 F200.000
G1 X0.009 Y9.112 Z0.064 F200.000
G1 X-0.013 Y9.112 Z0.062 F200.000
G1 X-0.035 Y9.107 Z0.059 F200.000
G1 X-0.056 Y9.098 Z0.057 F200.000
G1 X-0.075 Y9.085 Z0.055 F200.000
G1 X-0.090 Y9.069 Z0.053 F200.000
G1 X-0.102 Y9.050 Z0.051 F200.000
G1 X-0.111 Y9.029 Z0.049 F200.000
G1 X-0.115 Y9.007 Z0.047 F200.000
G1 X-0.114 Y8.984 Z0.044 F200.000
G1 X-0.109 Y8.962 Z0.042 F200.000
G1 X-0.100 Y8.941 Z0.040 F200.000
G1 X-0.088 Y8.923 Z0.038 F200.000
G1 X-0.071 Y8.907 Z0.036 F200.000
G1 X-0.052 Y8.895 Z0.034 F200.000
G1 X-0.031 Y8.887 Z0.032 F200.000
G1 X-0.009 Y8.883 Z0.029 F200.000
G1 X0.013 Y8.883 Z0.027 F200.000
G1 X0.035 Y8.888 Z0.025 F200.000
G1 X0.056 Y8.897 Z0.023 F200.000
G1 X0.075 Y8.910 Z0.021 F200.000
G1 X0.090 Y8.926 Z0.019 F200.000
G1 X0.102 Y8.945 Z0.017 F200.000
G1 X0.111 Y8.966 Z0.014 F200.000
G1 X0.115 Y8.988 Z0.012 F200.000
G1 X0.114 Y9.011 Z0.010 F200.000
G1 X0.109 Y9.033 Z0.008 F200.000
G1 X0.100 Y9.054 Z0.006 F200.000
G1 X0.088 Y9.072 Z0.004 F200.000
G1 X0.071 Y9.088 Z0.002 F200.000
G1 X0.052 Y9.100 Z-0.001 F200.000
G1 X0.031 Y9.108 Z-0.003 F200.000
G1 X0.009 Y9.112 Z-0.005 F200.000
G1 X-0.013 Y9.112 Z-0.007 F200.000
G1 X-0.035 Y9.107 Z-0.009 F200.000
G1 X-0.056 Y9.098 Z-0.011 F200.000
G1 X-0.075 Y9.085 Z-0.014 F200.000
G1 X-0.090 Y9.069 Z-0.016 F200.000
G1 X-0.102 Y9.050 Z-0.018 F200.000
G1 X-0.111 Y9.029 Z-0.020 F200.000
G1 X-0.115 Y9.007 Z-0.022 F200.000
G1 X-0.114 Y8.984 Z-0.024 F200.000
G1 X-0.109 Y8.962 Z-0.026 F200.000
G1 X-0.100 Y8.941 Z-0.029 F200.000
G1 X-0.088 Y8.923 Z-0.031 F200.000
G1 X-0.071 Y8.907 Z-0.033 F200.000
G1 X-0.052 Y8.895 Z-0.035 F200.000
G1 X-0.031 Y8.887 Z-0.037 F200.000
G1 X-0.009 Y8.883 Z-0.039 F200.000
G1 X0.013 Y8.883 Z-0.041 F200.000
G1 X0.035 Y8.888 Z-0.044 F200.000
G1 X0.056 Y8.897 Z-0.046 F200.000
G1 X0.075 Y8.910 Z-0.048 F200.000
G1 X0.090 Y8.926 Z-0.050 F200.000
G1 X0.102 Y8.945 Z-0.052 F200.000
G1 X0.111 Y8.966 Z-0.054 F200.000
G1 X0.115 Y8.988 Z-0.056 F200.000
G1 X0.114 Y9.011 Z-0.059 F200.000
G1 X0.109 Y9.033 Z-0.061 F200.000
G1 X0.100 Y9.054 Z-0.063 F200.000
G1 X0.088 Y9.072 Z-0.065 F200.000
G1 X0.071 Y9.088 Z-0.067 F200.000
G1 X0.052 Y9.100 Z-0.069 F200.000
G1 X0.031 Y9.108 Z-0.072 F200.000
G1 X0.009 Y9.112 Z-0.074 F200.000
G1 X-0.013 Y9.112 Z-0.076 F200.000
G1 X-0.035 Y9.107 Z-0.078 F200.000
G1 X-0.056 Y9.098 Z-0.080 F200.000
G1 X-0.075 Y9.085 Z-0.082 F200.000
G1 X-0.090 Y9.069 Z-0.084 F200.000
G1 X-0.102 Y9.050 Z-0.087 F200.000
G1 X-0.111 Y9.029 Z-0.089 F200.000
G1 X-0.115 Y9.007 Z-0.091 F200.000
G1 X-0.114 Y8.984 Z-0.093 F200.000
G1 X-0.109 Y8.962 Z-0.095 F200.000
G1 X-0.100 Y8.941 Z-0.097 F200.000
G1 X-0.088 Y8.923 Z-0.099 F200.000
G1 X-0.071 Y8.907 Z-0.102 F200.000
G1 X-0.052 Y8.895 Z-0.104 F200.000
G1 X-0.031 Y8.887 Z-0.106 F200.000
G1 X-0.009 Y8.883 Z-0.108 F200.000
G1 X0.013 Y8.883 Z-0.110 F200.000
G1 X0.035 Y8.888 Z-0.112 F200.000
G1 X0.056 Y8.897 Z-0.114 F200.000
G1 X0.075 Y8.910 Z-0.117 F200.000
G1 X0.090 Y8.926 Z-0.119 F200.000
G1 X0.102 Y8.945 Z-0.121 F200.000
G1 X0.111 Y8.966 Z-0.123 F200.000
G1 X0.115 Y8.988 Z-0.125 F200.000
G1 X0.114 Y9.011 Z-0.127 F200.000
G1 X0.109 Y9.033 Z-0.129 F200.000
G1 X0.100 Y9.054 Z-0.132 F200.000
G1 X0.088 Y9.072 Z-0.134 F200.000
G1 X0.071 Y9.088 Z-0.136 F200.000
G1 X0.052 Y9.100 Z-0.138 F200.000
G1 X0.031 Y9.108 Z-0.140 F200.000
G1 X0.009 Y9.112 Z-0.142 F200.000
G1 X-0.013 Y9.112 Z-0.145 F200.000
G1 X-0.035 Y9.107 Z-0.147 F200.000
G1 X-0.056 Y9.098 Z-0.149 F200.000
G1 X-0.075 Y9.085 Z-0.151 F200.000
G1 X-0.090 Y9.069 Z-0.153 F200.000
G1 X-0.102 Y9.050 Z-0.155 F200.000
G1 X-0.111 Y9.029 Z-0.157 F200.000
G1 X-0.115 Y9.007 Z-0.160 F200.000
G1 X-0.114 Y8.984 Z-0.162 F200.000
G1 X-0.109 Y8.962 Z-0.164 F200.000
G1 X-0.100 Y8.941 Z-0.166 F200.000
G1 X-0.088 Y8.923 Z-0.168 F200.000
G1 X-0.071 Y8.907 Z-0.170 F200.000
G1 X-0.052 Y8.895 Z-0.172 F200.000
G1 X-0.031 Y8.887 Z-0.175 F200.000
G1 X-0.009 Y8.883 Z-0.177 F200.000
G1 X0.013 Y8.883 Z-0.179 F200.000
G1 X0.035 Y8.888 Z-0.181 F200.000
G1 X0.056 Y8.897 Z-0.183 F200.000
G1 X0.075 Y8.910 Z-0.185 F200.000
G1 X0.090 Y8.926 Z-0.187 F200.000
G1 X0.102 Y8.945 Z-0.190 F200.000
G1 X0.111 Y8.966 Z-0.192 F200.000
G1 X0.115 Y8.988 Z-0.194 F200.000
G1 X0.114 Y9.011 Z-0.196 F200.000
G1 X0.109 Y9.033 Z-0.198 F200.000
G1 X0.100 Y9.054 Z-0.200 F200.000
G1 X0.088 Y9.072 Z-0.202 F200.000
G1 X0.071 Y9.088 Z-0.205 F200.000
G1 X0.052 Y9.100 Z-0.207 F200.000
G1 X0.031 Y9.108 Z-0.209 F200.000
G1 X0.009 Y9.112 Z-0.211 F200.000
G1 X-0.013 Y9.112 Z-0.213 F200.000
G1 X-0.035 Y9.107 Z-0.215 F200.000
G1 X-0.056 Y9.098 Z-0.218 F200.000
G1 X-0.075 Y9.085 Z-0.220 F200.000
G1 X-0.090 Y9.069 Z-0.222 F200.000
G1 X-0.102 Y9.050 Z-0.224 F200.000
G1 X-0.111 Y9.029 Z-0.226 F200.000
G1 X-0.115 Y9.007 Z-0.228 F200.000
G1 X-0.114 Y8.984 Z-0.230 F200.000
G1 X-0.109 Y8.962 Z-0.233 F200.000
G1 X-0.100 Y8.941 Z-0.235 F200.000
G1 X-0.088 Y8.923 Z-0.237 F200.000
G1 X-0.071 Y8.907 Z-0.239 F200.000
G1 X-0.052 Y8.895 Z-0.241 F200.000
G1 X-0.031 Y8.887 Z-0.243 F200.000
G1 X-0.009 Y8.883 Z-0.245 F200.000
G1 X0.013 Y8.883 Z-0.248 F200.000
G1 X0.035 Y8.888 Z-0.250 F200.000
G1 X0.056 Y8.897 Z-0.252 F200.000
G1 X0.075 Y8.910 Z-0.254 F200.000
G1 X0.090 Y8.926 Z-0.256 F200.000
G1 X0.102 Y8.945 Z-0.258 F200.000
G1 X0.111 Y8.966 Z-0.260 F200.000
G1 X0.115 Y8.988 Z-0.263 F200.000
G1 X0.114 Y9.011 Z-0.265 F200.000
G1 X0.109 Y9.033 Z-0.267 F200.000
G1 X0.100 Y9.054 Z-0.269 F200.000
G1 X0.088 Y9.072 Z-0.271 F200.000
G1 X0.071 Y9.088 Z-0.273 F200.000
G1 X0.052 Y9.100 Z-0.275 F200.000
G1 X0.031 Y9.108 Z-0.278 F200.000
G1 X0.009 Y9.112 Z-0.280 F200.000
G1 X-0.013 Y9.112 Z-0.282 F200.000
G1 X-0.035 Y9.107 Z-0.284 F200.000
G1 X-0.056 Y9.098 Z-0.286 F200.000
G1 X-0.075 Y9.085 Z-0.288 F200.000
G1 X-0.090 Y9.069 Z-0.291 F200.000
G1 X-0.102 Y9.050 Z-0.293 F200.000
G1 X-0.111 Y9.029 Z-0.295 F200.000
G1 X-0.115 Y9.007 Z-0.297 F200.000
G1 X-0.114 Y8.984 Z-0.299 F200.000
G1 X-0.109 Y8.962 Z-0.301 F200.000
G1 X-0.100 Y8.941 Z-0.303 F200.000
G1 X-0.088 Y8.923 Z-0.306 F200.000
G1 X-0.071 Y8.907 Z-0.308 F200.000
G1 X-0.052 Y8.895 Z-0.310 F200.000
G1 X-0.031 Y8.887 Z-0.312 F200.000
G1 X-0.009 Y8.883 Z-0.314 F200.000
G1 X0.013 Y8.883 Z-0.316 F200.000
G1 X0.035 Y8.888 Z-0.318 F200.000
G1 X0.056 Y8.897 Z-0.321 F200.000
G1 X0.075 Y8.910 Z-0.323 F200.000
G1 X0.090 Y8.926 Z-0.325 F200.000
G1 X0.102 Y8.945 Z-0.327 F200.000
G1 X0.111 Y8.966 Z-0.329 F200.000
G1 X0.115 Y8.988 Z-0.331 F200.000
G1 X0.114 Y9.011 Z-0.333 F200.000
G1 X0.109 Y9.033 Z-0.336 F200.000
G1 X0.100 Y9.054 Z-0.338 F200.000
G1 X0.088 Y9.072 Z-0.340 F200.000
G1 X0.071 Y9.088 Z-0.342 F200.000
G1 X0.052 Y9.100 Z-0.344 F200.000
G1 X0.031 Y9.108 Z-0.346 F200.000
G1 X0.009 Y9.112 Z-0.349 F200.000
G1 X-0.013 Y9.112 Z-0.351 F200.000
G1 X-0.035 Y9.107 Z-0.353 F200.000
G1 X-0.056 Y9.098 Z-0.355 F200.000
G1 X-0.075 Y9.085 Z-0.357 F200.000
G1 X-0.090 Y9.069 Z-0.359 F200.000
G1 X-0.102 Y9.050 Z-0.361 F200.000
G1 X-0.111 Y9.029 Z-0.364 F200.000
G1 X-0.115 Y9.007 Z-0.366 F200.000
G1 X-0.114 Y8.984 Z-0.368 F200.000
G1 X-0.109 Y8.962 Z-0.370 F200.000
G1 X-0.100 Y8.941 Z-0.372 F200.000
G1 X-0.088 Y8.923 Z-0.374 F200.000
G1 X-0.071 Y8.907 Z-0.376 F200.000
G1 X-0.052 Y8.895 Z-0.379 F200.000
G1 X-0.031 Y8.887 Z-0.381 F200.000
G1 X-0.009 Y8.883 Z-0.383 F200.000
G1 X0.013 Y8.883 Z-0.385 F200.000
G1 X0.035 Y8.888 Z-0.387 F200.000
G1 X0.056 Y8.897 Z-0.389 F200.000
G1 X0.075 Y8.910 Z-0.391 F200.000
G1 X0.090 Y8.926 Z-0.394 F200.000
G1 X0.102 Y8.945 Z-0.396 F200.000
G1 X0.111 Y8.966 Z-0.398 F200.000
G1 X0.115 Y8.988 Z-0.400 F200.000
G1 X0.114 Y9.011 Z-0.402 F200.000
G1 X0.109 Y9.033 Z-0.404 F200.000
G1 X0.100 Y9.054 Z-0.406 F200.000
G1 X0.088 Y9.072 Z-0.409 F200.000
G1 X0.071 Y9.088 Z-0.411 F200.000
G1 X0.052 Y9.100 Z-0.413 F200.000
G1 X0.031 Y9.108 Z-0.415 F200.000
G1 X0.009 Y9.112 Z-0.417 F200.000
G1 X-0.013 Y9.112 Z-0.419 F200.000
G1 X-0.035 Y9.107 Z-0.422 F200.000
G1 X-0.056 Y9.098 Z-0.424 F200.000
G1 X-0.075 Y9.085 Z-0.426 F200.000
G1 X-0.090 Y9.069 Z-0.428 F200.000
G1 X-0.102 Y9.050 Z-0.430 F200.000
G1 X-0.111 Y9.029 Z-0.432 F200.000
G1 X-0.115 Y9.007 Z-0.434 F200.000
G1 X-0.114 Y8.984 Z-0.437 F200.000
G1 X-0.109 Y8.962 Z-0.439 F200.000
G1 X-0.100 Y8.941 Z-0.441 F200.000
G1 X-0.088 Y8.923 Z-0.443 F200.000
G1 X-0.071 Y8.907 Z-0.445 F200.000
G1 X-0.052 Y8.895 Z-0.447 F200.000
G1 X-0.031 Y8.887 Z-0.449 F200.000
G1 X-0.009 Y8.883 Z-0.452 F200.000
G1 X0.013 Y8.883 Z-0.454 F200.000
G1 X0.035 Y8.888 Z-0.456 F200.000
G1 X0.056 Y8.897 Z-0.458 F200.000
G1 X0.075 Y8.910 Z-0.460 F200.000
G1 X0.090 Y8.926 Z-0.462 F200.000
G1 X0.102 Y8.945 Z-0.464 F200.000
G1 X0.111 Y8.966 Z-0.467 F200.000
G1 X0.115 Y8.988 Z-0.469 F200.000
G1 X0.114 Y9.011 Z-0.471 F200.000
G1 X0.109 Y9.033 Z-0.473 F200.000
G1 X0.100 Y9.054 Z-0.475 F200.000
G1 X0.088 Y9.072 Z-0.477 F200.000
G1 X0.071 Y9.088 Z-0.479 F200.000
G1 X0.052 Y9.100 Z-0.482 F200.000
G1 X0.031 Y9.108 Z-0.484 F200.000
G1 X0.009 Y9.112 Z-0.486 F200.000
G1 X-0.013 Y9.112 Z-0.488 F200.000
G1 X-0.035 Y9.107 Z-0.490 F200.000
G1 X-0.056 Y9.098 Z-0.492 F200.000
G1 X-0.075 Y9.085 Z-0.495 F200.000
G1 X-0.090 Y9.069 Z-0.497 F200.000
G1 X-0.102 Y9.050 Z-0.499 F200.000
G1 X-0.111 Y9.029 Z-0.501 F200.000
G1 X-0.115 Y9.007 Z-0.503 F200.000
G1 X-0.114 Y8.984 Z-0.505 F200.000
G1 X-0.109 Y8.962 Z-0.507 F200.000
G1 X-0.100 Y8.941 Z-0.510 F200.000
G1 X-0.088 Y8.923 Z-0.512 F200.000
G1 X-0.071 Y8.907 Z-0.514 F200.000
G1 X-0.052 Y8.895 Z-0.516 F200.000
G1 X-0.031 Y8.887 Z-0.518 F200.000
G1 X-0.009 Y8.883 Z-0.520 F200.000
G1 X0.013 Y8.883 Z-0.522 F200.000
G1 X0.035 Y8.888 Z-0.525 F200.000
G1 X0.056 Y8.897 Z-0.527 F200.000
G1 X0.075 Y8.910 Z-0.529 F200.000
G1 X0.090 Y8.926 Z-0.531 F200.000
G1 X0.102 Y8.945 Z-0.533 F200.000
G1 X0.111 Y8.966 Z-0.535 F200.000
G1 X0.115 Y8.988 Z-0.537 F200.000
G1 X0.114 Y9.011 Z-0.540 F200.000
G1 X0.109 Y9.033 Z-0.542 F200.000
G1 X0.100 Y9.054 Z-0.544 F200.000
G1 X0.088 Y9.072 Z-0.546 F200.000
G1 X0.071 Y9.088 Z-0.548 F200.000
G1 X0.052 Y9.100 Z-0.550 F200.000
G1 X0.031 Y9.108 Z-0.552 F200.000
G1 X0.009 Y9.112 Z-0.555 F200.000
G1 X-0.013 Y9.112 Z-0.557 F200.000
G1 X-0.035 Y9.107 Z-0.559 F200.000
G1 X-0.056 Y9.098 Z-0.561 F200.000
G1 X-0.075 Y9.085 Z-0.563 F200.000
G1 X-0.090 Y9.069 Z-0.565 F200.000
G1 X-0.102 Y9.050 Z-0.568 F200.000
G1 X-0.111 Y9.029 Z-0.570 F200.000
G1 X-0.115 Y9.007 Z-0.572 F200.000
G1 X-0.114 Y8.984 Z-0.574 F200.000
G1 X-0.109 Y8.962 Z-0.576 F200.000
G1 X-0.100 Y8.941 Z-0.578 F200.000
G1 X-0.088 Y8.923 Z-0.580 F200.000
G1 X-0.071 Y8.907 Z-0.583 F200.000
G1 X-0.052 Y8.895 Z-0.585 F200.000
G1 X-0.031 Y8.887 Z-0.587 F200.000
G1 X-0.009 Y8.883 Z-0.589 F200.000
G1 X0.013 Y8.883 Z-0.591 F200.000
G1 X0.035 Y8.888 Z-0.593 F200.000
G1 X0.056 Y8.897 Z-0.595 F200.000
G1 X0.075 Y8.910 Z-0.598 F200.000
G1 X0.090 Y8.926 Z-0.600 F200.000
G1 X0.102 Y8.945 Z-0.602 F200.000
G1 X0.111 Y8.966 Z-0.604 F200.000
G1 X0.115 Y8.988 Z-0.606 F200.000
G1 X0.114 Y9.011 Z-0.608 F200.000
G1 X0.109 Y9.033 Z-0.610 F200.000
G1 X0.100 Y9.054 Z-0.613 F200.000
G1 X0.088 Y9.072 Z-0.615 F200.000
G1 X0.071 Y9.088 Z-0.617 F200.000
G1 X0.052 Y9.100 Z-0.619 F200.000
G1 X0.031 Y9.108 Z-0.621 F200.000
G1 X0.009 Y9.112 Z-0.623 F200.000
G1 X-0.013 Y9.112 Z-0.626 F200.000
G1 X-0.035 Y9.107 Z-0.628 F200.000
G1 X-0.056 Y9.098 Z-0.630 F200.000
G1 X-0.075 Y9.085 Z-0.632 F200.000
G1 X-0.090 Y9.069 Z-0.634 F200.000
G1 X-0.102 Y9.050 Z-0.636 F200.000
G1 X-0.111 Y9.029 Z-0.638 F200.000
G1 X-0.115 Y9.007 Z-0.641 F200.000
G1 X-0.114 Y8.984 Z-0.643 F200.000
G1 X-0.109 Y8.962 Z-0.645 F200.000
G1 X-0.100 Y8.941 Z-0.647 F200.000
G1 X-0.088 Y8.923 Z-0.649 F200.000
G1 X-0.071 Y8.907 Z-0.651 F200.000
G1 X-0.052 Y8.895 Z-0.653 F200.000
G1 X-0.031 Y8.887 Z-0.656 F200.000
G1 X-0.009 Y8.883 Z-0.658 F200.000
G1 X0.013 Y8.883 Z-0.660 F200.000
G1 X0.035 Y8.888 Z-0.662 F200.000
G1 X0.056 Y8.897 Z-0.664 F200.000
G1 X0.075 Y8.910 Z-0.666 F200.000
G1 X0.090 Y8.926 Z-0.668 F200.000
G1 X0.102 Y8.945 Z-0.671 F200.000
G1 X0.111 Y8.966 Z-0.673 F200.000
G1 X0.115 Y8.988 Z-0.675 F200.000
G1 X0.114 Y9.011 Z-0.677 F200.000
G1 X0.109 Y9.033 Z-0.679 F200.000
G1 X0.100 Y9.054 Z-0.681 F200.000
G1 X0.088 Y9.072 Z-0.683 F200.000
G1 X0.071 Y9.088 Z-0.686 F200.000
G1 X0.052 Y9.100 Z-0.688 F200.000
G1 X0.031 Y9.108 Z-0.690 F200.000
G1 X0.009 Y9.112 Z-0.692 F200.000
G1 X-0.013 Y9.112 Z-0.694 F200.000
G1 X-0.035 Y9.107 Z-0.696 F200.000
G1 X-0.056 Y9.098 Z-0.699 F200.000
G1 X-0.075 Y9.085 Z-0.701 F200.000
G1 X-0.090 Y9.069 Z-0.703 F200.000
G1 X-0.102 Y9.050 Z-0.705 F200.000
G1 X-0.111 Y9.029 Z-0.707 F200.000
G1 X-0.115 Y9.007 Z-0.709 F200.000
G1 X-0.114 Y8.984 Z-0.711 F200.000
G1 X-0.109 Y8.962 Z-0.714 F200.000
G1 X-0.100 Y8.941 Z-0.716 F200.000
G1 X-0.088 Y8.923 Z-0.718 F200.000
G1 X-0.071 Y8.907 Z-0.720 F200.000
G1 X-0.052 Y8.895 Z-0.722 F200.000
G1 X-0.031 Y8.887 Z-0.724 F200.000
G1 X-0.009 Y8.883 Z-0.726 F200.000
G1 X0.013 Y8.883 Z-0.729 F200.000
G1 X0.035 Y8.888 Z-0.731 F200.000
G1 X0.056 Y8.897 Z-0.733 F200.000
G1 X0.075 Y8.910 Z-0.735 F200.000
G1 X0.090 Y8.926 Z-0.737 F200.000
G1 X0.102 Y8.945 Z-0.739 F200.000
G1 X0.111 Y8.966 Z-0.741 F200.000
G1 X0.115 Y8.988 Z-0.744 F200.000
G1 X0.114 Y9.011 Z-0.746 F200.000
G1 X0.109 Y9.033 Z-0.748 F200.000
G1 X0.100 Y9.054 Z-0.750 F200.000
G1 X0.088 Y9.072 Z-0.752 F200.000
G1 X0.071 Y9.088 Z-0.754 F200.000
G1 X0.052 Y9.100 Z-0.756 F200.000
G1 X0.031 Y9.108 Z-0.759 F200.000
G1 X0.009 Y9.112 Z-0.761 F200.000
G1 X-0.013 Y9.112 Z-0.763 F200.000
G1 X-0.035 Y9.107 Z-0.765 F200.000
G1 X-0.056 Y9.098 Z-0.767 F200.000
G1 X-0.075 Y9.085 Z-0.769 F200.000
G1 X-0.090 Y9.069 Z-0.772 F200.000
G1 X-0.102 Y9.050 Z-0.774 F200.000
G1 X-0.111 Y9.029 Z-0.776 F200.000
G1 X-0.115 Y9.007 Z-0.778 F200.000
G1 X-0.114 Y8.984 Z-0.780 F200.000
G1 X-0.109 Y8.962 Z-0.782 F200.000
G1 X-0.100 Y8.941 Z-0.784 F200.000
G1 X-0.088 Y8.923 Z-0.787 F200.000
G1 X-0.071 Y8.907 Z-0.789 F200.000
G1 X-0.052 Y8.895 Z-0.791 F200.000
G1 X-0.031 Y8.887 Z-0.793 F200.000
G1 X-0.009 Y8.883 Z-0.795 F200.000
G1 X0.013 Y8.883 Z-0.797 F200.000
G1 X0.035 Y8.888 Z-0.799 F200.000
G1 X0.056 Y8.897 Z-0.802 F200.000
G1 X0.075 Y8.910 Z-0.804 F200.000
G1 X0.090 Y8.926 Z-0.806 F200.000
G1 X0.102 Y8.945 Z-0.808 F200.000
G1 X0.111 Y8.966 Z-0.810 F200.000
G1 X0.115 Y8.988 Z-0.812 F200.000
G1 X0.114 Y9.011 Z-0.814 F200.000
G1 X0.109 Y9.033 Z-0.817 F200.000
G1 X0.100 Y9.054 Z-0.819 F200.000
G1 X0.088 Y9.072 Z-0.821 F200.000
G1 X0.071 Y9.088 Z-0.823 F200.000
G1 X0.052 Y9.100 Z-0.825 F200.000
G1 X0.031 Y9.108 Z-0.827 F200.000
G1 X0.009 Y9.112 Z-0.829 F200.000
G1 X-0.013 Y9.112 Z-0.832 F200.000
G1 X-0.035 Y9.107 Z-0.834 F200.000
G1 X-0.056 Y9.098 Z-0.836 F200.000
G1 X-0.075 Y9.085 Z-0.838 F200.000
G1 X-0.090 Y9.069 Z-0.840 F200.000
G1 X-0.102 Y9.050 Z-0.842 F200.000
G1 X-0.111 Y9.029 Z-0.845 F200.000
G1 X-0.115 Y9.007 Z-0.847 F200.000
G1 X-0.114 Y8.984 Z-0.849 F200.000
G1 X-0.109 Y8.962 Z-0.851 F200.000
G1 X-0.100 Y8.941 Z-0.853 F200.000
G1 X-0.088 Y8.923 Z-0.855 F200.000
G1 X-0.071 Y8.907 Z-0.857 F200.000
G1 X-0.052 Y8.895 Z-0.860 F200.000
G1 X-0.031 Y8.887 Z-0.862 F200.000
G1 X-0.009 Y8.883 Z-0.864 F200.000
G1 X0.013 Y8.883 Z-0.866 F200.000
G1 X0.035 Y8.888 Z-0.868 F200.000
G1 X0.056 Y8.897 Z-0.870 F200.000
G1 X0.075 Y8.910 Z-0.872 F200.000
G1 X0.090 Y8.926 Z-0.875 F200.000
G1 X0.102 Y8.945 Z-0.877 F200.000
G1 X0.111 Y8.966 Z-0.879 F200.000
G1 X0.115 Y8.988 Z-0.881 F200.000
G1 X0.114 Y9.011 Z-0.883 F200.000
G1 X0.109 Y9.033 Z-0.885 F200.000
G1 X0.100 Y9.054 Z-0.887 F200.000
G1 X0.088 Y9.072 Z-0.890 F200.000
G1 X0.071 Y9.088 Z-0.892 F200.000
G1 X0.052 Y9.100 Z-0.894 F200.000
G1 X0.031 Y9.108 Z-0.896 F200.000
G1 X0.009 Y9.112 Z-0.898 F200.000
G1 X-0.013 Y9.112 Z-0.900 F200.000
G1 X-0.035 Y9.107 Z-0.903 F200.000
G1 X-0.056 Y9.098 Z-0.905 F200.000
G1 X-0.075 Y9.085 Z-0.907 F200.000
G1 X-0.090 Y9.069 Z-0.909 F200.000
G1 X-0.102 Y9.050 Z-0.911 F200.000
G1 X-0.111 Y9.029 Z-0.913 F200.000
G1 X-0.115 Y9.007 Z-0.915 F200.000
G1 X-0.114 Y8.984 Z-0.918 F200.000
G1 X-0.109 Y8.962 Z-0.920 F200.000
G1 X-0.100 Y8.941 Z-0.922 F200.000
G1 X-0.088 Y8.923 Z-0.924 F200.000
G1 X-0.071 Y8.907 Z-0.926 F200.000
G1 X-0.052 Y8.895 Z-0.928 F200.000
G1 X-0.031 Y8.887 Z-0.930 F200.000
G1 X-0.009 Y8.883 Z-0.933 F200.000
G1 X0.013 Y8.883 Z-0.935 F200.000
G1 X0.035 Y8.888 Z-0.937 F200.000
G1 X0.056 Y8.897 Z-0.939 F200.000
G1 X0.075 Y8.910 Z-0.941 F200.000
G1 X0.090 Y8.926 Z-0.943 F200.000
G1 X0.102 Y8.945 Z-0.945 F200.000
G1 X0.111 Y8.966 Z-0.948 F200.000
G1 X0.115 Y8.988 Z-0.950 F200.000
G1 X0.114 Y9.011 Z-0.952 F200.000
G1 X0.109 Y9.033 Z-0.954 F200.000
G1 X0.100 Y9.054 Z-0.956 F200.000
G1 X0.088 Y9.072 Z-0.958 F200.000
G1 X0.071 Y9.088 Z-0.960 F200.000
G1 X0.052 Y9.100 Z-0.963 F200.000
G1 X0.031 Y9.108 Z-0.965 F200.000
G1 X0.009 Y9.112 Z-0.967 F200.000
G1 X-0.013 Y9.112 Z-0.969 F200.000
G1 X-0.035 Y9.107 Z-0.971 F200.000
G1 X-0.056 Y9.098 Z-0.973 F200.000
G1 X-0.075 Y9.085 Z-0.976 F200.000
G1 X-0.090 Y9.069 Z-0.978 F200.000
G1 X-0.102 Y9.050 Z-0.980 F200.000
G1 X-0.111 Y9.029 Z-0.982 F200.000
G1 X-0.115 Y9.007 Z-0.984 F200.000
G1 X-0.114 Y8.984 Z-0.986 F200.000
G1 X-0.109 Y8.962 Z-0.988 F200.000
G1 X-0.100 Y8.941 Z-0.991 F200.000
G1 X-0.088 Y8.923 Z-0.993 F200.000
G1 X-0.071 Y8.907 Z-0.995 F200.000
G1 X-0.052 Y8.895 Z-0.997 F200.000
G1 X-0.031 Y8.887 Z-0.999 F200.000
G1 X-0.009 Y8.883 Z-1.000 F200.000
G1 X0.013 Y8.883 Z-1.000 F200.000
G1 X0.035 Y8.888 Z-1.000 F200.000
G1 X0.056 Y8.897 Z-1.000 F200.000
G1 X0.075 Y8.910 Z-1.000 F200.000
G1 X0.090 Y8.926 Z-1.000 F200.000
G1 X0.102 Y8.945 Z-1.000 F200.000
G1 X0.111 Y8.966 Z-1.000 F200.000
G1 X0.115 Y8.988 Z-1.000 F200.000
G1 X0.114 Y9.011 Z-1.000 F200.000
G1 X0.109 Y9.033 Z-1.000 F200.000
G1 X0.100 Y9.054 Z-1.000 F200.000
G1 X0.088 Y9.072 Z-1.000 F200.000
G1 X0.071 Y9.088 Z-1.000 F200.000
G1 X0.052 Y9.100 Z-1.000 F200.000
G1 X0.031 Y9.108 Z-1.000 F200.000
G1 X0.009 Y9.112 Z-1.000 F200.000
G1 X-0.013 Y9.112 Z-1.000 F200.000
G1 X-0.035 Y9.107 Z-1.000 F200.000
G1 X-0.056 Y9.098 Z-1.000 F200.000
G1 X-0.075 Y9.085 Z-1.000 F200.000
G1 X-0.090 Y9.069 Z-1.000 F200.000
G1 X-0.102 Y9.050 Z-1.000 F200.000
G1 X-0.111 Y9.029 Z-1.000 F200.000
G1 X-0.115 Y9.007 Z-1.000 F200.000
G1 X-0.114 Y8.984 Z-1.000 F200.000
G1 X-0.109 Y8.962 Z-1.000 F200.000
G1 X-0.100 Y8.941 Z-1.000 F200.000
G1 X-0.088 Y8.923 Z-1.000 F200.000
G1 X-0.071 Y8.907 Z-1.000 F200.000
G1 X-0.052 Y8.895 Z-1.000 F200.000
G1 X-0.031 Y8.887 Z-1.000 F200.000
(Adaptive - depth: -1.000000)
G1 X0.000 Y8.873 F200.000
G1 X0.035 Y8.855 F200.000
G1 X0.072 Y8.857 F200.000
G1 X0.107 Y8.873 F200.000
G1 X0.138 Y8.898 F200.000
G1 X0.160 Y8.928 F200.000
G1 X0.172 Y8.965 F200.000
G1 X0.177 Y9.002 F200.000
G1 X0.172 Y9.040 F200.000
G1 X0.158 Y9.078 F200.000
G1 X0.135 Y9.110 F200.000
G1 X0.105 Y9.137 F200.000
G1 X0.070 Y9.158 F200.000
G1 X0.030 Y9.170 F200.000
G1 X-0.007 Y9.172 F200.000
G1 X-0.045 Y9.168 F200.000
G1 X-0.083 Y9.152 F200.000
G1 X-0.115 Y9.130 F200.000
G1 X-0.142 Y9.100 F200.000
G1 X-0.163 Y9.065 F200.000
G1 X-0.175 Y9.025 F200.000
G1 X-0.177 Y8.985 F200.000
G1 X-0.170 Y8.945 F200.000
G1 X-0.155 Y8.908 F200.000
G1 X-0.105 Y8.842 F200.000
G1 X-0.072 Y8.818 F200.000
G1 X0.003 Y8.787 F200.000
G1 X0.040 Y8.783 F200.000
G1 X0.077 Y8.787 F200.000
G1 X0.113 Y8.803 F200.000
G1 X0.193 Y8.883 F200.000
G1 X0.220 Y8.955 F200.000
G1 X0.223 Y9.030 F200.000
G1 X0.198 Y9.105 F200.000
G1 X0.175 Y9.137 F200.000
G1 X0.115 Y9.193 F200.000
G1 X0.077 Y9.210 F200.000
G1 X0.037 Y9.220 F200.000
G1 X-0.037 Y9.220 F200.000
G1 X-0.113 Y9.195 F200.000
G1 X-0.198 Y9.113 F200.000
G1 X-0.223 Y9.035 F200.000
G1 X-0.223 Y8.955 F200.000
G1 X-0.210 Y8.915 F200.000
G1 X-0.190 Y8.877 F200.000
G1 X-0.133 Y8.820 F200.000
G1 X-0.100 Y8.795 F200.000
G1 X-0.020 Y8.775 F200.000
G1 X-0.020 Y8.775 F200.000
G1 X0.022 Y8.775 F200.000
G1 X0.022 Y8.775 F200.000
G1 X-0.003 Y8.755 F200.000
G1 X-0.003 Y8.755 F200.000
G1 X0.037 Y8.760 F200.000
G1 X0.037 Y8.760 F200.000
G1 X0.085 Y8.768 F200.000
G1 X0.122 Y8.785 F200.000
G1 X0.210 Y8.870 F200.000
G1 X0.223 Y8.895 F200.000
G1 X0.237 Y8.955 F200.000
G1 X0.240 Y9.030 F200.000
G1 X0.210 Y9.127 F200.000
G1 X0.125 Y9.210 F200.000
G1 X0.070 Y9.235 F200.000
G1 X-0.055 Y9.238 F200.000
G1 X-0.122 Y9.213 F200.000
G1 X-0.212 Y9.125 F200.000
G1 X-0.230 Y9.080 F200.000
G1 X-0.245 Y8.988 F200.000
G1 X-0.228 Y8.908 F200.000
G1 X-0.198 Y8.860 F200.000
G1 X-0.128 Y8.787 F200.000
G1 X-0.090 Y8.770 F200.000
G1 X-0.028 Y8.752 F200.000
G1 X0.040 Y8.758 F200.000
G1 X0.037 Y8.760 F200.000
G0 Z6.000
(Helix to depth: -1.000000)
G0 Z6.000
G0 X-0.088 Y-9.072 Z6.000
G0 X-0.088 Y-9.072 Z4.000
G1 X-0.088 Y-9.072 Z1.000 F200.000
G1 X-0.088 Y-9.072 Z1.000 F200.000
G1 X-0.071 Y-9.088 Z0.998 F200.000
G1 X-0.052 Y-9.100 Z0.996 F200.000
G1 X-0.031 Y-9.108 Z0.994 F200.000
G1 X-0.009 Y-9.112 Z0.991 F200.000
G1 X0.013 Y-9.112 Z0.989 F200.000
G1 X0.035 Y-9.107 Z0.987 F200.000
G1 X0.056 Y-9.098 Z0.985 F200.000
G1 X0.075 Y-9.085 Z0.983 F200.000
G1 X0.090 Y-9.069 Z0.981 F200.000
G1 X0.102 Y-9.050 Z0.979 F200.000
G1 X0.111 Y-9.029 Z0.976 F200.000
G1 X0.115 Y-9.007 Z0.974 F200.000
G1 X0.114 Y-8.984 Z0.972 F200.000
G1 X0.109 Y-8.962 Z0.970 F200.000
G1 X0.100 Y-8.941 Z0.968 F200.000
G1 X0.088 Y-8.923 Z0.966 F200.000
G1 X0.071 Y-8.907 Z0.963 F200.000
G1 X0.052 Y-8.895 Z0.961 F200.000
G1 X0.031 Y-8.887 Z0.959 F200.000
G1 X0.009 Y-8.883 Z0.957 F200.000
G1 X-0.013 Y-8.883 Z0.955 F200.000
G1 X-0.035 Y-8.888 Z0.953 F200.000
G1 X-0.056 Y-8.897 Z0.951 F200.000
G1 X-0.075 Y-8.910 Z0.948 F200.000
G1 X-0.090 Y-8.926 Z0.946 F200.000
G1 X-0.102 Y-8.945 Z0.944 F200.000
G1 X-0.111 Y-8.966 Z0.942 F200.000
G1 X-0.115 Y-8.988 Z0.940 F200.000
G1 X-0.114 Y-9.011 Z0.938 F200.000
G1 X-0.109 Y-9.033 Z0.936 F200.000
G1 X-0.100 Y-9.054 Z0.933 F200.000
G1 X-0.088 Y-9.072 Z0.931 F200.000
G1 X-0.071 Y-9.088 Z0.929 F200.000
G1 X-0.052 Y-9.100 Z0.927 F200.000
G1 X-0.031 Y-9.108 Z0.925 F200.000
G1 X-0.009 Y-9.112 Z0.923 F200.000
G1 X0.013 Y-9.112 Z0.921 F200.000
G1 X0.035 Y-9.107 Z0.918 F200.000
G1 X0.056 Y-9.098 Z0.916 F200.000
G1 X0.075 Y-9.085 Z0.914 F200.000
G1 X0.090 Y-9.069 Z0.912 F200.000
G1 X0.102 Y-9.050 Z0.910 F200.000
G1 X0.111 Y-9.029 Z0.908 F200.000
G1 X0.115 Y-9.007 Z0.906 F200.000
G1 X0.114 Y-8.984 Z0.903 F200.000
G1 X0.109 Y-8.962 Z0.901 F200.000
G1 X0.100 Y-8.941 Z0.899 F200.000
G1 X0.088 Y-8.923 Z0.897 F200.000
G1 X0.071 Y-8.907 Z0.895 F200.000
G1 X0.052 Y-8.895 Z0.893 F200.000
G1 X0.031 Y-8.887 Z0.890 F200.000
G1 X0.009 Y-8.883 Z0.888 F200.000
G1 X-0.013 Y-8.883 Z0.886 F200.000
G1 X-0.035 Y-8.888 Z0.884 F200.000
G1 X-0.056 Y-8.897 Z0.882 F200.000
G1 X-0.075 Y-8.910 Z0.880 F200.000
G1 X-0.090 Y-8.926 Z0.878 F200.000
G1 X-0.102 Y-8.945 Z0.875 F200.000
G1 X-0.111 Y-8.966 Z0.873 F200.000
G1 X-0.115 Y-8.988 Z0.871 F200.000
G1 X-0.114 Y-9.011 Z0.869 F200.000
G1 X-0.109 Y-9.033 Z0.867 F200.000
G1 X-0.100 Y-9.054 Z0.865 F200.000
G1 X-0.088 Y-9.072 Z0.863 F200.000
G1 X-0.071 Y-9.088 Z0.860 F200.000
G1 X-0.052 Y-9.100 Z0.858 F200.000
G1 X-0.031 Y-9.108 Z0.856 F200.000
G1 X-0.009 Y-9.112 Z0.854 F200.000
G1 X0.013 Y-9.112 Z0.852 F200.000
G1 X0.035 Y-9.107 Z0.850 F200.000
G1 X0.056 Y-9.098 Z0.848 F200.000
G1 X0.075 Y-9.085 Z0.845 F200.000
G1 X0.090 Y-9.069 Z0.843 F200.000
G1 X0.102 Y-9.050 Z0.841 F200.000
G1 X0.111 Y-9.029 Z0.839 F200.000
G1 X0.115 Y-9.007 Z0.837 F200.000
G1 X0.114 Y-8.984 Z0.835 F200.000
G1 X0.109 Y-8.962 Z0.833 F200.000
G1 X0.100 Y-8.941 Z0.830 F200.000
G1 X0.088 Y-8.923 Z0.828 F200.000
G1 X0.071 Y-8.907 Z0.826 F200.000
G1 X0.052 Y-8.895 Z0.824 F200.000
G1 X0.031 Y-8.887 Z0.822 F200.000
G1 X0.009 Y-8.883 Z0.820 F200.000
G1 X-0.013 Y-8.883 Z0.817 F200.000
G1 X-0.035 Y-8.888 Z0.815 F200.000
G1 X-0.056 Y-8.897 Z0.813 F200.000
G1 X-0.075 Y-8.910 Z0.811 F200.000
G1 X-0.090 Y-8.926 Z0.809 F200.000
G1 X-0.102 Y-8.945 Z0.807 F200.000
G1 X-0.111 Y-8.966 Z0.805 F200.000
G1 X-0.115 Y-8.988 Z0.802 F200.000
G1 X-0.114 Y-9.011 Z0.800 F200.000
G1 X-0.109 Y-9.033 Z0.798 F200.000
G1 X-0.100 Y-9.054 Z0.796 F200.000
G1 X-0.088 Y-9.072 Z0.794 F200.000
G1 X-0.071 Y-9.088 Z0.792 F200.000
G1 X-0.052 Y-9.100 Z0.790 F200.000
G1 X-0.031 Y-9.108 Z0.787 F200.000
G1 X-0.009 Y-9.112 Z0.785 F200.000
G1 X0.013 Y-9.112 Z0.783 F200.000
G1 X0.035 Y-9.107 Z0.781 F200.000
G1 X0.056 Y-9.098 Z0.779 F200.000
G1 X0.075 Y-9.085 Z0.777 F200.000
G1 X0.090 Y-9.069 Z0.775 F200.000
G1 X0.102 Y-9.050 Z0.772 F200.000
G1 X0.111 Y-9.029 Z0.770 F200.000
G1 X0.115 Y-9.007 Z0.768 F200.000
G1 X0.114 Y-8.984 Z0.766 F200.000
G1 X0.109 Y-8.962 Z0.764 F200.000
G1 X0.100 Y-8.941 Z0.762 F200.000
G1 X0.088 Y-8.923 Z0.760 F200.000
G1 X0.071 Y-8.907 Z0.757 F200.000
G1 X0.052 Y-8.895 Z0.755 F200.000
G1 X0.031 Y-8.887 Z0.753 F200.000
G1 X0.009 Y-8.883 Z0.751 F200.000
G1 X-0.013 Y-8.883 Z0.749 F200.000
G1 X-0.035 Y-8.888 Z0.747 F200.000
G1 X-0.056 Y-8.897 Z0.744 F200.000
G1 X-0.075 Y-8.910 Z0.742 F200.000
G1 X-0.090 Y-8.926 Z0.740 F200.000
G1 X-0.102 Y-8.945 Z0.738 F200.000
G1 X-0.111 Y-8.966 Z0.736 F200.000
G1 X-0.115 Y-8.988 Z0.734 F200.000
G1 X-0.114 Y-9.011 Z0.732 F200.000
G1 X-0.109 Y-9.033 Z0.729 F200.000
G1 X-0.100 Y-9.054 Z0.727 F200.000
G1 X-0.088 Y-9.072 Z0.725 F200.000
G1 X-0.071 Y-9.088 Z0.723 F200.000
G1 X-0.052 Y-9.100 Z0.721 F200.000
G1 X-0.031 Y-9.108 Z0.719 F200.000
G1 X-0.009 Y-9.112 Z0.717 F200.000
G1 X0.013 Y-9.112 Z0.714 F200.000
G1 X0.035 Y-9.107 Z0.712 F200.000
G1 X0.056 Y-9.098 Z0.710 F200.000
G1 X0.075 Y-9.085 Z0.708 F200.000
G1 X0.090 Y-9.069 Z0.706 F200.000
G1 X0.102 Y-9.050 Z0.704 F200.000
G1 X0.111 Y-9.029 Z0.702 F200.000
G1 X0.115 Y-9.007 Z0.699 F200.000
G1 X0.114 Y-8.984 Z0.697 F200.000
G1 X0.109 Y-8.962 Z0.695 F200.000
G1 X0.100 Y-8.941 Z0.693 F200.000
G1 X0.088 Y-8.923 Z0.691 F200.000
G1 X0.071 Y-8.907 Z0.689 F200.000
G1 X0.052 Y-8.895 Z0.686 F200.000
G1 X0.031 Y-8.887 Z0.684 F200.000
G1 X0.009 Y-8.883 Z0.682 F200.000
G1 X-0.013 Y-8.883 Z0.680 F200.000
G1 X-0.035 Y-8.888 Z0.678 F200.000
G1 X-0.056 Y-8.897 Z0.676 F200.000
G1 X-0.075 Y-8.910 Z0.674 F200.000
G1 X-0.090 Y-8.926 Z0.671 F200.000
G1 X-0.102 Y-8.945 Z0.669 F200.000
G1 X-0.111 Y-8.966 Z0.667 F200.000
G1 X-0.115 Y-8.988 Z0.665 F200.000
G1 X-0.114 Y-9.011 Z0.663 F200.000
G1 X-0.109 Y-9.033 Z0.661 F200.000
G1 X-0.100 Y-9.054 Z0.659 F200.000
G1 X-0.088 Y-9.072 Z0.656 F200.000
G1 X-0.071 Y-9.088 Z0.654 F200.000
G1 X-0.052 Y-9.100 Z0.652 F200.000
G1 X-0.031 Y-9.108 Z0.650 F200.000
G1 X-0.009 Y-9.112 Z0.648 F200.000
G1 X0.013 Y-9.112 Z0.646 F200.000
G1 X0.035 Y-9.107 Z0.644 F200.000
G1 X0.056 Y-9.098 Z0.641 F200.000
G1 X0.075 Y-9.085 Z0.639 F200.000
G1 X0.090 Y-9.069 Z0.637 F200.000
G1 X0.102 Y-9.050 Z0.635 F200.000
G1 X0.111 Y-9.029 Z0.633 F200.000
G1 X0.115 Y-9.007 Z0.631 F200.000
G1 X0.114 Y-8.984 Z0.629 F200.000
G1 X0.109 Y-8.962 Z0.626 F200.000
G1 X0.100 Y-8.941 Z0.624 F200.000
G1 X0.088 Y-8.923 Z0.622 F200.000
G1 X0.071 Y-8.907 Z0.620 F200.000
G1 X0.052 Y-8.895 Z0.618 F200.000
G1 X0.031 Y-8.887 Z0.616 F200.000
G1 X0.009 Y-8.883 Z0.613 F200.000
G1 X-0.013 Y-8.883 Z0.611 F200.000
G1 X-0.035 Y-8.888 Z0.609 F200.000
G1 X-0.056 Y-8.897 Z0.607 F200.000
G1 X-0.075 Y-8.910 Z0.605 F200.000
G1 X-0.090 Y-8.926 Z0.603 F200.000
G1 X-0.102 Y-8.945 Z0.601 F200.000
G1 X-0.111 Y-8.966 Z0.598 F200.000
G1 X-0.115 Y-8.988 Z0.596 F200.000
G1 X-0.114 Y-9.011 Z0.594 F200.000
G1 X-0.109 Y-9.033 Z0.592 F200.000
G1 X-0.100 Y-9.054 Z0.590 F200.000
G1 X-0.088 Y-9.072 Z0.588 F200.000
G1 X-0.071 Y-9.088 Z0.586 F200.000
G1 X-0.052 Y-9.100 Z0.583 F200.000
G1 X-0.031 Y-9.108 Z0.581 F200.000
G1 X-0.009 Y-9.112 Z0.579 F200.000
G1 X0.013 Y-9.112 Z0.577 F200.000
G1 X0.035 Y-9.107 Z0.575 F200.000
G1 X0.056 Y-9.098 Z0.573 F200.000
G1 X0.075 Y-9.085 Z0.571 F200.000
G1 X0.090 Y-9.069 Z0.568 F200.000
G1 X0.102 Y-9.050 Z0.566 F200.000
G1 X0.111 Y-9.029 Z0.564 F200.000
G1 X0.115 Y-9.007 Z0.562 F200.000
G1 X0.114 Y-8.984 Z0.560 F200.000
G1 X0.109 Y-8.962 Z0.558 F200.000
G1 X0.100 Y-8.941 Z0.556 F200.000
G1 X0.088 Y-8.923 Z0.553 F200.000
G1 X0.071 Y-8.907 Z0.551 F200.000
G1 X0.052 Y-8.895 Z0.549 F200.000
G1 X0.031 Y-8.887 Z0.547 F200.000
G1 X0.009 Y-8.883 Z0.545 F200.000
G1 X-0.013 Y-8.883 Z0.543 F200.000
G1 X-0.035 Y-8.888 Z0.540 F200.000
G1 X-0.056 Y-8.897 Z0.538 F200.000
G1 X-0.075 Y-8.910 Z0.536 F200.000
G1 X-0.090 Y-8.926 Z0.534 F200.000
G1 X-0.102 Y-8.945 Z0.532 F200.000
G1 X-0.111 Y-8.966 Z0.530 F200.000
G1 X-0.115 Y-8.988 Z0.528 F200.000
G1 X-0.114 Y-9.011 Z0.525 F200.000
G1 X-0.109 Y-9.033 Z0.523 F200.000
G1 X-0.100 Y-9.054 Z0.521 F200.000
G1 X-0.088 Y-9.072 Z0.519 F200.000
G1 X-0.071 Y-9.088 Z0.517 F200.000
G1 X-0.052 Y-9.100 Z0.515 F200.000
G1 X-0.031 Y-9.108 Z0.513 F200.000
G1 X-0.009 Y-9.112 Z0.510 F200.000
G1 X0.013 Y-9.112 Z0.508 F200.000
G1 X0.035 Y-9.107 Z0.506 F200.000
G1 X0.056 Y-9.098 Z0.504 F200.000
G1 X0.075 Y-9.085 Z0.502 F200.000
G1 X0.090 Y-9.069 Z0.500 F200.000
G1 X0.102 Y-9.050 Z0.498 F200.000
G1 X0.111 Y-9.029 Z0.495 F200.000
G1 X0.115 Y-9.007 Z0.493 F200.000
G1 X0.114 Y-8.984 Z0.491 F200.000
G1 X0.109 Y-8.962 Z0.489 F200.000
G1 X0.100 Y-8.941 Z0.487 F200.000
G1 X0.088 Y-8.923 Z0.485 F200.000
G1 X0.071 Y-8.907 Z0.483 F200.000
G1 X0.052 Y-8.895 Z0.480 F200.000
G1 X0.031 Y-8.887 Z0.478 F200.000
G1 X0.009 Y-8.883 Z0.476 F200.000
G1 X-0.013 Y-8.883 Z0.474 F200.000
G1 X-0.035 Y-8.888 Z0.472 F200.000
G1 X-0.056 Y-8.897 Z0.470 F200.000
G1 X-0.075 Y-8.910 Z0.467 F200.000
G1 X-0.090 Y-8.926 Z0.465 F200.000
G1 X-0.102 Y-8.945 Z0.463 F200.000
G1 X-0.111 Y-8.966 Z0.461 F200.000
G1 X-0.115 Y-8.988 Z0.459 F200.000
G1 X-0.114 Y-9.011 Z0.457 F200.000
G1 X-0.109 Y-9.033 Z0.455 F200.000
G1 X-0.100 Y-9.054 Z0.452 F200.000
G1 X-0.088 Y-9.072 Z0.450 F200.000
G1 X-0.071 Y-9.088 Z0.448 F200.000
G1 X-0.052 Y-9.100 Z0.446 F200.000
G1 X-0.031 Y-9.108 Z0.444 F200.000
G1 X-0.009 Y-9.112 Z0.442 F200.000
G1 X0.013 Y-9.112 Z0.440 F200.000
G1 X0.035 Y-9.107 Z0.437 F200.000
G1 X0.056 Y-9.098 Z0.435 F200.000
G1 X0.075 Y-9.085 Z0.433 F200.000
G1 X0.090 Y-9.069 Z0.431 F200.000
G1 X0.102 Y-9.050 Z0.429 F200.000
G1 X0.111 Y-9.029 Z0.427 F200.000
G1 X0.115 Y-9.007 Z0.425 F200.000
G1 X0.114 Y-8.984 Z0.422 F200.000
G1 X0.109 Y-8.962 Z0.420 F200.000
G1 X0.100 Y-8.941 Z0.418 F200.000
G1 X0.088 Y-8.923 Z0.416 F200.000
G1 X0.071 Y-8.907 Z0.414 F200.000
G1 X0.052 Y-8.895 Z0.412 F200.000
G1 X0.031 Y-8.887 Z0.409 F200.000
G1 X0.009 Y-8.883 Z0.407 F200.000
G1 X-0.013 Y-8.883 Z0.405 F200.000
G1 X-0.035 Y-8.888 Z0.403 F200.000
G1 X-0.056 Y-8.897 Z0.401 F200.000
G1 X-0.075 Y-8.910 Z0.399 F200.000
G1 X-0.090 Y-8.926 Z0.397 F200.000
G1 X-0.102 Y-8.945 Z0.394 F200.000
G1 X-0.111 Y-8.966 Z0.392 F200.000
G1 X-0.115 Y-8.988 Z0.390 F200.000
G1 X-0.114 Y-9.011 Z0.388 F200.000
G1 X-0.109 Y-9.033 Z0.386 F200.000
G1 X-0.100 Y-9.054 Z0.384 F200.000
G1 X-0.088 Y-9.072 Z0.382 F200.000
G1 X-0.071 Y-9.088 Z0.379 F200.000
G1 X-0.052 Y-9.100 Z0.377 F200.000
G1 X-0.031 Y-9.108 Z0.375 F200.000
G1 X-0.009 Y-9.112 Z0.373 F200.000
G1 X0.013 Y-9.112 Z0.371 F200.000
G1 X0.035 Y-9.107 Z0.369 F200.000
G1 X0.056 Y-9.098 Z0.367 F200.000
G1 X0.075 Y-9.085 Z0.364 F200.000
G1 X0.090 Y-9.069 Z0.362 F200.000
G1 X0.102 Y-9.050 Z0.360 F200.000
G1 X0.111 Y-9.029 Z0.358 F200.000
G1 X0.115 Y-9.007 Z0.356 F200.000
G1 X0.114 Y-8.984 Z0.354 F200.000
G1 X0.109 Y-8.962 Z0.352 F200.000
G1 X0.100 Y-8.941 Z0.349 F200.000
G1 X0.088 Y-8.923 Z0.347 F200.000
G1 X0.071 Y-8.907 Z0.345 F200.000
G1 X0.052 Y-8.895 Z0.343 F200.000
G1 X0.031 Y-8.887 Z0.341 F200.000
G1 X0.009 Y-8.883 Z0.339 F200.000
G1 X-0.013 Y-8.883 Z0.336 F200.000
G1 X-0.035 Y-8.888 Z0.334 F200.000
G1 X-0.056 Y-8.897 Z0.332 F200.000
G1 X-0.075 Y-8.910 Z0.330 F200.000
G1 X-0.090 Y-8.926 Z0.328 F200.000
G1 X-0.102 Y-8.945 Z0.326 F200.000
G1 X-0.111 Y-8.966 Z0.324 F200.000
G1 X-0.115 Y-8.988 Z0.321 F200.000
G1 X-0.114 Y-9.011 Z0.319 F200.000
G1 X-0.109 Y-9.033 Z0.317 F200.000
G1 X-0.100 Y-9.054 Z0.315 F200.000
G1 X-0.088 Y-9.072 Z0.313 F200.000
G1 X-0.071 Y-9.088 Z0.311 F200.000
G1 X-0.052 Y-9.100 Z0.309 F200.000
G1 X-0.031 Y-9.108 Z0.306 F200.000
G1 X-0.009 Y-9.112 Z0.304 F200.000
G1 X0.013 Y-9.112 Z0.302 F200.000
G1 X0.035 Y-9.107 Z0.300 F200.000
G1 X0.056 Y-9.098 Z0.298 F200.000
G1 X0.075 Y-9.085 Z0.296 F200.000
G1 X0.090 Y-9.069 Z0.294 F200.000
G1 X0.102 Y-9.050 Z0.291 F200.000
G1 X0.111 Y-9.029 Z0.289 F200.000
G1 X0.115 Y-9.007 Z0.287 F200.000
G1 X0.114 Y-8.984 Z0.285 F200.000
G1 X0.109 Y-8.962 Z0.283 F200.000
G1 X0.100 Y-8.941 Z0.281 F200.000
G1 X0.088 Y-8.923 Z0.279 F200.000
G1 X0.071 Y-8.907 Z0.276 F200.000
G1 X0.052 Y-8.895 Z0.274 F200.000
G1 X0.031 Y-8.887 Z0.272 F200.000
G1 X0.009 Y-8.883 Z0.270 F200.000
G1 X-0.013 Y-8.883 Z0.268 F200.000
G1 X-0.035 Y-8.888 Z0.266 F200.000
G1 X-0.056 Y-8.897 Z0.263 F200.000
G1 X-0.075 Y-8.910 Z0.261 F200.000
G1 X-0.090 Y-8.926 Z0.259 F200.000
G1 X-0.102 Y-8.945 Z0.257 F200.000
G1 X-0.111 Y-8.966 Z0.255 F200.000
G1 X-0.115 Y-8.988 Z0.253 F200.000
G1 X-0.114 Y-9.011 Z0.251 F200.000
G1 X-0.109 Y-9.033 Z0.248 F200.000
G1 X-0.100 Y-9.054 Z0.246 F200.000
G1 X-0.088 Y-9.072 Z0.244 F200.000
G1 X-0.071 Y-9.088 Z0.242 F200.000
G1 X-0.052 Y-9.100 Z0.240 F200.000
G1 X-0.031 Y-9.108 Z0.238 F200.000
G1 X-0.009 Y-9.112 Z0.236 F200.000
G1 X0.013 Y-9.112 Z0.233 F200.000
G1 X0.035 Y-9.107 Z0.231 F200.000
G1 X0.056 Y-9.098 Z0.229 F200.000
G1 X0.075 Y-9.085 Z0.227 F200.000
G1 X0.090 Y-9.069 Z0.225 F200.000
G1 X0.102 Y-9.050 Z0.223 F200.000
G1 X0.111 Y-9.029 Z0.221 F200.000
G1 X0.115 Y-9.007 Z0.218 F200.000
G1 X0.114 Y-8.984 Z0.216 F200.000
G1 X0.109 Y-8.962 Z0.214 F200.000
G1 X0.100 Y-8.941 Z0.212 F200.000
G1 X0.088 Y-8.923 Z0.210 F200.000
G1 X0.071 Y-8.907 Z0.208 F200.000
G1 X0.052 Y-8.895 Z0.206 F200.000
G1 X0.031 Y-8.887 Z0.203 F200.000
G1 X0.009 Y-8.883 Z0.201 F200.000
G1 X-0.013 Y-8.883 Z0.199 F200.000
G1 X-0.035 Y-8.888 Z0.197 F200.000
G1 X-0.056 Y-8.897 Z0.195 F200.000
G1 X-0.075 Y-8.910 Z0.193 F200.000
G1 X-0.090 Y-8.926 Z0.190 F200.000
G1 X-0.102 Y-8.945 Z0.188 F200.000
G1 X-0.111 Y-8.966 Z0.186 F200.000
G1 X-0.115 Y-8.988 Z0.184 F200.000
G1 X-0.114 Y-9.011 Z0.182 F200.000
G1 X-0.109 Y-9.033 Z0.180 F200.000
G1 X-0.100 Y-9.054 Z0.178 F200.000
G1 X-0.088 Y-9.072 Z0.175 F200.000
G1 X-0.071 Y-9.088 Z0.173 F200.000
G1 X-0.052 Y-9.100 Z0.171 F200.000
G1 X-0.031 Y-9.108 Z0.169 F200.000
G1 X-0.009 Y-9.112 Z0.167 F200.000
G1 X0.013 Y-9.112 Z0.165 F200.000
G1 X0.035 Y-9.107 Z0.163 F200.000
G1 X0.056 Y-9.098 Z0.160 F200.000
G1 X0.075 Y-9.085 Z0.158 F200.000
G1 X0.090 Y-9.069 Z0.156 F200.000
G1 X0.102 Y-9.050 Z0.154 F200.000
G1 X0.111 Y-9.029 Z0.152 F200.000
G1 X0.115 Y-9.007 Z0.150 F200.000
G1 X0.114 Y-8.984 Z0.148 F200.000
G1 X0.109 Y-8.962 Z0.145 F200.000
G1 X0.100 Y-8.941 Z0.143 F200.000
G1 X0.088 Y-8.923 Z0.141 F200.000
G1 X0.071 Y-8.907 Z0.139 F200.000
G1 X0.052 Y-8.895 Z0.137 F200.000
G1 X0.031 Y-8.887 Z0.135 F200.000
G1 X0.009 Y-8.883 Z0.132 F200.000
G1 X-0.013 Y-8.883 Z0.130 F200.000
G1 X-0.035 Y-8.888 Z0.128 F200.000
G1 X-0.056 Y-8.897 Z0.126 F200.000
G1 X-0.075 Y-8.910 Z0.124 F200.000
G1 X-0.090 Y-8.926 Z0.122 F200.000
G1 X-0.102 Y-8.945 Z0.120 F200.000
G1 X-0.111 Y-8.966 Z0.117 F200.000
G1 X-0.115 Y-8.988 Z0.115 F200.000
G1 X-0.114 Y-9.011 Z0.113 F200.000
G1 X-0.109 Y-9.033 Z0.111 F200.000
G1 X-0.100 Y-9.054 Z0.109 F200.000
G1 X-0.088 Y-9.072 Z0.107 F200.000
G1 X-0.071 Y-9.088 Z0.105 F200.000
G1 X-0.052 Y-9.100 Z0.102 F200.000
G1 X-0.031 Y-9.108 Z0.100 F200.000
G1 X-0.009 Y-9.112 Z0.098 F200.000
G1 X0.013 Y-9.112 Z0.096 F200.000
G1 X0.035 Y-9.107 Z0.094 F200.000
G1 X0.056 Y-9.098 Z0.092 F200.000
G1 X0.075 Y-9.085 Z0.090 F200.000
G1 X0.090 Y-9.069 Z0.087 F200.000
G1 X0.102 Y-9.050 Z0.085 F200.000
G1 X0.111 Y-9.029 Z0.083 F200.000
G1 X0.115 Y-9.007 Z0.081 F200.000
G1 X0.114 Y-8.984 Z0.079 F200.000
G1 X0.109 Y-8.962 Z0.077 F200.000
G1 X0.100 Y-8.941 Z0.075 F200.000
G1 X0.088 Y-8.923 Z0.072 F200.000
G1 X0.071 Y-8.907 Z0.070 F200.000
G1 X0.052 Y-8.895 Z0.068 F200.000
G1 X0.031 Y-8.887 Z0.066 F200.000
G1 X0.009 Y-8.883 Z0.064 F200.000
G1 X-0.013 Y-8.883 Z0.062 F200.000
G1 X-0.035 Y-8.888 Z0.059 F200.000
G1 X-0.056 Y-8.897 Z0.057 F200.000
G1 X-0.075 Y-8.910 Z0.055 F200.000
G1 X-0.090 Y-8.926 Z0.053 F200.000
G1 X-0.102 Y-8.945 Z0.051 F200.000
G1 X-0.111 Y-8.966 Z0.049 F200.000
G1 X-0.115 Y-8.988 Z0.047 F200.000
G1 X-0.114 Y-9.011 Z0.044 F200.000
G1 X-0.109 Y-9.033 Z0.042 F200.000
G1 X-0.100 Y-9.054 Z0.040 F200.000
G1 X-0.088 Y-9.072 Z0.038 F200.000
G1 X-0.071 Y-9.088 Z0.036 F200.000
G1 X-0.052 Y-9.100 Z0.034 F200.000
G1 X-0.031 Y-9.108 Z0.032 F200.000
G1 X-0.009 Y-9.112 Z0.029 F200.000
G1 X0.013 Y-9.112 Z0.027 F200.000
G1 X0.035 Y-9.107 Z0.025 F200.000
G1 X0.056 Y-9.098 Z0.023 F200.000
G1 X0.075 Y-9.085 Z0.021 F200.000
G1 X0.090 Y-9.069 Z0.019 F200.000
G1 X0.102 Y-9.050 Z0.017 F200.000
G1 X0.111 Y-9.029 Z0.014 F200.000
G1 X0.115 Y-9.007 Z0.012 F200.000
G1 X0.114 Y-8.984 Z0.010 F200.000
G1 X0.109 Y-8.962 Z0.008 F200.000
G1 X0.100 Y-8.941 Z0.006 F200.000
G1 X0.088 Y-8.923 Z0.004 F200.000
G1 X0.071 Y-8.907 Z0.002 F200.000
G1 X0.052 Y-8.895 Z-0.001 F200.000
G1 X0.031 Y-8.887 Z-0.003 F200.000
G1 X0.009 Y-8.883 Z-0.005 F200.000
G1 X-0.013 Y-8.883 Z-0.007 F200.000
G1 X-0.035 Y-8.888 Z-0.009 F200.000
G1 X-0.056 Y-8.897 Z-0.011 F200.000
G1 X-0.075 Y-8.910 Z-0.014 F200.000
G1 X-0.090 Y-8.926 Z-0.016 F200.000
G1 X-0.102 Y-8.945 Z-0.018 F200.000
G1 X-0.111 Y-8.966 Z-0.020 F200.000
G1 X-0.115 Y-8.988 Z-0.022 F200.000
G1 X-0.114 Y-9.011 Z-0.024 F200.000
G1 X-0.109 Y-9.033 Z-0.026 F200.000
G1 X-0.100 Y-9.054 Z-0.029 F200.000
G1 X-0.088 Y-9.072 Z-0.031 F200.000
G1 X-0.071 Y-9.088 Z-0.033 F200.000
G1 X-0.052 Y-9.100 Z-0.035 F200.000
G1 X-0.031 Y-9.108 Z-0.037 F200.000
G1 X-0.009 Y-9.112 Z-0.039 F200.000
G1 X0.013 Y-9.112 Z-0.041 F200.000
G1 X0.035 Y-9.107 Z-0.044 F200.000
G1 X0.056 Y-9.098 Z-0.046 F200.000
G1 X0.075 Y-9.085 Z-0.048 F200.000
G1 X0.090 Y-9.069 Z-0.050 F200.000
G1 X0.102 Y-9.050 Z-0.052 F200.000
G1 X0.111 Y-9.029 Z-0.054 F200.000
G1 X0.115 Y-9.007 Z-0.056 F200.000
G1 X0.114 Y-8.984 Z-0.059 F200.000
G1 X0.109 Y-8.962 Z-0.061 F200.000
G1 X0.100 Y-8.941 Z-0.063 F200.000
G1 X0.088 Y-8.923 Z-0.065 F200.000
G1 X0.071 Y-8.907 Z-0.067 F200.000
G1 X0.052 Y-8.895 Z-0.069 F200.000
G1 X0.031 Y-8.887 Z-0.072 F200.000
G1 X0.009 Y-8.883 Z-0.074 F200.000
G1 X-0.013 Y-8.883 Z-0.076 F200.000
G1 X-0.035 Y-8.888 Z-0.078 F200.000
G1 X-0.056 Y-8.897 Z-0.080 F200.000
G1 X-0.075 Y-8.910 Z-0.082 F200.000
G1 X-0.090 Y-8.926 Z-0.084 F200.000
G1 X-0.102 Y-8.945 Z-0.087 F200.000
G1 X-0.111 Y-8.966 Z-0.089 F200.000
G1 X-0.115 Y-8.988 Z-0.091 F200.000
G1 X-0.114 Y-9.011 Z-0.093 F200.000
G1 X-0.109 Y-9.033 Z-0.095 F200.000
G1 X-0.100 Y-9.054 Z-0.097 F200.000
G1 X-0.088 Y-9.072 Z-0.099 F200.000
G1 X-0.071 Y-9.088 Z-0.102 F200.000
G1 X-0.052 Y-9.100 Z-0.104 F200.000
G1 X-0.031 Y-9.108 Z-0.106 F200.000
G1 X-0.009 Y-9.112 Z-0.108 F200.000
G1 X0.013 Y-9.112 Z-0.110 F200.000
G1 X0.035 Y-9.107 Z-0.112 F200.000
G1 X0.056 Y-9.098 Z-0.114 F200.000
G1 X0.075 Y-9.085 Z-0.117 F200.000
G1 X0.090 Y-9.069 Z-0.119 F200.000
G1 X0.102 Y-9.050 Z-0.121 F200.000
G1 X0.111 Y-9.029 Z-0.123 F200.000
G1 X0.115 Y-9.007 Z-0.125 F200.000
G1 X0.114 Y-8.984 Z-0.127 F200.000
G1 X0.109 Y-8.962 Z-0.129 F200.000
G1 X0.100 Y-8.941 Z-0.132 F200.000
G1 X0.088 Y-8.923 Z-0.134 F200.000
G1 X0.071 Y-8.907 Z-0.136 F200.000
G1 X0.052 Y-8.895 Z-0.138 F200.000
G1 X0.031 Y-8.887 Z-0.140 F200.000
G1 X0.009 Y-8.883 Z-0.142 F200.000
G1 X-0.013 Y-8.883 Z-0.145 F200.000
G1 X-0.035 Y-8.888 Z-0.147 F200.000
G1 X-0.056 Y-8.897 Z-0.149 F200.000
G1 X-0.075 Y-8.910 Z-0.151 F200.000
G1 X-0.090 Y-8.926 Z-0.153 F200.000
G1 X-0.102 Y-8.945 Z-0.155 F200.000
G1 X-0.111 Y-8.966 Z-0.157 F200.000
G1 X-0.115 Y-8.988 Z-0.160 F200.000
G1 X-0.114 Y-9.011 Z-0.162 F200.000
G1 X-0.109 Y-9.033 Z-0.164 F200.000
G1 X-0.100 Y-9.054 Z-0.166 F200.000
G1 X-0.088 Y-9.072 Z-0.168 F200.000
G1 X-0.071 Y-9.088 Z-0.170 F200.000
G1 X-0.052 Y-9.100 Z-0.172 F200.000
G1 X-0.031 Y-9.108 Z-0.175 F200.000
G1 X-0.009 Y-9.112 Z-0.177 F200.000
G1 X0.013 Y-9.112 Z-0.179 F200.000
G1 X0.035 Y-9.107 Z-0.181 F200.000
G1 X0.056 Y-9.098 Z-0.183 F200.000
G1 X0.075 Y-9.085 Z-0.185 F200.000
G1 X0.090 Y-9.069 Z-0.187 F200.000
G1 X0.102 Y-9.050 Z-0.190 F200.000
G1 X0.111 Y-9.029 Z-0.192 F200.000
G1 X0.115 Y-9.007 Z-0.194 F200.000
G1 X0.114 Y-8.984 Z-0.196 F200.000
G1 X0.109 Y-8.962 Z-0.198 F200.000
G1 X0.100 Y-8.941 Z-0.200 F200.000
G1 X0.088 Y-8.923 Z-0.202 F200.000
G1 X0.071 Y-8.907 Z-0.205 F200.000
G1 X0.052 Y-8.895 Z-0.207 F200.000
G1 X0.031 Y-8.887 Z-0.209 F200.000
G1 X0.009 Y-8.883 Z-0.211 F200.000
G1 X-0.013 Y-8.883 Z-0.213 F200.000
G1 X-0.035 Y-8.888 Z-0.215 F200.000
G1 X-0.056 Y-8.897 Z-0.218 F200.000
G1 X-0.075 Y-8.910 Z-0.220 F200.000
G1 X-0.090 Y-8.926 Z-0.222 F200.000
G1 X-0.102 Y-8.945 Z-0.224 F200.000
G1 X-0.111 Y-8.966 Z-0.226 F200.000
G1 X-0.115 Y-8.988 Z-0.228 F200.000
G1 X-0.114 Y-9.011 Z-0.230 F200.000
G1 X-0.109 Y-9.033 Z-0.233 F200.000
G1 X-0.100 Y-9.054 Z-0.235 F200.000
G1 X-0.088 Y-9.072 Z-0.237 F200.000
G1 X-0.071 Y-9.088 Z-0.239 F200.000
G1 X-0.052 Y-9.100 Z-0.241 F200.000
G1 X-0.031 Y-9.108 Z-0.243 F200.000
G1 X-0.009 Y-9.112 Z-0.245 F200.000
G1 X0.013 Y-9.112 Z-0.248 F200.000
G1 X0.035 Y-9.107 Z-0.250 F200.000
G1 X0.056 Y-9.098 Z-0.252 F200.000
G1 X0.075 Y-9.085 Z-0.254 F200.000
G1 X0.090 Y-9.069 Z-0.256 F200.000
G1 X0.102 Y-9.050 Z-0.258 F200.000
G1 X0.111 Y-9.029 Z-0.260 F200.000
G1 X0.115 Y-9.007 Z-0.263 F200.000
G1 X0.114 Y-8.984 Z-0.265 F200.000
G1 X0.109 Y-8.962 Z-0.267 F200.000
G1 X0.100 Y-8.941 Z-0.269 F200.000
G1 X0.088 Y-8.923 Z-0.271 F200.000
G1 X0.071 Y-8.907 Z-0.273 F200.000
G1 X0.052 Y-8.895 Z-0.275 F200.000
G1 X0.031 Y-8.887 Z-0.278 F200.000
G1 X0.009 Y-8.883 Z-0.280 F200.000
G1 X-0.013 Y-8.883 Z-0.282 F200.000
G1 X-0.035 Y-8.888 Z-0.284 F200.000
G1 X-0.056 Y-8.897 Z-0.286 F200.000
G1 X-0.075 Y-8.910 Z-0.288 F200.000
G1 X-0.090 Y-8.926 Z-0.291 F200.000
G1 X-0.102 Y-8.945 Z-0.293 F200.000
G1 X-0.111 Y-8.966 Z-0.295 F200.000
G1 X-0.115 Y-8.988 Z-0.297 F200.000
G1 X-0.114 Y-9.011 Z-0.299 F200.000
G1 X-0.109 Y-9.033 Z-0.301 F200.000
G1 X-0.100 Y-9.054 Z-0.303 F200.000
G1 X-0.088 Y-9.072 Z-0.306 F200.000
G1 X-0.071 Y-9.088 Z-0.308 F200.000
G1 X-0.052 Y-9.100 Z-0.310 F200.000
G1 X-0.031 Y-9.108 Z-0.312 F200.000
G1 X-0.009 Y-9.112 Z-0.314 F200.000
G1 X0.013 Y-9.112 Z-0.316 F200.000
G1 X0.035 Y-9.107 Z-0.318 F200.000
G1 X0.056 Y-9.098 Z-0.321 F200.000
G1 X0.075 Y-9.085 Z-0.323 F200.000
G1 X0.090 Y-9.069 Z-0.325 F200.000
G1 X0.102 Y-9.050 Z-0.327 F200.000
G1 X0.111 Y-9.029 Z-0.329 F200.000
G1 X0.115 Y-9.007 Z-0.331 F200.000
G1 X0.114 Y-8.984 Z-0.333 F200.000
G1 X0.109 Y-8.962 Z-0.336 F200.000
G1 X0.100 Y-8.941 Z-0.338 F200.000
G1 X0.088 Y-8.923 Z-0.340 F200.000
G1 X0.071 Y-8.907 Z-0.342 F200.000
G1 X0.052 Y-8.895 Z-0.344 F200.000
G1 X0.031 Y-8.887 Z-0.346 F200.000
G1 X0.009 Y-8.883 Z-0.349 F200.000
G1 X-0.013 Y-8.883 Z-0.351 F200.000
G1 X-0.035 Y-8.888 Z-0.353 F200.000
G1 X-0.056 Y-8.897 Z-0.355 F200.000
G1 X-0.075 Y-8.910 Z-0.357 F200.000
G1 X-0.090 Y-8.926 Z-0.359 F200.000
G1 X-0.102 Y-8.945 Z-0.361 F200.000
G1 X-0.111 Y-8.966 Z-0.364 F200.000
G1 X-0.115 Y-8.988 Z-0.366 F200.000
G1 X-0.114 Y-9.011 Z-0.368 F200.000
G1 X-0.109 Y-9.033 Z-0.370 F200.000
G1 X-0.100 Y-9.054 Z-0.372 F200.000
G1 X-0.088 Y-9.072 Z-0.374 F200.000
G1 X-0.071 Y-9.088 Z-0.376 F200.000
G1 X-0.052 Y-9.100 Z-0.379 F200.000
G1 X-0.031 Y-9.108 Z-0.381 F200.000
G1 X-0.009 Y-9.112 Z-0.383 F200.000
G1 X0.013 Y-9.112 Z-0.385 F200.000
G1 X0.035 Y-9.107 Z-0.387 F200.000
G1 X0.056 Y-9.098 Z-0.389 F200.000
G1 X0.075 Y-9.085 Z-0.391 F200.000
G1 X0.090 Y-9.069 Z-0.394 F200.000
G1 X0.102 Y-9.050 Z-0.396 F200.000
G1 X0.111 Y-9.029 Z-0.398 F200.000
G1 X0.115 Y-9.007 Z-0.400 F200.000
G1 X0.114 Y-8.984 Z-0.402 F200.000
G1 X0.109 Y-8.962 Z-0.404 F200.000
G1 X0.100 Y-8.941 Z-0.406 F200.000
G1 X0.088 Y-8.923 Z-0.409 F200.000
G1 X0.071 Y-8.907 Z-0.411 F200.000
G1 X0.052 Y-8.895 Z-0.413 F200.000
G1 X0.031 Y-8.887 Z-0.415 F200.000
G1 X0.009 Y-8.883 Z-0.417 F200.000
G1 X-0.013 Y-8.883 Z-0.419 F200.000
G1 X-0.035 Y-8.888 Z-0.422 F200.000
G1 X-0.056 Y-8.897 Z-0.424 F200.000
G1 X-0.075 Y-8.910 Z-0.426 F200.000
G1 X-0.090 Y-8.926 Z-0.428 F200.000
G1 X-0.102 Y-8.945 Z-0.430 F200.000
G1 X-0.111 Y-8.966 Z-0.432 F200.000
G1 X-0.115 Y-8.988 Z-0.434 F200.000
G1 X-0.114 Y-9.011 Z-0.437 F200.000
G1 X-0.109 Y-9.033 Z-0.439 F200.000
G1 X-0.100 Y-9.054 Z-0.441 F200.000
G1 X-0.088 Y-9.072 Z-0.443 F200.000
G1 X-0.071 Y-9.088 Z-0.445 F200.000
G1 X-0.052 Y-9.100 Z-0.447 F200.000
G1 X-0.031 Y-9.108 Z-0.449 F200.000
G1 X-0.009 Y-9.112 Z-0.452 F200.000
G1 X0.013 Y-9.112 Z-0.454 F200.000
G1 X0.035 Y-9.107 Z-0.456 F200.000
G1 X0.056 Y-9.098 Z-0.458 F200.000
G1 X0.075 Y-9.085 Z-0.460 F200.000
G1 X0.090 Y-9.069 Z-0.462 F200.000
G1 X0.102 Y-9.050 Z-0.464 F200.000
G1 X0.111 Y-9.029 Z-0.467 F200.000
G1 X0.115 Y-9.007 Z-0.469 F200.000
G1 X0.114 Y-8.984 Z-0.471 F200.000
G1 X0.109 Y-8.962 Z-0.473 F200.000
G1 X0.100 Y-8.941 Z-0.475 F200.000
G1 X0.088 Y-8.923 Z-0.477 F200.000
G1 X0.071 Y-8.907 Z-0.479 F200.000
G1 X0.052 Y-8.895 Z-0.482 F200.000
G1 X0.031 Y-8.887 Z-0.484 F200.000
G1 X0.009 Y-8.883 Z-0.486 F200.000
G1 X-0.013 Y-8.883 Z-0.488 F200.000
G1 X-0.035 Y-8.888 Z-0.490 F200.000
G1 X-0.056 Y-8.897 Z-0.492 F200.000
G1 X-0.075 Y-8.910 Z-0.495 F200.000
G1 X-0.090 Y-8.926 Z-0.497 F200.000
G1 X-0.102 Y-8.945 Z-0.499 F200.000
G1 X-0.111 Y-8.966 Z-0.501 F200.000
G1 X-0.115 Y-8.988 Z-0.503 F200.000
G1 X-0.114 Y-9.011 Z-0.505 F200.000
G1 X-0.109 Y-9.033 Z-0.507 F200.000
G1 X-0.100 Y-9.054 Z-0.510 F200.000
G1 X-0.088 Y-9.072 Z-0.512 F200.000
G1 X-0.071 Y-9.088 Z-0.514 F200.000
G1 X-0.052 Y-9.100 Z-0.516 F200.000
G1 X-0.031 Y-9.108 Z-0.518 F200.000
G1 X-0.009 Y-9.112 Z-0.520 F200.000
G1 X0.013 Y-9.112 Z-0.522 F200.000
G1 X0.035 Y-9.107 Z-0.525 F200.000
G1 X0.056 Y-9.098 Z-0.527 F200.000
G1 X0.075 Y-9.085 Z-0.529 F200.000
G1 X0.090 Y-9.069 Z-0.531 F200.000
G1 X0.102 Y-9.050 Z-0.533 F200.000
G1 X0.111 Y-9.029 Z-0.535 F200.000
G1 X0.115 Y-9.007 Z-0.537 F200.000
G1 X0.114 Y-8.984 Z-0.540 F200.000
G1 X0.109 Y-8.962 Z-0.542 F200.000
G1 X0.100 Y-8.941 Z-0.544 F200.000
G1 X0.088 Y-8.923 Z-0.546 F200.000
G1 X0.071 Y-8.907 Z-0.548 F200.000
G1 X0.052 Y-8.895 Z-0.550 F200.000
G1 X0.031 Y-8.887 Z-0.552 F200.000
G1 X0.009 Y-8.883 Z-0.555 F200.000
G1 X-0.013 Y-8.883 Z-0.557 F200.000
G1 X-0.035 Y-8.888 Z-0.559 F200.000
G1 X-0.056 Y-8.897 Z-0.561 F200.000
G1 X-0.075 Y-8.910 Z-0.563 F200.000
G1 X-0.090 Y-8.926 Z-0.565 F200.000
G1 X-0.102 Y-8.945 Z-0.568 F200.000
G1 X-0.111 Y-8.966 Z-0.570 F200.000
G1 X-0.115 Y-8.988 Z-0.572 F200.000
G1 X-0.114 Y-9.011 Z-0.574 F200.000
G1 X-0.109 Y-9.033 Z-0.576 F200.000
G1 X-0.100 Y-9.054 Z-0.578 F200.000
G1 X-0.088 Y-9.072 Z-0.580 F200.000
G1 X-0.071 Y-9.088 Z-0.583 F200.000
G1 X-0.052 Y-9.100 Z-0.585 F200.000
G1 X-0.031 Y-9.108 Z-0.587 F200.000
G1 X-0.009 Y-9.112 Z-0.589 F200.000
G1 X0.013 Y-9.112 Z-0.591 F200.000
G1 X0.035 Y-9.107 Z-0.593 F200.000
G1 X0.056 Y-9.098 Z-0.595 F200.000
G1 X0.075 Y-9.085 Z-0.598 F200.000
G1 X0.090 Y-9.069 Z-0.600 F200.000
G1 X0.102 Y-9.050 Z-0.602 F200.000
G1 X0.111 Y-9.029 Z-0.604 F200.000
G1 X0.115 Y-9.007 Z-0.606 F200.000
G1 X0.114 Y-8.984 Z-0.608 F200.000
G1 X0.109 Y-8.962 Z-0.610 F200.000
G1 X0.100 Y-8.941 Z-0.613 F200.000
G1 X0.088 Y-8.923 Z-0.615 F200.000
G1 X0.071 Y-8.907 Z-0.617 F200.000
G1 X0.052 Y-8.895 Z-0.619 F200.000
G1 X0.031 Y-8.887 Z-0.621 F200.000
G1 X0.009 Y-8.883 Z-0.623 F200.000
G1 X-0.013 Y-8.883 Z-0.626 F200.000
G1 X-0.035 Y-8.888 Z-0.628 F200.000
G1 X-0.056 Y-8.897 Z-0.630 F200.000
G1 X-0.075 Y-8.910 Z-0.632 F200.000
G1 X-0.090 Y-8.926 Z-0.634 F200.000
G1 X-0.102 Y-8.945 Z-0.636 F200.000
G1 X-0.111 Y-8.966 Z-0.638 F200.000
G1 X-0.115 Y-8.988 Z-0.641 F200.000
G1 X-0.114 Y-9.011 Z-0.643 F200.000
G1 X-0.109 Y-9.033 Z-0.645 F200.000
G1 X-0.100 Y-9.054 Z-0.647 F200.000
G1 X-0.088 Y-9.072 Z-0.649 F200.000
G1 X-0.071 Y-9.088 Z-0.651 F200.000
G1 X-0.052 Y-9.100 Z-0.653 F200.000
G1 X-0.031 Y-9.108 Z-0.656 F200.000
G1 X-0.009 Y-9.112 Z-0.658 F200.000
G1 X0.013 Y-9.112 Z-0.660 F200.000
G1 X0.035 Y-9.107 Z-0.662 F200.000
G1 X0.056 Y-9.098 Z-0.664 F200.000
G1 X0.075 Y-9.085 Z-0.666 F200.000
G1 X0.090 Y-9.069 Z-0.668 F200.000
G1 X0.102 Y-9.050 Z-0.671 F200.000
G1 X0.111 Y-9.029 Z-0.673 F200.000
G1 X0.115 Y-9.007 Z-0.675 F200.000
G1 X0.114 Y-8.984 Z-0.677 F200.000
G1 X0.109 Y-8.962 Z-0.679 F200.000
G1 X0.100 Y-8.941 Z-0.681 F200.000
G1 X0.088 Y-8.923 Z-0.683 F200.000
G1 X0.071 Y-8.907 Z-0.686 F200.000
G1 X0.052 Y-8.895 Z-0.688 F200.000
G1 X0.031 Y-8.887 Z-0.690 F200.000
G1 X0.009 Y-8.883 Z-0.692 F200.000
G1 X-0.013 Y-8.883 Z-0.694 F200.000
G1 X-0.035 Y-8.888 Z-0.696 F200.000
G1 X-0.056 Y-8.897 Z-0.699 F200.000
G1 X-0.075 Y-8.910 Z-0.701 F200.000
G1 X-0.090 Y-8.926 Z-0.703 F200.000
G1 X-0.102 Y-8.945 Z-0.705 F200.000
G1 X-0.111 Y-8.966 Z-0.707 F200.000
G1 X-0.115 Y-8.988 Z-0.709 F200.000
G1 X-0.114 Y-9.011 Z-0.711 F200.000
G1 X-0.109 Y-9.033 Z-0.714 F200.000
G1 X-0.100 Y-9.054 Z-0.716 F200.000
G1 X-0.088 Y-9.072 Z-0.718 F200.000
G1 X-0.071 Y-9.088 Z-0.720 F200.000
G1 X-0.052 Y-9.100 Z-0.722 F200.000
G1 X-0.031 Y-9.108 Z-0.724 F200.000
G1 X-0.009 Y-9.112 Z-0.726 F200.000
G1 X0.013 Y-9.112 Z-0.729 F200.000
G1 X0.035 Y-9.107 Z-0.731 F200.000
G1 X0.056 Y-9.098 Z-0.733 F200.000
G1 X0.075 Y-9.085 Z-0.735 F200.000
G1 X0.090 Y-9.069 Z-0.737 F200.000
G1 X0.102 Y-9.050 Z-0.739 F200.000
G1 X0.111 Y-9.029 Z-0.741 F200.000
G1 X0.115 Y-9.007 Z-0.744 F200.000
G1 X0.114 Y-8.984 Z-0.746 F200.000
G1 X0.109 Y-8.962 Z-0.748 F200.000
G1 X0.100 Y-8.941 Z-0.750 F200.000
G1 X0.088 Y-8.923 Z-0.752 F200.000
G1 X0.071 Y-8.907 Z-0.754 F200.000
G1 X0.052 Y-8.895 Z-0.756 F200.000
G1 X0.031 Y-8.887 Z-0.759 F200.000
G1 X0.009 Y-8.883 Z-0.761 F200.000
G1 X-0.013 Y-8.883 Z-0.763 F200.000
G1 X-0.035 Y-8.888 Z-0.765 F200.000
G1 X-0.056 Y-8.897 Z-0.767 F200.000
G1 X-0.075 Y-8.910 Z-0.769 F200.000
G1 X-0.090 Y-8.926 Z-0.772 F200.000
G1 X-0.102 Y-8.945 Z-0.774 F200.000
G1 X-0.111 Y-8.966 Z-0.776 F200.000
G1 X-0.115 Y-8.988 Z-0.778 F200.000
G1 X-0.114 Y-9.011 Z-0.780 F200.000
G1 X-0.109 Y-9.033 Z-0.782 F200.000
G1 X-0.100 Y-9.054 Z-0.784 F200.000
G1 X-0.088 Y-9.072 Z-0.787 F200.000
G1 X-0.071 Y-9.088 Z-0.789 F200.000
G1 X-0.052 Y-9.100 Z-0.791 F200.000
G1 X-0.031 Y-9.108 Z-0.793 F200.000
G1 X-0.009 Y-9.112 Z-0.795 F200.000
G1 X0.013 Y-9.112 Z-0.797 F200.000
G1 X0.035 Y-9.107 Z-0.799 F200.000
G1 X0.056 Y-9.098 Z-0.802 F200.000
G1 X0.075 Y-9.085 Z-0.804 F200.000
G1 X0.090 Y-9.069 Z-0.806 F200.000
G1 X0.102 Y-9.050 Z-0.808 F200.000
G1 X0.111 Y-9.029 Z-0.810 F200.000
G1 X0.115 Y-9.007 Z-0.812 F200.000
G1 X0.114 Y-8.984 Z-0.814 F200.000
G1 X0.109 Y-8.962 Z-0.817 F200.000
G1 X0.100 Y-8.941 Z-0.819 F200.000
G1 X0.088 Y-8.923 Z-0.821 F200.000
G1 X0.071 Y-8.907 Z-0.823 F200.000
G1 X0.052 Y-8.895 Z-0.825 F200.000
G1 X0.031 Y-8.887 Z-0.827 F200.000
G1 X0.009 Y-8.883 Z-0.829 F200.000
G1 X-0.013 Y-8.883 Z-0.832 F200.000
G1 X-0.035 Y-8.888 Z-0.834 F200.000
G1 X-0.056 Y-8.897 Z-0.836 F200.000
G1 X-0.075 Y-8.910 Z-0.838 F200.000
G1 X-0.090 Y-8.926 Z-0.840 F200.000
G1 X-0.102 Y-8.945 Z-0.842 F200.000
G1 X-0.111 Y-8.966 Z-0.845 F200.000
G1 X-0.115 Y-8.988 Z-0.847 F200.000
G1 X-0.114 Y-9.011 Z-0.849 F200.000
G1 X-0.109 Y-9.033 Z-0.851 F200.000
G1 X-0.100 Y-9.054 Z-0.853 F200.000
G1 X-0.088 Y-9.072 Z-0.855 F200.000
G1 X-0.071 Y-9.088 Z-0.857 F200.000
G1 X-0.052 Y-9.100 Z-0.860 F200.000
G1 X-0.031 Y-9.108 Z-0.862 F200.000
G1 X-0.009 Y-9.112 Z-0.864 F200.000
G1 X0.013 Y-9.112 Z-0.866 F200.000
G1 X0.035 Y-9.107 Z-0.868 F200.000
G1 X0.056 Y-9.098 Z-0.870 F200.000
G1 X0.075 Y-9.085 Z-0.872 F200.000
G1 X0.090 Y-9.069 Z-0.875 F200.000
G1 X0.102 Y-9.050 Z-0.877 F200.000
G1 X0.111 Y-9.029 Z-0.879 F200.000
G1 X0.115 Y-9.007 Z-0.881 F200.000
G1 X0.114 Y-8.984 Z-0.883 F200.000
G1 X0.109 Y-8.962 Z-0.885 F200.000
G1 X0.100 Y-8.941 Z-0.887 F200.000
G1 X0.088 Y-8.923 Z-0.890 F200.000
G1 X0.071 Y-8.907 Z-0.892 F200.000
G1 X0.052 Y-8.895 Z-0.894 F200.000
G1 X0.031 Y-8.887 Z-0.896 F200.000
G1 X0.009 Y-8.883 Z-0.898 F200.000
G1 X-0.013 Y-8.883 Z-0.900 F200.000
G1 X-0.035 Y-8.888 Z-0.903 F200.000
G1 X-0.056 Y-8.897 Z-0.905 F200.000
G1 X-0.075 Y-8.910 Z-0.907 F200.000
G1 X-0.090 Y-8.926 Z-0.909 F200.000
G1 X-0.102 Y-8.945 Z-0.911 F200.000
G1 X-0.111 Y-8.966 Z-0.913 F200.000
G1 X-0.115 Y-8.988 Z-0.915 F200.000
G1 X-0.114 Y-9.011 Z-0.918 F200.000
G1 X-0.109 Y-9.033 Z-0.920 F200.000
G1 X-0.100 Y-9.054 Z-0.922 F200.000
G1 X-0.088 Y-9.072 Z-0.924 F200.000
G1 X-0.071 Y-9.088 Z-0.926 F200.000
G1 X-0.052 Y-9.100 Z-0.928 F200.000
G1 X-0.031 Y-9.108 Z-0.930 F200.000
G1 X-0.009 Y-9.112 Z-0.933 F200.000
G1 X0.013 Y-9.112 Z-0.935 F200.000
G1 X0.035 Y-9.107 Z-0.937 F200.000
G1 X0.056 Y-9.098 Z-0.939 F200.000
G1 X0.075 Y-9.085 Z-0.941 F200.000
G1 X0.090 Y-9.069 Z-0.943 F200.000
G1 X0.102 Y-9.050 Z-0.945 F200.000
G1 X0.111 Y-9.029 Z-0.948 F200.000
G1 X0.115 Y-9.007 Z-0.950 F200.000
G1 X0.114 Y-8.984 Z-0.952 F200.000
G1 X0.109 Y-8.962 Z-0.954 F200.000
G1 X0.100 Y-8.941 Z-0.956 F200.000
G1 X0.088 Y-8.923 Z-0.958 F200.000
G1 X0.071 Y-8.907 Z-0.960 F200.000
G1 X0.052 Y-8.895 Z-0.963 F200.000
G1 X0.031 Y-8.887 Z-0.965 F200.000
G1 X0.009 Y-8.883 Z-0.967 F200.000
G1 X-0.013 Y-8.883 Z-0.969 F200.000
G1 X-0.035 Y-8.888 Z-0.971 F200.000
G1 X-0.056 Y-8.897 Z-0.973 F200.000
G1 X-0.075 Y-8.910 Z-0.976 F200.000
G1 X-0.090 Y-8.926 Z-0.978 F200.000
G1 X-0.102 Y-8.945 Z-0.980 F200.000
G1 X-0.111 Y-8.966 Z-0.982 F200.000
G1 X-0.115 Y-8.988 Z-0.984 F200.000
G1 X-0.114 Y-9.011 Z-0.986 F200.000
G1 X-0.109 Y-9.033 Z-0.988 F200.000
G1 X-0.100 Y-9.054 Z-0.991 F200.000
G1 X-0.088 Y-9.072 Z-0.993 F200.000
G1 X-0.071 Y-9.088 Z-0.995 F200.000
G1 X-0.052 Y-9.100 Z-0.997 F200.000
G1 X-0.031 Y-9.108 Z-0.999 F200.000
G1 X-0.009 Y-9.112 Z-1.000 F200.000
G1 X0.013 Y-9.112 Z-1.000 F200.000
G1 X0.035 Y-9.107 Z-1.000 F200.000
G1 X0.056 Y-9.098 Z-1.000 F200.000
G1 X0.075 Y-9.085 Z-1.000 F200.000
G1 X0.090 Y-9.069 Z-1.000 F200.000
G1 X0.102 Y-9.050 Z-1.000 F200.000
G1 X0.111 Y-9.029 Z-1.000 F200.000
G1 X0.115 Y-9.007 Z-1.000 F200.000
G1 X0.114 Y-8.984 Z-1.000 F200.000
G1 X0.109 Y-8.962 Z-1.000 F200.000
G1 X0.100 Y-8.941 Z-1.000 F200.000
G1 X0.088 Y-8.923 Z-1.000 F200.000
G1 X0.071 Y-8.907 Z-1.000 F200.000
G1 X0.052 Y-8.895 Z-1.000 F200.000
G1 X0.031 Y-8.887 Z-1.000 F200.000
G1 X0.009 Y-8.883 Z-1.000 F200.000
G1 X-0.013 Y-8.883 Z-1.000 F200.000
G1 X-0.035 Y-8.888 Z-1.000 F200.000
G1 X-0.056 Y-8.897 Z-1.000 F200.000
G1 X-0.075 Y-8.910 Z-1.000 F200.000
G1 X-0.090 Y-8.926 Z-1.000 F200.000
G1 X-0.102 Y-8.945 Z-1.000 F200.000
G1 X-0.111 Y-8.966 Z-1.000 F200.000
G1 X-0.115 Y-8.988 Z-1.000 F200.000
G1 X-0.114 Y-9.011 Z-1.000 F200.000
G1 X-0.109 Y-9.033 Z-1.000 F200.000
G1 X-0.100 Y-9.054 Z-1.000 F200.000
G1 X-0.088 Y-9.072 Z-1.000 F200.000
G1 X-0.071 Y-9.088 Z-1.000 F200.000
G1 X-0.052 Y-9.100 Z-1.000 F200.000
G1 X-0.031 Y-9.108 Z-1.000 F200.000
(Adaptive - depth: -1.000000)
G1 X0.000 Y-9.123 F200.000
G1 X0.035 Y-9.137 F200.000
G1 X0.072 Y-9.133 F200.000
G1 X0.107 Y-9.115 F200.000
G1 X0.138 Y-9.088 F200.000
G1 X0.158 Y-9.053 F200.000
G1 X0.170 Y-9.012 F200.000
G1 X0.172 Y-8.973 F200.000
G1 X0.163 Y-8.932 F200.000
G1 X0.142 Y-8.895 F200.000
G1 X0.115 Y-8.863 F200.000
G1 X0.080 Y-8.838 F200.000
G1 X0.043 Y-8.822 F200.000
G1 X0.003 Y-8.815 F200.000
G1 X-0.035 Y-8.815 F200.000
G1 X-0.072 Y-8.825 F200.000
G1 X-0.107 Y-8.842 F200.000
G1 X-0.135 Y-8.867 F200.000
G1 X-0.158 Y-8.900 F200.000
G1 X-0.182 Y-8.973 F200.000
G1 X-0.182 Y-9.010 F200.000
G1 X-0.175 Y-9.047 F200.000
G1 X-0.158 Y-9.082 F200.000
G1 X-0.105 Y-9.145 F200.000
G1 X-0.033 Y-9.185 F200.000
G1 X0.005 Y-9.195 F200.000
G1 X0.080 Y-9.190 F200.000
G1 X0.150 Y-9.155 F200.000
G1 X0.180 Y-9.127 F200.000
G1 X0.205 Y-9.095 F200.000
G1 X0.223 Y-9.015 F200.000
G1 X0.223 Y-8.975 F200.000
G1 X0.200 Y-8.895 F200.000
G1 X0.115 Y-8.805 F200.000
G1 X0.077 Y-8.787 F200.000
G1 X0.037 Y-8.777 F200.000
G1 X-0.037 Y-8.777 F200.000
G1 X-0.110 Y-8.803 F200.000
G1 X-0.195 Y-8.880 F200.000
G1 X-0.225 Y-8.990 F200.000
G1 X-0.225 Y-9.027 F200.000
G1 X-0.203 Y-9.102 F200.000
G1 X-0.120 Y-9.188 F200.000
G1 X-0.085 Y-9.207 F200.000
G1 X-0.048 Y-9.220 F200.000
G1 X0.030 Y-9.223 F200.000
G1 X0.105 Y-9.197 F200.000
G1 X0.138 Y-9.175 F200.000
G1 X0.138 Y-9.175 F200.000
G1 X0.168 Y-9.145 F200.000
G1 X0.168 Y-9.145 F200.000
G1 X0.158 Y-9.170 F200.000
G1 X0.158 Y-9.170 F200.000
G1 X0.190 Y-9.143 F200.000
G1 X0.190 Y-9.143 F200.000
G1 X0.210 Y-9.127 F200.000
G1 X0.223 Y-9.102 F200.000
G1 X0.237 Y-9.043 F200.000
G1 X0.240 Y-8.967 F200.000
G1 X0.210 Y-8.870 F200.000
G1 X0.125 Y-8.787 F200.000
G1 X0.070 Y-8.762 F200.000
G1 X-0.055 Y-8.760 F200.000
G1 X-0.122 Y-8.785 F200.000
G1 X-0.212 Y-8.873 F200.000
G1 X-0.230 Y-8.918 F200.000
G1 X-0.245 Y-9.010 F200.000
G1 X-0.228 Y-9.090 F200.000
G1 X-0.198 Y-9.137 F200.000
G1 X-0.128 Y-9.210 F200.000
G1 X-0.090 Y-9.227 F200.000
G1 X-0.015 Y-9.245 F200.000
G1 X0.085 Y-9.230 F200.000
G1 X0.122 Y-9.213 F200.000
G1 X0.193 Y-9.145 F200.000
G1 X0.190 Y-9.143 F200.000
G0 Z6.000
(Helix to depth: -3.000000)
G0 Z6.000
G0 X-0.088 Y8.923 Z6.000
G0 X-0.088 Y8.923 Z4.000
G1 X-0.088 Y8.923 Z-1.000 F200.000
G1 X-0.088 Y8.923 Z-1.000 F200.000
G1 X-0.071 Y8.907 Z-1.002 F200.000
G1 X-0.052 Y8.895 Z-1.004 F200.000
G1 X-0.031 Y8.887 Z-1.006 F200.000
G1 X-0.009 Y8.883 Z-1.009 F200.000
G1 X0.013 Y8.883 Z-1.011 F200.000
G1 X0.035 Y8.888 Z-1.013 F200.000
G1 X0.056 Y8.897 Z-1.015 F200.000
G1 X0.075 Y8.910 Z-1.017 F200.000
G1 X0.090 Y8.926 Z-1.019 F200.000
G1 X0.102 Y8.945 Z-1.021 F200.000
G1 X0.111 Y8.966 Z-1.024 F200.000
G1 X0.115 Y8.988 Z-1.026 F200.000
G1 X0.114 Y9.011 Z-1.028 F200.000
G1 X0.109 Y9.033 Z-1.030 F200.000
G1 X0.100 Y9.054 Z-1.032 F200.000
G1 X0.088 Y9.072 Z-1.034 F200.000
G1 X0.071 Y9.088 Z-1.037 F200.000
G1 X0.052 Y9.100 Z-1.039 F200.000
G1 X0.031 Y9.108 Z-1.041 F200.000
G1 X0.009 Y9.112 Z-1.043 F200.000
G1 X-0.013 Y9.112 Z-1.045 F200.000
G1 X-0.035 Y9.107 Z-1.047 F200.000
G1 X-0.056 Y9.098 Z-1.049 F200.000
G1 X-0.075 Y9.085 Z-1.052 F200.000
G1 X-0.090 Y9.069 Z-1.054 F200.000
G1 X-0.102 Y9.050 Z-1.056 F200.000
G1 X-0.111 Y9.029 Z-1.058 F200.000
G1 X-0.115 Y9.007 Z-1.060 F200.000
G1 X-0.114 Y8.984 Z-1.062 F200.000
G1 X-0.109 Y8.962 Z-1.064 F200.000
G1 X-0.100 Y8.941 Z-1.067 F200.000
G1 X-0.088 Y8.923 Z-1.069 F200.000
G1 X-0.071 Y8.907 Z-1.071 F200.000
G1 X-0.052 Y8.895 Z-1.073 F200.000
G1 X-0.031 Y8.887 Z-1.075 F200.000
G1 X-0.009 Y8.883 Z-1.077 F200.000
G1 X0.013 Y8.883 Z-1.079 F200.000
G1 X0.035 Y8.888 Z-1.082 F200.000
G1 X0.056 Y8.897 Z-1.084 F200.000
G1 X0.075 Y8.910 Z-1.086 F200.000
G1 X0.090 Y8.926 Z-1.088 F200.000
G1 X0.102 Y8.945 Z-1.090 F200.000
G1 X0.111 Y8.966 Z-1.092 F200.000
G1 X0.115 Y8.988 Z-1.094 F200.000
G1 X0.114 Y9.011 Z-1.097 F200.000
G1 X0.109 Y9.033 Z-1.099 F200.000
G1 X0.100 Y9.054 Z-1.101 F200.000
G1 X0.088 Y9.072 Z-1.103 F200.000
G1 X0.071 Y9.088 Z-1.105 F200.000
G1 X0.052 Y9.100 Z-1.107 F200.000
G1 X0.031 Y9.108 Z-1.110 F200.000
G1 X0.009 Y9.112 Z-1.112 F200.000
G1 X-0.013 Y9.112 Z-1.114 F200.000
G1 X-0.035 Y9.107 Z-1.116 F200.000
G1 X-0.056 Y9.098 Z-1.118 F200.000
G1 X-0.075 Y9.085 Z-1.120 F200.000
G1 X-0.090 Y9.069 Z-1.122 F200.000
G1 X-0.102 Y9.050 Z-1.125 F200.000
G1 X-0.111 Y9.029 Z-1.127 F200.000
G1 X-0.115 Y9.007 Z-1.129 F200.000
G1 X-0.114 Y8.984 Z-1.131 F200.000
G1 X-0.109 Y8.962 Z-1.133 F200.000
G1 X-0.100 Y8.941 Z-1.135 F200.000
G1 X-0.088 Y8.923 Z-1.137 F200.000
G1 X-0.071 Y8.907 Z-1.140 F200.000
G1 X-0.052 Y8.895 Z-1.142 F200.000
G1 X-0.031 Y8.887 Z-1.144 F200.000
G1 X-0.009 Y8.883 Z-1.146 F200.000
G1 X0.013 Y8.883 Z-1.148 F200.000
G1 X0.035 Y8.888 Z-1.150 F200.000
G1 X0.056 Y8.897 Z-1.152 F200.000
G1 X0.075 Y8.910 Z-1.155 F200.000
G1 X0.090 Y8.926 Z-1.157 F200.000
G1 X0.102 Y8.945 Z-1.159 F200.000
G1 X0.111 Y8.966 Z-1.161 F200.000
G1 X0.115 Y8.988 Z-1.163 F200.000
G1 X0.114 Y9.011 Z-1.165 F200.000
G1 X0.109 Y9.033 Z-1.167 F200.000
G1 X0.100 Y9.054 Z-1.170 F200.000
G1 X0.088 Y9.072 Z-1.172 F200.000
G1 X0.071 Y9.088 Z-1.174 F200.000
G1 X0.052 Y9.100 Z-1.176 F200.000
G1 X0.031 Y9.108 Z-1.178 F200.000
G1 X0.009 Y9.112 Z-1.180 F200.000
G1 X-0.013 Y9.112 Z-1.183 F200.000
G1 X-0.035 Y9.107 Z-1.185 F200.000
G1 X-0.056 Y9.098 Z-1.187 F200.000
G1 X-0.075 Y9.085 Z-1.189 F200.000
G1 X-0.090 Y9.069 Z-1.191 F200.000
G1 X-0.102 Y9.050 Z-1.193 F200.000
G1 X-0.111 Y9.029 Z-1.195 F200.000
G1 X-0.115 Y9.007 Z-1.198 F200.000
G1 X-0.114 Y8.984 Z-1.200 F200.000
G1 X-0.109 Y8.962 Z-1.202 F200.000
G1 X-0.100 Y8.941 Z-1.204 F200.000
G1 X-0.088 Y8.923 Z-1.206 F200.000
G1 X-0.071 Y8.907 Z-1.208 F200.000
G1 X-0.052 Y8.895 Z-1.210 F200.000
G1 X-0.031 Y8.887 Z-1.213 F200.000
G1 X-0.009 Y8.883 Z-1.215 F200.000
G1 X0.013 Y8.883 Z-1.217 F200.000
G1 X0.035 Y8.888 Z-1.219 F200.000
G1 X0.056 Y8.897 Z-1.221 F200.000
G1 X0.075 Y8.910 Z-1.223 F200.000
G1 X0.090 Y8.926 Z-1.225 F200.000
G1 X0.102 Y8.945 Z-1.228 F200.000
G1 X0.111 Y8.966 Z-1.230 F200.000
G1 X0.115 Y8.988 Z-1.232 F200.000
G1 X0.114 Y9.011 Z-1.234 F200.000
G1 X0.109 Y9.033 Z-1.236 F200.000
G1 X0.100 Y9.054 Z-1.238 F200.000
G1 X0.088 Y9.072 Z-1.240 F200.000
G1 X0.071 Y9.088 Z-1.243 F200.000
G1 X0.052 Y9.100 Z-1.245 F200.000
G1 X0.031 Y9.108 Z-1.247 F200.000
G1 X0.009 Y9.112 Z-1.249 F200.000
G1 X-0.013 Y9.112 Z-1.251 F200.000
G1 X-0.035 Y9.107 Z-1.253 F200.000
G1 X-0.056 Y9.098 Z-1.256 F200.000
G1 X-0.075 Y9.085 Z-1.258 F200.000
G1 X-0.090 Y9.069 Z-1.260 F200.000
G1 X-0.102 Y9.050 Z-1.262 F200.000
G1 X-0.111 Y9.029 Z-1.264 F200.000
G1 X-0.115 Y9.007 Z-1.266 F200.000
G1 X-0.114 Y8.984 Z-1.268 F200.000
G1 X-0.109 Y8.962 Z-1.271 F200.000
G1 X-0.100 Y8.941 Z-1.273 F200.000
G1 X-0.088 Y8.923 Z-1.275 F200.000
G1 X-0.071 Y8.907 Z-1.277 F200.000
G1 X-0.052 Y8.895 Z-1.279 F200.000
G1 X-0.031 Y8.887 Z-1.281 F200.000
G1 X-0.009 Y8.883 Z-1.283 F200.000
G1 X0.013 Y8.883 Z-1.286 F200.000
G1 X0.035 Y8.888 Z-1.288 F200.000
G1 X0.056 Y8.897 Z-1.290 F200.000
G1 X0.075 Y8.910 Z-1.292 F200.000
G1 X0.090 Y8.926 Z-1.294 F200.000
G1 X0.102 Y8.945 Z-1.296 F200.000
G1 X0.111 Y8.966 Z-1.298 F200.000
G1 X0.115 Y8.988 Z-1.301 F200.000
G1 X0.114 Y9.011 Z-1.303 F200.000
G1 X0.109 Y9.033 Z-1.305 F200.000
G1 X0.100 Y9.054 Z-1.307 F200.000
G1 X0.088 Y9.072 Z-1.309 F200.000
G1 X0.071 Y9.088 Z-1.311 F200.000
G1 X0.052 Y9.100 Z-1.314 F200.000
G1 X0.031 Y9.108 Z-1.316 F200.000
G1 X0.009 Y9.112 Z-1.318 F200.000
G1 X-0.013 Y9.112 Z-1.320 F200.000
G1 X-0.035 Y9.107 Z-1.322 F200.000
G1 X-0.056 Y9.098 Z-1.324 F200.000
G1 X-0.075 Y9.085 Z-1.326 F200.000
G1 X-0.090 Y9.069 Z-1.329 F200.000
G1 X-0.102 Y9.050 Z-1.331 F200.000
G1 X-0.111 Y9.029 Z-1.333 F200.000
G1 X-0.115 Y9.007 Z-1.335 F200.000
G1 X-0.114 Y8.984 Z-1.337 F200.000
G1 X-0.109 Y8.962 Z-1.339 F200.000
G1 X-0.100 Y8.941 Z-1.341 F200.000
G1 X-0.088 Y8.923 Z-1.344 F200.000
G1 X-0.071 Y8.907 Z-1.346 F200.000
G1 X-0.052 Y8.895 Z-1.348 F200.000
G1 X-0.031 Y8.887 Z-1.350 F200.000
G1 X-0.009 Y8.883 Z-1.352 F200.000
G1 X0.013 Y8.883 Z-1.354 F200.000
G1 X0.035 Y8.888 Z-1.356 F200.000
G1 X0.056 Y8.897 Z-1.359 F200.000
G1 X0.075 Y8.910 Z-1.361 F200.000
G1 X0.090 Y8.926 Z-1.363 F200.000
G1 X0.102 Y8.945 Z-1.365 F200.000
G1 X0.111 Y8.966 Z-1.367 F200.000
G1 X0.115 Y8.988 Z-1.369 F200.000
G1 X0.114 Y9.011 Z-1.371 F200.000
G1 X0.109 Y9.033 Z-1.374 F200.000
G1 X0.100 Y9.054 Z-1.376 F200.000
G1 X0.088 Y9.072 Z-1.378 F200.000
G1 X0.071 Y9.088 Z-1.380 F200.000
G1 X0.052 Y9.100 Z-1.382 F200.000
G1 X0.031 Y9.108 Z-1.384 F200.000
G1 X0.009 Y9.112 Z-1.387 F200.000
G1 X-0.013 Y9.112 Z-1.389 F200.000
G1 X-0.035 Y9.107 Z-1.391 F200.000
G1 X-0.056 Y9.098 Z-1.393 F200.000
G1 X-0.075 Y9.085 Z-1.395 F200.000
G1 X-0.090 Y9.069 Z-1.397 F200.000
G1 X-0.102 Y9.050 Z-1.399 F200.000
G1 X-0.111 Y9.029 Z-1.402 F200.000
G1 X-0.115 Y9.007 Z-1.404 F200.000
G1 X-0.114 Y8.984 Z-1.406 F200.000
G1 X-0.109 Y8.962 Z-1.408 F200.000
G1 X-0.100 Y8.941 Z-1.410 F200.000
G1 X-0.088 Y8.923 Z-1.412 F200.000
G1 X-0.071 Y8.907 Z-1.414 F200.000
G1 X-0.052 Y8.895 Z-1.417 F200.000
G1 X-0.031 Y8.887 Z-1.419 F200.000
G1 X-0.009 Y8.883 Z-1.421 F200.000
G1 X0.013 Y8.883 Z-1.423 F200.000
G1 X0.035 Y8.888 Z-1.425 F200.000
G1 X0.056 Y8.897 Z-1.427 F200.000
G1 X0.075 Y8.910 Z-1.429 F200.000
G1 X0.090 Y8.926 Z-1.432 F200.000
G1 X0.102 Y8.945 Z-1.434 F200.000
G1 X0.111 Y8.966 Z-1.436 F200.000
G1 X0.115 Y8.988 Z-1.438 F200.000
G1 X0.114 Y9.011 Z-1.440 F200.000
G1 X0.109 Y9.033 Z-1.442 F200.000
G1 X0.100 Y9.054 Z-1.444 F200.000
G1 X0.088 Y9.072 Z-1.447 F200.000
G1 X0.071 Y9.088 Z-1.449 F200.000
G1 X0.052 Y9.100 Z-1.451 F200.000
G1 X0.031 Y9.108 Z-1.453 F200.000
G1 X0.009 Y9.112 Z-1.455 F200.000
G1 X-0.013 Y9.112 Z-1.457 F200.000
G1 X-0.035 Y9.107 Z-1.460 F200.000
G1 X-0.056 Y9.098 Z-1.462 F200.000
G1 X-0.075 Y9.085 Z-1.464 F200.000
G1 X-0.090 Y9.069 Z-1.466 F200.000
G1 X-0.102 Y9.050 Z-1.468 F200.000
G1 X-0.111 Y9.029 Z-1.470 F200.000
G1 X-0.115 Y9.007 Z-1.472 F200.000
G1 X-0.114 Y8.984 Z-1.475 F200.000
G1 X-0.109 Y8.962 Z-1.477 F200.000
G1 X-0.100 Y8.941 Z-1.479 F200.000
G1 X-0.088 Y8.923 Z-1.481 F200.000
G1 X-0.071 Y8.907 Z-1.483 F200.000
G1 X-0.052 Y8.895 Z-1.485 F200.000
G1 X-0.031 Y8.887 Z-1.487 F200.000
G1 X-0.009 Y8.883 Z-1.490 F200.000
G1 X0.013 Y8.883 Z-1.492 F200.000
G1 X0.035 Y8.888 Z-1.494 F200.000
G1 X0.056 Y8.897 Z-1.496 F200.000
G1 X0.075 Y8.910 Z-1.498 F200.000
G1 X0.090 Y8.926 Z-1.500 F200.000
G1 X0.102 Y8.945 Z-1.502 F200.000
G1 X0.111 Y8.966 Z-1.505 F200.000
G1 X0.115 Y8.988 Z-1.507 F200.000
G1 X0.114 Y9.011 Z-1.509 F200.000
G1 X0.109 Y9.033 Z-1.511 F200.000
G1 X0.100 Y9.054 Z-1.513 F200.000
G1 X0.088 Y9.072 Z-1.515 F200.000
G1 X0.071 Y9.088 Z-1.517 F200.000
G1 X0.052 Y9.100 Z-1.520 F200.000
G1 X0.031 Y9.108 Z-1.522 F200.000
G1 X0.009 Y9.112 Z-1.524 F200.000
G1 X-0.013 Y9.112 Z-1.526 F200.000
G1 X-0.035 Y9.107 Z-1.528 F200.000
G1 X-0.056 Y9.098 Z-1.530 F200.000
G1 X-0.075 Y9.085 Z-1.533 F200.000
G1 X-0.090 Y9.069 Z-1.535 F200.000
G1 X-0.102 Y9.050 Z-1.537 F200.000
G1 X-0.111 Y9.029 Z-1.539 F200.000
G1 X-0.115 Y9.007 Z-1.541 F200.000
G1 X-0.114 Y8.984 Z-1.543 F200.000
G1 X-0.109 Y8.962 Z-1.545 F200.000
G1 X-0.100 Y8.941 Z-1.548 F200.000
G1 X-0.088 Y8.923 Z-1.550 F200.000
G1 X-0.071 Y8.907 Z-1.552 F200.000
G1 X-0.052 Y8.895 Z-1.554 F200.000
G1 X-0.031 Y8.887 Z-1.556 F200.000
G1 X-0.009 Y8.883 Z-1.558 F200.000
G1 X0.013 Y8.883 Z-1.560 F200.000
G1 X0.035 Y8.888 Z-1.563 F200.000
G1 X0.056 Y8.897 Z-1.565 F200.000
G1 X0.075 Y8.910 Z-1.567 F200.000
G1 X0.090 Y8.926 Z-1.569 F200.000
G1 X0.102 Y8.945 Z-1.571 F200.000
G1 X0.111 Y8.966 Z-1.573 F200.000
G1 X0.115 Y8.988 Z-1.575 F200.000
G1 X0.114 Y9.011 Z-1.578 F200.000
G1 X0.109 Y9.033 Z-1.580 F200.000
G1 X0.100 Y9.054 Z-1.582 F200.000
G1 X0.088 Y9.072 Z-1.584 F200.000
G1 X0.071 Y9.088 Z-1.586 F200.000
G1 X0.052 Y9.100 Z-1.588 F200.000
G1 X0.031 Y9.108 Z-1.591 F200.000
G1 X0.009 Y9.112 Z-1.593 F200.000
G1 X-0.013 Y9.112 Z-1.595 F200.000
G1 X-0.035 Y9.107 Z-1.597 F200.000
G1 X-0.056 Y9.098 Z-1.599 F200.000
G1 X-0.075 Y9.085 Z-1.601 F200.000
G1 X-0.090 Y9.069 Z-1.603 F200.000
G1 X-0.102 Y9.050 Z-1.606 F200.000
G1 X-0.111 Y9.029 Z-1.608 F200.000
G1 X-0.115 Y9.007 Z-1.610 F200.000
G1 X-0.114 Y8.984 Z-1.612 F200.000
G1 X-0.109 Y8.962 Z-1.614 F200.000
G1 X-0.100 Y8.941 Z-1.616 F200.000
G1 X-0.088 Y8.923 Z-1.618 F200.000
G1 X-0.071 Y8.907 Z-1.621 F200.000
G1 X-0.052 Y8.895 Z-1.623 F200.000
G1 X-0.031 Y8.887 Z-1.625 F200.000
G1 X-0.009 Y8.883 Z-1.627 F200.000
G1 X0.013 Y8.883 Z-1.629 F200.000
G1 X0.035 Y8.888 Z-1.631 F200.000
G1 X0.056 Y8.897 Z-1.633 F200.000
G1 X0.075 Y8.910 Z-1.636 F200.000
G1 X0.090 Y8.926 Z-1.638 F200.000
G1 X0.102 Y8.945 Z-1.640 F200.000
G1 X0.111 Y8.966 Z-1.642 F200.000
G1 X0.115 Y8.988 Z-1.644 F200.000
G1 X0.114 Y9.011 Z-1.646 F200.000
G1 X0.109 Y9.033 Z-1.648 F200.000
G1 X0.100 Y9.054 Z-1.651 F200.000
G1 X0.088 Y9.072 Z-1.653 F200.000
G1 X0.071 Y9.088 Z-1.655 F200.000
G1 X0.052 Y9.100 Z-1.657 F200.000
G1 X0.031 Y9.108 Z-1.659 F200.000
G1 X0.009 Y9.112 Z-1.661 F200.000
G1 X-0.013 Y9.112 Z-1.664 F200.000
G1 X-0.035 Y9.107 Z-1.666 F200.000
G1 X-0.056 Y9.098 Z-1.668 F200.000
G1 X-0.075 Y9.085 Z-1.670 F200.000
G1 X-0.090 Y9.069 Z-1.672 F200.000
G1 X-0.102 Y9.050 Z-1.674 F200.000
G1 X-0.111 Y9.029 Z-1.676 F200.000
G1 X-0.115 Y9.007 Z-1.679 F200.000
G1 X-0.114 Y8.984 Z-1.681 F200.000
G1 X-0.109 Y8.962 Z-1.683 F200.000
G1 X-0.100 Y8.941 Z-1.685 F200.000
G1 X-0.088 Y8.923 Z-1.687 F200.000
G1 X-0.071 Y8.907 Z-1.689 F200.000
G1 X-0.052 Y8.895 Z-1.691 F200.000
G1 X-0.031 Y8.887 Z-1.694 F200.000
G1 X-0.009 Y8.883 Z-1.696 F200.000
G1 X0.013 Y8.883 Z-1.698 F200.000
G1 X0.035 Y8.888 Z-1.700 F200.000
G1 X0.056 Y8.897 Z-1.702 F200.000
G1 X0.075 Y8.910 Z-1.704 F200.000
G1 X0.090 Y8.926 Z-1.706 F200.000
G1 X0.102 Y8.945 Z-1.709 F200.000
G1 X0.111 Y8.966 Z-1.711 F200.000
G1 X0.115 Y8.988 Z-1.713 F200.000
G1 X0.114 Y9.011 Z-1.715 F200.000
G1 X0.109 Y9.033 Z-1.717 F200.000
G1 X0.100 Y9.054 Z-1.719 F200.000
G1 X0.088 Y9.072 Z-1.721 F200.000
G1 X0.071 Y9.088 Z-1.724 F200.000
G1 X0.052 Y9.100 Z-1.726 F200.000
G1 X0.031 Y9.108 Z-1.728 F200.000
G1 X0.009 Y9.112 Z-1.730 F200.000
G1 X-0.013 Y9.112 Z-1.732 F200.000
G1 X-0.035 Y9.107 Z-1.734 F200.000
G1 X-0.056 Y9.098 Z-1.737 F200.000
G1 X-0.075 Y9.085 Z-1.739 F200.000
G1 X-0.090 Y9.069 Z-1.741 F200.000
G1 X-0.102 Y9.050 Z-1.743 F200.000
G1 X-0.111 Y9.029 Z-1.745 F200.000
G1 X-0.115 Y9.007 Z-1.747 F200.000
G1 X-0.114 Y8.984 Z-1.749 F200.000
G1 X-0.109 Y8.962 Z-1.752 F200.000
G1 X-0.100 Y8.941 Z-1.754 F200.000
G1 X-0.088 Y8.923 Z-1.756 F200.000
G1 X-0.071 Y8.907 Z-1.758 F200.000
G1 X-0.052 Y8.895 Z-1.760 F200.000
G1 X-0.031 Y8.887 Z-1.762 F200.000
G1 X-0.009 Y8.883 Z-1.764 F200.000
G1 X0.013 Y8.883 Z-1.767 F200.000
G1 X0.035 Y8.888 Z-1.769 F200.000
G1 X0.056 Y8.897 Z-1.771 F200.000
G1 X0.075 Y8.910 Z-1.773 F200.000
G1 X0.090 Y8.926 Z-1.775 F200.000
G1 X0.102 Y8.945 Z-1.777 F200.000
G1 X0.111 Y8.966 Z-1.779 F200.000
G1 X0.115 Y8.988 Z-1.782 F200.000
G1 X0.114 Y9.011 Z-1.784 F200.000
G1 X0.109 Y9.033 Z-1.786 F200.000
G1 X0.100 Y9.054 Z-1.788 F200.000
G1 X0.088 Y9.072 Z-1.790 F200.000
G1 X0.071 Y9.088 Z-1.792 F200.000
G1 X0.052 Y9.100 Z-1.794 F200.000
G1 X0.031 Y9.108 Z-1.797 F200.000
G1 X0.009 Y9.112 Z-1.799 F200.000
G1 X-0.013 Y9.112 Z-1.801 F200.000
G1 X-0.035 Y9.107 Z-1.803 F200.000
G1 X-0.056 Y9.098 Z-1.805 F200.000
G1 X-0.075 Y9.085 Z-1.807 F200.000
G1 X-0.090 Y9.069 Z-1.810 F200.000
G1 X-0.102 Y9.050 Z-1.812 F200.000
G1 X-0.111 Y9.029 Z-1.814 F200.000
G1 X-0.115 Y9.007 Z-1.816 F200.000
G1 X-0.114 Y8.984 Z-1.818 F200.000
G1 X-0.109 Y8.962 Z-1.820 F200.000
G1 X-0.100 Y8.941 Z-1.822 F200.000
G1 X-0.088 Y8.923 Z-1.825 F200.000
G1 X-0.071 Y8.907 Z-1.827 F200.000
G1 X-0.052 Y8.895 Z-1.829 F200.000
G1 X-0.031 Y8.887 Z-1.831 F200.000
G1 X-0.009 Y8.883 Z-1.833 F200.000
G1 X0.013 Y8.883 Z-1.835 F200.000
G1 X0.035 Y8.888 Z-1.837 F200.000
G1 X0.056 Y8.897 Z-1.840 F200.000
G1 X0.075 Y8.910 Z-1.842 F200.000
G1 X0.090 Y8.926 Z-1.844 F200.000
G1 X0.102 Y8.945 Z-1.846 F200.000
G1 X0.111 Y8.966 Z-1.848 F200.000
G1 X0.115 Y8.988 Z-1.850 F200.000
G1 X0.114 Y9.011 Z-1.852 F200.000
G1 X0.109 Y9.033 Z-1.855 F200.000
G1 X0.100 Y9.054 Z-1.857 F200.000
G1 X0.088 Y9.072 Z-1.859 F200.000
G1 X0.071 Y9.088 Z-1.861 F200.000
G1 X0.052 Y9.100 Z-1.863 F200.000
G1 X0.031 Y9.108 Z-1.865 F200.000
G1 X0.009 Y9.112 Z-1.868 F200.000
G1 X-0.013 Y9.112 Z-1.870 F200.000
G1 X-0.035 Y9.107 Z-1.872 F200.000
G1 X-0.056 Y9.098 Z-1.874 F200.000
G1 X-0.075 Y9.085 Z-1.876 F200.000
G1 X-0.090 Y9.069 Z-1.878 F200.000
G1 X-0.102 Y9.050 Z-1.880 F200.000
G1 X-0.111 Y9.029 Z-1.883 F200.000
G1 X-0.115 Y9.007 Z-1.885 F200.000
G1 X-0.114 Y8.984 Z-1.887 F200.000
G1 X-0.109 Y8.962 Z-1.889 F200.000
G1 X-0.100 Y8.941 Z-1.891 F200.000
G1 X-0.088 Y8.923 Z-1.893 F200.000
G1 X-0.071 Y8.907 Z-1.895 F200.000
G1 X-0.052 Y8.895 Z-1.898 F200.000
G1 X-0.031 Y8.887 Z-1.900 F200.000
G1 X-0.009 Y8.883 Z-1.902 F200.000
G1 X0.013 Y8.883 Z-1.904 F200.000
G1 X0.035 Y8.888 Z-1.906 F200.000
G1 X0.056 Y8.897 Z-1.908 F200.000
G1 X0.075 Y8.910 Z-1.910 F200.000
G1 X0.090 Y8.926 Z-1.913 F200.000
G1 X0.102 Y8.945 Z-1.915 F200.000
G1 X0.111 Y8.966 Z-1.917 F200.000
G1 X0.115 Y8.988 Z-1.919 F200.000
G1 X0.114 Y9.011 Z-1.921 F200.000
G1 X0.109 Y9.033 Z-1.923 F200.000
G1 X0.100 Y9.054 Z-1.925 F200.000
G1 X0.088 Y9.072 Z-1.928 F200.000
G1 X0.071 Y9.088 Z-1.930 F200.000
G1 X0.052 Y9.100 Z-1.932 F200.000
G1 X0.031 Y9.108 Z-1.934 F200.000
G1 X0.009 Y9.112 Z-1.936 F200.000
G1 X-0.013 Y9.112 Z-1.938 F200.000
G1 X-0.035 Y9.107 Z-1.941 F200.000
G1 X-0.056 Y9.098 Z-1.943 F200.000
G1 X-0.075 Y9.085 Z-1.945 F200.000
G1 X-0.090 Y9.069 Z-1.947 F200.000
G1 X-0.102 Y9.050 Z-1.949 F200.000
G1 X-0.111 Y9.029 Z-1.951 F200.000
G1 X-0.115 Y9.007 Z-1.953 F200.000
G1 X-0.114 Y8.984 Z-1.956 F200.000
G1 X-0.109 Y8.962 Z-1.958 F200.000
G1 X-0.100 Y8.941 Z-1.960 F200.000
G1 X-0.088 Y8.923 Z-1.962 F200.000
G1 X-0.071 Y8.907 Z-1.964 F200.000
G1 X-0.052 Y8.895 Z-1.966 F200.000
G1 X-0.031 Y8.887 Z-1.968 F200.000
G1 X-0.009 Y8.883 Z-1.971 F200.000
G1 X0.013 Y8.883 Z-1.973 F200.000
G1 X0.035 Y8.888 Z-1.975 F200.000
G1 X0.056 Y8.897 Z-1.977 F200.000
G1 X0.075 Y8.910 Z-1.979 F200.000
G1 X0.090 Y8.926 Z-1.981 F200.000
G1 X0.102 Y8.945 Z-1.983 F200.000
G1 X0.111 Y8.966 Z-1.986 F200.000
G1 X0.115 Y8.988 Z-1.988 F200.000
G1 X0.114 Y9.011 Z-1.990 F200.000
G1 X0.109 Y9.033 Z-1.992 F200.000
G1 X0.100 Y9.054 Z-1.994 F200.000
G1 X0.088 Y9.072 Z-1.996 F200.000
G1 X0.071 Y9.088 Z-1.998 F200.000
G1 X0.052 Y9.100 Z-2.001 F200.000
G1 X0.031 Y9.108 Z-2.003 F200.000
G1 X0.009 Y9.112 Z-2.005 F200.000
G1 X-0.013 Y9.112 Z-2.007 F200.000
G1 X-0.035 Y9.107 Z-2.009 F200.000
G1 X-0.056 Y9.098 Z-2.011 F200.000
G1 X-0.075 Y9.085 Z-2.014 F200.000
G1 X-0.090 Y9.069 Z-2.016 F200.000
G1 X-0.102 Y9.050 Z-2.018 F200.000
G1 X-0.111 Y9.029 Z-2.020 F200.000
G1 X-0.115 Y9.007 Z-2.022 F200.000
G1 X-0.114 Y8.984 Z-2.024 F200.000
G1 X-0.109 Y8.962 Z-2.026 F200.000
G1 X-0.100 Y8.941 Z-2.029 F200.000
G1 X-0.088 Y8.923 Z-2.031 F200.000
G1 X-0.071 Y8.907 Z-2.033 F200.000
G1 X-0.052 Y8.895 Z-2.035 F200.000
G1 X-0.031 Y8.887 Z-2.037 F200.000
G1 X-0.009 Y8.883 Z-2.039 F200.000
G1 X0.013 Y8.883 Z-2.041 F200.000
G1 X0.035 Y8.888 Z-2.044 F200.000
G1 X0.056 Y8.897 Z-2.046 F200.000
G1 X0.075 Y8.910 Z-2.048 F200.000
G1 X0.090 Y8.926 Z-2.050 F200.000
G1 X0.102 Y8.945 Z-2.052 F200.000
G1 X0.111 Y8.966 Z-2.054 F200.000
G1 X0.115 Y8.988 Z-2.056 F200.000
G1 X0.114 Y9.011 Z-2.059 F200.000
G1 X0.109 Y9.033 Z-2.061 F200.000
G1 X0.100 Y9.054 Z-2.063 F200.000
G1 X0.088 Y9.072 Z-2.065 F200.000
G1 X0.071 Y9.088 Z-2.067 F200.000
G1 X0.052 Y9.100 Z-2.069 F200.000
G1 X0.031 Y9.108 Z-2.072 F200.000
G1 X0.009 Y9.112 Z-2.074 F200.000
G1 X-0.013 Y9.112 Z-2.076 F200.000
G1 X-0.035 Y9.107 Z-2.078 F200.000
G1 X-0.056 Y9.098 Z-2.080 F200.000
G1 X-0.075 Y9.085 Z-2.082 F200.000
G1 X-0.090 Y9.069 Z-2.084 F200.000
G1 X-0.102 Y9.050 Z-2.087 F200.000
G1 X-0.111 Y9.029 Z-2.089 F200.000
G1 X-0.115 Y9.007 Z-2.091 F200.000
G1 X-0.114 Y8.984 Z-2.093 F200.000
G1 X-0.109 Y8.962 Z-2.095 F200.000
G1 X-0.100 Y8.941 Z-2.097 F200.000
G1 X-0.088 Y8.923 Z-2.099 F200.000
G1 X-0.071 Y8.907 Z-2.102 F200.000
G1 X-0.052 Y8.895 Z-2.104 F200.000
G1 X-0.031 Y8.887 Z-2.106 F200.000
G1 X-0.009 Y8.883 Z-2.108 F200.000
G1 X0.013 Y8.883 Z-2.110 F200.000
G1 X0.035 Y8.888 Z-2.112 F200.000
G1 X0.056 Y8.897 Z-2.114 F200.000
G1 X0.075 Y8.910 Z-2.117 F200.000
G1 X0.090 Y8.926 Z-2.119 F200.000
G1 X0.102 Y8.945 Z-2.121 F200.000
G1 X0.111 Y8.966 Z-2.123 F200.000
G1 X0.115 Y8.988 Z-2.125 F200.000
G1 X0.114 Y9.011 Z-2.127 F200.000
G1 X0.109 Y9.033 Z-2.129 F200.000
G1 X0.100 Y9.054 Z-2.132 F200.000
G1 X0.088 Y9.072 Z-2.134 F200.000
G1 X0.071 Y9.088 Z-2.136 F200.000
G1 X0.052 Y9.100 Z-2.138 F200.000
G1 X0.031 Y9.108 Z-2.140 F200.000
G1 X0.009 Y9.112 Z-2.142 F200.000
G1 X-0.013 Y9.112 Z-2.145 F200.000
G1 X-0.035 Y9.107 Z-2.147 F200.000
G1 X-0.056 Y9.098 Z-2.149 F200.000
G1 X-0.075 Y9.085 Z-2.151 F200.000
G1 X-0.090 Y9.069 Z-2.153 F200.000
G1 X-0.102 Y9.050 Z-2.155 F200.000
G1 X-0.111 Y9.029 Z-2.157 F200.000
G1 X-0.115 Y9.007 Z-2.160 F200.000
G1 X-0.114 Y8.984 Z-2.162 F200.000
G1 X-0.109 Y8.962 Z-2.164 F200.000
G1 X-0.100 Y8.941 Z-2.166 F200.000
G1 X-0.088 Y8.923 Z-2.168 F200.000
G1 X-0.071 Y8.907 Z-2.170 F200.000
G1 X-0.052 Y8.895 Z-2.172 F200.000
G1 X-0.031 Y8.887 Z-2.175 F200.000
G1 X-0.009 Y8.883 Z-2.177 F200.000
G1 X0.013 Y8.883 Z-2.179 F200.000
G1 X0.035 Y8.888 Z-2.181 F200.000
G1 X0.056 Y8.897 Z-2.183 F200.000
G1 X0.075 Y8.910 Z-2.185 F200.000
G1 X0.090 Y8.926 Z-2.187 F200.000
G1 X0.102 Y8.945 Z-2.190 F200.000
G1 X0.111 Y8.966 Z-2.192 F200.000
G1 X0.115 Y8.988 Z-2.194 F200.000
G1 X0.114 Y9.011 Z-2.196 F200.000
G1 X0.109 Y9.033 Z-2.198 F200.000
G1 X0.100 Y9.054 Z-2.200 F200.000
G1 X0.088 Y9.072 Z-2.202 F200.000
G1 X0.071 Y9.088 Z-2.205 F200.000
G1 X0.052 Y9.100 Z-2.207 F200.000
G1 X0.031 Y9.108 Z-2.209 F200.000
G1 X0.009 Y9.112 Z-2.211 F200.000
G1 X-0.013 Y9.112 Z-2.213 F200.000
G1 X-0.035 Y9.107 Z-2.215 F200.000
G1 X-0.056 Y9.098 Z-2.218 F200.000
G1 X-0.075 Y9.085 Z-2.220 F200.000
G1 X-0.090 Y9.069 Z-2.222 F200.000
G1 X-0.102 Y9.050 Z-2.224 F200.000
G1 X-0.111 Y9.029 Z-2.226 F200.000
G1 X-0.115 Y9.007 Z-2.228 F200.000
G1 X-0.114 Y8.984 Z-2.230 F200.000
G1 X-0.109 Y8.962 Z-2.233 F200.000
G1 X-0.100 Y8.941 Z-2.235 F200.000
G1 X-0.088 Y8.923 Z-2.237 F200.000
G1 X-0.071 Y8.907 Z-2.239 F200.000
G1 X-0.052 Y8.895 Z-2.241 F200.000
G1 X-0.031 Y8.887 Z-2.243 F200.000
G1 X-0.009 Y8.883 Z-2.245 F200.000
G1 X0.013 Y8.883 Z-2.248 F200.000
G1 X0.035 Y8.888 Z-2.250 F200.000
G1 X0.056 Y8.897 Z-2.252 F200.000
G1 X0.075 Y8.910 Z-2.254 F200.000
G1 X0.090 Y8.926 Z-2.256 F200.000
G1 X0.102 Y8.945 Z-2.258 F200.000
G1 X0.111 Y8.966 Z-2.260 F200.000
G1 X0.115 Y8.988 Z-2.263 F200.000
G1 X0.114 Y9.011 Z-2.265 F200.000
G1 X0.109 Y9.033 Z-2.267 F200.000
G1 X0.100 Y9.054 Z-2.269 F200.000
G1 X0.088 Y9.072 Z-2.271 F200.000
G1 X0.071 Y9.088 Z-2.273 F200.000
G1 X0.052 Y9.100 Z-2.275 F200.000
G1 X0.031 Y9.108 Z-2.278 F200.000
G1 X0.009 Y9.112 Z-2.280 F200.000
G1 X-0.013 Y9.112 Z-2.282 F200.000
G1 X-0.035 Y9.107 Z-2.284 F200.000
G1 X-0.056 Y9.098 Z-2.286 F200.000
G1 X-0.075 Y9.085 Z-2.288 F200.000
G1 X-0.090 Y9.069 Z-2.291 F200.000
G1 X-0.102 Y9.050 Z-2.293 F200.000
G1 X-0.111 Y9.029 Z-2.295 F200.000
G1 X-0.115 Y9.007 Z-2.297 F200.000
G1 X-0.114 Y8.984 Z-2.299 F200.000
G1 X-0.109 Y8.962 Z-2.301 F200.000
G1 X-0.100 Y8.941 Z-2.303 F200.000
G1 X-0.088 Y8.923 Z-2.306 F200.000
G1 X-0.071 Y8.907 Z-2.308 F200.000
G1 X-0.052 Y8.895 Z-2.310 F200.000
G1 X-0.031 Y8.887 Z-2.312 F200.000
G1 X-0.009 Y8.883 Z-2.314 F200.000
G1 X0.013 Y8.883 Z-2.316 F200.000
G1 X0.035 Y8.888 Z-2.318 F200.000
G1 X0.056 Y8.897 Z-2.321 F200.000
G1 X0.075 Y8.910 Z-2.323 F200.000
G1 X0.090 Y8.926 Z-2.325 F200.000
G1 X0.102 Y8.945 Z-2.327 F200.000
G1 X0.111 Y8.966 Z-2.329 F200.000
G1 X0.115 Y8.988 Z-2.331 F200.000
G1 X0.114 Y9.011 Z-2.333 F200.000
G1 X0.109 Y9.033 Z-2.336 F200.000
G1 X0.100 Y9.054 Z-2.338 F200.000
G1 X0.088 Y9.072 Z-2.340 F200.000
G1 X0.071 Y9.088 Z-2.342 F200.000
G1 X0.052 Y9.100 Z-2.344 F200.000
G1 X0.031 Y9.108 Z-2.346 F200.000
G1 X0.009 Y9.112 Z-2.349 F200.000
G1 X-0.013 Y9.112 Z-2.351 F200.000
G1 X-0.035 Y9.107 Z-2.353 F200.000
G1 X-0.056 Y9.098 Z-2.355 F200.000
G1 X-0.075 Y9.085 Z-2.357 F200.000
G1 X-0.090 Y9.069 Z-2.359 F200.000
G1 X-0.102 Y9.050 Z-2.361 F200.000
G1 X-0.111 Y9.029 Z-2.364 F200.000
G1 X-0.115 Y9.007 Z-2.366 F200.000
G1 X-0.114 Y8.984 Z-2.368 F200.000
G1 X-0.109 Y8.962 Z-2.370 F200.000
G1 X-0.100 Y8.941 Z-2.372 F200.000
G1 X-0.088 Y8.923 Z-2.374 F200.000
G1 X-0.071 Y8.907 Z-2.376 F200.000
G1 X-0.052 Y8.895 Z-2.379 F200.000
G1 X-0.031 Y8.887 Z-2.381 F200.000
G1 X-0.009 Y8.883 Z-2.383 F200.000
G1 X0.013 Y8.883 Z-2.385 F200.000
G1 X0.035 Y8.888 Z-2.387 F200.000
G1 X0.056 Y8.897 Z-2.389 F200.000
G1 X0.075 Y8.910 Z-2.391 F200.000
G1 X0.090 Y8.926 Z-2.394 F200.000
G1 X0.102 Y8.945 Z-2.396 F200.000
G1 X0.111 Y8.966 Z-2.398 F200.000
G1 X0.115 Y8.988 Z-2.400 F200.000
G1 X0.114 Y9.011 Z-2.402 F200.000
G1 X0.109 Y9.033 Z-2.404 F200.000
G1 X0.100 Y9.054 Z-2.406 F200.000
G1 X0.088 Y9.072 Z-2.409 F200.000
G1 X0.071 Y9.088 Z-2.411 F200.000
G1 X0.052 Y9.100 Z-2.413 F200.000
G1 X0.031 Y9.108 Z-2.415 F200.000
G1 X0.009 Y9.112 Z-2.417 F200.000
G1 X-0.013 Y9.112 Z-2.419 F200.000
G1 X-0.035 Y9.107 Z-2.422 F200.000
G1 X-0.056 Y9.098 Z-2.424 F200.000
G1 X-0.075 Y9.085 Z-2.426 F200.000
G1 X-0.090 Y9.069 Z-2.428 F200.000
G1 X-0.102 Y9.050 Z-2.430 F200.000
G1 X-0.111 Y9.029 Z-2.432 F200.000
G1 X-0.115 Y9.007 Z-2.434 F200.000
G1 X-0.114 Y8.984 Z-2.437 F200.000
G1 X-0.109 Y8.962 Z-2.439 F200.000
G1 X-0.100 Y8.941 Z-2.441 F200.000
G1 X-0.088 Y8.923 Z-2.443 F200.000
G1 X-0.071 Y8.907 Z-2.445 F200.000
G1 X-0.052 Y8.895 Z-2.447 F200.000
G1 X-0.031 Y8.887 Z-2.449 F200.000
G1 X-0.009 Y8.883 Z-2.452 F200.000
G1 X0.013 Y8.883 Z-2.454 F200.000
G1 X0.035 Y8.888 Z-2.456 F200.000
G1 X0.056 Y8.897 Z-2.458 F200.000
G1 X0.075 Y8.910 Z-2.460 F200.000
G1 X0.090 Y8.926 Z-2.462 F200.000
G1 X0.102 Y8.945 Z-2.464 F200.000
G1 X0.111 Y8.966 Z-2.467 F200.000
G1 X0.115 Y8.988 Z-2.469 F200.000
G1 X0.114 Y9.011 Z-2.471 F200.000
G1 X0.109 Y9.033 Z-2.473 F200.000
G1 X0.100 Y9.054 Z-2.475 F200.000
G1 X0.088 Y9.072 Z-2.477 F200.000
G1 X0.071 Y9.088 Z-2.479 F200.000
G1 X0.052 Y9.100 Z-2.482 F200.000
G1 X0.031 Y9.108 Z-2.484 F200.000
G1 X0.009 Y9.112 Z-2.486 F200.000
G1 X-0.013 Y9.112 Z-2.488 F200.000
G1 X-0.035 Y9.107 Z-2.490 F200.000
G1 X-0.056 Y9.098 Z-2.492 F200.000
G1 X-0.075 Y9.085 Z-2.495 F200.000
G1 X-0.090 Y9.069 Z-2.497 F200.000
G1 X-0.102 Y9.050 Z-2.499 F200.000
G1 X-0.111 Y9.029 Z-2.501 F200.000
G1 X-0.115 Y9.007 Z-2.503 F200.000
G1 X-0.114 Y8.984 Z-2.505 F200.000
G1 X-0.109 Y8.962 Z-2.507 F200.000
G1 X-0.100 Y8.941 Z-2.510 F200.000
G1 X-0.088 Y8.923 Z-2.512 F200.000
G1 X-0.071 Y8.907 Z-2.514 F200.000
G1 X-0.052 Y8.895 Z-2.516 F200.000
G1 X-0.031 Y8.887 Z-2.518 F200.000
G1 X-0.009 Y8.883 Z-2.520 F200.000
G1 X0.013 Y8.883 Z-2.522 F200.000
G1 X0.035 Y8.888 Z-2.525 F200.000
G1 X0.056 Y8.897 Z-2.527 F200.000
G1 X0.075 Y8.910 Z-2.529 F200.000
G1 X0.090 Y8.926 Z-2.531 F200.000
G1 X0.102 Y8.945 Z-2.533 F200.000
G1 X0.111 Y8.966 Z-2.535 F200.000
G1 X0.115 Y8.988 Z-2.537 F200.000
G1 X0.114 Y9.011 Z-2.540 F200.000
G1 X0.109 Y9.033 Z-2.542 F200.000
G1 X0.100 Y9.054 Z-2.544 F200.000
G1 X0.088 Y9.072 Z-2.546 F200.000
G1 X0.071 Y9.088 Z-2.548 F200.000
G1 X0.052 Y9.100 Z-2.550 F200.000
G1 X0.031 Y9.108 Z-2.552 F200.000
G1 X0.009 Y9.112 Z-2.555 F200.000
G1 X-0.013 Y9.112 Z-2.557 F200.000
G1 X-0.035 Y9.107 Z-2.559 F200.000
G1 X-0.056 Y9.098 Z-2.561 F200.000
G1 X-0.075 Y9.085 Z-2.563 F200.000
G1 X-0.090 Y9.069 Z-2.565 F200.000
G1 X-0.102 Y9.050 Z-2.568 F200.000
G1 X-0.111 Y9.029 Z-2.570 F200.000
G1 X-0.115 Y9.007 Z-2.572 F200.000
G1 X-0.114 Y8.984 Z-2.574 F200.000
G1 X-0.109 Y8.962 Z-2.576 F200.000
G1 X-0.100 Y8.941 Z-2.578 F200.000
G1 X-0.088 Y8.923 Z-2.580 F200.000
G1 X-0.071 Y8.907 Z-2.583 F200.000
G1 X-0.052 Y8.895 Z-2.585 F200.000
G1 X-0.031 Y8.887 Z-2.587 F200.000
G1 X-0.009 Y8.883 Z-2.589 F200.000
G1 X0.013 Y8.883 Z-2.591 F200.000
G1 X0.035 Y8.888 Z-2.593 F200.000
G1 X0.056 Y8.897 Z-2.595 F200.000
G1 X0.075 Y8.910 Z-2.598 F200.000
G1 X0.090 Y8.926 Z-2.600 F200.000
G1 X0.102 Y8.945 Z-2.602 F200.000
G1 X0.111 Y8.966 Z-2.604 F200.000
G1 X0.115 Y8.988 Z-2.606 F200.000
G1 X0.114 Y9.011 Z-2.608 F200.000
G1 X0.109 Y9.033 Z-2.610 F200.000
G1 X0.100 Y9.054 Z-2.613 F200.000
G1 X0.088 Y9.072 Z-2.615 F200.000
G1 X0.071 Y9.088 Z-2.617 F200.000
G1 X0.052 Y9.100 Z-2.619 F200.000
G1 X0.031 Y9.108 Z-2.621 F200.000
G1 X0.009 Y9.112 Z-2.623 F200.000
G1 X-0.013 Y9.112 Z-2.626 F200.000
G1 X-0.035 Y9.107 Z-2.628 F200.000
G1 X-0.056 Y9.098 Z-2.630 F200.000
G1 X-0.075 Y9.085 Z-2.632 F200.000
G1 X-0.090 Y9.069 Z-2.634 F200.000
G1 X-0.102 Y9.050 Z-2.636 F200.000
G1 X-0.111 Y9.029 Z-2.638 F200.000
G1 X-0.115 Y9.007 Z-2.641 F200.000
G1 X-0.114 Y8.984 Z-2.643 F200.000
G1 X-0.109 Y8.962 Z-2.645 F200.000
G1 X-0.100 Y8.941 Z-2.647 F200.000
G1 X-0.088 Y8.923 Z-2.649 F200.000
G1 X-0.071 Y8.907 Z-2.651 F200.000
G1 X-0.052 Y8.895 Z-2.653 F200.000
G1 X-0.031 Y8.887 Z-2.656 F200.000
G1 X-0.009 Y8.883 Z-2.658 F200.000
G1 X0.013 Y8.883 Z-2.660 F200.000
G1 X0.035 Y8.888 Z-2.662 F200.000
G1 X0.056 Y8.897 Z-2.664 F200.000
G1 X0.075 Y8.910 Z-2.666 F200.000
G1 X0.090 Y8.926 Z-2.668 F200.000
G1 X0.102 Y8.945 Z-2.671 F200.000
G1 X0.111 Y8.966 Z-2.673 F200.000
G1 X0.115 Y8.988 Z-2.675 F200.000
G1 X0.114 Y9.011 Z-2.677 F200.000
G1 X0.109 Y9.033 Z-2.679 F200.000
G1 X0.100 Y9.054 Z-2.681 F200.000
G1 X0.088 Y9.072 Z-2.683 F200.000
G1 X0.071 Y9.088 Z-2.686 F200.000
G1 X0.052 Y9.100 Z-2.688 F200.000
G1 X0.031 Y9.108 Z-2.690 F200.000
G1 X0.009 Y9.112 Z-2.692 F200.000
G1 X-0.013 Y9.112 Z-2.694 F200.000
G1 X-0.035 Y9.107 Z-2.696 F200.000
G1 X-0.056 Y9.098 Z-2.699 F200.000
G1 X-0.075 Y9.085 Z-2.701 F200.000
G1 X-0.090 Y9.069 Z-2.703 F200.000
G1 X-0.102 Y9.050 Z-2.705 F200.000
G1 X-0.111 Y9.029 Z-2.707 F200.000
G1 X-0.115 Y9.007 Z-2.709 F200.000
G1 X-0.114 Y8.984 Z-2.711 F200.000
G1 X-0.109 Y8.962 Z-2.714 F200.000
G1 X-0.100 Y8.941 Z-2.716 F200.000
G1 X-0.088 Y8.923 Z-2.718 F200.000
G1 X-0.071 Y8.907 Z-2.720 F200.000
G1 X-0.052 Y8.895 Z-2.722 F200.000
G1 X-0.031 Y8.887 Z-2.724 F200.000
G1 X-0.009 Y8.883 Z-2.726 F200.000
G1 X0.013 Y8.883 Z-2.729 F200.000
G1 X0.035 Y8.888 Z-2.731 F200.000
G1 X0.056 Y8.897 Z-2.733 F200.000
G1 X0.075 Y8.910 Z-2.735 F200.000
G1 X0.090 Y8.926 Z-2.737 F200.000
G1 X0.102 Y8.945 Z-2.739 F200.000
G1 X0.111 Y8.966 Z-2.741 F200.000
G1 X0.115 Y8.988 Z-2.744 F200.000
G1 X0.114 Y9.011 Z-2.746 F200.000
G1 X0.109 Y9.033 Z-2.748 F200.000
G1 X0.100 Y9.054 Z-2.750 F200.000
G1 X0.088 Y9.072 Z-2.752 F200.000
G1 X0.071 Y9.088 Z-2.754 F200.000
G1 X0.052 Y9.100 Z-2.756 F200.000
G1 X0.031 Y9.108 Z-2.759 F200.000
