(Exported by FreeCAD)
(Post Processor: script_module)
(Output Time:2024-12-13 21:28:24.777275)
(Begin preamble)
G17 G90
G21
(Block-name: Fixture)
(Block-expand: 0)
(Block-enable: 1)
(Begin operation: Fixture)
(Path: Fixture)
G54
(Finish operation: Fixture)
(Block-name: 3mm Endmill001)
(Block-expand: 0)
(Block-enable: 1)
(Begin operation: 3mm Endmill001)
(Path: 3mm Endmill001)
(3mm Endmill001)
(Begin toolchange)
( M6 T2 )
M3 S10000
(Finish operation: 3mm Endmill001)
(Block-name: Adaptive)
(Block-expand: 0)
(Block-enable: 1)
(Begin operation: Adaptive)
(Path: Adaptive)
(Adaptive)
(Helix to depth: -5.000000)
G0 Z6.000
G0 X-9.521 Y15.562 Z6.000
G0 X-9.521 Y15.562 Z4.000
G1 X-9.521 Y15.562 Z1.000 F400.000
G1 X-9.521 Y15.562 Z1.000 F400.000
G1 X-9.640 Y15.644 Z0.987 F400.000
G1 X-9.773 Y15.702 Z0.974 F400.000
G1 X-9.915 Y15.732 Z0.961 F400.000
G1 X-10.059 Y15.734 Z0.949 F400.000
G1 X-10.202 Y15.708 Z0.936 F400.000
G1 X-10.336 Y15.655 Z0.923 F400.000
G1 X-10.458 Y15.576 Z0.910 F400.000
G1 X-10.562 Y15.475 Z0.897 F400.000
G1 X-10.644 Y15.356 Z0.884 F400.000
G1 X-10.702 Y15.223 Z0.871 F400.000
G1 X-10.732 Y15.082 Z0.859 F400.000
G1 X-10.734 Y14.937 Z0.846 F400.000
G1 X-10.708 Y14.795 Z0.833 F400.000
G1 X-10.655 Y14.660 Z0.820 F400.000
G1 X-10.576 Y14.538 Z0.807 F400.000
G1 X-10.475 Y14.434 Z0.794 F400.000
G1 X-10.356 Y14.352 Z0.781 F400.000
G1 X-10.223 Y14.295 Z0.769 F400.000
G1 X-10.082 Y14.264 Z0.756 F400.000
G1 X-9.937 Y14.262 Z0.743 F400.000
G1 X-9.795 Y14.288 Z0.730 F400.000
G1 X-9.660 Y14.342 Z0.717 F400.000
G1 X-9.538 Y14.420 Z0.704 F400.000
G1 X-9.434 Y14.521 Z0.691 F400.000
G1 X-9.352 Y14.640 Z0.679 F400.000
G1 X-9.295 Y14.773 Z0.666 F400.000
G1 X-9.264 Y14.915 Z0.653 F400.000
G1 X-9.262 Y15.059 Z0.640 F400.000
G1 X-9.288 Y15.202 Z0.627 F400.000
G1 X-9.342 Y15.336 Z0.614 F400.000
G1 X-9.420 Y15.458 Z0.601 F400.000
G1 X-9.521 Y15.562 Z0.588 F400.000
G1 X-9.640 Y15.644 Z0.576 F400.000
G1 X-9.773 Y15.702 Z0.563 F400.000
G1 X-9.915 Y15.732 Z0.550 F400.000
G1 X-10.059 Y15.734 Z0.537 F400.000
G1 X-10.202 Y15.708 Z0.524 F400.000
G1 X-10.336 Y15.655 Z0.511 F400.000
G1 X-10.458 Y15.576 Z0.498 F400.000
G1 X-10.562 Y15.475 Z0.486 F400.000
G1 X-10.644 Y15.356 Z0.473 F400.000
G1 X-10.702 Y15.223 Z0.460 F400.000
G1 X-10.732 Y15.082 Z0.447 F400.000
G1 X-10.734 Y14.937 Z0.434 F400.000
G1 X-10.708 Y14.795 Z0.421 F400.000
G1 X-10.655 Y14.660 Z0.408 F400.000
G1 X-10.576 Y14.538 Z0.396 F400.000
G1 X-10.475 Y14.434 Z0.383 F400.000
G1 X-10.356 Y14.352 Z0.370 F400.000
G1 X-10.223 Y14.295 Z0.357 F400.000
G1 X-10.082 Y14.264 Z0.344 F400.000
G1 X-9.937 Y14.262 Z0.331 F400.000
G1 X-9.795 Y14.288 Z0.318 F400.000
G1 X-9.660 Y14.342 Z0.306 F400.000
G1 X-9.538 Y14.420 Z0.293 F400.000
G1 X-9.434 Y14.521 Z0.280 F400.000
G1 X-9.352 Y14.640 Z0.267 F400.000
G1 X-9.295 Y14.773 Z0.254 F400.000
G1 X-9.264 Y14.915 Z0.241 F400.000
G1 X-9.262 Y15.059 Z0.228 F400.000
G1 X-9.288 Y15.202 Z0.216 F400.000
G1 X-9.342 Y15.336 Z0.203 F400.000
G1 X-9.420 Y15.458 Z0.190 F400.000
G1 X-9.521 Y15.562 Z0.177 F400.000
G1 X-9.640 Y15.644 Z0.164 F400.000
G1 X-9.773 Y15.702 Z0.151 F400.000
G1 X-9.915 Y15.732 Z0.138 F400.000
G1 X-10.059 Y15.734 Z0.126 F400.000
G1 X-10.202 Y15.708 Z0.113 F400.000
G1 X-10.336 Y15.655 Z0.100 F400.000
G1 X-10.458 Y15.576 Z0.087 F400.000
G1 X-10.562 Y15.475 Z0.074 F400.000
G1 X-10.644 Y15.356 Z0.061 F400.000
G1 X-10.702 Y15.223 Z0.048 F400.000
G1 X-10.732 Y15.082 Z0.036 F400.000
G1 X-10.734 Y14.937 Z0.023 F400.000
G1 X-10.708 Y14.795 Z0.010 F400.000
G1 X-10.655 Y14.660 Z-0.003 F400.000
G1 X-10.576 Y14.538 Z-0.016 F400.000
G1 X-10.475 Y14.434 Z-0.029 F400.000
G1 X-10.356 Y14.352 Z-0.042 F400.000
G1 X-10.223 Y14.295 Z-0.054 F400.000
G1 X-10.082 Y14.264 Z-0.067 F400.000
G1 X-9.937 Y14.262 Z-0.080 F400.000
G1 X-9.795 Y14.288 Z-0.093 F400.000
G1 X-9.660 Y14.342 Z-0.106 F400.000
G1 X-9.538 Y14.420 Z-0.119 F400.000
G1 X-9.434 Y14.521 Z-0.132 F400.000
G1 X-9.352 Y14.640 Z-0.145 F400.000
G1 X-9.295 Y14.773 Z-0.157 F400.000
G1 X-9.264 Y14.915 Z-0.170 F400.000
G1 X-9.262 Y15.059 Z-0.183 F400.000
G1 X-9.288 Y15.202 Z-0.196 F400.000
G1 X-9.342 Y15.336 Z-0.209 F400.000
G1 X-9.420 Y15.458 Z-0.222 F400.000
G1 X-9.521 Y15.562 Z-0.235 F400.000
G1 X-9.640 Y15.644 Z-0.247 F400.000
G1 X-9.773 Y15.702 Z-0.260 F400.000
G1 X-9.915 Y15.732 Z-0.273 F400.000
G1 X-10.059 Y15.734 Z-0.286 F400.000
G1 X-10.202 Y15.708 Z-0.299 F400.000
G1 X-10.336 Y15.655 Z-0.312 F400.000
G1 X-10.458 Y15.576 Z-0.325 F400.000
G1 X-10.562 Y15.475 Z-0.337 F400.000
G1 X-10.644 Y15.356 Z-0.350 F400.000
G1 X-10.702 Y15.223 Z-0.363 F400.000
G1 X-10.732 Y15.082 Z-0.376 F400.000
G1 X-10.734 Y14.937 Z-0.389 F400.000
G1 X-10.708 Y14.795 Z-0.402 F400.000
G1 X-10.655 Y14.660 Z-0.415 F400.000
G1 X-10.576 Y14.538 Z-0.427 F400.000
G1 X-10.475 Y14.434 Z-0.440 F400.000
G1 X-10.356 Y14.352 Z-0.453 F400.000
G1 X-10.223 Y14.295 Z-0.466 F400.000
G1 X-10.082 Y14.264 Z-0.479 F400.000
G1 X-9.937 Y14.262 Z-0.492 F400.000
G1 X-9.795 Y14.288 Z-0.505 F400.000
G1 X-9.660 Y14.342 Z-0.517 F400.000
G1 X-9.538 Y14.420 Z-0.530 F400.000
G1 X-9.434 Y14.521 Z-0.543 F400.000
G1 X-9.352 Y14.640 Z-0.556 F400.000
G1 X-9.295 Y14.773 Z-0.569 F400.000
G1 X-9.264 Y14.915 Z-0.582 F400.000
G1 X-9.262 Y15.059 Z-0.595 F400.000
G1 X-9.288 Y15.202 Z-0.607 F400.000
G1 X-9.342 Y15.336 Z-0.620 F400.000
G1 X-9.420 Y15.458 Z-0.633 F400.000
G1 X-9.521 Y15.562 Z-0.646 F400.000
G1 X-9.640 Y15.644 Z-0.659 F400.000
G1 X-9.773 Y15.702 Z-0.672 F400.000
G1 X-9.915 Y15.732 Z-0.685 F400.000
G1 X-10.059 Y15.734 Z-0.697 F400.000
G1 X-10.202 Y15.708 Z-0.710 F400.000
G1 X-10.336 Y15.655 Z-0.723 F400.000
G1 X-10.458 Y15.576 Z-0.736 F400.000
G1 X-10.562 Y15.475 Z-0.749 F400.000
G1 X-10.644 Y15.356 Z-0.762 F400.000
G1 X-10.702 Y15.223 Z-0.775 F400.000
G1 X-10.732 Y15.082 Z-0.787 F400.000
G1 X-10.734 Y14.937 Z-0.800 F400.000
G1 X-10.708 Y14.795 Z-0.813 F400.000
G1 X-10.655 Y14.660 Z-0.826 F400.000
G1 X-10.576 Y14.538 Z-0.839 F400.000
G1 X-10.475 Y14.434 Z-0.852 F400.000
G1 X-10.356 Y14.352 Z-0.865 F400.000
G1 X-10.223 Y14.295 Z-0.878 F400.000
G1 X-10.082 Y14.264 Z-0.890 F400.000
G1 X-9.937 Y14.262 Z-0.903 F400.000
G1 X-9.795 Y14.288 Z-0.916 F400.000
G1 X-9.660 Y14.342 Z-0.929 F400.000
G1 X-9.538 Y14.420 Z-0.942 F400.000
G1 X-9.434 Y14.521 Z-0.955 F400.000
G1 X-9.352 Y14.640 Z-0.968 F400.000
G1 X-9.295 Y14.773 Z-0.980 F400.000
G1 X-9.264 Y14.915 Z-0.993 F400.000
G1 X-9.262 Y15.059 Z-1.006 F400.000
G1 X-9.288 Y15.202 Z-1.019 F400.000
G1 X-9.342 Y15.336 Z-1.032 F400.000
G1 X-9.420 Y15.458 Z-1.045 F400.000
G1 X-9.521 Y15.562 Z-1.058 F400.000
G1 X-9.640 Y15.644 Z-1.070 F400.000
G1 X-9.773 Y15.702 Z-1.083 F400.000
G1 X-9.915 Y15.732 Z-1.096 F400.000
G1 X-10.059 Y15.734 Z-1.109 F400.000
G1 X-10.202 Y15.708 Z-1.122 F400.000
G1 X-10.336 Y15.655 Z-1.135 F400.000
G1 X-10.458 Y15.576 Z-1.148 F400.000
G1 X-10.562 Y15.475 Z-1.160 F400.000
G1 X-10.644 Y15.356 Z-1.173 F400.000
G1 X-10.702 Y15.223 Z-1.186 F400.000
G1 X-10.732 Y15.082 Z-1.199 F400.000
G1 X-10.734 Y14.937 Z-1.212 F400.000
G1 X-10.708 Y14.795 Z-1.225 F400.000
G1 X-10.655 Y14.660 Z-1.238 F400.000
G1 X-10.576 Y14.538 Z-1.250 F400.000
G1 X-10.475 Y14.434 Z-1.263 F400.000
G1 X-10.356 Y14.352 Z-1.276 F400.000
G1 X-10.223 Y14.295 Z-1.289 F400.000
G1 X-10.082 Y14.264 Z-1.302 F400.000
G1 X-9.937 Y14.262 Z-1.315 F400.000
G1 X-9.795 Y14.288 Z-1.328 F400.000
G1 X-9.660 Y14.342 Z-1.340 F400.000
G1 X-9.538 Y14.420 Z-1.353 F400.000
G1 X-9.434 Y14.521 Z-1.366 F400.000
G1 X-9.352 Y14.640 Z-1.379 F400.000
G1 X-9.295 Y14.773 Z-1.392 F400.000
G1 X-9.264 Y14.915 Z-1.405 F400.000
G1 X-9.262 Y15.059 Z-1.418 F400.000
G1 X-9.288 Y15.202 Z-1.430 F400.000
G1 X-9.342 Y15.336 Z-1.443 F400.000
G1 X-9.420 Y15.458 Z-1.456 F400.000
G1 X-9.521 Y15.562 Z-1.469 F400.000
G1 X-9.640 Y15.644 Z-1.482 F400.000
G1 X-9.773 Y15.702 Z-1.495 F400.000
G1 X-9.915 Y15.732 Z-1.508 F400.000
G1 X-10.059 Y15.734 Z-1.520 F400.000
G1 X-10.202 Y15.708 Z-1.533 F400.000
G1 X-10.336 Y15.655 Z-1.546 F400.000
G1 X-10.458 Y15.576 Z-1.559 F400.000
G1 X-10.562 Y15.475 Z-1.572 F400.000
G1 X-10.644 Y15.356 Z-1.585 F400.000
G1 X-10.702 Y15.223 Z-1.598 F400.000
G1 X-10.732 Y15.082 Z-1.610 F400.000
G1 X-10.734 Y14.937 Z-1.623 F400.000
G1 X-10.708 Y14.795 Z-1.636 F400.000
G1 X-10.655 Y14.660 Z-1.649 F400.000
G1 X-10.576 Y14.538 Z-1.662 F400.000
G1 X-10.475 Y14.434 Z-1.675 F400.000
G1 X-10.356 Y14.352 Z-1.688 F400.000
G1 X-10.223 Y14.295 Z-1.701 F400.000
G1 X-10.082 Y14.264 Z-1.713 F400.000
G1 X-9.937 Y14.262 Z-1.726 F400.000
G1 X-9.795 Y14.288 Z-1.739 F400.000
G1 X-9.660 Y14.342 Z-1.752 F400.000
G1 X-9.538 Y14.420 Z-1.765 F400.000
G1 X-9.434 Y14.521 Z-1.778 F400.000
G1 X-9.352 Y14.640 Z-1.791 F400.000
G1 X-9.295 Y14.773 Z-1.803 F400.000
G1 X-9.264 Y14.915 Z-1.816 F400.000
G1 X-9.262 Y15.059 Z-1.829 F400.000
G1 X-9.288 Y15.202 Z-1.842 F400.000
G1 X-9.342 Y15.336 Z-1.855 F400.000
G1 X-9.420 Y15.458 Z-1.868 F400.000
G1 X-9.521 Y15.562 Z-1.881 F400.000
G1 X-9.640 Y15.644 Z-1.893 F400.000
G1 X-9.773 Y15.702 Z-1.906 F400.000
G1 X-9.915 Y15.732 Z-1.919 F400.000
G1 X-10.059 Y15.734 Z-1.932 F400.000
G1 X-10.202 Y15.708 Z-1.945 F400.000
G1 X-10.336 Y15.655 Z-1.958 F400.000
G1 X-10.458 Y15.576 Z-1.971 F400.000
G1 X-10.562 Y15.475 Z-1.983 F400.000
G1 X-10.644 Y15.356 Z-1.996 F400.000
G1 X-10.702 Y15.223 Z-2.009 F400.000
G1 X-10.732 Y15.082 Z-2.022 F400.000
G1 X-10.734 Y14.937 Z-2.035 F400.000
G1 X-10.708 Y14.795 Z-2.048 F400.000
G1 X-10.655 Y14.660 Z-2.061 F400.000
G1 X-10.576 Y14.538 Z-2.073 F400.000
G1 X-10.475 Y14.434 Z-2.086 F400.000
G1 X-10.356 Y14.352 Z-2.099 F400.000
G1 X-10.223 Y14.295 Z-2.112 F400.000
G1 X-10.082 Y14.264 Z-2.125 F400.000
G1 X-9.937 Y14.262 Z-2.138 F400.000
G1 X-9.795 Y14.288 Z-2.151 F400.000
G1 X-9.660 Y14.342 Z-2.163 F400.000
G1 X-9.538 Y14.420 Z-2.176 F400.000
G1 X-9.434 Y14.521 Z-2.189 F400.000
G1 X-9.352 Y14.640 Z-2.202 F400.000
G1 X-9.295 Y14.773 Z-2.215 F400.000
G1 X-9.264 Y14.915 Z-2.228 F400.000
G1 X-9.262 Y15.059 Z-2.241 F400.000
G1 X-9.288 Y15.202 Z-2.253 F400.000
G1 X-9.342 Y15.336 Z-2.266 F400.000
G1 X-9.420 Y15.458 Z-2.279 F400.000
G1 X-9.521 Y15.562 Z-2.292 F400.000
G1 X-9.640 Y15.644 Z-2.305 F400.000
G1 X-9.773 Y15.702 Z-2.318 F400.000
G1 X-9.915 Y15.732 Z-2.331 F400.000
G1 X-10.059 Y15.734 Z-2.343 F400.000
G1 X-10.202 Y15.708 Z-2.356 F400.000
G1 X-10.336 Y15.655 Z-2.369 F400.000
G1 X-10.458 Y15.576 Z-2.382 F400.000
G1 X-10.562 Y15.475 Z-2.395 F400.000
G1 X-10.644 Y15.356 Z-2.408 F400.000
G1 X-10.702 Y15.223 Z-2.421 F400.000
G1 X-10.732 Y15.082 Z-2.434 F400.000
G1 X-10.734 Y14.937 Z-2.446 F400.000
G1 X-10.708 Y14.795 Z-2.459 F400.000
G1 X-10.655 Y14.660 Z-2.472 F400.000
G1 X-10.576 Y14.538 Z-2.485 F400.000
G1 X-10.475 Y14.434 Z-2.498 F400.000
G1 X-10.356 Y14.352 Z-2.511 F400.000
G1 X-10.223 Y14.295 Z-2.524 F400.000
G1 X-10.082 Y14.264 Z-2.536 F400.000
G1 X-9.937 Y14.262 Z-2.549 F400.000
G1 X-9.795 Y14.288 Z-2.562 F400.000
G1 X-9.660 Y14.342 Z-2.575 F400.000
G1 X-9.538 Y14.420 Z-2.588 F400.000
G1 X-9.434 Y14.521 Z-2.601 F400.000
G1 X-9.352 Y14.640 Z-2.614 F400.000
G1 X-9.295 Y14.773 Z-2.626 F400.000
G1 X-9.264 Y14.915 Z-2.639 F400.000
G1 X-9.262 Y15.059 Z-2.652 F400.000
G1 X-9.288 Y15.202 Z-2.665 F400.000
G1 X-9.342 Y15.336 Z-2.678 F400.000
G1 X-9.420 Y15.458 Z-2.691 F400.000
G1 X-9.521 Y15.562 Z-2.704 F400.000
G1 X-9.640 Y15.644 Z-2.716 F400.000
G1 X-9.773 Y15.702 Z-2.729 F400.000
G1 X-9.915 Y15.732 Z-2.742 F400.000
G1 X-10.059 Y15.734 Z-2.755 F400.000
G1 X-10.202 Y15.708 Z-2.768 F400.000
G1 X-10.336 Y15.655 Z-2.781 F400.000
G1 X-10.458 Y15.576 Z-2.794 F400.000
G1 X-10.562 Y15.475 Z-2.806 F400.000
G1 X-10.644 Y15.356 Z-2.819 F400.000
G1 X-10.702 Y15.223 Z-2.832 F400.000
G1 X-10.732 Y15.082 Z-2.845 F400.000
G1 X-10.734 Y14.937 Z-2.858 F400.000
G1 X-10.708 Y14.795 Z-2.871 F400.000
G1 X-10.655 Y14.660 Z-2.884 F400.000
G1 X-10.576 Y14.538 Z-2.896 F400.000
G1 X-10.475 Y14.434 Z-2.909 F400.000
G1 X-10.356 Y14.352 Z-2.922 F400.000
G1 X-10.223 Y14.295 Z-2.935 F400.000
G1 X-10.082 Y14.264 Z-2.948 F400.000
G1 X-9.937 Y14.262 Z-2.961 F400.000
G1 X-9.795 Y14.288 Z-2.974 F400.000
G1 X-9.660 Y14.342 Z-2.986 F400.000
G1 X-9.538 Y14.420 Z-2.999 F400.000
G1 X-9.434 Y14.521 Z-3.012 F400.000
G1 X-9.352 Y14.640 Z-3.025 F400.000
G1 X-9.295 Y14.773 Z-3.038 F400.000
G1 X-9.264 Y14.915 Z-3.051 F400.000
G1 X-9.262 Y15.059 Z-3.064 F400.000
G1 X-9.288 Y15.202 Z-3.076 F400.000
G1 X-9.342 Y15.336 Z-3.089 F400.000
G1 X-9.420 Y15.458 Z-3.102 F400.000
G1 X-9.521 Y15.562 Z-3.115 F400.000
G1 X-9.640 Y15.644 Z-3.128 F400.000
G1 X-9.773 Y15.702 Z-3.141 F400.000
G1 X-9.915 Y15.732 Z-3.154 F400.000
G1 X-10.059 Y15.734 Z-3.167 F400.000
G1 X-10.202 Y15.708 Z-3.179 F400.000
G1 X-10.336 Y15.655 Z-3.192 F400.000
G1 X-10.458 Y15.576 Z-3.205 F400.000
G1 X-10.562 Y15.475 Z-3.218 F400.000
G1 X-10.644 Y15.356 Z-3.231 F400.000
G1 X-10.702 Y15.223 Z-3.244 F400.000
G1 X-10.732 Y15.082 Z-3.257 F400.000
G1 X-10.734 Y14.937 Z-3.269 F400.000
G1 X-10.708 Y14.795 Z-3.282 F400.000
G1 X-10.655 Y14.660 Z-3.295 F400.000
G1 X-10.576 Y14.538 Z-3.308 F400.000
G1 X-10.475 Y14.434 Z-3.321 F400.000
G1 X-10.356 Y14.352 Z-3.334 F400.000
G1 X-10.223 Y14.295 Z-3.347 F400.000
G1 X-10.082 Y14.264 Z-3.359 F400.000
G1 X-9.937 Y14.262 Z-3.372 F400.000
G1 X-9.795 Y14.288 Z-3.385 F400.000
G1 X-9.660 Y14.342 Z-3.398 F400.000
G1 X-9.538 Y14.420 Z-3.411 F400.000
G1 X-9.434 Y14.521 Z-3.424 F400.000
G1 X-9.352 Y14.640 Z-3.437 F400.000
G1 X-9.295 Y14.773 Z-3.449 F400.000
G1 X-9.264 Y14.915 Z-3.462 F400.000
G1 X-9.262 Y15.059 Z-3.475 F400.000
G1 X-9.288 Y15.202 Z-3.488 F400.000
G1 X-9.342 Y15.336 Z-3.501 F400.000
G1 X-9.420 Y15.458 Z-3.514 F400.000
G1 X-9.521 Y15.562 Z-3.527 F400.000
G1 X-9.640 Y15.644 Z-3.539 F400.000
G1 X-9.773 Y15.702 Z-3.552 F400.000
G1 X-9.915 Y15.732 Z-3.565 F400.000
G1 X-10.059 Y15.734 Z-3.578 F400.000
G1 X-10.202 Y15.708 Z-3.591 F400.000
G1 X-10.336 Y15.655 Z-3.604 F400.000
G1 X-10.458 Y15.576 Z-3.617 F400.000
G1 X-10.562 Y15.475 Z-3.629 F400.000
G1 X-10.644 Y15.356 Z-3.642 F400.000
G1 X-10.702 Y15.223 Z-3.655 F400.000
G1 X-10.732 Y15.082 Z-3.668 F400.000
G1 X-10.734 Y14.937 Z-3.681 F400.000
G1 X-10.708 Y14.795 Z-3.694 F400.000
G1 X-10.655 Y14.660 Z-3.707 F400.000
G1 X-10.576 Y14.538 Z-3.719 F400.000
G1 X-10.475 Y14.434 Z-3.732 F400.000
G1 X-10.356 Y14.352 Z-3.745 F400.000
G1 X-10.223 Y14.295 Z-3.758 F400.000
G1 X-10.082 Y14.264 Z-3.771 F400.000
G1 X-9.937 Y14.262 Z-3.784 F400.000
G1 X-9.795 Y14.288 Z-3.797 F400.000
G1 X-9.660 Y14.342 Z-3.809 F400.000
G1 X-9.538 Y14.420 Z-3.822 F400.000
G1 X-9.434 Y14.521 Z-3.835 F400.000
G1 X-9.352 Y14.640 Z-3.848 F400.000
G1 X-9.295 Y14.773 Z-3.861 F400.000
G1 X-9.264 Y14.915 Z-3.874 F400.000
G1 X-9.262 Y15.059 Z-3.887 F400.000
G1 X-9.288 Y15.202 Z-3.900 F400.000
G1 X-9.342 Y15.336 Z-3.912 F400.000
G1 X-9.420 Y15.458 Z-3.925 F400.000
G1 X-9.521 Y15.562 Z-3.938 F400.000
G1 X-9.640 Y15.644 Z-3.951 F400.000
G1 X-9.773 Y15.702 Z-3.964 F400.000
G1 X-9.915 Y15.732 Z-3.977 F400.000
G1 X-10.059 Y15.734 Z-3.990 F400.000
G1 X-10.202 Y15.708 Z-4.002 F400.000
G1 X-10.336 Y15.655 Z-4.015 F400.000
G1 X-10.458 Y15.576 Z-4.028 F400.000
G1 X-10.562 Y15.475 Z-4.041 F400.000
G1 X-10.644 Y15.356 Z-4.054 F400.000
G1 X-10.702 Y15.223 Z-4.067 F400.000
G1 X-10.732 Y15.082 Z-4.080 F400.000
G1 X-10.734 Y14.937 Z-4.092 F400.000
G1 X-10.708 Y14.795 Z-4.105 F400.000
G1 X-10.655 Y14.660 Z-4.118 F400.000
G1 X-10.576 Y14.538 Z-4.131 F400.000
G1 X-10.475 Y14.434 Z-4.144 F400.000
G1 X-10.356 Y14.352 Z-4.157 F400.000
G1 X-10.223 Y14.295 Z-4.170 F400.000
G1 X-10.082 Y14.264 Z-4.182 F400.000
G1 X-9.937 Y14.262 Z-4.195 F400.000
G1 X-9.795 Y14.288 Z-4.208 F400.000
G1 X-9.660 Y14.342 Z-4.221 F400.000
G1 X-9.538 Y14.420 Z-4.234 F400.000
G1 X-9.434 Y14.521 Z-4.247 F400.000
G1 X-9.352 Y14.640 Z-4.260 F400.000
G1 X-9.295 Y14.773 Z-4.272 F400.000
G1 X-9.264 Y14.915 Z-4.285 F400.000
G1 X-9.262 Y15.059 Z-4.298 F400.000
G1 X-9.288 Y15.202 Z-4.311 F400.000
G1 X-9.342 Y15.336 Z-4.324 F400.000
G1 X-9.420 Y15.458 Z-4.337 F400.000
G1 X-9.521 Y15.562 Z-4.350 F400.000
G1 X-9.640 Y15.644 Z-4.362 F400.000
G1 X-9.773 Y15.702 Z-4.375 F400.000
G1 X-9.915 Y15.732 Z-4.388 F400.000
G1 X-10.059 Y15.734 Z-4.401 F400.000
G1 X-10.202 Y15.708 Z-4.414 F400.000
G1 X-10.336 Y15.655 Z-4.427 F400.000
G1 X-10.458 Y15.576 Z-4.440 F400.000
G1 X-10.562 Y15.475 Z-4.452 F400.000
G1 X-10.644 Y15.356 Z-4.465 F400.000
G1 X-10.702 Y15.223 Z-4.478 F400.000
G1 X-10.732 Y15.082 Z-4.491 F400.000
G1 X-10.734 Y14.937 Z-4.504 F400.000
G1 X-10.708 Y14.795 Z-4.517 F400.000
G1 X-10.655 Y14.660 Z-4.530 F400.000
G1 X-10.576 Y14.538 Z-4.542 F400.000
G1 X-10.475 Y14.434 Z-4.555 F400.000
G1 X-10.356 Y14.352 Z-4.568 F400.000
G1 X-10.223 Y14.295 Z-4.581 F400.000
G1 X-10.082 Y14.264 Z-4.594 F400.000
G1 X-9.937 Y14.262 Z-4.607 F400.000
G1 X-9.795 Y14.288 Z-4.620 F400.000
G1 X-9.660 Y14.342 Z-4.633 F400.000
G1 X-9.538 Y14.420 Z-4.645 F400.000
G1 X-9.434 Y14.521 Z-4.658 F400.000
G1 X-9.352 Y14.640 Z-4.671 F400.000
G1 X-9.295 Y14.773 Z-4.684 F400.000
G1 X-9.264 Y14.915 Z-4.697 F400.000
G1 X-9.262 Y15.059 Z-4.710 F400.000
G1 X-9.288 Y15.202 Z-4.723 F400.000
G1 X-9.342 Y15.336 Z-4.735 F400.000
G1 X-9.420 Y15.458 Z-4.748 F400.000
G1 X-9.521 Y15.562 Z-4.761 F400.000
G1 X-9.640 Y15.644 Z-4.774 F400.000
G1 X-9.773 Y15.702 Z-4.787 F400.000
G1 X-9.915 Y15.732 Z-4.800 F400.000
G1 X-10.059 Y15.734 Z-4.813 F400.000
G1 X-10.202 Y15.708 Z-4.825 F400.000
G1 X-10.336 Y15.655 Z-4.838 F400.000
G1 X-10.458 Y15.576 Z-4.851 F400.000
G1 X-10.562 Y15.475 Z-4.864 F400.000
G1 X-10.644 Y15.356 Z-4.877 F400.000
G1 X-10.702 Y15.223 Z-4.890 F400.000
G1 X-10.732 Y15.082 Z-4.903 F400.000
G1 X-10.734 Y14.937 Z-4.915 F400.000
G1 X-10.708 Y14.795 Z-4.928 F400.000
G1 X-10.655 Y14.660 Z-4.941 F400.000
G1 X-10.576 Y14.538 Z-4.954 F400.000
G1 X-10.475 Y14.434 Z-4.967 F400.000
G1 X-10.356 Y14.352 Z-4.980 F400.000
G1 X-10.223 Y14.295 Z-4.993 F400.000
G1 X-10.082 Y14.264 Z-5.000 F400.000
G1 X-9.937 Y14.262 Z-5.000 F400.000
G1 X-9.795 Y14.288 Z-5.000 F400.000
G1 X-9.660 Y14.342 Z-5.000 F400.000
G1 X-9.538 Y14.420 Z-5.000 F400.000
G1 X-9.434 Y14.521 Z-5.000 F400.000
G1 X-9.352 Y14.640 Z-5.000 F400.000
G1 X-9.295 Y14.773 Z-5.000 F400.000
G1 X-9.264 Y14.915 Z-5.000 F400.000
G1 X-9.262 Y15.059 Z-5.000 F400.000
G1 X-9.288 Y15.202 Z-5.000 F400.000
G1 X-9.342 Y15.336 Z-5.000 F400.000
G1 X-9.420 Y15.458 Z-5.000 F400.000
G1 X-9.521 Y15.562 Z-5.000 F400.000
G1 X-9.640 Y15.644 Z-5.000 F400.000
G1 X-9.773 Y15.702 Z-5.000 F400.000
G1 X-9.915 Y15.732 Z-5.000 F400.000
G1 X-10.059 Y15.734 Z-5.000 F400.000
G1 X-10.202 Y15.708 Z-5.000 F400.000
G1 X-10.336 Y15.655 Z-5.000 F400.000
G1 X-10.458 Y15.576 Z-5.000 F400.000
G1 X-10.562 Y15.475 Z-5.000 F400.000
G1 X-10.644 Y15.356 Z-5.000 F400.000
G1 X-10.702 Y15.223 Z-5.000 F400.000
G1 X-10.732 Y15.082 Z-5.000 F400.000
G1 X-10.734 Y14.937 Z-5.000 F400.000
G1 X-10.708 Y14.795 Z-5.000 F400.000
G1 X-10.655 Y14.660 Z-5.000 F400.000
G1 X-10.576 Y14.538 Z-5.000 F400.000
G1 X-10.475 Y14.434 Z-5.000 F400.000
G1 X-10.356 Y14.352 Z-5.000 F400.000
G1 X-10.223 Y14.295 Z-5.000 F400.000
(Adaptive - depth: -5.000000)
G1 X-9.998 Y14.250 F400.000
G1 X-9.972 Y14.233 F400.000
G1 X-9.912 Y14.216 F400.000
G1 X-9.822 Y14.210 F400.000
G1 X-9.702 Y14.225 F400.000
G1 X-9.614 Y14.251 F400.000
G1 X-9.411 Y14.381 F400.000
G1 X-9.323 Y14.473 F400.000
G1 X-9.278 Y14.533 F400.000
G1 X-9.235 Y14.604 F400.000
G1 X-9.189 Y14.705 F400.000
G1 X-9.154 Y14.833 F400.000
G1 X-9.139 Y14.947 F400.000
G1 X-9.139 Y15.056 F400.000
G1 X-9.152 Y15.163 F400.000
G1 X-9.180 Y15.270 F400.000
G1 X-9.225 Y15.379 F400.000
G1 X-9.281 Y15.475 F400.000
G1 X-9.351 Y15.565 F400.000
G1 X-9.432 Y15.644 F400.000
G1 X-9.522 Y15.713 F400.000
G1 X-9.619 Y15.769 F400.000
G1 X-9.724 Y15.812 F400.000
G1 X-9.833 Y15.841 F400.000
G1 X-9.946 Y15.854 F400.000
G1 X-10.058 Y15.852 F400.000
G1 X-10.171 Y15.837 F400.000
G1 X-10.280 Y15.807 F400.000
G1 X-10.385 Y15.762 F400.000
G1 X-10.482 Y15.704 F400.000
G1 X-10.572 Y15.632 F400.000
G1 X-10.651 Y15.550 F400.000
G1 X-10.713 Y15.465 F400.000
G1 X-10.765 Y15.368 F400.000
G1 X-10.807 Y15.265 F400.000
G1 X-10.835 Y15.150 F400.000
G1 X-10.848 Y15.038 F400.000
G1 X-10.846 Y14.919 F400.000
G1 X-10.826 Y14.803 F400.000
G1 X-10.795 Y14.704 F400.000
G1 X-10.750 Y14.598 F400.000
G1 X-10.689 Y14.499 F400.000
G1 X-10.619 Y14.413 F400.000
G1 X-10.537 Y14.334 F400.000
G1 X-10.445 Y14.266 F400.000
G1 X-10.261 Y14.169 F400.000
G1 X-10.054 Y14.101 F400.000
G1 X-9.904 Y14.083 F400.000
G1 X-9.754 Y14.092 F400.000
G1 X-9.634 Y14.120 F400.000
G1 X-9.418 Y14.225 F400.000
G1 X-9.287 Y14.334 F400.000
G1 X-9.227 Y14.400 F400.000
G1 X-9.174 Y14.469 F400.000
G1 X-9.120 Y14.565 F400.000
G1 X-9.069 Y14.681 F400.000
G1 X-9.034 Y14.805 F400.000
G1 X-9.017 Y14.921 F400.000
G1 X-9.013 Y15.038 F400.000
G1 X-9.024 Y15.158 F400.000
G1 X-9.051 Y15.274 F400.000
G1 X-9.090 Y15.386 F400.000
G1 X-9.144 Y15.492 F400.000
G1 X-9.212 Y15.589 F400.000
G1 X-9.291 Y15.679 F400.000
G1 X-9.379 Y15.758 F400.000
G1 X-9.477 Y15.826 F400.000
G1 X-9.587 Y15.886 F400.000
G1 X-9.705 Y15.931 F400.000
G1 X-9.824 Y15.957 F400.000
G1 X-9.931 Y15.968 F400.000
G1 X-10.049 Y15.968 F400.000
G1 X-10.176 Y15.951 F400.000
G1 X-10.300 Y15.921 F400.000
G1 X-10.417 Y15.874 F400.000
G1 X-10.516 Y15.820 F400.000
G1 X-10.614 Y15.747 F400.000
G1 X-10.694 Y15.668 F400.000
G1 X-10.767 Y15.578 F400.000
G1 X-10.831 Y15.480 F400.000
G1 X-10.889 Y15.362 F400.000
G1 X-10.931 Y15.240 F400.000
G1 X-10.953 Y15.118 F400.000
G1 X-10.961 Y15.009 F400.000
G1 X-10.955 Y14.889 F400.000
G1 X-10.934 Y14.771 F400.000
G1 X-10.899 Y14.651 F400.000
G1 X-10.850 Y14.540 F400.000
G1 X-10.788 Y14.435 F400.000
G1 X-10.713 Y14.338 F400.000
G1 X-10.627 Y14.250 F400.000
G1 X-10.531 Y14.173 F400.000
G1 X-10.428 Y14.107 F400.000
G1 X-10.221 Y14.011 F400.000
G1 X-10.041 Y13.964 F400.000
G1 X-9.861 Y13.951 F400.000
G1 X-9.741 Y13.962 F400.000
G1 X-9.510 Y14.032 F400.000
G1 X-9.336 Y14.128 F400.000
G1 X-9.257 Y14.186 F400.000
G1 X-9.189 Y14.246 F400.000
G1 X-9.114 Y14.332 F400.000
G1 X-9.043 Y14.435 F400.000
G1 X-8.977 Y14.559 F400.000
G1 X-8.931 Y14.677 F400.000
G1 X-8.897 Y14.807 F400.000
G1 X-8.882 Y14.934 F400.000
G1 X-8.880 Y15.054 F400.000
G1 X-8.893 Y15.180 F400.000
G1 X-8.921 Y15.302 F400.000
G1 X-8.962 Y15.418 F400.000
G1 X-9.017 Y15.531 F400.000
G1 X-9.090 Y15.644 F400.000
G1 X-9.171 Y15.743 F400.000
G1 X-9.263 Y15.833 F400.000
G1 X-9.366 Y15.912 F400.000
G1 X-9.477 Y15.977 F400.000
G1 X-9.597 Y16.028 F400.000
G1 X-9.711 Y16.062 F400.000
G1 X-9.835 Y16.084 F400.000
G1 X-9.959 Y16.094 F400.000
G1 X-10.099 Y16.088 F400.000
G1 X-10.229 Y16.068 F400.000
G1 X-10.356 Y16.030 F400.000
G1 X-10.467 Y15.983 F400.000
G1 X-10.578 Y15.919 F400.000
G1 X-10.679 Y15.844 F400.000
G1 X-10.769 Y15.760 F400.000
G1 X-10.852 Y15.664 F400.000
G1 X-10.929 Y15.552 F400.000
G1 X-10.991 Y15.432 F400.000
G1 X-11.034 Y15.315 F400.000
G1 X-11.062 Y15.195 F400.000
G1 X-11.077 Y15.068 F400.000
G1 X-11.079 Y14.944 F400.000
G1 X-11.064 Y14.809 F400.000
G1 X-11.036 Y14.681 F400.000
G1 X-10.992 Y14.557 F400.000
G1 X-10.934 Y14.437 F400.000
G1 X-10.865 Y14.326 F400.000
G1 X-10.782 Y14.225 F400.000
G1 X-10.690 Y14.133 F400.000
G1 X-10.589 Y14.051 F400.000
G1 X-10.471 Y13.976 F400.000
G1 X-10.351 Y13.916 F400.000
G1 X-10.225 Y13.869 F400.000
G1 X-10.092 Y13.837 F400.000
G1 X-9.959 Y13.820 F400.000
G1 X-9.824 Y13.822 F400.000
G1 X-9.705 Y13.835 F400.000
G1 X-9.578 Y13.865 F400.000
G1 X-9.456 Y13.906 F400.000
G1 X-9.332 Y13.966 F400.000
G1 X-9.221 Y14.038 F400.000
G1 X-9.122 Y14.122 F400.000
G1 X-9.041 Y14.205 F400.000
G1 X-8.959 Y14.310 F400.000
G1 X-8.886 Y14.428 F400.000
G1 X-8.826 Y14.553 F400.000
G1 X-8.780 Y14.683 F400.000
G1 X-8.752 Y14.818 F400.000
G1 X-8.739 Y14.938 F400.000
G1 X-8.739 Y15.068 F400.000
G1 X-8.756 Y15.206 F400.000
G1 X-8.786 Y15.334 F400.000
G1 X-8.829 Y15.462 F400.000
G1 X-8.891 Y15.591 F400.000
G1 X-8.962 Y15.705 F400.000
G1 X-9.047 Y15.814 F400.000
G1 X-9.143 Y15.912 F400.000
G1 X-9.250 Y15.998 F400.000
G1 X-9.356 Y16.068 F400.000
G1 X-9.477 Y16.126 F400.000
G1 X-9.600 Y16.171 F400.000
G1 X-9.728 Y16.203 F400.000
G1 X-9.871 Y16.223 F400.000
G1 X-10.013 Y16.227 F400.000
G1 X-10.152 Y16.218 F400.000
G1 X-10.293 Y16.189 F400.000
G1 X-10.413 Y16.152 F400.000
G1 X-10.538 Y16.098 F400.000
G1 X-10.655 Y16.030 F400.000
G1 X-10.760 Y15.951 F400.000
G1 X-10.859 Y15.859 F400.000
G1 X-10.946 Y15.758 F400.000
G1 X-11.023 Y15.649 F400.000
G1 X-11.090 Y15.525 F400.000
G1 X-11.143 Y15.398 F400.000
G1 X-11.180 Y15.266 F400.000
G1 X-11.205 Y15.129 F400.000
G1 X-11.214 Y14.992 F400.000
G1 X-11.205 Y14.856 F400.000
G1 X-11.184 Y14.735 F400.000
G1 X-11.150 Y14.608 F400.000
G1 X-11.098 Y14.471 F400.000
G1 X-11.028 Y14.338 F400.000
G1 X-10.951 Y14.218 F400.000
G1 X-10.859 Y14.103 F400.000
G1 X-10.754 Y14.002 F400.000
G1 X-10.655 Y13.923 F400.000
G1 X-10.537 Y13.848 F400.000
G1 X-10.415 Y13.788 F400.000
G1 X-10.276 Y13.735 F400.000
G1 X-10.131 Y13.698 F400.000
G1 X-9.989 Y13.679 F400.000
G1 X-9.859 Y13.674 F400.000
G1 X-9.720 Y13.685 F400.000
G1 X-9.585 Y13.711 F400.000
G1 X-9.456 Y13.750 F400.000
G1 X-9.330 Y13.805 F400.000
G1 X-9.210 Y13.872 F400.000
G1 X-9.099 Y13.951 F400.000
G1 X-8.996 Y14.041 F400.000
G1 X-8.895 Y14.150 F400.000
G1 X-8.807 Y14.268 F400.000
G1 X-8.735 Y14.394 F400.000
G1 X-8.683 Y14.508 F400.000
G1 X-8.638 Y14.647 F400.000
G1 X-8.608 Y14.782 F400.000
G1 X-8.593 Y14.925 F400.000
G1 X-8.593 Y15.066 F400.000
G1 X-8.608 Y15.206 F400.000
G1 X-8.636 Y15.345 F400.000
G1 X-8.681 Y15.488 F400.000
G1 X-8.737 Y15.619 F400.000
G1 X-8.809 Y15.747 F400.000
G1 X-8.893 Y15.867 F400.000
G1 X-8.992 Y15.974 F400.000
G1 X-9.084 Y16.056 F400.000
G1 X-9.195 Y16.137 F400.000
G1 X-9.325 Y16.212 F400.000
G1 X-9.458 Y16.272 F400.000
G1 X-9.595 Y16.319 F400.000
G1 X-9.737 Y16.351 F400.000
G1 X-9.884 Y16.368 F400.000
G1 X-10.028 Y16.370 F400.000
G1 X-10.174 Y16.356 F400.000
G1 X-10.319 Y16.328 F400.000
G1 X-10.460 Y16.283 F400.000
G1 X-10.578 Y16.233 F400.000
G1 X-10.700 Y16.163 F400.000
G1 X-10.812 Y16.084 F400.000
G1 X-10.927 Y15.985 F400.000
G1 X-11.024 Y15.878 F400.000
G1 X-11.113 Y15.764 F400.000
G1 X-11.188 Y15.638 F400.000
G1 X-11.250 Y15.507 F400.000
G1 X-11.298 Y15.370 F400.000
G1 X-11.332 Y15.227 F400.000
G1 X-11.347 Y15.083 F400.000
G1 X-11.349 Y14.957 F400.000
G1 X-11.338 Y14.818 F400.000
G1 X-11.311 Y14.672 F400.000
G1 X-11.270 Y14.522 F400.000
G1 X-11.212 Y14.375 F400.000
G1 X-11.139 Y14.240 F400.000
G1 X-11.064 Y14.128 F400.000
G1 X-10.970 Y14.013 F400.000
G1 X-10.869 Y13.912 F400.000
G1 X-10.745 Y13.811 F400.000
G1 X-10.621 Y13.728 F400.000
G1 X-10.488 Y13.657 F400.000
G1 X-10.345 Y13.598 F400.000
G1 X-10.199 Y13.559 F400.000
G1 X-10.069 Y13.537 F400.000
G1 X-9.927 Y13.525 F400.000
G1 X-9.775 Y13.529 F400.000
G1 X-9.625 Y13.548 F400.000
G1 X-9.480 Y13.582 F400.000
G1 X-9.347 Y13.627 F400.000
G1 X-9.214 Y13.689 F400.000
G1 X-9.090 Y13.764 F400.000
G1 X-8.974 Y13.850 F400.000
G1 X-8.867 Y13.947 F400.000
G1 X-8.769 Y14.054 F400.000
G1 X-8.679 Y14.178 F400.000
G1 X-8.604 Y14.306 F400.000
G1 X-8.542 Y14.439 F400.000
G1 X-8.493 Y14.580 F400.000
G1 X-8.460 Y14.724 F400.000
G1 X-8.441 Y14.872 F400.000
G1 X-8.435 Y15.021 F400.000
G1 X-8.445 Y15.180 F400.000
G1 X-8.469 Y15.330 F400.000
G1 X-8.507 Y15.478 F400.000
G1 X-8.559 Y15.623 F400.000
G1 X-8.629 Y15.758 F400.000
G1 X-8.700 Y15.871 F400.000
G1 X-8.790 Y15.987 F400.000
G1 X-8.897 Y16.098 F400.000
G1 X-9.008 Y16.191 F400.000
G1 X-9.129 Y16.276 F400.000
G1 X-9.259 Y16.351 F400.000
G1 X-9.409 Y16.417 F400.000
G1 X-9.553 Y16.465 F400.000
G1 X-9.704 Y16.501 F400.000
G1 X-9.859 Y16.522 F400.000
G1 X-10.013 Y16.523 F400.000
G1 X-10.150 Y16.514 F400.000
G1 X-10.296 Y16.488 F400.000
G1 X-10.439 Y16.448 F400.000
G1 X-10.589 Y16.390 F400.000
G1 X-10.726 Y16.321 F400.000
G1 X-10.856 Y16.236 F400.000
G1 X-10.966 Y16.148 F400.000
G1 X-11.073 Y16.043 F400.000
G1 X-11.169 Y15.931 F400.000
G1 X-11.259 Y15.803 F400.000
G1 X-11.338 Y15.662 F400.000
G1 X-11.402 Y15.522 F400.000
G1 X-11.448 Y15.370 F400.000
G1 X-11.475 Y15.233 F400.000
G1 X-11.490 Y15.103 F400.000
G1 X-11.493 Y14.947 F400.000
G1 X-11.480 Y14.782 F400.000
G1 X-11.454 Y14.623 F400.000
G1 X-11.409 Y14.467 F400.000
G1 X-11.356 Y14.328 F400.000
G1 X-11.287 Y14.188 F400.000
G1 X-11.205 Y14.056 F400.000
G1 X-11.111 Y13.934 F400.000
G1 X-11.006 Y13.822 F400.000
G1 X-10.889 Y13.719 F400.000
G1 X-10.764 Y13.627 F400.000
G1 X-10.630 Y13.548 F400.000
G1 X-10.490 Y13.482 F400.000
G1 X-10.343 Y13.432 F400.000
G1 X-10.193 Y13.394 F400.000
G1 X-10.039 Y13.371 F400.000
G1 X-9.886 Y13.364 F400.000
G1 X-9.732 Y13.371 F400.000
G1 X-9.578 Y13.394 F400.000
G1 X-9.428 Y13.432 F400.000
G1 X-9.281 Y13.482 F400.000
G1 X-9.141 Y13.548 F400.000
G1 X-9.008 Y13.627 F400.000
G1 X-8.884 Y13.717 F400.000
G1 X-8.767 Y13.818 F400.000
G1 X-8.655 Y13.936 F400.000
G1 X-8.557 Y14.060 F400.000
G1 X-8.473 Y14.193 F400.000
G1 X-8.403 Y14.336 F400.000
G1 X-8.353 Y14.469 F400.000
G1 X-8.311 Y14.615 F400.000
G1 X-8.281 Y14.771 F400.000
G1 X-8.266 Y14.936 F400.000
G1 X-8.266 Y15.094 F400.000
G1 X-8.281 Y15.253 F400.000
G1 X-8.311 Y15.413 F400.000
G1 X-8.356 Y15.567 F400.000
G1 X-8.417 Y15.715 F400.000
G1 X-8.486 Y15.848 F400.000
G1 X-8.574 Y15.977 F400.000
G1 X-8.659 Y16.081 F400.000
G1 X-8.765 Y16.195 F400.000
G1 X-8.901 Y16.313 F400.000
G1 X-9.039 Y16.411 F400.000
G1 X-9.174 Y16.492 F400.000
G1 X-9.326 Y16.563 F400.000
G1 X-9.484 Y16.615 F400.000
G1 X-9.617 Y16.649 F400.000
G1 X-9.771 Y16.674 F400.000
G1 X-9.934 Y16.681 F400.000
G1 X-10.084 Y16.675 F400.000
G1 X-10.253 Y16.653 F400.000
G1 X-10.411 Y16.617 F400.000
G1 X-10.565 Y16.568 F400.000
G1 X-10.717 Y16.503 F400.000
G1 X-10.859 Y16.424 F400.000
G1 X-10.992 Y16.328 F400.000
G1 X-11.098 Y16.238 F400.000
G1 X-11.205 Y16.128 F400.000
G1 X-11.302 Y16.011 F400.000
G1 X-11.403 Y15.861 F400.000
G1 X-11.480 Y15.719 F400.000
G1 X-11.546 Y15.568 F400.000
G1 X-11.597 Y15.409 F400.000
G1 X-11.627 Y15.259 F400.000
G1 X-11.642 Y15.118 F400.000
G1 X-11.647 Y14.966 F400.000
G1 X-11.638 Y14.790 F400.000
G1 X-11.614 Y14.619 F400.000
G1 X-11.570 Y14.458 F400.000
G1 X-11.523 Y14.323 F400.000
G1 X-11.454 Y14.167 F400.000
G1 X-11.368 Y14.019 F400.000
G1 X-11.276 Y13.886 F400.000
G1 X-11.169 Y13.758 F400.000
G1 X-11.051 Y13.642 F400.000
G1 X-10.923 Y13.538 F400.000
G1 X-10.795 Y13.452 F400.000
G1 X-10.655 Y13.375 F400.000
G1 X-10.508 Y13.313 F400.000
G1 X-10.360 Y13.263 F400.000
G1 X-10.193 Y13.225 F400.000
G1 X-10.032 Y13.203 F400.000
G1 X-9.869 Y13.195 F400.000
G1 X-9.704 Y13.203 F400.000
G1 X-9.542 Y13.227 F400.000
G1 X-9.392 Y13.263 F400.000
G1 X-9.240 Y13.315 F400.000
G1 X-9.094 Y13.381 F400.000
G1 X-8.955 Y13.456 F400.000
G1 X-8.811 Y13.555 F400.000
G1 X-8.685 Y13.659 F400.000
G1 X-8.567 Y13.775 F400.000
G1 X-8.460 Y13.902 F400.000
G1 X-8.366 Y14.038 F400.000
G1 X-8.283 Y14.180 F400.000
G1 X-8.214 Y14.332 F400.000
G1 X-8.159 Y14.488 F400.000
G1 X-8.122 Y14.647 F400.000
G1 X-8.099 Y14.795 F400.000
G1 X-8.088 Y14.953 F400.000
G1 X-8.092 Y15.129 F400.000
G1 X-8.111 Y15.300 F400.000
G1 X-8.143 Y15.467 F400.000
G1 X-8.195 Y15.632 F400.000
G1 X-8.253 Y15.773 F400.000
G1 X-8.328 Y15.919 F400.000
G1 X-8.417 Y16.056 F400.000
G1 X-8.514 Y16.182 F400.000
G1 X-8.625 Y16.300 F400.000
G1 X-8.745 Y16.409 F400.000
G1 X-8.886 Y16.514 F400.000
G1 X-9.026 Y16.602 F400.000
G1 X-9.186 Y16.685 F400.000
G1 X-9.347 Y16.750 F400.000
G1 X-9.514 Y16.797 F400.000
G1 X-9.662 Y16.827 F400.000
G1 X-9.826 Y16.844 F400.000
G1 X-9.987 Y16.846 F400.000
G1 X-10.158 Y16.833 F400.000
G1 X-10.323 Y16.809 F400.000
G1 X-10.497 Y16.765 F400.000
G1 X-10.660 Y16.709 F400.000
G1 X-10.816 Y16.636 F400.000
G1 X-10.946 Y16.557 F400.000
G1 X-11.060 Y16.475 F400.000
G1 X-11.186 Y16.370 F400.000
G1 X-11.317 Y16.238 F400.000
G1 X-11.432 Y16.101 F400.000
G1 X-11.533 Y15.957 F400.000
G1 X-11.614 Y15.811 F400.000
G1 X-11.679 Y15.666 F400.000
G1 X-11.734 Y15.508 F400.000
G1 X-11.773 Y15.349 F400.000
G1 X-11.797 Y15.188 F400.000
G1 X-11.809 Y15.023 F400.000
G1 X-11.805 Y14.844 F400.000
G1 X-11.786 Y14.675 F400.000
G1 X-11.754 Y14.507 F400.000
G1 X-11.705 Y14.340 F400.000
G1 X-11.644 Y14.178 F400.000
G1 X-11.568 Y14.024 F400.000
G1 X-11.480 Y13.876 F400.000
G1 X-11.379 Y13.737 F400.000
G1 X-11.266 Y13.608 F400.000
G1 X-11.141 Y13.492 F400.000
G1 X-11.019 Y13.396 F400.000
G1 X-10.880 Y13.306 F400.000
G1 X-10.735 Y13.227 F400.000
G1 X-10.565 Y13.154 F400.000
G1 X-10.402 Y13.099 F400.000
G1 X-10.233 Y13.058 F400.000
G1 X-10.060 Y13.032 F400.000
G1 X-9.887 Y13.021 F400.000
G1 X-9.715 Y13.024 F400.000
G1 X-9.542 Y13.047 F400.000
G1 X-9.390 Y13.079 F400.000
G1 X-9.233 Y13.128 F400.000
G1 X-9.081 Y13.188 F400.000
G1 X-8.925 Y13.266 F400.000
G1 X-8.782 Y13.355 F400.000
G1 X-8.647 Y13.456 F400.000
G1 X-8.522 Y13.568 F400.000
G1 X-8.396 Y13.698 F400.000
G1 X-8.280 Y13.844 F400.000
G1 X-8.182 Y13.989 F400.000
G1 X-8.099 Y14.144 F400.000
G1 X-8.036 Y14.291 F400.000
G1 X-7.981 Y14.452 F400.000
G1 X-7.944 Y14.615 F400.000
G1 X-7.919 Y14.780 F400.000
G1 X-7.908 Y14.947 F400.000
G1 X-7.910 Y15.129 F400.000
G1 X-7.929 Y15.315 F400.000
G1 X-7.964 Y15.492 F400.000
G1 X-8.009 Y15.649 F400.000
G1 X-8.071 Y15.812 F400.000
G1 X-8.148 Y15.968 F400.000
G1 X-8.236 Y16.114 F400.000
G1 X-8.340 Y16.253 F400.000
G1 X-8.445 Y16.371 F400.000
G1 X-8.565 Y16.488 F400.000
G1 X-8.704 Y16.602 F400.000
G1 X-8.854 Y16.705 F400.000
G1 X-9.008 Y16.794 F400.000
G1 X-9.171 Y16.871 F400.000
G1 X-9.340 Y16.932 F400.000
G1 X-9.512 Y16.979 F400.000
G1 X-9.690 Y17.008 F400.000
G1 X-9.841 Y17.021 F400.000
G1 X-10.009 Y17.019 F400.000
G1 X-10.174 Y17.006 F400.000
G1 X-10.362 Y16.976 F400.000
G1 X-10.548 Y16.929 F400.000
G1 X-10.719 Y16.867 F400.000
G1 X-10.861 Y16.799 F400.000
G1 X-10.998 Y16.719 F400.000
G1 X-11.135 Y16.627 F400.000
G1 X-11.283 Y16.507 F400.000
G1 X-11.418 Y16.377 F400.000
G1 X-11.538 Y16.242 F400.000
G1 X-11.647 Y16.090 F400.000
G1 X-11.730 Y15.953 F400.000
G1 X-11.807 Y15.795 F400.000
G1 X-11.869 Y15.634 F400.000
G1 X-11.916 Y15.471 F400.000
G1 X-11.949 Y15.300 F400.000
G1 X-11.968 Y15.129 F400.000
G1 X-11.976 Y14.959 F400.000
G1 X-11.968 Y14.764 F400.000
G1 X-11.944 Y14.570 F400.000
G1 X-11.901 Y14.388 F400.000
G1 X-11.854 Y14.238 F400.000
G1 X-11.786 Y14.075 F400.000
G1 X-11.709 Y13.921 F400.000
G1 X-11.612 Y13.762 F400.000
G1 X-11.505 Y13.617 F400.000
G1 X-11.386 Y13.482 F400.000
G1 X-11.255 Y13.356 F400.000
G1 X-11.113 Y13.246 F400.000
G1 X-10.983 Y13.159 F400.000
G1 X-10.833 Y13.075 F400.000
G1 X-10.662 Y12.998 F400.000
G1 X-10.492 Y12.938 F400.000
G1 X-10.319 Y12.891 F400.000
G1 X-10.139 Y12.859 F400.000
G1 X-9.959 Y12.842 F400.000
G1 X-9.779 Y12.841 F400.000
G1 X-9.598 Y12.854 F400.000
G1 X-9.420 Y12.882 F400.000
G1 X-9.246 Y12.929 F400.000
G1 X-9.099 Y12.979 F400.000
G1 X-8.942 Y13.049 F400.000
G1 X-8.782 Y13.137 F400.000
G1 X-8.632 Y13.236 F400.000
G1 X-8.492 Y13.347 F400.000
G1 X-8.358 Y13.467 F400.000
G1 X-8.223 Y13.614 F400.000
G1 X-8.109 Y13.758 F400.000
G1 X-8.008 Y13.916 F400.000
G1 X-7.931 Y14.058 F400.000
G1 X-7.859 Y14.221 F400.000
G1 X-7.805 Y14.388 F400.000
G1 X-7.765 Y14.555 F400.000
G1 X-7.737 Y14.726 F400.000
G1 X-7.722 Y14.914 F400.000
G1 X-7.722 Y15.107 F400.000
G1 X-7.735 Y15.291 F400.000
G1 X-7.765 Y15.477 F400.000
G1 X-7.814 Y15.660 F400.000
G1 X-7.871 Y15.812 F400.000
G1 X-7.932 Y15.949 F400.000
G1 X-8.021 Y16.109 F400.000
G1 X-8.126 Y16.268 F400.000
G1 X-8.246 Y16.422 F400.000
G1 X-8.377 Y16.559 F400.000
G1 X-8.495 Y16.666 F400.000
G1 X-8.638 Y16.779 F400.000
G1 X-8.805 Y16.889 F400.000
G1 X-8.979 Y16.987 F400.000
G1 X-9.156 Y17.062 F400.000
G1 X-9.306 Y17.111 F400.000
G1 X-9.467 Y17.150 F400.000
G1 X-9.647 Y17.180 F400.000
G1 X-9.835 Y17.197 F400.000
G1 X-10.028 Y17.199 F400.000
G1 X-10.216 Y17.182 F400.000
G1 X-10.386 Y17.154 F400.000
G1 X-10.567 Y17.109 F400.000
G1 X-10.737 Y17.051 F400.000
G1 X-10.901 Y16.976 F400.000
G1 X-11.045 Y16.897 F400.000
G1 X-11.193 Y16.801 F400.000
G1 X-11.343 Y16.687 F400.000
G1 X-11.492 Y16.552 F400.000
G1 X-11.621 Y16.417 F400.000
G1 X-11.741 Y16.265 F400.000
G1 X-11.833 Y16.120 F400.000
G1 X-11.912 Y15.974 F400.000
G1 X-11.985 Y15.812 F400.000
G1 X-12.047 Y15.630 F400.000
G1 X-12.092 Y15.460 F400.000
G1 X-12.126 Y15.280 F400.000
G1 X-12.146 Y15.083 F400.000
G1 X-12.152 Y14.884 F400.000
G1 X-12.137 Y14.692 F400.000
G1 X-12.113 Y14.529 F400.000
G1 X-12.071 Y14.349 F400.000
G1 X-12.011 Y14.163 F400.000
G1 X-11.944 Y13.996 F400.000
G1 X-11.861 Y13.831 F400.000
G1 X-11.764 Y13.672 F400.000
G1 X-11.655 Y13.523 F400.000
G1 X-11.535 Y13.383 F400.000
G1 X-11.403 Y13.253 F400.000
G1 X-11.261 Y13.135 F400.000
G1 X-11.111 Y13.028 F400.000
G1 X-10.951 Y12.934 F400.000
G1 X-10.784 Y12.854 F400.000
G1 X-10.612 Y12.786 F400.000
G1 X-10.435 Y12.732 F400.000
G1 X-10.255 Y12.692 F400.000
G1 X-10.071 Y12.666 F400.000
G1 X-9.874 Y12.655 F400.000
G1 X-9.687 Y12.659 F400.000
G1 X-9.497 Y12.681 F400.000
G1 X-9.330 Y12.713 F400.000
G1 X-9.154 Y12.762 F400.000
G1 X-8.985 Y12.826 F400.000
G1 X-8.824 Y12.899 F400.000
G1 X-8.657 Y12.992 F400.000
G1 X-8.505 Y13.092 F400.000
G1 X-8.347 Y13.216 F400.000
G1 X-8.206 Y13.345 F400.000
G1 X-8.075 Y13.484 F400.000
G1 X-7.955 Y13.638 F400.000
G1 X-7.857 Y13.784 F400.000
G1 X-7.767 Y13.947 F400.000
G1 X-7.692 Y14.116 F400.000
G1 X-7.630 Y14.287 F400.000
G1 X-7.583 Y14.465 F400.000
G1 X-7.552 Y14.645 F400.000
G1 X-7.533 Y14.827 F400.000
G1 X-7.527 Y15.009 F400.000
G1 X-7.535 Y15.214 F400.000
G1 X-7.559 Y15.422 F400.000
G1 X-7.602 Y15.615 F400.000
G1 X-7.649 Y15.773 F400.000
G1 X-7.719 Y15.947 F400.000
G1 X-7.799 Y16.111 F400.000
G1 X-7.889 Y16.263 F400.000
G1 X-7.994 Y16.413 F400.000
G1 X-8.120 Y16.563 F400.000
G1 X-8.248 Y16.696 F400.000
G1 X-8.402 Y16.833 F400.000
G1 X-8.555 Y16.949 F400.000
G1 X-8.719 Y17.054 F400.000
G1 X-8.893 Y17.148 F400.000
G1 X-9.073 Y17.225 F400.000
G1 X-9.236 Y17.281 F400.000
G1 X-9.418 Y17.328 F400.000
G1 X-9.600 Y17.360 F400.000
G1 X-9.795 Y17.379 F400.000
G1 X-9.985 Y17.383 F400.000
G1 X-10.174 Y17.371 F400.000
G1 X-10.366 Y17.345 F400.000
G1 X-10.552 Y17.304 F400.000
G1 X-10.734 Y17.248 F400.000
G1 X-10.910 Y17.174 F400.000
G1 X-11.060 Y17.099 F400.000
G1 X-11.218 Y17.006 F400.000
G1 X-11.375 Y16.895 F400.000
G1 X-11.533 Y16.764 F400.000
G1 X-11.672 Y16.630 F400.000
G1 X-11.801 Y16.480 F400.000
G1 X-11.908 Y16.338 F400.000
G1 X-12.009 Y16.176 F400.000
G1 X-12.096 Y16.009 F400.000
G1 X-12.167 Y15.839 F400.000
G1 X-12.225 Y15.660 F400.000
G1 X-12.272 Y15.480 F400.000
G1 X-12.308 Y15.272 F400.000
G1 X-12.326 Y15.079 F400.000
G1 X-12.332 Y14.882 F400.000
G1 X-12.321 Y14.681 F400.000
G1 X-12.291 Y14.486 F400.000
G1 X-12.253 Y14.321 F400.000
G1 X-12.197 Y14.141 F400.000
G1 X-12.131 Y13.968 F400.000
G1 X-12.039 Y13.779 F400.000
G1 X-11.942 Y13.610 F400.000
G1 X-11.831 Y13.447 F400.000
G1 X-11.705 Y13.291 F400.000
G1 X-11.568 Y13.150 F400.000
G1 X-11.443 Y13.038 F400.000
G1 X-11.293 Y12.925 F400.000
G1 X-11.139 Y12.826 F400.000
G1 X-10.966 Y12.732 F400.000
G1 X-10.780 Y12.649 F400.000
G1 X-10.598 Y12.583 F400.000
G1 X-10.407 Y12.531 F400.000
G1 X-10.212 Y12.493 F400.000
G1 X-10.017 Y12.471 F400.000
G1 X-9.820 Y12.462 F400.000
G1 X-9.623 Y12.471 F400.000
G1 X-9.445 Y12.492 F400.000
G1 X-9.259 Y12.529 F400.000
G1 X-9.079 Y12.582 F400.000
G1 X-8.904 Y12.647 F400.000
G1 X-8.734 Y12.724 F400.000
G1 X-8.555 Y12.824 F400.000
G1 X-8.396 Y12.929 F400.000
G1 X-8.242 Y13.045 F400.000
G1 X-8.083 Y13.188 F400.000
G1 X-7.944 Y13.330 F400.000
G1 X-7.816 Y13.488 F400.000
G1 X-7.713 Y13.642 F400.000
G1 X-7.625 Y13.794 F400.000
G1 X-7.544 Y13.962 F400.000
G1 X-7.471 Y14.148 F400.000
G1 X-7.413 Y14.340 F400.000
G1 X-7.370 Y14.531 F400.000
G1 X-7.341 Y14.726 F400.000
G1 X-7.328 Y14.923 F400.000
G1 X-7.330 Y15.120 F400.000
G1 X-7.347 Y15.317 F400.000
G1 X-7.377 Y15.512 F400.000
G1 X-7.422 Y15.705 F400.000
G1 X-7.482 Y15.893 F400.000
G1 X-7.561 Y16.075 F400.000
G1 X-7.640 Y16.227 F400.000
G1 X-7.739 Y16.386 F400.000
G1 X-7.846 Y16.537 F400.000
G1 X-7.979 Y16.696 F400.000
G1 X-8.124 Y16.846 F400.000
G1 X-8.283 Y16.991 F400.000
G1 X-8.452 Y17.116 F400.000
G1 X-8.608 Y17.212 F400.000
G1 X-8.754 Y17.291 F400.000
G1 X-8.942 Y17.375 F400.000
G1 X-9.144 Y17.448 F400.000
G1 X-9.343 Y17.505 F400.000
G1 X-9.548 Y17.544 F400.000
G1 X-9.732 Y17.567 F400.000
G1 X-9.931 Y17.576 F400.000
G1 X-10.128 Y17.568 F400.000
G1 X-10.321 Y17.548 F400.000
G1 X-10.516 Y17.508 F400.000
G1 X-10.689 Y17.460 F400.000
G1 X-10.869 Y17.394 F400.000
G1 X-11.041 Y17.317 F400.000
G1 X-11.221 Y17.221 F400.000
G1 X-11.398 Y17.109 F400.000
G1 X-11.559 Y16.989 F400.000
G1 X-11.713 Y16.856 F400.000
G1 X-11.854 Y16.707 F400.000
G1 X-11.968 Y16.570 F400.000
G1 X-12.081 Y16.411 F400.000
G1 X-12.178 Y16.246 F400.000
G1 X-12.263 Y16.077 F400.000
G1 X-12.338 Y15.901 F400.000
G1 X-12.405 Y15.694 F400.000
G1 X-12.454 Y15.501 F400.000
G1 X-12.490 Y15.302 F400.000
G1 X-12.510 Y15.098 F400.000
G1 X-12.516 Y14.897 F400.000
G1 X-12.507 Y14.694 F400.000
G1 X-12.482 Y14.492 F400.000
G1 X-12.443 Y14.291 F400.000
G1 X-12.385 Y14.096 F400.000
G1 X-12.323 Y13.927 F400.000
G1 X-12.240 Y13.750 F400.000
G1 X-12.148 Y13.582 F400.000
G1 X-12.030 Y13.400 F400.000
G1 X-11.908 Y13.240 F400.000
G1 X-11.775 Y13.088 F400.000
G1 X-11.629 Y12.944 F400.000
G1 X-11.471 Y12.814 F400.000
G1 X-11.323 Y12.709 F400.000
G1 X-11.154 Y12.608 F400.000
G1 X-10.979 Y12.522 F400.000
G1 X-10.803 Y12.448 F400.000
G1 X-10.600 Y12.379 F400.000
G1 X-10.385 Y12.323 F400.000
G1 X-10.180 Y12.287 F400.000
G1 X-9.992 Y12.266 F400.000
G1 X-9.788 Y12.261 F400.000
G1 X-9.589 Y12.270 F400.000
G1 X-9.392 Y12.295 F400.000
G1 X-9.195 Y12.340 F400.000
G1 X-9.036 Y12.386 F400.000
G1 X-8.861 Y12.450 F400.000
G1 X-8.653 Y12.544 F400.000
G1 X-8.456 Y12.651 F400.000
G1 X-8.278 Y12.762 F400.000
G1 X-8.103 Y12.895 F400.000
G1 X-7.961 Y13.019 F400.000
G1 X-7.818 Y13.167 F400.000
G1 X-7.700 Y13.308 F400.000
G1 X-7.587 Y13.465 F400.000
G1 X-7.486 Y13.630 F400.000
G1 X-7.246 Y14.135 F400.000
G1 X-7.122 Y14.585 F400.000
G1 X-7.086 Y15.120 F400.000
G1 X-7.114 Y15.430 F400.000
G1 X-7.270 Y15.987 F400.000
G1 X-7.379 Y16.223 F400.000
G1 X-7.672 Y16.677 F400.000
G1 X-7.784 Y16.809 F400.000
G1 X-7.953 Y16.979 F400.000
G1 X-8.135 Y17.133 F400.000
G1 X-8.326 Y17.274 F400.000
G1 X-8.499 Y17.381 F400.000
G1 X-8.670 Y17.471 F400.000
G1 X-8.861 Y17.557 F400.000
G1 X-9.068 Y17.632 F400.000
G1 X-9.266 Y17.689 F400.000
G1 X-9.475 Y17.734 F400.000
G1 X-9.685 Y17.762 F400.000
G1 X-9.895 Y17.771 F400.000
G1 X-10.075 Y17.767 F400.000
G1 X-10.276 Y17.747 F400.000
G1 X-10.471 Y17.711 F400.000
G1 X-10.659 Y17.666 F400.000
G1 X-10.874 Y17.597 F400.000
G1 X-11.064 Y17.520 F400.000
G1 X-11.250 Y17.426 F400.000
G1 X-11.415 Y17.326 F400.000
G1 X-11.580 Y17.210 F400.000
G1 X-11.737 Y17.084 F400.000
G1 X-11.901 Y16.932 F400.000
G1 X-12.041 Y16.779 F400.000
G1 X-12.161 Y16.627 F400.000
G1 X-12.278 Y16.454 F400.000
G1 X-12.379 Y16.278 F400.000
G1 X-12.467 Y16.096 F400.000
G1 X-12.542 Y15.904 F400.000
G1 X-12.602 Y15.711 F400.000
G1 X-12.649 Y15.512 F400.000
G1 X-12.681 Y15.311 F400.000
G1 X-12.700 Y15.109 F400.000
G1 X-12.707 Y14.886 F400.000
G1 X-12.698 Y14.655 F400.000
G1 X-12.668 Y14.437 F400.000
G1 X-12.630 Y14.261 F400.000
G1 X-12.578 Y14.077 F400.000
G1 X-12.512 Y13.895 F400.000
G1 X-12.426 Y13.696 F400.000
G1 X-12.319 Y13.495 F400.000
G1 X-12.208 Y13.315 F400.000
G1 X-12.081 Y13.137 F400.000
G1 X-11.938 Y12.972 F400.000
G1 X-11.807 Y12.839 F400.000
G1 X-11.651 Y12.702 F400.000
G1 X-11.488 Y12.580 F400.000
G1 X-11.319 Y12.471 F400.000
G1 X-10.859 Y12.248 F400.000
G1 X-10.439 Y12.118 F400.000
G1 X-10.019 Y12.051 F400.000
G1 X-9.538 Y12.053 F400.000
G1 X-9.028 Y12.146 F400.000
G1 X-8.653 Y12.278 F400.000
G1 X-8.250 Y12.482 F400.000
G1 X-7.863 Y12.767 F400.000
G1 X-7.510 Y13.135 F400.000
G1 X-7.165 Y13.660 F400.000
G1 X-7.009 Y14.009 F400.000
G1 X-6.871 Y14.544 F400.000
G1 X-6.831 Y14.910 F400.000
G1 X-6.863 Y15.417 F400.000
G1 X-7.030 Y16.028 F400.000
G1 X-7.176 Y16.343 F400.000
G1 X-7.460 Y16.773 F400.000
G1 X-7.874 Y17.205 F400.000
G1 X-8.101 Y17.381 F400.000
G1 X-8.550 Y17.640 F400.000
G1 X-8.947 Y17.799 F400.000
G1 X-9.370 Y17.906 F400.000
G1 X-9.848 Y17.959 F400.000
G1 X-10.298 Y17.929 F400.000
G1 X-10.636 Y17.854 F400.000
G1 X-11.105 Y17.681 F400.000
G1 X-11.614 Y17.383 F400.000
G1 X-12.039 Y17.008 F400.000
G1 X-12.319 Y16.692 F400.000
G1 X-12.570 Y16.276 F400.000
G1 X-12.747 Y15.827 F400.000
G1 X-12.861 Y15.167 F400.000
G1 X-12.854 Y14.597 F400.000
G1 X-12.762 Y14.116 F400.000
G1 X-12.604 Y13.674 F400.000
G1 X-12.334 Y13.186 F400.000
G1 X-12.021 Y12.795 F400.000
G1 X-11.649 Y12.465 F400.000
G1 X-11.255 Y12.206 F400.000
G1 X-10.805 Y12.006 F400.000
G1 X-10.355 Y11.876 F400.000
G1 X-9.844 Y11.816 F400.000
G1 X-9.484 Y11.826 F400.000
G1 X-9.184 Y11.871 F400.000
G1 X-8.664 Y12.051 F400.000
G1 X-8.366 Y12.203 F400.000
G1 X-8.013 Y12.443 F400.000
G1 X-7.619 Y12.805 F400.000
G1 X-7.272 Y13.255 F400.000
G1 X-7.073 Y13.617 F400.000
G1 X-7.023 Y13.724 F400.000
G1 X-6.865 Y14.199 F400.000
G1 X-6.784 Y14.621 F400.000
G1 X-6.765 Y15.071 F400.000
G1 X-6.790 Y15.409 F400.000
G1 X-6.902 Y15.944 F400.000
G1 X-7.034 Y16.295 F400.000
G1 X-7.107 Y16.452 F400.000
G1 X-7.203 Y16.632 F400.000
G1 X-7.411 Y16.940 F400.000
G1 X-7.750 Y17.326 F400.000
G1 X-8.133 Y17.630 F400.000
G1 X-8.482 Y17.829 F400.000
G1 X-8.904 Y17.992 F400.000
G1 X-9.355 Y18.103 F400.000
G1 X-9.720 Y18.144 F400.000
G1 X-10.086 Y18.139 F400.000
G1 X-10.480 Y18.079 F400.000
G1 X-10.959 Y17.929 F400.000
G1 X-11.405 Y17.711 F400.000
G1 X-11.797 Y17.445 F400.000
G1 X-12.154 Y17.128 F400.000
G1 X-12.510 Y16.683 F400.000
G1 X-12.769 Y16.205 F400.000
G1 X-12.891 Y15.859 F400.000
G1 X-13.023 Y15.169 F400.000
G1 X-13.021 Y14.598 F400.000
G1 X-12.904 Y13.998 F400.000
G1 X-12.690 Y13.447 F400.000
G1 X-12.439 Y13.015 F400.000
G1 X-12.124 Y12.629 F400.000
G1 X-11.752 Y12.298 F400.000
G1 X-11.516 Y12.143 F400.000
G1 X-11.116 Y11.964 F400.000
G1 X-10.698 Y11.839 F400.000
G1 X-10.308 Y11.777 F400.000
G1 X-9.917 Y11.764 F400.000
G1 X-9.767 Y11.769 F400.000
G1 X-9.767 Y11.769 F400.000
G1 X-9.692 Y11.792 F400.000
G1 X-9.668 Y11.811 F400.000
G0 X-9.659 Y11.822
G0 X-9.636 Y11.874
G0 X-8.090 Y17.417
G1 X-8.081 Y17.448 F400.000
G1 X-8.066 Y17.520 F400.000
G1 X-8.073 Y17.565 F400.000
G1 X-8.107 Y17.619 F400.000
G1 X-8.131 Y17.644 F400.000
G1 X-8.131 Y17.644 F400.000
G1 X-8.420 Y17.826 F400.000
G1 X-8.891 Y18.039 F400.000
G1 X-9.422 Y18.184 F400.000
G1 X-9.816 Y18.231 F400.000
G1 X-10.154 Y18.233 F400.000
G1 X-10.717 Y18.154 F400.000
G1 X-11.248 Y17.972 F400.000
G1 X-11.563 Y17.803 F400.000
G1 X-12.045 Y17.452 F400.000
G1 X-12.323 Y17.178 F400.000
G1 X-12.702 Y16.672 F400.000
G1 X-12.910 Y16.266 F400.000
G1 X-13.099 Y15.681 F400.000
G1 X-13.180 Y15.201 F400.000
G1 X-13.195 Y14.811 F400.000
G1 X-13.161 Y14.420 F400.000
G1 X-13.083 Y14.030 F400.000
G1 X-13.013 Y13.820 F400.000
G1 X-12.811 Y13.396 F400.000
G1 X-12.510 Y12.959 F400.000
G1 X-12.189 Y12.615 F400.000
G1 X-11.893 Y12.375 F400.000
G1 X-11.893 Y12.375 F400.000
G1 X-11.833 Y12.345 F400.000
G1 X-11.803 Y12.341 F400.000
G1 X-11.790 Y12.343 F400.000
G0 X-11.780 Y12.349
G0 X-11.764 Y12.398
G0 X-11.158 Y17.859
G1 X-11.154 Y17.891 F400.000
G1 X-11.150 Y17.946 F400.000
G1 X-11.159 Y17.970 F400.000
G1 X-11.180 Y17.981 F400.000
G1 X-11.240 Y17.981 F400.000
G1 X-11.272 Y17.974 F400.000
G1 X-11.272 Y17.974 F400.000
G1 X-11.563 Y17.833 F400.000
G1 X-12.009 Y17.537 F400.000
G1 X-12.439 Y17.126 F400.000
G1 X-12.675 Y16.818 F400.000
G1 X-12.775 Y16.666 F400.000
G1 X-13.026 Y16.146 F400.000
G1 X-13.137 Y15.799 F400.000
G1 X-13.221 Y15.289 F400.000
G1 X-13.235 Y14.899 F400.000
G1 X-13.199 Y14.508 F400.000
G1 X-13.131 Y14.178 F400.000
G1 X-13.131 Y14.178 F400.000
G1 X-13.103 Y14.118 F400.000
G1 X-13.071 Y14.083 F400.000
G0 X-13.058 Y14.073
G0 X-9.542 Y11.901
G1 X-9.518 Y11.886 F400.000
G1 X-9.394 Y11.822 F400.000
G1 X-9.336 Y11.816 F400.000
G1 X-9.336 Y11.816 F400.000
G1 X-9.195 Y11.848 F400.000
G1 X-9.013 Y11.904 F400.000
G1 X-8.827 Y11.970 F400.000
G1 X-8.625 Y12.054 F400.000
G1 X-8.473 Y12.128 F400.000
G1 X-8.336 Y12.205 F400.000
G1 X-8.150 Y12.325 F400.000
G1 X-8.008 Y12.432 F400.000
G1 X-7.777 Y12.629 F400.000
G1 X-7.582 Y12.827 F400.000
G1 X-7.495 Y12.927 F400.000
G1 X-7.377 Y13.083 F400.000
G1 X-7.261 Y13.250 F400.000
G1 X-7.159 Y13.418 F400.000
G1 X-7.034 Y13.666 F400.000
G1 X-6.931 Y13.929 F400.000
G1 X-6.882 Y14.081 F400.000
G1 X-6.833 Y14.276 F400.000
G1 X-6.777 Y14.578 F400.000
G1 X-6.754 Y14.857 F400.000
G1 X-6.750 Y15.006 F400.000
G1 X-6.758 Y15.233 F400.000
G1 X-6.777 Y15.413 F400.000
G1 X-6.794 Y15.527 F400.000
G1 X-6.835 Y15.730 F400.000
G1 X-6.902 Y15.983 F400.000
G1 X-6.946 Y16.113 F400.000
G1 X-7.024 Y16.306 F400.000
G1 X-7.107 Y16.480 F400.000
G1 X-7.201 Y16.653 F400.000
G1 X-7.353 Y16.884 F400.000
G1 X-7.495 Y17.069 F400.000
G1 X-7.598 Y17.189 F400.000
G1 X-7.779 Y17.370 F400.000
G1 X-7.916 Y17.493 F400.000
G1 X-8.058 Y17.608 F400.000
G1 X-8.208 Y17.713 F400.000
G1 X-8.379 Y17.818 F400.000
G1 X-8.548 Y17.908 F400.000
G1 X-8.679 Y17.968 F400.000
G1 X-8.891 Y18.053 F400.000
G1 X-9.041 Y18.103 F400.000
G1 X-9.287 Y18.171 F400.000
G1 X-9.415 Y18.197 F400.000
G1 X-9.617 Y18.227 F400.000
G1 X-9.777 Y18.240 F400.000
G1 X-9.985 Y18.248 F400.000
G1 X-10.191 Y18.244 F400.000
G1 X-10.338 Y18.231 F400.000
G1 X-10.557 Y18.201 F400.000
G1 X-10.734 Y18.163 F400.000
G1 X-10.886 Y18.124 F400.000
G1 X-11.083 Y18.060 F400.000
G1 X-11.280 Y17.985 F400.000
G1 X-11.415 Y17.923 F400.000
G1 X-11.591 Y17.831 F400.000
G1 X-11.771 Y17.722 F400.000
G1 X-11.932 Y17.610 F400.000
G1 X-12.043 Y17.525 F400.000
G1 X-12.227 Y17.364 F400.000
G1 X-12.326 Y17.266 F400.000
G1 X-12.486 Y17.092 F400.000
G1 X-12.572 Y16.985 F400.000
G1 X-12.675 Y16.841 F400.000
G1 X-12.805 Y16.638 F400.000
G1 X-12.882 Y16.499 F400.000
G1 X-12.951 Y16.353 F400.000
G1 X-13.045 Y16.133 F400.000
G1 X-13.148 Y15.809 F400.000
G1 X-13.193 Y15.600 F400.000
G1 X-13.214 Y15.465 F400.000
G1 X-13.238 Y15.248 F400.000
G1 X-13.248 Y15.053 F400.000
G1 X-13.246 Y14.856 F400.000
G1 X-13.235 Y14.674 F400.000
G1 X-13.214 Y14.512 F400.000
G1 X-13.176 Y14.315 F400.000
G1 X-13.129 Y14.122 F400.000
G1 X-13.092 Y13.998 F400.000
G1 X-13.019 Y13.799 F400.000
G1 X-12.931 Y13.598 F400.000
G1 X-12.827 Y13.400 F400.000
G1 X-12.765 Y13.293 F400.000
G1 X-12.651 Y13.124 F400.000
G1 X-12.475 Y12.893 F400.000
G1 X-12.293 Y12.698 F400.000
G1 X-12.146 Y12.561 F400.000
G1 X-12.009 Y12.445 F400.000
G1 X-11.867 Y12.341 F400.000
G1 X-11.694 Y12.227 F400.000
G1 X-11.565 Y12.154 F400.000
G1 X-11.360 Y12.049 F400.000
G1 X-11.203 Y11.981 F400.000
G1 X-11.034 Y11.921 F400.000
G1 X-10.822 Y11.857 F400.000
G1 X-10.677 Y11.822 F400.000
G1 X-10.450 Y11.780 F400.000
G1 X-10.278 Y11.760 F400.000
G1 X-9.989 Y11.749 F400.000
G1 X-9.790 Y11.756 F400.000
G1 X-9.553 Y11.780 F400.000
G1 X-9.336 Y11.816 F400.000
G1 X-9.336 Y11.816 F400.000
G0 Z6.000
(Helix to depth: -5.000000)
G0 Z6.000
G0 X10.475 Y15.562 Z6.000
G0 X10.475 Y15.562 Z4.000
G1 X10.475 Y15.562 Z1.000 F400.000
G1 X10.475 Y15.562 Z1.000 F400.000
G1 X10.356 Y15.644 Z0.987 F400.000
G1 X10.223 Y15.702 Z0.974 F400.000
G1 X10.082 Y15.732 Z0.961 F400.000
G1 X9.937 Y15.734 Z0.949 F400.000
G1 X9.795 Y15.708 Z0.936 F400.000
G1 X9.660 Y15.655 Z0.923 F400.000
G1 X9.538 Y15.576 Z0.910 F400.000
G1 X9.434 Y15.475 Z0.897 F400.000
G1 X9.352 Y15.356 Z0.884 F400.000
G1 X9.295 Y15.223 Z0.871 F400.000
G1 X9.264 Y15.082 Z0.859 F400.000
G1 X9.262 Y14.937 Z0.846 F400.000
G1 X9.288 Y14.795 Z0.833 F400.000
G1 X9.342 Y14.660 Z0.820 F400.000
G1 X9.420 Y14.538 Z0.807 F400.000
G1 X9.521 Y14.434 Z0.794 F400.000
G1 X9.640 Y14.352 Z0.781 F400.000
G1 X9.773 Y14.295 Z0.769 F400.000
G1 X9.915 Y14.264 Z0.756 F400.000
G1 X10.059 Y14.262 Z0.743 F400.000
G1 X10.202 Y14.288 Z0.730 F400.000
G1 X10.336 Y14.342 Z0.717 F400.000
G1 X10.458 Y14.420 Z0.704 F400.000
G1 X10.562 Y14.521 Z0.691 F400.000
G1 X10.644 Y14.640 Z0.679 F400.000
G1 X10.702 Y14.773 Z0.666 F400.000
G1 X10.732 Y14.915 Z0.653 F400.000
G1 X10.734 Y15.059 Z0.640 F400.000
G1 X10.708 Y15.202 Z0.627 F400.000
G1 X10.655 Y15.336 Z0.614 F400.000
G1 X10.576 Y15.458 Z0.601 F400.000
G1 X10.475 Y15.562 Z0.588 F400.000
G1 X10.356 Y15.644 Z0.576 F400.000
G1 X10.223 Y15.702 Z0.563 F400.000
G1 X10.082 Y15.732 Z0.550 F400.000
G1 X9.937 Y15.734 Z0.537 F400.000
G1 X9.795 Y15.708 Z0.524 F400.000
G1 X9.660 Y15.655 Z0.511 F400.000
G1 X9.538 Y15.576 Z0.498 F400.000
G1 X9.434 Y15.475 Z0.486 F400.000
G1 X9.352 Y15.356 Z0.473 F400.000
G1 X9.295 Y15.223 Z0.460 F400.000
G1 X9.264 Y15.082 Z0.447 F400.000
G1 X9.262 Y14.937 Z0.434 F400.000
G1 X9.288 Y14.795 Z0.421 F400.000
G1 X9.342 Y14.660 Z0.408 F400.000
G1 X9.420 Y14.538 Z0.396 F400.000
G1 X9.521 Y14.434 Z0.383 F400.000
G1 X9.640 Y14.352 Z0.370 F400.000
G1 X9.773 Y14.295 Z0.357 F400.000
G1 X9.915 Y14.264 Z0.344 F400.000
G1 X10.059 Y14.262 Z0.331 F400.000
G1 X10.202 Y14.288 Z0.318 F400.000
G1 X10.336 Y14.342 Z0.306 F400.000
G1 X10.458 Y14.420 Z0.293 F400.000
G1 X10.562 Y14.521 Z0.280 F400.000
G1 X10.644 Y14.640 Z0.267 F400.000
G1 X10.702 Y14.773 Z0.254 F400.000
G1 X10.732 Y14.915 Z0.241 F400.000
G1 X10.734 Y15.059 Z0.228 F400.000
G1 X10.708 Y15.202 Z0.216 F400.000
G1 X10.655 Y15.336 Z0.203 F400.000
G1 X10.576 Y15.458 Z0.190 F400.000
G1 X10.475 Y15.562 Z0.177 F400.000
G1 X10.356 Y15.644 Z0.164 F400.000
G1 X10.223 Y15.702 Z0.151 F400.000
G1 X10.082 Y15.732 Z0.138 F400.000
G1 X9.937 Y15.734 Z0.126 F400.000
G1 X9.795 Y15.708 Z0.113 F400.000
G1 X9.660 Y15.655 Z0.100 F400.000
G1 X9.538 Y15.576 Z0.087 F400.000
G1 X9.434 Y15.475 Z0.074 F400.000
G1 X9.352 Y15.356 Z0.061 F400.000
G1 X9.295 Y15.223 Z0.048 F400.000
G1 X9.264 Y15.082 Z0.036 F400.000
G1 X9.262 Y14.937 Z0.023 F400.000
G1 X9.288 Y14.795 Z0.010 F400.000
G1 X9.342 Y14.660 Z-0.003 F400.000
G1 X9.420 Y14.538 Z-0.016 F400.000
G1 X9.521 Y14.434 Z-0.029 F400.000
G1 X9.640 Y14.352 Z-0.042 F400.000
G1 X9.773 Y14.295 Z-0.054 F400.000
G1 X9.915 Y14.264 Z-0.067 F400.000
G1 X10.059 Y14.262 Z-0.080 F400.000
G1 X10.202 Y14.288 Z-0.093 F400.000
G1 X10.336 Y14.342 Z-0.106 F400.000
G1 X10.458 Y14.420 Z-0.119 F400.000
G1 X10.562 Y14.521 Z-0.132 F400.000
G1 X10.644 Y14.640 Z-0.145 F400.000
G1 X10.702 Y14.773 Z-0.157 F400.000
G1 X10.732 Y14.915 Z-0.170 F400.000
G1 X10.734 Y15.059 Z-0.183 F400.000
G1 X10.708 Y15.202 Z-0.196 F400.000
G1 X10.655 Y15.336 Z-0.209 F400.000
G1 X10.576 Y15.458 Z-0.222 F400.000
G1 X10.475 Y15.562 Z-0.235 F400.000
G1 X10.356 Y15.644 Z-0.247 F400.000
G1 X10.223 Y15.702 Z-0.260 F400.000
G1 X10.082 Y15.732 Z-0.273 F400.000
G1 X9.937 Y15.734 Z-0.286 F400.000
G1 X9.795 Y15.708 Z-0.299 F400.000
G1 X9.660 Y15.655 Z-0.312 F400.000
G1 X9.538 Y15.576 Z-0.325 F400.000
G1 X9.434 Y15.475 Z-0.337 F400.000
G1 X9.352 Y15.356 Z-0.350 F400.000
G1 X9.295 Y15.223 Z-0.363 F400.000
G1 X9.264 Y15.082 Z-0.376 F400.000
G1 X9.262 Y14.937 Z-0.389 F400.000
G1 X9.288 Y14.795 Z-0.402 F400.000
G1 X9.342 Y14.660 Z-0.415 F400.000
G1 X9.420 Y14.538 Z-0.427 F400.000
G1 X9.521 Y14.434 Z-0.440 F400.000
G1 X9.640 Y14.352 Z-0.453 F400.000
G1 X9.773 Y14.295 Z-0.466 F400.000
G1 X9.915 Y14.264 Z-0.479 F400.000
G1 X10.059 Y14.262 Z-0.492 F400.000
G1 X10.202 Y14.288 Z-0.505 F400.000
G1 X10.336 Y14.342 Z-0.517 F400.000
G1 X10.458 Y14.420 Z-0.530 F400.000
G1 X10.562 Y14.521 Z-0.543 F400.000
G1 X10.644 Y14.640 Z-0.556 F400.000
G1 X10.702 Y14.773 Z-0.569 F400.000
G1 X10.732 Y14.915 Z-0.582 F400.000
G1 X10.734 Y15.059 Z-0.595 F400.000
G1 X10.708 Y15.202 Z-0.607 F400.000
G1 X10.655 Y15.336 Z-0.620 F400.000
G1 X10.576 Y15.458 Z-0.633 F400.000
G1 X10.475 Y15.562 Z-0.646 F400.000
G1 X10.356 Y15.644 Z-0.659 F400.000
G1 X10.223 Y15.702 Z-0.672 F400.000
G1 X10.082 Y15.732 Z-0.685 F400.000
G1 X9.937 Y15.734 Z-0.697 F400.000
G1 X9.795 Y15.708 Z-0.710 F400.000
G1 X9.660 Y15.655 Z-0.723 F400.000
G1 X9.538 Y15.576 Z-0.736 F400.000
G1 X9.434 Y15.475 Z-0.749 F400.000
G1 X9.352 Y15.356 Z-0.762 F400.000
G1 X9.295 Y15.223 Z-0.775 F400.000
G1 X9.264 Y15.082 Z-0.787 F400.000
G1 X9.262 Y14.937 Z-0.800 F400.000
G1 X9.288 Y14.795 Z-0.813 F400.000
G1 X9.342 Y14.660 Z-0.826 F400.000
G1 X9.420 Y14.538 Z-0.839 F400.000
G1 X9.521 Y14.434 Z-0.852 F400.000
G1 X9.640 Y14.352 Z-0.865 F400.000
G1 X9.773 Y14.295 Z-0.878 F400.000
G1 X9.915 Y14.264 Z-0.890 F400.000
G1 X10.059 Y14.262 Z-0.903 F400.000
G1 X10.202 Y14.288 Z-0.916 F400.000
G1 X10.336 Y14.342 Z-0.929 F400.000
G1 X10.458 Y14.420 Z-0.942 F400.000
G1 X10.562 Y14.521 Z-0.955 F400.000
G1 X10.644 Y14.640 Z-0.968 F400.000
G1 X10.702 Y14.773 Z-0.980 F400.000
G1 X10.732 Y14.915 Z-0.993 F400.000
G1 X10.734 Y15.059 Z-1.006 F400.000
G1 X10.708 Y15.202 Z-1.019 F400.000
G1 X10.655 Y15.336 Z-1.032 F400.000
G1 X10.576 Y15.458 Z-1.045 F400.000
G1 X10.475 Y15.562 Z-1.058 F400.000
G1 X10.356 Y15.644 Z-1.070 F400.000
G1 X10.223 Y15.702 Z-1.083 F400.000
G1 X10.082 Y15.732 Z-1.096 F400.000
G1 X9.937 Y15.734 Z-1.109 F400.000
G1 X9.795 Y15.708 Z-1.122 F400.000
G1 X9.660 Y15.655 Z-1.135 F400.000
G1 X9.538 Y15.576 Z-1.148 F400.000
G1 X9.434 Y15.475 Z-1.160 F400.000
G1 X9.352 Y15.356 Z-1.173 F400.000
G1 X9.295 Y15.223 Z-1.186 F400.000
G1 X9.264 Y15.082 Z-1.199 F400.000
G1 X9.262 Y14.937 Z-1.212 F400.000
G1 X9.288 Y14.795 Z-1.225 F400.000
G1 X9.342 Y14.660 Z-1.238 F400.000
G1 X9.420 Y14.538 Z-1.250 F400.000
G1 X9.521 Y14.434 Z-1.263 F400.000
G1 X9.640 Y14.352 Z-1.276 F400.000
G1 X9.773 Y14.295 Z-1.289 F400.000
G1 X9.915 Y14.264 Z-1.302 F400.000
G1 X10.059 Y14.262 Z-1.315 F400.000
G1 X10.202 Y14.288 Z-1.328 F400.000
G1 X10.336 Y14.342 Z-1.340 F400.000
G1 X10.458 Y14.420 Z-1.353 F400.000
G1 X10.562 Y14.521 Z-1.366 F400.000
G1 X10.644 Y14.640 Z-1.379 F400.000
G1 X10.702 Y14.773 Z-1.392 F400.000
G1 X10.732 Y14.915 Z-1.405 F400.000
G1 X10.734 Y15.059 Z-1.418 F400.000
G1 X10.708 Y15.202 Z-1.430 F400.000
G1 X10.655 Y15.336 Z-1.443 F400.000
G1 X10.576 Y15.458 Z-1.456 F400.000
G1 X10.475 Y15.562 Z-1.469 F400.000
G1 X10.356 Y15.644 Z-1.482 F400.000
G1 X10.223 Y15.702 Z-1.495 F400.000
G1 X10.082 Y15.732 Z-1.508 F400.000
G1 X9.937 Y15.734 Z-1.520 F400.000
G1 X9.795 Y15.708 Z-1.533 F400.000
G1 X9.660 Y15.655 Z-1.546 F400.000
G1 X9.538 Y15.576 Z-1.559 F400.000
G1 X9.434 Y15.475 Z-1.572 F400.000
G1 X9.352 Y15.356 Z-1.585 F400.000
G1 X9.295 Y15.223 Z-1.598 F400.000
G1 X9.264 Y15.082 Z-1.610 F400.000
G1 X9.262 Y14.937 Z-1.623 F400.000
G1 X9.288 Y14.795 Z-1.636 F400.000
G1 X9.342 Y14.660 Z-1.649 F400.000
G1 X9.420 Y14.538 Z-1.662 F400.000
G1 X9.521 Y14.434 Z-1.675 F400.000
G1 X9.640 Y14.352 Z-1.688 F400.000
G1 X9.773 Y14.295 Z-1.701 F400.000
G1 X9.915 Y14.264 Z-1.713 F400.000
G1 X10.059 Y14.262 Z-1.726 F400.000
G1 X10.202 Y14.288 Z-1.739 F400.000
G1 X10.336 Y14.342 Z-1.752 F400.000
G1 X10.458 Y14.420 Z-1.765 F400.000
G1 X10.562 Y14.521 Z-1.778 F400.000
G1 X10.644 Y14.640 Z-1.791 F400.000
G1 X10.702 Y14.773 Z-1.803 F400.000
G1 X10.732 Y14.915 Z-1.816 F400.000
G1 X10.734 Y15.059 Z-1.829 F400.000
G1 X10.708 Y15.202 Z-1.842 F400.000
G1 X10.655 Y15.336 Z-1.855 F400.000
G1 X10.576 Y15.458 Z-1.868 F400.000
G1 X10.475 Y15.562 Z-1.881 F400.000
G1 X10.356 Y15.644 Z-1.893 F400.000
G1 X10.223 Y15.702 Z-1.906 F400.000
G1 X10.082 Y15.732 Z-1.919 F400.000
G1 X9.937 Y15.734 Z-1.932 F400.000
G1 X9.795 Y15.708 Z-1.945 F400.000
G1 X9.660 Y15.655 Z-1.958 F400.000
G1 X9.538 Y15.576 Z-1.971 F400.000
G1 X9.434 Y15.475 Z-1.983 F400.000
G1 X9.352 Y15.356 Z-1.996 F400.000
G1 X9.295 Y15.223 Z-2.009 F400.000
G1 X9.264 Y15.082 Z-2.022 F400.000
G1 X9.262 Y14.937 Z-2.035 F400.000
G1 X9.288 Y14.795 Z-2.048 F400.000
G1 X9.342 Y14.660 Z-2.061 F400.000
G1 X9.420 Y14.538 Z-2.073 F400.000
G1 X9.521 Y14.434 Z-2.086 F400.000
G1 X9.640 Y14.352 Z-2.099 F400.000
G1 X9.773 Y14.295 Z-2.112 F400.000
G1 X9.915 Y14.264 Z-2.125 F400.000
G1 X10.059 Y14.262 Z-2.138 F400.000
G1 X10.202 Y14.288 Z-2.151 F400.000
G1 X10.336 Y14.342 Z-2.163 F400.000
G1 X10.458 Y14.420 Z-2.176 F400.000
G1 X10.562 Y14.521 Z-2.189 F400.000
G1 X10.644 Y14.640 Z-2.202 F400.000
G1 X10.702 Y14.773 Z-2.215 F400.000
G1 X10.732 Y14.915 Z-2.228 F400.000
G1 X10.734 Y15.059 Z-2.241 F400.000
G1 X10.708 Y15.202 Z-2.253 F400.000
G1 X10.655 Y15.336 Z-2.266 F400.000
G1 X10.576 Y15.458 Z-2.279 F400.000
G1 X10.475 Y15.562 Z-2.292 F400.000
G1 X10.356 Y15.644 Z-2.305 F400.000
G1 X10.223 Y15.702 Z-2.318 F400.000
G1 X10.082 Y15.732 Z-2.331 F400.000
G1 X9.937 Y15.734 Z-2.343 F400.000
G1 X9.795 Y15.708 Z-2.356 F400.000
G1 X9.660 Y15.655 Z-2.369 F400.000
G1 X9.538 Y15.576 Z-2.382 F400.000
G1 X9.434 Y15.475 Z-2.395 F400.000
G1 X9.352 Y15.356 Z-2.408 F400.000
G1 X9.295 Y15.223 Z-2.421 F400.000
G1 X9.264 Y15.082 Z-2.434 F400.000
G1 X9.262 Y14.937 Z-2.446 F400.000
G1 X9.288 Y14.795 Z-2.459 F400.000
G1 X9.342 Y14.660 Z-2.472 F400.000
G1 X9.420 Y14.538 Z-2.485 F400.000
G1 X9.521 Y14.434 Z-2.498 F400.000
G1 X9.640 Y14.352 Z-2.511 F400.000
G1 X9.773 Y14.295 Z-2.524 F400.000
G1 X9.915 Y14.264 Z-2.536 F400.000
G1 X10.059 Y14.262 Z-2.549 F400.000
G1 X10.202 Y14.288 Z-2.562 F400.000
G1 X10.336 Y14.342 Z-2.575 F400.000
G1 X10.458 Y14.420 Z-2.588 F400.000
G1 X10.562 Y14.521 Z-2.601 F400.000
G1 X10.644 Y14.640 Z-2.614 F400.000
G1 X10.702 Y14.773 Z-2.626 F400.000
G1 X10.732 Y14.915 Z-2.639 F400.000
G1 X10.734 Y15.059 Z-2.652 F400.000
G1 X10.708 Y15.202 Z-2.665 F400.000
G1 X10.655 Y15.336 Z-2.678 F400.000
G1 X10.576 Y15.458 Z-2.691 F400.000
G1 X10.475 Y15.562 Z-2.704 F400.000
G1 X10.356 Y15.644 Z-2.716 F400.000
G1 X10.223 Y15.702 Z-2.729 F400.000
G1 X10.082 Y15.732 Z-2.742 F400.000
G1 X9.937 Y15.734 Z-2.755 F400.000
G1 X9.795 Y15.708 Z-2.768 F400.000
G1 X9.660 Y15.655 Z-2.781 F400.000
G1 X9.538 Y15.576 Z-2.794 F400.000
G1 X9.434 Y15.475 Z-2.806 F400.000
G1 X9.352 Y15.356 Z-2.819 F400.000
G1 X9.295 Y15.223 Z-2.832 F400.000
G1 X9.264 Y15.082 Z-2.845 F400.000
G1 X9.262 Y14.937 Z-2.858 F400.000
G1 X9.288 Y14.795 Z-2.871 F400.000
G1 X9.342 Y14.660 Z-2.884 F400.000
G1 X9.420 Y14.538 Z-2.896 F400.000
G1 X9.521 Y14.434 Z-2.909 F400.000
G1 X9.640 Y14.352 Z-2.922 F400.000
G1 X9.773 Y14.295 Z-2.935 F400.000
G1 X9.915 Y14.264 Z-2.948 F400.000
G1 X10.059 Y14.262 Z-2.961 F400.000
G1 X10.202 Y14.288 Z-2.974 F400.000
G1 X10.336 Y14.342 Z-2.986 F400.000
G1 X10.458 Y14.420 Z-2.999 F400.000
G1 X10.562 Y14.521 Z-3.012 F400.000
G1 X10.644 Y14.640 Z-3.025 F400.000
G1 X10.702 Y14.773 Z-3.038 F400.000
G1 X10.732 Y14.915 Z-3.051 F400.000
G1 X10.734 Y15.059 Z-3.064 F400.000
G1 X10.708 Y15.202 Z-3.076 F400.000
G1 X10.655 Y15.336 Z-3.089 F400.000
G1 X10.576 Y15.458 Z-3.102 F400.000
G1 X10.475 Y15.562 Z-3.115 F400.000
G1 X10.356 Y15.644 Z-3.128 F400.000
G1 X10.223 Y15.702 Z-3.141 F400.000
G1 X10.082 Y15.732 Z-3.154 F400.000
G1 X9.937 Y15.734 Z-3.167 F400.000
G1 X9.795 Y15.708 Z-3.179 F400.000
G1 X9.660 Y15.655 Z-3.192 F400.000
G1 X9.538 Y15.576 Z-3.205 F400.000
G1 X9.434 Y15.475 Z-3.218 F400.000
G1 X9.352 Y15.356 Z-3.231 F400.000
G1 X9.295 Y15.223 Z-3.244 F400.000
G1 X9.264 Y15.082 Z-3.257 F400.000
G1 X9.262 Y14.937 Z-3.269 F400.000
G1 X9.288 Y14.795 Z-3.282 F400.000
G1 X9.342 Y14.660 Z-3.295 F400.000
G1 X9.420 Y14.538 Z-3.308 F400.000
G1 X9.521 Y14.434 Z-3.321 F400.000
G1 X9.640 Y14.352 Z-3.334 F400.000
G1 X9.773 Y14.295 Z-3.347 F400.000
G1 X9.915 Y14.264 Z-3.359 F400.000
G1 X10.059 Y14.262 Z-3.372 F400.000
G1 X10.202 Y14.288 Z-3.385 F400.000
G1 X10.336 Y14.342 Z-3.398 F400.000
G1 X10.458 Y14.420 Z-3.411 F400.000
G1 X10.562 Y14.521 Z-3.424 F400.000
G1 X10.644 Y14.640 Z-3.437 F400.000
G1 X10.702 Y14.773 Z-3.449 F400.000
G1 X10.732 Y14.915 Z-3.462 F400.000
G1 X10.734 Y15.059 Z-3.475 F400.000
G1 X10.708 Y15.202 Z-3.488 F400.000
G1 X10.655 Y15.336 Z-3.501 F400.000
G1 X10.576 Y15.458 Z-3.514 F400.000
G1 X10.475 Y15.562 Z-3.527 F400.000
G1 X10.356 Y15.644 Z-3.539 F400.000
G1 X10.223 Y15.702 Z-3.552 F400.000
G1 X10.082 Y15.732 Z-3.565 F400.000
G1 X9.937 Y15.734 Z-3.578 F400.000
G1 X9.795 Y15.708 Z-3.591 F400.000
G1 X9.660 Y15.655 Z-3.604 F400.000
G1 X9.538 Y15.576 Z-3.617 F400.000
G1 X9.434 Y15.475 Z-3.629 F400.000
G1 X9.352 Y15.356 Z-3.642 F400.000
G1 X9.295 Y15.223 Z-3.655 F400.000
G1 X9.264 Y15.082 Z-3.668 F400.000
G1 X9.262 Y14.937 Z-3.681 F400.000
G1 X9.288 Y14.795 Z-3.694 F400.000
G1 X9.342 Y14.660 Z-3.707 F400.000
G1 X9.420 Y14.538 Z-3.719 F400.000
G1 X9.521 Y14.434 Z-3.732 F400.000
G1 X9.640 Y14.352 Z-3.745 F400.000
G1 X9.773 Y14.295 Z-3.758 F400.000
G1 X9.915 Y14.264 Z-3.771 F400.000
G1 X10.059 Y14.262 Z-3.784 F400.000
G1 X10.202 Y14.288 Z-3.797 F400.000
G1 X10.336 Y14.342 Z-3.809 F400.000
G1 X10.458 Y14.420 Z-3.822 F400.000
G1 X10.562 Y14.521 Z-3.835 F400.000
G1 X10.644 Y14.640 Z-3.848 F400.000
G1 X10.702 Y14.773 Z-3.861 F400.000
G1 X10.732 Y14.915 Z-3.874 F400.000
G1 X10.734 Y15.059 Z-3.887 F400.000
G1 X10.708 Y15.202 Z-3.900 F400.000
G1 X10.655 Y15.336 Z-3.912 F400.000
G1 X10.576 Y15.458 Z-3.925 F400.000
G1 X10.475 Y15.562 Z-3.938 F400.000
G1 X10.356 Y15.644 Z-3.951 F400.000
G1 X10.223 Y15.702 Z-3.964 F400.000
G1 X10.082 Y15.732 Z-3.977 F400.000
G1 X9.937 Y15.734 Z-3.990 F400.000
G1 X9.795 Y15.708 Z-4.002 F400.000
G1 X9.660 Y15.655 Z-4.015 F400.000
G1 X9.538 Y15.576 Z-4.028 F400.000
G1 X9.434 Y15.475 Z-4.041 F400.000
G1 X9.352 Y15.356 Z-4.054 F400.000
G1 X9.295 Y15.223 Z-4.067 F400.000
G1 X9.264 Y15.082 Z-4.080 F400.000
G1 X9.262 Y14.937 Z-4.092 F400.000
G1 X9.288 Y14.795 Z-4.105 F400.000
G1 X9.342 Y14.660 Z-4.118 F400.000
G1 X9.420 Y14.538 Z-4.131 F400.000
G1 X9.521 Y14.434 Z-4.144 F400.000
G1 X9.640 Y14.352 Z-4.157 F400.000
G1 X9.773 Y14.295 Z-4.170 F400.000
G1 X9.915 Y14.264 Z-4.182 F400.000
G1 X10.059 Y14.262 Z-4.195 F400.000
G1 X10.202 Y14.288 Z-4.208 F400.000
G1 X10.336 Y14.342 Z-4.221 F400.000
G1 X10.458 Y14.420 Z-4.234 F400.000
G1 X10.562 Y14.521 Z-4.247 F400.000
G1 X10.644 Y14.640 Z-4.260 F400.000
G1 X10.702 Y14.773 Z-4.272 F400.000
G1 X10.732 Y14.915 Z-4.285 F400.000
G1 X10.734 Y15.059 Z-4.298 F400.000
G1 X10.708 Y15.202 Z-4.311 F400.000
G1 X10.655 Y15.336 Z-4.324 F400.000
G1 X10.576 Y15.458 Z-4.337 F400.000
G1 X10.475 Y15.562 Z-4.350 F400.000
G1 X10.356 Y15.644 Z-4.362 F400.000
G1 X10.223 Y15.702 Z-4.375 F400.000
G1 X10.082 Y15.732 Z-4.388 F400.000
G1 X9.937 Y15.734 Z-4.401 F400.000
G1 X9.795 Y15.708 Z-4.414 F400.000
G1 X9.660 Y15.655 Z-4.427 F400.000
G1 X9.538 Y15.576 Z-4.440 F400.000
G1 X9.434 Y15.475 Z-4.452 F400.000
G1 X9.352 Y15.356 Z-4.465 F400.000
G1 X9.295 Y15.223 Z-4.478 F400.000
G1 X9.264 Y15.082 Z-4.491 F400.000
G1 X9.262 Y14.937 Z-4.504 F400.000
G1 X9.288 Y14.795 Z-4.517 F400.000
G1 X9.342 Y14.660 Z-4.530 F400.000
G1 X9.420 Y14.538 Z-4.542 F400.000
G1 X9.521 Y14.434 Z-4.555 F400.000
G1 X9.640 Y14.352 Z-4.568 F400.000
G1 X9.773 Y14.295 Z-4.581 F400.000
G1 X9.915 Y14.264 Z-4.594 F400.000
G1 X10.059 Y14.262 Z-4.607 F400.000
G1 X10.202 Y14.288 Z-4.620 F400.000
G1 X10.336 Y14.342 Z-4.633 F400.000
G1 X10.458 Y14.420 Z-4.645 F400.000
G1 X10.562 Y14.521 Z-4.658 F400.000
G1 X10.644 Y14.640 Z-4.671 F400.000
G1 X10.702 Y14.773 Z-4.684 F400.000
G1 X10.732 Y14.915 Z-4.697 F400.000
G1 X10.734 Y15.059 Z-4.710 F400.000
G1 X10.708 Y15.202 Z-4.723 F400.000
G1 X10.655 Y15.336 Z-4.735 F400.000
G1 X10.576 Y15.458 Z-4.748 F400.000
G1 X10.475 Y15.562 Z-4.761 F400.000
G1 X10.356 Y15.644 Z-4.774 F400.000
G1 X10.223 Y15.702 Z-4.787 F400.000
G1 X10.082 Y15.732 Z-4.800 F400.000
G1 X9.937 Y15.734 Z-4.813 F400.000
G1 X9.795 Y15.708 Z-4.825 F400.000
G1 X9.660 Y15.655 Z-4.838 F400.000
G1 X9.538 Y15.576 Z-4.851 F400.000
G1 X9.434 Y15.475 Z-4.864 F400.000
G1 X9.352 Y15.356 Z-4.877 F400.000
G1 X9.295 Y15.223 Z-4.890 F400.000
G1 X9.264 Y15.082 Z-4.903 F400.000
G1 X9.262 Y14.937 Z-4.915 F400.000
G1 X9.288 Y14.795 Z-4.928 F400.000
G1 X9.342 Y14.660 Z-4.941 F400.000
G1 X9.420 Y14.538 Z-4.954 F400.000
G1 X9.521 Y14.434 Z-4.967 F400.000
G1 X9.640 Y14.352 Z-4.980 F400.000
G1 X9.773 Y14.295 Z-4.993 F400.000
G1 X9.915 Y14.264 Z-5.000 F400.000
G1 X10.059 Y14.262 Z-5.000 F400.000
G1 X10.202 Y14.288 Z-5.000 F400.000
G1 X10.336 Y14.342 Z-5.000 F400.000
G1 X10.458 Y14.420 Z-5.000 F400.000
G1 X10.562 Y14.521 Z-5.000 F400.000
G1 X10.644 Y14.640 Z-5.000 F400.000
G1 X10.702 Y14.773 Z-5.000 F400.000
G1 X10.732 Y14.915 Z-5.000 F400.000
G1 X10.734 Y15.059 Z-5.000 F400.000
G1 X10.708 Y15.202 Z-5.000 F400.000
G1 X10.655 Y15.336 Z-5.000 F400.000
G1 X10.576 Y15.458 Z-5.000 F400.000
G1 X10.475 Y15.562 Z-5.000 F400.000
G1 X10.356 Y15.644 Z-5.000 F400.000
G1 X10.223 Y15.702 Z-5.000 F400.000
G1 X10.082 Y15.732 Z-5.000 F400.000
G1 X9.937 Y15.734 Z-5.000 F400.000
G1 X9.795 Y15.708 Z-5.000 F400.000
G1 X9.660 Y15.655 Z-5.000 F400.000
G1 X9.538 Y15.576 Z-5.000 F400.000
G1 X9.434 Y15.475 Z-5.000 F400.000
G1 X9.352 Y15.356 Z-5.000 F400.000
G1 X9.295 Y15.223 Z-5.000 F400.000
G1 X9.264 Y15.082 Z-5.000 F400.000
G1 X9.262 Y14.937 Z-5.000 F400.000
G1 X9.288 Y14.795 Z-5.000 F400.000
G1 X9.342 Y14.660 Z-5.000 F400.000
G1 X9.420 Y14.538 Z-5.000 F400.000
G1 X9.521 Y14.434 Z-5.000 F400.000
G1 X9.640 Y14.352 Z-5.000 F400.000
G1 X9.773 Y14.295 Z-5.000 F400.000
(Adaptive - depth: -5.000000)
G1 X9.998 Y14.250 F400.000
G1 X10.023 Y14.233 F400.000
G1 X10.107 Y14.214 F400.000
G1 X10.220 Y14.214 F400.000
G1 X10.332 Y14.236 F400.000
G1 X10.386 Y14.255 F400.000
G1 X10.585 Y14.386 F400.000
G1 X10.668 Y14.475 F400.000
G1 X10.713 Y14.537 F400.000
G1 X10.754 Y14.608 F400.000
G1 X10.799 Y14.711 F400.000
G1 X10.837 Y14.846 F400.000
G1 X10.850 Y14.961 F400.000
G1 X10.848 Y15.062 F400.000
G1 X10.833 Y15.167 F400.000
G1 X10.803 Y15.276 F400.000
G1 X10.756 Y15.385 F400.000
G1 X10.698 Y15.480 F400.000
G1 X10.627 Y15.570 F400.000
G1 X10.544 Y15.649 F400.000
G1 X10.452 Y15.717 F400.000
G1 X10.356 Y15.769 F400.000
G1 X10.251 Y15.811 F400.000
G1 X10.141 Y15.837 F400.000
G1 X10.030 Y15.848 F400.000
G1 X9.917 Y15.844 F400.000
G1 X9.807 Y15.826 F400.000
G1 X9.700 Y15.795 F400.000
G1 X9.591 Y15.747 F400.000
G1 X9.492 Y15.687 F400.000
G1 X9.403 Y15.612 F400.000
G1 X9.334 Y15.538 F400.000
G1 X9.266 Y15.445 F400.000
G1 X9.212 Y15.343 F400.000
G1 X9.171 Y15.235 F400.000
G1 X9.146 Y15.122 F400.000
G1 X9.137 Y15.019 F400.000
G1 X9.141 Y14.908 F400.000
G1 X9.159 Y14.794 F400.000
G1 X9.193 Y14.681 F400.000
G1 X9.242 Y14.578 F400.000
G1 X9.300 Y14.488 F400.000
G1 X9.373 Y14.402 F400.000
G1 X9.454 Y14.326 F400.000
G1 X9.552 Y14.257 F400.000
G1 X9.756 Y14.148 F400.000
G1 X9.925 Y14.094 F400.000
G1 X10.066 Y14.075 F400.000
G1 X10.206 Y14.083 F400.000
G1 X10.375 Y14.124 F400.000
G1 X10.585 Y14.238 F400.000
G1 X10.698 Y14.338 F400.000
G1 X10.754 Y14.402 F400.000
G1 X10.809 Y14.477 F400.000
G1 X10.865 Y14.576 F400.000
G1 X10.916 Y14.702 F400.000
G1 X10.947 Y14.824 F400.000
G1 X10.961 Y14.940 F400.000
G1 X10.961 Y15.049 F400.000
G1 X10.947 Y15.165 F400.000
G1 X10.916 Y15.287 F400.000
G1 X10.872 Y15.396 F400.000
G1 X10.814 Y15.503 F400.000
G1 X10.743 Y15.602 F400.000
G1 X10.662 Y15.690 F400.000
G1 X10.570 Y15.769 F400.000
G1 X10.469 Y15.837 F400.000
G1 X10.360 Y15.887 F400.000
G1 X10.259 Y15.921 F400.000
G1 X10.139 Y15.947 F400.000
G1 X10.011 Y15.959 F400.000
G1 X9.887 Y15.955 F400.000
G1 X9.764 Y15.934 F400.000
G1 X9.653 Y15.902 F400.000
G1 X9.542 Y15.854 F400.000
G1 X9.437 Y15.792 F400.000
G1 X9.341 Y15.719 F400.000
G1 X9.257 Y15.630 F400.000
G1 X9.191 Y15.544 F400.000
G1 X9.128 Y15.441 F400.000
G1 X9.077 Y15.325 F400.000
G1 X9.043 Y15.212 F400.000
G1 X9.023 Y15.096 F400.000
G1 X9.017 Y14.970 F400.000
G1 X9.026 Y14.850 F400.000
G1 X9.049 Y14.732 F400.000
G1 X9.088 Y14.615 F400.000
G1 X9.141 Y14.507 F400.000
G1 X9.205 Y14.405 F400.000
G1 X9.281 Y14.311 F400.000
G1 X9.368 Y14.227 F400.000
G1 X9.469 Y14.146 F400.000
G1 X9.589 Y14.073 F400.000
G1 X9.767 Y13.992 F400.000
G1 X9.936 Y13.946 F400.000
G1 X10.105 Y13.932 F400.000
G1 X10.218 Y13.946 F400.000
G1 X10.447 Y14.013 F400.000
G1 X10.638 Y14.118 F400.000
G1 X10.713 Y14.178 F400.000
G1 X10.773 Y14.235 F400.000
G1 X10.846 Y14.317 F400.000
G1 X10.931 Y14.435 F400.000
G1 X11.000 Y14.567 F400.000
G1 X11.041 Y14.685 F400.000
G1 X11.068 Y14.795 F400.000
G1 X11.081 Y14.916 F400.000
G1 X11.083 Y15.041 F400.000
G1 X11.066 Y15.184 F400.000
G1 X11.038 Y15.306 F400.000
G1 X10.991 Y15.426 F400.000
G1 X10.940 Y15.525 F400.000
G1 X10.869 Y15.634 F400.000
G1 X10.784 Y15.737 F400.000
G1 X10.679 Y15.835 F400.000
G1 X10.580 Y15.906 F400.000
G1 X10.478 Y15.964 F400.000
G1 X10.362 Y16.013 F400.000
G1 X10.236 Y16.051 F400.000
G1 X10.105 Y16.073 F400.000
G1 X9.976 Y16.081 F400.000
G1 X9.844 Y16.073 F400.000
G1 X9.715 Y16.047 F400.000
G1 X9.606 Y16.013 F400.000
G1 X9.492 Y15.964 F400.000
G1 X9.371 Y15.895 F400.000
G1 X9.266 Y15.814 F400.000
G1 X9.176 Y15.726 F400.000
G1 X9.101 Y15.634 F400.000
G1 X9.032 Y15.529 F400.000
G1 X8.972 Y15.407 F400.000
G1 X8.929 Y15.287 F400.000
G1 X8.899 Y15.161 F400.000
G1 X8.884 Y15.032 F400.000
G1 X8.884 Y14.904 F400.000
G1 X8.899 Y14.777 F400.000
G1 X8.929 Y14.651 F400.000
G1 X8.972 Y14.531 F400.000
G1 X9.030 Y14.417 F400.000
G1 X9.099 Y14.310 F400.000
G1 X9.180 Y14.210 F400.000
G1 X9.280 Y14.113 F400.000
G1 X9.388 Y14.026 F400.000
G1 X9.501 Y13.953 F400.000
G1 X9.634 Y13.886 F400.000
G1 X9.765 Y13.837 F400.000
G1 X9.904 Y13.807 F400.000
G1 X10.017 Y13.797 F400.000
G1 X10.129 Y13.799 F400.000
G1 X10.261 Y13.818 F400.000
G1 X10.386 Y13.848 F400.000
G1 X10.520 Y13.897 F400.000
G1 X10.638 Y13.959 F400.000
G1 X10.737 Y14.024 F400.000
G1 X10.837 Y14.109 F400.000
G1 X10.925 Y14.201 F400.000
G1 X11.009 Y14.311 F400.000
G1 X11.077 Y14.426 F400.000
G1 X11.133 Y14.548 F400.000
G1 X11.174 Y14.677 F400.000
G1 X11.201 Y14.809 F400.000
G1 X11.212 Y14.942 F400.000
G1 X11.208 Y15.075 F400.000
G1 X11.191 Y15.208 F400.000
G1 X11.159 Y15.340 F400.000
G1 X11.113 Y15.465 F400.000
G1 X11.053 Y15.585 F400.000
G1 X10.979 Y15.698 F400.000
G1 X10.893 Y15.803 F400.000
G1 X10.797 Y15.899 F400.000
G1 X10.687 Y15.987 F400.000
G1 X10.570 Y16.060 F400.000
G1 X10.445 Y16.120 F400.000
G1 X10.323 Y16.163 F400.000
G1 X10.191 Y16.193 F400.000
G1 X10.058 Y16.208 F400.000
G1 X9.925 Y16.208 F400.000
G1 X9.792 Y16.195 F400.000
G1 X9.653 Y16.165 F400.000
G1 X9.523 Y16.122 F400.000
G1 X9.398 Y16.066 F400.000
G1 X9.280 Y15.996 F400.000
G1 X9.171 Y15.912 F400.000
G1 X9.081 Y15.826 F400.000
G1 X8.994 Y15.722 F400.000
G1 X8.921 Y15.612 F400.000
G1 X8.856 Y15.488 F400.000
G1 X8.803 Y15.356 F400.000
G1 X8.765 Y15.223 F400.000
G1 X8.743 Y15.084 F400.000
G1 X8.739 Y14.946 F400.000
G1 X8.747 Y14.826 F400.000
G1 X8.771 Y14.689 F400.000
G1 X8.807 Y14.561 F400.000
G1 X8.861 Y14.428 F400.000
G1 X8.929 Y14.306 F400.000
G1 X9.006 Y14.193 F400.000
G1 X9.096 Y14.084 F400.000
G1 X9.203 Y13.979 F400.000
G1 X9.323 Y13.884 F400.000
G1 X9.448 Y13.807 F400.000
G1 X9.563 Y13.750 F400.000
G1 X9.696 Y13.704 F400.000
G1 X9.831 Y13.672 F400.000
G1 X9.966 Y13.655 F400.000
G1 X10.103 Y13.653 F400.000
G1 X10.240 Y13.666 F400.000
G1 X10.375 Y13.694 F400.000
G1 X10.507 Y13.735 F400.000
G1 X10.632 Y13.792 F400.000
G1 X10.750 Y13.861 F400.000
G1 X10.863 Y13.942 F400.000
G1 X10.970 Y14.039 F400.000
G1 X11.064 Y14.143 F400.000
G1 X11.146 Y14.257 F400.000
G1 X11.216 Y14.379 F400.000
G1 X11.272 Y14.508 F400.000
G1 X11.315 Y14.644 F400.000
G1 X11.343 Y14.782 F400.000
G1 X11.356 Y14.923 F400.000
G1 X11.355 Y15.064 F400.000
G1 X11.338 Y15.205 F400.000
G1 X11.306 Y15.343 F400.000
G1 X11.263 Y15.471 F400.000
G1 X11.205 Y15.597 F400.000
G1 X11.135 Y15.717 F400.000
G1 X11.045 Y15.839 F400.000
G1 X10.944 Y15.951 F400.000
G1 X10.835 Y16.051 F400.000
G1 X10.713 Y16.137 F400.000
G1 X10.597 Y16.203 F400.000
G1 X10.465 Y16.261 F400.000
G1 X10.328 Y16.304 F400.000
G1 X10.191 Y16.332 F400.000
G1 X10.051 Y16.345 F400.000
G1 X9.910 Y16.345 F400.000
G1 X9.760 Y16.330 F400.000
G1 X9.617 Y16.300 F400.000
G1 X9.478 Y16.257 F400.000
G1 X9.343 Y16.199 F400.000
G1 X9.218 Y16.126 F400.000
G1 X9.109 Y16.047 F400.000
G1 X9.004 Y15.951 F400.000
G1 X8.910 Y15.846 F400.000
G1 X8.827 Y15.734 F400.000
G1 X8.752 Y15.604 F400.000
G1 X8.692 Y15.473 F400.000
G1 X8.645 Y15.338 F400.000
G1 X8.610 Y15.188 F400.000
G1 X8.591 Y15.041 F400.000
G1 X8.591 Y14.893 F400.000
G1 X8.602 Y14.764 F400.000
G1 X8.630 Y14.625 F400.000
G1 X8.670 Y14.492 F400.000
G1 X8.728 Y14.353 F400.000
G1 X8.794 Y14.225 F400.000
G1 X8.886 Y14.088 F400.000
G1 X8.981 Y13.970 F400.000
G1 X9.090 Y13.863 F400.000
G1 X9.199 Y13.775 F400.000
G1 X9.323 Y13.694 F400.000
G1 X9.454 Y13.627 F400.000
G1 X9.589 Y13.572 F400.000
G1 X9.730 Y13.533 F400.000
G1 X9.872 Y13.508 F400.000
G1 X10.017 Y13.499 F400.000
G1 X10.161 Y13.503 F400.000
G1 X10.315 Y13.523 F400.000
G1 X10.460 Y13.557 F400.000
G1 X10.600 Y13.608 F400.000
G1 X10.722 Y13.666 F400.000
G1 X10.846 Y13.739 F400.000
G1 X10.968 Y13.831 F400.000
G1 X11.073 Y13.929 F400.000
G1 X11.171 Y14.038 F400.000
G1 X11.257 Y14.156 F400.000
G1 X11.336 Y14.289 F400.000
G1 X11.398 Y14.424 F400.000
G1 X11.447 Y14.567 F400.000
G1 X11.482 Y14.715 F400.000
G1 X11.503 Y14.865 F400.000
G1 X11.507 Y15.015 F400.000
G1 X11.497 Y15.154 F400.000
G1 X11.471 Y15.298 F400.000
G1 X11.432 Y15.439 F400.000
G1 X11.379 Y15.572 F400.000
G1 X11.313 Y15.702 F400.000
G1 X11.231 Y15.835 F400.000
G1 X11.128 Y15.970 F400.000
G1 X11.017 Y16.083 F400.000
G1 X10.917 Y16.169 F400.000
G1 X10.792 Y16.255 F400.000
G1 X10.664 Y16.326 F400.000
G1 X10.518 Y16.392 F400.000
G1 X10.364 Y16.443 F400.000
G1 X10.210 Y16.475 F400.000
G1 X10.071 Y16.492 F400.000
G1 X9.919 Y16.493 F400.000
G1 X9.771 Y16.480 F400.000
G1 X9.627 Y16.454 F400.000
G1 X9.482 Y16.417 F400.000
G1 X9.323 Y16.355 F400.000
G1 X9.186 Y16.281 F400.000
G1 X9.069 Y16.203 F400.000
G1 X8.970 Y16.122 F400.000
G1 X8.863 Y16.017 F400.000
G1 X8.760 Y15.895 F400.000
G1 X8.666 Y15.760 F400.000
G1 X8.587 Y15.621 F400.000
G1 X8.523 Y15.473 F400.000
G1 X8.480 Y15.332 F400.000
G1 X8.452 Y15.197 F400.000
G1 X8.437 Y15.049 F400.000
G1 X8.435 Y14.904 F400.000
G1 X8.450 Y14.741 F400.000
G1 X8.478 Y14.591 F400.000
G1 X8.520 Y14.445 F400.000
G1 X8.576 Y14.298 F400.000
G1 X8.651 Y14.148 F400.000
G1 X8.735 Y14.015 F400.000
G1 X8.827 Y13.895 F400.000
G1 X8.934 Y13.780 F400.000
G1 X9.051 Y13.677 F400.000
G1 X9.176 Y13.585 F400.000
G1 X9.310 Y13.507 F400.000
G1 X9.452 Y13.445 F400.000
G1 X9.580 Y13.402 F400.000
G1 X9.722 Y13.366 F400.000
G1 X9.897 Y13.341 F400.000
G1 X10.058 Y13.334 F400.000
G1 X10.218 Y13.341 F400.000
G1 X10.366 Y13.366 F400.000
G1 X10.499 Y13.402 F400.000
G1 X10.640 Y13.452 F400.000
G1 X10.788 Y13.522 F400.000
G1 X10.931 Y13.606 F400.000
G1 X11.058 Y13.700 F400.000
G1 X11.169 Y13.799 F400.000
G1 X11.274 Y13.914 F400.000
G1 X11.368 Y14.038 F400.000
G1 X11.448 Y14.167 F400.000
G1 X11.518 Y14.304 F400.000
G1 X11.578 Y14.460 F400.000
G1 X11.621 Y14.612 F400.000
G1 X11.649 Y14.769 F400.000
G1 X11.662 Y14.919 F400.000
G1 X11.660 Y15.075 F400.000
G1 X11.644 Y15.231 F400.000
G1 X11.612 Y15.383 F400.000
G1 X11.565 Y15.533 F400.000
G1 X11.505 Y15.675 F400.000
G1 X11.432 Y15.812 F400.000
G1 X11.345 Y15.942 F400.000
G1 X11.248 Y16.064 F400.000
G1 X11.131 Y16.184 F400.000
G1 X11.009 Y16.287 F400.000
G1 X10.878 Y16.381 F400.000
G1 X10.737 Y16.463 F400.000
G1 X10.591 Y16.531 F400.000
G1 X10.439 Y16.585 F400.000
G1 X10.281 Y16.623 F400.000
G1 X10.137 Y16.644 F400.000
G1 X9.981 Y16.651 F400.000
G1 X9.827 Y16.645 F400.000
G1 X9.660 Y16.623 F400.000
G1 X9.505 Y16.587 F400.000
G1 X9.353 Y16.537 F400.000
G1 X9.205 Y16.471 F400.000
G1 X9.066 Y16.390 F400.000
G1 X8.944 Y16.306 F400.000
G1 X8.824 Y16.205 F400.000
G1 X8.715 Y16.094 F400.000
G1 X8.610 Y15.964 F400.000
G1 X8.522 Y15.833 F400.000
G1 X8.445 Y15.692 F400.000
G1 X8.381 Y15.542 F400.000
G1 X8.332 Y15.390 F400.000
G1 X8.296 Y15.233 F400.000
G1 X8.276 Y15.073 F400.000
G1 X8.270 Y14.914 F400.000
G1 X8.280 Y14.754 F400.000
G1 X8.304 Y14.597 F400.000
G1 X8.343 Y14.441 F400.000
G1 X8.396 Y14.289 F400.000
G1 X8.460 Y14.143 F400.000
G1 X8.546 Y13.989 F400.000
G1 X8.640 Y13.852 F400.000
G1 X8.745 Y13.722 F400.000
G1 X8.865 Y13.604 F400.000
G1 X8.987 Y13.507 F400.000
G1 X9.105 Y13.428 F400.000
G1 X9.240 Y13.353 F400.000
G1 X9.400 Y13.283 F400.000
G1 X9.559 Y13.231 F400.000
G1 X9.719 Y13.191 F400.000
G1 X9.887 Y13.167 F400.000
G1 X10.054 Y13.159 F400.000
G1 X10.208 Y13.169 F400.000
G1 X10.355 Y13.191 F400.000
G1 X10.507 Y13.227 F400.000
G1 X10.668 Y13.280 F400.000
G1 X10.826 Y13.349 F400.000
G1 X10.970 Y13.430 F400.000
G1 X11.101 Y13.518 F400.000
G1 X11.229 Y13.623 F400.000
G1 X11.345 Y13.737 F400.000
G1 X11.450 Y13.861 F400.000
G1 X11.544 Y13.996 F400.000
G1 X11.625 Y14.139 F400.000
G1 X11.692 Y14.289 F400.000
G1 X11.747 Y14.445 F400.000
G1 X11.786 Y14.604 F400.000
G1 X11.812 Y14.765 F400.000
G1 X11.824 Y14.940 F400.000
G1 X11.820 Y15.107 F400.000
G1 X11.801 Y15.274 F400.000
G1 X11.764 Y15.439 F400.000
G1 X11.719 Y15.582 F400.000
G1 X11.657 Y15.732 F400.000
G1 X11.582 Y15.874 F400.000
G1 X11.490 Y16.017 F400.000
G1 X11.388 Y16.146 F400.000
G1 X11.276 Y16.266 F400.000
G1 X11.152 Y16.379 F400.000
G1 X11.009 Y16.486 F400.000
G1 X10.865 Y16.576 F400.000
G1 X10.713 Y16.655 F400.000
G1 X10.552 Y16.717 F400.000
G1 X10.403 Y16.760 F400.000
G1 X10.240 Y16.792 F400.000
G1 X10.077 Y16.809 F400.000
G1 X9.916 Y16.811 F400.000
G1 X9.752 Y16.797 F400.000
G1 X9.591 Y16.771 F400.000
G1 X9.418 Y16.726 F400.000
G1 X9.261 Y16.670 F400.000
G1 X9.105 Y16.600 F400.000
G1 X8.955 Y16.516 F400.000
G1 X8.818 Y16.417 F400.000
G1 X8.704 Y16.319 F400.000
G1 X8.591 Y16.203 F400.000
G1 X8.488 Y16.079 F400.000
G1 X8.388 Y15.932 F400.000
G1 X8.308 Y15.786 F400.000
G1 X8.238 Y15.632 F400.000
G1 X8.180 Y15.473 F400.000
G1 X8.135 Y15.295 F400.000
G1 X8.109 Y15.122 F400.000
G1 X8.098 Y14.964 F400.000
G1 X8.101 Y14.794 F400.000
G1 X8.120 Y14.627 F400.000
G1 X8.152 Y14.463 F400.000
G1 X8.199 Y14.302 F400.000
G1 X8.261 Y14.146 F400.000
G1 X8.332 Y13.998 F400.000
G1 X8.426 Y13.842 F400.000
G1 X8.527 Y13.704 F400.000
G1 X8.642 Y13.574 F400.000
G1 X8.758 Y13.463 F400.000
G1 X8.889 Y13.358 F400.000
G1 X9.028 Y13.266 F400.000
G1 X9.173 Y13.188 F400.000
G1 X9.338 Y13.113 F400.000
G1 X9.510 Y13.053 F400.000
G1 X9.681 Y13.011 F400.000
G1 X9.841 Y12.987 F400.000
G1 X10.013 Y12.979 F400.000
G1 X10.163 Y12.985 F400.000
G1 X10.323 Y13.004 F400.000
G1 X10.490 Y13.039 F400.000
G1 X10.662 Y13.090 F400.000
G1 X10.833 Y13.156 F400.000
G1 X10.991 Y13.236 F400.000
G1 X11.131 Y13.321 F400.000
G1 X11.272 Y13.424 F400.000
G1 X11.400 Y13.538 F400.000
G1 X11.516 Y13.660 F400.000
G1 X11.621 Y13.797 F400.000
G1 X11.705 Y13.929 F400.000
G1 X11.784 Y14.075 F400.000
G1 X11.856 Y14.238 F400.000
G1 X11.916 Y14.413 F400.000
G1 X11.959 Y14.585 F400.000
G1 X11.985 Y14.764 F400.000
G1 X11.996 Y14.927 F400.000
G1 X11.992 Y15.099 F400.000
G1 X11.974 Y15.272 F400.000
G1 X11.938 Y15.439 F400.000
G1 X11.891 Y15.593 F400.000
G1 X11.829 Y15.749 F400.000
G1 X11.756 Y15.899 F400.000
G1 X11.659 Y16.060 F400.000
G1 X11.555 Y16.201 F400.000
G1 X11.441 Y16.334 F400.000
G1 X11.311 Y16.460 F400.000
G1 X11.174 Y16.572 F400.000
G1 X11.030 Y16.674 F400.000
G1 X10.874 Y16.762 F400.000
G1 X10.715 Y16.837 F400.000
G1 X10.546 Y16.895 F400.000
G1 X10.390 Y16.936 F400.000
G1 X10.221 Y16.964 F400.000
G1 X10.053 Y16.977 F400.000
G1 X9.886 Y16.976 F400.000
G1 X9.717 Y16.961 F400.000
G1 X9.537 Y16.931 F400.000
G1 X9.351 Y16.884 F400.000
G1 X9.180 Y16.822 F400.000
G1 X9.028 Y16.750 F400.000
G1 X8.887 Y16.670 F400.000
G1 X8.747 Y16.574 F400.000
G1 X8.608 Y16.460 F400.000
G1 X8.486 Y16.340 F400.000
G1 X8.373 Y16.208 F400.000
G1 X8.272 Y16.068 F400.000
G1 X8.182 Y15.921 F400.000
G1 X8.098 Y15.756 F400.000
G1 X8.026 Y15.578 F400.000
G1 X7.977 Y15.402 F400.000
G1 X7.947 Y15.253 F400.000
G1 X7.927 Y15.081 F400.000
G1 X7.919 Y14.899 F400.000
G1 X7.927 Y14.713 F400.000
G1 X7.951 Y14.535 F400.000
G1 X7.987 Y14.371 F400.000
G1 X8.039 Y14.203 F400.000
G1 X8.105 Y14.039 F400.000
G1 X8.188 Y13.874 F400.000
G1 X8.281 Y13.722 F400.000
G1 X8.386 Y13.578 F400.000
G1 X8.505 Y13.443 F400.000
G1 X8.636 Y13.323 F400.000
G1 X8.754 Y13.227 F400.000
G1 X8.906 Y13.124 F400.000
G1 X9.069 Y13.030 F400.000
G1 X9.246 Y12.947 F400.000
G1 X9.424 Y12.884 F400.000
G1 X9.587 Y12.841 F400.000
G1 X9.750 Y12.811 F400.000
G1 X9.923 Y12.795 F400.000
G1 X10.092 Y12.795 F400.000
G1 X10.261 Y12.811 F400.000
G1 X10.430 Y12.839 F400.000
G1 X10.615 Y12.884 F400.000
G1 X10.799 Y12.946 F400.000
G1 X10.970 Y13.017 F400.000
G1 X11.137 Y13.107 F400.000
G1 X11.281 Y13.199 F400.000
G1 X11.424 Y13.310 F400.000
G1 X11.555 Y13.433 F400.000
G1 X11.664 Y13.553 F400.000
G1 X11.769 Y13.692 F400.000
G1 X11.861 Y13.837 F400.000
G1 X11.947 Y14.000 F400.000
G1 X12.019 Y14.161 F400.000
G1 X12.079 Y14.341 F400.000
G1 X12.124 Y14.520 F400.000
G1 X12.154 Y14.700 F400.000
G1 X12.169 Y14.884 F400.000
G1 X12.169 Y15.068 F400.000
G1 X12.152 Y15.251 F400.000
G1 X12.124 Y15.417 F400.000
G1 X12.079 Y15.591 F400.000
G1 X12.019 Y15.758 F400.000
G1 X11.946 Y15.917 F400.000
G1 X11.859 Y16.073 F400.000
G1 X11.760 Y16.220 F400.000
G1 X11.651 Y16.358 F400.000
G1 X11.522 Y16.501 F400.000
G1 X11.373 Y16.638 F400.000
G1 X11.225 Y16.756 F400.000
G1 X11.060 Y16.861 F400.000
G1 X10.919 Y16.936 F400.000
G1 X10.754 Y17.008 F400.000
G1 X10.585 Y17.062 F400.000
G1 X10.417 Y17.103 F400.000
G1 X10.242 Y17.131 F400.000
G1 X10.054 Y17.148 F400.000
G1 X9.861 Y17.148 F400.000
G1 X9.675 Y17.135 F400.000
G1 X9.488 Y17.101 F400.000
G1 X9.326 Y17.060 F400.000
G1 X9.156 Y17.000 F400.000
G1 X8.992 Y16.931 F400.000
G1 X8.822 Y16.841 F400.000
G1 X8.668 Y16.741 F400.000
G1 X8.523 Y16.625 F400.000
G1 X8.405 Y16.516 F400.000
G1 X8.287 Y16.386 F400.000
G1 X8.173 Y16.240 F400.000
G1 X8.064 Y16.079 F400.000
G1 X7.966 Y15.904 F400.000
G1 X7.889 Y15.728 F400.000
G1 X7.833 Y15.570 F400.000
G1 X7.786 Y15.392 F400.000
G1 X7.754 Y15.214 F400.000
G1 X7.737 Y15.038 F400.000
G1 X7.734 Y14.857 F400.000
G1 X7.747 Y14.662 F400.000
G1 X7.773 Y14.480 F400.000
G1 X7.812 Y14.298 F400.000
G1 X7.869 Y14.116 F400.000
G1 X7.938 Y13.944 F400.000
G1 X8.024 Y13.777 F400.000
G1 X8.114 Y13.629 F400.000
G1 X8.221 Y13.482 F400.000
G1 X8.340 Y13.347 F400.000
G1 X8.465 Y13.221 F400.000
G1 X8.615 Y13.094 F400.000
G1 X8.775 Y12.979 F400.000
G1 X8.936 Y12.880 F400.000
G1 X9.109 Y12.792 F400.000
G1 X9.289 Y12.722 F400.000
G1 X9.443 Y12.675 F400.000
G1 X9.619 Y12.638 F400.000
G1 X9.795 Y12.615 F400.000
G1 X9.979 Y12.606 F400.000
G1 X10.159 Y12.612 F400.000
G1 X10.340 Y12.630 F400.000
G1 X10.533 Y12.668 F400.000
G1 X10.713 Y12.717 F400.000
G1 X10.889 Y12.777 F400.000
G1 X11.081 Y12.861 F400.000
G1 X11.251 Y12.953 F400.000
G1 X11.413 Y13.062 F400.000
G1 X11.542 Y13.165 F400.000
G1 X11.662 Y13.280 F400.000
G1 X11.780 Y13.409 F400.000
G1 X11.901 Y13.561 F400.000
G1 X12.009 Y13.728 F400.000
G1 X12.101 Y13.893 F400.000
G1 X12.182 Y14.069 F400.000
G1 X12.250 Y14.251 F400.000
G1 X12.298 Y14.437 F400.000
G1 X12.330 Y14.606 F400.000
G1 X12.349 Y14.792 F400.000
G1 X12.355 Y14.974 F400.000
G1 X12.345 Y15.173 F400.000
G1 X12.321 Y15.360 F400.000
G1 X12.280 Y15.546 F400.000
G1 X12.229 Y15.713 F400.000
G1 X12.161 Y15.886 F400.000
G1 X12.079 Y16.049 F400.000
G1 X11.987 Y16.205 F400.000
G1 X11.874 Y16.366 F400.000
G1 X11.747 Y16.522 F400.000
G1 X11.614 Y16.662 F400.000
G1 X11.467 Y16.795 F400.000
G1 X11.310 Y16.917 F400.000
G1 X11.143 Y17.021 F400.000
G1 X10.996 Y17.098 F400.000
G1 X10.826 Y17.171 F400.000
G1 X10.651 Y17.227 F400.000
G1 X10.480 Y17.272 F400.000
G1 X10.283 Y17.308 F400.000
G1 X10.081 Y17.326 F400.000
G1 X9.889 Y17.330 F400.000
G1 X9.692 Y17.319 F400.000
G1 X9.497 Y17.289 F400.000
G1 X9.330 Y17.251 F400.000
G1 X9.150 Y17.195 F400.000
G1 X8.976 Y17.126 F400.000
G1 X8.797 Y17.039 F400.000
G1 X8.634 Y16.940 F400.000
G1 X8.492 Y16.839 F400.000
G1 X8.349 Y16.719 F400.000
G1 X8.220 Y16.589 F400.000
G1 X8.099 Y16.452 F400.000
G1 X7.979 Y16.289 F400.000
G1 X7.878 Y16.129 F400.000
G1 X7.780 Y15.946 F400.000
G1 X7.702 Y15.764 F400.000
G1 X7.636 Y15.576 F400.000
G1 X7.587 Y15.381 F400.000
G1 X7.559 Y15.212 F400.000
G1 X7.544 Y15.039 F400.000
G1 X7.540 Y14.859 F400.000
G1 X7.552 Y14.655 F400.000
G1 X7.580 Y14.452 F400.000
G1 X7.619 Y14.261 F400.000
G1 X7.675 Y14.068 F400.000
G1 X7.752 Y13.882 F400.000
G1 X7.824 Y13.735 F400.000
G1 X7.917 Y13.574 F400.000
G1 X8.030 Y13.413 F400.000
G1 X8.158 Y13.257 F400.000
G1 X8.291 Y13.114 F400.000
G1 X8.437 Y12.981 F400.000
G1 X8.593 Y12.861 F400.000
G1 X8.756 Y12.752 F400.000
G1 X8.929 Y12.657 F400.000
G1 X9.109 Y12.578 F400.000
G1 X9.270 Y12.520 F400.000
G1 X9.450 Y12.471 F400.000
G1 X9.632 Y12.439 F400.000
G1 X9.812 Y12.418 F400.000
G1 X10.021 Y12.413 F400.000
G1 X10.210 Y12.422 F400.000
G1 X10.402 Y12.445 F400.000
G1 X10.597 Y12.482 F400.000
G1 X10.801 Y12.538 F400.000
G1 X10.989 Y12.604 F400.000
G1 X11.174 Y12.689 F400.000
G1 X11.336 Y12.777 F400.000
G1 X11.499 Y12.886 F400.000
G1 X11.636 Y12.994 F400.000
G1 X11.771 Y13.120 F400.000
G1 X11.897 Y13.253 F400.000
G1 X12.026 Y13.413 F400.000
G1 X12.144 Y13.585 F400.000
G1 X12.246 Y13.756 F400.000
G1 X12.338 Y13.940 F400.000
G1 X12.411 Y14.131 F400.000
G1 X12.463 Y14.302 F400.000
G1 X12.507 Y14.493 F400.000
G1 X12.533 Y14.683 F400.000
G1 X12.546 Y14.871 F400.000
G1 X12.544 Y15.062 F400.000
G1 X12.527 Y15.253 F400.000
G1 X12.495 Y15.441 F400.000
G1 X12.448 Y15.629 F400.000
G1 X12.386 Y15.811 F400.000
G1 X12.311 Y15.989 F400.000
G1 X12.225 Y16.161 F400.000
G1 X12.116 Y16.340 F400.000
G1 X12.002 Y16.499 F400.000
G1 X11.876 Y16.653 F400.000
G1 X11.720 Y16.816 F400.000
G1 X11.565 Y16.951 F400.000
G1 X11.420 Y17.062 F400.000
G1 X11.250 Y17.173 F400.000
G1 X11.075 Y17.265 F400.000
G1 X10.914 Y17.336 F400.000
G1 X10.732 Y17.400 F400.000
G1 X10.550 Y17.447 F400.000
G1 X10.366 Y17.482 F400.000
G1 X10.154 Y17.508 F400.000
G1 X9.940 Y17.518 F400.000
G1 X9.737 Y17.512 F400.000
G1 X9.527 Y17.486 F400.000
G1 X9.356 Y17.452 F400.000
G1 X9.169 Y17.400 F400.000
G1 X8.989 Y17.336 F400.000
G1 X8.797 Y17.251 F400.000
G1 X8.623 Y17.158 F400.000
G1 X8.456 Y17.047 F400.000
G1 X8.311 Y16.936 F400.000
G1 X8.169 Y16.807 F400.000
G1 X8.036 Y16.670 F400.000
G1 X7.908 Y16.516 F400.000
G1 X7.795 Y16.358 F400.000
G1 X7.687 Y16.178 F400.000
G1 X7.595 Y15.998 F400.000
G1 X7.516 Y15.812 F400.000
G1 X7.450 Y15.619 F400.000
G1 X7.400 Y15.424 F400.000
G1 X7.364 Y15.223 F400.000
G1 X7.343 Y15.021 F400.000
G1 X7.338 Y14.818 F400.000
G1 X7.353 Y14.615 F400.000
G1 X7.375 Y14.448 F400.000
G1 X7.413 Y14.265 F400.000
G1 X7.469 Y14.066 F400.000
G1 X7.544 Y13.859 F400.000
G1 X7.630 Y13.674 F400.000
G1 X7.719 Y13.512 F400.000
G1 X7.829 Y13.343 F400.000
G1 X7.949 Y13.188 F400.000
G1 X8.077 Y13.041 F400.000
G1 X8.233 Y12.889 F400.000
G1 X8.388 Y12.760 F400.000
G1 X8.553 Y12.640 F400.000
G1 X8.730 Y12.531 F400.000
G1 X8.912 Y12.439 F400.000
G1 X9.081 Y12.368 F400.000
G1 X9.268 Y12.306 F400.000
G1 X9.458 Y12.261 F400.000
G1 X9.647 Y12.229 F400.000
G1 X9.841 Y12.212 F400.000
G1 X10.034 Y12.208 F400.000
G1 X10.240 Y12.220 F400.000
G1 X10.452 Y12.246 F400.000
G1 X10.651 Y12.285 F400.000
G1 X10.852 Y12.341 F400.000
G1 X11.049 Y12.411 F400.000
G1 X11.238 Y12.493 F400.000
G1 X11.418 Y12.595 F400.000
G1 X11.567 Y12.690 F400.000
G1 X11.722 Y12.809 F400.000
G1 X11.865 Y12.936 F400.000
G1 X12.006 Y13.083 F400.000
G1 X12.135 Y13.233 F400.000
G1 X12.266 Y13.413 F400.000
G1 X12.377 Y13.587 F400.000
G1 X12.477 Y13.771 F400.000
G1 X12.563 Y13.966 F400.000
G1 X12.629 Y14.165 F400.000
G1 X12.675 Y14.338 F400.000
G1 X12.711 Y14.535 F400.000
G1 X12.732 Y14.730 F400.000
G1 X12.739 Y14.934 F400.000
G1 X12.732 Y15.133 F400.000
G1 X12.709 Y15.332 F400.000
G1 X12.672 Y15.531 F400.000
G1 X12.619 Y15.726 F400.000
G1 X12.553 Y15.917 F400.000
G1 X12.473 Y16.103 F400.000
G1 X12.379 Y16.281 F400.000
G1 X12.272 Y16.452 F400.000
G1 X12.154 Y16.617 F400.000
G1 X12.013 Y16.786 F400.000
G1 X11.869 Y16.936 F400.000
G1 X11.713 Y17.077 F400.000
G1 X11.546 Y17.206 F400.000
G1 X11.370 Y17.321 F400.000
G1 X11.206 Y17.411 F400.000
G1 X11.023 Y17.495 F400.000
G1 X10.835 Y17.565 F400.000
G1 X10.647 Y17.619 F400.000
G1 X10.452 Y17.660 F400.000
G1 X10.257 Y17.690 F400.000
G1 X10.026 Y17.705 F400.000
G1 X9.818 Y17.705 F400.000
G1 X9.606 Y17.689 F400.000
G1 X9.415 Y17.659 F400.000
G1 X9.214 Y17.614 F400.000
G1 X9.019 Y17.553 F400.000
G1 X8.833 Y17.480 F400.000
G1 X8.649 Y17.392 F400.000
G1 X8.475 Y17.291 F400.000
G1 X8.308 Y17.178 F400.000
G1 X8.148 Y17.053 F400.000
G1 X8.000 Y16.916 F400.000
G1 X7.861 Y16.769 F400.000
G1 X7.734 Y16.612 F400.000
G1 X7.619 Y16.447 F400.000
G1 X7.514 Y16.274 F400.000
G1 X7.415 Y16.077 F400.000
G1 X7.334 Y15.886 F400.000
G1 X7.266 Y15.687 F400.000
G1 X7.212 Y15.480 F400.000
G1 X7.173 Y15.274 F400.000
G1 X7.148 Y15.064 F400.000
G1 X7.146 Y14.523 F400.000
G1 X7.236 Y14.043 F400.000
G1 X7.358 Y13.696 F400.000
G1 X7.537 Y13.345 F400.000
G1 X7.857 Y12.910 F400.000
G1 X8.111 Y12.653 F400.000
G1 X8.542 Y12.341 F400.000
G1 X8.996 Y12.126 F400.000
G1 X9.503 Y11.992 F400.000
G1 X9.897 Y11.957 F400.000
G1 X10.432 Y12.004 F400.000
G1 X10.797 Y12.086 F400.000
G1 X11.229 Y12.248 F400.000
G1 X11.604 Y12.456 F400.000
G1 X12.006 Y12.777 F400.000
G1 X12.379 Y13.208 F400.000
G1 X12.640 Y13.653 F400.000
G1 X12.786 Y14.023 F400.000
G1 X12.901 Y14.614 F400.000
G1 X12.901 Y15.176 F400.000
G1 X12.803 Y15.683 F400.000
G1 X12.636 Y16.126 F400.000
G1 X12.413 Y16.546 F400.000
G1 X12.159 Y16.882 F400.000
G1 X11.901 Y17.131 F400.000
G1 X11.722 Y17.293 F400.000
G1 X11.392 Y17.508 F400.000
G1 X11.251 Y17.570 F400.000
G1 X11.036 Y17.675 F400.000
G1 X10.887 Y17.719 F400.000
G1 X10.660 Y17.797 F400.000
G1 X10.270 Y17.865 F400.000
G1 X9.850 Y17.884 F400.000
G1 X9.460 Y17.850 F400.000
G1 X8.979 Y17.732 F400.000
G1 X8.606 Y17.576 F400.000
G1 X8.178 Y17.313 F400.000
G1 X7.780 Y16.961 F400.000
G1 X7.501 Y16.621 F400.000
G1 X7.246 Y16.193 F400.000
G1 X7.099 Y15.850 F400.000
G1 X6.994 Y15.490 F400.000
G1 X6.923 Y15.069 F400.000
G1 X6.908 Y14.679 F400.000
G1 X6.942 Y14.289 F400.000
G1 X7.086 Y13.726 F400.000
G1 X7.218 Y13.417 F400.000
G1 X7.514 Y12.931 F400.000
G1 X7.822 Y12.604 F400.000
G1 X8.144 Y12.347 F400.000
G1 X8.608 Y12.077 F400.000
G1 X9.049 Y11.908 F400.000
G1 X9.358 Y11.827 F400.000
G1 X9.865 Y11.765 F400.000
G1 X10.231 Y11.769 F400.000
G1 X10.765 Y11.852 F400.000
G1 X11.388 Y12.077 F400.000
G1 X11.811 Y12.321 F400.000
G1 X12.163 Y12.606 F400.000
G1 X12.417 Y12.880 F400.000
G1 X12.752 Y13.407 F400.000
G1 X12.946 Y13.884 F400.000
G1 X13.039 Y14.278 F400.000
G1 X13.090 Y14.700 F400.000
G1 X13.079 Y15.122 F400.000
G1 X13.017 Y15.516 F400.000
G1 X12.910 Y15.882 F400.000
G1 X12.709 Y16.345 F400.000
G1 X12.460 Y16.749 F400.000
G1 X12.069 Y17.195 F400.000
G1 X11.670 Y17.512 F400.000
G1 X11.433 Y17.655 F400.000
G1 X10.991 Y17.854 F400.000
G1 X10.366 Y18.011 F400.000
G1 X9.826 Y18.045 F400.000
G1 X9.375 Y18.013 F400.000
G1 X8.865 Y17.886 F400.000
G1 X8.522 Y17.743 F400.000
G1 X8.144 Y17.522 F400.000
G1 X7.730 Y17.184 F400.000
G1 X7.340 Y16.735 F400.000
G1 X7.075 Y16.310 F400.000
G1 X6.882 Y15.850 F400.000
G1 X6.852 Y15.760 F400.000
G1 X6.775 Y15.280 F400.000
G1 X6.773 Y14.709 F400.000
G1 X6.827 Y14.349 F400.000
G1 X6.923 Y13.989 F400.000
G1 X6.923 Y13.989 F400.000
G1 X6.934 Y13.959 F400.000
G0 Z6.000
G0 X6.934 Y13.959
G0 X6.925 Y13.983
G1 Z-5.000 F400.000
G1 X6.925 Y13.983 F400.000
G1 X6.934 Y13.953 F400.000
G1 X6.934 Y13.953 F400.000
G1 X7.060 Y13.644 F400.000
G1 X7.060 Y13.644 F400.000
G1 X7.109 Y13.583 F400.000
G1 X7.135 Y13.567 F400.000
G0 X7.148 Y13.561
G0 X12.056 Y12.675
G1 X12.086 Y12.672 F400.000
G1 X12.173 Y12.660 F400.000
G1 X12.235 Y12.674 F400.000
G1 X12.289 Y12.711 F400.000
G1 X12.289 Y12.711 F400.000
G1 X12.621 Y13.105 F400.000
G1 X12.824 Y13.418 F400.000
G1 X12.987 Y13.754 F400.000
G1 X13.137 Y14.214 F400.000
G1 X13.214 Y14.636 F400.000
G1 X13.231 Y15.086 F400.000
G1 X13.156 Y15.621 F400.000
G1 X12.910 Y16.313 F400.000
G1 X12.769 Y16.576 F400.000
G1 X12.420 Y17.056 F400.000
G1 X11.989 Y17.473 F400.000
G1 X11.692 Y17.683 F400.000
G1 X11.263 Y17.910 F400.000
G1 X10.809 Y18.077 F400.000
G1 X10.388 Y18.171 F400.000
G1 X9.818 Y18.206 F400.000
G1 X9.428 Y18.180 F400.000
G1 X9.158 Y18.124 F400.000
G1 X8.739 Y17.979 F400.000
G1 X8.430 Y17.829 F400.000
G1 X8.242 Y17.717 F400.000
G1 X7.916 Y17.475 F400.000
G1 X7.559 Y17.126 F400.000
G1 X7.420 Y16.953 F400.000
G1 X7.195 Y16.615 F400.000
G1 X7.053 Y16.336 F400.000
G1 X7.053 Y16.336 F400.000
G1 X7.038 Y16.272 F400.000
G1 X7.039 Y16.242 F400.000
G1 X7.043 Y16.229 F400.000
G0 X7.051 Y16.220
G0 X7.101 Y16.201
G0 X13.047 Y15.377
G1 X13.079 Y15.373 F400.000
G1 X13.150 Y15.368 F400.000
G1 X13.173 Y15.383 F400.000
G1 X13.191 Y15.422 F400.000
G1 X13.197 Y15.486 F400.000
G1 X13.197 Y15.486 F400.000
G1 X13.098 Y15.936 F400.000
G1 X12.974 Y16.274 F400.000
G1 X12.788 Y16.644 F400.000
G1 X12.439 Y17.126 F400.000
G1 X12.188 Y17.381 F400.000
G1 X11.962 Y17.574 F400.000
G1 X11.640 Y17.792 F400.000
G1 X11.148 Y18.024 F400.000
G1 X10.745 Y18.150 F400.000
G1 X10.325 Y18.220 F400.000
G1 X10.054 Y18.236 F400.000
G1 X9.844 Y18.233 F400.000
G1 X9.724 Y18.223 F400.000
G1 X9.724 Y18.223 F400.000
G1 X9.660 Y18.205 F400.000
G1 X9.623 Y18.176 F400.000
G0 X9.612 Y18.165
G0 X7.368 Y13.345
G1 X7.355 Y13.317 F400.000
G1 X7.325 Y13.242 F400.000
G1 X7.325 Y13.182 F400.000
G1 X7.347 Y13.124 F400.000
G1 X7.347 Y13.124 F400.000
G1 X7.523 Y12.893 F400.000
G1 X7.705 Y12.698 F400.000
G1 X7.852 Y12.561 F400.000
G1 X7.989 Y12.445 F400.000
G1 X8.131 Y12.341 F400.000
G1 X8.304 Y12.227 F400.000
G1 X8.433 Y12.154 F400.000
G1 X8.638 Y12.049 F400.000
G1 X8.795 Y11.981 F400.000
G1 X8.964 Y11.921 F400.000
G1 X9.176 Y11.857 F400.000
G1 X9.321 Y11.822 F400.000
G1 X9.548 Y11.780 F400.000
G1 X9.720 Y11.760 F400.000
G1 X10.009 Y11.749 F400.000
G1 X10.208 Y11.756 F400.000
G1 X10.445 Y11.780 F400.000
G1 X10.662 Y11.816 F400.000
G1 X10.803 Y11.848 F400.000
G1 X10.985 Y11.904 F400.000
G1 X11.171 Y11.970 F400.000
G1 X11.373 Y12.054 F400.000
G1 X11.525 Y12.128 F400.000
G1 X11.662 Y12.205 F400.000
G1 X11.848 Y12.325 F400.000
G1 X11.991 Y12.432 F400.000
G1 X12.221 Y12.629 F400.000
G1 X12.417 Y12.827 F400.000
G1 X12.503 Y12.927 F400.000
G1 X12.621 Y13.083 F400.000
G1 X12.737 Y13.250 F400.000
G1 X12.839 Y13.418 F400.000
G1 X12.964 Y13.666 F400.000
G1 X13.068 Y13.929 F400.000
G1 X13.116 Y14.081 F400.000
G1 X13.165 Y14.276 F400.000
G1 X13.221 Y14.578 F400.000
G1 X13.244 Y14.857 F400.000
G1 X13.248 Y15.006 F400.000
G1 X13.240 Y15.233 F400.000
G1 X13.221 Y15.413 F400.000
G1 X13.205 Y15.527 F400.000
G1 X13.163 Y15.730 F400.000
G1 X13.096 Y15.983 F400.000
G1 X13.053 Y16.113 F400.000
G1 X12.974 Y16.306 F400.000
G1 X12.891 Y16.480 F400.000
G1 X12.797 Y16.653 F400.000
G1 X12.645 Y16.884 F400.000
G1 X12.503 Y17.069 F400.000
G1 X12.400 Y17.189 F400.000
G1 X12.220 Y17.370 F400.000
G1 X12.083 Y17.493 F400.000
G1 X11.940 Y17.608 F400.000
G1 X11.790 Y17.713 F400.000
G1 X11.619 Y17.818 F400.000
G1 X11.450 Y17.908 F400.000
G1 X11.319 Y17.968 F400.000
G1 X11.107 Y18.053 F400.000
G1 X10.957 Y18.103 F400.000
G1 X10.711 Y18.171 F400.000
G1 X10.583 Y18.197 F400.000
G1 X10.381 Y18.227 F400.000
G1 X10.221 Y18.240 F400.000
G1 X10.013 Y18.248 F400.000
G1 X9.807 Y18.244 F400.000
G1 X9.660 Y18.231 F400.000
G1 X9.441 Y18.201 F400.000
G1 X9.265 Y18.163 F400.000
G1 X9.113 Y18.124 F400.000
G1 X8.916 Y18.060 F400.000
G1 X8.719 Y17.985 F400.000
G1 X8.583 Y17.923 F400.000
G1 X8.407 Y17.831 F400.000
G1 X8.227 Y17.722 F400.000
G1 X8.066 Y17.610 F400.000
G1 X7.955 Y17.525 F400.000
G1 X7.771 Y17.364 F400.000
G1 X7.672 Y17.266 F400.000
G1 X7.512 Y17.092 F400.000
G1 X7.426 Y16.985 F400.000
G1 X7.323 Y16.841 F400.000
G1 X7.193 Y16.638 F400.000
G1 X7.116 Y16.499 F400.000
G1 X7.047 Y16.353 F400.000
G1 X6.953 Y16.133 F400.000
G1 X6.850 Y15.809 F400.000
G1 X6.805 Y15.600 F400.000
G1 X6.784 Y15.465 F400.000
G1 X6.760 Y15.248 F400.000
G1 X6.750 Y15.053 F400.000
G1 X6.752 Y14.856 F400.000
G1 X6.764 Y14.674 F400.000
G1 X6.784 Y14.512 F400.000
G1 X6.822 Y14.315 F400.000
G1 X6.869 Y14.122 F400.000
G1 X6.906 Y13.998 F400.000
G1 X6.979 Y13.799 F400.000
G1 X7.068 Y13.598 F400.000
G1 X7.171 Y13.400 F400.000
G1 X7.233 Y13.293 F400.000
G1 X7.347 Y13.124 F400.000
G1 X7.347 Y13.124 F400.000
G0 Z6.000
G0 Z6.000
(Finish operation: Adaptive)
(Block-name: Adaptive001)
(Block-expand: 0)
(Block-enable: 1)
(Begin operation: Adaptive001)
(Path: Adaptive001)
(Adaptive001)
(Helix to depth: -6.500000)
G0 Z6.000
G0 X-0.981 Y-10.525 Z6.000
G0 X-0.981 Y-10.525 Z4.000
G1 X-0.981 Y-10.525 Z1.000 F400.000
G1 X-0.981 Y-10.525 Z1.000 F400.000
G1 X-0.860 Y-10.706 Z0.981 F400.000
G1 X-0.705 Y-10.860 Z0.961 F400.000
G1 X-0.523 Y-10.981 Z0.942 F400.000
G1 X-0.321 Y-11.065 Z0.923 F400.000
G1 X-0.107 Y-11.107 Z0.903 F400.000
G1 X0.111 Y-11.106 Z0.884 F400.000
G1 X0.325 Y-11.063 Z0.865 F400.000
G1 X0.527 Y-10.979 Z0.846 F400.000
G1 X0.708 Y-10.858 Z0.826 F400.000
G1 X0.862 Y-10.703 Z0.807 F400.000
G1 X0.983 Y-10.521 Z0.788 F400.000
G1 X1.066 Y-10.319 Z0.768 F400.000
G1 X1.109 Y-10.105 Z0.749 F400.000
G1 X1.108 Y-9.887 Z0.730 F400.000
G1 X1.065 Y-9.673 Z0.710 F400.000
G1 X0.981 Y-9.471 Z0.691 F400.000
G1 X0.860 Y-9.290 Z0.672 F400.000
G1 X0.705 Y-9.136 Z0.653 F400.000
G1 X0.523 Y-9.015 Z0.633 F400.000
G1 X0.321 Y-8.932 Z0.614 F400.000
G1 X0.107 Y-8.889 Z0.595 F400.000
G1 X-0.111 Y-8.890 Z0.575 F400.000
G1 X-0.325 Y-8.933 Z0.556 F400.000
G1 X-0.527 Y-9.017 Z0.537 F400.000
G1 X-0.708 Y-9.138 Z0.517 F400.000
