(Exported by FreeCAD)
(Post Processor: script_module)
(Output Time:2024-12-08 19:52:17.730223)
(Begin preamble)
G17 G90
G21
(Block-name: Fixture)
(Block-expand: 0)
(Block-enable: 1)
(Begin operation: Fixture)
(Path: Fixture)
G54
(Finish operation: Fixture)
(Block-name: 3mm Endmill001)
(Block-expand: 0)
(Block-enable: 1)
(Begin operation: 3mm Endmill001)
(Path: 3mm Endmill001)
(3mm Endmill001)
(Begin toolchange)
( M6 T2 )
M3 S10000
(Finish operation: 3mm Endmill001)
(Block-name: MillFace)
(Block-expand: 0)
(Block-enable: 1)
(Begin operation: MillFace)
(Path: MillFace)
(MillFace)
G0 Z7.000
G0 X-10.000 Y23.882
G0 Z5.000
G1 X-10.000 Y23.882 Z-0.000 F400.000
G1 X-9.882 Y24.000 Z-0.000 F400.000
G1 X-10.000 Y24.000 Z-0.000 F400.000
G1 X-10.000 Y23.882 Z-0.000 F400.000
G1 X-10.000 Y22.822 Z-0.000 F400.000
G1 X-8.822 Y24.000 Z-0.000 F400.000
G1 X-7.761 Y24.000 Z-0.000 F400.000
G1 X-10.000 Y21.761 Z-0.000 F400.000
G1 X-10.000 Y20.700 Z-0.000 F400.000
G1 X-6.700 Y24.000 Z-0.000 F400.000
G1 X-5.640 Y24.000 Z-0.000 F400.000
G1 X-10.000 Y19.640 Z-0.000 F400.000
G1 X-10.000 Y18.579 Z-0.000 F400.000
G1 X-4.579 Y24.000 Z-0.000 F400.000
G1 X-3.518 Y24.000 Z-0.000 F400.000
G1 X-10.000 Y17.518 Z-0.000 F400.000
G1 X-10.000 Y16.458 Z-0.000 F400.000
G1 X-2.458 Y24.000 Z-0.000 F400.000
G1 X-1.397 Y24.000 Z-0.000 F400.000
G1 X-10.000 Y15.397 Z-0.000 F400.000
G1 X-10.000 Y14.336 Z-0.000 F400.000
G1 X-0.336 Y24.000 Z-0.000 F400.000
G1 X0.724 Y24.000 Z-0.000 F400.000
G1 X-10.000 Y13.276 Z-0.000 F400.000
G1 X-10.000 Y12.215 Z-0.000 F400.000
G1 X1.785 Y24.000 Z-0.000 F400.000
G1 X2.846 Y24.000 Z-0.000 F400.000
G1 X-10.000 Y11.154 Z-0.000 F400.000
G1 X-10.000 Y10.094 Z-0.000 F400.000
G1 X3.906 Y24.000 Z-0.000 F400.000
G1 X4.967 Y24.000 Z-0.000 F400.000
G1 X-10.000 Y9.033 Z-0.000 F400.000
G1 X-10.000 Y7.972 Z-0.000 F400.000
G1 X6.028 Y24.000 Z-0.000 F400.000
G1 X7.088 Y24.000 Z-0.000 F400.000
G1 X-10.000 Y6.912 Z-0.000 F400.000
G1 X-10.000 Y5.851 Z-0.000 F400.000
G1 X8.149 Y24.000 Z-0.000 F400.000
G1 X9.210 Y24.000 Z-0.000 F400.000
G1 X-10.000 Y4.790 Z-0.000 F400.000
G1 X-10.000 Y3.730 Z-0.000 F400.000
G1 X10.000 Y23.730 Z-0.000 F400.000
G1 X10.000 Y22.669 Z-0.000 F400.000
G1 X-10.000 Y2.669 Z-0.000 F400.000
G1 X-10.000 Y1.608 Z-0.000 F400.000
G1 X10.000 Y21.608 Z-0.000 F400.000
G1 X10.000 Y20.548 Z-0.000 F400.000
G1 X-10.000 Y0.548 Z-0.000 F400.000
G1 X-10.000 Y-0.513 Z-0.000 F400.000
G1 X10.000 Y19.487 Z-0.000 F400.000
G1 X10.000 Y18.426 Z-0.000 F400.000
G1 X-10.000 Y-1.574 Z-0.000 F400.000
G1 X-10.000 Y-2.634 Z-0.000 F400.000
G1 X10.000 Y17.366 Z-0.000 F400.000
G1 X10.000 Y16.305 Z-0.000 F400.000
G1 X-10.000 Y-3.695 Z-0.000 F400.000
G1 X-10.000 Y-4.756 Z-0.000 F400.000
G1 X10.000 Y15.244 Z-0.000 F400.000
G1 X10.000 Y14.184 Z-0.000 F400.000
G1 X-10.000 Y-5.816 Z-0.000 F400.000
G1 X-10.000 Y-6.877 Z-0.000 F400.000
G1 X10.000 Y13.123 Z-0.000 F400.000
G1 X10.000 Y12.062 Z-0.000 F400.000
G1 X-10.000 Y-7.938 Z-0.000 F400.000
G1 X-10.000 Y-8.998 Z-0.000 F400.000
G1 X10.000 Y11.002 Z-0.000 F400.000
G1 X10.000 Y9.941 Z-0.000 F400.000
G1 X-10.000 Y-10.059 Z-0.000 F400.000
G1 X-10.000 Y-11.120 Z-0.000 F400.000
G1 X10.000 Y8.880 Z-0.000 F400.000
G1 X10.000 Y7.820 Z-0.000 F400.000
G1 X-10.000 Y-12.180 Z-0.000 F400.000
G1 X-10.000 Y-13.241 Z-0.000 F400.000
G1 X10.000 Y6.759 Z-0.000 F400.000
G1 X10.000 Y5.698 Z-0.000 F400.000
G1 X-10.000 Y-14.302 Z-0.000 F400.000
G1 X-10.000 Y-15.362 Z-0.000 F400.000
G1 X10.000 Y4.638 Z-0.000 F400.000
G1 X10.000 Y3.577 Z-0.000 F400.000
G1 X-10.000 Y-16.423 Z-0.000 F400.000
G1 X-10.000 Y-17.483 Z-0.000 F400.000
G1 X10.000 Y2.517 Z-0.000 F400.000
G1 X10.000 Y1.456 Z-0.000 F400.000
G1 X-10.000 Y-18.544 Z-0.000 F400.000
G1 X-10.000 Y-19.605 Z-0.000 F400.000
G1 X10.000 Y0.395 Z-0.000 F400.000
G1 X10.000 Y-0.665 Z-0.000 F400.000
G1 X-10.000 Y-20.665 Z-0.000 F400.000
G1 X-10.000 Y-21.726 Z-0.000 F400.000
G1 X10.000 Y-1.726 Z-0.000 F400.000
G1 X10.000 Y-2.787 Z-0.000 F400.000
G1 X-10.000 Y-22.787 Z-0.000 F400.000
G1 X-10.000 Y-23.847 Z-0.000 F400.000
G1 X10.000 Y-3.847 Z-0.000 F400.000
G1 X10.000 Y-4.908 Z-0.000 F400.000
G1 X-9.092 Y-24.000 Z-0.000 F400.000
G1 X-8.031 Y-24.000 Z-0.000 F400.000
G1 X10.000 Y-5.969 Z-0.000 F400.000
G1 X10.000 Y-7.029 Z-0.000 F400.000
G1 X-6.971 Y-24.000 Z-0.000 F400.000
G1 X-5.910 Y-24.000 Z-0.000 F400.000
G1 X10.000 Y-8.090 Z-0.000 F400.000
G1 X10.000 Y-9.151 Z-0.000 F400.000
G1 X-4.849 Y-24.000 Z-0.000 F400.000
G1 X-3.789 Y-24.000 Z-0.000 F400.000
G1 X10.000 Y-10.211 Z-0.000 F400.000
G1 X10.000 Y-11.272 Z-0.000 F400.000
G1 X-2.728 Y-24.000 Z-0.000 F400.000
G1 X-1.667 Y-24.000 Z-0.000 F400.000
G1 X10.000 Y-12.333 Z-0.000 F400.000
G1 X10.000 Y-13.393 Z-0.000 F400.000
G1 X-0.607 Y-24.000 Z-0.000 F400.000
G1 X0.454 Y-24.000 Z-0.000 F400.000
G1 X10.000 Y-14.454 Z-0.000 F400.000
G1 X10.000 Y-15.515 Z-0.000 F400.000
G1 X1.515 Y-24.000 Z-0.000 F400.000
G1 X2.575 Y-24.000 Z-0.000 F400.000
G1 X10.000 Y-16.575 Z-0.000 F400.000
G1 X10.000 Y-17.636 Z-0.000 F400.000
G1 X3.636 Y-24.000 Z-0.000 F400.000
G1 X4.697 Y-24.000 Z-0.000 F400.000
G1 X10.000 Y-18.697 Z-0.000 F400.000
G1 X10.000 Y-19.757 Z-0.000 F400.000
G1 X5.757 Y-24.000 Z-0.000 F400.000
G1 X6.818 Y-24.000 Z-0.000 F400.000
G1 X10.000 Y-20.818 Z-0.000 F400.000
G1 X10.000 Y-21.879 Z-0.000 F400.000
G1 X7.879 Y-24.000 Z-0.000 F400.000
G1 X8.939 Y-24.000 Z-0.000 F400.000
G1 X10.000 Y-22.939 Z-0.000 F400.000
G1 X10.000 Y-24.000 Z-0.000 F400.000
G0 Z7.000
G0 Z7.000
(Finish operation: MillFace)
(Block-name: Adaptive)
(Block-expand: 0)
(Block-enable: 1)
(Begin operation: Adaptive)
(Path: Adaptive)
(Adaptive)
(Helix to depth: -4.000000)
G0 Z7.000
G0 X2.976 Y10.061 Z7.000
G0 X2.976 Y10.061 Z5.000
G1 X2.976 Y10.061 Z2.000 F400.000
G1 X2.976 Y10.061 Z2.000 F400.000
G1 X2.857 Y10.143 Z1.987 F400.000
G1 X2.724 Y10.201 Z1.974 F400.000
G1 X2.583 Y10.231 Z1.961 F400.000
G1 X2.438 Y10.233 Z1.949 F400.000
G1 X2.295 Y10.207 Z1.936 F400.000
G1 X2.161 Y10.154 Z1.923 F400.000
G1 X2.039 Y10.075 Z1.910 F400.000
G1 X1.935 Y9.974 Z1.897 F400.000
G1 X1.853 Y9.855 Z1.884 F400.000
G1 X1.796 Y9.722 Z1.871 F400.000
G1 X1.765 Y9.581 Z1.859 F400.000
G1 X1.763 Y9.436 Z1.846 F400.000
G1 X1.789 Y9.294 Z1.833 F400.000
G1 X1.842 Y9.159 Z1.820 F400.000
G1 X1.921 Y9.037 Z1.807 F400.000
G1 X2.022 Y8.933 Z1.794 F400.000
G1 X2.141 Y8.851 Z1.781 F400.000
G1 X2.274 Y8.794 Z1.769 F400.000
G1 X2.415 Y8.763 Z1.756 F400.000
G1 X2.560 Y8.761 Z1.743 F400.000
G1 X2.703 Y8.787 Z1.730 F400.000
G1 X2.837 Y8.841 Z1.717 F400.000
G1 X2.959 Y8.919 Z1.704 F400.000
G1 X3.063 Y9.020 Z1.691 F400.000
G1 X3.145 Y9.139 Z1.679 F400.000
G1 X3.203 Y9.272 Z1.666 F400.000
G1 X3.233 Y9.414 Z1.653 F400.000
G1 X3.235 Y9.558 Z1.640 F400.000
G1 X3.209 Y9.701 Z1.627 F400.000
G1 X3.156 Y9.835 Z1.614 F400.000
G1 X3.077 Y9.957 Z1.601 F400.000
G1 X2.976 Y10.061 Z1.588 F400.000
G1 X2.857 Y10.143 Z1.576 F400.000
G1 X2.724 Y10.201 Z1.563 F400.000
G1 X2.583 Y10.231 Z1.550 F400.000
G1 X2.438 Y10.233 Z1.537 F400.000
G1 X2.295 Y10.207 Z1.524 F400.000
G1 X2.161 Y10.154 Z1.511 F400.000
G1 X2.039 Y10.075 Z1.498 F400.000
G1 X1.935 Y9.974 Z1.486 F400.000
G1 X1.853 Y9.855 Z1.473 F400.000
G1 X1.796 Y9.722 Z1.460 F400.000
G1 X1.765 Y9.581 Z1.447 F400.000
G1 X1.763 Y9.436 Z1.434 F400.000
G1 X1.789 Y9.294 Z1.421 F400.000
G1 X1.842 Y9.159 Z1.408 F400.000
G1 X1.921 Y9.037 Z1.396 F400.000
G1 X2.022 Y8.933 Z1.383 F400.000
G1 X2.141 Y8.851 Z1.370 F400.000
G1 X2.274 Y8.794 Z1.357 F400.000
G1 X2.415 Y8.763 Z1.344 F400.000
G1 X2.560 Y8.761 Z1.331 F400.000
G1 X2.703 Y8.787 Z1.318 F400.000
G1 X2.837 Y8.841 Z1.306 F400.000
G1 X2.959 Y8.919 Z1.293 F400.000
G1 X3.063 Y9.020 Z1.280 F400.000
G1 X3.145 Y9.139 Z1.267 F400.000
G1 X3.203 Y9.272 Z1.254 F400.000
G1 X3.233 Y9.414 Z1.241 F400.000
G1 X3.235 Y9.558 Z1.228 F400.000
G1 X3.209 Y9.701 Z1.216 F400.000
G1 X3.156 Y9.835 Z1.203 F400.000
G1 X3.077 Y9.957 Z1.190 F400.000
G1 X2.976 Y10.061 Z1.177 F400.000
G1 X2.857 Y10.143 Z1.164 F400.000
G1 X2.724 Y10.201 Z1.151 F400.000
G1 X2.583 Y10.231 Z1.138 F400.000
G1 X2.438 Y10.233 Z1.126 F400.000
G1 X2.295 Y10.207 Z1.113 F400.000
G1 X2.161 Y10.154 Z1.100 F400.000
G1 X2.039 Y10.075 Z1.087 F400.000
G1 X1.935 Y9.974 Z1.074 F400.000
G1 X1.853 Y9.855 Z1.061 F400.000
G1 X1.796 Y9.722 Z1.048 F400.000
G1 X1.765 Y9.581 Z1.036 F400.000
G1 X1.763 Y9.436 Z1.023 F400.000
G1 X1.789 Y9.294 Z1.010 F400.000
G1 X1.842 Y9.159 Z0.997 F400.000
G1 X1.921 Y9.037 Z0.984 F400.000
G1 X2.022 Y8.933 Z0.971 F400.000
G1 X2.141 Y8.851 Z0.958 F400.000
G1 X2.274 Y8.794 Z0.946 F400.000
G1 X2.415 Y8.763 Z0.933 F400.000
G1 X2.560 Y8.761 Z0.920 F400.000
G1 X2.703 Y8.787 Z0.907 F400.000
G1 X2.837 Y8.841 Z0.894 F400.000
G1 X2.959 Y8.919 Z0.881 F400.000
G1 X3.063 Y9.020 Z0.868 F400.000
G1 X3.145 Y9.139 Z0.855 F400.000
G1 X3.203 Y9.272 Z0.843 F400.000
G1 X3.233 Y9.414 Z0.830 F400.000
G1 X3.235 Y9.558 Z0.817 F400.000
G1 X3.209 Y9.701 Z0.804 F400.000
G1 X3.156 Y9.835 Z0.791 F400.000
G1 X3.077 Y9.957 Z0.778 F400.000
G1 X2.976 Y10.061 Z0.765 F400.000
G1 X2.857 Y10.143 Z0.753 F400.000
G1 X2.724 Y10.201 Z0.740 F400.000
G1 X2.583 Y10.231 Z0.727 F400.000
G1 X2.438 Y10.233 Z0.714 F400.000
G1 X2.295 Y10.207 Z0.701 F400.000
G1 X2.161 Y10.154 Z0.688 F400.000
G1 X2.039 Y10.075 Z0.675 F400.000
G1 X1.935 Y9.974 Z0.663 F400.000
G1 X1.853 Y9.855 Z0.650 F400.000
G1 X1.796 Y9.722 Z0.637 F400.000
G1 X1.765 Y9.581 Z0.624 F400.000
G1 X1.763 Y9.436 Z0.611 F400.000
G1 X1.789 Y9.294 Z0.598 F400.000
G1 X1.842 Y9.159 Z0.585 F400.000
G1 X1.921 Y9.037 Z0.573 F400.000
G1 X2.022 Y8.933 Z0.560 F400.000
G1 X2.141 Y8.851 Z0.547 F400.000
G1 X2.274 Y8.794 Z0.534 F400.000
G1 X2.415 Y8.763 Z0.521 F400.000
G1 X2.560 Y8.761 Z0.508 F400.000
G1 X2.703 Y8.787 Z0.495 F400.000
G1 X2.837 Y8.841 Z0.483 F400.000
G1 X2.959 Y8.919 Z0.470 F400.000
G1 X3.063 Y9.020 Z0.457 F400.000
G1 X3.145 Y9.139 Z0.444 F400.000
G1 X3.203 Y9.272 Z0.431 F400.000
G1 X3.233 Y9.414 Z0.418 F400.000
G1 X3.235 Y9.558 Z0.405 F400.000
G1 X3.209 Y9.701 Z0.393 F400.000
G1 X3.156 Y9.835 Z0.380 F400.000
G1 X3.077 Y9.957 Z0.367 F400.000
G1 X2.976 Y10.061 Z0.354 F400.000
G1 X2.857 Y10.143 Z0.341 F400.000
G1 X2.724 Y10.201 Z0.328 F400.000
G1 X2.583 Y10.231 Z0.315 F400.000
G1 X2.438 Y10.233 Z0.303 F400.000
G1 X2.295 Y10.207 Z0.290 F400.000
G1 X2.161 Y10.154 Z0.277 F400.000
G1 X2.039 Y10.075 Z0.264 F400.000
G1 X1.935 Y9.974 Z0.251 F400.000
G1 X1.853 Y9.855 Z0.238 F400.000
G1 X1.796 Y9.722 Z0.225 F400.000
G1 X1.765 Y9.581 Z0.213 F400.000
G1 X1.763 Y9.436 Z0.200 F400.000
G1 X1.789 Y9.294 Z0.187 F400.000
G1 X1.842 Y9.159 Z0.174 F400.000
G1 X1.921 Y9.037 Z0.161 F400.000
G1 X2.022 Y8.933 Z0.148 F400.000
G1 X2.141 Y8.851 Z0.135 F400.000
G1 X2.274 Y8.794 Z0.122 F400.000
G1 X2.415 Y8.763 Z0.110 F400.000
G1 X2.560 Y8.761 Z0.097 F400.000
G1 X2.703 Y8.787 Z0.084 F400.000
G1 X2.837 Y8.841 Z0.071 F400.000
G1 X2.959 Y8.919 Z0.058 F400.000
G1 X3.063 Y9.020 Z0.045 F400.000
G1 X3.145 Y9.139 Z0.032 F400.000
G1 X3.203 Y9.272 Z0.020 F400.000
G1 X3.233 Y9.414 Z0.007 F400.000
G1 X3.235 Y9.558 Z-0.006 F400.000
G1 X3.209 Y9.701 Z-0.019 F400.000
G1 X3.156 Y9.835 Z-0.032 F400.000
G1 X3.077 Y9.957 Z-0.045 F400.000
G1 X2.976 Y10.061 Z-0.058 F400.000
G1 X2.857 Y10.143 Z-0.070 F400.000
G1 X2.724 Y10.201 Z-0.083 F400.000
G1 X2.583 Y10.231 Z-0.096 F400.000
G1 X2.438 Y10.233 Z-0.109 F400.000
G1 X2.295 Y10.207 Z-0.122 F400.000
G1 X2.161 Y10.154 Z-0.135 F400.000
G1 X2.039 Y10.075 Z-0.148 F400.000
G1 X1.935 Y9.974 Z-0.160 F400.000
G1 X1.853 Y9.855 Z-0.173 F400.000
G1 X1.796 Y9.722 Z-0.186 F400.000
G1 X1.765 Y9.581 Z-0.199 F400.000
G1 X1.763 Y9.436 Z-0.212 F400.000
G1 X1.789 Y9.294 Z-0.225 F400.000
G1 X1.842 Y9.159 Z-0.238 F400.000
G1 X1.921 Y9.037 Z-0.250 F400.000
G1 X2.022 Y8.933 Z-0.263 F400.000
G1 X2.141 Y8.851 Z-0.276 F400.000
G1 X2.274 Y8.794 Z-0.289 F400.000
G1 X2.415 Y8.763 Z-0.302 F400.000
G1 X2.560 Y8.761 Z-0.315 F400.000
G1 X2.703 Y8.787 Z-0.328 F400.000
G1 X2.837 Y8.841 Z-0.340 F400.000
G1 X2.959 Y8.919 Z-0.353 F400.000
G1 X3.063 Y9.020 Z-0.366 F400.000
G1 X3.145 Y9.139 Z-0.379 F400.000
G1 X3.203 Y9.272 Z-0.392 F400.000
G1 X3.233 Y9.414 Z-0.405 F400.000
G1 X3.235 Y9.558 Z-0.418 F400.000
G1 X3.209 Y9.701 Z-0.430 F400.000
G1 X3.156 Y9.835 Z-0.443 F400.000
G1 X3.077 Y9.957 Z-0.456 F400.000
G1 X2.976 Y10.061 Z-0.469 F400.000
G1 X2.857 Y10.143 Z-0.482 F400.000
G1 X2.724 Y10.201 Z-0.495 F400.000
G1 X2.583 Y10.231 Z-0.508 F400.000
G1 X2.438 Y10.233 Z-0.520 F400.000
G1 X2.295 Y10.207 Z-0.533 F400.000
G1 X2.161 Y10.154 Z-0.546 F400.000
G1 X2.039 Y10.075 Z-0.559 F400.000
G1 X1.935 Y9.974 Z-0.572 F400.000
G1 X1.853 Y9.855 Z-0.585 F400.000
G1 X1.796 Y9.722 Z-0.598 F400.000
G1 X1.765 Y9.581 Z-0.610 F400.000
G1 X1.763 Y9.436 Z-0.623 F400.000
G1 X1.789 Y9.294 Z-0.636 F400.000
G1 X1.842 Y9.159 Z-0.649 F400.000
G1 X1.921 Y9.037 Z-0.662 F400.000
G1 X2.022 Y8.933 Z-0.675 F400.000
G1 X2.141 Y8.851 Z-0.688 F400.000
G1 X2.274 Y8.794 Z-0.701 F400.000
G1 X2.415 Y8.763 Z-0.713 F400.000
G1 X2.560 Y8.761 Z-0.726 F400.000
G1 X2.703 Y8.787 Z-0.739 F400.000
G1 X2.837 Y8.841 Z-0.752 F400.000
G1 X2.959 Y8.919 Z-0.765 F400.000
G1 X3.063 Y9.020 Z-0.778 F400.000
G1 X3.145 Y9.139 Z-0.791 F400.000
G1 X3.203 Y9.272 Z-0.803 F400.000
G1 X3.233 Y9.414 Z-0.816 F400.000
G1 X3.235 Y9.558 Z-0.829 F400.000
G1 X3.209 Y9.701 Z-0.842 F400.000
G1 X3.156 Y9.835 Z-0.855 F400.000
G1 X3.077 Y9.957 Z-0.868 F400.000
G1 X2.976 Y10.061 Z-0.881 F400.000
G1 X2.857 Y10.143 Z-0.893 F400.000
G1 X2.724 Y10.201 Z-0.906 F400.000
G1 X2.583 Y10.231 Z-0.919 F400.000
G1 X2.438 Y10.233 Z-0.932 F400.000
G1 X2.295 Y10.207 Z-0.945 F400.000
G1 X2.161 Y10.154 Z-0.958 F400.000
G1 X2.039 Y10.075 Z-0.971 F400.000
G1 X1.935 Y9.974 Z-0.983 F400.000
G1 X1.853 Y9.855 Z-0.996 F400.000
G1 X1.796 Y9.722 Z-1.009 F400.000
G1 X1.765 Y9.581 Z-1.022 F400.000
G1 X1.763 Y9.436 Z-1.035 F400.000
G1 X1.789 Y9.294 Z-1.048 F400.000
G1 X1.842 Y9.159 Z-1.061 F400.000
G1 X1.921 Y9.037 Z-1.073 F400.000
G1 X2.022 Y8.933 Z-1.086 F400.000
G1 X2.141 Y8.851 Z-1.099 F400.000
G1 X2.274 Y8.794 Z-1.112 F400.000
G1 X2.415 Y8.763 Z-1.125 F400.000
G1 X2.560 Y8.761 Z-1.138 F400.000
G1 X2.703 Y8.787 Z-1.151 F400.000
G1 X2.837 Y8.841 Z-1.163 F400.000
G1 X2.959 Y8.919 Z-1.176 F400.000
G1 X3.063 Y9.020 Z-1.189 F400.000
G1 X3.145 Y9.139 Z-1.202 F400.000
G1 X3.203 Y9.272 Z-1.215 F400.000
G1 X3.233 Y9.414 Z-1.228 F400.000
G1 X3.235 Y9.558 Z-1.241 F400.000
G1 X3.209 Y9.701 Z-1.253 F400.000
G1 X3.156 Y9.835 Z-1.266 F400.000
G1 X3.077 Y9.957 Z-1.279 F400.000
G1 X2.976 Y10.061 Z-1.292 F400.000
G1 X2.857 Y10.143 Z-1.305 F400.000
G1 X2.724 Y10.201 Z-1.318 F400.000
G1 X2.583 Y10.231 Z-1.331 F400.000
G1 X2.438 Y10.233 Z-1.343 F400.000
G1 X2.295 Y10.207 Z-1.356 F400.000
G1 X2.161 Y10.154 Z-1.369 F400.000
G1 X2.039 Y10.075 Z-1.382 F400.000
G1 X1.935 Y9.974 Z-1.395 F400.000
G1 X1.853 Y9.855 Z-1.408 F400.000
G1 X1.796 Y9.722 Z-1.421 F400.000
G1 X1.765 Y9.581 Z-1.434 F400.000
G1 X1.763 Y9.436 Z-1.446 F400.000
G1 X1.789 Y9.294 Z-1.459 F400.000
G1 X1.842 Y9.159 Z-1.472 F400.000
G1 X1.921 Y9.037 Z-1.485 F400.000
G1 X2.022 Y8.933 Z-1.498 F400.000
G1 X2.141 Y8.851 Z-1.511 F400.000
G1 X2.274 Y8.794 Z-1.524 F400.000
G1 X2.415 Y8.763 Z-1.536 F400.000
G1 X2.560 Y8.761 Z-1.549 F400.000
G1 X2.703 Y8.787 Z-1.562 F400.000
G1 X2.837 Y8.841 Z-1.575 F400.000
G1 X2.959 Y8.919 Z-1.588 F400.000
G1 X3.063 Y9.020 Z-1.601 F400.000
G1 X3.145 Y9.139 Z-1.614 F400.000
G1 X3.203 Y9.272 Z-1.626 F400.000
G1 X3.233 Y9.414 Z-1.639 F400.000
G1 X3.235 Y9.558 Z-1.652 F400.000
G1 X3.209 Y9.701 Z-1.665 F400.000
G1 X3.156 Y9.835 Z-1.678 F400.000
G1 X3.077 Y9.957 Z-1.691 F400.000
G1 X2.976 Y10.061 Z-1.704 F400.000
G1 X2.857 Y10.143 Z-1.716 F400.000
G1 X2.724 Y10.201 Z-1.729 F400.000
G1 X2.583 Y10.231 Z-1.742 F400.000
G1 X2.438 Y10.233 Z-1.755 F400.000
G1 X2.295 Y10.207 Z-1.768 F400.000
G1 X2.161 Y10.154 Z-1.781 F400.000
G1 X2.039 Y10.075 Z-1.794 F400.000
G1 X1.935 Y9.974 Z-1.806 F400.000
G1 X1.853 Y9.855 Z-1.819 F400.000
G1 X1.796 Y9.722 Z-1.832 F400.000
G1 X1.765 Y9.581 Z-1.845 F400.000
G1 X1.763 Y9.436 Z-1.858 F400.000
G1 X1.789 Y9.294 Z-1.871 F400.000
G1 X1.842 Y9.159 Z-1.884 F400.000
G1 X1.921 Y9.037 Z-1.896 F400.000
G1 X2.022 Y8.933 Z-1.909 F400.000
G1 X2.141 Y8.851 Z-1.922 F400.000
G1 X2.274 Y8.794 Z-1.935 F400.000
G1 X2.415 Y8.763 Z-1.948 F400.000
G1 X2.560 Y8.761 Z-1.961 F400.000
G1 X2.703 Y8.787 Z-1.974 F400.000
G1 X2.837 Y8.841 Z-1.986 F400.000
G1 X2.959 Y8.919 Z-1.999 F400.000
G1 X3.063 Y9.020 Z-2.012 F400.000
G1 X3.145 Y9.139 Z-2.025 F400.000
G1 X3.203 Y9.272 Z-2.038 F400.000
G1 X3.233 Y9.414 Z-2.051 F400.000
G1 X3.235 Y9.558 Z-2.064 F400.000
G1 X3.209 Y9.701 Z-2.076 F400.000
G1 X3.156 Y9.835 Z-2.089 F400.000
G1 X3.077 Y9.957 Z-2.102 F400.000
G1 X2.976 Y10.061 Z-2.115 F400.000
G1 X2.857 Y10.143 Z-2.128 F400.000
G1 X2.724 Y10.201 Z-2.141 F400.000
G1 X2.583 Y10.231 Z-2.154 F400.000
G1 X2.438 Y10.233 Z-2.167 F400.000
G1 X2.295 Y10.207 Z-2.179 F400.000
G1 X2.161 Y10.154 Z-2.192 F400.000
G1 X2.039 Y10.075 Z-2.205 F400.000
G1 X1.935 Y9.974 Z-2.218 F400.000
G1 X1.853 Y9.855 Z-2.231 F400.000
G1 X1.796 Y9.722 Z-2.244 F400.000
G1 X1.765 Y9.581 Z-2.257 F400.000
G1 X1.763 Y9.436 Z-2.269 F400.000
G1 X1.789 Y9.294 Z-2.282 F400.000
G1 X1.842 Y9.159 Z-2.295 F400.000
G1 X1.921 Y9.037 Z-2.308 F400.000
G1 X2.022 Y8.933 Z-2.321 F400.000
G1 X2.141 Y8.851 Z-2.334 F400.000
G1 X2.274 Y8.794 Z-2.347 F400.000
G1 X2.415 Y8.763 Z-2.359 F400.000
G1 X2.560 Y8.761 Z-2.372 F400.000
G1 X2.703 Y8.787 Z-2.385 F400.000
G1 X2.837 Y8.841 Z-2.398 F400.000
G1 X2.959 Y8.919 Z-2.411 F400.000
G1 X3.063 Y9.020 Z-2.424 F400.000
G1 X3.145 Y9.139 Z-2.437 F400.000
G1 X3.203 Y9.272 Z-2.449 F400.000
G1 X3.233 Y9.414 Z-2.462 F400.000
G1 X3.235 Y9.558 Z-2.475 F400.000
G1 X3.209 Y9.701 Z-2.488 F400.000
G1 X3.156 Y9.835 Z-2.501 F400.000
G1 X3.077 Y9.957 Z-2.514 F400.000
G1 X2.976 Y10.061 Z-2.527 F400.000
G1 X2.857 Y10.143 Z-2.539 F400.000
G1 X2.724 Y10.201 Z-2.552 F400.000
G1 X2.583 Y10.231 Z-2.565 F400.000
G1 X2.438 Y10.233 Z-2.578 F400.000
G1 X2.295 Y10.207 Z-2.591 F400.000
G1 X2.161 Y10.154 Z-2.604 F400.000
G1 X2.039 Y10.075 Z-2.617 F400.000
G1 X1.935 Y9.974 Z-2.629 F400.000
G1 X1.853 Y9.855 Z-2.642 F400.000
G1 X1.796 Y9.722 Z-2.655 F400.000
G1 X1.765 Y9.581 Z-2.668 F400.000
G1 X1.763 Y9.436 Z-2.681 F400.000
G1 X1.789 Y9.294 Z-2.694 F400.000
G1 X1.842 Y9.159 Z-2.707 F400.000
G1 X1.921 Y9.037 Z-2.719 F400.000
G1 X2.022 Y8.933 Z-2.732 F400.000
G1 X2.141 Y8.851 Z-2.745 F400.000
G1 X2.274 Y8.794 Z-2.758 F400.000
G1 X2.415 Y8.763 Z-2.771 F400.000
G1 X2.560 Y8.761 Z-2.784 F400.000
G1 X2.703 Y8.787 Z-2.797 F400.000
G1 X2.837 Y8.841 Z-2.809 F400.000
G1 X2.959 Y8.919 Z-2.822 F400.000
G1 X3.063 Y9.020 Z-2.835 F400.000
G1 X3.145 Y9.139 Z-2.848 F400.000
G1 X3.203 Y9.272 Z-2.861 F400.000
G1 X3.233 Y9.414 Z-2.874 F400.000
G1 X3.235 Y9.558 Z-2.887 F400.000
G1 X3.209 Y9.701 Z-2.900 F400.000
G1 X3.156 Y9.835 Z-2.912 F400.000
G1 X3.077 Y9.957 Z-2.925 F400.000
G1 X2.976 Y10.061 Z-2.938 F400.000
G1 X2.857 Y10.143 Z-2.951 F400.000
G1 X2.724 Y10.201 Z-2.964 F400.000
G1 X2.583 Y10.231 Z-2.977 F400.000
G1 X2.438 Y10.233 Z-2.990 F400.000
G1 X2.295 Y10.207 Z-3.002 F400.000
G1 X2.161 Y10.154 Z-3.015 F400.000
G1 X2.039 Y10.075 Z-3.028 F400.000
G1 X1.935 Y9.974 Z-3.041 F400.000
G1 X1.853 Y9.855 Z-3.054 F400.000
G1 X1.796 Y9.722 Z-3.067 F400.000
G1 X1.765 Y9.581 Z-3.080 F400.000
G1 X1.763 Y9.436 Z-3.092 F400.000
G1 X1.789 Y9.294 Z-3.105 F400.000
G1 X1.842 Y9.159 Z-3.118 F400.000
G1 X1.921 Y9.037 Z-3.131 F400.000
G1 X2.022 Y8.933 Z-3.144 F400.000
G1 X2.141 Y8.851 Z-3.157 F400.000
G1 X2.274 Y8.794 Z-3.170 F400.000
G1 X2.415 Y8.763 Z-3.182 F400.000
G1 X2.560 Y8.761 Z-3.195 F400.000
G1 X2.703 Y8.787 Z-3.208 F400.000
G1 X2.837 Y8.841 Z-3.221 F400.000
G1 X2.959 Y8.919 Z-3.234 F400.000
G1 X3.063 Y9.020 Z-3.247 F400.000
G1 X3.145 Y9.139 Z-3.260 F400.000
G1 X3.203 Y9.272 Z-3.272 F400.000
G1 X3.233 Y9.414 Z-3.285 F400.000
G1 X3.235 Y9.558 Z-3.298 F400.000
G1 X3.209 Y9.701 Z-3.311 F400.000
G1 X3.156 Y9.835 Z-3.324 F400.000
G1 X3.077 Y9.957 Z-3.337 F400.000
G1 X2.976 Y10.061 Z-3.350 F400.000
G1 X2.857 Y10.143 Z-3.362 F400.000
G1 X2.724 Y10.201 Z-3.375 F400.000
G1 X2.583 Y10.231 Z-3.388 F400.000
G1 X2.438 Y10.233 Z-3.401 F400.000
G1 X2.295 Y10.207 Z-3.414 F400.000
G1 X2.161 Y10.154 Z-3.427 F400.000
G1 X2.039 Y10.075 Z-3.440 F400.000
G1 X1.935 Y9.974 Z-3.452 F400.000
G1 X1.853 Y9.855 Z-3.465 F400.000
G1 X1.796 Y9.722 Z-3.478 F400.000
G1 X1.765 Y9.581 Z-3.491 F400.000
G1 X1.763 Y9.436 Z-3.504 F400.000
G1 X1.789 Y9.294 Z-3.517 F400.000
G1 X1.842 Y9.159 Z-3.530 F400.000
G1 X1.921 Y9.037 Z-3.542 F400.000
G1 X2.022 Y8.933 Z-3.555 F400.000
G1 X2.141 Y8.851 Z-3.568 F400.000
G1 X2.274 Y8.794 Z-3.581 F400.000
G1 X2.415 Y8.763 Z-3.594 F400.000
G1 X2.560 Y8.761 Z-3.607 F400.000
G1 X2.703 Y8.787 Z-3.620 F400.000
G1 X2.837 Y8.841 Z-3.633 F400.000
G1 X2.959 Y8.919 Z-3.645 F400.000
G1 X3.063 Y9.020 Z-3.658 F400.000
G1 X3.145 Y9.139 Z-3.671 F400.000
G1 X3.203 Y9.272 Z-3.684 F400.000
G1 X3.233 Y9.414 Z-3.697 F400.000
G1 X3.235 Y9.558 Z-3.710 F400.000
G1 X3.209 Y9.701 Z-3.723 F400.000
G1 X3.156 Y9.835 Z-3.735 F400.000
G1 X3.077 Y9.957 Z-3.748 F400.000
G1 X2.976 Y10.061 Z-3.761 F400.000
G1 X2.857 Y10.143 Z-3.774 F400.000
G1 X2.724 Y10.201 Z-3.787 F400.000
G1 X2.583 Y10.231 Z-3.800 F400.000
G1 X2.438 Y10.233 Z-3.813 F400.000
G1 X2.295 Y10.207 Z-3.825 F400.000
G1 X2.161 Y10.154 Z-3.838 F400.000
G1 X2.039 Y10.075 Z-3.851 F400.000
G1 X1.935 Y9.974 Z-3.864 F400.000
G1 X1.853 Y9.855 Z-3.877 F400.000
G1 X1.796 Y9.722 Z-3.890 F400.000
G1 X1.765 Y9.581 Z-3.903 F400.000
G1 X1.763 Y9.436 Z-3.915 F400.000
G1 X1.789 Y9.294 Z-3.928 F400.000
G1 X1.842 Y9.159 Z-3.941 F400.000
G1 X1.921 Y9.037 Z-3.954 F400.000
G1 X2.022 Y8.933 Z-3.967 F400.000
G1 X2.141 Y8.851 Z-3.980 F400.000
G1 X2.274 Y8.794 Z-3.993 F400.000
G1 X2.415 Y8.763 Z-4.000 F400.000
G1 X2.560 Y8.761 Z-4.000 F400.000
G1 X2.703 Y8.787 Z-4.000 F400.000
G1 X2.837 Y8.841 Z-4.000 F400.000
G1 X2.959 Y8.919 Z-4.000 F400.000
G1 X3.063 Y9.020 Z-4.000 F400.000
G1 X3.145 Y9.139 Z-4.000 F400.000
G1 X3.203 Y9.272 Z-4.000 F400.000
G1 X3.233 Y9.414 Z-4.000 F400.000
G1 X3.235 Y9.558 Z-4.000 F400.000
G1 X3.209 Y9.701 Z-4.000 F400.000
G1 X3.156 Y9.835 Z-4.000 F400.000
G1 X3.077 Y9.957 Z-4.000 F400.000
G1 X2.976 Y10.061 Z-4.000 F400.000
G1 X2.857 Y10.143 Z-4.000 F400.000
G1 X2.724 Y10.201 Z-4.000 F400.000
G1 X2.583 Y10.231 Z-4.000 F400.000
G1 X2.438 Y10.233 Z-4.000 F400.000
G1 X2.295 Y10.207 Z-4.000 F400.000
G1 X2.161 Y10.154 Z-4.000 F400.000
G1 X2.039 Y10.075 Z-4.000 F400.000
G1 X1.935 Y9.974 Z-4.000 F400.000
G1 X1.853 Y9.855 Z-4.000 F400.000
G1 X1.796 Y9.722 Z-4.000 F400.000
G1 X1.765 Y9.581 Z-4.000 F400.000
G1 X1.763 Y9.436 Z-4.000 F400.000
G1 X1.789 Y9.294 Z-4.000 F400.000
G1 X1.842 Y9.159 Z-4.000 F400.000
G1 X1.921 Y9.037 Z-4.000 F400.000
G1 X2.022 Y8.933 Z-4.000 F400.000
G1 X2.141 Y8.851 Z-4.000 F400.000
G1 X2.274 Y8.794 Z-4.000 F400.000
(Adaptive - depth: -4.000000)
G1 X2.499 Y8.749 F400.000
G1 X2.523 Y8.732 F400.000
G1 X2.608 Y8.713 F400.000
G1 X2.720 Y8.713 F400.000
G1 X2.833 Y8.735 F400.000
G1 X2.887 Y8.754 F400.000
G1 X3.086 Y8.886 F400.000
G1 X3.169 Y8.974 F400.000
G1 X3.214 Y9.036 F400.000
G1 X3.255 Y9.107 F400.000
G1 X3.300 Y9.210 F400.000
G1 X3.338 Y9.345 F400.000
G1 X3.351 Y9.460 F400.000
G1 X3.349 Y9.561 F400.000
G1 X3.334 Y9.666 F400.000
G1 X3.304 Y9.775 F400.000
G1 X3.257 Y9.884 F400.000
G1 X3.199 Y9.979 F400.000
G1 X3.128 Y10.069 F400.000
G1 X3.045 Y10.148 F400.000
G1 X2.953 Y10.216 F400.000
G1 X2.857 Y10.268 F400.000
G1 X2.752 Y10.310 F400.000
G1 X2.642 Y10.336 F400.000
G1 X2.531 Y10.347 F400.000
G1 X2.418 Y10.343 F400.000
G1 X2.308 Y10.325 F400.000
G1 X2.201 Y10.295 F400.000
G1 X2.092 Y10.246 F400.000
G1 X1.992 Y10.186 F400.000
G1 X1.904 Y10.111 F400.000
G1 X1.835 Y10.038 F400.000
G1 X1.767 Y9.944 F400.000
G1 X1.713 Y9.842 F400.000
G1 X1.672 Y9.734 F400.000
G1 X1.647 Y9.621 F400.000
G1 X1.638 Y9.518 F400.000
G1 X1.642 Y9.407 F400.000
G1 X1.660 Y9.293 F400.000
G1 X1.694 Y9.180 F400.000
G1 X1.743 Y9.077 F400.000
G1 X1.801 Y8.987 F400.000
G1 X1.874 Y8.901 F400.000
G1 X1.955 Y8.826 F400.000
G1 X2.053 Y8.756 F400.000
G1 X2.257 Y8.645 F400.000
G1 X2.426 Y8.591 F400.000
G1 X2.567 Y8.572 F400.000
G1 X2.707 Y8.580 F400.000
G1 X2.876 Y8.623 F400.000
G1 X3.086 Y8.737 F400.000
G1 X3.208 Y8.846 F400.000
G1 X3.263 Y8.908 F400.000
G1 X3.315 Y8.979 F400.000
G1 X3.373 Y9.084 F400.000
G1 X3.422 Y9.206 F400.000
G1 X3.452 Y9.330 F400.000
G1 X3.465 Y9.443 F400.000
G1 X3.463 Y9.555 F400.000
G1 X3.448 Y9.672 F400.000
G1 X3.417 Y9.788 F400.000
G1 X3.373 Y9.897 F400.000
G1 X3.313 Y10.009 F400.000
G1 X3.242 Y10.109 F400.000
G1 X3.159 Y10.199 F400.000
G1 X3.064 Y10.278 F400.000
G1 X2.968 Y10.340 F400.000
G1 X2.859 Y10.392 F400.000
G1 X2.745 Y10.430 F400.000
G1 X2.629 Y10.452 F400.000
G1 X2.516 Y10.460 F400.000
G1 X2.400 Y10.454 F400.000
G1 X2.274 Y10.433 F400.000
G1 X2.150 Y10.398 F400.000
G1 X2.036 Y10.345 F400.000
G1 X1.938 Y10.287 F400.000
G1 X1.842 Y10.212 F400.000
G1 X1.758 Y10.128 F400.000
G1 X1.685 Y10.034 F400.000
G1 X1.625 Y9.931 F400.000
G1 X1.576 Y9.822 F400.000
G1 X1.540 Y9.702 F400.000
G1 X1.520 Y9.582 F400.000
G1 X1.514 Y9.462 F400.000
G1 X1.523 Y9.340 F400.000
G1 X1.548 Y9.221 F400.000
G1 X1.589 Y9.107 F400.000
G1 X1.638 Y9.009 F400.000
G1 X1.700 Y8.910 F400.000
G1 X1.782 Y8.811 F400.000
G1 X1.874 Y8.720 F400.000
G1 X1.977 Y8.638 F400.000
G1 X2.096 Y8.565 F400.000
G1 X2.326 Y8.467 F400.000
G1 X2.495 Y8.435 F400.000
G1 X2.664 Y8.435 F400.000
G1 X2.720 Y8.443 F400.000
G1 X2.949 Y8.512 F400.000
G1 X3.124 Y8.608 F400.000
G1 X3.205 Y8.668 F400.000
G1 X3.274 Y8.730 F400.000
G1 X3.351 Y8.814 F400.000
G1 X3.433 Y8.932 F400.000
G1 X3.495 Y9.047 F400.000
G1 X3.540 Y9.167 F400.000
G1 X3.570 Y9.281 F400.000
G1 X3.587 Y9.407 F400.000
G1 X3.589 Y9.531 F400.000
G1 X3.576 Y9.655 F400.000
G1 X3.548 Y9.777 F400.000
G1 X3.507 Y9.895 F400.000
G1 X3.448 Y10.017 F400.000
G1 X3.379 Y10.126 F400.000
G1 X3.298 Y10.227 F400.000
G1 X3.205 Y10.319 F400.000
G1 X3.101 Y10.398 F400.000
G1 X2.996 Y10.460 F400.000
G1 X2.880 Y10.512 F400.000
G1 X2.760 Y10.550 F400.000
G1 X2.636 Y10.572 F400.000
G1 X2.510 Y10.580 F400.000
G1 X2.385 Y10.576 F400.000
G1 X2.248 Y10.553 F400.000
G1 X2.122 Y10.518 F400.000
G1 X2.000 Y10.465 F400.000
G1 X1.899 Y10.407 F400.000
G1 X1.797 Y10.334 F400.000
G1 X1.696 Y10.240 F400.000
G1 X1.614 Y10.146 F400.000
G1 X1.540 Y10.039 F400.000
G1 X1.480 Y9.923 F400.000
G1 X1.433 Y9.803 F400.000
G1 X1.403 Y9.675 F400.000
G1 X1.388 Y9.557 F400.000
G1 X1.386 Y9.433 F400.000
G1 X1.402 Y9.302 F400.000
G1 X1.430 Y9.180 F400.000
G1 X1.469 Y9.060 F400.000
G1 X1.529 Y8.934 F400.000
G1 X1.598 Y8.824 F400.000
G1 X1.679 Y8.720 F400.000
G1 X1.771 Y8.625 F400.000
G1 X1.884 Y8.531 F400.000
G1 X1.998 Y8.456 F400.000
G1 X2.120 Y8.392 F400.000
G1 X2.251 Y8.341 F400.000
G1 X2.386 Y8.310 F400.000
G1 X2.505 Y8.298 F400.000
G1 X2.615 Y8.298 F400.000
G1 X2.737 Y8.313 F400.000
G1 X2.863 Y8.341 F400.000
G1 X2.996 Y8.388 F400.000
G1 X3.122 Y8.448 F400.000
G1 X3.236 Y8.522 F400.000
G1 X3.332 Y8.598 F400.000
G1 X3.424 Y8.692 F400.000
G1 X3.505 Y8.794 F400.000
G1 X3.576 Y8.908 F400.000
G1 X3.634 Y9.028 F400.000
G1 X3.679 Y9.154 F400.000
G1 X3.709 Y9.285 F400.000
G1 X3.724 Y9.418 F400.000
G1 X3.724 Y9.552 F400.000
G1 X3.709 Y9.685 F400.000
G1 X3.679 Y9.816 F400.000
G1 X3.634 Y9.942 F400.000
G1 X3.580 Y10.054 F400.000
G1 X3.512 Y10.167 F400.000
G1 X3.422 Y10.283 F400.000
G1 X3.323 Y10.386 F400.000
G1 X3.214 Y10.477 F400.000
G1 X3.105 Y10.548 F400.000
G1 X2.983 Y10.610 F400.000
G1 X2.856 Y10.657 F400.000
G1 X2.724 Y10.690 F400.000
G1 X2.587 Y10.707 F400.000
G1 X2.463 Y10.709 F400.000
G1 X2.332 Y10.700 F400.000
G1 X2.191 Y10.672 F400.000
G1 X2.064 Y10.632 F400.000
G1 X1.938 Y10.578 F400.000
G1 X1.818 Y10.510 F400.000
G1 X1.700 Y10.426 F400.000
G1 X1.597 Y10.332 F400.000
G1 X1.510 Y10.235 F400.000
G1 X1.435 Y10.128 F400.000
G1 X1.371 Y10.009 F400.000
G1 X1.321 Y9.887 F400.000
G1 X1.285 Y9.760 F400.000
G1 X1.265 Y9.629 F400.000
G1 X1.255 Y9.497 F400.000
G1 X1.261 Y9.353 F400.000
G1 X1.281 Y9.210 F400.000
G1 X1.317 Y9.075 F400.000
G1 X1.364 Y8.949 F400.000
G1 X1.428 Y8.826 F400.000
G1 X1.501 Y8.709 F400.000
G1 X1.593 Y8.595 F400.000
G1 X1.692 Y8.495 F400.000
G1 X1.801 Y8.405 F400.000
G1 X1.927 Y8.321 F400.000
G1 X2.066 Y8.253 F400.000
G1 X2.182 Y8.208 F400.000
G1 X2.319 Y8.173 F400.000
G1 X2.456 Y8.154 F400.000
G1 X2.589 Y8.152 F400.000
G1 X2.709 Y8.161 F400.000
G1 X2.848 Y8.188 F400.000
G1 X2.985 Y8.229 F400.000
G1 X3.120 Y8.285 F400.000
G1 X3.246 Y8.353 F400.000
G1 X3.364 Y8.437 F400.000
G1 X3.462 Y8.522 F400.000
G1 X3.555 Y8.625 F400.000
G1 X3.638 Y8.735 F400.000
G1 X3.713 Y8.859 F400.000
G1 X3.771 Y8.987 F400.000
G1 X3.816 Y9.120 F400.000
G1 X3.846 Y9.259 F400.000
G1 X3.863 Y9.400 F400.000
G1 X3.865 Y9.540 F400.000
G1 X3.852 Y9.681 F400.000
G1 X3.824 Y9.820 F400.000
G1 X3.780 Y9.955 F400.000
G1 X3.724 Y10.084 F400.000
G1 X3.655 Y10.208 F400.000
G1 X3.572 Y10.325 F400.000
G1 X3.478 Y10.432 F400.000
G1 X3.373 Y10.527 F400.000
G1 X3.259 Y10.612 F400.000
G1 X3.135 Y10.685 F400.000
G1 X3.006 Y10.745 F400.000
G1 X2.871 Y10.792 F400.000
G1 X2.720 Y10.827 F400.000
G1 X2.574 Y10.846 F400.000
G1 X2.428 Y10.848 F400.000
G1 X2.298 Y10.837 F400.000
G1 X2.159 Y10.809 F400.000
G1 X2.024 Y10.769 F400.000
G1 X1.880 Y10.709 F400.000
G1 X1.752 Y10.640 F400.000
G1 X1.630 Y10.557 F400.000
G1 X1.518 Y10.460 F400.000
G1 X1.428 Y10.362 F400.000
G1 X1.353 Y10.261 F400.000
G1 X1.283 Y10.144 F400.000
G1 X1.221 Y10.013 F400.000
G1 X1.174 Y9.876 F400.000
G1 X1.143 Y9.737 F400.000
G1 X1.124 Y9.593 F400.000
G1 X1.118 Y9.450 F400.000
G1 X1.128 Y9.287 F400.000
G1 X1.152 Y9.131 F400.000
G1 X1.195 Y8.983 F400.000
G1 X1.244 Y8.861 F400.000
G1 X1.306 Y8.741 F400.000
G1 X1.385 Y8.615 F400.000
G1 X1.486 Y8.488 F400.000
G1 X1.589 Y8.381 F400.000
G1 X1.705 Y8.280 F400.000
G1 X1.835 Y8.193 F400.000
G1 X1.951 Y8.129 F400.000
G1 X2.086 Y8.073 F400.000
G1 X2.225 Y8.034 F400.000
G1 X2.362 Y8.009 F400.000
G1 X2.505 Y7.998 F400.000
G1 X2.645 Y8.000 F400.000
G1 X2.799 Y8.019 F400.000
G1 X3.105 Y8.103 F400.000
G1 X3.287 Y8.189 F400.000
G1 X3.497 Y8.340 F400.000
G1 X3.694 Y8.544 F400.000
G1 X3.818 Y8.735 F400.000
G1 X3.929 Y9.000 F400.000
G1 X3.957 Y9.113 F400.000
G1 X4.002 Y9.347 F400.000
G1 X4.009 Y9.585 F400.000
G1 X3.989 Y9.730 F400.000
G1 X3.953 Y9.889 F400.000
G1 X3.886 Y10.081 F400.000
G1 X3.812 Y10.225 F400.000
G1 X3.743 Y10.332 F400.000
G1 X3.664 Y10.435 F400.000
G1 X3.553 Y10.555 F400.000
G1 X3.433 Y10.660 F400.000
G1 X3.311 Y10.749 F400.000
G1 X3.174 Y10.829 F400.000
G1 X3.030 Y10.891 F400.000
G1 X2.902 Y10.932 F400.000
G1 X2.758 Y10.966 F400.000
G1 X2.604 Y10.987 F400.000
G1 X2.433 Y10.992 F400.000
G1 X2.278 Y10.979 F400.000
G1 X2.141 Y10.957 F400.000
G1 X1.991 Y10.916 F400.000
G1 X1.852 Y10.861 F400.000
G1 X1.720 Y10.795 F400.000
G1 X1.492 Y10.629 F400.000
G1 X1.319 Y10.445 F400.000
G1 X1.148 Y10.193 F400.000
G1 X1.083 Y10.015 F400.000
G1 X1.009 Y9.784 F400.000
G1 X0.994 Y9.634 F400.000
G1 X0.977 Y9.394 F400.000
G1 X1.006 Y9.184 F400.000
G1 X1.090 Y8.887 F400.000
G1 X1.201 Y8.640 F400.000
G1 X1.386 Y8.362 F400.000
G1 X1.570 Y8.167 F400.000
G1 X1.735 Y8.041 F400.000
G1 X1.917 Y7.942 F400.000
G1 X2.197 Y7.846 F400.000
G1 X2.450 Y7.809 F400.000
G1 X2.816 Y7.831 F400.000
G1 X3.148 Y7.925 F400.000
G1 X3.428 Y8.069 F400.000
G1 X3.632 Y8.229 F400.000
G1 X3.841 Y8.467 F400.000
G1 X3.987 Y8.717 F400.000
G1 X4.069 Y8.929 F400.000
G1 X4.137 Y9.210 F400.000
G1 X4.150 Y9.492 F400.000
G1 X4.111 Y9.801 F400.000
G1 X3.985 Y10.161 F400.000
G1 X3.816 Y10.439 F400.000
G1 X3.617 Y10.660 F400.000
G1 X3.403 Y10.829 F400.000
G1 X3.246 Y10.925 F400.000
G1 X2.932 Y11.047 F400.000
G1 X2.602 Y11.107 F400.000
G1 X2.272 Y11.105 F400.000
G1 X2.062 Y11.075 F400.000
G1 X1.795 Y10.989 F400.000
G1 X1.629 Y10.904 F400.000
G1 X1.400 Y10.737 F400.000
G1 X1.227 Y10.555 F400.000
G1 X1.047 Y10.265 F400.000
G1 X0.974 Y10.094 F400.000
G1 X0.874 Y9.704 F400.000
G1 X0.856 Y9.433 F400.000
G1 X0.874 Y9.193 F400.000
G1 X0.991 Y8.749 F400.000
G1 X1.150 Y8.422 F400.000
G1 X1.345 Y8.154 F400.000
G1 X1.559 Y7.947 F400.000
G1 X1.809 Y7.784 F400.000
G1 X1.942 Y7.722 F400.000
G1 X2.139 Y7.660 F400.000
G1 X2.364 Y7.617 F400.000
G1 X2.617 Y7.615 F400.000
G1 X2.871 Y7.651 F400.000
G1 X3.124 Y7.719 F400.000
G1 X3.460 Y7.876 F400.000
G1 X3.696 Y8.045 F400.000
G1 X3.861 Y8.206 F400.000
G1 X4.004 Y8.390 F400.000
G1 X4.129 Y8.615 F400.000
G1 X4.212 Y8.831 F400.000
G1 X4.291 Y9.225 F400.000
G1 X4.300 Y9.450 F400.000
G1 X4.280 Y9.675 F400.000
G1 X4.191 Y10.013 F400.000
G1 X4.071 Y10.281 F400.000
G1 X3.908 Y10.531 F400.000
G1 X3.664 Y10.790 F400.000
G1 X3.448 Y10.953 F400.000
G1 X3.206 Y11.081 F400.000
G1 X2.979 Y11.163 F400.000
G1 X2.589 Y11.236 F400.000
G1 X2.379 Y11.246 F400.000
G1 X2.139 Y11.229 F400.000
G1 X1.929 Y11.186 F400.000
G1 X1.638 Y11.073 F400.000
G1 X1.398 Y10.925 F400.000
G1 X1.214 Y10.756 F400.000
G1 X1.096 Y10.608 F400.000
G1 X0.949 Y10.366 F400.000
G1 X0.852 Y10.137 F400.000
G1 X0.752 Y9.747 F400.000
G1 X0.730 Y9.326 F400.000
G1 X0.779 Y8.966 F400.000
G1 X0.912 Y8.559 F400.000
G1 X1.041 Y8.317 F400.000
G1 X1.195 Y8.137 F400.000
G1 X1.355 Y8.000 F400.000
G1 X1.402 Y7.964 F400.000
G1 X1.402 Y7.964 F400.000
G1 X1.428 Y7.947 F400.000
G0 Z7.000
G0 X1.428 Y7.947
G0 X1.405 Y7.962
G1 Z-4.000 F400.000
G1 X1.405 Y7.962 F400.000
G1 X1.432 Y7.944 F400.000
G1 X1.432 Y7.944 F400.000
G1 X1.636 Y7.822 F400.000
G1 X1.636 Y7.822 F400.000
G1 X1.709 Y7.807 F400.000
G1 X1.737 Y7.809 F400.000
G0 X1.752 Y7.811
G0 X3.756 Y8.229
G1 X3.775 Y8.233 F400.000
G1 X3.901 Y8.266 F400.000
G1 X3.966 Y8.315 F400.000
G1 X3.966 Y8.315 F400.000
G1 X4.114 Y8.525 F400.000
G1 X4.233 Y8.758 F400.000
G1 X4.310 Y8.972 F400.000
G1 X4.371 Y9.253 F400.000
G1 X4.385 Y9.563 F400.000
G1 X4.368 Y9.760 F400.000
G1 X4.274 Y10.126 F400.000
G1 X4.090 Y10.490 F400.000
G1 X3.865 Y10.767 F400.000
G1 X3.621 Y10.983 F400.000
G1 X3.364 Y11.143 F400.000
G1 X2.994 Y11.289 F400.000
G1 X2.754 Y11.343 F400.000
G1 X2.484 Y11.371 F400.000
G1 X2.184 Y11.358 F400.000
G1 X1.884 Y11.281 F400.000
G1 X1.568 Y11.139 F400.000
G1 X1.437 Y11.058 F400.000
G1 X1.174 Y10.841 F400.000
G1 X1.008 Y10.651 F400.000
G1 X0.886 Y10.471 F400.000
G1 X0.715 Y10.107 F400.000
G1 X0.651 Y9.867 F400.000
G1 X0.617 Y9.627 F400.000
G1 X0.617 Y9.386 F400.000
G1 X0.655 Y9.116 F400.000
G1 X0.720 Y8.876 F400.000
G1 X0.831 Y8.623 F400.000
G1 X0.974 Y8.392 F400.000
G1 X0.974 Y8.392 F400.000
G1 X1.034 Y8.341 F400.000
G1 X1.060 Y8.332 F400.000
G0 X1.075 Y8.332
G0 X1.126 Y8.356
G0 X4.030 Y10.317
G1 X4.051 Y10.330 F400.000
G1 X4.105 Y10.371 F400.000
G1 X4.116 Y10.398 F400.000
G1 X4.116 Y10.443 F400.000
G1 X4.096 Y10.503 F400.000
G1 X4.096 Y10.503 F400.000
G1 X3.977 Y10.672 F400.000
G1 X3.792 Y10.872 F400.000
G1 X3.657 Y10.989 F400.000
G1 X3.430 Y11.139 F400.000
G1 X3.096 Y11.289 F400.000
G1 X2.827 Y11.355 F400.000
G1 X2.617 Y11.383 F400.000
G1 X2.437 Y11.385 F400.000
G1 X2.437 Y11.385 F400.000
G1 X2.373 Y11.368 F400.000
G1 X2.336 Y11.343 F400.000
G0 X2.328 Y11.330
G0 X2.315 Y11.274
G0 X2.071 Y7.799
G1 X2.069 Y7.773 F400.000
G1 X2.069 Y7.715 F400.000
G1 X2.081 Y7.687 F400.000
G1 X2.113 Y7.655 F400.000
G1 X2.171 Y7.630 F400.000
G1 X2.171 Y7.630 F400.000
G1 X2.341 Y7.604 F400.000
G1 X2.495 Y7.598 F400.000
G1 X2.644 Y7.604 F400.000
G1 X2.811 Y7.627 F400.000
G1 X2.904 Y7.645 F400.000
G1 X3.090 Y7.694 F400.000
G1 X3.293 Y7.777 F400.000
G1 X3.405 Y7.831 F400.000
G1 X3.531 Y7.902 F400.000
G1 X3.615 Y7.961 F400.000
G1 X3.677 Y8.009 F400.000
G1 X3.876 Y8.193 F400.000
G1 X4.009 Y8.349 F400.000
G1 X4.075 Y8.441 F400.000
G1 X4.128 Y8.523 F400.000
G1 X4.233 Y8.726 F400.000
G1 X4.306 Y8.910 F400.000
G1 X4.379 Y9.218 F400.000
G1 X4.394 Y9.341 F400.000
G1 X4.398 Y9.503 F400.000
G1 X4.394 Y9.644 F400.000
G1 X4.371 Y9.811 F400.000
G1 X4.355 Y9.897 F400.000
G1 X4.304 Y10.090 F400.000
G1 X4.221 Y10.293 F400.000
G1 X4.165 Y10.407 F400.000
G1 X4.096 Y10.531 F400.000
G1 X3.989 Y10.677 F400.000
G1 X3.805 Y10.876 F400.000
G1 X3.651 Y11.008 F400.000
G1 X3.567 Y11.069 F400.000
G1 X3.475 Y11.128 F400.000
G1 X3.317 Y11.212 F400.000
G1 X3.088 Y11.306 F400.000
G1 X2.827 Y11.368 F400.000
G1 X2.657 Y11.394 F400.000
G1 X2.443 Y11.398 F400.000
G1 X2.356 Y11.394 F400.000
G1 X2.188 Y11.371 F400.000
G1 X2.094 Y11.353 F400.000
G1 X1.908 Y11.304 F400.000
G1 X1.705 Y11.221 F400.000
G1 X1.591 Y11.165 F400.000
G1 X1.467 Y11.096 F400.000
G1 X1.323 Y10.991 F400.000
G1 X1.163 Y10.846 F400.000
G1 X1.098 Y10.779 F400.000
G1 X1.008 Y10.672 F400.000
G1 X0.927 Y10.561 F400.000
G1 X0.872 Y10.475 F400.000
G1 X0.788 Y10.317 F400.000
G1 X0.694 Y10.088 F400.000
G1 X0.675 Y10.023 F400.000
G1 X0.629 Y9.812 F400.000
G1 X0.604 Y9.623 F400.000
G1 X0.602 Y9.430 F400.000
G1 X0.606 Y9.356 F400.000
G1 X0.629 Y9.188 F400.000
G1 X0.647 Y9.094 F400.000
G1 X0.696 Y8.908 F400.000
G1 X0.780 Y8.700 F400.000
G1 X0.837 Y8.585 F400.000
G1 X0.899 Y8.480 F400.000
G1 X0.974 Y8.371 F400.000
G1 X1.043 Y8.283 F400.000
G1 X1.143 Y8.171 F400.000
G1 X1.210 Y8.105 F400.000
G1 X1.340 Y7.994 F400.000
G1 X1.523 Y7.871 F400.000
G1 X1.681 Y7.786 F400.000
G1 X1.910 Y7.692 F400.000
G1 X1.976 Y7.674 F400.000
G1 X2.171 Y7.630 F400.000
G1 X2.171 Y7.630 F400.000
G0 Z7.000
(Helix to depth: -4.000000)
G0 Z7.000
G0 X2.976 Y-8.935 Z7.000
G0 X2.976 Y-8.935 Z5.000
G1 X2.976 Y-8.935 Z2.000 F400.000
G1 X2.976 Y-8.935 Z2.000 F400.000
G1 X2.857 Y-8.853 Z1.987 F400.000
G1 X2.724 Y-8.796 Z1.974 F400.000
G1 X2.583 Y-8.765 Z1.961 F400.000
G1 X2.438 Y-8.763 Z1.949 F400.000
G1 X2.295 Y-8.789 Z1.936 F400.000
G1 X2.161 Y-8.842 Z1.923 F400.000
G1 X2.039 Y-8.921 Z1.910 F400.000
G1 X1.935 Y-9.022 Z1.897 F400.000
G1 X1.853 Y-9.141 Z1.884 F400.000
G1 X1.796 Y-9.274 Z1.871 F400.000
G1 X1.765 Y-9.415 Z1.859 F400.000
G1 X1.763 Y-9.560 Z1.846 F400.000
G1 X1.789 Y-9.703 Z1.833 F400.000
G1 X1.842 Y-9.837 Z1.820 F400.000
G1 X1.921 Y-9.959 Z1.807 F400.000
G1 X2.022 Y-10.063 Z1.794 F400.000
G1 X2.141 Y-10.145 Z1.781 F400.000
G1 X2.274 Y-10.203 Z1.769 F400.000
G1 X2.415 Y-10.233 Z1.756 F400.000
G1 X2.560 Y-10.235 Z1.743 F400.000
G1 X2.703 Y-10.209 Z1.730 F400.000
G1 X2.837 Y-10.156 Z1.717 F400.000
G1 X2.959 Y-10.077 Z1.704 F400.000
G1 X3.063 Y-9.976 Z1.691 F400.000
G1 X3.145 Y-9.857 Z1.679 F400.000
G1 X3.203 Y-9.724 Z1.666 F400.000
G1 X3.233 Y-9.583 Z1.653 F400.000
G1 X3.235 Y-9.438 Z1.640 F400.000
G1 X3.209 Y-9.295 Z1.627 F400.000
G1 X3.156 Y-9.161 Z1.614 F400.000
G1 X3.077 Y-9.039 Z1.601 F400.000
G1 X2.976 Y-8.935 Z1.588 F400.000
G1 X2.857 Y-8.853 Z1.576 F400.000
G1 X2.724 Y-8.796 Z1.563 F400.000
G1 X2.583 Y-8.765 Z1.550 F400.000
G1 X2.438 Y-8.763 Z1.537 F400.000
G1 X2.295 Y-8.789 Z1.524 F400.000
G1 X2.161 Y-8.842 Z1.511 F400.000
G1 X2.039 Y-8.921 Z1.498 F400.000
G1 X1.935 Y-9.022 Z1.486 F400.000
G1 X1.853 Y-9.141 Z1.473 F400.000
G1 X1.796 Y-9.274 Z1.460 F400.000
G1 X1.765 Y-9.415 Z1.447 F400.000
G1 X1.763 Y-9.560 Z1.434 F400.000
G1 X1.789 Y-9.703 Z1.421 F400.000
G1 X1.842 Y-9.837 Z1.408 F400.000
G1 X1.921 Y-9.959 Z1.396 F400.000
G1 X2.022 Y-10.063 Z1.383 F400.000
G1 X2.141 Y-10.145 Z1.370 F400.000
G1 X2.274 Y-10.203 Z1.357 F400.000
G1 X2.415 Y-10.233 Z1.344 F400.000
G1 X2.560 Y-10.235 Z1.331 F400.000
G1 X2.703 Y-10.209 Z1.318 F400.000
G1 X2.837 Y-10.156 Z1.306 F400.000
G1 X2.959 Y-10.077 Z1.293 F400.000
G1 X3.063 Y-9.976 Z1.280 F400.000
G1 X3.145 Y-9.857 Z1.267 F400.000
G1 X3.203 Y-9.724 Z1.254 F400.000
G1 X3.233 Y-9.583 Z1.241 F400.000
G1 X3.235 Y-9.438 Z1.228 F400.000
G1 X3.209 Y-9.295 Z1.216 F400.000
G1 X3.156 Y-9.161 Z1.203 F400.000
G1 X3.077 Y-9.039 Z1.190 F400.000
G1 X2.976 Y-8.935 Z1.177 F400.000
G1 X2.857 Y-8.853 Z1.164 F400.000
G1 X2.724 Y-8.796 Z1.151 F400.000
G1 X2.583 Y-8.765 Z1.138 F400.000
G1 X2.438 Y-8.763 Z1.126 F400.000
G1 X2.295 Y-8.789 Z1.113 F400.000
G1 X2.161 Y-8.842 Z1.100 F400.000
G1 X2.039 Y-8.921 Z1.087 F400.000
G1 X1.935 Y-9.022 Z1.074 F400.000
G1 X1.853 Y-9.141 Z1.061 F400.000
G1 X1.796 Y-9.274 Z1.048 F400.000
G1 X1.765 Y-9.415 Z1.036 F400.000
G1 X1.763 Y-9.560 Z1.023 F400.000
G1 X1.789 Y-9.703 Z1.010 F400.000
G1 X1.842 Y-9.837 Z0.997 F400.000
G1 X1.921 Y-9.959 Z0.984 F400.000
G1 X2.022 Y-10.063 Z0.971 F400.000
G1 X2.141 Y-10.145 Z0.958 F400.000
G1 X2.274 Y-10.203 Z0.946 F400.000
G1 X2.415 Y-10.233 Z0.933 F400.000
G1 X2.560 Y-10.235 Z0.920 F400.000
G1 X2.703 Y-10.209 Z0.907 F400.000
G1 X2.837 Y-10.156 Z0.894 F400.000
G1 X2.959 Y-10.077 Z0.881 F400.000
G1 X3.063 Y-9.976 Z0.868 F400.000
G1 X3.145 Y-9.857 Z0.855 F400.000
G1 X3.203 Y-9.724 Z0.843 F400.000
G1 X3.233 Y-9.583 Z0.830 F400.000
G1 X3.235 Y-9.438 Z0.817 F400.000
G1 X3.209 Y-9.295 Z0.804 F400.000
G1 X3.156 Y-9.161 Z0.791 F400.000
G1 X3.077 Y-9.039 Z0.778 F400.000
G1 X2.976 Y-8.935 Z0.765 F400.000
G1 X2.857 Y-8.853 Z0.753 F400.000
G1 X2.724 Y-8.796 Z0.740 F400.000
G1 X2.583 Y-8.765 Z0.727 F400.000
G1 X2.438 Y-8.763 Z0.714 F400.000
G1 X2.295 Y-8.789 Z0.701 F400.000
G1 X2.161 Y-8.842 Z0.688 F400.000
G1 X2.039 Y-8.921 Z0.675 F400.000
G1 X1.935 Y-9.022 Z0.663 F400.000
G1 X1.853 Y-9.141 Z0.650 F400.000
G1 X1.796 Y-9.274 Z0.637 F400.000
G1 X1.765 Y-9.415 Z0.624 F400.000
G1 X1.763 Y-9.560 Z0.611 F400.000
G1 X1.789 Y-9.703 Z0.598 F400.000
G1 X1.842 Y-9.837 Z0.585 F400.000
G1 X1.921 Y-9.959 Z0.573 F400.000
G1 X2.022 Y-10.063 Z0.560 F400.000
G1 X2.141 Y-10.145 Z0.547 F400.000
G1 X2.274 Y-10.203 Z0.534 F400.000
G1 X2.415 Y-10.233 Z0.521 F400.000
G1 X2.560 Y-10.235 Z0.508 F400.000
G1 X2.703 Y-10.209 Z0.495 F400.000
G1 X2.837 Y-10.156 Z0.483 F400.000
G1 X2.959 Y-10.077 Z0.470 F400.000
G1 X3.063 Y-9.976 Z0.457 F400.000
G1 X3.145 Y-9.857 Z0.444 F400.000
G1 X3.203 Y-9.724 Z0.431 F400.000
G1 X3.233 Y-9.583 Z0.418 F400.000
G1 X3.235 Y-9.438 Z0.405 F400.000
G1 X3.209 Y-9.295 Z0.393 F400.000
G1 X3.156 Y-9.161 Z0.380 F400.000
G1 X3.077 Y-9.039 Z0.367 F400.000
G1 X2.976 Y-8.935 Z0.354 F400.000
G1 X2.857 Y-8.853 Z0.341 F400.000
G1 X2.724 Y-8.796 Z0.328 F400.000
G1 X2.583 Y-8.765 Z0.315 F400.000
G1 X2.438 Y-8.763 Z0.303 F400.000
G1 X2.295 Y-8.789 Z0.290 F400.000
G1 X2.161 Y-8.842 Z0.277 F400.000
G1 X2.039 Y-8.921 Z0.264 F400.000
G1 X1.935 Y-9.022 Z0.251 F400.000
G1 X1.853 Y-9.141 Z0.238 F400.000
G1 X1.796 Y-9.274 Z0.225 F400.000
G1 X1.765 Y-9.415 Z0.213 F400.000
G1 X1.763 Y-9.560 Z0.200 F400.000
G1 X1.789 Y-9.703 Z0.187 F400.000
G1 X1.842 Y-9.837 Z0.174 F400.000
G1 X1.921 Y-9.959 Z0.161 F400.000
G1 X2.022 Y-10.063 Z0.148 F400.000
G1 X2.141 Y-10.145 Z0.135 F400.000
G1 X2.274 Y-10.203 Z0.122 F400.000
G1 X2.415 Y-10.233 Z0.110 F400.000
G1 X2.560 Y-10.235 Z0.097 F400.000
G1 X2.703 Y-10.209 Z0.084 F400.000
G1 X2.837 Y-10.156 Z0.071 F400.000
G1 X2.959 Y-10.077 Z0.058 F400.000
G1 X3.063 Y-9.976 Z0.045 F400.000
G1 X3.145 Y-9.857 Z0.032 F400.000
G1 X3.203 Y-9.724 Z0.020 F400.000
G1 X3.233 Y-9.583 Z0.007 F400.000
G1 X3.235 Y-9.438 Z-0.006 F400.000
G1 X3.209 Y-9.295 Z-0.019 F400.000
G1 X3.156 Y-9.161 Z-0.032 F400.000
G1 X3.077 Y-9.039 Z-0.045 F400.000
G1 X2.976 Y-8.935 Z-0.058 F400.000
G1 X2.857 Y-8.853 Z-0.070 F400.000
G1 X2.724 Y-8.796 Z-0.083 F400.000
G1 X2.583 Y-8.765 Z-0.096 F400.000
G1 X2.438 Y-8.763 Z-0.109 F400.000
G1 X2.295 Y-8.789 Z-0.122 F400.000
G1 X2.161 Y-8.842 Z-0.135 F400.000
G1 X2.039 Y-8.921 Z-0.148 F400.000
G1 X1.935 Y-9.022 Z-0.160 F400.000
G1 X1.853 Y-9.141 Z-0.173 F400.000
G1 X1.796 Y-9.274 Z-0.186 F400.000
G1 X1.765 Y-9.415 Z-0.199 F400.000
G1 X1.763 Y-9.560 Z-0.212 F400.000
G1 X1.789 Y-9.703 Z-0.225 F400.000
G1 X1.842 Y-9.837 Z-0.238 F400.000
G1 X1.921 Y-9.959 Z-0.250 F400.000
G1 X2.022 Y-10.063 Z-0.263 F400.000
G1 X2.141 Y-10.145 Z-0.276 F400.000
G1 X2.274 Y-10.203 Z-0.289 F400.000
G1 X2.415 Y-10.233 Z-0.302 F400.000
G1 X2.560 Y-10.235 Z-0.315 F400.000
G1 X2.703 Y-10.209 Z-0.328 F400.000
G1 X2.837 Y-10.156 Z-0.340 F400.000
G1 X2.959 Y-10.077 Z-0.353 F400.000
G1 X3.063 Y-9.976 Z-0.366 F400.000
G1 X3.145 Y-9.857 Z-0.379 F400.000
G1 X3.203 Y-9.724 Z-0.392 F400.000
G1 X3.233 Y-9.583 Z-0.405 F400.000
G1 X3.235 Y-9.438 Z-0.418 F400.000
G1 X3.209 Y-9.295 Z-0.430 F400.000
G1 X3.156 Y-9.161 Z-0.443 F400.000
G1 X3.077 Y-9.039 Z-0.456 F400.000
G1 X2.976 Y-8.935 Z-0.469 F400.000
G1 X2.857 Y-8.853 Z-0.482 F400.000
G1 X2.724 Y-8.796 Z-0.495 F400.000
G1 X2.583 Y-8.765 Z-0.508 F400.000
G1 X2.438 Y-8.763 Z-0.520 F400.000
G1 X2.295 Y-8.789 Z-0.533 F400.000
G1 X2.161 Y-8.842 Z-0.546 F400.000
G1 X2.039 Y-8.921 Z-0.559 F400.000
G1 X1.935 Y-9.022 Z-0.572 F400.000
G1 X1.853 Y-9.141 Z-0.585 F400.000
G1 X1.796 Y-9.274 Z-0.598 F400.000
G1 X1.765 Y-9.415 Z-0.610 F400.000
G1 X1.763 Y-9.560 Z-0.623 F400.000
G1 X1.789 Y-9.703 Z-0.636 F400.000
G1 X1.842 Y-9.837 Z-0.649 F400.000
G1 X1.921 Y-9.959 Z-0.662 F400.000
G1 X2.022 Y-10.063 Z-0.675 F400.000
G1 X2.141 Y-10.145 Z-0.688 F400.000
G1 X2.274 Y-10.203 Z-0.701 F400.000
G1 X2.415 Y-10.233 Z-0.713 F400.000
G1 X2.560 Y-10.235 Z-0.726 F400.000
G1 X2.703 Y-10.209 Z-0.739 F400.000
G1 X2.837 Y-10.156 Z-0.752 F400.000
G1 X2.959 Y-10.077 Z-0.765 F400.000
G1 X3.063 Y-9.976 Z-0.778 F400.000
G1 X3.145 Y-9.857 Z-0.791 F400.000
G1 X3.203 Y-9.724 Z-0.803 F400.000
G1 X3.233 Y-9.583 Z-0.816 F400.000
G1 X3.235 Y-9.438 Z-0.829 F400.000
G1 X3.209 Y-9.295 Z-0.842 F400.000
G1 X3.156 Y-9.161 Z-0.855 F400.000
G1 X3.077 Y-9.039 Z-0.868 F400.000
G1 X2.976 Y-8.935 Z-0.881 F400.000
G1 X2.857 Y-8.853 Z-0.893 F400.000
G1 X2.724 Y-8.796 Z-0.906 F400.000
G1 X2.583 Y-8.765 Z-0.919 F400.000
G1 X2.438 Y-8.763 Z-0.932 F400.000
G1 X2.295 Y-8.789 Z-0.945 F400.000
G1 X2.161 Y-8.842 Z-0.958 F400.000
G1 X2.039 Y-8.921 Z-0.971 F400.000
G1 X1.935 Y-9.022 Z-0.983 F400.000
G1 X1.853 Y-9.141 Z-0.996 F400.000
G1 X1.796 Y-9.274 Z-1.009 F400.000
G1 X1.765 Y-9.415 Z-1.022 F400.000
G1 X1.763 Y-9.560 Z-1.035 F400.000
G1 X1.789 Y-9.703 Z-1.048 F400.000
G1 X1.842 Y-9.837 Z-1.061 F400.000
G1 X1.921 Y-9.959 Z-1.073 F400.000
G1 X2.022 Y-10.063 Z-1.086 F400.000
G1 X2.141 Y-10.145 Z-1.099 F400.000
G1 X2.274 Y-10.203 Z-1.112 F400.000
G1 X2.415 Y-10.233 Z-1.125 F400.000
G1 X2.560 Y-10.235 Z-1.138 F400.000
G1 X2.703 Y-10.209 Z-1.151 F400.000
G1 X2.837 Y-10.156 Z-1.163 F400.000
G1 X2.959 Y-10.077 Z-1.176 F400.000
G1 X3.063 Y-9.976 Z-1.189 F400.000
G1 X3.145 Y-9.857 Z-1.202 F400.000
G1 X3.203 Y-9.724 Z-1.215 F400.000
G1 X3.233 Y-9.583 Z-1.228 F400.000
G1 X3.235 Y-9.438 Z-1.241 F400.000
G1 X3.209 Y-9.295 Z-1.253 F400.000
G1 X3.156 Y-9.161 Z-1.266 F400.000
G1 X3.077 Y-9.039 Z-1.279 F400.000
G1 X2.976 Y-8.935 Z-1.292 F400.000
G1 X2.857 Y-8.853 Z-1.305 F400.000
G1 X2.724 Y-8.796 Z-1.318 F400.000
G1 X2.583 Y-8.765 Z-1.331 F400.000
G1 X2.438 Y-8.763 Z-1.343 F400.000
G1 X2.295 Y-8.789 Z-1.356 F400.000
G1 X2.161 Y-8.842 Z-1.369 F400.000
G1 X2.039 Y-8.921 Z-1.382 F400.000
G1 X1.935 Y-9.022 Z-1.395 F400.000
G1 X1.853 Y-9.141 Z-1.408 F400.000
G1 X1.796 Y-9.274 Z-1.421 F400.000
G1 X1.765 Y-9.415 Z-1.434 F400.000
G1 X1.763 Y-9.560 Z-1.446 F400.000
G1 X1.789 Y-9.703 Z-1.459 F400.000
G1 X1.842 Y-9.837 Z-1.472 F400.000
G1 X1.921 Y-9.959 Z-1.485 F400.000
G1 X2.022 Y-10.063 Z-1.498 F400.000
G1 X2.141 Y-10.145 Z-1.511 F400.000
G1 X2.274 Y-10.203 Z-1.524 F400.000
G1 X2.415 Y-10.233 Z-1.536 F400.000
G1 X2.560 Y-10.235 Z-1.549 F400.000
G1 X2.703 Y-10.209 Z-1.562 F400.000
G1 X2.837 Y-10.156 Z-1.575 F400.000
G1 X2.959 Y-10.077 Z-1.588 F400.000
G1 X3.063 Y-9.976 Z-1.601 F400.000
G1 X3.145 Y-9.857 Z-1.614 F400.000
G1 X3.203 Y-9.724 Z-1.626 F400.000
G1 X3.233 Y-9.583 Z-1.639 F400.000
G1 X3.235 Y-9.438 Z-1.652 F400.000
G1 X3.209 Y-9.295 Z-1.665 F400.000
G1 X3.156 Y-9.161 Z-1.678 F400.000
G1 X3.077 Y-9.039 Z-1.691 F400.000
G1 X2.976 Y-8.935 Z-1.704 F400.000
G1 X2.857 Y-8.853 Z-1.716 F400.000
G1 X2.724 Y-8.796 Z-1.729 F400.000
G1 X2.583 Y-8.765 Z-1.742 F400.000
G1 X2.438 Y-8.763 Z-1.755 F400.000
G1 X2.295 Y-8.789 Z-1.768 F400.000
G1 X2.161 Y-8.842 Z-1.781 F400.000
G1 X2.039 Y-8.921 Z-1.794 F400.000
G1 X1.935 Y-9.022 Z-1.806 F400.000
G1 X1.853 Y-9.141 Z-1.819 F400.000
G1 X1.796 Y-9.274 Z-1.832 F400.000
G1 X1.765 Y-9.415 Z-1.845 F400.000
G1 X1.763 Y-9.560 Z-1.858 F400.000
G1 X1.789 Y-9.703 Z-1.871 F400.000
G1 X1.842 Y-9.837 Z-1.884 F400.000
G1 X1.921 Y-9.959 Z-1.896 F400.000
G1 X2.022 Y-10.063 Z-1.909 F400.000
G1 X2.141 Y-10.145 Z-1.922 F400.000
G1 X2.274 Y-10.203 Z-1.935 F400.000
G1 X2.415 Y-10.233 Z-1.948 F400.000
G1 X2.560 Y-10.235 Z-1.961 F400.000
G1 X2.703 Y-10.209 Z-1.974 F400.000
G1 X2.837 Y-10.156 Z-1.986 F400.000
G1 X2.959 Y-10.077 Z-1.999 F400.000
G1 X3.063 Y-9.976 Z-2.012 F400.000
G1 X3.145 Y-9.857 Z-2.025 F400.000
G1 X3.203 Y-9.724 Z-2.038 F400.000
G1 X3.233 Y-9.583 Z-2.051 F400.000
G1 X3.235 Y-9.438 Z-2.064 F400.000
G1 X3.209 Y-9.295 Z-2.076 F400.000
G1 X3.156 Y-9.161 Z-2.089 F400.000
G1 X3.077 Y-9.039 Z-2.102 F400.000
G1 X2.976 Y-8.935 Z-2.115 F400.000
G1 X2.857 Y-8.853 Z-2.128 F400.000
G1 X2.724 Y-8.796 Z-2.141 F400.000
G1 X2.583 Y-8.765 Z-2.154 F400.000
G1 X2.438 Y-8.763 Z-2.167 F400.000
G1 X2.295 Y-8.789 Z-2.179 F400.000
G1 X2.161 Y-8.842 Z-2.192 F400.000
G1 X2.039 Y-8.921 Z-2.205 F400.000
G1 X1.935 Y-9.022 Z-2.218 F400.000
G1 X1.853 Y-9.141 Z-2.231 F400.000
G1 X1.796 Y-9.274 Z-2.244 F400.000
G1 X1.765 Y-9.415 Z-2.257 F400.000
G1 X1.763 Y-9.560 Z-2.269 F400.000
G1 X1.789 Y-9.703 Z-2.282 F400.000
G1 X1.842 Y-9.837 Z-2.295 F400.000
G1 X1.921 Y-9.959 Z-2.308 F400.000
G1 X2.022 Y-10.063 Z-2.321 F400.000
G1 X2.141 Y-10.145 Z-2.334 F400.000
G1 X2.274 Y-10.203 Z-2.347 F400.000
G1 X2.415 Y-10.233 Z-2.359 F400.000
G1 X2.560 Y-10.235 Z-2.372 F400.000
G1 X2.703 Y-10.209 Z-2.385 F400.000
G1 X2.837 Y-10.156 Z-2.398 F400.000
G1 X2.959 Y-10.077 Z-2.411 F400.000
G1 X3.063 Y-9.976 Z-2.424 F400.000
G1 X3.145 Y-9.857 Z-2.437 F400.000
G1 X3.203 Y-9.724 Z-2.449 F400.000
G1 X3.233 Y-9.583 Z-2.462 F400.000
G1 X3.235 Y-9.438 Z-2.475 F400.000
G1 X3.209 Y-9.295 Z-2.488 F400.000
G1 X3.156 Y-9.161 Z-2.501 F400.000
G1 X3.077 Y-9.039 Z-2.514 F400.000
G1 X2.976 Y-8.935 Z-2.527 F400.000
G1 X2.857 Y-8.853 Z-2.539 F400.000
G1 X2.724 Y-8.796 Z-2.552 F400.000
G1 X2.583 Y-8.765 Z-2.565 F400.000
G1 X2.438 Y-8.763 Z-2.578 F400.000
G1 X2.295 Y-8.789 Z-2.591 F400.000
G1 X2.161 Y-8.842 Z-2.604 F400.000
G1 X2.039 Y-8.921 Z-2.617 F400.000
G1 X1.935 Y-9.022 Z-2.629 F400.000
G1 X1.853 Y-9.141 Z-2.642 F400.000
G1 X1.796 Y-9.274 Z-2.655 F400.000
G1 X1.765 Y-9.415 Z-2.668 F400.000
G1 X1.763 Y-9.560 Z-2.681 F400.000
G1 X1.789 Y-9.703 Z-2.694 F400.000
G1 X1.842 Y-9.837 Z-2.707 F400.000
G1 X1.921 Y-9.959 Z-2.719 F400.000
G1 X2.022 Y-10.063 Z-2.732 F400.000
G1 X2.141 Y-10.145 Z-2.745 F400.000
G1 X2.274 Y-10.203 Z-2.758 F400.000
G1 X2.415 Y-10.233 Z-2.771 F400.000
G1 X2.560 Y-10.235 Z-2.784 F400.000
G1 X2.703 Y-10.209 Z-2.797 F400.000
G1 X2.837 Y-10.156 Z-2.809 F400.000
G1 X2.959 Y-10.077 Z-2.822 F400.000
G1 X3.063 Y-9.976 Z-2.835 F400.000
G1 X3.145 Y-9.857 Z-2.848 F400.000
G1 X3.203 Y-9.724 Z-2.861 F400.000
G1 X3.233 Y-9.583 Z-2.874 F400.000
G1 X3.235 Y-9.438 Z-2.887 F400.000
G1 X3.209 Y-9.295 Z-2.900 F400.000
G1 X3.156 Y-9.161 Z-2.912 F400.000
G1 X3.077 Y-9.039 Z-2.925 F400.000
G1 X2.976 Y-8.935 Z-2.938 F400.000
G1 X2.857 Y-8.853 Z-2.951 F400.000
G1 X2.724 Y-8.796 Z-2.964 F400.000
G1 X2.583 Y-8.765 Z-2.977 F400.000
G1 X2.438 Y-8.763 Z-2.990 F400.000
G1 X2.295 Y-8.789 Z-3.002 F400.000
G1 X2.161 Y-8.842 Z-3.015 F400.000
G1 X2.039 Y-8.921 Z-3.028 F400.000
G1 X1.935 Y-9.022 Z-3.041 F400.000
G1 X1.853 Y-9.141 Z-3.054 F400.000
G1 X1.796 Y-9.274 Z-3.067 F400.000
G1 X1.765 Y-9.415 Z-3.080 F400.000
G1 X1.763 Y-9.560 Z-3.092 F400.000
G1 X1.789 Y-9.703 Z-3.105 F400.000
G1 X1.842 Y-9.837 Z-3.118 F400.000
G1 X1.921 Y-9.959 Z-3.131 F400.000
G1 X2.022 Y-10.063 Z-3.144 F400.000
G1 X2.141 Y-10.145 Z-3.157 F400.000
G1 X2.274 Y-10.203 Z-3.170 F400.000
G1 X2.415 Y-10.233 Z-3.182 F400.000
G1 X2.560 Y-10.235 Z-3.195 F400.000
G1 X2.703 Y-10.209 Z-3.208 F400.000
G1 X2.837 Y-10.156 Z-3.221 F400.000
G1 X2.959 Y-10.077 Z-3.234 F400.000
G1 X3.063 Y-9.976 Z-3.247 F400.000
G1 X3.145 Y-9.857 Z-3.260 F400.000
G1 X3.203 Y-9.724 Z-3.272 F400.000
G1 X3.233 Y-9.583 Z-3.285 F400.000
G1 X3.235 Y-9.438 Z-3.298 F400.000
G1 X3.209 Y-9.295 Z-3.311 F400.000
G1 X3.156 Y-9.161 Z-3.324 F400.000
G1 X3.077 Y-9.039 Z-3.337 F400.000
G1 X2.976 Y-8.935 Z-3.350 F400.000
G1 X2.857 Y-8.853 Z-3.362 F400.000
G1 X2.724 Y-8.796 Z-3.375 F400.000
G1 X2.583 Y-8.765 Z-3.388 F400.000
G1 X2.438 Y-8.763 Z-3.401 F400.000
G1 X2.295 Y-8.789 Z-3.414 F400.000
G1 X2.161 Y-8.842 Z-3.427 F400.000
G1 X2.039 Y-8.921 Z-3.440 F400.000
G1 X1.935 Y-9.022 Z-3.452 F400.000
G1 X1.853 Y-9.141 Z-3.465 F400.000
G1 X1.796 Y-9.274 Z-3.478 F400.000
G1 X1.765 Y-9.415 Z-3.491 F400.000
G1 X1.763 Y-9.560 Z-3.504 F400.000
G1 X1.789 Y-9.703 Z-3.517 F400.000
G1 X1.842 Y-9.837 Z-3.530 F400.000
G1 X1.921 Y-9.959 Z-3.542 F400.000
G1 X2.022 Y-10.063 Z-3.555 F400.000
G1 X2.141 Y-10.145 Z-3.568 F400.000
G1 X2.274 Y-10.203 Z-3.581 F400.000
G1 X2.415 Y-10.233 Z-3.594 F400.000
G1 X2.560 Y-10.235 Z-3.607 F400.000
G1 X2.703 Y-10.209 Z-3.620 F400.000
G1 X2.837 Y-10.156 Z-3.633 F400.000
G1 X2.959 Y-10.077 Z-3.645 F400.000
G1 X3.063 Y-9.976 Z-3.658 F400.000
G1 X3.145 Y-9.857 Z-3.671 F400.000
G1 X3.203 Y-9.724 Z-3.684 F400.000
G1 X3.233 Y-9.583 Z-3.697 F400.000
G1 X3.235 Y-9.438 Z-3.710 F400.000
G1 X3.209 Y-9.295 Z-3.723 F400.000
G1 X3.156 Y-9.161 Z-3.735 F400.000
G1 X3.077 Y-9.039 Z-3.748 F400.000
G1 X2.976 Y-8.935 Z-3.761 F400.000
G1 X2.857 Y-8.853 Z-3.774 F400.000
G1 X2.724 Y-8.796 Z-3.787 F400.000
G1 X2.583 Y-8.765 Z-3.800 F400.000
G1 X2.438 Y-8.763 Z-3.813 F400.000
G1 X2.295 Y-8.789 Z-3.825 F400.000
G1 X2.161 Y-8.842 Z-3.838 F400.000
G1 X2.039 Y-8.921 Z-3.851 F400.000
G1 X1.935 Y-9.022 Z-3.864 F400.000
G1 X1.853 Y-9.141 Z-3.877 F400.000
G1 X1.796 Y-9.274 Z-3.890 F400.000
G1 X1.765 Y-9.415 Z-3.903 F400.000
G1 X1.763 Y-9.560 Z-3.915 F400.000
G1 X1.789 Y-9.703 Z-3.928 F400.000
G1 X1.842 Y-9.837 Z-3.941 F400.000
G1 X1.921 Y-9.959 Z-3.954 F400.000
G1 X2.022 Y-10.063 Z-3.967 F400.000
G1 X2.141 Y-10.145 Z-3.980 F400.000
G1 X2.274 Y-10.203 Z-3.993 F400.000
G1 X2.415 Y-10.233 Z-4.000 F400.000
G1 X2.560 Y-10.235 Z-4.000 F400.000
G1 X2.703 Y-10.209 Z-4.000 F400.000
G1 X2.837 Y-10.156 Z-4.000 F400.000
G1 X2.959 Y-10.077 Z-4.000 F400.000
G1 X3.063 Y-9.976 Z-4.000 F400.000
G1 X3.145 Y-9.857 Z-4.000 F400.000
G1 X3.203 Y-9.724 Z-4.000 F400.000
G1 X3.233 Y-9.583 Z-4.000 F400.000
G1 X3.235 Y-9.438 Z-4.000 F400.000
G1 X3.209 Y-9.295 Z-4.000 F400.000
G1 X3.156 Y-9.161 Z-4.000 F400.000
G1 X3.077 Y-9.039 Z-4.000 F400.000
G1 X2.976 Y-8.935 Z-4.000 F400.000
G1 X2.857 Y-8.853 Z-4.000 F400.000
G1 X2.724 Y-8.796 Z-4.000 F400.000
G1 X2.583 Y-8.765 Z-4.000 F400.000
G1 X2.438 Y-8.763 Z-4.000 F400.000
G1 X2.295 Y-8.789 Z-4.000 F400.000
G1 X2.161 Y-8.842 Z-4.000 F400.000
G1 X2.039 Y-8.921 Z-4.000 F400.000
G1 X1.935 Y-9.022 Z-4.000 F400.000
G1 X1.853 Y-9.141 Z-4.000 F400.000
G1 X1.796 Y-9.274 Z-4.000 F400.000
G1 X1.765 Y-9.415 Z-4.000 F400.000
G1 X1.763 Y-9.560 Z-4.000 F400.000
G1 X1.789 Y-9.703 Z-4.000 F400.000
G1 X1.842 Y-9.837 Z-4.000 F400.000
G1 X1.921 Y-9.959 Z-4.000 F400.000
G1 X2.022 Y-10.063 Z-4.000 F400.000
G1 X2.141 Y-10.145 Z-4.000 F400.000
G1 X2.274 Y-10.203 Z-4.000 F400.000
(Adaptive - depth: -4.000000)
G1 X2.499 Y-10.248 F400.000
G1 X2.523 Y-10.263 F400.000
G1 X2.580 Y-10.276 F400.000
G1 X2.664 Y-10.276 F400.000
G1 X2.749 Y-10.265 F400.000
G1 X2.887 Y-10.218 F400.000
G1 X3.092 Y-10.092 F400.000
G1 X3.186 Y-9.987 F400.000
G1 X3.225 Y-9.927 F400.000
G1 X3.259 Y-9.861 F400.000
G1 X3.300 Y-9.762 F400.000
G1 X3.336 Y-9.627 F400.000
G1 X3.347 Y-9.501 F400.000
G1 X3.341 Y-9.396 F400.000
G1 X3.325 Y-9.295 F400.000
G1 X3.291 Y-9.189 F400.000
G1 X3.244 Y-9.088 F400.000
G1 X3.182 Y-8.992 F400.000
G1 X3.111 Y-8.906 F400.000
G1 X3.026 Y-8.829 F400.000
G1 X2.932 Y-8.764 F400.000
G1 X2.831 Y-8.711 F400.000
G1 X2.724 Y-8.674 F400.000
G1 X2.614 Y-8.649 F400.000
G1 X2.501 Y-8.640 F400.000
G1 X2.388 Y-8.645 F400.000
G1 X2.278 Y-8.666 F400.000
G1 X2.171 Y-8.702 F400.000
G1 X2.069 Y-8.750 F400.000
G1 X1.976 Y-8.812 F400.000
G1 X1.891 Y-8.886 F400.000
G1 X1.816 Y-8.970 F400.000
G1 X1.752 Y-9.062 F400.000
G1 X1.700 Y-9.167 F400.000
G1 X1.662 Y-9.274 F400.000
G1 X1.640 Y-9.385 F400.000
G1 X1.632 Y-9.492 F400.000
G1 X1.640 Y-9.602 F400.000
G1 X1.660 Y-9.711 F400.000
G1 X1.696 Y-9.820 F400.000
G1 X1.747 Y-9.925 F400.000
G1 X1.809 Y-10.021 F400.000
G1 X1.886 Y-10.107 F400.000
G1 X1.966 Y-10.178 F400.000
G1 X2.058 Y-10.240 F400.000
G1 X2.208 Y-10.315 F400.000
G1 X2.373 Y-10.360 F400.000
G1 X2.570 Y-10.385 F400.000
G1 X2.683 Y-10.379 F400.000
G1 X2.852 Y-10.336 F400.000
G1 X3.096 Y-10.220 F400.000
G1 X3.229 Y-10.096 F400.000
G1 X3.319 Y-9.972 F400.000
G1 X3.368 Y-9.878 F400.000
G1 X3.417 Y-9.749 F400.000
G1 X3.447 Y-9.612 F400.000
G1 X3.456 Y-9.497 F400.000
G1 X3.452 Y-9.390 F400.000
G1 X3.432 Y-9.272 F400.000
G1 X3.398 Y-9.163 F400.000
G1 X3.353 Y-9.058 F400.000
G1 X3.289 Y-8.949 F400.000
G1 X3.212 Y-8.848 F400.000
G1 X3.126 Y-8.762 F400.000
G1 X3.034 Y-8.689 F400.000
G1 X2.929 Y-8.625 F400.000
G1 X2.818 Y-8.576 F400.000
G1 X2.704 Y-8.542 F400.000
G1 X2.589 Y-8.523 F400.000
G1 X2.471 Y-8.518 F400.000
G1 X2.347 Y-8.527 F400.000
G1 X2.231 Y-8.552 F400.000
G1 X2.116 Y-8.589 F400.000
G1 X2.008 Y-8.642 F400.000
G1 X1.906 Y-8.707 F400.000
G1 X1.814 Y-8.784 F400.000
G1 X1.732 Y-8.872 F400.000
G1 X1.660 Y-8.970 F400.000
G1 X1.602 Y-9.075 F400.000
G1 X1.557 Y-9.186 F400.000
G1 X1.527 Y-9.302 F400.000
G1 X1.510 Y-9.420 F400.000
G1 X1.508 Y-9.544 F400.000
G1 X1.522 Y-9.664 F400.000
G1 X1.550 Y-9.784 F400.000
G1 X1.591 Y-9.899 F400.000
G1 X1.647 Y-10.008 F400.000
G1 X1.719 Y-10.107 F400.000
G1 X1.790 Y-10.186 F400.000
G1 X1.876 Y-10.265 F400.000
G1 X1.983 Y-10.341 F400.000
G1 X2.105 Y-10.407 F400.000
G1 X2.223 Y-10.456 F400.000
G1 X2.364 Y-10.486 F400.000
G1 X2.589 Y-10.499 F400.000
G1 X2.786 Y-10.471 F400.000
G1 X3.039 Y-10.383 F400.000
G1 X3.182 Y-10.293 F400.000
G1 X3.250 Y-10.233 F400.000
G1 X3.308 Y-10.171 F400.000
G1 X3.381 Y-10.079 F400.000
G1 X3.458 Y-9.949 F400.000
G1 X3.512 Y-9.829 F400.000
G1 X3.550 Y-9.704 F400.000
G1 X3.567 Y-9.585 F400.000
G1 X3.572 Y-9.475 F400.000
G1 X3.563 Y-9.349 F400.000
G1 X3.540 Y-9.223 F400.000
G1 X3.501 Y-9.096 F400.000
G1 X3.450 Y-8.977 F400.000
G1 X3.385 Y-8.865 F400.000
G1 X3.304 Y-8.762 F400.000
G1 X3.220 Y-8.674 F400.000
G1 X3.122 Y-8.593 F400.000
G1 X3.017 Y-8.527 F400.000
G1 X2.904 Y-8.473 F400.000
G1 X2.786 Y-8.432 F400.000
G1 X2.655 Y-8.403 F400.000
G1 X2.529 Y-8.390 F400.000
G1 X2.402 Y-8.392 F400.000
G1 X2.272 Y-8.409 F400.000
G1 X2.148 Y-8.439 F400.000
G1 X2.028 Y-8.484 F400.000
G1 X1.914 Y-8.542 F400.000
G1 X1.807 Y-8.614 F400.000
G1 X1.709 Y-8.696 F400.000
G1 X1.623 Y-8.790 F400.000
G1 X1.548 Y-8.893 F400.000
G1 X1.486 Y-9.004 F400.000
G1 X1.437 Y-9.120 F400.000
G1 X1.402 Y-9.242 F400.000
G1 X1.381 Y-9.368 F400.000
G1 X1.375 Y-9.493 F400.000
G1 X1.383 Y-9.619 F400.000
G1 X1.407 Y-9.752 F400.000
G1 X1.445 Y-9.876 F400.000
G1 X1.495 Y-9.996 F400.000
G1 X1.561 Y-10.111 F400.000
G1 X1.638 Y-10.216 F400.000
G1 X1.728 Y-10.313 F400.000
G1 X1.827 Y-10.400 F400.000
G1 X1.938 Y-10.473 F400.000
G1 X2.045 Y-10.527 F400.000
G1 X2.165 Y-10.572 F400.000
G1 X2.287 Y-10.604 F400.000
G1 X2.422 Y-10.623 F400.000
G1 X2.552 Y-10.629 F400.000
G1 X2.698 Y-10.619 F400.000
G1 X2.841 Y-10.595 F400.000
G1 X2.976 Y-10.552 F400.000
G1 X3.086 Y-10.499 F400.000
G1 X3.186 Y-10.439 F400.000
G1 X3.285 Y-10.362 F400.000
G1 X3.383 Y-10.268 F400.000
G1 X3.471 Y-10.163 F400.000
G1 X3.544 Y-10.053 F400.000
G1 X3.606 Y-9.932 F400.000
G1 X3.653 Y-9.805 F400.000
G1 X3.683 Y-9.674 F400.000
G1 X3.696 Y-9.555 F400.000
G1 X3.698 Y-9.428 F400.000
G1 X3.685 Y-9.295 F400.000
G1 X3.657 Y-9.159 F400.000
G1 X3.614 Y-9.023 F400.000
G1 X3.557 Y-8.897 F400.000
G1 X3.484 Y-8.777 F400.000
G1 X3.409 Y-8.677 F400.000
G1 X3.317 Y-8.580 F400.000
G1 X3.216 Y-8.495 F400.000
G1 X3.107 Y-8.424 F400.000
G1 X2.989 Y-8.362 F400.000
G1 X2.859 Y-8.311 F400.000
G1 X2.720 Y-8.274 F400.000
G1 X2.583 Y-8.253 F400.000
G1 X2.454 Y-8.248 F400.000
G1 X2.319 Y-8.257 F400.000
G1 X2.186 Y-8.281 F400.000
G1 X2.058 Y-8.319 F400.000
G1 X1.932 Y-8.371 F400.000
G1 X1.814 Y-8.435 F400.000
G1 X1.696 Y-8.518 F400.000
G1 X1.593 Y-8.608 F400.000
G1 X1.499 Y-8.709 F400.000
G1 X1.418 Y-8.824 F400.000
G1 X1.360 Y-8.931 F400.000
G1 X1.313 Y-9.045 F400.000
G1 X1.276 Y-9.167 F400.000
G1 X1.250 Y-9.310 F400.000
G1 X1.238 Y-9.450 F400.000
G1 X1.242 Y-9.597 F400.000
G1 X1.261 Y-9.739 F400.000
G1 X1.296 Y-9.878 F400.000
G1 X1.340 Y-9.996 F400.000
G1 X1.402 Y-10.120 F400.000
G1 X1.475 Y-10.235 F400.000
G1 X1.565 Y-10.347 F400.000
G1 X1.662 Y-10.447 F400.000
G1 X1.773 Y-10.531 F400.000
G1 X1.872 Y-10.595 F400.000
G1 X1.998 Y-10.657 F400.000
G1 X2.131 Y-10.705 F400.000
G1 X2.270 Y-10.741 F400.000
G1 X2.411 Y-10.762 F400.000
G1 X2.553 Y-10.767 F400.000
G1 X2.696 Y-10.758 F400.000
G1 X2.837 Y-10.734 F400.000
G1 X2.976 Y-10.694 F400.000
G1 X3.109 Y-10.638 F400.000
G1 X3.221 Y-10.576 F400.000
G1 X3.334 Y-10.497 F400.000
G1 X3.437 Y-10.407 F400.000
G1 X3.529 Y-10.308 F400.000
G1 X3.612 Y-10.199 F400.000
G1 X3.687 Y-10.073 F400.000
G1 X3.749 Y-9.940 F400.000
G1 X3.792 Y-9.803 F400.000
G1 X3.818 Y-9.675 F400.000
G1 X3.831 Y-9.546 F400.000
G1 X3.831 Y-9.403 F400.000
G1 X3.818 Y-9.259 F400.000
G1 X3.788 Y-9.111 F400.000
G1 X3.743 Y-8.970 F400.000
G1 X3.687 Y-8.844 F400.000
G1 X3.619 Y-8.728 F400.000
G1 X3.537 Y-8.614 F400.000
G1 X3.435 Y-8.503 F400.000
G1 X3.330 Y-8.409 F400.000
G1 X3.214 Y-8.325 F400.000
G1 X3.090 Y-8.253 F400.000
G1 X2.961 Y-8.195 F400.000
G1 X2.824 Y-8.150 F400.000
G1 X2.683 Y-8.120 F400.000
G1 X2.540 Y-8.105 F400.000
G1 X2.398 Y-8.105 F400.000
G1 X2.255 Y-8.118 F400.000
G1 X2.107 Y-8.148 F400.000
G1 X1.968 Y-8.191 F400.000
G1 X1.835 Y-8.248 F400.000
G1 X1.707 Y-8.319 F400.000
G1 X1.589 Y-8.402 F400.000
G1 X1.482 Y-8.501 F400.000
G1 X1.402 Y-8.589 F400.000
G1 X1.321 Y-8.700 F400.000
G1 X1.250 Y-8.824 F400.000
G1 X1.191 Y-8.953 F400.000
G1 X1.144 Y-9.096 F400.000
G1 X1.114 Y-9.236 F400.000
G1 X1.098 Y-9.379 F400.000
G1 X1.094 Y-9.523 F400.000
G1 X1.107 Y-9.675 F400.000
G1 X1.133 Y-9.820 F400.000
G1 X1.174 Y-9.962 F400.000
G1 X1.231 Y-10.101 F400.000
G1 X1.300 Y-10.233 F400.000
G1 X1.383 Y-10.356 F400.000
G1 X1.478 Y-10.471 F400.000
G1 X1.576 Y-10.565 F400.000
G1 X1.683 Y-10.647 F400.000
G1 X1.801 Y-10.720 F400.000
G1 X1.931 Y-10.786 F400.000
G1 X2.079 Y-10.842 F400.000
G1 X2.221 Y-10.880 F400.000
G1 X2.370 Y-10.904 F400.000
G1 X2.520 Y-10.914 F400.000
G1 X2.668 Y-10.908 F400.000
G1 X2.818 Y-10.887 F400.000
G1 X2.964 Y-10.848 F400.000
G1 X3.086 Y-10.805 F400.000
G1 X3.225 Y-10.737 F400.000
G1 X3.347 Y-10.660 F400.000
G1 X3.460 Y-10.576 F400.000
G1 X3.572 Y-10.469 F400.000
G1 X3.668 Y-10.358 F400.000
G1 X3.754 Y-10.238 F400.000
G1 X3.829 Y-10.107 F400.000
G1 X3.889 Y-9.972 F400.000
G1 X3.932 Y-9.829 F400.000
G1 X3.959 Y-9.698 F400.000
G1 X3.974 Y-9.555 F400.000
G1 X3.976 Y-9.405 F400.000
G1 X3.962 Y-9.246 F400.000
G1 X3.934 Y-9.098 F400.000
G1 X3.891 Y-8.949 F400.000
G1 X3.831 Y-8.807 F400.000
G1 X3.765 Y-8.685 F400.000
G1 X3.687 Y-8.570 F400.000
G1 X3.597 Y-8.458 F400.000
G1 X3.362 Y-8.250 F400.000
G1 X3.120 Y-8.101 F400.000
G1 X2.857 Y-8.002 F400.000
G1 X2.557 Y-7.946 F400.000
G1 X2.287 Y-7.946 F400.000
G1 X2.017 Y-7.996 F400.000
G1 X1.814 Y-8.068 F400.000
G1 X1.625 Y-8.163 F400.000
G1 X1.430 Y-8.306 F400.000
G1 X1.265 Y-8.478 F400.000
G1 X1.150 Y-8.651 F400.000
G1 X1.062 Y-8.837 F400.000
G1 X0.974 Y-9.174 F400.000
G1 X0.951 Y-9.512 F400.000
G1 X0.994 Y-9.822 F400.000
G1 X1.118 Y-10.174 F400.000
G1 X1.300 Y-10.469 F400.000
G1 X1.516 Y-10.698 F400.000
G1 X1.629 Y-10.786 F400.000
G1 X1.829 Y-10.899 F400.000
G1 X2.071 Y-10.991 F400.000
G1 X2.381 Y-11.049 F400.000
G1 X2.690 Y-11.047 F400.000
G1 X2.944 Y-10.996 F400.000
G1 X3.244 Y-10.872 F400.000
G1 X3.493 Y-10.705 F400.000
G1 X3.707 Y-10.497 F400.000
G1 X3.852 Y-10.306 F400.000
G1 X3.964 Y-10.090 F400.000
G1 X4.051 Y-9.827 F400.000
G1 X4.086 Y-9.617 F400.000
G1 X4.098 Y-9.377 F400.000
G1 X4.083 Y-9.197 F400.000
G1 X4.017 Y-8.927 F400.000
G1 X3.921 Y-8.696 F400.000
G1 X3.711 Y-8.383 F400.000
G1 X3.514 Y-8.182 F400.000
G1 X3.285 Y-8.017 F400.000
G1 X2.949 Y-7.859 F400.000
G1 X2.649 Y-7.786 F400.000
G1 X2.349 Y-7.767 F400.000
G1 X2.139 Y-7.784 F400.000
G1 X1.812 Y-7.871 F400.000
G1 X1.512 Y-8.015 F400.000
G1 X1.340 Y-8.139 F400.000
G1 X1.152 Y-8.332 F400.000
G1 X1.021 Y-8.531 F400.000
G1 X0.934 Y-8.717 F400.000
G1 X0.831 Y-9.083 F400.000
G1 X0.805 Y-9.448 F400.000
G1 X0.827 Y-9.702 F400.000
G1 X0.934 Y-10.090 F400.000
G1 X1.071 Y-10.373 F400.000
G1 X1.255 Y-10.632 F400.000
G1 X1.433 Y-10.814 F400.000
G1 X1.668 Y-10.979 F400.000
G1 X1.901 Y-11.092 F400.000
G1 X2.235 Y-11.180 F400.000
G1 X2.572 Y-11.199 F400.000
G1 X2.882 Y-11.158 F400.000
G1 X3.161 Y-11.062 F400.000
G1 X3.418 Y-10.919 F400.000
G1 X3.698 Y-10.694 F400.000
G1 X3.876 Y-10.492 F400.000
G1 X4.006 Y-10.287 F400.000
G1 X4.143 Y-9.949 F400.000
G1 X4.205 Y-9.679 F400.000
G1 X4.223 Y-9.349 F400.000
G1 X4.186 Y-9.049 F400.000
G1 X4.079 Y-8.722 F400.000
G1 X3.951 Y-8.473 F400.000
G1 X3.764 Y-8.221 F400.000
G1 X3.538 Y-8.008 F400.000
G1 X3.253 Y-7.812 F400.000
G1 X2.996 Y-7.696 F400.000
G1 X2.726 Y-7.629 F400.000
G1 X2.636 Y-7.615 F400.000
G1 X2.366 Y-7.617 F400.000
G1 X2.126 Y-7.651 F400.000
G1 X1.886 Y-7.715 F400.000
G1 X1.745 Y-7.771 F400.000
G1 X1.477 Y-7.914 F400.000
G1 X1.328 Y-8.019 F400.000
G1 X1.109 Y-8.227 F400.000
G1 X1.030 Y-8.317 F400.000
G1 X0.925 Y-8.463 F400.000
G1 X0.820 Y-8.645 F400.000
G1 X0.711 Y-8.917 F400.000
G1 X0.645 Y-9.255 F400.000
G1 X0.645 Y-9.565 F400.000
G1 X0.715 Y-9.902 F400.000
G1 X0.846 Y-10.253 F400.000
G1 X1.011 Y-10.552 F400.000
G1 X1.208 Y-10.797 F400.000
G1 X1.488 Y-11.043 F400.000
G1 X1.711 Y-11.176 F400.000
G1 X2.066 Y-11.295 F400.000
G1 X2.432 Y-11.345 F400.000
G1 X2.685 Y-11.340 F400.000
G1 X2.966 Y-11.283 F400.000
G1 X3.319 Y-11.139 F400.000
G1 X3.570 Y-10.981 F400.000
G1 X3.818 Y-10.764 F400.000
G1 X4.023 Y-10.507 F400.000
G1 X4.182 Y-10.212 F400.000
G1 X4.278 Y-9.953 F400.000
G1 X4.351 Y-9.563 F400.000
G1 X4.349 Y-9.263 F400.000
G1 X4.280 Y-8.902 F400.000
G1 X4.176 Y-8.638 F400.000
G1 X4.066 Y-8.448 F400.000
G1 X3.974 Y-8.323 F400.000
G1 X3.764 Y-8.101 F400.000
G1 X3.670 Y-8.019 F400.000
G1 X3.353 Y-7.818 F400.000
G1 X3.240 Y-7.765 F400.000
G1 X3.240 Y-7.765 F400.000
G1 X3.159 Y-7.752 F400.000
G1 X3.128 Y-7.758 F400.000
G0 X3.114 Y-7.762
G0 X0.809 Y-8.976
G1 X0.788 Y-8.987 F400.000
G1 X0.698 Y-9.047 F400.000
G1 X0.651 Y-9.129 F400.000
G1 X0.651 Y-9.129 F400.000
G1 X0.617 Y-9.383 F400.000
G1 X0.619 Y-9.636 F400.000
G1 X0.657 Y-9.889 F400.000
G1 X0.728 Y-10.143 F400.000
G1 X0.846 Y-10.403 F400.000
G1 X0.985 Y-10.621 F400.000
G1 X1.191 Y-10.857 F400.000
G1 X1.409 Y-11.039 F400.000
G1 X1.657 Y-11.186 F400.000
G1 X1.921 Y-11.295 F400.000
G1 X2.146 Y-11.351 F400.000
G1 X2.371 Y-11.383 F400.000
G1 X2.653 Y-11.379 F400.000
G1 X2.878 Y-11.345 F400.000
G1 X3.131 Y-11.276 F400.000
G1 X3.375 Y-11.169 F400.000
G1 X3.602 Y-11.030 F400.000
G1 X3.874 Y-10.790 F400.000
G1 X4.045 Y-10.580 F400.000
G1 X4.113 Y-10.477 F400.000
G1 X4.281 Y-10.116 F400.000
G1 X4.368 Y-9.758 F400.000
G1 X4.383 Y-9.638 F400.000
G1 X4.381 Y-9.368 F400.000
G1 X4.347 Y-9.128 F400.000
G1 X4.283 Y-8.887 F400.000
G1 X4.272 Y-8.857 F400.000
G1 X4.272 Y-8.857 F400.000
G1 X4.223 Y-8.790 F400.000
G1 X4.199 Y-8.771 F400.000
G0 X4.186 Y-8.760
G0 X4.122 Y-8.709
G0 X3.325 Y-8.056
G0 X3.171 Y-7.818
G1 X3.161 Y-7.805 F400.000
G1 X3.092 Y-7.711 F400.000
G1 X3.026 Y-7.677 F400.000
G1 X3.026 Y-7.677 F400.000
G1 X2.827 Y-7.630 F400.000
G1 X2.657 Y-7.604 F400.000
G1 X2.443 Y-7.600 F400.000
G1 X2.356 Y-7.604 F400.000
G1 X2.188 Y-7.627 F400.000
G1 X2.094 Y-7.645 F400.000
G1 X1.908 Y-7.694 F400.000
G1 X1.705 Y-7.777 F400.000
G1 X1.591 Y-7.833 F400.000
G1 X1.467 Y-7.902 F400.000
G1 X1.323 Y-8.008 F400.000
G1 X1.163 Y-8.152 F400.000
G1 X0.996 Y-8.341 F400.000
G1 X0.927 Y-8.437 F400.000
G1 X0.872 Y-8.523 F400.000
G1 X0.788 Y-8.681 F400.000
G1 X0.694 Y-8.910 F400.000
G1 X0.675 Y-8.976 F400.000
G1 X0.629 Y-9.186 F400.000
G1 X0.604 Y-9.375 F400.000
G1 X0.602 Y-9.568 F400.000
G1 X0.606 Y-9.642 F400.000
G1 X0.629 Y-9.811 F400.000
G1 X0.647 Y-9.904 F400.000
G1 X0.696 Y-10.090 F400.000
G1 X0.780 Y-10.298 F400.000
G1 X0.837 Y-10.413 F400.000
G1 X0.899 Y-10.518 F400.000
G1 X0.974 Y-10.627 F400.000
G1 X1.068 Y-10.745 F400.000
G1 X1.137 Y-10.822 F400.000
G1 X1.210 Y-10.893 F400.000
G1 X1.340 Y-11.004 F400.000
G1 X1.523 Y-11.128 F400.000
G1 X1.681 Y-11.212 F400.000
G1 X1.910 Y-11.306 F400.000
G1 X1.976 Y-11.325 F400.000
G1 X2.171 Y-11.368 F400.000
G1 X2.341 Y-11.394 F400.000
G1 X2.495 Y-11.400 F400.000
G1 X2.644 Y-11.394 F400.000
G1 X2.811 Y-11.371 F400.000
G1 X2.904 Y-11.353 F400.000
G1 X3.090 Y-11.304 F400.000
G1 X3.293 Y-11.221 F400.000
G1 X3.405 Y-11.167 F400.000
G1 X3.531 Y-11.096 F400.000
G1 X3.615 Y-11.038 F400.000
G1 X3.677 Y-10.989 F400.000
G1 X3.876 Y-10.805 F400.000
G1 X4.009 Y-10.649 F400.000
G1 X4.075 Y-10.557 F400.000
G1 X4.128 Y-10.475 F400.000
G1 X4.233 Y-10.272 F400.000
G1 X4.306 Y-10.088 F400.000
G1 X4.379 Y-9.780 F400.000
G1 X4.394 Y-9.657 F400.000
G1 X4.398 Y-9.495 F400.000
G1 X4.394 Y-9.355 F400.000
G1 X4.371 Y-9.188 F400.000
G1 X4.355 Y-9.101 F400.000
G1 X4.304 Y-8.908 F400.000
G1 X4.221 Y-8.705 F400.000
G1 X4.165 Y-8.591 F400.000
G1 X4.096 Y-8.467 F400.000
G1 X3.989 Y-8.321 F400.000
G1 X3.805 Y-8.122 F400.000
G1 X3.651 Y-7.991 F400.000
G1 X3.567 Y-7.929 F400.000
G1 X3.475 Y-7.871 F400.000
G1 X3.317 Y-7.786 F400.000
G1 X3.088 Y-7.692 F400.000
G1 X3.028 Y-7.675 F400.000
G1 X3.026 Y-7.677 F400.000
G0 Z7.000
(Helix to depth: -6.000000)
G0 Z7.000
G0 X2.965 Y8.924 Z7.000
G0 X2.965 Y8.924 Z5.000
G1 X2.965 Y8.924 Z-4.000 F400.000
G1 X2.965 Y8.924 Z-4.000 F400.000
G1 X3.068 Y9.026 Z-4.013 F400.000
G1 X3.149 Y9.146 Z-4.026 F400.000
G1 X3.205 Y9.279 Z-4.039 F400.000
G1 X3.234 Y9.421 Z-4.051 F400.000
G1 X3.234 Y9.566 Z-4.064 F400.000
G1 X3.207 Y9.708 Z-4.077 F400.000
G1 X3.152 Y9.842 Z-4.090 F400.000
G1 X3.072 Y9.963 Z-4.103 F400.000
G1 X2.971 Y10.066 Z-4.116 F400.000
G1 X2.851 Y10.147 Z-4.129 F400.000
G1 X2.717 Y10.203 Z-4.141 F400.000
G1 X2.575 Y10.232 Z-4.154 F400.000
G1 X2.430 Y10.233 Z-4.167 F400.000
G1 X2.288 Y10.205 Z-4.180 F400.000
G1 X2.154 Y10.150 Z-4.193 F400.000
G1 X2.033 Y10.070 Z-4.206 F400.000
G1 X1.931 Y9.969 Z-4.219 F400.000
G1 X1.849 Y9.849 Z-4.231 F400.000
G1 X1.793 Y9.715 Z-4.244 F400.000
G1 X1.764 Y9.573 Z-4.257 F400.000
G1 X1.764 Y9.429 Z-4.270 F400.000
G1 X1.791 Y9.286 Z-4.283 F400.000
G1 X1.846 Y9.152 Z-4.296 F400.000
G1 X1.926 Y9.032 Z-4.309 F400.000
G1 X2.028 Y8.929 Z-4.321 F400.000
G1 X2.148 Y8.848 Z-4.334 F400.000
G1 X2.281 Y8.791 Z-4.347 F400.000
G1 X2.423 Y8.763 Z-4.360 F400.000
G1 X2.568 Y8.762 Z-4.373 F400.000
G1 X2.710 Y8.789 Z-4.386 F400.000
G1 X2.844 Y8.844 Z-4.399 F400.000
G1 X2.965 Y8.924 Z-4.412 F400.000
G1 X3.068 Y9.026 Z-4.424 F400.000
G1 X3.149 Y9.146 Z-4.437 F400.000
G1 X3.205 Y9.279 Z-4.450 F400.000
G1 X3.234 Y9.421 Z-4.463 F400.000
G1 X3.234 Y9.566 Z-4.476 F400.000
G1 X3.207 Y9.708 Z-4.489 F400.000
G1 X3.152 Y9.842 Z-4.502 F400.000
G1 X3.072 Y9.963 Z-4.514 F400.000
G1 X2.971 Y10.066 Z-4.527 F400.000
G1 X2.851 Y10.147 Z-4.540 F400.000
G1 X2.717 Y10.203 Z-4.553 F400.000
G1 X2.575 Y10.232 Z-4.566 F400.000
G1 X2.430 Y10.233 Z-4.579 F400.000
G1 X2.288 Y10.205 Z-4.592 F400.000
G1 X2.154 Y10.150 Z-4.604 F400.000
G1 X2.033 Y10.070 Z-4.617 F400.000
G1 X1.931 Y9.969 Z-4.630 F400.000
G1 X1.849 Y9.849 Z-4.643 F400.000
G1 X1.793 Y9.715 Z-4.656 F400.000
G1 X1.764 Y9.573 Z-4.669 F400.000
G1 X1.764 Y9.429 Z-4.682 F400.000
G1 X1.791 Y9.286 Z-4.694 F400.000
G1 X1.846 Y9.152 Z-4.707 F400.000
G1 X1.926 Y9.032 Z-4.720 F400.000
G1 X2.028 Y8.929 Z-4.733 F400.000
G1 X2.148 Y8.848 Z-4.746 F400.000
G1 X2.281 Y8.791 Z-4.759 F400.000
G1 X2.423 Y8.763 Z-4.772 F400.000
G1 X2.568 Y8.762 Z-4.784 F400.000
G1 X2.710 Y8.789 Z-4.797 F400.000
G1 X2.844 Y8.844 Z-4.810 F400.000
G1 X2.965 Y8.924 Z-4.823 F400.000
G1 X3.068 Y9.026 Z-4.836 F400.000
G1 X3.149 Y9.146 Z-4.849 F400.000
G1 X3.205 Y9.279 Z-4.862 F400.000
G1 X3.234 Y9.421 Z-4.874 F400.000
G1 X3.234 Y9.566 Z-4.887 F400.000
G1 X3.207 Y9.708 Z-4.900 F400.000
G1 X3.152 Y9.842 Z-4.913 F400.000
G1 X3.072 Y9.963 Z-4.926 F400.000
G1 X2.971 Y10.066 Z-4.939 F400.000
G1 X2.851 Y10.147 Z-4.952 F400.000
G1 X2.717 Y10.203 Z-4.964 F400.000
G1 X2.575 Y10.232 Z-4.977 F400.000
G1 X2.430 Y10.233 Z-4.990 F400.000
G1 X2.288 Y10.205 Z-5.003 F400.000
G1 X2.154 Y10.150 Z-5.016 F400.000
G1 X2.033 Y10.070 Z-5.029 F400.000
G1 X1.931 Y9.969 Z-5.042 F400.000
G1 X1.849 Y9.849 Z-5.054 F400.000
G1 X1.793 Y9.715 Z-5.067 F400.000
G1 X1.764 Y9.573 Z-5.080 F400.000
G1 X1.764 Y9.429 Z-5.093 F400.000
G1 X1.791 Y9.286 Z-5.106 F400.000
G1 X1.846 Y9.152 Z-5.119 F400.000
G1 X1.926 Y9.032 Z-5.132 F400.000
G1 X2.028 Y8.929 Z-5.145 F400.000
G1 X2.148 Y8.848 Z-5.157 F400.000
G1 X2.281 Y8.791 Z-5.170 F400.000
G1 X2.423 Y8.763 Z-5.183 F400.000
G1 X2.568 Y8.762 Z-5.196 F400.000
G1 X2.710 Y8.789 Z-5.209 F400.000
G1 X2.844 Y8.844 Z-5.222 F400.000
G1 X2.965 Y8.924 Z-5.235 F400.000
G1 X3.068 Y9.026 Z-5.247 F400.000
G1 X3.149 Y9.146 Z-5.260 F400.000
G1 X3.205 Y9.279 Z-5.273 F400.000
G1 X3.234 Y9.421 Z-5.286 F400.000
G1 X3.234 Y9.566 Z-5.299 F400.000
G1 X3.207 Y9.708 Z-5.312 F400.000
G1 X3.152 Y9.842 Z-5.325 F400.000
G1 X3.072 Y9.963 Z-5.337 F400.000
G1 X2.971 Y10.066 Z-5.350 F400.000
G1 X2.851 Y10.147 Z-5.363 F400.000
G1 X2.717 Y10.203 Z-5.376 F400.000
G1 X2.575 Y10.232 Z-5.389 F400.000
G1 X2.430 Y10.233 Z-5.402 F400.000
G1 X2.288 Y10.205 Z-5.415 F400.000
G1 X2.154 Y10.150 Z-5.427 F400.000
G1 X2.033 Y10.070 Z-5.440 F400.000
G1 X1.931 Y9.969 Z-5.453 F400.000
G1 X1.849 Y9.849 Z-5.466 F400.000
G1 X1.793 Y9.715 Z-5.479 F400.000
G1 X1.764 Y9.573 Z-5.492 F400.000
G1 X1.764 Y9.429 Z-5.505 F400.000
G1 X1.791 Y9.286 Z-5.517 F400.000
G1 X1.846 Y9.152 Z-5.530 F400.000
G1 X1.926 Y9.032 Z-5.543 F400.000
G1 X2.028 Y8.929 Z-5.556 F400.000
G1 X2.148 Y8.848 Z-5.569 F400.000
G1 X2.281 Y8.791 Z-5.582 F400.000
G1 X2.423 Y8.763 Z-5.595 F400.000
G1 X2.568 Y8.762 Z-5.607 F400.000
G1 X2.710 Y8.789 Z-5.620 F400.000
G1 X2.844 Y8.844 Z-5.633 F400.000
G1 X2.965 Y8.924 Z-5.646 F400.000
G1 X3.068 Y9.026 Z-5.659 F400.000
G1 X3.149 Y9.146 Z-5.672 F400.000
G1 X3.205 Y9.279 Z-5.685 F400.000
G1 X3.234 Y9.421 Z-5.697 F400.000
G1 X3.234 Y9.566 Z-5.710 F400.000
G1 X3.207 Y9.708 Z-5.723 F400.000
G1 X3.152 Y9.842 Z-5.736 F400.000
G1 X3.072 Y9.963 Z-5.749 F400.000
G1 X2.971 Y10.066 Z-5.762 F400.000
G1 X2.851 Y10.147 Z-5.775 F400.000
G1 X2.717 Y10.203 Z-5.787 F400.000
G1 X2.575 Y10.232 Z-5.800 F400.000
G1 X2.430 Y10.233 Z-5.813 F400.000
G1 X2.288 Y10.205 Z-5.826 F400.000
G1 X2.154 Y10.150 Z-5.839 F400.000
G1 X2.033 Y10.070 Z-5.852 F400.000
G1 X1.931 Y9.969 Z-5.865 F400.000
G1 X1.849 Y9.849 Z-5.878 F400.000
G1 X1.793 Y9.715 Z-5.890 F400.000
G1 X1.764 Y9.573 Z-5.903 F400.000
G1 X1.764 Y9.429 Z-5.916 F400.000
G1 X1.791 Y9.286 Z-5.929 F400.000
G1 X1.846 Y9.152 Z-5.942 F400.000
G1 X1.926 Y9.032 Z-5.955 F400.000
G1 X2.028 Y8.929 Z-5.968 F400.000
G1 X2.148 Y8.848 Z-5.980 F400.000
G1 X2.281 Y8.791 Z-5.993 F400.000
G1 X2.423 Y8.763 Z-6.000 F400.000
G1 X2.568 Y8.762 Z-6.000 F400.000
G1 X2.710 Y8.789 Z-6.000 F400.000
G1 X2.844 Y8.844 Z-6.000 F400.000
G1 X2.965 Y8.924 Z-6.000 F400.000
G1 X3.068 Y9.026 Z-6.000 F400.000
G1 X3.149 Y9.146 Z-6.000 F400.000
G1 X3.205 Y9.279 Z-6.000 F400.000
G1 X3.234 Y9.421 Z-6.000 F400.000
G1 X3.234 Y9.566 Z-6.000 F400.000
G1 X3.207 Y9.708 Z-6.000 F400.000
G1 X3.152 Y9.842 Z-6.000 F400.000
G1 X3.072 Y9.963 Z-6.000 F400.000
G1 X2.971 Y10.066 Z-6.000 F400.000
G1 X2.851 Y10.147 Z-6.000 F400.000
G1 X2.717 Y10.203 Z-6.000 F400.000
G1 X2.575 Y10.232 Z-6.000 F400.000
G1 X2.430 Y10.233 Z-6.000 F400.000
G1 X2.288 Y10.205 Z-6.000 F400.000
G1 X2.154 Y10.150 Z-6.000 F400.000
G1 X2.033 Y10.070 Z-6.000 F400.000
G1 X1.931 Y9.969 Z-6.000 F400.000
G1 X1.849 Y9.849 Z-6.000 F400.000
G1 X1.793 Y9.715 Z-6.000 F400.000
G1 X1.764 Y9.573 Z-6.000 F400.000
G1 X1.764 Y9.429 Z-6.000 F400.000
G1 X1.791 Y9.286 Z-6.000 F400.000
G1 X1.846 Y9.152 Z-6.000 F400.000
G1 X1.926 Y9.032 Z-6.000 F400.000
G1 X2.028 Y8.929 Z-6.000 F400.000
G1 X2.148 Y8.848 Z-6.000 F400.000
G1 X2.281 Y8.791 Z-6.000 F400.000
(Adaptive - depth: -6.000000)
G1 X2.499 Y8.749 F400.000
G1 X2.523 Y8.732 F400.000
G1 X2.608 Y8.713 F400.000
G1 X2.720 Y8.713 F400.000
G1 X2.833 Y8.735 F400.000
G1 X2.887 Y8.754 F400.000
G1 X3.086 Y8.886 F400.000
G1 X3.169 Y8.974 F400.000
G1 X3.214 Y9.036 F400.000
G1 X3.255 Y9.107 F400.000
G1 X3.300 Y9.210 F400.000
G1 X3.338 Y9.345 F400.000
G1 X3.351 Y9.460 F400.000
G1 X3.349 Y9.561 F400.000
G1 X3.334 Y9.666 F400.000
G1 X3.304 Y9.775 F400.000
G1 X3.257 Y9.884 F400.000
G1 X3.199 Y9.979 F400.000
G1 X3.128 Y10.069 F400.000
G1 X3.045 Y10.148 F400.000
G1 X2.953 Y10.216 F400.000
G1 X2.857 Y10.268 F400.000
G1 X2.752 Y10.310 F400.000
G1 X2.642 Y10.336 F400.000
G1 X2.531 Y10.347 F400.000
G1 X2.418 Y10.343 F400.000
G1 X2.308 Y10.325 F400.000
G1 X2.201 Y10.295 F400.000
G1 X2.092 Y10.246 F400.000
G1 X1.992 Y10.186 F400.000
G1 X1.904 Y10.111 F400.000
G1 X1.835 Y10.038 F400.000
G1 X1.767 Y9.944 F400.000
G1 X1.713 Y9.842 F400.000
G1 X1.672 Y9.734 F400.000
G1 X1.647 Y9.621 F400.000
G1 X1.638 Y9.518 F400.000
G1 X1.642 Y9.407 F400.000
G1 X1.660 Y9.293 F400.000
G1 X1.694 Y9.180 F400.000
G1 X1.743 Y9.077 F400.000
G1 X1.801 Y8.987 F400.000
G1 X1.874 Y8.901 F400.000
G1 X1.955 Y8.826 F400.000
G1 X2.053 Y8.756 F400.000
G1 X2.257 Y8.645 F400.000
G1 X2.426 Y8.591 F400.000
G1 X2.567 Y8.572 F400.000
G1 X2.707 Y8.580 F400.000
G1 X2.876 Y8.623 F400.000
G1 X3.086 Y8.737 F400.000
G1 X3.208 Y8.846 F400.000
G1 X3.263 Y8.908 F400.000
G1 X3.315 Y8.979 F400.000
G1 X3.373 Y9.084 F400.000
G1 X3.422 Y9.206 F400.000
G1 X3.452 Y9.330 F400.000
G1 X3.465 Y9.443 F400.000
G1 X3.463 Y9.555 F400.000
G1 X3.448 Y9.672 F400.000
G1 X3.417 Y9.788 F400.000
G1 X3.373 Y9.897 F400.000
G1 X3.313 Y10.009 F400.000
G1 X3.242 Y10.109 F400.000
G1 X3.159 Y10.199 F400.000
G1 X3.064 Y10.278 F400.000
G1 X2.968 Y10.340 F400.000
G1 X2.859 Y10.392 F400.000
G1 X2.745 Y10.430 F400.000
G1 X2.629 Y10.452 F400.000
G1 X2.516 Y10.460 F400.000
G1 X2.400 Y10.454 F400.000
G1 X2.274 Y10.433 F400.000
G1 X2.150 Y10.398 F400.000
G1 X2.036 Y10.345 F400.000
G1 X1.938 Y10.287 F400.000
G1 X1.842 Y10.212 F400.000
G1 X1.758 Y10.128 F400.000
G1 X1.685 Y10.034 F400.000
G1 X1.625 Y9.931 F400.000
G1 X1.576 Y9.822 F400.000
G1 X1.540 Y9.702 F400.000
G1 X1.520 Y9.582 F400.000
G1 X1.514 Y9.462 F400.000
G1 X1.523 Y9.340 F400.000
G1 X1.548 Y9.221 F400.000
G1 X1.589 Y9.107 F400.000
G1 X1.638 Y9.009 F400.000
G1 X1.700 Y8.910 F400.000
G1 X1.782 Y8.811 F400.000
G1 X1.874 Y8.720 F400.000
G1 X1.977 Y8.638 F400.000
G1 X2.096 Y8.565 F400.000
G1 X2.326 Y8.467 F400.000
G1 X2.495 Y8.435 F400.000
G1 X2.664 Y8.435 F400.000
G1 X2.720 Y8.443 F400.000
G1 X2.949 Y8.512 F400.000
G1 X3.124 Y8.608 F400.000
G1 X3.205 Y8.668 F400.000
G1 X3.274 Y8.730 F400.000
G1 X3.351 Y8.814 F400.000
G1 X3.433 Y8.932 F400.000
G1 X3.495 Y9.047 F400.000
G1 X3.540 Y9.167 F400.000
G1 X3.570 Y9.281 F400.000
G1 X3.587 Y9.407 F400.000
G1 X3.589 Y9.531 F400.000
G1 X3.576 Y9.655 F400.000
G1 X3.548 Y9.777 F400.000
G1 X3.507 Y9.895 F400.000
G1 X3.448 Y10.017 F400.000
G1 X3.379 Y10.126 F400.000
G1 X3.298 Y10.227 F400.000
G1 X3.205 Y10.319 F400.000
G1 X3.101 Y10.398 F400.000
G1 X2.996 Y10.460 F400.000
G1 X2.880 Y10.512 F400.000
G1 X2.760 Y10.550 F400.000
G1 X2.636 Y10.572 F400.000
G1 X2.510 Y10.580 F400.000
G1 X2.385 Y10.576 F400.000
G1 X2.248 Y10.553 F400.000
G1 X2.122 Y10.518 F400.000
G1 X2.000 Y10.465 F400.000
G1 X1.899 Y10.407 F400.000
G1 X1.797 Y10.334 F400.000
G1 X1.696 Y10.240 F400.000
G1 X1.614 Y10.146 F400.000
G1 X1.540 Y10.039 F400.000
G1 X1.480 Y9.923 F400.000
G1 X1.433 Y9.803 F400.000
G1 X1.403 Y9.675 F400.000
G1 X1.388 Y9.557 F400.000
G1 X1.386 Y9.433 F400.000
G1 X1.402 Y9.302 F400.000
G1 X1.430 Y9.180 F400.000
G1 X1.469 Y9.060 F400.000
G1 X1.529 Y8.934 F400.000
G1 X1.598 Y8.824 F400.000
G1 X1.679 Y8.720 F400.000
G1 X1.771 Y8.625 F400.000
G1 X1.884 Y8.531 F400.000
G1 X1.998 Y8.456 F400.000
G1 X2.120 Y8.392 F400.000
G1 X2.251 Y8.341 F400.000
G1 X2.386 Y8.310 F400.000
G1 X2.505 Y8.298 F400.000
G1 X2.615 Y8.298 F400.000
G1 X2.737 Y8.313 F400.000
G1 X2.863 Y8.341 F400.000
G1 X2.996 Y8.388 F400.000
G1 X3.122 Y8.448 F400.000
G1 X3.236 Y8.522 F400.000
G1 X3.332 Y8.598 F400.000
G1 X3.424 Y8.692 F400.000
G1 X3.505 Y8.794 F400.000
G1 X3.576 Y8.908 F400.000
G1 X3.634 Y9.028 F400.000
G1 X3.679 Y9.154 F400.000
G1 X3.709 Y9.285 F400.000
G1 X3.724 Y9.418 F400.000
G1 X3.724 Y9.552 F400.000
G1 X3.709 Y9.685 F400.000
G1 X3.679 Y9.816 F400.000
G1 X3.634 Y9.942 F400.000
G1 X3.580 Y10.054 F400.000
G1 X3.512 Y10.167 F400.000
G1 X3.422 Y10.283 F400.000
G1 X3.323 Y10.386 F400.000
G1 X3.214 Y10.477 F400.000
G1 X3.105 Y10.548 F400.000
G1 X2.983 Y10.610 F400.000
G1 X2.856 Y10.657 F400.000
G1 X2.724 Y10.690 F400.000
G1 X2.587 Y10.707 F400.000
G1 X2.463 Y10.709 F400.000
G1 X2.332 Y10.700 F400.000
G1 X2.191 Y10.672 F400.000
G1 X2.064 Y10.632 F400.000
G1 X1.938 Y10.578 F400.000
G1 X1.818 Y10.510 F400.000
G1 X1.700 Y10.426 F400.000
G1 X1.597 Y10.332 F400.000
G1 X1.510 Y10.235 F400.000
G1 X1.435 Y10.128 F400.000
G1 X1.371 Y10.009 F400.000
G1 X1.321 Y9.887 F400.000
G1 X1.285 Y9.760 F400.000
G1 X1.265 Y9.629 F400.000
G1 X1.255 Y9.497 F400.000
G1 X1.261 Y9.353 F400.000
G1 X1.281 Y9.210 F400.000
G1 X1.317 Y9.075 F400.000
G1 X1.364 Y8.949 F400.000
G1 X1.428 Y8.826 F400.000
G1 X1.501 Y8.709 F400.000
G1 X1.593 Y8.595 F400.000
G1 X1.692 Y8.495 F400.000
G1 X1.801 Y8.405 F400.000
G1 X1.927 Y8.321 F400.000
G1 X2.066 Y8.253 F400.000
G1 X2.182 Y8.208 F400.000
G1 X2.319 Y8.173 F400.000
G1 X2.456 Y8.154 F400.000
G1 X2.589 Y8.152 F400.000
G1 X2.709 Y8.161 F400.000
G1 X2.848 Y8.188 F400.000
G1 X2.985 Y8.229 F400.000
G1 X3.120 Y8.285 F400.000
G1 X3.246 Y8.353 F400.000
G1 X3.364 Y8.437 F400.000
G1 X3.462 Y8.522 F400.000
G1 X3.555 Y8.625 F400.000
G1 X3.638 Y8.735 F400.000
G1 X3.713 Y8.859 F400.000
G1 X3.771 Y8.987 F400.000
G1 X3.816 Y9.120 F400.000
G1 X3.846 Y9.259 F400.000
G1 X3.863 Y9.400 F400.000
G1 X3.865 Y9.540 F400.000
G1 X3.852 Y9.681 F400.000
G1 X3.824 Y9.820 F400.000
G1 X3.780 Y9.955 F400.000
G1 X3.724 Y10.084 F400.000
G1 X3.655 Y10.208 F400.000
G1 X3.572 Y10.325 F400.000
G1 X3.478 Y10.432 F400.000
G1 X3.373 Y10.527 F400.000
G1 X3.259 Y10.612 F400.000
G1 X3.135 Y10.685 F400.000
G1 X3.006 Y10.745 F400.000
G1 X2.871 Y10.792 F400.000
G1 X2.720 Y10.827 F400.000
G1 X2.574 Y10.846 F400.000
G1 X2.428 Y10.848 F400.000
G1 X2.298 Y10.837 F400.000
G1 X2.159 Y10.809 F400.000
G1 X2.024 Y10.769 F400.000
G1 X1.880 Y10.709 F400.000
G1 X1.752 Y10.640 F400.000
G1 X1.630 Y10.557 F400.000
G1 X1.518 Y10.460 F400.000
G1 X1.428 Y10.362 F400.000
G1 X1.353 Y10.261 F400.000
G1 X1.283 Y10.144 F400.000
G1 X1.221 Y10.013 F400.000
G1 X1.174 Y9.876 F400.000
G1 X1.143 Y9.737 F400.000
G1 X1.124 Y9.593 F400.000
G1 X1.118 Y9.450 F400.000
G1 X1.128 Y9.287 F400.000
G1 X1.152 Y9.131 F400.000
G1 X1.195 Y8.983 F400.000
G1 X1.244 Y8.861 F400.000
G1 X1.306 Y8.741 F400.000
G1 X1.385 Y8.615 F400.000
G1 X1.486 Y8.488 F400.000
G1 X1.589 Y8.381 F400.000
G1 X1.705 Y8.280 F400.000
G1 X1.835 Y8.193 F400.000
G1 X1.951 Y8.129 F400.000
G1 X2.086 Y8.073 F400.000
G1 X2.225 Y8.034 F400.000
G1 X2.362 Y8.009 F400.000
G1 X2.505 Y7.998 F400.000
G1 X2.645 Y8.000 F400.000
G1 X2.799 Y8.019 F400.000
G1 X3.105 Y8.103 F400.000
G1 X3.287 Y8.189 F400.000
G1 X3.497 Y8.340 F400.000
G1 X3.694 Y8.544 F400.000
G1 X3.818 Y8.735 F400.000
G1 X3.929 Y9.000 F400.000
G1 X3.957 Y9.113 F400.000
G1 X4.002 Y9.347 F400.000
G1 X4.009 Y9.585 F400.000
G1 X3.989 Y9.730 F400.000
G1 X3.953 Y9.889 F400.000
G1 X3.886 Y10.081 F400.000
G1 X3.812 Y10.225 F400.000
G1 X3.743 Y10.332 F400.000
G1 X3.664 Y10.435 F400.000
G1 X3.553 Y10.555 F400.000
G1 X3.433 Y10.660 F400.000
G1 X3.311 Y10.749 F400.000
G1 X3.174 Y10.829 F400.000
G1 X3.030 Y10.891 F400.000
G1 X2.902 Y10.932 F400.000
G1 X2.758 Y10.966 F400.000
G1 X2.604 Y10.987 F400.000
G1 X2.433 Y10.992 F400.000
G1 X2.278 Y10.979 F400.000
G1 X2.141 Y10.957 F400.000
G1 X1.991 Y10.916 F400.000
G1 X1.852 Y10.861 F400.000
G1 X1.720 Y10.795 F400.000
G1 X1.492 Y10.629 F400.000
G1 X1.319 Y10.445 F400.000
G1 X1.148 Y10.193 F400.000
G1 X1.083 Y10.015 F400.000
G1 X1.009 Y9.784 F400.000
G1 X0.994 Y9.634 F400.000
G1 X0.977 Y9.394 F400.000
G1 X1.006 Y9.184 F400.000
G1 X1.090 Y8.887 F400.000
G1 X1.201 Y8.640 F400.000
G1 X1.386 Y8.362 F400.000
G1 X1.570 Y8.167 F400.000
G1 X1.735 Y8.041 F400.000
G1 X1.917 Y7.942 F400.000
G1 X2.197 Y7.846 F400.000
G1 X2.450 Y7.809 F400.000
G1 X2.816 Y7.831 F400.000
G1 X3.148 Y7.925 F400.000
G1 X3.428 Y8.069 F400.000
G1 X3.632 Y8.229 F400.000
G1 X3.841 Y8.467 F400.000
G1 X3.987 Y8.717 F400.000
G1 X4.069 Y8.929 F400.000
G1 X4.137 Y9.210 F400.000
G1 X4.150 Y9.492 F400.000
G1 X4.111 Y9.801 F400.000
G1 X3.985 Y10.161 F400.000
G1 X3.816 Y10.439 F400.000
G1 X3.617 Y10.660 F400.000
G1 X3.403 Y10.829 F400.000
G1 X3.246 Y10.925 F400.000
G1 X2.932 Y11.047 F400.000
G1 X2.602 Y11.107 F400.000
G1 X2.272 Y11.105 F400.000
G1 X2.062 Y11.075 F400.000
G1 X1.795 Y10.989 F400.000
G1 X1.629 Y10.904 F400.000
G1 X1.400 Y10.737 F400.000
G1 X1.227 Y10.555 F400.000
G1 X1.047 Y10.265 F400.000
G1 X0.974 Y10.094 F400.000
G1 X0.874 Y9.704 F400.000
G1 X0.856 Y9.433 F400.000
G1 X0.874 Y9.193 F400.000
G1 X0.991 Y8.749 F400.000
G1 X1.150 Y8.422 F400.000
G1 X1.345 Y8.154 F400.000
G1 X1.559 Y7.947 F400.000
G1 X1.809 Y7.784 F400.000
G1 X1.942 Y7.722 F400.000
G1 X2.139 Y7.660 F400.000
G1 X2.364 Y7.617 F400.000
G1 X2.617 Y7.615 F400.000
G1 X2.871 Y7.651 F400.000
G1 X3.124 Y7.719 F400.000
G1 X3.460 Y7.876 F400.000
G1 X3.696 Y8.045 F400.000
G1 X3.861 Y8.206 F400.000
G1 X4.004 Y8.390 F400.000
G1 X4.129 Y8.615 F400.000
G1 X4.212 Y8.831 F400.000
G1 X4.291 Y9.225 F400.000
G1 X4.300 Y9.450 F400.000
G1 X4.280 Y9.675 F400.000
G1 X4.191 Y10.013 F400.000
G1 X4.071 Y10.281 F400.000
G1 X3.908 Y10.531 F400.000
G1 X3.664 Y10.790 F400.000
G1 X3.448 Y10.953 F400.000
G1 X3.206 Y11.081 F400.000
G1 X2.979 Y11.163 F400.000
G1 X2.589 Y11.236 F400.000
G1 X2.379 Y11.246 F400.000
G1 X2.139 Y11.229 F400.000
G1 X1.929 Y11.186 F400.000
G1 X1.638 Y11.073 F400.000
G1 X1.398 Y10.925 F400.000
G1 X1.214 Y10.756 F400.000
G1 X1.096 Y10.608 F400.000
G1 X0.949 Y10.366 F400.000
G1 X0.852 Y10.137 F400.000
G1 X0.752 Y9.747 F400.000
G1 X0.730 Y9.326 F400.000
G1 X0.779 Y8.966 F400.000
G1 X0.912 Y8.559 F400.000
G1 X1.041 Y8.317 F400.000
G1 X1.195 Y8.137 F400.000
G1 X1.355 Y8.000 F400.000
G1 X1.402 Y7.964 F400.000
G1 X1.402 Y7.964 F400.000
G1 X1.428 Y7.947 F400.000
G0 Z7.000
G0 X1.428 Y7.947
G0 X1.405 Y7.962
G1 Z-6.000 F400.000
G1 X1.405 Y7.962 F400.000
G1 X1.432 Y7.944 F400.000
G1 X1.432 Y7.944 F400.000
G1 X1.636 Y7.822 F400.000
G1 X1.636 Y7.822 F400.000
G1 X1.709 Y7.807 F400.000
G1 X1.737 Y7.809 F400.000
G0 X1.752 Y7.811
G0 X3.756 Y8.229
G1 X3.775 Y8.233 F400.000
G1 X3.901 Y8.266 F400.000
G1 X3.966 Y8.315 F400.000
G1 X3.966 Y8.315 F400.000
G1 X4.114 Y8.525 F400.000
G1 X4.233 Y8.758 F400.000
G1 X4.310 Y8.972 F400.000
G1 X4.371 Y9.253 F400.000
G1 X4.385 Y9.563 F400.000
G1 X4.368 Y9.760 F400.000
G1 X4.274 Y10.126 F400.000
G1 X4.090 Y10.490 F400.000
G1 X3.865 Y10.767 F400.000
G1 X3.621 Y10.983 F400.000
G1 X3.364 Y11.143 F400.000
G1 X2.994 Y11.289 F400.000
G1 X2.754 Y11.343 F400.000
G1 X2.484 Y11.371 F400.000
G1 X2.184 Y11.358 F400.000
G1 X1.884 Y11.281 F400.000
G1 X1.568 Y11.139 F400.000
G1 X1.437 Y11.058 F400.000
G1 X1.174 Y10.841 F400.000
G1 X1.008 Y10.651 F400.000
G1 X0.886 Y10.471 F400.000
G1 X0.715 Y10.107 F400.000
G1 X0.651 Y9.867 F400.000
G1 X0.617 Y9.627 F400.000
G1 X0.617 Y9.386 F400.000
G1 X0.655 Y9.116 F400.000
G1 X0.720 Y8.876 F400.000
G1 X0.831 Y8.623 F400.000
G1 X0.974 Y8.392 F400.000
G1 X0.974 Y8.392 F400.000
G1 X1.034 Y8.341 F400.000
G1 X1.060 Y8.332 F400.000
G0 X1.075 Y8.332
G0 X1.126 Y8.356
G0 X4.030 Y10.317
G1 X4.051 Y10.330 F400.000
G1 X4.105 Y10.371 F400.000
G1 X4.116 Y10.398 F400.000
G1 X4.116 Y10.443 F400.000
G1 X4.096 Y10.503 F400.000
G1 X4.096 Y10.503 F400.000
G1 X3.977 Y10.672 F400.000
G1 X3.792 Y10.872 F400.000
G1 X3.657 Y10.989 F400.000
G1 X3.430 Y11.139 F400.000
G1 X3.096 Y11.289 F400.000
G1 X2.827 Y11.355 F400.000
G1 X2.617 Y11.383 F400.000
G1 X2.437 Y11.385 F400.000
G1 X2.437 Y11.385 F400.000
G1 X2.373 Y11.368 F400.000
G1 X2.336 Y11.343 F400.000
G0 X2.328 Y11.330
G0 X2.315 Y11.274
G0 X2.071 Y7.799
G1 X2.069 Y7.773 F400.000
G1 X2.069 Y7.715 F400.000
G1 X2.081 Y7.687 F400.000
G1 X2.113 Y7.655 F400.000
G1 X2.171 Y7.630 F400.000
G1 X2.171 Y7.630 F400.000
G1 X2.341 Y7.604 F400.000
G1 X2.495 Y7.598 F400.000
G1 X2.644 Y7.604 F400.000
G1 X2.811 Y7.627 F400.000
G1 X2.904 Y7.645 F400.000
G1 X3.090 Y7.694 F400.000
G1 X3.293 Y7.777 F400.000
G1 X3.405 Y7.831 F400.000
G1 X3.531 Y7.902 F400.000
G1 X3.615 Y7.961 F400.000
G1 X3.677 Y8.009 F400.000
G1 X3.876 Y8.193 F400.000
G1 X4.009 Y8.349 F400.000
G1 X4.075 Y8.441 F400.000
G1 X4.128 Y8.523 F400.000
G1 X4.233 Y8.726 F400.000
G1 X4.306 Y8.910 F400.000
G1 X4.379 Y9.218 F400.000
G1 X4.394 Y9.341 F400.000
G1 X4.398 Y9.503 F400.000
G1 X4.394 Y9.644 F400.000
G1 X4.371 Y9.811 F400.000
G1 X4.355 Y9.897 F400.000
G1 X4.304 Y10.090 F400.000
G1 X4.221 Y10.293 F400.000
G1 X4.165 Y10.407 F400.000
G1 X4.096 Y10.531 F400.000
G1 X3.989 Y10.677 F400.000
G1 X3.805 Y10.876 F400.000
G1 X3.651 Y11.008 F400.000
G1 X3.567 Y11.069 F400.000
G1 X3.475 Y11.128 F400.000
G1 X3.317 Y11.212 F400.000
G1 X3.088 Y11.306 F400.000
G1 X2.827 Y11.368 F400.000
G1 X2.657 Y11.394 F400.000
G1 X2.443 Y11.398 F400.000
G1 X2.356 Y11.394 F400.000
G1 X2.188 Y11.371 F400.000
G1 X2.094 Y11.353 F400.000
G1 X1.908 Y11.304 F400.000
G1 X1.705 Y11.221 F400.000
G1 X1.591 Y11.165 F400.000
G1 X1.467 Y11.096 F400.000
G1 X1.323 Y10.991 F400.000
G1 X1.163 Y10.846 F400.000
G1 X1.098 Y10.779 F400.000
G1 X1.008 Y10.672 F400.000
G1 X0.927 Y10.561 F400.000
G1 X0.872 Y10.475 F400.000
G1 X0.788 Y10.317 F400.000
G1 X0.694 Y10.088 F400.000
G1 X0.675 Y10.023 F400.000
G1 X0.629 Y9.812 F400.000
G1 X0.604 Y9.623 F400.000
G1 X0.602 Y9.430 F400.000
G1 X0.606 Y9.356 F400.000
G1 X0.629 Y9.188 F400.000
G1 X0.647 Y9.094 F400.000
G1 X0.696 Y8.908 F400.000
G1 X0.780 Y8.700 F400.000
G1 X0.837 Y8.585 F400.000
G1 X0.899 Y8.480 F400.000
G1 X0.974 Y8.371 F400.000
G1 X1.043 Y8.283 F400.000
G1 X1.143 Y8.171 F400.000
G1 X1.210 Y8.105 F400.000
G1 X1.340 Y7.994 F400.000
G1 X1.523 Y7.871 F400.000
G1 X1.681 Y7.786 F400.000
G1 X1.910 Y7.692 F400.000
G1 X1.976 Y7.674 F400.000
G1 X2.171 Y7.630 F400.000
G1 X2.171 Y7.630 F400.000
G0 Z7.000
(Helix to depth: -6.000000)
G0 Z7.000
G0 X2.965 Y-10.072 Z7.000
G0 X2.965 Y-10.072 Z5.000
G1 X2.965 Y-10.072 Z-4.000 F400.000
G1 X2.965 Y-10.072 Z-4.000 F400.000
G1 X3.068 Y-9.971 Z-4.013 F400.000
G1 X3.149 Y-9.851 Z-4.026 F400.000
G1 X3.205 Y-9.717 Z-4.039 F400.000
G1 X3.234 Y-9.575 Z-4.051 F400.000
G1 X3.234 Y-9.430 Z-4.064 F400.000
G1 X3.207 Y-9.288 Z-4.077 F400.000
G1 X3.152 Y-9.154 Z-4.090 F400.000
G1 X3.072 Y-9.033 Z-4.103 F400.000
G1 X2.971 Y-8.931 Z-4.116 F400.000
G1 X2.851 Y-8.849 Z-4.129 F400.000
G1 X2.717 Y-8.793 Z-4.141 F400.000
G1 X2.575 Y-8.764 Z-4.154 F400.000
G1 X2.430 Y-8.764 Z-4.167 F400.000
G1 X2.288 Y-8.791 Z-4.180 F400.000
G1 X2.154 Y-8.846 Z-4.193 F400.000
G1 X2.033 Y-8.926 Z-4.206 F400.000
G1 X1.931 Y-9.028 Z-4.219 F400.000
G1 X1.849 Y-9.148 Z-4.231 F400.000
G1 X1.793 Y-9.281 Z-4.244 F400.000
G1 X1.764 Y-9.423 Z-4.257 F400.000
G1 X1.764 Y-9.568 Z-4.270 F400.000
G1 X1.791 Y-9.710 Z-4.283 F400.000
G1 X1.846 Y-9.844 Z-4.296 F400.000
G1 X1.926 Y-9.965 Z-4.309 F400.000
G1 X2.028 Y-10.068 Z-4.321 F400.000
G1 X2.148 Y-10.149 Z-4.334 F400.000
G1 X2.281 Y-10.205 Z-4.347 F400.000
G1 X2.423 Y-10.234 Z-4.360 F400.000
G1 X2.568 Y-10.234 Z-4.373 F400.000
G1 X2.710 Y-10.207 Z-4.386 F400.000
G1 X2.844 Y-10.152 Z-4.399 F400.000
G1 X2.965 Y-10.072 Z-4.412 F400.000
G1 X3.068 Y-9.971 Z-4.424 F400.000
G1 X3.149 Y-9.851 Z-4.437 F400.000
G1 X3.205 Y-9.717 Z-4.450 F400.000
G1 X3.234 Y-9.575 Z-4.463 F400.000
G1 X3.234 Y-9.430 Z-4.476 F400.000
G1 X3.207 Y-9.288 Z-4.489 F400.000
G1 X3.152 Y-9.154 Z-4.502 F400.000
G1 X3.072 Y-9.033 Z-4.514 F400.000
G1 X2.971 Y-8.931 Z-4.527 F400.000
G1 X2.851 Y-8.849 Z-4.540 F400.000
G1 X2.717 Y-8.793 Z-4.553 F400.000
G1 X2.575 Y-8.764 Z-4.566 F400.000
G1 X2.430 Y-8.764 Z-4.579 F400.000
G1 X2.288 Y-8.791 Z-4.592 F400.000
G1 X2.154 Y-8.846 Z-4.604 F400.000
G1 X2.033 Y-8.926 Z-4.617 F400.000
G1 X1.931 Y-9.028 Z-4.630 F400.000
G1 X1.849 Y-9.148 Z-4.643 F400.000
G1 X1.793 Y-9.281 Z-4.656 F400.000
G1 X1.764 Y-9.423 Z-4.669 F400.000
G1 X1.764 Y-9.568 Z-4.682 F400.000
G1 X1.791 Y-9.710 Z-4.694 F400.000
G1 X1.846 Y-9.844 Z-4.707 F400.000
G1 X1.926 Y-9.965 Z-4.720 F400.000
G1 X2.028 Y-10.068 Z-4.733 F400.000
G1 X2.148 Y-10.149 Z-4.746 F400.000
G1 X2.281 Y-10.205 Z-4.759 F400.000
G1 X2.423 Y-10.234 Z-4.772 F400.000
G1 X2.568 Y-10.234 Z-4.784 F400.000
G1 X2.710 Y-10.207 Z-4.797 F400.000
G1 X2.844 Y-10.152 Z-4.810 F400.000
G1 X2.965 Y-10.072 Z-4.823 F400.000
G1 X3.068 Y-9.971 Z-4.836 F400.000
G1 X3.149 Y-9.851 Z-4.849 F400.000
G1 X3.205 Y-9.717 Z-4.862 F400.000
G1 X3.234 Y-9.575 Z-4.874 F400.000
G1 X3.234 Y-9.430 Z-4.887 F400.000
G1 X3.207 Y-9.288 Z-4.900 F400.000
G1 X3.152 Y-9.154 Z-4.913 F400.000
G1 X3.072 Y-9.033 Z-4.926 F400.000
G1 X2.971 Y-8.931 Z-4.939 F400.000
G1 X2.851 Y-8.849 Z-4.952 F400.000
G1 X2.717 Y-8.793 Z-4.964 F400.000
G1 X2.575 Y-8.764 Z-4.977 F400.000
G1 X2.430 Y-8.764 Z-4.990 F400.000
G1 X2.288 Y-8.791 Z-5.003 F400.000
G1 X2.154 Y-8.846 Z-5.016 F400.000
G1 X2.033 Y-8.926 Z-5.029 F400.000
G1 X1.931 Y-9.028 Z-5.042 F400.000
G1 X1.849 Y-9.148 Z-5.054 F400.000
G1 X1.793 Y-9.281 Z-5.067 F400.000
G1 X1.764 Y-9.423 Z-5.080 F400.000
G1 X1.764 Y-9.568 Z-5.093 F400.000
G1 X1.791 Y-9.710 Z-5.106 F400.000
G1 X1.846 Y-9.844 Z-5.119 F400.000
G1 X1.926 Y-9.965 Z-5.132 F400.000
G1 X2.028 Y-10.068 Z-5.145 F400.000
G1 X2.148 Y-10.149 Z-5.157 F400.000
G1 X2.281 Y-10.205 Z-5.170 F400.000
G1 X2.423 Y-10.234 Z-5.183 F400.000
G1 X2.568 Y-10.234 Z-5.196 F400.000
G1 X2.710 Y-10.207 Z-5.209 F400.000
G1 X2.844 Y-10.152 Z-5.222 F400.000
G1 X2.965 Y-10.072 Z-5.235 F400.000
G1 X3.068 Y-9.971 Z-5.247 F400.000
G1 X3.149 Y-9.851 Z-5.260 F400.000
G1 X3.205 Y-9.717 Z-5.273 F400.000
G1 X3.234 Y-9.575 Z-5.286 F400.000
G1 X3.234 Y-9.430 Z-5.299 F400.000
G1 X3.207 Y-9.288 Z-5.312 F400.000
G1 X3.152 Y-9.154 Z-5.325 F400.000
G1 X3.072 Y-9.033 Z-5.337 F400.000
G1 X2.971 Y-8.931 Z-5.350 F400.000
G1 X2.851 Y-8.849 Z-5.363 F400.000
G1 X2.717 Y-8.793 Z-5.376 F400.000
G1 X2.575 Y-8.764 Z-5.389 F400.000
G1 X2.430 Y-8.764 Z-5.402 F400.000
G1 X2.288 Y-8.791 Z-5.415 F400.000
G1 X2.154 Y-8.846 Z-5.427 F400.000
G1 X2.033 Y-8.926 Z-5.440 F400.000
G1 X1.931 Y-9.028 Z-5.453 F400.000
G1 X1.849 Y-9.148 Z-5.466 F400.000
G1 X1.793 Y-9.281 Z-5.479 F400.000
G1 X1.764 Y-9.423 Z-5.492 F400.000
G1 X1.764 Y-9.568 Z-5.505 F400.000
G1 X1.791 Y-9.710 Z-5.517 F400.000
G1 X1.846 Y-9.844 Z-5.530 F400.000
G1 X1.926 Y-9.965 Z-5.543 F400.000
G1 X2.028 Y-10.068 Z-5.556 F400.000
G1 X2.148 Y-10.149 Z-5.569 F400.000
G1 X2.281 Y-10.205 Z-5.582 F400.000
G1 X2.423 Y-10.234 Z-5.595 F400.000
G1 X2.568 Y-10.234 Z-5.607 F400.000
G1 X2.710 Y-10.207 Z-5.620 F400.000
G1 X2.844 Y-10.152 Z-5.633 F400.000
G1 X2.965 Y-10.072 Z-5.646 F400.000
G1 X3.068 Y-9.971 Z-5.659 F400.000
G1 X3.149 Y-9.851 Z-5.672 F400.000
G1 X3.205 Y-9.717 Z-5.685 F400.000
G1 X3.234 Y-9.575 Z-5.697 F400.000
G1 X3.234 Y-9.430 Z-5.710 F400.000
G1 X3.207 Y-9.288 Z-5.723 F400.000
G1 X3.152 Y-9.154 Z-5.736 F400.000
G1 X3.072 Y-9.033 Z-5.749 F400.000
G1 X2.971 Y-8.931 Z-5.762 F400.000
G1 X2.851 Y-8.849 Z-5.775 F400.000
G1 X2.717 Y-8.793 Z-5.787 F400.000
G1 X2.575 Y-8.764 Z-5.800 F400.000
G1 X2.430 Y-8.764 Z-5.813 F400.000
G1 X2.288 Y-8.791 Z-5.826 F400.000
G1 X2.154 Y-8.846 Z-5.839 F400.000
G1 X2.033 Y-8.926 Z-5.852 F400.000
G1 X1.931 Y-9.028 Z-5.865 F400.000
G1 X1.849 Y-9.148 Z-5.878 F400.000
G1 X1.793 Y-9.281 Z-5.890 F400.000
G1 X1.764 Y-9.423 Z-5.903 F400.000
G1 X1.764 Y-9.568 Z-5.916 F400.000
G1 X1.791 Y-9.710 Z-5.929 F400.000
G1 X1.846 Y-9.844 Z-5.942 F400.000
G1 X1.926 Y-9.965 Z-5.955 F400.000
G1 X2.028 Y-10.068 Z-5.968 F400.000
G1 X2.148 Y-10.149 Z-5.980 F400.000
G1 X2.281 Y-10.205 Z-5.993 F400.000
G1 X2.423 Y-10.234 Z-6.000 F400.000
G1 X2.568 Y-10.234 Z-6.000 F400.000
G1 X2.710 Y-10.207 Z-6.000 F400.000
G1 X2.844 Y-10.152 Z-6.000 F400.000
G1 X2.965 Y-10.072 Z-6.000 F400.000
G1 X3.068 Y-9.971 Z-6.000 F400.000
G1 X3.149 Y-9.851 Z-6.000 F400.000
G1 X3.205 Y-9.717 Z-6.000 F400.000
G1 X3.234 Y-9.575 Z-6.000 F400.000
G1 X3.234 Y-9.430 Z-6.000 F400.000
G1 X3.207 Y-9.288 Z-6.000 F400.000
G1 X3.152 Y-9.154 Z-6.000 F400.000
G1 X3.072 Y-9.033 Z-6.000 F400.000
G1 X2.971 Y-8.931 Z-6.000 F400.000
G1 X2.851 Y-8.849 Z-6.000 F400.000
G1 X2.717 Y-8.793 Z-6.000 F400.000
G1 X2.575 Y-8.764 Z-6.000 F400.000
G1 X2.430 Y-8.764 Z-6.000 F400.000
G1 X2.288 Y-8.791 Z-6.000 F400.000
G1 X2.154 Y-8.846 Z-6.000 F400.000
G1 X2.033 Y-8.926 Z-6.000 F400.000
G1 X1.931 Y-9.028 Z-6.000 F400.000
G1 X1.849 Y-9.148 Z-6.000 F400.000
G1 X1.793 Y-9.281 Z-6.000 F400.000
G1 X1.764 Y-9.423 Z-6.000 F400.000
G1 X1.764 Y-9.568 Z-6.000 F400.000
G1 X1.791 Y-9.710 Z-6.000 F400.000
G1 X1.846 Y-9.844 Z-6.000 F400.000
G1 X1.926 Y-9.965 Z-6.000 F400.000
G1 X2.028 Y-10.068 Z-6.000 F400.000
G1 X2.148 Y-10.149 Z-6.000 F400.000
G1 X2.281 Y-10.205 Z-6.000 F400.000
(Adaptive - depth: -6.000000)
G1 X2.499 Y-10.248 F400.000
G1 X2.523 Y-10.263 F400.000
G1 X2.580 Y-10.276 F400.000
G1 X2.664 Y-10.276 F400.000
G1 X2.749 Y-10.265 F400.000
G1 X2.887 Y-10.218 F400.000
G1 X3.092 Y-10.092 F400.000
G1 X3.186 Y-9.987 F400.000
G1 X3.225 Y-9.927 F400.000
G1 X3.259 Y-9.861 F400.000
G1 X3.300 Y-9.762 F400.000
G1 X3.336 Y-9.627 F400.000
G1 X3.347 Y-9.501 F400.000
G1 X3.341 Y-9.396 F400.000
G1 X3.325 Y-9.295 F400.000
G1 X3.291 Y-9.189 F400.000
G1 X3.244 Y-9.088 F400.000
G1 X3.182 Y-8.992 F400.000
G1 X3.111 Y-8.906 F400.000
G1 X3.026 Y-8.829 F400.000
G1 X2.932 Y-8.764 F400.000
G1 X2.831 Y-8.711 F400.000
G1 X2.724 Y-8.674 F400.000
G1 X2.614 Y-8.649 F400.000
G1 X2.501 Y-8.640 F400.000
G1 X2.388 Y-8.645 F400.000
G1 X2.278 Y-8.666 F400.000
G1 X2.171 Y-8.702 F400.000
G1 X2.069 Y-8.750 F400.000
G1 X1.976 Y-8.812 F400.000
G1 X1.891 Y-8.886 F400.000
G1 X1.816 Y-8.970 F400.000
G1 X1.752 Y-9.062 F400.000
G1 X1.700 Y-9.167 F400.000
G1 X1.662 Y-9.274 F400.000
G1 X1.640 Y-9.385 F400.000
G1 X1.632 Y-9.492 F400.000
G1 X1.640 Y-9.602 F400.000
G1 X1.660 Y-9.711 F400.000
G1 X1.696 Y-9.820 F400.000
G1 X1.747 Y-9.925 F400.000
G1 X1.809 Y-10.021 F400.000
G1 X1.886 Y-10.107 F400.000
G1 X1.966 Y-10.178 F400.000
G1 X2.058 Y-10.240 F400.000
G1 X2.208 Y-10.315 F400.000
G1 X2.373 Y-10.360 F400.000
G1 X2.570 Y-10.385 F400.000
G1 X2.683 Y-10.379 F400.000
G1 X2.852 Y-10.336 F400.000
G1 X3.096 Y-10.220 F400.000
G1 X3.229 Y-10.096 F400.000
G1 X3.319 Y-9.972 F400.000
G1 X3.368 Y-9.878 F400.000
G1 X3.417 Y-9.749 F400.000
G1 X3.447 Y-9.612 F400.000
G1 X3.456 Y-9.497 F400.000
G1 X3.452 Y-9.390 F400.000
G1 X3.432 Y-9.272 F400.000
G1 X3.398 Y-9.163 F400.000
G1 X3.353 Y-9.058 F400.000
G1 X3.289 Y-8.949 F400.000
G1 X3.212 Y-8.848 F400.000
G1 X3.126 Y-8.762 F400.000
G1 X3.034 Y-8.689 F400.000
G1 X2.929 Y-8.625 F400.000
G1 X2.818 Y-8.576 F400.000
G1 X2.704 Y-8.542 F400.000
G1 X2.589 Y-8.523 F400.000
G1 X2.471 Y-8.518 F400.000
G1 X2.347 Y-8.527 F400.000
G1 X2.231 Y-8.552 F400.000
G1 X2.116 Y-8.589 F400.000
G1 X2.008 Y-8.642 F400.000
G1 X1.906 Y-8.707 F400.000
G1 X1.814 Y-8.784 F400.000
G1 X1.732 Y-8.872 F400.000
G1 X1.660 Y-8.970 F400.000
G1 X1.602 Y-9.075 F400.000
G1 X1.557 Y-9.186 F400.000
G1 X1.527 Y-9.302 F400.000
G1 X1.510 Y-9.420 F400.000
G1 X1.508 Y-9.544 F400.000
G1 X1.522 Y-9.664 F400.000
G1 X1.550 Y-9.784 F400.000
G1 X1.591 Y-9.899 F400.000
G1 X1.647 Y-10.008 F400.000
G1 X1.719 Y-10.107 F400.000
G1 X1.790 Y-10.186 F400.000
G1 X1.876 Y-10.265 F400.000
G1 X1.983 Y-10.341 F400.000
G1 X2.105 Y-10.407 F400.000
G1 X2.223 Y-10.456 F400.000
G1 X2.364 Y-10.486 F400.000
G1 X2.589 Y-10.499 F400.000
G1 X2.786 Y-10.471 F400.000
G1 X3.039 Y-10.383 F400.000
G1 X3.182 Y-10.293 F400.000
G1 X3.250 Y-10.233 F400.000
G1 X3.308 Y-10.171 F400.000
G1 X3.381 Y-10.079 F400.000
G1 X3.458 Y-9.949 F400.000
G1 X3.512 Y-9.829 F400.000
G1 X3.550 Y-9.704 F400.000
G1 X3.567 Y-9.585 F400.000
G1 X3.572 Y-9.475 F400.000
G1 X3.563 Y-9.349 F400.000
G1 X3.540 Y-9.223 F400.000
G1 X3.501 Y-9.096 F400.000
G1 X3.450 Y-8.977 F400.000
G1 X3.385 Y-8.865 F400.000
G1 X3.304 Y-8.762 F400.000
G1 X3.220 Y-8.674 F400.000
G1 X3.122 Y-8.593 F400.000
G1 X3.017 Y-8.527 F400.000
G1 X2.904 Y-8.473 F400.000
G1 X2.786 Y-8.432 F400.000
G1 X2.655 Y-8.403 F400.000
G1 X2.529 Y-8.390 F400.000
G1 X2.402 Y-8.392 F400.000
G1 X2.272 Y-8.409 F400.000
G1 X2.148 Y-8.439 F400.000
G1 X2.028 Y-8.484 F400.000
G1 X1.914 Y-8.542 F400.000
G1 X1.807 Y-8.614 F400.000
G1 X1.709 Y-8.696 F400.000
G1 X1.623 Y-8.790 F400.000
G1 X1.548 Y-8.893 F400.000
G1 X1.486 Y-9.004 F400.000
G1 X1.437 Y-9.120 F400.000
G1 X1.402 Y-9.242 F400.000
G1 X1.381 Y-9.368 F400.000
G1 X1.375 Y-9.493 F400.000
G1 X1.383 Y-9.619 F400.000
G1 X1.407 Y-9.752 F400.000
G1 X1.445 Y-9.876 F400.000
G1 X1.495 Y-9.996 F400.000
G1 X1.561 Y-10.111 F400.000
G1 X1.638 Y-10.216 F400.000
