(Exported by FreeCAD)
(Post Processor: script_module)
(Output Time:2024-12-08 20:26:29.887251)
(Begin preamble)
G17 G90
G21
(Block-name: Fixture)
(Block-expand: 0)
(Block-enable: 1)
(Begin operation: Fixture)
(Path: Fixture)
G54
(Finish operation: Fixture)
(Block-name: 3mm Endmill001)
(Block-expand: 0)
(Block-enable: 1)
(Begin operation: 3mm Endmill001)
(Path: 3mm Endmill001)
(3mm Endmill001)
(Begin toolchange)
( M6 T2 )
M3 S10000
(Finish operation: 3mm Endmill001)
(Block-name: MillFaceAdaptive)
(Block-expand: 0)
(Block-enable: 1)
(Begin operation: MillFaceAdaptive)
(Path: MillFaceAdaptive)
(MillFaceAdaptive)
(Helix to depth: 0.000000)
G0 Z7.000
G0 X0.466 Y-0.573 Z7.000
G0 X0.466 Y-0.573 Z5.000
G1 X0.466 Y-0.573 Z2.000 F400.000
G1 X0.466 Y-0.573 Z2.000 F400.000
G1 X0.569 Y-0.471 Z1.987 F400.000
G1 X0.650 Y-0.351 Z1.974 F400.000
G1 X0.706 Y-0.218 Z1.961 F400.000
G1 X0.735 Y-0.076 Z1.949 F400.000
G1 X0.735 Y0.069 Z1.936 F400.000
G1 X0.708 Y0.211 Z1.923 F400.000
G1 X0.653 Y0.345 Z1.910 F400.000
G1 X0.573 Y0.466 Z1.897 F400.000
G1 X0.471 Y0.569 Z1.884 F400.000
G1 X0.351 Y0.650 Z1.871 F400.000
G1 X0.218 Y0.706 Z1.859 F400.000
G1 X0.076 Y0.735 Z1.846 F400.000
G1 X-0.069 Y0.735 Z1.833 F400.000
G1 X-0.211 Y0.708 Z1.820 F400.000
G1 X-0.345 Y0.653 Z1.807 F400.000
G1 X-0.466 Y0.573 Z1.794 F400.000
G1 X-0.569 Y0.471 Z1.781 F400.000
G1 X-0.650 Y0.351 Z1.769 F400.000
G1 X-0.706 Y0.218 Z1.756 F400.000
G1 X-0.735 Y0.076 Z1.743 F400.000
G1 X-0.735 Y-0.069 Z1.730 F400.000
G1 X-0.708 Y-0.211 Z1.717 F400.000
G1 X-0.653 Y-0.345 Z1.704 F400.000
G1 X-0.573 Y-0.466 Z1.691 F400.000
G1 X-0.471 Y-0.569 Z1.679 F400.000
G1 X-0.351 Y-0.650 Z1.666 F400.000
G1 X-0.218 Y-0.706 Z1.653 F400.000
G1 X-0.076 Y-0.735 Z1.640 F400.000
G1 X0.069 Y-0.735 Z1.627 F400.000
G1 X0.211 Y-0.708 Z1.614 F400.000
G1 X0.345 Y-0.653 Z1.601 F400.000
G1 X0.466 Y-0.573 Z1.588 F400.000
G1 X0.569 Y-0.471 Z1.576 F400.000
G1 X0.650 Y-0.351 Z1.563 F400.000
G1 X0.706 Y-0.218 Z1.550 F400.000
G1 X0.735 Y-0.076 Z1.537 F400.000
G1 X0.735 Y0.069 Z1.524 F400.000
G1 X0.708 Y0.211 Z1.511 F400.000
G1 X0.653 Y0.345 Z1.498 F400.000
G1 X0.573 Y0.466 Z1.486 F400.000
G1 X0.471 Y0.569 Z1.473 F400.000
G1 X0.351 Y0.650 Z1.460 F400.000
G1 X0.218 Y0.706 Z1.447 F400.000
G1 X0.076 Y0.735 Z1.434 F400.000
G1 X-0.069 Y0.735 Z1.421 F400.000
G1 X-0.211 Y0.708 Z1.408 F400.000
G1 X-0.345 Y0.653 Z1.396 F400.000
G1 X-0.466 Y0.573 Z1.383 F400.000
G1 X-0.569 Y0.471 Z1.370 F400.000
G1 X-0.650 Y0.351 Z1.357 F400.000
G1 X-0.706 Y0.218 Z1.344 F400.000
G1 X-0.735 Y0.076 Z1.331 F400.000
G1 X-0.735 Y-0.069 Z1.318 F400.000
G1 X-0.708 Y-0.211 Z1.306 F400.000
G1 X-0.653 Y-0.345 Z1.293 F400.000
G1 X-0.573 Y-0.466 Z1.280 F400.000
G1 X-0.471 Y-0.569 Z1.267 F400.000
G1 X-0.351 Y-0.650 Z1.254 F400.000
G1 X-0.218 Y-0.706 Z1.241 F400.000
G1 X-0.076 Y-0.735 Z1.228 F400.000
G1 X0.069 Y-0.735 Z1.216 F400.000
G1 X0.211 Y-0.708 Z1.203 F400.000
G1 X0.345 Y-0.653 Z1.190 F400.000
G1 X0.466 Y-0.573 Z1.177 F400.000
G1 X0.569 Y-0.471 Z1.164 F400.000
G1 X0.650 Y-0.351 Z1.151 F400.000
G1 X0.706 Y-0.218 Z1.138 F400.000
G1 X0.735 Y-0.076 Z1.126 F400.000
G1 X0.735 Y0.069 Z1.113 F400.000
G1 X0.708 Y0.211 Z1.100 F400.000
G1 X0.653 Y0.345 Z1.087 F400.000
G1 X0.573 Y0.466 Z1.074 F400.000
G1 X0.471 Y0.569 Z1.061 F400.000
G1 X0.351 Y0.650 Z1.048 F400.000
G1 X0.218 Y0.706 Z1.036 F400.000
G1 X0.076 Y0.735 Z1.023 F400.000
G1 X-0.069 Y0.735 Z1.010 F400.000
G1 X-0.211 Y0.708 Z0.997 F400.000
G1 X-0.345 Y0.653 Z0.984 F400.000
G1 X-0.466 Y0.573 Z0.971 F400.000
G1 X-0.569 Y0.471 Z0.958 F400.000
G1 X-0.650 Y0.351 Z0.946 F400.000
G1 X-0.706 Y0.218 Z0.933 F400.000
G1 X-0.735 Y0.076 Z0.920 F400.000
G1 X-0.735 Y-0.069 Z0.907 F400.000
G1 X-0.708 Y-0.211 Z0.894 F400.000
G1 X-0.653 Y-0.345 Z0.881 F400.000
G1 X-0.573 Y-0.466 Z0.868 F400.000
G1 X-0.471 Y-0.569 Z0.855 F400.000
G1 X-0.351 Y-0.650 Z0.843 F400.000
G1 X-0.218 Y-0.706 Z0.830 F400.000
G1 X-0.076 Y-0.735 Z0.817 F400.000
G1 X0.069 Y-0.735 Z0.804 F400.000
G1 X0.211 Y-0.708 Z0.791 F400.000
G1 X0.345 Y-0.653 Z0.778 F400.000
G1 X0.466 Y-0.573 Z0.765 F400.000
G1 X0.569 Y-0.471 Z0.753 F400.000
G1 X0.650 Y-0.351 Z0.740 F400.000
G1 X0.706 Y-0.218 Z0.727 F400.000
G1 X0.735 Y-0.076 Z0.714 F400.000
G1 X0.735 Y0.069 Z0.701 F400.000
G1 X0.708 Y0.211 Z0.688 F400.000
G1 X0.653 Y0.345 Z0.675 F400.000
G1 X0.573 Y0.466 Z0.663 F400.000
G1 X0.471 Y0.569 Z0.650 F400.000
G1 X0.351 Y0.650 Z0.637 F400.000
G1 X0.218 Y0.706 Z0.624 F400.000
G1 X0.076 Y0.735 Z0.611 F400.000
G1 X-0.069 Y0.735 Z0.598 F400.000
G1 X-0.211 Y0.708 Z0.585 F400.000
G1 X-0.345 Y0.653 Z0.573 F400.000
G1 X-0.466 Y0.573 Z0.560 F400.000
G1 X-0.569 Y0.471 Z0.547 F400.000
G1 X-0.650 Y0.351 Z0.534 F400.000
G1 X-0.706 Y0.218 Z0.521 F400.000
G1 X-0.735 Y0.076 Z0.508 F400.000
G1 X-0.735 Y-0.069 Z0.495 F400.000
G1 X-0.708 Y-0.211 Z0.483 F400.000
G1 X-0.653 Y-0.345 Z0.470 F400.000
G1 X-0.573 Y-0.466 Z0.457 F400.000
G1 X-0.471 Y-0.569 Z0.444 F400.000
G1 X-0.351 Y-0.650 Z0.431 F400.000
G1 X-0.218 Y-0.706 Z0.418 F400.000
G1 X-0.076 Y-0.735 Z0.405 F400.000
G1 X0.069 Y-0.735 Z0.393 F400.000
G1 X0.211 Y-0.708 Z0.380 F400.000
G1 X0.345 Y-0.653 Z0.367 F400.000
G1 X0.466 Y-0.573 Z0.354 F400.000
G1 X0.569 Y-0.471 Z0.341 F400.000
G1 X0.650 Y-0.351 Z0.328 F400.000
G1 X0.706 Y-0.218 Z0.315 F400.000
G1 X0.735 Y-0.076 Z0.303 F400.000
G1 X0.735 Y0.069 Z0.290 F400.000
G1 X0.708 Y0.211 Z0.277 F400.000
G1 X0.653 Y0.345 Z0.264 F400.000
G1 X0.573 Y0.466 Z0.251 F400.000
G1 X0.471 Y0.569 Z0.238 F400.000
G1 X0.351 Y0.650 Z0.225 F400.000
G1 X0.218 Y0.706 Z0.213 F400.000
G1 X0.076 Y0.735 Z0.200 F400.000
G1 X-0.069 Y0.735 Z0.187 F400.000
G1 X-0.211 Y0.708 Z0.174 F400.000
G1 X-0.345 Y0.653 Z0.161 F400.000
G1 X-0.466 Y0.573 Z0.148 F400.000
G1 X-0.569 Y0.471 Z0.135 F400.000
G1 X-0.650 Y0.351 Z0.122 F400.000
G1 X-0.706 Y0.218 Z0.110 F400.000
G1 X-0.735 Y0.076 Z0.097 F400.000
G1 X-0.735 Y-0.069 Z0.084 F400.000
G1 X-0.708 Y-0.211 Z0.071 F400.000
G1 X-0.653 Y-0.345 Z0.058 F400.000
G1 X-0.573 Y-0.466 Z0.045 F400.000
G1 X-0.471 Y-0.569 Z0.032 F400.000
G1 X-0.351 Y-0.650 Z0.020 F400.000
G1 X-0.218 Y-0.706 Z0.007 F400.000
G1 X-0.076 Y-0.735 Z0.000 F400.000
G1 X0.069 Y-0.735 Z0.000 F400.000
G1 X0.211 Y-0.708 Z0.000 F400.000
G1 X0.345 Y-0.653 Z0.000 F400.000
G1 X0.466 Y-0.573 Z0.000 F400.000
G1 X0.569 Y-0.471 Z0.000 F400.000
G1 X0.650 Y-0.351 Z0.000 F400.000
G1 X0.706 Y-0.218 Z0.000 F400.000
G1 X0.735 Y-0.076 Z0.000 F400.000
G1 X0.735 Y0.069 Z0.000 F400.000
G1 X0.708 Y0.211 Z0.000 F400.000
G1 X0.653 Y0.345 Z0.000 F400.000
G1 X0.573 Y0.466 Z0.000 F400.000
G1 X0.471 Y0.569 Z0.000 F400.000
G1 X0.351 Y0.650 Z0.000 F400.000
G1 X0.218 Y0.706 Z0.000 F400.000
G1 X0.076 Y0.735 Z0.000 F400.000
G1 X-0.069 Y0.735 Z0.000 F400.000
G1 X-0.211 Y0.708 Z0.000 F400.000
G1 X-0.345 Y0.653 Z0.000 F400.000
G1 X-0.466 Y0.573 Z0.000 F400.000
G1 X-0.569 Y0.471 Z0.000 F400.000
G1 X-0.650 Y0.351 Z0.000 F400.000
G1 X-0.706 Y0.218 Z0.000 F400.000
G1 X-0.735 Y0.076 Z0.000 F400.000
G1 X-0.735 Y-0.069 Z0.000 F400.000
G1 X-0.708 Y-0.211 Z0.000 F400.000
G1 X-0.653 Y-0.345 Z0.000 F400.000
G1 X-0.573 Y-0.466 Z0.000 F400.000
G1 X-0.471 Y-0.569 Z0.000 F400.000
G1 X-0.351 Y-0.650 Z0.000 F400.000
G1 X-0.218 Y-0.706 Z0.000 F400.000
(Adaptive - depth: 0.000000)
G1 X0.000 Y-0.749 F400.000
G1 X0.024 Y-0.764 F400.000
G1 X0.081 Y-0.777 F400.000
G1 X0.193 Y-0.777 F400.000
G1 X0.334 Y-0.743 F400.000
G1 X0.388 Y-0.720 F400.000
G1 X0.591 Y-0.593 F400.000
G1 X0.685 Y-0.490 F400.000
G1 X0.726 Y-0.428 F400.000
G1 X0.762 Y-0.360 F400.000
G1 X0.801 Y-0.265 F400.000
G1 X0.835 Y-0.133 F400.000
G1 X0.846 Y-0.006 F400.000
G1 X0.842 Y0.096 F400.000
G1 X0.826 Y0.197 F400.000
G1 X0.794 Y0.300 F400.000
G1 X0.745 Y0.405 F400.000
G1 X0.683 Y0.505 F400.000
G1 X0.610 Y0.593 F400.000
G1 X0.522 Y0.670 F400.000
G1 X0.437 Y0.728 F400.000
G1 X0.338 Y0.779 F400.000
G1 X0.227 Y0.818 F400.000
G1 X0.113 Y0.842 F400.000
G1 X0.000 Y0.850 F400.000
G1 X-0.101 Y0.844 F400.000
G1 X-0.210 Y0.824 F400.000
G1 X-0.323 Y0.788 F400.000
G1 X-0.430 Y0.737 F400.000
G1 X-0.525 Y0.672 F400.000
G1 X-0.604 Y0.602 F400.000
G1 X-0.677 Y0.518 F400.000
G1 X-0.737 Y0.424 F400.000
G1 X-0.784 Y0.326 F400.000
G1 X-0.820 Y0.221 F400.000
G1 X-0.842 Y0.105 F400.000
G1 X-0.850 Y-0.006 F400.000
G1 X-0.842 Y-0.118 F400.000
G1 X-0.820 Y-0.229 F400.000
G1 X-0.782 Y-0.336 F400.000
G1 X-0.732 Y-0.437 F400.000
G1 X-0.666 Y-0.531 F400.000
G1 X-0.595 Y-0.610 F400.000
G1 X-0.510 Y-0.681 F400.000
G1 X-0.418 Y-0.741 F400.000
G1 X-0.285 Y-0.807 F400.000
G1 X-0.075 Y-0.859 F400.000
G1 X0.126 Y-0.872 F400.000
G1 X0.266 Y-0.854 F400.000
G1 X0.379 Y-0.820 F400.000
G1 X0.595 Y-0.715 F400.000
G1 X0.705 Y-0.617 F400.000
G1 X0.756 Y-0.559 F400.000
G1 X0.803 Y-0.492 F400.000
G1 X0.854 Y-0.402 F400.000
G1 X0.908 Y-0.270 F400.000
G1 X0.942 Y-0.139 F400.000
G1 X0.953 Y-0.023 F400.000
G1 X0.951 Y0.079 F400.000
G1 X0.936 Y0.193 F400.000
G1 X0.906 Y0.311 F400.000
G1 X0.861 Y0.426 F400.000
G1 X0.801 Y0.529 F400.000
G1 X0.735 Y0.615 F400.000
G1 X0.655 Y0.700 F400.000
G1 X0.559 Y0.779 F400.000
G1 X0.454 Y0.844 F400.000
G1 X0.343 Y0.897 F400.000
G1 X0.223 Y0.932 F400.000
G1 X0.118 Y0.951 F400.000
G1 X0.002 Y0.959 F400.000
G1 X-0.120 Y0.953 F400.000
G1 X-0.251 Y0.931 F400.000
G1 X-0.368 Y0.891 F400.000
G1 X-0.465 Y0.844 F400.000
G1 X-0.561 Y0.784 F400.000
G1 X-0.657 Y0.705 F400.000
G1 X-0.741 Y0.617 F400.000
G1 X-0.811 Y0.518 F400.000
G1 X-0.863 Y0.422 F400.000
G1 X-0.906 Y0.313 F400.000
G1 X-0.940 Y0.191 F400.000
G1 X-0.959 Y0.062 F400.000
G1 X-0.959 Y-0.060 F400.000
G1 X-0.946 Y-0.167 F400.000
G1 X-0.917 Y-0.283 F400.000
G1 X-0.874 Y-0.400 F400.000
G1 X-0.818 Y-0.508 F400.000
G1 X-0.745 Y-0.608 F400.000
G1 X-0.672 Y-0.687 F400.000
G1 X-0.583 Y-0.765 F400.000
G1 X-0.477 Y-0.839 F400.000
G1 X-0.364 Y-0.897 F400.000
G1 X-0.248 Y-0.940 F400.000
G1 X-0.008 Y-0.970 F400.000
G1 X0.189 Y-0.968 F400.000
G1 X0.330 Y-0.944 F400.000
G1 X0.555 Y-0.865 F400.000
G1 X0.696 Y-0.771 F400.000
G1 X0.758 Y-0.717 F400.000
G1 X0.880 Y-0.570 F400.000
G1 X0.964 Y-0.430 F400.000
G1 X1.021 Y-0.298 F400.000
G1 X1.051 Y-0.182 F400.000
G1 X1.066 Y-0.079 F400.000
G1 X1.069 Y0.039 F400.000
G1 X1.060 Y0.165 F400.000
G1 X1.034 Y0.304 F400.000
G1 X0.991 Y0.426 F400.000
G1 X0.940 Y0.529 F400.000
G1 X0.876 Y0.629 F400.000
G1 X0.801 Y0.722 F400.000
G1 X0.707 Y0.814 F400.000
G1 X0.600 Y0.895 F400.000
G1 X0.492 Y0.961 F400.000
G1 X0.371 Y1.013 F400.000
G1 X0.255 Y1.049 F400.000
G1 X0.129 Y1.071 F400.000
G1 X0.004 Y1.079 F400.000
G1 X-0.120 Y1.073 F400.000
G1 X-0.251 Y1.051 F400.000
G1 X-0.373 Y1.015 F400.000
G1 X-0.492 Y0.964 F400.000
G1 X-0.597 Y0.904 F400.000
G1 X-0.698 Y0.829 F400.000
G1 X-0.788 Y0.743 F400.000
G1 X-0.867 Y0.647 F400.000
G1 X-0.934 Y0.542 F400.000
G1 X-0.991 Y0.430 F400.000
G1 X-1.034 Y0.311 F400.000
G1 X-1.064 Y0.180 F400.000
G1 X-1.079 Y0.053 F400.000
G1 X-1.079 Y-0.075 F400.000
G1 X-1.064 Y-0.205 F400.000
G1 X-1.032 Y-0.328 F400.000
G1 X-0.991 Y-0.437 F400.000
G1 X-0.932 Y-0.548 F400.000
G1 X-0.863 Y-0.651 F400.000
G1 X-0.779 Y-0.750 F400.000
G1 X-0.681 Y-0.841 F400.000
G1 X-0.576 Y-0.917 F400.000
G1 X-0.462 Y-0.983 F400.000
G1 X-0.340 Y-1.034 F400.000
G1 X-0.223 Y-1.068 F400.000
G1 X-0.098 Y-1.090 F400.000
G1 X0.161 Y-1.088 F400.000
G1 X0.398 Y-1.054 F400.000
G1 X0.604 Y-0.974 F400.000
G1 X0.750 Y-0.876 F400.000
G1 X0.839 Y-0.799 F400.000
G1 X0.940 Y-0.689 F400.000
G1 X1.030 Y-0.567 F400.000
G1 X1.096 Y-0.443 F400.000
G1 X1.137 Y-0.336 F400.000
G1 X1.167 Y-0.223 F400.000
G1 X1.188 Y-0.101 F400.000
G1 X1.195 Y0.041 F400.000
G1 X1.186 Y0.182 F400.000
G1 X1.159 Y0.313 F400.000
G1 X1.124 Y0.430 F400.000
G1 X1.069 Y0.552 F400.000
G1 X1.004 Y0.662 F400.000
G1 X0.929 Y0.765 F400.000
G1 X0.835 Y0.869 F400.000
G1 X0.730 Y0.961 F400.000
G1 X0.619 Y1.038 F400.000
G1 X0.495 Y1.101 F400.000
G1 X0.379 Y1.146 F400.000
G1 X0.250 Y1.182 F400.000
G1 X0.118 Y1.201 F400.000
G1 X-0.009 Y1.208 F400.000
G1 X-0.148 Y1.199 F400.000
G1 X-0.280 Y1.176 F400.000
G1 X-0.418 Y1.137 F400.000
G1 X-0.546 Y1.084 F400.000
G1 X-0.666 Y1.015 F400.000
G1 X-0.762 Y0.942 F400.000
G1 X-0.846 Y0.865 F400.000
G1 X-0.934 Y0.765 F400.000
G1 X-1.019 Y0.647 F400.000
G1 X-1.090 Y0.520 F400.000
G1 X-1.144 Y0.388 F400.000
G1 X-1.182 Y0.263 F400.000
G1 X-1.206 Y0.126 F400.000
G1 X-1.214 Y-0.009 F400.000
G1 X-1.206 Y-0.131 F400.000
G1 X-1.184 Y-0.253 F400.000
G1 X-1.150 Y-0.375 F400.000
G1 X-1.094 Y-0.514 F400.000
G1 X-1.026 Y-0.640 F400.000
G1 X-0.946 Y-0.752 F400.000
G1 X-0.863 Y-0.846 F400.000
G1 X-0.764 Y-0.938 F400.000
G1 X-0.649 Y-1.021 F400.000
G1 X-0.535 Y-1.088 F400.000
G1 X-0.403 Y-1.148 F400.000
G1 X-0.270 Y-1.188 F400.000
G1 X-0.146 Y-1.212 F400.000
G1 X-0.009 Y-1.227 F400.000
G1 X0.139 Y-1.229 F400.000
G1 X0.291 Y-1.214 F400.000
G1 X0.433 Y-1.182 F400.000
G1 X0.561 Y-1.137 F400.000
G1 X0.674 Y-1.083 F400.000
G1 X0.788 Y-1.011 F400.000
G1 X0.891 Y-0.931 F400.000
G1 X0.992 Y-0.833 F400.000
G1 X1.079 Y-0.728 F400.000
G1 X1.154 Y-0.615 F400.000
G1 X1.216 Y-0.493 F400.000
G1 X1.265 Y-0.364 F400.000
G1 X1.298 Y-0.231 F400.000
G1 X1.319 Y-0.094 F400.000
G1 X1.325 Y0.041 F400.000
G1 X1.317 Y0.176 F400.000
G1 X1.293 Y0.319 F400.000
G1 X1.255 Y0.452 F400.000
G1 X1.203 Y0.582 F400.000
G1 X1.135 Y0.707 F400.000
G1 X1.056 Y0.824 F400.000
G1 X0.966 Y0.931 F400.000
G1 X0.865 Y1.028 F400.000
G1 X0.754 Y1.114 F400.000
G1 X0.634 Y1.188 F400.000
G1 X0.505 Y1.246 F400.000
G1 X0.383 Y1.287 F400.000
G1 X0.250 Y1.319 F400.000
G1 X0.105 Y1.338 F400.000
G1 X-0.039 Y1.341 F400.000
G1 X-0.180 Y1.330 F400.000
G1 X-0.321 Y1.306 F400.000
G1 X-0.467 Y1.263 F400.000
G1 X-0.600 Y1.205 F400.000
G1 X-0.711 Y1.143 F400.000
G1 X-0.826 Y1.062 F400.000
G1 X-0.929 Y0.972 F400.000
G1 X-1.026 Y0.867 F400.000
G1 X-1.111 Y0.754 F400.000
G1 X-1.184 Y0.632 F400.000
G1 X-1.246 Y0.503 F400.000
G1 X-1.296 Y0.360 F400.000
G1 X-1.330 Y0.220 F400.000
G1 X-1.345 Y0.073 F400.000
G1 X-1.347 Y-0.053 F400.000
G1 X-1.334 Y-0.189 F400.000
G1 X-1.308 Y-0.323 F400.000
G1 X-1.265 Y-0.462 F400.000
G1 X-1.206 Y-0.597 F400.000
G1 X-1.137 Y-0.722 F400.000
G1 X-1.053 Y-0.841 F400.000
G1 X-0.962 Y-0.944 F400.000
G1 X-0.857 Y-1.041 F400.000
G1 X-0.743 Y-1.126 F400.000
G1 X-0.621 Y-1.197 F400.000
G1 X-0.493 Y-1.257 F400.000
G1 X-0.349 Y-1.308 F400.000
G1 X-0.208 Y-1.343 F400.000
G1 X-0.054 Y-1.366 F400.000
G1 X0.094 Y-1.371 F400.000
G1 X0.242 Y-1.364 F400.000
G1 X0.390 Y-1.338 F400.000
G1 X0.523 Y-1.300 F400.000
G1 X0.653 Y-1.250 F400.000
G1 X0.779 Y-1.182 F400.000
G1 X0.895 Y-1.103 F400.000
G1 X1.004 Y-1.015 F400.000
G1 X1.111 Y-0.906 F400.000
G1 X1.201 Y-0.794 F400.000
G1 X1.281 Y-0.670 F400.000
G1 X1.347 Y-0.538 F400.000
G1 X1.400 Y-0.402 F400.000
G1 X1.435 Y-0.259 F400.000
G1 X1.454 Y-0.131 F400.000
G1 X1.463 Y0.006 F400.000
G1 X1.458 Y0.169 F400.000
G1 X1.437 Y0.323 F400.000
G1 X1.400 Y0.469 F400.000
G1 X1.355 Y0.595 F400.000
G1 X1.291 Y0.728 F400.000
G1 X1.214 Y0.850 F400.000
G1 X1.128 Y0.964 F400.000
G1 X1.023 Y1.077 F400.000
G1 X0.912 Y1.173 F400.000
G1 X0.790 Y1.259 F400.000
G1 X0.659 Y1.332 F400.000
G1 X0.522 Y1.392 F400.000
G1 X0.381 Y1.437 F400.000
G1 X0.235 Y1.469 F400.000
G1 X0.086 Y1.486 F400.000
G1 X-0.060 Y1.488 F400.000
G1 X-0.206 Y1.475 F400.000
G1 X-0.351 Y1.447 F400.000
G1 X-0.493 Y1.407 F400.000
G1 X-0.642 Y1.347 F400.000
G1 X-0.775 Y1.274 F400.000
G1 X-0.886 Y1.199 F400.000
G1 X-0.998 Y1.103 F400.000
G1 X-1.099 Y1.000 F400.000
G1 X-1.197 Y0.878 F400.000
G1 X-1.278 Y0.754 F400.000
G1 X-1.349 Y0.623 F400.000
G1 X-1.413 Y0.469 F400.000
G1 X-1.454 Y0.321 F400.000
G1 X-1.480 Y0.182 F400.000
G1 X-1.492 Y0.030 F400.000
G1 X-1.488 Y-0.107 F400.000
G1 X-1.469 Y-0.248 F400.000
G1 X-1.437 Y-0.388 F400.000
G1 X-1.388 Y-0.538 F400.000
G1 X-1.325 Y-0.685 F400.000
G1 X-1.248 Y-0.818 F400.000
G1 X-1.165 Y-0.934 F400.000
G1 X-1.066 Y-1.049 F400.000
G1 X-0.957 Y-1.150 F400.000
G1 X-0.841 Y-1.238 F400.000
G1 X-0.713 Y-1.315 F400.000
G1 X-0.580 Y-1.381 F400.000
G1 X-0.430 Y-1.437 F400.000
G1 X-0.283 Y-1.478 F400.000
G1 X-0.122 Y-1.508 F400.000
G1 X0.034 Y-1.522 F400.000
G1 X0.189 Y-1.520 F400.000
G1 X0.347 Y-1.499 F400.000
G1 X0.480 Y-1.469 F400.000
G1 X0.623 Y-1.422 F400.000
G1 X0.758 Y-1.360 F400.000
G1 X0.884 Y-1.289 F400.000
G1 X1.013 Y-1.197 F400.000
G1 X1.128 Y-1.099 F400.000
G1 X1.240 Y-0.983 F400.000
G1 X1.338 Y-0.859 F400.000
G1 X1.418 Y-0.726 F400.000
G1 X1.478 Y-0.604 F400.000
G1 X1.531 Y-0.465 F400.000
G1 X1.570 Y-0.323 F400.000
G1 X1.598 Y-0.163 F400.000
G1 X1.612 Y0.000 F400.000
G1 X1.610 Y0.154 F400.000
G1 X1.593 Y0.311 F400.000
G1 X1.557 Y0.467 F400.000
G1 X1.514 Y0.602 F400.000
G1 X1.452 Y0.743 F400.000
G1 X1.377 Y0.874 F400.000
G1 X1.293 Y0.996 F400.000
G1 X1.195 Y1.113 F400.000
G1 X1.079 Y1.227 F400.000
G1 X0.959 Y1.323 F400.000
G1 X0.829 Y1.409 F400.000
G1 X0.690 Y1.482 F400.000
G1 X0.546 Y1.542 F400.000
G1 X0.396 Y1.589 F400.000
G1 X0.242 Y1.621 F400.000
G1 X0.086 Y1.638 F400.000
G1 X-0.068 Y1.640 F400.000
G1 X-0.221 Y1.627 F400.000
G1 X-0.373 Y1.598 F400.000
G1 X-0.523 Y1.557 F400.000
G1 X-0.668 Y1.501 F400.000
G1 X-0.807 Y1.432 F400.000
G1 X-0.938 Y1.349 F400.000
G1 X-1.062 Y1.253 F400.000
G1 X-1.174 Y1.144 F400.000
G1 X-1.268 Y1.036 F400.000
G1 X-1.358 Y0.912 F400.000
G1 X-1.443 Y0.769 F400.000
G1 X-1.516 Y0.617 F400.000
G1 X-1.572 Y0.465 F400.000
G1 X-1.614 Y0.304 F400.000
G1 X-1.632 Y0.154 F400.000
G1 X-1.638 Y0.026 F400.000
G1 X-1.634 Y-0.118 F400.000
G1 X-1.612 Y-0.300 F400.000
G1 X-1.574 Y-0.469 F400.000
G1 X-1.520 Y-0.627 F400.000
G1 X-1.462 Y-0.754 F400.000
G1 X-1.388 Y-0.880 F400.000
G1 X-1.302 Y-1.002 F400.000
G1 X-1.191 Y-1.131 F400.000
G1 X-1.073 Y-1.246 F400.000
G1 X-0.946 Y-1.345 F400.000
G1 X-0.822 Y-1.426 F400.000
G1 X-0.683 Y-1.501 F400.000
G1 X-0.529 Y-1.565 F400.000
G1 X-0.379 Y-1.614 F400.000
G1 X-0.210 Y-1.651 F400.000
G1 X-0.045 Y-1.672 F400.000
G1 X0.118 Y-1.675 F400.000
G1 X0.270 Y-1.666 F400.000
G1 X0.430 Y-1.642 F400.000
G1 X0.583 Y-1.602 F400.000
G1 X0.730 Y-1.546 F400.000
G1 X0.856 Y-1.484 F400.000
G1 X0.987 Y-1.407 F400.000
G1 X1.131 Y-1.302 F400.000
G1 X1.257 Y-1.189 F400.000
G1 X1.362 Y-1.077 F400.000
G1 X1.454 Y-0.957 F400.000
G1 X1.538 Y-0.824 F400.000
G1 X1.614 Y-0.675 F400.000
G1 X1.672 Y-0.529 F400.000
G1 X1.717 Y-0.375 F400.000
G1 X1.747 Y-0.216 F400.000
G1 X1.764 Y-0.056 F400.000
G1 X1.765 Y0.114 F400.000
G1 X1.752 Y0.276 F400.000
G1 X1.726 Y0.437 F400.000
G1 X1.679 Y0.597 F400.000
G1 X1.629 Y0.732 F400.000
G1 X1.559 Y0.872 F400.000
G1 X1.477 Y1.004 F400.000
G1 X1.379 Y1.135 F400.000
G1 X1.266 Y1.261 F400.000
G1 X1.148 Y1.370 F400.000
G1 X1.021 Y1.467 F400.000
G1 X0.884 Y1.555 F400.000
G1 X0.726 Y1.636 F400.000
G1 X0.572 Y1.700 F400.000
G1 X0.411 Y1.749 F400.000
G1 X0.257 Y1.779 F400.000
G1 X0.105 Y1.795 F400.000
G1 X-0.053 Y1.797 F400.000
G1 X-0.206 Y1.786 F400.000
G1 X-0.370 Y1.760 F400.000
G1 X-0.537 Y1.717 F400.000
G1 X-0.692 Y1.660 F400.000
G1 X-0.844 Y1.589 F400.000
G1 X-0.989 Y1.503 F400.000
G1 X-1.114 Y1.413 F400.000
G1 X-1.238 Y1.306 F400.000
G1 X-1.351 Y1.188 F400.000
G1 X-1.452 Y1.062 F400.000
G1 X-1.542 Y0.925 F400.000
G1 X-1.617 Y0.782 F400.000
G1 X-1.679 Y0.632 F400.000
G1 X-1.728 Y0.478 F400.000
G1 X-1.765 Y0.321 F400.000
G1 X-1.790 Y0.143 F400.000
G1 X-1.797 Y-0.023 F400.000
G1 X-1.788 Y-0.189 F400.000
G1 X-1.765 Y-0.347 F400.000
G1 X-1.728 Y-0.507 F400.000
G1 X-1.675 Y-0.660 F400.000
G1 X-1.610 Y-0.809 F400.000
G1 X-1.531 Y-0.951 F400.000
G1 X-1.439 Y-1.086 F400.000
G1 X-1.336 Y-1.212 F400.000
G1 X-1.221 Y-1.328 F400.000
G1 X-1.096 Y-1.433 F400.000
G1 X-0.961 Y-1.527 F400.000
G1 X-0.820 Y-1.610 F400.000
G1 X-0.659 Y-1.687 F400.000
G1 X-0.490 Y-1.750 F400.000
G1 X-0.321 Y-1.795 F400.000
G1 X-0.165 Y-1.824 F400.000
G1 X0.004 Y-1.839 F400.000
G1 X0.169 Y-1.837 F400.000
G1 X0.332 Y-1.822 F400.000
G1 X0.495 Y-1.792 F400.000
G1 X0.655 Y-1.747 F400.000
G1 X0.811 Y-1.687 F400.000
G1 X0.961 Y-1.614 F400.000
G1 X1.103 Y-1.527 F400.000
G1 X1.238 Y-1.428 F400.000
G1 X1.364 Y-1.317 F400.000
G1 X1.478 Y-1.195 F400.000
G1 X1.582 Y-1.064 F400.000
G1 X1.672 Y-0.923 F400.000
G1 X1.743 Y-0.786 F400.000
G1 X1.805 Y-0.634 F400.000
G1 X1.854 Y-0.480 F400.000
G1 X1.895 Y-0.306 F400.000
G1 X1.921 Y-0.122 F400.000
G1 X1.932 Y0.051 F400.000
G1 X1.923 Y0.227 F400.000
G1 X1.904 Y0.379 F400.000
G1 X1.869 Y0.540 F400.000
G1 X1.818 Y0.696 F400.000
G1 X1.754 Y0.844 F400.000
G1 X1.677 Y0.991 F400.000
G1 X1.582 Y1.139 F400.000
G1 X1.478 Y1.270 F400.000
G1 X1.362 Y1.396 F400.000
G1 X1.235 Y1.510 F400.000
G1 X1.099 Y1.612 F400.000
G1 X0.955 Y1.702 F400.000
G1 X0.803 Y1.779 F400.000
G1 X0.645 Y1.844 F400.000
G1 X0.469 Y1.899 F400.000
G1 X0.298 Y1.936 F400.000
G1 X0.122 Y1.957 F400.000
G1 X-0.030 Y1.962 F400.000
G1 X-0.195 Y1.953 F400.000
G1 X-0.358 Y1.931 F400.000
G1 X-0.529 Y1.893 F400.000
G1 X-0.702 Y1.837 F400.000
G1 X-0.861 Y1.765 F400.000
G1 X-0.992 Y1.694 F400.000
G1 X-1.131 Y1.602 F400.000
G1 X-1.270 Y1.493 F400.000
G1 X-1.403 Y1.370 F400.000
G1 X-1.522 Y1.238 F400.000
G1 X-1.627 Y1.094 F400.000
G1 X-1.709 Y0.959 F400.000
G1 X-1.786 Y0.805 F400.000
G1 X-1.848 Y0.647 F400.000
G1 X-1.895 Y0.488 F400.000
G1 X-1.931 Y0.325 F400.000
G1 X-1.953 Y0.135 F400.000
G1 X-1.959 Y-0.036 F400.000
G1 X-1.951 Y-0.210 F400.000
G1 X-1.927 Y-0.386 F400.000
G1 X-1.886 Y-0.557 F400.000
G1 X-1.837 Y-0.705 F400.000
G1 X-1.769 Y-0.859 F400.000
G1 X-1.689 Y-1.006 F400.000
G1 X-1.600 Y-1.143 F400.000
G1 X-1.490 Y-1.285 F400.000
G1 X-1.366 Y-1.418 F400.000
G1 X-1.233 Y-1.533 F400.000
G1 X-1.114 Y-1.623 F400.000
G1 X-0.964 Y-1.720 F400.000
G1 X-0.792 Y-1.811 F400.000
G1 X-0.621 Y-1.884 F400.000
G1 X-0.443 Y-1.940 F400.000
G1 X-0.281 Y-1.977 F400.000
G1 X-0.103 Y-2.000 F400.000
G1 X0.056 Y-2.008 F400.000
G1 X0.223 Y-2.000 F400.000
G1 X0.390 Y-1.981 F400.000
G1 X0.576 Y-1.946 F400.000
G1 X0.756 Y-1.891 F400.000
G1 X0.908 Y-1.829 F400.000
G1 X1.049 Y-1.758 F400.000
G1 X1.193 Y-1.668 F400.000
G1 X1.334 Y-1.563 F400.000
G1 X1.469 Y-1.443 F400.000
G1 X1.589 Y-1.317 F400.000
G1 X1.700 Y-1.180 F400.000
G1 X1.799 Y-1.032 F400.000
G1 X1.886 Y-0.878 F400.000
G1 X1.955 Y-0.715 F400.000
G1 X2.006 Y-0.563 F400.000
G1 X2.049 Y-0.398 F400.000
G1 X2.081 Y-0.216 F400.000
G1 X2.098 Y-0.026 F400.000
G1 X2.099 Y0.152 F400.000
G1 X2.083 Y0.334 F400.000
G1 X2.054 Y0.492 F400.000
G1 X2.009 Y0.660 F400.000
G1 X1.949 Y0.822 F400.000
G1 X1.878 Y0.974 F400.000
G1 X1.792 Y1.124 F400.000
G1 X1.696 Y1.266 F400.000
G1 X1.576 Y1.413 F400.000
G1 X1.452 Y1.540 F400.000
G1 X1.317 Y1.660 F400.000
G1 X1.171 Y1.769 F400.000
G1 X1.017 Y1.865 F400.000
G1 X0.856 Y1.947 F400.000
G1 X0.687 Y2.013 F400.000
G1 X0.529 Y2.062 F400.000
G1 X0.358 Y2.099 F400.000
G1 X0.184 Y2.120 F400.000
G1 X0.013 Y2.128 F400.000
G1 X-0.158 Y2.124 F400.000
G1 X-0.353 Y2.103 F400.000
G1 X-0.542 Y2.066 F400.000
G1 X-0.720 Y2.011 F400.000
G1 X-0.869 Y1.951 F400.000
G1 X-1.011 Y1.878 F400.000
G1 X-1.156 Y1.790 F400.000
G1 X-1.308 Y1.683 F400.000
G1 X-1.460 Y1.553 F400.000
G1 X-1.587 Y1.422 F400.000
G1 X-1.698 Y1.291 F400.000
G1 X-1.803 Y1.141 F400.000
G1 X-1.889 Y0.985 F400.000
G1 X-1.957 Y0.839 F400.000
G1 X-2.017 Y0.674 F400.000
G1 X-2.064 Y0.508 F400.000
G1 X-2.103 Y0.319 F400.000
G1 X-2.126 Y0.120 F400.000
G1 X-2.133 Y-0.066 F400.000
G1 X-2.120 Y-0.257 F400.000
G1 X-2.098 Y-0.415 F400.000
G1 X-2.058 Y-0.587 F400.000
G1 X-2.004 Y-0.754 F400.000
G1 X-1.938 Y-0.912 F400.000
G1 X-1.857 Y-1.066 F400.000
G1 X-1.764 Y-1.212 F400.000
G1 X-1.659 Y-1.349 F400.000
G1 X-1.542 Y-1.478 F400.000
G1 X-1.403 Y-1.612 F400.000
G1 X-1.253 Y-1.734 F400.000
G1 X-1.101 Y-1.839 F400.000
G1 X-0.938 Y-1.934 F400.000
G1 X-0.767 Y-2.017 F400.000
G1 X-0.591 Y-2.081 F400.000
G1 X-0.433 Y-2.126 F400.000
G1 X-0.255 Y-2.159 F400.000
G1 X-0.079 Y-2.176 F400.000
G1 X0.092 Y-2.180 F400.000
G1 X0.266 Y-2.173 F400.000
G1 X0.467 Y-2.144 F400.000
G1 X0.645 Y-2.105 F400.000
G1 X0.824 Y-2.051 F400.000
G1 X1.000 Y-1.976 F400.000
G1 X1.143 Y-1.902 F400.000
G1 X1.293 Y-1.809 F400.000
G1 X1.433 Y-1.704 F400.000
G1 X1.572 Y-1.583 F400.000
G1 X1.707 Y-1.445 F400.000
G1 X1.826 Y-1.304 F400.000
G1 X1.932 Y-1.148 F400.000
G1 X2.017 Y-0.998 F400.000
G1 X2.086 Y-0.846 F400.000
G1 X2.148 Y-0.683 F400.000
G1 X2.205 Y-0.493 F400.000
G1 X2.246 Y-0.296 F400.000
G1 X2.270 Y-0.107 F400.000
G1 X2.276 Y0.086 F400.000
G1 X2.268 Y0.255 F400.000
G1 X2.244 Y0.439 F400.000
G1 X2.208 Y0.602 F400.000
G1 X2.156 Y0.767 F400.000
G1 X2.090 Y0.931 F400.000
G1 X2.009 Y1.098 F400.000
G1 X1.908 Y1.266 F400.000
G1 X1.801 Y1.418 F400.000
G1 X1.681 Y1.565 F400.000
G1 X1.548 Y1.702 F400.000
G1 X1.403 Y1.824 F400.000
G1 X1.268 Y1.921 F400.000
G1 X1.113 Y2.015 F400.000
G1 X0.951 Y2.094 F400.000
G1 X0.788 Y2.161 F400.000
G1 X0.595 Y2.223 F400.000
G1 X0.400 Y2.268 F400.000
G1 X0.210 Y2.295 F400.000
G1 X0.041 Y2.306 F400.000
G1 X-0.143 Y2.302 F400.000
G1 X-0.323 Y2.285 F400.000
G1 X-0.510 Y2.251 F400.000
G1 X-0.689 Y2.205 F400.000
G1 X-0.863 Y2.143 F400.000
G1 X-1.034 Y2.068 F400.000
G1 X-1.199 Y1.977 F400.000
G1 X-1.355 Y1.872 F400.000
G1 X-1.486 Y1.769 F400.000
G1 X-1.619 Y1.647 F400.000
G1 X-1.750 Y1.507 F400.000
G1 X-1.874 Y1.351 F400.000
G1 X-1.977 Y1.191 F400.000
G1 X-2.058 Y1.045 F400.000
G1 X-2.133 Y0.876 F400.000
G1 X-2.193 Y0.705 F400.000
G1 X-2.244 Y0.518 F400.000
G1 X-2.280 Y0.334 F400.000
G1 X-2.302 Y0.131 F400.000
G1 X-2.310 Y-0.060 F400.000
G1 X-2.302 Y-0.251 F400.000
G1 X-2.274 Y-0.445 F400.000
G1 X-2.238 Y-0.606 F400.000
G1 X-2.184 Y-0.780 F400.000
G1 X-2.116 Y-0.947 F400.000
G1 X-2.038 Y-1.105 F400.000
G1 X-1.944 Y-1.259 F400.000
G1 X-1.841 Y-1.403 F400.000
G1 X-1.717 Y-1.552 F400.000
G1 X-1.576 Y-1.694 F400.000
G1 X-1.432 Y-1.820 F400.000
G1 X-1.276 Y-1.936 F400.000
G1 X-1.111 Y-2.041 F400.000
G1 X-0.940 Y-2.131 F400.000
G1 X-0.760 Y-2.210 F400.000
G1 X-0.574 Y-2.272 F400.000
G1 X-0.403 Y-2.315 F400.000
G1 X-0.218 Y-2.345 F400.000
G1 X-0.032 Y-2.360 F400.000
G1 X0.148 Y-2.360 F400.000
G1 X0.332 Y-2.349 F400.000
G1 X0.531 Y-2.319 F400.000
G1 X0.715 Y-2.276 F400.000
G1 X0.897 Y-2.214 F400.000
G1 X1.054 Y-2.148 F400.000
G1 X1.218 Y-2.064 F400.000
G1 X1.371 Y-1.968 F400.000
G1 X1.527 Y-1.856 F400.000
G1 X1.683 Y-1.722 F400.000
G1 X1.818 Y-1.587 F400.000
G1 X1.946 Y-1.439 F400.000
G1 X2.060 Y-1.278 F400.000
G1 X2.152 Y-1.128 F400.000
G1 X2.238 Y-0.959 F400.000
G1 X2.310 Y-0.784 F400.000
G1 X2.366 Y-0.608 F400.000
G1 X2.409 Y-0.424 F400.000
G1 X2.437 Y-0.240 F400.000
G1 X2.450 Y-0.054 F400.000
G1 X2.452 Y0.131 F400.000
G1 X2.435 Y0.343 F400.000
G1 X2.405 Y0.535 F400.000
G1 X2.358 Y0.724 F400.000
G1 X2.304 Y0.889 F400.000
G1 X2.231 Y1.062 F400.000
G1 X2.144 Y1.225 F400.000
G1 X2.049 Y1.381 F400.000
G1 X1.931 Y1.546 F400.000
G1 X1.797 Y1.704 F400.000
G1 X1.660 Y1.844 F400.000
G1 X1.505 Y1.974 F400.000
G1 X1.370 Y2.071 F400.000
G1 X1.208 Y2.169 F400.000
G1 X1.043 Y2.251 F400.000
G1 X0.863 Y2.328 F400.000
G1 X0.666 Y2.394 F400.000
G1 X0.477 Y2.441 F400.000
G1 X0.280 Y2.475 F400.000
G1 X0.081 Y2.490 F400.000
G1 X-0.092 Y2.492 F400.000
G1 X-0.280 Y2.478 F400.000
G1 X-0.463 Y2.448 F400.000
G1 X-0.642 Y2.409 F400.000
G1 X-0.842 Y2.349 F400.000
G1 X-1.038 Y2.266 F400.000
G1 X-1.186 Y2.193 F400.000
G1 X-1.351 Y2.094 F400.000
G1 X-1.507 Y1.985 F400.000
G1 X-1.668 Y1.852 F400.000
G1 X-1.811 Y1.715 F400.000
G1 X-1.940 Y1.567 F400.000
G1 X-2.049 Y1.420 F400.000
G1 X-2.152 Y1.259 F400.000
G1 X-2.242 Y1.090 F400.000
G1 X-2.317 Y0.917 F400.000
G1 X-2.379 Y0.737 F400.000
G1 X-2.426 Y0.553 F400.000
G1 X-2.462 Y0.366 F400.000
G1 X-2.488 Y0.150 F400.000
G1 X-2.497 Y-0.064 F400.000
G1 X-2.484 Y-0.268 F400.000
G1 X-2.463 Y-0.432 F400.000
G1 X-2.424 Y-0.619 F400.000
G1 X-2.370 Y-0.795 F400.000
G1 X-2.304 Y-0.962 F400.000
G1 X-2.225 Y-1.131 F400.000
G1 X-2.126 Y-1.310 F400.000
G1 X-2.009 Y-1.482 F400.000
G1 X-1.886 Y-1.638 F400.000
G1 X-1.758 Y-1.777 F400.000
G1 X-1.614 Y-1.910 F400.000
G1 X-1.460 Y-2.032 F400.000
G1 X-1.300 Y-2.141 F400.000
G1 X-1.131 Y-2.240 F400.000
G1 X-0.942 Y-2.332 F400.000
G1 X-0.756 Y-2.405 F400.000
G1 X-0.565 Y-2.465 F400.000
G1 X-0.364 Y-2.508 F400.000
G1 X-0.182 Y-2.535 F400.000
G1 X0.011 Y-2.548 F400.000
G1 X0.205 Y-2.546 F400.000
G1 X0.394 Y-2.529 F400.000
G1 X0.583 Y-2.497 F400.000
G1 X0.771 Y-2.450 F400.000
G1 X0.953 Y-2.390 F400.000
G1 X1.131 Y-2.315 F400.000
G1 X1.302 Y-2.227 F400.000
G1 X1.467 Y-2.126 F400.000
G1 X1.625 Y-2.013 F400.000
G1 X1.784 Y-1.880 F400.000
G1 X1.925 Y-1.743 F400.000
G1 X2.056 Y-1.595 F400.000
G1 X2.178 Y-1.433 F400.000
G1 X2.287 Y-1.266 F400.000
G1 X2.383 Y-1.090 F400.000
G1 X2.465 Y-0.906 F400.000
G1 X2.529 Y-0.715 F400.000
G1 X2.572 Y-0.550 F400.000
G1 X2.606 Y-0.362 F400.000
G1 X2.627 Y-0.176 F400.000
G1 X2.636 Y0.032 F400.000
G1 X2.629 Y0.242 F400.000
G1 X2.608 Y0.443 F400.000
G1 X2.570 Y0.647 F400.000
G1 X2.514 Y0.844 F400.000
G1 X2.456 Y1.008 F400.000
G1 X2.377 Y1.186 F400.000
G1 X2.285 Y1.353 F400.000
G1 X2.186 Y1.510 F400.000
G1 X2.060 Y1.683 F400.000
G1 X1.917 Y1.848 F400.000
G1 X1.771 Y1.991 F400.000
G1 X1.630 Y2.111 F400.000
G1 X1.465 Y2.229 F400.000
G1 X1.296 Y2.332 F400.000
G1 X1.124 Y2.420 F400.000
G1 X0.942 Y2.497 F400.000
G1 X0.756 Y2.563 F400.000
G1 X0.548 Y2.617 F400.000
G1 X0.347 Y2.655 F400.000
G1 X0.143 Y2.675 F400.000
G1 X-0.039 Y2.681 F400.000
G1 X-0.233 Y2.672 F400.000
G1 X-0.424 Y2.645 F400.000
G1 X-0.612 Y2.610 F400.000
G1 X-0.826 Y2.550 F400.000
G1 X-1.013 Y2.482 F400.000
G1 X-1.199 Y2.398 F400.000
G1 X-1.360 Y2.310 F400.000
G1 X-1.523 Y2.203 F400.000
G1 X-1.677 Y2.086 F400.000
G1 X-1.837 Y1.946 F400.000
G1 X-1.977 Y1.801 F400.000
G1 X-2.107 Y1.647 F400.000
G1 X-2.227 Y1.482 F400.000
G1 X-2.334 Y1.310 F400.000
G1 X-2.428 Y1.129 F400.000
G1 X-2.508 Y0.942 F400.000
G1 X-2.574 Y0.750 F400.000
G1 X-2.627 Y0.553 F400.000
G1 X-2.660 Y0.353 F400.000
G1 X-2.679 Y0.167 F400.000
G1 X-2.685 Y-0.028 F400.000
G1 X-2.677 Y-0.221 F400.000
G1 X-2.651 Y-0.432 F400.000
G1 X-2.612 Y-0.629 F400.000
G1 X-2.559 Y-0.824 F400.000
G1 X-2.492 Y-1.015 F400.000
G1 X-2.407 Y-1.199 F400.000
G1 X-2.321 Y-1.355 F400.000
G1 X-2.214 Y-1.518 F400.000
G1 X-2.099 Y-1.672 F400.000
G1 X-1.955 Y-1.841 F400.000
G1 X-1.795 Y-2.002 F400.000
G1 X-1.634 Y-2.139 F400.000
G1 X-1.478 Y-2.255 F400.000
G1 X-1.300 Y-2.368 F400.000
G1 X-1.120 Y-2.465 F400.000
G1 X-0.934 Y-2.548 F400.000
G1 X-0.739 Y-2.615 F400.000
G1 X-0.555 Y-2.666 F400.000
G1 X-0.360 Y-2.704 F400.000
G1 X-0.163 Y-2.726 F400.000
G1 X0.030 Y-2.735 F400.000
G1 X0.242 Y-2.730 F400.000
G1 X0.443 Y-2.709 F400.000
G1 X0.644 Y-2.675 F400.000
G1 X0.842 Y-2.625 F400.000
G1 X1.036 Y-2.561 F400.000
G1 X1.223 Y-2.482 F400.000
G1 X1.405 Y-2.390 F400.000
G1 X1.580 Y-2.285 F400.000
G1 X1.747 Y-2.167 F400.000
G1 X1.904 Y-2.038 F400.000
G1 X2.049 Y-1.893 F400.000
G1 X2.159 Y-1.767 F400.000
G1 X2.278 Y-1.617 F400.000
G1 X2.405 Y-1.430 F400.000
G1 X2.525 Y-1.221 F400.000
G1 X2.617 Y-1.023 F400.000
G1 X2.681 Y-0.850 F400.000
G1 X2.732 Y-0.674 F400.000
G1 X2.775 Y-0.484 F400.000
G1 X2.809 Y-0.265 F400.000
G1 X2.826 Y-0.045 F400.000
G1 X2.829 Y0.163 F400.000
G1 X2.812 Y0.379 F400.000
G1 X2.786 Y0.565 F400.000
G1 X2.743 Y0.764 F400.000
G1 X2.685 Y0.957 F400.000
G1 X2.614 Y1.143 F400.000
G1 X2.527 Y1.325 F400.000
G1 X2.428 Y1.499 F400.000
G1 X2.315 Y1.666 F400.000
G1 X2.193 Y1.826 F400.000
G1 X2.047 Y1.987 F400.000
G1 X1.899 Y2.129 F400.000
G1 X1.739 Y2.263 F400.000
G1 X1.568 Y2.386 F400.000
G1 X1.390 Y2.495 F400.000
G1 X1.205 Y2.593 F400.000
G1 X1.013 Y2.675 F400.000
G1 X0.816 Y2.745 F400.000
G1 X0.615 Y2.801 F400.000
G1 X0.411 Y2.842 F400.000
G1 X0.203 Y2.865 F400.000
G1 X0.017 Y2.872 F400.000
G1 X-0.182 Y2.865 F400.000
G1 X-0.377 Y2.844 F400.000
G1 X-0.589 Y2.809 F400.000
G1 X-0.805 Y2.756 F400.000
G1 X-1.006 Y2.692 F400.000
G1 X-1.206 Y2.608 F400.000
G1 X-1.373 Y2.523 F400.000
G1 X-1.550 Y2.418 F400.000
G1 X-1.715 Y2.302 F400.000
G1 X-1.869 Y2.176 F400.000
G1 X-2.017 Y2.039 F400.000
G1 X-2.167 Y1.876 F400.000
G1 X-2.296 Y1.715 F400.000
G1 X-2.417 Y1.542 F400.000
G1 X-2.525 Y1.360 F400.000
G1 X-2.629 Y1.158 F400.000
G1 X-2.709 Y0.957 F400.000
G1 X-2.769 Y0.773 F400.000
G1 X-2.814 Y0.585 F400.000
G1 X-2.846 Y0.386 F400.000
G1 X-2.867 Y0.191 F400.000
G1 X-2.874 Y-0.028 F400.000
G1 X-2.865 Y-0.255 F400.000
G1 X-2.842 Y-0.467 F400.000
G1 X-2.799 Y-0.683 F400.000
G1 X-2.752 Y-0.863 F400.000
G1 X-2.681 Y-1.056 F400.000
G1 X-2.606 Y-1.223 F400.000
G1 X-2.518 Y-1.392 F400.000
G1 X-2.402 Y-1.582 F400.000
G1 X-2.270 Y-1.767 F400.000
G1 X-2.124 Y-1.946 F400.000
G1 X-1.983 Y-2.096 F400.000
G1 X-1.820 Y-2.242 F400.000
G1 X-1.668 Y-2.360 F400.000
G1 X-1.497 Y-2.475 F400.000
G1 X-1.321 Y-2.578 F400.000
G1 X-1.116 Y-2.677 F400.000
G1 X-0.919 Y-2.758 F400.000
G1 X-0.715 Y-2.826 F400.000
G1 X-0.503 Y-2.878 F400.000
G1 X-0.291 Y-2.910 F400.000
G1 X-0.109 Y-2.927 F400.000
G1 X0.092 Y-2.931 F400.000
G1 X0.289 Y-2.921 F400.000
G1 X0.518 Y-2.897 F400.000
G1 X0.745 Y-2.856 F400.000
G1 X0.955 Y-2.797 F400.000
G1 X1.133 Y-2.735 F400.000
G1 X1.326 Y-2.653 F400.000
G1 X1.507 Y-2.557 F400.000
G1 X1.677 Y-2.452 F400.000
G1 X1.846 Y-2.332 F400.000
G1 X2.015 Y-2.191 F400.000
G1 X2.165 Y-2.047 F400.000
G1 X2.308 Y-1.889 F400.000
G1 X2.441 Y-1.722 F400.000
G1 X2.570 Y-1.533 F400.000
G1 X2.681 Y-1.345 F400.000
G1 X2.775 Y-1.146 F400.000
G1 X2.844 Y-0.976 F400.000
G1 X2.906 Y-0.779 F400.000
G1 X2.955 Y-0.582 F400.000
G1 X2.992 Y-0.362 F400.000
G1 X3.015 Y-0.152 F400.000
G1 X3.024 Y0.075 F400.000
G1 X3.019 Y0.293 F400.000
G1 X2.994 Y0.510 F400.000
G1 X2.961 Y0.702 F400.000
G1 X2.908 Y0.904 F400.000
G1 X2.841 Y1.101 F400.000
G1 X2.762 Y1.289 F400.000
G1 X2.668 Y1.475 F400.000
G1 X2.561 Y1.651 F400.000
G1 X2.443 Y1.820 F400.000
G1 X2.315 Y1.981 F400.000
G1 X2.158 Y2.150 F400.000
G1 X2.002 Y2.296 F400.000
G1 X1.833 Y2.435 F400.000
G1 X1.653 Y2.563 F400.000
G1 X1.467 Y2.677 F400.000
G1 X1.274 Y2.779 F400.000
G1 X1.075 Y2.867 F400.000
G1 X0.871 Y2.940 F400.000
G1 X0.659 Y2.994 F400.000
G1 X0.473 Y3.030 F400.000
G1 X0.266 Y3.054 F400.000
G1 X0.064 Y3.066 F400.000
G1 X-0.152 Y3.062 F400.000
G1 X-0.360 Y3.043 F400.000
G1 X-0.567 Y3.013 F400.000
G1 X-0.801 Y2.961 F400.000
G1 X-1.011 Y2.899 F400.000
G1 X-1.220 Y2.816 F400.000
G1 X-1.392 Y2.735 F400.000
G1 X-1.576 Y2.634 F400.000
G1 X-1.749 Y2.520 F400.000
G1 X-1.910 Y2.396 F400.000
G1 X-2.066 Y2.261 F400.000
G1 X-2.229 Y2.099 F400.000
G1 X-2.381 Y1.925 F400.000
G1 X-2.516 Y1.750 F400.000
G1 X-2.642 Y1.561 F400.000
G1 X-2.750 Y1.362 F400.000
G1 X-2.831 Y1.189 F400.000
G1 X-2.908 Y0.991 F400.000
G1 X-2.968 Y0.790 F400.000
G1 X-3.013 Y0.591 F400.000
G1 X-3.047 Y0.385 F400.000
G1 X-3.066 Y0.158 F400.000
G1 X-3.069 Y-0.053 F400.000
G1 X-3.062 Y-0.266 F400.000
G1 X-3.036 Y-0.503 F400.000
G1 X-2.992 Y-0.719 F400.000
G1 X-2.940 Y-0.912 F400.000
G1 X-2.876 Y-1.096 F400.000
G1 X-2.795 Y-1.283 F400.000
G1 X-2.696 Y-1.475 F400.000
G1 X-2.591 Y-1.653 F400.000
G1 X-2.456 Y-1.852 F400.000
G1 X-2.308 Y-2.041 F400.000
G1 X-2.150 Y-2.210 F400.000
G1 X-2.009 Y-2.343 F400.000
G1 X-1.841 Y-2.482 F400.000
G1 X-1.666 Y-2.604 F400.000
G1 X-1.488 Y-2.713 F400.000
G1 X-1.298 Y-2.812 F400.000
G1 X-1.088 Y-2.908 F400.000
G1 X-0.867 Y-2.989 F400.000
G1 X-0.647 Y-3.049 F400.000
G1 X-0.458 Y-3.088 F400.000
G1 X-0.244 Y-3.118 F400.000
G1 X-0.034 Y-3.131 F400.000
G1 X0.171 Y-3.129 F400.000
G1 X0.379 Y-3.116 F400.000
G1 X0.615 Y-3.083 F400.000
G1 X0.827 Y-3.038 F400.000
G1 X1.039 Y-2.979 F400.000
G1 X1.251 Y-2.901 F400.000
G1 X1.437 Y-2.820 F400.000
G1 X1.629 Y-2.720 F400.000
G1 X1.811 Y-2.608 F400.000
G1 X1.981 Y-2.484 F400.000
G1 X2.144 Y-2.347 F400.000
G1 X2.298 Y-2.199 F400.000
G1 X2.441 Y-2.041 F400.000
G1 X2.576 Y-1.874 F400.000
G1 X2.713 Y-1.677 F400.000
G1 X2.827 Y-1.488 F400.000
G1 X2.931 Y-1.287 F400.000
G1 X3.019 Y-1.073 F400.000
G1 X3.086 Y-0.880 F400.000
G1 X3.144 Y-0.668 F400.000
G1 X3.186 Y-0.454 F400.000
G1 X3.212 Y-0.240 F400.000
G1 X3.225 Y-0.024 F400.000
G1 X3.223 Y0.189 F400.000
G1 X3.206 Y0.403 F400.000
G1 X3.176 Y0.615 F400.000
G1 X3.126 Y0.846 F400.000
G1 X3.066 Y1.058 F400.000
G1 X2.987 Y1.268 F400.000
G1 X2.904 Y1.448 F400.000
G1 X2.803 Y1.636 F400.000
G1 X2.689 Y1.814 F400.000
G1 X2.567 Y1.983 F400.000
G1 X2.420 Y2.161 F400.000
G1 X2.259 Y2.330 F400.000
G1 X2.096 Y2.482 F400.000
G1 X1.917 Y2.627 F400.000
G1 X1.730 Y2.758 F400.000
G1 X1.537 Y2.876 F400.000
G1 X1.332 Y2.979 F400.000
G1 X1.152 Y3.056 F400.000
G1 X0.947 Y3.128 F400.000
G1 X0.741 Y3.182 F400.000
G1 X0.537 Y3.221 F400.000
G1 X0.326 Y3.250 F400.000
G1 X0.092 Y3.263 F400.000
G1 X-0.124 Y3.261 F400.000
G1 X-0.343 Y3.246 F400.000
G1 X-0.582 Y3.216 F400.000
G1 X-0.816 Y3.165 F400.000
G1 X-1.015 Y3.105 F400.000
G1 X-1.188 Y3.041 F400.000
G1 X-1.379 Y2.959 F400.000
G1 X-1.593 Y2.850 F400.000
G1 X-1.799 Y2.726 F400.000
G1 X-1.989 Y2.591 F400.000
G1 X-2.146 Y2.463 F400.000
G1 X-2.311 Y2.310 F400.000
G1 X-2.462 Y2.148 F400.000
G1 X-2.598 Y1.981 F400.000
G1 X-2.724 Y1.801 F400.000
G1 X-2.839 Y1.615 F400.000
G1 X-2.949 Y1.405 F400.000
G1 X-3.041 Y1.199 F400.000
G1 X-3.120 Y0.985 F400.000
G1 X-3.182 Y0.764 F400.000
G1 X-3.223 Y0.570 F400.000
G1 X-3.253 Y0.356 F400.000
G1 X-3.270 Y0.143 F400.000
G1 X-3.272 Y-0.090 F400.000
G1 X-3.259 Y-0.310 F400.000
G1 X-3.231 Y-0.531 F400.000
G1 X-3.188 Y-0.750 F400.000
G1 X-3.131 Y-0.966 F400.000
G1 X-3.060 Y-1.176 F400.000
G1 X-2.976 Y-1.383 F400.000
G1 X-2.876 Y-1.582 F400.000
G1 X-2.764 Y-1.775 F400.000
G1 X-2.636 Y-1.959 F400.000
G1 X-2.510 Y-2.118 F400.000
G1 X-2.368 Y-2.280 F400.000
G1 X-2.199 Y-2.445 F400.000
G1 X-2.019 Y-2.598 F400.000
G1 X-1.837 Y-2.737 F400.000
G1 X-1.640 Y-2.863 F400.000
G1 X-1.460 Y-2.964 F400.000
G1 X-1.257 Y-3.060 F400.000
G1 X-1.051 Y-3.141 F400.000
G1 X-0.844 Y-3.205 F400.000
G1 X-0.630 Y-3.259 F400.000
G1 X-0.394 Y-3.300 F400.000
G1 X-0.167 Y-3.326 F400.000
G1 X0.062 Y-3.338 F400.000
G1 X0.293 Y-3.330 F400.000
G1 X0.497 Y-3.311 F400.000
G1 X0.717 Y-3.276 F400.000
G1 X0.931 Y-3.225 F400.000
G1 X1.137 Y-3.161 F400.000
G1 X1.341 Y-3.083 F400.000
G1 X1.540 Y-2.992 F400.000
G1 X1.750 Y-2.880 F400.000
G1 X1.942 Y-2.760 F400.000
G1 X2.126 Y-2.627 F400.000
G1 X2.302 Y-2.477 F400.000
G1 X2.450 Y-2.334 F400.000
G1 X2.598 Y-2.171 F400.000
G1 X2.735 Y-2.000 F400.000
G1 X2.872 Y-1.805 F400.000
G1 X2.989 Y-1.612 F400.000
G1 X3.094 Y-1.409 F400.000
G1 X3.186 Y-1.197 F400.000
G1 X3.263 Y-0.983 F400.000
G1 X3.326 Y-0.764 F400.000
G1 X3.375 Y-0.538 F400.000
G1 X3.409 Y-0.311 F400.000
G1 X3.426 Y-0.083 F400.000
G1 X3.428 Y0.120 F400.000
G1 X3.415 Y0.338 F400.000
G1 X3.388 Y0.553 F400.000
G1 X3.347 Y0.788 F400.000
G1 X3.289 Y1.021 F400.000
G1 X3.214 Y1.242 F400.000
G1 X3.139 Y1.430 F400.000
G1 X3.039 Y1.634 F400.000
G1 X2.929 Y1.826 F400.000
G1 X2.809 Y2.006 F400.000
G1 X2.674 Y2.180 F400.000
G1 X2.531 Y2.347 F400.000
G1 X2.362 Y2.518 F400.000
G1 X2.191 Y2.670 F400.000
G1 X2.009 Y2.812 F400.000
G1 X1.814 Y2.946 F400.000
G1 X1.614 Y3.064 F400.000
G1 X1.405 Y3.169 F400.000
G1 X1.189 Y3.257 F400.000
G1 X0.991 Y3.326 F400.000
G1 X0.773 Y3.385 F400.000
G1 X0.555 Y3.428 F400.000
G1 X0.338 Y3.456 F400.000
G1 X0.116 Y3.469 F400.000
G1 X-0.103 Y3.469 F400.000
G1 X-0.341 Y3.452 F400.000
G1 X-0.568 Y3.422 F400.000
G1 X-0.794 Y3.377 F400.000
G1 X-1.017 Y3.317 F400.000
G1 X-1.235 Y3.244 F400.000
G1 X-1.448 Y3.156 F400.000
G1 X-1.657 Y3.054 F400.000
G1 X-1.856 Y2.936 F400.000
G1 X-2.024 Y2.822 F400.000
G1 X-2.199 Y2.685 F400.000
G1 X-2.364 Y2.540 F400.000
G1 X-2.533 Y2.371 F400.000
G1 X-2.690 Y2.191 F400.000
G1 X-2.835 Y2.006 F400.000
G1 X-2.966 Y1.807 F400.000
G1 X-3.073 Y1.621 F400.000
G1 X-3.174 Y1.415 F400.000
G1 X-3.261 Y1.205 F400.000
G1 X-3.332 Y0.992 F400.000
G1 X-3.390 Y0.773 F400.000
G1 X-3.433 Y0.552 F400.000
G1 X-3.462 Y0.328 F400.000
G1 X-3.475 Y0.103 F400.000
G1 X-3.473 Y-0.120 F400.000
G1 X-3.460 Y-0.343 F400.000
G1 X-3.428 Y-0.580 F400.000
G1 X-3.383 Y-0.807 F400.000
G1 X-3.323 Y-1.036 F400.000
G1 X-3.248 Y-1.261 F400.000
G1 X-3.156 Y-1.478 F400.000
G1 X-3.062 Y-1.668 F400.000
G1 X-2.947 Y-1.865 F400.000
G1 X-2.822 Y-2.051 F400.000
G1 X-2.687 Y-2.225 F400.000
G1 X-2.537 Y-2.394 F400.000
G1 X-2.381 Y-2.553 F400.000
G1 X-2.201 Y-2.713 F400.000
G1 X-2.015 Y-2.859 F400.000
G1 X-1.818 Y-2.996 F400.000
G1 X-1.612 Y-3.120 F400.000
G1 X-1.396 Y-3.225 F400.000
G1 X-1.216 Y-3.302 F400.000
G1 X-1.002 Y-3.375 F400.000
G1 X-0.790 Y-3.435 F400.000
G1 X-0.553 Y-3.484 F400.000
G1 X-0.326 Y-3.516 F400.000
G1 X-0.096 Y-3.535 F400.000
G1 X0.139 Y-3.538 F400.000
G1 X0.370 Y-3.527 F400.000
G1 X0.600 Y-3.501 F400.000
G1 X0.829 Y-3.460 F400.000
G1 X1.054 Y-3.403 F400.000
G1 X1.276 Y-3.332 F400.000
G1 X1.492 Y-3.248 F400.000
G1 X1.702 Y-3.150 F400.000
G1 X1.904 Y-3.036 F400.000
G1 X2.077 Y-2.923 F400.000
G1 X2.255 Y-2.788 F400.000
G1 X2.424 Y-2.645 F400.000
G1 X2.597 Y-2.478 F400.000
G1 X2.750 Y-2.308 F400.000
G1 X2.893 Y-2.128 F400.000
G1 X3.028 Y-1.938 F400.000
G1 X3.154 Y-1.734 F400.000
G1 X3.268 Y-1.522 F400.000
G1 X3.370 Y-1.304 F400.000
G1 X3.456 Y-1.079 F400.000
G1 X3.523 Y-0.848 F400.000
G1 X3.570 Y-0.653 F400.000
G1 X3.608 Y-0.426 F400.000
G1 X3.629 Y-0.203 F400.000
G1 X3.634 Y0.013 F400.000
G1 X3.629 Y0.235 F400.000
G1 X3.606 Y0.473 F400.000
G1 X3.572 Y0.700 F400.000
G1 X3.523 Y0.934 F400.000
G1 X3.460 Y1.165 F400.000
G1 X3.379 Y1.390 F400.000
G1 X3.293 Y1.593 F400.000
G1 X3.186 Y1.805 F400.000
G1 X3.066 Y2.008 F400.000
G1 X2.931 Y2.197 F400.000
G1 X2.807 Y2.351 F400.000
G1 X2.660 Y2.514 F400.000
G1 X2.490 Y2.683 F400.000
G1 X2.308 Y2.841 F400.000
G1 X2.118 Y2.987 F400.000
G1 X1.919 Y3.122 F400.000
G1 X1.713 Y3.246 F400.000
G1 X1.499 Y3.356 F400.000
G1 X1.278 Y3.448 F400.000
G1 X1.083 Y3.518 F400.000
G1 X0.857 Y3.582 F400.000
G1 X0.632 Y3.629 F400.000
G1 X0.413 Y3.660 F400.000
G1 X0.186 Y3.677 F400.000
G1 X-0.038 Y3.679 F400.000
G1 X-0.261 Y3.670 F400.000
G1 X-0.499 Y3.645 F400.000
G1 X-0.735 Y3.606 F400.000
G1 X-0.968 Y3.553 F400.000
G1 X-1.197 Y3.482 F400.000
G1 X-1.398 Y3.407 F400.000
G1 X-1.615 Y3.310 F400.000
G1 X-1.822 Y3.199 F400.000
G1 X-2.017 Y3.079 F400.000
G1 X-2.206 Y2.944 F400.000
G1 X-2.386 Y2.797 F400.000
G1 X-2.555 Y2.640 F400.000
G1 X-2.719 Y2.475 F400.000
G1 X-2.874 Y2.293 F400.000
G1 X-3.019 Y2.101 F400.000
G1 X-3.150 Y1.901 F400.000
G1 X-3.265 Y1.702 F400.000
G1 X-3.371 Y1.486 F400.000
G1 X-3.463 Y1.265 F400.000
G1 X-3.540 Y1.041 F400.000
G1 X-3.598 Y0.811 F400.000
G1 X-3.638 Y0.612 F400.000
G1 X-3.666 Y0.386 F400.000
G1 X-3.681 Y0.165 F400.000
G1 X-3.683 Y-0.073 F400.000
G1 X-3.670 Y-0.311 F400.000
G1 X-3.642 Y-0.550 F400.000
G1 X-3.600 Y-0.786 F400.000
G1 X-3.544 Y-1.019 F400.000
G1 X-3.473 Y-1.248 F400.000
G1 X-3.388 Y-1.473 F400.000
G1 X-3.287 Y-1.690 F400.000
G1 X-3.186 Y-1.880 F400.000
G1 X-3.062 Y-2.079 F400.000
G1 X-2.927 Y-2.265 F400.000
G1 X-2.782 Y-2.439 F400.000
G1 X-2.625 Y-2.606 F400.000
G1 X-2.460 Y-2.764 F400.000
G1 X-2.278 Y-2.921 F400.000
G1 X-2.086 Y-3.066 F400.000
G1 X-1.887 Y-3.201 F400.000
G1 X-1.677 Y-3.319 F400.000
G1 X-1.480 Y-3.417 F400.000
G1 X-1.259 Y-3.510 F400.000
G1 X-1.032 Y-3.589 F400.000
G1 X-0.805 Y-3.649 F400.000
G1 X-0.598 Y-3.690 F400.000
G1 X-0.371 Y-3.722 F400.000
G1 X-0.131 Y-3.741 F400.000
G1 X0.107 Y-3.749 F400.000
G1 X0.345 Y-3.741 F400.000
G1 X0.583 Y-3.719 F400.000
G1 X0.820 Y-3.679 F400.000
G1 X1.038 Y-3.630 F400.000
G1 X1.268 Y-3.563 F400.000
G1 X1.493 Y-3.480 F400.000
G1 X1.709 Y-3.386 F400.000
G1 X1.919 Y-3.272 F400.000
G1 X2.090 Y-3.167 F400.000
G1 X2.272 Y-3.038 F400.000
G1 X2.445 Y-2.901 F400.000
G1 X2.625 Y-2.741 F400.000
G1 X2.794 Y-2.570 F400.000
G1 X2.953 Y-2.390 F400.000
G1 X3.101 Y-2.201 F400.000
G1 X3.238 Y-2.004 F400.000
G1 X3.364 Y-1.799 F400.000
G1 X3.478 Y-1.587 F400.000
G1 X3.576 Y-1.368 F400.000
G1 X3.653 Y-1.163 F400.000
G1 X3.724 Y-0.932 F400.000
G1 X3.779 Y-0.700 F400.000
G1 X3.816 Y-0.469 F400.000
G1 X3.837 Y-0.259 F400.000
G1 X3.844 Y-0.032 F400.000
G1 X3.841 Y0.189 F400.000
G1 X3.824 Y0.428 F400.000
G1 X3.794 Y0.666 F400.000
G1 X3.750 Y0.902 F400.000
G1 X3.694 Y1.135 F400.000
G1 X3.619 Y1.362 F400.000
G1 X3.542 Y1.561 F400.000
G1 X3.443 Y1.779 F400.000
G1 X3.328 Y1.989 F400.000
G1 X3.199 Y2.184 F400.000
G1 X3.086 Y2.334 F400.000
G1 X2.947 Y2.505 F400.000
G1 X2.786 Y2.683 F400.000
G1 X2.614 Y2.850 F400.000
G1 X2.433 Y3.009 F400.000
G1 X2.246 Y3.159 F400.000
G1 X2.047 Y3.295 F400.000
G1 X1.841 Y3.418 F400.000
G1 X1.634 Y3.527 F400.000
G1 X1.415 Y3.625 F400.000
G1 X1.189 Y3.709 F400.000
G1 X0.959 Y3.775 F400.000
G1 X0.754 Y3.820 F400.000
G1 X0.527 Y3.856 F400.000
G1 X0.302 Y3.878 F400.000
G1 X0.062 Y3.889 F400.000
G1 X-0.176 Y3.887 F400.000
G1 X-0.415 Y3.871 F400.000
G1 X-0.653 Y3.841 F400.000
G1 X-0.887 Y3.794 F400.000
G1 X-1.107 Y3.737 F400.000
G1 X-1.334 Y3.664 F400.000
G1 X-1.557 Y3.576 F400.000
G1 X-1.773 Y3.471 F400.000
G1 X-1.957 Y3.368 F400.000
G1 X-2.152 Y3.240 F400.000
G1 X-2.338 Y3.105 F400.000
G1 X-2.523 Y2.955 F400.000
G1 X-2.700 Y2.792 F400.000
G1 X-2.867 Y2.619 F400.000
G1 X-3.024 Y2.439 F400.000
G1 X-3.171 Y2.250 F400.000
G1 X-3.308 Y2.053 F400.000
G1 X-3.430 Y1.846 F400.000
G1 X-3.537 Y1.640 F400.000
G1 X-3.634 Y1.420 F400.000
G1 X-3.715 Y1.193 F400.000
G1 X-3.777 Y0.985 F400.000
G1 X-3.829 Y0.752 F400.000
G1 X-3.865 Y0.520 F400.000
G1 X-3.886 Y0.291 F400.000
G1 X-3.895 Y0.056 F400.000
G1 X-3.891 Y-0.182 F400.000
G1 X-3.872 Y-0.420 F400.000
G1 X-3.841 Y-0.657 F400.000
G1 X-3.795 Y-0.891 F400.000
G1 X-3.735 Y-1.124 F400.000
G1 X-3.662 Y-1.353 F400.000
G1 X-3.576 Y-1.576 F400.000
G1 X-3.477 Y-1.794 F400.000
G1 X-3.360 Y-2.004 F400.000
G1 X-3.248 Y-2.186 F400.000
G1 X-3.107 Y-2.381 F400.000
G1 X-2.957 Y-2.563 F400.000
G1 X-2.799 Y-2.732 F400.000
G1 X-2.630 Y-2.897 F400.000
G1 X-2.450 Y-3.054 F400.000
G1 X-2.261 Y-3.201 F400.000
G1 X-2.064 Y-3.338 F400.000
G1 X-1.859 Y-3.463 F400.000
G1 X-1.645 Y-3.574 F400.000
G1 X-1.426 Y-3.672 F400.000
G1 X-1.210 Y-3.754 F400.000
G1 X-0.979 Y-3.826 F400.000
G1 X-0.745 Y-3.882 F400.000
G1 X-0.508 Y-3.923 F400.000
G1 X-0.268 Y-3.949 F400.000
G1 X-0.028 Y-3.961 F400.000
G1 X0.210 Y-3.959 F400.000
G1 X0.448 Y-3.946 F400.000
G1 X0.687 Y-3.919 F400.000
G1 X0.923 Y-3.878 F400.000
G1 X1.156 Y-3.820 F400.000
G1 X1.379 Y-3.752 F400.000
G1 X1.602 Y-3.666 F400.000
G1 X1.801 Y-3.576 F400.000
G1 X2.009 Y-3.465 F400.000
G1 X2.212 Y-3.340 F400.000
G1 X2.400 Y-3.206 F400.000
G1 X2.583 Y-3.060 F400.000
G1 X2.764 Y-2.901 F400.000
G1 X2.934 Y-2.732 F400.000
G1 X3.096 Y-2.553 F400.000
G1 X3.248 Y-2.366 F400.000
G1 X3.388 Y-2.171 F400.000
G1 X3.518 Y-1.968 F400.000
G1 X3.636 Y-1.760 F400.000
G1 X3.737 Y-1.542 F400.000
G1 X3.822 Y-1.338 F400.000
G1 X3.899 Y-1.109 F400.000
G1 X3.961 Y-0.876 F400.000
G1 X4.009 Y-0.640 F400.000
G1 X4.043 Y-0.402 F400.000
G1 X4.062 Y-0.161 F400.000
G1 X4.068 Y0.077 F400.000
G1 X4.058 Y0.315 F400.000
G1 X4.034 Y0.553 F400.000
G1 X3.994 Y0.790 F400.000
G1 X3.946 Y1.024 F400.000
G1 X3.880 Y1.255 F400.000
G1 X3.801 Y1.482 F400.000
G1 X3.711 Y1.704 F400.000
G1 X3.608 Y1.919 F400.000
G1 X3.488 Y2.128 F400.000
G1 X3.368 Y2.315 F400.000
G1 X3.225 Y2.508 F400.000
G1 X3.071 Y2.692 F400.000
G1 X2.908 Y2.865 F400.000
G1 X2.735 Y3.032 F400.000
G1 X2.553 Y3.189 F400.000
G1 X2.364 Y3.336 F400.000
G1 X2.167 Y3.473 F400.000
G1 X1.962 Y3.598 F400.000
G1 X1.750 Y3.713 F400.000
G1 X1.531 Y3.811 F400.000
G1 X1.325 Y3.887 F400.000
G1 X1.116 Y3.951 F400.000
G1 X0.886 Y4.008 F400.000
G1 X0.649 Y4.051 F400.000
G1 X0.411 Y4.083 F400.000
G1 X0.171 Y4.101 F400.000
G1 X-0.068 Y4.107 F400.000
G1 X-0.306 Y4.099 F400.000
G1 X-0.544 Y4.079 F400.000
G1 X-0.780 Y4.039 F400.000
G1 X-1.008 Y3.991 F400.000
G1 X-1.238 Y3.927 F400.000
G1 X-1.465 Y3.848 F400.000
G1 X-1.687 Y3.756 F400.000
G1 X-1.901 Y3.647 F400.000
G1 X-2.094 Y3.537 F400.000
G1 X-2.295 Y3.403 F400.000
G1 X-2.486 Y3.261 F400.000
G1 X-2.672 Y3.109 F400.000
G1 X-2.850 Y2.947 F400.000
G1 X-3.019 Y2.777 F400.000
G1 X-3.178 Y2.597 F400.000
G1 X-3.328 Y2.409 F400.000
G1 X-3.467 Y2.214 F400.000
G1 X-3.591 Y2.008 F400.000
G1 X-3.700 Y1.809 F400.000
G1 X-3.801 Y1.591 F400.000
G1 X-3.889 Y1.366 F400.000
G1 X-3.961 Y1.135 F400.000
G1 X-4.015 Y0.917 F400.000
G1 X-4.058 Y0.681 F400.000
G1 X-4.088 Y0.447 F400.000
G1 X-4.107 Y0.206 F400.000
G1 X-4.111 Y-0.032 F400.000
G1 X-4.101 Y-0.270 F400.000
G1 X-4.079 Y-0.508 F400.000
G1 X-4.045 Y-0.745 F400.000
G1 X-3.996 Y-0.979 F400.000
G1 X-3.936 Y-1.210 F400.000
G1 X-3.863 Y-1.439 F400.000
G1 X-3.775 Y-1.662 F400.000
G1 X-3.675 Y-1.880 F400.000
G1 X-3.563 Y-2.092 F400.000
G1 X-3.437 Y-2.296 F400.000
G1 X-3.296 Y-2.492 F400.000
G1 X-3.161 Y-2.660 F400.000
G1 X-3.000 Y-2.837 F400.000
G1 X-2.831 Y-3.004 F400.000
G1 X-2.653 Y-3.165 F400.000
G1 X-2.465 Y-3.315 F400.000
G1 X-2.270 Y-3.456 F400.000
G1 X-2.068 Y-3.585 F400.000
G1 X-1.857 Y-3.704 F400.000
G1 X-1.642 Y-3.811 F400.000
G1 X-1.420 Y-3.906 F400.000
G1 X-1.193 Y-3.985 F400.000
G1 X-0.968 Y-4.049 F400.000
G1 X-0.741 Y-4.099 F400.000
G1 X-0.503 Y-4.139 F400.000
G1 X-0.263 Y-4.163 F400.000
G1 X-0.023 Y-4.174 F400.000
G1 X0.216 Y-4.174 F400.000
G1 X0.454 Y-4.161 F400.000
G1 X0.692 Y-4.135 F400.000
G1 X0.929 Y-4.098 F400.000
G1 X1.161 Y-4.043 F400.000
G1 X1.392 Y-3.977 F400.000
G1 X1.617 Y-3.895 F400.000
G1 X1.822 Y-3.807 F400.000
G1 X2.036 Y-3.698 F400.000
G1 X2.242 Y-3.574 F400.000
G1 X2.439 Y-3.443 F400.000
G1 X2.632 Y-3.300 F400.000
G1 X2.816 Y-3.144 F400.000
G1 X2.992 Y-2.981 F400.000
G1 X3.159 Y-2.809 F400.000
G1 X3.315 Y-2.627 F400.000
G1 X3.463 Y-2.437 F400.000
G1 X3.600 Y-2.240 F400.000
G1 X3.726 Y-2.036 F400.000
G1 X3.841 Y-1.824 F400.000
G1 X3.944 Y-1.606 F400.000
G1 X4.036 Y-1.383 F400.000
G1 X4.111 Y-1.154 F400.000
G1 X4.174 Y-0.923 F400.000
G1 X4.225 Y-0.687 F400.000
G1 X4.261 Y-0.448 F400.000
G1 X4.283 Y-0.208 F400.000
G1 X4.291 Y0.030 F400.000
G1 X4.285 Y0.268 F400.000
G1 X4.265 Y0.507 F400.000
G1 X4.231 Y0.743 F400.000
G1 X4.184 Y0.977 F400.000
G1 X4.122 Y1.208 F400.000
G1 X4.051 Y1.437 F400.000
G1 X3.964 Y1.660 F400.000
G1 X3.867 Y1.880 F400.000
G1 X3.758 Y2.094 F400.000
G1 X3.636 Y2.300 F400.000
G1 X3.503 Y2.501 F400.000
G1 X3.356 Y2.692 F400.000
G1 X3.201 Y2.876 F400.000
G1 X3.034 Y3.049 F400.000
G1 X2.859 Y3.214 F400.000
G1 X2.677 Y3.371 F400.000
G1 X2.486 Y3.518 F400.000
G1 X2.287 Y3.655 F400.000
G1 X2.083 Y3.780 F400.000
G1 X1.871 Y3.895 F400.000
G1 X1.651 Y3.994 F400.000
G1 X1.430 Y4.079 F400.000
G1 X1.206 Y4.150 F400.000
G1 X0.972 Y4.208 F400.000
G1 X0.735 Y4.257 F400.000
G1 X0.497 Y4.293 F400.000
G1 X0.257 Y4.313 F400.000
G1 X0.017 Y4.323 F400.000
G1 X-0.221 Y4.319 F400.000
G1 X-0.460 Y4.302 F400.000
G1 X-0.698 Y4.274 F400.000
G1 X-0.934 Y4.233 F400.000
G1 X-1.167 Y4.178 F400.000
G1 X-1.396 Y4.107 F400.000
G1 X-1.612 Y4.028 F400.000
G1 X-1.831 Y3.932 F400.000
G1 X-2.043 Y3.822 F400.000
G1 X-2.250 Y3.700 F400.000
G1 X-2.448 Y3.567 F400.000
G1 X-2.640 Y3.420 F400.000
G1 X-2.824 Y3.266 F400.000
G1 X-3.000 Y3.105 F400.000
G1 X-3.169 Y2.934 F400.000
G1 X-3.330 Y2.756 F400.000
G1 X-3.482 Y2.570 F400.000
G1 X-3.621 Y2.375 F400.000
G1 X-3.749 Y2.173 F400.000
G1 X-3.867 Y1.962 F400.000
G1 X-3.972 Y1.747 F400.000
G1 X-4.064 Y1.525 F400.000
G1 X-4.141 Y1.296 F400.000
G1 X-4.203 Y1.075 F400.000
G1 X-4.251 Y0.839 F400.000
G1 X-4.289 Y0.600 F400.000
G1 X-4.311 Y0.360 F400.000
G1 X-4.325 Y0.120 F400.000
G1 X-4.326 Y-0.118 F400.000
G1 X-4.313 Y-0.356 F400.000
G1 X-4.289 Y-0.595 F400.000
G1 X-4.253 Y-0.831 F400.000
G1 X-4.205 Y-1.066 F400.000
G1 X-4.144 Y-1.298 F400.000
G1 X-4.069 Y-1.525 F400.000
G1 X-3.983 Y-1.749 F400.000
G1 X-3.884 Y-1.966 F400.000
G1 X-3.769 Y-2.176 F400.000
G1 X-3.647 Y-2.379 F400.000
G1 X-3.510 Y-2.576 F400.000
G1 X-3.362 Y-2.764 F400.000
G1 X-3.203 Y-2.944 F400.000
G1 X-3.034 Y-3.114 F400.000
G1 X-2.857 Y-3.278 F400.000
G1 X-2.674 Y-3.432 F400.000
G1 X-2.480 Y-3.574 F400.000
G1 X-2.281 Y-3.707 F400.000
G1 X-2.075 Y-3.831 F400.000
G1 X-1.863 Y-3.944 F400.000
G1 X-1.645 Y-4.045 F400.000
G1 X-1.422 Y-4.135 F400.000
G1 X-1.195 Y-4.214 F400.000
G1 X-0.962 Y-4.276 F400.000
G1 X-0.728 Y-4.328 F400.000
G1 X-0.490 Y-4.366 F400.000
G1 X-0.250 Y-4.388 F400.000
G1 X-0.009 Y-4.400 F400.000
G1 X0.229 Y-4.396 F400.000
G1 X0.467 Y-4.383 F400.000
G1 X0.705 Y-4.355 F400.000
G1 X0.942 Y-4.315 F400.000
G1 X1.176 Y-4.265 F400.000
G1 X1.407 Y-4.201 F400.000
G1 X1.634 Y-4.124 F400.000
G1 X1.856 Y-4.032 F400.000
G1 X2.069 Y-3.931 F400.000
G1 X2.280 Y-3.814 F400.000
G1 X2.482 Y-3.687 F400.000
G1 X2.677 Y-3.548 F400.000
G1 X2.865 Y-3.398 F400.000
G1 X3.045 Y-3.238 F400.000
G1 X3.218 Y-3.071 F400.000
G1 X3.379 Y-2.893 F400.000
G1 X3.533 Y-2.707 F400.000
G1 X3.677 Y-2.514 F400.000
G1 X3.811 Y-2.313 F400.000
G1 X3.934 Y-2.107 F400.000
G1 X4.047 Y-1.895 F400.000
G1 X4.148 Y-1.677 F400.000
G1 X4.238 Y-1.454 F400.000
G1 X4.317 Y-1.227 F400.000
G1 X4.383 Y-0.996 F400.000
G1 X4.437 Y-0.762 F400.000
G1 X4.475 Y-0.523 F400.000
G1 X4.501 Y-0.287 F400.000
G1 X4.512 Y-0.047 F400.000
G1 X4.508 Y0.191 F400.000
G1 X4.493 Y0.430 F400.000
G1 X4.463 Y0.668 F400.000
G1 X4.422 Y0.904 F400.000
G1 X4.368 Y1.137 F400.000
G1 X4.304 Y1.368 F400.000
G1 X4.227 Y1.595 F400.000
G1 X4.137 Y1.818 F400.000
G1 X4.038 Y2.036 F400.000
G1 X3.927 Y2.248 F400.000
G1 X3.801 Y2.452 F400.000
G1 X3.666 Y2.651 F400.000
G1 X3.520 Y2.842 F400.000
G1 X3.362 Y3.024 F400.000
G1 X3.197 Y3.199 F400.000
G1 X3.023 Y3.364 F400.000
G1 X2.841 Y3.522 F400.000
G1 X2.651 Y3.670 F400.000
G1 X2.454 Y3.809 F400.000
G1 X2.251 Y3.938 F400.000
G1 X2.041 Y4.056 F400.000
G1 X1.824 Y4.159 F400.000
G1 X1.600 Y4.250 F400.000
G1 X1.373 Y4.328 F400.000
G1 X1.141 Y4.392 F400.000
G1 X0.906 Y4.447 F400.000
G1 X0.670 Y4.488 F400.000
G1 X0.430 Y4.516 F400.000
G1 X0.189 Y4.533 F400.000
G1 X-0.049 Y4.540 F400.000
G1 X-0.287 Y4.533 F400.000
G1 X-0.525 Y4.514 F400.000
G1 X-0.764 Y4.484 F400.000
G1 X-1.000 Y4.443 F400.000
G1 X-1.233 Y4.386 F400.000
G1 X-1.463 Y4.319 F400.000
G1 X-1.689 Y4.235 F400.000
G1 X-1.906 Y4.141 F400.000
G1 X-2.120 Y4.034 F400.000
G1 X-2.326 Y3.914 F400.000
G1 X-2.527 Y3.782 F400.000
G1 X-2.720 Y3.640 F400.000
G1 X-2.906 Y3.488 F400.000
G1 X-3.086 Y3.328 F400.000
G1 X-3.259 Y3.161 F400.000
G1 X-3.424 Y2.987 F400.000
G1 X-3.582 Y2.805 F400.000
G1 X-3.726 Y2.614 F400.000
G1 X-3.863 Y2.417 F400.000
G1 X-3.987 Y2.210 F400.000
G1 X-4.099 Y1.998 F400.000
G1 X-4.201 Y1.780 F400.000
G1 X-4.289 Y1.557 F400.000
G1 X-4.362 Y1.328 F400.000
G1 X-4.422 Y1.099 F400.000
G1 X-4.469 Y0.863 F400.000
G1 X-4.507 Y0.625 F400.000
G1 X-4.533 Y0.385 F400.000
G1 X-4.546 Y0.144 F400.000
G1 X-4.548 Y-0.094 F400.000
G1 X-4.537 Y-0.332 F400.000
G1 X-4.514 Y-0.570 F400.000
G1 X-4.482 Y-0.807 F400.000
G1 X-4.437 Y-1.041 F400.000
G1 X-4.381 Y-1.274 F400.000
G1 X-4.311 Y-1.503 F400.000
G1 X-4.233 Y-1.728 F400.000
G1 X-4.137 Y-1.947 F400.000
G1 X-4.032 Y-2.163 F400.000
G1 X-3.914 Y-2.371 F400.000
G1 X-3.782 Y-2.572 F400.000
G1 X-3.642 Y-2.767 F400.000
G1 X-3.490 Y-2.953 F400.000
G1 X-3.330 Y-3.131 F400.000
G1 X-3.159 Y-3.300 F400.000
G1 X-2.981 Y-3.462 F400.000
G1 X-2.795 Y-3.614 F400.000
G1 X-2.602 Y-3.756 F400.000
G1 X-2.402 Y-3.889 F400.000
G1 X-2.197 Y-4.015 F400.000
G1 X-1.985 Y-4.129 F400.000
G1 X-1.767 Y-4.233 F400.000
G1 X-1.546 Y-4.326 F400.000
G1 X-1.321 Y-4.409 F400.000
G1 X-1.090 Y-4.475 F400.000
G1 X-0.856 Y-4.529 F400.000
G1 X-0.619 Y-4.570 F400.000
G1 X-0.379 Y-4.598 F400.000
G1 X-0.139 Y-4.614 F400.000
G1 X0.099 Y-4.619 F400.000
G1 X0.338 Y-4.614 F400.000
G1 X0.576 Y-4.595 F400.000
G1 X0.814 Y-4.565 F400.000
G1 X1.051 Y-4.523 F400.000
G1 X1.283 Y-4.471 F400.000
G1 X1.512 Y-4.402 F400.000
G1 X1.739 Y-4.323 F400.000
G1 X1.961 Y-4.231 F400.000
G1 X2.176 Y-4.126 F400.000
G1 X2.386 Y-4.011 F400.000
G1 X2.591 Y-3.886 F400.000
G1 X2.788 Y-3.749 F400.000
G1 X2.977 Y-3.600 F400.000
G1 X3.158 Y-3.443 F400.000
G1 X3.330 Y-3.276 F400.000
G1 X3.493 Y-3.099 F400.000
G1 X3.649 Y-2.917 F400.000
G1 X3.797 Y-2.728 F400.000
G1 X3.934 Y-2.531 F400.000
G1 X4.064 Y-2.328 F400.000
G1 X4.182 Y-2.120 F400.000
G1 X4.291 Y-1.906 F400.000
G1 X4.390 Y-1.687 F400.000
G1 X4.478 Y-1.463 F400.000
G1 X4.550 Y-1.235 F400.000
G1 X4.614 Y-1.002 F400.000
G1 X4.664 Y-0.765 F400.000
G1 X4.700 Y-0.527 F400.000
G1 X4.724 Y-0.287 F400.000
G1 X4.735 Y-0.047 F400.000
G1 X4.734 Y0.191 F400.000
G1 X4.720 Y0.430 F400.000
G1 X4.694 Y0.668 F400.000
G1 X4.655 Y0.904 F400.000
G1 X4.602 Y1.139 F400.000
G1 X4.538 Y1.370 F400.000
G1 X4.462 Y1.597 F400.000
G1 X4.375 Y1.820 F400.000
G1 X4.280 Y2.039 F400.000
G1 X4.173 Y2.253 F400.000
G1 X4.056 Y2.463 F400.000
G1 X3.927 Y2.666 F400.000
G1 X3.790 Y2.863 F400.000
G1 X3.642 Y3.053 F400.000
G1 X3.484 Y3.233 F400.000
G1 X3.317 Y3.405 F400.000
G1 X3.141 Y3.568 F400.000
G1 X2.957 Y3.722 F400.000
G1 X2.765 Y3.867 F400.000
G1 X2.567 Y4.002 F400.000
G1 X2.362 Y4.129 F400.000
G1 X2.152 Y4.246 F400.000
G1 X1.936 Y4.351 F400.000
G1 X1.715 Y4.443 F400.000
G1 X1.488 Y4.525 F400.000
G1 X1.257 Y4.595 F400.000
G1 X1.023 Y4.653 F400.000
G1 X0.786 Y4.698 F400.000
G1 X0.548 Y4.732 F400.000
G1 X0.308 Y4.752 F400.000
G1 X0.068 Y4.764 F400.000
G1 X-0.171 Y4.762 F400.000
G1 X-0.409 Y4.750 F400.000
G1 X-0.647 Y4.728 F400.000
G1 X-0.884 Y4.694 F400.000
G1 X-1.118 Y4.649 F400.000
G1 X-1.351 Y4.589 F400.000
G1 X-1.580 Y4.520 F400.000
G1 X-1.803 Y4.432 F400.000
G1 X-2.015 Y4.336 F400.000
G1 X-2.229 Y4.225 F400.000
G1 X-2.437 Y4.105 F400.000
G1 X-2.638 Y3.974 F400.000
G1 X-2.833 Y3.833 F400.000
G1 X-3.021 Y3.683 F400.000
G1 X-3.203 Y3.525 F400.000
G1 X-3.377 Y3.360 F400.000
G1 X-3.544 Y3.188 F400.000
G1 X-3.704 Y3.009 F400.000
G1 X-3.854 Y2.822 F400.000
G1 X-3.992 Y2.625 F400.000
G1 X-4.122 Y2.422 F400.000
G1 X-4.240 Y2.212 F400.000
G1 X-4.347 Y1.996 F400.000
G1 X-4.441 Y1.775 F400.000
G1 X-4.523 Y1.550 F400.000
G1 X-4.593 Y1.319 F400.000
G1 X-4.649 Y1.084 F400.000
G1 X-4.696 Y0.848 F400.000
G1 X-4.732 Y0.610 F400.000
G1 X-4.754 Y0.370 F400.000
G1 X-4.767 Y0.129 F400.000
G1 X-4.767 Y-0.109 F400.000
G1 X-4.758 Y-0.347 F400.000
G1 X-4.737 Y-0.585 F400.000
G1 X-4.705 Y-0.822 F400.000
G1 X-4.662 Y-1.058 F400.000
G1 X-4.608 Y-1.291 F400.000
G1 X-4.540 Y-1.520 F400.000
G1 X-4.463 Y-1.747 F400.000
G1 X-4.375 Y-1.970 F400.000
G1 X-4.272 Y-2.186 F400.000
G1 X-4.159 Y-2.398 F400.000
G1 X-4.036 Y-2.602 F400.000
G1 X-3.899 Y-2.799 F400.000
G1 X-3.752 Y-2.991 F400.000
G1 X-3.597 Y-3.173 F400.000
G1 X-3.433 Y-3.349 F400.000
G1 X-3.259 Y-3.514 F400.000
G1 X-3.077 Y-3.672 F400.000
G1 X-2.889 Y-3.822 F400.000
G1 X-2.696 Y-3.964 F400.000
G1 X-2.495 Y-4.098 F400.000
G1 X-2.289 Y-4.221 F400.000
G1 X-2.077 Y-4.336 F400.000
G1 X-1.861 Y-4.441 F400.000
G1 X-1.638 Y-4.533 F400.000
G1 X-1.413 Y-4.615 F400.000
G1 X-1.182 Y-4.683 F400.000
G1 X-0.947 Y-4.739 F400.000
G1 X-0.711 Y-4.784 F400.000
G1 X-0.473 Y-4.814 F400.000
G1 X-0.233 Y-4.833 F400.000
G1 X0.006 Y-4.842 F400.000
G1 X0.244 Y-4.842 F400.000
G1 X0.482 Y-4.829 F400.000
G1 X0.720 Y-4.807 F400.000
G1 X0.957 Y-4.773 F400.000
G1 X1.191 Y-4.728 F400.000
G1 X1.424 Y-4.668 F400.000
G1 X1.653 Y-4.595 F400.000
G1 X1.878 Y-4.512 F400.000
G1 X2.098 Y-4.415 F400.000
G1 X2.311 Y-4.306 F400.000
G1 X2.522 Y-4.189 F400.000
G1 X2.724 Y-4.060 F400.000
G1 X2.919 Y-3.921 F400.000
G1 X3.107 Y-3.773 F400.000
G1 X3.289 Y-3.617 F400.000
G1 X3.463 Y-3.452 F400.000
G1 X3.630 Y-3.280 F400.000
G1 X3.790 Y-3.099 F400.000
G1 X3.940 Y-2.912 F400.000
G1 X4.083 Y-2.719 F400.000
G1 X4.216 Y-2.520 F400.000
G1 X4.340 Y-2.313 F400.000
G1 X4.452 Y-2.099 F400.000
G1 X4.555 Y-1.882 F400.000
G1 X4.647 Y-1.660 F400.000
G1 X4.728 Y-1.433 F400.000
G1 X4.797 Y-1.203 F400.000
G1 X4.856 Y-0.968 F400.000
G1 X4.902 Y-0.732 F400.000
G1 X4.934 Y-0.493 F400.000
G1 X4.955 Y-0.253 F400.000
G1 X4.962 Y-0.013 F400.000
G1 X4.957 Y0.225 F400.000
G1 X4.942 Y0.463 F400.000
G1 X4.912 Y0.702 F400.000
G1 X4.871 Y0.938 F400.000
G1 X4.818 Y1.173 F400.000
G1 X4.756 Y1.403 F400.000
G1 X4.685 Y1.632 F400.000
G1 X4.602 Y1.857 F400.000
G1 X4.510 Y2.079 F400.000
G1 X4.409 Y2.296 F400.000
G1 X4.296 Y2.508 F400.000
G1 X4.173 Y2.713 F400.000
G1 X4.038 Y2.910 F400.000
G1 X3.893 Y3.101 F400.000
G1 X3.739 Y3.285 F400.000
G1 X3.576 Y3.462 F400.000
G1 X3.403 Y3.629 F400.000
G1 X3.223 Y3.788 F400.000
G1 X3.038 Y3.940 F400.000
G1 X2.844 Y4.084 F400.000
G1 X2.645 Y4.218 F400.000
G1 X2.441 Y4.343 F400.000
G1 X2.231 Y4.460 F400.000
G1 X2.013 Y4.563 F400.000
G1 X1.792 Y4.655 F400.000
G1 X1.565 Y4.737 F400.000
G1 X1.334 Y4.807 F400.000
G1 X1.099 Y4.863 F400.000
G1 X0.863 Y4.908 F400.000
G1 X0.625 Y4.946 F400.000
G1 X0.385 Y4.972 F400.000
G1 X0.144 Y4.987 F400.000
G1 X-0.094 Y4.992 F400.000
G1 X-0.332 Y4.987 F400.000
G1 X-0.570 Y4.970 F400.000
G1 X-0.809 Y4.942 F400.000
G1 X-1.045 Y4.899 F400.000
G1 X-1.280 Y4.846 F400.000
G1 X-1.510 Y4.782 F400.000
G1 X-1.737 Y4.705 F400.000
G1 X-1.959 Y4.614 F400.000
G1 X-2.176 Y4.512 F400.000
G1 X-2.386 Y4.398 F400.000
G1 X-2.591 Y4.274 F400.000
G1 X-2.790 Y4.141 F400.000
G1 X-2.985 Y4.000 F400.000
G1 X-3.173 Y3.852 F400.000
G1 X-3.355 Y3.694 F400.000
G1 X-3.529 Y3.529 F400.000
G1 X-3.698 Y3.356 F400.000
G1 X-3.857 Y3.178 F400.000
G1 X-4.009 Y2.992 F400.000
G1 X-4.150 Y2.797 F400.000
G1 X-4.283 Y2.597 F400.000
G1 X-4.402 Y2.388 F400.000
G1 X-4.510 Y2.174 F400.000
G1 X-4.608 Y1.955 F400.000
G1 X-4.696 Y1.730 F400.000
G1 X-4.771 Y1.501 F400.000
G1 X-4.835 Y1.268 F400.000
G1 X-4.887 Y1.034 F400.000
G1 X-4.931 Y0.797 F400.000
G1 X-4.961 Y0.559 F400.000
G1 X-4.983 Y0.319 F400.000
G1 X-4.994 Y0.079 F400.000
G1 X-4.994 Y-0.159 F400.000
G1 X-4.983 Y-0.398 F400.000
G1 X-4.961 Y-0.636 F400.000
G1 X-4.929 Y-0.872 F400.000
G1 X-4.886 Y-1.109 F400.000
G1 X-4.833 Y-1.341 F400.000
G1 X-4.769 Y-1.572 F400.000
G1 X-4.690 Y-1.799 F400.000
G1 X-4.602 Y-2.023 F400.000
G1 X-4.503 Y-2.240 F400.000
G1 X-4.392 Y-2.452 F400.000
G1 X-4.272 Y-2.659 F400.000
G1 X-4.141 Y-2.859 F400.000
G1 X-4.000 Y-3.053 F400.000
G1 X-3.850 Y-3.238 F400.000
G1 X-3.690 Y-3.417 F400.000
G1 X-3.522 Y-3.587 F400.000
G1 X-3.343 Y-3.749 F400.000
G1 X-3.159 Y-3.904 F400.000
G1 X-2.970 Y-4.051 F400.000
G1 X-2.773 Y-4.188 F400.000
G1 X-2.570 Y-4.317 F400.000
G1 X-2.364 Y-4.441 F400.000
G1 X-2.152 Y-4.553 F400.000
G1 X-1.934 Y-4.659 F400.000
G1 X-1.711 Y-4.749 F400.000
G1 X-1.486 Y-4.831 F400.000
G1 X-1.255 Y-4.899 F400.000
G1 X-1.021 Y-4.955 F400.000
G1 X-0.784 Y-5.000 F400.000
G1 X-0.546 Y-5.032 F400.000
G1 X-0.306 Y-5.056 F400.000
G1 X-0.066 Y-5.068 F400.000
G1 X0.173 Y-5.071 F400.000
G1 X0.411 Y-5.064 F400.000
G1 X0.649 Y-5.045 F400.000
G1 X0.887 Y-5.017 F400.000
G1 X1.124 Y-4.977 F400.000
G1 X1.356 Y-4.923 F400.000
G1 X1.587 Y-4.857 F400.000
G1 X1.814 Y-4.780 F400.000
G1 X2.036 Y-4.690 F400.000
G1 X2.253 Y-4.587 F400.000
G1 X2.465 Y-4.475 F400.000
G1 X2.674 Y-4.355 F400.000
G1 X2.874 Y-4.225 F400.000
G1 X3.069 Y-4.084 F400.000
G1 X3.259 Y-3.936 F400.000
G1 X3.441 Y-3.780 F400.000
G1 X3.615 Y-3.615 F400.000
G1 X3.782 Y-3.443 F400.000
G1 X3.942 Y-3.263 F400.000
G1 X4.094 Y-3.077 F400.000
G1 X4.238 Y-2.886 F400.000
G1 X4.373 Y-2.687 F400.000
G1 X4.501 Y-2.482 F400.000
G1 X4.621 Y-2.274 F400.000
G1 X4.726 Y-2.058 F400.000
G1 X4.824 Y-1.839 F400.000
G1 X4.910 Y-1.614 F400.000
G1 X4.985 Y-1.385 F400.000
G1 X5.051 Y-1.154 F400.000
G1 X5.101 Y-0.917 F400.000
G1 X5.143 Y-0.679 F400.000
G1 X5.171 Y-0.439 F400.000
G1 X5.186 Y-0.199 F400.000
G1 X5.189 Y0.039 F400.000
G1 X5.180 Y0.278 F400.000
G1 X5.159 Y0.516 F400.000
G1 X5.129 Y0.754 F400.000
G1 X5.090 Y0.991 F400.000
G1 X5.038 Y1.225 F400.000
G1 X4.977 Y1.456 F400.000
G1 X4.906 Y1.685 F400.000
G1 X4.824 Y1.910 F400.000
G1 X4.732 Y2.131 F400.000
G1 X4.630 Y2.349 F400.000
G1 X4.520 Y2.561 F400.000
G1 X4.400 Y2.769 F400.000
G1 X4.270 Y2.972 F400.000
G1 X4.128 Y3.165 F400.000
G1 X3.979 Y3.353 F400.000
G1 X3.822 Y3.533 F400.000
G1 X3.655 Y3.705 F400.000
G1 X3.480 Y3.869 F400.000
G1 X3.296 Y4.024 F400.000
G1 X3.107 Y4.173 F400.000
G1 X2.910 Y4.311 F400.000
G1 X2.709 Y4.443 F400.000
G1 X2.503 Y4.565 F400.000
G1 X2.291 Y4.677 F400.000
G1 X2.075 Y4.782 F400.000
G1 X1.852 Y4.872 F400.000
G1 X1.627 Y4.955 F400.000
G1 X1.398 Y5.026 F400.000
G1 X1.165 Y5.086 F400.000
G1 X0.929 Y5.137 F400.000
G1 X0.690 Y5.174 F400.000
G1 X0.450 Y5.201 F400.000
G1 X0.210 Y5.216 F400.000
G1 X-0.028 Y5.223 F400.000
G1 X-0.266 Y5.218 F400.000
G1 X-0.505 Y5.203 F400.000
G1 X-0.743 Y5.176 F400.000
G1 X-0.979 Y5.139 F400.000
G1 X-1.214 Y5.092 F400.000
G1 X-1.447 Y5.034 F400.000
G1 X-1.675 Y4.966 F400.000
G1 X-1.901 Y4.882 F400.000
G1 X-2.122 Y4.790 F400.000
G1 X-2.338 Y4.687 F400.000
G1 X-2.548 Y4.570 F400.000
G1 X-2.752 Y4.445 F400.000
G1 X-2.951 Y4.311 F400.000
G1 X-3.144 Y4.169 F400.000
G1 X-3.332 Y4.019 F400.000
G1 X-3.512 Y3.861 F400.000
G1 X-3.687 Y3.696 F400.000
G1 X-3.854 Y3.523 F400.000
G1 X-4.013 Y3.343 F400.000
G1 X-4.165 Y3.158 F400.000
G1 X-4.310 Y2.966 F400.000
G1 X-4.445 Y2.767 F400.000
G1 X-4.567 Y2.561 F400.000
G1 X-4.681 Y2.349 F400.000
G1 X-4.782 Y2.131 F400.000
G1 X-4.872 Y1.908 F400.000
G1 X-4.951 Y1.681 F400.000
G1 X-5.021 Y1.450 F400.000
G1 X-5.081 Y1.218 F400.000
G1 X-5.128 Y0.981 F400.000
G1 X-5.165 Y0.743 F400.000
G1 X-5.195 Y0.505 F400.000
G1 X-5.212 Y0.265 F400.000
G1 X-5.220 Y0.024 F400.000
G1 X-5.218 Y-0.214 F400.000
G1 X-5.205 Y-0.452 F400.000
G1 X-5.182 Y-0.690 F400.000
G1 X-5.150 Y-0.927 F400.000
G1 X-5.107 Y-1.163 F400.000
G1 X-5.054 Y-1.398 F400.000
G1 X-4.989 Y-1.629 F400.000
G1 X-4.914 Y-1.856 F400.000
G1 X-4.829 Y-2.079 F400.000
G1 X-4.730 Y-2.296 F400.000
G1 X-4.623 Y-2.510 F400.000
G1 X-4.505 Y-2.719 F400.000
G1 X-4.375 Y-2.921 F400.000
G1 X-4.236 Y-3.116 F400.000
G1 X-4.088 Y-3.304 F400.000
G1 X-3.931 Y-3.484 F400.000
G1 X-3.765 Y-3.659 F400.000
G1 X-3.595 Y-3.827 F400.000
G1 X-3.415 Y-3.987 F400.000
G1 X-3.229 Y-4.139 F400.000
G1 X-3.038 Y-4.283 F400.000
G1 X-2.839 Y-4.420 F400.000
G1 X-2.634 Y-4.548 F400.000
G1 X-2.426 Y-4.666 F400.000
G1 X-2.212 Y-4.777 F400.000
G1 X-1.994 Y-4.878 F400.000
G1 X-1.771 Y-4.970 F400.000
G1 X-1.544 Y-5.049 F400.000
G1 X-1.313 Y-5.118 F400.000
G1 X-1.081 Y-5.178 F400.000
G1 X-0.844 Y-5.223 F400.000
G1 X-0.606 Y-5.259 F400.000
G1 X-0.366 Y-5.283 F400.000
G1 X-0.126 Y-5.298 F400.000
G1 X0.113 Y-5.304 F400.000
G1 X0.351 Y-5.300 F400.000
G1 X0.589 Y-5.285 F400.000
G1 X0.827 Y-5.259 F400.000
G1 X1.064 Y-5.225 F400.000
G1 X1.298 Y-5.176 F400.000
G1 X1.529 Y-5.114 F400.000
G1 X1.758 Y-5.043 F400.000
G1 X1.981 Y-4.959 F400.000
G1 X2.201 Y-4.863 F400.000
G1 X2.417 Y-4.760 F400.000
G1 X2.627 Y-4.645 F400.000
G1 X2.831 Y-4.522 F400.000
G1 X3.032 Y-4.390 F400.000
G1 X3.227 Y-4.250 F400.000
G1 X3.415 Y-4.101 F400.000
G1 X3.597 Y-3.946 F400.000
G1 X3.771 Y-3.782 F400.000
G1 X3.940 Y-3.612 F400.000
G1 X4.101 Y-3.433 F400.000
G1 X4.255 Y-3.248 F400.000
G1 X4.400 Y-3.056 F400.000
G1 X4.537 Y-2.859 F400.000
G1 X4.666 Y-2.657 F400.000
G1 X4.786 Y-2.448 F400.000
G1 X4.897 Y-2.235 F400.000
G1 X4.998 Y-2.017 F400.000
G1 X5.090 Y-1.795 F400.000
G1 X5.169 Y-1.568 F400.000
G1 X5.240 Y-1.338 F400.000
G1 X5.300 Y-1.105 F400.000
G1 X5.349 Y-0.869 F400.000
G1 X5.383 Y-0.630 F400.000
G1 X5.407 Y-0.390 F400.000
G1 X5.418 Y-0.150 F400.000
G1 X5.417 Y0.088 F400.000
G1 X5.407 Y0.326 F400.000
G1 X5.386 Y0.565 F400.000
G1 X5.355 Y0.801 F400.000
G1 X5.313 Y1.038 F400.000
G1 X5.261 Y1.272 F400.000
G1 X5.201 Y1.505 F400.000
G1 X5.129 Y1.734 F400.000
G1 X5.049 Y1.959 F400.000
G1 X4.961 Y2.182 F400.000
G1 X4.863 Y2.402 F400.000
G1 X4.756 Y2.615 F400.000
G1 X4.640 Y2.826 F400.000
G1 X4.510 Y3.028 F400.000
G1 X4.375 Y3.225 F400.000
G1 X4.231 Y3.417 F400.000
G1 X4.075 Y3.600 F400.000
G1 X3.912 Y3.777 F400.000
G1 X3.741 Y3.946 F400.000
G1 X3.563 Y4.105 F400.000
G1 X3.377 Y4.257 F400.000
G1 X3.186 Y4.402 F400.000
G1 X2.987 Y4.537 F400.000
G1 X2.782 Y4.664 F400.000
G1 X2.574 Y4.784 F400.000
G1 X2.360 Y4.895 F400.000
G1 X2.143 Y4.996 F400.000
G1 X1.921 Y5.090 F400.000
G1 X1.696 Y5.174 F400.000
G1 X1.465 Y5.246 F400.000
G1 X1.233 Y5.310 F400.000
G1 X0.996 Y5.358 F400.000
G1 X0.758 Y5.396 F400.000
G1 X0.518 Y5.424 F400.000
G1 X0.278 Y5.443 F400.000
G1 X0.038 Y5.450 F400.000
G1 X-0.201 Y5.450 F400.000
G1 X-0.439 Y5.439 F400.000
G1 X-0.677 Y5.418 F400.000
G1 X-0.916 Y5.388 F400.000
G1 X-1.150 Y5.345 F400.000
G1 X-1.385 Y5.293 F400.000
G1 X-1.615 Y5.231 F400.000
G1 X-1.842 Y5.158 F400.000
G1 X-2.066 Y5.069 F400.000
G1 X-2.285 Y4.972 F400.000
G1 X-2.499 Y4.863 F400.000
G1 X-2.707 Y4.743 F400.000
G1 X-2.910 Y4.615 F400.000
G1 X-3.109 Y4.480 F400.000
G1 X-3.302 Y4.338 F400.000
G1 X-3.490 Y4.188 F400.000
G1 X-3.670 Y4.030 F400.000
G1 X-3.844 Y3.865 F400.000
G1 X-4.011 Y3.692 F400.000
G1 X-4.173 Y3.514 F400.000
G1 X-4.326 Y3.330 F400.000
G1 X-4.473 Y3.139 F400.000
G1 X-4.608 Y2.940 F400.000
G1 X-4.735 Y2.735 F400.000
G1 X-4.850 Y2.523 F400.000
G1 X-4.955 Y2.308 F400.000
G1 X-5.049 Y2.086 F400.000
G1 X-5.131 Y1.859 F400.000
G1 X-5.206 Y1.630 F400.000
G1 X-5.270 Y1.398 F400.000
G1 X-5.325 Y1.163 F400.000
G1 X-5.370 Y0.927 F400.000
G1 X-5.405 Y0.689 F400.000
G1 X-5.432 Y0.448 F400.000
G1 X-5.447 Y0.208 F400.000
G1 X-5.452 Y-0.030 F400.000
G1 X-5.448 Y-0.268 F400.000
G1 X-5.433 Y-0.507 F400.000
G1 X-5.409 Y-0.745 F400.000
G1 X-5.375 Y-0.981 F400.000
G1 X-5.330 Y-1.216 F400.000
G1 X-5.276 Y-1.448 F400.000
G1 X-5.212 Y-1.679 F400.000
G1 X-5.139 Y-1.908 F400.000
G1 X-5.056 Y-2.133 F400.000
G1 X-4.959 Y-2.353 F400.000
G1 X-4.854 Y-2.568 F400.000
G1 X-4.739 Y-2.779 F400.000
G1 X-4.614 Y-2.983 F400.000
G1 X-4.477 Y-3.180 F400.000
G1 X-4.330 Y-3.371 F400.000
G1 X-4.176 Y-3.555 F400.000
G1 X-4.013 Y-3.732 F400.000
G1 X-3.844 Y-3.902 F400.000
G1 X-3.670 Y-4.068 F400.000
G1 X-3.488 Y-4.223 F400.000
G1 X-3.300 Y-4.373 F400.000
G1 X-3.107 Y-4.516 F400.000
G1 X-2.908 Y-4.649 F400.000
G1 X-2.704 Y-4.775 F400.000
G1 X-2.493 Y-4.893 F400.000
G1 X-2.280 Y-5.002 F400.000
G1 X-2.062 Y-5.103 F400.000
G1 X-1.841 Y-5.195 F400.000
G1 X-1.614 Y-5.274 F400.000
G1 X-1.383 Y-5.341 F400.000
G1 X-1.148 Y-5.398 F400.000
G1 X-0.912 Y-5.445 F400.000
G1 X-0.674 Y-5.482 F400.000
G1 X-0.433 Y-5.508 F400.000
G1 X-0.193 Y-5.525 F400.000
G1 X0.045 Y-5.535 F400.000
G1 X0.283 Y-5.533 F400.000
G1 X0.522 Y-5.522 F400.000
G1 X0.760 Y-5.501 F400.000
G1 X0.998 Y-5.471 F400.000
G1 X1.233 Y-5.426 F400.000
G1 X1.465 Y-5.370 F400.000
G1 X1.696 Y-5.304 F400.000
G1 X1.923 Y-5.225 F400.000
G1 X2.146 Y-5.139 F400.000
G1 X2.364 Y-5.039 F400.000
G1 X2.578 Y-4.931 F400.000
G1 X2.788 Y-4.816 F400.000
G1 X2.992 Y-4.690 F400.000
G1 X3.191 Y-4.555 F400.000
G1 X3.386 Y-4.415 F400.000
G1 X3.574 Y-4.265 F400.000
G1 X3.756 Y-4.107 F400.000
G1 X3.931 Y-3.942 F400.000
G1 X4.101 Y-3.773 F400.000
G1 X4.265 Y-3.597 F400.000
G1 X4.420 Y-3.415 F400.000
G1 X4.567 Y-3.225 F400.000
G1 X4.707 Y-3.030 F400.000
G1 X4.839 Y-2.829 F400.000
G1 X4.961 Y-2.623 F400.000
G1 X5.075 Y-2.411 F400.000
G1 X5.180 Y-2.195 F400.000
G1 X5.272 Y-1.974 F400.000
G1 X5.356 Y-1.749 F400.000
G1 X5.430 Y-1.520 F400.000
G1 X5.492 Y-1.287 F400.000
G1 X5.544 Y-1.053 F400.000
G1 X5.585 Y-0.814 F400.000
G1 X5.615 Y-0.576 F400.000
G1 X5.634 Y-0.336 F400.000
G1 X5.642 Y-0.096 F400.000
G1 X5.642 Y0.143 F400.000
G1 X5.630 Y0.381 F400.000
G1 X5.608 Y0.619 F400.000
G1 X5.576 Y0.856 F400.000
G1 X5.537 Y1.092 F400.000
G1 X5.486 Y1.326 F400.000
G1 X5.426 Y1.559 F400.000
G1 X5.356 Y1.788 F400.000
G1 X5.278 Y2.015 F400.000
G1 X5.191 Y2.238 F400.000
G1 X5.096 Y2.458 F400.000
G1 X4.991 Y2.674 F400.000
G1 X4.874 Y2.884 F400.000
G1 X4.750 Y3.088 F400.000
G1 X4.617 Y3.287 F400.000
G1 X4.475 Y3.480 F400.000
G1 X4.325 Y3.668 F400.000
G1 X4.165 Y3.848 F400.000
G1 X3.998 Y4.021 F400.000
G1 X3.824 Y4.186 F400.000
G1 X3.642 Y4.343 F400.000
G1 X3.452 Y4.492 F400.000
G1 X3.257 Y4.632 F400.000
G1 X3.058 Y4.765 F400.000
G1 X2.854 Y4.893 F400.000
G1 X2.644 Y5.011 F400.000
G1 X2.430 Y5.122 F400.000
G1 X2.212 Y5.223 F400.000
G1 X1.991 Y5.317 F400.000
G1 X1.764 Y5.398 F400.000
G1 X1.535 Y5.471 F400.000
G1 X1.302 Y5.531 F400.000
G1 X1.066 Y5.582 F400.000
G1 X0.827 Y5.621 F400.000
G1 X0.587 Y5.649 F400.000
G1 X0.347 Y5.670 F400.000
G1 X0.107 Y5.679 F400.000
G1 X-0.131 Y5.683 F400.000
G1 X-0.370 Y5.675 F400.000
G1 X-0.608 Y5.659 F400.000
G1 X-0.846 Y5.634 F400.000
G1 X-1.083 Y5.598 F400.000
G1 X-1.317 Y5.550 F400.000
G1 X-1.550 Y5.493 F400.000
G1 X-1.779 Y5.422 F400.000
G1 X-2.004 Y5.341 F400.000
G1 X-2.225 Y5.251 F400.000
G1 X-2.443 Y5.150 F400.000
G1 X-2.655 Y5.039 F400.000
G1 X-2.863 Y4.921 F400.000
G1 X-3.066 Y4.794 F400.000
G1 X-3.263 Y4.657 F400.000
G1 X-3.454 Y4.512 F400.000
G1 X-3.640 Y4.360 F400.000
G1 X-3.822 Y4.203 F400.000
G1 X-3.996 Y4.038 F400.000
G1 X-4.165 Y3.867 F400.000
G1 X-4.328 Y3.690 F400.000
G1 X-4.484 Y3.508 F400.000
G1 X-4.630 Y3.317 F400.000
G1 X-4.767 Y3.120 F400.000
G1 X-4.897 Y2.917 F400.000
G1 X-5.015 Y2.707 F400.000
G1 X-5.124 Y2.493 F400.000
G1 X-5.223 Y2.274 F400.000
G1 X-5.311 Y2.051 F400.000
G1 X-5.390 Y1.824 F400.000
G1 X-5.458 Y1.593 F400.000
G1 X-5.518 Y1.360 F400.000
G1 X-5.568 Y1.126 F400.000
G1 X-5.610 Y0.887 F400.000
G1 X-5.642 Y0.649 F400.000
G1 X-5.664 Y0.409 F400.000
G1 X-5.677 Y0.169 F400.000
G1 X-5.681 Y-0.069 F400.000
G1 X-5.675 Y-0.308 F400.000
G1 X-5.660 Y-0.546 F400.000
G1 X-5.636 Y-0.784 F400.000
G1 X-5.602 Y-1.021 F400.000
G1 X-5.559 Y-1.255 F400.000
G1 X-5.507 Y-1.488 F400.000
G1 X-5.445 Y-1.719 F400.000
G1 X-5.373 Y-1.947 F400.000
G1 X-5.293 Y-2.173 F400.000
G1 X-5.199 Y-2.394 F400.000
G1 X-5.098 Y-2.612 F400.000
G1 X-4.983 Y-2.822 F400.000
G1 X-4.859 Y-3.028 F400.000
G1 X-4.726 Y-3.227 F400.000
G1 X-4.585 Y-3.420 F400.000
G1 X-4.435 Y-3.606 F400.000
G1 X-4.278 Y-3.788 F400.000
G1 X-4.113 Y-3.962 F400.000
G1 X-3.942 Y-4.131 F400.000
G1 X-3.764 Y-4.293 F400.000
G1 X-3.580 Y-4.448 F400.000
G1 X-3.390 Y-4.597 F400.000
G1 X-3.195 Y-4.737 F400.000
G1 X-2.994 Y-4.871 F400.000
G1 X-2.790 Y-4.996 F400.000
G1 X-2.580 Y-5.114 F400.000
G1 X-2.366 Y-5.225 F400.000
G1 X-2.146 Y-5.323 F400.000
G1 X-1.923 Y-5.411 F400.000
G1 X-1.696 Y-5.490 F400.000
G1 X-1.465 Y-5.557 F400.000
G1 X-1.231 Y-5.615 F400.000
G1 X-0.994 Y-5.662 F400.000
G1 X-0.756 Y-5.700 F400.000
G1 X-0.518 Y-5.730 F400.000
G1 X-0.278 Y-5.750 F400.000
G1 X-0.038 Y-5.762 F400.000
G1 X0.201 Y-5.764 F400.000
G1 X0.439 Y-5.756 F400.000
G1 X0.677 Y-5.739 F400.000
G1 X0.916 Y-5.715 F400.000
G1 X1.152 Y-5.677 F400.000
G1 X1.386 Y-5.627 F400.000
G1 X1.619 Y-5.568 F400.000
G1 X1.848 Y-5.497 F400.000
G1 X2.073 Y-5.415 F400.000
G1 X2.295 Y-5.323 F400.000
G1 X2.512 Y-5.223 F400.000
G1 X2.726 Y-5.114 F400.000
G1 X2.934 Y-4.996 F400.000
G1 X3.139 Y-4.871 F400.000
G1 X3.338 Y-4.735 F400.000
G1 X3.531 Y-4.593 F400.000
G1 X3.719 Y-4.443 F400.000
G1 X3.901 Y-4.287 F400.000
G1 X4.077 Y-4.124 F400.000
G1 X4.248 Y-3.955 F400.000
G1 X4.413 Y-3.780 F400.000
G1 X4.570 Y-3.600 F400.000
G1 X4.722 Y-3.415 F400.000
G1 X4.863 Y-3.220 F400.000
G1 X4.998 Y-3.021 F400.000
G1 X5.126 Y-2.816 F400.000
G1 X5.244 Y-2.606 F400.000
G1 X5.349 Y-2.390 F400.000
G1 X5.447 Y-2.171 F400.000
G1 X5.533 Y-1.946 F400.000
G1 X5.610 Y-1.717 F400.000
G1 X5.677 Y-1.486 F400.000
G1 X5.734 Y-1.251 F400.000
G1 X5.780 Y-1.015 F400.000
G1 X5.818 Y-0.777 F400.000
G1 X5.844 Y-0.537 F400.000
G1 X5.861 Y-0.296 F400.000
G1 X5.869 Y-0.056 F400.000
G1 X5.867 Y0.182 F400.000
G1 X5.857 Y0.420 F400.000
G1 X5.837 Y0.659 F400.000
G1 X5.807 Y0.897 F400.000
G1 X5.769 Y1.133 F400.000
G1 X5.720 Y1.368 F400.000
G1 X5.664 Y1.600 F400.000
G1 X5.598 Y1.831 F400.000
G1 X5.523 Y2.058 F400.000
G1 X5.435 Y2.281 F400.000
G1 X5.340 Y2.501 F400.000
G1 X5.235 Y2.717 F400.000
G1 X5.120 Y2.927 F400.000
G1 X4.996 Y3.133 F400.000
G1 X4.863 Y3.334 F400.000
G1 X4.724 Y3.529 F400.000
G1 X4.576 Y3.719 F400.000
G1 X4.422 Y3.902 F400.000
G1 X4.261 Y4.081 F400.000
G1 X4.092 Y4.251 F400.000
G1 X3.916 Y4.415 F400.000
G1 X3.734 Y4.572 F400.000
G1 X3.542 Y4.719 F400.000
G1 X3.347 Y4.859 F400.000
G1 X3.146 Y4.991 F400.000
G1 X2.940 Y5.114 F400.000
G1 X2.730 Y5.231 F400.000
G1 X2.514 Y5.338 F400.000
G1 X2.295 Y5.437 F400.000
G1 X2.071 Y5.529 F400.000
G1 X1.846 Y5.612 F400.000
G1 X1.617 Y5.687 F400.000
G1 X1.385 Y5.749 F400.000
G1 X1.150 Y5.803 F400.000
G1 X0.914 Y5.846 F400.000
G1 X0.675 Y5.880 F400.000
G1 X0.435 Y5.904 F400.000
G1 X0.195 Y5.917 F400.000
G1 X-0.043 Y5.921 F400.000
G1 X-0.281 Y5.917 F400.000
G1 X-0.520 Y5.902 F400.000
G1 X-0.758 Y5.878 F400.000
G1 X-0.994 Y5.846 F400.000
G1 X-1.231 Y5.803 F400.000
G1 X-1.465 Y5.752 F400.000
G1 X-1.698 Y5.692 F400.000
G1 X-1.925 Y5.619 F400.000
G1 X-2.150 Y5.538 F400.000
G1 X-2.371 Y5.447 F400.000
G1 X-2.589 Y5.345 F400.000
G1 X-2.801 Y5.235 F400.000
G1 X-3.009 Y5.114 F400.000
G1 X-3.212 Y4.985 F400.000
G1 X-3.409 Y4.848 F400.000
G1 X-3.600 Y4.702 F400.000
G1 X-3.786 Y4.550 F400.000
G1 X-3.966 Y4.392 F400.000
G1 X-4.141 Y4.227 F400.000
G1 X-4.310 Y4.056 F400.000
G1 X-4.471 Y3.880 F400.000
G1 X-4.627 Y3.696 F400.000
G1 X-4.775 Y3.507 F400.000
G1 X-4.916 Y3.311 F400.000
G1 X-5.047 Y3.111 F400.000
G1 X-5.173 Y2.904 F400.000
G1 X-5.285 Y2.692 F400.000
G1 X-5.388 Y2.475 F400.000
G1 X-5.482 Y2.253 F400.000
G1 X-5.565 Y2.028 F400.000
G1 X-5.638 Y1.799 F400.000
G1 X-5.705 Y1.568 F400.000
G1 X-5.764 Y1.334 F400.000
G1 X-5.811 Y1.098 F400.000
G1 X-5.850 Y0.859 F400.000
G1 X-5.880 Y0.621 F400.000
G1 X-5.901 Y0.381 F400.000
G1 X-5.912 Y0.141 F400.000
G1 X-5.914 Y-0.098 F400.000
G1 X-5.906 Y-0.336 F400.000
G1 X-5.891 Y-0.574 F400.000
G1 X-5.867 Y-0.812 F400.000
G1 X-5.833 Y-1.049 F400.000
G1 X-5.790 Y-1.285 F400.000
G1 X-5.737 Y-1.520 F400.000
G1 X-5.675 Y-1.750 F400.000
G1 X-5.606 Y-1.979 F400.000
G1 X-5.527 Y-2.206 F400.000
G1 X-5.439 Y-2.430 F400.000
G1 X-5.338 Y-2.647 F400.000
G1 X-5.227 Y-2.859 F400.000
G1 X-5.107 Y-3.068 F400.000
G1 X-4.976 Y-3.268 F400.000
G1 X-4.839 Y-3.465 F400.000
G1 X-4.692 Y-3.655 F400.000
G1 X-4.540 Y-3.841 F400.000
G1 X-4.379 Y-4.019 F400.000
G1 X-4.214 Y-4.193 F400.000
G1 X-4.041 Y-4.360 F400.000
G1 X-3.861 Y-4.520 F400.000
G1 X-3.677 Y-4.674 F400.000
G1 X-3.488 Y-4.820 F400.000
G1 X-3.293 Y-4.959 F400.000
G1 X-3.092 Y-5.092 F400.000
G1 X-2.886 Y-5.216 F400.000
G1 X-2.675 Y-5.332 F400.000
G1 X-2.462 Y-5.441 F400.000
G1 X-2.242 Y-5.538 F400.000
G1 X-2.019 Y-5.629 F400.000
G1 X-1.792 Y-5.709 F400.000
G1 X-1.561 Y-5.779 F400.000
G1 X-1.326 Y-5.837 F400.000
G1 X-1.090 Y-5.886 F400.000
G1 X-0.852 Y-5.925 F400.000
G1 X-0.614 Y-5.957 F400.000
G1 X-0.373 Y-5.981 F400.000
G1 X-0.133 Y-5.994 F400.000
G1 X0.105 Y-6.000 F400.000
G1 X0.343 Y-5.996 F400.000
G1 X0.582 Y-5.985 F400.000
G1 X0.820 Y-5.964 F400.000
G1 X1.056 Y-5.931 F400.000
G1 X1.293 Y-5.889 F400.000
G1 X1.525 Y-5.835 F400.000
G1 X1.756 Y-5.771 F400.000
G1 X1.985 Y-5.698 F400.000
G1 X2.210 Y-5.614 F400.000
G1 X2.432 Y-5.520 F400.000
G1 X2.647 Y-5.417 F400.000
G1 X2.859 Y-5.304 F400.000
G1 X3.068 Y-5.186 F400.000
G1 X3.272 Y-5.058 F400.000
G1 X3.471 Y-4.923 F400.000
G1 X3.664 Y-4.782 F400.000
G1 X3.852 Y-4.634 F400.000
G1 X4.034 Y-4.478 F400.000
G1 X4.212 Y-4.319 F400.000
G1 X4.385 Y-4.152 F400.000
G1 X4.552 Y-3.979 F400.000
G1 X4.713 Y-3.801 F400.000
G1 X4.867 Y-3.617 F400.000
G1 X5.011 Y-3.426 F400.000
G1 X5.146 Y-3.227 F400.000
G1 X5.276 Y-3.024 F400.000
G1 X5.394 Y-2.816 F400.000
G1 X5.503 Y-2.602 F400.000
G1 X5.604 Y-2.385 F400.000
G1 X5.698 Y-2.163 F400.000
G1 X5.780 Y-1.938 F400.000
G1 X5.854 Y-1.709 F400.000
G1 X5.919 Y-1.477 F400.000
G1 X5.974 Y-1.242 F400.000
G1 X6.019 Y-1.006 F400.000
G1 X6.054 Y-0.767 F400.000
G1 X6.081 Y-0.527 F400.000
G1 X6.098 Y-0.287 F400.000
G1 X6.105 Y-0.047 F400.000
G1 X6.101 Y0.191 F400.000
G1 X6.092 Y0.430 F400.000
G1 X6.071 Y0.668 F400.000
G1 X6.041 Y0.906 F400.000
G1 X6.004 Y1.143 F400.000
G1 X5.957 Y1.377 F400.000
G1 X5.901 Y1.610 F400.000
G1 X5.835 Y1.841 F400.000
G1 X5.762 Y2.068 F400.000
G1 X5.679 Y2.293 F400.000
G1 X5.589 Y2.514 F400.000
G1 X5.490 Y2.732 F400.000
G1 X5.379 Y2.944 F400.000
G1 X5.261 Y3.152 F400.000
G1 X5.133 Y3.356 F400.000
G1 X4.996 Y3.553 F400.000
G1 X4.854 Y3.745 F400.000
G1 X4.704 Y3.932 F400.000
G1 X4.546 Y4.113 F400.000
G1 X4.381 Y4.287 F400.000
G1 X4.210 Y4.456 F400.000
G1 X4.032 Y4.617 F400.000
G1 X3.848 Y4.771 F400.000
G1 X3.659 Y4.917 F400.000
G1 X3.463 Y5.056 F400.000
G1 X3.263 Y5.188 F400.000
G1 X3.056 Y5.311 F400.000
G1 X2.846 Y5.428 F400.000
G1 X2.632 Y5.538 F400.000
G1 X2.413 Y5.640 F400.000
G1 X2.191 Y5.732 F400.000
G1 X1.966 Y5.816 F400.000
G1 X1.737 Y5.893 F400.000
G1 X1.507 Y5.962 F400.000
G1 X1.272 Y6.019 F400.000
G1 X1.036 Y6.068 F400.000
G1 X0.797 Y6.107 F400.000
G1 X0.557 Y6.135 F400.000
G1 X0.317 Y6.152 F400.000
G1 X0.077 Y6.159 F400.000
G1 X-0.161 Y6.158 F400.000
G1 X-0.400 Y6.148 F400.000
G1 X-0.638 Y6.131 F400.000
G1 X-0.876 Y6.105 F400.000
G1 X-1.113 Y6.071 F400.000
G1 X-1.347 Y6.024 F400.000
G1 X-1.580 Y5.970 F400.000
G1 X-1.811 Y5.906 F400.000
G1 X-2.039 Y5.833 F400.000
G1 X-2.263 Y5.749 F400.000
G1 X-2.484 Y5.657 F400.000
G1 X-2.700 Y5.553 F400.000
G1 X-2.912 Y5.441 F400.000
G1 X-3.118 Y5.321 F400.000
G1 X-3.321 Y5.191 F400.000
G1 X-3.520 Y5.056 F400.000
G1 X-3.711 Y4.912 F400.000
G1 X-3.899 Y4.762 F400.000
G1 X-4.081 Y4.604 F400.000
G1 X-4.255 Y4.441 F400.000
G1 X-4.426 Y4.272 F400.000
G1 X-4.589 Y4.096 F400.000
G1 X-4.747 Y3.914 F400.000
G1 X-4.897 Y3.726 F400.000
G1 X-5.039 Y3.533 F400.000
G1 X-5.176 Y3.336 F400.000
G1 X-5.306 Y3.133 F400.000
G1 X-5.424 Y2.923 F400.000
G1 X-5.533 Y2.709 F400.000
G1 X-5.634 Y2.492 F400.000
G1 X-5.724 Y2.268 F400.000
G1 X-5.805 Y2.041 F400.000
G1 X-5.876 Y1.811 F400.000
G1 X-5.942 Y1.578 F400.000
G1 X-5.998 Y1.343 F400.000
G1 X-6.045 Y1.107 F400.000
G1 X-6.084 Y0.869 F400.000
G1 X-6.116 Y0.630 F400.000
G1 X-6.139 Y0.390 F400.000
G1 X-6.150 Y0.150 F400.000
G1 X-6.154 Y-0.088 F400.000
G1 X-6.148 Y-0.326 F400.000
G1 X-6.131 Y-0.565 F400.000
G1 X-6.107 Y-0.803 F400.000
G1 X-6.073 Y-1.039 F400.000
G1 X-6.030 Y-1.274 F400.000
G1 X-5.981 Y-1.508 F400.000
G1 X-5.921 Y-1.741 F400.000
G1 X-5.854 Y-1.970 F400.000
G1 X-5.779 Y-2.197 F400.000
G1 X-5.694 Y-2.422 F400.000
G1 X-5.598 Y-2.642 F400.000
G1 X-5.492 Y-2.857 F400.000
G1 X-5.377 Y-3.068 F400.000
G1 X-5.251 Y-3.272 F400.000
G1 X-5.118 Y-3.471 F400.000
G1 X-4.977 Y-3.666 F400.000
G1 X-4.829 Y-3.856 F400.000
G1 X-4.675 Y-4.039 F400.000
G1 X-4.516 Y-4.218 F400.000
G1 X-4.349 Y-4.390 F400.000
G1 X-4.176 Y-4.557 F400.000
G1 X-3.998 Y-4.719 F400.000
G1 X-3.814 Y-4.872 F400.000
G1 X-3.625 Y-5.021 F400.000
G1 X-3.430 Y-5.161 F400.000
G1 X-3.231 Y-5.295 F400.000
G1 X-3.024 Y-5.417 F400.000
G1 X-2.814 Y-5.533 F400.000
G1 X-2.598 Y-5.640 F400.000
G1 X-2.379 Y-5.737 F400.000
G1 X-2.156 Y-5.827 F400.000
G1 X-1.929 Y-5.908 F400.000
G1 X-1.698 Y-5.979 F400.000
G1 X-1.465 Y-6.041 F400.000
G1 X-1.231 Y-6.096 F400.000
G1 X-0.994 Y-6.139 F400.000
G1 X-0.756 Y-6.174 F400.000
G1 X-0.516 Y-6.201 F400.000
G1 X-0.276 Y-6.221 F400.000
G1 X-0.036 Y-6.233 F400.000
G1 X0.203 Y-6.235 F400.000
G1 X0.441 Y-6.229 F400.000
G1 X0.679 Y-6.216 F400.000
G1 X0.917 Y-6.193 F400.000
G1 X1.154 Y-6.156 F400.000
G1 X1.388 Y-6.113 F400.000
G1 X1.621 Y-6.058 F400.000
G1 X1.852 Y-5.992 F400.000
G1 X2.079 Y-5.919 F400.000
G1 X2.304 Y-5.835 F400.000
G1 X2.525 Y-5.741 F400.000
G1 X2.741 Y-5.638 F400.000
G1 X2.953 Y-5.525 F400.000
G1 X3.161 Y-5.407 F400.000
G1 X3.364 Y-5.280 F400.000
G1 X3.563 Y-5.146 F400.000
G1 X3.756 Y-5.006 F400.000
G1 X3.946 Y-4.859 F400.000
G1 X4.131 Y-4.705 F400.000
G1 X4.311 Y-4.546 F400.000
G1 X4.486 Y-4.381 F400.000
G1 X4.655 Y-4.210 F400.000
G1 X4.818 Y-4.034 F400.000
G1 X4.976 Y-3.852 F400.000
G1 X5.124 Y-3.662 F400.000
G1 X5.266 Y-3.469 F400.000
G1 X5.402 Y-3.270 F400.000
G1 X5.525 Y-3.064 F400.000
G1 X5.644 Y-2.854 F400.000
G1 X5.752 Y-2.640 F400.000
G1 X5.852 Y-2.420 F400.000
G1 X5.942 Y-2.197 F400.000
G1 X6.023 Y-1.970 F400.000
G1 X6.094 Y-1.739 F400.000
G1 X6.156 Y-1.507 F400.000
G1 X6.208 Y-1.272 F400.000
G1 X6.251 Y-1.036 F400.000
G1 X6.287 Y-0.797 F400.000
G1 X6.311 Y-0.557 F400.000
G1 X6.328 Y-0.317 F400.000
G1 X6.336 Y-0.077 F400.000
G1 X6.336 Y0.161 F400.000
G1 X6.326 Y0.400 F400.000
G1 X6.310 Y0.638 F400.000
G1 X6.283 Y0.876 F400.000
G1 X6.250 Y1.113 F400.000
G1 X6.206 Y1.349 F400.000
G1 X6.156 Y1.583 F400.000
G1 X6.094 Y1.814 F400.000
G1 X6.024 Y2.043 F400.000
G1 X5.946 Y2.270 F400.000
G1 X5.857 Y2.493 F400.000
G1 X5.762 Y2.713 F400.000
G1 X5.657 Y2.929 F400.000
G1 X5.542 Y3.139 F400.000
G1 X5.420 Y3.345 F400.000
G1 X5.291 Y3.546 F400.000
G1 X5.152 Y3.743 F400.000
G1 X5.006 Y3.934 F400.000
G1 X4.852 Y4.120 F400.000
G1 X4.692 Y4.298 F400.000
G1 X4.525 Y4.471 F400.000
G1 X4.355 Y4.640 F400.000
G1 X4.176 Y4.801 F400.000
G1 X3.992 Y4.955 F400.000
G1 X3.803 Y5.103 F400.000
G1 X3.608 Y5.244 F400.000
G1 X3.409 Y5.379 F400.000
G1 X3.205 Y5.507 F400.000
G1 X2.996 Y5.627 F400.000
G1 X2.782 Y5.735 F400.000
G1 X2.565 Y5.839 F400.000
G1 X2.343 Y5.932 F400.000
G1 X2.118 Y6.017 F400.000
G1 X1.891 Y6.096 F400.000
G1 X1.660 Y6.163 F400.000
G1 X1.428 Y6.223 F400.000
G1 X1.193 Y6.276 F400.000
G1 X0.957 Y6.319 F400.000
G1 X0.719 Y6.353 F400.000
G1 X0.478 Y6.377 F400.000
G1 X0.238 Y6.394 F400.000
G1 X0.000 Y6.402 F400.000
G1 X-0.238 Y6.400 F400.000
G1 X-0.477 Y6.388 F400.000
G1 X-0.715 Y6.370 F400.000
G1 X-0.953 Y6.341 F400.000
G1 X-1.189 Y6.304 F400.000
G1 X-1.424 Y6.259 F400.000
G1 X-1.657 Y6.205 F400.000
G1 X-1.887 Y6.137 F400.000
G1 X-2.114 Y6.062 F400.000
G1 X-2.340 Y5.977 F400.000
G1 X-2.559 Y5.884 F400.000
G1 X-2.775 Y5.780 F400.000
G1 X-2.987 Y5.668 F400.000
G1 X-3.193 Y5.548 F400.000
G1 X-3.398 Y5.422 F400.000
G1 X-3.597 Y5.289 F400.000
G1 X-3.790 Y5.148 F400.000
G1 X-3.979 Y5.000 F400.000
G1 X-4.163 Y4.846 F400.000
G1 X-4.341 Y4.685 F400.000
G1 X-4.514 Y4.518 F400.000
G1 X-4.681 Y4.345 F400.000
G1 X-4.841 Y4.167 F400.000
G1 X-4.994 Y3.983 F400.000
G1 X-5.141 Y3.794 F400.000
G1 X-5.281 Y3.598 F400.000
G1 X-5.415 Y3.398 F400.000
G1 X-5.540 Y3.193 F400.000
G1 X-5.659 Y2.985 F400.000
G1 X-5.765 Y2.769 F400.000
G1 X-5.867 Y2.552 F400.000
G1 X-5.959 Y2.328 F400.000
G1 X-6.041 Y2.101 F400.000
G1 X-6.114 Y1.872 F400.000
G1 X-6.178 Y1.640 F400.000
G1 X-6.233 Y1.405 F400.000
G1 X-6.278 Y1.169 F400.000
G1 X-6.317 Y0.931 F400.000
G1 X-6.349 Y0.692 F400.000
G1 X-6.371 Y0.452 F400.000
G1 X-6.388 Y0.212 F400.000
G1 X-6.396 Y-0.026 F400.000
G1 X-6.392 Y-0.265 F400.000
G1 X-6.381 Y-0.503 F400.000
G1 X-6.360 Y-0.741 F400.000
G1 X-6.330 Y-0.979 F400.000
G1 X-6.293 Y-1.216 F400.000
G1 X-6.246 Y-1.450 F400.000
G1 X-6.189 Y-1.683 F400.000
G1 X-6.126 Y-1.914 F400.000
G1 X-6.053 Y-2.143 F400.000
G1 X-5.972 Y-2.368 F400.000
G1 X-5.882 Y-2.589 F400.000
G1 X-5.784 Y-2.809 F400.000
G1 X-5.674 Y-3.021 F400.000
G1 X-5.557 Y-3.231 F400.000
G1 X-5.432 Y-3.435 F400.000
G1 X-5.154 Y-3.827 F400.000
G1 X-4.850 Y-4.199 F400.000
G1 X-4.690 Y-4.377 F400.000
G1 X-4.523 Y-4.550 F400.000
G1 X-4.351 Y-4.717 F400.000
G1 X-4.173 Y-4.878 F400.000
G1 X-3.989 Y-5.034 F400.000
G1 X-3.801 Y-5.184 F400.000
G1 X-3.608 Y-5.328 F400.000
G1 X-3.407 Y-5.462 F400.000
G1 X-3.205 Y-5.589 F400.000
G1 X-2.996 Y-5.709 F400.000
G1 X-2.782 Y-5.820 F400.000
G1 X-2.565 Y-5.921 F400.000
G1 X-2.343 Y-6.015 F400.000
G1 X-2.118 Y-6.099 F400.000
G1 X-1.889 Y-6.173 F400.000
G1 X-1.657 Y-6.236 F400.000
G1 X-1.422 Y-6.295 F400.000
G1 X-1.186 Y-6.341 F400.000
G1 X-0.949 Y-6.383 F400.000
G1 X-0.711 Y-6.418 F400.000
G1 X-0.471 Y-6.445 F400.000
G1 X-0.231 Y-6.463 F400.000
G1 X0.008 Y-6.475 F400.000
G1 X0.246 Y-6.478 F400.000
G1 X0.484 Y-6.471 F400.000
G1 X0.722 Y-6.456 F400.000
G1 X0.961 Y-6.428 F400.000
G1 X1.197 Y-6.392 F400.000
G1 X1.432 Y-6.347 F400.000
G1 X1.664 Y-6.293 F400.000
G1 X1.895 Y-6.229 F400.000
G1 X2.124 Y-6.156 F400.000
G1 X2.349 Y-6.073 F400.000
G1 X2.570 Y-5.981 F400.000
G1 X2.788 Y-5.882 F400.000
G1 X3.002 Y-5.773 F400.000
G1 X3.212 Y-5.657 F400.000
G1 X3.417 Y-5.531 F400.000
G1 X3.615 Y-5.398 F400.000
G1 X3.812 Y-5.259 F400.000
G1 X4.191 Y-4.966 F400.000
G1 X4.375 Y-4.812 F400.000
G1 X4.555 Y-4.653 F400.000
G1 X4.728 Y-4.486 F400.000
G1 X4.893 Y-4.311 F400.000
G1 X5.054 Y-4.133 F400.000
G1 X5.206 Y-3.947 F400.000
G1 X5.353 Y-3.756 F400.000
G1 X5.492 Y-3.561 F400.000
G1 X5.623 Y-3.360 F400.000
G1 X5.747 Y-3.154 F400.000
G1 X5.863 Y-2.944 F400.000
G1 X5.972 Y-2.730 F400.000
G1 X6.069 Y-2.510 F400.000
G1 X6.159 Y-2.287 F400.000
G1 X6.240 Y-2.060 F400.000
G1 X6.311 Y-1.829 F400.000
G1 X6.375 Y-1.597 F400.000
G1 X6.430 Y-1.362 F400.000
G1 X6.473 Y-1.126 F400.000
G1 X6.510 Y-0.887 F400.000
G1 X6.538 Y-0.647 F400.000
G1 X6.557 Y-0.407 F400.000
G1 X6.568 Y-0.167 F400.000
G1 X6.570 Y0.071 F400.000
G1 X6.567 Y0.310 F400.000
G1 X6.553 Y0.548 F400.000
G1 X6.533 Y0.786 F400.000
G1 X6.505 Y1.024 F400.000
G1 X6.469 Y1.261 F400.000
G1 X6.422 Y1.495 F400.000
G1 X6.368 Y1.728 F400.000
G1 X6.306 Y1.959 F400.000
G1 X6.235 Y2.188 F400.000
G1 X6.152 Y2.413 F400.000
G1 X6.062 Y2.634 F400.000
G1 X5.962 Y2.852 F400.000
G1 X5.854 Y3.066 F400.000
G1 X5.737 Y3.276 F400.000
G1 X5.612 Y3.480 F400.000
G1 X5.480 Y3.681 F400.000
G1 X5.343 Y3.878 F400.000
G1 X5.199 Y4.069 F400.000
G1 X5.049 Y4.257 F400.000
G1 X4.891 Y4.439 F400.000
G1 X4.728 Y4.615 F400.000
G1 X4.555 Y4.782 F400.000
G1 X4.379 Y4.946 F400.000
G1 X4.197 Y5.101 F400.000
G1 X4.008 Y5.250 F400.000
G1 X3.814 Y5.392 F400.000
G1 X3.615 Y5.527 F400.000
G1 X3.413 Y5.657 F400.000
G1 X3.205 Y5.779 F400.000
G1 X2.992 Y5.893 F400.000
G1 X2.777 Y6.002 F400.000
G1 X2.557 Y6.101 F400.000
G1 X2.336 Y6.195 F400.000
G1 X2.109 Y6.276 F400.000
G1 X1.880 Y6.351 F400.000
G1 X1.649 Y6.417 F400.000
G1 X1.415 Y6.473 F400.000
G1 X1.178 Y6.520 F400.000
G1 X0.940 Y6.561 F400.000
G1 X0.702 Y6.595 F400.000
G1 X0.462 Y6.619 F400.000
G1 X0.221 Y6.636 F400.000
G1 X-0.017 Y6.645 F400.000
G1 X-0.255 Y6.642 F400.000
G1 X-0.493 Y6.632 F400.000
G1 X-0.732 Y6.614 F400.000
G1 X-0.970 Y6.583 F400.000
G1 X-1.206 Y6.546 F400.000
G1 X-1.441 Y6.499 F400.000
G1 X-1.674 Y6.443 F400.000
G1 X-1.904 Y6.379 F400.000
G1 X-2.133 Y6.306 F400.000
G1 X-2.358 Y6.225 F400.000
G1 X-2.580 Y6.135 F400.000
G1 X-2.799 Y6.038 F400.000
G1 X-3.015 Y5.931 F400.000
G1 X-3.225 Y5.816 F400.000
G1 X-3.432 Y5.694 F400.000
G1 X-3.632 Y5.565 F400.000
G1 X-3.829 Y5.428 F400.000
G1 X-4.021 Y5.283 F400.000
G1 X-4.206 Y5.131 F400.000
G1 X-4.386 Y4.972 F400.000
G1 X-4.561 Y4.807 F400.000
G1 X-4.732 Y4.638 F400.000
G1 X-4.895 Y4.462 F400.000
G1 X-5.054 Y4.281 F400.000
G1 X-5.208 Y4.096 F400.000
G1 X-5.355 Y3.906 F400.000
G1 X-5.493 Y3.711 F400.000
G1 X-5.627 Y3.512 F400.000
G1 X-5.750 Y3.306 F400.000
G1 X-5.869 Y3.096 F400.000
G1 X-5.977 Y2.882 F400.000
G1 X-6.079 Y2.664 F400.000
G1 X-6.173 Y2.443 F400.000
G1 X-6.257 Y2.218 F400.000
G1 X-6.332 Y1.989 F400.000
G1 X-6.400 Y1.758 F400.000
G1 X-6.458 Y1.525 F400.000
G1 X-6.508 Y1.289 F400.000
G1 X-6.550 Y1.051 F400.000
G1 X-6.582 Y0.812 F400.000
G1 X-6.608 Y0.572 F400.000
G1 X-6.625 Y0.332 F400.000
G1 X-6.632 Y0.092 F400.000
G1 X-6.632 Y-0.146 F400.000
G1 X-6.627 Y-0.385 F400.000
G1 X-6.612 Y-0.623 F400.000
G1 X-6.589 Y-0.861 F400.000
G1 X-6.559 Y-1.099 F400.000
G1 X-6.518 Y-1.336 F400.000
G1 X-6.471 Y-1.570 F400.000
G1 X-6.415 Y-1.803 F400.000
G1 X-6.349 Y-2.034 F400.000
G1 X-6.276 Y-2.261 F400.000
G1 X-6.191 Y-2.484 F400.000
G1 X-6.099 Y-2.705 F400.000
G1 X-5.998 Y-2.923 F400.000
G1 X-5.887 Y-3.135 F400.000
G1 X-5.769 Y-3.343 F400.000
G1 X-5.642 Y-3.546 F400.000
G1 X-5.507 Y-3.745 F400.000
G1 X-5.366 Y-3.938 F400.000
G1 X-5.220 Y-4.128 F400.000
G1 X-5.066 Y-4.311 F400.000
G1 X-4.906 Y-4.492 F400.000
G1 X-4.741 Y-4.666 F400.000
G1 X-4.570 Y-4.835 F400.000
G1 X-4.394 Y-4.998 F400.000
G1 X-4.214 Y-5.158 F400.000
G1 X-4.028 Y-5.310 F400.000
G1 X-3.837 Y-5.456 F400.000
G1 X-3.642 Y-5.597 F400.000
G1 X-3.439 Y-5.728 F400.000
G1 X-3.235 Y-5.854 F400.000
G1 X-3.023 Y-5.968 F400.000
G1 X-2.807 Y-6.075 F400.000
G1 X-2.587 Y-6.174 F400.000
G1 X-2.364 Y-6.263 F400.000
G1 X-2.137 Y-6.343 F400.000
G1 X-1.906 Y-6.415 F400.000
G1 X-1.674 Y-6.477 F400.000
G1 X-1.439 Y-6.533 F400.000
G1 X-1.203 Y-6.582 F400.000
G1 X-0.966 Y-6.623 F400.000
G1 X-0.728 Y-6.657 F400.000
G1 X-0.488 Y-6.685 F400.000
G1 X-0.248 Y-6.705 F400.000
G1 X-0.008 Y-6.719 F400.000
G1 X0.231 Y-6.724 F400.000
G1 X0.469 Y-6.717 F400.000
G1 X0.707 Y-6.700 F400.000
G1 X0.946 Y-6.675 F400.000
G1 X1.182 Y-6.640 F400.000
G1 X1.417 Y-6.595 F400.000
G1 X1.649 Y-6.540 F400.000
G1 X1.880 Y-6.477 F400.000
G1 X2.109 Y-6.407 F400.000
G1 X2.336 Y-6.328 F400.000
G1 X2.559 Y-6.242 F400.000
G1 X2.780 Y-6.148 F400.000
G1 X2.998 Y-6.047 F400.000
G1 X3.208 Y-5.932 F400.000
G1 X3.417 Y-5.812 F400.000
G1 X3.619 Y-5.685 F400.000
G1 X3.818 Y-5.552 F400.000
G1 X4.013 Y-5.413 F400.000
G1 X4.205 Y-5.268 F400.000
G1 X4.392 Y-5.118 F400.000
G1 X4.576 Y-4.962 F400.000
G1 X4.754 Y-4.801 F400.000
G1 X5.092 Y-4.458 F400.000
G1 X5.251 Y-4.278 F400.000
G1 X5.403 Y-4.092 F400.000
G1 X5.550 Y-3.902 F400.000
G1 X5.690 Y-3.707 F400.000
G1 X5.824 Y-3.507 F400.000
G1 X5.947 Y-3.300 F400.000
G1 X6.064 Y-3.090 F400.000
G1 X6.173 Y-2.876 F400.000
G1 X6.272 Y-2.657 F400.000
G1 X6.364 Y-2.433 F400.000
G1 X6.447 Y-2.208 F400.000
G1 X6.520 Y-1.979 F400.000
G1 X6.585 Y-1.747 F400.000
G1 X6.642 Y-1.512 F400.000
G1 X6.689 Y-1.276 F400.000
G1 X6.730 Y-1.038 F400.000
G1 X6.760 Y-0.799 F400.000
G1 X6.782 Y-0.559 F400.000
G1 X6.797 Y-0.319 F400.000
G1 X6.807 Y-0.079 F400.000
G1 X6.807 Y0.159 F400.000
G1 X6.799 Y0.398 F400.000
G1 X6.784 Y0.636 F400.000
G1 X6.764 Y0.874 F400.000
G1 X6.734 Y1.113 F400.000
G1 X6.698 Y1.349 F400.000
G1 X6.651 Y1.583 F400.000
G1 X6.598 Y1.816 F400.000
G1 X6.533 Y2.047 F400.000
G1 X6.460 Y2.276 F400.000
G1 X6.379 Y2.501 F400.000
G1 X6.287 Y2.722 F400.000
G1 X6.188 Y2.940 F400.000
G1 X6.079 Y3.154 F400.000
G1 X5.962 Y3.364 F400.000
G1 X5.839 Y3.568 F400.000
G1 X5.709 Y3.771 F400.000
G1 X5.572 Y3.968 F400.000
G1 X5.430 Y4.161 F400.000
G1 X5.281 Y4.349 F400.000
G1 X5.126 Y4.533 F400.000
G1 X4.964 Y4.711 F400.000
G1 X4.797 Y4.884 F400.000
G1 X4.625 Y5.051 F400.000
G1 X4.447 Y5.212 F400.000
G1 X4.261 Y5.364 F400.000
G1 X4.071 Y5.510 F400.000
G1 X3.876 Y5.649 F400.000
G1 X3.674 Y5.779 F400.000
G1 X3.259 Y6.023 F400.000
G1 X3.047 Y6.135 F400.000
G1 X2.831 Y6.240 F400.000
G1 X2.612 Y6.340 F400.000
G1 X2.390 Y6.432 F400.000
G1 X2.163 Y6.512 F400.000
G1 X1.932 Y6.583 F400.000
G1 X1.700 Y6.647 F400.000
G1 X1.465 Y6.704 F400.000
G1 X1.229 Y6.752 F400.000
G1 X0.991 Y6.794 F400.000
G1 X0.752 Y6.827 F400.000
G1 X0.512 Y6.854 F400.000
G1 X0.272 Y6.871 F400.000
G1 X0.032 Y6.880 F400.000
G1 X-0.206 Y6.882 F400.000
G1 X-0.445 Y6.876 F400.000
G1 X-0.683 Y6.861 F400.000
G1 X-0.921 Y6.835 F400.000
G1 X-1.158 Y6.801 F400.000
G1 X-1.394 Y6.760 F400.000
G1 X-1.629 Y6.709 F400.000
G1 X-1.861 Y6.649 F400.000
G1 X-2.090 Y6.582 F400.000
G1 X-2.317 Y6.505 F400.000
G1 X-2.540 Y6.420 F400.000
G1 X-2.762 Y6.326 F400.000
G1 X-2.979 Y6.225 F400.000
G1 X-3.193 Y6.116 F400.000
G1 X-3.402 Y5.998 F400.000
G1 X-3.606 Y5.872 F400.000
G1 X-3.805 Y5.739 F400.000
G1 X-4.000 Y5.598 F400.000
G1 X-4.375 Y5.298 F400.000
G1 X-4.555 Y5.139 F400.000
G1 X-4.730 Y4.974 F400.000
G1 X-4.901 Y4.805 F400.000
G1 X-5.066 Y4.630 F400.000
G1 X-5.225 Y4.450 F400.000
G1 X-5.381 Y4.266 F400.000
G1 X-5.531 Y4.079 F400.000
G1 X-5.805 Y3.685 F400.000
G1 X-5.932 Y3.482 F400.000
G1 X-6.053 Y3.274 F400.000
G1 X-6.163 Y3.060 F400.000
G1 X-6.266 Y2.842 F400.000
G1 X-6.360 Y2.621 F400.000
G1 X-6.445 Y2.396 F400.000
G1 X-6.522 Y2.167 F400.000
G1 X-6.593 Y1.936 F400.000
G1 X-6.657 Y1.704 F400.000
G1 X-6.713 Y1.469 F400.000
G1 X-6.762 Y1.233 F400.000
G1 X-6.803 Y0.996 F400.000
G1 X-6.837 Y0.758 F400.000
G1 X-6.859 Y0.518 F400.000
G1 X-6.874 Y0.278 F400.000
G1 X-6.882 Y0.038 F400.000
G1 X-6.878 Y-0.201 F400.000
G1 X-6.867 Y-0.439 F400.000
G1 X-6.850 Y-0.677 F400.000
G1 X-6.824 Y-0.916 F400.000
G1 X-6.792 Y-1.152 F400.000
G1 X-6.752 Y-1.388 F400.000
G1 X-6.705 Y-1.623 F400.000
G1 X-6.649 Y-1.856 F400.000
G1 X-6.585 Y-2.086 F400.000
G1 X-6.510 Y-2.313 F400.000
G1 X-6.428 Y-2.538 F400.000
G1 X-6.338 Y-2.760 F400.000
G1 X-6.238 Y-2.977 F400.000
G1 X-6.131 Y-3.191 F400.000
G1 X-6.017 Y-3.402 F400.000
G1 X-5.893 Y-3.608 F400.000
G1 X-5.762 Y-3.809 F400.000
G1 X-5.623 Y-4.006 F400.000
G1 X-5.477 Y-4.197 F400.000
G1 X-5.325 Y-4.383 F400.000
G1 X-5.167 Y-4.565 F400.000
G1 X-5.004 Y-4.741 F400.000
G1 X-4.835 Y-4.912 F400.000
G1 X-4.662 Y-5.079 F400.000
G1 X-4.484 Y-5.240 F400.000
G1 X-4.116 Y-5.548 F400.000
G1 X-3.925 Y-5.694 F400.000
G1 X-3.728 Y-5.831 F400.000
G1 X-3.525 Y-5.959 F400.000
G1 X-3.319 Y-6.081 F400.000
G1 X-3.107 Y-6.193 F400.000
G1 X-2.891 Y-6.298 F400.000
G1 X-2.672 Y-6.396 F400.000
G1 X-2.448 Y-6.484 F400.000
G1 X-2.221 Y-6.563 F400.000
G1 X-1.991 Y-6.634 F400.000
G1 X-1.758 Y-6.700 F400.000
G1 X-1.523 Y-6.758 F400.000
G1 X-1.289 Y-6.811 F400.000
G1 X-1.053 Y-6.856 F400.000
G1 X-0.814 Y-6.895 F400.000
G1 X-0.576 Y-6.927 F400.000
G1 X-0.336 Y-6.951 F400.000
G1 X0.143 Y-6.970 F400.000
G1 X0.381 Y-6.968 F400.000
G1 X0.619 Y-6.957 F400.000
G1 X0.857 Y-6.932 F400.000
G1 X1.096 Y-6.902 F400.000
G1 X1.332 Y-6.861 F400.000
G1 X1.567 Y-6.811 F400.000
G1 X1.799 Y-6.750 F400.000
G1 X2.030 Y-6.685 F400.000
G1 X2.259 Y-6.612 F400.000
G1 X2.484 Y-6.529 F400.000
G1 X2.707 Y-6.441 F400.000
G1 X2.927 Y-6.345 F400.000
G1 X3.143 Y-6.242 F400.000
G1 X3.353 Y-6.128 F400.000
G1 X3.561 Y-6.008 F400.000
G1 X3.764 Y-5.880 F400.000
G1 X3.964 Y-5.747 F400.000
G1 X4.351 Y-5.462 F400.000
G1 X4.538 Y-5.311 F400.000
G1 X4.720 Y-5.156 F400.000
G1 X4.899 Y-4.994 F400.000
G1 X5.071 Y-4.827 F400.000
G1 X5.238 Y-4.655 F400.000
G1 X5.402 Y-4.478 F400.000
G1 X5.705 Y-4.107 F400.000
G1 X5.848 Y-3.914 F400.000
G1 X5.983 Y-3.715 F400.000
G1 X6.109 Y-3.510 F400.000
G1 X6.229 Y-3.302 F400.000
G1 X6.340 Y-3.088 F400.000
G1 X6.441 Y-2.871 F400.000
G1 X6.535 Y-2.649 F400.000
G1 X6.619 Y-2.424 F400.000
G1 X6.698 Y-2.197 F400.000
G1 X6.767 Y-1.966 F400.000
G1 X6.829 Y-1.734 F400.000
G1 X6.884 Y-1.499 F400.000
G1 X6.929 Y-1.263 F400.000
G1 X6.966 Y-1.024 F400.000
G1 X6.996 Y-0.786 F400.000
G1 X7.021 Y-0.546 F400.000
G1 X7.036 Y-0.306 F400.000
G1 X7.043 Y-0.066 F400.000
G1 X7.045 Y0.173 F400.000
G1 X7.038 Y0.411 F400.000
G1 X7.023 Y0.649 F400.000
G1 X7.002 Y0.887 F400.000
G1 X6.974 Y1.126 F400.000
G1 X6.938 Y1.362 F400.000
G1 X6.895 Y1.597 F400.000
G1 X6.841 Y1.829 F400.000
G1 X6.780 Y2.062 F400.000
G1 X6.709 Y2.291 F400.000
G1 X6.630 Y2.518 F400.000
G1 X6.542 Y2.741 F400.000
G1 X6.445 Y2.961 F400.000
G1 X6.340 Y3.176 F400.000
G1 X6.227 Y3.388 F400.000
G1 X6.107 Y3.595 F400.000
G1 X5.981 Y3.799 F400.000
G1 X5.707 Y4.193 F400.000
G1 X5.561 Y4.383 F400.000
G1 X5.409 Y4.568 F400.000
G1 X5.251 Y4.749 F400.000
G1 X5.090 Y4.925 F400.000
G1 X4.921 Y5.096 F400.000
G1 X4.749 Y5.263 F400.000
G1 X4.570 Y5.424 F400.000
G1 X4.385 Y5.576 F400.000
G1 X4.191 Y5.719 F400.000
G1 X3.994 Y5.856 F400.000
G1 X3.794 Y5.987 F400.000
G1 X3.589 Y6.113 F400.000
G1 X3.167 Y6.345 F400.000
G1 X2.951 Y6.450 F400.000
G1 X2.732 Y6.550 F400.000
G1 X2.510 Y6.644 F400.000
G1 X2.283 Y6.726 F400.000
G1 X2.054 Y6.803 F400.000
G1 X1.824 Y6.871 F400.000
G1 X1.591 Y6.929 F400.000
G1 X1.356 Y6.981 F400.000
G1 X1.120 Y7.024 F400.000
G1 X0.882 Y7.060 F400.000
G1 X0.642 Y7.086 F400.000
G1 X0.402 Y7.105 F400.000
G1 X0.161 Y7.118 F400.000
G1 X-0.077 Y7.122 F400.000
G1 X-0.315 Y7.118 F400.000
G1 X-0.553 Y7.109 F400.000
G1 X-0.792 Y7.090 F400.000
G1 X-1.030 Y7.064 F400.000
G1 X-1.266 Y7.030 F400.000
G1 X-1.501 Y6.985 F400.000
G1 X-1.735 Y6.934 F400.000
G1 X-1.968 Y6.874 F400.000
G1 X-2.197 Y6.805 F400.000
G1 X-2.424 Y6.728 F400.000
G1 X-2.647 Y6.644 F400.000
G1 X-2.869 Y6.552 F400.000
G1 X-3.086 Y6.450 F400.000
G1 X-3.300 Y6.341 F400.000
G1 X-3.508 Y6.221 F400.000
G1 X-3.713 Y6.096 F400.000
G1 X-3.912 Y5.961 F400.000
G1 X-4.107 Y5.820 F400.000
G1 X-4.296 Y5.674 F400.000
G1 X-4.482 Y5.522 F400.000
G1 X-4.662 Y5.364 F400.000
G1 X-4.839 Y5.201 F400.000
G1 X-5.178 Y4.861 F400.000
G1 X-5.341 Y4.685 F400.000
G1 X-5.499 Y4.505 F400.000
G1 X-5.651 Y4.317 F400.000
G1 X-5.797 Y4.128 F400.000
G1 X-6.068 Y3.730 F400.000
G1 X-6.189 Y3.523 F400.000
G1 X-6.306 Y3.313 F400.000
G1 X-6.415 Y3.098 F400.000
G1 X-6.514 Y2.878 F400.000
G1 X-6.606 Y2.655 F400.000
G1 X-6.689 Y2.430 F400.000
G1 X-6.764 Y2.201 F400.000
G1 X-6.833 Y1.970 F400.000
G1 X-6.897 Y1.737 F400.000
G1 X-6.951 Y1.503 F400.000
G1 X-7.000 Y1.266 F400.000
G1 X-7.041 Y1.030 F400.000
G1 X-7.075 Y0.792 F400.000
G1 X-7.099 Y0.552 F400.000
G1 X-7.116 Y0.311 F400.000
G1 X-7.126 Y0.071 F400.000
G1 X-7.126 Y-0.167 F400.000
G1 X-7.118 Y-0.405 F400.000
G1 X-7.103 Y-0.644 F400.000
G1 X-7.079 Y-0.882 F400.000
G1 X-7.047 Y-1.118 F400.000
G1 X-7.008 Y-1.355 F400.000
G1 X-6.961 Y-1.589 F400.000
G1 X-6.906 Y-1.822 F400.000
G1 X-6.842 Y-2.053 F400.000
G1 X-6.771 Y-2.281 F400.000
G1 X-6.692 Y-2.508 F400.000
G1 X-6.606 Y-2.732 F400.000
G1 X-6.512 Y-2.953 F400.000
G1 X-6.411 Y-3.171 F400.000
G1 X-6.302 Y-3.385 F400.000
G1 X-6.186 Y-3.595 F400.000
G1 X-6.060 Y-3.799 F400.000
G1 X-5.929 Y-4.000 F400.000
G1 X-5.788 Y-4.195 F400.000
G1 X-5.640 Y-4.385 F400.000
G1 X-5.486 Y-4.568 F400.000
G1 X-5.326 Y-4.749 F400.000
G1 X-5.163 Y-4.925 F400.000
G1 X-4.996 Y-5.098 F400.000
G1 X-4.824 Y-5.265 F400.000
G1 X-4.647 Y-5.428 F400.000
G1 X-4.465 Y-5.585 F400.000
G1 X-4.280 Y-5.737 F400.000
G1 X-3.889 Y-6.019 F400.000
G1 X-3.687 Y-6.146 F400.000
G1 X-3.478 Y-6.268 F400.000
G1 X-3.266 Y-6.383 F400.000
G1 X-3.051 Y-6.488 F400.000
G1 X-2.831 Y-6.585 F400.000
G1 X-2.608 Y-6.675 F400.000
G1 X-2.383 Y-6.760 F400.000
G1 X-2.154 Y-6.835 F400.000
G1 X-1.923 Y-6.904 F400.000
G1 X-1.690 Y-6.966 F400.000
G1 X-1.456 Y-7.023 F400.000
G1 X-1.220 Y-7.071 F400.000
G1 X-0.983 Y-7.113 F400.000
G1 X-0.745 Y-7.148 F400.000
G1 X-0.505 Y-7.176 F400.000
G1 X-0.265 Y-7.199 F400.000
G1 X-0.024 Y-7.210 F400.000
G1 X0.214 Y-7.216 F400.000
G1 X0.452 Y-7.208 F400.000
