(Exported by FreeCAD)
(Post Processor: script_module)
(Output Time:2025-02-10 13:17:19.787069)
(Begin preamble)
G17 G90
G21
(Block-name: Fixture)
(Block-expand: 0)
(Block-enable: 1)
(Begin operation: Fixture)
(Path: Fixture)
G54
(Finish operation: Fixture)
(Block-name: 3mm Endmill001)
(Block-expand: 0)
(Block-enable: 1)
(Begin operation: 3mm Endmill001)
(Path: 3mm Endmill001)
(3mm Endmill001)
(Begin toolchange)
( M6 T2 )
M3 S10000
(Finish operation: 3mm Endmill001)
(Block-name: Drilling)
(Block-expand: 0)
(Block-enable: 1)
(Begin operation: Drilling)
(Path: Drilling)
(Drilling)
(Begin Drilling)
G0 Z10.000
G90
G98
G0 X-7.480 Y-17.710
G83 X-7.480 Y-17.710 Z-1.500 F200.000 Q0.750 R3.000
G0 X7.520 Y-17.710
G83 X7.520 Y-17.710 Z-1.500 F200.000 Q0.750 R3.000
G0 X28.500 Y-2.500
G83 X28.500 Y-2.500 Z-1.500 F200.000 Q0.750 R3.000
G0 X37.500 Y-37.500
G83 X37.500 Y-37.500 Z-1.500 F200.000 Q0.750 R3.000
G0 X-28.500 Y-2.500
G83 X-28.500 Y-2.500 Z-1.500 F200.000 Q0.750 R3.000
G0 X-37.500 Y-37.500
G83 X-37.500 Y-37.500 Z-1.500 F200.000 Q0.750 R3.000
G0 X37.500 Y37.500
G83 X37.500 Y37.500 Z-1.500 F200.000 Q0.750 R3.000
G80
G0 Z3.000
G0 Z10.000
(Finish operation: Drilling)
(Block-name: Adaptive)
(Block-expand: 0)
(Block-enable: 1)
(Begin operation: Adaptive)
(Path: Adaptive)
(Adaptive)
(Helix to depth: -0.600000)
G0 Z10.000
G0 X-28.597 Y-2.281 Z10.000
G0 X-28.597 Y-2.281 Z3.000
G1 X-28.597 Y-2.281 Z0.000 F200.000
G1 X-28.597 Y-2.281 Z0.000 F200.000
G1 X-28.637 Y-2.304 Z-0.004 F200.000
G1 X-28.672 Y-2.336 Z-0.009 F200.000
G1 X-28.700 Y-2.373 Z-0.013 F200.000
G1 X-28.720 Y-2.415 Z-0.017 F200.000
G1 X-28.732 Y-2.460 Z-0.021 F200.000
G1 X-28.734 Y-2.507 Z-0.026 F200.000
G1 X-28.727 Y-2.553 Z-0.030 F200.000
G1 X-28.712 Y-2.597 Z-0.034 F200.000
G1 X-28.688 Y-2.637 Z-0.038 F200.000
G1 X-28.657 Y-2.672 Z-0.043 F200.000
G1 X-28.619 Y-2.700 Z-0.047 F200.000
G1 X-28.577 Y-2.720 Z-0.051 F200.000
G1 X-28.532 Y-2.732 Z-0.055 F200.000
G1 X-28.485 Y-2.734 Z-0.060 F200.000
G1 X-28.439 Y-2.727 Z-0.064 F200.000
G1 X-28.395 Y-2.712 Z-0.068 F200.000
G1 X-28.355 Y-2.688 Z-0.072 F200.000
G1 X-28.320 Y-2.657 Z-0.077 F200.000
G1 X-28.292 Y-2.619 Z-0.081 F200.000
G1 X-28.272 Y-2.577 Z-0.085 F200.000
G1 X-28.261 Y-2.532 Z-0.090 F200.000
G1 X-28.258 Y-2.485 Z-0.094 F200.000
G1 X-28.265 Y-2.439 Z-0.098 F200.000
G1 X-28.281 Y-2.395 Z-0.102 F200.000
G1 X-28.304 Y-2.355 Z-0.107 F200.000
G1 X-28.336 Y-2.320 Z-0.111 F200.000
G1 X-28.373 Y-2.292 Z-0.115 F200.000
G1 X-28.415 Y-2.272 Z-0.119 F200.000
G1 X-28.460 Y-2.261 Z-0.124 F200.000
G1 X-28.507 Y-2.258 Z-0.128 F200.000
G1 X-28.553 Y-2.265 Z-0.132 F200.000
G1 X-28.597 Y-2.281 Z-0.136 F200.000
G1 X-28.637 Y-2.304 Z-0.141 F200.000
G1 X-28.672 Y-2.336 Z-0.145 F200.000
G1 X-28.700 Y-2.373 Z-0.149 F200.000
G1 X-28.720 Y-2.415 Z-0.153 F200.000
G1 X-28.732 Y-2.460 Z-0.158 F200.000
G1 X-28.734 Y-2.507 Z-0.162 F200.000
G1 X-28.727 Y-2.553 Z-0.166 F200.000
G1 X-28.712 Y-2.597 Z-0.170 F200.000
G1 X-28.688 Y-2.637 Z-0.175 F200.000
G1 X-28.657 Y-2.672 Z-0.179 F200.000
G1 X-28.619 Y-2.700 Z-0.183 F200.000
G1 X-28.577 Y-2.720 Z-0.188 F200.000
G1 X-28.532 Y-2.732 Z-0.192 F200.000
G1 X-28.485 Y-2.734 Z-0.196 F200.000
G1 X-28.439 Y-2.727 Z-0.200 F200.000
G1 X-28.395 Y-2.712 Z-0.205 F200.000
G1 X-28.355 Y-2.688 Z-0.209 F200.000
G1 X-28.320 Y-2.657 Z-0.213 F200.000
G1 X-28.292 Y-2.619 Z-0.217 F200.000
G1 X-28.272 Y-2.577 Z-0.222 F200.000
G1 X-28.261 Y-2.532 Z-0.226 F200.000
G1 X-28.258 Y-2.485 Z-0.230 F200.000
G1 X-28.265 Y-2.439 Z-0.234 F200.000
G1 X-28.281 Y-2.395 Z-0.239 F200.000
G1 X-28.304 Y-2.355 Z-0.243 F200.000
G1 X-28.336 Y-2.320 Z-0.247 F200.000
G1 X-28.373 Y-2.292 Z-0.251 F200.000
G1 X-28.415 Y-2.272 Z-0.256 F200.000
G1 X-28.460 Y-2.261 Z-0.260 F200.000
G1 X-28.507 Y-2.258 Z-0.264 F200.000
G1 X-28.553 Y-2.265 Z-0.269 F200.000
G1 X-28.597 Y-2.281 Z-0.273 F200.000
G1 X-28.637 Y-2.304 Z-0.277 F200.000
G1 X-28.672 Y-2.336 Z-0.281 F200.000
G1 X-28.700 Y-2.373 Z-0.286 F200.000
G1 X-28.720 Y-2.415 Z-0.290 F200.000
G1 X-28.732 Y-2.460 Z-0.294 F200.000
G1 X-28.734 Y-2.507 Z-0.298 F200.000
G1 X-28.727 Y-2.553 Z-0.303 F200.000
G1 X-28.712 Y-2.597 Z-0.307 F200.000
G1 X-28.688 Y-2.637 Z-0.311 F200.000
G1 X-28.657 Y-2.672 Z-0.315 F200.000
G1 X-28.619 Y-2.700 Z-0.320 F200.000
G1 X-28.577 Y-2.720 Z-0.324 F200.000
G1 X-28.532 Y-2.732 Z-0.328 F200.000
G1 X-28.485 Y-2.734 Z-0.332 F200.000
G1 X-28.439 Y-2.727 Z-0.337 F200.000
G1 X-28.395 Y-2.712 Z-0.341 F200.000
G1 X-28.355 Y-2.688 Z-0.345 F200.000
G1 X-28.320 Y-2.657 Z-0.350 F200.000
G1 X-28.292 Y-2.619 Z-0.354 F200.000
G1 X-28.272 Y-2.577 Z-0.358 F200.000
G1 X-28.261 Y-2.532 Z-0.362 F200.000
G1 X-28.258 Y-2.485 Z-0.367 F200.000
G1 X-28.265 Y-2.439 Z-0.371 F200.000
G1 X-28.281 Y-2.395 Z-0.375 F200.000
G1 X-28.304 Y-2.355 Z-0.379 F200.000
G1 X-28.336 Y-2.320 Z-0.384 F200.000
G1 X-28.373 Y-2.292 Z-0.388 F200.000
G1 X-28.415 Y-2.272 Z-0.392 F200.000
G1 X-28.460 Y-2.261 Z-0.396 F200.000
G1 X-28.507 Y-2.258 Z-0.401 F200.000
G1 X-28.553 Y-2.265 Z-0.405 F200.000
G1 X-28.597 Y-2.281 Z-0.409 F200.000
G1 X-28.637 Y-2.304 Z-0.413 F200.000
G1 X-28.672 Y-2.336 Z-0.418 F200.000
G1 X-28.700 Y-2.373 Z-0.422 F200.000
G1 X-28.720 Y-2.415 Z-0.426 F200.000
G1 X-28.732 Y-2.460 Z-0.430 F200.000
G1 X-28.734 Y-2.507 Z-0.435 F200.000
G1 X-28.727 Y-2.553 Z-0.439 F200.000
G1 X-28.712 Y-2.597 Z-0.443 F200.000
G1 X-28.688 Y-2.637 Z-0.448 F200.000
G1 X-28.657 Y-2.672 Z-0.452 F200.000
G1 X-28.619 Y-2.700 Z-0.456 F200.000
G1 X-28.577 Y-2.720 Z-0.460 F200.000
G1 X-28.532 Y-2.732 Z-0.465 F200.000
G1 X-28.485 Y-2.734 Z-0.469 F200.000
G1 X-28.439 Y-2.727 Z-0.473 F200.000
G1 X-28.395 Y-2.712 Z-0.477 F200.000
G1 X-28.355 Y-2.688 Z-0.482 F200.000
G1 X-28.320 Y-2.657 Z-0.486 F200.000
G1 X-28.292 Y-2.619 Z-0.490 F200.000
G1 X-28.272 Y-2.577 Z-0.494 F200.000
G1 X-28.261 Y-2.532 Z-0.499 F200.000
G1 X-28.258 Y-2.485 Z-0.503 F200.000
G1 X-28.265 Y-2.439 Z-0.507 F200.000
G1 X-28.281 Y-2.395 Z-0.511 F200.000
G1 X-28.304 Y-2.355 Z-0.516 F200.000
G1 X-28.336 Y-2.320 Z-0.520 F200.000
G1 X-28.373 Y-2.292 Z-0.524 F200.000
G1 X-28.415 Y-2.272 Z-0.529 F200.000
G1 X-28.460 Y-2.261 Z-0.533 F200.000
G1 X-28.507 Y-2.258 Z-0.537 F200.000
G1 X-28.553 Y-2.265 Z-0.541 F200.000
G1 X-28.597 Y-2.281 Z-0.546 F200.000
G1 X-28.637 Y-2.304 Z-0.550 F200.000
G1 X-28.672 Y-2.336 Z-0.554 F200.000
G1 X-28.700 Y-2.373 Z-0.558 F200.000
G1 X-28.720 Y-2.415 Z-0.563 F200.000
G1 X-28.732 Y-2.460 Z-0.567 F200.000
G1 X-28.734 Y-2.507 Z-0.571 F200.000
G1 X-28.727 Y-2.553 Z-0.575 F200.000
G1 X-28.712 Y-2.597 Z-0.580 F200.000
G1 X-28.688 Y-2.637 Z-0.584 F200.000
G1 X-28.657 Y-2.672 Z-0.588 F200.000
G1 X-28.619 Y-2.700 Z-0.592 F200.000
G1 X-28.577 Y-2.720 Z-0.597 F200.000
G1 X-28.532 Y-2.732 Z-0.600 F400.000
G1 X-28.485 Y-2.734 Z-0.600 F400.000
G1 X-28.439 Y-2.727 Z-0.600 F400.000
G1 X-28.395 Y-2.712 Z-0.600 F400.000
G1 X-28.355 Y-2.688 Z-0.600 F400.000
G1 X-28.320 Y-2.657 Z-0.600 F400.000
G1 X-28.292 Y-2.619 Z-0.600 F400.000
G1 X-28.272 Y-2.577 Z-0.600 F400.000
G1 X-28.261 Y-2.532 Z-0.600 F400.000
G1 X-28.258 Y-2.485 Z-0.600 F400.000
G1 X-28.265 Y-2.439 Z-0.600 F400.000
G1 X-28.281 Y-2.395 Z-0.600 F400.000
G1 X-28.304 Y-2.355 Z-0.600 F400.000
G1 X-28.336 Y-2.320 Z-0.600 F400.000
G1 X-28.373 Y-2.292 Z-0.600 F400.000
G1 X-28.415 Y-2.272 Z-0.600 F400.000
G1 X-28.460 Y-2.261 Z-0.600 F400.000
G1 X-28.507 Y-2.258 Z-0.600 F400.000
G1 X-28.553 Y-2.265 Z-0.600 F400.000
G1 X-28.597 Y-2.281 Z-0.600 F400.000
G1 X-28.637 Y-2.304 Z-0.600 F400.000
G1 X-28.672 Y-2.336 Z-0.600 F400.000
G1 X-28.700 Y-2.373 Z-0.600 F400.000
G1 X-28.720 Y-2.415 Z-0.600 F400.000
G1 X-28.732 Y-2.460 Z-0.600 F400.000
G1 X-28.734 Y-2.507 Z-0.600 F400.000
G1 X-28.727 Y-2.553 Z-0.600 F400.000
G1 X-28.712 Y-2.597 Z-0.600 F400.000
G1 X-28.688 Y-2.637 Z-0.600 F400.000
G1 X-28.657 Y-2.672 Z-0.600 F400.000
G1 X-28.619 Y-2.700 Z-0.600 F400.000
G1 X-28.577 Y-2.720 Z-0.600 F400.000
(Adaptive - depth: -0.600000)
G1 X-28.496 Y-2.744 F400.000
G1 X-28.440 Y-2.771 F400.000
G1 X-28.380 Y-2.771 F400.000
G1 X-28.320 Y-2.752 F400.000
G1 X-28.267 Y-2.722 F400.000
G1 X-28.222 Y-2.680 F400.000
G1 X-28.162 Y-2.571 F400.000
G1 X-28.147 Y-2.511 F400.000
G1 X-28.143 Y-2.451 F400.000
G1 X-28.150 Y-2.391 F400.000
G1 X-28.233 Y-2.241 F400.000
G1 X-28.316 Y-2.173 F400.000
G1 X-28.391 Y-2.139 F400.000
G1 X-28.481 Y-2.120 F400.000
G1 X-28.590 Y-2.132 F400.000
G1 X-28.692 Y-2.173 F400.000
G1 X-28.771 Y-2.241 F400.000
G1 X-28.823 Y-2.320 F400.000
G1 X-28.857 Y-2.417 F400.000
G1 X-28.861 Y-2.523 F400.000
G1 X-28.850 Y-2.579 F400.000
G1 X-28.797 Y-2.684 F400.000
G1 X-28.718 Y-2.771 F400.000
G1 X-28.617 Y-2.838 F400.000
G1 X-28.500 Y-2.876 F400.000
G1 X-28.440 Y-2.883 F400.000
G1 X-28.320 Y-2.868 F400.000
G1 X-28.203 Y-2.816 F400.000
G1 X-28.105 Y-2.733 F400.000
G1 X-28.038 Y-2.624 F400.000
G1 X-28.019 Y-2.564 F400.000
G1 X-28.008 Y-2.376 F400.000
G1 X-28.038 Y-2.259 F400.000
G1 X-28.098 Y-2.150 F400.000
G1 X-28.177 Y-2.064 F400.000
G1 X-28.278 Y-1.996 F400.000
G1 X-28.391 Y-1.955 F400.000
G1 X-28.560 Y-1.940 F400.000
G1 X-28.673 Y-1.962 F400.000
G1 X-28.774 Y-2.011 F400.000
G1 X-28.865 Y-2.083 F400.000
G1 X-28.966 Y-2.222 F400.000
G1 X-29.015 Y-2.387 F400.000
G1 X-29.008 Y-2.556 F400.000
G1 X-28.970 Y-2.669 F400.000
G1 X-28.914 Y-2.771 F400.000
G1 X-28.835 Y-2.861 F400.000
G1 X-28.688 Y-2.962 F400.000
G1 X-28.575 Y-3.004 F400.000
G1 X-28.395 Y-3.026 F400.000
G1 X-28.274 Y-3.011 F400.000
G1 X-28.158 Y-2.966 F400.000
G1 X-28.053 Y-2.898 F400.000
G1 X-27.966 Y-2.812 F400.000
G1 X-27.895 Y-2.711 F400.000
G1 X-27.846 Y-2.594 F400.000
G1 X-27.820 Y-2.414 F400.000
G1 X-27.838 Y-2.233 F400.000
G1 X-27.906 Y-2.064 F400.000
G1 X-28.019 Y-1.917 F400.000
G1 X-28.162 Y-1.805 F400.000
G1 X-28.267 Y-1.752 F400.000
G1 X-28.380 Y-1.718 F400.000
G1 X-28.549 Y-1.707 F400.000
G1 X-28.718 Y-1.737 F400.000
G1 X-28.921 Y-1.842 F400.000
G1 X-29.045 Y-1.959 F400.000
G1 X-29.139 Y-2.102 F400.000
G1 X-29.195 Y-2.263 F400.000
G1 X-29.218 Y-2.432 F400.000
G1 X-29.195 Y-2.602 F400.000
G1 X-29.158 Y-2.714 F400.000
G1 X-29.068 Y-2.868 F400.000
G1 X-28.944 Y-3.000 F400.000
G1 X-28.797 Y-3.102 F400.000
G1 X-28.632 Y-3.169 F400.000
G1 X-28.451 Y-3.203 F400.000
G1 X-28.271 Y-3.195 F400.000
G1 X-28.090 Y-3.143 F400.000
G1 X-27.981 Y-3.086 F400.000
G1 X-27.835 Y-2.962 F400.000
G1 X-27.692 Y-2.756 F400.000
G1 X-27.624 Y-2.579 F400.000
G1 X-27.598 Y-2.459 F400.000
G1 X-27.598 Y-2.278 F400.000
G1 X-27.635 Y-2.098 F400.000
G1 X-27.680 Y-1.985 F400.000
G1 X-27.831 Y-1.793 F400.000
G1 X-28.079 Y-1.628 F400.000
G1 X-28.244 Y-1.560 F400.000
G1 X-28.526 Y-1.534 F400.000
G1 X-28.752 Y-1.560 F400.000
G1 X-28.966 Y-1.650 F400.000
G1 X-29.195 Y-1.827 F400.000
G1 X-29.365 Y-2.060 F400.000
G1 X-29.425 Y-2.222 F400.000
G1 X-29.451 Y-2.391 F400.000
G1 X-29.447 Y-2.560 F400.000
G1 X-29.398 Y-2.729 F400.000
G1 X-29.323 Y-2.887 F400.000
G1 X-29.132 Y-3.117 F400.000
G1 X-28.940 Y-3.263 F400.000
G1 X-28.774 Y-3.342 F400.000
G1 X-28.538 Y-3.402 F400.000
G1 X-28.357 Y-3.414 F400.000
G1 X-28.237 Y-3.402 F400.000
G1 X-28.060 Y-3.346 F400.000
G1 X-27.846 Y-3.214 F400.000
G1 X-27.801 Y-3.173 F400.000
G1 X-27.650 Y-2.962 F400.000
G1 X-27.598 Y-2.850 F400.000
G1 X-27.545 Y-2.669 F400.000
G1 X-27.534 Y-2.429 F400.000
G1 X-27.560 Y-2.248 F400.000
G1 X-27.560 Y-2.248 F400.000
G1 X-27.617 Y-2.135 F400.000
G1 X-27.684 Y-2.075 F400.000
G0 X-27.711 Y-2.068
G0 X-27.868 Y-2.083
G0 X-29.207 Y-2.387
G1 X-29.241 Y-2.395 F400.000
G1 X-29.357 Y-2.432 F400.000
G1 X-29.398 Y-2.470 F400.000
G1 X-29.436 Y-2.553 F400.000
G1 X-29.447 Y-2.680 F400.000
G1 X-29.447 Y-2.680 F400.000
G1 X-29.440 Y-2.737 F400.000
G1 X-29.380 Y-2.906 F400.000
G1 X-29.169 Y-3.199 F400.000
G1 X-28.974 Y-3.342 F400.000
G1 X-28.752 Y-3.436 F400.000
G1 X-28.511 Y-3.470 F400.000
G1 X-28.271 Y-3.444 F400.000
G1 X-28.150 Y-3.406 F400.000
G1 X-28.150 Y-3.406 F400.000
G1 X-28.135 Y-3.391 F400.000
G0 X-28.128 Y-3.376
G0 X-28.135 Y-3.365
G1 X-28.147 Y-3.357 F400.000
G1 X-28.162 Y-3.376 F400.000
G1 X-28.150 Y-3.402 F400.000
G1 X-28.120 Y-3.421 F400.000
G1 X-28.120 Y-3.421 F400.000
G1 X-28.019 Y-3.368 F400.000
G1 X-27.820 Y-3.226 F400.000
G1 X-27.759 Y-3.162 F400.000
G1 X-27.635 Y-2.992 F400.000
G1 X-27.602 Y-2.929 F400.000
G1 X-27.519 Y-2.677 F400.000
G1 X-27.508 Y-2.538 F400.000
G1 X-27.515 Y-2.357 F400.000
G1 X-27.534 Y-2.252 F400.000
G1 X-27.560 Y-2.162 F400.000
G1 X-27.620 Y-2.026 F400.000
G1 X-27.767 Y-1.827 F400.000
G1 X-27.835 Y-1.759 F400.000
G1 X-27.996 Y-1.639 F400.000
G1 X-28.128 Y-1.571 F400.000
G1 X-28.207 Y-1.545 F400.000
G1 X-28.353 Y-1.515 F400.000
G1 X-28.489 Y-1.504 F400.000
G1 X-28.729 Y-1.526 F400.000
G1 X-28.861 Y-1.571 F400.000
G1 X-28.996 Y-1.635 F400.000
G1 X-29.188 Y-1.782 F400.000
G1 X-29.308 Y-1.921 F400.000
G1 X-29.383 Y-2.041 F400.000
G1 X-29.462 Y-2.252 F400.000
G1 X-29.496 Y-2.481 F400.000
G1 X-29.470 Y-2.703 F400.000
G1 X-29.395 Y-2.932 F400.000
G1 X-29.368 Y-2.981 F400.000
G1 X-29.241 Y-3.162 F400.000
G1 X-29.135 Y-3.263 F400.000
G1 X-29.023 Y-3.342 F400.000
G1 X-28.831 Y-3.436 F400.000
G1 X-28.726 Y-3.470 F400.000
G1 X-28.560 Y-3.492 F400.000
G1 X-28.436 Y-3.492 F400.000
G1 X-28.293 Y-3.470 F400.000
G1 X-28.120 Y-3.421 F400.000
G1 X-28.120 Y-3.421 F400.000
G0 Z10.000
(Helix to depth: -0.600000)
G0 Z10.000
G0 X28.395 Y-2.281 Z10.000
G0 X28.395 Y-2.281 Z3.000
G1 X28.395 Y-2.281 Z0.000 F200.000
G1 X28.395 Y-2.281 Z0.000 F200.000
G1 X28.355 Y-2.304 Z-0.004 F200.000
G1 X28.320 Y-2.336 Z-0.009 F200.000
G1 X28.292 Y-2.373 Z-0.013 F200.000
G1 X28.272 Y-2.415 Z-0.017 F200.000
G1 X28.261 Y-2.460 Z-0.021 F200.000
G1 X28.258 Y-2.507 Z-0.026 F200.000
G1 X28.265 Y-2.553 Z-0.030 F200.000
G1 X28.281 Y-2.597 Z-0.034 F200.000
G1 X28.304 Y-2.637 Z-0.038 F200.000
G1 X28.336 Y-2.672 Z-0.043 F200.000
G1 X28.373 Y-2.700 Z-0.047 F200.000
G1 X28.415 Y-2.720 Z-0.051 F200.000
G1 X28.460 Y-2.732 Z-0.055 F200.000
G1 X28.507 Y-2.734 Z-0.060 F200.000
G1 X28.553 Y-2.727 Z-0.064 F200.000
G1 X28.597 Y-2.712 Z-0.068 F200.000
G1 X28.637 Y-2.688 Z-0.072 F200.000
G1 X28.672 Y-2.657 Z-0.077 F200.000
G1 X28.700 Y-2.619 Z-0.081 F200.000
G1 X28.720 Y-2.577 Z-0.085 F200.000
G1 X28.732 Y-2.532 Z-0.090 F200.000
G1 X28.734 Y-2.485 Z-0.094 F200.000
G1 X28.727 Y-2.439 Z-0.098 F200.000
G1 X28.712 Y-2.395 Z-0.102 F200.000
G1 X28.688 Y-2.355 Z-0.107 F200.000
G1 X28.657 Y-2.320 Z-0.111 F200.000
G1 X28.619 Y-2.292 Z-0.115 F200.000
G1 X28.577 Y-2.272 Z-0.119 F200.000
G1 X28.532 Y-2.261 Z-0.124 F200.000
G1 X28.485 Y-2.258 Z-0.128 F200.000
G1 X28.439 Y-2.265 Z-0.132 F200.000
G1 X28.395 Y-2.281 Z-0.136 F200.000
G1 X28.355 Y-2.304 Z-0.141 F200.000
G1 X28.320 Y-2.336 Z-0.145 F200.000
G1 X28.292 Y-2.373 Z-0.149 F200.000
G1 X28.272 Y-2.415 Z-0.153 F200.000
G1 X28.261 Y-2.460 Z-0.158 F200.000
G1 X28.258 Y-2.507 Z-0.162 F200.000
G1 X28.265 Y-2.553 Z-0.166 F200.000
G1 X28.281 Y-2.597 Z-0.170 F200.000
G1 X28.304 Y-2.637 Z-0.175 F200.000
G1 X28.336 Y-2.672 Z-0.179 F200.000
G1 X28.373 Y-2.700 Z-0.183 F200.000
G1 X28.415 Y-2.720 Z-0.188 F200.000
G1 X28.460 Y-2.732 Z-0.192 F200.000
G1 X28.507 Y-2.734 Z-0.196 F200.000
G1 X28.553 Y-2.727 Z-0.200 F200.000
G1 X28.597 Y-2.712 Z-0.205 F200.000
G1 X28.637 Y-2.688 Z-0.209 F200.000
G1 X28.672 Y-2.657 Z-0.213 F200.000
G1 X28.700 Y-2.619 Z-0.217 F200.000
G1 X28.720 Y-2.577 Z-0.222 F200.000
G1 X28.732 Y-2.532 Z-0.226 F200.000
G1 X28.734 Y-2.485 Z-0.230 F200.000
G1 X28.727 Y-2.439 Z-0.234 F200.000
G1 X28.712 Y-2.395 Z-0.239 F200.000
G1 X28.688 Y-2.355 Z-0.243 F200.000
G1 X28.657 Y-2.320 Z-0.247 F200.000
G1 X28.619 Y-2.292 Z-0.251 F200.000
G1 X28.577 Y-2.272 Z-0.256 F200.000
G1 X28.532 Y-2.261 Z-0.260 F200.000
G1 X28.485 Y-2.258 Z-0.264 F200.000
G1 X28.439 Y-2.265 Z-0.269 F200.000
G1 X28.395 Y-2.281 Z-0.273 F200.000
G1 X28.355 Y-2.304 Z-0.277 F200.000
G1 X28.320 Y-2.336 Z-0.281 F200.000
G1 X28.292 Y-2.373 Z-0.286 F200.000
G1 X28.272 Y-2.415 Z-0.290 F200.000
G1 X28.261 Y-2.460 Z-0.294 F200.000
G1 X28.258 Y-2.507 Z-0.298 F200.000
G1 X28.265 Y-2.553 Z-0.303 F200.000
G1 X28.281 Y-2.597 Z-0.307 F200.000
G1 X28.304 Y-2.637 Z-0.311 F200.000
G1 X28.336 Y-2.672 Z-0.315 F200.000
G1 X28.373 Y-2.700 Z-0.320 F200.000
G1 X28.415 Y-2.720 Z-0.324 F200.000
G1 X28.460 Y-2.732 Z-0.328 F200.000
G1 X28.507 Y-2.734 Z-0.332 F200.000
G1 X28.553 Y-2.727 Z-0.337 F200.000
G1 X28.597 Y-2.712 Z-0.341 F200.000
G1 X28.637 Y-2.688 Z-0.345 F200.000
G1 X28.672 Y-2.657 Z-0.350 F200.000
G1 X28.700 Y-2.619 Z-0.354 F200.000
G1 X28.720 Y-2.577 Z-0.358 F200.000
G1 X28.732 Y-2.532 Z-0.362 F200.000
G1 X28.734 Y-2.485 Z-0.367 F200.000
G1 X28.727 Y-2.439 Z-0.371 F200.000
G1 X28.712 Y-2.395 Z-0.375 F200.000
G1 X28.688 Y-2.355 Z-0.379 F200.000
G1 X28.657 Y-2.320 Z-0.384 F200.000
G1 X28.619 Y-2.292 Z-0.388 F200.000
G1 X28.577 Y-2.272 Z-0.392 F200.000
G1 X28.532 Y-2.261 Z-0.396 F200.000
G1 X28.485 Y-2.258 Z-0.401 F200.000
G1 X28.439 Y-2.265 Z-0.405 F200.000
G1 X28.395 Y-2.281 Z-0.409 F200.000
G1 X28.355 Y-2.304 Z-0.413 F200.000
G1 X28.320 Y-2.336 Z-0.418 F200.000
G1 X28.292 Y-2.373 Z-0.422 F200.000
G1 X28.272 Y-2.415 Z-0.426 F200.000
G1 X28.261 Y-2.460 Z-0.430 F200.000
G1 X28.258 Y-2.507 Z-0.435 F200.000
G1 X28.265 Y-2.553 Z-0.439 F200.000
G1 X28.281 Y-2.597 Z-0.443 F200.000
G1 X28.304 Y-2.637 Z-0.448 F200.000
G1 X28.336 Y-2.672 Z-0.452 F200.000
G1 X28.373 Y-2.700 Z-0.456 F200.000
G1 X28.415 Y-2.720 Z-0.460 F200.000
G1 X28.460 Y-2.732 Z-0.465 F200.000
G1 X28.507 Y-2.734 Z-0.469 F200.000
G1 X28.553 Y-2.727 Z-0.473 F200.000
G1 X28.597 Y-2.712 Z-0.477 F200.000
G1 X28.637 Y-2.688 Z-0.482 F200.000
G1 X28.672 Y-2.657 Z-0.486 F200.000
G1 X28.700 Y-2.619 Z-0.490 F200.000
G1 X28.720 Y-2.577 Z-0.494 F200.000
G1 X28.732 Y-2.532 Z-0.499 F200.000
G1 X28.734 Y-2.485 Z-0.503 F200.000
G1 X28.727 Y-2.439 Z-0.507 F200.000
G1 X28.712 Y-2.395 Z-0.511 F200.000
G1 X28.688 Y-2.355 Z-0.516 F200.000
G1 X28.657 Y-2.320 Z-0.520 F200.000
G1 X28.619 Y-2.292 Z-0.524 F200.000
G1 X28.577 Y-2.272 Z-0.529 F200.000
G1 X28.532 Y-2.261 Z-0.533 F200.000
G1 X28.485 Y-2.258 Z-0.537 F200.000
G1 X28.439 Y-2.265 Z-0.541 F200.000
G1 X28.395 Y-2.281 Z-0.546 F200.000
G1 X28.355 Y-2.304 Z-0.550 F200.000
G1 X28.320 Y-2.336 Z-0.554 F200.000
G1 X28.292 Y-2.373 Z-0.558 F200.000
G1 X28.272 Y-2.415 Z-0.563 F200.000
G1 X28.261 Y-2.460 Z-0.567 F200.000
G1 X28.258 Y-2.507 Z-0.571 F200.000
G1 X28.265 Y-2.553 Z-0.575 F200.000
G1 X28.281 Y-2.597 Z-0.580 F200.000
G1 X28.304 Y-2.637 Z-0.584 F200.000
G1 X28.336 Y-2.672 Z-0.588 F200.000
G1 X28.373 Y-2.700 Z-0.592 F200.000
G1 X28.415 Y-2.720 Z-0.597 F200.000
G1 X28.460 Y-2.732 Z-0.600 F400.000
G1 X28.507 Y-2.734 Z-0.600 F400.000
G1 X28.553 Y-2.727 Z-0.600 F400.000
G1 X28.597 Y-2.712 Z-0.600 F400.000
G1 X28.637 Y-2.688 Z-0.600 F400.000
G1 X28.672 Y-2.657 Z-0.600 F400.000
G1 X28.700 Y-2.619 Z-0.600 F400.000
G1 X28.720 Y-2.577 Z-0.600 F400.000
G1 X28.732 Y-2.532 Z-0.600 F400.000
G1 X28.734 Y-2.485 Z-0.600 F400.000
G1 X28.727 Y-2.439 Z-0.600 F400.000
G1 X28.712 Y-2.395 Z-0.600 F400.000
G1 X28.688 Y-2.355 Z-0.600 F400.000
G1 X28.657 Y-2.320 Z-0.600 F400.000
G1 X28.619 Y-2.292 Z-0.600 F400.000
G1 X28.577 Y-2.272 Z-0.600 F400.000
G1 X28.532 Y-2.261 Z-0.600 F400.000
G1 X28.485 Y-2.258 Z-0.600 F400.000
G1 X28.439 Y-2.265 Z-0.600 F400.000
G1 X28.395 Y-2.281 Z-0.600 F400.000
G1 X28.355 Y-2.304 Z-0.600 F400.000
G1 X28.320 Y-2.336 Z-0.600 F400.000
G1 X28.292 Y-2.373 Z-0.600 F400.000
G1 X28.272 Y-2.415 Z-0.600 F400.000
G1 X28.261 Y-2.460 Z-0.600 F400.000
G1 X28.258 Y-2.507 Z-0.600 F400.000
G1 X28.265 Y-2.553 Z-0.600 F400.000
G1 X28.281 Y-2.597 Z-0.600 F400.000
G1 X28.304 Y-2.637 Z-0.600 F400.000
G1 X28.336 Y-2.672 Z-0.600 F400.000
G1 X28.373 Y-2.700 Z-0.600 F400.000
G1 X28.415 Y-2.720 Z-0.600 F400.000
(Adaptive - depth: -0.600000)
G1 X28.496 Y-2.744 F400.000
G1 X28.549 Y-2.771 F400.000
G1 X28.605 Y-2.771 F400.000
G1 X28.662 Y-2.752 F400.000
G1 X28.714 Y-2.722 F400.000
G1 X28.759 Y-2.680 F400.000
G1 X28.793 Y-2.628 F400.000
G1 X28.816 Y-2.571 F400.000
G1 X28.827 Y-2.511 F400.000
G1 X28.827 Y-2.451 F400.000
G1 X28.816 Y-2.391 F400.000
G1 X28.793 Y-2.335 F400.000
G1 X28.695 Y-2.207 F400.000
G1 X28.583 Y-2.150 F400.000
G1 X28.500 Y-2.135 F400.000
G1 X28.417 Y-2.139 F400.000
G1 X28.320 Y-2.173 F400.000
G1 X28.229 Y-2.237 F400.000
G1 X28.165 Y-2.320 F400.000
G1 X28.128 Y-2.417 F400.000
G1 X28.124 Y-2.571 F400.000
G1 X28.139 Y-2.628 F400.000
G1 X28.199 Y-2.729 F400.000
G1 X28.237 Y-2.774 F400.000
G1 X28.331 Y-2.846 F400.000
G1 X28.436 Y-2.891 F400.000
G1 X28.549 Y-2.906 F400.000
G1 X28.662 Y-2.883 F400.000
G1 X28.771 Y-2.831 F400.000
G1 X28.857 Y-2.748 F400.000
G1 X28.917 Y-2.639 F400.000
G1 X28.940 Y-2.519 F400.000
G1 X28.925 Y-2.316 F400.000
G1 X28.853 Y-2.180 F400.000
G1 X28.786 Y-2.109 F400.000
G1 X28.684 Y-2.038 F400.000
G1 X28.508 Y-1.989 F400.000
G1 X28.387 Y-1.989 F400.000
G1 X28.267 Y-2.019 F400.000
G1 X28.158 Y-2.079 F400.000
G1 X28.071 Y-2.158 F400.000
G1 X28.004 Y-2.256 F400.000
G1 X27.959 Y-2.365 F400.000
G1 X27.940 Y-2.477 F400.000
G1 X27.944 Y-2.590 F400.000
G1 X27.974 Y-2.703 F400.000
G1 X28.023 Y-2.805 F400.000
G1 X28.135 Y-2.936 F400.000
G1 X28.229 Y-3.004 F400.000
G1 X28.335 Y-3.049 F400.000
G1 X28.447 Y-3.075 F400.000
G1 X28.617 Y-3.068 F400.000
G1 X28.729 Y-3.038 F400.000
G1 X28.835 Y-2.981 F400.000
G1 X28.929 Y-2.902 F400.000
G1 X29.000 Y-2.808 F400.000
G1 X29.053 Y-2.699 F400.000
G1 X29.086 Y-2.579 F400.000
G1 X29.098 Y-2.459 F400.000
G1 X29.086 Y-2.338 F400.000
G1 X29.049 Y-2.218 F400.000
G1 X28.992 Y-2.109 F400.000
G1 X28.868 Y-1.966 F400.000
G1 X28.711 Y-1.865 F400.000
G1 X28.534 Y-1.805 F400.000
G1 X28.414 Y-1.793 F400.000
G1 X28.293 Y-1.805 F400.000
G1 X28.173 Y-1.838 F400.000
G1 X28.015 Y-1.929 F400.000
G1 X27.921 Y-2.008 F400.000
G1 X27.808 Y-2.150 F400.000
G1 X27.741 Y-2.316 F400.000
G1 X27.707 Y-2.485 F400.000
G1 X27.718 Y-2.654 F400.000
G1 X27.763 Y-2.823 F400.000
G1 X27.850 Y-2.974 F400.000
G1 X28.015 Y-3.135 F400.000
G1 X28.165 Y-3.226 F400.000
G1 X28.335 Y-3.274 F400.000
G1 X28.504 Y-3.286 F400.000
G1 X28.673 Y-3.263 F400.000
G1 X28.786 Y-3.226 F400.000
G1 X28.940 Y-3.139 F400.000
G1 X29.075 Y-3.019 F400.000
G1 X29.177 Y-2.872 F400.000
G1 X29.244 Y-2.699 F400.000
G1 X29.278 Y-2.519 F400.000
G1 X29.274 Y-2.338 F400.000
G1 X29.229 Y-2.158 F400.000
G1 X29.150 Y-1.992 F400.000
G1 X29.038 Y-1.842 F400.000
G1 X28.895 Y-1.718 F400.000
G1 X28.729 Y-1.628 F400.000
G1 X28.549 Y-1.575 F400.000
G1 X28.368 Y-1.560 F400.000
G1 X28.248 Y-1.571 F400.000
G1 X28.128 Y-1.605 F400.000
G1 X28.015 Y-1.654 F400.000
G1 X27.823 Y-1.805 F400.000
G1 X27.643 Y-2.041 F400.000
G1 X27.556 Y-2.259 F400.000
G1 X27.534 Y-2.429 F400.000
G1 X27.541 Y-2.654 F400.000
G1 X27.605 Y-2.880 F400.000
G1 X27.658 Y-2.985 F400.000
G1 X27.838 Y-3.207 F400.000
G1 X28.023 Y-3.342 F400.000
G1 X28.180 Y-3.417 F400.000
G1 X28.350 Y-3.455 F400.000
G1 X28.519 Y-3.470 F400.000
G1 X28.744 Y-3.440 F400.000
G1 X28.857 Y-3.402 F400.000
G1 X28.962 Y-3.350 F400.000
G1 X29.199 Y-3.169 F400.000
G1 X29.365 Y-2.917 F400.000
G1 X29.459 Y-2.624 F400.000
G1 X29.470 Y-2.504 F400.000
G1 X29.440 Y-2.263 F400.000
G1 X29.402 Y-2.143 F400.000
G1 X29.312 Y-1.977 F400.000
G1 X29.199 Y-1.827 F400.000
G1 X28.947 Y-1.639 F400.000
G1 X28.835 Y-1.586 F400.000
G1 X28.714 Y-1.549 F400.000
G1 X28.714 Y-1.549 F400.000
G1 X28.695 Y-1.553 F400.000
G0 X28.684 Y-1.568
G1 X28.684 Y-1.575 F400.000
G1 X28.688 Y-1.575 F400.000
G1 X28.692 Y-1.575 F400.000
G1 X28.695 Y-1.556 F400.000
G1 X28.662 Y-1.515 F400.000
G1 X28.662 Y-1.515 F400.000
G1 X28.523 Y-1.508 F400.000
G1 X28.335 Y-1.515 F400.000
G1 X28.244 Y-1.534 F400.000
G1 X28.135 Y-1.571 F400.000
G1 X28.000 Y-1.635 F400.000
G1 X27.808 Y-1.782 F400.000
G1 X27.688 Y-1.921 F400.000
G1 X27.609 Y-2.053 F400.000
G1 X27.530 Y-2.267 F400.000
G1 X27.511 Y-2.395 F400.000
G1 X27.508 Y-2.583 F400.000
G1 X27.523 Y-2.695 F400.000
G1 X27.602 Y-2.932 F400.000
G1 X27.628 Y-2.981 F400.000
G1 X27.756 Y-3.162 F400.000
G1 X27.861 Y-3.263 F400.000
G1 X27.974 Y-3.342 F400.000
G1 X28.165 Y-3.436 F400.000
G1 X28.271 Y-3.470 F400.000
G1 X28.436 Y-3.492 F400.000
G1 X28.560 Y-3.492 F400.000
G1 X28.703 Y-3.470 F400.000
G1 X28.876 Y-3.421 F400.000
G1 X28.977 Y-3.368 F400.000
G1 X29.177 Y-3.226 F400.000
G1 X29.237 Y-3.162 F400.000
G1 X29.361 Y-2.992 F400.000
G1 X29.395 Y-2.929 F400.000
G1 X29.492 Y-2.613 F400.000
G1 X29.492 Y-2.447 F400.000
G1 X29.466 Y-2.267 F400.000
G1 X29.436 Y-2.162 F400.000
G1 X29.376 Y-2.026 F400.000
G1 X29.229 Y-1.827 F400.000
G1 X29.162 Y-1.759 F400.000
G1 X29.000 Y-1.639 F400.000
G1 X28.868 Y-1.571 F400.000
G1 X28.662 Y-1.515 F400.000
G1 X28.662 Y-1.515 F400.000
G0 Z10.000
(Helix to depth: -1.200000)
G0 Z10.000
G0 X-28.597 Y-2.281 Z10.000
G0 X-28.597 Y-2.281 Z3.000
G1 X-28.597 Y-2.281 Z-0.600 F200.000
G1 X-28.597 Y-2.281 Z-0.600 F200.000
G1 X-28.637 Y-2.304 Z-0.604 F200.000
G1 X-28.672 Y-2.336 Z-0.609 F200.000
G1 X-28.700 Y-2.373 Z-0.613 F200.000
G1 X-28.720 Y-2.415 Z-0.617 F200.000
G1 X-28.732 Y-2.460 Z-0.621 F200.000
G1 X-28.734 Y-2.507 Z-0.626 F200.000
G1 X-28.727 Y-2.553 Z-0.630 F200.000
G1 X-28.712 Y-2.597 Z-0.634 F200.000
G1 X-28.688 Y-2.637 Z-0.638 F200.000
G1 X-28.657 Y-2.672 Z-0.643 F200.000
G1 X-28.619 Y-2.700 Z-0.647 F200.000
G1 X-28.577 Y-2.720 Z-0.651 F200.000
G1 X-28.532 Y-2.732 Z-0.655 F200.000
G1 X-28.485 Y-2.734 Z-0.660 F200.000
G1 X-28.439 Y-2.727 Z-0.664 F200.000
G1 X-28.395 Y-2.712 Z-0.668 F200.000
G1 X-28.355 Y-2.688 Z-0.672 F200.000
G1 X-28.320 Y-2.657 Z-0.677 F200.000
G1 X-28.292 Y-2.619 Z-0.681 F200.000
G1 X-28.272 Y-2.577 Z-0.685 F200.000
G1 X-28.261 Y-2.532 Z-0.690 F200.000
G1 X-28.258 Y-2.485 Z-0.694 F200.000
G1 X-28.265 Y-2.439 Z-0.698 F200.000
G1 X-28.281 Y-2.395 Z-0.702 F200.000
G1 X-28.304 Y-2.355 Z-0.707 F200.000
G1 X-28.336 Y-2.320 Z-0.711 F200.000
G1 X-28.373 Y-2.292 Z-0.715 F200.000
G1 X-28.415 Y-2.272 Z-0.719 F200.000
G1 X-28.460 Y-2.261 Z-0.724 F200.000
G1 X-28.507 Y-2.258 Z-0.728 F200.000
G1 X-28.553 Y-2.265 Z-0.732 F200.000
G1 X-28.597 Y-2.281 Z-0.736 F200.000
G1 X-28.637 Y-2.304 Z-0.741 F200.000
G1 X-28.672 Y-2.336 Z-0.745 F200.000
G1 X-28.700 Y-2.373 Z-0.749 F200.000
G1 X-28.720 Y-2.415 Z-0.753 F200.000
G1 X-28.732 Y-2.460 Z-0.758 F200.000
G1 X-28.734 Y-2.507 Z-0.762 F200.000
G1 X-28.727 Y-2.553 Z-0.766 F200.000
G1 X-28.712 Y-2.597 Z-0.770 F200.000
G1 X-28.688 Y-2.637 Z-0.775 F200.000
G1 X-28.657 Y-2.672 Z-0.779 F200.000
G1 X-28.619 Y-2.700 Z-0.783 F200.000
G1 X-28.577 Y-2.720 Z-0.788 F200.000
G1 X-28.532 Y-2.732 Z-0.792 F200.000
G1 X-28.485 Y-2.734 Z-0.796 F200.000
G1 X-28.439 Y-2.727 Z-0.800 F200.000
G1 X-28.395 Y-2.712 Z-0.805 F200.000
G1 X-28.355 Y-2.688 Z-0.809 F200.000
G1 X-28.320 Y-2.657 Z-0.813 F200.000
G1 X-28.292 Y-2.619 Z-0.817 F200.000
G1 X-28.272 Y-2.577 Z-0.822 F200.000
G1 X-28.261 Y-2.532 Z-0.826 F200.000
G1 X-28.258 Y-2.485 Z-0.830 F200.000
G1 X-28.265 Y-2.439 Z-0.834 F200.000
G1 X-28.281 Y-2.395 Z-0.839 F200.000
G1 X-28.304 Y-2.355 Z-0.843 F200.000
G1 X-28.336 Y-2.320 Z-0.847 F200.000
G1 X-28.373 Y-2.292 Z-0.851 F200.000
G1 X-28.415 Y-2.272 Z-0.856 F200.000
G1 X-28.460 Y-2.261 Z-0.860 F200.000
G1 X-28.507 Y-2.258 Z-0.864 F200.000
G1 X-28.553 Y-2.265 Z-0.869 F200.000
G1 X-28.597 Y-2.281 Z-0.873 F200.000
G1 X-28.637 Y-2.304 Z-0.877 F200.000
G1 X-28.672 Y-2.336 Z-0.881 F200.000
G1 X-28.700 Y-2.373 Z-0.886 F200.000
G1 X-28.720 Y-2.415 Z-0.890 F200.000
G1 X-28.732 Y-2.460 Z-0.894 F200.000
G1 X-28.734 Y-2.507 Z-0.898 F200.000
G1 X-28.727 Y-2.553 Z-0.903 F200.000
G1 X-28.712 Y-2.597 Z-0.907 F200.000
G1 X-28.688 Y-2.637 Z-0.911 F200.000
G1 X-28.657 Y-2.672 Z-0.915 F200.000
G1 X-28.619 Y-2.700 Z-0.920 F200.000
G1 X-28.577 Y-2.720 Z-0.924 F200.000
G1 X-28.532 Y-2.732 Z-0.928 F200.000
G1 X-28.485 Y-2.734 Z-0.932 F200.000
G1 X-28.439 Y-2.727 Z-0.937 F200.000
G1 X-28.395 Y-2.712 Z-0.941 F200.000
G1 X-28.355 Y-2.688 Z-0.945 F200.000
G1 X-28.320 Y-2.657 Z-0.950 F200.000
G1 X-28.292 Y-2.619 Z-0.954 F200.000
G1 X-28.272 Y-2.577 Z-0.958 F200.000
G1 X-28.261 Y-2.532 Z-0.962 F200.000
G1 X-28.258 Y-2.485 Z-0.967 F200.000
G1 X-28.265 Y-2.439 Z-0.971 F200.000
G1 X-28.281 Y-2.395 Z-0.975 F200.000
G1 X-28.304 Y-2.355 Z-0.979 F200.000
G1 X-28.336 Y-2.320 Z-0.984 F200.000
G1 X-28.373 Y-2.292 Z-0.988 F200.000
G1 X-28.415 Y-2.272 Z-0.992 F200.000
G1 X-28.460 Y-2.261 Z-0.996 F200.000
G1 X-28.507 Y-2.258 Z-1.001 F200.000
G1 X-28.553 Y-2.265 Z-1.005 F200.000
G1 X-28.597 Y-2.281 Z-1.009 F200.000
G1 X-28.637 Y-2.304 Z-1.013 F200.000
G1 X-28.672 Y-2.336 Z-1.018 F200.000
G1 X-28.700 Y-2.373 Z-1.022 F200.000
G1 X-28.720 Y-2.415 Z-1.026 F200.000
G1 X-28.732 Y-2.460 Z-1.030 F200.000
G1 X-28.734 Y-2.507 Z-1.035 F200.000
G1 X-28.727 Y-2.553 Z-1.039 F200.000
G1 X-28.712 Y-2.597 Z-1.043 F200.000
G1 X-28.688 Y-2.637 Z-1.048 F200.000
G1 X-28.657 Y-2.672 Z-1.052 F200.000
G1 X-28.619 Y-2.700 Z-1.056 F200.000
G1 X-28.577 Y-2.720 Z-1.060 F200.000
G1 X-28.532 Y-2.732 Z-1.065 F200.000
G1 X-28.485 Y-2.734 Z-1.069 F200.000
G1 X-28.439 Y-2.727 Z-1.073 F200.000
G1 X-28.395 Y-2.712 Z-1.077 F200.000
G1 X-28.355 Y-2.688 Z-1.082 F200.000
G1 X-28.320 Y-2.657 Z-1.086 F200.000
G1 X-28.292 Y-2.619 Z-1.090 F200.000
G1 X-28.272 Y-2.577 Z-1.094 F200.000
G1 X-28.261 Y-2.532 Z-1.099 F200.000
G1 X-28.258 Y-2.485 Z-1.103 F200.000
G1 X-28.265 Y-2.439 Z-1.107 F200.000
G1 X-28.281 Y-2.395 Z-1.111 F200.000
G1 X-28.304 Y-2.355 Z-1.116 F200.000
G1 X-28.336 Y-2.320 Z-1.120 F200.000
G1 X-28.373 Y-2.292 Z-1.124 F200.000
G1 X-28.415 Y-2.272 Z-1.129 F200.000
G1 X-28.460 Y-2.261 Z-1.133 F200.000
G1 X-28.507 Y-2.258 Z-1.137 F200.000
G1 X-28.553 Y-2.265 Z-1.141 F200.000
G1 X-28.597 Y-2.281 Z-1.146 F200.000
G1 X-28.637 Y-2.304 Z-1.150 F200.000
G1 X-28.672 Y-2.336 Z-1.154 F200.000
G1 X-28.700 Y-2.373 Z-1.158 F200.000
G1 X-28.720 Y-2.415 Z-1.163 F200.000
G1 X-28.732 Y-2.460 Z-1.167 F200.000
G1 X-28.734 Y-2.507 Z-1.171 F200.000
G1 X-28.727 Y-2.553 Z-1.175 F200.000
G1 X-28.712 Y-2.597 Z-1.180 F200.000
G1 X-28.688 Y-2.637 Z-1.184 F200.000
G1 X-28.657 Y-2.672 Z-1.188 F200.000
G1 X-28.619 Y-2.700 Z-1.192 F200.000
G1 X-28.577 Y-2.720 Z-1.197 F200.000
G1 X-28.532 Y-2.732 Z-1.200 F400.000
G1 X-28.485 Y-2.734 Z-1.200 F400.000
G1 X-28.439 Y-2.727 Z-1.200 F400.000
G1 X-28.395 Y-2.712 Z-1.200 F400.000
G1 X-28.355 Y-2.688 Z-1.200 F400.000
G1 X-28.320 Y-2.657 Z-1.200 F400.000
G1 X-28.292 Y-2.619 Z-1.200 F400.000
G1 X-28.272 Y-2.577 Z-1.200 F400.000
G1 X-28.261 Y-2.532 Z-1.200 F400.000
G1 X-28.258 Y-2.485 Z-1.200 F400.000
G1 X-28.265 Y-2.439 Z-1.200 F400.000
G1 X-28.281 Y-2.395 Z-1.200 F400.000
G1 X-28.304 Y-2.355 Z-1.200 F400.000
G1 X-28.336 Y-2.320 Z-1.200 F400.000
G1 X-28.373 Y-2.292 Z-1.200 F400.000
G1 X-28.415 Y-2.272 Z-1.200 F400.000
G1 X-28.460 Y-2.261 Z-1.200 F400.000
G1 X-28.507 Y-2.258 Z-1.200 F400.000
G1 X-28.553 Y-2.265 Z-1.200 F400.000
G1 X-28.597 Y-2.281 Z-1.200 F400.000
G1 X-28.637 Y-2.304 Z-1.200 F400.000
G1 X-28.672 Y-2.336 Z-1.200 F400.000
G1 X-28.700 Y-2.373 Z-1.200 F400.000
G1 X-28.720 Y-2.415 Z-1.200 F400.000
G1 X-28.732 Y-2.460 Z-1.200 F400.000
G1 X-28.734 Y-2.507 Z-1.200 F400.000
G1 X-28.727 Y-2.553 Z-1.200 F400.000
G1 X-28.712 Y-2.597 Z-1.200 F400.000
G1 X-28.688 Y-2.637 Z-1.200 F400.000
G1 X-28.657 Y-2.672 Z-1.200 F400.000
G1 X-28.619 Y-2.700 Z-1.200 F400.000
G1 X-28.577 Y-2.720 Z-1.200 F400.000
(Adaptive - depth: -1.200000)
G1 X-28.496 Y-2.744 F400.000
G1 X-28.440 Y-2.771 F400.000
G1 X-28.380 Y-2.771 F400.000
G1 X-28.320 Y-2.752 F400.000
G1 X-28.267 Y-2.722 F400.000
G1 X-28.222 Y-2.680 F400.000
G1 X-28.162 Y-2.571 F400.000
G1 X-28.147 Y-2.511 F400.000
G1 X-28.143 Y-2.451 F400.000
G1 X-28.150 Y-2.391 F400.000
G1 X-28.233 Y-2.241 F400.000
G1 X-28.316 Y-2.173 F400.000
G1 X-28.391 Y-2.139 F400.000
G1 X-28.481 Y-2.120 F400.000
G1 X-28.590 Y-2.132 F400.000
G1 X-28.692 Y-2.173 F400.000
G1 X-28.771 Y-2.241 F400.000
G1 X-28.823 Y-2.320 F400.000
G1 X-28.857 Y-2.417 F400.000
G1 X-28.861 Y-2.523 F400.000
G1 X-28.850 Y-2.579 F400.000
G1 X-28.797 Y-2.684 F400.000
G1 X-28.718 Y-2.771 F400.000
G1 X-28.617 Y-2.838 F400.000
G1 X-28.500 Y-2.876 F400.000
G1 X-28.440 Y-2.883 F400.000
G1 X-28.320 Y-2.868 F400.000
G1 X-28.203 Y-2.816 F400.000
G1 X-28.105 Y-2.733 F400.000
G1 X-28.038 Y-2.624 F400.000
G1 X-28.019 Y-2.564 F400.000
G1 X-28.008 Y-2.376 F400.000
G1 X-28.038 Y-2.259 F400.000
G1 X-28.098 Y-2.150 F400.000
G1 X-28.177 Y-2.064 F400.000
G1 X-28.278 Y-1.996 F400.000
G1 X-28.391 Y-1.955 F400.000
G1 X-28.560 Y-1.940 F400.000
G1 X-28.673 Y-1.962 F400.000
G1 X-28.774 Y-2.011 F400.000
G1 X-28.865 Y-2.083 F400.000
G1 X-28.966 Y-2.222 F400.000
G1 X-29.015 Y-2.387 F400.000
G1 X-29.008 Y-2.556 F400.000
G1 X-28.970 Y-2.669 F400.000
G1 X-28.914 Y-2.771 F400.000
G1 X-28.835 Y-2.861 F400.000
G1 X-28.688 Y-2.962 F400.000
G1 X-28.575 Y-3.004 F400.000
G1 X-28.395 Y-3.026 F400.000
G1 X-28.274 Y-3.011 F400.000
G1 X-28.158 Y-2.966 F400.000
G1 X-28.053 Y-2.898 F400.000
G1 X-27.966 Y-2.812 F400.000
G1 X-27.895 Y-2.711 F400.000
G1 X-27.846 Y-2.594 F400.000
G1 X-27.820 Y-2.414 F400.000
G1 X-27.838 Y-2.233 F400.000
G1 X-27.906 Y-2.064 F400.000
G1 X-28.019 Y-1.917 F400.000
G1 X-28.162 Y-1.805 F400.000
G1 X-28.267 Y-1.752 F400.000
G1 X-28.380 Y-1.718 F400.000
G1 X-28.549 Y-1.707 F400.000
G1 X-28.718 Y-1.737 F400.000
G1 X-28.921 Y-1.842 F400.000
G1 X-29.045 Y-1.959 F400.000
G1 X-29.139 Y-2.102 F400.000
G1 X-29.195 Y-2.263 F400.000
G1 X-29.218 Y-2.432 F400.000
G1 X-29.195 Y-2.602 F400.000
G1 X-29.158 Y-2.714 F400.000
G1 X-29.068 Y-2.868 F400.000
G1 X-28.944 Y-3.000 F400.000
G1 X-28.797 Y-3.102 F400.000
G1 X-28.632 Y-3.169 F400.000
G1 X-28.451 Y-3.203 F400.000
G1 X-28.271 Y-3.195 F400.000
G1 X-28.090 Y-3.143 F400.000
G1 X-27.981 Y-3.086 F400.000
G1 X-27.835 Y-2.962 F400.000
G1 X-27.692 Y-2.756 F400.000
G1 X-27.624 Y-2.579 F400.000
G1 X-27.598 Y-2.459 F400.000
G1 X-27.598 Y-2.278 F400.000
G1 X-27.635 Y-2.098 F400.000
G1 X-27.680 Y-1.985 F400.000
G1 X-27.831 Y-1.793 F400.000
G1 X-28.079 Y-1.628 F400.000
G1 X-28.244 Y-1.560 F400.000
G1 X-28.526 Y-1.534 F400.000
G1 X-28.752 Y-1.560 F400.000
G1 X-28.966 Y-1.650 F400.000
G1 X-29.195 Y-1.827 F400.000
G1 X-29.365 Y-2.060 F400.000
G1 X-29.425 Y-2.222 F400.000
G1 X-29.451 Y-2.391 F400.000
G1 X-29.447 Y-2.560 F400.000
G1 X-29.398 Y-2.729 F400.000
G1 X-29.323 Y-2.887 F400.000
G1 X-29.132 Y-3.117 F400.000
G1 X-28.940 Y-3.263 F400.000
G1 X-28.774 Y-3.342 F400.000
G1 X-28.538 Y-3.402 F400.000
G1 X-28.357 Y-3.414 F400.000
G1 X-28.237 Y-3.402 F400.000
G1 X-28.060 Y-3.346 F400.000
G1 X-27.846 Y-3.214 F400.000
G1 X-27.801 Y-3.173 F400.000
G1 X-27.650 Y-2.962 F400.000
G1 X-27.598 Y-2.850 F400.000
G1 X-27.545 Y-2.669 F400.000
G1 X-27.534 Y-2.429 F400.000
G1 X-27.560 Y-2.248 F400.000
G1 X-27.560 Y-2.248 F400.000
G1 X-27.617 Y-2.135 F400.000
G1 X-27.684 Y-2.075 F400.000
G0 X-27.711 Y-2.068
G0 X-27.868 Y-2.083
G0 X-29.207 Y-2.387
G1 X-29.241 Y-2.395 F400.000
G1 X-29.357 Y-2.432 F400.000
G1 X-29.398 Y-2.470 F400.000
G1 X-29.436 Y-2.553 F400.000
G1 X-29.447 Y-2.680 F400.000
G1 X-29.447 Y-2.680 F400.000
G1 X-29.440 Y-2.737 F400.000
G1 X-29.380 Y-2.906 F400.000
G1 X-29.169 Y-3.199 F400.000
G1 X-28.974 Y-3.342 F400.000
G1 X-28.752 Y-3.436 F400.000
G1 X-28.511 Y-3.470 F400.000
G1 X-28.271 Y-3.444 F400.000
G1 X-28.150 Y-3.406 F400.000
G1 X-28.150 Y-3.406 F400.000
G1 X-28.135 Y-3.391 F400.000
G0 X-28.128 Y-3.376
G0 X-28.135 Y-3.365
G1 X-28.147 Y-3.357 F400.000
G1 X-28.162 Y-3.376 F400.000
G1 X-28.150 Y-3.402 F400.000
G1 X-28.120 Y-3.421 F400.000
G1 X-28.120 Y-3.421 F400.000
G1 X-28.019 Y-3.368 F400.000
G1 X-27.820 Y-3.226 F400.000
G1 X-27.759 Y-3.162 F400.000
G1 X-27.635 Y-2.992 F400.000
G1 X-27.602 Y-2.929 F400.000
G1 X-27.519 Y-2.677 F400.000
G1 X-27.508 Y-2.538 F400.000
G1 X-27.515 Y-2.357 F400.000
G1 X-27.534 Y-2.252 F400.000
G1 X-27.560 Y-2.162 F400.000
G1 X-27.620 Y-2.026 F400.000
G1 X-27.767 Y-1.827 F400.000
G1 X-27.835 Y-1.759 F400.000
G1 X-27.996 Y-1.639 F400.000
G1 X-28.128 Y-1.571 F400.000
G1 X-28.207 Y-1.545 F400.000
G1 X-28.353 Y-1.515 F400.000
G1 X-28.489 Y-1.504 F400.000
G1 X-28.729 Y-1.526 F400.000
G1 X-28.861 Y-1.571 F400.000
G1 X-28.996 Y-1.635 F400.000
G1 X-29.188 Y-1.782 F400.000
G1 X-29.308 Y-1.921 F400.000
G1 X-29.383 Y-2.041 F400.000
G1 X-29.462 Y-2.252 F400.000
G1 X-29.496 Y-2.481 F400.000
G1 X-29.470 Y-2.703 F400.000
G1 X-29.395 Y-2.932 F400.000
G1 X-29.368 Y-2.981 F400.000
G1 X-29.241 Y-3.162 F400.000
G1 X-29.135 Y-3.263 F400.000
G1 X-29.023 Y-3.342 F400.000
G1 X-28.831 Y-3.436 F400.000
G1 X-28.726 Y-3.470 F400.000
G1 X-28.560 Y-3.492 F400.000
G1 X-28.436 Y-3.492 F400.000
G1 X-28.293 Y-3.470 F400.000
G1 X-28.120 Y-3.421 F400.000
G1 X-28.120 Y-3.421 F400.000
G0 Z10.000
(Helix to depth: -1.200000)
G0 Z10.000
G0 X28.395 Y-2.281 Z10.000
G0 X28.395 Y-2.281 Z3.000
G1 X28.395 Y-2.281 Z-0.600 F200.000
G1 X28.395 Y-2.281 Z-0.600 F200.000
G1 X28.355 Y-2.304 Z-0.604 F200.000
G1 X28.320 Y-2.336 Z-0.609 F200.000
G1 X28.292 Y-2.373 Z-0.613 F200.000
G1 X28.272 Y-2.415 Z-0.617 F200.000
G1 X28.261 Y-2.460 Z-0.621 F200.000
G1 X28.258 Y-2.507 Z-0.626 F200.000
G1 X28.265 Y-2.553 Z-0.630 F200.000
G1 X28.281 Y-2.597 Z-0.634 F200.000
G1 X28.304 Y-2.637 Z-0.638 F200.000
G1 X28.336 Y-2.672 Z-0.643 F200.000
G1 X28.373 Y-2.700 Z-0.647 F200.000
G1 X28.415 Y-2.720 Z-0.651 F200.000
G1 X28.460 Y-2.732 Z-0.655 F200.000
G1 X28.507 Y-2.734 Z-0.660 F200.000
G1 X28.553 Y-2.727 Z-0.664 F200.000
G1 X28.597 Y-2.712 Z-0.668 F200.000
G1 X28.637 Y-2.688 Z-0.672 F200.000
G1 X28.672 Y-2.657 Z-0.677 F200.000
G1 X28.700 Y-2.619 Z-0.681 F200.000
G1 X28.720 Y-2.577 Z-0.685 F200.000
G1 X28.732 Y-2.532 Z-0.690 F200.000
G1 X28.734 Y-2.485 Z-0.694 F200.000
G1 X28.727 Y-2.439 Z-0.698 F200.000
G1 X28.712 Y-2.395 Z-0.702 F200.000
G1 X28.688 Y-2.355 Z-0.707 F200.000
G1 X28.657 Y-2.320 Z-0.711 F200.000
G1 X28.619 Y-2.292 Z-0.715 F200.000
G1 X28.577 Y-2.272 Z-0.719 F200.000
G1 X28.532 Y-2.261 Z-0.724 F200.000
G1 X28.485 Y-2.258 Z-0.728 F200.000
G1 X28.439 Y-2.265 Z-0.732 F200.000
G1 X28.395 Y-2.281 Z-0.736 F200.000
G1 X28.355 Y-2.304 Z-0.741 F200.000
G1 X28.320 Y-2.336 Z-0.745 F200.000
G1 X28.292 Y-2.373 Z-0.749 F200.000
G1 X28.272 Y-2.415 Z-0.753 F200.000
G1 X28.261 Y-2.460 Z-0.758 F200.000
G1 X28.258 Y-2.507 Z-0.762 F200.000
G1 X28.265 Y-2.553 Z-0.766 F200.000
G1 X28.281 Y-2.597 Z-0.770 F200.000
G1 X28.304 Y-2.637 Z-0.775 F200.000
G1 X28.336 Y-2.672 Z-0.779 F200.000
G1 X28.373 Y-2.700 Z-0.783 F200.000
G1 X28.415 Y-2.720 Z-0.788 F200.000
G1 X28.460 Y-2.732 Z-0.792 F200.000
G1 X28.507 Y-2.734 Z-0.796 F200.000
G1 X28.553 Y-2.727 Z-0.800 F200.000
G1 X28.597 Y-2.712 Z-0.805 F200.000
G1 X28.637 Y-2.688 Z-0.809 F200.000
G1 X28.672 Y-2.657 Z-0.813 F200.000
G1 X28.700 Y-2.619 Z-0.817 F200.000
G1 X28.720 Y-2.577 Z-0.822 F200.000
G1 X28.732 Y-2.532 Z-0.826 F200.000
G1 X28.734 Y-2.485 Z-0.830 F200.000
G1 X28.727 Y-2.439 Z-0.834 F200.000
G1 X28.712 Y-2.395 Z-0.839 F200.000
G1 X28.688 Y-2.355 Z-0.843 F200.000
G1 X28.657 Y-2.320 Z-0.847 F200.000
G1 X28.619 Y-2.292 Z-0.851 F200.000
G1 X28.577 Y-2.272 Z-0.856 F200.000
G1 X28.532 Y-2.261 Z-0.860 F200.000
G1 X28.485 Y-2.258 Z-0.864 F200.000
G1 X28.439 Y-2.265 Z-0.869 F200.000
G1 X28.395 Y-2.281 Z-0.873 F200.000
G1 X28.355 Y-2.304 Z-0.877 F200.000
G1 X28.320 Y-2.336 Z-0.881 F200.000
G1 X28.292 Y-2.373 Z-0.886 F200.000
G1 X28.272 Y-2.415 Z-0.890 F200.000
G1 X28.261 Y-2.460 Z-0.894 F200.000
G1 X28.258 Y-2.507 Z-0.898 F200.000
G1 X28.265 Y-2.553 Z-0.903 F200.000
G1 X28.281 Y-2.597 Z-0.907 F200.000
G1 X28.304 Y-2.637 Z-0.911 F200.000
G1 X28.336 Y-2.672 Z-0.915 F200.000
G1 X28.373 Y-2.700 Z-0.920 F200.000
G1 X28.415 Y-2.720 Z-0.924 F200.000
G1 X28.460 Y-2.732 Z-0.928 F200.000
G1 X28.507 Y-2.734 Z-0.932 F200.000
G1 X28.553 Y-2.727 Z-0.937 F200.000
G1 X28.597 Y-2.712 Z-0.941 F200.000
G1 X28.637 Y-2.688 Z-0.945 F200.000
G1 X28.672 Y-2.657 Z-0.950 F200.000
G1 X28.700 Y-2.619 Z-0.954 F200.000
G1 X28.720 Y-2.577 Z-0.958 F200.000
G1 X28.732 Y-2.532 Z-0.962 F200.000
G1 X28.734 Y-2.485 Z-0.967 F200.000
G1 X28.727 Y-2.439 Z-0.971 F200.000
G1 X28.712 Y-2.395 Z-0.975 F200.000
G1 X28.688 Y-2.355 Z-0.979 F200.000
G1 X28.657 Y-2.320 Z-0.984 F200.000
G1 X28.619 Y-2.292 Z-0.988 F200.000
G1 X28.577 Y-2.272 Z-0.992 F200.000
G1 X28.532 Y-2.261 Z-0.996 F200.000
G1 X28.485 Y-2.258 Z-1.001 F200.000
G1 X28.439 Y-2.265 Z-1.005 F200.000
G1 X28.395 Y-2.281 Z-1.009 F200.000
G1 X28.355 Y-2.304 Z-1.013 F200.000
G1 X28.320 Y-2.336 Z-1.018 F200.000
G1 X28.292 Y-2.373 Z-1.022 F200.000
G1 X28.272 Y-2.415 Z-1.026 F200.000
G1 X28.261 Y-2.460 Z-1.030 F200.000
G1 X28.258 Y-2.507 Z-1.035 F200.000
G1 X28.265 Y-2.553 Z-1.039 F200.000
G1 X28.281 Y-2.597 Z-1.043 F200.000
G1 X28.304 Y-2.637 Z-1.048 F200.000
G1 X28.336 Y-2.672 Z-1.052 F200.000
G1 X28.373 Y-2.700 Z-1.056 F200.000
G1 X28.415 Y-2.720 Z-1.060 F200.000
G1 X28.460 Y-2.732 Z-1.065 F200.000
G1 X28.507 Y-2.734 Z-1.069 F200.000
G1 X28.553 Y-2.727 Z-1.073 F200.000
G1 X28.597 Y-2.712 Z-1.077 F200.000
G1 X28.637 Y-2.688 Z-1.082 F200.000
G1 X28.672 Y-2.657 Z-1.086 F200.000
G1 X28.700 Y-2.619 Z-1.090 F200.000
G1 X28.720 Y-2.577 Z-1.094 F200.000
G1 X28.732 Y-2.532 Z-1.099 F200.000
G1 X28.734 Y-2.485 Z-1.103 F200.000
G1 X28.727 Y-2.439 Z-1.107 F200.000
G1 X28.712 Y-2.395 Z-1.111 F200.000
G1 X28.688 Y-2.355 Z-1.116 F200.000
G1 X28.657 Y-2.320 Z-1.120 F200.000
G1 X28.619 Y-2.292 Z-1.124 F200.000
G1 X28.577 Y-2.272 Z-1.129 F200.000
G1 X28.532 Y-2.261 Z-1.133 F200.000
G1 X28.485 Y-2.258 Z-1.137 F200.000
G1 X28.439 Y-2.265 Z-1.141 F200.000
G1 X28.395 Y-2.281 Z-1.146 F200.000
G1 X28.355 Y-2.304 Z-1.150 F200.000
G1 X28.320 Y-2.336 Z-1.154 F200.000
G1 X28.292 Y-2.373 Z-1.158 F200.000
G1 X28.272 Y-2.415 Z-1.163 F200.000
G1 X28.261 Y-2.460 Z-1.167 F200.000
G1 X28.258 Y-2.507 Z-1.171 F200.000
G1 X28.265 Y-2.553 Z-1.175 F200.000
G1 X28.281 Y-2.597 Z-1.180 F200.000
G1 X28.304 Y-2.637 Z-1.184 F200.000
G1 X28.336 Y-2.672 Z-1.188 F200.000
G1 X28.373 Y-2.700 Z-1.192 F200.000
G1 X28.415 Y-2.720 Z-1.197 F200.000
G1 X28.460 Y-2.732 Z-1.200 F400.000
G1 X28.507 Y-2.734 Z-1.200 F400.000
G1 X28.553 Y-2.727 Z-1.200 F400.000
G1 X28.597 Y-2.712 Z-1.200 F400.000
G1 X28.637 Y-2.688 Z-1.200 F400.000
G1 X28.672 Y-2.657 Z-1.200 F400.000
G1 X28.700 Y-2.619 Z-1.200 F400.000
G1 X28.720 Y-2.577 Z-1.200 F400.000
G1 X28.732 Y-2.532 Z-1.200 F400.000
G1 X28.734 Y-2.485 Z-1.200 F400.000
G1 X28.727 Y-2.439 Z-1.200 F400.000
G1 X28.712 Y-2.395 Z-1.200 F400.000
G1 X28.688 Y-2.355 Z-1.200 F400.000
G1 X28.657 Y-2.320 Z-1.200 F400.000
G1 X28.619 Y-2.292 Z-1.200 F400.000
G1 X28.577 Y-2.272 Z-1.200 F400.000
G1 X28.532 Y-2.261 Z-1.200 F400.000
G1 X28.485 Y-2.258 Z-1.200 F400.000
G1 X28.439 Y-2.265 Z-1.200 F400.000
G1 X28.395 Y-2.281 Z-1.200 F400.000
G1 X28.355 Y-2.304 Z-1.200 F400.000
G1 X28.320 Y-2.336 Z-1.200 F400.000
G1 X28.292 Y-2.373 Z-1.200 F400.000
G1 X28.272 Y-2.415 Z-1.200 F400.000
G1 X28.261 Y-2.460 Z-1.200 F400.000
G1 X28.258 Y-2.507 Z-1.200 F400.000
G1 X28.265 Y-2.553 Z-1.200 F400.000
G1 X28.281 Y-2.597 Z-1.200 F400.000
G1 X28.304 Y-2.637 Z-1.200 F400.000
G1 X28.336 Y-2.672 Z-1.200 F400.000
G1 X28.373 Y-2.700 Z-1.200 F400.000
G1 X28.415 Y-2.720 Z-1.200 F400.000
(Adaptive - depth: -1.200000)
G1 X28.496 Y-2.744 F400.000
G1 X28.549 Y-2.771 F400.000
G1 X28.605 Y-2.771 F400.000
G1 X28.662 Y-2.752 F400.000
G1 X28.714 Y-2.722 F400.000
G1 X28.759 Y-2.680 F400.000
G1 X28.793 Y-2.628 F400.000
G1 X28.816 Y-2.571 F400.000
G1 X28.827 Y-2.511 F400.000
G1 X28.827 Y-2.451 F400.000
G1 X28.816 Y-2.391 F400.000
G1 X28.793 Y-2.335 F400.000
G1 X28.695 Y-2.207 F400.000
G1 X28.583 Y-2.150 F400.000
G1 X28.500 Y-2.135 F400.000
G1 X28.417 Y-2.139 F400.000
G1 X28.320 Y-2.173 F400.000
G1 X28.229 Y-2.237 F400.000
G1 X28.165 Y-2.320 F400.000
G1 X28.128 Y-2.417 F400.000
G1 X28.124 Y-2.571 F400.000
G1 X28.139 Y-2.628 F400.000
G1 X28.199 Y-2.729 F400.000
G1 X28.237 Y-2.774 F400.000
G1 X28.331 Y-2.846 F400.000
G1 X28.436 Y-2.891 F400.000
G1 X28.549 Y-2.906 F400.000
G1 X28.662 Y-2.883 F400.000
G1 X28.771 Y-2.831 F400.000
G1 X28.857 Y-2.748 F400.000
G1 X28.917 Y-2.639 F400.000
G1 X28.940 Y-2.519 F400.000
G1 X28.925 Y-2.316 F400.000
G1 X28.853 Y-2.180 F400.000
G1 X28.786 Y-2.109 F400.000
G1 X28.684 Y-2.038 F400.000
G1 X28.508 Y-1.989 F400.000
G1 X28.387 Y-1.989 F400.000
G1 X28.267 Y-2.019 F400.000
G1 X28.158 Y-2.079 F400.000
G1 X28.071 Y-2.158 F400.000
G1 X28.004 Y-2.256 F400.000
G1 X27.959 Y-2.365 F400.000
G1 X27.940 Y-2.477 F400.000
G1 X27.944 Y-2.590 F400.000
G1 X27.974 Y-2.703 F400.000
G1 X28.023 Y-2.805 F400.000
G1 X28.135 Y-2.936 F400.000
G1 X28.229 Y-3.004 F400.000
G1 X28.335 Y-3.049 F400.000
G1 X28.447 Y-3.075 F400.000
G1 X28.617 Y-3.068 F400.000
G1 X28.729 Y-3.038 F400.000
G1 X28.835 Y-2.981 F400.000
G1 X28.929 Y-2.902 F400.000
G1 X29.000 Y-2.808 F400.000
G1 X29.053 Y-2.699 F400.000
G1 X29.086 Y-2.579 F400.000
G1 X29.098 Y-2.459 F400.000
G1 X29.086 Y-2.338 F400.000
G1 X29.049 Y-2.218 F400.000
G1 X28.992 Y-2.109 F400.000
G1 X28.868 Y-1.966 F400.000
G1 X28.711 Y-1.865 F400.000
G1 X28.534 Y-1.805 F400.000
G1 X28.414 Y-1.793 F400.000
G1 X28.293 Y-1.805 F400.000
G1 X28.173 Y-1.838 F400.000
G1 X28.015 Y-1.929 F400.000
G1 X27.921 Y-2.008 F400.000
G1 X27.808 Y-2.150 F400.000
G1 X27.741 Y-2.316 F400.000
G1 X27.707 Y-2.485 F400.000
G1 X27.718 Y-2.654 F400.000
G1 X27.763 Y-2.823 F400.000
G1 X27.850 Y-2.974 F400.000
G1 X28.015 Y-3.135 F400.000
G1 X28.165 Y-3.226 F400.000
G1 X28.335 Y-3.274 F400.000
G1 X28.504 Y-3.286 F400.000
G1 X28.673 Y-3.263 F400.000
G1 X28.786 Y-3.226 F400.000
G1 X28.940 Y-3.139 F400.000
G1 X29.075 Y-3.019 F400.000
G1 X29.177 Y-2.872 F400.000
G1 X29.244 Y-2.699 F400.000
G1 X29.278 Y-2.519 F400.000
G1 X29.274 Y-2.338 F400.000
G1 X29.229 Y-2.158 F400.000
G1 X29.150 Y-1.992 F400.000
G1 X29.038 Y-1.842 F400.000
G1 X28.895 Y-1.718 F400.000
G1 X28.729 Y-1.628 F400.000
G1 X28.549 Y-1.575 F400.000
G1 X28.368 Y-1.560 F400.000
G1 X28.248 Y-1.571 F400.000
G1 X28.128 Y-1.605 F400.000
G1 X28.015 Y-1.654 F400.000
G1 X27.823 Y-1.805 F400.000
G1 X27.643 Y-2.041 F400.000
G1 X27.556 Y-2.259 F400.000
G1 X27.534 Y-2.429 F400.000
G1 X27.541 Y-2.654 F400.000
G1 X27.605 Y-2.880 F400.000
G1 X27.658 Y-2.985 F400.000
G1 X27.838 Y-3.207 F400.000
G1 X28.023 Y-3.342 F400.000
G1 X28.180 Y-3.417 F400.000
G1 X28.350 Y-3.455 F400.000
G1 X28.519 Y-3.470 F400.000
G1 X28.744 Y-3.440 F400.000
G1 X28.857 Y-3.402 F400.000
G1 X28.962 Y-3.350 F400.000
G1 X29.199 Y-3.169 F400.000
G1 X29.365 Y-2.917 F400.000
G1 X29.459 Y-2.624 F400.000
G1 X29.470 Y-2.504 F400.000
G1 X29.440 Y-2.263 F400.000
G1 X29.402 Y-2.143 F400.000
G1 X29.312 Y-1.977 F400.000
G1 X29.199 Y-1.827 F400.000
G1 X28.947 Y-1.639 F400.000
G1 X28.835 Y-1.586 F400.000
G1 X28.714 Y-1.549 F400.000
G1 X28.714 Y-1.549 F400.000
G1 X28.695 Y-1.553 F400.000
G0 X28.684 Y-1.568
G1 X28.684 Y-1.575 F400.000
G1 X28.688 Y-1.575 F400.000
G1 X28.692 Y-1.575 F400.000
G1 X28.695 Y-1.556 F400.000
G1 X28.662 Y-1.515 F400.000
G1 X28.662 Y-1.515 F400.000
G1 X28.523 Y-1.508 F400.000
G1 X28.335 Y-1.515 F400.000
G1 X28.244 Y-1.534 F400.000
G1 X28.135 Y-1.571 F400.000
G1 X28.000 Y-1.635 F400.000
G1 X27.808 Y-1.782 F400.000
G1 X27.688 Y-1.921 F400.000
G1 X27.609 Y-2.053 F400.000
G1 X27.530 Y-2.267 F400.000
G1 X27.511 Y-2.395 F400.000
G1 X27.508 Y-2.583 F400.000
G1 X27.523 Y-2.695 F400.000
G1 X27.602 Y-2.932 F400.000
G1 X27.628 Y-2.981 F400.000
G1 X27.756 Y-3.162 F400.000
G1 X27.861 Y-3.263 F400.000
G1 X27.974 Y-3.342 F400.000
G1 X28.165 Y-3.436 F400.000
G1 X28.271 Y-3.470 F400.000
G1 X28.436 Y-3.492 F400.000
G1 X28.560 Y-3.492 F400.000
G1 X28.703 Y-3.470 F400.000
G1 X28.876 Y-3.421 F400.000
G1 X28.977 Y-3.368 F400.000
G1 X29.177 Y-3.226 F400.000
G1 X29.237 Y-3.162 F400.000
G1 X29.361 Y-2.992 F400.000
G1 X29.395 Y-2.929 F400.000
G1 X29.492 Y-2.613 F400.000
G1 X29.492 Y-2.447 F400.000
G1 X29.466 Y-2.267 F400.000
G1 X29.436 Y-2.162 F400.000
G1 X29.376 Y-2.026 F400.000
G1 X29.229 Y-1.827 F400.000
G1 X29.162 Y-1.759 F400.000
G1 X29.000 Y-1.639 F400.000
G1 X28.868 Y-1.571 F400.000
G1 X28.662 Y-1.515 F400.000
G1 X28.662 Y-1.515 F400.000
G0 Z10.000
(Helix to depth: -1.500000)
G0 Z10.000
G0 X-28.733 Y-2.525 Z10.000
G0 X-28.733 Y-2.525 Z3.000
G1 X-28.733 Y-2.525 Z-1.200 F200.000
G1 X-28.733 Y-2.525 Z-1.200 F200.000
G1 X-28.722 Y-2.571 Z-1.204 F200.000
G1 X-28.704 Y-2.613 Z-1.209 F200.000
G1 X-28.677 Y-2.651 Z-1.213 F200.000
G1 X-28.643 Y-2.684 Z-1.217 F200.000
G1 X-28.604 Y-2.709 Z-1.221 F200.000
G1 X-28.560 Y-2.726 Z-1.226 F200.000
G1 X-28.514 Y-2.734 Z-1.230 F200.000
G1 X-28.468 Y-2.733 Z-1.234 F200.000
G1 X-28.422 Y-2.722 Z-1.238 F200.000
G1 X-28.379 Y-2.704 Z-1.243 F200.000
G1 X-28.341 Y-2.677 Z-1.247 F200.000
G1 X-28.309 Y-2.643 Z-1.251 F200.000
G1 X-28.284 Y-2.604 Z-1.255 F200.000
G1 X-28.267 Y-2.560 Z-1.260 F200.000
G1 X-28.259 Y-2.514 Z-1.264 F200.000
G1 X-28.260 Y-2.468 Z-1.268 F200.000
G1 X-28.270 Y-2.422 Z-1.272 F200.000
G1 X-28.289 Y-2.379 Z-1.277 F200.000
G1 X-28.316 Y-2.341 Z-1.281 F200.000
G1 X-28.349 Y-2.309 Z-1.285 F200.000
G1 X-28.389 Y-2.284 Z-1.290 F200.000
G1 X-28.432 Y-2.267 Z-1.294 F200.000
G1 X-28.478 Y-2.259 Z-1.298 F200.000
G1 X-28.525 Y-2.260 Z-1.302 F200.000
G1 X-28.571 Y-2.270 Z-1.307 F200.000
G1 X-28.613 Y-2.289 Z-1.311 F200.000
G1 X-28.651 Y-2.316 Z-1.315 F200.000
G1 X-28.684 Y-2.349 Z-1.319 F200.000
G1 X-28.709 Y-2.389 Z-1.324 F200.000
G1 X-28.726 Y-2.432 Z-1.328 F200.000
G1 X-28.734 Y-2.478 Z-1.332 F200.000
G1 X-28.733 Y-2.525 Z-1.336 F200.000
G1 X-28.722 Y-2.571 Z-1.341 F200.000
G1 X-28.704 Y-2.613 Z-1.345 F200.000
G1 X-28.677 Y-2.651 Z-1.349 F200.000
G1 X-28.643 Y-2.684 Z-1.353 F200.000
G1 X-28.604 Y-2.709 Z-1.358 F200.000
G1 X-28.560 Y-2.726 Z-1.362 F200.000
G1 X-28.514 Y-2.734 Z-1.366 F200.000
G1 X-28.468 Y-2.733 Z-1.370 F200.000
G1 X-28.422 Y-2.722 Z-1.375 F200.000
G1 X-28.379 Y-2.704 Z-1.379 F200.000
G1 X-28.341 Y-2.677 Z-1.383 F200.000
G1 X-28.309 Y-2.643 Z-1.388 F200.000
G1 X-28.284 Y-2.604 Z-1.392 F200.000
G1 X-28.267 Y-2.560 Z-1.396 F200.000
G1 X-28.259 Y-2.514 Z-1.400 F200.000
G1 X-28.260 Y-2.468 Z-1.405 F200.000
G1 X-28.270 Y-2.422 Z-1.409 F200.000
G1 X-28.289 Y-2.379 Z-1.413 F200.000
G1 X-28.316 Y-2.341 Z-1.417 F200.000
G1 X-28.349 Y-2.309 Z-1.422 F200.000
G1 X-28.389 Y-2.284 Z-1.426 F200.000
G1 X-28.432 Y-2.267 Z-1.430 F200.000
G1 X-28.478 Y-2.259 Z-1.434 F200.000
G1 X-28.525 Y-2.260 Z-1.439 F200.000
G1 X-28.571 Y-2.270 Z-1.443 F200.000
G1 X-28.613 Y-2.289 Z-1.447 F200.000
G1 X-28.651 Y-2.316 Z-1.451 F200.000
G1 X-28.684 Y-2.349 Z-1.456 F200.000
G1 X-28.709 Y-2.389 Z-1.460 F200.000
G1 X-28.726 Y-2.432 Z-1.464 F200.000
G1 X-28.734 Y-2.478 Z-1.469 F200.000
G1 X-28.733 Y-2.525 Z-1.473 F200.000
G1 X-28.722 Y-2.571 Z-1.477 F200.000
G1 X-28.704 Y-2.613 Z-1.481 F200.000
G1 X-28.677 Y-2.651 Z-1.486 F200.000
G1 X-28.643 Y-2.684 Z-1.490 F200.000
G1 X-28.604 Y-2.709 Z-1.494 F200.000
G1 X-28.560 Y-2.726 Z-1.498 F200.000
G1 X-28.514 Y-2.734 Z-1.500 F400.000
G1 X-28.468 Y-2.733 Z-1.500 F400.000
G1 X-28.422 Y-2.722 Z-1.500 F400.000
G1 X-28.379 Y-2.704 Z-1.500 F400.000
G1 X-28.341 Y-2.677 Z-1.500 F400.000
G1 X-28.309 Y-2.643 Z-1.500 F400.000
G1 X-28.284 Y-2.604 Z-1.500 F400.000
G1 X-28.267 Y-2.560 Z-1.500 F400.000
G1 X-28.259 Y-2.514 Z-1.500 F400.000
G1 X-28.260 Y-2.468 Z-1.500 F400.000
G1 X-28.270 Y-2.422 Z-1.500 F400.000
G1 X-28.289 Y-2.379 Z-1.500 F400.000
G1 X-28.316 Y-2.341 Z-1.500 F400.000
G1 X-28.349 Y-2.309 Z-1.500 F400.000
G1 X-28.389 Y-2.284 Z-1.500 F400.000
G1 X-28.432 Y-2.267 Z-1.500 F400.000
G1 X-28.478 Y-2.259 Z-1.500 F400.000
G1 X-28.525 Y-2.260 Z-1.500 F400.000
G1 X-28.571 Y-2.270 Z-1.500 F400.000
G1 X-28.613 Y-2.289 Z-1.500 F400.000
G1 X-28.651 Y-2.316 Z-1.500 F400.000
G1 X-28.684 Y-2.349 Z-1.500 F400.000
G1 X-28.709 Y-2.389 Z-1.500 F400.000
G1 X-28.726 Y-2.432 Z-1.500 F400.000
G1 X-28.734 Y-2.478 Z-1.500 F400.000
G1 X-28.733 Y-2.525 Z-1.500 F400.000
G1 X-28.722 Y-2.571 Z-1.500 F400.000
G1 X-28.704 Y-2.613 Z-1.500 F400.000
G1 X-28.677 Y-2.651 Z-1.500 F400.000
G1 X-28.643 Y-2.684 Z-1.500 F400.000
G1 X-28.604 Y-2.709 Z-1.500 F400.000
G1 X-28.560 Y-2.726 Z-1.500 F400.000
(Adaptive - depth: -1.500000)
G1 X-28.496 Y-2.744 F400.000
G1 X-28.440 Y-2.771 F400.000
G1 X-28.380 Y-2.771 F400.000
G1 X-28.320 Y-2.752 F400.000
G1 X-28.267 Y-2.722 F400.000
G1 X-28.222 Y-2.680 F400.000
G1 X-28.162 Y-2.571 F400.000
G1 X-28.147 Y-2.511 F400.000
G1 X-28.143 Y-2.451 F400.000
G1 X-28.150 Y-2.391 F400.000
G1 X-28.233 Y-2.241 F400.000
G1 X-28.316 Y-2.173 F400.000
G1 X-28.391 Y-2.139 F400.000
G1 X-28.481 Y-2.120 F400.000
G1 X-28.590 Y-2.132 F400.000
G1 X-28.692 Y-2.173 F400.000
G1 X-28.771 Y-2.241 F400.000
G1 X-28.823 Y-2.320 F400.000
G1 X-28.857 Y-2.417 F400.000
G1 X-28.861 Y-2.523 F400.000
G1 X-28.850 Y-2.579 F400.000
G1 X-28.797 Y-2.684 F400.000
G1 X-28.718 Y-2.771 F400.000
G1 X-28.617 Y-2.838 F400.000
G1 X-28.500 Y-2.876 F400.000
G1 X-28.440 Y-2.883 F400.000
G1 X-28.320 Y-2.868 F400.000
G1 X-28.203 Y-2.816 F400.000
G1 X-28.105 Y-2.733 F400.000
G1 X-28.038 Y-2.624 F400.000
G1 X-28.019 Y-2.564 F400.000
G1 X-28.008 Y-2.376 F400.000
G1 X-28.038 Y-2.259 F400.000
G1 X-28.098 Y-2.150 F400.000
G1 X-28.177 Y-2.064 F400.000
G1 X-28.278 Y-1.996 F400.000
G1 X-28.391 Y-1.955 F400.000
G1 X-28.560 Y-1.940 F400.000
G1 X-28.673 Y-1.962 F400.000
G1 X-28.774 Y-2.011 F400.000
G1 X-28.865 Y-2.083 F400.000
G1 X-28.966 Y-2.222 F400.000
G1 X-29.015 Y-2.387 F400.000
G1 X-29.008 Y-2.556 F400.000
G1 X-28.970 Y-2.669 F400.000
G1 X-28.914 Y-2.771 F400.000
G1 X-28.835 Y-2.861 F400.000
G1 X-28.688 Y-2.962 F400.000
G1 X-28.575 Y-3.004 F400.000
G1 X-28.395 Y-3.026 F400.000
G1 X-28.274 Y-3.011 F400.000
G1 X-28.158 Y-2.966 F400.000
G1 X-28.053 Y-2.898 F400.000
G1 X-27.966 Y-2.812 F400.000
G1 X-27.895 Y-2.711 F400.000
G1 X-27.846 Y-2.594 F400.000
G1 X-27.820 Y-2.414 F400.000
G1 X-27.838 Y-2.233 F400.000
G1 X-27.906 Y-2.064 F400.000
G1 X-28.019 Y-1.917 F400.000
G1 X-28.162 Y-1.805 F400.000
G1 X-28.267 Y-1.752 F400.000
G1 X-28.380 Y-1.718 F400.000
G1 X-28.549 Y-1.707 F400.000
G1 X-28.718 Y-1.737 F400.000
G1 X-28.921 Y-1.842 F400.000
G1 X-29.045 Y-1.959 F400.000
G1 X-29.139 Y-2.102 F400.000
G1 X-29.195 Y-2.263 F400.000
G1 X-29.218 Y-2.432 F400.000
G1 X-29.195 Y-2.602 F400.000
G1 X-29.158 Y-2.714 F400.000
G1 X-29.068 Y-2.868 F400.000
G1 X-28.944 Y-3.000 F400.000
G1 X-28.797 Y-3.102 F400.000
G1 X-28.632 Y-3.169 F400.000
G1 X-28.451 Y-3.203 F400.000
G1 X-28.271 Y-3.195 F400.000
G1 X-28.090 Y-3.143 F400.000
G1 X-27.981 Y-3.086 F400.000
G1 X-27.835 Y-2.962 F400.000
G1 X-27.692 Y-2.756 F400.000
G1 X-27.624 Y-2.579 F400.000
G1 X-27.598 Y-2.459 F400.000
G1 X-27.598 Y-2.278 F400.000
G1 X-27.635 Y-2.098 F400.000
G1 X-27.680 Y-1.985 F400.000
G1 X-27.831 Y-1.793 F400.000
G1 X-28.079 Y-1.628 F400.000
G1 X-28.244 Y-1.560 F400.000
G1 X-28.526 Y-1.534 F400.000
G1 X-28.752 Y-1.560 F400.000
G1 X-28.966 Y-1.650 F400.000
G1 X-29.195 Y-1.827 F400.000
G1 X-29.365 Y-2.060 F400.000
G1 X-29.425 Y-2.222 F400.000
G1 X-29.451 Y-2.391 F400.000
G1 X-29.447 Y-2.560 F400.000
G1 X-29.398 Y-2.729 F400.000
G1 X-29.323 Y-2.887 F400.000
G1 X-29.132 Y-3.117 F400.000
G1 X-28.940 Y-3.263 F400.000
G1 X-28.774 Y-3.342 F400.000
G1 X-28.538 Y-3.402 F400.000
G1 X-28.357 Y-3.414 F400.000
G1 X-28.237 Y-3.402 F400.000
G1 X-28.060 Y-3.346 F400.000
G1 X-27.846 Y-3.214 F400.000
G1 X-27.801 Y-3.173 F400.000
G1 X-27.650 Y-2.962 F400.000
G1 X-27.598 Y-2.850 F400.000
G1 X-27.545 Y-2.669 F400.000
G1 X-27.534 Y-2.429 F400.000
G1 X-27.560 Y-2.248 F400.000
G1 X-27.560 Y-2.248 F400.000
G1 X-27.617 Y-2.135 F400.000
G1 X-27.684 Y-2.075 F400.000
G0 X-27.711 Y-2.068
G0 X-27.868 Y-2.083
G0 X-29.207 Y-2.387
G1 X-29.241 Y-2.395 F400.000
G1 X-29.357 Y-2.432 F400.000
G1 X-29.398 Y-2.470 F400.000
G1 X-29.436 Y-2.553 F400.000
G1 X-29.447 Y-2.680 F400.000
G1 X-29.447 Y-2.680 F400.000
G1 X-29.440 Y-2.737 F400.000
G1 X-29.380 Y-2.906 F400.000
G1 X-29.169 Y-3.199 F400.000
G1 X-28.974 Y-3.342 F400.000
G1 X-28.752 Y-3.436 F400.000
G1 X-28.511 Y-3.470 F400.000
G1 X-28.271 Y-3.444 F400.000
G1 X-28.150 Y-3.406 F400.000
G1 X-28.150 Y-3.406 F400.000
G1 X-28.135 Y-3.391 F400.000
G0 X-28.128 Y-3.376
G0 X-28.135 Y-3.365
G1 X-28.147 Y-3.357 F400.000
G1 X-28.162 Y-3.376 F400.000
G1 X-28.150 Y-3.402 F400.000
G1 X-28.120 Y-3.421 F400.000
G1 X-28.120 Y-3.421 F400.000
G1 X-28.019 Y-3.368 F400.000
G1 X-27.820 Y-3.226 F400.000
G1 X-27.759 Y-3.162 F400.000
G1 X-27.635 Y-2.992 F400.000
G1 X-27.602 Y-2.929 F400.000
G1 X-27.519 Y-2.677 F400.000
G1 X-27.508 Y-2.538 F400.000
G1 X-27.515 Y-2.357 F400.000
G1 X-27.534 Y-2.252 F400.000
G1 X-27.560 Y-2.162 F400.000
G1 X-27.620 Y-2.026 F400.000
G1 X-27.767 Y-1.827 F400.000
G1 X-27.835 Y-1.759 F400.000
G1 X-27.996 Y-1.639 F400.000
G1 X-28.128 Y-1.571 F400.000
G1 X-28.207 Y-1.545 F400.000
G1 X-28.353 Y-1.515 F400.000
G1 X-28.489 Y-1.504 F400.000
G1 X-28.729 Y-1.526 F400.000
G1 X-28.861 Y-1.571 F400.000
G1 X-28.996 Y-1.635 F400.000
G1 X-29.188 Y-1.782 F400.000
G1 X-29.308 Y-1.921 F400.000
G1 X-29.383 Y-2.041 F400.000
G1 X-29.462 Y-2.252 F400.000
G1 X-29.496 Y-2.481 F400.000
G1 X-29.470 Y-2.703 F400.000
G1 X-29.395 Y-2.932 F400.000
G1 X-29.368 Y-2.981 F400.000
G1 X-29.241 Y-3.162 F400.000
G1 X-29.135 Y-3.263 F400.000
G1 X-29.023 Y-3.342 F400.000
G1 X-28.831 Y-3.436 F400.000
G1 X-28.726 Y-3.470 F400.000
G1 X-28.560 Y-3.492 F400.000
G1 X-28.436 Y-3.492 F400.000
G1 X-28.293 Y-3.470 F400.000
G1 X-28.120 Y-3.421 F400.000
G1 X-28.120 Y-3.421 F400.000
G0 Z10.000
(Helix to depth: -1.500000)
G0 Z10.000
G0 X28.260 Y-2.525 Z10.000
G0 X28.260 Y-2.525 Z3.000
G1 X28.260 Y-2.525 Z-1.200 F200.000
G1 X28.260 Y-2.525 Z-1.200 F200.000
G1 X28.270 Y-2.571 Z-1.204 F200.000
G1 X28.289 Y-2.613 Z-1.209 F200.000
G1 X28.316 Y-2.651 Z-1.213 F200.000
G1 X28.349 Y-2.684 Z-1.217 F200.000
G1 X28.389 Y-2.709 Z-1.221 F200.000
G1 X28.432 Y-2.726 Z-1.226 F200.000
G1 X28.478 Y-2.734 Z-1.230 F200.000
G1 X28.525 Y-2.733 Z-1.234 F200.000
G1 X28.571 Y-2.722 Z-1.238 F200.000
G1 X28.613 Y-2.704 Z-1.243 F200.000
G1 X28.651 Y-2.677 Z-1.247 F200.000
G1 X28.684 Y-2.643 Z-1.251 F200.000
G1 X28.709 Y-2.604 Z-1.255 F200.000
G1 X28.726 Y-2.560 Z-1.260 F200.000
G1 X28.734 Y-2.514 Z-1.264 F200.000
G1 X28.733 Y-2.468 Z-1.268 F200.000
G1 X28.722 Y-2.422 Z-1.272 F200.000
G1 X28.704 Y-2.379 Z-1.277 F200.000
G1 X28.677 Y-2.341 Z-1.281 F200.000
G1 X28.643 Y-2.309 Z-1.285 F200.000
G1 X28.604 Y-2.284 Z-1.290 F200.000
G1 X28.560 Y-2.267 Z-1.294 F200.000
G1 X28.514 Y-2.259 Z-1.298 F200.000
G1 X28.468 Y-2.260 Z-1.302 F200.000
G1 X28.422 Y-2.270 Z-1.307 F200.000
G1 X28.379 Y-2.289 Z-1.311 F200.000
G1 X28.341 Y-2.316 Z-1.315 F200.000
G1 X28.309 Y-2.349 Z-1.319 F200.000
G1 X28.284 Y-2.389 Z-1.324 F200.000
G1 X28.267 Y-2.432 Z-1.328 F200.000
G1 X28.259 Y-2.478 Z-1.332 F200.000
G1 X28.260 Y-2.525 Z-1.336 F200.000
G1 X28.270 Y-2.571 Z-1.341 F200.000
G1 X28.289 Y-2.613 Z-1.345 F200.000
G1 X28.316 Y-2.651 Z-1.349 F200.000
G1 X28.349 Y-2.684 Z-1.353 F200.000
G1 X28.389 Y-2.709 Z-1.358 F200.000
G1 X28.432 Y-2.726 Z-1.362 F200.000
G1 X28.478 Y-2.734 Z-1.366 F200.000
G1 X28.525 Y-2.733 Z-1.370 F200.000
G1 X28.571 Y-2.722 Z-1.375 F200.000
G1 X28.613 Y-2.704 Z-1.379 F200.000
G1 X28.651 Y-2.677 Z-1.383 F200.000
G1 X28.684 Y-2.643 Z-1.388 F200.000
G1 X28.709 Y-2.604 Z-1.392 F200.000
G1 X28.726 Y-2.560 Z-1.396 F200.000
G1 X28.734 Y-2.514 Z-1.400 F200.000
G1 X28.733 Y-2.468 Z-1.405 F200.000
G1 X28.722 Y-2.422 Z-1.409 F200.000
G1 X28.704 Y-2.379 Z-1.413 F200.000
G1 X28.677 Y-2.341 Z-1.417 F200.000
G1 X28.643 Y-2.309 Z-1.422 F200.000
G1 X28.604 Y-2.284 Z-1.426 F200.000
G1 X28.560 Y-2.267 Z-1.430 F200.000
G1 X28.514 Y-2.259 Z-1.434 F200.000
G1 X28.468 Y-2.260 Z-1.439 F200.000
G1 X28.422 Y-2.270 Z-1.443 F200.000
G1 X28.379 Y-2.289 Z-1.447 F200.000
G1 X28.341 Y-2.316 Z-1.451 F200.000
G1 X28.309 Y-2.349 Z-1.456 F200.000
G1 X28.284 Y-2.389 Z-1.460 F200.000
G1 X28.267 Y-2.432 Z-1.464 F200.000
G1 X28.259 Y-2.478 Z-1.469 F200.000
G1 X28.260 Y-2.525 Z-1.473 F200.000
G1 X28.270 Y-2.571 Z-1.477 F200.000
G1 X28.289 Y-2.613 Z-1.481 F200.000
G1 X28.316 Y-2.651 Z-1.486 F200.000
G1 X28.349 Y-2.684 Z-1.490 F200.000
G1 X28.389 Y-2.709 Z-1.494 F200.000
G1 X28.432 Y-2.726 Z-1.498 F200.000
G1 X28.478 Y-2.734 Z-1.500 F400.000
G1 X28.525 Y-2.733 Z-1.500 F400.000
G1 X28.571 Y-2.722 Z-1.500 F400.000
G1 X28.613 Y-2.704 Z-1.500 F400.000
G1 X28.651 Y-2.677 Z-1.500 F400.000
G1 X28.684 Y-2.643 Z-1.500 F400.000
G1 X28.709 Y-2.604 Z-1.500 F400.000
G1 X28.726 Y-2.560 Z-1.500 F400.000
G1 X28.734 Y-2.514 Z-1.500 F400.000
G1 X28.733 Y-2.468 Z-1.500 F400.000
G1 X28.722 Y-2.422 Z-1.500 F400.000
G1 X28.704 Y-2.379 Z-1.500 F400.000
G1 X28.677 Y-2.341 Z-1.500 F400.000
G1 X28.643 Y-2.309 Z-1.500 F400.000
G1 X28.604 Y-2.284 Z-1.500 F400.000
G1 X28.560 Y-2.267 Z-1.500 F400.000
G1 X28.514 Y-2.259 Z-1.500 F400.000
G1 X28.468 Y-2.260 Z-1.500 F400.000
G1 X28.422 Y-2.270 Z-1.500 F400.000
G1 X28.379 Y-2.289 Z-1.500 F400.000
G1 X28.341 Y-2.316 Z-1.500 F400.000
G1 X28.309 Y-2.349 Z-1.500 F400.000
G1 X28.284 Y-2.389 Z-1.500 F400.000
G1 X28.267 Y-2.432 Z-1.500 F400.000
G1 X28.259 Y-2.478 Z-1.500 F400.000
G1 X28.260 Y-2.525 Z-1.500 F400.000
G1 X28.270 Y-2.571 Z-1.500 F400.000
G1 X28.289 Y-2.613 Z-1.500 F400.000
G1 X28.316 Y-2.651 Z-1.500 F400.000
G1 X28.349 Y-2.684 Z-1.500 F400.000
G1 X28.389 Y-2.709 Z-1.500 F400.000
G1 X28.432 Y-2.726 Z-1.500 F400.000
(Adaptive - depth: -1.500000)
G1 X28.496 Y-2.744 F400.000
G1 X28.549 Y-2.771 F400.000
G1 X28.605 Y-2.771 F400.000
G1 X28.662 Y-2.752 F400.000
G1 X28.714 Y-2.722 F400.000
G1 X28.759 Y-2.680 F400.000
G1 X28.793 Y-2.628 F400.000
G1 X28.816 Y-2.571 F400.000
G1 X28.827 Y-2.511 F400.000
G1 X28.827 Y-2.451 F400.000
G1 X28.816 Y-2.391 F400.000
G1 X28.793 Y-2.335 F400.000
G1 X28.695 Y-2.207 F400.000
G1 X28.583 Y-2.150 F400.000
G1 X28.500 Y-2.135 F400.000
G1 X28.417 Y-2.139 F400.000
G1 X28.320 Y-2.173 F400.000
G1 X28.229 Y-2.237 F400.000
G1 X28.165 Y-2.320 F400.000
G1 X28.128 Y-2.417 F400.000
G1 X28.124 Y-2.571 F400.000
G1 X28.139 Y-2.628 F400.000
G1 X28.199 Y-2.729 F400.000
G1 X28.237 Y-2.774 F400.000
G1 X28.331 Y-2.846 F400.000
G1 X28.436 Y-2.891 F400.000
G1 X28.549 Y-2.906 F400.000
G1 X28.662 Y-2.883 F400.000
G1 X28.771 Y-2.831 F400.000
G1 X28.857 Y-2.748 F400.000
G1 X28.917 Y-2.639 F400.000
G1 X28.940 Y-2.519 F400.000
G1 X28.925 Y-2.316 F400.000
G1 X28.853 Y-2.180 F400.000
G1 X28.786 Y-2.109 F400.000
G1 X28.684 Y-2.038 F400.000
G1 X28.508 Y-1.989 F400.000
G1 X28.387 Y-1.989 F400.000
G1 X28.267 Y-2.019 F400.000
G1 X28.158 Y-2.079 F400.000
G1 X28.071 Y-2.158 F400.000
G1 X28.004 Y-2.256 F400.000
G1 X27.959 Y-2.365 F400.000
G1 X27.940 Y-2.477 F400.000
G1 X27.944 Y-2.590 F400.000
G1 X27.974 Y-2.703 F400.000
G1 X28.023 Y-2.805 F400.000
G1 X28.135 Y-2.936 F400.000
G1 X28.229 Y-3.004 F400.000
G1 X28.335 Y-3.049 F400.000
G1 X28.447 Y-3.075 F400.000
G1 X28.617 Y-3.068 F400.000
G1 X28.729 Y-3.038 F400.000
G1 X28.835 Y-2.981 F400.000
G1 X28.929 Y-2.902 F400.000
G1 X29.000 Y-2.808 F400.000
G1 X29.053 Y-2.699 F400.000
G1 X29.086 Y-2.579 F400.000
G1 X29.098 Y-2.459 F400.000
G1 X29.086 Y-2.338 F400.000
G1 X29.049 Y-2.218 F400.000
G1 X28.992 Y-2.109 F400.000
G1 X28.868 Y-1.966 F400.000
G1 X28.711 Y-1.865 F400.000
G1 X28.534 Y-1.805 F400.000
G1 X28.414 Y-1.793 F400.000
G1 X28.293 Y-1.805 F400.000
G1 X28.173 Y-1.838 F400.000
G1 X28.015 Y-1.929 F400.000
G1 X27.921 Y-2.008 F400.000
G1 X27.808 Y-2.150 F400.000
G1 X27.741 Y-2.316 F400.000
G1 X27.707 Y-2.485 F400.000
G1 X27.718 Y-2.654 F400.000
G1 X27.763 Y-2.823 F400.000
G1 X27.850 Y-2.974 F400.000
G1 X28.015 Y-3.135 F400.000
G1 X28.165 Y-3.226 F400.000
G1 X28.335 Y-3.274 F400.000
G1 X28.504 Y-3.286 F400.000
G1 X28.673 Y-3.263 F400.000
G1 X28.786 Y-3.226 F400.000
G1 X28.940 Y-3.139 F400.000
G1 X29.075 Y-3.019 F400.000
G1 X29.177 Y-2.872 F400.000
G1 X29.244 Y-2.699 F400.000
G1 X29.278 Y-2.519 F400.000
G1 X29.274 Y-2.338 F400.000
G1 X29.229 Y-2.158 F400.000
G1 X29.150 Y-1.992 F400.000
G1 X29.038 Y-1.842 F400.000
G1 X28.895 Y-1.718 F400.000
G1 X28.729 Y-1.628 F400.000
G1 X28.549 Y-1.575 F400.000
G1 X28.368 Y-1.560 F400.000
G1 X28.248 Y-1.571 F400.000
G1 X28.128 Y-1.605 F400.000
G1 X28.015 Y-1.654 F400.000
G1 X27.823 Y-1.805 F400.000
G1 X27.643 Y-2.041 F400.000
G1 X27.556 Y-2.259 F400.000
G1 X27.534 Y-2.429 F400.000
G1 X27.541 Y-2.654 F400.000
G1 X27.605 Y-2.880 F400.000
G1 X27.658 Y-2.985 F400.000
G1 X27.838 Y-3.207 F400.000
G1 X28.023 Y-3.342 F400.000
G1 X28.180 Y-3.417 F400.000
G1 X28.350 Y-3.455 F400.000
G1 X28.519 Y-3.470 F400.000
G1 X28.744 Y-3.440 F400.000
G1 X28.857 Y-3.402 F400.000
G1 X28.962 Y-3.350 F400.000
G1 X29.199 Y-3.169 F400.000
G1 X29.365 Y-2.917 F400.000
G1 X29.459 Y-2.624 F400.000
G1 X29.470 Y-2.504 F400.000
G1 X29.440 Y-2.263 F400.000
G1 X29.402 Y-2.143 F400.000
G1 X29.312 Y-1.977 F400.000
G1 X29.199 Y-1.827 F400.000
G1 X28.947 Y-1.639 F400.000
G1 X28.835 Y-1.586 F400.000
G1 X28.714 Y-1.549 F400.000
G1 X28.714 Y-1.549 F400.000
G1 X28.695 Y-1.553 F400.000
G0 X28.684 Y-1.568
G1 X28.684 Y-1.575 F400.000
G1 X28.688 Y-1.575 F400.000
G1 X28.692 Y-1.575 F400.000
G1 X28.695 Y-1.556 F400.000
G1 X28.662 Y-1.515 F400.000
G1 X28.662 Y-1.515 F400.000
G1 X28.523 Y-1.508 F400.000
G1 X28.335 Y-1.515 F400.000
G1 X28.244 Y-1.534 F400.000
G1 X28.135 Y-1.571 F400.000
G1 X28.000 Y-1.635 F400.000
G1 X27.808 Y-1.782 F400.000
G1 X27.688 Y-1.921 F400.000
G1 X27.609 Y-2.053 F400.000
G1 X27.530 Y-2.267 F400.000
G1 X27.511 Y-2.395 F400.000
G1 X27.508 Y-2.583 F400.000
G1 X27.523 Y-2.695 F400.000
G1 X27.602 Y-2.932 F400.000
G1 X27.628 Y-2.981 F400.000
G1 X27.756 Y-3.162 F400.000
G1 X27.861 Y-3.263 F400.000
G1 X27.974 Y-3.342 F400.000
G1 X28.165 Y-3.436 F400.000
G1 X28.271 Y-3.470 F400.000
G1 X28.436 Y-3.492 F400.000
G1 X28.560 Y-3.492 F400.000
G1 X28.703 Y-3.470 F400.000
G1 X28.876 Y-3.421 F400.000
G1 X28.977 Y-3.368 F400.000
G1 X29.177 Y-3.226 F400.000
G1 X29.237 Y-3.162 F400.000
G1 X29.361 Y-2.992 F400.000
G1 X29.395 Y-2.929 F400.000
G1 X29.492 Y-2.613 F400.000
G1 X29.492 Y-2.447 F400.000
G1 X29.466 Y-2.267 F400.000
G1 X29.436 Y-2.162 F400.000
G1 X29.376 Y-2.026 F400.000
G1 X29.229 Y-1.827 F400.000
G1 X29.162 Y-1.759 F400.000
G1 X29.000 Y-1.639 F400.000
G1 X28.868 Y-1.571 F400.000
G1 X28.662 Y-1.515 F400.000
G1 X28.662 Y-1.515 F400.000
G0 Z10.000
G0 Z10.000
(Finish operation: Adaptive)
(Block-name: Profile001)
(Block-expand: 0)
(Block-enable: 1)
(Begin operation: Profile001)
(Path: Profile001)
(Profile001)
(Compensated Tool Path. Diameter: 3.0)
G0 Z5.000
G0 X-12.142 Y10.336
G0 Z3.000
G1 X-12.142 Y10.336 Z-0.600 F200.000
G2 X-12.090 Y10.274 Z-0.600 I-0.388 J-0.374 K0.000 F400.000
G2 X-11.982 Y9.629 Z-0.600 I-0.927 J-0.488 K0.000 F400.000
G2 X-12.574 Y9.000 Z-0.600 I-0.554 J-0.071 K0.000 F400.000
G1 X-31.500 Y9.000 Z-0.600 F400.000
G3 X-34.993 Y5.647 Z-0.600 I0.007 J-3.503 K0.000 F400.000
G1 X-35.000 Y-10.500 Z-0.600 F400.000
G3 X-31.647 Y-13.993 Z-0.600 I3.503 J0.007 K0.000 F400.000
G1 X-12.574 Y-14.000 Z-0.600 F400.000
G2 X-12.090 Y-14.226 Z-0.600 I0.043 J-0.537 K0.000 F400.000
G2 X-11.982 Y-14.871 Z-0.600 I-0.927 J-0.488 K0.000 F400.000
G2 X-12.574 Y-15.500 Z-0.600 I-0.554 J-0.071 K0.000 F400.000
G1 X-35.376 Y-15.500 Z-0.600 F400.000
G2 X-35.950 Y-14.926 Z-0.600 I-0.050 J0.523 K0.000 F400.000
G1 X-35.950 Y9.926 Z-0.600 F400.000
G2 X-35.376 Y10.500 Z-0.600 I0.523 J0.050 K0.000 F400.000
G1 X-12.574 Y10.500 Z-0.600 F400.000
G2 X-12.142 Y10.336 Z-0.600 I0.043 J-0.537 K0.000 F400.000
G1 X-12.142 Y10.336 Z-1.200 F200.000
G2 X-12.090 Y10.274 Z-1.200 I-0.388 J-0.374 K0.000 F400.000
G2 X-11.982 Y9.629 Z-1.200 I-0.927 J-0.488 K0.000 F400.000
G2 X-12.574 Y9.000 Z-1.200 I-0.554 J-0.071 K0.000 F400.000
G1 X-31.500 Y9.000 Z-1.200 F400.000
G3 X-34.993 Y5.647 Z-1.200 I0.007 J-3.503 K0.000 F400.000
G1 X-35.000 Y-10.500 Z-1.200 F400.000
G3 X-31.647 Y-13.993 Z-1.200 I3.503 J0.007 K0.000 F400.000
G1 X-12.574 Y-14.000 Z-1.200 F400.000
G2 X-12.090 Y-14.226 Z-1.200 I0.043 J-0.537 K0.000 F400.000
G2 X-11.982 Y-14.871 Z-1.200 I-0.927 J-0.488 K0.000 F400.000
G2 X-12.574 Y-15.500 Z-1.200 I-0.554 J-0.071 K0.000 F400.000
G1 X-35.376 Y-15.500 Z-1.200 F400.000
G2 X-35.950 Y-14.926 Z-1.200 I-0.050 J0.523 K0.000 F400.000
G1 X-35.950 Y9.926 Z-1.200 F400.000
G2 X-35.376 Y10.500 Z-1.200 I0.523 J0.050 K0.000 F400.000
G1 X-12.574 Y10.500 Z-1.200 F400.000
G2 X-12.142 Y10.336 Z-1.200 I0.043 J-0.537 K0.000 F400.000
G1 X-12.142 Y10.336 Z-1.500 F200.000
G2 X-12.090 Y10.274 Z-1.500 I-0.388 J-0.374 K0.000 F400.000
G2 X-11.982 Y9.629 Z-1.500 I-0.927 J-0.488 K0.000 F400.000
G2 X-12.574 Y9.000 Z-1.500 I-0.554 J-0.071 K0.000 F400.000
G1 X-31.500 Y9.000 Z-1.500 F400.000
G3 X-34.993 Y5.647 Z-1.500 I0.007 J-3.503 K0.000 F400.000
G1 X-35.000 Y-10.500 Z-1.500 F400.000
G3 X-31.647 Y-13.993 Z-1.500 I3.503 J0.007 K0.000 F400.000
G1 X-12.574 Y-14.000 Z-1.500 F400.000
G2 X-12.090 Y-14.226 Z-1.500 I0.043 J-0.537 K0.000 F400.000
G2 X-11.982 Y-14.871 Z-1.500 I-0.927 J-0.488 K0.000 F400.000
G2 X-12.574 Y-15.500 Z-1.500 I-0.554 J-0.071 K0.000 F400.000
G1 X-35.376 Y-15.500 Z-1.500 F400.000
G2 X-35.950 Y-14.926 Z-1.500 I-0.050 J0.523 K0.000 F400.000
G1 X-35.950 Y9.926 Z-1.500 F400.000
G2 X-35.376 Y10.500 Z-1.500 I0.523 J0.050 K0.000 F400.000
G1 X-12.574 Y10.500 Z-1.500 F400.000
G2 X-12.142 Y10.336 Z-1.500 I0.043 J-0.537 K0.000 F400.000
G0 Z5.000
G0 Z5.000
G0 X-12.142 Y10.336
G0 X11.970 Y9.740
G0 X11.970 Y9.740 Z3.000
G1 X11.970 Y9.740 Z-0.600 F200.000
G2 X11.982 Y9.871 Z-0.600 I1.047 J-0.026 K0.000 F400.000
G2 X12.574 Y10.500 Z-0.600 I0.554 J0.071 K0.000 F400.000
G1 X35.376 Y10.500 Z-0.600 F400.000
G2 X35.950 Y9.926 Z-0.600 I0.050 J-0.523 K0.000 F400.000
G1 X35.950 Y-14.926 Z-0.600 F400.000
G2 X35.376 Y-15.500 Z-0.600 I-0.523 J-0.050 K0.000 F400.000
G1 X12.574 Y-15.500 Z-0.600 F400.000
G2 X12.090 Y-15.274 Z-0.600 I-0.043 J0.537 K0.000 F400.000
G2 X11.982 Y-14.629 Z-0.600 I0.927 J0.488 K0.000 F400.000
G2 X12.574 Y-14.000 Z-0.600 I0.554 J0.071 K0.000 F400.000
G1 X31.500 Y-14.000 Z-0.600 F400.000
G3 X34.993 Y-10.647 Z-0.600 I-0.007 J3.503 K0.000 F400.000
G1 X35.000 Y5.500 Z-0.600 F400.000
G3 X31.647 Y8.993 Z-0.600 I-3.503 J-0.007 K0.000 F400.000
G1 X12.574 Y9.000 Z-0.600 F400.000
G2 X12.090 Y9.226 Z-0.600 I-0.043 J0.537 K0.000 F400.000
G2 X11.970 Y9.740 Z-0.600 I0.927 J0.488 K0.000 F400.000
G1 X11.970 Y9.740 Z-1.200 F200.000
G2 X11.982 Y9.871 Z-1.200 I1.047 J-0.026 K0.000 F400.000
G2 X12.574 Y10.500 Z-1.200 I0.554 J0.071 K0.000 F400.000
G1 X35.376 Y10.500 Z-1.200 F400.000
G2 X35.950 Y9.926 Z-1.200 I0.050 J-0.523 K0.000 F400.000
G1 X35.950 Y-14.926 Z-1.200 F400.000
G2 X35.376 Y-15.500 Z-1.200 I-0.523 J-0.050 K0.000 F400.000
G1 X12.574 Y-15.500 Z-1.200 F400.000
G2 X12.090 Y-15.274 Z-1.200 I-0.043 J0.537 K0.000 F400.000
G2 X11.982 Y-14.629 Z-1.200 I0.927 J0.488 K0.000 F400.000
G2 X12.574 Y-14.000 Z-1.200 I0.554 J0.071 K0.000 F400.000
G1 X31.500 Y-14.000 Z-1.200 F400.000
G3 X34.993 Y-10.647 Z-1.200 I-0.007 J3.503 K0.000 F400.000
G1 X35.000 Y5.500 Z-1.200 F400.000
G3 X31.647 Y8.993 Z-1.200 I-3.503 J-0.007 K0.000 F400.000
G1 X12.574 Y9.000 Z-1.200 F400.000
G2 X12.090 Y9.226 Z-1.200 I-0.043 J0.537 K0.000 F400.000
G2 X11.970 Y9.740 Z-1.200 I0.927 J0.488 K0.000 F400.000
G1 X11.970 Y9.740 Z-1.500 F200.000
G2 X11.982 Y9.871 Z-1.500 I1.047 J-0.026 K0.000 F400.000
G2 X12.574 Y10.500 Z-1.500 I0.554 J0.071 K0.000 F400.000
G1 X35.376 Y10.500 Z-1.500 F400.000
G2 X35.950 Y9.926 Z-1.500 I0.050 J-0.523 K0.000 F400.000
G1 X35.950 Y-14.926 Z-1.500 F400.000
G2 X35.376 Y-15.500 Z-1.500 I-0.523 J-0.050 K0.000 F400.000
G1 X12.574 Y-15.500 Z-1.500 F400.000
G2 X12.090 Y-15.274 Z-1.500 I-0.043 J0.537 K0.000 F400.000
G2 X11.982 Y-14.629 Z-1.500 I0.927 J0.488 K0.000 F400.000
G2 X12.574 Y-14.000 Z-1.500 I0.554 J0.071 K0.000 F400.000
G1 X31.500 Y-14.000 Z-1.500 F400.000
G3 X34.993 Y-10.647 Z-1.500 I-0.007 J3.503 K0.000 F400.000
G1 X35.000 Y5.500 Z-1.500 F400.000
G3 X31.647 Y8.993 Z-1.500 I-3.503 J-0.007 K0.000 F400.000
G1 X12.574 Y9.000 Z-1.500 F400.000
G2 X12.090 Y9.226 Z-1.500 I-0.043 J0.537 K0.000 F400.000
G2 X11.970 Y9.740 Z-1.500 I0.927 J0.488 K0.000 F400.000
G0 Z5.000
G0 Z5.000
(Finish operation: Profile001)
(Block-name: Profile002)
(Block-expand: 0)
(Block-enable: 1)
(Begin operation: Profile002)
(Path: Profile002)
(Profile002)
(Compensated Tool Path. Diameter: 3.0)
G0 Z10.000
G0 X45.094 Y45.095
G0 Z3.000
G1 X45.094 Y45.095 Z-0.500 F200.000
G2 X46.997 Y40.591 Z-0.500 I-4.598 J-4.597 K0.000 F400.000
G1 X47.000 Y-40.500 Z-0.500 F400.000
G2 X40.591 Y-46.997 Z-0.500 I-6.502 J0.004 K0.000 F400.000
G1 X-40.500 Y-47.000 Z-0.500 F400.000
G2 X-46.997 Y-40.591 Z-0.500 I0.004 J6.502 K0.000 F400.000
G1 X-47.000 Y40.500 Z-0.500 F400.000
G2 X-40.591 Y46.997 Z-0.500 I6.502 J-0.004 K0.000 F400.000
G1 X40.500 Y47.000 Z-0.500 F400.000
G2 X45.094 Y45.095 Z-0.500 I-0.004 J-6.502 K0.000 F400.000
G1 X45.094 Y45.095 Z-1.000 F200.000
G2 X46.997 Y40.591 Z-1.000 I-4.598 J-4.597 K0.000 F400.000
G1 X47.000 Y-40.500 Z-1.000 F400.000
G2 X40.591 Y-46.997 Z-1.000 I-6.502 J0.004 K0.000 F400.000
G1 X-40.500 Y-47.000 Z-1.000 F400.000
G2 X-46.997 Y-40.591 Z-1.000 I0.004 J6.502 K0.000 F400.000
G1 X-47.000 Y40.500 Z-1.000 F400.000
G2 X-40.591 Y46.997 Z-1.000 I6.502 J-0.004 K0.000 F400.000
G1 X40.500 Y47.000 Z-1.000 F400.000
G2 X45.094 Y45.095 Z-1.000 I-0.004 J-6.502 K0.000 F400.000
G1 X45.094 Y45.095 Z-1.500 F200.000
G2 X46.997 Y40.591 Z-1.500 I-4.598 J-4.597 K0.000 F400.000
G1 X47.000 Y-40.500 Z-1.500 F400.000
G2 X40.591 Y-46.997 Z-1.500 I-6.502 J0.004 K0.000 F400.000
G1 X-40.500 Y-47.000 Z-1.500 F400.000
G2 X-46.997 Y-40.591 Z-1.500 I0.004 J6.502 K0.000 F400.000
G1 X-47.000 Y40.500 Z-1.500 F400.000
G2 X-40.591 Y46.997 Z-1.500 I6.502 J-0.004 K0.000 F400.000
G1 X40.500 Y47.000 Z-1.500 F400.000
G2 X45.094 Y45.095 Z-1.500 I-0.004 J-6.502 K0.000 F400.000
G0 Z10.000
G0 Z10.000
(Finish operation: Profile002)
(Block-name: Profile)
(Block-expand: 0)
(Block-enable: 1)
(Begin operation: Profile)
(Path: Profile)
(Profile)
(Compensated Tool Path. Diameter: 3.0)
G0 Z10.000
G0 X45.094 Y45.095
G0 Z3.000
G1 X45.094 Y45.095 Z-0.500 F200.000
G2 X46.997 Y40.591 Z-0.500 I-4.598 J-4.597 K0.000 F400.000
G1 X47.000 Y-40.500 Z-0.500 F400.000
G2 X40.591 Y-46.997 Z-0.500 I-6.502 J0.004 K0.000 F400.000
G1 X-40.500 Y-47.000 Z-0.500 F400.000
G2 X-46.997 Y-40.591 Z-0.500 I0.004 J6.502 K0.000 F400.000
G1 X-47.000 Y40.500 Z-0.500 F400.000
G2 X-40.591 Y46.997 Z-0.500 I6.502 J-0.004 K0.000 F400.000
G1 X40.500 Y47.000 Z-0.500 F400.000
G2 X45.094 Y45.095 Z-0.500 I-0.004 J-6.502 K0.000 F400.000
G1 X45.094 Y45.095 Z-1.000 F200.000
G2 X46.997 Y40.591 Z-1.000 I-4.598 J-4.597 K0.000 F400.000
G1 X47.000 Y-40.500 Z-1.000 F400.000
G2 X40.591 Y-46.997 Z-1.000 I-6.502 J0.004 K0.000 F400.000
G1 X-40.500 Y-47.000 Z-1.000 F400.000
G2 X-46.997 Y-40.591 Z-1.000 I0.004 J6.502 K0.000 F400.000
G1 X-47.000 Y40.500 Z-1.000 F400.000
G2 X-40.591 Y46.997 Z-1.000 I6.502 J-0.004 K0.000 F400.000
G1 X40.500 Y47.000 Z-1.000 F400.000
G2 X45.094 Y45.095 Z-1.000 I-0.004 J-6.502 K0.000 F400.000
G1 X45.094 Y45.095 Z-1.500 F200.000
G2 X46.997 Y40.591 Z-1.500 I-4.598 J-4.597 K0.000 F400.000
G1 X47.000 Y-40.500 Z-1.500 F400.000
G2 X40.591 Y-46.997 Z-1.500 I-6.502 J0.004 K0.000 F400.000
G1 X-40.500 Y-47.000 Z-1.500 F400.000
G2 X-46.997 Y-40.591 Z-1.500 I0.004 J6.502 K0.000 F400.000
G1 X-47.000 Y40.500 Z-1.500 F400.000
G2 X-40.591 Y46.997 Z-1.500 I6.502 J-0.004 K0.000 F400.000
G1 X40.500 Y47.000 Z-1.500 F400.000
G2 X45.094 Y45.095 Z-1.500 I-0.004 J-6.502 K0.000 F400.000
G0 Z10.000
G0 Z10.000
(Finish operation: Profile)
(Block-name: post_amble)
(Block-expand: 0)
(Block-enable: 1)
(Begin postamble)
M5
G17 G90
M2
