(Exported by FreeCAD)
(Post Processor: script_module)
(Output Time:2025-01-20 23:38:28.697735)
(Begin preamble)
G17 G90
G21
(Block-name: Fixture)
(Block-expand: 0)
(Block-enable: 1)
(Begin operation: Fixture)
(Path: Fixture)
G54
(Finish operation: Fixture)
(Block-name: 6mm Endmill001)
(Block-expand: 0)
(Block-enable: 1)
(Begin operation: 6mm Endmill001)
(Path: 6mm Endmill001)
(6mm Endmill001)
(Begin toolchange)
( M6 T2 )
(Finish operation: 6mm Endmill001)
(Block-name: Adaptive)
(Block-expand: 0)
(Block-enable: 1)
(Begin operation: Adaptive)
(Path: Adaptive)
(Adaptive)
(Helix to depth: -12.000000)
G0 Z5.000
G0 X-14.722 Y17.177 Z5.000
G0 X-14.722 Y17.177 Z3.000
G1 X-14.722 Y17.177 Z0.000
G1 X-14.722 Y17.177 Z0.000
G1 X-14.811 Y17.607 Z-0.039
G1 X-14.981 Y18.012 Z-0.077
G1 X-15.227 Y18.376 Z-0.116
G1 X-15.540 Y18.684 Z-0.155
G1 X-15.906 Y18.926 Z-0.193
G1 X-16.313 Y19.091 Z-0.232
G1 X-16.744 Y19.174 Z-0.271
G1 X-17.183 Y19.172 Z-0.309
G1 X-17.614 Y19.083 Z-0.348
G1 X-18.018 Y18.913 Z-0.387
G1 X-18.382 Y18.666 Z-0.425
G1 X-18.690 Y18.354 Z-0.464
G1 X-18.932 Y17.987 Z-0.502
G1 X-19.098 Y17.581 Z-0.541
G1 X-19.181 Y17.149 Z-0.580
G1 X-19.178 Y16.710 Z-0.618
G1 X-19.089 Y16.280 Z-0.657
G1 X-18.919 Y15.875 Z-0.696
G1 X-18.673 Y15.512 Z-0.734
G1 X-18.360 Y15.203 Z-0.773
G1 X-17.994 Y14.962 Z-0.812
G1 X-17.587 Y14.796 Z-0.850
G1 X-17.156 Y14.713 Z-0.889
G1 X-16.717 Y14.716 Z-0.928
G1 X-16.286 Y14.804 Z-0.966
G1 X-15.882 Y14.975 Z-1.005
G1 X-15.518 Y15.221 Z-1.044
G1 X-15.210 Y15.534 Z-1.082
G1 X-14.968 Y15.900 Z-1.121
G1 X-14.802 Y16.307 Z-1.160
G1 X-14.719 Y16.738 Z-1.198
G1 X-14.722 Y17.177 Z-1.237
G1 X-14.811 Y17.607 Z-1.275
G1 X-14.981 Y18.012 Z-1.314
G1 X-15.227 Y18.376 Z-1.353
G1 X-15.540 Y18.684 Z-1.391
G1 X-15.906 Y18.926 Z-1.430
G1 X-16.313 Y19.091 Z-1.469
G1 X-16.744 Y19.174 Z-1.507
G1 X-17.183 Y19.172 Z-1.546
G1 X-17.614 Y19.083 Z-1.585
G1 X-18.018 Y18.913 Z-1.623
G1 X-18.382 Y18.666 Z-1.662
G1 X-18.690 Y18.354 Z-1.701
G1 X-18.932 Y17.987 Z-1.739
G1 X-19.098 Y17.581 Z-1.778
G1 X-19.181 Y17.149 Z-1.817
G1 X-19.178 Y16.710 Z-1.855
G1 X-19.089 Y16.280 Z-1.894
G1 X-18.919 Y15.875 Z-1.933
G1 X-18.673 Y15.512 Z-1.971
G1 X-18.360 Y15.203 Z-2.010
G1 X-17.994 Y14.962 Z-2.049
G1 X-17.587 Y14.796 Z-2.087
G1 X-17.156 Y14.713 Z-2.126
G1 X-16.717 Y14.716 Z-2.164
G1 X-16.286 Y14.804 Z-2.203
G1 X-15.882 Y14.975 Z-2.242
G1 X-15.518 Y15.221 Z-2.280
G1 X-15.210 Y15.534 Z-2.319
G1 X-14.968 Y15.900 Z-2.358
G1 X-14.802 Y16.307 Z-2.396
G1 X-14.719 Y16.738 Z-2.435
G1 X-14.722 Y17.177 Z-2.474
G1 X-14.811 Y17.607 Z-2.512
G1 X-14.981 Y18.012 Z-2.551
G1 X-15.227 Y18.376 Z-2.590
G1 X-15.540 Y18.684 Z-2.628
G1 X-15.906 Y18.926 Z-2.667
G1 X-16.313 Y19.091 Z-2.706
G1 X-16.744 Y19.174 Z-2.744
G1 X-17.183 Y19.172 Z-2.783
G1 X-17.614 Y19.083 Z-2.822
G1 X-18.018 Y18.913 Z-2.860
G1 X-18.382 Y18.666 Z-2.899
G1 X-18.690 Y18.354 Z-2.937
G1 X-18.932 Y17.987 Z-2.976
G1 X-19.098 Y17.581 Z-3.015
G1 X-19.181 Y17.149 Z-3.053
G1 X-19.178 Y16.710 Z-3.092
G1 X-19.089 Y16.280 Z-3.131
G1 X-18.919 Y15.875 Z-3.169
G1 X-18.673 Y15.512 Z-3.208
G1 X-18.360 Y15.203 Z-3.247
G1 X-17.994 Y14.962 Z-3.285
G1 X-17.587 Y14.796 Z-3.324
G1 X-17.156 Y14.713 Z-3.363
G1 X-16.717 Y14.716 Z-3.401
G1 X-16.286 Y14.804 Z-3.440
G1 X-15.882 Y14.975 Z-3.479
G1 X-15.518 Y15.221 Z-3.517
G1 X-15.210 Y15.534 Z-3.556
G1 X-14.968 Y15.900 Z-3.595
G1 X-14.802 Y16.307 Z-3.633
G1 X-14.719 Y16.738 Z-3.672
G1 X-14.722 Y17.177 Z-3.711
G1 X-14.811 Y17.607 Z-3.749
G1 X-14.981 Y18.012 Z-3.788
G1 X-15.227 Y18.376 Z-3.826
G1 X-15.540 Y18.684 Z-3.865
G1 X-15.906 Y18.926 Z-3.904
G1 X-16.313 Y19.091 Z-3.942
G1 X-16.744 Y19.174 Z-3.981
G1 X-17.183 Y19.172 Z-4.020
G1 X-17.614 Y19.083 Z-4.058
G1 X-18.018 Y18.913 Z-4.097
G1 X-18.382 Y18.666 Z-4.136
G1 X-18.690 Y18.354 Z-4.174
G1 X-18.932 Y17.987 Z-4.213
G1 X-19.098 Y17.581 Z-4.252
G1 X-19.181 Y17.149 Z-4.290
G1 X-19.178 Y16.710 Z-4.329
G1 X-19.089 Y16.280 Z-4.368
G1 X-18.919 Y15.875 Z-4.406
G1 X-18.673 Y15.512 Z-4.445
G1 X-18.360 Y15.203 Z-4.484
G1 X-17.994 Y14.962 Z-4.522
G1 X-17.587 Y14.796 Z-4.561
G1 X-17.156 Y14.713 Z-4.600
G1 X-16.717 Y14.716 Z-4.638
G1 X-16.286 Y14.804 Z-4.677
G1 X-15.882 Y14.975 Z-4.715
G1 X-15.518 Y15.221 Z-4.754
G1 X-15.210 Y15.534 Z-4.793
G1 X-14.968 Y15.900 Z-4.831
G1 X-14.802 Y16.307 Z-4.870
G1 X-14.719 Y16.738 Z-4.909
G1 X-14.722 Y17.177 Z-4.947
G1 X-14.811 Y17.607 Z-4.986
G1 X-14.981 Y18.012 Z-5.025
G1 X-15.227 Y18.376 Z-5.063
G1 X-15.540 Y18.684 Z-5.102
G1 X-15.906 Y18.926 Z-5.141
G1 X-16.313 Y19.091 Z-5.179
G1 X-16.744 Y19.174 Z-5.218
G1 X-17.183 Y19.172 Z-5.257
G1 X-17.614 Y19.083 Z-5.295
G1 X-18.018 Y18.913 Z-5.334
G1 X-18.382 Y18.666 Z-5.373
G1 X-18.690 Y18.354 Z-5.411
G1 X-18.932 Y17.987 Z-5.450
G1 X-19.098 Y17.581 Z-5.488
G1 X-19.181 Y17.149 Z-5.527
G1 X-19.178 Y16.710 Z-5.566
G1 X-19.089 Y16.280 Z-5.604
G1 X-18.919 Y15.875 Z-5.643
G1 X-18.673 Y15.512 Z-5.682
G1 X-18.360 Y15.203 Z-5.720
G1 X-17.994 Y14.962 Z-5.759
G1 X-17.587 Y14.796 Z-5.798
G1 X-17.156 Y14.713 Z-5.836
G1 X-16.717 Y14.716 Z-5.875
G1 X-16.286 Y14.804 Z-5.914
G1 X-15.882 Y14.975 Z-5.952
G1 X-15.518 Y15.221 Z-5.991
G1 X-15.210 Y15.534 Z-6.030
G1 X-14.968 Y15.900 Z-6.068
G1 X-14.802 Y16.307 Z-6.107
G1 X-14.719 Y16.738 Z-6.146
G1 X-14.722 Y17.177 Z-6.184
G1 X-14.811 Y17.607 Z-6.223
G1 X-14.981 Y18.012 Z-6.262
G1 X-15.227 Y18.376 Z-6.300
G1 X-15.540 Y18.684 Z-6.339
G1 X-15.906 Y18.926 Z-6.377
G1 X-16.313 Y19.091 Z-6.416
G1 X-16.744 Y19.174 Z-6.455
G1 X-17.183 Y19.172 Z-6.493
G1 X-17.614 Y19.083 Z-6.532
G1 X-18.018 Y18.913 Z-6.571
G1 X-18.382 Y18.666 Z-6.609
G1 X-18.690 Y18.354 Z-6.648
G1 X-18.932 Y17.987 Z-6.687
G1 X-19.098 Y17.581 Z-6.725
G1 X-19.181 Y17.149 Z-6.764
G1 X-19.178 Y16.710 Z-6.803
G1 X-19.089 Y16.280 Z-6.841
G1 X-18.919 Y15.875 Z-6.880
G1 X-18.673 Y15.512 Z-6.919
G1 X-18.360 Y15.203 Z-6.957
G1 X-17.994 Y14.962 Z-6.996
G1 X-17.587 Y14.796 Z-7.035
G1 X-17.156 Y14.713 Z-7.073
G1 X-16.717 Y14.716 Z-7.112
G1 X-16.286 Y14.804 Z-7.150
G1 X-15.882 Y14.975 Z-7.189
G1 X-15.518 Y15.221 Z-7.228
G1 X-15.210 Y15.534 Z-7.266
G1 X-14.968 Y15.900 Z-7.305
G1 X-14.802 Y16.307 Z-7.344
G1 X-14.719 Y16.738 Z-7.382
G1 X-14.722 Y17.177 Z-7.421
G1 X-14.811 Y17.607 Z-7.460
G1 X-14.981 Y18.012 Z-7.498
G1 X-15.227 Y18.376 Z-7.537
G1 X-15.540 Y18.684 Z-7.576
G1 X-15.906 Y18.926 Z-7.614
G1 X-16.313 Y19.091 Z-7.653
G1 X-16.744 Y19.174 Z-7.692
G1 X-17.183 Y19.172 Z-7.730
G1 X-17.614 Y19.083 Z-7.769
G1 X-18.018 Y18.913 Z-7.808
G1 X-18.382 Y18.666 Z-7.846
G1 X-18.690 Y18.354 Z-7.885
G1 X-18.932 Y17.987 Z-7.924
G1 X-19.098 Y17.581 Z-7.962
G1 X-19.181 Y17.149 Z-8.001
G1 X-19.178 Y16.710 Z-8.039
G1 X-19.089 Y16.280 Z-8.078
G1 X-18.919 Y15.875 Z-8.117
G1 X-18.673 Y15.512 Z-8.155
G1 X-18.360 Y15.203 Z-8.194
G1 X-17.994 Y14.962 Z-8.233
G1 X-17.587 Y14.796 Z-8.271
G1 X-17.156 Y14.713 Z-8.310
G1 X-16.717 Y14.716 Z-8.349
G1 X-16.286 Y14.804 Z-8.387
G1 X-15.882 Y14.975 Z-8.426
G1 X-15.518 Y15.221 Z-8.465
G1 X-15.210 Y15.534 Z-8.503
G1 X-14.968 Y15.900 Z-8.542
G1 X-14.802 Y16.307 Z-8.581
G1 X-14.719 Y16.738 Z-8.619
G1 X-14.722 Y17.177 Z-8.658
G1 X-14.811 Y17.607 Z-8.697
G1 X-14.981 Y18.012 Z-8.735
G1 X-15.227 Y18.376 Z-8.774
G1 X-15.540 Y18.684 Z-8.812
G1 X-15.906 Y18.926 Z-8.851
G1 X-16.313 Y19.091 Z-8.890
G1 X-16.744 Y19.174 Z-8.928
G1 X-17.183 Y19.172 Z-8.967
G1 X-17.614 Y19.083 Z-9.006
G1 X-18.018 Y18.913 Z-9.044
G1 X-18.382 Y18.666 Z-9.083
G1 X-18.690 Y18.354 Z-9.122
G1 X-18.932 Y17.987 Z-9.160
G1 X-19.098 Y17.581 Z-9.199
G1 X-19.181 Y17.149 Z-9.238
G1 X-19.178 Y16.710 Z-9.276
G1 X-19.089 Y16.280 Z-9.315
G1 X-18.919 Y15.875 Z-9.354
G1 X-18.673 Y15.512 Z-9.392
G1 X-18.360 Y15.203 Z-9.431
G1 X-17.994 Y14.962 Z-9.470
G1 X-17.587 Y14.796 Z-9.508
G1 X-17.156 Y14.713 Z-9.547
G1 X-16.717 Y14.716 Z-9.586
G1 X-16.286 Y14.804 Z-9.624
G1 X-15.882 Y14.975 Z-9.663
G1 X-15.518 Y15.221 Z-9.701
G1 X-15.210 Y15.534 Z-9.740
G1 X-14.968 Y15.900 Z-9.779
G1 X-14.802 Y16.307 Z-9.817
G1 X-14.719 Y16.738 Z-9.856
G1 X-14.722 Y17.177 Z-9.895
G1 X-14.811 Y17.607 Z-9.933
G1 X-14.981 Y18.012 Z-9.972
G1 X-15.227 Y18.376 Z-10.011
G1 X-15.540 Y18.684 Z-10.049
G1 X-15.906 Y18.926 Z-10.088
G1 X-16.313 Y19.091 Z-10.127
G1 X-16.744 Y19.174 Z-10.165
G1 X-17.183 Y19.172 Z-10.204
G1 X-17.614 Y19.083 Z-10.243
G1 X-18.018 Y18.913 Z-10.281
G1 X-18.382 Y18.666 Z-10.320
G1 X-18.690 Y18.354 Z-10.359
G1 X-18.932 Y17.987 Z-10.397
G1 X-19.098 Y17.581 Z-10.436
G1 X-19.181 Y17.149 Z-10.475
G1 X-19.178 Y16.710 Z-10.513
G1 X-19.089 Y16.280 Z-10.552
G1 X-18.919 Y15.875 Z-10.590
G1 X-18.673 Y15.512 Z-10.629
G1 X-18.360 Y15.203 Z-10.668
G1 X-17.994 Y14.962 Z-10.706
G1 X-17.587 Y14.796 Z-10.745
G1 X-17.156 Y14.713 Z-10.784
G1 X-16.717 Y14.716 Z-10.822
G1 X-16.286 Y14.804 Z-10.861
G1 X-15.882 Y14.975 Z-10.900
G1 X-15.518 Y15.221 Z-10.938
G1 X-15.210 Y15.534 Z-10.977
G1 X-14.968 Y15.900 Z-11.016
G1 X-14.802 Y16.307 Z-11.054
G1 X-14.719 Y16.738 Z-11.093
G1 X-14.722 Y17.177 Z-11.132
G1 X-14.811 Y17.607 Z-11.170
G1 X-14.981 Y18.012 Z-11.209
G1 X-15.227 Y18.376 Z-11.248
G1 X-15.540 Y18.684 Z-11.286
G1 X-15.906 Y18.926 Z-11.325
G1 X-16.313 Y19.091 Z-11.363
G1 X-16.744 Y19.174 Z-11.402
G1 X-17.183 Y19.172 Z-11.441
G1 X-17.614 Y19.083 Z-11.479
G1 X-18.018 Y18.913 Z-11.518
G1 X-18.382 Y18.666 Z-11.557
G1 X-18.690 Y18.354 Z-11.595
G1 X-18.932 Y17.987 Z-11.634
G1 X-19.098 Y17.581 Z-11.673
G1 X-19.181 Y17.149 Z-11.711
G1 X-19.178 Y16.710 Z-11.750
G1 X-19.089 Y16.280 Z-11.789
G1 X-18.919 Y15.875 Z-11.827
G1 X-18.673 Y15.512 Z-11.866
G1 X-18.360 Y15.203 Z-11.905
G1 X-17.994 Y14.962 Z-11.943
G1 X-17.587 Y14.796 Z-11.982
G1 X-17.156 Y14.713 Z-12.000
G1 X-16.717 Y14.716 Z-12.000
G1 X-16.286 Y14.804 Z-12.000
G1 X-15.882 Y14.975 Z-12.000
G1 X-15.518 Y15.221 Z-12.000
G1 X-15.210 Y15.534 Z-12.000
G1 X-14.968 Y15.900 Z-12.000
G1 X-14.802 Y16.307 Z-12.000
G1 X-14.719 Y16.738 Z-12.000
G1 X-14.722 Y17.177 Z-12.000
G1 X-14.811 Y17.607 Z-12.000
G1 X-14.981 Y18.012 Z-12.000
G1 X-15.227 Y18.376 Z-12.000
G1 X-15.540 Y18.684 Z-12.000
G1 X-15.906 Y18.926 Z-12.000
G1 X-16.313 Y19.091 Z-12.000
G1 X-16.744 Y19.174 Z-12.000
G1 X-17.183 Y19.172 Z-12.000
G1 X-17.614 Y19.083 Z-12.000
G1 X-18.018 Y18.913 Z-12.000
G1 X-18.382 Y18.666 Z-12.000
G1 X-18.690 Y18.354 Z-12.000
G1 X-18.932 Y17.987 Z-12.000
G1 X-19.098 Y17.581 Z-12.000
G1 X-19.181 Y17.149 Z-12.000
G1 X-19.178 Y16.710 Z-12.000
G1 X-19.089 Y16.280 Z-12.000
G1 X-18.919 Y15.875 Z-12.000
G1 X-18.673 Y15.512 Z-12.000
G1 X-18.360 Y15.203 Z-12.000
G1 X-17.994 Y14.962 Z-12.000
G1 X-17.587 Y14.796 Z-12.000
(Adaptive - depth: -12.000000)
G1 X-16.950 Y14.694
G1 X-16.794 Y14.556
G1 X-16.506 Y14.444
G1 X-16.206 Y14.400
G1 X-16.106 Y14.400
G1 X-15.556 Y14.512
G1 X-15.188 Y14.669
G1 X-14.850 Y14.887
G1 X-14.431 Y15.312
G1 X-14.156 Y15.725
G1 X-13.994 Y16.087
G1 X-13.875 Y16.825
G1 X-13.894 Y17.319
G1 X-13.950 Y17.619
G1 X-14.025 Y17.894
G1 X-14.181 Y18.275
G1 X-14.412 Y18.656
G1 X-14.631 Y18.950
G1 X-14.919 Y19.244
G1 X-15.238 Y19.488
G1 X-15.569 Y19.688
G1 X-15.925 Y19.831
G1 X-16.488 Y19.950
G1 X-17.050 Y19.975
G1 X-17.519 Y19.913
G1 X-18.163 Y19.688
G1 X-18.337 Y19.594
G1 X-18.962 Y19.188
G1 X-19.444 Y18.656
G1 X-19.600 Y18.400
G1 X-19.712 Y18.169
G1 X-19.856 Y17.569
G1 X-19.906 Y16.869
G1 X-19.837 Y16.369
G1 X-19.650 Y15.775
G1 X-19.238 Y15.025
G1 X-18.775 Y14.550
G1 X-18.312 Y14.188
G1 X-17.913 Y13.956
G1 X-17.387 Y13.725
G1 X-16.894 Y13.606
G1 X-16.550 Y13.556
G1 X-15.869 Y13.562
G1 X-15.569 Y13.606
G1 X-15.375 Y13.681
G1 X-15.200 Y13.781
G1 X-13.306 Y15.700
G1 X-13.137 Y15.950
G1 X-12.963 Y16.606
G1 X-12.919 Y16.981
G1 X-13.006 Y17.725
G1 X-13.156 Y18.256
G1 X-13.300 Y18.587
G1 X-13.450 Y18.881
G1 X-13.713 Y19.281
G1 X-14.181 Y19.819
G1 X-14.713 Y20.231
G1 X-14.969 Y20.350
G1 X-15.250 Y20.413
G1 X-18.062 Y20.387
G1 X-18.531 Y20.294
G1 X-18.719 Y20.231
G1 X-19.069 Y20.044
G1 X-19.619 Y19.606
G1 X-20.056 Y19.062
G1 X-20.256 Y18.712
G1 X-20.400 Y18.119
G1 X-20.381 Y15.919
G1 X-20.275 Y15.319
G1 X-19.994 Y14.762
G1 X-19.562 Y14.175
G1 X-19.031 Y13.637
G1 X-18.419 Y13.200
G1 X-18.019 Y12.994
G1 X-17.688 Y12.863
G1 X-17.325 Y12.750
G1 X-16.606 Y12.625
G1 X-16.306 Y12.606
G1 X-16.206 Y12.631
G1 X-16.119 Y12.688
G1 X-16.119 Y12.688
G1 X-16.025 Y12.812
G1 X-15.969 Y12.956
G1 X-15.944 Y13.106
G1 X-15.944 Y13.256
G0 Z5.000
G0 X-15.944 Y13.256
G0 X-13.806 Y15.469
G1 Z-12.000
G1 X-13.806 Y15.469
G1 X-13.656 Y15.475
G1 X-13.506 Y15.506
G1 X-13.363 Y15.569
G1 X-13.238 Y15.656
G1 X-13.238 Y15.656
G1 X-12.644 Y16.175
G1 X-12.444 Y16.400
G1 X-12.294 Y16.656
G1 X-12.156 Y17.312
G1 X-12.144 Y17.594
G1 X-12.250 Y18.331
G1 X-12.438 Y18.913
G1 X-12.594 Y19.250
G1 X-12.769 Y19.550
G1 X-13.231 Y20.200
G1 X-13.294 Y20.269
G1 X-13.450 Y20.369
G1 X-13.537 Y20.406
G1 X-14.287 Y20.413
G1 X-14.287 Y20.413
G1 X-14.506 Y20.369
G1 X-14.650 Y20.312
G1 X-14.750 Y20.225
G0 X-14.775 Y20.169
G0 X-14.762 Y20.044
G0 X-13.194 Y16.600
G1 X-13.156 Y16.519
G1 X-13.075 Y16.356
G1 X-13.031 Y16.294
G1 X-12.975 Y16.250
G1 X-12.844 Y16.206
G1 X-12.700 Y16.212
G1 X-12.419 Y16.319
G1 X-12.419 Y16.319
G1 X-11.869 Y16.756
G1 X-11.669 Y16.975
G1 X-11.562 Y17.137
G1 X-11.469 Y17.419
G1 X-11.381 Y18.075
G1 X-11.481 Y18.812
G1 X-11.631 Y19.350
G1 X-11.900 Y19.962
G1 X-12.113 Y20.281
G1 X-12.269 Y20.394
G1 X-12.363 Y20.413
G1 X-12.550 Y20.413
G1 X-12.550 Y20.413
G1 X-12.769 Y20.369
G1 X-12.912 Y20.312
G1 X-13.019 Y20.225
G0 X-13.044 Y20.169
G0 X-13.056 Y20.038
G0 X-12.381 Y17.156
G1 X-12.356 Y17.069
G1 X-12.312 Y16.900
G1 X-12.281 Y16.831
G1 X-12.238 Y16.781
G1 X-12.181 Y16.750
G1 X-12.050 Y16.738
G1 X-11.831 Y16.788
G1 X-11.694 Y16.850
G1 X-11.694 Y16.850
G1 X-11.200 Y17.200
G1 X-10.919 Y17.488
G1 X-10.812 Y17.656
G1 X-10.669 Y18.219
G1 X-10.637 Y18.500
G1 X-10.700 Y19.244
G1 X-10.894 Y19.906
G1 X-11.075 Y20.250
G1 X-11.137 Y20.319
G1 X-11.213 Y20.375
G1 X-11.300 Y20.413
G1 X-11.394 Y20.413
G1 X-11.394 Y20.413
G1 X-11.613 Y20.369
G1 X-11.756 Y20.312
G1 X-11.863 Y20.225
G0 X-11.894 Y20.169
G0 X-11.919 Y20.038
G0 X-11.588 Y17.669
G1 X-11.575 Y17.581
G1 X-11.550 Y17.413
G1 X-11.519 Y17.337
G1 X-11.481 Y17.288
G1 X-11.425 Y17.256
G1 X-11.294 Y17.238
G1 X-11.081 Y17.281
G1 X-10.944 Y17.344
G1 X-10.944 Y17.344
G1 X-10.363 Y17.762
G1 X-10.156 Y17.981
G1 X-10.100 Y18.062
G1 X-9.950 Y18.525
G1 X-9.887 Y18.900
G1 X-9.950 Y19.644
G1 X-10.056 Y20.012
G1 X-10.181 Y20.269
G1 X-10.244 Y20.337
G1 X-10.325 Y20.387
G1 X-10.419 Y20.413
G1 X-10.419 Y20.413
G1 X-10.637 Y20.369
G1 X-10.781 Y20.312
G1 X-10.887 Y20.219
G0 X-10.925 Y20.163
G0 X-10.950 Y19.956
G0 X-10.800 Y18.181
G1 X-10.787 Y18.094
G1 X-10.769 Y17.925
G1 X-10.744 Y17.850
G1 X-10.706 Y17.794
G1 X-10.656 Y17.762
G1 X-10.525 Y17.731
G1 X-10.312 Y17.762
G1 X-10.175 Y17.812
G1 X-10.175 Y17.812
G1 X-9.744 Y18.075
G1 X-9.450 Y18.350
G1 X-9.344 Y18.519
G1 X-9.219 Y18.894
G1 X-9.156 Y19.269
G1 X-9.269 Y20.006
G1 X-9.338 Y20.181
G1 X-9.450 Y20.331
G1 X-9.531 Y20.387
G1 X-9.625 Y20.413
G1 X-9.625 Y20.413
G1 X-9.844 Y20.369
G1 X-10.050 Y20.269
G1 X-10.100 Y20.225
G0 X-10.131 Y20.169
G0 X-10.169 Y19.962
G0 X-10.119 Y18.538
G1 X-10.113 Y18.456
G1 X-10.100 Y18.288
G1 X-10.081 Y18.212
G1 X-10.050 Y18.156
G1 X-10.000 Y18.125
G1 X-9.869 Y18.094
G1 X-9.656 Y18.125
G1 X-9.519 Y18.175
G1 X-9.519 Y18.175
G1 X-8.994 Y18.481
G1 X-8.838 Y18.613
G1 X-8.706 Y18.769
G1 X-8.594 Y19.044
G1 X-8.512 Y19.419
G1 X-8.506 Y19.606
G1 X-8.719 Y20.319
G1 X-8.794 Y20.381
G1 X-8.881 Y20.413
G1 X-8.881 Y20.413
G1 X-9.100 Y20.369
G1 X-9.244 Y20.312
G1 X-9.356 Y20.219
G0 X-9.394 Y20.163
G0 X-9.431 Y19.950
G0 X-9.438 Y18.925
G1 X-9.438 Y18.850
G1 X-9.431 Y18.625
G1 X-9.419 Y18.562
G1 X-9.381 Y18.519
G1 X-9.275 Y18.462
G1 X-9.137 Y18.450
G1 X-8.850 Y18.512
G1 X-8.850 Y18.512
G1 X-8.400 Y18.738
G1 X-8.162 Y18.925
G1 X-8.050 Y19.081
G1 X-7.925 Y19.550
G1 X-7.919 Y19.925
G1 X-7.994 Y20.200
G1 X-8.037 Y20.288
G1 X-8.106 Y20.356
G1 X-8.188 Y20.406
G1 X-8.281 Y20.413
G1 X-8.281 Y20.413
G1 X-8.500 Y20.369
G1 X-8.644 Y20.312
G1 X-8.750 Y20.219
G0 X-8.787 Y20.163
G0 X-8.819 Y19.950
G0 X-8.775 Y19.238
G1 X-8.775 Y19.150
G1 X-8.756 Y18.981
G1 X-8.738 Y18.906
G1 X-8.700 Y18.850
G1 X-8.650 Y18.806
G1 X-8.519 Y18.762
G1 X-8.306 Y18.775
G1 X-8.162 Y18.812
G1 X-8.162 Y18.812
G1 X-7.806 Y18.994
G1 X-7.569 Y19.181
G1 X-7.500 Y19.256
G1 X-7.412 Y19.431
G1 X-7.356 Y19.712
G1 X-7.350 Y19.900
G1 X-7.381 Y20.087
G1 X-7.444 Y20.269
G1 X-7.506 Y20.344
G1 X-7.581 Y20.400
G1 X-7.675 Y20.413
G1 X-7.675 Y20.413
G1 X-7.894 Y20.369
G1 X-8.031 Y20.306
G1 X-8.144 Y20.219
G0 X-8.181 Y20.163
G0 X-8.213 Y19.494
G1 X-8.213 Y19.413
G1 X-8.200 Y19.238
G1 X-8.181 Y19.169
G1 X-8.150 Y19.106
G1 X-8.100 Y19.062
G1 X-7.975 Y19.019
G1 X-7.756 Y19.019
G1 X-7.612 Y19.050
G1 X-7.612 Y19.050
G1 X-7.331 Y19.169
G1 X-7.081 Y19.337
G1 X-6.950 Y19.481
G1 X-6.869 Y19.756
G1 X-6.862 Y20.038
G1 X-6.906 Y20.225
G1 X-6.944 Y20.312
G1 X-7.019 Y20.375
G1 X-7.106 Y20.413
G1 X-7.106 Y20.413
G1 X-7.325 Y20.369
G1 X-7.444 Y20.300
G0 X-7.481 Y20.250
G0 X-7.519 Y20.125
G0 X-7.513 Y19.681
G1 X-7.513 Y19.594
G1 X-7.494 Y19.431
G1 X-7.475 Y19.356
G1 X-7.444 Y19.300
G1 X-7.394 Y19.269
G1 X-7.263 Y19.238
G1 X-7.050 Y19.262
G1 X-7.050 Y19.262
G1 X-6.775 Y19.394
G1 X-6.606 Y19.512
G1 X-6.481 Y19.663
G1 X-6.419 Y19.944
G1 X-6.431 Y20.131
G1 X-6.487 Y20.312
G1 X-6.556 Y20.375
G1 X-6.644 Y20.413
G1 X-6.644 Y20.413
G1 X-6.862 Y20.369
G1 X-6.981 Y20.294
G0 X-7.019 Y20.238
G0 X-7.056 Y20.100
G0 X-7.069 Y19.863
G1 X-7.069 Y19.781
G1 X-7.062 Y19.556
G1 X-7.050 Y19.500
G1 X-7.013 Y19.450
G1 X-6.906 Y19.400
G1 X-6.625 Y19.419
G1 X-6.625 Y19.419
G1 X-6.344 Y19.531
G1 X-6.175 Y19.644
G1 X-6.050 Y19.794
G1 X-6.013 Y19.981
G1 X-6.025 Y20.169
G1 X-6.050 Y20.262
G1 X-6.106 Y20.344
G1 X-6.181 Y20.400
G1 X-6.275 Y20.413
G1 X-6.275 Y20.413
G1 X-6.412 Y20.381
G1 X-6.469 Y20.356
G0 X-6.506 Y20.312
G0 X-6.537 Y20.181
G0 X-6.531 Y19.950
G1 X-6.525 Y19.863
G1 X-6.506 Y19.694
G1 X-6.481 Y19.625
G1 X-6.444 Y19.575
G1 X-6.394 Y19.550
G1 X-6.200 Y19.550
G1 X-6.200 Y19.550
G1 X-5.925 Y19.663
G1 X-5.763 Y19.781
G1 X-5.700 Y19.856
G1 X-5.662 Y19.944
G1 X-5.650 Y20.131
G1 X-5.662 Y20.225
G1 X-5.694 Y20.319
G1 X-5.763 Y20.381
G1 X-5.850 Y20.413
G1 X-5.850 Y20.413
G1 X-5.987 Y20.381
G1 X-6.044 Y20.356
G0 X-6.081 Y20.306
G0 X-6.106 Y20.175
G0 X-6.106 Y20.100
G1 X-6.100 Y20.012
G1 X-6.075 Y19.844
G1 X-6.056 Y19.775
G1 X-6.013 Y19.725
G1 X-5.963 Y19.694
G1 X-5.769 Y19.681
G1 X-5.769 Y19.681
G1 X-5.581 Y19.756
G1 X-5.412 Y19.875
G1 X-5.344 Y19.950
G1 X-5.306 Y20.038
G1 X-5.300 Y20.131
G1 X-5.312 Y20.225
G1 X-5.344 Y20.319
G1 X-5.412 Y20.387
G1 X-5.506 Y20.413
G1 X-5.506 Y20.413
G1 X-5.644 Y20.381
G1 X-5.688 Y20.344
G0 X-5.719 Y20.288
G0 X-5.725 Y20.219
G1 X-5.719 Y20.137
G1 X-5.675 Y19.975
G1 X-5.644 Y19.906
G1 X-5.594 Y19.856
G1 X-5.537 Y19.825
G1 X-5.338 Y19.806
G1 X-5.338 Y19.806
G1 X-5.162 Y19.906
G1 X-5.088 Y19.969
G1 X-5.025 Y20.050
G1 X-5.006 Y20.144
G1 X-5.013 Y20.238
G1 X-5.044 Y20.325
G1 X-5.119 Y20.387
G1 X-5.213 Y20.413
G1 X-5.213 Y20.413
G1 X-5.344 Y20.375
G1 X-5.394 Y20.337
G0 X-5.419 Y20.281
G1 X-5.425 Y20.212
G1 X-5.388 Y20.056
G1 X-5.350 Y19.988
G1 X-5.306 Y19.938
G1 X-5.181 Y19.887
G1 X-5.044 Y19.881
G1 X-5.044 Y19.881
G1 X-4.869 Y19.988
G1 X-4.794 Y20.056
G1 X-4.744 Y20.144
G1 X-4.737 Y20.238
G1 X-4.769 Y20.325
G1 X-4.838 Y20.387
G1 X-4.931 Y20.413
G1 X-4.931 Y20.413
G1 X-5.069 Y20.381
G1 X-5.119 Y20.356
G0 X-5.144 Y20.319
G1 X-5.150 Y20.262
G1 X-5.106 Y20.125
G1 X-5.069 Y20.062
G1 X-5.019 Y20.012
G1 X-4.894 Y19.962
G1 X-4.756 Y19.956
G1 X-4.756 Y19.956
G1 X-4.594 Y20.069
G1 X-4.537 Y20.150
G1 X-4.525 Y20.244
G1 X-4.569 Y20.331
G1 X-4.644 Y20.394
G1 X-4.737 Y20.419
G1 X-4.737 Y20.419
G1 X-4.888 Y20.413
G1 X-5.037 Y20.375
G1 X-5.181 Y20.312
G1 X-5.312 Y20.231
G0 Z5.000
G0 X-5.312 Y20.231
G0 X-17.825 Y20.200
G1 Z-12.000
G1 X-17.825 Y20.200
G1 X-17.956 Y20.294
G1 X-18.100 Y20.369
G1 X-18.256 Y20.413
G1 X-18.413 Y20.413
G1 X-18.413 Y20.413
G1 X-19.069 Y20.406
G1 X-19.538 Y20.319
G1 X-19.725 Y20.250
G1 X-20.212 Y19.900
G1 X-20.288 Y19.831
G1 X-20.381 Y19.650
G1 X-20.406 Y19.550
G1 X-20.406 Y18.450
G1 X-20.406 Y18.450
G1 X-20.363 Y18.219
G1 X-20.306 Y18.113
G0 X-20.269 Y18.106
G0 X-20.194 Y18.163
G0 X-19.225 Y19.887
G1 X-19.181 Y19.962
G1 X-19.106 Y20.119
G1 X-19.087 Y20.188
G1 X-19.094 Y20.250
G1 X-19.125 Y20.300
G1 X-19.238 Y20.369
G1 X-19.462 Y20.413
G1 X-19.462 Y20.413
G1 X-19.931 Y20.406
G1 X-20.212 Y20.350
G1 X-20.306 Y20.319
G1 X-20.375 Y20.250
G1 X-20.406 Y20.156
G1 X-20.406 Y20.156
G1 X-20.387 Y20.113
G1 X-20.363 Y20.100
G1 X-20.288 Y20.144
G1 X-20.156 Y20.288
G1 X-20.144 Y20.331
G1 X-20.150 Y20.369
G1 X-20.212 Y20.413
G1 X-20.212 Y20.413
G1 X-20.306 Y20.375
G1 X-20.375 Y20.300
G1 X-20.375 Y20.300
G1 X-20.406 Y20.144
G1 X-20.406 Y19.988
G1 X-20.394 Y19.831
G1 X-20.375 Y19.675
G0 Z5.000
G0 X-20.375 Y19.675
G0 X-20.200 Y16.125
G1 Z-12.000
G1 X-20.200 Y16.125
G1 X-20.294 Y16.000
G1 X-20.363 Y15.863
G1 X-20.406 Y15.713
G1 X-20.406 Y15.562
G1 X-20.406 Y15.562
G1 X-20.400 Y14.762
G1 X-20.294 Y14.162
G1 X-20.225 Y13.969
G1 X-19.819 Y13.363
G1 X-19.544 Y13.050
G1 X-18.988 Y12.544
G1 X-18.344 Y12.144
G1 X-17.969 Y11.975
G1 X-17.337 Y11.787
G1 X-17.038 Y11.744
G1 X-16.938 Y11.744
G1 X-16.837 Y11.775
G1 X-16.756 Y11.838
G1 X-16.756 Y11.838
G1 X-16.644 Y12.037
G1 X-16.606 Y12.181
G1 X-16.606 Y12.319
G0 X-16.631 Y12.381
G0 X-16.831 Y12.575
G0 X-19.812 Y14.650
G1 X-19.881 Y14.700
G1 X-20.069 Y14.825
G1 X-20.131 Y14.844
G1 X-20.181 Y14.838
G1 X-20.231 Y14.812
G1 X-20.312 Y14.713
G1 X-20.381 Y14.506
G1 X-20.406 Y14.363
G1 X-20.406 Y14.363
G1 X-20.394 Y13.562
G1 X-20.294 Y13.062
G1 X-20.225 Y12.869
G1 X-19.819 Y12.262
G1 X-19.538 Y11.956
G1 X-18.956 Y11.475
G1 X-18.288 Y11.125
G1 X-17.756 Y10.981
G1 X-17.456 Y10.956
G1 X-17.356 Y10.988
G1 X-17.281 Y11.056
G1 X-17.281 Y11.056
G1 X-17.181 Y11.262
G1 X-17.150 Y11.475
G1 X-17.156 Y11.544
G0 X-17.181 Y11.606
G0 X-17.387 Y11.800
G0 X-19.812 Y13.463
G1 X-19.881 Y13.506
G1 X-20.069 Y13.625
G1 X-20.131 Y13.644
G1 X-20.181 Y13.644
G1 X-20.275 Y13.569
G1 X-20.344 Y13.450
G1 X-20.406 Y13.162
G1 X-20.406 Y13.162
G1 X-20.394 Y12.463
G1 X-20.319 Y12.062
G1 X-20.206 Y11.775
G1 X-19.762 Y11.200
G1 X-19.538 Y10.981
G1 X-18.931 Y10.537
G1 X-18.250 Y10.275
G1 X-17.950 Y10.238
G1 X-17.850 Y10.250
G1 X-17.756 Y10.287
G1 X-17.756 Y10.287
G1 X-17.663 Y10.494
G1 X-17.637 Y10.644
G1 X-17.650 Y10.781
G0 X-17.681 Y10.844
G0 X-17.887 Y11.037
G0 X-19.812 Y12.406
G1 X-19.881 Y12.450
G1 X-20.069 Y12.575
G1 X-20.131 Y12.594
G1 X-20.181 Y12.588
G1 X-20.231 Y12.562
G1 X-20.312 Y12.463
G1 X-20.381 Y12.256
G1 X-20.406 Y12.113
G1 X-20.406 Y12.113
G1 X-20.394 Y11.512
G1 X-20.319 Y11.113
G1 X-20.206 Y10.825
G1 X-19.887 Y10.412
G1 X-19.581 Y10.125
G1 X-18.944 Y9.719
G1 X-18.450 Y9.581
G1 X-18.250 Y9.569
G1 X-18.156 Y9.606
G1 X-18.156 Y9.606
G1 X-18.081 Y9.819
G1 X-18.062 Y9.969
G1 X-18.081 Y10.106
G0 X-18.113 Y10.162
G0 X-18.394 Y10.406
G0 X-19.819 Y11.363
G1 X-19.881 Y11.406
G1 X-20.069 Y11.525
G1 X-20.131 Y11.544
G1 X-20.181 Y11.544
G1 X-20.275 Y11.469
G1 X-20.344 Y11.350
G1 X-20.406 Y11.062
G1 X-20.406 Y11.062
G1 X-20.375 Y10.463
G1 X-20.300 Y10.162
G1 X-20.219 Y9.969
G1 X-19.956 Y9.644
G1 X-19.562 Y9.300
G1 X-18.875 Y8.988
G1 X-18.675 Y8.956
G1 X-18.575 Y8.956
G1 X-18.481 Y8.988
G1 X-18.406 Y9.056
G1 X-18.406 Y9.056
G1 X-18.337 Y9.350
G1 X-18.344 Y9.494
G1 X-18.369 Y9.562
G0 X-18.400 Y9.619
G0 X-18.688 Y9.863
G0 X-19.819 Y10.613
G1 X-19.881 Y10.656
G1 X-20.069 Y10.775
G1 X-20.131 Y10.794
G1 X-20.181 Y10.794
G1 X-20.275 Y10.719
G1 X-20.344 Y10.600
G1 X-20.406 Y10.312
G1 X-20.406 Y10.312
G1 X-20.400 Y9.812
G1 X-20.319 Y9.412
G1 X-20.238 Y9.219
G1 X-20.044 Y8.975
G1 X-19.731 Y8.700
G1 X-19.556 Y8.594
G1 X-18.831 Y8.394
G1 X-18.738 Y8.431
G1 X-18.675 Y8.506
G1 X-18.675 Y8.506
G1 X-18.619 Y8.725
G1 X-18.625 Y8.944
G1 X-18.650 Y9.012
G0 X-18.688 Y9.069
G0 X-19.794 Y9.744
G1 X-19.863 Y9.781
G1 X-20.062 Y9.887
G1 X-20.125 Y9.900
G1 X-20.181 Y9.894
G1 X-20.275 Y9.819
G1 X-20.344 Y9.700
G1 X-20.406 Y9.412
G1 X-20.406 Y9.412
G1 X-20.387 Y9.012
G1 X-20.312 Y8.713
G1 X-20.212 Y8.531
G1 X-19.994 Y8.300
G1 X-19.656 Y8.056
G1 X-19.469 Y7.963
G1 X-19.269 Y7.906
G1 X-19.069 Y7.888
G1 X-18.969 Y7.919
G1 X-18.894 Y7.987
G1 X-18.894 Y7.987
G1 X-18.837 Y8.206
G1 X-18.844 Y8.425
G1 X-18.869 Y8.494
G0 X-18.906 Y8.550
G0 X-19.806 Y9.137
G1 X-19.869 Y9.175
G1 X-20.062 Y9.287
G1 X-20.125 Y9.300
G1 X-20.181 Y9.294
G1 X-20.275 Y9.219
G1 X-20.344 Y9.100
G1 X-20.406 Y8.812
G1 X-20.406 Y8.812
G1 X-20.387 Y8.412
G1 X-20.312 Y8.113
G1 X-20.225 Y7.925
G1 X-20.081 Y7.769
G1 X-19.831 Y7.581
G1 X-19.650 Y7.487
G1 X-19.450 Y7.431
G1 X-19.250 Y7.419
G1 X-19.156 Y7.456
G1 X-19.087 Y7.531
G1 X-19.087 Y7.531
G1 X-19.031 Y7.750
G1 X-19.038 Y7.969
G1 X-19.062 Y8.037
G0 X-19.100 Y8.094
G0 X-19.788 Y8.537
G1 X-19.856 Y8.575
G1 X-20.050 Y8.681
G1 X-20.113 Y8.694
G1 X-20.169 Y8.688
G1 X-20.269 Y8.619
G1 X-20.344 Y8.500
G1 X-20.406 Y8.213
G1 X-20.406 Y8.213
G1 X-20.387 Y7.812
G1 X-20.312 Y7.513
G1 X-20.212 Y7.331
G1 X-19.969 Y7.144
G1 X-19.781 Y7.050
G1 X-19.481 Y6.987
G1 X-19.381 Y6.987
G1 X-19.294 Y7.031
G1 X-19.294 Y7.031
G1 X-19.238 Y7.250
G1 X-19.256 Y7.388
G0 X-19.288 Y7.444
G0 X-19.456 Y7.588
G0 X-19.881 Y7.825
G1 X-19.950 Y7.862
G1 X-20.150 Y7.963
G1 X-20.206 Y7.975
G1 X-20.262 Y7.969
G1 X-20.306 Y7.931
G1 X-20.363 Y7.819
G1 X-20.406 Y7.612
G1 X-20.406 Y7.612
G1 X-20.394 Y7.312
G1 X-20.350 Y7.112
G1 X-20.262 Y6.919
G1 X-20.200 Y6.838
G1 X-19.938 Y6.669
G1 X-19.644 Y6.588
G1 X-19.544 Y6.581
G1 X-19.450 Y6.619
G1 X-19.450 Y6.619
G1 X-19.406 Y6.838
G1 X-19.431 Y6.969
G0 X-19.469 Y7.025
G0 X-19.644 Y7.150
G0 X-19.856 Y7.250
G1 X-19.931 Y7.281
G1 X-20.137 Y7.369
G1 X-20.200 Y7.375
G1 X-20.256 Y7.362
G1 X-20.300 Y7.331
G1 X-20.363 Y7.219
G1 X-20.406 Y7.013
G1 X-20.406 Y7.013
G1 X-20.406 Y6.912
G1 X-20.363 Y6.713
G1 X-20.281 Y6.519
G1 X-20.219 Y6.431
G1 X-20.050 Y6.312
G1 X-19.856 Y6.237
G1 X-19.656 Y6.225
G1 X-19.562 Y6.269
G1 X-19.506 Y6.350
G1 X-19.506 Y6.350
G1 X-19.469 Y6.569
G1 X-19.481 Y6.644
G1 X-19.506 Y6.706
G0 X-19.544 Y6.756
G0 X-19.675 Y6.825
G0 X-19.825 Y6.875
G1 X-19.906 Y6.894
G1 X-20.125 Y6.944
G1 X-20.194 Y6.944
G1 X-20.250 Y6.925
G1 X-20.300 Y6.888
G1 X-20.363 Y6.775
G1 X-20.406 Y6.562
G1 X-20.406 Y6.562
G1 X-20.381 Y6.362
G1 X-20.306 Y6.169
G1 X-20.250 Y6.081
G1 X-20.175 Y6.013
G1 X-19.981 Y5.925
G1 X-19.881 Y5.900
G1 X-19.781 Y5.894
G1 X-19.688 Y5.925
G1 X-19.619 Y5.994
G1 X-19.619 Y5.994
G1 X-19.594 Y6.138
G1 X-19.606 Y6.200
G0 X-19.631 Y6.250
G0 X-19.731 Y6.325
G0 X-19.931 Y6.412
G1 X-20.006 Y6.438
G1 X-20.212 Y6.500
G1 X-20.275 Y6.500
G1 X-20.319 Y6.481
G1 X-20.356 Y6.444
G1 X-20.406 Y6.263
G1 X-20.406 Y6.263
G1 X-20.394 Y6.062
G1 X-20.331 Y5.862
G1 X-20.281 Y5.769
G1 X-20.212 Y5.688
G1 X-20.119 Y5.638
G1 X-20.019 Y5.606
G1 X-19.919 Y5.594
G1 X-19.819 Y5.600
G1 X-19.731 Y5.650
G1 X-19.731 Y5.650
G1 X-19.700 Y5.787
G1 X-19.712 Y5.850
G0 X-19.738 Y5.900
G0 X-19.844 Y5.969
G0 X-19.913 Y5.994
G1 X-19.988 Y6.013
G1 X-20.200 Y6.062
G1 X-20.262 Y6.056
G1 X-20.312 Y6.031
G1 X-20.350 Y5.994
G1 X-20.406 Y5.812
G1 X-20.406 Y5.812
G1 X-20.363 Y5.612
G1 X-20.325 Y5.519
G1 X-20.269 Y5.431
G1 X-20.188 Y5.362
G1 X-20.087 Y5.325
G1 X-19.988 Y5.306
G1 X-19.887 Y5.312
G1 X-19.806 Y5.369
G1 X-19.806 Y5.369
G1 X-19.788 Y5.513
G1 X-19.806 Y5.575
G0 X-19.850 Y5.625
G0 X-19.913 Y5.669
G1 X-19.981 Y5.700
G1 X-20.200 Y5.756
G1 X-20.262 Y5.756
G1 X-20.312 Y5.731
G1 X-20.350 Y5.694
G1 X-20.406 Y5.513
G1 X-20.406 Y5.513
G1 X-20.369 Y5.312
G1 X-20.325 Y5.219
G1 X-20.262 Y5.131
G1 X-20.181 Y5.069
G1 X-19.981 Y5.044
G1 X-19.887 Y5.088
G1 X-19.887 Y5.088
G1 X-19.869 Y5.231
G1 X-19.894 Y5.294
G0 X-19.938 Y5.344
G1 X-19.994 Y5.388
G1 X-20.200 Y5.456
G1 X-20.262 Y5.456
G1 X-20.312 Y5.431
G1 X-20.350 Y5.394
G1 X-20.406 Y5.213
G1 X-20.406 Y5.213
G1 X-20.356 Y5.013
G1 X-20.306 Y4.919
G1 X-20.238 Y4.844
G1 X-20.144 Y4.806
G1 X-20.044 Y4.800
G1 X-19.956 Y4.844
G1 X-19.956 Y4.844
G1 X-19.931 Y4.987
G1 X-19.944 Y5.044
G0 X-19.969 Y5.088
G1 X-20.012 Y5.125
G1 X-20.131 Y5.162
G1 X-20.256 Y5.162
G1 X-20.306 Y5.138
G1 X-20.375 Y5.037
G1 X-20.406 Y4.912
G1 X-20.406 Y4.912
G1 X-20.331 Y4.725
G1 X-20.269 Y4.644
G1 X-20.175 Y4.600
G1 X-20.075 Y4.594
G1 X-19.988 Y4.650
G1 X-19.988 Y4.650
G1 X-19.994 Y4.706
G0 X-20.025 Y4.756
G1 X-20.069 Y4.794
G1 X-20.250 Y4.862
G1 X-20.306 Y4.856
G1 X-20.350 Y4.838
G1 X-20.406 Y4.763
G1 X-20.406 Y4.763
G1 X-20.387 Y4.662
G1 X-20.325 Y4.581
G1 X-20.238 Y4.525
G1 X-20.137 Y4.531
G1 X-20.137 Y4.531
G1 X-20.106 Y4.537
G1 X-20.100 Y4.537
G1 X-20.206 Y4.506
G1 X-20.219 Y4.487
G1 X-20.188 Y4.450
G1 X-20.188 Y4.450
G1 X-20.031 Y4.494
G1 X-19.950 Y4.575
G1 X-19.875 Y4.744
G1 X-19.644 Y5.650
G1 X-19.356 Y6.581
G1 X-19.069 Y7.369
G1 X-18.606 Y8.475
G1 X-18.056 Y9.594
G1 X-17.444 Y10.662
G1 X-16.762 Y11.700
G1 X-16.012 Y12.706
G1 X-15.131 Y13.744
G1 X-14.375 Y14.537
G1 X-13.475 Y15.369
G1 X-12.419 Y16.231
G1 X-11.550 Y16.869
G1 X-10.463 Y17.569
G1 X-9.463 Y18.125
G1 X-8.787 Y18.462
G1 X-7.731 Y18.925
G1 X-6.569 Y19.363
G1 X-5.419 Y19.712
G1 X-4.606 Y19.931
G1 X-4.506 Y20.006
G1 X-4.450 Y20.150
G1 X-4.444 Y20.212
G1 X-4.519 Y20.387
G1 X-4.556 Y20.425
G1 X-4.675 Y20.481
G1 X-4.787 Y20.494
G1 X-20.188 Y20.488
G1 X-20.300 Y20.462
G1 X-20.387 Y20.406
G1 X-20.425 Y20.363
G1 X-20.475 Y20.250
G1 X-20.488 Y20.163
G1 X-20.481 Y4.737
G1 X-20.456 Y4.625
G1 X-20.400 Y4.544
G1 X-20.356 Y4.506
G1 X-20.244 Y4.456
G1 X-20.188 Y4.450
G1 X-20.188 Y4.450
G0 Z5.000
(Helix to depth: -12.000000)
G0 Z5.000
G0 X19.172 Y17.183 Z5.000
G0 X19.172 Y17.183 Z3.000
G1 X19.172 Y17.183 Z0.000
G1 X19.172 Y17.183 Z0.000
G1 X19.083 Y17.614 Z-0.039
G1 X18.913 Y18.018 Z-0.077
G1 X18.666 Y18.382 Z-0.116
G1 X18.354 Y18.690 Z-0.155
G1 X17.987 Y18.932 Z-0.193
G1 X17.581 Y19.098 Z-0.232
G1 X17.149 Y19.181 Z-0.271
G1 X16.710 Y19.178 Z-0.309
G1 X16.280 Y19.089 Z-0.348
G1 X15.875 Y18.919 Z-0.387
G1 X15.512 Y18.673 Z-0.425
G1 X15.203 Y18.360 Z-0.464
G1 X14.962 Y17.994 Z-0.502
G1 X14.796 Y17.587 Z-0.541
G1 X14.713 Y17.156 Z-0.580
G1 X14.716 Y16.717 Z-0.618
G1 X14.804 Y16.286 Z-0.657
G1 X14.975 Y15.882 Z-0.696
G1 X15.221 Y15.518 Z-0.734
G1 X15.534 Y15.210 Z-0.773
G1 X15.900 Y14.968 Z-0.812
G1 X16.307 Y14.802 Z-0.850
G1 X16.738 Y14.719 Z-0.889
G1 X17.177 Y14.722 Z-0.928
G1 X17.607 Y14.811 Z-0.966
G1 X18.012 Y14.981 Z-1.005
G1 X18.376 Y15.227 Z-1.044
G1 X18.684 Y15.540 Z-1.082
G1 X18.926 Y15.906 Z-1.121
G1 X19.091 Y16.313 Z-1.160
G1 X19.174 Y16.744 Z-1.198
G1 X19.172 Y17.183 Z-1.237
G1 X19.083 Y17.614 Z-1.275
G1 X18.913 Y18.018 Z-1.314
G1 X18.666 Y18.382 Z-1.353
G1 X18.354 Y18.690 Z-1.391
G1 X17.987 Y18.932 Z-1.430
G1 X17.581 Y19.098 Z-1.469
G1 X17.149 Y19.181 Z-1.507
G1 X16.710 Y19.178 Z-1.546
G1 X16.280 Y19.089 Z-1.585
G1 X15.875 Y18.919 Z-1.623
G1 X15.512 Y18.673 Z-1.662
G1 X15.203 Y18.360 Z-1.701
G1 X14.962 Y17.994 Z-1.739
G1 X14.796 Y17.587 Z-1.778
G1 X14.713 Y17.156 Z-1.817
G1 X14.716 Y16.717 Z-1.855
G1 X14.804 Y16.286 Z-1.894
G1 X14.975 Y15.882 Z-1.933
G1 X15.221 Y15.518 Z-1.971
G1 X15.534 Y15.210 Z-2.010
G1 X15.900 Y14.968 Z-2.049
G1 X16.307 Y14.802 Z-2.087
G1 X16.738 Y14.719 Z-2.126
G1 X17.177 Y14.722 Z-2.164
G1 X17.607 Y14.811 Z-2.203
G1 X18.012 Y14.981 Z-2.242
G1 X18.376 Y15.227 Z-2.280
G1 X18.684 Y15.540 Z-2.319
G1 X18.926 Y15.906 Z-2.358
G1 X19.091 Y16.313 Z-2.396
G1 X19.174 Y16.744 Z-2.435
G1 X19.172 Y17.183 Z-2.474
G1 X19.083 Y17.614 Z-2.512
G1 X18.913 Y18.018 Z-2.551
G1 X18.666 Y18.382 Z-2.590
G1 X18.354 Y18.690 Z-2.628
G1 X17.987 Y18.932 Z-2.667
G1 X17.581 Y19.098 Z-2.706
G1 X17.149 Y19.181 Z-2.744
G1 X16.710 Y19.178 Z-2.783
G1 X16.280 Y19.089 Z-2.822
G1 X15.875 Y18.919 Z-2.860
G1 X15.512 Y18.673 Z-2.899
G1 X15.203 Y18.360 Z-2.937
G1 X14.962 Y17.994 Z-2.976
G1 X14.796 Y17.587 Z-3.015
G1 X14.713 Y17.156 Z-3.053
G1 X14.716 Y16.717 Z-3.092
G1 X14.804 Y16.286 Z-3.131
G1 X14.975 Y15.882 Z-3.169
G1 X15.221 Y15.518 Z-3.208
G1 X15.534 Y15.210 Z-3.247
G1 X15.900 Y14.968 Z-3.285
G1 X16.307 Y14.802 Z-3.324
G1 X16.738 Y14.719 Z-3.363
G1 X17.177 Y14.722 Z-3.401
G1 X17.607 Y14.811 Z-3.440
G1 X18.012 Y14.981 Z-3.479
G1 X18.376 Y15.227 Z-3.517
G1 X18.684 Y15.540 Z-3.556
G1 X18.926 Y15.906 Z-3.595
G1 X19.091 Y16.313 Z-3.633
G1 X19.174 Y16.744 Z-3.672
G1 X19.172 Y17.183 Z-3.711
G1 X19.083 Y17.614 Z-3.749
G1 X18.913 Y18.018 Z-3.788
G1 X18.666 Y18.382 Z-3.826
G1 X18.354 Y18.690 Z-3.865
G1 X17.987 Y18.932 Z-3.904
G1 X17.581 Y19.098 Z-3.942
G1 X17.149 Y19.181 Z-3.981
G1 X16.710 Y19.178 Z-4.020
G1 X16.280 Y19.089 Z-4.058
G1 X15.875 Y18.919 Z-4.097
G1 X15.512 Y18.673 Z-4.136
G1 X15.203 Y18.360 Z-4.174
G1 X14.962 Y17.994 Z-4.213
G1 X14.796 Y17.587 Z-4.252
G1 X14.713 Y17.156 Z-4.290
G1 X14.716 Y16.717 Z-4.329
G1 X14.804 Y16.286 Z-4.368
G1 X14.975 Y15.882 Z-4.406
G1 X15.221 Y15.518 Z-4.445
G1 X15.534 Y15.210 Z-4.484
G1 X15.900 Y14.968 Z-4.522
G1 X16.307 Y14.802 Z-4.561
G1 X16.738 Y14.719 Z-4.600
G1 X17.177 Y14.722 Z-4.638
G1 X17.607 Y14.811 Z-4.677
G1 X18.012 Y14.981 Z-4.715
G1 X18.376 Y15.227 Z-4.754
G1 X18.684 Y15.540 Z-4.793
G1 X18.926 Y15.906 Z-4.831
G1 X19.091 Y16.313 Z-4.870
G1 X19.174 Y16.744 Z-4.909
G1 X19.172 Y17.183 Z-4.947
G1 X19.083 Y17.614 Z-4.986
G1 X18.913 Y18.018 Z-5.025
G1 X18.666 Y18.382 Z-5.063
G1 X18.354 Y18.690 Z-5.102
G1 X17.987 Y18.932 Z-5.141
G1 X17.581 Y19.098 Z-5.179
G1 X17.149 Y19.181 Z-5.218
G1 X16.710 Y19.178 Z-5.257
G1 X16.280 Y19.089 Z-5.295
G1 X15.875 Y18.919 Z-5.334
G1 X15.512 Y18.673 Z-5.373
G1 X15.203 Y18.360 Z-5.411
G1 X14.962 Y17.994 Z-5.450
G1 X14.796 Y17.587 Z-5.488
G1 X14.713 Y17.156 Z-5.527
G1 X14.716 Y16.717 Z-5.566
G1 X14.804 Y16.286 Z-5.604
G1 X14.975 Y15.882 Z-5.643
G1 X15.221 Y15.518 Z-5.682
G1 X15.534 Y15.210 Z-5.720
G1 X15.900 Y14.968 Z-5.759
G1 X16.307 Y14.802 Z-5.798
G1 X16.738 Y14.719 Z-5.836
G1 X17.177 Y14.722 Z-5.875
G1 X17.607 Y14.811 Z-5.914
G1 X18.012 Y14.981 Z-5.952
G1 X18.376 Y15.227 Z-5.991
G1 X18.684 Y15.540 Z-6.030
G1 X18.926 Y15.906 Z-6.068
G1 X19.091 Y16.313 Z-6.107
G1 X19.174 Y16.744 Z-6.146
G1 X19.172 Y17.183 Z-6.184
G1 X19.083 Y17.614 Z-6.223
G1 X18.913 Y18.018 Z-6.262
G1 X18.666 Y18.382 Z-6.300
G1 X18.354 Y18.690 Z-6.339
G1 X17.987 Y18.932 Z-6.377
G1 X17.581 Y19.098 Z-6.416
G1 X17.149 Y19.181 Z-6.455
G1 X16.710 Y19.178 Z-6.493
G1 X16.280 Y19.089 Z-6.532
G1 X15.875 Y18.919 Z-6.571
G1 X15.512 Y18.673 Z-6.609
G1 X15.203 Y18.360 Z-6.648
G1 X14.962 Y17.994 Z-6.687
G1 X14.796 Y17.587 Z-6.725
G1 X14.713 Y17.156 Z-6.764
G1 X14.716 Y16.717 Z-6.803
G1 X14.804 Y16.286 Z-6.841
G1 X14.975 Y15.882 Z-6.880
G1 X15.221 Y15.518 Z-6.919
G1 X15.534 Y15.210 Z-6.957
G1 X15.900 Y14.968 Z-6.996
G1 X16.307 Y14.802 Z-7.035
G1 X16.738 Y14.719 Z-7.073
G1 X17.177 Y14.722 Z-7.112
G1 X17.607 Y14.811 Z-7.150
G1 X18.012 Y14.981 Z-7.189
G1 X18.376 Y15.227 Z-7.228
G1 X18.684 Y15.540 Z-7.266
G1 X18.926 Y15.906 Z-7.305
G1 X19.091 Y16.313 Z-7.344
G1 X19.174 Y16.744 Z-7.382
G1 X19.172 Y17.183 Z-7.421
G1 X19.083 Y17.614 Z-7.460
G1 X18.913 Y18.018 Z-7.498
G1 X18.666 Y18.382 Z-7.537
G1 X18.354 Y18.690 Z-7.576
G1 X17.987 Y18.932 Z-7.614
G1 X17.581 Y19.098 Z-7.653
G1 X17.149 Y19.181 Z-7.692
G1 X16.710 Y19.178 Z-7.730
G1 X16.280 Y19.089 Z-7.769
G1 X15.875 Y18.919 Z-7.808
G1 X15.512 Y18.673 Z-7.846
G1 X15.203 Y18.360 Z-7.885
G1 X14.962 Y17.994 Z-7.924
G1 X14.796 Y17.587 Z-7.962
G1 X14.713 Y17.156 Z-8.001
G1 X14.716 Y16.717 Z-8.039
G1 X14.804 Y16.286 Z-8.078
G1 X14.975 Y15.882 Z-8.117
G1 X15.221 Y15.518 Z-8.155
G1 X15.534 Y15.210 Z-8.194
G1 X15.900 Y14.968 Z-8.233
G1 X16.307 Y14.802 Z-8.271
G1 X16.738 Y14.719 Z-8.310
G1 X17.177 Y14.722 Z-8.349
G1 X17.607 Y14.811 Z-8.387
G1 X18.012 Y14.981 Z-8.426
G1 X18.376 Y15.227 Z-8.465
G1 X18.684 Y15.540 Z-8.503
G1 X18.926 Y15.906 Z-8.542
G1 X19.091 Y16.313 Z-8.581
G1 X19.174 Y16.744 Z-8.619
G1 X19.172 Y17.183 Z-8.658
G1 X19.083 Y17.614 Z-8.697
G1 X18.913 Y18.018 Z-8.735
G1 X18.666 Y18.382 Z-8.774
G1 X18.354 Y18.690 Z-8.812
G1 X17.987 Y18.932 Z-8.851
G1 X17.581 Y19.098 Z-8.890
G1 X17.149 Y19.181 Z-8.928
G1 X16.710 Y19.178 Z-8.967
G1 X16.280 Y19.089 Z-9.006
G1 X15.875 Y18.919 Z-9.044
G1 X15.512 Y18.673 Z-9.083
G1 X15.203 Y18.360 Z-9.122
G1 X14.962 Y17.994 Z-9.160
G1 X14.796 Y17.587 Z-9.199
G1 X14.713 Y17.156 Z-9.238
G1 X14.716 Y16.717 Z-9.276
G1 X14.804 Y16.286 Z-9.315
G1 X14.975 Y15.882 Z-9.354
G1 X15.221 Y15.518 Z-9.392
G1 X15.534 Y15.210 Z-9.431
G1 X15.900 Y14.968 Z-9.470
G1 X16.307 Y14.802 Z-9.508
G1 X16.738 Y14.719 Z-9.547
G1 X17.177 Y14.722 Z-9.586
G1 X17.607 Y14.811 Z-9.624
G1 X18.012 Y14.981 Z-9.663
G1 X18.376 Y15.227 Z-9.701
G1 X18.684 Y15.540 Z-9.740
G1 X18.926 Y15.906 Z-9.779
G1 X19.091 Y16.313 Z-9.817
G1 X19.174 Y16.744 Z-9.856
G1 X19.172 Y17.183 Z-9.895
G1 X19.083 Y17.614 Z-9.933
G1 X18.913 Y18.018 Z-9.972
G1 X18.666 Y18.382 Z-10.011
G1 X18.354 Y18.690 Z-10.049
G1 X17.987 Y18.932 Z-10.088
G1 X17.581 Y19.098 Z-10.127
G1 X17.149 Y19.181 Z-10.165
G1 X16.710 Y19.178 Z-10.204
G1 X16.280 Y19.089 Z-10.243
G1 X15.875 Y18.919 Z-10.281
G1 X15.512 Y18.673 Z-10.320
G1 X15.203 Y18.360 Z-10.359
G1 X14.962 Y17.994 Z-10.397
G1 X14.796 Y17.587 Z-10.436
G1 X14.713 Y17.156 Z-10.475
G1 X14.716 Y16.717 Z-10.513
G1 X14.804 Y16.286 Z-10.552
G1 X14.975 Y15.882 Z-10.590
G1 X15.221 Y15.518 Z-10.629
G1 X15.534 Y15.210 Z-10.668
G1 X15.900 Y14.968 Z-10.706
G1 X16.307 Y14.802 Z-10.745
G1 X16.738 Y14.719 Z-10.784
G1 X17.177 Y14.722 Z-10.822
G1 X17.607 Y14.811 Z-10.861
G1 X18.012 Y14.981 Z-10.900
G1 X18.376 Y15.227 Z-10.938
G1 X18.684 Y15.540 Z-10.977
G1 X18.926 Y15.906 Z-11.016
G1 X19.091 Y16.313 Z-11.054
G1 X19.174 Y16.744 Z-11.093
G1 X19.172 Y17.183 Z-11.132
G1 X19.083 Y17.614 Z-11.170
G1 X18.913 Y18.018 Z-11.209
G1 X18.666 Y18.382 Z-11.248
G1 X18.354 Y18.690 Z-11.286
G1 X17.987 Y18.932 Z-11.325
G1 X17.581 Y19.098 Z-11.363
G1 X17.149 Y19.181 Z-11.402
G1 X16.710 Y19.178 Z-11.441
G1 X16.280 Y19.089 Z-11.479
G1 X15.875 Y18.919 Z-11.518
G1 X15.512 Y18.673 Z-11.557
G1 X15.203 Y18.360 Z-11.595
G1 X14.962 Y17.994 Z-11.634
G1 X14.796 Y17.587 Z-11.673
G1 X14.713 Y17.156 Z-11.711
G1 X14.716 Y16.717 Z-11.750
G1 X14.804 Y16.286 Z-11.789
G1 X14.975 Y15.882 Z-11.827
G1 X15.221 Y15.518 Z-11.866
G1 X15.534 Y15.210 Z-11.905
G1 X15.900 Y14.968 Z-11.943
G1 X16.307 Y14.802 Z-11.982
G1 X16.738 Y14.719 Z-12.000
G1 X17.177 Y14.722 Z-12.000
G1 X17.607 Y14.811 Z-12.000
G1 X18.012 Y14.981 Z-12.000
G1 X18.376 Y15.227 Z-12.000
G1 X18.684 Y15.540 Z-12.000
G1 X18.926 Y15.906 Z-12.000
G1 X19.091 Y16.313 Z-12.000
G1 X19.174 Y16.744 Z-12.000
G1 X19.172 Y17.183 Z-12.000
G1 X19.083 Y17.614 Z-12.000
G1 X18.913 Y18.018 Z-12.000
G1 X18.666 Y18.382 Z-12.000
G1 X18.354 Y18.690 Z-12.000
G1 X17.987 Y18.932 Z-12.000
G1 X17.581 Y19.098 Z-12.000
G1 X17.149 Y19.181 Z-12.000
G1 X16.710 Y19.178 Z-12.000
G1 X16.280 Y19.089 Z-12.000
G1 X15.875 Y18.919 Z-12.000
G1 X15.512 Y18.673 Z-12.000
G1 X15.203 Y18.360 Z-12.000
G1 X14.962 Y17.994 Z-12.000
G1 X14.796 Y17.587 Z-12.000
G1 X14.713 Y17.156 Z-12.000
G1 X14.716 Y16.717 Z-12.000
G1 X14.804 Y16.286 Z-12.000
G1 X14.975 Y15.882 Z-12.000
G1 X15.221 Y15.518 Z-12.000
G1 X15.534 Y15.210 Z-12.000
G1 X15.900 Y14.968 Z-12.000
G1 X16.307 Y14.802 Z-12.000
(Adaptive - depth: -12.000000)
G1 X16.944 Y14.700
G1 X17.087 Y14.562
G1 X17.356 Y14.450
G1 X17.637 Y14.394
G1 X17.731 Y14.387
G1 X18.456 Y14.556
G1 X18.719 Y14.694
G1 X19.081 Y14.975
G1 X19.344 Y15.262
G1 X19.581 Y15.606
G1 X19.744 Y15.956
G1 X19.869 Y16.425
G1 X19.919 Y17.081
G1 X19.856 Y17.550
G1 X19.619 Y18.194
G1 X19.250 Y18.844
G1 X18.800 Y19.306
G1 X18.569 Y19.469
G1 X18.350 Y19.594
G1 X18.044 Y19.731
G1 X17.544 Y19.850
G1 X16.744 Y19.900
G1 X16.244 Y19.837
G1 X15.744 Y19.675
G1 X15.556 Y19.587
G1 X14.925 Y19.181
G1 X14.525 Y18.762
G1 X14.356 Y18.519
G1 X14.219 Y18.275
G1 X14.081 Y17.956
G1 X13.956 Y17.519
G1 X13.894 Y17.100
G1 X13.900 Y16.700
G1 X13.944 Y16.363
G1 X14.175 Y15.613
G1 X14.356 Y15.250
G1 X14.656 Y14.844
G1 X15.400 Y14.162
G1 X16.169 Y13.713
G1 X16.444 Y13.606
G1 X17.181 Y13.475
G1 X17.781 Y13.481
G1 X18.119 Y13.537
G1 X18.413 Y13.613
G1 X18.762 Y13.750
G1 X19.144 Y13.950
G1 X19.512 Y14.206
G1 X20.062 Y14.787
G1 X20.275 Y15.113
G1 X20.413 Y15.575
G1 X20.400 Y17.919
G1 X20.294 Y18.481
G1 X20.231 Y18.669
G1 X19.925 Y19.169
G1 X19.600 Y19.550
G1 X19.050 Y20.062
G1 X18.600 Y20.288
G1 X18.100 Y20.413
G1 X15.900 Y20.394
G1 X15.300 Y20.281
G1 X14.919 Y20.125
G1 X14.238 Y19.637
G1 X13.669 Y18.994
G1 X13.319 Y18.381
G1 X13.113 Y17.769
G1 X13.037 Y17.344
G1 X13.000 Y16.575
G1 X13.062 Y15.975
G1 X13.188 Y15.706
G1 X15.338 Y13.637
G1 X15.731 Y13.188
G1 X16.031 Y12.925
G1 X16.281 Y12.762
G1 X16.750 Y12.613
G1 X17.312 Y12.519
G1 X18.056 Y12.562
G1 X18.675 Y12.706
G1 X19.031 Y12.838
G1 X19.350 Y12.988
G1 X20.031 Y13.425
G1 X20.250 Y13.613
G1 X20.363 Y13.769
G1 X20.400 Y13.856
G1 X20.419 Y13.950
G1 X20.419 Y14.512
G1 X20.419 Y14.512
G1 X20.375 Y14.731
G1 X20.281 Y14.944
G1 X20.250 Y15.012
G0 X20.231 Y15.081
G0 X20.200 Y15.606
G0 X20.200 Y17.256
G1 X20.200 Y17.337
G1 X20.219 Y17.637
G1 X20.381 Y18.069
G1 X20.419 Y18.306
G1 X20.419 Y18.306
G1 X20.406 Y19.056
G1 X20.306 Y19.525
G1 X20.238 Y19.712
G1 X19.950 Y20.113
G1 X19.812 Y20.256
G1 X19.731 Y20.319
G1 X19.550 Y20.400
G1 X19.150 Y20.413
G1 X19.150 Y20.413
G1 X18.919 Y20.369
G1 X18.806 Y20.312
G0 X18.794 Y20.269
G0 X18.831 Y20.181
G0 X19.950 Y19.194
G1 X20.006 Y19.144
G1 X20.181 Y19.006
G1 X20.231 Y18.988
G1 X20.281 Y18.988
G1 X20.319 Y19.019
G1 X20.381 Y19.131
G1 X20.419 Y19.356
G1 X20.419 Y19.356
G1 X20.413 Y19.919
G1 X20.356 Y20.200
G1 X20.325 Y20.294
G1 X20.256 Y20.363
G1 X20.169 Y20.413
G1 X20.069 Y20.413
G1 X20.069 Y20.413
G1 X20.038 Y20.394
G1 X20.031 Y20.363
G1 X20.225 Y20.219
G1 X20.325 Y20.175
G1 X20.363 Y20.188
G1 X20.406 Y20.256
G1 X20.406 Y20.256
G1 X20.356 Y20.344
G1 X20.275 Y20.400
G1 X20.275 Y20.400
G1 X20.119 Y20.413
G1 X19.962 Y20.400
G1 X19.806 Y20.363
G1 X19.656 Y20.306
G0 Z5.000
G0 X19.656 Y20.306
G0 X16.094 Y20.206
G1 Z-12.000
G1 X16.094 Y20.206
G1 X15.969 Y20.300
G1 X15.831 Y20.369
G1 X15.681 Y20.413
G1 X15.531 Y20.413
G1 X15.531 Y20.413
G1 X14.731 Y20.406
G1 X14.231 Y20.312
G1 X14.031 Y20.244
G1 X13.506 Y19.900
G1 X13.125 Y19.544
G1 X12.669 Y18.944
G1 X12.363 Y18.331
G1 X12.238 Y17.988
G1 X12.150 Y17.644
G1 X12.044 Y16.819
G1 X12.050 Y16.719
G1 X12.075 Y16.619
G1 X12.131 Y16.538
G1 X12.131 Y16.538
G1 X12.331 Y16.425
G1 X12.475 Y16.387
G1 X12.613 Y16.387
G0 X12.669 Y16.413
G0 X12.806 Y16.562
G0 X14.656 Y19.794
G1 X14.700 Y19.869
G1 X14.806 Y20.069
G1 X14.819 Y20.131
G1 X14.812 Y20.188
G1 X14.738 Y20.281
G1 X14.619 Y20.350
G1 X14.331 Y20.413
G1 X14.331 Y20.413
G1 X13.731 Y20.406
G1 X13.231 Y20.312
G1 X13.031 Y20.244
G1 X12.600 Y19.950
G1 X12.219 Y19.594
G1 X11.756 Y19.000
G1 X11.425 Y18.363
G1 X11.250 Y17.825
G1 X11.188 Y17.325
G1 X11.213 Y17.225
G1 X11.269 Y17.144
G1 X11.269 Y17.144
G1 X11.469 Y17.038
G1 X11.613 Y17.000
G1 X11.750 Y17.006
G0 X11.806 Y17.031
G0 X11.950 Y17.181
G0 X13.594 Y19.812
G1 X13.637 Y19.881
G1 X13.750 Y20.075
G1 X13.769 Y20.131
G1 X13.762 Y20.188
G1 X13.688 Y20.281
G1 X13.569 Y20.350
G1 X13.281 Y20.413
G1 X13.281 Y20.413
G1 X12.781 Y20.406
G1 X12.281 Y20.306
G1 X12.088 Y20.238
G1 X11.656 Y19.944
G1 X11.281 Y19.581
G1 X10.831 Y18.975
G1 X10.525 Y18.288
G1 X10.450 Y17.887
G1 X10.444 Y17.788
G1 X10.469 Y17.688
G1 X10.531 Y17.613
G1 X10.531 Y17.613
G1 X10.744 Y17.531
G1 X10.963 Y17.506
G1 X11.031 Y17.525
G0 X11.094 Y17.556
G0 X11.281 Y17.762
G0 X12.681 Y19.819
G1 X12.725 Y19.887
G1 X12.844 Y20.075
G1 X12.863 Y20.137
G1 X12.863 Y20.188
G1 X12.787 Y20.281
G1 X12.669 Y20.350
G1 X12.381 Y20.413
G1 X12.381 Y20.413
G1 X11.781 Y20.400
G1 X11.281 Y20.288
G1 X11.088 Y20.206
G1 X10.594 Y19.819
G1 X10.381 Y19.594
G1 X9.956 Y18.969
G1 X9.775 Y18.381
G1 X9.762 Y18.181
G1 X9.787 Y18.081
G1 X9.850 Y18.000
G1 X9.850 Y18.000
G1 X10.062 Y17.919
G1 X10.281 Y17.894
G1 X10.350 Y17.913
G0 X10.412 Y17.944
G0 X10.606 Y18.150
G0 X11.775 Y19.825
G1 X11.819 Y19.887
G1 X11.944 Y20.075
G1 X11.963 Y20.137
G1 X11.956 Y20.188
G1 X11.931 Y20.238
G1 X11.831 Y20.319
G1 X11.625 Y20.387
G1 X11.481 Y20.413
G1 X11.481 Y20.413
G1 X10.881 Y20.400
G1 X10.381 Y20.288
G1 X10.188 Y20.200
G1 X9.863 Y19.938
G1 X9.519 Y19.544
G1 X9.181 Y18.869
G1 X9.144 Y18.569
G1 X9.144 Y18.469
G1 X9.181 Y18.375
G1 X9.181 Y18.375
G1 X9.394 Y18.300
G1 X9.544 Y18.281
G1 X9.681 Y18.300
G0 X9.744 Y18.331
G0 X9.994 Y18.606
G0 X10.869 Y19.831
G1 X10.912 Y19.894
G1 X11.044 Y20.081
G1 X11.062 Y20.137
G1 X11.056 Y20.194
G1 X11.031 Y20.238
G1 X10.931 Y20.319
G1 X10.725 Y20.387
G1 X10.581 Y20.413
G1 X10.581 Y20.413
G1 X10.081 Y20.406
G1 X9.781 Y20.350
G1 X9.581 Y20.288
G1 X9.400 Y20.188
G1 X9.019 Y19.837
G1 X8.831 Y19.587
G1 X8.569 Y18.881
G1 X8.562 Y18.781
G1 X8.594 Y18.681
G1 X8.656 Y18.606
G1 X8.656 Y18.606
G1 X8.869 Y18.538
G1 X9.019 Y18.525
G1 X9.156 Y18.550
G0 X9.213 Y18.581
G0 X9.494 Y18.962
G0 X10.006 Y19.806
G1 X10.044 Y19.875
G1 X10.156 Y20.069
G1 X10.169 Y20.131
G1 X10.162 Y20.188
G1 X10.088 Y20.281
G1 X9.969 Y20.350
G1 X9.681 Y20.413
G1 X9.681 Y20.413
G1 X9.181 Y20.381
G1 X8.881 Y20.300
G1 X8.700 Y20.200
G1 X8.469 Y19.988
G1 X8.219 Y19.650
G1 X8.131 Y19.462
G1 X8.056 Y19.163
G1 X8.044 Y18.962
G1 X8.088 Y18.869
G1 X8.088 Y18.869
G1 X8.306 Y18.806
G1 X8.450 Y18.794
G1 X8.594 Y18.825
G0 X8.650 Y18.863
G0 X9.256 Y19.812
G1 X9.300 Y19.875
G1 X9.406 Y20.069
G1 X9.419 Y20.131
G1 X9.412 Y20.188
G1 X9.338 Y20.281
G1 X9.219 Y20.350
G1 X8.931 Y20.413
G1 X8.931 Y20.413
G1 X8.531 Y20.394
G1 X8.231 Y20.319
G1 X8.050 Y20.219
G1 X7.775 Y19.906
G1 X7.625 Y19.631
G1 X7.550 Y19.331
G1 X7.544 Y19.231
G1 X7.569 Y19.131
G1 X7.625 Y19.050
G1 X7.625 Y19.050
G1 X7.844 Y18.994
G1 X8.062 Y19.000
G1 X8.131 Y19.025
G0 X8.188 Y19.062
G0 X8.662 Y19.806
G1 X8.700 Y19.875
G1 X8.806 Y20.069
G1 X8.819 Y20.131
G1 X8.812 Y20.188
G1 X8.738 Y20.281
G1 X8.619 Y20.350
G1 X8.331 Y20.413
G1 X8.331 Y20.413
G1 X7.931 Y20.394
G1 X7.631 Y20.306
G1 X7.456 Y20.194
G1 X7.269 Y19.950
G1 X7.175 Y19.762
G1 X7.119 Y19.562
G1 X7.100 Y19.363
G1 X7.138 Y19.269
G1 X7.138 Y19.269
G1 X7.356 Y19.212
G1 X7.494 Y19.231
G0 X7.550 Y19.256
G0 X7.688 Y19.419
G0 X7.950 Y19.887
G1 X7.981 Y19.956
G1 X8.081 Y20.156
G1 X8.094 Y20.212
G1 X8.088 Y20.269
G1 X8.050 Y20.312
G1 X7.938 Y20.369
G1 X7.731 Y20.413
G1 X7.731 Y20.413
G1 X7.431 Y20.400
G1 X7.231 Y20.350
G1 X7.044 Y20.262
G1 X6.963 Y20.194
G1 X6.787 Y19.938
G1 X6.713 Y19.744
G1 X6.688 Y19.544
G1 X6.713 Y19.444
G1 X6.775 Y19.369
G1 X6.775 Y19.369
G1 X6.994 Y19.325
G1 X7.125 Y19.344
G0 X7.181 Y19.381
G0 X7.263 Y19.494
G0 X7.406 Y19.856
G1 X7.431 Y19.931
G1 X7.506 Y20.144
G1 X7.506 Y20.206
G1 X7.494 Y20.262
G1 X7.456 Y20.306
G1 X7.344 Y20.369
G1 X7.131 Y20.413
G1 X7.131 Y20.413
G1 X6.931 Y20.394
G1 X6.731 Y20.337
G1 X6.550 Y20.238
G1 X6.481 Y20.156
G1 X6.388 Y19.975
G1 X6.331 Y19.775
G1 X6.325 Y19.675
G1 X6.344 Y19.575
G1 X6.400 Y19.494
G1 X6.400 Y19.494
G1 X6.619 Y19.456
G1 X6.756 Y19.488
G0 X6.806 Y19.525
G0 X6.881 Y19.637
G0 X6.963 Y19.850
G1 X6.987 Y19.919
G1 X7.056 Y20.137
G1 X7.056 Y20.200
G1 X7.037 Y20.256
G1 X7.006 Y20.306
G1 X6.888 Y20.369
G1 X6.681 Y20.413
G1 X6.681 Y20.413
G1 X6.481 Y20.387
G1 X6.287 Y20.319
G1 X6.200 Y20.269
G1 X6.125 Y20.200
G1 X6.069 Y20.113
G1 X6.000 Y19.919
G1 X5.981 Y19.819
G1 X5.981 Y19.719
G1 X6.025 Y19.631
G1 X6.025 Y19.631
G1 X6.162 Y19.600
G1 X6.231 Y19.606
G0 X6.287 Y19.637
G0 X6.375 Y19.738
G0 X6.487 Y19.944
G1 X6.519 Y20.019
G1 X6.606 Y20.225
G1 X6.612 Y20.281
G1 X6.594 Y20.325
G1 X6.556 Y20.363
G1 X6.381 Y20.413
G1 X6.381 Y20.413
G1 X6.181 Y20.406
G1 X5.981 Y20.356
G1 X5.800 Y20.256
G1 X5.731 Y20.175
G1 X5.669 Y19.981
G1 X5.656 Y19.881
G1 X5.675 Y19.781
G1 X5.731 Y19.700
G1 X5.731 Y19.700
G1 X5.875 Y19.675
G1 X5.938 Y19.688
G0 X5.987 Y19.725
G0 X6.062 Y19.844
G0 X6.094 Y19.919
G1 X6.119 Y19.994
G1 X6.175 Y20.212
G1 X6.175 Y20.275
G1 X6.156 Y20.325
G1 X6.112 Y20.363
G1 X5.931 Y20.413
G1 X5.931 Y20.413
G1 X5.831 Y20.413
G1 X5.631 Y20.363
G1 X5.537 Y20.319
G1 X5.456 Y20.256
G1 X5.400 Y20.169
G1 X5.362 Y19.969
G1 X5.369 Y19.869
G1 X5.425 Y19.788
G1 X5.425 Y19.788
G1 X5.569 Y19.769
G1 X5.631 Y19.788
G0 X5.688 Y19.819
G0 X5.763 Y19.931
G1 X5.794 Y20.000
G1 X5.862 Y20.212
G1 X5.869 Y20.275
G1 X5.850 Y20.319
G1 X5.812 Y20.356
G1 X5.631 Y20.413
G1 X5.631 Y20.413
G1 X5.431 Y20.400
G1 X5.237 Y20.325
G1 X5.156 Y20.262
G1 X5.106 Y20.169
G1 X5.081 Y19.969
G1 X5.131 Y19.881
G1 X5.131 Y19.881
G1 X5.275 Y19.863
G1 X5.331 Y19.887
G0 X5.375 Y19.931
G1 X5.406 Y19.994
G1 X5.444 Y20.206
G1 X5.438 Y20.269
G1 X5.412 Y20.319
G1 X5.306 Y20.381
G1 X5.181 Y20.413
G1 X5.181 Y20.413
G1 X4.994 Y20.319
G1 X4.912 Y20.256
G1 X4.862 Y20.163
G1 X4.850 Y20.062
G1 X4.881 Y19.969
G1 X4.963 Y19.913
G1 X4.963 Y19.913
G1 X5.106 Y19.894
G1 X5.162 Y19.913
G0 X5.213 Y19.950
G1 X5.244 Y20.006
G1 X5.294 Y20.206
G1 X5.281 Y20.269
G1 X5.256 Y20.319
G1 X5.156 Y20.381
G1 X5.031 Y20.413
G1 X5.031 Y20.413
G1 X4.831 Y20.375
G1 X4.737 Y20.331
G1 X4.656 Y20.262
G1 X4.606 Y20.175
G1 X4.606 Y20.075
G1 X4.650 Y19.988
G1 X4.650 Y19.988
G1 X4.706 Y19.994
G1 X4.750 Y20.025
G1 X4.812 Y20.125
G1 X4.838 Y20.256
G1 X4.838 Y20.312
G1 X4.812 Y20.356
G1 X4.731 Y20.413
G1 X4.731 Y20.413
G1 X4.631 Y20.387
G1 X4.550 Y20.325
G1 X4.500 Y20.238
G1 X4.513 Y20.137
G1 X4.556 Y20.044
G1 X4.556 Y20.044
G1 X4.700 Y19.981
G1 X4.850 Y19.938
G1 X5.000 Y19.913
G1 X5.150 Y19.900
G0 Z5.000
G0 X5.150 Y19.900
G0 X15.769 Y13.444
G1 Z-12.000
G1 X15.769 Y13.444
G1 X15.775 Y13.294
G1 X15.806 Y13.144
G1 X15.869 Y13.000
G1 X15.956 Y12.875
G1 X15.956 Y12.875
G1 X16.606 Y12.125
G1 X16.837 Y11.944
G1 X16.925 Y11.894
G1 X17.581 Y11.725
G1 X17.863 Y11.694
G1 X18.606 Y11.756
G1 X19.200 Y11.900
G1 X19.575 Y12.037
G1 X20.094 Y12.306
G1 X20.319 Y12.481
G1 X20.419 Y12.650
G1 X20.419 Y12.744
G1 X20.419 Y12.744
G1 X20.375 Y12.963
G1 X20.319 Y13.106
G1 X20.231 Y13.213
G0 X20.175 Y13.244
G0 X20.044 Y13.262
G0 X16.906 Y12.706
G1 X16.819 Y12.688
G1 X16.650 Y12.656
G1 X16.581 Y12.625
G1 X16.525 Y12.581
G1 X16.500 Y12.531
G1 X16.481 Y12.400
G1 X16.531 Y12.181
G1 X16.594 Y12.044
G1 X16.594 Y12.044
G1 X17.156 Y11.331
G1 X17.387 Y11.144
G1 X17.475 Y11.094
G1 X18.131 Y10.919
G1 X18.413 Y10.887
G1 X19.156 Y10.956
G1 X19.819 Y11.144
G1 X20.244 Y11.369
G1 X20.319 Y11.425
G1 X20.419 Y11.588
G1 X20.419 Y11.775
G1 X20.419 Y11.775
G1 X20.375 Y11.994
G1 X20.319 Y12.137
G1 X20.231 Y12.244
G0 X20.175 Y12.275
G0 X20.044 Y12.294
G0 X17.519 Y11.844
G1 X17.431 Y11.825
G1 X17.262 Y11.794
G1 X17.188 Y11.762
G1 X17.137 Y11.719
G1 X17.106 Y11.669
G1 X17.087 Y11.537
G1 X17.131 Y11.319
G1 X17.194 Y11.181
G1 X17.194 Y11.181
G1 X17.600 Y10.613
G1 X17.812 Y10.406
G1 X17.981 Y10.306
G1 X18.544 Y10.150
G1 X18.825 Y10.119
G1 X19.569 Y10.181
G1 X20.100 Y10.369
G1 X20.269 Y10.463
G1 X20.337 Y10.525
G1 X20.394 Y10.606
G1 X20.419 Y10.700
G1 X20.419 Y10.700
G1 X20.375 Y10.919
G1 X20.319 Y11.062
G1 X20.231 Y11.169
G0 X20.169 Y11.206
G0 X19.962 Y11.231
G0 X18.044 Y11.044
G1 X17.956 Y11.037
G1 X17.788 Y11.012
G1 X17.712 Y10.988
G1 X17.656 Y10.950
G1 X17.625 Y10.900
G1 X17.594 Y10.769
G1 X17.625 Y10.556
G1 X17.675 Y10.419
G1 X17.675 Y10.419
G1 X17.938 Y9.988
G1 X18.131 Y9.756
G1 X18.363 Y9.569
G1 X18.919 Y9.412
G1 X19.200 Y9.381
G1 X19.938 Y9.488
G1 X20.288 Y9.644
G1 X20.356 Y9.713
G1 X20.406 Y9.794
G1 X20.419 Y9.887
G1 X20.419 Y9.887
G1 X20.375 Y10.106
G1 X20.319 Y10.250
G1 X20.231 Y10.356
G0 X20.175 Y10.394
G0 X19.969 Y10.419
G0 X18.475 Y10.269
G1 X18.394 Y10.256
G1 X18.225 Y10.231
G1 X18.150 Y10.213
G1 X18.094 Y10.169
G1 X18.062 Y10.119
G1 X18.031 Y9.988
G1 X18.062 Y9.775
G1 X18.113 Y9.637
G1 X18.113 Y9.637
G1 X18.375 Y9.206
G1 X18.581 Y8.988
G1 X18.663 Y8.925
G1 X18.931 Y8.812
G1 X19.400 Y8.719
G1 X19.494 Y8.713
G1 X20.219 Y8.875
G1 X20.306 Y8.919
G1 X20.419 Y9.075
G1 X20.419 Y9.075
G1 X20.375 Y9.294
G1 X20.275 Y9.500
G1 X20.231 Y9.550
G0 X20.175 Y9.581
G0 X19.969 Y9.619
G0 X18.844 Y9.575
G1 X18.756 Y9.575
G1 X18.594 Y9.556
G1 X18.519 Y9.537
G1 X18.462 Y9.506
G1 X18.425 Y9.456
G1 X18.387 Y9.325
G1 X18.406 Y9.113
G1 X18.456 Y8.969
G1 X18.456 Y8.969
G1 X18.644 Y8.613
G1 X18.831 Y8.375
G1 X18.988 Y8.250
G1 X19.456 Y8.113
G1 X19.738 Y8.094
G1 X20.019 Y8.131
G1 X20.200 Y8.188
G1 X20.288 Y8.231
G1 X20.356 Y8.294
G1 X20.406 Y8.375
G1 X20.419 Y8.469
G1 X20.419 Y8.469
G1 X20.375 Y8.688
G1 X20.275 Y8.894
G1 X20.231 Y8.944
G0 X20.169 Y8.975
G0 X19.962 Y9.019
G0 X19.119 Y9.012
G1 X19.038 Y9.012
G1 X18.869 Y9.000
G1 X18.794 Y8.988
G1 X18.738 Y8.950
G1 X18.694 Y8.906
G1 X18.650 Y8.775
G1 X18.663 Y8.562
G1 X18.700 Y8.419
G1 X18.700 Y8.419
G1 X18.881 Y8.056
G1 X19.131 Y7.737
G1 X19.294 Y7.625
G1 X19.575 Y7.550
G1 X19.856 Y7.531
G1 X20.044 Y7.550
G1 X20.312 Y7.644
G1 X20.375 Y7.713
G1 X20.419 Y7.794
G1 X20.419 Y7.794
G1 X20.375 Y8.012
G1 X20.312 Y8.150
G1 X20.225 Y8.262
G0 X20.163 Y8.300
G0 X19.450 Y8.331
G1 X19.363 Y8.331
G1 X19.194 Y8.319
G1 X19.119 Y8.300
G1 X19.056 Y8.269
G1 X19.012 Y8.219
G1 X18.969 Y8.094
G1 X18.969 Y7.875
G1 X19.000 Y7.731
G1 X19.000 Y7.731
G1 X19.181 Y7.369
G1 X19.312 Y7.213
G1 X19.387 Y7.144
G1 X19.475 Y7.094
G1 X19.756 Y7.019
G1 X20.038 Y7.019
G1 X20.225 Y7.069
G1 X20.312 Y7.106
G1 X20.381 Y7.175
G1 X20.419 Y7.263
G1 X20.419 Y7.263
G1 X20.375 Y7.481
G1 X20.306 Y7.600
G0 X20.250 Y7.638
G0 X20.119 Y7.669
G0 X19.631 Y7.650
G1 X19.544 Y7.644
G1 X19.375 Y7.625
G1 X19.300 Y7.606
G1 X19.244 Y7.569
G1 X19.212 Y7.519
G1 X19.188 Y7.388
G1 X19.219 Y7.175
G1 X19.219 Y7.175
G1 X19.356 Y6.900
G1 X19.544 Y6.675
G1 X19.625 Y6.625
G1 X19.906 Y6.562
G1 X20.094 Y6.569
G1 X20.281 Y6.625
G1 X20.356 Y6.681
G1 X20.413 Y6.756
G1 X20.413 Y6.756
G1 X20.369 Y6.975
G1 X20.300 Y7.094
G0 X20.244 Y7.131
G0 X20.038 Y7.181
G0 X19.800 Y7.188
G1 X19.719 Y7.194
G1 X19.550 Y7.188
G1 X19.475 Y7.175
G1 X19.419 Y7.144
G1 X19.381 Y7.094
G1 X19.350 Y6.969
G1 X19.375 Y6.756
G1 X19.375 Y6.756
G1 X19.488 Y6.475
G1 X19.600 Y6.306
G1 X19.750 Y6.181
G1 X19.938 Y6.144
G1 X20.125 Y6.150
G1 X20.312 Y6.200
G1 X20.381 Y6.269
G1 X20.419 Y6.356
G1 X20.419 Y6.356
G1 X20.375 Y6.575
G1 X20.306 Y6.694
G0 X20.250 Y6.731
G0 X20.119 Y6.763
G0 X19.969 Y6.769
G1 X19.887 Y6.769
G1 X19.712 Y6.763
G1 X19.644 Y6.744
G1 X19.581 Y6.713
G1 X19.544 Y6.662
G1 X19.500 Y6.537
G1 X19.506 Y6.325
G1 X19.506 Y6.325
G1 X19.625 Y6.044
G1 X19.744 Y5.881
G1 X19.819 Y5.812
G1 X19.906 Y5.769
G1 X20.094 Y5.756
G1 X20.281 Y5.794
G1 X20.356 Y5.850
G1 X20.413 Y5.925
G1 X20.413 Y5.925
G1 X20.381 Y6.062
G1 X20.356 Y6.119
G0 X20.312 Y6.162
G0 X20.188 Y6.200
G0 X20.038 Y6.206
G1 X19.956 Y6.200
G1 X19.788 Y6.188
G1 X19.719 Y6.169
G1 X19.669 Y6.138
G1 X19.644 Y6.088
G1 X19.644 Y5.894
G1 X19.644 Y5.894
G1 X19.712 Y5.706
G1 X19.825 Y5.537
G1 X19.900 Y5.469
G1 X19.988 Y5.419
G1 X20.175 Y5.412
G1 X20.269 Y5.431
G1 X20.350 Y5.481
G1 X20.406 Y5.556
G1 X20.419 Y5.650
G1 X20.419 Y5.650
G1 X20.387 Y5.787
G1 X20.356 Y5.838
G0 X20.306 Y5.869
G0 X20.175 Y5.869
G1 X20.094 Y5.856
G1 X19.931 Y5.806
G1 X19.863 Y5.769
G1 X19.812 Y5.719
G1 X19.788 Y5.662
G1 X19.775 Y5.463
G1 X19.775 Y5.463
G1 X19.875 Y5.287
G1 X19.938 Y5.206
G1 X20.012 Y5.144
G1 X20.106 Y5.112
G1 X20.200 Y5.112
G1 X20.294 Y5.131
G1 X20.369 Y5.194
G1 X20.419 Y5.275
G1 X20.419 Y5.275
G1 X20.387 Y5.412
G1 X20.356 Y5.463
G0 X20.312 Y5.500
G0 X20.250 Y5.513
G1 X20.181 Y5.519
G1 X20.019 Y5.494
G1 X19.950 Y5.469
G1 X19.900 Y5.425
G1 X19.869 Y5.375
G1 X19.850 Y5.175
G1 X19.850 Y5.175
G1 X19.944 Y4.994
G1 X20.006 Y4.912
G1 X20.087 Y4.850
G1 X20.181 Y4.825
G1 X20.275 Y4.838
G1 X20.356 Y4.888
G1 X20.413 Y4.963
G1 X20.413 Y4.963
G1 X20.381 Y5.100
G1 X20.350 Y5.150
G0 X20.306 Y5.188
G1 X20.244 Y5.200
G1 X20.100 Y5.194
G1 X20.031 Y5.169
G1 X19.981 Y5.131
G1 X19.944 Y5.075
G1 X19.925 Y4.881
G1 X19.925 Y4.881
G1 X20.019 Y4.700
G1 X20.087 Y4.625
G1 X20.175 Y4.581
G1 X20.269 Y4.569
G1 X20.363 Y4.594
G1 X20.419 Y4.675
G1 X20.419 Y4.675
G1 X20.394 Y4.719
G1 X20.350 Y4.750
G1 X20.225 Y4.769
G1 X20.087 Y4.731
G1 X20.050 Y4.694
G1 X20.006 Y4.594
G1 X20.006 Y4.594
G1 X20.081 Y4.531
G1 X20.175 Y4.500
G1 X20.269 Y4.506
G1 X20.350 Y4.556
G1 X20.350 Y4.556
G1 X20.456 Y4.662
G1 X20.456 Y4.662
G1 X20.244 Y4.431
G1 X20.244 Y4.431
G1 X20.387 Y4.500
G1 X20.387 Y4.500
G1 X20.425 Y4.531
G1 X20.481 Y4.619
G1 X20.500 Y4.763
G1 X20.494 Y20.169
G1 X20.475 Y20.300
G1 X20.413 Y20.394
G1 X20.375 Y20.425
G1 X20.256 Y20.481
G1 X20.175 Y20.494
G1 X4.719 Y20.488
G1 X4.606 Y20.462
G1 X4.519 Y20.406
G1 X4.481 Y20.363
G1 X4.431 Y20.250
G1 X4.425 Y20.188
G1 X4.469 Y20.038
G1 X4.550 Y19.956
G1 X4.756 Y19.869
G1 X5.662 Y19.637
G1 X6.713 Y19.306
G1 X7.425 Y19.044
G1 X8.519 Y18.587
G1 X9.713 Y17.994
G1 X10.662 Y17.444
G1 X11.694 Y16.769
G1 X12.694 Y16.019
G1 X13.625 Y15.244
G1 X14.412 Y14.512
G1 X15.375 Y13.469
G1 X16.250 Y12.400
G1 X16.931 Y11.456
G1 X17.594 Y10.419
G1 X18.131 Y9.450
G1 X18.462 Y8.787
G1 X18.925 Y7.731
G1 X19.363 Y6.569
G1 X19.700 Y5.463
G1 X19.944 Y4.562
G1 X20.006 Y4.487
G1 X20.156 Y4.425
G1 X20.219 Y4.419
G1 X20.319 Y4.444
G1 X20.394 Y4.500
G1 X20.387 Y4.500
G0 Z5.000
(Helix to depth: -12.000000)
G0 Z5.000
G0 X19.178 Y-16.710 Z5.000
G0 X19.178 Y-16.710 Z3.000
G1 X19.178 Y-16.710 Z0.000
G1 X19.178 Y-16.710 Z0.000
G1 X19.089 Y-16.280 Z-0.039
G1 X18.919 Y-15.875 Z-0.077
G1 X18.673 Y-15.512 Z-0.116
G1 X18.360 Y-15.203 Z-0.155
G1 X17.994 Y-14.962 Z-0.193
G1 X17.587 Y-14.796 Z-0.232
G1 X17.156 Y-14.713 Z-0.271
G1 X16.717 Y-14.716 Z-0.309
G1 X16.286 Y-14.804 Z-0.348
G1 X15.882 Y-14.975 Z-0.387
G1 X15.518 Y-15.221 Z-0.425
G1 X15.210 Y-15.534 Z-0.464
G1 X14.968 Y-15.900 Z-0.502
G1 X14.802 Y-16.307 Z-0.541
G1 X14.719 Y-16.738 Z-0.580
G1 X14.722 Y-17.177 Z-0.618
G1 X14.811 Y-17.607 Z-0.657
G1 X14.981 Y-18.012 Z-0.696
G1 X15.227 Y-18.376 Z-0.734
G1 X15.540 Y-18.684 Z-0.773
G1 X15.906 Y-18.926 Z-0.812
G1 X16.313 Y-19.091 Z-0.850
G1 X16.744 Y-19.174 Z-0.889
G1 X17.183 Y-19.172 Z-0.928
G1 X17.614 Y-19.083 Z-0.966
G1 X18.018 Y-18.913 Z-1.005
G1 X18.382 Y-18.666 Z-1.044
G1 X18.690 Y-18.354 Z-1.082
G1 X18.932 Y-17.987 Z-1.121
G1 X19.098 Y-17.581 Z-1.160
G1 X19.181 Y-17.149 Z-1.198
G1 X19.178 Y-16.710 Z-1.237
G1 X19.089 Y-16.280 Z-1.275
G1 X18.919 Y-15.875 Z-1.314
G1 X18.673 Y-15.512 Z-1.353
G1 X18.360 Y-15.203 Z-1.391
G1 X17.994 Y-14.962 Z-1.430
G1 X17.587 Y-14.796 Z-1.469
G1 X17.156 Y-14.713 Z-1.507
G1 X16.717 Y-14.716 Z-1.546
G1 X16.286 Y-14.804 Z-1.585
G1 X15.882 Y-14.975 Z-1.623
G1 X15.518 Y-15.221 Z-1.662
G1 X15.210 Y-15.534 Z-1.701
G1 X14.968 Y-15.900 Z-1.739
G1 X14.802 Y-16.307 Z-1.778
G1 X14.719 Y-16.738 Z-1.817
G1 X14.722 Y-17.177 Z-1.855
G1 X14.811 Y-17.607 Z-1.894
G1 X14.981 Y-18.012 Z-1.933
G1 X15.227 Y-18.376 Z-1.971
G1 X15.540 Y-18.684 Z-2.010
G1 X15.906 Y-18.926 Z-2.049
G1 X16.313 Y-19.091 Z-2.087
G1 X16.744 Y-19.174 Z-2.126
G1 X17.183 Y-19.172 Z-2.164
G1 X17.614 Y-19.083 Z-2.203
G1 X18.018 Y-18.913 Z-2.242
G1 X18.382 Y-18.666 Z-2.280
G1 X18.690 Y-18.354 Z-2.319
G1 X18.932 Y-17.987 Z-2.358
G1 X19.098 Y-17.581 Z-2.396
G1 X19.181 Y-17.149 Z-2.435
G1 X19.178 Y-16.710 Z-2.474
G1 X19.089 Y-16.280 Z-2.512
G1 X18.919 Y-15.875 Z-2.551
G1 X18.673 Y-15.512 Z-2.590
G1 X18.360 Y-15.203 Z-2.628
G1 X17.994 Y-14.962 Z-2.667
G1 X17.587 Y-14.796 Z-2.706
G1 X17.156 Y-14.713 Z-2.744
G1 X16.717 Y-14.716 Z-2.783
G1 X16.286 Y-14.804 Z-2.822
G1 X15.882 Y-14.975 Z-2.860
G1 X15.518 Y-15.221 Z-2.899
G1 X15.210 Y-15.534 Z-2.937
G1 X14.968 Y-15.900 Z-2.976
G1 X14.802 Y-16.307 Z-3.015
G1 X14.719 Y-16.738 Z-3.053
G1 X14.722 Y-17.177 Z-3.092
G1 X14.811 Y-17.607 Z-3.131
G1 X14.981 Y-18.012 Z-3.169
G1 X15.227 Y-18.376 Z-3.208
G1 X15.540 Y-18.684 Z-3.247
G1 X15.906 Y-18.926 Z-3.285
G1 X16.313 Y-19.091 Z-3.324
G1 X16.744 Y-19.174 Z-3.363
G1 X17.183 Y-19.172 Z-3.401
G1 X17.614 Y-19.083 Z-3.440
G1 X18.018 Y-18.913 Z-3.479
G1 X18.382 Y-18.666 Z-3.517
G1 X18.690 Y-18.354 Z-3.556
G1 X18.932 Y-17.987 Z-3.595
G1 X19.098 Y-17.581 Z-3.633
G1 X19.181 Y-17.149 Z-3.672
G1 X19.178 Y-16.710 Z-3.711
G1 X19.089 Y-16.280 Z-3.749
G1 X18.919 Y-15.875 Z-3.788
G1 X18.673 Y-15.512 Z-3.826
G1 X18.360 Y-15.203 Z-3.865
G1 X17.994 Y-14.962 Z-3.904
G1 X17.587 Y-14.796 Z-3.942
G1 X17.156 Y-14.713 Z-3.981
G1 X16.717 Y-14.716 Z-4.020
G1 X16.286 Y-14.804 Z-4.058
G1 X15.882 Y-14.975 Z-4.097
G1 X15.518 Y-15.221 Z-4.136
G1 X15.210 Y-15.534 Z-4.174
G1 X14.968 Y-15.900 Z-4.213
G1 X14.802 Y-16.307 Z-4.252
G1 X14.719 Y-16.738 Z-4.290
G1 X14.722 Y-17.177 Z-4.329
G1 X14.811 Y-17.607 Z-4.368
G1 X14.981 Y-18.012 Z-4.406
G1 X15.227 Y-18.376 Z-4.445
G1 X15.540 Y-18.684 Z-4.484
G1 X15.906 Y-18.926 Z-4.522
G1 X16.313 Y-19.091 Z-4.561
G1 X16.744 Y-19.174 Z-4.600
G1 X17.183 Y-19.172 Z-4.638
G1 X17.614 Y-19.083 Z-4.677
G1 X18.018 Y-18.913 Z-4.715
G1 X18.382 Y-18.666 Z-4.754
G1 X18.690 Y-18.354 Z-4.793
G1 X18.932 Y-17.987 Z-4.831
G1 X19.098 Y-17.581 Z-4.870
G1 X19.181 Y-17.149 Z-4.909
G1 X19.178 Y-16.710 Z-4.947
G1 X19.089 Y-16.280 Z-4.986
G1 X18.919 Y-15.875 Z-5.025
G1 X18.673 Y-15.512 Z-5.063
G1 X18.360 Y-15.203 Z-5.102
G1 X17.994 Y-14.962 Z-5.141
G1 X17.587 Y-14.796 Z-5.179
G1 X17.156 Y-14.713 Z-5.218
G1 X16.717 Y-14.716 Z-5.257
G1 X16.286 Y-14.804 Z-5.295
G1 X15.882 Y-14.975 Z-5.334
G1 X15.518 Y-15.221 Z-5.373
G1 X15.210 Y-15.534 Z-5.411
G1 X14.968 Y-15.900 Z-5.450
G1 X14.802 Y-16.307 Z-5.488
G1 X14.719 Y-16.738 Z-5.527
G1 X14.722 Y-17.177 Z-5.566
G1 X14.811 Y-17.607 Z-5.604
G1 X14.981 Y-18.012 Z-5.643
G1 X15.227 Y-18.376 Z-5.682
G1 X15.540 Y-18.684 Z-5.720
G1 X15.906 Y-18.926 Z-5.759
G1 X16.313 Y-19.091 Z-5.798
G1 X16.744 Y-19.174 Z-5.836
G1 X17.183 Y-19.172 Z-5.875
G1 X17.614 Y-19.083 Z-5.914
G1 X18.018 Y-18.913 Z-5.952
G1 X18.382 Y-18.666 Z-5.991
G1 X18.690 Y-18.354 Z-6.030
G1 X18.932 Y-17.987 Z-6.068
G1 X19.098 Y-17.581 Z-6.107
G1 X19.181 Y-17.149 Z-6.146
G1 X19.178 Y-16.710 Z-6.184
G1 X19.089 Y-16.280 Z-6.223
G1 X18.919 Y-15.875 Z-6.262
G1 X18.673 Y-15.512 Z-6.300
G1 X18.360 Y-15.203 Z-6.339
G1 X17.994 Y-14.962 Z-6.377
G1 X17.587 Y-14.796 Z-6.416
G1 X17.156 Y-14.713 Z-6.455
G1 X16.717 Y-14.716 Z-6.493
G1 X16.286 Y-14.804 Z-6.532
G1 X15.882 Y-14.975 Z-6.571
G1 X15.518 Y-15.221 Z-6.609
G1 X15.210 Y-15.534 Z-6.648
G1 X14.968 Y-15.900 Z-6.687
G1 X14.802 Y-16.307 Z-6.725
G1 X14.719 Y-16.738 Z-6.764
G1 X14.722 Y-17.177 Z-6.803
G1 X14.811 Y-17.607 Z-6.841
G1 X14.981 Y-18.012 Z-6.880
G1 X15.227 Y-18.376 Z-6.919
G1 X15.540 Y-18.684 Z-6.957
G1 X15.906 Y-18.926 Z-6.996
G1 X16.313 Y-19.091 Z-7.035
G1 X16.744 Y-19.174 Z-7.073
G1 X17.183 Y-19.172 Z-7.112
G1 X17.614 Y-19.083 Z-7.150
G1 X18.018 Y-18.913 Z-7.189
G1 X18.382 Y-18.666 Z-7.228
G1 X18.690 Y-18.354 Z-7.266
G1 X18.932 Y-17.987 Z-7.305
G1 X19.098 Y-17.581 Z-7.344
G1 X19.181 Y-17.149 Z-7.382
G1 X19.178 Y-16.710 Z-7.421
G1 X19.089 Y-16.280 Z-7.460
G1 X18.919 Y-15.875 Z-7.498
G1 X18.673 Y-15.512 Z-7.537
G1 X18.360 Y-15.203 Z-7.576
G1 X17.994 Y-14.962 Z-7.614
G1 X17.587 Y-14.796 Z-7.653
G1 X17.156 Y-14.713 Z-7.692
G1 X16.717 Y-14.716 Z-7.730
G1 X16.286 Y-14.804 Z-7.769
G1 X15.882 Y-14.975 Z-7.808
G1 X15.518 Y-15.221 Z-7.846
G1 X15.210 Y-15.534 Z-7.885
G1 X14.968 Y-15.900 Z-7.924
G1 X14.802 Y-16.307 Z-7.962
G1 X14.719 Y-16.738 Z-8.001
G1 X14.722 Y-17.177 Z-8.039
G1 X14.811 Y-17.607 Z-8.078
G1 X14.981 Y-18.012 Z-8.117
G1 X15.227 Y-18.376 Z-8.155
G1 X15.540 Y-18.684 Z-8.194
G1 X15.906 Y-18.926 Z-8.233
G1 X16.313 Y-19.091 Z-8.271
G1 X16.744 Y-19.174 Z-8.310
G1 X17.183 Y-19.172 Z-8.349
G1 X17.614 Y-19.083 Z-8.387
G1 X18.018 Y-18.913 Z-8.426
G1 X18.382 Y-18.666 Z-8.465
G1 X18.690 Y-18.354 Z-8.503
G1 X18.932 Y-17.987 Z-8.542
G1 X19.098 Y-17.581 Z-8.581
G1 X19.181 Y-17.149 Z-8.619
G1 X19.178 Y-16.710 Z-8.658
G1 X19.089 Y-16.280 Z-8.697
G1 X18.919 Y-15.875 Z-8.735
G1 X18.673 Y-15.512 Z-8.774
G1 X18.360 Y-15.203 Z-8.812
G1 X17.994 Y-14.962 Z-8.851
G1 X17.587 Y-14.796 Z-8.890
G1 X17.156 Y-14.713 Z-8.928
G1 X16.717 Y-14.716 Z-8.967
G1 X16.286 Y-14.804 Z-9.006
G1 X15.882 Y-14.975 Z-9.044
G1 X15.518 Y-15.221 Z-9.083
G1 X15.210 Y-15.534 Z-9.122
G1 X14.968 Y-15.900 Z-9.160
G1 X14.802 Y-16.307 Z-9.199
G1 X14.719 Y-16.738 Z-9.238
G1 X14.722 Y-17.177 Z-9.276
G1 X14.811 Y-17.607 Z-9.315
G1 X14.981 Y-18.012 Z-9.354
G1 X15.227 Y-18.376 Z-9.392
G1 X15.540 Y-18.684 Z-9.431
G1 X15.906 Y-18.926 Z-9.470
G1 X16.313 Y-19.091 Z-9.508
G1 X16.744 Y-19.174 Z-9.547
G1 X17.183 Y-19.172 Z-9.586
G1 X17.614 Y-19.083 Z-9.624
G1 X18.018 Y-18.913 Z-9.663
G1 X18.382 Y-18.666 Z-9.701
G1 X18.690 Y-18.354 Z-9.740
G1 X18.932 Y-17.987 Z-9.779
G1 X19.098 Y-17.581 Z-9.817
G1 X19.181 Y-17.149 Z-9.856
G1 X19.178 Y-16.710 Z-9.895
G1 X19.089 Y-16.280 Z-9.933
G1 X18.919 Y-15.875 Z-9.972
G1 X18.673 Y-15.512 Z-10.011
G1 X18.360 Y-15.203 Z-10.049
G1 X17.994 Y-14.962 Z-10.088
G1 X17.587 Y-14.796 Z-10.127
G1 X17.156 Y-14.713 Z-10.165
G1 X16.717 Y-14.716 Z-10.204
G1 X16.286 Y-14.804 Z-10.243
G1 X15.882 Y-14.975 Z-10.281
G1 X15.518 Y-15.221 Z-10.320
G1 X15.210 Y-15.534 Z-10.359
G1 X14.968 Y-15.900 Z-10.397
G1 X14.802 Y-16.307 Z-10.436
G1 X14.719 Y-16.738 Z-10.475
G1 X14.722 Y-17.177 Z-10.513
G1 X14.811 Y-17.607 Z-10.552
G1 X14.981 Y-18.012 Z-10.590
G1 X15.227 Y-18.376 Z-10.629
G1 X15.540 Y-18.684 Z-10.668
G1 X15.906 Y-18.926 Z-10.706
G1 X16.313 Y-19.091 Z-10.745
G1 X16.744 Y-19.174 Z-10.784
G1 X17.183 Y-19.172 Z-10.822
G1 X17.614 Y-19.083 Z-10.861
G1 X18.018 Y-18.913 Z-10.900
G1 X18.382 Y-18.666 Z-10.938
G1 X18.690 Y-18.354 Z-10.977
G1 X18.932 Y-17.987 Z-11.016
G1 X19.098 Y-17.581 Z-11.054
G1 X19.181 Y-17.149 Z-11.093
G1 X19.178 Y-16.710 Z-11.132
G1 X19.089 Y-16.280 Z-11.170
G1 X18.919 Y-15.875 Z-11.209
G1 X18.673 Y-15.512 Z-11.248
G1 X18.360 Y-15.203 Z-11.286
G1 X17.994 Y-14.962 Z-11.325
G1 X17.587 Y-14.796 Z-11.363
G1 X17.156 Y-14.713 Z-11.402
G1 X16.717 Y-14.716 Z-11.441
G1 X16.286 Y-14.804 Z-11.479
G1 X15.882 Y-14.975 Z-11.518
G1 X15.518 Y-15.221 Z-11.557
G1 X15.210 Y-15.534 Z-11.595
G1 X14.968 Y-15.900 Z-11.634
G1 X14.802 Y-16.307 Z-11.673
G1 X14.719 Y-16.738 Z-11.711
G1 X14.722 Y-17.177 Z-11.750
G1 X14.811 Y-17.607 Z-11.789
G1 X14.981 Y-18.012 Z-11.827
G1 X15.227 Y-18.376 Z-11.866
G1 X15.540 Y-18.684 Z-11.905
G1 X15.906 Y-18.926 Z-11.943
G1 X16.313 Y-19.091 Z-11.982
G1 X16.744 Y-19.174 Z-12.000
G1 X17.183 Y-19.172 Z-12.000
G1 X17.614 Y-19.083 Z-12.000
G1 X18.018 Y-18.913 Z-12.000
G1 X18.382 Y-18.666 Z-12.000
G1 X18.690 Y-18.354 Z-12.000
G1 X18.932 Y-17.987 Z-12.000
G1 X19.098 Y-17.581 Z-12.000
G1 X19.181 Y-17.149 Z-12.000
G1 X19.178 Y-16.710 Z-12.000
G1 X19.089 Y-16.280 Z-12.000
G1 X18.919 Y-15.875 Z-12.000
G1 X18.673 Y-15.512 Z-12.000
G1 X18.360 Y-15.203 Z-12.000
G1 X17.994 Y-14.962 Z-12.000
G1 X17.587 Y-14.796 Z-12.000
G1 X17.156 Y-14.713 Z-12.000
G1 X16.717 Y-14.716 Z-12.000
G1 X16.286 Y-14.804 Z-12.000
G1 X15.882 Y-14.975 Z-12.000
G1 X15.518 Y-15.221 Z-12.000
G1 X15.210 Y-15.534 Z-12.000
G1 X14.968 Y-15.900 Z-12.000
G1 X14.802 Y-16.307 Z-12.000
G1 X14.719 Y-16.738 Z-12.000
G1 X14.722 Y-17.177 Z-12.000
G1 X14.811 Y-17.607 Z-12.000
G1 X14.981 Y-18.012 Z-12.000
G1 X15.227 Y-18.376 Z-12.000
G1 X15.540 Y-18.684 Z-12.000
G1 X15.906 Y-18.926 Z-12.000
G1 X16.313 Y-19.091 Z-12.000
(Adaptive - depth: -12.000000)
G1 X16.950 Y-19.194
G1 X17.100 Y-19.319
G1 X17.275 Y-19.394
G1 X17.556 Y-19.450
G1 X17.744 Y-19.456
G1 X18.475 Y-19.300
G1 X18.769 Y-19.125
G1 X19.100 Y-18.837
G1 X19.356 Y-18.544
G1 X19.613 Y-18.144
G1 X19.762 Y-17.775
G1 X19.869 Y-17.175
G1 X19.863 Y-16.675
G1 X19.775 Y-16.175
G1 X19.600 Y-15.688
G1 X19.231 Y-15.025
G1 X18.781 Y-14.562
G1 X18.556 Y-14.400
G1 X18.337 Y-14.269
G1 X18.031 Y-14.125
G1 X17.600 Y-13.988
G1 X17.175 Y-13.912
G1 X16.781 Y-13.900
G1 X16.431 Y-13.931
G1 X16.050 Y-14.019
G1 X15.338 Y-14.325
G1 X14.844 Y-14.669
G1 X14.494 Y-15.025
G1 X14.256 Y-15.350
G1 X14.069 Y-15.694
G1 X13.894 Y-16.156
G1 X13.825 Y-16.900
G1 X13.875 Y-17.387
G1 X13.944 Y-17.688
G1 X14.037 Y-17.988
G1 X14.213 Y-18.369
G1 X14.463 Y-18.750
G1 X14.713 Y-19.044
G1 X14.981 Y-19.294
G1 X15.294 Y-19.538
G1 X15.706 Y-19.806
G1 X16.406 Y-20.113
G1 X17.156 Y-20.256
G1 X17.812 Y-20.256
G1 X18.281 Y-20.156
G1 X18.825 Y-19.925
G1 X19.319 Y-19.594
G1 X19.881 Y-19.094
G1 X20.238 Y-18.494
G1 X20.281 Y-18.400
G1 X20.413 Y-17.700
G1 X20.387 Y-16.000
G1 X20.300 Y-15.500
G1 X20.113 Y-15.019
G1 X19.712 Y-14.412
G1 X19.575 Y-14.256
G1 X19.012 Y-13.750
G1 X18.431 Y-13.387
G1 X18.081 Y-13.244
G1 X17.781 Y-13.144
G1 X17.375 Y-13.056
G1 X16.925 Y-13.019
G1 X16.194 Y-13.056
G1 X15.894 Y-13.119
G1 X15.713 Y-13.206
G1 X15.637 Y-13.269
G1 X13.294 Y-15.706
G1 X13.131 Y-15.956
G1 X12.969 Y-16.519
G1 X12.919 Y-16.988
G1 X13.006 Y-17.731
G1 X13.137 Y-18.219
G1 X13.275 Y-18.550
G1 X13.425 Y-18.844
G1 X13.675 Y-19.244
G1 X14.088 Y-19.756
G1 X14.662 Y-20.269
G1 X15.012 Y-20.419
G1 X18.856 Y-20.406
G1 X19.419 Y-20.294
G1 X19.600 Y-20.219
G1 X20.000 Y-19.925
G1 X20.288 Y-19.644
G1 X20.419 Y-19.369
G1 X20.419 Y-18.769
G1 X20.419 Y-18.769
G1 X20.375 Y-18.531
G1 X20.250 Y-18.244
G0 X20.225 Y-18.175
G0 X20.200 Y-16.700
G1 X20.206 Y-16.619
G1 X20.225 Y-16.363
G1 X20.381 Y-15.919
G1 X20.419 Y-15.700
G1 X20.419 Y-15.700
G1 X20.406 Y-14.800
G1 X20.312 Y-14.300
G1 X20.244 Y-14.100
G1 X19.900 Y-13.581
G1 X19.619 Y-13.275
G1 X19.038 Y-12.800
G1 X18.394 Y-12.438
G1 X18.031 Y-12.294
G1 X17.712 Y-12.194
G1 X17.087 Y-12.088
G1 X16.788 Y-12.069
G1 X16.688 Y-12.075
G1 X16.587 Y-12.106
G1 X16.506 Y-12.169
G1 X16.506 Y-12.169
G1 X16.394 Y-12.369
G1 X16.356 Y-12.512
G1 X16.356 Y-12.650
G0 X16.381 Y-12.706
G0 X16.531 Y-12.844
G0 X19.800 Y-14.675
G1 X19.875 Y-14.719
G1 X20.075 Y-14.825
G1 X20.137 Y-14.838
G1 X20.194 Y-14.831
G1 X20.288 Y-14.756
G1 X20.356 Y-14.637
G1 X20.419 Y-14.350
G1 X20.419 Y-14.350
G1 X20.406 Y-13.750
G1 X20.306 Y-13.250
G1 X20.231 Y-13.056
G1 X19.856 Y-12.550
G1 X19.562 Y-12.256
G1 X18.962 Y-11.800
G1 X18.294 Y-11.450
G1 X17.806 Y-11.294
G1 X17.306 Y-11.231
G1 X17.206 Y-11.256
G1 X17.119 Y-11.300
G1 X17.119 Y-11.300
G1 X17.012 Y-11.588
G1 X17.006 Y-11.731
G1 X17.019 Y-11.800
G0 X17.044 Y-11.856
G0 X17.256 Y-12.037
G0 X19.812 Y-13.613
G1 X19.881 Y-13.656
G1 X20.075 Y-13.769
G1 X20.137 Y-13.787
G1 X20.194 Y-13.781
G1 X20.288 Y-13.706
G1 X20.356 Y-13.588
G1 X20.419 Y-13.300
G1 X20.419 Y-13.300
G1 X20.394 Y-12.700
G1 X20.269 Y-12.200
G1 X20.113 Y-11.931
G1 X19.644 Y-11.381
G1 X18.969 Y-10.856
G1 X18.337 Y-10.575
G1 X17.938 Y-10.494
G1 X17.738 Y-10.488
G1 X17.644 Y-10.519
G1 X17.644 Y-10.519
G1 X17.550 Y-10.725
G1 X17.525 Y-10.875
G1 X17.538 Y-11.012
G0 X17.569 Y-11.075
G0 X17.775 Y-11.269
G0 X19.825 Y-12.694
G1 X19.894 Y-12.738
G1 X20.081 Y-12.863
G1 X20.144 Y-12.881
G1 X20.194 Y-12.875
G1 X20.244 Y-12.850
G1 X20.325 Y-12.750
G1 X20.394 Y-12.544
G1 X20.419 Y-12.400
G1 X20.419 Y-12.400
G1 X20.413 Y-11.900
G1 X20.312 Y-11.400
G1 X20.244 Y-11.206
G1 X19.875 Y-10.694
G1 X19.575 Y-10.406
G1 X18.950 Y-9.988
G1 X18.363 Y-9.812
G1 X18.163 Y-9.800
G1 X18.062 Y-9.825
G1 X17.981 Y-9.887
G1 X17.981 Y-9.887
G1 X17.900 Y-10.100
G1 X17.875 Y-10.319
G1 X17.894 Y-10.387
G0 X17.925 Y-10.450
G0 X18.131 Y-10.644
G0 X19.831 Y-11.800
G1 X19.894 Y-11.844
G1 X20.081 Y-11.963
G1 X20.144 Y-11.981
G1 X20.194 Y-11.981
G1 X20.288 Y-11.906
G1 X20.356 Y-11.787
G1 X20.419 Y-11.500
G1 X20.419 Y-11.500
G1 X20.406 Y-10.900
G1 X20.356 Y-10.600
G1 X20.294 Y-10.400
G1 X20.069 Y-10.050
G1 X19.781 Y-9.750
G1 X19.619 Y-9.619
G1 X18.950 Y-9.262
G1 X18.750 Y-9.206
G1 X18.450 Y-9.188
G1 X18.356 Y-9.225
G1 X18.288 Y-9.300
G1 X18.288 Y-9.300
G1 X18.219 Y-9.594
G1 X18.225 Y-9.738
G1 X18.250 Y-9.806
G0 X18.281 Y-9.863
G0 X18.569 Y-10.100
G0 X19.825 Y-10.912
G1 X19.887 Y-10.950
G1 X20.081 Y-11.069
G1 X20.137 Y-11.088
G1 X20.194 Y-11.081
G1 X20.288 Y-11.006
G1 X20.356 Y-10.887
G1 X20.419 Y-10.600
G1 X20.419 Y-10.600
G1 X20.394 Y-10.000
G1 X20.319 Y-9.700
G1 X20.238 Y-9.506
G1 X19.887 Y-9.106
G1 X19.556 Y-8.856
G1 X18.844 Y-8.613
G1 X18.744 Y-8.613
G1 X18.650 Y-8.650
G1 X18.575 Y-8.713
G1 X18.575 Y-8.713
G1 X18.506 Y-9.006
G1 X18.512 Y-9.150
G1 X18.538 Y-9.219
G0 X18.569 Y-9.281
G0 X18.944 Y-9.575
G0 X19.825 Y-10.156
G1 X19.887 Y-10.200
G1 X20.081 Y-10.319
G1 X20.137 Y-10.338
G1 X20.194 Y-10.331
G1 X20.288 Y-10.256
G1 X20.356 Y-10.137
G1 X20.419 Y-9.850
G1 X20.419 Y-9.850
G1 X20.413 Y-9.350
G1 X20.356 Y-9.050
G1 X20.281 Y-8.856
G1 X20.087 Y-8.613
G1 X19.775 Y-8.344
G1 X19.500 Y-8.194
G1 X19.300 Y-8.125
G1 X19.000 Y-8.088
G1 X18.900 Y-8.113
G1 X18.819 Y-8.169
G1 X18.819 Y-8.169
G1 X18.762 Y-8.387
G1 X18.769 Y-8.606
G1 X18.794 Y-8.669
G0 X18.831 Y-8.731
G0 X19.806 Y-9.294
G1 X19.869 Y-9.331
G1 X20.075 Y-9.425
G1 X20.137 Y-9.444
G1 X20.194 Y-9.431
G1 X20.288 Y-9.356
G1 X20.356 Y-9.238
G1 X20.419 Y-8.950
G1 X20.419 Y-8.950
G1 X20.387 Y-8.550
G1 X20.294 Y-8.250
G1 X20.244 Y-8.156
G1 X20.100 Y-8.000
G1 X19.850 Y-7.806
G1 X19.569 Y-7.675
G1 X19.269 Y-7.612
G1 X19.169 Y-7.606
G1 X19.075 Y-7.644
G1 X19.006 Y-7.719
G1 X19.006 Y-7.719
G1 X18.950 Y-7.938
G1 X18.956 Y-8.156
G1 X18.981 Y-8.219
G0 X19.019 Y-8.275
G0 X19.800 Y-8.706
G1 X19.869 Y-8.744
G1 X20.075 Y-8.831
G1 X20.137 Y-8.844
G1 X20.194 Y-8.838
G1 X20.288 Y-8.756
G1 X20.356 Y-8.637
G1 X20.419 Y-8.350
G1 X20.419 Y-8.350
G1 X20.400 Y-8.050
G1 X20.325 Y-7.750
G1 X20.225 Y-7.569
G1 X19.988 Y-7.362
G1 X19.806 Y-7.263
G1 X19.606 Y-7.194
G1 X19.406 Y-7.162
G1 X19.306 Y-7.175
G1 X19.219 Y-7.219
G1 X19.219 Y-7.219
G1 X19.163 Y-7.438
G1 X19.181 Y-7.569
G0 X19.212 Y-7.625
G0 X19.381 Y-7.756
G0 X19.881 Y-7.987
G1 X19.950 Y-8.019
G1 X20.156 Y-8.113
G1 X20.219 Y-8.119
G1 X20.269 Y-8.106
G1 X20.319 Y-8.069
G1 X20.375 Y-7.956
G1 X20.419 Y-7.750
G1 X20.419 Y-7.750
G1 X20.413 Y-7.550
G1 X20.337 Y-7.250
G1 X20.238 Y-7.069
G1 X19.994 Y-6.881
G1 X19.800 Y-6.794
G1 X19.600 Y-6.750
G1 X19.500 Y-6.744
G1 X19.406 Y-6.781
G1 X19.344 Y-6.856
G1 X19.344 Y-6.856
G1 X19.288 Y-7.075
G1 X19.306 Y-7.206
G0 X19.337 Y-7.263
G0 X19.512 Y-7.388
G0 X19.875 Y-7.550
G1 X19.944 Y-7.581
G1 X20.156 Y-7.662
G1 X20.219 Y-7.675
G1 X20.269 Y-7.656
G1 X20.312 Y-7.625
G1 X20.375 Y-7.506
G1 X20.419 Y-7.300
G1 X20.419 Y-7.300
G1 X20.413 Y-7.100
G1 X20.337 Y-6.800
G1 X20.238 Y-6.619
G1 X20.069 Y-6.494
G1 X19.875 Y-6.406
G1 X19.675 Y-6.369
G1 X19.575 Y-6.381
G1 X19.488 Y-6.431
G1 X19.488 Y-6.431
G1 X19.444 Y-6.650
G1 X19.469 Y-6.781
G0 X19.500 Y-6.838
G0 X19.881 Y-7.075
G1 X19.950 Y-7.106
G1 X20.150 Y-7.200
G1 X20.212 Y-7.213
G1 X20.269 Y-7.200
G1 X20.312 Y-7.169
G1 X20.375 Y-7.056
G1 X20.419 Y-6.850
G1 X20.419 Y-6.850
G1 X20.413 Y-6.650
G1 X20.369 Y-6.450
G1 X20.281 Y-6.256
G1 X20.212 Y-6.181
G1 X20.031 Y-6.081
G1 X19.831 Y-6.031
G1 X19.731 Y-6.025
G1 X19.637 Y-6.056
G1 X19.575 Y-6.131
G1 X19.575 Y-6.131
G1 X19.550 Y-6.275
G1 X19.562 Y-6.338
G0 X19.594 Y-6.388
G0 X19.706 Y-6.469
G0 X19.931 Y-6.550
G1 X20.006 Y-6.575
G1 X20.219 Y-6.638
G1 X20.281 Y-6.644
G1 X20.331 Y-6.619
G1 X20.369 Y-6.581
G1 X20.419 Y-6.400
G1 X20.419 Y-6.400
G1 X20.406 Y-6.200
G1 X20.344 Y-6.000
G1 X20.294 Y-5.906
G1 X20.225 Y-5.825
G1 X20.044 Y-5.737
G1 X19.844 Y-5.700
G1 X19.744 Y-5.725
G1 X19.675 Y-5.800
G1 X19.675 Y-5.800
G1 X19.656 Y-5.944
G1 X19.675 Y-6.006
G0 X19.712 Y-6.050
G0 X19.837 Y-6.119
G0 X19.919 Y-6.144
G1 X19.994 Y-6.162
G1 X20.219 Y-6.206
G1 X20.281 Y-6.200
G1 X20.331 Y-6.175
G1 X20.387 Y-6.075
G1 X20.419 Y-5.950
G1 X20.419 Y-5.950
G1 X20.375 Y-5.750
G1 X20.337 Y-5.650
G1 X20.281 Y-5.562
G1 X20.206 Y-5.494
G1 X20.113 Y-5.450
G1 X20.012 Y-5.425
G1 X19.913 Y-5.419
G1 X19.812 Y-5.450
G1 X19.812 Y-5.450
G1 X19.788 Y-5.594
G1 X19.800 Y-5.656
G0 X19.831 Y-5.706
G0 X19.938 Y-5.787
G1 X20.006 Y-5.819
G1 X20.219 Y-5.881
G1 X20.275 Y-5.888
G1 X20.325 Y-5.869
G1 X20.363 Y-5.831
G1 X20.419 Y-5.650
G1 X20.419 Y-5.650
G1 X20.413 Y-5.550
G1 X20.350 Y-5.350
G1 X20.294 Y-5.263
G1 X20.219 Y-5.194
G1 X20.119 Y-5.156
G1 X20.019 Y-5.138
G1 X19.919 Y-5.156
G1 X19.837 Y-5.219
G1 X19.837 Y-5.219
G1 X19.831 Y-5.362
G1 X19.850 Y-5.425
G0 X19.887 Y-5.475
G0 X19.938 Y-5.513
G1 X20.006 Y-5.537
G1 X20.212 Y-5.594
G1 X20.275 Y-5.594
G1 X20.325 Y-5.569
G1 X20.363 Y-5.531
G1 X20.419 Y-5.350
G1 X20.419 Y-5.350
G1 X20.413 Y-5.250
G1 X20.350 Y-5.056
G1 X20.294 Y-4.969
G1 X20.212 Y-4.906
G1 X20.012 Y-4.881
G1 X19.925 Y-4.931
G1 X19.925 Y-4.931
G1 X19.906 Y-5.075
G1 X19.925 Y-5.138
G0 X19.962 Y-5.188
G1 X20.012 Y-5.225
G1 X20.212 Y-5.294
G1 X20.275 Y-5.294
G1 X20.325 Y-5.269
G1 X20.363 Y-5.231
G1 X20.419 Y-5.050
G1 X20.419 Y-5.050
G1 X20.406 Y-4.950
G1 X20.331 Y-4.756
G1 X20.262 Y-4.675
G1 X20.169 Y-4.631
G1 X20.069 Y-4.631
G1 X19.981 Y-4.688
G1 X19.981 Y-4.688
G1 X19.988 Y-4.750
G0 X20.012 Y-4.806
G1 X20.050 Y-4.856
G1 X20.225 Y-4.963
G1 X20.281 Y-4.969
G1 X20.325 Y-4.956
G1 X20.363 Y-4.925
G1 X20.419 Y-4.750
G1 X20.419 Y-4.750
G1 X20.387 Y-4.650
G1 X20.331 Y-4.562
G1 X20.244 Y-4.500
G1 X20.144 Y-4.487
G1 X20.050 Y-4.531
G1 X20.050 Y-4.531
G1 X19.988 Y-4.675
G1 X19.944 Y-4.825
G1 X19.919 Y-4.975
G1 X19.906 Y-5.125
G0 Z5.000
G0 X19.906 Y-5.125
G0 X13.731 Y-15.531
G1 Z-12.000
G1 X13.731 Y-15.531
G1 X13.581 Y-15.537
G1 X13.431 Y-15.569
G1 X13.287 Y-15.631
G1 X13.162 Y-15.719
G1 X13.162 Y-15.719
G1 X12.637 Y-16.175
G1 X12.438 Y-16.400
G1 X12.325 Y-16.562
G1 X12.281 Y-16.650
G1 X12.169 Y-17.212
G1 X12.150 Y-17.587
G1 X12.250 Y-18.325
G1 X12.475 Y-19.038
G1 X12.912 Y-19.844
G1 X13.269 Y-20.294
G1 X13.438 Y-20.394
G1 X13.531 Y-20.419
G1 X14.188 Y-20.419
G1 X14.188 Y-20.419
G1 X14.412 Y-20.381
G1 X14.556 Y-20.325
G1 X14.656 Y-20.238
G0 X14.681 Y-20.181
G0 X14.669 Y-20.062
G0 X13.119 Y-16.656
G1 X13.081 Y-16.569
G1 X13.000 Y-16.413
G1 X12.956 Y-16.350
G1 X12.900 Y-16.306
G1 X12.769 Y-16.262
G1 X12.625 Y-16.269
G1 X12.344 Y-16.375
G1 X12.344 Y-16.375
G1 X11.875 Y-16.750
G1 X11.675 Y-16.969
G1 X11.562 Y-17.131
G1 X11.519 Y-17.219
G1 X11.406 Y-17.781
G1 X11.387 Y-18.062
G1 X11.469 Y-18.806
G1 X11.631 Y-19.400
G1 X11.900 Y-20.006
G1 X12.062 Y-20.244
G1 X12.125 Y-20.312
G1 X12.287 Y-20.413
G1 X12.475 Y-20.419
G1 X12.475 Y-20.419
G1 X12.700 Y-20.381
G1 X12.844 Y-20.325
G1 X12.950 Y-20.238
G0 X12.975 Y-20.181
G0 X12.988 Y-20.050
G0 X12.312 Y-17.212
G1 X12.287 Y-17.125
G1 X12.244 Y-16.956
G1 X12.206 Y-16.887
G1 X12.162 Y-16.837
G1 X12.106 Y-16.806
G1 X11.975 Y-16.794
G1 X11.756 Y-16.844
G1 X11.619 Y-16.906
G1 X11.619 Y-16.906
G1 X11.200 Y-17.200
G1 X10.919 Y-17.481
G1 X10.806 Y-17.650
G1 X10.631 Y-18.306
G1 X10.613 Y-18.494
G1 X10.669 Y-19.238
G1 X10.838 Y-19.831
G1 X10.956 Y-20.094
G1 X11.062 Y-20.256
G1 X11.125 Y-20.325
G1 X11.200 Y-20.381
G1 X11.287 Y-20.419
G1 X11.381 Y-20.419
G1 X11.381 Y-20.419
G1 X11.606 Y-20.381
G1 X11.750 Y-20.325
G1 X11.856 Y-20.238
G0 X11.887 Y-20.181
G0 X11.906 Y-20.044
G0 X11.525 Y-17.731
G1 X11.506 Y-17.644
G1 X11.475 Y-17.475
G1 X11.444 Y-17.400
G1 X11.400 Y-17.350
G1 X11.350 Y-17.319
G1 X11.219 Y-17.294
G1 X11.000 Y-17.337
G1 X10.863 Y-17.394
G1 X10.863 Y-17.394
G1 X10.369 Y-17.744
G1 X10.150 Y-17.956
G1 X10.050 Y-18.125
G1 X9.887 Y-18.688
G1 X9.856 Y-18.969
G1 X9.938 Y-19.712
G1 X10.062 Y-20.075
G1 X10.213 Y-20.319
G1 X10.369 Y-20.419
G1 X10.369 Y-20.419
G1 X10.594 Y-20.381
G1 X10.738 Y-20.325
G1 X10.850 Y-20.238
G0 X10.881 Y-20.181
G0 X10.919 Y-19.975
G0 X10.831 Y-18.163
G1 X10.825 Y-18.081
G1 X10.812 Y-17.913
G1 X10.794 Y-17.837
G1 X10.756 Y-17.781
G1 X10.706 Y-17.744
G1 X10.575 Y-17.712
G1 X10.219 Y-17.781
G1 X10.219 Y-17.781
G1 X9.625 Y-18.163
G1 X9.475 Y-18.300
G1 X9.350 Y-18.456
G1 X9.188 Y-18.919
G1 X9.131 Y-19.294
G1 X9.256 Y-20.031
G1 X9.375 Y-20.288
G1 X9.525 Y-20.400
G1 X9.619 Y-20.419
G1 X9.713 Y-20.419
G1 X9.713 Y-20.419
G1 X9.938 Y-20.381
G1 X10.081 Y-20.325
G1 X10.188 Y-20.238
G0 X10.219 Y-20.175
G0 X10.244 Y-20.044
G0 X10.081 Y-18.606
G1 X10.069 Y-18.525
G1 X10.044 Y-18.356
G1 X10.019 Y-18.281
G1 X9.981 Y-18.225
G1 X9.925 Y-18.188
G1 X9.794 Y-18.150
G1 X9.581 Y-18.169
G1 X9.438 Y-18.219
G1 X9.438 Y-18.219
G1 X9.006 Y-18.469
G1 X8.775 Y-18.663
G1 X8.650 Y-18.819
G1 X8.525 Y-19.194
G1 X8.475 Y-19.569
G1 X8.669 Y-20.288
G1 X8.738 Y-20.356
G1 X8.819 Y-20.406
G1 X8.912 Y-20.419
G1 X8.912 Y-20.419
G1 X9.137 Y-20.381
G1 X9.281 Y-20.325
G1 X9.387 Y-20.238
G0 X9.425 Y-20.175
G0 X9.456 Y-19.969
G0 X9.381 Y-18.969
G1 X9.375 Y-18.887
G1 X9.356 Y-18.719
G1 X9.338 Y-18.644
G1 X9.300 Y-18.587
G1 X9.250 Y-18.544
G1 X9.119 Y-18.500
G1 X8.906 Y-18.512
G1 X8.762 Y-18.550
G1 X8.762 Y-18.550
G1 X8.319 Y-18.788
G1 X8.162 Y-18.913
G1 X8.037 Y-19.069
G1 X7.900 Y-19.531
G1 X7.881 Y-19.812
G1 X7.931 Y-20.094
G1 X8.012 Y-20.269
G1 X8.075 Y-20.344
G1 X8.156 Y-20.394
G1 X8.250 Y-20.419
G1 X8.250 Y-20.419
G1 X8.475 Y-20.381
G1 X8.619 Y-20.325
G1 X8.725 Y-20.231
G0 X8.762 Y-20.175
G0 X8.781 Y-20.044
G0 X8.713 Y-19.269
G1 X8.700 Y-19.188
G1 X8.681 Y-19.019
G1 X8.656 Y-18.944
G1 X8.613 Y-18.887
G1 X8.562 Y-18.844
G1 X8.431 Y-18.800
G1 X8.219 Y-18.812
G1 X8.075 Y-18.850
G1 X8.075 Y-18.850
G1 X7.638 Y-19.106
G1 X7.494 Y-19.250
G1 X7.438 Y-19.331
G1 X7.356 Y-19.613
G1 X7.338 Y-19.894
G1 X7.388 Y-20.175
G1 X7.425 Y-20.262
G1 X7.481 Y-20.337
G1 X7.556 Y-20.394
G1 X7.650 Y-20.419
G1 X7.650 Y-20.419
G1 X7.875 Y-20.381
G1 X8.012 Y-20.319
G1 X8.125 Y-20.231
G0 X8.156 Y-20.169
G0 X8.181 Y-19.956
G0 X8.150 Y-19.556
G1 X8.137 Y-19.469
G1 X8.119 Y-19.300
G1 X8.094 Y-19.225
G1 X8.062 Y-19.163
G1 X7.950 Y-19.081
G1 X7.812 Y-19.056
G1 X7.519 Y-19.081
G1 X7.519 Y-19.081
G1 X7.244 Y-19.212
G1 X7.000 Y-19.400
G1 X6.888 Y-19.569
G1 X6.831 Y-19.850
G1 X6.838 Y-20.038
G1 X6.888 Y-20.225
G1 X6.925 Y-20.312
G1 X6.994 Y-20.375
G1 X7.081 Y-20.419
G1 X7.081 Y-20.419
G1 X7.306 Y-20.381
G1 X7.425 Y-20.312
G0 X7.463 Y-20.256
G0 X7.487 Y-20.119
G0 X7.456 Y-19.712
G1 X7.444 Y-19.625
G1 X7.425 Y-19.456
G1 X7.400 Y-19.381
G1 X7.356 Y-19.325
G1 X7.306 Y-19.294
G1 X7.175 Y-19.269
G1 X6.963 Y-19.300
G1 X6.963 Y-19.300
G1 X6.688 Y-19.438
G1 X6.531 Y-19.562
G1 X6.469 Y-19.637
G1 X6.406 Y-19.819
G1 X6.388 Y-20.006
G1 X6.394 Y-20.100
G1 X6.450 Y-20.288
G1 X6.513 Y-20.363
G1 X6.594 Y-20.413
G1 X6.688 Y-20.419
G1 X6.688 Y-20.419
G1 X6.912 Y-20.381
G1 X7.025 Y-20.312
G0 X7.056 Y-20.256
G0 X7.075 Y-20.125
G0 X7.050 Y-19.900
G1 X7.037 Y-19.819
G1 X7.006 Y-19.650
G1 X6.981 Y-19.575
G1 X6.938 Y-19.519
G1 X6.881 Y-19.475
G1 X6.756 Y-19.438
G1 X6.537 Y-19.444
G1 X6.537 Y-19.444
G1 X6.350 Y-19.519
G1 X6.181 Y-19.625
G1 X6.044 Y-19.769
G1 X6.006 Y-19.856
G1 X5.981 Y-20.044
G1 X6.006 Y-20.231
G1 X6.037 Y-20.319
G1 X6.112 Y-20.381
G1 X6.200 Y-20.419
G1 X6.200 Y-20.419
G1 X6.344 Y-20.394
G1 X6.400 Y-20.369
G0 X6.438 Y-20.325
G0 X6.469 Y-20.212
G0 X6.456 Y-19.988
G1 X6.444 Y-19.906
G1 X6.419 Y-19.744
G1 X6.394 Y-19.675
G1 X6.356 Y-19.625
G1 X6.300 Y-19.594
G1 X6.106 Y-19.575
G1 X6.106 Y-19.575
G1 X5.831 Y-19.706
G1 X5.750 Y-19.769
G1 X5.681 Y-19.844
G1 X5.631 Y-19.931
G1 X5.619 Y-20.119
G1 X5.631 Y-20.212
G1 X5.662 Y-20.306
G1 X5.725 Y-20.375
G1 X5.806 Y-20.419
G1 X5.806 Y-20.419
G1 X5.944 Y-20.394
G1 X6.000 Y-20.363
G0 X6.037 Y-20.319
G0 X6.050 Y-20.194
G0 X6.044 Y-20.119
G1 X6.037 Y-20.044
G1 X6.000 Y-19.875
G1 X5.969 Y-19.806
G1 X5.925 Y-19.756
G1 X5.875 Y-19.725
G1 X5.675 Y-19.706
G1 X5.675 Y-19.706
G1 X5.500 Y-19.806
G1 X5.350 Y-19.938
G1 X5.300 Y-20.025
G1 X5.300 Y-20.212
G1 X5.325 Y-20.306
G1 X5.394 Y-20.375
G1 X5.481 Y-20.419
G1 X5.481 Y-20.419
G1 X5.619 Y-20.387
G1 X5.675 Y-20.356
G0 X5.706 Y-20.300
G0 X5.725 Y-20.225
G1 X5.725 Y-20.144
G1 X5.706 Y-19.969
G1 X5.675 Y-19.900
G1 X5.638 Y-19.844
G1 X5.581 Y-19.812
G1 X5.388 Y-19.794
G1 X5.388 Y-19.794
G1 X5.200 Y-19.869
G1 X5.044 Y-19.994
G1 X4.994 Y-20.081
G1 X4.987 Y-20.175
G1 X5.006 Y-20.269
G1 X5.050 Y-20.350
G1 X5.125 Y-20.406
G1 X5.125 Y-20.406
G1 X5.269 Y-20.375
G1 X5.325 Y-20.337
G0 X5.362 Y-20.281
G1 X5.381 Y-20.212
G1 X5.394 Y-20.050
G1 X5.375 Y-19.975
G1 X5.344 Y-19.925
G1 X5.294 Y-19.894
G1 X5.100 Y-19.869
G1 X5.100 Y-19.869
G1 X4.906 Y-19.944
G1 X4.825 Y-20.000
G1 X4.756 Y-20.075
G1 X4.713 Y-20.163
G1 X4.719 Y-20.256
G1 X4.763 Y-20.344
G1 X4.838 Y-20.400
G1 X4.931 Y-20.419
G1 X4.931 Y-20.419
G1 X5.069 Y-20.394
G1 X5.125 Y-20.369
G0 X5.156 Y-20.325
G1 X5.162 Y-20.262
G1 X5.144 Y-20.125
G1 X5.106 Y-20.056
G1 X5.062 Y-20.006
G1 X4.944 Y-19.956
G1 X4.806 Y-19.944
G1 X4.806 Y-19.944
G1 X4.625 Y-20.025
G1 X4.556 Y-20.100
G1 X4.531 Y-20.194
G1 X4.544 Y-20.288
G1 X4.600 Y-20.363
G1 X4.688 Y-20.406
G1 X4.688 Y-20.406
G1 X4.838 Y-20.419
G1 X4.987 Y-20.400
G1 X5.131 Y-20.350
G1 X5.263 Y-20.275
G0 Z5.000
G0 X5.263 Y-20.275
G0 X18.675 Y-20.200
G1 Z-12.000
G1 X18.675 Y-20.200
G1 X18.800 Y-20.300
G1 X18.944 Y-20.375
G1 X19.100 Y-20.419
G1 X19.256 Y-20.419
G1 X19.256 Y-20.419
G1 X19.819 Y-20.413
G1 X20.100 Y-20.356
G1 X20.281 Y-20.281
G1 X20.356 Y-20.219
G1 X20.419 Y-20.137
G1 X20.419 Y-19.938
G1 X20.419 Y-19.938
G1 X20.394 Y-19.900
G1 X20.369 Y-19.900
G1 X20.119 Y-20.225
G1 X20.075 Y-20.331
G1 X20.087 Y-20.369
G1 X20.156 Y-20.419
G1 X20.156 Y-20.419
G1 X20.250 Y-20.406
G1 X20.337 Y-20.356
G1 X20.400 Y-20.281
G1 X20.400 Y-20.281
G1 X20.406 Y-20.250
G1 X20.406 Y-20.250
G1 X20.375 Y-20.350
G1 X20.381 Y-20.363
G1 X20.438 Y-20.363
G1 X20.438 Y-20.363
G1 X20.488 Y-20.250
G1 X20.500 Y-20.181
G1 X20.475 Y-4.588
G1 X20.413 Y-4.494
G1 X20.375 Y-4.463
G1 X20.256 Y-4.406
G1 X20.200 Y-4.400
G1 X20.044 Y-4.444
G1 X19.962 Y-4.525
G1 X19.906 Y-4.638
G1 X19.663 Y-5.588
G1 X19.281 Y-6.794
G1 X19.025 Y-7.475
G1 X18.581 Y-8.531
G1 X17.994 Y-9.713
G1 X17.406 Y-10.725
G1 X16.769 Y-11.694
G1 X16.125 Y-12.562
G1 X15.244 Y-13.625
G1 X14.512 Y-14.412
G1 X13.469 Y-15.375
G1 X12.400 Y-16.250
G1 X11.494 Y-16.906
G1 X10.481 Y-17.556
G1 X9.412 Y-18.150
G1 X8.787 Y-18.462
G1 X7.731 Y-18.925
G1 X6.569 Y-19.363
G1 X5.419 Y-19.712
G1 X4.606 Y-19.931
G1 X4.506 Y-20.006
G1 X4.463 Y-20.100
G1 X4.444 Y-20.219
G1 X4.494 Y-20.356
G1 X4.562 Y-20.431
G1 X4.675 Y-20.481
G1 X4.787 Y-20.494
G1 X20.200 Y-20.488
G1 X20.312 Y-20.462
G1 X20.400 Y-20.406
G1 X20.438 Y-20.363
G1 X20.438 Y-20.363
G0 Z5.000
(Helix to depth: -12.000000)
G0 Z5.000
G0 X-14.710 Y-16.717 Z5.000
G0 X-14.710 Y-16.717 Z3.000
G1 X-14.710 Y-16.717 Z0.000
G1 X-14.710 Y-16.717 Z0.000
G1 X-14.798 Y-16.286 Z-0.039
G1 X-14.969 Y-15.882 Z-0.077
G1 X-15.215 Y-15.518 Z-0.116
G1 X-15.527 Y-15.210 Z-0.155
G1 X-15.894 Y-14.968 Z-0.193
G1 X-16.301 Y-14.802 Z-0.232
G1 X-16.732 Y-14.719 Z-0.271
G1 X-17.171 Y-14.722 Z-0.309
G1 X-17.601 Y-14.811 Z-0.348
G1 X-18.006 Y-14.981 Z-0.387
G1 X-18.369 Y-15.227 Z-0.425
G1 X-18.678 Y-15.540 Z-0.464
G1 X-18.920 Y-15.906 Z-0.502
G1 X-19.085 Y-16.313 Z-0.541
G1 X-19.168 Y-16.744 Z-0.580
G1 X-19.165 Y-17.183 Z-0.618
G1 X-19.077 Y-17.614 Z-0.657
G1 X-18.906 Y-18.018 Z-0.696
G1 X-18.660 Y-18.382 Z-0.734
G1 X-18.348 Y-18.690 Z-0.773
G1 X-17.981 Y-18.932 Z-0.812
G1 X-17.574 Y-19.098 Z-0.850
G1 X-17.143 Y-19.181 Z-0.889
G1 X-16.704 Y-19.178 Z-0.928
G1 X-16.274 Y-19.089 Z-0.966
G1 X-15.869 Y-18.919 Z-1.005
G1 X-15.506 Y-18.673 Z-1.044
G1 X-15.197 Y-18.360 Z-1.082
G1 X-14.955 Y-17.994 Z-1.121
G1 X-14.790 Y-17.587 Z-1.160
G1 X-14.707 Y-17.156 Z-1.198
G1 X-14.710 Y-16.717 Z-1.237
G1 X-14.798 Y-16.286 Z-1.275
G1 X-14.969 Y-15.882 Z-1.314
G1 X-15.215 Y-15.518 Z-1.353
G1 X-15.527 Y-15.210 Z-1.391
G1 X-15.894 Y-14.968 Z-1.430
G1 X-16.301 Y-14.802 Z-1.469
G1 X-16.732 Y-14.719 Z-1.507
G1 X-17.171 Y-14.722 Z-1.546
G1 X-17.601 Y-14.811 Z-1.585
G1 X-18.006 Y-14.981 Z-1.623
G1 X-18.369 Y-15.227 Z-1.662
G1 X-18.678 Y-15.540 Z-1.701
G1 X-18.920 Y-15.906 Z-1.739
G1 X-19.085 Y-16.313 Z-1.778
G1 X-19.168 Y-16.744 Z-1.817
G1 X-19.165 Y-17.183 Z-1.855
G1 X-19.077 Y-17.614 Z-1.894
G1 X-18.906 Y-18.018 Z-1.933
G1 X-18.660 Y-18.382 Z-1.971
G1 X-18.348 Y-18.690 Z-2.010
G1 X-17.981 Y-18.932 Z-2.049
G1 X-17.574 Y-19.098 Z-2.087
G1 X-17.143 Y-19.181 Z-2.126
G1 X-16.704 Y-19.178 Z-2.164
G1 X-16.274 Y-19.089 Z-2.203
G1 X-15.869 Y-18.919 Z-2.242
G1 X-15.506 Y-18.673 Z-2.280
G1 X-15.197 Y-18.360 Z-2.319
G1 X-14.955 Y-17.994 Z-2.358
G1 X-14.790 Y-17.587 Z-2.396
G1 X-14.707 Y-17.156 Z-2.435
G1 X-14.710 Y-16.717 Z-2.474
G1 X-14.798 Y-16.286 Z-2.512
G1 X-14.969 Y-15.882 Z-2.551
G1 X-15.215 Y-15.518 Z-2.590
G1 X-15.527 Y-15.210 Z-2.628
G1 X-15.894 Y-14.968 Z-2.667
G1 X-16.301 Y-14.802 Z-2.706
G1 X-16.732 Y-14.719 Z-2.744
G1 X-17.171 Y-14.722 Z-2.783
G1 X-17.601 Y-14.811 Z-2.822
G1 X-18.006 Y-14.981 Z-2.860
G1 X-18.369 Y-15.227 Z-2.899
G1 X-18.678 Y-15.540 Z-2.937
G1 X-18.920 Y-15.906 Z-2.976
G1 X-19.085 Y-16.313 Z-3.015
G1 X-19.168 Y-16.744 Z-3.053
G1 X-19.165 Y-17.183 Z-3.092
G1 X-19.077 Y-17.614 Z-3.131
G1 X-18.906 Y-18.018 Z-3.169
G1 X-18.660 Y-18.382 Z-3.208
G1 X-18.348 Y-18.690 Z-3.247
G1 X-17.981 Y-18.932 Z-3.285
G1 X-17.574 Y-19.098 Z-3.324
G1 X-17.143 Y-19.181 Z-3.363
G1 X-16.704 Y-19.178 Z-3.401
G1 X-16.274 Y-19.089 Z-3.440
G1 X-15.869 Y-18.919 Z-3.479
G1 X-15.506 Y-18.673 Z-3.517
G1 X-15.197 Y-18.360 Z-3.556
G1 X-14.955 Y-17.994 Z-3.595
G1 X-14.790 Y-17.587 Z-3.633
G1 X-14.707 Y-17.156 Z-3.672
G1 X-14.710 Y-16.717 Z-3.711
G1 X-14.798 Y-16.286 Z-3.749
G1 X-14.969 Y-15.882 Z-3.788
G1 X-15.215 Y-15.518 Z-3.826
G1 X-15.527 Y-15.210 Z-3.865
G1 X-15.894 Y-14.968 Z-3.904
G1 X-16.301 Y-14.802 Z-3.942
G1 X-16.732 Y-14.719 Z-3.981
G1 X-17.171 Y-14.722 Z-4.020
G1 X-17.601 Y-14.811 Z-4.058
G1 X-18.006 Y-14.981 Z-4.097
G1 X-18.369 Y-15.227 Z-4.136
G1 X-18.678 Y-15.540 Z-4.174
G1 X-18.920 Y-15.906 Z-4.213
G1 X-19.085 Y-16.313 Z-4.252
G1 X-19.168 Y-16.744 Z-4.290
G1 X-19.165 Y-17.183 Z-4.329
G1 X-19.077 Y-17.614 Z-4.368
G1 X-18.906 Y-18.018 Z-4.406
G1 X-18.660 Y-18.382 Z-4.445
G1 X-18.348 Y-18.690 Z-4.484
G1 X-17.981 Y-18.932 Z-4.522
G1 X-17.574 Y-19.098 Z-4.561
G1 X-17.143 Y-19.181 Z-4.600
G1 X-16.704 Y-19.178 Z-4.638
G1 X-16.274 Y-19.089 Z-4.677
G1 X-15.869 Y-18.919 Z-4.715
G1 X-15.506 Y-18.673 Z-4.754
G1 X-15.197 Y-18.360 Z-4.793
G1 X-14.955 Y-17.994 Z-4.831
G1 X-14.790 Y-17.587 Z-4.870
G1 X-14.707 Y-17.156 Z-4.909
G1 X-14.710 Y-16.717 Z-4.947
G1 X-14.798 Y-16.286 Z-4.986
G1 X-14.969 Y-15.882 Z-5.025
G1 X-15.215 Y-15.518 Z-5.063
G1 X-15.527 Y-15.210 Z-5.102
G1 X-15.894 Y-14.968 Z-5.141
G1 X-16.301 Y-14.802 Z-5.179
G1 X-16.732 Y-14.719 Z-5.218
G1 X-17.171 Y-14.722 Z-5.257
G1 X-17.601 Y-14.811 Z-5.295
G1 X-18.006 Y-14.981 Z-5.334
G1 X-18.369 Y-15.227 Z-5.373
G1 X-18.678 Y-15.540 Z-5.411
G1 X-18.920 Y-15.906 Z-5.450
G1 X-19.085 Y-16.313 Z-5.488
G1 X-19.168 Y-16.744 Z-5.527
G1 X-19.165 Y-17.183 Z-5.566
G1 X-19.077 Y-17.614 Z-5.604
G1 X-18.906 Y-18.018 Z-5.643
G1 X-18.660 Y-18.382 Z-5.682
G1 X-18.348 Y-18.690 Z-5.720
G1 X-17.981 Y-18.932 Z-5.759
G1 X-17.574 Y-19.098 Z-5.798
G1 X-17.143 Y-19.181 Z-5.836
G1 X-16.704 Y-19.178 Z-5.875
G1 X-16.274 Y-19.089 Z-5.914
G1 X-15.869 Y-18.919 Z-5.952
G1 X-15.506 Y-18.673 Z-5.991
G1 X-15.197 Y-18.360 Z-6.030
G1 X-14.955 Y-17.994 Z-6.068
G1 X-14.790 Y-17.587 Z-6.107
G1 X-14.707 Y-17.156 Z-6.146
G1 X-14.710 Y-16.717 Z-6.184
G1 X-14.798 Y-16.286 Z-6.223
G1 X-14.969 Y-15.882 Z-6.262
G1 X-15.215 Y-15.518 Z-6.300
G1 X-15.527 Y-15.210 Z-6.339
G1 X-15.894 Y-14.968 Z-6.377
G1 X-16.301 Y-14.802 Z-6.416
G1 X-16.732 Y-14.719 Z-6.455
G1 X-17.171 Y-14.722 Z-6.493
G1 X-17.601 Y-14.811 Z-6.532
G1 X-18.006 Y-14.981 Z-6.571
G1 X-18.369 Y-15.227 Z-6.609
G1 X-18.678 Y-15.540 Z-6.648
G1 X-18.920 Y-15.906 Z-6.687
G1 X-19.085 Y-16.313 Z-6.725
G1 X-19.168 Y-16.744 Z-6.764
G1 X-19.165 Y-17.183 Z-6.803
G1 X-19.077 Y-17.614 Z-6.841
G1 X-18.906 Y-18.018 Z-6.880
G1 X-18.660 Y-18.382 Z-6.919
G1 X-18.348 Y-18.690 Z-6.957
G1 X-17.981 Y-18.932 Z-6.996
G1 X-17.574 Y-19.098 Z-7.035
G1 X-17.143 Y-19.181 Z-7.073
G1 X-16.704 Y-19.178 Z-7.112
G1 X-16.274 Y-19.089 Z-7.150
G1 X-15.869 Y-18.919 Z-7.189
G1 X-15.506 Y-18.673 Z-7.228
G1 X-15.197 Y-18.360 Z-7.266
G1 X-14.955 Y-17.994 Z-7.305
G1 X-14.790 Y-17.587 Z-7.344
G1 X-14.707 Y-17.156 Z-7.382
G1 X-14.710 Y-16.717 Z-7.421
G1 X-14.798 Y-16.286 Z-7.460
G1 X-14.969 Y-15.882 Z-7.498
G1 X-15.215 Y-15.518 Z-7.537
G1 X-15.527 Y-15.210 Z-7.576
G1 X-15.894 Y-14.968 Z-7.614
G1 X-16.301 Y-14.802 Z-7.653
G1 X-16.732 Y-14.719 Z-7.692
G1 X-17.171 Y-14.722 Z-7.730
G1 X-17.601 Y-14.811 Z-7.769
G1 X-18.006 Y-14.981 Z-7.808
G1 X-18.369 Y-15.227 Z-7.846
G1 X-18.678 Y-15.540 Z-7.885
G1 X-18.920 Y-15.906 Z-7.924
G1 X-19.085 Y-16.313 Z-7.962
G1 X-19.168 Y-16.744 Z-8.001
G1 X-19.165 Y-17.183 Z-8.039
G1 X-19.077 Y-17.614 Z-8.078
G1 X-18.906 Y-18.018 Z-8.117
G1 X-18.660 Y-18.382 Z-8.155
G1 X-18.348 Y-18.690 Z-8.194
G1 X-17.981 Y-18.932 Z-8.233
G1 X-17.574 Y-19.098 Z-8.271
G1 X-17.143 Y-19.181 Z-8.310
G1 X-16.704 Y-19.178 Z-8.349
G1 X-16.274 Y-19.089 Z-8.387
G1 X-15.869 Y-18.919 Z-8.426
G1 X-15.506 Y-18.673 Z-8.465
G1 X-15.197 Y-18.360 Z-8.503
G1 X-14.955 Y-17.994 Z-8.542
G1 X-14.790 Y-17.587 Z-8.581
G1 X-14.707 Y-17.156 Z-8.619
G1 X-14.710 Y-16.717 Z-8.658
G1 X-14.798 Y-16.286 Z-8.697
G1 X-14.969 Y-15.882 Z-8.735
G1 X-15.215 Y-15.518 Z-8.774
G1 X-15.527 Y-15.210 Z-8.812
G1 X-15.894 Y-14.968 Z-8.851
G1 X-16.301 Y-14.802 Z-8.890
G1 X-16.732 Y-14.719 Z-8.928
G1 X-17.171 Y-14.722 Z-8.967
G1 X-17.601 Y-14.811 Z-9.006
G1 X-18.006 Y-14.981 Z-9.044
G1 X-18.369 Y-15.227 Z-9.083
G1 X-18.678 Y-15.540 Z-9.122
G1 X-18.920 Y-15.906 Z-9.160
G1 X-19.085 Y-16.313 Z-9.199
G1 X-19.168 Y-16.744 Z-9.238
G1 X-19.165 Y-17.183 Z-9.276
G1 X-19.077 Y-17.614 Z-9.315
G1 X-18.906 Y-18.018 Z-9.354
G1 X-18.660 Y-18.382 Z-9.392
G1 X-18.348 Y-18.690 Z-9.431
G1 X-17.981 Y-18.932 Z-9.470
G1 X-17.574 Y-19.098 Z-9.508
G1 X-17.143 Y-19.181 Z-9.547
G1 X-16.704 Y-19.178 Z-9.586
G1 X-16.274 Y-19.089 Z-9.624
G1 X-15.869 Y-18.919 Z-9.663
G1 X-15.506 Y-18.673 Z-9.701
G1 X-15.197 Y-18.360 Z-9.740
G1 X-14.955 Y-17.994 Z-9.779
G1 X-14.790 Y-17.587 Z-9.817
G1 X-14.707 Y-17.156 Z-9.856
G1 X-14.710 Y-16.717 Z-9.895
G1 X-14.798 Y-16.286 Z-9.933
G1 X-14.969 Y-15.882 Z-9.972
G1 X-15.215 Y-15.518 Z-10.011
G1 X-15.527 Y-15.210 Z-10.049
G1 X-15.894 Y-14.968 Z-10.088
G1 X-16.301 Y-14.802 Z-10.127
G1 X-16.732 Y-14.719 Z-10.165
G1 X-17.171 Y-14.722 Z-10.204
G1 X-17.601 Y-14.811 Z-10.243
G1 X-18.006 Y-14.981 Z-10.281
G1 X-18.369 Y-15.227 Z-10.320
G1 X-18.678 Y-15.540 Z-10.359
G1 X-18.920 Y-15.906 Z-10.397
G1 X-19.085 Y-16.313 Z-10.436
G1 X-19.168 Y-16.744 Z-10.475
G1 X-19.165 Y-17.183 Z-10.513
G1 X-19.077 Y-17.614 Z-10.552
G1 X-18.906 Y-18.018 Z-10.590
G1 X-18.660 Y-18.382 Z-10.629
G1 X-18.348 Y-18.690 Z-10.668
G1 X-17.981 Y-18.932 Z-10.706
G1 X-17.574 Y-19.098 Z-10.745
G1 X-17.143 Y-19.181 Z-10.784
G1 X-16.704 Y-19.178 Z-10.822
G1 X-16.274 Y-19.089 Z-10.861
G1 X-15.869 Y-18.919 Z-10.900
G1 X-15.506 Y-18.673 Z-10.938
G1 X-15.197 Y-18.360 Z-10.977
G1 X-14.955 Y-17.994 Z-11.016
G1 X-14.790 Y-17.587 Z-11.054
G1 X-14.707 Y-17.156 Z-11.093
G1 X-14.710 Y-16.717 Z-11.132
G1 X-14.798 Y-16.286 Z-11.170
G1 X-14.969 Y-15.882 Z-11.209
G1 X-15.215 Y-15.518 Z-11.248
G1 X-15.527 Y-15.210 Z-11.286
G1 X-15.894 Y-14.968 Z-11.325
G1 X-16.301 Y-14.802 Z-11.363
G1 X-16.732 Y-14.719 Z-11.402
G1 X-17.171 Y-14.722 Z-11.441
G1 X-17.601 Y-14.811 Z-11.479
G1 X-18.006 Y-14.981 Z-11.518
G1 X-18.369 Y-15.227 Z-11.557
G1 X-18.678 Y-15.540 Z-11.595
G1 X-18.920 Y-15.906 Z-11.634
G1 X-19.085 Y-16.313 Z-11.673
G1 X-19.168 Y-16.744 Z-11.711
G1 X-19.165 Y-17.183 Z-11.750
G1 X-19.077 Y-17.614 Z-11.789
G1 X-18.906 Y-18.018 Z-11.827
G1 X-18.660 Y-18.382 Z-11.866
G1 X-18.348 Y-18.690 Z-11.905
G1 X-17.981 Y-18.932 Z-11.943
G1 X-17.574 Y-19.098 Z-11.982
G1 X-17.143 Y-19.181 Z-12.000
G1 X-16.704 Y-19.178 Z-12.000
G1 X-16.274 Y-19.089 Z-12.000
G1 X-15.869 Y-18.919 Z-12.000
G1 X-15.506 Y-18.673 Z-12.000
G1 X-15.197 Y-18.360 Z-12.000
G1 X-14.955 Y-17.994 Z-12.000
G1 X-14.790 Y-17.587 Z-12.000
G1 X-14.707 Y-17.156 Z-12.000
G1 X-14.710 Y-16.717 Z-12.000
G1 X-14.798 Y-16.286 Z-12.000
G1 X-14.969 Y-15.882 Z-12.000
G1 X-15.215 Y-15.518 Z-12.000
G1 X-15.527 Y-15.210 Z-12.000
G1 X-15.894 Y-14.968 Z-12.000
G1 X-16.301 Y-14.802 Z-12.000
G1 X-16.732 Y-14.719 Z-12.000
G1 X-17.171 Y-14.722 Z-12.000
G1 X-17.601 Y-14.811 Z-12.000
G1 X-18.006 Y-14.981 Z-12.000
G1 X-18.369 Y-15.227 Z-12.000
G1 X-18.678 Y-15.540 Z-12.000
G1 X-18.920 Y-15.906 Z-12.000
G1 X-19.085 Y-16.313 Z-12.000
G1 X-19.168 Y-16.744 Z-12.000
G1 X-19.165 Y-17.183 Z-12.000
G1 X-19.077 Y-17.614 Z-12.000
G1 X-18.906 Y-18.018 Z-12.000
G1 X-18.660 Y-18.382 Z-12.000
G1 X-18.348 Y-18.690 Z-12.000
G1 X-17.981 Y-18.932 Z-12.000
G1 X-17.574 Y-19.098 Z-12.000
(Adaptive - depth: -12.000000)
G1 X-16.938 Y-19.200
G1 X-16.781 Y-19.325
G1 X-16.488 Y-19.425
G1 X-16.188 Y-19.444
G1 X-16.087 Y-19.438
G1 X-15.356 Y-19.244
G1 X-15.069 Y-19.069
G1 X-14.894 Y-18.938
G1 X-14.694 Y-18.750
G1 X-14.463 Y-18.475
G1 X-14.231 Y-18.081
G1 X-14.088 Y-17.762
G1 X-13.994 Y-17.394
G1 X-13.944 Y-17.069
G1 X-13.944 Y-16.681
G1 X-13.988 Y-16.319
G1 X-14.219 Y-15.556
G1 X-14.519 Y-15.031
G1 X-14.912 Y-14.588
G1 X-15.387 Y-14.231
G1 X-15.919 Y-13.969
G1 X-16.200 Y-13.887
G1 X-16.944 Y-13.825
G1 X-17.575 Y-13.906
G1 X-17.881 Y-14.000
G1 X-18.131 Y-14.100
G1 X-18.450 Y-14.262
G1 X-18.863 Y-14.544
G1 X-19.194 Y-14.875
G1 X-19.400 Y-15.137
G1 X-19.587 Y-15.444
G1 X-19.812 Y-15.956
G1 X-19.931 Y-16.519
G1 X-19.938 Y-17.175
G1 X-19.844 Y-17.644
G1 X-19.581 Y-18.275
G1 X-19.194 Y-18.913
G1 X-18.650 Y-19.425
G1 X-18.413 Y-19.594
G1 X-17.981 Y-19.831
G1 X-17.206 Y-20.087
G1 X-16.406 Y-20.194
G1 X-15.906 Y-20.169
G1 X-15.406 Y-20.044
G1 X-14.831 Y-19.794
G1 X-14.481 Y-19.556
G1 X-13.919 Y-19.056
G1 X-13.500 Y-18.456
G1 X-13.369 Y-18.169
G1 X-13.281 Y-17.925
G1 X-13.181 Y-17.581
G1 X-13.100 Y-17.062
G1 X-13.094 Y-16.262
G1 X-13.156 Y-15.863
G1 X-13.238 Y-15.681
G1 X-15.675 Y-13.325
G1 X-15.925 Y-13.156
G1 X-16.387 Y-13.000
G1 X-16.950 Y-12.919
G1 X-17.694 Y-12.994
G1 X-18.269 Y-13.156
G1 X-18.587 Y-13.300
G1 X-18.869 Y-13.456
G1 X-19.200 Y-13.669
G1 X-19.738 Y-14.131
G1 X-20.156 Y-14.650
G1 X-20.300 Y-14.900
G1 X-20.406 Y-15.269
G1 X-20.381 Y-17.988
G1 X-20.300 Y-18.456
G1 X-20.144 Y-18.819
G1 X-19.688 Y-19.462
G1 X-19.025 Y-20.150
G1 X-18.856 Y-20.262
G1 X-18.569 Y-20.375
G1 X-18.369 Y-20.413
G1 X-14.969 Y-20.394
G1 X-14.469 Y-20.300
G1 X-14.269 Y-20.231
G1 X-13.575 Y-19.769
G1 X-13.344 Y-19.556
G1 X-12.856 Y-18.981
G1 X-12.506 Y-18.344
G1 X-12.375 Y-18.006
G1 X-12.281 Y-17.688
G1 X-12.144 Y-16.975
G1 X-12.131 Y-16.675
G1 X-12.156 Y-16.575
G1 X-12.200 Y-16.488
G1 X-12.200 Y-16.488
G1 X-12.325 Y-16.394
G1 X-12.469 Y-16.337
G1 X-12.619 Y-16.312
G1 X-12.769 Y-16.312
G0 Z5.000
G0 X-12.769 Y-16.312
G0 X-15.481 Y-13.794
G1 Z-12.000
G1 X-15.481 Y-13.794
G1 X-15.488 Y-13.644
G1 X-15.519 Y-13.494
G1 X-15.581 Y-13.350
G1 X-15.669 Y-13.225
G1 X-15.669 Y-13.225
G1 X-16.188 Y-12.631
G1 X-16.413 Y-12.431
G1 X-16.669 Y-12.281
G1 X-17.325 Y-12.150
G1 X-17.606 Y-12.137
G1 X-18.344 Y-12.256
G1 X-18.856 Y-12.425
G1 X-19.169 Y-12.569
G1 X-19.488 Y-12.738
G1 X-20.144 Y-13.213
G1 X-20.281 Y-13.344
G1 X-20.375 Y-13.512
G1 X-20.406 Y-13.600
G1 X-20.406 Y-14.256
G1 X-20.406 Y-14.256
G1 X-20.363 Y-14.475
G1 X-20.306 Y-14.619
G1 X-20.219 Y-14.719
G0 X-20.163 Y-14.744
G0 X-20.044 Y-14.731
G0 X-16.575 Y-13.156
G1 X-16.488 Y-13.119
G1 X-16.331 Y-13.044
G1 X-16.269 Y-12.994
G1 X-16.225 Y-12.944
G1 X-16.188 Y-12.812
G1 X-16.206 Y-12.675
G1 X-16.331 Y-12.406
G1 X-16.331 Y-12.406
G1 X-16.769 Y-11.856
G1 X-17.075 Y-11.606
G1 X-17.256 Y-11.525
G1 X-17.819 Y-11.412
G1 X-18.006 Y-11.400
G1 X-18.750 Y-11.481
G1 X-19.337 Y-11.644
G1 X-19.938 Y-11.912
G1 X-20.256 Y-12.131
G1 X-20.369 Y-12.281
G1 X-20.406 Y-12.369
G1 X-20.406 Y-12.838
G1 X-20.406 Y-12.838
G1 X-20.363 Y-13.056
G1 X-20.306 Y-13.200
G1 X-20.219 Y-13.306
G0 X-20.163 Y-13.331
G0 X-20.031 Y-13.331
G0 X-17.163 Y-12.406
G1 X-17.075 Y-12.375
G1 X-16.913 Y-12.319
G1 X-16.844 Y-12.281
G1 X-16.794 Y-12.231
G1 X-16.762 Y-12.169
G1 X-16.750 Y-12.037
G1 X-16.800 Y-11.819
G1 X-16.863 Y-11.681
G1 X-16.863 Y-11.681
G1 X-17.212 Y-11.194
G1 X-17.500 Y-10.919
G1 X-17.669 Y-10.819
G1 X-18.231 Y-10.669
G1 X-18.512 Y-10.637
G1 X-19.256 Y-10.706
G1 X-19.819 Y-10.875
G1 X-20.081 Y-10.994
G1 X-20.244 Y-11.100
G1 X-20.312 Y-11.162
G1 X-20.369 Y-11.238
G1 X-20.406 Y-11.325
G1 X-20.406 Y-11.512
G1 X-20.406 Y-11.512
G1 X-20.363 Y-11.731
G1 X-20.306 Y-11.875
G1 X-20.219 Y-11.981
G0 X-20.163 Y-12.012
G0 X-20.031 Y-12.025
G0 X-17.675 Y-11.594
G1 X-17.587 Y-11.575
G1 X-17.419 Y-11.537
G1 X-17.350 Y-11.506
G1 X-17.300 Y-11.463
G1 X-17.269 Y-11.412
G1 X-17.250 Y-11.281
G1 X-17.294 Y-11.062
G1 X-17.356 Y-10.925
G1 X-17.356 Y-10.925
G1 X-17.775 Y-10.350
G1 X-17.919 Y-10.206
G1 X-18.087 Y-10.094
G1 X-18.456 Y-9.969
G1 X-18.925 Y-9.887
G1 X-19.669 Y-9.963
G1 X-20.031 Y-10.075
G1 X-20.281 Y-10.213
G1 X-20.394 Y-10.363
G1 X-20.406 Y-10.456
G1 X-20.406 Y-10.456
G1 X-20.363 Y-10.675
G1 X-20.306 Y-10.819
G1 X-20.219 Y-10.931
G0 X-20.156 Y-10.963
G0 X-19.950 Y-10.994
G0 X-18.131 Y-10.900
G1 X-18.044 Y-10.894
G1 X-17.875 Y-10.881
G1 X-17.800 Y-10.863
G1 X-17.744 Y-10.825
G1 X-17.706 Y-10.775
G1 X-17.675 Y-10.644
G1 X-17.744 Y-10.287
G1 X-17.744 Y-10.287
G1 X-18.062 Y-9.769
G1 X-18.331 Y-9.475
G1 X-18.500 Y-9.363
G1 X-19.156 Y-9.188
G1 X-19.250 Y-9.181
G1 X-19.988 Y-9.300
G1 X-20.163 Y-9.369
G1 X-20.319 Y-9.481
G1 X-20.375 Y-9.562
G1 X-20.406 Y-9.656
G1 X-20.406 Y-9.656
G1 X-20.363 Y-9.875
G1 X-20.306 Y-10.019
G1 X-20.219 Y-10.131
G0 X-20.156 Y-10.162
G0 X-19.950 Y-10.194
G0 X-18.562 Y-10.113
G1 X-18.481 Y-10.113
G1 X-18.312 Y-10.094
G1 X-18.238 Y-10.075
G1 X-18.181 Y-10.037
G1 X-18.144 Y-9.988
G1 X-18.113 Y-9.856
G1 X-18.181 Y-9.500
G1 X-18.181 Y-9.500
G1 X-18.438 Y-9.069
G1 X-18.631 Y-8.838
G1 X-18.788 Y-8.713
G1 X-19.163 Y-8.588
G1 X-19.538 Y-8.531
G1 X-20.262 Y-8.713
G1 X-20.331 Y-8.775
G1 X-20.387 Y-8.856
G1 X-20.406 Y-8.950
G1 X-20.406 Y-8.950
G1 X-20.363 Y-9.169
G1 X-20.306 Y-9.312
G1 X-20.212 Y-9.425
G0 X-20.156 Y-9.456
G0 X-19.950 Y-9.488
G0 X-18.938 Y-9.444
G1 X-18.856 Y-9.438
G1 X-18.688 Y-9.425
G1 X-18.613 Y-9.406
G1 X-18.556 Y-9.369
G1 X-18.512 Y-9.319
G1 X-18.469 Y-9.188
G1 X-18.481 Y-8.975
G1 X-18.519 Y-8.831
G1 X-18.519 Y-8.831
G1 X-18.700 Y-8.475
