(Exported by FreeCAD)
(Post Processor: script_module)
(Output Time:2025-01-22 02:28:56.729436)
(Begin preamble)
G17 G90
G21
(Block-name: Fixture)
(Block-expand: 0)
(Block-enable: 1)
(Begin operation: Fixture)
(Path: Fixture)
G54
(Finish operation: Fixture)
(Block-name: 8mm Endmill001)
(Block-expand: 0)
(Block-enable: 1)
(Begin operation: 8mm Endmill001)
(Path: 8mm Endmill001)
(8mm Endmill001)
(Begin toolchange)
( M6 T3 )
M3 S10000
(Finish operation: 8mm Endmill001)
(Block-name: RampEntryDressup)
(Block-expand: 0)
(Block-enable: 1)
(Begin operation: RampEntryDressup)
(Path: RampEntryDressup)
G0 X0.000 Y0.000 Z5.000
G0 X14.494 Y14.494 Z5.000
G0 X14.494 Y14.494 Z3.000
G1 X15.357 Y13.576 Z2.977 F200.000
G1 X16.162 Y12.606 Z2.951 F200.000
G1 X16.906 Y11.589 Z2.923 F200.000
G1 X17.586 Y10.529 Z2.893 F200.000
G1 X18.200 Y9.428 Z2.860 F200.000
G1 X18.745 Y8.292 Z2.825 F200.000
G1 X19.219 Y7.125 Z2.789 F200.000
G1 X19.620 Y5.931 Z2.750 F200.000
G1 X19.948 Y4.714 Z2.709 F200.000
G1 X20.200 Y3.480 Z2.668 F200.000
G1 X20.376 Y2.232 Z2.624 F200.000
G1 X20.474 Y0.977 Z2.580 F200.000
G1 X20.496 Y-0.283 Z2.534 F200.000
G1 X20.440 Y-1.541 Z2.487 F200.000
G1 X20.307 Y-2.794 Z2.440 F200.000
G1 X20.097 Y-4.035 Z2.392 F200.000
G1 X19.811 Y-5.262 Z2.344 F200.000
G1 X19.451 Y-6.469 Z2.296 F200.000
G1 X19.017 Y-7.651 Z2.247 F200.000
G1 X18.511 Y-8.805 Z2.199 F200.000
G1 X17.935 Y-9.925 Z2.151 F200.000
G1 X17.291 Y-11.008 Z2.104 F200.000
G1 X16.583 Y-12.049 Z2.057 F200.000
G1 X15.811 Y-13.045 Z2.012 F200.000
G1 X14.980 Y-13.991 Z1.967 F200.000
G1 X14.092 Y-14.885 Z1.924 F200.000
G1 X13.151 Y-15.722 Z1.882 F200.000
G1 X12.160 Y-16.500 Z1.841 F200.000
G1 X11.124 Y-17.216 Z1.803 F200.000
G1 X10.045 Y-17.867 Z1.766 F200.000
G1 X8.928 Y-18.450 Z1.731 F200.000
G1 X7.778 Y-18.964 Z1.698 F200.000
G1 X6.598 Y-19.406 Z1.668 F200.000
G1 X5.393 Y-19.775 Z1.640 F200.000
G1 X4.168 Y-20.070 Z1.614 F200.000
G1 X2.926 Y-20.288 Z1.591 F200.000
G1 X1.671 Y-20.428 Z1.589 F200.000
G1 X0.410 Y-20.491 Z1.583 F200.000
G1 X-0.853 Y-20.477 Z1.574 F200.000
G1 X-2.113 Y-20.384 Z1.561 F200.000
G1 X-3.364 Y-20.215 Z1.544 F200.000
G1 X-4.603 Y-19.969 Z1.523 F200.000
G1 X-5.824 Y-19.647 Z1.499 F200.000
G1 X-7.023 Y-19.251 Z1.472 F200.000
G1 X-8.195 Y-18.782 Z1.441 F200.000
G1 X-9.336 Y-18.242 Z1.407 F200.000
G1 X-10.442 Y-17.632 Z1.370 F200.000
G1 X-11.508 Y-16.956 Z1.330 F200.000
G1 X-12.531 Y-16.216 Z1.287 F200.000
G1 X-13.505 Y-15.414 Z1.241 F200.000
G1 X-14.429 Y-14.554 Z1.193 F200.000
G1 X-15.298 Y-13.639 Z1.143 F200.000
G1 X-16.109 Y-12.672 Z1.091 F200.000
G1 X-16.858 Y-11.657 Z1.037 F200.000
G1 X-17.544 Y-10.597 Z0.981 F200.000
G1 X-18.163 Y-9.498 Z0.923 F200.000
G1 X-18.714 Y-8.363 Z0.865 F200.000
G1 X-19.193 Y-7.196 Z0.805 F200.000
G1 X-19.600 Y-6.001 Z0.744 F200.000
G1 X-19.932 Y-4.784 Z0.683 F200.000
G1 X-20.188 Y-3.549 Z0.622 F200.000
G1 X-20.369 Y-2.301 Z0.560 F200.000
G1 X-20.471 Y-1.043 Z0.499 F200.000
G1 X-20.497 Y0.218 Z0.438 F200.000
G1 X-20.444 Y1.478 Z0.377 F200.000
G1 X-20.314 Y2.733 Z0.318 F200.000
G1 X-20.107 Y3.978 Z0.259 F200.000
G1 X-19.824 Y5.207 Z0.202 F200.000
G1 X-19.465 Y6.417 Z0.146 F200.000
G1 X-19.033 Y7.603 Z0.092 F200.000
G1 X-18.529 Y8.759 Z0.039 F200.000
G1 X-17.954 Y9.883 Z-0.011 F200.000
G1 X-17.311 Y10.969 Z-0.059 F200.000
G1 X-16.602 Y12.014 Z-0.105 F200.000
G1 X-15.831 Y13.013 Z-0.147 F200.000
G1 X-14.999 Y13.963 Z-0.187 F200.000
G1 X-14.111 Y14.860 Z-0.225 F200.000
G1 X-13.169 Y15.700 Z-0.259 F200.000
G1 X-12.177 Y16.482 Z-0.289 F200.000
G1 X-11.139 Y17.200 Z-0.317 F200.000
G1 X-10.059 Y17.854 Z-0.341 F200.000
G1 X-8.940 Y18.440 Z-0.361 F200.000
G1 X-7.787 Y18.956 Z-0.378 F200.000
G1 X-6.605 Y19.401 Z-0.392 F200.000
G1 X-5.398 Y19.772 Z-0.401 F200.000
G1 X-4.170 Y20.068 Z-0.407 F200.000
G1 X-2.926 Y20.288 Z-0.409 F200.000
G1 X-1.665 Y20.430 Z-0.446 F200.000
G1 X-0.398 Y20.494 Z-0.484 F200.000
G1 X0.871 Y20.480 Z-0.523 F200.000
G1 X2.136 Y20.387 Z-0.562 F200.000
G1 X3.393 Y20.215 Z-0.603 F200.000
G1 X4.637 Y19.967 Z-0.643 F200.000
G1 X5.864 Y19.642 Z-0.684 F200.000
G1 X7.068 Y19.241 Z-0.725 F200.000
G1 X8.245 Y18.767 Z-0.766 F200.000
G1 X9.390 Y18.221 Z-0.806 F200.000
G1 X10.499 Y17.605 Z-0.846 F200.000
G1 X11.568 Y16.922 Z-0.886 F200.000
G1 X12.593 Y16.174 Z-0.925 F200.000
G1 X13.570 Y15.363 Z-0.963 F200.000
G1 X14.494 Y14.494 Z-1.000 F200.000
G1 X15.357 Y13.577 Z-1.006 F200.000
G1 X16.162 Y12.607 Z-1.012 F200.000
G1 X16.906 Y11.591 Z-1.019 F200.000
G1 X17.587 Y10.530 Z-1.027 F200.000
G1 X18.200 Y9.430 Z-1.035 F200.000
G1 X18.745 Y8.294 Z-1.044 F200.000
G1 X19.219 Y7.127 Z-1.053 F200.000
G1 X19.621 Y5.933 Z-1.063 F200.000
G1 X19.948 Y4.716 Z-1.073 F200.000
G1 X20.200 Y3.482 Z-1.083 F200.000
G1 X20.376 Y2.234 Z-1.094 F200.000
G1 X20.475 Y0.978 Z-1.105 F200.000
G1 X20.496 Y-0.281 Z-1.117 F200.000
G1 X20.440 Y-1.540 Z-1.128 F200.000
G1 X20.307 Y-2.793 Z-1.140 F200.000
G1 X20.097 Y-4.035 Z-1.152 F200.000
G1 X19.811 Y-5.262 Z-1.164 F200.000
G1 X19.451 Y-6.469 Z-1.176 F200.000
G1 X19.016 Y-7.652 Z-1.188 F200.000
G1 X18.511 Y-8.805 Z-1.200 F200.000
G1 X17.935 Y-9.926 Z-1.212 F200.000
G1 X17.291 Y-11.009 Z-1.224 F200.000
G1 X16.582 Y-12.050 Z-1.236 F200.000
G1 X15.810 Y-13.046 Z-1.247 F200.000
G1 X14.979 Y-13.993 Z-1.258 F200.000
G1 X14.091 Y-14.886 Z-1.269 F200.000
G1 X13.150 Y-15.724 Z-1.280 F200.000
G1 X12.159 Y-16.502 Z-1.290 F200.000
G1 X11.123 Y-17.218 Z-1.299 F200.000
G1 X10.044 Y-17.869 Z-1.309 F200.000
G1 X8.927 Y-18.452 Z-1.317 F200.000
G1 X7.777 Y-18.966 Z-1.325 F200.000
G1 X6.597 Y-19.407 Z-1.333 F200.000
G1 X5.392 Y-19.776 Z-1.340 F200.000
G1 X4.167 Y-20.070 Z-1.346 F200.000
G1 X2.926 Y-20.288 Z-1.352 F200.000
G1 X1.672 Y-20.430 Z-1.353 F200.000
G1 X0.411 Y-20.494 Z-1.354 F200.000
G1 X-0.851 Y-20.480 Z-1.356 F200.000
G1 X-2.111 Y-20.389 Z-1.360 F200.000
G1 X-3.362 Y-20.220 Z-1.364 F200.000
G1 X-4.600 Y-19.975 Z-1.369 F200.000
G1 X-5.821 Y-19.654 Z-1.375 F200.000
G1 X-7.020 Y-19.258 Z-1.382 F200.000
G1 X-8.192 Y-18.789 Z-1.390 F200.000
G1 X-9.334 Y-18.249 Z-1.398 F200.000
G1 X-10.439 Y-17.640 Z-1.407 F200.000
G1 X-11.506 Y-16.964 Z-1.417 F200.000
G1 X-12.528 Y-16.224 Z-1.428 F200.000
G1 X-13.503 Y-15.422 Z-1.440 F200.000
G1 X-14.427 Y-14.561 Z-1.452 F200.000
G1 X-15.296 Y-13.645 Z-1.464 F200.000
G1 X-16.107 Y-12.678 Z-1.477 F200.000
G1 X-16.857 Y-11.662 Z-1.491 F200.000
G1 X-17.543 Y-10.603 Z-1.505 F200.000
G1 X-18.162 Y-9.503 Z-1.519 F200.000
G1 X-18.713 Y-8.367 Z-1.534 F200.000
G1 X-19.192 Y-7.199 Z-1.549 F200.000
G1 X-19.599 Y-6.004 Z-1.564 F200.000
G1 X-19.932 Y-4.786 Z-1.579 F200.000
G1 X-20.188 Y-3.550 Z-1.595 F200.000
G1 X-20.369 Y-2.300 Z-1.610 F200.000
G1 X-20.472 Y-1.042 Z-1.625 F200.000
G1 X-20.497 Y0.220 Z-1.641 F200.000
G1 X-20.444 Y1.481 Z-1.656 F200.000
G1 X-20.314 Y2.737 Z-1.671 F200.000
G1 X-20.107 Y3.983 Z-1.685 F200.000
G1 X-19.824 Y5.213 Z-1.700 F200.000
G1 X-19.466 Y6.423 Z-1.714 F200.000
G1 X-19.033 Y7.609 Z-1.727 F200.000
G1 X-18.529 Y8.767 Z-1.740 F200.000
G1 X-17.954 Y9.891 Z-1.753 F200.000
G1 X-17.311 Y10.977 Z-1.765 F200.000
G1 X-16.602 Y12.022 Z-1.776 F200.000
G1 X-15.831 Y13.021 Z-1.787 F200.000
G1 X-14.999 Y13.971 Z-1.797 F200.000
G1 X-14.111 Y14.868 Z-1.806 F200.000
G1 X-13.168 Y15.708 Z-1.815 F200.000
G1 X-12.176 Y16.489 Z-1.822 F200.000
G1 X-11.138 Y17.207 Z-1.829 F200.000
G1 X-10.058 Y17.861 Z-1.835 F200.000
G1 X-8.939 Y18.446 Z-1.840 F200.000
G1 X-7.787 Y18.961 Z-1.845 F200.000
G1 X-6.605 Y19.405 Z-1.848 F200.000
G1 X-5.397 Y19.775 Z-1.850 F200.000
G1 X-4.170 Y20.069 Z-1.852 F200.000
G1 X-2.926 Y20.288 Z-1.852 F200.000
G1 X-1.666 Y20.430 Z-1.861 F200.000
G1 X-0.398 Y20.494 Z-1.871 F200.000
G1 X0.870 Y20.480 Z-1.881 F200.000
G1 X2.136 Y20.387 Z-1.891 F200.000
G1 X3.393 Y20.215 Z-1.901 F200.000
G1 X4.637 Y19.967 Z-1.911 F200.000
G1 X5.864 Y19.642 Z-1.921 F200.000
G1 X7.068 Y19.241 Z-1.931 F200.000
G1 X8.245 Y18.767 Z-1.941 F200.000
G1 X9.390 Y18.221 Z-1.952 F200.000
G1 X10.499 Y17.605 Z-1.962 F200.000
G1 X11.568 Y16.922 Z-1.971 F200.000
G1 X12.593 Y16.174 Z-1.981 F200.000
G1 X13.570 Y15.363 Z-1.991 F200.000
G1 X14.494 Y14.494 Z-2.000 F200.000
G1 X15.357 Y13.577 Z-2.006 F200.000
G1 X16.162 Y12.607 Z-2.012 F200.000
G1 X16.906 Y11.591 Z-2.019 F200.000
G1 X17.587 Y10.530 Z-2.027 F200.000
G1 X18.200 Y9.430 Z-2.035 F200.000
G1 X18.745 Y8.294 Z-2.044 F200.000
G1 X19.219 Y7.127 Z-2.053 F200.000
G1 X19.621 Y5.933 Z-2.063 F200.000
G1 X19.948 Y4.716 Z-2.073 F200.000
G1 X20.200 Y3.482 Z-2.083 F200.000
G1 X20.376 Y2.234 Z-2.094 F200.000
G1 X20.475 Y0.978 Z-2.105 F200.000
G1 X20.496 Y-0.281 Z-2.117 F200.000
G1 X20.440 Y-1.540 Z-2.128 F200.000
G1 X20.307 Y-2.793 Z-2.140 F200.000
G1 X20.097 Y-4.035 Z-2.152 F200.000
G1 X19.811 Y-5.262 Z-2.164 F200.000
G1 X19.451 Y-6.469 Z-2.176 F200.000
G1 X19.016 Y-7.652 Z-2.188 F200.000
G1 X18.511 Y-8.805 Z-2.200 F200.000
G1 X17.935 Y-9.926 Z-2.212 F200.000
G1 X17.291 Y-11.009 Z-2.224 F200.000
G1 X16.582 Y-12.050 Z-2.236 F200.000
G1 X15.810 Y-13.046 Z-2.247 F200.000
G1 X14.979 Y-13.993 Z-2.258 F200.000
G1 X14.091 Y-14.886 Z-2.269 F200.000
G1 X13.150 Y-15.724 Z-2.280 F200.000
G1 X12.159 Y-16.502 Z-2.290 F200.000
G1 X11.123 Y-17.218 Z-2.299 F200.000
G1 X10.044 Y-17.869 Z-2.309 F200.000
G1 X8.927 Y-18.452 Z-2.317 F200.000
G1 X7.777 Y-18.966 Z-2.325 F200.000
G1 X6.597 Y-19.407 Z-2.333 F200.000
G1 X5.392 Y-19.776 Z-2.340 F200.000
G1 X4.167 Y-20.070 Z-2.346 F200.000
G1 X2.926 Y-20.288 Z-2.352 F200.000
G1 X1.672 Y-20.430 Z-2.353 F200.000
G1 X0.411 Y-20.494 Z-2.354 F200.000
G1 X-0.851 Y-20.480 Z-2.356 F200.000
G1 X-2.111 Y-20.389 Z-2.360 F200.000
G1 X-3.362 Y-20.220 Z-2.364 F200.000
G1 X-4.600 Y-19.975 Z-2.369 F200.000
G1 X-5.821 Y-19.654 Z-2.375 F200.000
G1 X-7.020 Y-19.258 Z-2.382 F200.000
G1 X-8.192 Y-18.789 Z-2.390 F200.000
G1 X-9.334 Y-18.249 Z-2.398 F200.000
G1 X-10.439 Y-17.640 Z-2.407 F200.000
G1 X-11.506 Y-16.964 Z-2.417 F200.000
G1 X-12.528 Y-16.224 Z-2.428 F200.000
G1 X-13.503 Y-15.422 Z-2.440 F200.000
G1 X-14.427 Y-14.561 Z-2.452 F200.000
G1 X-15.296 Y-13.645 Z-2.464 F200.000
G1 X-16.107 Y-12.678 Z-2.477 F200.000
G1 X-16.857 Y-11.662 Z-2.491 F200.000
G1 X-17.543 Y-10.603 Z-2.505 F200.000
G1 X-18.162 Y-9.503 Z-2.519 F200.000
G1 X-18.713 Y-8.367 Z-2.534 F200.000
G1 X-19.192 Y-7.199 Z-2.549 F200.000
G1 X-19.599 Y-6.004 Z-2.564 F200.000
G1 X-19.932 Y-4.786 Z-2.579 F200.000
G1 X-20.188 Y-3.550 Z-2.595 F200.000
G1 X-20.369 Y-2.300 Z-2.610 F200.000
G1 X-20.472 Y-1.042 Z-2.625 F200.000
G1 X-20.497 Y0.220 Z-2.641 F200.000
G1 X-20.444 Y1.481 Z-2.656 F200.000
G1 X-20.314 Y2.737 Z-2.671 F200.000
G1 X-20.107 Y3.983 Z-2.685 F200.000
G1 X-19.824 Y5.213 Z-2.700 F200.000
G1 X-19.466 Y6.423 Z-2.714 F200.000
G1 X-19.033 Y7.609 Z-2.727 F200.000
G1 X-18.529 Y8.767 Z-2.740 F200.000
G1 X-17.954 Y9.891 Z-2.753 F200.000
G1 X-17.311 Y10.977 Z-2.765 F200.000
G1 X-16.602 Y12.022 Z-2.776 F200.000
G1 X-15.831 Y13.021 Z-2.787 F200.000
G1 X-14.999 Y13.971 Z-2.797 F200.000
G1 X-14.111 Y14.868 Z-2.806 F200.000
G1 X-13.168 Y15.708 Z-2.815 F200.000
G1 X-12.176 Y16.489 Z-2.822 F200.000
G1 X-11.138 Y17.207 Z-2.829 F200.000
G1 X-10.058 Y17.861 Z-2.835 F200.000
G1 X-8.939 Y18.446 Z-2.840 F200.000
G1 X-7.787 Y18.961 Z-2.845 F200.000
G1 X-6.605 Y19.405 Z-2.848 F200.000
G1 X-5.397 Y19.775 Z-2.850 F200.000
G1 X-4.170 Y20.069 Z-2.852 F200.000
G1 X-2.926 Y20.288 Z-2.852 F200.000
G1 X-1.666 Y20.430 Z-2.861 F200.000
G1 X-0.398 Y20.494 Z-2.871 F200.000
G1 X0.870 Y20.480 Z-2.881 F200.000
G1 X2.136 Y20.387 Z-2.891 F200.000
G1 X3.393 Y20.215 Z-2.901 F200.000
G1 X4.637 Y19.967 Z-2.911 F200.000
G1 X5.864 Y19.642 Z-2.921 F200.000
G1 X7.068 Y19.241 Z-2.931 F200.000
G1 X8.245 Y18.767 Z-2.941 F200.000
G1 X9.390 Y18.221 Z-2.952 F200.000
G1 X10.499 Y17.605 Z-2.962 F200.000
G1 X11.568 Y16.922 Z-2.971 F200.000
G1 X12.593 Y16.174 Z-2.981 F200.000
G1 X13.570 Y15.363 Z-2.991 F200.000
G1 X14.494 Y14.494 Z-3.000 F200.000
G1 X15.357 Y13.577 Z-3.006 F200.000
G1 X16.162 Y12.607 Z-3.012 F200.000
G1 X16.906 Y11.591 Z-3.019 F200.000
G1 X17.587 Y10.530 Z-3.027 F200.000
G1 X18.200 Y9.430 Z-3.035 F200.000
G1 X18.745 Y8.294 Z-3.044 F200.000
G1 X19.219 Y7.127 Z-3.053 F200.000
G1 X19.621 Y5.933 Z-3.063 F200.000
G1 X19.948 Y4.716 Z-3.073 F200.000
G1 X20.200 Y3.482 Z-3.083 F200.000
G1 X20.376 Y2.234 Z-3.094 F200.000
G1 X20.475 Y0.978 Z-3.105 F200.000
G1 X20.496 Y-0.281 Z-3.117 F200.000
G1 X20.440 Y-1.540 Z-3.128 F200.000
G1 X20.307 Y-2.793 Z-3.140 F200.000
G1 X20.097 Y-4.035 Z-3.152 F200.000
G1 X19.811 Y-5.262 Z-3.164 F200.000
G1 X19.451 Y-6.469 Z-3.176 F200.000
G1 X19.016 Y-7.652 Z-3.188 F200.000
G1 X18.511 Y-8.805 Z-3.200 F200.000
G1 X17.935 Y-9.926 Z-3.212 F200.000
G1 X17.291 Y-11.009 Z-3.224 F200.000
G1 X16.582 Y-12.050 Z-3.236 F200.000
G1 X15.810 Y-13.046 Z-3.247 F200.000
G1 X14.979 Y-13.993 Z-3.258 F200.000
G1 X14.091 Y-14.886 Z-3.269 F200.000
G1 X13.150 Y-15.724 Z-3.280 F200.000
G1 X12.159 Y-16.502 Z-3.290 F200.000
G1 X11.123 Y-17.218 Z-3.299 F200.000
G1 X10.044 Y-17.869 Z-3.309 F200.000
G1 X8.927 Y-18.452 Z-3.317 F200.000
G1 X7.777 Y-18.966 Z-3.325 F200.000
G1 X6.597 Y-19.407 Z-3.333 F200.000
G1 X5.392 Y-19.776 Z-3.340 F200.000
G1 X4.167 Y-20.070 Z-3.346 F200.000
G1 X2.926 Y-20.288 Z-3.352 F200.000
G1 X1.672 Y-20.430 Z-3.353 F200.000
G1 X0.411 Y-20.494 Z-3.354 F200.000
G1 X-0.851 Y-20.480 Z-3.356 F200.000
G1 X-2.111 Y-20.389 Z-3.360 F200.000
G1 X-3.362 Y-20.220 Z-3.364 F200.000
G1 X-4.600 Y-19.975 Z-3.369 F200.000
G1 X-5.821 Y-19.654 Z-3.375 F200.000
G1 X-7.020 Y-19.258 Z-3.382 F200.000
G1 X-8.192 Y-18.789 Z-3.390 F200.000
G1 X-9.334 Y-18.249 Z-3.398 F200.000
G1 X-10.439 Y-17.640 Z-3.407 F200.000
G1 X-11.506 Y-16.964 Z-3.417 F200.000
G1 X-12.528 Y-16.224 Z-3.428 F200.000
G1 X-13.503 Y-15.422 Z-3.440 F200.000
G1 X-14.427 Y-14.561 Z-3.452 F200.000
G1 X-15.296 Y-13.645 Z-3.464 F200.000
G1 X-16.107 Y-12.678 Z-3.477 F200.000
G1 X-16.857 Y-11.662 Z-3.491 F200.000
G1 X-17.543 Y-10.603 Z-3.505 F200.000
G1 X-18.162 Y-9.503 Z-3.519 F200.000
G1 X-18.713 Y-8.367 Z-3.534 F200.000
G1 X-19.192 Y-7.199 Z-3.549 F200.000
G1 X-19.599 Y-6.004 Z-3.564 F200.000
G1 X-19.932 Y-4.786 Z-3.579 F200.000
G1 X-20.188 Y-3.550 Z-3.595 F200.000
G1 X-20.369 Y-2.300 Z-3.610 F200.000
G1 X-20.472 Y-1.042 Z-3.625 F200.000
G1 X-20.497 Y0.220 Z-3.641 F200.000
G1 X-20.444 Y1.481 Z-3.656 F200.000
G1 X-20.314 Y2.737 Z-3.671 F200.000
G1 X-20.107 Y3.983 Z-3.685 F200.000
G1 X-19.824 Y5.213 Z-3.700 F200.000
G1 X-19.466 Y6.423 Z-3.714 F200.000
G1 X-19.033 Y7.609 Z-3.727 F200.000
G1 X-18.529 Y8.767 Z-3.740 F200.000
G1 X-17.954 Y9.891 Z-3.753 F200.000
G1 X-17.311 Y10.977 Z-3.765 F200.000
G1 X-16.602 Y12.022 Z-3.776 F200.000
G1 X-15.831 Y13.021 Z-3.787 F200.000
G1 X-14.999 Y13.971 Z-3.797 F200.000
G1 X-14.111 Y14.868 Z-3.806 F200.000
G1 X-13.168 Y15.708 Z-3.815 F200.000
G1 X-12.176 Y16.489 Z-3.822 F200.000
G1 X-11.138 Y17.207 Z-3.829 F200.000
G1 X-10.058 Y17.861 Z-3.835 F200.000
G1 X-8.939 Y18.446 Z-3.840 F200.000
G1 X-7.787 Y18.961 Z-3.845 F200.000
G1 X-6.605 Y19.405 Z-3.848 F200.000
G1 X-5.397 Y19.775 Z-3.850 F200.000
G1 X-4.170 Y20.069 Z-3.852 F200.000
G1 X-2.926 Y20.288 Z-3.852 F200.000
G1 X-1.666 Y20.430 Z-3.861 F200.000
G1 X-0.398 Y20.494 Z-3.871 F200.000
G1 X0.870 Y20.480 Z-3.881 F200.000
G1 X2.136 Y20.387 Z-3.891 F200.000
G1 X3.393 Y20.215 Z-3.901 F200.000
G1 X4.637 Y19.967 Z-3.911 F200.000
G1 X5.864 Y19.642 Z-3.921 F200.000
G1 X7.068 Y19.241 Z-3.931 F200.000
G1 X8.245 Y18.767 Z-3.941 F200.000
G1 X9.390 Y18.221 Z-3.952 F200.000
G1 X10.499 Y17.605 Z-3.962 F200.000
G1 X11.568 Y16.922 Z-3.971 F200.000
G1 X12.593 Y16.174 Z-3.981 F200.000
G1 X13.570 Y15.363 Z-3.991 F200.000
G1 X14.494 Y14.494 Z-4.000 F200.000
G1 X15.357 Y13.577 Z-4.006 F200.000
G1 X16.162 Y12.607 Z-4.012 F200.000
G1 X16.906 Y11.591 Z-4.019 F200.000
G1 X17.587 Y10.530 Z-4.027 F200.000
G1 X18.200 Y9.430 Z-4.035 F200.000
G1 X18.745 Y8.294 Z-4.044 F200.000
G1 X19.219 Y7.127 Z-4.053 F200.000
G1 X19.621 Y5.933 Z-4.063 F200.000
G1 X19.948 Y4.716 Z-4.073 F200.000
G1 X20.200 Y3.482 Z-4.083 F200.000
G1 X20.376 Y2.234 Z-4.094 F200.000
G1 X20.475 Y0.978 Z-4.105 F200.000
G1 X20.496 Y-0.281 Z-4.117 F200.000
G1 X20.440 Y-1.540 Z-4.128 F200.000
G1 X20.307 Y-2.793 Z-4.140 F200.000
G1 X20.097 Y-4.035 Z-4.152 F200.000
G1 X19.811 Y-5.262 Z-4.164 F200.000
G1 X19.451 Y-6.469 Z-4.176 F200.000
G1 X19.016 Y-7.652 Z-4.188 F200.000
G1 X18.511 Y-8.805 Z-4.200 F200.000
G1 X17.935 Y-9.926 Z-4.212 F200.000
G1 X17.291 Y-11.009 Z-4.224 F200.000
G1 X16.582 Y-12.050 Z-4.236 F200.000
G1 X15.810 Y-13.046 Z-4.247 F200.000
G1 X14.979 Y-13.993 Z-4.258 F200.000
G1 X14.091 Y-14.886 Z-4.269 F200.000
G1 X13.150 Y-15.724 Z-4.280 F200.000
G1 X12.159 Y-16.502 Z-4.290 F200.000
G1 X11.123 Y-17.218 Z-4.299 F200.000
G1 X10.044 Y-17.869 Z-4.309 F200.000
G1 X8.927 Y-18.452 Z-4.317 F200.000
G1 X7.777 Y-18.966 Z-4.325 F200.000
G1 X6.597 Y-19.407 Z-4.333 F200.000
G1 X5.392 Y-19.776 Z-4.340 F200.000
G1 X4.167 Y-20.070 Z-4.346 F200.000
G1 X2.926 Y-20.288 Z-4.352 F200.000
G1 X1.672 Y-20.430 Z-4.353 F200.000
G1 X0.411 Y-20.494 Z-4.354 F200.000
G1 X-0.851 Y-20.480 Z-4.356 F200.000
G1 X-2.111 Y-20.389 Z-4.360 F200.000
G1 X-3.362 Y-20.220 Z-4.364 F200.000
G1 X-4.600 Y-19.975 Z-4.369 F200.000
G1 X-5.821 Y-19.654 Z-4.375 F200.000
G1 X-7.020 Y-19.258 Z-4.382 F200.000
G1 X-8.192 Y-18.789 Z-4.390 F200.000
G1 X-9.334 Y-18.249 Z-4.398 F200.000
G1 X-10.439 Y-17.640 Z-4.407 F200.000
G1 X-11.506 Y-16.964 Z-4.417 F200.000
G1 X-12.528 Y-16.224 Z-4.428 F200.000
G1 X-13.503 Y-15.422 Z-4.440 F200.000
G1 X-14.427 Y-14.561 Z-4.452 F200.000
G1 X-15.296 Y-13.645 Z-4.464 F200.000
G1 X-16.107 Y-12.678 Z-4.477 F200.000
G1 X-16.857 Y-11.662 Z-4.491 F200.000
G1 X-17.543 Y-10.603 Z-4.505 F200.000
G1 X-18.162 Y-9.503 Z-4.519 F200.000
G1 X-18.713 Y-8.367 Z-4.534 F200.000
G1 X-19.192 Y-7.199 Z-4.549 F200.000
G1 X-19.599 Y-6.004 Z-4.564 F200.000
G1 X-19.932 Y-4.786 Z-4.579 F200.000
G1 X-20.188 Y-3.550 Z-4.595 F200.000
G1 X-20.369 Y-2.300 Z-4.610 F200.000
G1 X-20.472 Y-1.042 Z-4.625 F200.000
G1 X-20.497 Y0.220 Z-4.641 F200.000
G1 X-20.444 Y1.481 Z-4.656 F200.000
G1 X-20.314 Y2.737 Z-4.671 F200.000
G1 X-20.107 Y3.983 Z-4.685 F200.000
G1 X-19.824 Y5.213 Z-4.700 F200.000
G1 X-19.466 Y6.423 Z-4.714 F200.000
G1 X-19.033 Y7.609 Z-4.727 F200.000
G1 X-18.529 Y8.767 Z-4.740 F200.000
G1 X-17.954 Y9.891 Z-4.753 F200.000
G1 X-17.311 Y10.977 Z-4.765 F200.000
G1 X-16.602 Y12.022 Z-4.776 F200.000
G1 X-15.831 Y13.021 Z-4.787 F200.000
G1 X-14.999 Y13.971 Z-4.797 F200.000
G1 X-14.111 Y14.868 Z-4.806 F200.000
G1 X-13.168 Y15.708 Z-4.815 F200.000
G1 X-12.176 Y16.489 Z-4.822 F200.000
G1 X-11.138 Y17.207 Z-4.829 F200.000
G1 X-10.058 Y17.861 Z-4.835 F200.000
G1 X-8.939 Y18.446 Z-4.840 F200.000
G1 X-7.787 Y18.961 Z-4.845 F200.000
G1 X-6.605 Y19.405 Z-4.848 F200.000
G1 X-5.397 Y19.775 Z-4.850 F200.000
G1 X-4.170 Y20.069 Z-4.852 F200.000
G1 X-2.926 Y20.288 Z-4.852 F200.000
G1 X-1.666 Y20.430 Z-4.861 F200.000
G1 X-0.398 Y20.494 Z-4.871 F200.000
G1 X0.870 Y20.480 Z-4.881 F200.000
G1 X2.136 Y20.387 Z-4.891 F200.000
G1 X3.393 Y20.215 Z-4.901 F200.000
G1 X4.637 Y19.967 Z-4.911 F200.000
G1 X5.864 Y19.642 Z-4.921 F200.000
G1 X7.068 Y19.241 Z-4.931 F200.000
G1 X8.245 Y18.767 Z-4.941 F200.000
G1 X9.390 Y18.221 Z-4.952 F200.000
G1 X10.499 Y17.605 Z-4.962 F200.000
G1 X11.568 Y16.922 Z-4.971 F200.000
G1 X12.593 Y16.174 Z-4.981 F200.000
G1 X13.570 Y15.363 Z-4.991 F200.000
G1 X14.494 Y14.494 Z-5.000 F200.000
G1 X15.357 Y13.577 Z-5.006 F200.000
G1 X16.162 Y12.607 Z-5.012 F200.000
G1 X16.906 Y11.591 Z-5.019 F200.000
G1 X17.587 Y10.530 Z-5.027 F200.000
G1 X18.200 Y9.430 Z-5.035 F200.000
G1 X18.745 Y8.294 Z-5.044 F200.000
G1 X19.219 Y7.127 Z-5.053 F200.000
G1 X19.621 Y5.933 Z-5.063 F200.000
G1 X19.948 Y4.716 Z-5.073 F200.000
G1 X20.200 Y3.482 Z-5.083 F200.000
G1 X20.376 Y2.234 Z-5.094 F200.000
G1 X20.475 Y0.978 Z-5.105 F200.000
G1 X20.496 Y-0.281 Z-5.117 F200.000
G1 X20.440 Y-1.540 Z-5.128 F200.000
G1 X20.307 Y-2.793 Z-5.140 F200.000
G1 X20.097 Y-4.035 Z-5.152 F200.000
G1 X19.811 Y-5.262 Z-5.164 F200.000
G1 X19.451 Y-6.469 Z-5.176 F200.000
G1 X19.016 Y-7.652 Z-5.188 F200.000
G1 X18.511 Y-8.805 Z-5.200 F200.000
G1 X17.935 Y-9.926 Z-5.212 F200.000
G1 X17.291 Y-11.009 Z-5.224 F200.000
G1 X16.582 Y-12.050 Z-5.236 F200.000
G1 X15.810 Y-13.046 Z-5.247 F200.000
G1 X14.979 Y-13.993 Z-5.258 F200.000
G1 X14.091 Y-14.886 Z-5.269 F200.000
G1 X13.150 Y-15.724 Z-5.280 F200.000
G1 X12.159 Y-16.502 Z-5.290 F200.000
G1 X11.123 Y-17.218 Z-5.299 F200.000
G1 X10.044 Y-17.869 Z-5.309 F200.000
G1 X8.927 Y-18.452 Z-5.317 F200.000
G1 X7.777 Y-18.966 Z-5.325 F200.000
G1 X6.597 Y-19.407 Z-5.333 F200.000
G1 X5.392 Y-19.776 Z-5.340 F200.000
G1 X4.167 Y-20.070 Z-5.346 F200.000
G1 X2.926 Y-20.288 Z-5.352 F200.000
G1 X1.672 Y-20.430 Z-5.353 F200.000
G1 X0.411 Y-20.494 Z-5.354 F200.000
G1 X-0.851 Y-20.480 Z-5.356 F200.000
G1 X-2.111 Y-20.389 Z-5.360 F200.000
G1 X-3.362 Y-20.220 Z-5.364 F200.000
G1 X-4.600 Y-19.975 Z-5.369 F200.000
G1 X-5.821 Y-19.654 Z-5.375 F200.000
G1 X-7.020 Y-19.258 Z-5.382 F200.000
G1 X-8.192 Y-18.789 Z-5.390 F200.000
G1 X-9.334 Y-18.249 Z-5.398 F200.000
G1 X-10.439 Y-17.640 Z-5.407 F200.000
G1 X-11.506 Y-16.964 Z-5.417 F200.000
G1 X-12.528 Y-16.224 Z-5.428 F200.000
G1 X-13.503 Y-15.422 Z-5.440 F200.000
G1 X-14.427 Y-14.561 Z-5.452 F200.000
G1 X-15.296 Y-13.645 Z-5.464 F200.000
G1 X-16.107 Y-12.678 Z-5.477 F200.000
G1 X-16.857 Y-11.662 Z-5.491 F200.000
G1 X-17.543 Y-10.603 Z-5.505 F200.000
G1 X-18.162 Y-9.503 Z-5.519 F200.000
G1 X-18.713 Y-8.367 Z-5.534 F200.000
G1 X-19.192 Y-7.199 Z-5.549 F200.000
G1 X-19.599 Y-6.004 Z-5.564 F200.000
G1 X-19.932 Y-4.786 Z-5.579 F200.000
G1 X-20.188 Y-3.550 Z-5.595 F200.000
G1 X-20.369 Y-2.300 Z-5.610 F200.000
G1 X-20.472 Y-1.042 Z-5.625 F200.000
G1 X-20.497 Y0.220 Z-5.641 F200.000
G1 X-20.444 Y1.481 Z-5.656 F200.000
G1 X-20.314 Y2.737 Z-5.671 F200.000
G1 X-20.107 Y3.983 Z-5.685 F200.000
G1 X-19.824 Y5.213 Z-5.700 F200.000
G1 X-19.466 Y6.423 Z-5.714 F200.000
G1 X-19.033 Y7.609 Z-5.727 F200.000
G1 X-18.529 Y8.767 Z-5.740 F200.000
G1 X-17.954 Y9.891 Z-5.753 F200.000
G1 X-17.311 Y10.977 Z-5.765 F200.000
G1 X-16.602 Y12.022 Z-5.776 F200.000
G1 X-15.831 Y13.021 Z-5.787 F200.000
G1 X-14.999 Y13.971 Z-5.797 F200.000
G1 X-14.111 Y14.868 Z-5.806 F200.000
G1 X-13.168 Y15.708 Z-5.815 F200.000
G1 X-12.176 Y16.489 Z-5.822 F200.000
G1 X-11.138 Y17.207 Z-5.829 F200.000
G1 X-10.058 Y17.861 Z-5.835 F200.000
G1 X-8.939 Y18.446 Z-5.840 F200.000
G1 X-7.787 Y18.961 Z-5.845 F200.000
G1 X-6.605 Y19.405 Z-5.848 F200.000
G1 X-5.397 Y19.775 Z-5.850 F200.000
G1 X-4.170 Y20.069 Z-5.852 F200.000
G1 X-2.926 Y20.288 Z-5.852 F200.000
G1 X-1.666 Y20.430 Z-5.861 F200.000
G1 X-0.398 Y20.494 Z-5.871 F200.000
G1 X0.870 Y20.480 Z-5.881 F200.000
G1 X2.136 Y20.387 Z-5.891 F200.000
G1 X3.393 Y20.215 Z-5.901 F200.000
G1 X4.637 Y19.967 Z-5.911 F200.000
G1 X5.864 Y19.642 Z-5.921 F200.000
G1 X7.068 Y19.241 Z-5.931 F200.000
G1 X8.245 Y18.767 Z-5.941 F200.000
G1 X9.390 Y18.221 Z-5.952 F200.000
G1 X10.499 Y17.605 Z-5.962 F200.000
G1 X11.568 Y16.922 Z-5.971 F200.000
G1 X12.593 Y16.174 Z-5.981 F200.000
G1 X13.570 Y15.363 Z-5.991 F200.000
G1 X14.494 Y14.494 Z-6.000 F200.000
G1 X15.357 Y13.577 Z-6.006 F200.000
G1 X16.162 Y12.607 Z-6.012 F200.000
G1 X16.906 Y11.591 Z-6.019 F200.000
G1 X17.587 Y10.530 Z-6.027 F200.000
G1 X18.200 Y9.430 Z-6.035 F200.000
G1 X18.745 Y8.294 Z-6.044 F200.000
G1 X19.219 Y7.127 Z-6.053 F200.000
G1 X19.621 Y5.933 Z-6.063 F200.000
G1 X19.948 Y4.716 Z-6.073 F200.000
G1 X20.200 Y3.482 Z-6.083 F200.000
G1 X20.376 Y2.234 Z-6.094 F200.000
G1 X20.475 Y0.978 Z-6.105 F200.000
G1 X20.496 Y-0.281 Z-6.117 F200.000
G1 X20.440 Y-1.540 Z-6.128 F200.000
G1 X20.307 Y-2.793 Z-6.140 F200.000
G1 X20.097 Y-4.035 Z-6.152 F200.000
G1 X19.811 Y-5.262 Z-6.164 F200.000
G1 X19.451 Y-6.469 Z-6.176 F200.000
G1 X19.016 Y-7.652 Z-6.188 F200.000
G1 X18.511 Y-8.805 Z-6.200 F200.000
G1 X17.935 Y-9.926 Z-6.212 F200.000
G1 X17.291 Y-11.009 Z-6.224 F200.000
G1 X16.582 Y-12.050 Z-6.236 F200.000
G1 X15.810 Y-13.046 Z-6.247 F200.000
G1 X14.979 Y-13.993 Z-6.258 F200.000
G1 X14.091 Y-14.886 Z-6.269 F200.000
G1 X13.150 Y-15.724 Z-6.280 F200.000
G1 X12.159 Y-16.502 Z-6.290 F200.000
G1 X11.123 Y-17.218 Z-6.299 F200.000
G1 X10.044 Y-17.869 Z-6.309 F200.000
G1 X8.927 Y-18.452 Z-6.317 F200.000
G1 X7.777 Y-18.966 Z-6.325 F200.000
G1 X6.597 Y-19.407 Z-6.333 F200.000
G1 X5.392 Y-19.776 Z-6.340 F200.000
G1 X4.167 Y-20.070 Z-6.346 F200.000
G1 X2.926 Y-20.288 Z-6.352 F200.000
G1 X1.672 Y-20.430 Z-6.353 F200.000
G1 X0.411 Y-20.494 Z-6.354 F200.000
G1 X-0.851 Y-20.480 Z-6.356 F200.000
G1 X-2.111 Y-20.389 Z-6.360 F200.000
G1 X-3.362 Y-20.220 Z-6.364 F200.000
G1 X-4.600 Y-19.975 Z-6.369 F200.000
G1 X-5.821 Y-19.654 Z-6.375 F200.000
G1 X-7.020 Y-19.258 Z-6.382 F200.000
G1 X-8.192 Y-18.789 Z-6.390 F200.000
G1 X-9.334 Y-18.249 Z-6.398 F200.000
G1 X-10.439 Y-17.640 Z-6.407 F200.000
G1 X-11.506 Y-16.964 Z-6.417 F200.000
G1 X-12.528 Y-16.224 Z-6.428 F200.000
G1 X-13.503 Y-15.422 Z-6.440 F200.000
G1 X-14.427 Y-14.561 Z-6.452 F200.000
G1 X-15.296 Y-13.645 Z-6.464 F200.000
G1 X-16.107 Y-12.678 Z-6.477 F200.000
G1 X-16.857 Y-11.662 Z-6.491 F200.000
G1 X-17.543 Y-10.603 Z-6.505 F200.000
G1 X-18.162 Y-9.503 Z-6.519 F200.000
G1 X-18.713 Y-8.367 Z-6.534 F200.000
G1 X-19.192 Y-7.199 Z-6.549 F200.000
G1 X-19.599 Y-6.004 Z-6.564 F200.000
G1 X-19.932 Y-4.786 Z-6.579 F200.000
G1 X-20.188 Y-3.550 Z-6.595 F200.000
G1 X-20.369 Y-2.300 Z-6.610 F200.000
G1 X-20.472 Y-1.042 Z-6.625 F200.000
G1 X-20.497 Y0.220 Z-6.641 F200.000
G1 X-20.444 Y1.481 Z-6.656 F200.000
G1 X-20.314 Y2.737 Z-6.671 F200.000
G1 X-20.107 Y3.983 Z-6.685 F200.000
G1 X-19.824 Y5.213 Z-6.700 F200.000
G1 X-19.466 Y6.423 Z-6.714 F200.000
G1 X-19.033 Y7.609 Z-6.727 F200.000
G1 X-18.529 Y8.767 Z-6.740 F200.000
G1 X-17.954 Y9.891 Z-6.753 F200.000
G1 X-17.311 Y10.977 Z-6.765 F200.000
G1 X-16.602 Y12.022 Z-6.776 F200.000
G1 X-15.831 Y13.021 Z-6.787 F200.000
G1 X-14.999 Y13.971 Z-6.797 F200.000
G1 X-14.111 Y14.868 Z-6.806 F200.000
G1 X-13.168 Y15.708 Z-6.815 F200.000
G1 X-12.176 Y16.489 Z-6.822 F200.000
G1 X-11.138 Y17.207 Z-6.829 F200.000
G1 X-10.058 Y17.861 Z-6.835 F200.000
G1 X-8.939 Y18.446 Z-6.840 F200.000
G1 X-7.787 Y18.961 Z-6.845 F200.000
G1 X-6.605 Y19.405 Z-6.848 F200.000
G1 X-5.397 Y19.775 Z-6.850 F200.000
G1 X-4.170 Y20.069 Z-6.852 F200.000
G1 X-2.926 Y20.288 Z-6.852 F200.000
G1 X-1.666 Y20.430 Z-6.861 F200.000
G1 X-0.398 Y20.494 Z-6.871 F200.000
G1 X0.870 Y20.480 Z-6.881 F200.000
G1 X2.136 Y20.387 Z-6.891 F200.000
G1 X3.393 Y20.215 Z-6.901 F200.000
G1 X4.637 Y19.967 Z-6.911 F200.000
G1 X5.864 Y19.642 Z-6.921 F200.000
G1 X7.068 Y19.241 Z-6.931 F200.000
G1 X8.245 Y18.767 Z-6.941 F200.000
G1 X9.390 Y18.221 Z-6.952 F200.000
G1 X10.499 Y17.605 Z-6.962 F200.000
G1 X11.568 Y16.922 Z-6.971 F200.000
G1 X12.593 Y16.174 Z-6.981 F200.000
G1 X13.570 Y15.363 Z-6.991 F200.000
G1 X14.494 Y14.494 Z-7.000 F200.000
G1 X15.357 Y13.577 Z-7.006 F200.000
G1 X16.162 Y12.607 Z-7.012 F200.000
G1 X16.906 Y11.591 Z-7.019 F200.000
G1 X17.587 Y10.530 Z-7.027 F200.000
G1 X18.200 Y9.430 Z-7.035 F200.000
G1 X18.745 Y8.294 Z-7.044 F200.000
G1 X19.219 Y7.127 Z-7.053 F200.000
G1 X19.621 Y5.933 Z-7.063 F200.000
G1 X19.948 Y4.716 Z-7.073 F200.000
G1 X20.200 Y3.482 Z-7.083 F200.000
G1 X20.376 Y2.234 Z-7.094 F200.000
G1 X20.475 Y0.978 Z-7.105 F200.000
G1 X20.496 Y-0.281 Z-7.117 F200.000
G1 X20.440 Y-1.540 Z-7.128 F200.000
G1 X20.307 Y-2.793 Z-7.140 F200.000
G1 X20.097 Y-4.035 Z-7.152 F200.000
G1 X19.811 Y-5.262 Z-7.164 F200.000
G1 X19.451 Y-6.469 Z-7.176 F200.000
G1 X19.016 Y-7.652 Z-7.188 F200.000
G1 X18.511 Y-8.805 Z-7.200 F200.000
G1 X17.935 Y-9.926 Z-7.212 F200.000
G1 X17.291 Y-11.009 Z-7.224 F200.000
G1 X16.582 Y-12.050 Z-7.236 F200.000
G1 X15.810 Y-13.046 Z-7.247 F200.000
G1 X14.979 Y-13.993 Z-7.258 F200.000
G1 X14.091 Y-14.886 Z-7.269 F200.000
G1 X13.150 Y-15.724 Z-7.280 F200.000
G1 X12.159 Y-16.502 Z-7.290 F200.000
G1 X11.123 Y-17.218 Z-7.299 F200.000
G1 X10.044 Y-17.869 Z-7.309 F200.000
G1 X8.927 Y-18.452 Z-7.317 F200.000
G1 X7.777 Y-18.966 Z-7.325 F200.000
G1 X6.597 Y-19.407 Z-7.333 F200.000
G1 X5.392 Y-19.776 Z-7.340 F200.000
G1 X4.167 Y-20.070 Z-7.346 F200.000
G1 X2.926 Y-20.288 Z-7.352 F200.000
G1 X1.672 Y-20.430 Z-7.353 F200.000
G1 X0.411 Y-20.494 Z-7.354 F200.000
G1 X-0.851 Y-20.480 Z-7.356 F200.000
G1 X-2.111 Y-20.389 Z-7.360 F200.000
G1 X-3.362 Y-20.220 Z-7.364 F200.000
G1 X-4.600 Y-19.975 Z-7.369 F200.000
G1 X-5.821 Y-19.654 Z-7.375 F200.000
G1 X-7.020 Y-19.258 Z-7.382 F200.000
G1 X-8.192 Y-18.789 Z-7.390 F200.000
G1 X-9.334 Y-18.249 Z-7.398 F200.000
G1 X-10.439 Y-17.640 Z-7.407 F200.000
G1 X-11.506 Y-16.964 Z-7.417 F200.000
G1 X-12.528 Y-16.224 Z-7.428 F200.000
G1 X-13.503 Y-15.422 Z-7.440 F200.000
G1 X-14.427 Y-14.561 Z-7.452 F200.000
G1 X-15.296 Y-13.645 Z-7.464 F200.000
G1 X-16.107 Y-12.678 Z-7.477 F200.000
G1 X-16.857 Y-11.662 Z-7.491 F200.000
G1 X-17.543 Y-10.603 Z-7.505 F200.000
G1 X-18.162 Y-9.503 Z-7.519 F200.000
G1 X-18.713 Y-8.367 Z-7.534 F200.000
G1 X-19.192 Y-7.199 Z-7.549 F200.000
G1 X-19.599 Y-6.004 Z-7.564 F200.000
G1 X-19.932 Y-4.786 Z-7.579 F200.000
G1 X-20.188 Y-3.550 Z-7.595 F200.000
G1 X-20.369 Y-2.300 Z-7.610 F200.000
G1 X-20.472 Y-1.042 Z-7.625 F200.000
G1 X-20.497 Y0.220 Z-7.641 F200.000
G1 X-20.444 Y1.481 Z-7.656 F200.000
G1 X-20.314 Y2.737 Z-7.671 F200.000
G1 X-20.107 Y3.983 Z-7.685 F200.000
G1 X-19.824 Y5.213 Z-7.700 F200.000
G1 X-19.466 Y6.423 Z-7.714 F200.000
G1 X-19.033 Y7.609 Z-7.727 F200.000
G1 X-18.529 Y8.767 Z-7.740 F200.000
G1 X-17.954 Y9.891 Z-7.753 F200.000
G1 X-17.311 Y10.977 Z-7.765 F200.000
G1 X-16.602 Y12.022 Z-7.776 F200.000
G1 X-15.831 Y13.021 Z-7.787 F200.000
G1 X-14.999 Y13.971 Z-7.797 F200.000
G1 X-14.111 Y14.868 Z-7.806 F200.000
G1 X-13.168 Y15.708 Z-7.815 F200.000
G1 X-12.176 Y16.489 Z-7.822 F200.000
G1 X-11.138 Y17.207 Z-7.829 F200.000
G1 X-10.058 Y17.861 Z-7.835 F200.000
G1 X-8.939 Y18.446 Z-7.840 F200.000
G1 X-7.787 Y18.961 Z-7.845 F200.000
G1 X-6.605 Y19.405 Z-7.848 F200.000
G1 X-5.397 Y19.775 Z-7.850 F200.000
G1 X-4.170 Y20.069 Z-7.852 F200.000
G1 X-2.926 Y20.288 Z-7.852 F200.000
G1 X-1.666 Y20.430 Z-7.861 F200.000
G1 X-0.398 Y20.494 Z-7.871 F200.000
G1 X0.870 Y20.480 Z-7.881 F200.000
G1 X2.136 Y20.387 Z-7.891 F200.000
G1 X3.393 Y20.215 Z-7.901 F200.000
G1 X4.637 Y19.967 Z-7.911 F200.000
G1 X5.864 Y19.642 Z-7.921 F200.000
G1 X7.068 Y19.241 Z-7.931 F200.000
G1 X8.245 Y18.767 Z-7.941 F200.000
G1 X9.390 Y18.221 Z-7.952 F200.000
G1 X10.499 Y17.605 Z-7.962 F200.000
G1 X11.568 Y16.922 Z-7.971 F200.000
G1 X12.593 Y16.174 Z-7.981 F200.000
G1 X13.570 Y15.363 Z-7.991 F200.000
G1 X14.494 Y14.494 Z-8.000 F200.000
G1 X15.357 Y13.577 Z-8.006 F200.000
G1 X16.162 Y12.607 Z-8.012 F200.000
G1 X16.906 Y11.591 Z-8.019 F200.000
G1 X17.587 Y10.530 Z-8.027 F200.000
G1 X18.200 Y9.430 Z-8.035 F200.000
G1 X18.745 Y8.294 Z-8.044 F200.000
G1 X19.219 Y7.127 Z-8.053 F200.000
G1 X19.621 Y5.933 Z-8.063 F200.000
G1 X19.948 Y4.716 Z-8.073 F200.000
G1 X20.200 Y3.482 Z-8.083 F200.000
G1 X20.376 Y2.234 Z-8.094 F200.000
G1 X20.475 Y0.978 Z-8.105 F200.000
G1 X20.496 Y-0.281 Z-8.117 F200.000
G1 X20.440 Y-1.540 Z-8.128 F200.000
G1 X20.307 Y-2.793 Z-8.140 F200.000
G1 X20.097 Y-4.035 Z-8.152 F200.000
G1 X19.811 Y-5.262 Z-8.164 F200.000
G1 X19.451 Y-6.469 Z-8.176 F200.000
G1 X19.016 Y-7.652 Z-8.188 F200.000
G1 X18.511 Y-8.805 Z-8.200 F200.000
G1 X17.935 Y-9.926 Z-8.212 F200.000
G1 X17.291 Y-11.009 Z-8.224 F200.000
G1 X16.582 Y-12.050 Z-8.236 F200.000
G1 X15.810 Y-13.046 Z-8.247 F200.000
G1 X14.979 Y-13.993 Z-8.258 F200.000
G1 X14.091 Y-14.886 Z-8.269 F200.000
G1 X13.150 Y-15.724 Z-8.280 F200.000
G1 X12.159 Y-16.502 Z-8.290 F200.000
G1 X11.123 Y-17.218 Z-8.299 F200.000
G1 X10.044 Y-17.869 Z-8.309 F200.000
G1 X8.927 Y-18.452 Z-8.317 F200.000
G1 X7.777 Y-18.966 Z-8.325 F200.000
G1 X6.597 Y-19.407 Z-8.333 F200.000
G1 X5.392 Y-19.776 Z-8.340 F200.000
G1 X4.167 Y-20.070 Z-8.346 F200.000
G1 X2.926 Y-20.288 Z-8.352 F200.000
G1 X1.672 Y-20.430 Z-8.353 F200.000
G1 X0.411 Y-20.494 Z-8.354 F200.000
G1 X-0.851 Y-20.480 Z-8.356 F200.000
G1 X-2.111 Y-20.389 Z-8.360 F200.000
G1 X-3.362 Y-20.220 Z-8.364 F200.000
G1 X-4.600 Y-19.975 Z-8.369 F200.000
G1 X-5.821 Y-19.654 Z-8.375 F200.000
G1 X-7.020 Y-19.258 Z-8.382 F200.000
G1 X-8.192 Y-18.789 Z-8.390 F200.000
G1 X-9.334 Y-18.249 Z-8.398 F200.000
G1 X-10.439 Y-17.640 Z-8.407 F200.000
G1 X-11.506 Y-16.964 Z-8.417 F200.000
G1 X-12.528 Y-16.224 Z-8.428 F200.000
G1 X-13.503 Y-15.422 Z-8.440 F200.000
G1 X-14.427 Y-14.561 Z-8.452 F200.000
G1 X-15.296 Y-13.645 Z-8.464 F200.000
G1 X-16.107 Y-12.678 Z-8.477 F200.000
G1 X-16.857 Y-11.662 Z-8.491 F200.000
G1 X-17.543 Y-10.603 Z-8.505 F200.000
G1 X-18.162 Y-9.503 Z-8.519 F200.000
G1 X-18.713 Y-8.367 Z-8.534 F200.000
G1 X-19.192 Y-7.199 Z-8.549 F200.000
G1 X-19.599 Y-6.004 Z-8.564 F200.000
G1 X-19.932 Y-4.786 Z-8.579 F200.000
G1 X-20.188 Y-3.550 Z-8.595 F200.000
G1 X-20.369 Y-2.300 Z-8.610 F200.000
G1 X-20.472 Y-1.042 Z-8.625 F200.000
G1 X-20.497 Y0.220 Z-8.641 F200.000
G1 X-20.444 Y1.481 Z-8.656 F200.000
G1 X-20.314 Y2.737 Z-8.671 F200.000
G1 X-20.107 Y3.983 Z-8.685 F200.000
G1 X-19.824 Y5.213 Z-8.700 F200.000
G1 X-19.466 Y6.423 Z-8.714 F200.000
G1 X-19.033 Y7.609 Z-8.727 F200.000
G1 X-18.529 Y8.767 Z-8.740 F200.000
G1 X-17.954 Y9.891 Z-8.753 F200.000
G1 X-17.311 Y10.977 Z-8.765 F200.000
G1 X-16.602 Y12.022 Z-8.776 F200.000
G1 X-15.831 Y13.021 Z-8.787 F200.000
G1 X-14.999 Y13.971 Z-8.797 F200.000
G1 X-14.111 Y14.868 Z-8.806 F200.000
G1 X-13.168 Y15.708 Z-8.815 F200.000
G1 X-12.176 Y16.489 Z-8.822 F200.000
G1 X-11.138 Y17.207 Z-8.829 F200.000
G1 X-10.058 Y17.861 Z-8.835 F200.000
G1 X-8.939 Y18.446 Z-8.840 F200.000
G1 X-7.787 Y18.961 Z-8.845 F200.000
G1 X-6.605 Y19.405 Z-8.848 F200.000
G1 X-5.397 Y19.775 Z-8.850 F200.000
G1 X-4.170 Y20.069 Z-8.852 F200.000
G1 X-2.926 Y20.288 Z-8.852 F200.000
G1 X-1.666 Y20.430 Z-8.861 F200.000
G1 X-0.398 Y20.494 Z-8.871 F200.000
G1 X0.870 Y20.480 Z-8.881 F200.000
G1 X2.136 Y20.387 Z-8.891 F200.000
G1 X3.393 Y20.215 Z-8.901 F200.000
G1 X4.637 Y19.967 Z-8.911 F200.000
G1 X5.864 Y19.642 Z-8.921 F200.000
G1 X7.068 Y19.241 Z-8.931 F200.000
G1 X8.245 Y18.767 Z-8.941 F200.000
G1 X9.390 Y18.221 Z-8.952 F200.000
G1 X10.499 Y17.605 Z-8.962 F200.000
G1 X11.568 Y16.922 Z-8.971 F200.000
G1 X12.593 Y16.174 Z-8.981 F200.000
G1 X13.570 Y15.363 Z-8.991 F200.000
G1 X14.494 Y14.494 Z-9.000 F200.000
G1 X15.357 Y13.577 Z-9.006 F200.000
G1 X16.162 Y12.607 Z-9.012 F200.000
G1 X16.906 Y11.591 Z-9.019 F200.000
G1 X17.587 Y10.530 Z-9.027 F200.000
G1 X18.200 Y9.430 Z-9.035 F200.000
G1 X18.745 Y8.294 Z-9.044 F200.000
G1 X19.219 Y7.127 Z-9.053 F200.000
G1 X19.621 Y5.933 Z-9.063 F200.000
G1 X19.948 Y4.716 Z-9.073 F200.000
G1 X20.200 Y3.482 Z-9.083 F200.000
G1 X20.376 Y2.234 Z-9.094 F200.000
G1 X20.475 Y0.978 Z-9.105 F200.000
G1 X20.496 Y-0.281 Z-9.117 F200.000
G1 X20.440 Y-1.540 Z-9.128 F200.000
G1 X20.307 Y-2.793 Z-9.140 F200.000
G1 X20.097 Y-4.035 Z-9.152 F200.000
G1 X19.811 Y-5.262 Z-9.164 F200.000
G1 X19.451 Y-6.469 Z-9.176 F200.000
G1 X19.016 Y-7.652 Z-9.188 F200.000
G1 X18.511 Y-8.805 Z-9.200 F200.000
G1 X17.935 Y-9.926 Z-9.212 F200.000
G1 X17.291 Y-11.009 Z-9.224 F200.000
G1 X16.582 Y-12.050 Z-9.236 F200.000
G1 X15.810 Y-13.046 Z-9.247 F200.000
G1 X14.979 Y-13.993 Z-9.258 F200.000
G1 X14.091 Y-14.886 Z-9.269 F200.000
G1 X13.150 Y-15.724 Z-9.280 F200.000
G1 X12.159 Y-16.502 Z-9.290 F200.000
G1 X11.123 Y-17.218 Z-9.299 F200.000
G1 X10.044 Y-17.869 Z-9.309 F200.000
G1 X8.927 Y-18.452 Z-9.317 F200.000
G1 X7.777 Y-18.966 Z-9.325 F200.000
G1 X6.597 Y-19.407 Z-9.333 F200.000
G1 X5.392 Y-19.776 Z-9.340 F200.000
G1 X4.167 Y-20.070 Z-9.346 F200.000
G1 X2.926 Y-20.288 Z-9.352 F200.000
G1 X1.672 Y-20.430 Z-9.353 F200.000
G1 X0.411 Y-20.494 Z-9.354 F200.000
G1 X-0.851 Y-20.480 Z-9.356 F200.000
G1 X-2.111 Y-20.389 Z-9.360 F200.000
G1 X-3.362 Y-20.220 Z-9.364 F200.000
G1 X-4.600 Y-19.975 Z-9.369 F200.000
G1 X-5.821 Y-19.654 Z-9.375 F200.000
G1 X-7.020 Y-19.258 Z-9.382 F200.000
G1 X-8.192 Y-18.789 Z-9.390 F200.000
G1 X-9.334 Y-18.249 Z-9.398 F200.000
G1 X-10.439 Y-17.640 Z-9.407 F200.000
G1 X-11.506 Y-16.964 Z-9.417 F200.000
G1 X-12.528 Y-16.224 Z-9.428 F200.000
G1 X-13.503 Y-15.422 Z-9.440 F200.000
G1 X-14.427 Y-14.561 Z-9.452 F200.000
G1 X-15.296 Y-13.645 Z-9.464 F200.000
G1 X-16.107 Y-12.678 Z-9.477 F200.000
G1 X-16.857 Y-11.662 Z-9.491 F200.000
G1 X-17.543 Y-10.603 Z-9.505 F200.000
G1 X-18.162 Y-9.503 Z-9.519 F200.000
G1 X-18.713 Y-8.367 Z-9.534 F200.000
G1 X-19.192 Y-7.199 Z-9.549 F200.000
G1 X-19.599 Y-6.004 Z-9.564 F200.000
G1 X-19.932 Y-4.786 Z-9.579 F200.000
G1 X-20.188 Y-3.550 Z-9.595 F200.000
G1 X-20.369 Y-2.300 Z-9.610 F200.000
G1 X-20.472 Y-1.042 Z-9.625 F200.000
G1 X-20.497 Y0.220 Z-9.641 F200.000
G1 X-20.444 Y1.481 Z-9.656 F200.000
G1 X-20.314 Y2.737 Z-9.671 F200.000
G1 X-20.107 Y3.983 Z-9.685 F200.000
G1 X-19.824 Y5.213 Z-9.700 F200.000
G1 X-19.466 Y6.423 Z-9.714 F200.000
G1 X-19.033 Y7.609 Z-9.727 F200.000
G1 X-18.529 Y8.767 Z-9.740 F200.000
G1 X-17.954 Y9.891 Z-9.753 F200.000
G1 X-17.311 Y10.977 Z-9.765 F200.000
G1 X-16.602 Y12.022 Z-9.776 F200.000
G1 X-15.831 Y13.021 Z-9.787 F200.000
G1 X-14.999 Y13.971 Z-9.797 F200.000
G1 X-14.111 Y14.868 Z-9.806 F200.000
G1 X-13.168 Y15.708 Z-9.815 F200.000
G1 X-12.176 Y16.489 Z-9.822 F200.000
G1 X-11.138 Y17.207 Z-9.829 F200.000
G1 X-10.058 Y17.861 Z-9.835 F200.000
G1 X-8.939 Y18.446 Z-9.840 F200.000
G1 X-7.787 Y18.961 Z-9.845 F200.000
G1 X-6.605 Y19.405 Z-9.848 F200.000
G1 X-5.397 Y19.775 Z-9.850 F200.000
G1 X-4.170 Y20.069 Z-9.852 F200.000
G1 X-2.926 Y20.288 Z-9.852 F200.000
G1 X-1.666 Y20.430 Z-9.861 F200.000
G1 X-0.398 Y20.494 Z-9.871 F200.000
G1 X0.870 Y20.480 Z-9.881 F200.000
G1 X2.136 Y20.387 Z-9.891 F200.000
G1 X3.393 Y20.215 Z-9.901 F200.000
G1 X4.637 Y19.967 Z-9.911 F200.000
G1 X5.864 Y19.642 Z-9.921 F200.000
G1 X7.068 Y19.241 Z-9.931 F200.000
G1 X8.245 Y18.767 Z-9.941 F200.000
G1 X9.390 Y18.221 Z-9.952 F200.000
G1 X10.499 Y17.605 Z-9.962 F200.000
G1 X11.568 Y16.922 Z-9.971 F200.000
G1 X12.593 Y16.174 Z-9.981 F200.000
G1 X13.570 Y15.363 Z-9.991 F200.000
G1 X14.494 Y14.494 Z-10.000 F200.000
G1 X15.357 Y13.577 Z-10.006 F200.000
G1 X16.162 Y12.607 Z-10.012 F200.000
G1 X16.906 Y11.591 Z-10.019 F200.000
G1 X17.587 Y10.530 Z-10.027 F200.000
G1 X18.200 Y9.430 Z-10.035 F200.000
G1 X18.745 Y8.294 Z-10.044 F200.000
G1 X19.219 Y7.127 Z-10.053 F200.000
G1 X19.621 Y5.933 Z-10.063 F200.000
G1 X19.948 Y4.716 Z-10.073 F200.000
G1 X20.200 Y3.482 Z-10.083 F200.000
G1 X20.376 Y2.234 Z-10.094 F200.000
G1 X20.475 Y0.978 Z-10.105 F200.000
G1 X20.496 Y-0.281 Z-10.117 F200.000
G1 X20.440 Y-1.540 Z-10.128 F200.000
G1 X20.307 Y-2.793 Z-10.140 F200.000
G1 X20.097 Y-4.035 Z-10.152 F200.000
G1 X19.811 Y-5.262 Z-10.164 F200.000
G1 X19.451 Y-6.469 Z-10.176 F200.000
G1 X19.016 Y-7.652 Z-10.188 F200.000
G1 X18.511 Y-8.805 Z-10.200 F200.000
G1 X17.935 Y-9.926 Z-10.212 F200.000
G1 X17.291 Y-11.009 Z-10.224 F200.000
G1 X16.582 Y-12.050 Z-10.236 F200.000
G1 X15.810 Y-13.046 Z-10.247 F200.000
G1 X14.979 Y-13.993 Z-10.258 F200.000
G1 X14.091 Y-14.886 Z-10.269 F200.000
G1 X13.150 Y-15.724 Z-10.280 F200.000
G1 X12.159 Y-16.502 Z-10.290 F200.000
G1 X11.123 Y-17.218 Z-10.299 F200.000
G1 X10.044 Y-17.869 Z-10.309 F200.000
G1 X8.927 Y-18.452 Z-10.317 F200.000
G1 X7.777 Y-18.966 Z-10.325 F200.000
G1 X6.597 Y-19.407 Z-10.333 F200.000
G1 X5.392 Y-19.776 Z-10.340 F200.000
G1 X4.167 Y-20.070 Z-10.346 F200.000
G1 X2.926 Y-20.288 Z-10.352 F200.000
G1 X1.672 Y-20.430 Z-10.353 F200.000
G1 X0.411 Y-20.494 Z-10.354 F200.000
G1 X-0.851 Y-20.480 Z-10.356 F200.000
G1 X-2.111 Y-20.389 Z-10.360 F200.000
G1 X-3.362 Y-20.220 Z-10.364 F200.000
G1 X-4.600 Y-19.975 Z-10.369 F200.000
G1 X-5.821 Y-19.654 Z-10.375 F200.000
G1 X-7.020 Y-19.258 Z-10.382 F200.000
G1 X-8.192 Y-18.789 Z-10.390 F200.000
G1 X-9.334 Y-18.249 Z-10.398 F200.000
G1 X-10.439 Y-17.640 Z-10.407 F200.000
G1 X-11.506 Y-16.964 Z-10.417 F200.000
G1 X-12.528 Y-16.224 Z-10.428 F200.000
G1 X-13.503 Y-15.422 Z-10.440 F200.000
G1 X-14.427 Y-14.561 Z-10.452 F200.000
G1 X-15.296 Y-13.645 Z-10.464 F200.000
G1 X-16.107 Y-12.678 Z-10.477 F200.000
G1 X-16.857 Y-11.662 Z-10.491 F200.000
G1 X-17.543 Y-10.603 Z-10.505 F200.000
G1 X-18.162 Y-9.503 Z-10.519 F200.000
G1 X-18.713 Y-8.367 Z-10.534 F200.000
G1 X-19.192 Y-7.199 Z-10.549 F200.000
G1 X-19.599 Y-6.004 Z-10.564 F200.000
G1 X-19.932 Y-4.786 Z-10.579 F200.000
G1 X-20.188 Y-3.550 Z-10.595 F200.000
G1 X-20.369 Y-2.300 Z-10.610 F200.000
G1 X-20.472 Y-1.042 Z-10.625 F200.000
G1 X-20.497 Y0.220 Z-10.641 F200.000
G1 X-20.444 Y1.481 Z-10.656 F200.000
G1 X-20.314 Y2.737 Z-10.671 F200.000
G1 X-20.107 Y3.983 Z-10.685 F200.000
G1 X-19.824 Y5.213 Z-10.700 F200.000
G1 X-19.466 Y6.423 Z-10.714 F200.000
G1 X-19.033 Y7.609 Z-10.727 F200.000
G1 X-18.529 Y8.767 Z-10.740 F200.000
G1 X-17.954 Y9.891 Z-10.753 F200.000
G1 X-17.311 Y10.977 Z-10.765 F200.000
G1 X-16.602 Y12.022 Z-10.776 F200.000
G1 X-15.831 Y13.021 Z-10.787 F200.000
G1 X-14.999 Y13.971 Z-10.797 F200.000
G1 X-14.111 Y14.868 Z-10.806 F200.000
G1 X-13.168 Y15.708 Z-10.815 F200.000
G1 X-12.176 Y16.489 Z-10.822 F200.000
G1 X-11.138 Y17.207 Z-10.829 F200.000
G1 X-10.058 Y17.861 Z-10.835 F200.000
G1 X-8.939 Y18.446 Z-10.840 F200.000
G1 X-7.787 Y18.961 Z-10.845 F200.000
G1 X-6.605 Y19.405 Z-10.848 F200.000
G1 X-5.397 Y19.775 Z-10.850 F200.000
G1 X-4.170 Y20.069 Z-10.852 F200.000
G1 X-2.926 Y20.288 Z-10.852 F200.000
G1 X-1.666 Y20.430 Z-10.861 F200.000
G1 X-0.398 Y20.494 Z-10.871 F200.000
G1 X0.870 Y20.480 Z-10.881 F200.000
G1 X2.136 Y20.387 Z-10.891 F200.000
G1 X3.393 Y20.215 Z-10.901 F200.000
G1 X4.637 Y19.967 Z-10.911 F200.000
G1 X5.864 Y19.642 Z-10.921 F200.000
G1 X7.068 Y19.241 Z-10.931 F200.000
G1 X8.245 Y18.767 Z-10.941 F200.000
G1 X9.390 Y18.221 Z-10.952 F200.000
G1 X10.499 Y17.605 Z-10.962 F200.000
G1 X11.568 Y16.922 Z-10.971 F200.000
G1 X12.593 Y16.174 Z-10.981 F200.000
G1 X13.570 Y15.363 Z-10.991 F200.000
G1 X14.494 Y14.494 Z-11.000 F200.000
G1 X15.357 Y13.577 Z-11.006 F200.000
G1 X16.162 Y12.607 Z-11.012 F200.000
G1 X16.906 Y11.591 Z-11.019 F200.000
G1 X17.587 Y10.530 Z-11.027 F200.000
G1 X18.200 Y9.430 Z-11.035 F200.000
G1 X18.745 Y8.294 Z-11.044 F200.000
G1 X19.219 Y7.127 Z-11.053 F200.000
G1 X19.621 Y5.933 Z-11.063 F200.000
G1 X19.948 Y4.716 Z-11.073 F200.000
G1 X20.200 Y3.482 Z-11.083 F200.000
G1 X20.376 Y2.234 Z-11.094 F200.000
G1 X20.475 Y0.978 Z-11.105 F200.000
G1 X20.496 Y-0.281 Z-11.117 F200.000
G1 X20.440 Y-1.540 Z-11.128 F200.000
G1 X20.307 Y-2.793 Z-11.140 F200.000
G1 X20.097 Y-4.035 Z-11.152 F200.000
G1 X19.811 Y-5.262 Z-11.164 F200.000
G1 X19.451 Y-6.469 Z-11.176 F200.000
G1 X19.016 Y-7.652 Z-11.188 F200.000
G1 X18.511 Y-8.805 Z-11.200 F200.000
G1 X17.935 Y-9.926 Z-11.212 F200.000
G1 X17.291 Y-11.009 Z-11.224 F200.000
G1 X16.582 Y-12.050 Z-11.236 F200.000
G1 X15.810 Y-13.046 Z-11.247 F200.000
G1 X14.979 Y-13.993 Z-11.258 F200.000
G1 X14.091 Y-14.886 Z-11.269 F200.000
G1 X13.150 Y-15.724 Z-11.280 F200.000
G1 X12.159 Y-16.502 Z-11.290 F200.000
G1 X11.123 Y-17.218 Z-11.299 F200.000
G1 X10.044 Y-17.869 Z-11.309 F200.000
G1 X8.927 Y-18.452 Z-11.317 F200.000
G1 X7.777 Y-18.966 Z-11.325 F200.000
G1 X6.597 Y-19.407 Z-11.333 F200.000
G1 X5.392 Y-19.776 Z-11.340 F200.000
G1 X4.167 Y-20.070 Z-11.346 F200.000
G1 X2.926 Y-20.288 Z-11.352 F200.000
G1 X1.672 Y-20.430 Z-11.353 F200.000
G1 X0.411 Y-20.494 Z-11.354 F200.000
G1 X-0.851 Y-20.480 Z-11.356 F200.000
G1 X-2.111 Y-20.389 Z-11.360 F200.000
G1 X-3.362 Y-20.220 Z-11.364 F200.000
G1 X-4.600 Y-19.975 Z-11.369 F200.000
G1 X-5.821 Y-19.654 Z-11.375 F200.000
G1 X-7.020 Y-19.258 Z-11.382 F200.000
G1 X-8.192 Y-18.789 Z-11.390 F200.000
G1 X-9.334 Y-18.249 Z-11.398 F200.000
G1 X-10.439 Y-17.640 Z-11.407 F200.000
G1 X-11.506 Y-16.964 Z-11.417 F200.000
G1 X-12.528 Y-16.224 Z-11.428 F200.000
G1 X-13.503 Y-15.422 Z-11.440 F200.000
G1 X-14.427 Y-14.561 Z-11.452 F200.000
G1 X-15.296 Y-13.645 Z-11.464 F200.000
G1 X-16.107 Y-12.678 Z-11.477 F200.000
G1 X-16.857 Y-11.662 Z-11.491 F200.000
G1 X-17.543 Y-10.603 Z-11.505 F200.000
G1 X-18.162 Y-9.503 Z-11.519 F200.000
G1 X-18.713 Y-8.367 Z-11.534 F200.000
G1 X-19.192 Y-7.199 Z-11.549 F200.000
G1 X-19.599 Y-6.004 Z-11.564 F200.000
G1 X-19.932 Y-4.786 Z-11.579 F200.000
G1 X-20.188 Y-3.550 Z-11.595 F200.000
G1 X-20.369 Y-2.300 Z-11.610 F200.000
G1 X-20.472 Y-1.042 Z-11.625 F200.000
G1 X-20.497 Y0.220 Z-11.641 F200.000
G1 X-20.444 Y1.481 Z-11.656 F200.000
G1 X-20.314 Y2.737 Z-11.671 F200.000
G1 X-20.107 Y3.983 Z-11.685 F200.000
G1 X-19.824 Y5.213 Z-11.700 F200.000
G1 X-19.466 Y6.423 Z-11.714 F200.000
G1 X-19.033 Y7.609 Z-11.727 F200.000
G1 X-18.529 Y8.767 Z-11.740 F200.000
G1 X-17.954 Y9.891 Z-11.753 F200.000
G1 X-17.311 Y10.977 Z-11.765 F200.000
G1 X-16.602 Y12.022 Z-11.776 F200.000
G1 X-15.831 Y13.021 Z-11.787 F200.000
G1 X-14.999 Y13.971 Z-11.797 F200.000
G1 X-14.111 Y14.868 Z-11.806 F200.000
G1 X-13.168 Y15.708 Z-11.815 F200.000
G1 X-12.176 Y16.489 Z-11.822 F200.000
G1 X-11.138 Y17.207 Z-11.829 F200.000
G1 X-10.058 Y17.861 Z-11.835 F200.000
G1 X-8.939 Y18.446 Z-11.840 F200.000
G1 X-7.787 Y18.961 Z-11.845 F200.000
G1 X-6.605 Y19.405 Z-11.848 F200.000
G1 X-5.397 Y19.775 Z-11.850 F200.000
G1 X-4.170 Y20.069 Z-11.852 F200.000
G1 X-2.926 Y20.288 Z-11.852 F200.000
G1 X-1.666 Y20.430 Z-11.861 F200.000
G1 X-0.398 Y20.494 Z-11.871 F200.000
G1 X0.870 Y20.480 Z-11.881 F200.000
G1 X2.136 Y20.387 Z-11.891 F200.000
G1 X3.393 Y20.215 Z-11.901 F200.000
G1 X4.637 Y19.967 Z-11.911 F200.000
G1 X5.864 Y19.642 Z-11.921 F200.000
G1 X7.068 Y19.241 Z-11.931 F200.000
G1 X8.245 Y18.767 Z-11.941 F200.000
G1 X9.390 Y18.221 Z-11.952 F200.000
G1 X10.499 Y17.605 Z-11.962 F200.000
G1 X11.568 Y16.922 Z-11.971 F200.000
G1 X12.593 Y16.174 Z-11.981 F200.000
G1 X13.570 Y15.363 Z-11.991 F200.000
G1 X14.494 Y14.494 Z-12.000 F200.000
G1 X15.357 Y13.577 Z-12.006 F200.000
G1 X16.162 Y12.607 Z-12.012 F200.000
G1 X16.906 Y11.591 Z-12.019 F200.000
G1 X17.587 Y10.530 Z-12.027 F200.000
G1 X18.200 Y9.430 Z-12.035 F200.000
G1 X18.745 Y8.294 Z-12.044 F200.000
G1 X19.219 Y7.127 Z-12.053 F200.000
G1 X19.621 Y5.933 Z-12.063 F200.000
G1 X19.948 Y4.716 Z-12.073 F200.000
G1 X20.200 Y3.482 Z-12.083 F200.000
G1 X20.376 Y2.234 Z-12.094 F200.000
G1 X20.475 Y0.978 Z-12.105 F200.000
G1 X20.496 Y-0.281 Z-12.117 F200.000
G1 X20.440 Y-1.540 Z-12.128 F200.000
G1 X20.307 Y-2.793 Z-12.140 F200.000
G1 X20.097 Y-4.035 Z-12.152 F200.000
G1 X19.811 Y-5.262 Z-12.164 F200.000
G1 X19.451 Y-6.469 Z-12.176 F200.000
G1 X19.016 Y-7.652 Z-12.188 F200.000
G1 X18.511 Y-8.805 Z-12.200 F200.000
G1 X17.935 Y-9.926 Z-12.212 F200.000
G1 X17.291 Y-11.009 Z-12.224 F200.000
G1 X16.582 Y-12.050 Z-12.236 F200.000
G1 X15.810 Y-13.046 Z-12.247 F200.000
G1 X14.979 Y-13.993 Z-12.258 F200.000
G1 X14.091 Y-14.886 Z-12.269 F200.000
G1 X13.150 Y-15.724 Z-12.280 F200.000
G1 X12.159 Y-16.502 Z-12.290 F200.000
G1 X11.123 Y-17.218 Z-12.299 F200.000
G1 X10.044 Y-17.869 Z-12.309 F200.000
G1 X8.927 Y-18.452 Z-12.317 F200.000
G1 X7.777 Y-18.966 Z-12.325 F200.000
G1 X6.597 Y-19.407 Z-12.333 F200.000
G1 X5.392 Y-19.776 Z-12.340 F200.000
G1 X4.167 Y-20.070 Z-12.346 F200.000
G1 X2.926 Y-20.288 Z-12.352 F200.000
G1 X1.672 Y-20.430 Z-12.353 F200.000
G1 X0.411 Y-20.494 Z-12.354 F200.000
G1 X-0.851 Y-20.480 Z-12.356 F200.000
G1 X-2.111 Y-20.389 Z-12.360 F200.000
G1 X-3.362 Y-20.220 Z-12.364 F200.000
G1 X-4.600 Y-19.975 Z-12.369 F200.000
G1 X-5.821 Y-19.654 Z-12.375 F200.000
G1 X-7.020 Y-19.258 Z-12.382 F200.000
G1 X-8.192 Y-18.789 Z-12.390 F200.000
G1 X-9.334 Y-18.249 Z-12.398 F200.000
G1 X-10.439 Y-17.640 Z-12.407 F200.000
G1 X-11.506 Y-16.964 Z-12.417 F200.000
G1 X-12.528 Y-16.224 Z-12.428 F200.000
G1 X-13.503 Y-15.422 Z-12.440 F200.000
G1 X-14.427 Y-14.561 Z-12.452 F200.000
G1 X-15.296 Y-13.645 Z-12.464 F200.000
G1 X-16.107 Y-12.678 Z-12.477 F200.000
G1 X-16.857 Y-11.662 Z-12.491 F200.000
G1 X-17.543 Y-10.603 Z-12.505 F200.000
G1 X-18.162 Y-9.503 Z-12.519 F200.000
G1 X-18.713 Y-8.367 Z-12.534 F200.000
G1 X-19.192 Y-7.199 Z-12.549 F200.000
G1 X-19.599 Y-6.004 Z-12.564 F200.000
G1 X-19.932 Y-4.786 Z-12.579 F200.000
G1 X-20.188 Y-3.550 Z-12.595 F200.000
G1 X-20.369 Y-2.300 Z-12.610 F200.000
G1 X-20.472 Y-1.042 Z-12.625 F200.000
G1 X-20.497 Y0.220 Z-12.641 F200.000
G1 X-20.444 Y1.481 Z-12.656 F200.000
G1 X-20.314 Y2.737 Z-12.671 F200.000
G1 X-20.107 Y3.983 Z-12.685 F200.000
G1 X-19.824 Y5.213 Z-12.700 F200.000
G1 X-19.466 Y6.423 Z-12.714 F200.000
G1 X-19.033 Y7.609 Z-12.727 F200.000
G1 X-18.529 Y8.767 Z-12.740 F200.000
G1 X-17.954 Y9.891 Z-12.753 F200.000
G1 X-17.311 Y10.977 Z-12.765 F200.000
G1 X-16.602 Y12.022 Z-12.776 F200.000
G1 X-15.831 Y13.021 Z-12.787 F200.000
G1 X-14.999 Y13.971 Z-12.797 F200.000
G1 X-14.111 Y14.868 Z-12.806 F200.000
G1 X-13.168 Y15.708 Z-12.815 F200.000
G1 X-12.176 Y16.489 Z-12.822 F200.000
G1 X-11.138 Y17.207 Z-12.829 F200.000
G1 X-10.058 Y17.861 Z-12.835 F200.000
G1 X-8.939 Y18.446 Z-12.840 F200.000
G1 X-7.787 Y18.961 Z-12.845 F200.000
G1 X-6.605 Y19.405 Z-12.848 F200.000
G1 X-5.397 Y19.775 Z-12.850 F200.000
G1 X-4.170 Y20.069 Z-12.852 F200.000
G1 X-2.926 Y20.288 Z-12.852 F200.000
G1 X-1.666 Y20.430 Z-12.861 F200.000
G1 X-0.398 Y20.494 Z-12.871 F200.000
G1 X0.870 Y20.480 Z-12.881 F200.000
G1 X2.136 Y20.387 Z-12.891 F200.000
G1 X3.393 Y20.215 Z-12.901 F200.000
G1 X4.637 Y19.967 Z-12.911 F200.000
G1 X5.864 Y19.642 Z-12.921 F200.000
G1 X7.068 Y19.241 Z-12.931 F200.000
G1 X8.245 Y18.767 Z-12.941 F200.000
G1 X9.390 Y18.221 Z-12.952 F200.000
G1 X10.499 Y17.605 Z-12.962 F200.000
G1 X11.568 Y16.922 Z-12.971 F200.000
G1 X12.593 Y16.174 Z-12.981 F200.000
G1 X13.570 Y15.363 Z-12.991 F200.000
G1 X14.494 Y14.494 Z-13.000 F200.000
G1 X15.357 Y13.577 Z-13.006 F200.000
G1 X16.162 Y12.607 Z-13.012 F200.000
G1 X16.906 Y11.591 Z-13.019 F200.000
G1 X17.587 Y10.530 Z-13.027 F200.000
G1 X18.200 Y9.430 Z-13.035 F200.000
G1 X18.745 Y8.294 Z-13.044 F200.000
G1 X19.219 Y7.127 Z-13.053 F200.000
G1 X19.621 Y5.933 Z-13.063 F200.000
G1 X19.948 Y4.716 Z-13.073 F200.000
G1 X20.200 Y3.482 Z-13.083 F200.000
G1 X20.376 Y2.234 Z-13.094 F200.000
G1 X20.475 Y0.978 Z-13.105 F200.000
G1 X20.496 Y-0.281 Z-13.117 F200.000
G1 X20.440 Y-1.540 Z-13.128 F200.000
G1 X20.307 Y-2.793 Z-13.140 F200.000
G1 X20.097 Y-4.035 Z-13.152 F200.000
G1 X19.811 Y-5.262 Z-13.164 F200.000
G1 X19.451 Y-6.469 Z-13.176 F200.000
G1 X19.016 Y-7.652 Z-13.188 F200.000
G1 X18.511 Y-8.805 Z-13.200 F200.000
G1 X17.935 Y-9.926 Z-13.212 F200.000
G1 X17.291 Y-11.009 Z-13.224 F200.000
G1 X16.582 Y-12.050 Z-13.236 F200.000
G1 X15.810 Y-13.046 Z-13.247 F200.000
G1 X14.979 Y-13.993 Z-13.258 F200.000
G1 X14.091 Y-14.886 Z-13.269 F200.000
G1 X13.150 Y-15.724 Z-13.280 F200.000
G1 X12.159 Y-16.502 Z-13.290 F200.000
G1 X11.123 Y-17.218 Z-13.299 F200.000
G1 X10.044 Y-17.869 Z-13.309 F200.000
G1 X8.927 Y-18.452 Z-13.317 F200.000
G1 X7.777 Y-18.966 Z-13.325 F200.000
G1 X6.597 Y-19.407 Z-13.333 F200.000
G1 X5.392 Y-19.776 Z-13.340 F200.000
G1 X4.167 Y-20.070 Z-13.346 F200.000
G1 X2.926 Y-20.288 Z-13.352 F200.000
G1 X1.672 Y-20.430 Z-13.353 F200.000
G1 X0.411 Y-20.494 Z-13.354 F200.000
G1 X-0.851 Y-20.480 Z-13.356 F200.000
G1 X-2.111 Y-20.389 Z-13.360 F200.000
G1 X-3.362 Y-20.220 Z-13.364 F200.000
G1 X-4.600 Y-19.975 Z-13.369 F200.000
G1 X-5.821 Y-19.654 Z-13.375 F200.000
G1 X-7.020 Y-19.258 Z-13.382 F200.000
G1 X-8.192 Y-18.789 Z-13.390 F200.000
G1 X-9.334 Y-18.249 Z-13.398 F200.000
G1 X-10.439 Y-17.640 Z-13.407 F200.000
G1 X-11.506 Y-16.964 Z-13.417 F200.000
G1 X-12.528 Y-16.224 Z-13.428 F200.000
G1 X-13.503 Y-15.422 Z-13.440 F200.000
G1 X-14.427 Y-14.561 Z-13.452 F200.000
G1 X-15.296 Y-13.645 Z-13.464 F200.000
G1 X-16.107 Y-12.678 Z-13.477 F200.000
G1 X-16.857 Y-11.662 Z-13.491 F200.000
G1 X-17.543 Y-10.603 Z-13.505 F200.000
G1 X-18.162 Y-9.503 Z-13.519 F200.000
G1 X-18.713 Y-8.367 Z-13.534 F200.000
G1 X-19.192 Y-7.199 Z-13.549 F200.000
G1 X-19.599 Y-6.004 Z-13.564 F200.000
G1 X-19.932 Y-4.786 Z-13.579 F200.000
G1 X-20.188 Y-3.550 Z-13.595 F200.000
G1 X-20.369 Y-2.300 Z-13.610 F200.000
G1 X-20.472 Y-1.042 Z-13.625 F200.000
G1 X-20.497 Y0.220 Z-13.641 F200.000
G1 X-20.444 Y1.481 Z-13.656 F200.000
G1 X-20.314 Y2.737 Z-13.671 F200.000
G1 X-20.107 Y3.983 Z-13.685 F200.000
G1 X-19.824 Y5.213 Z-13.700 F200.000
G1 X-19.466 Y6.423 Z-13.714 F200.000
G1 X-19.033 Y7.609 Z-13.727 F200.000
G1 X-18.529 Y8.767 Z-13.740 F200.000
G1 X-17.954 Y9.891 Z-13.753 F200.000
G1 X-17.311 Y10.977 Z-13.765 F200.000
G1 X-16.602 Y12.022 Z-13.776 F200.000
G1 X-15.831 Y13.021 Z-13.787 F200.000
G1 X-14.999 Y13.971 Z-13.797 F200.000
G1 X-14.111 Y14.868 Z-13.806 F200.000
G1 X-13.168 Y15.708 Z-13.815 F200.000
G1 X-12.176 Y16.489 Z-13.822 F200.000
G1 X-11.138 Y17.207 Z-13.829 F200.000
G1 X-10.058 Y17.861 Z-13.835 F200.000
G1 X-8.939 Y18.446 Z-13.840 F200.000
G1 X-7.787 Y18.961 Z-13.845 F200.000
G1 X-6.605 Y19.405 Z-13.848 F200.000
G1 X-5.397 Y19.775 Z-13.850 F200.000
G1 X-4.170 Y20.069 Z-13.852 F200.000
G1 X-2.926 Y20.288 Z-13.852 F200.000
G1 X-1.666 Y20.430 Z-13.861 F200.000
G1 X-0.398 Y20.494 Z-13.871 F200.000
G1 X0.870 Y20.480 Z-13.881 F200.000
G1 X2.136 Y20.387 Z-13.891 F200.000
G1 X3.393 Y20.215 Z-13.901 F200.000
G1 X4.637 Y19.967 Z-13.911 F200.000
G1 X5.864 Y19.642 Z-13.921 F200.000
G1 X7.068 Y19.241 Z-13.931 F200.000
G1 X8.245 Y18.767 Z-13.941 F200.000
G1 X9.390 Y18.221 Z-13.952 F200.000
G1 X10.499 Y17.605 Z-13.962 F200.000
G1 X11.568 Y16.922 Z-13.971 F200.000
G1 X12.593 Y16.174 Z-13.981 F200.000
G1 X13.570 Y15.363 Z-13.991 F200.000
G1 X14.494 Y14.494 Z-14.000 F200.000
G1 X15.357 Y13.577 Z-14.006 F200.000
G1 X16.162 Y12.607 Z-14.012 F200.000
G1 X16.906 Y11.591 Z-14.019 F200.000
G1 X17.587 Y10.530 Z-14.027 F200.000
G1 X18.200 Y9.430 Z-14.035 F200.000
G1 X18.745 Y8.294 Z-14.044 F200.000
G1 X19.219 Y7.127 Z-14.053 F200.000
G1 X19.621 Y5.933 Z-14.063 F200.000
G1 X19.948 Y4.716 Z-14.073 F200.000
G1 X20.200 Y3.482 Z-14.083 F200.000
G1 X20.376 Y2.234 Z-14.094 F200.000
G1 X20.475 Y0.978 Z-14.105 F200.000
G1 X20.496 Y-0.281 Z-14.117 F200.000
G1 X20.440 Y-1.540 Z-14.128 F200.000
G1 X20.307 Y-2.793 Z-14.140 F200.000
G1 X20.097 Y-4.035 Z-14.152 F200.000
G1 X19.811 Y-5.262 Z-14.164 F200.000
G1 X19.451 Y-6.469 Z-14.176 F200.000
G1 X19.016 Y-7.652 Z-14.188 F200.000
G1 X18.511 Y-8.805 Z-14.200 F200.000
G1 X17.935 Y-9.926 Z-14.212 F200.000
G1 X17.291 Y-11.009 Z-14.224 F200.000
G1 X16.582 Y-12.050 Z-14.236 F200.000
G1 X15.810 Y-13.046 Z-14.247 F200.000
G1 X14.979 Y-13.993 Z-14.258 F200.000
G1 X14.091 Y-14.886 Z-14.269 F200.000
G1 X13.150 Y-15.724 Z-14.280 F200.000
G1 X12.159 Y-16.502 Z-14.290 F200.000
G1 X11.123 Y-17.218 Z-14.299 F200.000
G1 X10.044 Y-17.869 Z-14.309 F200.000
G1 X8.927 Y-18.452 Z-14.317 F200.000
G1 X7.777 Y-18.966 Z-14.325 F200.000
G1 X6.597 Y-19.407 Z-14.333 F200.000
G1 X5.392 Y-19.776 Z-14.340 F200.000
G1 X4.167 Y-20.070 Z-14.346 F200.000
G1 X2.926 Y-20.288 Z-14.352 F200.000
G1 X1.672 Y-20.430 Z-14.353 F200.000
G1 X0.411 Y-20.494 Z-14.354 F200.000
G1 X-0.851 Y-20.480 Z-14.356 F200.000
G1 X-2.111 Y-20.389 Z-14.360 F200.000
G1 X-3.362 Y-20.220 Z-14.364 F200.000
G1 X-4.600 Y-19.975 Z-14.369 F200.000
G1 X-5.821 Y-19.654 Z-14.375 F200.000
G1 X-7.020 Y-19.258 Z-14.382 F200.000
G1 X-8.192 Y-18.789 Z-14.390 F200.000
G1 X-9.334 Y-18.249 Z-14.398 F200.000
G1 X-10.439 Y-17.640 Z-14.407 F200.000
G1 X-11.506 Y-16.964 Z-14.417 F200.000
G1 X-12.528 Y-16.224 Z-14.428 F200.000
G1 X-13.503 Y-15.422 Z-14.440 F200.000
G1 X-14.427 Y-14.561 Z-14.452 F200.000
G1 X-15.296 Y-13.645 Z-14.464 F200.000
G1 X-16.107 Y-12.678 Z-14.477 F200.000
G1 X-16.857 Y-11.662 Z-14.491 F200.000
G1 X-17.543 Y-10.603 Z-14.505 F200.000
G1 X-18.162 Y-9.503 Z-14.519 F200.000
G1 X-18.713 Y-8.367 Z-14.534 F200.000
G1 X-19.192 Y-7.199 Z-14.549 F200.000
G1 X-19.599 Y-6.004 Z-14.564 F200.000
G1 X-19.932 Y-4.786 Z-14.579 F200.000
G1 X-20.188 Y-3.550 Z-14.595 F200.000
G1 X-20.369 Y-2.300 Z-14.610 F200.000
G1 X-20.472 Y-1.042 Z-14.625 F200.000
G1 X-20.497 Y0.220 Z-14.641 F200.000
G1 X-20.444 Y1.481 Z-14.656 F200.000
G1 X-20.314 Y2.737 Z-14.671 F200.000
G1 X-20.107 Y3.983 Z-14.685 F200.000
G1 X-19.824 Y5.213 Z-14.700 F200.000
G1 X-19.466 Y6.423 Z-14.714 F200.000
G1 X-19.033 Y7.609 Z-14.727 F200.000
G1 X-18.529 Y8.767 Z-14.740 F200.000
G1 X-17.954 Y9.891 Z-14.753 F200.000
G1 X-17.311 Y10.977 Z-14.765 F200.000
G1 X-16.602 Y12.022 Z-14.776 F200.000
G1 X-15.831 Y13.021 Z-14.787 F200.000
G1 X-14.999 Y13.971 Z-14.797 F200.000
G1 X-14.111 Y14.868 Z-14.806 F200.000
G1 X-13.168 Y15.708 Z-14.815 F200.000
G1 X-12.176 Y16.489 Z-14.822 F200.000
G1 X-11.138 Y17.207 Z-14.829 F200.000
G1 X-10.058 Y17.861 Z-14.835 F200.000
G1 X-8.939 Y18.446 Z-14.840 F200.000
G1 X-7.787 Y18.961 Z-14.845 F200.000
G1 X-6.605 Y19.405 Z-14.848 F200.000
G1 X-5.397 Y19.775 Z-14.850 F200.000
G1 X-4.170 Y20.069 Z-14.852 F200.000
G1 X-2.926 Y20.288 Z-14.852 F200.000
G1 X-1.666 Y20.430 Z-14.861 F200.000
G1 X-0.398 Y20.494 Z-14.871 F200.000
G1 X0.870 Y20.480 Z-14.881 F200.000
G1 X2.136 Y20.387 Z-14.891 F200.000
G1 X3.393 Y20.215 Z-14.901 F200.000
G1 X4.637 Y19.967 Z-14.911 F200.000
G1 X5.864 Y19.642 Z-14.921 F200.000
G1 X7.068 Y19.241 Z-14.931 F200.000
G1 X8.245 Y18.767 Z-14.941 F200.000
G1 X9.390 Y18.221 Z-14.952 F200.000
G1 X10.499 Y17.605 Z-14.962 F200.000
G1 X11.568 Y16.922 Z-14.971 F200.000
G1 X12.593 Y16.174 Z-14.981 F200.000
G1 X13.570 Y15.363 Z-14.991 F200.000
G1 X14.494 Y14.494 Z-15.000 F200.000
G1 X15.357 Y13.577 Z-15.006 F200.000
G1 X16.162 Y12.607 Z-15.012 F200.000
G1 X16.906 Y11.591 Z-15.019 F200.000
G1 X17.587 Y10.530 Z-15.027 F200.000
G1 X18.200 Y9.430 Z-15.035 F200.000
G1 X18.745 Y8.294 Z-15.044 F200.000
G1 X19.219 Y7.127 Z-15.053 F200.000
G1 X19.621 Y5.933 Z-15.063 F200.000
G1 X19.948 Y4.716 Z-15.073 F200.000
G1 X20.200 Y3.482 Z-15.083 F200.000
G1 X20.376 Y2.234 Z-15.094 F200.000
G1 X20.475 Y0.978 Z-15.105 F200.000
G1 X20.496 Y-0.281 Z-15.117 F200.000
G1 X20.440 Y-1.540 Z-15.128 F200.000
G1 X20.307 Y-2.793 Z-15.140 F200.000
G1 X20.097 Y-4.035 Z-15.152 F200.000
G1 X19.811 Y-5.262 Z-15.164 F200.000
G1 X19.451 Y-6.469 Z-15.176 F200.000
G1 X19.016 Y-7.652 Z-15.188 F200.000
G1 X18.511 Y-8.805 Z-15.200 F200.000
G1 X17.935 Y-9.926 Z-15.212 F200.000
G1 X17.291 Y-11.009 Z-15.224 F200.000
G1 X16.582 Y-12.050 Z-15.236 F200.000
G1 X15.810 Y-13.046 Z-15.247 F200.000
G1 X14.979 Y-13.993 Z-15.258 F200.000
G1 X14.091 Y-14.886 Z-15.269 F200.000
G1 X13.150 Y-15.724 Z-15.280 F200.000
G1 X12.159 Y-16.502 Z-15.290 F200.000
G1 X11.123 Y-17.218 Z-15.299 F200.000
G1 X10.044 Y-17.869 Z-15.309 F200.000
G1 X8.927 Y-18.452 Z-15.317 F200.000
G1 X7.777 Y-18.966 Z-15.325 F200.000
G1 X6.597 Y-19.407 Z-15.333 F200.000
G1 X5.392 Y-19.776 Z-15.340 F200.000
G1 X4.167 Y-20.070 Z-15.346 F200.000
G1 X2.926 Y-20.288 Z-15.352 F200.000
G1 X1.672 Y-20.430 Z-15.353 F200.000
G1 X0.411 Y-20.494 Z-15.354 F200.000
G1 X-0.851 Y-20.480 Z-15.356 F200.000
G1 X-2.111 Y-20.389 Z-15.360 F200.000
G1 X-3.362 Y-20.220 Z-15.364 F200.000
G1 X-4.600 Y-19.975 Z-15.369 F200.000
G1 X-5.821 Y-19.654 Z-15.375 F200.000
G1 X-7.020 Y-19.258 Z-15.382 F200.000
G1 X-8.192 Y-18.789 Z-15.390 F200.000
G1 X-9.334 Y-18.249 Z-15.398 F200.000
G1 X-10.439 Y-17.640 Z-15.407 F200.000
G1 X-11.506 Y-16.964 Z-15.417 F200.000
G1 X-12.528 Y-16.224 Z-15.428 F200.000
G1 X-13.503 Y-15.422 Z-15.440 F200.000
G1 X-14.427 Y-14.561 Z-15.452 F200.000
G1 X-15.296 Y-13.645 Z-15.464 F200.000
G1 X-16.107 Y-12.678 Z-15.477 F200.000
G1 X-16.857 Y-11.662 Z-15.491 F200.000
G1 X-17.543 Y-10.603 Z-15.505 F200.000
G1 X-18.162 Y-9.503 Z-15.519 F200.000
G1 X-18.713 Y-8.367 Z-15.534 F200.000
G1 X-19.192 Y-7.199 Z-15.549 F200.000
G1 X-19.599 Y-6.004 Z-15.564 F200.000
G1 X-19.932 Y-4.786 Z-15.579 F200.000
G1 X-20.188 Y-3.550 Z-15.595 F200.000
G1 X-20.369 Y-2.300 Z-15.610 F200.000
G1 X-20.472 Y-1.042 Z-15.625 F200.000
G1 X-20.497 Y0.220 Z-15.641 F200.000
G1 X-20.444 Y1.481 Z-15.656 F200.000
G1 X-20.314 Y2.737 Z-15.671 F200.000
G1 X-20.107 Y3.983 Z-15.685 F200.000
G1 X-19.824 Y5.213 Z-15.700 F200.000
G1 X-19.466 Y6.423 Z-15.714 F200.000
G1 X-19.033 Y7.609 Z-15.727 F200.000
G1 X-18.529 Y8.767 Z-15.740 F200.000
G1 X-17.954 Y9.891 Z-15.753 F200.000
G1 X-17.311 Y10.977 Z-15.765 F200.000
G1 X-16.602 Y12.022 Z-15.776 F200.000
G1 X-15.831 Y13.021 Z-15.787 F200.000
G1 X-14.999 Y13.971 Z-15.797 F200.000
G1 X-14.111 Y14.868 Z-15.806 F200.000
G1 X-13.168 Y15.708 Z-15.815 F200.000
G1 X-12.176 Y16.489 Z-15.822 F200.000
G1 X-11.138 Y17.207 Z-15.829 F200.000
G1 X-10.058 Y17.861 Z-15.835 F200.000
G1 X-8.939 Y18.446 Z-15.840 F200.000
G1 X-7.787 Y18.961 Z-15.845 F200.000
G1 X-6.605 Y19.405 Z-15.848 F200.000
G1 X-5.397 Y19.775 Z-15.850 F200.000
G1 X-4.170 Y20.069 Z-15.852 F200.000
G1 X-2.926 Y20.288 Z-15.852 F200.000
G1 X-1.666 Y20.430 Z-15.861 F200.000
G1 X-0.398 Y20.494 Z-15.871 F200.000
G1 X0.870 Y20.480 Z-15.881 F200.000
G1 X2.136 Y20.387 Z-15.891 F200.000
G1 X3.393 Y20.215 Z-15.901 F200.000
G1 X4.637 Y19.967 Z-15.911 F200.000
G1 X5.864 Y19.642 Z-15.921 F200.000
G1 X7.068 Y19.241 Z-15.931 F200.000
G1 X8.245 Y18.767 Z-15.941 F200.000
G1 X9.390 Y18.221 Z-15.952 F200.000
G1 X10.499 Y17.605 Z-15.962 F200.000
G1 X11.568 Y16.922 Z-15.971 F200.000
G1 X12.593 Y16.174 Z-15.981 F200.000
G1 X13.570 Y15.363 Z-15.991 F200.000
G1 X14.494 Y14.494 Z-16.000 F200.000
G1 X15.357 Y13.577 Z-16.006 F200.000
G1 X16.162 Y12.607 Z-16.012 F200.000
G1 X16.906 Y11.591 Z-16.019 F200.000
G1 X17.587 Y10.530 Z-16.027 F200.000
G1 X18.200 Y9.430 Z-16.035 F200.000
G1 X18.745 Y8.294 Z-16.044 F200.000
G1 X19.219 Y7.127 Z-16.053 F200.000
G1 X19.621 Y5.933 Z-16.063 F200.000
G1 X19.948 Y4.716 Z-16.073 F200.000
G1 X20.200 Y3.482 Z-16.083 F200.000
G1 X20.376 Y2.234 Z-16.094 F200.000
G1 X20.475 Y0.978 Z-16.105 F200.000
G1 X20.496 Y-0.281 Z-16.117 F200.000
G1 X20.440 Y-1.540 Z-16.128 F200.000
G1 X20.307 Y-2.793 Z-16.140 F200.000
G1 X20.097 Y-4.035 Z-16.152 F200.000
G1 X19.811 Y-5.262 Z-16.164 F200.000
G1 X19.451 Y-6.469 Z-16.176 F200.000
G1 X19.016 Y-7.652 Z-16.188 F200.000
G1 X18.511 Y-8.805 Z-16.200 F200.000
G1 X17.935 Y-9.926 Z-16.212 F200.000
G1 X17.291 Y-11.009 Z-16.224 F200.000
G1 X16.582 Y-12.050 Z-16.236 F200.000
G1 X15.810 Y-13.046 Z-16.247 F200.000
G1 X14.979 Y-13.993 Z-16.258 F200.000
G1 X14.091 Y-14.886 Z-16.269 F200.000
G1 X13.150 Y-15.724 Z-16.280 F200.000
G1 X12.159 Y-16.502 Z-16.290 F200.000
G1 X11.123 Y-17.218 Z-16.299 F200.000
G1 X10.044 Y-17.869 Z-16.309 F200.000
G1 X8.927 Y-18.452 Z-16.317 F200.000
G1 X7.777 Y-18.966 Z-16.325 F200.000
G1 X6.597 Y-19.407 Z-16.333 F200.000
G1 X5.392 Y-19.776 Z-16.340 F200.000
G1 X4.167 Y-20.070 Z-16.346 F200.000
G1 X2.926 Y-20.288 Z-16.352 F200.000
G1 X1.672 Y-20.430 Z-16.353 F200.000
G1 X0.411 Y-20.494 Z-16.354 F200.000
G1 X-0.851 Y-20.480 Z-16.356 F200.000
G1 X-2.111 Y-20.389 Z-16.360 F200.000
G1 X-3.362 Y-20.220 Z-16.364 F200.000
G1 X-4.600 Y-19.975 Z-16.369 F200.000
G1 X-5.821 Y-19.654 Z-16.375 F200.000
G1 X-7.020 Y-19.258 Z-16.382 F200.000
G1 X-8.192 Y-18.789 Z-16.390 F200.000
G1 X-9.334 Y-18.249 Z-16.398 F200.000
G1 X-10.439 Y-17.640 Z-16.407 F200.000
G1 X-11.506 Y-16.964 Z-16.417 F200.000
G1 X-12.528 Y-16.224 Z-16.428 F200.000
G1 X-13.503 Y-15.422 Z-16.440 F200.000
G1 X-14.427 Y-14.561 Z-16.452 F200.000
G1 X-15.296 Y-13.645 Z-16.464 F200.000
G1 X-16.107 Y-12.678 Z-16.477 F200.000
G1 X-16.857 Y-11.662 Z-16.491 F200.000
G1 X-17.543 Y-10.603 Z-16.505 F200.000
G1 X-18.162 Y-9.503 Z-16.519 F200.000
G1 X-18.713 Y-8.367 Z-16.534 F200.000
G1 X-19.192 Y-7.199 Z-16.549 F200.000
G1 X-19.599 Y-6.004 Z-16.564 F200.000
G1 X-19.932 Y-4.786 Z-16.579 F200.000
G1 X-20.188 Y-3.550 Z-16.595 F200.000
G1 X-20.369 Y-2.300 Z-16.610 F200.000
G1 X-20.472 Y-1.042 Z-16.625 F200.000
G1 X-20.497 Y0.220 Z-16.641 F200.000
G1 X-20.444 Y1.481 Z-16.656 F200.000
G1 X-20.314 Y2.737 Z-16.671 F200.000
G1 X-20.107 Y3.983 Z-16.685 F200.000
G1 X-19.824 Y5.213 Z-16.700 F200.000
G1 X-19.466 Y6.423 Z-16.714 F200.000
G1 X-19.033 Y7.609 Z-16.727 F200.000
G1 X-18.529 Y8.767 Z-16.740 F200.000
G1 X-17.954 Y9.891 Z-16.753 F200.000
G1 X-17.311 Y10.977 Z-16.765 F200.000
G1 X-16.602 Y12.022 Z-16.776 F200.000
G1 X-15.831 Y13.021 Z-16.787 F200.000
G1 X-14.999 Y13.971 Z-16.797 F200.000
G1 X-14.111 Y14.868 Z-16.806 F200.000
G1 X-13.168 Y15.708 Z-16.815 F200.000
G1 X-12.176 Y16.489 Z-16.822 F200.000
G1 X-11.138 Y17.207 Z-16.829 F200.000
G1 X-10.058 Y17.861 Z-16.835 F200.000
G1 X-8.939 Y18.446 Z-16.840 F200.000
G1 X-7.787 Y18.961 Z-16.845 F200.000
G1 X-6.605 Y19.405 Z-16.848 F200.000
G1 X-5.397 Y19.775 Z-16.850 F200.000
G1 X-4.170 Y20.069 Z-16.852 F200.000
G1 X-2.926 Y20.288 Z-16.852 F200.000
G1 X-1.666 Y20.430 Z-16.861 F200.000
G1 X-0.398 Y20.494 Z-16.871 F200.000
G1 X0.870 Y20.480 Z-16.881 F200.000
G1 X2.136 Y20.387 Z-16.891 F200.000
G1 X3.393 Y20.215 Z-16.901 F200.000
G1 X4.637 Y19.967 Z-16.911 F200.000
G1 X5.864 Y19.642 Z-16.921 F200.000
G1 X7.068 Y19.241 Z-16.931 F200.000
G1 X8.245 Y18.767 Z-16.941 F200.000
G1 X9.390 Y18.221 Z-16.952 F200.000
G1 X10.499 Y17.605 Z-16.962 F200.000
G1 X11.568 Y16.922 Z-16.971 F200.000
G1 X12.593 Y16.174 Z-16.981 F200.000
G1 X13.570 Y15.363 Z-16.991 F200.000
G1 X14.494 Y14.494 Z-17.000 F200.000
G1 X15.357 Y13.577 Z-17.006 F200.000
G1 X16.162 Y12.607 Z-17.012 F200.000
G1 X16.906 Y11.591 Z-17.019 F200.000
G1 X17.587 Y10.530 Z-17.027 F200.000
G1 X18.200 Y9.430 Z-17.035 F200.000
G1 X18.745 Y8.294 Z-17.044 F200.000
G1 X19.219 Y7.127 Z-17.053 F200.000
G1 X19.621 Y5.933 Z-17.063 F200.000
G1 X19.948 Y4.716 Z-17.073 F200.000
G1 X20.200 Y3.482 Z-17.083 F200.000
G1 X20.376 Y2.234 Z-17.094 F200.000
G1 X20.475 Y0.978 Z-17.105 F200.000
G1 X20.496 Y-0.281 Z-17.117 F200.000
G1 X20.440 Y-1.540 Z-17.128 F200.000
G1 X20.307 Y-2.793 Z-17.140 F200.000
G1 X20.097 Y-4.035 Z-17.152 F200.000
G1 X19.811 Y-5.262 Z-17.164 F200.000
G1 X19.451 Y-6.469 Z-17.176 F200.000
G1 X19.016 Y-7.652 Z-17.188 F200.000
G1 X18.511 Y-8.805 Z-17.200 F200.000
G1 X17.935 Y-9.926 Z-17.212 F200.000
G1 X17.291 Y-11.009 Z-17.224 F200.000
G1 X16.582 Y-12.050 Z-17.236 F200.000
G1 X15.810 Y-13.046 Z-17.247 F200.000
G1 X14.979 Y-13.993 Z-17.258 F200.000
G1 X14.091 Y-14.886 Z-17.269 F200.000
G1 X13.150 Y-15.724 Z-17.280 F200.000
G1 X12.159 Y-16.502 Z-17.290 F200.000
G1 X11.123 Y-17.218 Z-17.299 F200.000
G1 X10.044 Y-17.869 Z-17.309 F200.000
G1 X8.927 Y-18.452 Z-17.317 F200.000
G1 X7.777 Y-18.966 Z-17.325 F200.000
G1 X6.597 Y-19.407 Z-17.333 F200.000
G1 X5.392 Y-19.776 Z-17.340 F200.000
G1 X4.167 Y-20.070 Z-17.346 F200.000
G1 X2.926 Y-20.288 Z-17.352 F200.000
G1 X1.672 Y-20.430 Z-17.353 F200.000
G1 X0.411 Y-20.494 Z-17.354 F200.000
G1 X-0.851 Y-20.480 Z-17.356 F200.000
G1 X-2.111 Y-20.389 Z-17.360 F200.000
G1 X-3.362 Y-20.220 Z-17.364 F200.000
G1 X-4.600 Y-19.975 Z-17.369 F200.000
G1 X-5.821 Y-19.654 Z-17.375 F200.000
G1 X-7.020 Y-19.258 Z-17.382 F200.000
G1 X-8.192 Y-18.789 Z-17.390 F200.000
G1 X-9.334 Y-18.249 Z-17.398 F200.000
G1 X-10.439 Y-17.640 Z-17.407 F200.000
G1 X-11.506 Y-16.964 Z-17.417 F200.000
G1 X-12.528 Y-16.224 Z-17.428 F200.000
G1 X-13.503 Y-15.422 Z-17.440 F200.000
G1 X-14.427 Y-14.561 Z-17.452 F200.000
G1 X-15.296 Y-13.645 Z-17.464 F200.000
G1 X-16.107 Y-12.678 Z-17.477 F200.000
G1 X-16.857 Y-11.662 Z-17.491 F200.000
G1 X-17.543 Y-10.603 Z-17.505 F200.000
G1 X-18.162 Y-9.503 Z-17.519 F200.000
G1 X-18.713 Y-8.367 Z-17.534 F200.000
G1 X-19.192 Y-7.199 Z-17.549 F200.000
G1 X-19.599 Y-6.004 Z-17.564 F200.000
G1 X-19.932 Y-4.786 Z-17.579 F200.000
G1 X-20.188 Y-3.550 Z-17.595 F200.000
G1 X-20.369 Y-2.300 Z-17.610 F200.000
G1 X-20.472 Y-1.042 Z-17.625 F200.000
G1 X-20.497 Y0.220 Z-17.641 F200.000
G1 X-20.444 Y1.481 Z-17.656 F200.000
G1 X-20.314 Y2.737 Z-17.671 F200.000
G1 X-20.107 Y3.983 Z-17.685 F200.000
G1 X-19.824 Y5.213 Z-17.700 F200.000
G1 X-19.466 Y6.423 Z-17.714 F200.000
G1 X-19.033 Y7.609 Z-17.727 F200.000
G1 X-18.529 Y8.767 Z-17.740 F200.000
G1 X-17.954 Y9.891 Z-17.753 F200.000
G1 X-17.311 Y10.977 Z-17.765 F200.000
G1 X-16.602 Y12.022 Z-17.776 F200.000
G1 X-15.831 Y13.021 Z-17.787 F200.000
G1 X-14.999 Y13.971 Z-17.797 F200.000
G1 X-14.111 Y14.868 Z-17.806 F200.000
G1 X-13.168 Y15.708 Z-17.815 F200.000
G1 X-12.176 Y16.489 Z-17.822 F200.000
G1 X-11.138 Y17.207 Z-17.829 F200.000
G1 X-10.058 Y17.861 Z-17.835 F200.000
G1 X-8.939 Y18.446 Z-17.840 F200.000
G1 X-7.787 Y18.961 Z-17.845 F200.000
G1 X-6.605 Y19.405 Z-17.848 F200.000
G1 X-5.397 Y19.775 Z-17.850 F200.000
G1 X-4.170 Y20.069 Z-17.852 F200.000
G1 X-2.926 Y20.288 Z-17.852 F200.000
G1 X-1.666 Y20.430 Z-17.861 F200.000
G1 X-0.398 Y20.494 Z-17.871 F200.000
G1 X0.870 Y20.480 Z-17.881 F200.000
G1 X2.136 Y20.387 Z-17.891 F200.000
G1 X3.393 Y20.215 Z-17.901 F200.000
G1 X4.637 Y19.967 Z-17.911 F200.000
G1 X5.864 Y19.642 Z-17.921 F200.000
G1 X7.068 Y19.241 Z-17.931 F200.000
G1 X8.245 Y18.767 Z-17.941 F200.000
G1 X9.390 Y18.221 Z-17.952 F200.000
G1 X10.499 Y17.605 Z-17.962 F200.000
G1 X11.568 Y16.922 Z-17.971 F200.000
G1 X12.593 Y16.174 Z-17.981 F200.000
G1 X13.570 Y15.363 Z-17.991 F200.000
G1 X14.494 Y14.494 Z-18.000 F200.000
G1 X15.357 Y13.577 Z-18.006 F200.000
G1 X16.162 Y12.607 Z-18.012 F200.000
G1 X16.906 Y11.591 Z-18.019 F200.000
G1 X17.587 Y10.530 Z-18.027 F200.000
G1 X18.200 Y9.430 Z-18.035 F200.000
G1 X18.745 Y8.294 Z-18.044 F200.000
G1 X19.219 Y7.127 Z-18.053 F200.000
G1 X19.621 Y5.933 Z-18.063 F200.000
G1 X19.948 Y4.716 Z-18.073 F200.000
G1 X20.200 Y3.482 Z-18.083 F200.000
G1 X20.376 Y2.234 Z-18.094 F200.000
G1 X20.475 Y0.978 Z-18.105 F200.000
G1 X20.496 Y-0.281 Z-18.117 F200.000
G1 X20.440 Y-1.540 Z-18.128 F200.000
G1 X20.307 Y-2.793 Z-18.140 F200.000
G1 X20.097 Y-4.035 Z-18.152 F200.000
G1 X19.811 Y-5.262 Z-18.164 F200.000
G1 X19.451 Y-6.469 Z-18.176 F200.000
G1 X19.016 Y-7.652 Z-18.188 F200.000
G1 X18.511 Y-8.805 Z-18.200 F200.000
G1 X17.935 Y-9.926 Z-18.212 F200.000
G1 X17.291 Y-11.009 Z-18.224 F200.000
G1 X16.582 Y-12.050 Z-18.236 F200.000
G1 X15.810 Y-13.046 Z-18.247 F200.000
G1 X14.979 Y-13.993 Z-18.258 F200.000
G1 X14.091 Y-14.886 Z-18.269 F200.000
G1 X13.150 Y-15.724 Z-18.280 F200.000
G1 X12.159 Y-16.502 Z-18.290 F200.000
G1 X11.123 Y-17.218 Z-18.299 F200.000
G1 X10.044 Y-17.869 Z-18.309 F200.000
G1 X8.927 Y-18.452 Z-18.317 F200.000
G1 X7.777 Y-18.966 Z-18.325 F200.000
G1 X6.597 Y-19.407 Z-18.333 F200.000
G1 X5.392 Y-19.776 Z-18.340 F200.000
G1 X4.167 Y-20.070 Z-18.346 F200.000
G1 X2.926 Y-20.288 Z-18.352 F200.000
G1 X1.672 Y-20.430 Z-18.353 F200.000
G1 X0.411 Y-20.494 Z-18.354 F200.000
G1 X-0.851 Y-20.480 Z-18.356 F200.000
G1 X-2.111 Y-20.389 Z-18.360 F200.000
G1 X-3.362 Y-20.220 Z-18.364 F200.000
G1 X-4.600 Y-19.975 Z-18.369 F200.000
G1 X-5.821 Y-19.654 Z-18.375 F200.000
G1 X-7.020 Y-19.258 Z-18.382 F200.000
G1 X-8.192 Y-18.789 Z-18.390 F200.000
G1 X-9.334 Y-18.249 Z-18.398 F200.000
G1 X-10.439 Y-17.640 Z-18.407 F200.000
G1 X-11.506 Y-16.964 Z-18.417 F200.000
G1 X-12.528 Y-16.224 Z-18.428 F200.000
G1 X-13.503 Y-15.422 Z-18.440 F200.000
G1 X-14.427 Y-14.561 Z-18.452 F200.000
G1 X-15.296 Y-13.645 Z-18.464 F200.000
G1 X-16.107 Y-12.678 Z-18.477 F200.000
G1 X-16.857 Y-11.662 Z-18.491 F200.000
G1 X-17.543 Y-10.603 Z-18.505 F200.000
G1 X-18.162 Y-9.503 Z-18.519 F200.000
G1 X-18.713 Y-8.367 Z-18.534 F200.000
G1 X-19.192 Y-7.199 Z-18.549 F200.000
G1 X-19.599 Y-6.004 Z-18.564 F200.000
G1 X-19.932 Y-4.786 Z-18.579 F200.000
G1 X-20.188 Y-3.550 Z-18.595 F200.000
G1 X-20.369 Y-2.300 Z-18.610 F200.000
G1 X-20.472 Y-1.042 Z-18.625 F200.000
G1 X-20.497 Y0.220 Z-18.641 F200.000
G1 X-20.444 Y1.481 Z-18.656 F200.000
G1 X-20.314 Y2.737 Z-18.671 F200.000
G1 X-20.107 Y3.983 Z-18.685 F200.000
G1 X-19.824 Y5.213 Z-18.700 F200.000
G1 X-19.466 Y6.423 Z-18.714 F200.000
G1 X-19.033 Y7.609 Z-18.727 F200.000
G1 X-18.529 Y8.767 Z-18.740 F200.000
G1 X-17.954 Y9.891 Z-18.753 F200.000
G1 X-17.311 Y10.977 Z-18.765 F200.000
G1 X-16.602 Y12.022 Z-18.776 F200.000
G1 X-15.831 Y13.021 Z-18.787 F200.000
G1 X-14.999 Y13.971 Z-18.797 F200.000
G1 X-14.111 Y14.868 Z-18.806 F200.000
G1 X-13.168 Y15.708 Z-18.815 F200.000
G1 X-12.176 Y16.489 Z-18.822 F200.000
G1 X-11.138 Y17.207 Z-18.829 F200.000
G1 X-10.058 Y17.861 Z-18.835 F200.000
G1 X-8.939 Y18.446 Z-18.840 F200.000
G1 X-7.787 Y18.961 Z-18.845 F200.000
G1 X-6.605 Y19.405 Z-18.848 F200.000
G1 X-5.397 Y19.775 Z-18.850 F200.000
G1 X-4.170 Y20.069 Z-18.852 F200.000
G1 X-2.926 Y20.288 Z-18.852 F200.000
G1 X-1.666 Y20.430 Z-18.861 F200.000
G1 X-0.398 Y20.494 Z-18.871 F200.000
G1 X0.870 Y20.480 Z-18.881 F200.000
G1 X2.136 Y20.387 Z-18.891 F200.000
G1 X3.393 Y20.215 Z-18.901 F200.000
G1 X4.637 Y19.967 Z-18.911 F200.000
G1 X5.864 Y19.642 Z-18.921 F200.000
G1 X7.068 Y19.241 Z-18.931 F200.000
G1 X8.245 Y18.767 Z-18.941 F200.000
G1 X9.390 Y18.221 Z-18.952 F200.000
G1 X10.499 Y17.605 Z-18.962 F200.000
G1 X11.568 Y16.922 Z-18.971 F200.000
G1 X12.593 Y16.174 Z-18.981 F200.000
G1 X13.570 Y15.363 Z-18.991 F200.000
G1 X14.494 Y14.494 Z-19.000 F200.000
G1 X15.357 Y13.577 Z-19.006 F200.000
G1 X16.162 Y12.607 Z-19.012 F200.000
G1 X16.906 Y11.591 Z-19.019 F200.000
G1 X17.587 Y10.530 Z-19.027 F200.000
G1 X18.200 Y9.430 Z-19.035 F200.000
G1 X18.745 Y8.294 Z-19.044 F200.000
G1 X19.219 Y7.127 Z-19.053 F200.000
G1 X19.621 Y5.933 Z-19.063 F200.000
G1 X19.948 Y4.716 Z-19.073 F200.000
G1 X20.200 Y3.482 Z-19.083 F200.000
G1 X20.376 Y2.234 Z-19.094 F200.000
G1 X20.475 Y0.978 Z-19.105 F200.000
G1 X20.496 Y-0.281 Z-19.117 F200.000
G1 X20.440 Y-1.540 Z-19.128 F200.000
G1 X20.307 Y-2.793 Z-19.140 F200.000
G1 X20.097 Y-4.035 Z-19.152 F200.000
G1 X19.811 Y-5.262 Z-19.164 F200.000
G1 X19.451 Y-6.469 Z-19.176 F200.000
G1 X19.016 Y-7.652 Z-19.188 F200.000
G1 X18.511 Y-8.805 Z-19.200 F200.000
G1 X17.935 Y-9.926 Z-19.212 F200.000
G1 X17.291 Y-11.009 Z-19.224 F200.000
G1 X16.582 Y-12.050 Z-19.236 F200.000
G1 X15.810 Y-13.046 Z-19.247 F200.000
G1 X14.979 Y-13.993 Z-19.258 F200.000
G1 X14.091 Y-14.886 Z-19.269 F200.000
G1 X13.150 Y-15.724 Z-19.280 F200.000
G1 X12.159 Y-16.502 Z-19.290 F200.000
G1 X11.123 Y-17.218 Z-19.299 F200.000
G1 X10.044 Y-17.869 Z-19.309 F200.000
G1 X8.927 Y-18.452 Z-19.317 F200.000
G1 X7.777 Y-18.966 Z-19.325 F200.000
G1 X6.597 Y-19.407 Z-19.333 F200.000
G1 X5.392 Y-19.776 Z-19.340 F200.000
G1 X4.167 Y-20.070 Z-19.346 F200.000
G1 X2.926 Y-20.288 Z-19.352 F200.000
G1 X1.672 Y-20.430 Z-19.353 F200.000
G1 X0.411 Y-20.494 Z-19.354 F200.000
G1 X-0.851 Y-20.480 Z-19.356 F200.000
G1 X-2.111 Y-20.389 Z-19.360 F200.000
G1 X-3.362 Y-20.220 Z-19.364 F200.000
G1 X-4.600 Y-19.975 Z-19.369 F200.000
G1 X-5.821 Y-19.654 Z-19.375 F200.000
G1 X-7.020 Y-19.258 Z-19.382 F200.000
G1 X-8.192 Y-18.789 Z-19.390 F200.000
G1 X-9.334 Y-18.249 Z-19.398 F200.000
G1 X-10.439 Y-17.640 Z-19.407 F200.000
G1 X-11.506 Y-16.964 Z-19.417 F200.000
G1 X-12.528 Y-16.224 Z-19.428 F200.000
G1 X-13.503 Y-15.422 Z-19.440 F200.000
G1 X-14.427 Y-14.561 Z-19.452 F200.000
G1 X-15.296 Y-13.645 Z-19.464 F200.000
G1 X-16.107 Y-12.678 Z-19.477 F200.000
G1 X-16.857 Y-11.662 Z-19.491 F200.000
G1 X-17.543 Y-10.603 Z-19.505 F200.000
G1 X-18.162 Y-9.503 Z-19.519 F200.000
G1 X-18.713 Y-8.367 Z-19.534 F200.000
G1 X-19.192 Y-7.199 Z-19.549 F200.000
G1 X-19.599 Y-6.004 Z-19.564 F200.000
G1 X-19.932 Y-4.786 Z-19.579 F200.000
G1 X-20.188 Y-3.550 Z-19.595 F200.000
G1 X-20.369 Y-2.300 Z-19.610 F200.000
G1 X-20.472 Y-1.042 Z-19.625 F200.000
G1 X-20.497 Y0.220 Z-19.641 F200.000
G1 X-20.444 Y1.481 Z-19.656 F200.000
G1 X-20.314 Y2.737 Z-19.671 F200.000
G1 X-20.107 Y3.983 Z-19.685 F200.000
G1 X-19.824 Y5.213 Z-19.700 F200.000
G1 X-19.466 Y6.423 Z-19.714 F200.000
G1 X-19.033 Y7.609 Z-19.727 F200.000
G1 X-18.529 Y8.767 Z-19.740 F200.000
G1 X-17.954 Y9.891 Z-19.753 F200.000
G1 X-17.311 Y10.977 Z-19.765 F200.000
G1 X-16.602 Y12.022 Z-19.776 F200.000
G1 X-15.831 Y13.021 Z-19.787 F200.000
G1 X-14.999 Y13.971 Z-19.797 F200.000
G1 X-14.111 Y14.868 Z-19.806 F200.000
G1 X-13.168 Y15.708 Z-19.815 F200.000
G1 X-12.176 Y16.489 Z-19.822 F200.000
G1 X-11.138 Y17.207 Z-19.829 F200.000
G1 X-10.058 Y17.861 Z-19.835 F200.000
G1 X-8.939 Y18.446 Z-19.840 F200.000
G1 X-7.787 Y18.961 Z-19.845 F200.000
G1 X-6.605 Y19.405 Z-19.848 F200.000
G1 X-5.397 Y19.775 Z-19.850 F200.000
G1 X-4.170 Y20.069 Z-19.852 F200.000
G1 X-2.926 Y20.288 Z-19.852 F200.000
G1 X-1.666 Y20.430 Z-19.861 F200.000
G1 X-0.398 Y20.494 Z-19.871 F200.000
G1 X0.870 Y20.480 Z-19.881 F200.000
G1 X2.136 Y20.387 Z-19.891 F200.000
G1 X3.393 Y20.215 Z-19.901 F200.000
G1 X4.637 Y19.967 Z-19.911 F200.000
G1 X5.864 Y19.642 Z-19.921 F200.000
G1 X7.068 Y19.241 Z-19.931 F200.000
G1 X8.245 Y18.767 Z-19.941 F200.000
G1 X9.390 Y18.221 Z-19.952 F200.000
G1 X10.499 Y17.605 Z-19.962 F200.000
G1 X11.568 Y16.922 Z-19.971 F200.000
G1 X12.593 Y16.174 Z-19.981 F200.000
G1 X13.570 Y15.363 Z-19.991 F200.000
G1 X14.494 Y14.494 Z-20.000 F200.000
G1 X15.357 Y13.577 Z-20.006 F200.000
G1 X16.162 Y12.607 Z-20.012 F200.000
G1 X16.906 Y11.591 Z-20.019 F200.000
G1 X17.587 Y10.530 Z-20.027 F200.000
G1 X18.200 Y9.430 Z-20.035 F200.000
G1 X18.745 Y8.294 Z-20.044 F200.000
G1 X19.219 Y7.127 Z-20.053 F200.000
G1 X19.621 Y5.933 Z-20.063 F200.000
G1 X19.948 Y4.716 Z-20.073 F200.000
G1 X20.200 Y3.482 Z-20.083 F200.000
G1 X20.376 Y2.234 Z-20.094 F200.000
G1 X20.475 Y0.978 Z-20.105 F200.000
G1 X20.496 Y-0.281 Z-20.117 F200.000
G1 X20.440 Y-1.540 Z-20.128 F200.000
G1 X20.307 Y-2.793 Z-20.140 F200.000
G1 X20.097 Y-4.035 Z-20.152 F200.000
G1 X19.811 Y-5.262 Z-20.164 F200.000
G1 X19.451 Y-6.469 Z-20.176 F200.000
G1 X19.016 Y-7.652 Z-20.188 F200.000
G1 X18.511 Y-8.805 Z-20.200 F200.000
G1 X17.935 Y-9.926 Z-20.212 F200.000
G1 X17.291 Y-11.009 Z-20.224 F200.000
G1 X16.582 Y-12.050 Z-20.236 F200.000
G1 X15.810 Y-13.046 Z-20.247 F200.000
G1 X14.979 Y-13.993 Z-20.258 F200.000
G1 X14.091 Y-14.886 Z-20.269 F200.000
G1 X13.150 Y-15.724 Z-20.280 F200.000
G1 X12.159 Y-16.502 Z-20.290 F200.000
G1 X11.123 Y-17.218 Z-20.299 F200.000
G1 X10.044 Y-17.869 Z-20.309 F200.000
G1 X8.927 Y-18.452 Z-20.317 F200.000
G1 X7.777 Y-18.966 Z-20.325 F200.000
G1 X6.597 Y-19.407 Z-20.333 F200.000
G1 X5.392 Y-19.776 Z-20.340 F200.000
G1 X4.167 Y-20.070 Z-20.346 F200.000
G1 X2.926 Y-20.288 Z-20.352 F200.000
G1 X1.672 Y-20.430 Z-20.353 F200.000
G1 X0.411 Y-20.494 Z-20.354 F200.000
G1 X-0.851 Y-20.480 Z-20.356 F200.000
G1 X-2.111 Y-20.389 Z-20.360 F200.000
G1 X-3.362 Y-20.220 Z-20.364 F200.000
G1 X-4.600 Y-19.975 Z-20.369 F200.000
G1 X-5.821 Y-19.654 Z-20.375 F200.000
G1 X-7.020 Y-19.258 Z-20.382 F200.000
G1 X-8.192 Y-18.789 Z-20.390 F200.000
G1 X-9.334 Y-18.249 Z-20.398 F200.000
G1 X-10.439 Y-17.640 Z-20.407 F200.000
G1 X-11.506 Y-16.964 Z-20.417 F200.000
G1 X-12.528 Y-16.224 Z-20.428 F200.000
G1 X-13.503 Y-15.422 Z-20.440 F200.000
G1 X-14.427 Y-14.561 Z-20.452 F200.000
G1 X-15.296 Y-13.645 Z-20.464 F200.000
G1 X-16.107 Y-12.678 Z-20.477 F200.000
G1 X-16.857 Y-11.662 Z-20.491 F200.000
G1 X-17.543 Y-10.603 Z-20.505 F200.000
G1 X-18.162 Y-9.503 Z-20.519 F200.000
G1 X-18.713 Y-8.367 Z-20.534 F200.000
G1 X-19.192 Y-7.199 Z-20.549 F200.000
G1 X-19.599 Y-6.004 Z-20.564 F200.000
G1 X-19.932 Y-4.786 Z-20.579 F200.000
G1 X-20.188 Y-3.550 Z-20.595 F200.000
G1 X-20.369 Y-2.300 Z-20.610 F200.000
G1 X-20.472 Y-1.042 Z-20.625 F200.000
G1 X-20.497 Y0.220 Z-20.641 F200.000
G1 X-20.444 Y1.481 Z-20.656 F200.000
G1 X-20.314 Y2.737 Z-20.671 F200.000
G1 X-20.107 Y3.983 Z-20.685 F200.000
G1 X-19.824 Y5.213 Z-20.700 F200.000
G1 X-19.466 Y6.423 Z-20.714 F200.000
G1 X-19.033 Y7.609 Z-20.727 F200.000
G1 X-18.529 Y8.767 Z-20.740 F200.000
G1 X-17.954 Y9.891 Z-20.753 F200.000
G1 X-17.311 Y10.977 Z-20.765 F200.000
G1 X-16.602 Y12.022 Z-20.776 F200.000
G1 X-15.831 Y13.021 Z-20.787 F200.000
G1 X-14.999 Y13.971 Z-20.797 F200.000
G1 X-14.111 Y14.868 Z-20.806 F200.000
G1 X-13.168 Y15.708 Z-20.815 F200.000
G1 X-12.176 Y16.489 Z-20.822 F200.000
G1 X-11.138 Y17.207 Z-20.829 F200.000
G1 X-10.058 Y17.861 Z-20.835 F200.000
G1 X-8.939 Y18.446 Z-20.840 F200.000
G1 X-7.787 Y18.961 Z-20.845 F200.000
G1 X-6.605 Y19.405 Z-20.848 F200.000
G1 X-5.397 Y19.775 Z-20.850 F200.000
G1 X-4.170 Y20.069 Z-20.852 F200.000
G1 X-2.926 Y20.288 Z-20.852 F200.000
G1 X-1.666 Y20.430 Z-20.861 F200.000
G1 X-0.398 Y20.494 Z-20.871 F200.000
G1 X0.870 Y20.480 Z-20.881 F200.000
G1 X2.136 Y20.387 Z-20.891 F200.000
G1 X3.393 Y20.215 Z-20.901 F200.000
G1 X4.637 Y19.967 Z-20.911 F200.000
G1 X5.864 Y19.642 Z-20.921 F200.000
G1 X7.068 Y19.241 Z-20.931 F200.000
G1 X8.245 Y18.767 Z-20.941 F200.000
G1 X9.390 Y18.221 Z-20.952 F200.000
G1 X10.499 Y17.605 Z-20.962 F200.000
G1 X11.568 Y16.922 Z-20.971 F200.000
G1 X12.593 Y16.174 Z-20.981 F200.000
G1 X13.570 Y15.363 Z-20.991 F200.000
G1 X14.494 Y14.494 Z-21.000 F200.000
G1 X15.357 Y13.577 Z-21.006 F200.000
G1 X16.162 Y12.607 Z-21.012 F200.000
G1 X16.906 Y11.591 Z-21.019 F200.000
G1 X17.587 Y10.530 Z-21.027 F200.000
G1 X18.200 Y9.430 Z-21.035 F200.000
G1 X18.745 Y8.294 Z-21.044 F200.000
G1 X19.219 Y7.127 Z-21.053 F200.000
G1 X19.621 Y5.933 Z-21.063 F200.000
G1 X19.948 Y4.716 Z-21.073 F200.000
G1 X20.200 Y3.482 Z-21.083 F200.000
G1 X20.376 Y2.234 Z-21.094 F200.000
G1 X20.475 Y0.978 Z-21.105 F200.000
G1 X20.496 Y-0.281 Z-21.117 F200.000
G1 X20.440 Y-1.540 Z-21.128 F200.000
G1 X20.307 Y-2.793 Z-21.140 F200.000
G1 X20.097 Y-4.035 Z-21.152 F200.000
G1 X19.811 Y-5.262 Z-21.164 F200.000
G1 X19.451 Y-6.469 Z-21.176 F200.000
G1 X19.016 Y-7.652 Z-21.188 F200.000
G1 X18.511 Y-8.805 Z-21.200 F200.000
G1 X17.935 Y-9.926 Z-21.212 F200.000
G1 X17.291 Y-11.009 Z-21.224 F200.000
G1 X16.582 Y-12.050 Z-21.236 F200.000
G1 X15.810 Y-13.046 Z-21.247 F200.000
G1 X14.979 Y-13.993 Z-21.258 F200.000
G1 X14.091 Y-14.886 Z-21.269 F200.000
G1 X13.150 Y-15.724 Z-21.280 F200.000
G1 X12.159 Y-16.502 Z-21.290 F200.000
G1 X11.123 Y-17.218 Z-21.299 F200.000
G1 X10.044 Y-17.869 Z-21.309 F200.000
G1 X8.927 Y-18.452 Z-21.317 F200.000
G1 X7.777 Y-18.966 Z-21.325 F200.000
G1 X6.597 Y-19.407 Z-21.333 F200.000
G1 X5.392 Y-19.776 Z-21.340 F200.000
G1 X4.167 Y-20.070 Z-21.346 F200.000
G1 X2.926 Y-20.288 Z-21.352 F200.000
G1 X1.672 Y-20.430 Z-21.353 F200.000
G1 X0.411 Y-20.494 Z-21.354 F200.000
G1 X-0.851 Y-20.480 Z-21.356 F200.000
G1 X-2.111 Y-20.389 Z-21.360 F200.000
G1 X-3.362 Y-20.220 Z-21.364 F200.000
G1 X-4.600 Y-19.975 Z-21.369 F200.000
G1 X-5.821 Y-19.654 Z-21.375 F200.000
G1 X-7.020 Y-19.258 Z-21.382 F200.000
G1 X-8.192 Y-18.789 Z-21.390 F200.000
G1 X-9.334 Y-18.249 Z-21.398 F200.000
G1 X-10.439 Y-17.640 Z-21.407 F200.000
G1 X-11.506 Y-16.964 Z-21.417 F200.000
G1 X-12.528 Y-16.224 Z-21.428 F200.000
G1 X-13.503 Y-15.422 Z-21.440 F200.000
G1 X-14.427 Y-14.561 Z-21.452 F200.000
G1 X-15.296 Y-13.645 Z-21.464 F200.000
G1 X-16.107 Y-12.678 Z-21.477 F200.000
G1 X-16.857 Y-11.662 Z-21.491 F200.000
G1 X-17.543 Y-10.603 Z-21.505 F200.000
G1 X-18.162 Y-9.503 Z-21.519 F200.000
G1 X-18.713 Y-8.367 Z-21.534 F200.000
G1 X-19.192 Y-7.199 Z-21.549 F200.000
G1 X-19.599 Y-6.004 Z-21.564 F200.000
G1 X-19.932 Y-4.786 Z-21.579 F200.000
G1 X-20.188 Y-3.550 Z-21.595 F200.000
G1 X-20.369 Y-2.300 Z-21.610 F200.000
G1 X-20.472 Y-1.042 Z-21.625 F200.000
G1 X-20.497 Y0.220 Z-21.641 F200.000
G1 X-20.444 Y1.481 Z-21.656 F200.000
G1 X-20.314 Y2.737 Z-21.671 F200.000
G1 X-20.107 Y3.983 Z-21.685 F200.000
G1 X-19.824 Y5.213 Z-21.700 F200.000
G1 X-19.466 Y6.423 Z-21.714 F200.000
G1 X-19.033 Y7.609 Z-21.727 F200.000
G1 X-18.529 Y8.767 Z-21.740 F200.000
G1 X-17.954 Y9.891 Z-21.753 F200.000
G1 X-17.311 Y10.977 Z-21.765 F200.000
G1 X-16.602 Y12.022 Z-21.776 F200.000
G1 X-15.831 Y13.021 Z-21.787 F200.000
G1 X-14.999 Y13.971 Z-21.797 F200.000
G1 X-14.111 Y14.868 Z-21.806 F200.000
G1 X-13.168 Y15.708 Z-21.815 F200.000
G1 X-12.176 Y16.489 Z-21.822 F200.000
G1 X-11.138 Y17.207 Z-21.829 F200.000
G1 X-10.058 Y17.861 Z-21.835 F200.000
G1 X-8.939 Y18.446 Z-21.840 F200.000
G1 X-7.787 Y18.961 Z-21.845 F200.000
G1 X-6.605 Y19.405 Z-21.848 F200.000
G1 X-5.397 Y19.775 Z-21.850 F200.000
G1 X-4.170 Y20.069 Z-21.852 F200.000
G1 X-2.926 Y20.288 Z-21.852 F200.000
G1 X-1.666 Y20.430 Z-21.861 F200.000
G1 X-0.398 Y20.494 Z-21.871 F200.000
G1 X0.870 Y20.480 Z-21.881 F200.000
G1 X2.136 Y20.387 Z-21.891 F200.000
G1 X3.393 Y20.215 Z-21.901 F200.000
G1 X4.637 Y19.967 Z-21.911 F200.000
G1 X5.864 Y19.642 Z-21.921 F200.000
G1 X7.068 Y19.241 Z-21.931 F200.000
G1 X8.245 Y18.767 Z-21.941 F200.000
G1 X9.390 Y18.221 Z-21.952 F200.000
G1 X10.499 Y17.605 Z-21.962 F200.000
G1 X11.568 Y16.922 Z-21.971 F200.000
G1 X12.593 Y16.174 Z-21.981 F200.000
G1 X13.570 Y15.363 Z-21.991 F200.000
G1 X14.494 Y14.494 Z-22.000 F200.000
G1 X15.357 Y13.577 Z-22.006 F200.000
G1 X16.162 Y12.607 Z-22.012 F200.000
G1 X16.906 Y11.591 Z-22.019 F200.000
G1 X17.587 Y10.530 Z-22.027 F200.000
G1 X18.200 Y9.430 Z-22.035 F200.000
G1 X18.745 Y8.294 Z-22.044 F200.000
G1 X19.219 Y7.127 Z-22.053 F200.000
G1 X19.621 Y5.933 Z-22.063 F200.000
G1 X19.948 Y4.716 Z-22.073 F200.000
G1 X20.200 Y3.482 Z-22.083 F200.000
G1 X20.376 Y2.234 Z-22.094 F200.000
G1 X20.475 Y0.978 Z-22.105 F200.000
G1 X20.496 Y-0.281 Z-22.117 F200.000
G1 X20.440 Y-1.540 Z-22.128 F200.000
G1 X20.307 Y-2.793 Z-22.140 F200.000
G1 X20.097 Y-4.035 Z-22.152 F200.000
G1 X19.811 Y-5.262 Z-22.164 F200.000
G1 X19.451 Y-6.469 Z-22.176 F200.000
G1 X19.016 Y-7.652 Z-22.188 F200.000
G1 X18.511 Y-8.805 Z-22.200 F200.000
G1 X17.935 Y-9.926 Z-22.212 F200.000
G1 X17.291 Y-11.009 Z-22.224 F200.000
G1 X16.582 Y-12.050 Z-22.236 F200.000
G1 X15.810 Y-13.046 Z-22.247 F200.000
G1 X14.979 Y-13.993 Z-22.258 F200.000
G1 X14.091 Y-14.886 Z-22.269 F200.000
G1 X13.150 Y-15.724 Z-22.280 F200.000
G1 X12.159 Y-16.502 Z-22.290 F200.000
G1 X11.123 Y-17.218 Z-22.299 F200.000
G1 X10.044 Y-17.869 Z-22.309 F200.000
G1 X8.927 Y-18.452 Z-22.317 F200.000
G1 X7.777 Y-18.966 Z-22.325 F200.000
G1 X6.597 Y-19.407 Z-22.333 F200.000
G1 X5.392 Y-19.776 Z-22.340 F200.000
G1 X4.167 Y-20.070 Z-22.346 F200.000
G1 X2.926 Y-20.288 Z-22.352 F200.000
G1 X1.672 Y-20.430 Z-22.353 F200.000
G1 X0.411 Y-20.494 Z-22.354 F200.000
G1 X-0.851 Y-20.480 Z-22.356 F200.000
G1 X-2.111 Y-20.389 Z-22.360 F200.000
G1 X-3.362 Y-20.220 Z-22.364 F200.000
G1 X-4.600 Y-19.975 Z-22.369 F200.000
G1 X-5.821 Y-19.654 Z-22.375 F200.000
G1 X-7.020 Y-19.258 Z-22.382 F200.000
G1 X-8.192 Y-18.789 Z-22.390 F200.000
G1 X-9.334 Y-18.249 Z-22.398 F200.000
G1 X-10.439 Y-17.640 Z-22.407 F200.000
G1 X-11.506 Y-16.964 Z-22.417 F200.000
G1 X-12.528 Y-16.224 Z-22.428 F200.000
G1 X-13.503 Y-15.422 Z-22.440 F200.000
G1 X-14.427 Y-14.561 Z-22.452 F200.000
G1 X-15.296 Y-13.645 Z-22.464 F200.000
G1 X-16.107 Y-12.678 Z-22.477 F200.000
G1 X-16.857 Y-11.662 Z-22.491 F200.000
G1 X-17.543 Y-10.603 Z-22.505 F200.000
G1 X-18.162 Y-9.503 Z-22.519 F200.000
G1 X-18.713 Y-8.367 Z-22.534 F200.000
G1 X-19.192 Y-7.199 Z-22.549 F200.000
G1 X-19.599 Y-6.004 Z-22.564 F200.000
G1 X-19.932 Y-4.786 Z-22.579 F200.000
G1 X-20.188 Y-3.550 Z-22.595 F200.000
G1 X-20.369 Y-2.300 Z-22.610 F200.000
G1 X-20.472 Y-1.042 Z-22.625 F200.000
G1 X-20.497 Y0.220 Z-22.641 F200.000
G1 X-20.444 Y1.481 Z-22.656 F200.000
G1 X-20.314 Y2.737 Z-22.671 F200.000
G1 X-20.107 Y3.983 Z-22.685 F200.000
G1 X-19.824 Y5.213 Z-22.700 F200.000
G1 X-19.466 Y6.423 Z-22.714 F200.000
G1 X-19.033 Y7.609 Z-22.727 F200.000
G1 X-18.529 Y8.767 Z-22.740 F200.000
G1 X-17.954 Y9.891 Z-22.753 F200.000
G1 X-17.311 Y10.977 Z-22.765 F200.000
G1 X-16.602 Y12.022 Z-22.776 F200.000
G1 X-15.831 Y13.021 Z-22.787 F200.000
G1 X-14.999 Y13.971 Z-22.797 F200.000
G1 X-14.111 Y14.868 Z-22.806 F200.000
G1 X-13.168 Y15.708 Z-22.815 F200.000
G1 X-12.176 Y16.489 Z-22.822 F200.000
G1 X-11.138 Y17.207 Z-22.829 F200.000
G1 X-10.058 Y17.861 Z-22.835 F200.000
G1 X-8.939 Y18.446 Z-22.840 F200.000
G1 X-7.787 Y18.961 Z-22.845 F200.000
G1 X-6.605 Y19.405 Z-22.848 F200.000
G1 X-5.397 Y19.775 Z-22.850 F200.000
G1 X-4.170 Y20.069 Z-22.852 F200.000
G1 X-2.926 Y20.288 Z-22.852 F200.000
G1 X-1.666 Y20.430 Z-22.861 F200.000
G1 X-0.398 Y20.494 Z-22.871 F200.000
G1 X0.870 Y20.480 Z-22.881 F200.000
G1 X2.136 Y20.387 Z-22.891 F200.000
G1 X3.393 Y20.215 Z-22.901 F200.000
G1 X4.637 Y19.967 Z-22.911 F200.000
G1 X5.864 Y19.642 Z-22.921 F200.000
G1 X7.068 Y19.241 Z-22.931 F200.000
G1 X8.245 Y18.767 Z-22.941 F200.000
G1 X9.390 Y18.221 Z-22.952 F200.000
G1 X10.499 Y17.605 Z-22.962 F200.000
G1 X11.568 Y16.922 Z-22.971 F200.000
G1 X12.593 Y16.174 Z-22.981 F200.000
G1 X13.570 Y15.363 Z-22.991 F200.000
G1 X14.494 Y14.494 Z-23.000 F200.000
G1 X15.357 Y13.577 Z-23.006 F200.000
G1 X16.162 Y12.607 Z-23.012 F200.000
G1 X16.906 Y11.591 Z-23.019 F200.000
G1 X17.587 Y10.530 Z-23.027 F200.000
G1 X18.200 Y9.430 Z-23.035 F200.000
G1 X18.745 Y8.294 Z-23.044 F200.000
G1 X19.219 Y7.127 Z-23.053 F200.000
G1 X19.621 Y5.933 Z-23.063 F200.000
G1 X19.948 Y4.716 Z-23.073 F200.000
G1 X20.200 Y3.482 Z-23.083 F200.000
G1 X20.376 Y2.234 Z-23.094 F200.000
G1 X20.475 Y0.978 Z-23.105 F200.000
G1 X20.496 Y-0.281 Z-23.117 F200.000
G1 X20.440 Y-1.540 Z-23.128 F200.000
G1 X20.307 Y-2.793 Z-23.140 F200.000
G1 X20.097 Y-4.035 Z-23.152 F200.000
G1 X19.811 Y-5.262 Z-23.164 F200.000
G1 X19.451 Y-6.469 Z-23.176 F200.000
G1 X19.016 Y-7.652 Z-23.188 F200.000
G1 X18.511 Y-8.805 Z-23.200 F200.000
G1 X17.935 Y-9.926 Z-23.212 F200.000
G1 X17.291 Y-11.009 Z-23.224 F200.000
G1 X16.582 Y-12.050 Z-23.236 F200.000
G1 X15.810 Y-13.046 Z-23.247 F200.000
G1 X14.979 Y-13.993 Z-23.258 F200.000
G1 X14.091 Y-14.886 Z-23.269 F200.000
G1 X13.150 Y-15.724 Z-23.280 F200.000
G1 X12.159 Y-16.502 Z-23.290 F200.000
G1 X11.123 Y-17.218 Z-23.299 F200.000
G1 X10.044 Y-17.869 Z-23.309 F200.000
G1 X8.927 Y-18.452 Z-23.317 F200.000
G1 X7.777 Y-18.966 Z-23.325 F200.000
G1 X6.597 Y-19.407 Z-23.333 F200.000
G1 X5.392 Y-19.776 Z-23.340 F200.000
G1 X4.167 Y-20.070 Z-23.346 F200.000
G1 X2.926 Y-20.288 Z-23.352 F200.000
G1 X1.672 Y-20.430 Z-23.353 F200.000
G1 X0.411 Y-20.494 Z-23.354 F200.000
G1 X-0.851 Y-20.480 Z-23.356 F200.000
G1 X-2.111 Y-20.389 Z-23.360 F200.000
G1 X-3.362 Y-20.220 Z-23.364 F200.000
G1 X-4.600 Y-19.975 Z-23.369 F200.000
G1 X-5.821 Y-19.654 Z-23.375 F200.000
G1 X-7.020 Y-19.258 Z-23.382 F200.000
G1 X-8.192 Y-18.789 Z-23.390 F200.000
G1 X-9.334 Y-18.249 Z-23.398 F200.000
G1 X-10.439 Y-17.640 Z-23.407 F200.000
G1 X-11.506 Y-16.964 Z-23.417 F200.000
G1 X-12.528 Y-16.224 Z-23.428 F200.000
G1 X-13.503 Y-15.422 Z-23.440 F200.000
G1 X-14.427 Y-14.561 Z-23.452 F200.000
G1 X-15.296 Y-13.645 Z-23.464 F200.000
G1 X-16.107 Y-12.678 Z-23.477 F200.000
G1 X-16.857 Y-11.662 Z-23.491 F200.000
G1 X-17.543 Y-10.603 Z-23.505 F200.000
G1 X-18.162 Y-9.503 Z-23.519 F200.000
G1 X-18.713 Y-8.367 Z-23.534 F200.000
G1 X-19.192 Y-7.199 Z-23.549 F200.000
G1 X-19.599 Y-6.004 Z-23.564 F200.000
G1 X-19.932 Y-4.786 Z-23.579 F200.000
G1 X-20.188 Y-3.550 Z-23.595 F200.000
G1 X-20.369 Y-2.300 Z-23.610 F200.000
G1 X-20.472 Y-1.042 Z-23.625 F200.000
G1 X-20.497 Y0.220 Z-23.641 F200.000
G1 X-20.444 Y1.481 Z-23.656 F200.000
G1 X-20.314 Y2.737 Z-23.671 F200.000
G1 X-20.107 Y3.983 Z-23.685 F200.000
G1 X-19.824 Y5.213 Z-23.700 F200.000
G1 X-19.466 Y6.423 Z-23.714 F200.000
G1 X-19.033 Y7.609 Z-23.727 F200.000
G1 X-18.529 Y8.767 Z-23.740 F200.000
G1 X-17.954 Y9.891 Z-23.753 F200.000
G1 X-17.311 Y10.977 Z-23.765 F200.000
G1 X-16.602 Y12.022 Z-23.776 F200.000
G1 X-15.831 Y13.021 Z-23.787 F200.000
G1 X-14.999 Y13.971 Z-23.797 F200.000
G1 X-14.111 Y14.868 Z-23.806 F200.000
G1 X-13.168 Y15.708 Z-23.815 F200.000
G1 X-12.176 Y16.489 Z-23.822 F200.000
G1 X-11.138 Y17.207 Z-23.829 F200.000
G1 X-10.058 Y17.861 Z-23.835 F200.000
G1 X-8.939 Y18.446 Z-23.840 F200.000
G1 X-7.787 Y18.961 Z-23.845 F200.000
G1 X-6.605 Y19.405 Z-23.848 F200.000
G1 X-5.397 Y19.775 Z-23.850 F200.000
G1 X-4.170 Y20.069 Z-23.852 F200.000
G1 X-2.926 Y20.288 Z-23.852 F200.000
G1 X-1.666 Y20.430 Z-23.861 F200.000
G1 X-0.398 Y20.494 Z-23.871 F200.000
G1 X0.870 Y20.480 Z-23.881 F200.000
G1 X2.136 Y20.387 Z-23.891 F200.000
G1 X3.393 Y20.215 Z-23.901 F200.000
G1 X4.637 Y19.967 Z-23.911 F200.000
G1 X5.864 Y19.642 Z-23.921 F200.000
G1 X7.068 Y19.241 Z-23.931 F200.000
G1 X8.245 Y18.767 Z-23.941 F200.000
G1 X9.390 Y18.221 Z-23.952 F200.000
G1 X10.499 Y17.605 Z-23.962 F200.000
G1 X11.568 Y16.922 Z-23.971 F200.000
G1 X12.593 Y16.174 Z-23.981 F200.000
G1 X13.570 Y15.363 Z-23.991 F200.000
G1 X14.494 Y14.494 Z-24.000 F200.000
G1 X15.357 Y13.577 Z-24.006 F200.000
G1 X16.162 Y12.607 Z-24.012 F200.000
G1 X16.906 Y11.591 Z-24.019 F200.000
G1 X17.587 Y10.530 Z-24.027 F200.000
G1 X18.200 Y9.430 Z-24.035 F200.000
G1 X18.745 Y8.294 Z-24.044 F200.000
G1 X19.219 Y7.127 Z-24.053 F200.000
G1 X19.621 Y5.933 Z-24.063 F200.000
G1 X19.948 Y4.716 Z-24.073 F200.000
G1 X20.200 Y3.482 Z-24.083 F200.000
G1 X20.376 Y2.234 Z-24.094 F200.000
G1 X20.475 Y0.978 Z-24.105 F200.000
G1 X20.496 Y-0.281 Z-24.117 F200.000
G1 X20.440 Y-1.540 Z-24.128 F200.000
G1 X20.307 Y-2.793 Z-24.140 F200.000
G1 X20.097 Y-4.035 Z-24.152 F200.000
G1 X19.811 Y-5.262 Z-24.164 F200.000
G1 X19.451 Y-6.469 Z-24.176 F200.000
G1 X19.016 Y-7.652 Z-24.188 F200.000
G1 X18.511 Y-8.805 Z-24.200 F200.000
G1 X17.935 Y-9.926 Z-24.212 F200.000
G1 X17.291 Y-11.009 Z-24.224 F200.000
G1 X16.582 Y-12.050 Z-24.236 F200.000
G1 X15.810 Y-13.046 Z-24.247 F200.000
G1 X14.979 Y-13.993 Z-24.258 F200.000
G1 X14.091 Y-14.886 Z-24.269 F200.000
G1 X13.150 Y-15.724 Z-24.280 F200.000
G1 X12.159 Y-16.502 Z-24.290 F200.000
G1 X11.123 Y-17.218 Z-24.299 F200.000
G1 X10.044 Y-17.869 Z-24.309 F200.000
G1 X8.927 Y-18.452 Z-24.317 F200.000
G1 X7.777 Y-18.966 Z-24.325 F200.000
G1 X6.597 Y-19.407 Z-24.333 F200.000
G1 X5.392 Y-19.776 Z-24.340 F200.000
G1 X4.167 Y-20.070 Z-24.346 F200.000
G1 X2.926 Y-20.288 Z-24.352 F200.000
G1 X1.672 Y-20.430 Z-24.353 F200.000
G1 X0.411 Y-20.494 Z-24.354 F200.000
G1 X-0.851 Y-20.480 Z-24.356 F200.000
G1 X-2.111 Y-20.389 Z-24.360 F200.000
G1 X-3.362 Y-20.220 Z-24.364 F200.000
G1 X-4.600 Y-19.975 Z-24.369 F200.000
G1 X-5.821 Y-19.654 Z-24.375 F200.000
G1 X-7.020 Y-19.258 Z-24.382 F200.000
G1 X-8.192 Y-18.789 Z-24.390 F200.000
G1 X-9.334 Y-18.249 Z-24.398 F200.000
G1 X-10.439 Y-17.640 Z-24.407 F200.000
G1 X-11.506 Y-16.964 Z-24.417 F200.000
G1 X-12.528 Y-16.224 Z-24.428 F200.000
G1 X-13.503 Y-15.422 Z-24.440 F200.000
G1 X-14.427 Y-14.561 Z-24.452 F200.000
G1 X-15.296 Y-13.645 Z-24.464 F200.000
G1 X-16.107 Y-12.678 Z-24.477 F200.000
G1 X-16.857 Y-11.662 Z-24.491 F200.000
G1 X-17.543 Y-10.603 Z-24.505 F200.000
G1 X-18.162 Y-9.503 Z-24.519 F200.000
G1 X-18.713 Y-8.367 Z-24.534 F200.000
G1 X-19.192 Y-7.199 Z-24.549 F200.000
G1 X-19.599 Y-6.004 Z-24.564 F200.000
G1 X-19.932 Y-4.786 Z-24.579 F200.000
G1 X-20.188 Y-3.550 Z-24.595 F200.000
G1 X-20.369 Y-2.300 Z-24.610 F200.000
G1 X-20.472 Y-1.042 Z-24.625 F200.000
G1 X-20.497 Y0.220 Z-24.641 F200.000
G1 X-20.444 Y1.481 Z-24.656 F200.000
G1 X-20.314 Y2.737 Z-24.671 F200.000
G1 X-20.107 Y3.983 Z-24.685 F200.000
G1 X-19.824 Y5.213 Z-24.700 F200.000
G1 X-19.466 Y6.423 Z-24.714 F200.000
G1 X-19.033 Y7.609 Z-24.727 F200.000
G1 X-18.529 Y8.767 Z-24.740 F200.000
G1 X-17.954 Y9.891 Z-24.753 F200.000
G1 X-17.311 Y10.977 Z-24.765 F200.000
G1 X-16.602 Y12.022 Z-24.776 F200.000
G1 X-15.831 Y13.021 Z-24.787 F200.000
G1 X-14.999 Y13.971 Z-24.797 F200.000
G1 X-14.111 Y14.868 Z-24.806 F200.000
G1 X-13.168 Y15.708 Z-24.815 F200.000
G1 X-12.176 Y16.489 Z-24.822 F200.000
G1 X-11.138 Y17.207 Z-24.829 F200.000
G1 X-10.058 Y17.861 Z-24.835 F200.000
G1 X-8.939 Y18.446 Z-24.840 F200.000
G1 X-7.787 Y18.961 Z-24.845 F200.000
G1 X-6.605 Y19.405 Z-24.848 F200.000
G1 X-5.397 Y19.775 Z-24.850 F200.000
G1 X-4.170 Y20.069 Z-24.852 F200.000
G1 X-2.926 Y20.288 Z-24.852 F200.000
G1 X-1.666 Y20.430 Z-24.861 F200.000
G1 X-0.398 Y20.494 Z-24.871 F200.000
G1 X0.870 Y20.480 Z-24.881 F200.000
G1 X2.136 Y20.387 Z-24.891 F200.000
G1 X3.393 Y20.215 Z-24.901 F200.000
G1 X4.637 Y19.967 Z-24.911 F200.000
G1 X5.864 Y19.642 Z-24.921 F200.000
G1 X7.068 Y19.241 Z-24.931 F200.000
G1 X8.245 Y18.767 Z-24.941 F200.000
G1 X9.390 Y18.221 Z-24.952 F200.000
G1 X10.499 Y17.605 Z-24.962 F200.000
G1 X11.568 Y16.922 Z-24.971 F200.000
G1 X12.593 Y16.174 Z-24.981 F200.000
G1 X13.570 Y15.363 Z-24.991 F200.000
G1 X14.494 Y14.494 Z-25.000 F200.000
G1 X15.357 Y13.577 Z-25.006 F200.000
G1 X16.162 Y12.607 Z-25.012 F200.000
G1 X16.906 Y11.591 Z-25.019 F200.000
G1 X17.587 Y10.530 Z-25.027 F200.000
G1 X18.200 Y9.430 Z-25.035 F200.000
G1 X18.745 Y8.294 Z-25.044 F200.000
G1 X19.219 Y7.127 Z-25.053 F200.000
G1 X19.621 Y5.933 Z-25.063 F200.000
G1 X19.948 Y4.716 Z-25.073 F200.000
G1 X20.200 Y3.482 Z-25.083 F200.000
G1 X20.376 Y2.234 Z-25.094 F200.000
G1 X20.475 Y0.978 Z-25.105 F200.000
G1 X20.496 Y-0.281 Z-25.117 F200.000
G1 X20.440 Y-1.540 Z-25.128 F200.000
G1 X20.307 Y-2.793 Z-25.140 F200.000
G1 X20.097 Y-4.035 Z-25.152 F200.000
G1 X19.811 Y-5.262 Z-25.164 F200.000
G1 X19.451 Y-6.469 Z-25.176 F200.000
G1 X19.016 Y-7.652 Z-25.188 F200.000
G1 X18.511 Y-8.805 Z-25.200 F200.000
G1 X17.935 Y-9.926 Z-25.212 F200.000
G1 X17.291 Y-11.009 Z-25.224 F200.000
G1 X16.582 Y-12.050 Z-25.236 F200.000
G1 X15.810 Y-13.046 Z-25.247 F200.000
G1 X14.979 Y-13.993 Z-25.258 F200.000
G1 X14.091 Y-14.886 Z-25.269 F200.000
G1 X13.150 Y-15.724 Z-25.280 F200.000
G1 X12.159 Y-16.502 Z-25.290 F200.000
G1 X11.123 Y-17.218 Z-25.299 F200.000
G1 X10.044 Y-17.869 Z-25.309 F200.000
G1 X8.927 Y-18.452 Z-25.317 F200.000
G1 X7.777 Y-18.966 Z-25.325 F200.000
G1 X6.597 Y-19.407 Z-25.333 F200.000
G1 X5.392 Y-19.776 Z-25.340 F200.000
G1 X4.167 Y-20.070 Z-25.346 F200.000
G1 X2.926 Y-20.288 Z-25.352 F200.000
G1 X1.672 Y-20.430 Z-25.353 F200.000
G1 X0.411 Y-20.494 Z-25.354 F200.000
G1 X-0.851 Y-20.480 Z-25.356 F200.000
G1 X-2.111 Y-20.389 Z-25.360 F200.000
G1 X-3.362 Y-20.220 Z-25.364 F200.000
G1 X-4.600 Y-19.975 Z-25.369 F200.000
G1 X-5.821 Y-19.654 Z-25.375 F200.000
G1 X-7.020 Y-19.258 Z-25.382 F200.000
G1 X-8.192 Y-18.789 Z-25.390 F200.000
G1 X-9.334 Y-18.249 Z-25.398 F200.000
G1 X-10.439 Y-17.640 Z-25.407 F200.000
G1 X-11.506 Y-16.964 Z-25.417 F200.000
G1 X-12.528 Y-16.224 Z-25.428 F200.000
G1 X-13.503 Y-15.422 Z-25.440 F200.000
G1 X-14.427 Y-14.561 Z-25.452 F200.000
G1 X-15.296 Y-13.645 Z-25.464 F200.000
G1 X-16.107 Y-12.678 Z-25.477 F200.000
G1 X-16.857 Y-11.662 Z-25.491 F200.000
G1 X-17.543 Y-10.603 Z-25.505 F200.000
G1 X-18.162 Y-9.503 Z-25.519 F200.000
G1 X-18.713 Y-8.367 Z-25.534 F200.000
G1 X-19.192 Y-7.199 Z-25.549 F200.000
G1 X-19.599 Y-6.004 Z-25.564 F200.000
G1 X-19.932 Y-4.786 Z-25.579 F200.000
G1 X-20.188 Y-3.550 Z-25.595 F200.000
G1 X-20.369 Y-2.300 Z-25.610 F200.000
G1 X-20.472 Y-1.042 Z-25.625 F200.000
G1 X-20.497 Y0.220 Z-25.641 F200.000
G1 X-20.444 Y1.481 Z-25.656 F200.000
G1 X-20.314 Y2.737 Z-25.671 F200.000
G1 X-20.107 Y3.983 Z-25.685 F200.000
G1 X-19.824 Y5.213 Z-25.700 F200.000
G1 X-19.466 Y6.423 Z-25.714 F200.000
G1 X-19.033 Y7.609 Z-25.727 F200.000
G1 X-18.529 Y8.767 Z-25.740 F200.000
G1 X-17.954 Y9.891 Z-25.753 F200.000
G1 X-17.311 Y10.977 Z-25.765 F200.000
G1 X-16.602 Y12.022 Z-25.776 F200.000
G1 X-15.831 Y13.021 Z-25.787 F200.000
G1 X-14.999 Y13.971 Z-25.797 F200.000
G1 X-14.111 Y14.868 Z-25.806 F200.000
G1 X-13.168 Y15.708 Z-25.815 F200.000
G1 X-12.176 Y16.489 Z-25.822 F200.000
G1 X-11.138 Y17.207 Z-25.829 F200.000
G1 X-10.058 Y17.861 Z-25.835 F200.000
G1 X-8.939 Y18.446 Z-25.840 F200.000
G1 X-7.787 Y18.961 Z-25.845 F200.000
G1 X-6.605 Y19.405 Z-25.848 F200.000
G1 X-5.397 Y19.775 Z-25.850 F200.000
G1 X-4.170 Y20.069 Z-25.852 F200.000
G1 X-2.926 Y20.288 Z-25.852 F200.000
G1 X-1.666 Y20.430 Z-25.861 F200.000
G1 X-0.398 Y20.494 Z-25.871 F200.000
G1 X0.870 Y20.480 Z-25.881 F200.000
G1 X2.136 Y20.387 Z-25.891 F200.000
G1 X3.393 Y20.215 Z-25.901 F200.000
G1 X4.637 Y19.967 Z-25.911 F200.000
G1 X5.864 Y19.642 Z-25.921 F200.000
G1 X7.068 Y19.241 Z-25.931 F200.000
G1 X8.245 Y18.767 Z-25.941 F200.000
G1 X9.390 Y18.221 Z-25.952 F200.000
G1 X10.499 Y17.605 Z-25.962 F200.000
G1 X11.568 Y16.922 Z-25.971 F200.000
G1 X12.593 Y16.174 Z-25.981 F200.000
G1 X13.570 Y15.363 Z-25.991 F200.000
G1 X14.494 Y14.494 Z-26.000 F200.000
G1 X15.357 Y13.577 Z-26.006 F200.000
G1 X16.162 Y12.607 Z-26.012 F200.000
G1 X16.906 Y11.591 Z-26.019 F200.000
G1 X17.587 Y10.530 Z-26.027 F200.000
G1 X18.200 Y9.430 Z-26.035 F200.000
G1 X18.745 Y8.294 Z-26.044 F200.000
G1 X19.219 Y7.127 Z-26.053 F200.000
G1 X19.621 Y5.933 Z-26.063 F200.000
G1 X19.948 Y4.716 Z-26.073 F200.000
G1 X20.200 Y3.482 Z-26.083 F200.000
G1 X20.376 Y2.234 Z-26.094 F200.000
G1 X20.475 Y0.978 Z-26.105 F200.000
G1 X20.496 Y-0.281 Z-26.117 F200.000
G1 X20.440 Y-1.540 Z-26.128 F200.000
G1 X20.307 Y-2.793 Z-26.140 F200.000
G1 X20.097 Y-4.035 Z-26.152 F200.000
G1 X19.811 Y-5.262 Z-26.164 F200.000
G1 X19.451 Y-6.469 Z-26.176 F200.000
G1 X19.016 Y-7.652 Z-26.188 F200.000
G1 X18.511 Y-8.805 Z-26.200 F200.000
G1 X17.935 Y-9.926 Z-26.212 F200.000
G1 X17.291 Y-11.009 Z-26.224 F200.000
G1 X16.582 Y-12.050 Z-26.236 F200.000
G1 X15.810 Y-13.046 Z-26.247 F200.000
G1 X14.979 Y-13.993 Z-26.258 F200.000
G1 X14.091 Y-14.886 Z-26.269 F200.000
G1 X13.150 Y-15.724 Z-26.280 F200.000
G1 X12.159 Y-16.502 Z-26.290 F200.000
G1 X11.123 Y-17.218 Z-26.299 F200.000
G1 X10.044 Y-17.869 Z-26.309 F200.000
G1 X8.927 Y-18.452 Z-26.317 F200.000
G1 X7.777 Y-18.966 Z-26.325 F200.000
G1 X6.597 Y-19.407 Z-26.333 F200.000
G1 X5.392 Y-19.776 Z-26.340 F200.000
G1 X4.167 Y-20.070 Z-26.346 F200.000
G1 X2.926 Y-20.288 Z-26.352 F200.000
