(Exported by FreeCAD)
(Post Processor: script_module)
(Output Time:2025-02-07 14:06:18.713249)
(Begin preamble)
G17 G90
G21
(Block-name: Fixture)
(Block-expand: 0)
(Block-enable: 1)
(Begin operation: Fixture)
(Path: Fixture)
G54
(Finish operation: Fixture)
(Block-name: 3mm Endmill001)
(Block-expand: 0)
(Block-enable: 1)
(Begin operation: 3mm Endmill001)
(Path: 3mm Endmill001)
(3mm Endmill001)
(Begin toolchange)
( M6 T2 )
M3 S10000
(Finish operation: 3mm Endmill001)
(Block-name: Drilling)
(Block-expand: 0)
(Block-enable: 1)
(Begin operation: Drilling)
(Path: Drilling)
(Drilling)
(Begin Drilling)
G0 Z10.000
G90
G98
G0 X-17.710 Y7.480
G83 X-17.710 Y7.480 Z-1.500 F200.000 Q0.750 R3.000
G0 X-17.710 Y-7.520
G83 X-17.710 Y-7.520 Z-1.500 F200.000 Q0.750 R3.000
G0 X-2.500 Y-28.500
G83 X-2.500 Y-28.500 Z-1.500 F200.000 Q0.750 R3.000
G0 X-37.500 Y-37.500
G83 X-37.500 Y-37.500 Z-1.500 F200.000 Q0.750 R3.000
G0 X-2.500 Y28.500
G83 X-2.500 Y28.500 Z-1.500 F200.000 Q0.750 R3.000
G0 X-37.500 Y37.500
G83 X-37.500 Y37.500 Z-1.500 F200.000 Q0.750 R3.000
G0 X37.500 Y-37.500
G83 X37.500 Y-37.500 Z-1.500 F200.000 Q0.750 R3.000
G80
G0 Z3.000
G0 Z10.000
(Finish operation: Drilling)
(Block-name: Adaptive002)
(Block-expand: 0)
(Block-enable: 1)
(Begin operation: Adaptive002)
(Path: Adaptive002)
(Adaptive002)
(Helix to depth: -0.600000)
G0 Z10.000
G0 X9.061 Y34.832 Z10.000
G0 X9.061 Y34.832 Z3.000
G1 X9.061 Y34.832 Z0.000 F200.000
G1 X9.061 Y34.832 Z0.000 F200.000
G1 X9.021 Y34.808 Z-0.004 F200.000
G1 X8.986 Y34.777 Z-0.009 F200.000
G1 X8.958 Y34.740 Z-0.013 F200.000
G1 X8.938 Y34.698 Z-0.017 F200.000
G1 X8.926 Y34.652 Z-0.021 F200.000
G1 X8.924 Y34.606 Z-0.026 F200.000
G1 X8.930 Y34.560 Z-0.030 F200.000
G1 X8.946 Y34.516 Z-0.034 F200.000
G1 X8.970 Y34.475 Z-0.038 F200.000
G1 X9.001 Y34.441 Z-0.043 F200.000
G1 X9.038 Y34.413 Z-0.047 F200.000
G1 X9.081 Y34.393 Z-0.051 F200.000
G1 X9.126 Y34.381 Z-0.055 F200.000
G1 X9.172 Y34.379 Z-0.060 F200.000
G1 X9.219 Y34.385 Z-0.064 F200.000
G1 X9.263 Y34.401 Z-0.068 F200.000
G1 X9.303 Y34.425 Z-0.072 F200.000
G1 X9.337 Y34.456 Z-0.077 F200.000
G1 X9.365 Y34.493 Z-0.081 F200.000
G1 X9.386 Y34.535 Z-0.085 F200.000
G1 X9.397 Y34.581 Z-0.090 F200.000
G1 X9.400 Y34.627 Z-0.094 F200.000
G1 X9.393 Y34.674 Z-0.098 F200.000
G1 X9.377 Y34.718 Z-0.102 F200.000
G1 X9.353 Y34.758 Z-0.107 F200.000
G1 X9.322 Y34.792 Z-0.111 F200.000
G1 X9.285 Y34.820 Z-0.115 F200.000
G1 X9.243 Y34.840 Z-0.119 F200.000
G1 X9.197 Y34.852 Z-0.124 F200.000
G1 X9.151 Y34.854 Z-0.128 F200.000
G1 X9.105 Y34.848 Z-0.132 F200.000
G1 X9.061 Y34.832 Z-0.136 F200.000
G1 X9.021 Y34.808 Z-0.141 F200.000
G1 X8.986 Y34.777 Z-0.145 F200.000
G1 X8.958 Y34.740 Z-0.149 F200.000
G1 X8.938 Y34.698 Z-0.153 F200.000
G1 X8.926 Y34.652 Z-0.158 F200.000
G1 X8.924 Y34.606 Z-0.162 F200.000
G1 X8.930 Y34.560 Z-0.166 F200.000
G1 X8.946 Y34.516 Z-0.170 F200.000
G1 X8.970 Y34.475 Z-0.175 F200.000
G1 X9.001 Y34.441 Z-0.179 F200.000
G1 X9.038 Y34.413 Z-0.183 F200.000
G1 X9.081 Y34.393 Z-0.188 F200.000
G1 X9.126 Y34.381 Z-0.192 F200.000
G1 X9.172 Y34.379 Z-0.196 F200.000
G1 X9.219 Y34.385 Z-0.200 F200.000
G1 X9.263 Y34.401 Z-0.205 F200.000
G1 X9.303 Y34.425 Z-0.209 F200.000
G1 X9.337 Y34.456 Z-0.213 F200.000
G1 X9.365 Y34.493 Z-0.217 F200.000
G1 X9.386 Y34.535 Z-0.222 F200.000
G1 X9.397 Y34.581 Z-0.226 F200.000
G1 X9.400 Y34.627 Z-0.230 F200.000
G1 X9.393 Y34.674 Z-0.234 F200.000
G1 X9.377 Y34.718 Z-0.239 F200.000
G1 X9.353 Y34.758 Z-0.243 F200.000
G1 X9.322 Y34.792 Z-0.247 F200.000
G1 X9.285 Y34.820 Z-0.251 F200.000
G1 X9.243 Y34.840 Z-0.256 F200.000
G1 X9.197 Y34.852 Z-0.260 F200.000
G1 X9.151 Y34.854 Z-0.264 F200.000
G1 X9.105 Y34.848 Z-0.269 F200.000
G1 X9.061 Y34.832 Z-0.273 F200.000
G1 X9.021 Y34.808 Z-0.277 F200.000
G1 X8.986 Y34.777 Z-0.281 F200.000
G1 X8.958 Y34.740 Z-0.286 F200.000
G1 X8.938 Y34.698 Z-0.290 F200.000
G1 X8.926 Y34.652 Z-0.294 F200.000
G1 X8.924 Y34.606 Z-0.298 F200.000
G1 X8.930 Y34.560 Z-0.303 F200.000
G1 X8.946 Y34.516 Z-0.307 F200.000
G1 X8.970 Y34.475 Z-0.311 F200.000
G1 X9.001 Y34.441 Z-0.315 F200.000
G1 X9.038 Y34.413 Z-0.320 F200.000
G1 X9.081 Y34.393 Z-0.324 F200.000
G1 X9.126 Y34.381 Z-0.328 F200.000
G1 X9.172 Y34.379 Z-0.332 F200.000
G1 X9.219 Y34.385 Z-0.337 F200.000
G1 X9.263 Y34.401 Z-0.341 F200.000
G1 X9.303 Y34.425 Z-0.345 F200.000
G1 X9.337 Y34.456 Z-0.350 F200.000
G1 X9.365 Y34.493 Z-0.354 F200.000
G1 X9.386 Y34.535 Z-0.358 F200.000
G1 X9.397 Y34.581 Z-0.362 F200.000
G1 X9.400 Y34.627 Z-0.367 F200.000
G1 X9.393 Y34.674 Z-0.371 F200.000
G1 X9.377 Y34.718 Z-0.375 F200.000
G1 X9.353 Y34.758 Z-0.379 F200.000
G1 X9.322 Y34.792 Z-0.384 F200.000
G1 X9.285 Y34.820 Z-0.388 F200.000
G1 X9.243 Y34.840 Z-0.392 F200.000
G1 X9.197 Y34.852 Z-0.396 F200.000
G1 X9.151 Y34.854 Z-0.401 F200.000
G1 X9.105 Y34.848 Z-0.405 F200.000
G1 X9.061 Y34.832 Z-0.409 F200.000
G1 X9.021 Y34.808 Z-0.413 F200.000
G1 X8.986 Y34.777 Z-0.418 F200.000
G1 X8.958 Y34.740 Z-0.422 F200.000
G1 X8.938 Y34.698 Z-0.426 F200.000
G1 X8.926 Y34.652 Z-0.430 F200.000
G1 X8.924 Y34.606 Z-0.435 F200.000
G1 X8.930 Y34.560 Z-0.439 F200.000
G1 X8.946 Y34.516 Z-0.443 F200.000
G1 X8.970 Y34.475 Z-0.448 F200.000
G1 X9.001 Y34.441 Z-0.452 F200.000
G1 X9.038 Y34.413 Z-0.456 F200.000
G1 X9.081 Y34.393 Z-0.460 F200.000
G1 X9.126 Y34.381 Z-0.465 F200.000
G1 X9.172 Y34.379 Z-0.469 F200.000
G1 X9.219 Y34.385 Z-0.473 F200.000
G1 X9.263 Y34.401 Z-0.477 F200.000
G1 X9.303 Y34.425 Z-0.482 F200.000
G1 X9.337 Y34.456 Z-0.486 F200.000
G1 X9.365 Y34.493 Z-0.490 F200.000
G1 X9.386 Y34.535 Z-0.494 F200.000
G1 X9.397 Y34.581 Z-0.499 F200.000
G1 X9.400 Y34.627 Z-0.503 F200.000
G1 X9.393 Y34.674 Z-0.507 F200.000
G1 X9.377 Y34.718 Z-0.511 F200.000
G1 X9.353 Y34.758 Z-0.516 F200.000
G1 X9.322 Y34.792 Z-0.520 F200.000
G1 X9.285 Y34.820 Z-0.524 F200.000
G1 X9.243 Y34.840 Z-0.529 F200.000
G1 X9.197 Y34.852 Z-0.533 F200.000
G1 X9.151 Y34.854 Z-0.537 F200.000
G1 X9.105 Y34.848 Z-0.541 F200.000
G1 X9.061 Y34.832 Z-0.546 F200.000
G1 X9.021 Y34.808 Z-0.550 F200.000
G1 X8.986 Y34.777 Z-0.554 F200.000
G1 X8.958 Y34.740 Z-0.558 F200.000
G1 X8.938 Y34.698 Z-0.563 F200.000
G1 X8.926 Y34.652 Z-0.567 F200.000
G1 X8.924 Y34.606 Z-0.571 F200.000
G1 X8.930 Y34.560 Z-0.575 F200.000
G1 X8.946 Y34.516 Z-0.580 F200.000
G1 X8.970 Y34.475 Z-0.584 F200.000
G1 X9.001 Y34.441 Z-0.588 F200.000
G1 X9.038 Y34.413 Z-0.592 F200.000
G1 X9.081 Y34.393 Z-0.597 F200.000
G1 X9.126 Y34.381 Z-0.600 F400.000
G1 X9.172 Y34.379 Z-0.600 F400.000
G1 X9.219 Y34.385 Z-0.600 F400.000
G1 X9.263 Y34.401 Z-0.600 F400.000
G1 X9.303 Y34.425 Z-0.600 F400.000
G1 X9.337 Y34.456 Z-0.600 F400.000
G1 X9.365 Y34.493 Z-0.600 F400.000
G1 X9.386 Y34.535 Z-0.600 F400.000
G1 X9.397 Y34.581 Z-0.600 F400.000
G1 X9.400 Y34.627 Z-0.600 F400.000
G1 X9.393 Y34.674 Z-0.600 F400.000
G1 X9.377 Y34.718 Z-0.600 F400.000
G1 X9.353 Y34.758 Z-0.600 F400.000
G1 X9.322 Y34.792 Z-0.600 F400.000
G1 X9.285 Y34.820 Z-0.600 F400.000
G1 X9.243 Y34.840 Z-0.600 F400.000
G1 X9.197 Y34.852 Z-0.600 F400.000
G1 X9.151 Y34.854 Z-0.600 F400.000
G1 X9.105 Y34.848 Z-0.600 F400.000
G1 X9.061 Y34.832 Z-0.600 F400.000
G1 X9.021 Y34.808 Z-0.600 F400.000
G1 X8.986 Y34.777 Z-0.600 F400.000
G1 X8.958 Y34.740 Z-0.600 F400.000
G1 X8.938 Y34.698 Z-0.600 F400.000
G1 X8.926 Y34.652 Z-0.600 F400.000
G1 X8.924 Y34.606 Z-0.600 F400.000
G1 X8.930 Y34.560 Z-0.600 F400.000
G1 X8.946 Y34.516 Z-0.600 F400.000
G1 X8.970 Y34.475 Z-0.600 F400.000
G1 X9.001 Y34.441 Z-0.600 F400.000
G1 X9.038 Y34.413 Z-0.600 F400.000
G1 X9.081 Y34.393 Z-0.600 F400.000
(Adaptive - depth: -0.600000)
G1 X9.162 Y34.368 F400.000
G1 X9.214 Y34.342 F400.000
G1 X9.271 Y34.338 F400.000
G1 X9.327 Y34.350 F400.000
G1 X9.380 Y34.376 F400.000
G1 X9.425 Y34.414 F400.000
G1 X9.485 Y34.515 F400.000
G1 X9.500 Y34.628 F400.000
G1 X9.496 Y34.684 F400.000
G1 X9.481 Y34.741 F400.000
G1 X9.387 Y34.883 F400.000
G1 X9.286 Y34.944 F400.000
G1 X9.203 Y34.962 F400.000
G1 X9.120 Y34.962 F400.000
G1 X9.023 Y34.936 F400.000
G1 X8.925 Y34.880 F400.000
G1 X8.850 Y34.793 F400.000
G1 X8.812 Y34.699 F400.000
G1 X8.797 Y34.605 F400.000
G1 X8.801 Y34.545 F400.000
G1 X8.838 Y34.429 F400.000
G1 X8.906 Y34.327 F400.000
G1 X8.992 Y34.248 F400.000
G1 X9.098 Y34.195 F400.000
G1 X9.211 Y34.173 F400.000
G1 X9.323 Y34.188 F400.000
G1 X9.432 Y34.233 F400.000
G1 X9.519 Y34.305 F400.000
G1 X9.586 Y34.398 F400.000
G1 X9.624 Y34.508 F400.000
G1 X9.628 Y34.752 F400.000
G1 X9.568 Y34.883 F400.000
G1 X9.511 Y34.951 F400.000
G1 X9.436 Y35.011 F400.000
G1 X9.335 Y35.064 F400.000
G1 X9.199 Y35.098 F400.000
G1 X9.068 Y35.094 F400.000
G1 X8.951 Y35.060 F400.000
G1 X8.850 Y35.000 F400.000
G1 X8.763 Y34.921 F400.000
G1 X8.692 Y34.812 F400.000
G1 X8.650 Y34.692 F400.000
G1 X8.639 Y34.571 F400.000
G1 X8.650 Y34.455 F400.000
G1 X8.722 Y34.271 F400.000
G1 X8.793 Y34.169 F400.000
G1 X8.929 Y34.056 F400.000
G1 X9.038 Y34.004 F400.000
G1 X9.150 Y33.977 F400.000
G1 X9.320 Y33.985 F400.000
G1 X9.485 Y34.041 F400.000
G1 X9.583 Y34.105 F400.000
G1 X9.793 Y34.395 F400.000
G1 X9.823 Y34.541 F400.000
G1 X9.827 Y34.628 F400.000
G1 X9.816 Y34.729 F400.000
G1 X9.767 Y34.880 F400.000
G1 X9.680 Y35.023 F400.000
G1 X9.583 Y35.120 F400.000
G1 X9.481 Y35.192 F400.000
G1 X9.350 Y35.248 F400.000
G1 X9.207 Y35.274 F400.000
G1 X9.056 Y35.274 F400.000
G1 X8.910 Y35.241 F400.000
G1 X8.782 Y35.177 F400.000
G1 X8.673 Y35.102 F400.000
G1 X8.568 Y34.985 F400.000
G1 X8.496 Y34.861 F400.000
G1 X8.447 Y34.726 F400.000
G1 X8.429 Y34.579 F400.000
G1 X8.436 Y34.436 F400.000
G1 X8.474 Y34.282 F400.000
G1 X8.541 Y34.139 F400.000
G1 X8.632 Y34.011 F400.000
G1 X8.744 Y33.902 F400.000
G1 X8.876 Y33.823 F400.000
G1 X9.008 Y33.774 F400.000
G1 X9.154 Y33.748 F400.000
G1 X9.308 Y33.748 F400.000
G1 X9.466 Y33.789 F400.000
G1 X9.594 Y33.846 F400.000
G1 X9.722 Y33.929 F400.000
G1 X9.846 Y34.045 F400.000
G1 X9.947 Y34.195 F400.000
G1 X10.004 Y34.331 F400.000
G1 X10.038 Y34.500 F400.000
G1 X10.038 Y34.669 F400.000
G1 X10.004 Y34.838 F400.000
G1 X9.962 Y34.947 F400.000
G1 X9.763 Y35.259 F400.000
G1 X9.579 Y35.391 F400.000
G1 X9.477 Y35.436 F400.000
G1 X9.308 Y35.481 F400.000
G1 X9.068 Y35.492 F400.000
G1 X8.887 Y35.459 F400.000
G1 X8.767 Y35.417 F400.000
G1 X8.451 Y35.214 F400.000
G1 X8.323 Y35.053 F400.000
G1 X8.271 Y34.947 F400.000
G1 X8.229 Y34.838 F400.000
G1 X8.188 Y34.669 F400.000
G1 X8.184 Y34.380 F400.000
G1 X8.241 Y34.139 F400.000
G1 X8.346 Y33.921 F400.000
G1 X8.500 Y33.737 F400.000
G1 X8.688 Y33.586 F400.000
G1 X8.910 Y33.496 F400.000
G1 X9.023 Y33.470 F400.000
G1 X9.391 Y33.477 F400.000
G1 X9.624 Y33.549 F400.000
G1 X9.752 Y33.609 F400.000
G1 X9.872 Y33.692 F400.000
G1 X10.068 Y33.891 F400.000
G1 X10.188 Y34.090 F400.000
G1 X10.267 Y34.308 F400.000
G1 X10.293 Y34.590 F400.000
G1 X10.263 Y34.816 F400.000
G1 X10.188 Y35.041 F400.000
G1 X10.026 Y35.293 F400.000
G1 X9.947 Y35.383 F400.000
G1 X9.658 Y35.620 F400.000
G1 X9.421 Y35.695 F400.000
G1 X9.120 Y35.733 F400.000
G1 X8.820 Y35.695 F400.000
G1 X8.639 Y35.639 F400.000
G1 X8.421 Y35.519 F400.000
G1 X8.274 Y35.398 F400.000
G1 X8.045 Y35.102 F400.000
G1 X7.947 Y34.865 F400.000
G1 X7.914 Y34.726 F400.000
G1 X7.883 Y34.455 F400.000
G1 X7.914 Y34.154 F400.000
G1 X7.929 Y34.094 F400.000
G1 X7.989 Y33.989 F400.000
G1 X8.271 Y33.677 F400.000
G1 X8.500 Y33.391 F400.000
G1 X8.635 Y33.278 F400.000
G1 X8.914 Y33.177 F400.000
G1 X9.195 Y33.139 F400.000
G1 X9.564 Y33.188 F400.000
G1 X9.835 Y33.301 F400.000
G1 X9.970 Y33.383 F400.000
G1 X10.135 Y33.511 F400.000
G1 X10.327 Y33.726 F400.000
G1 X10.417 Y33.876 F400.000
G1 X10.462 Y34.045 F400.000
G1 X10.455 Y34.891 F400.000
G1 X10.432 Y35.060 F400.000
G1 X10.376 Y35.229 F400.000
G1 X10.173 Y35.523 F400.000
G1 X9.996 Y35.684 F400.000
G1 X9.789 Y35.812 F400.000
G1 X9.677 Y35.865 F400.000
G1 X9.436 Y35.917 F400.000
G1 X8.714 Y35.906 F400.000
G1 X8.534 Y35.872 F400.000
G1 X8.308 Y35.767 F400.000
G1 X8.102 Y35.617 F400.000
G1 X7.883 Y35.395 F400.000
G1 X7.692 Y35.071 F400.000
G1 X7.586 Y34.737 F400.000
G1 X7.553 Y34.496 F400.000
G1 X7.560 Y34.376 F400.000
G1 X7.560 Y34.376 F400.000
G1 X7.756 Y34.301 F400.000
G0 X7.782 Y34.289
G0 X8.323 Y33.718
G1 X8.346 Y33.695 F400.000
G1 X8.410 Y33.613 F400.000
G1 X8.489 Y33.353 F400.000
G1 X8.489 Y33.353 F400.000
G1 X8.692 Y33.060 F400.000
G1 X8.786 Y32.981 F400.000
G1 X9.008 Y32.891 F400.000
G1 X9.289 Y32.846 F400.000
G1 X9.658 Y32.891 F400.000
G1 X9.929 Y32.985 F400.000
G1 X10.226 Y33.158 F400.000
G1 X10.398 Y33.308 F400.000
G1 X10.432 Y33.353 F400.000
G1 X10.455 Y33.406 F400.000
G1 X10.462 Y33.575 F400.000
G1 X10.462 Y33.575 F400.000
G1 X10.432 Y33.692 F400.000
G1 X10.402 Y33.744 F400.000
G1 X10.380 Y33.763 F400.000
G0 X10.357 Y33.771
G0 X10.252 Y33.763
G0 X8.812 Y33.323
G1 X8.778 Y33.312 F400.000
G1 X8.680 Y33.278 F400.000
G1 X8.647 Y33.233 F400.000
G1 X8.632 Y33.150 F400.000
G1 X8.662 Y33.038 F400.000
G1 X8.662 Y33.038 F400.000
G1 X8.812 Y32.774 F400.000
G1 X8.898 Y32.692 F400.000
G1 X9.117 Y32.605 F400.000
G1 X9.398 Y32.549 F400.000
G1 X9.767 Y32.583 F400.000
G1 X10.139 Y32.711 F400.000
G1 X10.383 Y32.861 F400.000
G1 X10.425 Y32.898 F400.000
G1 X10.455 Y32.947 F400.000
G1 X10.462 Y33.060 F400.000
G1 X10.462 Y33.060 F400.000
G1 X10.432 Y33.177 F400.000
G1 X10.402 Y33.229 F400.000
G1 X10.380 Y33.248 F400.000
G0 X10.357 Y33.259
G0 X10.203 Y33.256
G0 X8.955 Y33.030
G1 X8.921 Y33.026 F400.000
G1 X8.820 Y33.000 F400.000
G1 X8.778 Y32.962 F400.000
G1 X8.759 Y32.880 F400.000
G1 X8.782 Y32.763 F400.000
G1 X8.782 Y32.763 F400.000
G1 X8.883 Y32.545 F400.000
G1 X8.955 Y32.451 F400.000
G1 X9.109 Y32.357 F400.000
G1 X9.335 Y32.282 F400.000
G1 X9.447 Y32.259 F400.000
G1 X9.816 Y32.267 F400.000
G1 X10.147 Y32.350 F400.000
G1 X10.350 Y32.451 F400.000
G1 X10.398 Y32.485 F400.000
G1 X10.436 Y32.530 F400.000
G1 X10.462 Y32.583 F400.000
G1 X10.462 Y32.752 F400.000
G1 X10.462 Y32.752 F400.000
G1 X10.432 Y32.868 F400.000
G1 X10.402 Y32.921 F400.000
G1 X10.380 Y32.940 F400.000
G0 X10.357 Y32.951
G0 X10.207 Y32.947
G0 X9.075 Y32.744
G1 X9.041 Y32.737 F400.000
G1 X8.940 Y32.711 F400.000
G1 X8.898 Y32.673 F400.000
G1 X8.868 Y32.594 F400.000
G1 X8.880 Y32.477 F400.000
G1 X8.880 Y32.477 F400.000
G1 X8.977 Y32.256 F400.000
G1 X9.011 Y32.203 F400.000
G1 X9.105 Y32.128 F400.000
G1 X9.320 Y32.023 F400.000
G1 X9.489 Y31.974 F400.000
G1 X9.857 Y31.955 F400.000
G1 X10.150 Y32.011 F400.000
G1 X10.312 Y32.079 F400.000
G1 X10.406 Y32.143 F400.000
G1 X10.444 Y32.188 F400.000
G1 X10.462 Y32.241 F400.000
G1 X10.462 Y32.241 F400.000
G1 X10.432 Y32.357 F400.000
G1 X10.380 Y32.429 F400.000
G0 X10.357 Y32.444
G0 X10.207 Y32.462
G0 X9.165 Y32.470
G1 X9.132 Y32.470 F400.000
G1 X9.030 Y32.462 F400.000
G1 X8.981 Y32.429 F400.000
G1 X8.944 Y32.335 F400.000
G1 X8.936 Y32.244 F400.000
G1 X8.936 Y32.244 F400.000
G1 X8.985 Y32.068 F400.000
G1 X9.041 Y31.959 F400.000
G1 X9.128 Y31.876 F400.000
G1 X9.331 Y31.756 F400.000
G1 X9.496 Y31.699 F400.000
G1 X9.865 Y31.654 F400.000
G1 X10.162 Y31.703 F400.000
G1 X10.323 Y31.767 F400.000
G1 X10.417 Y31.831 F400.000
G1 X10.451 Y31.880 F400.000
G1 X10.462 Y31.936 F400.000
G1 X10.462 Y31.936 F400.000
G1 X10.432 Y32.053 F400.000
G1 X10.380 Y32.128 F400.000
G0 X10.357 Y32.143
G0 X10.207 Y32.169
G0 X9.199 Y32.226
G1 X9.165 Y32.229 F400.000
G1 X9.064 Y32.226 F400.000
G1 X9.015 Y32.199 F400.000
G1 X8.977 Y32.124 F400.000
G1 X8.974 Y32.008 F400.000
G1 X8.974 Y32.008 F400.000
G1 X9.011 Y31.827 F400.000
G1 X9.090 Y31.662 F400.000
G1 X9.282 Y31.515 F400.000
G1 X9.496 Y31.414 F400.000
G1 X9.553 Y31.395 F400.000
G1 X9.921 Y31.357 F400.000
G1 X10.173 Y31.398 F400.000
G1 X10.335 Y31.462 F400.000
G1 X10.429 Y31.526 F400.000
G1 X10.459 Y31.575 F400.000
G1 X10.462 Y31.632 F400.000
G1 X10.462 Y31.632 F400.000
G1 X10.432 Y31.748 F400.000
G1 X10.380 Y31.823 F400.000
G0 X10.357 Y31.838
G0 X10.207 Y31.865
G0 X9.256 Y31.921
G1 X9.222 Y31.925 F400.000
G1 X9.150 Y31.925 F400.000
G1 X9.086 Y31.902 F400.000
G1 X9.045 Y31.853 F400.000
G1 X9.015 Y31.711 F400.000
G1 X9.015 Y31.711 F400.000
G1 X9.049 Y31.530 F400.000
G1 X9.090 Y31.417 F400.000
G1 X9.124 Y31.368 F400.000
G1 X9.312 Y31.218 F400.000
G1 X9.470 Y31.139 F400.000
G1 X9.526 Y31.120 F400.000
G1 X9.891 Y31.060 F400.000
G1 X10.158 Y31.090 F400.000
G1 X10.320 Y31.147 F400.000
G1 X10.421 Y31.207 F400.000
G1 X10.451 Y31.256 F400.000
G1 X10.462 Y31.312 F400.000
G1 X10.462 Y31.481 F400.000
G1 X10.462 Y31.481 F400.000
G1 X10.432 Y31.598 F400.000
G1 X10.380 Y31.669 F400.000
G0 X10.357 Y31.684
G0 X10.203 Y31.703
G0 X9.289 Y31.692
G1 X9.256 Y31.692 F400.000
G1 X9.154 Y31.680 F400.000
G1 X9.102 Y31.654 F400.000
G1 X9.049 Y31.583 F400.000
G1 X9.023 Y31.470 F400.000
G1 X9.023 Y31.470 F400.000
G1 X9.041 Y31.289 F400.000
G1 X9.079 Y31.173 F400.000
G1 X9.109 Y31.120 F400.000
G1 X9.241 Y30.996 F400.000
G1 X9.444 Y30.872 F400.000
G1 X9.549 Y30.827 F400.000
G1 X9.914 Y30.767 F400.000
G1 X10.173 Y30.797 F400.000
G1 X10.335 Y30.857 F400.000
G1 X10.429 Y30.921 F400.000
G1 X10.459 Y30.970 F400.000
G1 X10.462 Y31.195 F400.000
G1 X10.462 Y31.195 F400.000
G1 X10.432 Y31.312 F400.000
G1 X10.380 Y31.387 F400.000
G0 X10.357 Y31.398
G0 X10.203 Y31.421
G0 X9.289 Y31.444
G1 X9.256 Y31.447 F400.000
G1 X9.154 Y31.444 F400.000
G1 X9.102 Y31.417 F400.000
G1 X9.049 Y31.346 F400.000
G1 X9.023 Y31.233 F400.000
G1 X9.023 Y31.233 F400.000
G1 X9.034 Y31.053 F400.000
G1 X9.060 Y30.932 F400.000
G1 X9.083 Y30.876 F400.000
G1 X9.158 Y30.778 F400.000
G1 X9.346 Y30.632 F400.000
G1 X9.504 Y30.553 F400.000
G1 X9.865 Y30.477 F400.000
G1 X10.139 Y30.496 F400.000
G1 X10.305 Y30.541 F400.000
G1 X10.406 Y30.602 F400.000
G1 X10.444 Y30.647 F400.000
G1 X10.462 Y30.699 F400.000
G1 X10.462 Y30.756 F400.000
G1 X10.462 Y30.756 F400.000
G1 X10.432 Y30.872 F400.000
G1 X10.380 Y30.947 F400.000
G0 X10.357 Y30.962
G0 X10.139 Y31.011
G0 X9.289 Y31.124
G1 X9.256 Y31.132 F400.000
G1 X9.154 Y31.135 F400.000
G1 X9.102 Y31.117 F400.000
G1 X9.049 Y31.045 F400.000
G1 X9.023 Y30.932 F400.000
G1 X9.023 Y30.932 F400.000
G1 X9.049 Y30.692 F400.000
G1 X9.094 Y30.575 F400.000
G1 X9.218 Y30.444 F400.000
G1 X9.414 Y30.308 F400.000
G1 X9.519 Y30.256 F400.000
G1 X9.883 Y30.180 F400.000
G1 X10.147 Y30.199 F400.000
G1 X10.259 Y30.226 F400.000
G1 X10.361 Y30.274 F400.000
G1 X10.410 Y30.308 F400.000
G1 X10.447 Y30.353 F400.000
G1 X10.462 Y30.410 F400.000
G1 X10.462 Y30.466 F400.000
G1 X10.462 Y30.466 F400.000
G1 X10.432 Y30.583 F400.000
G1 X10.380 Y30.658 F400.000
G0 X10.357 Y30.673
G0 X10.211 Y30.711
G0 X9.289 Y30.827
G1 X9.256 Y30.831 F400.000
G1 X9.154 Y30.835 F400.000
G1 X9.102 Y30.816 F400.000
G1 X9.049 Y30.744 F400.000
G1 X9.023 Y30.632 F400.000
G1 X9.023 Y30.632 F400.000
G1 X9.038 Y30.451 F400.000
G1 X9.071 Y30.335 F400.000
G1 X9.098 Y30.278 F400.000
G1 X9.222 Y30.147 F400.000
G1 X9.421 Y30.011 F400.000
G1 X9.526 Y29.962 F400.000
G1 X9.887 Y29.883 F400.000
G1 X10.154 Y29.906 F400.000
G1 X10.267 Y29.936 F400.000
G1 X10.368 Y29.985 F400.000
G1 X10.417 Y30.019 F400.000
G1 X10.451 Y30.064 F400.000
G1 X10.462 Y30.120 F400.000
G1 X10.462 Y30.177 F400.000
G1 X10.462 Y30.177 F400.000
G1 X10.432 Y30.293 F400.000
G1 X10.380 Y30.368 F400.000
G0 X10.357 Y30.383
G0 X10.211 Y30.417
G0 X9.289 Y30.530
G1 X9.256 Y30.534 F400.000
G1 X9.154 Y30.538 F400.000
G1 X9.102 Y30.515 F400.000
G1 X9.049 Y30.444 F400.000
G1 X9.023 Y30.331 F400.000
G1 X9.023 Y30.331 F400.000
G1 X9.041 Y30.150 F400.000
G1 X9.075 Y30.034 F400.000
G1 X9.102 Y29.977 F400.000
G1 X9.274 Y29.812 F400.000
G1 X9.477 Y29.688 F400.000
G1 X9.530 Y29.665 F400.000
G1 X9.891 Y29.590 F400.000
G1 X10.169 Y29.617 F400.000
G1 X10.282 Y29.650 F400.000
G1 X10.383 Y29.703 F400.000
G1 X10.429 Y29.737 F400.000
G1 X10.459 Y29.786 F400.000
G1 X10.462 Y30.011 F400.000
G1 X10.462 Y30.011 F400.000
G1 X10.432 Y30.128 F400.000
G1 X10.380 Y30.203 F400.000
G0 X10.357 Y30.218
G0 X10.211 Y30.244
G0 X9.289 Y30.297
G1 X9.256 Y30.301 F400.000
G1 X9.154 Y30.297 F400.000
G1 X9.102 Y30.274 F400.000
G1 X9.049 Y30.203 F400.000
G1 X9.023 Y30.090 F400.000
G1 X9.023 Y30.090 F400.000
G1 X9.034 Y29.910 F400.000
G1 X9.079 Y29.733 F400.000
G1 X9.147 Y29.635 F400.000
G1 X9.278 Y29.515 F400.000
G1 X9.481 Y29.395 F400.000
G1 X9.534 Y29.372 F400.000
G1 X9.898 Y29.301 F400.000
G1 X10.214 Y29.335 F400.000
G1 X10.372 Y29.402 F400.000
G1 X10.421 Y29.436 F400.000
G1 X10.455 Y29.481 F400.000
G1 X10.462 Y29.594 F400.000
G1 X10.462 Y29.594 F400.000
G1 X10.432 Y29.711 F400.000
G1 X10.380 Y29.786 F400.000
G0 X10.357 Y29.801
G0 X10.139 Y29.853
G0 X9.289 Y29.981
G1 X9.256 Y29.989 F400.000
G1 X9.154 Y29.996 F400.000
G1 X9.102 Y29.974 F400.000
G1 X9.049 Y29.906 F400.000
G1 X9.023 Y29.793 F400.000
G1 X9.023 Y29.793 F400.000
G1 X9.034 Y29.613 F400.000
G1 X9.060 Y29.492 F400.000
G1 X9.113 Y29.383 F400.000
G1 X9.241 Y29.256 F400.000
G1 X9.391 Y29.154 F400.000
G1 X9.549 Y29.079 F400.000
G1 X9.914 Y29.008 F400.000
G1 X10.188 Y29.038 F400.000
G1 X10.297 Y29.071 F400.000
G1 X10.398 Y29.128 F400.000
G1 X10.440 Y29.169 F400.000
G1 X10.462 Y29.222 F400.000
G1 X10.462 Y29.335 F400.000
G1 X10.462 Y29.335 F400.000
G1 X10.432 Y29.451 F400.000
G1 X10.380 Y29.526 F400.000
G0 X10.357 Y29.541
G0 X10.211 Y29.575
G0 X9.289 Y29.692
G1 X9.256 Y29.695 F400.000
G1 X9.154 Y29.699 F400.000
G1 X9.102 Y29.677 F400.000
G1 X9.049 Y29.605 F400.000
G1 X9.023 Y29.492 F400.000
G1 X9.023 Y29.492 F400.000
G1 X9.049 Y29.252 F400.000
G1 X9.086 Y29.135 F400.000
G1 X9.203 Y29.000 F400.000
G1 X9.342 Y28.887 F400.000
G1 X9.556 Y28.782 F400.000
G1 X9.921 Y28.714 F400.000
G1 X10.195 Y28.748 F400.000
G1 X10.357 Y28.812 F400.000
G1 X10.406 Y28.846 F400.000
G1 X10.444 Y28.887 F400.000
G1 X10.462 Y28.940 F400.000
G1 X10.462 Y29.053 F400.000
G1 X10.462 Y29.053 F400.000
G1 X10.432 Y29.169 F400.000
G1 X10.380 Y29.244 F400.000
G0 X10.357 Y29.259
G0 X10.211 Y29.293
G0 X9.289 Y29.391
G1 X9.256 Y29.395 F400.000
G1 X9.154 Y29.398 F400.000
G1 X9.102 Y29.376 F400.000
G1 X9.049 Y29.305 F400.000
G1 X9.023 Y29.192 F400.000
G1 X9.023 Y29.192 F400.000
G1 X9.049 Y28.951 F400.000
G1 X9.086 Y28.835 F400.000
G1 X9.120 Y28.782 F400.000
G1 X9.301 Y28.624 F400.000
G1 X9.504 Y28.508 F400.000
G1 X9.865 Y28.425 F400.000
G1 X10.120 Y28.436 F400.000
G1 X10.286 Y28.481 F400.000
G1 X10.432 Y28.571 F400.000
G1 X10.462 Y28.620 F400.000
G1 X10.462 Y28.789 F400.000
G1 X10.462 Y28.789 F400.000
G1 X10.432 Y28.906 F400.000
G1 X10.380 Y28.981 F400.000
G0 X10.357 Y28.996
G0 X10.211 Y29.023
G0 X9.289 Y29.094
G1 X9.256 Y29.098 F400.000
G1 X9.154 Y29.098 F400.000
G1 X9.102 Y29.075 F400.000
G1 X9.049 Y29.004 F400.000
G1 X9.023 Y28.891 F400.000
G1 X9.023 Y28.891 F400.000
G1 X9.049 Y28.650 F400.000
G1 X9.094 Y28.534 F400.000
G1 X9.173 Y28.440 F400.000
G1 X9.361 Y28.289 F400.000
G1 X9.519 Y28.207 F400.000
G1 X9.880 Y28.132 F400.000
G1 X10.180 Y28.154 F400.000
G1 X10.289 Y28.188 F400.000
G1 X10.436 Y28.278 F400.000
G1 X10.462 Y28.331 F400.000
G1 X10.462 Y28.331 F400.000
G1 X10.432 Y28.447 F400.000
G1 X10.380 Y28.523 F400.000
G0 X10.357 Y28.541
G0 X10.139 Y28.602
G0 X9.289 Y28.774
G1 X9.256 Y28.782 F400.000
G1 X9.154 Y28.793 F400.000
G1 X9.102 Y28.771 F400.000
G1 X9.049 Y28.703 F400.000
G1 X9.023 Y28.590 F400.000
G1 X9.023 Y28.590 F400.000
G1 X9.038 Y28.410 F400.000
G1 X9.071 Y28.289 F400.000
G1 X9.098 Y28.233 F400.000
G1 X9.222 Y28.102 F400.000
G1 X9.365 Y27.992 F400.000
G1 X9.523 Y27.914 F400.000
G1 X9.883 Y27.835 F400.000
G1 X10.173 Y27.857 F400.000
G1 X10.286 Y27.891 F400.000
G1 X10.432 Y27.981 F400.000
G1 X10.462 Y28.030 F400.000
G1 X10.462 Y28.030 F400.000
G1 X10.432 Y28.147 F400.000
G1 X10.380 Y28.222 F400.000
G0 X10.357 Y28.241
G0 X10.139 Y28.301
G0 X9.289 Y28.474
G1 X9.259 Y28.481 F400.000
G1 X9.143 Y28.496 F400.000
G1 X9.098 Y28.474 F400.000
G1 X9.049 Y28.406 F400.000
G1 X9.023 Y28.293 F400.000
G1 X9.023 Y28.293 F400.000
G1 X9.038 Y28.113 F400.000
G1 X9.071 Y27.992 F400.000
G1 X9.098 Y27.936 F400.000
G1 X9.222 Y27.805 F400.000
G1 X9.365 Y27.695 F400.000
G1 X9.523 Y27.617 F400.000
G1 X9.887 Y27.541 F400.000
G1 X10.165 Y27.564 F400.000
G1 X10.331 Y27.620 F400.000
G1 X10.429 Y27.680 F400.000
G1 X10.459 Y27.729 F400.000
G1 X10.462 Y27.898 F400.000
G1 X10.462 Y27.898 F400.000
G1 X10.432 Y28.015 F400.000
G1 X10.380 Y28.090 F400.000
G0 X10.357 Y28.105
G0 X10.211 Y28.139
G0 X9.289 Y28.252
G1 X9.256 Y28.256 F400.000
G1 X9.154 Y28.259 F400.000
G1 X9.102 Y28.237 F400.000
G1 X9.049 Y28.165 F400.000
G1 X9.023 Y28.053 F400.000
G1 X9.023 Y28.053 F400.000
G1 X9.038 Y27.812 F400.000
G1 X9.071 Y27.692 F400.000
G1 X9.098 Y27.635 F400.000
G1 X9.222 Y27.504 F400.000
G1 X9.417 Y27.368 F400.000
G1 X9.523 Y27.320 F400.000
G1 X9.887 Y27.244 F400.000
G1 X10.139 Y27.263 F400.000
G1 X10.252 Y27.289 F400.000
G1 X10.357 Y27.338 F400.000
G1 X10.406 Y27.372 F400.000
G1 X10.444 Y27.417 F400.000
G1 X10.462 Y27.474 F400.000
G1 X10.462 Y27.699 F400.000
G1 X10.462 Y27.699 F400.000
G1 X10.432 Y27.816 F400.000
G1 X10.380 Y27.891 F400.000
G0 X10.357 Y27.906
G0 X10.203 Y27.929
G0 X9.289 Y27.962
G1 X9.256 Y27.966 F400.000
G1 X9.154 Y27.962 F400.000
G1 X9.102 Y27.936 F400.000
G1 X9.049 Y27.865 F400.000
G1 X9.023 Y27.752 F400.000
G1 X9.023 Y27.752 F400.000
G1 X9.041 Y27.511 F400.000
G1 X9.075 Y27.395 F400.000
G1 X9.102 Y27.338 F400.000
G1 X9.226 Y27.211 F400.000
G1 X9.425 Y27.075 F400.000
G1 X9.530 Y27.023 F400.000
G1 X9.895 Y26.951 F400.000
G1 X10.203 Y26.985 F400.000
G1 X10.361 Y27.053 F400.000
G1 X10.410 Y27.086 F400.000
G1 X10.447 Y27.132 F400.000
G1 X10.462 Y27.188 F400.000
G1 X10.462 Y27.244 F400.000
G1 X10.462 Y27.244 F400.000
G1 X10.432 Y27.361 F400.000
G1 X10.380 Y27.436 F400.000
G0 X10.357 Y27.451
G0 X10.139 Y27.504
G0 X9.289 Y27.639
G1 X9.256 Y27.647 F400.000
G1 X9.154 Y27.654 F400.000
G1 X9.102 Y27.632 F400.000
G1 X9.049 Y27.564 F400.000
G1 X9.023 Y27.451 F400.000
G1 X9.023 Y27.451 F400.000
G1 X9.034 Y27.271 F400.000
G1 X9.060 Y27.150 F400.000
G1 X9.113 Y27.041 F400.000
G1 X9.282 Y26.876 F400.000
G1 X9.380 Y26.805 F400.000
G1 X9.538 Y26.729 F400.000
G1 X9.902 Y26.658 F400.000
G1 X10.173 Y26.688 F400.000
G1 X10.286 Y26.722 F400.000
G1 X10.432 Y26.812 F400.000
G1 X10.462 Y26.861 F400.000
G1 X10.462 Y27.030 F400.000
G1 X10.462 Y27.030 F400.000
G1 X10.432 Y27.147 F400.000
G1 X10.380 Y27.222 F400.000
G0 X10.357 Y27.237
G0 X10.211 Y27.267
G0 X9.289 Y27.353
G1 X9.256 Y27.357 F400.000
G1 X9.154 Y27.357 F400.000
G1 X9.102 Y27.335 F400.000
G1 X9.049 Y27.263 F400.000
G1 X9.023 Y27.150 F400.000
G1 X9.023 Y27.150 F400.000
G1 X9.049 Y26.910 F400.000
G1 X9.086 Y26.793 F400.000
G1 X9.203 Y26.654 F400.000
G1 X9.346 Y26.541 F400.000
G1 X9.504 Y26.459 F400.000
G1 X9.865 Y26.376 F400.000
G1 X10.128 Y26.387 F400.000
G1 X10.293 Y26.432 F400.000
G1 X10.395 Y26.489 F400.000
G1 X10.436 Y26.526 F400.000
G1 X10.462 Y26.579 F400.000
G1 X10.462 Y26.579 F400.000
G1 X10.432 Y26.695 F400.000
G1 X10.380 Y26.771 F400.000
G0 X10.357 Y26.789
G0 X10.139 Y26.850
G0 X9.289 Y27.034
G1 X9.259 Y27.038 F400.000
G1 X9.143 Y27.056 F400.000
G1 X9.098 Y27.034 F400.000
G1 X9.049 Y26.966 F400.000
G1 X9.023 Y26.853 F400.000
G1 X9.023 Y26.853 F400.000
G1 X9.034 Y26.673 F400.000
G1 X9.060 Y26.553 F400.000
G1 X9.083 Y26.496 F400.000
G1 X9.199 Y26.357 F400.000
G1 X9.338 Y26.248 F400.000
G1 X9.553 Y26.143 F400.000
G1 X9.917 Y26.075 F400.000
G1 X10.207 Y26.113 F400.000
G1 X10.365 Y26.180 F400.000
G1 X10.414 Y26.214 F400.000
G1 X10.447 Y26.259 F400.000
G1 X10.462 Y26.316 F400.000
G1 X10.462 Y26.429 F400.000
G1 X10.462 Y26.429 F400.000
G1 X10.432 Y26.545 F400.000
G1 X10.380 Y26.620 F400.000
G0 X10.357 Y26.635
G0 X10.211 Y26.665
G0 X9.289 Y26.756
G1 X9.256 Y26.759 F400.000
G1 X9.154 Y26.759 F400.000
G1 X9.102 Y26.737 F400.000
G1 X9.049 Y26.665 F400.000
G1 X9.023 Y26.553 F400.000
G1 X9.023 Y26.553 F400.000
G1 X9.049 Y26.312 F400.000
G1 X9.090 Y26.195 F400.000
G1 X9.165 Y26.102 F400.000
G1 X9.350 Y25.951 F400.000
G1 X9.504 Y25.865 F400.000
G1 X9.865 Y25.786 F400.000
G1 X10.162 Y25.808 F400.000
G1 X10.323 Y25.865 F400.000
G1 X10.417 Y25.929 F400.000
G1 X10.451 Y25.974 F400.000
G1 X10.462 Y26.030 F400.000
G1 X10.462 Y26.030 F400.000
G1 X10.432 Y26.147 F400.000
G1 X10.380 Y26.222 F400.000
G0 X10.357 Y26.237
G0 X10.139 Y26.293
G0 X9.289 Y26.440
G1 X9.256 Y26.447 F400.000
G1 X9.154 Y26.455 F400.000
G1 X9.102 Y26.432 F400.000
G1 X9.049 Y26.365 F400.000
G1 X9.023 Y26.252 F400.000
G1 X9.023 Y26.252 F400.000
G1 X9.049 Y26.011 F400.000
G1 X9.086 Y25.895 F400.000
G1 X9.162 Y25.801 F400.000
G1 X9.350 Y25.650 F400.000
G1 X9.508 Y25.571 F400.000
G1 X9.868 Y25.492 F400.000
G1 X10.147 Y25.515 F400.000
G1 X10.312 Y25.571 F400.000
G1 X10.410 Y25.628 F400.000
G1 X10.444 Y25.673 F400.000
G1 X10.462 Y25.726 F400.000
G1 X10.462 Y25.838 F400.000
G1 X10.462 Y25.838 F400.000
G1 X10.432 Y25.955 F400.000
G1 X10.380 Y26.030 F400.000
G0 X10.357 Y26.045
G0 X10.211 Y26.075
G0 X9.289 Y26.154
G1 X9.256 Y26.158 F400.000
G1 X9.154 Y26.158 F400.000
G1 X9.102 Y26.135 F400.000
G1 X9.049 Y26.064 F400.000
G1 X9.023 Y25.951 F400.000
G1 X9.023 Y25.951 F400.000
G1 X9.049 Y25.711 F400.000
G1 X9.094 Y25.594 F400.000
G1 X9.173 Y25.500 F400.000
G1 X9.365 Y25.353 F400.000
G1 X9.523 Y25.274 F400.000
G1 X9.887 Y25.203 F400.000
G1 X10.128 Y25.218 F400.000
G1 X10.241 Y25.244 F400.000
G1 X10.346 Y25.293 F400.000
G1 X10.436 Y25.365 F400.000
G1 X10.462 Y25.414 F400.000
G1 X10.462 Y25.470 F400.000
G1 X10.462 Y25.470 F400.000
G1 X10.432 Y25.586 F400.000
G1 X10.380 Y25.662 F400.000
G0 X10.357 Y25.677
G0 X10.139 Y25.726
G0 X9.289 Y25.842
G1 X9.256 Y25.850 F400.000
G1 X9.154 Y25.853 F400.000
G1 X9.102 Y25.835 F400.000
G1 X9.049 Y25.763 F400.000
G1 X9.023 Y25.650 F400.000
G1 X9.023 Y25.650 F400.000
G1 X9.038 Y25.470 F400.000
G1 X9.071 Y25.353 F400.000
G1 X9.098 Y25.297 F400.000
G1 X9.218 Y25.169 F400.000
G1 X9.361 Y25.060 F400.000
G1 X9.519 Y24.981 F400.000
G1 X9.883 Y24.906 F400.000
G1 X10.150 Y24.932 F400.000
G1 X10.316 Y24.989 F400.000
G1 X10.414 Y25.045 F400.000
G1 X10.447 Y25.090 F400.000
G1 X10.462 Y25.147 F400.000
G1 X10.462 Y25.203 F400.000
G1 X10.462 Y25.203 F400.000
G1 X10.432 Y25.320 F400.000
G1 X10.380 Y25.395 F400.000
G0 X10.357 Y25.410
G0 X10.211 Y25.444
G0 X9.289 Y25.553
G1 X9.256 Y25.556 F400.000
G1 X9.154 Y25.560 F400.000
G1 X9.102 Y25.538 F400.000
G1 X9.049 Y25.466 F400.000
G1 X9.023 Y25.353 F400.000
G1 X9.023 Y25.353 F400.000
G1 X9.041 Y25.173 F400.000
G1 X9.075 Y25.056 F400.000
G1 X9.102 Y25.000 F400.000
G1 X9.271 Y24.835 F400.000
G1 X9.368 Y24.763 F400.000
G1 X9.530 Y24.688 F400.000
G1 X9.895 Y24.617 F400.000
G1 X10.162 Y24.643 F400.000
G1 X10.323 Y24.699 F400.000
G1 X10.417 Y24.759 F400.000
G1 X10.451 Y24.808 F400.000
G1 X10.462 Y24.865 F400.000
G1 X10.462 Y24.921 F400.000
G1 X10.462 Y24.921 F400.000
G1 X10.432 Y25.038 F400.000
G1 X10.380 Y25.113 F400.000
G0 X10.357 Y25.128
G0 X10.139 Y25.180
G0 X9.289 Y25.305
G1 X9.256 Y25.312 F400.000
G1 X9.154 Y25.316 F400.000
G1 X9.102 Y25.297 F400.000
G1 X9.049 Y25.226 F400.000
G1 X9.023 Y25.113 F400.000
G1 X9.023 Y25.113 F400.000
G1 X9.038 Y24.872 F400.000
G1 X9.071 Y24.756 F400.000
G1 X9.102 Y24.703 F400.000
G1 X9.274 Y24.538 F400.000
G1 X9.534 Y24.398 F400.000
G1 X9.898 Y24.323 F400.000
G1 X10.165 Y24.350 F400.000
G1 X10.327 Y24.406 F400.000
G1 X10.421 Y24.466 F400.000
G1 X10.451 Y24.515 F400.000
G1 X10.462 Y24.571 F400.000
G1 X10.462 Y24.684 F400.000
G1 X10.462 Y24.684 F400.000
G1 X10.432 Y24.801 F400.000
G1 X10.380 Y24.876 F400.000
G0 X10.357 Y24.891
G0 X10.211 Y24.914
G0 X9.289 Y24.959
G1 X9.256 Y24.962 F400.000
G1 X9.154 Y24.959 F400.000
G1 X9.102 Y24.936 F400.000
G1 X9.049 Y24.865 F400.000
G1 X9.023 Y24.752 F400.000
G1 X9.023 Y24.752 F400.000
G1 X9.045 Y24.571 F400.000
G1 X9.083 Y24.455 F400.000
G1 X9.113 Y24.402 F400.000
G1 X9.289 Y24.237 F400.000
G1 X9.496 Y24.120 F400.000
G1 X9.553 Y24.098 F400.000
G1 X9.917 Y24.030 F400.000
G1 X10.188 Y24.064 F400.000
G1 X10.350 Y24.128 F400.000
G1 X10.440 Y24.195 F400.000
G1 X10.462 Y24.248 F400.000
G1 X10.462 Y24.474 F400.000
G1 X10.462 Y24.474 F400.000
G1 X10.432 Y24.590 F400.000
G1 X10.380 Y24.665 F400.000
G0 X10.357 Y24.677
G0 X10.203 Y24.699
G0 X9.289 Y24.722
G1 X9.256 Y24.726 F400.000
G1 X9.154 Y24.722 F400.000
G1 X9.102 Y24.695 F400.000
G1 X9.049 Y24.624 F400.000
G1 X9.023 Y24.511 F400.000
G1 X9.023 Y24.511 F400.000
G1 X9.049 Y24.271 F400.000
G1 X9.086 Y24.154 F400.000
G1 X9.162 Y24.056 F400.000
G1 X9.346 Y23.906 F400.000
G1 X9.504 Y23.823 F400.000
G1 X9.865 Y23.744 F400.000
G1 X10.117 Y23.756 F400.000
G1 X10.282 Y23.801 F400.000
G1 X10.429 Y23.891 F400.000
G1 X10.459 Y23.940 F400.000
G1 X10.462 Y24.053 F400.000
G1 X10.462 Y24.053 F400.000
G1 X10.432 Y24.169 F400.000
G1 X10.380 Y24.244 F400.000
G0 X10.357 Y24.259
G0 X10.211 Y24.293
G0 X9.289 Y24.410
G1 X9.256 Y24.414 F400.000
G1 X9.154 Y24.417 F400.000
G1 X9.102 Y24.395 F400.000
G1 X9.049 Y24.323 F400.000
G1 X9.023 Y24.211 F400.000
G1 X9.023 Y24.211 F400.000
G1 X9.049 Y23.970 F400.000
G1 X9.086 Y23.853 F400.000
G1 X9.162 Y23.759 F400.000
G1 X9.350 Y23.609 F400.000
G1 X9.508 Y23.526 F400.000
G1 X9.868 Y23.447 F400.000
G1 X10.117 Y23.462 F400.000
G1 X10.282 Y23.508 F400.000
G1 X10.429 Y23.598 F400.000
G1 X10.459 Y23.647 F400.000
G1 X10.466 Y23.929 F400.000
G1 X10.466 Y23.929 F400.000
G1 X10.436 Y24.045 F400.000
G1 X10.383 Y24.117 F400.000
G0 X10.361 Y24.132
G0 X10.211 Y24.150
G0 X9.289 Y24.135
G1 X9.256 Y24.135 F400.000
G1 X9.154 Y24.124 F400.000
G1 X9.102 Y24.098 F400.000
G1 X9.049 Y24.026 F400.000
G1 X9.023 Y23.914 F400.000
G1 X9.023 Y23.914 F400.000
G1 X9.049 Y23.673 F400.000
G1 X9.094 Y23.556 F400.000
G1 X9.173 Y23.462 F400.000
G1 X9.361 Y23.312 F400.000
G1 X9.519 Y23.229 F400.000
G1 X9.880 Y23.154 F400.000
G1 X10.150 Y23.177 F400.000
G1 X10.312 Y23.229 F400.000
G1 X10.414 Y23.289 F400.000
G1 X10.451 Y23.335 F400.000
G1 X10.466 Y23.391 F400.000
G1 X10.466 Y23.560 F400.000
G1 X10.466 Y23.560 F400.000
G1 X10.436 Y23.677 F400.000
G1 X10.383 Y23.752 F400.000
G0 X10.361 Y23.767
G0 X10.211 Y23.789
G0 X9.289 Y23.823
G1 X9.256 Y23.827 F400.000
G1 X9.154 Y23.823 F400.000
G1 X9.102 Y23.797 F400.000
G1 X9.049 Y23.726 F400.000
G1 X9.023 Y23.613 F400.000
G1 X9.023 Y23.613 F400.000
G1 X9.038 Y23.432 F400.000
G1 X9.071 Y23.312 F400.000
G1 X9.098 Y23.256 F400.000
G1 X9.271 Y23.086 F400.000
G1 X9.421 Y22.985 F400.000
G1 X9.530 Y22.936 F400.000
G1 X9.895 Y22.861 F400.000
G1 X10.207 Y22.895 F400.000
G1 X10.365 Y22.962 F400.000
G1 X10.414 Y22.996 F400.000
G1 X10.447 Y23.041 F400.000
G1 X10.466 Y23.094 F400.000
G1 X10.466 Y23.207 F400.000
G1 X10.466 Y23.207 F400.000
G1 X10.436 Y23.323 F400.000
G1 X10.383 Y23.398 F400.000
G0 X10.361 Y23.414
G0 X10.211 Y23.451
G0 X9.289 Y23.568
G1 X9.256 Y23.571 F400.000
G1 X9.154 Y23.575 F400.000
G1 X9.102 Y23.556 F400.000
G1 X9.049 Y23.485 F400.000
G1 X9.023 Y23.372 F400.000
G1 X9.023 Y23.372 F400.000
G1 X9.038 Y23.132 F400.000
G1 X9.071 Y23.015 F400.000
G1 X9.098 Y22.959 F400.000
G1 X9.222 Y22.827 F400.000
G1 X9.417 Y22.692 F400.000
G1 X9.523 Y22.643 F400.000
G1 X9.883 Y22.564 F400.000
G1 X10.218 Y22.602 F400.000
G1 X10.323 Y22.643 F400.000
G1 X10.421 Y22.707 F400.000
G1 X10.455 Y22.756 F400.000
G1 X10.466 Y22.812 F400.000
G1 X10.466 Y22.812 F400.000
G1 X10.436 Y22.929 F400.000
G1 X10.383 Y23.004 F400.000
G0 X10.361 Y23.019
G0 X10.139 Y23.071
G0 X9.289 Y23.199
G1 X9.256 Y23.207 F400.000
G1 X9.154 Y23.214 F400.000
G1 X9.102 Y23.192 F400.000
G1 X9.049 Y23.124 F400.000
G1 X9.023 Y23.011 F400.000
G1 X9.023 Y23.011 F400.000
G1 X9.045 Y22.831 F400.000
G1 X9.083 Y22.714 F400.000
G1 X9.150 Y22.617 F400.000
G1 X9.331 Y22.459 F400.000
G1 X9.485 Y22.368 F400.000
G1 X9.538 Y22.346 F400.000
G1 X9.902 Y22.274 F400.000
G1 X10.207 Y22.308 F400.000
G1 X10.368 Y22.376 F400.000
G1 X10.417 Y22.406 F400.000
G1 X10.451 Y22.451 F400.000
G1 X10.466 Y22.508 F400.000
G1 X10.466 Y22.508 F400.000
G1 X10.436 Y22.624 F400.000
G1 X10.383 Y22.699 F400.000
G0 X10.361 Y22.718
G0 X10.139 Y22.778
G0 X9.289 Y22.951
G1 X9.259 Y22.959 F400.000
G1 X9.143 Y22.974 F400.000
G1 X9.098 Y22.951 F400.000
G1 X9.049 Y22.883 F400.000
G1 X9.023 Y22.771 F400.000
G1 X9.023 Y22.771 F400.000
G1 X9.034 Y22.590 F400.000
G1 X9.060 Y22.470 F400.000
G1 X9.113 Y22.361 F400.000
G1 X9.286 Y22.195 F400.000
G1 X9.440 Y22.105 F400.000
G1 X9.549 Y22.060 F400.000
G1 X9.910 Y21.981 F400.000
G1 X10.237 Y22.023 F400.000
G1 X10.346 Y22.068 F400.000
G1 X10.440 Y22.135 F400.000
G1 X10.466 Y22.188 F400.000
G1 X10.466 Y22.301 F400.000
G1 X10.466 Y22.301 F400.000
G1 X10.436 Y22.417 F400.000
G1 X10.383 Y22.492 F400.000
G0 X10.361 Y22.508
G0 X10.211 Y22.545
G0 X9.289 Y22.665
G1 X9.256 Y22.669 F400.000
G1 X9.154 Y22.673 F400.000
G1 X9.102 Y22.654 F400.000
G1 X9.049 Y22.583 F400.000
G1 X9.023 Y22.470 F400.000
G1 X9.023 Y22.470 F400.000
G1 X9.049 Y22.229 F400.000
G1 X9.086 Y22.113 F400.000
G1 X9.203 Y21.977 F400.000
G1 X9.395 Y21.835 F400.000
G1 X9.556 Y21.759 F400.000
G1 X9.921 Y21.688 F400.000
G1 X10.203 Y21.722 F400.000
G1 X10.365 Y21.786 F400.000
G1 X10.414 Y21.820 F400.000
G1 X10.451 Y21.865 F400.000
G1 X10.466 Y21.921 F400.000
G1 X10.466 Y21.977 F400.000
G1 X10.466 Y21.977 F400.000
G1 X10.436 Y22.094 F400.000
G1 X10.383 Y22.169 F400.000
G0 X10.361 Y22.184
G0 X10.139 Y22.237
G0 X9.289 Y22.361
G1 X9.256 Y22.368 F400.000
G1 X9.154 Y22.376 F400.000
G1 X9.102 Y22.353 F400.000
G1 X9.049 Y22.286 F400.000
G1 X9.023 Y22.173 F400.000
G1 X9.023 Y22.173 F400.000
G1 X9.049 Y21.932 F400.000
G1 X9.086 Y21.816 F400.000
G1 X9.117 Y21.763 F400.000
G1 X9.297 Y21.602 F400.000
G1 X9.451 Y21.511 F400.000
G1 X9.560 Y21.466 F400.000
G1 X9.925 Y21.398 F400.000
G1 X10.218 Y21.436 F400.000
G1 X10.376 Y21.504 F400.000
G1 X10.425 Y21.538 F400.000
G1 X10.455 Y21.586 F400.000
G1 X10.466 Y21.643 F400.000
G1 X10.466 Y21.643 F400.000
G1 X10.436 Y21.759 F400.000
G1 X10.383 Y21.835 F400.000
G0 X10.361 Y21.850
G0 X10.143 Y21.906
G0 X9.293 Y22.056
G1 X9.259 Y22.064 F400.000
G1 X9.158 Y22.075 F400.000
G1 X9.105 Y22.053 F400.000
G1 X9.053 Y21.985 F400.000
G1 X9.026 Y21.872 F400.000
G1 X9.026 Y21.872 F400.000
G1 X9.053 Y21.632 F400.000
G1 X9.094 Y21.515 F400.000
G1 X9.173 Y21.421 F400.000
G1 X9.361 Y21.271 F400.000
G1 X9.519 Y21.192 F400.000
G1 X9.880 Y21.113 F400.000
G1 X10.147 Y21.132 F400.000
G1 X10.259 Y21.162 F400.000
G1 X10.414 Y21.241 F400.000
G1 X10.451 Y21.286 F400.000
G1 X10.466 Y21.342 F400.000
G1 X10.466 Y21.455 F400.000
G1 X10.466 Y21.455 F400.000
G1 X10.436 Y21.571 F400.000
G1 X10.383 Y21.647 F400.000
G0 X10.361 Y21.662
G0 X10.214 Y21.692
G0 X9.293 Y21.774
G1 X9.259 Y21.778 F400.000
G1 X9.158 Y21.778 F400.000
G1 X9.105 Y21.756 F400.000
G1 X9.053 Y21.684 F400.000
G1 X9.026 Y21.571 F400.000
G1 X9.026 Y21.571 F400.000
G1 X9.053 Y21.331 F400.000
G1 X9.098 Y21.214 F400.000
G1 X9.222 Y21.083 F400.000
G1 X9.417 Y20.947 F400.000
G1 X9.523 Y20.898 F400.000
G1 X9.883 Y20.820 F400.000
G1 X10.177 Y20.846 F400.000
G1 X10.338 Y20.902 F400.000
G1 X10.432 Y20.966 F400.000
G1 X10.462 Y21.015 F400.000
G1 X10.466 Y21.071 F400.000
G1 X10.466 Y21.071 F400.000
G1 X10.436 Y21.188 F400.000
G1 X10.383 Y21.263 F400.000
G0 X10.361 Y21.278
G0 X10.143 Y21.331
G0 X9.293 Y21.459
G1 X9.259 Y21.466 F400.000
G1 X9.158 Y21.474 F400.000
G1 X9.105 Y21.451 F400.000
G1 X9.053 Y21.383 F400.000
G1 X9.026 Y21.271 F400.000
G1 X9.026 Y21.271 F400.000
G1 X9.041 Y21.090 F400.000
G1 X9.075 Y20.974 F400.000
G1 X9.102 Y20.917 F400.000
G1 X9.271 Y20.752 F400.000
G1 X9.421 Y20.650 F400.000
G1 X9.526 Y20.598 F400.000
G1 X9.891 Y20.523 F400.000
G1 X10.207 Y20.556 F400.000
G1 X10.368 Y20.624 F400.000
G1 X10.417 Y20.658 F400.000
G1 X10.451 Y20.703 F400.000
G1 X10.466 Y20.759 F400.000
G1 X10.466 Y20.816 F400.000
G1 X10.466 Y20.816 F400.000
G1 X10.436 Y20.932 F400.000
G1 X10.383 Y21.008 F400.000
G0 X10.361 Y21.023
G0 X10.214 Y21.056
G0 X9.293 Y21.169
G1 X9.259 Y21.173 F400.000
G1 X9.158 Y21.177 F400.000
G1 X9.105 Y21.154 F400.000
G1 X9.053 Y21.083 F400.000
G1 X9.026 Y20.970 F400.000
G1 X9.026 Y20.970 F400.000
G1 X9.041 Y20.789 F400.000
G1 X9.075 Y20.669 F400.000
G1 X9.102 Y20.617 F400.000
G1 X9.323 Y20.414 F400.000
G1 X9.530 Y20.305 F400.000
G1 X9.895 Y20.229 F400.000
G1 X10.192 Y20.259 F400.000
G1 X10.353 Y20.327 F400.000
G1 X10.402 Y20.357 F400.000
G1 X10.444 Y20.398 F400.000
G1 X10.466 Y20.451 F400.000
G1 X10.466 Y20.508 F400.000
G1 X10.466 Y20.508 F400.000
G1 X10.436 Y20.624 F400.000
G1 X10.383 Y20.699 F400.000
G0 X10.361 Y20.714
G0 X10.143 Y20.771
G0 X9.293 Y20.921
G1 X9.259 Y20.929 F400.000
G1 X9.158 Y20.936 F400.000
G1 X9.105 Y20.914 F400.000
G1 X9.053 Y20.846 F400.000
G1 X9.026 Y20.733 F400.000
G1 X9.026 Y20.733 F400.000
G1 X9.045 Y20.492 F400.000
G1 X9.079 Y20.376 F400.000
G1 X9.105 Y20.320 F400.000
G1 X9.229 Y20.192 F400.000
G1 X9.376 Y20.083 F400.000
G1 X9.534 Y20.011 F400.000
G1 X9.898 Y19.940 F400.000
G1 X10.203 Y19.974 F400.000
G1 X10.312 Y20.011 F400.000
G1 X10.410 Y20.071 F400.000
G1 X10.447 Y20.113 F400.000
G1 X10.466 Y20.165 F400.000
G1 X10.466 Y20.278 F400.000
G1 X10.466 Y20.274 F400.000
G1 X10.436 Y20.391 F400.000
G1 X10.383 Y20.466 F400.000
G0 X10.361 Y20.481
G0 X10.214 Y20.515
G0 X9.293 Y20.632
G1 X9.259 Y20.635 F400.000
G1 X9.158 Y20.639 F400.000
G1 X9.105 Y20.617 F400.000
G1 X9.053 Y20.545 F400.000
G1 X9.026 Y20.432 F400.000
G1 X9.026 Y20.432 F400.000
G1 X9.034 Y20.252 F400.000
G1 X9.060 Y20.132 F400.000
G1 X9.109 Y20.023 F400.000
G1 X9.286 Y19.857 F400.000
G1 X9.489 Y19.733 F400.000
G1 X9.541 Y19.711 F400.000
G1 X9.906 Y19.643 F400.000
G1 X10.195 Y19.677 F400.000
G1 X10.357 Y19.744 F400.000
G1 X10.406 Y19.774 F400.000
G1 X10.447 Y19.816 F400.000
G1 X10.466 Y19.868 F400.000
G1 X10.466 Y20.094 F400.000
G1 X10.466 Y20.094 F400.000
G1 X10.436 Y20.211 F400.000
G1 X10.383 Y20.286 F400.000
G0 X10.361 Y20.297
G0 X10.207 Y20.320
G0 X9.293 Y20.342
G1 X9.259 Y20.346 F400.000
G1 X9.158 Y20.342 F400.000
G1 X9.105 Y20.316 F400.000
G1 X9.053 Y20.244 F400.000
G1 X9.026 Y20.132 F400.000
G1 X9.026 Y20.132 F400.000
G1 X9.038 Y19.951 F400.000
G1 X9.064 Y19.831 F400.000
G1 X9.117 Y19.722 F400.000
G1 X9.289 Y19.556 F400.000
G1 X9.387 Y19.489 F400.000
G1 X9.545 Y19.414 F400.000
G1 X9.910 Y19.346 F400.000
G1 X10.169 Y19.376 F400.000
G1 X10.331 Y19.432 F400.000
G1 X10.429 Y19.492 F400.000
G1 X10.459 Y19.541 F400.000
G1 X10.466 Y19.711 F400.000
G1 X10.466 Y19.711 F400.000
G1 X10.436 Y19.827 F400.000
G1 X10.383 Y19.902 F400.000
G0 X10.361 Y19.917
G0 X10.214 Y19.947
G0 X9.293 Y20.034
G1 X9.259 Y20.038 F400.000
G1 X9.158 Y20.038 F400.000
G1 X9.105 Y20.015 F400.000
G1 X9.053 Y19.944 F400.000
G1 X9.026 Y19.831 F400.000
G1 X9.026 Y19.831 F400.000
G1 X9.053 Y19.590 F400.000
G1 X9.090 Y19.474 F400.000
G1 X9.207 Y19.335 F400.000
G1 X9.395 Y19.195 F400.000
G1 X9.553 Y19.117 F400.000
G1 X9.917 Y19.053 F400.000
G1 X10.199 Y19.086 F400.000
G1 X10.361 Y19.154 F400.000
G1 X10.410 Y19.184 F400.000
G1 X10.447 Y19.229 F400.000
G1 X10.466 Y19.282 F400.000
G1 X10.466 Y19.395 F400.000
G1 X10.466 Y19.395 F400.000
G1 X10.436 Y19.511 F400.000
G1 X10.383 Y19.586 F400.000
G0 X10.361 Y19.602
G0 X10.214 Y19.635
G0 X9.293 Y19.729
G1 X9.259 Y19.733 F400.000
G1 X9.158 Y19.737 F400.000
G1 X9.105 Y19.714 F400.000
G1 X9.053 Y19.643 F400.000
G1 X9.026 Y19.530 F400.000
G1 X9.026 Y19.530 F400.000
G1 X9.053 Y19.289 F400.000
G1 X9.090 Y19.173 F400.000
G1 X9.120 Y19.120 F400.000
G1 X9.301 Y18.959 F400.000
G1 X9.504 Y18.838 F400.000
G1 X9.560 Y18.816 F400.000
G1 X9.925 Y18.756 F400.000
G1 X10.169 Y18.786 F400.000
G1 X10.278 Y18.820 F400.000
G1 X10.380 Y18.872 F400.000
G1 X10.425 Y18.906 F400.000
G1 X10.459 Y18.955 F400.000
G1 X10.466 Y19.180 F400.000
G1 X10.466 Y19.180 F400.000
G1 X10.436 Y19.297 F400.000
G1 X10.383 Y19.372 F400.000
G0 X10.361 Y19.387
G0 X10.207 Y19.410
G0 X9.293 Y19.444
G1 X9.259 Y19.447 F400.000
G1 X9.158 Y19.444 F400.000
G1 X9.105 Y19.417 F400.000
G1 X9.053 Y19.346 F400.000
G1 X9.026 Y19.233 F400.000
G1 X9.026 Y19.233 F400.000
G1 X9.053 Y18.992 F400.000
G1 X9.090 Y18.876 F400.000
G1 X9.207 Y18.737 F400.000
G1 X9.395 Y18.598 F400.000
G1 X9.556 Y18.523 F400.000
G1 X9.921 Y18.462 F400.000
G1 X10.162 Y18.489 F400.000
G1 X10.323 Y18.545 F400.000
G1 X10.421 Y18.605 F400.000
G1 X10.455 Y18.654 F400.000
G1 X10.466 Y18.711 F400.000
G1 X10.466 Y18.823 F400.000
G1 X10.466 Y18.823 F400.000
G1 X10.436 Y18.940 F400.000
G1 X10.383 Y19.015 F400.000
G0 X10.361 Y19.030
G0 X10.214 Y19.060
G0 X9.293 Y19.135
G1 X9.259 Y19.139 F400.000
G1 X9.158 Y19.139 F400.000
G1 X9.105 Y19.117 F400.000
G1 X9.053 Y19.045 F400.000
G1 X9.026 Y18.932 F400.000
G1 X9.026 Y18.932 F400.000
G1 X9.053 Y18.692 F400.000
G1 X9.090 Y18.575 F400.000
G1 X9.165 Y18.477 F400.000
G1 X9.353 Y18.327 F400.000
G1 X9.511 Y18.248 F400.000
G1 X9.872 Y18.173 F400.000
G1 X10.143 Y18.192 F400.000
G1 X10.256 Y18.222 F400.000
G1 X10.361 Y18.271 F400.000
G1 X10.410 Y18.305 F400.000
G1 X10.447 Y18.350 F400.000
G1 X10.466 Y18.402 F400.000
G1 X10.466 Y18.459 F400.000
G1 X10.466 Y18.459 F400.000
G1 X10.436 Y18.575 F400.000
G1 X10.383 Y18.650 F400.000
G0 X10.361 Y18.665
G0 X10.214 Y18.703
G0 X9.293 Y18.823
G1 X9.259 Y18.831 F400.000
G1 X9.158 Y18.835 F400.000
G1 X9.105 Y18.816 F400.000
G1 X9.053 Y18.744 F400.000
G1 X9.026 Y18.632 F400.000
G1 X9.026 Y18.632 F400.000
G1 X9.053 Y18.391 F400.000
G1 X9.098 Y18.274 F400.000
G1 X9.222 Y18.143 F400.000
G1 X9.365 Y18.034 F400.000
G1 X9.523 Y17.955 F400.000
G1 X9.883 Y17.876 F400.000
G1 X10.214 Y17.914 F400.000
G1 X10.368 Y17.981 F400.000
G1 X10.417 Y18.015 F400.000
G1 X10.451 Y18.060 F400.000
G1 X10.466 Y18.117 F400.000
G1 X10.466 Y18.117 F400.000
G1 X10.436 Y18.233 F400.000
G1 X10.383 Y18.308 F400.000
G0 X10.361 Y18.323
G0 X10.143 Y18.380
G0 X9.293 Y18.519
G1 X9.259 Y18.526 F400.000
G1 X9.158 Y18.534 F400.000
G1 X9.105 Y18.511 F400.000
G1 X9.053 Y18.444 F400.000
G1 X9.026 Y18.331 F400.000
G1 X9.026 Y18.331 F400.000
G1 X9.041 Y18.150 F400.000
G1 X9.075 Y18.034 F400.000
G1 X9.102 Y17.977 F400.000
G1 X9.226 Y17.846 F400.000
G1 X9.368 Y17.737 F400.000
G1 X9.526 Y17.654 F400.000
G1 X9.891 Y17.583 F400.000
G1 X10.128 Y17.602 F400.000
G1 X10.241 Y17.632 F400.000
G1 X10.395 Y17.711 F400.000
G1 X10.440 Y17.748 F400.000
G1 X10.466 Y17.801 F400.000
G1 X10.466 Y17.914 F400.000
G1 X10.466 Y17.914 F400.000
G1 X10.436 Y18.030 F400.000
G1 X10.383 Y18.105 F400.000
G0 X10.361 Y18.120
G0 X10.214 Y18.150
G0 X9.293 Y18.233
G1 X9.259 Y18.237 F400.000
G1 X9.158 Y18.237 F400.000
G1 X9.105 Y18.214 F400.000
G1 X9.053 Y18.143 F400.000
G1 X9.026 Y18.030 F400.000
G1 X9.026 Y18.030 F400.000
G1 X9.045 Y17.850 F400.000
G1 X9.079 Y17.733 F400.000
G1 X9.105 Y17.680 F400.000
G1 X9.229 Y17.553 F400.000
G1 X9.376 Y17.444 F400.000
G1 X9.534 Y17.361 F400.000
G1 X9.898 Y17.289 F400.000
G1 X10.132 Y17.308 F400.000
G1 X10.297 Y17.353 F400.000
G1 X10.398 Y17.410 F400.000
G1 X10.440 Y17.447 F400.000
G1 X10.466 Y17.500 F400.000
G1 X10.466 Y17.500 F400.000
G1 X10.436 Y17.617 F400.000
G1 X10.383 Y17.692 F400.000
G0 X10.361 Y17.711
G0 X10.143 Y17.774
G0 X9.289 Y17.974
G1 X9.256 Y17.981 F400.000
G1 X9.154 Y17.992 F400.000
G1 X9.105 Y17.974 F400.000
G1 X9.053 Y17.906 F400.000
G1 X9.026 Y17.793 F400.000
G1 X9.026 Y17.793 F400.000
G1 X9.034 Y17.613 F400.000
G1 X9.079 Y17.436 F400.000
G1 X9.105 Y17.380 F400.000
G1 X9.233 Y17.248 F400.000
G1 X9.432 Y17.113 F400.000
G1 X9.541 Y17.064 F400.000
G1 X9.906 Y16.996 F400.000
G1 X10.169 Y17.023 F400.000
G1 X10.331 Y17.079 F400.000
G1 X10.429 Y17.139 F400.000
G1 X10.459 Y17.188 F400.000
G1 X10.466 Y17.301 F400.000
G1 X10.466 Y17.301 F400.000
G1 X10.436 Y17.417 F400.000
G1 X10.383 Y17.492 F400.000
G0 X10.361 Y17.508
G0 X10.143 Y17.560
G0 X9.293 Y17.684
G1 X9.259 Y17.692 F400.000
G1 X9.158 Y17.695 F400.000
G1 X9.105 Y17.677 F400.000
G1 X9.053 Y17.605 F400.000
G1 X9.026 Y17.492 F400.000
G1 X9.026 Y17.492 F400.000
G1 X9.034 Y17.312 F400.000
G1 X9.060 Y17.192 F400.000
G1 X9.109 Y17.083 F400.000
G1 X9.233 Y16.955 F400.000
G1 X9.432 Y16.820 F400.000
G1 X9.541 Y16.771 F400.000
G1 X9.906 Y16.703 F400.000
G1 X10.218 Y16.741 F400.000
G1 X10.376 Y16.808 F400.000
G1 X10.425 Y16.842 F400.000
G1 X10.455 Y16.891 F400.000
G1 X10.466 Y16.947 F400.000
G1 X10.466 Y17.004 F400.000
G1 X10.466 Y17.004 F400.000
G1 X10.436 Y17.120 F400.000
G1 X10.383 Y17.195 F400.000
G0 X10.361 Y17.211
G0 X10.143 Y17.259
G0 X9.293 Y17.383
G1 X9.259 Y17.391 F400.000
G1 X9.158 Y17.395 F400.000
G1 X9.105 Y17.376 F400.000
G1 X9.053 Y17.305 F400.000
G1 X9.026 Y17.192 F400.000
G1 X9.026 Y17.192 F400.000
G1 X9.053 Y16.951 F400.000
G1 X9.090 Y16.835 F400.000
G1 X9.207 Y16.695 F400.000
G1 X9.346 Y16.583 F400.000
G1 X9.500 Y16.496 F400.000
G1 X9.556 Y16.474 F400.000
G1 X9.921 Y16.410 F400.000
G1 X10.177 Y16.436 F400.000
G1 X10.387 Y16.526 F400.000
G1 X10.432 Y16.560 F400.000
G1 X10.462 Y16.609 F400.000
G1 X10.466 Y16.778 F400.000
G1 X10.466 Y16.774 F400.000
G1 X10.436 Y16.891 F400.000
G1 X10.383 Y16.966 F400.000
G0 X10.361 Y16.981
G0 X10.214 Y17.011
G0 X9.293 Y17.094
G1 X9.259 Y17.098 F400.000
G1 X9.158 Y17.098 F400.000
G1 X9.105 Y17.075 F400.000
G1 X9.053 Y17.004 F400.000
G1 X9.026 Y16.891 F400.000
G1 X9.026 Y16.891 F400.000
G1 X9.053 Y16.650 F400.000
G1 X9.090 Y16.534 F400.000
G1 X9.207 Y16.395 F400.000
G1 X9.398 Y16.252 F400.000
G1 X9.560 Y16.173 F400.000
G1 X9.925 Y16.113 F400.000
G1 X10.218 Y16.150 F400.000
G1 X10.372 Y16.218 F400.000
G1 X10.421 Y16.252 F400.000
G1 X10.455 Y16.297 F400.000
G1 X10.466 Y16.353 F400.000
G1 X10.466 Y16.579 F400.000
G1 X10.466 Y16.579 F400.000
G1 X10.436 Y16.695 F400.000
G1 X10.383 Y16.767 F400.000
G0 X10.361 Y16.782
G0 X10.207 Y16.805
G0 X9.293 Y16.808
G1 X9.259 Y16.808 F400.000
G1 X9.158 Y16.801 F400.000
G1 X9.105 Y16.774 F400.000
G1 X9.053 Y16.703 F400.000
G1 X9.026 Y16.590 F400.000
G1 X9.026 Y16.590 F400.000
G1 X9.053 Y16.350 F400.000
G1 X9.090 Y16.233 F400.000
G1 X9.207 Y16.094 F400.000
G1 X9.395 Y15.955 F400.000
G1 X9.553 Y15.880 F400.000
G1 X9.917 Y15.816 F400.000
G1 X10.158 Y15.842 F400.000
G1 X10.323 Y15.898 F400.000
G1 X10.421 Y15.962 F400.000
G1 X10.455 Y16.008 F400.000
G1 X10.466 Y16.064 F400.000
G1 X10.466 Y16.120 F400.000
G1 X10.466 Y16.120 F400.000
G1 X10.436 Y16.237 F400.000
G1 X10.383 Y16.312 F400.000
G0 X10.361 Y16.327
G0 X10.214 Y16.365
G0 X9.293 Y16.485
G1 X9.259 Y16.492 F400.000
G1 X9.158 Y16.496 F400.000
G1 X9.105 Y16.477 F400.000
G1 X9.053 Y16.406 F400.000
G1 X9.026 Y16.293 F400.000
G1 X9.026 Y16.293 F400.000
G1 X9.053 Y16.053 F400.000
G1 X9.090 Y15.936 F400.000
G1 X9.165 Y15.838 F400.000
G1 X9.350 Y15.688 F400.000
G1 X9.556 Y15.583 F400.000
G1 X9.921 Y15.523 F400.000
G1 X10.165 Y15.553 F400.000
G1 X10.327 Y15.613 F400.000
G1 X10.425 Y15.673 F400.000
G1 X10.455 Y15.722 F400.000
G1 X10.466 Y15.778 F400.000
G1 X10.466 Y15.835 F400.000
G1 X10.466 Y15.835 F400.000
G1 X10.436 Y15.951 F400.000
G1 X10.383 Y16.026 F400.000
G0 X10.361 Y16.041
G0 X10.214 Y16.075
G0 X9.293 Y16.192
G1 X9.259 Y16.195 F400.000
G1 X9.158 Y16.199 F400.000
G1 X9.105 Y16.177 F400.000
G1 X9.053 Y16.105 F400.000
G1 X9.026 Y15.992 F400.000
G1 X9.026 Y15.992 F400.000
G1 X9.053 Y15.752 F400.000
G1 X9.094 Y15.635 F400.000
G1 X9.211 Y15.500 F400.000
G1 X9.353 Y15.391 F400.000
G1 X9.511 Y15.308 F400.000
G1 X9.876 Y15.233 F400.000
G1 X10.124 Y15.252 F400.000
G1 X10.289 Y15.301 F400.000
G1 X10.436 Y15.391 F400.000
G1 X10.466 Y15.440 F400.000
G1 X10.466 Y15.496 F400.000
G1 X10.466 Y15.496 F400.000
G1 X10.436 Y15.613 F400.000
G1 X10.383 Y15.688 F400.000
G0 X10.361 Y15.703
G0 X10.143 Y15.756
G0 X9.293 Y15.880
G1 X9.259 Y15.887 F400.000
G1 X9.158 Y15.895 F400.000
G1 X9.105 Y15.872 F400.000
G1 X9.053 Y15.805 F400.000
G1 X9.026 Y15.692 F400.000
G1 X9.026 Y15.692 F400.000
G1 X9.053 Y15.451 F400.000
G1 X9.068 Y15.391 F400.000
G1 X9.094 Y15.335 F400.000
G1 X9.218 Y15.203 F400.000
G1 X9.410 Y15.068 F400.000
G1 X9.515 Y15.015 F400.000
G1 X9.876 Y14.936 F400.000
G1 X10.169 Y14.959 F400.000
G1 X10.331 Y15.015 F400.000
G1 X10.429 Y15.079 F400.000
G1 X10.459 Y15.128 F400.000
G1 X10.466 Y15.184 F400.000
G1 X10.466 Y15.184 F400.000
G1 X10.436 Y15.301 F400.000
G1 X10.383 Y15.376 F400.000
G0 X10.361 Y15.391
G0 X10.143 Y15.444
G0 X9.293 Y15.579
G1 X9.259 Y15.586 F400.000
G1 X9.158 Y15.594 F400.000
G1 X9.105 Y15.571 F400.000
G1 X9.053 Y15.504 F400.000
G1 X9.026 Y15.391 F400.000
G1 X9.026 Y15.391 F400.000
G1 X9.053 Y15.150 F400.000
G1 X9.098 Y15.034 F400.000
G1 X9.222 Y14.902 F400.000
G1 X9.421 Y14.767 F400.000
G1 X9.526 Y14.718 F400.000
G1 X9.891 Y14.643 F400.000
G1 X10.158 Y14.665 F400.000
G1 X10.320 Y14.722 F400.000
G1 X10.417 Y14.782 F400.000
G1 X10.451 Y14.827 F400.000
G1 X10.466 Y14.883 F400.000
G1 X10.466 Y14.940 F400.000
G1 X10.466 Y14.940 F400.000
G1 X10.436 Y15.056 F400.000
G1 X10.383 Y15.132 F400.000
G0 X10.361 Y15.147
G0 X10.214 Y15.180
G0 X9.293 Y15.289
G1 X9.259 Y15.293 F400.000
G1 X9.158 Y15.297 F400.000
G1 X9.105 Y15.274 F400.000
G1 X9.053 Y15.203 F400.000
G1 X9.026 Y15.090 F400.000
G1 X9.026 Y15.090 F400.000
G1 X9.041 Y14.910 F400.000
G1 X9.075 Y14.793 F400.000
G1 X9.102 Y14.737 F400.000
G1 X9.271 Y14.571 F400.000
G1 X9.526 Y14.421 F400.000
G1 X9.891 Y14.350 F400.000
G1 X10.199 Y14.383 F400.000
G1 X10.361 Y14.451 F400.000
G1 X10.410 Y14.485 F400.000
G1 X10.447 Y14.526 F400.000
G1 X10.466 Y14.579 F400.000
G1 X10.466 Y14.579 F400.000
G1 X10.436 Y14.695 F400.000
G1 X10.383 Y14.771 F400.000
G0 X10.361 Y14.786
G0 X10.143 Y14.842
G0 X9.293 Y14.981
G1 X9.259 Y14.989 F400.000
G1 X9.158 Y14.996 F400.000
G1 X9.105 Y14.974 F400.000
G1 X9.053 Y14.906 F400.000
G1 X9.026 Y14.793 F400.000
G1 X9.026 Y14.793 F400.000
G1 X9.049 Y14.613 F400.000
G1 X9.083 Y14.496 F400.000
G1 X9.150 Y14.398 F400.000
G1 X9.331 Y14.241 F400.000
G1 X9.485 Y14.154 F400.000
G1 X9.541 Y14.132 F400.000
G1 X9.906 Y14.060 F400.000
G1 X10.199 Y14.094 F400.000
G1 X10.361 Y14.162 F400.000
G1 X10.410 Y14.192 F400.000
G1 X10.447 Y14.237 F400.000
G1 X10.466 Y14.289 F400.000
G1 X10.466 Y14.346 F400.000
G1 X10.466 Y14.346 F400.000
G1 X10.436 Y14.462 F400.000
G1 X10.383 Y14.538 F400.000
G0 X10.361 Y14.553
G0 X10.143 Y14.605
G0 X9.293 Y14.741
G1 X9.259 Y14.748 F400.000
G1 X9.158 Y14.756 F400.000
G1 X9.105 Y14.733 F400.000
G1 X9.053 Y14.665 F400.000
G1 X9.026 Y14.553 F400.000
G1 X9.026 Y14.553 F400.000
G1 X9.038 Y14.372 F400.000
G1 X9.064 Y14.252 F400.000
G1 X9.117 Y14.143 F400.000
G1 X9.244 Y14.015 F400.000
G1 X9.391 Y13.910 F400.000
G1 X9.549 Y13.835 F400.000
G1 X9.914 Y13.771 F400.000
G1 X10.211 Y13.805 F400.000
G1 X10.368 Y13.872 F400.000
G1 X10.417 Y13.906 F400.000
G1 X10.451 Y13.951 F400.000
G1 X10.466 Y14.008 F400.000
G1 X10.466 Y14.008 F400.000
G1 X10.436 Y14.124 F400.000
G1 X10.383 Y14.199 F400.000
G0 X10.361 Y14.214
G0 X10.143 Y14.274
G0 X9.293 Y14.436
G1 X9.259 Y14.444 F400.000
G1 X9.158 Y14.455 F400.000
G1 X9.105 Y14.432 F400.000
G1 X9.053 Y14.365 F400.000
G1 X9.026 Y14.252 F400.000
G1 X9.026 Y14.252 F400.000
G1 X9.053 Y14.011 F400.000
G1 X9.090 Y13.895 F400.000
G1 X9.207 Y13.756 F400.000
G1 X9.350 Y13.647 F400.000
G1 X9.508 Y13.564 F400.000
G1 X9.868 Y13.481 F400.000
G1 X10.147 Y13.500 F400.000
G1 X10.259 Y13.530 F400.000
G1 X10.365 Y13.579 F400.000
G1 X10.414 Y13.613 F400.000
G1 X10.451 Y13.658 F400.000
G1 X10.466 Y13.714 F400.000
G1 X10.466 Y13.771 F400.000
G1 X10.466 Y13.771 F400.000
G1 X10.436 Y13.887 F400.000
G1 X10.383 Y13.962 F400.000
G0 X10.361 Y13.977
G0 X10.143 Y14.026
G0 X9.293 Y14.143
G1 X9.259 Y14.150 F400.000
G1 X9.158 Y14.154 F400.000
G1 X9.105 Y14.135 F400.000
G1 X9.053 Y14.064 F400.000
G1 X9.026 Y13.951 F400.000
G1 X9.026 Y13.951 F400.000
G1 X9.053 Y13.711 F400.000
G1 X9.094 Y13.594 F400.000
G1 X9.169 Y13.504 F400.000
G1 X9.357 Y13.353 F400.000
G1 X9.515 Y13.271 F400.000
G1 X9.876 Y13.188 F400.000
G1 X10.154 Y13.207 F400.000
G1 X10.320 Y13.263 F400.000
G1 X10.417 Y13.320 F400.000
G1 X10.451 Y13.365 F400.000
G1 X10.466 Y13.421 F400.000
G1 X10.466 Y13.421 F400.000
G1 X10.436 Y13.538 F400.000
G1 X10.383 Y13.613 F400.000
G0 X10.361 Y13.628
G0 X10.143 Y13.684
G0 X9.293 Y13.835
G1 X9.259 Y13.842 F400.000
G1 X9.158 Y13.853 F400.000
G1 X9.105 Y13.831 F400.000
G1 X9.053 Y13.763 F400.000
G1 X9.026 Y13.650 F400.000
G1 X9.026 Y13.650 F400.000
G1 X9.053 Y13.410 F400.000
G1 X9.098 Y13.293 F400.000
G1 X9.267 Y13.124 F400.000
G1 X9.417 Y13.023 F400.000
G1 X9.523 Y12.970 F400.000
G1 X9.887 Y12.895 F400.000
G1 X10.135 Y12.910 F400.000
G1 X10.301 Y12.959 F400.000
G1 X10.402 Y13.019 F400.000
G1 X10.444 Y13.060 F400.000
G1 X10.466 Y13.113 F400.000
G1 X10.466 Y13.169 F400.000
G1 X10.466 Y13.169 F400.000
G1 X10.436 Y13.286 F400.000
G1 X10.383 Y13.361 F400.000
G0 X10.361 Y13.376
G0 X10.143 Y13.425
G0 X9.293 Y13.545
G1 X9.259 Y13.553 F400.000
G1 X9.158 Y13.556 F400.000
G1 X9.105 Y13.538 F400.000
G1 X9.053 Y13.466 F400.000
G1 X9.026 Y13.353 F400.000
G1 X9.026 Y13.353 F400.000
G1 X9.041 Y13.173 F400.000
G1 X9.075 Y13.053 F400.000
G1 X9.102 Y12.996 F400.000
G1 X9.226 Y12.865 F400.000
G1 X9.368 Y12.756 F400.000
G1 X9.526 Y12.677 F400.000
G1 X9.887 Y12.598 F400.000
G1 X10.158 Y12.620 F400.000
G1 X10.271 Y12.650 F400.000
G1 X10.372 Y12.699 F400.000
G1 X10.421 Y12.733 F400.000
G1 X10.455 Y12.778 F400.000
G1 X10.466 Y12.835 F400.000
G1 X10.466 Y12.947 F400.000
G1 X10.466 Y12.947 F400.000
G1 X10.436 Y13.064 F400.000
G1 X10.383 Y13.139 F400.000
G0 X10.361 Y13.154
G0 X10.214 Y13.192
G0 X9.293 Y13.308
G1 X9.259 Y13.312 F400.000
G1 X9.158 Y13.316 F400.000
G1 X9.105 Y13.297 F400.000
G1 X9.053 Y13.226 F400.000
G1 X9.026 Y13.113 F400.000
G1 X9.026 Y13.113 F400.000
G1 X9.041 Y12.872 F400.000
G1 X9.075 Y12.752 F400.000
G1 X9.102 Y12.695 F400.000
G1 X9.271 Y12.530 F400.000
G1 X9.421 Y12.429 F400.000
G1 X9.692 Y12.320 F400.000
G1 X9.974 Y12.282 F400.000
G1 X10.143 Y12.293 F400.000
G1 X10.305 Y12.350 F400.000
G1 X10.406 Y12.406 F400.000
G1 X10.444 Y12.451 F400.000
G1 X10.466 Y12.504 F400.000
G1 X10.466 Y12.617 F400.000
G1 X10.466 Y12.617 F400.000
G1 X10.436 Y12.733 F400.000
G1 X10.383 Y12.808 F400.000
G0 X10.361 Y12.823
G0 X10.143 Y12.876
G0 X9.293 Y13.000
G1 X9.259 Y13.008 F400.000
G1 X9.158 Y13.015 F400.000
G1 X9.105 Y12.992 F400.000
G1 X9.053 Y12.925 F400.000
G1 X9.026 Y12.812 F400.000
G1 X9.026 Y12.812 F400.000
G1 X9.041 Y12.571 F400.000
G1 X9.075 Y12.455 F400.000
G1 X9.139 Y12.353 F400.000
G1 X9.316 Y12.192 F400.000
G1 X9.466 Y12.098 F400.000
G1 X9.692 Y12.034 F400.000
G1 X10.030 Y12.034 F400.000
G1 X10.199 Y12.075 F400.000
G1 X10.342 Y12.173 F400.000
G1 X10.432 Y12.320 F400.000
G1 X10.432 Y12.320 F400.000
G1 X10.436 Y12.436 F400.000
G1 X10.406 Y12.519 F400.000
G0 X10.387 Y12.534
G0 X10.241 Y12.575
G0 X9.293 Y12.703
G1 X9.259 Y12.711 F400.000
G1 X9.158 Y12.714 F400.000
G1 X9.105 Y12.695 F400.000
G1 X9.053 Y12.624 F400.000
G1 X9.026 Y12.511 F400.000
G1 X9.026 Y12.511 F400.000
G1 X9.030 Y12.451 F400.000
G1 X9.060 Y12.331 F400.000
G1 X9.158 Y12.177 F400.000
G1 X9.248 Y12.102 F400.000
G1 X9.301 Y12.071 F400.000
G1 X9.414 Y12.041 F400.000
G1 X9.414 Y12.041 F400.000
G1 X9.560 Y12.049 F400.000
G1 X9.609 Y12.071 F400.000
G0 X9.628 Y12.090
G0 X9.650 Y12.195
G0 X10.139 Y34.139
G0 X10.083 Y34.451
G0 X10.090 Y34.508
G0 X10.233 Y34.669
G1 X10.256 Y34.692 F400.000
G1 X10.406 Y34.857 F400.000
G1 X10.451 Y34.977 F400.000
G1 X10.462 Y35.041 F400.000
G1 X10.462 Y35.041 F400.000
G1 X10.459 Y35.323 F400.000
G1 X10.425 Y35.492 F400.000
G1 X10.380 Y35.602 F400.000
G1 X10.226 Y35.786 F400.000
G1 X10.132 Y35.861 F400.000
G1 X10.023 Y35.917 F400.000
G1 X9.842 Y35.917 F400.000
G1 X9.842 Y35.917 F400.000
G1 X9.714 Y35.887 F400.000
G1 X9.662 Y35.857 F400.000
G1 X9.643 Y35.838 F400.000
G0 X9.639 Y35.820
G0 X9.699 Y35.744
G0 X10.226 Y35.331
G1 X10.248 Y35.312 F400.000
G1 X10.323 Y35.259 F400.000
G1 X10.368 Y35.256 F400.000
G1 X10.406 Y35.286 F400.000
G1 X10.444 Y35.368 F400.000
G1 X10.462 Y35.462 F400.000
G1 X10.462 Y35.462 F400.000
G1 X10.462 Y35.519 F400.000
G1 X10.429 Y35.632 F400.000
G1 X10.368 Y35.733 F400.000
G1 X10.331 Y35.778 F400.000
G1 X10.237 Y35.850 F400.000
G1 X10.124 Y35.898 F400.000
G1 X10.124 Y35.898 F400.000
G1 X9.962 Y35.891 F400.000
G1 X9.932 Y35.883 F400.000
G1 X9.902 Y35.876 F400.000
G0 X9.872 Y35.868
G0 X8.962 Y35.831
G1 X8.925 Y35.831 F400.000
G1 X8.823 Y35.835 F400.000
G1 X8.560 Y35.917 F400.000
G1 X8.560 Y35.917 F400.000
G1 X8.259 Y35.906 F400.000
G1 X8.079 Y35.861 F400.000
G1 X7.917 Y35.767 F400.000
G1 X7.771 Y35.650 F400.000
G1 X7.560 Y35.417 F400.000
G1 X7.365 Y35.098 F400.000
G1 X7.263 Y34.737 F400.000
G1 X7.263 Y34.617 F400.000
G1 X7.278 Y34.556 F400.000
G1 X7.278 Y34.553 F400.000
G1 X7.391 Y34.508 F400.000
G1 X7.474 Y34.508 F400.000
G0 X7.500 Y34.519
G0 X7.598 Y34.639
G0 X8.259 Y35.669
G1 X8.278 Y35.695 F400.000
G1 X8.335 Y35.797 F400.000
G1 X8.320 Y35.842 F400.000
G1 X8.252 Y35.891 F400.000
G1 X8.139 Y35.917 F400.000
G1 X8.139 Y35.917 F400.000
G1 X7.898 Y35.906 F400.000
G1 X7.718 Y35.861 F400.000
G1 X7.508 Y35.726 F400.000
G1 X7.327 Y35.553 F400.000
G1 X7.211 Y35.406 F400.000
G1 X7.038 Y35.071 F400.000
G1 X7.000 Y34.891 F400.000
G1 X6.996 Y34.771 F400.000
G1 X7.004 Y34.711 F400.000
G1 X7.045 Y34.669 F400.000
G1 X7.045 Y34.669 F400.000
G1 X7.192 Y34.624 F400.000
G1 X7.244 Y34.632 F400.000
G0 X7.271 Y34.643
G0 X7.365 Y34.763
G0 X7.906 Y35.665
G1 X7.921 Y35.692 F400.000
G1 X7.974 Y35.797 F400.000
G1 X7.959 Y35.842 F400.000
G1 X7.891 Y35.891 F400.000
G1 X7.778 Y35.917 F400.000
G1 X7.778 Y35.917 F400.000
G1 X7.538 Y35.906 F400.000
G1 X7.357 Y35.861 F400.000
G1 X7.199 Y35.756 F400.000
G1 X7.060 Y35.628 F400.000
G1 X6.940 Y35.481 F400.000
G1 X6.906 Y35.429 F400.000
G1 X6.756 Y35.086 F400.000
G1 X6.741 Y34.906 F400.000
G1 X6.748 Y34.846 F400.000
G1 X6.771 Y34.789 F400.000
G1 X6.771 Y34.789 F400.000
G1 X6.887 Y34.759 F400.000
G1 X6.970 Y34.771 F400.000
G0 X6.996 Y34.786
G0 X7.124 Y34.966
G0 X7.545 Y35.665
G1 X7.560 Y35.692 F400.000
G1 X7.613 Y35.797 F400.000
G1 X7.598 Y35.842 F400.000
G1 X7.530 Y35.891 F400.000
G1 X7.417 Y35.917 F400.000
G1 X7.417 Y35.917 F400.000
G1 X7.237 Y35.906 F400.000
G1 X7.056 Y35.861 F400.000
G1 X7.000 Y35.835 F400.000
G1 X6.850 Y35.718 F400.000
G1 X6.680 Y35.530 F400.000
G1 X6.617 Y35.425 F400.000
G1 X6.504 Y35.068 F400.000
G1 X6.511 Y34.947 F400.000
G1 X6.526 Y34.887 F400.000
G1 X6.526 Y34.887 F400.000
G1 X6.643 Y34.872 F400.000
G1 X6.729 Y34.895 F400.000
G0 X6.752 Y34.910
G0 X7.244 Y35.669
G1 X7.259 Y35.695 F400.000
G1 X7.316 Y35.797 F400.000
G1 X7.301 Y35.842 F400.000
G1 X7.233 Y35.891 F400.000
G1 X7.120 Y35.917 F400.000
G1 X7.120 Y35.917 F400.000
G1 X6.940 Y35.910 F400.000
G1 X6.759 Y35.865 F400.000
G1 X6.703 Y35.838 F400.000
G1 X6.519 Y35.669 F400.000
G1 X6.406 Y35.519 F400.000
G1 X6.327 Y35.350 F400.000
G1 X6.282 Y35.169 F400.000
G1 X6.282 Y35.049 F400.000
G1 X6.293 Y34.989 F400.000
G1 X6.323 Y34.936 F400.000
G1 X6.323 Y34.936 F400.000
G1 X6.440 Y34.921 F400.000
G1 X6.526 Y34.944 F400.000
G0 X6.549 Y34.959
G0 X6.951 Y35.665
G1 X6.966 Y35.692 F400.000
G1 X7.015 Y35.797 F400.000
G1 X7.000 Y35.842 F400.000
G1 X6.932 Y35.891 F400.000
G1 X6.820 Y35.917 F400.000
G1 X6.820 Y35.917 F400.000
G1 X6.639 Y35.906 F400.000
G1 X6.459 Y35.853 F400.000
G1 X6.357 Y35.778 F400.000
G1 X6.195 Y35.586 F400.000
G1 X6.105 Y35.421 F400.000
G1 X6.060 Y35.241 F400.000
G1 X6.056 Y35.120 F400.000
G1 X6.086 Y35.004 F400.000
G1 X6.132 Y34.966 F400.000
G1 X6.132 Y34.966 F400.000
G1 X6.259 Y34.977 F400.000
G1 X6.323 Y35.004 F400.000
G0 X6.346 Y35.023
G0 X6.662 Y35.658
G1 X6.677 Y35.684 F400.000
G1 X6.718 Y35.793 F400.000
G1 X6.703 Y35.842 F400.000
G1 X6.632 Y35.891 F400.000
G1 X6.519 Y35.917 F400.000
G1 X6.519 Y35.917 F400.000
G1 X6.338 Y35.898 F400.000
G1 X6.218 Y35.861 F400.000
G1 X6.162 Y35.831 F400.000
G1 X6.068 Y35.744 F400.000
G1 X5.955 Y35.594 F400.000
G1 X5.876 Y35.421 F400.000
G1 X5.838 Y35.241 F400.000
G1 X5.846 Y35.120 F400.000
G1 X5.865 Y35.060 F400.000
G1 X5.895 Y35.008 F400.000
G1 X5.895 Y35.008 F400.000
G1 X6.011 Y35.008 F400.000
G1 X6.094 Y35.038 F400.000
G0 X6.117 Y35.060
G0 X6.421 Y35.662
G1 X6.432 Y35.688 F400.000
G1 X6.477 Y35.797 F400.000
G1 X6.462 Y35.842 F400.000
G1 X6.391 Y35.891 F400.000
G1 X6.278 Y35.917 F400.000
G1 X6.278 Y35.917 F400.000
G1 X6.158 Y35.914 F400.000
G1 X6.038 Y35.887 F400.000
G1 X5.921 Y35.835 F400.000
G1 X5.789 Y35.699 F400.000
G1 X5.722 Y35.594 F400.000
G1 X5.669 Y35.481 F400.000
G1 X5.635 Y35.361 F400.000
G1 X5.624 Y35.241 F400.000
G1 X5.639 Y35.120 F400.000
G1 X5.662 Y35.064 F400.000
G1 X5.703 Y35.019 F400.000
G1 X5.703 Y35.015 F400.000
G1 X5.820 Y35.026 F400.000
G1 X5.898 Y35.068 F400.000
G0 X5.917 Y35.086
G0 X6.184 Y35.658
G1 X6.199 Y35.684 F400.000
G1 X6.237 Y35.793 F400.000
G1 X6.222 Y35.842 F400.000
G1 X6.150 Y35.891 F400.000
G1 X6.038 Y35.917 F400.000
G1 X6.038 Y35.917 F400.000
G1 X5.917 Y35.914 F400.000
G1 X5.797 Y35.887 F400.000
G1 X5.684 Y35.835 F400.000
G1 X5.598 Y35.748 F400.000
G1 X5.496 Y35.590 F400.000
G1 X5.447 Y35.477 F400.000
G1 X5.414 Y35.297 F400.000
G1 X5.421 Y35.177 F400.000
G1 X5.436 Y35.117 F400.000
G1 X5.462 Y35.060 F400.000
G1 X5.511 Y35.026 F400.000
G1 X5.511 Y35.026 F400.000
G1 X5.628 Y35.045 F400.000
G1 X5.703 Y35.090 F400.000
G0 X5.726 Y35.113
G0 X5.955 Y35.654
G1 X5.966 Y35.680 F400.000
G1 X6.000 Y35.793 F400.000
G1 X5.985 Y35.842 F400.000
G1 X5.914 Y35.891 F400.000
G1 X5.801 Y35.917 F400.000
G1 X5.801 Y35.917 F400.000
G1 X5.620 Y35.898 F400.000
G1 X5.504 Y35.853 F400.000
G1 X5.406 Y35.771 F400.000
G1 X5.293 Y35.617 F400.000
G1 X5.226 Y35.444 F400.000
G1 X5.207 Y35.323 F400.000
G1 X5.214 Y35.203 F400.000
G1 X5.252 Y35.086 F400.000
G1 X5.289 Y35.041 F400.000
G1 X5.289 Y35.041 F400.000
G1 X5.406 Y35.056 F400.000
G1 X5.481 Y35.102 F400.000
G0 X5.500 Y35.124
G0 X5.718 Y35.654
G1 X5.729 Y35.680 F400.000
G1 X5.759 Y35.793 F400.000
G1 X5.744 Y35.842 F400.000
G1 X5.673 Y35.891 F400.000
G1 X5.560 Y35.917 F400.000
G1 X5.560 Y35.917 F400.000
G1 X5.440 Y35.906 F400.000
G1 X5.320 Y35.872 F400.000
G1 X5.263 Y35.846 F400.000
G1 X5.139 Y35.707 F400.000
G1 X5.049 Y35.541 F400.000
G1 X5.004 Y35.361 F400.000
G1 X5.004 Y35.241 F400.000
G1 X5.034 Y35.120 F400.000
G1 X5.060 Y35.064 F400.000
G1 X5.109 Y35.026 F400.000
G1 X5.109 Y35.026 F400.000
G1 X5.226 Y35.045 F400.000
G1 X5.301 Y35.090 F400.000
G0 X5.320 Y35.113
G0 X5.538 Y35.654
G1 X5.549 Y35.680 F400.000
G1 X5.579 Y35.793 F400.000
G1 X5.564 Y35.842 F400.000
G1 X5.492 Y35.891 F400.000
G1 X5.380 Y35.917 F400.000
G1 X5.380 Y35.917 F400.000
G1 X5.259 Y35.914 F400.000
G1 X5.139 Y35.887 F400.000
G1 X5.083 Y35.865 F400.000
G1 X5.030 Y35.831 F400.000
G1 X4.944 Y35.737 F400.000
G1 X4.853 Y35.571 F400.000
G1 X4.805 Y35.391 F400.000
G1 X4.797 Y35.271 F400.000
G1 X4.820 Y35.150 F400.000
G1 X4.842 Y35.094 F400.000
G1 X4.876 Y35.041 F400.000
G1 X4.876 Y35.041 F400.000
G1 X4.992 Y35.056 F400.000
G1 X5.068 Y35.102 F400.000
G0 X5.086 Y35.124
G0 X5.301 Y35.654
G1 X5.308 Y35.680 F400.000
G1 X5.342 Y35.793 F400.000
G1 X5.323 Y35.842 F400.000
G1 X5.252 Y35.891 F400.000
G1 X5.139 Y35.917 F400.000
G1 X5.139 Y35.917 F400.000
G1 X5.019 Y35.910 F400.000
G1 X4.898 Y35.876 F400.000
G1 X4.842 Y35.846 F400.000
G1 X4.756 Y35.759 F400.000
G1 X4.684 Y35.658 F400.000
G1 X4.632 Y35.545 F400.000
G1 X4.598 Y35.425 F400.000
G1 X4.586 Y35.305 F400.000
G1 X4.598 Y35.184 F400.000
G1 X4.643 Y35.068 F400.000
G1 X4.688 Y35.030 F400.000
G1 X4.688 Y35.030 F400.000
G1 X4.805 Y35.045 F400.000
G1 X4.880 Y35.090 F400.000
G0 X4.898 Y35.113
G0 X5.068 Y35.647
G1 X5.079 Y35.677 F400.000
G1 X5.102 Y35.793 F400.000
G1 X5.083 Y35.842 F400.000
G1 X5.011 Y35.891 F400.000
G1 X4.898 Y35.917 F400.000
G1 X4.898 Y35.917 F400.000
G1 X4.778 Y35.898 F400.000
G1 X4.662 Y35.853 F400.000
G1 X4.609 Y35.816 F400.000
G1 X4.496 Y35.669 F400.000
G1 X4.417 Y35.496 F400.000
G1 X4.383 Y35.316 F400.000
G1 X4.391 Y35.195 F400.000
G1 X4.432 Y35.079 F400.000
G1 X4.474 Y35.034 F400.000
G1 X4.474 Y35.034 F400.000
G1 X4.590 Y35.049 F400.000
G1 X4.665 Y35.094 F400.000
G0 X4.684 Y35.117
G0 X4.883 Y35.654
G1 X4.891 Y35.680 F400.000
G1 X4.921 Y35.793 F400.000
G1 X4.902 Y35.842 F400.000
G1 X4.831 Y35.891 F400.000
G1 X4.718 Y35.917 F400.000
G1 X4.718 Y35.917 F400.000
G1 X4.658 Y35.917 F400.000
G1 X4.538 Y35.891 F400.000
G1 X4.477 Y35.868 F400.000
G1 X4.425 Y35.835 F400.000
G1 X4.301 Y35.695 F400.000
G1 X4.218 Y35.530 F400.000
G1 X4.180 Y35.350 F400.000
G1 X4.180 Y35.229 F400.000
G1 X4.211 Y35.113 F400.000
G1 X4.237 Y35.060 F400.000
G1 X4.286 Y35.026 F400.000
G1 X4.286 Y35.026 F400.000
G1 X4.402 Y35.045 F400.000
G1 X4.477 Y35.090 F400.000
G0 X4.496 Y35.113
G0 X4.699 Y35.654
G1 X4.711 Y35.680 F400.000
G1 X4.741 Y35.793 F400.000
G1 X4.722 Y35.842 F400.000
G1 X4.650 Y35.891 F400.000
G1 X4.538 Y35.917 F400.000
G1 X4.538 Y35.917 F400.000
G1 X4.357 Y35.898 F400.000
G1 X4.241 Y35.853 F400.000
G1 X4.192 Y35.816 F400.000
G1 X4.079 Y35.669 F400.000
G1 X4.023 Y35.556 F400.000
G1 X3.977 Y35.376 F400.000
G1 X3.970 Y35.256 F400.000
G1 X3.977 Y35.195 F400.000
G1 X4.019 Y35.079 F400.000
G1 X4.060 Y35.034 F400.000
G1 X4.060 Y35.034 F400.000
G1 X4.177 Y35.049 F400.000
G1 X4.252 Y35.094 F400.000
G0 X4.271 Y35.117
G0 X4.466 Y35.654
G1 X4.477 Y35.680 F400.000
G1 X4.504 Y35.793 F400.000
G1 X4.485 Y35.842 F400.000
G1 X4.414 Y35.891 F400.000
G1 X4.301 Y35.917 F400.000
G1 X4.301 Y35.917 F400.000
G1 X4.241 Y35.917 F400.000
G1 X4.120 Y35.891 F400.000
G1 X4.008 Y35.838 F400.000
G1 X3.883 Y35.692 F400.000
G1 X3.801 Y35.526 F400.000
G1 X3.767 Y35.346 F400.000
G1 X3.767 Y35.226 F400.000
G1 X3.797 Y35.109 F400.000
G1 X3.823 Y35.056 F400.000
G1 X3.876 Y35.026 F400.000
G1 X3.876 Y35.026 F400.000
G1 X3.992 Y35.045 F400.000
G1 X4.068 Y35.090 F400.000
G0 X4.086 Y35.113
G0 X4.286 Y35.654
G1 X4.293 Y35.680 F400.000
G1 X4.323 Y35.793 F400.000
G1 X4.305 Y35.842 F400.000
G1 X4.233 Y35.891 F400.000
G1 X4.120 Y35.917 F400.000
G1 X4.120 Y35.917 F400.000
G1 X3.940 Y35.898 F400.000
G1 X3.823 Y35.853 F400.000
G1 X3.774 Y35.816 F400.000
G1 X3.662 Y35.669 F400.000
G1 X3.605 Y35.556 F400.000
G1 X3.560 Y35.376 F400.000
G1 X3.556 Y35.256 F400.000
G1 X3.564 Y35.195 F400.000
G1 X3.605 Y35.079 F400.000
G1 X3.647 Y35.034 F400.000
G1 X3.647 Y35.034 F400.000
G1 X3.763 Y35.049 F400.000
G1 X3.838 Y35.094 F400.000
G0 X3.857 Y35.117
G0 X4.045 Y35.654
G1 X4.056 Y35.680 F400.000
G1 X4.083 Y35.793 F400.000
G1 X4.064 Y35.842 F400.000
G1 X3.992 Y35.891 F400.000
G1 X3.880 Y35.917 F400.000
G1 X3.880 Y35.917 F400.000
G1 X3.699 Y35.887 F400.000
G1 X3.643 Y35.865 F400.000
G1 X3.590 Y35.831 F400.000
G1 X3.466 Y35.684 F400.000
G1 X3.406 Y35.575 F400.000
G1 X3.357 Y35.395 F400.000
G1 X3.350 Y35.274 F400.000
G1 X3.372 Y35.154 F400.000
G1 X3.425 Y35.045 F400.000
G1 X3.425 Y35.045 F400.000
G1 X3.541 Y35.060 F400.000
G1 X3.617 Y35.105 F400.000
G0 X3.639 Y35.128
G0 X3.857 Y35.654
G1 X3.868 Y35.684 F400.000
G1 X3.898 Y35.793 F400.000
G1 X3.883 Y35.842 F400.000
G1 X3.812 Y35.891 F400.000
G1 X3.699 Y35.917 F400.000
G1 X3.699 Y35.917 F400.000
G1 X3.519 Y35.898 F400.000
G1 X3.402 Y35.853 F400.000
G1 X3.353 Y35.816 F400.000
G1 X3.241 Y35.662 F400.000
G1 X3.188 Y35.549 F400.000
G1 X3.150 Y35.368 F400.000
G1 X3.147 Y35.248 F400.000
G1 X3.154 Y35.188 F400.000
G1 X3.199 Y35.071 F400.000
G1 X3.244 Y35.034 F400.000
G1 X3.244 Y35.034 F400.000
G1 X3.361 Y35.049 F400.000
G1 X3.436 Y35.094 F400.000
G0 X3.455 Y35.117
G0 X3.628 Y35.647
G1 X3.639 Y35.677 F400.000
G1 X3.662 Y35.793 F400.000
G1 X3.643 Y35.842 F400.000
G1 X3.571 Y35.891 F400.000
G1 X3.459 Y35.917 F400.000
G1 X3.459 Y35.917 F400.000
G1 X3.278 Y35.887 F400.000
G1 X3.222 Y35.865 F400.000
G1 X3.169 Y35.831 F400.000
G1 X3.086 Y35.737 F400.000
G1 X2.996 Y35.571 F400.000
G1 X2.947 Y35.391 F400.000
G1 X2.940 Y35.271 F400.000
G1 X2.962 Y35.150 F400.000
G1 X3.015 Y35.041 F400.000
G1 X3.015 Y35.041 F400.000
G1 X3.132 Y35.056 F400.000
G1 X3.207 Y35.102 F400.000
G0 X3.226 Y35.124
G0 X3.440 Y35.654
G1 X3.447 Y35.680 F400.000
G1 X3.481 Y35.793 F400.000
G1 X3.462 Y35.842 F400.000
G1 X3.391 Y35.891 F400.000
G1 X3.278 Y35.917 F400.000
G1 X3.278 Y35.917 F400.000
G1 X3.218 Y35.917 F400.000
G1 X3.038 Y35.872 F400.000
G1 X2.981 Y35.842 F400.000
G1 X2.857 Y35.703 F400.000
G1 X2.793 Y35.594 F400.000
G1 X2.752 Y35.474 F400.000
G1 X2.729 Y35.293 F400.000
G1 X2.744 Y35.173 F400.000
G1 X2.789 Y35.060 F400.000
G1 X2.838 Y35.026 F400.000
G1 X2.838 Y35.026 F400.000
G1 X2.955 Y35.045 F400.000
G1 X3.030 Y35.090 F400.000
G0 X3.049 Y35.113
G0 X3.211 Y35.647
G1 X3.218 Y35.677 F400.000
G1 X3.241 Y35.793 F400.000
G1 X3.222 Y35.842 F400.000
G1 X3.150 Y35.891 F400.000
G1 X3.038 Y35.917 F400.000
G1 X3.038 Y35.917 F400.000
G1 X2.917 Y35.898 F400.000
G1 X2.801 Y35.853 F400.000
G1 X2.707 Y35.771 F400.000
G1 X2.605 Y35.617 F400.000
G1 X2.556 Y35.500 F400.000
G1 X2.523 Y35.320 F400.000
G1 X2.530 Y35.199 F400.000
G1 X2.545 Y35.139 F400.000
G1 X2.571 Y35.083 F400.000
G1 X2.613 Y35.038 F400.000
G1 X2.613 Y35.038 F400.000
G1 X2.729 Y35.053 F400.000
G1 X2.805 Y35.098 F400.000
G0 X2.823 Y35.120
G0 X3.023 Y35.654
G1 X3.030 Y35.680 F400.000
G1 X3.060 Y35.793 F400.000
G1 X3.041 Y35.842 F400.000
G1 X2.970 Y35.891 F400.000
G1 X2.857 Y35.917 F400.000
G1 X2.857 Y35.917 F400.000
G1 X2.737 Y35.906 F400.000
G1 X2.617 Y35.868 F400.000
G1 X2.564 Y35.835 F400.000
G1 X2.440 Y35.695 F400.000
G1 X2.380 Y35.586 F400.000
G1 X2.338 Y35.466 F400.000
G1 X2.316 Y35.286 F400.000
G1 X2.331 Y35.165 F400.000
G1 X2.383 Y35.056 F400.000
G1 X2.432 Y35.026 F400.000
G1 X2.432 Y35.026 F400.000
G1 X2.549 Y35.045 F400.000
G1 X2.624 Y35.090 F400.000
G0 X2.643 Y35.113
G0 X2.793 Y35.647
G1 X2.805 Y35.677 F400.000
G1 X2.823 Y35.793 F400.000
G1 X2.805 Y35.842 F400.000
G1 X2.733 Y35.891 F400.000
G1 X2.620 Y35.917 F400.000
G1 X2.620 Y35.917 F400.000
G1 X2.500 Y35.898 F400.000
G1 X2.383 Y35.853 F400.000
G1 X2.335 Y35.816 F400.000
G1 X2.222 Y35.669 F400.000
G1 X2.165 Y35.556 F400.000
G1 X2.120 Y35.376 F400.000
G1 X2.117 Y35.256 F400.000
G1 X2.124 Y35.195 F400.000
G1 X2.165 Y35.079 F400.000
G1 X2.207 Y35.034 F400.000
G1 X2.207 Y35.034 F400.000
G1 X2.323 Y35.049 F400.000
G1 X2.398 Y35.094 F400.000
G0 X2.417 Y35.117
G0 X2.605 Y35.654
G1 X2.617 Y35.680 F400.000
G1 X2.643 Y35.793 F400.000
G1 X2.624 Y35.842 F400.000
G1 X2.553 Y35.891 F400.000
G1 X2.440 Y35.917 F400.000
G1 X2.440 Y35.917 F400.000
G1 X2.259 Y35.887 F400.000
G1 X2.199 Y35.865 F400.000
G1 X2.147 Y35.831 F400.000
G1 X2.023 Y35.684 F400.000
G1 X1.944 Y35.511 F400.000
G1 X1.910 Y35.331 F400.000
G1 X1.917 Y35.211 F400.000
G1 X1.955 Y35.094 F400.000
G1 X1.985 Y35.041 F400.000
G1 X1.985 Y35.041 F400.000
G1 X2.102 Y35.056 F400.000
G1 X2.177 Y35.102 F400.000
G0 X2.199 Y35.124
G0 X2.417 Y35.654
G1 X2.429 Y35.680 F400.000
G1 X2.459 Y35.793 F400.000
G1 X2.444 Y35.842 F400.000
G1 X2.372 Y35.891 F400.000
G1 X2.259 Y35.917 F400.000
G1 X2.259 Y35.917 F400.000
G1 X2.079 Y35.898 F400.000
G1 X1.962 Y35.853 F400.000
G1 X1.872 Y35.767 F400.000
G1 X1.801 Y35.665 F400.000
G1 X1.733 Y35.489 F400.000
G1 X1.707 Y35.308 F400.000
G1 X1.714 Y35.188 F400.000
G1 X1.756 Y35.071 F400.000
G1 X1.801 Y35.030 F400.000
G1 X1.801 Y35.030 F400.000
G1 X1.917 Y35.045 F400.000
G1 X1.992 Y35.090 F400.000
G0 X2.011 Y35.113
G0 X2.188 Y35.650
G1 X2.199 Y35.680 F400.000
G1 X2.222 Y35.793 F400.000
G1 X2.203 Y35.842 F400.000
G1 X2.132 Y35.891 F400.000
G1 X2.019 Y35.917 F400.000
G1 X2.019 Y35.917 F400.000
G1 X1.838 Y35.887 F400.000
G1 X1.782 Y35.865 F400.000
G1 X1.729 Y35.831 F400.000
G1 X1.579 Y35.632 F400.000
G1 X1.530 Y35.515 F400.000
G1 X1.496 Y35.335 F400.000
G1 X1.492 Y35.274 F400.000
G1 X1.515 Y35.154 F400.000
G1 X1.568 Y35.045 F400.000
G1 X1.568 Y35.045 F400.000
G1 X1.684 Y35.060 F400.000
G1 X1.759 Y35.105 F400.000
G0 X1.778 Y35.128
G0 X1.996 Y35.654
G1 X2.008 Y35.684 F400.000
G1 X2.038 Y35.793 F400.000
G1 X2.023 Y35.842 F400.000
G1 X1.951 Y35.891 F400.000
G1 X1.838 Y35.917 F400.000
G1 X1.838 Y35.917 F400.000
G1 X1.718 Y35.910 F400.000
G1 X1.598 Y35.876 F400.000
G1 X1.541 Y35.846 F400.000
G1 X1.455 Y35.752 F400.000
G1 X1.365 Y35.586 F400.000
G1 X1.323 Y35.466 F400.000
G1 X1.308 Y35.286 F400.000
G1 X1.323 Y35.165 F400.000
G1 X1.342 Y35.109 F400.000
G1 X1.372 Y35.056 F400.000
G1 X1.421 Y35.026 F400.000
G1 X1.421 Y35.026 F400.000
G1 X1.538 Y35.045 F400.000
G1 X1.613 Y35.090 F400.000
G0 X1.632 Y35.113
G0 X1.778 Y35.647
G1 X1.786 Y35.677 F400.000
G1 X1.805 Y35.793 F400.000
G1 X1.782 Y35.842 F400.000
G1 X1.714 Y35.891 F400.000
G1 X1.598 Y35.917 F400.000
G1 X1.598 Y35.917 F400.000
G1 X1.477 Y35.898 F400.000
G1 X1.361 Y35.853 F400.000
G1 X1.312 Y35.812 F400.000
G1 X1.237 Y35.711 F400.000
G1 X1.184 Y35.598 F400.000
G1 X1.139 Y35.417 F400.000
G1 X1.135 Y35.237 F400.000
G1 X1.165 Y35.117 F400.000
G1 X1.192 Y35.064 F400.000
G1 X1.237 Y35.026 F400.000
G1 X1.237 Y35.026 F400.000
G1 X1.353 Y35.045 F400.000
G1 X1.429 Y35.090 F400.000
G0 X1.447 Y35.113
G0 X1.594 Y35.647
G1 X1.602 Y35.677 F400.000
G1 X1.624 Y35.793 F400.000
G1 X1.602 Y35.842 F400.000
G1 X1.534 Y35.891 F400.000
G1 X1.417 Y35.917 F400.000
G1 X1.417 Y35.917 F400.000
G1 X1.297 Y35.902 F400.000
G1 X1.180 Y35.857 F400.000
G1 X1.132 Y35.816 F400.000
G1 X1.030 Y35.658 F400.000
G1 X0.974 Y35.481 F400.000
G1 X0.955 Y35.361 F400.000
G1 X0.959 Y35.241 F400.000
G1 X0.989 Y35.120 F400.000
G1 X1.015 Y35.064 F400.000
G1 X1.064 Y35.026 F400.000
G1 X1.064 Y35.026 F400.000
G1 X1.180 Y35.045 F400.000
G1 X1.256 Y35.090 F400.000
G0 X1.274 Y35.113
G0 X1.421 Y35.647
G1 X1.429 Y35.677 F400.000
G1 X1.447 Y35.793 F400.000
G1 X1.425 Y35.842 F400.000
G1 X1.357 Y35.891 F400.000
G1 X1.241 Y35.917 F400.000
G1 X1.241 Y35.917 F400.000
G1 X1.120 Y35.902 F400.000
G1 X1.004 Y35.857 F400.000
G1 X0.959 Y35.816 F400.000
G1 X0.887 Y35.711 F400.000
G1 X0.835 Y35.598 F400.000
G1 X0.801 Y35.477 F400.000
G1 X0.782 Y35.297 F400.000
G1 X0.797 Y35.177 F400.000
G1 X0.842 Y35.064 F400.000
G1 X0.891 Y35.026 F400.000
G1 X0.891 Y35.026 F400.000
G1 X1.008 Y35.045 F400.000
G1 X1.083 Y35.090 F400.000
G0 X1.102 Y35.113
G0 X1.241 Y35.647
G1 X1.248 Y35.677 F400.000
G1 X1.267 Y35.793 F400.000
G1 X1.244 Y35.842 F400.000
G1 X1.177 Y35.891 F400.000
G1 X1.060 Y35.917 F400.000
G1 X1.060 Y35.917 F400.000
G1 X0.940 Y35.898 F400.000
G1 X0.823 Y35.846 F400.000
G1 X0.711 Y35.699 F400.000
G1 X0.643 Y35.526 F400.000
G1 X0.617 Y35.406 F400.000
G1 X0.617 Y35.226 F400.000
G1 X0.628 Y35.165 F400.000
G1 X0.680 Y35.056 F400.000
G1 X0.733 Y35.026 F400.000
G1 X0.733 Y35.026 F400.000
G1 X0.850 Y35.045 F400.000
G1 X0.925 Y35.090 F400.000
G0 X0.944 Y35.113
G0 X1.068 Y35.643
G1 X1.071 Y35.673 F400.000
G1 X1.086 Y35.793 F400.000
G1 X1.064 Y35.838 F400.000
G1 X0.996 Y35.891 F400.000
G1 X0.880 Y35.917 F400.000
G1 X0.880 Y35.917 F400.000
G1 X0.759 Y35.891 F400.000
G1 X0.703 Y35.868 F400.000
G1 X0.650 Y35.835 F400.000
G1 X0.538 Y35.684 F400.000
G1 X0.470 Y35.511 F400.000
G1 X0.444 Y35.331 F400.000
G1 X0.451 Y35.211 F400.000
G1 X0.489 Y35.094 F400.000
G1 X0.523 Y35.041 F400.000
G1 X0.579 Y35.026 F400.000
G1 X0.579 Y35.026 F400.000
G1 X0.695 Y35.045 F400.000
G1 X0.771 Y35.090 F400.000
G0 X0.789 Y35.113
G0 X0.936 Y35.647
G1 X0.944 Y35.677 F400.000
G1 X0.966 Y35.793 F400.000
G1 X0.944 Y35.842 F400.000
G1 X0.876 Y35.891 F400.000
G1 X0.759 Y35.917 F400.000
G1 X0.759 Y35.917 F400.000
G1 X0.699 Y35.917 F400.000
G1 X0.579 Y35.887 F400.000
G1 X0.523 Y35.861 F400.000
G1 X0.474 Y35.823 F400.000
G1 X0.395 Y35.726 F400.000
G1 X0.316 Y35.556 F400.000
G1 X0.278 Y35.376 F400.000
G1 X0.286 Y35.195 F400.000
G1 X0.301 Y35.135 F400.000
G1 X0.327 Y35.079 F400.000
G1 X0.368 Y35.038 F400.000
G1 X0.368 Y35.038 F400.000
G1 X0.485 Y35.053 F400.000
G1 X0.560 Y35.098 F400.000
G0 X0.579 Y35.120
G0 X0.748 Y35.647
G1 X0.759 Y35.677 F400.000
G1 X0.782 Y35.793 F400.000
G1 X0.763 Y35.842 F400.000
G1 X0.692 Y35.891 F400.000
G1 X0.579 Y35.917 F400.000
G1 X0.579 Y35.917 F400.000
G1 X0.459 Y35.902 F400.000
G1 X0.342 Y35.857 F400.000
G1 X0.293 Y35.820 F400.000
G1 X0.192 Y35.662 F400.000
G1 X0.124 Y35.485 F400.000
G1 X0.105 Y35.365 F400.000
G1 X0.109 Y35.244 F400.000
G1 X0.139 Y35.124 F400.000
G1 X0.169 Y35.071 F400.000
G1 X0.214 Y35.034 F400.000
G1 X0.214 Y35.034 F400.000
G1 X0.331 Y35.049 F400.000
G1 X0.406 Y35.094 F400.000
G0 X0.425 Y35.117
G0 X0.575 Y35.647
G1 X0.583 Y35.677 F400.000
G1 X0.605 Y35.793 F400.000
G1 X0.583 Y35.842 F400.000
G1 X0.515 Y35.891 F400.000
G1 X0.398 Y35.917 F400.000
G1 X0.398 Y35.917 F400.000
G1 X0.278 Y35.902 F400.000
G1 X0.218 Y35.883 F400.000
G1 X0.162 Y35.853 F400.000
G1 X0.113 Y35.812 F400.000
G1 X0.011 Y35.654 F400.000
G1 X-0.045 Y35.477 F400.000
G1 X-0.060 Y35.297 F400.000
G1 X-0.056 Y35.237 F400.000
G1 X-0.019 Y35.117 F400.000
G1 X0.008 Y35.064 F400.000
G1 X0.056 Y35.030 F400.000
G1 X0.056 Y35.030 F400.000
G1 X0.173 Y35.045 F400.000
G1 X0.248 Y35.090 F400.000
G0 X0.267 Y35.113
G0 X0.402 Y35.647
G1 X0.406 Y35.677 F400.000
G1 X0.425 Y35.793 F400.000
G1 X0.402 Y35.842 F400.000
G1 X0.335 Y35.891 F400.000
G1 X0.218 Y35.917 F400.000
G1 X0.218 Y35.917 F400.000
G1 X0.098 Y35.895 F400.000
G1 X-0.015 Y35.842 F400.000
G1 X-0.094 Y35.752 F400.000
G1 X-0.158 Y35.647 F400.000
G1 X-0.214 Y35.474 F400.000
G1 X-0.229 Y35.293 F400.000
G1 X-0.214 Y35.173 F400.000
G1 X-0.192 Y35.113 F400.000
G1 X-0.158 Y35.060 F400.000
G1 X-0.105 Y35.026 F400.000
G1 X-0.105 Y35.026 F400.000
G1 X-0.004 Y35.041 F400.000
G1 X0.083 Y35.090 F400.000
G0 X0.102 Y35.113
G0 X0.226 Y35.643
G1 X0.233 Y35.673 F400.000
G1 X0.244 Y35.793 F400.000
G1 X0.222 Y35.838 F400.000
G1 X0.154 Y35.891 F400.000
G1 X0.038 Y35.917 F400.000
G1 X0.038 Y35.917 F400.000
G1 X-0.132 Y35.876 F400.000
G1 X-0.184 Y35.846 F400.000
G1 X-0.263 Y35.756 F400.000
G1 X-0.353 Y35.594 F400.000
G1 X-0.398 Y35.417 F400.000
G1 X-0.406 Y35.297 F400.000
G1 X-0.387 Y35.177 F400.000
G1 X-0.335 Y35.060 F400.000
G1 X-0.282 Y35.026 F400.000
G1 X-0.282 Y35.026 F400.000
G1 X-0.154 Y35.045 F400.000
G1 X-0.079 Y35.090 F400.000
G0 X-0.060 Y35.113
G0 X0.056 Y35.643
G1 X0.064 Y35.673 F400.000
G1 X0.075 Y35.793 F400.000
G1 X0.053 Y35.838 F400.000
G1 X-0.015 Y35.891 F400.000
G1 X-0.139 Y35.917 F400.000
G1 X-0.139 Y35.917 F400.000
G1 X-0.308 Y35.872 F400.000
G1 X-0.361 Y35.842 F400.000
G1 X-0.474 Y35.695 F400.000
G1 X-0.526 Y35.586 F400.000
G1 X-0.571 Y35.406 F400.000
G1 X-0.571 Y35.226 F400.000
G1 X-0.534 Y35.109 F400.000
G1 X-0.504 Y35.056 F400.000
G1 X-0.451 Y35.026 F400.000
G1 X-0.451 Y35.026 F400.000
G1 X-0.323 Y35.045 F400.000
G1 X-0.248 Y35.090 F400.000
G0 X-0.229 Y35.113
G0 X-0.105 Y35.643
G1 X-0.102 Y35.673 F400.000
G1 X-0.090 Y35.793 F400.000
G1 X-0.113 Y35.838 F400.000
G1 X-0.188 Y35.891 F400.000
G1 X-0.316 Y35.917 F400.000
G1 X-0.316 Y35.917 F400.000
G1 X-0.485 Y35.865 F400.000
G1 X-0.534 Y35.835 F400.000
G1 X-0.647 Y35.688 F400.000
G1 X-0.703 Y35.579 F400.000
G1 X-0.737 Y35.459 F400.000
G1 X-0.748 Y35.338 F400.000
G1 X-0.737 Y35.218 F400.000
G1 X-0.699 Y35.102 F400.000
G1 X-0.669 Y35.049 F400.000
G1 X-0.613 Y35.026 F400.000
G1 X-0.613 Y35.026 F400.000
G1 X-0.485 Y35.045 F400.000
G1 X-0.406 Y35.090 F400.000
G0 X-0.387 Y35.113
G0 X-0.237 Y35.647
G1 X-0.229 Y35.677 F400.000
G1 X-0.211 Y35.793 F400.000
G1 X-0.233 Y35.842 F400.000
G1 X-0.312 Y35.891 F400.000
G1 X-0.436 Y35.917 F400.000
G1 X-0.436 Y35.917 F400.000
G1 X-0.492 Y35.917 F400.000
G1 X-0.605 Y35.891 F400.000
G1 X-0.711 Y35.838 F400.000
G1 X-0.789 Y35.744 F400.000
G1 X-0.868 Y35.579 F400.000
G1 X-0.902 Y35.459 F400.000
G1 X-0.914 Y35.278 F400.000
G1 X-0.910 Y35.218 F400.000
G1 X-0.872 Y35.102 F400.000
G1 X-0.838 Y35.049 F400.000
G1 X-0.782 Y35.026 F400.000
G1 X-0.782 Y35.026 F400.000
G1 X-0.654 Y35.045 F400.000
G1 X-0.575 Y35.090 F400.000
G0 X-0.560 Y35.113
G0 X-0.414 Y35.647
G1 X-0.410 Y35.677 F400.000
G1 X-0.391 Y35.793 F400.000
G1 X-0.414 Y35.842 F400.000
G1 X-0.492 Y35.891 F400.000
G1 X-0.617 Y35.917 F400.000
G1 X-0.617 Y35.917 F400.000
G1 X-0.673 Y35.917 F400.000
G1 X-0.786 Y35.891 F400.000
G1 X-0.838 Y35.868 F400.000
G1 X-0.887 Y35.835 F400.000
G1 X-0.962 Y35.741 F400.000
G1 X-1.041 Y35.575 F400.000
G1 X-1.086 Y35.398 F400.000
G1 X-1.083 Y35.218 F400.000
G1 X-1.045 Y35.102 F400.000
G1 X-1.011 Y35.049 F400.000
G1 X-0.955 Y35.026 F400.000
G1 X-0.955 Y35.026 F400.000
G1 X-0.827 Y35.045 F400.000
G1 X-0.748 Y35.090 F400.000
G0 X-0.733 Y35.113
G0 X-0.590 Y35.650
G1 X-0.583 Y35.684 F400.000
G1 X-0.571 Y35.786 F400.000
G1 X-0.598 Y35.838 F400.000
G1 X-0.673 Y35.891 F400.000
G1 X-0.797 Y35.917 F400.000
G1 X-0.797 Y35.917 F400.000
G1 X-0.910 Y35.902 F400.000
G1 X-1.019 Y35.857 F400.000
G1 X-1.068 Y35.823 F400.000
G1 X-1.143 Y35.729 F400.000
G1 X-1.222 Y35.564 F400.000
G1 X-1.259 Y35.383 F400.000
G1 X-1.252 Y35.203 F400.000
G1 X-1.237 Y35.143 F400.000
G1 X-1.211 Y35.086 F400.000
G1 X-1.169 Y35.038 F400.000
G1 X-1.169 Y35.038 F400.000
G1 X-1.041 Y35.053 F400.000
G1 X-0.962 Y35.098 F400.000
G0 X-0.940 Y35.120
G0 X-0.782 Y35.647
G1 X-0.774 Y35.677 F400.000
G1 X-0.752 Y35.793 F400.000
G1 X-0.778 Y35.842 F400.000
G1 X-0.853 Y35.891 F400.000
G1 X-0.977 Y35.917 F400.000
G1 X-0.977 Y35.917 F400.000
G1 X-1.090 Y35.902 F400.000
G1 X-1.199 Y35.857 F400.000
G1 X-1.248 Y35.820 F400.000
G1 X-1.350 Y35.673 F400.000
G1 X-1.398 Y35.560 F400.000
G1 X-1.432 Y35.380 F400.000
G1 X-1.421 Y35.199 F400.000
G1 X-1.376 Y35.083 F400.000
G1 X-1.331 Y35.038 F400.000
G1 X-1.271 Y35.026 F400.000
G1 X-1.271 Y35.026 F400.000
G1 X-1.143 Y35.045 F400.000
G1 X-1.068 Y35.090 F400.000
G0 X-1.049 Y35.113
G0 X-0.944 Y35.643
G1 X-0.940 Y35.673 F400.000
G1 X-0.929 Y35.793 F400.000
G1 X-0.955 Y35.838 F400.000
G1 X-1.030 Y35.891 F400.000
G1 X-1.158 Y35.917 F400.000
G1 X-1.158 Y35.917 F400.000
G1 X-1.271 Y35.898 F400.000
G1 X-1.380 Y35.853 F400.000
G1 X-1.425 Y35.812 F400.000
G1 X-1.526 Y35.662 F400.000
G1 X-1.586 Y35.485 F400.000
G1 X-1.602 Y35.305 F400.000
G1 X-1.586 Y35.184 F400.000
G1 X-1.534 Y35.068 F400.000
G1 X-1.485 Y35.030 F400.000
G1 X-1.481 Y35.030 F400.000
G1 X-1.353 Y35.045 F400.000
G1 X-1.274 Y35.090 F400.000
G0 X-1.256 Y35.113
G0 X-1.128 Y35.643
G1 X-1.124 Y35.673 F400.000
G1 X-1.113 Y35.793 F400.000
G1 X-1.135 Y35.838 F400.000
G1 X-1.211 Y35.891 F400.000
G1 X-1.338 Y35.917 F400.000
G1 X-1.338 Y35.917 F400.000
G1 X-1.508 Y35.876 F400.000
G1 X-1.560 Y35.846 F400.000
G1 X-1.673 Y35.699 F400.000
G1 X-1.741 Y35.530 F400.000
G1 X-1.767 Y35.350 F400.000
G1 X-1.763 Y35.229 F400.000
G1 X-1.752 Y35.169 F400.000
G1 X-1.699 Y35.056 F400.000
G1 X-1.643 Y35.026 F400.000
G1 X-1.643 Y35.026 F400.000
G1 X-1.515 Y35.045 F400.000
G1 X-1.436 Y35.090 F400.000
G0 X-1.417 Y35.113
G0 X-1.263 Y35.647
G1 X-1.256 Y35.677 F400.000
G1 X-1.233 Y35.793 F400.000
G1 X-1.259 Y35.842 F400.000
G1 X-1.335 Y35.891 F400.000
G1 X-1.459 Y35.917 F400.000
G1 X-1.459 Y35.917 F400.000
G1 X-1.571 Y35.910 F400.000
G1 X-1.684 Y35.872 F400.000
G1 X-1.737 Y35.842 F400.000
G1 X-1.816 Y35.748 F400.000
G1 X-1.895 Y35.586 F400.000
G1 X-1.940 Y35.406 F400.000
G1 X-1.940 Y35.226 F400.000
G1 X-1.902 Y35.109 F400.000
G1 X-1.872 Y35.056 F400.000
G1 X-1.816 Y35.026 F400.000
G1 X-1.816 Y35.026 F400.000
G1 X-1.688 Y35.045 F400.000
G1 X-1.609 Y35.090 F400.000
G0 X-1.590 Y35.113
G0 X-1.440 Y35.647
G1 X-1.432 Y35.677 F400.000
G1 X-1.414 Y35.793 F400.000
G1 X-1.436 Y35.842 F400.000
G1 X-1.515 Y35.891 F400.000
G1 X-1.639 Y35.917 F400.000
G1 X-1.639 Y35.917 F400.000
G1 X-1.695 Y35.917 F400.000
G1 X-1.808 Y35.891 F400.000
G1 X-1.865 Y35.868 F400.000
G1 X-1.914 Y35.835 F400.000
G1 X-1.989 Y35.741 F400.000
G1 X-2.071 Y35.579 F400.000
G1 X-2.105 Y35.462 F400.000
G1 X-2.117 Y35.342 F400.000
G1 X-2.109 Y35.222 F400.000
G1 X-2.071 Y35.105 F400.000
G1 X-2.041 Y35.053 F400.000
G1 X-1.985 Y35.026 F400.000
G1 X-1.985 Y35.026 F400.000
G1 X-1.857 Y35.045 F400.000
G1 X-1.778 Y35.090 F400.000
G0 X-1.763 Y35.113
G0 X-1.617 Y35.647
G1 X-1.609 Y35.677 F400.000
G1 X-1.590 Y35.793 F400.000
G1 X-1.613 Y35.842 F400.000
G1 X-1.692 Y35.891 F400.000
G1 X-1.816 Y35.917 F400.000
G1 X-1.816 Y35.917 F400.000
G1 X-1.929 Y35.910 F400.000
G1 X-2.041 Y35.872 F400.000
G1 X-2.094 Y35.842 F400.000
G1 X-2.195 Y35.695 F400.000
G1 X-2.263 Y35.523 F400.000
G1 X-2.286 Y35.342 F400.000
G1 X-2.282 Y35.222 F400.000
G1 X-2.244 Y35.105 F400.000
G1 X-2.211 Y35.053 F400.000
G1 X-2.154 Y35.026 F400.000
G1 X-2.154 Y35.026 F400.000
G1 X-2.026 Y35.045 F400.000
G1 X-1.947 Y35.090 F400.000
G0 X-1.932 Y35.113
G0 X-1.789 Y35.650
G1 X-1.782 Y35.684 F400.000
G1 X-1.771 Y35.786 F400.000
G1 X-1.797 Y35.838 F400.000
G1 X-1.872 Y35.891 F400.000
G1 X-1.996 Y35.917 F400.000
G1 X-1.996 Y35.917 F400.000
G1 X-2.053 Y35.917 F400.000
G1 X-2.165 Y35.891 F400.000
G1 X-2.218 Y35.868 F400.000
G1 X-2.267 Y35.835 F400.000
G1 X-2.368 Y35.684 F400.000
G1 X-2.447 Y35.451 F400.000
G1 X-2.455 Y35.271 F400.000
G1 X-2.432 Y35.150 F400.000
G1 X-2.406 Y35.094 F400.000
G1 X-2.368 Y35.045 F400.000
G1 X-2.308 Y35.026 F400.000
G1 X-2.308 Y35.026 F400.000
G1 X-2.180 Y35.045 F400.000
G1 X-2.105 Y35.090 F400.000
G0 X-2.086 Y35.113
G0 X-1.966 Y35.643
G1 X-1.962 Y35.673 F400.000
G1 X-1.951 Y35.793 F400.000
G1 X-1.974 Y35.838 F400.000
G1 X-2.049 Y35.891 F400.000
G1 X-2.177 Y35.917 F400.000
G1 X-2.177 Y35.917 F400.000
G1 X-2.289 Y35.902 F400.000
G1 X-2.398 Y35.857 F400.000
G1 X-2.444 Y35.820 F400.000
G1 X-2.545 Y35.673 F400.000
G1 X-2.594 Y35.560 F400.000
G1 X-2.628 Y35.380 F400.000
G1 X-2.617 Y35.199 F400.000
G1 X-2.598 Y35.139 F400.000
G1 X-2.568 Y35.083 F400.000
G1 X-2.526 Y35.038 F400.000
G1 X-2.526 Y35.038 F400.000
G1 X-2.398 Y35.053 F400.000
G1 X-2.320 Y35.098 F400.000
G0 X-2.301 Y35.120
G0 X-2.154 Y35.647
G1 X-2.150 Y35.677 F400.000
G1 X-2.132 Y35.793 F400.000
G1 X-2.154 Y35.842 F400.000
G1 X-2.233 Y35.891 F400.000
G1 X-2.357 Y35.917 F400.000
G1 X-2.357 Y35.917 F400.000
G1 X-2.526 Y35.876 F400.000
G1 X-2.579 Y35.850 F400.000
G1 X-2.624 Y35.808 F400.000
G1 X-2.726 Y35.654 F400.000
G1 X-2.782 Y35.477 F400.000
G1 X-2.793 Y35.297 F400.000
G1 X-2.778 Y35.177 F400.000
G1 X-2.726 Y35.064 F400.000
G1 X-2.673 Y35.026 F400.000
G1 X-2.673 Y35.026 F400.000
G1 X-2.545 Y35.045 F400.000
G1 X-2.470 Y35.090 F400.000
G0 X-2.451 Y35.113
G0 X-2.327 Y35.639
G1 X-2.323 Y35.669 F400.000
G1 X-2.312 Y35.789 F400.000
G1 X-2.335 Y35.835 F400.000
G1 X-2.410 Y35.887 F400.000
G1 X-2.538 Y35.914 F400.000
G1 X-2.538 Y35.914 F400.000
G1 X-2.707 Y35.868 F400.000
G1 X-2.759 Y35.838 F400.000
G1 X-2.835 Y35.744 F400.000
G1 X-2.914 Y35.579 F400.000
G1 X-2.959 Y35.398 F400.000
G1 X-2.959 Y35.218 F400.000
G1 X-2.917 Y35.102 F400.000
G1 X-2.883 Y35.049 F400.000
G1 X-2.827 Y35.026 F400.000
G1 X-2.827 Y35.026 F400.000
G1 X-2.699 Y35.045 F400.000
G1 X-2.620 Y35.090 F400.000
G0 X-2.605 Y35.113
G0 X-2.459 Y35.643
G1 X-2.451 Y35.673 F400.000
G1 X-2.432 Y35.789 F400.000
G1 X-2.455 Y35.838 F400.000
G1 X-2.534 Y35.887 F400.000
G1 X-2.658 Y35.914 F400.000
G1 X-2.658 Y35.914 F400.000
G1 X-2.771 Y35.906 F400.000
G1 X-2.883 Y35.868 F400.000
G1 X-2.936 Y35.838 F400.000
G1 X-3.068 Y35.639 F400.000
G1 X-3.124 Y35.462 F400.000
G1 X-3.135 Y35.282 F400.000
G1 X-3.132 Y35.222 F400.000
G1 X-3.094 Y35.105 F400.000
G1 X-3.060 Y35.053 F400.000
G1 X-3.004 Y35.026 F400.000
G1 X-3.004 Y35.026 F400.000
G1 X-2.876 Y35.045 F400.000
G1 X-2.797 Y35.090 F400.000
G0 X-2.782 Y35.113
G0 X-2.635 Y35.643
G1 X-2.632 Y35.673 F400.000
G1 X-2.613 Y35.789 F400.000
G1 X-2.635 Y35.838 F400.000
G1 X-2.714 Y35.887 F400.000
G1 X-2.838 Y35.914 F400.000
G1 X-2.838 Y35.914 F400.000
G1 X-2.895 Y35.914 F400.000
G1 X-3.008 Y35.887 F400.000
G1 X-3.060 Y35.865 F400.000
G1 X-3.109 Y35.831 F400.000
G1 X-3.184 Y35.737 F400.000
G1 X-3.263 Y35.571 F400.000
G1 X-3.297 Y35.451 F400.000
G1 X-3.308 Y35.331 F400.000
G1 X-3.297 Y35.211 F400.000
G1 X-3.282 Y35.150 F400.000
G1 X-3.256 Y35.094 F400.000
G1 X-3.218 Y35.045 F400.000
G1 X-3.158 Y35.026 F400.000
G1 X-3.158 Y35.026 F400.000
G1 X-3.030 Y35.045 F400.000
G1 X-2.955 Y35.090 F400.000
G0 X-2.936 Y35.113
G0 X-2.808 Y35.639
G1 X-2.805 Y35.669 F400.000
G1 X-2.793 Y35.789 F400.000
G1 X-2.816 Y35.835 F400.000
G1 X-2.891 Y35.887 F400.000
G1 X-3.019 Y35.914 F400.000
G1 X-3.019 Y35.914 F400.000
G1 X-3.132 Y35.898 F400.000
G1 X-3.241 Y35.853 F400.000
G1 X-3.289 Y35.820 F400.000
G1 X-3.391 Y35.673 F400.000
G1 X-3.459 Y35.500 F400.000
G1 X-3.477 Y35.380 F400.000
G1 X-3.466 Y35.199 F400.000
G1 X-3.447 Y35.139 F400.000
G1 X-3.417 Y35.083 F400.000
G1 X-3.376 Y35.038 F400.000
G1 X-3.376 Y35.038 F400.000
G1 X-3.248 Y35.053 F400.000
G1 X-3.169 Y35.098 F400.000
G0 X-3.150 Y35.120
G0 X-2.996 Y35.643
G1 X-2.989 Y35.673 F400.000
G1 X-2.970 Y35.789 F400.000
G1 X-2.992 Y35.838 F400.000
G1 X-3.071 Y35.887 F400.000
G1 X-3.195 Y35.914 F400.000
G1 X-3.195 Y35.914 F400.000
G1 X-3.308 Y35.898 F400.000
G1 X-3.417 Y35.857 F400.000
G1 X-3.466 Y35.820 F400.000
G1 X-3.568 Y35.673 F400.000
G1 X-3.635 Y35.500 F400.000
G1 X-3.650 Y35.259 F400.000
G1 X-3.620 Y35.139 F400.000
G1 X-3.594 Y35.083 F400.000
G1 X-3.549 Y35.038 F400.000
G1 X-3.489 Y35.026 F400.000
G1 X-3.489 Y35.026 F400.000
G1 X-3.361 Y35.045 F400.000
G1 X-3.286 Y35.090 F400.000
G0 X-3.267 Y35.113
G0 X-3.162 Y35.639
G1 X-3.158 Y35.669 F400.000
G1 X-3.147 Y35.789 F400.000
G1 X-3.173 Y35.835 F400.000
G1 X-3.248 Y35.887 F400.000
G1 X-3.376 Y35.914 F400.000
G1 X-3.376 Y35.914 F400.000
G1 X-3.489 Y35.898 F400.000
G1 X-3.598 Y35.853 F400.000
G1 X-3.643 Y35.816 F400.000
G1 X-3.744 Y35.662 F400.000
G1 X-3.789 Y35.549 F400.000
G1 X-3.816 Y35.429 F400.000
G1 X-3.816 Y35.248 F400.000
G1 X-3.786 Y35.128 F400.000
G1 X-3.756 Y35.071 F400.000
G1 X-3.707 Y35.030 F400.000
G1 X-3.707 Y35.030 F400.000
G1 X-3.579 Y35.045 F400.000
G1 X-3.500 Y35.090 F400.000
G0 X-3.481 Y35.113
G0 X-3.350 Y35.639
G1 X-3.346 Y35.669 F400.000
G1 X-3.331 Y35.789 F400.000
G1 X-3.353 Y35.835 F400.000
G1 X-3.429 Y35.887 F400.000
G1 X-3.556 Y35.914 F400.000
G1 X-3.556 Y35.914 F400.000
G1 X-3.726 Y35.872 F400.000
G1 X-3.778 Y35.842 F400.000
G1 X-3.857 Y35.752 F400.000
G1 X-3.921 Y35.647 F400.000
G1 X-3.977 Y35.470 F400.000
G1 X-3.989 Y35.289 F400.000
G1 X-3.985 Y35.229 F400.000
G1 X-3.947 Y35.109 F400.000
G1 X-3.917 Y35.056 F400.000
G1 X-3.865 Y35.026 F400.000
G1 X-3.865 Y35.026 F400.000
G1 X-3.737 Y35.045 F400.000
G1 X-3.662 Y35.090 F400.000
G0 X-3.643 Y35.113
G0 X-3.526 Y35.639
G1 X-3.523 Y35.669 F400.000
G1 X-3.511 Y35.789 F400.000
G1 X-3.534 Y35.835 F400.000
G1 X-3.609 Y35.887 F400.000
G1 X-3.737 Y35.914 F400.000
G1 X-3.737 Y35.914 F400.000
G1 X-3.906 Y35.861 F400.000
G1 X-3.996 Y35.786 F400.000
G1 X-4.068 Y35.684 F400.000
G1 X-4.135 Y35.511 F400.000
G1 X-4.158 Y35.331 F400.000
G1 X-4.147 Y35.211 F400.000
G1 X-4.132 Y35.150 F400.000
G1 X-4.105 Y35.094 F400.000
G1 X-4.068 Y35.041 F400.000
G1 X-4.008 Y35.026 F400.000
G1 X-4.008 Y35.026 F400.000
G1 X-3.880 Y35.045 F400.000
G1 X-3.805 Y35.090 F400.000
G0 X-3.786 Y35.113
G0 X-3.650 Y35.639
G1 X-3.647 Y35.669 F400.000
G1 X-3.632 Y35.789 F400.000
G1 X-3.654 Y35.835 F400.000
G1 X-3.729 Y35.887 F400.000
G1 X-3.857 Y35.914 F400.000
G1 X-3.857 Y35.914 F400.000
G1 X-3.914 Y35.914 F400.000
G1 X-4.026 Y35.887 F400.000
G1 X-4.083 Y35.865 F400.000
G1 X-4.132 Y35.831 F400.000
G1 X-4.233 Y35.684 F400.000
G1 X-4.301 Y35.515 F400.000
G1 X-4.327 Y35.335 F400.000
G1 X-4.316 Y35.214 F400.000
G1 X-4.278 Y35.098 F400.000
G1 X-4.244 Y35.045 F400.000
G1 X-4.184 Y35.026 F400.000
G1 X-4.184 Y35.026 F400.000
G1 X-4.056 Y35.045 F400.000
G1 X-3.981 Y35.090 F400.000
G0 X-3.962 Y35.113
G0 X-3.831 Y35.639
G1 X-3.827 Y35.669 F400.000
G1 X-3.812 Y35.789 F400.000
G1 X-3.835 Y35.835 F400.000
G1 X-3.910 Y35.887 F400.000
G1 X-4.038 Y35.914 F400.000
G1 X-4.038 Y35.914 F400.000
G1 X-4.150 Y35.898 F400.000
G1 X-4.259 Y35.853 F400.000
G1 X-4.308 Y35.816 F400.000
G1 X-4.410 Y35.669 F400.000
G1 X-4.477 Y35.496 F400.000
G1 X-4.496 Y35.376 F400.000
G1 X-4.485 Y35.195 F400.000
G1 X-4.440 Y35.079 F400.000
G1 X-4.395 Y35.034 F400.000
G1 X-4.395 Y35.034 F400.000
G1 X-4.267 Y35.049 F400.000
G1 X-4.188 Y35.094 F400.000
G0 X-4.169 Y35.117
G0 X-4.019 Y35.643
G1 X-4.011 Y35.673 F400.000
G1 X-3.992 Y35.789 F400.000
G1 X-4.015 Y35.838 F400.000
G1 X-4.094 Y35.887 F400.000
G1 X-4.218 Y35.914 F400.000
G1 X-4.218 Y35.914 F400.000
G1 X-4.331 Y35.895 F400.000
G1 X-4.440 Y35.850 F400.000
G1 X-4.485 Y35.812 F400.000
G1 X-4.586 Y35.665 F400.000
G1 X-4.647 Y35.489 F400.000
G1 X-4.662 Y35.308 F400.000
G1 X-4.647 Y35.188 F400.000
G1 X-4.628 Y35.128 F400.000
G1 X-4.598 Y35.071 F400.000
G1 X-4.549 Y35.030 F400.000
G1 X-4.549 Y35.030 F400.000
G1 X-4.421 Y35.045 F400.000
G1 X-4.342 Y35.090 F400.000
G0 X-4.323 Y35.113
G0 X-4.192 Y35.639
G1 X-4.188 Y35.669 F400.000
G1 X-4.173 Y35.789 F400.000
G1 X-4.195 Y35.835 F400.000
G1 X-4.271 Y35.887 F400.000
G1 X-4.398 Y35.914 F400.000
G1 X-4.398 Y35.914 F400.000
G1 X-4.568 Y35.872 F400.000
G1 X-4.620 Y35.846 F400.000
G1 X-4.665 Y35.805 F400.000
G1 X-4.737 Y35.703 F400.000
G1 X-4.789 Y35.590 F400.000
G1 X-4.835 Y35.410 F400.000
G1 X-4.827 Y35.229 F400.000
G1 X-4.789 Y35.109 F400.000
G1 X-4.759 Y35.053 F400.000
G1 X-4.703 Y35.026 F400.000
G1 X-4.703 Y35.026 F400.000
G1 X-4.575 Y35.045 F400.000
G1 X-4.500 Y35.090 F400.000
G0 X-4.481 Y35.113
G0 X-4.365 Y35.639
G1 X-4.361 Y35.669 F400.000
G1 X-4.350 Y35.789 F400.000
G1 X-4.376 Y35.835 F400.000
G1 X-4.451 Y35.887 F400.000
G1 X-4.579 Y35.914 F400.000
G1 X-4.579 Y35.914 F400.000
G1 X-4.748 Y35.868 F400.000
G1 X-4.801 Y35.838 F400.000
G1 X-4.914 Y35.692 F400.000
G1 X-4.981 Y35.519 F400.000
G1 X-5.008 Y35.338 F400.000
G1 X-5.004 Y35.218 F400.000
G1 X-4.989 Y35.158 F400.000
G1 X-4.929 Y35.049 F400.000
G1 X-4.872 Y35.026 F400.000
G1 X-4.872 Y35.026 F400.000
G1 X-4.744 Y35.045 F400.000
G1 X-4.665 Y35.090 F400.000
G0 X-4.647 Y35.113
G0 X-4.496 Y35.643
G1 X-4.489 Y35.673 F400.000
G1 X-4.470 Y35.789 F400.000
G1 X-4.492 Y35.838 F400.000
G1 X-4.571 Y35.887 F400.000
G1 X-4.695 Y35.914 F400.000
G1 X-4.695 Y35.914 F400.000
G1 X-4.808 Y35.906 F400.000
G1 X-4.921 Y35.868 F400.000
G1 X-4.974 Y35.838 F400.000
G1 X-5.083 Y35.692 F400.000
G1 X-5.150 Y35.523 F400.000
G1 X-5.177 Y35.342 F400.000
G1 X-5.173 Y35.222 F400.000
G1 X-5.135 Y35.105 F400.000
G1 X-5.105 Y35.053 F400.000
G1 X-5.049 Y35.026 F400.000
G1 X-5.049 Y35.026 F400.000
G1 X-4.921 Y35.045 F400.000
G1 X-4.842 Y35.090 F400.000
G0 X-4.823 Y35.113
G0 X-4.677 Y35.643
G1 X-4.669 Y35.673 F400.000
G1 X-4.650 Y35.789 F400.000
G1 X-4.673 Y35.838 F400.000
G1 X-4.752 Y35.887 F400.000
G1 X-4.876 Y35.914 F400.000
G1 X-4.876 Y35.914 F400.000
G1 X-4.932 Y35.914 F400.000
G1 X-5.045 Y35.887 F400.000
G1 X-5.098 Y35.865 F400.000
G1 X-5.147 Y35.831 F400.000
G1 X-5.222 Y35.737 F400.000
G1 X-5.301 Y35.571 F400.000
G1 X-5.335 Y35.455 F400.000
G1 X-5.346 Y35.335 F400.000
G1 X-5.338 Y35.214 F400.000
G1 X-5.323 Y35.154 F400.000
G1 X-5.263 Y35.045 F400.000
G1 X-5.203 Y35.026 F400.000
G1 X-5.203 Y35.026 F400.000
G1 X-5.075 Y35.045 F400.000
G1 X-5.000 Y35.090 F400.000
G0 X-4.981 Y35.113
G0 X-4.850 Y35.639
G1 X-4.846 Y35.669 F400.000
G1 X-4.831 Y35.789 F400.000
G1 X-4.853 Y35.835 F400.000
G1 X-4.929 Y35.887 F400.000
G1 X-5.056 Y35.914 F400.000
G1 X-5.056 Y35.914 F400.000
G1 X-5.169 Y35.898 F400.000
G1 X-5.278 Y35.853 F400.000
G1 X-5.327 Y35.820 F400.000
G1 X-5.429 Y35.673 F400.000
G1 X-5.477 Y35.560 F400.000
G1 X-5.511 Y35.380 F400.000
G1 X-5.500 Y35.199 F400.000
G1 X-5.485 Y35.139 F400.000
G1 X-5.459 Y35.083 F400.000
G1 X-5.414 Y35.038 F400.000
G1 X-5.414 Y35.038 F400.000
G1 X-5.286 Y35.053 F400.000
G1 X-5.207 Y35.098 F400.000
G0 X-5.188 Y35.120
G0 X-5.038 Y35.643
G1 X-5.030 Y35.673 F400.000
G1 X-5.011 Y35.789 F400.000
G1 X-5.034 Y35.838 F400.000
G1 X-5.113 Y35.887 F400.000
G1 X-5.237 Y35.914 F400.000
G1 X-5.237 Y35.914 F400.000
G1 X-5.350 Y35.898 F400.000
G1 X-5.459 Y35.853 F400.000
G1 X-5.504 Y35.816 F400.000
G1 X-5.575 Y35.718 F400.000
G1 X-5.650 Y35.553 F400.000
G1 X-5.684 Y35.372 F400.000
G1 X-5.669 Y35.192 F400.000
G1 X-5.650 Y35.132 F400.000
G1 X-5.620 Y35.075 F400.000
G1 X-5.571 Y35.034 F400.000
G1 X-5.571 Y35.034 F400.000
G1 X-5.444 Y35.049 F400.000
G1 X-5.365 Y35.094 F400.000
G0 X-5.346 Y35.117
G0 X-5.211 Y35.643
G1 X-5.207 Y35.673 F400.000
G1 X-5.192 Y35.789 F400.000
G1 X-5.214 Y35.835 F400.000
G1 X-5.289 Y35.887 F400.000
G1 X-5.417 Y35.914 F400.000
G1 X-5.417 Y35.914 F400.000
G1 X-5.530 Y35.895 F400.000
G1 X-5.639 Y35.850 F400.000
G1 X-5.684 Y35.808 F400.000
G1 X-5.786 Y35.654 F400.000
G1 X-5.842 Y35.477 F400.000
G1 X-5.853 Y35.297 F400.000
G1 X-5.838 Y35.177 F400.000
G1 X-5.786 Y35.060 F400.000
G1 X-5.733 Y35.026 F400.000
G1 X-5.733 Y35.026 F400.000
G1 X-5.605 Y35.045 F400.000
G1 X-5.530 Y35.090 F400.000
G0 X-5.511 Y35.113
G0 X-5.387 Y35.639
G1 X-5.383 Y35.669 F400.000
G1 X-5.372 Y35.789 F400.000
G1 X-5.395 Y35.835 F400.000
G1 X-5.470 Y35.887 F400.000
G1 X-5.598 Y35.914 F400.000
G1 X-5.598 Y35.914 F400.000
G1 X-5.767 Y35.868 F400.000
G1 X-5.820 Y35.838 F400.000
G1 X-5.932 Y35.692 F400.000
G1 X-5.981 Y35.579 F400.000
G1 X-6.019 Y35.398 F400.000
G1 X-6.019 Y35.218 F400.000
G1 X-5.981 Y35.102 F400.000
G1 X-5.947 Y35.049 F400.000
G1 X-5.891 Y35.026 F400.000
G1 X-5.891 Y35.026 F400.000
G1 X-5.763 Y35.045 F400.000
G1 X-5.684 Y35.090 F400.000
G0 X-5.665 Y35.113
G0 X-5.519 Y35.643
G1 X-5.511 Y35.673 F400.000
G1 X-5.492 Y35.789 F400.000
G1 X-5.515 Y35.838 F400.000
G1 X-5.594 Y35.887 F400.000
G1 X-5.718 Y35.914 F400.000
G1 X-5.718 Y35.914 F400.000
G1 X-5.831 Y35.906 F400.000
G1 X-5.944 Y35.868 F400.000
G1 X-5.996 Y35.838 F400.000
G1 X-6.098 Y35.692 F400.000
G1 X-6.165 Y35.523 F400.000
G1 X-6.192 Y35.342 F400.000
G1 X-6.188 Y35.222 F400.000
G1 X-6.177 Y35.162 F400.000
G1 X-6.124 Y35.053 F400.000
G1 X-6.068 Y35.026 F400.000
G1 X-6.068 Y35.026 F400.000
G1 X-5.940 Y35.045 F400.000
G1 X-5.861 Y35.090 F400.000
G0 X-5.846 Y35.113
G0 X-5.699 Y35.643
G1 X-5.692 Y35.673 F400.000
