(Exported by FreeCAD)
(Post Processor: script_module)
(Output Time:2025-01-22 02:20:40.057897)
(Begin preamble)
G17 G90
G21
(Block-name: Fixture)
(Block-expand: 0)
(Block-enable: 1)
(Begin operation: Fixture)
(Path: Fixture)
G54
(Finish operation: Fixture)
(Block-name: 8mm Endmill001)
(Block-expand: 0)
(Block-enable: 1)
(Begin operation: 8mm Endmill001)
(Path: 8mm Endmill001)
(8mm Endmill001)
(Begin toolchange)
( M6 T3 )
M3 S10000
(Finish operation: 8mm Endmill001)
(Block-name: RampEntryDressup)
(Block-expand: 0)
(Block-enable: 1)
(Begin operation: RampEntryDressup)
(Path: RampEntryDressup)
G0 X0.000 Y0.000 Z5.000
G0 X14.318 Y14.318 Z5.000
G0 X14.318 Y14.318 Z3.000
G1 X15.182 Y13.396 Z2.977 F200.000
G1 X15.988 Y12.423 Z2.952 F200.000
G1 X16.732 Y11.402 Z2.924 F200.000
G1 X17.410 Y10.336 Z2.893 F200.000
G1 X18.021 Y9.230 Z2.860 F200.000
G1 X18.561 Y8.088 Z2.825 F200.000
G1 X19.030 Y6.915 Z2.788 F200.000
G1 X19.424 Y5.714 Z2.748 F200.000
G1 X19.743 Y4.492 Z2.707 F200.000
G1 X19.984 Y3.252 Z2.665 F200.000
G1 X20.148 Y2.000 Z2.620 F200.000
G1 X20.234 Y0.740 Z2.575 F200.000
G1 X20.241 Y-0.523 Z2.528 F200.000
G1 X20.169 Y-1.784 Z2.481 F200.000
G1 X20.019 Y-3.038 Z2.433 F200.000
G1 X19.791 Y-4.280 Z2.384 F200.000
G1 X19.485 Y-5.505 Z2.334 F200.000
G1 X19.104 Y-6.709 Z2.285 F200.000
G1 X18.649 Y-7.887 Z2.236 F200.000
G1 X18.121 Y-9.034 Z2.186 F200.000
G1 X17.522 Y-10.146 Z2.137 F200.000
G1 X16.856 Y-11.219 Z2.089 F200.000
G1 X16.123 Y-12.248 Z2.042 F200.000
G1 X15.328 Y-13.229 Z1.995 F200.000
G1 X14.474 Y-14.159 Z1.950 F200.000
G1 X13.563 Y-15.034 Z1.905 F200.000
G1 X12.599 Y-15.850 Z1.863 F200.000
G1 X11.586 Y-16.604 Z1.822 F200.000
G1 X10.528 Y-17.295 Z1.782 F200.000
G1 X9.429 Y-17.917 Z1.745 F200.000
G1 X8.293 Y-18.471 Z1.710 F200.000
G1 X7.125 Y-18.952 Z1.677 F200.000
G1 X5.929 Y-19.360 Z1.646 F200.000
G1 X4.710 Y-19.692 Z1.618 F200.000
G1 X3.473 Y-19.948 Z1.593 F200.000
G1 X2.222 Y-20.126 Z1.570 F200.000
G1 X0.953 Y-20.224 Z1.568 F200.000
G1 X-0.319 Y-20.243 Z1.562 F200.000
G1 X-1.591 Y-20.182 Z1.552 F200.000
G1 X-2.855 Y-20.041 Z1.538 F200.000
G1 X-4.109 Y-19.822 Z1.521 F200.000
G1 X-5.346 Y-19.524 Z1.499 F200.000
G1 X-6.562 Y-19.149 Z1.474 F200.000
G1 X-7.752 Y-18.699 Z1.446 F200.000
G1 X-8.911 Y-18.175 Z1.414 F200.000
G1 X-10.035 Y-17.580 Z1.379 F200.000
G1 X-11.119 Y-16.915 Z1.340 F200.000
G1 X-12.160 Y-16.183 Z1.299 F200.000
G1 X-13.153 Y-15.388 Z1.254 F200.000
G1 X-14.093 Y-14.532 Z1.207 F200.000
G1 X-14.978 Y-13.619 Z1.157 F200.000
G1 X-15.804 Y-12.653 Z1.105 F200.000
G1 X-16.568 Y-11.636 Z1.051 F200.000
G1 X-17.266 Y-10.573 Z0.995 F200.000
G1 X-17.896 Y-9.469 Z0.938 F200.000
G1 X-18.455 Y-8.328 Z0.879 F200.000
G1 X-18.942 Y-7.153 Z0.818 F200.000
G1 X-19.354 Y-5.951 Z0.757 F200.000
G1 X-19.689 Y-4.725 Z0.695 F200.000
G1 X-19.947 Y-3.480 Z0.633 F200.000
G1 X-20.126 Y-2.222 Z0.570 F200.000
G1 X-20.226 Y-0.955 Z0.507 F200.000
G1 X-20.245 Y0.316 Z0.445 F200.000
G1 X-20.185 Y1.586 Z0.383 F200.000
G1 X-20.046 Y2.849 Z0.321 F200.000
G1 X-19.827 Y4.102 Z0.261 F200.000
G1 X-19.530 Y5.338 Z0.202 F200.000
G1 X-19.156 Y6.553 Z0.145 F200.000
G1 X-18.707 Y7.742 Z0.089 F200.000
G1 X-18.183 Y8.901 Z0.035 F200.000
G1 X-17.588 Y10.024 Z-0.017 F200.000
G1 X-16.924 Y11.108 Z-0.067 F200.000
G1 X-16.192 Y12.149 Z-0.114 F200.000
G1 X-15.397 Y13.141 Z-0.159 F200.000
G1 X-14.541 Y14.082 Z-0.200 F200.000
G1 X-13.628 Y14.967 Z-0.239 F200.000
G1 X-12.661 Y15.794 Z-0.274 F200.000
G1 X-11.644 Y16.558 Z-0.306 F200.000
G1 X-10.581 Y17.257 Z-0.334 F200.000
G1 X-9.476 Y17.888 Z-0.359 F200.000
G1 X-8.333 Y18.448 Z-0.381 F200.000
G1 X-7.158 Y18.936 Z-0.398 F200.000
G1 X-5.954 Y19.349 Z-0.412 F200.000
G1 X-4.727 Y19.686 Z-0.422 F200.000
G1 X-3.481 Y19.945 Z-0.428 F200.000
G1 X-2.222 Y20.126 Z-0.430 F200.000
G1 X-1.017 Y20.223 Z-0.466 F200.000
G1 X0.191 Y20.247 Z-0.503 F200.000
G1 X1.399 Y20.200 Z-0.540 F200.000
G1 X2.601 Y20.080 Z-0.578 F200.000
G1 X3.794 Y19.889 Z-0.617 F200.000
G1 X4.974 Y19.628 Z-0.656 F200.000
G1 X6.136 Y19.296 Z-0.695 F200.000
G1 X7.276 Y18.896 Z-0.735 F200.000
G1 X8.390 Y18.428 Z-0.774 F200.000
G1 X9.475 Y17.895 Z-0.813 F200.000
G1 X10.525 Y17.298 Z-0.852 F200.000
G1 X11.538 Y16.639 Z-0.890 F200.000
G1 X12.510 Y15.921 Z-0.927 F200.000
G1 X13.438 Y15.146 Z-0.964 F200.000
G1 X14.318 Y14.318 Z-1.000 F200.000
G1 X15.183 Y13.397 Z-1.006 F200.000
G1 X15.988 Y12.424 Z-1.012 F200.000
G1 X16.732 Y11.403 Z-1.019 F200.000
G1 X17.410 Y10.337 Z-1.027 F200.000
G1 X18.021 Y9.232 Z-1.035 F200.000
G1 X18.562 Y8.090 Z-1.044 F200.000
G1 X19.030 Y6.917 Z-1.053 F200.000
G1 X19.424 Y5.717 Z-1.063 F200.000
G1 X19.743 Y4.494 Z-1.073 F200.000
G1 X19.985 Y3.255 Z-1.084 F200.000
G1 X20.149 Y2.002 Z-1.095 F200.000
G1 X20.235 Y0.742 Z-1.106 F200.000
G1 X20.241 Y-0.521 Z-1.118 F200.000
G1 X20.170 Y-1.782 Z-1.130 F200.000
G1 X20.019 Y-3.037 Z-1.142 F200.000
G1 X19.791 Y-4.279 Z-1.154 F200.000
G1 X19.485 Y-5.505 Z-1.166 F200.000
G1 X19.104 Y-6.709 Z-1.179 F200.000
G1 X18.649 Y-7.887 Z-1.191 F200.000
G1 X18.121 Y-9.035 Z-1.203 F200.000
G1 X17.522 Y-10.147 Z-1.216 F200.000
G1 X16.855 Y-11.220 Z-1.228 F200.000
G1 X16.123 Y-12.249 Z-1.240 F200.000
G1 X15.328 Y-13.231 Z-1.251 F200.000
G1 X14.473 Y-14.161 Z-1.263 F200.000
G1 X13.562 Y-15.035 Z-1.274 F200.000
G1 X12.598 Y-15.852 Z-1.284 F200.000
G1 X11.585 Y-16.606 Z-1.295 F200.000
G1 X10.527 Y-17.297 Z-1.304 F200.000
G1 X9.428 Y-17.919 Z-1.314 F200.000
G1 X8.292 Y-18.472 Z-1.323 F200.000
G1 X7.124 Y-18.953 Z-1.331 F200.000
G1 X5.928 Y-19.361 Z-1.338 F200.000
G1 X4.710 Y-19.693 Z-1.345 F200.000
G1 X3.472 Y-19.948 Z-1.352 F200.000
G1 X2.222 Y-20.126 Z-1.358 F200.000
G1 X0.954 Y-20.226 Z-1.358 F200.000
G1 X-0.318 Y-20.245 Z-1.359 F200.000
G1 X-1.589 Y-20.185 Z-1.362 F200.000
G1 X-2.853 Y-20.046 Z-1.365 F200.000
G1 X-4.106 Y-19.827 Z-1.370 F200.000
G1 X-5.343 Y-19.530 Z-1.375 F200.000
G1 X-6.559 Y-19.156 Z-1.381 F200.000
G1 X-7.749 Y-18.706 Z-1.388 F200.000
G1 X-8.908 Y-18.183 Z-1.396 F200.000
G1 X-10.032 Y-17.588 Z-1.405 F200.000
G1 X-11.117 Y-16.923 Z-1.415 F200.000
G1 X-12.158 Y-16.191 Z-1.425 F200.000
G1 X-13.150 Y-15.396 Z-1.436 F200.000
G1 X-14.091 Y-14.540 Z-1.448 F200.000
G1 X-14.976 Y-13.627 Z-1.461 F200.000
G1 X-15.802 Y-12.659 Z-1.474 F200.000
G1 X-16.566 Y-11.642 Z-1.487 F200.000
G1 X-17.265 Y-10.579 Z-1.501 F200.000
G1 X-17.895 Y-9.474 Z-1.515 F200.000
G1 X-18.454 Y-8.332 Z-1.530 F200.000
G1 X-18.941 Y-7.157 Z-1.545 F200.000
G1 X-19.353 Y-5.953 Z-1.561 F200.000
G1 X-19.689 Y-4.727 Z-1.576 F200.000
G1 X-19.947 Y-3.481 Z-1.592 F200.000
G1 X-20.126 Y-2.222 Z-1.608 F200.000
G1 X-20.226 Y-0.954 Z-1.623 F200.000
G1 X-20.246 Y0.318 Z-1.639 F200.000
G1 X-20.186 Y1.589 Z-1.654 F200.000
G1 X-20.046 Y2.853 Z-1.670 F200.000
G1 X-19.827 Y4.106 Z-1.685 F200.000
G1 X-19.530 Y5.343 Z-1.700 F200.000
G1 X-19.156 Y6.559 Z-1.714 F200.000
G1 X-18.707 Y7.748 Z-1.728 F200.000
G1 X-18.183 Y8.908 Z-1.741 F200.000
G1 X-17.588 Y10.032 Z-1.754 F200.000
G1 X-16.923 Y11.116 Z-1.767 F200.000
G1 X-16.192 Y12.157 Z-1.779 F200.000
G1 X-15.397 Y13.150 Z-1.790 F200.000
G1 X-14.541 Y14.091 Z-1.800 F200.000
G1 X-13.627 Y14.976 Z-1.810 F200.000
G1 X-12.660 Y15.802 Z-1.819 F200.000
G1 X-11.643 Y16.566 Z-1.827 F200.000
G1 X-10.580 Y17.264 Z-1.834 F200.000
G1 X-9.475 Y17.894 Z-1.840 F200.000
G1 X-8.332 Y18.454 Z-1.845 F200.000
G1 X-7.157 Y18.941 Z-1.850 F200.000
G1 X-5.954 Y19.353 Z-1.853 F200.000
G1 X-4.727 Y19.689 Z-1.856 F200.000
G1 X-3.481 Y19.947 Z-1.857 F200.000
G1 X-2.222 Y20.126 Z-1.858 F200.000
G1 X-1.017 Y20.223 Z-1.866 F200.000
G1 X0.191 Y20.247 Z-1.876 F200.000
G1 X1.398 Y20.200 Z-1.885 F200.000
G1 X2.601 Y20.080 Z-1.895 F200.000
G1 X3.794 Y19.889 Z-1.904 F200.000
G1 X4.974 Y19.628 Z-1.914 F200.000
G1 X6.136 Y19.296 Z-1.924 F200.000
G1 X7.276 Y18.896 Z-1.934 F200.000
G1 X8.390 Y18.428 Z-1.943 F200.000
G1 X9.475 Y17.895 Z-1.953 F200.000
G1 X10.525 Y17.297 Z-1.963 F200.000
G1 X11.538 Y16.639 Z-1.972 F200.000
G1 X12.511 Y15.921 Z-1.982 F200.000
G1 X13.438 Y15.146 Z-1.991 F200.000
G1 X14.318 Y14.318 Z-2.000 F200.000
G1 X15.183 Y13.397 Z-2.006 F200.000
G1 X15.988 Y12.424 Z-2.012 F200.000
G1 X16.732 Y11.403 Z-2.019 F200.000
G1 X17.410 Y10.337 Z-2.027 F200.000
G1 X18.021 Y9.232 Z-2.035 F200.000
G1 X18.562 Y8.090 Z-2.044 F200.000
G1 X19.030 Y6.917 Z-2.053 F200.000
G1 X19.424 Y5.717 Z-2.063 F200.000
G1 X19.743 Y4.494 Z-2.073 F200.000
G1 X19.985 Y3.255 Z-2.084 F200.000
G1 X20.149 Y2.002 Z-2.095 F200.000
G1 X20.235 Y0.742 Z-2.106 F200.000
G1 X20.241 Y-0.521 Z-2.118 F200.000
G1 X20.170 Y-1.782 Z-2.130 F200.000
G1 X20.019 Y-3.037 Z-2.142 F200.000
G1 X19.791 Y-4.279 Z-2.154 F200.000
G1 X19.485 Y-5.505 Z-2.166 F200.000
G1 X19.104 Y-6.709 Z-2.179 F200.000
G1 X18.649 Y-7.887 Z-2.191 F200.000
G1 X18.121 Y-9.035 Z-2.203 F200.000
G1 X17.522 Y-10.147 Z-2.216 F200.000
G1 X16.855 Y-11.220 Z-2.228 F200.000
G1 X16.123 Y-12.249 Z-2.240 F200.000
G1 X15.328 Y-13.231 Z-2.251 F200.000
G1 X14.473 Y-14.161 Z-2.263 F200.000
G1 X13.562 Y-15.035 Z-2.274 F200.000
G1 X12.598 Y-15.852 Z-2.284 F200.000
G1 X11.585 Y-16.606 Z-2.295 F200.000
G1 X10.527 Y-17.297 Z-2.304 F200.000
G1 X9.428 Y-17.919 Z-2.314 F200.000
G1 X8.292 Y-18.472 Z-2.323 F200.000
G1 X7.124 Y-18.953 Z-2.331 F200.000
G1 X5.928 Y-19.361 Z-2.338 F200.000
G1 X4.710 Y-19.693 Z-2.345 F200.000
G1 X3.472 Y-19.948 Z-2.352 F200.000
G1 X2.222 Y-20.126 Z-2.358 F200.000
G1 X0.954 Y-20.226 Z-2.358 F200.000
G1 X-0.318 Y-20.245 Z-2.359 F200.000
G1 X-1.589 Y-20.185 Z-2.362 F200.000
G1 X-2.853 Y-20.046 Z-2.365 F200.000
G1 X-4.106 Y-19.827 Z-2.370 F200.000
G1 X-5.343 Y-19.530 Z-2.375 F200.000
G1 X-6.559 Y-19.156 Z-2.381 F200.000
G1 X-7.749 Y-18.706 Z-2.388 F200.000
G1 X-8.908 Y-18.183 Z-2.396 F200.000
G1 X-10.032 Y-17.588 Z-2.405 F200.000
G1 X-11.117 Y-16.923 Z-2.415 F200.000
G1 X-12.158 Y-16.191 Z-2.425 F200.000
G1 X-13.150 Y-15.396 Z-2.436 F200.000
G1 X-14.091 Y-14.540 Z-2.448 F200.000
G1 X-14.976 Y-13.627 Z-2.461 F200.000
G1 X-15.802 Y-12.659 Z-2.474 F200.000
G1 X-16.566 Y-11.642 Z-2.487 F200.000
G1 X-17.265 Y-10.579 Z-2.501 F200.000
G1 X-17.895 Y-9.474 Z-2.515 F200.000
G1 X-18.454 Y-8.332 Z-2.530 F200.000
G1 X-18.941 Y-7.157 Z-2.545 F200.000
G1 X-19.353 Y-5.953 Z-2.561 F200.000
G1 X-19.689 Y-4.727 Z-2.576 F200.000
G1 X-19.947 Y-3.481 Z-2.592 F200.000
G1 X-20.126 Y-2.222 Z-2.608 F200.000
G1 X-20.226 Y-0.954 Z-2.623 F200.000
G1 X-20.246 Y0.318 Z-2.639 F200.000
G1 X-20.186 Y1.589 Z-2.654 F200.000
G1 X-20.046 Y2.853 Z-2.670 F200.000
G1 X-19.827 Y4.106 Z-2.685 F200.000
G1 X-19.530 Y5.343 Z-2.700 F200.000
G1 X-19.156 Y6.559 Z-2.714 F200.000
G1 X-18.707 Y7.748 Z-2.728 F200.000
G1 X-18.183 Y8.908 Z-2.741 F200.000
G1 X-17.588 Y10.032 Z-2.754 F200.000
G1 X-16.923 Y11.116 Z-2.767 F200.000
G1 X-16.192 Y12.157 Z-2.779 F200.000
G1 X-15.397 Y13.150 Z-2.790 F200.000
G1 X-14.541 Y14.091 Z-2.800 F200.000
G1 X-13.627 Y14.976 Z-2.810 F200.000
G1 X-12.660 Y15.802 Z-2.819 F200.000
G1 X-11.643 Y16.566 Z-2.827 F200.000
G1 X-10.580 Y17.264 Z-2.834 F200.000
G1 X-9.475 Y17.894 Z-2.840 F200.000
G1 X-8.332 Y18.454 Z-2.845 F200.000
G1 X-7.157 Y18.941 Z-2.850 F200.000
G1 X-5.954 Y19.353 Z-2.853 F200.000
G1 X-4.727 Y19.689 Z-2.856 F200.000
G1 X-3.481 Y19.947 Z-2.857 F200.000
G1 X-2.222 Y20.126 Z-2.858 F200.000
G1 X-1.017 Y20.223 Z-2.866 F200.000
G1 X0.191 Y20.247 Z-2.876 F200.000
G1 X1.398 Y20.200 Z-2.885 F200.000
G1 X2.601 Y20.080 Z-2.895 F200.000
G1 X3.794 Y19.889 Z-2.904 F200.000
G1 X4.974 Y19.628 Z-2.914 F200.000
G1 X6.136 Y19.296 Z-2.924 F200.000
G1 X7.276 Y18.896 Z-2.934 F200.000
G1 X8.390 Y18.428 Z-2.943 F200.000
G1 X9.475 Y17.895 Z-2.953 F200.000
G1 X10.525 Y17.297 Z-2.963 F200.000
G1 X11.538 Y16.639 Z-2.972 F200.000
G1 X12.511 Y15.921 Z-2.982 F200.000
G1 X13.438 Y15.146 Z-2.991 F200.000
G1 X14.318 Y14.318 Z-3.000 F200.000
G1 X15.183 Y13.397 Z-3.006 F200.000
G1 X15.988 Y12.424 Z-3.012 F200.000
G1 X16.732 Y11.403 Z-3.019 F200.000
G1 X17.410 Y10.337 Z-3.027 F200.000
G1 X18.021 Y9.232 Z-3.035 F200.000
G1 X18.562 Y8.090 Z-3.044 F200.000
G1 X19.030 Y6.917 Z-3.053 F200.000
G1 X19.424 Y5.717 Z-3.063 F200.000
G1 X19.743 Y4.494 Z-3.073 F200.000
G1 X19.985 Y3.255 Z-3.084 F200.000
G1 X20.149 Y2.002 Z-3.095 F200.000
G1 X20.235 Y0.742 Z-3.106 F200.000
G1 X20.241 Y-0.521 Z-3.118 F200.000
G1 X20.170 Y-1.782 Z-3.130 F200.000
G1 X20.019 Y-3.037 Z-3.142 F200.000
G1 X19.791 Y-4.279 Z-3.154 F200.000
G1 X19.485 Y-5.505 Z-3.166 F200.000
G1 X19.104 Y-6.709 Z-3.179 F200.000
G1 X18.649 Y-7.887 Z-3.191 F200.000
G1 X18.121 Y-9.035 Z-3.203 F200.000
G1 X17.522 Y-10.147 Z-3.216 F200.000
G1 X16.855 Y-11.220 Z-3.228 F200.000
G1 X16.123 Y-12.249 Z-3.240 F200.000
G1 X15.328 Y-13.231 Z-3.251 F200.000
G1 X14.473 Y-14.161 Z-3.263 F200.000
G1 X13.562 Y-15.035 Z-3.274 F200.000
G1 X12.598 Y-15.852 Z-3.284 F200.000
G1 X11.585 Y-16.606 Z-3.295 F200.000
G1 X10.527 Y-17.297 Z-3.304 F200.000
G1 X9.428 Y-17.919 Z-3.314 F200.000
G1 X8.292 Y-18.472 Z-3.323 F200.000
G1 X7.124 Y-18.953 Z-3.331 F200.000
G1 X5.928 Y-19.361 Z-3.338 F200.000
G1 X4.710 Y-19.693 Z-3.345 F200.000
G1 X3.472 Y-19.948 Z-3.352 F200.000
G1 X2.222 Y-20.126 Z-3.358 F200.000
G1 X0.954 Y-20.226 Z-3.358 F200.000
G1 X-0.318 Y-20.245 Z-3.359 F200.000
G1 X-1.589 Y-20.185 Z-3.362 F200.000
G1 X-2.853 Y-20.046 Z-3.365 F200.000
G1 X-4.106 Y-19.827 Z-3.370 F200.000
G1 X-5.343 Y-19.530 Z-3.375 F200.000
G1 X-6.559 Y-19.156 Z-3.381 F200.000
G1 X-7.749 Y-18.706 Z-3.388 F200.000
G1 X-8.908 Y-18.183 Z-3.396 F200.000
G1 X-10.032 Y-17.588 Z-3.405 F200.000
G1 X-11.117 Y-16.923 Z-3.415 F200.000
G1 X-12.158 Y-16.191 Z-3.425 F200.000
G1 X-13.150 Y-15.396 Z-3.436 F200.000
G1 X-14.091 Y-14.540 Z-3.448 F200.000
G1 X-14.976 Y-13.627 Z-3.461 F200.000
G1 X-15.802 Y-12.659 Z-3.474 F200.000
G1 X-16.566 Y-11.642 Z-3.487 F200.000
G1 X-17.265 Y-10.579 Z-3.501 F200.000
G1 X-17.895 Y-9.474 Z-3.515 F200.000
G1 X-18.454 Y-8.332 Z-3.530 F200.000
G1 X-18.941 Y-7.157 Z-3.545 F200.000
G1 X-19.353 Y-5.953 Z-3.561 F200.000
G1 X-19.689 Y-4.727 Z-3.576 F200.000
G1 X-19.947 Y-3.481 Z-3.592 F200.000
G1 X-20.126 Y-2.222 Z-3.608 F200.000
G1 X-20.226 Y-0.954 Z-3.623 F200.000
G1 X-20.246 Y0.318 Z-3.639 F200.000
G1 X-20.186 Y1.589 Z-3.654 F200.000
G1 X-20.046 Y2.853 Z-3.670 F200.000
G1 X-19.827 Y4.106 Z-3.685 F200.000
G1 X-19.530 Y5.343 Z-3.700 F200.000
G1 X-19.156 Y6.559 Z-3.714 F200.000
G1 X-18.707 Y7.748 Z-3.728 F200.000
G1 X-18.183 Y8.908 Z-3.741 F200.000
G1 X-17.588 Y10.032 Z-3.754 F200.000
G1 X-16.923 Y11.116 Z-3.767 F200.000
G1 X-16.192 Y12.157 Z-3.779 F200.000
G1 X-15.397 Y13.150 Z-3.790 F200.000
G1 X-14.541 Y14.091 Z-3.800 F200.000
G1 X-13.627 Y14.976 Z-3.810 F200.000
G1 X-12.660 Y15.802 Z-3.819 F200.000
G1 X-11.643 Y16.566 Z-3.827 F200.000
G1 X-10.580 Y17.264 Z-3.834 F200.000
G1 X-9.475 Y17.894 Z-3.840 F200.000
G1 X-8.332 Y18.454 Z-3.845 F200.000
G1 X-7.157 Y18.941 Z-3.850 F200.000
G1 X-5.954 Y19.353 Z-3.853 F200.000
G1 X-4.727 Y19.689 Z-3.856 F200.000
G1 X-3.481 Y19.947 Z-3.857 F200.000
G1 X-2.222 Y20.126 Z-3.858 F200.000
G1 X-1.017 Y20.223 Z-3.866 F200.000
G1 X0.191 Y20.247 Z-3.876 F200.000
G1 X1.398 Y20.200 Z-3.885 F200.000
G1 X2.601 Y20.080 Z-3.895 F200.000
G1 X3.794 Y19.889 Z-3.904 F200.000
G1 X4.974 Y19.628 Z-3.914 F200.000
G1 X6.136 Y19.296 Z-3.924 F200.000
G1 X7.276 Y18.896 Z-3.934 F200.000
G1 X8.390 Y18.428 Z-3.943 F200.000
G1 X9.475 Y17.895 Z-3.953 F200.000
G1 X10.525 Y17.297 Z-3.963 F200.000
G1 X11.538 Y16.639 Z-3.972 F200.000
G1 X12.511 Y15.921 Z-3.982 F200.000
G1 X13.438 Y15.146 Z-3.991 F200.000
G1 X14.318 Y14.318 Z-4.000 F200.000
G1 X15.183 Y13.397 Z-4.006 F200.000
G1 X15.988 Y12.424 Z-4.012 F200.000
G1 X16.732 Y11.403 Z-4.019 F200.000
G1 X17.410 Y10.337 Z-4.027 F200.000
G1 X18.021 Y9.232 Z-4.035 F200.000
G1 X18.562 Y8.090 Z-4.044 F200.000
G1 X19.030 Y6.917 Z-4.053 F200.000
G1 X19.424 Y5.717 Z-4.063 F200.000
G1 X19.743 Y4.494 Z-4.073 F200.000
G1 X19.985 Y3.255 Z-4.084 F200.000
G1 X20.149 Y2.002 Z-4.095 F200.000
G1 X20.235 Y0.742 Z-4.106 F200.000
G1 X20.241 Y-0.521 Z-4.118 F200.000
G1 X20.170 Y-1.782 Z-4.130 F200.000
G1 X20.019 Y-3.037 Z-4.142 F200.000
G1 X19.791 Y-4.279 Z-4.154 F200.000
G1 X19.485 Y-5.505 Z-4.166 F200.000
G1 X19.104 Y-6.709 Z-4.179 F200.000
G1 X18.649 Y-7.887 Z-4.191 F200.000
G1 X18.121 Y-9.035 Z-4.203 F200.000
G1 X17.522 Y-10.147 Z-4.216 F200.000
G1 X16.855 Y-11.220 Z-4.228 F200.000
G1 X16.123 Y-12.249 Z-4.240 F200.000
G1 X15.328 Y-13.231 Z-4.251 F200.000
G1 X14.473 Y-14.161 Z-4.263 F200.000
G1 X13.562 Y-15.035 Z-4.274 F200.000
G1 X12.598 Y-15.852 Z-4.284 F200.000
G1 X11.585 Y-16.606 Z-4.295 F200.000
G1 X10.527 Y-17.297 Z-4.304 F200.000
G1 X9.428 Y-17.919 Z-4.314 F200.000
G1 X8.292 Y-18.472 Z-4.323 F200.000
G1 X7.124 Y-18.953 Z-4.331 F200.000
G1 X5.928 Y-19.361 Z-4.338 F200.000
G1 X4.710 Y-19.693 Z-4.345 F200.000
G1 X3.472 Y-19.948 Z-4.352 F200.000
G1 X2.222 Y-20.126 Z-4.358 F200.000
G1 X0.954 Y-20.226 Z-4.358 F200.000
G1 X-0.318 Y-20.245 Z-4.359 F200.000
G1 X-1.589 Y-20.185 Z-4.362 F200.000
G1 X-2.853 Y-20.046 Z-4.365 F200.000
G1 X-4.106 Y-19.827 Z-4.370 F200.000
G1 X-5.343 Y-19.530 Z-4.375 F200.000
G1 X-6.559 Y-19.156 Z-4.381 F200.000
G1 X-7.749 Y-18.706 Z-4.388 F200.000
G1 X-8.908 Y-18.183 Z-4.396 F200.000
G1 X-10.032 Y-17.588 Z-4.405 F200.000
G1 X-11.117 Y-16.923 Z-4.415 F200.000
G1 X-12.158 Y-16.191 Z-4.425 F200.000
G1 X-13.150 Y-15.396 Z-4.436 F200.000
G1 X-14.091 Y-14.540 Z-4.448 F200.000
G1 X-14.976 Y-13.627 Z-4.461 F200.000
G1 X-15.802 Y-12.659 Z-4.474 F200.000
G1 X-16.566 Y-11.642 Z-4.487 F200.000
G1 X-17.265 Y-10.579 Z-4.501 F200.000
G1 X-17.895 Y-9.474 Z-4.515 F200.000
G1 X-18.454 Y-8.332 Z-4.530 F200.000
G1 X-18.941 Y-7.157 Z-4.545 F200.000
G1 X-19.353 Y-5.953 Z-4.561 F200.000
G1 X-19.689 Y-4.727 Z-4.576 F200.000
G1 X-19.947 Y-3.481 Z-4.592 F200.000
G1 X-20.126 Y-2.222 Z-4.608 F200.000
G1 X-20.226 Y-0.954 Z-4.623 F200.000
G1 X-20.246 Y0.318 Z-4.639 F200.000
G1 X-20.186 Y1.589 Z-4.654 F200.000
G1 X-20.046 Y2.853 Z-4.670 F200.000
G1 X-19.827 Y4.106 Z-4.685 F200.000
G1 X-19.530 Y5.343 Z-4.700 F200.000
G1 X-19.156 Y6.559 Z-4.714 F200.000
G1 X-18.707 Y7.748 Z-4.728 F200.000
G1 X-18.183 Y8.908 Z-4.741 F200.000
G1 X-17.588 Y10.032 Z-4.754 F200.000
G1 X-16.923 Y11.116 Z-4.767 F200.000
G1 X-16.192 Y12.157 Z-4.779 F200.000
G1 X-15.397 Y13.150 Z-4.790 F200.000
G1 X-14.541 Y14.091 Z-4.800 F200.000
G1 X-13.627 Y14.976 Z-4.810 F200.000
G1 X-12.660 Y15.802 Z-4.819 F200.000
G1 X-11.643 Y16.566 Z-4.827 F200.000
G1 X-10.580 Y17.264 Z-4.834 F200.000
G1 X-9.475 Y17.894 Z-4.840 F200.000
G1 X-8.332 Y18.454 Z-4.845 F200.000
G1 X-7.157 Y18.941 Z-4.850 F200.000
G1 X-5.954 Y19.353 Z-4.853 F200.000
G1 X-4.727 Y19.689 Z-4.856 F200.000
G1 X-3.481 Y19.947 Z-4.857 F200.000
G1 X-2.222 Y20.126 Z-4.858 F200.000
G1 X-1.017 Y20.223 Z-4.866 F200.000
G1 X0.191 Y20.247 Z-4.876 F200.000
G1 X1.398 Y20.200 Z-4.885 F200.000
G1 X2.601 Y20.080 Z-4.895 F200.000
G1 X3.794 Y19.889 Z-4.904 F200.000
G1 X4.974 Y19.628 Z-4.914 F200.000
G1 X6.136 Y19.296 Z-4.924 F200.000
G1 X7.276 Y18.896 Z-4.934 F200.000
G1 X8.390 Y18.428 Z-4.943 F200.000
G1 X9.475 Y17.895 Z-4.953 F200.000
G1 X10.525 Y17.297 Z-4.963 F200.000
G1 X11.538 Y16.639 Z-4.972 F200.000
G1 X12.511 Y15.921 Z-4.982 F200.000
G1 X13.438 Y15.146 Z-4.991 F200.000
G1 X14.318 Y14.318 Z-5.000 F200.000
G1 X15.183 Y13.397 Z-5.006 F200.000
G1 X15.988 Y12.424 Z-5.012 F200.000
G1 X16.732 Y11.403 Z-5.019 F200.000
G1 X17.410 Y10.337 Z-5.027 F200.000
G1 X18.021 Y9.232 Z-5.035 F200.000
G1 X18.562 Y8.090 Z-5.044 F200.000
G1 X19.030 Y6.917 Z-5.053 F200.000
G1 X19.424 Y5.717 Z-5.063 F200.000
G1 X19.743 Y4.494 Z-5.073 F200.000
G1 X19.985 Y3.255 Z-5.084 F200.000
G1 X20.149 Y2.002 Z-5.095 F200.000
G1 X20.235 Y0.742 Z-5.106 F200.000
G1 X20.241 Y-0.521 Z-5.118 F200.000
G1 X20.170 Y-1.782 Z-5.130 F200.000
G1 X20.019 Y-3.037 Z-5.142 F200.000
G1 X19.791 Y-4.279 Z-5.154 F200.000
G1 X19.485 Y-5.505 Z-5.166 F200.000
G1 X19.104 Y-6.709 Z-5.179 F200.000
G1 X18.649 Y-7.887 Z-5.191 F200.000
G1 X18.121 Y-9.035 Z-5.203 F200.000
G1 X17.522 Y-10.147 Z-5.216 F200.000
G1 X16.855 Y-11.220 Z-5.228 F200.000
G1 X16.123 Y-12.249 Z-5.240 F200.000
G1 X15.328 Y-13.231 Z-5.251 F200.000
G1 X14.473 Y-14.161 Z-5.263 F200.000
G1 X13.562 Y-15.035 Z-5.274 F200.000
G1 X12.598 Y-15.852 Z-5.284 F200.000
G1 X11.585 Y-16.606 Z-5.295 F200.000
G1 X10.527 Y-17.297 Z-5.304 F200.000
G1 X9.428 Y-17.919 Z-5.314 F200.000
G1 X8.292 Y-18.472 Z-5.323 F200.000
G1 X7.124 Y-18.953 Z-5.331 F200.000
G1 X5.928 Y-19.361 Z-5.338 F200.000
G1 X4.710 Y-19.693 Z-5.345 F200.000
G1 X3.472 Y-19.948 Z-5.352 F200.000
G1 X2.222 Y-20.126 Z-5.358 F200.000
G1 X0.954 Y-20.226 Z-5.358 F200.000
G1 X-0.318 Y-20.245 Z-5.359 F200.000
G1 X-1.589 Y-20.185 Z-5.362 F200.000
G1 X-2.853 Y-20.046 Z-5.365 F200.000
G1 X-4.106 Y-19.827 Z-5.370 F200.000
G1 X-5.343 Y-19.530 Z-5.375 F200.000
G1 X-6.559 Y-19.156 Z-5.381 F200.000
G1 X-7.749 Y-18.706 Z-5.388 F200.000
G1 X-8.908 Y-18.183 Z-5.396 F200.000
G1 X-10.032 Y-17.588 Z-5.405 F200.000
G1 X-11.117 Y-16.923 Z-5.415 F200.000
G1 X-12.158 Y-16.191 Z-5.425 F200.000
G1 X-13.150 Y-15.396 Z-5.436 F200.000
G1 X-14.091 Y-14.540 Z-5.448 F200.000
G1 X-14.976 Y-13.627 Z-5.461 F200.000
G1 X-15.802 Y-12.659 Z-5.474 F200.000
G1 X-16.566 Y-11.642 Z-5.487 F200.000
G1 X-17.265 Y-10.579 Z-5.501 F200.000
G1 X-17.895 Y-9.474 Z-5.515 F200.000
G1 X-18.454 Y-8.332 Z-5.530 F200.000
G1 X-18.941 Y-7.157 Z-5.545 F200.000
G1 X-19.353 Y-5.953 Z-5.561 F200.000
G1 X-19.689 Y-4.727 Z-5.576 F200.000
G1 X-19.947 Y-3.481 Z-5.592 F200.000
G1 X-20.126 Y-2.222 Z-5.608 F200.000
G1 X-20.226 Y-0.954 Z-5.623 F200.000
G1 X-20.246 Y0.318 Z-5.639 F200.000
G1 X-20.186 Y1.589 Z-5.654 F200.000
G1 X-20.046 Y2.853 Z-5.670 F200.000
G1 X-19.827 Y4.106 Z-5.685 F200.000
G1 X-19.530 Y5.343 Z-5.700 F200.000
G1 X-19.156 Y6.559 Z-5.714 F200.000
G1 X-18.707 Y7.748 Z-5.728 F200.000
G1 X-18.183 Y8.908 Z-5.741 F200.000
G1 X-17.588 Y10.032 Z-5.754 F200.000
G1 X-16.923 Y11.116 Z-5.767 F200.000
G1 X-16.192 Y12.157 Z-5.779 F200.000
G1 X-15.397 Y13.150 Z-5.790 F200.000
G1 X-14.541 Y14.091 Z-5.800 F200.000
G1 X-13.627 Y14.976 Z-5.810 F200.000
G1 X-12.660 Y15.802 Z-5.819 F200.000
G1 X-11.643 Y16.566 Z-5.827 F200.000
G1 X-10.580 Y17.264 Z-5.834 F200.000
G1 X-9.475 Y17.894 Z-5.840 F200.000
G1 X-8.332 Y18.454 Z-5.845 F200.000
G1 X-7.157 Y18.941 Z-5.850 F200.000
G1 X-5.954 Y19.353 Z-5.853 F200.000
G1 X-4.727 Y19.689 Z-5.856 F200.000
G1 X-3.481 Y19.947 Z-5.857 F200.000
G1 X-2.222 Y20.126 Z-5.858 F200.000
G1 X-1.017 Y20.223 Z-5.866 F200.000
G1 X0.191 Y20.247 Z-5.876 F200.000
G1 X1.398 Y20.200 Z-5.885 F200.000
G1 X2.601 Y20.080 Z-5.895 F200.000
G1 X3.794 Y19.889 Z-5.904 F200.000
G1 X4.974 Y19.628 Z-5.914 F200.000
G1 X6.136 Y19.296 Z-5.924 F200.000
G1 X7.276 Y18.896 Z-5.934 F200.000
G1 X8.390 Y18.428 Z-5.943 F200.000
G1 X9.475 Y17.895 Z-5.953 F200.000
G1 X10.525 Y17.297 Z-5.963 F200.000
G1 X11.538 Y16.639 Z-5.972 F200.000
G1 X12.511 Y15.921 Z-5.982 F200.000
G1 X13.438 Y15.146 Z-5.991 F200.000
G1 X14.318 Y14.318 Z-6.000 F200.000
G1 X15.183 Y13.397 Z-6.006 F200.000
G1 X15.988 Y12.424 Z-6.012 F200.000
G1 X16.732 Y11.403 Z-6.019 F200.000
G1 X17.410 Y10.337 Z-6.027 F200.000
G1 X18.021 Y9.232 Z-6.035 F200.000
G1 X18.562 Y8.090 Z-6.044 F200.000
G1 X19.030 Y6.917 Z-6.053 F200.000
G1 X19.424 Y5.717 Z-6.063 F200.000
G1 X19.743 Y4.494 Z-6.073 F200.000
G1 X19.985 Y3.255 Z-6.084 F200.000
G1 X20.149 Y2.002 Z-6.095 F200.000
G1 X20.235 Y0.742 Z-6.106 F200.000
G1 X20.241 Y-0.521 Z-6.118 F200.000
G1 X20.170 Y-1.782 Z-6.130 F200.000
G1 X20.019 Y-3.037 Z-6.142 F200.000
G1 X19.791 Y-4.279 Z-6.154 F200.000
G1 X19.485 Y-5.505 Z-6.166 F200.000
G1 X19.104 Y-6.709 Z-6.179 F200.000
G1 X18.649 Y-7.887 Z-6.191 F200.000
G1 X18.121 Y-9.035 Z-6.203 F200.000
G1 X17.522 Y-10.147 Z-6.216 F200.000
G1 X16.855 Y-11.220 Z-6.228 F200.000
G1 X16.123 Y-12.249 Z-6.240 F200.000
G1 X15.328 Y-13.231 Z-6.251 F200.000
G1 X14.473 Y-14.161 Z-6.263 F200.000
G1 X13.562 Y-15.035 Z-6.274 F200.000
G1 X12.598 Y-15.852 Z-6.284 F200.000
G1 X11.585 Y-16.606 Z-6.295 F200.000
G1 X10.527 Y-17.297 Z-6.304 F200.000
G1 X9.428 Y-17.919 Z-6.314 F200.000
G1 X8.292 Y-18.472 Z-6.323 F200.000
G1 X7.124 Y-18.953 Z-6.331 F200.000
G1 X5.928 Y-19.361 Z-6.338 F200.000
G1 X4.710 Y-19.693 Z-6.345 F200.000
G1 X3.472 Y-19.948 Z-6.352 F200.000
G1 X2.222 Y-20.126 Z-6.358 F200.000
G1 X0.954 Y-20.226 Z-6.358 F200.000
G1 X-0.318 Y-20.245 Z-6.359 F200.000
G1 X-1.589 Y-20.185 Z-6.362 F200.000
G1 X-2.853 Y-20.046 Z-6.365 F200.000
G1 X-4.106 Y-19.827 Z-6.370 F200.000
G1 X-5.343 Y-19.530 Z-6.375 F200.000
G1 X-6.559 Y-19.156 Z-6.381 F200.000
G1 X-7.749 Y-18.706 Z-6.388 F200.000
G1 X-8.908 Y-18.183 Z-6.396 F200.000
G1 X-10.032 Y-17.588 Z-6.405 F200.000
G1 X-11.117 Y-16.923 Z-6.415 F200.000
G1 X-12.158 Y-16.191 Z-6.425 F200.000
G1 X-13.150 Y-15.396 Z-6.436 F200.000
G1 X-14.091 Y-14.540 Z-6.448 F200.000
G1 X-14.976 Y-13.627 Z-6.461 F200.000
G1 X-15.802 Y-12.659 Z-6.474 F200.000
G1 X-16.566 Y-11.642 Z-6.487 F200.000
G1 X-17.265 Y-10.579 Z-6.501 F200.000
G1 X-17.895 Y-9.474 Z-6.515 F200.000
G1 X-18.454 Y-8.332 Z-6.530 F200.000
G1 X-18.941 Y-7.157 Z-6.545 F200.000
G1 X-19.353 Y-5.953 Z-6.561 F200.000
G1 X-19.689 Y-4.727 Z-6.576 F200.000
G1 X-19.947 Y-3.481 Z-6.592 F200.000
G1 X-20.126 Y-2.222 Z-6.608 F200.000
G1 X-20.226 Y-0.954 Z-6.623 F200.000
G1 X-20.246 Y0.318 Z-6.639 F200.000
G1 X-20.186 Y1.589 Z-6.654 F200.000
G1 X-20.046 Y2.853 Z-6.670 F200.000
G1 X-19.827 Y4.106 Z-6.685 F200.000
G1 X-19.530 Y5.343 Z-6.700 F200.000
G1 X-19.156 Y6.559 Z-6.714 F200.000
G1 X-18.707 Y7.748 Z-6.728 F200.000
G1 X-18.183 Y8.908 Z-6.741 F200.000
G1 X-17.588 Y10.032 Z-6.754 F200.000
G1 X-16.923 Y11.116 Z-6.767 F200.000
G1 X-16.192 Y12.157 Z-6.779 F200.000
G1 X-15.397 Y13.150 Z-6.790 F200.000
G1 X-14.541 Y14.091 Z-6.800 F200.000
G1 X-13.627 Y14.976 Z-6.810 F200.000
G1 X-12.660 Y15.802 Z-6.819 F200.000
G1 X-11.643 Y16.566 Z-6.827 F200.000
G1 X-10.580 Y17.264 Z-6.834 F200.000
G1 X-9.475 Y17.894 Z-6.840 F200.000
G1 X-8.332 Y18.454 Z-6.845 F200.000
G1 X-7.157 Y18.941 Z-6.850 F200.000
G1 X-5.954 Y19.353 Z-6.853 F200.000
G1 X-4.727 Y19.689 Z-6.856 F200.000
G1 X-3.481 Y19.947 Z-6.857 F200.000
G1 X-2.222 Y20.126 Z-6.858 F200.000
G1 X-1.017 Y20.223 Z-6.866 F200.000
G1 X0.191 Y20.247 Z-6.876 F200.000
G1 X1.398 Y20.200 Z-6.885 F200.000
G1 X2.601 Y20.080 Z-6.895 F200.000
G1 X3.794 Y19.889 Z-6.904 F200.000
G1 X4.974 Y19.628 Z-6.914 F200.000
G1 X6.136 Y19.296 Z-6.924 F200.000
G1 X7.276 Y18.896 Z-6.934 F200.000
G1 X8.390 Y18.428 Z-6.943 F200.000
G1 X9.475 Y17.895 Z-6.953 F200.000
G1 X10.525 Y17.297 Z-6.963 F200.000
G1 X11.538 Y16.639 Z-6.972 F200.000
G1 X12.511 Y15.921 Z-6.982 F200.000
G1 X13.438 Y15.146 Z-6.991 F200.000
G1 X14.318 Y14.318 Z-7.000 F200.000
G1 X15.183 Y13.397 Z-7.006 F200.000
G1 X15.988 Y12.424 Z-7.012 F200.000
G1 X16.732 Y11.403 Z-7.019 F200.000
G1 X17.410 Y10.337 Z-7.027 F200.000
G1 X18.021 Y9.232 Z-7.035 F200.000
G1 X18.562 Y8.090 Z-7.044 F200.000
G1 X19.030 Y6.917 Z-7.053 F200.000
G1 X19.424 Y5.717 Z-7.063 F200.000
G1 X19.743 Y4.494 Z-7.073 F200.000
G1 X19.985 Y3.255 Z-7.084 F200.000
G1 X20.149 Y2.002 Z-7.095 F200.000
G1 X20.235 Y0.742 Z-7.106 F200.000
G1 X20.241 Y-0.521 Z-7.118 F200.000
G1 X20.170 Y-1.782 Z-7.130 F200.000
G1 X20.019 Y-3.037 Z-7.142 F200.000
G1 X19.791 Y-4.279 Z-7.154 F200.000
G1 X19.485 Y-5.505 Z-7.166 F200.000
G1 X19.104 Y-6.709 Z-7.179 F200.000
G1 X18.649 Y-7.887 Z-7.191 F200.000
G1 X18.121 Y-9.035 Z-7.203 F200.000
G1 X17.522 Y-10.147 Z-7.216 F200.000
G1 X16.855 Y-11.220 Z-7.228 F200.000
G1 X16.123 Y-12.249 Z-7.240 F200.000
G1 X15.328 Y-13.231 Z-7.251 F200.000
G1 X14.473 Y-14.161 Z-7.263 F200.000
G1 X13.562 Y-15.035 Z-7.274 F200.000
G1 X12.598 Y-15.852 Z-7.284 F200.000
G1 X11.585 Y-16.606 Z-7.295 F200.000
G1 X10.527 Y-17.297 Z-7.304 F200.000
G1 X9.428 Y-17.919 Z-7.314 F200.000
G1 X8.292 Y-18.472 Z-7.323 F200.000
G1 X7.124 Y-18.953 Z-7.331 F200.000
G1 X5.928 Y-19.361 Z-7.338 F200.000
G1 X4.710 Y-19.693 Z-7.345 F200.000
G1 X3.472 Y-19.948 Z-7.352 F200.000
G1 X2.222 Y-20.126 Z-7.358 F200.000
G1 X0.954 Y-20.226 Z-7.358 F200.000
G1 X-0.318 Y-20.245 Z-7.359 F200.000
G1 X-1.589 Y-20.185 Z-7.362 F200.000
G1 X-2.853 Y-20.046 Z-7.365 F200.000
G1 X-4.106 Y-19.827 Z-7.370 F200.000
G1 X-5.343 Y-19.530 Z-7.375 F200.000
G1 X-6.559 Y-19.156 Z-7.381 F200.000
G1 X-7.749 Y-18.706 Z-7.388 F200.000
G1 X-8.908 Y-18.183 Z-7.396 F200.000
G1 X-10.032 Y-17.588 Z-7.405 F200.000
G1 X-11.117 Y-16.923 Z-7.415 F200.000
G1 X-12.158 Y-16.191 Z-7.425 F200.000
G1 X-13.150 Y-15.396 Z-7.436 F200.000
G1 X-14.091 Y-14.540 Z-7.448 F200.000
G1 X-14.976 Y-13.627 Z-7.461 F200.000
G1 X-15.802 Y-12.659 Z-7.474 F200.000
G1 X-16.566 Y-11.642 Z-7.487 F200.000
G1 X-17.265 Y-10.579 Z-7.501 F200.000
G1 X-17.895 Y-9.474 Z-7.515 F200.000
G1 X-18.454 Y-8.332 Z-7.530 F200.000
G1 X-18.941 Y-7.157 Z-7.545 F200.000
G1 X-19.353 Y-5.953 Z-7.561 F200.000
G1 X-19.689 Y-4.727 Z-7.576 F200.000
G1 X-19.947 Y-3.481 Z-7.592 F200.000
G1 X-20.126 Y-2.222 Z-7.608 F200.000
G1 X-20.226 Y-0.954 Z-7.623 F200.000
G1 X-20.246 Y0.318 Z-7.639 F200.000
G1 X-20.186 Y1.589 Z-7.654 F200.000
G1 X-20.046 Y2.853 Z-7.670 F200.000
G1 X-19.827 Y4.106 Z-7.685 F200.000
G1 X-19.530 Y5.343 Z-7.700 F200.000
G1 X-19.156 Y6.559 Z-7.714 F200.000
G1 X-18.707 Y7.748 Z-7.728 F200.000
G1 X-18.183 Y8.908 Z-7.741 F200.000
G1 X-17.588 Y10.032 Z-7.754 F200.000
G1 X-16.923 Y11.116 Z-7.767 F200.000
G1 X-16.192 Y12.157 Z-7.779 F200.000
G1 X-15.397 Y13.150 Z-7.790 F200.000
G1 X-14.541 Y14.091 Z-7.800 F200.000
G1 X-13.627 Y14.976 Z-7.810 F200.000
G1 X-12.660 Y15.802 Z-7.819 F200.000
G1 X-11.643 Y16.566 Z-7.827 F200.000
G1 X-10.580 Y17.264 Z-7.834 F200.000
G1 X-9.475 Y17.894 Z-7.840 F200.000
G1 X-8.332 Y18.454 Z-7.845 F200.000
G1 X-7.157 Y18.941 Z-7.850 F200.000
G1 X-5.954 Y19.353 Z-7.853 F200.000
G1 X-4.727 Y19.689 Z-7.856 F200.000
G1 X-3.481 Y19.947 Z-7.857 F200.000
G1 X-2.222 Y20.126 Z-7.858 F200.000
G1 X-1.017 Y20.223 Z-7.866 F200.000
G1 X0.191 Y20.247 Z-7.876 F200.000
G1 X1.398 Y20.200 Z-7.885 F200.000
G1 X2.601 Y20.080 Z-7.895 F200.000
G1 X3.794 Y19.889 Z-7.904 F200.000
G1 X4.974 Y19.628 Z-7.914 F200.000
G1 X6.136 Y19.296 Z-7.924 F200.000
G1 X7.276 Y18.896 Z-7.934 F200.000
G1 X8.390 Y18.428 Z-7.943 F200.000
G1 X9.475 Y17.895 Z-7.953 F200.000
G1 X10.525 Y17.297 Z-7.963 F200.000
G1 X11.538 Y16.639 Z-7.972 F200.000
G1 X12.511 Y15.921 Z-7.982 F200.000
G1 X13.438 Y15.146 Z-7.991 F200.000
G1 X14.318 Y14.318 Z-8.000 F200.000
G1 X15.183 Y13.397 Z-8.006 F200.000
G1 X15.988 Y12.424 Z-8.012 F200.000
G1 X16.732 Y11.403 Z-8.019 F200.000
G1 X17.410 Y10.337 Z-8.027 F200.000
G1 X18.021 Y9.232 Z-8.035 F200.000
G1 X18.562 Y8.090 Z-8.044 F200.000
G1 X19.030 Y6.917 Z-8.053 F200.000
G1 X19.424 Y5.717 Z-8.063 F200.000
G1 X19.743 Y4.494 Z-8.073 F200.000
G1 X19.985 Y3.255 Z-8.084 F200.000
G1 X20.149 Y2.002 Z-8.095 F200.000
G1 X20.235 Y0.742 Z-8.106 F200.000
G1 X20.241 Y-0.521 Z-8.118 F200.000
G1 X20.170 Y-1.782 Z-8.130 F200.000
G1 X20.019 Y-3.037 Z-8.142 F200.000
G1 X19.791 Y-4.279 Z-8.154 F200.000
G1 X19.485 Y-5.505 Z-8.166 F200.000
G1 X19.104 Y-6.709 Z-8.179 F200.000
G1 X18.649 Y-7.887 Z-8.191 F200.000
G1 X18.121 Y-9.035 Z-8.203 F200.000
G1 X17.522 Y-10.147 Z-8.216 F200.000
G1 X16.855 Y-11.220 Z-8.228 F200.000
G1 X16.123 Y-12.249 Z-8.240 F200.000
G1 X15.328 Y-13.231 Z-8.251 F200.000
G1 X14.473 Y-14.161 Z-8.263 F200.000
G1 X13.562 Y-15.035 Z-8.274 F200.000
G1 X12.598 Y-15.852 Z-8.284 F200.000
G1 X11.585 Y-16.606 Z-8.295 F200.000
G1 X10.527 Y-17.297 Z-8.304 F200.000
G1 X9.428 Y-17.919 Z-8.314 F200.000
G1 X8.292 Y-18.472 Z-8.323 F200.000
G1 X7.124 Y-18.953 Z-8.331 F200.000
G1 X5.928 Y-19.361 Z-8.338 F200.000
G1 X4.710 Y-19.693 Z-8.345 F200.000
G1 X3.472 Y-19.948 Z-8.352 F200.000
G1 X2.222 Y-20.126 Z-8.358 F200.000
G1 X0.954 Y-20.226 Z-8.358 F200.000
G1 X-0.318 Y-20.245 Z-8.359 F200.000
G1 X-1.589 Y-20.185 Z-8.362 F200.000
G1 X-2.853 Y-20.046 Z-8.365 F200.000
G1 X-4.106 Y-19.827 Z-8.370 F200.000
G1 X-5.343 Y-19.530 Z-8.375 F200.000
G1 X-6.559 Y-19.156 Z-8.381 F200.000
G1 X-7.749 Y-18.706 Z-8.388 F200.000
G1 X-8.908 Y-18.183 Z-8.396 F200.000
G1 X-10.032 Y-17.588 Z-8.405 F200.000
G1 X-11.117 Y-16.923 Z-8.415 F200.000
G1 X-12.158 Y-16.191 Z-8.425 F200.000
G1 X-13.150 Y-15.396 Z-8.436 F200.000
G1 X-14.091 Y-14.540 Z-8.448 F200.000
G1 X-14.976 Y-13.627 Z-8.461 F200.000
G1 X-15.802 Y-12.659 Z-8.474 F200.000
G1 X-16.566 Y-11.642 Z-8.487 F200.000
G1 X-17.265 Y-10.579 Z-8.501 F200.000
G1 X-17.895 Y-9.474 Z-8.515 F200.000
G1 X-18.454 Y-8.332 Z-8.530 F200.000
G1 X-18.941 Y-7.157 Z-8.545 F200.000
G1 X-19.353 Y-5.953 Z-8.561 F200.000
G1 X-19.689 Y-4.727 Z-8.576 F200.000
G1 X-19.947 Y-3.481 Z-8.592 F200.000
G1 X-20.126 Y-2.222 Z-8.608 F200.000
G1 X-20.226 Y-0.954 Z-8.623 F200.000
G1 X-20.246 Y0.318 Z-8.639 F200.000
G1 X-20.186 Y1.589 Z-8.654 F200.000
G1 X-20.046 Y2.853 Z-8.670 F200.000
G1 X-19.827 Y4.106 Z-8.685 F200.000
G1 X-19.530 Y5.343 Z-8.700 F200.000
G1 X-19.156 Y6.559 Z-8.714 F200.000
G1 X-18.707 Y7.748 Z-8.728 F200.000
G1 X-18.183 Y8.908 Z-8.741 F200.000
G1 X-17.588 Y10.032 Z-8.754 F200.000
G1 X-16.923 Y11.116 Z-8.767 F200.000
G1 X-16.192 Y12.157 Z-8.779 F200.000
G1 X-15.397 Y13.150 Z-8.790 F200.000
G1 X-14.541 Y14.091 Z-8.800 F200.000
G1 X-13.627 Y14.976 Z-8.810 F200.000
G1 X-12.660 Y15.802 Z-8.819 F200.000
G1 X-11.643 Y16.566 Z-8.827 F200.000
G1 X-10.580 Y17.264 Z-8.834 F200.000
G1 X-9.475 Y17.894 Z-8.840 F200.000
G1 X-8.332 Y18.454 Z-8.845 F200.000
G1 X-7.157 Y18.941 Z-8.850 F200.000
G1 X-5.954 Y19.353 Z-8.853 F200.000
G1 X-4.727 Y19.689 Z-8.856 F200.000
G1 X-3.481 Y19.947 Z-8.857 F200.000
G1 X-2.222 Y20.126 Z-8.858 F200.000
G1 X-1.017 Y20.223 Z-8.866 F200.000
G1 X0.191 Y20.247 Z-8.876 F200.000
G1 X1.398 Y20.200 Z-8.885 F200.000
G1 X2.601 Y20.080 Z-8.895 F200.000
G1 X3.794 Y19.889 Z-8.904 F200.000
G1 X4.974 Y19.628 Z-8.914 F200.000
G1 X6.136 Y19.296 Z-8.924 F200.000
G1 X7.276 Y18.896 Z-8.934 F200.000
G1 X8.390 Y18.428 Z-8.943 F200.000
G1 X9.475 Y17.895 Z-8.953 F200.000
G1 X10.525 Y17.297 Z-8.963 F200.000
G1 X11.538 Y16.639 Z-8.972 F200.000
G1 X12.511 Y15.921 Z-8.982 F200.000
G1 X13.438 Y15.146 Z-8.991 F200.000
G1 X14.318 Y14.318 Z-9.000 F200.000
G1 X15.183 Y13.397 Z-9.006 F200.000
G1 X15.988 Y12.424 Z-9.012 F200.000
G1 X16.732 Y11.403 Z-9.019 F200.000
G1 X17.410 Y10.337 Z-9.027 F200.000
G1 X18.021 Y9.232 Z-9.035 F200.000
G1 X18.562 Y8.090 Z-9.044 F200.000
G1 X19.030 Y6.917 Z-9.053 F200.000
G1 X19.424 Y5.717 Z-9.063 F200.000
G1 X19.743 Y4.494 Z-9.073 F200.000
G1 X19.985 Y3.255 Z-9.084 F200.000
G1 X20.149 Y2.002 Z-9.095 F200.000
G1 X20.235 Y0.742 Z-9.106 F200.000
G1 X20.241 Y-0.521 Z-9.118 F200.000
G1 X20.170 Y-1.782 Z-9.130 F200.000
G1 X20.019 Y-3.037 Z-9.142 F200.000
G1 X19.791 Y-4.279 Z-9.154 F200.000
G1 X19.485 Y-5.505 Z-9.166 F200.000
G1 X19.104 Y-6.709 Z-9.179 F200.000
G1 X18.649 Y-7.887 Z-9.191 F200.000
G1 X18.121 Y-9.035 Z-9.203 F200.000
G1 X17.522 Y-10.147 Z-9.216 F200.000
G1 X16.855 Y-11.220 Z-9.228 F200.000
G1 X16.123 Y-12.249 Z-9.240 F200.000
G1 X15.328 Y-13.231 Z-9.251 F200.000
G1 X14.473 Y-14.161 Z-9.263 F200.000
G1 X13.562 Y-15.035 Z-9.274 F200.000
G1 X12.598 Y-15.852 Z-9.284 F200.000
G1 X11.585 Y-16.606 Z-9.295 F200.000
G1 X10.527 Y-17.297 Z-9.304 F200.000
G1 X9.428 Y-17.919 Z-9.314 F200.000
G1 X8.292 Y-18.472 Z-9.323 F200.000
G1 X7.124 Y-18.953 Z-9.331 F200.000
G1 X5.928 Y-19.361 Z-9.338 F200.000
G1 X4.710 Y-19.693 Z-9.345 F200.000
G1 X3.472 Y-19.948 Z-9.352 F200.000
G1 X2.222 Y-20.126 Z-9.358 F200.000
G1 X0.954 Y-20.226 Z-9.358 F200.000
G1 X-0.318 Y-20.245 Z-9.359 F200.000
G1 X-1.589 Y-20.185 Z-9.362 F200.000
G1 X-2.853 Y-20.046 Z-9.365 F200.000
G1 X-4.106 Y-19.827 Z-9.370 F200.000
G1 X-5.343 Y-19.530 Z-9.375 F200.000
G1 X-6.559 Y-19.156 Z-9.381 F200.000
G1 X-7.749 Y-18.706 Z-9.388 F200.000
G1 X-8.908 Y-18.183 Z-9.396 F200.000
G1 X-10.032 Y-17.588 Z-9.405 F200.000
G1 X-11.117 Y-16.923 Z-9.415 F200.000
G1 X-12.158 Y-16.191 Z-9.425 F200.000
G1 X-13.150 Y-15.396 Z-9.436 F200.000
G1 X-14.091 Y-14.540 Z-9.448 F200.000
G1 X-14.976 Y-13.627 Z-9.461 F200.000
G1 X-15.802 Y-12.659 Z-9.474 F200.000
G1 X-16.566 Y-11.642 Z-9.487 F200.000
G1 X-17.265 Y-10.579 Z-9.501 F200.000
G1 X-17.895 Y-9.474 Z-9.515 F200.000
G1 X-18.454 Y-8.332 Z-9.530 F200.000
G1 X-18.941 Y-7.157 Z-9.545 F200.000
G1 X-19.353 Y-5.953 Z-9.561 F200.000
G1 X-19.689 Y-4.727 Z-9.576 F200.000
G1 X-19.947 Y-3.481 Z-9.592 F200.000
G1 X-20.126 Y-2.222 Z-9.608 F200.000
G1 X-20.226 Y-0.954 Z-9.623 F200.000
G1 X-20.246 Y0.318 Z-9.639 F200.000
G1 X-20.186 Y1.589 Z-9.654 F200.000
G1 X-20.046 Y2.853 Z-9.670 F200.000
G1 X-19.827 Y4.106 Z-9.685 F200.000
G1 X-19.530 Y5.343 Z-9.700 F200.000
G1 X-19.156 Y6.559 Z-9.714 F200.000
G1 X-18.707 Y7.748 Z-9.728 F200.000
G1 X-18.183 Y8.908 Z-9.741 F200.000
G1 X-17.588 Y10.032 Z-9.754 F200.000
G1 X-16.923 Y11.116 Z-9.767 F200.000
G1 X-16.192 Y12.157 Z-9.779 F200.000
G1 X-15.397 Y13.150 Z-9.790 F200.000
G1 X-14.541 Y14.091 Z-9.800 F200.000
G1 X-13.627 Y14.976 Z-9.810 F200.000
G1 X-12.660 Y15.802 Z-9.819 F200.000
G1 X-11.643 Y16.566 Z-9.827 F200.000
G1 X-10.580 Y17.264 Z-9.834 F200.000
G1 X-9.475 Y17.894 Z-9.840 F200.000
G1 X-8.332 Y18.454 Z-9.845 F200.000
G1 X-7.157 Y18.941 Z-9.850 F200.000
G1 X-5.954 Y19.353 Z-9.853 F200.000
G1 X-4.727 Y19.689 Z-9.856 F200.000
G1 X-3.481 Y19.947 Z-9.857 F200.000
G1 X-2.222 Y20.126 Z-9.858 F200.000
G1 X-1.017 Y20.223 Z-9.866 F200.000
G1 X0.191 Y20.247 Z-9.876 F200.000
G1 X1.398 Y20.200 Z-9.885 F200.000
G1 X2.601 Y20.080 Z-9.895 F200.000
G1 X3.794 Y19.889 Z-9.904 F200.000
G1 X4.974 Y19.628 Z-9.914 F200.000
G1 X6.136 Y19.296 Z-9.924 F200.000
G1 X7.276 Y18.896 Z-9.934 F200.000
G1 X8.390 Y18.428 Z-9.943 F200.000
G1 X9.475 Y17.895 Z-9.953 F200.000
G1 X10.525 Y17.297 Z-9.963 F200.000
G1 X11.538 Y16.639 Z-9.972 F200.000
G1 X12.511 Y15.921 Z-9.982 F200.000
G1 X13.438 Y15.146 Z-9.991 F200.000
G1 X14.318 Y14.318 Z-10.000 F200.000
G1 X15.183 Y13.397 Z-10.006 F200.000
G1 X15.988 Y12.424 Z-10.012 F200.000
G1 X16.732 Y11.403 Z-10.019 F200.000
G1 X17.410 Y10.337 Z-10.027 F200.000
G1 X18.021 Y9.232 Z-10.035 F200.000
G1 X18.562 Y8.090 Z-10.044 F200.000
G1 X19.030 Y6.917 Z-10.053 F200.000
G1 X19.424 Y5.717 Z-10.063 F200.000
G1 X19.743 Y4.494 Z-10.073 F200.000
G1 X19.985 Y3.255 Z-10.084 F200.000
G1 X20.149 Y2.002 Z-10.095 F200.000
G1 X20.235 Y0.742 Z-10.106 F200.000
G1 X20.241 Y-0.521 Z-10.118 F200.000
G1 X20.170 Y-1.782 Z-10.130 F200.000
G1 X20.019 Y-3.037 Z-10.142 F200.000
G1 X19.791 Y-4.279 Z-10.154 F200.000
G1 X19.485 Y-5.505 Z-10.166 F200.000
G1 X19.104 Y-6.709 Z-10.179 F200.000
G1 X18.649 Y-7.887 Z-10.191 F200.000
G1 X18.121 Y-9.035 Z-10.203 F200.000
G1 X17.522 Y-10.147 Z-10.216 F200.000
G1 X16.855 Y-11.220 Z-10.228 F200.000
G1 X16.123 Y-12.249 Z-10.240 F200.000
G1 X15.328 Y-13.231 Z-10.251 F200.000
G1 X14.473 Y-14.161 Z-10.263 F200.000
G1 X13.562 Y-15.035 Z-10.274 F200.000
G1 X12.598 Y-15.852 Z-10.284 F200.000
G1 X11.585 Y-16.606 Z-10.295 F200.000
G1 X10.527 Y-17.297 Z-10.304 F200.000
G1 X9.428 Y-17.919 Z-10.314 F200.000
G1 X8.292 Y-18.472 Z-10.323 F200.000
G1 X7.124 Y-18.953 Z-10.331 F200.000
G1 X5.928 Y-19.361 Z-10.338 F200.000
G1 X4.710 Y-19.693 Z-10.345 F200.000
G1 X3.472 Y-19.948 Z-10.352 F200.000
G1 X2.222 Y-20.126 Z-10.358 F200.000
G1 X0.954 Y-20.226 Z-10.358 F200.000
G1 X-0.318 Y-20.245 Z-10.359 F200.000
G1 X-1.589 Y-20.185 Z-10.362 F200.000
G1 X-2.853 Y-20.046 Z-10.365 F200.000
G1 X-4.106 Y-19.827 Z-10.370 F200.000
G1 X-5.343 Y-19.530 Z-10.375 F200.000
G1 X-6.559 Y-19.156 Z-10.381 F200.000
G1 X-7.749 Y-18.706 Z-10.388 F200.000
G1 X-8.908 Y-18.183 Z-10.396 F200.000
G1 X-10.032 Y-17.588 Z-10.405 F200.000
G1 X-11.117 Y-16.923 Z-10.415 F200.000
G1 X-12.158 Y-16.191 Z-10.425 F200.000
G1 X-13.150 Y-15.396 Z-10.436 F200.000
G1 X-14.091 Y-14.540 Z-10.448 F200.000
G1 X-14.976 Y-13.627 Z-10.461 F200.000
G1 X-15.802 Y-12.659 Z-10.474 F200.000
G1 X-16.566 Y-11.642 Z-10.487 F200.000
G1 X-17.265 Y-10.579 Z-10.501 F200.000
G1 X-17.895 Y-9.474 Z-10.515 F200.000
G1 X-18.454 Y-8.332 Z-10.530 F200.000
G1 X-18.941 Y-7.157 Z-10.545 F200.000
G1 X-19.353 Y-5.953 Z-10.561 F200.000
G1 X-19.689 Y-4.727 Z-10.576 F200.000
G1 X-19.947 Y-3.481 Z-10.592 F200.000
G1 X-20.126 Y-2.222 Z-10.608 F200.000
G1 X-20.226 Y-0.954 Z-10.623 F200.000
G1 X-20.246 Y0.318 Z-10.639 F200.000
G1 X-20.186 Y1.589 Z-10.654 F200.000
G1 X-20.046 Y2.853 Z-10.670 F200.000
G1 X-19.827 Y4.106 Z-10.685 F200.000
G1 X-19.530 Y5.343 Z-10.700 F200.000
G1 X-19.156 Y6.559 Z-10.714 F200.000
G1 X-18.707 Y7.748 Z-10.728 F200.000
G1 X-18.183 Y8.908 Z-10.741 F200.000
G1 X-17.588 Y10.032 Z-10.754 F200.000
G1 X-16.923 Y11.116 Z-10.767 F200.000
G1 X-16.192 Y12.157 Z-10.779 F200.000
G1 X-15.397 Y13.150 Z-10.790 F200.000
G1 X-14.541 Y14.091 Z-10.800 F200.000
G1 X-13.627 Y14.976 Z-10.810 F200.000
G1 X-12.660 Y15.802 Z-10.819 F200.000
G1 X-11.643 Y16.566 Z-10.827 F200.000
G1 X-10.580 Y17.264 Z-10.834 F200.000
G1 X-9.475 Y17.894 Z-10.840 F200.000
G1 X-8.332 Y18.454 Z-10.845 F200.000
G1 X-7.157 Y18.941 Z-10.850 F200.000
G1 X-5.954 Y19.353 Z-10.853 F200.000
G1 X-4.727 Y19.689 Z-10.856 F200.000
G1 X-3.481 Y19.947 Z-10.857 F200.000
G1 X-2.222 Y20.126 Z-10.858 F200.000
G1 X-1.017 Y20.223 Z-10.866 F200.000
G1 X0.191 Y20.247 Z-10.876 F200.000
G1 X1.398 Y20.200 Z-10.885 F200.000
G1 X2.601 Y20.080 Z-10.895 F200.000
G1 X3.794 Y19.889 Z-10.904 F200.000
G1 X4.974 Y19.628 Z-10.914 F200.000
G1 X6.136 Y19.296 Z-10.924 F200.000
G1 X7.276 Y18.896 Z-10.934 F200.000
G1 X8.390 Y18.428 Z-10.943 F200.000
G1 X9.475 Y17.895 Z-10.953 F200.000
G1 X10.525 Y17.297 Z-10.963 F200.000
G1 X11.538 Y16.639 Z-10.972 F200.000
G1 X12.511 Y15.921 Z-10.982 F200.000
G1 X13.438 Y15.146 Z-10.991 F200.000
G1 X14.318 Y14.318 Z-11.000 F200.000
G1 X15.183 Y13.397 Z-11.006 F200.000
G1 X15.988 Y12.424 Z-11.012 F200.000
G1 X16.732 Y11.403 Z-11.019 F200.000
G1 X17.410 Y10.337 Z-11.027 F200.000
G1 X18.021 Y9.232 Z-11.035 F200.000
G1 X18.562 Y8.090 Z-11.044 F200.000
G1 X19.030 Y6.917 Z-11.053 F200.000
G1 X19.424 Y5.717 Z-11.063 F200.000
G1 X19.743 Y4.494 Z-11.073 F200.000
G1 X19.985 Y3.255 Z-11.084 F200.000
G1 X20.149 Y2.002 Z-11.095 F200.000
G1 X20.235 Y0.742 Z-11.106 F200.000
G1 X20.241 Y-0.521 Z-11.118 F200.000
G1 X20.170 Y-1.782 Z-11.130 F200.000
G1 X20.019 Y-3.037 Z-11.142 F200.000
G1 X19.791 Y-4.279 Z-11.154 F200.000
G1 X19.485 Y-5.505 Z-11.166 F200.000
G1 X19.104 Y-6.709 Z-11.179 F200.000
G1 X18.649 Y-7.887 Z-11.191 F200.000
G1 X18.121 Y-9.035 Z-11.203 F200.000
G1 X17.522 Y-10.147 Z-11.216 F200.000
G1 X16.855 Y-11.220 Z-11.228 F200.000
G1 X16.123 Y-12.249 Z-11.240 F200.000
G1 X15.328 Y-13.231 Z-11.251 F200.000
G1 X14.473 Y-14.161 Z-11.263 F200.000
G1 X13.562 Y-15.035 Z-11.274 F200.000
G1 X12.598 Y-15.852 Z-11.284 F200.000
G1 X11.585 Y-16.606 Z-11.295 F200.000
G1 X10.527 Y-17.297 Z-11.304 F200.000
G1 X9.428 Y-17.919 Z-11.314 F200.000
G1 X8.292 Y-18.472 Z-11.323 F200.000
G1 X7.124 Y-18.953 Z-11.331 F200.000
G1 X5.928 Y-19.361 Z-11.338 F200.000
G1 X4.710 Y-19.693 Z-11.345 F200.000
G1 X3.472 Y-19.948 Z-11.352 F200.000
G1 X2.222 Y-20.126 Z-11.358 F200.000
G1 X0.954 Y-20.226 Z-11.358 F200.000
G1 X-0.318 Y-20.245 Z-11.359 F200.000
G1 X-1.589 Y-20.185 Z-11.362 F200.000
G1 X-2.853 Y-20.046 Z-11.365 F200.000
G1 X-4.106 Y-19.827 Z-11.370 F200.000
G1 X-5.343 Y-19.530 Z-11.375 F200.000
G1 X-6.559 Y-19.156 Z-11.381 F200.000
G1 X-7.749 Y-18.706 Z-11.388 F200.000
G1 X-8.908 Y-18.183 Z-11.396 F200.000
G1 X-10.032 Y-17.588 Z-11.405 F200.000
G1 X-11.117 Y-16.923 Z-11.415 F200.000
G1 X-12.158 Y-16.191 Z-11.425 F200.000
G1 X-13.150 Y-15.396 Z-11.436 F200.000
G1 X-14.091 Y-14.540 Z-11.448 F200.000
G1 X-14.976 Y-13.627 Z-11.461 F200.000
G1 X-15.802 Y-12.659 Z-11.474 F200.000
G1 X-16.566 Y-11.642 Z-11.487 F200.000
G1 X-17.265 Y-10.579 Z-11.501 F200.000
G1 X-17.895 Y-9.474 Z-11.515 F200.000
G1 X-18.454 Y-8.332 Z-11.530 F200.000
G1 X-18.941 Y-7.157 Z-11.545 F200.000
G1 X-19.353 Y-5.953 Z-11.561 F200.000
G1 X-19.689 Y-4.727 Z-11.576 F200.000
G1 X-19.947 Y-3.481 Z-11.592 F200.000
G1 X-20.126 Y-2.222 Z-11.608 F200.000
G1 X-20.226 Y-0.954 Z-11.623 F200.000
G1 X-20.246 Y0.318 Z-11.639 F200.000
G1 X-20.186 Y1.589 Z-11.654 F200.000
G1 X-20.046 Y2.853 Z-11.670 F200.000
G1 X-19.827 Y4.106 Z-11.685 F200.000
G1 X-19.530 Y5.343 Z-11.700 F200.000
G1 X-19.156 Y6.559 Z-11.714 F200.000
G1 X-18.707 Y7.748 Z-11.728 F200.000
G1 X-18.183 Y8.908 Z-11.741 F200.000
G1 X-17.588 Y10.032 Z-11.754 F200.000
G1 X-16.923 Y11.116 Z-11.767 F200.000
G1 X-16.192 Y12.157 Z-11.779 F200.000
G1 X-15.397 Y13.150 Z-11.790 F200.000
G1 X-14.541 Y14.091 Z-11.800 F200.000
G1 X-13.627 Y14.976 Z-11.810 F200.000
G1 X-12.660 Y15.802 Z-11.819 F200.000
G1 X-11.643 Y16.566 Z-11.827 F200.000
G1 X-10.580 Y17.264 Z-11.834 F200.000
G1 X-9.475 Y17.894 Z-11.840 F200.000
G1 X-8.332 Y18.454 Z-11.845 F200.000
G1 X-7.157 Y18.941 Z-11.850 F200.000
G1 X-5.954 Y19.353 Z-11.853 F200.000
G1 X-4.727 Y19.689 Z-11.856 F200.000
G1 X-3.481 Y19.947 Z-11.857 F200.000
G1 X-2.222 Y20.126 Z-11.858 F200.000
G1 X-1.017 Y20.223 Z-11.866 F200.000
G1 X0.191 Y20.247 Z-11.876 F200.000
G1 X1.398 Y20.200 Z-11.885 F200.000
G1 X2.601 Y20.080 Z-11.895 F200.000
G1 X3.794 Y19.889 Z-11.904 F200.000
G1 X4.974 Y19.628 Z-11.914 F200.000
G1 X6.136 Y19.296 Z-11.924 F200.000
G1 X7.276 Y18.896 Z-11.934 F200.000
G1 X8.390 Y18.428 Z-11.943 F200.000
G1 X9.475 Y17.895 Z-11.953 F200.000
G1 X10.525 Y17.297 Z-11.963 F200.000
G1 X11.538 Y16.639 Z-11.972 F200.000
G1 X12.511 Y15.921 Z-11.982 F200.000
G1 X13.438 Y15.146 Z-11.991 F200.000
G1 X14.318 Y14.318 Z-12.000 F200.000
G1 X15.183 Y13.397 Z-12.006 F200.000
G1 X15.988 Y12.424 Z-12.012 F200.000
G1 X16.732 Y11.403 Z-12.019 F200.000
G1 X17.410 Y10.337 Z-12.027 F200.000
G1 X18.021 Y9.232 Z-12.035 F200.000
G1 X18.562 Y8.090 Z-12.044 F200.000
G1 X19.030 Y6.917 Z-12.053 F200.000
G1 X19.424 Y5.717 Z-12.063 F200.000
G1 X19.743 Y4.494 Z-12.073 F200.000
G1 X19.985 Y3.255 Z-12.084 F200.000
G1 X20.149 Y2.002 Z-12.095 F200.000
G1 X20.235 Y0.742 Z-12.106 F200.000
G1 X20.241 Y-0.521 Z-12.118 F200.000
G1 X20.170 Y-1.782 Z-12.130 F200.000
G1 X20.019 Y-3.037 Z-12.142 F200.000
G1 X19.791 Y-4.279 Z-12.154 F200.000
G1 X19.485 Y-5.505 Z-12.166 F200.000
G1 X19.104 Y-6.709 Z-12.179 F200.000
G1 X18.649 Y-7.887 Z-12.191 F200.000
G1 X18.121 Y-9.035 Z-12.203 F200.000
G1 X17.522 Y-10.147 Z-12.216 F200.000
G1 X16.855 Y-11.220 Z-12.228 F200.000
G1 X16.123 Y-12.249 Z-12.240 F200.000
G1 X15.328 Y-13.231 Z-12.251 F200.000
G1 X14.473 Y-14.161 Z-12.263 F200.000
G1 X13.562 Y-15.035 Z-12.274 F200.000
G1 X12.598 Y-15.852 Z-12.284 F200.000
G1 X11.585 Y-16.606 Z-12.295 F200.000
G1 X10.527 Y-17.297 Z-12.304 F200.000
G1 X9.428 Y-17.919 Z-12.314 F200.000
G1 X8.292 Y-18.472 Z-12.323 F200.000
G1 X7.124 Y-18.953 Z-12.331 F200.000
G1 X5.928 Y-19.361 Z-12.338 F200.000
G1 X4.710 Y-19.693 Z-12.345 F200.000
G1 X3.472 Y-19.948 Z-12.352 F200.000
G1 X2.222 Y-20.126 Z-12.358 F200.000
G1 X0.954 Y-20.226 Z-12.358 F200.000
G1 X-0.318 Y-20.245 Z-12.359 F200.000
G1 X-1.589 Y-20.185 Z-12.362 F200.000
G1 X-2.853 Y-20.046 Z-12.365 F200.000
G1 X-4.106 Y-19.827 Z-12.370 F200.000
G1 X-5.343 Y-19.530 Z-12.375 F200.000
G1 X-6.559 Y-19.156 Z-12.381 F200.000
G1 X-7.749 Y-18.706 Z-12.388 F200.000
G1 X-8.908 Y-18.183 Z-12.396 F200.000
G1 X-10.032 Y-17.588 Z-12.405 F200.000
G1 X-11.117 Y-16.923 Z-12.415 F200.000
G1 X-12.158 Y-16.191 Z-12.425 F200.000
G1 X-13.150 Y-15.396 Z-12.436 F200.000
G1 X-14.091 Y-14.540 Z-12.448 F200.000
G1 X-14.976 Y-13.627 Z-12.461 F200.000
G1 X-15.802 Y-12.659 Z-12.474 F200.000
G1 X-16.566 Y-11.642 Z-12.487 F200.000
G1 X-17.265 Y-10.579 Z-12.501 F200.000
G1 X-17.895 Y-9.474 Z-12.515 F200.000
G1 X-18.454 Y-8.332 Z-12.530 F200.000
G1 X-18.941 Y-7.157 Z-12.545 F200.000
G1 X-19.353 Y-5.953 Z-12.561 F200.000
G1 X-19.689 Y-4.727 Z-12.576 F200.000
G1 X-19.947 Y-3.481 Z-12.592 F200.000
G1 X-20.126 Y-2.222 Z-12.608 F200.000
G1 X-20.226 Y-0.954 Z-12.623 F200.000
G1 X-20.246 Y0.318 Z-12.639 F200.000
G1 X-20.186 Y1.589 Z-12.654 F200.000
G1 X-20.046 Y2.853 Z-12.670 F200.000
G1 X-19.827 Y4.106 Z-12.685 F200.000
G1 X-19.530 Y5.343 Z-12.700 F200.000
G1 X-19.156 Y6.559 Z-12.714 F200.000
G1 X-18.707 Y7.748 Z-12.728 F200.000
G1 X-18.183 Y8.908 Z-12.741 F200.000
G1 X-17.588 Y10.032 Z-12.754 F200.000
G1 X-16.923 Y11.116 Z-12.767 F200.000
G1 X-16.192 Y12.157 Z-12.779 F200.000
G1 X-15.397 Y13.150 Z-12.790 F200.000
G1 X-14.541 Y14.091 Z-12.800 F200.000
G1 X-13.627 Y14.976 Z-12.810 F200.000
G1 X-12.660 Y15.802 Z-12.819 F200.000
G1 X-11.643 Y16.566 Z-12.827 F200.000
G1 X-10.580 Y17.264 Z-12.834 F200.000
G1 X-9.475 Y17.894 Z-12.840 F200.000
G1 X-8.332 Y18.454 Z-12.845 F200.000
G1 X-7.157 Y18.941 Z-12.850 F200.000
G1 X-5.954 Y19.353 Z-12.853 F200.000
G1 X-4.727 Y19.689 Z-12.856 F200.000
G1 X-3.481 Y19.947 Z-12.857 F200.000
G1 X-2.222 Y20.126 Z-12.858 F200.000
G1 X-1.017 Y20.223 Z-12.866 F200.000
G1 X0.191 Y20.247 Z-12.876 F200.000
G1 X1.398 Y20.200 Z-12.885 F200.000
G1 X2.601 Y20.080 Z-12.895 F200.000
G1 X3.794 Y19.889 Z-12.904 F200.000
G1 X4.974 Y19.628 Z-12.914 F200.000
G1 X6.136 Y19.296 Z-12.924 F200.000
G1 X7.276 Y18.896 Z-12.934 F200.000
G1 X8.390 Y18.428 Z-12.943 F200.000
G1 X9.475 Y17.895 Z-12.953 F200.000
G1 X10.525 Y17.297 Z-12.963 F200.000
G1 X11.538 Y16.639 Z-12.972 F200.000
G1 X12.511 Y15.921 Z-12.982 F200.000
G1 X13.438 Y15.146 Z-12.991 F200.000
G1 X14.318 Y14.318 Z-13.000 F200.000
G1 X15.183 Y13.397 Z-13.006 F200.000
G1 X15.988 Y12.424 Z-13.012 F200.000
G1 X16.732 Y11.403 Z-13.019 F200.000
G1 X17.410 Y10.337 Z-13.027 F200.000
G1 X18.021 Y9.232 Z-13.035 F200.000
G1 X18.562 Y8.090 Z-13.044 F200.000
G1 X19.030 Y6.917 Z-13.053 F200.000
G1 X19.424 Y5.717 Z-13.063 F200.000
G1 X19.743 Y4.494 Z-13.073 F200.000
G1 X19.985 Y3.255 Z-13.084 F200.000
G1 X20.149 Y2.002 Z-13.095 F200.000
G1 X20.235 Y0.742 Z-13.106 F200.000
G1 X20.241 Y-0.521 Z-13.118 F200.000
G1 X20.170 Y-1.782 Z-13.130 F200.000
G1 X20.019 Y-3.037 Z-13.142 F200.000
G1 X19.791 Y-4.279 Z-13.154 F200.000
G1 X19.485 Y-5.505 Z-13.166 F200.000
G1 X19.104 Y-6.709 Z-13.179 F200.000
G1 X18.649 Y-7.887 Z-13.191 F200.000
G1 X18.121 Y-9.035 Z-13.203 F200.000
G1 X17.522 Y-10.147 Z-13.216 F200.000
G1 X16.855 Y-11.220 Z-13.228 F200.000
G1 X16.123 Y-12.249 Z-13.240 F200.000
G1 X15.328 Y-13.231 Z-13.251 F200.000
G1 X14.473 Y-14.161 Z-13.263 F200.000
G1 X13.562 Y-15.035 Z-13.274 F200.000
G1 X12.598 Y-15.852 Z-13.284 F200.000
G1 X11.585 Y-16.606 Z-13.295 F200.000
G1 X10.527 Y-17.297 Z-13.304 F200.000
G1 X9.428 Y-17.919 Z-13.314 F200.000
G1 X8.292 Y-18.472 Z-13.323 F200.000
G1 X7.124 Y-18.953 Z-13.331 F200.000
G1 X5.928 Y-19.361 Z-13.338 F200.000
G1 X4.710 Y-19.693 Z-13.345 F200.000
G1 X3.472 Y-19.948 Z-13.352 F200.000
G1 X2.222 Y-20.126 Z-13.358 F200.000
G1 X0.954 Y-20.226 Z-13.358 F200.000
G1 X-0.318 Y-20.245 Z-13.359 F200.000
G1 X-1.589 Y-20.185 Z-13.362 F200.000
G1 X-2.853 Y-20.046 Z-13.365 F200.000
G1 X-4.106 Y-19.827 Z-13.370 F200.000
G1 X-5.343 Y-19.530 Z-13.375 F200.000
G1 X-6.559 Y-19.156 Z-13.381 F200.000
G1 X-7.749 Y-18.706 Z-13.388 F200.000
G1 X-8.908 Y-18.183 Z-13.396 F200.000
G1 X-10.032 Y-17.588 Z-13.405 F200.000
G1 X-11.117 Y-16.923 Z-13.415 F200.000
G1 X-12.158 Y-16.191 Z-13.425 F200.000
G1 X-13.150 Y-15.396 Z-13.436 F200.000
G1 X-14.091 Y-14.540 Z-13.448 F200.000
G1 X-14.976 Y-13.627 Z-13.461 F200.000
G1 X-15.802 Y-12.659 Z-13.474 F200.000
G1 X-16.566 Y-11.642 Z-13.487 F200.000
G1 X-17.265 Y-10.579 Z-13.501 F200.000
G1 X-17.895 Y-9.474 Z-13.515 F200.000
G1 X-18.454 Y-8.332 Z-13.530 F200.000
G1 X-18.941 Y-7.157 Z-13.545 F200.000
G1 X-19.353 Y-5.953 Z-13.561 F200.000
G1 X-19.689 Y-4.727 Z-13.576 F200.000
G1 X-19.947 Y-3.481 Z-13.592 F200.000
G1 X-20.126 Y-2.222 Z-13.608 F200.000
G1 X-20.226 Y-0.954 Z-13.623 F200.000
G1 X-20.246 Y0.318 Z-13.639 F200.000
G1 X-20.186 Y1.589 Z-13.654 F200.000
G1 X-20.046 Y2.853 Z-13.670 F200.000
G1 X-19.827 Y4.106 Z-13.685 F200.000
G1 X-19.530 Y5.343 Z-13.700 F200.000
G1 X-19.156 Y6.559 Z-13.714 F200.000
G1 X-18.707 Y7.748 Z-13.728 F200.000
G1 X-18.183 Y8.908 Z-13.741 F200.000
G1 X-17.588 Y10.032 Z-13.754 F200.000
G1 X-16.923 Y11.116 Z-13.767 F200.000
G1 X-16.192 Y12.157 Z-13.779 F200.000
G1 X-15.397 Y13.150 Z-13.790 F200.000
G1 X-14.541 Y14.091 Z-13.800 F200.000
G1 X-13.627 Y14.976 Z-13.810 F200.000
G1 X-12.660 Y15.802 Z-13.819 F200.000
G1 X-11.643 Y16.566 Z-13.827 F200.000
G1 X-10.580 Y17.264 Z-13.834 F200.000
G1 X-9.475 Y17.894 Z-13.840 F200.000
G1 X-8.332 Y18.454 Z-13.845 F200.000
G1 X-7.157 Y18.941 Z-13.850 F200.000
G1 X-5.954 Y19.353 Z-13.853 F200.000
G1 X-4.727 Y19.689 Z-13.856 F200.000
G1 X-3.481 Y19.947 Z-13.857 F200.000
G1 X-2.222 Y20.126 Z-13.858 F200.000
G1 X-1.017 Y20.223 Z-13.866 F200.000
G1 X0.191 Y20.247 Z-13.876 F200.000
G1 X1.398 Y20.200 Z-13.885 F200.000
G1 X2.601 Y20.080 Z-13.895 F200.000
G1 X3.794 Y19.889 Z-13.904 F200.000
G1 X4.974 Y19.628 Z-13.914 F200.000
G1 X6.136 Y19.296 Z-13.924 F200.000
G1 X7.276 Y18.896 Z-13.934 F200.000
G1 X8.390 Y18.428 Z-13.943 F200.000
G1 X9.475 Y17.895 Z-13.953 F200.000
G1 X10.525 Y17.297 Z-13.963 F200.000
G1 X11.538 Y16.639 Z-13.972 F200.000
G1 X12.511 Y15.921 Z-13.982 F200.000
G1 X13.438 Y15.146 Z-13.991 F200.000
G1 X14.318 Y14.318 Z-14.000 F200.000
G1 X15.183 Y13.397 Z-14.006 F200.000
G1 X15.988 Y12.424 Z-14.012 F200.000
G1 X16.732 Y11.403 Z-14.019 F200.000
G1 X17.410 Y10.337 Z-14.027 F200.000
G1 X18.021 Y9.232 Z-14.035 F200.000
G1 X18.562 Y8.090 Z-14.044 F200.000
G1 X19.030 Y6.917 Z-14.053 F200.000
G1 X19.424 Y5.717 Z-14.063 F200.000
G1 X19.743 Y4.494 Z-14.073 F200.000
G1 X19.985 Y3.255 Z-14.084 F200.000
G1 X20.149 Y2.002 Z-14.095 F200.000
G1 X20.235 Y0.742 Z-14.106 F200.000
G1 X20.241 Y-0.521 Z-14.118 F200.000
G1 X20.170 Y-1.782 Z-14.130 F200.000
G1 X20.019 Y-3.037 Z-14.142 F200.000
G1 X19.791 Y-4.279 Z-14.154 F200.000
G1 X19.485 Y-5.505 Z-14.166 F200.000
G1 X19.104 Y-6.709 Z-14.179 F200.000
G1 X18.649 Y-7.887 Z-14.191 F200.000
G1 X18.121 Y-9.035 Z-14.203 F200.000
G1 X17.522 Y-10.147 Z-14.216 F200.000
G1 X16.855 Y-11.220 Z-14.228 F200.000
G1 X16.123 Y-12.249 Z-14.240 F200.000
G1 X15.328 Y-13.231 Z-14.251 F200.000
G1 X14.473 Y-14.161 Z-14.263 F200.000
G1 X13.562 Y-15.035 Z-14.274 F200.000
G1 X12.598 Y-15.852 Z-14.284 F200.000
G1 X11.585 Y-16.606 Z-14.295 F200.000
G1 X10.527 Y-17.297 Z-14.304 F200.000
G1 X9.428 Y-17.919 Z-14.314 F200.000
G1 X8.292 Y-18.472 Z-14.323 F200.000
G1 X7.124 Y-18.953 Z-14.331 F200.000
G1 X5.928 Y-19.361 Z-14.338 F200.000
G1 X4.710 Y-19.693 Z-14.345 F200.000
G1 X3.472 Y-19.948 Z-14.352 F200.000
G1 X2.222 Y-20.126 Z-14.358 F200.000
G1 X0.954 Y-20.226 Z-14.358 F200.000
G1 X-0.318 Y-20.245 Z-14.359 F200.000
G1 X-1.589 Y-20.185 Z-14.362 F200.000
G1 X-2.853 Y-20.046 Z-14.365 F200.000
G1 X-4.106 Y-19.827 Z-14.370 F200.000
G1 X-5.343 Y-19.530 Z-14.375 F200.000
G1 X-6.559 Y-19.156 Z-14.381 F200.000
G1 X-7.749 Y-18.706 Z-14.388 F200.000
G1 X-8.908 Y-18.183 Z-14.396 F200.000
G1 X-10.032 Y-17.588 Z-14.405 F200.000
G1 X-11.117 Y-16.923 Z-14.415 F200.000
G1 X-12.158 Y-16.191 Z-14.425 F200.000
G1 X-13.150 Y-15.396 Z-14.436 F200.000
G1 X-14.091 Y-14.540 Z-14.448 F200.000
G1 X-14.976 Y-13.627 Z-14.461 F200.000
G1 X-15.802 Y-12.659 Z-14.474 F200.000
G1 X-16.566 Y-11.642 Z-14.487 F200.000
G1 X-17.265 Y-10.579 Z-14.501 F200.000
G1 X-17.895 Y-9.474 Z-14.515 F200.000
G1 X-18.454 Y-8.332 Z-14.530 F200.000
G1 X-18.941 Y-7.157 Z-14.545 F200.000
G1 X-19.353 Y-5.953 Z-14.561 F200.000
G1 X-19.689 Y-4.727 Z-14.576 F200.000
G1 X-19.947 Y-3.481 Z-14.592 F200.000
G1 X-20.126 Y-2.222 Z-14.608 F200.000
G1 X-20.226 Y-0.954 Z-14.623 F200.000
G1 X-20.246 Y0.318 Z-14.639 F200.000
G1 X-20.186 Y1.589 Z-14.654 F200.000
G1 X-20.046 Y2.853 Z-14.670 F200.000
G1 X-19.827 Y4.106 Z-14.685 F200.000
G1 X-19.530 Y5.343 Z-14.700 F200.000
G1 X-19.156 Y6.559 Z-14.714 F200.000
G1 X-18.707 Y7.748 Z-14.728 F200.000
G1 X-18.183 Y8.908 Z-14.741 F200.000
G1 X-17.588 Y10.032 Z-14.754 F200.000
G1 X-16.923 Y11.116 Z-14.767 F200.000
G1 X-16.192 Y12.157 Z-14.779 F200.000
G1 X-15.397 Y13.150 Z-14.790 F200.000
G1 X-14.541 Y14.091 Z-14.800 F200.000
G1 X-13.627 Y14.976 Z-14.810 F200.000
G1 X-12.660 Y15.802 Z-14.819 F200.000
G1 X-11.643 Y16.566 Z-14.827 F200.000
G1 X-10.580 Y17.264 Z-14.834 F200.000
G1 X-9.475 Y17.894 Z-14.840 F200.000
G1 X-8.332 Y18.454 Z-14.845 F200.000
G1 X-7.157 Y18.941 Z-14.850 F200.000
G1 X-5.954 Y19.353 Z-14.853 F200.000
G1 X-4.727 Y19.689 Z-14.856 F200.000
G1 X-3.481 Y19.947 Z-14.857 F200.000
G1 X-2.222 Y20.126 Z-14.858 F200.000
G1 X-1.017 Y20.223 Z-14.866 F200.000
G1 X0.191 Y20.247 Z-14.876 F200.000
G1 X1.398 Y20.200 Z-14.885 F200.000
G1 X2.601 Y20.080 Z-14.895 F200.000
G1 X3.794 Y19.889 Z-14.904 F200.000
G1 X4.974 Y19.628 Z-14.914 F200.000
G1 X6.136 Y19.296 Z-14.924 F200.000
G1 X7.276 Y18.896 Z-14.934 F200.000
G1 X8.390 Y18.428 Z-14.943 F200.000
G1 X9.475 Y17.895 Z-14.953 F200.000
G1 X10.525 Y17.297 Z-14.963 F200.000
G1 X11.538 Y16.639 Z-14.972 F200.000
G1 X12.511 Y15.921 Z-14.982 F200.000
G1 X13.438 Y15.146 Z-14.991 F200.000
G1 X14.318 Y14.318 Z-15.000 F200.000
G1 X15.183 Y13.397 Z-15.006 F200.000
G1 X15.988 Y12.424 Z-15.012 F200.000
G1 X16.732 Y11.403 Z-15.019 F200.000
G1 X17.410 Y10.337 Z-15.027 F200.000
G1 X18.021 Y9.232 Z-15.035 F200.000
G1 X18.562 Y8.090 Z-15.044 F200.000
G1 X19.030 Y6.917 Z-15.053 F200.000
G1 X19.424 Y5.717 Z-15.063 F200.000
G1 X19.743 Y4.494 Z-15.073 F200.000
G1 X19.985 Y3.255 Z-15.084 F200.000
G1 X20.149 Y2.002 Z-15.095 F200.000
G1 X20.235 Y0.742 Z-15.106 F200.000
G1 X20.241 Y-0.521 Z-15.118 F200.000
G1 X20.170 Y-1.782 Z-15.130 F200.000
G1 X20.019 Y-3.037 Z-15.142 F200.000
G1 X19.791 Y-4.279 Z-15.154 F200.000
G1 X19.485 Y-5.505 Z-15.166 F200.000
G1 X19.104 Y-6.709 Z-15.179 F200.000
G1 X18.649 Y-7.887 Z-15.191 F200.000
G1 X18.121 Y-9.035 Z-15.203 F200.000
G1 X17.522 Y-10.147 Z-15.216 F200.000
G1 X16.855 Y-11.220 Z-15.228 F200.000
G1 X16.123 Y-12.249 Z-15.240 F200.000
G1 X15.328 Y-13.231 Z-15.251 F200.000
G1 X14.473 Y-14.161 Z-15.263 F200.000
G1 X13.562 Y-15.035 Z-15.274 F200.000
G1 X12.598 Y-15.852 Z-15.284 F200.000
G1 X11.585 Y-16.606 Z-15.295 F200.000
G1 X10.527 Y-17.297 Z-15.304 F200.000
G1 X9.428 Y-17.919 Z-15.314 F200.000
G1 X8.292 Y-18.472 Z-15.323 F200.000
G1 X7.124 Y-18.953 Z-15.331 F200.000
G1 X5.928 Y-19.361 Z-15.338 F200.000
G1 X4.710 Y-19.693 Z-15.345 F200.000
G1 X3.472 Y-19.948 Z-15.352 F200.000
G1 X2.222 Y-20.126 Z-15.358 F200.000
G1 X0.954 Y-20.226 Z-15.358 F200.000
G1 X-0.318 Y-20.245 Z-15.359 F200.000
G1 X-1.589 Y-20.185 Z-15.362 F200.000
G1 X-2.853 Y-20.046 Z-15.365 F200.000
G1 X-4.106 Y-19.827 Z-15.370 F200.000
G1 X-5.343 Y-19.530 Z-15.375 F200.000
G1 X-6.559 Y-19.156 Z-15.381 F200.000
G1 X-7.749 Y-18.706 Z-15.388 F200.000
G1 X-8.908 Y-18.183 Z-15.396 F200.000
G1 X-10.032 Y-17.588 Z-15.405 F200.000
G1 X-11.117 Y-16.923 Z-15.415 F200.000
G1 X-12.158 Y-16.191 Z-15.425 F200.000
G1 X-13.150 Y-15.396 Z-15.436 F200.000
G1 X-14.091 Y-14.540 Z-15.448 F200.000
G1 X-14.976 Y-13.627 Z-15.461 F200.000
G1 X-15.802 Y-12.659 Z-15.474 F200.000
G1 X-16.566 Y-11.642 Z-15.487 F200.000
G1 X-17.265 Y-10.579 Z-15.501 F200.000
G1 X-17.895 Y-9.474 Z-15.515 F200.000
G1 X-18.454 Y-8.332 Z-15.530 F200.000
G1 X-18.941 Y-7.157 Z-15.545 F200.000
G1 X-19.353 Y-5.953 Z-15.561 F200.000
G1 X-19.689 Y-4.727 Z-15.576 F200.000
G1 X-19.947 Y-3.481 Z-15.592 F200.000
G1 X-20.126 Y-2.222 Z-15.608 F200.000
G1 X-20.226 Y-0.954 Z-15.623 F200.000
G1 X-20.246 Y0.318 Z-15.639 F200.000
G1 X-20.186 Y1.589 Z-15.654 F200.000
G1 X-20.046 Y2.853 Z-15.670 F200.000
G1 X-19.827 Y4.106 Z-15.685 F200.000
G1 X-19.530 Y5.343 Z-15.700 F200.000
G1 X-19.156 Y6.559 Z-15.714 F200.000
G1 X-18.707 Y7.748 Z-15.728 F200.000
G1 X-18.183 Y8.908 Z-15.741 F200.000
G1 X-17.588 Y10.032 Z-15.754 F200.000
G1 X-16.923 Y11.116 Z-15.767 F200.000
G1 X-16.192 Y12.157 Z-15.779 F200.000
G1 X-15.397 Y13.150 Z-15.790 F200.000
G1 X-14.541 Y14.091 Z-15.800 F200.000
G1 X-13.627 Y14.976 Z-15.810 F200.000
G1 X-12.660 Y15.802 Z-15.819 F200.000
G1 X-11.643 Y16.566 Z-15.827 F200.000
G1 X-10.580 Y17.264 Z-15.834 F200.000
G1 X-9.475 Y17.894 Z-15.840 F200.000
G1 X-8.332 Y18.454 Z-15.845 F200.000
G1 X-7.157 Y18.941 Z-15.850 F200.000
G1 X-5.954 Y19.353 Z-15.853 F200.000
G1 X-4.727 Y19.689 Z-15.856 F200.000
G1 X-3.481 Y19.947 Z-15.857 F200.000
G1 X-2.222 Y20.126 Z-15.858 F200.000
G1 X-1.017 Y20.223 Z-15.866 F200.000
G1 X0.191 Y20.247 Z-15.876 F200.000
G1 X1.398 Y20.200 Z-15.885 F200.000
G1 X2.601 Y20.080 Z-15.895 F200.000
G1 X3.794 Y19.889 Z-15.904 F200.000
G1 X4.974 Y19.628 Z-15.914 F200.000
G1 X6.136 Y19.296 Z-15.924 F200.000
G1 X7.276 Y18.896 Z-15.934 F200.000
G1 X8.390 Y18.428 Z-15.943 F200.000
G1 X9.475 Y17.895 Z-15.953 F200.000
G1 X10.525 Y17.297 Z-15.963 F200.000
G1 X11.538 Y16.639 Z-15.972 F200.000
G1 X12.511 Y15.921 Z-15.982 F200.000
G1 X13.438 Y15.146 Z-15.991 F200.000
G1 X14.318 Y14.318 Z-16.000 F200.000
G1 X15.183 Y13.397 Z-16.006 F200.000
G1 X15.988 Y12.424 Z-16.012 F200.000
G1 X16.732 Y11.403 Z-16.019 F200.000
G1 X17.410 Y10.337 Z-16.027 F200.000
G1 X18.021 Y9.232 Z-16.035 F200.000
G1 X18.562 Y8.090 Z-16.044 F200.000
G1 X19.030 Y6.917 Z-16.053 F200.000
G1 X19.424 Y5.717 Z-16.063 F200.000
G1 X19.743 Y4.494 Z-16.073 F200.000
G1 X19.985 Y3.255 Z-16.084 F200.000
G1 X20.149 Y2.002 Z-16.095 F200.000
G1 X20.235 Y0.742 Z-16.106 F200.000
G1 X20.241 Y-0.521 Z-16.118 F200.000
G1 X20.170 Y-1.782 Z-16.130 F200.000
G1 X20.019 Y-3.037 Z-16.142 F200.000
G1 X19.791 Y-4.279 Z-16.154 F200.000
G1 X19.485 Y-5.505 Z-16.166 F200.000
G1 X19.104 Y-6.709 Z-16.179 F200.000
G1 X18.649 Y-7.887 Z-16.191 F200.000
G1 X18.121 Y-9.035 Z-16.203 F200.000
G1 X17.522 Y-10.147 Z-16.216 F200.000
G1 X16.855 Y-11.220 Z-16.228 F200.000
G1 X16.123 Y-12.249 Z-16.240 F200.000
G1 X15.328 Y-13.231 Z-16.251 F200.000
G1 X14.473 Y-14.161 Z-16.263 F200.000
G1 X13.562 Y-15.035 Z-16.274 F200.000
G1 X12.598 Y-15.852 Z-16.284 F200.000
G1 X11.585 Y-16.606 Z-16.295 F200.000
G1 X10.527 Y-17.297 Z-16.304 F200.000
G1 X9.428 Y-17.919 Z-16.314 F200.000
G1 X8.292 Y-18.472 Z-16.323 F200.000
G1 X7.124 Y-18.953 Z-16.331 F200.000
G1 X5.928 Y-19.361 Z-16.338 F200.000
G1 X4.710 Y-19.693 Z-16.345 F200.000
G1 X3.472 Y-19.948 Z-16.352 F200.000
G1 X2.222 Y-20.126 Z-16.358 F200.000
G1 X0.954 Y-20.226 Z-16.358 F200.000
G1 X-0.318 Y-20.245 Z-16.359 F200.000
G1 X-1.589 Y-20.185 Z-16.362 F200.000
G1 X-2.853 Y-20.046 Z-16.365 F200.000
G1 X-4.106 Y-19.827 Z-16.370 F200.000
G1 X-5.343 Y-19.530 Z-16.375 F200.000
G1 X-6.559 Y-19.156 Z-16.381 F200.000
G1 X-7.749 Y-18.706 Z-16.388 F200.000
G1 X-8.908 Y-18.183 Z-16.396 F200.000
G1 X-10.032 Y-17.588 Z-16.405 F200.000
G1 X-11.117 Y-16.923 Z-16.415 F200.000
G1 X-12.158 Y-16.191 Z-16.425 F200.000
G1 X-13.150 Y-15.396 Z-16.436 F200.000
G1 X-14.091 Y-14.540 Z-16.448 F200.000
G1 X-14.976 Y-13.627 Z-16.461 F200.000
G1 X-15.802 Y-12.659 Z-16.474 F200.000
G1 X-16.566 Y-11.642 Z-16.487 F200.000
G1 X-17.265 Y-10.579 Z-16.501 F200.000
G1 X-17.895 Y-9.474 Z-16.515 F200.000
G1 X-18.454 Y-8.332 Z-16.530 F200.000
G1 X-18.941 Y-7.157 Z-16.545 F200.000
G1 X-19.353 Y-5.953 Z-16.561 F200.000
G1 X-19.689 Y-4.727 Z-16.576 F200.000
G1 X-19.947 Y-3.481 Z-16.592 F200.000
G1 X-20.126 Y-2.222 Z-16.608 F200.000
G1 X-20.226 Y-0.954 Z-16.623 F200.000
G1 X-20.246 Y0.318 Z-16.639 F200.000
G1 X-20.186 Y1.589 Z-16.654 F200.000
G1 X-20.046 Y2.853 Z-16.670 F200.000
G1 X-19.827 Y4.106 Z-16.685 F200.000
G1 X-19.530 Y5.343 Z-16.700 F200.000
G1 X-19.156 Y6.559 Z-16.714 F200.000
G1 X-18.707 Y7.748 Z-16.728 F200.000
G1 X-18.183 Y8.908 Z-16.741 F200.000
G1 X-17.588 Y10.032 Z-16.754 F200.000
G1 X-16.923 Y11.116 Z-16.767 F200.000
G1 X-16.192 Y12.157 Z-16.779 F200.000
G1 X-15.397 Y13.150 Z-16.790 F200.000
G1 X-14.541 Y14.091 Z-16.800 F200.000
G1 X-13.627 Y14.976 Z-16.810 F200.000
G1 X-12.660 Y15.802 Z-16.819 F200.000
G1 X-11.643 Y16.566 Z-16.827 F200.000
G1 X-10.580 Y17.264 Z-16.834 F200.000
G1 X-9.475 Y17.894 Z-16.840 F200.000
G1 X-8.332 Y18.454 Z-16.845 F200.000
G1 X-7.157 Y18.941 Z-16.850 F200.000
G1 X-5.954 Y19.353 Z-16.853 F200.000
G1 X-4.727 Y19.689 Z-16.856 F200.000
G1 X-3.481 Y19.947 Z-16.857 F200.000
G1 X-2.222 Y20.126 Z-16.858 F200.000
G1 X-1.017 Y20.223 Z-16.866 F200.000
G1 X0.191 Y20.247 Z-16.876 F200.000
G1 X1.398 Y20.200 Z-16.885 F200.000
G1 X2.601 Y20.080 Z-16.895 F200.000
G1 X3.794 Y19.889 Z-16.904 F200.000
G1 X4.974 Y19.628 Z-16.914 F200.000
G1 X6.136 Y19.296 Z-16.924 F200.000
G1 X7.276 Y18.896 Z-16.934 F200.000
G1 X8.390 Y18.428 Z-16.943 F200.000
G1 X9.475 Y17.895 Z-16.953 F200.000
G1 X10.525 Y17.297 Z-16.963 F200.000
G1 X11.538 Y16.639 Z-16.972 F200.000
G1 X12.511 Y15.921 Z-16.982 F200.000
G1 X13.438 Y15.146 Z-16.991 F200.000
G1 X14.318 Y14.318 Z-17.000 F200.000
G1 X15.183 Y13.397 Z-17.006 F200.000
G1 X15.988 Y12.424 Z-17.012 F200.000
G1 X16.732 Y11.403 Z-17.019 F200.000
G1 X17.410 Y10.337 Z-17.027 F200.000
G1 X18.021 Y9.232 Z-17.035 F200.000
G1 X18.562 Y8.090 Z-17.044 F200.000
G1 X19.030 Y6.917 Z-17.053 F200.000
G1 X19.424 Y5.717 Z-17.063 F200.000
G1 X19.743 Y4.494 Z-17.073 F200.000
G1 X19.985 Y3.255 Z-17.084 F200.000
G1 X20.149 Y2.002 Z-17.095 F200.000
G1 X20.235 Y0.742 Z-17.106 F200.000
G1 X20.241 Y-0.521 Z-17.118 F200.000
G1 X20.170 Y-1.782 Z-17.130 F200.000
G1 X20.019 Y-3.037 Z-17.142 F200.000
G1 X19.791 Y-4.279 Z-17.154 F200.000
G1 X19.485 Y-5.505 Z-17.166 F200.000
G1 X19.104 Y-6.709 Z-17.179 F200.000
G1 X18.649 Y-7.887 Z-17.191 F200.000
G1 X18.121 Y-9.035 Z-17.203 F200.000
G1 X17.522 Y-10.147 Z-17.216 F200.000
G1 X16.855 Y-11.220 Z-17.228 F200.000
G1 X16.123 Y-12.249 Z-17.240 F200.000
G1 X15.328 Y-13.231 Z-17.251 F200.000
G1 X14.473 Y-14.161 Z-17.263 F200.000
G1 X13.562 Y-15.035 Z-17.274 F200.000
G1 X12.598 Y-15.852 Z-17.284 F200.000
G1 X11.585 Y-16.606 Z-17.295 F200.000
G1 X10.527 Y-17.297 Z-17.304 F200.000
G1 X9.428 Y-17.919 Z-17.314 F200.000
G1 X8.292 Y-18.472 Z-17.323 F200.000
G1 X7.124 Y-18.953 Z-17.331 F200.000
G1 X5.928 Y-19.361 Z-17.338 F200.000
G1 X4.710 Y-19.693 Z-17.345 F200.000
G1 X3.472 Y-19.948 Z-17.352 F200.000
G1 X2.222 Y-20.126 Z-17.358 F200.000
G1 X0.954 Y-20.226 Z-17.358 F200.000
G1 X-0.318 Y-20.245 Z-17.359 F200.000
G1 X-1.589 Y-20.185 Z-17.362 F200.000
G1 X-2.853 Y-20.046 Z-17.365 F200.000
G1 X-4.106 Y-19.827 Z-17.370 F200.000
G1 X-5.343 Y-19.530 Z-17.375 F200.000
G1 X-6.559 Y-19.156 Z-17.381 F200.000
G1 X-7.749 Y-18.706 Z-17.388 F200.000
G1 X-8.908 Y-18.183 Z-17.396 F200.000
G1 X-10.032 Y-17.588 Z-17.405 F200.000
G1 X-11.117 Y-16.923 Z-17.415 F200.000
G1 X-12.158 Y-16.191 Z-17.425 F200.000
G1 X-13.150 Y-15.396 Z-17.436 F200.000
G1 X-14.091 Y-14.540 Z-17.448 F200.000
G1 X-14.976 Y-13.627 Z-17.461 F200.000
G1 X-15.802 Y-12.659 Z-17.474 F200.000
G1 X-16.566 Y-11.642 Z-17.487 F200.000
G1 X-17.265 Y-10.579 Z-17.501 F200.000
G1 X-17.895 Y-9.474 Z-17.515 F200.000
G1 X-18.454 Y-8.332 Z-17.530 F200.000
G1 X-18.941 Y-7.157 Z-17.545 F200.000
G1 X-19.353 Y-5.953 Z-17.561 F200.000
G1 X-19.689 Y-4.727 Z-17.576 F200.000
G1 X-19.947 Y-3.481 Z-17.592 F200.000
G1 X-20.126 Y-2.222 Z-17.608 F200.000
G1 X-20.226 Y-0.954 Z-17.623 F200.000
G1 X-20.246 Y0.318 Z-17.639 F200.000
G1 X-20.186 Y1.589 Z-17.654 F200.000
G1 X-20.046 Y2.853 Z-17.670 F200.000
G1 X-19.827 Y4.106 Z-17.685 F200.000
G1 X-19.530 Y5.343 Z-17.700 F200.000
G1 X-19.156 Y6.559 Z-17.714 F200.000
G1 X-18.707 Y7.748 Z-17.728 F200.000
G1 X-18.183 Y8.908 Z-17.741 F200.000
G1 X-17.588 Y10.032 Z-17.754 F200.000
G1 X-16.923 Y11.116 Z-17.767 F200.000
G1 X-16.192 Y12.157 Z-17.779 F200.000
G1 X-15.397 Y13.150 Z-17.790 F200.000
G1 X-14.541 Y14.091 Z-17.800 F200.000
G1 X-13.627 Y14.976 Z-17.810 F200.000
G1 X-12.660 Y15.802 Z-17.819 F200.000
G1 X-11.643 Y16.566 Z-17.827 F200.000
G1 X-10.580 Y17.264 Z-17.834 F200.000
G1 X-9.475 Y17.894 Z-17.840 F200.000
G1 X-8.332 Y18.454 Z-17.845 F200.000
G1 X-7.157 Y18.941 Z-17.850 F200.000
G1 X-5.954 Y19.353 Z-17.853 F200.000
G1 X-4.727 Y19.689 Z-17.856 F200.000
G1 X-3.481 Y19.947 Z-17.857 F200.000
G1 X-2.222 Y20.126 Z-17.858 F200.000
G1 X-1.017 Y20.223 Z-17.866 F200.000
G1 X0.191 Y20.247 Z-17.876 F200.000
G1 X1.398 Y20.200 Z-17.885 F200.000
G1 X2.601 Y20.080 Z-17.895 F200.000
G1 X3.794 Y19.889 Z-17.904 F200.000
G1 X4.974 Y19.628 Z-17.914 F200.000
G1 X6.136 Y19.296 Z-17.924 F200.000
G1 X7.276 Y18.896 Z-17.934 F200.000
G1 X8.390 Y18.428 Z-17.943 F200.000
G1 X9.475 Y17.895 Z-17.953 F200.000
G1 X10.525 Y17.297 Z-17.963 F200.000
G1 X11.538 Y16.639 Z-17.972 F200.000
G1 X12.511 Y15.921 Z-17.982 F200.000
G1 X13.438 Y15.146 Z-17.991 F200.000
G1 X14.318 Y14.318 Z-18.000 F200.000
G1 X15.183 Y13.397 Z-18.006 F200.000
G1 X15.988 Y12.424 Z-18.012 F200.000
G1 X16.732 Y11.403 Z-18.019 F200.000
G1 X17.410 Y10.337 Z-18.027 F200.000
G1 X18.021 Y9.232 Z-18.035 F200.000
G1 X18.562 Y8.090 Z-18.044 F200.000
G1 X19.030 Y6.917 Z-18.053 F200.000
G1 X19.424 Y5.717 Z-18.063 F200.000
G1 X19.743 Y4.494 Z-18.073 F200.000
G1 X19.985 Y3.255 Z-18.084 F200.000
G1 X20.149 Y2.002 Z-18.095 F200.000
G1 X20.235 Y0.742 Z-18.106 F200.000
G1 X20.241 Y-0.521 Z-18.118 F200.000
G1 X20.170 Y-1.782 Z-18.130 F200.000
G1 X20.019 Y-3.037 Z-18.142 F200.000
G1 X19.791 Y-4.279 Z-18.154 F200.000
G1 X19.485 Y-5.505 Z-18.166 F200.000
G1 X19.104 Y-6.709 Z-18.179 F200.000
G1 X18.649 Y-7.887 Z-18.191 F200.000
G1 X18.121 Y-9.035 Z-18.203 F200.000
G1 X17.522 Y-10.147 Z-18.216 F200.000
G1 X16.855 Y-11.220 Z-18.228 F200.000
G1 X16.123 Y-12.249 Z-18.240 F200.000
G1 X15.328 Y-13.231 Z-18.251 F200.000
G1 X14.473 Y-14.161 Z-18.263 F200.000
G1 X13.562 Y-15.035 Z-18.274 F200.000
G1 X12.598 Y-15.852 Z-18.284 F200.000
G1 X11.585 Y-16.606 Z-18.295 F200.000
G1 X10.527 Y-17.297 Z-18.304 F200.000
G1 X9.428 Y-17.919 Z-18.314 F200.000
G1 X8.292 Y-18.472 Z-18.323 F200.000
G1 X7.124 Y-18.953 Z-18.331 F200.000
G1 X5.928 Y-19.361 Z-18.338 F200.000
G1 X4.710 Y-19.693 Z-18.345 F200.000
G1 X3.472 Y-19.948 Z-18.352 F200.000
G1 X2.222 Y-20.126 Z-18.358 F200.000
G1 X0.954 Y-20.226 Z-18.358 F200.000
G1 X-0.318 Y-20.245 Z-18.359 F200.000
G1 X-1.589 Y-20.185 Z-18.362 F200.000
G1 X-2.853 Y-20.046 Z-18.365 F200.000
G1 X-4.106 Y-19.827 Z-18.370 F200.000
G1 X-5.343 Y-19.530 Z-18.375 F200.000
G1 X-6.559 Y-19.156 Z-18.381 F200.000
G1 X-7.749 Y-18.706 Z-18.388 F200.000
G1 X-8.908 Y-18.183 Z-18.396 F200.000
G1 X-10.032 Y-17.588 Z-18.405 F200.000
G1 X-11.117 Y-16.923 Z-18.415 F200.000
G1 X-12.158 Y-16.191 Z-18.425 F200.000
G1 X-13.150 Y-15.396 Z-18.436 F200.000
G1 X-14.091 Y-14.540 Z-18.448 F200.000
G1 X-14.976 Y-13.627 Z-18.461 F200.000
G1 X-15.802 Y-12.659 Z-18.474 F200.000
G1 X-16.566 Y-11.642 Z-18.487 F200.000
G1 X-17.265 Y-10.579 Z-18.501 F200.000
G1 X-17.895 Y-9.474 Z-18.515 F200.000
G1 X-18.454 Y-8.332 Z-18.530 F200.000
G1 X-18.941 Y-7.157 Z-18.545 F200.000
G1 X-19.353 Y-5.953 Z-18.561 F200.000
G1 X-19.689 Y-4.727 Z-18.576 F200.000
G1 X-19.947 Y-3.481 Z-18.592 F200.000
G1 X-20.126 Y-2.222 Z-18.608 F200.000
G1 X-20.226 Y-0.954 Z-18.623 F200.000
G1 X-20.246 Y0.318 Z-18.639 F200.000
G1 X-20.186 Y1.589 Z-18.654 F200.000
G1 X-20.046 Y2.853 Z-18.670 F200.000
G1 X-19.827 Y4.106 Z-18.685 F200.000
G1 X-19.530 Y5.343 Z-18.700 F200.000
G1 X-19.156 Y6.559 Z-18.714 F200.000
G1 X-18.707 Y7.748 Z-18.728 F200.000
G1 X-18.183 Y8.908 Z-18.741 F200.000
G1 X-17.588 Y10.032 Z-18.754 F200.000
G1 X-16.923 Y11.116 Z-18.767 F200.000
G1 X-16.192 Y12.157 Z-18.779 F200.000
G1 X-15.397 Y13.150 Z-18.790 F200.000
G1 X-14.541 Y14.091 Z-18.800 F200.000
G1 X-13.627 Y14.976 Z-18.810 F200.000
G1 X-12.660 Y15.802 Z-18.819 F200.000
G1 X-11.643 Y16.566 Z-18.827 F200.000
G1 X-10.580 Y17.264 Z-18.834 F200.000
G1 X-9.475 Y17.894 Z-18.840 F200.000
G1 X-8.332 Y18.454 Z-18.845 F200.000
G1 X-7.157 Y18.941 Z-18.850 F200.000
G1 X-5.954 Y19.353 Z-18.853 F200.000
G1 X-4.727 Y19.689 Z-18.856 F200.000
G1 X-3.481 Y19.947 Z-18.857 F200.000
G1 X-2.222 Y20.126 Z-18.858 F200.000
G1 X-1.017 Y20.223 Z-18.866 F200.000
G1 X0.191 Y20.247 Z-18.876 F200.000
G1 X1.398 Y20.200 Z-18.885 F200.000
G1 X2.601 Y20.080 Z-18.895 F200.000
G1 X3.794 Y19.889 Z-18.904 F200.000
G1 X4.974 Y19.628 Z-18.914 F200.000
G1 X6.136 Y19.296 Z-18.924 F200.000
G1 X7.276 Y18.896 Z-18.934 F200.000
G1 X8.390 Y18.428 Z-18.943 F200.000
G1 X9.475 Y17.895 Z-18.953 F200.000
G1 X10.525 Y17.297 Z-18.963 F200.000
G1 X11.538 Y16.639 Z-18.972 F200.000
G1 X12.511 Y15.921 Z-18.982 F200.000
G1 X13.438 Y15.146 Z-18.991 F200.000
G1 X14.318 Y14.318 Z-19.000 F200.000
G1 X15.183 Y13.397 Z-19.006 F200.000
G1 X15.988 Y12.424 Z-19.012 F200.000
G1 X16.732 Y11.403 Z-19.019 F200.000
G1 X17.410 Y10.337 Z-19.027 F200.000
G1 X18.021 Y9.232 Z-19.035 F200.000
G1 X18.562 Y8.090 Z-19.044 F200.000
G1 X19.030 Y6.917 Z-19.053 F200.000
G1 X19.424 Y5.717 Z-19.063 F200.000
G1 X19.743 Y4.494 Z-19.073 F200.000
G1 X19.985 Y3.255 Z-19.084 F200.000
G1 X20.149 Y2.002 Z-19.095 F200.000
G1 X20.235 Y0.742 Z-19.106 F200.000
G1 X20.241 Y-0.521 Z-19.118 F200.000
G1 X20.170 Y-1.782 Z-19.130 F200.000
G1 X20.019 Y-3.037 Z-19.142 F200.000
G1 X19.791 Y-4.279 Z-19.154 F200.000
G1 X19.485 Y-5.505 Z-19.166 F200.000
G1 X19.104 Y-6.709 Z-19.179 F200.000
G1 X18.649 Y-7.887 Z-19.191 F200.000
G1 X18.121 Y-9.035 Z-19.203 F200.000
G1 X17.522 Y-10.147 Z-19.216 F200.000
G1 X16.855 Y-11.220 Z-19.228 F200.000
G1 X16.123 Y-12.249 Z-19.240 F200.000
G1 X15.328 Y-13.231 Z-19.251 F200.000
G1 X14.473 Y-14.161 Z-19.263 F200.000
G1 X13.562 Y-15.035 Z-19.274 F200.000
G1 X12.598 Y-15.852 Z-19.284 F200.000
G1 X11.585 Y-16.606 Z-19.295 F200.000
G1 X10.527 Y-17.297 Z-19.304 F200.000
G1 X9.428 Y-17.919 Z-19.314 F200.000
G1 X8.292 Y-18.472 Z-19.323 F200.000
G1 X7.124 Y-18.953 Z-19.331 F200.000
G1 X5.928 Y-19.361 Z-19.338 F200.000
G1 X4.710 Y-19.693 Z-19.345 F200.000
G1 X3.472 Y-19.948 Z-19.352 F200.000
G1 X2.222 Y-20.126 Z-19.358 F200.000
G1 X0.954 Y-20.226 Z-19.358 F200.000
G1 X-0.318 Y-20.245 Z-19.359 F200.000
G1 X-1.589 Y-20.185 Z-19.362 F200.000
G1 X-2.853 Y-20.046 Z-19.365 F200.000
G1 X-4.106 Y-19.827 Z-19.370 F200.000
G1 X-5.343 Y-19.530 Z-19.375 F200.000
G1 X-6.559 Y-19.156 Z-19.381 F200.000
G1 X-7.749 Y-18.706 Z-19.388 F200.000
G1 X-8.908 Y-18.183 Z-19.396 F200.000
G1 X-10.032 Y-17.588 Z-19.405 F200.000
G1 X-11.117 Y-16.923 Z-19.415 F200.000
G1 X-12.158 Y-16.191 Z-19.425 F200.000
G1 X-13.150 Y-15.396 Z-19.436 F200.000
G1 X-14.091 Y-14.540 Z-19.448 F200.000
G1 X-14.976 Y-13.627 Z-19.461 F200.000
G1 X-15.802 Y-12.659 Z-19.474 F200.000
G1 X-16.566 Y-11.642 Z-19.487 F200.000
G1 X-17.265 Y-10.579 Z-19.501 F200.000
G1 X-17.895 Y-9.474 Z-19.515 F200.000
G1 X-18.454 Y-8.332 Z-19.530 F200.000
G1 X-18.941 Y-7.157 Z-19.545 F200.000
G1 X-19.353 Y-5.953 Z-19.561 F200.000
G1 X-19.689 Y-4.727 Z-19.576 F200.000
G1 X-19.947 Y-3.481 Z-19.592 F200.000
G1 X-20.126 Y-2.222 Z-19.608 F200.000
G1 X-20.226 Y-0.954 Z-19.623 F200.000
G1 X-20.246 Y0.318 Z-19.639 F200.000
G1 X-20.186 Y1.589 Z-19.654 F200.000
G1 X-20.046 Y2.853 Z-19.670 F200.000
G1 X-19.827 Y4.106 Z-19.685 F200.000
G1 X-19.530 Y5.343 Z-19.700 F200.000
G1 X-19.156 Y6.559 Z-19.714 F200.000
G1 X-18.707 Y7.748 Z-19.728 F200.000
G1 X-18.183 Y8.908 Z-19.741 F200.000
G1 X-17.588 Y10.032 Z-19.754 F200.000
G1 X-16.923 Y11.116 Z-19.767 F200.000
G1 X-16.192 Y12.157 Z-19.779 F200.000
G1 X-15.397 Y13.150 Z-19.790 F200.000
G1 X-14.541 Y14.091 Z-19.800 F200.000
G1 X-13.627 Y14.976 Z-19.810 F200.000
G1 X-12.660 Y15.802 Z-19.819 F200.000
G1 X-11.643 Y16.566 Z-19.827 F200.000
G1 X-10.580 Y17.264 Z-19.834 F200.000
G1 X-9.475 Y17.894 Z-19.840 F200.000
G1 X-8.332 Y18.454 Z-19.845 F200.000
G1 X-7.157 Y18.941 Z-19.850 F200.000
G1 X-5.954 Y19.353 Z-19.853 F200.000
G1 X-4.727 Y19.689 Z-19.856 F200.000
G1 X-3.481 Y19.947 Z-19.857 F200.000
G1 X-2.222 Y20.126 Z-19.858 F200.000
G1 X-1.017 Y20.223 Z-19.866 F200.000
G1 X0.191 Y20.247 Z-19.876 F200.000
G1 X1.398 Y20.200 Z-19.885 F200.000
G1 X2.601 Y20.080 Z-19.895 F200.000
G1 X3.794 Y19.889 Z-19.904 F200.000
G1 X4.974 Y19.628 Z-19.914 F200.000
G1 X6.136 Y19.296 Z-19.924 F200.000
G1 X7.276 Y18.896 Z-19.934 F200.000
G1 X8.390 Y18.428 Z-19.943 F200.000
G1 X9.475 Y17.895 Z-19.953 F200.000
G1 X10.525 Y17.297 Z-19.963 F200.000
G1 X11.538 Y16.639 Z-19.972 F200.000
G1 X12.511 Y15.921 Z-19.982 F200.000
G1 X13.438 Y15.146 Z-19.991 F200.000
G1 X14.318 Y14.318 Z-20.000 F200.000
G1 X15.183 Y13.397 Z-20.006 F200.000
G1 X15.988 Y12.424 Z-20.012 F200.000
G1 X16.732 Y11.403 Z-20.019 F200.000
G1 X17.410 Y10.337 Z-20.027 F200.000
G1 X18.021 Y9.232 Z-20.035 F200.000
G1 X18.562 Y8.090 Z-20.044 F200.000
G1 X19.030 Y6.917 Z-20.053 F200.000
G1 X19.424 Y5.717 Z-20.063 F200.000
G1 X19.743 Y4.494 Z-20.073 F200.000
G1 X19.985 Y3.255 Z-20.084 F200.000
G1 X20.149 Y2.002 Z-20.095 F200.000
G1 X20.235 Y0.742 Z-20.106 F200.000
G1 X20.241 Y-0.521 Z-20.118 F200.000
G1 X20.170 Y-1.782 Z-20.130 F200.000
G1 X20.019 Y-3.037 Z-20.142 F200.000
G1 X19.791 Y-4.279 Z-20.154 F200.000
G1 X19.485 Y-5.505 Z-20.166 F200.000
G1 X19.104 Y-6.709 Z-20.179 F200.000
G1 X18.649 Y-7.887 Z-20.191 F200.000
G1 X18.121 Y-9.035 Z-20.203 F200.000
G1 X17.522 Y-10.147 Z-20.216 F200.000
G1 X16.855 Y-11.220 Z-20.228 F200.000
G1 X16.123 Y-12.249 Z-20.240 F200.000
G1 X15.328 Y-13.231 Z-20.251 F200.000
G1 X14.473 Y-14.161 Z-20.263 F200.000
G1 X13.562 Y-15.035 Z-20.274 F200.000
G1 X12.598 Y-15.852 Z-20.284 F200.000
G1 X11.585 Y-16.606 Z-20.295 F200.000
G1 X10.527 Y-17.297 Z-20.304 F200.000
G1 X9.428 Y-17.919 Z-20.314 F200.000
G1 X8.292 Y-18.472 Z-20.323 F200.000
G1 X7.124 Y-18.953 Z-20.331 F200.000
G1 X5.928 Y-19.361 Z-20.338 F200.000
G1 X4.710 Y-19.693 Z-20.345 F200.000
G1 X3.472 Y-19.948 Z-20.352 F200.000
G1 X2.222 Y-20.126 Z-20.358 F200.000
G1 X0.954 Y-20.226 Z-20.358 F200.000
G1 X-0.318 Y-20.245 Z-20.359 F200.000
G1 X-1.589 Y-20.185 Z-20.362 F200.000
G1 X-2.853 Y-20.046 Z-20.365 F200.000
G1 X-4.106 Y-19.827 Z-20.370 F200.000
G1 X-5.343 Y-19.530 Z-20.375 F200.000
G1 X-6.559 Y-19.156 Z-20.381 F200.000
G1 X-7.749 Y-18.706 Z-20.388 F200.000
G1 X-8.908 Y-18.183 Z-20.396 F200.000
G1 X-10.032 Y-17.588 Z-20.405 F200.000
G1 X-11.117 Y-16.923 Z-20.415 F200.000
G1 X-12.158 Y-16.191 Z-20.425 F200.000
G1 X-13.150 Y-15.396 Z-20.436 F200.000
G1 X-14.091 Y-14.540 Z-20.448 F200.000
G1 X-14.976 Y-13.627 Z-20.461 F200.000
G1 X-15.802 Y-12.659 Z-20.474 F200.000
G1 X-16.566 Y-11.642 Z-20.487 F200.000
G1 X-17.265 Y-10.579 Z-20.501 F200.000
G1 X-17.895 Y-9.474 Z-20.515 F200.000
G1 X-18.454 Y-8.332 Z-20.530 F200.000
G1 X-18.941 Y-7.157 Z-20.545 F200.000
G1 X-19.353 Y-5.953 Z-20.561 F200.000
G1 X-19.689 Y-4.727 Z-20.576 F200.000
G1 X-19.947 Y-3.481 Z-20.592 F200.000
G1 X-20.126 Y-2.222 Z-20.608 F200.000
G1 X-20.226 Y-0.954 Z-20.623 F200.000
G1 X-20.246 Y0.318 Z-20.639 F200.000
G1 X-20.186 Y1.589 Z-20.654 F200.000
G1 X-20.046 Y2.853 Z-20.670 F200.000
G1 X-19.827 Y4.106 Z-20.685 F200.000
G1 X-19.530 Y5.343 Z-20.700 F200.000
G1 X-19.156 Y6.559 Z-20.714 F200.000
G1 X-18.707 Y7.748 Z-20.728 F200.000
G1 X-18.183 Y8.908 Z-20.741 F200.000
G1 X-17.588 Y10.032 Z-20.754 F200.000
G1 X-16.923 Y11.116 Z-20.767 F200.000
G1 X-16.192 Y12.157 Z-20.779 F200.000
G1 X-15.397 Y13.150 Z-20.790 F200.000
G1 X-14.541 Y14.091 Z-20.800 F200.000
G1 X-13.627 Y14.976 Z-20.810 F200.000
G1 X-12.660 Y15.802 Z-20.819 F200.000
G1 X-11.643 Y16.566 Z-20.827 F200.000
G1 X-10.580 Y17.264 Z-20.834 F200.000
G1 X-9.475 Y17.894 Z-20.840 F200.000
G1 X-8.332 Y18.454 Z-20.845 F200.000
G1 X-7.157 Y18.941 Z-20.850 F200.000
G1 X-5.954 Y19.353 Z-20.853 F200.000
G1 X-4.727 Y19.689 Z-20.856 F200.000
G1 X-3.481 Y19.947 Z-20.857 F200.000
G1 X-2.222 Y20.126 Z-20.858 F200.000
G1 X-1.017 Y20.223 Z-20.866 F200.000
G1 X0.191 Y20.247 Z-20.876 F200.000
G1 X1.398 Y20.200 Z-20.885 F200.000
G1 X2.601 Y20.080 Z-20.895 F200.000
G1 X3.794 Y19.889 Z-20.904 F200.000
G1 X4.974 Y19.628 Z-20.914 F200.000
G1 X6.136 Y19.296 Z-20.924 F200.000
G1 X7.276 Y18.896 Z-20.934 F200.000
G1 X8.390 Y18.428 Z-20.943 F200.000
G1 X9.475 Y17.895 Z-20.953 F200.000
G1 X10.525 Y17.297 Z-20.963 F200.000
G1 X11.538 Y16.639 Z-20.972 F200.000
G1 X12.511 Y15.921 Z-20.982 F200.000
G1 X13.438 Y15.146 Z-20.991 F200.000
G1 X14.318 Y14.318 Z-21.000 F200.000
G1 X15.183 Y13.397 Z-21.006 F200.000
G1 X15.988 Y12.424 Z-21.012 F200.000
G1 X16.732 Y11.403 Z-21.019 F200.000
G1 X17.410 Y10.337 Z-21.027 F200.000
G1 X18.021 Y9.232 Z-21.035 F200.000
G1 X18.562 Y8.090 Z-21.044 F200.000
G1 X19.030 Y6.917 Z-21.053 F200.000
G1 X19.424 Y5.717 Z-21.063 F200.000
G1 X19.743 Y4.494 Z-21.073 F200.000
G1 X19.985 Y3.255 Z-21.084 F200.000
G1 X20.149 Y2.002 Z-21.095 F200.000
G1 X20.235 Y0.742 Z-21.106 F200.000
G1 X20.241 Y-0.521 Z-21.118 F200.000
G1 X20.170 Y-1.782 Z-21.130 F200.000
G1 X20.019 Y-3.037 Z-21.142 F200.000
G1 X19.791 Y-4.279 Z-21.154 F200.000
G1 X19.485 Y-5.505 Z-21.166 F200.000
G1 X19.104 Y-6.709 Z-21.179 F200.000
G1 X18.649 Y-7.887 Z-21.191 F200.000
G1 X18.121 Y-9.035 Z-21.203 F200.000
G1 X17.522 Y-10.147 Z-21.216 F200.000
G1 X16.855 Y-11.220 Z-21.228 F200.000
G1 X16.123 Y-12.249 Z-21.240 F200.000
G1 X15.328 Y-13.231 Z-21.251 F200.000
G1 X14.473 Y-14.161 Z-21.263 F200.000
G1 X13.562 Y-15.035 Z-21.274 F200.000
G1 X12.598 Y-15.852 Z-21.284 F200.000
G1 X11.585 Y-16.606 Z-21.295 F200.000
G1 X10.527 Y-17.297 Z-21.304 F200.000
G1 X9.428 Y-17.919 Z-21.314 F200.000
G1 X8.292 Y-18.472 Z-21.323 F200.000
G1 X7.124 Y-18.953 Z-21.331 F200.000
G1 X5.928 Y-19.361 Z-21.338 F200.000
G1 X4.710 Y-19.693 Z-21.345 F200.000
G1 X3.472 Y-19.948 Z-21.352 F200.000
G1 X2.222 Y-20.126 Z-21.358 F200.000
G1 X0.954 Y-20.226 Z-21.358 F200.000
G1 X-0.318 Y-20.245 Z-21.359 F200.000
G1 X-1.589 Y-20.185 Z-21.362 F200.000
G1 X-2.853 Y-20.046 Z-21.365 F200.000
G1 X-4.106 Y-19.827 Z-21.370 F200.000
G1 X-5.343 Y-19.530 Z-21.375 F200.000
G1 X-6.559 Y-19.156 Z-21.381 F200.000
G1 X-7.749 Y-18.706 Z-21.388 F200.000
G1 X-8.908 Y-18.183 Z-21.396 F200.000
G1 X-10.032 Y-17.588 Z-21.405 F200.000
G1 X-11.117 Y-16.923 Z-21.415 F200.000
G1 X-12.158 Y-16.191 Z-21.425 F200.000
G1 X-13.150 Y-15.396 Z-21.436 F200.000
G1 X-14.091 Y-14.540 Z-21.448 F200.000
G1 X-14.976 Y-13.627 Z-21.461 F200.000
G1 X-15.802 Y-12.659 Z-21.474 F200.000
G1 X-16.566 Y-11.642 Z-21.487 F200.000
G1 X-17.265 Y-10.579 Z-21.501 F200.000
G1 X-17.895 Y-9.474 Z-21.515 F200.000
G1 X-18.454 Y-8.332 Z-21.530 F200.000
G1 X-18.941 Y-7.157 Z-21.545 F200.000
G1 X-19.353 Y-5.953 Z-21.561 F200.000
G1 X-19.689 Y-4.727 Z-21.576 F200.000
G1 X-19.947 Y-3.481 Z-21.592 F200.000
G1 X-20.126 Y-2.222 Z-21.608 F200.000
G1 X-20.226 Y-0.954 Z-21.623 F200.000
G1 X-20.246 Y0.318 Z-21.639 F200.000
G1 X-20.186 Y1.589 Z-21.654 F200.000
G1 X-20.046 Y2.853 Z-21.670 F200.000
G1 X-19.827 Y4.106 Z-21.685 F200.000
G1 X-19.530 Y5.343 Z-21.700 F200.000
G1 X-19.156 Y6.559 Z-21.714 F200.000
G1 X-18.707 Y7.748 Z-21.728 F200.000
G1 X-18.183 Y8.908 Z-21.741 F200.000
G1 X-17.588 Y10.032 Z-21.754 F200.000
G1 X-16.923 Y11.116 Z-21.767 F200.000
G1 X-16.192 Y12.157 Z-21.779 F200.000
G1 X-15.397 Y13.150 Z-21.790 F200.000
G1 X-14.541 Y14.091 Z-21.800 F200.000
G1 X-13.627 Y14.976 Z-21.810 F200.000
G1 X-12.660 Y15.802 Z-21.819 F200.000
G1 X-11.643 Y16.566 Z-21.827 F200.000
G1 X-10.580 Y17.264 Z-21.834 F200.000
G1 X-9.475 Y17.894 Z-21.840 F200.000
G1 X-8.332 Y18.454 Z-21.845 F200.000
G1 X-7.157 Y18.941 Z-21.850 F200.000
G1 X-5.954 Y19.353 Z-21.853 F200.000
G1 X-4.727 Y19.689 Z-21.856 F200.000
G1 X-3.481 Y19.947 Z-21.857 F200.000
G1 X-2.222 Y20.126 Z-21.858 F200.000
G1 X-1.017 Y20.223 Z-21.866 F200.000
G1 X0.191 Y20.247 Z-21.876 F200.000
G1 X1.398 Y20.200 Z-21.885 F200.000
G1 X2.601 Y20.080 Z-21.895 F200.000
G1 X3.794 Y19.889 Z-21.904 F200.000
G1 X4.974 Y19.628 Z-21.914 F200.000
G1 X6.136 Y19.296 Z-21.924 F200.000
G1 X7.276 Y18.896 Z-21.934 F200.000
G1 X8.390 Y18.428 Z-21.943 F200.000
G1 X9.475 Y17.895 Z-21.953 F200.000
G1 X10.525 Y17.297 Z-21.963 F200.000
G1 X11.538 Y16.639 Z-21.972 F200.000
G1 X12.511 Y15.921 Z-21.982 F200.000
G1 X13.438 Y15.146 Z-21.991 F200.000
G1 X14.318 Y14.318 Z-22.000 F200.000
G1 X15.183 Y13.397 Z-22.006 F200.000
G1 X15.988 Y12.424 Z-22.012 F200.000
G1 X16.732 Y11.403 Z-22.019 F200.000
G1 X17.410 Y10.337 Z-22.027 F200.000
G1 X18.021 Y9.232 Z-22.035 F200.000
G1 X18.562 Y8.090 Z-22.044 F200.000
G1 X19.030 Y6.917 Z-22.053 F200.000
G1 X19.424 Y5.717 Z-22.063 F200.000
G1 X19.743 Y4.494 Z-22.073 F200.000
G1 X19.985 Y3.255 Z-22.084 F200.000
G1 X20.149 Y2.002 Z-22.095 F200.000
G1 X20.235 Y0.742 Z-22.106 F200.000
G1 X20.241 Y-0.521 Z-22.118 F200.000
G1 X20.170 Y-1.782 Z-22.130 F200.000
G1 X20.019 Y-3.037 Z-22.142 F200.000
G1 X19.791 Y-4.279 Z-22.154 F200.000
G1 X19.485 Y-5.505 Z-22.166 F200.000
G1 X19.104 Y-6.709 Z-22.179 F200.000
G1 X18.649 Y-7.887 Z-22.191 F200.000
G1 X18.121 Y-9.035 Z-22.203 F200.000
G1 X17.522 Y-10.147 Z-22.216 F200.000
G1 X16.855 Y-11.220 Z-22.228 F200.000
G1 X16.123 Y-12.249 Z-22.240 F200.000
G1 X15.328 Y-13.231 Z-22.251 F200.000
G1 X14.473 Y-14.161 Z-22.263 F200.000
G1 X13.562 Y-15.035 Z-22.274 F200.000
G1 X12.598 Y-15.852 Z-22.284 F200.000
G1 X11.585 Y-16.606 Z-22.295 F200.000
G1 X10.527 Y-17.297 Z-22.304 F200.000
G1 X9.428 Y-17.919 Z-22.314 F200.000
G1 X8.292 Y-18.472 Z-22.323 F200.000
G1 X7.124 Y-18.953 Z-22.331 F200.000
G1 X5.928 Y-19.361 Z-22.338 F200.000
G1 X4.710 Y-19.693 Z-22.345 F200.000
G1 X3.472 Y-19.948 Z-22.352 F200.000
G1 X2.222 Y-20.126 Z-22.358 F200.000
G1 X0.954 Y-20.226 Z-22.358 F200.000
G1 X-0.318 Y-20.245 Z-22.359 F200.000
G1 X-1.589 Y-20.185 Z-22.362 F200.000
G1 X-2.853 Y-20.046 Z-22.365 F200.000
G1 X-4.106 Y-19.827 Z-22.370 F200.000
G1 X-5.343 Y-19.530 Z-22.375 F200.000
G1 X-6.559 Y-19.156 Z-22.381 F200.000
G1 X-7.749 Y-18.706 Z-22.388 F200.000
G1 X-8.908 Y-18.183 Z-22.396 F200.000
G1 X-10.032 Y-17.588 Z-22.405 F200.000
G1 X-11.117 Y-16.923 Z-22.415 F200.000
G1 X-12.158 Y-16.191 Z-22.425 F200.000
G1 X-13.150 Y-15.396 Z-22.436 F200.000
G1 X-14.091 Y-14.540 Z-22.448 F200.000
G1 X-14.976 Y-13.627 Z-22.461 F200.000
G1 X-15.802 Y-12.659 Z-22.474 F200.000
G1 X-16.566 Y-11.642 Z-22.487 F200.000
G1 X-17.265 Y-10.579 Z-22.501 F200.000
G1 X-17.895 Y-9.474 Z-22.515 F200.000
G1 X-18.454 Y-8.332 Z-22.530 F200.000
G1 X-18.941 Y-7.157 Z-22.545 F200.000
G1 X-19.353 Y-5.953 Z-22.561 F200.000
G1 X-19.689 Y-4.727 Z-22.576 F200.000
G1 X-19.947 Y-3.481 Z-22.592 F200.000
G1 X-20.126 Y-2.222 Z-22.608 F200.000
G1 X-20.226 Y-0.954 Z-22.623 F200.000
G1 X-20.246 Y0.318 Z-22.639 F200.000
G1 X-20.186 Y1.589 Z-22.654 F200.000
G1 X-20.046 Y2.853 Z-22.670 F200.000
G1 X-19.827 Y4.106 Z-22.685 F200.000
G1 X-19.530 Y5.343 Z-22.700 F200.000
G1 X-19.156 Y6.559 Z-22.714 F200.000
G1 X-18.707 Y7.748 Z-22.728 F200.000
G1 X-18.183 Y8.908 Z-22.741 F200.000
G1 X-17.588 Y10.032 Z-22.754 F200.000
G1 X-16.923 Y11.116 Z-22.767 F200.000
G1 X-16.192 Y12.157 Z-22.779 F200.000
G1 X-15.397 Y13.150 Z-22.790 F200.000
G1 X-14.541 Y14.091 Z-22.800 F200.000
G1 X-13.627 Y14.976 Z-22.810 F200.000
G1 X-12.660 Y15.802 Z-22.819 F200.000
G1 X-11.643 Y16.566 Z-22.827 F200.000
G1 X-10.580 Y17.264 Z-22.834 F200.000
G1 X-9.475 Y17.894 Z-22.840 F200.000
G1 X-8.332 Y18.454 Z-22.845 F200.000
G1 X-7.157 Y18.941 Z-22.850 F200.000
G1 X-5.954 Y19.353 Z-22.853 F200.000
G1 X-4.727 Y19.689 Z-22.856 F200.000
G1 X-3.481 Y19.947 Z-22.857 F200.000
G1 X-2.222 Y20.126 Z-22.858 F200.000
G1 X-1.017 Y20.223 Z-22.866 F200.000
G1 X0.191 Y20.247 Z-22.876 F200.000
G1 X1.398 Y20.200 Z-22.885 F200.000
G1 X2.601 Y20.080 Z-22.895 F200.000
G1 X3.794 Y19.889 Z-22.904 F200.000
G1 X4.974 Y19.628 Z-22.914 F200.000
G1 X6.136 Y19.296 Z-22.924 F200.000
G1 X7.276 Y18.896 Z-22.934 F200.000
G1 X8.390 Y18.428 Z-22.943 F200.000
G1 X9.475 Y17.895 Z-22.953 F200.000
G1 X10.525 Y17.297 Z-22.963 F200.000
G1 X11.538 Y16.639 Z-22.972 F200.000
G1 X12.511 Y15.921 Z-22.982 F200.000
G1 X13.438 Y15.146 Z-22.991 F200.000
G1 X14.318 Y14.318 Z-23.000 F200.000
G1 X15.183 Y13.397 Z-23.006 F200.000
G1 X15.988 Y12.424 Z-23.012 F200.000
G1 X16.732 Y11.403 Z-23.019 F200.000
G1 X17.410 Y10.337 Z-23.027 F200.000
G1 X18.021 Y9.232 Z-23.035 F200.000
G1 X18.562 Y8.090 Z-23.044 F200.000
G1 X19.030 Y6.917 Z-23.053 F200.000
G1 X19.424 Y5.717 Z-23.063 F200.000
G1 X19.743 Y4.494 Z-23.073 F200.000
G1 X19.985 Y3.255 Z-23.084 F200.000
G1 X20.149 Y2.002 Z-23.095 F200.000
G1 X20.235 Y0.742 Z-23.106 F200.000
G1 X20.241 Y-0.521 Z-23.118 F200.000
G1 X20.170 Y-1.782 Z-23.130 F200.000
G1 X20.019 Y-3.037 Z-23.142 F200.000
G1 X19.791 Y-4.279 Z-23.154 F200.000
G1 X19.485 Y-5.505 Z-23.166 F200.000
G1 X19.104 Y-6.709 Z-23.179 F200.000
G1 X18.649 Y-7.887 Z-23.191 F200.000
G1 X18.121 Y-9.035 Z-23.203 F200.000
G1 X17.522 Y-10.147 Z-23.216 F200.000
G1 X16.855 Y-11.220 Z-23.228 F200.000
G1 X16.123 Y-12.249 Z-23.240 F200.000
G1 X15.328 Y-13.231 Z-23.251 F200.000
G1 X14.473 Y-14.161 Z-23.263 F200.000
G1 X13.562 Y-15.035 Z-23.274 F200.000
G1 X12.598 Y-15.852 Z-23.284 F200.000
G1 X11.585 Y-16.606 Z-23.295 F200.000
G1 X10.527 Y-17.297 Z-23.304 F200.000
G1 X9.428 Y-17.919 Z-23.314 F200.000
G1 X8.292 Y-18.472 Z-23.323 F200.000
G1 X7.124 Y-18.953 Z-23.331 F200.000
G1 X5.928 Y-19.361 Z-23.338 F200.000
G1 X4.710 Y-19.693 Z-23.345 F200.000
G1 X3.472 Y-19.948 Z-23.352 F200.000
G1 X2.222 Y-20.126 Z-23.358 F200.000
G1 X0.954 Y-20.226 Z-23.358 F200.000
G1 X-0.318 Y-20.245 Z-23.359 F200.000
G1 X-1.589 Y-20.185 Z-23.362 F200.000
G1 X-2.853 Y-20.046 Z-23.365 F200.000
G1 X-4.106 Y-19.827 Z-23.370 F200.000
G1 X-5.343 Y-19.530 Z-23.375 F200.000
G1 X-6.559 Y-19.156 Z-23.381 F200.000
G1 X-7.749 Y-18.706 Z-23.388 F200.000
G1 X-8.908 Y-18.183 Z-23.396 F200.000
G1 X-10.032 Y-17.588 Z-23.405 F200.000
G1 X-11.117 Y-16.923 Z-23.415 F200.000
G1 X-12.158 Y-16.191 Z-23.425 F200.000
G1 X-13.150 Y-15.396 Z-23.436 F200.000
G1 X-14.091 Y-14.540 Z-23.448 F200.000
G1 X-14.976 Y-13.627 Z-23.461 F200.000
G1 X-15.802 Y-12.659 Z-23.474 F200.000
G1 X-16.566 Y-11.642 Z-23.487 F200.000
G1 X-17.265 Y-10.579 Z-23.501 F200.000
G1 X-17.895 Y-9.474 Z-23.515 F200.000
G1 X-18.454 Y-8.332 Z-23.530 F200.000
G1 X-18.941 Y-7.157 Z-23.545 F200.000
G1 X-19.353 Y-5.953 Z-23.561 F200.000
G1 X-19.689 Y-4.727 Z-23.576 F200.000
G1 X-19.947 Y-3.481 Z-23.592 F200.000
G1 X-20.126 Y-2.222 Z-23.608 F200.000
G1 X-20.226 Y-0.954 Z-23.623 F200.000
G1 X-20.246 Y0.318 Z-23.639 F200.000
G1 X-20.186 Y1.589 Z-23.654 F200.000
G1 X-20.046 Y2.853 Z-23.670 F200.000
G1 X-19.827 Y4.106 Z-23.685 F200.000
G1 X-19.530 Y5.343 Z-23.700 F200.000
G1 X-19.156 Y6.559 Z-23.714 F200.000
G1 X-18.707 Y7.748 Z-23.728 F200.000
G1 X-18.183 Y8.908 Z-23.741 F200.000
G1 X-17.588 Y10.032 Z-23.754 F200.000
G1 X-16.923 Y11.116 Z-23.767 F200.000
G1 X-16.192 Y12.157 Z-23.779 F200.000
G1 X-15.397 Y13.150 Z-23.790 F200.000
G1 X-14.541 Y14.091 Z-23.800 F200.000
G1 X-13.627 Y14.976 Z-23.810 F200.000
G1 X-12.660 Y15.802 Z-23.819 F200.000
G1 X-11.643 Y16.566 Z-23.827 F200.000
G1 X-10.580 Y17.264 Z-23.834 F200.000
G1 X-9.475 Y17.894 Z-23.840 F200.000
G1 X-8.332 Y18.454 Z-23.845 F200.000
G1 X-7.157 Y18.941 Z-23.850 F200.000
G1 X-5.954 Y19.353 Z-23.853 F200.000
G1 X-4.727 Y19.689 Z-23.856 F200.000
G1 X-3.481 Y19.947 Z-23.857 F200.000
G1 X-2.222 Y20.126 Z-23.858 F200.000
G1 X-1.017 Y20.223 Z-23.866 F200.000
G1 X0.191 Y20.247 Z-23.876 F200.000
G1 X1.398 Y20.200 Z-23.885 F200.000
G1 X2.601 Y20.080 Z-23.895 F200.000
G1 X3.794 Y19.889 Z-23.904 F200.000
G1 X4.974 Y19.628 Z-23.914 F200.000
G1 X6.136 Y19.296 Z-23.924 F200.000
G1 X7.276 Y18.896 Z-23.934 F200.000
G1 X8.390 Y18.428 Z-23.943 F200.000
G1 X9.475 Y17.895 Z-23.953 F200.000
G1 X10.525 Y17.297 Z-23.963 F200.000
G1 X11.538 Y16.639 Z-23.972 F200.000
G1 X12.511 Y15.921 Z-23.982 F200.000
G1 X13.438 Y15.146 Z-23.991 F200.000
G1 X14.318 Y14.318 Z-24.000 F200.000
G1 X15.183 Y13.397 Z-24.006 F200.000
G1 X15.988 Y12.424 Z-24.012 F200.000
G1 X16.732 Y11.403 Z-24.019 F200.000
G1 X17.410 Y10.337 Z-24.027 F200.000
G1 X18.021 Y9.232 Z-24.035 F200.000
G1 X18.562 Y8.090 Z-24.044 F200.000
G1 X19.030 Y6.917 Z-24.053 F200.000
G1 X19.424 Y5.717 Z-24.063 F200.000
G1 X19.743 Y4.494 Z-24.073 F200.000
G1 X19.985 Y3.255 Z-24.084 F200.000
G1 X20.149 Y2.002 Z-24.095 F200.000
G1 X20.235 Y0.742 Z-24.106 F200.000
G1 X20.241 Y-0.521 Z-24.118 F200.000
G1 X20.170 Y-1.782 Z-24.130 F200.000
G1 X20.019 Y-3.037 Z-24.142 F200.000
G1 X19.791 Y-4.279 Z-24.154 F200.000
G1 X19.485 Y-5.505 Z-24.166 F200.000
G1 X19.104 Y-6.709 Z-24.179 F200.000
G1 X18.649 Y-7.887 Z-24.191 F200.000
G1 X18.121 Y-9.035 Z-24.203 F200.000
G1 X17.522 Y-10.147 Z-24.216 F200.000
G1 X16.855 Y-11.220 Z-24.228 F200.000
G1 X16.123 Y-12.249 Z-24.240 F200.000
G1 X15.328 Y-13.231 Z-24.251 F200.000
G1 X14.473 Y-14.161 Z-24.263 F200.000
G1 X13.562 Y-15.035 Z-24.274 F200.000
G1 X12.598 Y-15.852 Z-24.284 F200.000
G1 X11.585 Y-16.606 Z-24.295 F200.000
G1 X10.527 Y-17.297 Z-24.304 F200.000
G1 X9.428 Y-17.919 Z-24.314 F200.000
G1 X8.292 Y-18.472 Z-24.323 F200.000
G1 X7.124 Y-18.953 Z-24.331 F200.000
G1 X5.928 Y-19.361 Z-24.338 F200.000
G1 X4.710 Y-19.693 Z-24.345 F200.000
G1 X3.472 Y-19.948 Z-24.352 F200.000
G1 X2.222 Y-20.126 Z-24.358 F200.000
G1 X0.954 Y-20.226 Z-24.358 F200.000
G1 X-0.318 Y-20.245 Z-24.359 F200.000
G1 X-1.589 Y-20.185 Z-24.362 F200.000
G1 X-2.853 Y-20.046 Z-24.365 F200.000
G1 X-4.106 Y-19.827 Z-24.370 F200.000
G1 X-5.343 Y-19.530 Z-24.375 F200.000
G1 X-6.559 Y-19.156 Z-24.381 F200.000
G1 X-7.749 Y-18.706 Z-24.388 F200.000
G1 X-8.908 Y-18.183 Z-24.396 F200.000
G1 X-10.032 Y-17.588 Z-24.405 F200.000
G1 X-11.117 Y-16.923 Z-24.415 F200.000
G1 X-12.158 Y-16.191 Z-24.425 F200.000
G1 X-13.150 Y-15.396 Z-24.436 F200.000
G1 X-14.091 Y-14.540 Z-24.448 F200.000
G1 X-14.976 Y-13.627 Z-24.461 F200.000
G1 X-15.802 Y-12.659 Z-24.474 F200.000
G1 X-16.566 Y-11.642 Z-24.487 F200.000
G1 X-17.265 Y-10.579 Z-24.501 F200.000
G1 X-17.895 Y-9.474 Z-24.515 F200.000
G1 X-18.454 Y-8.332 Z-24.530 F200.000
G1 X-18.941 Y-7.157 Z-24.545 F200.000
G1 X-19.353 Y-5.953 Z-24.561 F200.000
G1 X-19.689 Y-4.727 Z-24.576 F200.000
G1 X-19.947 Y-3.481 Z-24.592 F200.000
G1 X-20.126 Y-2.222 Z-24.608 F200.000
G1 X-20.226 Y-0.954 Z-24.623 F200.000
G1 X-20.246 Y0.318 Z-24.639 F200.000
G1 X-20.186 Y1.589 Z-24.654 F200.000
G1 X-20.046 Y2.853 Z-24.670 F200.000
G1 X-19.827 Y4.106 Z-24.685 F200.000
G1 X-19.530 Y5.343 Z-24.700 F200.000
G1 X-19.156 Y6.559 Z-24.714 F200.000
G1 X-18.707 Y7.748 Z-24.728 F200.000
G1 X-18.183 Y8.908 Z-24.741 F200.000
G1 X-17.588 Y10.032 Z-24.754 F200.000
G1 X-16.923 Y11.116 Z-24.767 F200.000
G1 X-16.192 Y12.157 Z-24.779 F200.000
G1 X-15.397 Y13.150 Z-24.790 F200.000
G1 X-14.541 Y14.091 Z-24.800 F200.000
G1 X-13.627 Y14.976 Z-24.810 F200.000
G1 X-12.660 Y15.802 Z-24.819 F200.000
G1 X-11.643 Y16.566 Z-24.827 F200.000
G1 X-10.580 Y17.264 Z-24.834 F200.000
G1 X-9.475 Y17.894 Z-24.840 F200.000
G1 X-8.332 Y18.454 Z-24.845 F200.000
G1 X-7.157 Y18.941 Z-24.850 F200.000
G1 X-5.954 Y19.353 Z-24.853 F200.000
G1 X-4.727 Y19.689 Z-24.856 F200.000
G1 X-3.481 Y19.947 Z-24.857 F200.000
G1 X-2.222 Y20.126 Z-24.858 F200.000
G1 X-1.017 Y20.223 Z-24.866 F200.000
G1 X0.191 Y20.247 Z-24.876 F200.000
G1 X1.398 Y20.200 Z-24.885 F200.000
G1 X2.601 Y20.080 Z-24.895 F200.000
G1 X3.794 Y19.889 Z-24.904 F200.000
G1 X4.974 Y19.628 Z-24.914 F200.000
G1 X6.136 Y19.296 Z-24.924 F200.000
G1 X7.276 Y18.896 Z-24.934 F200.000
G1 X8.390 Y18.428 Z-24.943 F200.000
G1 X9.475 Y17.895 Z-24.953 F200.000
G1 X10.525 Y17.297 Z-24.963 F200.000
G1 X11.538 Y16.639 Z-24.972 F200.000
G1 X12.511 Y15.921 Z-24.982 F200.000
G1 X13.438 Y15.146 Z-24.991 F200.000
G1 X14.318 Y14.318 Z-25.000 F200.000
G1 X15.183 Y13.397 Z-25.006 F200.000
G1 X15.988 Y12.424 Z-25.012 F200.000
G1 X16.732 Y11.403 Z-25.019 F200.000
G1 X17.410 Y10.337 Z-25.027 F200.000
G1 X18.021 Y9.232 Z-25.035 F200.000
G1 X18.562 Y8.090 Z-25.044 F200.000
G1 X19.030 Y6.917 Z-25.053 F200.000
G1 X19.424 Y5.717 Z-25.063 F200.000
G1 X19.743 Y4.494 Z-25.073 F200.000
G1 X19.985 Y3.255 Z-25.084 F200.000
G1 X20.149 Y2.002 Z-25.095 F200.000
G1 X20.235 Y0.742 Z-25.106 F200.000
G1 X20.241 Y-0.521 Z-25.118 F200.000
G1 X20.170 Y-1.782 Z-25.130 F200.000
G1 X20.019 Y-3.037 Z-25.142 F200.000
G1 X19.791 Y-4.279 Z-25.154 F200.000
G1 X19.485 Y-5.505 Z-25.166 F200.000
G1 X19.104 Y-6.709 Z-25.179 F200.000
G1 X18.649 Y-7.887 Z-25.191 F200.000
G1 X18.121 Y-9.035 Z-25.203 F200.000
G1 X17.522 Y-10.147 Z-25.216 F200.000
G1 X16.855 Y-11.220 Z-25.228 F200.000
G1 X16.123 Y-12.249 Z-25.240 F200.000
G1 X15.328 Y-13.231 Z-25.251 F200.000
G1 X14.473 Y-14.161 Z-25.263 F200.000
G1 X13.562 Y-15.035 Z-25.274 F200.000
G1 X12.598 Y-15.852 Z-25.284 F200.000
G1 X11.585 Y-16.606 Z-25.295 F200.000
G1 X10.527 Y-17.297 Z-25.304 F200.000
G1 X9.428 Y-17.919 Z-25.314 F200.000
G1 X8.292 Y-18.472 Z-25.323 F200.000
G1 X7.124 Y-18.953 Z-25.331 F200.000
G1 X5.928 Y-19.361 Z-25.338 F200.000
G1 X4.710 Y-19.693 Z-25.345 F200.000
G1 X3.472 Y-19.948 Z-25.352 F200.000
G1 X2.222 Y-20.126 Z-25.358 F200.000
G1 X0.954 Y-20.226 Z-25.358 F200.000
G1 X-0.318 Y-20.245 Z-25.359 F200.000
G1 X-1.589 Y-20.185 Z-25.362 F200.000
G1 X-2.853 Y-20.046 Z-25.365 F200.000
G1 X-4.106 Y-19.827 Z-25.370 F200.000
G1 X-5.343 Y-19.530 Z-25.375 F200.000
G1 X-6.559 Y-19.156 Z-25.381 F200.000
G1 X-7.749 Y-18.706 Z-25.388 F200.000
G1 X-8.908 Y-18.183 Z-25.396 F200.000
G1 X-10.032 Y-17.588 Z-25.405 F200.000
G1 X-11.117 Y-16.923 Z-25.415 F200.000
G1 X-12.158 Y-16.191 Z-25.425 F200.000
G1 X-13.150 Y-15.396 Z-25.436 F200.000
G1 X-14.091 Y-14.540 Z-25.448 F200.000
G1 X-14.976 Y-13.627 Z-25.461 F200.000
G1 X-15.802 Y-12.659 Z-25.474 F200.000
G1 X-16.566 Y-11.642 Z-25.487 F200.000
G1 X-17.265 Y-10.579 Z-25.501 F200.000
G1 X-17.895 Y-9.474 Z-25.515 F200.000
G1 X-18.454 Y-8.332 Z-25.530 F200.000
G1 X-18.941 Y-7.157 Z-25.545 F200.000
G1 X-19.353 Y-5.953 Z-25.561 F200.000
G1 X-19.689 Y-4.727 Z-25.576 F200.000
G1 X-19.947 Y-3.481 Z-25.592 F200.000
G1 X-20.126 Y-2.222 Z-25.608 F200.000
G1 X-20.226 Y-0.954 Z-25.623 F200.000
G1 X-20.246 Y0.318 Z-25.639 F200.000
G1 X-20.186 Y1.589 Z-25.654 F200.000
G1 X-20.046 Y2.853 Z-25.670 F200.000
G1 X-19.827 Y4.106 Z-25.685 F200.000
G1 X-19.530 Y5.343 Z-25.700 F200.000
G1 X-19.156 Y6.559 Z-25.714 F200.000
G1 X-18.707 Y7.748 Z-25.728 F200.000
G1 X-18.183 Y8.908 Z-25.741 F200.000
G1 X-17.588 Y10.032 Z-25.754 F200.000
G1 X-16.923 Y11.116 Z-25.767 F200.000
G1 X-16.192 Y12.157 Z-25.779 F200.000
G1 X-15.397 Y13.150 Z-25.790 F200.000
G1 X-14.541 Y14.091 Z-25.800 F200.000
G1 X-13.627 Y14.976 Z-25.810 F200.000
G1 X-12.660 Y15.802 Z-25.819 F200.000
G1 X-11.643 Y16.566 Z-25.827 F200.000
G1 X-10.580 Y17.264 Z-25.834 F200.000
G1 X-9.475 Y17.894 Z-25.840 F200.000
G1 X-8.332 Y18.454 Z-25.845 F200.000
G1 X-7.157 Y18.941 Z-25.850 F200.000
G1 X-5.954 Y19.353 Z-25.853 F200.000
G1 X-4.727 Y19.689 Z-25.856 F200.000
G1 X-3.481 Y19.947 Z-25.857 F200.000
G1 X-2.222 Y20.126 Z-25.858 F200.000
G1 X-1.017 Y20.223 Z-25.866 F200.000
G1 X0.191 Y20.247 Z-25.876 F200.000
G1 X1.398 Y20.200 Z-25.885 F200.000
G1 X2.601 Y20.080 Z-25.895 F200.000
G1 X3.794 Y19.889 Z-25.904 F200.000
G1 X4.974 Y19.628 Z-25.914 F200.000
G1 X6.136 Y19.296 Z-25.924 F200.000
G1 X7.276 Y18.896 Z-25.934 F200.000
G1 X8.390 Y18.428 Z-25.943 F200.000
G1 X9.475 Y17.895 Z-25.953 F200.000
G1 X10.525 Y17.297 Z-25.963 F200.000
G1 X11.538 Y16.639 Z-25.972 F200.000
G1 X12.511 Y15.921 Z-25.982 F200.000
G1 X13.438 Y15.146 Z-25.991 F200.000
G1 X14.318 Y14.318 Z-26.000 F200.000
G1 X15.183 Y13.397 Z-26.006 F200.000
G1 X15.988 Y12.424 Z-26.012 F200.000
G1 X16.732 Y11.403 Z-26.019 F200.000
G1 X17.410 Y10.337 Z-26.027 F200.000
G1 X18.021 Y9.232 Z-26.035 F200.000
G1 X18.562 Y8.090 Z-26.044 F200.000
G1 X19.030 Y6.917 Z-26.053 F200.000
G1 X19.424 Y5.717 Z-26.063 F200.000
G1 X19.743 Y4.494 Z-26.073 F200.000
G1 X19.985 Y3.255 Z-26.084 F200.000
G1 X20.149 Y2.002 Z-26.095 F200.000
G1 X20.235 Y0.742 Z-26.106 F200.000
G1 X20.241 Y-0.521 Z-26.118 F200.000
G1 X20.170 Y-1.782 Z-26.130 F200.000
G1 X20.019 Y-3.037 Z-26.142 F200.000
G1 X19.791 Y-4.279 Z-26.154 F200.000
G1 X19.485 Y-5.505 Z-26.166 F200.000
G1 X19.104 Y-6.709 Z-26.179 F200.000
G1 X18.649 Y-7.887 Z-26.191 F200.000
G1 X18.121 Y-9.035 Z-26.203 F200.000
G1 X17.522 Y-10.147 Z-26.216 F200.000
G1 X16.855 Y-11.220 Z-26.228 F200.000
G1 X16.123 Y-12.249 Z-26.240 F200.000
G1 X15.328 Y-13.231 Z-26.251 F200.000
G1 X14.473 Y-14.161 Z-26.263 F200.000
G1 X13.562 Y-15.035 Z-26.274 F200.000
G1 X12.598 Y-15.852 Z-26.284 F200.000
G1 X11.585 Y-16.606 Z-26.295 F200.000
G1 X10.527 Y-17.297 Z-26.304 F200.000
G1 X9.428 Y-17.919 Z-26.314 F200.000
G1 X8.292 Y-18.472 Z-26.323 F200.000
G1 X7.124 Y-18.953 Z-26.331 F200.000
G1 X5.928 Y-19.361 Z-26.338 F200.000
G1 X4.710 Y-19.693 Z-26.345 F200.000
G1 X3.472 Y-19.948 Z-26.352 F200.000
G1 X2.222 Y-20.126 Z-26.358 F200.000
G1 X0.954 Y-20.226 Z-26.358 F200.000
G1 X-0.318 Y-20.245 Z-26.359 F200.000
G1 X-1.589 Y-20.185 Z-26.362 F200.000
G1 X-2.853 Y-20.046 Z-26.365 F200.000
G1 X-4.106 Y-19.827 Z-26.370 F200.000
G1 X-5.343 Y-19.530 Z-26.375 F200.000
G1 X-6.559 Y-19.156 Z-26.381 F200.000
G1 X-7.749 Y-18.706 Z-26.388 F200.000
G1 X-8.908 Y-18.183 Z-26.396 F200.000
G1 X-10.032 Y-17.588 Z-26.405 F200.000
G1 X-11.117 Y-16.923 Z-26.415 F200.000
G1 X-12.158 Y-16.191 Z-26.425 F200.000
G1 X-13.150 Y-15.396 Z-26.436 F200.000
G1 X-14.091 Y-14.540 Z-26.448 F200.000
G1 X-14.976 Y-13.627 Z-26.461 F200.000
G1 X-15.802 Y-12.659 Z-26.474 F200.000
G1 X-16.566 Y-11.642 Z-26.487 F200.000
G1 X-17.265 Y-10.579 Z-26.501 F200.000
G1 X-17.895 Y-9.474 Z-26.515 F200.000
G1 X-18.454 Y-8.332 Z-26.530 F200.000
G1 X-18.941 Y-7.157 Z-26.545 F200.000
G1 X-19.353 Y-5.953 Z-26.561 F200.000
G1 X-19.689 Y-4.727 Z-26.576 F200.000
G1 X-19.947 Y-3.481 Z-26.592 F200.000
G1 X-20.126 Y-2.222 Z-26.608 F200.000
G1 X-20.226 Y-0.954 Z-26.623 F200.000
