(Block-name: Header)
(Block-expand: 0)
(Block-enable: 1)
(Exported by FreeCAD)
(Post Processor: script_module)
(Output Time:2025-01-21 10:52:47.895880)
(Begin preamble)
G17 G90
G21
(Block-name: Fixture)
(Block-expand: 0)
(Block-enable: 1)
(Begin operation: Fixture)
(Path: Fixture)
G54
(Finish operation: Fixture)
(Block-name: 8mm Endmill001)
(Block-expand: 0)
(Block-enable: 1)
(Begin operation: 8mm Endmill001)
(Path: 8mm Endmill001)
(8mm Endmill001)
(Begin toolchange)
( M6 T3 )
M3 S10000
(Finish operation: 8mm Endmill001)
(Block-name: Adaptive)
(Block-expand: 0)
(Block-enable: 1)
(Begin operation: Adaptive)
(Path: Adaptive)
(Adaptive)
(Helix to depth: -16.000000)
G0 Z5.000
G0 X-17.703 Y16.313 Z5.000
G0 X-17.703 Y16.313 Z3.000
G1 X-17.703 Y16.313 Z0.000 F200.000
G1 X-17.703 Y16.313 Z0.000 F200.000
G1 X-17.564 Y16.178 Z-0.017 F200.000
G1 X-17.400 Y16.073 Z-0.034 F200.000
G1 X-17.220 Y16.002 Z-0.052 F200.000
G1 X-17.029 Y15.968 Z-0.069 F200.000
G1 X-16.834 Y15.972 Z-0.086 F200.000
G1 X-16.645 Y16.013 Z-0.103 F200.000
G1 X-16.467 Y16.091 Z-0.120 F200.000
G1 X-16.308 Y16.202 Z-0.137 F200.000
G1 X-16.173 Y16.341 Z-0.155 F200.000
G1 X-16.068 Y16.505 Z-0.172 F200.000
G1 X-15.997 Y16.685 Z-0.189 F200.000
G1 X-15.963 Y16.876 Z-0.206 F200.000
G1 X-15.967 Y17.071 Z-0.223 F200.000
G1 X-16.008 Y17.260 Z-0.240 F200.000
G1 X-16.086 Y17.438 Z-0.258 F200.000
G1 X-16.197 Y17.597 Z-0.275 F200.000
G1 X-16.336 Y17.732 Z-0.292 F200.000
G1 X-16.500 Y17.837 Z-0.309 F200.000
G1 X-16.680 Y17.908 Z-0.326 F200.000
G1 X-16.871 Y17.942 Z-0.344 F200.000
G1 X-17.066 Y17.938 Z-0.361 F200.000
G1 X-17.255 Y17.897 Z-0.378 F200.000
G1 X-17.433 Y17.819 Z-0.395 F200.000
G1 X-17.592 Y17.708 Z-0.412 F200.000
G1 X-17.727 Y17.569 Z-0.429 F200.000
G1 X-17.832 Y17.405 Z-0.447 F200.000
G1 X-17.903 Y17.225 Z-0.464 F200.000
G1 X-17.937 Y17.034 Z-0.481 F200.000
G1 X-17.933 Y16.839 Z-0.498 F200.000
G1 X-17.892 Y16.650 Z-0.515 F200.000
G1 X-17.814 Y16.472 Z-0.533 F200.000
G1 X-17.703 Y16.313 Z-0.550 F200.000
G1 X-17.564 Y16.178 Z-0.567 F200.000
G1 X-17.400 Y16.073 Z-0.584 F200.000
G1 X-17.220 Y16.002 Z-0.601 F200.000
G1 X-17.029 Y15.968 Z-0.618 F200.000
G1 X-16.834 Y15.972 Z-0.636 F200.000
G1 X-16.645 Y16.013 Z-0.653 F200.000
G1 X-16.467 Y16.091 Z-0.670 F200.000
G1 X-16.308 Y16.202 Z-0.687 F200.000
G1 X-16.173 Y16.341 Z-0.704 F200.000
G1 X-16.068 Y16.505 Z-0.721 F200.000
G1 X-15.997 Y16.685 Z-0.739 F200.000
G1 X-15.963 Y16.876 Z-0.756 F200.000
G1 X-15.967 Y17.071 Z-0.773 F200.000
G1 X-16.008 Y17.260 Z-0.790 F200.000
G1 X-16.086 Y17.438 Z-0.807 F200.000
G1 X-16.197 Y17.597 Z-0.825 F200.000
G1 X-16.336 Y17.732 Z-0.842 F200.000
G1 X-16.500 Y17.837 Z-0.859 F200.000
G1 X-16.680 Y17.908 Z-0.876 F200.000
G1 X-16.871 Y17.942 Z-0.893 F200.000
G1 X-17.066 Y17.938 Z-0.910 F200.000
G1 X-17.255 Y17.897 Z-0.928 F200.000
G1 X-17.433 Y17.819 Z-0.945 F200.000
G1 X-17.592 Y17.708 Z-0.962 F200.000
G1 X-17.727 Y17.569 Z-0.979 F200.000
G1 X-17.832 Y17.405 Z-0.996 F200.000
G1 X-17.903 Y17.225 Z-1.014 F200.000
G1 X-17.937 Y17.034 Z-1.031 F200.000
G1 X-17.933 Y16.839 Z-1.048 F200.000
G1 X-17.892 Y16.650 Z-1.065 F200.000
G1 X-17.814 Y16.472 Z-1.082 F200.000
G1 X-17.703 Y16.313 Z-1.099 F200.000
G1 X-17.564 Y16.178 Z-1.117 F200.000
G1 X-17.400 Y16.073 Z-1.134 F200.000
G1 X-17.220 Y16.002 Z-1.151 F200.000
G1 X-17.029 Y15.968 Z-1.168 F200.000
G1 X-16.834 Y15.972 Z-1.185 F200.000
G1 X-16.645 Y16.013 Z-1.202 F200.000
G1 X-16.467 Y16.091 Z-1.220 F200.000
G1 X-16.308 Y16.202 Z-1.237 F200.000
G1 X-16.173 Y16.341 Z-1.254 F200.000
G1 X-16.068 Y16.505 Z-1.271 F200.000
G1 X-15.997 Y16.685 Z-1.288 F200.000
G1 X-15.963 Y16.876 Z-1.306 F200.000
G1 X-15.967 Y17.071 Z-1.323 F200.000
G1 X-16.008 Y17.260 Z-1.340 F200.000
G1 X-16.086 Y17.438 Z-1.357 F200.000
G1 X-16.197 Y17.597 Z-1.374 F200.000
G1 X-16.336 Y17.732 Z-1.391 F200.000
G1 X-16.500 Y17.837 Z-1.409 F200.000
G1 X-16.680 Y17.908 Z-1.426 F200.000
G1 X-16.871 Y17.942 Z-1.443 F200.000
G1 X-17.066 Y17.938 Z-1.460 F200.000
G1 X-17.255 Y17.897 Z-1.477 F200.000
G1 X-17.433 Y17.819 Z-1.495 F200.000
G1 X-17.592 Y17.708 Z-1.512 F200.000
G1 X-17.727 Y17.569 Z-1.529 F200.000
G1 X-17.832 Y17.405 Z-1.546 F200.000
G1 X-17.903 Y17.225 Z-1.563 F200.000
G1 X-17.937 Y17.034 Z-1.580 F200.000
G1 X-17.933 Y16.839 Z-1.598 F200.000
G1 X-17.892 Y16.650 Z-1.615 F200.000
G1 X-17.814 Y16.472 Z-1.632 F200.000
G1 X-17.703 Y16.313 Z-1.649 F200.000
G1 X-17.564 Y16.178 Z-1.666 F200.000
G1 X-17.400 Y16.073 Z-1.683 F200.000
G1 X-17.220 Y16.002 Z-1.701 F200.000
G1 X-17.029 Y15.968 Z-1.718 F200.000
G1 X-16.834 Y15.972 Z-1.735 F200.000
G1 X-16.645 Y16.013 Z-1.752 F200.000
G1 X-16.467 Y16.091 Z-1.769 F200.000
G1 X-16.308 Y16.202 Z-1.787 F200.000
G1 X-16.173 Y16.341 Z-1.804 F200.000
G1 X-16.068 Y16.505 Z-1.821 F200.000
G1 X-15.997 Y16.685 Z-1.838 F200.000
G1 X-15.963 Y16.876 Z-1.855 F200.000
G1 X-15.967 Y17.071 Z-1.872 F200.000
G1 X-16.008 Y17.260 Z-1.890 F200.000
G1 X-16.086 Y17.438 Z-1.907 F200.000
G1 X-16.197 Y17.597 Z-1.924 F200.000
G1 X-16.336 Y17.732 Z-1.941 F200.000
G1 X-16.500 Y17.837 Z-1.958 F200.000
G1 X-16.680 Y17.908 Z-1.976 F200.000
G1 X-16.871 Y17.942 Z-1.993 F200.000
G1 X-17.066 Y17.938 Z-2.010 F200.000
G1 X-17.255 Y17.897 Z-2.027 F200.000
G1 X-17.433 Y17.819 Z-2.044 F200.000
G1 X-17.592 Y17.708 Z-2.061 F200.000
G1 X-17.727 Y17.569 Z-2.079 F200.000
G1 X-17.832 Y17.405 Z-2.096 F200.000
G1 X-17.903 Y17.225 Z-2.113 F200.000
G1 X-17.937 Y17.034 Z-2.130 F200.000
G1 X-17.933 Y16.839 Z-2.147 F200.000
G1 X-17.892 Y16.650 Z-2.164 F200.000
G1 X-17.814 Y16.472 Z-2.182 F200.000
G1 X-17.703 Y16.313 Z-2.199 F200.000
G1 X-17.564 Y16.178 Z-2.216 F200.000
G1 X-17.400 Y16.073 Z-2.233 F200.000
G1 X-17.220 Y16.002 Z-2.250 F200.000
G1 X-17.029 Y15.968 Z-2.268 F200.000
G1 X-16.834 Y15.972 Z-2.285 F200.000
G1 X-16.645 Y16.013 Z-2.302 F200.000
G1 X-16.467 Y16.091 Z-2.319 F200.000
G1 X-16.308 Y16.202 Z-2.336 F200.000
G1 X-16.173 Y16.341 Z-2.353 F200.000
G1 X-16.068 Y16.505 Z-2.371 F200.000
G1 X-15.997 Y16.685 Z-2.388 F200.000
G1 X-15.963 Y16.876 Z-2.405 F200.000
G1 X-15.967 Y17.071 Z-2.422 F200.000
G1 X-16.008 Y17.260 Z-2.439 F200.000
G1 X-16.086 Y17.438 Z-2.457 F200.000
G1 X-16.197 Y17.597 Z-2.474 F200.000
G1 X-16.336 Y17.732 Z-2.491 F200.000
G1 X-16.500 Y17.837 Z-2.508 F200.000
G1 X-16.680 Y17.908 Z-2.525 F200.000
G1 X-16.871 Y17.942 Z-2.542 F200.000
G1 X-17.066 Y17.938 Z-2.560 F200.000
G1 X-17.255 Y17.897 Z-2.577 F200.000
G1 X-17.433 Y17.819 Z-2.594 F200.000
G1 X-17.592 Y17.708 Z-2.611 F200.000
G1 X-17.727 Y17.569 Z-2.628 F200.000
G1 X-17.832 Y17.405 Z-2.645 F200.000
G1 X-17.903 Y17.225 Z-2.663 F200.000
G1 X-17.937 Y17.034 Z-2.680 F200.000
G1 X-17.933 Y16.839 Z-2.697 F200.000
G1 X-17.892 Y16.650 Z-2.714 F200.000
G1 X-17.814 Y16.472 Z-2.731 F200.000
G1 X-17.703 Y16.313 Z-2.749 F200.000
G1 X-17.564 Y16.178 Z-2.766 F200.000
G1 X-17.400 Y16.073 Z-2.783 F200.000
G1 X-17.220 Y16.002 Z-2.800 F200.000
G1 X-17.029 Y15.968 Z-2.817 F200.000
G1 X-16.834 Y15.972 Z-2.834 F200.000
G1 X-16.645 Y16.013 Z-2.852 F200.000
G1 X-16.467 Y16.091 Z-2.869 F200.000
G1 X-16.308 Y16.202 Z-2.886 F200.000
G1 X-16.173 Y16.341 Z-2.903 F200.000
G1 X-16.068 Y16.505 Z-2.920 F200.000
G1 X-15.997 Y16.685 Z-2.937 F200.000
G1 X-15.963 Y16.876 Z-2.955 F200.000
G1 X-15.967 Y17.071 Z-2.972 F200.000
G1 X-16.008 Y17.260 Z-2.989 F200.000
G1 X-16.086 Y17.438 Z-3.006 F200.000
G1 X-16.197 Y17.597 Z-3.023 F200.000
G1 X-16.336 Y17.732 Z-3.041 F200.000
G1 X-16.500 Y17.837 Z-3.058 F200.000
G1 X-16.680 Y17.908 Z-3.075 F200.000
G1 X-16.871 Y17.942 Z-3.092 F200.000
G1 X-17.066 Y17.938 Z-3.109 F200.000
G1 X-17.255 Y17.897 Z-3.126 F200.000
G1 X-17.433 Y17.819 Z-3.144 F200.000
G1 X-17.592 Y17.708 Z-3.161 F200.000
G1 X-17.727 Y17.569 Z-3.178 F200.000
G1 X-17.832 Y17.405 Z-3.195 F200.000
G1 X-17.903 Y17.225 Z-3.212 F200.000
G1 X-17.937 Y17.034 Z-3.230 F200.000
G1 X-17.933 Y16.839 Z-3.247 F200.000
G1 X-17.892 Y16.650 Z-3.264 F200.000
G1 X-17.814 Y16.472 Z-3.281 F200.000
G1 X-17.703 Y16.313 Z-3.298 F200.000
G1 X-17.564 Y16.178 Z-3.315 F200.000
G1 X-17.400 Y16.073 Z-3.333 F200.000
G1 X-17.220 Y16.002 Z-3.350 F200.000
G1 X-17.029 Y15.968 Z-3.367 F200.000
G1 X-16.834 Y15.972 Z-3.384 F200.000
G1 X-16.645 Y16.013 Z-3.401 F200.000
G1 X-16.467 Y16.091 Z-3.418 F200.000
G1 X-16.308 Y16.202 Z-3.436 F200.000
G1 X-16.173 Y16.341 Z-3.453 F200.000
G1 X-16.068 Y16.505 Z-3.470 F200.000
G1 X-15.997 Y16.685 Z-3.487 F200.000
G1 X-15.963 Y16.876 Z-3.504 F200.000
G1 X-15.967 Y17.071 Z-3.522 F200.000
G1 X-16.008 Y17.260 Z-3.539 F200.000
G1 X-16.086 Y17.438 Z-3.556 F200.000
G1 X-16.197 Y17.597 Z-3.573 F200.000
G1 X-16.336 Y17.732 Z-3.590 F200.000
G1 X-16.500 Y17.837 Z-3.607 F200.000
G1 X-16.680 Y17.908 Z-3.625 F200.000
G1 X-16.871 Y17.942 Z-3.642 F200.000
G1 X-17.066 Y17.938 Z-3.659 F200.000
G1 X-17.255 Y17.897 Z-3.676 F200.000
G1 X-17.433 Y17.819 Z-3.693 F200.000
G1 X-17.592 Y17.708 Z-3.711 F200.000
G1 X-17.727 Y17.569 Z-3.728 F200.000
G1 X-17.832 Y17.405 Z-3.745 F200.000
G1 X-17.903 Y17.225 Z-3.762 F200.000
G1 X-17.937 Y17.034 Z-3.779 F200.000
G1 X-17.933 Y16.839 Z-3.796 F200.000
G1 X-17.892 Y16.650 Z-3.814 F200.000
G1 X-17.814 Y16.472 Z-3.831 F200.000
G1 X-17.703 Y16.313 Z-3.848 F200.000
G1 X-17.564 Y16.178 Z-3.865 F200.000
G1 X-17.400 Y16.073 Z-3.882 F200.000
G1 X-17.220 Y16.002 Z-3.899 F200.000
G1 X-17.029 Y15.968 Z-3.917 F200.000
G1 X-16.834 Y15.972 Z-3.934 F200.000
G1 X-16.645 Y16.013 Z-3.951 F200.000
G1 X-16.467 Y16.091 Z-3.968 F200.000
G1 X-16.308 Y16.202 Z-3.985 F200.000
G1 X-16.173 Y16.341 Z-4.003 F200.000
G1 X-16.068 Y16.505 Z-4.020 F200.000
G1 X-15.997 Y16.685 Z-4.037 F200.000
G1 X-15.963 Y16.876 Z-4.054 F200.000
G1 X-15.967 Y17.071 Z-4.071 F200.000
G1 X-16.008 Y17.260 Z-4.088 F200.000
G1 X-16.086 Y17.438 Z-4.106 F200.000
G1 X-16.197 Y17.597 Z-4.123 F200.000
G1 X-16.336 Y17.732 Z-4.140 F200.000
G1 X-16.500 Y17.837 Z-4.157 F200.000
G1 X-16.680 Y17.908 Z-4.174 F200.000
G1 X-16.871 Y17.942 Z-4.192 F200.000
G1 X-17.066 Y17.938 Z-4.209 F200.000
G1 X-17.255 Y17.897 Z-4.226 F200.000
G1 X-17.433 Y17.819 Z-4.243 F200.000
G1 X-17.592 Y17.708 Z-4.260 F200.000
G1 X-17.727 Y17.569 Z-4.277 F200.000
G1 X-17.832 Y17.405 Z-4.295 F200.000
G1 X-17.903 Y17.225 Z-4.312 F200.000
G1 X-17.937 Y17.034 Z-4.329 F200.000
G1 X-17.933 Y16.839 Z-4.346 F200.000
G1 X-17.892 Y16.650 Z-4.363 F200.000
G1 X-17.814 Y16.472 Z-4.380 F200.000
G1 X-17.703 Y16.313 Z-4.398 F200.000
G1 X-17.564 Y16.178 Z-4.415 F200.000
G1 X-17.400 Y16.073 Z-4.432 F200.000
G1 X-17.220 Y16.002 Z-4.449 F200.000
G1 X-17.029 Y15.968 Z-4.466 F200.000
G1 X-16.834 Y15.972 Z-4.484 F200.000
G1 X-16.645 Y16.013 Z-4.501 F200.000
G1 X-16.467 Y16.091 Z-4.518 F200.000
G1 X-16.308 Y16.202 Z-4.535 F200.000
G1 X-16.173 Y16.341 Z-4.552 F200.000
G1 X-16.068 Y16.505 Z-4.569 F200.000
G1 X-15.997 Y16.685 Z-4.587 F200.000
G1 X-15.963 Y16.876 Z-4.604 F200.000
G1 X-15.967 Y17.071 Z-4.621 F200.000
G1 X-16.008 Y17.260 Z-4.638 F200.000
G1 X-16.086 Y17.438 Z-4.655 F200.000
G1 X-16.197 Y17.597 Z-4.673 F200.000
G1 X-16.336 Y17.732 Z-4.690 F200.000
G1 X-16.500 Y17.837 Z-4.707 F200.000
G1 X-16.680 Y17.908 Z-4.724 F200.000
G1 X-16.871 Y17.942 Z-4.741 F200.000
G1 X-17.066 Y17.938 Z-4.758 F200.000
G1 X-17.255 Y17.897 Z-4.776 F200.000
G1 X-17.433 Y17.819 Z-4.793 F200.000
G1 X-17.592 Y17.708 Z-4.810 F200.000
G1 X-17.727 Y17.569 Z-4.827 F200.000
G1 X-17.832 Y17.405 Z-4.844 F200.000
G1 X-17.903 Y17.225 Z-4.861 F200.000
G1 X-17.937 Y17.034 Z-4.879 F200.000
G1 X-17.933 Y16.839 Z-4.896 F200.000
G1 X-17.892 Y16.650 Z-4.913 F200.000
G1 X-17.814 Y16.472 Z-4.930 F200.000
G1 X-17.703 Y16.313 Z-4.947 F200.000
G1 X-17.564 Y16.178 Z-4.965 F200.000
G1 X-17.400 Y16.073 Z-4.982 F200.000
G1 X-17.220 Y16.002 Z-4.999 F200.000
G1 X-17.029 Y15.968 Z-5.016 F200.000
G1 X-16.834 Y15.972 Z-5.033 F200.000
G1 X-16.645 Y16.013 Z-5.050 F200.000
G1 X-16.467 Y16.091 Z-5.068 F200.000
G1 X-16.308 Y16.202 Z-5.085 F200.000
G1 X-16.173 Y16.341 Z-5.102 F200.000
G1 X-16.068 Y16.505 Z-5.119 F200.000
G1 X-15.997 Y16.685 Z-5.136 F200.000
G1 X-15.963 Y16.876 Z-5.154 F200.000
G1 X-15.967 Y17.071 Z-5.171 F200.000
G1 X-16.008 Y17.260 Z-5.188 F200.000
G1 X-16.086 Y17.438 Z-5.205 F200.000
G1 X-16.197 Y17.597 Z-5.222 F200.000
G1 X-16.336 Y17.732 Z-5.239 F200.000
G1 X-16.500 Y17.837 Z-5.257 F200.000
G1 X-16.680 Y17.908 Z-5.274 F200.000
G1 X-16.871 Y17.942 Z-5.291 F200.000
G1 X-17.066 Y17.938 Z-5.308 F200.000
G1 X-17.255 Y17.897 Z-5.325 F200.000
G1 X-17.433 Y17.819 Z-5.342 F200.000
G1 X-17.592 Y17.708 Z-5.360 F200.000
G1 X-17.727 Y17.569 Z-5.377 F200.000
G1 X-17.832 Y17.405 Z-5.394 F200.000
G1 X-17.903 Y17.225 Z-5.411 F200.000
G1 X-17.937 Y17.034 Z-5.428 F200.000
G1 X-17.933 Y16.839 Z-5.446 F200.000
G1 X-17.892 Y16.650 Z-5.463 F200.000
G1 X-17.814 Y16.472 Z-5.480 F200.000
G1 X-17.703 Y16.313 Z-5.497 F200.000
G1 X-17.564 Y16.178 Z-5.514 F200.000
G1 X-17.400 Y16.073 Z-5.531 F200.000
G1 X-17.220 Y16.002 Z-5.549 F200.000
G1 X-17.029 Y15.968 Z-5.566 F200.000
G1 X-16.834 Y15.972 Z-5.583 F200.000
G1 X-16.645 Y16.013 Z-5.600 F200.000
G1 X-16.467 Y16.091 Z-5.617 F200.000
G1 X-16.308 Y16.202 Z-5.635 F200.000
G1 X-16.173 Y16.341 Z-5.652 F200.000
G1 X-16.068 Y16.505 Z-5.669 F200.000
G1 X-15.997 Y16.685 Z-5.686 F200.000
G1 X-15.963 Y16.876 Z-5.703 F200.000
G1 X-15.967 Y17.071 Z-5.720 F200.000
G1 X-16.008 Y17.260 Z-5.738 F200.000
G1 X-16.086 Y17.438 Z-5.755 F200.000
G1 X-16.197 Y17.597 Z-5.772 F200.000
G1 X-16.336 Y17.732 Z-5.789 F200.000
G1 X-16.500 Y17.837 Z-5.806 F200.000
G1 X-16.680 Y17.908 Z-5.823 F200.000
G1 X-16.871 Y17.942 Z-5.841 F200.000
G1 X-17.066 Y17.938 Z-5.858 F200.000
G1 X-17.255 Y17.897 Z-5.875 F200.000
G1 X-17.433 Y17.819 Z-5.892 F200.000
G1 X-17.592 Y17.708 Z-5.909 F200.000
G1 X-17.727 Y17.569 Z-5.927 F200.000
G1 X-17.832 Y17.405 Z-5.944 F200.000
G1 X-17.903 Y17.225 Z-5.961 F200.000
G1 X-17.937 Y17.034 Z-5.978 F200.000
G1 X-17.933 Y16.839 Z-5.995 F200.000
G1 X-17.892 Y16.650 Z-6.012 F200.000
G1 X-17.814 Y16.472 Z-6.030 F200.000
G1 X-17.703 Y16.313 Z-6.047 F200.000
G1 X-17.564 Y16.178 Z-6.064 F200.000
G1 X-17.400 Y16.073 Z-6.081 F200.000
G1 X-17.220 Y16.002 Z-6.098 F200.000
G1 X-17.029 Y15.968 Z-6.115 F200.000
G1 X-16.834 Y15.972 Z-6.133 F200.000
G1 X-16.645 Y16.013 Z-6.150 F200.000
G1 X-16.467 Y16.091 Z-6.167 F200.000
G1 X-16.308 Y16.202 Z-6.184 F200.000
G1 X-16.173 Y16.341 Z-6.201 F200.000
G1 X-16.068 Y16.505 Z-6.219 F200.000
G1 X-15.997 Y16.685 Z-6.236 F200.000
G1 X-15.963 Y16.876 Z-6.253 F200.000
G1 X-15.967 Y17.071 Z-6.270 F200.000
G1 X-16.008 Y17.260 Z-6.287 F200.000
G1 X-16.086 Y17.438 Z-6.304 F200.000
G1 X-16.197 Y17.597 Z-6.322 F200.000
G1 X-16.336 Y17.732 Z-6.339 F200.000
G1 X-16.500 Y17.837 Z-6.356 F200.000
G1 X-16.680 Y17.908 Z-6.373 F200.000
G1 X-16.871 Y17.942 Z-6.390 F200.000
G1 X-17.066 Y17.938 Z-6.408 F200.000
G1 X-17.255 Y17.897 Z-6.425 F200.000
G1 X-17.433 Y17.819 Z-6.442 F200.000
G1 X-17.592 Y17.708 Z-6.459 F200.000
G1 X-17.727 Y17.569 Z-6.476 F200.000
G1 X-17.832 Y17.405 Z-6.493 F200.000
G1 X-17.903 Y17.225 Z-6.511 F200.000
G1 X-17.937 Y17.034 Z-6.528 F200.000
G1 X-17.933 Y16.839 Z-6.545 F200.000
G1 X-17.892 Y16.650 Z-6.562 F200.000
G1 X-17.814 Y16.472 Z-6.579 F200.000
G1 X-17.703 Y16.313 Z-6.596 F200.000
G1 X-17.564 Y16.178 Z-6.614 F200.000
G1 X-17.400 Y16.073 Z-6.631 F200.000
G1 X-17.220 Y16.002 Z-6.648 F200.000
G1 X-17.029 Y15.968 Z-6.665 F200.000
G1 X-16.834 Y15.972 Z-6.682 F200.000
G1 X-16.645 Y16.013 Z-6.700 F200.000
G1 X-16.467 Y16.091 Z-6.717 F200.000
G1 X-16.308 Y16.202 Z-6.734 F200.000
G1 X-16.173 Y16.341 Z-6.751 F200.000
G1 X-16.068 Y16.505 Z-6.768 F200.000
G1 X-15.997 Y16.685 Z-6.785 F200.000
G1 X-15.963 Y16.876 Z-6.803 F200.000
G1 X-15.967 Y17.071 Z-6.820 F200.000
G1 X-16.008 Y17.260 Z-6.837 F200.000
G1 X-16.086 Y17.438 Z-6.854 F200.000
G1 X-16.197 Y17.597 Z-6.871 F200.000
G1 X-16.336 Y17.732 Z-6.889 F200.000
G1 X-16.500 Y17.837 Z-6.906 F200.000
G1 X-16.680 Y17.908 Z-6.923 F200.000
G1 X-16.871 Y17.942 Z-6.940 F200.000
G1 X-17.066 Y17.938 Z-6.957 F200.000
G1 X-17.255 Y17.897 Z-6.974 F200.000
G1 X-17.433 Y17.819 Z-6.992 F200.000
G1 X-17.592 Y17.708 Z-7.009 F200.000
G1 X-17.727 Y17.569 Z-7.026 F200.000
G1 X-17.832 Y17.405 Z-7.043 F200.000
G1 X-17.903 Y17.225 Z-7.060 F200.000
G1 X-17.937 Y17.034 Z-7.077 F200.000
G1 X-17.933 Y16.839 Z-7.095 F200.000
G1 X-17.892 Y16.650 Z-7.112 F200.000
G1 X-17.814 Y16.472 Z-7.129 F200.000
G1 X-17.703 Y16.313 Z-7.146 F200.000
G1 X-17.564 Y16.178 Z-7.163 F200.000
G1 X-17.400 Y16.073 Z-7.181 F200.000
G1 X-17.220 Y16.002 Z-7.198 F200.000
G1 X-17.029 Y15.968 Z-7.215 F200.000
G1 X-16.834 Y15.972 Z-7.232 F200.000
G1 X-16.645 Y16.013 Z-7.249 F200.000
G1 X-16.467 Y16.091 Z-7.266 F200.000
G1 X-16.308 Y16.202 Z-7.284 F200.000
G1 X-16.173 Y16.341 Z-7.301 F200.000
G1 X-16.068 Y16.505 Z-7.318 F200.000
G1 X-15.997 Y16.685 Z-7.335 F200.000
G1 X-15.963 Y16.876 Z-7.352 F200.000
G1 X-15.967 Y17.071 Z-7.370 F200.000
G1 X-16.008 Y17.260 Z-7.387 F200.000
G1 X-16.086 Y17.438 Z-7.404 F200.000
G1 X-16.197 Y17.597 Z-7.421 F200.000
G1 X-16.336 Y17.732 Z-7.438 F200.000
G1 X-16.500 Y17.837 Z-7.455 F200.000
G1 X-16.680 Y17.908 Z-7.473 F200.000
G1 X-16.871 Y17.942 Z-7.490 F200.000
G1 X-17.066 Y17.938 Z-7.507 F200.000
G1 X-17.255 Y17.897 Z-7.524 F200.000
G1 X-17.433 Y17.819 Z-7.541 F200.000
G1 X-17.592 Y17.708 Z-7.558 F200.000
G1 X-17.727 Y17.569 Z-7.576 F200.000
G1 X-17.832 Y17.405 Z-7.593 F200.000
G1 X-17.903 Y17.225 Z-7.610 F200.000
G1 X-17.937 Y17.034 Z-7.627 F200.000
G1 X-17.933 Y16.839 Z-7.644 F200.000
G1 X-17.892 Y16.650 Z-7.662 F200.000
G1 X-17.814 Y16.472 Z-7.679 F200.000
G1 X-17.703 Y16.313 Z-7.696 F200.000
G1 X-17.564 Y16.178 Z-7.713 F200.000
G1 X-17.400 Y16.073 Z-7.730 F200.000
G1 X-17.220 Y16.002 Z-7.747 F200.000
G1 X-17.029 Y15.968 Z-7.765 F200.000
G1 X-16.834 Y15.972 Z-7.782 F200.000
G1 X-16.645 Y16.013 Z-7.799 F200.000
G1 X-16.467 Y16.091 Z-7.816 F200.000
G1 X-16.308 Y16.202 Z-7.833 F200.000
G1 X-16.173 Y16.341 Z-7.851 F200.000
G1 X-16.068 Y16.505 Z-7.868 F200.000
G1 X-15.997 Y16.685 Z-7.885 F200.000
G1 X-15.963 Y16.876 Z-7.902 F200.000
G1 X-15.967 Y17.071 Z-7.919 F200.000
G1 X-16.008 Y17.260 Z-7.936 F200.000
G1 X-16.086 Y17.438 Z-7.954 F200.000
G1 X-16.197 Y17.597 Z-7.971 F200.000
G1 X-16.336 Y17.732 Z-7.988 F200.000
G1 X-16.500 Y17.837 Z-8.005 F200.000
G1 X-16.680 Y17.908 Z-8.022 F200.000
G1 X-16.871 Y17.942 Z-8.039 F200.000
G1 X-17.066 Y17.938 Z-8.057 F200.000
G1 X-17.255 Y17.897 Z-8.074 F200.000
G1 X-17.433 Y17.819 Z-8.091 F200.000
G1 X-17.592 Y17.708 Z-8.108 F200.000
G1 X-17.727 Y17.569 Z-8.125 F200.000
G1 X-17.832 Y17.405 Z-8.143 F200.000
G1 X-17.903 Y17.225 Z-8.160 F200.000
G1 X-17.937 Y17.034 Z-8.177 F200.000
G1 X-17.933 Y16.839 Z-8.194 F200.000
G1 X-17.892 Y16.650 Z-8.211 F200.000
G1 X-17.814 Y16.472 Z-8.228 F200.000
G1 X-17.703 Y16.313 Z-8.246 F200.000
G1 X-17.564 Y16.178 Z-8.263 F200.000
G1 X-17.400 Y16.073 Z-8.280 F200.000
G1 X-17.220 Y16.002 Z-8.297 F200.000
G1 X-17.029 Y15.968 Z-8.314 F200.000
G1 X-16.834 Y15.972 Z-8.332 F200.000
G1 X-16.645 Y16.013 Z-8.349 F200.000
G1 X-16.467 Y16.091 Z-8.366 F200.000
G1 X-16.308 Y16.202 Z-8.383 F200.000
G1 X-16.173 Y16.341 Z-8.400 F200.000
G1 X-16.068 Y16.505 Z-8.417 F200.000
G1 X-15.997 Y16.685 Z-8.435 F200.000
G1 X-15.963 Y16.876 Z-8.452 F200.000
G1 X-15.967 Y17.071 Z-8.469 F200.000
G1 X-16.008 Y17.260 Z-8.486 F200.000
G1 X-16.086 Y17.438 Z-8.503 F200.000
G1 X-16.197 Y17.597 Z-8.520 F200.000
G1 X-16.336 Y17.732 Z-8.538 F200.000
G1 X-16.500 Y17.837 Z-8.555 F200.000
G1 X-16.680 Y17.908 Z-8.572 F200.000
G1 X-16.871 Y17.942 Z-8.589 F200.000
G1 X-17.066 Y17.938 Z-8.606 F200.000
G1 X-17.255 Y17.897 Z-8.624 F200.000
G1 X-17.433 Y17.819 Z-8.641 F200.000
G1 X-17.592 Y17.708 Z-8.658 F200.000
G1 X-17.727 Y17.569 Z-8.675 F200.000
G1 X-17.832 Y17.405 Z-8.692 F200.000
G1 X-17.903 Y17.225 Z-8.709 F200.000
G1 X-17.937 Y17.034 Z-8.727 F200.000
G1 X-17.933 Y16.839 Z-8.744 F200.000
G1 X-17.892 Y16.650 Z-8.761 F200.000
G1 X-17.814 Y16.472 Z-8.778 F200.000
G1 X-17.703 Y16.313 Z-8.795 F200.000
G1 X-17.564 Y16.178 Z-8.812 F200.000
G1 X-17.400 Y16.073 Z-8.830 F200.000
G1 X-17.220 Y16.002 Z-8.847 F200.000
G1 X-17.029 Y15.968 Z-8.864 F200.000
G1 X-16.834 Y15.972 Z-8.881 F200.000
G1 X-16.645 Y16.013 Z-8.898 F200.000
G1 X-16.467 Y16.091 Z-8.916 F200.000
G1 X-16.308 Y16.202 Z-8.933 F200.000
G1 X-16.173 Y16.341 Z-8.950 F200.000
G1 X-16.068 Y16.505 Z-8.967 F200.000
G1 X-15.997 Y16.685 Z-8.984 F200.000
G1 X-15.963 Y16.876 Z-9.001 F200.000
G1 X-15.967 Y17.071 Z-9.019 F200.000
G1 X-16.008 Y17.260 Z-9.036 F200.000
G1 X-16.086 Y17.438 Z-9.053 F200.000
G1 X-16.197 Y17.597 Z-9.070 F200.000
G1 X-16.336 Y17.732 Z-9.087 F200.000
G1 X-16.500 Y17.837 Z-9.105 F200.000
G1 X-16.680 Y17.908 Z-9.122 F200.000
G1 X-16.871 Y17.942 Z-9.139 F200.000
G1 X-17.066 Y17.938 Z-9.156 F200.000
G1 X-17.255 Y17.897 Z-9.173 F200.000
G1 X-17.433 Y17.819 Z-9.190 F200.000
G1 X-17.592 Y17.708 Z-9.208 F200.000
G1 X-17.727 Y17.569 Z-9.225 F200.000
G1 X-17.832 Y17.405 Z-9.242 F200.000
G1 X-17.903 Y17.225 Z-9.259 F200.000
G1 X-17.937 Y17.034 Z-9.276 F200.000
G1 X-17.933 Y16.839 Z-9.293 F200.000
G1 X-17.892 Y16.650 Z-9.311 F200.000
G1 X-17.814 Y16.472 Z-9.328 F200.000
G1 X-17.703 Y16.313 Z-9.345 F200.000
G1 X-17.564 Y16.178 Z-9.362 F200.000
G1 X-17.400 Y16.073 Z-9.379 F200.000
G1 X-17.220 Y16.002 Z-9.397 F200.000
G1 X-17.029 Y15.968 Z-9.414 F200.000
G1 X-16.834 Y15.972 Z-9.431 F200.000
G1 X-16.645 Y16.013 Z-9.448 F200.000
G1 X-16.467 Y16.091 Z-9.465 F200.000
G1 X-16.308 Y16.202 Z-9.482 F200.000
G1 X-16.173 Y16.341 Z-9.500 F200.000
G1 X-16.068 Y16.505 Z-9.517 F200.000
G1 X-15.997 Y16.685 Z-9.534 F200.000
G1 X-15.963 Y16.876 Z-9.551 F200.000
G1 X-15.967 Y17.071 Z-9.568 F200.000
G1 X-16.008 Y17.260 Z-9.586 F200.000
G1 X-16.086 Y17.438 Z-9.603 F200.000
G1 X-16.197 Y17.597 Z-9.620 F200.000
G1 X-16.336 Y17.732 Z-9.637 F200.000
G1 X-16.500 Y17.837 Z-9.654 F200.000
G1 X-16.680 Y17.908 Z-9.671 F200.000
G1 X-16.871 Y17.942 Z-9.689 F200.000
G1 X-17.066 Y17.938 Z-9.706 F200.000
G1 X-17.255 Y17.897 Z-9.723 F200.000
G1 X-17.433 Y17.819 Z-9.740 F200.000
G1 X-17.592 Y17.708 Z-9.757 F200.000
G1 X-17.727 Y17.569 Z-9.774 F200.000
G1 X-17.832 Y17.405 Z-9.792 F200.000
G1 X-17.903 Y17.225 Z-9.809 F200.000
G1 X-17.937 Y17.034 Z-9.826 F200.000
G1 X-17.933 Y16.839 Z-9.843 F200.000
G1 X-17.892 Y16.650 Z-9.860 F200.000
G1 X-17.814 Y16.472 Z-9.878 F200.000
G1 X-17.703 Y16.313 Z-9.895 F200.000
G1 X-17.564 Y16.178 Z-9.912 F200.000
G1 X-17.400 Y16.073 Z-9.929 F200.000
G1 X-17.220 Y16.002 Z-9.946 F200.000
G1 X-17.029 Y15.968 Z-9.963 F200.000
G1 X-16.834 Y15.972 Z-9.981 F200.000
G1 X-16.645 Y16.013 Z-9.998 F200.000
G1 X-16.467 Y16.091 Z-10.015 F200.000
G1 X-16.308 Y16.202 Z-10.032 F200.000
G1 X-16.173 Y16.341 Z-10.049 F200.000
G1 X-16.068 Y16.505 Z-10.067 F200.000
G1 X-15.997 Y16.685 Z-10.084 F200.000
G1 X-15.963 Y16.876 Z-10.101 F200.000
G1 X-15.967 Y17.071 Z-10.118 F200.000
G1 X-16.008 Y17.260 Z-10.135 F200.000
G1 X-16.086 Y17.438 Z-10.152 F200.000
G1 X-16.197 Y17.597 Z-10.170 F200.000
G1 X-16.336 Y17.732 Z-10.187 F200.000
G1 X-16.500 Y17.837 Z-10.204 F200.000
G1 X-16.680 Y17.908 Z-10.221 F200.000
G1 X-16.871 Y17.942 Z-10.238 F200.000
G1 X-17.066 Y17.938 Z-10.255 F200.000
G1 X-17.255 Y17.897 Z-10.273 F200.000
G1 X-17.433 Y17.819 Z-10.290 F200.000
G1 X-17.592 Y17.708 Z-10.307 F200.000
G1 X-17.727 Y17.569 Z-10.324 F200.000
G1 X-17.832 Y17.405 Z-10.341 F200.000
G1 X-17.903 Y17.225 Z-10.359 F200.000
G1 X-17.937 Y17.034 Z-10.376 F200.000
G1 X-17.933 Y16.839 Z-10.393 F200.000
G1 X-17.892 Y16.650 Z-10.410 F200.000
G1 X-17.814 Y16.472 Z-10.427 F200.000
G1 X-17.703 Y16.313 Z-10.444 F200.000
G1 X-17.564 Y16.178 Z-10.462 F200.000
G1 X-17.400 Y16.073 Z-10.479 F200.000
G1 X-17.220 Y16.002 Z-10.496 F200.000
G1 X-17.029 Y15.968 Z-10.513 F200.000
G1 X-16.834 Y15.972 Z-10.530 F200.000
G1 X-16.645 Y16.013 Z-10.548 F200.000
G1 X-16.467 Y16.091 Z-10.565 F200.000
G1 X-16.308 Y16.202 Z-10.582 F200.000
G1 X-16.173 Y16.341 Z-10.599 F200.000
G1 X-16.068 Y16.505 Z-10.616 F200.000
G1 X-15.997 Y16.685 Z-10.633 F200.000
G1 X-15.963 Y16.876 Z-10.651 F200.000
G1 X-15.967 Y17.071 Z-10.668 F200.000
G1 X-16.008 Y17.260 Z-10.685 F200.000
G1 X-16.086 Y17.438 Z-10.702 F200.000
G1 X-16.197 Y17.597 Z-10.719 F200.000
G1 X-16.336 Y17.732 Z-10.736 F200.000
G1 X-16.500 Y17.837 Z-10.754 F200.000
G1 X-16.680 Y17.908 Z-10.771 F200.000
G1 X-16.871 Y17.942 Z-10.788 F200.000
G1 X-17.066 Y17.938 Z-10.805 F200.000
G1 X-17.255 Y17.897 Z-10.822 F200.000
G1 X-17.433 Y17.819 Z-10.840 F200.000
G1 X-17.592 Y17.708 Z-10.857 F200.000
G1 X-17.727 Y17.569 Z-10.874 F200.000
G1 X-17.832 Y17.405 Z-10.891 F200.000
G1 X-17.903 Y17.225 Z-10.908 F200.000
G1 X-17.937 Y17.034 Z-10.925 F200.000
G1 X-17.933 Y16.839 Z-10.943 F200.000
G1 X-17.892 Y16.650 Z-10.960 F200.000
G1 X-17.814 Y16.472 Z-10.977 F200.000
G1 X-17.703 Y16.313 Z-10.994 F200.000
G1 X-17.564 Y16.178 Z-11.011 F200.000
G1 X-17.400 Y16.073 Z-11.029 F200.000
G1 X-17.220 Y16.002 Z-11.046 F200.000
G1 X-17.029 Y15.968 Z-11.063 F200.000
G1 X-16.834 Y15.972 Z-11.080 F200.000
G1 X-16.645 Y16.013 Z-11.097 F200.000
G1 X-16.467 Y16.091 Z-11.114 F200.000
G1 X-16.308 Y16.202 Z-11.132 F200.000
G1 X-16.173 Y16.341 Z-11.149 F200.000
G1 X-16.068 Y16.505 Z-11.166 F200.000
G1 X-15.997 Y16.685 Z-11.183 F200.000
G1 X-15.963 Y16.876 Z-11.200 F200.000
G1 X-15.967 Y17.071 Z-11.217 F200.000
G1 X-16.008 Y17.260 Z-11.235 F200.000
G1 X-16.086 Y17.438 Z-11.252 F200.000
G1 X-16.197 Y17.597 Z-11.269 F200.000
G1 X-16.336 Y17.732 Z-11.286 F200.000
G1 X-16.500 Y17.837 Z-11.303 F200.000
G1 X-16.680 Y17.908 Z-11.321 F200.000
G1 X-16.871 Y17.942 Z-11.338 F200.000
G1 X-17.066 Y17.938 Z-11.355 F200.000
G1 X-17.255 Y17.897 Z-11.372 F200.000
G1 X-17.433 Y17.819 Z-11.389 F200.000
G1 X-17.592 Y17.708 Z-11.406 F200.000
G1 X-17.727 Y17.569 Z-11.424 F200.000
G1 X-17.832 Y17.405 Z-11.441 F200.000
G1 X-17.903 Y17.225 Z-11.458 F200.000
G1 X-17.937 Y17.034 Z-11.475 F200.000
G1 X-17.933 Y16.839 Z-11.492 F200.000
G1 X-17.892 Y16.650 Z-11.510 F200.000
G1 X-17.814 Y16.472 Z-11.527 F200.000
G1 X-17.703 Y16.313 Z-11.544 F200.000
G1 X-17.564 Y16.178 Z-11.561 F200.000
G1 X-17.400 Y16.073 Z-11.578 F200.000
G1 X-17.220 Y16.002 Z-11.595 F200.000
G1 X-17.029 Y15.968 Z-11.613 F200.000
G1 X-16.834 Y15.972 Z-11.630 F200.000
G1 X-16.645 Y16.013 Z-11.647 F200.000
G1 X-16.467 Y16.091 Z-11.664 F200.000
G1 X-16.308 Y16.202 Z-11.681 F200.000
G1 X-16.173 Y16.341 Z-11.698 F200.000
G1 X-16.068 Y16.505 Z-11.716 F200.000
G1 X-15.997 Y16.685 Z-11.733 F200.000
G1 X-15.963 Y16.876 Z-11.750 F200.000
G1 X-15.967 Y17.071 Z-11.767 F200.000
G1 X-16.008 Y17.260 Z-11.784 F200.000
G1 X-16.086 Y17.438 Z-11.802 F200.000
G1 X-16.197 Y17.597 Z-11.819 F200.000
G1 X-16.336 Y17.732 Z-11.836 F200.000
G1 X-16.500 Y17.837 Z-11.853 F200.000
G1 X-16.680 Y17.908 Z-11.870 F200.000
G1 X-16.871 Y17.942 Z-11.887 F200.000
G1 X-17.066 Y17.938 Z-11.905 F200.000
G1 X-17.255 Y17.897 Z-11.922 F200.000
G1 X-17.433 Y17.819 Z-11.939 F200.000
G1 X-17.592 Y17.708 Z-11.956 F200.000
G1 X-17.727 Y17.569 Z-11.973 F200.000
G1 X-17.832 Y17.405 Z-11.990 F200.000
G1 X-17.903 Y17.225 Z-12.008 F200.000
G1 X-17.937 Y17.034 Z-12.025 F200.000
G1 X-17.933 Y16.839 Z-12.042 F200.000
G1 X-17.892 Y16.650 Z-12.059 F200.000
G1 X-17.814 Y16.472 Z-12.076 F200.000
G1 X-17.703 Y16.313 Z-12.094 F200.000
G1 X-17.564 Y16.178 Z-12.111 F200.000
G1 X-17.400 Y16.073 Z-12.128 F200.000
G1 X-17.220 Y16.002 Z-12.145 F200.000
G1 X-17.029 Y15.968 Z-12.162 F200.000
G1 X-16.834 Y15.972 Z-12.179 F200.000
G1 X-16.645 Y16.013 Z-12.197 F200.000
G1 X-16.467 Y16.091 Z-12.214 F200.000
G1 X-16.308 Y16.202 Z-12.231 F200.000
G1 X-16.173 Y16.341 Z-12.248 F200.000
G1 X-16.068 Y16.505 Z-12.265 F200.000
G1 X-15.997 Y16.685 Z-12.283 F200.000
G1 X-15.963 Y16.876 Z-12.300 F200.000
G1 X-15.967 Y17.071 Z-12.317 F200.000
G1 X-16.008 Y17.260 Z-12.334 F200.000
G1 X-16.086 Y17.438 Z-12.351 F200.000
G1 X-16.197 Y17.597 Z-12.368 F200.000
G1 X-16.336 Y17.732 Z-12.386 F200.000
G1 X-16.500 Y17.837 Z-12.403 F200.000
G1 X-16.680 Y17.908 Z-12.420 F200.000
G1 X-16.871 Y17.942 Z-12.437 F200.000
G1 X-17.066 Y17.938 Z-12.454 F200.000
G1 X-17.255 Y17.897 Z-12.471 F200.000
G1 X-17.433 Y17.819 Z-12.489 F200.000
G1 X-17.592 Y17.708 Z-12.506 F200.000
G1 X-17.727 Y17.569 Z-12.523 F200.000
G1 X-17.832 Y17.405 Z-12.540 F200.000
G1 X-17.903 Y17.225 Z-12.557 F200.000
G1 X-17.937 Y17.034 Z-12.575 F200.000
G1 X-17.933 Y16.839 Z-12.592 F200.000
G1 X-17.892 Y16.650 Z-12.609 F200.000
G1 X-17.814 Y16.472 Z-12.626 F200.000
G1 X-17.703 Y16.313 Z-12.643 F200.000
G1 X-17.564 Y16.178 Z-12.660 F200.000
G1 X-17.400 Y16.073 Z-12.678 F200.000
G1 X-17.220 Y16.002 Z-12.695 F200.000
G1 X-17.029 Y15.968 Z-12.712 F200.000
G1 X-16.834 Y15.972 Z-12.729 F200.000
G1 X-16.645 Y16.013 Z-12.746 F200.000
G1 X-16.467 Y16.091 Z-12.764 F200.000
G1 X-16.308 Y16.202 Z-12.781 F200.000
G1 X-16.173 Y16.341 Z-12.798 F200.000
G1 X-16.068 Y16.505 Z-12.815 F200.000
G1 X-15.997 Y16.685 Z-12.832 F200.000
G1 X-15.963 Y16.876 Z-12.849 F200.000
G1 X-15.967 Y17.071 Z-12.867 F200.000
G1 X-16.008 Y17.260 Z-12.884 F200.000
G1 X-16.086 Y17.438 Z-12.901 F200.000
G1 X-16.197 Y17.597 Z-12.918 F200.000
G1 X-16.336 Y17.732 Z-12.935 F200.000
G1 X-16.500 Y17.837 Z-12.952 F200.000
G1 X-16.680 Y17.908 Z-12.970 F200.000
G1 X-16.871 Y17.942 Z-12.987 F200.000
G1 X-17.066 Y17.938 Z-13.004 F200.000
G1 X-17.255 Y17.897 Z-13.021 F200.000
G1 X-17.433 Y17.819 Z-13.038 F200.000
G1 X-17.592 Y17.708 Z-13.056 F200.000
G1 X-17.727 Y17.569 Z-13.073 F200.000
G1 X-17.832 Y17.405 Z-13.090 F200.000
G1 X-17.903 Y17.225 Z-13.107 F200.000
G1 X-17.937 Y17.034 Z-13.124 F200.000
G1 X-17.933 Y16.839 Z-13.141 F200.000
G1 X-17.892 Y16.650 Z-13.159 F200.000
G1 X-17.814 Y16.472 Z-13.176 F200.000
G1 X-17.703 Y16.313 Z-13.193 F200.000
G1 X-17.564 Y16.178 Z-13.210 F200.000
G1 X-17.400 Y16.073 Z-13.227 F200.000
G1 X-17.220 Y16.002 Z-13.245 F200.000
G1 X-17.029 Y15.968 Z-13.262 F200.000
G1 X-16.834 Y15.972 Z-13.279 F200.000
G1 X-16.645 Y16.013 Z-13.296 F200.000
G1 X-16.467 Y16.091 Z-13.313 F200.000
G1 X-16.308 Y16.202 Z-13.330 F200.000
G1 X-16.173 Y16.341 Z-13.348 F200.000
G1 X-16.068 Y16.505 Z-13.365 F200.000
G1 X-15.997 Y16.685 Z-13.382 F200.000
G1 X-15.963 Y16.876 Z-13.399 F200.000
G1 X-15.967 Y17.071 Z-13.416 F200.000
G1 X-16.008 Y17.260 Z-13.433 F200.000
G1 X-16.086 Y17.438 Z-13.451 F200.000
G1 X-16.197 Y17.597 Z-13.468 F200.000
G1 X-16.336 Y17.732 Z-13.485 F200.000
G1 X-16.500 Y17.837 Z-13.502 F200.000
G1 X-16.680 Y17.908 Z-13.519 F200.000
G1 X-16.871 Y17.942 Z-13.537 F200.000
G1 X-17.066 Y17.938 Z-13.554 F200.000
G1 X-17.255 Y17.897 Z-13.571 F200.000
G1 X-17.433 Y17.819 Z-13.588 F200.000
G1 X-17.592 Y17.708 Z-13.605 F200.000
G1 X-17.727 Y17.569 Z-13.622 F200.000
G1 X-17.832 Y17.405 Z-13.640 F200.000
G1 X-17.903 Y17.225 Z-13.657 F200.000
G1 X-17.937 Y17.034 Z-13.674 F200.000
G1 X-17.933 Y16.839 Z-13.691 F200.000
G1 X-17.892 Y16.650 Z-13.708 F200.000
G1 X-17.814 Y16.472 Z-13.726 F200.000
G1 X-17.703 Y16.313 Z-13.743 F200.000
G1 X-17.564 Y16.178 Z-13.760 F200.000
G1 X-17.400 Y16.073 Z-13.777 F200.000
G1 X-17.220 Y16.002 Z-13.794 F200.000
G1 X-17.029 Y15.968 Z-13.811 F200.000
G1 X-16.834 Y15.972 Z-13.829 F200.000
G1 X-16.645 Y16.013 Z-13.846 F200.000
G1 X-16.467 Y16.091 Z-13.863 F200.000
G1 X-16.308 Y16.202 Z-13.880 F200.000
G1 X-16.173 Y16.341 Z-13.897 F200.000
G1 X-16.068 Y16.505 Z-13.914 F200.000
G1 X-15.997 Y16.685 Z-13.932 F200.000
G1 X-15.963 Y16.876 Z-13.949 F200.000
G1 X-15.967 Y17.071 Z-13.966 F200.000
G1 X-16.008 Y17.260 Z-13.983 F200.000
G1 X-16.086 Y17.438 Z-14.000 F200.000
G1 X-16.197 Y17.597 Z-14.018 F200.000
G1 X-16.336 Y17.732 Z-14.035 F200.000
G1 X-16.500 Y17.837 Z-14.052 F200.000
G1 X-16.680 Y17.908 Z-14.069 F200.000
G1 X-16.871 Y17.942 Z-14.086 F200.000
G1 X-17.066 Y17.938 Z-14.103 F200.000
G1 X-17.255 Y17.897 Z-14.121 F200.000
G1 X-17.433 Y17.819 Z-14.138 F200.000
G1 X-17.592 Y17.708 Z-14.155 F200.000
G1 X-17.727 Y17.569 Z-14.172 F200.000
G1 X-17.832 Y17.405 Z-14.189 F200.000
G1 X-17.903 Y17.225 Z-14.207 F200.000
G1 X-17.937 Y17.034 Z-14.224 F200.000
G1 X-17.933 Y16.839 Z-14.241 F200.000
G1 X-17.892 Y16.650 Z-14.258 F200.000
G1 X-17.814 Y16.472 Z-14.275 F200.000
G1 X-17.703 Y16.313 Z-14.292 F200.000
G1 X-17.564 Y16.178 Z-14.310 F200.000
G1 X-17.400 Y16.073 Z-14.327 F200.000
G1 X-17.220 Y16.002 Z-14.344 F200.000
G1 X-17.029 Y15.968 Z-14.361 F200.000
G1 X-16.834 Y15.972 Z-14.378 F200.000
G1 X-16.645 Y16.013 Z-14.395 F200.000
G1 X-16.467 Y16.091 Z-14.413 F200.000
G1 X-16.308 Y16.202 Z-14.430 F200.000
G1 X-16.173 Y16.341 Z-14.447 F200.000
G1 X-16.068 Y16.505 Z-14.464 F200.000
G1 X-15.997 Y16.685 Z-14.481 F200.000
G1 X-15.963 Y16.876 Z-14.499 F200.000
G1 X-15.967 Y17.071 Z-14.516 F200.000
G1 X-16.008 Y17.260 Z-14.533 F200.000
G1 X-16.086 Y17.438 Z-14.550 F200.000
G1 X-16.197 Y17.597 Z-14.567 F200.000
G1 X-16.336 Y17.732 Z-14.584 F200.000
G1 X-16.500 Y17.837 Z-14.602 F200.000
G1 X-16.680 Y17.908 Z-14.619 F200.000
G1 X-16.871 Y17.942 Z-14.636 F200.000
G1 X-17.066 Y17.938 Z-14.653 F200.000
G1 X-17.255 Y17.897 Z-14.670 F200.000
G1 X-17.433 Y17.819 Z-14.687 F200.000
G1 X-17.592 Y17.708 Z-14.705 F200.000
G1 X-17.727 Y17.569 Z-14.722 F200.000
G1 X-17.832 Y17.405 Z-14.739 F200.000
G1 X-17.903 Y17.225 Z-14.756 F200.000
G1 X-17.937 Y17.034 Z-14.773 F200.000
G1 X-17.933 Y16.839 Z-14.791 F200.000
G1 X-17.892 Y16.650 Z-14.808 F200.000
G1 X-17.814 Y16.472 Z-14.825 F200.000
G1 X-17.703 Y16.313 Z-14.842 F200.000
G1 X-17.564 Y16.178 Z-14.859 F200.000
G1 X-17.400 Y16.073 Z-14.876 F200.000
G1 X-17.220 Y16.002 Z-14.894 F200.000
G1 X-17.029 Y15.968 Z-14.911 F200.000
G1 X-16.834 Y15.972 Z-14.928 F200.000
G1 X-16.645 Y16.013 Z-14.945 F200.000
G1 X-16.467 Y16.091 Z-14.962 F200.000
G1 X-16.308 Y16.202 Z-14.980 F200.000
G1 X-16.173 Y16.341 Z-14.997 F200.000
G1 X-16.068 Y16.505 Z-15.014 F200.000
G1 X-15.997 Y16.685 Z-15.031 F200.000
G1 X-15.963 Y16.876 Z-15.048 F200.000
G1 X-15.967 Y17.071 Z-15.065 F200.000
G1 X-16.008 Y17.260 Z-15.083 F200.000
G1 X-16.086 Y17.438 Z-15.100 F200.000
G1 X-16.197 Y17.597 Z-15.117 F200.000
G1 X-16.336 Y17.732 Z-15.134 F200.000
G1 X-16.500 Y17.837 Z-15.151 F200.000
G1 X-16.680 Y17.908 Z-15.168 F200.000
G1 X-16.871 Y17.942 Z-15.186 F200.000
G1 X-17.066 Y17.938 Z-15.203 F200.000
G1 X-17.255 Y17.897 Z-15.220 F200.000
G1 X-17.433 Y17.819 Z-15.237 F200.000
G1 X-17.592 Y17.708 Z-15.254 F200.000
G1 X-17.727 Y17.569 Z-15.272 F200.000
G1 X-17.832 Y17.405 Z-15.289 F200.000
G1 X-17.903 Y17.225 Z-15.306 F200.000
G1 X-17.937 Y17.034 Z-15.323 F200.000
G1 X-17.933 Y16.839 Z-15.340 F200.000
G1 X-17.892 Y16.650 Z-15.357 F200.000
G1 X-17.814 Y16.472 Z-15.375 F200.000
G1 X-17.703 Y16.313 Z-15.392 F200.000
G1 X-17.564 Y16.178 Z-15.409 F200.000
G1 X-17.400 Y16.073 Z-15.426 F200.000
G1 X-17.220 Y16.002 Z-15.443 F200.000
G1 X-17.029 Y15.968 Z-15.461 F200.000
G1 X-16.834 Y15.972 Z-15.478 F200.000
G1 X-16.645 Y16.013 Z-15.495 F200.000
G1 X-16.467 Y16.091 Z-15.512 F200.000
G1 X-16.308 Y16.202 Z-15.529 F200.000
G1 X-16.173 Y16.341 Z-15.546 F200.000
G1 X-16.068 Y16.505 Z-15.564 F200.000
G1 X-15.997 Y16.685 Z-15.581 F200.000
G1 X-15.963 Y16.876 Z-15.598 F200.000
G1 X-15.967 Y17.071 Z-15.615 F200.000
G1 X-16.008 Y17.260 Z-15.632 F200.000
G1 X-16.086 Y17.438 Z-15.649 F200.000
G1 X-16.197 Y17.597 Z-15.667 F200.000
G1 X-16.336 Y17.732 Z-15.684 F200.000
G1 X-16.500 Y17.837 Z-15.701 F200.000
G1 X-16.680 Y17.908 Z-15.718 F200.000
G1 X-16.871 Y17.942 Z-15.735 F200.000
G1 X-17.066 Y17.938 Z-15.753 F200.000
G1 X-17.255 Y17.897 Z-15.770 F200.000
G1 X-17.433 Y17.819 Z-15.787 F200.000
G1 X-17.592 Y17.708 Z-15.804 F200.000
G1 X-17.727 Y17.569 Z-15.821 F200.000
G1 X-17.832 Y17.405 Z-15.838 F200.000
G1 X-17.903 Y17.225 Z-15.856 F200.000
G1 X-17.937 Y17.034 Z-15.873 F200.000
G1 X-17.933 Y16.839 Z-15.890 F200.000
G1 X-17.892 Y16.650 Z-15.907 F200.000
G1 X-17.814 Y16.472 Z-15.924 F200.000
G1 X-17.703 Y16.313 Z-15.942 F200.000
G1 X-17.564 Y16.178 Z-15.959 F200.000
G1 X-17.400 Y16.073 Z-15.976 F200.000
G1 X-17.220 Y16.002 Z-15.993 F200.000
G1 X-17.029 Y15.968 Z-16.000 F200.000
G1 X-16.834 Y15.972 Z-16.000 F200.000
G1 X-16.645 Y16.013 Z-16.000 F200.000
G1 X-16.467 Y16.091 Z-16.000 F200.000
G1 X-16.308 Y16.202 Z-16.000 F200.000
G1 X-16.173 Y16.341 Z-16.000 F200.000
G1 X-16.068 Y16.505 Z-16.000 F200.000
G1 X-15.997 Y16.685 Z-16.000 F200.000
G1 X-15.963 Y16.876 Z-16.000 F200.000
G1 X-15.967 Y17.071 Z-16.000 F200.000
G1 X-16.008 Y17.260 Z-16.000 F200.000
G1 X-16.086 Y17.438 Z-16.000 F200.000
G1 X-16.197 Y17.597 Z-16.000 F200.000
G1 X-16.336 Y17.732 Z-16.000 F200.000
G1 X-16.500 Y17.837 Z-16.000 F200.000
G1 X-16.680 Y17.908 Z-16.000 F200.000
G1 X-16.871 Y17.942 Z-16.000 F200.000
G1 X-17.066 Y17.938 Z-16.000 F200.000
G1 X-17.255 Y17.897 Z-16.000 F200.000
G1 X-17.433 Y17.819 Z-16.000 F200.000
G1 X-17.592 Y17.708 Z-16.000 F200.000
G1 X-17.727 Y17.569 Z-16.000 F200.000
G1 X-17.832 Y17.405 Z-16.000 F200.000
G1 X-17.903 Y17.225 Z-16.000 F200.000
G1 X-17.937 Y17.034 Z-16.000 F200.000
G1 X-17.933 Y16.839 Z-16.000 F200.000
G1 X-17.892 Y16.650 Z-16.000 F200.000
G1 X-17.814 Y16.472 Z-16.000 F200.000
G1 X-17.703 Y16.313 Z-16.000 F200.000
G1 X-17.564 Y16.178 Z-16.000 F200.000
G1 X-17.400 Y16.073 Z-16.000 F200.000
G1 X-17.220 Y16.002 Z-16.000 F200.000
(Adaptive - depth: -16.000000)
G1 X-16.950 Y15.955 F200.000
G1 X-16.875 Y15.920 F200.000
G1 X-16.715 Y15.900 F200.000
G1 X-16.555 Y15.915 F200.000
G1 X-16.400 Y15.960 F200.000
G1 X-16.185 Y16.080 F200.000
G1 X-16.060 Y16.185 F200.000
G1 X-15.955 Y16.305 F200.000
G1 X-15.765 Y16.815 F200.000
G1 X-15.755 Y17.025 F200.000
G1 X-15.770 Y17.165 F200.000
G1 X-15.810 Y17.320 F200.000
G1 X-15.900 Y17.525 F200.000
G1 X-16.050 Y17.740 F200.000
G1 X-16.215 Y17.895 F200.000
G1 X-16.380 Y18.000 F200.000
G1 X-16.570 Y18.080 F200.000
G1 X-16.785 Y18.125 F200.000
G1 X-17.000 Y18.130 F200.000
G1 X-17.210 Y18.100 F200.000
G1 X-17.425 Y18.025 F200.000
G1 X-17.615 Y17.915 F200.000
G1 X-17.785 Y17.775 F200.000
G1 X-17.920 Y17.605 F200.000
G1 X-18.015 Y17.420 F200.000
G1 X-18.080 Y17.230 F200.000
G1 X-18.110 Y17.000 F200.000
G1 X-18.100 Y16.775 F200.000
G1 X-18.045 Y16.560 F200.000
G1 X-17.960 Y16.375 F200.000
G1 X-17.835 Y16.195 F200.000
G1 X-17.515 Y15.925 F200.000
G1 X-17.135 Y15.750 F200.000
G1 X-16.815 Y15.690 F200.000
G1 X-16.575 Y15.705 F200.000
G1 X-16.335 Y15.765 F200.000
G1 X-16.115 Y15.870 F200.000
G1 X-15.930 Y16.020 F200.000
G1 X-15.625 Y16.495 F200.000
G1 X-15.555 Y16.755 F200.000
G1 X-15.535 Y16.920 F200.000
G1 X-15.540 Y17.095 F200.000
G1 X-15.580 Y17.315 F200.000
G1 X-15.675 Y17.560 F200.000
G1 X-15.800 Y17.765 F200.000
G1 X-15.950 Y17.945 F200.000
G1 X-16.140 Y18.095 F200.000
G1 X-16.325 Y18.205 F200.000
G1 X-16.550 Y18.285 F200.000
G1 X-16.775 Y18.325 F200.000
G1 X-17.010 Y18.330 F200.000
G1 X-17.245 Y18.295 F200.000
G1 X-17.470 Y18.225 F200.000
G1 X-17.690 Y18.110 F200.000
G1 X-17.875 Y17.960 F200.000
G1 X-18.015 Y17.805 F200.000
G1 X-18.140 Y17.605 F200.000
G1 X-18.230 Y17.390 F200.000
G1 X-18.285 Y17.160 F200.000
G1 X-18.300 Y16.925 F200.000
G1 X-18.275 Y16.690 F200.000
G1 X-18.210 Y16.460 F200.000
G1 X-18.105 Y16.245 F200.000
G1 X-17.970 Y16.050 F200.000
G1 X-17.805 Y15.875 F200.000
G1 X-17.535 Y15.680 F200.000
G1 X-17.225 Y15.545 F200.000
G1 X-16.985 Y15.480 F200.000
G1 X-16.665 Y15.455 F200.000
G1 X-16.505 Y15.470 F200.000
G1 X-16.265 Y15.535 F200.000
G1 X-16.045 Y15.640 F200.000
G1 X-15.780 Y15.825 F200.000
G1 X-15.565 Y16.055 F200.000
G1 X-15.400 Y16.325 F200.000
G1 X-15.345 Y16.470 F200.000
G1 X-15.285 Y17.105 F200.000
G1 X-15.335 Y17.375 F200.000
G1 X-15.390 Y17.540 F200.000
G1 X-15.475 Y17.725 F200.000
G1 X-15.625 Y17.940 F200.000
G1 X-15.810 Y18.140 F200.000
G1 X-16.025 Y18.300 F200.000
G1 X-16.235 Y18.415 F200.000
G1 X-16.475 Y18.500 F200.000
G1 X-16.850 Y18.545 F200.000
G1 X-17.150 Y18.530 F200.000
G1 X-17.450 Y18.455 F200.000
G1 X-18.005 Y18.135 F200.000
G1 X-18.190 Y17.925 F200.000
G1 X-18.280 Y17.790 F200.000
G1 X-18.365 Y17.620 F200.000
G1 X-18.450 Y17.395 F200.000
G1 X-18.490 Y16.915 F200.000
G1 X-18.450 Y16.595 F200.000
G1 X-18.430 Y16.515 F200.000
G1 X-18.160 Y15.930 F200.000
G1 X-17.955 Y15.700 F200.000
G1 X-17.610 Y15.450 F200.000
G1 X-17.225 Y15.280 F200.000
G1 X-16.985 Y15.220 F200.000
G1 X-16.665 Y15.195 F200.000
G1 X-16.345 Y15.235 F200.000
G1 X-16.035 Y15.335 F200.000
G1 X-15.750 Y15.485 F200.000
G1 X-15.440 Y15.740 F200.000
G1 X-15.245 Y15.990 F200.000
G1 X-15.075 Y16.340 F200.000
G1 X-14.980 Y16.715 F200.000
G1 X-14.970 Y16.790 F200.000
G1 X-15.050 Y17.420 F200.000
G1 X-15.155 Y17.695 F200.000
G1 X-15.245 Y17.870 F200.000
G1 X-15.370 Y18.055 F200.000
G1 X-15.565 Y18.275 F200.000
G1 X-15.815 Y18.480 F200.000
G1 X-16.085 Y18.625 F200.000
G1 X-16.460 Y18.735 F200.000
G1 X-16.985 Y18.775 F200.000
G1 X-17.435 Y18.690 F200.000
G1 X-17.725 Y18.570 F200.000
G1 X-17.930 Y18.445 F200.000
G1 X-18.400 Y18.015 F200.000
G1 X-18.570 Y17.710 F200.000
G1 X-18.670 Y17.315 F200.000
G1 X-18.695 Y16.915 F200.000
G1 X-18.645 Y16.515 F200.000
G1 X-18.520 Y16.120 F200.000
G1 X-18.445 Y15.970 F200.000
G1 X-18.060 Y15.455 F200.000
G1 X-17.775 Y15.235 F200.000
G1 X-17.600 Y15.135 F200.000
G1 X-17.410 Y15.050 F200.000
G1 X-17.135 Y14.965 F200.000
G1 X-16.720 Y14.915 F200.000
G1 X-16.400 Y14.930 F200.000
G1 X-15.925 Y15.055 F200.000
G1 X-15.560 Y15.235 F200.000
G1 X-15.185 Y15.535 F200.000
G1 X-14.935 Y15.845 F200.000
G1 X-14.760 Y16.195 F200.000
G1 X-14.655 Y16.570 F200.000
G1 X-14.630 Y17.020 F200.000
G1 X-14.635 Y17.095 F200.000
G1 X-14.800 Y17.710 F200.000
G1 X-14.975 Y18.035 F200.000
G1 X-15.100 Y18.215 F200.000
G1 X-15.255 Y18.400 F200.000
G1 X-15.495 Y18.610 F200.000
G1 X-15.830 Y18.805 F200.000
G1 X-16.190 Y18.945 F200.000
G1 X-16.565 Y19.020 F200.000
G1 X-17.090 Y19.025 F200.000
G1 X-17.390 Y18.965 F200.000
G1 X-17.825 Y18.785 F200.000
G1 X-18.160 Y18.570 F200.000
G1 X-18.340 Y18.410 F200.000
G1 X-18.740 Y17.910 F200.000
G1 X-18.860 Y17.525 F200.000
G1 X-18.920 Y16.965 F200.000
G1 X-18.895 Y16.565 F200.000
G1 X-18.815 Y16.245 F200.000
G1 X-18.660 Y15.860 F200.000
G1 X-18.435 Y15.510 F200.000
G1 X-17.985 Y15.050 F200.000
G1 X-17.620 Y14.830 F200.000
G1 X-17.415 Y14.745 F200.000
G1 X-17.205 Y14.680 F200.000
G1 X-16.610 Y14.600 F200.000
G1 X-16.210 Y14.630 F200.000
G1 X-15.740 Y14.760 F200.000
G1 X-15.525 Y14.875 F200.000
G1 X-14.625 Y15.765 F200.000
G1 X-14.480 Y15.955 F200.000
G1 X-14.405 Y16.095 F200.000
G1 X-14.305 Y16.470 F200.000
G1 X-14.260 Y16.995 F200.000
G1 X-14.305 Y17.370 F200.000
G1 X-14.535 Y17.965 F200.000
G1 X-14.735 Y18.300 F200.000
G1 X-15.010 Y18.615 F200.000
G1 X-15.365 Y18.900 F200.000
G1 X-15.700 Y19.090 F200.000
G1 X-16.135 Y19.245 F200.000
G1 X-16.510 Y19.315 F200.000
G1 X-17.035 Y19.315 F200.000
G1 X-17.485 Y19.220 F200.000
G1 X-17.850 Y19.070 F200.000
G1 X-18.315 Y18.760 F200.000
G1 X-18.605 Y18.490 F200.000
G1 X-18.750 Y18.300 F200.000
G1 X-18.940 Y17.940 F200.000
G1 X-19.090 Y17.475 F200.000
G1 X-19.160 Y16.995 F200.000
G1 X-19.130 Y16.515 F200.000
G1 X-19.035 Y16.115 F200.000
G1 X-18.755 Y15.510 F200.000
G1 X-18.510 Y15.170 F200.000
G1 X-18.400 Y15.050 F200.000
G1 X-17.900 Y14.640 F200.000
G1 X-17.440 Y14.425 F200.000
G1 X-16.900 Y14.290 F200.000
G1 X-16.420 Y14.260 F200.000
G1 X-16.100 Y14.300 F200.000
G1 X-16.025 Y14.330 F200.000
G1 X-15.960 Y14.380 F200.000
G1 X-15.960 Y14.380 F200.000
G1 X-15.840 Y14.635 F200.000
G0 X-15.825 Y14.670
G0 X-15.010 Y15.520
G1 X-14.980 Y15.550 F200.000
G1 X-14.860 Y15.660 F200.000
G1 X-14.540 Y15.815 F200.000
G1 X-14.540 Y15.815 F200.000
G1 X-14.155 Y16.215 F200.000
G1 X-14.070 Y16.350 F200.000
G1 X-13.985 Y16.650 F200.000
G1 X-13.955 Y17.100 F200.000
G1 X-14.010 Y17.550 F200.000
G1 X-14.030 Y17.625 F200.000
G1 X-14.275 Y18.210 F200.000
G1 X-14.645 Y18.720 F200.000
G1 X-15.105 Y19.125 F200.000
G1 X-15.570 Y19.390 F200.000
G1 X-15.870 Y19.455 F200.000
G1 X-17.370 Y19.445 F200.000
G1 X-17.745 Y19.380 F200.000
G1 X-18.035 Y19.260 F200.000
G1 X-18.370 Y19.055 F200.000
G1 X-18.670 Y18.790 F200.000
G1 X-18.920 Y18.480 F200.000
G1 X-19.190 Y17.975 F200.000
G1 X-19.340 Y17.510 F200.000
G1 X-19.400 Y16.950 F200.000
G1 X-19.360 Y16.310 F200.000
G1 X-19.255 Y15.910 F200.000
G1 X-18.970 Y15.315 F200.000
G1 X-18.620 Y14.845 F200.000
G1 X-18.440 Y14.670 F200.000
G1 X-17.920 Y14.290 F200.000
G1 X-17.365 Y14.045 F200.000
G1 X-16.965 Y13.950 F200.000
G1 X-16.565 Y13.920 F200.000
G1 X-16.405 Y13.940 F200.000
G1 X-16.330 Y13.975 F200.000
G1 X-16.325 Y13.975 F200.000
G1 X-16.270 Y14.040 F200.000
G1 X-16.230 Y14.115 F200.000
G1 X-16.205 Y14.195 F200.000
G1 X-16.195 Y14.275 F200.000
G0 Z5.000
G0 X-16.195 Y14.275
G0 X-14.480 Y16.025
G1 Z-16.000 F200.000
G1 X-14.480 Y16.025 F200.000
G1 X-14.400 Y16.030 F200.000
G1 X-14.320 Y16.050 F200.000
G1 X-14.245 Y16.085 F200.000
G1 X-14.180 Y16.135 F200.000
G1 X-14.180 Y16.135 F200.000
G1 X-13.895 Y16.410 F200.000
G1 X-13.760 Y16.605 F200.000
G1 X-13.680 Y16.905 F200.000
G1 X-13.655 Y17.280 F200.000
G1 X-13.730 Y17.805 F200.000
G1 X-13.980 Y18.390 F200.000
G1 X-14.370 Y18.940 F200.000
G1 X-14.700 Y19.255 F200.000
G1 X-14.885 Y19.385 F200.000
G1 X-15.030 Y19.445 F200.000
G1 X-15.255 Y19.455 F200.000
G1 X-15.255 Y19.450 F200.000
G1 X-15.410 Y19.410 F200.000
G1 X-15.480 Y19.370 F200.000
G1 X-15.500 Y19.345 F200.000
G0 X-15.515 Y19.315
G0 X-15.480 Y19.175
G0 X-14.220 Y16.560
G1 X-14.195 Y16.510 F200.000
G1 X-14.130 Y16.390 F200.000
G1 X-14.065 Y16.355 F200.000
G1 X-13.955 Y16.370 F200.000
G1 X-13.815 Y16.445 F200.000
G1 X-13.815 Y16.445 F200.000
G1 X-13.540 Y16.730 F200.000
G1 X-13.460 Y16.865 F200.000
G1 X-13.400 Y17.090 F200.000
G1 X-13.375 Y17.540 F200.000
G1 X-13.430 Y17.915 F200.000
G1 X-13.470 Y18.065 F200.000
G1 X-13.725 Y18.650 F200.000
G1 X-13.980 Y19.035 F200.000
G1 X-14.240 Y19.310 F200.000
G1 X-14.360 Y19.400 F200.000
G1 X-14.505 Y19.455 F200.000
G1 X-14.730 Y19.455 F200.000
G1 X-14.730 Y19.450 F200.000
G1 X-14.885 Y19.410 F200.000
G1 X-14.955 Y19.370 F200.000
G1 X-14.975 Y19.345 F200.000
G0 X-14.990 Y19.315
G0 X-14.960 Y19.175
G0 X-13.910 Y16.825
G1 X-13.890 Y16.780 F200.000
G1 X-13.825 Y16.660 F200.000
G1 X-13.765 Y16.625 F200.000
G1 X-13.650 Y16.630 F200.000
G1 X-13.505 Y16.695 F200.000
G1 X-13.505 Y16.695 F200.000
G1 X-13.330 Y16.860 F200.000
G1 X-13.195 Y17.055 F200.000
G1 X-13.110 Y17.430 F200.000
G1 X-13.115 Y17.880 F200.000
G1 X-13.185 Y18.255 F200.000
G1 X-13.470 Y18.905 F200.000
G1 X-13.690 Y19.215 F200.000
G1 X-13.860 Y19.370 F200.000
G1 X-13.995 Y19.440 F200.000
G1 X-14.070 Y19.455 F200.000
G1 X-14.370 Y19.455 F200.000
G1 X-14.370 Y19.450 F200.000
G1 X-14.525 Y19.410 F200.000
G1 X-14.595 Y19.370 F200.000
G1 X-14.615 Y19.345 F200.000
G0 X-14.630 Y19.315
G0 X-14.600 Y19.175
G0 X-13.655 Y17.020
G1 X-13.635 Y16.975 F200.000
G1 X-13.570 Y16.855 F200.000
G1 X-13.510 Y16.820 F200.000
G1 X-13.400 Y16.825 F200.000
G1 X-13.255 Y16.895 F200.000
G1 X-13.255 Y16.895 F200.000
G1 X-13.025 Y17.110 F200.000
G1 X-12.930 Y17.240 F200.000
G1 X-12.835 Y17.610 F200.000
G1 X-12.835 Y18.060 F200.000
G1 X-12.905 Y18.435 F200.000
G1 X-13.160 Y19.020 F200.000
G1 X-13.290 Y19.210 F200.000
G1 X-13.455 Y19.370 F200.000
G1 X-13.520 Y19.410 F200.000
G1 X-13.665 Y19.455 F200.000
G1 X-13.815 Y19.455 F200.000
G1 X-13.815 Y19.450 F200.000
G1 X-13.970 Y19.410 F200.000
G1 X-14.040 Y19.370 F200.000
G1 X-14.065 Y19.340 F200.000
G0 X-14.075 Y19.310
G0 X-14.055 Y19.170
G0 X-13.390 Y17.225
G1 X-13.370 Y17.180 F200.000
G1 X-13.315 Y17.060 F200.000
G1 X-13.260 Y17.020 F200.000
G1 X-13.145 Y17.025 F200.000
G1 X-13.000 Y17.090 F200.000
G1 X-13.000 Y17.090 F200.000
G1 X-12.765 Y17.310 F200.000
G1 X-12.630 Y17.505 F200.000
G1 X-12.560 Y17.880 F200.000
G1 X-12.580 Y18.330 F200.000
G1 X-12.720 Y18.850 F200.000
G1 X-12.865 Y19.120 F200.000
G1 X-13.005 Y19.300 F200.000
G1 X-13.120 Y19.405 F200.000
G1 X-13.265 Y19.455 F200.000
G1 X-13.340 Y19.455 F200.000
G1 X-13.340 Y19.450 F200.000
G1 X-13.495 Y19.410 F200.000
G1 X-13.565 Y19.370 F200.000
G1 X-13.590 Y19.340 F200.000
G0 X-13.600 Y19.310
G0 X-13.585 Y19.170
G0 X-13.060 Y17.475
G1 X-13.045 Y17.430 F200.000
G1 X-13.000 Y17.305 F200.000
G1 X-12.940 Y17.265 F200.000
G1 X-12.830 Y17.270 F200.000
G1 X-12.685 Y17.335 F200.000
G1 X-12.685 Y17.335 F200.000
G1 X-12.510 Y17.495 F200.000
G1 X-12.415 Y17.620 F200.000
G1 X-12.380 Y17.690 F200.000
G1 X-12.300 Y18.065 F200.000
G1 X-12.305 Y18.440 F200.000
G1 X-12.360 Y18.740 F200.000
G1 X-12.510 Y19.095 F200.000
G1 X-12.695 Y19.340 F200.000
G1 X-12.750 Y19.390 F200.000
G1 X-12.890 Y19.450 F200.000
G1 X-12.965 Y19.455 F200.000
G1 X-12.965 Y19.450 F200.000
G1 X-13.120 Y19.410 F200.000
G1 X-13.190 Y19.370 F200.000
G1 X-13.215 Y19.340 F200.000
G0 X-13.230 Y19.310
G0 X-13.210 Y19.110
G0 X-12.860 Y17.635
G1 X-12.845 Y17.590 F200.000
G1 X-12.805 Y17.465 F200.000
G1 X-12.750 Y17.420 F200.000
G1 X-12.640 Y17.420 F200.000
G1 X-12.490 Y17.475 F200.000
G1 X-12.490 Y17.475 F200.000
G1 X-12.305 Y17.630 F200.000
G1 X-12.155 Y17.815 F200.000
G1 X-12.075 Y18.035 F200.000
G1 X-12.040 Y18.410 F200.000
G1 X-12.085 Y18.785 F200.000
G1 X-12.185 Y19.075 F200.000
G1 X-12.305 Y19.270 F200.000
G1 X-12.410 Y19.385 F200.000
G1 X-12.545 Y19.445 F200.000
G1 X-12.845 Y19.455 F200.000
G1 X-12.845 Y19.450 F200.000
G1 X-13.000 Y19.410 F200.000
G1 X-13.070 Y19.370 F200.000
G1 X-13.095 Y19.340 F200.000
G0 X-13.105 Y19.310
G0 X-13.070 Y19.115
G0 X-12.620 Y17.815
G1 X-12.605 Y17.770 F200.000
G1 X-12.550 Y17.645 F200.000
G1 X-12.495 Y17.605 F200.000
G1 X-12.380 Y17.605 F200.000
G1 X-12.230 Y17.660 F200.000
G1 X-12.230 Y17.660 F200.000
G1 X-11.990 Y17.870 F200.000
G1 X-11.895 Y17.995 F200.000
G1 X-11.810 Y18.295 F200.000
G1 X-11.790 Y18.520 F200.000
G1 X-11.830 Y18.820 F200.000
G1 X-11.870 Y18.970 F200.000
G1 X-12.010 Y19.245 F200.000
G1 X-12.110 Y19.360 F200.000
G1 X-12.170 Y19.410 F200.000
G1 X-12.240 Y19.440 F200.000
G1 X-12.315 Y19.455 F200.000
G1 X-12.465 Y19.455 F200.000
G1 X-12.465 Y19.450 F200.000
G1 X-12.620 Y19.410 F200.000
G1 X-12.690 Y19.370 F200.000
G1 X-12.715 Y19.340 F200.000
G0 X-12.725 Y19.310
G0 X-12.700 Y19.120
G0 X-12.350 Y18.015
G1 X-12.335 Y17.970 F200.000
G1 X-12.285 Y17.850 F200.000
G1 X-12.225 Y17.800 F200.000
G1 X-12.115 Y17.790 F200.000
G1 X-11.965 Y17.840 F200.000
G1 X-11.965 Y17.840 F200.000
G1 X-11.720 Y18.050 F200.000
G1 X-11.630 Y18.185 F200.000
G1 X-11.580 Y18.410 F200.000
G1 X-11.565 Y18.635 F200.000
G1 X-11.595 Y18.860 F200.000
G1 X-11.695 Y19.150 F200.000
G1 X-11.775 Y19.280 F200.000
G1 X-11.880 Y19.395 F200.000
G1 X-12.025 Y19.455 F200.000
G1 X-12.250 Y19.455 F200.000
G1 X-12.250 Y19.450 F200.000
G1 X-12.405 Y19.410 F200.000
G1 X-12.475 Y19.370 F200.000
G1 X-12.495 Y19.340 F200.000
G0 X-12.510 Y19.310
G0 X-12.470 Y19.125
G0 X-12.095 Y18.170
G1 X-12.075 Y18.130 F200.000
G1 X-12.020 Y18.005 F200.000
G1 X-11.960 Y17.965 F200.000
G1 X-11.845 Y17.960 F200.000
G1 X-11.695 Y18.015 F200.000
G1 X-11.695 Y18.015 F200.000
G1 X-11.510 Y18.170 F200.000
G1 X-11.415 Y18.295 F200.000
G1 X-11.365 Y18.520 F200.000
G1 X-11.365 Y18.820 F200.000
G1 X-11.390 Y18.970 F200.000
G1 X-11.470 Y19.185 F200.000
G1 X-11.605 Y19.370 F200.000
G1 X-11.665 Y19.415 F200.000
G1 X-11.735 Y19.445 F200.000
G1 X-11.885 Y19.455 F200.000
G1 X-11.885 Y19.450 F200.000
G1 X-12.040 Y19.410 F200.000
G1 X-12.110 Y19.370 F200.000
G1 X-12.135 Y19.340 F200.000
G0 X-12.145 Y19.310
G0 X-12.120 Y19.125
G0 X-11.870 Y18.315
G1 X-11.855 Y18.270 F200.000
G1 X-11.810 Y18.150 F200.000
G1 X-11.750 Y18.100 F200.000
G1 X-11.640 Y18.090 F200.000
G1 X-11.490 Y18.140 F200.000
G1 X-11.490 Y18.140 F200.000
G1 X-11.305 Y18.295 F200.000
G1 X-11.210 Y18.420 F200.000
G1 X-11.180 Y18.495 F200.000
G1 X-11.150 Y18.720 F200.000
G1 X-11.165 Y18.945 F200.000
G1 X-11.205 Y19.095 F200.000
G1 X-11.270 Y19.235 F200.000
G1 X-11.365 Y19.360 F200.000
G1 X-11.425 Y19.410 F200.000
G1 X-11.495 Y19.440 F200.000
G1 X-11.570 Y19.455 F200.000
G1 X-11.720 Y19.455 F200.000
G1 X-11.720 Y19.450 F200.000
G1 X-11.875 Y19.410 F200.000
G1 X-11.945 Y19.370 F200.000
G1 X-11.965 Y19.340 F200.000
G0 X-11.980 Y19.310
G0 X-11.940 Y19.125
G0 X-11.680 Y18.425
G1 X-11.665 Y18.385 F200.000
G1 X-11.610 Y18.260 F200.000
G1 X-11.555 Y18.220 F200.000
G1 X-11.440 Y18.215 F200.000
G1 X-11.290 Y18.270 F200.000
G1 X-11.290 Y18.270 F200.000
G1 X-11.100 Y18.420 F200.000
G1 X-11.005 Y18.545 F200.000
G1 X-10.965 Y18.695 F200.000
G1 X-10.965 Y18.920 F200.000
G1 X-11.020 Y19.145 F200.000
G1 X-11.090 Y19.280 F200.000
G1 X-11.185 Y19.395 F200.000
G1 X-11.330 Y19.455 F200.000
G1 X-11.330 Y19.450 F200.000
G1 X-11.485 Y19.410 F200.000
G1 X-11.555 Y19.370 F200.000
G1 X-11.580 Y19.340 F200.000
G0 X-11.590 Y19.310
G0 X-11.400 Y18.600
G1 X-11.385 Y18.555 F200.000
G1 X-11.340 Y18.435 F200.000
G1 X-11.280 Y18.390 F200.000
G1 X-11.170 Y18.385 F200.000
G1 X-11.020 Y18.440 F200.000
G1 X-11.020 Y18.440 F200.000
G1 X-10.905 Y18.550 F200.000
G1 X-10.855 Y18.615 F200.000
G1 X-10.820 Y18.685 F200.000
G1 X-10.800 Y18.910 F200.000
G1 X-10.840 Y19.135 F200.000
G1 X-10.900 Y19.275 F200.000
G1 X-10.995 Y19.400 F200.000
G1 X-11.065 Y19.435 F200.000
G1 X-11.140 Y19.455 F200.000
G1 X-11.215 Y19.455 F200.000
G1 X-11.215 Y19.450 F200.000
G1 X-11.370 Y19.410 F200.000
G1 X-11.440 Y19.370 F200.000
G1 X-11.460 Y19.340 F200.000
G0 X-11.475 Y19.310
G0 X-11.275 Y18.690
G1 X-11.260 Y18.645 F200.000
G1 X-11.200 Y18.525 F200.000
G1 X-11.145 Y18.480 F200.000
G1 X-11.030 Y18.470 F200.000
G1 X-10.880 Y18.520 F200.000
G1 X-10.880 Y18.520 F200.000
G1 X-10.760 Y18.620 F200.000
G1 X-10.705 Y18.680 F200.000
G1 X-10.665 Y18.745 F200.000
G1 X-10.645 Y18.820 F200.000
G1 X-10.640 Y18.970 F200.000
G1 X-10.665 Y19.120 F200.000
G1 X-10.720 Y19.265 F200.000
G1 X-10.805 Y19.390 F200.000
G1 X-10.870 Y19.430 F200.000
G1 X-10.945 Y19.455 F200.000
G1 X-10.945 Y19.450 F200.000
G1 X-11.100 Y19.410 F200.000
G1 X-11.170 Y19.370 F200.000
G1 X-11.195 Y19.340 F200.000
G0 X-11.210 Y19.310
G0 X-11.105 Y18.775
G1 X-11.095 Y18.730 F200.000
G1 X-11.055 Y18.610 F200.000
G1 X-11.000 Y18.560 F200.000
G1 X-10.890 Y18.550 F200.000
G1 X-10.740 Y18.600 F200.000
G1 X-10.740 Y18.600 F200.000
G1 X-10.610 Y18.695 F200.000
G1 X-10.510 Y18.820 F200.000
G1 X-10.485 Y18.895 F200.000
G1 X-10.500 Y19.120 F200.000
G1 X-10.550 Y19.265 F200.000
G1 X-10.630 Y19.390 F200.000
G1 X-10.695 Y19.430 F200.000
G1 X-10.770 Y19.455 F200.000
G1 X-10.845 Y19.455 F200.000
G1 X-10.845 Y19.450 F200.000
G1 X-11.000 Y19.410 F200.000
G1 X-11.070 Y19.370 F200.000
G1 X-11.090 Y19.345 F200.000
G0 X-11.105 Y19.315
G0 X-10.945 Y18.880
G1 X-10.925 Y18.840 F200.000
G1 X-10.860 Y18.725 F200.000
G1 X-10.800 Y18.680 F200.000
G1 X-10.685 Y18.670 F200.000
G1 X-10.535 Y18.720 F200.000
G1 X-10.535 Y18.720 F200.000
G1 X-10.420 Y18.830 F200.000
G1 X-10.375 Y18.895 F200.000
G1 X-10.350 Y18.970 F200.000
G1 X-10.355 Y19.120 F200.000
G1 X-10.370 Y19.195 F200.000
G1 X-10.435 Y19.330 F200.000
G1 X-10.480 Y19.390 F200.000
G1 X-10.545 Y19.430 F200.000
G1 X-10.620 Y19.455 F200.000
G1 X-10.620 Y19.450 F200.000
G1 X-10.770 Y19.410 F200.000
G1 X-10.795 Y19.385 F200.000
G0 X-10.810 Y19.360
G0 X-10.705 Y18.965
G1 X-10.690 Y18.925 F200.000
G1 X-10.635 Y18.805 F200.000
G1 X-10.580 Y18.765 F200.000
G1 X-10.395 Y18.800 F200.000
G1 X-10.395 Y18.800 F200.000
G1 X-10.285 Y18.915 F200.000
G1 X-10.245 Y18.980 F200.000
G1 X-10.225 Y19.055 F200.000
G1 X-10.230 Y19.130 F200.000
G1 X-10.275 Y19.280 F200.000
G1 X-10.310 Y19.345 F200.000
G1 X-10.360 Y19.405 F200.000
G1 X-10.425 Y19.445 F200.000
G1 X-10.500 Y19.455 F200.000
G1 X-10.500 Y19.450 F200.000
G1 X-10.650 Y19.410 F200.000
G1 X-10.675 Y19.390 F200.000
G0 X-10.690 Y19.360
G0 X-10.585 Y19.040
G1 X-10.565 Y18.995 F200.000
G1 X-10.500 Y18.880 F200.000
G1 X-10.440 Y18.845 F200.000
G1 X-10.330 Y18.850 F200.000
G1 X-10.255 Y18.875 F200.000
G1 X-10.255 Y18.875 F200.000
G1 X-10.155 Y18.995 F200.000
G1 X-10.125 Y19.070 F200.000
G1 X-10.110 Y19.145 F200.000
G1 X-10.115 Y19.220 F200.000
G1 X-10.180 Y19.360 F200.000
G1 X-10.230 Y19.420 F200.000
G1 X-10.300 Y19.450 F200.000
G1 X-10.375 Y19.455 F200.000
G1 X-10.375 Y19.450 F200.000
G1 X-10.525 Y19.405 F200.000
G1 X-10.550 Y19.385 F200.000
G0 X-10.565 Y19.355
G0 X-10.495 Y19.090
G1 X-10.480 Y19.050 F200.000
G1 X-10.425 Y18.925 F200.000
G1 X-10.370 Y18.885 F200.000
G1 X-10.260 Y18.890 F200.000
G1 X-10.185 Y18.915 F200.000
G1 X-10.185 Y18.915 F200.000
G1 X-10.095 Y19.045 F200.000
G1 X-10.075 Y19.120 F200.000
G1 X-10.070 Y19.195 F200.000
G1 X-10.130 Y19.340 F200.000
G1 X-10.185 Y19.395 F200.000
G1 X-10.185 Y19.395 F200.000
G1 X-10.260 Y19.430 F200.000
G1 X-10.340 Y19.455 F200.000
G1 X-10.420 Y19.455 F200.000
G1 X-10.500 Y19.455 F200.000
G0 Z5.000
G0 X-10.500 Y19.455
G0 X-17.215 Y19.335
G1 Z-16.000 F200.000
G1 X-17.215 Y19.335 F200.000
G1 X-17.285 Y19.390 F200.000
G1 X-17.365 Y19.430 F200.000
G1 X-17.450 Y19.455 F200.000
G1 X-17.535 Y19.455 F200.000
G1 X-17.535 Y19.455 F200.000
G1 X-17.985 Y19.435 F200.000
G1 X-18.210 Y19.380 F200.000
G1 X-18.490 Y19.230 F200.000
G1 X-18.920 Y18.870 F200.000
G1 X-19.170 Y18.560 F200.000
G1 X-19.370 Y18.210 F200.000
G1 X-19.435 Y17.975 F200.000
G1 X-19.430 Y15.895 F200.000
G1 X-19.370 Y15.575 F200.000
G1 X-19.125 Y15.050 F200.000
G1 X-18.775 Y14.580 F200.000
G1 X-18.405 Y14.235 F200.000
G1 X-17.865 Y13.885 F200.000
G1 X-17.360 Y13.690 F200.000
G1 X-16.960 Y13.610 F200.000
G1 X-16.720 Y13.620 F200.000
G1 X-16.640 Y13.640 F200.000
G1 X-16.570 Y13.680 F200.000
G1 X-16.570 Y13.680 F200.000
G1 X-16.480 Y13.860 F200.000
G1 X-16.470 Y13.940 F200.000
G0 X-16.470 Y13.975
G0 X-17.705 Y19.075
G1 X-17.720 Y19.125 F200.000
G1 X-17.770 Y19.290 F200.000
G1 X-17.850 Y19.380 F200.000
G1 X-18.010 Y19.440 F200.000
G1 X-18.095 Y19.455 F200.000
G1 X-18.095 Y19.455 F200.000
G1 X-18.320 Y19.440 F200.000
G1 X-18.545 Y19.380 F200.000
G1 X-18.690 Y19.310 F200.000
G1 X-19.005 Y19.080 F200.000
G1 X-19.285 Y18.795 F200.000
G1 X-19.375 Y18.665 F200.000
G1 X-19.435 Y18.510 F200.000
G1 X-19.445 Y18.030 F200.000
G1 X-19.445 Y18.030 F200.000
G1 X-19.405 Y17.860 F200.000
G1 X-19.365 Y17.790 F200.000
G1 X-19.340 Y17.765 F200.000
G0 X-19.320 Y17.760
G0 X-19.220 Y17.840
G0 X-18.240 Y19.135
G1 X-18.215 Y19.170 F200.000
G1 X-18.145 Y19.270 F200.000
G1 X-18.140 Y19.330 F200.000
G1 X-18.180 Y19.380 F200.000
G1 X-18.290 Y19.430 F200.000
G1 X-18.415 Y19.455 F200.000
G1 X-18.415 Y19.455 F200.000
G1 X-18.640 Y19.440 F200.000
G1 X-18.865 Y19.385 F200.000
G1 X-18.940 Y19.355 F200.000
G1 X-19.195 Y19.170 F200.000
G1 X-19.360 Y19.000 F200.000
G1 X-19.430 Y18.855 F200.000
G1 X-19.445 Y18.775 F200.000
G1 X-19.445 Y18.535 F200.000
G1 X-19.445 Y18.535 F200.000
G1 X-19.405 Y18.365 F200.000
G1 X-19.365 Y18.295 F200.000
G1 X-19.340 Y18.270 F200.000
G0 X-19.315 Y18.265
G0 X-19.215 Y18.345
G0 X-18.565 Y19.140
G1 X-18.540 Y19.170 F200.000
G1 X-18.470 Y19.270 F200.000
G1 X-18.460 Y19.330 F200.000
G1 X-18.500 Y19.380 F200.000
G1 X-18.610 Y19.430 F200.000
G1 X-18.735 Y19.455 F200.000
G1 X-18.735 Y19.455 F200.000
G1 X-18.960 Y19.440 F200.000
G1 X-19.110 Y19.405 F200.000
G1 X-19.185 Y19.375 F200.000
G1 X-19.310 Y19.275 F200.000
G1 X-19.410 Y19.145 F200.000
G1 X-19.435 Y19.070 F200.000
G1 X-19.445 Y18.910 F200.000
G1 X-19.445 Y18.910 F200.000
G1 X-19.400 Y18.750 F200.000
G1 X-19.385 Y18.725 F200.000
G0 X-19.360 Y18.720
G0 X-18.955 Y19.190
G1 X-18.930 Y19.220 F200.000
G1 X-18.860 Y19.320 F200.000
G1 X-18.855 Y19.375 F200.000
G1 X-18.900 Y19.415 F200.000
G1 X-19.055 Y19.455 F200.000
G1 X-19.055 Y19.455 F200.000
G1 X-19.205 Y19.435 F200.000
G1 X-19.345 Y19.360 F200.000
G1 X-19.400 Y19.305 F200.000
G1 X-19.430 Y19.230 F200.000
G1 X-19.445 Y19.150 F200.000
G1 X-19.445 Y19.145 F200.000
G1 X-19.440 Y19.060 F200.000
G1 X-19.415 Y18.975 F200.000
G1 X-19.375 Y18.895 F200.000
G1 X-19.320 Y18.825 F200.000
G0 Z5.000
G0 X-19.320 Y18.825
G0 X-19.325 Y16.100
G1 Z-16.000 F200.000
G1 X-19.325 Y16.100 F200.000
G1 X-19.380 Y16.035 F200.000
G1 X-19.420 Y15.960 F200.000
G1 X-19.445 Y15.880 F200.000
G1 X-19.445 Y15.800 F200.000
G1 X-19.445 Y15.800 F200.000
G1 X-19.425 Y15.320 F200.000
G1 X-19.350 Y15.000 F200.000
G1 X-19.110 Y14.565 F200.000
G1 X-18.795 Y14.175 F200.000
G1 X-18.420 Y13.840 F200.000
G1 X-17.870 Y13.510 F200.000
G1 X-17.560 Y13.385 F200.000
G1 X-17.240 Y13.320 F200.000
G1 X-17.000 Y13.320 F200.000
G1 X-16.920 Y13.330 F200.000
G1 X-16.845 Y13.360 F200.000
G1 X-16.845 Y13.360 F200.000
G1 X-16.760 Y13.500 F200.000
G1 X-16.745 Y13.615 F200.000
G0 X-16.755 Y13.645
G0 X-16.860 Y13.750
G0 X-19.115 Y15.385
G1 X-19.155 Y15.415 F200.000
G1 X-19.290 Y15.495 F200.000
G1 X-19.345 Y15.480 F200.000
G1 X-19.410 Y15.390 F200.000
G1 X-19.445 Y15.240 F200.000
G1 X-19.445 Y15.240 F200.000
G1 X-19.420 Y14.840 F200.000
G1 X-19.360 Y14.600 F200.000
G1 X-19.210 Y14.300 F200.000
G1 X-18.965 Y13.965 F200.000
G1 X-18.550 Y13.555 F200.000
G1 X-18.415 Y13.455 F200.000
G1 X-17.845 Y13.150 F200.000
G1 X-17.525 Y13.065 F200.000
G1 X-17.285 Y13.050 F200.000
G1 X-17.125 Y13.065 F200.000
G1 X-17.050 Y13.095 F200.000
G1 X-17.050 Y13.095 F200.000
G1 X-16.965 Y13.235 F200.000
G1 X-16.950 Y13.345 F200.000
G0 X-16.960 Y13.380
G0 X-17.065 Y13.485
G0 X-19.115 Y14.915
G1 X-19.155 Y14.940 F200.000
G1 X-19.290 Y15.015 F200.000
G1 X-19.345 Y15.000 F200.000
G1 X-19.410 Y14.910 F200.000
G1 X-19.445 Y14.760 F200.000
G1 X-19.445 Y14.760 F200.000
G1 X-19.425 Y14.440 F200.000
G1 X-19.350 Y14.120 F200.000
G1 X-19.135 Y13.765 F200.000
G1 X-18.740 Y13.345 F200.000
G1 X-18.545 Y13.185 F200.000
G1 X-18.405 Y13.095 F200.000
G1 X-17.815 Y12.840 F200.000
G1 X-17.575 Y12.795 F200.000
G1 X-17.415 Y12.790 F200.000
G1 X-17.335 Y12.800 F200.000
G1 X-17.260 Y12.830 F200.000
G1 X-17.195 Y12.880 F200.000
G1 X-17.195 Y12.880 F200.000
G1 X-17.105 Y13.060 F200.000
G1 X-17.100 Y13.130 F200.000
G0 X-17.110 Y13.165
G0 X-17.220 Y13.265
G0 X-19.110 Y14.515
G1 X-19.150 Y14.540 F200.000
G1 X-19.285 Y14.615 F200.000
G1 X-19.345 Y14.600 F200.000
G1 X-19.410 Y14.510 F200.000
G1 X-19.445 Y14.360 F200.000
G1 X-19.445 Y14.360 F200.000
G1 X-19.430 Y14.040 F200.000
G1 X-19.370 Y13.800 F200.000
G1 X-19.300 Y13.645 F200.000
G1 X-19.055 Y13.305 F200.000
G1 X-18.690 Y12.960 F200.000
G1 X-18.335 Y12.740 F200.000
G1 X-17.950 Y12.585 F200.000
G1 X-17.710 Y12.540 F200.000
G1 X-17.550 Y12.545 F200.000
G1 X-17.470 Y12.565 F200.000
G1 X-17.400 Y12.605 F200.000
G1 X-17.395 Y12.605 F200.000
G1 X-17.315 Y12.795 F200.000
G1 X-17.315 Y12.865 F200.000
G0 X-17.330 Y12.900
G0 X-17.490 Y13.035
G0 X-19.110 Y14.115
G1 X-19.150 Y14.140 F200.000
G1 X-19.285 Y14.215 F200.000
G1 X-19.345 Y14.200 F200.000
G1 X-19.410 Y14.110 F200.000
G1 X-19.445 Y13.960 F200.000
G1 X-19.445 Y13.960 F200.000
G1 X-19.405 Y13.560 F200.000
G1 X-19.355 Y13.400 F200.000
G1 X-19.130 Y13.050 F200.000
G1 X-18.960 Y12.860 F200.000
G1 X-18.635 Y12.600 F200.000
G1 X-18.345 Y12.435 F200.000
G1 X-18.025 Y12.330 F200.000
G1 X-17.865 Y12.305 F200.000
G1 X-17.705 Y12.310 F200.000
G1 X-17.625 Y12.335 F200.000
G1 X-17.625 Y12.335 F200.000
G1 X-17.545 Y12.475 F200.000
G1 X-17.535 Y12.590 F200.000
G0 X-17.550 Y12.620
G0 X-17.700 Y12.760
G0 X-19.120 Y13.790
G1 X-19.155 Y13.815 F200.000
G1 X-19.290 Y13.895 F200.000
G1 X-19.345 Y13.880 F200.000
G1 X-19.410 Y13.790 F200.000
G1 X-19.445 Y13.640 F200.000
G1 X-19.445 Y13.640 F200.000
G1 X-19.430 Y13.320 F200.000
G1 X-19.370 Y13.080 F200.000
G1 X-19.250 Y12.865 F200.000
G1 X-19.030 Y12.610 F200.000
G1 X-18.705 Y12.350 F200.000
G1 X-18.415 Y12.190 F200.000
G1 X-18.175 Y12.115 F200.000
G1 X-17.935 Y12.085 F200.000
G1 X-17.855 Y12.095 F200.000
G1 X-17.775 Y12.120 F200.000
G1 X-17.710 Y12.170 F200.000
G1 X-17.710 Y12.170 F200.000
G1 X-17.645 Y12.320 F200.000
G1 X-17.645 Y12.430 F200.000
G0 X-17.660 Y12.465
G0 X-17.820 Y12.595
G0 X-19.115 Y13.405
G1 X-19.150 Y13.425 F200.000
G1 X-19.285 Y13.500 F200.000
G1 X-19.345 Y13.480 F200.000
G1 X-19.410 Y13.390 F200.000
G1 X-19.445 Y13.240 F200.000
G1 X-19.445 Y13.240 F200.000
G1 X-19.430 Y13.000 F200.000
G1 X-19.370 Y12.760 F200.000
G1 X-19.335 Y12.685 F200.000
G1 X-19.130 Y12.415 F200.000
G1 X-18.885 Y12.185 F200.000
G1 X-18.595 Y12.010 F200.000
G1 X-18.365 Y11.920 F200.000
G1 X-18.205 Y11.885 F200.000
G1 X-18.045 Y11.880 F200.000
G1 X-17.965 Y11.890 F200.000
G1 X-17.890 Y11.925 F200.000
G1 X-17.890 Y11.925 F200.000
G1 X-17.820 Y12.075 F200.000
G1 X-17.815 Y12.185 F200.000
G0 X-17.830 Y12.220
G0 X-17.980 Y12.350
G0 X-19.115 Y13.085
G1 X-19.150 Y13.105 F200.000
G1 X-19.285 Y13.180 F200.000
G1 X-19.345 Y13.160 F200.000
G1 X-19.410 Y13.070 F200.000
G1 X-19.445 Y12.920 F200.000
G1 X-19.445 Y12.920 F200.000
G1 X-19.430 Y12.680 F200.000
G1 X-19.370 Y12.440 F200.000
G1 X-19.335 Y12.365 F200.000
G1 X-19.180 Y12.170 F200.000
G1 X-18.935 Y11.950 F200.000
G1 X-18.720 Y11.815 F200.000
G1 X-18.485 Y11.725 F200.000
G1 X-18.325 Y11.690 F200.000
G1 X-18.085 Y11.700 F200.000
G1 X-18.010 Y11.735 F200.000
G1 X-18.010 Y11.735 F200.000
G1 X-17.940 Y11.885 F200.000
G1 X-17.930 Y11.960 F200.000
G1 X-17.935 Y11.995 F200.000
G0 X-17.950 Y12.030
G0 X-18.105 Y12.155
G0 X-19.110 Y12.770
G1 X-19.145 Y12.790 F200.000
G1 X-19.285 Y12.860 F200.000
G1 X-19.345 Y12.840 F200.000
G1 X-19.410 Y12.750 F200.000
G1 X-19.445 Y12.600 F200.000
G1 X-19.445 Y12.600 F200.000
G1 X-19.440 Y12.440 F200.000
G1 X-19.380 Y12.200 F200.000
G1 X-19.345 Y12.125 F200.000
G1 X-19.190 Y11.930 F200.000
G1 X-18.940 Y11.715 F200.000
G1 X-18.720 Y11.595 F200.000
G1 X-18.485 Y11.520 F200.000
G1 X-18.325 Y11.500 F200.000
G1 X-18.245 Y11.505 F200.000
G1 X-18.165 Y11.525 F200.000
G1 X-18.100 Y11.570 F200.000
G1 X-18.100 Y11.570 F200.000
G1 X-18.035 Y11.760 F200.000
G1 X-18.040 Y11.835 F200.000
G0 X-18.055 Y11.865
G0 X-18.215 Y11.980
G0 X-19.105 Y12.460
G1 X-19.140 Y12.480 F200.000
G1 X-19.285 Y12.540 F200.000
G1 X-19.345 Y12.520 F200.000
G1 X-19.410 Y12.430 F200.000
G1 X-19.445 Y12.280 F200.000
G1 X-19.445 Y12.280 F200.000
G1 X-19.415 Y12.040 F200.000
G1 X-19.355 Y11.885 F200.000
G1 X-19.200 Y11.690 F200.000
G1 X-19.005 Y11.530 F200.000
G1 X-18.785 Y11.410 F200.000
G1 X-18.625 Y11.355 F200.000
G1 X-18.465 Y11.330 F200.000
G1 X-18.305 Y11.340 F200.000
G1 X-18.235 Y11.380 F200.000
G1 X-18.235 Y11.380 F200.000
G1 X-18.165 Y11.530 F200.000
G1 X-18.155 Y11.605 F200.000
G1 X-18.160 Y11.640 F200.000
G0 X-18.175 Y11.670
G0 X-18.395 Y11.825
G0 X-19.105 Y12.215
G1 X-19.140 Y12.235 F200.000
G1 X-19.285 Y12.300 F200.000
G1 X-19.345 Y12.280 F200.000
G1 X-19.410 Y12.190 F200.000
G1 X-19.445 Y12.040 F200.000
G1 X-19.445 Y12.040 F200.000
G1 X-19.415 Y11.800 F200.000
G1 X-19.355 Y11.645 F200.000
G1 X-19.255 Y11.515 F200.000
G1 X-19.060 Y11.350 F200.000
G1 X-18.840 Y11.230 F200.000
G1 X-18.600 Y11.165 F200.000
G1 X-18.520 Y11.160 F200.000
G1 X-18.440 Y11.170 F200.000
G1 X-18.365 Y11.200 F200.000
G1 X-18.360 Y11.200 F200.000
G1 X-18.295 Y11.350 F200.000
G1 X-18.290 Y11.425 F200.000
G1 X-18.300 Y11.460 F200.000
G0 X-18.315 Y11.495
G0 X-19.110 Y11.975
G1 X-19.145 Y11.995 F200.000
G1 X-19.285 Y12.060 F200.000
G1 X-19.345 Y12.040 F200.000
G1 X-19.410 Y11.950 F200.000
G1 X-19.445 Y11.800 F200.000
G1 X-19.445 Y11.800 F200.000
G1 X-19.435 Y11.640 F200.000
G1 X-19.390 Y11.480 F200.000
G1 X-19.355 Y11.405 F200.000
G1 X-19.240 Y11.280 F200.000
G1 X-19.035 Y11.130 F200.000
G1 X-18.805 Y11.040 F200.000
G1 X-18.645 Y11.010 F200.000
G1 X-18.565 Y11.010 F200.000
G1 X-18.485 Y11.025 F200.000
G1 X-18.420 Y11.070 F200.000
G1 X-18.420 Y11.070 F200.000
G1 X-18.360 Y11.225 F200.000
G1 X-18.360 Y11.300 F200.000
G1 X-18.365 Y11.335 F200.000
G0 X-18.385 Y11.365
G0 X-19.105 Y11.750
G1 X-19.140 Y11.765 F200.000
G1 X-19.285 Y11.825 F200.000
G1 X-19.345 Y11.805 F200.000
G1 X-19.410 Y11.710 F200.000
G1 X-19.445 Y11.560 F200.000
G1 X-19.445 Y11.560 F200.000
G1 X-19.405 Y11.320 F200.000
G1 X-19.375 Y11.245 F200.000
G1 X-19.330 Y11.175 F200.000
G1 X-19.135 Y11.010 F200.000
G1 X-18.990 Y10.930 F200.000
G1 X-18.750 Y10.865 F200.000
G1 X-18.670 Y10.860 F200.000
G1 X-18.590 Y10.870 F200.000
G1 X-18.520 Y10.910 F200.000
G1 X-18.520 Y10.910 F200.000
G1 X-18.455 Y11.060 F200.000
G1 X-18.450 Y11.135 F200.000
G1 X-18.460 Y11.170 F200.000
G0 X-18.475 Y11.200
G0 X-19.100 Y11.515
G1 X-19.135 Y11.530 F200.000
G1 X-19.280 Y11.585 F200.000
G1 X-19.345 Y11.565 F200.000
G1 X-19.410 Y11.470 F200.000
G1 X-19.445 Y11.320 F200.000
G1 X-19.445 Y11.320 F200.000
G1 X-19.385 Y11.080 F200.000
G1 X-19.345 Y11.005 F200.000
G1 X-19.220 Y10.890 F200.000
G1 X-19.000 Y10.770 F200.000
G1 X-18.840 Y10.730 F200.000
G1 X-18.760 Y10.725 F200.000
G1 X-18.680 Y10.735 F200.000
G1 X-18.605 Y10.770 F200.000
G1 X-18.605 Y10.770 F200.000
G1 X-18.540 Y10.920 F200.000
G1 X-18.535 Y10.995 F200.000
G1 X-18.545 Y11.030 F200.000
G0 X-18.560 Y11.060
G0 X-19.100 Y11.350
G1 X-19.135 Y11.365 F200.000
G1 X-19.280 Y11.425 F200.000
G1 X-19.345 Y11.405 F200.000
G1 X-19.410 Y11.310 F200.000
G1 X-19.445 Y11.160 F200.000
G1 X-19.445 Y11.160 F200.000
G1 X-19.420 Y11.000 F200.000
G1 X-19.395 Y10.920 F200.000
G1 X-19.355 Y10.845 F200.000
G1 X-19.300 Y10.785 F200.000
G1 X-19.165 Y10.690 F200.000
G1 X-19.010 Y10.625 F200.000
G1 X-18.850 Y10.605 F200.000
G1 X-18.770 Y10.610 F200.000
G1 X-18.690 Y10.635 F200.000
G1 X-18.690 Y10.635 F200.000
G1 X-18.625 Y10.785 F200.000
G1 X-18.620 Y10.860 F200.000
G1 X-18.630 Y10.895 F200.000
G0 X-18.645 Y10.925
G0 X-19.105 Y11.190
G1 X-19.140 Y11.205 F200.000
G1 X-19.285 Y11.265 F200.000
G1 X-19.345 Y11.240 F200.000
G1 X-19.410 Y11.150 F200.000
G1 X-19.445 Y11.000 F200.000
G1 X-19.445 Y11.000 F200.000
G1 X-19.425 Y10.840 F200.000
G1 X-19.400 Y10.760 F200.000
G1 X-19.360 Y10.685 F200.000
G1 X-19.305 Y10.625 F200.000
G1 X-19.160 Y10.540 F200.000
G1 X-19.000 Y10.490 F200.000
G1 X-18.920 Y10.480 F200.000
G1 X-18.840 Y10.485 F200.000
G1 X-18.765 Y10.515 F200.000
G1 X-18.705 Y10.570 F200.000
G1 X-18.700 Y10.570 F200.000
G1 X-18.640 Y10.760 F200.000
G1 X-18.655 Y10.835 F200.000
G0 X-18.670 Y10.860
G0 X-19.085 Y10.995
G1 X-19.125 Y11.005 F200.000
G1 X-19.280 Y11.035 F200.000
G1 X-19.345 Y11.005 F200.000
G1 X-19.410 Y10.915 F200.000
G1 X-19.445 Y10.760 F200.000
G1 X-19.445 Y10.760 F200.000
G1 X-19.390 Y10.600 F200.000
G1 X-19.345 Y10.530 F200.000
G1 X-19.210 Y10.440 F200.000
G1 X-19.135 Y10.405 F200.000
G1 X-18.975 Y10.375 F200.000
G1 X-18.895 Y10.375 F200.000
G1 X-18.820 Y10.405 F200.000
G1 X-18.820 Y10.405 F200.000
G1 X-18.760 Y10.550 F200.000
G1 X-18.765 Y10.585 F200.000
G0 X-18.775 Y10.615
G0 X-19.155 Y10.810
G1 X-19.190 Y10.830 F200.000
G1 X-19.335 Y10.880 F200.000
G1 X-19.390 Y10.850 F200.000
G1 X-19.430 Y10.755 F200.000
G1 X-19.445 Y10.680 F200.000
G1 X-19.445 Y10.680 F200.000
G1 X-19.415 Y10.520 F200.000
G1 X-19.380 Y10.445 F200.000
G1 X-19.330 Y10.380 F200.000
G1 X-19.185 Y10.300 F200.000
G1 X-19.105 Y10.275 F200.000
G1 X-18.945 Y10.265 F200.000
G1 X-18.875 Y10.305 F200.000
G1 X-18.875 Y10.305 F200.000
G1 X-18.815 Y10.450 F200.000
G1 X-18.820 Y10.485 F200.000
G0 X-18.830 Y10.515
G0 X-19.145 Y10.660
G1 X-19.180 Y10.675 F200.000
G1 X-19.330 Y10.715 F200.000
G1 X-19.385 Y10.690 F200.000
G1 X-19.430 Y10.595 F200.000
G1 X-19.445 Y10.520 F200.000
G1 X-19.445 Y10.520 F200.000
G1 X-19.400 Y10.360 F200.000
G1 X-19.360 Y10.290 F200.000
G1 X-19.300 Y10.230 F200.000
G1 X-19.225 Y10.190 F200.000
G1 X-19.145 Y10.165 F200.000
G1 X-19.065 Y10.160 F200.000
G1 X-18.985 Y10.175 F200.000
G1 X-18.915 Y10.215 F200.000
G1 X-18.915 Y10.215 F200.000
G1 X-18.865 Y10.365 F200.000
G1 X-18.870 Y10.400 F200.000
G0 X-18.885 Y10.425
G0 X-19.135 Y10.520
G1 X-19.175 Y10.535 F200.000
G1 X-19.330 Y10.560 F200.000
G1 X-19.385 Y10.530 F200.000
G1 X-19.430 Y10.435 F200.000
G1 X-19.445 Y10.360 F200.000
G1 X-19.445 Y10.360 F200.000
G1 X-19.375 Y10.210 F200.000
G1 X-19.315 Y10.150 F200.000
G1 X-19.160 Y10.085 F200.000
G1 X-19.005 Y10.125 F200.000
G1 X-18.935 Y10.170 F200.000
G1 X-18.930 Y10.170 F200.000
G1 X-18.865 Y10.225 F200.000
G1 X-18.865 Y10.225 F200.000
G1 X-18.985 Y10.105 F200.000
G1 X-18.985 Y10.105 F200.000
G1 X-18.910 Y10.145 F200.000
G1 X-18.910 Y10.145 F200.000
G1 X-18.855 Y10.225 F200.000
G1 X-18.415 Y11.000 F200.000
G1 X-17.570 Y12.295 F200.000
G1 X-17.195 Y12.810 F200.000
G1 X-16.230 Y14.025 F200.000
G1 X-15.605 Y14.720 F200.000
G1 X-14.600 Y15.705 F200.000
G1 X-13.630 Y16.555 F200.000
G1 X-12.620 Y17.340 F200.000
G1 X-11.890 Y17.855 F200.000
G1 X-11.165 Y18.315 F200.000
G1 X-10.320 Y18.795 F200.000
G1 X-10.125 Y18.930 F200.000
G1 X-10.055 Y19.035 F200.000
G1 X-10.030 Y19.185 F200.000
G1 X-10.075 Y19.325 F200.000
G1 X-10.160 Y19.425 F200.000
G1 X-10.285 Y19.485 F200.000
G1 X-10.415 Y19.500 F200.000
G1 X-19.190 Y19.495 F200.000
G1 X-19.310 Y19.450 F200.000
G1 X-19.420 Y19.355 F200.000
G1 X-19.490 Y19.170 F200.000
G1 X-19.480 Y10.330 F200.000
G1 X-19.440 Y10.220 F200.000
G1 X-19.345 Y10.110 F200.000
G1 X-19.170 Y10.045 F200.000
G1 X-19.085 Y10.055 F200.000
G1 X-18.955 Y10.110 F200.000
G1 X-18.910 Y10.145 F200.000
G1 X-18.910 Y10.145 F200.000
G0 Z5.000
(Helix to depth: -16.000000)
G0 Z5.000
G0 X16.197 Y16.313 Z5.000
G0 X16.197 Y16.313 Z3.000
G1 X16.197 Y16.313 Z0.000 F200.000
G1 X16.197 Y16.313 Z0.000 F200.000
G1 X16.336 Y16.178 Z-0.017 F200.000
G1 X16.500 Y16.073 Z-0.034 F200.000
G1 X16.680 Y16.002 Z-0.052 F200.000
G1 X16.871 Y15.968 Z-0.069 F200.000
G1 X17.066 Y15.972 Z-0.086 F200.000
G1 X17.255 Y16.013 Z-0.103 F200.000
G1 X17.433 Y16.091 Z-0.120 F200.000
G1 X17.592 Y16.202 Z-0.137 F200.000
G1 X17.727 Y16.341 Z-0.155 F200.000
G1 X17.832 Y16.505 Z-0.172 F200.000
G1 X17.903 Y16.685 Z-0.189 F200.000
G1 X17.937 Y16.876 Z-0.206 F200.000
G1 X17.933 Y17.071 Z-0.223 F200.000
G1 X17.892 Y17.260 Z-0.240 F200.000
G1 X17.814 Y17.438 Z-0.258 F200.000
G1 X17.703 Y17.597 Z-0.275 F200.000
G1 X17.564 Y17.732 Z-0.292 F200.000
G1 X17.400 Y17.837 Z-0.309 F200.000
G1 X17.220 Y17.908 Z-0.326 F200.000
G1 X17.029 Y17.942 Z-0.344 F200.000
G1 X16.834 Y17.938 Z-0.361 F200.000
G1 X16.645 Y17.897 Z-0.378 F200.000
G1 X16.467 Y17.819 Z-0.395 F200.000
G1 X16.308 Y17.708 Z-0.412 F200.000
G1 X16.173 Y17.569 Z-0.429 F200.000
G1 X16.068 Y17.405 Z-0.447 F200.000
G1 X15.997 Y17.225 Z-0.464 F200.000
G1 X15.963 Y17.034 Z-0.481 F200.000
G1 X15.967 Y16.839 Z-0.498 F200.000
G1 X16.008 Y16.650 Z-0.515 F200.000
G1 X16.086 Y16.472 Z-0.533 F200.000
G1 X16.197 Y16.313 Z-0.550 F200.000
G1 X16.336 Y16.178 Z-0.567 F200.000
G1 X16.500 Y16.073 Z-0.584 F200.000
G1 X16.680 Y16.002 Z-0.601 F200.000
G1 X16.871 Y15.968 Z-0.618 F200.000
G1 X17.066 Y15.972 Z-0.636 F200.000
G1 X17.255 Y16.013 Z-0.653 F200.000
G1 X17.433 Y16.091 Z-0.670 F200.000
G1 X17.592 Y16.202 Z-0.687 F200.000
G1 X17.727 Y16.341 Z-0.704 F200.000
G1 X17.832 Y16.505 Z-0.721 F200.000
G1 X17.903 Y16.685 Z-0.739 F200.000
G1 X17.937 Y16.876 Z-0.756 F200.000
G1 X17.933 Y17.071 Z-0.773 F200.000
G1 X17.892 Y17.260 Z-0.790 F200.000
G1 X17.814 Y17.438 Z-0.807 F200.000
G1 X17.703 Y17.597 Z-0.825 F200.000
G1 X17.564 Y17.732 Z-0.842 F200.000
G1 X17.400 Y17.837 Z-0.859 F200.000
G1 X17.220 Y17.908 Z-0.876 F200.000
G1 X17.029 Y17.942 Z-0.893 F200.000
G1 X16.834 Y17.938 Z-0.910 F200.000
G1 X16.645 Y17.897 Z-0.928 F200.000
G1 X16.467 Y17.819 Z-0.945 F200.000
G1 X16.308 Y17.708 Z-0.962 F200.000
G1 X16.173 Y17.569 Z-0.979 F200.000
G1 X16.068 Y17.405 Z-0.996 F200.000
G1 X15.997 Y17.225 Z-1.014 F200.000
G1 X15.963 Y17.034 Z-1.031 F200.000
G1 X15.967 Y16.839 Z-1.048 F200.000
G1 X16.008 Y16.650 Z-1.065 F200.000
G1 X16.086 Y16.472 Z-1.082 F200.000
G1 X16.197 Y16.313 Z-1.099 F200.000
G1 X16.336 Y16.178 Z-1.117 F200.000
G1 X16.500 Y16.073 Z-1.134 F200.000
G1 X16.680 Y16.002 Z-1.151 F200.000
G1 X16.871 Y15.968 Z-1.168 F200.000
G1 X17.066 Y15.972 Z-1.185 F200.000
G1 X17.255 Y16.013 Z-1.202 F200.000
G1 X17.433 Y16.091 Z-1.220 F200.000
G1 X17.592 Y16.202 Z-1.237 F200.000
G1 X17.727 Y16.341 Z-1.254 F200.000
G1 X17.832 Y16.505 Z-1.271 F200.000
G1 X17.903 Y16.685 Z-1.288 F200.000
G1 X17.937 Y16.876 Z-1.306 F200.000
G1 X17.933 Y17.071 Z-1.323 F200.000
G1 X17.892 Y17.260 Z-1.340 F200.000
G1 X17.814 Y17.438 Z-1.357 F200.000
G1 X17.703 Y17.597 Z-1.374 F200.000
G1 X17.564 Y17.732 Z-1.391 F200.000
G1 X17.400 Y17.837 Z-1.409 F200.000
G1 X17.220 Y17.908 Z-1.426 F200.000
G1 X17.029 Y17.942 Z-1.443 F200.000
G1 X16.834 Y17.938 Z-1.460 F200.000
G1 X16.645 Y17.897 Z-1.477 F200.000
G1 X16.467 Y17.819 Z-1.495 F200.000
G1 X16.308 Y17.708 Z-1.512 F200.000
G1 X16.173 Y17.569 Z-1.529 F200.000
G1 X16.068 Y17.405 Z-1.546 F200.000
G1 X15.997 Y17.225 Z-1.563 F200.000
G1 X15.963 Y17.034 Z-1.580 F200.000
G1 X15.967 Y16.839 Z-1.598 F200.000
G1 X16.008 Y16.650 Z-1.615 F200.000
G1 X16.086 Y16.472 Z-1.632 F200.000
G1 X16.197 Y16.313 Z-1.649 F200.000
G1 X16.336 Y16.178 Z-1.666 F200.000
G1 X16.500 Y16.073 Z-1.683 F200.000
G1 X16.680 Y16.002 Z-1.701 F200.000
G1 X16.871 Y15.968 Z-1.718 F200.000
G1 X17.066 Y15.972 Z-1.735 F200.000
G1 X17.255 Y16.013 Z-1.752 F200.000
G1 X17.433 Y16.091 Z-1.769 F200.000
G1 X17.592 Y16.202 Z-1.787 F200.000
G1 X17.727 Y16.341 Z-1.804 F200.000
G1 X17.832 Y16.505 Z-1.821 F200.000
G1 X17.903 Y16.685 Z-1.838 F200.000
G1 X17.937 Y16.876 Z-1.855 F200.000
G1 X17.933 Y17.071 Z-1.872 F200.000
G1 X17.892 Y17.260 Z-1.890 F200.000
G1 X17.814 Y17.438 Z-1.907 F200.000
G1 X17.703 Y17.597 Z-1.924 F200.000
G1 X17.564 Y17.732 Z-1.941 F200.000
G1 X17.400 Y17.837 Z-1.958 F200.000
G1 X17.220 Y17.908 Z-1.976 F200.000
G1 X17.029 Y17.942 Z-1.993 F200.000
G1 X16.834 Y17.938 Z-2.010 F200.000
G1 X16.645 Y17.897 Z-2.027 F200.000
G1 X16.467 Y17.819 Z-2.044 F200.000
G1 X16.308 Y17.708 Z-2.061 F200.000
G1 X16.173 Y17.569 Z-2.079 F200.000
G1 X16.068 Y17.405 Z-2.096 F200.000
G1 X15.997 Y17.225 Z-2.113 F200.000
G1 X15.963 Y17.034 Z-2.130 F200.000
G1 X15.967 Y16.839 Z-2.147 F200.000
G1 X16.008 Y16.650 Z-2.164 F200.000
G1 X16.086 Y16.472 Z-2.182 F200.000
G1 X16.197 Y16.313 Z-2.199 F200.000
G1 X16.336 Y16.178 Z-2.216 F200.000
G1 X16.500 Y16.073 Z-2.233 F200.000
G1 X16.680 Y16.002 Z-2.250 F200.000
G1 X16.871 Y15.968 Z-2.268 F200.000
G1 X17.066 Y15.972 Z-2.285 F200.000
G1 X17.255 Y16.013 Z-2.302 F200.000
G1 X17.433 Y16.091 Z-2.319 F200.000
G1 X17.592 Y16.202 Z-2.336 F200.000
G1 X17.727 Y16.341 Z-2.353 F200.000
G1 X17.832 Y16.505 Z-2.371 F200.000
G1 X17.903 Y16.685 Z-2.388 F200.000
G1 X17.937 Y16.876 Z-2.405 F200.000
G1 X17.933 Y17.071 Z-2.422 F200.000
G1 X17.892 Y17.260 Z-2.439 F200.000
G1 X17.814 Y17.438 Z-2.457 F200.000
G1 X17.703 Y17.597 Z-2.474 F200.000
G1 X17.564 Y17.732 Z-2.491 F200.000
G1 X17.400 Y17.837 Z-2.508 F200.000
G1 X17.220 Y17.908 Z-2.525 F200.000
G1 X17.029 Y17.942 Z-2.542 F200.000
G1 X16.834 Y17.938 Z-2.560 F200.000
G1 X16.645 Y17.897 Z-2.577 F200.000
G1 X16.467 Y17.819 Z-2.594 F200.000
G1 X16.308 Y17.708 Z-2.611 F200.000
G1 X16.173 Y17.569 Z-2.628 F200.000
G1 X16.068 Y17.405 Z-2.645 F200.000
G1 X15.997 Y17.225 Z-2.663 F200.000
G1 X15.963 Y17.034 Z-2.680 F200.000
G1 X15.967 Y16.839 Z-2.697 F200.000
G1 X16.008 Y16.650 Z-2.714 F200.000
G1 X16.086 Y16.472 Z-2.731 F200.000
G1 X16.197 Y16.313 Z-2.749 F200.000
G1 X16.336 Y16.178 Z-2.766 F200.000
G1 X16.500 Y16.073 Z-2.783 F200.000
G1 X16.680 Y16.002 Z-2.800 F200.000
G1 X16.871 Y15.968 Z-2.817 F200.000
G1 X17.066 Y15.972 Z-2.834 F200.000
G1 X17.255 Y16.013 Z-2.852 F200.000
G1 X17.433 Y16.091 Z-2.869 F200.000
G1 X17.592 Y16.202 Z-2.886 F200.000
G1 X17.727 Y16.341 Z-2.903 F200.000
G1 X17.832 Y16.505 Z-2.920 F200.000
G1 X17.903 Y16.685 Z-2.937 F200.000
G1 X17.937 Y16.876 Z-2.955 F200.000
G1 X17.933 Y17.071 Z-2.972 F200.000
G1 X17.892 Y17.260 Z-2.989 F200.000
G1 X17.814 Y17.438 Z-3.006 F200.000
G1 X17.703 Y17.597 Z-3.023 F200.000
G1 X17.564 Y17.732 Z-3.041 F200.000
G1 X17.400 Y17.837 Z-3.058 F200.000
G1 X17.220 Y17.908 Z-3.075 F200.000
G1 X17.029 Y17.942 Z-3.092 F200.000
G1 X16.834 Y17.938 Z-3.109 F200.000
G1 X16.645 Y17.897 Z-3.126 F200.000
G1 X16.467 Y17.819 Z-3.144 F200.000
G1 X16.308 Y17.708 Z-3.161 F200.000
G1 X16.173 Y17.569 Z-3.178 F200.000
G1 X16.068 Y17.405 Z-3.195 F200.000
G1 X15.997 Y17.225 Z-3.212 F200.000
G1 X15.963 Y17.034 Z-3.230 F200.000
G1 X15.967 Y16.839 Z-3.247 F200.000
G1 X16.008 Y16.650 Z-3.264 F200.000
G1 X16.086 Y16.472 Z-3.281 F200.000
G1 X16.197 Y16.313 Z-3.298 F200.000
G1 X16.336 Y16.178 Z-3.315 F200.000
G1 X16.500 Y16.073 Z-3.333 F200.000
G1 X16.680 Y16.002 Z-3.350 F200.000
G1 X16.871 Y15.968 Z-3.367 F200.000
G1 X17.066 Y15.972 Z-3.384 F200.000
G1 X17.255 Y16.013 Z-3.401 F200.000
G1 X17.433 Y16.091 Z-3.418 F200.000
G1 X17.592 Y16.202 Z-3.436 F200.000
G1 X17.727 Y16.341 Z-3.453 F200.000
G1 X17.832 Y16.505 Z-3.470 F200.000
G1 X17.903 Y16.685 Z-3.487 F200.000
G1 X17.937 Y16.876 Z-3.504 F200.000
G1 X17.933 Y17.071 Z-3.522 F200.000
G1 X17.892 Y17.260 Z-3.539 F200.000
G1 X17.814 Y17.438 Z-3.556 F200.000
G1 X17.703 Y17.597 Z-3.573 F200.000
G1 X17.564 Y17.732 Z-3.590 F200.000
G1 X17.400 Y17.837 Z-3.607 F200.000
G1 X17.220 Y17.908 Z-3.625 F200.000
G1 X17.029 Y17.942 Z-3.642 F200.000
G1 X16.834 Y17.938 Z-3.659 F200.000
G1 X16.645 Y17.897 Z-3.676 F200.000
G1 X16.467 Y17.819 Z-3.693 F200.000
G1 X16.308 Y17.708 Z-3.711 F200.000
G1 X16.173 Y17.569 Z-3.728 F200.000
G1 X16.068 Y17.405 Z-3.745 F200.000
G1 X15.997 Y17.225 Z-3.762 F200.000
G1 X15.963 Y17.034 Z-3.779 F200.000
G1 X15.967 Y16.839 Z-3.796 F200.000
G1 X16.008 Y16.650 Z-3.814 F200.000
G1 X16.086 Y16.472 Z-3.831 F200.000
G1 X16.197 Y16.313 Z-3.848 F200.000
G1 X16.336 Y16.178 Z-3.865 F200.000
G1 X16.500 Y16.073 Z-3.882 F200.000
G1 X16.680 Y16.002 Z-3.899 F200.000
G1 X16.871 Y15.968 Z-3.917 F200.000
G1 X17.066 Y15.972 Z-3.934 F200.000
G1 X17.255 Y16.013 Z-3.951 F200.000
G1 X17.433 Y16.091 Z-3.968 F200.000
G1 X17.592 Y16.202 Z-3.985 F200.000
G1 X17.727 Y16.341 Z-4.003 F200.000
G1 X17.832 Y16.505 Z-4.020 F200.000
G1 X17.903 Y16.685 Z-4.037 F200.000
G1 X17.937 Y16.876 Z-4.054 F200.000
G1 X17.933 Y17.071 Z-4.071 F200.000
G1 X17.892 Y17.260 Z-4.088 F200.000
G1 X17.814 Y17.438 Z-4.106 F200.000
G1 X17.703 Y17.597 Z-4.123 F200.000
G1 X17.564 Y17.732 Z-4.140 F200.000
G1 X17.400 Y17.837 Z-4.157 F200.000
G1 X17.220 Y17.908 Z-4.174 F200.000
G1 X17.029 Y17.942 Z-4.192 F200.000
G1 X16.834 Y17.938 Z-4.209 F200.000
G1 X16.645 Y17.897 Z-4.226 F200.000
G1 X16.467 Y17.819 Z-4.243 F200.000
G1 X16.308 Y17.708 Z-4.260 F200.000
G1 X16.173 Y17.569 Z-4.277 F200.000
G1 X16.068 Y17.405 Z-4.295 F200.000
G1 X15.997 Y17.225 Z-4.312 F200.000
G1 X15.963 Y17.034 Z-4.329 F200.000
G1 X15.967 Y16.839 Z-4.346 F200.000
G1 X16.008 Y16.650 Z-4.363 F200.000
G1 X16.086 Y16.472 Z-4.380 F200.000
G1 X16.197 Y16.313 Z-4.398 F200.000
G1 X16.336 Y16.178 Z-4.415 F200.000
G1 X16.500 Y16.073 Z-4.432 F200.000
G1 X16.680 Y16.002 Z-4.449 F200.000
G1 X16.871 Y15.968 Z-4.466 F200.000
G1 X17.066 Y15.972 Z-4.484 F200.000
G1 X17.255 Y16.013 Z-4.501 F200.000
G1 X17.433 Y16.091 Z-4.518 F200.000
G1 X17.592 Y16.202 Z-4.535 F200.000
G1 X17.727 Y16.341 Z-4.552 F200.000
G1 X17.832 Y16.505 Z-4.569 F200.000
G1 X17.903 Y16.685 Z-4.587 F200.000
G1 X17.937 Y16.876 Z-4.604 F200.000
G1 X17.933 Y17.071 Z-4.621 F200.000
G1 X17.892 Y17.260 Z-4.638 F200.000
G1 X17.814 Y17.438 Z-4.655 F200.000
G1 X17.703 Y17.597 Z-4.673 F200.000
G1 X17.564 Y17.732 Z-4.690 F200.000
G1 X17.400 Y17.837 Z-4.707 F200.000
G1 X17.220 Y17.908 Z-4.724 F200.000
G1 X17.029 Y17.942 Z-4.741 F200.000
G1 X16.834 Y17.938 Z-4.758 F200.000
G1 X16.645 Y17.897 Z-4.776 F200.000
G1 X16.467 Y17.819 Z-4.793 F200.000
G1 X16.308 Y17.708 Z-4.810 F200.000
G1 X16.173 Y17.569 Z-4.827 F200.000
G1 X16.068 Y17.405 Z-4.844 F200.000
G1 X15.997 Y17.225 Z-4.861 F200.000
G1 X15.963 Y17.034 Z-4.879 F200.000
G1 X15.967 Y16.839 Z-4.896 F200.000
G1 X16.008 Y16.650 Z-4.913 F200.000
G1 X16.086 Y16.472 Z-4.930 F200.000
G1 X16.197 Y16.313 Z-4.947 F200.000
G1 X16.336 Y16.178 Z-4.965 F200.000
G1 X16.500 Y16.073 Z-4.982 F200.000
G1 X16.680 Y16.002 Z-4.999 F200.000
G1 X16.871 Y15.968 Z-5.016 F200.000
G1 X17.066 Y15.972 Z-5.033 F200.000
G1 X17.255 Y16.013 Z-5.050 F200.000
G1 X17.433 Y16.091 Z-5.068 F200.000
G1 X17.592 Y16.202 Z-5.085 F200.000
G1 X17.727 Y16.341 Z-5.102 F200.000
G1 X17.832 Y16.505 Z-5.119 F200.000
G1 X17.903 Y16.685 Z-5.136 F200.000
G1 X17.937 Y16.876 Z-5.154 F200.000
G1 X17.933 Y17.071 Z-5.171 F200.000
G1 X17.892 Y17.260 Z-5.188 F200.000
G1 X17.814 Y17.438 Z-5.205 F200.000
G1 X17.703 Y17.597 Z-5.222 F200.000
G1 X17.564 Y17.732 Z-5.239 F200.000
G1 X17.400 Y17.837 Z-5.257 F200.000
G1 X17.220 Y17.908 Z-5.274 F200.000
G1 X17.029 Y17.942 Z-5.291 F200.000
G1 X16.834 Y17.938 Z-5.308 F200.000
G1 X16.645 Y17.897 Z-5.325 F200.000
G1 X16.467 Y17.819 Z-5.342 F200.000
G1 X16.308 Y17.708 Z-5.360 F200.000
G1 X16.173 Y17.569 Z-5.377 F200.000
G1 X16.068 Y17.405 Z-5.394 F200.000
G1 X15.997 Y17.225 Z-5.411 F200.000
G1 X15.963 Y17.034 Z-5.428 F200.000
G1 X15.967 Y16.839 Z-5.446 F200.000
G1 X16.008 Y16.650 Z-5.463 F200.000
G1 X16.086 Y16.472 Z-5.480 F200.000
G1 X16.197 Y16.313 Z-5.497 F200.000
G1 X16.336 Y16.178 Z-5.514 F200.000
G1 X16.500 Y16.073 Z-5.531 F200.000
G1 X16.680 Y16.002 Z-5.549 F200.000
G1 X16.871 Y15.968 Z-5.566 F200.000
G1 X17.066 Y15.972 Z-5.583 F200.000
G1 X17.255 Y16.013 Z-5.600 F200.000
G1 X17.433 Y16.091 Z-5.617 F200.000
G1 X17.592 Y16.202 Z-5.635 F200.000
G1 X17.727 Y16.341 Z-5.652 F200.000
G1 X17.832 Y16.505 Z-5.669 F200.000
G1 X17.903 Y16.685 Z-5.686 F200.000
G1 X17.937 Y16.876 Z-5.703 F200.000
G1 X17.933 Y17.071 Z-5.720 F200.000
G1 X17.892 Y17.260 Z-5.738 F200.000
G1 X17.814 Y17.438 Z-5.755 F200.000
G1 X17.703 Y17.597 Z-5.772 F200.000
G1 X17.564 Y17.732 Z-5.789 F200.000
G1 X17.400 Y17.837 Z-5.806 F200.000
G1 X17.220 Y17.908 Z-5.823 F200.000
G1 X17.029 Y17.942 Z-5.841 F200.000
G1 X16.834 Y17.938 Z-5.858 F200.000
G1 X16.645 Y17.897 Z-5.875 F200.000
G1 X16.467 Y17.819 Z-5.892 F200.000
G1 X16.308 Y17.708 Z-5.909 F200.000
G1 X16.173 Y17.569 Z-5.927 F200.000
G1 X16.068 Y17.405 Z-5.944 F200.000
G1 X15.997 Y17.225 Z-5.961 F200.000
G1 X15.963 Y17.034 Z-5.978 F200.000
G1 X15.967 Y16.839 Z-5.995 F200.000
G1 X16.008 Y16.650 Z-6.012 F200.000
G1 X16.086 Y16.472 Z-6.030 F200.000
G1 X16.197 Y16.313 Z-6.047 F200.000
G1 X16.336 Y16.178 Z-6.064 F200.000
G1 X16.500 Y16.073 Z-6.081 F200.000
G1 X16.680 Y16.002 Z-6.098 F200.000
G1 X16.871 Y15.968 Z-6.115 F200.000
G1 X17.066 Y15.972 Z-6.133 F200.000
G1 X17.255 Y16.013 Z-6.150 F200.000
G1 X17.433 Y16.091 Z-6.167 F200.000
G1 X17.592 Y16.202 Z-6.184 F200.000
G1 X17.727 Y16.341 Z-6.201 F200.000
G1 X17.832 Y16.505 Z-6.219 F200.000
G1 X17.903 Y16.685 Z-6.236 F200.000
G1 X17.937 Y16.876 Z-6.253 F200.000
G1 X17.933 Y17.071 Z-6.270 F200.000
G1 X17.892 Y17.260 Z-6.287 F200.000
G1 X17.814 Y17.438 Z-6.304 F200.000
G1 X17.703 Y17.597 Z-6.322 F200.000
G1 X17.564 Y17.732 Z-6.339 F200.000
G1 X17.400 Y17.837 Z-6.356 F200.000
G1 X17.220 Y17.908 Z-6.373 F200.000
G1 X17.029 Y17.942 Z-6.390 F200.000
G1 X16.834 Y17.938 Z-6.408 F200.000
G1 X16.645 Y17.897 Z-6.425 F200.000
G1 X16.467 Y17.819 Z-6.442 F200.000
G1 X16.308 Y17.708 Z-6.459 F200.000
G1 X16.173 Y17.569 Z-6.476 F200.000
G1 X16.068 Y17.405 Z-6.493 F200.000
G1 X15.997 Y17.225 Z-6.511 F200.000
G1 X15.963 Y17.034 Z-6.528 F200.000
G1 X15.967 Y16.839 Z-6.545 F200.000
G1 X16.008 Y16.650 Z-6.562 F200.000
G1 X16.086 Y16.472 Z-6.579 F200.000
G1 X16.197 Y16.313 Z-6.596 F200.000
G1 X16.336 Y16.178 Z-6.614 F200.000
G1 X16.500 Y16.073 Z-6.631 F200.000
G1 X16.680 Y16.002 Z-6.648 F200.000
G1 X16.871 Y15.968 Z-6.665 F200.000
G1 X17.066 Y15.972 Z-6.682 F200.000
G1 X17.255 Y16.013 Z-6.700 F200.000
G1 X17.433 Y16.091 Z-6.717 F200.000
G1 X17.592 Y16.202 Z-6.734 F200.000
G1 X17.727 Y16.341 Z-6.751 F200.000
G1 X17.832 Y16.505 Z-6.768 F200.000
G1 X17.903 Y16.685 Z-6.785 F200.000
G1 X17.937 Y16.876 Z-6.803 F200.000
G1 X17.933 Y17.071 Z-6.820 F200.000
G1 X17.892 Y17.260 Z-6.837 F200.000
G1 X17.814 Y17.438 Z-6.854 F200.000
G1 X17.703 Y17.597 Z-6.871 F200.000
G1 X17.564 Y17.732 Z-6.889 F200.000
G1 X17.400 Y17.837 Z-6.906 F200.000
G1 X17.220 Y17.908 Z-6.923 F200.000
G1 X17.029 Y17.942 Z-6.940 F200.000
G1 X16.834 Y17.938 Z-6.957 F200.000
G1 X16.645 Y17.897 Z-6.974 F200.000
G1 X16.467 Y17.819 Z-6.992 F200.000
G1 X16.308 Y17.708 Z-7.009 F200.000
G1 X16.173 Y17.569 Z-7.026 F200.000
G1 X16.068 Y17.405 Z-7.043 F200.000
G1 X15.997 Y17.225 Z-7.060 F200.000
G1 X15.963 Y17.034 Z-7.077 F200.000
G1 X15.967 Y16.839 Z-7.095 F200.000
G1 X16.008 Y16.650 Z-7.112 F200.000
G1 X16.086 Y16.472 Z-7.129 F200.000
G1 X16.197 Y16.313 Z-7.146 F200.000
G1 X16.336 Y16.178 Z-7.163 F200.000
G1 X16.500 Y16.073 Z-7.181 F200.000
G1 X16.680 Y16.002 Z-7.198 F200.000
G1 X16.871 Y15.968 Z-7.215 F200.000
G1 X17.066 Y15.972 Z-7.232 F200.000
G1 X17.255 Y16.013 Z-7.249 F200.000
G1 X17.433 Y16.091 Z-7.266 F200.000
G1 X17.592 Y16.202 Z-7.284 F200.000
G1 X17.727 Y16.341 Z-7.301 F200.000
G1 X17.832 Y16.505 Z-7.318 F200.000
G1 X17.903 Y16.685 Z-7.335 F200.000
G1 X17.937 Y16.876 Z-7.352 F200.000
G1 X17.933 Y17.071 Z-7.370 F200.000
G1 X17.892 Y17.260 Z-7.387 F200.000
G1 X17.814 Y17.438 Z-7.404 F200.000
G1 X17.703 Y17.597 Z-7.421 F200.000
G1 X17.564 Y17.732 Z-7.438 F200.000
G1 X17.400 Y17.837 Z-7.455 F200.000
G1 X17.220 Y17.908 Z-7.473 F200.000
G1 X17.029 Y17.942 Z-7.490 F200.000
G1 X16.834 Y17.938 Z-7.507 F200.000
G1 X16.645 Y17.897 Z-7.524 F200.000
G1 X16.467 Y17.819 Z-7.541 F200.000
G1 X16.308 Y17.708 Z-7.558 F200.000
G1 X16.173 Y17.569 Z-7.576 F200.000
G1 X16.068 Y17.405 Z-7.593 F200.000
G1 X15.997 Y17.225 Z-7.610 F200.000
G1 X15.963 Y17.034 Z-7.627 F200.000
G1 X15.967 Y16.839 Z-7.644 F200.000
G1 X16.008 Y16.650 Z-7.662 F200.000
G1 X16.086 Y16.472 Z-7.679 F200.000
G1 X16.197 Y16.313 Z-7.696 F200.000
G1 X16.336 Y16.178 Z-7.713 F200.000
G1 X16.500 Y16.073 Z-7.730 F200.000
G1 X16.680 Y16.002 Z-7.747 F200.000
G1 X16.871 Y15.968 Z-7.765 F200.000
G1 X17.066 Y15.972 Z-7.782 F200.000
G1 X17.255 Y16.013 Z-7.799 F200.000
G1 X17.433 Y16.091 Z-7.816 F200.000
G1 X17.592 Y16.202 Z-7.833 F200.000
G1 X17.727 Y16.341 Z-7.851 F200.000
G1 X17.832 Y16.505 Z-7.868 F200.000
G1 X17.903 Y16.685 Z-7.885 F200.000
G1 X17.937 Y16.876 Z-7.902 F200.000
G1 X17.933 Y17.071 Z-7.919 F200.000
G1 X17.892 Y17.260 Z-7.936 F200.000
G1 X17.814 Y17.438 Z-7.954 F200.000
G1 X17.703 Y17.597 Z-7.971 F200.000
G1 X17.564 Y17.732 Z-7.988 F200.000
G1 X17.400 Y17.837 Z-8.005 F200.000
G1 X17.220 Y17.908 Z-8.022 F200.000
G1 X17.029 Y17.942 Z-8.039 F200.000
G1 X16.834 Y17.938 Z-8.057 F200.000
G1 X16.645 Y17.897 Z-8.074 F200.000
G1 X16.467 Y17.819 Z-8.091 F200.000
G1 X16.308 Y17.708 Z-8.108 F200.000
G1 X16.173 Y17.569 Z-8.125 F200.000
G1 X16.068 Y17.405 Z-8.143 F200.000
G1 X15.997 Y17.225 Z-8.160 F200.000
G1 X15.963 Y17.034 Z-8.177 F200.000
G1 X15.967 Y16.839 Z-8.194 F200.000
G1 X16.008 Y16.650 Z-8.211 F200.000
G1 X16.086 Y16.472 Z-8.228 F200.000
G1 X16.197 Y16.313 Z-8.246 F200.000
G1 X16.336 Y16.178 Z-8.263 F200.000
G1 X16.500 Y16.073 Z-8.280 F200.000
G1 X16.680 Y16.002 Z-8.297 F200.000
G1 X16.871 Y15.968 Z-8.314 F200.000
G1 X17.066 Y15.972 Z-8.332 F200.000
G1 X17.255 Y16.013 Z-8.349 F200.000
G1 X17.433 Y16.091 Z-8.366 F200.000
G1 X17.592 Y16.202 Z-8.383 F200.000
G1 X17.727 Y16.341 Z-8.400 F200.000
G1 X17.832 Y16.505 Z-8.417 F200.000
G1 X17.903 Y16.685 Z-8.435 F200.000
G1 X17.937 Y16.876 Z-8.452 F200.000
G1 X17.933 Y17.071 Z-8.469 F200.000
G1 X17.892 Y17.260 Z-8.486 F200.000
G1 X17.814 Y17.438 Z-8.503 F200.000
G1 X17.703 Y17.597 Z-8.520 F200.000
G1 X17.564 Y17.732 Z-8.538 F200.000
G1 X17.400 Y17.837 Z-8.555 F200.000
G1 X17.220 Y17.908 Z-8.572 F200.000
G1 X17.029 Y17.942 Z-8.589 F200.000
G1 X16.834 Y17.938 Z-8.606 F200.000
G1 X16.645 Y17.897 Z-8.624 F200.000
G1 X16.467 Y17.819 Z-8.641 F200.000
G1 X16.308 Y17.708 Z-8.658 F200.000
G1 X16.173 Y17.569 Z-8.675 F200.000
G1 X16.068 Y17.405 Z-8.692 F200.000
G1 X15.997 Y17.225 Z-8.709 F200.000
G1 X15.963 Y17.034 Z-8.727 F200.000
G1 X15.967 Y16.839 Z-8.744 F200.000
G1 X16.008 Y16.650 Z-8.761 F200.000
G1 X16.086 Y16.472 Z-8.778 F200.000
G1 X16.197 Y16.313 Z-8.795 F200.000
G1 X16.336 Y16.178 Z-8.812 F200.000
G1 X16.500 Y16.073 Z-8.830 F200.000
G1 X16.680 Y16.002 Z-8.847 F200.000
G1 X16.871 Y15.968 Z-8.864 F200.000
G1 X17.066 Y15.972 Z-8.881 F200.000
G1 X17.255 Y16.013 Z-8.898 F200.000
G1 X17.433 Y16.091 Z-8.916 F200.000
G1 X17.592 Y16.202 Z-8.933 F200.000
G1 X17.727 Y16.341 Z-8.950 F200.000
G1 X17.832 Y16.505 Z-8.967 F200.000
G1 X17.903 Y16.685 Z-8.984 F200.000
G1 X17.937 Y16.876 Z-9.001 F200.000
G1 X17.933 Y17.071 Z-9.019 F200.000
G1 X17.892 Y17.260 Z-9.036 F200.000
G1 X17.814 Y17.438 Z-9.053 F200.000
G1 X17.703 Y17.597 Z-9.070 F200.000
G1 X17.564 Y17.732 Z-9.087 F200.000
G1 X17.400 Y17.837 Z-9.105 F200.000
G1 X17.220 Y17.908 Z-9.122 F200.000
G1 X17.029 Y17.942 Z-9.139 F200.000
G1 X16.834 Y17.938 Z-9.156 F200.000
G1 X16.645 Y17.897 Z-9.173 F200.000
G1 X16.467 Y17.819 Z-9.190 F200.000
G1 X16.308 Y17.708 Z-9.208 F200.000
G1 X16.173 Y17.569 Z-9.225 F200.000
G1 X16.068 Y17.405 Z-9.242 F200.000
G1 X15.997 Y17.225 Z-9.259 F200.000
G1 X15.963 Y17.034 Z-9.276 F200.000
G1 X15.967 Y16.839 Z-9.293 F200.000
G1 X16.008 Y16.650 Z-9.311 F200.000
G1 X16.086 Y16.472 Z-9.328 F200.000
G1 X16.197 Y16.313 Z-9.345 F200.000
G1 X16.336 Y16.178 Z-9.362 F200.000
G1 X16.500 Y16.073 Z-9.379 F200.000
G1 X16.680 Y16.002 Z-9.397 F200.000
G1 X16.871 Y15.968 Z-9.414 F200.000
G1 X17.066 Y15.972 Z-9.431 F200.000
G1 X17.255 Y16.013 Z-9.448 F200.000
G1 X17.433 Y16.091 Z-9.465 F200.000
G1 X17.592 Y16.202 Z-9.482 F200.000
G1 X17.727 Y16.341 Z-9.500 F200.000
G1 X17.832 Y16.505 Z-9.517 F200.000
G1 X17.903 Y16.685 Z-9.534 F200.000
G1 X17.937 Y16.876 Z-9.551 F200.000
G1 X17.933 Y17.071 Z-9.568 F200.000
G1 X17.892 Y17.260 Z-9.586 F200.000
G1 X17.814 Y17.438 Z-9.603 F200.000
G1 X17.703 Y17.597 Z-9.620 F200.000
G1 X17.564 Y17.732 Z-9.637 F200.000
G1 X17.400 Y17.837 Z-9.654 F200.000
G1 X17.220 Y17.908 Z-9.671 F200.000
G1 X17.029 Y17.942 Z-9.689 F200.000
G1 X16.834 Y17.938 Z-9.706 F200.000
G1 X16.645 Y17.897 Z-9.723 F200.000
G1 X16.467 Y17.819 Z-9.740 F200.000
G1 X16.308 Y17.708 Z-9.757 F200.000
G1 X16.173 Y17.569 Z-9.774 F200.000
G1 X16.068 Y17.405 Z-9.792 F200.000
G1 X15.997 Y17.225 Z-9.809 F200.000
G1 X15.963 Y17.034 Z-9.826 F200.000
G1 X15.967 Y16.839 Z-9.843 F200.000
G1 X16.008 Y16.650 Z-9.860 F200.000
G1 X16.086 Y16.472 Z-9.878 F200.000
G1 X16.197 Y16.313 Z-9.895 F200.000
G1 X16.336 Y16.178 Z-9.912 F200.000
G1 X16.500 Y16.073 Z-9.929 F200.000
G1 X16.680 Y16.002 Z-9.946 F200.000
G1 X16.871 Y15.968 Z-9.963 F200.000
G1 X17.066 Y15.972 Z-9.981 F200.000
G1 X17.255 Y16.013 Z-9.998 F200.000
G1 X17.433 Y16.091 Z-10.015 F200.000
G1 X17.592 Y16.202 Z-10.032 F200.000
G1 X17.727 Y16.341 Z-10.049 F200.000
G1 X17.832 Y16.505 Z-10.067 F200.000
G1 X17.903 Y16.685 Z-10.084 F200.000
G1 X17.937 Y16.876 Z-10.101 F200.000
G1 X17.933 Y17.071 Z-10.118 F200.000
G1 X17.892 Y17.260 Z-10.135 F200.000
G1 X17.814 Y17.438 Z-10.152 F200.000
G1 X17.703 Y17.597 Z-10.170 F200.000
G1 X17.564 Y17.732 Z-10.187 F200.000
G1 X17.400 Y17.837 Z-10.204 F200.000
G1 X17.220 Y17.908 Z-10.221 F200.000
G1 X17.029 Y17.942 Z-10.238 F200.000
G1 X16.834 Y17.938 Z-10.255 F200.000
G1 X16.645 Y17.897 Z-10.273 F200.000
G1 X16.467 Y17.819 Z-10.290 F200.000
G1 X16.308 Y17.708 Z-10.307 F200.000
G1 X16.173 Y17.569 Z-10.324 F200.000
G1 X16.068 Y17.405 Z-10.341 F200.000
G1 X15.997 Y17.225 Z-10.359 F200.000
G1 X15.963 Y17.034 Z-10.376 F200.000
G1 X15.967 Y16.839 Z-10.393 F200.000
G1 X16.008 Y16.650 Z-10.410 F200.000
G1 X16.086 Y16.472 Z-10.427 F200.000
G1 X16.197 Y16.313 Z-10.444 F200.000
G1 X16.336 Y16.178 Z-10.462 F200.000
G1 X16.500 Y16.073 Z-10.479 F200.000
G1 X16.680 Y16.002 Z-10.496 F200.000
G1 X16.871 Y15.968 Z-10.513 F200.000
G1 X17.066 Y15.972 Z-10.530 F200.000
G1 X17.255 Y16.013 Z-10.548 F200.000
G1 X17.433 Y16.091 Z-10.565 F200.000
G1 X17.592 Y16.202 Z-10.582 F200.000
G1 X17.727 Y16.341 Z-10.599 F200.000
G1 X17.832 Y16.505 Z-10.616 F200.000
G1 X17.903 Y16.685 Z-10.633 F200.000
G1 X17.937 Y16.876 Z-10.651 F200.000
G1 X17.933 Y17.071 Z-10.668 F200.000
G1 X17.892 Y17.260 Z-10.685 F200.000
G1 X17.814 Y17.438 Z-10.702 F200.000
G1 X17.703 Y17.597 Z-10.719 F200.000
G1 X17.564 Y17.732 Z-10.736 F200.000
G1 X17.400 Y17.837 Z-10.754 F200.000
G1 X17.220 Y17.908 Z-10.771 F200.000
G1 X17.029 Y17.942 Z-10.788 F200.000
G1 X16.834 Y17.938 Z-10.805 F200.000
G1 X16.645 Y17.897 Z-10.822 F200.000
G1 X16.467 Y17.819 Z-10.840 F200.000
G1 X16.308 Y17.708 Z-10.857 F200.000
G1 X16.173 Y17.569 Z-10.874 F200.000
G1 X16.068 Y17.405 Z-10.891 F200.000
G1 X15.997 Y17.225 Z-10.908 F200.000
G1 X15.963 Y17.034 Z-10.925 F200.000
G1 X15.967 Y16.839 Z-10.943 F200.000
G1 X16.008 Y16.650 Z-10.960 F200.000
G1 X16.086 Y16.472 Z-10.977 F200.000
G1 X16.197 Y16.313 Z-10.994 F200.000
G1 X16.336 Y16.178 Z-11.011 F200.000
G1 X16.500 Y16.073 Z-11.029 F200.000
G1 X16.680 Y16.002 Z-11.046 F200.000
G1 X16.871 Y15.968 Z-11.063 F200.000
G1 X17.066 Y15.972 Z-11.080 F200.000
G1 X17.255 Y16.013 Z-11.097 F200.000
G1 X17.433 Y16.091 Z-11.114 F200.000
G1 X17.592 Y16.202 Z-11.132 F200.000
G1 X17.727 Y16.341 Z-11.149 F200.000
G1 X17.832 Y16.505 Z-11.166 F200.000
G1 X17.903 Y16.685 Z-11.183 F200.000
G1 X17.937 Y16.876 Z-11.200 F200.000
G1 X17.933 Y17.071 Z-11.217 F200.000
G1 X17.892 Y17.260 Z-11.235 F200.000
G1 X17.814 Y17.438 Z-11.252 F200.000
G1 X17.703 Y17.597 Z-11.269 F200.000
G1 X17.564 Y17.732 Z-11.286 F200.000
G1 X17.400 Y17.837 Z-11.303 F200.000
G1 X17.220 Y17.908 Z-11.321 F200.000
G1 X17.029 Y17.942 Z-11.338 F200.000
G1 X16.834 Y17.938 Z-11.355 F200.000
G1 X16.645 Y17.897 Z-11.372 F200.000
G1 X16.467 Y17.819 Z-11.389 F200.000
G1 X16.308 Y17.708 Z-11.406 F200.000
G1 X16.173 Y17.569 Z-11.424 F200.000
G1 X16.068 Y17.405 Z-11.441 F200.000
G1 X15.997 Y17.225 Z-11.458 F200.000
G1 X15.963 Y17.034 Z-11.475 F200.000
G1 X15.967 Y16.839 Z-11.492 F200.000
G1 X16.008 Y16.650 Z-11.510 F200.000
G1 X16.086 Y16.472 Z-11.527 F200.000
G1 X16.197 Y16.313 Z-11.544 F200.000
G1 X16.336 Y16.178 Z-11.561 F200.000
G1 X16.500 Y16.073 Z-11.578 F200.000
G1 X16.680 Y16.002 Z-11.595 F200.000
G1 X16.871 Y15.968 Z-11.613 F200.000
G1 X17.066 Y15.972 Z-11.630 F200.000
G1 X17.255 Y16.013 Z-11.647 F200.000
G1 X17.433 Y16.091 Z-11.664 F200.000
G1 X17.592 Y16.202 Z-11.681 F200.000
G1 X17.727 Y16.341 Z-11.698 F200.000
G1 X17.832 Y16.505 Z-11.716 F200.000
G1 X17.903 Y16.685 Z-11.733 F200.000
G1 X17.937 Y16.876 Z-11.750 F200.000
G1 X17.933 Y17.071 Z-11.767 F200.000
G1 X17.892 Y17.260 Z-11.784 F200.000
G1 X17.814 Y17.438 Z-11.802 F200.000
G1 X17.703 Y17.597 Z-11.819 F200.000
G1 X17.564 Y17.732 Z-11.836 F200.000
G1 X17.400 Y17.837 Z-11.853 F200.000
G1 X17.220 Y17.908 Z-11.870 F200.000
G1 X17.029 Y17.942 Z-11.887 F200.000
G1 X16.834 Y17.938 Z-11.905 F200.000
G1 X16.645 Y17.897 Z-11.922 F200.000
G1 X16.467 Y17.819 Z-11.939 F200.000
G1 X16.308 Y17.708 Z-11.956 F200.000
G1 X16.173 Y17.569 Z-11.973 F200.000
G1 X16.068 Y17.405 Z-11.990 F200.000
G1 X15.997 Y17.225 Z-12.008 F200.000
G1 X15.963 Y17.034 Z-12.025 F200.000
G1 X15.967 Y16.839 Z-12.042 F200.000
G1 X16.008 Y16.650 Z-12.059 F200.000
G1 X16.086 Y16.472 Z-12.076 F200.000
G1 X16.197 Y16.313 Z-12.094 F200.000
G1 X16.336 Y16.178 Z-12.111 F200.000
G1 X16.500 Y16.073 Z-12.128 F200.000
G1 X16.680 Y16.002 Z-12.145 F200.000
G1 X16.871 Y15.968 Z-12.162 F200.000
G1 X17.066 Y15.972 Z-12.179 F200.000
G1 X17.255 Y16.013 Z-12.197 F200.000
G1 X17.433 Y16.091 Z-12.214 F200.000
G1 X17.592 Y16.202 Z-12.231 F200.000
G1 X17.727 Y16.341 Z-12.248 F200.000
G1 X17.832 Y16.505 Z-12.265 F200.000
G1 X17.903 Y16.685 Z-12.283 F200.000
G1 X17.937 Y16.876 Z-12.300 F200.000
G1 X17.933 Y17.071 Z-12.317 F200.000
G1 X17.892 Y17.260 Z-12.334 F200.000
G1 X17.814 Y17.438 Z-12.351 F200.000
G1 X17.703 Y17.597 Z-12.368 F200.000
G1 X17.564 Y17.732 Z-12.386 F200.000
G1 X17.400 Y17.837 Z-12.403 F200.000
G1 X17.220 Y17.908 Z-12.420 F200.000
G1 X17.029 Y17.942 Z-12.437 F200.000
G1 X16.834 Y17.938 Z-12.454 F200.000
G1 X16.645 Y17.897 Z-12.471 F200.000
G1 X16.467 Y17.819 Z-12.489 F200.000
G1 X16.308 Y17.708 Z-12.506 F200.000
G1 X16.173 Y17.569 Z-12.523 F200.000
G1 X16.068 Y17.405 Z-12.540 F200.000
G1 X15.997 Y17.225 Z-12.557 F200.000
G1 X15.963 Y17.034 Z-12.575 F200.000
G1 X15.967 Y16.839 Z-12.592 F200.000
G1 X16.008 Y16.650 Z-12.609 F200.000
G1 X16.086 Y16.472 Z-12.626 F200.000
G1 X16.197 Y16.313 Z-12.643 F200.000
G1 X16.336 Y16.178 Z-12.660 F200.000
G1 X16.500 Y16.073 Z-12.678 F200.000
G1 X16.680 Y16.002 Z-12.695 F200.000
G1 X16.871 Y15.968 Z-12.712 F200.000
G1 X17.066 Y15.972 Z-12.729 F200.000
G1 X17.255 Y16.013 Z-12.746 F200.000
G1 X17.433 Y16.091 Z-12.764 F200.000
G1 X17.592 Y16.202 Z-12.781 F200.000
G1 X17.727 Y16.341 Z-12.798 F200.000
G1 X17.832 Y16.505 Z-12.815 F200.000
G1 X17.903 Y16.685 Z-12.832 F200.000
G1 X17.937 Y16.876 Z-12.849 F200.000
G1 X17.933 Y17.071 Z-12.867 F200.000
G1 X17.892 Y17.260 Z-12.884 F200.000
G1 X17.814 Y17.438 Z-12.901 F200.000
G1 X17.703 Y17.597 Z-12.918 F200.000
G1 X17.564 Y17.732 Z-12.935 F200.000
G1 X17.400 Y17.837 Z-12.952 F200.000
G1 X17.220 Y17.908 Z-12.970 F200.000
G1 X17.029 Y17.942 Z-12.987 F200.000
G1 X16.834 Y17.938 Z-13.004 F200.000
G1 X16.645 Y17.897 Z-13.021 F200.000
G1 X16.467 Y17.819 Z-13.038 F200.000
G1 X16.308 Y17.708 Z-13.056 F200.000
G1 X16.173 Y17.569 Z-13.073 F200.000
G1 X16.068 Y17.405 Z-13.090 F200.000
G1 X15.997 Y17.225 Z-13.107 F200.000
G1 X15.963 Y17.034 Z-13.124 F200.000
G1 X15.967 Y16.839 Z-13.141 F200.000
G1 X16.008 Y16.650 Z-13.159 F200.000
G1 X16.086 Y16.472 Z-13.176 F200.000
