(Exported by FreeCAD)
(Post Processor: script_module)
(Output Time:2025-04-02 17:19:32.940009)
(Begin preamble)
G17 G90
G21
(Block-name: Fixture)
(Block-expand: 0)
(Block-enable: 1)
(Begin operation: Fixture)
(Path: Fixture)
G54
(Finish operation: Fixture)
(Block-name: 3mm Endmill003)
(Block-expand: 0)
(Block-enable: 1)
(Begin operation: 3mm Endmill003)
(Path: 3mm Endmill003)
(3mm Endmill003)
(Begin toolchange)
( M6 T2 )
M3 S10000
(Finish operation: 3mm Endmill003)
(Block-name: Adaptive001)
(Block-expand: 0)
(Block-enable: 1)
(Begin operation: Adaptive001)
(Path: Adaptive001)
(Adaptive001)
(Helix to depth: -6.000000)
G0 Z5.000
G0 X0.329 Y-0.934 Z5.000
G0 X0.329 Y-0.934 Z3.000
G1 X0.329 Y-0.934 Z0.000 F200.000
G1 X0.329 Y-0.934 Z0.000 F200.000
G1 X0.505 Y-0.852 Z-0.017 F200.000
G1 X0.661 Y-0.737 Z-0.034 F200.000
G1 X0.792 Y-0.594 Z-0.052 F200.000
G1 X0.893 Y-0.428 Z-0.069 F200.000
G1 X0.959 Y-0.246 Z-0.086 F200.000
G1 X0.989 Y-0.054 Z-0.103 F200.000
G1 X0.980 Y0.140 Z-0.120 F200.000
G1 X0.934 Y0.329 Z-0.137 F200.000
G1 X0.852 Y0.505 Z-0.155 F200.000
G1 X0.737 Y0.661 Z-0.172 F200.000
G1 X0.594 Y0.792 Z-0.189 F200.000
G1 X0.428 Y0.893 Z-0.206 F200.000
G1 X0.246 Y0.959 Z-0.223 F200.000
G1 X0.054 Y0.989 Z-0.240 F200.000
G1 X-0.140 Y0.980 Z-0.258 F200.000
G1 X-0.329 Y0.934 Z-0.275 F200.000
G1 X-0.505 Y0.852 Z-0.292 F200.000
G1 X-0.661 Y0.737 Z-0.309 F200.000
G1 X-0.792 Y0.594 Z-0.326 F200.000
G1 X-0.893 Y0.428 Z-0.344 F200.000
G1 X-0.959 Y0.246 Z-0.361 F200.000
G1 X-0.989 Y0.054 Z-0.378 F200.000
G1 X-0.980 Y-0.140 Z-0.395 F200.000
G1 X-0.934 Y-0.329 Z-0.412 F200.000
G1 X-0.852 Y-0.505 Z-0.429 F200.000
G1 X-0.737 Y-0.661 Z-0.447 F200.000
G1 X-0.594 Y-0.792 Z-0.464 F200.000
G1 X-0.428 Y-0.893 Z-0.481 F200.000
G1 X-0.246 Y-0.959 Z-0.498 F200.000
G1 X-0.054 Y-0.989 Z-0.515 F200.000
G1 X0.140 Y-0.980 Z-0.533 F200.000
G1 X0.329 Y-0.934 Z-0.550 F200.000
G1 X0.505 Y-0.852 Z-0.567 F200.000
G1 X0.661 Y-0.737 Z-0.584 F200.000
G1 X0.792 Y-0.594 Z-0.601 F200.000
G1 X0.893 Y-0.428 Z-0.618 F200.000
G1 X0.959 Y-0.246 Z-0.636 F200.000
G1 X0.989 Y-0.054 Z-0.653 F200.000
G1 X0.980 Y0.140 Z-0.670 F200.000
G1 X0.934 Y0.329 Z-0.687 F200.000
G1 X0.852 Y0.505 Z-0.704 F200.000
G1 X0.737 Y0.661 Z-0.721 F200.000
G1 X0.594 Y0.792 Z-0.739 F200.000
G1 X0.428 Y0.893 Z-0.756 F200.000
G1 X0.246 Y0.959 Z-0.773 F200.000
G1 X0.054 Y0.989 Z-0.790 F200.000
G1 X-0.140 Y0.980 Z-0.807 F200.000
G1 X-0.329 Y0.934 Z-0.825 F200.000
G1 X-0.505 Y0.852 Z-0.842 F200.000
G1 X-0.661 Y0.737 Z-0.859 F200.000
G1 X-0.792 Y0.594 Z-0.876 F200.000
G1 X-0.893 Y0.428 Z-0.893 F200.000
G1 X-0.959 Y0.246 Z-0.910 F200.000
G1 X-0.989 Y0.054 Z-0.928 F200.000
G1 X-0.980 Y-0.140 Z-0.945 F200.000
G1 X-0.934 Y-0.329 Z-0.962 F200.000
G1 X-0.852 Y-0.505 Z-0.979 F200.000
G1 X-0.737 Y-0.661 Z-0.996 F200.000
G1 X-0.594 Y-0.792 Z-1.014 F200.000
G1 X-0.428 Y-0.893 Z-1.031 F200.000
G1 X-0.246 Y-0.959 Z-1.048 F200.000
G1 X-0.054 Y-0.989 Z-1.065 F200.000
G1 X0.140 Y-0.980 Z-1.082 F200.000
G1 X0.329 Y-0.934 Z-1.099 F200.000
G1 X0.505 Y-0.852 Z-1.117 F200.000
G1 X0.661 Y-0.737 Z-1.134 F200.000
G1 X0.792 Y-0.594 Z-1.151 F200.000
G1 X0.893 Y-0.428 Z-1.168 F200.000
G1 X0.959 Y-0.246 Z-1.185 F200.000
G1 X0.989 Y-0.054 Z-1.202 F200.000
G1 X0.980 Y0.140 Z-1.220 F200.000
G1 X0.934 Y0.329 Z-1.237 F200.000
G1 X0.852 Y0.505 Z-1.254 F200.000
G1 X0.737 Y0.661 Z-1.271 F200.000
G1 X0.594 Y0.792 Z-1.288 F200.000
G1 X0.428 Y0.893 Z-1.306 F200.000
G1 X0.246 Y0.959 Z-1.323 F200.000
G1 X0.054 Y0.989 Z-1.340 F200.000
G1 X-0.140 Y0.980 Z-1.357 F200.000
G1 X-0.329 Y0.934 Z-1.374 F200.000
G1 X-0.505 Y0.852 Z-1.391 F200.000
G1 X-0.661 Y0.737 Z-1.409 F200.000
G1 X-0.792 Y0.594 Z-1.426 F200.000
G1 X-0.893 Y0.428 Z-1.443 F200.000
G1 X-0.959 Y0.246 Z-1.460 F200.000
G1 X-0.989 Y0.054 Z-1.477 F200.000
G1 X-0.980 Y-0.140 Z-1.495 F200.000
G1 X-0.934 Y-0.329 Z-1.512 F200.000
G1 X-0.852 Y-0.505 Z-1.529 F200.000
G1 X-0.737 Y-0.661 Z-1.546 F200.000
G1 X-0.594 Y-0.792 Z-1.563 F200.000
G1 X-0.428 Y-0.893 Z-1.580 F200.000
G1 X-0.246 Y-0.959 Z-1.598 F200.000
G1 X-0.054 Y-0.989 Z-1.615 F200.000
G1 X0.140 Y-0.980 Z-1.632 F200.000
G1 X0.329 Y-0.934 Z-1.649 F200.000
G1 X0.505 Y-0.852 Z-1.666 F200.000
G1 X0.661 Y-0.737 Z-1.683 F200.000
G1 X0.792 Y-0.594 Z-1.701 F200.000
G1 X0.893 Y-0.428 Z-1.718 F200.000
G1 X0.959 Y-0.246 Z-1.735 F200.000
G1 X0.989 Y-0.054 Z-1.752 F200.000
G1 X0.980 Y0.140 Z-1.769 F200.000
G1 X0.934 Y0.329 Z-1.787 F200.000
G1 X0.852 Y0.505 Z-1.804 F200.000
G1 X0.737 Y0.661 Z-1.821 F200.000
G1 X0.594 Y0.792 Z-1.838 F200.000
G1 X0.428 Y0.893 Z-1.855 F200.000
G1 X0.246 Y0.959 Z-1.872 F200.000
G1 X0.054 Y0.989 Z-1.890 F200.000
G1 X-0.140 Y0.980 Z-1.907 F200.000
G1 X-0.329 Y0.934 Z-1.924 F200.000
G1 X-0.505 Y0.852 Z-1.941 F200.000
G1 X-0.661 Y0.737 Z-1.958 F200.000
G1 X-0.792 Y0.594 Z-1.976 F200.000
G1 X-0.893 Y0.428 Z-1.993 F200.000
G1 X-0.959 Y0.246 Z-2.010 F200.000
G1 X-0.989 Y0.054 Z-2.027 F200.000
G1 X-0.980 Y-0.140 Z-2.044 F200.000
G1 X-0.934 Y-0.329 Z-2.061 F200.000
G1 X-0.852 Y-0.505 Z-2.079 F200.000
G1 X-0.737 Y-0.661 Z-2.096 F200.000
G1 X-0.594 Y-0.792 Z-2.113 F200.000
G1 X-0.428 Y-0.893 Z-2.130 F200.000
G1 X-0.246 Y-0.959 Z-2.147 F200.000
G1 X-0.054 Y-0.989 Z-2.164 F200.000
G1 X0.140 Y-0.980 Z-2.182 F200.000
G1 X0.329 Y-0.934 Z-2.199 F200.000
G1 X0.505 Y-0.852 Z-2.216 F200.000
G1 X0.661 Y-0.737 Z-2.233 F200.000
G1 X0.792 Y-0.594 Z-2.250 F200.000
G1 X0.893 Y-0.428 Z-2.268 F200.000
G1 X0.959 Y-0.246 Z-2.285 F200.000
G1 X0.989 Y-0.054 Z-2.302 F200.000
G1 X0.980 Y0.140 Z-2.319 F200.000
G1 X0.934 Y0.329 Z-2.336 F200.000
G1 X0.852 Y0.505 Z-2.353 F200.000
G1 X0.737 Y0.661 Z-2.371 F200.000
G1 X0.594 Y0.792 Z-2.388 F200.000
G1 X0.428 Y0.893 Z-2.405 F200.000
G1 X0.246 Y0.959 Z-2.422 F200.000
G1 X0.054 Y0.989 Z-2.439 F200.000
G1 X-0.140 Y0.980 Z-2.457 F200.000
G1 X-0.329 Y0.934 Z-2.474 F200.000
G1 X-0.505 Y0.852 Z-2.491 F200.000
G1 X-0.661 Y0.737 Z-2.508 F200.000
G1 X-0.792 Y0.594 Z-2.525 F200.000
G1 X-0.893 Y0.428 Z-2.542 F200.000
G1 X-0.959 Y0.246 Z-2.560 F200.000
G1 X-0.989 Y0.054 Z-2.577 F200.000
G1 X-0.980 Y-0.140 Z-2.594 F200.000
G1 X-0.934 Y-0.329 Z-2.611 F200.000
G1 X-0.852 Y-0.505 Z-2.628 F200.000
G1 X-0.737 Y-0.661 Z-2.645 F200.000
G1 X-0.594 Y-0.792 Z-2.663 F200.000
G1 X-0.428 Y-0.893 Z-2.680 F200.000
G1 X-0.246 Y-0.959 Z-2.697 F200.000
G1 X-0.054 Y-0.989 Z-2.714 F200.000
G1 X0.140 Y-0.980 Z-2.731 F200.000
G1 X0.329 Y-0.934 Z-2.749 F200.000
G1 X0.505 Y-0.852 Z-2.766 F200.000
G1 X0.661 Y-0.737 Z-2.783 F200.000
G1 X0.792 Y-0.594 Z-2.800 F200.000
G1 X0.893 Y-0.428 Z-2.817 F200.000
G1 X0.959 Y-0.246 Z-2.834 F200.000
G1 X0.989 Y-0.054 Z-2.852 F200.000
G1 X0.980 Y0.140 Z-2.869 F200.000
G1 X0.934 Y0.329 Z-2.886 F200.000
G1 X0.852 Y0.505 Z-2.903 F200.000
G1 X0.737 Y0.661 Z-2.920 F200.000
G1 X0.594 Y0.792 Z-2.937 F200.000
G1 X0.428 Y0.893 Z-2.955 F200.000
G1 X0.246 Y0.959 Z-2.972 F200.000
G1 X0.054 Y0.989 Z-2.989 F200.000
G1 X-0.140 Y0.980 Z-3.006 F200.000
G1 X-0.329 Y0.934 Z-3.023 F200.000
G1 X-0.505 Y0.852 Z-3.041 F200.000
G1 X-0.661 Y0.737 Z-3.058 F200.000
G1 X-0.792 Y0.594 Z-3.075 F200.000
G1 X-0.893 Y0.428 Z-3.092 F200.000
G1 X-0.959 Y0.246 Z-3.109 F200.000
G1 X-0.989 Y0.054 Z-3.126 F200.000
G1 X-0.980 Y-0.140 Z-3.144 F200.000
G1 X-0.934 Y-0.329 Z-3.161 F200.000
G1 X-0.852 Y-0.505 Z-3.178 F200.000
G1 X-0.737 Y-0.661 Z-3.195 F200.000
G1 X-0.594 Y-0.792 Z-3.212 F200.000
G1 X-0.428 Y-0.893 Z-3.230 F200.000
G1 X-0.246 Y-0.959 Z-3.247 F200.000
G1 X-0.054 Y-0.989 Z-3.264 F200.000
G1 X0.140 Y-0.980 Z-3.281 F200.000
G1 X0.329 Y-0.934 Z-3.298 F200.000
G1 X0.505 Y-0.852 Z-3.315 F200.000
G1 X0.661 Y-0.737 Z-3.333 F200.000
G1 X0.792 Y-0.594 Z-3.350 F200.000
G1 X0.893 Y-0.428 Z-3.367 F200.000
G1 X0.959 Y-0.246 Z-3.384 F200.000
G1 X0.989 Y-0.054 Z-3.401 F200.000
G1 X0.980 Y0.140 Z-3.418 F200.000
G1 X0.934 Y0.329 Z-3.436 F200.000
G1 X0.852 Y0.505 Z-3.453 F200.000
G1 X0.737 Y0.661 Z-3.470 F200.000
G1 X0.594 Y0.792 Z-3.487 F200.000
G1 X0.428 Y0.893 Z-3.504 F200.000
G1 X0.246 Y0.959 Z-3.522 F200.000
G1 X0.054 Y0.989 Z-3.539 F200.000
G1 X-0.140 Y0.980 Z-3.556 F200.000
G1 X-0.329 Y0.934 Z-3.573 F200.000
G1 X-0.505 Y0.852 Z-3.590 F200.000
G1 X-0.661 Y0.737 Z-3.607 F200.000
G1 X-0.792 Y0.594 Z-3.625 F200.000
G1 X-0.893 Y0.428 Z-3.642 F200.000
G1 X-0.959 Y0.246 Z-3.659 F200.000
G1 X-0.989 Y0.054 Z-3.676 F200.000
G1 X-0.980 Y-0.140 Z-3.693 F200.000
G1 X-0.934 Y-0.329 Z-3.711 F200.000
G1 X-0.852 Y-0.505 Z-3.728 F200.000
G1 X-0.737 Y-0.661 Z-3.745 F200.000
G1 X-0.594 Y-0.792 Z-3.762 F200.000
G1 X-0.428 Y-0.893 Z-3.779 F200.000
G1 X-0.246 Y-0.959 Z-3.796 F200.000
G1 X-0.054 Y-0.989 Z-3.814 F200.000
G1 X0.140 Y-0.980 Z-3.831 F200.000
G1 X0.329 Y-0.934 Z-3.848 F200.000
G1 X0.505 Y-0.852 Z-3.865 F200.000
G1 X0.661 Y-0.737 Z-3.882 F200.000
G1 X0.792 Y-0.594 Z-3.899 F200.000
G1 X0.893 Y-0.428 Z-3.917 F200.000
G1 X0.959 Y-0.246 Z-3.934 F200.000
G1 X0.989 Y-0.054 Z-3.951 F200.000
G1 X0.980 Y0.140 Z-3.968 F200.000
G1 X0.934 Y0.329 Z-3.985 F200.000
G1 X0.852 Y0.505 Z-4.003 F200.000
G1 X0.737 Y0.661 Z-4.020 F200.000
G1 X0.594 Y0.792 Z-4.037 F200.000
G1 X0.428 Y0.893 Z-4.054 F200.000
G1 X0.246 Y0.959 Z-4.071 F200.000
G1 X0.054 Y0.989 Z-4.088 F200.000
G1 X-0.140 Y0.980 Z-4.106 F200.000
G1 X-0.329 Y0.934 Z-4.123 F200.000
G1 X-0.505 Y0.852 Z-4.140 F200.000
G1 X-0.661 Y0.737 Z-4.157 F200.000
G1 X-0.792 Y0.594 Z-4.174 F200.000
G1 X-0.893 Y0.428 Z-4.192 F200.000
G1 X-0.959 Y0.246 Z-4.209 F200.000
G1 X-0.989 Y0.054 Z-4.226 F200.000
G1 X-0.980 Y-0.140 Z-4.243 F200.000
G1 X-0.934 Y-0.329 Z-4.260 F200.000
G1 X-0.852 Y-0.505 Z-4.277 F200.000
G1 X-0.737 Y-0.661 Z-4.295 F200.000
G1 X-0.594 Y-0.792 Z-4.312 F200.000
G1 X-0.428 Y-0.893 Z-4.329 F200.000
G1 X-0.246 Y-0.959 Z-4.346 F200.000
G1 X-0.054 Y-0.989 Z-4.363 F200.000
G1 X0.140 Y-0.980 Z-4.380 F200.000
G1 X0.329 Y-0.934 Z-4.398 F200.000
G1 X0.505 Y-0.852 Z-4.415 F200.000
G1 X0.661 Y-0.737 Z-4.432 F200.000
G1 X0.792 Y-0.594 Z-4.449 F200.000
G1 X0.893 Y-0.428 Z-4.466 F200.000
G1 X0.959 Y-0.246 Z-4.484 F200.000
G1 X0.989 Y-0.054 Z-4.501 F200.000
G1 X0.980 Y0.140 Z-4.518 F200.000
G1 X0.934 Y0.329 Z-4.535 F200.000
G1 X0.852 Y0.505 Z-4.552 F200.000
G1 X0.737 Y0.661 Z-4.569 F200.000
G1 X0.594 Y0.792 Z-4.587 F200.000
G1 X0.428 Y0.893 Z-4.604 F200.000
G1 X0.246 Y0.959 Z-4.621 F200.000
G1 X0.054 Y0.989 Z-4.638 F200.000
G1 X-0.140 Y0.980 Z-4.655 F200.000
G1 X-0.329 Y0.934 Z-4.673 F200.000
G1 X-0.505 Y0.852 Z-4.690 F200.000
G1 X-0.661 Y0.737 Z-4.707 F200.000
G1 X-0.792 Y0.594 Z-4.724 F200.000
G1 X-0.893 Y0.428 Z-4.741 F200.000
G1 X-0.959 Y0.246 Z-4.758 F200.000
G1 X-0.989 Y0.054 Z-4.776 F200.000
G1 X-0.980 Y-0.140 Z-4.793 F200.000
G1 X-0.934 Y-0.329 Z-4.810 F200.000
G1 X-0.852 Y-0.505 Z-4.827 F200.000
G1 X-0.737 Y-0.661 Z-4.844 F200.000
G1 X-0.594 Y-0.792 Z-4.861 F200.000
G1 X-0.428 Y-0.893 Z-4.879 F200.000
G1 X-0.246 Y-0.959 Z-4.896 F200.000
G1 X-0.054 Y-0.989 Z-4.913 F200.000
G1 X0.140 Y-0.980 Z-4.930 F200.000
G1 X0.329 Y-0.934 Z-4.947 F200.000
G1 X0.505 Y-0.852 Z-4.965 F200.000
G1 X0.661 Y-0.737 Z-4.982 F200.000
G1 X0.792 Y-0.594 Z-4.999 F200.000
G1 X0.893 Y-0.428 Z-5.016 F200.000
G1 X0.959 Y-0.246 Z-5.033 F200.000
G1 X0.989 Y-0.054 Z-5.050 F200.000
G1 X0.980 Y0.140 Z-5.068 F200.000
G1 X0.934 Y0.329 Z-5.085 F200.000
G1 X0.852 Y0.505 Z-5.102 F200.000
G1 X0.737 Y0.661 Z-5.119 F200.000
G1 X0.594 Y0.792 Z-5.136 F200.000
G1 X0.428 Y0.893 Z-5.154 F200.000
G1 X0.246 Y0.959 Z-5.171 F200.000
G1 X0.054 Y0.989 Z-5.188 F200.000
G1 X-0.140 Y0.980 Z-5.205 F200.000
G1 X-0.329 Y0.934 Z-5.222 F200.000
G1 X-0.505 Y0.852 Z-5.239 F200.000
G1 X-0.661 Y0.737 Z-5.257 F200.000
G1 X-0.792 Y0.594 Z-5.274 F200.000
G1 X-0.893 Y0.428 Z-5.291 F200.000
G1 X-0.959 Y0.246 Z-5.308 F200.000
G1 X-0.989 Y0.054 Z-5.325 F200.000
G1 X-0.980 Y-0.140 Z-5.342 F200.000
G1 X-0.934 Y-0.329 Z-5.360 F200.000
G1 X-0.852 Y-0.505 Z-5.377 F200.000
G1 X-0.737 Y-0.661 Z-5.394 F200.000
G1 X-0.594 Y-0.792 Z-5.411 F200.000
G1 X-0.428 Y-0.893 Z-5.428 F200.000
G1 X-0.246 Y-0.959 Z-5.446 F200.000
G1 X-0.054 Y-0.989 Z-5.463 F200.000
G1 X0.140 Y-0.980 Z-5.480 F200.000
G1 X0.329 Y-0.934 Z-5.497 F200.000
G1 X0.505 Y-0.852 Z-5.514 F200.000
G1 X0.661 Y-0.737 Z-5.531 F200.000
G1 X0.792 Y-0.594 Z-5.549 F200.000
G1 X0.893 Y-0.428 Z-5.566 F200.000
G1 X0.959 Y-0.246 Z-5.583 F200.000
G1 X0.989 Y-0.054 Z-5.600 F200.000
G1 X0.980 Y0.140 Z-5.617 F200.000
G1 X0.934 Y0.329 Z-5.635 F200.000
G1 X0.852 Y0.505 Z-5.652 F200.000
G1 X0.737 Y0.661 Z-5.669 F200.000
G1 X0.594 Y0.792 Z-5.686 F200.000
G1 X0.428 Y0.893 Z-5.703 F200.000
G1 X0.246 Y0.959 Z-5.720 F200.000
G1 X0.054 Y0.989 Z-5.738 F200.000
G1 X-0.140 Y0.980 Z-5.755 F200.000
G1 X-0.329 Y0.934 Z-5.772 F200.000
G1 X-0.505 Y0.852 Z-5.789 F200.000
G1 X-0.661 Y0.737 Z-5.806 F200.000
G1 X-0.792 Y0.594 Z-5.823 F200.000
G1 X-0.893 Y0.428 Z-5.841 F200.000
G1 X-0.959 Y0.246 Z-5.858 F200.000
G1 X-0.989 Y0.054 Z-5.875 F200.000
G1 X-0.980 Y-0.140 Z-5.892 F200.000
G1 X-0.934 Y-0.329 Z-5.909 F200.000
G1 X-0.852 Y-0.505 Z-5.927 F200.000
G1 X-0.737 Y-0.661 Z-5.944 F200.000
G1 X-0.594 Y-0.792 Z-5.961 F200.000
G1 X-0.428 Y-0.893 Z-5.978 F200.000
G1 X-0.246 Y-0.959 Z-5.995 F200.000
G1 X-0.054 Y-0.989 Z-6.000 F400.000
G1 X0.140 Y-0.980 Z-6.000 F400.000
G1 X0.329 Y-0.934 Z-6.000 F400.000
G1 X0.505 Y-0.852 Z-6.000 F400.000
G1 X0.661 Y-0.737 Z-6.000 F400.000
G1 X0.792 Y-0.594 Z-6.000 F400.000
G1 X0.893 Y-0.428 Z-6.000 F400.000
G1 X0.959 Y-0.246 Z-6.000 F400.000
G1 X0.989 Y-0.054 Z-6.000 F400.000
G1 X0.980 Y0.140 Z-6.000 F400.000
G1 X0.934 Y0.329 Z-6.000 F400.000
G1 X0.852 Y0.505 Z-6.000 F400.000
G1 X0.737 Y0.661 Z-6.000 F400.000
G1 X0.594 Y0.792 Z-6.000 F400.000
G1 X0.428 Y0.893 Z-6.000 F400.000
G1 X0.246 Y0.959 Z-6.000 F400.000
G1 X0.054 Y0.989 Z-6.000 F400.000
G1 X-0.140 Y0.980 Z-6.000 F400.000
G1 X-0.329 Y0.934 Z-6.000 F400.000
G1 X-0.505 Y0.852 Z-6.000 F400.000
G1 X-0.661 Y0.737 Z-6.000 F400.000
G1 X-0.792 Y0.594 Z-6.000 F400.000
G1 X-0.893 Y0.428 Z-6.000 F400.000
G1 X-0.959 Y0.246 Z-6.000 F400.000
G1 X-0.989 Y0.054 Z-6.000 F400.000
G1 X-0.980 Y-0.140 Z-6.000 F400.000
G1 X-0.934 Y-0.329 Z-6.000 F400.000
G1 X-0.852 Y-0.505 Z-6.000 F400.000
G1 X-0.737 Y-0.661 Z-6.000 F400.000
G1 X-0.594 Y-0.792 Z-6.000 F400.000
G1 X-0.428 Y-0.893 Z-6.000 F400.000
G1 X-0.246 Y-0.959 Z-6.000 F400.000
(Adaptive - depth: -6.000000)
G1 X0.000 Y-1.000 F400.000
G1 X0.041 Y-1.041 F400.000
G1 X0.150 Y-1.079 F400.000
G1 X0.263 Y-1.090 F400.000
G1 X0.432 Y-1.068 F400.000
G1 X0.489 Y-1.053 F400.000
G1 X0.827 Y-0.895 F400.000
G1 X0.981 Y-0.744 F400.000
G1 X1.053 Y-0.647 F400.000
G1 X1.117 Y-0.530 F400.000
G1 X1.188 Y-0.365 F400.000
G1 X1.244 Y-0.124 F400.000
G1 X1.252 Y0.075 F400.000
G1 X1.233 Y0.244 F400.000
G1 X1.184 Y0.417 F400.000
G1 X1.113 Y0.586 F400.000
G1 X1.008 Y0.759 F400.000
G1 X0.876 Y0.914 F400.000
G1 X0.726 Y1.038 F400.000
G1 X0.571 Y1.132 F400.000
G1 X0.391 Y1.207 F400.000
G1 X0.203 Y1.248 F400.000
G1 X0.015 Y1.263 F400.000
G1 X-0.173 Y1.252 F400.000
G1 X-0.376 Y1.207 F400.000
G1 X-0.556 Y1.135 F400.000
G1 X-0.729 Y1.038 F400.000
G1 X-0.883 Y0.914 F400.000
G1 X-1.015 Y0.763 F400.000
G1 X-1.113 Y0.613 F400.000
G1 X-1.192 Y0.436 F400.000
G1 X-1.241 Y0.248 F400.000
G1 X-1.259 Y0.060 F400.000
G1 X-1.259 Y-0.128 F400.000
G1 X-1.222 Y-0.342 F400.000
G1 X-1.158 Y-0.530 F400.000
G1 X-1.056 Y-0.707 F400.000
G1 X-0.951 Y-0.838 F400.000
G1 X-0.816 Y-0.970 F400.000
G1 X-0.658 Y-1.090 F400.000
G1 X-0.466 Y-1.207 F400.000
G1 X-0.229 Y-1.312 F400.000
G1 X0.120 Y-1.357 F400.000
G1 X0.346 Y-1.350 F400.000
G1 X0.707 Y-1.271 F400.000
G1 X0.947 Y-1.139 F400.000
G1 X1.056 Y-1.053 F400.000
G1 X1.158 Y-0.951 F400.000
G1 X1.274 Y-0.805 F400.000
G1 X1.398 Y-0.598 F400.000
G1 X1.489 Y-0.380 F400.000
G1 X1.534 Y-0.165 F400.000
G1 X1.549 Y0.011 F400.000
G1 X1.534 Y0.214 F400.000
G1 X1.496 Y0.410 F400.000
G1 X1.429 Y0.624 F400.000
G1 X1.327 Y0.831 F400.000
G1 X1.199 Y1.008 F400.000
G1 X1.068 Y1.150 F400.000
G1 X0.898 Y1.286 F400.000
G1 X0.714 Y1.391 F400.000
G1 X0.523 Y1.470 F400.000
G1 X0.320 Y1.526 F400.000
G1 X0.094 Y1.556 F400.000
G1 X-0.132 Y1.556 F400.000
G1 X-0.350 Y1.530 F400.000
G1 X-0.564 Y1.462 F400.000
G1 X-0.737 Y1.383 F400.000
G1 X-0.921 Y1.274 F400.000
G1 X-1.098 Y1.124 F400.000
G1 X-1.241 Y0.970 F400.000
G1 X-1.365 Y0.789 F400.000
G1 X-1.462 Y0.590 F400.000
G1 X-1.523 Y0.380 F400.000
G1 X-1.553 Y0.192 F400.000
G1 X-1.564 Y-0.011 F400.000
G1 X-1.545 Y-0.256 F400.000
G1 X-1.496 Y-0.489 F400.000
G1 X-1.410 Y-0.699 F400.000
G1 X-1.312 Y-0.861 F400.000
G1 X-1.203 Y-1.011 F400.000
G1 X-1.038 Y-1.192 F400.000
G1 X-0.838 Y-1.361 F400.000
G1 X-0.609 Y-1.492 F400.000
G1 X-0.429 Y-1.568 F400.000
G1 X-0.233 Y-1.628 F400.000
G1 X0.008 Y-1.669 F400.000
G1 X0.259 Y-1.677 F400.000
G1 X0.489 Y-1.658 F400.000
G1 X0.726 Y-1.602 F400.000
G1 X0.917 Y-1.519 F400.000
G1 X1.086 Y-1.421 F400.000
G1 X1.259 Y-1.293 F400.000
G1 X1.425 Y-1.132 F400.000
G1 X1.571 Y-0.944 F400.000
G1 X1.684 Y-0.741 F400.000
G1 X1.763 Y-0.553 F400.000
G1 X1.831 Y-0.320 F400.000
G1 X1.865 Y-0.075 F400.000
G1 X1.868 Y0.147 F400.000
G1 X1.842 Y0.380 F400.000
G1 X1.786 Y0.609 F400.000
G1 X1.703 Y0.827 F400.000
G1 X1.594 Y1.030 F400.000
G1 X1.459 Y1.218 F400.000
G1 X1.301 Y1.387 F400.000
G1 X1.120 Y1.538 F400.000
G1 X0.925 Y1.662 F400.000
G1 X0.714 Y1.763 F400.000
G1 X0.492 Y1.835 F400.000
G1 X0.263 Y1.880 F400.000
G1 X0.030 Y1.895 F400.000
G1 X-0.199 Y1.887 F400.000
G1 X-0.455 Y1.842 F400.000
G1 X-0.684 Y1.771 F400.000
G1 X-0.906 Y1.673 F400.000
G1 X-1.117 Y1.545 F400.000
G1 X-1.308 Y1.395 F400.000
G1 X-1.477 Y1.214 F400.000
G1 X-1.602 Y1.038 F400.000
G1 X-1.699 Y0.853 F400.000
G1 X-1.782 Y0.647 F400.000
G1 X-1.853 Y0.395 F400.000
G1 X-1.895 Y0.120 F400.000
G1 X-1.895 Y-0.124 F400.000
G1 X-1.872 Y-0.335 F400.000
G1 X-1.812 Y-0.571 F400.000
G1 X-1.733 Y-0.789 F400.000
G1 X-1.617 Y-1.015 F400.000
G1 X-1.477 Y-1.214 F400.000
G1 X-1.316 Y-1.398 F400.000
G1 X-1.132 Y-1.564 F400.000
G1 X-0.929 Y-1.703 F400.000
G1 X-0.714 Y-1.823 F400.000
G1 X-0.462 Y-1.925 F400.000
G1 X-0.214 Y-1.992 F400.000
G1 X0.038 Y-2.023 F400.000
G1 X0.256 Y-2.026 F400.000
G1 X0.496 Y-2.008 F400.000
G1 X0.774 Y-1.944 F400.000
G1 X1.004 Y-1.853 F400.000
G1 X1.199 Y-1.756 F400.000
G1 X1.402 Y-1.613 F400.000
G1 X1.583 Y-1.459 F400.000
G1 X1.759 Y-1.263 F400.000
G1 X1.902 Y-1.060 F400.000
G1 X2.023 Y-0.842 F400.000
G1 X2.117 Y-0.605 F400.000
G1 X2.180 Y-0.365 F400.000
G1 X2.218 Y-0.113 F400.000
G1 X2.222 Y0.135 F400.000
G1 X2.199 Y0.383 F400.000
G1 X2.147 Y0.628 F400.000
G1 X2.064 Y0.865 F400.000
G1 X1.959 Y1.094 F400.000
G1 X1.812 Y1.327 F400.000
G1 X1.650 Y1.530 F400.000
G1 X1.466 Y1.714 F400.000
G1 X1.259 Y1.876 F400.000
G1 X1.034 Y2.004 F400.000
G1 X0.835 Y2.090 F400.000
G1 X0.602 Y2.169 F400.000
G1 X0.320 Y2.229 F400.000
G1 X0.030 Y2.248 F400.000
G1 X-0.203 Y2.244 F400.000
G1 X-0.470 Y2.207 F400.000
G1 X-0.722 Y2.139 F400.000
G1 X-0.959 Y2.045 F400.000
G1 X-1.192 Y1.921 F400.000
G1 X-1.406 Y1.774 F400.000
G1 X-1.602 Y1.605 F400.000
G1 X-1.778 Y1.410 F400.000
G1 X-1.929 Y1.199 F400.000
G1 X-2.045 Y0.966 F400.000
G1 X-2.124 Y0.763 F400.000
G1 X-2.192 Y0.526 F400.000
G1 X-2.244 Y0.229 F400.000
G1 X-2.263 Y-0.064 F400.000
G1 X-2.241 Y-0.338 F400.000
G1 X-2.199 Y-0.564 F400.000
G1 X-2.120 Y-0.820 F400.000
G1 X-2.015 Y-1.053 F400.000
G1 X-1.887 Y-1.267 F400.000
G1 X-1.737 Y-1.474 F400.000
G1 X-1.549 Y-1.680 F400.000
G1 X-1.327 Y-1.872 F400.000
G1 X-1.102 Y-2.030 F400.000
G1 X-0.857 Y-2.169 F400.000
G1 X-0.594 Y-2.271 F400.000
G1 X-0.365 Y-2.335 F400.000
G1 X-0.102 Y-2.376 F400.000
G1 X0.154 Y-2.395 F400.000
G1 X0.455 Y-2.380 F400.000
G1 X0.726 Y-2.338 F400.000
G1 X0.989 Y-2.259 F400.000
G1 X1.211 Y-2.165 F400.000
G1 X1.440 Y-2.038 F400.000
G1 X1.650 Y-1.891 F400.000
G1 X1.865 Y-1.703 F400.000
G1 X2.045 Y-1.504 F400.000
G1 X2.203 Y-1.286 F400.000
G1 X2.338 Y-1.045 F400.000
G1 X2.447 Y-0.793 F400.000
G1 X2.530 Y-0.530 F400.000
G1 X2.583 Y-0.259 F400.000
G1 X2.605 Y0.011 F400.000
G1 X2.598 Y0.282 F400.000
G1 X2.560 Y0.553 F400.000
G1 X2.492 Y0.816 F400.000
G1 X2.398 Y1.071 F400.000
G1 X2.274 Y1.316 F400.000
G1 X2.124 Y1.545 F400.000
G1 X1.951 Y1.759 F400.000
G1 X1.756 Y1.951 F400.000
G1 X1.545 Y2.128 F400.000
G1 X1.293 Y2.293 F400.000
G1 X1.041 Y2.421 F400.000
G1 X0.771 Y2.515 F400.000
G1 X0.534 Y2.571 F400.000
G1 X0.267 Y2.613 F400.000
G1 X-0.030 Y2.632 F400.000
G1 X-0.357 Y2.617 F400.000
G1 X-0.647 Y2.556 F400.000
G1 X-0.861 Y2.492 F400.000
G1 X-1.120 Y2.391 F400.000
G1 X-1.398 Y2.248 F400.000
G1 X-1.658 Y2.064 F400.000
G1 X-1.842 Y1.895 F400.000
G1 X-2.004 Y1.714 F400.000
G1 X-2.162 Y1.504 F400.000
G1 X-2.323 Y1.237 F400.000
G1 X-2.459 Y0.951 F400.000
G1 X-2.553 Y0.669 F400.000
G1 X-2.605 Y0.414 F400.000
G1 X-2.635 Y0.162 F400.000
G1 X-2.643 Y-0.132 F400.000
G1 X-2.613 Y-0.440 F400.000
G1 X-2.560 Y-0.718 F400.000
G1 X-2.459 Y-0.996 F400.000
G1 X-2.361 Y-1.207 F400.000
G1 X-2.229 Y-1.444 F400.000
G1 X-2.045 Y-1.703 F400.000
G1 X-1.838 Y-1.936 F400.000
G1 X-1.620 Y-2.143 F400.000
G1 X-1.365 Y-2.323 F400.000
G1 X-1.143 Y-2.455 F400.000
G1 X-0.883 Y-2.575 F400.000
G1 X-0.617 Y-2.669 F400.000
G1 X-0.316 Y-2.741 F400.000
G1 X-0.023 Y-2.778 F400.000
G1 X0.267 Y-2.789 F400.000
G1 X0.560 Y-2.767 F400.000
G1 X0.850 Y-2.718 F400.000
G1 X1.132 Y-2.624 F400.000
G1 X1.346 Y-2.530 F400.000
G1 X1.583 Y-2.402 F400.000
G1 X1.850 Y-2.226 F400.000
G1 X2.102 Y-2.019 F400.000
G1 X2.312 Y-1.797 F400.000
G1 X2.477 Y-1.586 F400.000
G1 X2.635 Y-1.335 F400.000
G1 X2.763 Y-1.075 F400.000
G1 X2.865 Y-0.808 F400.000
G1 X2.936 Y-0.526 F400.000
G1 X2.977 Y-0.237 F400.000
G1 X2.992 Y0.049 F400.000
G1 X2.985 Y0.335 F400.000
G1 X2.936 Y0.665 F400.000
G1 X2.865 Y0.955 F400.000
G1 X2.752 Y1.241 F400.000
G1 X2.639 Y1.466 F400.000
G1 X2.485 Y1.707 F400.000
G1 X2.320 Y1.929 F400.000
G1 X2.079 Y2.184 F400.000
G1 X1.853 Y2.383 F400.000
G1 X1.605 Y2.564 F400.000
G1 X1.331 Y2.722 F400.000
G1 X1.045 Y2.842 F400.000
G1 X0.797 Y2.921 F400.000
G1 X0.508 Y2.981 F400.000
G1 X0.222 Y3.019 F400.000
G1 X-0.113 Y3.026 F400.000
G1 X-0.414 Y3.004 F400.000
G1 X-0.714 Y2.951 F400.000
G1 X-1.019 Y2.868 F400.000
G1 X-1.305 Y2.759 F400.000
G1 X-1.575 Y2.609 F400.000
G1 X-1.786 Y2.470 F400.000
G1 X-2.004 Y2.286 F400.000
G1 X-2.203 Y2.086 F400.000
G1 X-2.421 Y1.831 F400.000
G1 X-2.609 Y1.553 F400.000
G1 X-2.752 Y1.271 F400.000
G1 X-2.850 Y1.030 F400.000
G1 X-2.940 Y0.744 F400.000
G1 X-3.011 Y0.417 F400.000
G1 X-3.038 Y0.079 F400.000
G1 X-3.038 Y-0.184 F400.000
G1 X-3.008 Y-0.489 F400.000
G1 X-2.944 Y-0.786 F400.000
G1 X-2.857 Y-1.064 F400.000
G1 X-2.741 Y-1.338 F400.000
G1 X-2.598 Y-1.598 F400.000
G1 X-2.436 Y-1.846 F400.000
G1 X-2.211 Y-2.124 F400.000
G1 X-1.989 Y-2.350 F400.000
G1 X-1.737 Y-2.553 F400.000
G1 X-1.515 Y-2.699 F400.000
G1 X-1.252 Y-2.850 F400.000
G1 X-0.929 Y-2.985 F400.000
G1 X-0.643 Y-3.079 F400.000
G1 X-0.335 Y-3.150 F400.000
G1 X-0.015 Y-3.188 F400.000
G1 X0.293 Y-3.195 F400.000
G1 X0.605 Y-3.173 F400.000
G1 X0.914 Y-3.120 F400.000
G1 X1.214 Y-3.026 F400.000
G1 X1.447 Y-2.932 F400.000
G1 X1.707 Y-2.805 F400.000
G1 X2.011 Y-2.617 F400.000
G1 X2.286 Y-2.410 F400.000
G1 X2.519 Y-2.180 F400.000
G1 X2.692 Y-1.981 F400.000
G1 X2.868 Y-1.729 F400.000
G1 X3.019 Y-1.474 F400.000
G1 X3.169 Y-1.162 F400.000
G1 X3.278 Y-0.827 F400.000
G1 X3.346 Y-0.560 F400.000
G1 X3.391 Y-0.241 F400.000
G1 X3.402 Y0.068 F400.000
G1 X3.395 Y0.365 F400.000
G1 X3.350 Y0.711 F400.000
G1 X3.278 Y1.019 F400.000
G1 X3.169 Y1.323 F400.000
G1 X3.053 Y1.575 F400.000
G1 X2.898 Y1.835 F400.000
G1 X2.726 Y2.083 F400.000
G1 X2.492 Y2.353 F400.000
G1 X2.263 Y2.575 F400.000
G1 X2.011 Y2.778 F400.000
G1 X1.733 Y2.962 F400.000
G1 X1.444 Y3.120 F400.000
G1 X1.139 Y3.241 F400.000
G1 X0.872 Y3.320 F400.000
G1 X0.571 Y3.387 F400.000
G1 X0.222 Y3.432 F400.000
G1 X-0.120 Y3.444 F400.000
G1 X-0.451 Y3.429 F400.000
G1 X-0.786 Y3.368 F400.000
G1 X-1.060 Y3.297 F400.000
G1 X-1.361 Y3.188 F400.000
G1 X-1.643 Y3.049 F400.000
G1 X-1.906 Y2.891 F400.000
G1 X-2.154 Y2.703 F400.000
G1 X-2.383 Y2.492 F400.000
G1 X-2.598 Y2.267 F400.000
G1 X-2.812 Y1.989 F400.000
G1 X-2.985 Y1.714 F400.000
G1 X-3.135 Y1.425 F400.000
G1 X-3.263 Y1.113 F400.000
G1 X-3.361 Y0.797 F400.000
G1 X-3.429 Y0.474 F400.000
G1 X-3.455 Y0.143 F400.000
G1 X-3.455 Y-0.128 F400.000
G1 X-3.432 Y-0.432 F400.000
G1 X-3.376 Y-0.774 F400.000
G1 X-3.286 Y-1.120 F400.000
G1 X-3.158 Y-1.432 F400.000
G1 X-3.038 Y-1.673 F400.000
G1 X-2.872 Y-1.947 F400.000
G1 X-2.669 Y-2.233 F400.000
G1 X-2.425 Y-2.515 F400.000
G1 X-2.165 Y-2.744 F400.000
G1 X-1.951 Y-2.910 F400.000
G1 X-1.680 Y-3.090 F400.000
G1 X-1.353 Y-3.267 F400.000
G1 X-1.019 Y-3.414 F400.000
G1 X-0.680 Y-3.515 F400.000
G1 X-0.398 Y-3.568 F400.000
G1 X-0.124 Y-3.602 F400.000
G1 X0.226 Y-3.620 F400.000
G1 X0.594 Y-3.598 F400.000
G1 X0.921 Y-3.541 F400.000
G1 X1.195 Y-3.474 F400.000
G1 X1.508 Y-3.368 F400.000
G1 X1.827 Y-3.222 F400.000
G1 X2.105 Y-3.064 F400.000
G1 X2.380 Y-2.876 F400.000
G1 X2.635 Y-2.662 F400.000
G1 X2.868 Y-2.429 F400.000
G1 X3.083 Y-2.173 F400.000
G1 X3.274 Y-1.898 F400.000
G1 X3.436 Y-1.609 F400.000
G1 X3.575 Y-1.305 F400.000
G1 X3.684 Y-0.989 F400.000
G1 X3.767 Y-0.665 F400.000
G1 X3.820 Y-0.335 F400.000
G1 X3.842 Y-0.004 F400.000
G1 X3.835 Y0.323 F400.000
G1 X3.797 Y0.654 F400.000
G1 X3.729 Y0.977 F400.000
G1 X3.635 Y1.293 F400.000
G1 X3.511 Y1.598 F400.000
G1 X3.361 Y1.891 F400.000
G1 X3.184 Y2.169 F400.000
G1 X2.985 Y2.432 F400.000
G1 X2.767 Y2.680 F400.000
G1 X2.496 Y2.936 F400.000
G1 X2.222 Y3.154 F400.000
G1 X1.921 Y3.342 F400.000
G1 X1.650 Y3.485 F400.000
G1 X1.338 Y3.613 F400.000
G1 X1.023 Y3.718 F400.000
G1 X0.658 Y3.801 F400.000
G1 X0.312 Y3.850 F400.000
G1 X-0.030 Y3.872 F400.000
G1 X-0.380 Y3.861 F400.000
G1 X-0.726 Y3.820 F400.000
G1 X-1.064 Y3.737 F400.000
G1 X-1.335 Y3.650 F400.000
G1 X-1.635 Y3.523 F400.000
G1 X-1.921 Y3.380 F400.000
G1 X-2.233 Y3.180 F400.000
G1 X-2.508 Y2.970 F400.000
G1 X-2.759 Y2.726 F400.000
G1 X-2.955 Y2.504 F400.000
G1 X-3.158 Y2.244 F400.000
G1 X-3.361 Y1.932 F400.000
G1 X-3.538 Y1.602 F400.000
G1 X-3.673 Y1.263 F400.000
G1 X-3.767 Y0.970 F400.000
G1 X-3.842 Y0.632 F400.000
G1 X-3.883 Y0.293 F400.000
G1 X-3.895 Y-0.030 F400.000
G1 X-3.876 Y-0.365 F400.000
G1 X-3.827 Y-0.695 F400.000
G1 X-3.759 Y-1.023 F400.000
G1 X-3.647 Y-1.376 F400.000
G1 X-3.515 Y-1.703 F400.000
G1 X-3.342 Y-2.019 F400.000
G1 X-3.180 Y-2.267 F400.000
G1 X-2.977 Y-2.534 F400.000
G1 X-2.729 Y-2.812 F400.000
G1 X-2.459 Y-3.068 F400.000
G1 X-2.173 Y-3.301 F400.000
G1 X-1.861 Y-3.504 F400.000
G1 X-1.586 Y-3.654 F400.000
G1 X-1.267 Y-3.793 F400.000
G1 X-0.936 Y-3.902 F400.000
G1 X-0.609 Y-3.981 F400.000
G1 X-0.271 Y-4.030 F400.000
G1 X0.068 Y-4.049 F400.000
G1 X0.402 Y-4.041 F400.000
G1 X0.741 Y-4.015 F400.000
G1 X1.105 Y-3.951 F400.000
G1 X1.455 Y-3.846 F400.000
G1 X1.733 Y-3.744 F400.000
G1 X2.060 Y-3.594 F400.000
G1 X2.380 Y-3.406 F400.000
G1 X2.665 Y-3.211 F400.000
G1 X2.947 Y-2.981 F400.000
G1 X3.207 Y-2.726 F400.000
G1 X3.429 Y-2.444 F400.000
G1 X3.586 Y-2.214 F400.000
G1 X3.756 Y-1.932 F400.000
G1 X3.921 Y-1.598 F400.000
G1 X4.056 Y-1.252 F400.000
G1 X4.169 Y-0.895 F400.000
G1 X4.241 Y-0.526 F400.000
G1 X4.278 Y-0.214 F400.000
G1 X4.293 Y0.139 F400.000
G1 X4.274 Y0.489 F400.000
G1 X4.218 Y0.820 F400.000
G1 X4.154 Y1.105 F400.000
G1 X4.045 Y1.459 F400.000
G1 X3.902 Y1.801 F400.000
G1 X3.744 Y2.113 F400.000
G1 X3.553 Y2.429 F400.000
G1 X3.331 Y2.729 F400.000
G1 X3.090 Y3.008 F400.000
G1 X2.816 Y3.259 F400.000
G1 X2.579 Y3.451 F400.000
G1 X2.289 Y3.643 F400.000
G1 X1.992 Y3.808 F400.000
G1 X1.654 Y3.962 F400.000
G1 X1.316 Y4.083 F400.000
G1 X0.970 Y4.184 F400.000
G1 X0.602 Y4.256 F400.000
G1 X0.229 Y4.301 F400.000
G1 X-0.139 Y4.320 F400.000
G1 X-0.508 Y4.289 F400.000
G1 X-0.805 Y4.248 F400.000
G1 X-1.150 Y4.169 F400.000
G1 X-1.481 Y4.068 F400.000
G1 X-1.823 Y3.929 F400.000
G1 X-2.147 Y3.763 F400.000
G1 X-2.455 Y3.564 F400.000
G1 X-2.703 Y3.376 F400.000
G1 X-2.959 Y3.143 F400.000
G1 X-3.195 Y2.902 F400.000
G1 X-3.436 Y2.617 F400.000
G1 X-3.650 Y2.312 F400.000
G1 X-3.846 Y1.992 F400.000
G1 X-4.000 Y1.650 F400.000
G1 X-4.105 Y1.372 F400.000
G1 X-4.203 Y1.023 F400.000
G1 X-4.274 Y0.680 F400.000
G1 X-4.320 Y0.308 F400.000
G1 X-4.335 Y-0.060 F400.000
G1 X-4.323 Y-0.429 F400.000
G1 X-4.267 Y-0.793 F400.000
G1 X-4.199 Y-1.090 F400.000
G1 X-4.102 Y-1.425 F400.000
G1 X-3.970 Y-1.771 F400.000
G1 X-3.808 Y-2.105 F400.000
G1 X-3.624 Y-2.429 F400.000
G1 X-3.402 Y-2.729 F400.000
G1 X-3.203 Y-2.966 F400.000
G1 X-2.955 Y-3.226 F400.000
G1 X-2.680 Y-3.474 F400.000
G1 X-2.383 Y-3.699 F400.000
G1 X-2.075 Y-3.906 F400.000
G1 X-1.744 Y-4.079 F400.000
G1 X-1.436 Y-4.218 F400.000
G1 X-1.079 Y-4.331 F400.000
G1 X-0.778 Y-4.402 F400.000
G1 X-0.440 Y-4.459 F400.000
G1 X-0.068 Y-4.492 F400.000
G1 X0.301 Y-4.496 F400.000
G1 X0.669 Y-4.474 F400.000
G1 X1.038 Y-4.425 F400.000
G1 X1.398 Y-4.346 F400.000
G1 X1.748 Y-4.226 F400.000
G1 X2.026 Y-4.109 F400.000
G1 X2.350 Y-3.947 F400.000
G1 X2.669 Y-3.759 F400.000
G1 X2.974 Y-3.545 F400.000
G1 X3.252 Y-3.301 F400.000
G1 X3.477 Y-3.075 F400.000
G1 X3.718 Y-2.789 F400.000
G1 X3.932 Y-2.496 F400.000
G1 X4.128 Y-2.180 F400.000
G1 X4.297 Y-1.850 F400.000
G1 X4.444 Y-1.508 F400.000
G1 X4.560 Y-1.154 F400.000
G1 X4.650 Y-0.793 F400.000
G1 X4.714 Y-0.425 F400.000
G1 X4.733 Y-0.053 F400.000
G1 X4.729 Y0.256 F400.000
G1 X4.703 Y0.609 F400.000
G1 X4.643 Y0.974 F400.000
G1 X4.556 Y1.335 F400.000
G1 X4.447 Y1.688 F400.000
G1 X4.308 Y2.034 F400.000
G1 X4.135 Y2.361 F400.000
G1 X3.962 Y2.639 F400.000
G1 X3.741 Y2.936 F400.000
G1 X3.508 Y3.218 F400.000
G1 X3.244 Y3.481 F400.000
G1 X2.962 Y3.726 F400.000
G1 X2.658 Y3.940 F400.000
G1 X2.376 Y4.109 F400.000
G1 X2.049 Y4.278 F400.000
G1 X1.707 Y4.429 F400.000
G1 X1.353 Y4.549 F400.000
G1 X0.992 Y4.647 F400.000
G1 X0.624 Y4.718 F400.000
G1 X0.252 Y4.763 F400.000
G1 X-0.117 Y4.767 F400.000
G1 X-0.444 Y4.752 F400.000
G1 X-0.812 Y4.703 F400.000
G1 X-1.177 Y4.632 F400.000
G1 X-1.534 Y4.530 F400.000
G1 X-1.883 Y4.402 F400.000
G1 X-2.218 Y4.241 F400.000
G1 X-2.500 Y4.079 F400.000
G1 X-2.805 Y3.868 F400.000
G1 X-3.090 Y3.643 F400.000
G1 X-3.361 Y3.387 F400.000
G1 X-3.613 Y3.113 F400.000
G1 X-3.850 Y2.823 F400.000
G1 X-4.060 Y2.515 F400.000
G1 X-4.248 Y2.195 F400.000
G1 X-4.402 Y1.853 F400.000
G1 X-4.515 Y1.553 F400.000
G1 X-4.624 Y1.195 F400.000
G1 X-4.707 Y0.831 F400.000
G1 X-4.763 Y0.462 F400.000
G1 X-4.793 Y0.090 F400.000
G1 X-4.797 Y-0.278 F400.000
G1 X-4.756 Y-0.647 F400.000
G1 X-4.707 Y-0.944 F400.000
G1 X-4.624 Y-1.305 F400.000
G1 X-4.515 Y-1.658 F400.000
G1 X-4.380 Y-2.004 F400.000
G1 X-4.222 Y-2.338 F400.000
G1 X-4.026 Y-2.654 F400.000
G1 X-3.835 Y-2.925 F400.000
G1 X-3.598 Y-3.211 F400.000
G1 X-3.346 Y-3.485 F400.000
G1 X-3.071 Y-3.737 F400.000
G1 X-2.778 Y-3.970 F400.000
G1 X-2.474 Y-4.184 F400.000
G1 X-2.154 Y-4.372 F400.000
G1 X-1.820 Y-4.538 F400.000
G1 X-1.474 Y-4.680 F400.000
G1 X-1.117 Y-4.786 F400.000
G1 X-0.797 Y-4.861 F400.000
G1 X-0.429 Y-4.921 F400.000
G1 X-0.056 Y-4.955 F400.000
G1 X0.312 Y-4.962 F400.000
G1 X0.737 Y-4.936 F400.000
G1 X1.470 Y-4.782 F400.000
G1 X2.342 Y-4.429 F400.000
G1 X2.996 Y-4.026 F400.000
G1 X3.628 Y-3.474 F400.000
G1 X4.064 Y-2.974 F400.000
G1 X4.526 Y-2.263 F400.000
G1 X4.842 Y-1.534 F400.000
G1 X5.053 Y-0.692 F400.000
G1 X5.113 Y0.365 F400.000
G1 X4.992 Y1.267 F400.000
G1 X4.680 Y2.158 F400.000
G1 X4.342 Y2.778 F400.000
G1 X3.914 Y3.350 F400.000
G1 X3.259 Y3.970 F400.000
G1 X2.771 Y4.320 F400.000
G1 X2.124 Y4.665 F400.000
G1 X1.320 Y4.966 F400.000
G1 X0.417 Y5.132 F400.000
G1 X-0.395 Y5.169 F400.000
G1 X-1.297 Y5.045 F400.000
G1 X-2.184 Y4.726 F400.000
G1 X-2.947 Y4.267 F400.000
G1 X-3.793 Y3.508 F400.000
G1 X-4.278 Y2.887 F400.000
G1 X-4.560 Y2.417 F400.000
G1 X-4.857 Y1.741 F400.000
G1 X-5.064 Y1.023 F400.000
G1 X-5.162 Y0.421 F400.000
G1 X-5.162 Y-0.620 F400.000
G1 X-5.064 Y-1.241 F400.000
G1 X-4.711 Y-2.241 F400.000
G1 X-4.395 Y-2.808 F400.000
G1 X-3.895 Y-3.477 F400.000
G1 X-3.241 Y-4.102 F400.000
G1 X-2.594 Y-4.564 F400.000
G1 X-1.944 Y-4.902 F400.000
G1 X-1.259 Y-5.150 F400.000
G1 X-0.541 Y-5.320 F400.000
G1 X0.395 Y-5.380 F400.000
G1 X1.241 Y-5.263 F400.000
G1 X2.297 Y-4.895 F400.000
G1 X2.771 Y-4.647 F400.000
G1 X3.669 Y-3.977 F400.000
G1 X4.320 Y-3.278 F400.000
G1 X4.568 Y-2.932 F400.000
G1 X4.925 Y-2.297 F400.000
G1 X5.252 Y-1.436 F400.000
G1 X5.383 Y-0.895 F400.000
G1 X5.466 Y-0.173 F400.000
G1 X5.447 Y0.455 F400.000
G1 X5.425 Y0.737 F400.000
G1 X5.237 Y1.583 F400.000
G1 X5.030 Y2.139 F400.000
G1 X4.714 Y2.771 F400.000
G1 X4.353 Y3.312 F400.000
G1 X3.756 Y3.974 F400.000
G1 X3.102 Y4.508 F400.000
G1 X2.474 Y4.876 F400.000
G1 X1.966 Y5.105 F400.000
G1 X1.320 Y5.305 F400.000
G1 X0.658 Y5.429 F400.000
G1 X0.000 Y5.470 F400.000
G1 X-0.620 Y5.432 F400.000
G1 X-1.579 Y5.241 F400.000
G1 X-2.252 Y4.985 F400.000
G1 X-2.778 Y4.711 F400.000
G1 X-3.177 Y4.455 F400.000
G1 X-3.598 Y4.120 F400.000
G1 X-4.335 Y3.338 F400.000
G1 X-4.545 Y3.045 F400.000
G1 X-4.929 Y2.361 F400.000
G1 X-5.188 Y1.741 F400.000
G1 X-5.387 Y0.962 F400.000
G1 X-5.470 Y0.120 F400.000
G1 X-5.425 Y-0.733 F400.000
G1 X-5.241 Y-1.579 F400.000
G1 X-5.079 Y-2.030 F400.000
G1 X-4.583 Y-2.989 F400.000
G1 X-4.113 Y-3.605 F400.000
G1 X-3.380 Y-4.301 F400.000
G1 X-2.985 Y-4.586 F400.000
G1 X-2.117 Y-5.041 F400.000
G1 X-1.778 Y-5.177 F400.000
G1 X-0.759 Y-5.417 F400.000
G1 X0.019 Y-5.470 F400.000
G1 X0.695 Y-5.421 F400.000
G1 X1.598 Y-5.233 F400.000
G1 X2.267 Y-4.977 F400.000
G1 X2.688 Y-4.767 F400.000
G1 X3.387 Y-4.293 F400.000
G1 X4.120 Y-3.598 F400.000
G1 X4.523 Y-3.079 F400.000
G1 X4.891 Y-2.451 F400.000
G1 X5.135 Y-1.887 F400.000
G1 X5.312 Y-1.297 F400.000
G1 X5.312 Y-1.297 F400.000
G1 X5.312 Y-1.139 F400.000
G1 X5.320 Y-1.113 F400.000
G1 X5.421 Y-0.932 F400.000
G1 X5.421 Y-0.932 F400.000
G1 X5.447 Y-0.763 F400.000
G1 X5.500 Y-0.041 F400.000
G1 X5.489 Y0.282 F400.000
G1 X5.447 Y0.759 F400.000
G1 X5.335 Y1.312 F400.000
G1 X5.199 Y1.789 F400.000
G1 X5.120 Y2.000 F400.000
G1 X4.872 Y2.545 F400.000
G1 X4.579 Y3.041 F400.000
G1 X4.466 Y3.207 F400.000
G1 X4.323 Y3.395 F400.000
G1 X4.135 Y3.617 F400.000
G1 X3.793 Y3.974 F400.000
G1 X3.586 Y4.162 F400.000
G1 X3.383 Y4.331 F400.000
G1 X3.034 Y4.586 F400.000
G1 X2.447 Y4.921 F400.000
G1 X1.985 Y5.124 F400.000
G1 X1.756 Y5.211 F400.000
G1 X1.571 Y5.267 F400.000
G1 X0.966 Y5.410 F400.000
G1 X0.756 Y5.447 F400.000
G1 X0.188 Y5.492 F400.000
G1 X-0.034 Y5.500 F400.000
G1 X-0.575 Y5.466 F400.000
G1 X-1.030 Y5.395 F400.000
G1 X-1.391 Y5.316 F400.000
G1 X-1.590 Y5.263 F400.000
G1 X-1.846 Y5.177 F400.000
G1 X-2.289 Y4.996 F400.000
G1 X-2.695 Y4.793 F400.000
G1 X-3.034 Y4.586 F400.000
G1 X-3.199 Y4.470 F400.000
G1 X-3.639 Y4.117 F400.000
G1 X-3.981 Y3.786 F400.000
G1 X-4.199 Y3.549 F400.000
G1 X-4.526 Y3.124 F400.000
G1 X-4.620 Y2.977 F400.000
G1 X-4.902 Y2.481 F400.000
G1 X-5.128 Y1.977 F400.000
G1 X-5.229 Y1.699 F400.000
G1 X-5.346 Y1.263 F400.000
G1 X-5.421 Y0.925 F400.000
G1 X-5.451 Y0.733 F400.000
G1 X-5.496 Y0.162 F400.000
G1 X-5.500 Y-0.041 F400.000
G1 X-5.470 Y-0.575 F400.000
G1 X-5.451 Y-0.737 F400.000
G1 X-5.395 Y-1.049 F400.000
G1 X-5.331 Y-1.331 F400.000
G1 X-5.256 Y-1.613 F400.000
G1 X-5.184 Y-1.827 F400.000
G1 X-5.079 Y-2.102 F400.000
G1 X-4.925 Y-2.444 F400.000
G1 X-4.605 Y-3.004 F400.000
G1 X-4.440 Y-3.244 F400.000
G1 X-4.135 Y-3.617 F400.000
G1 X-3.786 Y-3.981 F400.000
G1 X-3.549 Y-4.199 F400.000
G1 X-3.143 Y-4.511 F400.000
G1 X-2.977 Y-4.620 F400.000
G1 X-2.485 Y-4.898 F400.000
G1 X-2.060 Y-5.098 F400.000
G1 X-1.752 Y-5.211 F400.000
G1 X-1.571 Y-5.267 F400.000
G1 X-1.263 Y-5.346 F400.000
G1 X-0.756 Y-5.447 F400.000
G1 X-0.049 Y-5.500 F400.000
G1 X0.571 Y-5.466 F400.000
G1 X1.030 Y-5.395 F400.000
G1 X1.391 Y-5.316 F400.000
G1 X1.590 Y-5.263 F400.000
G1 X1.846 Y-5.177 F400.000
G1 X2.293 Y-4.996 F400.000
G1 X2.684 Y-4.801 F400.000
G1 X3.015 Y-4.598 F400.000
G1 X3.244 Y-4.440 F400.000
G1 X3.387 Y-4.331 F400.000
G1 X3.609 Y-4.143 F400.000
G1 X3.981 Y-3.786 F400.000
G1 X4.199 Y-3.549 F400.000
G1 X4.526 Y-3.124 F400.000
G1 X4.586 Y-3.034 F400.000
G1 X4.932 Y-2.429 F400.000
G1 X5.124 Y-1.996 F400.000
G1 X5.214 Y-1.752 F400.000
G1 X5.267 Y-1.575 F400.000
G1 X5.421 Y-0.932 F400.000
G1 X5.421 Y-0.932 F400.000
G0 Z5.000
(Helix to depth: -9.000000)
G0 Z5.000
G0 X-0.070 Y0.988 Z5.000
G0 X-0.070 Y0.988 Z3.000
G1 X-0.070 Y0.988 Z-6.000 F200.000
G1 X-0.070 Y0.988 Z-6.000 F200.000
G1 X-0.262 Y0.955 Z-6.017 F200.000
G1 X-0.443 Y0.885 Z-6.034 F200.000
G1 X-0.607 Y0.782 Z-6.052 F200.000
G1 X-0.748 Y0.649 Z-6.069 F200.000
G1 X-0.860 Y0.490 Z-6.086 F200.000
G1 X-0.939 Y0.313 Z-6.103 F200.000
G1 X-0.982 Y0.124 Z-6.120 F200.000
G1 X-0.988 Y-0.070 Z-6.137 F200.000
G1 X-0.955 Y-0.262 Z-6.155 F200.000
G1 X-0.885 Y-0.443 Z-6.172 F200.000
G1 X-0.782 Y-0.607 Z-6.189 F200.000
G1 X-0.649 Y-0.748 Z-6.206 F200.000
G1 X-0.490 Y-0.860 Z-6.223 F200.000
G1 X-0.313 Y-0.939 Z-6.240 F200.000
G1 X-0.124 Y-0.982 Z-6.258 F200.000
G1 X0.070 Y-0.988 Z-6.275 F200.000
G1 X0.262 Y-0.955 Z-6.292 F200.000
G1 X0.443 Y-0.885 Z-6.309 F200.000
G1 X0.607 Y-0.782 Z-6.326 F200.000
G1 X0.748 Y-0.649 Z-6.344 F200.000
G1 X0.860 Y-0.490 Z-6.361 F200.000
G1 X0.939 Y-0.313 Z-6.378 F200.000
G1 X0.982 Y-0.124 Z-6.395 F200.000
G1 X0.988 Y0.070 Z-6.412 F200.000
G1 X0.955 Y0.262 Z-6.429 F200.000
G1 X0.885 Y0.443 Z-6.447 F200.000
G1 X0.782 Y0.607 Z-6.464 F200.000
G1 X0.649 Y0.748 Z-6.481 F200.000
G1 X0.490 Y0.860 Z-6.498 F200.000
G1 X0.313 Y0.939 Z-6.515 F200.000
G1 X0.124 Y0.982 Z-6.533 F200.000
G1 X-0.070 Y0.988 Z-6.550 F200.000
G1 X-0.262 Y0.955 Z-6.567 F200.000
G1 X-0.443 Y0.885 Z-6.584 F200.000
G1 X-0.607 Y0.782 Z-6.601 F200.000
G1 X-0.748 Y0.649 Z-6.618 F200.000
G1 X-0.860 Y0.490 Z-6.636 F200.000
G1 X-0.939 Y0.313 Z-6.653 F200.000
G1 X-0.982 Y0.124 Z-6.670 F200.000
G1 X-0.988 Y-0.070 Z-6.687 F200.000
G1 X-0.955 Y-0.262 Z-6.704 F200.000
G1 X-0.885 Y-0.443 Z-6.721 F200.000
G1 X-0.782 Y-0.607 Z-6.739 F200.000
G1 X-0.649 Y-0.748 Z-6.756 F200.000
G1 X-0.490 Y-0.860 Z-6.773 F200.000
G1 X-0.313 Y-0.939 Z-6.790 F200.000
G1 X-0.124 Y-0.982 Z-6.807 F200.000
G1 X0.070 Y-0.988 Z-6.825 F200.000
G1 X0.262 Y-0.955 Z-6.842 F200.000
G1 X0.443 Y-0.885 Z-6.859 F200.000
G1 X0.607 Y-0.782 Z-6.876 F200.000
G1 X0.748 Y-0.649 Z-6.893 F200.000
G1 X0.860 Y-0.490 Z-6.910 F200.000
G1 X0.939 Y-0.313 Z-6.928 F200.000
G1 X0.982 Y-0.124 Z-6.945 F200.000
G1 X0.988 Y0.070 Z-6.962 F200.000
G1 X0.955 Y0.262 Z-6.979 F200.000
G1 X0.885 Y0.443 Z-6.996 F200.000
G1 X0.782 Y0.607 Z-7.014 F200.000
G1 X0.649 Y0.748 Z-7.031 F200.000
G1 X0.490 Y0.860 Z-7.048 F200.000
G1 X0.313 Y0.939 Z-7.065 F200.000
G1 X0.124 Y0.982 Z-7.082 F200.000
G1 X-0.070 Y0.988 Z-7.099 F200.000
G1 X-0.262 Y0.955 Z-7.117 F200.000
G1 X-0.443 Y0.885 Z-7.134 F200.000
G1 X-0.607 Y0.782 Z-7.151 F200.000
G1 X-0.748 Y0.649 Z-7.168 F200.000
G1 X-0.860 Y0.490 Z-7.185 F200.000
G1 X-0.939 Y0.313 Z-7.202 F200.000
G1 X-0.982 Y0.124 Z-7.220 F200.000
G1 X-0.988 Y-0.070 Z-7.237 F200.000
G1 X-0.955 Y-0.262 Z-7.254 F200.000
G1 X-0.885 Y-0.443 Z-7.271 F200.000
G1 X-0.782 Y-0.607 Z-7.288 F200.000
G1 X-0.649 Y-0.748 Z-7.306 F200.000
G1 X-0.490 Y-0.860 Z-7.323 F200.000
G1 X-0.313 Y-0.939 Z-7.340 F200.000
G1 X-0.124 Y-0.982 Z-7.357 F200.000
G1 X0.070 Y-0.988 Z-7.374 F200.000
G1 X0.262 Y-0.955 Z-7.391 F200.000
G1 X0.443 Y-0.885 Z-7.409 F200.000
G1 X0.607 Y-0.782 Z-7.426 F200.000
G1 X0.748 Y-0.649 Z-7.443 F200.000
G1 X0.860 Y-0.490 Z-7.460 F200.000
G1 X0.939 Y-0.313 Z-7.477 F200.000
G1 X0.982 Y-0.124 Z-7.495 F200.000
G1 X0.988 Y0.070 Z-7.512 F200.000
G1 X0.955 Y0.262 Z-7.529 F200.000
G1 X0.885 Y0.443 Z-7.546 F200.000
G1 X0.782 Y0.607 Z-7.563 F200.000
G1 X0.649 Y0.748 Z-7.580 F200.000
G1 X0.490 Y0.860 Z-7.598 F200.000
G1 X0.313 Y0.939 Z-7.615 F200.000
G1 X0.124 Y0.982 Z-7.632 F200.000
G1 X-0.070 Y0.988 Z-7.649 F200.000
G1 X-0.262 Y0.955 Z-7.666 F200.000
G1 X-0.443 Y0.885 Z-7.683 F200.000
G1 X-0.607 Y0.782 Z-7.701 F200.000
G1 X-0.748 Y0.649 Z-7.718 F200.000
G1 X-0.860 Y0.490 Z-7.735 F200.000
G1 X-0.939 Y0.313 Z-7.752 F200.000
G1 X-0.982 Y0.124 Z-7.769 F200.000
G1 X-0.988 Y-0.070 Z-7.787 F200.000
G1 X-0.955 Y-0.262 Z-7.804 F200.000
G1 X-0.885 Y-0.443 Z-7.821 F200.000
G1 X-0.782 Y-0.607 Z-7.838 F200.000
G1 X-0.649 Y-0.748 Z-7.855 F200.000
G1 X-0.490 Y-0.860 Z-7.872 F200.000
G1 X-0.313 Y-0.939 Z-7.890 F200.000
G1 X-0.124 Y-0.982 Z-7.907 F200.000
G1 X0.070 Y-0.988 Z-7.924 F200.000
G1 X0.262 Y-0.955 Z-7.941 F200.000
G1 X0.443 Y-0.885 Z-7.958 F200.000
G1 X0.607 Y-0.782 Z-7.976 F200.000
G1 X0.748 Y-0.649 Z-7.993 F200.000
G1 X0.860 Y-0.490 Z-8.010 F200.000
G1 X0.939 Y-0.313 Z-8.027 F200.000
G1 X0.982 Y-0.124 Z-8.044 F200.000
G1 X0.988 Y0.070 Z-8.061 F200.000
G1 X0.955 Y0.262 Z-8.079 F200.000
G1 X0.885 Y0.443 Z-8.096 F200.000
G1 X0.782 Y0.607 Z-8.113 F200.000
G1 X0.649 Y0.748 Z-8.130 F200.000
G1 X0.490 Y0.860 Z-8.147 F200.000
G1 X0.313 Y0.939 Z-8.164 F200.000
G1 X0.124 Y0.982 Z-8.182 F200.000
G1 X-0.070 Y0.988 Z-8.199 F200.000
G1 X-0.262 Y0.955 Z-8.216 F200.000
G1 X-0.443 Y0.885 Z-8.233 F200.000
G1 X-0.607 Y0.782 Z-8.250 F200.000
G1 X-0.748 Y0.649 Z-8.268 F200.000
G1 X-0.860 Y0.490 Z-8.285 F200.000
G1 X-0.939 Y0.313 Z-8.302 F200.000
G1 X-0.982 Y0.124 Z-8.319 F200.000
G1 X-0.988 Y-0.070 Z-8.336 F200.000
G1 X-0.955 Y-0.262 Z-8.353 F200.000
G1 X-0.885 Y-0.443 Z-8.371 F200.000
G1 X-0.782 Y-0.607 Z-8.388 F200.000
G1 X-0.649 Y-0.748 Z-8.405 F200.000
G1 X-0.490 Y-0.860 Z-8.422 F200.000
G1 X-0.313 Y-0.939 Z-8.439 F200.000
G1 X-0.124 Y-0.982 Z-8.457 F200.000
G1 X0.070 Y-0.988 Z-8.474 F200.000
G1 X0.262 Y-0.955 Z-8.491 F200.000
G1 X0.443 Y-0.885 Z-8.508 F200.000
G1 X0.607 Y-0.782 Z-8.525 F200.000
G1 X0.748 Y-0.649 Z-8.542 F200.000
G1 X0.860 Y-0.490 Z-8.560 F200.000
G1 X0.939 Y-0.313 Z-8.577 F200.000
G1 X0.982 Y-0.124 Z-8.594 F200.000
G1 X0.988 Y0.070 Z-8.611 F200.000
G1 X0.955 Y0.262 Z-8.628 F200.000
G1 X0.885 Y0.443 Z-8.645 F200.000
G1 X0.782 Y0.607 Z-8.663 F200.000
G1 X0.649 Y0.748 Z-8.680 F200.000
G1 X0.490 Y0.860 Z-8.697 F200.000
G1 X0.313 Y0.939 Z-8.714 F200.000
G1 X0.124 Y0.982 Z-8.731 F200.000
G1 X-0.070 Y0.988 Z-8.749 F200.000
G1 X-0.262 Y0.955 Z-8.766 F200.000
G1 X-0.443 Y0.885 Z-8.783 F200.000
G1 X-0.607 Y0.782 Z-8.800 F200.000
G1 X-0.748 Y0.649 Z-8.817 F200.000
G1 X-0.860 Y0.490 Z-8.834 F200.000
G1 X-0.939 Y0.313 Z-8.852 F200.000
G1 X-0.982 Y0.124 Z-8.869 F200.000
G1 X-0.988 Y-0.070 Z-8.886 F200.000
G1 X-0.955 Y-0.262 Z-8.903 F200.000
G1 X-0.885 Y-0.443 Z-8.920 F200.000
G1 X-0.782 Y-0.607 Z-8.937 F200.000
G1 X-0.649 Y-0.748 Z-8.955 F200.000
G1 X-0.490 Y-0.860 Z-8.972 F200.000
G1 X-0.313 Y-0.939 Z-8.989 F200.000
G1 X-0.124 Y-0.982 Z-9.000 F400.000
G1 X0.070 Y-0.988 Z-9.000 F400.000
G1 X0.262 Y-0.955 Z-9.000 F400.000
G1 X0.443 Y-0.885 Z-9.000 F400.000
G1 X0.607 Y-0.782 Z-9.000 F400.000
G1 X0.748 Y-0.649 Z-9.000 F400.000
G1 X0.860 Y-0.490 Z-9.000 F400.000
G1 X0.939 Y-0.313 Z-9.000 F400.000
G1 X0.982 Y-0.124 Z-9.000 F400.000
G1 X0.988 Y0.070 Z-9.000 F400.000
G1 X0.955 Y0.262 Z-9.000 F400.000
G1 X0.885 Y0.443 Z-9.000 F400.000
G1 X0.782 Y0.607 Z-9.000 F400.000
G1 X0.649 Y0.748 Z-9.000 F400.000
G1 X0.490 Y0.860 Z-9.000 F400.000
G1 X0.313 Y0.939 Z-9.000 F400.000
G1 X0.124 Y0.982 Z-9.000 F400.000
G1 X-0.070 Y0.988 Z-9.000 F400.000
G1 X-0.262 Y0.955 Z-9.000 F400.000
G1 X-0.443 Y0.885 Z-9.000 F400.000
G1 X-0.607 Y0.782 Z-9.000 F400.000
G1 X-0.748 Y0.649 Z-9.000 F400.000
G1 X-0.860 Y0.490 Z-9.000 F400.000
G1 X-0.939 Y0.313 Z-9.000 F400.000
G1 X-0.982 Y0.124 Z-9.000 F400.000
G1 X-0.988 Y-0.070 Z-9.000 F400.000
G1 X-0.955 Y-0.262 Z-9.000 F400.000
G1 X-0.885 Y-0.443 Z-9.000 F400.000
G1 X-0.782 Y-0.607 Z-9.000 F400.000
G1 X-0.649 Y-0.748 Z-9.000 F400.000
G1 X-0.490 Y-0.860 Z-9.000 F400.000
G1 X-0.313 Y-0.939 Z-9.000 F400.000
(Adaptive - depth: -9.000000)
G1 X0.000 Y-1.000 F400.000
G1 X0.041 Y-1.041 F400.000
G1 X0.150 Y-1.079 F400.000
G1 X0.263 Y-1.090 F400.000
G1 X0.432 Y-1.068 F400.000
G1 X0.489 Y-1.053 F400.000
G1 X0.827 Y-0.895 F400.000
G1 X0.981 Y-0.744 F400.000
G1 X1.053 Y-0.647 F400.000
G1 X1.117 Y-0.530 F400.000
G1 X1.188 Y-0.365 F400.000
G1 X1.244 Y-0.124 F400.000
G1 X1.252 Y0.075 F400.000
G1 X1.233 Y0.244 F400.000
G1 X1.184 Y0.417 F400.000
G1 X1.113 Y0.586 F400.000
G1 X1.008 Y0.759 F400.000
G1 X0.876 Y0.914 F400.000
G1 X0.726 Y1.038 F400.000
G1 X0.571 Y1.132 F400.000
G1 X0.391 Y1.207 F400.000
G1 X0.203 Y1.248 F400.000
G1 X0.015 Y1.263 F400.000
G1 X-0.173 Y1.252 F400.000
G1 X-0.376 Y1.207 F400.000
G1 X-0.556 Y1.135 F400.000
G1 X-0.729 Y1.038 F400.000
G1 X-0.883 Y0.914 F400.000
G1 X-1.015 Y0.763 F400.000
G1 X-1.113 Y0.613 F400.000
G1 X-1.192 Y0.436 F400.000
G1 X-1.241 Y0.248 F400.000
G1 X-1.259 Y0.060 F400.000
G1 X-1.259 Y-0.128 F400.000
G1 X-1.222 Y-0.342 F400.000
G1 X-1.158 Y-0.530 F400.000
G1 X-1.056 Y-0.707 F400.000
G1 X-0.951 Y-0.838 F400.000
G1 X-0.816 Y-0.970 F400.000
G1 X-0.658 Y-1.090 F400.000
G1 X-0.466 Y-1.207 F400.000
G1 X-0.229 Y-1.312 F400.000
G1 X0.120 Y-1.357 F400.000
G1 X0.346 Y-1.350 F400.000
G1 X0.707 Y-1.271 F400.000
G1 X0.947 Y-1.139 F400.000
G1 X1.056 Y-1.053 F400.000
G1 X1.158 Y-0.951 F400.000
G1 X1.274 Y-0.805 F400.000
G1 X1.398 Y-0.598 F400.000
G1 X1.489 Y-0.380 F400.000
G1 X1.534 Y-0.165 F400.000
G1 X1.549 Y0.011 F400.000
G1 X1.534 Y0.214 F400.000
G1 X1.496 Y0.410 F400.000
G1 X1.429 Y0.624 F400.000
G1 X1.327 Y0.831 F400.000
G1 X1.199 Y1.008 F400.000
G1 X1.068 Y1.150 F400.000
G1 X0.898 Y1.286 F400.000
G1 X0.714 Y1.391 F400.000
G1 X0.523 Y1.470 F400.000
G1 X0.320 Y1.526 F400.000
G1 X0.094 Y1.556 F400.000
G1 X-0.132 Y1.556 F400.000
G1 X-0.350 Y1.530 F400.000
G1 X-0.564 Y1.462 F400.000
G1 X-0.737 Y1.383 F400.000
G1 X-0.921 Y1.274 F400.000
G1 X-1.098 Y1.124 F400.000
G1 X-1.241 Y0.970 F400.000
G1 X-1.365 Y0.789 F400.000
G1 X-1.462 Y0.590 F400.000
G1 X-1.523 Y0.380 F400.000
G1 X-1.553 Y0.192 F400.000
G1 X-1.564 Y-0.011 F400.000
G1 X-1.545 Y-0.256 F400.000
G1 X-1.496 Y-0.489 F400.000
G1 X-1.410 Y-0.699 F400.000
G1 X-1.312 Y-0.861 F400.000
G1 X-1.203 Y-1.011 F400.000
G1 X-1.038 Y-1.192 F400.000
G1 X-0.838 Y-1.361 F400.000
G1 X-0.609 Y-1.492 F400.000
G1 X-0.429 Y-1.568 F400.000
G1 X-0.233 Y-1.628 F400.000
G1 X0.008 Y-1.669 F400.000
G1 X0.259 Y-1.677 F400.000
G1 X0.489 Y-1.658 F400.000
G1 X0.726 Y-1.602 F400.000
G1 X0.917 Y-1.519 F400.000
G1 X1.086 Y-1.421 F400.000
G1 X1.259 Y-1.293 F400.000
G1 X1.425 Y-1.132 F400.000
G1 X1.571 Y-0.944 F400.000
G1 X1.684 Y-0.741 F400.000
G1 X1.763 Y-0.553 F400.000
G1 X1.831 Y-0.320 F400.000
G1 X1.865 Y-0.075 F400.000
G1 X1.868 Y0.147 F400.000
G1 X1.842 Y0.380 F400.000
G1 X1.786 Y0.609 F400.000
G1 X1.703 Y0.827 F400.000
G1 X1.594 Y1.030 F400.000
G1 X1.459 Y1.218 F400.000
G1 X1.301 Y1.387 F400.000
G1 X1.120 Y1.538 F400.000
G1 X0.925 Y1.662 F400.000
G1 X0.714 Y1.763 F400.000
G1 X0.492 Y1.835 F400.000
G1 X0.263 Y1.880 F400.000
G1 X0.030 Y1.895 F400.000
G1 X-0.199 Y1.887 F400.000
G1 X-0.455 Y1.842 F400.000
G1 X-0.684 Y1.771 F400.000
G1 X-0.906 Y1.673 F400.000
G1 X-1.117 Y1.545 F400.000
G1 X-1.308 Y1.395 F400.000
G1 X-1.477 Y1.214 F400.000
G1 X-1.602 Y1.038 F400.000
G1 X-1.699 Y0.853 F400.000
G1 X-1.782 Y0.647 F400.000
G1 X-1.853 Y0.395 F400.000
G1 X-1.895 Y0.120 F400.000
G1 X-1.895 Y-0.124 F400.000
G1 X-1.872 Y-0.335 F400.000
G1 X-1.812 Y-0.571 F400.000
G1 X-1.733 Y-0.789 F400.000
G1 X-1.617 Y-1.015 F400.000
G1 X-1.477 Y-1.214 F400.000
G1 X-1.316 Y-1.398 F400.000
G1 X-1.132 Y-1.564 F400.000
G1 X-0.929 Y-1.703 F400.000
G1 X-0.714 Y-1.823 F400.000
G1 X-0.462 Y-1.925 F400.000
G1 X-0.214 Y-1.992 F400.000
G1 X0.038 Y-2.023 F400.000
G1 X0.256 Y-2.026 F400.000
G1 X0.496 Y-2.008 F400.000
G1 X0.774 Y-1.944 F400.000
G1 X1.004 Y-1.853 F400.000
G1 X1.199 Y-1.756 F400.000
G1 X1.402 Y-1.613 F400.000
G1 X1.583 Y-1.459 F400.000
G1 X1.759 Y-1.263 F400.000
G1 X1.902 Y-1.060 F400.000
G1 X2.023 Y-0.842 F400.000
G1 X2.117 Y-0.605 F400.000
G1 X2.180 Y-0.365 F400.000
G1 X2.218 Y-0.113 F400.000
G1 X2.222 Y0.135 F400.000
G1 X2.199 Y0.383 F400.000
G1 X2.147 Y0.628 F400.000
G1 X2.064 Y0.865 F400.000
G1 X1.959 Y1.094 F400.000
G1 X1.812 Y1.327 F400.000
G1 X1.650 Y1.530 F400.000
G1 X1.466 Y1.714 F400.000
G1 X1.259 Y1.876 F400.000
G1 X1.034 Y2.004 F400.000
G1 X0.835 Y2.090 F400.000
G1 X0.602 Y2.169 F400.000
G1 X0.320 Y2.229 F400.000
G1 X0.030 Y2.248 F400.000
G1 X-0.203 Y2.244 F400.000
G1 X-0.470 Y2.207 F400.000
G1 X-0.722 Y2.139 F400.000
G1 X-0.959 Y2.045 F400.000
G1 X-1.192 Y1.921 F400.000
G1 X-1.406 Y1.774 F400.000
G1 X-1.602 Y1.605 F400.000
G1 X-1.778 Y1.410 F400.000
G1 X-1.929 Y1.199 F400.000
G1 X-2.045 Y0.966 F400.000
G1 X-2.124 Y0.763 F400.000
G1 X-2.192 Y0.526 F400.000
G1 X-2.244 Y0.229 F400.000
G1 X-2.263 Y-0.064 F400.000
G1 X-2.241 Y-0.338 F400.000
G1 X-2.199 Y-0.564 F400.000
G1 X-2.120 Y-0.820 F400.000
G1 X-2.015 Y-1.053 F400.000
G1 X-1.887 Y-1.267 F400.000
G1 X-1.737 Y-1.474 F400.000
G1 X-1.549 Y-1.680 F400.000
G1 X-1.327 Y-1.872 F400.000
G1 X-1.102 Y-2.030 F400.000
G1 X-0.857 Y-2.169 F400.000
G1 X-0.594 Y-2.271 F400.000
G1 X-0.365 Y-2.335 F400.000
G1 X-0.102 Y-2.376 F400.000
G1 X0.154 Y-2.395 F400.000
G1 X0.455 Y-2.380 F400.000
G1 X0.726 Y-2.338 F400.000
G1 X0.989 Y-2.259 F400.000
G1 X1.211 Y-2.165 F400.000
G1 X1.440 Y-2.038 F400.000
G1 X1.650 Y-1.891 F400.000
G1 X1.865 Y-1.703 F400.000
G1 X2.045 Y-1.504 F400.000
G1 X2.203 Y-1.286 F400.000
G1 X2.338 Y-1.045 F400.000
G1 X2.447 Y-0.793 F400.000
G1 X2.530 Y-0.530 F400.000
G1 X2.583 Y-0.259 F400.000
G1 X2.605 Y0.011 F400.000
G1 X2.598 Y0.282 F400.000
G1 X2.560 Y0.553 F400.000
G1 X2.492 Y0.816 F400.000
G1 X2.398 Y1.071 F400.000
G1 X2.274 Y1.316 F400.000
G1 X2.124 Y1.545 F400.000
G1 X1.951 Y1.759 F400.000
G1 X1.756 Y1.951 F400.000
G1 X1.545 Y2.128 F400.000
G1 X1.293 Y2.293 F400.000
G1 X1.041 Y2.421 F400.000
G1 X0.771 Y2.515 F400.000
G1 X0.534 Y2.571 F400.000
G1 X0.267 Y2.613 F400.000
G1 X-0.030 Y2.632 F400.000
G1 X-0.357 Y2.617 F400.000
G1 X-0.647 Y2.556 F400.000
G1 X-0.861 Y2.492 F400.000
G1 X-1.120 Y2.391 F400.000
G1 X-1.398 Y2.248 F400.000
G1 X-1.658 Y2.064 F400.000
G1 X-1.842 Y1.895 F400.000
G1 X-2.004 Y1.714 F400.000
G1 X-2.162 Y1.504 F400.000
G1 X-2.323 Y1.237 F400.000
G1 X-2.459 Y0.951 F400.000
G1 X-2.553 Y0.669 F400.000
G1 X-2.605 Y0.414 F400.000
G1 X-2.635 Y0.162 F400.000
G1 X-2.643 Y-0.132 F400.000
G1 X-2.613 Y-0.440 F400.000
G1 X-2.560 Y-0.718 F400.000
G1 X-2.459 Y-0.996 F400.000
G1 X-2.361 Y-1.207 F400.000
G1 X-2.229 Y-1.444 F400.000
G1 X-2.045 Y-1.703 F400.000
G1 X-1.838 Y-1.936 F400.000
G1 X-1.620 Y-2.143 F400.000
G1 X-1.365 Y-2.323 F400.000
G1 X-1.143 Y-2.455 F400.000
G1 X-0.883 Y-2.575 F400.000
G1 X-0.617 Y-2.669 F400.000
G1 X-0.316 Y-2.741 F400.000
G1 X-0.023 Y-2.778 F400.000
G1 X0.267 Y-2.789 F400.000
G1 X0.560 Y-2.767 F400.000
G1 X0.850 Y-2.718 F400.000
G1 X1.132 Y-2.624 F400.000
G1 X1.346 Y-2.530 F400.000
G1 X1.583 Y-2.402 F400.000
G1 X1.850 Y-2.226 F400.000
G1 X2.102 Y-2.019 F400.000
G1 X2.312 Y-1.797 F400.000
G1 X2.477 Y-1.586 F400.000
G1 X2.635 Y-1.335 F400.000
G1 X2.763 Y-1.075 F400.000
G1 X2.865 Y-0.808 F400.000
G1 X2.936 Y-0.526 F400.000
G1 X2.977 Y-0.237 F400.000
G1 X2.992 Y0.049 F400.000
G1 X2.985 Y0.335 F400.000
G1 X2.936 Y0.665 F400.000
G1 X2.865 Y0.955 F400.000
G1 X2.752 Y1.241 F400.000
G1 X2.639 Y1.466 F400.000
G1 X2.485 Y1.707 F400.000
G1 X2.320 Y1.929 F400.000
G1 X2.079 Y2.184 F400.000
G1 X1.853 Y2.383 F400.000
G1 X1.605 Y2.564 F400.000
G1 X1.331 Y2.722 F400.000
G1 X1.045 Y2.842 F400.000
G1 X0.797 Y2.921 F400.000
G1 X0.508 Y2.981 F400.000
G1 X0.222 Y3.019 F400.000
G1 X-0.113 Y3.026 F400.000
G1 X-0.414 Y3.004 F400.000
G1 X-0.714 Y2.951 F400.000
G1 X-1.019 Y2.868 F400.000
G1 X-1.305 Y2.759 F400.000
G1 X-1.575 Y2.609 F400.000
G1 X-1.786 Y2.470 F400.000
G1 X-2.004 Y2.286 F400.000
G1 X-2.203 Y2.086 F400.000
G1 X-2.421 Y1.831 F400.000
G1 X-2.609 Y1.553 F400.000
G1 X-2.752 Y1.271 F400.000
G1 X-2.850 Y1.030 F400.000
G1 X-2.940 Y0.744 F400.000
G1 X-3.011 Y0.417 F400.000
G1 X-3.038 Y0.079 F400.000
G1 X-3.038 Y-0.184 F400.000
G1 X-3.008 Y-0.489 F400.000
G1 X-2.944 Y-0.786 F400.000
G1 X-2.857 Y-1.064 F400.000
G1 X-2.741 Y-1.338 F400.000
G1 X-2.598 Y-1.598 F400.000
G1 X-2.436 Y-1.846 F400.000
G1 X-2.211 Y-2.124 F400.000
G1 X-1.989 Y-2.350 F400.000
G1 X-1.737 Y-2.553 F400.000
G1 X-1.515 Y-2.699 F400.000
G1 X-1.252 Y-2.850 F400.000
G1 X-0.929 Y-2.985 F400.000
G1 X-0.643 Y-3.079 F400.000
G1 X-0.335 Y-3.150 F400.000
G1 X-0.015 Y-3.188 F400.000
G1 X0.293 Y-3.195 F400.000
G1 X0.605 Y-3.173 F400.000
G1 X0.914 Y-3.120 F400.000
G1 X1.214 Y-3.026 F400.000
G1 X1.447 Y-2.932 F400.000
G1 X1.707 Y-2.805 F400.000
G1 X2.011 Y-2.617 F400.000
G1 X2.286 Y-2.410 F400.000
G1 X2.519 Y-2.180 F400.000
G1 X2.692 Y-1.981 F400.000
G1 X2.868 Y-1.729 F400.000
G1 X3.019 Y-1.474 F400.000
G1 X3.169 Y-1.162 F400.000
G1 X3.278 Y-0.827 F400.000
G1 X3.346 Y-0.560 F400.000
G1 X3.391 Y-0.241 F400.000
G1 X3.402 Y0.068 F400.000
G1 X3.395 Y0.365 F400.000
G1 X3.350 Y0.711 F400.000
G1 X3.278 Y1.019 F400.000
G1 X3.169 Y1.323 F400.000
G1 X3.053 Y1.575 F400.000
G1 X2.898 Y1.835 F400.000
G1 X2.726 Y2.083 F400.000
G1 X2.492 Y2.353 F400.000
G1 X2.263 Y2.575 F400.000
G1 X2.011 Y2.778 F400.000
G1 X1.733 Y2.962 F400.000
G1 X1.444 Y3.120 F400.000
G1 X1.139 Y3.241 F400.000
G1 X0.872 Y3.320 F400.000
G1 X0.571 Y3.387 F400.000
G1 X0.222 Y3.432 F400.000
G1 X-0.120 Y3.444 F400.000
G1 X-0.451 Y3.429 F400.000
G1 X-0.786 Y3.368 F400.000
G1 X-1.060 Y3.297 F400.000
G1 X-1.361 Y3.188 F400.000
G1 X-1.643 Y3.049 F400.000
G1 X-1.906 Y2.891 F400.000
G1 X-2.154 Y2.703 F400.000
G1 X-2.383 Y2.492 F400.000
G1 X-2.598 Y2.267 F400.000
G1 X-2.812 Y1.989 F400.000
G1 X-2.985 Y1.714 F400.000
G1 X-3.135 Y1.425 F400.000
G1 X-3.263 Y1.113 F400.000
G1 X-3.361 Y0.797 F400.000
G1 X-3.429 Y0.474 F400.000
G1 X-3.455 Y0.143 F400.000
G1 X-3.455 Y-0.128 F400.000
G1 X-3.432 Y-0.432 F400.000
G1 X-3.376 Y-0.774 F400.000
G1 X-3.286 Y-1.120 F400.000
G1 X-3.158 Y-1.432 F400.000
G1 X-3.038 Y-1.673 F400.000
G1 X-2.872 Y-1.947 F400.000
G1 X-2.669 Y-2.233 F400.000
G1 X-2.425 Y-2.515 F400.000
G1 X-2.165 Y-2.744 F400.000
G1 X-1.951 Y-2.910 F400.000
G1 X-1.680 Y-3.090 F400.000
G1 X-1.353 Y-3.267 F400.000
G1 X-1.019 Y-3.414 F400.000
G1 X-0.680 Y-3.515 F400.000
G1 X-0.398 Y-3.568 F400.000
G1 X-0.124 Y-3.602 F400.000
G1 X0.226 Y-3.620 F400.000
G1 X0.594 Y-3.598 F400.000
G1 X0.921 Y-3.541 F400.000
G1 X1.195 Y-3.474 F400.000
G1 X1.508 Y-3.368 F400.000
G1 X1.827 Y-3.222 F400.000
G1 X2.105 Y-3.064 F400.000
G1 X2.380 Y-2.876 F400.000
G1 X2.635 Y-2.662 F400.000
G1 X2.868 Y-2.429 F400.000
G1 X3.083 Y-2.173 F400.000
G1 X3.274 Y-1.898 F400.000
G1 X3.436 Y-1.609 F400.000
G1 X3.575 Y-1.305 F400.000
G1 X3.684 Y-0.989 F400.000
G1 X3.767 Y-0.665 F400.000
G1 X3.820 Y-0.335 F400.000
G1 X3.842 Y-0.004 F400.000
G1 X3.835 Y0.323 F400.000
G1 X3.797 Y0.654 F400.000
G1 X3.729 Y0.977 F400.000
G1 X3.635 Y1.293 F400.000
G1 X3.511 Y1.598 F400.000
G1 X3.361 Y1.891 F400.000
G1 X3.184 Y2.169 F400.000
G1 X2.985 Y2.432 F400.000
G1 X2.767 Y2.680 F400.000
G1 X2.496 Y2.936 F400.000
G1 X2.222 Y3.154 F400.000
G1 X1.921 Y3.342 F400.000
G1 X1.650 Y3.485 F400.000
G1 X1.338 Y3.613 F400.000
G1 X1.023 Y3.718 F400.000
G1 X0.658 Y3.801 F400.000
G1 X0.312 Y3.850 F400.000
G1 X-0.030 Y3.872 F400.000
G1 X-0.380 Y3.861 F400.000
G1 X-0.726 Y3.820 F400.000
G1 X-1.064 Y3.737 F400.000
G1 X-1.335 Y3.650 F400.000
G1 X-1.635 Y3.523 F400.000
G1 X-1.921 Y3.380 F400.000
G1 X-2.233 Y3.180 F400.000
G1 X-2.508 Y2.970 F400.000
G1 X-2.759 Y2.726 F400.000
G1 X-2.955 Y2.504 F400.000
G1 X-3.158 Y2.244 F400.000
G1 X-3.361 Y1.932 F400.000
G1 X-3.538 Y1.602 F400.000
G1 X-3.673 Y1.263 F400.000
G1 X-3.767 Y0.970 F400.000
G1 X-3.842 Y0.632 F400.000
G1 X-3.883 Y0.293 F400.000
G1 X-3.895 Y-0.030 F400.000
G1 X-3.876 Y-0.365 F400.000
G1 X-3.827 Y-0.695 F400.000
G1 X-3.759 Y-1.023 F400.000
G1 X-3.647 Y-1.376 F400.000
G1 X-3.515 Y-1.703 F400.000
G1 X-3.342 Y-2.019 F400.000
G1 X-3.180 Y-2.267 F400.000
G1 X-2.977 Y-2.534 F400.000
G1 X-2.729 Y-2.812 F400.000
G1 X-2.459 Y-3.068 F400.000
G1 X-2.173 Y-3.301 F400.000
G1 X-1.861 Y-3.504 F400.000
G1 X-1.586 Y-3.654 F400.000
G1 X-1.267 Y-3.793 F400.000
G1 X-0.936 Y-3.902 F400.000
G1 X-0.609 Y-3.981 F400.000
G1 X-0.271 Y-4.030 F400.000
G1 X0.068 Y-4.049 F400.000
G1 X0.402 Y-4.041 F400.000
G1 X0.741 Y-4.015 F400.000
G1 X1.105 Y-3.951 F400.000
G1 X1.455 Y-3.846 F400.000
G1 X1.733 Y-3.744 F400.000
G1 X2.060 Y-3.594 F400.000
G1 X2.380 Y-3.406 F400.000
G1 X2.665 Y-3.211 F400.000
G1 X2.947 Y-2.981 F400.000
G1 X3.207 Y-2.726 F400.000
G1 X3.429 Y-2.444 F400.000
G1 X3.586 Y-2.214 F400.000
G1 X3.756 Y-1.932 F400.000
G1 X3.921 Y-1.598 F400.000
G1 X4.056 Y-1.252 F400.000
G1 X4.169 Y-0.895 F400.000
G1 X4.241 Y-0.526 F400.000
G1 X4.278 Y-0.214 F400.000
G1 X4.293 Y0.139 F400.000
G1 X4.274 Y0.489 F400.000
G1 X4.218 Y0.820 F400.000
G1 X4.154 Y1.105 F400.000
G1 X4.045 Y1.459 F400.000
G1 X3.902 Y1.801 F400.000
G1 X3.744 Y2.113 F400.000
G1 X3.553 Y2.429 F400.000
G1 X3.331 Y2.729 F400.000
G1 X3.090 Y3.008 F400.000
G1 X2.816 Y3.259 F400.000
G1 X2.579 Y3.451 F400.000
G1 X2.289 Y3.643 F400.000
G1 X1.992 Y3.808 F400.000
G1 X1.654 Y3.962 F400.000
G1 X1.316 Y4.083 F400.000
G1 X0.970 Y4.184 F400.000
G1 X0.602 Y4.256 F400.000
G1 X0.229 Y4.301 F400.000
G1 X-0.139 Y4.320 F400.000
G1 X-0.508 Y4.289 F400.000
G1 X-0.805 Y4.248 F400.000
G1 X-1.150 Y4.169 F400.000
G1 X-1.481 Y4.068 F400.000
G1 X-1.823 Y3.929 F400.000
G1 X-2.147 Y3.763 F400.000
G1 X-2.455 Y3.564 F400.000
G1 X-2.703 Y3.376 F400.000
G1 X-2.959 Y3.143 F400.000
G1 X-3.195 Y2.902 F400.000
G1 X-3.436 Y2.617 F400.000
G1 X-3.650 Y2.312 F400.000
G1 X-3.846 Y1.992 F400.000
G1 X-4.000 Y1.650 F400.000
G1 X-4.105 Y1.372 F400.000
G1 X-4.203 Y1.023 F400.000
G1 X-4.274 Y0.680 F400.000
G1 X-4.320 Y0.308 F400.000
G1 X-4.335 Y-0.060 F400.000
G1 X-4.323 Y-0.429 F400.000
G1 X-4.267 Y-0.793 F400.000
G1 X-4.199 Y-1.090 F400.000
G1 X-4.102 Y-1.425 F400.000
G1 X-3.970 Y-1.771 F400.000
G1 X-3.808 Y-2.105 F400.000
G1 X-3.624 Y-2.429 F400.000
G1 X-3.402 Y-2.729 F400.000
G1 X-3.203 Y-2.966 F400.000
G1 X-2.955 Y-3.226 F400.000
G1 X-2.680 Y-3.474 F400.000
G1 X-2.383 Y-3.699 F400.000
G1 X-2.075 Y-3.906 F400.000
G1 X-1.744 Y-4.079 F400.000
G1 X-1.436 Y-4.218 F400.000
G1 X-1.079 Y-4.331 F400.000
G1 X-0.778 Y-4.402 F400.000
G1 X-0.440 Y-4.459 F400.000
G1 X-0.068 Y-4.492 F400.000
G1 X0.301 Y-4.496 F400.000
G1 X0.669 Y-4.474 F400.000
G1 X1.038 Y-4.425 F400.000
G1 X1.398 Y-4.346 F400.000
G1 X1.748 Y-4.226 F400.000
G1 X2.026 Y-4.109 F400.000
G1 X2.350 Y-3.947 F400.000
G1 X2.669 Y-3.759 F400.000
G1 X2.974 Y-3.545 F400.000
G1 X3.252 Y-3.301 F400.000
G1 X3.477 Y-3.075 F400.000
G1 X3.718 Y-2.789 F400.000
G1 X3.932 Y-2.496 F400.000
G1 X4.128 Y-2.180 F400.000
G1 X4.297 Y-1.850 F400.000
G1 X4.444 Y-1.508 F400.000
G1 X4.560 Y-1.154 F400.000
G1 X4.650 Y-0.793 F400.000
G1 X4.714 Y-0.425 F400.000
G1 X4.733 Y-0.053 F400.000
G1 X4.729 Y0.256 F400.000
G1 X4.703 Y0.609 F400.000
G1 X4.643 Y0.974 F400.000
G1 X4.556 Y1.335 F400.000
G1 X4.447 Y1.688 F400.000
G1 X4.308 Y2.034 F400.000
G1 X4.135 Y2.361 F400.000
G1 X3.962 Y2.639 F400.000
G1 X3.741 Y2.936 F400.000
G1 X3.508 Y3.218 F400.000
G1 X3.244 Y3.481 F400.000
G1 X2.962 Y3.726 F400.000
G1 X2.658 Y3.940 F400.000
G1 X2.376 Y4.109 F400.000
G1 X2.049 Y4.278 F400.000
G1 X1.707 Y4.429 F400.000
G1 X1.353 Y4.549 F400.000
G1 X0.992 Y4.647 F400.000
G1 X0.624 Y4.718 F400.000
G1 X0.252 Y4.763 F400.000
G1 X-0.117 Y4.767 F400.000
G1 X-0.444 Y4.752 F400.000
G1 X-0.812 Y4.703 F400.000
G1 X-1.177 Y4.632 F400.000
G1 X-1.534 Y4.530 F400.000
G1 X-1.883 Y4.402 F400.000
G1 X-2.218 Y4.241 F400.000
G1 X-2.500 Y4.079 F400.000
G1 X-2.805 Y3.868 F400.000
G1 X-3.090 Y3.643 F400.000
G1 X-3.361 Y3.387 F400.000
G1 X-3.613 Y3.113 F400.000
G1 X-3.850 Y2.823 F400.000
G1 X-4.060 Y2.515 F400.000
G1 X-4.248 Y2.195 F400.000
G1 X-4.402 Y1.853 F400.000
G1 X-4.515 Y1.553 F400.000
G1 X-4.624 Y1.195 F400.000
G1 X-4.707 Y0.831 F400.000
G1 X-4.763 Y0.462 F400.000
G1 X-4.793 Y0.090 F400.000
G1 X-4.797 Y-0.278 F400.000
G1 X-4.756 Y-0.647 F400.000
G1 X-4.707 Y-0.944 F400.000
G1 X-4.624 Y-1.305 F400.000
G1 X-4.515 Y-1.658 F400.000
G1 X-4.380 Y-2.004 F400.000
G1 X-4.222 Y-2.338 F400.000
G1 X-4.026 Y-2.654 F400.000
G1 X-3.835 Y-2.925 F400.000
G1 X-3.598 Y-3.211 F400.000
G1 X-3.346 Y-3.485 F400.000
G1 X-3.071 Y-3.737 F400.000
G1 X-2.778 Y-3.970 F400.000
G1 X-2.474 Y-4.184 F400.000
G1 X-2.154 Y-4.372 F400.000
G1 X-1.820 Y-4.538 F400.000
G1 X-1.474 Y-4.680 F400.000
G1 X-1.117 Y-4.786 F400.000
G1 X-0.797 Y-4.861 F400.000
G1 X-0.429 Y-4.921 F400.000
G1 X-0.056 Y-4.955 F400.000
G1 X0.312 Y-4.962 F400.000
G1 X0.737 Y-4.936 F400.000
G1 X1.470 Y-4.782 F400.000
G1 X2.342 Y-4.429 F400.000
G1 X2.996 Y-4.026 F400.000
G1 X3.628 Y-3.474 F400.000
G1 X4.064 Y-2.974 F400.000
G1 X4.526 Y-2.263 F400.000
G1 X4.842 Y-1.534 F400.000
G1 X5.053 Y-0.692 F400.000
G1 X5.113 Y0.365 F400.000
G1 X4.992 Y1.267 F400.000
G1 X4.680 Y2.158 F400.000
G1 X4.342 Y2.778 F400.000
G1 X3.914 Y3.350 F400.000
G1 X3.259 Y3.970 F400.000
G1 X2.771 Y4.320 F400.000
G1 X2.124 Y4.665 F400.000
G1 X1.320 Y4.966 F400.000
G1 X0.417 Y5.132 F400.000
G1 X-0.395 Y5.169 F400.000
G1 X-1.297 Y5.045 F400.000
G1 X-2.184 Y4.726 F400.000
G1 X-2.947 Y4.267 F400.000
G1 X-3.793 Y3.508 F400.000
G1 X-4.278 Y2.887 F400.000
G1 X-4.560 Y2.417 F400.000
G1 X-4.857 Y1.741 F400.000
G1 X-5.064 Y1.023 F400.000
G1 X-5.162 Y0.421 F400.000
G1 X-5.162 Y-0.620 F400.000
G1 X-5.064 Y-1.241 F400.000
G1 X-4.711 Y-2.241 F400.000
G1 X-4.395 Y-2.808 F400.000
G1 X-3.895 Y-3.477 F400.000
G1 X-3.241 Y-4.102 F400.000
G1 X-2.594 Y-4.564 F400.000
G1 X-1.944 Y-4.902 F400.000
G1 X-1.259 Y-5.150 F400.000
G1 X-0.541 Y-5.320 F400.000
G1 X0.395 Y-5.380 F400.000
G1 X1.241 Y-5.263 F400.000
G1 X2.297 Y-4.895 F400.000
G1 X2.771 Y-4.647 F400.000
G1 X3.669 Y-3.977 F400.000
G1 X4.320 Y-3.278 F400.000
G1 X4.568 Y-2.932 F400.000
G1 X4.925 Y-2.297 F400.000
G1 X5.252 Y-1.436 F400.000
G1 X5.383 Y-0.895 F400.000
G1 X5.466 Y-0.173 F400.000
G1 X5.447 Y0.455 F400.000
G1 X5.425 Y0.737 F400.000
G1 X5.237 Y1.583 F400.000
G1 X5.030 Y2.139 F400.000
G1 X4.714 Y2.771 F400.000
G1 X4.353 Y3.312 F400.000
G1 X3.756 Y3.974 F400.000
G1 X3.102 Y4.508 F400.000
G1 X2.474 Y4.876 F400.000
G1 X1.966 Y5.105 F400.000
G1 X1.320 Y5.305 F400.000
G1 X0.658 Y5.429 F400.000
G1 X0.000 Y5.470 F400.000
G1 X-0.620 Y5.432 F400.000
G1 X-1.579 Y5.241 F400.000
G1 X-2.252 Y4.985 F400.000
G1 X-2.778 Y4.711 F400.000
G1 X-3.177 Y4.455 F400.000
G1 X-3.598 Y4.120 F400.000
G1 X-4.335 Y3.338 F400.000
G1 X-4.545 Y3.045 F400.000
G1 X-4.929 Y2.361 F400.000
G1 X-5.188 Y1.741 F400.000
G1 X-5.387 Y0.962 F400.000
G1 X-5.470 Y0.120 F400.000
G1 X-5.425 Y-0.733 F400.000
G1 X-5.241 Y-1.579 F400.000
G1 X-5.079 Y-2.030 F400.000
G1 X-4.583 Y-2.989 F400.000
G1 X-4.113 Y-3.605 F400.000
G1 X-3.380 Y-4.301 F400.000
G1 X-2.985 Y-4.586 F400.000
G1 X-2.117 Y-5.041 F400.000
G1 X-1.778 Y-5.177 F400.000
G1 X-0.759 Y-5.417 F400.000
G1 X0.019 Y-5.470 F400.000
G1 X0.695 Y-5.421 F400.000
G1 X1.598 Y-5.233 F400.000
G1 X2.267 Y-4.977 F400.000
G1 X2.688 Y-4.767 F400.000
G1 X3.387 Y-4.293 F400.000
G1 X4.120 Y-3.598 F400.000
G1 X4.523 Y-3.079 F400.000
G1 X4.891 Y-2.451 F400.000
G1 X5.135 Y-1.887 F400.000
G1 X5.312 Y-1.297 F400.000
G1 X5.312 Y-1.297 F400.000
G1 X5.312 Y-1.139 F400.000
G1 X5.320 Y-1.113 F400.000
G1 X5.421 Y-0.932 F400.000
G1 X5.421 Y-0.932 F400.000
G1 X5.447 Y-0.763 F400.000
G1 X5.500 Y-0.041 F400.000
G1 X5.489 Y0.282 F400.000
G1 X5.447 Y0.759 F400.000
G1 X5.335 Y1.312 F400.000
G1 X5.199 Y1.789 F400.000
G1 X5.120 Y2.000 F400.000
G1 X4.872 Y2.545 F400.000
G1 X4.579 Y3.041 F400.000
G1 X4.466 Y3.207 F400.000
G1 X4.323 Y3.395 F400.000
G1 X4.135 Y3.617 F400.000
G1 X3.793 Y3.974 F400.000
G1 X3.586 Y4.162 F400.000
G1 X3.383 Y4.331 F400.000
G1 X3.034 Y4.586 F400.000
G1 X2.447 Y4.921 F400.000
G1 X1.985 Y5.124 F400.000
G1 X1.756 Y5.211 F400.000
G1 X1.571 Y5.267 F400.000
G1 X0.966 Y5.410 F400.000
G1 X0.756 Y5.447 F400.000
G1 X0.188 Y5.492 F400.000
G1 X-0.034 Y5.500 F400.000
G1 X-0.575 Y5.466 F400.000
G1 X-1.030 Y5.395 F400.000
G1 X-1.391 Y5.316 F400.000
G1 X-1.590 Y5.263 F400.000
G1 X-1.846 Y5.177 F400.000
G1 X-2.289 Y4.996 F400.000
G1 X-2.695 Y4.793 F400.000
G1 X-3.034 Y4.586 F400.000
G1 X-3.199 Y4.470 F400.000
G1 X-3.639 Y4.117 F400.000
G1 X-3.981 Y3.786 F400.000
G1 X-4.199 Y3.549 F400.000
G1 X-4.526 Y3.124 F400.000
G1 X-4.620 Y2.977 F400.000
G1 X-4.902 Y2.481 F400.000
G1 X-5.128 Y1.977 F400.000
G1 X-5.229 Y1.699 F400.000
G1 X-5.346 Y1.263 F400.000
G1 X-5.421 Y0.925 F400.000
G1 X-5.451 Y0.733 F400.000
G1 X-5.496 Y0.162 F400.000
G1 X-5.500 Y-0.041 F400.000
G1 X-5.470 Y-0.575 F400.000
G1 X-5.451 Y-0.737 F400.000
G1 X-5.395 Y-1.049 F400.000
G1 X-5.331 Y-1.331 F400.000
G1 X-5.256 Y-1.613 F400.000
G1 X-5.184 Y-1.827 F400.000
G1 X-5.079 Y-2.102 F400.000
G1 X-4.925 Y-2.444 F400.000
G1 X-4.605 Y-3.004 F400.000
G1 X-4.440 Y-3.244 F400.000
G1 X-4.135 Y-3.617 F400.000
G1 X-3.786 Y-3.981 F400.000
G1 X-3.549 Y-4.199 F400.000
G1 X-3.143 Y-4.511 F400.000
G1 X-2.977 Y-4.620 F400.000
G1 X-2.485 Y-4.898 F400.000
G1 X-2.060 Y-5.098 F400.000
G1 X-1.752 Y-5.211 F400.000
G1 X-1.571 Y-5.267 F400.000
G1 X-1.263 Y-5.346 F400.000
G1 X-0.756 Y-5.447 F400.000
G1 X-0.049 Y-5.500 F400.000
G1 X0.571 Y-5.466 F400.000
G1 X1.030 Y-5.395 F400.000
G1 X1.391 Y-5.316 F400.000
G1 X1.590 Y-5.263 F400.000
G1 X1.846 Y-5.177 F400.000
G1 X2.293 Y-4.996 F400.000
G1 X2.684 Y-4.801 F400.000
G1 X3.015 Y-4.598 F400.000
G1 X3.244 Y-4.440 F400.000
G1 X3.387 Y-4.331 F400.000
G1 X3.609 Y-4.143 F400.000
G1 X3.981 Y-3.786 F400.000
G1 X4.199 Y-3.549 F400.000
G1 X4.526 Y-3.124 F400.000
G1 X4.586 Y-3.034 F400.000
G1 X4.932 Y-2.429 F400.000
G1 X5.124 Y-1.996 F400.000
G1 X5.214 Y-1.752 F400.000
G1 X5.267 Y-1.575 F400.000
G1 X5.421 Y-0.932 F400.000
G1 X5.421 Y-0.932 F400.000
G0 Z5.000
G0 Z5.000
(Finish operation: Adaptive001)
(Block-name: Adaptive002)
(Block-expand: 0)
(Block-enable: 1)
(Begin operation: Adaptive002)
(Path: Adaptive002)
(Adaptive002)
G0 Z5.000
(Finish operation: Adaptive002)
(Block-name: Adaptive003)
(Block-expand: 0)
(Block-enable: 1)
(Begin operation: Adaptive003)
(Path: Adaptive003)
(Adaptive003)
(Helix to depth: -15.000000)
G0 Z5.000
G0 X0.329 Y-0.934 Z5.000
G0 X0.329 Y-0.934 Z3.000
G1 X0.329 Y-0.934 Z-9.000 F200.000
G1 X0.329 Y-0.934 Z-9.000 F200.000
G1 X0.505 Y-0.852 Z-9.017 F200.000
G1 X0.661 Y-0.737 Z-9.034 F200.000
G1 X0.792 Y-0.594 Z-9.052 F200.000
G1 X0.893 Y-0.428 Z-9.069 F200.000
G1 X0.959 Y-0.246 Z-9.086 F200.000
G1 X0.989 Y-0.054 Z-9.103 F200.000
G1 X0.980 Y0.140 Z-9.120 F200.000
G1 X0.934 Y0.329 Z-9.137 F200.000
G1 X0.852 Y0.505 Z-9.155 F200.000
G1 X0.737 Y0.661 Z-9.172 F200.000
G1 X0.594 Y0.792 Z-9.189 F200.000
G1 X0.428 Y0.893 Z-9.206 F200.000
G1 X0.246 Y0.959 Z-9.223 F200.000
G1 X0.054 Y0.989 Z-9.240 F200.000
G1 X-0.140 Y0.980 Z-9.258 F200.000
G1 X-0.329 Y0.934 Z-9.275 F200.000
G1 X-0.505 Y0.852 Z-9.292 F200.000
G1 X-0.661 Y0.737 Z-9.309 F200.000
G1 X-0.792 Y0.594 Z-9.326 F200.000
G1 X-0.893 Y0.428 Z-9.344 F200.000
G1 X-0.959 Y0.246 Z-9.361 F200.000
G1 X-0.989 Y0.054 Z-9.378 F200.000
G1 X-0.980 Y-0.140 Z-9.395 F200.000
G1 X-0.934 Y-0.329 Z-9.412 F200.000
G1 X-0.852 Y-0.505 Z-9.429 F200.000
G1 X-0.737 Y-0.661 Z-9.447 F200.000
G1 X-0.594 Y-0.792 Z-9.464 F200.000
G1 X-0.428 Y-0.893 Z-9.481 F200.000
G1 X-0.246 Y-0.959 Z-9.498 F200.000
G1 X-0.054 Y-0.989 Z-9.515 F200.000
G1 X0.140 Y-0.980 Z-9.533 F200.000
G1 X0.329 Y-0.934 Z-9.550 F200.000
G1 X0.505 Y-0.852 Z-9.567 F200.000
G1 X0.661 Y-0.737 Z-9.584 F200.000
G1 X0.792 Y-0.594 Z-9.601 F200.000
G1 X0.893 Y-0.428 Z-9.618 F200.000
G1 X0.959 Y-0.246 Z-9.636 F200.000
G1 X0.989 Y-0.054 Z-9.653 F200.000
G1 X0.980 Y0.140 Z-9.670 F200.000
G1 X0.934 Y0.329 Z-9.687 F200.000
G1 X0.852 Y0.505 Z-9.704 F200.000
G1 X0.737 Y0.661 Z-9.721 F200.000
G1 X0.594 Y0.792 Z-9.739 F200.000
G1 X0.428 Y0.893 Z-9.756 F200.000
G1 X0.246 Y0.959 Z-9.773 F200.000
G1 X0.054 Y0.989 Z-9.790 F200.000
G1 X-0.140 Y0.980 Z-9.807 F200.000
G1 X-0.329 Y0.934 Z-9.825 F200.000
G1 X-0.505 Y0.852 Z-9.842 F200.000
G1 X-0.661 Y0.737 Z-9.859 F200.000
G1 X-0.792 Y0.594 Z-9.876 F200.000
G1 X-0.893 Y0.428 Z-9.893 F200.000
G1 X-0.959 Y0.246 Z-9.910 F200.000
G1 X-0.989 Y0.054 Z-9.928 F200.000
G1 X-0.980 Y-0.140 Z-9.945 F200.000
G1 X-0.934 Y-0.329 Z-9.962 F200.000
G1 X-0.852 Y-0.505 Z-9.979 F200.000
G1 X-0.737 Y-0.661 Z-9.996 F200.000
G1 X-0.594 Y-0.792 Z-10.014 F200.000
G1 X-0.428 Y-0.893 Z-10.031 F200.000
G1 X-0.246 Y-0.959 Z-10.048 F200.000
G1 X-0.054 Y-0.989 Z-10.065 F200.000
G1 X0.140 Y-0.980 Z-10.082 F200.000
G1 X0.329 Y-0.934 Z-10.099 F200.000
G1 X0.505 Y-0.852 Z-10.117 F200.000
G1 X0.661 Y-0.737 Z-10.134 F200.000
G1 X0.792 Y-0.594 Z-10.151 F200.000
G1 X0.893 Y-0.428 Z-10.168 F200.000
G1 X0.959 Y-0.246 Z-10.185 F200.000
G1 X0.989 Y-0.054 Z-10.202 F200.000
G1 X0.980 Y0.140 Z-10.220 F200.000
G1 X0.934 Y0.329 Z-10.237 F200.000
G1 X0.852 Y0.505 Z-10.254 F200.000
G1 X0.737 Y0.661 Z-10.271 F200.000
G1 X0.594 Y0.792 Z-10.288 F200.000
G1 X0.428 Y0.893 Z-10.306 F200.000
G1 X0.246 Y0.959 Z-10.323 F200.000
G1 X0.054 Y0.989 Z-10.340 F200.000
G1 X-0.140 Y0.980 Z-10.357 F200.000
G1 X-0.329 Y0.934 Z-10.374 F200.000
G1 X-0.505 Y0.852 Z-10.391 F200.000
G1 X-0.661 Y0.737 Z-10.409 F200.000
G1 X-0.792 Y0.594 Z-10.426 F200.000
G1 X-0.893 Y0.428 Z-10.443 F200.000
G1 X-0.959 Y0.246 Z-10.460 F200.000
G1 X-0.989 Y0.054 Z-10.477 F200.000
G1 X-0.980 Y-0.140 Z-10.495 F200.000
G1 X-0.934 Y-0.329 Z-10.512 F200.000
G1 X-0.852 Y-0.505 Z-10.529 F200.000
G1 X-0.737 Y-0.661 Z-10.546 F200.000
G1 X-0.594 Y-0.792 Z-10.563 F200.000
G1 X-0.428 Y-0.893 Z-10.580 F200.000
G1 X-0.246 Y-0.959 Z-10.598 F200.000
G1 X-0.054 Y-0.989 Z-10.615 F200.000
G1 X0.140 Y-0.980 Z-10.632 F200.000
G1 X0.329 Y-0.934 Z-10.649 F200.000
G1 X0.505 Y-0.852 Z-10.666 F200.000
G1 X0.661 Y-0.737 Z-10.683 F200.000
G1 X0.792 Y-0.594 Z-10.701 F200.000
G1 X0.893 Y-0.428 Z-10.718 F200.000
G1 X0.959 Y-0.246 Z-10.735 F200.000
G1 X0.989 Y-0.054 Z-10.752 F200.000
G1 X0.980 Y0.140 Z-10.769 F200.000
G1 X0.934 Y0.329 Z-10.787 F200.000
G1 X0.852 Y0.505 Z-10.804 F200.000
G1 X0.737 Y0.661 Z-10.821 F200.000
G1 X0.594 Y0.792 Z-10.838 F200.000
G1 X0.428 Y0.893 Z-10.855 F200.000
G1 X0.246 Y0.959 Z-10.872 F200.000
G1 X0.054 Y0.989 Z-10.890 F200.000
G1 X-0.140 Y0.980 Z-10.907 F200.000
G1 X-0.329 Y0.934 Z-10.924 F200.000
G1 X-0.505 Y0.852 Z-10.941 F200.000
G1 X-0.661 Y0.737 Z-10.958 F200.000
G1 X-0.792 Y0.594 Z-10.976 F200.000
G1 X-0.893 Y0.428 Z-10.993 F200.000
G1 X-0.959 Y0.246 Z-11.010 F200.000
G1 X-0.989 Y0.054 Z-11.027 F200.000
G1 X-0.980 Y-0.140 Z-11.044 F200.000
G1 X-0.934 Y-0.329 Z-11.061 F200.000
G1 X-0.852 Y-0.505 Z-11.079 F200.000
G1 X-0.737 Y-0.661 Z-11.096 F200.000
G1 X-0.594 Y-0.792 Z-11.113 F200.000
G1 X-0.428 Y-0.893 Z-11.130 F200.000
G1 X-0.246 Y-0.959 Z-11.147 F200.000
G1 X-0.054 Y-0.989 Z-11.164 F200.000
G1 X0.140 Y-0.980 Z-11.182 F200.000
G1 X0.329 Y-0.934 Z-11.199 F200.000
G1 X0.505 Y-0.852 Z-11.216 F200.000
G1 X0.661 Y-0.737 Z-11.233 F200.000
G1 X0.792 Y-0.594 Z-11.250 F200.000
G1 X0.893 Y-0.428 Z-11.268 F200.000
G1 X0.959 Y-0.246 Z-11.285 F200.000
G1 X0.989 Y-0.054 Z-11.302 F200.000
G1 X0.980 Y0.140 Z-11.319 F200.000
G1 X0.934 Y0.329 Z-11.336 F200.000
G1 X0.852 Y0.505 Z-11.353 F200.000
G1 X0.737 Y0.661 Z-11.371 F200.000
G1 X0.594 Y0.792 Z-11.388 F200.000
G1 X0.428 Y0.893 Z-11.405 F200.000
G1 X0.246 Y0.959 Z-11.422 F200.000
G1 X0.054 Y0.989 Z-11.439 F200.000
G1 X-0.140 Y0.980 Z-11.457 F200.000
G1 X-0.329 Y0.934 Z-11.474 F200.000
G1 X-0.505 Y0.852 Z-11.491 F200.000
G1 X-0.661 Y0.737 Z-11.508 F200.000
G1 X-0.792 Y0.594 Z-11.525 F200.000
G1 X-0.893 Y0.428 Z-11.542 F200.000
G1 X-0.959 Y0.246 Z-11.560 F200.000
G1 X-0.989 Y0.054 Z-11.577 F200.000
G1 X-0.980 Y-0.140 Z-11.594 F200.000
G1 X-0.934 Y-0.329 Z-11.611 F200.000
G1 X-0.852 Y-0.505 Z-11.628 F200.000
G1 X-0.737 Y-0.661 Z-11.645 F200.000
G1 X-0.594 Y-0.792 Z-11.663 F200.000
G1 X-0.428 Y-0.893 Z-11.680 F200.000
G1 X-0.246 Y-0.959 Z-11.697 F200.000
G1 X-0.054 Y-0.989 Z-11.714 F200.000
G1 X0.140 Y-0.980 Z-11.731 F200.000
G1 X0.329 Y-0.934 Z-11.749 F200.000
G1 X0.505 Y-0.852 Z-11.766 F200.000
G1 X0.661 Y-0.737 Z-11.783 F200.000
G1 X0.792 Y-0.594 Z-11.800 F200.000
G1 X0.893 Y-0.428 Z-11.817 F200.000
G1 X0.959 Y-0.246 Z-11.834 F200.000
G1 X0.989 Y-0.054 Z-11.852 F200.000
G1 X0.980 Y0.140 Z-11.869 F200.000
G1 X0.934 Y0.329 Z-11.886 F200.000
G1 X0.852 Y0.505 Z-11.903 F200.000
G1 X0.737 Y0.661 Z-11.920 F200.000
G1 X0.594 Y0.792 Z-11.937 F200.000
G1 X0.428 Y0.893 Z-11.955 F200.000
G1 X0.246 Y0.959 Z-11.972 F200.000
G1 X0.054 Y0.989 Z-11.989 F200.000
G1 X-0.140 Y0.980 Z-12.006 F200.000
G1 X-0.329 Y0.934 Z-12.023 F200.000
G1 X-0.505 Y0.852 Z-12.041 F200.000
G1 X-0.661 Y0.737 Z-12.058 F200.000
G1 X-0.792 Y0.594 Z-12.075 F200.000
G1 X-0.893 Y0.428 Z-12.092 F200.000
G1 X-0.959 Y0.246 Z-12.109 F200.000
G1 X-0.989 Y0.054 Z-12.126 F200.000
G1 X-0.980 Y-0.140 Z-12.144 F200.000
G1 X-0.934 Y-0.329 Z-12.161 F200.000
G1 X-0.852 Y-0.505 Z-12.178 F200.000
G1 X-0.737 Y-0.661 Z-12.195 F200.000
G1 X-0.594 Y-0.792 Z-12.212 F200.000
G1 X-0.428 Y-0.893 Z-12.230 F200.000
G1 X-0.246 Y-0.959 Z-12.247 F200.000
G1 X-0.054 Y-0.989 Z-12.264 F200.000
G1 X0.140 Y-0.980 Z-12.281 F200.000
G1 X0.329 Y-0.934 Z-12.298 F200.000
G1 X0.505 Y-0.852 Z-12.315 F200.000
G1 X0.661 Y-0.737 Z-12.333 F200.000
G1 X0.792 Y-0.594 Z-12.350 F200.000
G1 X0.893 Y-0.428 Z-12.367 F200.000
G1 X0.959 Y-0.246 Z-12.384 F200.000
G1 X0.989 Y-0.054 Z-12.401 F200.000
G1 X0.980 Y0.140 Z-12.418 F200.000
G1 X0.934 Y0.329 Z-12.436 F200.000
G1 X0.852 Y0.505 Z-12.453 F200.000
G1 X0.737 Y0.661 Z-12.470 F200.000
G1 X0.594 Y0.792 Z-12.487 F200.000
G1 X0.428 Y0.893 Z-12.504 F200.000
G1 X0.246 Y0.959 Z-12.522 F200.000
G1 X0.054 Y0.989 Z-12.539 F200.000
G1 X-0.140 Y0.980 Z-12.556 F200.000
G1 X-0.329 Y0.934 Z-12.573 F200.000
G1 X-0.505 Y0.852 Z-12.590 F200.000
G1 X-0.661 Y0.737 Z-12.607 F200.000
G1 X-0.792 Y0.594 Z-12.625 F200.000
G1 X-0.893 Y0.428 Z-12.642 F200.000
G1 X-0.959 Y0.246 Z-12.659 F200.000
G1 X-0.989 Y0.054 Z-12.676 F200.000
G1 X-0.980 Y-0.140 Z-12.693 F200.000
G1 X-0.934 Y-0.329 Z-12.711 F200.000
G1 X-0.852 Y-0.505 Z-12.728 F200.000
G1 X-0.737 Y-0.661 Z-12.745 F200.000
G1 X-0.594 Y-0.792 Z-12.762 F200.000
G1 X-0.428 Y-0.893 Z-12.779 F200.000
G1 X-0.246 Y-0.959 Z-12.796 F200.000
G1 X-0.054 Y-0.989 Z-12.814 F200.000
G1 X0.140 Y-0.980 Z-12.831 F200.000
G1 X0.329 Y-0.934 Z-12.848 F200.000
G1 X0.505 Y-0.852 Z-12.865 F200.000
G1 X0.661 Y-0.737 Z-12.882 F200.000
G1 X0.792 Y-0.594 Z-12.899 F200.000
G1 X0.893 Y-0.428 Z-12.917 F200.000
G1 X0.959 Y-0.246 Z-12.934 F200.000
G1 X0.989 Y-0.054 Z-12.951 F200.000
G1 X0.980 Y0.140 Z-12.968 F200.000
G1 X0.934 Y0.329 Z-12.985 F200.000
G1 X0.852 Y0.505 Z-13.003 F200.000
G1 X0.737 Y0.661 Z-13.020 F200.000
G1 X0.594 Y0.792 Z-13.037 F200.000
G1 X0.428 Y0.893 Z-13.054 F200.000
G1 X0.246 Y0.959 Z-13.071 F200.000
G1 X0.054 Y0.989 Z-13.088 F200.000
G1 X-0.140 Y0.980 Z-13.106 F200.000
G1 X-0.329 Y0.934 Z-13.123 F200.000
G1 X-0.505 Y0.852 Z-13.140 F200.000
G1 X-0.661 Y0.737 Z-13.157 F200.000
G1 X-0.792 Y0.594 Z-13.174 F200.000
G1 X-0.893 Y0.428 Z-13.192 F200.000
G1 X-0.959 Y0.246 Z-13.209 F200.000
G1 X-0.989 Y0.054 Z-13.226 F200.000
G1 X-0.980 Y-0.140 Z-13.243 F200.000
G1 X-0.934 Y-0.329 Z-13.260 F200.000
G1 X-0.852 Y-0.505 Z-13.277 F200.000
G1 X-0.737 Y-0.661 Z-13.295 F200.000
G1 X-0.594 Y-0.792 Z-13.312 F200.000
G1 X-0.428 Y-0.893 Z-13.329 F200.000
G1 X-0.246 Y-0.959 Z-13.346 F200.000
G1 X-0.054 Y-0.989 Z-13.363 F200.000
G1 X0.140 Y-0.980 Z-13.380 F200.000
G1 X0.329 Y-0.934 Z-13.398 F200.000
G1 X0.505 Y-0.852 Z-13.415 F200.000
G1 X0.661 Y-0.737 Z-13.432 F200.000
G1 X0.792 Y-0.594 Z-13.449 F200.000
G1 X0.893 Y-0.428 Z-13.466 F200.000
G1 X0.959 Y-0.246 Z-13.484 F200.000
G1 X0.989 Y-0.054 Z-13.501 F200.000
G1 X0.980 Y0.140 Z-13.518 F200.000
G1 X0.934 Y0.329 Z-13.535 F200.000
G1 X0.852 Y0.505 Z-13.552 F200.000
G1 X0.737 Y0.661 Z-13.569 F200.000
G1 X0.594 Y0.792 Z-13.587 F200.000
G1 X0.428 Y0.893 Z-13.604 F200.000
G1 X0.246 Y0.959 Z-13.621 F200.000
G1 X0.054 Y0.989 Z-13.638 F200.000
G1 X-0.140 Y0.980 Z-13.655 F200.000
G1 X-0.329 Y0.934 Z-13.673 F200.000
G1 X-0.505 Y0.852 Z-13.690 F200.000
G1 X-0.661 Y0.737 Z-13.707 F200.000
G1 X-0.792 Y0.594 Z-13.724 F200.000
G1 X-0.893 Y0.428 Z-13.741 F200.000
G1 X-0.959 Y0.246 Z-13.758 F200.000
G1 X-0.989 Y0.054 Z-13.776 F200.000
G1 X-0.980 Y-0.140 Z-13.793 F200.000
G1 X-0.934 Y-0.329 Z-13.810 F200.000
G1 X-0.852 Y-0.505 Z-13.827 F200.000
G1 X-0.737 Y-0.661 Z-13.844 F200.000
G1 X-0.594 Y-0.792 Z-13.861 F200.000
G1 X-0.428 Y-0.893 Z-13.879 F200.000
G1 X-0.246 Y-0.959 Z-13.896 F200.000
G1 X-0.054 Y-0.989 Z-13.913 F200.000
G1 X0.140 Y-0.980 Z-13.930 F200.000
G1 X0.329 Y-0.934 Z-13.947 F200.000
G1 X0.505 Y-0.852 Z-13.965 F200.000
G1 X0.661 Y-0.737 Z-13.982 F200.000
G1 X0.792 Y-0.594 Z-13.999 F200.000
G1 X0.893 Y-0.428 Z-14.016 F200.000
G1 X0.959 Y-0.246 Z-14.033 F200.000
G1 X0.989 Y-0.054 Z-14.050 F200.000
G1 X0.980 Y0.140 Z-14.068 F200.000
G1 X0.934 Y0.329 Z-14.085 F200.000
G1 X0.852 Y0.505 Z-14.102 F200.000
G1 X0.737 Y0.661 Z-14.119 F200.000
G1 X0.594 Y0.792 Z-14.136 F200.000
G1 X0.428 Y0.893 Z-14.154 F200.000
G1 X0.246 Y0.959 Z-14.171 F200.000
G1 X0.054 Y0.989 Z-14.188 F200.000
G1 X-0.140 Y0.980 Z-14.205 F200.000
G1 X-0.329 Y0.934 Z-14.222 F200.000
G1 X-0.505 Y0.852 Z-14.239 F200.000
G1 X-0.661 Y0.737 Z-14.257 F200.000
G1 X-0.792 Y0.594 Z-14.274 F200.000
G1 X-0.893 Y0.428 Z-14.291 F200.000
G1 X-0.959 Y0.246 Z-14.308 F200.000
G1 X-0.989 Y0.054 Z-14.325 F200.000
G1 X-0.980 Y-0.140 Z-14.342 F200.000
G1 X-0.934 Y-0.329 Z-14.360 F200.000
G1 X-0.852 Y-0.505 Z-14.377 F200.000
G1 X-0.737 Y-0.661 Z-14.394 F200.000
G1 X-0.594 Y-0.792 Z-14.411 F200.000
G1 X-0.428 Y-0.893 Z-14.428 F200.000
G1 X-0.246 Y-0.959 Z-14.446 F200.000
G1 X-0.054 Y-0.989 Z-14.463 F200.000
G1 X0.140 Y-0.980 Z-14.480 F200.000
G1 X0.329 Y-0.934 Z-14.497 F200.000
G1 X0.505 Y-0.852 Z-14.514 F200.000
G1 X0.661 Y-0.737 Z-14.531 F200.000
G1 X0.792 Y-0.594 Z-14.549 F200.000
G1 X0.893 Y-0.428 Z-14.566 F200.000
G1 X0.959 Y-0.246 Z-14.583 F200.000
G1 X0.989 Y-0.054 Z-14.600 F200.000
G1 X0.980 Y0.140 Z-14.617 F200.000
G1 X0.934 Y0.329 Z-14.635 F200.000
G1 X0.852 Y0.505 Z-14.652 F200.000
G1 X0.737 Y0.661 Z-14.669 F200.000
G1 X0.594 Y0.792 Z-14.686 F200.000
G1 X0.428 Y0.893 Z-14.703 F200.000
G1 X0.246 Y0.959 Z-14.720 F200.000
G1 X0.054 Y0.989 Z-14.738 F200.000
G1 X-0.140 Y0.980 Z-14.755 F200.000
G1 X-0.329 Y0.934 Z-14.772 F200.000
G1 X-0.505 Y0.852 Z-14.789 F200.000
G1 X-0.661 Y0.737 Z-14.806 F200.000
G1 X-0.792 Y0.594 Z-14.823 F200.000
G1 X-0.893 Y0.428 Z-14.841 F200.000
G1 X-0.959 Y0.246 Z-14.858 F200.000
G1 X-0.989 Y0.054 Z-14.875 F200.000
G1 X-0.980 Y-0.140 Z-14.892 F200.000
G1 X-0.934 Y-0.329 Z-14.909 F200.000
G1 X-0.852 Y-0.505 Z-14.927 F200.000
G1 X-0.737 Y-0.661 Z-14.944 F200.000
G1 X-0.594 Y-0.792 Z-14.961 F200.000
G1 X-0.428 Y-0.893 Z-14.978 F200.000
G1 X-0.246 Y-0.959 Z-14.995 F200.000
G1 X-0.054 Y-0.989 Z-15.000 F400.000
G1 X0.140 Y-0.980 Z-15.000 F400.000
G1 X0.329 Y-0.934 Z-15.000 F400.000
G1 X0.505 Y-0.852 Z-15.000 F400.000
G1 X0.661 Y-0.737 Z-15.000 F400.000
G1 X0.792 Y-0.594 Z-15.000 F400.000
G1 X0.893 Y-0.428 Z-15.000 F400.000
G1 X0.959 Y-0.246 Z-15.000 F400.000
G1 X0.989 Y-0.054 Z-15.000 F400.000
G1 X0.980 Y0.140 Z-15.000 F400.000
G1 X0.934 Y0.329 Z-15.000 F400.000
G1 X0.852 Y0.505 Z-15.000 F400.000
G1 X0.737 Y0.661 Z-15.000 F400.000
G1 X0.594 Y0.792 Z-15.000 F400.000
G1 X0.428 Y0.893 Z-15.000 F400.000
G1 X0.246 Y0.959 Z-15.000 F400.000
G1 X0.054 Y0.989 Z-15.000 F400.000
G1 X-0.140 Y0.980 Z-15.000 F400.000
G1 X-0.329 Y0.934 Z-15.000 F400.000
G1 X-0.505 Y0.852 Z-15.000 F400.000
G1 X-0.661 Y0.737 Z-15.000 F400.000
G1 X-0.792 Y0.594 Z-15.000 F400.000
G1 X-0.893 Y0.428 Z-15.000 F400.000
G1 X-0.959 Y0.246 Z-15.000 F400.000
G1 X-0.989 Y0.054 Z-15.000 F400.000
G1 X-0.980 Y-0.140 Z-15.000 F400.000
G1 X-0.934 Y-0.329 Z-15.000 F400.000
G1 X-0.852 Y-0.505 Z-15.000 F400.000
G1 X-0.737 Y-0.661 Z-15.000 F400.000
G1 X-0.594 Y-0.792 Z-15.000 F400.000
G1 X-0.428 Y-0.893 Z-15.000 F400.000
G1 X-0.246 Y-0.959 Z-15.000 F400.000
(Adaptive - depth: -15.000000)
G1 X0.000 Y-1.000 F400.000
G1 X0.041 Y-1.041 F400.000
G1 X0.150 Y-1.079 F400.000
G1 X0.263 Y-1.090 F400.000
G1 X0.432 Y-1.071 F400.000
G1 X0.489 Y-1.056 F400.000
G1 X0.827 Y-0.898 F400.000
G1 X0.981 Y-0.748 F400.000
G1 X1.117 Y-0.538 F400.000
G1 X1.192 Y-0.357 F400.000
G1 X1.241 Y-0.143 F400.000
G1 X1.252 Y0.056 F400.000
G1 X1.237 Y0.237 F400.000
G1 X1.184 Y0.432 F400.000
G1 X1.113 Y0.594 F400.000
G1 X1.011 Y0.752 F400.000
G1 X0.887 Y0.895 F400.000
G1 X0.733 Y1.026 F400.000
G1 X0.568 Y1.128 F400.000
G1 X0.387 Y1.203 F400.000
G1 X0.195 Y1.252 F400.000
G1 X0.000 Y1.271 F400.000
G1 X-0.192 Y1.259 F400.000
G1 X-0.380 Y1.218 F400.000
G1 X-0.560 Y1.150 F400.000
G1 X-0.729 Y1.053 F400.000
G1 X-0.880 Y0.929 F400.000
G1 X-1.004 Y0.793 F400.000
G1 X-1.109 Y0.632 F400.000
G1 X-1.184 Y0.459 F400.000
G1 X-1.237 Y0.278 F400.000
G1 X-1.263 Y0.071 F400.000
G1 X-1.259 Y-0.120 F400.000
G1 X-1.226 Y-0.312 F400.000
G1 X-1.162 Y-0.500 F400.000
G1 X-1.071 Y-0.673 F400.000
G1 X-0.955 Y-0.831 F400.000
G1 X-0.816 Y-0.970 F400.000
G1 X-0.658 Y-1.086 F400.000
G1 X-0.492 Y-1.192 F400.000
G1 X-0.252 Y-1.305 F400.000
G1 X0.158 Y-1.357 F400.000
G1 X0.383 Y-1.346 F400.000
G1 X0.744 Y-1.256 F400.000
G1 X1.000 Y-1.105 F400.000
G1 X1.105 Y-1.011 F400.000
G1 X1.192 Y-0.914 F400.000
G1 X1.297 Y-0.767 F400.000
G1 X1.410 Y-0.564 F400.000
G1 X1.500 Y-0.316 F400.000
G1 X1.538 Y-0.098 F400.000
G1 X1.541 Y0.086 F400.000
G1 X1.523 Y0.274 F400.000
G1 X1.474 Y0.481 F400.000
G1 X1.395 Y0.688 F400.000
G1 X1.286 Y0.883 F400.000
G1 X1.154 Y1.056 F400.000
G1 X0.992 Y1.207 F400.000
G1 X0.838 Y1.316 F400.000
G1 X0.654 Y1.417 F400.000
G1 X0.440 Y1.500 F400.000
G1 X0.218 Y1.553 F400.000
G1 X0.000 Y1.575 F400.000
G1 X-0.222 Y1.560 F400.000
G1 X-0.417 Y1.523 F400.000
G1 X-0.620 Y1.455 F400.000
G1 X-0.812 Y1.361 F400.000
G1 X-1.000 Y1.233 F400.000
G1 X-1.158 Y1.083 F400.000
G1 X-1.278 Y0.932 F400.000
G1 X-1.387 Y0.752 F400.000
G1 X-1.474 Y0.545 F400.000
G1 X-1.526 Y0.346 F400.000
G1 X-1.560 Y0.132 F400.000
G1 X-1.564 Y-0.102 F400.000
G1 X-1.538 Y-0.335 F400.000
G1 X-1.466 Y-0.553 F400.000
G1 X-1.395 Y-0.718 F400.000
G1 X-1.286 Y-0.902 F400.000
G1 X-1.143 Y-1.083 F400.000
G1 X-0.962 Y-1.256 F400.000
G1 X-0.778 Y-1.395 F400.000
G1 X-0.575 Y-1.511 F400.000
G1 X-0.353 Y-1.602 F400.000
G1 X-0.124 Y-1.654 F400.000
G1 X0.079 Y-1.677 F400.000
G1 X0.301 Y-1.680 F400.000
G1 X0.549 Y-1.650 F400.000
G1 X0.786 Y-1.575 F400.000
G1 X0.959 Y-1.492 F400.000
G1 X1.124 Y-1.391 F400.000
G1 X1.308 Y-1.241 F400.000
G1 X1.474 Y-1.060 F400.000
G1 X1.605 Y-0.880 F400.000
G1 X1.718 Y-0.673 F400.000
G1 X1.801 Y-0.455 F400.000
G1 X1.850 Y-0.229 F400.000
G1 X1.868 Y-0.026 F400.000
G1 X1.865 Y0.192 F400.000
G1 X1.827 Y0.432 F400.000
G1 X1.759 Y0.662 F400.000
G1 X1.669 Y0.876 F400.000
G1 X1.549 Y1.083 F400.000
G1 X1.402 Y1.271 F400.000
G1 X1.229 Y1.432 F400.000
G1 X1.064 Y1.556 F400.000
G1 X0.872 Y1.673 F400.000
G1 X0.620 Y1.786 F400.000
G1 X0.357 Y1.857 F400.000
G1 X0.139 Y1.895 F400.000
G1 X-0.109 Y1.906 F400.000
G1 X-0.350 Y1.883 F400.000
G1 X-0.579 Y1.823 F400.000
G1 X-0.771 Y1.756 F400.000
G1 X-0.992 Y1.639 F400.000
G1 X-1.180 Y1.511 F400.000
G1 X-1.368 Y1.346 F400.000
G1 X-1.523 Y1.158 F400.000
G1 X-1.639 Y0.981 F400.000
G1 X-1.741 Y0.771 F400.000
G1 X-1.816 Y0.553 F400.000
G1 X-1.872 Y0.305 F400.000
G1 X-1.898 Y0.041 F400.000
G1 X-1.895 Y-0.203 F400.000
G1 X-1.850 Y-0.455 F400.000
G1 X-1.789 Y-0.654 F400.000
G1 X-1.695 Y-0.868 F400.000
G1 X-1.579 Y-1.071 F400.000
G1 X-1.414 Y-1.286 F400.000
G1 X-1.244 Y-1.462 F400.000
G1 X-1.053 Y-1.620 F400.000
G1 X-0.838 Y-1.756 F400.000
G1 X-0.613 Y-1.865 F400.000
G1 X-0.376 Y-1.944 F400.000
G1 X-0.128 Y-1.996 F400.000
G1 X0.117 Y-2.019 F400.000
G1 X0.365 Y-2.011 F400.000
G1 X0.613 Y-1.974 F400.000
G1 X0.850 Y-1.910 F400.000
G1 X1.214 Y-1.714 F400.000
G1 X1.492 Y-1.492 F400.000
G1 X1.767 Y-1.173 F400.000
G1 X1.951 Y-0.865 F400.000
G1 X2.064 Y-0.579 F400.000
G1 X2.147 Y-0.158 F400.000
G1 X2.162 Y0.188 F400.000
G1 X2.117 Y0.526 F400.000
G1 X1.959 Y0.970 F400.000
G1 X1.699 Y1.372 F400.000
G1 X1.451 Y1.632 F400.000
G1 X1.113 Y1.880 F400.000
G1 X0.673 Y2.086 F400.000
G1 X0.256 Y2.184 F400.000
G1 X-0.211 Y2.203 F400.000
G1 X-0.549 Y2.158 F400.000
G1 X-0.992 Y2.004 F400.000
G1 X-1.150 Y1.921 F400.000
G1 X-1.481 Y1.665 F400.000
G1 X-1.722 Y1.398 F400.000
G1 X-1.974 Y0.989 F400.000
G1 X-2.120 Y0.590 F400.000
G1 X-2.188 Y0.229 F400.000
G1 X-2.203 Y-0.120 F400.000
G1 X-2.154 Y-0.515 F400.000
G1 X-1.996 Y-0.959 F400.000
G1 X-1.752 Y-1.365 F400.000
G1 X-1.515 Y-1.632 F400.000
G1 X-1.241 Y-1.868 F400.000
G1 X-0.932 Y-2.056 F400.000
G1 X-0.477 Y-2.237 F400.000
G1 X0.056 Y-2.331 F400.000
G1 X0.451 Y-2.335 F400.000
G1 X0.789 Y-2.267 F400.000
G1 X1.169 Y-2.109 F400.000
G1 X1.568 Y-1.842 F400.000
G1 X1.868 Y-1.553 F400.000
G1 X2.117 Y-1.207 F400.000
G1 X2.259 Y-0.936 F400.000
G1 X2.429 Y-0.410 F400.000
G1 X2.474 Y0.008 F400.000
G1 X2.440 Y0.515 F400.000
G1 X2.327 Y0.910 F400.000
G1 X2.147 Y1.282 F400.000
G1 X1.861 Y1.665 F400.000
G1 X1.556 Y1.955 F400.000
G1 X1.098 Y2.252 F400.000
G1 X0.703 Y2.406 F400.000
G1 X0.162 Y2.508 F400.000
G1 X-0.466 Y2.500 F400.000
G1 X-0.748 Y2.444 F400.000
G1 X-1.023 Y2.342 F400.000
G1 X-1.331 Y2.177 F400.000
G1 X-1.838 Y1.759 F400.000
G1 X-2.094 Y1.421 F400.000
G1 X-2.293 Y1.041 F400.000
G1 X-2.398 Y0.756 F400.000
G1 X-2.508 Y0.214 F400.000
G1 X-2.508 Y-0.305 F400.000
G1 X-2.353 Y-0.925 F400.000
G1 X-2.143 Y-1.346 F400.000
G1 X-1.774 Y-1.816 F400.000
G1 X-1.455 Y-2.090 F400.000
G1 X-0.981 Y-2.361 F400.000
G1 X-0.699 Y-2.474 F400.000
G1 X-0.278 Y-2.556 F400.000
G1 X0.188 Y-2.560 F400.000
G1 X0.639 Y-2.489 F400.000
G1 X1.090 Y-2.331 F400.000
G1 X1.545 Y-2.049 F400.000
G1 X1.688 Y-1.940 F400.000
G1 X2.049 Y-1.553 F400.000
G1 X2.271 Y-1.195 F400.000
G1 X2.444 Y-0.805 F400.000
G1 X2.553 Y-0.323 F400.000
G1 X2.549 Y0.316 F400.000
G1 X2.504 Y0.598 F400.000
G1 X2.346 Y1.041 F400.000
G1 X2.271 Y1.203 F400.000
G1 X2.045 Y1.553 F400.000
G1 X1.808 Y1.820 F400.000
G1 X1.635 Y1.981 F400.000
G1 X1.241 Y2.252 F400.000
G1 X0.966 Y2.380 F400.000
G1 X0.617 Y2.496 F400.000
G1 X0.376 Y2.541 F400.000
G1 X-0.098 Y2.571 F400.000
G1 X-0.605 Y2.500 F400.000
G1 X-0.605 Y2.500 F400.000
G1 X-0.737 Y2.421 F400.000
G1 X-0.782 Y2.376 F400.000
G0 X-0.805 Y2.353
G0 X-1.180 Y1.876
G0 X-1.643 Y1.722
G1 X-1.669 Y1.714 F400.000
G1 X-1.759 Y1.692 F400.000
G1 X-1.940 Y1.635 F400.000
G1 X-2.038 Y1.564 F400.000
G1 X-2.038 Y1.564 F400.000
G1 X-2.267 Y1.207 F400.000
G1 X-2.436 Y0.820 F400.000
G1 X-2.538 Y0.398 F400.000
G1 X-2.568 Y-0.075 F400.000
G1 X-2.560 Y-0.244 F400.000
G1 X-2.440 Y-0.808 F400.000
G1 X-2.248 Y-1.244 F400.000
G1 X-2.090 Y-1.492 F400.000
G1 X-1.778 Y-1.853 F400.000
G1 X-1.598 Y-2.011 F400.000
G1 X-1.451 Y-2.120 F400.000
G1 X-1.023 Y-2.353 F400.000
G1 X-1.023 Y-2.353 F400.000
G1 X-1.000 Y-2.350 F400.000
G0 X-0.989 Y-2.342
G0 X-0.985 Y-2.327
G1 X-0.989 Y-2.316 F400.000
G1 X-1.008 Y-2.323 F400.000
G1 X-1.011 Y-2.357 F400.000
G1 X-0.996 Y-2.398 F400.000
G1 X-0.996 Y-2.398 F400.000
G1 X-0.789 Y-2.474 F400.000
G1 X-0.586 Y-2.526 F400.000
G1 X-0.207 Y-2.586 F400.000
G1 X-0.026 Y-2.598 F400.000
G1 X0.218 Y-2.583 F400.000
G1 X0.677 Y-2.508 F400.000
G1 X0.955 Y-2.417 F400.000
G1 X1.165 Y-2.323 F400.000
G1 X1.289 Y-2.252 F400.000
G1 X1.571 Y-2.064 F400.000
G1 X1.699 Y-1.962 F400.000
G1 X1.955 Y-1.711 F400.000
G1 X2.045 Y-1.598 F400.000
G1 X2.218 Y-1.353 F400.000
G1 X2.312 Y-1.184 F400.000
G1 X2.492 Y-0.733 F400.000
G1 X2.530 Y-0.590 F400.000
G1 X2.590 Y-0.226 F400.000
G1 X2.598 Y0.041 F400.000
G1 X2.579 Y0.316 F400.000
G1 X2.526 Y0.605 F400.000
G1 X2.432 Y0.910 F400.000
G1 X2.278 Y1.237 F400.000
G1 X2.053 Y1.586 F400.000
G1 X1.891 Y1.774 F400.000
G1 X1.695 Y1.966 F400.000
G1 X1.477 Y2.128 F400.000
G1 X1.263 Y2.271 F400.000
G1 X0.944 Y2.417 F400.000
G1 X0.549 Y2.538 F400.000
G1 X0.327 Y2.575 F400.000
G1 X-0.038 Y2.598 F400.000
G1 X-0.154 Y2.594 F400.000
G1 X-0.489 Y2.553 F400.000
G1 X-0.635 Y2.523 F400.000
G1 X-0.887 Y2.440 F400.000
G1 X-1.177 Y2.312 F400.000
G1 X-1.526 Y2.098 F400.000
G1 X-1.684 Y1.977 F400.000
G1 X-1.831 Y1.846 F400.000
G1 X-2.049 Y1.594 F400.000
G1 X-2.158 Y1.436 F400.000
G1 X-2.338 Y1.120 F400.000
G1 X-2.485 Y0.759 F400.000
G1 X-2.556 Y0.447 F400.000
G1 X-2.590 Y0.180 F400.000
G1 X-2.598 Y0.049 F400.000
G1 X-2.590 Y-0.229 F400.000
G1 X-2.545 Y-0.504 F400.000
G1 X-2.481 Y-0.763 F400.000
G1 X-2.350 Y-1.102 F400.000
G1 X-2.263 Y-1.271 F400.000
G1 X-2.109 Y-1.511 F400.000
G1 X-1.812 Y-1.861 F400.000
G1 X-1.613 Y-2.034 F400.000
G1 X-1.417 Y-2.169 F400.000
G1 X-1.147 Y-2.327 F400.000
G1 X-0.996 Y-2.398 F400.000
G1 X-0.996 Y-2.398 F400.000
G0 Z5.000
(Helix to depth: -18.000000)
G0 Z5.000
G0 X-0.070 Y0.988 Z5.000
G0 X-0.070 Y0.988 Z3.000
G1 X-0.070 Y0.988 Z-15.000 F200.000
G1 X-0.070 Y0.988 Z-15.000 F200.000
G1 X-0.262 Y0.955 Z-15.017 F200.000
G1 X-0.443 Y0.885 Z-15.034 F200.000
G1 X-0.607 Y0.782 Z-15.052 F200.000
G1 X-0.748 Y0.649 Z-15.069 F200.000
G1 X-0.860 Y0.490 Z-15.086 F200.000
G1 X-0.939 Y0.313 Z-15.103 F200.000
G1 X-0.982 Y0.124 Z-15.120 F200.000
G1 X-0.988 Y-0.070 Z-15.137 F200.000
G1 X-0.955 Y-0.262 Z-15.155 F200.000
G1 X-0.885 Y-0.443 Z-15.172 F200.000
G1 X-0.782 Y-0.607 Z-15.189 F200.000
G1 X-0.649 Y-0.748 Z-15.206 F200.000
G1 X-0.490 Y-0.860 Z-15.223 F200.000
G1 X-0.313 Y-0.939 Z-15.240 F200.000
G1 X-0.124 Y-0.982 Z-15.258 F200.000
G1 X0.070 Y-0.988 Z-15.275 F200.000
G1 X0.262 Y-0.955 Z-15.292 F200.000
G1 X0.443 Y-0.885 Z-15.309 F200.000
G1 X0.607 Y-0.782 Z-15.326 F200.000
G1 X0.748 Y-0.649 Z-15.344 F200.000
G1 X0.860 Y-0.490 Z-15.361 F200.000
G1 X0.939 Y-0.313 Z-15.378 F200.000
G1 X0.982 Y-0.124 Z-15.395 F200.000
G1 X0.988 Y0.070 Z-15.412 F200.000
G1 X0.955 Y0.262 Z-15.429 F200.000
G1 X0.885 Y0.443 Z-15.447 F200.000
G1 X0.782 Y0.607 Z-15.464 F200.000
G1 X0.649 Y0.748 Z-15.481 F200.000
G1 X0.490 Y0.860 Z-15.498 F200.000
G1 X0.313 Y0.939 Z-15.515 F200.000
G1 X0.124 Y0.982 Z-15.533 F200.000
G1 X-0.070 Y0.988 Z-15.550 F200.000
G1 X-0.262 Y0.955 Z-15.567 F200.000
G1 X-0.443 Y0.885 Z-15.584 F200.000
G1 X-0.607 Y0.782 Z-15.601 F200.000
G1 X-0.748 Y0.649 Z-15.618 F200.000
G1 X-0.860 Y0.490 Z-15.636 F200.000
G1 X-0.939 Y0.313 Z-15.653 F200.000
G1 X-0.982 Y0.124 Z-15.670 F200.000
G1 X-0.988 Y-0.070 Z-15.687 F200.000
G1 X-0.955 Y-0.262 Z-15.704 F200.000
G1 X-0.885 Y-0.443 Z-15.721 F200.000
G1 X-0.782 Y-0.607 Z-15.739 F200.000
G1 X-0.649 Y-0.748 Z-15.756 F200.000
G1 X-0.490 Y-0.860 Z-15.773 F200.000
G1 X-0.313 Y-0.939 Z-15.790 F200.000
G1 X-0.124 Y-0.982 Z-15.807 F200.000
G1 X0.070 Y-0.988 Z-15.825 F200.000
G1 X0.262 Y-0.955 Z-15.842 F200.000
G1 X0.443 Y-0.885 Z-15.859 F200.000
G1 X0.607 Y-0.782 Z-15.876 F200.000
G1 X0.748 Y-0.649 Z-15.893 F200.000
G1 X0.860 Y-0.490 Z-15.910 F200.000
G1 X0.939 Y-0.313 Z-15.928 F200.000
G1 X0.982 Y-0.124 Z-15.945 F200.000
G1 X0.988 Y0.070 Z-15.962 F200.000
G1 X0.955 Y0.262 Z-15.979 F200.000
G1 X0.885 Y0.443 Z-15.996 F200.000
G1 X0.782 Y0.607 Z-16.014 F200.000
G1 X0.649 Y0.748 Z-16.031 F200.000
G1 X0.490 Y0.860 Z-16.048 F200.000
G1 X0.313 Y0.939 Z-16.065 F200.000
G1 X0.124 Y0.982 Z-16.082 F200.000
G1 X-0.070 Y0.988 Z-16.099 F200.000
G1 X-0.262 Y0.955 Z-16.117 F200.000
G1 X-0.443 Y0.885 Z-16.134 F200.000
G1 X-0.607 Y0.782 Z-16.151 F200.000
G1 X-0.748 Y0.649 Z-16.168 F200.000
G1 X-0.860 Y0.490 Z-16.185 F200.000
G1 X-0.939 Y0.313 Z-16.202 F200.000
G1 X-0.982 Y0.124 Z-16.220 F200.000
G1 X-0.988 Y-0.070 Z-16.237 F200.000
G1 X-0.955 Y-0.262 Z-16.254 F200.000
G1 X-0.885 Y-0.443 Z-16.271 F200.000
G1 X-0.782 Y-0.607 Z-16.288 F200.000
G1 X-0.649 Y-0.748 Z-16.306 F200.000
G1 X-0.490 Y-0.860 Z-16.323 F200.000
G1 X-0.313 Y-0.939 Z-16.340 F200.000
G1 X-0.124 Y-0.982 Z-16.357 F200.000
G1 X0.070 Y-0.988 Z-16.374 F200.000
G1 X0.262 Y-0.955 Z-16.391 F200.000
G1 X0.443 Y-0.885 Z-16.409 F200.000
G1 X0.607 Y-0.782 Z-16.426 F200.000
G1 X0.748 Y-0.649 Z-16.443 F200.000
G1 X0.860 Y-0.490 Z-16.460 F200.000
G1 X0.939 Y-0.313 Z-16.477 F200.000
G1 X0.982 Y-0.124 Z-16.495 F200.000
G1 X0.988 Y0.070 Z-16.512 F200.000
G1 X0.955 Y0.262 Z-16.529 F200.000
G1 X0.885 Y0.443 Z-16.546 F200.000
G1 X0.782 Y0.607 Z-16.563 F200.000
G1 X0.649 Y0.748 Z-16.580 F200.000
G1 X0.490 Y0.860 Z-16.598 F200.000
G1 X0.313 Y0.939 Z-16.615 F200.000
G1 X0.124 Y0.982 Z-16.632 F200.000
G1 X-0.070 Y0.988 Z-16.649 F200.000
G1 X-0.262 Y0.955 Z-16.666 F200.000
G1 X-0.443 Y0.885 Z-16.683 F200.000
G1 X-0.607 Y0.782 Z-16.701 F200.000
G1 X-0.748 Y0.649 Z-16.718 F200.000
G1 X-0.860 Y0.490 Z-16.735 F200.000
G1 X-0.939 Y0.313 Z-16.752 F200.000
G1 X-0.982 Y0.124 Z-16.769 F200.000
G1 X-0.988 Y-0.070 Z-16.787 F200.000
G1 X-0.955 Y-0.262 Z-16.804 F200.000
G1 X-0.885 Y-0.443 Z-16.821 F200.000
G1 X-0.782 Y-0.607 Z-16.838 F200.000
G1 X-0.649 Y-0.748 Z-16.855 F200.000
G1 X-0.490 Y-0.860 Z-16.872 F200.000
G1 X-0.313 Y-0.939 Z-16.890 F200.000
G1 X-0.124 Y-0.982 Z-16.907 F200.000
G1 X0.070 Y-0.988 Z-16.924 F200.000
G1 X0.262 Y-0.955 Z-16.941 F200.000
G1 X0.443 Y-0.885 Z-16.958 F200.000
G1 X0.607 Y-0.782 Z-16.976 F200.000
G1 X0.748 Y-0.649 Z-16.993 F200.000
G1 X0.860 Y-0.490 Z-17.010 F200.000
G1 X0.939 Y-0.313 Z-17.027 F200.000
G1 X0.982 Y-0.124 Z-17.044 F200.000
G1 X0.988 Y0.070 Z-17.061 F200.000
G1 X0.955 Y0.262 Z-17.079 F200.000
G1 X0.885 Y0.443 Z-17.096 F200.000
G1 X0.782 Y0.607 Z-17.113 F200.000
G1 X0.649 Y0.748 Z-17.130 F200.000
G1 X0.490 Y0.860 Z-17.147 F200.000
G1 X0.313 Y0.939 Z-17.164 F200.000
G1 X0.124 Y0.982 Z-17.182 F200.000
G1 X-0.070 Y0.988 Z-17.199 F200.000
G1 X-0.262 Y0.955 Z-17.216 F200.000
G1 X-0.443 Y0.885 Z-17.233 F200.000
G1 X-0.607 Y0.782 Z-17.250 F200.000
G1 X-0.748 Y0.649 Z-17.268 F200.000
G1 X-0.860 Y0.490 Z-17.285 F200.000
G1 X-0.939 Y0.313 Z-17.302 F200.000
G1 X-0.982 Y0.124 Z-17.319 F200.000
G1 X-0.988 Y-0.070 Z-17.336 F200.000
G1 X-0.955 Y-0.262 Z-17.353 F200.000
G1 X-0.885 Y-0.443 Z-17.371 F200.000
G1 X-0.782 Y-0.607 Z-17.388 F200.000
G1 X-0.649 Y-0.748 Z-17.405 F200.000
G1 X-0.490 Y-0.860 Z-17.422 F200.000
G1 X-0.313 Y-0.939 Z-17.439 F200.000
G1 X-0.124 Y-0.982 Z-17.457 F200.000
G1 X0.070 Y-0.988 Z-17.474 F200.000
G1 X0.262 Y-0.955 Z-17.491 F200.000
G1 X0.443 Y-0.885 Z-17.508 F200.000
G1 X0.607 Y-0.782 Z-17.525 F200.000
G1 X0.748 Y-0.649 Z-17.542 F200.000
G1 X0.860 Y-0.490 Z-17.560 F200.000
G1 X0.939 Y-0.313 Z-17.577 F200.000
G1 X0.982 Y-0.124 Z-17.594 F200.000
G1 X0.988 Y0.070 Z-17.611 F200.000
G1 X0.955 Y0.262 Z-17.628 F200.000
G1 X0.885 Y0.443 Z-17.645 F200.000
G1 X0.782 Y0.607 Z-17.663 F200.000
G1 X0.649 Y0.748 Z-17.680 F200.000
G1 X0.490 Y0.860 Z-17.697 F200.000
G1 X0.313 Y0.939 Z-17.714 F200.000
G1 X0.124 Y0.982 Z-17.731 F200.000
G1 X-0.070 Y0.988 Z-17.749 F200.000
G1 X-0.262 Y0.955 Z-17.766 F200.000
G1 X-0.443 Y0.885 Z-17.783 F200.000
G1 X-0.607 Y0.782 Z-17.800 F200.000
G1 X-0.748 Y0.649 Z-17.817 F200.000
G1 X-0.860 Y0.490 Z-17.834 F200.000
G1 X-0.939 Y0.313 Z-17.852 F200.000
G1 X-0.982 Y0.124 Z-17.869 F200.000
G1 X-0.988 Y-0.070 Z-17.886 F200.000
G1 X-0.955 Y-0.262 Z-17.903 F200.000
G1 X-0.885 Y-0.443 Z-17.920 F200.000
G1 X-0.782 Y-0.607 Z-17.937 F200.000
G1 X-0.649 Y-0.748 Z-17.955 F200.000
G1 X-0.490 Y-0.860 Z-17.972 F200.000
G1 X-0.313 Y-0.939 Z-17.989 F200.000
G1 X-0.124 Y-0.982 Z-18.000 F400.000
G1 X0.070 Y-0.988 Z-18.000 F400.000
G1 X0.262 Y-0.955 Z-18.000 F400.000
G1 X0.443 Y-0.885 Z-18.000 F400.000
G1 X0.607 Y-0.782 Z-18.000 F400.000
G1 X0.748 Y-0.649 Z-18.000 F400.000
G1 X0.860 Y-0.490 Z-18.000 F400.000
G1 X0.939 Y-0.313 Z-18.000 F400.000
G1 X0.982 Y-0.124 Z-18.000 F400.000
G1 X0.988 Y0.070 Z-18.000 F400.000
G1 X0.955 Y0.262 Z-18.000 F400.000
G1 X0.885 Y0.443 Z-18.000 F400.000
G1 X0.782 Y0.607 Z-18.000 F400.000
G1 X0.649 Y0.748 Z-18.000 F400.000
G1 X0.490 Y0.860 Z-18.000 F400.000
G1 X0.313 Y0.939 Z-18.000 F400.000
G1 X0.124 Y0.982 Z-18.000 F400.000
G1 X-0.070 Y0.988 Z-18.000 F400.000
G1 X-0.262 Y0.955 Z-18.000 F400.000
G1 X-0.443 Y0.885 Z-18.000 F400.000
G1 X-0.607 Y0.782 Z-18.000 F400.000
G1 X-0.748 Y0.649 Z-18.000 F400.000
G1 X-0.860 Y0.490 Z-18.000 F400.000
G1 X-0.939 Y0.313 Z-18.000 F400.000
G1 X-0.982 Y0.124 Z-18.000 F400.000
G1 X-0.988 Y-0.070 Z-18.000 F400.000
G1 X-0.955 Y-0.262 Z-18.000 F400.000
G1 X-0.885 Y-0.443 Z-18.000 F400.000
G1 X-0.782 Y-0.607 Z-18.000 F400.000
G1 X-0.649 Y-0.748 Z-18.000 F400.000
G1 X-0.490 Y-0.860 Z-18.000 F400.000
G1 X-0.313 Y-0.939 Z-18.000 F400.000
(Adaptive - depth: -18.000000)
G1 X0.000 Y-1.000 F400.000
G1 X0.041 Y-1.041 F400.000
G1 X0.150 Y-1.079 F400.000
G1 X0.263 Y-1.090 F400.000
G1 X0.432 Y-1.071 F400.000
G1 X0.489 Y-1.056 F400.000
G1 X0.827 Y-0.898 F400.000
G1 X0.981 Y-0.748 F400.000
G1 X1.117 Y-0.538 F400.000
G1 X1.192 Y-0.357 F400.000
G1 X1.241 Y-0.143 F400.000
G1 X1.252 Y0.056 F400.000
G1 X1.237 Y0.237 F400.000
G1 X1.184 Y0.432 F400.000
G1 X1.113 Y0.594 F400.000
G1 X1.011 Y0.752 F400.000
G1 X0.887 Y0.895 F400.000
G1 X0.733 Y1.026 F400.000
G1 X0.568 Y1.128 F400.000
G1 X0.387 Y1.203 F400.000
G1 X0.195 Y1.252 F400.000
G1 X0.000 Y1.271 F400.000
G1 X-0.192 Y1.259 F400.000
G1 X-0.380 Y1.218 F400.000
G1 X-0.560 Y1.150 F400.000
G1 X-0.729 Y1.053 F400.000
G1 X-0.880 Y0.929 F400.000
G1 X-1.004 Y0.793 F400.000
G1 X-1.109 Y0.632 F400.000
G1 X-1.184 Y0.459 F400.000
G1 X-1.237 Y0.278 F400.000
G1 X-1.263 Y0.071 F400.000
G1 X-1.259 Y-0.120 F400.000
G1 X-1.226 Y-0.312 F400.000
G1 X-1.162 Y-0.500 F400.000
G1 X-1.071 Y-0.673 F400.000
G1 X-0.955 Y-0.831 F400.000
G1 X-0.816 Y-0.970 F400.000
G1 X-0.658 Y-1.086 F400.000
G1 X-0.492 Y-1.192 F400.000
G1 X-0.252 Y-1.305 F400.000
G1 X0.158 Y-1.357 F400.000
G1 X0.383 Y-1.346 F400.000
G1 X0.744 Y-1.256 F400.000
G1 X1.000 Y-1.105 F400.000
G1 X1.105 Y-1.011 F400.000
G1 X1.192 Y-0.914 F400.000
G1 X1.297 Y-0.767 F400.000
G1 X1.410 Y-0.564 F400.000
G1 X1.500 Y-0.316 F400.000
G1 X1.538 Y-0.098 F400.000
G1 X1.541 Y0.086 F400.000
G1 X1.523 Y0.274 F400.000
G1 X1.474 Y0.481 F400.000
G1 X1.395 Y0.688 F400.000
G1 X1.286 Y0.883 F400.000
G1 X1.154 Y1.056 F400.000
G1 X0.992 Y1.207 F400.000
G1 X0.838 Y1.316 F400.000
G1 X0.654 Y1.417 F400.000
G1 X0.440 Y1.500 F400.000
G1 X0.218 Y1.553 F400.000
G1 X0.000 Y1.575 F400.000
G1 X-0.222 Y1.560 F400.000
G1 X-0.417 Y1.523 F400.000
G1 X-0.620 Y1.455 F400.000
G1 X-0.812 Y1.361 F400.000
G1 X-1.000 Y1.233 F400.000
G1 X-1.158 Y1.083 F400.000
G1 X-1.278 Y0.932 F400.000
G1 X-1.387 Y0.752 F400.000
G1 X-1.474 Y0.545 F400.000
G1 X-1.526 Y0.346 F400.000
G1 X-1.560 Y0.132 F400.000
G1 X-1.564 Y-0.102 F400.000
G1 X-1.538 Y-0.335 F400.000
G1 X-1.466 Y-0.553 F400.000
G1 X-1.395 Y-0.718 F400.000
G1 X-1.286 Y-0.902 F400.000
G1 X-1.143 Y-1.083 F400.000
G1 X-0.962 Y-1.256 F400.000
G1 X-0.778 Y-1.395 F400.000
G1 X-0.575 Y-1.511 F400.000
G1 X-0.353 Y-1.602 F400.000
G1 X-0.124 Y-1.654 F400.000
G1 X0.079 Y-1.677 F400.000
G1 X0.301 Y-1.680 F400.000
G1 X0.549 Y-1.650 F400.000
G1 X0.786 Y-1.575 F400.000
G1 X0.959 Y-1.492 F400.000
G1 X1.124 Y-1.391 F400.000
G1 X1.308 Y-1.241 F400.000
G1 X1.474 Y-1.060 F400.000
G1 X1.605 Y-0.880 F400.000
G1 X1.718 Y-0.673 F400.000
G1 X1.801 Y-0.455 F400.000
G1 X1.850 Y-0.229 F400.000
G1 X1.868 Y-0.026 F400.000
G1 X1.865 Y0.192 F400.000
G1 X1.827 Y0.432 F400.000
G1 X1.759 Y0.662 F400.000
G1 X1.669 Y0.876 F400.000
G1 X1.549 Y1.083 F400.000
G1 X1.402 Y1.271 F400.000
G1 X1.229 Y1.432 F400.000
G1 X1.064 Y1.556 F400.000
G1 X0.872 Y1.673 F400.000
G1 X0.620 Y1.786 F400.000
G1 X0.357 Y1.857 F400.000
G1 X0.139 Y1.895 F400.000
G1 X-0.109 Y1.906 F400.000
G1 X-0.350 Y1.883 F400.000
G1 X-0.579 Y1.823 F400.000
G1 X-0.771 Y1.756 F400.000
G1 X-0.992 Y1.639 F400.000
G1 X-1.180 Y1.511 F400.000
G1 X-1.368 Y1.346 F400.000
G1 X-1.523 Y1.158 F400.000
G1 X-1.639 Y0.981 F400.000
G1 X-1.741 Y0.771 F400.000
G1 X-1.816 Y0.553 F400.000
G1 X-1.872 Y0.305 F400.000
G1 X-1.898 Y0.041 F400.000
G1 X-1.895 Y-0.203 F400.000
G1 X-1.850 Y-0.455 F400.000
G1 X-1.789 Y-0.654 F400.000
G1 X-1.695 Y-0.868 F400.000
G1 X-1.579 Y-1.071 F400.000
G1 X-1.414 Y-1.286 F400.000
G1 X-1.244 Y-1.462 F400.000
G1 X-1.053 Y-1.620 F400.000
G1 X-0.838 Y-1.756 F400.000
G1 X-0.613 Y-1.865 F400.000
G1 X-0.376 Y-1.944 F400.000
G1 X-0.128 Y-1.996 F400.000
G1 X0.117 Y-2.019 F400.000
G1 X0.365 Y-2.011 F400.000
G1 X0.613 Y-1.974 F400.000
G1 X0.850 Y-1.910 F400.000
G1 X1.214 Y-1.714 F400.000
G1 X1.492 Y-1.492 F400.000
G1 X1.767 Y-1.173 F400.000
G1 X1.951 Y-0.865 F400.000
G1 X2.064 Y-0.579 F400.000
G1 X2.147 Y-0.158 F400.000
G1 X2.162 Y0.188 F400.000
G1 X2.117 Y0.526 F400.000
G1 X1.959 Y0.970 F400.000
G1 X1.699 Y1.372 F400.000
G1 X1.451 Y1.632 F400.000
G1 X1.113 Y1.880 F400.000
G1 X0.673 Y2.086 F400.000
G1 X0.256 Y2.184 F400.000
G1 X-0.211 Y2.203 F400.000
G1 X-0.549 Y2.158 F400.000
G1 X-0.992 Y2.004 F400.000
G1 X-1.150 Y1.921 F400.000
G1 X-1.481 Y1.665 F400.000
G1 X-1.722 Y1.398 F400.000
G1 X-1.974 Y0.989 F400.000
G1 X-2.120 Y0.590 F400.000
G1 X-2.188 Y0.229 F400.000
G1 X-2.203 Y-0.120 F400.000
G1 X-2.154 Y-0.515 F400.000
G1 X-1.996 Y-0.959 F400.000
G1 X-1.752 Y-1.365 F400.000
G1 X-1.515 Y-1.632 F400.000
G1 X-1.241 Y-1.868 F400.000
G1 X-0.932 Y-2.056 F400.000
G1 X-0.477 Y-2.237 F400.000
G1 X0.056 Y-2.331 F400.000
G1 X0.451 Y-2.335 F400.000
G1 X0.789 Y-2.267 F400.000
G1 X1.169 Y-2.109 F400.000
G1 X1.568 Y-1.842 F400.000
G1 X1.868 Y-1.553 F400.000
G1 X2.117 Y-1.207 F400.000
G1 X2.259 Y-0.936 F400.000
G1 X2.429 Y-0.410 F400.000
