(Exported by FreeCAD)
(Post Processor: script_module)
(Output Time:2025-04-02 16:49:47.916688)
(Begin preamble)
G17 G90
G21
(Block-name: Fixture)
(Block-expand: 0)
(Block-enable: 1)
(Begin operation: Fixture)
(Path: Fixture)
G54
(Finish operation: Fixture)
(Block-name: 5mm Endmill003)
(Block-expand: 0)
(Block-enable: 1)
(Begin operation: 5mm Endmill003)
(Path: 5mm Endmill003)
(5mm Endmill003)
(Begin toolchange)
( M6 T2 )
M3 S10000
(Finish operation: 5mm Endmill003)
(Block-name: Adaptive)
(Block-expand: 0)
(Block-enable: 1)
(Begin operation: Adaptive)
(Path: Adaptive)
(Adaptive)
(Helix to depth: -10.000000)
G0 Z5.000
G0 X-174.307 Y34.825 Z5.000
G0 X-174.307 Y34.825 Z3.000
G1 X-174.307 Y34.825 Z0.000 F200.000
G1 X-174.307 Y34.825 Z0.000 F200.000
G1 X-174.255 Y34.638 Z-0.017 F200.000
G1 X-174.168 Y34.465 Z-0.034 F200.000
G1 X-174.049 Y34.311 Z-0.052 F200.000
G1 X-173.902 Y34.185 Z-0.069 F200.000
G1 X-173.733 Y34.089 Z-0.086 F200.000
G1 X-173.549 Y34.028 Z-0.103 F200.000
G1 X-173.356 Y34.004 Z-0.120 F200.000
G1 X-173.163 Y34.018 Z-0.137 F200.000
G1 X-172.975 Y34.070 Z-0.155 F200.000
G1 X-172.802 Y34.157 Z-0.172 F200.000
G1 X-172.649 Y34.276 Z-0.189 F200.000
G1 X-172.522 Y34.423 Z-0.206 F200.000
G1 X-172.426 Y34.592 Z-0.223 F200.000
G1 X-172.365 Y34.776 Z-0.240 F200.000
G1 X-172.342 Y34.969 Z-0.258 F200.000
G1 X-172.356 Y35.162 Z-0.275 F200.000
G1 X-172.407 Y35.350 Z-0.292 F200.000
G1 X-172.495 Y35.523 Z-0.309 F200.000
G1 X-172.614 Y35.676 Z-0.326 F200.000
G1 X-172.761 Y35.803 Z-0.344 F200.000
G1 X-172.930 Y35.899 Z-0.361 F200.000
G1 X-173.114 Y35.960 Z-0.378 F200.000
G1 X-173.306 Y35.983 Z-0.395 F200.000
G1 X-173.500 Y35.969 Z-0.412 F200.000
G1 X-173.687 Y35.918 Z-0.429 F200.000
G1 X-173.860 Y35.830 Z-0.447 F200.000
G1 X-174.014 Y35.711 Z-0.464 F200.000
G1 X-174.140 Y35.564 Z-0.481 F200.000
G1 X-174.236 Y35.395 Z-0.498 F200.000
G1 X-174.297 Y35.211 Z-0.515 F200.000
G1 X-174.321 Y35.019 Z-0.533 F200.000
G1 X-174.307 Y34.825 Z-0.550 F200.000
G1 X-174.255 Y34.638 Z-0.567 F200.000
G1 X-174.168 Y34.465 Z-0.584 F200.000
G1 X-174.049 Y34.311 Z-0.601 F200.000
G1 X-173.902 Y34.185 Z-0.618 F200.000
G1 X-173.733 Y34.089 Z-0.636 F200.000
G1 X-173.549 Y34.028 Z-0.653 F200.000
G1 X-173.356 Y34.004 Z-0.670 F200.000
G1 X-173.163 Y34.018 Z-0.687 F200.000
G1 X-172.975 Y34.070 Z-0.704 F200.000
G1 X-172.802 Y34.157 Z-0.721 F200.000
G1 X-172.649 Y34.276 Z-0.739 F200.000
G1 X-172.522 Y34.423 Z-0.756 F200.000
G1 X-172.426 Y34.592 Z-0.773 F200.000
G1 X-172.365 Y34.776 Z-0.790 F200.000
G1 X-172.342 Y34.969 Z-0.807 F200.000
G1 X-172.356 Y35.162 Z-0.825 F200.000
G1 X-172.407 Y35.350 Z-0.842 F200.000
G1 X-172.495 Y35.523 Z-0.859 F200.000
G1 X-172.614 Y35.676 Z-0.876 F200.000
G1 X-172.761 Y35.803 Z-0.893 F200.000
G1 X-172.930 Y35.899 Z-0.910 F200.000
G1 X-173.114 Y35.960 Z-0.928 F200.000
G1 X-173.306 Y35.983 Z-0.945 F200.000
G1 X-173.500 Y35.969 Z-0.962 F200.000
G1 X-173.687 Y35.918 Z-0.979 F200.000
G1 X-173.860 Y35.830 Z-0.996 F200.000
G1 X-174.014 Y35.711 Z-1.014 F200.000
G1 X-174.140 Y35.564 Z-1.031 F200.000
G1 X-174.236 Y35.395 Z-1.048 F200.000
G1 X-174.297 Y35.211 Z-1.065 F200.000
G1 X-174.321 Y35.019 Z-1.082 F200.000
G1 X-174.307 Y34.825 Z-1.099 F200.000
G1 X-174.255 Y34.638 Z-1.117 F200.000
G1 X-174.168 Y34.465 Z-1.134 F200.000
G1 X-174.049 Y34.311 Z-1.151 F200.000
G1 X-173.902 Y34.185 Z-1.168 F200.000
G1 X-173.733 Y34.089 Z-1.185 F200.000
G1 X-173.549 Y34.028 Z-1.202 F200.000
G1 X-173.356 Y34.004 Z-1.220 F200.000
G1 X-173.163 Y34.018 Z-1.237 F200.000
G1 X-172.975 Y34.070 Z-1.254 F200.000
G1 X-172.802 Y34.157 Z-1.271 F200.000
G1 X-172.649 Y34.276 Z-1.288 F200.000
G1 X-172.522 Y34.423 Z-1.306 F200.000
G1 X-172.426 Y34.592 Z-1.323 F200.000
G1 X-172.365 Y34.776 Z-1.340 F200.000
G1 X-172.342 Y34.969 Z-1.357 F200.000
G1 X-172.356 Y35.162 Z-1.374 F200.000
G1 X-172.407 Y35.350 Z-1.391 F200.000
G1 X-172.495 Y35.523 Z-1.409 F200.000
G1 X-172.614 Y35.676 Z-1.426 F200.000
G1 X-172.761 Y35.803 Z-1.443 F200.000
G1 X-172.930 Y35.899 Z-1.460 F200.000
G1 X-173.114 Y35.960 Z-1.477 F200.000
G1 X-173.306 Y35.983 Z-1.495 F200.000
G1 X-173.500 Y35.969 Z-1.512 F200.000
G1 X-173.687 Y35.918 Z-1.529 F200.000
G1 X-173.860 Y35.830 Z-1.546 F200.000
G1 X-174.014 Y35.711 Z-1.563 F200.000
G1 X-174.140 Y35.564 Z-1.580 F200.000
G1 X-174.236 Y35.395 Z-1.598 F200.000
G1 X-174.297 Y35.211 Z-1.615 F200.000
G1 X-174.321 Y35.019 Z-1.632 F200.000
G1 X-174.307 Y34.825 Z-1.649 F200.000
G1 X-174.255 Y34.638 Z-1.666 F200.000
G1 X-174.168 Y34.465 Z-1.683 F200.000
G1 X-174.049 Y34.311 Z-1.701 F200.000
G1 X-173.902 Y34.185 Z-1.718 F200.000
G1 X-173.733 Y34.089 Z-1.735 F200.000
G1 X-173.549 Y34.028 Z-1.752 F200.000
G1 X-173.356 Y34.004 Z-1.769 F200.000
G1 X-173.163 Y34.018 Z-1.787 F200.000
G1 X-172.975 Y34.070 Z-1.804 F200.000
G1 X-172.802 Y34.157 Z-1.821 F200.000
G1 X-172.649 Y34.276 Z-1.838 F200.000
G1 X-172.522 Y34.423 Z-1.855 F200.000
G1 X-172.426 Y34.592 Z-1.872 F200.000
G1 X-172.365 Y34.776 Z-1.890 F200.000
G1 X-172.342 Y34.969 Z-1.907 F200.000
G1 X-172.356 Y35.162 Z-1.924 F200.000
G1 X-172.407 Y35.350 Z-1.941 F200.000
G1 X-172.495 Y35.523 Z-1.958 F200.000
G1 X-172.614 Y35.676 Z-1.976 F200.000
G1 X-172.761 Y35.803 Z-1.993 F200.000
G1 X-172.930 Y35.899 Z-2.010 F200.000
G1 X-173.114 Y35.960 Z-2.027 F200.000
G1 X-173.306 Y35.983 Z-2.044 F200.000
G1 X-173.500 Y35.969 Z-2.061 F200.000
G1 X-173.687 Y35.918 Z-2.079 F200.000
G1 X-173.860 Y35.830 Z-2.096 F200.000
G1 X-174.014 Y35.711 Z-2.113 F200.000
G1 X-174.140 Y35.564 Z-2.130 F200.000
G1 X-174.236 Y35.395 Z-2.147 F200.000
G1 X-174.297 Y35.211 Z-2.164 F200.000
G1 X-174.321 Y35.019 Z-2.182 F200.000
G1 X-174.307 Y34.825 Z-2.199 F200.000
G1 X-174.255 Y34.638 Z-2.216 F200.000
G1 X-174.168 Y34.465 Z-2.233 F200.000
G1 X-174.049 Y34.311 Z-2.250 F200.000
G1 X-173.902 Y34.185 Z-2.268 F200.000
G1 X-173.733 Y34.089 Z-2.285 F200.000
G1 X-173.549 Y34.028 Z-2.302 F200.000
G1 X-173.356 Y34.004 Z-2.319 F200.000
G1 X-173.163 Y34.018 Z-2.336 F200.000
G1 X-172.975 Y34.070 Z-2.353 F200.000
G1 X-172.802 Y34.157 Z-2.371 F200.000
G1 X-172.649 Y34.276 Z-2.388 F200.000
G1 X-172.522 Y34.423 Z-2.405 F200.000
G1 X-172.426 Y34.592 Z-2.422 F200.000
G1 X-172.365 Y34.776 Z-2.439 F200.000
G1 X-172.342 Y34.969 Z-2.457 F200.000
G1 X-172.356 Y35.162 Z-2.474 F200.000
G1 X-172.407 Y35.350 Z-2.491 F200.000
G1 X-172.495 Y35.523 Z-2.508 F200.000
G1 X-172.614 Y35.676 Z-2.525 F200.000
G1 X-172.761 Y35.803 Z-2.542 F200.000
G1 X-172.930 Y35.899 Z-2.560 F200.000
G1 X-173.114 Y35.960 Z-2.577 F200.000
G1 X-173.306 Y35.983 Z-2.594 F200.000
G1 X-173.500 Y35.969 Z-2.611 F200.000
G1 X-173.687 Y35.918 Z-2.628 F200.000
G1 X-173.860 Y35.830 Z-2.645 F200.000
G1 X-174.014 Y35.711 Z-2.663 F200.000
G1 X-174.140 Y35.564 Z-2.680 F200.000
G1 X-174.236 Y35.395 Z-2.697 F200.000
G1 X-174.297 Y35.211 Z-2.714 F200.000
G1 X-174.321 Y35.019 Z-2.731 F200.000
G1 X-174.307 Y34.825 Z-2.749 F200.000
G1 X-174.255 Y34.638 Z-2.766 F200.000
G1 X-174.168 Y34.465 Z-2.783 F200.000
G1 X-174.049 Y34.311 Z-2.800 F200.000
G1 X-173.902 Y34.185 Z-2.817 F200.000
G1 X-173.733 Y34.089 Z-2.834 F200.000
G1 X-173.549 Y34.028 Z-2.852 F200.000
G1 X-173.356 Y34.004 Z-2.869 F200.000
G1 X-173.163 Y34.018 Z-2.886 F200.000
G1 X-172.975 Y34.070 Z-2.903 F200.000
G1 X-172.802 Y34.157 Z-2.920 F200.000
G1 X-172.649 Y34.276 Z-2.937 F200.000
G1 X-172.522 Y34.423 Z-2.955 F200.000
G1 X-172.426 Y34.592 Z-2.972 F200.000
G1 X-172.365 Y34.776 Z-2.989 F200.000
G1 X-172.342 Y34.969 Z-3.006 F200.000
G1 X-172.356 Y35.162 Z-3.023 F200.000
G1 X-172.407 Y35.350 Z-3.041 F200.000
G1 X-172.495 Y35.523 Z-3.058 F200.000
G1 X-172.614 Y35.676 Z-3.075 F200.000
G1 X-172.761 Y35.803 Z-3.092 F200.000
G1 X-172.930 Y35.899 Z-3.109 F200.000
G1 X-173.114 Y35.960 Z-3.126 F200.000
G1 X-173.306 Y35.983 Z-3.144 F200.000
G1 X-173.500 Y35.969 Z-3.161 F200.000
G1 X-173.687 Y35.918 Z-3.178 F200.000
G1 X-173.860 Y35.830 Z-3.195 F200.000
G1 X-174.014 Y35.711 Z-3.212 F200.000
G1 X-174.140 Y35.564 Z-3.230 F200.000
G1 X-174.236 Y35.395 Z-3.247 F200.000
G1 X-174.297 Y35.211 Z-3.264 F200.000
G1 X-174.321 Y35.019 Z-3.281 F200.000
G1 X-174.307 Y34.825 Z-3.298 F200.000
G1 X-174.255 Y34.638 Z-3.315 F200.000
G1 X-174.168 Y34.465 Z-3.333 F200.000
G1 X-174.049 Y34.311 Z-3.350 F200.000
G1 X-173.902 Y34.185 Z-3.367 F200.000
G1 X-173.733 Y34.089 Z-3.384 F200.000
G1 X-173.549 Y34.028 Z-3.401 F200.000
G1 X-173.356 Y34.004 Z-3.418 F200.000
G1 X-173.163 Y34.018 Z-3.436 F200.000
G1 X-172.975 Y34.070 Z-3.453 F200.000
G1 X-172.802 Y34.157 Z-3.470 F200.000
G1 X-172.649 Y34.276 Z-3.487 F200.000
G1 X-172.522 Y34.423 Z-3.504 F200.000
G1 X-172.426 Y34.592 Z-3.522 F200.000
G1 X-172.365 Y34.776 Z-3.539 F200.000
G1 X-172.342 Y34.969 Z-3.556 F200.000
G1 X-172.356 Y35.162 Z-3.573 F200.000
G1 X-172.407 Y35.350 Z-3.590 F200.000
G1 X-172.495 Y35.523 Z-3.607 F200.000
G1 X-172.614 Y35.676 Z-3.625 F200.000
G1 X-172.761 Y35.803 Z-3.642 F200.000
G1 X-172.930 Y35.899 Z-3.659 F200.000
G1 X-173.114 Y35.960 Z-3.676 F200.000
G1 X-173.306 Y35.983 Z-3.693 F200.000
G1 X-173.500 Y35.969 Z-3.711 F200.000
G1 X-173.687 Y35.918 Z-3.728 F200.000
G1 X-173.860 Y35.830 Z-3.745 F200.000
G1 X-174.014 Y35.711 Z-3.762 F200.000
G1 X-174.140 Y35.564 Z-3.779 F200.000
G1 X-174.236 Y35.395 Z-3.796 F200.000
G1 X-174.297 Y35.211 Z-3.814 F200.000
G1 X-174.321 Y35.019 Z-3.831 F200.000
G1 X-174.307 Y34.825 Z-3.848 F200.000
G1 X-174.255 Y34.638 Z-3.865 F200.000
G1 X-174.168 Y34.465 Z-3.882 F200.000
G1 X-174.049 Y34.311 Z-3.899 F200.000
G1 X-173.902 Y34.185 Z-3.917 F200.000
G1 X-173.733 Y34.089 Z-3.934 F200.000
G1 X-173.549 Y34.028 Z-3.951 F200.000
G1 X-173.356 Y34.004 Z-3.968 F200.000
G1 X-173.163 Y34.018 Z-3.985 F200.000
G1 X-172.975 Y34.070 Z-4.003 F200.000
G1 X-172.802 Y34.157 Z-4.020 F200.000
G1 X-172.649 Y34.276 Z-4.037 F200.000
G1 X-172.522 Y34.423 Z-4.054 F200.000
G1 X-172.426 Y34.592 Z-4.071 F200.000
G1 X-172.365 Y34.776 Z-4.088 F200.000
G1 X-172.342 Y34.969 Z-4.106 F200.000
G1 X-172.356 Y35.162 Z-4.123 F200.000
G1 X-172.407 Y35.350 Z-4.140 F200.000
G1 X-172.495 Y35.523 Z-4.157 F200.000
G1 X-172.614 Y35.676 Z-4.174 F200.000
G1 X-172.761 Y35.803 Z-4.192 F200.000
G1 X-172.930 Y35.899 Z-4.209 F200.000
G1 X-173.114 Y35.960 Z-4.226 F200.000
G1 X-173.306 Y35.983 Z-4.243 F200.000
G1 X-173.500 Y35.969 Z-4.260 F200.000
G1 X-173.687 Y35.918 Z-4.277 F200.000
G1 X-173.860 Y35.830 Z-4.295 F200.000
G1 X-174.014 Y35.711 Z-4.312 F200.000
G1 X-174.140 Y35.564 Z-4.329 F200.000
G1 X-174.236 Y35.395 Z-4.346 F200.000
G1 X-174.297 Y35.211 Z-4.363 F200.000
G1 X-174.321 Y35.019 Z-4.380 F200.000
G1 X-174.307 Y34.825 Z-4.398 F200.000
G1 X-174.255 Y34.638 Z-4.415 F200.000
G1 X-174.168 Y34.465 Z-4.432 F200.000
G1 X-174.049 Y34.311 Z-4.449 F200.000
G1 X-173.902 Y34.185 Z-4.466 F200.000
G1 X-173.733 Y34.089 Z-4.484 F200.000
G1 X-173.549 Y34.028 Z-4.501 F200.000
G1 X-173.356 Y34.004 Z-4.518 F200.000
G1 X-173.163 Y34.018 Z-4.535 F200.000
G1 X-172.975 Y34.070 Z-4.552 F200.000
G1 X-172.802 Y34.157 Z-4.569 F200.000
G1 X-172.649 Y34.276 Z-4.587 F200.000
G1 X-172.522 Y34.423 Z-4.604 F200.000
G1 X-172.426 Y34.592 Z-4.621 F200.000
G1 X-172.365 Y34.776 Z-4.638 F200.000
G1 X-172.342 Y34.969 Z-4.655 F200.000
G1 X-172.356 Y35.162 Z-4.673 F200.000
G1 X-172.407 Y35.350 Z-4.690 F200.000
G1 X-172.495 Y35.523 Z-4.707 F200.000
G1 X-172.614 Y35.676 Z-4.724 F200.000
G1 X-172.761 Y35.803 Z-4.741 F200.000
G1 X-172.930 Y35.899 Z-4.758 F200.000
G1 X-173.114 Y35.960 Z-4.776 F200.000
G1 X-173.306 Y35.983 Z-4.793 F200.000
G1 X-173.500 Y35.969 Z-4.810 F200.000
G1 X-173.687 Y35.918 Z-4.827 F200.000
G1 X-173.860 Y35.830 Z-4.844 F200.000
G1 X-174.014 Y35.711 Z-4.861 F200.000
G1 X-174.140 Y35.564 Z-4.879 F200.000
G1 X-174.236 Y35.395 Z-4.896 F200.000
G1 X-174.297 Y35.211 Z-4.913 F200.000
G1 X-174.321 Y35.019 Z-4.930 F200.000
G1 X-174.307 Y34.825 Z-4.947 F200.000
G1 X-174.255 Y34.638 Z-4.965 F200.000
G1 X-174.168 Y34.465 Z-4.982 F200.000
G1 X-174.049 Y34.311 Z-4.999 F200.000
G1 X-173.902 Y34.185 Z-5.016 F200.000
G1 X-173.733 Y34.089 Z-5.033 F200.000
G1 X-173.549 Y34.028 Z-5.050 F200.000
G1 X-173.356 Y34.004 Z-5.068 F200.000
G1 X-173.163 Y34.018 Z-5.085 F200.000
G1 X-172.975 Y34.070 Z-5.102 F200.000
G1 X-172.802 Y34.157 Z-5.119 F200.000
G1 X-172.649 Y34.276 Z-5.136 F200.000
G1 X-172.522 Y34.423 Z-5.154 F200.000
G1 X-172.426 Y34.592 Z-5.171 F200.000
G1 X-172.365 Y34.776 Z-5.188 F200.000
G1 X-172.342 Y34.969 Z-5.205 F200.000
G1 X-172.356 Y35.162 Z-5.222 F200.000
G1 X-172.407 Y35.350 Z-5.239 F200.000
G1 X-172.495 Y35.523 Z-5.257 F200.000
G1 X-172.614 Y35.676 Z-5.274 F200.000
G1 X-172.761 Y35.803 Z-5.291 F200.000
G1 X-172.930 Y35.899 Z-5.308 F200.000
G1 X-173.114 Y35.960 Z-5.325 F200.000
G1 X-173.306 Y35.983 Z-5.342 F200.000
G1 X-173.500 Y35.969 Z-5.360 F200.000
G1 X-173.687 Y35.918 Z-5.377 F200.000
G1 X-173.860 Y35.830 Z-5.394 F200.000
G1 X-174.014 Y35.711 Z-5.411 F200.000
G1 X-174.140 Y35.564 Z-5.428 F200.000
G1 X-174.236 Y35.395 Z-5.446 F200.000
G1 X-174.297 Y35.211 Z-5.463 F200.000
G1 X-174.321 Y35.019 Z-5.480 F200.000
G1 X-174.307 Y34.825 Z-5.497 F200.000
G1 X-174.255 Y34.638 Z-5.514 F200.000
G1 X-174.168 Y34.465 Z-5.531 F200.000
G1 X-174.049 Y34.311 Z-5.549 F200.000
G1 X-173.902 Y34.185 Z-5.566 F200.000
G1 X-173.733 Y34.089 Z-5.583 F200.000
G1 X-173.549 Y34.028 Z-5.600 F200.000
G1 X-173.356 Y34.004 Z-5.617 F200.000
G1 X-173.163 Y34.018 Z-5.635 F200.000
G1 X-172.975 Y34.070 Z-5.652 F200.000
G1 X-172.802 Y34.157 Z-5.669 F200.000
G1 X-172.649 Y34.276 Z-5.686 F200.000
G1 X-172.522 Y34.423 Z-5.703 F200.000
G1 X-172.426 Y34.592 Z-5.720 F200.000
G1 X-172.365 Y34.776 Z-5.738 F200.000
G1 X-172.342 Y34.969 Z-5.755 F200.000
G1 X-172.356 Y35.162 Z-5.772 F200.000
G1 X-172.407 Y35.350 Z-5.789 F200.000
G1 X-172.495 Y35.523 Z-5.806 F200.000
G1 X-172.614 Y35.676 Z-5.823 F200.000
G1 X-172.761 Y35.803 Z-5.841 F200.000
G1 X-172.930 Y35.899 Z-5.858 F200.000
G1 X-173.114 Y35.960 Z-5.875 F200.000
G1 X-173.306 Y35.983 Z-5.892 F200.000
G1 X-173.500 Y35.969 Z-5.909 F200.000
G1 X-173.687 Y35.918 Z-5.927 F200.000
G1 X-173.860 Y35.830 Z-5.944 F200.000
G1 X-174.014 Y35.711 Z-5.961 F200.000
G1 X-174.140 Y35.564 Z-5.978 F200.000
G1 X-174.236 Y35.395 Z-5.995 F200.000
G1 X-174.297 Y35.211 Z-6.012 F200.000
G1 X-174.321 Y35.019 Z-6.030 F200.000
G1 X-174.307 Y34.825 Z-6.047 F200.000
G1 X-174.255 Y34.638 Z-6.064 F200.000
G1 X-174.168 Y34.465 Z-6.081 F200.000
G1 X-174.049 Y34.311 Z-6.098 F200.000
G1 X-173.902 Y34.185 Z-6.115 F200.000
G1 X-173.733 Y34.089 Z-6.133 F200.000
G1 X-173.549 Y34.028 Z-6.150 F200.000
G1 X-173.356 Y34.004 Z-6.167 F200.000
G1 X-173.163 Y34.018 Z-6.184 F200.000
G1 X-172.975 Y34.070 Z-6.201 F200.000
G1 X-172.802 Y34.157 Z-6.219 F200.000
G1 X-172.649 Y34.276 Z-6.236 F200.000
G1 X-172.522 Y34.423 Z-6.253 F200.000
G1 X-172.426 Y34.592 Z-6.270 F200.000
G1 X-172.365 Y34.776 Z-6.287 F200.000
G1 X-172.342 Y34.969 Z-6.304 F200.000
G1 X-172.356 Y35.162 Z-6.322 F200.000
G1 X-172.407 Y35.350 Z-6.339 F200.000
G1 X-172.495 Y35.523 Z-6.356 F200.000
G1 X-172.614 Y35.676 Z-6.373 F200.000
G1 X-172.761 Y35.803 Z-6.390 F200.000
G1 X-172.930 Y35.899 Z-6.408 F200.000
G1 X-173.114 Y35.960 Z-6.425 F200.000
G1 X-173.306 Y35.983 Z-6.442 F200.000
G1 X-173.500 Y35.969 Z-6.459 F200.000
G1 X-173.687 Y35.918 Z-6.476 F200.000
G1 X-173.860 Y35.830 Z-6.493 F200.000
G1 X-174.014 Y35.711 Z-6.511 F200.000
G1 X-174.140 Y35.564 Z-6.528 F200.000
G1 X-174.236 Y35.395 Z-6.545 F200.000
G1 X-174.297 Y35.211 Z-6.562 F200.000
G1 X-174.321 Y35.019 Z-6.579 F200.000
G1 X-174.307 Y34.825 Z-6.596 F200.000
G1 X-174.255 Y34.638 Z-6.614 F200.000
G1 X-174.168 Y34.465 Z-6.631 F200.000
G1 X-174.049 Y34.311 Z-6.648 F200.000
G1 X-173.902 Y34.185 Z-6.665 F200.000
G1 X-173.733 Y34.089 Z-6.682 F200.000
G1 X-173.549 Y34.028 Z-6.700 F200.000
G1 X-173.356 Y34.004 Z-6.717 F200.000
G1 X-173.163 Y34.018 Z-6.734 F200.000
G1 X-172.975 Y34.070 Z-6.751 F200.000
G1 X-172.802 Y34.157 Z-6.768 F200.000
G1 X-172.649 Y34.276 Z-6.785 F200.000
G1 X-172.522 Y34.423 Z-6.803 F200.000
G1 X-172.426 Y34.592 Z-6.820 F200.000
G1 X-172.365 Y34.776 Z-6.837 F200.000
G1 X-172.342 Y34.969 Z-6.854 F200.000
G1 X-172.356 Y35.162 Z-6.871 F200.000
G1 X-172.407 Y35.350 Z-6.889 F200.000
G1 X-172.495 Y35.523 Z-6.906 F200.000
G1 X-172.614 Y35.676 Z-6.923 F200.000
G1 X-172.761 Y35.803 Z-6.940 F200.000
G1 X-172.930 Y35.899 Z-6.957 F200.000
G1 X-173.114 Y35.960 Z-6.974 F200.000
G1 X-173.306 Y35.983 Z-6.992 F200.000
G1 X-173.500 Y35.969 Z-7.009 F200.000
G1 X-173.687 Y35.918 Z-7.026 F200.000
G1 X-173.860 Y35.830 Z-7.043 F200.000
G1 X-174.014 Y35.711 Z-7.060 F200.000
G1 X-174.140 Y35.564 Z-7.077 F200.000
G1 X-174.236 Y35.395 Z-7.095 F200.000
G1 X-174.297 Y35.211 Z-7.112 F200.000
G1 X-174.321 Y35.019 Z-7.129 F200.000
G1 X-174.307 Y34.825 Z-7.146 F200.000
G1 X-174.255 Y34.638 Z-7.163 F200.000
G1 X-174.168 Y34.465 Z-7.181 F200.000
G1 X-174.049 Y34.311 Z-7.198 F200.000
G1 X-173.902 Y34.185 Z-7.215 F200.000
G1 X-173.733 Y34.089 Z-7.232 F200.000
G1 X-173.549 Y34.028 Z-7.249 F200.000
G1 X-173.356 Y34.004 Z-7.266 F200.000
G1 X-173.163 Y34.018 Z-7.284 F200.000
G1 X-172.975 Y34.070 Z-7.301 F200.000
G1 X-172.802 Y34.157 Z-7.318 F200.000
G1 X-172.649 Y34.276 Z-7.335 F200.000
G1 X-172.522 Y34.423 Z-7.352 F200.000
G1 X-172.426 Y34.592 Z-7.370 F200.000
G1 X-172.365 Y34.776 Z-7.387 F200.000
G1 X-172.342 Y34.969 Z-7.404 F200.000
G1 X-172.356 Y35.162 Z-7.421 F200.000
G1 X-172.407 Y35.350 Z-7.438 F200.000
G1 X-172.495 Y35.523 Z-7.455 F200.000
G1 X-172.614 Y35.676 Z-7.473 F200.000
G1 X-172.761 Y35.803 Z-7.490 F200.000
G1 X-172.930 Y35.899 Z-7.507 F200.000
G1 X-173.114 Y35.960 Z-7.524 F200.000
G1 X-173.306 Y35.983 Z-7.541 F200.000
G1 X-173.500 Y35.969 Z-7.558 F200.000
G1 X-173.687 Y35.918 Z-7.576 F200.000
G1 X-173.860 Y35.830 Z-7.593 F200.000
G1 X-174.014 Y35.711 Z-7.610 F200.000
G1 X-174.140 Y35.564 Z-7.627 F200.000
G1 X-174.236 Y35.395 Z-7.644 F200.000
G1 X-174.297 Y35.211 Z-7.662 F200.000
G1 X-174.321 Y35.019 Z-7.679 F200.000
G1 X-174.307 Y34.825 Z-7.696 F200.000
G1 X-174.255 Y34.638 Z-7.713 F200.000
G1 X-174.168 Y34.465 Z-7.730 F200.000
G1 X-174.049 Y34.311 Z-7.747 F200.000
G1 X-173.902 Y34.185 Z-7.765 F200.000
G1 X-173.733 Y34.089 Z-7.782 F200.000
G1 X-173.549 Y34.028 Z-7.799 F200.000
G1 X-173.356 Y34.004 Z-7.816 F200.000
G1 X-173.163 Y34.018 Z-7.833 F200.000
G1 X-172.975 Y34.070 Z-7.851 F200.000
G1 X-172.802 Y34.157 Z-7.868 F200.000
G1 X-172.649 Y34.276 Z-7.885 F200.000
G1 X-172.522 Y34.423 Z-7.902 F200.000
G1 X-172.426 Y34.592 Z-7.919 F200.000
G1 X-172.365 Y34.776 Z-7.936 F200.000
G1 X-172.342 Y34.969 Z-7.954 F200.000
G1 X-172.356 Y35.162 Z-7.971 F200.000
G1 X-172.407 Y35.350 Z-7.988 F200.000
G1 X-172.495 Y35.523 Z-8.005 F200.000
G1 X-172.614 Y35.676 Z-8.022 F200.000
G1 X-172.761 Y35.803 Z-8.039 F200.000
G1 X-172.930 Y35.899 Z-8.057 F200.000
G1 X-173.114 Y35.960 Z-8.074 F200.000
G1 X-173.306 Y35.983 Z-8.091 F200.000
G1 X-173.500 Y35.969 Z-8.108 F200.000
G1 X-173.687 Y35.918 Z-8.125 F200.000
G1 X-173.860 Y35.830 Z-8.143 F200.000
G1 X-174.014 Y35.711 Z-8.160 F200.000
G1 X-174.140 Y35.564 Z-8.177 F200.000
G1 X-174.236 Y35.395 Z-8.194 F200.000
G1 X-174.297 Y35.211 Z-8.211 F200.000
G1 X-174.321 Y35.019 Z-8.228 F200.000
G1 X-174.307 Y34.825 Z-8.246 F200.000
G1 X-174.255 Y34.638 Z-8.263 F200.000
G1 X-174.168 Y34.465 Z-8.280 F200.000
G1 X-174.049 Y34.311 Z-8.297 F200.000
G1 X-173.902 Y34.185 Z-8.314 F200.000
G1 X-173.733 Y34.089 Z-8.332 F200.000
G1 X-173.549 Y34.028 Z-8.349 F200.000
G1 X-173.356 Y34.004 Z-8.366 F200.000
G1 X-173.163 Y34.018 Z-8.383 F200.000
G1 X-172.975 Y34.070 Z-8.400 F200.000
G1 X-172.802 Y34.157 Z-8.417 F200.000
G1 X-172.649 Y34.276 Z-8.435 F200.000
G1 X-172.522 Y34.423 Z-8.452 F200.000
G1 X-172.426 Y34.592 Z-8.469 F200.000
G1 X-172.365 Y34.776 Z-8.486 F200.000
G1 X-172.342 Y34.969 Z-8.503 F200.000
G1 X-172.356 Y35.162 Z-8.520 F200.000
G1 X-172.407 Y35.350 Z-8.538 F200.000
G1 X-172.495 Y35.523 Z-8.555 F200.000
G1 X-172.614 Y35.676 Z-8.572 F200.000
G1 X-172.761 Y35.803 Z-8.589 F200.000
G1 X-172.930 Y35.899 Z-8.606 F200.000
G1 X-173.114 Y35.960 Z-8.624 F200.000
G1 X-173.306 Y35.983 Z-8.641 F200.000
G1 X-173.500 Y35.969 Z-8.658 F200.000
G1 X-173.687 Y35.918 Z-8.675 F200.000
G1 X-173.860 Y35.830 Z-8.692 F200.000
G1 X-174.014 Y35.711 Z-8.709 F200.000
G1 X-174.140 Y35.564 Z-8.727 F200.000
G1 X-174.236 Y35.395 Z-8.744 F200.000
G1 X-174.297 Y35.211 Z-8.761 F200.000
G1 X-174.321 Y35.019 Z-8.778 F200.000
G1 X-174.307 Y34.825 Z-8.795 F200.000
G1 X-174.255 Y34.638 Z-8.812 F200.000
G1 X-174.168 Y34.465 Z-8.830 F200.000
G1 X-174.049 Y34.311 Z-8.847 F200.000
G1 X-173.902 Y34.185 Z-8.864 F200.000
G1 X-173.733 Y34.089 Z-8.881 F200.000
G1 X-173.549 Y34.028 Z-8.898 F200.000
G1 X-173.356 Y34.004 Z-8.916 F200.000
G1 X-173.163 Y34.018 Z-8.933 F200.000
G1 X-172.975 Y34.070 Z-8.950 F200.000
G1 X-172.802 Y34.157 Z-8.967 F200.000
G1 X-172.649 Y34.276 Z-8.984 F200.000
G1 X-172.522 Y34.423 Z-9.001 F200.000
G1 X-172.426 Y34.592 Z-9.019 F200.000
G1 X-172.365 Y34.776 Z-9.036 F200.000
G1 X-172.342 Y34.969 Z-9.053 F200.000
G1 X-172.356 Y35.162 Z-9.070 F200.000
G1 X-172.407 Y35.350 Z-9.087 F200.000
G1 X-172.495 Y35.523 Z-9.105 F200.000
G1 X-172.614 Y35.676 Z-9.122 F200.000
G1 X-172.761 Y35.803 Z-9.139 F200.000
G1 X-172.930 Y35.899 Z-9.156 F200.000
G1 X-173.114 Y35.960 Z-9.173 F200.000
G1 X-173.306 Y35.983 Z-9.190 F200.000
G1 X-173.500 Y35.969 Z-9.208 F200.000
G1 X-173.687 Y35.918 Z-9.225 F200.000
G1 X-173.860 Y35.830 Z-9.242 F200.000
G1 X-174.014 Y35.711 Z-9.259 F200.000
G1 X-174.140 Y35.564 Z-9.276 F200.000
G1 X-174.236 Y35.395 Z-9.293 F200.000
G1 X-174.297 Y35.211 Z-9.311 F200.000
G1 X-174.321 Y35.019 Z-9.328 F200.000
G1 X-174.307 Y34.825 Z-9.345 F200.000
G1 X-174.255 Y34.638 Z-9.362 F200.000
G1 X-174.168 Y34.465 Z-9.379 F200.000
G1 X-174.049 Y34.311 Z-9.397 F200.000
G1 X-173.902 Y34.185 Z-9.414 F200.000
G1 X-173.733 Y34.089 Z-9.431 F200.000
G1 X-173.549 Y34.028 Z-9.448 F200.000
G1 X-173.356 Y34.004 Z-9.465 F200.000
G1 X-173.163 Y34.018 Z-9.482 F200.000
G1 X-172.975 Y34.070 Z-9.500 F200.000
G1 X-172.802 Y34.157 Z-9.517 F200.000
G1 X-172.649 Y34.276 Z-9.534 F200.000
G1 X-172.522 Y34.423 Z-9.551 F200.000
G1 X-172.426 Y34.592 Z-9.568 F200.000
G1 X-172.365 Y34.776 Z-9.586 F200.000
G1 X-172.342 Y34.969 Z-9.603 F200.000
G1 X-172.356 Y35.162 Z-9.620 F200.000
G1 X-172.407 Y35.350 Z-9.637 F200.000
G1 X-172.495 Y35.523 Z-9.654 F200.000
G1 X-172.614 Y35.676 Z-9.671 F200.000
G1 X-172.761 Y35.803 Z-9.689 F200.000
G1 X-172.930 Y35.899 Z-9.706 F200.000
G1 X-173.114 Y35.960 Z-9.723 F200.000
G1 X-173.306 Y35.983 Z-9.740 F200.000
G1 X-173.500 Y35.969 Z-9.757 F200.000
G1 X-173.687 Y35.918 Z-9.774 F200.000
G1 X-173.860 Y35.830 Z-9.792 F200.000
G1 X-174.014 Y35.711 Z-9.809 F200.000
G1 X-174.140 Y35.564 Z-9.826 F200.000
G1 X-174.236 Y35.395 Z-9.843 F200.000
G1 X-174.297 Y35.211 Z-9.860 F200.000
G1 X-174.321 Y35.019 Z-9.878 F200.000
G1 X-174.307 Y34.825 Z-9.895 F200.000
G1 X-174.255 Y34.638 Z-9.912 F200.000
G1 X-174.168 Y34.465 Z-9.929 F200.000
G1 X-174.049 Y34.311 Z-9.946 F200.000
G1 X-173.902 Y34.185 Z-9.963 F200.000
G1 X-173.733 Y34.089 Z-9.981 F200.000
G1 X-173.549 Y34.028 Z-9.998 F200.000
G1 X-173.356 Y34.004 Z-10.000 F400.000
G1 X-173.163 Y34.018 Z-10.000 F400.000
G1 X-172.975 Y34.070 Z-10.000 F400.000
G1 X-172.802 Y34.157 Z-10.000 F400.000
G1 X-172.649 Y34.276 Z-10.000 F400.000
G1 X-172.522 Y34.423 Z-10.000 F400.000
G1 X-172.426 Y34.592 Z-10.000 F400.000
G1 X-172.365 Y34.776 Z-10.000 F400.000
G1 X-172.342 Y34.969 Z-10.000 F400.000
G1 X-172.356 Y35.162 Z-10.000 F400.000
G1 X-172.407 Y35.350 Z-10.000 F400.000
G1 X-172.495 Y35.523 Z-10.000 F400.000
G1 X-172.614 Y35.676 Z-10.000 F400.000
G1 X-172.761 Y35.803 Z-10.000 F400.000
G1 X-172.930 Y35.899 Z-10.000 F400.000
G1 X-173.114 Y35.960 Z-10.000 F400.000
G1 X-173.306 Y35.983 Z-10.000 F400.000
G1 X-173.500 Y35.969 Z-10.000 F400.000
G1 X-173.687 Y35.918 Z-10.000 F400.000
G1 X-173.860 Y35.830 Z-10.000 F400.000
G1 X-174.014 Y35.711 Z-10.000 F400.000
G1 X-174.140 Y35.564 Z-10.000 F400.000
G1 X-174.236 Y35.395 Z-10.000 F400.000
G1 X-174.297 Y35.211 Z-10.000 F400.000
G1 X-174.321 Y35.019 Z-10.000 F400.000
G1 X-174.307 Y34.825 Z-10.000 F400.000
G1 X-174.255 Y34.638 Z-10.000 F400.000
G1 X-174.168 Y34.465 Z-10.000 F400.000
G1 X-174.049 Y34.311 Z-10.000 F400.000
G1 X-173.902 Y34.185 Z-10.000 F400.000
G1 X-173.733 Y34.089 Z-10.000 F400.000
G1 X-173.549 Y34.028 Z-10.000 F400.000
(Adaptive - depth: -10.000000)
G1 X-173.331 Y33.994 F400.000
G1 X-173.250 Y33.925 F400.000
G1 X-173.050 Y33.875 F400.000
G1 X-172.850 Y33.888 F400.000
G1 X-172.656 Y33.944 F400.000
G1 X-172.475 Y34.038 F400.000
G1 X-172.250 Y34.237 F400.000
G1 X-172.131 Y34.400 F400.000
G1 X-171.975 Y34.931 F400.000
G1 X-171.988 Y35.206 F400.000
G1 X-172.019 Y35.381 F400.000
G1 X-172.094 Y35.581 F400.000
G1 X-172.225 Y35.806 F400.000
G1 X-172.419 Y36.013 F400.000
G1 X-172.656 Y36.181 F400.000
G1 X-172.919 Y36.294 F400.000
G1 X-173.200 Y36.337 F400.000
G1 X-173.575 Y36.312 F400.000
G1 X-173.850 Y36.219 F400.000
G1 X-174.025 Y36.125 F400.000
G1 X-174.250 Y35.931 F400.000
G1 X-174.438 Y35.688 F400.000
G1 X-174.488 Y35.600 F400.000
G1 X-174.669 Y35.000 F400.000
G1 X-174.637 Y34.688 F400.000
G1 X-174.588 Y34.525 F400.000
G1 X-174.506 Y34.356 F400.000
G1 X-174.369 Y34.150 F400.000
G1 X-174.069 Y33.856 F400.000
G1 X-173.812 Y33.675 F400.000
G1 X-173.625 Y33.581 F400.000
G1 X-173.525 Y33.556 F400.000
G1 X-172.825 Y33.562 F400.000
G1 X-172.625 Y33.594 F400.000
G1 X-172.250 Y33.744 F400.000
G1 X-172.012 Y33.925 F400.000
G1 X-171.812 Y34.144 F400.000
G1 X-171.662 Y34.400 F400.000
G1 X-171.531 Y35.006 F400.000
G1 X-171.556 Y35.331 F400.000
G1 X-171.606 Y35.544 F400.000
G1 X-171.781 Y35.938 F400.000
G1 X-172.012 Y36.237 F400.000
G1 X-172.156 Y36.369 F400.000
G1 X-172.338 Y36.431 F400.000
G1 X-173.838 Y36.425 F400.000
G1 X-174.119 Y36.381 F400.000
G1 X-174.300 Y36.306 F400.000
G1 X-174.594 Y36.031 F400.000
G1 X-174.775 Y35.794 F400.000
G1 X-174.869 Y35.612 F400.000
G1 X-175.044 Y35.013 F400.000
G1 X-175.019 Y34.656 F400.000
G1 X-174.969 Y34.462 F400.000
G1 X-174.794 Y34.081 F400.000
G1 X-174.556 Y33.744 F400.000
G1 X-174.412 Y33.594 F400.000
G1 X-174.319 Y33.556 F400.000
G1 X-174.319 Y33.556 F400.000
G1 X-174.056 Y33.606 F400.000
G1 X-174.006 Y33.631 F400.000
G1 X-173.963 Y33.650 F400.000
G0 X-173.912 Y33.663
G0 X-173.256 Y33.688
G1 X-173.200 Y33.694 F400.000
G1 X-172.981 Y33.675 F400.000
G1 X-172.600 Y33.550 F400.000
G1 X-172.600 Y33.550 F400.000
G1 X-172.000 Y33.581 F400.000
G1 X-171.806 Y33.638 F400.000
G1 X-171.713 Y33.681 F400.000
G1 X-171.425 Y33.962 F400.000
G1 X-171.256 Y34.212 F400.000
G1 X-171.169 Y34.388 F400.000
G1 X-171.050 Y35.000 F400.000
G1 X-171.069 Y35.381 F400.000
G1 X-171.119 Y35.619 F400.000
G1 X-171.262 Y36.031 F400.000
G1 X-171.412 Y36.281 F400.000
G1 X-171.475 Y36.356 F400.000
G1 X-171.556 Y36.406 F400.000
G1 X-171.650 Y36.431 F400.000
G1 X-171.650 Y36.431 F400.000
G1 X-171.844 Y36.381 F400.000
G1 X-171.969 Y36.294 F400.000
G0 X-171.994 Y36.256
G0 X-172.044 Y36.000
G0 X-172.238 Y33.994
G1 X-172.244 Y33.938 F400.000
G1 X-172.244 Y33.769 F400.000
G1 X-172.206 Y33.681 F400.000
G1 X-172.088 Y33.594 F400.000
G1 X-171.900 Y33.550 F400.000
G1 X-171.900 Y33.550 F400.000
G1 X-171.500 Y33.575 F400.000
G1 X-171.306 Y33.631 F400.000
G1 X-171.213 Y33.675 F400.000
G1 X-170.994 Y33.881 F400.000
G1 X-170.769 Y34.206 F400.000
G1 X-170.681 Y34.381 F400.000
G1 X-170.550 Y34.987 F400.000
G1 X-170.550 Y35.419 F400.000
G1 X-170.637 Y35.875 F400.000
G1 X-170.744 Y36.144 F400.000
G1 X-170.906 Y36.381 F400.000
G1 X-170.994 Y36.425 F400.000
G1 X-170.994 Y36.425 F400.000
G1 X-171.188 Y36.375 F400.000
G1 X-171.312 Y36.288 F400.000
G0 X-171.338 Y36.250
G0 X-171.394 Y35.994
G0 X-171.631 Y33.994
G1 X-171.637 Y33.938 F400.000
G1 X-171.644 Y33.769 F400.000
G1 X-171.606 Y33.681 F400.000
G1 X-171.488 Y33.594 F400.000
G1 X-171.300 Y33.550 F400.000
G1 X-171.300 Y33.550 F400.000
G1 X-171.000 Y33.581 F400.000
G1 X-170.806 Y33.638 F400.000
G1 X-170.644 Y33.750 F400.000
G1 X-170.381 Y34.050 F400.000
G1 X-170.188 Y34.394 F400.000
G1 X-170.031 Y34.994 F400.000
G1 X-170.019 Y35.494 F400.000
G1 X-170.106 Y35.956 F400.000
G1 X-170.219 Y36.225 F400.000
G1 X-170.325 Y36.381 F400.000
G1 X-170.406 Y36.431 F400.000
G1 X-170.406 Y36.431 F400.000
G1 X-170.600 Y36.381 F400.000
G1 X-170.725 Y36.294 F400.000
G0 X-170.750 Y36.256
G0 X-170.825 Y36.006
G0 X-171.206 Y33.994
G1 X-171.219 Y33.938 F400.000
G1 X-171.238 Y33.769 F400.000
G1 X-171.200 Y33.681 F400.000
G1 X-171.088 Y33.594 F400.000
G1 X-170.900 Y33.550 F400.000
G1 X-170.900 Y33.550 F400.000
G1 X-170.600 Y33.562 F400.000
G1 X-170.306 Y33.638 F400.000
G1 X-170.213 Y33.681 F400.000
G1 X-169.994 Y33.888 F400.000
G1 X-169.762 Y34.200 F400.000
G1 X-169.669 Y34.375 F400.000
G1 X-169.500 Y34.975 F400.000
G1 X-169.469 Y35.456 F400.000
G1 X-169.525 Y35.844 F400.000
G1 X-169.650 Y36.206 F400.000
G1 X-169.756 Y36.369 F400.000
G1 X-169.838 Y36.419 F400.000
G1 X-169.931 Y36.431 F400.000
G1 X-169.931 Y36.431 F400.000
G1 X-170.125 Y36.381 F400.000
G1 X-170.250 Y36.294 F400.000
G0 X-170.275 Y36.256
G0 X-170.350 Y36.006
G0 X-170.706 Y33.994
G1 X-170.719 Y33.938 F400.000
G1 X-170.738 Y33.769 F400.000
G1 X-170.700 Y33.681 F400.000
G1 X-170.588 Y33.594 F400.000
G1 X-170.400 Y33.550 F400.000
G1 X-170.400 Y33.550 F400.000
G1 X-170.000 Y33.575 F400.000
G1 X-169.806 Y33.625 F400.000
G1 X-169.713 Y33.669 F400.000
G1 X-169.419 Y33.944 F400.000
G1 X-169.194 Y34.275 F400.000
G1 X-169.150 Y34.362 F400.000
G1 X-168.969 Y34.956 F400.000
G1 X-168.931 Y35.481 F400.000
G1 X-168.988 Y35.869 F400.000
G1 X-169.081 Y36.144 F400.000
G1 X-169.175 Y36.312 F400.000
G1 X-169.238 Y36.388 F400.000
G1 X-169.325 Y36.431 F400.000
G1 X-169.419 Y36.431 F400.000
G1 X-169.419 Y36.431 F400.000
G1 X-169.613 Y36.381 F400.000
G1 X-169.738 Y36.294 F400.000
G0 X-169.762 Y36.256
G0 X-169.831 Y36.006
G0 X-170.119 Y33.994
G1 X-170.131 Y33.938 F400.000
G1 X-170.137 Y33.769 F400.000
G1 X-170.106 Y33.681 F400.000
G1 X-169.988 Y33.594 F400.000
G1 X-169.800 Y33.550 F400.000
G1 X-169.800 Y33.550 F400.000
G1 X-169.400 Y33.594 F400.000
G1 X-169.206 Y33.656 F400.000
G1 X-168.975 Y33.850 F400.000
G1 X-168.725 Y34.163 F400.000
G1 X-168.537 Y34.506 F400.000
G1 X-168.412 Y34.881 F400.000
G1 X-168.344 Y35.350 F400.000
G1 X-168.363 Y35.725 F400.000
G1 X-168.469 Y36.094 F400.000
G1 X-168.619 Y36.337 F400.000
G1 X-168.694 Y36.400 F400.000
G1 X-168.781 Y36.431 F400.000
G1 X-168.781 Y36.431 F400.000
G1 X-168.975 Y36.381 F400.000
G1 X-169.100 Y36.294 F400.000
G0 X-169.125 Y36.256
G0 X-169.206 Y36.006
G0 X-169.606 Y33.994
G1 X-169.619 Y33.938 F400.000
G1 X-169.637 Y33.769 F400.000
G1 X-169.600 Y33.681 F400.000
G1 X-169.488 Y33.594 F400.000
G1 X-169.300 Y33.550 F400.000
G1 X-169.300 Y33.550 F400.000
G1 X-169.000 Y33.569 F400.000
G1 X-168.706 Y33.644 F400.000
G1 X-168.537 Y33.756 F400.000
G1 X-168.262 Y34.044 F400.000
G1 X-168.044 Y34.375 F400.000
G1 X-167.963 Y34.550 F400.000
G1 X-167.894 Y34.831 F400.000
G1 X-167.900 Y35.862 F400.000
G1 X-167.950 Y36.144 F400.000
G1 X-168.025 Y36.325 F400.000
G1 X-168.088 Y36.400 F400.000
G1 X-168.175 Y36.431 F400.000
G1 X-168.175 Y36.431 F400.000
G1 X-168.369 Y36.381 F400.000
G1 X-168.494 Y36.294 F400.000
G0 X-168.525 Y36.256
G0 X-168.606 Y36.006
G0 X-169.094 Y33.987
G1 X-169.106 Y33.931 F400.000
G1 X-169.131 Y33.763 F400.000
G1 X-169.100 Y33.681 F400.000
G1 X-168.988 Y33.594 F400.000
G1 X-168.800 Y33.550 F400.000
G1 X-168.800 Y33.550 F400.000
G1 X-168.400 Y33.575 F400.000
G1 X-168.200 Y33.619 F400.000
G1 X-168.019 Y33.706 F400.000
G1 X-167.944 Y33.769 F400.000
G1 X-167.894 Y33.856 F400.000
G1 X-167.894 Y33.856 F400.000
G1 X-167.900 Y33.875 F400.000
G0 X-167.919 Y33.881
G1 X-167.944 Y33.875 F400.000
G1 X-168.231 Y33.600 F400.000
G1 X-168.200 Y33.550 F400.000
G1 X-168.200 Y33.550 F400.000
G1 X-168.000 Y33.569 F400.000
G1 X-167.925 Y33.631 F400.000
G1 X-167.925 Y33.631 F400.000
G1 X-167.912 Y33.769 F400.000
G0 X-167.931 Y33.806
G0 X-168.438 Y34.144
G0 X-168.475 Y34.219
G0 X-168.419 Y35.438
G0 X-168.338 Y35.562
G0 X-168.169 Y35.706
G1 X-168.125 Y35.737 F400.000
G1 X-167.975 Y35.875 F400.000
G1 X-167.906 Y36.006 F400.000
G1 X-167.887 Y36.112 F400.000
G1 X-167.887 Y36.112 F400.000
G1 X-167.894 Y36.300 F400.000
G1 X-167.944 Y36.381 F400.000
G1 X-168.025 Y36.438 F400.000
G1 X-168.025 Y36.438 F400.000
G1 X-168.369 Y36.375 F400.000
G0 X-168.412 Y36.350
G0 X-168.919 Y35.900
G0 X-173.088 Y35.875
G0 X-173.488 Y36.106
G1 X-173.525 Y36.131 F400.000
G1 X-173.613 Y36.194 F400.000
G1 X-173.925 Y36.388 F400.000
G1 X-174.137 Y36.431 F400.000
G1 X-174.137 Y36.431 F400.000
G1 X-174.419 Y36.413 F400.000
G1 X-174.606 Y36.362 F400.000
G1 X-174.694 Y36.325 F400.000
G1 X-174.919 Y36.131 F400.000
G1 X-175.162 Y35.819 F400.000
G1 X-175.294 Y35.544 F400.000
G1 X-175.431 Y35.031 F400.000
G1 X-175.425 Y34.562 F400.000
G1 X-175.338 Y34.212 F400.000
G1 X-175.169 Y33.837 F400.000
G1 X-175.050 Y33.669 F400.000
G1 X-174.975 Y33.594 F400.000
G1 X-174.881 Y33.556 F400.000
G1 X-174.881 Y33.556 F400.000
G1 X-174.669 Y33.587 F400.000
G1 X-174.537 Y33.663 F400.000
G0 X-174.512 Y33.700
G0 X-174.456 Y33.956
G0 X-174.256 Y35.969
G1 X-174.256 Y36.025 F400.000
G1 X-174.256 Y36.225 F400.000
G1 X-174.300 Y36.300 F400.000
G1 X-174.425 Y36.388 F400.000
G1 X-174.637 Y36.431 F400.000
G1 X-174.637 Y36.431 F400.000
G1 X-174.919 Y36.381 F400.000
G1 X-175.100 Y36.306 F400.000
G1 X-175.256 Y36.175 F400.000
G1 X-175.456 Y35.950 F400.000
G1 X-175.619 Y35.694 F400.000
G1 X-175.662 Y35.600 F400.000
G1 X-175.856 Y35.006 F400.000
G1 X-175.875 Y34.538 F400.000
G1 X-175.775 Y34.094 F400.000
G1 X-175.644 Y33.806 F400.000
G1 X-175.525 Y33.638 F400.000
G1 X-175.444 Y33.575 F400.000
G1 X-175.344 Y33.556 F400.000
G1 X-175.344 Y33.556 F400.000
G1 X-175.131 Y33.587 F400.000
G1 X-175.000 Y33.663 F400.000
G0 X-174.969 Y33.700
G0 X-174.900 Y33.956
G0 X-174.581 Y35.969
G1 X-174.575 Y36.025 F400.000
G1 X-174.556 Y36.225 F400.000
G1 X-174.600 Y36.300 F400.000
G1 X-174.725 Y36.388 F400.000
G1 X-174.938 Y36.431 F400.000
G1 X-174.938 Y36.431 F400.000
G1 X-175.219 Y36.413 F400.000
G1 X-175.406 Y36.356 F400.000
G1 X-175.494 Y36.312 F400.000
G1 X-175.844 Y35.956 F400.000
G1 X-176.056 Y35.619 F400.000
G1 X-176.287 Y35.038 F400.000
G1 X-176.325 Y34.569 F400.000
G1 X-176.300 Y34.337 F400.000
G1 X-176.175 Y33.938 F400.000
G1 X-176.025 Y33.669 F400.000
G1 X-175.956 Y33.594 F400.000
G1 X-175.856 Y33.556 F400.000
G1 X-175.856 Y33.556 F400.000
G1 X-175.644 Y33.587 F400.000
G1 X-175.512 Y33.663 F400.000
G0 X-175.481 Y33.700
G0 X-175.400 Y33.956
G0 X-174.988 Y35.969
G1 X-174.981 Y36.025 F400.000
G1 X-174.963 Y36.225 F400.000
G1 X-175.000 Y36.300 F400.000
G1 X-175.125 Y36.388 F400.000
G1 X-175.338 Y36.431 F400.000
G1 X-175.338 Y36.431 F400.000
G1 X-175.525 Y36.425 F400.000
G1 X-175.806 Y36.350 F400.000
G1 X-175.894 Y36.306 F400.000
G1 X-176.188 Y36.038 F400.000
G1 X-176.369 Y35.800 F400.000
G1 X-176.469 Y35.625 F400.000
G1 X-176.719 Y35.050 F400.000
G1 X-176.775 Y34.481 F400.000
G1 X-176.700 Y34.044 F400.000
G1 X-176.575 Y33.756 F400.000
G1 X-176.450 Y33.594 F400.000
G1 X-176.350 Y33.556 F400.000
G1 X-176.350 Y33.556 F400.000
G1 X-176.137 Y33.587 F400.000
G1 X-176.006 Y33.663 F400.000
G0 X-175.975 Y33.700
G0 X-175.887 Y33.950
G0 X-175.406 Y35.975
G1 X-175.394 Y36.031 F400.000
G1 X-175.363 Y36.225 F400.000
G1 X-175.400 Y36.306 F400.000
G1 X-175.531 Y36.388 F400.000
G1 X-175.738 Y36.431 F400.000
G1 X-175.738 Y36.431 F400.000
G1 X-175.925 Y36.425 F400.000
G1 X-176.206 Y36.356 F400.000
G1 X-176.375 Y36.256 F400.000
G1 X-176.662 Y35.981 F400.000
G1 X-176.887 Y35.644 F400.000
G1 X-177.175 Y34.981 F400.000
G1 X-177.231 Y34.356 F400.000
G1 X-177.188 Y34.106 F400.000
G1 X-177.075 Y33.812 F400.000
G1 X-176.956 Y33.638 F400.000
G1 X-176.875 Y33.569 F400.000
G1 X-176.875 Y33.569 F400.000
G1 X-176.662 Y33.600 F400.000
G1 X-176.525 Y33.675 F400.000
G0 X-176.494 Y33.712
G0 X-176.394 Y33.962
G0 X-175.812 Y35.975
G1 X-175.800 Y36.031 F400.000
G1 X-175.762 Y36.225 F400.000
G1 X-175.806 Y36.306 F400.000
G1 X-175.931 Y36.388 F400.000
G1 X-176.137 Y36.431 F400.000
G1 X-176.137 Y36.431 F400.000
G1 X-176.419 Y36.413 F400.000
G1 X-176.700 Y36.325 F400.000
G1 X-176.863 Y36.212 F400.000
G1 X-177.144 Y35.925 F400.000
G1 X-177.312 Y35.675 F400.000
G1 X-177.613 Y35.019 F400.000
G1 X-177.688 Y34.394 F400.000
G1 X-177.625 Y34.031 F400.000
G1 X-177.500 Y33.744 F400.000
G1 X-177.375 Y33.581 F400.000
G1 X-177.275 Y33.556 F400.000
G1 X-177.275 Y33.556 F400.000
G1 X-177.062 Y33.587 F400.000
G1 X-176.925 Y33.663 F400.000
G0 X-176.894 Y33.700
G0 X-176.794 Y33.950
G0 X-176.213 Y35.975
G1 X-176.200 Y36.031 F400.000
G1 X-176.162 Y36.225 F400.000
G1 X-176.206 Y36.306 F400.000
G1 X-176.331 Y36.388 F400.000
G1 X-176.537 Y36.431 F400.000
G1 X-176.537 Y36.431 F400.000
G1 X-176.819 Y36.419 F400.000
G1 X-177.100 Y36.344 F400.000
G1 X-177.188 Y36.300 F400.000
G1 X-177.419 Y36.100 F400.000
G1 X-177.738 Y35.706 F400.000
G1 X-178.062 Y35.056 F400.000
G1 X-178.125 Y34.556 F400.000
G1 X-178.106 Y34.256 F400.000
G1 X-178.031 Y33.956 F400.000
G1 X-177.950 Y33.763 F400.000
G1 X-177.831 Y33.594 F400.000
G1 X-177.738 Y33.556 F400.000
G1 X-177.738 Y33.556 F400.000
G1 X-177.525 Y33.587 F400.000
G1 X-177.394 Y33.663 F400.000
G0 X-177.356 Y33.700
G0 X-177.262 Y33.950
G0 X-176.713 Y35.975
G1 X-176.700 Y36.031 F400.000
G1 X-176.662 Y36.225 F400.000
G1 X-176.706 Y36.306 F400.000
G1 X-176.831 Y36.388 F400.000
G1 X-177.037 Y36.431 F400.000
G1 X-177.037 Y36.431 F400.000
G1 X-177.319 Y36.413 F400.000
G1 X-177.506 Y36.369 F400.000
G1 X-177.688 Y36.281 F400.000
G1 X-177.975 Y36.006 F400.000
G1 X-178.156 Y35.769 F400.000
G1 X-178.381 Y35.312 F400.000
G1 X-178.506 Y34.819 F400.000
G1 X-178.537 Y34.419 F400.000
G1 X-178.500 Y34.119 F400.000
G1 X-178.406 Y33.825 F400.000
G1 X-178.306 Y33.644 F400.000
G1 X-178.231 Y33.575 F400.000
G1 X-178.131 Y33.556 F400.000
G1 X-178.131 Y33.556 F400.000
G1 X-177.919 Y33.587 F400.000
G1 X-177.787 Y33.663 F400.000
G0 X-177.750 Y33.700
G0 X-177.656 Y33.950
G0 X-177.113 Y35.975
G1 X-177.100 Y36.031 F400.000
G1 X-177.062 Y36.225 F400.000
G1 X-177.106 Y36.306 F400.000
G1 X-177.231 Y36.388 F400.000
G1 X-177.438 Y36.431 F400.000
G1 X-177.438 Y36.431 F400.000
G1 X-177.812 Y36.406 F400.000
G1 X-178.088 Y36.312 F400.000
G1 X-178.312 Y36.119 F400.000
G1 X-178.619 Y35.719 F400.000
G1 X-178.706 Y35.538 F400.000
G1 X-178.762 Y35.337 F400.000
G1 X-178.762 Y34.038 F400.000
G1 X-178.706 Y33.737 F400.000
G1 X-178.669 Y33.644 F400.000
G1 X-178.606 Y33.562 F400.000
G1 X-178.506 Y33.556 F400.000
G1 X-178.506 Y33.556 F400.000
G1 X-178.294 Y33.587 F400.000
G1 X-178.162 Y33.663 F400.000
G0 X-178.131 Y33.700
G0 X-178.044 Y33.950
G0 X-177.600 Y35.969
G1 X-177.588 Y36.025 F400.000
G1 X-177.562 Y36.225 F400.000
G1 X-177.600 Y36.300 F400.000
G1 X-177.725 Y36.388 F400.000
G1 X-177.938 Y36.431 F400.000
G1 X-177.938 Y36.431 F400.000
G1 X-178.125 Y36.425 F400.000
G1 X-178.406 Y36.356 F400.000
G1 X-178.575 Y36.256 F400.000
G1 X-178.719 Y36.112 F400.000
G1 X-178.762 Y36.019 F400.000
G1 X-178.769 Y35.819 F400.000
G1 X-178.769 Y35.819 F400.000
G1 X-178.719 Y35.619 F400.000
G1 X-178.694 Y35.587 F400.000
G0 X-178.669 Y35.575
G0 X-178.206 Y36.100
G1 X-178.181 Y36.144 F400.000
G1 X-178.094 Y36.263 F400.000
G1 X-178.088 Y36.331 F400.000
G1 X-178.144 Y36.381 F400.000
G1 X-178.338 Y36.431 F400.000
G1 X-178.338 Y36.431 F400.000
G1 X-178.525 Y36.425 F400.000
G1 X-178.713 Y36.375 F400.000
G1 X-178.775 Y36.300 F400.000
G1 X-178.769 Y36.100 F400.000
G1 X-178.769 Y36.100 F400.000
G1 X-178.738 Y35.938 F400.000
G0 X-178.731 Y35.888
G0 X-178.725 Y34.281
G1 X-178.725 Y34.219 F400.000
G1 X-178.769 Y33.788 F400.000
G1 X-178.769 Y33.788 F400.000
G1 X-178.769 Y33.688 F400.000
G1 X-178.719 Y33.600 F400.000
G1 X-178.625 Y33.556 F400.000
G1 X-178.625 Y33.556 F400.000
G1 X-178.594 Y33.544 F400.000
G1 X-178.575 Y33.550 F400.000
G1 X-178.588 Y33.581 F400.000
G1 X-178.644 Y33.581 F400.000
G1 X-178.662 Y33.556 F400.000
G1 X-178.644 Y33.513 F400.000
G1 X-178.644 Y33.513 F400.000
G1 X-178.613 Y33.500 F400.000
G1 X-167.994 Y33.519 F400.000
G1 X-167.931 Y33.556 F400.000
G1 X-167.869 Y33.625 F400.000
G1 X-167.831 Y33.744 F400.000
G1 X-167.844 Y36.219 F400.000
G1 X-167.869 Y36.356 F400.000
G1 X-167.956 Y36.450 F400.000
G1 X-168.012 Y36.481 F400.000
G1 X-168.088 Y36.494 F400.000
G1 X-178.669 Y36.469 F400.000
G1 X-178.738 Y36.425 F400.000
G1 X-178.794 Y36.362 F400.000
G1 X-178.831 Y36.256 F400.000
G1 X-178.819 Y33.744 F400.000
G1 X-178.800 Y33.644 F400.000
G1 X-178.756 Y33.581 F400.000
G1 X-178.700 Y33.531 F400.000
G1 X-178.650 Y33.506 F400.000
G1 X-178.644 Y33.513 F400.000
G0 Z5.000
(Helix to depth: -10.000000)
G0 Z5.000
G0 X172.356 Y34.825 Z5.000
G0 X172.356 Y34.825 Z3.000
G1 X172.356 Y34.825 Z0.000 F200.000
G1 X172.356 Y34.825 Z0.000 F200.000
G1 X172.407 Y34.638 Z-0.017 F200.000
G1 X172.495 Y34.465 Z-0.034 F200.000
G1 X172.614 Y34.311 Z-0.052 F200.000
G1 X172.761 Y34.185 Z-0.069 F200.000
G1 X172.930 Y34.089 Z-0.086 F200.000
G1 X173.114 Y34.028 Z-0.103 F200.000
G1 X173.306 Y34.004 Z-0.120 F200.000
G1 X173.500 Y34.018 Z-0.137 F200.000
G1 X173.687 Y34.070 Z-0.155 F200.000
G1 X173.860 Y34.157 Z-0.172 F200.000
G1 X174.014 Y34.276 Z-0.189 F200.000
G1 X174.140 Y34.423 Z-0.206 F200.000
G1 X174.236 Y34.592 Z-0.223 F200.000
G1 X174.297 Y34.776 Z-0.240 F200.000
G1 X174.321 Y34.969 Z-0.258 F200.000
G1 X174.307 Y35.162 Z-0.275 F200.000
G1 X174.255 Y35.350 Z-0.292 F200.000
G1 X174.168 Y35.523 Z-0.309 F200.000
G1 X174.049 Y35.676 Z-0.326 F200.000
G1 X173.902 Y35.803 Z-0.344 F200.000
G1 X173.733 Y35.899 Z-0.361 F200.000
G1 X173.549 Y35.960 Z-0.378 F200.000
G1 X173.356 Y35.983 Z-0.395 F200.000
G1 X173.163 Y35.969 Z-0.412 F200.000
G1 X172.975 Y35.918 Z-0.429 F200.000
G1 X172.802 Y35.830 Z-0.447 F200.000
G1 X172.649 Y35.711 Z-0.464 F200.000
G1 X172.522 Y35.564 Z-0.481 F200.000
G1 X172.426 Y35.395 Z-0.498 F200.000
G1 X172.365 Y35.211 Z-0.515 F200.000
G1 X172.342 Y35.019 Z-0.533 F200.000
G1 X172.356 Y34.825 Z-0.550 F200.000
G1 X172.407 Y34.638 Z-0.567 F200.000
G1 X172.495 Y34.465 Z-0.584 F200.000
G1 X172.614 Y34.311 Z-0.601 F200.000
G1 X172.761 Y34.185 Z-0.618 F200.000
G1 X172.930 Y34.089 Z-0.636 F200.000
G1 X173.114 Y34.028 Z-0.653 F200.000
G1 X173.306 Y34.004 Z-0.670 F200.000
G1 X173.500 Y34.018 Z-0.687 F200.000
G1 X173.687 Y34.070 Z-0.704 F200.000
G1 X173.860 Y34.157 Z-0.721 F200.000
G1 X174.014 Y34.276 Z-0.739 F200.000
G1 X174.140 Y34.423 Z-0.756 F200.000
G1 X174.236 Y34.592 Z-0.773 F200.000
G1 X174.297 Y34.776 Z-0.790 F200.000
G1 X174.321 Y34.969 Z-0.807 F200.000
G1 X174.307 Y35.162 Z-0.825 F200.000
G1 X174.255 Y35.350 Z-0.842 F200.000
G1 X174.168 Y35.523 Z-0.859 F200.000
G1 X174.049 Y35.676 Z-0.876 F200.000
G1 X173.902 Y35.803 Z-0.893 F200.000
G1 X173.733 Y35.899 Z-0.910 F200.000
G1 X173.549 Y35.960 Z-0.928 F200.000
G1 X173.356 Y35.983 Z-0.945 F200.000
G1 X173.163 Y35.969 Z-0.962 F200.000
G1 X172.975 Y35.918 Z-0.979 F200.000
G1 X172.802 Y35.830 Z-0.996 F200.000
G1 X172.649 Y35.711 Z-1.014 F200.000
G1 X172.522 Y35.564 Z-1.031 F200.000
G1 X172.426 Y35.395 Z-1.048 F200.000
G1 X172.365 Y35.211 Z-1.065 F200.000
G1 X172.342 Y35.019 Z-1.082 F200.000
G1 X172.356 Y34.825 Z-1.099 F200.000
G1 X172.407 Y34.638 Z-1.117 F200.000
G1 X172.495 Y34.465 Z-1.134 F200.000
G1 X172.614 Y34.311 Z-1.151 F200.000
G1 X172.761 Y34.185 Z-1.168 F200.000
G1 X172.930 Y34.089 Z-1.185 F200.000
G1 X173.114 Y34.028 Z-1.202 F200.000
G1 X173.306 Y34.004 Z-1.220 F200.000
G1 X173.500 Y34.018 Z-1.237 F200.000
G1 X173.687 Y34.070 Z-1.254 F200.000
G1 X173.860 Y34.157 Z-1.271 F200.000
G1 X174.014 Y34.276 Z-1.288 F200.000
G1 X174.140 Y34.423 Z-1.306 F200.000
G1 X174.236 Y34.592 Z-1.323 F200.000
G1 X174.297 Y34.776 Z-1.340 F200.000
G1 X174.321 Y34.969 Z-1.357 F200.000
G1 X174.307 Y35.162 Z-1.374 F200.000
G1 X174.255 Y35.350 Z-1.391 F200.000
G1 X174.168 Y35.523 Z-1.409 F200.000
G1 X174.049 Y35.676 Z-1.426 F200.000
G1 X173.902 Y35.803 Z-1.443 F200.000
G1 X173.733 Y35.899 Z-1.460 F200.000
G1 X173.549 Y35.960 Z-1.477 F200.000
G1 X173.356 Y35.983 Z-1.495 F200.000
G1 X173.163 Y35.969 Z-1.512 F200.000
G1 X172.975 Y35.918 Z-1.529 F200.000
G1 X172.802 Y35.830 Z-1.546 F200.000
G1 X172.649 Y35.711 Z-1.563 F200.000
G1 X172.522 Y35.564 Z-1.580 F200.000
G1 X172.426 Y35.395 Z-1.598 F200.000
G1 X172.365 Y35.211 Z-1.615 F200.000
G1 X172.342 Y35.019 Z-1.632 F200.000
G1 X172.356 Y34.825 Z-1.649 F200.000
G1 X172.407 Y34.638 Z-1.666 F200.000
G1 X172.495 Y34.465 Z-1.683 F200.000
G1 X172.614 Y34.311 Z-1.701 F200.000
G1 X172.761 Y34.185 Z-1.718 F200.000
G1 X172.930 Y34.089 Z-1.735 F200.000
G1 X173.114 Y34.028 Z-1.752 F200.000
G1 X173.306 Y34.004 Z-1.769 F200.000
G1 X173.500 Y34.018 Z-1.787 F200.000
G1 X173.687 Y34.070 Z-1.804 F200.000
G1 X173.860 Y34.157 Z-1.821 F200.000
G1 X174.014 Y34.276 Z-1.838 F200.000
G1 X174.140 Y34.423 Z-1.855 F200.000
G1 X174.236 Y34.592 Z-1.872 F200.000
G1 X174.297 Y34.776 Z-1.890 F200.000
G1 X174.321 Y34.969 Z-1.907 F200.000
G1 X174.307 Y35.162 Z-1.924 F200.000
G1 X174.255 Y35.350 Z-1.941 F200.000
G1 X174.168 Y35.523 Z-1.958 F200.000
G1 X174.049 Y35.676 Z-1.976 F200.000
G1 X173.902 Y35.803 Z-1.993 F200.000
G1 X173.733 Y35.899 Z-2.010 F200.000
G1 X173.549 Y35.960 Z-2.027 F200.000
G1 X173.356 Y35.983 Z-2.044 F200.000
G1 X173.163 Y35.969 Z-2.061 F200.000
G1 X172.975 Y35.918 Z-2.079 F200.000
G1 X172.802 Y35.830 Z-2.096 F200.000
G1 X172.649 Y35.711 Z-2.113 F200.000
G1 X172.522 Y35.564 Z-2.130 F200.000
G1 X172.426 Y35.395 Z-2.147 F200.000
G1 X172.365 Y35.211 Z-2.164 F200.000
G1 X172.342 Y35.019 Z-2.182 F200.000
G1 X172.356 Y34.825 Z-2.199 F200.000
G1 X172.407 Y34.638 Z-2.216 F200.000
G1 X172.495 Y34.465 Z-2.233 F200.000
G1 X172.614 Y34.311 Z-2.250 F200.000
G1 X172.761 Y34.185 Z-2.268 F200.000
G1 X172.930 Y34.089 Z-2.285 F200.000
G1 X173.114 Y34.028 Z-2.302 F200.000
G1 X173.306 Y34.004 Z-2.319 F200.000
G1 X173.500 Y34.018 Z-2.336 F200.000
G1 X173.687 Y34.070 Z-2.353 F200.000
G1 X173.860 Y34.157 Z-2.371 F200.000
G1 X174.014 Y34.276 Z-2.388 F200.000
G1 X174.140 Y34.423 Z-2.405 F200.000
G1 X174.236 Y34.592 Z-2.422 F200.000
G1 X174.297 Y34.776 Z-2.439 F200.000
G1 X174.321 Y34.969 Z-2.457 F200.000
G1 X174.307 Y35.162 Z-2.474 F200.000
G1 X174.255 Y35.350 Z-2.491 F200.000
G1 X174.168 Y35.523 Z-2.508 F200.000
G1 X174.049 Y35.676 Z-2.525 F200.000
G1 X173.902 Y35.803 Z-2.542 F200.000
G1 X173.733 Y35.899 Z-2.560 F200.000
G1 X173.549 Y35.960 Z-2.577 F200.000
G1 X173.356 Y35.983 Z-2.594 F200.000
G1 X173.163 Y35.969 Z-2.611 F200.000
G1 X172.975 Y35.918 Z-2.628 F200.000
G1 X172.802 Y35.830 Z-2.645 F200.000
G1 X172.649 Y35.711 Z-2.663 F200.000
G1 X172.522 Y35.564 Z-2.680 F200.000
G1 X172.426 Y35.395 Z-2.697 F200.000
G1 X172.365 Y35.211 Z-2.714 F200.000
G1 X172.342 Y35.019 Z-2.731 F200.000
G1 X172.356 Y34.825 Z-2.749 F200.000
G1 X172.407 Y34.638 Z-2.766 F200.000
G1 X172.495 Y34.465 Z-2.783 F200.000
G1 X172.614 Y34.311 Z-2.800 F200.000
G1 X172.761 Y34.185 Z-2.817 F200.000
G1 X172.930 Y34.089 Z-2.834 F200.000
G1 X173.114 Y34.028 Z-2.852 F200.000
G1 X173.306 Y34.004 Z-2.869 F200.000
G1 X173.500 Y34.018 Z-2.886 F200.000
G1 X173.687 Y34.070 Z-2.903 F200.000
G1 X173.860 Y34.157 Z-2.920 F200.000
G1 X174.014 Y34.276 Z-2.937 F200.000
G1 X174.140 Y34.423 Z-2.955 F200.000
G1 X174.236 Y34.592 Z-2.972 F200.000
G1 X174.297 Y34.776 Z-2.989 F200.000
G1 X174.321 Y34.969 Z-3.006 F200.000
G1 X174.307 Y35.162 Z-3.023 F200.000
G1 X174.255 Y35.350 Z-3.041 F200.000
G1 X174.168 Y35.523 Z-3.058 F200.000
G1 X174.049 Y35.676 Z-3.075 F200.000
G1 X173.902 Y35.803 Z-3.092 F200.000
G1 X173.733 Y35.899 Z-3.109 F200.000
G1 X173.549 Y35.960 Z-3.126 F200.000
G1 X173.356 Y35.983 Z-3.144 F200.000
G1 X173.163 Y35.969 Z-3.161 F200.000
G1 X172.975 Y35.918 Z-3.178 F200.000
G1 X172.802 Y35.830 Z-3.195 F200.000
G1 X172.649 Y35.711 Z-3.212 F200.000
G1 X172.522 Y35.564 Z-3.230 F200.000
G1 X172.426 Y35.395 Z-3.247 F200.000
G1 X172.365 Y35.211 Z-3.264 F200.000
G1 X172.342 Y35.019 Z-3.281 F200.000
G1 X172.356 Y34.825 Z-3.298 F200.000
G1 X172.407 Y34.638 Z-3.315 F200.000
G1 X172.495 Y34.465 Z-3.333 F200.000
G1 X172.614 Y34.311 Z-3.350 F200.000
G1 X172.761 Y34.185 Z-3.367 F200.000
G1 X172.930 Y34.089 Z-3.384 F200.000
G1 X173.114 Y34.028 Z-3.401 F200.000
G1 X173.306 Y34.004 Z-3.418 F200.000
G1 X173.500 Y34.018 Z-3.436 F200.000
G1 X173.687 Y34.070 Z-3.453 F200.000
G1 X173.860 Y34.157 Z-3.470 F200.000
G1 X174.014 Y34.276 Z-3.487 F200.000
G1 X174.140 Y34.423 Z-3.504 F200.000
G1 X174.236 Y34.592 Z-3.522 F200.000
G1 X174.297 Y34.776 Z-3.539 F200.000
G1 X174.321 Y34.969 Z-3.556 F200.000
G1 X174.307 Y35.162 Z-3.573 F200.000
G1 X174.255 Y35.350 Z-3.590 F200.000
G1 X174.168 Y35.523 Z-3.607 F200.000
G1 X174.049 Y35.676 Z-3.625 F200.000
G1 X173.902 Y35.803 Z-3.642 F200.000
G1 X173.733 Y35.899 Z-3.659 F200.000
G1 X173.549 Y35.960 Z-3.676 F200.000
G1 X173.356 Y35.983 Z-3.693 F200.000
G1 X173.163 Y35.969 Z-3.711 F200.000
G1 X172.975 Y35.918 Z-3.728 F200.000
G1 X172.802 Y35.830 Z-3.745 F200.000
G1 X172.649 Y35.711 Z-3.762 F200.000
G1 X172.522 Y35.564 Z-3.779 F200.000
G1 X172.426 Y35.395 Z-3.796 F200.000
G1 X172.365 Y35.211 Z-3.814 F200.000
G1 X172.342 Y35.019 Z-3.831 F200.000
G1 X172.356 Y34.825 Z-3.848 F200.000
G1 X172.407 Y34.638 Z-3.865 F200.000
G1 X172.495 Y34.465 Z-3.882 F200.000
G1 X172.614 Y34.311 Z-3.899 F200.000
G1 X172.761 Y34.185 Z-3.917 F200.000
G1 X172.930 Y34.089 Z-3.934 F200.000
G1 X173.114 Y34.028 Z-3.951 F200.000
G1 X173.306 Y34.004 Z-3.968 F200.000
G1 X173.500 Y34.018 Z-3.985 F200.000
G1 X173.687 Y34.070 Z-4.003 F200.000
G1 X173.860 Y34.157 Z-4.020 F200.000
G1 X174.014 Y34.276 Z-4.037 F200.000
G1 X174.140 Y34.423 Z-4.054 F200.000
G1 X174.236 Y34.592 Z-4.071 F200.000
G1 X174.297 Y34.776 Z-4.088 F200.000
G1 X174.321 Y34.969 Z-4.106 F200.000
G1 X174.307 Y35.162 Z-4.123 F200.000
G1 X174.255 Y35.350 Z-4.140 F200.000
G1 X174.168 Y35.523 Z-4.157 F200.000
G1 X174.049 Y35.676 Z-4.174 F200.000
G1 X173.902 Y35.803 Z-4.192 F200.000
G1 X173.733 Y35.899 Z-4.209 F200.000
G1 X173.549 Y35.960 Z-4.226 F200.000
G1 X173.356 Y35.983 Z-4.243 F200.000
G1 X173.163 Y35.969 Z-4.260 F200.000
G1 X172.975 Y35.918 Z-4.277 F200.000
G1 X172.802 Y35.830 Z-4.295 F200.000
G1 X172.649 Y35.711 Z-4.312 F200.000
G1 X172.522 Y35.564 Z-4.329 F200.000
G1 X172.426 Y35.395 Z-4.346 F200.000
G1 X172.365 Y35.211 Z-4.363 F200.000
G1 X172.342 Y35.019 Z-4.380 F200.000
G1 X172.356 Y34.825 Z-4.398 F200.000
G1 X172.407 Y34.638 Z-4.415 F200.000
G1 X172.495 Y34.465 Z-4.432 F200.000
G1 X172.614 Y34.311 Z-4.449 F200.000
G1 X172.761 Y34.185 Z-4.466 F200.000
G1 X172.930 Y34.089 Z-4.484 F200.000
G1 X173.114 Y34.028 Z-4.501 F200.000
G1 X173.306 Y34.004 Z-4.518 F200.000
G1 X173.500 Y34.018 Z-4.535 F200.000
G1 X173.687 Y34.070 Z-4.552 F200.000
G1 X173.860 Y34.157 Z-4.569 F200.000
G1 X174.014 Y34.276 Z-4.587 F200.000
G1 X174.140 Y34.423 Z-4.604 F200.000
G1 X174.236 Y34.592 Z-4.621 F200.000
G1 X174.297 Y34.776 Z-4.638 F200.000
G1 X174.321 Y34.969 Z-4.655 F200.000
G1 X174.307 Y35.162 Z-4.673 F200.000
G1 X174.255 Y35.350 Z-4.690 F200.000
G1 X174.168 Y35.523 Z-4.707 F200.000
G1 X174.049 Y35.676 Z-4.724 F200.000
G1 X173.902 Y35.803 Z-4.741 F200.000
G1 X173.733 Y35.899 Z-4.758 F200.000
G1 X173.549 Y35.960 Z-4.776 F200.000
G1 X173.356 Y35.983 Z-4.793 F200.000
G1 X173.163 Y35.969 Z-4.810 F200.000
G1 X172.975 Y35.918 Z-4.827 F200.000
G1 X172.802 Y35.830 Z-4.844 F200.000
G1 X172.649 Y35.711 Z-4.861 F200.000
G1 X172.522 Y35.564 Z-4.879 F200.000
G1 X172.426 Y35.395 Z-4.896 F200.000
G1 X172.365 Y35.211 Z-4.913 F200.000
G1 X172.342 Y35.019 Z-4.930 F200.000
G1 X172.356 Y34.825 Z-4.947 F200.000
G1 X172.407 Y34.638 Z-4.965 F200.000
G1 X172.495 Y34.465 Z-4.982 F200.000
G1 X172.614 Y34.311 Z-4.999 F200.000
G1 X172.761 Y34.185 Z-5.016 F200.000
G1 X172.930 Y34.089 Z-5.033 F200.000
G1 X173.114 Y34.028 Z-5.050 F200.000
G1 X173.306 Y34.004 Z-5.068 F200.000
G1 X173.500 Y34.018 Z-5.085 F200.000
G1 X173.687 Y34.070 Z-5.102 F200.000
G1 X173.860 Y34.157 Z-5.119 F200.000
G1 X174.014 Y34.276 Z-5.136 F200.000
G1 X174.140 Y34.423 Z-5.154 F200.000
G1 X174.236 Y34.592 Z-5.171 F200.000
G1 X174.297 Y34.776 Z-5.188 F200.000
G1 X174.321 Y34.969 Z-5.205 F200.000
G1 X174.307 Y35.162 Z-5.222 F200.000
G1 X174.255 Y35.350 Z-5.239 F200.000
G1 X174.168 Y35.523 Z-5.257 F200.000
G1 X174.049 Y35.676 Z-5.274 F200.000
G1 X173.902 Y35.803 Z-5.291 F200.000
G1 X173.733 Y35.899 Z-5.308 F200.000
G1 X173.549 Y35.960 Z-5.325 F200.000
G1 X173.356 Y35.983 Z-5.342 F200.000
G1 X173.163 Y35.969 Z-5.360 F200.000
G1 X172.975 Y35.918 Z-5.377 F200.000
G1 X172.802 Y35.830 Z-5.394 F200.000
G1 X172.649 Y35.711 Z-5.411 F200.000
G1 X172.522 Y35.564 Z-5.428 F200.000
G1 X172.426 Y35.395 Z-5.446 F200.000
G1 X172.365 Y35.211 Z-5.463 F200.000
G1 X172.342 Y35.019 Z-5.480 F200.000
G1 X172.356 Y34.825 Z-5.497 F200.000
G1 X172.407 Y34.638 Z-5.514 F200.000
G1 X172.495 Y34.465 Z-5.531 F200.000
G1 X172.614 Y34.311 Z-5.549 F200.000
G1 X172.761 Y34.185 Z-5.566 F200.000
G1 X172.930 Y34.089 Z-5.583 F200.000
G1 X173.114 Y34.028 Z-5.600 F200.000
G1 X173.306 Y34.004 Z-5.617 F200.000
G1 X173.500 Y34.018 Z-5.635 F200.000
G1 X173.687 Y34.070 Z-5.652 F200.000
G1 X173.860 Y34.157 Z-5.669 F200.000
G1 X174.014 Y34.276 Z-5.686 F200.000
G1 X174.140 Y34.423 Z-5.703 F200.000
G1 X174.236 Y34.592 Z-5.720 F200.000
G1 X174.297 Y34.776 Z-5.738 F200.000
G1 X174.321 Y34.969 Z-5.755 F200.000
G1 X174.307 Y35.162 Z-5.772 F200.000
G1 X174.255 Y35.350 Z-5.789 F200.000
G1 X174.168 Y35.523 Z-5.806 F200.000
G1 X174.049 Y35.676 Z-5.823 F200.000
G1 X173.902 Y35.803 Z-5.841 F200.000
G1 X173.733 Y35.899 Z-5.858 F200.000
G1 X173.549 Y35.960 Z-5.875 F200.000
G1 X173.356 Y35.983 Z-5.892 F200.000
G1 X173.163 Y35.969 Z-5.909 F200.000
G1 X172.975 Y35.918 Z-5.927 F200.000
G1 X172.802 Y35.830 Z-5.944 F200.000
G1 X172.649 Y35.711 Z-5.961 F200.000
G1 X172.522 Y35.564 Z-5.978 F200.000
G1 X172.426 Y35.395 Z-5.995 F200.000
G1 X172.365 Y35.211 Z-6.012 F200.000
G1 X172.342 Y35.019 Z-6.030 F200.000
G1 X172.356 Y34.825 Z-6.047 F200.000
G1 X172.407 Y34.638 Z-6.064 F200.000
G1 X172.495 Y34.465 Z-6.081 F200.000
G1 X172.614 Y34.311 Z-6.098 F200.000
G1 X172.761 Y34.185 Z-6.115 F200.000
G1 X172.930 Y34.089 Z-6.133 F200.000
G1 X173.114 Y34.028 Z-6.150 F200.000
G1 X173.306 Y34.004 Z-6.167 F200.000
G1 X173.500 Y34.018 Z-6.184 F200.000
G1 X173.687 Y34.070 Z-6.201 F200.000
G1 X173.860 Y34.157 Z-6.219 F200.000
G1 X174.014 Y34.276 Z-6.236 F200.000
G1 X174.140 Y34.423 Z-6.253 F200.000
G1 X174.236 Y34.592 Z-6.270 F200.000
G1 X174.297 Y34.776 Z-6.287 F200.000
G1 X174.321 Y34.969 Z-6.304 F200.000
G1 X174.307 Y35.162 Z-6.322 F200.000
G1 X174.255 Y35.350 Z-6.339 F200.000
G1 X174.168 Y35.523 Z-6.356 F200.000
G1 X174.049 Y35.676 Z-6.373 F200.000
G1 X173.902 Y35.803 Z-6.390 F200.000
G1 X173.733 Y35.899 Z-6.408 F200.000
G1 X173.549 Y35.960 Z-6.425 F200.000
G1 X173.356 Y35.983 Z-6.442 F200.000
G1 X173.163 Y35.969 Z-6.459 F200.000
G1 X172.975 Y35.918 Z-6.476 F200.000
G1 X172.802 Y35.830 Z-6.493 F200.000
G1 X172.649 Y35.711 Z-6.511 F200.000
G1 X172.522 Y35.564 Z-6.528 F200.000
G1 X172.426 Y35.395 Z-6.545 F200.000
G1 X172.365 Y35.211 Z-6.562 F200.000
G1 X172.342 Y35.019 Z-6.579 F200.000
G1 X172.356 Y34.825 Z-6.596 F200.000
G1 X172.407 Y34.638 Z-6.614 F200.000
G1 X172.495 Y34.465 Z-6.631 F200.000
G1 X172.614 Y34.311 Z-6.648 F200.000
G1 X172.761 Y34.185 Z-6.665 F200.000
G1 X172.930 Y34.089 Z-6.682 F200.000
G1 X173.114 Y34.028 Z-6.700 F200.000
G1 X173.306 Y34.004 Z-6.717 F200.000
G1 X173.500 Y34.018 Z-6.734 F200.000
G1 X173.687 Y34.070 Z-6.751 F200.000
G1 X173.860 Y34.157 Z-6.768 F200.000
G1 X174.014 Y34.276 Z-6.785 F200.000
G1 X174.140 Y34.423 Z-6.803 F200.000
G1 X174.236 Y34.592 Z-6.820 F200.000
G1 X174.297 Y34.776 Z-6.837 F200.000
G1 X174.321 Y34.969 Z-6.854 F200.000
G1 X174.307 Y35.162 Z-6.871 F200.000
G1 X174.255 Y35.350 Z-6.889 F200.000
G1 X174.168 Y35.523 Z-6.906 F200.000
G1 X174.049 Y35.676 Z-6.923 F200.000
G1 X173.902 Y35.803 Z-6.940 F200.000
G1 X173.733 Y35.899 Z-6.957 F200.000
G1 X173.549 Y35.960 Z-6.974 F200.000
G1 X173.356 Y35.983 Z-6.992 F200.000
G1 X173.163 Y35.969 Z-7.009 F200.000
G1 X172.975 Y35.918 Z-7.026 F200.000
G1 X172.802 Y35.830 Z-7.043 F200.000
G1 X172.649 Y35.711 Z-7.060 F200.000
G1 X172.522 Y35.564 Z-7.077 F200.000
G1 X172.426 Y35.395 Z-7.095 F200.000
G1 X172.365 Y35.211 Z-7.112 F200.000
G1 X172.342 Y35.019 Z-7.129 F200.000
G1 X172.356 Y34.825 Z-7.146 F200.000
G1 X172.407 Y34.638 Z-7.163 F200.000
G1 X172.495 Y34.465 Z-7.181 F200.000
G1 X172.614 Y34.311 Z-7.198 F200.000
G1 X172.761 Y34.185 Z-7.215 F200.000
G1 X172.930 Y34.089 Z-7.232 F200.000
G1 X173.114 Y34.028 Z-7.249 F200.000
G1 X173.306 Y34.004 Z-7.266 F200.000
G1 X173.500 Y34.018 Z-7.284 F200.000
G1 X173.687 Y34.070 Z-7.301 F200.000
G1 X173.860 Y34.157 Z-7.318 F200.000
G1 X174.014 Y34.276 Z-7.335 F200.000
G1 X174.140 Y34.423 Z-7.352 F200.000
G1 X174.236 Y34.592 Z-7.370 F200.000
G1 X174.297 Y34.776 Z-7.387 F200.000
G1 X174.321 Y34.969 Z-7.404 F200.000
G1 X174.307 Y35.162 Z-7.421 F200.000
G1 X174.255 Y35.350 Z-7.438 F200.000
G1 X174.168 Y35.523 Z-7.455 F200.000
G1 X174.049 Y35.676 Z-7.473 F200.000
G1 X173.902 Y35.803 Z-7.490 F200.000
G1 X173.733 Y35.899 Z-7.507 F200.000
G1 X173.549 Y35.960 Z-7.524 F200.000
G1 X173.356 Y35.983 Z-7.541 F200.000
G1 X173.163 Y35.969 Z-7.558 F200.000
G1 X172.975 Y35.918 Z-7.576 F200.000
G1 X172.802 Y35.830 Z-7.593 F200.000
G1 X172.649 Y35.711 Z-7.610 F200.000
G1 X172.522 Y35.564 Z-7.627 F200.000
G1 X172.426 Y35.395 Z-7.644 F200.000
G1 X172.365 Y35.211 Z-7.662 F200.000
G1 X172.342 Y35.019 Z-7.679 F200.000
G1 X172.356 Y34.825 Z-7.696 F200.000
G1 X172.407 Y34.638 Z-7.713 F200.000
G1 X172.495 Y34.465 Z-7.730 F200.000
G1 X172.614 Y34.311 Z-7.747 F200.000
G1 X172.761 Y34.185 Z-7.765 F200.000
G1 X172.930 Y34.089 Z-7.782 F200.000
G1 X173.114 Y34.028 Z-7.799 F200.000
G1 X173.306 Y34.004 Z-7.816 F200.000
G1 X173.500 Y34.018 Z-7.833 F200.000
G1 X173.687 Y34.070 Z-7.851 F200.000
G1 X173.860 Y34.157 Z-7.868 F200.000
G1 X174.014 Y34.276 Z-7.885 F200.000
G1 X174.140 Y34.423 Z-7.902 F200.000
G1 X174.236 Y34.592 Z-7.919 F200.000
G1 X174.297 Y34.776 Z-7.936 F200.000
G1 X174.321 Y34.969 Z-7.954 F200.000
G1 X174.307 Y35.162 Z-7.971 F200.000
G1 X174.255 Y35.350 Z-7.988 F200.000
G1 X174.168 Y35.523 Z-8.005 F200.000
G1 X174.049 Y35.676 Z-8.022 F200.000
G1 X173.902 Y35.803 Z-8.039 F200.000
G1 X173.733 Y35.899 Z-8.057 F200.000
G1 X173.549 Y35.960 Z-8.074 F200.000
G1 X173.356 Y35.983 Z-8.091 F200.000
G1 X173.163 Y35.969 Z-8.108 F200.000
G1 X172.975 Y35.918 Z-8.125 F200.000
G1 X172.802 Y35.830 Z-8.143 F200.000
G1 X172.649 Y35.711 Z-8.160 F200.000
G1 X172.522 Y35.564 Z-8.177 F200.000
G1 X172.426 Y35.395 Z-8.194 F200.000
G1 X172.365 Y35.211 Z-8.211 F200.000
G1 X172.342 Y35.019 Z-8.228 F200.000
G1 X172.356 Y34.825 Z-8.246 F200.000
G1 X172.407 Y34.638 Z-8.263 F200.000
G1 X172.495 Y34.465 Z-8.280 F200.000
G1 X172.614 Y34.311 Z-8.297 F200.000
G1 X172.761 Y34.185 Z-8.314 F200.000
G1 X172.930 Y34.089 Z-8.332 F200.000
G1 X173.114 Y34.028 Z-8.349 F200.000
G1 X173.306 Y34.004 Z-8.366 F200.000
G1 X173.500 Y34.018 Z-8.383 F200.000
G1 X173.687 Y34.070 Z-8.400 F200.000
G1 X173.860 Y34.157 Z-8.417 F200.000
G1 X174.014 Y34.276 Z-8.435 F200.000
G1 X174.140 Y34.423 Z-8.452 F200.000
G1 X174.236 Y34.592 Z-8.469 F200.000
G1 X174.297 Y34.776 Z-8.486 F200.000
G1 X174.321 Y34.969 Z-8.503 F200.000
G1 X174.307 Y35.162 Z-8.520 F200.000
G1 X174.255 Y35.350 Z-8.538 F200.000
G1 X174.168 Y35.523 Z-8.555 F200.000
G1 X174.049 Y35.676 Z-8.572 F200.000
G1 X173.902 Y35.803 Z-8.589 F200.000
G1 X173.733 Y35.899 Z-8.606 F200.000
G1 X173.549 Y35.960 Z-8.624 F200.000
G1 X173.356 Y35.983 Z-8.641 F200.000
G1 X173.163 Y35.969 Z-8.658 F200.000
G1 X172.975 Y35.918 Z-8.675 F200.000
G1 X172.802 Y35.830 Z-8.692 F200.000
G1 X172.649 Y35.711 Z-8.709 F200.000
G1 X172.522 Y35.564 Z-8.727 F200.000
G1 X172.426 Y35.395 Z-8.744 F200.000
G1 X172.365 Y35.211 Z-8.761 F200.000
G1 X172.342 Y35.019 Z-8.778 F200.000
G1 X172.356 Y34.825 Z-8.795 F200.000
G1 X172.407 Y34.638 Z-8.812 F200.000
G1 X172.495 Y34.465 Z-8.830 F200.000
G1 X172.614 Y34.311 Z-8.847 F200.000
G1 X172.761 Y34.185 Z-8.864 F200.000
G1 X172.930 Y34.089 Z-8.881 F200.000
G1 X173.114 Y34.028 Z-8.898 F200.000
G1 X173.306 Y34.004 Z-8.916 F200.000
G1 X173.500 Y34.018 Z-8.933 F200.000
G1 X173.687 Y34.070 Z-8.950 F200.000
G1 X173.860 Y34.157 Z-8.967 F200.000
G1 X174.014 Y34.276 Z-8.984 F200.000
G1 X174.140 Y34.423 Z-9.001 F200.000
G1 X174.236 Y34.592 Z-9.019 F200.000
G1 X174.297 Y34.776 Z-9.036 F200.000
G1 X174.321 Y34.969 Z-9.053 F200.000
G1 X174.307 Y35.162 Z-9.070 F200.000
G1 X174.255 Y35.350 Z-9.087 F200.000
G1 X174.168 Y35.523 Z-9.105 F200.000
G1 X174.049 Y35.676 Z-9.122 F200.000
G1 X173.902 Y35.803 Z-9.139 F200.000
G1 X173.733 Y35.899 Z-9.156 F200.000
G1 X173.549 Y35.960 Z-9.173 F200.000
G1 X173.356 Y35.983 Z-9.190 F200.000
G1 X173.163 Y35.969 Z-9.208 F200.000
G1 X172.975 Y35.918 Z-9.225 F200.000
G1 X172.802 Y35.830 Z-9.242 F200.000
G1 X172.649 Y35.711 Z-9.259 F200.000
G1 X172.522 Y35.564 Z-9.276 F200.000
G1 X172.426 Y35.395 Z-9.293 F200.000
G1 X172.365 Y35.211 Z-9.311 F200.000
G1 X172.342 Y35.019 Z-9.328 F200.000
G1 X172.356 Y34.825 Z-9.345 F200.000
G1 X172.407 Y34.638 Z-9.362 F200.000
G1 X172.495 Y34.465 Z-9.379 F200.000
G1 X172.614 Y34.311 Z-9.397 F200.000
G1 X172.761 Y34.185 Z-9.414 F200.000
G1 X172.930 Y34.089 Z-9.431 F200.000
G1 X173.114 Y34.028 Z-9.448 F200.000
G1 X173.306 Y34.004 Z-9.465 F200.000
G1 X173.500 Y34.018 Z-9.482 F200.000
G1 X173.687 Y34.070 Z-9.500 F200.000
G1 X173.860 Y34.157 Z-9.517 F200.000
G1 X174.014 Y34.276 Z-9.534 F200.000
G1 X174.140 Y34.423 Z-9.551 F200.000
G1 X174.236 Y34.592 Z-9.568 F200.000
G1 X174.297 Y34.776 Z-9.586 F200.000
G1 X174.321 Y34.969 Z-9.603 F200.000
G1 X174.307 Y35.162 Z-9.620 F200.000
G1 X174.255 Y35.350 Z-9.637 F200.000
G1 X174.168 Y35.523 Z-9.654 F200.000
G1 X174.049 Y35.676 Z-9.671 F200.000
G1 X173.902 Y35.803 Z-9.689 F200.000
G1 X173.733 Y35.899 Z-9.706 F200.000
G1 X173.549 Y35.960 Z-9.723 F200.000
G1 X173.356 Y35.983 Z-9.740 F200.000
G1 X173.163 Y35.969 Z-9.757 F200.000
G1 X172.975 Y35.918 Z-9.774 F200.000
G1 X172.802 Y35.830 Z-9.792 F200.000
G1 X172.649 Y35.711 Z-9.809 F200.000
G1 X172.522 Y35.564 Z-9.826 F200.000
G1 X172.426 Y35.395 Z-9.843 F200.000
G1 X172.365 Y35.211 Z-9.860 F200.000
G1 X172.342 Y35.019 Z-9.878 F200.000
G1 X172.356 Y34.825 Z-9.895 F200.000
G1 X172.407 Y34.638 Z-9.912 F200.000
G1 X172.495 Y34.465 Z-9.929 F200.000
G1 X172.614 Y34.311 Z-9.946 F200.000
G1 X172.761 Y34.185 Z-9.963 F200.000
G1 X172.930 Y34.089 Z-9.981 F200.000
G1 X173.114 Y34.028 Z-9.998 F200.000
G1 X173.306 Y34.004 Z-10.000 F400.000
G1 X173.500 Y34.018 Z-10.000 F400.000
G1 X173.687 Y34.070 Z-10.000 F400.000
G1 X173.860 Y34.157 Z-10.000 F400.000
G1 X174.014 Y34.276 Z-10.000 F400.000
G1 X174.140 Y34.423 Z-10.000 F400.000
G1 X174.236 Y34.592 Z-10.000 F400.000
G1 X174.297 Y34.776 Z-10.000 F400.000
G1 X174.321 Y34.969 Z-10.000 F400.000
G1 X174.307 Y35.162 Z-10.000 F400.000
G1 X174.255 Y35.350 Z-10.000 F400.000
G1 X174.168 Y35.523 Z-10.000 F400.000
G1 X174.049 Y35.676 Z-10.000 F400.000
G1 X173.902 Y35.803 Z-10.000 F400.000
G1 X173.733 Y35.899 Z-10.000 F400.000
G1 X173.549 Y35.960 Z-10.000 F400.000
G1 X173.356 Y35.983 Z-10.000 F400.000
G1 X173.163 Y35.969 Z-10.000 F400.000
G1 X172.975 Y35.918 Z-10.000 F400.000
G1 X172.802 Y35.830 Z-10.000 F400.000
G1 X172.649 Y35.711 Z-10.000 F400.000
G1 X172.522 Y35.564 Z-10.000 F400.000
G1 X172.426 Y35.395 Z-10.000 F400.000
G1 X172.365 Y35.211 Z-10.000 F400.000
G1 X172.342 Y35.019 Z-10.000 F400.000
G1 X172.356 Y34.825 Z-10.000 F400.000
G1 X172.407 Y34.638 Z-10.000 F400.000
G1 X172.495 Y34.465 Z-10.000 F400.000
G1 X172.614 Y34.311 Z-10.000 F400.000
G1 X172.761 Y34.185 Z-10.000 F400.000
G1 X172.930 Y34.089 Z-10.000 F400.000
G1 X173.114 Y34.028 Z-10.000 F400.000
(Adaptive - depth: -10.000000)
G1 X173.331 Y33.994 F400.000
G1 X173.406 Y33.925 F400.000
G1 X173.594 Y33.875 F400.000
G1 X173.781 Y33.875 F400.000
G1 X173.969 Y33.925 F400.000
G1 X174.219 Y34.069 F400.000
G1 X174.363 Y34.200 F400.000
G1 X174.481 Y34.356 F400.000
G1 X174.675 Y34.944 F400.000
G1 X174.662 Y35.206 F400.000
G1 X174.619 Y35.369 F400.000
G1 X174.550 Y35.544 F400.000
G1 X174.419 Y35.769 F400.000
G1 X174.125 Y36.038 F400.000
G1 X173.762 Y36.219 F400.000
G1 X173.463 Y36.281 F400.000
G1 X173.162 Y36.281 F400.000
G1 X172.863 Y36.212 F400.000
G1 X172.588 Y36.081 F400.000
G1 X172.344 Y35.875 F400.000
G1 X172.156 Y35.625 F400.000
G1 X171.975 Y35.025 F400.000
G1 X171.994 Y34.737 F400.000
G1 X172.100 Y34.394 F400.000
G1 X172.375 Y34.000 F400.000
G1 X172.662 Y33.725 F400.000
G1 X172.919 Y33.569 F400.000
G1 X173.856 Y33.562 F400.000
G1 X174.044 Y33.594 F400.000
G1 X174.312 Y33.706 F400.000
G1 X174.544 Y33.875 F400.000
G1 X174.744 Y34.087 F400.000
G1 X174.894 Y34.331 F400.000
G1 X174.931 Y34.419 F400.000
G1 X175.069 Y35.025 F400.000
G1 X175.031 Y35.362 F400.000
G1 X174.975 Y35.550 F400.000
G1 X174.887 Y35.744 F400.000
G1 X174.637 Y36.056 F400.000
G1 X174.412 Y36.256 F400.000
G1 X174.244 Y36.369 F400.000
G1 X174.050 Y36.425 F400.000
G1 X172.750 Y36.425 F400.000
G1 X172.450 Y36.362 F400.000
G1 X172.256 Y36.275 F400.000
G1 X171.956 Y35.987 F400.000
G1 X171.725 Y35.644 F400.000
G1 X171.681 Y35.550 F400.000
G1 X171.556 Y34.956 F400.000
G1 X171.581 Y34.619 F400.000
G1 X171.625 Y34.406 F400.000
G1 X171.787 Y33.981 F400.000
G1 X172.006 Y33.644 F400.000
G1 X172.081 Y33.581 F400.000
G1 X172.175 Y33.556 F400.000
G1 X172.175 Y33.556 F400.000
G1 X172.412 Y33.606 F400.000
G1 X172.463 Y33.631 F400.000
G1 X172.506 Y33.650 F400.000
G0 X172.556 Y33.663
G0 X173.381 Y33.688
G1 X173.431 Y33.694 F400.000
G1 X173.631 Y33.688 F400.000
G1 X174.081 Y33.550 F400.000
G1 X174.081 Y33.550 F400.000
G1 X174.550 Y33.575 F400.000
G1 X174.738 Y33.619 F400.000
G1 X174.906 Y33.706 F400.000
G1 X175.213 Y34.075 F400.000
G1 X175.344 Y34.331 F400.000
G1 X175.375 Y34.419 F400.000
G1 X175.500 Y35.025 F400.000
G1 X175.450 Y35.456 F400.000
G1 X175.300 Y35.837 F400.000
G1 X175.081 Y36.169 F400.000
G1 X174.869 Y36.381 F400.000
G1 X174.775 Y36.425 F400.000
G1 X174.675 Y36.431 F400.000
G1 X174.675 Y36.431 F400.000
G1 X174.463 Y36.381 F400.000
G1 X174.331 Y36.294 F400.000
G0 X174.306 Y36.256
G0 X174.275 Y36.000
G0 X174.281 Y33.994
G1 X174.281 Y33.938 F400.000
G1 X174.294 Y33.769 F400.000
G1 X174.344 Y33.681 F400.000
G1 X174.475 Y33.594 F400.000
G1 X174.681 Y33.550 F400.000
G1 X174.681 Y33.550 F400.000
G1 X174.963 Y33.562 F400.000
G1 X175.150 Y33.606 F400.000
G1 X175.319 Y33.694 F400.000
G1 X175.625 Y34.050 F400.000
G1 X175.725 Y34.212 F400.000
G1 X175.800 Y34.388 F400.000
G1 X175.938 Y34.994 F400.000
G1 X175.919 Y35.419 F400.000
G1 X175.869 Y35.663 F400.000
G1 X175.650 Y36.100 F400.000
G1 X175.469 Y36.337 F400.000
G1 X175.387 Y36.394 F400.000
G1 X175.294 Y36.431 F400.000
G1 X175.294 Y36.431 F400.000
G1 X175.081 Y36.381 F400.000
G1 X174.950 Y36.294 F400.000
G0 X174.925 Y36.256
G0 X174.881 Y36.000
G0 X174.794 Y33.994
G1 X174.794 Y33.938 F400.000
G1 X174.800 Y33.769 F400.000
G1 X174.850 Y33.681 F400.000
G1 X174.975 Y33.594 F400.000
G1 X175.181 Y33.550 F400.000
G1 X175.181 Y33.550 F400.000
G1 X175.556 Y33.594 F400.000
G1 X175.738 Y33.669 F400.000
G1 X175.881 Y33.800 F400.000
G1 X176.156 Y34.188 F400.000
G1 X176.238 Y34.362 F400.000
G1 X176.400 Y34.962 F400.000
G1 X176.394 Y35.469 F400.000
G1 X176.344 Y35.719 F400.000
G1 X176.125 Y36.156 F400.000
G1 X176.006 Y36.312 F400.000
G1 X175.931 Y36.381 F400.000
G1 X175.844 Y36.425 F400.000
G1 X175.744 Y36.431 F400.000
G1 X175.744 Y36.431 F400.000
G1 X175.531 Y36.381 F400.000
G1 X175.400 Y36.294 F400.000
G0 X175.375 Y36.256
G0 X175.325 Y36.000
G0 X175.200 Y33.994
G1 X175.200 Y33.938 F400.000
G1 X175.200 Y33.769 F400.000
G1 X175.250 Y33.681 F400.000
G1 X175.375 Y33.594 F400.000
G1 X175.581 Y33.550 F400.000
G1 X175.581 Y33.550 F400.000
G1 X175.863 Y33.569 F400.000
G1 X176.050 Y33.612 F400.000
G1 X176.219 Y33.700 F400.000
G1 X176.525 Y34.056 F400.000
G1 X176.706 Y34.394 F400.000
G1 X176.869 Y34.994 F400.000
G1 X176.869 Y35.481 F400.000
G1 X176.781 Y35.825 F400.000
G1 X176.662 Y36.094 F400.000
G1 X176.494 Y36.331 F400.000
G1 X176.419 Y36.394 F400.000
G1 X176.325 Y36.431 F400.000
G1 X176.125 Y36.431 F400.000
G1 X176.125 Y36.431 F400.000
G1 X175.912 Y36.381 F400.000
G1 X175.781 Y36.294 F400.000
G0 X175.756 Y36.256
G0 X175.719 Y36.000
G0 X175.688 Y33.994
G1 X175.688 Y33.938 F400.000
G1 X175.700 Y33.769 F400.000
G1 X175.750 Y33.681 F400.000
G1 X175.875 Y33.594 F400.000
G1 X176.081 Y33.550 F400.000
G1 X176.081 Y33.550 F400.000
G1 X176.456 Y33.594 F400.000
G1 X176.637 Y33.669 F400.000
G1 X176.906 Y33.944 F400.000
G1 X177.106 Y34.269 F400.000
G1 X177.331 Y34.950 F400.000
G1 X177.344 Y35.494 F400.000
G1 X177.294 Y35.744 F400.000
G1 X177.181 Y36.019 F400.000
G1 X176.969 Y36.350 F400.000
G1 X176.887 Y36.406 F400.000
G1 X176.787 Y36.431 F400.000
G1 X176.488 Y36.431 F400.000
G1 X176.488 Y36.431 F400.000
G1 X176.275 Y36.381 F400.000
G1 X176.144 Y36.294 F400.000
G0 X176.119 Y36.256
G0 X176.088 Y36.000
G0 X176.088 Y34.006
G1 X176.088 Y33.950 F400.000
G1 X176.100 Y33.750 F400.000
G1 X176.150 Y33.675 F400.000
G1 X176.275 Y33.594 F400.000
G1 X176.481 Y33.550 F400.000
G1 X176.481 Y33.550 F400.000
G1 X176.762 Y33.569 F400.000
G1 X176.950 Y33.612 F400.000
G1 X177.119 Y33.700 F400.000
G1 X177.381 Y33.975 F400.000
G1 X177.625 Y34.388 F400.000
G1 X177.812 Y34.981 F400.000
G1 X177.825 Y35.481 F400.000
G1 X177.775 Y35.731 F400.000
G1 X177.575 Y36.181 F400.000
G1 X177.463 Y36.344 F400.000
G1 X177.381 Y36.406 F400.000
G1 X177.281 Y36.431 F400.000
G1 X177.081 Y36.431 F400.000
G1 X177.081 Y36.431 F400.000
G1 X176.869 Y36.381 F400.000
G1 X176.738 Y36.294 F400.000
G0 X176.713 Y36.256
G0 X176.669 Y36.000
G0 X176.594 Y33.994
G1 X176.594 Y33.938 F400.000
G1 X176.600 Y33.769 F400.000
G1 X176.650 Y33.681 F400.000
G1 X176.775 Y33.594 F400.000
G1 X176.981 Y33.550 F400.000
G1 X176.981 Y33.550 F400.000
G1 X177.356 Y33.594 F400.000
G1 X177.537 Y33.663 F400.000
G1 X177.869 Y34.000 F400.000
G1 X178.069 Y34.325 F400.000
G1 X178.225 Y34.781 F400.000
G1 X178.275 Y35.156 F400.000
G1 X178.244 Y35.625 F400.000
G1 X178.169 Y35.906 F400.000
G1 X177.988 Y36.263 F400.000
G1 X177.925 Y36.344 F400.000
G1 X177.844 Y36.406 F400.000
G1 X177.744 Y36.431 F400.000
G1 X177.444 Y36.431 F400.000
G1 X177.444 Y36.431 F400.000
G1 X177.231 Y36.381 F400.000
G1 X177.100 Y36.294 F400.000
G0 X177.075 Y36.256
G0 X177.037 Y36.000
G0 X176.988 Y33.994
G1 X176.988 Y33.938 F400.000
G1 X177.000 Y33.769 F400.000
G1 X177.050 Y33.681 F400.000
G1 X177.175 Y33.594 F400.000
G1 X177.381 Y33.550 F400.000
G1 X177.381 Y33.550 F400.000
G1 X177.756 Y33.575 F400.000
G1 X177.944 Y33.631 F400.000
G1 X178.031 Y33.675 F400.000
G1 X178.300 Y33.950 F400.000
G1 X178.544 Y34.362 F400.000
G1 X178.669 Y34.725 F400.000
G1 X178.713 Y35.381 F400.000
G1 X178.669 Y35.756 F400.000
G1 X178.575 Y36.031 F400.000
G1 X178.438 Y36.288 F400.000
G1 X178.375 Y36.362 F400.000
G1 X178.287 Y36.413 F400.000
G1 X178.188 Y36.431 F400.000
G1 X177.887 Y36.431 F400.000
G1 X177.887 Y36.431 F400.000
G1 X177.675 Y36.381 F400.000
G1 X177.544 Y36.294 F400.000
G0 X177.519 Y36.256
G0 X177.488 Y36.000
G0 X177.488 Y34.006
G1 X177.488 Y33.950 F400.000
G1 X177.500 Y33.750 F400.000
G1 X177.550 Y33.675 F400.000
G1 X177.675 Y33.594 F400.000
G1 X177.881 Y33.550 F400.000
G1 X177.881 Y33.550 F400.000
G1 X178.162 Y33.569 F400.000
G1 X178.350 Y33.612 F400.000
G1 X178.438 Y33.650 F400.000
G1 X178.656 Y33.844 F400.000
G1 X178.719 Y33.919 F400.000
G1 X178.756 Y34.006 F400.000
G1 X178.762 Y36.069 F400.000
G1 X178.694 Y36.350 F400.000
G1 X178.631 Y36.425 F400.000
G1 X178.531 Y36.431 F400.000
G1 X178.531 Y36.431 F400.000
G1 X178.387 Y36.388 F400.000
G0 X178.356 Y36.362
G0 X178.306 Y36.188
G0 X178.188 Y33.881
G1 X178.181 Y33.825 F400.000
G1 X178.194 Y33.656 F400.000
G1 X178.244 Y33.594 F400.000
G1 X178.381 Y33.550 F400.000
G1 X178.381 Y33.550 F400.000
G1 X178.662 Y33.581 F400.000
G1 X178.744 Y33.638 F400.000
G1 X178.769 Y33.731 F400.000
G1 X178.769 Y33.731 F400.000
G1 X178.750 Y33.775 F400.000
G0 X178.731 Y33.819
G0 X178.281 Y34.275
G0 X178.238 Y35.631
G0 X178.262 Y35.725
G0 X178.356 Y35.844
G1 X178.387 Y35.881 F400.000
G1 X178.463 Y35.950 F400.000
G1 X178.713 Y36.194 F400.000
G1 X178.750 Y36.331 F400.000
G1 X178.750 Y36.331 F400.000
G1 X178.688 Y36.406 F400.000
G1 X178.588 Y36.431 F400.000
G1 X178.588 Y36.431 F400.000
G1 X178.325 Y36.356 F400.000
G1 X178.231 Y36.306 F400.000
G0 X178.188 Y36.275
G0 X177.625 Y35.913
G0 X173.500 Y35.888
G0 X173.106 Y36.106
G1 X173.062 Y36.138 F400.000
G1 X173.012 Y36.175 F400.000
G1 X172.688 Y36.388 F400.000
G1 X172.494 Y36.431 F400.000
G1 X172.494 Y36.431 F400.000
G1 X172.194 Y36.413 F400.000
G1 X171.994 Y36.369 F400.000
G1 X171.806 Y36.281 F400.000
G1 X171.512 Y35.981 F400.000
G1 X171.387 Y35.812 F400.000
G1 X171.294 Y35.625 F400.000
G1 X171.119 Y35.019 F400.000
G1 X171.113 Y34.600 F400.000
G1 X171.144 Y34.350 F400.000
G1 X171.262 Y33.913 F400.000
G1 X171.406 Y33.644 F400.000
G1 X171.475 Y33.575 F400.000
G1 X171.475 Y33.575 F400.000
G1 X171.669 Y33.606 F400.000
G1 X171.794 Y33.681 F400.000
G0 X171.825 Y33.719
G0 X171.900 Y33.969
G0 X172.306 Y35.969
G1 X172.312 Y36.025 F400.000
G1 X172.338 Y36.225 F400.000
G1 X172.300 Y36.300 F400.000
G1 X172.188 Y36.388 F400.000
G1 X171.994 Y36.431 F400.000
G1 X171.994 Y36.431 F400.000
G1 X171.694 Y36.400 F400.000
G1 X171.494 Y36.344 F400.000
G1 X171.400 Y36.300 F400.000
G1 X171.037 Y35.925 F400.000
G1 X170.869 Y35.656 F400.000
G1 X170.825 Y35.562 F400.000
G1 X170.637 Y34.962 F400.000
G1 X170.613 Y34.481 F400.000
G1 X170.694 Y34.006 F400.000
G1 X170.806 Y33.719 F400.000
G1 X170.863 Y33.631 F400.000
G1 X170.938 Y33.569 F400.000
G1 X170.938 Y33.569 F400.000
G1 X171.131 Y33.600 F400.000
G1 X171.256 Y33.675 F400.000
G0 X171.287 Y33.712
G0 X171.375 Y33.962
G0 X171.887 Y35.975
G1 X171.900 Y36.031 F400.000
G1 X171.938 Y36.225 F400.000
G1 X171.900 Y36.306 F400.000
G1 X171.787 Y36.388 F400.000
G1 X171.594 Y36.431 F400.000
G1 X171.594 Y36.431 F400.000
G1 X171.394 Y36.425 F400.000
G1 X171.094 Y36.362 F400.000
G1 X170.912 Y36.263 F400.000
G1 X170.619 Y35.962 F400.000
G1 X170.394 Y35.619 F400.000
G1 X170.169 Y35.031 F400.000
G1 X170.106 Y34.519 F400.000
G1 X170.156 Y34.050 F400.000
G1 X170.250 Y33.763 F400.000
G1 X170.356 Y33.594 F400.000
G1 X170.444 Y33.556 F400.000
G1 X170.444 Y33.556 F400.000
G1 X170.637 Y33.587 F400.000
G1 X170.762 Y33.663 F400.000
G0 X170.794 Y33.700
G0 X170.894 Y33.950
G0 X171.475 Y35.975
G1 X171.488 Y36.031 F400.000
G1 X171.531 Y36.225 F400.000
G1 X171.500 Y36.306 F400.000
G1 X171.381 Y36.388 F400.000
G1 X171.194 Y36.431 F400.000
G1 X171.194 Y36.431 F400.000
G1 X170.894 Y36.419 F400.000
G1 X170.594 Y36.344 F400.000
G1 X170.500 Y36.300 F400.000
G1 X170.131 Y35.944 F400.000
G1 X169.900 Y35.600 F400.000
G1 X169.662 Y35.019 F400.000
G1 X169.594 Y34.462 F400.000
G1 X169.644 Y34.000 F400.000
G1 X169.756 Y33.712 F400.000
G1 X169.812 Y33.625 F400.000
G1 X169.887 Y33.562 F400.000
G1 X169.887 Y33.562 F400.000
G1 X170.081 Y33.594 F400.000
G1 X170.206 Y33.669 F400.000
G0 X170.238 Y33.706
G0 X170.338 Y33.950
G0 X170.975 Y35.981
G1 X170.988 Y36.031 F400.000
G1 X171.031 Y36.225 F400.000
G1 X171.000 Y36.306 F400.000
G1 X170.881 Y36.388 F400.000
G1 X170.694 Y36.431 F400.000
G1 X170.694 Y36.431 F400.000
G1 X170.394 Y36.413 F400.000
G1 X170.194 Y36.362 F400.000
G1 X170.006 Y36.275 F400.000
G1 X169.694 Y36.000 F400.000
G1 X169.444 Y35.663 F400.000
G1 X169.394 Y35.575 F400.000
G1 X169.156 Y34.994 F400.000
G1 X169.081 Y34.419 F400.000
G1 X169.125 Y34.044 F400.000
G1 X169.219 Y33.756 F400.000
G1 X169.319 Y33.587 F400.000
G1 X169.412 Y33.556 F400.000
G1 X169.412 Y33.556 F400.000
G1 X169.606 Y33.587 F400.000
G1 X169.731 Y33.663 F400.000
G0 X169.762 Y33.700
G0 X169.863 Y33.944
G0 X170.475 Y35.981
G1 X170.488 Y36.031 F400.000
G1 X170.531 Y36.225 F400.000
G1 X170.500 Y36.306 F400.000
G1 X170.381 Y36.388 F400.000
G1 X170.194 Y36.431 F400.000
G1 X170.194 Y36.431 F400.000
G1 X169.994 Y36.425 F400.000
G1 X169.694 Y36.356 F400.000
G1 X169.600 Y36.319 F400.000
G1 X169.275 Y36.056 F400.000
G1 X169.000 Y35.731 F400.000
G1 X168.887 Y35.556 F400.000
G1 X168.650 Y34.975 F400.000
G1 X168.575 Y34.575 F400.000
G1 X168.575 Y34.275 F400.000
G1 X168.631 Y33.975 F400.000
G1 X168.744 Y33.688 F400.000
G1 X168.800 Y33.600 F400.000
G1 X168.887 Y33.556 F400.000
G1 X168.887 Y33.556 F400.000
G1 X169.081 Y33.587 F400.000
G1 X169.206 Y33.663 F400.000
G0 X169.238 Y33.700
G0 X169.400 Y34.100
G0 X170.056 Y35.981
G1 X170.075 Y36.038 F400.000
G1 X170.131 Y36.225 F400.000
G1 X170.100 Y36.306 F400.000
G1 X169.981 Y36.388 F400.000
G1 X169.794 Y36.431 F400.000
G1 X169.794 Y36.431 F400.000
G1 X169.394 Y36.406 F400.000
G1 X169.194 Y36.362 F400.000
G1 X169.100 Y36.325 F400.000
G1 X168.775 Y36.069 F400.000
G1 X168.506 Y35.750 F400.000
G1 X168.250 Y35.294 F400.000
G1 X168.100 Y34.800 F400.000
G1 X168.062 Y34.500 F400.000
G1 X168.081 Y34.100 F400.000
G1 X168.131 Y33.900 F400.000
G1 X168.262 Y33.625 F400.000
G1 X168.338 Y33.562 F400.000
G1 X168.338 Y33.562 F400.000
G1 X168.531 Y33.594 F400.000
G1 X168.656 Y33.669 F400.000
G0 X168.688 Y33.706
G0 X168.844 Y34.100
G0 X169.469 Y35.981
G1 X169.481 Y36.038 F400.000
G1 X169.531 Y36.225 F400.000
G1 X169.500 Y36.306 F400.000
G1 X169.381 Y36.388 F400.000
G1 X169.194 Y36.431 F400.000
G1 X169.194 Y36.431 F400.000
G1 X168.894 Y36.413 F400.000
G1 X168.694 Y36.369 F400.000
G1 X168.500 Y36.281 F400.000
G1 X168.188 Y36.006 F400.000
G1 X167.994 Y35.763 F400.000
G1 X167.906 Y35.581 F400.000
G1 X167.900 Y33.781 F400.000
G1 X167.912 Y33.681 F400.000
G1 X167.963 Y33.594 F400.000
G1 X168.056 Y33.556 F400.000
G1 X168.056 Y33.556 F400.000
G1 X168.250 Y33.587 F400.000
G1 X168.375 Y33.663 F400.000
G0 X168.406 Y33.700
G0 X168.494 Y33.950
G0 X168.988 Y35.975
G1 X169.000 Y36.031 F400.000
G1 X169.037 Y36.225 F400.000
G1 X169.000 Y36.306 F400.000
G1 X168.887 Y36.388 F400.000
G1 X168.694 Y36.431 F400.000
G1 X168.694 Y36.431 F400.000
G1 X168.394 Y36.413 F400.000
G1 X168.194 Y36.369 F400.000
G1 X168.006 Y36.281 F400.000
G1 X167.925 Y36.212 F400.000
G1 X167.894 Y36.112 F400.000
G1 X167.894 Y36.112 F400.000
G1 X167.919 Y35.981 F400.000
G0 X167.944 Y35.969
G0 X168.181 Y36.163
G1 X168.213 Y36.200 F400.000
G1 X168.331 Y36.344 F400.000
G1 X168.325 Y36.375 F400.000
G1 X168.275 Y36.413 F400.000
G1 X168.194 Y36.431 F400.000
G1 X168.194 Y36.431 F400.000
G1 X168.094 Y36.431 F400.000
G1 X167.994 Y36.413 F400.000
G1 X167.919 Y36.344 F400.000
G1 X167.919 Y36.344 F400.000
G1 X167.900 Y36.312 F400.000
G1 X167.894 Y36.294 F400.000
G1 X167.900 Y36.300 F400.000
G1 X167.906 Y36.294 F400.000
G1 X167.931 Y36.325 F400.000
G1 X167.912 Y36.362 F400.000
G1 X167.869 Y36.362 F400.000
G1 X167.869 Y36.362 F400.000
G1 X167.831 Y36.256 F400.000
G1 X167.844 Y33.744 F400.000
G1 X167.863 Y33.644 F400.000
G1 X167.906 Y33.581 F400.000
G1 X168.012 Y33.506 F400.000
G1 X178.669 Y33.519 F400.000
G1 X178.731 Y33.556 F400.000
G1 X178.794 Y33.625 F400.000
G1 X178.831 Y33.744 F400.000
G1 X178.819 Y36.219 F400.000
G1 X178.794 Y36.356 F400.000
G1 X178.706 Y36.450 F400.000
G1 X178.650 Y36.481 F400.000
G1 X178.575 Y36.494 F400.000
G1 X167.994 Y36.469 F400.000
G1 X167.925 Y36.425 F400.000
G1 X167.869 Y36.362 F400.000
G1 X167.869 Y36.362 F400.000
G0 Z5.000
(Helix to depth: -10.000000)
G0 Z5.000
G0 X-189.307 Y14.825 Z5.000
G0 X-189.307 Y14.825 Z3.000
G1 X-189.307 Y14.825 Z0.000 F200.000
G1 X-189.307 Y14.825 Z0.000 F200.000
G1 X-189.255 Y14.638 Z-0.017 F200.000
G1 X-189.168 Y14.465 Z-0.034 F200.000
G1 X-189.049 Y14.311 Z-0.052 F200.000
G1 X-188.902 Y14.185 Z-0.069 F200.000
G1 X-188.733 Y14.089 Z-0.086 F200.000
G1 X-188.549 Y14.028 Z-0.103 F200.000
G1 X-188.356 Y14.004 Z-0.120 F200.000
G1 X-188.163 Y14.018 Z-0.137 F200.000
G1 X-187.975 Y14.070 Z-0.155 F200.000
G1 X-187.802 Y14.157 Z-0.172 F200.000
G1 X-187.649 Y14.276 Z-0.189 F200.000
G1 X-187.522 Y14.423 Z-0.206 F200.000
G1 X-187.426 Y14.592 Z-0.223 F200.000
G1 X-187.365 Y14.776 Z-0.240 F200.000
G1 X-187.342 Y14.969 Z-0.258 F200.000
G1 X-187.356 Y15.162 Z-0.275 F200.000
G1 X-187.407 Y15.350 Z-0.292 F200.000
G1 X-187.495 Y15.523 Z-0.309 F200.000
G1 X-187.614 Y15.676 Z-0.326 F200.000
G1 X-187.761 Y15.803 Z-0.344 F200.000
G1 X-187.930 Y15.899 Z-0.361 F200.000
G1 X-188.114 Y15.960 Z-0.378 F200.000
G1 X-188.306 Y15.983 Z-0.395 F200.000
G1 X-188.500 Y15.969 Z-0.412 F200.000
G1 X-188.687 Y15.918 Z-0.429 F200.000
G1 X-188.860 Y15.830 Z-0.447 F200.000
G1 X-189.014 Y15.711 Z-0.464 F200.000
G1 X-189.140 Y15.564 Z-0.481 F200.000
G1 X-189.236 Y15.395 Z-0.498 F200.000
G1 X-189.297 Y15.211 Z-0.515 F200.000
G1 X-189.321 Y15.019 Z-0.533 F200.000
G1 X-189.307 Y14.825 Z-0.550 F200.000
G1 X-189.255 Y14.638 Z-0.567 F200.000
G1 X-189.168 Y14.465 Z-0.584 F200.000
G1 X-189.049 Y14.311 Z-0.601 F200.000
G1 X-188.902 Y14.185 Z-0.618 F200.000
G1 X-188.733 Y14.089 Z-0.636 F200.000
G1 X-188.549 Y14.028 Z-0.653 F200.000
G1 X-188.356 Y14.004 Z-0.670 F200.000
G1 X-188.163 Y14.018 Z-0.687 F200.000
G1 X-187.975 Y14.070 Z-0.704 F200.000
G1 X-187.802 Y14.157 Z-0.721 F200.000
G1 X-187.649 Y14.276 Z-0.739 F200.000
G1 X-187.522 Y14.423 Z-0.756 F200.000
G1 X-187.426 Y14.592 Z-0.773 F200.000
G1 X-187.365 Y14.776 Z-0.790 F200.000
G1 X-187.342 Y14.969 Z-0.807 F200.000
G1 X-187.356 Y15.162 Z-0.825 F200.000
G1 X-187.407 Y15.350 Z-0.842 F200.000
G1 X-187.495 Y15.523 Z-0.859 F200.000
G1 X-187.614 Y15.676 Z-0.876 F200.000
G1 X-187.761 Y15.803 Z-0.893 F200.000
G1 X-187.930 Y15.899 Z-0.910 F200.000
G1 X-188.114 Y15.960 Z-0.928 F200.000
G1 X-188.306 Y15.983 Z-0.945 F200.000
G1 X-188.500 Y15.969 Z-0.962 F200.000
G1 X-188.687 Y15.918 Z-0.979 F200.000
G1 X-188.860 Y15.830 Z-0.996 F200.000
G1 X-189.014 Y15.711 Z-1.014 F200.000
G1 X-189.140 Y15.564 Z-1.031 F200.000
G1 X-189.236 Y15.395 Z-1.048 F200.000
G1 X-189.297 Y15.211 Z-1.065 F200.000
G1 X-189.321 Y15.019 Z-1.082 F200.000
G1 X-189.307 Y14.825 Z-1.099 F200.000
G1 X-189.255 Y14.638 Z-1.117 F200.000
G1 X-189.168 Y14.465 Z-1.134 F200.000
G1 X-189.049 Y14.311 Z-1.151 F200.000
G1 X-188.902 Y14.185 Z-1.168 F200.000
G1 X-188.733 Y14.089 Z-1.185 F200.000
G1 X-188.549 Y14.028 Z-1.202 F200.000
G1 X-188.356 Y14.004 Z-1.220 F200.000
G1 X-188.163 Y14.018 Z-1.237 F200.000
G1 X-187.975 Y14.070 Z-1.254 F200.000
G1 X-187.802 Y14.157 Z-1.271 F200.000
G1 X-187.649 Y14.276 Z-1.288 F200.000
G1 X-187.522 Y14.423 Z-1.306 F200.000
G1 X-187.426 Y14.592 Z-1.323 F200.000
G1 X-187.365 Y14.776 Z-1.340 F200.000
G1 X-187.342 Y14.969 Z-1.357 F200.000
G1 X-187.356 Y15.162 Z-1.374 F200.000
G1 X-187.407 Y15.350 Z-1.391 F200.000
G1 X-187.495 Y15.523 Z-1.409 F200.000
G1 X-187.614 Y15.676 Z-1.426 F200.000
G1 X-187.761 Y15.803 Z-1.443 F200.000
G1 X-187.930 Y15.899 Z-1.460 F200.000
G1 X-188.114 Y15.960 Z-1.477 F200.000
G1 X-188.306 Y15.983 Z-1.495 F200.000
G1 X-188.500 Y15.969 Z-1.512 F200.000
G1 X-188.687 Y15.918 Z-1.529 F200.000
G1 X-188.860 Y15.830 Z-1.546 F200.000
G1 X-189.014 Y15.711 Z-1.563 F200.000
G1 X-189.140 Y15.564 Z-1.580 F200.000
G1 X-189.236 Y15.395 Z-1.598 F200.000
G1 X-189.297 Y15.211 Z-1.615 F200.000
G1 X-189.321 Y15.019 Z-1.632 F200.000
G1 X-189.307 Y14.825 Z-1.649 F200.000
G1 X-189.255 Y14.638 Z-1.666 F200.000
G1 X-189.168 Y14.465 Z-1.683 F200.000
G1 X-189.049 Y14.311 Z-1.701 F200.000
G1 X-188.902 Y14.185 Z-1.718 F200.000
G1 X-188.733 Y14.089 Z-1.735 F200.000
G1 X-188.549 Y14.028 Z-1.752 F200.000
G1 X-188.356 Y14.004 Z-1.769 F200.000
G1 X-188.163 Y14.018 Z-1.787 F200.000
G1 X-187.975 Y14.070 Z-1.804 F200.000
G1 X-187.802 Y14.157 Z-1.821 F200.000
G1 X-187.649 Y14.276 Z-1.838 F200.000
G1 X-187.522 Y14.423 Z-1.855 F200.000
G1 X-187.426 Y14.592 Z-1.872 F200.000
G1 X-187.365 Y14.776 Z-1.890 F200.000
G1 X-187.342 Y14.969 Z-1.907 F200.000
G1 X-187.356 Y15.162 Z-1.924 F200.000
G1 X-187.407 Y15.350 Z-1.941 F200.000
G1 X-187.495 Y15.523 Z-1.958 F200.000
G1 X-187.614 Y15.676 Z-1.976 F200.000
G1 X-187.761 Y15.803 Z-1.993 F200.000
G1 X-187.930 Y15.899 Z-2.010 F200.000
G1 X-188.114 Y15.960 Z-2.027 F200.000
G1 X-188.306 Y15.983 Z-2.044 F200.000
G1 X-188.500 Y15.969 Z-2.061 F200.000
G1 X-188.687 Y15.918 Z-2.079 F200.000
G1 X-188.860 Y15.830 Z-2.096 F200.000
G1 X-189.014 Y15.711 Z-2.113 F200.000
G1 X-189.140 Y15.564 Z-2.130 F200.000
G1 X-189.236 Y15.395 Z-2.147 F200.000
G1 X-189.297 Y15.211 Z-2.164 F200.000
G1 X-189.321 Y15.019 Z-2.182 F200.000
G1 X-189.307 Y14.825 Z-2.199 F200.000
G1 X-189.255 Y14.638 Z-2.216 F200.000
G1 X-189.168 Y14.465 Z-2.233 F200.000
G1 X-189.049 Y14.311 Z-2.250 F200.000
G1 X-188.902 Y14.185 Z-2.268 F200.000
G1 X-188.733 Y14.089 Z-2.285 F200.000
G1 X-188.549 Y14.028 Z-2.302 F200.000
G1 X-188.356 Y14.004 Z-2.319 F200.000
G1 X-188.163 Y14.018 Z-2.336 F200.000
G1 X-187.975 Y14.070 Z-2.353 F200.000
G1 X-187.802 Y14.157 Z-2.371 F200.000
G1 X-187.649 Y14.276 Z-2.388 F200.000
G1 X-187.522 Y14.423 Z-2.405 F200.000
G1 X-187.426 Y14.592 Z-2.422 F200.000
G1 X-187.365 Y14.776 Z-2.439 F200.000
G1 X-187.342 Y14.969 Z-2.457 F200.000
G1 X-187.356 Y15.162 Z-2.474 F200.000
G1 X-187.407 Y15.350 Z-2.491 F200.000
G1 X-187.495 Y15.523 Z-2.508 F200.000
G1 X-187.614 Y15.676 Z-2.525 F200.000
G1 X-187.761 Y15.803 Z-2.542 F200.000
G1 X-187.930 Y15.899 Z-2.560 F200.000
G1 X-188.114 Y15.960 Z-2.577 F200.000
G1 X-188.306 Y15.983 Z-2.594 F200.000
G1 X-188.500 Y15.969 Z-2.611 F200.000
G1 X-188.687 Y15.918 Z-2.628 F200.000
G1 X-188.860 Y15.830 Z-2.645 F200.000
G1 X-189.014 Y15.711 Z-2.663 F200.000
G1 X-189.140 Y15.564 Z-2.680 F200.000
G1 X-189.236 Y15.395 Z-2.697 F200.000
G1 X-189.297 Y15.211 Z-2.714 F200.000
G1 X-189.321 Y15.019 Z-2.731 F200.000
G1 X-189.307 Y14.825 Z-2.749 F200.000
G1 X-189.255 Y14.638 Z-2.766 F200.000
G1 X-189.168 Y14.465 Z-2.783 F200.000
G1 X-189.049 Y14.311 Z-2.800 F200.000
G1 X-188.902 Y14.185 Z-2.817 F200.000
G1 X-188.733 Y14.089 Z-2.834 F200.000
G1 X-188.549 Y14.028 Z-2.852 F200.000
G1 X-188.356 Y14.004 Z-2.869 F200.000
G1 X-188.163 Y14.018 Z-2.886 F200.000
G1 X-187.975 Y14.070 Z-2.903 F200.000
G1 X-187.802 Y14.157 Z-2.920 F200.000
G1 X-187.649 Y14.276 Z-2.937 F200.000
G1 X-187.522 Y14.423 Z-2.955 F200.000
G1 X-187.426 Y14.592 Z-2.972 F200.000
G1 X-187.365 Y14.776 Z-2.989 F200.000
G1 X-187.342 Y14.969 Z-3.006 F200.000
G1 X-187.356 Y15.162 Z-3.023 F200.000
G1 X-187.407 Y15.350 Z-3.041 F200.000
G1 X-187.495 Y15.523 Z-3.058 F200.000
G1 X-187.614 Y15.676 Z-3.075 F200.000
G1 X-187.761 Y15.803 Z-3.092 F200.000
G1 X-187.930 Y15.899 Z-3.109 F200.000
G1 X-188.114 Y15.960 Z-3.126 F200.000
G1 X-188.306 Y15.983 Z-3.144 F200.000
G1 X-188.500 Y15.969 Z-3.161 F200.000
G1 X-188.687 Y15.918 Z-3.178 F200.000
G1 X-188.860 Y15.830 Z-3.195 F200.000
G1 X-189.014 Y15.711 Z-3.212 F200.000
G1 X-189.140 Y15.564 Z-3.230 F200.000
G1 X-189.236 Y15.395 Z-3.247 F200.000
G1 X-189.297 Y15.211 Z-3.264 F200.000
G1 X-189.321 Y15.019 Z-3.281 F200.000
G1 X-189.307 Y14.825 Z-3.298 F200.000
G1 X-189.255 Y14.638 Z-3.315 F200.000
G1 X-189.168 Y14.465 Z-3.333 F200.000
G1 X-189.049 Y14.311 Z-3.350 F200.000
G1 X-188.902 Y14.185 Z-3.367 F200.000
G1 X-188.733 Y14.089 Z-3.384 F200.000
G1 X-188.549 Y14.028 Z-3.401 F200.000
G1 X-188.356 Y14.004 Z-3.418 F200.000
G1 X-188.163 Y14.018 Z-3.436 F200.000
G1 X-187.975 Y14.070 Z-3.453 F200.000
G1 X-187.802 Y14.157 Z-3.470 F200.000
G1 X-187.649 Y14.276 Z-3.487 F200.000
G1 X-187.522 Y14.423 Z-3.504 F200.000
G1 X-187.426 Y14.592 Z-3.522 F200.000
G1 X-187.365 Y14.776 Z-3.539 F200.000
G1 X-187.342 Y14.969 Z-3.556 F200.000
G1 X-187.356 Y15.162 Z-3.573 F200.000
G1 X-187.407 Y15.350 Z-3.590 F200.000
G1 X-187.495 Y15.523 Z-3.607 F200.000
G1 X-187.614 Y15.676 Z-3.625 F200.000
G1 X-187.761 Y15.803 Z-3.642 F200.000
G1 X-187.930 Y15.899 Z-3.659 F200.000
G1 X-188.114 Y15.960 Z-3.676 F200.000
G1 X-188.306 Y15.983 Z-3.693 F200.000
G1 X-188.500 Y15.969 Z-3.711 F200.000
G1 X-188.687 Y15.918 Z-3.728 F200.000
G1 X-188.860 Y15.830 Z-3.745 F200.000
G1 X-189.014 Y15.711 Z-3.762 F200.000
G1 X-189.140 Y15.564 Z-3.779 F200.000
G1 X-189.236 Y15.395 Z-3.796 F200.000
G1 X-189.297 Y15.211 Z-3.814 F200.000
G1 X-189.321 Y15.019 Z-3.831 F200.000
G1 X-189.307 Y14.825 Z-3.848 F200.000
G1 X-189.255 Y14.638 Z-3.865 F200.000
G1 X-189.168 Y14.465 Z-3.882 F200.000
G1 X-189.049 Y14.311 Z-3.899 F200.000
G1 X-188.902 Y14.185 Z-3.917 F200.000
G1 X-188.733 Y14.089 Z-3.934 F200.000
G1 X-188.549 Y14.028 Z-3.951 F200.000
G1 X-188.356 Y14.004 Z-3.968 F200.000
G1 X-188.163 Y14.018 Z-3.985 F200.000
G1 X-187.975 Y14.070 Z-4.003 F200.000
G1 X-187.802 Y14.157 Z-4.020 F200.000
G1 X-187.649 Y14.276 Z-4.037 F200.000
G1 X-187.522 Y14.423 Z-4.054 F200.000
G1 X-187.426 Y14.592 Z-4.071 F200.000
G1 X-187.365 Y14.776 Z-4.088 F200.000
G1 X-187.342 Y14.969 Z-4.106 F200.000
G1 X-187.356 Y15.162 Z-4.123 F200.000
G1 X-187.407 Y15.350 Z-4.140 F200.000
G1 X-187.495 Y15.523 Z-4.157 F200.000
G1 X-187.614 Y15.676 Z-4.174 F200.000
G1 X-187.761 Y15.803 Z-4.192 F200.000
G1 X-187.930 Y15.899 Z-4.209 F200.000
G1 X-188.114 Y15.960 Z-4.226 F200.000
G1 X-188.306 Y15.983 Z-4.243 F200.000
G1 X-188.500 Y15.969 Z-4.260 F200.000
G1 X-188.687 Y15.918 Z-4.277 F200.000
G1 X-188.860 Y15.830 Z-4.295 F200.000
G1 X-189.014 Y15.711 Z-4.312 F200.000
G1 X-189.140 Y15.564 Z-4.329 F200.000
G1 X-189.236 Y15.395 Z-4.346 F200.000
G1 X-189.297 Y15.211 Z-4.363 F200.000
G1 X-189.321 Y15.019 Z-4.380 F200.000
G1 X-189.307 Y14.825 Z-4.398 F200.000
G1 X-189.255 Y14.638 Z-4.415 F200.000
G1 X-189.168 Y14.465 Z-4.432 F200.000
G1 X-189.049 Y14.311 Z-4.449 F200.000
G1 X-188.902 Y14.185 Z-4.466 F200.000
G1 X-188.733 Y14.089 Z-4.484 F200.000
G1 X-188.549 Y14.028 Z-4.501 F200.000
G1 X-188.356 Y14.004 Z-4.518 F200.000
G1 X-188.163 Y14.018 Z-4.535 F200.000
G1 X-187.975 Y14.070 Z-4.552 F200.000
G1 X-187.802 Y14.157 Z-4.569 F200.000
G1 X-187.649 Y14.276 Z-4.587 F200.000
G1 X-187.522 Y14.423 Z-4.604 F200.000
G1 X-187.426 Y14.592 Z-4.621 F200.000
G1 X-187.365 Y14.776 Z-4.638 F200.000
G1 X-187.342 Y14.969 Z-4.655 F200.000
G1 X-187.356 Y15.162 Z-4.673 F200.000
G1 X-187.407 Y15.350 Z-4.690 F200.000
G1 X-187.495 Y15.523 Z-4.707 F200.000
G1 X-187.614 Y15.676 Z-4.724 F200.000
G1 X-187.761 Y15.803 Z-4.741 F200.000
G1 X-187.930 Y15.899 Z-4.758 F200.000
G1 X-188.114 Y15.960 Z-4.776 F200.000
G1 X-188.306 Y15.983 Z-4.793 F200.000
G1 X-188.500 Y15.969 Z-4.810 F200.000
G1 X-188.687 Y15.918 Z-4.827 F200.000
G1 X-188.860 Y15.830 Z-4.844 F200.000
G1 X-189.014 Y15.711 Z-4.861 F200.000
G1 X-189.140 Y15.564 Z-4.879 F200.000
G1 X-189.236 Y15.395 Z-4.896 F200.000
G1 X-189.297 Y15.211 Z-4.913 F200.000
G1 X-189.321 Y15.019 Z-4.930 F200.000
G1 X-189.307 Y14.825 Z-4.947 F200.000
G1 X-189.255 Y14.638 Z-4.965 F200.000
G1 X-189.168 Y14.465 Z-4.982 F200.000
G1 X-189.049 Y14.311 Z-4.999 F200.000
G1 X-188.902 Y14.185 Z-5.016 F200.000
G1 X-188.733 Y14.089 Z-5.033 F200.000
G1 X-188.549 Y14.028 Z-5.050 F200.000
G1 X-188.356 Y14.004 Z-5.068 F200.000
G1 X-188.163 Y14.018 Z-5.085 F200.000
G1 X-187.975 Y14.070 Z-5.102 F200.000
G1 X-187.802 Y14.157 Z-5.119 F200.000
G1 X-187.649 Y14.276 Z-5.136 F200.000
G1 X-187.522 Y14.423 Z-5.154 F200.000
G1 X-187.426 Y14.592 Z-5.171 F200.000
G1 X-187.365 Y14.776 Z-5.188 F200.000
G1 X-187.342 Y14.969 Z-5.205 F200.000
G1 X-187.356 Y15.162 Z-5.222 F200.000
G1 X-187.407 Y15.350 Z-5.239 F200.000
G1 X-187.495 Y15.523 Z-5.257 F200.000
G1 X-187.614 Y15.676 Z-5.274 F200.000
G1 X-187.761 Y15.803 Z-5.291 F200.000
G1 X-187.930 Y15.899 Z-5.308 F200.000
G1 X-188.114 Y15.960 Z-5.325 F200.000
G1 X-188.306 Y15.983 Z-5.342 F200.000
G1 X-188.500 Y15.969 Z-5.360 F200.000
G1 X-188.687 Y15.918 Z-5.377 F200.000
G1 X-188.860 Y15.830 Z-5.394 F200.000
G1 X-189.014 Y15.711 Z-5.411 F200.000
G1 X-189.140 Y15.564 Z-5.428 F200.000
G1 X-189.236 Y15.395 Z-5.446 F200.000
G1 X-189.297 Y15.211 Z-5.463 F200.000
G1 X-189.321 Y15.019 Z-5.480 F200.000
G1 X-189.307 Y14.825 Z-5.497 F200.000
G1 X-189.255 Y14.638 Z-5.514 F200.000
G1 X-189.168 Y14.465 Z-5.531 F200.000
G1 X-189.049 Y14.311 Z-5.549 F200.000
G1 X-188.902 Y14.185 Z-5.566 F200.000
G1 X-188.733 Y14.089 Z-5.583 F200.000
G1 X-188.549 Y14.028 Z-5.600 F200.000
G1 X-188.356 Y14.004 Z-5.617 F200.000
G1 X-188.163 Y14.018 Z-5.635 F200.000
G1 X-187.975 Y14.070 Z-5.652 F200.000
G1 X-187.802 Y14.157 Z-5.669 F200.000
G1 X-187.649 Y14.276 Z-5.686 F200.000
G1 X-187.522 Y14.423 Z-5.703 F200.000
G1 X-187.426 Y14.592 Z-5.720 F200.000
G1 X-187.365 Y14.776 Z-5.738 F200.000
G1 X-187.342 Y14.969 Z-5.755 F200.000
G1 X-187.356 Y15.162 Z-5.772 F200.000
G1 X-187.407 Y15.350 Z-5.789 F200.000
G1 X-187.495 Y15.523 Z-5.806 F200.000
G1 X-187.614 Y15.676 Z-5.823 F200.000
G1 X-187.761 Y15.803 Z-5.841 F200.000
G1 X-187.930 Y15.899 Z-5.858 F200.000
G1 X-188.114 Y15.960 Z-5.875 F200.000
G1 X-188.306 Y15.983 Z-5.892 F200.000
G1 X-188.500 Y15.969 Z-5.909 F200.000
G1 X-188.687 Y15.918 Z-5.927 F200.000
G1 X-188.860 Y15.830 Z-5.944 F200.000
G1 X-189.014 Y15.711 Z-5.961 F200.000
G1 X-189.140 Y15.564 Z-5.978 F200.000
G1 X-189.236 Y15.395 Z-5.995 F200.000
G1 X-189.297 Y15.211 Z-6.012 F200.000
G1 X-189.321 Y15.019 Z-6.030 F200.000
G1 X-189.307 Y14.825 Z-6.047 F200.000
G1 X-189.255 Y14.638 Z-6.064 F200.000
G1 X-189.168 Y14.465 Z-6.081 F200.000
G1 X-189.049 Y14.311 Z-6.098 F200.000
G1 X-188.902 Y14.185 Z-6.115 F200.000
G1 X-188.733 Y14.089 Z-6.133 F200.000
G1 X-188.549 Y14.028 Z-6.150 F200.000
G1 X-188.356 Y14.004 Z-6.167 F200.000
G1 X-188.163 Y14.018 Z-6.184 F200.000
G1 X-187.975 Y14.070 Z-6.201 F200.000
G1 X-187.802 Y14.157 Z-6.219 F200.000
G1 X-187.649 Y14.276 Z-6.236 F200.000
G1 X-187.522 Y14.423 Z-6.253 F200.000
G1 X-187.426 Y14.592 Z-6.270 F200.000
G1 X-187.365 Y14.776 Z-6.287 F200.000
G1 X-187.342 Y14.969 Z-6.304 F200.000
G1 X-187.356 Y15.162 Z-6.322 F200.000
G1 X-187.407 Y15.350 Z-6.339 F200.000
G1 X-187.495 Y15.523 Z-6.356 F200.000
G1 X-187.614 Y15.676 Z-6.373 F200.000
G1 X-187.761 Y15.803 Z-6.390 F200.000
G1 X-187.930 Y15.899 Z-6.408 F200.000
G1 X-188.114 Y15.960 Z-6.425 F200.000
G1 X-188.306 Y15.983 Z-6.442 F200.000
G1 X-188.500 Y15.969 Z-6.459 F200.000
G1 X-188.687 Y15.918 Z-6.476 F200.000
G1 X-188.860 Y15.830 Z-6.493 F200.000
G1 X-189.014 Y15.711 Z-6.511 F200.000
G1 X-189.140 Y15.564 Z-6.528 F200.000
G1 X-189.236 Y15.395 Z-6.545 F200.000
G1 X-189.297 Y15.211 Z-6.562 F200.000
G1 X-189.321 Y15.019 Z-6.579 F200.000
G1 X-189.307 Y14.825 Z-6.596 F200.000
G1 X-189.255 Y14.638 Z-6.614 F200.000
G1 X-189.168 Y14.465 Z-6.631 F200.000
G1 X-189.049 Y14.311 Z-6.648 F200.000
G1 X-188.902 Y14.185 Z-6.665 F200.000
G1 X-188.733 Y14.089 Z-6.682 F200.000
G1 X-188.549 Y14.028 Z-6.700 F200.000
G1 X-188.356 Y14.004 Z-6.717 F200.000
G1 X-188.163 Y14.018 Z-6.734 F200.000
G1 X-187.975 Y14.070 Z-6.751 F200.000
G1 X-187.802 Y14.157 Z-6.768 F200.000
G1 X-187.649 Y14.276 Z-6.785 F200.000
G1 X-187.522 Y14.423 Z-6.803 F200.000
G1 X-187.426 Y14.592 Z-6.820 F200.000
G1 X-187.365 Y14.776 Z-6.837 F200.000
G1 X-187.342 Y14.969 Z-6.854 F200.000
G1 X-187.356 Y15.162 Z-6.871 F200.000
G1 X-187.407 Y15.350 Z-6.889 F200.000
G1 X-187.495 Y15.523 Z-6.906 F200.000
G1 X-187.614 Y15.676 Z-6.923 F200.000
G1 X-187.761 Y15.803 Z-6.940 F200.000
G1 X-187.930 Y15.899 Z-6.957 F200.000
G1 X-188.114 Y15.960 Z-6.974 F200.000
G1 X-188.306 Y15.983 Z-6.992 F200.000
G1 X-188.500 Y15.969 Z-7.009 F200.000
G1 X-188.687 Y15.918 Z-7.026 F200.000
G1 X-188.860 Y15.830 Z-7.043 F200.000
G1 X-189.014 Y15.711 Z-7.060 F200.000
G1 X-189.140 Y15.564 Z-7.077 F200.000
G1 X-189.236 Y15.395 Z-7.095 F200.000
G1 X-189.297 Y15.211 Z-7.112 F200.000
G1 X-189.321 Y15.019 Z-7.129 F200.000
G1 X-189.307 Y14.825 Z-7.146 F200.000
G1 X-189.255 Y14.638 Z-7.163 F200.000
G1 X-189.168 Y14.465 Z-7.181 F200.000
G1 X-189.049 Y14.311 Z-7.198 F200.000
G1 X-188.902 Y14.185 Z-7.215 F200.000
G1 X-188.733 Y14.089 Z-7.232 F200.000
G1 X-188.549 Y14.028 Z-7.249 F200.000
G1 X-188.356 Y14.004 Z-7.266 F200.000
G1 X-188.163 Y14.018 Z-7.284 F200.000
G1 X-187.975 Y14.070 Z-7.301 F200.000
G1 X-187.802 Y14.157 Z-7.318 F200.000
G1 X-187.649 Y14.276 Z-7.335 F200.000
G1 X-187.522 Y14.423 Z-7.352 F200.000
G1 X-187.426 Y14.592 Z-7.370 F200.000
G1 X-187.365 Y14.776 Z-7.387 F200.000
G1 X-187.342 Y14.969 Z-7.404 F200.000
G1 X-187.356 Y15.162 Z-7.421 F200.000
G1 X-187.407 Y15.350 Z-7.438 F200.000
G1 X-187.495 Y15.523 Z-7.455 F200.000
G1 X-187.614 Y15.676 Z-7.473 F200.000
G1 X-187.761 Y15.803 Z-7.490 F200.000
G1 X-187.930 Y15.899 Z-7.507 F200.000
G1 X-188.114 Y15.960 Z-7.524 F200.000
G1 X-188.306 Y15.983 Z-7.541 F200.000
G1 X-188.500 Y15.969 Z-7.558 F200.000
G1 X-188.687 Y15.918 Z-7.576 F200.000
G1 X-188.860 Y15.830 Z-7.593 F200.000
G1 X-189.014 Y15.711 Z-7.610 F200.000
G1 X-189.140 Y15.564 Z-7.627 F200.000
G1 X-189.236 Y15.395 Z-7.644 F200.000
G1 X-189.297 Y15.211 Z-7.662 F200.000
G1 X-189.321 Y15.019 Z-7.679 F200.000
G1 X-189.307 Y14.825 Z-7.696 F200.000
G1 X-189.255 Y14.638 Z-7.713 F200.000
G1 X-189.168 Y14.465 Z-7.730 F200.000
G1 X-189.049 Y14.311 Z-7.747 F200.000
G1 X-188.902 Y14.185 Z-7.765 F200.000
G1 X-188.733 Y14.089 Z-7.782 F200.000
G1 X-188.549 Y14.028 Z-7.799 F200.000
G1 X-188.356 Y14.004 Z-7.816 F200.000
G1 X-188.163 Y14.018 Z-7.833 F200.000
G1 X-187.975 Y14.070 Z-7.851 F200.000
G1 X-187.802 Y14.157 Z-7.868 F200.000
G1 X-187.649 Y14.276 Z-7.885 F200.000
G1 X-187.522 Y14.423 Z-7.902 F200.000
G1 X-187.426 Y14.592 Z-7.919 F200.000
G1 X-187.365 Y14.776 Z-7.936 F200.000
G1 X-187.342 Y14.969 Z-7.954 F200.000
G1 X-187.356 Y15.162 Z-7.971 F200.000
G1 X-187.407 Y15.350 Z-7.988 F200.000
G1 X-187.495 Y15.523 Z-8.005 F200.000
G1 X-187.614 Y15.676 Z-8.022 F200.000
G1 X-187.761 Y15.803 Z-8.039 F200.000
G1 X-187.930 Y15.899 Z-8.057 F200.000
G1 X-188.114 Y15.960 Z-8.074 F200.000
G1 X-188.306 Y15.983 Z-8.091 F200.000
G1 X-188.500 Y15.969 Z-8.108 F200.000
G1 X-188.687 Y15.918 Z-8.125 F200.000
G1 X-188.860 Y15.830 Z-8.143 F200.000
G1 X-189.014 Y15.711 Z-8.160 F200.000
G1 X-189.140 Y15.564 Z-8.177 F200.000
G1 X-189.236 Y15.395 Z-8.194 F200.000
G1 X-189.297 Y15.211 Z-8.211 F200.000
G1 X-189.321 Y15.019 Z-8.228 F200.000
G1 X-189.307 Y14.825 Z-8.246 F200.000
G1 X-189.255 Y14.638 Z-8.263 F200.000
G1 X-189.168 Y14.465 Z-8.280 F200.000
G1 X-189.049 Y14.311 Z-8.297 F200.000
G1 X-188.902 Y14.185 Z-8.314 F200.000
G1 X-188.733 Y14.089 Z-8.332 F200.000
G1 X-188.549 Y14.028 Z-8.349 F200.000
G1 X-188.356 Y14.004 Z-8.366 F200.000
G1 X-188.163 Y14.018 Z-8.383 F200.000
G1 X-187.975 Y14.070 Z-8.400 F200.000
G1 X-187.802 Y14.157 Z-8.417 F200.000
G1 X-187.649 Y14.276 Z-8.435 F200.000
G1 X-187.522 Y14.423 Z-8.452 F200.000
G1 X-187.426 Y14.592 Z-8.469 F200.000
G1 X-187.365 Y14.776 Z-8.486 F200.000
G1 X-187.342 Y14.969 Z-8.503 F200.000
G1 X-187.356 Y15.162 Z-8.520 F200.000
G1 X-187.407 Y15.350 Z-8.538 F200.000
G1 X-187.495 Y15.523 Z-8.555 F200.000
G1 X-187.614 Y15.676 Z-8.572 F200.000
G1 X-187.761 Y15.803 Z-8.589 F200.000
G1 X-187.930 Y15.899 Z-8.606 F200.000
G1 X-188.114 Y15.960 Z-8.624 F200.000
G1 X-188.306 Y15.983 Z-8.641 F200.000
G1 X-188.500 Y15.969 Z-8.658 F200.000
G1 X-188.687 Y15.918 Z-8.675 F200.000
G1 X-188.860 Y15.830 Z-8.692 F200.000
G1 X-189.014 Y15.711 Z-8.709 F200.000
G1 X-189.140 Y15.564 Z-8.727 F200.000
G1 X-189.236 Y15.395 Z-8.744 F200.000
G1 X-189.297 Y15.211 Z-8.761 F200.000
G1 X-189.321 Y15.019 Z-8.778 F200.000
G1 X-189.307 Y14.825 Z-8.795 F200.000
G1 X-189.255 Y14.638 Z-8.812 F200.000
G1 X-189.168 Y14.465 Z-8.830 F200.000
G1 X-189.049 Y14.311 Z-8.847 F200.000
G1 X-188.902 Y14.185 Z-8.864 F200.000
G1 X-188.733 Y14.089 Z-8.881 F200.000
G1 X-188.549 Y14.028 Z-8.898 F200.000
G1 X-188.356 Y14.004 Z-8.916 F200.000
G1 X-188.163 Y14.018 Z-8.933 F200.000
G1 X-187.975 Y14.070 Z-8.950 F200.000
G1 X-187.802 Y14.157 Z-8.967 F200.000
G1 X-187.649 Y14.276 Z-8.984 F200.000
G1 X-187.522 Y14.423 Z-9.001 F200.000
G1 X-187.426 Y14.592 Z-9.019 F200.000
G1 X-187.365 Y14.776 Z-9.036 F200.000
G1 X-187.342 Y14.969 Z-9.053 F200.000
G1 X-187.356 Y15.162 Z-9.070 F200.000
G1 X-187.407 Y15.350 Z-9.087 F200.000
G1 X-187.495 Y15.523 Z-9.105 F200.000
G1 X-187.614 Y15.676 Z-9.122 F200.000
G1 X-187.761 Y15.803 Z-9.139 F200.000
G1 X-187.930 Y15.899 Z-9.156 F200.000
G1 X-188.114 Y15.960 Z-9.173 F200.000
G1 X-188.306 Y15.983 Z-9.190 F200.000
G1 X-188.500 Y15.969 Z-9.208 F200.000
G1 X-188.687 Y15.918 Z-9.225 F200.000
G1 X-188.860 Y15.830 Z-9.242 F200.000
G1 X-189.014 Y15.711 Z-9.259 F200.000
G1 X-189.140 Y15.564 Z-9.276 F200.000
G1 X-189.236 Y15.395 Z-9.293 F200.000
G1 X-189.297 Y15.211 Z-9.311 F200.000
G1 X-189.321 Y15.019 Z-9.328 F200.000
G1 X-189.307 Y14.825 Z-9.345 F200.000
G1 X-189.255 Y14.638 Z-9.362 F200.000
G1 X-189.168 Y14.465 Z-9.379 F200.000
G1 X-189.049 Y14.311 Z-9.397 F200.000
G1 X-188.902 Y14.185 Z-9.414 F200.000
G1 X-188.733 Y14.089 Z-9.431 F200.000
G1 X-188.549 Y14.028 Z-9.448 F200.000
G1 X-188.356 Y14.004 Z-9.465 F200.000
G1 X-188.163 Y14.018 Z-9.482 F200.000
G1 X-187.975 Y14.070 Z-9.500 F200.000
G1 X-187.802 Y14.157 Z-9.517 F200.000
G1 X-187.649 Y14.276 Z-9.534 F200.000
G1 X-187.522 Y14.423 Z-9.551 F200.000
G1 X-187.426 Y14.592 Z-9.568 F200.000
G1 X-187.365 Y14.776 Z-9.586 F200.000
G1 X-187.342 Y14.969 Z-9.603 F200.000
G1 X-187.356 Y15.162 Z-9.620 F200.000
