(Exported by FreeCAD)
(Post Processor: script_module)
(Output Time:2025-04-01 15:54:36.898548)
(Begin preamble)
G17 G90
G21
(Block-name: Fixture)
(Block-expand: 0)
(Block-enable: 1)
(Begin operation: Fixture)
(Path: Fixture)
G54
(Finish operation: Fixture)
(Block-name: 3mm Endmill001)
(Block-expand: 0)
(Block-enable: 1)
(Begin operation: 3mm Endmill001)
(Path: 3mm Endmill001)
(3mm Endmill001)
(Begin toolchange)
( M6 T2 )
M3 S10000
(Finish operation: 3mm Endmill001)
(Block-name: Surface)
(Block-expand: 0)
(Block-enable: 1)
(Begin operation: Surface)
(Path: Surface)
(Surface)
(Surface)
(Tool type: endmill)
(Compensated Tool Path. Diameter: 3.0)
(Sample interval: 1.0)
(Step over %: 20.0)
()
G0 Z6.002
(Beginning of Multi-pass layers.)
(Layer 0 begins)
(Begin step 0.)
G0 X-14.759 Y-8.616
(part 1)
G1 X-14.759 Y-8.616 Z-1.998 F400.000
G1 X-15.359 Y-8.613 Z-1.998 F400.000
G1 X-19.559 Y-8.594 Z-1.998 F400.000
G1 X-23.559 Y-8.582 Z-1.998 F400.000
G1 X-29.159 Y-8.577 Z-1.998 F400.000
G1 X-34.559 Y-8.592 Z-1.998 F400.000
G1 X-38.759 Y-8.621 Z-1.998 F400.000
G1 X-40.759 Y-8.642 Z-1.998 F400.000
G1 X-44.559 Y-8.693 Z-1.998 F400.000
G1 X-48.358 Y-8.763 Z-1.998 F400.000
G1 X-50.757 Y-8.817 Z-1.998 F400.000
G1 X-54.356 Y-8.912 Z-1.998 F400.000
G1 X-58.154 Y-9.034 Z-1.998 F400.000
G1 X-60.752 Y-9.129 Z-1.998 F400.000
G1 X-64.150 Y-9.270 Z-1.998 F400.000
G1 X-67.346 Y-9.420 Z-1.998 F400.000
G1 X-70.542 Y-9.587 Z-1.998 F400.000
G1 X-73.736 Y-9.771 Z-1.998 F400.000
G1 X-76.930 Y-9.974 Z-1.998 F400.000
G1 X-80.521 Y-10.224 Z-1.998 F400.000
G1 X-83.513 Y-10.452 Z-1.998 F400.000
G1 X-86.503 Y-10.696 Z-1.998 F400.000
G1 X-88.296 Y-10.852 Z-1.998 F400.000
G1 X-91.283 Y-11.125 Z-1.998 F400.000
G1 X-93.473 Y-11.337 Z-1.998 F400.000
G1 X-96.656 Y-11.666 Z-1.998 F400.000
G1 X-99.041 Y-11.932 Z-1.998 F400.000
G1 X-101.226 Y-12.192 Z-1.998 F400.000
G1 X-103.408 Y-12.470 Z-1.998 F400.000
G1 X-105.192 Y-12.713 Z-1.998 F400.000
G1 X-107.764 Y-13.090 Z-1.998 F400.000
G1 X-109.542 Y-13.370 Z-1.998 F400.000
G1 X-111.318 Y-13.667 Z-1.998 F400.000
G1 X-112.893 Y-13.946 Z-1.998 F400.000
G1 X-114.662 Y-14.278 Z-1.998 F400.000
G1 X-116.231 Y-14.592 Z-1.998 F400.000
G1 X-117.797 Y-14.921 Z-1.998 F400.000
G1 X-119.359 Y-15.269 Z-1.998 F400.000
G1 X-120.722 Y-15.587 Z-1.998 F400.000
G1 X-122.276 Y-15.969 Z-1.998 F400.000
G1 X-123.825 Y-16.371 Z-1.998 F400.000
G1 X-124.597 Y-16.580 Z-1.998 F400.000
G1 X-125.945 Y-16.957 Z-1.998 F400.000
G1 X-127.288 Y-17.352 Z-1.998 F400.000
G1 X-128.627 Y-17.763 Z-1.998 F400.000
G1 X-129.960 Y-18.191 Z-1.998 F400.000
G1 X-131.286 Y-18.637 Z-1.998 F400.000
G1 X-132.607 Y-19.101 Z-1.998 F400.000
G1 X-134.108 Y-19.655 Z-1.998 F400.000
G1 X-135.414 Y-20.160 Z-1.998 F400.000
G1 X-136.712 Y-20.685 Z-1.998 F400.000
G1 X-137.634 Y-21.072 Z-1.998 F400.000
G1 X-138.735 Y-21.549 Z-1.998 F400.000
G1 X-140.011 Y-22.125 Z-1.998 F400.000
G1 X-141.098 Y-22.634 Z-1.998 F400.000
G1 X-141.997 Y-23.072 Z-1.998 F400.000
G1 X-143.069 Y-23.610 Z-1.998 F400.000
G1 X-144.134 Y-24.164 Z-1.998 F400.000
G1 X-145.365 Y-24.830 Z-1.998 F400.000
G1 X-146.238 Y-25.318 Z-1.998 F400.000
G1 X-147.277 Y-25.918 Z-1.998 F400.000
G1 X-147.439 Y-26.027 Z-1.998 F400.000
G1 X-147.439 Y-26.627 Z-1.998 F400.000
G1 X-147.340 Y-26.652 Z-1.998 F400.000
G1 X-146.132 Y-25.945 Z-1.998 F400.000
G1 X-144.911 Y-25.261 Z-1.998 F400.000
G1 X-144.031 Y-24.785 Z-1.998 F400.000
G1 X-142.967 Y-24.229 Z-1.998 F400.000
G1 X-141.717 Y-23.600 Z-1.998 F400.000
G1 X-140.455 Y-22.993 Z-1.998 F400.000
G1 X-139.549 Y-22.571 Z-1.998 F400.000
G1 X-138.454 Y-22.079 Z-1.998 F400.000
G1 X-137.169 Y-21.524 Z-1.998 F400.000
G1 X-135.876 Y-20.988 Z-1.998 F400.000
G1 X-134.387 Y-20.401 Z-1.998 F400.000
G1 X-133.077 Y-19.909 Z-1.998 F400.000
G1 X-131.759 Y-19.435 Z-1.998 F400.000
G1 X-130.435 Y-18.980 Z-1.998 F400.000
G1 X-129.105 Y-18.542 Z-1.998 F400.000
G1 X-127.770 Y-18.123 Z-1.998 F400.000
G1 X-126.429 Y-17.720 Z-1.998 F400.000
G1 X-125.853 Y-17.553 Z-1.998 F400.000
G1 X-124.312 Y-17.122 Z-1.998 F400.000
G1 X-122.959 Y-16.762 Z-1.998 F400.000
G1 X-121.408 Y-16.369 Z-1.998 F400.000
G1 X-119.852 Y-15.996 Z-1.998 F400.000
G1 X-118.292 Y-15.641 Z-1.998 F400.000
G1 X-116.728 Y-15.305 Z-1.998 F400.000
G1 X-115.944 Y-15.143 Z-1.998 F400.000
G1 X-114.178 Y-14.795 Z-1.998 F400.000
G1 X-112.605 Y-14.502 Z-1.998 F400.000
G1 X-110.635 Y-14.157 Z-1.998 F400.000
G1 X-108.859 Y-13.865 Z-1.998 F400.000
G1 X-107.080 Y-13.591 Z-1.998 F400.000
G1 X-106.091 Y-13.445 Z-1.998 F400.000
G1 X-104.110 Y-13.168 Z-1.998 F400.000
G1 X-101.929 Y-12.882 Z-1.998 F400.000
G1 X-99.745 Y-12.616 Z-1.998 F400.000
G1 X-97.360 Y-12.344 Z-1.998 F400.000
G1 X-95.173 Y-12.111 Z-1.998 F400.000
G1 X-92.387 Y-11.831 Z-1.998 F400.000
G1 X-90.595 Y-11.661 Z-1.998 F400.000
G1 X-87.208 Y-11.357 Z-1.998 F400.000
G1 X-84.019 Y-11.092 Z-1.998 F400.000
G1 X-81.028 Y-10.861 Z-1.998 F400.000
G1 X-77.637 Y-10.620 Z-1.998 F400.000
G1 X-75.042 Y-10.451 Z-1.998 F400.000
G1 X-71.848 Y-10.259 Z-1.998 F400.000
G1 X-68.653 Y-10.085 Z-1.998 F400.000
G1 X-65.457 Y-9.928 Z-1.998 F400.000
G1 X-61.860 Y-9.772 Z-1.998 F400.000
G1 X-58.463 Y-9.643 Z-1.998 F400.000
G1 X-56.064 Y-9.563 Z-1.998 F400.000
G1 X-52.465 Y-9.458 Z-1.998 F400.000
G1 X-48.666 Y-9.367 Z-1.998 F400.000
G1 X-46.867 Y-9.331 Z-1.998 F400.000
G1 X-43.067 Y-9.269 Z-1.998 F400.000
G1 X-39.068 Y-9.222 Z-1.998 F400.000
G1 X-34.268 Y-9.189 Z-1.998 F400.000
G1 X-29.268 Y-9.175 Z-1.998 F400.000
G1 X-26.468 Y-9.175 Z-1.998 F400.000
G1 X-19.668 Y-9.192 Z-1.998 F400.000
G1 X-10.068 Y-9.237 Z-1.998 F400.000
G1 X-0.268 Y-9.274 Z-1.998 F400.000
G1 X9.332 Y-9.280 Z-1.998 F400.000
G1 X21.932 Y-9.273 Z-1.998 F400.000
G1 X28.532 Y-9.282 Z-1.998 F400.000
G1 X33.332 Y-9.302 Z-1.998 F400.000
G1 X38.332 Y-9.338 Z-1.998 F400.000
G1 X43.931 Y-9.402 Z-1.998 F400.000
G1 X47.931 Y-9.467 Z-1.998 F400.000
G1 X50.330 Y-9.515 Z-1.998 F400.000
G1 X54.129 Y-9.604 Z-1.998 F400.000
G1 X57.728 Y-9.707 Z-1.998 F400.000
G1 X60.726 Y-9.807 Z-1.998 F400.000
G1 X64.124 Y-9.937 Z-1.998 F400.000
G1 X67.321 Y-10.077 Z-1.998 F400.000
G1 X71.116 Y-10.266 Z-1.998 F400.000
G1 X74.111 Y-10.435 Z-1.998 F400.000
G1 X77.105 Y-10.622 Z-1.998 F400.000
G1 X78.901 Y-10.743 Z-1.998 F400.000
G1 X81.694 Y-10.945 Z-1.998 F400.000
G1 X84.286 Y-11.149 Z-1.998 F400.000
G1 X86.876 Y-11.372 Z-1.998 F400.000
G1 X87.673 Y-11.445 Z-1.998 F400.000
G1 X90.062 Y-11.675 Z-1.998 F400.000
G1 X92.250 Y-11.902 Z-1.998 F400.000
G1 X94.635 Y-12.171 Z-1.998 F400.000
G1 X96.621 Y-12.411 Z-1.998 F400.000
G1 X98.604 Y-12.667 Z-1.998 F400.000
G1 X100.585 Y-12.941 Z-1.998 F400.000
G1 X102.564 Y-13.233 Z-1.998 F400.000
G1 X104.540 Y-13.544 Z-1.998 F400.000
G1 X106.315 Y-13.840 Z-1.998 F400.000
G1 X107.497 Y-14.047 Z-1.998 F400.000
G1 X109.071 Y-14.335 Z-1.998 F400.000
G1 X111.035 Y-14.713 Z-1.998 F400.000
G1 X112.798 Y-15.074 Z-1.998 F400.000
G1 X114.558 Y-15.453 Z-1.998 F400.000
G1 X116.313 Y-15.851 Z-1.998 F400.000
G1 X118.064 Y-16.270 Z-1.998 F400.000
G1 X119.616 Y-16.660 Z-1.998 F400.000
G1 X121.163 Y-17.066 Z-1.998 F400.000
G1 X122.706 Y-17.489 Z-1.998 F400.000
G1 X124.245 Y-17.930 Z-1.998 F400.000
G1 X125.778 Y-18.388 Z-1.998 F400.000
G1 X126.542 Y-18.624 Z-1.998 F400.000
G1 X128.257 Y-19.172 Z-1.998 F400.000
G1 X129.585 Y-19.614 Z-1.998 F400.000
G1 X131.097 Y-20.137 Z-1.998 F400.000
G1 X132.602 Y-20.680 Z-1.998 F400.000
G1 X133.914 Y-21.170 Z-1.998 F400.000
G1 X135.405 Y-21.749 Z-1.998 F400.000
G1 X136.519 Y-22.196 Z-1.998 F400.000
G1 X137.996 Y-22.810 Z-1.998 F400.000
G1 X139.282 Y-23.363 Z-1.998 F400.000
G1 X140.561 Y-23.933 Z-1.998 F400.000
G1 X142.014 Y-24.603 Z-1.998 F400.000
G1 X143.278 Y-25.205 Z-1.998 F400.000
G1 X144.712 Y-25.914 Z-1.998 F400.000
G1 X145.959 Y-26.551 Z-1.998 F400.000
G1 X147.374 Y-27.299 Z-1.998 F400.000
G1 X147.438 Y-27.208 Z-1.998 F400.000
G1 X147.439 Y-26.808 Z-1.998 F400.000
G1 X147.397 Y-26.633 Z-1.998 F400.000
G1 X146.158 Y-25.981 Z-1.998 F400.000
G1 X144.911 Y-25.345 Z-1.998 F400.000
G1 X143.476 Y-24.637 Z-1.998 F400.000
G1 X142.212 Y-24.035 Z-1.998 F400.000
G1 X140.941 Y-23.448 Z-1.998 F400.000
G1 X140.211 Y-23.120 Z-1.998 F400.000
G1 X138.929 Y-22.558 Z-1.998 F400.000
G1 X137.640 Y-22.011 Z-1.998 F400.000
G1 X136.345 Y-21.480 Z-1.998 F400.000
G1 X135.043 Y-20.964 Z-1.998 F400.000
G1 X133.549 Y-20.393 Z-1.998 F400.000
G1 X132.047 Y-19.841 Z-1.998 F400.000
G1 X130.538 Y-19.308 Z-1.998 F400.000
G1 X129.023 Y-18.794 Z-1.998 F400.000
G1 X127.502 Y-18.300 Z-1.998 F400.000
G1 X126.166 Y-17.882 Z-1.998 F400.000
G1 X124.633 Y-17.420 Z-1.998 F400.000
G1 X122.904 Y-16.923 Z-1.998 F400.000
G1 X121.940 Y-16.656 Z-1.998 F400.000
G1 X120.394 Y-16.243 Z-1.998 F400.000
G1 X118.844 Y-15.847 Z-1.998 F400.000
G1 X117.290 Y-15.468 Z-1.998 F400.000
G1 X115.537 Y-15.059 Z-1.998 F400.000
G1 X113.779 Y-14.671 Z-1.998 F400.000
G1 X111.821 Y-14.261 Z-1.998 F400.000
G1 X110.055 Y-13.912 Z-1.998 F400.000
G1 X108.286 Y-13.581 Z-1.998 F400.000
G1 X106.514 Y-13.267 Z-1.998 F400.000
G1 X104.541 Y-12.938 Z-1.998 F400.000
G1 X103.356 Y-12.750 Z-1.998 F400.000
G1 X101.378 Y-12.451 Z-1.998 F400.000
G1 X99.398 Y-12.171 Z-1.998 F400.000
G1 X97.415 Y-11.909 Z-1.998 F400.000
G1 X95.232 Y-11.639 Z-1.998 F400.000
G1 X92.847 Y-11.366 Z-1.998 F400.000
G1 X90.660 Y-11.134 Z-1.998 F400.000
G1 X88.271 Y-10.900 Z-1.998 F400.000
G1 X85.881 Y-10.684 Z-1.998 F400.000
G1 X84.685 Y-10.583 Z-1.998 F400.000
G1 X82.093 Y-10.375 Z-1.998 F400.000
G1 X79.301 Y-10.171 Z-1.998 F400.000
G1 X76.308 Y-9.971 Z-1.998 F400.000
G1 X73.712 Y-9.812 Z-1.998 F400.000
G1 X70.717 Y-9.646 Z-1.998 F400.000
G1 X67.321 Y-9.478 Z-1.998 F400.000
G1 X64.124 Y-9.338 Z-1.998 F400.000
G1 X60.927 Y-9.216 Z-1.998 F400.000
G1 X57.329 Y-9.096 Z-1.998 F400.000
G1 X55.529 Y-9.044 Z-1.998 F400.000
G1 X51.731 Y-8.947 Z-1.998 F400.000
G1 X47.731 Y-8.865 Z-1.998 F400.000
G1 X42.732 Y-8.788 Z-1.998 F400.000
G1 X38.132 Y-8.738 Z-1.998 F400.000
G1 X34.332 Y-8.709 Z-1.998 F400.000
G1 X28.532 Y-8.684 Z-1.998 F400.000
G1 X19.132 Y-8.675 Z-1.998 F400.000
G1 X9.333 Y-8.682 Z-1.998 F400.000
G1 X-0.267 Y-8.676 Z-1.998 F400.000
G1 X-9.867 Y-8.640 Z-1.998 F400.000
G1 X-14.759 Y-8.616 Z-1.998 F400.000
(--Break)
G0 Z4.002
G0 X-19.523 Y-7.995
(part 3)
G1 X-19.523 Y-7.995 Z-1.998 F400.000
G1 X-19.723 Y-7.994 Z-1.998 F400.000
G1 X-23.723 Y-7.981 Z-1.998 F400.000
G1 X-29.123 Y-7.977 Z-1.998 F400.000
G1 X-34.523 Y-7.992 Z-1.998 F400.000
G1 X-38.923 Y-8.023 Z-1.998 F400.000
G1 X-40.723 Y-8.041 Z-1.998 F400.000
G1 X-44.723 Y-8.096 Z-1.998 F400.000
G1 X-48.322 Y-8.162 Z-1.998 F400.000
G1 X-50.921 Y-8.220 Z-1.998 F400.000
G1 X-54.320 Y-8.311 Z-1.998 F400.000
G1 X-57.718 Y-8.418 Z-1.998 F400.000
G1 X-60.716 Y-8.527 Z-1.998 F400.000
G1 X-64.114 Y-8.668 Z-1.998 F400.000
G1 X-67.510 Y-8.827 Z-1.998 F400.000
G1 X-70.705 Y-8.995 Z-1.998 F400.000
G1 X-73.700 Y-9.168 Z-1.998 F400.000
G1 X-77.293 Y-9.396 Z-1.998 F400.000
G1 X-80.485 Y-9.620 Z-1.998 F400.000
G1 X-83.477 Y-9.847 Z-1.998 F400.000
G1 X-86.467 Y-10.091 Z-1.998 F400.000
G1 X-88.459 Y-10.264 Z-1.998 F400.000
G1 X-91.248 Y-10.519 Z-1.998 F400.000
G1 X-93.437 Y-10.730 Z-1.998 F400.000
G1 X-96.223 Y-11.016 Z-1.998 F400.000
G1 X-99.205 Y-11.347 Z-1.998 F400.000
G1 X-101.389 Y-11.608 Z-1.998 F400.000
G1 X-103.571 Y-11.887 Z-1.998 F400.000
G1 X-105.553 Y-12.158 Z-1.998 F400.000
G1 X-107.730 Y-12.477 Z-1.998 F400.000
G1 X-109.508 Y-12.756 Z-1.998 F400.000
G1 X-111.283 Y-13.052 Z-1.998 F400.000
G1 X-113.056 Y-13.366 Z-1.998 F400.000
G1 X-114.825 Y-13.699 Z-1.998 F400.000
G1 X-116.394 Y-14.013 Z-1.998 F400.000
G1 X-117.959 Y-14.343 Z-1.998 F400.000
G1 X-119.521 Y-14.690 Z-1.998 F400.000
G1 X-120.884 Y-15.009 Z-1.998 F400.000
G1 X-122.244 Y-15.343 Z-1.998 F400.000
G1 X-123.986 Y-15.793 Z-1.998 F400.000
G1 X-124.759 Y-16.002 Z-1.998 F400.000
G1 X-126.107 Y-16.380 Z-1.998 F400.000
G1 X-127.450 Y-16.774 Z-1.998 F400.000
G1 X-128.789 Y-17.185 Z-1.998 F400.000
G1 X-130.122 Y-17.613 Z-1.998 F400.000
G1 X-131.449 Y-18.058 Z-1.998 F400.000
G1 X-132.581 Y-18.455 Z-1.998 F400.000
G1 X-133.146 Y-18.658 Z-1.998 F400.000
G1 X-134.458 Y-19.146 Z-1.998 F400.000
G1 X-135.577 Y-19.579 Z-1.998 F400.000
G1 X-136.690 Y-20.027 Z-1.998 F400.000
G1 X-137.982 Y-20.567 Z-1.998 F400.000
G1 X-139.082 Y-21.046 Z-1.998 F400.000
G1 X-140.176 Y-21.540 Z-1.998 F400.000
G1 X-141.443 Y-22.135 Z-1.998 F400.000
G1 X-142.342 Y-22.573 Z-1.998 F400.000
G1 X-143.414 Y-23.112 Z-1.998 F400.000
G1 X-144.478 Y-23.667 Z-1.998 F400.000
G1 X-145.534 Y-24.237 Z-1.998 F400.000
G1 X-146.582 Y-24.823 Z-1.998 F400.000
G1 X-147.620 Y-25.424 Z-1.998 F400.000
G1 X-147.963 Y-25.630 Z-1.998 F400.000
G1 X-148.039 Y-25.787 Z-1.998 F400.000
G1 X-148.039 Y-27.587 Z-1.998 F400.000
G1 X-148.031 Y-27.772 Z-1.998 F400.000
G1 X-146.833 Y-27.047 Z-1.998 F400.000
G1 X-145.796 Y-26.444 Z-1.998 F400.000
G1 X-144.749 Y-25.857 Z-1.998 F400.000
G1 X-143.694 Y-25.286 Z-1.998 F400.000
G1 X-142.630 Y-24.730 Z-1.998 F400.000
G1 X-141.558 Y-24.191 Z-1.998 F400.000
G1 X-140.298 Y-23.581 Z-1.998 F400.000
G1 X-139.210 Y-23.075 Z-1.998 F400.000
G1 X-138.115 Y-22.585 Z-1.998 F400.000
G1 X-136.829 Y-22.031 Z-1.998 F400.000
G1 X-135.534 Y-21.498 Z-1.998 F400.000
G1 X-134.232 Y-20.985 Z-1.998 F400.000
G1 X-132.734 Y-20.423 Z-1.998 F400.000
G1 X-131.605 Y-20.016 Z-1.998 F400.000
G1 X-130.281 Y-19.560 Z-1.998 F400.000
G1 X-128.951 Y-19.123 Z-1.998 F400.000
G1 X-127.616 Y-18.703 Z-1.998 F400.000
G1 X-126.275 Y-18.300 Z-1.998 F400.000
G1 X-125.506 Y-18.078 Z-1.998 F400.000
G1 X-124.158 Y-17.702 Z-1.998 F400.000
G1 X-122.805 Y-17.341 Z-1.998 F400.000
G1 X-121.254 Y-16.949 Z-1.998 F400.000
G1 X-119.698 Y-16.576 Z-1.998 F400.000
G1 X-118.138 Y-16.222 Z-1.998 F400.000
G1 X-116.573 Y-15.885 Z-1.998 F400.000
G1 X-115.790 Y-15.724 Z-1.998 F400.000
G1 X-114.024 Y-15.376 Z-1.998 F400.000
G1 X-112.451 Y-15.083 Z-1.998 F400.000
G1 X-110.678 Y-14.773 Z-1.998 F400.000
G1 X-108.902 Y-14.480 Z-1.998 F400.000
G1 X-106.925 Y-14.174 Z-1.998 F400.000
G1 X-105.936 Y-14.029 Z-1.998 F400.000
G1 X-103.955 Y-13.752 Z-1.998 F400.000
G1 X-101.774 Y-13.468 Z-1.998 F400.000
G1 X-99.590 Y-13.202 Z-1.998 F400.000
G1 X-97.205 Y-12.930 Z-1.998 F400.000
G1 X-95.216 Y-12.718 Z-1.998 F400.000
G1 X-92.430 Y-12.438 Z-1.998 F400.000
G1 X-90.639 Y-12.268 Z-1.998 F400.000
G1 X-87.053 Y-11.946 Z-1.998 F400.000
G1 X-84.063 Y-11.697 Z-1.998 F400.000
G1 X-81.072 Y-11.466 Z-1.998 F400.000
G1 X-77.481 Y-11.212 Z-1.998 F400.000
G1 X-75.086 Y-11.055 Z-1.998 F400.000
G1 X-71.692 Y-10.851 Z-1.998 F400.000
G1 X-68.497 Y-10.678 Z-1.998 F400.000
G1 X-65.301 Y-10.521 Z-1.998 F400.000
G1 X-61.904 Y-10.374 Z-1.998 F400.000
G1 X-58.507 Y-10.245 Z-1.998 F400.000
G1 X-55.908 Y-10.158 Z-1.998 F400.000
G1 X-52.510 Y-10.060 Z-1.998 F400.000
G1 X-48.911 Y-9.973 Z-1.998 F400.000
G1 X-46.911 Y-9.932 Z-1.998 F400.000
G1 X-43.112 Y-9.870 Z-1.998 F400.000
G1 X-39.112 Y-9.823 Z-1.998 F400.000
G1 X-34.312 Y-9.789 Z-1.998 F400.000
G1 X-29.312 Y-9.775 Z-1.998 F400.000
G1 X-26.512 Y-9.775 Z-1.998 F400.000
G1 X-19.712 Y-9.792 Z-1.998 F400.000
G1 X-9.912 Y-9.837 Z-1.998 F400.000
G1 X-0.312 Y-9.874 Z-1.998 F400.000
G1 X9.288 Y-9.880 Z-1.998 F400.000
G1 X22.088 Y-9.873 Z-1.998 F400.000
G1 X28.688 Y-9.883 Z-1.998 F400.000
G1 X33.288 Y-9.902 Z-1.998 F400.000
G1 X38.288 Y-9.937 Z-1.998 F400.000
G1 X43.887 Y-10.002 Z-1.998 F400.000
G1 X48.087 Y-10.070 Z-1.998 F400.000
G1 X50.486 Y-10.118 Z-1.998 F400.000
G1 X54.085 Y-10.203 Z-1.998 F400.000
G1 X57.684 Y-10.306 Z-1.998 F400.000
G1 X60.882 Y-10.413 Z-1.998 F400.000
G1 X64.080 Y-10.535 Z-1.998 F400.000
G1 X67.876 Y-10.703 Z-1.998 F400.000
G1 X71.072 Y-10.865 Z-1.998 F400.000
G1 X74.067 Y-11.034 Z-1.998 F400.000
G1 X77.061 Y-11.220 Z-1.998 F400.000
G1 X78.857 Y-11.341 Z-1.998 F400.000
G1 X81.650 Y-11.543 Z-1.998 F400.000
G1 X84.242 Y-11.748 Z-1.998 F400.000
G1 X86.832 Y-11.971 Z-1.998 F400.000
G1 X87.629 Y-12.044 Z-1.998 F400.000
G1 X89.819 Y-12.254 Z-1.998 F400.000
G1 X92.206 Y-12.501 Z-1.998 F400.000
G1 X94.392 Y-12.746 Z-1.998 F400.000
G1 X96.577 Y-13.010 Z-1.998 F400.000
G1 X98.560 Y-13.267 Z-1.998 F400.000
G1 X100.541 Y-13.541 Z-1.998 F400.000
G1 X102.520 Y-13.833 Z-1.998 F400.000
G1 X104.495 Y-14.144 Z-1.998 F400.000
G1 X106.468 Y-14.475 Z-1.998 F400.000
G1 X107.256 Y-14.613 Z-1.998 F400.000
G1 X109.026 Y-14.936 Z-1.998 F400.000
G1 X110.794 Y-15.277 Z-1.998 F400.000
G1 X112.558 Y-15.636 Z-1.998 F400.000
G1 X114.318 Y-16.014 Z-1.998 F400.000
G1 X116.073 Y-16.411 Z-1.998 F400.000
G1 X117.824 Y-16.829 Z-1.998 F400.000
G1 X119.376 Y-17.218 Z-1.998 F400.000
G1 X121.117 Y-17.675 Z-1.998 F400.000
G1 X122.660 Y-18.099 Z-1.998 F400.000
G1 X124.198 Y-18.541 Z-1.998 F400.000
G1 X125.921 Y-19.060 Z-1.998 F400.000
G1 X126.494 Y-19.238 Z-1.998 F400.000
G1 X127.828 Y-19.664 Z-1.998 F400.000
G1 X129.347 Y-20.167 Z-1.998 F400.000
G1 X130.859 Y-20.689 Z-1.998 F400.000
G1 X132.364 Y-21.231 Z-1.998 F400.000
G1 X133.676 Y-21.721 Z-1.998 F400.000
G1 X135.168 Y-22.300 Z-1.998 F400.000
G1 X136.281 Y-22.747 Z-1.998 F400.000
G1 X137.574 Y-23.283 Z-1.998 F400.000
G1 X138.861 Y-23.835 Z-1.998 F400.000
G1 X140.324 Y-24.484 Z-1.998 F400.000
G1 X141.776 Y-25.154 Z-1.998 F400.000
G1 X143.040 Y-25.757 Z-1.998 F400.000
G1 X144.474 Y-26.466 Z-1.998 F400.000
G1 X145.898 Y-27.196 Z-1.998 F400.000
G1 X146.959 Y-27.756 Z-1.998 F400.000
G1 X148.013 Y-28.330 Z-1.998 F400.000
G1 X148.038 Y-28.173 Z-1.998 F400.000
G1 X148.039 Y-26.373 Z-1.998 F400.000
G1 X147.929 Y-26.238 Z-1.998 F400.000
G1 X147.577 Y-26.048 Z-1.998 F400.000
G1 X146.337 Y-25.397 Z-1.998 F400.000
G1 X145.090 Y-24.763 Z-1.998 F400.000
G1 X144.013 Y-24.232 Z-1.998 F400.000
G1 X142.571 Y-23.540 Z-1.998 F400.000
G1 X141.300 Y-22.952 Z-1.998 F400.000
G1 X140.571 Y-22.623 Z-1.998 F400.000
G1 X139.289 Y-22.060 Z-1.998 F400.000
G1 X137.816 Y-21.435 Z-1.998 F400.000
G1 X136.521 Y-20.904 Z-1.998 F400.000
G1 X135.219 Y-20.389 Z-1.998 F400.000
G1 X133.724 Y-19.818 Z-1.998 F400.000
G1 X132.411 Y-19.334 Z-1.998 F400.000
G1 X130.524 Y-18.669 Z-1.998 F400.000
G1 X129.198 Y-18.220 Z-1.998 F400.000
G1 X127.867 Y-17.787 Z-1.998 F400.000
G1 X126.341 Y-17.308 Z-1.998 F400.000
G1 X124.616 Y-16.791 Z-1.998 F400.000
G1 X123.079 Y-16.349 Z-1.998 F400.000
G1 X122.115 Y-16.082 Z-1.998 F400.000
G1 X120.569 Y-15.669 Z-1.998 F400.000
G1 X118.825 Y-15.225 Z-1.998 F400.000
G1 X117.270 Y-14.846 Z-1.998 F400.000
G1 X115.712 Y-14.484 Z-1.998 F400.000
G1 X113.955 Y-14.094 Z-1.998 F400.000
G1 X111.997 Y-13.685 Z-1.998 F400.000
G1 X110.231 Y-13.335 Z-1.998 F400.000
G1 X108.265 Y-12.968 Z-1.998 F400.000
G1 X106.493 Y-12.655 Z-1.998 F400.000
G1 X104.717 Y-12.358 Z-1.998 F400.000
G1 X103.532 Y-12.170 Z-1.998 F400.000
G1 X101.555 Y-11.871 Z-1.998 F400.000
G1 X99.574 Y-11.590 Z-1.998 F400.000
G1 X97.394 Y-11.301 Z-1.998 F400.000
G1 X95.409 Y-11.056 Z-1.998 F400.000
G1 X93.024 Y-10.782 Z-1.998 F400.000
G1 X90.638 Y-10.529 Z-1.998 F400.000
G1 X88.249 Y-10.296 Z-1.998 F400.000
G1 X85.859 Y-10.080 Z-1.998 F400.000
G1 X84.862 Y-9.995 Z-1.998 F400.000
G1 X82.071 Y-9.772 Z-1.998 F400.000
G1 X79.478 Y-9.582 Z-1.998 F400.000
G1 X76.485 Y-9.381 Z-1.998 F400.000
G1 X73.690 Y-9.210 Z-1.998 F400.000
G1 X70.695 Y-9.044 Z-1.998 F400.000
G1 X67.499 Y-8.886 Z-1.998 F400.000
G1 X64.302 Y-8.745 Z-1.998 F400.000
G1 X60.904 Y-8.614 Z-1.998 F400.000
G1 X57.306 Y-8.495 Z-1.998 F400.000
G1 X55.507 Y-8.443 Z-1.998 F400.000
G1 X51.708 Y-8.347 Z-1.998 F400.000
G1 X47.709 Y-8.265 Z-1.998 F400.000
G1 X42.710 Y-8.188 Z-1.998 F400.000
G1 X38.110 Y-8.137 Z-1.998 F400.000
G1 X34.310 Y-8.109 Z-1.998 F400.000
G1 X28.510 Y-8.084 Z-1.998 F400.000
G1 X19.110 Y-8.075 Z-1.998 F400.000
G1 X9.310 Y-8.082 Z-1.998 F400.000
G1 X-0.290 Y-8.076 Z-1.998 F400.000
G1 X-9.890 Y-8.040 Z-1.998 F400.000
G1 X-19.523 Y-7.995 Z-1.998 F400.000
(--Break)
G0 Z4.002
G0 X-14.754 Y-7.416
(part 5)
G1 X-14.754 Y-7.416 Z-1.998 F400.000
G1 X-15.154 Y-7.414 Z-1.998 F400.000
G1 X-19.554 Y-7.394 Z-1.998 F400.000
G1 X-23.554 Y-7.382 Z-1.998 F400.000
G1 X-29.154 Y-7.377 Z-1.998 F400.000
G1 X-34.554 Y-7.392 Z-1.998 F400.000
G1 X-38.754 Y-7.421 Z-1.998 F400.000
G1 X-40.753 Y-7.442 Z-1.998 F400.000
G1 X-44.553 Y-7.493 Z-1.998 F400.000
G1 X-48.352 Y-7.562 Z-1.998 F400.000
G1 X-50.752 Y-7.616 Z-1.998 F400.000
G1 X-54.351 Y-7.712 Z-1.998 F400.000
G1 X-57.749 Y-7.819 Z-1.998 F400.000
G1 X-60.747 Y-7.928 Z-1.998 F400.000
G1 X-64.144 Y-8.069 Z-1.998 F400.000
G1 X-67.540 Y-8.228 Z-1.998 F400.000
G1 X-70.736 Y-8.395 Z-1.998 F400.000
G1 X-73.931 Y-8.581 Z-1.998 F400.000
G1 X-77.124 Y-8.784 Z-1.998 F400.000
G1 X-80.516 Y-9.021 Z-1.998 F400.000
G1 X-83.507 Y-9.247 Z-1.998 F400.000
G1 X-86.697 Y-9.508 Z-1.998 F400.000
G1 X-88.490 Y-9.664 Z-1.998 F400.000
G1 X-91.278 Y-9.919 Z-1.998 F400.000
G1 X-93.468 Y-10.130 Z-1.998 F400.000
G1 X-96.055 Y-10.395 Z-1.998 F400.000
G1 X-96.850 Y-10.480 Z-1.998 F400.000
G1 X-99.235 Y-10.746 Z-1.998 F400.000
G1 X-101.420 Y-11.007 Z-1.998 F400.000
G1 X-103.602 Y-11.286 Z-1.998 F400.000
G1 X-105.584 Y-11.556 Z-1.998 F400.000
G1 X-107.760 Y-11.875 Z-1.998 F400.000
G1 X-109.539 Y-12.154 Z-1.998 F400.000
G1 X-111.511 Y-12.483 Z-1.998 F400.000
G1 X-113.284 Y-12.798 Z-1.998 F400.000
G1 X-115.052 Y-13.132 Z-1.998 F400.000
G1 X-116.425 Y-13.406 Z-1.998 F400.000
G1 X-117.991 Y-13.735 Z-1.998 F400.000
G1 X-119.553 Y-14.082 Z-1.998 F400.000
G1 X-121.111 Y-14.446 Z-1.998 F400.000
G1 X-122.664 Y-14.830 Z-1.998 F400.000
G1 X-124.019 Y-15.181 Z-1.998 F400.000
G1 X-124.985 Y-15.442 Z-1.998 F400.000
G1 X-126.333 Y-15.820 Z-1.998 F400.000
G1 X-127.676 Y-16.215 Z-1.998 F400.000
G1 X-129.014 Y-16.626 Z-1.998 F400.000
G1 X-130.347 Y-17.055 Z-1.998 F400.000
G1 X-131.674 Y-17.501 Z-1.998 F400.000
G1 X-132.806 Y-17.898 Z-1.998 F400.000
G1 X-133.371 Y-18.101 Z-1.998 F400.000
G1 X-134.683 Y-18.590 Z-1.998 F400.000
G1 X-135.802 Y-19.023 Z-1.998 F400.000
G1 X-136.915 Y-19.471 Z-1.998 F400.000
G1 X-138.207 Y-20.011 Z-1.998 F400.000
G1 X-139.307 Y-20.490 Z-1.998 F400.000
G1 X-140.583 Y-21.067 Z-1.998 F400.000
G1 X-141.669 Y-21.578 Z-1.998 F400.000
G1 X-142.568 Y-22.015 Z-1.998 F400.000
G1 X-143.640 Y-22.554 Z-1.998 F400.000
G1 X-144.705 Y-23.108 Z-1.998 F400.000
G1 X-145.936 Y-23.774 Z-1.998 F400.000
G1 X-146.982 Y-24.361 Z-1.998 F400.000
G1 X-147.848 Y-24.862 Z-1.998 F400.000
G1 X-148.535 Y-25.272 Z-1.998 F400.000
G1 X-148.639 Y-25.413 Z-1.998 F400.000
G1 X-148.639 Y-28.813 Z-1.998 F400.000
G1 X-148.510 Y-28.779 Z-1.998 F400.000
G1 X-147.491 Y-28.144 Z-1.998 F400.000
G1 X-146.463 Y-27.526 Z-1.998 F400.000
G1 X-145.425 Y-26.924 Z-1.998 F400.000
G1 X-144.378 Y-26.337 Z-1.998 F400.000
G1 X-143.499 Y-25.862 Z-1.998 F400.000
G1 X-142.257 Y-25.214 Z-1.998 F400.000
G1 X-141.185 Y-24.676 Z-1.998 F400.000
G1 X-140.105 Y-24.153 Z-1.998 F400.000
G1 X-139.017 Y-23.647 Z-1.998 F400.000
G1 X-137.739 Y-23.075 Z-1.998 F400.000
G1 X-136.636 Y-22.601 Z-1.998 F400.000
G1 X-135.342 Y-22.067 Z-1.998 F400.000
G1 X-134.040 Y-21.554 Z-1.998 F400.000
G1 X-132.730 Y-21.060 Z-1.998 F400.000
G1 X-131.413 Y-20.585 Z-1.998 F400.000
G1 X-130.089 Y-20.129 Z-1.998 F400.000
G1 X-128.759 Y-19.691 Z-1.998 F400.000
G1 X-127.615 Y-19.331 Z-1.998 F400.000
G1 X-126.083 Y-18.869 Z-1.998 F400.000
G1 X-125.507 Y-18.702 Z-1.998 F400.000
G1 X-124.158 Y-18.324 Z-1.998 F400.000
G1 X-122.613 Y-17.911 Z-1.998 F400.000
G1 X-121.061 Y-17.520 Z-1.998 F400.000
G1 X-119.505 Y-17.148 Z-1.998 F400.000
G1 X-118.140 Y-16.837 Z-1.998 F400.000
G1 X-116.576 Y-16.499 Z-1.998 F400.000
G1 X-115.597 Y-16.297 Z-1.998 F400.000
G1 X-114.027 Y-15.987 Z-1.998 F400.000
G1 X-112.257 Y-15.658 Z-1.998 F400.000
G1 X-110.484 Y-15.348 Z-1.998 F400.000
G1 X-108.708 Y-15.056 Z-1.998 F400.000
G1 X-106.929 Y-14.782 Z-1.998 F400.000
G1 X-105.940 Y-14.636 Z-1.998 F400.000
G1 X-103.761 Y-14.332 Z-1.998 F400.000
G1 X-101.778 Y-14.073 Z-1.998 F400.000
G1 X-99.594 Y-13.806 Z-1.998 F400.000
G1 X-97.209 Y-13.535 Z-1.998 F400.000
G1 X-95.221 Y-13.322 Z-1.998 F400.000
G1 X-92.435 Y-13.042 Z-1.998 F400.000
G1 X-90.643 Y-12.871 Z-1.998 F400.000
G1 X-87.057 Y-12.548 Z-1.998 F400.000
G1 X-84.068 Y-12.300 Z-1.998 F400.000
G1 X-80.877 Y-12.053 Z-1.998 F400.000
G1 X-77.486 Y-11.813 Z-1.998 F400.000
G1 X-74.891 Y-11.644 Z-1.998 F400.000
G1 X-71.697 Y-11.452 Z-1.998 F400.000
G1 X-68.502 Y-11.279 Z-1.998 F400.000
G1 X-65.306 Y-11.122 Z-1.998 F400.000
G1 X-61.709 Y-10.967 Z-1.998 F400.000
G1 X-58.311 Y-10.838 Z-1.998 F400.000
G1 X-55.913 Y-10.758 Z-1.998 F400.000
G1 X-52.314 Y-10.655 Z-1.998 F400.000
G1 X-48.915 Y-10.573 Z-1.998 F400.000
G1 X-46.916 Y-10.532 Z-1.998 F400.000
G1 X-43.116 Y-10.470 Z-1.998 F400.000
G1 X-39.116 Y-10.423 Z-1.998 F400.000
G1 X-34.317 Y-10.389 Z-1.998 F400.000
G1 X-29.317 Y-10.375 Z-1.998 F400.000
G1 X-26.517 Y-10.375 Z-1.998 F400.000
G1 X-19.717 Y-10.392 Z-1.998 F400.000
G1 X-9.917 Y-10.437 Z-1.998 F400.000
G1 X-0.317 Y-10.474 Z-1.998 F400.000
G1 X9.283 Y-10.480 Z-1.998 F400.000
G1 X22.083 Y-10.473 Z-1.998 F400.000
G1 X28.683 Y-10.483 Z-1.998 F400.000
G1 X33.283 Y-10.501 Z-1.998 F400.000
G1 X38.283 Y-10.537 Z-1.998 F400.000
G1 X43.883 Y-10.602 Z-1.998 F400.000
G1 X48.082 Y-10.670 Z-1.998 F400.000
G1 X50.482 Y-10.718 Z-1.998 F400.000
G1 X54.081 Y-10.803 Z-1.998 F400.000
G1 X57.679 Y-10.906 Z-1.998 F400.000
G1 X60.678 Y-11.006 Z-1.998 F400.000
G1 X64.075 Y-11.136 Z-1.998 F400.000
G1 X67.871 Y-11.304 Z-1.998 F400.000
G1 X71.067 Y-11.465 Z-1.998 F400.000
G1 X74.062 Y-11.634 Z-1.998 F400.000
G1 X77.057 Y-11.821 Z-1.998 F400.000
G1 X78.853 Y-11.942 Z-1.998 F400.000
G1 X81.645 Y-12.145 Z-1.998 F400.000
G1 X84.237 Y-12.349 Z-1.998 F400.000
G1 X86.628 Y-12.555 Z-1.998 F400.000
G1 X87.624 Y-12.646 Z-1.998 F400.000
G1 X89.814 Y-12.856 Z-1.998 F400.000
G1 X92.201 Y-13.104 Z-1.998 F400.000
G1 X94.388 Y-13.350 Z-1.998 F400.000
G1 X96.373 Y-13.589 Z-1.998 F400.000
G1 X98.357 Y-13.845 Z-1.998 F400.000
G1 X100.536 Y-14.147 Z-1.998 F400.000
G1 X102.317 Y-14.409 Z-1.998 F400.000
G1 X104.293 Y-14.719 Z-1.998 F400.000
G1 X106.265 Y-15.049 Z-1.998 F400.000
G1 X107.250 Y-15.222 Z-1.998 F400.000
G1 X109.021 Y-15.546 Z-1.998 F400.000
G1 X110.788 Y-15.888 Z-1.998 F400.000
G1 X112.551 Y-16.248 Z-1.998 F400.000
G1 X114.116 Y-16.584 Z-1.998 F400.000
G1 X116.066 Y-17.026 Z-1.998 F400.000
G1 X117.623 Y-17.398 Z-1.998 F400.000
G1 X119.369 Y-17.835 Z-1.998 F400.000
G1 X120.916 Y-18.242 Z-1.998 F400.000
G1 X122.459 Y-18.666 Z-1.998 F400.000
G1 X123.805 Y-19.052 Z-1.998 F400.000
G1 X125.720 Y-19.626 Z-1.998 F400.000
G1 X126.294 Y-19.803 Z-1.998 F400.000
G1 X127.627 Y-20.229 Z-1.998 F400.000
G1 X129.146 Y-20.733 Z-1.998 F400.000
G1 X130.658 Y-21.255 Z-1.998 F400.000
G1 X132.164 Y-21.797 Z-1.998 F400.000
G1 X133.475 Y-22.287 Z-1.998 F400.000
G1 X134.967 Y-22.866 Z-1.998 F400.000
G1 X136.080 Y-23.313 Z-1.998 F400.000
G1 X137.373 Y-23.850 Z-1.998 F400.000
G1 X138.843 Y-24.481 Z-1.998 F400.000
G1 X140.304 Y-25.135 Z-1.998 F400.000
G1 X141.394 Y-25.637 Z-1.998 F400.000
G1 X142.658 Y-26.239 Z-1.998 F400.000
G1 X144.093 Y-26.946 Z-1.998 F400.000
G1 X145.518 Y-27.674 Z-1.998 F400.000
G1 X146.755 Y-28.328 Z-1.998 F400.000
G1 X147.984 Y-28.999 Z-1.998 F400.000
G1 X148.508 Y-29.293 Z-1.998 F400.000
G1 X148.638 Y-29.316 Z-1.998 F400.000
G1 X148.639 Y-26.116 Z-1.998 F400.000
G1 X148.618 Y-25.929 Z-1.998 F400.000
G1 X147.914 Y-25.548 Z-1.998 F400.000
G1 X146.675 Y-24.897 Z-1.998 F400.000
G1 X145.428 Y-24.261 Z-1.998 F400.000
G1 X144.172 Y-23.641 Z-1.998 F400.000
G1 X142.909 Y-23.037 Z-1.998 F400.000
G1 X141.458 Y-22.365 Z-1.998 F400.000
G1 X140.728 Y-22.037 Z-1.998 F400.000
G1 X139.446 Y-21.474 Z-1.998 F400.000
G1 X138.157 Y-20.927 Z-1.998 F400.000
G1 X136.677 Y-20.320 Z-1.998 F400.000
G1 X135.375 Y-19.805 Z-1.998 F400.000
G1 X134.067 Y-19.306 Z-1.998 F400.000
G1 X132.566 Y-18.752 Z-1.998 F400.000
G1 X130.869 Y-18.153 Z-1.998 F400.000
G1 X129.353 Y-17.640 Z-1.998 F400.000
G1 X128.022 Y-17.206 Z-1.998 F400.000
G1 X126.495 Y-16.727 Z-1.998 F400.000
G1 X124.963 Y-16.267 Z-1.998 F400.000
G1 X123.426 Y-15.823 Z-1.998 F400.000
G1 X122.269 Y-15.502 Z-1.998 F400.000
G1 X120.530 Y-15.039 Z-1.998 F400.000
G1 X119.173 Y-14.693 Z-1.998 F400.000
G1 X117.619 Y-14.313 Z-1.998 F400.000
G1 X115.866 Y-13.904 Z-1.998 F400.000
G1 X114.109 Y-13.514 Z-1.998 F400.000
G1 X111.956 Y-13.064 Z-1.998 F400.000
G1 X110.190 Y-12.716 Z-1.998 F400.000
G1 X108.617 Y-12.422 Z-1.998 F400.000
G1 X106.648 Y-12.073 Z-1.998 F400.000
G1 X104.675 Y-11.744 Z-1.998 F400.000
G1 X103.490 Y-11.556 Z-1.998 F400.000
G1 X101.710 Y-11.288 Z-1.998 F400.000
G1 X99.532 Y-10.978 Z-1.998 F400.000
G1 X97.549 Y-10.716 Z-1.998 F400.000
G1 X95.365 Y-10.446 Z-1.998 F400.000
G1 X92.981 Y-10.173 Z-1.998 F400.000
G1 X90.793 Y-9.942 Z-1.998 F400.000
G1 X88.405 Y-9.707 Z-1.998 F400.000
G1 X86.014 Y-9.491 Z-1.998 F400.000
G1 X85.018 Y-9.406 Z-1.998 F400.000
G1 X82.227 Y-9.182 Z-1.998 F400.000
G1 X79.435 Y-8.977 Z-1.998 F400.000
G1 X76.441 Y-8.777 Z-1.998 F400.000
G1 X73.846 Y-8.618 Z-1.998 F400.000
G1 X70.651 Y-8.441 Z-1.998 F400.000
G1 X67.655 Y-8.293 Z-1.998 F400.000
G1 X64.058 Y-8.135 Z-1.998 F400.000
G1 X60.861 Y-8.012 Z-1.998 F400.000
G1 X57.262 Y-7.893 Z-1.998 F400.000
G1 X55.463 Y-7.841 Z-1.998 F400.000
G1 X51.864 Y-7.750 Z-1.998 F400.000
G1 X47.665 Y-7.664 Z-1.998 F400.000
G1 X42.666 Y-7.587 Z-1.998 F400.000
G1 X38.266 Y-7.539 Z-1.998 F400.000
G1 X34.466 Y-7.510 Z-1.998 F400.000
G1 X28.466 Y-7.484 Z-1.998 F400.000
G1 X19.066 Y-7.475 Z-1.998 F400.000
G1 X9.266 Y-7.482 Z-1.998 F400.000
G1 X-0.334 Y-7.476 Z-1.998 F400.000
G1 X-9.934 Y-7.439 Z-1.998 F400.000
G1 X-14.754 Y-7.416 Z-1.998 F400.000
(--Break)
G0 Z4.002
G0 X149.239 Y-25.582
(part 7)
G1 X149.239 Y-25.582 Z-1.285 F400.000
G1 X149.063 Y-25.487 Z-1.287 F400.000
G1 X148.535 Y-25.202 Z-1.287 F400.000
G1 X148.183 Y-25.011 Z-1.283 F400.000
G1 X147.475 Y-24.639 Z-1.287 F400.000
G1 X146.944 Y-24.360 Z-1.281 F400.000
G1 X146.053 Y-23.906 Z-1.287 F400.000
G1 X145.696 Y-23.725 Z-1.284 F400.000
G1 X144.800 Y-23.282 Z-1.287 F400.000
G1 X144.441 Y-23.105 Z-1.281 F400.000
G1 X143.900 Y-22.845 Z-1.285 F400.000
G1 X143.178 Y-22.500 Z-1.282 F400.000
G1 X142.453 Y-22.163 Z-1.287 F400.000
G1 X141.544 Y-21.745 Z-1.281 F400.000
G1 X140.997 Y-21.499 Z-1.282 F400.000
G1 X140.814 Y-21.419 Z-1.285 F400.000
G1 X139.715 Y-20.937 Z-1.283 F400.000
G1 X138.795 Y-20.546 Z-1.286 F400.000
G1 X138.426 Y-20.389 Z-1.283 F400.000
G1 X137.687 Y-20.085 Z-1.287 F400.000
G1 X136.946 Y-19.782 Z-1.283 F400.000
G1 X136.202 Y-19.487 Z-1.287 F400.000
G1 X135.645 Y-19.266 Z-1.283 F400.000
G1 X134.524 Y-18.838 Z-1.286 F400.000
G1 X134.150 Y-18.696 Z-1.284 F400.000
G1 X132.836 Y-18.212 Z-1.283 F400.000
G1 X132.460 Y-18.076 Z-1.282 F400.000
G1 X131.705 Y-17.811 Z-1.287 F400.000
G1 X131.139 Y-17.612 Z-1.284 F400.000
G1 X130.192 Y-17.290 Z-1.287 F400.000
G1 X129.624 Y-17.097 Z-1.283 F400.000
G1 X129.244 Y-16.973 Z-1.286 F400.000
G1 X128.103 Y-16.602 Z-1.283 F400.000
G1 X127.721 Y-16.482 Z-1.286 F400.000
G1 X126.576 Y-16.125 Z-1.283 F400.000
G1 X125.809 Y-15.894 Z-1.286 F400.000
G1 X125.043 Y-15.665 Z-1.283 F400.000
G1 X124.082 Y-15.388 Z-1.286 F400.000
G1 X123.506 Y-15.222 Z-1.282 F400.000
G1 X122.349 Y-14.902 Z-1.283 F400.000
G1 X121.769 Y-14.748 Z-1.286 F400.000
G1 X120.803 Y-14.490 Z-1.283 F400.000
G1 X120.415 Y-14.391 Z-1.286 F400.000
G1 X119.253 Y-14.094 Z-1.283 F400.000
G1 X118.087 Y-13.809 Z-1.286 F400.000
G1 X117.504 Y-13.668 Z-1.282 F400.000
G1 X117.114 Y-13.578 Z-1.286 F400.000
G1 X115.945 Y-13.306 Z-1.282 F400.000
G1 X115.555 Y-13.220 Z-1.286 F400.000
G1 X114.383 Y-12.960 Z-1.281 F400.000
G1 X113.405 Y-12.754 Z-1.289 F400.000
G1 X112.230 Y-12.508 Z-1.282 F400.000
G1 X111.642 Y-12.391 Z-1.286 F400.000
G1 X110.465 Y-12.158 Z-1.283 F400.000
G1 X109.678 Y-12.010 Z-1.287 F400.000
G1 X108.695 Y-11.826 Z-1.283 F400.000
G1 X107.711 Y-11.651 Z-1.285 F400.000
G1 X106.726 Y-11.477 Z-1.281 F400.000
G1 X105.740 Y-11.313 Z-1.287 F400.000
G1 X104.753 Y-11.149 Z-1.281 F400.000
G1 X103.568 Y-10.961 Z-1.280 F400.000
G1 X102.975 Y-10.872 Z-1.286 F400.000
G1 X101.788 Y-10.693 Z-1.284 F400.000
G1 X100.600 Y-10.523 Z-1.287 F400.000
G1 X99.610 Y-10.384 Z-1.281 F400.000
G1 X99.015 Y-10.305 Z-1.286 F400.000
G1 X97.627 Y-10.121 Z-1.283 F400.000
G1 X96.436 Y-9.974 Z-1.287 F400.000
G1 X95.444 Y-9.851 Z-1.280 F400.000
G1 X94.848 Y-9.783 Z-1.286 F400.000
G1 X93.059 Y-9.578 Z-1.279 F400.000
G1 X92.264 Y-9.494 Z-1.287 F400.000
G1 X90.872 Y-9.347 Z-1.282 F400.000
G1 X89.478 Y-9.210 Z-1.287 F400.000
G1 X88.483 Y-9.112 Z-1.282 F400.000
G1 X87.886 Y-9.058 Z-1.286 F400.000
G1 X86.093 Y-8.896 Z-1.283 F400.000
G1 X84.897 Y-8.794 Z-1.281 F400.000
G1 X84.100 Y-8.730 Z-1.286 F400.000
G1 X82.306 Y-8.586 Z-1.280 F400.000
G1 X80.710 Y-8.469 Z-1.287 F400.000
G1 X79.513 Y-8.381 Z-1.281 F400.000
G1 X77.917 Y-8.274 Z-1.287 F400.000
G1 X76.320 Y-8.168 Z-1.282 F400.000
G1 X74.524 Y-8.058 Z-1.285 F400.000
G1 X73.725 Y-8.010 Z-1.281 F400.000
G1 X72.527 Y-7.944 Z-1.287 F400.000
G1 X70.730 Y-7.844 Z-1.282 F400.000
G1 X68.832 Y-7.750 Z-1.287 F400.000
G1 X67.534 Y-7.686 Z-1.281 F400.000
G1 X65.935 Y-7.616 Z-1.287 F400.000
G1 X64.337 Y-7.546 Z-1.283 F400.000
G1 X60.739 Y-7.408 Z-1.282 F400.000
G1 X58.940 Y-7.348 Z-1.286 F400.000
G1 X57.341 Y-7.296 Z-1.282 F400.000
G1 X55.542 Y-7.243 Z-1.281 F400.000
G1 X54.342 Y-7.213 Z-1.285 F400.000
G1 X51.743 Y-7.147 Z-1.282 F400.000
G1 X48.944 Y-7.090 Z-1.286 F400.000
G1 X47.744 Y-7.065 Z-1.281 F400.000
G1 X45.344 Y-7.028 Z-1.288 F400.000
G1 X43.744 Y-7.003 Z-1.286 F400.000
G1 X42.745 Y-6.988 Z-1.280 F400.000
G1 X40.745 Y-6.966 Z-1.287 F400.000
G1 X38.145 Y-6.938 Z-1.282 F400.000
G1 X34.345 Y-6.909 Z-1.282 F400.000
G1 X31.145 Y-6.895 Z-1.287 F400.000
G1 X28.745 Y-6.885 Z-1.281 F400.000
G1 X26.345 Y-6.882 Z-1.288 F400.000
G1 X21.345 Y-6.877 Z-1.287 F400.000
G1 X18.945 Y-6.875 Z-1.281 F400.000
G1 X9.345 Y-6.882 Z-1.283 F400.000
G1 X5.145 Y-6.879 Z-1.275 F400.000
G1 X-0.255 Y-6.876 Z-1.282 F400.000
G1 X-6.055 Y-6.854 Z-1.276 F400.000
G1 X-9.855 Y-6.840 Z-1.283 F400.000
G1 X-19.455 Y-6.795 Z-1.281 F400.000
G1 X-23.655 Y-6.782 Z-1.282 F400.000
G1 X-27.255 Y-6.778 Z-1.285 F400.000
G1 X-29.055 Y-6.777 Z-1.280 F400.000
G1 X-30.988 Y-6.782 Z-1.287 F400.000
G1 X-34.455 Y-6.791 Z-1.281 F400.000
G1 X-37.655 Y-6.813 Z-1.285 F400.000
G1 X-38.855 Y-6.822 Z-1.280 F400.000
G1 X-40.855 Y-6.843 Z-1.281 F400.000
G1 X-42.254 Y-6.862 Z-1.286 F400.000
G1 X-44.654 Y-6.894 Z-1.281 F400.000
G1 X-46.654 Y-6.931 Z-1.285 F400.000
G1 X-48.454 Y-6.964 Z-1.280 F400.000
G1 X-50.853 Y-7.018 Z-1.280 F400.000
G1 X-51.853 Y-7.045 Z-1.285 F400.000
G1 X-54.452 Y-7.114 Z-1.281 F400.000
G1 X-56.851 Y-7.190 Z-1.285 F400.000
G1 X-57.850 Y-7.222 Z-1.281 F400.000
G1 X-59.849 Y-7.295 Z-1.284 F400.000
G1 X-60.848 Y-7.332 Z-1.280 F400.000
G1 X-62.646 Y-7.406 Z-1.286 F400.000
G1 X-64.045 Y-7.464 Z-1.280 F400.000
G1 X-65.044 Y-7.510 Z-1.285 F400.000
G1 X-67.442 Y-7.622 Z-1.281 F400.000
G1 X-69.639 Y-7.737 Z-1.285 F400.000
G1 X-70.637 Y-7.789 Z-1.280 F400.000
G1 X-72.035 Y-7.870 Z-1.286 F400.000
G1 X-73.832 Y-7.974 Z-1.281 F400.000
G1 X-76.626 Y-8.151 Z-1.283 F400.000
G1 X-77.225 Y-8.189 Z-1.280 F400.000
G1 X-79.021 Y-8.314 Z-1.286 F400.000
G1 X-80.617 Y-8.426 Z-1.280 F400.000
G1 X-81.614 Y-8.502 Z-1.285 F400.000
G1 X-83.608 Y-8.653 Z-1.281 F400.000
G1 X-85.602 Y-8.816 Z-1.285 F400.000
G1 X-86.797 Y-8.915 Z-1.279 F400.000
G1 X-88.391 Y-9.053 Z-1.281 F400.000
G1 X-89.985 Y-9.198 Z-1.285 F400.000
G1 X-91.379 Y-9.326 Z-1.279 F400.000
G1 X-91.976 Y-9.383 Z-1.282 F400.000
G1 X-93.569 Y-9.537 Z-1.280 F400.000
G1 X-94.763 Y-9.660 Z-1.286 F400.000
G1 X-96.155 Y-9.802 Z-1.281 F400.000
G1 X-96.951 Y-9.887 Z-1.280 F400.000
G1 X-97.547 Y-9.954 Z-1.284 F400.000
G1 X-99.336 Y-10.154 Z-1.282 F400.000
G1 X-100.925 Y-10.343 Z-1.285 F400.000
G1 X-101.520 Y-10.415 Z-1.281 F400.000
G1 X-102.215 Y-10.503 Z-1.285 F400.000
G1 X-103.703 Y-10.694 Z-1.281 F400.000
G1 X-104.693 Y-10.829 Z-1.285 F400.000
G1 X-105.684 Y-10.964 Z-1.281 F400.000
G1 X-106.674 Y-11.109 Z-1.287 F400.000
G1 X-107.861 Y-11.283 Z-1.280 F400.000
G1 X-108.849 Y-11.438 Z-1.286 F400.000
G1 X-109.837 Y-11.594 Z-1.279 F400.000
G1 X-110.527 Y-11.709 Z-1.286 F400.000
G1 X-111.612 Y-11.891 Z-1.280 F400.000
G1 X-112.203 Y-11.996 Z-1.285 F400.000
G1 X-113.187 Y-12.170 Z-1.280 F400.000
G1 X-113.581 Y-12.243 Z-1.284 F400.000
G1 X-114.367 Y-12.391 Z-1.283 F400.000
G1 X-114.957 Y-12.502 Z-1.276 F400.000
G1 X-115.937 Y-12.697 Z-1.284 F400.000
G1 X-116.526 Y-12.814 Z-1.280 F400.000
G1 X-117.113 Y-12.938 Z-1.284 F400.000
G1 X-118.287 Y-13.186 Z-1.282 F400.000
G1 X-119.068 Y-13.359 Z-1.285 F400.000
G1 X-119.654 Y-13.489 Z-1.279 F400.000
G1 X-120.433 Y-13.671 Z-1.285 F400.000
G1 X-121.212 Y-13.853 Z-1.281 F400.000
G1 X-121.795 Y-13.997 Z-1.285 F400.000
G1 X-122.571 Y-14.188 Z-1.280 F400.000
G1 X-123.153 Y-14.337 Z-1.285 F400.000
G1 X-124.121 Y-14.587 Z-1.280 F400.000
G1 X-124.314 Y-14.639 Z-1.282 F400.000
G1 X-125.086 Y-14.847 Z-1.280 F400.000
G1 X-125.857 Y-15.063 Z-1.285 F400.000
G1 X-126.434 Y-15.225 Z-1.280 F400.000
G1 X-127.010 Y-15.394 Z-1.285 F400.000
G1 X-127.778 Y-15.619 Z-1.282 F400.000
G1 X-129.307 Y-16.090 Z-1.282 F400.000
G1 X-130.449 Y-16.457 Z-1.282 F400.000
G1 X-131.018 Y-16.647 Z-1.285 F400.000
G1 X-131.777 Y-16.902 Z-1.279 F400.000
G1 X-132.343 Y-17.100 Z-1.285 F400.000
G1 X-133.098 Y-17.365 Z-1.279 F400.000
G1 X-133.662 Y-17.569 Z-1.281 F400.000
G1 X-134.224 Y-17.778 Z-1.285 F400.000
G1 X-134.787 Y-17.987 Z-1.279 F400.000
G1 X-135.533 Y-18.276 Z-1.284 F400.000
G1 X-136.092 Y-18.493 Z-1.281 F400.000
G1 X-136.649 Y-18.717 Z-1.285 F400.000
G1 X-137.206 Y-18.941 Z-1.279 F400.000
G1 X-137.575 Y-19.095 Z-1.284 F400.000
G1 X-138.313 Y-19.404 Z-1.281 F400.000
G1 X-139.597 Y-19.962 Z-1.281 F400.000
G1 X-139.961 Y-20.126 Z-1.284 F400.000
G1 X-140.690 Y-20.456 Z-1.280 F400.000
G1 X-141.234 Y-20.710 Z-1.286 F400.000
G1 X-141.958 Y-21.051 Z-1.278 F400.000
G1 X-142.407 Y-21.270 Z-1.283 F400.000
G1 X-142.857 Y-21.488 Z-1.279 F400.000
G1 X-143.572 Y-21.848 Z-1.284 F400.000
G1 X-144.107 Y-22.119 Z-1.280 F400.000
G1 X-144.993 Y-22.582 Z-1.281 F400.000
G1 X-145.522 Y-22.866 Z-1.285 F400.000
G1 X-146.050 Y-23.151 Z-1.282 F400.000
G1 X-147.271 Y-23.835 Z-1.282 F400.000
G1 X-148.137 Y-24.336 Z-1.282 F400.000
G1 X-148.824 Y-24.746 Z-1.284 F400.000
G1 X-149.167 Y-24.951 Z-1.282 F400.000
G1 X-149.239 Y-25.111 Z-1.492 F400.000
G1 X-149.239 Y-25.311 Z-1.858 F400.000
G1 X-149.239 Y-25.511 Z-1.998 F400.000
G1 X-149.239 Y-29.911 Z-1.998 F400.000
G1 X-149.115 Y-29.883 Z-1.998 F400.000
G1 X-148.276 Y-29.340 Z-1.998 F400.000
G1 X-147.258 Y-28.704 Z-1.998 F400.000
G1 X-146.230 Y-28.085 Z-1.998 F400.000
G1 X-145.193 Y-27.482 Z-1.998 F400.000
G1 X-144.146 Y-26.895 Z-1.998 F400.000
G1 X-143.090 Y-26.324 Z-1.998 F400.000
G1 X-142.026 Y-25.770 Z-1.998 F400.000
G1 X-140.954 Y-25.231 Z-1.998 F400.000
G1 X-139.874 Y-24.708 Z-1.998 F400.000
G1 X-138.786 Y-24.201 Z-1.998 F400.000
G1 X-137.508 Y-23.629 Z-1.998 F400.000
G1 X-136.406 Y-23.155 Z-1.998 F400.000
G1 X-135.112 Y-22.621 Z-1.998 F400.000
G1 X-133.809 Y-22.108 Z-1.998 F400.000
G1 X-132.499 Y-21.614 Z-1.998 F400.000
G1 X-131.182 Y-21.140 Z-1.998 F400.000
G1 X-129.858 Y-20.685 Z-1.998 F400.000
G1 X-128.718 Y-20.309 Z-1.998 F400.000
G1 X-127.383 Y-19.887 Z-1.998 F400.000
G1 X-126.043 Y-19.483 Z-1.998 F400.000
G1 X-125.275 Y-19.260 Z-1.998 F400.000
G1 X-123.927 Y-18.882 Z-1.998 F400.000
G1 X-122.574 Y-18.522 Z-1.998 F400.000
G1 X-120.829 Y-18.081 Z-1.998 F400.000
G1 X-119.467 Y-17.754 Z-1.998 F400.000
G1 X-117.907 Y-17.400 Z-1.998 F400.000
G1 X-116.343 Y-17.063 Z-1.998 F400.000
G1 X-115.559 Y-16.902 Z-1.998 F400.000
G1 X-113.990 Y-16.592 Z-1.998 F400.000
G1 X-112.220 Y-16.261 Z-1.998 F400.000
G1 X-110.447 Y-15.950 Z-1.998 F400.000
G1 X-108.671 Y-15.658 Z-1.998 F400.000
G1 X-106.695 Y-15.353 Z-1.998 F400.000
G1 X-105.903 Y-15.237 Z-1.998 F400.000
G1 X-103.724 Y-14.932 Z-1.998 F400.000
G1 X-101.741 Y-14.673 Z-1.998 F400.000
G1 X-99.359 Y-14.383 Z-1.998 F400.000
G1 X-97.173 Y-14.134 Z-1.998 F400.000
G1 X-95.184 Y-13.922 Z-1.998 F400.000
G1 X-92.199 Y-13.621 Z-1.998 F400.000
G1 X-90.407 Y-13.451 Z-1.998 F400.000
G1 X-87.021 Y-13.147 Z-1.998 F400.000
G1 X-84.031 Y-12.899 Z-1.998 F400.000
G1 X-80.841 Y-12.652 Z-1.998 F400.000
G1 X-77.449 Y-12.412 Z-1.998 F400.000
G1 X-74.855 Y-12.243 Z-1.998 F400.000
G1 X-71.661 Y-12.051 Z-1.998 F400.000
G1 X-68.465 Y-11.878 Z-1.998 F400.000
G1 X-65.269 Y-11.721 Z-1.998 F400.000
G1 X-61.872 Y-11.574 Z-1.998 F400.000
G1 X-58.075 Y-11.430 Z-1.998 F400.000
G1 X-55.876 Y-11.358 Z-1.998 F400.000
G1 X-52.478 Y-11.259 Z-1.998 F400.000
G1 X-48.479 Y-11.164 Z-1.998 F400.000
G1 X-46.879 Y-11.132 Z-1.998 F400.000
G1 X-43.080 Y-11.069 Z-1.998 F400.000
G1 X-39.080 Y-11.022 Z-1.998 F400.000
G1 X-34.280 Y-10.989 Z-1.998 F400.000
G1 X-29.480 Y-10.975 Z-1.998 F400.000
G1 X-26.480 Y-10.975 Z-1.998 F400.000
G1 X-19.680 Y-10.992 Z-1.998 F400.000
G1 X-10.080 Y-11.037 Z-1.998 F400.000
G1 X-0.280 Y-11.074 Z-1.998 F400.000
G1 X9.320 Y-11.080 Z-1.998 F400.000
G1 X21.920 Y-11.073 Z-1.998 F400.000
G1 X28.720 Y-11.083 Z-1.998 F400.000
G1 X33.320 Y-11.102 Z-1.998 F400.000
G1 X38.320 Y-11.137 Z-1.998 F400.000
G1 X43.919 Y-11.202 Z-1.998 F400.000
G1 X48.119 Y-11.271 Z-1.998 F400.000
G1 X50.318 Y-11.315 Z-1.998 F400.000
G1 X54.117 Y-11.405 Z-1.998 F400.000
G1 X57.916 Y-11.514 Z-1.998 F400.000
G1 X60.714 Y-11.607 Z-1.998 F400.000
G1 X64.111 Y-11.738 Z-1.998 F400.000
G1 X67.908 Y-11.906 Z-1.998 F400.000
G1 X70.904 Y-12.058 Z-1.998 F400.000
G1 X73.899 Y-12.226 Z-1.998 F400.000
G1 X77.093 Y-12.425 Z-1.998 F400.000
G1 X78.889 Y-12.546 Z-1.998 F400.000
G1 X81.482 Y-12.734 Z-1.998 F400.000
G1 X84.273 Y-12.955 Z-1.998 F400.000
G1 X86.665 Y-13.160 Z-1.998 F400.000
G1 X87.461 Y-13.233 Z-1.998 F400.000
G1 X89.850 Y-13.463 Z-1.998 F400.000
G1 X92.038 Y-13.690 Z-1.998 F400.000
G1 X94.225 Y-13.935 Z-1.998 F400.000
G1 X96.409 Y-14.198 Z-1.998 F400.000
G1 X98.392 Y-14.455 Z-1.998 F400.000
G1 X100.374 Y-14.729 Z-1.998 F400.000
G1 X102.154 Y-14.992 Z-1.998 F400.000
G1 X104.130 Y-15.301 Z-1.998 F400.000
G1 X106.103 Y-15.630 Z-1.998 F400.000
G1 X107.088 Y-15.802 Z-1.998 F400.000
G1 X108.859 Y-16.126 Z-1.998 F400.000
G1 X110.626 Y-16.467 Z-1.998 F400.000
G1 X112.390 Y-16.827 Z-1.998 F400.000
G1 X114.149 Y-17.206 Z-1.998 F400.000
G1 X115.710 Y-17.559 Z-1.998 F400.000
G1 X117.461 Y-17.976 Z-1.998 F400.000
G1 X119.207 Y-18.413 Z-1.998 F400.000
G1 X120.755 Y-18.820 Z-1.998 F400.000
G1 X122.105 Y-19.191 Z-1.998 F400.000
G1 X123.835 Y-19.685 Z-1.998 F400.000
G1 X125.559 Y-20.204 Z-1.998 F400.000
G1 X126.132 Y-20.382 Z-1.998 F400.000
G1 X127.466 Y-20.808 Z-1.998 F400.000
G1 X128.984 Y-21.311 Z-1.998 F400.000
G1 X130.685 Y-21.901 Z-1.998 F400.000
G1 X132.002 Y-22.377 Z-1.998 F400.000
G1 X133.313 Y-22.867 Z-1.998 F400.000
G1 X134.804 Y-23.447 Z-1.998 F400.000
G1 X135.917 Y-23.895 Z-1.998 F400.000
G1 X137.210 Y-24.432 Z-1.998 F400.000
G1 X138.496 Y-24.985 Z-1.998 F400.000
G1 X139.958 Y-25.636 Z-1.998 F400.000
G1 X141.229 Y-26.223 Z-1.998 F400.000
G1 X142.493 Y-26.825 Z-1.998 F400.000
G1 X143.927 Y-27.534 Z-1.998 F400.000
G1 X145.174 Y-28.171 Z-1.998 F400.000
G1 X146.412 Y-28.825 Z-1.998 F400.000
G1 X147.641 Y-29.494 Z-1.998 F400.000
G1 X148.862 Y-30.180 Z-1.998 F400.000
G1 X149.208 Y-30.381 Z-1.998 F400.000
G1 X149.238 Y-30.233 Z-1.998 F400.000
G1 X149.239 Y-26.233 Z-1.998 F400.000
G1 X149.239 Y-25.833 Z-1.757 F400.000
G1 X149.239 Y-25.582 Z-1.285 F400.000
(--Break)
G0 Z4.002
G0 X55.518 Y-6.642
(part 9)
G1 X55.518 Y-6.642 Z-0.000 F400.000
G1 X54.785 Y-6.624 Z-0.000 F400.000
G1 X51.720 Y-6.546 Z-0.000 F400.000
G1 X47.920 Y-6.468 Z-0.000 F400.000
G1 X42.721 Y-6.388 Z-0.000 F400.000
G1 X38.121 Y-6.337 Z-0.000 F400.000
G1 X34.521 Y-6.311 Z-0.000 F400.000
G1 X28.521 Y-6.284 Z-0.000 F400.000
G1 X18.921 Y-6.275 Z-0.000 F400.000
G1 X9.321 Y-6.282 Z-0.000 F400.000
G1 X-0.279 Y-6.276 Z0.000 F400.000
G1 X-9.878 Y-6.240 Z0.000 F400.000
G1 X-19.478 Y-6.195 Z0.000 F400.000
G1 X-23.678 Y-6.182 Z0.000 F400.000
G1 X-29.078 Y-6.177 Z0.000 F400.000
G1 X-34.478 Y-6.191 Z0.000 F400.000
G1 X-38.878 Y-6.222 Z0.000 F400.000
G1 X-40.878 Y-6.243 Z0.000 F400.000
G1 X-44.678 Y-6.295 Z0.000 F400.000
G1 X-48.277 Y-6.361 Z0.000 F400.000
G1 X-50.876 Y-6.419 Z0.000 F400.000
G1 X-54.475 Y-6.515 Z0.000 F400.000
G1 X-58.073 Y-6.629 Z0.000 F400.000
G1 X-60.871 Y-6.732 Z0.001 F400.000
G1 X-64.269 Y-6.873 Z0.001 F400.000
G1 X-67.465 Y-7.023 Z0.001 F400.000
G1 X-70.860 Y-7.201 Z0.001 F400.000
G1 X-74.055 Y-7.386 Z0.001 F400.000
G1 X-77.448 Y-7.603 Z0.001 F400.000
G1 X-80.640 Y-7.827 Z0.001 F400.000
G1 X-83.632 Y-8.053 Z0.001 F400.000
G1 X-87.020 Y-8.332 Z0.001 F400.000
G1 X-88.415 Y-8.453 Z0.001 F400.000
G1 X-91.403 Y-8.725 Z0.001 F400.000
G1 X-93.592 Y-8.937 Z0.001 F400.000
G1 X-96.378 Y-9.222 Z0.001 F400.000
G1 X-99.360 Y-9.552 Z0.001 F400.000
G1 X-101.743 Y-9.838 Z0.001 F400.000
G1 X-103.726 Y-10.091 Z0.001 F400.000
G1 X-105.708 Y-10.362 Z0.001 F400.000
G1 X-108.083 Y-10.710 Z0.001 F400.000
G1 X-109.861 Y-10.990 Z0.001 F400.000
G1 X-111.636 Y-11.286 Z0.001 F400.000
G1 X-113.409 Y-11.600 Z0.001 F400.000
G1 X-115.177 Y-11.934 Z0.001 F400.000
G1 X-116.550 Y-12.207 Z0.001 F400.000
G1 X-118.312 Y-12.577 Z0.001 F400.000
G1 X-119.874 Y-12.924 Z0.001 F400.000
G1 X-121.237 Y-13.243 Z0.001 F400.000
G1 X-122.791 Y-13.624 Z0.001 F400.000
G1 X-124.340 Y-14.024 Z0.001 F400.000
G1 X-125.306 Y-14.285 Z0.001 F400.000
G1 X-126.653 Y-14.664 Z0.001 F400.000
G1 X-128.188 Y-15.117 Z0.001 F400.000
G1 X-129.335 Y-15.469 Z0.001 F400.000
G1 X-130.668 Y-15.897 Z0.001 F400.000
G1 X-131.995 Y-16.343 Z0.001 F400.000
G1 X-133.316 Y-16.806 Z0.001 F400.000
G1 X-133.880 Y-17.011 Z0.001 F400.000
G1 X-135.005 Y-17.428 Z0.001 F400.000
G1 X-136.311 Y-17.934 Z0.001 F400.000
G1 X-137.424 Y-18.382 Z0.001 F400.000
G1 X-138.531 Y-18.845 Z0.001 F400.000
G1 X-139.815 Y-19.402 Z0.001 F400.000
G1 X-141.091 Y-19.980 Z0.001 F400.000
G1 X-142.177 Y-20.490 Z0.001 F400.000
G1 X-143.076 Y-20.928 Z0.001 F400.000
G1 X-144.326 Y-21.557 Z0.001 F400.000
G1 X-145.390 Y-22.113 Z0.001 F400.000
G1 X-146.445 Y-22.684 Z0.001 F400.000
G1 X-147.318 Y-23.172 Z0.001 F400.000
G1 X-148.531 Y-23.872 Z0.001 F400.000
G1 X-149.389 Y-24.385 Z0.001 F400.000
G1 X-149.730 Y-24.594 Z0.001 F400.000
G1 X-149.839 Y-24.733 Z0.001 F400.000
G1 X-149.839 Y-30.933 Z0.001 F400.000
G1 X-149.800 Y-31.061 Z-1.998 F400.000
G1 X-148.970 Y-30.505 Z-1.998 F400.000
G1 X-147.962 Y-29.852 Z-1.998 F400.000
G1 X-146.945 Y-29.216 Z-1.998 F400.000
G1 X-145.917 Y-28.597 Z-1.998 F400.000
G1 X-144.880 Y-27.994 Z-1.998 F400.000
G1 X-143.833 Y-27.407 Z-1.998 F400.000
G1 X-142.953 Y-26.931 Z-1.998 F400.000
G1 X-141.890 Y-26.374 Z-1.998 F400.000
G1 X-140.640 Y-25.745 Z-1.998 F400.000
G1 X-139.559 Y-25.223 Z-1.998 F400.000
G1 X-138.471 Y-24.717 Z-1.998 F400.000
G1 X-137.376 Y-24.226 Z-1.998 F400.000
G1 X-136.090 Y-23.673 Z-1.998 F400.000
G1 X-134.981 Y-23.215 Z-1.998 F400.000
G1 X-133.492 Y-22.629 Z-1.998 F400.000
G1 X-132.369 Y-22.206 Z-1.998 F400.000
G1 X-131.052 Y-21.730 Z-1.998 F400.000
G1 X-129.729 Y-21.274 Z-1.998 F400.000
G1 X-128.399 Y-20.836 Z-1.998 F400.000
G1 X-127.063 Y-20.416 Z-1.998 F400.000
G1 X-125.723 Y-20.014 Z-1.998 F400.000
G1 X-125.338 Y-19.902 Z-1.998 F400.000
G1 X-123.798 Y-19.469 Z-1.998 F400.000
G1 X-122.252 Y-19.058 Z-1.998 F400.000
G1 X-120.895 Y-18.714 Z-1.998 F400.000
G1 X-119.339 Y-18.341 Z-1.998 F400.000
G1 X-117.779 Y-17.986 Z-1.998 F400.000
G1 X-116.215 Y-17.649 Z-1.998 F400.000
G1 X-115.431 Y-17.488 Z-1.998 F400.000
G1 X-113.861 Y-17.178 Z-1.998 F400.000
G1 X-112.092 Y-16.848 Z-1.998 F400.000
G1 X-110.319 Y-16.537 Z-1.998 F400.000
G1 X-108.543 Y-16.245 Z-1.998 F400.000
G1 X-106.764 Y-15.970 Z-1.998 F400.000
G1 X-105.577 Y-15.796 Z-1.998 F400.000
G1 X-103.794 Y-15.547 Z-1.998 F400.000
G1 X-101.613 Y-15.261 Z-1.998 F400.000
G1 X-99.429 Y-14.995 Z-1.998 F400.000
G1 X-97.044 Y-14.724 Z-1.998 F400.000
G1 X-95.055 Y-14.511 Z-1.998 F400.000
G1 X-92.269 Y-14.231 Z-1.998 F400.000
G1 X-90.278 Y-14.042 Z-1.998 F400.000
G1 X-87.091 Y-13.756 Z-1.998 F400.000
G1 X-83.902 Y-13.490 Z-1.998 F400.000
G1 X-80.911 Y-13.259 Z-1.998 F400.000
G1 X-77.320 Y-13.005 Z-1.998 F400.000
G1 X-74.925 Y-12.848 Z-1.998 F400.000
G1 X-71.731 Y-12.656 Z-1.998 F400.000
G1 X-68.536 Y-12.482 Z-1.998 F400.000
G1 X-65.340 Y-12.325 Z-1.998 F400.000
G1 X-61.743 Y-12.169 Z-1.998 F400.000
G1 X-58.146 Y-12.033 Z-1.998 F400.000
G1 X-55.947 Y-11.960 Z-1.998 F400.000
G1 X-52.348 Y-11.856 Z-1.998 F400.000
G1 X-48.749 Y-11.770 Z-1.998 F400.000
G1 X-46.750 Y-11.730 Z-1.998 F400.000
G1 X-42.950 Y-11.668 Z-1.998 F400.000
G1 X-39.151 Y-11.623 Z-1.998 F400.000
G1 X-34.151 Y-11.588 Z-1.998 F400.000
G1 X-29.351 Y-11.575 Z-1.998 F400.000
G1 X-26.551 Y-11.575 Z-1.998 F400.000
G1 X-19.751 Y-11.592 Z-1.998 F400.000
G1 X-9.951 Y-11.637 Z-1.998 F400.000
G1 X-0.351 Y-11.674 Z-1.998 F400.000
G1 X9.249 Y-11.680 Z-1.998 F400.000
G1 X22.049 Y-11.673 Z-1.998 F400.000
G1 X28.649 Y-11.682 Z-1.998 F400.000
G1 X33.449 Y-11.702 Z-1.998 F400.000
G1 X38.249 Y-11.737 Z-1.998 F400.000
G1 X43.849 Y-11.801 Z-1.998 F400.000
G1 X48.248 Y-11.873 Z-1.998 F400.000
G1 X50.248 Y-11.913 Z-1.998 F400.000
G1 X54.046 Y-12.003 Z-1.998 F400.000
G1 X57.645 Y-12.105 Z-1.998 F400.000
G1 X60.643 Y-12.205 Z-1.998 F400.000
G1 X64.041 Y-12.335 Z-1.998 F400.000
G1 X67.238 Y-12.475 Z-1.998 F400.000
G1 X71.033 Y-12.665 Z-1.998 F400.000
G1 X74.028 Y-12.834 Z-1.998 F400.000
G1 X76.823 Y-13.009 Z-1.998 F400.000
G1 X78.818 Y-13.143 Z-1.998 F400.000
G1 X81.611 Y-13.346 Z-1.998 F400.000
G1 X84.203 Y-13.551 Z-1.998 F400.000
G1 X86.594 Y-13.757 Z-1.998 F400.000
G1 X87.391 Y-13.829 Z-1.998 F400.000
G1 X89.780 Y-14.059 Z-1.998 F400.000
G1 X91.968 Y-14.286 Z-1.998 F400.000
G1 X94.154 Y-14.531 Z-1.998 F400.000
G1 X96.338 Y-14.794 Z-1.998 F400.000
G1 X98.322 Y-15.051 Z-1.998 F400.000
G1 X100.303 Y-15.325 Z-1.998 F400.000
G1 X102.282 Y-15.618 Z-1.998 F400.000
G1 X104.060 Y-15.897 Z-1.998 F400.000
G1 X106.229 Y-16.261 Z-1.998 F400.000
G1 X107.017 Y-16.399 Z-1.998 F400.000
G1 X108.788 Y-16.723 Z-1.998 F400.000
G1 X110.555 Y-17.065 Z-1.998 F400.000
G1 X112.319 Y-17.425 Z-1.998 F400.000
G1 X113.883 Y-17.762 Z-1.998 F400.000
G1 X115.639 Y-18.158 Z-1.998 F400.000
G1 X117.390 Y-18.576 Z-1.998 F400.000
G1 X118.942 Y-18.965 Z-1.998 F400.000
G1 X120.683 Y-19.422 Z-1.998 F400.000
G1 X122.225 Y-19.847 Z-1.998 F400.000
G1 X123.571 Y-20.233 Z-1.998 F400.000
G1 X125.104 Y-20.692 Z-1.998 F400.000
G1 X125.868 Y-20.928 Z-1.998 F400.000
G1 X127.392 Y-21.414 Z-1.998 F400.000
G1 X128.721 Y-21.856 Z-1.998 F400.000
G1 X130.233 Y-22.377 Z-1.998 F400.000
G1 X131.739 Y-22.919 Z-1.998 F400.000
G1 X133.050 Y-23.409 Z-1.998 F400.000
G1 X134.728 Y-24.062 Z-1.998 F400.000
G1 X135.655 Y-24.436 Z-1.998 F400.000
G1 X136.948 Y-24.972 Z-1.998 F400.000
G1 X138.235 Y-25.525 Z-1.998 F400.000
G1 X139.696 Y-26.176 Z-1.998 F400.000
G1 X140.967 Y-26.763 Z-1.998 F400.000
G1 X142.231 Y-27.365 Z-1.998 F400.000
G1 X143.666 Y-28.074 Z-1.998 F400.000
G1 X144.912 Y-28.711 Z-1.998 F400.000
G1 X146.150 Y-29.365 Z-1.998 F400.000
G1 X147.204 Y-29.939 Z-1.998 F400.000
G1 X148.600 Y-30.721 Z-1.998 F400.000
G1 X149.811 Y-31.424 Z-1.998 F400.000
G1 X149.838 Y-31.273 Z-0.001 F400.000
G1 X149.839 Y-25.273 Z-0.001 F400.000
G1 X149.704 Y-25.152 Z-0.001 F400.000
G1 X148.296 Y-24.392 Z-0.001 F400.000
G1 X147.234 Y-23.835 Z-0.001 F400.000
G1 X145.986 Y-23.199 Z-0.001 F400.000
G1 X144.551 Y-22.491 Z-0.001 F400.000
G1 X143.288 Y-21.888 Z-0.001 F400.000
G1 X142.017 Y-21.301 Z-0.001 F400.000
G1 X141.653 Y-21.136 Z-0.001 F400.000
G1 X141.288 Y-20.972 Z-0.001 F400.000
G1 X139.822 Y-20.330 Z-0.001 F400.000
G1 X138.533 Y-19.784 Z-0.001 F400.000
G1 X137.238 Y-19.252 Z-0.001 F400.000
G1 X135.936 Y-18.737 Z-0.001 F400.000
G1 X134.442 Y-18.164 Z-0.001 F400.000
G1 X133.129 Y-17.680 Z-0.001 F400.000
G1 X132.564 Y-17.477 Z-0.001 F400.000
G1 X131.243 Y-17.012 Z-0.001 F400.000
G1 X129.917 Y-16.563 Z-0.001 F400.000
G1 X128.397 Y-16.066 Z-0.001 F400.000
G1 X126.870 Y-15.587 Z-0.001 F400.000
G1 X125.146 Y-15.070 Z-0.001 F400.000
G1 X123.608 Y-14.628 Z-0.001 F400.000
G1 X122.644 Y-14.361 Z-0.001 F400.000
G1 X121.099 Y-13.947 Z-0.001 F400.000
G1 X119.355 Y-13.501 Z-0.001 F400.000
G1 X117.801 Y-13.122 Z-0.001 F400.000
G1 X116.047 Y-12.714 Z-0.001 F400.000
G1 X114.485 Y-12.368 Z-0.001 F400.000
G1 X112.136 Y-11.877 Z-0.001 F400.000
G1 X110.566 Y-11.567 Z-0.001 F400.000
G1 X108.600 Y-11.199 Z-0.001 F400.000
G1 X106.828 Y-10.886 Z-0.001 F400.000
G1 X105.053 Y-10.589 Z-0.001 F400.000
G1 X103.670 Y-10.370 Z-0.001 F400.000
G1 X101.692 Y-10.072 Z-0.001 F400.000
G1 X99.712 Y-9.792 Z-0.001 F400.000
G1 X97.729 Y-9.529 Z-0.001 F400.000
G1 X95.546 Y-9.259 Z-0.001 F400.000
G1 X93.161 Y-8.986 Z-0.001 F400.000
G1 X90.974 Y-8.754 Z-0.001 F400.000
G1 X88.585 Y-8.519 Z-0.001 F400.000
G1 X86.195 Y-8.303 Z-0.001 F400.000
G1 X84.999 Y-8.200 Z-0.001 F400.000
G1 X82.408 Y-7.993 Z-0.001 F400.000
G1 X79.615 Y-7.787 Z-0.001 F400.000
G1 X76.422 Y-7.573 Z-0.001 F400.000
G1 X73.827 Y-7.415 Z-0.001 F400.000
G1 X70.832 Y-7.249 Z-0.001 F400.000
G1 X67.436 Y-7.081 Z-0.001 F400.000
G1 X64.239 Y-6.941 Z-0.001 F400.000
G1 X60.842 Y-6.811 Z-0.000 F400.000
G1 X57.443 Y-6.699 Z-0.000 F400.000
G1 X55.518 Y-6.642 Z-0.000 F400.000
(--Break)
G0 Z4.002
G0 X55.535 Y-6.043
(part 11)
G1 X55.535 Y-6.043 Z-0.000 F400.000
G1 X55.135 Y-6.032 Z-0.000 F400.000
G1 X51.736 Y-5.947 Z-0.000 F400.000
G1 X47.937 Y-5.869 Z-0.000 F400.000
G1 X42.737 Y-5.788 Z-0.000 F400.000
G1 X38.138 Y-5.738 Z-0.000 F400.000
G1 X34.338 Y-5.709 Z-0.000 F400.000
G1 X28.538 Y-5.684 Z-0.000 F400.000
G1 X18.938 Y-5.675 Z-0.000 F400.000
G1 X9.338 Y-5.682 Z-0.000 F400.000
G1 X-0.262 Y-5.676 Z0.000 F400.000
G1 X-9.862 Y-5.640 Z0.000 F400.000
G1 X-19.662 Y-5.594 Z0.000 F400.000
G1 X-23.662 Y-5.582 Z0.000 F400.000
G1 X-29.062 Y-5.577 Z0.000 F400.000
G1 X-34.462 Y-5.591 Z0.000 F400.000
G1 X-38.862 Y-5.622 Z0.000 F400.000
G1 X-40.862 Y-5.643 Z0.000 F400.000
G1 X-44.661 Y-5.694 Z0.000 F400.000
G1 X-48.461 Y-5.764 Z0.000 F400.000
G1 X-50.860 Y-5.818 Z0.000 F400.000
G1 X-54.459 Y-5.914 Z0.000 F400.000
G1 X-57.857 Y-6.022 Z0.000 F400.000
G1 X-60.855 Y-6.131 Z0.001 F400.000
G1 X-64.252 Y-6.272 Z0.001 F400.000
G1 X-67.449 Y-6.421 Z0.001 F400.000
G1 X-70.844 Y-6.599 Z0.001 F400.000
G1 X-74.039 Y-6.784 Z0.001 F400.000
G1 X-77.232 Y-6.987 Z0.001 F400.000
G1 X-80.624 Y-7.224 Z0.001 F400.000
G1 X-83.815 Y-7.466 Z0.001 F400.000
G1 X-87.203 Y-7.745 Z0.001 F400.000
G1 X-88.598 Y-7.867 Z0.001 F400.000
G1 X-91.387 Y-8.121 Z0.001 F400.000
G1 X-93.775 Y-8.352 Z0.001 F400.000
G1 X-96.958 Y-8.681 Z0.001 F400.000
G1 X-99.344 Y-8.947 Z0.001 F400.000
G1 X-101.727 Y-9.231 Z0.001 F400.000
G1 X-103.711 Y-9.484 Z0.001 F400.000
G1 X-105.692 Y-9.754 Z0.001 F400.000
G1 X-108.067 Y-10.101 Z0.001 F400.000
G1 X-110.043 Y-10.412 Z0.001 F400.000
G1 X-111.621 Y-10.675 Z0.001 F400.000
G1 X-113.590 Y-11.024 Z0.001 F400.000
G1 X-115.163 Y-11.320 Z0.001 F400.000
G1 X-116.732 Y-11.632 Z0.001 F400.000
G1 X-118.493 Y-12.003 Z0.001 F400.000
G1 X-119.860 Y-12.306 Z0.001 F400.000
G1 X-121.418 Y-12.669 Z0.001 F400.000
G1 X-122.972 Y-13.051 Z0.001 F400.000
G1 X-124.328 Y-13.401 Z0.001 F400.000
G1 X-125.486 Y-13.713 Z0.001 F400.000
G1 X-126.834 Y-14.091 Z0.001 F400.000
G1 X-128.178 Y-14.486 Z0.001 F400.000
G1 X-129.516 Y-14.897 Z0.001 F400.000
G1 X-130.849 Y-15.325 Z0.001 F400.000
G1 X-132.176 Y-15.771 Z0.001 F400.000
G1 X-133.686 Y-16.301 Z0.001 F400.000
G1 X-134.061 Y-16.438 Z0.001 F400.000
G1 X-135.373 Y-16.927 Z0.001 F400.000
G1 X-136.492 Y-17.360 Z0.001 F400.000
G1 X-137.790 Y-17.885 Z0.001 F400.000
G1 X-138.897 Y-18.348 Z0.001 F400.000
G1 X-139.998 Y-18.827 Z0.001 F400.000
G1 X-141.273 Y-19.403 Z0.001 F400.000
G1 X-142.360 Y-19.913 Z0.001 F400.000
G1 X-143.439 Y-20.438 Z0.001 F400.000
G1 X-144.511 Y-20.977 Z0.001 F400.000
G1 X-145.575 Y-21.532 Z0.001 F400.000
G1 X-146.631 Y-22.101 Z0.001 F400.000
G1 X-147.679 Y-22.686 Z0.001 F400.000
G1 X-148.718 Y-23.286 Z0.001 F400.000
G1 X-149.749 Y-23.901 Z0.001 F400.000
G1 X-150.430 Y-24.321 Z0.001 F400.000
G1 X-150.439 Y-24.516 Z0.001 F400.000
G1 X-150.439 Y-32.116 Z0.001 F400.000
G1 X-150.370 Y-32.183 Z0.001 F400.000
G1 X-149.877 Y-31.841 Z0.001 F400.000
G1 X-149.712 Y-31.728 Z-1.998 F400.000
G1 X-149.548 Y-31.614 Z-1.998 F400.000
G1 X-148.550 Y-30.947 Z-1.998 F400.000
G1 X-147.710 Y-30.404 Z-1.998 F400.000
G1 X-146.694 Y-29.766 Z-1.998 F400.000
G1 X-145.667 Y-29.146 Z-1.998 F400.000
G1 X-144.630 Y-28.542 Z-1.998 F400.000
G1 X-143.583 Y-27.955 Z-1.998 F400.000
G1 X-142.527 Y-27.384 Z-1.998 F400.000
G1 X-141.641 Y-26.921 Z-1.998 F400.000
G1 X-140.391 Y-26.291 Z-1.998 F400.000
G1 X-139.310 Y-25.769 Z-1.998 F400.000
G1 X-138.223 Y-25.263 Z-1.998 F400.000
G1 X-137.127 Y-24.772 Z-1.998 F400.000
G1 X-136.025 Y-24.297 Z-1.998 F400.000
G1 X-134.732 Y-23.762 Z-1.998 F400.000
G1 X-133.243 Y-23.176 Z-1.998 F400.000
G1 X-132.120 Y-22.753 Z-1.998 F400.000
G1 X-130.803 Y-22.278 Z-1.998 F400.000
G1 X-129.479 Y-21.823 Z-1.998 F400.000
G1 X-128.149 Y-21.386 Z-1.998 F400.000
G1 X-126.813 Y-20.968 Z-1.998 F400.000
G1 X-125.664 Y-20.622 Z-1.998 F400.000
G1 X-125.088 Y-20.455 Z-1.998 F400.000
G1 X-123.547 Y-20.023 Z-1.998 F400.000
G1 X-122.194 Y-19.662 Z-1.998 F400.000
G1 X-120.643 Y-19.271 Z-1.998 F400.000
G1 X-119.282 Y-18.943 Z-1.998 F400.000
G1 X-117.722 Y-18.588 Z-1.998 F400.000
G1 X-116.158 Y-18.250 Z-1.998 F400.000
G1 X-115.374 Y-18.089 Z-1.998 F400.000
G1 X-113.608 Y-17.740 Z-1.998 F400.000
G1 X-112.035 Y-17.447 Z-1.998 F400.000
G1 X-110.262 Y-17.136 Z-1.998 F400.000
G1 X-108.486 Y-16.844 Z-1.998 F400.000
G1 X-106.510 Y-16.539 Z-1.998 F400.000
G1 X-105.520 Y-16.394 Z-1.998 F400.000
G1 X-103.539 Y-16.118 Z-1.998 F400.000
G1 X-101.556 Y-15.859 Z-1.998 F400.000
G1 X-99.372 Y-15.593 Z-1.998 F400.000
G1 X-96.988 Y-15.321 Z-1.998 F400.000
G1 X-94.999 Y-15.109 Z-1.998 F400.000
G1 X-92.213 Y-14.829 Z-1.998 F400.000
G1 X-90.222 Y-14.639 Z-1.998 F400.000
G1 X-87.035 Y-14.353 Z-1.998 F400.000
G1 X-83.846 Y-14.087 Z-1.998 F400.000
G1 X-80.855 Y-13.857 Z-1.998 F400.000
G1 X-77.264 Y-13.602 Z-1.998 F400.000
G1 X-74.869 Y-13.446 Z-1.998 F400.000
G1 X-71.675 Y-13.254 Z-1.998 F400.000
G1 X-68.479 Y-13.080 Z-1.998 F400.000
G1 X-65.283 Y-12.923 Z-1.998 F400.000
G1 X-61.687 Y-12.767 Z-1.998 F400.000
G1 X-58.289 Y-12.638 Z-1.998 F400.000
G1 X-55.890 Y-12.558 Z-1.998 F400.000
G1 X-52.292 Y-12.454 Z-1.998 F400.000
G1 X-48.893 Y-12.373 Z-1.998 F400.000
G1 X-46.893 Y-12.332 Z-1.998 F400.000
G1 X-43.094 Y-12.270 Z-1.998 F400.000
G1 X-39.094 Y-12.223 Z-1.998 F400.000
G1 X-34.294 Y-12.189 Z-1.998 F400.000
G1 X-29.494 Y-12.175 Z-1.998 F400.000
G1 X-26.494 Y-12.175 Z-1.998 F400.000
G1 X-19.694 Y-12.192 Z-1.998 F400.000
G1 X-10.094 Y-12.237 Z-1.998 F400.000
G1 X-0.294 Y-12.274 Z-1.998 F400.000
G1 X9.306 Y-12.280 Z-1.998 F400.000
G1 X22.106 Y-12.273 Z-1.998 F400.000
G1 X28.506 Y-12.282 Z-1.998 F400.000
G1 X33.306 Y-12.302 Z-1.998 F400.000
G1 X38.305 Y-12.337 Z-1.998 F400.000
G1 X43.905 Y-12.402 Z-1.998 F400.000
G1 X48.104 Y-12.471 Z-1.998 F400.000
G1 X50.304 Y-12.515 Z-1.998 F400.000
G1 X53.903 Y-12.600 Z-1.998 F400.000
G1 X57.701 Y-12.707 Z-1.998 F400.000
G1 X60.700 Y-12.808 Z-1.998 F400.000
G1 X64.097 Y-12.938 Z-1.998 F400.000
G1 X67.094 Y-13.070 Z-1.998 F400.000
G1 X70.890 Y-13.258 Z-1.998 F400.000
G1 X73.885 Y-13.427 Z-1.998 F400.000
G1 X76.879 Y-13.613 Z-1.998 F400.000
G1 X78.675 Y-13.734 Z-1.998 F400.000
G1 X81.468 Y-13.936 Z-1.998 F400.000
G1 X84.060 Y-14.141 Z-1.998 F400.000
G1 X86.451 Y-14.347 Z-1.998 F400.000
G1 X87.447 Y-14.437 Z-1.998 F400.000
G1 X89.836 Y-14.668 Z-1.998 F400.000
G1 X92.024 Y-14.896 Z-1.998 F400.000
G1 X94.011 Y-15.118 Z-1.998 F400.000
G1 X96.196 Y-15.381 Z-1.998 F400.000
G1 X98.179 Y-15.637 Z-1.998 F400.000
G1 X100.358 Y-15.940 Z-1.998 F400.000
G1 X102.139 Y-16.203 Z-1.998 F400.000
G1 X103.917 Y-16.482 Z-1.998 F400.000
G1 X106.087 Y-16.845 Z-1.998 F400.000
G1 X106.875 Y-16.983 Z-1.998 F400.000
G1 X108.646 Y-17.307 Z-1.998 F400.000
G1 X110.413 Y-17.648 Z-1.998 F400.000
G1 X111.981 Y-17.968 Z-1.998 F400.000
G1 X113.741 Y-18.345 Z-1.998 F400.000
G1 X115.691 Y-18.787 Z-1.998 F400.000
G1 X117.442 Y-19.207 Z-1.998 F400.000
G1 X118.800 Y-19.548 Z-1.998 F400.000
G1 X120.347 Y-19.953 Z-1.998 F400.000
G1 X121.890 Y-20.376 Z-1.998 F400.000
G1 X123.428 Y-20.817 Z-1.998 F400.000
G1 X125.153 Y-21.334 Z-1.998 F400.000
G1 X125.726 Y-21.512 Z-1.998 F400.000
G1 X127.059 Y-21.937 Z-1.998 F400.000
G1 X128.578 Y-22.441 Z-1.998 F400.000
G1 X130.090 Y-22.963 Z-1.998 F400.000
G1 X131.408 Y-23.437 Z-1.998 F400.000
G1 X132.907 Y-23.996 Z-1.998 F400.000
G1 X134.398 Y-24.576 Z-1.998 F400.000
G1 X135.326 Y-24.950 Z-1.998 F400.000
G1 X136.619 Y-25.485 Z-1.998 F400.000
G1 X138.090 Y-26.116 Z-1.998 F400.000
G1 X139.368 Y-26.686 Z-1.998 F400.000
G1 X140.640 Y-27.271 Z-1.998 F400.000
G1 X141.904 Y-27.873 Z-1.998 F400.000
G1 X143.339 Y-28.581 Z-1.998 F400.000
G1 X144.586 Y-29.218 Z-1.998 F400.000
G1 X145.824 Y-29.871 Z-1.998 F400.000
G1 X147.054 Y-30.541 Z-1.998 F400.000
G1 X148.274 Y-31.226 Z-1.998 F400.000
G1 X149.485 Y-31.929 Z-1.998 F400.000
G1 X149.829 Y-32.134 Z-1.998 F400.000
G1 X150.000 Y-32.236 Z-0.001 F400.000
G1 X150.344 Y-32.441 Z-0.001 F400.000
G1 X150.438 Y-32.408 Z-0.001 F400.000
G1 X150.439 Y-25.008 Z-0.001 F400.000
G1 X150.381 Y-24.842 Z-0.001 F400.000
G1 X149.856 Y-24.552 Z-0.001 F400.000
G1 X148.801 Y-23.981 Z-0.001 F400.000
G1 X147.384 Y-23.237 Z-0.001 F400.000
G1 X146.136 Y-22.603 Z-0.001 F400.000
G1 X145.060 Y-22.072 Z-0.001 F400.000
G1 X143.617 Y-21.380 Z-0.001 F400.000
G1 X141.982 Y-20.626 Z-0.001 F400.000
G1 X141.435 Y-20.381 Z-0.001 F400.000
G1 X140.153 Y-19.819 Z-0.001 F400.000
G1 X138.864 Y-19.271 Z-0.001 F400.000
G1 X137.384 Y-18.664 Z-0.001 F400.000
G1 X136.082 Y-18.149 Z-0.001 F400.000
G1 X134.587 Y-17.578 Z-0.001 F400.000
G1 X133.086 Y-17.026 Z-0.001 F400.000
G1 X131.388 Y-16.428 Z-0.001 F400.000
G1 X130.062 Y-15.979 Z-0.001 F400.000
G1 X128.541 Y-15.482 Z-0.001 F400.000
G1 X127.014 Y-15.004 Z-0.001 F400.000
G1 X125.482 Y-14.543 Z-0.001 F400.000
G1 X123.752 Y-14.045 Z-0.001 F400.000
G1 X122.788 Y-13.778 Z-0.001 F400.000
G1 X121.049 Y-13.314 Z-0.001 F400.000
G1 X119.499 Y-12.919 Z-0.001 F400.000
G1 X117.750 Y-12.494 Z-0.001 F400.000
G1 X116.191 Y-12.131 Z-0.001 F400.000
G1 X114.434 Y-11.743 Z-0.001 F400.000
G1 X112.476 Y-11.333 Z-0.001 F400.000
G1 X110.514 Y-10.946 Z-0.001 F400.000
G1 X108.745 Y-10.616 Z-0.001 F400.000
G1 X106.972 Y-10.302 Z-0.001 F400.000
G1 X105.197 Y-10.005 Z-0.001 F400.000
G1 X103.814 Y-9.785 Z-0.001 F400.000
G1 X101.837 Y-9.486 Z-0.001 F400.000
G1 X99.856 Y-9.206 Z-0.001 F400.000
G1 X97.675 Y-8.918 Z-0.001 F400.000
G1 X95.492 Y-8.649 Z-0.001 F400.000
G1 X93.306 Y-8.398 Z-0.001 F400.000
G1 X90.920 Y-8.145 Z-0.001 F400.000
G1 X88.531 Y-7.911 Z-0.001 F400.000
G1 X86.141 Y-7.695 Z-0.001 F400.000
G1 X84.945 Y-7.594 Z-0.001 F400.000
G1 X82.353 Y-7.386 Z-0.001 F400.000
G1 X79.561 Y-7.182 Z-0.001 F400.000
G1 X76.568 Y-6.981 Z-0.001 F400.000
G1 X73.972 Y-6.823 Z-0.001 F400.000
G1 X70.777 Y-6.645 Z-0.001 F400.000
G1 X67.581 Y-6.487 Z-0.001 F400.000
G1 X64.384 Y-6.347 Z-0.000 F400.000
G1 X60.987 Y-6.216 Z-0.000 F400.000
G1 X57.389 Y-6.096 Z-0.000 F400.000
G1 X55.535 Y-6.043 Z-0.000 F400.000
(--Break)
G0 Z4.002
G0 X73.915 Y-6.218
(part 13)
G1 X73.915 Y-6.218 Z-0.001 F400.000
G1 X73.116 Y-6.174 Z-0.001 F400.000
G1 X70.720 Y-6.042 Z-0.001 F400.000
G1 X67.724 Y-5.893 Z-0.001 F400.000
G1 X64.327 Y-5.744 Z-0.000 F400.000
G1 X60.930 Y-5.613 Z-0.000 F400.000
G1 X57.332 Y-5.494 Z-0.000 F400.000
G1 X55.532 Y-5.442 Z-0.000 F400.000
G1 X51.933 Y-5.351 Z-0.000 F400.000
G1 X47.934 Y-5.268 Z-0.000 F400.000
G1 X42.735 Y-5.188 Z-0.000 F400.000
G1 X38.135 Y-5.138 Z-0.000 F400.000
G1 X34.335 Y-5.109 Z-0.000 F400.000
G1 X28.535 Y-5.084 Z-0.000 F400.000
G1 X18.935 Y-5.075 Z-0.000 F400.000
G1 X9.335 Y-5.082 Z-0.000 F400.000
G1 X-0.465 Y-5.076 Z0.000 F400.000
G1 X-9.865 Y-5.040 Z0.000 F400.000
G1 X-19.664 Y-4.994 Z0.000 F400.000
G1 X-23.664 Y-4.982 Z0.000 F400.000
G1 X-29.064 Y-4.977 Z0.000 F400.000
G1 X-34.464 Y-4.991 Z0.000 F400.000
G1 X-38.664 Y-5.020 Z0.000 F400.000
G1 X-40.864 Y-5.043 Z0.000 F400.000
G1 X-44.664 Y-5.094 Z0.000 F400.000
G1 X-48.663 Y-5.168 Z0.000 F400.000
G1 X-50.863 Y-5.218 Z0.000 F400.000
G1 X-54.461 Y-5.314 Z0.000 F400.000
G1 X-58.060 Y-5.428 Z0.000 F400.000
G1 X-60.858 Y-5.530 Z0.001 F400.000
G1 X-64.255 Y-5.671 Z0.001 F400.000
G1 X-67.651 Y-5.831 Z0.001 F400.000
G1 X-70.847 Y-5.998 Z0.001 F400.000
G1 X-74.041 Y-6.183 Z0.001 F400.000
G1 X-77.235 Y-6.386 Z0.001 F400.000
G1 X-80.627 Y-6.622 Z0.001 F400.000
G1 X-83.817 Y-6.864 Z0.001 F400.000
G1 X-86.807 Y-7.109 Z0.001 F400.000
G1 X-88.601 Y-7.264 Z0.001 F400.000
G1 X-91.787 Y-7.557 Z0.001 F400.000
G1 X-93.778 Y-7.749 Z0.001 F400.000
G1 X-96.365 Y-8.014 Z0.001 F400.000
G1 X-97.160 Y-8.099 Z0.001 F400.000
G1 X-99.545 Y-8.366 Z0.001 F400.000
G1 X-101.730 Y-8.627 Z0.001 F400.000
G1 X-103.912 Y-8.906 Z0.001 F400.000
G1 X-105.893 Y-9.176 Z0.001 F400.000
G1 X-108.268 Y-9.525 Z0.001 F400.000
G1 X-110.046 Y-9.804 Z0.001 F400.000
G1 X-111.822 Y-10.100 Z0.001 F400.000
G1 X-113.594 Y-10.414 Z0.001 F400.000
G1 X-115.363 Y-10.747 Z0.001 F400.000
G1 X-116.932 Y-11.060 Z0.001 F400.000
G1 X-118.498 Y-11.389 Z0.001 F400.000
G1 X-120.060 Y-11.736 Z0.001 F400.000
G1 X-121.618 Y-12.100 Z0.001 F400.000
G1 X-122.977 Y-12.434 Z0.001 F400.000
G1 X-124.720 Y-12.884 Z0.001 F400.000
G1 X-125.685 Y-13.146 Z0.001 F400.000
G1 X-127.033 Y-13.524 Z0.001 F400.000
G1 X-128.376 Y-13.919 Z0.001 F400.000
G1 X-129.715 Y-14.331 Z0.001 F400.000
G1 X-131.047 Y-14.759 Z0.001 F400.000
G1 X-132.375 Y-15.204 Z0.001 F400.000
G1 X-133.696 Y-15.667 Z0.001 F400.000
G1 X-134.260 Y-15.871 Z0.001 F400.000
G1 X-135.385 Y-16.289 Z0.001 F400.000
G1 X-136.691 Y-16.794 Z0.001 F400.000
G1 X-137.989 Y-17.317 Z0.001 F400.000
G1 X-139.096 Y-17.781 Z0.001 F400.000
G1 X-140.380 Y-18.340 Z0.001 F400.000
G1 X-141.473 Y-18.834 Z0.001 F400.000
G1 X-142.740 Y-19.430 Z0.001 F400.000
G1 X-143.639 Y-19.867 Z0.001 F400.000
G1 X-144.712 Y-20.406 Z0.001 F400.000
G1 X-145.776 Y-20.960 Z0.001 F400.000
G1 X-147.009 Y-21.624 Z0.001 F400.000
G1 X-148.056 Y-22.210 Z0.001 F400.000
G1 X-149.095 Y-22.811 Z0.001 F400.000
G1 X-150.124 Y-23.427 Z0.001 F400.000
G1 X-150.975 Y-23.953 Z0.001 F400.000
G1 X-151.039 Y-24.117 Z0.001 F400.000
G1 X-151.039 Y-33.317 Z0.001 F400.000
G1 X-150.943 Y-33.329 Z0.001 F400.000
G1 X-150.130 Y-32.747 Z0.001 F400.000
G1 X-149.965 Y-32.633 Z0.001 F400.000
G1 X-149.637 Y-32.405 Z-1.998 F400.000
G1 X-149.143 Y-32.065 Z-1.998 F400.000
G1 X-148.144 Y-31.399 Z-1.998 F400.000
G1 X-147.305 Y-30.856 Z-1.998 F400.000
G1 X-146.287 Y-30.220 Z-1.998 F400.000
G1 X-145.258 Y-29.602 Z-1.998 F400.000
G1 X-144.394 Y-29.099 Z-1.998 F400.000
G1 X-143.348 Y-28.511 Z-1.998 F400.000
G1 X-142.293 Y-27.939 Z-1.998 F400.000
G1 X-141.229 Y-27.384 Z-1.998 F400.000
G1 X-140.157 Y-26.845 Z-1.998 F400.000
G1 X-139.077 Y-26.322 Z-1.998 F400.000
G1 X-137.989 Y-25.815 Z-1.998 F400.000
G1 X-136.894 Y-25.325 Z-1.998 F400.000
G1 X-135.792 Y-24.850 Z-1.998 F400.000
G1 X-134.498 Y-24.315 Z-1.998 F400.000
G1 X-133.009 Y-23.729 Z-1.998 F400.000
G1 X-131.886 Y-23.306 Z-1.998 F400.000
G1 X-130.569 Y-22.832 Z-1.998 F400.000
G1 X-129.245 Y-22.378 Z-1.998 F400.000
G1 X-128.105 Y-22.002 Z-1.998 F400.000
G1 X-126.770 Y-21.581 Z-1.998 F400.000
G1 X-125.429 Y-21.178 Z-1.998 F400.000
G1 X-124.853 Y-21.011 Z-1.998 F400.000
G1 X-123.312 Y-20.581 Z-1.998 F400.000
G1 X-121.959 Y-20.222 Z-1.998 F400.000
G1 X-120.601 Y-19.878 Z-1.998 F400.000
G1 X-119.046 Y-19.505 Z-1.998 F400.000
G1 X-117.485 Y-19.150 Z-1.998 F400.000
G1 X-115.921 Y-18.814 Z-1.998 F400.000
G1 X-115.138 Y-18.653 Z-1.998 F400.000
G1 X-113.568 Y-18.343 Z-1.998 F400.000
G1 X-111.798 Y-18.014 Z-1.998 F400.000
G1 X-110.025 Y-17.705 Z-1.998 F400.000
G1 X-108.249 Y-17.414 Z-1.998 F400.000
G1 X-106.470 Y-17.139 Z-1.998 F400.000
G1 X-105.678 Y-17.023 Z-1.998 F400.000
G1 X-103.499 Y-16.718 Z-1.998 F400.000
G1 X-101.516 Y-16.459 Z-1.998 F400.000
G1 X-99.332 Y-16.192 Z-1.998 F400.000
G1 X-96.948 Y-15.920 Z-1.998 F400.000
G1 X-94.959 Y-15.708 Z-1.998 F400.000
G1 X-92.173 Y-15.428 Z-1.998 F400.000
G1 X-90.182 Y-15.238 Z-1.998 F400.000
G1 X-86.995 Y-14.952 Z-1.998 F400.000
G1 X-83.806 Y-14.686 Z-1.998 F400.000
G1 X-80.815 Y-14.455 Z-1.998 F400.000
G1 X-77.224 Y-14.201 Z-1.998 F400.000
G1 X-74.829 Y-14.045 Z-1.998 F400.000
G1 X-71.635 Y-13.853 Z-1.998 F400.000
G1 X-68.440 Y-13.679 Z-1.998 F400.000
G1 X-65.243 Y-13.522 Z-1.998 F400.000
G1 X-61.647 Y-13.366 Z-1.998 F400.000
G1 X-58.249 Y-13.237 Z-1.998 F400.000
G1 X-55.851 Y-13.158 Z-1.998 F400.000
G1 X-52.252 Y-13.054 Z-1.998 F400.000
G1 X-48.853 Y-12.973 Z-1.998 F400.000
G1 X-46.854 Y-12.932 Z-1.998 F400.000
G1 X-43.054 Y-12.869 Z-1.998 F400.000
G1 X-39.054 Y-12.822 Z-1.998 F400.000
G1 X-34.254 Y-12.789 Z-1.998 F400.000
G1 X-29.454 Y-12.775 Z-1.998 F400.000
G1 X-26.454 Y-12.775 Z-1.998 F400.000
G1 X-19.654 Y-12.792 Z-1.998 F400.000
G1 X-10.055 Y-12.837 Z-1.998 F400.000
G1 X-0.255 Y-12.874 Z-1.998 F400.000
G1 X9.345 Y-12.880 Z-1.998 F400.000
G1 X21.945 Y-12.873 Z-1.998 F400.000
G1 X28.545 Y-12.882 Z-1.998 F400.000
G1 X33.345 Y-12.902 Z-1.998 F400.000
G1 X38.345 Y-12.938 Z-1.998 F400.000
G1 X43.945 Y-13.003 Z-1.998 F400.000
G1 X48.144 Y-13.072 Z-1.998 F400.000
G1 X50.344 Y-13.116 Z-1.998 F400.000
G1 X53.943 Y-13.201 Z-1.998 F400.000
G1 X57.741 Y-13.309 Z-1.998 F400.000
G1 X60.740 Y-13.410 Z-1.998 F400.000
G1 X63.937 Y-13.532 Z-1.998 F400.000
G1 X67.134 Y-13.672 Z-1.998 F400.000
G1 X70.929 Y-13.861 Z-1.998 F400.000
G1 X73.925 Y-14.030 Z-1.998 F400.000
G1 X76.719 Y-14.205 Z-1.998 F400.000
G1 X78.715 Y-14.338 Z-1.998 F400.000
G1 X81.507 Y-14.541 Z-1.998 F400.000
G1 X84.099 Y-14.746 Z-1.998 F400.000
G1 X86.490 Y-14.952 Z-1.998 F400.000
G1 X87.287 Y-15.025 Z-1.998 F400.000
G1 X89.676 Y-15.254 Z-1.998 F400.000
G1 X91.864 Y-15.482 Z-1.998 F400.000
G1 X94.051 Y-15.727 Z-1.998 F400.000
G1 X96.235 Y-15.991 Z-1.998 F400.000
G1 X98.218 Y-16.248 Z-1.998 F400.000
G1 X100.199 Y-16.523 Z-1.998 F400.000
G1 X101.980 Y-16.786 Z-1.998 F400.000
G1 X103.758 Y-17.064 Z-1.998 F400.000
G1 X105.928 Y-17.426 Z-1.998 F400.000
G1 X106.716 Y-17.564 Z-1.998 F400.000
G1 X108.487 Y-17.888 Z-1.998 F400.000
G1 X110.254 Y-18.229 Z-1.998 F400.000
G1 X112.018 Y-18.588 Z-1.998 F400.000
G1 X113.778 Y-18.968 Z-1.998 F400.000
G1 X115.533 Y-19.366 Z-1.998 F400.000
G1 X117.283 Y-19.786 Z-1.998 F400.000
G1 X118.641 Y-20.126 Z-1.998 F400.000
G1 X120.189 Y-20.532 Z-1.998 F400.000
G1 X121.732 Y-20.955 Z-1.998 F400.000
G1 X123.270 Y-21.396 Z-1.998 F400.000
G1 X124.994 Y-21.913 Z-1.998 F400.000
G1 X125.567 Y-22.091 Z-1.998 F400.000
G1 X127.091 Y-22.578 Z-1.998 F400.000
G1 X128.420 Y-23.020 Z-1.998 F400.000
G1 X129.932 Y-23.543 Z-1.998 F400.000
G1 X131.249 Y-24.017 Z-1.998 F400.000
G1 X132.747 Y-24.578 Z-1.998 F400.000
G1 X134.238 Y-25.159 Z-1.998 F400.000
G1 X135.166 Y-25.532 Z-1.998 F400.000
G1 X136.459 Y-26.069 Z-1.998 F400.000
G1 X137.746 Y-26.621 Z-1.998 F400.000
G1 X139.025 Y-27.190 Z-1.998 F400.000
G1 X140.478 Y-27.859 Z-1.998 F400.000
G1 X141.742 Y-28.462 Z-1.998 F400.000
G1 X142.997 Y-29.081 Z-1.998 F400.000
G1 X144.244 Y-29.717 Z-1.998 F400.000
G1 X145.483 Y-30.370 Z-1.998 F400.000
G1 X146.713 Y-31.038 Z-1.998 F400.000
G1 X147.934 Y-31.723 Z-1.998 F400.000
G1 X149.317 Y-32.527 Z-1.998 F400.000
G1 X150.176 Y-33.040 Z-0.001 F400.000
G1 X151.029 Y-33.562 Z-0.001 F400.000
G1 X151.038 Y-33.380 Z-0.001 F400.000
G1 X151.039 Y-24.580 Z-0.001 F400.000
G1 X150.915 Y-24.452 Z-0.001 F400.000
G1 X150.215 Y-24.064 Z-0.001 F400.000
G1 X148.984 Y-23.398 Z-0.001 F400.000
G1 X147.744 Y-22.748 Z-0.001 F400.000
G1 X146.497 Y-22.112 Z-0.001 F400.000
G1 X145.241 Y-21.493 Z-0.001 F400.000
G1 X143.979 Y-20.888 Z-0.001 F400.000
G1 X142.345 Y-20.132 Z-0.001 F400.000
G1 X141.798 Y-19.886 Z-0.001 F400.000
G1 X140.333 Y-19.243 Z-0.001 F400.000
G1 X139.044 Y-18.696 Z-0.001 F400.000
G1 X137.749 Y-18.165 Z-0.001 F400.000
G1 X136.262 Y-17.575 Z-0.001 F400.000
G1 X134.954 Y-17.075 Z-0.001 F400.000
G1 X133.453 Y-16.521 Z-0.001 F400.000
G1 X133.077 Y-16.385 Z-0.001 F400.000
G1 X131.567 Y-15.855 Z-0.001 F400.000
G1 X130.241 Y-15.406 Z-0.001 F400.000
G1 X128.720 Y-14.909 Z-0.001 F400.000
G1 X127.193 Y-14.431 Z-0.001 F400.000
G1 X125.661 Y-13.970 Z-0.001 F400.000
G1 X124.124 Y-13.527 Z-0.001 F400.000
G1 X122.967 Y-13.205 Z-0.001 F400.000
G1 X121.228 Y-12.741 Z-0.001 F400.000
G1 X119.678 Y-12.345 Z-0.001 F400.000
G1 X117.929 Y-11.919 Z-0.001 F400.000
G1 X116.371 Y-11.557 Z-0.001 F400.000
G1 X114.613 Y-11.168 Z-0.001 F400.000
G1 X112.460 Y-10.718 Z-0.001 F400.000
G1 X110.694 Y-10.369 Z-0.001 F400.000
G1 X108.925 Y-10.038 Z-0.001 F400.000
G1 X107.152 Y-9.724 Z-0.001 F400.000
G1 X105.180 Y-9.394 Z-0.001 F400.000
G1 X103.797 Y-9.175 Z-0.001 F400.000
G1 X101.819 Y-8.878 Z-0.001 F400.000
G1 X99.839 Y-8.598 Z-0.001 F400.000
G1 X97.856 Y-8.336 Z-0.001 F400.000
G1 X95.673 Y-8.066 Z-0.001 F400.000
G1 X93.288 Y-7.793 Z-0.001 F400.000
G1 X91.101 Y-7.561 Z-0.001 F400.000
G1 X88.712 Y-7.326 Z-0.001 F400.000
G1 X86.123 Y-7.091 Z-0.001 F400.000
G1 X85.126 Y-7.007 Z-0.001 F400.000
G1 X82.535 Y-6.799 Z-0.001 F400.000
G1 X79.543 Y-6.579 Z-0.001 F400.000
G1 X76.549 Y-6.379 Z-0.001 F400.000
G1 X73.915 Y-6.218 Z-0.001 F400.000
(--Break)
G0 Z4.002
G0 X151.343 Y-34.403
(part 15)
G1 X151.343 Y-34.403 Z-0.001 F400.000
G1 X151.527 Y-34.335 Z-0.001 F400.000
G1 X151.631 Y-34.168 Z-0.001 F400.000
G1 X151.638 Y-33.969 Z-0.001 F400.000
G1 X151.639 Y-24.369 Z-0.001 F400.000
G1 X151.588 Y-24.179 Z-0.001 F400.000
G1 X151.434 Y-24.055 Z-0.001 F400.000
G1 X150.560 Y-23.569 Z-0.001 F400.000
G1 X149.329 Y-22.902 Z-0.001 F400.000
G1 X148.090 Y-22.251 Z-0.001 F400.000
G1 X146.664 Y-21.525 Z-0.001 F400.000
G1 X145.408 Y-20.906 Z-0.001 F400.000
G1 X143.964 Y-20.218 Z-0.001 F400.000
G1 X142.511 Y-19.548 Z-0.001 F400.000
G1 X141.963 Y-19.303 Z-0.001 F400.000
G1 X140.681 Y-18.740 Z-0.001 F400.000
G1 X139.208 Y-18.115 Z-0.001 F400.000
G1 X137.913 Y-17.584 Z-0.001 F400.000
G1 X136.425 Y-16.995 Z-0.001 F400.000
G1 X135.118 Y-16.495 Z-0.001 F400.000
G1 X133.616 Y-15.942 Z-0.001 F400.000
G1 X131.919 Y-15.342 Z-0.001 F400.000
G1 X130.404 Y-14.828 Z-0.001 F400.000
G1 X128.883 Y-14.332 Z-0.001 F400.000
G1 X127.356 Y-13.853 Z-0.001 F400.000
G1 X125.632 Y-13.337 Z-0.001 F400.000
G1 X124.094 Y-12.895 Z-0.001 F400.000
G1 X123.131 Y-12.628 Z-0.001 F400.000
G1 X121.585 Y-12.214 Z-0.001 F400.000
G1 X119.841 Y-11.767 Z-0.001 F400.000
G1 X118.092 Y-11.341 Z-0.001 F400.000
G1 X116.534 Y-10.979 Z-0.001 F400.000
G1 X114.777 Y-10.589 Z-0.001 F400.000
G1 X112.623 Y-10.138 Z-0.001 F400.000
G1 X110.858 Y-9.789 Z-0.001 F400.000
G1 X109.088 Y-9.458 Z-0.001 F400.000
G1 X107.316 Y-9.144 Z-0.001 F400.000
G1 X105.344 Y-8.813 Z-0.001 F400.000
G1 X103.961 Y-8.593 Z-0.001 F400.000
G1 X101.983 Y-8.295 Z-0.001 F400.000
G1 X100.003 Y-8.015 Z-0.001 F400.000
G1 X97.822 Y-7.727 Z-0.001 F400.000
G1 X95.837 Y-7.481 Z-0.001 F400.000
G1 X93.453 Y-7.207 Z-0.001 F400.000
G1 X91.066 Y-6.954 Z-0.001 F400.000
G1 X88.678 Y-6.720 Z-0.001 F400.000
G1 X86.287 Y-6.504 Z-0.001 F400.000
G1 X85.092 Y-6.402 Z-0.001 F400.000
G1 X82.500 Y-6.194 Z-0.001 F400.000
G1 X79.708 Y-5.989 Z-0.001 F400.000
G1 X76.515 Y-5.775 Z-0.001 F400.000
G1 X73.919 Y-5.617 Z-0.001 F400.000
G1 X70.924 Y-5.451 Z-0.001 F400.000
G1 X67.728 Y-5.293 Z-0.001 F400.000
G1 X64.531 Y-5.152 Z-0.000 F400.000
G1 X60.934 Y-5.013 Z-0.000 F400.000
G1 X57.536 Y-4.901 Z-0.000 F400.000
G1 X55.537 Y-4.842 Z-0.000 F400.000
G1 X51.738 Y-4.746 Z-0.000 F400.000
G1 X47.939 Y-4.668 Z-0.000 F400.000
G1 X42.739 Y-4.588 Z-0.000 F400.000
G1 X38.139 Y-4.538 Z-0.000 F400.000
G1 X34.340 Y-4.509 Z-0.000 F400.000
G1 X28.540 Y-4.484 Z-0.000 F400.000
G1 X19.140 Y-4.475 Z-0.000 F400.000
G1 X9.340 Y-4.482 Z-0.000 F400.000
G1 X-0.260 Y-4.476 Z0.000 F400.000
G1 X-9.860 Y-4.440 Z0.000 F400.000
G1 X-19.460 Y-4.395 Z0.000 F400.000
G1 X-23.860 Y-4.381 Z0.000 F400.000
G1 X-29.060 Y-4.377 Z0.000 F400.000
G1 X-34.460 Y-4.391 Z0.000 F400.000
G1 X-38.660 Y-4.420 Z0.000 F400.000
G1 X-40.660 Y-4.440 Z0.000 F400.000
G1 X-44.660 Y-4.494 Z0.000 F400.000
G1 X-48.459 Y-4.564 Z0.000 F400.000
G1 X-50.858 Y-4.618 Z0.000 F400.000
G1 X-54.457 Y-4.713 Z0.000 F400.000
G1 X-58.255 Y-4.834 Z0.000 F400.000
G1 X-60.853 Y-4.930 Z0.001 F400.000
G1 X-64.250 Y-5.070 Z0.001 F400.000
G1 X-67.647 Y-5.230 Z0.001 F400.000
G1 X-70.842 Y-5.397 Z0.001 F400.000
G1 X-74.037 Y-5.582 Z0.001 F400.000
G1 X-77.230 Y-5.784 Z0.001 F400.000
G1 X-80.622 Y-6.021 Z0.001 F400.000
G1 X-83.813 Y-6.262 Z0.001 F400.000
G1 X-86.803 Y-6.507 Z0.001 F400.000
G1 X-88.596 Y-6.662 Z0.001 F400.000
G1 X-91.584 Y-6.934 Z0.001 F400.000
G1 X-93.774 Y-7.146 Z0.001 F400.000
G1 X-96.559 Y-7.431 Z0.001 F400.000
G1 X-99.541 Y-7.761 Z0.001 F400.000
G1 X-101.924 Y-8.047 Z0.001 F400.000
G1 X-103.908 Y-8.300 Z0.001 F400.000
G1 X-105.889 Y-8.570 Z0.001 F400.000
G1 X-108.264 Y-8.917 Z0.001 F400.000
G1 X-110.042 Y-9.196 Z0.001 F400.000
G1 X-112.015 Y-9.525 Z0.001 F400.000
G1 X-113.787 Y-9.840 Z0.001 F400.000
G1 X-115.556 Y-10.174 Z0.001 F400.000
G1 X-116.929 Y-10.447 Z0.001 F400.000
G1 X-118.495 Y-10.776 Z0.001 F400.000
G1 X-120.253 Y-11.164 Z0.001 F400.000
G1 X-121.810 Y-11.529 Z0.001 F400.000
G1 X-123.364 Y-11.912 Z0.001 F400.000
G1 X-124.719 Y-12.263 Z0.001 F400.000
G1 X-125.685 Y-12.523 Z0.001 F400.000
G1 X-127.225 Y-12.955 Z0.001 F400.000
G1 X-128.568 Y-13.350 Z0.001 F400.000
G1 X-129.906 Y-13.762 Z0.001 F400.000
G1 X-131.429 Y-14.254 Z0.001 F400.000
G1 X-132.567 Y-14.636 Z0.001 F400.000
G1 X-133.888 Y-15.099 Z0.001 F400.000
G1 X-134.452 Y-15.303 Z0.001 F400.000
G1 X-135.577 Y-15.721 Z0.001 F400.000
G1 X-136.883 Y-16.225 Z0.001 F400.000
G1 X-138.182 Y-16.747 Z0.001 F400.000
G1 X-139.289 Y-17.211 Z0.001 F400.000
G1 X-140.573 Y-17.769 Z0.001 F400.000
G1 X-141.666 Y-18.263 Z0.001 F400.000
G1 X-142.753 Y-18.772 Z0.001 F400.000
G1 X-144.013 Y-19.383 Z0.001 F400.000
G1 X-145.084 Y-19.923 Z0.001 F400.000
G1 X-146.148 Y-20.477 Z0.001 F400.000
G1 X-147.380 Y-21.144 Z0.001 F400.000
G1 X-148.426 Y-21.731 Z0.001 F400.000
G1 X-149.464 Y-22.333 Z0.001 F400.000
G1 X-150.494 Y-22.949 Z0.001 F400.000
G1 X-151.514 Y-23.582 Z0.001 F400.000
G1 X-151.627 Y-23.742 Z0.001 F400.000
G1 X-151.639 Y-23.941 Z0.001 F400.000
G1 X-151.639 Y-33.941 Z0.001 F400.000
G1 X-151.600 Y-34.134 Z0.001 F400.000
G1 X-151.453 Y-34.265 Z0.001 F400.000
G1 X-151.257 Y-34.278 Z0.001 F400.000
G1 X-151.086 Y-34.177 Z0.001 F400.000
G1 X-150.764 Y-33.940 Z0.001 F400.000
G1 X-149.951 Y-33.357 Z0.001 F400.000
G1 X-149.789 Y-33.241 Z-1.998 F400.000
G1 X-148.802 Y-32.558 Z-1.998 F400.000
G1 X-147.803 Y-31.893 Z-1.998 F400.000
G1 X-146.963 Y-31.350 Z-1.998 F400.000
G1 X-146.115 Y-30.820 Z-1.998 F400.000
G1 X-145.089 Y-30.199 Z-1.998 F400.000
G1 X-144.052 Y-29.594 Z-1.998 F400.000
G1 X-142.830 Y-28.911 Z-1.998 F400.000
G1 X-141.950 Y-28.436 Z-1.998 F400.000
G1 X-141.064 Y-27.973 Z-1.998 F400.000
G1 X-139.813 Y-27.345 Z-1.998 F400.000
G1 X-138.913 Y-26.909 Z-1.998 F400.000
G1 X-137.825 Y-26.401 Z-1.998 F400.000
G1 X-136.731 Y-25.909 Z-1.998 F400.000
G1 X-135.445 Y-25.355 Z-1.998 F400.000
G1 X-134.336 Y-24.896 Z-1.998 F400.000
G1 X-132.848 Y-24.309 Z-1.998 F400.000
G1 X-131.537 Y-23.818 Z-1.998 F400.000
G1 X-130.408 Y-23.412 Z-1.998 F400.000
G1 X-129.273 Y-23.020 Z-1.998 F400.000
G1 X-127.754 Y-22.520 Z-1.998 F400.000
G1 X-126.609 Y-22.159 Z-1.998 F400.000
G1 X-125.268 Y-21.757 Z-1.998 F400.000
G1 X-124.692 Y-21.589 Z-1.998 F400.000
G1 X-123.151 Y-21.159 Z-1.998 F400.000
G1 X-121.798 Y-20.800 Z-1.998 F400.000
G1 X-120.441 Y-20.456 Z-1.998 F400.000
G1 X-118.885 Y-20.083 Z-1.998 F400.000
G1 X-117.520 Y-19.772 Z-1.998 F400.000
G1 X-115.956 Y-19.434 Z-1.998 F400.000
G1 X-114.976 Y-19.233 Z-1.998 F400.000
G1 X-113.407 Y-18.923 Z-1.998 F400.000
G1 X-111.834 Y-18.631 Z-1.998 F400.000
G1 X-110.061 Y-18.319 Z-1.998 F400.000
G1 X-108.285 Y-18.027 Z-1.998 F400.000
G1 X-106.506 Y-17.752 Z-1.998 F400.000
G1 X-105.517 Y-17.606 Z-1.998 F400.000
G1 X-103.338 Y-17.302 Z-1.998 F400.000
G1 X-101.354 Y-17.043 Z-1.998 F400.000
G1 X-99.171 Y-16.777 Z-1.998 F400.000
G1 X-96.985 Y-16.528 Z-1.998 F400.000
G1 X-94.797 Y-16.294 Z-1.998 F400.000
G1 X-92.011 Y-16.014 Z-1.998 F400.000
G1 X-90.219 Y-15.844 Z-1.998 F400.000
G1 X-86.833 Y-15.540 Z-1.998 F400.000
G1 X-83.843 Y-15.291 Z-1.998 F400.000
G1 X-80.653 Y-15.045 Z-1.998 F400.000
G1 X-77.461 Y-14.818 Z-1.998 F400.000
G1 X-74.866 Y-14.648 Z-1.998 F400.000
G1 X-71.672 Y-14.456 Z-1.998 F400.000
G1 X-68.477 Y-14.281 Z-1.998 F400.000
G1 X-65.081 Y-14.115 Z-1.998 F400.000
G1 X-61.684 Y-13.968 Z-1.998 F400.000
G1 X-58.287 Y-13.839 Z-1.998 F400.000
G1 X-55.888 Y-13.759 Z-1.998 F400.000
G1 X-52.290 Y-13.655 Z-1.998 F400.000
G1 X-48.691 Y-13.569 Z-1.998 F400.000
G1 X-46.891 Y-13.533 Z-1.998 F400.000
G1 X-42.891 Y-13.467 Z-1.998 F400.000
G1 X-39.092 Y-13.423 Z-1.998 F400.000
G1 X-34.292 Y-13.389 Z-1.998 F400.000
G1 X-29.492 Y-13.375 Z-1.998 F400.000
G1 X-26.492 Y-13.375 Z-1.998 F400.000
G1 X-19.692 Y-13.392 Z-1.998 F400.000
G1 X-10.092 Y-13.437 Z-1.998 F400.000
G1 X-0.292 Y-13.474 Z-1.998 F400.000
G1 X9.308 Y-13.480 Z-1.998 F400.000
G1 X22.108 Y-13.473 Z-1.998 F400.000
G1 X28.508 Y-13.482 Z-1.998 F400.000
G1 X33.308 Y-13.502 Z-1.998 F400.000
G1 X38.308 Y-13.537 Z-1.998 F400.000
G1 X43.907 Y-13.602 Z-1.998 F400.000
G1 X47.907 Y-13.667 Z-1.998 F400.000
G1 X50.306 Y-13.715 Z-1.998 F400.000
G1 X54.105 Y-13.805 Z-1.998 F400.000
G1 X57.704 Y-13.908 Z-1.998 F400.000
G1 X60.502 Y-14.002 Z-1.998 F400.000
G1 X63.900 Y-14.131 Z-1.998 F400.000
G1 X67.696 Y-14.299 Z-1.998 F400.000
G1 X70.892 Y-14.460 Z-1.998 F400.000
G1 X73.887 Y-14.629 Z-1.998 F400.000
G1 X76.881 Y-14.816 Z-1.998 F400.000
G1 X78.677 Y-14.937 Z-1.998 F400.000
G1 X81.271 Y-15.125 Z-1.998 F400.000
G1 X84.062 Y-15.345 Z-1.998 F400.000
G1 X86.453 Y-15.551 Z-1.998 F400.000
G1 X87.250 Y-15.624 Z-1.998 F400.000
G1 X89.639 Y-15.854 Z-1.998 F400.000
G1 X91.827 Y-16.081 Z-1.998 F400.000
G1 X94.013 Y-16.326 Z-1.998 F400.000
G1 X95.999 Y-16.566 Z-1.998 F400.000
G1 X97.982 Y-16.822 Z-1.998 F400.000
G1 X99.964 Y-17.095 Z-1.998 F400.000
G1 X101.744 Y-17.357 Z-1.998 F400.000
G1 X103.918 Y-17.698 Z-1.998 F400.000
G1 X105.693 Y-17.994 Z-1.998 F400.000
G1 X106.678 Y-18.167 Z-1.998 F400.000
G1 X108.449 Y-18.491 Z-1.998 F400.000
G1 X110.216 Y-18.833 Z-1.998 F400.000
G1 X111.980 Y-19.194 Z-1.998 F400.000
G1 X113.544 Y-19.530 Z-1.998 F400.000
G1 X115.104 Y-19.883 Z-1.998 F400.000
G1 X117.050 Y-20.346 Z-1.998 F400.000
G1 X118.602 Y-20.736 Z-1.998 F400.000
G1 X120.149 Y-21.142 Z-1.998 F400.000
G1 X121.499 Y-21.513 Z-1.998 F400.000
G1 X123.230 Y-22.009 Z-1.998 F400.000
G1 X124.571 Y-22.411 Z-1.998 F400.000
G1 X125.335 Y-22.647 Z-1.998 F400.000
G1 X126.859 Y-23.133 Z-1.998 F400.000
G1 X128.377 Y-23.640 Z-1.998 F400.000
G1 X129.700 Y-24.098 Z-1.998 F400.000
G1 X131.017 Y-24.572 Z-1.998 F400.000
G1 X132.516 Y-25.132 Z-1.998 F400.000
G1 X134.007 Y-25.713 Z-1.998 F400.000
G1 X134.935 Y-26.086 Z-1.998 F400.000
G1 X136.228 Y-26.622 Z-1.998 F400.000
G1 X137.514 Y-27.175 Z-1.998 F400.000
G1 X138.794 Y-27.743 Z-1.998 F400.000
G1 X140.066 Y-28.328 Z-1.998 F400.000
G1 X141.510 Y-29.017 Z-1.998 F400.000
G1 X142.766 Y-29.636 Z-1.998 F400.000
G1 X144.190 Y-30.365 Z-1.998 F400.000
G1 X145.251 Y-30.925 Z-1.998 F400.000
G1 X146.480 Y-31.595 Z-1.998 F400.000
G1 X147.701 Y-32.281 Z-1.998 F400.000
G1 X148.912 Y-32.984 Z-1.998 F400.000
G1 X149.770 Y-33.497 Z-1.998 F400.000
G1 X149.942 Y-33.599 Z-0.001 F400.000
G1 X151.135 Y-34.332 Z-0.001 F400.000
G1 X151.319 Y-34.403 Z-0.001 F400.000
G1 X151.343 Y-34.403 Z-0.001 F400.000
(--Break)
G0 Z4.002
G0 X73.985 Y-5.020
(part 17)
G1 X73.985 Y-5.020 Z-0.001 F400.000
G1 X73.785 Y-5.009 Z-0.001 F400.000
G1 X70.790 Y-4.844 Z-0.001 F400.000
G1 X67.793 Y-4.695 Z-0.001 F400.000
G1 X64.397 Y-4.545 Z-0.000 F400.000
G1 X60.999 Y-4.415 Z-0.000 F400.000
G1 X57.401 Y-4.296 Z-0.000 F400.000
G1 X55.602 Y-4.244 Z-0.000 F400.000
G1 X51.803 Y-4.148 Z-0.000 F400.000
G1 X47.804 Y-4.066 Z-0.000 F400.000
G1 X42.805 Y-3.988 Z-0.000 F400.000
G1 X38.205 Y-3.938 Z-0.000 F400.000
G1 X34.405 Y-3.910 Z-0.000 F400.000
G1 X28.605 Y-3.884 Z-0.000 F400.000
G1 X19.005 Y-3.875 Z-0.000 F400.000
G1 X9.405 Y-3.882 Z-0.000 F400.000
G1 X-0.395 Y-3.876 Z0.000 F400.000
G1 X-9.795 Y-3.840 Z0.000 F400.000
G1 X-19.595 Y-3.794 Z0.000 F400.000
G1 X-23.595 Y-3.782 Z0.000 F400.000
G1 X-28.995 Y-3.777 Z0.000 F400.000
G1 X-34.395 Y-3.791 Z0.000 F400.000
G1 X-38.795 Y-3.821 Z0.000 F400.000
G1 X-40.794 Y-3.842 Z0.000 F400.000
G1 X-44.594 Y-3.893 Z0.000 F400.000
G1 X-48.593 Y-3.967 Z0.000 F400.000
G1 X-50.993 Y-4.021 Z0.000 F400.000
G1 X-54.392 Y-4.111 Z0.000 F400.000
G1 X-57.990 Y-4.225 Z0.000 F400.000
G1 X-60.988 Y-4.335 Z0.001 F400.000
G1 X-64.385 Y-4.476 Z0.001 F400.000
G1 X-67.781 Y-4.636 Z0.001 F400.000
G1 X-70.977 Y-4.803 Z0.001 F400.000
G1 X-74.171 Y-4.989 Z0.001 F400.000
G1 X-77.165 Y-5.179 Z0.001 F400.000
G1 X-80.757 Y-5.429 Z0.001 F400.000
G1 X-83.947 Y-5.671 Z0.001 F400.000
G1 X-87.336 Y-5.950 Z0.001 F400.000
G1 X-88.731 Y-6.071 Z0.001 F400.000
G1 X-91.718 Y-6.344 Z0.001 F400.000
G1 X-93.908 Y-6.557 Z0.001 F400.000
G1 X-96.495 Y-6.821 Z0.001 F400.000
G1 X-97.290 Y-6.906 Z0.001 F400.000
G1 X-99.675 Y-7.173 Z0.001 F400.000
G1 X-101.860 Y-7.434 Z0.001 F400.000
G1 X-104.042 Y-7.712 Z0.001 F400.000
G1 X-106.024 Y-7.982 Z0.001 F400.000
G1 X-108.200 Y-8.301 Z0.001 F400.000
G1 X-110.374 Y-8.642 Z0.001 F400.000
G1 X-112.149 Y-8.939 Z0.001 F400.000
G1 X-113.724 Y-9.219 Z0.001 F400.000
G1 X-115.494 Y-9.550 Z0.001 F400.000
G1 X-117.063 Y-9.862 Z0.001 F400.000
G1 X-118.824 Y-10.232 Z0.001 F400.000
G1 X-120.386 Y-10.579 Z0.001 F400.000
G1 X-121.944 Y-10.944 Z0.001 F400.000
G1 X-123.304 Y-11.278 Z0.001 F400.000
G1 X-124.853 Y-11.678 Z0.001 F400.000
G1 X-125.819 Y-11.938 Z0.001 F400.000
G1 X-127.359 Y-12.369 Z0.001 F400.000
G1 X-128.703 Y-12.764 Z0.001 F400.000
G1 X-130.041 Y-13.176 Z0.001 F400.000
G1 X-131.374 Y-13.603 Z0.001 F400.000
G1 X-132.701 Y-14.048 Z0.001 F400.000
G1 X-134.023 Y-14.510 Z0.001 F400.000
G1 X-134.587 Y-14.713 Z0.001 F400.000
G1 X-135.900 Y-15.201 Z0.001 F400.000
G1 X-137.205 Y-15.707 Z0.001 F400.000
G1 X-138.318 Y-16.155 Z0.001 F400.000
G1 X-139.610 Y-16.695 Z0.001 F400.000
G1 X-140.893 Y-17.255 Z0.001 F400.000
G1 X-141.986 Y-17.749 Z0.001 F400.000
G1 X-143.253 Y-18.345 Z0.001 F400.000
G1 X-144.153 Y-18.783 Z0.001 F400.000
G1 X-145.403 Y-19.412 Z0.001 F400.000
G1 X-146.467 Y-19.967 Z0.001 F400.000
G1 X-147.523 Y-20.537 Z0.001 F400.000
G1 X-148.571 Y-21.122 Z0.001 F400.000
G1 X-149.782 Y-21.824 Z0.001 F400.000
G1 X-150.812 Y-22.440 Z0.001 F400.000
G1 X-151.832 Y-23.072 Z0.001 F400.000
G1 X-151.985 Y-23.200 Z0.001 F400.000
G1 X-152.107 Y-23.358 Z0.001 F400.000
G1 X-152.192 Y-23.539 Z0.001 F400.000
G1 X-152.234 Y-23.734 Z0.001 F400.000
G1 X-152.239 Y-23.934 Z0.001 F400.000
G1 X-152.239 Y-33.934 Z0.001 F400.000
G1 X-152.227 Y-34.133 Z0.001 F400.000
G1 X-152.173 Y-34.325 Z0.001 F400.000
G1 X-152.078 Y-34.500 Z0.001 F400.000
G1 X-151.947 Y-34.651 Z0.001 F400.000
G1 X-151.785 Y-34.769 Z0.001 F400.000
G1 X-151.602 Y-34.848 Z0.001 F400.000
G1 X-151.406 Y-34.885 Z0.001 F400.000
G1 X-151.207 Y-34.879 Z0.001 F400.000
G1 X-151.014 Y-34.828 Z0.001 F400.000
G1 X-150.836 Y-34.737 Z0.001 F400.000
G1 X-150.352 Y-34.383 Z0.001 F400.000
G1 X-149.865 Y-34.033 Z0.001 F400.000
G1 X-149.702 Y-33.916 Z-1.998 F400.000
G1 X-149.376 Y-33.685 Z-1.998 F400.000
G1 X-148.554 Y-33.115 Z-1.998 F400.000
G1 X-147.557 Y-32.448 Z-1.998 F400.000
G1 X-146.717 Y-31.905 Z-1.998 F400.000
G1 X-145.700 Y-31.268 Z-1.998 F400.000
G1 X-144.672 Y-30.649 Z-1.998 F400.000
G1 X-143.634 Y-30.047 Z-1.998 F400.000
G1 X-142.587 Y-29.461 Z-1.998 F400.000
G1 X-141.707 Y-28.986 Z-1.998 F400.000
G1 X-140.820 Y-28.523 Z-1.998 F400.000
G1 X-139.749 Y-27.982 Z-1.998 F400.000
G1 X-138.670 Y-27.458 Z-1.998 F400.000
G1 X-137.401 Y-26.867 Z-1.998 F400.000
G1 X-136.305 Y-26.377 Z-1.998 F400.000
G1 X-135.203 Y-25.903 Z-1.998 F400.000
G1 X-134.093 Y-25.445 Z-1.998 F400.000
G1 X-132.605 Y-24.859 Z-1.998 F400.000
G1 X-131.482 Y-24.436 Z-1.998 F400.000
G1 X-130.164 Y-23.962 Z-1.998 F400.000
G1 X-129.030 Y-23.571 Z-1.998 F400.000
G1 X-127.700 Y-23.132 Z-1.998 F400.000
G1 X-126.365 Y-22.712 Z-1.998 F400.000
G1 X-125.216 Y-22.367 Z-1.998 F400.000
G1 X-124.640 Y-22.199 Z-1.998 F400.000
G1 X-123.099 Y-21.766 Z-1.998 F400.000
G1 X-121.746 Y-21.406 Z-1.998 F400.000
G1 X-120.389 Y-21.062 Z-1.998 F400.000
G1 X-118.834 Y-20.687 Z-1.998 F400.000
G1 X-117.469 Y-20.376 Z-1.998 F400.000
G1 X-115.710 Y-19.996 Z-1.998 F400.000
G1 X-114.926 Y-19.834 Z-1.998 F400.000
G1 X-113.356 Y-19.524 Z-1.998 F400.000
G1 X-111.587 Y-19.196 Z-1.998 F400.000
G1 X-110.011 Y-18.920 Z-1.998 F400.000
G1 X-108.235 Y-18.627 Z-1.998 F400.000
G1 X-106.258 Y-18.321 Z-1.998 F400.000
G1 X-105.269 Y-18.176 Z-1.998 F400.000
G1 X-103.486 Y-17.927 Z-1.998 F400.000
G1 X-101.305 Y-17.642 Z-1.998 F400.000
G1 X-99.121 Y-17.375 Z-1.998 F400.000
G1 X-96.736 Y-17.104 Z-1.998 F400.000
G1 X-94.747 Y-16.892 Z-1.998 F400.000
G1 X-91.961 Y-16.612 Z-1.998 F400.000
G1 X-90.169 Y-16.442 Z-1.998 F400.000
G1 X-86.783 Y-16.138 Z-1.998 F400.000
G1 X-83.793 Y-15.889 Z-1.998 F400.000
G1 X-80.802 Y-15.658 Z-1.998 F400.000
G1 X-77.211 Y-15.403 Z-1.998 F400.000
G1 X-74.817 Y-15.246 Z-1.998 F400.000
G1 X-71.622 Y-15.054 Z-1.998 F400.000
G1 X-68.427 Y-14.880 Z-1.998 F400.000
G1 X-65.231 Y-14.723 Z-1.998 F400.000
G1 X-61.634 Y-14.567 Z-1.998 F400.000
G1 X-58.237 Y-14.438 Z-1.998 F400.000
G1 X-55.838 Y-14.358 Z-1.998 F400.000
G1 X-52.240 Y-14.254 Z-1.998 F400.000
G1 X-48.841 Y-14.173 Z-1.998 F400.000
G1 X-46.841 Y-14.132 Z-1.998 F400.000
G1 X-43.041 Y-14.069 Z-1.998 F400.000
G1 X-39.042 Y-14.022 Z-1.998 F400.000
G1 X-34.242 Y-13.989 Z-1.998 F400.000
G1 X-29.442 Y-13.975 Z-1.998 F400.000
G1 X-26.442 Y-13.975 Z-1.998 F400.000
G1 X-19.642 Y-13.992 Z-1.998 F400.000
G1 X-10.042 Y-14.037 Z-1.998 F400.000
G1 X-0.442 Y-14.074 Z-1.998 F400.000
G1 X9.358 Y-14.080 Z-1.998 F400.000
G1 X21.958 Y-14.073 Z-1.998 F400.000
G1 X28.558 Y-14.082 Z-1.998 F400.000
G1 X33.358 Y-14.102 Z-1.998 F400.000
G1 X38.358 Y-14.138 Z-1.998 F400.000
G1 X43.957 Y-14.203 Z-1.998 F400.000
G1 X48.157 Y-14.272 Z-1.998 F400.000
G1 X50.356 Y-14.316 Z-1.998 F400.000
G1 X53.955 Y-14.401 Z-1.998 F400.000
G1 X57.554 Y-14.504 Z-1.998 F400.000
G1 X60.552 Y-14.604 Z-1.998 F400.000
G1 X63.950 Y-14.734 Z-1.998 F400.000
G1 X67.147 Y-14.874 Z-1.998 F400.000
G1 X70.942 Y-15.064 Z-1.998 F400.000
G1 X73.937 Y-15.233 Z-1.998 F400.000
G1 X76.732 Y-15.408 Z-1.998 F400.000
G1 X78.528 Y-15.528 Z-1.998 F400.000
G1 X81.320 Y-15.730 Z-1.998 F400.000
G1 X83.912 Y-15.935 Z-1.998 F400.000
G1 X86.303 Y-16.140 Z-1.998 F400.000
G1 X87.299 Y-16.231 Z-1.998 F400.000
G1 X89.489 Y-16.441 Z-1.998 F400.000
G1 X91.677 Y-16.669 Z-1.998 F400.000
G1 X93.864 Y-16.913 Z-1.998 F400.000
G1 X96.048 Y-17.177 Z-1.998 F400.000
G1 X97.833 Y-17.407 Z-1.998 F400.000
G1 X99.814 Y-17.680 Z-1.998 F400.000
G1 X101.793 Y-17.971 Z-1.998 F400.000
G1 X103.769 Y-18.281 Z-1.998 F400.000
G1 X105.741 Y-18.612 Z-1.998 F400.000
G1 X106.529 Y-18.750 Z-1.998 F400.000
G1 X108.300 Y-19.073 Z-1.998 F400.000
G1 X110.067 Y-19.415 Z-1.998 F400.000
G1 X111.831 Y-19.775 Z-1.998 F400.000
G1 X113.395 Y-20.112 Z-1.998 F400.000
G1 X114.956 Y-20.464 Z-1.998 F400.000
G1 X116.901 Y-20.928 Z-1.998 F400.000
G1 X118.259 Y-21.268 Z-1.998 F400.000
G1 X120.001 Y-21.724 Z-1.998 F400.000
G1 X121.543 Y-22.148 Z-1.998 F400.000
G1 X123.081 Y-22.591 Z-1.998 F400.000
G1 X124.422 Y-22.993 Z-1.998 F400.000
G1 X125.186 Y-23.229 Z-1.998 F400.000
G1 X126.710 Y-23.716 Z-1.998 F400.000
G1 X128.228 Y-24.223 Z-1.998 F400.000
G1 X129.551 Y-24.682 Z-1.998 F400.000
G1 X130.868 Y-25.156 Z-1.998 F400.000
G1 X132.179 Y-25.646 Z-1.998 F400.000
G1 X133.671 Y-26.224 Z-1.998 F400.000
G1 X134.784 Y-26.673 Z-1.998 F400.000
G1 X136.077 Y-27.210 Z-1.998 F400.000
G1 X137.363 Y-27.763 Z-1.998 F400.000
G1 X138.459 Y-28.251 Z-1.998 F400.000
G1 X139.913 Y-28.919 Z-1.998 F400.000
G1 X141.177 Y-29.521 Z-1.998 F400.000
G1 X142.433 Y-30.140 Z-1.998 F400.000
G1 X143.858 Y-30.869 Z-1.998 F400.000
G1 X144.919 Y-31.429 Z-1.998 F400.000
G1 X146.149 Y-32.097 Z-1.998 F400.000
G1 X147.370 Y-32.783 Z-1.998 F400.000
G1 X148.581 Y-33.485 Z-1.998 F400.000
G1 X149.782 Y-34.204 Z-1.998 F400.000
G1 X149.952 Y-34.309 Z-0.001 F400.000
G1 X150.804 Y-34.833 Z-0.001 F400.000
G1 X150.979 Y-34.929 Z-0.001 F400.000
G1 X151.170 Y-34.988 Z-0.001 F400.000
G1 X151.369 Y-35.003 Z-0.001 F400.000
G1 X151.566 Y-34.973 Z-0.001 F400.000
G1 X151.752 Y-34.901 Z-0.001 F400.000
G1 X151.918 Y-34.790 Z-0.001 F400.000
G1 X152.055 Y-34.645 Z-0.001 F400.000
G1 X152.158 Y-34.474 Z-0.001 F400.000
G1 X152.220 Y-34.284 Z-0.001 F400.000
G1 X152.238 Y-34.086 Z-0.001 F400.000
G1 X152.236 Y-24.286 Z-0.001 F400.000
G1 X152.201 Y-24.089 Z-0.001 F400.000
G1 X152.123 Y-23.905 Z-0.001 F400.000
G1 X152.007 Y-23.743 Z-0.001 F400.000
G1 X151.858 Y-23.610 Z-0.001 F400.000
G1 X151.686 Y-23.508 Z-0.001 F400.000
G1 X150.812 Y-23.023 Z-0.001 F400.000
G1 X149.581 Y-22.356 Z-0.001 F400.000
G1 X148.341 Y-21.706 Z-0.001 F400.000
G1 X146.915 Y-20.980 Z-0.001 F400.000
G1 X145.660 Y-20.361 Z-0.001 F400.000
G1 X144.396 Y-19.758 Z-0.001 F400.000
G1 X142.944 Y-19.086 Z-0.001 F400.000
G1 X142.215 Y-18.758 Z-0.001 F400.000
G1 X140.933 Y-18.195 Z-0.001 F400.000
G1 X139.644 Y-17.647 Z-0.001 F400.000
G1 X137.979 Y-16.964 Z-0.001 F400.000
G1 X136.677 Y-16.449 Z-0.001 F400.000
G1 X135.369 Y-15.949 Z-0.001 F400.000
G1 X133.680 Y-15.327 Z-0.001 F400.000
G1 X131.983 Y-14.729 Z-0.001 F400.000
G1 X130.467 Y-14.216 Z-0.001 F400.000
G1 X129.136 Y-13.783 Z-0.001 F400.000
G1 X127.609 Y-13.304 Z-0.001 F400.000
G1 X126.077 Y-12.842 Z-0.001 F400.000
G1 X124.348 Y-12.343 Z-0.001 F400.000
G1 X123.192 Y-12.022 Z-0.001 F400.000
G1 X121.646 Y-11.609 Z-0.001 F400.000
G1 X119.902 Y-11.164 Z-0.001 F400.000
G1 X118.347 Y-10.785 Z-0.001 F400.000
G1 X116.594 Y-10.377 Z-0.001 F400.000
G1 X114.837 Y-9.988 Z-0.001 F400.000
G1 X112.683 Y-9.538 Z-0.001 F400.000
G1 X110.917 Y-9.190 Z-0.001 F400.000
G1 X109.148 Y-8.859 Z-0.001 F400.000
G1 X107.376 Y-8.545 Z-0.001 F400.000
G1 X105.403 Y-8.215 Z-0.001 F400.000
G1 X104.020 Y-7.995 Z-0.001 F400.000
G1 X102.043 Y-7.697 Z-0.001 F400.000
G1 X100.062 Y-7.417 Z-0.001 F400.000
G1 X97.881 Y-7.129 Z-0.001 F400.000
G1 X95.896 Y-6.884 Z-0.001 F400.000
G1 X93.313 Y-6.588 Z-0.001 F400.000
G1 X91.126 Y-6.357 Z-0.001 F400.000
G1 X88.737 Y-6.123 Z-0.001 F400.000
G1 X86.347 Y-5.907 Z-0.001 F400.000
G1 X85.151 Y-5.805 Z-0.001 F400.000
G1 X82.559 Y-5.597 Z-0.001 F400.000
G1 X79.767 Y-5.392 Z-0.001 F400.000
G1 X76.574 Y-5.178 Z-0.001 F400.000
G1 X73.985 Y-5.020 Z-0.001 F400.000
(--Break)
G0 Z4.002
G0 X151.337 Y-35.603
(part 19)
G1 X151.337 Y-35.603 Z-1.998 F400.000
G1 X151.536 Y-35.590 Z-0.001 F400.000
G1 X151.732 Y-35.550 Z-0.001 F400.000
G1 X151.921 Y-35.485 Z-0.001 F400.000
G1 X152.099 Y-35.395 Z-0.001 F400.000
G1 X152.264 Y-35.282 Z-0.001 F400.000
G1 X152.413 Y-35.148 Z-0.001 F400.000
G1 X152.542 Y-34.996 Z-0.001 F400.000
G1 X152.651 Y-34.828 Z-0.001 F400.000
G1 X152.736 Y-34.647 Z-0.001 F400.000
G1 X152.796 Y-34.457 Z-0.001 F400.000
G1 X152.830 Y-34.260 Z-0.001 F400.000
G1 X152.838 Y-34.060 Z-0.001 F400.000
G1 X152.839 Y-24.460 Z-0.001 F400.000
G1 X152.836 Y-24.260 Z-0.001 F400.000
G1 X152.811 Y-24.062 Z-0.001 F400.000
G1 X152.761 Y-23.868 Z-0.001 F400.000
G1 X152.685 Y-23.684 Z-0.001 F400.000
G1 X152.585 Y-23.511 Z-0.001 F400.000
G1 X152.463 Y-23.352 Z-0.001 F400.000
G1 X152.321 Y-23.211 Z-0.001 F400.000
G1 X152.162 Y-23.091 Z-0.001 F400.000
G1 X151.989 Y-22.990 Z-0.001 F400.000
G1 X151.115 Y-22.504 Z-0.001 F400.000
G1 X149.884 Y-21.838 Z-0.001 F400.000
G1 X148.644 Y-21.187 Z-0.001 F400.000
G1 X147.219 Y-20.461 Z-0.001 F400.000
G1 X145.963 Y-19.841 Z-0.001 F400.000
G1 X144.519 Y-19.152 Z-0.001 F400.000
G1 X143.248 Y-18.565 Z-0.001 F400.000
G1 X142.519 Y-18.236 Z-0.001 F400.000
G1 X141.054 Y-17.594 Z-0.001 F400.000
G1 X139.765 Y-17.047 Z-0.001 F400.000
G1 X138.284 Y-16.440 Z-0.001 F400.000
G1 X136.983 Y-15.924 Z-0.001 F400.000
G1 X135.488 Y-15.353 Z-0.001 F400.000
G1 X133.987 Y-14.800 Z-0.001 F400.000
G1 X132.290 Y-14.200 Z-0.001 F400.000
G1 X130.775 Y-13.686 Z-0.001 F400.000
G1 X129.253 Y-13.190 Z-0.001 F400.000
G1 X127.535 Y-12.654 Z-0.001 F400.000
G1 X126.002 Y-12.195 Z-0.001 F400.000
G1 X124.465 Y-11.752 Z-0.001 F400.000
G1 X123.501 Y-11.485 Z-0.001 F400.000
G1 X121.762 Y-11.020 Z-0.001 F400.000
G1 X120.018 Y-10.575 Z-0.001 F400.000
G1 X118.464 Y-10.196 Z-0.001 F400.000
G1 X116.711 Y-9.788 Z-0.001 F400.000
G1 X114.953 Y-9.399 Z-0.001 F400.000
G1 X112.799 Y-8.950 Z-0.001 F400.000
G1 X111.034 Y-8.601 Z-0.001 F400.000
G1 X109.264 Y-8.270 Z-0.001 F400.000
G1 X107.295 Y-7.922 Z-0.001 F400.000
G1 X105.519 Y-7.626 Z-0.001 F400.000
G1 X104.137 Y-7.406 Z-0.001 F400.000
G1 X102.159 Y-7.108 Z-0.001 F400.000
G1 X100.179 Y-6.828 Z-0.001 F400.000
G1 X97.998 Y-6.539 Z-0.001 F400.000
G1 X95.814 Y-6.270 Z-0.001 F400.000
G1 X93.430 Y-5.997 Z-0.001 F400.000
G1 X91.242 Y-5.766 Z-0.001 F400.000
G1 X88.854 Y-5.531 Z-0.001 F400.000
G1 X86.264 Y-5.297 Z-0.001 F400.000
G1 X85.268 Y-5.212 Z-0.001 F400.000
G1 X82.477 Y-4.989 Z-0.001 F400.000
G1 X79.684 Y-4.784 Z-0.001 F400.000
G1 X76.491 Y-4.572 Z-0.001 F400.000
G1 X74.096 Y-4.426 Z-0.001 F400.000
G1 X70.901 Y-4.248 Z-0.001 F400.000
G1 X67.704 Y-4.090 Z-0.001 F400.000
G1 X64.308 Y-3.941 Z-0.000 F400.000
G1 X60.910 Y-3.812 Z-0.000 F400.000
G1 X57.512 Y-3.699 Z-0.000 F400.000
G1 X55.513 Y-3.641 Z-0.000 F400.000
G1 X51.714 Y-3.546 Z-0.000 F400.000
G1 X47.915 Y-3.468 Z-0.000 F400.000
G1 X42.916 Y-3.390 Z-0.000 F400.000
G1 X38.316 Y-3.339 Z-0.000 F400.000
G1 X34.516 Y-3.310 Z-0.000 F400.000
G1 X28.516 Y-3.284 Z-0.000 F400.000
G1 X18.916 Y-3.275 Z-0.000 F400.000
G1 X9.316 Y-3.282 Z-0.000 F400.000
G1 X-0.284 Y-3.276 Z0.000 F400.000
G1 X-9.884 Y-3.240 Z0.000 F400.000
G1 X-19.484 Y-3.195 Z0.000 F400.000
G1 X-23.684 Y-3.182 Z0.000 F400.000
G1 X-29.284 Y-3.177 Z0.000 F400.000
G1 X-34.484 Y-3.192 Z0.000 F400.000
G1 X-38.884 Y-3.222 Z0.000 F400.000
G1 X-40.883 Y-3.243 Z0.000 F400.000
G1 X-44.683 Y-3.294 Z0.000 F400.000
G1 X-48.482 Y-3.364 Z0.000 F400.000
G1 X-51.082 Y-3.423 Z0.000 F400.000
G1 X-54.481 Y-3.514 Z0.000 F400.000
G1 X-58.079 Y-3.628 Z0.000 F400.000
G1 X-60.877 Y-3.730 Z0.001 F400.000
G1 X-64.274 Y-3.870 Z0.001 F400.000
G1 X-67.670 Y-4.029 Z0.001 F400.000
G1 X-70.866 Y-4.196 Z0.001 F400.000
G1 X-74.061 Y-4.381 Z0.001 F400.000
G1 X-77.254 Y-4.583 Z0.001 F400.000
G1 X-80.845 Y-4.833 Z0.001 F400.000
G1 X-83.837 Y-5.060 Z0.001 F400.000
G1 X-87.026 Y-5.321 Z0.001 F400.000
G1 X-88.819 Y-5.477 Z0.001 F400.000
G1 X-91.807 Y-5.750 Z0.001 F400.000
G1 X-93.997 Y-5.962 Z0.001 F400.000
G1 X-97.180 Y-6.291 Z0.001 F400.000
G1 X-99.763 Y-6.579 Z0.001 F400.000
G1 X-102.146 Y-6.865 Z0.001 F400.000
G1 X-104.130 Y-7.119 Z0.001 F400.000
G1 X-106.112 Y-7.389 Z0.001 F400.000
G1 X-108.487 Y-7.737 Z0.001 F400.000
G1 X-110.265 Y-8.016 Z0.001 F400.000
G1 X-112.237 Y-8.346 Z0.001 F400.000
G1 X-114.010 Y-8.661 Z0.001 F400.000
G1 X-115.778 Y-8.995 Z0.001 F400.000
G1 X-117.347 Y-9.308 Z0.001 F400.000
G1 X-118.913 Y-9.638 Z0.001 F400.000
G1 X-120.475 Y-9.984 Z0.001 F400.000
G1 X-121.838 Y-10.302 Z0.001 F400.000
G1 X-123.587 Y-10.731 Z0.001 F400.000
G1 X-125.136 Y-11.132 Z0.001 F400.000
G1 X-126.101 Y-11.393 Z0.001 F400.000
G1 X-127.449 Y-11.771 Z0.001 F400.000
G1 X-128.984 Y-12.223 Z0.001 F400.000
G1 X-130.322 Y-12.635 Z0.001 F400.000
G1 X-131.655 Y-13.064 Z0.001 F400.000
G1 X-132.982 Y-13.509 Z0.001 F400.000
G1 X-134.303 Y-13.972 Z0.001 F400.000
G1 X-134.867 Y-14.177 Z0.001 F400.000
G1 X-136.179 Y-14.665 Z0.001 F400.000
G1 X-137.298 Y-15.098 Z0.001 F400.000
G1 X-138.597 Y-15.621 Z0.001 F400.000
G1 X-139.888 Y-16.162 Z0.001 F400.000
G1 X-140.988 Y-16.641 Z0.001 F400.000
G1 X-142.264 Y-17.217 Z0.001 F400.000
G1 X-143.351 Y-17.727 Z0.001 F400.000
G1 X-144.430 Y-18.250 Z0.001 F400.000
G1 X-145.681 Y-18.880 Z0.001 F400.000
G1 X-146.745 Y-19.435 Z0.001 F400.000
G1 X-147.801 Y-20.005 Z0.001 F400.000
G1 X-149.022 Y-20.689 Z0.001 F400.000
G1 X-150.061 Y-21.291 Z0.001 F400.000
G1 X-151.090 Y-21.907 Z0.001 F400.000
G1 X-152.110 Y-22.539 Z0.001 F400.000
G1 X-152.274 Y-22.653 Z0.001 F400.000
G1 X-152.422 Y-22.788 Z0.001 F400.000
G1 X-152.550 Y-22.941 Z0.001 F400.000
G1 X-152.657 Y-23.110 Z0.001 F400.000
G1 X-152.740 Y-23.292 Z0.001 F400.000
G1 X-152.799 Y-23.483 Z0.001 F400.000
G1 X-152.832 Y-23.680 Z0.001 F400.000
G1 X-152.839 Y-23.880 Z0.001 F400.000
G1 X-152.839 Y-33.880 Z0.001 F400.000
G1 X-152.836 Y-34.080 Z0.001 F400.000
G1 X-152.810 Y-34.278 Z0.001 F400.000
G1 X-152.759 Y-34.471 Z0.001 F400.000
G1 X-152.682 Y-34.655 Z0.001 F400.000
G1 X-152.581 Y-34.828 Z0.001 F400.000
G1 X-152.458 Y-34.986 Z0.001 F400.000
G1 X-152.315 Y-35.126 Z0.001 F400.000
G1 X-152.156 Y-35.245 Z0.001 F400.000
G1 X-151.981 Y-35.343 Z0.001 F400.000
G1 X-151.795 Y-35.416 Z0.001 F400.000
G1 X-151.601 Y-35.465 Z0.001 F400.000
G1 X-151.403 Y-35.487 Z0.001 F400.000
G1 X-151.203 Y-35.482 Z0.001 F400.000
