(Exported by FreeCAD)
(Post Processor: script_module)
(Output Time:2025-03-31 23:39:57.854700)
(Begin preamble)
G17 G90
G21
(Block-name: Fixture)
(Block-expand: 0)
(Block-enable: 1)
(Begin operation: Fixture)
(Path: Fixture)
G54
(Finish operation: Fixture)
(Block-name: 3mm Endmill001)
(Block-expand: 0)
(Block-enable: 1)
(Begin operation: 3mm Endmill001)
(Path: 3mm Endmill001)
(3mm Endmill001)
(Begin toolchange)
( M6 T2 )
M3 S10000
(Finish operation: 3mm Endmill001)
(Block-name: Profile)
(Block-expand: 0)
(Block-enable: 1)
(Begin operation: Profile)
(Path: Profile)
(Profile)
(Compensated Tool Path. Diameter: 3.0)
G0 Z6.000
G0 X202.397 Y58.382
G0 Z4.000
G1 X202.397 Y58.382 Z-2.000 F200.000
G2 X202.836 Y57.322 Z-2.000 I-1.061 J-1.061 K0.000 F400.000
G1 X202.836 Y-57.322 Z-2.000 F400.000
G2 X201.336 Y-58.822 Z-2.000 I-1.500 J0.000 K0.000 F400.000
G1 X154.336 Y-58.822 Z-2.000 F400.000
G2 X152.836 Y-57.322 Z-2.000 I0.000 J1.500 K0.000 F400.000
G1 X152.836 Y-47.822 Z-2.000 F400.000
G1 X151.336 Y-47.822 Z-2.000 F400.000
G2 X149.836 Y-46.322 Z-2.000 I0.000 J1.500 K0.000 F400.000
G1 X149.836 Y-37.560 Z-2.000 F400.000
G3 X132.287 Y-29.690 Z-2.000 I-57.334 J-104.354 K0.000 F400.000
G3 X111.266 Y-24.020 Z-2.000 I-50.578 J-145.698 K0.000 F400.000
G3 X86.915 Y-20.683 Z-2.000 I-45.560 J-241.974 K0.000 F400.000
G3 X63.632 Y-19.235 Z-2.000 I-43.831 J-516.926 K0.000 F400.000
G3 X28.587 Y-18.593 Z-2.000 I-37.291 J-1078.970 K0.000 F400.000
G2 X-29.154 Y-18.501 Z-2.000 I-10.515 J11470.687 K0.000 F400.000
G3 X-57.211 Y-18.929 Z-2.000 I-2.265 J-771.415 K0.000 F400.000
G3 X-96.275 Y-21.536 Z-2.000 I16.100 J-535.185 K0.000 F400.000
G3 X-111.350 Y-23.572 Z-2.000 I22.049 J-220.099 K0.000 F400.000
G3 X-132.262 Y-28.772 Z-2.000 I19.736 J-124.005 K0.000 F400.000
G3 X-149.836 Y-36.995 Z-2.000 I27.695 J-82.087 K0.000 F400.000
G1 X-149.836 Y-46.322 Z-2.000 F400.000
G2 X-151.336 Y-47.822 Z-2.000 I-1.500 J0.000 K0.000 F400.000
G1 X-152.836 Y-47.822 Z-2.000 F400.000
G1 X-152.836 Y-57.322 Z-2.000 F400.000
G2 X-154.336 Y-58.822 Z-2.000 I-1.500 J0.000 K0.000 F400.000
G1 X-201.336 Y-58.822 Z-2.000 F400.000
G2 X-202.836 Y-57.322 Z-2.000 I0.000 J1.500 K0.000 F400.000
G1 X-202.836 Y57.322 Z-2.000 F400.000
G2 X-201.336 Y58.822 Z-2.000 I1.500 J-0.000 K0.000 F400.000
G1 X-81.336 Y58.822 Z-2.000 F400.000
G2 X-80.404 Y58.497 Z-2.000 I0.000 J-1.500 K0.000 F400.000
G3 X80.404 Y58.497 Z-2.000 I80.404 J98.826 K0.000 F400.000
G2 X81.336 Y58.822 Z-2.000 I0.932 J-1.175 K0.000 F400.000
G1 X201.336 Y58.822 Z-2.000 F400.000
G2 X202.397 Y58.382 Z-2.000 I-0.000 J-1.500 K0.000 F400.000
G1 X202.397 Y58.382 Z-5.000 F200.000
G2 X202.836 Y57.322 Z-5.000 I-1.061 J-1.061 K0.000 F400.000
G1 X202.836 Y-57.322 Z-5.000 F400.000
G2 X201.336 Y-58.822 Z-5.000 I-1.500 J0.000 K0.000 F400.000
G1 X154.336 Y-58.822 Z-5.000 F400.000
G2 X152.836 Y-57.322 Z-5.000 I0.000 J1.500 K0.000 F400.000
G1 X152.836 Y-47.822 Z-5.000 F400.000
G1 X151.336 Y-47.822 Z-5.000 F400.000
G2 X149.836 Y-46.322 Z-5.000 I0.000 J1.500 K0.000 F400.000
G1 X149.836 Y-37.560 Z-5.000 F400.000
G3 X132.287 Y-29.690 Z-5.000 I-57.334 J-104.354 K0.000 F400.000
G3 X111.266 Y-24.020 Z-5.000 I-50.578 J-145.698 K0.000 F400.000
G3 X86.915 Y-20.683 Z-5.000 I-45.560 J-241.974 K0.000 F400.000
G3 X63.632 Y-19.235 Z-5.000 I-43.831 J-516.926 K0.000 F400.000
G3 X28.587 Y-18.593 Z-5.000 I-37.291 J-1078.970 K0.000 F400.000
G2 X-29.154 Y-18.501 Z-5.000 I-10.515 J11470.687 K0.000 F400.000
G3 X-57.211 Y-18.929 Z-5.000 I-2.265 J-771.415 K0.000 F400.000
G3 X-96.275 Y-21.536 Z-5.000 I16.100 J-535.185 K0.000 F400.000
G3 X-111.350 Y-23.572 Z-5.000 I22.049 J-220.099 K0.000 F400.000
G3 X-132.262 Y-28.772 Z-5.000 I19.736 J-124.005 K0.000 F400.000
G3 X-149.836 Y-36.995 Z-5.000 I27.695 J-82.087 K0.000 F400.000
G1 X-149.836 Y-46.322 Z-5.000 F400.000
G2 X-151.336 Y-47.822 Z-5.000 I-1.500 J0.000 K0.000 F400.000
G1 X-152.836 Y-47.822 Z-5.000 F400.000
G1 X-152.836 Y-57.322 Z-5.000 F400.000
G2 X-154.336 Y-58.822 Z-5.000 I-1.500 J0.000 K0.000 F400.000
G1 X-201.336 Y-58.822 Z-5.000 F400.000
G2 X-202.836 Y-57.322 Z-5.000 I0.000 J1.500 K0.000 F400.000
G1 X-202.836 Y57.322 Z-5.000 F400.000
G2 X-201.336 Y58.822 Z-5.000 I1.500 J-0.000 K0.000 F400.000
G1 X-81.336 Y58.822 Z-5.000 F400.000
G2 X-80.404 Y58.497 Z-5.000 I0.000 J-1.500 K0.000 F400.000
G3 X80.404 Y58.497 Z-5.000 I80.404 J98.826 K0.000 F400.000
G2 X81.336 Y58.822 Z-5.000 I0.932 J-1.175 K0.000 F400.000
G1 X201.336 Y58.822 Z-5.000 F400.000
G2 X202.397 Y58.382 Z-5.000 I-0.000 J-1.500 K0.000 F400.000
G1 X202.397 Y58.382 Z-8.000 F200.000
G2 X202.836 Y57.322 Z-8.000 I-1.061 J-1.061 K0.000 F400.000
G1 X202.836 Y-57.322 Z-8.000 F400.000
G2 X201.336 Y-58.822 Z-8.000 I-1.500 J0.000 K0.000 F400.000
G1 X154.336 Y-58.822 Z-8.000 F400.000
G2 X152.836 Y-57.322 Z-8.000 I0.000 J1.500 K0.000 F400.000
G1 X152.836 Y-47.822 Z-8.000 F400.000
G1 X151.336 Y-47.822 Z-8.000 F400.000
G2 X149.836 Y-46.322 Z-8.000 I0.000 J1.500 K0.000 F400.000
G1 X149.836 Y-37.560 Z-8.000 F400.000
G3 X132.287 Y-29.690 Z-8.000 I-57.334 J-104.354 K0.000 F400.000
G3 X111.266 Y-24.020 Z-8.000 I-50.578 J-145.698 K0.000 F400.000
G3 X86.915 Y-20.683 Z-8.000 I-45.560 J-241.974 K0.000 F400.000
G3 X63.632 Y-19.235 Z-8.000 I-43.831 J-516.926 K0.000 F400.000
G3 X28.587 Y-18.593 Z-8.000 I-37.291 J-1078.970 K0.000 F400.000
G2 X-29.154 Y-18.501 Z-8.000 I-10.515 J11470.687 K0.000 F400.000
G3 X-57.211 Y-18.929 Z-8.000 I-2.265 J-771.415 K0.000 F400.000
G3 X-96.275 Y-21.536 Z-8.000 I16.100 J-535.185 K0.000 F400.000
G3 X-111.350 Y-23.572 Z-8.000 I22.049 J-220.099 K0.000 F400.000
G3 X-132.262 Y-28.772 Z-8.000 I19.736 J-124.005 K0.000 F400.000
G3 X-149.836 Y-36.995 Z-8.000 I27.695 J-82.087 K0.000 F400.000
G1 X-149.836 Y-46.322 Z-8.000 F400.000
G2 X-151.336 Y-47.822 Z-8.000 I-1.500 J0.000 K0.000 F400.000
G1 X-152.836 Y-47.822 Z-8.000 F400.000
G1 X-152.836 Y-57.322 Z-8.000 F400.000
G2 X-154.336 Y-58.822 Z-8.000 I-1.500 J0.000 K0.000 F400.000
G1 X-201.336 Y-58.822 Z-8.000 F400.000
G2 X-202.836 Y-57.322 Z-8.000 I0.000 J1.500 K0.000 F400.000
G1 X-202.836 Y57.322 Z-8.000 F400.000
G2 X-201.336 Y58.822 Z-8.000 I1.500 J-0.000 K0.000 F400.000
G1 X-81.336 Y58.822 Z-8.000 F400.000
G2 X-80.404 Y58.497 Z-8.000 I0.000 J-1.500 K0.000 F400.000
G3 X80.404 Y58.497 Z-8.000 I80.404 J98.826 K0.000 F400.000
G2 X81.336 Y58.822 Z-8.000 I0.932 J-1.175 K0.000 F400.000
G1 X201.336 Y58.822 Z-8.000 F400.000
G2 X202.397 Y58.382 Z-8.000 I-0.000 J-1.500 K0.000 F400.000
G1 X202.397 Y58.382 Z-11.000 F200.000
G2 X202.836 Y57.322 Z-11.000 I-1.061 J-1.061 K0.000 F400.000
G1 X202.836 Y-57.322 Z-11.000 F400.000
G2 X201.336 Y-58.822 Z-11.000 I-1.500 J0.000 K0.000 F400.000
G1 X154.336 Y-58.822 Z-11.000 F400.000
G2 X152.836 Y-57.322 Z-11.000 I0.000 J1.500 K0.000 F400.000
G1 X152.836 Y-47.822 Z-11.000 F400.000
G1 X151.336 Y-47.822 Z-11.000 F400.000
G2 X149.836 Y-46.322 Z-11.000 I0.000 J1.500 K0.000 F400.000
G1 X149.836 Y-37.560 Z-11.000 F400.000
G3 X132.287 Y-29.690 Z-11.000 I-57.334 J-104.354 K0.000 F400.000
G3 X111.266 Y-24.020 Z-11.000 I-50.578 J-145.698 K0.000 F400.000
G3 X86.915 Y-20.683 Z-11.000 I-45.560 J-241.974 K0.000 F400.000
G3 X63.632 Y-19.235 Z-11.000 I-43.831 J-516.926 K0.000 F400.000
G3 X28.587 Y-18.593 Z-11.000 I-37.291 J-1078.970 K0.000 F400.000
G2 X-29.154 Y-18.501 Z-11.000 I-10.515 J11470.687 K0.000 F400.000
G3 X-57.211 Y-18.929 Z-11.000 I-2.265 J-771.415 K0.000 F400.000
G3 X-96.275 Y-21.536 Z-11.000 I16.100 J-535.185 K0.000 F400.000
G3 X-111.350 Y-23.572 Z-11.000 I22.049 J-220.099 K0.000 F400.000
G3 X-132.262 Y-28.772 Z-11.000 I19.736 J-124.005 K0.000 F400.000
G3 X-149.836 Y-36.995 Z-11.000 I27.695 J-82.087 K0.000 F400.000
G1 X-149.836 Y-46.322 Z-11.000 F400.000
G2 X-151.336 Y-47.822 Z-11.000 I-1.500 J0.000 K0.000 F400.000
G1 X-152.836 Y-47.822 Z-11.000 F400.000
G1 X-152.836 Y-57.322 Z-11.000 F400.000
G2 X-154.336 Y-58.822 Z-11.000 I-1.500 J0.000 K0.000 F400.000
G1 X-201.336 Y-58.822 Z-11.000 F400.000
G2 X-202.836 Y-57.322 Z-11.000 I0.000 J1.500 K0.000 F400.000
G1 X-202.836 Y57.322 Z-11.000 F400.000
G2 X-201.336 Y58.822 Z-11.000 I1.500 J-0.000 K0.000 F400.000
G1 X-81.336 Y58.822 Z-11.000 F400.000
G2 X-80.404 Y58.497 Z-11.000 I0.000 J-1.500 K0.000 F400.000
G3 X80.404 Y58.497 Z-11.000 I80.404 J98.826 K0.000 F400.000
G2 X81.336 Y58.822 Z-11.000 I0.932 J-1.175 K0.000 F400.000
G1 X201.336 Y58.822 Z-11.000 F400.000
G2 X202.397 Y58.382 Z-11.000 I-0.000 J-1.500 K0.000 F400.000
G1 X202.397 Y58.382 Z-14.000 F200.000
G2 X202.836 Y57.322 Z-14.000 I-1.061 J-1.061 K0.000 F400.000
G1 X202.836 Y-57.322 Z-14.000 F400.000
G2 X201.336 Y-58.822 Z-14.000 I-1.500 J0.000 K0.000 F400.000
G1 X154.336 Y-58.822 Z-14.000 F400.000
G2 X152.836 Y-57.322 Z-14.000 I0.000 J1.500 K0.000 F400.000
G1 X152.836 Y-47.822 Z-14.000 F400.000
G1 X151.336 Y-47.822 Z-14.000 F400.000
G2 X149.836 Y-46.322 Z-14.000 I0.000 J1.500 K0.000 F400.000
G1 X149.836 Y-37.560 Z-14.000 F400.000
G3 X132.287 Y-29.690 Z-14.000 I-57.334 J-104.354 K0.000 F400.000
G3 X111.266 Y-24.020 Z-14.000 I-50.578 J-145.698 K0.000 F400.000
G3 X86.915 Y-20.683 Z-14.000 I-45.560 J-241.974 K0.000 F400.000
G3 X63.632 Y-19.235 Z-14.000 I-43.831 J-516.926 K0.000 F400.000
G3 X28.587 Y-18.593 Z-14.000 I-37.291 J-1078.970 K0.000 F400.000
G2 X-29.154 Y-18.501 Z-14.000 I-10.515 J11470.687 K0.000 F400.000
G3 X-57.211 Y-18.929 Z-14.000 I-2.265 J-771.415 K0.000 F400.000
G3 X-96.275 Y-21.536 Z-14.000 I16.100 J-535.185 K0.000 F400.000
G3 X-111.350 Y-23.572 Z-14.000 I22.049 J-220.099 K0.000 F400.000
G3 X-132.262 Y-28.772 Z-14.000 I19.736 J-124.005 K0.000 F400.000
G3 X-149.836 Y-36.995 Z-14.000 I27.695 J-82.087 K0.000 F400.000
G1 X-149.836 Y-46.322 Z-14.000 F400.000
G2 X-151.336 Y-47.822 Z-14.000 I-1.500 J0.000 K0.000 F400.000
G1 X-152.836 Y-47.822 Z-14.000 F400.000
G1 X-152.836 Y-57.322 Z-14.000 F400.000
G2 X-154.336 Y-58.822 Z-14.000 I-1.500 J0.000 K0.000 F400.000
G1 X-201.336 Y-58.822 Z-14.000 F400.000
G2 X-202.836 Y-57.322 Z-14.000 I0.000 J1.500 K0.000 F400.000
G1 X-202.836 Y57.322 Z-14.000 F400.000
G2 X-201.336 Y58.822 Z-14.000 I1.500 J-0.000 K0.000 F400.000
G1 X-81.336 Y58.822 Z-14.000 F400.000
G2 X-80.404 Y58.497 Z-14.000 I0.000 J-1.500 K0.000 F400.000
G3 X80.404 Y58.497 Z-14.000 I80.404 J98.826 K0.000 F400.000
G2 X81.336 Y58.822 Z-14.000 I0.932 J-1.175 K0.000 F400.000
G1 X201.336 Y58.822 Z-14.000 F400.000
G2 X202.397 Y58.382 Z-14.000 I-0.000 J-1.500 K0.000 F400.000
G1 X202.397 Y58.382 Z-17.000 F200.000
G2 X202.836 Y57.322 Z-17.000 I-1.061 J-1.061 K0.000 F400.000
G1 X202.836 Y-57.322 Z-17.000 F400.000
G2 X201.336 Y-58.822 Z-17.000 I-1.500 J0.000 K0.000 F400.000
G1 X154.336 Y-58.822 Z-17.000 F400.000
G2 X152.836 Y-57.322 Z-17.000 I0.000 J1.500 K0.000 F400.000
G1 X152.836 Y-47.822 Z-17.000 F400.000
G1 X151.336 Y-47.822 Z-17.000 F400.000
G2 X149.836 Y-46.322 Z-17.000 I0.000 J1.500 K0.000 F400.000
G1 X149.836 Y-37.560 Z-17.000 F400.000
G3 X132.287 Y-29.690 Z-17.000 I-57.334 J-104.354 K0.000 F400.000
G3 X111.266 Y-24.020 Z-17.000 I-50.578 J-145.698 K0.000 F400.000
G3 X86.915 Y-20.683 Z-17.000 I-45.560 J-241.974 K0.000 F400.000
G3 X63.632 Y-19.235 Z-17.000 I-43.831 J-516.926 K0.000 F400.000
G3 X28.587 Y-18.593 Z-17.000 I-37.291 J-1078.970 K0.000 F400.000
G2 X-29.154 Y-18.501 Z-17.000 I-10.515 J11470.687 K0.000 F400.000
G3 X-57.211 Y-18.929 Z-17.000 I-2.265 J-771.415 K0.000 F400.000
G3 X-96.275 Y-21.536 Z-17.000 I16.100 J-535.185 K0.000 F400.000
G3 X-111.350 Y-23.572 Z-17.000 I22.049 J-220.099 K0.000 F400.000
G3 X-132.262 Y-28.772 Z-17.000 I19.736 J-124.005 K0.000 F400.000
G3 X-149.836 Y-36.995 Z-17.000 I27.695 J-82.087 K0.000 F400.000
G1 X-149.836 Y-46.322 Z-17.000 F400.000
G2 X-151.336 Y-47.822 Z-17.000 I-1.500 J0.000 K0.000 F400.000
G1 X-152.836 Y-47.822 Z-17.000 F400.000
G1 X-152.836 Y-57.322 Z-17.000 F400.000
G2 X-154.336 Y-58.822 Z-17.000 I-1.500 J0.000 K0.000 F400.000
G1 X-201.336 Y-58.822 Z-17.000 F400.000
G2 X-202.836 Y-57.322 Z-17.000 I0.000 J1.500 K0.000 F400.000
G1 X-202.836 Y57.322 Z-17.000 F400.000
G2 X-201.336 Y58.822 Z-17.000 I1.500 J-0.000 K0.000 F400.000
G1 X-81.336 Y58.822 Z-17.000 F400.000
G2 X-80.404 Y58.497 Z-17.000 I0.000 J-1.500 K0.000 F400.000
G3 X80.404 Y58.497 Z-17.000 I80.404 J98.826 K0.000 F400.000
G2 X81.336 Y58.822 Z-17.000 I0.932 J-1.175 K0.000 F400.000
G1 X201.336 Y58.822 Z-17.000 F400.000
G2 X202.397 Y58.382 Z-17.000 I-0.000 J-1.500 K0.000 F400.000
G1 X202.397 Y58.382 Z-18.000 F200.000
G2 X202.836 Y57.322 Z-18.000 I-1.061 J-1.061 K0.000 F400.000
G1 X202.836 Y-57.322 Z-18.000 F400.000
G2 X201.336 Y-58.822 Z-18.000 I-1.500 J0.000 K0.000 F400.000
G1 X154.336 Y-58.822 Z-18.000 F400.000
G2 X152.836 Y-57.322 Z-18.000 I0.000 J1.500 K0.000 F400.000
G1 X152.836 Y-47.822 Z-18.000 F400.000
G1 X151.336 Y-47.822 Z-18.000 F400.000
G2 X149.836 Y-46.322 Z-18.000 I0.000 J1.500 K0.000 F400.000
G1 X149.836 Y-37.560 Z-18.000 F400.000
G3 X132.287 Y-29.690 Z-18.000 I-57.334 J-104.354 K0.000 F400.000
G3 X111.266 Y-24.020 Z-18.000 I-50.578 J-145.698 K0.000 F400.000
G3 X86.915 Y-20.683 Z-18.000 I-45.560 J-241.974 K0.000 F400.000
G3 X63.632 Y-19.235 Z-18.000 I-43.831 J-516.926 K0.000 F400.000
G3 X28.587 Y-18.593 Z-18.000 I-37.291 J-1078.970 K0.000 F400.000
G2 X-29.154 Y-18.501 Z-18.000 I-10.515 J11470.687 K0.000 F400.000
G3 X-57.211 Y-18.929 Z-18.000 I-2.265 J-771.415 K0.000 F400.000
G3 X-96.275 Y-21.536 Z-18.000 I16.100 J-535.185 K0.000 F400.000
G3 X-111.350 Y-23.572 Z-18.000 I22.049 J-220.099 K0.000 F400.000
G3 X-132.262 Y-28.772 Z-18.000 I19.736 J-124.005 K0.000 F400.000
G3 X-149.836 Y-36.995 Z-18.000 I27.695 J-82.087 K0.000 F400.000
G1 X-149.836 Y-46.322 Z-18.000 F400.000
G2 X-151.336 Y-47.822 Z-18.000 I-1.500 J0.000 K0.000 F400.000
G1 X-152.836 Y-47.822 Z-18.000 F400.000
G1 X-152.836 Y-57.322 Z-18.000 F400.000
G2 X-154.336 Y-58.822 Z-18.000 I-1.500 J0.000 K0.000 F400.000
G1 X-201.336 Y-58.822 Z-18.000 F400.000
G2 X-202.836 Y-57.322 Z-18.000 I0.000 J1.500 K0.000 F400.000
G1 X-202.836 Y57.322 Z-18.000 F400.000
G2 X-201.336 Y58.822 Z-18.000 I1.500 J-0.000 K0.000 F400.000
G1 X-81.336 Y58.822 Z-18.000 F400.000
G2 X-80.404 Y58.497 Z-18.000 I0.000 J-1.500 K0.000 F400.000
G3 X80.404 Y58.497 Z-18.000 I80.404 J98.826 K0.000 F400.000
G2 X81.336 Y58.822 Z-18.000 I0.932 J-1.175 K0.000 F400.000
G1 X201.336 Y58.822 Z-18.000 F400.000
G2 X202.397 Y58.382 Z-18.000 I-0.000 J-1.500 K0.000 F400.000
G0 Z6.000
G0 Z6.000
(Finish operation: Profile)
(Block-name: post_amble)
(Block-expand: 0)
(Block-enable: 1)
(Begin postamble)
M5
G17 G90
M2
