(Exported by FreeCAD)
(Post Processor: script_module)
(Output Time:2025-04-02 15:49:45.491060)
(Begin preamble)
G17 G90
G21
(Block-name: Fixture)
(Block-expand: 0)
(Block-enable: 1)
(Begin operation: Fixture)
(Path: Fixture)
G54
(Finish operation: Fixture)
(Block-name: 5mm Endmill001)
(Block-expand: 0)
(Block-enable: 1)
(Begin operation: 5mm Endmill001)
(Path: 5mm Endmill001)
(5mm Endmill001)
(Begin toolchange)
( M6 T2 )
M3 S10000
(Finish operation: 5mm Endmill001)
(Block-name: Adaptive)
(Block-expand: 0)
(Block-enable: 1)
(Begin operation: Adaptive)
(Path: Adaptive)
(Adaptive)
(Helix to depth: -9.000000)
G0 Z5.000
G0 X229.424 Y25.814 Z5.000
G0 X229.424 Y25.814 Z3.000
G1 X229.424 Y25.814 Z0.000 F200.000
G1 X229.424 Y25.814 Z0.000 F200.000
G1 X229.276 Y25.688 Z-0.017 F200.000
G1 X229.155 Y25.536 Z-0.034 F200.000
G1 X229.067 Y25.364 Z-0.052 F200.000
G1 X229.013 Y25.177 Z-0.069 F200.000
G1 X228.998 Y24.983 Z-0.086 F200.000
G1 X229.020 Y24.791 Z-0.103 F200.000
G1 X229.079 Y24.606 Z-0.120 F200.000
G1 X229.174 Y24.436 Z-0.137 F200.000
G1 X229.299 Y24.288 Z-0.155 F200.000
G1 X229.451 Y24.168 Z-0.172 F200.000
G1 X229.624 Y24.079 Z-0.189 F200.000
G1 X229.811 Y24.026 Z-0.206 F200.000
G1 X230.004 Y24.010 Z-0.223 F200.000
G1 X230.197 Y24.032 Z-0.240 F200.000
G1 X230.382 Y24.092 Z-0.258 F200.000
G1 X230.551 Y24.186 Z-0.275 F200.000
G1 X230.699 Y24.312 Z-0.292 F200.000
G1 X230.820 Y24.464 Z-0.309 F200.000
G1 X230.908 Y24.636 Z-0.326 F200.000
G1 X230.962 Y24.823 Z-0.344 F200.000
G1 X230.977 Y25.017 Z-0.361 F200.000
G1 X230.955 Y25.209 Z-0.378 F200.000
G1 X230.896 Y25.394 Z-0.395 F200.000
G1 X230.801 Y25.564 Z-0.412 F200.000
G1 X230.676 Y25.712 Z-0.429 F200.000
G1 X230.524 Y25.832 Z-0.447 F200.000
G1 X230.351 Y25.921 Z-0.464 F200.000
G1 X230.164 Y25.974 Z-0.481 F200.000
G1 X229.971 Y25.990 Z-0.498 F200.000
G1 X229.778 Y25.968 Z-0.515 F200.000
G1 X229.593 Y25.908 Z-0.533 F200.000
G1 X229.424 Y25.814 Z-0.550 F200.000
G1 X229.276 Y25.688 Z-0.567 F200.000
G1 X229.155 Y25.536 Z-0.584 F200.000
G1 X229.067 Y25.364 Z-0.601 F200.000
G1 X229.013 Y25.177 Z-0.618 F200.000
G1 X228.998 Y24.983 Z-0.636 F200.000
G1 X229.020 Y24.791 Z-0.653 F200.000
G1 X229.079 Y24.606 Z-0.670 F200.000
G1 X229.174 Y24.436 Z-0.687 F200.000
G1 X229.299 Y24.288 Z-0.704 F200.000
G1 X229.451 Y24.168 Z-0.721 F200.000
G1 X229.624 Y24.079 Z-0.739 F200.000
G1 X229.811 Y24.026 Z-0.756 F200.000
G1 X230.004 Y24.010 Z-0.773 F200.000
G1 X230.197 Y24.032 Z-0.790 F200.000
G1 X230.382 Y24.092 Z-0.807 F200.000
G1 X230.551 Y24.186 Z-0.825 F200.000
G1 X230.699 Y24.312 Z-0.842 F200.000
G1 X230.820 Y24.464 Z-0.859 F200.000
G1 X230.908 Y24.636 Z-0.876 F200.000
G1 X230.962 Y24.823 Z-0.893 F200.000
G1 X230.977 Y25.017 Z-0.910 F200.000
G1 X230.955 Y25.209 Z-0.928 F200.000
G1 X230.896 Y25.394 Z-0.945 F200.000
G1 X230.801 Y25.564 Z-0.962 F200.000
G1 X230.676 Y25.712 Z-0.979 F200.000
G1 X230.524 Y25.832 Z-0.996 F200.000
G1 X230.351 Y25.921 Z-1.014 F200.000
G1 X230.164 Y25.974 Z-1.031 F200.000
G1 X229.971 Y25.990 Z-1.048 F200.000
G1 X229.778 Y25.968 Z-1.065 F200.000
G1 X229.593 Y25.908 Z-1.082 F200.000
G1 X229.424 Y25.814 Z-1.099 F200.000
G1 X229.276 Y25.688 Z-1.117 F200.000
G1 X229.155 Y25.536 Z-1.134 F200.000
G1 X229.067 Y25.364 Z-1.151 F200.000
G1 X229.013 Y25.177 Z-1.168 F200.000
G1 X228.998 Y24.983 Z-1.185 F200.000
G1 X229.020 Y24.791 Z-1.202 F200.000
G1 X229.079 Y24.606 Z-1.220 F200.000
G1 X229.174 Y24.436 Z-1.237 F200.000
G1 X229.299 Y24.288 Z-1.254 F200.000
G1 X229.451 Y24.168 Z-1.271 F200.000
G1 X229.624 Y24.079 Z-1.288 F200.000
G1 X229.811 Y24.026 Z-1.306 F200.000
G1 X230.004 Y24.010 Z-1.323 F200.000
G1 X230.197 Y24.032 Z-1.340 F200.000
G1 X230.382 Y24.092 Z-1.357 F200.000
G1 X230.551 Y24.186 Z-1.374 F200.000
G1 X230.699 Y24.312 Z-1.391 F200.000
G1 X230.820 Y24.464 Z-1.409 F200.000
G1 X230.908 Y24.636 Z-1.426 F200.000
G1 X230.962 Y24.823 Z-1.443 F200.000
G1 X230.977 Y25.017 Z-1.460 F200.000
G1 X230.955 Y25.209 Z-1.477 F200.000
G1 X230.896 Y25.394 Z-1.495 F200.000
G1 X230.801 Y25.564 Z-1.512 F200.000
G1 X230.676 Y25.712 Z-1.529 F200.000
G1 X230.524 Y25.832 Z-1.546 F200.000
G1 X230.351 Y25.921 Z-1.563 F200.000
G1 X230.164 Y25.974 Z-1.580 F200.000
G1 X229.971 Y25.990 Z-1.598 F200.000
G1 X229.778 Y25.968 Z-1.615 F200.000
G1 X229.593 Y25.908 Z-1.632 F200.000
G1 X229.424 Y25.814 Z-1.649 F200.000
G1 X229.276 Y25.688 Z-1.666 F200.000
G1 X229.155 Y25.536 Z-1.683 F200.000
G1 X229.067 Y25.364 Z-1.701 F200.000
G1 X229.013 Y25.177 Z-1.718 F200.000
G1 X228.998 Y24.983 Z-1.735 F200.000
G1 X229.020 Y24.791 Z-1.752 F200.000
G1 X229.079 Y24.606 Z-1.769 F200.000
G1 X229.174 Y24.436 Z-1.787 F200.000
G1 X229.299 Y24.288 Z-1.804 F200.000
G1 X229.451 Y24.168 Z-1.821 F200.000
G1 X229.624 Y24.079 Z-1.838 F200.000
G1 X229.811 Y24.026 Z-1.855 F200.000
G1 X230.004 Y24.010 Z-1.872 F200.000
G1 X230.197 Y24.032 Z-1.890 F200.000
G1 X230.382 Y24.092 Z-1.907 F200.000
G1 X230.551 Y24.186 Z-1.924 F200.000
G1 X230.699 Y24.312 Z-1.941 F200.000
G1 X230.820 Y24.464 Z-1.958 F200.000
G1 X230.908 Y24.636 Z-1.976 F200.000
G1 X230.962 Y24.823 Z-1.993 F200.000
G1 X230.977 Y25.017 Z-2.010 F200.000
G1 X230.955 Y25.209 Z-2.027 F200.000
G1 X230.896 Y25.394 Z-2.044 F200.000
G1 X230.801 Y25.564 Z-2.061 F200.000
G1 X230.676 Y25.712 Z-2.079 F200.000
G1 X230.524 Y25.832 Z-2.096 F200.000
G1 X230.351 Y25.921 Z-2.113 F200.000
G1 X230.164 Y25.974 Z-2.130 F200.000
G1 X229.971 Y25.990 Z-2.147 F200.000
G1 X229.778 Y25.968 Z-2.164 F200.000
G1 X229.593 Y25.908 Z-2.182 F200.000
G1 X229.424 Y25.814 Z-2.199 F200.000
G1 X229.276 Y25.688 Z-2.216 F200.000
G1 X229.155 Y25.536 Z-2.233 F200.000
G1 X229.067 Y25.364 Z-2.250 F200.000
G1 X229.013 Y25.177 Z-2.268 F200.000
G1 X228.998 Y24.983 Z-2.285 F200.000
G1 X229.020 Y24.791 Z-2.302 F200.000
G1 X229.079 Y24.606 Z-2.319 F200.000
G1 X229.174 Y24.436 Z-2.336 F200.000
G1 X229.299 Y24.288 Z-2.353 F200.000
G1 X229.451 Y24.168 Z-2.371 F200.000
G1 X229.624 Y24.079 Z-2.388 F200.000
G1 X229.811 Y24.026 Z-2.405 F200.000
G1 X230.004 Y24.010 Z-2.422 F200.000
G1 X230.197 Y24.032 Z-2.439 F200.000
G1 X230.382 Y24.092 Z-2.457 F200.000
G1 X230.551 Y24.186 Z-2.474 F200.000
G1 X230.699 Y24.312 Z-2.491 F200.000
G1 X230.820 Y24.464 Z-2.508 F200.000
G1 X230.908 Y24.636 Z-2.525 F200.000
G1 X230.962 Y24.823 Z-2.542 F200.000
G1 X230.977 Y25.017 Z-2.560 F200.000
G1 X230.955 Y25.209 Z-2.577 F200.000
G1 X230.896 Y25.394 Z-2.594 F200.000
G1 X230.801 Y25.564 Z-2.611 F200.000
G1 X230.676 Y25.712 Z-2.628 F200.000
G1 X230.524 Y25.832 Z-2.645 F200.000
G1 X230.351 Y25.921 Z-2.663 F200.000
G1 X230.164 Y25.974 Z-2.680 F200.000
G1 X229.971 Y25.990 Z-2.697 F200.000
G1 X229.778 Y25.968 Z-2.714 F200.000
G1 X229.593 Y25.908 Z-2.731 F200.000
G1 X229.424 Y25.814 Z-2.749 F200.000
G1 X229.276 Y25.688 Z-2.766 F200.000
G1 X229.155 Y25.536 Z-2.783 F200.000
G1 X229.067 Y25.364 Z-2.800 F200.000
G1 X229.013 Y25.177 Z-2.817 F200.000
G1 X228.998 Y24.983 Z-2.834 F200.000
G1 X229.020 Y24.791 Z-2.852 F200.000
G1 X229.079 Y24.606 Z-2.869 F200.000
G1 X229.174 Y24.436 Z-2.886 F200.000
G1 X229.299 Y24.288 Z-2.903 F200.000
G1 X229.451 Y24.168 Z-2.920 F200.000
G1 X229.624 Y24.079 Z-2.937 F200.000
G1 X229.811 Y24.026 Z-2.955 F200.000
G1 X230.004 Y24.010 Z-2.972 F200.000
G1 X230.197 Y24.032 Z-2.989 F200.000
G1 X230.382 Y24.092 Z-3.006 F200.000
G1 X230.551 Y24.186 Z-3.023 F200.000
G1 X230.699 Y24.312 Z-3.041 F200.000
G1 X230.820 Y24.464 Z-3.058 F200.000
G1 X230.908 Y24.636 Z-3.075 F200.000
G1 X230.962 Y24.823 Z-3.092 F200.000
G1 X230.977 Y25.017 Z-3.109 F200.000
G1 X230.955 Y25.209 Z-3.126 F200.000
G1 X230.896 Y25.394 Z-3.144 F200.000
G1 X230.801 Y25.564 Z-3.161 F200.000
G1 X230.676 Y25.712 Z-3.178 F200.000
G1 X230.524 Y25.832 Z-3.195 F200.000
G1 X230.351 Y25.921 Z-3.212 F200.000
G1 X230.164 Y25.974 Z-3.230 F200.000
G1 X229.971 Y25.990 Z-3.247 F200.000
G1 X229.778 Y25.968 Z-3.264 F200.000
G1 X229.593 Y25.908 Z-3.281 F200.000
G1 X229.424 Y25.814 Z-3.298 F200.000
G1 X229.276 Y25.688 Z-3.315 F200.000
G1 X229.155 Y25.536 Z-3.333 F200.000
G1 X229.067 Y25.364 Z-3.350 F200.000
G1 X229.013 Y25.177 Z-3.367 F200.000
G1 X228.998 Y24.983 Z-3.384 F200.000
G1 X229.020 Y24.791 Z-3.401 F200.000
G1 X229.079 Y24.606 Z-3.418 F200.000
G1 X229.174 Y24.436 Z-3.436 F200.000
G1 X229.299 Y24.288 Z-3.453 F200.000
G1 X229.451 Y24.168 Z-3.470 F200.000
G1 X229.624 Y24.079 Z-3.487 F200.000
G1 X229.811 Y24.026 Z-3.504 F200.000
G1 X230.004 Y24.010 Z-3.522 F200.000
G1 X230.197 Y24.032 Z-3.539 F200.000
G1 X230.382 Y24.092 Z-3.556 F200.000
G1 X230.551 Y24.186 Z-3.573 F200.000
G1 X230.699 Y24.312 Z-3.590 F200.000
G1 X230.820 Y24.464 Z-3.607 F200.000
G1 X230.908 Y24.636 Z-3.625 F200.000
G1 X230.962 Y24.823 Z-3.642 F200.000
G1 X230.977 Y25.017 Z-3.659 F200.000
G1 X230.955 Y25.209 Z-3.676 F200.000
G1 X230.896 Y25.394 Z-3.693 F200.000
G1 X230.801 Y25.564 Z-3.711 F200.000
G1 X230.676 Y25.712 Z-3.728 F200.000
G1 X230.524 Y25.832 Z-3.745 F200.000
G1 X230.351 Y25.921 Z-3.762 F200.000
G1 X230.164 Y25.974 Z-3.779 F200.000
G1 X229.971 Y25.990 Z-3.796 F200.000
G1 X229.778 Y25.968 Z-3.814 F200.000
G1 X229.593 Y25.908 Z-3.831 F200.000
G1 X229.424 Y25.814 Z-3.848 F200.000
G1 X229.276 Y25.688 Z-3.865 F200.000
G1 X229.155 Y25.536 Z-3.882 F200.000
G1 X229.067 Y25.364 Z-3.899 F200.000
G1 X229.013 Y25.177 Z-3.917 F200.000
G1 X228.998 Y24.983 Z-3.934 F200.000
G1 X229.020 Y24.791 Z-3.951 F200.000
G1 X229.079 Y24.606 Z-3.968 F200.000
G1 X229.174 Y24.436 Z-3.985 F200.000
G1 X229.299 Y24.288 Z-4.003 F200.000
G1 X229.451 Y24.168 Z-4.020 F200.000
G1 X229.624 Y24.079 Z-4.037 F200.000
G1 X229.811 Y24.026 Z-4.054 F200.000
G1 X230.004 Y24.010 Z-4.071 F200.000
G1 X230.197 Y24.032 Z-4.088 F200.000
G1 X230.382 Y24.092 Z-4.106 F200.000
G1 X230.551 Y24.186 Z-4.123 F200.000
G1 X230.699 Y24.312 Z-4.140 F200.000
G1 X230.820 Y24.464 Z-4.157 F200.000
G1 X230.908 Y24.636 Z-4.174 F200.000
G1 X230.962 Y24.823 Z-4.192 F200.000
G1 X230.977 Y25.017 Z-4.209 F200.000
G1 X230.955 Y25.209 Z-4.226 F200.000
G1 X230.896 Y25.394 Z-4.243 F200.000
G1 X230.801 Y25.564 Z-4.260 F200.000
G1 X230.676 Y25.712 Z-4.277 F200.000
G1 X230.524 Y25.832 Z-4.295 F200.000
G1 X230.351 Y25.921 Z-4.312 F200.000
G1 X230.164 Y25.974 Z-4.329 F200.000
G1 X229.971 Y25.990 Z-4.346 F200.000
G1 X229.778 Y25.968 Z-4.363 F200.000
G1 X229.593 Y25.908 Z-4.380 F200.000
G1 X229.424 Y25.814 Z-4.398 F200.000
G1 X229.276 Y25.688 Z-4.415 F200.000
G1 X229.155 Y25.536 Z-4.432 F200.000
G1 X229.067 Y25.364 Z-4.449 F200.000
G1 X229.013 Y25.177 Z-4.466 F200.000
G1 X228.998 Y24.983 Z-4.484 F200.000
G1 X229.020 Y24.791 Z-4.501 F200.000
G1 X229.079 Y24.606 Z-4.518 F200.000
G1 X229.174 Y24.436 Z-4.535 F200.000
G1 X229.299 Y24.288 Z-4.552 F200.000
G1 X229.451 Y24.168 Z-4.569 F200.000
G1 X229.624 Y24.079 Z-4.587 F200.000
G1 X229.811 Y24.026 Z-4.604 F200.000
G1 X230.004 Y24.010 Z-4.621 F200.000
G1 X230.197 Y24.032 Z-4.638 F200.000
G1 X230.382 Y24.092 Z-4.655 F200.000
G1 X230.551 Y24.186 Z-4.673 F200.000
G1 X230.699 Y24.312 Z-4.690 F200.000
G1 X230.820 Y24.464 Z-4.707 F200.000
G1 X230.908 Y24.636 Z-4.724 F200.000
G1 X230.962 Y24.823 Z-4.741 F200.000
G1 X230.977 Y25.017 Z-4.758 F200.000
G1 X230.955 Y25.209 Z-4.776 F200.000
G1 X230.896 Y25.394 Z-4.793 F200.000
G1 X230.801 Y25.564 Z-4.810 F200.000
G1 X230.676 Y25.712 Z-4.827 F200.000
G1 X230.524 Y25.832 Z-4.844 F200.000
G1 X230.351 Y25.921 Z-4.861 F200.000
G1 X230.164 Y25.974 Z-4.879 F200.000
G1 X229.971 Y25.990 Z-4.896 F200.000
G1 X229.778 Y25.968 Z-4.913 F200.000
G1 X229.593 Y25.908 Z-4.930 F200.000
G1 X229.424 Y25.814 Z-4.947 F200.000
G1 X229.276 Y25.688 Z-4.965 F200.000
G1 X229.155 Y25.536 Z-4.982 F200.000
G1 X229.067 Y25.364 Z-4.999 F200.000
G1 X229.013 Y25.177 Z-5.016 F200.000
G1 X228.998 Y24.983 Z-5.033 F200.000
G1 X229.020 Y24.791 Z-5.050 F200.000
G1 X229.079 Y24.606 Z-5.068 F200.000
G1 X229.174 Y24.436 Z-5.085 F200.000
G1 X229.299 Y24.288 Z-5.102 F200.000
G1 X229.451 Y24.168 Z-5.119 F200.000
G1 X229.624 Y24.079 Z-5.136 F200.000
G1 X229.811 Y24.026 Z-5.154 F200.000
G1 X230.004 Y24.010 Z-5.171 F200.000
G1 X230.197 Y24.032 Z-5.188 F200.000
G1 X230.382 Y24.092 Z-5.205 F200.000
G1 X230.551 Y24.186 Z-5.222 F200.000
G1 X230.699 Y24.312 Z-5.239 F200.000
G1 X230.820 Y24.464 Z-5.257 F200.000
G1 X230.908 Y24.636 Z-5.274 F200.000
G1 X230.962 Y24.823 Z-5.291 F200.000
G1 X230.977 Y25.017 Z-5.308 F200.000
G1 X230.955 Y25.209 Z-5.325 F200.000
G1 X230.896 Y25.394 Z-5.342 F200.000
G1 X230.801 Y25.564 Z-5.360 F200.000
G1 X230.676 Y25.712 Z-5.377 F200.000
G1 X230.524 Y25.832 Z-5.394 F200.000
G1 X230.351 Y25.921 Z-5.411 F200.000
G1 X230.164 Y25.974 Z-5.428 F200.000
G1 X229.971 Y25.990 Z-5.446 F200.000
G1 X229.778 Y25.968 Z-5.463 F200.000
G1 X229.593 Y25.908 Z-5.480 F200.000
G1 X229.424 Y25.814 Z-5.497 F200.000
G1 X229.276 Y25.688 Z-5.514 F200.000
G1 X229.155 Y25.536 Z-5.531 F200.000
G1 X229.067 Y25.364 Z-5.549 F200.000
G1 X229.013 Y25.177 Z-5.566 F200.000
G1 X228.998 Y24.983 Z-5.583 F200.000
G1 X229.020 Y24.791 Z-5.600 F200.000
G1 X229.079 Y24.606 Z-5.617 F200.000
G1 X229.174 Y24.436 Z-5.635 F200.000
G1 X229.299 Y24.288 Z-5.652 F200.000
G1 X229.451 Y24.168 Z-5.669 F200.000
G1 X229.624 Y24.079 Z-5.686 F200.000
G1 X229.811 Y24.026 Z-5.703 F200.000
G1 X230.004 Y24.010 Z-5.720 F200.000
G1 X230.197 Y24.032 Z-5.738 F200.000
G1 X230.382 Y24.092 Z-5.755 F200.000
G1 X230.551 Y24.186 Z-5.772 F200.000
G1 X230.699 Y24.312 Z-5.789 F200.000
G1 X230.820 Y24.464 Z-5.806 F200.000
G1 X230.908 Y24.636 Z-5.823 F200.000
G1 X230.962 Y24.823 Z-5.841 F200.000
G1 X230.977 Y25.017 Z-5.858 F200.000
G1 X230.955 Y25.209 Z-5.875 F200.000
G1 X230.896 Y25.394 Z-5.892 F200.000
G1 X230.801 Y25.564 Z-5.909 F200.000
G1 X230.676 Y25.712 Z-5.927 F200.000
G1 X230.524 Y25.832 Z-5.944 F200.000
G1 X230.351 Y25.921 Z-5.961 F200.000
G1 X230.164 Y25.974 Z-5.978 F200.000
G1 X229.971 Y25.990 Z-5.995 F200.000
G1 X229.778 Y25.968 Z-6.012 F200.000
G1 X229.593 Y25.908 Z-6.030 F200.000
G1 X229.424 Y25.814 Z-6.047 F200.000
G1 X229.276 Y25.688 Z-6.064 F200.000
G1 X229.155 Y25.536 Z-6.081 F200.000
G1 X229.067 Y25.364 Z-6.098 F200.000
G1 X229.013 Y25.177 Z-6.115 F200.000
G1 X228.998 Y24.983 Z-6.133 F200.000
G1 X229.020 Y24.791 Z-6.150 F200.000
G1 X229.079 Y24.606 Z-6.167 F200.000
G1 X229.174 Y24.436 Z-6.184 F200.000
G1 X229.299 Y24.288 Z-6.201 F200.000
G1 X229.451 Y24.168 Z-6.219 F200.000
G1 X229.624 Y24.079 Z-6.236 F200.000
G1 X229.811 Y24.026 Z-6.253 F200.000
G1 X230.004 Y24.010 Z-6.270 F200.000
G1 X230.197 Y24.032 Z-6.287 F200.000
G1 X230.382 Y24.092 Z-6.304 F200.000
G1 X230.551 Y24.186 Z-6.322 F200.000
G1 X230.699 Y24.312 Z-6.339 F200.000
G1 X230.820 Y24.464 Z-6.356 F200.000
G1 X230.908 Y24.636 Z-6.373 F200.000
G1 X230.962 Y24.823 Z-6.390 F200.000
G1 X230.977 Y25.017 Z-6.408 F200.000
G1 X230.955 Y25.209 Z-6.425 F200.000
G1 X230.896 Y25.394 Z-6.442 F200.000
G1 X230.801 Y25.564 Z-6.459 F200.000
G1 X230.676 Y25.712 Z-6.476 F200.000
G1 X230.524 Y25.832 Z-6.493 F200.000
G1 X230.351 Y25.921 Z-6.511 F200.000
G1 X230.164 Y25.974 Z-6.528 F200.000
G1 X229.971 Y25.990 Z-6.545 F200.000
G1 X229.778 Y25.968 Z-6.562 F200.000
G1 X229.593 Y25.908 Z-6.579 F200.000
G1 X229.424 Y25.814 Z-6.596 F200.000
G1 X229.276 Y25.688 Z-6.614 F200.000
G1 X229.155 Y25.536 Z-6.631 F200.000
G1 X229.067 Y25.364 Z-6.648 F200.000
G1 X229.013 Y25.177 Z-6.665 F200.000
G1 X228.998 Y24.983 Z-6.682 F200.000
G1 X229.020 Y24.791 Z-6.700 F200.000
G1 X229.079 Y24.606 Z-6.717 F200.000
G1 X229.174 Y24.436 Z-6.734 F200.000
G1 X229.299 Y24.288 Z-6.751 F200.000
G1 X229.451 Y24.168 Z-6.768 F200.000
G1 X229.624 Y24.079 Z-6.785 F200.000
G1 X229.811 Y24.026 Z-6.803 F200.000
G1 X230.004 Y24.010 Z-6.820 F200.000
G1 X230.197 Y24.032 Z-6.837 F200.000
G1 X230.382 Y24.092 Z-6.854 F200.000
G1 X230.551 Y24.186 Z-6.871 F200.000
G1 X230.699 Y24.312 Z-6.889 F200.000
G1 X230.820 Y24.464 Z-6.906 F200.000
G1 X230.908 Y24.636 Z-6.923 F200.000
G1 X230.962 Y24.823 Z-6.940 F200.000
G1 X230.977 Y25.017 Z-6.957 F200.000
G1 X230.955 Y25.209 Z-6.974 F200.000
G1 X230.896 Y25.394 Z-6.992 F200.000
G1 X230.801 Y25.564 Z-7.009 F200.000
G1 X230.676 Y25.712 Z-7.026 F200.000
G1 X230.524 Y25.832 Z-7.043 F200.000
G1 X230.351 Y25.921 Z-7.060 F200.000
G1 X230.164 Y25.974 Z-7.077 F200.000
G1 X229.971 Y25.990 Z-7.095 F200.000
G1 X229.778 Y25.968 Z-7.112 F200.000
G1 X229.593 Y25.908 Z-7.129 F200.000
G1 X229.424 Y25.814 Z-7.146 F200.000
G1 X229.276 Y25.688 Z-7.163 F200.000
G1 X229.155 Y25.536 Z-7.181 F200.000
G1 X229.067 Y25.364 Z-7.198 F200.000
G1 X229.013 Y25.177 Z-7.215 F200.000
G1 X228.998 Y24.983 Z-7.232 F200.000
G1 X229.020 Y24.791 Z-7.249 F200.000
G1 X229.079 Y24.606 Z-7.266 F200.000
G1 X229.174 Y24.436 Z-7.284 F200.000
G1 X229.299 Y24.288 Z-7.301 F200.000
G1 X229.451 Y24.168 Z-7.318 F200.000
G1 X229.624 Y24.079 Z-7.335 F200.000
G1 X229.811 Y24.026 Z-7.352 F200.000
G1 X230.004 Y24.010 Z-7.370 F200.000
G1 X230.197 Y24.032 Z-7.387 F200.000
G1 X230.382 Y24.092 Z-7.404 F200.000
G1 X230.551 Y24.186 Z-7.421 F200.000
G1 X230.699 Y24.312 Z-7.438 F200.000
G1 X230.820 Y24.464 Z-7.455 F200.000
G1 X230.908 Y24.636 Z-7.473 F200.000
G1 X230.962 Y24.823 Z-7.490 F200.000
G1 X230.977 Y25.017 Z-7.507 F200.000
G1 X230.955 Y25.209 Z-7.524 F200.000
G1 X230.896 Y25.394 Z-7.541 F200.000
G1 X230.801 Y25.564 Z-7.558 F200.000
G1 X230.676 Y25.712 Z-7.576 F200.000
G1 X230.524 Y25.832 Z-7.593 F200.000
G1 X230.351 Y25.921 Z-7.610 F200.000
G1 X230.164 Y25.974 Z-7.627 F200.000
G1 X229.971 Y25.990 Z-7.644 F200.000
G1 X229.778 Y25.968 Z-7.662 F200.000
G1 X229.593 Y25.908 Z-7.679 F200.000
G1 X229.424 Y25.814 Z-7.696 F200.000
G1 X229.276 Y25.688 Z-7.713 F200.000
G1 X229.155 Y25.536 Z-7.730 F200.000
G1 X229.067 Y25.364 Z-7.747 F200.000
G1 X229.013 Y25.177 Z-7.765 F200.000
G1 X228.998 Y24.983 Z-7.782 F200.000
G1 X229.020 Y24.791 Z-7.799 F200.000
G1 X229.079 Y24.606 Z-7.816 F200.000
G1 X229.174 Y24.436 Z-7.833 F200.000
G1 X229.299 Y24.288 Z-7.851 F200.000
G1 X229.451 Y24.168 Z-7.868 F200.000
G1 X229.624 Y24.079 Z-7.885 F200.000
G1 X229.811 Y24.026 Z-7.902 F200.000
G1 X230.004 Y24.010 Z-7.919 F200.000
G1 X230.197 Y24.032 Z-7.936 F200.000
G1 X230.382 Y24.092 Z-7.954 F200.000
G1 X230.551 Y24.186 Z-7.971 F200.000
G1 X230.699 Y24.312 Z-7.988 F200.000
G1 X230.820 Y24.464 Z-8.005 F200.000
G1 X230.908 Y24.636 Z-8.022 F200.000
G1 X230.962 Y24.823 Z-8.039 F200.000
G1 X230.977 Y25.017 Z-8.057 F200.000
G1 X230.955 Y25.209 Z-8.074 F200.000
G1 X230.896 Y25.394 Z-8.091 F200.000
G1 X230.801 Y25.564 Z-8.108 F200.000
G1 X230.676 Y25.712 Z-8.125 F200.000
G1 X230.524 Y25.832 Z-8.143 F200.000
G1 X230.351 Y25.921 Z-8.160 F200.000
G1 X230.164 Y25.974 Z-8.177 F200.000
G1 X229.971 Y25.990 Z-8.194 F200.000
G1 X229.778 Y25.968 Z-8.211 F200.000
G1 X229.593 Y25.908 Z-8.228 F200.000
G1 X229.424 Y25.814 Z-8.246 F200.000
G1 X229.276 Y25.688 Z-8.263 F200.000
G1 X229.155 Y25.536 Z-8.280 F200.000
G1 X229.067 Y25.364 Z-8.297 F200.000
G1 X229.013 Y25.177 Z-8.314 F200.000
G1 X228.998 Y24.983 Z-8.332 F200.000
G1 X229.020 Y24.791 Z-8.349 F200.000
G1 X229.079 Y24.606 Z-8.366 F200.000
G1 X229.174 Y24.436 Z-8.383 F200.000
G1 X229.299 Y24.288 Z-8.400 F200.000
G1 X229.451 Y24.168 Z-8.417 F200.000
G1 X229.624 Y24.079 Z-8.435 F200.000
G1 X229.811 Y24.026 Z-8.452 F200.000
G1 X230.004 Y24.010 Z-8.469 F200.000
G1 X230.197 Y24.032 Z-8.486 F200.000
G1 X230.382 Y24.092 Z-8.503 F200.000
G1 X230.551 Y24.186 Z-8.520 F200.000
G1 X230.699 Y24.312 Z-8.538 F200.000
G1 X230.820 Y24.464 Z-8.555 F200.000
G1 X230.908 Y24.636 Z-8.572 F200.000
G1 X230.962 Y24.823 Z-8.589 F200.000
G1 X230.977 Y25.017 Z-8.606 F200.000
G1 X230.955 Y25.209 Z-8.624 F200.000
G1 X230.896 Y25.394 Z-8.641 F200.000
G1 X230.801 Y25.564 Z-8.658 F200.000
G1 X230.676 Y25.712 Z-8.675 F200.000
G1 X230.524 Y25.832 Z-8.692 F200.000
G1 X230.351 Y25.921 Z-8.709 F200.000
G1 X230.164 Y25.974 Z-8.727 F200.000
G1 X229.971 Y25.990 Z-8.744 F200.000
G1 X229.778 Y25.968 Z-8.761 F200.000
G1 X229.593 Y25.908 Z-8.778 F200.000
G1 X229.424 Y25.814 Z-8.795 F200.000
G1 X229.276 Y25.688 Z-8.812 F200.000
G1 X229.155 Y25.536 Z-8.830 F200.000
G1 X229.067 Y25.364 Z-8.847 F200.000
G1 X229.013 Y25.177 Z-8.864 F200.000
G1 X228.998 Y24.983 Z-8.881 F200.000
G1 X229.020 Y24.791 Z-8.898 F200.000
G1 X229.079 Y24.606 Z-8.916 F200.000
G1 X229.174 Y24.436 Z-8.933 F200.000
G1 X229.299 Y24.288 Z-8.950 F200.000
G1 X229.451 Y24.168 Z-8.967 F200.000
G1 X229.624 Y24.079 Z-8.984 F200.000
G1 X229.811 Y24.026 Z-9.000 F400.000
G1 X230.004 Y24.010 Z-9.000 F400.000
G1 X230.197 Y24.032 Z-9.000 F400.000
G1 X230.382 Y24.092 Z-9.000 F400.000
G1 X230.551 Y24.186 Z-9.000 F400.000
G1 X230.699 Y24.312 Z-9.000 F400.000
G1 X230.820 Y24.464 Z-9.000 F400.000
G1 X230.908 Y24.636 Z-9.000 F400.000
G1 X230.962 Y24.823 Z-9.000 F400.000
G1 X230.977 Y25.017 Z-9.000 F400.000
G1 X230.955 Y25.209 Z-9.000 F400.000
G1 X230.896 Y25.394 Z-9.000 F400.000
G1 X230.801 Y25.564 Z-9.000 F400.000
G1 X230.676 Y25.712 Z-9.000 F400.000
G1 X230.524 Y25.832 Z-9.000 F400.000
G1 X230.351 Y25.921 Z-9.000 F400.000
G1 X230.164 Y25.974 Z-9.000 F400.000
G1 X229.971 Y25.990 Z-9.000 F400.000
G1 X229.778 Y25.968 Z-9.000 F400.000
G1 X229.593 Y25.908 Z-9.000 F400.000
G1 X229.424 Y25.814 Z-9.000 F400.000
G1 X229.276 Y25.688 Z-9.000 F400.000
G1 X229.155 Y25.536 Z-9.000 F400.000
G1 X229.067 Y25.364 Z-9.000 F400.000
G1 X229.013 Y25.177 Z-9.000 F400.000
G1 X228.998 Y24.983 Z-9.000 F400.000
G1 X229.020 Y24.791 Z-9.000 F400.000
G1 X229.079 Y24.606 Z-9.000 F400.000
G1 X229.174 Y24.436 Z-9.000 F400.000
G1 X229.299 Y24.288 Z-9.000 F400.000
G1 X229.451 Y24.168 Z-9.000 F400.000
G1 X229.624 Y24.079 Z-9.000 F400.000
(Adaptive - depth: -9.000000)
G1 X229.988 Y24.000 F400.000
G1 X230.056 Y23.925 F400.000
G1 X230.144 Y23.875 F400.000
G1 X230.425 Y23.812 F400.000
G1 X230.613 Y23.825 F400.000
G1 X230.794 Y23.881 F400.000
G1 X231.150 Y24.125 F400.000
G1 X231.325 Y24.356 F400.000
G1 X231.412 Y24.531 F400.000
G1 X231.481 Y24.738 F400.000
G1 X231.525 Y25.000 F400.000
G1 X231.506 Y25.294 F400.000
G1 X231.450 Y25.544 F400.000
G1 X231.344 Y25.794 F400.000
G1 X231.188 Y26.019 F400.000
G1 X231.000 Y26.212 F400.000
G1 X230.775 Y26.369 F400.000
G1 X230.525 Y26.488 F400.000
G1 X230.256 Y26.556 F400.000
G1 X229.981 Y26.575 F400.000
G1 X229.706 Y26.556 F400.000
G1 X229.412 Y26.481 F400.000
G1 X229.150 Y26.363 F400.000
G1 X228.912 Y26.188 F400.000
G1 X228.731 Y26.000 F400.000
G1 X228.575 Y25.769 F400.000
G1 X228.456 Y25.525 F400.000
G1 X228.381 Y25.231 F400.000
G1 X228.356 Y24.950 F400.000
G1 X228.381 Y24.669 F400.000
G1 X228.456 Y24.387 F400.000
G1 X228.575 Y24.131 F400.000
G1 X228.738 Y23.894 F400.000
G1 X228.925 Y23.675 F400.000
G1 X229.181 Y23.456 F400.000
G1 X229.494 Y23.269 F400.000
G1 X229.794 Y23.144 F400.000
G1 X230.125 Y23.081 F400.000
G1 X230.387 Y23.069 F400.000
G1 X230.688 Y23.106 F400.000
G1 X230.969 Y23.194 F400.000
G1 X231.231 Y23.325 F400.000
G1 X231.481 Y23.488 F400.000
G1 X231.731 Y23.725 F400.000
G1 X231.919 Y23.969 F400.000
G1 X232.069 Y24.244 F400.000
G1 X232.175 Y24.544 F400.000
G1 X232.238 Y24.856 F400.000
G1 X232.250 Y25.175 F400.000
G1 X232.213 Y25.494 F400.000
G1 X232.125 Y25.800 F400.000
G1 X232.000 Y26.100 F400.000
G1 X231.806 Y26.406 F400.000
G1 X231.594 Y26.656 F400.000
G1 X231.344 Y26.881 F400.000
G1 X231.056 Y27.069 F400.000
G1 X230.744 Y27.200 F400.000
G1 X230.456 Y27.275 F400.000
G1 X230.131 Y27.319 F400.000
G1 X229.756 Y27.319 F400.000
G1 X229.375 Y27.262 F400.000
G1 X229.037 Y27.144 F400.000
G1 X228.781 Y27.019 F400.000
G1 X228.500 Y26.837 F400.000
G1 X228.219 Y26.594 F400.000
G1 X227.988 Y26.294 F400.000
G1 X227.825 Y26.038 F400.000
G1 X227.688 Y25.719 F400.000
G1 X227.606 Y25.387 F400.000
G1 X227.569 Y25.062 F400.000
G1 X227.569 Y24.725 F400.000
G1 X227.637 Y24.325 F400.000
G1 X227.738 Y23.988 F400.000
G1 X227.887 Y23.656 F400.000
G1 X228.088 Y23.344 F400.000
G1 X228.319 Y23.062 F400.000
G1 X228.588 Y22.819 F400.000
G1 X228.881 Y22.600 F400.000
G1 X229.244 Y22.406 F400.000
G1 X229.606 Y22.288 F400.000
G1 X229.919 Y22.219 F400.000
G1 X230.281 Y22.200 F400.000
G1 X230.631 Y22.231 F400.000
G1 X230.969 Y22.294 F400.000
G1 X231.356 Y22.419 F400.000
G1 X231.731 Y22.600 F400.000
G1 X232.044 Y22.825 F400.000
G1 X232.281 Y23.038 F400.000
G1 X232.519 Y23.325 F400.000
G1 X232.719 Y23.619 F400.000
G1 X232.912 Y24.019 F400.000
G1 X233.037 Y24.387 F400.000
G1 X233.094 Y24.781 F400.000
G1 X233.106 Y25.100 F400.000
G1 X233.081 Y25.462 F400.000
G1 X233.006 Y25.863 F400.000
G1 X232.869 Y26.275 F400.000
G1 X232.688 Y26.637 F400.000
G1 X232.488 Y26.938 F400.000
G1 X232.225 Y27.238 F400.000
G1 X231.938 Y27.494 F400.000
G1 X231.625 Y27.712 F400.000
G1 X231.281 Y27.887 F400.000
G1 X230.919 Y28.031 F400.000
G1 X230.481 Y28.137 F400.000
G1 X230.075 Y28.188 F400.000
G1 X229.662 Y28.194 F400.000
G1 X229.244 Y28.131 F400.000
G1 X228.894 Y28.044 F400.000
G1 X228.525 Y27.894 F400.000
G1 X228.188 Y27.700 F400.000
G1 X227.875 Y27.469 F400.000
G1 X227.581 Y27.206 F400.000
G1 X227.275 Y26.844 F400.000
G1 X227.056 Y26.494 F400.000
G1 X226.894 Y26.163 F400.000
G1 X226.762 Y25.775 F400.000
G1 X226.688 Y25.394 F400.000
G1 X226.656 Y25.006 F400.000
G1 X226.656 Y24.613 F400.000
G1 X226.731 Y24.094 F400.000
G1 X226.838 Y23.681 F400.000
G1 X227.006 Y23.275 F400.000
G1 X227.188 Y22.950 F400.000
G1 X227.425 Y22.619 F400.000
G1 X227.681 Y22.312 F400.000
G1 X228.062 Y21.969 F400.000
G1 X228.425 Y21.725 F400.000
G1 X228.762 Y21.538 F400.000
G1 X229.169 Y21.381 F400.000
G1 X230.044 Y21.206 F400.000
G1 X230.700 Y21.206 F400.000
G1 X231.356 Y21.331 F400.000
G1 X231.544 Y21.394 F400.000
G1 X232.100 Y21.669 F400.000
G1 X232.619 Y22.012 F400.000
G1 X232.969 Y22.325 F400.000
G1 X233.206 Y22.594 F400.000
G1 X233.431 Y22.900 F400.000
G1 X233.669 Y23.306 F400.000
G1 X233.863 Y23.756 F400.000
G1 X233.981 Y24.188 F400.000
G1 X234.050 Y24.569 F400.000
G1 X234.088 Y25.006 F400.000
G1 X234.062 Y25.500 F400.000
G1 X234.000 Y25.931 F400.000
G1 X233.887 Y26.369 F400.000
G1 X233.719 Y26.800 F400.000
G1 X233.488 Y27.194 F400.000
G1 X233.269 Y27.500 F400.000
G1 X232.994 Y27.825 F400.000
G1 X232.631 Y28.169 F400.000
G1 X232.219 Y28.488 F400.000
G1 X231.800 Y28.725 F400.000
G1 X231.519 Y28.831 F400.000
G1 X230.838 Y29.031 F400.000
G1 X230.037 Y29.137 F400.000
G1 X229.238 Y29.094 F400.000
G1 X228.537 Y28.925 F400.000
G1 X227.869 Y28.625 F400.000
G1 X227.338 Y28.288 F400.000
G1 X226.863 Y27.875 F400.000
G1 X226.537 Y27.488 F400.000
G1 X226.338 Y27.206 F400.000
G1 X226.125 Y26.850 F400.000
G1 X225.912 Y26.375 F400.000
G1 X225.756 Y25.887 F400.000
G1 X225.669 Y25.419 F400.000
G1 X225.625 Y25.000 F400.000
G1 X225.631 Y24.538 F400.000
G1 X225.675 Y24.087 F400.000
G1 X225.787 Y23.550 F400.000
G1 X225.931 Y23.087 F400.000
G1 X226.137 Y22.644 F400.000
G1 X226.350 Y22.288 F400.000
G1 X226.619 Y21.906 F400.000
G1 X226.981 Y21.512 F400.000
G1 X227.637 Y20.944 F400.000
G1 X227.963 Y20.719 F400.000
G1 X228.331 Y20.594 F400.000
G1 X231.894 Y20.600 F400.000
G1 X232.456 Y20.706 F400.000
G1 X232.725 Y20.819 F400.000
G1 X233.500 Y21.363 F400.000
G1 X233.994 Y21.875 F400.000
G1 X234.350 Y22.381 F400.000
G1 X234.588 Y22.800 F400.000
G1 X234.787 Y23.219 F400.000
G1 X234.969 Y23.756 F400.000
G1 X235.088 Y24.244 F400.000
G1 X235.137 Y24.750 F400.000
G1 X235.137 Y25.163 F400.000
G1 X235.113 Y25.631 F400.000
G1 X235.000 Y26.225 F400.000
G1 X234.869 Y26.694 F400.000
G1 X234.688 Y27.181 F400.000
G1 X234.450 Y27.656 F400.000
G1 X234.156 Y28.075 F400.000
G1 X233.900 Y28.381 F400.000
G1 X233.575 Y28.725 F400.000
G1 X232.838 Y29.256 F400.000
G1 X232.469 Y29.406 F400.000
G1 X232.369 Y29.425 F400.000
G1 X228.169 Y29.413 F400.000
G1 X227.469 Y29.288 F400.000
G1 X227.181 Y29.175 F400.000
G1 X226.475 Y28.738 F400.000
G1 X226.312 Y28.613 F400.000
G1 X225.844 Y28.194 F400.000
G1 X225.450 Y27.706 F400.000
G1 X225.031 Y26.969 F400.000
G1 X224.825 Y26.475 F400.000
G1 X224.681 Y25.925 F400.000
G1 X224.594 Y25.469 F400.000
G1 X224.550 Y24.956 F400.000
G1 X224.537 Y24.444 F400.000
G1 X224.588 Y23.825 F400.000
G1 X224.700 Y23.294 F400.000
G1 X224.825 Y22.856 F400.000
G1 X225.025 Y22.369 F400.000
G1 X225.262 Y21.925 F400.000
G1 X225.519 Y21.506 F400.000
G1 X226.156 Y20.712 F400.000
G1 X226.231 Y20.650 F400.000
G1 X226.319 Y20.606 F400.000
G1 X226.412 Y20.581 F400.000
G1 X226.694 Y20.581 F400.000
G1 X226.694 Y20.581 F400.000
G1 X226.919 Y20.613 F400.000
G1 X227.188 Y20.738 F400.000
G0 X227.256 Y20.781
G0 X228.144 Y21.369
G0 X228.281 Y21.425
G0 X230.625 Y21.356
G0 X231.356 Y20.994
G1 X231.425 Y20.962 F400.000
G1 X231.488 Y20.925 F400.000
G1 X231.956 Y20.656 F400.000
G1 X232.338 Y20.581 F400.000
G1 X232.338 Y20.581 F400.000
G1 X233.369 Y20.594 F400.000
G1 X233.838 Y20.688 F400.000
G1 X234.019 Y20.756 F400.000
G1 X234.562 Y21.163 F400.000
G1 X234.838 Y21.438 F400.000
G1 X235.225 Y21.919 F400.000
G1 X235.562 Y22.438 F400.000
G1 X235.787 Y22.931 F400.000
G1 X235.925 Y23.281 F400.000
G1 X236.075 Y23.788 F400.000
G1 X236.188 Y24.381 F400.000
G1 X236.225 Y24.956 F400.000
G1 X236.225 Y25.413 F400.000
G1 X236.169 Y25.950 F400.000
G1 X236.081 Y26.462 F400.000
G1 X235.919 Y27.062 F400.000
G1 X235.725 Y27.587 F400.000
G1 X235.463 Y28.087 F400.000
G1 X235.219 Y28.475 F400.000
G1 X234.900 Y28.887 F400.000
G1 X234.469 Y29.306 F400.000
G1 X234.287 Y29.400 F400.000
G1 X234.188 Y29.425 F400.000
G1 X233.287 Y29.425 F400.000
G1 X233.287 Y29.425 F400.000
G1 X233.050 Y29.387 F400.000
G1 X232.906 Y29.325 F400.000
G1 X232.794 Y29.238 F400.000
G0 X232.756 Y29.181
G0 X232.725 Y28.975
G0 X233.219 Y21.256
G1 X233.225 Y21.150 F400.000
G1 X233.262 Y20.887 F400.000
G1 X233.344 Y20.756 F400.000
G1 X233.463 Y20.663 F400.000
G1 X233.681 Y20.594 F400.000
G1 X233.838 Y20.581 F400.000
G1 X233.838 Y20.581 F400.000
G1 X234.588 Y20.594 F400.000
G1 X235.056 Y20.681 F400.000
G1 X235.231 Y20.750 F400.000
G1 X235.756 Y21.163 F400.000
G1 X236.019 Y21.438 F400.000
G1 X236.387 Y21.938 F400.000
G1 X236.706 Y22.469 F400.000
G1 X236.931 Y23.000 F400.000
G1 X237.062 Y23.381 F400.000
G1 X237.206 Y23.900 F400.000
G1 X237.294 Y24.506 F400.000
G1 X237.325 Y25.006 F400.000
G1 X237.331 Y25.550 F400.000
G1 X237.269 Y26.169 F400.000
G1 X237.169 Y26.725 F400.000
G1 X237.019 Y27.300 F400.000
G1 X236.812 Y27.869 F400.000
G1 X236.569 Y28.400 F400.000
G1 X236.275 Y28.925 F400.000
G1 X235.950 Y29.300 F400.000
G1 X235.775 Y29.400 F400.000
G1 X235.675 Y29.425 F400.000
G1 X235.075 Y29.425 F400.000
G1 X235.075 Y29.425 F400.000
G1 X234.838 Y29.387 F400.000
G1 X234.694 Y29.325 F400.000
G1 X234.575 Y29.238 F400.000
G0 X234.537 Y29.181
G0 X234.494 Y28.975
G0 X234.456 Y21.256
G1 X234.456 Y21.150 F400.000
G1 X234.475 Y20.887 F400.000
G1 X234.500 Y20.812 F400.000
G1 X234.600 Y20.706 F400.000
G1 X234.731 Y20.631 F400.000
G1 X235.037 Y20.581 F400.000
G1 X235.037 Y20.581 F400.000
G1 X235.694 Y20.587 F400.000
G1 X236.162 Y20.675 F400.000
G1 X236.425 Y20.788 F400.000
G1 X236.800 Y21.081 F400.000
G1 X237.131 Y21.425 F400.000
G1 X237.500 Y21.925 F400.000
G1 X237.812 Y22.462 F400.000
G1 X238.037 Y23.000 F400.000
G1 X238.181 Y23.400 F400.000
G1 X238.312 Y23.950 F400.000
G1 X238.400 Y24.456 F400.000
G1 X238.450 Y25.075 F400.000
G1 X238.444 Y25.650 F400.000
G1 X238.394 Y26.231 F400.000
G1 X238.312 Y26.844 F400.000
G1 X238.175 Y27.450 F400.000
G1 X237.994 Y28.044 F400.000
G1 X237.744 Y28.613 F400.000
G1 X237.488 Y29.044 F400.000
G1 X237.300 Y29.269 F400.000
G1 X237.137 Y29.394 F400.000
G1 X237.044 Y29.425 F400.000
G1 X236.344 Y29.425 F400.000
G1 X236.344 Y29.425 F400.000
G1 X236.106 Y29.387 F400.000
G1 X235.963 Y29.325 F400.000
G1 X235.844 Y29.238 F400.000
G0 X235.806 Y29.181
G0 X235.750 Y28.900
G0 X235.512 Y21.256
G1 X235.512 Y21.150 F400.000
G1 X235.525 Y20.887 F400.000
G1 X235.550 Y20.812 F400.000
G1 X235.650 Y20.706 F400.000
G1 X235.781 Y20.631 F400.000
G1 X236.088 Y20.581 F400.000
G1 X236.088 Y20.581 F400.000
G1 X236.838 Y20.587 F400.000
G1 X237.306 Y20.675 F400.000
G1 X237.569 Y20.788 F400.000
G1 X238.075 Y21.225 F400.000
G1 X238.262 Y21.438 F400.000
G1 X238.631 Y21.938 F400.000
G1 X238.925 Y22.488 F400.000
G1 X239.119 Y22.944 F400.000
G1 X239.281 Y23.406 F400.000
G1 X239.444 Y23.988 F400.000
G1 X239.550 Y24.600 F400.000
G1 X239.606 Y25.181 F400.000
G1 X239.619 Y25.800 F400.000
G1 X239.575 Y26.419 F400.000
G1 X239.488 Y27.025 F400.000
G1 X239.350 Y27.631 F400.000
G1 X239.162 Y28.225 F400.000
G1 X238.906 Y28.788 F400.000
G1 X238.569 Y29.269 F400.000
G1 X238.406 Y29.381 F400.000
G1 X238.312 Y29.425 F400.000
G1 X237.312 Y29.425 F400.000
G1 X237.312 Y29.425 F400.000
G1 X237.075 Y29.387 F400.000
G1 X236.931 Y29.325 F400.000
G1 X236.812 Y29.238 F400.000
G0 X236.775 Y29.181
G0 X236.731 Y28.975
G0 X236.706 Y21.256
G1 X236.706 Y21.150 F400.000
G1 X236.725 Y20.887 F400.000
G1 X236.750 Y20.812 F400.000
G1 X236.850 Y20.706 F400.000
G1 X236.981 Y20.631 F400.000
G1 X237.287 Y20.581 F400.000
G1 X237.287 Y20.581 F400.000
G1 X238.037 Y20.594 F400.000
G1 X238.412 Y20.669 F400.000
G1 X238.594 Y20.738 F400.000
G1 X238.969 Y21.025 F400.000
G1 X239.369 Y21.438 F400.000
G1 X239.731 Y21.938 F400.000
G1 X240.031 Y22.481 F400.000
G1 X240.256 Y22.981 F400.000
G1 X240.438 Y23.462 F400.000
G1 X240.594 Y24.062 F400.000
G1 X240.688 Y24.613 F400.000
G1 X240.756 Y25.175 F400.000
G1 X240.769 Y25.794 F400.000
G1 X240.756 Y26.394 F400.000
G1 X240.688 Y27.012 F400.000
G1 X240.575 Y27.625 F400.000
G1 X240.387 Y28.219 F400.000
G1 X240.194 Y28.675 F400.000
G1 X239.812 Y29.256 F400.000
G1 X239.744 Y29.331 F400.000
G1 X239.656 Y29.387 F400.000
G1 X239.562 Y29.425 F400.000
G1 X238.662 Y29.425 F400.000
G1 X238.662 Y29.425 F400.000
G1 X238.425 Y29.387 F400.000
G1 X238.281 Y29.325 F400.000
G1 X238.162 Y29.238 F400.000
G0 X238.125 Y29.181
G0 X238.075 Y28.900
G0 X237.912 Y21.256
G1 X237.912 Y21.150 F400.000
G1 X237.925 Y20.887 F400.000
G1 X237.950 Y20.812 F400.000
G1 X238.050 Y20.706 F400.000
G1 X238.181 Y20.631 F400.000
G1 X238.488 Y20.581 F400.000
G1 X238.488 Y20.581 F400.000
G1 X239.050 Y20.587 F400.000
G1 X239.519 Y20.675 F400.000
G1 X239.781 Y20.788 F400.000
G1 X240.356 Y21.281 F400.000
G1 X240.481 Y21.425 F400.000
G1 X240.856 Y21.919 F400.000
G1 X241.175 Y22.450 F400.000
G1 X241.419 Y23.000 F400.000
G1 X241.581 Y23.419 F400.000
G1 X241.738 Y24.012 F400.000
G1 X241.844 Y24.550 F400.000
G1 X241.912 Y25.169 F400.000
G1 X241.950 Y25.781 F400.000
G1 X241.938 Y26.400 F400.000
G1 X241.881 Y27.019 F400.000
G1 X241.781 Y27.631 F400.000
G1 X241.594 Y28.225 F400.000
G1 X241.431 Y28.663 F400.000
G1 X241.119 Y29.169 F400.000
G1 X240.988 Y29.325 F400.000
G1 X240.812 Y29.425 F400.000
G1 X239.912 Y29.425 F400.000
G1 X239.912 Y29.425 F400.000
G1 X239.675 Y29.387 F400.000
G1 X239.531 Y29.325 F400.000
G1 X239.412 Y29.238 F400.000
G0 X239.375 Y29.181
G0 X239.319 Y28.900
G0 X238.969 Y21.256
G1 X238.969 Y21.150 F400.000
G1 X238.975 Y20.887 F400.000
G1 X239.006 Y20.812 F400.000
G1 X239.100 Y20.706 F400.000
G1 X239.231 Y20.631 F400.000
G1 X239.537 Y20.581 F400.000
G1 X239.537 Y20.581 F400.000
G1 X240.194 Y20.594 F400.000
G1 X240.662 Y20.681 F400.000
G1 X240.844 Y20.750 F400.000
G1 X241.300 Y21.100 F400.000
G1 X241.631 Y21.450 F400.000
G1 X242.019 Y21.931 F400.000
G1 X242.331 Y22.469 F400.000
G1 X242.575 Y22.994 F400.000
G1 X242.744 Y23.462 F400.000
G1 X242.881 Y23.925 F400.000
G1 X243.012 Y24.531 F400.000
G1 X243.100 Y25.144 F400.000
G1 X243.144 Y25.762 F400.000
G1 X243.144 Y26.381 F400.000
G1 X243.106 Y27.000 F400.000
G1 X242.994 Y27.613 F400.000
G1 X242.869 Y28.125 F400.000
G1 X242.637 Y28.706 F400.000
G1 X242.325 Y29.212 F400.000
G1 X242.262 Y29.288 F400.000
G1 X242.094 Y29.400 F400.000
G1 X241.994 Y29.425 F400.000
G1 X240.994 Y29.425 F400.000
G1 X240.994 Y29.425 F400.000
G1 X240.756 Y29.387 F400.000
G1 X240.613 Y29.325 F400.000
G1 X240.494 Y29.238 F400.000
G0 X240.456 Y29.181
G0 X240.400 Y28.900
G0 X240.019 Y21.256
G1 X240.019 Y21.150 F400.000
G1 X240.025 Y20.887 F400.000
G1 X240.056 Y20.812 F400.000
G1 X240.150 Y20.706 F400.000
G1 X240.281 Y20.631 F400.000
G1 X240.588 Y20.581 F400.000
G1 X240.588 Y20.581 F400.000
G1 X241.338 Y20.594 F400.000
G1 X241.806 Y20.681 F400.000
G1 X241.988 Y20.750 F400.000
G1 X242.444 Y21.094 F400.000
G1 X242.775 Y21.444 F400.000
G1 X243.150 Y21.938 F400.000
G1 X243.463 Y22.475 F400.000
G1 X243.713 Y23.019 F400.000
G1 X243.900 Y23.488 F400.000
G1 X244.069 Y24.087 F400.000
G1 X244.200 Y24.650 F400.000
G1 X244.287 Y25.262 F400.000
G1 X244.325 Y25.881 F400.000
G1 X244.325 Y26.500 F400.000
G1 X244.275 Y27.119 F400.000
G1 X244.181 Y27.731 F400.000
G1 X244.000 Y28.325 F400.000
G1 X243.844 Y28.750 F400.000
G1 X243.588 Y29.169 F400.000
G1 X243.456 Y29.319 F400.000
G1 X243.281 Y29.419 F400.000
G1 X242.181 Y29.425 F400.000
G1 X242.181 Y29.425 F400.000
G1 X241.944 Y29.387 F400.000
G1 X241.800 Y29.325 F400.000
G1 X241.681 Y29.238 F400.000
G0 X241.644 Y29.181
G0 X241.588 Y28.900
G0 X241.219 Y21.256
G1 X241.219 Y21.150 F400.000
G1 X241.225 Y20.887 F400.000
G1 X241.256 Y20.812 F400.000
G1 X241.350 Y20.706 F400.000
G1 X241.481 Y20.631 F400.000
G1 X241.787 Y20.581 F400.000
G1 X241.787 Y20.581 F400.000
G1 X242.537 Y20.594 F400.000
G1 X242.912 Y20.669 F400.000
G1 X243.175 Y20.781 F400.000
G1 X243.556 Y21.081 F400.000
G1 X243.894 Y21.425 F400.000
G1 X244.269 Y21.919 F400.000
G1 X244.594 Y22.450 F400.000
G1 X244.844 Y22.956 F400.000
G1 X245.050 Y23.450 F400.000
G1 X245.231 Y24.044 F400.000
G1 X245.356 Y24.606 F400.000
G1 X245.438 Y25.181 F400.000
G1 X245.500 Y25.775 F400.000
G1 X245.500 Y26.394 F400.000
G1 X245.463 Y27.012 F400.000
G1 X245.387 Y27.631 F400.000
G1 X245.231 Y28.231 F400.000
G1 X244.963 Y28.869 F400.000
G1 X244.750 Y29.206 F400.000
G1 X244.688 Y29.281 F400.000
G1 X244.525 Y29.394 F400.000
G1 X244.431 Y29.425 F400.000
G1 X243.331 Y29.425 F400.000
G1 X243.331 Y29.425 F400.000
G1 X243.094 Y29.387 F400.000
G1 X242.950 Y29.325 F400.000
G1 X242.831 Y29.238 F400.000
G0 X242.794 Y29.181
G0 X242.738 Y28.900
G0 X242.419 Y21.256
G1 X242.419 Y21.150 F400.000
G1 X242.425 Y20.887 F400.000
G1 X242.456 Y20.812 F400.000
G1 X242.550 Y20.706 F400.000
G1 X242.681 Y20.631 F400.000
G1 X242.988 Y20.581 F400.000
G1 X242.988 Y20.581 F400.000
G1 X243.644 Y20.594 F400.000
G1 X244.113 Y20.681 F400.000
G1 X244.294 Y20.750 F400.000
G1 X244.744 Y21.100 F400.000
G1 X245.075 Y21.444 F400.000
G1 X245.456 Y21.938 F400.000
G1 X245.775 Y22.469 F400.000
G1 X246.019 Y22.981 F400.000
G1 X246.213 Y23.450 F400.000
G1 X246.406 Y24.038 F400.000
G1 X246.544 Y24.644 F400.000
G1 X246.637 Y25.244 F400.000
G1 X246.688 Y25.863 F400.000
G1 X246.688 Y26.481 F400.000
G1 X246.637 Y27.100 F400.000
G1 X246.544 Y27.712 F400.000
G1 X246.400 Y28.319 F400.000
G1 X246.150 Y28.887 F400.000
G1 X245.925 Y29.206 F400.000
G1 X245.769 Y29.325 F400.000
G1 X245.675 Y29.363 F400.000
G1 X244.775 Y29.425 F400.000
G1 X244.775 Y29.425 F400.000
G1 X244.537 Y29.387 F400.000
G1 X244.394 Y29.325 F400.000
G1 X244.275 Y29.238 F400.000
G0 X244.238 Y29.181
G0 X244.169 Y28.900
G0 X243.494 Y21.256
G1 X243.488 Y21.150 F400.000
G1 X243.475 Y20.969 F400.000
G1 X243.506 Y20.812 F400.000
G1 X243.600 Y20.706 F400.000
G1 X243.731 Y20.631 F400.000
G1 X244.037 Y20.581 F400.000
G1 X244.037 Y20.581 F400.000
G1 X244.787 Y20.594 F400.000
G1 X245.256 Y20.681 F400.000
G1 X245.519 Y20.800 F400.000
G1 X245.894 Y21.100 F400.000
G1 X246.469 Y21.744 F400.000
G1 X246.838 Y22.244 F400.000
G1 X247.131 Y22.788 F400.000
G1 X247.363 Y23.350 F400.000
G1 X247.519 Y23.819 F400.000
G1 X247.662 Y24.331 F400.000
G1 X247.781 Y24.944 F400.000
G1 X247.856 Y25.562 F400.000
G1 X247.894 Y26.181 F400.000
G1 X247.887 Y26.800 F400.000
G1 X247.794 Y27.512 F400.000
G1 X247.613 Y28.169 F400.000
G1 X247.506 Y28.450 F400.000
G1 X247.344 Y28.700 F400.000
G1 X247.275 Y28.775 F400.000
G1 X247.012 Y28.925 F400.000
G1 X246.456 Y29.169 F400.000
G1 X245.856 Y29.325 F400.000
G1 X245.856 Y29.325 F400.000
G1 X245.619 Y29.331 F400.000
G1 X245.463 Y29.306 F400.000
G1 X245.338 Y29.244 F400.000
G0 X245.294 Y29.194
G0 X245.244 Y29.069
G0 X244.681 Y21.225
G1 X244.675 Y21.119 F400.000
G1 X244.669 Y20.938 F400.000
G1 X244.675 Y20.856 F400.000
G1 X244.700 Y20.788 F400.000
G1 X244.800 Y20.688 F400.000
G1 X244.931 Y20.625 F400.000
G1 X245.238 Y20.581 F400.000
G1 X245.238 Y20.581 F400.000
G1 X246.081 Y20.712 F400.000
G1 X246.544 Y20.869 F400.000
G1 X247.050 Y21.144 F400.000
G1 X247.350 Y21.381 F400.000
G1 X247.619 Y21.663 F400.000
G1 X248.094 Y22.375 F400.000
G1 X248.650 Y23.694 F400.000
G1 X248.981 Y25.288 F400.000
G1 X249.031 Y26.319 F400.000
G1 X248.963 Y26.788 F400.000
G1 X248.894 Y27.069 F400.000
G1 X248.406 Y27.819 F400.000
G1 X247.850 Y28.369 F400.000
G1 X247.444 Y28.681 F400.000
G1 X247.356 Y28.731 F400.000
G1 X247.356 Y28.731 F400.000
G1 X247.131 Y28.806 F400.000
G1 X246.981 Y28.831 F400.000
G1 X246.850 Y28.806 F400.000
G0 X246.806 Y28.769
G0 X246.762 Y28.656
G0 X246.744 Y28.369
G0 X246.625 Y21.556
G1 X246.625 Y21.456 F400.000
G1 X246.625 Y21.275 F400.000
G1 X246.644 Y21.200 F400.000
G1 X246.675 Y21.150 F400.000
G1 X246.725 Y21.113 F400.000
G1 X246.856 Y21.087 F400.000
G1 X247.081 Y21.125 F400.000
G1 X247.231 Y21.188 F400.000
G1 X247.231 Y21.188 F400.000
G1 X247.856 Y21.619 F400.000
G1 X248.338 Y22.100 F400.000
G1 X248.731 Y22.631 F400.000
G1 X249.156 Y23.494 F400.000
G1 X249.369 Y24.337 F400.000
G1 X249.412 Y25.181 F400.000
G1 X249.294 Y26.025 F400.000
G1 X249.113 Y26.587 F400.000
G1 X249.113 Y26.587 F400.000
G1 X248.988 Y26.775 F400.000
G1 X248.812 Y26.925 F400.000
G1 X248.744 Y26.962 F400.000
G0 X248.675 Y26.988
G0 X248.381 Y27.044
G0 X232.812 Y28.544
G0 X229.556 Y28.650
G0 X228.706 Y29.006
G1 X228.637 Y29.044 F400.000
G1 X228.431 Y29.144 F400.000
G1 X228.031 Y29.363 F400.000
G1 X227.731 Y29.425 F400.000
G1 X227.731 Y29.425 F400.000
G1 X226.631 Y29.413 F400.000
G1 X226.131 Y29.319 F400.000
G1 X225.938 Y29.250 F400.000
G1 X225.412 Y28.900 F400.000
G1 X225.094 Y28.625 F400.000
G1 X224.656 Y28.175 F400.000
G1 X224.294 Y27.656 F400.000
G1 X224.069 Y27.250 F400.000
G1 X223.881 Y26.869 F400.000
G1 X223.681 Y26.337 F400.000
G1 X223.531 Y25.738 F400.000
G1 X223.438 Y25.225 F400.000
G1 X223.387 Y24.663 F400.000
G1 X223.394 Y24.100 F400.000
G1 X223.444 Y23.550 F400.000
G1 X223.569 Y23.006 F400.000
G1 X223.706 Y22.562 F400.000
G1 X223.887 Y22.075 F400.000
G1 X224.150 Y21.506 F400.000
G1 X224.631 Y20.706 F400.000
G1 X224.706 Y20.637 F400.000
G1 X224.787 Y20.587 F400.000
G1 X224.787 Y20.587 F400.000
G1 X225.012 Y20.619 F400.000
G1 X225.150 Y20.669 F400.000
G1 X225.269 Y20.756 F400.000
G0 X225.306 Y20.806
G0 X225.394 Y21.081
G0 X226.706 Y28.725
G1 X226.725 Y28.819 F400.000
G1 X226.762 Y29.056 F400.000
G1 X226.756 Y29.125 F400.000
G1 X226.738 Y29.188 F400.000
G1 X226.650 Y29.288 F400.000
G1 X226.525 Y29.363 F400.000
G1 X226.231 Y29.425 F400.000
G1 X226.231 Y29.425 F400.000
G1 X225.431 Y29.413 F400.000
G1 X224.931 Y29.325 F400.000
G1 X224.644 Y29.200 F400.000
G1 X224.381 Y29.025 F400.000
G1 X223.912 Y28.613 F400.000
G1 X223.500 Y28.137 F400.000
G1 X223.150 Y27.613 F400.000
G1 X222.912 Y27.175 F400.000
G1 X222.725 Y26.756 F400.000
G1 X222.531 Y26.225 F400.000
G1 X222.381 Y25.613 F400.000
G1 X222.287 Y25.069 F400.000
G1 X222.231 Y24.481 F400.000
G1 X222.231 Y23.881 F400.000
G1 X222.306 Y23.306 F400.000
G1 X222.394 Y22.856 F400.000
G1 X222.519 Y22.331 F400.000
G1 X222.719 Y21.738 F400.000
G1 X223.006 Y21.069 F400.000
G1 X223.213 Y20.719 F400.000
G1 X223.363 Y20.594 F400.000
G1 X223.363 Y20.594 F400.000
G1 X223.588 Y20.625 F400.000
G1 X223.725 Y20.675 F400.000
G1 X223.844 Y20.762 F400.000
G0 X223.887 Y20.812
G0 X223.981 Y21.087
G0 X225.500 Y28.731
G1 X225.519 Y28.825 F400.000
G1 X225.562 Y29.056 F400.000
G1 X225.556 Y29.125 F400.000
G1 X225.537 Y29.188 F400.000
G1 X225.450 Y29.288 F400.000
G1 X225.325 Y29.363 F400.000
G1 X225.031 Y29.425 F400.000
G1 X225.031 Y29.425 F400.000
G1 X224.331 Y29.413 F400.000
G1 X223.831 Y29.319 F400.000
G1 X223.544 Y29.194 F400.000
G1 X222.806 Y28.613 F400.000
G1 X222.387 Y28.144 F400.000
G1 X222.025 Y27.631 F400.000
G1 X221.750 Y27.113 F400.000
G1 X221.569 Y26.725 F400.000
G1 X221.381 Y26.163 F400.000
G1 X221.244 Y25.656 F400.000
G1 X221.131 Y25.038 F400.000
G1 X221.081 Y24.450 F400.000
G1 X221.069 Y23.863 F400.000
G1 X221.113 Y23.250 F400.000
G1 X221.206 Y22.663 F400.000
G1 X221.344 Y22.081 F400.000
G1 X221.531 Y21.512 F400.000
G1 X221.762 Y20.962 F400.000
G1 X221.919 Y20.700 F400.000
G1 X221.994 Y20.631 F400.000
G1 X222.081 Y20.581 F400.000
G1 X222.081 Y20.581 F400.000
G1 X222.306 Y20.613 F400.000
G1 X222.444 Y20.663 F400.000
G1 X222.562 Y20.750 F400.000
G0 X222.606 Y20.800
G0 X222.706 Y21.075
G0 X224.438 Y28.731
G1 X224.456 Y28.825 F400.000
G1 X224.506 Y29.056 F400.000
G1 X224.506 Y29.125 F400.000
G1 X224.488 Y29.188 F400.000
G1 X224.400 Y29.288 F400.000
G1 X224.275 Y29.363 F400.000
G1 X223.981 Y29.425 F400.000
G1 X223.981 Y29.425 F400.000
G1 X223.181 Y29.413 F400.000
G1 X222.681 Y29.312 F400.000
G1 X222.488 Y29.238 F400.000
G1 X222.056 Y28.950 F400.000
G1 X221.669 Y28.600 F400.000
G1 X221.238 Y28.144 F400.000
G1 X220.887 Y27.619 F400.000
G1 X220.637 Y27.181 F400.000
G1 X220.431 Y26.712 F400.000
G1 X220.262 Y26.256 F400.000
G1 X220.094 Y25.650 F400.000
G1 X219.981 Y25.031 F400.000
G1 X219.919 Y24.456 F400.000
G1 X219.906 Y23.844 F400.000
G1 X219.925 Y23.238 F400.000
G1 X220.000 Y22.613 F400.000
G1 X220.119 Y21.994 F400.000
G1 X220.306 Y21.394 F400.000
G1 X220.631 Y20.738 F400.000
G1 X220.694 Y20.663 F400.000
G1 X220.775 Y20.600 F400.000
G1 X220.869 Y20.581 F400.000
G1 X220.869 Y20.581 F400.000
G1 X221.094 Y20.613 F400.000
G1 X221.231 Y20.663 F400.000
G1 X221.350 Y20.750 F400.000
G0 X221.394 Y20.800
G0 X221.494 Y21.075
G0 X223.238 Y28.731
G1 X223.256 Y28.825 F400.000
G1 X223.306 Y29.056 F400.000
G1 X223.306 Y29.125 F400.000
G1 X223.287 Y29.188 F400.000
G1 X223.200 Y29.288 F400.000
G1 X223.075 Y29.363 F400.000
G1 X222.781 Y29.425 F400.000
G1 X222.781 Y29.425 F400.000
G1 X222.081 Y29.413 F400.000
G1 X221.581 Y29.312 F400.000
G1 X221.387 Y29.238 F400.000
G1 X220.875 Y28.894 F400.000
G1 X220.562 Y28.613 F400.000
G1 X220.119 Y28.163 F400.000
G1 X219.762 Y27.644 F400.000
G1 X219.519 Y27.212 F400.000
G1 X219.300 Y26.788 F400.000
G1 X219.088 Y26.194 F400.000
G1 X218.944 Y25.675 F400.000
G1 X218.838 Y25.137 F400.000
G1 X218.750 Y24.562 F400.000
G1 X218.700 Y23.938 F400.000
G1 X218.700 Y23.312 F400.000
G1 X218.756 Y22.688 F400.000
G1 X218.844 Y22.113 F400.000
G1 X219.019 Y21.512 F400.000
G1 X219.256 Y20.956 F400.000
G1 X219.406 Y20.694 F400.000
G1 X219.569 Y20.581 F400.000
G1 X219.569 Y20.581 F400.000
G1 X219.794 Y20.613 F400.000
G1 X219.931 Y20.663 F400.000
G1 X220.050 Y20.744 F400.000
G0 X220.094 Y20.800
G0 X220.200 Y21.069
G0 X222.175 Y28.731
G1 X222.200 Y28.825 F400.000
G1 X222.250 Y29.056 F400.000
G1 X222.250 Y29.125 F400.000
G1 X222.231 Y29.188 F400.000
G1 X222.150 Y29.288 F400.000
G1 X222.025 Y29.363 F400.000
G1 X221.731 Y29.425 F400.000
G1 X221.731 Y29.425 F400.000
G1 X220.931 Y29.413 F400.000
G1 X220.431 Y29.319 F400.000
G1 X220.144 Y29.194 F400.000
G1 X219.406 Y28.606 F400.000
G1 X218.981 Y28.144 F400.000
G1 X218.619 Y27.631 F400.000
G1 X218.356 Y27.163 F400.000
G1 X218.162 Y26.762 F400.000
G1 X217.938 Y26.219 F400.000
G1 X217.750 Y25.619 F400.000
G1 X217.606 Y25.006 F400.000
G1 X217.506 Y24.387 F400.000
G1 X217.456 Y23.762 F400.000
G1 X217.475 Y23.137 F400.000
G1 X217.519 Y22.619 F400.000
G1 X217.631 Y22.006 F400.000
G1 X217.794 Y21.431 F400.000
G1 X218.137 Y20.738 F400.000
G1 X218.200 Y20.663 F400.000
G1 X218.281 Y20.600 F400.000
G1 X218.375 Y20.581 F400.000
G1 X218.375 Y20.581 F400.000
G1 X218.600 Y20.613 F400.000
G1 X218.738 Y20.663 F400.000
G1 X218.856 Y20.750 F400.000
G0 X218.900 Y20.800
G0 X219.006 Y21.075
G0 X220.975 Y28.731
G1 X221.000 Y28.825 F400.000
G1 X221.050 Y29.056 F400.000
G1 X221.050 Y29.125 F400.000
G1 X221.031 Y29.188 F400.000
G1 X220.950 Y29.288 F400.000
G1 X220.825 Y29.363 F400.000
G1 X220.531 Y29.425 F400.000
G1 X220.531 Y29.425 F400.000
G1 X219.831 Y29.419 F400.000
G1 X219.331 Y29.331 F400.000
G1 X219.131 Y29.262 F400.000
G1 X218.613 Y28.913 F400.000
G1 X218.225 Y28.556 F400.000
G1 X217.794 Y28.100 F400.000
G1 X217.419 Y27.594 F400.000
G1 X217.113 Y27.044 F400.000
G1 X216.925 Y26.637 F400.000
G1 X216.731 Y26.163 F400.000
G1 X216.537 Y25.562 F400.000
G1 X216.400 Y24.950 F400.000
G1 X216.294 Y24.331 F400.000
G1 X216.238 Y23.706 F400.000
G1 X216.231 Y23.081 F400.000
G1 X216.312 Y22.456 F400.000
G1 X216.394 Y22.006 F400.000
G1 X216.556 Y21.438 F400.000
G1 X216.881 Y20.756 F400.000
G1 X216.938 Y20.675 F400.000
G1 X217.012 Y20.613 F400.000
G1 X217.106 Y20.581 F400.000
G1 X217.106 Y20.581 F400.000
G1 X217.331 Y20.613 F400.000
G1 X217.469 Y20.663 F400.000
G1 X217.588 Y20.744 F400.000
G0 X217.631 Y20.800
G0 X217.738 Y21.069
G0 X219.769 Y28.731
G1 X219.794 Y28.825 F400.000
G1 X219.850 Y29.056 F400.000
G1 X219.850 Y29.125 F400.000
G1 X219.831 Y29.188 F400.000
G1 X219.750 Y29.288 F400.000
G1 X219.625 Y29.363 F400.000
G1 X219.331 Y29.425 F400.000
G1 X219.331 Y29.425 F400.000
G1 X218.631 Y29.413 F400.000
G1 X218.131 Y29.312 F400.000
G1 X217.844 Y29.188 F400.000
G1 X217.256 Y28.762 F400.000
G1 X216.662 Y28.181 F400.000
G1 X216.281 Y27.681 F400.000
G1 X215.969 Y27.169 F400.000
G1 X215.756 Y26.725 F400.000
G1 X215.575 Y26.294 F400.000
G1 X215.369 Y25.700 F400.000
G1 X215.225 Y25.087 F400.000
G1 X215.119 Y24.494 F400.000
G1 X215.056 Y23.869 F400.000
G1 X215.050 Y23.244 F400.000
G1 X215.081 Y22.619 F400.000
G1 X215.188 Y22.000 F400.000
G1 X215.306 Y21.500 F400.000
G1 X215.588 Y20.850 F400.000
G1 X215.694 Y20.681 F400.000
G1 X215.769 Y20.619 F400.000
G1 X215.856 Y20.581 F400.000
G1 X215.856 Y20.581 F400.000
G1 X216.081 Y20.613 F400.000
G1 X216.219 Y20.663 F400.000
G1 X216.338 Y20.744 F400.000
G0 X216.381 Y20.800
G0 X216.500 Y21.069
G0 X218.706 Y28.738
G1 X218.738 Y28.831 F400.000
G1 X218.794 Y29.062 F400.000
G1 X218.800 Y29.125 F400.000
G1 X218.781 Y29.188 F400.000
G1 X218.700 Y29.288 F400.000
G1 X218.575 Y29.363 F400.000
G1 X218.281 Y29.425 F400.000
G1 X218.281 Y29.425 F400.000
G1 X217.481 Y29.413 F400.000
G1 X216.881 Y29.300 F400.000
G1 X216.688 Y29.225 F400.000
G1 X216.012 Y28.725 F400.000
G1 X215.863 Y28.587 F400.000
G1 X215.438 Y28.125 F400.000
G1 X215.069 Y27.613 F400.000
G1 X214.787 Y27.137 F400.000
G1 X214.562 Y26.700 F400.000
G1 X214.325 Y26.137 F400.000
G1 X214.137 Y25.538 F400.000
G1 X214.000 Y24.962 F400.000
G1 X213.900 Y24.344 F400.000
G1 X213.856 Y23.719 F400.000
G1 X213.844 Y23.106 F400.000
G1 X213.887 Y22.481 F400.000
G1 X214.000 Y21.863 F400.000
G1 X214.250 Y21.062 F400.000
G1 X214.387 Y20.794 F400.000
G1 X214.444 Y20.712 F400.000
G1 X214.519 Y20.644 F400.000
G1 X214.606 Y20.600 F400.000
G1 X214.606 Y20.600 F400.000
G1 X214.825 Y20.613 F400.000
G1 X214.981 Y20.669 F400.000
G1 X215.056 Y20.712 F400.000
G0 X215.113 Y20.769
G0 X215.225 Y20.969
G0 X217.506 Y28.738
G1 X217.537 Y28.831 F400.000
G1 X217.594 Y29.062 F400.000
G1 X217.600 Y29.125 F400.000
G1 X217.581 Y29.188 F400.000
G1 X217.500 Y29.288 F400.000
G1 X217.375 Y29.363 F400.000
G1 X217.081 Y29.425 F400.000
G1 X217.081 Y29.425 F400.000
G1 X216.281 Y29.413 F400.000
G1 X215.781 Y29.312 F400.000
G1 X215.588 Y29.238 F400.000
G1 X215.238 Y29.025 F400.000
G1 X214.681 Y28.556 F400.000
G1 X214.250 Y28.100 F400.000
G1 X213.881 Y27.594 F400.000
G1 X213.575 Y27.094 F400.000
G1 X213.325 Y26.594 F400.000
G1 X213.125 Y26.087 F400.000
G1 X212.950 Y25.556 F400.000
G1 X212.794 Y24.950 F400.000
G1 X212.694 Y24.331 F400.000
G1 X212.631 Y23.706 F400.000
G1 X212.613 Y23.081 F400.000
G1 X212.669 Y22.456 F400.000
G1 X212.838 Y21.531 F400.000
G1 X212.938 Y21.238 F400.000
G1 X213.037 Y21.069 F400.000
G1 X213.119 Y21.006 F400.000
G1 X213.294 Y20.931 F400.000
G1 X213.294 Y20.931 F400.000
G1 X213.512 Y20.869 F400.000
G1 X213.656 Y20.856 F400.000
G1 X213.794 Y20.887 F400.000
G0 X213.844 Y20.925
G0 X213.944 Y21.100
G0 X216.300 Y28.738
G1 X216.331 Y28.831 F400.000
G1 X216.394 Y29.062 F400.000
G1 X216.394 Y29.125 F400.000
G1 X216.381 Y29.188 F400.000
G1 X216.300 Y29.288 F400.000
G1 X216.175 Y29.363 F400.000
G1 X215.881 Y29.425 F400.000
G1 X215.881 Y29.425 F400.000
G1 X215.081 Y29.413 F400.000
G1 X214.581 Y29.312 F400.000
G1 X214.294 Y29.194 F400.000
G1 X213.625 Y28.694 F400.000
G1 X213.325 Y28.406 F400.000
G1 X212.988 Y28.006 F400.000
G1 X212.625 Y27.494 F400.000
G1 X212.312 Y26.950 F400.000
G1 X212.044 Y26.381 F400.000
G1 X211.831 Y25.788 F400.000
G1 X211.675 Y25.250 F400.000
G1 X211.537 Y24.637 F400.000
G1 X211.387 Y23.212 F400.000
G1 X211.394 Y22.712 F400.000
G1 X211.450 Y22.413 F400.000
G1 X211.494 Y22.319 F400.000
G1 X212.094 Y21.663 F400.000
G1 X212.094 Y21.663 F400.000
G1 X212.356 Y21.519 F400.000
G1 X212.500 Y21.481 F400.000
G1 X212.562 Y21.488 F400.000
G0 X212.613 Y21.512
G0 X212.688 Y21.606
G0 X215.094 Y28.769
G1 X215.125 Y28.856 F400.000
G1 X215.194 Y29.081 F400.000
G1 X215.194 Y29.150 F400.000
G1 X215.181 Y29.206 F400.000
G1 X215.100 Y29.300 F400.000
G1 X214.975 Y29.363 F400.000
G1 X214.688 Y29.406 F400.000
G1 X214.688 Y29.406 F400.000
G1 X213.787 Y29.244 F400.000
G1 X213.494 Y29.150 F400.000
G1 X212.931 Y28.894 F400.000
G1 X212.094 Y28.275 F400.000
G1 X211.431 Y27.469 F400.000
G1 X210.856 Y26.369 F400.000
G1 X210.631 Y25.669 F400.000
G1 X210.581 Y24.869 F400.000
G1 X210.700 Y23.969 F400.000
G1 X210.812 Y23.569 F400.000
G1 X210.812 Y23.569 F400.000
G1 X210.844 Y23.531 F400.000
G0 X210.881 Y23.525
G0 X210.956 Y23.587
G0 X211.338 Y24.250
G0 X211.394 Y24.469
G0 X211.394 Y25.438
G0 X211.781 Y26.500
G0 X211.781 Y26.644
G0 X211.725 Y26.869
G1 X211.706 Y26.944 F400.000
G1 X211.531 Y27.512 F400.000
G1 X211.500 Y27.556 F400.000
G1 X211.469 Y27.575 F400.000
G1 X211.394 Y27.556 F400.000
G1 X211.394 Y27.556 F400.000
G1 X211.225 Y27.294 F400.000
G1 X211.225 Y27.294 F400.000
G1 X211.131 Y27.069 F400.000
G1 X211.100 Y26.844 F400.000
G1 X211.113 Y26.762 F400.000
G0 X211.125 Y26.688
G0 X211.463 Y25.887
G0 X211.469 Y25.656
G0 X211.356 Y24.956
G0 X211.512 Y24.019
G0 X211.475 Y23.794
G0 X211.350 Y23.488
G1 X211.319 Y23.406 F400.000
G1 X211.200 Y23.081 F400.000
G1 X211.175 Y22.850 F400.000
G1 X211.275 Y22.488 F400.000
G1 X211.275 Y22.488 F400.000
G1 X211.556 Y22.100 F400.000
G1 X212.125 Y21.538 F400.000
G1 X212.500 Y21.256 F400.000
G1 X212.812 Y21.075 F400.000
G1 X213.556 Y20.731 F400.000
G1 X213.812 Y20.663 F400.000
G1 X214.488 Y20.531 F400.000
G1 X214.831 Y20.506 F400.000
G1 X245.181 Y20.506 F400.000
G1 X245.512 Y20.538 F400.000
G1 X246.131 Y20.656 F400.000
G1 X246.550 Y20.781 F400.000
G1 X247.144 Y21.050 F400.000
G1 X247.494 Y21.262 F400.000
G1 X247.938 Y21.594 F400.000
G1 X248.406 Y22.062 F400.000
G1 X248.756 Y22.531 F400.000
G1 X248.938 Y22.844 F400.000
G1 X249.200 Y23.413 F400.000
G1 X249.381 Y24.025 F400.000
G1 X249.450 Y24.425 F400.000
G1 X249.488 Y24.869 F400.000
G1 X249.463 Y25.481 F400.000
G1 X249.338 Y26.137 F400.000
G1 X249.213 Y26.556 F400.000
G1 X249.012 Y27.006 F400.000
G1 X248.725 Y27.500 F400.000
G1 X248.431 Y27.900 F400.000
G1 X247.963 Y28.369 F400.000
G1 X247.375 Y28.812 F400.000
G1 X247.025 Y29.006 F400.000
G1 X246.488 Y29.238 F400.000
G1 X246.150 Y29.337 F400.000
G1 X245.512 Y29.462 F400.000
G1 X244.931 Y29.500 F400.000
G1 X214.956 Y29.494 F400.000
G1 X214.325 Y29.444 F400.000
G1 X213.887 Y29.350 F400.000
G1 X213.456 Y29.219 F400.000
G1 X212.963 Y29.000 F400.000
G1 X212.637 Y28.819 F400.000
G1 X212.088 Y28.425 F400.000
G1 X211.613 Y27.950 F400.000
G1 X211.244 Y27.475 F400.000
G1 X211.075 Y27.181 F400.000
G1 X210.725 Y26.406 F400.000
G1 X210.644 Y26.125 F400.000
G1 X210.556 Y25.663 F400.000
G1 X210.506 Y25.106 F400.000
G1 X210.519 Y24.650 F400.000
G1 X210.556 Y24.306 F400.000
G1 X210.650 Y23.863 F400.000
G1 X210.781 Y23.450 F400.000
G1 X210.988 Y22.975 F400.000
G1 X211.275 Y22.488 F400.000
G1 X211.275 Y22.488 F400.000
G0 Z5.000
(Helix to depth: -9.000000)
G0 Z5.000
G0 X-183.564 Y25.814 Z5.000
G0 X-183.564 Y25.814 Z3.000
G1 X-183.564 Y25.814 Z0.000 F200.000
G1 X-183.564 Y25.814 Z0.000 F200.000
G1 X-183.712 Y25.688 Z-0.017 F200.000
G1 X-183.832 Y25.536 Z-0.034 F200.000
G1 X-183.921 Y25.364 Z-0.052 F200.000
G1 X-183.974 Y25.177 Z-0.069 F200.000
G1 X-183.990 Y24.983 Z-0.086 F200.000
G1 X-183.968 Y24.791 Z-0.103 F200.000
G1 X-183.908 Y24.606 Z-0.120 F200.000
G1 X-183.814 Y24.436 Z-0.137 F200.000
G1 X-183.688 Y24.288 Z-0.155 F200.000
G1 X-183.536 Y24.168 Z-0.172 F200.000
G1 X-183.364 Y24.079 Z-0.189 F200.000
G1 X-183.177 Y24.026 Z-0.206 F200.000
G1 X-182.983 Y24.010 Z-0.223 F200.000
G1 X-182.791 Y24.032 Z-0.240 F200.000
G1 X-182.606 Y24.092 Z-0.258 F200.000
G1 X-182.436 Y24.186 Z-0.275 F200.000
G1 X-182.288 Y24.312 Z-0.292 F200.000
G1 X-182.168 Y24.464 Z-0.309 F200.000
G1 X-182.079 Y24.636 Z-0.326 F200.000
G1 X-182.026 Y24.823 Z-0.344 F200.000
G1 X-182.010 Y25.017 Z-0.361 F200.000
G1 X-182.032 Y25.209 Z-0.378 F200.000
G1 X-182.092 Y25.394 Z-0.395 F200.000
G1 X-182.186 Y25.564 Z-0.412 F200.000
G1 X-182.312 Y25.712 Z-0.429 F200.000
G1 X-182.464 Y25.832 Z-0.447 F200.000
G1 X-182.636 Y25.921 Z-0.464 F200.000
G1 X-182.823 Y25.974 Z-0.481 F200.000
G1 X-183.017 Y25.990 Z-0.498 F200.000
G1 X-183.209 Y25.968 Z-0.515 F200.000
G1 X-183.394 Y25.908 Z-0.533 F200.000
G1 X-183.564 Y25.814 Z-0.550 F200.000
G1 X-183.712 Y25.688 Z-0.567 F200.000
G1 X-183.832 Y25.536 Z-0.584 F200.000
G1 X-183.921 Y25.364 Z-0.601 F200.000
G1 X-183.974 Y25.177 Z-0.618 F200.000
G1 X-183.990 Y24.983 Z-0.636 F200.000
G1 X-183.968 Y24.791 Z-0.653 F200.000
G1 X-183.908 Y24.606 Z-0.670 F200.000
G1 X-183.814 Y24.436 Z-0.687 F200.000
G1 X-183.688 Y24.288 Z-0.704 F200.000
G1 X-183.536 Y24.168 Z-0.721 F200.000
G1 X-183.364 Y24.079 Z-0.739 F200.000
G1 X-183.177 Y24.026 Z-0.756 F200.000
G1 X-182.983 Y24.010 Z-0.773 F200.000
G1 X-182.791 Y24.032 Z-0.790 F200.000
G1 X-182.606 Y24.092 Z-0.807 F200.000
G1 X-182.436 Y24.186 Z-0.825 F200.000
G1 X-182.288 Y24.312 Z-0.842 F200.000
G1 X-182.168 Y24.464 Z-0.859 F200.000
G1 X-182.079 Y24.636 Z-0.876 F200.000
G1 X-182.026 Y24.823 Z-0.893 F200.000
G1 X-182.010 Y25.017 Z-0.910 F200.000
G1 X-182.032 Y25.209 Z-0.928 F200.000
G1 X-182.092 Y25.394 Z-0.945 F200.000
G1 X-182.186 Y25.564 Z-0.962 F200.000
G1 X-182.312 Y25.712 Z-0.979 F200.000
G1 X-182.464 Y25.832 Z-0.996 F200.000
G1 X-182.636 Y25.921 Z-1.014 F200.000
G1 X-182.823 Y25.974 Z-1.031 F200.000
G1 X-183.017 Y25.990 Z-1.048 F200.000
G1 X-183.209 Y25.968 Z-1.065 F200.000
G1 X-183.394 Y25.908 Z-1.082 F200.000
G1 X-183.564 Y25.814 Z-1.099 F200.000
G1 X-183.712 Y25.688 Z-1.117 F200.000
G1 X-183.832 Y25.536 Z-1.134 F200.000
G1 X-183.921 Y25.364 Z-1.151 F200.000
G1 X-183.974 Y25.177 Z-1.168 F200.000
G1 X-183.990 Y24.983 Z-1.185 F200.000
G1 X-183.968 Y24.791 Z-1.202 F200.000
G1 X-183.908 Y24.606 Z-1.220 F200.000
G1 X-183.814 Y24.436 Z-1.237 F200.000
G1 X-183.688 Y24.288 Z-1.254 F200.000
G1 X-183.536 Y24.168 Z-1.271 F200.000
G1 X-183.364 Y24.079 Z-1.288 F200.000
G1 X-183.177 Y24.026 Z-1.306 F200.000
G1 X-182.983 Y24.010 Z-1.323 F200.000
G1 X-182.791 Y24.032 Z-1.340 F200.000
G1 X-182.606 Y24.092 Z-1.357 F200.000
G1 X-182.436 Y24.186 Z-1.374 F200.000
G1 X-182.288 Y24.312 Z-1.391 F200.000
G1 X-182.168 Y24.464 Z-1.409 F200.000
G1 X-182.079 Y24.636 Z-1.426 F200.000
G1 X-182.026 Y24.823 Z-1.443 F200.000
G1 X-182.010 Y25.017 Z-1.460 F200.000
G1 X-182.032 Y25.209 Z-1.477 F200.000
G1 X-182.092 Y25.394 Z-1.495 F200.000
G1 X-182.186 Y25.564 Z-1.512 F200.000
G1 X-182.312 Y25.712 Z-1.529 F200.000
G1 X-182.464 Y25.832 Z-1.546 F200.000
G1 X-182.636 Y25.921 Z-1.563 F200.000
G1 X-182.823 Y25.974 Z-1.580 F200.000
G1 X-183.017 Y25.990 Z-1.598 F200.000
G1 X-183.209 Y25.968 Z-1.615 F200.000
G1 X-183.394 Y25.908 Z-1.632 F200.000
G1 X-183.564 Y25.814 Z-1.649 F200.000
G1 X-183.712 Y25.688 Z-1.666 F200.000
G1 X-183.832 Y25.536 Z-1.683 F200.000
G1 X-183.921 Y25.364 Z-1.701 F200.000
G1 X-183.974 Y25.177 Z-1.718 F200.000
G1 X-183.990 Y24.983 Z-1.735 F200.000
G1 X-183.968 Y24.791 Z-1.752 F200.000
G1 X-183.908 Y24.606 Z-1.769 F200.000
G1 X-183.814 Y24.436 Z-1.787 F200.000
G1 X-183.688 Y24.288 Z-1.804 F200.000
G1 X-183.536 Y24.168 Z-1.821 F200.000
G1 X-183.364 Y24.079 Z-1.838 F200.000
G1 X-183.177 Y24.026 Z-1.855 F200.000
G1 X-182.983 Y24.010 Z-1.872 F200.000
G1 X-182.791 Y24.032 Z-1.890 F200.000
G1 X-182.606 Y24.092 Z-1.907 F200.000
G1 X-182.436 Y24.186 Z-1.924 F200.000
G1 X-182.288 Y24.312 Z-1.941 F200.000
G1 X-182.168 Y24.464 Z-1.958 F200.000
G1 X-182.079 Y24.636 Z-1.976 F200.000
G1 X-182.026 Y24.823 Z-1.993 F200.000
G1 X-182.010 Y25.017 Z-2.010 F200.000
G1 X-182.032 Y25.209 Z-2.027 F200.000
G1 X-182.092 Y25.394 Z-2.044 F200.000
G1 X-182.186 Y25.564 Z-2.061 F200.000
G1 X-182.312 Y25.712 Z-2.079 F200.000
G1 X-182.464 Y25.832 Z-2.096 F200.000
G1 X-182.636 Y25.921 Z-2.113 F200.000
G1 X-182.823 Y25.974 Z-2.130 F200.000
G1 X-183.017 Y25.990 Z-2.147 F200.000
G1 X-183.209 Y25.968 Z-2.164 F200.000
G1 X-183.394 Y25.908 Z-2.182 F200.000
G1 X-183.564 Y25.814 Z-2.199 F200.000
G1 X-183.712 Y25.688 Z-2.216 F200.000
G1 X-183.832 Y25.536 Z-2.233 F200.000
G1 X-183.921 Y25.364 Z-2.250 F200.000
G1 X-183.974 Y25.177 Z-2.268 F200.000
G1 X-183.990 Y24.983 Z-2.285 F200.000
G1 X-183.968 Y24.791 Z-2.302 F200.000
G1 X-183.908 Y24.606 Z-2.319 F200.000
G1 X-183.814 Y24.436 Z-2.336 F200.000
G1 X-183.688 Y24.288 Z-2.353 F200.000
G1 X-183.536 Y24.168 Z-2.371 F200.000
G1 X-183.364 Y24.079 Z-2.388 F200.000
G1 X-183.177 Y24.026 Z-2.405 F200.000
G1 X-182.983 Y24.010 Z-2.422 F200.000
G1 X-182.791 Y24.032 Z-2.439 F200.000
G1 X-182.606 Y24.092 Z-2.457 F200.000
G1 X-182.436 Y24.186 Z-2.474 F200.000
G1 X-182.288 Y24.312 Z-2.491 F200.000
G1 X-182.168 Y24.464 Z-2.508 F200.000
G1 X-182.079 Y24.636 Z-2.525 F200.000
G1 X-182.026 Y24.823 Z-2.542 F200.000
G1 X-182.010 Y25.017 Z-2.560 F200.000
G1 X-182.032 Y25.209 Z-2.577 F200.000
G1 X-182.092 Y25.394 Z-2.594 F200.000
G1 X-182.186 Y25.564 Z-2.611 F200.000
G1 X-182.312 Y25.712 Z-2.628 F200.000
G1 X-182.464 Y25.832 Z-2.645 F200.000
G1 X-182.636 Y25.921 Z-2.663 F200.000
G1 X-182.823 Y25.974 Z-2.680 F200.000
G1 X-183.017 Y25.990 Z-2.697 F200.000
G1 X-183.209 Y25.968 Z-2.714 F200.000
G1 X-183.394 Y25.908 Z-2.731 F200.000
G1 X-183.564 Y25.814 Z-2.749 F200.000
G1 X-183.712 Y25.688 Z-2.766 F200.000
G1 X-183.832 Y25.536 Z-2.783 F200.000
G1 X-183.921 Y25.364 Z-2.800 F200.000
G1 X-183.974 Y25.177 Z-2.817 F200.000
G1 X-183.990 Y24.983 Z-2.834 F200.000
G1 X-183.968 Y24.791 Z-2.852 F200.000
G1 X-183.908 Y24.606 Z-2.869 F200.000
G1 X-183.814 Y24.436 Z-2.886 F200.000
G1 X-183.688 Y24.288 Z-2.903 F200.000
G1 X-183.536 Y24.168 Z-2.920 F200.000
G1 X-183.364 Y24.079 Z-2.937 F200.000
G1 X-183.177 Y24.026 Z-2.955 F200.000
G1 X-182.983 Y24.010 Z-2.972 F200.000
G1 X-182.791 Y24.032 Z-2.989 F200.000
G1 X-182.606 Y24.092 Z-3.006 F200.000
G1 X-182.436 Y24.186 Z-3.023 F200.000
G1 X-182.288 Y24.312 Z-3.041 F200.000
G1 X-182.168 Y24.464 Z-3.058 F200.000
G1 X-182.079 Y24.636 Z-3.075 F200.000
G1 X-182.026 Y24.823 Z-3.092 F200.000
G1 X-182.010 Y25.017 Z-3.109 F200.000
G1 X-182.032 Y25.209 Z-3.126 F200.000
G1 X-182.092 Y25.394 Z-3.144 F200.000
G1 X-182.186 Y25.564 Z-3.161 F200.000
G1 X-182.312 Y25.712 Z-3.178 F200.000
G1 X-182.464 Y25.832 Z-3.195 F200.000
G1 X-182.636 Y25.921 Z-3.212 F200.000
G1 X-182.823 Y25.974 Z-3.230 F200.000
G1 X-183.017 Y25.990 Z-3.247 F200.000
G1 X-183.209 Y25.968 Z-3.264 F200.000
G1 X-183.394 Y25.908 Z-3.281 F200.000
G1 X-183.564 Y25.814 Z-3.298 F200.000
G1 X-183.712 Y25.688 Z-3.315 F200.000
G1 X-183.832 Y25.536 Z-3.333 F200.000
G1 X-183.921 Y25.364 Z-3.350 F200.000
G1 X-183.974 Y25.177 Z-3.367 F200.000
G1 X-183.990 Y24.983 Z-3.384 F200.000
G1 X-183.968 Y24.791 Z-3.401 F200.000
G1 X-183.908 Y24.606 Z-3.418 F200.000
G1 X-183.814 Y24.436 Z-3.436 F200.000
G1 X-183.688 Y24.288 Z-3.453 F200.000
G1 X-183.536 Y24.168 Z-3.470 F200.000
G1 X-183.364 Y24.079 Z-3.487 F200.000
G1 X-183.177 Y24.026 Z-3.504 F200.000
G1 X-182.983 Y24.010 Z-3.522 F200.000
G1 X-182.791 Y24.032 Z-3.539 F200.000
G1 X-182.606 Y24.092 Z-3.556 F200.000
G1 X-182.436 Y24.186 Z-3.573 F200.000
G1 X-182.288 Y24.312 Z-3.590 F200.000
G1 X-182.168 Y24.464 Z-3.607 F200.000
G1 X-182.079 Y24.636 Z-3.625 F200.000
G1 X-182.026 Y24.823 Z-3.642 F200.000
G1 X-182.010 Y25.017 Z-3.659 F200.000
G1 X-182.032 Y25.209 Z-3.676 F200.000
G1 X-182.092 Y25.394 Z-3.693 F200.000
G1 X-182.186 Y25.564 Z-3.711 F200.000
G1 X-182.312 Y25.712 Z-3.728 F200.000
G1 X-182.464 Y25.832 Z-3.745 F200.000
G1 X-182.636 Y25.921 Z-3.762 F200.000
G1 X-182.823 Y25.974 Z-3.779 F200.000
G1 X-183.017 Y25.990 Z-3.796 F200.000
G1 X-183.209 Y25.968 Z-3.814 F200.000
G1 X-183.394 Y25.908 Z-3.831 F200.000
G1 X-183.564 Y25.814 Z-3.848 F200.000
G1 X-183.712 Y25.688 Z-3.865 F200.000
G1 X-183.832 Y25.536 Z-3.882 F200.000
G1 X-183.921 Y25.364 Z-3.899 F200.000
G1 X-183.974 Y25.177 Z-3.917 F200.000
G1 X-183.990 Y24.983 Z-3.934 F200.000
G1 X-183.968 Y24.791 Z-3.951 F200.000
G1 X-183.908 Y24.606 Z-3.968 F200.000
G1 X-183.814 Y24.436 Z-3.985 F200.000
G1 X-183.688 Y24.288 Z-4.003 F200.000
G1 X-183.536 Y24.168 Z-4.020 F200.000
G1 X-183.364 Y24.079 Z-4.037 F200.000
G1 X-183.177 Y24.026 Z-4.054 F200.000
G1 X-182.983 Y24.010 Z-4.071 F200.000
G1 X-182.791 Y24.032 Z-4.088 F200.000
G1 X-182.606 Y24.092 Z-4.106 F200.000
G1 X-182.436 Y24.186 Z-4.123 F200.000
G1 X-182.288 Y24.312 Z-4.140 F200.000
G1 X-182.168 Y24.464 Z-4.157 F200.000
G1 X-182.079 Y24.636 Z-4.174 F200.000
G1 X-182.026 Y24.823 Z-4.192 F200.000
G1 X-182.010 Y25.017 Z-4.209 F200.000
G1 X-182.032 Y25.209 Z-4.226 F200.000
G1 X-182.092 Y25.394 Z-4.243 F200.000
G1 X-182.186 Y25.564 Z-4.260 F200.000
G1 X-182.312 Y25.712 Z-4.277 F200.000
G1 X-182.464 Y25.832 Z-4.295 F200.000
G1 X-182.636 Y25.921 Z-4.312 F200.000
G1 X-182.823 Y25.974 Z-4.329 F200.000
G1 X-183.017 Y25.990 Z-4.346 F200.000
G1 X-183.209 Y25.968 Z-4.363 F200.000
G1 X-183.394 Y25.908 Z-4.380 F200.000
G1 X-183.564 Y25.814 Z-4.398 F200.000
G1 X-183.712 Y25.688 Z-4.415 F200.000
G1 X-183.832 Y25.536 Z-4.432 F200.000
G1 X-183.921 Y25.364 Z-4.449 F200.000
G1 X-183.974 Y25.177 Z-4.466 F200.000
G1 X-183.990 Y24.983 Z-4.484 F200.000
G1 X-183.968 Y24.791 Z-4.501 F200.000
G1 X-183.908 Y24.606 Z-4.518 F200.000
G1 X-183.814 Y24.436 Z-4.535 F200.000
G1 X-183.688 Y24.288 Z-4.552 F200.000
G1 X-183.536 Y24.168 Z-4.569 F200.000
G1 X-183.364 Y24.079 Z-4.587 F200.000
G1 X-183.177 Y24.026 Z-4.604 F200.000
G1 X-182.983 Y24.010 Z-4.621 F200.000
G1 X-182.791 Y24.032 Z-4.638 F200.000
G1 X-182.606 Y24.092 Z-4.655 F200.000
G1 X-182.436 Y24.186 Z-4.673 F200.000
G1 X-182.288 Y24.312 Z-4.690 F200.000
G1 X-182.168 Y24.464 Z-4.707 F200.000
G1 X-182.079 Y24.636 Z-4.724 F200.000
G1 X-182.026 Y24.823 Z-4.741 F200.000
G1 X-182.010 Y25.017 Z-4.758 F200.000
G1 X-182.032 Y25.209 Z-4.776 F200.000
G1 X-182.092 Y25.394 Z-4.793 F200.000
G1 X-182.186 Y25.564 Z-4.810 F200.000
G1 X-182.312 Y25.712 Z-4.827 F200.000
G1 X-182.464 Y25.832 Z-4.844 F200.000
G1 X-182.636 Y25.921 Z-4.861 F200.000
G1 X-182.823 Y25.974 Z-4.879 F200.000
G1 X-183.017 Y25.990 Z-4.896 F200.000
G1 X-183.209 Y25.968 Z-4.913 F200.000
G1 X-183.394 Y25.908 Z-4.930 F200.000
G1 X-183.564 Y25.814 Z-4.947 F200.000
G1 X-183.712 Y25.688 Z-4.965 F200.000
G1 X-183.832 Y25.536 Z-4.982 F200.000
G1 X-183.921 Y25.364 Z-4.999 F200.000
G1 X-183.974 Y25.177 Z-5.016 F200.000
G1 X-183.990 Y24.983 Z-5.033 F200.000
G1 X-183.968 Y24.791 Z-5.050 F200.000
G1 X-183.908 Y24.606 Z-5.068 F200.000
G1 X-183.814 Y24.436 Z-5.085 F200.000
G1 X-183.688 Y24.288 Z-5.102 F200.000
G1 X-183.536 Y24.168 Z-5.119 F200.000
G1 X-183.364 Y24.079 Z-5.136 F200.000
G1 X-183.177 Y24.026 Z-5.154 F200.000
G1 X-182.983 Y24.010 Z-5.171 F200.000
G1 X-182.791 Y24.032 Z-5.188 F200.000
G1 X-182.606 Y24.092 Z-5.205 F200.000
G1 X-182.436 Y24.186 Z-5.222 F200.000
G1 X-182.288 Y24.312 Z-5.239 F200.000
G1 X-182.168 Y24.464 Z-5.257 F200.000
G1 X-182.079 Y24.636 Z-5.274 F200.000
G1 X-182.026 Y24.823 Z-5.291 F200.000
G1 X-182.010 Y25.017 Z-5.308 F200.000
G1 X-182.032 Y25.209 Z-5.325 F200.000
G1 X-182.092 Y25.394 Z-5.342 F200.000
G1 X-182.186 Y25.564 Z-5.360 F200.000
G1 X-182.312 Y25.712 Z-5.377 F200.000
G1 X-182.464 Y25.832 Z-5.394 F200.000
G1 X-182.636 Y25.921 Z-5.411 F200.000
G1 X-182.823 Y25.974 Z-5.428 F200.000
G1 X-183.017 Y25.990 Z-5.446 F200.000
G1 X-183.209 Y25.968 Z-5.463 F200.000
G1 X-183.394 Y25.908 Z-5.480 F200.000
G1 X-183.564 Y25.814 Z-5.497 F200.000
G1 X-183.712 Y25.688 Z-5.514 F200.000
G1 X-183.832 Y25.536 Z-5.531 F200.000
G1 X-183.921 Y25.364 Z-5.549 F200.000
G1 X-183.974 Y25.177 Z-5.566 F200.000
G1 X-183.990 Y24.983 Z-5.583 F200.000
G1 X-183.968 Y24.791 Z-5.600 F200.000
G1 X-183.908 Y24.606 Z-5.617 F200.000
G1 X-183.814 Y24.436 Z-5.635 F200.000
G1 X-183.688 Y24.288 Z-5.652 F200.000
G1 X-183.536 Y24.168 Z-5.669 F200.000
G1 X-183.364 Y24.079 Z-5.686 F200.000
G1 X-183.177 Y24.026 Z-5.703 F200.000
G1 X-182.983 Y24.010 Z-5.720 F200.000
G1 X-182.791 Y24.032 Z-5.738 F200.000
G1 X-182.606 Y24.092 Z-5.755 F200.000
G1 X-182.436 Y24.186 Z-5.772 F200.000
G1 X-182.288 Y24.312 Z-5.789 F200.000
G1 X-182.168 Y24.464 Z-5.806 F200.000
G1 X-182.079 Y24.636 Z-5.823 F200.000
G1 X-182.026 Y24.823 Z-5.841 F200.000
G1 X-182.010 Y25.017 Z-5.858 F200.000
G1 X-182.032 Y25.209 Z-5.875 F200.000
G1 X-182.092 Y25.394 Z-5.892 F200.000
G1 X-182.186 Y25.564 Z-5.909 F200.000
G1 X-182.312 Y25.712 Z-5.927 F200.000
G1 X-182.464 Y25.832 Z-5.944 F200.000
G1 X-182.636 Y25.921 Z-5.961 F200.000
G1 X-182.823 Y25.974 Z-5.978 F200.000
G1 X-183.017 Y25.990 Z-5.995 F200.000
G1 X-183.209 Y25.968 Z-6.012 F200.000
G1 X-183.394 Y25.908 Z-6.030 F200.000
G1 X-183.564 Y25.814 Z-6.047 F200.000
G1 X-183.712 Y25.688 Z-6.064 F200.000
G1 X-183.832 Y25.536 Z-6.081 F200.000
G1 X-183.921 Y25.364 Z-6.098 F200.000
G1 X-183.974 Y25.177 Z-6.115 F200.000
G1 X-183.990 Y24.983 Z-6.133 F200.000
G1 X-183.968 Y24.791 Z-6.150 F200.000
G1 X-183.908 Y24.606 Z-6.167 F200.000
G1 X-183.814 Y24.436 Z-6.184 F200.000
G1 X-183.688 Y24.288 Z-6.201 F200.000
G1 X-183.536 Y24.168 Z-6.219 F200.000
G1 X-183.364 Y24.079 Z-6.236 F200.000
G1 X-183.177 Y24.026 Z-6.253 F200.000
G1 X-182.983 Y24.010 Z-6.270 F200.000
G1 X-182.791 Y24.032 Z-6.287 F200.000
G1 X-182.606 Y24.092 Z-6.304 F200.000
G1 X-182.436 Y24.186 Z-6.322 F200.000
G1 X-182.288 Y24.312 Z-6.339 F200.000
G1 X-182.168 Y24.464 Z-6.356 F200.000
G1 X-182.079 Y24.636 Z-6.373 F200.000
G1 X-182.026 Y24.823 Z-6.390 F200.000
G1 X-182.010 Y25.017 Z-6.408 F200.000
G1 X-182.032 Y25.209 Z-6.425 F200.000
G1 X-182.092 Y25.394 Z-6.442 F200.000
G1 X-182.186 Y25.564 Z-6.459 F200.000
G1 X-182.312 Y25.712 Z-6.476 F200.000
G1 X-182.464 Y25.832 Z-6.493 F200.000
G1 X-182.636 Y25.921 Z-6.511 F200.000
G1 X-182.823 Y25.974 Z-6.528 F200.000
G1 X-183.017 Y25.990 Z-6.545 F200.000
G1 X-183.209 Y25.968 Z-6.562 F200.000
G1 X-183.394 Y25.908 Z-6.579 F200.000
G1 X-183.564 Y25.814 Z-6.596 F200.000
G1 X-183.712 Y25.688 Z-6.614 F200.000
G1 X-183.832 Y25.536 Z-6.631 F200.000
G1 X-183.921 Y25.364 Z-6.648 F200.000
G1 X-183.974 Y25.177 Z-6.665 F200.000
G1 X-183.990 Y24.983 Z-6.682 F200.000
G1 X-183.968 Y24.791 Z-6.700 F200.000
G1 X-183.908 Y24.606 Z-6.717 F200.000
G1 X-183.814 Y24.436 Z-6.734 F200.000
G1 X-183.688 Y24.288 Z-6.751 F200.000
G1 X-183.536 Y24.168 Z-6.768 F200.000
G1 X-183.364 Y24.079 Z-6.785 F200.000
G1 X-183.177 Y24.026 Z-6.803 F200.000
G1 X-182.983 Y24.010 Z-6.820 F200.000
G1 X-182.791 Y24.032 Z-6.837 F200.000
G1 X-182.606 Y24.092 Z-6.854 F200.000
G1 X-182.436 Y24.186 Z-6.871 F200.000
G1 X-182.288 Y24.312 Z-6.889 F200.000
G1 X-182.168 Y24.464 Z-6.906 F200.000
G1 X-182.079 Y24.636 Z-6.923 F200.000
G1 X-182.026 Y24.823 Z-6.940 F200.000
G1 X-182.010 Y25.017 Z-6.957 F200.000
G1 X-182.032 Y25.209 Z-6.974 F200.000
G1 X-182.092 Y25.394 Z-6.992 F200.000
G1 X-182.186 Y25.564 Z-7.009 F200.000
G1 X-182.312 Y25.712 Z-7.026 F200.000
G1 X-182.464 Y25.832 Z-7.043 F200.000
G1 X-182.636 Y25.921 Z-7.060 F200.000
G1 X-182.823 Y25.974 Z-7.077 F200.000
G1 X-183.017 Y25.990 Z-7.095 F200.000
G1 X-183.209 Y25.968 Z-7.112 F200.000
G1 X-183.394 Y25.908 Z-7.129 F200.000
G1 X-183.564 Y25.814 Z-7.146 F200.000
G1 X-183.712 Y25.688 Z-7.163 F200.000
G1 X-183.832 Y25.536 Z-7.181 F200.000
G1 X-183.921 Y25.364 Z-7.198 F200.000
G1 X-183.974 Y25.177 Z-7.215 F200.000
G1 X-183.990 Y24.983 Z-7.232 F200.000
G1 X-183.968 Y24.791 Z-7.249 F200.000
G1 X-183.908 Y24.606 Z-7.266 F200.000
G1 X-183.814 Y24.436 Z-7.284 F200.000
G1 X-183.688 Y24.288 Z-7.301 F200.000
G1 X-183.536 Y24.168 Z-7.318 F200.000
G1 X-183.364 Y24.079 Z-7.335 F200.000
G1 X-183.177 Y24.026 Z-7.352 F200.000
G1 X-182.983 Y24.010 Z-7.370 F200.000
G1 X-182.791 Y24.032 Z-7.387 F200.000
G1 X-182.606 Y24.092 Z-7.404 F200.000
G1 X-182.436 Y24.186 Z-7.421 F200.000
G1 X-182.288 Y24.312 Z-7.438 F200.000
G1 X-182.168 Y24.464 Z-7.455 F200.000
G1 X-182.079 Y24.636 Z-7.473 F200.000
G1 X-182.026 Y24.823 Z-7.490 F200.000
G1 X-182.010 Y25.017 Z-7.507 F200.000
G1 X-182.032 Y25.209 Z-7.524 F200.000
G1 X-182.092 Y25.394 Z-7.541 F200.000
G1 X-182.186 Y25.564 Z-7.558 F200.000
G1 X-182.312 Y25.712 Z-7.576 F200.000
G1 X-182.464 Y25.832 Z-7.593 F200.000
G1 X-182.636 Y25.921 Z-7.610 F200.000
G1 X-182.823 Y25.974 Z-7.627 F200.000
G1 X-183.017 Y25.990 Z-7.644 F200.000
G1 X-183.209 Y25.968 Z-7.662 F200.000
G1 X-183.394 Y25.908 Z-7.679 F200.000
G1 X-183.564 Y25.814 Z-7.696 F200.000
G1 X-183.712 Y25.688 Z-7.713 F200.000
G1 X-183.832 Y25.536 Z-7.730 F200.000
G1 X-183.921 Y25.364 Z-7.747 F200.000
G1 X-183.974 Y25.177 Z-7.765 F200.000
G1 X-183.990 Y24.983 Z-7.782 F200.000
G1 X-183.968 Y24.791 Z-7.799 F200.000
G1 X-183.908 Y24.606 Z-7.816 F200.000
G1 X-183.814 Y24.436 Z-7.833 F200.000
G1 X-183.688 Y24.288 Z-7.851 F200.000
G1 X-183.536 Y24.168 Z-7.868 F200.000
G1 X-183.364 Y24.079 Z-7.885 F200.000
G1 X-183.177 Y24.026 Z-7.902 F200.000
G1 X-182.983 Y24.010 Z-7.919 F200.000
G1 X-182.791 Y24.032 Z-7.936 F200.000
G1 X-182.606 Y24.092 Z-7.954 F200.000
G1 X-182.436 Y24.186 Z-7.971 F200.000
G1 X-182.288 Y24.312 Z-7.988 F200.000
G1 X-182.168 Y24.464 Z-8.005 F200.000
G1 X-182.079 Y24.636 Z-8.022 F200.000
G1 X-182.026 Y24.823 Z-8.039 F200.000
G1 X-182.010 Y25.017 Z-8.057 F200.000
G1 X-182.032 Y25.209 Z-8.074 F200.000
G1 X-182.092 Y25.394 Z-8.091 F200.000
G1 X-182.186 Y25.564 Z-8.108 F200.000
G1 X-182.312 Y25.712 Z-8.125 F200.000
G1 X-182.464 Y25.832 Z-8.143 F200.000
G1 X-182.636 Y25.921 Z-8.160 F200.000
G1 X-182.823 Y25.974 Z-8.177 F200.000
G1 X-183.017 Y25.990 Z-8.194 F200.000
G1 X-183.209 Y25.968 Z-8.211 F200.000
G1 X-183.394 Y25.908 Z-8.228 F200.000
G1 X-183.564 Y25.814 Z-8.246 F200.000
G1 X-183.712 Y25.688 Z-8.263 F200.000
G1 X-183.832 Y25.536 Z-8.280 F200.000
G1 X-183.921 Y25.364 Z-8.297 F200.000
G1 X-183.974 Y25.177 Z-8.314 F200.000
G1 X-183.990 Y24.983 Z-8.332 F200.000
G1 X-183.968 Y24.791 Z-8.349 F200.000
G1 X-183.908 Y24.606 Z-8.366 F200.000
G1 X-183.814 Y24.436 Z-8.383 F200.000
G1 X-183.688 Y24.288 Z-8.400 F200.000
G1 X-183.536 Y24.168 Z-8.417 F200.000
G1 X-183.364 Y24.079 Z-8.435 F200.000
G1 X-183.177 Y24.026 Z-8.452 F200.000
G1 X-182.983 Y24.010 Z-8.469 F200.000
G1 X-182.791 Y24.032 Z-8.486 F200.000
G1 X-182.606 Y24.092 Z-8.503 F200.000
G1 X-182.436 Y24.186 Z-8.520 F200.000
G1 X-182.288 Y24.312 Z-8.538 F200.000
G1 X-182.168 Y24.464 Z-8.555 F200.000
G1 X-182.079 Y24.636 Z-8.572 F200.000
G1 X-182.026 Y24.823 Z-8.589 F200.000
G1 X-182.010 Y25.017 Z-8.606 F200.000
G1 X-182.032 Y25.209 Z-8.624 F200.000
G1 X-182.092 Y25.394 Z-8.641 F200.000
G1 X-182.186 Y25.564 Z-8.658 F200.000
G1 X-182.312 Y25.712 Z-8.675 F200.000
G1 X-182.464 Y25.832 Z-8.692 F200.000
G1 X-182.636 Y25.921 Z-8.709 F200.000
G1 X-182.823 Y25.974 Z-8.727 F200.000
G1 X-183.017 Y25.990 Z-8.744 F200.000
G1 X-183.209 Y25.968 Z-8.761 F200.000
G1 X-183.394 Y25.908 Z-8.778 F200.000
G1 X-183.564 Y25.814 Z-8.795 F200.000
G1 X-183.712 Y25.688 Z-8.812 F200.000
G1 X-183.832 Y25.536 Z-8.830 F200.000
G1 X-183.921 Y25.364 Z-8.847 F200.000
G1 X-183.974 Y25.177 Z-8.864 F200.000
G1 X-183.990 Y24.983 Z-8.881 F200.000
G1 X-183.968 Y24.791 Z-8.898 F200.000
G1 X-183.908 Y24.606 Z-8.916 F200.000
G1 X-183.814 Y24.436 Z-8.933 F200.000
G1 X-183.688 Y24.288 Z-8.950 F200.000
G1 X-183.536 Y24.168 Z-8.967 F200.000
G1 X-183.364 Y24.079 Z-8.984 F200.000
G1 X-183.177 Y24.026 Z-9.000 F400.000
G1 X-182.983 Y24.010 Z-9.000 F400.000
G1 X-182.791 Y24.032 Z-9.000 F400.000
G1 X-182.606 Y24.092 Z-9.000 F400.000
G1 X-182.436 Y24.186 Z-9.000 F400.000
G1 X-182.288 Y24.312 Z-9.000 F400.000
G1 X-182.168 Y24.464 Z-9.000 F400.000
G1 X-182.079 Y24.636 Z-9.000 F400.000
G1 X-182.026 Y24.823 Z-9.000 F400.000
G1 X-182.010 Y25.017 Z-9.000 F400.000
G1 X-182.032 Y25.209 Z-9.000 F400.000
G1 X-182.092 Y25.394 Z-9.000 F400.000
G1 X-182.186 Y25.564 Z-9.000 F400.000
G1 X-182.312 Y25.712 Z-9.000 F400.000
G1 X-182.464 Y25.832 Z-9.000 F400.000
G1 X-182.636 Y25.921 Z-9.000 F400.000
G1 X-182.823 Y25.974 Z-9.000 F400.000
G1 X-183.017 Y25.990 Z-9.000 F400.000
G1 X-183.209 Y25.968 Z-9.000 F400.000
G1 X-183.394 Y25.908 Z-9.000 F400.000
G1 X-183.564 Y25.814 Z-9.000 F400.000
G1 X-183.712 Y25.688 Z-9.000 F400.000
G1 X-183.832 Y25.536 Z-9.000 F400.000
G1 X-183.921 Y25.364 Z-9.000 F400.000
G1 X-183.974 Y25.177 Z-9.000 F400.000
G1 X-183.990 Y24.983 Z-9.000 F400.000
G1 X-183.968 Y24.791 Z-9.000 F400.000
G1 X-183.908 Y24.606 Z-9.000 F400.000
G1 X-183.814 Y24.436 Z-9.000 F400.000
G1 X-183.688 Y24.288 Z-9.000 F400.000
G1 X-183.536 Y24.168 Z-9.000 F400.000
G1 X-183.364 Y24.079 Z-9.000 F400.000
(Adaptive - depth: -9.000000)
G1 X-183.000 Y24.000 F400.000
G1 X-182.925 Y23.925 F400.000
G1 X-182.831 Y23.875 F400.000
G1 X-182.631 Y23.825 F400.000
G1 X-182.431 Y23.825 F400.000
G1 X-182.231 Y23.875 F400.000
G1 X-182.137 Y23.913 F400.000
G1 X-181.738 Y24.231 F400.000
G1 X-181.594 Y24.456 F400.000
G1 X-181.519 Y24.619 F400.000
G1 X-181.456 Y24.825 F400.000
G1 X-181.425 Y25.106 F400.000
G1 X-181.456 Y25.413 F400.000
G1 X-181.537 Y25.663 F400.000
G1 X-181.644 Y25.869 F400.000
G1 X-181.800 Y26.081 F400.000
G1 X-182.012 Y26.288 F400.000
G1 X-182.262 Y26.456 F400.000
G1 X-182.525 Y26.556 F400.000
G1 X-182.769 Y26.606 F400.000
G1 X-183.044 Y26.613 F400.000
G1 X-183.306 Y26.581 F400.000
G1 X-183.606 Y26.488 F400.000
G1 X-183.863 Y26.356 F400.000
G1 X-184.094 Y26.175 F400.000
G1 X-184.275 Y25.975 F400.000
G1 X-184.425 Y25.738 F400.000
G1 X-184.531 Y25.475 F400.000
G1 X-184.588 Y25.206 F400.000
G1 X-184.594 Y24.925 F400.000
G1 X-184.550 Y24.644 F400.000
G1 X-184.463 Y24.375 F400.000
G1 X-184.325 Y24.125 F400.000
G1 X-184.156 Y23.894 F400.000
G1 X-183.944 Y23.656 F400.000
G1 X-183.625 Y23.419 F400.000
G1 X-183.344 Y23.262 F400.000
G1 X-183.019 Y23.156 F400.000
G1 X-182.744 Y23.119 F400.000
G1 X-182.475 Y23.125 F400.000
G1 X-182.188 Y23.163 F400.000
G1 X-181.844 Y23.281 F400.000
G1 X-181.581 Y23.431 F400.000
G1 X-181.356 Y23.600 F400.000
G1 X-181.144 Y23.831 F400.000
G1 X-180.969 Y24.069 F400.000
G1 X-180.812 Y24.394 F400.000
G1 X-180.719 Y24.694 F400.000
G1 X-180.669 Y25.012 F400.000
G1 X-180.669 Y25.344 F400.000
G1 X-180.719 Y25.663 F400.000
G1 X-180.812 Y25.975 F400.000
G1 X-180.956 Y26.269 F400.000
G1 X-181.137 Y26.531 F400.000
G1 X-181.363 Y26.769 F400.000
G1 X-181.619 Y26.969 F400.000
G1 X-181.900 Y27.137 F400.000
G1 X-182.250 Y27.281 F400.000
G1 X-182.581 Y27.363 F400.000
G1 X-182.925 Y27.400 F400.000
G1 X-183.275 Y27.387 F400.000
G1 X-183.613 Y27.312 F400.000
G1 X-183.900 Y27.212 F400.000
G1 X-184.200 Y27.062 F400.000
G1 X-184.512 Y26.837 F400.000
G1 X-184.762 Y26.600 F400.000
G1 X-184.975 Y26.312 F400.000
G1 X-185.125 Y26.038 F400.000
G1 X-185.244 Y25.719 F400.000
G1 X-185.312 Y25.394 F400.000
G1 X-185.344 Y25.069 F400.000
G1 X-185.319 Y24.681 F400.000
G1 X-185.250 Y24.337 F400.000
G1 X-185.137 Y24.000 F400.000
G1 X-184.969 Y23.675 F400.000
G1 X-184.775 Y23.369 F400.000
G1 X-184.500 Y23.056 F400.000
G1 X-184.219 Y22.806 F400.000
G1 X-183.894 Y22.606 F400.000
G1 X-183.606 Y22.475 F400.000
G1 X-183.269 Y22.363 F400.000
G1 X-182.869 Y22.300 F400.000
G1 X-182.519 Y22.288 F400.000
G1 X-182.150 Y22.325 F400.000
G1 X-181.787 Y22.413 F400.000
G1 X-181.450 Y22.544 F400.000
G1 X-181.125 Y22.725 F400.000
G1 X-180.825 Y22.938 F400.000
G1 X-180.525 Y23.219 F400.000
G1 X-180.281 Y23.512 F400.000
G1 X-180.075 Y23.837 F400.000
G1 X-179.912 Y24.194 F400.000
G1 X-179.800 Y24.562 F400.000
G1 X-179.750 Y24.944 F400.000
G1 X-179.744 Y25.262 F400.000
G1 X-179.775 Y25.619 F400.000
G1 X-179.869 Y26.038 F400.000
G1 X-180.012 Y26.431 F400.000
G1 X-180.206 Y26.781 F400.000
G1 X-180.406 Y27.062 F400.000
G1 X-180.669 Y27.344 F400.000
G1 X-180.950 Y27.594 F400.000
G1 X-181.331 Y27.850 F400.000
G1 X-181.688 Y28.031 F400.000
G1 X-182.069 Y28.175 F400.000
G1 X-182.481 Y28.275 F400.000
G1 X-182.894 Y28.306 F400.000
G1 X-183.238 Y28.294 F400.000
G1 X-183.625 Y28.225 F400.000
G1 X-184.000 Y28.131 F400.000
G1 X-184.456 Y27.944 F400.000
G1 X-184.812 Y27.725 F400.000
G1 X-185.094 Y27.519 F400.000
G1 X-185.387 Y27.231 F400.000
G1 X-185.625 Y26.919 F400.000
G1 X-185.825 Y26.594 F400.000
G1 X-185.981 Y26.231 F400.000
G1 X-186.106 Y25.863 F400.000
G1 X-186.194 Y25.394 F400.000
G1 X-186.225 Y24.975 F400.000
G1 X-186.213 Y24.550 F400.000
G1 X-186.144 Y24.113 F400.000
G1 X-186.012 Y23.706 F400.000
G1 X-185.869 Y23.381 F400.000
G1 X-185.675 Y23.025 F400.000
G1 X-185.400 Y22.644 F400.000
G1 X-185.088 Y22.300 F400.000
G1 X-184.744 Y22.025 F400.000
G1 X-184.438 Y21.825 F400.000
G1 X-184.056 Y21.637 F400.000
G1 X-183.675 Y21.494 F400.000
G1 X-183.225 Y21.387 F400.000
G1 X-182.300 Y21.319 F400.000
G1 X-181.700 Y21.394 F400.000
G1 X-181.113 Y21.606 F400.000
G1 X-180.562 Y21.913 F400.000
G1 X-180.231 Y22.150 F400.000
G1 X-179.944 Y22.394 F400.000
G1 X-179.625 Y22.725 F400.000
G1 X-179.325 Y23.131 F400.000
G1 X-179.119 Y23.525 F400.000
G1 X-178.975 Y23.863 F400.000
G1 X-178.850 Y24.275 F400.000
G1 X-178.775 Y24.744 F400.000
G1 X-178.750 Y25.156 F400.000
G1 X-178.775 Y25.594 F400.000
G1 X-178.838 Y26.031 F400.000
G1 X-178.969 Y26.512 F400.000
G1 X-179.131 Y26.938 F400.000
G1 X-179.356 Y27.344 F400.000
G1 X-179.581 Y27.663 F400.000
G1 X-179.869 Y27.988 F400.000
G1 X-180.181 Y28.281 F400.000
G1 X-180.588 Y28.581 F400.000
G1 X-181.325 Y28.969 F400.000
G1 X-182.262 Y29.212 F400.000
G1 X-183.106 Y29.269 F400.000
G1 X-183.856 Y29.169 F400.000
G1 X-184.594 Y28.919 F400.000
G1 X-185.113 Y28.637 F400.000
G1 X-185.700 Y28.219 F400.000
G1 X-186.150 Y27.788 F400.000
G1 X-186.456 Y27.394 F400.000
G1 X-186.650 Y27.062 F400.000
G1 X-186.819 Y26.725 F400.000
G1 X-186.994 Y26.281 F400.000
G1 X-187.131 Y25.731 F400.000
G1 X-187.206 Y25.275 F400.000
G1 X-187.219 Y24.781 F400.000
G1 X-187.188 Y24.356 F400.000
G1 X-187.106 Y23.906 F400.000
G1 X-186.975 Y23.469 F400.000
G1 X-186.819 Y23.050 F400.000
G1 X-186.562 Y22.550 F400.000
G1 X-186.300 Y22.144 F400.000
G1 X-185.981 Y21.769 F400.000
G1 X-185.675 Y21.469 F400.000
G1 X-184.956 Y20.956 F400.000
G1 X-184.488 Y20.719 F400.000
G1 X-183.988 Y20.581 F400.000
G1 X-181.088 Y20.606 F400.000
G1 X-180.488 Y20.712 F400.000
G1 X-180.031 Y20.913 F400.000
G1 X-179.363 Y21.381 F400.000
G1 X-178.931 Y21.831 F400.000
G1 X-178.556 Y22.331 F400.000
G1 X-178.294 Y22.769 F400.000
G1 X-178.088 Y23.169 F400.000
G1 X-177.894 Y23.688 F400.000
G1 X-177.769 Y24.169 F400.000
G1 X-177.688 Y24.656 F400.000
G1 X-177.656 Y25.169 F400.000
G1 X-177.675 Y25.669 F400.000
G1 X-177.744 Y26.169 F400.000
G1 X-177.863 Y26.663 F400.000
G1 X-178.025 Y27.137 F400.000
G1 X-178.231 Y27.594 F400.000
G1 X-178.488 Y28.025 F400.000
G1 X-178.781 Y28.431 F400.000
G1 X-179.319 Y29.000 F400.000
G1 X-179.700 Y29.300 F400.000
G1 X-179.969 Y29.406 F400.000
G1 X-180.062 Y29.425 F400.000
G1 X-184.844 Y29.406 F400.000
G1 X-185.219 Y29.356 F400.000
G1 X-185.594 Y29.244 F400.000
G1 X-186.275 Y28.837 F400.000
G1 X-186.581 Y28.587 F400.000
G1 X-187.025 Y28.150 F400.000
G1 X-187.412 Y27.663 F400.000
G1 X-187.669 Y27.238 F400.000
G1 X-187.844 Y26.869 F400.000
G1 X-188.000 Y26.462 F400.000
G1 X-188.144 Y25.950 F400.000
G1 X-188.238 Y25.387 F400.000
G1 X-188.256 Y24.881 F400.000
G1 X-188.238 Y24.438 F400.000
G1 X-188.181 Y23.938 F400.000
G1 X-188.062 Y23.363 F400.000
G1 X-187.887 Y22.794 F400.000
G1 X-187.656 Y22.281 F400.000
G1 X-187.444 Y21.894 F400.000
G1 X-187.144 Y21.462 F400.000
G1 X-186.512 Y20.794 F400.000
G1 X-186.344 Y20.669 F400.000
G1 X-186.156 Y20.581 F400.000
G1 X-185.356 Y20.581 F400.000
G1 X-185.356 Y20.581 F400.000
G1 X-185.119 Y20.613 F400.000
G1 X-184.838 Y20.738 F400.000
G0 X-184.775 Y20.781
G0 X-184.019 Y21.300
G0 X-183.806 Y21.356
G0 X-182.113 Y21.356
G0 X-181.969 Y21.325
G0 X-181.519 Y21.038
G1 X-181.450 Y20.988 F400.000
G1 X-181.037 Y20.700 F400.000
G1 X-180.825 Y20.613 F400.000
G1 X-180.600 Y20.581 F400.000
G1 X-180.600 Y20.581 F400.000
G1 X-179.500 Y20.594 F400.000
G1 X-179.000 Y20.681 F400.000
G1 X-178.719 Y20.794 F400.000
G1 X-178.238 Y21.144 F400.000
G1 X-177.938 Y21.419 F400.000
G1 X-177.550 Y21.906 F400.000
G1 X-177.219 Y22.438 F400.000
G1 X-177.006 Y22.900 F400.000
G1 X-176.850 Y23.294 F400.000
G1 X-176.694 Y23.812 F400.000
G1 X-176.588 Y24.413 F400.000
G1 X-176.537 Y24.925 F400.000
G1 X-176.531 Y25.475 F400.000
G1 X-176.581 Y26.025 F400.000
G1 X-176.675 Y26.556 F400.000
G1 X-176.819 Y27.081 F400.000
G1 X-176.994 Y27.600 F400.000
G1 X-177.250 Y28.163 F400.000
G1 X-177.631 Y28.831 F400.000
G1 X-177.994 Y29.281 F400.000
G1 X-178.069 Y29.344 F400.000
G1 X-178.238 Y29.425 F400.000
G1 X-179.081 Y29.425 F400.000
G1 X-179.081 Y29.425 F400.000
G1 X-179.306 Y29.387 F400.000
G1 X-179.450 Y29.331 F400.000
G1 X-179.562 Y29.244 F400.000
G0 X-179.600 Y29.188
G0 X-179.644 Y28.906
G0 X-179.656 Y21.256
G1 X-179.656 Y21.150 F400.000
G1 X-179.637 Y20.887 F400.000
G1 X-179.569 Y20.756 F400.000
G1 X-179.463 Y20.663 F400.000
G1 X-179.250 Y20.594 F400.000
G1 X-179.100 Y20.581 F400.000
G1 X-179.100 Y20.581 F400.000
G1 X-178.300 Y20.587 F400.000
G1 X-177.800 Y20.669 F400.000
G1 X-177.512 Y20.781 F400.000
G1 X-177.025 Y21.131 F400.000
G1 X-176.738 Y21.406 F400.000
G1 X-176.363 Y21.906 F400.000
G1 X-176.056 Y22.450 F400.000
G1 X-175.856 Y22.900 F400.000
G1 X-175.700 Y23.319 F400.000
G1 X-175.544 Y23.856 F400.000
G1 X-175.438 Y24.469 F400.000
G1 X-175.381 Y25.019 F400.000
G1 X-175.369 Y25.613 F400.000
G1 X-175.412 Y26.219 F400.000
G1 X-175.500 Y26.794 F400.000
G1 X-175.637 Y27.375 F400.000
G1 X-175.825 Y27.944 F400.000
G1 X-176.056 Y28.488 F400.000
G1 X-176.381 Y29.094 F400.000
G1 X-176.556 Y29.325 F400.000
G1 X-176.725 Y29.425 F400.000
G1 X-177.287 Y29.425 F400.000
G1 X-177.287 Y29.425 F400.000
G1 X-177.512 Y29.387 F400.000
G1 X-177.656 Y29.331 F400.000
G1 X-177.769 Y29.244 F400.000
G0 X-177.806 Y29.188
G0 X-177.869 Y28.906
G0 X-178.281 Y21.256
G1 X-178.287 Y21.150 F400.000
G1 X-178.281 Y20.887 F400.000
G1 X-178.256 Y20.812 F400.000
G1 X-178.169 Y20.706 F400.000
G1 X-178.044 Y20.631 F400.000
G1 X-177.750 Y20.581 F400.000
G1 X-177.750 Y20.581 F400.000
G1 X-176.950 Y20.594 F400.000
G1 X-176.550 Y20.669 F400.000
G1 X-176.269 Y20.781 F400.000
G1 X-175.719 Y21.212 F400.000
G1 X-175.512 Y21.425 F400.000
G1 X-175.162 Y21.938 F400.000
G1 X-174.869 Y22.488 F400.000
G1 X-174.675 Y22.931 F400.000
G1 X-174.500 Y23.406 F400.000
G1 X-174.338 Y24.006 F400.000
G1 X-174.231 Y24.619 F400.000
G1 X-174.169 Y25.212 F400.000
G1 X-174.156 Y25.831 F400.000
G1 X-174.194 Y26.450 F400.000
G1 X-174.300 Y27.062 F400.000
G1 X-174.419 Y27.550 F400.000
G1 X-174.581 Y28.106 F400.000
G1 X-174.931 Y28.950 F400.000
G1 X-175.144 Y29.275 F400.000
G1 X-175.213 Y29.344 F400.000
G1 X-175.294 Y29.394 F400.000
G1 X-175.381 Y29.425 F400.000
G1 X-175.850 Y29.425 F400.000
G1 X-175.850 Y29.425 F400.000
G1 X-176.075 Y29.387 F400.000
G1 X-176.219 Y29.331 F400.000
G1 X-176.331 Y29.244 F400.000
G0 X-176.369 Y29.188
G0 X-176.438 Y28.906
G0 X-177.069 Y21.256
G1 X-177.075 Y21.150 F400.000
G1 X-177.081 Y20.887 F400.000
G1 X-177.056 Y20.812 F400.000
G1 X-176.969 Y20.706 F400.000
G1 X-176.844 Y20.631 F400.000
G1 X-176.550 Y20.581 F400.000
G1 X-176.550 Y20.581 F400.000
G1 X-175.750 Y20.594 F400.000
G1 X-175.350 Y20.669 F400.000
G1 X-175.156 Y20.738 F400.000
G1 X-174.750 Y21.031 F400.000
G1 X-174.325 Y21.444 F400.000
G1 X-173.975 Y21.962 F400.000
G1 X-173.681 Y22.512 F400.000
G1 X-173.469 Y22.988 F400.000
G1 X-173.287 Y23.506 F400.000
G1 X-173.131 Y24.075 F400.000
G1 X-173.025 Y24.688 F400.000
G1 X-172.969 Y25.281 F400.000
G1 X-172.956 Y25.894 F400.000
G1 X-173.000 Y26.512 F400.000
G1 X-173.088 Y27.113 F400.000
G1 X-173.200 Y27.719 F400.000
G1 X-173.375 Y28.312 F400.000
G1 X-173.656 Y28.975 F400.000
G1 X-173.856 Y29.294 F400.000
G1 X-174.012 Y29.406 F400.000
G1 X-174.106 Y29.425 F400.000
G1 X-174.481 Y29.425 F400.000
G1 X-174.481 Y29.425 F400.000
G1 X-174.706 Y29.387 F400.000
G1 X-174.912 Y29.288 F400.000
G1 X-174.963 Y29.244 F400.000
G0 X-175.006 Y29.188
G0 X-175.075 Y28.906
G0 X-175.856 Y21.250
G1 X-175.869 Y21.150 F400.000
G1 X-175.875 Y20.887 F400.000
G1 X-175.856 Y20.812 F400.000
G1 X-175.769 Y20.706 F400.000
G1 X-175.644 Y20.631 F400.000
G1 X-175.350 Y20.581 F400.000
G1 X-175.350 Y20.581 F400.000
G1 X-174.650 Y20.587 F400.000
G1 X-174.150 Y20.675 F400.000
G1 X-173.875 Y20.806 F400.000
G1 X-173.331 Y21.256 F400.000
G1 X-173.194 Y21.406 F400.000
G1 X-172.825 Y21.906 F400.000
G1 X-172.525 Y22.456 F400.000
G1 X-172.306 Y22.931 F400.000
G1 X-172.119 Y23.425 F400.000
G1 X-171.963 Y24.031 F400.000
G1 X-171.850 Y24.575 F400.000
G1 X-171.781 Y25.194 F400.000
G1 X-171.762 Y25.812 F400.000
G1 X-171.769 Y26.431 F400.000
G1 X-171.831 Y27.050 F400.000
G1 X-171.938 Y27.663 F400.000
G1 X-172.081 Y28.269 F400.000
G1 X-172.444 Y29.100 F400.000
G1 X-172.550 Y29.262 F400.000
G1 X-172.613 Y29.331 F400.000
G1 X-172.781 Y29.425 F400.000
G1 X-173.344 Y29.425 F400.000
G1 X-173.344 Y29.425 F400.000
G1 X-173.569 Y29.387 F400.000
G1 X-173.775 Y29.288 F400.000
G1 X-173.825 Y29.244 F400.000
G0 X-173.863 Y29.188
G0 X-173.938 Y28.906
G0 X-174.662 Y21.256
G1 X-174.675 Y21.150 F400.000
G1 X-174.675 Y20.887 F400.000
G1 X-174.656 Y20.812 F400.000
G1 X-174.569 Y20.706 F400.000
G1 X-174.444 Y20.631 F400.000
G1 X-174.150 Y20.581 F400.000
G1 X-174.150 Y20.581 F400.000
G1 X-173.450 Y20.594 F400.000
G1 X-173.050 Y20.656 F400.000
G1 X-172.762 Y20.756 F400.000
G1 X-172.356 Y21.056 F400.000
G1 X-172.000 Y21.413 F400.000
G1 X-171.637 Y21.919 F400.000
G1 X-171.338 Y22.462 F400.000
G1 X-171.100 Y22.981 F400.000
G1 X-170.906 Y23.488 F400.000
G1 X-170.744 Y24.087 F400.000
G1 X-170.637 Y24.656 F400.000
G1 X-170.575 Y25.238 F400.000
G1 X-170.531 Y25.837 F400.000
G1 X-170.531 Y26.456 F400.000
G1 X-170.575 Y27.075 F400.000
G1 X-170.681 Y27.688 F400.000
G1 X-170.806 Y28.231 F400.000
G1 X-171.106 Y28.988 F400.000
G1 X-171.312 Y29.312 F400.000
G1 X-171.469 Y29.419 F400.000
G1 X-172.031 Y29.425 F400.000
G1 X-172.031 Y29.425 F400.000
G1 X-172.256 Y29.387 F400.000
G1 X-172.463 Y29.288 F400.000
G1 X-172.512 Y29.244 F400.000
G0 X-172.556 Y29.188
G0 X-172.625 Y28.906
G0 X-173.456 Y21.250
G1 X-173.469 Y21.150 F400.000
G1 X-173.475 Y20.887 F400.000
G1 X-173.456 Y20.812 F400.000
G1 X-173.369 Y20.706 F400.000
G1 X-173.244 Y20.631 F400.000
G1 X-172.950 Y20.581 F400.000
G1 X-172.950 Y20.581 F400.000
G1 X-172.250 Y20.594 F400.000
G1 X-171.850 Y20.656 F400.000
G1 X-171.650 Y20.719 F400.000
G1 X-171.312 Y20.938 F400.000
G1 X-170.806 Y21.413 F400.000
G1 X-170.444 Y21.925 F400.000
G1 X-170.137 Y22.469 F400.000
G1 X-169.906 Y22.994 F400.000
G1 X-169.725 Y23.481 F400.000
G1 X-169.544 Y24.075 F400.000
G1 X-169.425 Y24.688 F400.000
G1 X-169.350 Y25.294 F400.000
G1 X-169.300 Y25.913 F400.000
G1 X-169.306 Y26.531 F400.000
G1 X-169.350 Y27.150 F400.000
G1 X-169.431 Y27.769 F400.000
G1 X-169.594 Y28.369 F400.000
G1 X-169.825 Y28.944 F400.000
G1 X-170.025 Y29.269 F400.000
G1 X-170.175 Y29.394 F400.000
G1 X-170.262 Y29.425 F400.000
G1 X-170.731 Y29.425 F400.000
G1 X-170.731 Y29.425 F400.000
G1 X-170.956 Y29.387 F400.000
G1 X-171.162 Y29.288 F400.000
G1 X-171.213 Y29.244 F400.000
G0 X-171.256 Y29.188
G0 X-171.331 Y28.906
G0 X-172.250 Y21.250
G1 X-172.262 Y21.150 F400.000
G1 X-172.275 Y20.887 F400.000
G1 X-172.256 Y20.812 F400.000
G1 X-172.169 Y20.706 F400.000
G1 X-172.044 Y20.631 F400.000
G1 X-171.750 Y20.581 F400.000
G1 X-171.750 Y20.581 F400.000
G1 X-171.050 Y20.594 F400.000
G1 X-170.650 Y20.663 F400.000
G1 X-170.369 Y20.775 F400.000
G1 X-169.969 Y21.069 F400.000
G1 X-169.619 Y21.419 F400.000
G1 X-169.250 Y21.925 F400.000
G1 X-168.944 Y22.469 F400.000
G1 X-168.713 Y22.981 F400.000
G1 X-168.544 Y23.431 F400.000
G1 X-168.356 Y24.012 F400.000
G1 X-168.219 Y24.619 F400.000
G1 X-168.119 Y25.231 F400.000
G1 X-168.056 Y25.850 F400.000
G1 X-168.037 Y26.469 F400.000
G1 X-168.062 Y27.087 F400.000
G1 X-168.162 Y27.700 F400.000
G1 X-168.275 Y28.225 F400.000
G1 X-168.575 Y28.981 F400.000
G1 X-168.775 Y29.300 F400.000
G1 X-168.931 Y29.413 F400.000
G1 X-169.494 Y29.425 F400.000
G1 X-169.494 Y29.425 F400.000
G1 X-169.719 Y29.387 F400.000
G1 X-169.925 Y29.288 F400.000
G1 X-169.975 Y29.244 F400.000
G0 X-170.019 Y29.188
G0 X-170.094 Y28.906
G0 X-171.044 Y21.250
G1 X-171.062 Y21.150 F400.000
G1 X-171.075 Y20.887 F400.000
G1 X-171.056 Y20.812 F400.000
G1 X-170.969 Y20.706 F400.000
G1 X-170.844 Y20.631 F400.000
G1 X-170.550 Y20.581 F400.000
G1 X-170.550 Y20.581 F400.000
G1 X-169.850 Y20.594 F400.000
G1 X-169.450 Y20.663 F400.000
G1 X-169.169 Y20.775 F400.000
G1 X-168.481 Y21.363 F400.000
G1 X-168.412 Y21.438 F400.000
G1 X-168.050 Y21.944 F400.000
G1 X-167.731 Y22.481 F400.000
G1 X-167.469 Y23.050 F400.000
G1 X-167.275 Y23.525 F400.000
G1 X-167.100 Y24.125 F400.000
G1 X-166.963 Y24.706 F400.000
G1 X-166.869 Y25.319 F400.000
G1 X-166.825 Y25.938 F400.000
G1 X-166.825 Y26.556 F400.000
G1 X-166.856 Y27.175 F400.000
G1 X-166.938 Y27.794 F400.000
G1 X-167.100 Y28.394 F400.000
G1 X-167.406 Y29.100 F400.000
G1 X-167.512 Y29.262 F400.000
G1 X-167.662 Y29.375 F400.000
G1 X-167.756 Y29.400 F400.000
G1 X-168.412 Y29.425 F400.000
G1 X-168.412 Y29.425 F400.000
G1 X-168.637 Y29.387 F400.000
G1 X-168.844 Y29.288 F400.000
G1 X-168.894 Y29.244 F400.000
G0 X-168.938 Y29.188
G0 X-169.006 Y28.906
G0 X-169.856 Y21.250
G1 X-169.869 Y21.150 F400.000
G1 X-169.875 Y20.887 F400.000
G1 X-169.856 Y20.812 F400.000
G1 X-169.769 Y20.706 F400.000
G1 X-169.644 Y20.631 F400.000
G1 X-169.350 Y20.581 F400.000
G1 X-169.350 Y20.581 F400.000
G1 X-168.750 Y20.587 F400.000
G1 X-168.250 Y20.675 F400.000
G1 X-168.056 Y20.744 F400.000
G1 X-167.494 Y21.156 F400.000
G1 X-167.137 Y21.512 F400.000
G1 X-166.781 Y22.025 F400.000
G1 X-166.475 Y22.569 F400.000
G1 X-166.225 Y23.100 F400.000
G1 X-166.006 Y23.663 F400.000
G1 X-165.838 Y24.262 F400.000
G1 X-165.713 Y24.869 F400.000
G1 X-165.631 Y25.488 F400.000
G1 X-165.581 Y26.106 F400.000
G1 X-165.588 Y26.725 F400.000
G1 X-165.631 Y27.344 F400.000
G1 X-165.856 Y28.425 F400.000
G1 X-165.988 Y28.781 F400.000
G1 X-166.100 Y28.931 F400.000
G1 X-166.169 Y29.000 F400.000
G1 X-166.519 Y29.163 F400.000
G1 X-167.363 Y29.375 F400.000
G1 X-167.363 Y29.375 F400.000
G1 X-167.656 Y29.337 F400.000
G1 X-167.794 Y29.288 F400.000
G1 X-167.850 Y29.244 F400.000
G0 X-167.894 Y29.194
G0 X-167.956 Y29.000
G0 X-168.806 Y21.250
G1 X-168.819 Y21.150 F400.000
G1 X-168.825 Y20.887 F400.000
G1 X-168.806 Y20.812 F400.000
G1 X-168.719 Y20.706 F400.000
G1 X-168.594 Y20.631 F400.000
G1 X-168.300 Y20.581 F400.000
G1 X-168.300 Y20.581 F400.000
G1 X-167.800 Y20.581 F400.000
G1 X-167.100 Y20.706 F400.000
G1 X-166.631 Y20.894 F400.000
G1 X-166.306 Y21.119 F400.000
G1 X-165.694 Y21.769 F400.000
G1 X-165.100 Y22.688 F400.000
G1 X-164.850 Y23.219 F400.000
G1 X-164.675 Y23.819 F400.000
G1 X-164.400 Y25.031 F400.000
G1 X-164.262 Y26.869 F400.000
G1 X-164.281 Y27.150 F400.000
G1 X-164.381 Y27.519 F400.000
G1 X-164.600 Y27.837 F400.000
G1 X-165.081 Y28.319 F400.000
G1 X-165.531 Y28.663 F400.000
G1 X-165.531 Y28.663 F400.000
G1 X-165.738 Y28.756 F400.000
G1 X-165.881 Y28.788 F400.000
G1 X-166.006 Y28.775 F400.000
G0 X-166.056 Y28.744
G0 X-166.113 Y28.637
G0 X-167.188 Y21.300
G1 X-167.206 Y21.200 F400.000
G1 X-167.225 Y21.019 F400.000
G1 X-167.219 Y20.938 F400.000
G1 X-167.194 Y20.875 F400.000
G1 X-167.150 Y20.831 F400.000
G1 X-167.031 Y20.775 F400.000
G1 X-166.812 Y20.756 F400.000
G1 X-166.669 Y20.775 F400.000
G1 X-166.669 Y20.775 F400.000
G1 X-166.012 Y21.050 F400.000
G1 X-165.575 Y21.300 F400.000
G1 X-165.169 Y21.594 F400.000
G1 X-164.619 Y22.150 F400.000
G1 X-164.312 Y22.550 F400.000
G1 X-163.831 Y23.506 F400.000
G1 X-163.625 Y24.350 F400.000
G1 X-163.581 Y25.194 F400.000
G1 X-163.700 Y26.038 F400.000
G1 X-163.881 Y26.587 F400.000
G1 X-163.881 Y26.587 F400.000
G1 X-164.000 Y26.775 F400.000
G1 X-164.169 Y26.919 F400.000
G1 X-164.231 Y26.956 F400.000
G0 X-164.300 Y26.981
G0 X-164.594 Y27.038
G0 X-180.175 Y28.538
G0 X-183.438 Y28.644
G0 X-184.300 Y29.006
G1 X-184.369 Y29.038 F400.000
G1 X-184.575 Y29.137 F400.000
G1 X-184.994 Y29.363 F400.000
G1 X-185.300 Y29.425 F400.000
G1 X-185.300 Y29.425 F400.000
G1 X-186.238 Y29.406 F400.000
G1 X-186.706 Y29.306 F400.000
G1 X-186.975 Y29.181 F400.000
G1 X-187.675 Y28.625 F400.000
G1 X-188.113 Y28.181 F400.000
G1 X-188.494 Y27.688 F400.000
G1 X-188.900 Y26.906 F400.000
G1 X-189.088 Y26.406 F400.000
G1 X-189.213 Y25.856 F400.000
G1 X-189.287 Y25.387 F400.000
G1 X-189.319 Y24.869 F400.000
G1 X-189.319 Y24.356 F400.000
G1 X-189.250 Y23.731 F400.000
G1 X-189.144 Y23.181 F400.000
G1 X-188.994 Y22.625 F400.000
G1 X-188.781 Y22.056 F400.000
G1 X-188.537 Y21.531 F400.000
G1 X-188.156 Y20.956 F400.000
G1 X-187.950 Y20.719 F400.000
G1 X-187.769 Y20.606 F400.000
G1 X-187.669 Y20.581 F400.000
G1 X-187.269 Y20.581 F400.000
G1 X-187.269 Y20.581 F400.000
G1 X-187.031 Y20.613 F400.000
G1 X-186.887 Y20.663 F400.000
G1 X-186.769 Y20.750 F400.000
G0 X-186.731 Y20.806
G0 X-186.662 Y21.081
G0 X-185.956 Y28.719
G1 X-185.950 Y28.812 F400.000
G1 X-185.938 Y29.050 F400.000
G1 X-185.969 Y29.181 F400.000
G1 X-186.062 Y29.288 F400.000
G1 X-186.194 Y29.363 F400.000
G1 X-186.500 Y29.425 F400.000
G1 X-186.500 Y29.425 F400.000
G1 X-187.344 Y29.413 F400.000
G1 X-187.812 Y29.312 F400.000
G1 X-187.994 Y29.244 F400.000
G1 X-188.481 Y28.900 F400.000
G1 X-189.225 Y28.188 F400.000
G1 X-189.594 Y27.681 F400.000
G1 X-189.831 Y27.244 F400.000
G1 X-190.119 Y26.494 F400.000
G1 X-190.300 Y25.894 F400.000
G1 X-190.406 Y25.275 F400.000
G1 X-190.438 Y24.712 F400.000
G1 X-190.438 Y24.238 F400.000
G1 X-190.394 Y23.656 F400.000
G1 X-190.281 Y23.038 F400.000
G1 X-190.144 Y22.494 F400.000
G1 X-189.950 Y21.931 F400.000
G1 X-189.700 Y21.381 F400.000
G1 X-189.419 Y20.869 F400.000
G1 X-189.281 Y20.706 F400.000
G1 X-189.106 Y20.594 F400.000
G1 X-188.606 Y20.581 F400.000
G1 X-188.606 Y20.581 F400.000
G1 X-188.369 Y20.613 F400.000
G1 X-188.225 Y20.663 F400.000
G1 X-188.106 Y20.750 F400.000
G0 X-188.069 Y20.806
G0 X-187.994 Y21.081
G0 X-187.162 Y28.719
G1 X-187.156 Y28.812 F400.000
G1 X-187.137 Y29.050 F400.000
G1 X-187.169 Y29.181 F400.000
G1 X-187.262 Y29.288 F400.000
G1 X-187.394 Y29.363 F400.000
G1 X-187.700 Y29.425 F400.000
G1 X-187.700 Y29.425 F400.000
G1 X-188.450 Y29.406 F400.000
G1 X-188.919 Y29.312 F400.000
G1 X-189.100 Y29.244 F400.000
G1 X-189.581 Y28.894 F400.000
G1 X-190.306 Y28.163 F400.000
G1 X-190.675 Y27.656 F400.000
G1 X-190.963 Y27.144 F400.000
G1 X-191.131 Y26.731 F400.000
G1 X-191.262 Y26.356 F400.000
G1 X-191.412 Y25.812 F400.000
G1 X-191.519 Y25.194 F400.000
G1 X-191.581 Y24.569 F400.000
G1 X-191.594 Y23.950 F400.000
G1 X-191.525 Y23.325 F400.000
G1 X-191.444 Y22.844 F400.000
G1 X-191.312 Y22.281 F400.000
G1 X-191.119 Y21.681 F400.000
G1 X-190.856 Y21.113 F400.000
G1 X-190.550 Y20.688 F400.000
G1 X-190.469 Y20.625 F400.000
G1 X-190.375 Y20.581 F400.000
G1 X-189.875 Y20.581 F400.000
G1 X-189.875 Y20.581 F400.000
G1 X-189.637 Y20.613 F400.000
G1 X-189.494 Y20.663 F400.000
G1 X-189.375 Y20.750 F400.000
G0 X-189.331 Y20.800
G0 X-189.256 Y21.075
G0 X-188.225 Y28.719
G1 X-188.213 Y28.812 F400.000
G1 X-188.188 Y29.050 F400.000
G1 X-188.219 Y29.181 F400.000
G1 X-188.312 Y29.288 F400.000
G1 X-188.444 Y29.363 F400.000
G1 X-188.750 Y29.425 F400.000
G1 X-188.750 Y29.425 F400.000
G1 X-189.500 Y29.413 F400.000
G1 X-189.969 Y29.312 F400.000
G1 X-190.150 Y29.244 F400.000
G1 X-190.644 Y28.900 F400.000
G1 X-191.387 Y28.194 F400.000
G1 X-191.756 Y27.688 F400.000
G1 X-192.006 Y27.238 F400.000
G1 X-192.169 Y26.869 F400.000
G1 X-192.325 Y26.462 F400.000
G1 X-192.506 Y25.863 F400.000
G1 X-192.625 Y25.244 F400.000
G1 X-192.700 Y24.669 F400.000
G1 X-192.731 Y24.044 F400.000
G1 X-192.713 Y23.419 F400.000
G1 X-192.650 Y22.800 F400.000
G1 X-192.531 Y22.181 F400.000
G1 X-192.325 Y21.587 F400.000
G1 X-192.156 Y21.175 F400.000
G1 X-191.869 Y20.744 F400.000
G1 X-191.794 Y20.669 F400.000
G1 X-191.706 Y20.613 F400.000
G1 X-191.606 Y20.581 F400.000
G1 X-191.306 Y20.581 F400.000
G1 X-191.306 Y20.581 F400.000
G1 X-191.069 Y20.613 F400.000
G1 X-190.925 Y20.663 F400.000
G1 X-190.806 Y20.750 F400.000
G0 X-190.762 Y20.800
G0 X-190.669 Y21.075
G0 X-189.300 Y28.719
G1 X-189.281 Y28.812 F400.000
G1 X-189.250 Y29.050 F400.000
G1 X-189.250 Y29.119 F400.000
G1 X-189.275 Y29.181 F400.000
G1 X-189.363 Y29.288 F400.000
G1 X-189.494 Y29.363 F400.000
G1 X-189.800 Y29.425 F400.000
G1 X-189.800 Y29.425 F400.000
G1 X-190.550 Y29.413 F400.000
G1 X-191.019 Y29.331 F400.000
G1 X-191.294 Y29.219 F400.000
G1 X-191.775 Y28.869 F400.000
G1 X-192.062 Y28.587 F400.000
