(Exported by FreeCAD)
(Post Processor: grbl_post)
(Output Time:2024-04-07 18:17:20.184257)
(Begin preamble)
G17 G90
G21
(Block-name: Fixture)
(Block-expand: 0)
(Block-enable: 1)
(Begin operation: Fixture)
(Path: Fixture)
G54
(Finish operation: Fixture)
(Block-name: 3mm Endmill001)
(Block-expand: 0)
(Block-enable: 1)
(Begin operation: 3mm Endmill001)
(Path: 3mm Endmill001)
(3mm Endmill001)
(Begin toolchange)
( M6 T2 )
M3 S8000
(Finish operation: 3mm Endmill001)
(Block-name: Adaptive)
(Block-expand: 0)
(Block-enable: 1)
(Begin operation: Adaptive)
(Path: Adaptive)
(Adaptive)
(Helix to depth: -5.000000)
G0 Z5.000
G0 X-10.479 Y19.913 Z5.000
G0 X-10.479 Y19.913 Z3.000
G1 X-10.479 Y19.913 Z0.000 F400.000
G1 X-10.479 Y19.913 Z0.000 F400.000
G1 X-10.454 Y19.820 Z-0.009 F400.000
G1 X-10.410 Y19.734 Z-0.017 F400.000
G1 X-10.351 Y19.659 Z-0.026 F400.000
G1 X-10.279 Y19.596 Z-0.034 F400.000
G1 X-10.195 Y19.548 Z-0.043 F400.000
G1 X-10.104 Y19.518 Z-0.052 F400.000
G1 X-10.009 Y19.506 Z-0.060 F400.000
G1 X-9.913 Y19.513 Z-0.069 F400.000
G1 X-9.820 Y19.539 Z-0.077 F400.000
G1 X-9.734 Y19.582 Z-0.086 F400.000
G1 X-9.659 Y19.641 Z-0.094 F400.000
G1 X-9.596 Y19.714 Z-0.103 F400.000
G1 X-9.548 Y19.797 Z-0.112 F400.000
G1 X-9.518 Y19.889 Z-0.120 F400.000
G1 X-9.506 Y19.984 Z-0.129 F400.000
G1 X-9.513 Y20.080 Z-0.137 F400.000
G1 X-9.539 Y20.172 Z-0.146 F400.000
G1 X-9.582 Y20.258 Z-0.155 F400.000
G1 X-9.641 Y20.334 Z-0.163 F400.000
G1 X-9.714 Y20.397 Z-0.172 F400.000
G1 X-9.797 Y20.444 Z-0.180 F400.000
G1 X-9.889 Y20.474 Z-0.189 F400.000
G1 X-9.984 Y20.486 Z-0.198 F400.000
G1 X-10.080 Y20.479 Z-0.206 F400.000
G1 X-10.172 Y20.454 Z-0.215 F400.000
G1 X-10.258 Y20.410 Z-0.223 F400.000
G1 X-10.334 Y20.351 Z-0.232 F400.000
G1 X-10.397 Y20.279 Z-0.240 F400.000
G1 X-10.444 Y20.195 Z-0.249 F400.000
G1 X-10.474 Y20.104 Z-0.258 F400.000
G1 X-10.486 Y20.009 Z-0.266 F400.000
G1 X-10.479 Y19.913 Z-0.275 F400.000
G1 X-10.454 Y19.820 Z-0.283 F400.000
G1 X-10.410 Y19.734 Z-0.292 F400.000
G1 X-10.351 Y19.659 Z-0.301 F400.000
G1 X-10.279 Y19.596 Z-0.309 F400.000
G1 X-10.195 Y19.548 Z-0.318 F400.000
G1 X-10.104 Y19.518 Z-0.326 F400.000
G1 X-10.009 Y19.506 Z-0.335 F400.000
G1 X-9.913 Y19.513 Z-0.344 F400.000
G1 X-9.820 Y19.539 Z-0.352 F400.000
G1 X-9.734 Y19.582 Z-0.361 F400.000
G1 X-9.659 Y19.641 Z-0.369 F400.000
G1 X-9.596 Y19.714 Z-0.378 F400.000
G1 X-9.548 Y19.797 Z-0.387 F400.000
G1 X-9.518 Y19.889 Z-0.395 F400.000
G1 X-9.506 Y19.984 Z-0.404 F400.000
G1 X-9.513 Y20.080 Z-0.412 F400.000
G1 X-9.539 Y20.172 Z-0.421 F400.000
G1 X-9.582 Y20.258 Z-0.429 F400.000
G1 X-9.641 Y20.334 Z-0.438 F400.000
G1 X-9.714 Y20.397 Z-0.447 F400.000
G1 X-9.797 Y20.444 Z-0.455 F400.000
G1 X-9.889 Y20.474 Z-0.464 F400.000
G1 X-9.984 Y20.486 Z-0.472 F400.000
G1 X-10.080 Y20.479 Z-0.481 F400.000
G1 X-10.172 Y20.454 Z-0.490 F400.000
G1 X-10.258 Y20.410 Z-0.498 F400.000
G1 X-10.334 Y20.351 Z-0.507 F400.000
G1 X-10.397 Y20.279 Z-0.515 F400.000
G1 X-10.444 Y20.195 Z-0.524 F400.000
G1 X-10.474 Y20.104 Z-0.533 F400.000
G1 X-10.486 Y20.009 Z-0.541 F400.000
G1 X-10.479 Y19.913 Z-0.550 F400.000
G1 X-10.454 Y19.820 Z-0.558 F400.000
G1 X-10.410 Y19.734 Z-0.567 F400.000
G1 X-10.351 Y19.659 Z-0.575 F400.000
G1 X-10.279 Y19.596 Z-0.584 F400.000
G1 X-10.195 Y19.548 Z-0.593 F400.000
G1 X-10.104 Y19.518 Z-0.601 F400.000
G1 X-10.009 Y19.506 Z-0.610 F400.000
G1 X-9.913 Y19.513 Z-0.618 F400.000
G1 X-9.820 Y19.539 Z-0.627 F400.000
G1 X-9.734 Y19.582 Z-0.636 F400.000
G1 X-9.659 Y19.641 Z-0.644 F400.000
G1 X-9.596 Y19.714 Z-0.653 F400.000
G1 X-9.548 Y19.797 Z-0.661 F400.000
G1 X-9.518 Y19.889 Z-0.670 F400.000
G1 X-9.506 Y19.984 Z-0.679 F400.000
G1 X-9.513 Y20.080 Z-0.687 F400.000
G1 X-9.539 Y20.172 Z-0.696 F400.000
G1 X-9.582 Y20.258 Z-0.704 F400.000
G1 X-9.641 Y20.334 Z-0.713 F400.000
G1 X-9.714 Y20.397 Z-0.721 F400.000
G1 X-9.797 Y20.444 Z-0.730 F400.000
G1 X-9.889 Y20.474 Z-0.739 F400.000
G1 X-9.984 Y20.486 Z-0.747 F400.000
G1 X-10.080 Y20.479 Z-0.756 F400.000
G1 X-10.172 Y20.454 Z-0.764 F400.000
G1 X-10.258 Y20.410 Z-0.773 F400.000
G1 X-10.334 Y20.351 Z-0.782 F400.000
G1 X-10.397 Y20.279 Z-0.790 F400.000
G1 X-10.444 Y20.195 Z-0.799 F400.000
G1 X-10.474 Y20.104 Z-0.807 F400.000
G1 X-10.486 Y20.009 Z-0.816 F400.000
G1 X-10.479 Y19.913 Z-0.825 F400.000
G1 X-10.454 Y19.820 Z-0.833 F400.000
G1 X-10.410 Y19.734 Z-0.842 F400.000
G1 X-10.351 Y19.659 Z-0.850 F400.000
G1 X-10.279 Y19.596 Z-0.859 F400.000
G1 X-10.195 Y19.548 Z-0.868 F400.000
G1 X-10.104 Y19.518 Z-0.876 F400.000
G1 X-10.009 Y19.506 Z-0.885 F400.000
G1 X-9.913 Y19.513 Z-0.893 F400.000
G1 X-9.820 Y19.539 Z-0.902 F400.000
G1 X-9.734 Y19.582 Z-0.910 F400.000
G1 X-9.659 Y19.641 Z-0.919 F400.000
G1 X-9.596 Y19.714 Z-0.928 F400.000
G1 X-9.548 Y19.797 Z-0.936 F400.000
G1 X-9.518 Y19.889 Z-0.945 F400.000
G1 X-9.506 Y19.984 Z-0.953 F400.000
G1 X-9.513 Y20.080 Z-0.962 F400.000
G1 X-9.539 Y20.172 Z-0.971 F400.000
G1 X-9.582 Y20.258 Z-0.979 F400.000
G1 X-9.641 Y20.334 Z-0.988 F400.000
G1 X-9.714 Y20.397 Z-0.996 F400.000
G1 X-9.797 Y20.444 Z-1.005 F400.000
G1 X-9.889 Y20.474 Z-1.014 F400.000
G1 X-9.984 Y20.486 Z-1.022 F400.000
G1 X-10.080 Y20.479 Z-1.031 F400.000
G1 X-10.172 Y20.454 Z-1.039 F400.000
G1 X-10.258 Y20.410 Z-1.048 F400.000
G1 X-10.334 Y20.351 Z-1.056 F400.000
G1 X-10.397 Y20.279 Z-1.065 F400.000
G1 X-10.444 Y20.195 Z-1.074 F400.000
G1 X-10.474 Y20.104 Z-1.082 F400.000
G1 X-10.486 Y20.009 Z-1.091 F400.000
G1 X-10.479 Y19.913 Z-1.099 F400.000
G1 X-10.454 Y19.820 Z-1.108 F400.000
G1 X-10.410 Y19.734 Z-1.117 F400.000
G1 X-10.351 Y19.659 Z-1.125 F400.000
G1 X-10.279 Y19.596 Z-1.134 F400.000
G1 X-10.195 Y19.548 Z-1.142 F400.000
G1 X-10.104 Y19.518 Z-1.151 F400.000
G1 X-10.009 Y19.506 Z-1.160 F400.000
G1 X-9.913 Y19.513 Z-1.168 F400.000
G1 X-9.820 Y19.539 Z-1.177 F400.000
G1 X-9.734 Y19.582 Z-1.185 F400.000
G1 X-9.659 Y19.641 Z-1.194 F400.000
G1 X-9.596 Y19.714 Z-1.202 F400.000
G1 X-9.548 Y19.797 Z-1.211 F400.000
G1 X-9.518 Y19.889 Z-1.220 F400.000
G1 X-9.506 Y19.984 Z-1.228 F400.000
G1 X-9.513 Y20.080 Z-1.237 F400.000
G1 X-9.539 Y20.172 Z-1.245 F400.000
G1 X-9.582 Y20.258 Z-1.254 F400.000
G1 X-9.641 Y20.334 Z-1.263 F400.000
G1 X-9.714 Y20.397 Z-1.271 F400.000
G1 X-9.797 Y20.444 Z-1.280 F400.000
G1 X-9.889 Y20.474 Z-1.288 F400.000
G1 X-9.984 Y20.486 Z-1.297 F400.000
G1 X-10.080 Y20.479 Z-1.306 F400.000
G1 X-10.172 Y20.454 Z-1.314 F400.000
G1 X-10.258 Y20.410 Z-1.323 F400.000
G1 X-10.334 Y20.351 Z-1.331 F400.000
G1 X-10.397 Y20.279 Z-1.340 F400.000
G1 X-10.444 Y20.195 Z-1.349 F400.000
G1 X-10.474 Y20.104 Z-1.357 F400.000
G1 X-10.486 Y20.009 Z-1.366 F400.000
G1 X-10.479 Y19.913 Z-1.374 F400.000
G1 X-10.454 Y19.820 Z-1.383 F400.000
G1 X-10.410 Y19.734 Z-1.391 F400.000
G1 X-10.351 Y19.659 Z-1.400 F400.000
G1 X-10.279 Y19.596 Z-1.409 F400.000
G1 X-10.195 Y19.548 Z-1.417 F400.000
G1 X-10.104 Y19.518 Z-1.426 F400.000
G1 X-10.009 Y19.506 Z-1.434 F400.000
G1 X-9.913 Y19.513 Z-1.443 F400.000
G1 X-9.820 Y19.539 Z-1.452 F400.000
G1 X-9.734 Y19.582 Z-1.460 F400.000
G1 X-9.659 Y19.641 Z-1.469 F400.000
G1 X-9.596 Y19.714 Z-1.477 F400.000
G1 X-9.548 Y19.797 Z-1.486 F400.000
G1 X-9.518 Y19.889 Z-1.495 F400.000
G1 X-9.506 Y19.984 Z-1.503 F400.000
G1 X-9.513 Y20.080 Z-1.512 F400.000
G1 X-9.539 Y20.172 Z-1.520 F400.000
G1 X-9.582 Y20.258 Z-1.529 F400.000
G1 X-9.641 Y20.334 Z-1.537 F400.000
G1 X-9.714 Y20.397 Z-1.546 F400.000
G1 X-9.797 Y20.444 Z-1.555 F400.000
G1 X-9.889 Y20.474 Z-1.563 F400.000
G1 X-9.984 Y20.486 Z-1.572 F400.000
G1 X-10.080 Y20.479 Z-1.580 F400.000
G1 X-10.172 Y20.454 Z-1.589 F400.000
G1 X-10.258 Y20.410 Z-1.598 F400.000
G1 X-10.334 Y20.351 Z-1.606 F400.000
G1 X-10.397 Y20.279 Z-1.615 F400.000
G1 X-10.444 Y20.195 Z-1.623 F400.000
G1 X-10.474 Y20.104 Z-1.632 F400.000
G1 X-10.486 Y20.009 Z-1.641 F400.000
G1 X-10.479 Y19.913 Z-1.649 F400.000
G1 X-10.454 Y19.820 Z-1.658 F400.000
G1 X-10.410 Y19.734 Z-1.666 F400.000
G1 X-10.351 Y19.659 Z-1.675 F400.000
G1 X-10.279 Y19.596 Z-1.683 F400.000
G1 X-10.195 Y19.548 Z-1.692 F400.000
G1 X-10.104 Y19.518 Z-1.701 F400.000
G1 X-10.009 Y19.506 Z-1.709 F400.000
G1 X-9.913 Y19.513 Z-1.718 F400.000
G1 X-9.820 Y19.539 Z-1.726 F400.000
G1 X-9.734 Y19.582 Z-1.735 F400.000
G1 X-9.659 Y19.641 Z-1.744 F400.000
G1 X-9.596 Y19.714 Z-1.752 F400.000
G1 X-9.548 Y19.797 Z-1.761 F400.000
G1 X-9.518 Y19.889 Z-1.769 F400.000
G1 X-9.506 Y19.984 Z-1.778 F400.000
G1 X-9.513 Y20.080 Z-1.787 F400.000
G1 X-9.539 Y20.172 Z-1.795 F400.000
G1 X-9.582 Y20.258 Z-1.804 F400.000
G1 X-9.641 Y20.334 Z-1.812 F400.000
G1 X-9.714 Y20.397 Z-1.821 F400.000
G1 X-9.797 Y20.444 Z-1.829 F400.000
G1 X-9.889 Y20.474 Z-1.838 F400.000
G1 X-9.984 Y20.486 Z-1.847 F400.000
G1 X-10.080 Y20.479 Z-1.855 F400.000
G1 X-10.172 Y20.454 Z-1.864 F400.000
G1 X-10.258 Y20.410 Z-1.872 F400.000
G1 X-10.334 Y20.351 Z-1.881 F400.000
G1 X-10.397 Y20.279 Z-1.890 F400.000
G1 X-10.444 Y20.195 Z-1.898 F400.000
G1 X-10.474 Y20.104 Z-1.907 F400.000
G1 X-10.486 Y20.009 Z-1.915 F400.000
G1 X-10.479 Y19.913 Z-1.924 F400.000
G1 X-10.454 Y19.820 Z-1.933 F400.000
G1 X-10.410 Y19.734 Z-1.941 F400.000
G1 X-10.351 Y19.659 Z-1.950 F400.000
G1 X-10.279 Y19.596 Z-1.958 F400.000
G1 X-10.195 Y19.548 Z-1.967 F400.000
G1 X-10.104 Y19.518 Z-1.976 F400.000
G1 X-10.009 Y19.506 Z-1.984 F400.000
G1 X-9.913 Y19.513 Z-1.993 F400.000
G1 X-9.820 Y19.539 Z-2.001 F400.000
G1 X-9.734 Y19.582 Z-2.010 F400.000
G1 X-9.659 Y19.641 Z-2.018 F400.000
G1 X-9.596 Y19.714 Z-2.027 F400.000
G1 X-9.548 Y19.797 Z-2.036 F400.000
G1 X-9.518 Y19.889 Z-2.044 F400.000
G1 X-9.506 Y19.984 Z-2.053 F400.000
G1 X-9.513 Y20.080 Z-2.061 F400.000
G1 X-9.539 Y20.172 Z-2.070 F400.000
G1 X-9.582 Y20.258 Z-2.079 F400.000
G1 X-9.641 Y20.334 Z-2.087 F400.000
G1 X-9.714 Y20.397 Z-2.096 F400.000
G1 X-9.797 Y20.444 Z-2.104 F400.000
G1 X-9.889 Y20.474 Z-2.113 F400.000
G1 X-9.984 Y20.486 Z-2.122 F400.000
G1 X-10.080 Y20.479 Z-2.130 F400.000
G1 X-10.172 Y20.454 Z-2.139 F400.000
G1 X-10.258 Y20.410 Z-2.147 F400.000
G1 X-10.334 Y20.351 Z-2.156 F400.000
G1 X-10.397 Y20.279 Z-2.164 F400.000
G1 X-10.444 Y20.195 Z-2.173 F400.000
G1 X-10.474 Y20.104 Z-2.182 F400.000
G1 X-10.486 Y20.009 Z-2.190 F400.000
G1 X-10.479 Y19.913 Z-2.199 F400.000
G1 X-10.454 Y19.820 Z-2.207 F400.000
G1 X-10.410 Y19.734 Z-2.216 F400.000
G1 X-10.351 Y19.659 Z-2.225 F400.000
G1 X-10.279 Y19.596 Z-2.233 F400.000
G1 X-10.195 Y19.548 Z-2.242 F400.000
G1 X-10.104 Y19.518 Z-2.250 F400.000
G1 X-10.009 Y19.506 Z-2.259 F400.000
G1 X-9.913 Y19.513 Z-2.268 F400.000
G1 X-9.820 Y19.539 Z-2.276 F400.000
G1 X-9.734 Y19.582 Z-2.285 F400.000
G1 X-9.659 Y19.641 Z-2.293 F400.000
G1 X-9.596 Y19.714 Z-2.302 F400.000
G1 X-9.548 Y19.797 Z-2.310 F400.000
G1 X-9.518 Y19.889 Z-2.319 F400.000
G1 X-9.506 Y19.984 Z-2.328 F400.000
G1 X-9.513 Y20.080 Z-2.336 F400.000
G1 X-9.539 Y20.172 Z-2.345 F400.000
G1 X-9.582 Y20.258 Z-2.353 F400.000
G1 X-9.641 Y20.334 Z-2.362 F400.000
G1 X-9.714 Y20.397 Z-2.371 F400.000
G1 X-9.797 Y20.444 Z-2.379 F400.000
G1 X-9.889 Y20.474 Z-2.388 F400.000
G1 X-9.984 Y20.486 Z-2.396 F400.000
G1 X-10.080 Y20.479 Z-2.405 F400.000
G1 X-10.172 Y20.454 Z-2.414 F400.000
G1 X-10.258 Y20.410 Z-2.422 F400.000
G1 X-10.334 Y20.351 Z-2.431 F400.000
G1 X-10.397 Y20.279 Z-2.439 F400.000
G1 X-10.444 Y20.195 Z-2.448 F400.000
G1 X-10.474 Y20.104 Z-2.457 F400.000
G1 X-10.486 Y20.009 Z-2.465 F400.000
G1 X-10.479 Y19.913 Z-2.474 F400.000
G1 X-10.454 Y19.820 Z-2.482 F400.000
G1 X-10.410 Y19.734 Z-2.491 F400.000
G1 X-10.351 Y19.659 Z-2.499 F400.000
G1 X-10.279 Y19.596 Z-2.508 F400.000
G1 X-10.195 Y19.548 Z-2.517 F400.000
G1 X-10.104 Y19.518 Z-2.525 F400.000
G1 X-10.009 Y19.506 Z-2.534 F400.000
G1 X-9.913 Y19.513 Z-2.542 F400.000
G1 X-9.820 Y19.539 Z-2.551 F400.000
G1 X-9.734 Y19.582 Z-2.560 F400.000
G1 X-9.659 Y19.641 Z-2.568 F400.000
G1 X-9.596 Y19.714 Z-2.577 F400.000
G1 X-9.548 Y19.797 Z-2.585 F400.000
G1 X-9.518 Y19.889 Z-2.594 F400.000
G1 X-9.506 Y19.984 Z-2.603 F400.000
G1 X-9.513 Y20.080 Z-2.611 F400.000
G1 X-9.539 Y20.172 Z-2.620 F400.000
G1 X-9.582 Y20.258 Z-2.628 F400.000
G1 X-9.641 Y20.334 Z-2.637 F400.000
G1 X-9.714 Y20.397 Z-2.645 F400.000
G1 X-9.797 Y20.444 Z-2.654 F400.000
G1 X-9.889 Y20.474 Z-2.663 F400.000
G1 X-9.984 Y20.486 Z-2.671 F400.000
G1 X-10.080 Y20.479 Z-2.680 F400.000
G1 X-10.172 Y20.454 Z-2.688 F400.000
G1 X-10.258 Y20.410 Z-2.697 F400.000
G1 X-10.334 Y20.351 Z-2.706 F400.000
G1 X-10.397 Y20.279 Z-2.714 F400.000
G1 X-10.444 Y20.195 Z-2.723 F400.000
G1 X-10.474 Y20.104 Z-2.731 F400.000
G1 X-10.486 Y20.009 Z-2.740 F400.000
G1 X-10.479 Y19.913 Z-2.749 F400.000
G1 X-10.454 Y19.820 Z-2.757 F400.000
G1 X-10.410 Y19.734 Z-2.766 F400.000
G1 X-10.351 Y19.659 Z-2.774 F400.000
G1 X-10.279 Y19.596 Z-2.783 F400.000
G1 X-10.195 Y19.548 Z-2.791 F400.000
G1 X-10.104 Y19.518 Z-2.800 F400.000
G1 X-10.009 Y19.506 Z-2.809 F400.000
G1 X-9.913 Y19.513 Z-2.817 F400.000
G1 X-9.820 Y19.539 Z-2.826 F400.000
G1 X-9.734 Y19.582 Z-2.834 F400.000
G1 X-9.659 Y19.641 Z-2.843 F400.000
G1 X-9.596 Y19.714 Z-2.852 F400.000
G1 X-9.548 Y19.797 Z-2.860 F400.000
G1 X-9.518 Y19.889 Z-2.869 F400.000
G1 X-9.506 Y19.984 Z-2.877 F400.000
G1 X-9.513 Y20.080 Z-2.886 F400.000
G1 X-9.539 Y20.172 Z-2.895 F400.000
G1 X-9.582 Y20.258 Z-2.903 F400.000
G1 X-9.641 Y20.334 Z-2.912 F400.000
G1 X-9.714 Y20.397 Z-2.920 F400.000
G1 X-9.797 Y20.444 Z-2.929 F400.000
G1 X-9.889 Y20.474 Z-2.937 F400.000
G1 X-9.984 Y20.486 Z-2.946 F400.000
G1 X-10.080 Y20.479 Z-2.955 F400.000
G1 X-10.172 Y20.454 Z-2.963 F400.000
G1 X-10.258 Y20.410 Z-2.972 F400.000
G1 X-10.334 Y20.351 Z-2.980 F400.000
G1 X-10.397 Y20.279 Z-2.989 F400.000
G1 X-10.444 Y20.195 Z-2.998 F400.000
G1 X-10.474 Y20.104 Z-3.006 F400.000
G1 X-10.486 Y20.009 Z-3.015 F400.000
G1 X-10.479 Y19.913 Z-3.023 F400.000
G1 X-10.454 Y19.820 Z-3.032 F400.000
G1 X-10.410 Y19.734 Z-3.041 F400.000
G1 X-10.351 Y19.659 Z-3.049 F400.000
G1 X-10.279 Y19.596 Z-3.058 F400.000
G1 X-10.195 Y19.548 Z-3.066 F400.000
G1 X-10.104 Y19.518 Z-3.075 F400.000
G1 X-10.009 Y19.506 Z-3.084 F400.000
G1 X-9.913 Y19.513 Z-3.092 F400.000
G1 X-9.820 Y19.539 Z-3.101 F400.000
G1 X-9.734 Y19.582 Z-3.109 F400.000
G1 X-9.659 Y19.641 Z-3.118 F400.000
G1 X-9.596 Y19.714 Z-3.126 F400.000
G1 X-9.548 Y19.797 Z-3.135 F400.000
G1 X-9.518 Y19.889 Z-3.144 F400.000
G1 X-9.506 Y19.984 Z-3.152 F400.000
G1 X-9.513 Y20.080 Z-3.161 F400.000
G1 X-9.539 Y20.172 Z-3.169 F400.000
G1 X-9.582 Y20.258 Z-3.178 F400.000
G1 X-9.641 Y20.334 Z-3.187 F400.000
G1 X-9.714 Y20.397 Z-3.195 F400.000
G1 X-9.797 Y20.444 Z-3.204 F400.000
G1 X-9.889 Y20.474 Z-3.212 F400.000
G1 X-9.984 Y20.486 Z-3.221 F400.000
G1 X-10.080 Y20.479 Z-3.230 F400.000
G1 X-10.172 Y20.454 Z-3.238 F400.000
G1 X-10.258 Y20.410 Z-3.247 F400.000
G1 X-10.334 Y20.351 Z-3.255 F400.000
G1 X-10.397 Y20.279 Z-3.264 F400.000
G1 X-10.444 Y20.195 Z-3.272 F400.000
G1 X-10.474 Y20.104 Z-3.281 F400.000
G1 X-10.486 Y20.009 Z-3.290 F400.000
G1 X-10.479 Y19.913 Z-3.298 F400.000
G1 X-10.454 Y19.820 Z-3.307 F400.000
G1 X-10.410 Y19.734 Z-3.315 F400.000
G1 X-10.351 Y19.659 Z-3.324 F400.000
G1 X-10.279 Y19.596 Z-3.333 F400.000
G1 X-10.195 Y19.548 Z-3.341 F400.000
G1 X-10.104 Y19.518 Z-3.350 F400.000
G1 X-10.009 Y19.506 Z-3.358 F400.000
G1 X-9.913 Y19.513 Z-3.367 F400.000
G1 X-9.820 Y19.539 Z-3.376 F400.000
G1 X-9.734 Y19.582 Z-3.384 F400.000
G1 X-9.659 Y19.641 Z-3.393 F400.000
G1 X-9.596 Y19.714 Z-3.401 F400.000
G1 X-9.548 Y19.797 Z-3.410 F400.000
G1 X-9.518 Y19.889 Z-3.418 F400.000
G1 X-9.506 Y19.984 Z-3.427 F400.000
G1 X-9.513 Y20.080 Z-3.436 F400.000
G1 X-9.539 Y20.172 Z-3.444 F400.000
G1 X-9.582 Y20.258 Z-3.453 F400.000
G1 X-9.641 Y20.334 Z-3.461 F400.000
G1 X-9.714 Y20.397 Z-3.470 F400.000
G1 X-9.797 Y20.444 Z-3.479 F400.000
G1 X-9.889 Y20.474 Z-3.487 F400.000
G1 X-9.984 Y20.486 Z-3.496 F400.000
G1 X-10.080 Y20.479 Z-3.504 F400.000
G1 X-10.172 Y20.454 Z-3.513 F400.000
G1 X-10.258 Y20.410 Z-3.522 F400.000
G1 X-10.334 Y20.351 Z-3.530 F400.000
G1 X-10.397 Y20.279 Z-3.539 F400.000
G1 X-10.444 Y20.195 Z-3.547 F400.000
G1 X-10.474 Y20.104 Z-3.556 F400.000
G1 X-10.486 Y20.009 Z-3.565 F400.000
G1 X-10.479 Y19.913 Z-3.573 F400.000
G1 X-10.454 Y19.820 Z-3.582 F400.000
G1 X-10.410 Y19.734 Z-3.590 F400.000
G1 X-10.351 Y19.659 Z-3.599 F400.000
G1 X-10.279 Y19.596 Z-3.607 F400.000
G1 X-10.195 Y19.548 Z-3.616 F400.000
G1 X-10.104 Y19.518 Z-3.625 F400.000
G1 X-10.009 Y19.506 Z-3.633 F400.000
G1 X-9.913 Y19.513 Z-3.642 F400.000
G1 X-9.820 Y19.539 Z-3.650 F400.000
G1 X-9.734 Y19.582 Z-3.659 F400.000
G1 X-9.659 Y19.641 Z-3.668 F400.000
G1 X-9.596 Y19.714 Z-3.676 F400.000
G1 X-9.548 Y19.797 Z-3.685 F400.000
G1 X-9.518 Y19.889 Z-3.693 F400.000
G1 X-9.506 Y19.984 Z-3.702 F400.000
G1 X-9.513 Y20.080 Z-3.711 F400.000
G1 X-9.539 Y20.172 Z-3.719 F400.000
G1 X-9.582 Y20.258 Z-3.728 F400.000
G1 X-9.641 Y20.334 Z-3.736 F400.000
G1 X-9.714 Y20.397 Z-3.745 F400.000
G1 X-9.797 Y20.444 Z-3.753 F400.000
G1 X-9.889 Y20.474 Z-3.762 F400.000
G1 X-9.984 Y20.486 Z-3.771 F400.000
G1 X-10.080 Y20.479 Z-3.779 F400.000
G1 X-10.172 Y20.454 Z-3.788 F400.000
G1 X-10.258 Y20.410 Z-3.796 F400.000
G1 X-10.334 Y20.351 Z-3.805 F400.000
G1 X-10.397 Y20.279 Z-3.814 F400.000
G1 X-10.444 Y20.195 Z-3.822 F400.000
G1 X-10.474 Y20.104 Z-3.831 F400.000
G1 X-10.486 Y20.009 Z-3.839 F400.000
G1 X-10.479 Y19.913 Z-3.848 F400.000
G1 X-10.454 Y19.820 Z-3.857 F400.000
G1 X-10.410 Y19.734 Z-3.865 F400.000
G1 X-10.351 Y19.659 Z-3.874 F400.000
G1 X-10.279 Y19.596 Z-3.882 F400.000
G1 X-10.195 Y19.548 Z-3.891 F400.000
G1 X-10.104 Y19.518 Z-3.899 F400.000
G1 X-10.009 Y19.506 Z-3.908 F400.000
G1 X-9.913 Y19.513 Z-3.917 F400.000
G1 X-9.820 Y19.539 Z-3.925 F400.000
G1 X-9.734 Y19.582 Z-3.934 F400.000
G1 X-9.659 Y19.641 Z-3.942 F400.000
G1 X-9.596 Y19.714 Z-3.951 F400.000
G1 X-9.548 Y19.797 Z-3.960 F400.000
G1 X-9.518 Y19.889 Z-3.968 F400.000
G1 X-9.506 Y19.984 Z-3.977 F400.000
G1 X-9.513 Y20.080 Z-3.985 F400.000
G1 X-9.539 Y20.172 Z-3.994 F400.000
G1 X-9.582 Y20.258 Z-4.003 F400.000
G1 X-9.641 Y20.334 Z-4.011 F400.000
G1 X-9.714 Y20.397 Z-4.020 F400.000
G1 X-9.797 Y20.444 Z-4.028 F400.000
G1 X-9.889 Y20.474 Z-4.037 F400.000
G1 X-9.984 Y20.486 Z-4.046 F400.000
G1 X-10.080 Y20.479 Z-4.054 F400.000
G1 X-10.172 Y20.454 Z-4.063 F400.000
G1 X-10.258 Y20.410 Z-4.071 F400.000
G1 X-10.334 Y20.351 Z-4.080 F400.000
G1 X-10.397 Y20.279 Z-4.088 F400.000
G1 X-10.444 Y20.195 Z-4.097 F400.000
G1 X-10.474 Y20.104 Z-4.106 F400.000
G1 X-10.486 Y20.009 Z-4.114 F400.000
G1 X-10.479 Y19.913 Z-4.123 F400.000
G1 X-10.454 Y19.820 Z-4.131 F400.000
G1 X-10.410 Y19.734 Z-4.140 F400.000
G1 X-10.351 Y19.659 Z-4.149 F400.000
G1 X-10.279 Y19.596 Z-4.157 F400.000
G1 X-10.195 Y19.548 Z-4.166 F400.000
G1 X-10.104 Y19.518 Z-4.174 F400.000
G1 X-10.009 Y19.506 Z-4.183 F400.000
G1 X-9.913 Y19.513 Z-4.192 F400.000
G1 X-9.820 Y19.539 Z-4.200 F400.000
G1 X-9.734 Y19.582 Z-4.209 F400.000
G1 X-9.659 Y19.641 Z-4.217 F400.000
G1 X-9.596 Y19.714 Z-4.226 F400.000
G1 X-9.548 Y19.797 Z-4.234 F400.000
G1 X-9.518 Y19.889 Z-4.243 F400.000
G1 X-9.506 Y19.984 Z-4.252 F400.000
G1 X-9.513 Y20.080 Z-4.260 F400.000
G1 X-9.539 Y20.172 Z-4.269 F400.000
G1 X-9.582 Y20.258 Z-4.277 F400.000
G1 X-9.641 Y20.334 Z-4.286 F400.000
G1 X-9.714 Y20.397 Z-4.295 F400.000
G1 X-9.797 Y20.444 Z-4.303 F400.000
G1 X-9.889 Y20.474 Z-4.312 F400.000
G1 X-9.984 Y20.486 Z-4.320 F400.000
G1 X-10.080 Y20.479 Z-4.329 F400.000
G1 X-10.172 Y20.454 Z-4.338 F400.000
G1 X-10.258 Y20.410 Z-4.346 F400.000
G1 X-10.334 Y20.351 Z-4.355 F400.000
G1 X-10.397 Y20.279 Z-4.363 F400.000
G1 X-10.444 Y20.195 Z-4.372 F400.000
G1 X-10.474 Y20.104 Z-4.380 F400.000
G1 X-10.486 Y20.009 Z-4.389 F400.000
G1 X-10.479 Y19.913 Z-4.398 F400.000
G1 X-10.454 Y19.820 Z-4.406 F400.000
G1 X-10.410 Y19.734 Z-4.415 F400.000
G1 X-10.351 Y19.659 Z-4.423 F400.000
G1 X-10.279 Y19.596 Z-4.432 F400.000
G1 X-10.195 Y19.548 Z-4.441 F400.000
G1 X-10.104 Y19.518 Z-4.449 F400.000
G1 X-10.009 Y19.506 Z-4.458 F400.000
G1 X-9.913 Y19.513 Z-4.466 F400.000
G1 X-9.820 Y19.539 Z-4.475 F400.000
G1 X-9.734 Y19.582 Z-4.484 F400.000
G1 X-9.659 Y19.641 Z-4.492 F400.000
G1 X-9.596 Y19.714 Z-4.501 F400.000
G1 X-9.548 Y19.797 Z-4.509 F400.000
G1 X-9.518 Y19.889 Z-4.518 F400.000
G1 X-9.506 Y19.984 Z-4.526 F400.000
G1 X-9.513 Y20.080 Z-4.535 F400.000
G1 X-9.539 Y20.172 Z-4.544 F400.000
G1 X-9.582 Y20.258 Z-4.552 F400.000
G1 X-9.641 Y20.334 Z-4.561 F400.000
G1 X-9.714 Y20.397 Z-4.569 F400.000
G1 X-9.797 Y20.444 Z-4.578 F400.000
G1 X-9.889 Y20.474 Z-4.587 F400.000
G1 X-9.984 Y20.486 Z-4.595 F400.000
G1 X-10.080 Y20.479 Z-4.604 F400.000
G1 X-10.172 Y20.454 Z-4.612 F400.000
G1 X-10.258 Y20.410 Z-4.621 F400.000
G1 X-10.334 Y20.351 Z-4.630 F400.000
G1 X-10.397 Y20.279 Z-4.638 F400.000
G1 X-10.444 Y20.195 Z-4.647 F400.000
G1 X-10.474 Y20.104 Z-4.655 F400.000
G1 X-10.486 Y20.009 Z-4.664 F400.000
G1 X-10.479 Y19.913 Z-4.673 F400.000
G1 X-10.454 Y19.820 Z-4.681 F400.000
G1 X-10.410 Y19.734 Z-4.690 F400.000
G1 X-10.351 Y19.659 Z-4.698 F400.000
G1 X-10.279 Y19.596 Z-4.707 F400.000
G1 X-10.195 Y19.548 Z-4.715 F400.000
G1 X-10.104 Y19.518 Z-4.724 F400.000
G1 X-10.009 Y19.506 Z-4.733 F400.000
G1 X-9.913 Y19.513 Z-4.741 F400.000
G1 X-9.820 Y19.539 Z-4.750 F400.000
G1 X-9.734 Y19.582 Z-4.758 F400.000
G1 X-9.659 Y19.641 Z-4.767 F400.000
G1 X-9.596 Y19.714 Z-4.776 F400.000
G1 X-9.548 Y19.797 Z-4.784 F400.000
G1 X-9.518 Y19.889 Z-4.793 F400.000
G1 X-9.506 Y19.984 Z-4.801 F400.000
G1 X-9.513 Y20.080 Z-4.810 F400.000
G1 X-9.539 Y20.172 Z-4.819 F400.000
G1 X-9.582 Y20.258 Z-4.827 F400.000
G1 X-9.641 Y20.334 Z-4.836 F400.000
G1 X-9.714 Y20.397 Z-4.844 F400.000
G1 X-9.797 Y20.444 Z-4.853 F400.000
G1 X-9.889 Y20.474 Z-4.861 F400.000
G1 X-9.984 Y20.486 Z-4.870 F400.000
G1 X-10.080 Y20.479 Z-4.879 F400.000
G1 X-10.172 Y20.454 Z-4.887 F400.000
G1 X-10.258 Y20.410 Z-4.896 F400.000
G1 X-10.334 Y20.351 Z-4.904 F400.000
G1 X-10.397 Y20.279 Z-4.913 F400.000
G1 X-10.444 Y20.195 Z-4.922 F400.000
G1 X-10.474 Y20.104 Z-4.930 F400.000
G1 X-10.486 Y20.009 Z-4.939 F400.000
G1 X-10.479 Y19.913 Z-4.947 F400.000
G1 X-10.454 Y19.820 Z-4.956 F400.000
G1 X-10.410 Y19.734 Z-4.965 F400.000
G1 X-10.351 Y19.659 Z-4.973 F400.000
G1 X-10.279 Y19.596 Z-4.982 F400.000
G1 X-10.195 Y19.548 Z-4.990 F400.000
G1 X-10.104 Y19.518 Z-4.999 F400.000
G1 X-10.009 Y19.506 Z-5.000 F400.000
G1 X-9.913 Y19.513 Z-5.000 F400.000
G1 X-9.820 Y19.539 Z-5.000 F400.000
G1 X-9.734 Y19.582 Z-5.000 F400.000
G1 X-9.659 Y19.641 Z-5.000 F400.000
G1 X-9.596 Y19.714 Z-5.000 F400.000
G1 X-9.548 Y19.797 Z-5.000 F400.000
G1 X-9.518 Y19.889 Z-5.000 F400.000
G1 X-9.506 Y19.984 Z-5.000 F400.000
G1 X-9.513 Y20.080 Z-5.000 F400.000
G1 X-9.539 Y20.172 Z-5.000 F400.000
G1 X-9.582 Y20.258 Z-5.000 F400.000
G1 X-9.641 Y20.334 Z-5.000 F400.000
G1 X-9.714 Y20.397 Z-5.000 F400.000
G1 X-9.797 Y20.444 Z-5.000 F400.000
G1 X-9.889 Y20.474 Z-5.000 F400.000
G1 X-9.984 Y20.486 Z-5.000 F400.000
G1 X-10.080 Y20.479 Z-5.000 F400.000
G1 X-10.172 Y20.454 Z-5.000 F400.000
G1 X-10.258 Y20.410 Z-5.000 F400.000
G1 X-10.334 Y20.351 Z-5.000 F400.000
G1 X-10.397 Y20.279 Z-5.000 F400.000
G1 X-10.444 Y20.195 Z-5.000 F400.000
G1 X-10.474 Y20.104 Z-5.000 F400.000
G1 X-10.486 Y20.009 Z-5.000 F400.000
G1 X-10.479 Y19.913 Z-5.000 F400.000
G1 X-10.454 Y19.820 Z-5.000 F400.000
G1 X-10.410 Y19.734 Z-5.000 F400.000
G1 X-10.351 Y19.659 Z-5.000 F400.000
G1 X-10.279 Y19.596 Z-5.000 F400.000
G1 X-10.195 Y19.548 Z-5.000 F400.000
G1 X-10.104 Y19.518 Z-5.000 F400.000
(Adaptive - depth: -5.000000)
G1 X-9.996 Y19.496 F400.000
G1 X-9.947 Y19.459 F400.000
G1 X-9.887 Y19.440 F400.000
G1 X-9.827 Y19.432 F400.000
G1 X-9.767 Y19.436 F400.000
G1 X-9.650 Y19.470 F400.000
G1 X-9.541 Y19.530 F400.000
G1 X-9.492 Y19.568 F400.000
G1 X-9.357 Y19.782 F400.000
G1 X-9.320 Y19.921 F400.000
G1 X-9.308 Y20.026 F400.000
G1 X-9.320 Y20.147 F400.000
G1 X-9.365 Y20.286 F400.000
G1 X-9.440 Y20.414 F400.000
G1 X-9.530 Y20.515 F400.000
G1 X-9.647 Y20.598 F400.000
G1 X-9.778 Y20.654 F400.000
G1 X-9.917 Y20.684 F400.000
G1 X-10.060 Y20.684 F400.000
G1 X-10.203 Y20.654 F400.000
G1 X-10.331 Y20.598 F400.000
G1 X-10.451 Y20.511 F400.000
G1 X-10.549 Y20.402 F400.000
G1 X-10.620 Y20.274 F400.000
G1 X-10.662 Y20.143 F400.000
G1 X-10.677 Y20.000 F400.000
G1 X-10.662 Y19.861 F400.000
G1 X-10.617 Y19.726 F400.000
G1 X-10.545 Y19.602 F400.000
G1 X-10.410 Y19.447 F400.000
G1 X-10.256 Y19.335 F400.000
G1 X-10.083 Y19.256 F400.000
G1 X-9.902 Y19.218 F400.000
G1 X-9.782 Y19.214 F400.000
G1 X-9.662 Y19.233 F400.000
G1 X-9.545 Y19.274 F400.000
G1 X-9.271 Y19.485 F400.000
G1 X-9.177 Y19.620 F400.000
G1 X-9.128 Y19.722 F400.000
G1 X-9.090 Y19.838 F400.000
G1 X-9.071 Y20.004 F400.000
G1 X-9.083 Y20.180 F400.000
G1 X-9.128 Y20.346 F400.000
G1 X-9.195 Y20.489 F400.000
G1 X-9.293 Y20.624 F400.000
G1 X-9.414 Y20.733 F400.000
G1 X-9.538 Y20.812 F400.000
G1 X-9.684 Y20.872 F400.000
G1 X-9.838 Y20.910 F400.000
G1 X-10.026 Y20.917 F400.000
G1 X-10.192 Y20.898 F400.000
G1 X-10.353 Y20.842 F400.000
G1 X-10.481 Y20.771 F400.000
G1 X-10.609 Y20.669 F400.000
G1 X-10.722 Y20.538 F400.000
G1 X-10.805 Y20.398 F400.000
G1 X-10.861 Y20.241 F400.000
G1 X-10.887 Y20.075 F400.000
G1 X-10.887 Y19.910 F400.000
G1 X-10.857 Y19.744 F400.000
G1 X-10.797 Y19.586 F400.000
G1 X-10.714 Y19.440 F400.000
G1 X-10.602 Y19.297 F400.000
G1 X-10.459 Y19.169 F400.000
G1 X-10.308 Y19.071 F400.000
G1 X-10.135 Y19.000 F400.000
G1 X-9.895 Y18.955 F400.000
G1 X-9.714 Y18.966 F400.000
G1 X-9.474 Y19.023 F400.000
G1 X-9.308 Y19.102 F400.000
G1 X-9.113 Y19.244 F400.000
G1 X-8.955 Y19.425 F400.000
G1 X-8.865 Y19.579 F400.000
G1 X-8.786 Y19.805 F400.000
G1 X-8.756 Y20.030 F400.000
G1 X-8.786 Y20.312 F400.000
G1 X-8.861 Y20.530 F400.000
G1 X-8.981 Y20.726 F400.000
G1 X-9.139 Y20.895 F400.000
G1 X-9.327 Y21.030 F400.000
G1 X-9.590 Y21.139 F400.000
G1 X-9.816 Y21.184 F400.000
G1 X-10.098 Y21.180 F400.000
G1 X-10.267 Y21.147 F400.000
G1 X-10.485 Y21.056 F400.000
G1 X-10.729 Y20.887 F400.000
G1 X-10.850 Y20.752 F400.000
G1 X-10.981 Y20.549 F400.000
G1 X-11.071 Y20.320 F400.000
G1 X-11.117 Y20.019 F400.000
G1 X-11.102 Y19.778 F400.000
G1 X-11.060 Y19.598 F400.000
G1 X-10.929 Y19.312 F400.000
G1 X-10.737 Y19.064 F400.000
G1 X-10.541 Y18.902 F400.000
G1 X-10.323 Y18.778 F400.000
G1 X-10.083 Y18.699 F400.000
G1 X-9.842 Y18.665 F400.000
G1 X-9.602 Y18.677 F400.000
G1 X-9.305 Y18.752 F400.000
G1 X-9.038 Y18.895 F400.000
G1 X-8.902 Y19.015 F400.000
G1 X-8.699 Y19.305 F400.000
G1 X-8.560 Y19.695 F400.000
G1 X-8.534 Y20.090 F400.000
G1 X-8.579 Y20.372 F400.000
G1 X-8.635 Y20.538 F400.000
G1 X-8.759 Y20.793 F400.000
G1 X-8.898 Y20.977 F400.000
G1 X-9.068 Y21.139 F400.000
G1 X-9.305 Y21.293 F400.000
G1 X-9.684 Y21.432 F400.000
G1 X-9.966 Y21.462 F400.000
G1 X-10.361 Y21.406 F400.000
G1 X-10.635 Y21.289 F400.000
G1 X-10.741 Y21.229 F400.000
G1 X-10.966 Y21.034 F400.000
G1 X-11.147 Y20.789 F400.000
G1 X-11.278 Y20.515 F400.000
G1 X-11.353 Y20.218 F400.000
G1 X-11.376 Y19.917 F400.000
G1 X-11.335 Y19.617 F400.000
G1 X-11.259 Y19.376 F400.000
G1 X-11.177 Y19.207 F400.000
G1 X-11.075 Y19.049 F400.000
G1 X-10.865 Y18.820 F400.000
G1 X-10.767 Y18.741 F400.000
G1 X-10.538 Y18.635 F400.000
G1 X-10.297 Y18.556 F400.000
G1 X-9.996 Y18.526 F400.000
G1 X-9.695 Y18.560 F400.000
G1 X-9.515 Y18.613 F400.000
G1 X-9.515 Y18.613 F400.000
G1 X-9.406 Y18.673 F400.000
G1 X-9.350 Y18.741 F400.000
G0 X-9.342 Y18.767
G0 X-9.368 Y18.876
G0 X-10.361 Y21.120
G1 X-10.376 Y21.154 F400.000
G1 X-10.436 Y21.263 F400.000
G1 X-10.481 Y21.297 F400.000
G1 X-10.571 Y21.312 F400.000
G1 X-10.695 Y21.289 F400.000
G1 X-10.695 Y21.289 F400.000
G1 X-10.944 Y21.128 F400.000
G1 X-11.150 Y20.914 F400.000
G1 X-11.256 Y20.767 F400.000
G1 X-11.357 Y20.549 F400.000
G1 X-11.436 Y20.323 F400.000
G1 X-11.474 Y20.023 F400.000
G1 X-11.425 Y19.662 F400.000
G1 X-11.346 Y19.425 F400.000
G1 X-11.267 Y19.256 F400.000
G1 X-11.079 Y19.000 F400.000
G1 X-10.989 Y18.910 F400.000
G1 X-10.989 Y18.910 F400.000
G1 X-10.970 Y18.902 F400.000
G0 X-10.955 Y18.910
G0 X-10.947 Y18.925
G1 X-10.951 Y18.940 F400.000
G1 X-10.974 Y18.951 F400.000
G1 X-11.008 Y18.936 F400.000
G1 X-11.008 Y18.891 F400.000
G1 X-11.008 Y18.891 F400.000
G1 X-10.827 Y18.752 F400.000
G1 X-10.673 Y18.665 F400.000
G1 X-10.365 Y18.549 F400.000
G1 X-10.173 Y18.511 F400.000
G1 X-10.011 Y18.500 F400.000
G1 X-9.925 Y18.504 F400.000
G1 X-9.707 Y18.534 F400.000
G1 X-9.504 Y18.590 F400.000
G1 X-9.308 Y18.669 F400.000
G1 X-9.207 Y18.729 F400.000
G1 X-8.992 Y18.887 F400.000
G1 X-8.898 Y18.981 F400.000
G1 X-8.677 Y19.297 F400.000
G1 X-8.643 Y19.361 F400.000
G1 X-8.556 Y19.594 F400.000
G1 X-8.534 Y19.684 F400.000
G1 X-8.508 Y19.891 F400.000
G1 X-8.508 Y20.034 F400.000
G1 X-8.538 Y20.286 F400.000
G1 X-8.575 Y20.447 F400.000
G1 X-8.635 Y20.613 F400.000
G1 X-8.722 Y20.778 F400.000
G1 X-8.861 Y20.974 F400.000
G1 X-8.996 Y21.109 F400.000
G1 X-9.150 Y21.229 F400.000
G1 X-9.316 Y21.327 F400.000
G1 X-9.609 Y21.444 F400.000
G1 X-9.733 Y21.474 F400.000
G1 X-9.872 Y21.492 F400.000
G1 X-10.015 Y21.496 F400.000
G1 X-10.188 Y21.477 F400.000
G1 X-10.342 Y21.447 F400.000
G1 X-10.590 Y21.368 F400.000
G1 X-10.695 Y21.320 F400.000
G1 X-10.820 Y21.244 F400.000
G1 X-11.015 Y21.102 F400.000
G1 X-11.143 Y20.970 F400.000
G1 X-11.222 Y20.865 F400.000
G1 X-11.335 Y20.669 F400.000
G1 X-11.455 Y20.361 F400.000
G1 X-11.500 Y20.041 F400.000
G1 X-11.496 Y19.974 F400.000
G1 X-11.440 Y19.613 F400.000
G1 X-11.387 Y19.451 F400.000
G1 X-11.312 Y19.282 F400.000
G1 X-11.222 Y19.132 F400.000
G1 X-11.056 Y18.932 F400.000
G1 X-11.011 Y18.891 F400.000
G1 X-11.008 Y18.891 F400.000
G0 Z5.000
(Helix to depth: -5.000000)
G0 Z5.000
G0 X-37.979 Y-0.084 Z5.000
G0 X-37.979 Y-0.084 Z3.000
G1 X-37.979 Y-0.084 Z0.000 F400.000
G1 X-37.979 Y-0.084 Z0.000 F400.000
G1 X-37.954 Y-0.176 Z-0.009 F400.000
G1 X-37.910 Y-0.262 Z-0.017 F400.000
G1 X-37.851 Y-0.338 Z-0.026 F400.000
G1 X-37.779 Y-0.400 Z-0.034 F400.000
G1 X-37.695 Y-0.448 Z-0.043 F400.000
G1 X-37.604 Y-0.478 Z-0.052 F400.000
G1 X-37.509 Y-0.490 Z-0.060 F400.000
G1 X-37.413 Y-0.483 Z-0.069 F400.000
G1 X-37.320 Y-0.457 Z-0.077 F400.000
G1 X-37.234 Y-0.414 Z-0.086 F400.000
G1 X-37.159 Y-0.355 Z-0.094 F400.000
G1 X-37.096 Y-0.282 Z-0.103 F400.000
G1 X-37.048 Y-0.199 Z-0.112 F400.000
G1 X-37.018 Y-0.108 Z-0.120 F400.000
G1 X-37.006 Y-0.012 Z-0.129 F400.000
G1 X-37.013 Y0.084 Z-0.137 F400.000
G1 X-37.039 Y0.176 Z-0.146 F400.000
G1 X-37.082 Y0.262 Z-0.155 F400.000
G1 X-37.141 Y0.338 Z-0.163 F400.000
G1 X-37.214 Y0.400 Z-0.172 F400.000
G1 X-37.297 Y0.448 Z-0.180 F400.000
G1 X-37.389 Y0.478 Z-0.189 F400.000
G1 X-37.484 Y0.490 Z-0.198 F400.000
G1 X-37.580 Y0.483 Z-0.206 F400.000
G1 X-37.672 Y0.457 Z-0.215 F400.000
G1 X-37.758 Y0.414 Z-0.223 F400.000
G1 X-37.834 Y0.355 Z-0.232 F400.000
G1 X-37.897 Y0.282 Z-0.240 F400.000
G1 X-37.944 Y0.199 Z-0.249 F400.000
G1 X-37.974 Y0.108 Z-0.258 F400.000
G1 X-37.986 Y0.012 Z-0.266 F400.000
G1 X-37.979 Y-0.084 Z-0.275 F400.000
G1 X-37.954 Y-0.176 Z-0.283 F400.000
G1 X-37.910 Y-0.262 Z-0.292 F400.000
G1 X-37.851 Y-0.338 Z-0.301 F400.000
G1 X-37.779 Y-0.400 Z-0.309 F400.000
G1 X-37.695 Y-0.448 Z-0.318 F400.000
G1 X-37.604 Y-0.478 Z-0.326 F400.000
G1 X-37.509 Y-0.490 Z-0.335 F400.000
G1 X-37.413 Y-0.483 Z-0.344 F400.000
G1 X-37.320 Y-0.457 Z-0.352 F400.000
G1 X-37.234 Y-0.414 Z-0.361 F400.000
G1 X-37.159 Y-0.355 Z-0.369 F400.000
G1 X-37.096 Y-0.282 Z-0.378 F400.000
G1 X-37.048 Y-0.199 Z-0.387 F400.000
G1 X-37.018 Y-0.108 Z-0.395 F400.000
G1 X-37.006 Y-0.012 Z-0.404 F400.000
G1 X-37.013 Y0.084 Z-0.412 F400.000
G1 X-37.039 Y0.176 Z-0.421 F400.000
G1 X-37.082 Y0.262 Z-0.429 F400.000
G1 X-37.141 Y0.338 Z-0.438 F400.000
G1 X-37.214 Y0.400 Z-0.447 F400.000
G1 X-37.297 Y0.448 Z-0.455 F400.000
G1 X-37.389 Y0.478 Z-0.464 F400.000
G1 X-37.484 Y0.490 Z-0.472 F400.000
G1 X-37.580 Y0.483 Z-0.481 F400.000
G1 X-37.672 Y0.457 Z-0.490 F400.000
G1 X-37.758 Y0.414 Z-0.498 F400.000
G1 X-37.834 Y0.355 Z-0.507 F400.000
G1 X-37.897 Y0.282 Z-0.515 F400.000
G1 X-37.944 Y0.199 Z-0.524 F400.000
G1 X-37.974 Y0.108 Z-0.533 F400.000
G1 X-37.986 Y0.012 Z-0.541 F400.000
G1 X-37.979 Y-0.084 Z-0.550 F400.000
G1 X-37.954 Y-0.176 Z-0.558 F400.000
G1 X-37.910 Y-0.262 Z-0.567 F400.000
G1 X-37.851 Y-0.338 Z-0.575 F400.000
G1 X-37.779 Y-0.400 Z-0.584 F400.000
G1 X-37.695 Y-0.448 Z-0.593 F400.000
G1 X-37.604 Y-0.478 Z-0.601 F400.000
G1 X-37.509 Y-0.490 Z-0.610 F400.000
G1 X-37.413 Y-0.483 Z-0.618 F400.000
G1 X-37.320 Y-0.457 Z-0.627 F400.000
G1 X-37.234 Y-0.414 Z-0.636 F400.000
G1 X-37.159 Y-0.355 Z-0.644 F400.000
G1 X-37.096 Y-0.282 Z-0.653 F400.000
G1 X-37.048 Y-0.199 Z-0.661 F400.000
G1 X-37.018 Y-0.108 Z-0.670 F400.000
G1 X-37.006 Y-0.012 Z-0.679 F400.000
G1 X-37.013 Y0.084 Z-0.687 F400.000
G1 X-37.039 Y0.176 Z-0.696 F400.000
G1 X-37.082 Y0.262 Z-0.704 F400.000
G1 X-37.141 Y0.338 Z-0.713 F400.000
G1 X-37.214 Y0.400 Z-0.721 F400.000
G1 X-37.297 Y0.448 Z-0.730 F400.000
G1 X-37.389 Y0.478 Z-0.739 F400.000
G1 X-37.484 Y0.490 Z-0.747 F400.000
G1 X-37.580 Y0.483 Z-0.756 F400.000
G1 X-37.672 Y0.457 Z-0.764 F400.000
G1 X-37.758 Y0.414 Z-0.773 F400.000
G1 X-37.834 Y0.355 Z-0.782 F400.000
G1 X-37.897 Y0.282 Z-0.790 F400.000
G1 X-37.944 Y0.199 Z-0.799 F400.000
G1 X-37.974 Y0.108 Z-0.807 F400.000
G1 X-37.986 Y0.012 Z-0.816 F400.000
G1 X-37.979 Y-0.084 Z-0.825 F400.000
G1 X-37.954 Y-0.176 Z-0.833 F400.000
G1 X-37.910 Y-0.262 Z-0.842 F400.000
G1 X-37.851 Y-0.338 Z-0.850 F400.000
G1 X-37.779 Y-0.400 Z-0.859 F400.000
G1 X-37.695 Y-0.448 Z-0.868 F400.000
G1 X-37.604 Y-0.478 Z-0.876 F400.000
G1 X-37.509 Y-0.490 Z-0.885 F400.000
G1 X-37.413 Y-0.483 Z-0.893 F400.000
G1 X-37.320 Y-0.457 Z-0.902 F400.000
G1 X-37.234 Y-0.414 Z-0.910 F400.000
G1 X-37.159 Y-0.355 Z-0.919 F400.000
G1 X-37.096 Y-0.282 Z-0.928 F400.000
G1 X-37.048 Y-0.199 Z-0.936 F400.000
G1 X-37.018 Y-0.108 Z-0.945 F400.000
G1 X-37.006 Y-0.012 Z-0.953 F400.000
G1 X-37.013 Y0.084 Z-0.962 F400.000
G1 X-37.039 Y0.176 Z-0.971 F400.000
G1 X-37.082 Y0.262 Z-0.979 F400.000
G1 X-37.141 Y0.338 Z-0.988 F400.000
G1 X-37.214 Y0.400 Z-0.996 F400.000
G1 X-37.297 Y0.448 Z-1.005 F400.000
G1 X-37.389 Y0.478 Z-1.014 F400.000
G1 X-37.484 Y0.490 Z-1.022 F400.000
G1 X-37.580 Y0.483 Z-1.031 F400.000
G1 X-37.672 Y0.457 Z-1.039 F400.000
G1 X-37.758 Y0.414 Z-1.048 F400.000
G1 X-37.834 Y0.355 Z-1.056 F400.000
G1 X-37.897 Y0.282 Z-1.065 F400.000
G1 X-37.944 Y0.199 Z-1.074 F400.000
G1 X-37.974 Y0.108 Z-1.082 F400.000
G1 X-37.986 Y0.012 Z-1.091 F400.000
G1 X-37.979 Y-0.084 Z-1.099 F400.000
G1 X-37.954 Y-0.176 Z-1.108 F400.000
G1 X-37.910 Y-0.262 Z-1.117 F400.000
G1 X-37.851 Y-0.338 Z-1.125 F400.000
G1 X-37.779 Y-0.400 Z-1.134 F400.000
G1 X-37.695 Y-0.448 Z-1.142 F400.000
G1 X-37.604 Y-0.478 Z-1.151 F400.000
G1 X-37.509 Y-0.490 Z-1.160 F400.000
G1 X-37.413 Y-0.483 Z-1.168 F400.000
G1 X-37.320 Y-0.457 Z-1.177 F400.000
G1 X-37.234 Y-0.414 Z-1.185 F400.000
G1 X-37.159 Y-0.355 Z-1.194 F400.000
G1 X-37.096 Y-0.282 Z-1.202 F400.000
G1 X-37.048 Y-0.199 Z-1.211 F400.000
G1 X-37.018 Y-0.108 Z-1.220 F400.000
G1 X-37.006 Y-0.012 Z-1.228 F400.000
G1 X-37.013 Y0.084 Z-1.237 F400.000
G1 X-37.039 Y0.176 Z-1.245 F400.000
G1 X-37.082 Y0.262 Z-1.254 F400.000
G1 X-37.141 Y0.338 Z-1.263 F400.000
G1 X-37.214 Y0.400 Z-1.271 F400.000
G1 X-37.297 Y0.448 Z-1.280 F400.000
G1 X-37.389 Y0.478 Z-1.288 F400.000
G1 X-37.484 Y0.490 Z-1.297 F400.000
G1 X-37.580 Y0.483 Z-1.306 F400.000
G1 X-37.672 Y0.457 Z-1.314 F400.000
G1 X-37.758 Y0.414 Z-1.323 F400.000
G1 X-37.834 Y0.355 Z-1.331 F400.000
G1 X-37.897 Y0.282 Z-1.340 F400.000
G1 X-37.944 Y0.199 Z-1.349 F400.000
G1 X-37.974 Y0.108 Z-1.357 F400.000
G1 X-37.986 Y0.012 Z-1.366 F400.000
G1 X-37.979 Y-0.084 Z-1.374 F400.000
G1 X-37.954 Y-0.176 Z-1.383 F400.000
G1 X-37.910 Y-0.262 Z-1.391 F400.000
G1 X-37.851 Y-0.338 Z-1.400 F400.000
G1 X-37.779 Y-0.400 Z-1.409 F400.000
G1 X-37.695 Y-0.448 Z-1.417 F400.000
G1 X-37.604 Y-0.478 Z-1.426 F400.000
G1 X-37.509 Y-0.490 Z-1.434 F400.000
G1 X-37.413 Y-0.483 Z-1.443 F400.000
G1 X-37.320 Y-0.457 Z-1.452 F400.000
G1 X-37.234 Y-0.414 Z-1.460 F400.000
G1 X-37.159 Y-0.355 Z-1.469 F400.000
G1 X-37.096 Y-0.282 Z-1.477 F400.000
G1 X-37.048 Y-0.199 Z-1.486 F400.000
G1 X-37.018 Y-0.108 Z-1.495 F400.000
G1 X-37.006 Y-0.012 Z-1.503 F400.000
G1 X-37.013 Y0.084 Z-1.512 F400.000
G1 X-37.039 Y0.176 Z-1.520 F400.000
G1 X-37.082 Y0.262 Z-1.529 F400.000
G1 X-37.141 Y0.338 Z-1.537 F400.000
G1 X-37.214 Y0.400 Z-1.546 F400.000
G1 X-37.297 Y0.448 Z-1.555 F400.000
G1 X-37.389 Y0.478 Z-1.563 F400.000
G1 X-37.484 Y0.490 Z-1.572 F400.000
G1 X-37.580 Y0.483 Z-1.580 F400.000
G1 X-37.672 Y0.457 Z-1.589 F400.000
G1 X-37.758 Y0.414 Z-1.598 F400.000
G1 X-37.834 Y0.355 Z-1.606 F400.000
G1 X-37.897 Y0.282 Z-1.615 F400.000
G1 X-37.944 Y0.199 Z-1.623 F400.000
G1 X-37.974 Y0.108 Z-1.632 F400.000
G1 X-37.986 Y0.012 Z-1.641 F400.000
G1 X-37.979 Y-0.084 Z-1.649 F400.000
G1 X-37.954 Y-0.176 Z-1.658 F400.000
G1 X-37.910 Y-0.262 Z-1.666 F400.000
G1 X-37.851 Y-0.338 Z-1.675 F400.000
G1 X-37.779 Y-0.400 Z-1.683 F400.000
G1 X-37.695 Y-0.448 Z-1.692 F400.000
G1 X-37.604 Y-0.478 Z-1.701 F400.000
G1 X-37.509 Y-0.490 Z-1.709 F400.000
G1 X-37.413 Y-0.483 Z-1.718 F400.000
G1 X-37.320 Y-0.457 Z-1.726 F400.000
G1 X-37.234 Y-0.414 Z-1.735 F400.000
G1 X-37.159 Y-0.355 Z-1.744 F400.000
G1 X-37.096 Y-0.282 Z-1.752 F400.000
G1 X-37.048 Y-0.199 Z-1.761 F400.000
G1 X-37.018 Y-0.108 Z-1.769 F400.000
G1 X-37.006 Y-0.012 Z-1.778 F400.000
G1 X-37.013 Y0.084 Z-1.787 F400.000
G1 X-37.039 Y0.176 Z-1.795 F400.000
G1 X-37.082 Y0.262 Z-1.804 F400.000
G1 X-37.141 Y0.338 Z-1.812 F400.000
G1 X-37.214 Y0.400 Z-1.821 F400.000
G1 X-37.297 Y0.448 Z-1.829 F400.000
G1 X-37.389 Y0.478 Z-1.838 F400.000
G1 X-37.484 Y0.490 Z-1.847 F400.000
G1 X-37.580 Y0.483 Z-1.855 F400.000
G1 X-37.672 Y0.457 Z-1.864 F400.000
G1 X-37.758 Y0.414 Z-1.872 F400.000
G1 X-37.834 Y0.355 Z-1.881 F400.000
G1 X-37.897 Y0.282 Z-1.890 F400.000
G1 X-37.944 Y0.199 Z-1.898 F400.000
G1 X-37.974 Y0.108 Z-1.907 F400.000
G1 X-37.986 Y0.012 Z-1.915 F400.000
G1 X-37.979 Y-0.084 Z-1.924 F400.000
G1 X-37.954 Y-0.176 Z-1.933 F400.000
G1 X-37.910 Y-0.262 Z-1.941 F400.000
G1 X-37.851 Y-0.338 Z-1.950 F400.000
G1 X-37.779 Y-0.400 Z-1.958 F400.000
G1 X-37.695 Y-0.448 Z-1.967 F400.000
G1 X-37.604 Y-0.478 Z-1.976 F400.000
G1 X-37.509 Y-0.490 Z-1.984 F400.000
G1 X-37.413 Y-0.483 Z-1.993 F400.000
G1 X-37.320 Y-0.457 Z-2.001 F400.000
G1 X-37.234 Y-0.414 Z-2.010 F400.000
G1 X-37.159 Y-0.355 Z-2.018 F400.000
G1 X-37.096 Y-0.282 Z-2.027 F400.000
G1 X-37.048 Y-0.199 Z-2.036 F400.000
G1 X-37.018 Y-0.108 Z-2.044 F400.000
G1 X-37.006 Y-0.012 Z-2.053 F400.000
G1 X-37.013 Y0.084 Z-2.061 F400.000
G1 X-37.039 Y0.176 Z-2.070 F400.000
G1 X-37.082 Y0.262 Z-2.079 F400.000
G1 X-37.141 Y0.338 Z-2.087 F400.000
G1 X-37.214 Y0.400 Z-2.096 F400.000
G1 X-37.297 Y0.448 Z-2.104 F400.000
G1 X-37.389 Y0.478 Z-2.113 F400.000
G1 X-37.484 Y0.490 Z-2.122 F400.000
G1 X-37.580 Y0.483 Z-2.130 F400.000
G1 X-37.672 Y0.457 Z-2.139 F400.000
G1 X-37.758 Y0.414 Z-2.147 F400.000
G1 X-37.834 Y0.355 Z-2.156 F400.000
G1 X-37.897 Y0.282 Z-2.164 F400.000
G1 X-37.944 Y0.199 Z-2.173 F400.000
G1 X-37.974 Y0.108 Z-2.182 F400.000
G1 X-37.986 Y0.012 Z-2.190 F400.000
G1 X-37.979 Y-0.084 Z-2.199 F400.000
G1 X-37.954 Y-0.176 Z-2.207 F400.000
G1 X-37.910 Y-0.262 Z-2.216 F400.000
G1 X-37.851 Y-0.338 Z-2.225 F400.000
G1 X-37.779 Y-0.400 Z-2.233 F400.000
G1 X-37.695 Y-0.448 Z-2.242 F400.000
G1 X-37.604 Y-0.478 Z-2.250 F400.000
G1 X-37.509 Y-0.490 Z-2.259 F400.000
G1 X-37.413 Y-0.483 Z-2.268 F400.000
G1 X-37.320 Y-0.457 Z-2.276 F400.000
G1 X-37.234 Y-0.414 Z-2.285 F400.000
G1 X-37.159 Y-0.355 Z-2.293 F400.000
G1 X-37.096 Y-0.282 Z-2.302 F400.000
G1 X-37.048 Y-0.199 Z-2.310 F400.000
G1 X-37.018 Y-0.108 Z-2.319 F400.000
G1 X-37.006 Y-0.012 Z-2.328 F400.000
G1 X-37.013 Y0.084 Z-2.336 F400.000
G1 X-37.039 Y0.176 Z-2.345 F400.000
G1 X-37.082 Y0.262 Z-2.353 F400.000
G1 X-37.141 Y0.338 Z-2.362 F400.000
G1 X-37.214 Y0.400 Z-2.371 F400.000
G1 X-37.297 Y0.448 Z-2.379 F400.000
G1 X-37.389 Y0.478 Z-2.388 F400.000
G1 X-37.484 Y0.490 Z-2.396 F400.000
G1 X-37.580 Y0.483 Z-2.405 F400.000
G1 X-37.672 Y0.457 Z-2.414 F400.000
G1 X-37.758 Y0.414 Z-2.422 F400.000
G1 X-37.834 Y0.355 Z-2.431 F400.000
G1 X-37.897 Y0.282 Z-2.439 F400.000
G1 X-37.944 Y0.199 Z-2.448 F400.000
G1 X-37.974 Y0.108 Z-2.457 F400.000
G1 X-37.986 Y0.012 Z-2.465 F400.000
G1 X-37.979 Y-0.084 Z-2.474 F400.000
G1 X-37.954 Y-0.176 Z-2.482 F400.000
G1 X-37.910 Y-0.262 Z-2.491 F400.000
G1 X-37.851 Y-0.338 Z-2.499 F400.000
G1 X-37.779 Y-0.400 Z-2.508 F400.000
G1 X-37.695 Y-0.448 Z-2.517 F400.000
G1 X-37.604 Y-0.478 Z-2.525 F400.000
G1 X-37.509 Y-0.490 Z-2.534 F400.000
G1 X-37.413 Y-0.483 Z-2.542 F400.000
G1 X-37.320 Y-0.457 Z-2.551 F400.000
G1 X-37.234 Y-0.414 Z-2.560 F400.000
G1 X-37.159 Y-0.355 Z-2.568 F400.000
G1 X-37.096 Y-0.282 Z-2.577 F400.000
G1 X-37.048 Y-0.199 Z-2.585 F400.000
G1 X-37.018 Y-0.108 Z-2.594 F400.000
G1 X-37.006 Y-0.012 Z-2.603 F400.000
G1 X-37.013 Y0.084 Z-2.611 F400.000
G1 X-37.039 Y0.176 Z-2.620 F400.000
G1 X-37.082 Y0.262 Z-2.628 F400.000
G1 X-37.141 Y0.338 Z-2.637 F400.000
G1 X-37.214 Y0.400 Z-2.645 F400.000
G1 X-37.297 Y0.448 Z-2.654 F400.000
G1 X-37.389 Y0.478 Z-2.663 F400.000
G1 X-37.484 Y0.490 Z-2.671 F400.000
G1 X-37.580 Y0.483 Z-2.680 F400.000
G1 X-37.672 Y0.457 Z-2.688 F400.000
G1 X-37.758 Y0.414 Z-2.697 F400.000
G1 X-37.834 Y0.355 Z-2.706 F400.000
G1 X-37.897 Y0.282 Z-2.714 F400.000
G1 X-37.944 Y0.199 Z-2.723 F400.000
G1 X-37.974 Y0.108 Z-2.731 F400.000
G1 X-37.986 Y0.012 Z-2.740 F400.000
G1 X-37.979 Y-0.084 Z-2.749 F400.000
G1 X-37.954 Y-0.176 Z-2.757 F400.000
G1 X-37.910 Y-0.262 Z-2.766 F400.000
G1 X-37.851 Y-0.338 Z-2.774 F400.000
G1 X-37.779 Y-0.400 Z-2.783 F400.000
G1 X-37.695 Y-0.448 Z-2.791 F400.000
G1 X-37.604 Y-0.478 Z-2.800 F400.000
G1 X-37.509 Y-0.490 Z-2.809 F400.000
G1 X-37.413 Y-0.483 Z-2.817 F400.000
G1 X-37.320 Y-0.457 Z-2.826 F400.000
G1 X-37.234 Y-0.414 Z-2.834 F400.000
G1 X-37.159 Y-0.355 Z-2.843 F400.000
G1 X-37.096 Y-0.282 Z-2.852 F400.000
G1 X-37.048 Y-0.199 Z-2.860 F400.000
G1 X-37.018 Y-0.108 Z-2.869 F400.000
G1 X-37.006 Y-0.012 Z-2.877 F400.000
G1 X-37.013 Y0.084 Z-2.886 F400.000
G1 X-37.039 Y0.176 Z-2.895 F400.000
G1 X-37.082 Y0.262 Z-2.903 F400.000
G1 X-37.141 Y0.338 Z-2.912 F400.000
G1 X-37.214 Y0.400 Z-2.920 F400.000
G1 X-37.297 Y0.448 Z-2.929 F400.000
G1 X-37.389 Y0.478 Z-2.937 F400.000
G1 X-37.484 Y0.490 Z-2.946 F400.000
G1 X-37.580 Y0.483 Z-2.955 F400.000
G1 X-37.672 Y0.457 Z-2.963 F400.000
G1 X-37.758 Y0.414 Z-2.972 F400.000
G1 X-37.834 Y0.355 Z-2.980 F400.000
G1 X-37.897 Y0.282 Z-2.989 F400.000
G1 X-37.944 Y0.199 Z-2.998 F400.000
G1 X-37.974 Y0.108 Z-3.006 F400.000
G1 X-37.986 Y0.012 Z-3.015 F400.000
G1 X-37.979 Y-0.084 Z-3.023 F400.000
G1 X-37.954 Y-0.176 Z-3.032 F400.000
G1 X-37.910 Y-0.262 Z-3.041 F400.000
G1 X-37.851 Y-0.338 Z-3.049 F400.000
G1 X-37.779 Y-0.400 Z-3.058 F400.000
G1 X-37.695 Y-0.448 Z-3.066 F400.000
G1 X-37.604 Y-0.478 Z-3.075 F400.000
G1 X-37.509 Y-0.490 Z-3.084 F400.000
G1 X-37.413 Y-0.483 Z-3.092 F400.000
G1 X-37.320 Y-0.457 Z-3.101 F400.000
G1 X-37.234 Y-0.414 Z-3.109 F400.000
G1 X-37.159 Y-0.355 Z-3.118 F400.000
G1 X-37.096 Y-0.282 Z-3.126 F400.000
G1 X-37.048 Y-0.199 Z-3.135 F400.000
G1 X-37.018 Y-0.108 Z-3.144 F400.000
G1 X-37.006 Y-0.012 Z-3.152 F400.000
G1 X-37.013 Y0.084 Z-3.161 F400.000
G1 X-37.039 Y0.176 Z-3.169 F400.000
G1 X-37.082 Y0.262 Z-3.178 F400.000
G1 X-37.141 Y0.338 Z-3.187 F400.000
G1 X-37.214 Y0.400 Z-3.195 F400.000
G1 X-37.297 Y0.448 Z-3.204 F400.000
G1 X-37.389 Y0.478 Z-3.212 F400.000
G1 X-37.484 Y0.490 Z-3.221 F400.000
G1 X-37.580 Y0.483 Z-3.230 F400.000
G1 X-37.672 Y0.457 Z-3.238 F400.000
G1 X-37.758 Y0.414 Z-3.247 F400.000
G1 X-37.834 Y0.355 Z-3.255 F400.000
G1 X-37.897 Y0.282 Z-3.264 F400.000
G1 X-37.944 Y0.199 Z-3.272 F400.000
G1 X-37.974 Y0.108 Z-3.281 F400.000
G1 X-37.986 Y0.012 Z-3.290 F400.000
G1 X-37.979 Y-0.084 Z-3.298 F400.000
G1 X-37.954 Y-0.176 Z-3.307 F400.000
G1 X-37.910 Y-0.262 Z-3.315 F400.000
G1 X-37.851 Y-0.338 Z-3.324 F400.000
G1 X-37.779 Y-0.400 Z-3.333 F400.000
G1 X-37.695 Y-0.448 Z-3.341 F400.000
G1 X-37.604 Y-0.478 Z-3.350 F400.000
G1 X-37.509 Y-0.490 Z-3.358 F400.000
G1 X-37.413 Y-0.483 Z-3.367 F400.000
G1 X-37.320 Y-0.457 Z-3.376 F400.000
G1 X-37.234 Y-0.414 Z-3.384 F400.000
G1 X-37.159 Y-0.355 Z-3.393 F400.000
G1 X-37.096 Y-0.282 Z-3.401 F400.000
G1 X-37.048 Y-0.199 Z-3.410 F400.000
G1 X-37.018 Y-0.108 Z-3.418 F400.000
G1 X-37.006 Y-0.012 Z-3.427 F400.000
G1 X-37.013 Y0.084 Z-3.436 F400.000
G1 X-37.039 Y0.176 Z-3.444 F400.000
G1 X-37.082 Y0.262 Z-3.453 F400.000
G1 X-37.141 Y0.338 Z-3.461 F400.000
G1 X-37.214 Y0.400 Z-3.470 F400.000
G1 X-37.297 Y0.448 Z-3.479 F400.000
G1 X-37.389 Y0.478 Z-3.487 F400.000
G1 X-37.484 Y0.490 Z-3.496 F400.000
G1 X-37.580 Y0.483 Z-3.504 F400.000
G1 X-37.672 Y0.457 Z-3.513 F400.000
G1 X-37.758 Y0.414 Z-3.522 F400.000
G1 X-37.834 Y0.355 Z-3.530 F400.000
G1 X-37.897 Y0.282 Z-3.539 F400.000
G1 X-37.944 Y0.199 Z-3.547 F400.000
G1 X-37.974 Y0.108 Z-3.556 F400.000
G1 X-37.986 Y0.012 Z-3.565 F400.000
G1 X-37.979 Y-0.084 Z-3.573 F400.000
G1 X-37.954 Y-0.176 Z-3.582 F400.000
G1 X-37.910 Y-0.262 Z-3.590 F400.000
G1 X-37.851 Y-0.338 Z-3.599 F400.000
G1 X-37.779 Y-0.400 Z-3.607 F400.000
G1 X-37.695 Y-0.448 Z-3.616 F400.000
G1 X-37.604 Y-0.478 Z-3.625 F400.000
G1 X-37.509 Y-0.490 Z-3.633 F400.000
G1 X-37.413 Y-0.483 Z-3.642 F400.000
G1 X-37.320 Y-0.457 Z-3.650 F400.000
G1 X-37.234 Y-0.414 Z-3.659 F400.000
G1 X-37.159 Y-0.355 Z-3.668 F400.000
G1 X-37.096 Y-0.282 Z-3.676 F400.000
G1 X-37.048 Y-0.199 Z-3.685 F400.000
G1 X-37.018 Y-0.108 Z-3.693 F400.000
G1 X-37.006 Y-0.012 Z-3.702 F400.000
G1 X-37.013 Y0.084 Z-3.711 F400.000
G1 X-37.039 Y0.176 Z-3.719 F400.000
G1 X-37.082 Y0.262 Z-3.728 F400.000
G1 X-37.141 Y0.338 Z-3.736 F400.000
G1 X-37.214 Y0.400 Z-3.745 F400.000
G1 X-37.297 Y0.448 Z-3.753 F400.000
G1 X-37.389 Y0.478 Z-3.762 F400.000
G1 X-37.484 Y0.490 Z-3.771 F400.000
G1 X-37.580 Y0.483 Z-3.779 F400.000
G1 X-37.672 Y0.457 Z-3.788 F400.000
G1 X-37.758 Y0.414 Z-3.796 F400.000
G1 X-37.834 Y0.355 Z-3.805 F400.000
G1 X-37.897 Y0.282 Z-3.814 F400.000
G1 X-37.944 Y0.199 Z-3.822 F400.000
G1 X-37.974 Y0.108 Z-3.831 F400.000
G1 X-37.986 Y0.012 Z-3.839 F400.000
G1 X-37.979 Y-0.084 Z-3.848 F400.000
G1 X-37.954 Y-0.176 Z-3.857 F400.000
G1 X-37.910 Y-0.262 Z-3.865 F400.000
G1 X-37.851 Y-0.338 Z-3.874 F400.000
G1 X-37.779 Y-0.400 Z-3.882 F400.000
G1 X-37.695 Y-0.448 Z-3.891 F400.000
G1 X-37.604 Y-0.478 Z-3.899 F400.000
G1 X-37.509 Y-0.490 Z-3.908 F400.000
G1 X-37.413 Y-0.483 Z-3.917 F400.000
G1 X-37.320 Y-0.457 Z-3.925 F400.000
G1 X-37.234 Y-0.414 Z-3.934 F400.000
G1 X-37.159 Y-0.355 Z-3.942 F400.000
G1 X-37.096 Y-0.282 Z-3.951 F400.000
G1 X-37.048 Y-0.199 Z-3.960 F400.000
G1 X-37.018 Y-0.108 Z-3.968 F400.000
G1 X-37.006 Y-0.012 Z-3.977 F400.000
G1 X-37.013 Y0.084 Z-3.985 F400.000
G1 X-37.039 Y0.176 Z-3.994 F400.000
G1 X-37.082 Y0.262 Z-4.003 F400.000
G1 X-37.141 Y0.338 Z-4.011 F400.000
G1 X-37.214 Y0.400 Z-4.020 F400.000
G1 X-37.297 Y0.448 Z-4.028 F400.000
G1 X-37.389 Y0.478 Z-4.037 F400.000
G1 X-37.484 Y0.490 Z-4.046 F400.000
G1 X-37.580 Y0.483 Z-4.054 F400.000
G1 X-37.672 Y0.457 Z-4.063 F400.000
G1 X-37.758 Y0.414 Z-4.071 F400.000
G1 X-37.834 Y0.355 Z-4.080 F400.000
G1 X-37.897 Y0.282 Z-4.088 F400.000
G1 X-37.944 Y0.199 Z-4.097 F400.000
G1 X-37.974 Y0.108 Z-4.106 F400.000
G1 X-37.986 Y0.012 Z-4.114 F400.000
G1 X-37.979 Y-0.084 Z-4.123 F400.000
G1 X-37.954 Y-0.176 Z-4.131 F400.000
G1 X-37.910 Y-0.262 Z-4.140 F400.000
G1 X-37.851 Y-0.338 Z-4.149 F400.000
G1 X-37.779 Y-0.400 Z-4.157 F400.000
G1 X-37.695 Y-0.448 Z-4.166 F400.000
G1 X-37.604 Y-0.478 Z-4.174 F400.000
G1 X-37.509 Y-0.490 Z-4.183 F400.000
G1 X-37.413 Y-0.483 Z-4.192 F400.000
G1 X-37.320 Y-0.457 Z-4.200 F400.000
G1 X-37.234 Y-0.414 Z-4.209 F400.000
G1 X-37.159 Y-0.355 Z-4.217 F400.000
G1 X-37.096 Y-0.282 Z-4.226 F400.000
G1 X-37.048 Y-0.199 Z-4.234 F400.000
G1 X-37.018 Y-0.108 Z-4.243 F400.000
G1 X-37.006 Y-0.012 Z-4.252 F400.000
G1 X-37.013 Y0.084 Z-4.260 F400.000
G1 X-37.039 Y0.176 Z-4.269 F400.000
G1 X-37.082 Y0.262 Z-4.277 F400.000
G1 X-37.141 Y0.338 Z-4.286 F400.000
G1 X-37.214 Y0.400 Z-4.295 F400.000
G1 X-37.297 Y0.448 Z-4.303 F400.000
G1 X-37.389 Y0.478 Z-4.312 F400.000
G1 X-37.484 Y0.490 Z-4.320 F400.000
G1 X-37.580 Y0.483 Z-4.329 F400.000
G1 X-37.672 Y0.457 Z-4.338 F400.000
G1 X-37.758 Y0.414 Z-4.346 F400.000
G1 X-37.834 Y0.355 Z-4.355 F400.000
G1 X-37.897 Y0.282 Z-4.363 F400.000
G1 X-37.944 Y0.199 Z-4.372 F400.000
G1 X-37.974 Y0.108 Z-4.380 F400.000
G1 X-37.986 Y0.012 Z-4.389 F400.000
G1 X-37.979 Y-0.084 Z-4.398 F400.000
G1 X-37.954 Y-0.176 Z-4.406 F400.000
G1 X-37.910 Y-0.262 Z-4.415 F400.000
G1 X-37.851 Y-0.338 Z-4.423 F400.000
G1 X-37.779 Y-0.400 Z-4.432 F400.000
G1 X-37.695 Y-0.448 Z-4.441 F400.000
G1 X-37.604 Y-0.478 Z-4.449 F400.000
G1 X-37.509 Y-0.490 Z-4.458 F400.000
G1 X-37.413 Y-0.483 Z-4.466 F400.000
G1 X-37.320 Y-0.457 Z-4.475 F400.000
G1 X-37.234 Y-0.414 Z-4.484 F400.000
G1 X-37.159 Y-0.355 Z-4.492 F400.000
G1 X-37.096 Y-0.282 Z-4.501 F400.000
G1 X-37.048 Y-0.199 Z-4.509 F400.000
G1 X-37.018 Y-0.108 Z-4.518 F400.000
G1 X-37.006 Y-0.012 Z-4.526 F400.000
G1 X-37.013 Y0.084 Z-4.535 F400.000
G1 X-37.039 Y0.176 Z-4.544 F400.000
G1 X-37.082 Y0.262 Z-4.552 F400.000
G1 X-37.141 Y0.338 Z-4.561 F400.000
G1 X-37.214 Y0.400 Z-4.569 F400.000
G1 X-37.297 Y0.448 Z-4.578 F400.000
G1 X-37.389 Y0.478 Z-4.587 F400.000
G1 X-37.484 Y0.490 Z-4.595 F400.000
G1 X-37.580 Y0.483 Z-4.604 F400.000
G1 X-37.672 Y0.457 Z-4.612 F400.000
G1 X-37.758 Y0.414 Z-4.621 F400.000
G1 X-37.834 Y0.355 Z-4.630 F400.000
G1 X-37.897 Y0.282 Z-4.638 F400.000
G1 X-37.944 Y0.199 Z-4.647 F400.000
G1 X-37.974 Y0.108 Z-4.655 F400.000
G1 X-37.986 Y0.012 Z-4.664 F400.000
G1 X-37.979 Y-0.084 Z-4.673 F400.000
G1 X-37.954 Y-0.176 Z-4.681 F400.000
G1 X-37.910 Y-0.262 Z-4.690 F400.000
G1 X-37.851 Y-0.338 Z-4.698 F400.000
G1 X-37.779 Y-0.400 Z-4.707 F400.000
G1 X-37.695 Y-0.448 Z-4.715 F400.000
G1 X-37.604 Y-0.478 Z-4.724 F400.000
G1 X-37.509 Y-0.490 Z-4.733 F400.000
G1 X-37.413 Y-0.483 Z-4.741 F400.000
G1 X-37.320 Y-0.457 Z-4.750 F400.000
G1 X-37.234 Y-0.414 Z-4.758 F400.000
G1 X-37.159 Y-0.355 Z-4.767 F400.000
G1 X-37.096 Y-0.282 Z-4.776 F400.000
G1 X-37.048 Y-0.199 Z-4.784 F400.000
G1 X-37.018 Y-0.108 Z-4.793 F400.000
G1 X-37.006 Y-0.012 Z-4.801 F400.000
G1 X-37.013 Y0.084 Z-4.810 F400.000
G1 X-37.039 Y0.176 Z-4.819 F400.000
G1 X-37.082 Y0.262 Z-4.827 F400.000
G1 X-37.141 Y0.338 Z-4.836 F400.000
G1 X-37.214 Y0.400 Z-4.844 F400.000
G1 X-37.297 Y0.448 Z-4.853 F400.000
G1 X-37.389 Y0.478 Z-4.861 F400.000
G1 X-37.484 Y0.490 Z-4.870 F400.000
G1 X-37.580 Y0.483 Z-4.879 F400.000
G1 X-37.672 Y0.457 Z-4.887 F400.000
G1 X-37.758 Y0.414 Z-4.896 F400.000
G1 X-37.834 Y0.355 Z-4.904 F400.000
G1 X-37.897 Y0.282 Z-4.913 F400.000
G1 X-37.944 Y0.199 Z-4.922 F400.000
G1 X-37.974 Y0.108 Z-4.930 F400.000
G1 X-37.986 Y0.012 Z-4.939 F400.000
G1 X-37.979 Y-0.084 Z-4.947 F400.000
G1 X-37.954 Y-0.176 Z-4.956 F400.000
G1 X-37.910 Y-0.262 Z-4.965 F400.000
G1 X-37.851 Y-0.338 Z-4.973 F400.000
G1 X-37.779 Y-0.400 Z-4.982 F400.000
G1 X-37.695 Y-0.448 Z-4.990 F400.000
G1 X-37.604 Y-0.478 Z-4.999 F400.000
G1 X-37.509 Y-0.490 Z-5.000 F400.000
G1 X-37.413 Y-0.483 Z-5.000 F400.000
G1 X-37.320 Y-0.457 Z-5.000 F400.000
G1 X-37.234 Y-0.414 Z-5.000 F400.000
G1 X-37.159 Y-0.355 Z-5.000 F400.000
G1 X-37.096 Y-0.282 Z-5.000 F400.000
G1 X-37.048 Y-0.199 Z-5.000 F400.000
G1 X-37.018 Y-0.108 Z-5.000 F400.000
G1 X-37.006 Y-0.012 Z-5.000 F400.000
G1 X-37.013 Y0.084 Z-5.000 F400.000
G1 X-37.039 Y0.176 Z-5.000 F400.000
G1 X-37.082 Y0.262 Z-5.000 F400.000
G1 X-37.141 Y0.338 Z-5.000 F400.000
G1 X-37.214 Y0.400 Z-5.000 F400.000
G1 X-37.297 Y0.448 Z-5.000 F400.000
G1 X-37.389 Y0.478 Z-5.000 F400.000
G1 X-37.484 Y0.490 Z-5.000 F400.000
G1 X-37.580 Y0.483 Z-5.000 F400.000
G1 X-37.672 Y0.457 Z-5.000 F400.000
G1 X-37.758 Y0.414 Z-5.000 F400.000
G1 X-37.834 Y0.355 Z-5.000 F400.000
G1 X-37.897 Y0.282 Z-5.000 F400.000
G1 X-37.944 Y0.199 Z-5.000 F400.000
G1 X-37.974 Y0.108 Z-5.000 F400.000
G1 X-37.986 Y0.012 Z-5.000 F400.000
G1 X-37.979 Y-0.084 Z-5.000 F400.000
G1 X-37.954 Y-0.176 Z-5.000 F400.000
G1 X-37.910 Y-0.262 Z-5.000 F400.000
G1 X-37.851 Y-0.338 Z-5.000 F400.000
G1 X-37.779 Y-0.400 Z-5.000 F400.000
G1 X-37.695 Y-0.448 Z-5.000 F400.000
G1 X-37.604 Y-0.478 Z-5.000 F400.000
(Adaptive - depth: -5.000000)
G1 X-37.496 Y-0.500 F400.000
G1 X-37.447 Y-0.534 F400.000
G1 X-37.387 Y-0.549 F400.000
G1 X-37.327 Y-0.553 F400.000
G1 X-37.267 Y-0.545 F400.000
G1 X-37.150 Y-0.504 F400.000
G1 X-37.041 Y-0.436 F400.000
G1 X-36.996 Y-0.395 F400.000
G1 X-36.868 Y-0.207 F400.000
G1 X-36.823 Y-0.045 F400.000
G1 X-36.820 Y0.064 F400.000
G1 X-36.835 Y0.173 F400.000
G1 X-36.876 Y0.301 F400.000
G1 X-36.959 Y0.436 F400.000
G1 X-37.060 Y0.538 F400.000
G1 X-37.169 Y0.613 F400.000
G1 X-37.305 Y0.665 F400.000
G1 X-37.444 Y0.688 F400.000
G1 X-37.583 Y0.684 F400.000
G1 X-37.718 Y0.650 F400.000
G1 X-37.846 Y0.590 F400.000
G1 X-37.966 Y0.500 F400.000
G1 X-38.060 Y0.387 F400.000
G1 X-38.124 Y0.267 F400.000
G1 X-38.162 Y0.132 F400.000
G1 X-38.177 Y-0.004 F400.000
G1 X-38.158 Y-0.150 F400.000
G1 X-38.113 Y-0.286 F400.000
G1 X-38.034 Y-0.410 F400.000
G1 X-37.947 Y-0.508 F400.000
G1 X-37.744 Y-0.643 F400.000
G1 X-37.632 Y-0.692 F400.000
G1 X-37.451 Y-0.726 F400.000
G1 X-37.271 Y-0.726 F400.000
G1 X-37.090 Y-0.673 F400.000
G1 X-37.034 Y-0.647 F400.000
G1 X-36.744 Y-0.410 F400.000
G1 X-36.662 Y-0.252 F400.000
G1 X-36.632 Y-0.158 F400.000
G1 X-36.609 Y-0.049 F400.000
G1 X-36.602 Y0.105 F400.000
G1 X-36.639 Y0.312 F400.000
G1 X-36.703 Y0.462 F400.000
G1 X-36.774 Y0.579 F400.000
G1 X-36.891 Y0.699 F400.000
G1 X-37.019 Y0.789 F400.000
G1 X-37.154 Y0.857 F400.000
G1 X-37.316 Y0.902 F400.000
G1 X-37.485 Y0.917 F400.000
G1 X-37.647 Y0.902 F400.000
G1 X-37.808 Y0.857 F400.000
G1 X-37.959 Y0.786 F400.000
G1 X-38.094 Y0.688 F400.000
G1 X-38.207 Y0.564 F400.000
G1 X-38.289 Y0.432 F400.000
G1 X-38.350 Y0.282 F400.000
G1 X-38.387 Y0.124 F400.000
G1 X-38.395 Y-0.049 F400.000
G1 X-38.372 Y-0.211 F400.000
G1 X-38.316 Y-0.368 F400.000
G1 X-38.241 Y-0.504 F400.000
G1 X-38.139 Y-0.632 F400.000
G1 X-38.011 Y-0.752 F400.000
G1 X-37.846 Y-0.850 F400.000
G1 X-37.695 Y-0.914 F400.000
G1 X-37.515 Y-0.947 F400.000
G1 X-37.335 Y-0.955 F400.000
G1 X-36.966 Y-0.883 F400.000
G1 X-36.771 Y-0.774 F400.000
G1 X-36.677 Y-0.695 F400.000
G1 X-36.586 Y-0.602 F400.000
G1 X-36.489 Y-0.459 F400.000
G1 X-36.406 Y-0.282 F400.000
G1 X-36.361 Y-0.098 F400.000
G1 X-36.346 Y0.064 F400.000
G1 X-36.353 Y0.241 F400.000
G1 X-36.398 Y0.429 F400.000
G1 X-36.466 Y0.594 F400.000
G1 X-36.560 Y0.748 F400.000
G1 X-36.688 Y0.883 F400.000
G1 X-36.812 Y0.981 F400.000
G1 X-36.962 Y1.068 F400.000
G1 X-37.139 Y1.135 F400.000
G1 X-37.331 Y1.177 F400.000
G1 X-37.515 Y1.188 F400.000
G1 X-37.707 Y1.169 F400.000
G1 X-37.895 Y1.117 F400.000
G1 X-38.056 Y1.041 F400.000
G1 X-38.214 Y0.936 F400.000
G1 X-38.350 Y0.805 F400.000
G1 X-38.459 Y0.665 F400.000
G1 X-38.549 Y0.504 F400.000
G1 X-38.613 Y0.320 F400.000
G1 X-38.650 Y0.135 F400.000
G1 X-38.658 Y-0.049 F400.000
G1 X-38.635 Y-0.237 F400.000
G1 X-38.583 Y-0.417 F400.000
G1 X-38.504 Y-0.586 F400.000
G1 X-38.398 Y-0.741 F400.000
G1 X-38.271 Y-0.876 F400.000
G1 X-38.120 Y-0.992 F400.000
G1 X-37.959 Y-1.090 F400.000
G1 X-37.759 Y-1.169 F400.000
G1 X-37.568 Y-1.214 F400.000
G1 X-37.368 Y-1.233 F400.000
G1 X-37.165 Y-1.218 F400.000
G1 X-36.970 Y-1.177 F400.000
G1 X-36.778 Y-1.105 F400.000
G1 X-36.605 Y-0.996 F400.000
G1 X-36.477 Y-0.891 F400.000
G1 X-36.346 Y-0.752 F400.000
G1 X-36.229 Y-0.579 F400.000
G1 X-36.139 Y-0.395 F400.000
G1 X-36.079 Y-0.203 F400.000
G1 X-36.045 Y0.000 F400.000
G1 X-36.041 Y0.199 F400.000
G1 X-36.068 Y0.398 F400.000
G1 X-36.124 Y0.590 F400.000
G1 X-36.207 Y0.771 F400.000
G1 X-36.320 Y0.936 F400.000
G1 X-36.440 Y1.071 F400.000
G1 X-36.605 Y1.211 F400.000
G1 X-36.789 Y1.323 F400.000
G1 X-36.974 Y1.406 F400.000
G1 X-37.173 Y1.462 F400.000
G1 X-37.380 Y1.489 F400.000
G1 X-37.586 Y1.485 F400.000
G1 X-37.793 Y1.451 F400.000
G1 X-37.996 Y1.395 F400.000
G1 X-38.214 Y1.297 F400.000
G1 X-38.395 Y1.169 F400.000
G1 X-38.530 Y1.049 F400.000
G1 X-38.665 Y0.887 F400.000
G1 X-38.774 Y0.714 F400.000
G1 X-38.865 Y0.511 F400.000
G1 X-38.921 Y0.308 F400.000
G1 X-38.951 Y0.098 F400.000
G1 X-38.951 Y-0.113 F400.000
G1 X-38.921 Y-0.320 F400.000
G1 X-38.861 Y-0.523 F400.000
G1 X-38.774 Y-0.718 F400.000
G1 X-38.662 Y-0.898 F400.000
G1 X-38.519 Y-1.056 F400.000
G1 X-38.376 Y-1.177 F400.000
G1 X-38.211 Y-1.293 F400.000
G1 X-37.985 Y-1.410 F400.000
G1 X-37.744 Y-1.496 F400.000
G1 X-37.511 Y-1.534 F400.000
G1 X-37.320 Y-1.545 F400.000
G1 X-37.098 Y-1.526 F400.000
G1 X-36.887 Y-1.477 F400.000
G1 X-36.692 Y-1.402 F400.000
G1 X-36.500 Y-1.297 F400.000
G1 X-36.323 Y-1.173 F400.000
G1 X-36.150 Y-1.008 F400.000
G1 X-36.008 Y-0.835 F400.000
G1 X-35.895 Y-0.639 F400.000
G1 X-35.816 Y-0.455 F400.000
G1 X-35.756 Y-0.248 F400.000
G1 X-35.718 Y-0.011 F400.000
G1 X-35.714 Y0.226 F400.000
G1 X-35.737 Y0.451 F400.000
G1 X-35.801 Y0.677 F400.000
G1 X-35.872 Y0.850 F400.000
G1 X-35.977 Y1.038 F400.000
G1 X-36.120 Y1.218 F400.000
G1 X-36.282 Y1.380 F400.000
G1 X-36.462 Y1.519 F400.000
G1 X-36.662 Y1.635 F400.000
G1 X-36.872 Y1.722 F400.000
G1 X-37.090 Y1.782 F400.000
G1 X-37.316 Y1.812 F400.000
G1 X-37.541 Y1.820 F400.000
G1 X-37.797 Y1.789 F400.000
G1 X-38.030 Y1.733 F400.000
G1 X-38.252 Y1.643 F400.000
G1 X-38.444 Y1.538 F400.000
G1 X-38.632 Y1.398 F400.000
G1 X-38.797 Y1.241 F400.000
G1 X-38.940 Y1.064 F400.000
G1 X-39.060 Y0.868 F400.000
G1 X-39.154 Y0.658 F400.000
G1 X-39.226 Y0.440 F400.000
G1 X-39.271 Y0.192 F400.000
G1 X-39.282 Y-0.041 F400.000
G1 X-39.267 Y-0.278 F400.000
G1 X-39.218 Y-0.515 F400.000
G1 X-39.132 Y-0.741 F400.000
G1 X-39.038 Y-0.925 F400.000
G1 X-38.906 Y-1.113 F400.000
G1 X-38.756 Y-1.282 F400.000
G1 X-38.575 Y-1.444 F400.000
G1 X-38.372 Y-1.590 F400.000
G1 X-38.124 Y-1.718 F400.000
G1 X-37.914 Y-1.801 F400.000
G1 X-37.665 Y-1.857 F400.000
G1 X-37.444 Y-1.880 F400.000
G1 X-37.211 Y-1.883 F400.000
G1 X-36.936 Y-1.846 F400.000
G1 X-36.703 Y-1.774 F400.000
G1 X-36.511 Y-1.695 F400.000
G1 X-36.301 Y-1.579 F400.000
G1 X-36.090 Y-1.429 F400.000
G1 X-35.898 Y-1.252 F400.000
G1 X-35.741 Y-1.060 F400.000
G1 X-35.613 Y-0.865 F400.000
G1 X-35.504 Y-0.643 F400.000
G1 X-35.425 Y-0.414 F400.000
G1 X-35.376 Y-0.180 F400.000
G1 X-35.350 Y0.056 F400.000
G1 X-35.357 Y0.323 F400.000
G1 X-35.391 Y0.568 F400.000
G1 X-35.462 Y0.808 F400.000
G1 X-35.545 Y1.004 F400.000
G1 X-35.662 Y1.207 F400.000
G1 X-35.812 Y1.414 F400.000
G1 X-35.996 Y1.609 F400.000
G1 X-36.188 Y1.774 F400.000
G1 X-36.406 Y1.914 F400.000
G1 X-36.617 Y2.019 F400.000
G1 X-36.853 Y2.102 F400.000
G1 X-37.094 Y2.154 F400.000
G1 X-37.335 Y2.177 F400.000
G1 X-37.579 Y2.177 F400.000
G1 X-37.861 Y2.147 F400.000
G1 X-38.139 Y2.075 F400.000
G1 X-38.357 Y1.989 F400.000
G1 X-38.560 Y1.880 F400.000
G1 X-38.767 Y1.741 F400.000
G1 X-38.977 Y1.553 F400.000
G1 X-39.147 Y1.368 F400.000
G1 X-39.301 Y1.158 F400.000
G1 X-39.429 Y0.929 F400.000
G1 X-39.530 Y0.688 F400.000
G1 X-39.602 Y0.436 F400.000
G1 X-39.635 Y0.177 F400.000
G1 X-39.639 Y-0.038 F400.000
G1 X-39.620 Y-0.278 F400.000
G1 X-39.568 Y-0.549 F400.000
G1 X-39.485 Y-0.812 F400.000
G1 X-39.368 Y-1.053 F400.000
G1 X-39.252 Y-1.241 F400.000
G1 X-39.094 Y-1.444 F400.000
G1 X-38.906 Y-1.639 F400.000
G1 X-38.692 Y-1.816 F400.000
G1 X-38.466 Y-1.962 F400.000
G1 X-38.222 Y-2.079 F400.000
G1 X-37.996 Y-2.158 F400.000
G1 X-37.741 Y-2.214 F400.000
G1 X-37.485 Y-2.244 F400.000
G1 X-37.207 Y-2.244 F400.000
G1 X-36.944 Y-2.214 F400.000
G1 X-36.684 Y-2.158 F400.000
G1 X-36.429 Y-2.071 F400.000
G1 X-36.184 Y-1.955 F400.000
G1 X-35.959 Y-1.805 F400.000
G1 X-35.778 Y-1.654 F400.000
G1 X-35.598 Y-1.474 F400.000
G1 X-35.417 Y-1.248 F400.000
G1 X-35.263 Y-1.004 F400.000
G1 X-35.139 Y-0.756 F400.000
G1 X-35.008 Y-0.305 F400.000
G1 X-34.959 Y0.109 F400.000
G1 X-34.985 Y0.560 F400.000
G1 X-35.128 Y1.060 F400.000
G1 X-35.252 Y1.323 F400.000
G1 X-35.560 Y1.744 F400.000
G1 X-35.853 Y2.023 F400.000
G1 X-36.188 Y2.244 F400.000
G1 X-36.451 Y2.368 F400.000
G1 X-37.011 Y2.519 F400.000
G1 X-37.575 Y2.556 F400.000
G1 X-37.970 Y2.504 F400.000
G1 X-38.470 Y2.327 F400.000
G1 X-38.680 Y2.214 F400.000
G1 X-39.064 Y1.932 F400.000
G1 X-39.342 Y1.684 F400.000
G1 X-39.729 Y1.132 F400.000
G1 X-39.932 Y0.553 F400.000
G1 X-40.000 Y0.000 F400.000
G1 X-39.921 Y-0.564 F400.000
G1 X-39.752 Y-1.086 F400.000
G1 X-39.459 Y-1.534 F400.000
G1 X-39.086 Y-1.925 F400.000
G1 X-38.741 Y-2.173 F400.000
G1 X-38.192 Y-2.432 F400.000
G1 X-37.718 Y-2.556 F400.000
G1 X-37.177 Y-2.590 F400.000
G1 X-36.756 Y-2.538 F400.000
G1 X-36.226 Y-2.357 F400.000
G1 X-35.789 Y-2.117 F400.000
G1 X-35.451 Y-1.842 F400.000
G1 X-35.154 Y-1.511 F400.000
G1 X-34.936 Y-1.199 F400.000
G1 X-34.703 Y-0.680 F400.000
G1 X-34.594 Y-0.259 F400.000
G1 X-34.560 Y0.263 F400.000
G1 X-34.575 Y0.489 F400.000
G1 X-34.602 Y0.658 F400.000
G1 X-34.703 Y0.996 F400.000
G1 X-34.835 Y1.308 F400.000
G1 X-35.041 Y1.662 F400.000
G1 X-35.361 Y2.060 F400.000
G1 X-35.568 Y2.256 F400.000
G1 X-36.034 Y2.579 F400.000
G1 X-36.451 Y2.767 F400.000
G1 X-36.959 Y2.895 F400.000
G1 X-37.297 Y2.936 F400.000
G1 X-37.861 Y2.906 F400.000
G1 X-38.312 Y2.786 F400.000
G1 X-38.846 Y2.534 F400.000
G1 X-39.233 Y2.259 F400.000
G1 X-39.699 Y1.786 F400.000
G1 X-39.992 Y1.323 F400.000
G1 X-40.214 Y0.759 F400.000
G1 X-40.301 Y0.278 F400.000
G1 X-40.301 Y-0.301 F400.000
G1 X-40.241 Y-0.695 F400.000
G1 X-40.060 Y-1.192 F400.000
G1 X-39.891 Y-1.504 F400.000
G1 X-39.519 Y-1.977 F400.000
G1 X-39.154 Y-2.293 F400.000
G1 X-38.639 Y-2.609 F400.000
G1 X-38.075 Y-2.838 F400.000
G1 X-37.594 Y-2.932 F400.000
G1 X-37.173 Y-2.936 F400.000
G1 X-36.812 Y-2.891 F400.000
G1 X-36.395 Y-2.759 F400.000
G1 X-35.951 Y-2.534 F400.000
G1 X-35.545 Y-2.233 F400.000
G1 X-35.199 Y-1.883 F400.000
G1 X-34.887 Y-1.414 F400.000
G1 X-34.707 Y-1.015 F400.000
G1 X-34.590 Y-0.594 F400.000
G1 X-34.534 Y-0.233 F400.000
G1 X-34.534 Y-0.233 F400.000
G1 X-34.553 Y-0.105 F400.000
G1 X-34.594 Y-0.023 F400.000
G0 X-34.613 Y0.000
G0 X-36.643 Y2.647
G1 X-36.665 Y2.677 F400.000
G1 X-36.816 Y2.846 F400.000
G1 X-36.989 Y2.929 F400.000
G1 X-36.989 Y2.929 F400.000
G1 X-37.214 Y2.959 F400.000
G1 X-37.722 Y2.959 F400.000
G1 X-38.173 Y2.891 F400.000
G1 X-38.568 Y2.774 F400.000
G1 X-39.041 Y2.534 F400.000
G1 X-39.380 Y2.297 F400.000
G1 X-39.605 Y2.098 F400.000
G1 X-39.805 Y1.872 F400.000
G1 X-40.109 Y1.421 F400.000
G1 X-40.286 Y1.030 F400.000
G1 X-40.410 Y0.620 F400.000
G1 X-40.466 Y0.199 F400.000
G1 X-40.466 Y-0.207 F400.000
G1 X-40.380 Y-0.714 F400.000
G1 X-40.229 Y-1.165 F400.000
G1 X-40.008 Y-1.586 F400.000
G1 X-39.763 Y-1.921 F400.000
G1 X-39.327 Y-2.338 F400.000
G1 X-38.981 Y-2.571 F400.000
G1 X-38.549 Y-2.786 F400.000
G1 X-38.071 Y-2.917 F400.000
G1 X-37.711 Y-2.966 F400.000
G1 X-37.470 Y-2.966 F400.000
G1 X-37.470 Y-2.966 F400.000
G1 X-37.455 Y-2.955 F400.000
G1 X-37.451 Y-2.947 F400.000
G1 X-37.477 Y-2.917 F400.000
G1 X-37.519 Y-2.906 F400.000
G1 X-37.579 Y-2.947 F400.000
G1 X-37.586 Y-2.974 F400.000
G1 X-37.568 Y-2.996 F400.000
G1 X-37.568 Y-2.996 F400.000
G1 X-37.207 Y-2.981 F400.000
G1 X-36.872 Y-2.929 F400.000
G1 X-36.425 Y-2.801 F400.000
G1 X-36.252 Y-2.726 F400.000
G1 X-35.929 Y-2.549 F400.000
G1 X-35.617 Y-2.331 F400.000
G1 X-35.368 Y-2.109 F400.000
G1 X-35.162 Y-1.880 F400.000
G1 X-34.929 Y-1.545 F400.000
G1 X-34.774 Y-1.252 F400.000
G1 X-34.654 Y-0.951 F400.000
G1 X-34.579 Y-0.692 F400.000
G1 X-34.515 Y-0.308 F400.000
G1 X-34.504 Y-0.132 F400.000
G1 X-34.519 Y0.312 F400.000
G1 X-34.538 Y0.462 F400.000
G1 X-34.594 Y0.729 F400.000
G1 X-34.680 Y1.019 F400.000
G1 X-34.793 Y1.289 F400.000
G1 X-34.914 Y1.519 F400.000
G1 X-35.169 Y1.883 F400.000
G1 X-35.320 Y2.056 F400.000
G1 X-35.508 Y2.237 F400.000
G1 X-35.688 Y2.383 F400.000
G1 X-35.951 Y2.568 F400.000
G1 X-36.274 Y2.741 F400.000
G1 X-36.410 Y2.801 F400.000
G1 X-36.613 Y2.865 F400.000
G1 X-36.977 Y2.951 F400.000
G1 X-37.218 Y2.985 F400.000
G1 X-37.545 Y2.996 F400.000
G1 X-37.763 Y2.981 F400.000
G1 X-38.139 Y2.921 F400.000
G1 X-38.575 Y2.797 F400.000
G1 X-38.726 Y2.729 F400.000
G1 X-39.090 Y2.534 F400.000
G1 X-39.398 Y2.316 F400.000
G1 X-39.650 Y2.090 F400.000
G1 X-39.805 Y1.917 F400.000
G1 X-40.064 Y1.556 F400.000
G1 X-40.135 Y1.432 F400.000
G1 X-40.286 Y1.105 F400.000
G1 X-40.361 Y0.891 F400.000
G1 X-40.417 Y0.699 F400.000
G1 X-40.474 Y0.380 F400.000
G1 X-40.500 Y0.060 F400.000
G1 X-40.496 Y-0.143 F400.000
G1 X-40.466 Y-0.395 F400.000
G1 X-40.414 Y-0.692 F400.000
G1 X-40.256 Y-1.173 F400.000
G1 X-39.992 Y-1.654 F400.000
G1 X-39.842 Y-1.868 F400.000
G1 X-39.684 Y-2.049 F400.000
G1 X-39.410 Y-2.305 F400.000
G1 X-39.098 Y-2.534 F400.000
G1 X-38.827 Y-2.688 F400.000
G1 X-38.662 Y-2.767 F400.000
G1 X-38.519 Y-2.823 F400.000
G1 X-38.034 Y-2.951 F400.000
G1 X-37.722 Y-2.989 F400.000
G1 X-37.568 Y-2.996 F400.000
G1 X-37.568 Y-2.996 F400.000
G0 Z5.000
(Helix to depth: -5.000000)
G0 Z5.000
G0 X-10.479 Y-20.080 Z5.000
G0 X-10.479 Y-20.080 Z3.000
G1 X-10.479 Y-20.080 Z0.000 F400.000
G1 X-10.479 Y-20.080 Z0.000 F400.000
G1 X-10.454 Y-20.172 Z-0.009 F400.000
G1 X-10.410 Y-20.258 Z-0.017 F400.000
G1 X-10.351 Y-20.334 Z-0.026 F400.000
G1 X-10.279 Y-20.397 Z-0.034 F400.000
G1 X-10.195 Y-20.444 Z-0.043 F400.000
G1 X-10.104 Y-20.474 Z-0.052 F400.000
G1 X-10.009 Y-20.486 Z-0.060 F400.000
G1 X-9.913 Y-20.479 Z-0.069 F400.000
G1 X-9.820 Y-20.454 Z-0.077 F400.000
G1 X-9.734 Y-20.410 Z-0.086 F400.000
G1 X-9.659 Y-20.351 Z-0.094 F400.000
G1 X-9.596 Y-20.279 Z-0.103 F400.000
G1 X-9.548 Y-20.195 Z-0.112 F400.000
G1 X-9.518 Y-20.104 Z-0.120 F400.000
G1 X-9.506 Y-20.009 Z-0.129 F400.000
G1 X-9.513 Y-19.913 Z-0.137 F400.000
G1 X-9.539 Y-19.820 Z-0.146 F400.000
G1 X-9.582 Y-19.734 Z-0.155 F400.000
G1 X-9.641 Y-19.659 Z-0.163 F400.000
G1 X-9.714 Y-19.596 Z-0.172 F400.000
G1 X-9.797 Y-19.548 Z-0.180 F400.000
G1 X-9.889 Y-19.518 Z-0.189 F400.000
G1 X-9.984 Y-19.506 Z-0.198 F400.000
G1 X-10.080 Y-19.513 Z-0.206 F400.000
G1 X-10.172 Y-19.539 Z-0.215 F400.000
G1 X-10.258 Y-19.582 Z-0.223 F400.000
G1 X-10.334 Y-19.641 Z-0.232 F400.000
G1 X-10.397 Y-19.714 Z-0.240 F400.000
G1 X-10.444 Y-19.797 Z-0.249 F400.000
G1 X-10.474 Y-19.889 Z-0.258 F400.000
G1 X-10.486 Y-19.984 Z-0.266 F400.000
G1 X-10.479 Y-20.080 Z-0.275 F400.000
G1 X-10.454 Y-20.172 Z-0.283 F400.000
G1 X-10.410 Y-20.258 Z-0.292 F400.000
G1 X-10.351 Y-20.334 Z-0.301 F400.000
G1 X-10.279 Y-20.397 Z-0.309 F400.000
G1 X-10.195 Y-20.444 Z-0.318 F400.000
G1 X-10.104 Y-20.474 Z-0.326 F400.000
G1 X-10.009 Y-20.486 Z-0.335 F400.000
G1 X-9.913 Y-20.479 Z-0.344 F400.000
G1 X-9.820 Y-20.454 Z-0.352 F400.000
G1 X-9.734 Y-20.410 Z-0.361 F400.000
G1 X-9.659 Y-20.351 Z-0.369 F400.000
G1 X-9.596 Y-20.279 Z-0.378 F400.000
G1 X-9.548 Y-20.195 Z-0.387 F400.000
G1 X-9.518 Y-20.104 Z-0.395 F400.000
G1 X-9.506 Y-20.009 Z-0.404 F400.000
G1 X-9.513 Y-19.913 Z-0.412 F400.000
G1 X-9.539 Y-19.820 Z-0.421 F400.000
G1 X-9.582 Y-19.734 Z-0.429 F400.000
G1 X-9.641 Y-19.659 Z-0.438 F400.000
G1 X-9.714 Y-19.596 Z-0.447 F400.000
G1 X-9.797 Y-19.548 Z-0.455 F400.000
G1 X-9.889 Y-19.518 Z-0.464 F400.000
G1 X-9.984 Y-19.506 Z-0.472 F400.000
G1 X-10.080 Y-19.513 Z-0.481 F400.000
G1 X-10.172 Y-19.539 Z-0.490 F400.000
G1 X-10.258 Y-19.582 Z-0.498 F400.000
G1 X-10.334 Y-19.641 Z-0.507 F400.000
G1 X-10.397 Y-19.714 Z-0.515 F400.000
G1 X-10.444 Y-19.797 Z-0.524 F400.000
G1 X-10.474 Y-19.889 Z-0.533 F400.000
G1 X-10.486 Y-19.984 Z-0.541 F400.000
G1 X-10.479 Y-20.080 Z-0.550 F400.000
G1 X-10.454 Y-20.172 Z-0.558 F400.000
G1 X-10.410 Y-20.258 Z-0.567 F400.000
G1 X-10.351 Y-20.334 Z-0.575 F400.000
G1 X-10.279 Y-20.397 Z-0.584 F400.000
G1 X-10.195 Y-20.444 Z-0.593 F400.000
G1 X-10.104 Y-20.474 Z-0.601 F400.000
G1 X-10.009 Y-20.486 Z-0.610 F400.000
G1 X-9.913 Y-20.479 Z-0.618 F400.000
G1 X-9.820 Y-20.454 Z-0.627 F400.000
G1 X-9.734 Y-20.410 Z-0.636 F400.000
G1 X-9.659 Y-20.351 Z-0.644 F400.000
G1 X-9.596 Y-20.279 Z-0.653 F400.000
G1 X-9.548 Y-20.195 Z-0.661 F400.000
G1 X-9.518 Y-20.104 Z-0.670 F400.000
G1 X-9.506 Y-20.009 Z-0.679 F400.000
G1 X-9.513 Y-19.913 Z-0.687 F400.000
G1 X-9.539 Y-19.820 Z-0.696 F400.000
G1 X-9.582 Y-19.734 Z-0.704 F400.000
G1 X-9.641 Y-19.659 Z-0.713 F400.000
G1 X-9.714 Y-19.596 Z-0.721 F400.000
G1 X-9.797 Y-19.548 Z-0.730 F400.000
G1 X-9.889 Y-19.518 Z-0.739 F400.000
G1 X-9.984 Y-19.506 Z-0.747 F400.000
G1 X-10.080 Y-19.513 Z-0.756 F400.000
G1 X-10.172 Y-19.539 Z-0.764 F400.000
G1 X-10.258 Y-19.582 Z-0.773 F400.000
G1 X-10.334 Y-19.641 Z-0.782 F400.000
G1 X-10.397 Y-19.714 Z-0.790 F400.000
G1 X-10.444 Y-19.797 Z-0.799 F400.000
G1 X-10.474 Y-19.889 Z-0.807 F400.000
G1 X-10.486 Y-19.984 Z-0.816 F400.000
G1 X-10.479 Y-20.080 Z-0.825 F400.000
G1 X-10.454 Y-20.172 Z-0.833 F400.000
G1 X-10.410 Y-20.258 Z-0.842 F400.000
G1 X-10.351 Y-20.334 Z-0.850 F400.000
G1 X-10.279 Y-20.397 Z-0.859 F400.000
G1 X-10.195 Y-20.444 Z-0.868 F400.000
G1 X-10.104 Y-20.474 Z-0.876 F400.000
G1 X-10.009 Y-20.486 Z-0.885 F400.000
G1 X-9.913 Y-20.479 Z-0.893 F400.000
G1 X-9.820 Y-20.454 Z-0.902 F400.000
G1 X-9.734 Y-20.410 Z-0.910 F400.000
G1 X-9.659 Y-20.351 Z-0.919 F400.000
G1 X-9.596 Y-20.279 Z-0.928 F400.000
G1 X-9.548 Y-20.195 Z-0.936 F400.000
G1 X-9.518 Y-20.104 Z-0.945 F400.000
G1 X-9.506 Y-20.009 Z-0.953 F400.000
G1 X-9.513 Y-19.913 Z-0.962 F400.000
G1 X-9.539 Y-19.820 Z-0.971 F400.000
G1 X-9.582 Y-19.734 Z-0.979 F400.000
G1 X-9.641 Y-19.659 Z-0.988 F400.000
G1 X-9.714 Y-19.596 Z-0.996 F400.000
G1 X-9.797 Y-19.548 Z-1.005 F400.000
G1 X-9.889 Y-19.518 Z-1.014 F400.000
G1 X-9.984 Y-19.506 Z-1.022 F400.000
G1 X-10.080 Y-19.513 Z-1.031 F400.000
G1 X-10.172 Y-19.539 Z-1.039 F400.000
G1 X-10.258 Y-19.582 Z-1.048 F400.000
G1 X-10.334 Y-19.641 Z-1.056 F400.000
G1 X-10.397 Y-19.714 Z-1.065 F400.000
G1 X-10.444 Y-19.797 Z-1.074 F400.000
G1 X-10.474 Y-19.889 Z-1.082 F400.000
G1 X-10.486 Y-19.984 Z-1.091 F400.000
G1 X-10.479 Y-20.080 Z-1.099 F400.000
G1 X-10.454 Y-20.172 Z-1.108 F400.000
G1 X-10.410 Y-20.258 Z-1.117 F400.000
G1 X-10.351 Y-20.334 Z-1.125 F400.000
G1 X-10.279 Y-20.397 Z-1.134 F400.000
G1 X-10.195 Y-20.444 Z-1.142 F400.000
G1 X-10.104 Y-20.474 Z-1.151 F400.000
G1 X-10.009 Y-20.486 Z-1.160 F400.000
G1 X-9.913 Y-20.479 Z-1.168 F400.000
G1 X-9.820 Y-20.454 Z-1.177 F400.000
G1 X-9.734 Y-20.410 Z-1.185 F400.000
G1 X-9.659 Y-20.351 Z-1.194 F400.000
G1 X-9.596 Y-20.279 Z-1.202 F400.000
G1 X-9.548 Y-20.195 Z-1.211 F400.000
G1 X-9.518 Y-20.104 Z-1.220 F400.000
G1 X-9.506 Y-20.009 Z-1.228 F400.000
G1 X-9.513 Y-19.913 Z-1.237 F400.000
G1 X-9.539 Y-19.820 Z-1.245 F400.000
G1 X-9.582 Y-19.734 Z-1.254 F400.000
G1 X-9.641 Y-19.659 Z-1.263 F400.000
G1 X-9.714 Y-19.596 Z-1.271 F400.000
G1 X-9.797 Y-19.548 Z-1.280 F400.000
G1 X-9.889 Y-19.518 Z-1.288 F400.000
G1 X-9.984 Y-19.506 Z-1.297 F400.000
G1 X-10.080 Y-19.513 Z-1.306 F400.000
G1 X-10.172 Y-19.539 Z-1.314 F400.000
G1 X-10.258 Y-19.582 Z-1.323 F400.000
G1 X-10.334 Y-19.641 Z-1.331 F400.000
G1 X-10.397 Y-19.714 Z-1.340 F400.000
G1 X-10.444 Y-19.797 Z-1.349 F400.000
G1 X-10.474 Y-19.889 Z-1.357 F400.000
G1 X-10.486 Y-19.984 Z-1.366 F400.000
G1 X-10.479 Y-20.080 Z-1.374 F400.000
G1 X-10.454 Y-20.172 Z-1.383 F400.000
G1 X-10.410 Y-20.258 Z-1.391 F400.000
G1 X-10.351 Y-20.334 Z-1.400 F400.000
G1 X-10.279 Y-20.397 Z-1.409 F400.000
G1 X-10.195 Y-20.444 Z-1.417 F400.000
G1 X-10.104 Y-20.474 Z-1.426 F400.000
G1 X-10.009 Y-20.486 Z-1.434 F400.000
G1 X-9.913 Y-20.479 Z-1.443 F400.000
G1 X-9.820 Y-20.454 Z-1.452 F400.000
G1 X-9.734 Y-20.410 Z-1.460 F400.000
G1 X-9.659 Y-20.351 Z-1.469 F400.000
G1 X-9.596 Y-20.279 Z-1.477 F400.000
G1 X-9.548 Y-20.195 Z-1.486 F400.000
G1 X-9.518 Y-20.104 Z-1.495 F400.000
G1 X-9.506 Y-20.009 Z-1.503 F400.000
G1 X-9.513 Y-19.913 Z-1.512 F400.000
G1 X-9.539 Y-19.820 Z-1.520 F400.000
G1 X-9.582 Y-19.734 Z-1.529 F400.000
G1 X-9.641 Y-19.659 Z-1.537 F400.000
G1 X-9.714 Y-19.596 Z-1.546 F400.000
G1 X-9.797 Y-19.548 Z-1.555 F400.000
G1 X-9.889 Y-19.518 Z-1.563 F400.000
G1 X-9.984 Y-19.506 Z-1.572 F400.000
G1 X-10.080 Y-19.513 Z-1.580 F400.000
G1 X-10.172 Y-19.539 Z-1.589 F400.000
G1 X-10.258 Y-19.582 Z-1.598 F400.000
G1 X-10.334 Y-19.641 Z-1.606 F400.000
G1 X-10.397 Y-19.714 Z-1.615 F400.000
G1 X-10.444 Y-19.797 Z-1.623 F400.000
G1 X-10.474 Y-19.889 Z-1.632 F400.000
G1 X-10.486 Y-19.984 Z-1.641 F400.000
G1 X-10.479 Y-20.080 Z-1.649 F400.000
G1 X-10.454 Y-20.172 Z-1.658 F400.000
G1 X-10.410 Y-20.258 Z-1.666 F400.000
G1 X-10.351 Y-20.334 Z-1.675 F400.000
G1 X-10.279 Y-20.397 Z-1.683 F400.000
G1 X-10.195 Y-20.444 Z-1.692 F400.000
G1 X-10.104 Y-20.474 Z-1.701 F400.000
G1 X-10.009 Y-20.486 Z-1.709 F400.000
G1 X-9.913 Y-20.479 Z-1.718 F400.000
G1 X-9.820 Y-20.454 Z-1.726 F400.000
G1 X-9.734 Y-20.410 Z-1.735 F400.000
G1 X-9.659 Y-20.351 Z-1.744 F400.000
G1 X-9.596 Y-20.279 Z-1.752 F400.000
G1 X-9.548 Y-20.195 Z-1.761 F400.000
G1 X-9.518 Y-20.104 Z-1.769 F400.000
G1 X-9.506 Y-20.009 Z-1.778 F400.000
G1 X-9.513 Y-19.913 Z-1.787 F400.000
G1 X-9.539 Y-19.820 Z-1.795 F400.000
G1 X-9.582 Y-19.734 Z-1.804 F400.000
G1 X-9.641 Y-19.659 Z-1.812 F400.000
G1 X-9.714 Y-19.596 Z-1.821 F400.000
G1 X-9.797 Y-19.548 Z-1.829 F400.000
G1 X-9.889 Y-19.518 Z-1.838 F400.000
G1 X-9.984 Y-19.506 Z-1.847 F400.000
G1 X-10.080 Y-19.513 Z-1.855 F400.000
G1 X-10.172 Y-19.539 Z-1.864 F400.000
G1 X-10.258 Y-19.582 Z-1.872 F400.000
G1 X-10.334 Y-19.641 Z-1.881 F400.000
G1 X-10.397 Y-19.714 Z-1.890 F400.000
G1 X-10.444 Y-19.797 Z-1.898 F400.000
G1 X-10.474 Y-19.889 Z-1.907 F400.000
G1 X-10.486 Y-19.984 Z-1.915 F400.000
G1 X-10.479 Y-20.080 Z-1.924 F400.000
G1 X-10.454 Y-20.172 Z-1.933 F400.000
G1 X-10.410 Y-20.258 Z-1.941 F400.000
G1 X-10.351 Y-20.334 Z-1.950 F400.000
G1 X-10.279 Y-20.397 Z-1.958 F400.000
G1 X-10.195 Y-20.444 Z-1.967 F400.000
G1 X-10.104 Y-20.474 Z-1.976 F400.000
G1 X-10.009 Y-20.486 Z-1.984 F400.000
G1 X-9.913 Y-20.479 Z-1.993 F400.000
G1 X-9.820 Y-20.454 Z-2.001 F400.000
G1 X-9.734 Y-20.410 Z-2.010 F400.000
G1 X-9.659 Y-20.351 Z-2.018 F400.000
G1 X-9.596 Y-20.279 Z-2.027 F400.000
G1 X-9.548 Y-20.195 Z-2.036 F400.000
G1 X-9.518 Y-20.104 Z-2.044 F400.000
G1 X-9.506 Y-20.009 Z-2.053 F400.000
G1 X-9.513 Y-19.913 Z-2.061 F400.000
G1 X-9.539 Y-19.820 Z-2.070 F400.000
G1 X-9.582 Y-19.734 Z-2.079 F400.000
G1 X-9.641 Y-19.659 Z-2.087 F400.000
G1 X-9.714 Y-19.596 Z-2.096 F400.000
G1 X-9.797 Y-19.548 Z-2.104 F400.000
G1 X-9.889 Y-19.518 Z-2.113 F400.000
G1 X-9.984 Y-19.506 Z-2.122 F400.000
G1 X-10.080 Y-19.513 Z-2.130 F400.000
G1 X-10.172 Y-19.539 Z-2.139 F400.000
G1 X-10.258 Y-19.582 Z-2.147 F400.000
G1 X-10.334 Y-19.641 Z-2.156 F400.000
G1 X-10.397 Y-19.714 Z-2.164 F400.000
G1 X-10.444 Y-19.797 Z-2.173 F400.000
G1 X-10.474 Y-19.889 Z-2.182 F400.000
G1 X-10.486 Y-19.984 Z-2.190 F400.000
G1 X-10.479 Y-20.080 Z-2.199 F400.000
G1 X-10.454 Y-20.172 Z-2.207 F400.000
G1 X-10.410 Y-20.258 Z-2.216 F400.000
G1 X-10.351 Y-20.334 Z-2.225 F400.000
G1 X-10.279 Y-20.397 Z-2.233 F400.000
G1 X-10.195 Y-20.444 Z-2.242 F400.000
G1 X-10.104 Y-20.474 Z-2.250 F400.000
G1 X-10.009 Y-20.486 Z-2.259 F400.000
G1 X-9.913 Y-20.479 Z-2.268 F400.000
G1 X-9.820 Y-20.454 Z-2.276 F400.000
G1 X-9.734 Y-20.410 Z-2.285 F400.000
G1 X-9.659 Y-20.351 Z-2.293 F400.000
G1 X-9.596 Y-20.279 Z-2.302 F400.000
G1 X-9.548 Y-20.195 Z-2.310 F400.000
G1 X-9.518 Y-20.104 Z-2.319 F400.000
G1 X-9.506 Y-20.009 Z-2.328 F400.000
G1 X-9.513 Y-19.913 Z-2.336 F400.000
G1 X-9.539 Y-19.820 Z-2.345 F400.000
G1 X-9.582 Y-19.734 Z-2.353 F400.000
G1 X-9.641 Y-19.659 Z-2.362 F400.000
G1 X-9.714 Y-19.596 Z-2.371 F400.000
G1 X-9.797 Y-19.548 Z-2.379 F400.000
G1 X-9.889 Y-19.518 Z-2.388 F400.000
G1 X-9.984 Y-19.506 Z-2.396 F400.000
G1 X-10.080 Y-19.513 Z-2.405 F400.000
G1 X-10.172 Y-19.539 Z-2.414 F400.000
G1 X-10.258 Y-19.582 Z-2.422 F400.000
G1 X-10.334 Y-19.641 Z-2.431 F400.000
G1 X-10.397 Y-19.714 Z-2.439 F400.000
G1 X-10.444 Y-19.797 Z-2.448 F400.000
G1 X-10.474 Y-19.889 Z-2.457 F400.000
G1 X-10.486 Y-19.984 Z-2.465 F400.000
G1 X-10.479 Y-20.080 Z-2.474 F400.000
G1 X-10.454 Y-20.172 Z-2.482 F400.000
G1 X-10.410 Y-20.258 Z-2.491 F400.000
G1 X-10.351 Y-20.334 Z-2.499 F400.000
G1 X-10.279 Y-20.397 Z-2.508 F400.000
G1 X-10.195 Y-20.444 Z-2.517 F400.000
G1 X-10.104 Y-20.474 Z-2.525 F400.000
G1 X-10.009 Y-20.486 Z-2.534 F400.000
G1 X-9.913 Y-20.479 Z-2.542 F400.000
G1 X-9.820 Y-20.454 Z-2.551 F400.000
G1 X-9.734 Y-20.410 Z-2.560 F400.000
G1 X-9.659 Y-20.351 Z-2.568 F400.000
G1 X-9.596 Y-20.279 Z-2.577 F400.000
G1 X-9.548 Y-20.195 Z-2.585 F400.000
G1 X-9.518 Y-20.104 Z-2.594 F400.000
G1 X-9.506 Y-20.009 Z-2.603 F400.000
G1 X-9.513 Y-19.913 Z-2.611 F400.000
G1 X-9.539 Y-19.820 Z-2.620 F400.000
G1 X-9.582 Y-19.734 Z-2.628 F400.000
G1 X-9.641 Y-19.659 Z-2.637 F400.000
G1 X-9.714 Y-19.596 Z-2.645 F400.000
G1 X-9.797 Y-19.548 Z-2.654 F400.000
G1 X-9.889 Y-19.518 Z-2.663 F400.000
G1 X-9.984 Y-19.506 Z-2.671 F400.000
G1 X-10.080 Y-19.513 Z-2.680 F400.000
G1 X-10.172 Y-19.539 Z-2.688 F400.000
G1 X-10.258 Y-19.582 Z-2.697 F400.000
G1 X-10.334 Y-19.641 Z-2.706 F400.000
G1 X-10.397 Y-19.714 Z-2.714 F400.000
G1 X-10.444 Y-19.797 Z-2.723 F400.000
G1 X-10.474 Y-19.889 Z-2.731 F400.000
G1 X-10.486 Y-19.984 Z-2.740 F400.000
G1 X-10.479 Y-20.080 Z-2.749 F400.000
G1 X-10.454 Y-20.172 Z-2.757 F400.000
G1 X-10.410 Y-20.258 Z-2.766 F400.000
G1 X-10.351 Y-20.334 Z-2.774 F400.000
G1 X-10.279 Y-20.397 Z-2.783 F400.000
G1 X-10.195 Y-20.444 Z-2.791 F400.000
G1 X-10.104 Y-20.474 Z-2.800 F400.000
G1 X-10.009 Y-20.486 Z-2.809 F400.000
G1 X-9.913 Y-20.479 Z-2.817 F400.000
G1 X-9.820 Y-20.454 Z-2.826 F400.000
G1 X-9.734 Y-20.410 Z-2.834 F400.000
G1 X-9.659 Y-20.351 Z-2.843 F400.000
G1 X-9.596 Y-20.279 Z-2.852 F400.000
G1 X-9.548 Y-20.195 Z-2.860 F400.000
G1 X-9.518 Y-20.104 Z-2.869 F400.000
G1 X-9.506 Y-20.009 Z-2.877 F400.000
G1 X-9.513 Y-19.913 Z-2.886 F400.000
G1 X-9.539 Y-19.820 Z-2.895 F400.000
G1 X-9.582 Y-19.734 Z-2.903 F400.000
G1 X-9.641 Y-19.659 Z-2.912 F400.000
G1 X-9.714 Y-19.596 Z-2.920 F400.000
G1 X-9.797 Y-19.548 Z-2.929 F400.000
G1 X-9.889 Y-19.518 Z-2.937 F400.000
G1 X-9.984 Y-19.506 Z-2.946 F400.000
G1 X-10.080 Y-19.513 Z-2.955 F400.000
G1 X-10.172 Y-19.539 Z-2.963 F400.000
G1 X-10.258 Y-19.582 Z-2.972 F400.000
G1 X-10.334 Y-19.641 Z-2.980 F400.000
G1 X-10.397 Y-19.714 Z-2.989 F400.000
G1 X-10.444 Y-19.797 Z-2.998 F400.000
G1 X-10.474 Y-19.889 Z-3.006 F400.000
G1 X-10.486 Y-19.984 Z-3.015 F400.000
G1 X-10.479 Y-20.080 Z-3.023 F400.000
G1 X-10.454 Y-20.172 Z-3.032 F400.000
G1 X-10.410 Y-20.258 Z-3.041 F400.000
G1 X-10.351 Y-20.334 Z-3.049 F400.000
G1 X-10.279 Y-20.397 Z-3.058 F400.000
G1 X-10.195 Y-20.444 Z-3.066 F400.000
G1 X-10.104 Y-20.474 Z-3.075 F400.000
G1 X-10.009 Y-20.486 Z-3.084 F400.000
G1 X-9.913 Y-20.479 Z-3.092 F400.000
G1 X-9.820 Y-20.454 Z-3.101 F400.000
G1 X-9.734 Y-20.410 Z-3.109 F400.000
G1 X-9.659 Y-20.351 Z-3.118 F400.000
G1 X-9.596 Y-20.279 Z-3.126 F400.000
G1 X-9.548 Y-20.195 Z-3.135 F400.000
G1 X-9.518 Y-20.104 Z-3.144 F400.000
G1 X-9.506 Y-20.009 Z-3.152 F400.000
G1 X-9.513 Y-19.913 Z-3.161 F400.000
G1 X-9.539 Y-19.820 Z-3.169 F400.000
G1 X-9.582 Y-19.734 Z-3.178 F400.000
G1 X-9.641 Y-19.659 Z-3.187 F400.000
G1 X-9.714 Y-19.596 Z-3.195 F400.000
G1 X-9.797 Y-19.548 Z-3.204 F400.000
G1 X-9.889 Y-19.518 Z-3.212 F400.000
G1 X-9.984 Y-19.506 Z-3.221 F400.000
G1 X-10.080 Y-19.513 Z-3.230 F400.000
G1 X-10.172 Y-19.539 Z-3.238 F400.000
G1 X-10.258 Y-19.582 Z-3.247 F400.000
G1 X-10.334 Y-19.641 Z-3.255 F400.000
G1 X-10.397 Y-19.714 Z-3.264 F400.000
G1 X-10.444 Y-19.797 Z-3.272 F400.000
G1 X-10.474 Y-19.889 Z-3.281 F400.000
G1 X-10.486 Y-19.984 Z-3.290 F400.000
G1 X-10.479 Y-20.080 Z-3.298 F400.000
G1 X-10.454 Y-20.172 Z-3.307 F400.000
G1 X-10.410 Y-20.258 Z-3.315 F400.000
G1 X-10.351 Y-20.334 Z-3.324 F400.000
G1 X-10.279 Y-20.397 Z-3.333 F400.000
G1 X-10.195 Y-20.444 Z-3.341 F400.000
G1 X-10.104 Y-20.474 Z-3.350 F400.000
G1 X-10.009 Y-20.486 Z-3.358 F400.000
G1 X-9.913 Y-20.479 Z-3.367 F400.000
G1 X-9.820 Y-20.454 Z-3.376 F400.000
G1 X-9.734 Y-20.410 Z-3.384 F400.000
G1 X-9.659 Y-20.351 Z-3.393 F400.000
G1 X-9.596 Y-20.279 Z-3.401 F400.000
G1 X-9.548 Y-20.195 Z-3.410 F400.000
G1 X-9.518 Y-20.104 Z-3.418 F400.000
G1 X-9.506 Y-20.009 Z-3.427 F400.000
G1 X-9.513 Y-19.913 Z-3.436 F400.000
G1 X-9.539 Y-19.820 Z-3.444 F400.000
G1 X-9.582 Y-19.734 Z-3.453 F400.000
G1 X-9.641 Y-19.659 Z-3.461 F400.000
G1 X-9.714 Y-19.596 Z-3.470 F400.000
G1 X-9.797 Y-19.548 Z-3.479 F400.000
G1 X-9.889 Y-19.518 Z-3.487 F400.000
G1 X-9.984 Y-19.506 Z-3.496 F400.000
G1 X-10.080 Y-19.513 Z-3.504 F400.000
G1 X-10.172 Y-19.539 Z-3.513 F400.000
G1 X-10.258 Y-19.582 Z-3.522 F400.000
G1 X-10.334 Y-19.641 Z-3.530 F400.000
G1 X-10.397 Y-19.714 Z-3.539 F400.000
G1 X-10.444 Y-19.797 Z-3.547 F400.000
G1 X-10.474 Y-19.889 Z-3.556 F400.000
G1 X-10.486 Y-19.984 Z-3.565 F400.000
G1 X-10.479 Y-20.080 Z-3.573 F400.000
G1 X-10.454 Y-20.172 Z-3.582 F400.000
G1 X-10.410 Y-20.258 Z-3.590 F400.000
G1 X-10.351 Y-20.334 Z-3.599 F400.000
G1 X-10.279 Y-20.397 Z-3.607 F400.000
G1 X-10.195 Y-20.444 Z-3.616 F400.000
G1 X-10.104 Y-20.474 Z-3.625 F400.000
G1 X-10.009 Y-20.486 Z-3.633 F400.000
G1 X-9.913 Y-20.479 Z-3.642 F400.000
G1 X-9.820 Y-20.454 Z-3.650 F400.000
G1 X-9.734 Y-20.410 Z-3.659 F400.000
G1 X-9.659 Y-20.351 Z-3.668 F400.000
G1 X-9.596 Y-20.279 Z-3.676 F400.000
G1 X-9.548 Y-20.195 Z-3.685 F400.000
G1 X-9.518 Y-20.104 Z-3.693 F400.000
G1 X-9.506 Y-20.009 Z-3.702 F400.000
G1 X-9.513 Y-19.913 Z-3.711 F400.000
G1 X-9.539 Y-19.820 Z-3.719 F400.000
G1 X-9.582 Y-19.734 Z-3.728 F400.000
G1 X-9.641 Y-19.659 Z-3.736 F400.000
G1 X-9.714 Y-19.596 Z-3.745 F400.000
G1 X-9.797 Y-19.548 Z-3.753 F400.000
G1 X-9.889 Y-19.518 Z-3.762 F400.000
G1 X-9.984 Y-19.506 Z-3.771 F400.000
G1 X-10.080 Y-19.513 Z-3.779 F400.000
G1 X-10.172 Y-19.539 Z-3.788 F400.000
G1 X-10.258 Y-19.582 Z-3.796 F400.000
G1 X-10.334 Y-19.641 Z-3.805 F400.000
G1 X-10.397 Y-19.714 Z-3.814 F400.000
G1 X-10.444 Y-19.797 Z-3.822 F400.000
G1 X-10.474 Y-19.889 Z-3.831 F400.000
G1 X-10.486 Y-19.984 Z-3.839 F400.000
G1 X-10.479 Y-20.080 Z-3.848 F400.000
G1 X-10.454 Y-20.172 Z-3.857 F400.000
G1 X-10.410 Y-20.258 Z-3.865 F400.000
G1 X-10.351 Y-20.334 Z-3.874 F400.000
G1 X-10.279 Y-20.397 Z-3.882 F400.000
G1 X-10.195 Y-20.444 Z-3.891 F400.000
G1 X-10.104 Y-20.474 Z-3.899 F400.000
G1 X-10.009 Y-20.486 Z-3.908 F400.000
G1 X-9.913 Y-20.479 Z-3.917 F400.000
G1 X-9.820 Y-20.454 Z-3.925 F400.000
G1 X-9.734 Y-20.410 Z-3.934 F400.000
G1 X-9.659 Y-20.351 Z-3.942 F400.000
G1 X-9.596 Y-20.279 Z-3.951 F400.000
G1 X-9.548 Y-20.195 Z-3.960 F400.000
G1 X-9.518 Y-20.104 Z-3.968 F400.000
G1 X-9.506 Y-20.009 Z-3.977 F400.000
G1 X-9.513 Y-19.913 Z-3.985 F400.000
G1 X-9.539 Y-19.820 Z-3.994 F400.000
G1 X-9.582 Y-19.734 Z-4.003 F400.000
G1 X-9.641 Y-19.659 Z-4.011 F400.000
G1 X-9.714 Y-19.596 Z-4.020 F400.000
G1 X-9.797 Y-19.548 Z-4.028 F400.000
G1 X-9.889 Y-19.518 Z-4.037 F400.000
G1 X-9.984 Y-19.506 Z-4.046 F400.000
G1 X-10.080 Y-19.513 Z-4.054 F400.000
G1 X-10.172 Y-19.539 Z-4.063 F400.000
G1 X-10.258 Y-19.582 Z-4.071 F400.000
G1 X-10.334 Y-19.641 Z-4.080 F400.000
G1 X-10.397 Y-19.714 Z-4.088 F400.000
G1 X-10.444 Y-19.797 Z-4.097 F400.000
G1 X-10.474 Y-19.889 Z-4.106 F400.000
G1 X-10.486 Y-19.984 Z-4.114 F400.000
G1 X-10.479 Y-20.080 Z-4.123 F400.000
G1 X-10.454 Y-20.172 Z-4.131 F400.000
G1 X-10.410 Y-20.258 Z-4.140 F400.000
G1 X-10.351 Y-20.334 Z-4.149 F400.000
G1 X-10.279 Y-20.397 Z-4.157 F400.000
G1 X-10.195 Y-20.444 Z-4.166 F400.000
G1 X-10.104 Y-20.474 Z-4.174 F400.000
G1 X-10.009 Y-20.486 Z-4.183 F400.000
G1 X-9.913 Y-20.479 Z-4.192 F400.000
G1 X-9.820 Y-20.454 Z-4.200 F400.000
G1 X-9.734 Y-20.410 Z-4.209 F400.000
G1 X-9.659 Y-20.351 Z-4.217 F400.000
G1 X-9.596 Y-20.279 Z-4.226 F400.000
G1 X-9.548 Y-20.195 Z-4.234 F400.000
G1 X-9.518 Y-20.104 Z-4.243 F400.000
G1 X-9.506 Y-20.009 Z-4.252 F400.000
G1 X-9.513 Y-19.913 Z-4.260 F400.000
G1 X-9.539 Y-19.820 Z-4.269 F400.000
G1 X-9.582 Y-19.734 Z-4.277 F400.000
G1 X-9.641 Y-19.659 Z-4.286 F400.000
G1 X-9.714 Y-19.596 Z-4.295 F400.000
G1 X-9.797 Y-19.548 Z-4.303 F400.000
G1 X-9.889 Y-19.518 Z-4.312 F400.000
G1 X-9.984 Y-19.506 Z-4.320 F400.000
G1 X-10.080 Y-19.513 Z-4.329 F400.000
G1 X-10.172 Y-19.539 Z-4.338 F400.000
G1 X-10.258 Y-19.582 Z-4.346 F400.000
G1 X-10.334 Y-19.641 Z-4.355 F400.000
G1 X-10.397 Y-19.714 Z-4.363 F400.000
G1 X-10.444 Y-19.797 Z-4.372 F400.000
G1 X-10.474 Y-19.889 Z-4.380 F400.000
G1 X-10.486 Y-19.984 Z-4.389 F400.000
G1 X-10.479 Y-20.080 Z-4.398 F400.000
G1 X-10.454 Y-20.172 Z-4.406 F400.000
G1 X-10.410 Y-20.258 Z-4.415 F400.000
G1 X-10.351 Y-20.334 Z-4.423 F400.000
G1 X-10.279 Y-20.397 Z-4.432 F400.000
G1 X-10.195 Y-20.444 Z-4.441 F400.000
G1 X-10.104 Y-20.474 Z-4.449 F400.000
G1 X-10.009 Y-20.486 Z-4.458 F400.000
G1 X-9.913 Y-20.479 Z-4.466 F400.000
G1 X-9.820 Y-20.454 Z-4.475 F400.000
G1 X-9.734 Y-20.410 Z-4.484 F400.000
G1 X-9.659 Y-20.351 Z-4.492 F400.000
G1 X-9.596 Y-20.279 Z-4.501 F400.000
G1 X-9.548 Y-20.195 Z-4.509 F400.000
G1 X-9.518 Y-20.104 Z-4.518 F400.000
G1 X-9.506 Y-20.009 Z-4.526 F400.000
G1 X-9.513 Y-19.913 Z-4.535 F400.000
G1 X-9.539 Y-19.820 Z-4.544 F400.000
G1 X-9.582 Y-19.734 Z-4.552 F400.000
G1 X-9.641 Y-19.659 Z-4.561 F400.000
G1 X-9.714 Y-19.596 Z-4.569 F400.000
G1 X-9.797 Y-19.548 Z-4.578 F400.000
G1 X-9.889 Y-19.518 Z-4.587 F400.000
G1 X-9.984 Y-19.506 Z-4.595 F400.000
G1 X-10.080 Y-19.513 Z-4.604 F400.000
G1 X-10.172 Y-19.539 Z-4.612 F400.000
G1 X-10.258 Y-19.582 Z-4.621 F400.000
G1 X-10.334 Y-19.641 Z-4.630 F400.000
G1 X-10.397 Y-19.714 Z-4.638 F400.000
G1 X-10.444 Y-19.797 Z-4.647 F400.000
G1 X-10.474 Y-19.889 Z-4.655 F400.000
G1 X-10.486 Y-19.984 Z-4.664 F400.000
G1 X-10.479 Y-20.080 Z-4.673 F400.000
G1 X-10.454 Y-20.172 Z-4.681 F400.000
G1 X-10.410 Y-20.258 Z-4.690 F400.000
G1 X-10.351 Y-20.334 Z-4.698 F400.000
G1 X-10.279 Y-20.397 Z-4.707 F400.000
G1 X-10.195 Y-20.444 Z-4.715 F400.000
G1 X-10.104 Y-20.474 Z-4.724 F400.000
G1 X-10.009 Y-20.486 Z-4.733 F400.000
G1 X-9.913 Y-20.479 Z-4.741 F400.000
G1 X-9.820 Y-20.454 Z-4.750 F400.000
G1 X-9.734 Y-20.410 Z-4.758 F400.000
G1 X-9.659 Y-20.351 Z-4.767 F400.000
G1 X-9.596 Y-20.279 Z-4.776 F400.000
G1 X-9.548 Y-20.195 Z-4.784 F400.000
G1 X-9.518 Y-20.104 Z-4.793 F400.000
G1 X-9.506 Y-20.009 Z-4.801 F400.000
G1 X-9.513 Y-19.913 Z-4.810 F400.000
G1 X-9.539 Y-19.820 Z-4.819 F400.000
G1 X-9.582 Y-19.734 Z-4.827 F400.000
G1 X-9.641 Y-19.659 Z-4.836 F400.000
G1 X-9.714 Y-19.596 Z-4.844 F400.000
G1 X-9.797 Y-19.548 Z-4.853 F400.000
G1 X-9.889 Y-19.518 Z-4.861 F400.000
G1 X-9.984 Y-19.506 Z-4.870 F400.000
G1 X-10.080 Y-19.513 Z-4.879 F400.000
G1 X-10.172 Y-19.539 Z-4.887 F400.000
G1 X-10.258 Y-19.582 Z-4.896 F400.000
G1 X-10.334 Y-19.641 Z-4.904 F400.000
G1 X-10.397 Y-19.714 Z-4.913 F400.000
G1 X-10.444 Y-19.797 Z-4.922 F400.000
G1 X-10.474 Y-19.889 Z-4.930 F400.000
G1 X-10.486 Y-19.984 Z-4.939 F400.000
G1 X-10.479 Y-20.080 Z-4.947 F400.000
G1 X-10.454 Y-20.172 Z-4.956 F400.000
G1 X-10.410 Y-20.258 Z-4.965 F400.000
G1 X-10.351 Y-20.334 Z-4.973 F400.000
G1 X-10.279 Y-20.397 Z-4.982 F400.000
G1 X-10.195 Y-20.444 Z-4.990 F400.000
G1 X-10.104 Y-20.474 Z-4.999 F400.000
G1 X-10.009 Y-20.486 Z-5.000 F400.000
G1 X-9.913 Y-20.479 Z-5.000 F400.000
G1 X-9.820 Y-20.454 Z-5.000 F400.000
G1 X-9.734 Y-20.410 Z-5.000 F400.000
G1 X-9.659 Y-20.351 Z-5.000 F400.000
G1 X-9.596 Y-20.279 Z-5.000 F400.000
G1 X-9.548 Y-20.195 Z-5.000 F400.000
G1 X-9.518 Y-20.104 Z-5.000 F400.000
G1 X-9.506 Y-20.009 Z-5.000 F400.000
G1 X-9.513 Y-19.913 Z-5.000 F400.000
G1 X-9.539 Y-19.820 Z-5.000 F400.000
G1 X-9.582 Y-19.734 Z-5.000 F400.000
G1 X-9.641 Y-19.659 Z-5.000 F400.000
G1 X-9.714 Y-19.596 Z-5.000 F400.000
G1 X-9.797 Y-19.548 Z-5.000 F400.000
G1 X-9.889 Y-19.518 Z-5.000 F400.000
G1 X-9.984 Y-19.506 Z-5.000 F400.000
G1 X-10.080 Y-19.513 Z-5.000 F400.000
G1 X-10.172 Y-19.539 Z-5.000 F400.000
G1 X-10.258 Y-19.582 Z-5.000 F400.000
G1 X-10.334 Y-19.641 Z-5.000 F400.000
G1 X-10.397 Y-19.714 Z-5.000 F400.000
G1 X-10.444 Y-19.797 Z-5.000 F400.000
G1 X-10.474 Y-19.889 Z-5.000 F400.000
G1 X-10.486 Y-19.984 Z-5.000 F400.000
G1 X-10.479 Y-20.080 Z-5.000 F400.000
G1 X-10.454 Y-20.172 Z-5.000 F400.000
G1 X-10.410 Y-20.258 Z-5.000 F400.000
G1 X-10.351 Y-20.334 Z-5.000 F400.000
G1 X-10.279 Y-20.397 Z-5.000 F400.000
G1 X-10.195 Y-20.444 Z-5.000 F400.000
G1 X-10.104 Y-20.474 Z-5.000 F400.000
(Adaptive - depth: -5.000000)
G1 X-9.996 Y-20.496 F400.000
G1 X-9.947 Y-20.530 F400.000
G1 X-9.887 Y-20.545 F400.000
G1 X-9.827 Y-20.549 F400.000
G1 X-9.767 Y-20.541 F400.000
G1 X-9.650 Y-20.500 F400.000
G1 X-9.541 Y-20.432 F400.000
G1 X-9.496 Y-20.391 F400.000
G1 X-9.368 Y-20.203 F400.000
G1 X-9.323 Y-20.041 F400.000
G1 X-9.320 Y-19.929 F400.000
G1 X-9.335 Y-19.816 F400.000
G1 X-9.380 Y-19.688 F400.000
G1 X-9.455 Y-19.560 F400.000
G1 X-9.556 Y-19.451 F400.000
G1 X-9.673 Y-19.368 F400.000
G1 X-9.808 Y-19.316 F400.000
G1 X-9.936 Y-19.289 F400.000
G1 X-10.071 Y-19.289 F400.000
G1 X-10.211 Y-19.320 F400.000
G1 X-10.342 Y-19.380 F400.000
G1 X-10.459 Y-19.466 F400.000
G1 X-10.556 Y-19.571 F400.000
G1 X-10.628 Y-19.695 F400.000
G1 X-10.673 Y-19.831 F400.000
G1 X-10.688 Y-19.974 F400.000
G1 X-10.677 Y-20.117 F400.000
G1 X-10.635 Y-20.256 F400.000
G1 X-10.564 Y-20.383 F400.000
G1 X-10.470 Y-20.496 F400.000
G1 X-10.267 Y-20.632 F400.000
G1 X-10.098 Y-20.699 F400.000
G1 X-9.857 Y-20.729 F400.000
G1 X-9.737 Y-20.718 F400.000
G1 X-9.617 Y-20.680 F400.000
G1 X-9.504 Y-20.624 F400.000
G1 X-9.226 Y-20.372 F400.000
G1 X-9.147 Y-20.207 F400.000
G1 X-9.120 Y-20.105 F400.000
G1 X-9.105 Y-19.996 F400.000
G1 X-9.105 Y-19.838 F400.000
G1 X-9.150 Y-19.635 F400.000
G1 X-9.222 Y-19.481 F400.000
G1 X-9.305 Y-19.365 F400.000
G1 X-9.410 Y-19.252 F400.000
G1 X-9.553 Y-19.154 F400.000
G1 X-9.703 Y-19.086 F400.000
G1 X-9.861 Y-19.045 F400.000
G1 X-10.026 Y-19.034 F400.000
G1 X-10.188 Y-19.053 F400.000
G1 X-10.342 Y-19.102 F400.000
G1 X-10.477 Y-19.173 F400.000
G1 X-10.605 Y-19.267 F400.000
G1 X-10.729 Y-19.395 F400.000
G1 X-10.831 Y-19.549 F400.000
G1 X-10.891 Y-19.711 F400.000
G1 X-10.921 Y-19.857 F400.000
G1 X-10.925 Y-20.023 F400.000
G1 X-10.902 Y-20.184 F400.000
G1 X-10.846 Y-20.346 F400.000
G1 X-10.763 Y-20.492 F400.000
G1 X-10.658 Y-20.624 F400.000
G1 X-10.534 Y-20.737 F400.000
G1 X-10.380 Y-20.838 F400.000
G1 X-10.203 Y-20.917 F400.000
G1 X-10.023 Y-20.951 F400.000
G1 X-9.842 Y-20.955 F400.000
G1 X-9.474 Y-20.880 F400.000
G1 X-9.312 Y-20.789 F400.000
G1 X-9.169 Y-20.669 F400.000
G1 X-9.049 Y-20.530 F400.000
G1 X-8.925 Y-20.312 F400.000
G1 X-8.868 Y-20.132 F400.000
G1 X-8.835 Y-19.891 F400.000
G1 X-8.846 Y-19.711 F400.000
G1 X-8.910 Y-19.470 F400.000
G1 X-8.985 Y-19.305 F400.000
G1 X-9.128 Y-19.109 F400.000
G1 X-9.308 Y-18.947 F400.000
G1 X-9.511 Y-18.823 F400.000
G1 X-9.733 Y-18.744 F400.000
G1 X-9.959 Y-18.711 F400.000
G1 X-10.184 Y-18.726 F400.000
G1 X-10.406 Y-18.789 F400.000
G1 X-10.662 Y-18.925 F400.000
G1 X-10.842 Y-19.068 F400.000
G1 X-10.989 Y-19.244 F400.000
G1 X-11.120 Y-19.500 F400.000
G1 X-11.192 Y-19.838 F400.000
G1 X-11.192 Y-20.008 F400.000
G1 X-11.150 Y-20.233 F400.000
G1 X-11.041 Y-20.508 F400.000
G1 X-10.906 Y-20.703 F400.000
G1 X-10.737 Y-20.876 F400.000
G1 X-10.485 Y-21.049 F400.000
G1 X-10.263 Y-21.139 F400.000
G1 X-9.962 Y-21.195 F400.000
G1 X-9.722 Y-21.199 F400.000
G1 X-9.541 Y-21.165 F400.000
G1 X-9.308 Y-21.075 F400.000
G1 X-9.090 Y-20.944 F400.000
G1 X-8.910 Y-20.774 F400.000
G1 X-8.726 Y-20.519 F400.000
G1 X-8.620 Y-20.293 F400.000
G1 X-8.556 Y-19.992 F400.000
G1 X-8.549 Y-19.812 F400.000
G1 X-8.575 Y-19.632 F400.000
G1 X-8.711 Y-19.293 F400.000
G1 X-8.876 Y-19.041 F400.000
G1 X-9.041 Y-18.876 F400.000
G1 X-9.237 Y-18.737 F400.000
G1 X-9.395 Y-18.658 F400.000
G1 X-9.620 Y-18.575 F400.000
G1 X-9.959 Y-18.526 F400.000
G1 X-10.353 Y-18.575 F400.000
G1 X-10.523 Y-18.628 F400.000
G1 X-10.729 Y-18.726 F400.000
G1 X-10.970 Y-18.891 F400.000
G1 X-11.132 Y-19.056 F400.000
G1 X-11.316 Y-19.342 F400.000
G1 X-11.429 Y-19.669 F400.000
G1 X-11.459 Y-20.008 F400.000
G1 X-11.387 Y-20.402 F400.000
G1 X-11.233 Y-20.726 F400.000
G1 X-11.049 Y-20.959 F400.000
G1 X-10.872 Y-21.117 F400.000
G1 X-10.617 Y-21.274 F400.000
G1 X-10.271 Y-21.406 F400.000
G1 X-9.970 Y-21.447 F400.000
G1 X-9.669 Y-21.432 F400.000
G1 X-9.489 Y-21.376 F400.000
G1 X-9.316 Y-21.301 F400.000
G1 X-9.008 Y-21.086 F400.000
G1 X-8.872 Y-20.951 F400.000
G1 X-8.699 Y-20.688 F400.000
G1 X-8.568 Y-20.335 F400.000
G1 X-8.553 Y-20.274 F400.000
G1 X-8.553 Y-20.274 F400.000
G1 X-8.560 Y-20.113 F400.000
G1 X-8.583 Y-20.064 F400.000
G0 X-8.602 Y-20.049
G0 X-8.711 Y-20.038
G0 X-11.128 Y-20.365
G1 X-11.162 Y-20.368 F400.000
G1 X-11.282 Y-20.398 F400.000
G1 X-11.316 Y-20.436 F400.000
G1 X-11.331 Y-20.523 F400.000
G1 X-11.312 Y-20.647 F400.000
G1 X-11.312 Y-20.647 F400.000
G1 X-11.259 Y-20.752 F400.000
G1 X-11.083 Y-20.992 F400.000
G1 X-10.959 Y-21.117 F400.000
G1 X-10.711 Y-21.286 F400.000
G1 X-10.320 Y-21.436 F400.000
G1 X-10.019 Y-21.470 F400.000
G1 X-9.959 Y-21.470 F400.000
G1 X-9.959 Y-21.470 F400.000
G1 X-9.940 Y-21.459 F400.000
G0 X-9.936 Y-21.444
G0 X-9.940 Y-21.429
G1 X-9.947 Y-21.421 F400.000
G1 X-9.962 Y-21.436 F400.000
G1 X-9.955 Y-21.470 F400.000
G1 X-9.925 Y-21.492 F400.000
G1 X-9.925 Y-21.492 F400.000
G1 X-9.707 Y-21.462 F400.000
G1 X-9.504 Y-21.406 F400.000
G1 X-9.308 Y-21.327 F400.000
G1 X-9.207 Y-21.267 F400.000
G1 X-8.992 Y-21.109 F400.000
G1 X-8.898 Y-21.015 F400.000
G1 X-8.677 Y-20.699 F400.000
G1 X-8.643 Y-20.635 F400.000
G1 X-8.556 Y-20.402 F400.000
G1 X-8.534 Y-20.312 F400.000
G1 X-8.508 Y-20.105 F400.000
G1 X-8.508 Y-19.962 F400.000
G1 X-8.538 Y-19.711 F400.000
G1 X-8.575 Y-19.549 F400.000
G1 X-8.635 Y-19.383 F400.000
G1 X-8.722 Y-19.218 F400.000
G1 X-8.861 Y-19.023 F400.000
G1 X-8.996 Y-18.887 F400.000
G1 X-9.150 Y-18.767 F400.000
G1 X-9.316 Y-18.669 F400.000
G1 X-9.609 Y-18.553 F400.000
G1 X-9.733 Y-18.523 F400.000
G1 X-9.872 Y-18.504 F400.000
G1 X-10.015 Y-18.500 F400.000
G1 X-10.188 Y-18.519 F400.000
G1 X-10.342 Y-18.549 F400.000
G1 X-10.590 Y-18.628 F400.000
G1 X-10.695 Y-18.677 F400.000
G1 X-10.820 Y-18.752 F400.000
G1 X-11.015 Y-18.895 F400.000
G1 X-11.143 Y-19.026 F400.000
G1 X-11.222 Y-19.132 F400.000
G1 X-11.335 Y-19.327 F400.000
G1 X-11.455 Y-19.635 F400.000
G1 X-11.500 Y-19.955 F400.000
G1 X-11.496 Y-20.023 F400.000
G1 X-11.440 Y-20.383 F400.000
G1 X-11.387 Y-20.545 F400.000
G1 X-11.312 Y-20.714 F400.000
G1 X-11.222 Y-20.865 F400.000
G1 X-11.056 Y-21.064 F400.000
G1 X-10.827 Y-21.244 F400.000
G1 X-10.673 Y-21.331 F400.000
G1 X-10.365 Y-21.447 F400.000
G1 X-10.173 Y-21.485 F400.000
G1 X-10.011 Y-21.496 F400.000
G1 X-9.925 Y-21.492 F400.000
G1 X-9.925 Y-21.492 F400.000
G0 Z5.000
G0 Z5.000
(Finish operation: Adaptive)
(Block-name: Fixture)
(Block-expand: 0)
(Block-enable: 1)
(Begin operation: Fixture)
(Path: Fixture)
G54
(Finish operation: Fixture)
(Block-name: Adaptive001)
(Block-expand: 0)
(Block-enable: 1)
(Begin operation: Adaptive001)
(Path: Adaptive001)
(Adaptive001)
(Helix to depth: -5.000000)
G0 Z5.000
G0 X-39.003 Y14.320 Z5.000
G0 X-39.003 Y14.320 Z3.000
G1 X-39.003 Y14.320 Z0.000 F400.000
G1 X-39.003 Y14.320 Z0.000 F400.000
G1 X-39.039 Y14.232 Z-0.009 F400.000
G1 X-39.056 Y14.138 Z-0.017 F400.000
G1 X-39.055 Y14.042 Z-0.026 F400.000
G1 X-39.035 Y13.949 Z-0.034 F400.000
G1 X-38.997 Y13.861 Z-0.043 F400.000
G1 X-38.943 Y13.782 Z-0.051 F400.000
G1 X-38.875 Y13.716 Z-0.060 F400.000
G1 X-38.795 Y13.664 Z-0.068 F400.000
G1 X-38.706 Y13.628 Z-0.077 F400.000
G1 X-38.612 Y13.611 Z-0.085 F400.000
G1 X-38.517 Y13.612 Z-0.094 F400.000
G1 X-38.423 Y13.632 Z-0.102 F400.000
G1 X-38.336 Y13.669 Z-0.111 F400.000
G1 X-38.257 Y13.723 Z-0.120 F400.000
G1 X-38.190 Y13.792 Z-0.128 F400.000
G1 X-38.138 Y13.872 Z-0.137 F400.000
G1 X-38.103 Y13.961 Z-0.145 F400.000
G1 X-38.085 Y14.054 Z-0.154 F400.000
G1 X-38.086 Y14.150 Z-0.162 F400.000
G1 X-38.106 Y14.243 Z-0.171 F400.000
G1 X-38.144 Y14.331 Z-0.179 F400.000
G1 X-38.198 Y14.410 Z-0.188 F400.000
G1 X-38.266 Y14.477 Z-0.196 F400.000
G1 X-38.346 Y14.529 Z-0.205 F400.000
G1 X-38.435 Y14.564 Z-0.214 F400.000
G1 X-38.529 Y14.581 Z-0.222 F400.000
G1 X-38.625 Y14.580 Z-0.231 F400.000
G1 X-38.718 Y14.560 Z-0.239 F400.000
G1 X-38.806 Y14.523 Z-0.248 F400.000
G1 X-38.884 Y14.469 Z-0.256 F400.000
G1 X-38.951 Y14.400 Z-0.265 F400.000
G1 X-39.003 Y14.320 Z-0.273 F400.000
G1 X-39.039 Y14.232 Z-0.282 F400.000
G1 X-39.056 Y14.138 Z-0.290 F400.000
G1 X-39.055 Y14.042 Z-0.299 F400.000
G1 X-39.035 Y13.949 Z-0.307 F400.000
G1 X-38.997 Y13.861 Z-0.316 F400.000
G1 X-38.943 Y13.782 Z-0.325 F400.000
G1 X-38.875 Y13.716 Z-0.333 F400.000
G1 X-38.795 Y13.664 Z-0.342 F400.000
G1 X-38.706 Y13.628 Z-0.350 F400.000
G1 X-38.612 Y13.611 Z-0.359 F400.000
G1 X-38.517 Y13.612 Z-0.367 F400.000
G1 X-38.423 Y13.632 Z-0.376 F400.000
G1 X-38.336 Y13.669 Z-0.384 F400.000
G1 X-38.257 Y13.723 Z-0.393 F400.000
G1 X-38.190 Y13.792 Z-0.401 F400.000
G1 X-38.138 Y13.872 Z-0.410 F400.000
G1 X-38.103 Y13.961 Z-0.418 F400.000
G1 X-38.085 Y14.054 Z-0.427 F400.000
G1 X-38.086 Y14.150 Z-0.436 F400.000
G1 X-38.106 Y14.243 Z-0.444 F400.000
G1 X-38.144 Y14.331 Z-0.453 F400.000
G1 X-38.198 Y14.410 Z-0.461 F400.000
G1 X-38.266 Y14.477 Z-0.470 F400.000
G1 X-38.346 Y14.529 Z-0.478 F400.000
G1 X-38.435 Y14.564 Z-0.487 F400.000
G1 X-38.529 Y14.581 Z-0.495 F400.000
G1 X-38.625 Y14.580 Z-0.504 F400.000
G1 X-38.718 Y14.560 Z-0.512 F400.000
G1 X-38.806 Y14.523 Z-0.521 F400.000
G1 X-38.884 Y14.469 Z-0.530 F400.000
G1 X-38.951 Y14.400 Z-0.538 F400.000
G1 X-39.003 Y14.320 Z-0.547 F400.000
G1 X-39.039 Y14.232 Z-0.555 F400.000
G1 X-39.056 Y14.138 Z-0.564 F400.000
G1 X-39.055 Y14.042 Z-0.572 F400.000
G1 X-39.035 Y13.949 Z-0.581 F400.000
G1 X-38.997 Y13.861 Z-0.589 F400.000
G1 X-38.943 Y13.782 Z-0.598 F400.000
G1 X-38.875 Y13.716 Z-0.606 F400.000
G1 X-38.795 Y13.664 Z-0.615 F400.000
G1 X-38.706 Y13.628 Z-0.623 F400.000
G1 X-38.612 Y13.611 Z-0.632 F400.000
G1 X-38.517 Y13.612 Z-0.641 F400.000
G1 X-38.423 Y13.632 Z-0.649 F400.000
G1 X-38.336 Y13.669 Z-0.658 F400.000
G1 X-38.257 Y13.723 Z-0.666 F400.000
G1 X-38.190 Y13.792 Z-0.675 F400.000
G1 X-38.138 Y13.872 Z-0.683 F400.000
G1 X-38.103 Y13.961 Z-0.692 F400.000
G1 X-38.085 Y14.054 Z-0.700 F400.000
G1 X-38.086 Y14.150 Z-0.709 F400.000
G1 X-38.106 Y14.243 Z-0.717 F400.000
G1 X-38.144 Y14.331 Z-0.726 F400.000
G1 X-38.198 Y14.410 Z-0.734 F400.000
G1 X-38.266 Y14.477 Z-0.743 F400.000
G1 X-38.346 Y14.529 Z-0.752 F400.000
G1 X-38.435 Y14.564 Z-0.760 F400.000
G1 X-38.529 Y14.581 Z-0.769 F400.000
G1 X-38.625 Y14.580 Z-0.777 F400.000
G1 X-38.718 Y14.560 Z-0.786 F400.000
G1 X-38.806 Y14.523 Z-0.794 F400.000
G1 X-38.884 Y14.469 Z-0.803 F400.000
G1 X-38.951 Y14.400 Z-0.811 F400.000
G1 X-39.003 Y14.320 Z-0.820 F400.000
G1 X-39.039 Y14.232 Z-0.828 F400.000
G1 X-39.056 Y14.138 Z-0.837 F400.000
G1 X-39.055 Y14.042 Z-0.846 F400.000
G1 X-39.035 Y13.949 Z-0.854 F400.000
G1 X-38.997 Y13.861 Z-0.863 F400.000
G1 X-38.943 Y13.782 Z-0.871 F400.000
G1 X-38.875 Y13.716 Z-0.880 F400.000
G1 X-38.795 Y13.664 Z-0.888 F400.000
G1 X-38.706 Y13.628 Z-0.897 F400.000
G1 X-38.612 Y13.611 Z-0.905 F400.000
G1 X-38.517 Y13.612 Z-0.914 F400.000
G1 X-38.423 Y13.632 Z-0.922 F400.000
G1 X-38.336 Y13.669 Z-0.931 F400.000
G1 X-38.257 Y13.723 Z-0.939 F400.000
G1 X-38.190 Y13.792 Z-0.948 F400.000
G1 X-38.138 Y13.872 Z-0.957 F400.000
G1 X-38.103 Y13.961 Z-0.965 F400.000
G1 X-38.085 Y14.054 Z-0.974 F400.000
G1 X-38.086 Y14.150 Z-0.982 F400.000
G1 X-38.106 Y14.243 Z-0.991 F400.000
G1 X-38.144 Y14.331 Z-0.999 F400.000
G1 X-38.198 Y14.410 Z-1.008 F400.000
G1 X-38.266 Y14.477 Z-1.016 F400.000
G1 X-38.346 Y14.529 Z-1.025 F400.000
G1 X-38.435 Y14.564 Z-1.033 F400.000
G1 X-38.529 Y14.581 Z-1.042 F400.000
G1 X-38.625 Y14.580 Z-1.050 F400.000
G1 X-38.718 Y14.560 Z-1.059 F400.000
G1 X-38.806 Y14.523 Z-1.068 F400.000
G1 X-38.884 Y14.469 Z-1.076 F400.000
G1 X-38.951 Y14.400 Z-1.085 F400.000
G1 X-39.003 Y14.320 Z-1.093 F400.000
G1 X-39.039 Y14.232 Z-1.102 F400.000
G1 X-39.056 Y14.138 Z-1.110 F400.000
G1 X-39.055 Y14.042 Z-1.119 F400.000
G1 X-39.035 Y13.949 Z-1.127 F400.000
G1 X-38.997 Y13.861 Z-1.136 F400.000
G1 X-38.943 Y13.782 Z-1.144 F400.000
G1 X-38.875 Y13.716 Z-1.153 F400.000
G1 X-38.795 Y13.664 Z-1.162 F400.000
G1 X-38.706 Y13.628 Z-1.170 F400.000
G1 X-38.612 Y13.611 Z-1.179 F400.000
G1 X-38.517 Y13.612 Z-1.187 F400.000
G1 X-38.423 Y13.632 Z-1.196 F400.000
G1 X-38.336 Y13.669 Z-1.204 F400.000
G1 X-38.257 Y13.723 Z-1.213 F400.000
G1 X-38.190 Y13.792 Z-1.221 F400.000
G1 X-38.138 Y13.872 Z-1.230 F400.000
G1 X-38.103 Y13.961 Z-1.238 F400.000
G1 X-38.085 Y14.054 Z-1.247 F400.000
G1 X-38.086 Y14.150 Z-1.255 F400.000
G1 X-38.106 Y14.243 Z-1.264 F400.000
G1 X-38.144 Y14.331 Z-1.273 F400.000
G1 X-38.198 Y14.410 Z-1.281 F400.000
G1 X-38.266 Y14.477 Z-1.290 F400.000
G1 X-38.346 Y14.529 Z-1.298 F400.000
G1 X-38.435 Y14.564 Z-1.307 F400.000
G1 X-38.529 Y14.581 Z-1.315 F400.000
G1 X-38.625 Y14.580 Z-1.324 F400.000
