(Exported by FreeCAD)
(Post Processor: grbl_post)
(Output Time:2024-04-07 18:18:28.407206)
(Begin preamble)
G17 G90
G21
(Block-name: Fixture)
(Block-expand: 0)
(Block-enable: 1)
(Begin operation: Fixture)
(Path: Fixture)
G54
(Finish operation: Fixture)
(Block-name: 3mm Endmill001)
(Block-expand: 0)
(Block-enable: 1)
(Begin operation: 3mm Endmill001)
(Path: 3mm Endmill001)
(3mm Endmill001)
(Begin toolchange)
( M6 T2 )
M3 S8000
(Finish operation: 3mm Endmill001)
(Block-name: Adaptive)
(Block-expand: 0)
(Block-enable: 1)
(Begin operation: Adaptive)
(Path: Adaptive)
(Adaptive)
(Helix to depth: -5.000000)
G0 Z5.000
G0 X-7.979 Y57.413 Z5.000
G0 X-7.979 Y57.413 Z3.000
G1 X-7.979 Y57.413 Z0.000 F400.000
G1 X-7.979 Y57.413 Z0.000 F400.000
G1 X-7.954 Y57.320 Z-0.009 F400.000
G1 X-7.910 Y57.234 Z-0.017 F400.000
G1 X-7.851 Y57.159 Z-0.026 F400.000
G1 X-7.779 Y57.096 Z-0.034 F400.000
G1 X-7.695 Y57.048 Z-0.043 F400.000
G1 X-7.604 Y57.018 Z-0.052 F400.000
G1 X-7.509 Y57.006 Z-0.060 F400.000
G1 X-7.413 Y57.013 Z-0.069 F400.000
G1 X-7.320 Y57.039 Z-0.077 F400.000
G1 X-7.234 Y57.082 Z-0.086 F400.000
G1 X-7.159 Y57.141 Z-0.094 F400.000
G1 X-7.096 Y57.214 Z-0.103 F400.000
G1 X-7.048 Y57.297 Z-0.112 F400.000
G1 X-7.018 Y57.389 Z-0.120 F400.000
G1 X-7.006 Y57.484 Z-0.129 F400.000
G1 X-7.013 Y57.580 Z-0.137 F400.000
G1 X-7.039 Y57.672 Z-0.146 F400.000
G1 X-7.082 Y57.758 Z-0.155 F400.000
G1 X-7.141 Y57.834 Z-0.163 F400.000
G1 X-7.214 Y57.897 Z-0.172 F400.000
G1 X-7.297 Y57.944 Z-0.180 F400.000
G1 X-7.389 Y57.974 Z-0.189 F400.000
G1 X-7.484 Y57.986 Z-0.198 F400.000
G1 X-7.580 Y57.979 Z-0.206 F400.000
G1 X-7.672 Y57.954 Z-0.215 F400.000
G1 X-7.758 Y57.910 Z-0.223 F400.000
G1 X-7.834 Y57.851 Z-0.232 F400.000
G1 X-7.897 Y57.779 Z-0.240 F400.000
G1 X-7.944 Y57.695 Z-0.249 F400.000
G1 X-7.974 Y57.604 Z-0.258 F400.000
G1 X-7.986 Y57.509 Z-0.266 F400.000
G1 X-7.979 Y57.413 Z-0.275 F400.000
G1 X-7.954 Y57.320 Z-0.283 F400.000
G1 X-7.910 Y57.234 Z-0.292 F400.000
G1 X-7.851 Y57.159 Z-0.301 F400.000
G1 X-7.779 Y57.096 Z-0.309 F400.000
G1 X-7.695 Y57.048 Z-0.318 F400.000
G1 X-7.604 Y57.018 Z-0.326 F400.000
G1 X-7.509 Y57.006 Z-0.335 F400.000
G1 X-7.413 Y57.013 Z-0.344 F400.000
G1 X-7.320 Y57.039 Z-0.352 F400.000
G1 X-7.234 Y57.082 Z-0.361 F400.000
G1 X-7.159 Y57.141 Z-0.369 F400.000
G1 X-7.096 Y57.214 Z-0.378 F400.000
G1 X-7.048 Y57.297 Z-0.387 F400.000
G1 X-7.018 Y57.389 Z-0.395 F400.000
G1 X-7.006 Y57.484 Z-0.404 F400.000
G1 X-7.013 Y57.580 Z-0.412 F400.000
G1 X-7.039 Y57.672 Z-0.421 F400.000
G1 X-7.082 Y57.758 Z-0.429 F400.000
G1 X-7.141 Y57.834 Z-0.438 F400.000
G1 X-7.214 Y57.897 Z-0.447 F400.000
G1 X-7.297 Y57.944 Z-0.455 F400.000
G1 X-7.389 Y57.974 Z-0.464 F400.000
G1 X-7.484 Y57.986 Z-0.472 F400.000
G1 X-7.580 Y57.979 Z-0.481 F400.000
G1 X-7.672 Y57.954 Z-0.490 F400.000
G1 X-7.758 Y57.910 Z-0.498 F400.000
G1 X-7.834 Y57.851 Z-0.507 F400.000
G1 X-7.897 Y57.779 Z-0.515 F400.000
G1 X-7.944 Y57.695 Z-0.524 F400.000
G1 X-7.974 Y57.604 Z-0.533 F400.000
G1 X-7.986 Y57.509 Z-0.541 F400.000
G1 X-7.979 Y57.413 Z-0.550 F400.000
G1 X-7.954 Y57.320 Z-0.558 F400.000
G1 X-7.910 Y57.234 Z-0.567 F400.000
G1 X-7.851 Y57.159 Z-0.575 F400.000
G1 X-7.779 Y57.096 Z-0.584 F400.000
G1 X-7.695 Y57.048 Z-0.593 F400.000
G1 X-7.604 Y57.018 Z-0.601 F400.000
G1 X-7.509 Y57.006 Z-0.610 F400.000
G1 X-7.413 Y57.013 Z-0.618 F400.000
G1 X-7.320 Y57.039 Z-0.627 F400.000
G1 X-7.234 Y57.082 Z-0.636 F400.000
G1 X-7.159 Y57.141 Z-0.644 F400.000
G1 X-7.096 Y57.214 Z-0.653 F400.000
G1 X-7.048 Y57.297 Z-0.661 F400.000
G1 X-7.018 Y57.389 Z-0.670 F400.000
G1 X-7.006 Y57.484 Z-0.679 F400.000
G1 X-7.013 Y57.580 Z-0.687 F400.000
G1 X-7.039 Y57.672 Z-0.696 F400.000
G1 X-7.082 Y57.758 Z-0.704 F400.000
G1 X-7.141 Y57.834 Z-0.713 F400.000
G1 X-7.214 Y57.897 Z-0.721 F400.000
G1 X-7.297 Y57.944 Z-0.730 F400.000
G1 X-7.389 Y57.974 Z-0.739 F400.000
G1 X-7.484 Y57.986 Z-0.747 F400.000
G1 X-7.580 Y57.979 Z-0.756 F400.000
G1 X-7.672 Y57.954 Z-0.764 F400.000
G1 X-7.758 Y57.910 Z-0.773 F400.000
G1 X-7.834 Y57.851 Z-0.782 F400.000
G1 X-7.897 Y57.779 Z-0.790 F400.000
G1 X-7.944 Y57.695 Z-0.799 F400.000
G1 X-7.974 Y57.604 Z-0.807 F400.000
G1 X-7.986 Y57.509 Z-0.816 F400.000
G1 X-7.979 Y57.413 Z-0.825 F400.000
G1 X-7.954 Y57.320 Z-0.833 F400.000
G1 X-7.910 Y57.234 Z-0.842 F400.000
G1 X-7.851 Y57.159 Z-0.850 F400.000
G1 X-7.779 Y57.096 Z-0.859 F400.000
G1 X-7.695 Y57.048 Z-0.868 F400.000
G1 X-7.604 Y57.018 Z-0.876 F400.000
G1 X-7.509 Y57.006 Z-0.885 F400.000
G1 X-7.413 Y57.013 Z-0.893 F400.000
G1 X-7.320 Y57.039 Z-0.902 F400.000
G1 X-7.234 Y57.082 Z-0.910 F400.000
G1 X-7.159 Y57.141 Z-0.919 F400.000
G1 X-7.096 Y57.214 Z-0.928 F400.000
G1 X-7.048 Y57.297 Z-0.936 F400.000
G1 X-7.018 Y57.389 Z-0.945 F400.000
G1 X-7.006 Y57.484 Z-0.953 F400.000
G1 X-7.013 Y57.580 Z-0.962 F400.000
G1 X-7.039 Y57.672 Z-0.971 F400.000
G1 X-7.082 Y57.758 Z-0.979 F400.000
G1 X-7.141 Y57.834 Z-0.988 F400.000
G1 X-7.214 Y57.897 Z-0.996 F400.000
G1 X-7.297 Y57.944 Z-1.005 F400.000
G1 X-7.389 Y57.974 Z-1.014 F400.000
G1 X-7.484 Y57.986 Z-1.022 F400.000
G1 X-7.580 Y57.979 Z-1.031 F400.000
G1 X-7.672 Y57.954 Z-1.039 F400.000
G1 X-7.758 Y57.910 Z-1.048 F400.000
G1 X-7.834 Y57.851 Z-1.056 F400.000
G1 X-7.897 Y57.779 Z-1.065 F400.000
G1 X-7.944 Y57.695 Z-1.074 F400.000
G1 X-7.974 Y57.604 Z-1.082 F400.000
G1 X-7.986 Y57.509 Z-1.091 F400.000
G1 X-7.979 Y57.413 Z-1.099 F400.000
G1 X-7.954 Y57.320 Z-1.108 F400.000
G1 X-7.910 Y57.234 Z-1.117 F400.000
G1 X-7.851 Y57.159 Z-1.125 F400.000
G1 X-7.779 Y57.096 Z-1.134 F400.000
G1 X-7.695 Y57.048 Z-1.142 F400.000
G1 X-7.604 Y57.018 Z-1.151 F400.000
G1 X-7.509 Y57.006 Z-1.160 F400.000
G1 X-7.413 Y57.013 Z-1.168 F400.000
G1 X-7.320 Y57.039 Z-1.177 F400.000
G1 X-7.234 Y57.082 Z-1.185 F400.000
G1 X-7.159 Y57.141 Z-1.194 F400.000
G1 X-7.096 Y57.214 Z-1.202 F400.000
G1 X-7.048 Y57.297 Z-1.211 F400.000
G1 X-7.018 Y57.389 Z-1.220 F400.000
G1 X-7.006 Y57.484 Z-1.228 F400.000
G1 X-7.013 Y57.580 Z-1.237 F400.000
G1 X-7.039 Y57.672 Z-1.245 F400.000
G1 X-7.082 Y57.758 Z-1.254 F400.000
G1 X-7.141 Y57.834 Z-1.263 F400.000
G1 X-7.214 Y57.897 Z-1.271 F400.000
G1 X-7.297 Y57.944 Z-1.280 F400.000
G1 X-7.389 Y57.974 Z-1.288 F400.000
G1 X-7.484 Y57.986 Z-1.297 F400.000
G1 X-7.580 Y57.979 Z-1.306 F400.000
G1 X-7.672 Y57.954 Z-1.314 F400.000
G1 X-7.758 Y57.910 Z-1.323 F400.000
G1 X-7.834 Y57.851 Z-1.331 F400.000
G1 X-7.897 Y57.779 Z-1.340 F400.000
G1 X-7.944 Y57.695 Z-1.349 F400.000
G1 X-7.974 Y57.604 Z-1.357 F400.000
G1 X-7.986 Y57.509 Z-1.366 F400.000
G1 X-7.979 Y57.413 Z-1.374 F400.000
G1 X-7.954 Y57.320 Z-1.383 F400.000
G1 X-7.910 Y57.234 Z-1.391 F400.000
G1 X-7.851 Y57.159 Z-1.400 F400.000
G1 X-7.779 Y57.096 Z-1.409 F400.000
G1 X-7.695 Y57.048 Z-1.417 F400.000
G1 X-7.604 Y57.018 Z-1.426 F400.000
G1 X-7.509 Y57.006 Z-1.434 F400.000
G1 X-7.413 Y57.013 Z-1.443 F400.000
G1 X-7.320 Y57.039 Z-1.452 F400.000
G1 X-7.234 Y57.082 Z-1.460 F400.000
G1 X-7.159 Y57.141 Z-1.469 F400.000
G1 X-7.096 Y57.214 Z-1.477 F400.000
G1 X-7.048 Y57.297 Z-1.486 F400.000
G1 X-7.018 Y57.389 Z-1.495 F400.000
G1 X-7.006 Y57.484 Z-1.503 F400.000
G1 X-7.013 Y57.580 Z-1.512 F400.000
G1 X-7.039 Y57.672 Z-1.520 F400.000
G1 X-7.082 Y57.758 Z-1.529 F400.000
G1 X-7.141 Y57.834 Z-1.537 F400.000
G1 X-7.214 Y57.897 Z-1.546 F400.000
G1 X-7.297 Y57.944 Z-1.555 F400.000
G1 X-7.389 Y57.974 Z-1.563 F400.000
G1 X-7.484 Y57.986 Z-1.572 F400.000
G1 X-7.580 Y57.979 Z-1.580 F400.000
G1 X-7.672 Y57.954 Z-1.589 F400.000
G1 X-7.758 Y57.910 Z-1.598 F400.000
G1 X-7.834 Y57.851 Z-1.606 F400.000
G1 X-7.897 Y57.779 Z-1.615 F400.000
G1 X-7.944 Y57.695 Z-1.623 F400.000
G1 X-7.974 Y57.604 Z-1.632 F400.000
G1 X-7.986 Y57.509 Z-1.641 F400.000
G1 X-7.979 Y57.413 Z-1.649 F400.000
G1 X-7.954 Y57.320 Z-1.658 F400.000
G1 X-7.910 Y57.234 Z-1.666 F400.000
G1 X-7.851 Y57.159 Z-1.675 F400.000
G1 X-7.779 Y57.096 Z-1.683 F400.000
G1 X-7.695 Y57.048 Z-1.692 F400.000
G1 X-7.604 Y57.018 Z-1.701 F400.000
G1 X-7.509 Y57.006 Z-1.709 F400.000
G1 X-7.413 Y57.013 Z-1.718 F400.000
G1 X-7.320 Y57.039 Z-1.726 F400.000
G1 X-7.234 Y57.082 Z-1.735 F400.000
G1 X-7.159 Y57.141 Z-1.744 F400.000
G1 X-7.096 Y57.214 Z-1.752 F400.000
G1 X-7.048 Y57.297 Z-1.761 F400.000
G1 X-7.018 Y57.389 Z-1.769 F400.000
G1 X-7.006 Y57.484 Z-1.778 F400.000
G1 X-7.013 Y57.580 Z-1.787 F400.000
G1 X-7.039 Y57.672 Z-1.795 F400.000
G1 X-7.082 Y57.758 Z-1.804 F400.000
G1 X-7.141 Y57.834 Z-1.812 F400.000
G1 X-7.214 Y57.897 Z-1.821 F400.000
G1 X-7.297 Y57.944 Z-1.829 F400.000
G1 X-7.389 Y57.974 Z-1.838 F400.000
G1 X-7.484 Y57.986 Z-1.847 F400.000
G1 X-7.580 Y57.979 Z-1.855 F400.000
G1 X-7.672 Y57.954 Z-1.864 F400.000
G1 X-7.758 Y57.910 Z-1.872 F400.000
G1 X-7.834 Y57.851 Z-1.881 F400.000
G1 X-7.897 Y57.779 Z-1.890 F400.000
G1 X-7.944 Y57.695 Z-1.898 F400.000
G1 X-7.974 Y57.604 Z-1.907 F400.000
G1 X-7.986 Y57.509 Z-1.915 F400.000
G1 X-7.979 Y57.413 Z-1.924 F400.000
G1 X-7.954 Y57.320 Z-1.933 F400.000
G1 X-7.910 Y57.234 Z-1.941 F400.000
G1 X-7.851 Y57.159 Z-1.950 F400.000
G1 X-7.779 Y57.096 Z-1.958 F400.000
G1 X-7.695 Y57.048 Z-1.967 F400.000
G1 X-7.604 Y57.018 Z-1.976 F400.000
G1 X-7.509 Y57.006 Z-1.984 F400.000
G1 X-7.413 Y57.013 Z-1.993 F400.000
G1 X-7.320 Y57.039 Z-2.001 F400.000
G1 X-7.234 Y57.082 Z-2.010 F400.000
G1 X-7.159 Y57.141 Z-2.018 F400.000
G1 X-7.096 Y57.214 Z-2.027 F400.000
G1 X-7.048 Y57.297 Z-2.036 F400.000
G1 X-7.018 Y57.389 Z-2.044 F400.000
G1 X-7.006 Y57.484 Z-2.053 F400.000
G1 X-7.013 Y57.580 Z-2.061 F400.000
G1 X-7.039 Y57.672 Z-2.070 F400.000
G1 X-7.082 Y57.758 Z-2.079 F400.000
G1 X-7.141 Y57.834 Z-2.087 F400.000
G1 X-7.214 Y57.897 Z-2.096 F400.000
G1 X-7.297 Y57.944 Z-2.104 F400.000
G1 X-7.389 Y57.974 Z-2.113 F400.000
G1 X-7.484 Y57.986 Z-2.122 F400.000
G1 X-7.580 Y57.979 Z-2.130 F400.000
G1 X-7.672 Y57.954 Z-2.139 F400.000
G1 X-7.758 Y57.910 Z-2.147 F400.000
G1 X-7.834 Y57.851 Z-2.156 F400.000
G1 X-7.897 Y57.779 Z-2.164 F400.000
G1 X-7.944 Y57.695 Z-2.173 F400.000
G1 X-7.974 Y57.604 Z-2.182 F400.000
G1 X-7.986 Y57.509 Z-2.190 F400.000
G1 X-7.979 Y57.413 Z-2.199 F400.000
G1 X-7.954 Y57.320 Z-2.207 F400.000
G1 X-7.910 Y57.234 Z-2.216 F400.000
G1 X-7.851 Y57.159 Z-2.225 F400.000
G1 X-7.779 Y57.096 Z-2.233 F400.000
G1 X-7.695 Y57.048 Z-2.242 F400.000
G1 X-7.604 Y57.018 Z-2.250 F400.000
G1 X-7.509 Y57.006 Z-2.259 F400.000
G1 X-7.413 Y57.013 Z-2.268 F400.000
G1 X-7.320 Y57.039 Z-2.276 F400.000
G1 X-7.234 Y57.082 Z-2.285 F400.000
G1 X-7.159 Y57.141 Z-2.293 F400.000
G1 X-7.096 Y57.214 Z-2.302 F400.000
G1 X-7.048 Y57.297 Z-2.310 F400.000
G1 X-7.018 Y57.389 Z-2.319 F400.000
G1 X-7.006 Y57.484 Z-2.328 F400.000
G1 X-7.013 Y57.580 Z-2.336 F400.000
G1 X-7.039 Y57.672 Z-2.345 F400.000
G1 X-7.082 Y57.758 Z-2.353 F400.000
G1 X-7.141 Y57.834 Z-2.362 F400.000
G1 X-7.214 Y57.897 Z-2.371 F400.000
G1 X-7.297 Y57.944 Z-2.379 F400.000
G1 X-7.389 Y57.974 Z-2.388 F400.000
G1 X-7.484 Y57.986 Z-2.396 F400.000
G1 X-7.580 Y57.979 Z-2.405 F400.000
G1 X-7.672 Y57.954 Z-2.414 F400.000
G1 X-7.758 Y57.910 Z-2.422 F400.000
G1 X-7.834 Y57.851 Z-2.431 F400.000
G1 X-7.897 Y57.779 Z-2.439 F400.000
G1 X-7.944 Y57.695 Z-2.448 F400.000
G1 X-7.974 Y57.604 Z-2.457 F400.000
G1 X-7.986 Y57.509 Z-2.465 F400.000
G1 X-7.979 Y57.413 Z-2.474 F400.000
G1 X-7.954 Y57.320 Z-2.482 F400.000
G1 X-7.910 Y57.234 Z-2.491 F400.000
G1 X-7.851 Y57.159 Z-2.499 F400.000
G1 X-7.779 Y57.096 Z-2.508 F400.000
G1 X-7.695 Y57.048 Z-2.517 F400.000
G1 X-7.604 Y57.018 Z-2.525 F400.000
G1 X-7.509 Y57.006 Z-2.534 F400.000
G1 X-7.413 Y57.013 Z-2.542 F400.000
G1 X-7.320 Y57.039 Z-2.551 F400.000
G1 X-7.234 Y57.082 Z-2.560 F400.000
G1 X-7.159 Y57.141 Z-2.568 F400.000
G1 X-7.096 Y57.214 Z-2.577 F400.000
G1 X-7.048 Y57.297 Z-2.585 F400.000
G1 X-7.018 Y57.389 Z-2.594 F400.000
G1 X-7.006 Y57.484 Z-2.603 F400.000
G1 X-7.013 Y57.580 Z-2.611 F400.000
G1 X-7.039 Y57.672 Z-2.620 F400.000
G1 X-7.082 Y57.758 Z-2.628 F400.000
G1 X-7.141 Y57.834 Z-2.637 F400.000
G1 X-7.214 Y57.897 Z-2.645 F400.000
G1 X-7.297 Y57.944 Z-2.654 F400.000
G1 X-7.389 Y57.974 Z-2.663 F400.000
G1 X-7.484 Y57.986 Z-2.671 F400.000
G1 X-7.580 Y57.979 Z-2.680 F400.000
G1 X-7.672 Y57.954 Z-2.688 F400.000
G1 X-7.758 Y57.910 Z-2.697 F400.000
G1 X-7.834 Y57.851 Z-2.706 F400.000
G1 X-7.897 Y57.779 Z-2.714 F400.000
G1 X-7.944 Y57.695 Z-2.723 F400.000
G1 X-7.974 Y57.604 Z-2.731 F400.000
G1 X-7.986 Y57.509 Z-2.740 F400.000
G1 X-7.979 Y57.413 Z-2.749 F400.000
G1 X-7.954 Y57.320 Z-2.757 F400.000
G1 X-7.910 Y57.234 Z-2.766 F400.000
G1 X-7.851 Y57.159 Z-2.774 F400.000
G1 X-7.779 Y57.096 Z-2.783 F400.000
G1 X-7.695 Y57.048 Z-2.791 F400.000
G1 X-7.604 Y57.018 Z-2.800 F400.000
G1 X-7.509 Y57.006 Z-2.809 F400.000
G1 X-7.413 Y57.013 Z-2.817 F400.000
G1 X-7.320 Y57.039 Z-2.826 F400.000
G1 X-7.234 Y57.082 Z-2.834 F400.000
G1 X-7.159 Y57.141 Z-2.843 F400.000
G1 X-7.096 Y57.214 Z-2.852 F400.000
G1 X-7.048 Y57.297 Z-2.860 F400.000
G1 X-7.018 Y57.389 Z-2.869 F400.000
G1 X-7.006 Y57.484 Z-2.877 F400.000
G1 X-7.013 Y57.580 Z-2.886 F400.000
G1 X-7.039 Y57.672 Z-2.895 F400.000
G1 X-7.082 Y57.758 Z-2.903 F400.000
G1 X-7.141 Y57.834 Z-2.912 F400.000
G1 X-7.214 Y57.897 Z-2.920 F400.000
G1 X-7.297 Y57.944 Z-2.929 F400.000
G1 X-7.389 Y57.974 Z-2.937 F400.000
G1 X-7.484 Y57.986 Z-2.946 F400.000
G1 X-7.580 Y57.979 Z-2.955 F400.000
G1 X-7.672 Y57.954 Z-2.963 F400.000
G1 X-7.758 Y57.910 Z-2.972 F400.000
G1 X-7.834 Y57.851 Z-2.980 F400.000
G1 X-7.897 Y57.779 Z-2.989 F400.000
G1 X-7.944 Y57.695 Z-2.998 F400.000
G1 X-7.974 Y57.604 Z-3.006 F400.000
G1 X-7.986 Y57.509 Z-3.015 F400.000
G1 X-7.979 Y57.413 Z-3.023 F400.000
G1 X-7.954 Y57.320 Z-3.032 F400.000
G1 X-7.910 Y57.234 Z-3.041 F400.000
G1 X-7.851 Y57.159 Z-3.049 F400.000
G1 X-7.779 Y57.096 Z-3.058 F400.000
G1 X-7.695 Y57.048 Z-3.066 F400.000
G1 X-7.604 Y57.018 Z-3.075 F400.000
G1 X-7.509 Y57.006 Z-3.084 F400.000
G1 X-7.413 Y57.013 Z-3.092 F400.000
G1 X-7.320 Y57.039 Z-3.101 F400.000
G1 X-7.234 Y57.082 Z-3.109 F400.000
G1 X-7.159 Y57.141 Z-3.118 F400.000
G1 X-7.096 Y57.214 Z-3.126 F400.000
G1 X-7.048 Y57.297 Z-3.135 F400.000
G1 X-7.018 Y57.389 Z-3.144 F400.000
G1 X-7.006 Y57.484 Z-3.152 F400.000
G1 X-7.013 Y57.580 Z-3.161 F400.000
G1 X-7.039 Y57.672 Z-3.169 F400.000
G1 X-7.082 Y57.758 Z-3.178 F400.000
G1 X-7.141 Y57.834 Z-3.187 F400.000
G1 X-7.214 Y57.897 Z-3.195 F400.000
G1 X-7.297 Y57.944 Z-3.204 F400.000
G1 X-7.389 Y57.974 Z-3.212 F400.000
G1 X-7.484 Y57.986 Z-3.221 F400.000
G1 X-7.580 Y57.979 Z-3.230 F400.000
G1 X-7.672 Y57.954 Z-3.238 F400.000
G1 X-7.758 Y57.910 Z-3.247 F400.000
G1 X-7.834 Y57.851 Z-3.255 F400.000
G1 X-7.897 Y57.779 Z-3.264 F400.000
G1 X-7.944 Y57.695 Z-3.272 F400.000
G1 X-7.974 Y57.604 Z-3.281 F400.000
G1 X-7.986 Y57.509 Z-3.290 F400.000
G1 X-7.979 Y57.413 Z-3.298 F400.000
G1 X-7.954 Y57.320 Z-3.307 F400.000
G1 X-7.910 Y57.234 Z-3.315 F400.000
G1 X-7.851 Y57.159 Z-3.324 F400.000
G1 X-7.779 Y57.096 Z-3.333 F400.000
G1 X-7.695 Y57.048 Z-3.341 F400.000
G1 X-7.604 Y57.018 Z-3.350 F400.000
G1 X-7.509 Y57.006 Z-3.358 F400.000
G1 X-7.413 Y57.013 Z-3.367 F400.000
G1 X-7.320 Y57.039 Z-3.376 F400.000
G1 X-7.234 Y57.082 Z-3.384 F400.000
G1 X-7.159 Y57.141 Z-3.393 F400.000
G1 X-7.096 Y57.214 Z-3.401 F400.000
G1 X-7.048 Y57.297 Z-3.410 F400.000
G1 X-7.018 Y57.389 Z-3.418 F400.000
G1 X-7.006 Y57.484 Z-3.427 F400.000
G1 X-7.013 Y57.580 Z-3.436 F400.000
G1 X-7.039 Y57.672 Z-3.444 F400.000
G1 X-7.082 Y57.758 Z-3.453 F400.000
G1 X-7.141 Y57.834 Z-3.461 F400.000
G1 X-7.214 Y57.897 Z-3.470 F400.000
G1 X-7.297 Y57.944 Z-3.479 F400.000
G1 X-7.389 Y57.974 Z-3.487 F400.000
G1 X-7.484 Y57.986 Z-3.496 F400.000
G1 X-7.580 Y57.979 Z-3.504 F400.000
G1 X-7.672 Y57.954 Z-3.513 F400.000
G1 X-7.758 Y57.910 Z-3.522 F400.000
G1 X-7.834 Y57.851 Z-3.530 F400.000
G1 X-7.897 Y57.779 Z-3.539 F400.000
G1 X-7.944 Y57.695 Z-3.547 F400.000
G1 X-7.974 Y57.604 Z-3.556 F400.000
G1 X-7.986 Y57.509 Z-3.565 F400.000
G1 X-7.979 Y57.413 Z-3.573 F400.000
G1 X-7.954 Y57.320 Z-3.582 F400.000
G1 X-7.910 Y57.234 Z-3.590 F400.000
G1 X-7.851 Y57.159 Z-3.599 F400.000
G1 X-7.779 Y57.096 Z-3.607 F400.000
G1 X-7.695 Y57.048 Z-3.616 F400.000
G1 X-7.604 Y57.018 Z-3.625 F400.000
G1 X-7.509 Y57.006 Z-3.633 F400.000
G1 X-7.413 Y57.013 Z-3.642 F400.000
G1 X-7.320 Y57.039 Z-3.650 F400.000
G1 X-7.234 Y57.082 Z-3.659 F400.000
G1 X-7.159 Y57.141 Z-3.668 F400.000
G1 X-7.096 Y57.214 Z-3.676 F400.000
G1 X-7.048 Y57.297 Z-3.685 F400.000
G1 X-7.018 Y57.389 Z-3.693 F400.000
G1 X-7.006 Y57.484 Z-3.702 F400.000
G1 X-7.013 Y57.580 Z-3.711 F400.000
G1 X-7.039 Y57.672 Z-3.719 F400.000
G1 X-7.082 Y57.758 Z-3.728 F400.000
G1 X-7.141 Y57.834 Z-3.736 F400.000
G1 X-7.214 Y57.897 Z-3.745 F400.000
G1 X-7.297 Y57.944 Z-3.753 F400.000
G1 X-7.389 Y57.974 Z-3.762 F400.000
G1 X-7.484 Y57.986 Z-3.771 F400.000
G1 X-7.580 Y57.979 Z-3.779 F400.000
G1 X-7.672 Y57.954 Z-3.788 F400.000
G1 X-7.758 Y57.910 Z-3.796 F400.000
G1 X-7.834 Y57.851 Z-3.805 F400.000
G1 X-7.897 Y57.779 Z-3.814 F400.000
G1 X-7.944 Y57.695 Z-3.822 F400.000
G1 X-7.974 Y57.604 Z-3.831 F400.000
G1 X-7.986 Y57.509 Z-3.839 F400.000
G1 X-7.979 Y57.413 Z-3.848 F400.000
G1 X-7.954 Y57.320 Z-3.857 F400.000
G1 X-7.910 Y57.234 Z-3.865 F400.000
G1 X-7.851 Y57.159 Z-3.874 F400.000
G1 X-7.779 Y57.096 Z-3.882 F400.000
G1 X-7.695 Y57.048 Z-3.891 F400.000
G1 X-7.604 Y57.018 Z-3.899 F400.000
G1 X-7.509 Y57.006 Z-3.908 F400.000
G1 X-7.413 Y57.013 Z-3.917 F400.000
G1 X-7.320 Y57.039 Z-3.925 F400.000
G1 X-7.234 Y57.082 Z-3.934 F400.000
G1 X-7.159 Y57.141 Z-3.942 F400.000
G1 X-7.096 Y57.214 Z-3.951 F400.000
G1 X-7.048 Y57.297 Z-3.960 F400.000
G1 X-7.018 Y57.389 Z-3.968 F400.000
G1 X-7.006 Y57.484 Z-3.977 F400.000
G1 X-7.013 Y57.580 Z-3.985 F400.000
G1 X-7.039 Y57.672 Z-3.994 F400.000
G1 X-7.082 Y57.758 Z-4.003 F400.000
G1 X-7.141 Y57.834 Z-4.011 F400.000
G1 X-7.214 Y57.897 Z-4.020 F400.000
G1 X-7.297 Y57.944 Z-4.028 F400.000
G1 X-7.389 Y57.974 Z-4.037 F400.000
G1 X-7.484 Y57.986 Z-4.046 F400.000
G1 X-7.580 Y57.979 Z-4.054 F400.000
G1 X-7.672 Y57.954 Z-4.063 F400.000
G1 X-7.758 Y57.910 Z-4.071 F400.000
G1 X-7.834 Y57.851 Z-4.080 F400.000
G1 X-7.897 Y57.779 Z-4.088 F400.000
G1 X-7.944 Y57.695 Z-4.097 F400.000
G1 X-7.974 Y57.604 Z-4.106 F400.000
G1 X-7.986 Y57.509 Z-4.114 F400.000
G1 X-7.979 Y57.413 Z-4.123 F400.000
G1 X-7.954 Y57.320 Z-4.131 F400.000
G1 X-7.910 Y57.234 Z-4.140 F400.000
G1 X-7.851 Y57.159 Z-4.149 F400.000
G1 X-7.779 Y57.096 Z-4.157 F400.000
G1 X-7.695 Y57.048 Z-4.166 F400.000
G1 X-7.604 Y57.018 Z-4.174 F400.000
G1 X-7.509 Y57.006 Z-4.183 F400.000
G1 X-7.413 Y57.013 Z-4.192 F400.000
G1 X-7.320 Y57.039 Z-4.200 F400.000
G1 X-7.234 Y57.082 Z-4.209 F400.000
G1 X-7.159 Y57.141 Z-4.217 F400.000
G1 X-7.096 Y57.214 Z-4.226 F400.000
G1 X-7.048 Y57.297 Z-4.234 F400.000
G1 X-7.018 Y57.389 Z-4.243 F400.000
G1 X-7.006 Y57.484 Z-4.252 F400.000
G1 X-7.013 Y57.580 Z-4.260 F400.000
G1 X-7.039 Y57.672 Z-4.269 F400.000
G1 X-7.082 Y57.758 Z-4.277 F400.000
G1 X-7.141 Y57.834 Z-4.286 F400.000
G1 X-7.214 Y57.897 Z-4.295 F400.000
G1 X-7.297 Y57.944 Z-4.303 F400.000
G1 X-7.389 Y57.974 Z-4.312 F400.000
G1 X-7.484 Y57.986 Z-4.320 F400.000
G1 X-7.580 Y57.979 Z-4.329 F400.000
G1 X-7.672 Y57.954 Z-4.338 F400.000
G1 X-7.758 Y57.910 Z-4.346 F400.000
G1 X-7.834 Y57.851 Z-4.355 F400.000
G1 X-7.897 Y57.779 Z-4.363 F400.000
G1 X-7.944 Y57.695 Z-4.372 F400.000
G1 X-7.974 Y57.604 Z-4.380 F400.000
G1 X-7.986 Y57.509 Z-4.389 F400.000
G1 X-7.979 Y57.413 Z-4.398 F400.000
G1 X-7.954 Y57.320 Z-4.406 F400.000
G1 X-7.910 Y57.234 Z-4.415 F400.000
G1 X-7.851 Y57.159 Z-4.423 F400.000
G1 X-7.779 Y57.096 Z-4.432 F400.000
G1 X-7.695 Y57.048 Z-4.441 F400.000
G1 X-7.604 Y57.018 Z-4.449 F400.000
G1 X-7.509 Y57.006 Z-4.458 F400.000
G1 X-7.413 Y57.013 Z-4.466 F400.000
G1 X-7.320 Y57.039 Z-4.475 F400.000
G1 X-7.234 Y57.082 Z-4.484 F400.000
G1 X-7.159 Y57.141 Z-4.492 F400.000
G1 X-7.096 Y57.214 Z-4.501 F400.000
G1 X-7.048 Y57.297 Z-4.509 F400.000
G1 X-7.018 Y57.389 Z-4.518 F400.000
G1 X-7.006 Y57.484 Z-4.526 F400.000
G1 X-7.013 Y57.580 Z-4.535 F400.000
G1 X-7.039 Y57.672 Z-4.544 F400.000
G1 X-7.082 Y57.758 Z-4.552 F400.000
G1 X-7.141 Y57.834 Z-4.561 F400.000
G1 X-7.214 Y57.897 Z-4.569 F400.000
G1 X-7.297 Y57.944 Z-4.578 F400.000
G1 X-7.389 Y57.974 Z-4.587 F400.000
G1 X-7.484 Y57.986 Z-4.595 F400.000
G1 X-7.580 Y57.979 Z-4.604 F400.000
G1 X-7.672 Y57.954 Z-4.612 F400.000
G1 X-7.758 Y57.910 Z-4.621 F400.000
G1 X-7.834 Y57.851 Z-4.630 F400.000
G1 X-7.897 Y57.779 Z-4.638 F400.000
G1 X-7.944 Y57.695 Z-4.647 F400.000
G1 X-7.974 Y57.604 Z-4.655 F400.000
G1 X-7.986 Y57.509 Z-4.664 F400.000
G1 X-7.979 Y57.413 Z-4.673 F400.000
G1 X-7.954 Y57.320 Z-4.681 F400.000
G1 X-7.910 Y57.234 Z-4.690 F400.000
G1 X-7.851 Y57.159 Z-4.698 F400.000
G1 X-7.779 Y57.096 Z-4.707 F400.000
G1 X-7.695 Y57.048 Z-4.715 F400.000
G1 X-7.604 Y57.018 Z-4.724 F400.000
G1 X-7.509 Y57.006 Z-4.733 F400.000
G1 X-7.413 Y57.013 Z-4.741 F400.000
G1 X-7.320 Y57.039 Z-4.750 F400.000
G1 X-7.234 Y57.082 Z-4.758 F400.000
G1 X-7.159 Y57.141 Z-4.767 F400.000
G1 X-7.096 Y57.214 Z-4.776 F400.000
G1 X-7.048 Y57.297 Z-4.784 F400.000
G1 X-7.018 Y57.389 Z-4.793 F400.000
G1 X-7.006 Y57.484 Z-4.801 F400.000
G1 X-7.013 Y57.580 Z-4.810 F400.000
G1 X-7.039 Y57.672 Z-4.819 F400.000
G1 X-7.082 Y57.758 Z-4.827 F400.000
G1 X-7.141 Y57.834 Z-4.836 F400.000
G1 X-7.214 Y57.897 Z-4.844 F400.000
G1 X-7.297 Y57.944 Z-4.853 F400.000
G1 X-7.389 Y57.974 Z-4.861 F400.000
G1 X-7.484 Y57.986 Z-4.870 F400.000
G1 X-7.580 Y57.979 Z-4.879 F400.000
G1 X-7.672 Y57.954 Z-4.887 F400.000
G1 X-7.758 Y57.910 Z-4.896 F400.000
G1 X-7.834 Y57.851 Z-4.904 F400.000
G1 X-7.897 Y57.779 Z-4.913 F400.000
G1 X-7.944 Y57.695 Z-4.922 F400.000
G1 X-7.974 Y57.604 Z-4.930 F400.000
G1 X-7.986 Y57.509 Z-4.939 F400.000
G1 X-7.979 Y57.413 Z-4.947 F400.000
G1 X-7.954 Y57.320 Z-4.956 F400.000
G1 X-7.910 Y57.234 Z-4.965 F400.000
G1 X-7.851 Y57.159 Z-4.973 F400.000
G1 X-7.779 Y57.096 Z-4.982 F400.000
G1 X-7.695 Y57.048 Z-4.990 F400.000
G1 X-7.604 Y57.018 Z-4.999 F400.000
G1 X-7.509 Y57.006 Z-5.000 F400.000
G1 X-7.413 Y57.013 Z-5.000 F400.000
G1 X-7.320 Y57.039 Z-5.000 F400.000
G1 X-7.234 Y57.082 Z-5.000 F400.000
G1 X-7.159 Y57.141 Z-5.000 F400.000
G1 X-7.096 Y57.214 Z-5.000 F400.000
G1 X-7.048 Y57.297 Z-5.000 F400.000
G1 X-7.018 Y57.389 Z-5.000 F400.000
G1 X-7.006 Y57.484 Z-5.000 F400.000
G1 X-7.013 Y57.580 Z-5.000 F400.000
G1 X-7.039 Y57.672 Z-5.000 F400.000
G1 X-7.082 Y57.758 Z-5.000 F400.000
G1 X-7.141 Y57.834 Z-5.000 F400.000
G1 X-7.214 Y57.897 Z-5.000 F400.000
G1 X-7.297 Y57.944 Z-5.000 F400.000
G1 X-7.389 Y57.974 Z-5.000 F400.000
G1 X-7.484 Y57.986 Z-5.000 F400.000
G1 X-7.580 Y57.979 Z-5.000 F400.000
G1 X-7.672 Y57.954 Z-5.000 F400.000
G1 X-7.758 Y57.910 Z-5.000 F400.000
G1 X-7.834 Y57.851 Z-5.000 F400.000
G1 X-7.897 Y57.779 Z-5.000 F400.000
G1 X-7.944 Y57.695 Z-5.000 F400.000
G1 X-7.974 Y57.604 Z-5.000 F400.000
G1 X-7.986 Y57.509 Z-5.000 F400.000
G1 X-7.979 Y57.413 Z-5.000 F400.000
G1 X-7.954 Y57.320 Z-5.000 F400.000
G1 X-7.910 Y57.234 Z-5.000 F400.000
G1 X-7.851 Y57.159 Z-5.000 F400.000
G1 X-7.779 Y57.096 Z-5.000 F400.000
G1 X-7.695 Y57.048 Z-5.000 F400.000
G1 X-7.604 Y57.018 Z-5.000 F400.000
(Adaptive - depth: -5.000000)
G1 X-7.496 Y56.996 F400.000
G1 X-7.447 Y56.959 F400.000
G1 X-7.387 Y56.940 F400.000
G1 X-7.327 Y56.932 F400.000
G1 X-7.267 Y56.936 F400.000
G1 X-7.150 Y56.970 F400.000
G1 X-7.041 Y57.030 F400.000
G1 X-6.992 Y57.068 F400.000
G1 X-6.857 Y57.282 F400.000
G1 X-6.820 Y57.421 F400.000
G1 X-6.808 Y57.526 F400.000
G1 X-6.820 Y57.647 F400.000
G1 X-6.865 Y57.786 F400.000
G1 X-6.940 Y57.914 F400.000
G1 X-7.030 Y58.015 F400.000
G1 X-7.147 Y58.098 F400.000
G1 X-7.278 Y58.154 F400.000
G1 X-7.417 Y58.184 F400.000
G1 X-7.560 Y58.184 F400.000
G1 X-7.703 Y58.154 F400.000
G1 X-7.831 Y58.098 F400.000
G1 X-7.951 Y58.011 F400.000
G1 X-8.049 Y57.902 F400.000
G1 X-8.120 Y57.774 F400.000
G1 X-8.162 Y57.643 F400.000
G1 X-8.177 Y57.500 F400.000
G1 X-8.162 Y57.361 F400.000
G1 X-8.117 Y57.226 F400.000
G1 X-8.045 Y57.102 F400.000
G1 X-7.910 Y56.947 F400.000
G1 X-7.756 Y56.835 F400.000
G1 X-7.583 Y56.756 F400.000
G1 X-7.402 Y56.718 F400.000
G1 X-7.282 Y56.714 F400.000
G1 X-7.162 Y56.733 F400.000
G1 X-7.045 Y56.774 F400.000
G1 X-6.771 Y56.985 F400.000
G1 X-6.677 Y57.120 F400.000
G1 X-6.628 Y57.222 F400.000
G1 X-6.590 Y57.338 F400.000
G1 X-6.571 Y57.504 F400.000
G1 X-6.583 Y57.680 F400.000
G1 X-6.628 Y57.846 F400.000
G1 X-6.695 Y57.989 F400.000
G1 X-6.793 Y58.124 F400.000
G1 X-6.914 Y58.233 F400.000
G1 X-7.038 Y58.312 F400.000
G1 X-7.184 Y58.372 F400.000
G1 X-7.338 Y58.410 F400.000
G1 X-7.526 Y58.417 F400.000
G1 X-7.692 Y58.398 F400.000
G1 X-7.853 Y58.342 F400.000
G1 X-7.981 Y58.271 F400.000
G1 X-8.109 Y58.169 F400.000
G1 X-8.222 Y58.038 F400.000
G1 X-8.305 Y57.898 F400.000
G1 X-8.361 Y57.741 F400.000
G1 X-8.387 Y57.575 F400.000
G1 X-8.387 Y57.410 F400.000
G1 X-8.357 Y57.244 F400.000
G1 X-8.297 Y57.086 F400.000
G1 X-8.214 Y56.940 F400.000
G1 X-8.102 Y56.797 F400.000
G1 X-7.959 Y56.669 F400.000
G1 X-7.808 Y56.571 F400.000
G1 X-7.635 Y56.500 F400.000
G1 X-7.395 Y56.455 F400.000
G1 X-7.214 Y56.466 F400.000
G1 X-6.974 Y56.523 F400.000
G1 X-6.808 Y56.602 F400.000
G1 X-6.613 Y56.744 F400.000
G1 X-6.455 Y56.925 F400.000
G1 X-6.365 Y57.079 F400.000
G1 X-6.286 Y57.305 F400.000
G1 X-6.256 Y57.530 F400.000
G1 X-6.286 Y57.812 F400.000
G1 X-6.361 Y58.030 F400.000
G1 X-6.481 Y58.226 F400.000
G1 X-6.639 Y58.395 F400.000
G1 X-6.827 Y58.530 F400.000
G1 X-7.090 Y58.639 F400.000
G1 X-7.316 Y58.684 F400.000
G1 X-7.598 Y58.680 F400.000
G1 X-7.767 Y58.647 F400.000
G1 X-7.985 Y58.556 F400.000
G1 X-8.229 Y58.387 F400.000
G1 X-8.350 Y58.252 F400.000
G1 X-8.481 Y58.049 F400.000
G1 X-8.571 Y57.820 F400.000
G1 X-8.617 Y57.519 F400.000
G1 X-8.602 Y57.278 F400.000
G1 X-8.560 Y57.098 F400.000
G1 X-8.429 Y56.812 F400.000
G1 X-8.237 Y56.564 F400.000
G1 X-8.041 Y56.402 F400.000
G1 X-7.823 Y56.278 F400.000
G1 X-7.583 Y56.199 F400.000
G1 X-7.342 Y56.165 F400.000
G1 X-7.102 Y56.177 F400.000
G1 X-6.805 Y56.252 F400.000
G1 X-6.586 Y56.361 F400.000
G1 X-6.440 Y56.474 F400.000
G1 X-6.293 Y56.658 F400.000
G1 X-6.195 Y56.812 F400.000
G1 X-6.071 Y57.143 F400.000
G1 X-6.045 Y57.256 F400.000
G1 X-6.030 Y57.538 F400.000
G1 X-6.079 Y57.876 F400.000
G1 X-6.263 Y58.301 F400.000
G1 X-6.402 Y58.481 F400.000
G1 X-6.526 Y58.605 F400.000
G1 X-6.707 Y58.741 F400.000
G1 X-6.910 Y58.842 F400.000
G1 X-7.184 Y58.932 F400.000
G1 X-7.466 Y58.962 F400.000
G1 X-7.861 Y58.902 F400.000
G1 X-8.030 Y58.842 F400.000
G1 X-8.286 Y58.695 F400.000
G1 X-8.462 Y58.530 F400.000
G1 X-8.643 Y58.286 F400.000
G1 X-8.774 Y58.011 F400.000
G1 X-8.853 Y57.714 F400.000
G1 X-8.872 Y57.414 F400.000
G1 X-8.835 Y57.113 F400.000
G1 X-8.737 Y56.820 F400.000
G1 X-8.575 Y56.553 F400.000
G1 X-8.414 Y56.361 F400.000
G1 X-8.267 Y56.241 F400.000
G1 X-8.038 Y56.135 F400.000
G1 X-7.797 Y56.056 F400.000
G1 X-7.556 Y56.026 F400.000
G1 X-7.256 Y56.049 F400.000
G1 X-6.955 Y56.135 F400.000
G1 X-6.955 Y56.135 F400.000
G1 X-6.850 Y56.203 F400.000
G1 X-6.801 Y56.278 F400.000
G0 X-6.797 Y56.305
G0 X-6.827 Y56.410
G0 X-7.880 Y58.632
G1 X-7.895 Y58.662 F400.000
G1 X-7.955 Y58.771 F400.000
G1 X-8.004 Y58.801 F400.000
G1 X-8.094 Y58.808 F400.000
G1 X-8.218 Y58.778 F400.000
G1 X-8.218 Y58.778 F400.000
G1 X-8.466 Y58.613 F400.000
G1 X-8.669 Y58.391 F400.000
G1 X-8.827 Y58.135 F400.000
G1 X-8.929 Y57.853 F400.000
G1 X-8.974 Y57.553 F400.000
G1 X-8.921 Y57.132 F400.000
G1 X-8.782 Y56.782 F400.000
G1 X-8.602 Y56.523 F400.000
G1 X-8.466 Y56.387 F400.000
G1 X-8.466 Y56.387 F400.000
G1 X-8.447 Y56.380 F400.000
G0 X-8.436 Y56.383
G0 X-8.432 Y56.417
G0 X-8.440 Y56.436
G1 X-8.455 Y56.451 F400.000
G1 X-8.504 Y56.462 F400.000
G1 X-8.534 Y56.451 F400.000
G1 X-8.538 Y56.421 F400.000
G1 X-8.538 Y56.421 F400.000
G1 X-8.368 Y56.278 F400.000
G1 X-8.192 Y56.173 F400.000
G1 X-7.835 Y56.038 F400.000
G1 X-7.748 Y56.019 F400.000
G1 X-7.496 Y56.000 F400.000
G1 X-7.417 Y56.004 F400.000
G1 X-7.211 Y56.034 F400.000
G1 X-7.008 Y56.090 F400.000
G1 X-6.737 Y56.207 F400.000
G1 X-6.579 Y56.316 F400.000
G1 X-6.402 Y56.474 F400.000
G1 X-6.316 Y56.583 F400.000
G1 X-6.184 Y56.778 F400.000
G1 X-6.135 Y56.880 F400.000
G1 X-6.064 Y57.068 F400.000
G1 X-6.023 Y57.267 F400.000
G1 X-6.008 Y57.459 F400.000
G1 X-6.008 Y57.579 F400.000
G1 X-6.049 Y57.850 F400.000
G1 X-6.135 Y58.117 F400.000
G1 X-6.218 Y58.274 F400.000
G1 X-6.361 Y58.474 F400.000
G1 X-6.496 Y58.609 F400.000
G1 X-6.650 Y58.729 F400.000
G1 X-6.816 Y58.827 F400.000
G1 X-7.109 Y58.944 F400.000
G1 X-7.207 Y58.970 F400.000
G1 X-7.376 Y58.989 F400.000
G1 X-7.553 Y58.992 F400.000
G1 X-7.789 Y58.959 F400.000
G1 X-7.992 Y58.902 F400.000
G1 X-8.256 Y58.789 F400.000
G1 X-8.451 Y58.650 F400.000
G1 X-8.662 Y58.447 F400.000
G1 X-8.741 Y58.338 F400.000
G1 X-8.857 Y58.135 F400.000
G1 X-8.959 Y57.831 F400.000
G1 X-8.989 Y57.673 F400.000
G1 X-9.000 Y57.556 F400.000
G1 X-8.996 Y57.474 F400.000
G1 X-8.940 Y57.124 F400.000
G1 X-8.876 Y56.925 F400.000
G1 X-8.812 Y56.786 F400.000
G1 X-8.620 Y56.508 F400.000
G1 X-8.538 Y56.421 F400.000
G1 X-8.538 Y56.421 F400.000
G0 Z5.000
(Helix to depth: -5.000000)
G0 Z5.000
G0 X-7.979 Y42.413 Z5.000
G0 X-7.979 Y42.413 Z3.000
G1 X-7.979 Y42.413 Z0.000 F400.000
G1 X-7.979 Y42.413 Z0.000 F400.000
G1 X-7.954 Y42.320 Z-0.009 F400.000
G1 X-7.910 Y42.234 Z-0.017 F400.000
G1 X-7.851 Y42.159 Z-0.026 F400.000
G1 X-7.779 Y42.096 Z-0.034 F400.000
G1 X-7.695 Y42.048 Z-0.043 F400.000
G1 X-7.604 Y42.018 Z-0.052 F400.000
G1 X-7.509 Y42.006 Z-0.060 F400.000
G1 X-7.413 Y42.013 Z-0.069 F400.000
G1 X-7.320 Y42.039 Z-0.077 F400.000
G1 X-7.234 Y42.082 Z-0.086 F400.000
G1 X-7.159 Y42.141 Z-0.094 F400.000
G1 X-7.096 Y42.214 Z-0.103 F400.000
G1 X-7.048 Y42.297 Z-0.112 F400.000
G1 X-7.018 Y42.389 Z-0.120 F400.000
G1 X-7.006 Y42.484 Z-0.129 F400.000
G1 X-7.013 Y42.580 Z-0.137 F400.000
G1 X-7.039 Y42.672 Z-0.146 F400.000
G1 X-7.082 Y42.758 Z-0.155 F400.000
G1 X-7.141 Y42.834 Z-0.163 F400.000
G1 X-7.214 Y42.897 Z-0.172 F400.000
G1 X-7.297 Y42.944 Z-0.180 F400.000
G1 X-7.389 Y42.974 Z-0.189 F400.000
G1 X-7.484 Y42.986 Z-0.198 F400.000
G1 X-7.580 Y42.979 Z-0.206 F400.000
G1 X-7.672 Y42.954 Z-0.215 F400.000
G1 X-7.758 Y42.910 Z-0.223 F400.000
G1 X-7.834 Y42.851 Z-0.232 F400.000
G1 X-7.897 Y42.779 Z-0.240 F400.000
G1 X-7.944 Y42.695 Z-0.249 F400.000
G1 X-7.974 Y42.604 Z-0.258 F400.000
G1 X-7.986 Y42.509 Z-0.266 F400.000
G1 X-7.979 Y42.413 Z-0.275 F400.000
G1 X-7.954 Y42.320 Z-0.283 F400.000
G1 X-7.910 Y42.234 Z-0.292 F400.000
G1 X-7.851 Y42.159 Z-0.301 F400.000
G1 X-7.779 Y42.096 Z-0.309 F400.000
G1 X-7.695 Y42.048 Z-0.318 F400.000
G1 X-7.604 Y42.018 Z-0.326 F400.000
G1 X-7.509 Y42.006 Z-0.335 F400.000
G1 X-7.413 Y42.013 Z-0.344 F400.000
G1 X-7.320 Y42.039 Z-0.352 F400.000
G1 X-7.234 Y42.082 Z-0.361 F400.000
G1 X-7.159 Y42.141 Z-0.369 F400.000
G1 X-7.096 Y42.214 Z-0.378 F400.000
G1 X-7.048 Y42.297 Z-0.387 F400.000
G1 X-7.018 Y42.389 Z-0.395 F400.000
G1 X-7.006 Y42.484 Z-0.404 F400.000
G1 X-7.013 Y42.580 Z-0.412 F400.000
G1 X-7.039 Y42.672 Z-0.421 F400.000
G1 X-7.082 Y42.758 Z-0.429 F400.000
G1 X-7.141 Y42.834 Z-0.438 F400.000
G1 X-7.214 Y42.897 Z-0.447 F400.000
G1 X-7.297 Y42.944 Z-0.455 F400.000
G1 X-7.389 Y42.974 Z-0.464 F400.000
G1 X-7.484 Y42.986 Z-0.472 F400.000
G1 X-7.580 Y42.979 Z-0.481 F400.000
G1 X-7.672 Y42.954 Z-0.490 F400.000
G1 X-7.758 Y42.910 Z-0.498 F400.000
G1 X-7.834 Y42.851 Z-0.507 F400.000
G1 X-7.897 Y42.779 Z-0.515 F400.000
G1 X-7.944 Y42.695 Z-0.524 F400.000
G1 X-7.974 Y42.604 Z-0.533 F400.000
G1 X-7.986 Y42.509 Z-0.541 F400.000
G1 X-7.979 Y42.413 Z-0.550 F400.000
G1 X-7.954 Y42.320 Z-0.558 F400.000
G1 X-7.910 Y42.234 Z-0.567 F400.000
G1 X-7.851 Y42.159 Z-0.575 F400.000
G1 X-7.779 Y42.096 Z-0.584 F400.000
G1 X-7.695 Y42.048 Z-0.593 F400.000
G1 X-7.604 Y42.018 Z-0.601 F400.000
G1 X-7.509 Y42.006 Z-0.610 F400.000
G1 X-7.413 Y42.013 Z-0.618 F400.000
G1 X-7.320 Y42.039 Z-0.627 F400.000
G1 X-7.234 Y42.082 Z-0.636 F400.000
G1 X-7.159 Y42.141 Z-0.644 F400.000
G1 X-7.096 Y42.214 Z-0.653 F400.000
G1 X-7.048 Y42.297 Z-0.661 F400.000
G1 X-7.018 Y42.389 Z-0.670 F400.000
G1 X-7.006 Y42.484 Z-0.679 F400.000
G1 X-7.013 Y42.580 Z-0.687 F400.000
G1 X-7.039 Y42.672 Z-0.696 F400.000
G1 X-7.082 Y42.758 Z-0.704 F400.000
G1 X-7.141 Y42.834 Z-0.713 F400.000
G1 X-7.214 Y42.897 Z-0.721 F400.000
G1 X-7.297 Y42.944 Z-0.730 F400.000
G1 X-7.389 Y42.974 Z-0.739 F400.000
G1 X-7.484 Y42.986 Z-0.747 F400.000
G1 X-7.580 Y42.979 Z-0.756 F400.000
G1 X-7.672 Y42.954 Z-0.764 F400.000
G1 X-7.758 Y42.910 Z-0.773 F400.000
G1 X-7.834 Y42.851 Z-0.782 F400.000
G1 X-7.897 Y42.779 Z-0.790 F400.000
G1 X-7.944 Y42.695 Z-0.799 F400.000
G1 X-7.974 Y42.604 Z-0.807 F400.000
G1 X-7.986 Y42.509 Z-0.816 F400.000
G1 X-7.979 Y42.413 Z-0.825 F400.000
G1 X-7.954 Y42.320 Z-0.833 F400.000
G1 X-7.910 Y42.234 Z-0.842 F400.000
G1 X-7.851 Y42.159 Z-0.850 F400.000
G1 X-7.779 Y42.096 Z-0.859 F400.000
G1 X-7.695 Y42.048 Z-0.868 F400.000
G1 X-7.604 Y42.018 Z-0.876 F400.000
G1 X-7.509 Y42.006 Z-0.885 F400.000
G1 X-7.413 Y42.013 Z-0.893 F400.000
G1 X-7.320 Y42.039 Z-0.902 F400.000
G1 X-7.234 Y42.082 Z-0.910 F400.000
G1 X-7.159 Y42.141 Z-0.919 F400.000
G1 X-7.096 Y42.214 Z-0.928 F400.000
G1 X-7.048 Y42.297 Z-0.936 F400.000
G1 X-7.018 Y42.389 Z-0.945 F400.000
G1 X-7.006 Y42.484 Z-0.953 F400.000
G1 X-7.013 Y42.580 Z-0.962 F400.000
G1 X-7.039 Y42.672 Z-0.971 F400.000
G1 X-7.082 Y42.758 Z-0.979 F400.000
G1 X-7.141 Y42.834 Z-0.988 F400.000
G1 X-7.214 Y42.897 Z-0.996 F400.000
G1 X-7.297 Y42.944 Z-1.005 F400.000
G1 X-7.389 Y42.974 Z-1.014 F400.000
G1 X-7.484 Y42.986 Z-1.022 F400.000
G1 X-7.580 Y42.979 Z-1.031 F400.000
G1 X-7.672 Y42.954 Z-1.039 F400.000
G1 X-7.758 Y42.910 Z-1.048 F400.000
G1 X-7.834 Y42.851 Z-1.056 F400.000
G1 X-7.897 Y42.779 Z-1.065 F400.000
G1 X-7.944 Y42.695 Z-1.074 F400.000
G1 X-7.974 Y42.604 Z-1.082 F400.000
G1 X-7.986 Y42.509 Z-1.091 F400.000
G1 X-7.979 Y42.413 Z-1.099 F400.000
G1 X-7.954 Y42.320 Z-1.108 F400.000
G1 X-7.910 Y42.234 Z-1.117 F400.000
G1 X-7.851 Y42.159 Z-1.125 F400.000
G1 X-7.779 Y42.096 Z-1.134 F400.000
G1 X-7.695 Y42.048 Z-1.142 F400.000
G1 X-7.604 Y42.018 Z-1.151 F400.000
G1 X-7.509 Y42.006 Z-1.160 F400.000
G1 X-7.413 Y42.013 Z-1.168 F400.000
G1 X-7.320 Y42.039 Z-1.177 F400.000
G1 X-7.234 Y42.082 Z-1.185 F400.000
G1 X-7.159 Y42.141 Z-1.194 F400.000
G1 X-7.096 Y42.214 Z-1.202 F400.000
G1 X-7.048 Y42.297 Z-1.211 F400.000
G1 X-7.018 Y42.389 Z-1.220 F400.000
G1 X-7.006 Y42.484 Z-1.228 F400.000
G1 X-7.013 Y42.580 Z-1.237 F400.000
G1 X-7.039 Y42.672 Z-1.245 F400.000
G1 X-7.082 Y42.758 Z-1.254 F400.000
G1 X-7.141 Y42.834 Z-1.263 F400.000
G1 X-7.214 Y42.897 Z-1.271 F400.000
G1 X-7.297 Y42.944 Z-1.280 F400.000
G1 X-7.389 Y42.974 Z-1.288 F400.000
G1 X-7.484 Y42.986 Z-1.297 F400.000
G1 X-7.580 Y42.979 Z-1.306 F400.000
G1 X-7.672 Y42.954 Z-1.314 F400.000
G1 X-7.758 Y42.910 Z-1.323 F400.000
G1 X-7.834 Y42.851 Z-1.331 F400.000
G1 X-7.897 Y42.779 Z-1.340 F400.000
G1 X-7.944 Y42.695 Z-1.349 F400.000
G1 X-7.974 Y42.604 Z-1.357 F400.000
G1 X-7.986 Y42.509 Z-1.366 F400.000
G1 X-7.979 Y42.413 Z-1.374 F400.000
G1 X-7.954 Y42.320 Z-1.383 F400.000
G1 X-7.910 Y42.234 Z-1.391 F400.000
G1 X-7.851 Y42.159 Z-1.400 F400.000
G1 X-7.779 Y42.096 Z-1.409 F400.000
G1 X-7.695 Y42.048 Z-1.417 F400.000
G1 X-7.604 Y42.018 Z-1.426 F400.000
G1 X-7.509 Y42.006 Z-1.434 F400.000
G1 X-7.413 Y42.013 Z-1.443 F400.000
G1 X-7.320 Y42.039 Z-1.452 F400.000
G1 X-7.234 Y42.082 Z-1.460 F400.000
G1 X-7.159 Y42.141 Z-1.469 F400.000
G1 X-7.096 Y42.214 Z-1.477 F400.000
G1 X-7.048 Y42.297 Z-1.486 F400.000
G1 X-7.018 Y42.389 Z-1.495 F400.000
G1 X-7.006 Y42.484 Z-1.503 F400.000
G1 X-7.013 Y42.580 Z-1.512 F400.000
G1 X-7.039 Y42.672 Z-1.520 F400.000
G1 X-7.082 Y42.758 Z-1.529 F400.000
G1 X-7.141 Y42.834 Z-1.537 F400.000
G1 X-7.214 Y42.897 Z-1.546 F400.000
G1 X-7.297 Y42.944 Z-1.555 F400.000
G1 X-7.389 Y42.974 Z-1.563 F400.000
G1 X-7.484 Y42.986 Z-1.572 F400.000
G1 X-7.580 Y42.979 Z-1.580 F400.000
G1 X-7.672 Y42.954 Z-1.589 F400.000
G1 X-7.758 Y42.910 Z-1.598 F400.000
G1 X-7.834 Y42.851 Z-1.606 F400.000
G1 X-7.897 Y42.779 Z-1.615 F400.000
G1 X-7.944 Y42.695 Z-1.623 F400.000
G1 X-7.974 Y42.604 Z-1.632 F400.000
G1 X-7.986 Y42.509 Z-1.641 F400.000
G1 X-7.979 Y42.413 Z-1.649 F400.000
G1 X-7.954 Y42.320 Z-1.658 F400.000
G1 X-7.910 Y42.234 Z-1.666 F400.000
G1 X-7.851 Y42.159 Z-1.675 F400.000
G1 X-7.779 Y42.096 Z-1.683 F400.000
G1 X-7.695 Y42.048 Z-1.692 F400.000
G1 X-7.604 Y42.018 Z-1.701 F400.000
G1 X-7.509 Y42.006 Z-1.709 F400.000
G1 X-7.413 Y42.013 Z-1.718 F400.000
G1 X-7.320 Y42.039 Z-1.726 F400.000
G1 X-7.234 Y42.082 Z-1.735 F400.000
G1 X-7.159 Y42.141 Z-1.744 F400.000
G1 X-7.096 Y42.214 Z-1.752 F400.000
G1 X-7.048 Y42.297 Z-1.761 F400.000
G1 X-7.018 Y42.389 Z-1.769 F400.000
G1 X-7.006 Y42.484 Z-1.778 F400.000
G1 X-7.013 Y42.580 Z-1.787 F400.000
G1 X-7.039 Y42.672 Z-1.795 F400.000
G1 X-7.082 Y42.758 Z-1.804 F400.000
G1 X-7.141 Y42.834 Z-1.812 F400.000
G1 X-7.214 Y42.897 Z-1.821 F400.000
G1 X-7.297 Y42.944 Z-1.829 F400.000
G1 X-7.389 Y42.974 Z-1.838 F400.000
G1 X-7.484 Y42.986 Z-1.847 F400.000
G1 X-7.580 Y42.979 Z-1.855 F400.000
G1 X-7.672 Y42.954 Z-1.864 F400.000
G1 X-7.758 Y42.910 Z-1.872 F400.000
G1 X-7.834 Y42.851 Z-1.881 F400.000
G1 X-7.897 Y42.779 Z-1.890 F400.000
G1 X-7.944 Y42.695 Z-1.898 F400.000
G1 X-7.974 Y42.604 Z-1.907 F400.000
G1 X-7.986 Y42.509 Z-1.915 F400.000
G1 X-7.979 Y42.413 Z-1.924 F400.000
G1 X-7.954 Y42.320 Z-1.933 F400.000
G1 X-7.910 Y42.234 Z-1.941 F400.000
G1 X-7.851 Y42.159 Z-1.950 F400.000
G1 X-7.779 Y42.096 Z-1.958 F400.000
G1 X-7.695 Y42.048 Z-1.967 F400.000
G1 X-7.604 Y42.018 Z-1.976 F400.000
G1 X-7.509 Y42.006 Z-1.984 F400.000
G1 X-7.413 Y42.013 Z-1.993 F400.000
G1 X-7.320 Y42.039 Z-2.001 F400.000
G1 X-7.234 Y42.082 Z-2.010 F400.000
G1 X-7.159 Y42.141 Z-2.018 F400.000
G1 X-7.096 Y42.214 Z-2.027 F400.000
G1 X-7.048 Y42.297 Z-2.036 F400.000
G1 X-7.018 Y42.389 Z-2.044 F400.000
G1 X-7.006 Y42.484 Z-2.053 F400.000
G1 X-7.013 Y42.580 Z-2.061 F400.000
G1 X-7.039 Y42.672 Z-2.070 F400.000
G1 X-7.082 Y42.758 Z-2.079 F400.000
G1 X-7.141 Y42.834 Z-2.087 F400.000
G1 X-7.214 Y42.897 Z-2.096 F400.000
G1 X-7.297 Y42.944 Z-2.104 F400.000
G1 X-7.389 Y42.974 Z-2.113 F400.000
G1 X-7.484 Y42.986 Z-2.122 F400.000
G1 X-7.580 Y42.979 Z-2.130 F400.000
G1 X-7.672 Y42.954 Z-2.139 F400.000
G1 X-7.758 Y42.910 Z-2.147 F400.000
G1 X-7.834 Y42.851 Z-2.156 F400.000
G1 X-7.897 Y42.779 Z-2.164 F400.000
G1 X-7.944 Y42.695 Z-2.173 F400.000
G1 X-7.974 Y42.604 Z-2.182 F400.000
G1 X-7.986 Y42.509 Z-2.190 F400.000
G1 X-7.979 Y42.413 Z-2.199 F400.000
G1 X-7.954 Y42.320 Z-2.207 F400.000
G1 X-7.910 Y42.234 Z-2.216 F400.000
G1 X-7.851 Y42.159 Z-2.225 F400.000
G1 X-7.779 Y42.096 Z-2.233 F400.000
G1 X-7.695 Y42.048 Z-2.242 F400.000
G1 X-7.604 Y42.018 Z-2.250 F400.000
G1 X-7.509 Y42.006 Z-2.259 F400.000
G1 X-7.413 Y42.013 Z-2.268 F400.000
G1 X-7.320 Y42.039 Z-2.276 F400.000
G1 X-7.234 Y42.082 Z-2.285 F400.000
G1 X-7.159 Y42.141 Z-2.293 F400.000
G1 X-7.096 Y42.214 Z-2.302 F400.000
G1 X-7.048 Y42.297 Z-2.310 F400.000
G1 X-7.018 Y42.389 Z-2.319 F400.000
G1 X-7.006 Y42.484 Z-2.328 F400.000
G1 X-7.013 Y42.580 Z-2.336 F400.000
G1 X-7.039 Y42.672 Z-2.345 F400.000
G1 X-7.082 Y42.758 Z-2.353 F400.000
G1 X-7.141 Y42.834 Z-2.362 F400.000
G1 X-7.214 Y42.897 Z-2.371 F400.000
G1 X-7.297 Y42.944 Z-2.379 F400.000
G1 X-7.389 Y42.974 Z-2.388 F400.000
G1 X-7.484 Y42.986 Z-2.396 F400.000
G1 X-7.580 Y42.979 Z-2.405 F400.000
G1 X-7.672 Y42.954 Z-2.414 F400.000
G1 X-7.758 Y42.910 Z-2.422 F400.000
G1 X-7.834 Y42.851 Z-2.431 F400.000
G1 X-7.897 Y42.779 Z-2.439 F400.000
G1 X-7.944 Y42.695 Z-2.448 F400.000
G1 X-7.974 Y42.604 Z-2.457 F400.000
G1 X-7.986 Y42.509 Z-2.465 F400.000
G1 X-7.979 Y42.413 Z-2.474 F400.000
G1 X-7.954 Y42.320 Z-2.482 F400.000
G1 X-7.910 Y42.234 Z-2.491 F400.000
G1 X-7.851 Y42.159 Z-2.499 F400.000
G1 X-7.779 Y42.096 Z-2.508 F400.000
G1 X-7.695 Y42.048 Z-2.517 F400.000
G1 X-7.604 Y42.018 Z-2.525 F400.000
G1 X-7.509 Y42.006 Z-2.534 F400.000
G1 X-7.413 Y42.013 Z-2.542 F400.000
G1 X-7.320 Y42.039 Z-2.551 F400.000
G1 X-7.234 Y42.082 Z-2.560 F400.000
G1 X-7.159 Y42.141 Z-2.568 F400.000
G1 X-7.096 Y42.214 Z-2.577 F400.000
G1 X-7.048 Y42.297 Z-2.585 F400.000
G1 X-7.018 Y42.389 Z-2.594 F400.000
G1 X-7.006 Y42.484 Z-2.603 F400.000
G1 X-7.013 Y42.580 Z-2.611 F400.000
G1 X-7.039 Y42.672 Z-2.620 F400.000
G1 X-7.082 Y42.758 Z-2.628 F400.000
G1 X-7.141 Y42.834 Z-2.637 F400.000
G1 X-7.214 Y42.897 Z-2.645 F400.000
G1 X-7.297 Y42.944 Z-2.654 F400.000
G1 X-7.389 Y42.974 Z-2.663 F400.000
G1 X-7.484 Y42.986 Z-2.671 F400.000
G1 X-7.580 Y42.979 Z-2.680 F400.000
G1 X-7.672 Y42.954 Z-2.688 F400.000
G1 X-7.758 Y42.910 Z-2.697 F400.000
G1 X-7.834 Y42.851 Z-2.706 F400.000
G1 X-7.897 Y42.779 Z-2.714 F400.000
G1 X-7.944 Y42.695 Z-2.723 F400.000
G1 X-7.974 Y42.604 Z-2.731 F400.000
G1 X-7.986 Y42.509 Z-2.740 F400.000
G1 X-7.979 Y42.413 Z-2.749 F400.000
G1 X-7.954 Y42.320 Z-2.757 F400.000
G1 X-7.910 Y42.234 Z-2.766 F400.000
G1 X-7.851 Y42.159 Z-2.774 F400.000
G1 X-7.779 Y42.096 Z-2.783 F400.000
G1 X-7.695 Y42.048 Z-2.791 F400.000
G1 X-7.604 Y42.018 Z-2.800 F400.000
G1 X-7.509 Y42.006 Z-2.809 F400.000
G1 X-7.413 Y42.013 Z-2.817 F400.000
G1 X-7.320 Y42.039 Z-2.826 F400.000
G1 X-7.234 Y42.082 Z-2.834 F400.000
G1 X-7.159 Y42.141 Z-2.843 F400.000
G1 X-7.096 Y42.214 Z-2.852 F400.000
G1 X-7.048 Y42.297 Z-2.860 F400.000
G1 X-7.018 Y42.389 Z-2.869 F400.000
G1 X-7.006 Y42.484 Z-2.877 F400.000
G1 X-7.013 Y42.580 Z-2.886 F400.000
G1 X-7.039 Y42.672 Z-2.895 F400.000
G1 X-7.082 Y42.758 Z-2.903 F400.000
G1 X-7.141 Y42.834 Z-2.912 F400.000
G1 X-7.214 Y42.897 Z-2.920 F400.000
G1 X-7.297 Y42.944 Z-2.929 F400.000
G1 X-7.389 Y42.974 Z-2.937 F400.000
G1 X-7.484 Y42.986 Z-2.946 F400.000
G1 X-7.580 Y42.979 Z-2.955 F400.000
G1 X-7.672 Y42.954 Z-2.963 F400.000
G1 X-7.758 Y42.910 Z-2.972 F400.000
G1 X-7.834 Y42.851 Z-2.980 F400.000
G1 X-7.897 Y42.779 Z-2.989 F400.000
G1 X-7.944 Y42.695 Z-2.998 F400.000
G1 X-7.974 Y42.604 Z-3.006 F400.000
G1 X-7.986 Y42.509 Z-3.015 F400.000
G1 X-7.979 Y42.413 Z-3.023 F400.000
G1 X-7.954 Y42.320 Z-3.032 F400.000
G1 X-7.910 Y42.234 Z-3.041 F400.000
G1 X-7.851 Y42.159 Z-3.049 F400.000
G1 X-7.779 Y42.096 Z-3.058 F400.000
G1 X-7.695 Y42.048 Z-3.066 F400.000
G1 X-7.604 Y42.018 Z-3.075 F400.000
G1 X-7.509 Y42.006 Z-3.084 F400.000
G1 X-7.413 Y42.013 Z-3.092 F400.000
G1 X-7.320 Y42.039 Z-3.101 F400.000
G1 X-7.234 Y42.082 Z-3.109 F400.000
G1 X-7.159 Y42.141 Z-3.118 F400.000
G1 X-7.096 Y42.214 Z-3.126 F400.000
G1 X-7.048 Y42.297 Z-3.135 F400.000
G1 X-7.018 Y42.389 Z-3.144 F400.000
G1 X-7.006 Y42.484 Z-3.152 F400.000
G1 X-7.013 Y42.580 Z-3.161 F400.000
G1 X-7.039 Y42.672 Z-3.169 F400.000
G1 X-7.082 Y42.758 Z-3.178 F400.000
G1 X-7.141 Y42.834 Z-3.187 F400.000
G1 X-7.214 Y42.897 Z-3.195 F400.000
G1 X-7.297 Y42.944 Z-3.204 F400.000
G1 X-7.389 Y42.974 Z-3.212 F400.000
G1 X-7.484 Y42.986 Z-3.221 F400.000
G1 X-7.580 Y42.979 Z-3.230 F400.000
G1 X-7.672 Y42.954 Z-3.238 F400.000
G1 X-7.758 Y42.910 Z-3.247 F400.000
G1 X-7.834 Y42.851 Z-3.255 F400.000
G1 X-7.897 Y42.779 Z-3.264 F400.000
G1 X-7.944 Y42.695 Z-3.272 F400.000
G1 X-7.974 Y42.604 Z-3.281 F400.000
G1 X-7.986 Y42.509 Z-3.290 F400.000
G1 X-7.979 Y42.413 Z-3.298 F400.000
G1 X-7.954 Y42.320 Z-3.307 F400.000
G1 X-7.910 Y42.234 Z-3.315 F400.000
G1 X-7.851 Y42.159 Z-3.324 F400.000
G1 X-7.779 Y42.096 Z-3.333 F400.000
G1 X-7.695 Y42.048 Z-3.341 F400.000
G1 X-7.604 Y42.018 Z-3.350 F400.000
G1 X-7.509 Y42.006 Z-3.358 F400.000
G1 X-7.413 Y42.013 Z-3.367 F400.000
G1 X-7.320 Y42.039 Z-3.376 F400.000
G1 X-7.234 Y42.082 Z-3.384 F400.000
G1 X-7.159 Y42.141 Z-3.393 F400.000
G1 X-7.096 Y42.214 Z-3.401 F400.000
G1 X-7.048 Y42.297 Z-3.410 F400.000
G1 X-7.018 Y42.389 Z-3.418 F400.000
G1 X-7.006 Y42.484 Z-3.427 F400.000
G1 X-7.013 Y42.580 Z-3.436 F400.000
G1 X-7.039 Y42.672 Z-3.444 F400.000
G1 X-7.082 Y42.758 Z-3.453 F400.000
G1 X-7.141 Y42.834 Z-3.461 F400.000
G1 X-7.214 Y42.897 Z-3.470 F400.000
G1 X-7.297 Y42.944 Z-3.479 F400.000
G1 X-7.389 Y42.974 Z-3.487 F400.000
G1 X-7.484 Y42.986 Z-3.496 F400.000
G1 X-7.580 Y42.979 Z-3.504 F400.000
G1 X-7.672 Y42.954 Z-3.513 F400.000
G1 X-7.758 Y42.910 Z-3.522 F400.000
G1 X-7.834 Y42.851 Z-3.530 F400.000
G1 X-7.897 Y42.779 Z-3.539 F400.000
G1 X-7.944 Y42.695 Z-3.547 F400.000
G1 X-7.974 Y42.604 Z-3.556 F400.000
G1 X-7.986 Y42.509 Z-3.565 F400.000
G1 X-7.979 Y42.413 Z-3.573 F400.000
G1 X-7.954 Y42.320 Z-3.582 F400.000
G1 X-7.910 Y42.234 Z-3.590 F400.000
G1 X-7.851 Y42.159 Z-3.599 F400.000
G1 X-7.779 Y42.096 Z-3.607 F400.000
G1 X-7.695 Y42.048 Z-3.616 F400.000
G1 X-7.604 Y42.018 Z-3.625 F400.000
G1 X-7.509 Y42.006 Z-3.633 F400.000
G1 X-7.413 Y42.013 Z-3.642 F400.000
G1 X-7.320 Y42.039 Z-3.650 F400.000
G1 X-7.234 Y42.082 Z-3.659 F400.000
G1 X-7.159 Y42.141 Z-3.668 F400.000
G1 X-7.096 Y42.214 Z-3.676 F400.000
G1 X-7.048 Y42.297 Z-3.685 F400.000
G1 X-7.018 Y42.389 Z-3.693 F400.000
G1 X-7.006 Y42.484 Z-3.702 F400.000
G1 X-7.013 Y42.580 Z-3.711 F400.000
G1 X-7.039 Y42.672 Z-3.719 F400.000
G1 X-7.082 Y42.758 Z-3.728 F400.000
G1 X-7.141 Y42.834 Z-3.736 F400.000
G1 X-7.214 Y42.897 Z-3.745 F400.000
G1 X-7.297 Y42.944 Z-3.753 F400.000
G1 X-7.389 Y42.974 Z-3.762 F400.000
G1 X-7.484 Y42.986 Z-3.771 F400.000
G1 X-7.580 Y42.979 Z-3.779 F400.000
G1 X-7.672 Y42.954 Z-3.788 F400.000
G1 X-7.758 Y42.910 Z-3.796 F400.000
G1 X-7.834 Y42.851 Z-3.805 F400.000
G1 X-7.897 Y42.779 Z-3.814 F400.000
G1 X-7.944 Y42.695 Z-3.822 F400.000
G1 X-7.974 Y42.604 Z-3.831 F400.000
G1 X-7.986 Y42.509 Z-3.839 F400.000
G1 X-7.979 Y42.413 Z-3.848 F400.000
G1 X-7.954 Y42.320 Z-3.857 F400.000
G1 X-7.910 Y42.234 Z-3.865 F400.000
G1 X-7.851 Y42.159 Z-3.874 F400.000
G1 X-7.779 Y42.096 Z-3.882 F400.000
G1 X-7.695 Y42.048 Z-3.891 F400.000
G1 X-7.604 Y42.018 Z-3.899 F400.000
G1 X-7.509 Y42.006 Z-3.908 F400.000
G1 X-7.413 Y42.013 Z-3.917 F400.000
G1 X-7.320 Y42.039 Z-3.925 F400.000
G1 X-7.234 Y42.082 Z-3.934 F400.000
G1 X-7.159 Y42.141 Z-3.942 F400.000
G1 X-7.096 Y42.214 Z-3.951 F400.000
G1 X-7.048 Y42.297 Z-3.960 F400.000
G1 X-7.018 Y42.389 Z-3.968 F400.000
G1 X-7.006 Y42.484 Z-3.977 F400.000
G1 X-7.013 Y42.580 Z-3.985 F400.000
G1 X-7.039 Y42.672 Z-3.994 F400.000
G1 X-7.082 Y42.758 Z-4.003 F400.000
G1 X-7.141 Y42.834 Z-4.011 F400.000
G1 X-7.214 Y42.897 Z-4.020 F400.000
G1 X-7.297 Y42.944 Z-4.028 F400.000
G1 X-7.389 Y42.974 Z-4.037 F400.000
G1 X-7.484 Y42.986 Z-4.046 F400.000
G1 X-7.580 Y42.979 Z-4.054 F400.000
G1 X-7.672 Y42.954 Z-4.063 F400.000
G1 X-7.758 Y42.910 Z-4.071 F400.000
G1 X-7.834 Y42.851 Z-4.080 F400.000
G1 X-7.897 Y42.779 Z-4.088 F400.000
G1 X-7.944 Y42.695 Z-4.097 F400.000
G1 X-7.974 Y42.604 Z-4.106 F400.000
G1 X-7.986 Y42.509 Z-4.114 F400.000
G1 X-7.979 Y42.413 Z-4.123 F400.000
G1 X-7.954 Y42.320 Z-4.131 F400.000
G1 X-7.910 Y42.234 Z-4.140 F400.000
G1 X-7.851 Y42.159 Z-4.149 F400.000
G1 X-7.779 Y42.096 Z-4.157 F400.000
G1 X-7.695 Y42.048 Z-4.166 F400.000
G1 X-7.604 Y42.018 Z-4.174 F400.000
G1 X-7.509 Y42.006 Z-4.183 F400.000
G1 X-7.413 Y42.013 Z-4.192 F400.000
G1 X-7.320 Y42.039 Z-4.200 F400.000
G1 X-7.234 Y42.082 Z-4.209 F400.000
G1 X-7.159 Y42.141 Z-4.217 F400.000
G1 X-7.096 Y42.214 Z-4.226 F400.000
G1 X-7.048 Y42.297 Z-4.234 F400.000
G1 X-7.018 Y42.389 Z-4.243 F400.000
G1 X-7.006 Y42.484 Z-4.252 F400.000
G1 X-7.013 Y42.580 Z-4.260 F400.000
G1 X-7.039 Y42.672 Z-4.269 F400.000
G1 X-7.082 Y42.758 Z-4.277 F400.000
G1 X-7.141 Y42.834 Z-4.286 F400.000
G1 X-7.214 Y42.897 Z-4.295 F400.000
G1 X-7.297 Y42.944 Z-4.303 F400.000
G1 X-7.389 Y42.974 Z-4.312 F400.000
G1 X-7.484 Y42.986 Z-4.320 F400.000
G1 X-7.580 Y42.979 Z-4.329 F400.000
G1 X-7.672 Y42.954 Z-4.338 F400.000
G1 X-7.758 Y42.910 Z-4.346 F400.000
G1 X-7.834 Y42.851 Z-4.355 F400.000
G1 X-7.897 Y42.779 Z-4.363 F400.000
G1 X-7.944 Y42.695 Z-4.372 F400.000
G1 X-7.974 Y42.604 Z-4.380 F400.000
G1 X-7.986 Y42.509 Z-4.389 F400.000
G1 X-7.979 Y42.413 Z-4.398 F400.000
G1 X-7.954 Y42.320 Z-4.406 F400.000
G1 X-7.910 Y42.234 Z-4.415 F400.000
G1 X-7.851 Y42.159 Z-4.423 F400.000
G1 X-7.779 Y42.096 Z-4.432 F400.000
G1 X-7.695 Y42.048 Z-4.441 F400.000
G1 X-7.604 Y42.018 Z-4.449 F400.000
G1 X-7.509 Y42.006 Z-4.458 F400.000
G1 X-7.413 Y42.013 Z-4.466 F400.000
G1 X-7.320 Y42.039 Z-4.475 F400.000
G1 X-7.234 Y42.082 Z-4.484 F400.000
G1 X-7.159 Y42.141 Z-4.492 F400.000
G1 X-7.096 Y42.214 Z-4.501 F400.000
G1 X-7.048 Y42.297 Z-4.509 F400.000
G1 X-7.018 Y42.389 Z-4.518 F400.000
G1 X-7.006 Y42.484 Z-4.526 F400.000
G1 X-7.013 Y42.580 Z-4.535 F400.000
G1 X-7.039 Y42.672 Z-4.544 F400.000
G1 X-7.082 Y42.758 Z-4.552 F400.000
G1 X-7.141 Y42.834 Z-4.561 F400.000
G1 X-7.214 Y42.897 Z-4.569 F400.000
G1 X-7.297 Y42.944 Z-4.578 F400.000
G1 X-7.389 Y42.974 Z-4.587 F400.000
G1 X-7.484 Y42.986 Z-4.595 F400.000
G1 X-7.580 Y42.979 Z-4.604 F400.000
G1 X-7.672 Y42.954 Z-4.612 F400.000
G1 X-7.758 Y42.910 Z-4.621 F400.000
G1 X-7.834 Y42.851 Z-4.630 F400.000
G1 X-7.897 Y42.779 Z-4.638 F400.000
G1 X-7.944 Y42.695 Z-4.647 F400.000
G1 X-7.974 Y42.604 Z-4.655 F400.000
G1 X-7.986 Y42.509 Z-4.664 F400.000
G1 X-7.979 Y42.413 Z-4.673 F400.000
G1 X-7.954 Y42.320 Z-4.681 F400.000
G1 X-7.910 Y42.234 Z-4.690 F400.000
G1 X-7.851 Y42.159 Z-4.698 F400.000
G1 X-7.779 Y42.096 Z-4.707 F400.000
G1 X-7.695 Y42.048 Z-4.715 F400.000
G1 X-7.604 Y42.018 Z-4.724 F400.000
G1 X-7.509 Y42.006 Z-4.733 F400.000
G1 X-7.413 Y42.013 Z-4.741 F400.000
G1 X-7.320 Y42.039 Z-4.750 F400.000
G1 X-7.234 Y42.082 Z-4.758 F400.000
G1 X-7.159 Y42.141 Z-4.767 F400.000
G1 X-7.096 Y42.214 Z-4.776 F400.000
G1 X-7.048 Y42.297 Z-4.784 F400.000
G1 X-7.018 Y42.389 Z-4.793 F400.000
G1 X-7.006 Y42.484 Z-4.801 F400.000
G1 X-7.013 Y42.580 Z-4.810 F400.000
G1 X-7.039 Y42.672 Z-4.819 F400.000
G1 X-7.082 Y42.758 Z-4.827 F400.000
G1 X-7.141 Y42.834 Z-4.836 F400.000
G1 X-7.214 Y42.897 Z-4.844 F400.000
G1 X-7.297 Y42.944 Z-4.853 F400.000
G1 X-7.389 Y42.974 Z-4.861 F400.000
G1 X-7.484 Y42.986 Z-4.870 F400.000
G1 X-7.580 Y42.979 Z-4.879 F400.000
G1 X-7.672 Y42.954 Z-4.887 F400.000
G1 X-7.758 Y42.910 Z-4.896 F400.000
G1 X-7.834 Y42.851 Z-4.904 F400.000
G1 X-7.897 Y42.779 Z-4.913 F400.000
G1 X-7.944 Y42.695 Z-4.922 F400.000
G1 X-7.974 Y42.604 Z-4.930 F400.000
G1 X-7.986 Y42.509 Z-4.939 F400.000
G1 X-7.979 Y42.413 Z-4.947 F400.000
G1 X-7.954 Y42.320 Z-4.956 F400.000
G1 X-7.910 Y42.234 Z-4.965 F400.000
G1 X-7.851 Y42.159 Z-4.973 F400.000
G1 X-7.779 Y42.096 Z-4.982 F400.000
G1 X-7.695 Y42.048 Z-4.990 F400.000
G1 X-7.604 Y42.018 Z-4.999 F400.000
G1 X-7.509 Y42.006 Z-5.000 F400.000
G1 X-7.413 Y42.013 Z-5.000 F400.000
G1 X-7.320 Y42.039 Z-5.000 F400.000
G1 X-7.234 Y42.082 Z-5.000 F400.000
G1 X-7.159 Y42.141 Z-5.000 F400.000
G1 X-7.096 Y42.214 Z-5.000 F400.000
G1 X-7.048 Y42.297 Z-5.000 F400.000
G1 X-7.018 Y42.389 Z-5.000 F400.000
G1 X-7.006 Y42.484 Z-5.000 F400.000
G1 X-7.013 Y42.580 Z-5.000 F400.000
G1 X-7.039 Y42.672 Z-5.000 F400.000
G1 X-7.082 Y42.758 Z-5.000 F400.000
G1 X-7.141 Y42.834 Z-5.000 F400.000
G1 X-7.214 Y42.897 Z-5.000 F400.000
G1 X-7.297 Y42.944 Z-5.000 F400.000
G1 X-7.389 Y42.974 Z-5.000 F400.000
G1 X-7.484 Y42.986 Z-5.000 F400.000
G1 X-7.580 Y42.979 Z-5.000 F400.000
G1 X-7.672 Y42.954 Z-5.000 F400.000
G1 X-7.758 Y42.910 Z-5.000 F400.000
G1 X-7.834 Y42.851 Z-5.000 F400.000
G1 X-7.897 Y42.779 Z-5.000 F400.000
G1 X-7.944 Y42.695 Z-5.000 F400.000
G1 X-7.974 Y42.604 Z-5.000 F400.000
G1 X-7.986 Y42.509 Z-5.000 F400.000
G1 X-7.979 Y42.413 Z-5.000 F400.000
G1 X-7.954 Y42.320 Z-5.000 F400.000
G1 X-7.910 Y42.234 Z-5.000 F400.000
G1 X-7.851 Y42.159 Z-5.000 F400.000
G1 X-7.779 Y42.096 Z-5.000 F400.000
G1 X-7.695 Y42.048 Z-5.000 F400.000
G1 X-7.604 Y42.018 Z-5.000 F400.000
(Adaptive - depth: -5.000000)
G1 X-7.496 Y41.996 F400.000
G1 X-7.447 Y41.959 F400.000
G1 X-7.387 Y41.940 F400.000
G1 X-7.327 Y41.932 F400.000
G1 X-7.267 Y41.936 F400.000
G1 X-7.150 Y41.970 F400.000
G1 X-7.041 Y42.030 F400.000
G1 X-6.992 Y42.068 F400.000
G1 X-6.857 Y42.282 F400.000
G1 X-6.820 Y42.421 F400.000
G1 X-6.808 Y42.526 F400.000
G1 X-6.820 Y42.647 F400.000
G1 X-6.865 Y42.786 F400.000
G1 X-6.940 Y42.914 F400.000
G1 X-7.030 Y43.015 F400.000
G1 X-7.147 Y43.098 F400.000
G1 X-7.278 Y43.154 F400.000
G1 X-7.417 Y43.184 F400.000
G1 X-7.560 Y43.184 F400.000
G1 X-7.703 Y43.154 F400.000
G1 X-7.831 Y43.098 F400.000
G1 X-7.951 Y43.011 F400.000
G1 X-8.049 Y42.902 F400.000
G1 X-8.120 Y42.774 F400.000
G1 X-8.162 Y42.643 F400.000
G1 X-8.177 Y42.500 F400.000
G1 X-8.162 Y42.361 F400.000
G1 X-8.117 Y42.226 F400.000
G1 X-8.045 Y42.102 F400.000
G1 X-7.910 Y41.947 F400.000
G1 X-7.756 Y41.835 F400.000
G1 X-7.583 Y41.756 F400.000
G1 X-7.402 Y41.718 F400.000
G1 X-7.282 Y41.714 F400.000
G1 X-7.162 Y41.733 F400.000
G1 X-7.045 Y41.774 F400.000
G1 X-6.771 Y41.985 F400.000
G1 X-6.677 Y42.120 F400.000
G1 X-6.628 Y42.222 F400.000
G1 X-6.590 Y42.338 F400.000
G1 X-6.571 Y42.504 F400.000
G1 X-6.583 Y42.680 F400.000
G1 X-6.628 Y42.846 F400.000
G1 X-6.695 Y42.989 F400.000
G1 X-6.793 Y43.124 F400.000
G1 X-6.914 Y43.233 F400.000
G1 X-7.038 Y43.312 F400.000
G1 X-7.184 Y43.372 F400.000
G1 X-7.338 Y43.410 F400.000
G1 X-7.526 Y43.417 F400.000
G1 X-7.692 Y43.398 F400.000
G1 X-7.853 Y43.342 F400.000
G1 X-7.981 Y43.271 F400.000
G1 X-8.109 Y43.169 F400.000
G1 X-8.222 Y43.038 F400.000
G1 X-8.305 Y42.898 F400.000
G1 X-8.361 Y42.741 F400.000
G1 X-8.387 Y42.575 F400.000
G1 X-8.387 Y42.410 F400.000
G1 X-8.357 Y42.244 F400.000
G1 X-8.297 Y42.086 F400.000
G1 X-8.214 Y41.940 F400.000
G1 X-8.102 Y41.797 F400.000
G1 X-7.959 Y41.669 F400.000
G1 X-7.808 Y41.571 F400.000
G1 X-7.635 Y41.500 F400.000
G1 X-7.395 Y41.455 F400.000
G1 X-7.214 Y41.466 F400.000
G1 X-6.974 Y41.523 F400.000
G1 X-6.808 Y41.602 F400.000
G1 X-6.613 Y41.744 F400.000
G1 X-6.455 Y41.925 F400.000
G1 X-6.365 Y42.079 F400.000
G1 X-6.286 Y42.305 F400.000
G1 X-6.256 Y42.530 F400.000
G1 X-6.286 Y42.812 F400.000
G1 X-6.361 Y43.030 F400.000
G1 X-6.481 Y43.226 F400.000
G1 X-6.639 Y43.395 F400.000
G1 X-6.827 Y43.530 F400.000
G1 X-7.090 Y43.639 F400.000
G1 X-7.316 Y43.684 F400.000
G1 X-7.598 Y43.680 F400.000
G1 X-7.767 Y43.647 F400.000
G1 X-7.985 Y43.556 F400.000
G1 X-8.229 Y43.387 F400.000
G1 X-8.350 Y43.252 F400.000
G1 X-8.481 Y43.049 F400.000
G1 X-8.571 Y42.820 F400.000
G1 X-8.617 Y42.519 F400.000
G1 X-8.602 Y42.278 F400.000
G1 X-8.560 Y42.098 F400.000
G1 X-8.429 Y41.812 F400.000
G1 X-8.237 Y41.564 F400.000
G1 X-8.041 Y41.402 F400.000
G1 X-7.823 Y41.278 F400.000
G1 X-7.583 Y41.199 F400.000
G1 X-7.342 Y41.165 F400.000
G1 X-7.102 Y41.177 F400.000
G1 X-6.805 Y41.252 F400.000
G1 X-6.586 Y41.361 F400.000
G1 X-6.440 Y41.474 F400.000
G1 X-6.293 Y41.658 F400.000
G1 X-6.195 Y41.812 F400.000
G1 X-6.071 Y42.143 F400.000
G1 X-6.045 Y42.256 F400.000
G1 X-6.030 Y42.538 F400.000
G1 X-6.079 Y42.876 F400.000
G1 X-6.263 Y43.301 F400.000
G1 X-6.402 Y43.481 F400.000
G1 X-6.526 Y43.605 F400.000
G1 X-6.707 Y43.741 F400.000
G1 X-6.910 Y43.842 F400.000
G1 X-7.184 Y43.932 F400.000
G1 X-7.466 Y43.962 F400.000
G1 X-7.861 Y43.902 F400.000
G1 X-8.030 Y43.842 F400.000
G1 X-8.286 Y43.695 F400.000
G1 X-8.462 Y43.530 F400.000
G1 X-8.643 Y43.286 F400.000
G1 X-8.774 Y43.011 F400.000
G1 X-8.853 Y42.714 F400.000
G1 X-8.872 Y42.414 F400.000
G1 X-8.835 Y42.113 F400.000
G1 X-8.737 Y41.820 F400.000
G1 X-8.575 Y41.553 F400.000
G1 X-8.414 Y41.361 F400.000
G1 X-8.267 Y41.241 F400.000
G1 X-8.038 Y41.135 F400.000
G1 X-7.797 Y41.056 F400.000
G1 X-7.556 Y41.026 F400.000
G1 X-7.256 Y41.049 F400.000
G1 X-6.955 Y41.135 F400.000
G1 X-6.955 Y41.135 F400.000
G1 X-6.850 Y41.203 F400.000
G1 X-6.801 Y41.278 F400.000
G0 X-6.797 Y41.305
G0 X-6.827 Y41.410
G0 X-7.880 Y43.632
G1 X-7.895 Y43.662 F400.000
G1 X-7.955 Y43.771 F400.000
G1 X-8.004 Y43.801 F400.000
G1 X-8.094 Y43.808 F400.000
G1 X-8.218 Y43.778 F400.000
G1 X-8.218 Y43.778 F400.000
G1 X-8.466 Y43.613 F400.000
G1 X-8.669 Y43.391 F400.000
G1 X-8.827 Y43.135 F400.000
G1 X-8.929 Y42.853 F400.000
G1 X-8.974 Y42.553 F400.000
G1 X-8.921 Y42.132 F400.000
G1 X-8.782 Y41.782 F400.000
G1 X-8.602 Y41.523 F400.000
G1 X-8.466 Y41.387 F400.000
G1 X-8.466 Y41.387 F400.000
G1 X-8.447 Y41.380 F400.000
G0 X-8.436 Y41.383
G0 X-8.432 Y41.417
G0 X-8.440 Y41.436
G1 X-8.455 Y41.451 F400.000
G1 X-8.504 Y41.462 F400.000
G1 X-8.534 Y41.451 F400.000
G1 X-8.538 Y41.421 F400.000
G1 X-8.538 Y41.421 F400.000
G1 X-8.368 Y41.278 F400.000
G1 X-8.192 Y41.173 F400.000
G1 X-7.835 Y41.038 F400.000
G1 X-7.748 Y41.019 F400.000
G1 X-7.496 Y41.000 F400.000
G1 X-7.417 Y41.004 F400.000
G1 X-7.211 Y41.034 F400.000
G1 X-7.008 Y41.090 F400.000
G1 X-6.737 Y41.207 F400.000
G1 X-6.579 Y41.316 F400.000
G1 X-6.402 Y41.474 F400.000
G1 X-6.316 Y41.583 F400.000
G1 X-6.184 Y41.778 F400.000
G1 X-6.135 Y41.880 F400.000
G1 X-6.064 Y42.068 F400.000
G1 X-6.023 Y42.267 F400.000
G1 X-6.008 Y42.459 F400.000
G1 X-6.008 Y42.579 F400.000
G1 X-6.049 Y42.850 F400.000
G1 X-6.135 Y43.117 F400.000
G1 X-6.218 Y43.274 F400.000
G1 X-6.361 Y43.474 F400.000
G1 X-6.496 Y43.609 F400.000
G1 X-6.650 Y43.729 F400.000
G1 X-6.816 Y43.827 F400.000
G1 X-7.109 Y43.944 F400.000
G1 X-7.207 Y43.970 F400.000
G1 X-7.376 Y43.989 F400.000
G1 X-7.553 Y43.992 F400.000
G1 X-7.789 Y43.959 F400.000
G1 X-7.992 Y43.902 F400.000
G1 X-8.256 Y43.789 F400.000
G1 X-8.451 Y43.650 F400.000
G1 X-8.662 Y43.447 F400.000
G1 X-8.741 Y43.338 F400.000
G1 X-8.857 Y43.135 F400.000
G1 X-8.959 Y42.831 F400.000
G1 X-8.989 Y42.673 F400.000
G1 X-9.000 Y42.556 F400.000
G1 X-8.996 Y42.474 F400.000
G1 X-8.940 Y42.124 F400.000
G1 X-8.876 Y41.925 F400.000
G1 X-8.812 Y41.786 F400.000
G1 X-8.620 Y41.508 F400.000
G1 X-8.538 Y41.421 F400.000
G1 X-8.538 Y41.421 F400.000
G0 Z5.000
(Helix to depth: -5.000000)
G0 Z5.000
G0 X-7.979 Y20.913 Z5.000
G0 X-7.979 Y20.913 Z3.000
G1 X-7.979 Y20.913 Z0.000 F400.000
G1 X-7.979 Y20.913 Z0.000 F400.000
G1 X-7.954 Y20.820 Z-0.009 F400.000
G1 X-7.910 Y20.734 Z-0.017 F400.000
G1 X-7.851 Y20.659 Z-0.026 F400.000
G1 X-7.779 Y20.596 Z-0.034 F400.000
G1 X-7.695 Y20.548 Z-0.043 F400.000
G1 X-7.604 Y20.518 Z-0.052 F400.000
G1 X-7.509 Y20.506 Z-0.060 F400.000
G1 X-7.413 Y20.513 Z-0.069 F400.000
G1 X-7.320 Y20.539 Z-0.077 F400.000
G1 X-7.234 Y20.582 Z-0.086 F400.000
G1 X-7.159 Y20.641 Z-0.094 F400.000
G1 X-7.096 Y20.714 Z-0.103 F400.000
G1 X-7.048 Y20.797 Z-0.112 F400.000
G1 X-7.018 Y20.889 Z-0.120 F400.000
G1 X-7.006 Y20.984 Z-0.129 F400.000
G1 X-7.013 Y21.080 Z-0.137 F400.000
G1 X-7.039 Y21.172 Z-0.146 F400.000
G1 X-7.082 Y21.258 Z-0.155 F400.000
G1 X-7.141 Y21.334 Z-0.163 F400.000
G1 X-7.214 Y21.397 Z-0.172 F400.000
G1 X-7.297 Y21.444 Z-0.180 F400.000
G1 X-7.389 Y21.474 Z-0.189 F400.000
G1 X-7.484 Y21.486 Z-0.198 F400.000
G1 X-7.580 Y21.479 Z-0.206 F400.000
G1 X-7.672 Y21.454 Z-0.215 F400.000
G1 X-7.758 Y21.410 Z-0.223 F400.000
G1 X-7.834 Y21.351 Z-0.232 F400.000
G1 X-7.897 Y21.279 Z-0.240 F400.000
G1 X-7.944 Y21.195 Z-0.249 F400.000
G1 X-7.974 Y21.104 Z-0.258 F400.000
G1 X-7.986 Y21.009 Z-0.266 F400.000
G1 X-7.979 Y20.913 Z-0.275 F400.000
G1 X-7.954 Y20.820 Z-0.283 F400.000
G1 X-7.910 Y20.734 Z-0.292 F400.000
G1 X-7.851 Y20.659 Z-0.301 F400.000
G1 X-7.779 Y20.596 Z-0.309 F400.000
G1 X-7.695 Y20.548 Z-0.318 F400.000
G1 X-7.604 Y20.518 Z-0.326 F400.000
G1 X-7.509 Y20.506 Z-0.335 F400.000
G1 X-7.413 Y20.513 Z-0.344 F400.000
G1 X-7.320 Y20.539 Z-0.352 F400.000
G1 X-7.234 Y20.582 Z-0.361 F400.000
G1 X-7.159 Y20.641 Z-0.369 F400.000
G1 X-7.096 Y20.714 Z-0.378 F400.000
G1 X-7.048 Y20.797 Z-0.387 F400.000
G1 X-7.018 Y20.889 Z-0.395 F400.000
G1 X-7.006 Y20.984 Z-0.404 F400.000
G1 X-7.013 Y21.080 Z-0.412 F400.000
G1 X-7.039 Y21.172 Z-0.421 F400.000
G1 X-7.082 Y21.258 Z-0.429 F400.000
G1 X-7.141 Y21.334 Z-0.438 F400.000
G1 X-7.214 Y21.397 Z-0.447 F400.000
G1 X-7.297 Y21.444 Z-0.455 F400.000
G1 X-7.389 Y21.474 Z-0.464 F400.000
G1 X-7.484 Y21.486 Z-0.472 F400.000
G1 X-7.580 Y21.479 Z-0.481 F400.000
G1 X-7.672 Y21.454 Z-0.490 F400.000
G1 X-7.758 Y21.410 Z-0.498 F400.000
G1 X-7.834 Y21.351 Z-0.507 F400.000
G1 X-7.897 Y21.279 Z-0.515 F400.000
G1 X-7.944 Y21.195 Z-0.524 F400.000
G1 X-7.974 Y21.104 Z-0.533 F400.000
G1 X-7.986 Y21.009 Z-0.541 F400.000
G1 X-7.979 Y20.913 Z-0.550 F400.000
G1 X-7.954 Y20.820 Z-0.558 F400.000
G1 X-7.910 Y20.734 Z-0.567 F400.000
G1 X-7.851 Y20.659 Z-0.575 F400.000
G1 X-7.779 Y20.596 Z-0.584 F400.000
G1 X-7.695 Y20.548 Z-0.593 F400.000
G1 X-7.604 Y20.518 Z-0.601 F400.000
G1 X-7.509 Y20.506 Z-0.610 F400.000
G1 X-7.413 Y20.513 Z-0.618 F400.000
G1 X-7.320 Y20.539 Z-0.627 F400.000
G1 X-7.234 Y20.582 Z-0.636 F400.000
G1 X-7.159 Y20.641 Z-0.644 F400.000
G1 X-7.096 Y20.714 Z-0.653 F400.000
G1 X-7.048 Y20.797 Z-0.661 F400.000
G1 X-7.018 Y20.889 Z-0.670 F400.000
G1 X-7.006 Y20.984 Z-0.679 F400.000
G1 X-7.013 Y21.080 Z-0.687 F400.000
G1 X-7.039 Y21.172 Z-0.696 F400.000
G1 X-7.082 Y21.258 Z-0.704 F400.000
G1 X-7.141 Y21.334 Z-0.713 F400.000
G1 X-7.214 Y21.397 Z-0.721 F400.000
G1 X-7.297 Y21.444 Z-0.730 F400.000
G1 X-7.389 Y21.474 Z-0.739 F400.000
G1 X-7.484 Y21.486 Z-0.747 F400.000
G1 X-7.580 Y21.479 Z-0.756 F400.000
G1 X-7.672 Y21.454 Z-0.764 F400.000
G1 X-7.758 Y21.410 Z-0.773 F400.000
G1 X-7.834 Y21.351 Z-0.782 F400.000
G1 X-7.897 Y21.279 Z-0.790 F400.000
G1 X-7.944 Y21.195 Z-0.799 F400.000
G1 X-7.974 Y21.104 Z-0.807 F400.000
G1 X-7.986 Y21.009 Z-0.816 F400.000
G1 X-7.979 Y20.913 Z-0.825 F400.000
G1 X-7.954 Y20.820 Z-0.833 F400.000
G1 X-7.910 Y20.734 Z-0.842 F400.000
G1 X-7.851 Y20.659 Z-0.850 F400.000
G1 X-7.779 Y20.596 Z-0.859 F400.000
G1 X-7.695 Y20.548 Z-0.868 F400.000
G1 X-7.604 Y20.518 Z-0.876 F400.000
G1 X-7.509 Y20.506 Z-0.885 F400.000
G1 X-7.413 Y20.513 Z-0.893 F400.000
G1 X-7.320 Y20.539 Z-0.902 F400.000
G1 X-7.234 Y20.582 Z-0.910 F400.000
G1 X-7.159 Y20.641 Z-0.919 F400.000
G1 X-7.096 Y20.714 Z-0.928 F400.000
G1 X-7.048 Y20.797 Z-0.936 F400.000
G1 X-7.018 Y20.889 Z-0.945 F400.000
G1 X-7.006 Y20.984 Z-0.953 F400.000
G1 X-7.013 Y21.080 Z-0.962 F400.000
G1 X-7.039 Y21.172 Z-0.971 F400.000
G1 X-7.082 Y21.258 Z-0.979 F400.000
G1 X-7.141 Y21.334 Z-0.988 F400.000
G1 X-7.214 Y21.397 Z-0.996 F400.000
G1 X-7.297 Y21.444 Z-1.005 F400.000
G1 X-7.389 Y21.474 Z-1.014 F400.000
G1 X-7.484 Y21.486 Z-1.022 F400.000
G1 X-7.580 Y21.479 Z-1.031 F400.000
G1 X-7.672 Y21.454 Z-1.039 F400.000
G1 X-7.758 Y21.410 Z-1.048 F400.000
G1 X-7.834 Y21.351 Z-1.056 F400.000
G1 X-7.897 Y21.279 Z-1.065 F400.000
G1 X-7.944 Y21.195 Z-1.074 F400.000
G1 X-7.974 Y21.104 Z-1.082 F400.000
G1 X-7.986 Y21.009 Z-1.091 F400.000
G1 X-7.979 Y20.913 Z-1.099 F400.000
G1 X-7.954 Y20.820 Z-1.108 F400.000
G1 X-7.910 Y20.734 Z-1.117 F400.000
G1 X-7.851 Y20.659 Z-1.125 F400.000
G1 X-7.779 Y20.596 Z-1.134 F400.000
G1 X-7.695 Y20.548 Z-1.142 F400.000
G1 X-7.604 Y20.518 Z-1.151 F400.000
G1 X-7.509 Y20.506 Z-1.160 F400.000
G1 X-7.413 Y20.513 Z-1.168 F400.000
G1 X-7.320 Y20.539 Z-1.177 F400.000
G1 X-7.234 Y20.582 Z-1.185 F400.000
G1 X-7.159 Y20.641 Z-1.194 F400.000
G1 X-7.096 Y20.714 Z-1.202 F400.000
G1 X-7.048 Y20.797 Z-1.211 F400.000
G1 X-7.018 Y20.889 Z-1.220 F400.000
G1 X-7.006 Y20.984 Z-1.228 F400.000
G1 X-7.013 Y21.080 Z-1.237 F400.000
G1 X-7.039 Y21.172 Z-1.245 F400.000
G1 X-7.082 Y21.258 Z-1.254 F400.000
G1 X-7.141 Y21.334 Z-1.263 F400.000
G1 X-7.214 Y21.397 Z-1.271 F400.000
G1 X-7.297 Y21.444 Z-1.280 F400.000
G1 X-7.389 Y21.474 Z-1.288 F400.000
G1 X-7.484 Y21.486 Z-1.297 F400.000
G1 X-7.580 Y21.479 Z-1.306 F400.000
G1 X-7.672 Y21.454 Z-1.314 F400.000
G1 X-7.758 Y21.410 Z-1.323 F400.000
G1 X-7.834 Y21.351 Z-1.331 F400.000
G1 X-7.897 Y21.279 Z-1.340 F400.000
G1 X-7.944 Y21.195 Z-1.349 F400.000
G1 X-7.974 Y21.104 Z-1.357 F400.000
G1 X-7.986 Y21.009 Z-1.366 F400.000
G1 X-7.979 Y20.913 Z-1.374 F400.000
G1 X-7.954 Y20.820 Z-1.383 F400.000
G1 X-7.910 Y20.734 Z-1.391 F400.000
G1 X-7.851 Y20.659 Z-1.400 F400.000
G1 X-7.779 Y20.596 Z-1.409 F400.000
G1 X-7.695 Y20.548 Z-1.417 F400.000
G1 X-7.604 Y20.518 Z-1.426 F400.000
G1 X-7.509 Y20.506 Z-1.434 F400.000
G1 X-7.413 Y20.513 Z-1.443 F400.000
G1 X-7.320 Y20.539 Z-1.452 F400.000
G1 X-7.234 Y20.582 Z-1.460 F400.000
G1 X-7.159 Y20.641 Z-1.469 F400.000
G1 X-7.096 Y20.714 Z-1.477 F400.000
G1 X-7.048 Y20.797 Z-1.486 F400.000
G1 X-7.018 Y20.889 Z-1.495 F400.000
G1 X-7.006 Y20.984 Z-1.503 F400.000
G1 X-7.013 Y21.080 Z-1.512 F400.000
G1 X-7.039 Y21.172 Z-1.520 F400.000
G1 X-7.082 Y21.258 Z-1.529 F400.000
G1 X-7.141 Y21.334 Z-1.537 F400.000
G1 X-7.214 Y21.397 Z-1.546 F400.000
G1 X-7.297 Y21.444 Z-1.555 F400.000
G1 X-7.389 Y21.474 Z-1.563 F400.000
G1 X-7.484 Y21.486 Z-1.572 F400.000
G1 X-7.580 Y21.479 Z-1.580 F400.000
G1 X-7.672 Y21.454 Z-1.589 F400.000
G1 X-7.758 Y21.410 Z-1.598 F400.000
G1 X-7.834 Y21.351 Z-1.606 F400.000
G1 X-7.897 Y21.279 Z-1.615 F400.000
G1 X-7.944 Y21.195 Z-1.623 F400.000
G1 X-7.974 Y21.104 Z-1.632 F400.000
G1 X-7.986 Y21.009 Z-1.641 F400.000
G1 X-7.979 Y20.913 Z-1.649 F400.000
G1 X-7.954 Y20.820 Z-1.658 F400.000
G1 X-7.910 Y20.734 Z-1.666 F400.000
G1 X-7.851 Y20.659 Z-1.675 F400.000
G1 X-7.779 Y20.596 Z-1.683 F400.000
G1 X-7.695 Y20.548 Z-1.692 F400.000
G1 X-7.604 Y20.518 Z-1.701 F400.000
G1 X-7.509 Y20.506 Z-1.709 F400.000
G1 X-7.413 Y20.513 Z-1.718 F400.000
G1 X-7.320 Y20.539 Z-1.726 F400.000
G1 X-7.234 Y20.582 Z-1.735 F400.000
G1 X-7.159 Y20.641 Z-1.744 F400.000
G1 X-7.096 Y20.714 Z-1.752 F400.000
G1 X-7.048 Y20.797 Z-1.761 F400.000
G1 X-7.018 Y20.889 Z-1.769 F400.000
G1 X-7.006 Y20.984 Z-1.778 F400.000
G1 X-7.013 Y21.080 Z-1.787 F400.000
G1 X-7.039 Y21.172 Z-1.795 F400.000
G1 X-7.082 Y21.258 Z-1.804 F400.000
G1 X-7.141 Y21.334 Z-1.812 F400.000
G1 X-7.214 Y21.397 Z-1.821 F400.000
G1 X-7.297 Y21.444 Z-1.829 F400.000
G1 X-7.389 Y21.474 Z-1.838 F400.000
G1 X-7.484 Y21.486 Z-1.847 F400.000
G1 X-7.580 Y21.479 Z-1.855 F400.000
G1 X-7.672 Y21.454 Z-1.864 F400.000
G1 X-7.758 Y21.410 Z-1.872 F400.000
G1 X-7.834 Y21.351 Z-1.881 F400.000
G1 X-7.897 Y21.279 Z-1.890 F400.000
G1 X-7.944 Y21.195 Z-1.898 F400.000
G1 X-7.974 Y21.104 Z-1.907 F400.000
G1 X-7.986 Y21.009 Z-1.915 F400.000
G1 X-7.979 Y20.913 Z-1.924 F400.000
G1 X-7.954 Y20.820 Z-1.933 F400.000
G1 X-7.910 Y20.734 Z-1.941 F400.000
G1 X-7.851 Y20.659 Z-1.950 F400.000
G1 X-7.779 Y20.596 Z-1.958 F400.000
G1 X-7.695 Y20.548 Z-1.967 F400.000
G1 X-7.604 Y20.518 Z-1.976 F400.000
G1 X-7.509 Y20.506 Z-1.984 F400.000
G1 X-7.413 Y20.513 Z-1.993 F400.000
G1 X-7.320 Y20.539 Z-2.001 F400.000
G1 X-7.234 Y20.582 Z-2.010 F400.000
G1 X-7.159 Y20.641 Z-2.018 F400.000
G1 X-7.096 Y20.714 Z-2.027 F400.000
G1 X-7.048 Y20.797 Z-2.036 F400.000
G1 X-7.018 Y20.889 Z-2.044 F400.000
G1 X-7.006 Y20.984 Z-2.053 F400.000
G1 X-7.013 Y21.080 Z-2.061 F400.000
G1 X-7.039 Y21.172 Z-2.070 F400.000
G1 X-7.082 Y21.258 Z-2.079 F400.000
G1 X-7.141 Y21.334 Z-2.087 F400.000
G1 X-7.214 Y21.397 Z-2.096 F400.000
G1 X-7.297 Y21.444 Z-2.104 F400.000
G1 X-7.389 Y21.474 Z-2.113 F400.000
G1 X-7.484 Y21.486 Z-2.122 F400.000
G1 X-7.580 Y21.479 Z-2.130 F400.000
G1 X-7.672 Y21.454 Z-2.139 F400.000
G1 X-7.758 Y21.410 Z-2.147 F400.000
G1 X-7.834 Y21.351 Z-2.156 F400.000
G1 X-7.897 Y21.279 Z-2.164 F400.000
G1 X-7.944 Y21.195 Z-2.173 F400.000
G1 X-7.974 Y21.104 Z-2.182 F400.000
G1 X-7.986 Y21.009 Z-2.190 F400.000
G1 X-7.979 Y20.913 Z-2.199 F400.000
G1 X-7.954 Y20.820 Z-2.207 F400.000
G1 X-7.910 Y20.734 Z-2.216 F400.000
G1 X-7.851 Y20.659 Z-2.225 F400.000
G1 X-7.779 Y20.596 Z-2.233 F400.000
G1 X-7.695 Y20.548 Z-2.242 F400.000
G1 X-7.604 Y20.518 Z-2.250 F400.000
G1 X-7.509 Y20.506 Z-2.259 F400.000
G1 X-7.413 Y20.513 Z-2.268 F400.000
G1 X-7.320 Y20.539 Z-2.276 F400.000
G1 X-7.234 Y20.582 Z-2.285 F400.000
G1 X-7.159 Y20.641 Z-2.293 F400.000
G1 X-7.096 Y20.714 Z-2.302 F400.000
G1 X-7.048 Y20.797 Z-2.310 F400.000
G1 X-7.018 Y20.889 Z-2.319 F400.000
G1 X-7.006 Y20.984 Z-2.328 F400.000
G1 X-7.013 Y21.080 Z-2.336 F400.000
G1 X-7.039 Y21.172 Z-2.345 F400.000
G1 X-7.082 Y21.258 Z-2.353 F400.000
G1 X-7.141 Y21.334 Z-2.362 F400.000
G1 X-7.214 Y21.397 Z-2.371 F400.000
G1 X-7.297 Y21.444 Z-2.379 F400.000
G1 X-7.389 Y21.474 Z-2.388 F400.000
G1 X-7.484 Y21.486 Z-2.396 F400.000
G1 X-7.580 Y21.479 Z-2.405 F400.000
G1 X-7.672 Y21.454 Z-2.414 F400.000
G1 X-7.758 Y21.410 Z-2.422 F400.000
G1 X-7.834 Y21.351 Z-2.431 F400.000
G1 X-7.897 Y21.279 Z-2.439 F400.000
G1 X-7.944 Y21.195 Z-2.448 F400.000
G1 X-7.974 Y21.104 Z-2.457 F400.000
G1 X-7.986 Y21.009 Z-2.465 F400.000
G1 X-7.979 Y20.913 Z-2.474 F400.000
G1 X-7.954 Y20.820 Z-2.482 F400.000
G1 X-7.910 Y20.734 Z-2.491 F400.000
G1 X-7.851 Y20.659 Z-2.499 F400.000
G1 X-7.779 Y20.596 Z-2.508 F400.000
G1 X-7.695 Y20.548 Z-2.517 F400.000
G1 X-7.604 Y20.518 Z-2.525 F400.000
G1 X-7.509 Y20.506 Z-2.534 F400.000
G1 X-7.413 Y20.513 Z-2.542 F400.000
G1 X-7.320 Y20.539 Z-2.551 F400.000
G1 X-7.234 Y20.582 Z-2.560 F400.000
G1 X-7.159 Y20.641 Z-2.568 F400.000
G1 X-7.096 Y20.714 Z-2.577 F400.000
G1 X-7.048 Y20.797 Z-2.585 F400.000
G1 X-7.018 Y20.889 Z-2.594 F400.000
G1 X-7.006 Y20.984 Z-2.603 F400.000
G1 X-7.013 Y21.080 Z-2.611 F400.000
G1 X-7.039 Y21.172 Z-2.620 F400.000
G1 X-7.082 Y21.258 Z-2.628 F400.000
G1 X-7.141 Y21.334 Z-2.637 F400.000
G1 X-7.214 Y21.397 Z-2.645 F400.000
G1 X-7.297 Y21.444 Z-2.654 F400.000
G1 X-7.389 Y21.474 Z-2.663 F400.000
G1 X-7.484 Y21.486 Z-2.671 F400.000
G1 X-7.580 Y21.479 Z-2.680 F400.000
G1 X-7.672 Y21.454 Z-2.688 F400.000
G1 X-7.758 Y21.410 Z-2.697 F400.000
G1 X-7.834 Y21.351 Z-2.706 F400.000
G1 X-7.897 Y21.279 Z-2.714 F400.000
G1 X-7.944 Y21.195 Z-2.723 F400.000
G1 X-7.974 Y21.104 Z-2.731 F400.000
G1 X-7.986 Y21.009 Z-2.740 F400.000
G1 X-7.979 Y20.913 Z-2.749 F400.000
G1 X-7.954 Y20.820 Z-2.757 F400.000
G1 X-7.910 Y20.734 Z-2.766 F400.000
G1 X-7.851 Y20.659 Z-2.774 F400.000
G1 X-7.779 Y20.596 Z-2.783 F400.000
G1 X-7.695 Y20.548 Z-2.791 F400.000
G1 X-7.604 Y20.518 Z-2.800 F400.000
G1 X-7.509 Y20.506 Z-2.809 F400.000
G1 X-7.413 Y20.513 Z-2.817 F400.000
G1 X-7.320 Y20.539 Z-2.826 F400.000
G1 X-7.234 Y20.582 Z-2.834 F400.000
G1 X-7.159 Y20.641 Z-2.843 F400.000
G1 X-7.096 Y20.714 Z-2.852 F400.000
G1 X-7.048 Y20.797 Z-2.860 F400.000
G1 X-7.018 Y20.889 Z-2.869 F400.000
G1 X-7.006 Y20.984 Z-2.877 F400.000
G1 X-7.013 Y21.080 Z-2.886 F400.000
G1 X-7.039 Y21.172 Z-2.895 F400.000
G1 X-7.082 Y21.258 Z-2.903 F400.000
G1 X-7.141 Y21.334 Z-2.912 F400.000
G1 X-7.214 Y21.397 Z-2.920 F400.000
G1 X-7.297 Y21.444 Z-2.929 F400.000
G1 X-7.389 Y21.474 Z-2.937 F400.000
G1 X-7.484 Y21.486 Z-2.946 F400.000
G1 X-7.580 Y21.479 Z-2.955 F400.000
G1 X-7.672 Y21.454 Z-2.963 F400.000
G1 X-7.758 Y21.410 Z-2.972 F400.000
G1 X-7.834 Y21.351 Z-2.980 F400.000
G1 X-7.897 Y21.279 Z-2.989 F400.000
G1 X-7.944 Y21.195 Z-2.998 F400.000
G1 X-7.974 Y21.104 Z-3.006 F400.000
G1 X-7.986 Y21.009 Z-3.015 F400.000
G1 X-7.979 Y20.913 Z-3.023 F400.000
G1 X-7.954 Y20.820 Z-3.032 F400.000
G1 X-7.910 Y20.734 Z-3.041 F400.000
G1 X-7.851 Y20.659 Z-3.049 F400.000
G1 X-7.779 Y20.596 Z-3.058 F400.000
G1 X-7.695 Y20.548 Z-3.066 F400.000
G1 X-7.604 Y20.518 Z-3.075 F400.000
G1 X-7.509 Y20.506 Z-3.084 F400.000
G1 X-7.413 Y20.513 Z-3.092 F400.000
G1 X-7.320 Y20.539 Z-3.101 F400.000
G1 X-7.234 Y20.582 Z-3.109 F400.000
G1 X-7.159 Y20.641 Z-3.118 F400.000
G1 X-7.096 Y20.714 Z-3.126 F400.000
G1 X-7.048 Y20.797 Z-3.135 F400.000
G1 X-7.018 Y20.889 Z-3.144 F400.000
G1 X-7.006 Y20.984 Z-3.152 F400.000
G1 X-7.013 Y21.080 Z-3.161 F400.000
G1 X-7.039 Y21.172 Z-3.169 F400.000
G1 X-7.082 Y21.258 Z-3.178 F400.000
G1 X-7.141 Y21.334 Z-3.187 F400.000
G1 X-7.214 Y21.397 Z-3.195 F400.000
G1 X-7.297 Y21.444 Z-3.204 F400.000
G1 X-7.389 Y21.474 Z-3.212 F400.000
G1 X-7.484 Y21.486 Z-3.221 F400.000
G1 X-7.580 Y21.479 Z-3.230 F400.000
G1 X-7.672 Y21.454 Z-3.238 F400.000
G1 X-7.758 Y21.410 Z-3.247 F400.000
G1 X-7.834 Y21.351 Z-3.255 F400.000
G1 X-7.897 Y21.279 Z-3.264 F400.000
G1 X-7.944 Y21.195 Z-3.272 F400.000
G1 X-7.974 Y21.104 Z-3.281 F400.000
G1 X-7.986 Y21.009 Z-3.290 F400.000
G1 X-7.979 Y20.913 Z-3.298 F400.000
G1 X-7.954 Y20.820 Z-3.307 F400.000
G1 X-7.910 Y20.734 Z-3.315 F400.000
G1 X-7.851 Y20.659 Z-3.324 F400.000
G1 X-7.779 Y20.596 Z-3.333 F400.000
G1 X-7.695 Y20.548 Z-3.341 F400.000
G1 X-7.604 Y20.518 Z-3.350 F400.000
G1 X-7.509 Y20.506 Z-3.358 F400.000
G1 X-7.413 Y20.513 Z-3.367 F400.000
G1 X-7.320 Y20.539 Z-3.376 F400.000
G1 X-7.234 Y20.582 Z-3.384 F400.000
G1 X-7.159 Y20.641 Z-3.393 F400.000
G1 X-7.096 Y20.714 Z-3.401 F400.000
G1 X-7.048 Y20.797 Z-3.410 F400.000
G1 X-7.018 Y20.889 Z-3.418 F400.000
G1 X-7.006 Y20.984 Z-3.427 F400.000
G1 X-7.013 Y21.080 Z-3.436 F400.000
G1 X-7.039 Y21.172 Z-3.444 F400.000
G1 X-7.082 Y21.258 Z-3.453 F400.000
G1 X-7.141 Y21.334 Z-3.461 F400.000
G1 X-7.214 Y21.397 Z-3.470 F400.000
G1 X-7.297 Y21.444 Z-3.479 F400.000
G1 X-7.389 Y21.474 Z-3.487 F400.000
G1 X-7.484 Y21.486 Z-3.496 F400.000
G1 X-7.580 Y21.479 Z-3.504 F400.000
G1 X-7.672 Y21.454 Z-3.513 F400.000
G1 X-7.758 Y21.410 Z-3.522 F400.000
G1 X-7.834 Y21.351 Z-3.530 F400.000
G1 X-7.897 Y21.279 Z-3.539 F400.000
G1 X-7.944 Y21.195 Z-3.547 F400.000
G1 X-7.974 Y21.104 Z-3.556 F400.000
G1 X-7.986 Y21.009 Z-3.565 F400.000
G1 X-7.979 Y20.913 Z-3.573 F400.000
G1 X-7.954 Y20.820 Z-3.582 F400.000
G1 X-7.910 Y20.734 Z-3.590 F400.000
G1 X-7.851 Y20.659 Z-3.599 F400.000
G1 X-7.779 Y20.596 Z-3.607 F400.000
G1 X-7.695 Y20.548 Z-3.616 F400.000
G1 X-7.604 Y20.518 Z-3.625 F400.000
G1 X-7.509 Y20.506 Z-3.633 F400.000
G1 X-7.413 Y20.513 Z-3.642 F400.000
G1 X-7.320 Y20.539 Z-3.650 F400.000
G1 X-7.234 Y20.582 Z-3.659 F400.000
G1 X-7.159 Y20.641 Z-3.668 F400.000
G1 X-7.096 Y20.714 Z-3.676 F400.000
G1 X-7.048 Y20.797 Z-3.685 F400.000
G1 X-7.018 Y20.889 Z-3.693 F400.000
G1 X-7.006 Y20.984 Z-3.702 F400.000
G1 X-7.013 Y21.080 Z-3.711 F400.000
G1 X-7.039 Y21.172 Z-3.719 F400.000
G1 X-7.082 Y21.258 Z-3.728 F400.000
G1 X-7.141 Y21.334 Z-3.736 F400.000
G1 X-7.214 Y21.397 Z-3.745 F400.000
G1 X-7.297 Y21.444 Z-3.753 F400.000
G1 X-7.389 Y21.474 Z-3.762 F400.000
G1 X-7.484 Y21.486 Z-3.771 F400.000
G1 X-7.580 Y21.479 Z-3.779 F400.000
G1 X-7.672 Y21.454 Z-3.788 F400.000
G1 X-7.758 Y21.410 Z-3.796 F400.000
G1 X-7.834 Y21.351 Z-3.805 F400.000
G1 X-7.897 Y21.279 Z-3.814 F400.000
G1 X-7.944 Y21.195 Z-3.822 F400.000
G1 X-7.974 Y21.104 Z-3.831 F400.000
G1 X-7.986 Y21.009 Z-3.839 F400.000
G1 X-7.979 Y20.913 Z-3.848 F400.000
G1 X-7.954 Y20.820 Z-3.857 F400.000
G1 X-7.910 Y20.734 Z-3.865 F400.000
G1 X-7.851 Y20.659 Z-3.874 F400.000
G1 X-7.779 Y20.596 Z-3.882 F400.000
G1 X-7.695 Y20.548 Z-3.891 F400.000
G1 X-7.604 Y20.518 Z-3.899 F400.000
G1 X-7.509 Y20.506 Z-3.908 F400.000
G1 X-7.413 Y20.513 Z-3.917 F400.000
G1 X-7.320 Y20.539 Z-3.925 F400.000
G1 X-7.234 Y20.582 Z-3.934 F400.000
G1 X-7.159 Y20.641 Z-3.942 F400.000
G1 X-7.096 Y20.714 Z-3.951 F400.000
G1 X-7.048 Y20.797 Z-3.960 F400.000
G1 X-7.018 Y20.889 Z-3.968 F400.000
G1 X-7.006 Y20.984 Z-3.977 F400.000
G1 X-7.013 Y21.080 Z-3.985 F400.000
G1 X-7.039 Y21.172 Z-3.994 F400.000
G1 X-7.082 Y21.258 Z-4.003 F400.000
G1 X-7.141 Y21.334 Z-4.011 F400.000
G1 X-7.214 Y21.397 Z-4.020 F400.000
G1 X-7.297 Y21.444 Z-4.028 F400.000
G1 X-7.389 Y21.474 Z-4.037 F400.000
G1 X-7.484 Y21.486 Z-4.046 F400.000
G1 X-7.580 Y21.479 Z-4.054 F400.000
G1 X-7.672 Y21.454 Z-4.063 F400.000
G1 X-7.758 Y21.410 Z-4.071 F400.000
G1 X-7.834 Y21.351 Z-4.080 F400.000
G1 X-7.897 Y21.279 Z-4.088 F400.000
G1 X-7.944 Y21.195 Z-4.097 F400.000
G1 X-7.974 Y21.104 Z-4.106 F400.000
G1 X-7.986 Y21.009 Z-4.114 F400.000
G1 X-7.979 Y20.913 Z-4.123 F400.000
G1 X-7.954 Y20.820 Z-4.131 F400.000
G1 X-7.910 Y20.734 Z-4.140 F400.000
G1 X-7.851 Y20.659 Z-4.149 F400.000
G1 X-7.779 Y20.596 Z-4.157 F400.000
G1 X-7.695 Y20.548 Z-4.166 F400.000
G1 X-7.604 Y20.518 Z-4.174 F400.000
G1 X-7.509 Y20.506 Z-4.183 F400.000
G1 X-7.413 Y20.513 Z-4.192 F400.000
G1 X-7.320 Y20.539 Z-4.200 F400.000
G1 X-7.234 Y20.582 Z-4.209 F400.000
G1 X-7.159 Y20.641 Z-4.217 F400.000
G1 X-7.096 Y20.714 Z-4.226 F400.000
G1 X-7.048 Y20.797 Z-4.234 F400.000
G1 X-7.018 Y20.889 Z-4.243 F400.000
G1 X-7.006 Y20.984 Z-4.252 F400.000
G1 X-7.013 Y21.080 Z-4.260 F400.000
G1 X-7.039 Y21.172 Z-4.269 F400.000
G1 X-7.082 Y21.258 Z-4.277 F400.000
G1 X-7.141 Y21.334 Z-4.286 F400.000
G1 X-7.214 Y21.397 Z-4.295 F400.000
G1 X-7.297 Y21.444 Z-4.303 F400.000
G1 X-7.389 Y21.474 Z-4.312 F400.000
G1 X-7.484 Y21.486 Z-4.320 F400.000
G1 X-7.580 Y21.479 Z-4.329 F400.000
G1 X-7.672 Y21.454 Z-4.338 F400.000
G1 X-7.758 Y21.410 Z-4.346 F400.000
G1 X-7.834 Y21.351 Z-4.355 F400.000
G1 X-7.897 Y21.279 Z-4.363 F400.000
G1 X-7.944 Y21.195 Z-4.372 F400.000
G1 X-7.974 Y21.104 Z-4.380 F400.000
G1 X-7.986 Y21.009 Z-4.389 F400.000
G1 X-7.979 Y20.913 Z-4.398 F400.000
G1 X-7.954 Y20.820 Z-4.406 F400.000
G1 X-7.910 Y20.734 Z-4.415 F400.000
G1 X-7.851 Y20.659 Z-4.423 F400.000
G1 X-7.779 Y20.596 Z-4.432 F400.000
G1 X-7.695 Y20.548 Z-4.441 F400.000
G1 X-7.604 Y20.518 Z-4.449 F400.000
G1 X-7.509 Y20.506 Z-4.458 F400.000
G1 X-7.413 Y20.513 Z-4.466 F400.000
G1 X-7.320 Y20.539 Z-4.475 F400.000
G1 X-7.234 Y20.582 Z-4.484 F400.000
G1 X-7.159 Y20.641 Z-4.492 F400.000
G1 X-7.096 Y20.714 Z-4.501 F400.000
G1 X-7.048 Y20.797 Z-4.509 F400.000
G1 X-7.018 Y20.889 Z-4.518 F400.000
G1 X-7.006 Y20.984 Z-4.526 F400.000
G1 X-7.013 Y21.080 Z-4.535 F400.000
G1 X-7.039 Y21.172 Z-4.544 F400.000
G1 X-7.082 Y21.258 Z-4.552 F400.000
G1 X-7.141 Y21.334 Z-4.561 F400.000
G1 X-7.214 Y21.397 Z-4.569 F400.000
G1 X-7.297 Y21.444 Z-4.578 F400.000
G1 X-7.389 Y21.474 Z-4.587 F400.000
G1 X-7.484 Y21.486 Z-4.595 F400.000
G1 X-7.580 Y21.479 Z-4.604 F400.000
G1 X-7.672 Y21.454 Z-4.612 F400.000
G1 X-7.758 Y21.410 Z-4.621 F400.000
G1 X-7.834 Y21.351 Z-4.630 F400.000
G1 X-7.897 Y21.279 Z-4.638 F400.000
G1 X-7.944 Y21.195 Z-4.647 F400.000
G1 X-7.974 Y21.104 Z-4.655 F400.000
G1 X-7.986 Y21.009 Z-4.664 F400.000
G1 X-7.979 Y20.913 Z-4.673 F400.000
G1 X-7.954 Y20.820 Z-4.681 F400.000
G1 X-7.910 Y20.734 Z-4.690 F400.000
G1 X-7.851 Y20.659 Z-4.698 F400.000
G1 X-7.779 Y20.596 Z-4.707 F400.000
G1 X-7.695 Y20.548 Z-4.715 F400.000
G1 X-7.604 Y20.518 Z-4.724 F400.000
G1 X-7.509 Y20.506 Z-4.733 F400.000
G1 X-7.413 Y20.513 Z-4.741 F400.000
G1 X-7.320 Y20.539 Z-4.750 F400.000
G1 X-7.234 Y20.582 Z-4.758 F400.000
G1 X-7.159 Y20.641 Z-4.767 F400.000
G1 X-7.096 Y20.714 Z-4.776 F400.000
G1 X-7.048 Y20.797 Z-4.784 F400.000
G1 X-7.018 Y20.889 Z-4.793 F400.000
G1 X-7.006 Y20.984 Z-4.801 F400.000
G1 X-7.013 Y21.080 Z-4.810 F400.000
G1 X-7.039 Y21.172 Z-4.819 F400.000
G1 X-7.082 Y21.258 Z-4.827 F400.000
G1 X-7.141 Y21.334 Z-4.836 F400.000
G1 X-7.214 Y21.397 Z-4.844 F400.000
G1 X-7.297 Y21.444 Z-4.853 F400.000
G1 X-7.389 Y21.474 Z-4.861 F400.000
G1 X-7.484 Y21.486 Z-4.870 F400.000
G1 X-7.580 Y21.479 Z-4.879 F400.000
G1 X-7.672 Y21.454 Z-4.887 F400.000
G1 X-7.758 Y21.410 Z-4.896 F400.000
G1 X-7.834 Y21.351 Z-4.904 F400.000
G1 X-7.897 Y21.279 Z-4.913 F400.000
G1 X-7.944 Y21.195 Z-4.922 F400.000
G1 X-7.974 Y21.104 Z-4.930 F400.000
G1 X-7.986 Y21.009 Z-4.939 F400.000
G1 X-7.979 Y20.913 Z-4.947 F400.000
G1 X-7.954 Y20.820 Z-4.956 F400.000
G1 X-7.910 Y20.734 Z-4.965 F400.000
G1 X-7.851 Y20.659 Z-4.973 F400.000
G1 X-7.779 Y20.596 Z-4.982 F400.000
G1 X-7.695 Y20.548 Z-4.990 F400.000
G1 X-7.604 Y20.518 Z-4.999 F400.000
G1 X-7.509 Y20.506 Z-5.000 F400.000
G1 X-7.413 Y20.513 Z-5.000 F400.000
G1 X-7.320 Y20.539 Z-5.000 F400.000
G1 X-7.234 Y20.582 Z-5.000 F400.000
G1 X-7.159 Y20.641 Z-5.000 F400.000
G1 X-7.096 Y20.714 Z-5.000 F400.000
G1 X-7.048 Y20.797 Z-5.000 F400.000
G1 X-7.018 Y20.889 Z-5.000 F400.000
G1 X-7.006 Y20.984 Z-5.000 F400.000
G1 X-7.013 Y21.080 Z-5.000 F400.000
G1 X-7.039 Y21.172 Z-5.000 F400.000
G1 X-7.082 Y21.258 Z-5.000 F400.000
G1 X-7.141 Y21.334 Z-5.000 F400.000
G1 X-7.214 Y21.397 Z-5.000 F400.000
G1 X-7.297 Y21.444 Z-5.000 F400.000
G1 X-7.389 Y21.474 Z-5.000 F400.000
G1 X-7.484 Y21.486 Z-5.000 F400.000
G1 X-7.580 Y21.479 Z-5.000 F400.000
G1 X-7.672 Y21.454 Z-5.000 F400.000
G1 X-7.758 Y21.410 Z-5.000 F400.000
G1 X-7.834 Y21.351 Z-5.000 F400.000
G1 X-7.897 Y21.279 Z-5.000 F400.000
G1 X-7.944 Y21.195 Z-5.000 F400.000
G1 X-7.974 Y21.104 Z-5.000 F400.000
G1 X-7.986 Y21.009 Z-5.000 F400.000
G1 X-7.979 Y20.913 Z-5.000 F400.000
G1 X-7.954 Y20.820 Z-5.000 F400.000
G1 X-7.910 Y20.734 Z-5.000 F400.000
G1 X-7.851 Y20.659 Z-5.000 F400.000
G1 X-7.779 Y20.596 Z-5.000 F400.000
G1 X-7.695 Y20.548 Z-5.000 F400.000
G1 X-7.604 Y20.518 Z-5.000 F400.000
(Adaptive - depth: -5.000000)
G1 X-7.496 Y20.496 F400.000
G1 X-7.447 Y20.459 F400.000
G1 X-7.387 Y20.440 F400.000
G1 X-7.327 Y20.432 F400.000
G1 X-7.267 Y20.436 F400.000
G1 X-7.150 Y20.470 F400.000
G1 X-7.041 Y20.530 F400.000
G1 X-6.992 Y20.568 F400.000
G1 X-6.857 Y20.782 F400.000
G1 X-6.820 Y20.921 F400.000
G1 X-6.808 Y21.026 F400.000
G1 X-6.820 Y21.147 F400.000
G1 X-6.865 Y21.286 F400.000
G1 X-6.940 Y21.414 F400.000
G1 X-7.030 Y21.515 F400.000
G1 X-7.147 Y21.598 F400.000
G1 X-7.278 Y21.654 F400.000
G1 X-7.417 Y21.684 F400.000
G1 X-7.560 Y21.684 F400.000
G1 X-7.703 Y21.654 F400.000
G1 X-7.831 Y21.598 F400.000
G1 X-7.951 Y21.511 F400.000
G1 X-8.049 Y21.402 F400.000
G1 X-8.120 Y21.274 F400.000
G1 X-8.162 Y21.143 F400.000
G1 X-8.177 Y21.000 F400.000
G1 X-8.162 Y20.861 F400.000
G1 X-8.117 Y20.726 F400.000
G1 X-8.045 Y20.602 F400.000
G1 X-7.910 Y20.447 F400.000
G1 X-7.756 Y20.335 F400.000
G1 X-7.583 Y20.256 F400.000
G1 X-7.402 Y20.218 F400.000
G1 X-7.282 Y20.214 F400.000
G1 X-7.162 Y20.233 F400.000
G1 X-7.045 Y20.274 F400.000
G1 X-6.771 Y20.485 F400.000
G1 X-6.677 Y20.620 F400.000
G1 X-6.628 Y20.722 F400.000
G1 X-6.590 Y20.838 F400.000
G1 X-6.571 Y21.004 F400.000
G1 X-6.583 Y21.180 F400.000
G1 X-6.628 Y21.346 F400.000
G1 X-6.695 Y21.489 F400.000
G1 X-6.793 Y21.624 F400.000
G1 X-6.914 Y21.733 F400.000
G1 X-7.038 Y21.812 F400.000
G1 X-7.184 Y21.872 F400.000
G1 X-7.338 Y21.910 F400.000
G1 X-7.526 Y21.917 F400.000
G1 X-7.692 Y21.898 F400.000
G1 X-7.853 Y21.842 F400.000
G1 X-7.981 Y21.771 F400.000
G1 X-8.109 Y21.669 F400.000
G1 X-8.222 Y21.538 F400.000
G1 X-8.305 Y21.398 F400.000
G1 X-8.361 Y21.241 F400.000
G1 X-8.387 Y21.075 F400.000
G1 X-8.387 Y20.910 F400.000
G1 X-8.357 Y20.744 F400.000
G1 X-8.297 Y20.586 F400.000
G1 X-8.214 Y20.440 F400.000
G1 X-8.102 Y20.297 F400.000
G1 X-7.959 Y20.169 F400.000
G1 X-7.808 Y20.071 F400.000
G1 X-7.635 Y20.000 F400.000
G1 X-7.395 Y19.955 F400.000
G1 X-7.214 Y19.966 F400.000
G1 X-6.974 Y20.023 F400.000
G1 X-6.808 Y20.102 F400.000
G1 X-6.613 Y20.244 F400.000
G1 X-6.455 Y20.425 F400.000
G1 X-6.365 Y20.579 F400.000
G1 X-6.286 Y20.805 F400.000
G1 X-6.256 Y21.030 F400.000
G1 X-6.286 Y21.312 F400.000
G1 X-6.361 Y21.530 F400.000
G1 X-6.481 Y21.726 F400.000
G1 X-6.639 Y21.895 F400.000
G1 X-6.827 Y22.030 F400.000
G1 X-7.090 Y22.139 F400.000
G1 X-7.316 Y22.184 F400.000
G1 X-7.598 Y22.180 F400.000
G1 X-7.767 Y22.147 F400.000
G1 X-7.985 Y22.056 F400.000
G1 X-8.229 Y21.887 F400.000
G1 X-8.350 Y21.752 F400.000
G1 X-8.481 Y21.549 F400.000
G1 X-8.571 Y21.320 F400.000
G1 X-8.617 Y21.019 F400.000
G1 X-8.602 Y20.778 F400.000
G1 X-8.560 Y20.598 F400.000
G1 X-8.429 Y20.312 F400.000
G1 X-8.237 Y20.064 F400.000
G1 X-8.041 Y19.902 F400.000
G1 X-7.823 Y19.778 F400.000
G1 X-7.583 Y19.699 F400.000
G1 X-7.342 Y19.665 F400.000
G1 X-7.102 Y19.677 F400.000
G1 X-6.805 Y19.752 F400.000
G1 X-6.586 Y19.861 F400.000
G1 X-6.440 Y19.974 F400.000
G1 X-6.293 Y20.158 F400.000
G1 X-6.195 Y20.312 F400.000
G1 X-6.071 Y20.643 F400.000
G1 X-6.045 Y20.756 F400.000
G1 X-6.030 Y21.038 F400.000
G1 X-6.079 Y21.376 F400.000
G1 X-6.263 Y21.801 F400.000
G1 X-6.402 Y21.981 F400.000
G1 X-6.526 Y22.105 F400.000
G1 X-6.707 Y22.241 F400.000
G1 X-6.910 Y22.342 F400.000
G1 X-7.184 Y22.432 F400.000
G1 X-7.466 Y22.462 F400.000
G1 X-7.861 Y22.402 F400.000
G1 X-8.030 Y22.342 F400.000
G1 X-8.286 Y22.195 F400.000
G1 X-8.462 Y22.030 F400.000
G1 X-8.643 Y21.786 F400.000
G1 X-8.774 Y21.511 F400.000
G1 X-8.853 Y21.214 F400.000
G1 X-8.872 Y20.914 F400.000
G1 X-8.835 Y20.613 F400.000
G1 X-8.737 Y20.320 F400.000
G1 X-8.575 Y20.053 F400.000
G1 X-8.414 Y19.861 F400.000
G1 X-8.267 Y19.741 F400.000
G1 X-8.038 Y19.635 F400.000
G1 X-7.797 Y19.556 F400.000
G1 X-7.556 Y19.526 F400.000
G1 X-7.256 Y19.549 F400.000
G1 X-6.955 Y19.635 F400.000
G1 X-6.955 Y19.635 F400.000
G1 X-6.850 Y19.703 F400.000
G1 X-6.801 Y19.778 F400.000
G0 X-6.797 Y19.805
G0 X-6.827 Y19.910
G0 X-7.880 Y22.132
G1 X-7.895 Y22.162 F400.000
G1 X-7.955 Y22.271 F400.000
G1 X-8.004 Y22.301 F400.000
G1 X-8.094 Y22.308 F400.000
G1 X-8.218 Y22.278 F400.000
G1 X-8.218 Y22.278 F400.000
G1 X-8.466 Y22.113 F400.000
G1 X-8.669 Y21.891 F400.000
G1 X-8.827 Y21.635 F400.000
G1 X-8.929 Y21.353 F400.000
G1 X-8.974 Y21.053 F400.000
G1 X-8.921 Y20.632 F400.000
G1 X-8.782 Y20.282 F400.000
G1 X-8.602 Y20.023 F400.000
G1 X-8.466 Y19.887 F400.000
G1 X-8.466 Y19.887 F400.000
G1 X-8.447 Y19.880 F400.000
G0 X-8.436 Y19.883
G0 X-8.432 Y19.917
G0 X-8.440 Y19.936
G1 X-8.455 Y19.951 F400.000
G1 X-8.504 Y19.962 F400.000
G1 X-8.534 Y19.951 F400.000
G1 X-8.538 Y19.921 F400.000
G1 X-8.538 Y19.921 F400.000
G1 X-8.368 Y19.778 F400.000
G1 X-8.192 Y19.673 F400.000
G1 X-7.835 Y19.538 F400.000
G1 X-7.748 Y19.519 F400.000
G1 X-7.496 Y19.500 F400.000
G1 X-7.417 Y19.504 F400.000
G1 X-7.211 Y19.534 F400.000
G1 X-7.008 Y19.590 F400.000
G1 X-6.737 Y19.707 F400.000
G1 X-6.579 Y19.816 F400.000
G1 X-6.402 Y19.974 F400.000
G1 X-6.316 Y20.083 F400.000
G1 X-6.184 Y20.278 F400.000
G1 X-6.135 Y20.380 F400.000
G1 X-6.064 Y20.568 F400.000
G1 X-6.023 Y20.767 F400.000
G1 X-6.008 Y20.959 F400.000
G1 X-6.008 Y21.079 F400.000
G1 X-6.049 Y21.350 F400.000
G1 X-6.135 Y21.617 F400.000
G1 X-6.218 Y21.774 F400.000
G1 X-6.361 Y21.974 F400.000
G1 X-6.496 Y22.109 F400.000
G1 X-6.650 Y22.229 F400.000
G1 X-6.816 Y22.327 F400.000
G1 X-7.109 Y22.444 F400.000
G1 X-7.207 Y22.470 F400.000
G1 X-7.376 Y22.489 F400.000
G1 X-7.553 Y22.492 F400.000
G1 X-7.789 Y22.459 F400.000
G1 X-7.992 Y22.402 F400.000
G1 X-8.256 Y22.289 F400.000
G1 X-8.451 Y22.150 F400.000
G1 X-8.662 Y21.947 F400.000
G1 X-8.741 Y21.838 F400.000
G1 X-8.857 Y21.635 F400.000
G1 X-8.959 Y21.331 F400.000
G1 X-8.989 Y21.173 F400.000
G1 X-9.000 Y21.056 F400.000
G1 X-8.996 Y20.974 F400.000
G1 X-8.940 Y20.624 F400.000
G1 X-8.876 Y20.425 F400.000
G1 X-8.812 Y20.286 F400.000
G1 X-8.620 Y20.008 F400.000
G1 X-8.538 Y19.921 F400.000
G1 X-8.538 Y19.921 F400.000
G0 Z5.000
(Helix to depth: -5.000000)
G0 Z5.000
G0 X-7.979 Y4.913 Z5.000
G0 X-7.979 Y4.913 Z3.000
G1 X-7.979 Y4.913 Z0.000 F400.000
G1 X-7.979 Y4.913 Z0.000 F400.000
G1 X-7.954 Y4.820 Z-0.009 F400.000
G1 X-7.910 Y4.734 Z-0.017 F400.000
G1 X-7.851 Y4.659 Z-0.026 F400.000
G1 X-7.779 Y4.596 Z-0.034 F400.000
G1 X-7.695 Y4.548 Z-0.043 F400.000
G1 X-7.604 Y4.518 Z-0.052 F400.000
G1 X-7.509 Y4.506 Z-0.060 F400.000
G1 X-7.413 Y4.513 Z-0.069 F400.000
G1 X-7.320 Y4.539 Z-0.077 F400.000
G1 X-7.234 Y4.582 Z-0.086 F400.000
G1 X-7.159 Y4.641 Z-0.094 F400.000
G1 X-7.096 Y4.714 Z-0.103 F400.000
G1 X-7.048 Y4.797 Z-0.112 F400.000
G1 X-7.018 Y4.889 Z-0.120 F400.000
G1 X-7.006 Y4.984 Z-0.129 F400.000
G1 X-7.013 Y5.080 Z-0.137 F400.000
G1 X-7.039 Y5.172 Z-0.146 F400.000
G1 X-7.082 Y5.258 Z-0.155 F400.000
G1 X-7.141 Y5.334 Z-0.163 F400.000
G1 X-7.214 Y5.397 Z-0.172 F400.000
G1 X-7.297 Y5.444 Z-0.180 F400.000
G1 X-7.389 Y5.474 Z-0.189 F400.000
G1 X-7.484 Y5.486 Z-0.198 F400.000
G1 X-7.580 Y5.479 Z-0.206 F400.000
G1 X-7.672 Y5.454 Z-0.215 F400.000
G1 X-7.758 Y5.410 Z-0.223 F400.000
G1 X-7.834 Y5.351 Z-0.232 F400.000
G1 X-7.897 Y5.279 Z-0.240 F400.000
G1 X-7.944 Y5.195 Z-0.249 F400.000
G1 X-7.974 Y5.104 Z-0.258 F400.000
G1 X-7.986 Y5.009 Z-0.266 F400.000
G1 X-7.979 Y4.913 Z-0.275 F400.000
G1 X-7.954 Y4.820 Z-0.283 F400.000
G1 X-7.910 Y4.734 Z-0.292 F400.000
G1 X-7.851 Y4.659 Z-0.301 F400.000
G1 X-7.779 Y4.596 Z-0.309 F400.000
G1 X-7.695 Y4.548 Z-0.318 F400.000
G1 X-7.604 Y4.518 Z-0.326 F400.000
G1 X-7.509 Y4.506 Z-0.335 F400.000
G1 X-7.413 Y4.513 Z-0.344 F400.000
G1 X-7.320 Y4.539 Z-0.352 F400.000
G1 X-7.234 Y4.582 Z-0.361 F400.000
G1 X-7.159 Y4.641 Z-0.369 F400.000
G1 X-7.096 Y4.714 Z-0.378 F400.000
G1 X-7.048 Y4.797 Z-0.387 F400.000
G1 X-7.018 Y4.889 Z-0.395 F400.000
G1 X-7.006 Y4.984 Z-0.404 F400.000
G1 X-7.013 Y5.080 Z-0.412 F400.000
G1 X-7.039 Y5.172 Z-0.421 F400.000
G1 X-7.082 Y5.258 Z-0.429 F400.000
G1 X-7.141 Y5.334 Z-0.438 F400.000
G1 X-7.214 Y5.397 Z-0.447 F400.000
G1 X-7.297 Y5.444 Z-0.455 F400.000
G1 X-7.389 Y5.474 Z-0.464 F400.000
G1 X-7.484 Y5.486 Z-0.472 F400.000
G1 X-7.580 Y5.479 Z-0.481 F400.000
G1 X-7.672 Y5.454 Z-0.490 F400.000
G1 X-7.758 Y5.410 Z-0.498 F400.000
G1 X-7.834 Y5.351 Z-0.507 F400.000
G1 X-7.897 Y5.279 Z-0.515 F400.000
G1 X-7.944 Y5.195 Z-0.524 F400.000
G1 X-7.974 Y5.104 Z-0.533 F400.000
G1 X-7.986 Y5.009 Z-0.541 F400.000
G1 X-7.979 Y4.913 Z-0.550 F400.000
G1 X-7.954 Y4.820 Z-0.558 F400.000
G1 X-7.910 Y4.734 Z-0.567 F400.000
G1 X-7.851 Y4.659 Z-0.575 F400.000
G1 X-7.779 Y4.596 Z-0.584 F400.000
G1 X-7.695 Y4.548 Z-0.593 F400.000
G1 X-7.604 Y4.518 Z-0.601 F400.000
G1 X-7.509 Y4.506 Z-0.610 F400.000
G1 X-7.413 Y4.513 Z-0.618 F400.000
G1 X-7.320 Y4.539 Z-0.627 F400.000
G1 X-7.234 Y4.582 Z-0.636 F400.000
G1 X-7.159 Y4.641 Z-0.644 F400.000
G1 X-7.096 Y4.714 Z-0.653 F400.000
G1 X-7.048 Y4.797 Z-0.661 F400.000
G1 X-7.018 Y4.889 Z-0.670 F400.000
G1 X-7.006 Y4.984 Z-0.679 F400.000
G1 X-7.013 Y5.080 Z-0.687 F400.000
G1 X-7.039 Y5.172 Z-0.696 F400.000
G1 X-7.082 Y5.258 Z-0.704 F400.000
G1 X-7.141 Y5.334 Z-0.713 F400.000
G1 X-7.214 Y5.397 Z-0.721 F400.000
G1 X-7.297 Y5.444 Z-0.730 F400.000
G1 X-7.389 Y5.474 Z-0.739 F400.000
G1 X-7.484 Y5.486 Z-0.747 F400.000
G1 X-7.580 Y5.479 Z-0.756 F400.000
G1 X-7.672 Y5.454 Z-0.764 F400.000
G1 X-7.758 Y5.410 Z-0.773 F400.000
G1 X-7.834 Y5.351 Z-0.782 F400.000
G1 X-7.897 Y5.279 Z-0.790 F400.000
G1 X-7.944 Y5.195 Z-0.799 F400.000
G1 X-7.974 Y5.104 Z-0.807 F400.000
G1 X-7.986 Y5.009 Z-0.816 F400.000
G1 X-7.979 Y4.913 Z-0.825 F400.000
G1 X-7.954 Y4.820 Z-0.833 F400.000
G1 X-7.910 Y4.734 Z-0.842 F400.000
G1 X-7.851 Y4.659 Z-0.850 F400.000
G1 X-7.779 Y4.596 Z-0.859 F400.000
G1 X-7.695 Y4.548 Z-0.868 F400.000
G1 X-7.604 Y4.518 Z-0.876 F400.000
G1 X-7.509 Y4.506 Z-0.885 F400.000
G1 X-7.413 Y4.513 Z-0.893 F400.000
G1 X-7.320 Y4.539 Z-0.902 F400.000
G1 X-7.234 Y4.582 Z-0.910 F400.000
G1 X-7.159 Y4.641 Z-0.919 F400.000
G1 X-7.096 Y4.714 Z-0.928 F400.000
G1 X-7.048 Y4.797 Z-0.936 F400.000
G1 X-7.018 Y4.889 Z-0.945 F400.000
G1 X-7.006 Y4.984 Z-0.953 F400.000
G1 X-7.013 Y5.080 Z-0.962 F400.000
G1 X-7.039 Y5.172 Z-0.971 F400.000
G1 X-7.082 Y5.258 Z-0.979 F400.000
G1 X-7.141 Y5.334 Z-0.988 F400.000
G1 X-7.214 Y5.397 Z-0.996 F400.000
G1 X-7.297 Y5.444 Z-1.005 F400.000
G1 X-7.389 Y5.474 Z-1.014 F400.000
G1 X-7.484 Y5.486 Z-1.022 F400.000
G1 X-7.580 Y5.479 Z-1.031 F400.000
G1 X-7.672 Y5.454 Z-1.039 F400.000
G1 X-7.758 Y5.410 Z-1.048 F400.000
G1 X-7.834 Y5.351 Z-1.056 F400.000
G1 X-7.897 Y5.279 Z-1.065 F400.000
G1 X-7.944 Y5.195 Z-1.074 F400.000
G1 X-7.974 Y5.104 Z-1.082 F400.000
G1 X-7.986 Y5.009 Z-1.091 F400.000
G1 X-7.979 Y4.913 Z-1.099 F400.000
G1 X-7.954 Y4.820 Z-1.108 F400.000
G1 X-7.910 Y4.734 Z-1.117 F400.000
G1 X-7.851 Y4.659 Z-1.125 F400.000
G1 X-7.779 Y4.596 Z-1.134 F400.000
G1 X-7.695 Y4.548 Z-1.142 F400.000
G1 X-7.604 Y4.518 Z-1.151 F400.000
G1 X-7.509 Y4.506 Z-1.160 F400.000
G1 X-7.413 Y4.513 Z-1.168 F400.000
G1 X-7.320 Y4.539 Z-1.177 F400.000
G1 X-7.234 Y4.582 Z-1.185 F400.000
G1 X-7.159 Y4.641 Z-1.194 F400.000
G1 X-7.096 Y4.714 Z-1.202 F400.000
G1 X-7.048 Y4.797 Z-1.211 F400.000
G1 X-7.018 Y4.889 Z-1.220 F400.000
G1 X-7.006 Y4.984 Z-1.228 F400.000
G1 X-7.013 Y5.080 Z-1.237 F400.000
G1 X-7.039 Y5.172 Z-1.245 F400.000
G1 X-7.082 Y5.258 Z-1.254 F400.000
G1 X-7.141 Y5.334 Z-1.263 F400.000
G1 X-7.214 Y5.397 Z-1.271 F400.000
G1 X-7.297 Y5.444 Z-1.280 F400.000
G1 X-7.389 Y5.474 Z-1.288 F400.000
G1 X-7.484 Y5.486 Z-1.297 F400.000
G1 X-7.580 Y5.479 Z-1.306 F400.000
G1 X-7.672 Y5.454 Z-1.314 F400.000
G1 X-7.758 Y5.410 Z-1.323 F400.000
G1 X-7.834 Y5.351 Z-1.331 F400.000
G1 X-7.897 Y5.279 Z-1.340 F400.000
G1 X-7.944 Y5.195 Z-1.349 F400.000
G1 X-7.974 Y5.104 Z-1.357 F400.000
G1 X-7.986 Y5.009 Z-1.366 F400.000
G1 X-7.979 Y4.913 Z-1.374 F400.000
G1 X-7.954 Y4.820 Z-1.383 F400.000
G1 X-7.910 Y4.734 Z-1.391 F400.000
G1 X-7.851 Y4.659 Z-1.400 F400.000
G1 X-7.779 Y4.596 Z-1.409 F400.000
G1 X-7.695 Y4.548 Z-1.417 F400.000
G1 X-7.604 Y4.518 Z-1.426 F400.000
G1 X-7.509 Y4.506 Z-1.434 F400.000
G1 X-7.413 Y4.513 Z-1.443 F400.000
G1 X-7.320 Y4.539 Z-1.452 F400.000
G1 X-7.234 Y4.582 Z-1.460 F400.000
G1 X-7.159 Y4.641 Z-1.469 F400.000
G1 X-7.096 Y4.714 Z-1.477 F400.000
G1 X-7.048 Y4.797 Z-1.486 F400.000
G1 X-7.018 Y4.889 Z-1.495 F400.000
G1 X-7.006 Y4.984 Z-1.503 F400.000
G1 X-7.013 Y5.080 Z-1.512 F400.000
G1 X-7.039 Y5.172 Z-1.520 F400.000
G1 X-7.082 Y5.258 Z-1.529 F400.000
G1 X-7.141 Y5.334 Z-1.537 F400.000
G1 X-7.214 Y5.397 Z-1.546 F400.000
G1 X-7.297 Y5.444 Z-1.555 F400.000
G1 X-7.389 Y5.474 Z-1.563 F400.000
G1 X-7.484 Y5.486 Z-1.572 F400.000
G1 X-7.580 Y5.479 Z-1.580 F400.000
G1 X-7.672 Y5.454 Z-1.589 F400.000
G1 X-7.758 Y5.410 Z-1.598 F400.000
G1 X-7.834 Y5.351 Z-1.606 F400.000
G1 X-7.897 Y5.279 Z-1.615 F400.000
G1 X-7.944 Y5.195 Z-1.623 F400.000
G1 X-7.974 Y5.104 Z-1.632 F400.000
G1 X-7.986 Y5.009 Z-1.641 F400.000
G1 X-7.979 Y4.913 Z-1.649 F400.000
G1 X-7.954 Y4.820 Z-1.658 F400.000
G1 X-7.910 Y4.734 Z-1.666 F400.000
G1 X-7.851 Y4.659 Z-1.675 F400.000
G1 X-7.779 Y4.596 Z-1.683 F400.000
G1 X-7.695 Y4.548 Z-1.692 F400.000
G1 X-7.604 Y4.518 Z-1.701 F400.000
G1 X-7.509 Y4.506 Z-1.709 F400.000
G1 X-7.413 Y4.513 Z-1.718 F400.000
G1 X-7.320 Y4.539 Z-1.726 F400.000
G1 X-7.234 Y4.582 Z-1.735 F400.000
G1 X-7.159 Y4.641 Z-1.744 F400.000
G1 X-7.096 Y4.714 Z-1.752 F400.000
G1 X-7.048 Y4.797 Z-1.761 F400.000
G1 X-7.018 Y4.889 Z-1.769 F400.000
G1 X-7.006 Y4.984 Z-1.778 F400.000
G1 X-7.013 Y5.080 Z-1.787 F400.000
G1 X-7.039 Y5.172 Z-1.795 F400.000
G1 X-7.082 Y5.258 Z-1.804 F400.000
G1 X-7.141 Y5.334 Z-1.812 F400.000
G1 X-7.214 Y5.397 Z-1.821 F400.000
G1 X-7.297 Y5.444 Z-1.829 F400.000
G1 X-7.389 Y5.474 Z-1.838 F400.000
G1 X-7.484 Y5.486 Z-1.847 F400.000
G1 X-7.580 Y5.479 Z-1.855 F400.000
G1 X-7.672 Y5.454 Z-1.864 F400.000
G1 X-7.758 Y5.410 Z-1.872 F400.000
G1 X-7.834 Y5.351 Z-1.881 F400.000
G1 X-7.897 Y5.279 Z-1.890 F400.000
G1 X-7.944 Y5.195 Z-1.898 F400.000
G1 X-7.974 Y5.104 Z-1.907 F400.000
G1 X-7.986 Y5.009 Z-1.915 F400.000
G1 X-7.979 Y4.913 Z-1.924 F400.000
G1 X-7.954 Y4.820 Z-1.933 F400.000
G1 X-7.910 Y4.734 Z-1.941 F400.000
G1 X-7.851 Y4.659 Z-1.950 F400.000
G1 X-7.779 Y4.596 Z-1.958 F400.000
G1 X-7.695 Y4.548 Z-1.967 F400.000
G1 X-7.604 Y4.518 Z-1.976 F400.000
G1 X-7.509 Y4.506 Z-1.984 F400.000
G1 X-7.413 Y4.513 Z-1.993 F400.000
G1 X-7.320 Y4.539 Z-2.001 F400.000
G1 X-7.234 Y4.582 Z-2.010 F400.000
G1 X-7.159 Y4.641 Z-2.018 F400.000
G1 X-7.096 Y4.714 Z-2.027 F400.000
G1 X-7.048 Y4.797 Z-2.036 F400.000
G1 X-7.018 Y4.889 Z-2.044 F400.000
G1 X-7.006 Y4.984 Z-2.053 F400.000
G1 X-7.013 Y5.080 Z-2.061 F400.000
G1 X-7.039 Y5.172 Z-2.070 F400.000
G1 X-7.082 Y5.258 Z-2.079 F400.000
G1 X-7.141 Y5.334 Z-2.087 F400.000
G1 X-7.214 Y5.397 Z-2.096 F400.000
G1 X-7.297 Y5.444 Z-2.104 F400.000
G1 X-7.389 Y5.474 Z-2.113 F400.000
G1 X-7.484 Y5.486 Z-2.122 F400.000
G1 X-7.580 Y5.479 Z-2.130 F400.000
G1 X-7.672 Y5.454 Z-2.139 F400.000
G1 X-7.758 Y5.410 Z-2.147 F400.000
G1 X-7.834 Y5.351 Z-2.156 F400.000
G1 X-7.897 Y5.279 Z-2.164 F400.000
G1 X-7.944 Y5.195 Z-2.173 F400.000
G1 X-7.974 Y5.104 Z-2.182 F400.000
G1 X-7.986 Y5.009 Z-2.190 F400.000
G1 X-7.979 Y4.913 Z-2.199 F400.000
G1 X-7.954 Y4.820 Z-2.207 F400.000
G1 X-7.910 Y4.734 Z-2.216 F400.000
G1 X-7.851 Y4.659 Z-2.225 F400.000
G1 X-7.779 Y4.596 Z-2.233 F400.000
G1 X-7.695 Y4.548 Z-2.242 F400.000
G1 X-7.604 Y4.518 Z-2.250 F400.000
G1 X-7.509 Y4.506 Z-2.259 F400.000
G1 X-7.413 Y4.513 Z-2.268 F400.000
G1 X-7.320 Y4.539 Z-2.276 F400.000
G1 X-7.234 Y4.582 Z-2.285 F400.000
G1 X-7.159 Y4.641 Z-2.293 F400.000
G1 X-7.096 Y4.714 Z-2.302 F400.000
G1 X-7.048 Y4.797 Z-2.310 F400.000
G1 X-7.018 Y4.889 Z-2.319 F400.000
G1 X-7.006 Y4.984 Z-2.328 F400.000
G1 X-7.013 Y5.080 Z-2.336 F400.000
G1 X-7.039 Y5.172 Z-2.345 F400.000
G1 X-7.082 Y5.258 Z-2.353 F400.000
G1 X-7.141 Y5.334 Z-2.362 F400.000
G1 X-7.214 Y5.397 Z-2.371 F400.000
G1 X-7.297 Y5.444 Z-2.379 F400.000
G1 X-7.389 Y5.474 Z-2.388 F400.000
G1 X-7.484 Y5.486 Z-2.396 F400.000
G1 X-7.580 Y5.479 Z-2.405 F400.000
G1 X-7.672 Y5.454 Z-2.414 F400.000
G1 X-7.758 Y5.410 Z-2.422 F400.000
G1 X-7.834 Y5.351 Z-2.431 F400.000
G1 X-7.897 Y5.279 Z-2.439 F400.000
G1 X-7.944 Y5.195 Z-2.448 F400.000
G1 X-7.974 Y5.104 Z-2.457 F400.000
G1 X-7.986 Y5.009 Z-2.465 F400.000
G1 X-7.979 Y4.913 Z-2.474 F400.000
G1 X-7.954 Y4.820 Z-2.482 F400.000
G1 X-7.910 Y4.734 Z-2.491 F400.000
G1 X-7.851 Y4.659 Z-2.499 F400.000
G1 X-7.779 Y4.596 Z-2.508 F400.000
G1 X-7.695 Y4.548 Z-2.517 F400.000
G1 X-7.604 Y4.518 Z-2.525 F400.000
G1 X-7.509 Y4.506 Z-2.534 F400.000
G1 X-7.413 Y4.513 Z-2.542 F400.000
G1 X-7.320 Y4.539 Z-2.551 F400.000
G1 X-7.234 Y4.582 Z-2.560 F400.000
G1 X-7.159 Y4.641 Z-2.568 F400.000
G1 X-7.096 Y4.714 Z-2.577 F400.000
G1 X-7.048 Y4.797 Z-2.585 F400.000
G1 X-7.018 Y4.889 Z-2.594 F400.000
G1 X-7.006 Y4.984 Z-2.603 F400.000
G1 X-7.013 Y5.080 Z-2.611 F400.000
G1 X-7.039 Y5.172 Z-2.620 F400.000
G1 X-7.082 Y5.258 Z-2.628 F400.000
G1 X-7.141 Y5.334 Z-2.637 F400.000
G1 X-7.214 Y5.397 Z-2.645 F400.000
G1 X-7.297 Y5.444 Z-2.654 F400.000
G1 X-7.389 Y5.474 Z-2.663 F400.000
G1 X-7.484 Y5.486 Z-2.671 F400.000
G1 X-7.580 Y5.479 Z-2.680 F400.000
G1 X-7.672 Y5.454 Z-2.688 F400.000
G1 X-7.758 Y5.410 Z-2.697 F400.000
G1 X-7.834 Y5.351 Z-2.706 F400.000
G1 X-7.897 Y5.279 Z-2.714 F400.000
G1 X-7.944 Y5.195 Z-2.723 F400.000
G1 X-7.974 Y5.104 Z-2.731 F400.000
G1 X-7.986 Y5.009 Z-2.740 F400.000
G1 X-7.979 Y4.913 Z-2.749 F400.000
G1 X-7.954 Y4.820 Z-2.757 F400.000
G1 X-7.910 Y4.734 Z-2.766 F400.000
G1 X-7.851 Y4.659 Z-2.774 F400.000
G1 X-7.779 Y4.596 Z-2.783 F400.000
G1 X-7.695 Y4.548 Z-2.791 F400.000
G1 X-7.604 Y4.518 Z-2.800 F400.000
G1 X-7.509 Y4.506 Z-2.809 F400.000
G1 X-7.413 Y4.513 Z-2.817 F400.000
G1 X-7.320 Y4.539 Z-2.826 F400.000
G1 X-7.234 Y4.582 Z-2.834 F400.000
G1 X-7.159 Y4.641 Z-2.843 F400.000
G1 X-7.096 Y4.714 Z-2.852 F400.000
G1 X-7.048 Y4.797 Z-2.860 F400.000
G1 X-7.018 Y4.889 Z-2.869 F400.000
G1 X-7.006 Y4.984 Z-2.877 F400.000
G1 X-7.013 Y5.080 Z-2.886 F400.000
G1 X-7.039 Y5.172 Z-2.895 F400.000
G1 X-7.082 Y5.258 Z-2.903 F400.000
G1 X-7.141 Y5.334 Z-2.912 F400.000
G1 X-7.214 Y5.397 Z-2.920 F400.000
G1 X-7.297 Y5.444 Z-2.929 F400.000
G1 X-7.389 Y5.474 Z-2.937 F400.000
G1 X-7.484 Y5.486 Z-2.946 F400.000
G1 X-7.580 Y5.479 Z-2.955 F400.000
G1 X-7.672 Y5.454 Z-2.963 F400.000
G1 X-7.758 Y5.410 Z-2.972 F400.000
G1 X-7.834 Y5.351 Z-2.980 F400.000
G1 X-7.897 Y5.279 Z-2.989 F400.000
G1 X-7.944 Y5.195 Z-2.998 F400.000
G1 X-7.974 Y5.104 Z-3.006 F400.000
G1 X-7.986 Y5.009 Z-3.015 F400.000
G1 X-7.979 Y4.913 Z-3.023 F400.000
G1 X-7.954 Y4.820 Z-3.032 F400.000
G1 X-7.910 Y4.734 Z-3.041 F400.000
G1 X-7.851 Y4.659 Z-3.049 F400.000
G1 X-7.779 Y4.596 Z-3.058 F400.000
G1 X-7.695 Y4.548 Z-3.066 F400.000
G1 X-7.604 Y4.518 Z-3.075 F400.000
G1 X-7.509 Y4.506 Z-3.084 F400.000
G1 X-7.413 Y4.513 Z-3.092 F400.000
G1 X-7.320 Y4.539 Z-3.101 F400.000
G1 X-7.234 Y4.582 Z-3.109 F400.000
G1 X-7.159 Y4.641 Z-3.118 F400.000
G1 X-7.096 Y4.714 Z-3.126 F400.000
G1 X-7.048 Y4.797 Z-3.135 F400.000
G1 X-7.018 Y4.889 Z-3.144 F400.000
G1 X-7.006 Y4.984 Z-3.152 F400.000
G1 X-7.013 Y5.080 Z-3.161 F400.000
G1 X-7.039 Y5.172 Z-3.169 F400.000
G1 X-7.082 Y5.258 Z-3.178 F400.000
G1 X-7.141 Y5.334 Z-3.187 F400.000
G1 X-7.214 Y5.397 Z-3.195 F400.000
G1 X-7.297 Y5.444 Z-3.204 F400.000
G1 X-7.389 Y5.474 Z-3.212 F400.000
G1 X-7.484 Y5.486 Z-3.221 F400.000
G1 X-7.580 Y5.479 Z-3.230 F400.000
G1 X-7.672 Y5.454 Z-3.238 F400.000
G1 X-7.758 Y5.410 Z-3.247 F400.000
G1 X-7.834 Y5.351 Z-3.255 F400.000
G1 X-7.897 Y5.279 Z-3.264 F400.000
G1 X-7.944 Y5.195 Z-3.272 F400.000
G1 X-7.974 Y5.104 Z-3.281 F400.000
G1 X-7.986 Y5.009 Z-3.290 F400.000
G1 X-7.979 Y4.913 Z-3.298 F400.000
G1 X-7.954 Y4.820 Z-3.307 F400.000
G1 X-7.910 Y4.734 Z-3.315 F400.000
G1 X-7.851 Y4.659 Z-3.324 F400.000
G1 X-7.779 Y4.596 Z-3.333 F400.000
G1 X-7.695 Y4.548 Z-3.341 F400.000
G1 X-7.604 Y4.518 Z-3.350 F400.000
G1 X-7.509 Y4.506 Z-3.358 F400.000
G1 X-7.413 Y4.513 Z-3.367 F400.000
G1 X-7.320 Y4.539 Z-3.376 F400.000
G1 X-7.234 Y4.582 Z-3.384 F400.000
G1 X-7.159 Y4.641 Z-3.393 F400.000
G1 X-7.096 Y4.714 Z-3.401 F400.000
G1 X-7.048 Y4.797 Z-3.410 F400.000
G1 X-7.018 Y4.889 Z-3.418 F400.000
G1 X-7.006 Y4.984 Z-3.427 F400.000
G1 X-7.013 Y5.080 Z-3.436 F400.000
G1 X-7.039 Y5.172 Z-3.444 F400.000
G1 X-7.082 Y5.258 Z-3.453 F400.000
G1 X-7.141 Y5.334 Z-3.461 F400.000
G1 X-7.214 Y5.397 Z-3.470 F400.000
G1 X-7.297 Y5.444 Z-3.479 F400.000
G1 X-7.389 Y5.474 Z-3.487 F400.000
G1 X-7.484 Y5.486 Z-3.496 F400.000
G1 X-7.580 Y5.479 Z-3.504 F400.000
G1 X-7.672 Y5.454 Z-3.513 F400.000
G1 X-7.758 Y5.410 Z-3.522 F400.000
G1 X-7.834 Y5.351 Z-3.530 F400.000
G1 X-7.897 Y5.279 Z-3.539 F400.000
G1 X-7.944 Y5.195 Z-3.547 F400.000
G1 X-7.974 Y5.104 Z-3.556 F400.000
G1 X-7.986 Y5.009 Z-3.565 F400.000
G1 X-7.979 Y4.913 Z-3.573 F400.000
G1 X-7.954 Y4.820 Z-3.582 F400.000
G1 X-7.910 Y4.734 Z-3.590 F400.000
G1 X-7.851 Y4.659 Z-3.599 F400.000
G1 X-7.779 Y4.596 Z-3.607 F400.000
G1 X-7.695 Y4.548 Z-3.616 F400.000
G1 X-7.604 Y4.518 Z-3.625 F400.000
G1 X-7.509 Y4.506 Z-3.633 F400.000
G1 X-7.413 Y4.513 Z-3.642 F400.000
