(GT2_50_SHAFT19.9_STEP3)
(T1  D=3.175 CR=0. - ZMIN=-9.024 - FLAT END MILL)
G90 G94 G91.1 G40 G49 G17
G21

(2D CONTOUR4)
M5
M9
T1
S10000 M3
G54
M8
G0 X-1.841 Y-14.959
G43 Z15. H1
Z5.
G1 Z3. F200.
Z2.5
G3 X15.072 Y0. Z-2. R15.072
X-15.072 R15.072 F800.
X15.072 R15.072
X8.276 Y12.596 Z-4. R15.072 F200.
X-8.276 Y-12.596 R15.072 F800.
X8.276 Y12.596 R15.072
X-5.982 Y13.834 Z-6. R15.072 F200.
X5.982 Y-13.834 R15.072 F800.
X-5.982 Y13.834 R15.072
X-14.847 Y2.597 Z-8. R15.072 F200.
X14.847 Y-2.597 R15.072 F800.
X-14.847 Y2.597 R15.072
X-14.242 Y-4.933 Z-9.024 R15.072 F200.
X14.242 Y4.933 R15.072 F800.
X-14.242 Y-4.933 R15.072
G0 Z15.

M9
M30
