(GT2_50_SHAFT19.9_STEP1)
(T1  D=3.175 CR=0. - ZMIN=-8.024 - FLAT END MILL)
G90 G94 G91.1 G40 G49 G17
G21

(2D CONTOUR1)
M5
M9
T1
S10000 M3
G54
M8
G0 X5.597 Y-6.213
G43 Z15. H1
Z5.
G1 Z3. F200.
Z2.5
G3 X-5.017 Y6.69 Z-2. R8.363
X5.017 Y-6.69 R8.363 F800.
X-5.017 Y6.69 R8.363
X-7.604 Y-3.479 Z-4. R8.362 F200.
X7.604 Y3.479 R8.362 F800.
X-7.604 Y-3.479 R8.362
X1.781 Y-8.171 Z-6. R8.362 F200.
X-1.781 Y8.171 R8.362 F800.
X1.781 Y-8.171 R8.362
X6.555 Y-5.192 Z-7.012 R8.363 F200.
X-6.555 Y5.192 R8.363 F800.
X6.555 Y-5.192 R8.363
X8.363 Y0. Z-8. R8.363 F200.
X8.361 Y0.138 Z-8.024 R8.363
X-8.361 Y-0.138 R8.363 F800.
X8.361 Y0.138 R8.363
G0 Z15.

(2D CONTOUR2)
M8
G0 X-1.507 Y-17.113
Z15.
Z5.
G1 Z3. F200.
Z2.5
G2 X-1.633 Y-17.13 Z2.477 R1.588
G1 X-1.677 Y-17.134 Z2.47
G2 X-2.008 Y-17.13 Z2.411 R1.587
X-2.315 Y-17.091 Z2.357 R17.247
X-2.644 Y-17.01 Z2.297 R1.587
G1 X-2.688 Y-16.994 Z2.289
G2 X-2.893 Y-16.902 Z2.249 R1.587
G1 X-2.918 Y-16.889 Z2.244
G2 X-3.107 Y-16.77 Z2.205 R1.587
G1 X-3.145 Y-16.743 Z2.196
G2 X-3.188 Y-16.71 Z2.187 R1.588
G1 X-3.195 Y-16.712 Z2.185
G2 X-3.454 Y-16.77 Z2.139 R1.588
G1 X-3.501 Y-16.776 Z2.13
G2 X-3.77 Y-16.79 Z2.083 R1.587
G1 X-3.813 Y-16.788 Z2.075
G2 X-4.139 Y-16.743 Z2.017 R1.587
X-4.439 Y-16.666 Z1.962 R17.247
X-4.757 Y-16.543 Z1.902 R1.587
G1 X-4.798 Y-16.522 Z1.894
G2 X-4.987 Y-16.407 Z1.855 R1.587
G1 X-5.01 Y-16.391 Z1.85
G2 X-5.184 Y-16.249 Z1.81 R1.588
G1 X-5.218 Y-16.217 Z1.802
G2 X-5.257 Y-16.179 Z1.792 R1.587
G1 X-5.262
G2 X-5.531 Y-16.205 Z1.744 R1.588
G1 X-5.578 Z1.736
G2 X-5.844 Y-16.185 Z1.688 R1.588
G1 X-5.887 Y-16.178 Z1.681
G2 X-6.205 Y-16.092 Z1.623 R1.588
X-6.492 Y-15.978 Z1.568 R17.247
X-6.792 Y-15.817 Z1.508 R1.588
G1 X-6.83 Y-15.791 Z1.5
G2 X-7.008 Y-15.65 Z1.46 R1.588
G1 X-7.029 Y-15.63 Z1.455
G2 X-7.18 Y-15.471 Z1.416 R1.588
G1 X-7.21 Y-15.435 Z1.408
G2 X-7.244 Y-15.392 Z1.398 R1.587
G1 X-7.248 Z1.397
G2 X-7.517 Y-15.384 Z1.35 R1.587
G1 X-7.563 Y-15.379 Z1.342
G2 X-7.827 Y-15.325 Z1.294 R1.588
G1 X-7.868 Y-15.313 Z1.287
G2 X-8.173 Y-15.187 Z1.228 R1.588
X-8.444 Y-15.038 Z1.174 R17.247
X-8.721 Y-14.841 Z1.114 R1.588
G1 X-8.756 Y-14.81 Z1.106
G2 X-8.912 Y-14.65 Z1.066 R1.588
G1 X-8.93 Y-14.629 Z1.061
G2 X-9.062 Y-14.449 Z1.022 R1.588
G1 X-9.087 Y-14.41 Z1.014
G2 X-9.116 Y-14.363 Z1.004 R1.587
G1 X-9.119 Z1.003
G2 X-9.387 Y-14.32 Z0.955 R1.588
G1 X-9.432 Y-14.309 Z0.947
G2 X-9.685 Y-14.223 Z0.9 R1.587
G1 X-9.725 Y-14.206 Z0.892
G2 X-10.012 Y-14.043 Z0.834 R1.588
X-10.262 Y-13.862 Z0.78 R17.247
X-10.512 Y-13.632 Z0.72 R1.588
G1 X-10.542 Y-13.597 Z0.711
G2 X-10.679 Y-13.416 Z0.672 R1.587
G1 X-10.694 Y-13.393 Z0.667
G2 X-10.802 Y-13.199 Z0.628 R1.587
G1 X-10.821 Y-13.157 Z0.619
G2 X-10.844 Y-13.107 Z0.61 R1.588
G1 X-10.852 Y-13.105 Z0.608
G2 X-11.108 Y-13.031 Z0.561 R1.587
G1 X-11.152 Y-13.014 Z0.553
G2 X-11.39 Y-12.898 Z0.506 R1.588
G1 X-11.428 Y-12.876 Z0.498
G2 X-11.693 Y-12.678 Z0.44 R1.587
X-11.918 Y-12.466 Z0.385 R17.247
X-12.137 Y-12.207 Z0.325 R1.588
G1 X-12.163 Y-12.169 Z0.317
G2 X-12.276 Y-11.972 Z0.277 R1.588
G1 X-12.289 Y-11.947 Z0.272
G2 X-12.371 Y-11.741 Z0.233 R1.587
G1 X-12.385 Y-11.697 Z0.225
G2 X-12.401 Y-11.645 Z0.215 R1.587
G1 X-12.407 Y-11.643 Z0.214
G2 X-12.652 Y-11.536 Z0.167 R1.588
G1 X-12.694 Y-11.514 Z0.159
G2 X-12.918 Y-11.368 Z0.111 R1.588
G1 X-12.952 Y-11.341 Z0.104
G2 X-13.19 Y-11.112 Z0.046 R1.588
X-13.387 Y-10.874 Z-0.009 R17.247
X-13.573 Y-10.586 Z-0.069 R1.587
G1 X-13.594 Y-10.545 Z-0.078
G2 X-13.678 Y-10.345 Z-0.116 R1.587
G1 X-13.687 Y-10.318 Z-0.121
G2 X-13.745 Y-10.097 Z-0.161 R1.587
G1 X-13.754 Y-10.052 Z-0.169
G2 X-13.763 Y-9.999 Z-0.179 R1.588
G1 X-13.769 Y-9.996 Z-0.18
G2 X-13.998 Y-9.86 Z-0.227 R1.588
G1 X-14.036 Y-9.833 Z-0.235
G2 X-14.241 Y-9.659 Z-0.283 R1.587
G1 X-14.271 Y-9.628 Z-0.29
G2 X-14.479 Y-9.371 Z-0.349 R1.588
X-14.644 Y-9.11 Z-0.403 R17.247
X-14.792 Y-8.804 Z-0.463 R1.588
G1 X-14.808 Y-8.76 Z-0.472
G2 X-14.867 Y-8.546 Z-0.511 R1.588
G1 X-14.873 Y-8.518 Z-0.516
G2 X-14.902 Y-8.295 Z-0.555 R1.588
G1 X-14.905 Y-8.249 Z-0.564
G2 X-14.907 Y-8.195 Z-0.573 R1.587
G1 X-14.912 Y-8.192 Z-0.574
G2 X-15.124 Y-8.027 Z-0.621 R1.587
G1 X-15.158 Y-7.996 Z-0.63
G2 X-15.34 Y-7.798 Z-0.677 R1.588
G1 X-15.366 Y-7.763 Z-0.685
G2 X-15.539 Y-7.483 Z-0.743 R1.588
X-15.671 Y-7.203 Z-0.798 R17.247
X-15.779 Y-6.881 Z-0.857 R1.587
G1 X-15.789 Y-6.836 Z-0.866
G2 X-15.821 Y-6.617 Z-0.905 R1.588
G1 X-15.823 Y-6.589 Z-0.91
G2 X-15.824 Y-6.361 Z-0.95 R1.587
G1 X-15.821 Y-6.314 Z-0.958
G2 X-15.817 Y-6.262 Z-0.967 R1.587
G1 X-15.822 Y-6.257 Z-0.969
G2 X-16.01 Y-6.069 Z-1.016 R1.587
G1 X-16.04 Y-6.034 Z-1.024
G2 X-16.196 Y-5.814 Z-1.071 R1.587
G1 X-16.218 Y-5.776 Z-1.079
G2 X-16.354 Y-5.476 Z-1.137 R1.587
X-16.45 Y-5.182 Z-1.192 R17.247
X-16.517 Y-4.849 Z-1.252 R1.588
G1 X-16.521 Y-4.802 Z-1.26
G2 X-16.525 Y-4.581 Z-1.299 R1.588
G1 X-16.524 Y-4.552 Z-1.304
G2 X-16.497 Y-4.331 Z-1.344 R1.587
G1 X-16.489 Y-4.285 Z-1.352
G2 X-16.477 Y-4.23 Z-1.362 R1.588
G1 X-16.481 Y-4.226 Z-1.363
G2 X-16.646 Y-4.013 Z-1.41 R1.588
G1 X-16.671 Y-3.973 Z-1.419
G2 X-16.796 Y-3.739 Z-1.465 R1.587
G1 X-16.813 Y-3.7 Z-1.473
G2 X-16.912 Y-3.383 Z-1.532 R1.588
X-16.97 Y-3.08 Z-1.586 R17.247
X-16.994 Y-2.742 Z-1.646 R1.588
G1 X-16.993 Y-2.695 Z-1.654
G2 X-16.969 Y-2.471 Z-1.694 R1.588
G1 X-16.964 Y-2.443 Z-1.699
G2 X-16.91 Y-2.228 Z-1.738 R1.587
G1 X-16.895 Y-2.184 Z-1.746
G2 X-16.877 Y-2.131 Z-1.756 R1.588
G1 X-16.882 Y-2.125 Z-1.757
G2 X-17.016 Y-1.898 Z-1.804 R1.588
G1 X-17.036 Y-1.856 Z-1.812
G2 X-17.133 Y-1.602 Z-1.86 R1.588
G1 X-17.145 Y-1.56 Z-1.868
G2 X-17.202 Y-1.238 Z-1.926 R1.587
X-17.222 Y-0.929 Z-1.98 R17.247
X-17.224 Y-0.817 Z-2. R1.587
X-17.203 Y-0.587 R1.588 F800.
G1 X-17.196 Y-0.541
G2 X-17.146 Y-0.328 R1.587
G1 X-17.137 Y-0.301
G2 X-17.055 Y-0.089 R1.587
G1 X-17.035 Y-0.047
G2 X-17.011 Y0.001 R1.588
G1 X-17.015 Y0.007
G2 X-17.121 Y0.252 R1.587
G1 X-17.135 Y0.296
G2 X-17.198 Y0.555 R1.587
G1 X-17.205 Y0.597
G2 X-17.222 Y0.929 R1.588
X-17.202 Y1.238 R17.247
X-17.142 Y1.57 R1.588
G1 X-17.129 Y1.615
G2 X-17.05 Y1.826 R1.588
G1 X-17.039 Y1.852
G2 X-16.932 Y2.048 R1.588
G1 X-16.907 Y2.088
G2 X-16.877 Y2.133 R1.588
G1 X-16.879 Y2.138
G2 X-16.954 Y2.397 R1.588
G1 X-16.963 Y2.443
G2 X-16.993 Y2.705 R1.588
G1 X-16.994 Y2.749
G2 X-16.97 Y3.08 R1.587
X-16.912 Y3.383 R17.247
X-16.809 Y3.71 R1.587
G1 X-16.79 Y3.752
G2 X-16.688 Y3.947 R1.588
G1 X-16.673 Y3.971
G2 X-16.542 Y4.154 R1.588
G1 X-16.513 Y4.189
G2 X-16.477 Y4.231 R1.587
G1 X-16.478 Y4.238
G2 X-16.52 Y4.503 R1.587
G1 X-16.523 Y4.55
G2 X-16.52 Y4.816 R1.587
G1 X-16.516 Y4.859
G2 X-16.45 Y5.182 R1.587
X-16.354 Y5.476 R17.247
X-16.212 Y5.787 R1.588
G1 X-16.188 Y5.827
G2 X-16.063 Y6.007 R1.587
G1 X-16.045 Y6.029
G2 X-15.891 Y6.195 R1.588
G1 X-15.856 Y6.227
G2 X-15.817 Y6.263 R1.587
G1 Y6.268
G2 X-15.826 Y6.537 R1.588
G1 X-15.823 Y6.583
G2 X-15.786 Y6.85 R1.588
G1 X-15.776 Y6.892
G2 X-15.671 Y7.203 R1.588
X-15.539 Y7.483 R17.247
X-15.359 Y7.772 R1.588
G1 X-15.33 Y7.809
G2 X-15.181 Y7.975 R1.587
G1 X-15.16 Y7.994
G2 X-14.989 Y8.137 R1.588
G1 X-14.952 Y8.165
G2 X-14.907 Y8.196 R1.588
G1 Y8.204
G2 X-14.882 Y8.468 R1.587
G1 X-14.873 Y8.514
G2 X-14.803 Y8.774 R1.587
G1 X-14.788 Y8.815
G2 X-14.644 Y9.11 R1.588
X-14.479 Y9.371 R17.247
X-14.265 Y9.635 R1.588
G1 X-14.232 Y9.668
G2 X-14.062 Y9.814 R1.587
G1 X-14.039 Y9.831
G2 X-13.852 Y9.952 R1.588
G1 X-13.811 Y9.974
G2 X-13.762 Y9.999 R1.587
G1 X-13.761 Y10.007
G2 X-13.703 Y10.267 R1.587
G1 X-13.689 Y10.311
G2 X-13.588 Y10.558 R1.587
G1 X-13.568 Y10.596
G2 X-13.387 Y10.874 R1.588
X-13.19 Y11.112 R17.247
X-12.944 Y11.347 R1.587
G1 X-12.907 Y11.376
G2 X-12.722 Y11.499 R1.588
G1 X-12.697 Y11.513
G2 X-12.496 Y11.609 R1.588
G1 X-12.453 Y11.626
G2 X-12.4 Y11.645 R1.588
G1 X-12.399 Y11.651
G2 X-12.307 Y11.905 R1.588
G1 X-12.288 Y11.948
G2 X-12.157 Y12.179 R1.588
G1 X-12.132 Y12.214
G2 X-11.918 Y12.466 R1.588
X-11.693 Y12.678 R17.247
X-11.422 Y12.879 R1.587
G1 X-11.382 Y12.903
G2 X-11.18 Y13.003 R1.587
G1 X-11.153 Y13.014
G2 X-10.942 Y13.084 R1.587
G1 X-10.897 Y13.095
G2 X-10.843 Y13.108 R1.587
G1 X-10.84 Y13.114
G2 X-10.719 Y13.352 R1.588
G1 X-10.694 Y13.392
G2 X-10.535 Y13.606 R1.588
G1 X-10.506 Y13.638
G2 X-10.262 Y13.862 R1.588
X-10.012 Y14.043 R17.247
X-9.715 Y14.21 R1.587
G1 X-9.672 Y14.229
G2 X-9.466 Y14.3 R1.588
G1 X-9.438 Y14.308
G2 X-9.214 Y14.352 R1.588
G1 X-9.168 Y14.358
G2 X-9.115 Y14.363 R1.588
G1 X-9.111 Y14.37
G2 X-8.961 Y14.59 R1.587
G1 X-8.932 Y14.626
G2 X-8.746 Y14.82 R1.587
G1 X-8.713 Y14.848
G2 X-8.444 Y15.038 R1.588
X-8.173 Y15.187 R17.247
X-7.857 Y15.316 R1.587
G1 X-7.813 Y15.329
G2 X-7.594 Y15.375 R1.587
G1 X-7.565 Y15.379
G2 X-7.344 Y15.394 R1.588
G1 X-7.298
G2 X-7.243 Y15.393 R1.588
G1 X-7.239 Y15.398
G2 X-7.061 Y15.599 R1.587
G1 X-7.027 Y15.631
G2 X-6.822 Y15.797 R1.587
G1 X-6.786 Y15.821
G2 X-6.492 Y15.978 R1.588
X-6.205 Y16.092 R17.247
X-5.876 Y16.18 R1.588
G1 X-5.83 Y16.187
G2 X-5.61 Y16.205 R1.588
G1 X-5.582 Y16.206
G2 X-5.355 Y16.193 R1.587
G1 X-5.309 Y16.187
G2 X-5.256 Y16.179 R1.587
G1 X-5.252 Y16.184
G2 X-5.052 Y16.36 R1.587
G1 X-5.015 Y16.387
G2 X-4.785 Y16.529 R1.588
G1 X-4.746 Y16.549
G2 X-4.439 Y16.666 R1.588
X-4.139 Y16.743 R17.247
X-3.803 Y16.789 R1.587
G1 X-3.756 Y16.79
G2 X-3.533 Y16.78 R1.587
G1 X-3.505 Y16.777
G2 X-3.285 Y16.736 R1.588
G1 X-3.24 Y16.725
G2 X-3.187 Y16.71 R1.588
G1 X-3.182 Y16.714
G2 X-2.96 Y16.865 R1.587
G1 X-2.919 Y16.888
G2 X-2.678 Y16.997 R1.587
G1 X-2.638 Y17.012
G2 X-2.315 Y17.091 R1.588
X-2.008 Y17.13 R17.247
X-1.666 Y17.133 R1.588
G1 X-1.62 Y17.128
G2 X-1.403 Y17.091 R1.588
G1 X-1.375 Y17.084
G2 X-1.16 Y17.016 R1.588
G1 X-1.117 Y16.999
G2 X-1.068 Y16.978 R1.588
G1 X-1.063 Y16.981
G2 X-0.822 Y17.103 R1.587
G1 X-0.779 Y17.121
G2 X-0.524 Y17.2 R1.588
G1 X-0.482 Y17.209
G2 X-0.155 Y17.246 R1.587
X0.155 R17.247
X0.492 Y17.207 R1.588
G1 X0.537 Y17.197
G2 X0.75 Y17.132 R1.587
G1 X0.776 Y17.122
G2 X0.982 Y17.027 R1.587
G1 X1.022 Y17.004
G2 X1.069 Y16.978 R1.588
G1 X1.074 Y16.98
G2 X1.327 Y17.071 R1.588
G1 X1.372 Y17.083
G2 X1.633 Y17.13 R1.588
G1 X1.677 Y17.134
G2 X2.008 Y17.13 R1.587
X2.315 Y17.091 R17.247
X2.644 Y17.01 R1.587
G1 X2.688 Y16.994
G2 X2.893 Y16.902 R1.587
G1 X2.918 Y16.889
G2 X3.107 Y16.77 R1.587
G1 X3.145 Y16.743
G2 X3.188 Y16.71 R1.588
G1 X3.195 Y16.712
G2 X3.454 Y16.77 R1.588
G1 X3.501 Y16.776
G2 X3.77 Y16.79 R1.587
G1 X3.813 Y16.788
G2 X4.139 Y16.743 R1.587
X4.439 Y16.666 R17.247
X4.757 Y16.543 R1.587
G1 X4.798 Y16.522
G2 X4.987 Y16.407 R1.587
G1 X5.01 Y16.391
G2 X5.184 Y16.249 R1.588
G1 X5.218 Y16.217
G2 X5.257 Y16.179 R1.587
G1 X5.262
G2 X5.531 Y16.205 R1.588
G1 X5.578
G2 X5.844 Y16.185 R1.588
G1 X5.887 Y16.178
G2 X6.205 Y16.092 R1.588
X6.492 Y15.978 R17.247
X6.792 Y15.817 R1.588
G1 X6.83 Y15.791
G2 X7.008 Y15.65 R1.588
G1 X7.029 Y15.63
G2 X7.18 Y15.471 R1.588
G1 X7.21 Y15.435
G2 X7.244 Y15.392 R1.587
G1 X7.248
G2 X7.517 Y15.384 R1.587
G1 X7.563 Y15.379
G2 X7.827 Y15.325 R1.588
G1 X7.868 Y15.313
G2 X8.173 Y15.187 R1.588
X8.444 Y15.038 R17.247
X8.721 Y14.841 R1.588
G1 X8.756 Y14.81
G2 X8.912 Y14.65 R1.588
G1 X8.93 Y14.629
G2 X9.062 Y14.449 R1.588
G1 X9.087 Y14.41
G2 X9.116 Y14.363 R1.587
G1 X9.119
G2 X9.387 Y14.32 R1.588
G1 X9.432 Y14.309
G2 X9.685 Y14.223 R1.587
G1 X9.725 Y14.206
G2 X10.012 Y14.043 R1.588
X10.262 Y13.862 R17.247
X10.512 Y13.632 R1.588
G1 X10.542 Y13.597
G2 X10.679 Y13.416 R1.587
G1 X10.694 Y13.393
G2 X10.802 Y13.199 R1.587
G1 X10.821 Y13.157
G2 X10.844 Y13.107 R1.588
G1 X10.852 Y13.105
G2 X11.108 Y13.031 R1.587
G1 X11.152 Y13.014
G2 X11.39 Y12.898 R1.588
G1 X11.428 Y12.876
G2 X11.693 Y12.678 R1.587
X11.918 Y12.466 R17.247
X12.137 Y12.207 R1.588
G1 X12.163 Y12.169
G2 X12.276 Y11.972 R1.588
G1 X12.289 Y11.947
G2 X12.371 Y11.741 R1.587
G1 X12.385 Y11.697
G2 X12.401 Y11.645 R1.587
G1 X12.407 Y11.643
G2 X12.652 Y11.536 R1.588
G1 X12.694 Y11.514
G2 X12.918 Y11.368 R1.588
G1 X12.952 Y11.341
G2 X13.19 Y11.112 R1.588
X13.387 Y10.874 R17.247
X13.573 Y10.586 R1.587
G1 X13.594 Y10.545
G2 X13.678 Y10.345 R1.587
G1 X13.687 Y10.318
G2 X13.745 Y10.097 R1.587
G1 X13.754 Y10.052
G2 X13.763 Y9.999 R1.588
G1 X13.769 Y9.996
G2 X13.998 Y9.86 R1.588
G1 X14.036 Y9.833
G2 X14.241 Y9.659 R1.587
G1 X14.271 Y9.628
G2 X14.479 Y9.371 R1.588
X14.644 Y9.11 R17.247
X14.792 Y8.804 R1.588
G1 X14.808 Y8.76
G2 X14.867 Y8.546 R1.588
G1 X14.873 Y8.518
G2 X14.902 Y8.295 R1.588
G1 X14.905 Y8.249
G2 X14.907 Y8.195 R1.587
G1 X14.912 Y8.192
G2 X15.124 Y8.027 R1.587
G1 X15.158 Y7.996
G2 X15.34 Y7.798 R1.588
G1 X15.366 Y7.763
G2 X15.539 Y7.483 R1.588
X15.671 Y7.203 R17.247
X15.779 Y6.881 R1.587
G1 X15.789 Y6.836
G2 X15.821 Y6.617 R1.588
G1 X15.823 Y6.589
G2 X15.824 Y6.361 R1.587
G1 X15.821 Y6.314
G2 X15.817 Y6.262 R1.587
G1 X15.822 Y6.257
G2 X16.01 Y6.069 R1.587
G1 X16.04 Y6.034
G2 X16.196 Y5.814 R1.587
G1 X16.218 Y5.776
G2 X16.354 Y5.476 R1.587
X16.45 Y5.182 R17.247
X16.517 Y4.849 R1.588
G1 X16.521 Y4.802
G2 X16.525 Y4.581 R1.588
G1 X16.524 Y4.552
G2 X16.497 Y4.331 R1.587
G1 X16.489 Y4.285
G2 X16.477 Y4.23 R1.588
G1 X16.481 Y4.226
G2 X16.646 Y4.013 R1.588
G1 X16.671 Y3.973
G2 X16.796 Y3.739 R1.587
G1 X16.813 Y3.7
G2 X16.912 Y3.383 R1.588
X16.97 Y3.08 R17.247
X16.994 Y2.742 R1.588
G1 X16.993 Y2.695
G2 X16.969 Y2.471 R1.588
G1 X16.964 Y2.443
G2 X16.91 Y2.228 R1.587
G1 X16.895 Y2.184
G2 X16.877 Y2.131 R1.588
G1 X16.882 Y2.125
G2 X17.016 Y1.898 R1.588
G1 X17.036 Y1.856
G2 X17.133 Y1.602 R1.588
G1 X17.145 Y1.56
G2 X17.202 Y1.238 R1.587
X17.222 Y0.929 R17.247
X17.203 Y0.587 R1.588
G1 X17.196 Y0.541
G2 X17.146 Y0.328 R1.587
G1 X17.137 Y0.301
G2 X17.055 Y0.089 R1.587
G1 X17.035 Y0.047
G2 X17.011 Y-0.001 R1.588
G1 X17.015 Y-0.007
G2 X17.121 Y-0.252 R1.587
G1 X17.135 Y-0.296
G2 X17.198 Y-0.555 R1.587
G1 X17.205 Y-0.597
G2 X17.222 Y-0.929 R1.588
X17.202 Y-1.238 R17.247
X17.142 Y-1.57 R1.588
G1 X17.129 Y-1.615
G2 X17.05 Y-1.826 R1.588
G1 X17.039 Y-1.852
G2 X16.932 Y-2.048 R1.588
G1 X16.907 Y-2.088
G2 X16.877 Y-2.133 R1.588
G1 X16.879 Y-2.138
G2 X16.954 Y-2.397 R1.588
G1 X16.963 Y-2.443
G2 X16.993 Y-2.705 R1.588
G1 X16.994 Y-2.749
G2 X16.97 Y-3.08 R1.587
X16.912 Y-3.383 R17.247
X16.809 Y-3.71 R1.587
G1 X16.79 Y-3.752
G2 X16.688 Y-3.947 R1.588
G1 X16.673 Y-3.971
G2 X16.542 Y-4.154 R1.588
G1 X16.513 Y-4.189
G2 X16.477 Y-4.231 R1.587
G1 X16.478 Y-4.238
G2 X16.52 Y-4.503 R1.587
G1 X16.523 Y-4.55
G2 X16.52 Y-4.816 R1.587
G1 X16.516 Y-4.859
G2 X16.45 Y-5.182 R1.587
X16.354 Y-5.476 R17.247
X16.212 Y-5.787 R1.588
G1 X16.188 Y-5.827
G2 X16.063 Y-6.007 R1.587
G1 X16.045 Y-6.029
G2 X15.891 Y-6.195 R1.588
G1 X15.856 Y-6.227
G2 X15.817 Y-6.263 R1.587
G1 Y-6.268
G2 X15.826 Y-6.537 R1.588
G1 X15.823 Y-6.583
G2 X15.786 Y-6.85 R1.588
G1 X15.776 Y-6.892
G2 X15.671 Y-7.203 R1.588
X15.539 Y-7.483 R17.247
X15.359 Y-7.772 R1.588
G1 X15.33 Y-7.809
G2 X15.181 Y-7.975 R1.587
G1 X15.16 Y-7.994
G2 X14.989 Y-8.137 R1.588
G1 X14.952 Y-8.165
G2 X14.907 Y-8.196 R1.588
G1 Y-8.204
G2 X14.882 Y-8.468 R1.587
G1 X14.873 Y-8.514
G2 X14.803 Y-8.774 R1.587
G1 X14.788 Y-8.815
G2 X14.644 Y-9.11 R1.588
X14.479 Y-9.371 R17.247
X14.265 Y-9.635 R1.588
G1 X14.232 Y-9.668
G2 X14.062 Y-9.814 R1.587
G1 X14.039 Y-9.831
G2 X13.852 Y-9.952 R1.588
G1 X13.811 Y-9.974
G2 X13.762 Y-9.999 R1.587
G1 X13.761 Y-10.007
G2 X13.703 Y-10.267 R1.587
G1 X13.689 Y-10.311
G2 X13.588 Y-10.558 R1.587
G1 X13.568 Y-10.596
G2 X13.387 Y-10.874 R1.588
X13.19 Y-11.112 R17.247
X12.944 Y-11.347 R1.587
G1 X12.907 Y-11.376
G2 X12.722 Y-11.499 R1.588
G1 X12.697 Y-11.513
G2 X12.496 Y-11.609 R1.588
G1 X12.453 Y-11.626
G2 X12.4 Y-11.645 R1.588
G1 X12.399 Y-11.651
G2 X12.307 Y-11.905 R1.588
G1 X12.288 Y-11.948
G2 X12.157 Y-12.179 R1.588
G1 X12.132 Y-12.214
G2 X11.918 Y-12.466 R1.588
X11.693 Y-12.678 R17.247
X11.422 Y-12.879 R1.587
G1 X11.382 Y-12.903
G2 X11.18 Y-13.003 R1.587
G1 X11.153 Y-13.014
G2 X10.942 Y-13.084 R1.587
G1 X10.897 Y-13.095
G2 X10.843 Y-13.108 R1.587
G1 X10.84 Y-13.114
G2 X10.719 Y-13.352 R1.588
G1 X10.694 Y-13.392
G2 X10.535 Y-13.606 R1.588
G1 X10.506 Y-13.638
G2 X10.262 Y-13.862 R1.588
X10.012 Y-14.043 R17.247
X9.715 Y-14.21 R1.587
G1 X9.672 Y-14.229
G2 X9.466 Y-14.3 R1.588
G1 X9.438 Y-14.308
G2 X9.214 Y-14.352 R1.588
G1 X9.168 Y-14.358
G2 X9.115 Y-14.363 R1.588
G1 X9.111 Y-14.37
G2 X8.961 Y-14.59 R1.587
G1 X8.932 Y-14.626
G2 X8.746 Y-14.82 R1.587
G1 X8.713 Y-14.848
G2 X8.444 Y-15.038 R1.588
X8.173 Y-15.187 R17.247
X7.857 Y-15.316 R1.587
G1 X7.813 Y-15.329
G2 X7.594 Y-15.375 R1.587
G1 X7.565 Y-15.379
G2 X7.344 Y-15.394 R1.588
G1 X7.298
G2 X7.243 Y-15.393 R1.588
G1 X7.239 Y-15.398
G2 X7.061 Y-15.599 R1.587
G1 X7.027 Y-15.631
G2 X6.822 Y-15.797 R1.587
G1 X6.786 Y-15.821
G2 X6.492 Y-15.978 R1.588
X6.205 Y-16.092 R17.247
X5.876 Y-16.18 R1.588
G1 X5.83 Y-16.187
G2 X5.61 Y-16.205 R1.588
G1 X5.582 Y-16.206
G2 X5.355 Y-16.193 R1.587
G1 X5.309 Y-16.187
G2 X5.256 Y-16.179 R1.587
G1 X5.252 Y-16.184
G2 X5.052 Y-16.36 R1.587
G1 X5.015 Y-16.387
G2 X4.785 Y-16.529 R1.588
G1 X4.746 Y-16.549
G2 X4.439 Y-16.666 R1.588
X4.139 Y-16.743 R17.247
X3.803 Y-16.789 R1.587
G1 X3.756 Y-16.79
G2 X3.533 Y-16.78 R1.587
G1 X3.505 Y-16.777
G2 X3.285 Y-16.736 R1.588
G1 X3.24 Y-16.725
G2 X3.187 Y-16.71 R1.588
G1 X3.182 Y-16.714
G2 X2.96 Y-16.865 R1.587
G1 X2.919 Y-16.888
G2 X2.678 Y-16.997 R1.587
G1 X2.638 Y-17.012
G2 X2.315 Y-17.091 R1.588
X2.008 Y-17.13 R17.247
X1.666 Y-17.133 R1.588
G1 X1.62 Y-17.128
G2 X1.403 Y-17.091 R1.588
G1 X1.375 Y-17.084
G2 X1.16 Y-17.016 R1.588
G1 X1.117 Y-16.999
G2 X1.068 Y-16.978 R1.588
G1 X1.063 Y-16.981
G2 X0.822 Y-17.103 R1.587
G1 X0.779 Y-17.121
G2 X0.524 Y-17.2 R1.588
G1 X0.482 Y-17.209
G2 X0.155 Y-17.246 R1.587
X-0.155 R17.247
X-0.492 Y-17.207 R1.588
G1 X-0.537 Y-17.197
G2 X-0.75 Y-17.132 R1.587
G1 X-0.776 Y-17.122
G2 X-0.982 Y-17.027 R1.587
G1 X-1.022 Y-17.004
G2 X-1.069 Y-16.978 R1.588
G1 X-1.074 Y-16.98
G2 X-1.327 Y-17.071 R1.588
G1 X-1.372 Y-17.083
G2 X-1.633 Y-17.13 R1.588
G1 X-1.677 Y-17.134
G2 X-2.008 Y-17.13 R1.587
X-2.315 Y-17.091 R17.247
X-2.644 Y-17.01 R1.587
G1 X-2.688 Y-16.994
G2 X-2.893 Y-16.902 R1.587
G1 X-2.918 Y-16.889
G2 X-3.107 Y-16.77 R1.587
G1 X-3.145 Y-16.743
G2 X-3.188 Y-16.71 R1.588
G1 X-3.195 Y-16.712
G2 X-3.454 Y-16.77 R1.588
G1 X-3.501 Y-16.776
G2 X-3.77 Y-16.79 R1.587
G1 X-3.813 Y-16.788
G2 X-4.139 Y-16.743 R1.587
X-4.439 Y-16.666 R17.247
X-4.757 Y-16.543 R1.587
G1 X-4.798 Y-16.522
G2 X-4.987 Y-16.407 R1.587
G1 X-5.01 Y-16.391
G2 X-5.184 Y-16.249 R1.588
G1 X-5.218 Y-16.217
G2 X-5.257 Y-16.179 R1.587
G1 X-5.262
G2 X-5.531 Y-16.205 R1.588
G1 X-5.578
G2 X-5.844 Y-16.185 R1.588
G1 X-5.887 Y-16.178
G2 X-6.205 Y-16.092 R1.588
X-6.492 Y-15.978 R17.247
X-6.792 Y-15.817 R1.588
G1 X-6.83 Y-15.791
G2 X-7.008 Y-15.65 R1.588
G1 X-7.029 Y-15.63
G2 X-7.18 Y-15.471 R1.588
G1 X-7.21 Y-15.435
G2 X-7.244 Y-15.392 R1.587
G1 X-7.248
G2 X-7.517 Y-15.384 R1.587
G1 X-7.563 Y-15.379
G2 X-7.827 Y-15.325 R1.588
G1 X-7.868 Y-15.313
G2 X-8.173 Y-15.187 R1.588
X-8.444 Y-15.038 R17.247
X-8.721 Y-14.841 R1.588
G1 X-8.756 Y-14.81
G2 X-8.912 Y-14.65 R1.588
G1 X-8.93 Y-14.629
G2 X-9.062 Y-14.449 R1.588
G1 X-9.087 Y-14.41
G2 X-9.116 Y-14.363 R1.587
G1 X-9.119
G2 X-9.387 Y-14.32 R1.588
G1 X-9.432 Y-14.309
G2 X-9.685 Y-14.223 R1.587
G1 X-9.725 Y-14.206
G2 X-10.012 Y-14.043 R1.588
X-10.262 Y-13.862 R17.247
X-10.512 Y-13.632 R1.588
G1 X-10.542 Y-13.597
G2 X-10.679 Y-13.416 R1.587
G1 X-10.694 Y-13.393
G2 X-10.802 Y-13.199 R1.587
G1 X-10.821 Y-13.157
G2 X-10.844 Y-13.107 R1.588
G1 X-10.852 Y-13.105
G2 X-11.108 Y-13.031 R1.587
G1 X-11.152 Y-13.014
G2 X-11.39 Y-12.898 R1.588
G1 X-11.428 Y-12.876
G2 X-11.693 Y-12.678 R1.587
X-11.918 Y-12.466 R17.247
X-12.137 Y-12.207 R1.588
G1 X-12.163 Y-12.169
G2 X-12.276 Y-11.972 R1.588
G1 X-12.289 Y-11.947
G2 X-12.371 Y-11.741 R1.587
G1 X-12.385 Y-11.697
G2 X-12.401 Y-11.645 R1.587
G1 X-12.407 Y-11.643
G2 X-12.652 Y-11.536 R1.588
G1 X-12.694 Y-11.514
G2 X-12.918 Y-11.368 R1.588
G1 X-12.952 Y-11.341
G2 X-13.19 Y-11.112 R1.588
X-13.387 Y-10.874 R17.247
X-13.573 Y-10.586 R1.587
G1 X-13.594 Y-10.545
G2 X-13.678 Y-10.345 R1.587
G1 X-13.687 Y-10.318
G2 X-13.745 Y-10.097 R1.587
G1 X-13.754 Y-10.052
G2 X-13.763 Y-9.999 R1.588
G1 X-13.769 Y-9.996
G2 X-13.998 Y-9.86 R1.588
G1 X-14.036 Y-9.833
G2 X-14.241 Y-9.659 R1.587
G1 X-14.271 Y-9.628
G2 X-14.479 Y-9.371 R1.588
X-14.644 Y-9.11 R17.247
X-14.792 Y-8.804 R1.588
G1 X-14.808 Y-8.76
G2 X-14.867 Y-8.546 R1.588
G1 X-14.873 Y-8.518
G2 X-14.902 Y-8.295 R1.588
G1 X-14.905 Y-8.249
G2 X-14.907 Y-8.195 R1.587
G1 X-14.912 Y-8.192
G2 X-15.124 Y-8.027 R1.587
G1 X-15.158 Y-7.996
G2 X-15.34 Y-7.798 R1.588
G1 X-15.366 Y-7.763
G2 X-15.539 Y-7.483 R1.588
X-15.671 Y-7.203 R17.247
X-15.779 Y-6.881 R1.587
G1 X-15.789 Y-6.836
G2 X-15.821 Y-6.617 R1.588
G1 X-15.823 Y-6.589
G2 X-15.824 Y-6.361 R1.587
G1 X-15.821 Y-6.314
G2 X-15.817 Y-6.262 R1.587
G1 X-15.822 Y-6.257
G2 X-16.01 Y-6.069 R1.587
G1 X-16.04 Y-6.034
G2 X-16.196 Y-5.814 R1.587
G1 X-16.218 Y-5.776
G2 X-16.354 Y-5.476 R1.587
X-16.45 Y-5.182 R17.247
X-16.517 Y-4.849 R1.588
G1 X-16.521 Y-4.802
G2 X-16.525 Y-4.581 R1.588
G1 X-16.524 Y-4.552
G2 X-16.497 Y-4.331 R1.587
G1 X-16.489 Y-4.285
G2 X-16.477 Y-4.23 R1.588
G1 X-16.481 Y-4.226
G2 X-16.646 Y-4.013 R1.588
G1 X-16.671 Y-3.973
G2 X-16.796 Y-3.739 R1.587
G1 X-16.813 Y-3.7
G2 X-16.912 Y-3.383 R1.588
X-16.97 Y-3.08 R17.247
X-16.994 Y-2.742 R1.588
G1 X-16.993 Y-2.695
G2 X-16.969 Y-2.471 R1.588
G1 X-16.964 Y-2.443
G2 X-16.91 Y-2.228 R1.587
G1 X-16.895 Y-2.184
G2 X-16.877 Y-2.131 R1.588
G1 X-16.882 Y-2.125
G2 X-17.016 Y-1.898 R1.588
G1 X-17.036 Y-1.856
G2 X-17.133 Y-1.602 R1.588
G1 X-17.145 Y-1.56
G2 X-17.202 Y-1.238 R1.587
X-17.222 Y-0.929 R17.247
X-17.224 Y-0.817 R1.587
X-17.203 Y-0.587 Z-2.026 R1.588 F200.
G1 X-17.196 Y-0.541 Z-2.031
G2 X-17.146 Y-0.328 Z-2.056 R1.587
G1 X-17.137 Y-0.301 Z-2.06
G2 X-17.055 Y-0.089 Z-2.085 R1.587
G1 X-17.035 Y-0.047 Z-2.091
G2 X-17.011 Y0.001 Z-2.097 R1.588
G1 X-17.015 Y0.007 Z-2.098
G2 X-17.121 Y0.252 Z-2.128 R1.587
G1 X-17.135 Y0.296 Z-2.133
G2 X-17.198 Y0.555 Z-2.164 R1.587
G1 X-17.205 Y0.597 Z-2.168
G2 X-17.222 Y0.929 Z-2.206 R1.588
X-17.202 Y1.238 Z-2.241 R17.247
X-17.142 Y1.57 Z-2.28 R1.588
G1 X-17.129 Y1.615 Z-2.285
G2 X-17.05 Y1.826 Z-2.311 R1.588
G1 X-17.039 Y1.852 Z-2.314
G2 X-16.932 Y2.048 Z-2.339 R1.588
G1 X-16.907 Y2.088 Z-2.345
G2 X-16.877 Y2.133 Z-2.351 R1.588
G1 X-16.879 Y2.138
G2 X-16.954 Y2.397 Z-2.382 R1.588
G1 X-16.963 Y2.443 Z-2.387
G2 X-16.993 Y2.705 Z-2.417 R1.588
G1 X-16.994 Y2.749 Z-2.422
G2 X-16.97 Y3.08 Z-2.46 R1.587
X-16.912 Y3.383 Z-2.495 R17.247
X-16.809 Y3.71 Z-2.534 R1.587
G1 X-16.79 Y3.752 Z-2.54
G2 X-16.688 Y3.947 Z-2.564 R1.588
G1 X-16.673 Y3.971 Z-2.568
G2 X-16.542 Y4.154 Z-2.593 R1.588
G1 X-16.513 Y4.189 Z-2.599
G2 X-16.477 Y4.231 Z-2.605 R1.587
G1 X-16.478 Y4.238 Z-2.606
G2 X-16.52 Y4.503 Z-2.636 R1.587
G1 X-16.523 Y4.55 Z-2.641
G2 X-16.52 Y4.816 Z-2.672 R1.587
G1 X-16.516 Y4.859 Z-2.677
G2 X-16.45 Y5.182 Z-2.714 R1.587
X-16.354 Y5.476 Z-2.749 R17.247
X-16.212 Y5.787 Z-2.788 R1.588
G1 X-16.188 Y5.827 Z-2.793
G2 X-16.063 Y6.007 Z-2.818 R1.587
G1 X-16.045 Y6.029 Z-2.822
G2 X-15.891 Y6.195 Z-2.847 R1.588
G1 X-15.856 Y6.227 Z-2.853
G2 X-15.817 Y6.263 Z-2.859 R1.587
G1 Y6.268
G2 X-15.826 Y6.537 Z-2.89 R1.588
G1 X-15.823 Y6.583 Z-2.895
G2 X-15.786 Y6.85 Z-2.926 R1.588
G1 X-15.776 Y6.892 Z-2.931
G2 X-15.671 Y7.203 Z-2.968 R1.588
X-15.539 Y7.483 Z-3.003 R17.247
X-15.359 Y7.772 Z-3.042 R1.588
G1 X-15.33 Y7.809 Z-3.047
G2 X-15.181 Y7.975 Z-3.073 R1.587
G1 X-15.16 Y7.994 Z-3.076
G2 X-14.989 Y8.137 Z-3.101 R1.588
G1 X-14.952 Y8.165 Z-3.107
G2 X-14.907 Y8.196 Z-3.113 R1.588
G1 Y8.204 Z-3.114
G2 X-14.882 Y8.468 Z-3.144 R1.587
G1 X-14.873 Y8.514 Z-3.149
G2 X-14.803 Y8.774 Z-3.18 R1.587
G1 X-14.788 Y8.815 Z-3.185
G2 X-14.644 Y9.11 Z-3.222 R1.588
X-14.479 Y9.371 Z-3.257 R17.247
X-14.265 Y9.635 Z-3.296 R1.588
G1 X-14.232 Y9.668 Z-3.301
G2 X-14.062 Y9.814 Z-3.327 R1.587
G1 X-14.039 Y9.831 Z-3.33
G2 X-13.852 Y9.952 Z-3.355 R1.588
G1 X-13.811 Y9.974 Z-3.361
G2 X-13.762 Y9.999 Z-3.367 R1.587
G1 X-13.761 Y10.007 Z-3.368
G2 X-13.703 Y10.267 Z-3.398 R1.587
G1 X-13.689 Y10.311 Z-3.403
G2 X-13.588 Y10.558 Z-3.434 R1.587
G1 X-13.568 Y10.596 Z-3.438
G2 X-13.387 Y10.874 Z-3.476 R1.588
X-13.19 Y11.112 Z-3.511 R17.247
X-12.944 Y11.347 Z-3.55 R1.587
G1 X-12.907 Y11.376 Z-3.555
G2 X-12.722 Y11.499 Z-3.581 R1.588
G1 X-12.697 Y11.513 Z-3.584
G2 X-12.496 Y11.609 Z-3.609 R1.588
G1 X-12.453 Y11.626 Z-3.614
G2 X-12.4 Y11.645 Z-3.621 R1.588
G1 X-12.399 Y11.651 Z-3.622
G2 X-12.307 Y11.905 Z-3.652 R1.588
G1 X-12.288 Y11.948 Z-3.657
G2 X-12.157 Y12.179 Z-3.688 R1.588
G1 X-12.132 Y12.214 Z-3.693
G2 X-11.918 Y12.466 Z-3.73 R1.588
X-11.693 Y12.678 Z-3.765 R17.247
X-11.422 Y12.879 Z-3.804 R1.587
G1 X-11.382 Y12.903 Z-3.809
G2 X-11.18 Y13.003 Z-3.835 R1.587
G1 X-11.153 Y13.014 Z-3.838
G2 X-10.942 Y13.084 Z-3.863 R1.587
G1 X-10.897 Y13.095 Z-3.869
G2 X-10.843 Y13.108 Z-3.875 R1.587
G1 X-10.84 Y13.114 Z-3.876
G2 X-10.719 Y13.352 Z-3.906 R1.588
G1 X-10.694 Y13.392 Z-3.911
G2 X-10.535 Y13.606 Z-3.942 R1.588
G1 X-10.506 Y13.638 Z-3.947
G2 X-10.262 Y13.862 Z-3.984 R1.588
X-10.15 Y13.944 Z-4. R17.247
X-10.012 Y14.043 R17.247 F800.
X-9.715 Y14.21 R1.587
G1 X-9.672 Y14.229
G2 X-9.466 Y14.3 R1.588
G1 X-9.438 Y14.308
G2 X-9.214 Y14.352 R1.588
G1 X-9.168 Y14.358
G2 X-9.115 Y14.363 R1.588
G1 X-9.111 Y14.37
G2 X-8.961 Y14.59 R1.587
G1 X-8.932 Y14.626
G2 X-8.746 Y14.82 R1.587
G1 X-8.713 Y14.848
G2 X-8.444 Y15.038 R1.588
X-8.173 Y15.187 R17.247
X-7.857 Y15.316 R1.587
G1 X-7.813 Y15.329
G2 X-7.594 Y15.375 R1.587
G1 X-7.565 Y15.379
G2 X-7.344 Y15.394 R1.588
G1 X-7.298
G2 X-7.243 Y15.393 R1.588
G1 X-7.239 Y15.398
G2 X-7.061 Y15.599 R1.587
G1 X-7.027 Y15.631
G2 X-6.822 Y15.797 R1.587
G1 X-6.786 Y15.821
G2 X-6.492 Y15.978 R1.588
X-6.205 Y16.092 R17.247
X-5.876 Y16.18 R1.588
G1 X-5.83 Y16.187
G2 X-5.61 Y16.205 R1.588
G1 X-5.582 Y16.206
G2 X-5.355 Y16.193 R1.587
G1 X-5.309 Y16.187
G2 X-5.256 Y16.179 R1.587
G1 X-5.252 Y16.184
G2 X-5.052 Y16.36 R1.587
G1 X-5.015 Y16.387
G2 X-4.785 Y16.529 R1.588
G1 X-4.746 Y16.549
G2 X-4.439 Y16.666 R1.588
X-4.139 Y16.743 R17.247
X-3.803 Y16.789 R1.587
G1 X-3.756 Y16.79
G2 X-3.533 Y16.78 R1.587
G1 X-3.505 Y16.777
G2 X-3.285 Y16.736 R1.588
G1 X-3.24 Y16.725
G2 X-3.187 Y16.71 R1.588
G1 X-3.182 Y16.714
G2 X-2.96 Y16.865 R1.587
G1 X-2.919 Y16.888
G2 X-2.678 Y16.997 R1.587
G1 X-2.638 Y17.012
G2 X-2.315 Y17.091 R1.588
X-2.008 Y17.13 R17.247
X-1.666 Y17.133 R1.588
G1 X-1.62 Y17.128
G2 X-1.403 Y17.091 R1.588
G1 X-1.375 Y17.084
G2 X-1.16 Y17.016 R1.588
G1 X-1.117 Y16.999
G2 X-1.068 Y16.978 R1.588
G1 X-1.063 Y16.981
G2 X-0.822 Y17.103 R1.587
G1 X-0.779 Y17.121
G2 X-0.524 Y17.2 R1.588
G1 X-0.482 Y17.209
G2 X-0.155 Y17.246 R1.587
X0.155 R17.247
X0.492 Y17.207 R1.588
G1 X0.537 Y17.197
G2 X0.75 Y17.132 R1.587
G1 X0.776 Y17.122
G2 X0.982 Y17.027 R1.587
G1 X1.022 Y17.004
G2 X1.069 Y16.978 R1.588
G1 X1.074 Y16.98
G2 X1.327 Y17.071 R1.588
G1 X1.372 Y17.083
G2 X1.633 Y17.13 R1.588
G1 X1.677 Y17.134
G2 X2.008 Y17.13 R1.587
X2.315 Y17.091 R17.247
X2.644 Y17.01 R1.587
G1 X2.688 Y16.994
G2 X2.893 Y16.902 R1.587
G1 X2.918 Y16.889
G2 X3.107 Y16.77 R1.587
G1 X3.145 Y16.743
G2 X3.188 Y16.71 R1.588
G1 X3.195 Y16.712
G2 X3.454 Y16.77 R1.588
G1 X3.501 Y16.776
G2 X3.77 Y16.79 R1.587
G1 X3.813 Y16.788
G2 X4.139 Y16.743 R1.587
X4.439 Y16.666 R17.247
X4.757 Y16.543 R1.587
G1 X4.798 Y16.522
G2 X4.987 Y16.407 R1.587
G1 X5.01 Y16.391
G2 X5.184 Y16.249 R1.588
G1 X5.218 Y16.217
G2 X5.257 Y16.179 R1.587
G1 X5.262
G2 X5.531 Y16.205 R1.588
G1 X5.578
G2 X5.844 Y16.185 R1.588
G1 X5.887 Y16.178
G2 X6.205 Y16.092 R1.588
X6.492 Y15.978 R17.247
X6.792 Y15.817 R1.588
G1 X6.83 Y15.791
G2 X7.008 Y15.65 R1.588
G1 X7.029 Y15.63
G2 X7.18 Y15.471 R1.588
G1 X7.21 Y15.435
G2 X7.244 Y15.392 R1.587
G1 X7.248
G2 X7.517 Y15.384 R1.587
G1 X7.563 Y15.379
G2 X7.827 Y15.325 R1.588
G1 X7.868 Y15.313
G2 X8.173 Y15.187 R1.588
X8.444 Y15.038 R17.247
X8.721 Y14.841 R1.588
G1 X8.756 Y14.81
G2 X8.912 Y14.65 R1.588
G1 X8.93 Y14.629
G2 X9.062 Y14.449 R1.588
G1 X9.087 Y14.41
G2 X9.116 Y14.363 R1.587
G1 X9.119
G2 X9.387 Y14.32 R1.588
G1 X9.432 Y14.309
G2 X9.685 Y14.223 R1.587
G1 X9.725 Y14.206
G2 X10.012 Y14.043 R1.588
X10.262 Y13.862 R17.247
X10.512 Y13.632 R1.588
G1 X10.542 Y13.597
G2 X10.679 Y13.416 R1.587
G1 X10.694 Y13.393
G2 X10.802 Y13.199 R1.587
G1 X10.821 Y13.157
G2 X10.844 Y13.107 R1.588
G1 X10.852 Y13.105
G2 X11.108 Y13.031 R1.587
G1 X11.152 Y13.014
G2 X11.39 Y12.898 R1.588
G1 X11.428 Y12.876
G2 X11.693 Y12.678 R1.587
X11.918 Y12.466 R17.247
X12.137 Y12.207 R1.588
G1 X12.163 Y12.169
G2 X12.276 Y11.972 R1.588
G1 X12.289 Y11.947
G2 X12.371 Y11.741 R1.587
G1 X12.385 Y11.697
G2 X12.401 Y11.645 R1.587
G1 X12.407 Y11.643
G2 X12.652 Y11.536 R1.588
G1 X12.694 Y11.514
G2 X12.918 Y11.368 R1.588
G1 X12.952 Y11.341
G2 X13.19 Y11.112 R1.588
X13.387 Y10.874 R17.247
X13.573 Y10.586 R1.587
G1 X13.594 Y10.545
G2 X13.678 Y10.345 R1.587
G1 X13.687 Y10.318
G2 X13.745 Y10.097 R1.587
G1 X13.754 Y10.052
G2 X13.763 Y9.999 R1.588
G1 X13.769 Y9.996
G2 X13.998 Y9.86 R1.588
G1 X14.036 Y9.833
G2 X14.241 Y9.659 R1.587
G1 X14.271 Y9.628
G2 X14.479 Y9.371 R1.588
X14.644 Y9.11 R17.247
X14.792 Y8.804 R1.588
G1 X14.808 Y8.76
G2 X14.867 Y8.546 R1.588
G1 X14.873 Y8.518
G2 X14.902 Y8.295 R1.588
G1 X14.905 Y8.249
G2 X14.907 Y8.195 R1.587
G1 X14.912 Y8.192
G2 X15.124 Y8.027 R1.587
G1 X15.158 Y7.996
G2 X15.34 Y7.798 R1.588
G1 X15.366 Y7.763
G2 X15.539 Y7.483 R1.588
X15.671 Y7.203 R17.247
X15.779 Y6.881 R1.587
G1 X15.789 Y6.836
G2 X15.821 Y6.617 R1.588
G1 X15.823 Y6.589
G2 X15.824 Y6.361 R1.587
G1 X15.821 Y6.314
G2 X15.817 Y6.262 R1.587
G1 X15.822 Y6.257
G2 X16.01 Y6.069 R1.587
G1 X16.04 Y6.034
G2 X16.196 Y5.814 R1.587
G1 X16.218 Y5.776
G2 X16.354 Y5.476 R1.587
X16.45 Y5.182 R17.247
X16.517 Y4.849 R1.588
G1 X16.521 Y4.802
G2 X16.525 Y4.581 R1.588
G1 X16.524 Y4.552
G2 X16.497 Y4.331 R1.587
G1 X16.489 Y4.285
G2 X16.477 Y4.23 R1.588
G1 X16.481 Y4.226
G2 X16.646 Y4.013 R1.588
G1 X16.671 Y3.973
G2 X16.796 Y3.739 R1.587
G1 X16.813 Y3.7
G2 X16.912 Y3.383 R1.588
X16.97 Y3.08 R17.247
X16.994 Y2.742 R1.588
G1 X16.993 Y2.695
G2 X16.969 Y2.471 R1.588
G1 X16.964 Y2.443
G2 X16.91 Y2.228 R1.587
G1 X16.895 Y2.184
G2 X16.877 Y2.131 R1.588
G1 X16.882 Y2.125
G2 X17.016 Y1.898 R1.588
G1 X17.036 Y1.856
G2 X17.133 Y1.602 R1.588
G1 X17.145 Y1.56
G2 X17.202 Y1.238 R1.587
X17.222 Y0.929 R17.247
X17.203 Y0.587 R1.588
G1 X17.196 Y0.541
G2 X17.146 Y0.328 R1.587
G1 X17.137 Y0.301
G2 X17.055 Y0.089 R1.587
G1 X17.035 Y0.047
G2 X17.011 Y-0.001 R1.588
G1 X17.015 Y-0.007
G2 X17.121 Y-0.252 R1.587
G1 X17.135 Y-0.296
G2 X17.198 Y-0.555 R1.587
G1 X17.205 Y-0.597
G2 X17.222 Y-0.929 R1.588
X17.202 Y-1.238 R17.247
X17.142 Y-1.57 R1.588
G1 X17.129 Y-1.615
G2 X17.05 Y-1.826 R1.588
G1 X17.039 Y-1.852
G2 X16.932 Y-2.048 R1.588
G1 X16.907 Y-2.088
G2 X16.877 Y-2.133 R1.588
G1 X16.879 Y-2.138
G2 X16.954 Y-2.397 R1.588
G1 X16.963 Y-2.443
G2 X16.993 Y-2.705 R1.588
G1 X16.994 Y-2.749
G2 X16.97 Y-3.08 R1.587
X16.912 Y-3.383 R17.247
X16.809 Y-3.71 R1.587
G1 X16.79 Y-3.752
G2 X16.688 Y-3.947 R1.588
G1 X16.673 Y-3.971
G2 X16.542 Y-4.154 R1.588
G1 X16.513 Y-4.189
G2 X16.477 Y-4.231 R1.587
G1 X16.478 Y-4.238
G2 X16.52 Y-4.503 R1.587
G1 X16.523 Y-4.55
G2 X16.52 Y-4.816 R1.587
G1 X16.516 Y-4.859
G2 X16.45 Y-5.182 R1.587
X16.354 Y-5.476 R17.247
X16.212 Y-5.787 R1.588
G1 X16.188 Y-5.827
G2 X16.063 Y-6.007 R1.587
G1 X16.045 Y-6.029
G2 X15.891 Y-6.195 R1.588
G1 X15.856 Y-6.227
G2 X15.817 Y-6.263 R1.587
G1 Y-6.268
G2 X15.826 Y-6.537 R1.588
G1 X15.823 Y-6.583
G2 X15.786 Y-6.85 R1.588
G1 X15.776 Y-6.892
G2 X15.671 Y-7.203 R1.588
X15.539 Y-7.483 R17.247
X15.359 Y-7.772 R1.588
G1 X15.33 Y-7.809
G2 X15.181 Y-7.975 R1.587
G1 X15.16 Y-7.994
G2 X14.989 Y-8.137 R1.588
G1 X14.952 Y-8.165
G2 X14.907 Y-8.196 R1.588
G1 Y-8.204
G2 X14.882 Y-8.468 R1.587
G1 X14.873 Y-8.514
G2 X14.803 Y-8.774 R1.587
G1 X14.788 Y-8.815
G2 X14.644 Y-9.11 R1.588
X14.479 Y-9.371 R17.247
X14.265 Y-9.635 R1.588
G1 X14.232 Y-9.668
G2 X14.062 Y-9.814 R1.587
G1 X14.039 Y-9.831
G2 X13.852 Y-9.952 R1.588
G1 X13.811 Y-9.974
G2 X13.762 Y-9.999 R1.587
G1 X13.761 Y-10.007
G2 X13.703 Y-10.267 R1.587
G1 X13.689 Y-10.311
G2 X13.588 Y-10.558 R1.587
G1 X13.568 Y-10.596
G2 X13.387 Y-10.874 R1.588
X13.19 Y-11.112 R17.247
X12.944 Y-11.347 R1.587
G1 X12.907 Y-11.376
G2 X12.722 Y-11.499 R1.588
G1 X12.697 Y-11.513
G2 X12.496 Y-11.609 R1.588
G1 X12.453 Y-11.626
G2 X12.4 Y-11.645 R1.588
G1 X12.399 Y-11.651
G2 X12.307 Y-11.905 R1.588
G1 X12.288 Y-11.948
G2 X12.157 Y-12.179 R1.588
G1 X12.132 Y-12.214
G2 X11.918 Y-12.466 R1.588
X11.693 Y-12.678 R17.247
X11.422 Y-12.879 R1.587
G1 X11.382 Y-12.903
G2 X11.18 Y-13.003 R1.587
G1 X11.153 Y-13.014
G2 X10.942 Y-13.084 R1.587
G1 X10.897 Y-13.095
G2 X10.843 Y-13.108 R1.587
G1 X10.84 Y-13.114
G2 X10.719 Y-13.352 R1.588
G1 X10.694 Y-13.392
G2 X10.535 Y-13.606 R1.588
G1 X10.506 Y-13.638
G2 X10.262 Y-13.862 R1.588
X10.012 Y-14.043 R17.247
X9.715 Y-14.21 R1.587
G1 X9.672 Y-14.229
G2 X9.466 Y-14.3 R1.588
G1 X9.438 Y-14.308
G2 X9.214 Y-14.352 R1.588
G1 X9.168 Y-14.358
G2 X9.115 Y-14.363 R1.588
G1 X9.111 Y-14.37
G2 X8.961 Y-14.59 R1.587
G1 X8.932 Y-14.626
G2 X8.746 Y-14.82 R1.587
G1 X8.713 Y-14.848
G2 X8.444 Y-15.038 R1.588
X8.173 Y-15.187 R17.247
X7.857 Y-15.316 R1.587
G1 X7.813 Y-15.329
G2 X7.594 Y-15.375 R1.587
G1 X7.565 Y-15.379
G2 X7.344 Y-15.394 R1.588
G1 X7.298
G2 X7.243 Y-15.393 R1.588
G1 X7.239 Y-15.398
G2 X7.061 Y-15.599 R1.587
G1 X7.027 Y-15.631
G2 X6.822 Y-15.797 R1.587
G1 X6.786 Y-15.821
G2 X6.492 Y-15.978 R1.588
X6.205 Y-16.092 R17.247
X5.876 Y-16.18 R1.588
G1 X5.83 Y-16.187
G2 X5.61 Y-16.205 R1.588
G1 X5.582 Y-16.206
G2 X5.355 Y-16.193 R1.587
G1 X5.309 Y-16.187
G2 X5.256 Y-16.179 R1.587
G1 X5.252 Y-16.184
G2 X5.052 Y-16.36 R1.587
G1 X5.015 Y-16.387
G2 X4.785 Y-16.529 R1.588
G1 X4.746 Y-16.549
G2 X4.439 Y-16.666 R1.588
X4.139 Y-16.743 R17.247
X3.803 Y-16.789 R1.587
G1 X3.756 Y-16.79
G2 X3.533 Y-16.78 R1.587
G1 X3.505 Y-16.777
G2 X3.285 Y-16.736 R1.588
G1 X3.24 Y-16.725
G2 X3.187 Y-16.71 R1.588
G1 X3.182 Y-16.714
G2 X2.96 Y-16.865 R1.587
G1 X2.919 Y-16.888
G2 X2.678 Y-16.997 R1.587
G1 X2.638 Y-17.012
G2 X2.315 Y-17.091 R1.588
X2.008 Y-17.13 R17.247
X1.666 Y-17.133 R1.588
G1 X1.62 Y-17.128
G2 X1.403 Y-17.091 R1.588
G1 X1.375 Y-17.084
G2 X1.16 Y-17.016 R1.588
G1 X1.117 Y-16.999
G2 X1.068 Y-16.978 R1.588
G1 X1.063 Y-16.981
G2 X0.822 Y-17.103 R1.587
G1 X0.779 Y-17.121
G2 X0.524 Y-17.2 R1.588
G1 X0.482 Y-17.209
G2 X0.155 Y-17.246 R1.587
X-0.155 R17.247
X-0.492 Y-17.207 R1.588
G1 X-0.537 Y-17.197
G2 X-0.75 Y-17.132 R1.587
G1 X-0.776 Y-17.122
G2 X-0.982 Y-17.027 R1.587
G1 X-1.022 Y-17.004
G2 X-1.069 Y-16.978 R1.588
G1 X-1.074 Y-16.98
G2 X-1.327 Y-17.071 R1.588
G1 X-1.372 Y-17.083
G2 X-1.633 Y-17.13 R1.588
G1 X-1.677 Y-17.134
G2 X-2.008 Y-17.13 R1.587
X-2.315 Y-17.091 R17.247
X-2.644 Y-17.01 R1.587
G1 X-2.688 Y-16.994
G2 X-2.893 Y-16.902 R1.587
G1 X-2.918 Y-16.889
G2 X-3.107 Y-16.77 R1.587
G1 X-3.145 Y-16.743
G2 X-3.188 Y-16.71 R1.588
G1 X-3.195 Y-16.712
G2 X-3.454 Y-16.77 R1.588
G1 X-3.501 Y-16.776
G2 X-3.77 Y-16.79 R1.587
G1 X-3.813 Y-16.788
G2 X-4.139 Y-16.743 R1.587
X-4.439 Y-16.666 R17.247
X-4.757 Y-16.543 R1.587
G1 X-4.798 Y-16.522
G2 X-4.987 Y-16.407 R1.587
G1 X-5.01 Y-16.391
G2 X-5.184 Y-16.249 R1.588
G1 X-5.218 Y-16.217
G2 X-5.257 Y-16.179 R1.587
G1 X-5.262
G2 X-5.531 Y-16.205 R1.588
G1 X-5.578
G2 X-5.844 Y-16.185 R1.588
G1 X-5.887 Y-16.178
G2 X-6.205 Y-16.092 R1.588
X-6.492 Y-15.978 R17.247
X-6.792 Y-15.817 R1.588
G1 X-6.83 Y-15.791
G2 X-7.008 Y-15.65 R1.588
G1 X-7.029 Y-15.63
G2 X-7.18 Y-15.471 R1.588
G1 X-7.21 Y-15.435
G2 X-7.244 Y-15.392 R1.587
G1 X-7.248
G2 X-7.517 Y-15.384 R1.587
G1 X-7.563 Y-15.379
G2 X-7.827 Y-15.325 R1.588
G1 X-7.868 Y-15.313
G2 X-8.173 Y-15.187 R1.588
X-8.444 Y-15.038 R17.247
X-8.721 Y-14.841 R1.588
G1 X-8.756 Y-14.81
G2 X-8.912 Y-14.65 R1.588
G1 X-8.93 Y-14.629
G2 X-9.062 Y-14.449 R1.588
G1 X-9.087 Y-14.41
G2 X-9.116 Y-14.363 R1.587
G1 X-9.119
G2 X-9.387 Y-14.32 R1.588
G1 X-9.432 Y-14.309
G2 X-9.685 Y-14.223 R1.587
G1 X-9.725 Y-14.206
G2 X-10.012 Y-14.043 R1.588
X-10.262 Y-13.862 R17.247
X-10.512 Y-13.632 R1.588
G1 X-10.542 Y-13.597
G2 X-10.679 Y-13.416 R1.587
G1 X-10.694 Y-13.393
G2 X-10.802 Y-13.199 R1.587
G1 X-10.821 Y-13.157
G2 X-10.844 Y-13.107 R1.588
G1 X-10.852 Y-13.105
G2 X-11.108 Y-13.031 R1.587
G1 X-11.152 Y-13.014
G2 X-11.39 Y-12.898 R1.588
G1 X-11.428 Y-12.876
G2 X-11.693 Y-12.678 R1.587
X-11.918 Y-12.466 R17.247
X-12.137 Y-12.207 R1.588
G1 X-12.163 Y-12.169
G2 X-12.276 Y-11.972 R1.588
G1 X-12.289 Y-11.947
G2 X-12.371 Y-11.741 R1.587
G1 X-12.385 Y-11.697
G2 X-12.401 Y-11.645 R1.587
G1 X-12.407 Y-11.643
G2 X-12.652 Y-11.536 R1.588
G1 X-12.694 Y-11.514
G2 X-12.918 Y-11.368 R1.588
G1 X-12.952 Y-11.341
G2 X-13.19 Y-11.112 R1.588
X-13.387 Y-10.874 R17.247
X-13.573 Y-10.586 R1.587
G1 X-13.594 Y-10.545
G2 X-13.678 Y-10.345 R1.587
G1 X-13.687 Y-10.318
G2 X-13.745 Y-10.097 R1.587
G1 X-13.754 Y-10.052
G2 X-13.763 Y-9.999 R1.588
G1 X-13.769 Y-9.996
G2 X-13.998 Y-9.86 R1.588
G1 X-14.036 Y-9.833
G2 X-14.241 Y-9.659 R1.587
G1 X-14.271 Y-9.628
G2 X-14.479 Y-9.371 R1.588
X-14.644 Y-9.11 R17.247
X-14.792 Y-8.804 R1.588
G1 X-14.808 Y-8.76
G2 X-14.867 Y-8.546 R1.588
G1 X-14.873 Y-8.518
G2 X-14.902 Y-8.295 R1.588
G1 X-14.905 Y-8.249
G2 X-14.907 Y-8.195 R1.587
G1 X-14.912 Y-8.192
G2 X-15.124 Y-8.027 R1.587
G1 X-15.158 Y-7.996
G2 X-15.34 Y-7.798 R1.588
G1 X-15.366 Y-7.763
G2 X-15.539 Y-7.483 R1.588
X-15.671 Y-7.203 R17.247
X-15.779 Y-6.881 R1.587
G1 X-15.789 Y-6.836
G2 X-15.821 Y-6.617 R1.588
G1 X-15.823 Y-6.589
G2 X-15.824 Y-6.361 R1.587
G1 X-15.821 Y-6.314
G2 X-15.817 Y-6.262 R1.587
G1 X-15.822 Y-6.257
G2 X-16.01 Y-6.069 R1.587
G1 X-16.04 Y-6.034
G2 X-16.196 Y-5.814 R1.587
G1 X-16.218 Y-5.776
G2 X-16.354 Y-5.476 R1.587
X-16.45 Y-5.182 R17.247
X-16.517 Y-4.849 R1.588
G1 X-16.521 Y-4.802
G2 X-16.525 Y-4.581 R1.588
G1 X-16.524 Y-4.552
G2 X-16.497 Y-4.331 R1.587
G1 X-16.489 Y-4.285
G2 X-16.477 Y-4.23 R1.588
G1 X-16.481 Y-4.226
G2 X-16.646 Y-4.013 R1.588
G1 X-16.671 Y-3.973
G2 X-16.796 Y-3.739 R1.587
G1 X-16.813 Y-3.7
G2 X-16.912 Y-3.383 R1.588
X-16.97 Y-3.08 R17.247
X-16.994 Y-2.742 R1.588
G1 X-16.993 Y-2.695
G2 X-16.969 Y-2.471 R1.588
G1 X-16.964 Y-2.443
G2 X-16.91 Y-2.228 R1.587
G1 X-16.895 Y-2.184
G2 X-16.877 Y-2.131 R1.588
G1 X-16.882 Y-2.125
G2 X-17.016 Y-1.898 R1.588
G1 X-17.036 Y-1.856
G2 X-17.133 Y-1.602 R1.588
G1 X-17.145 Y-1.56
G2 X-17.202 Y-1.238 R1.587
X-17.222 Y-0.929 R17.247
X-17.203 Y-0.587 R1.588
G1 X-17.196 Y-0.541
G2 X-17.146 Y-0.328 R1.587
G1 X-17.137 Y-0.301
G2 X-17.055 Y-0.089 R1.587
G1 X-17.035 Y-0.047
G2 X-17.011 Y0.001 R1.588
G1 X-17.015 Y0.007
G2 X-17.121 Y0.252 R1.587
G1 X-17.135 Y0.296
G2 X-17.198 Y0.555 R1.587
G1 X-17.205 Y0.597
G2 X-17.222 Y0.929 R1.588
X-17.202 Y1.238 R17.247
X-17.142 Y1.57 R1.588
G1 X-17.129 Y1.615
G2 X-17.05 Y1.826 R1.588
G1 X-17.039 Y1.852
G2 X-16.932 Y2.048 R1.588
G1 X-16.907 Y2.088
G2 X-16.877 Y2.133 R1.588
G1 X-16.879 Y2.138
G2 X-16.954 Y2.397 R1.588
G1 X-16.963 Y2.443
G2 X-16.993 Y2.705 R1.588
G1 X-16.994 Y2.749
G2 X-16.97 Y3.08 R1.587
X-16.912 Y3.383 R17.247
X-16.809 Y3.71 R1.587
G1 X-16.79 Y3.752
G2 X-16.688 Y3.947 R1.588
G1 X-16.673 Y3.971
G2 X-16.542 Y4.154 R1.588
G1 X-16.513 Y4.189
G2 X-16.477 Y4.231 R1.587
G1 X-16.478 Y4.238
G2 X-16.52 Y4.503 R1.587
G1 X-16.523 Y4.55
G2 X-16.52 Y4.816 R1.587
G1 X-16.516 Y4.859
G2 X-16.45 Y5.182 R1.587
X-16.354 Y5.476 R17.247
X-16.212 Y5.787 R1.588
G1 X-16.188 Y5.827
G2 X-16.063 Y6.007 R1.587
G1 X-16.045 Y6.029
G2 X-15.891 Y6.195 R1.588
G1 X-15.856 Y6.227
G2 X-15.817 Y6.263 R1.587
G1 Y6.268
G2 X-15.826 Y6.537 R1.588
G1 X-15.823 Y6.583
G2 X-15.786 Y6.85 R1.588
G1 X-15.776 Y6.892
G2 X-15.671 Y7.203 R1.588
X-15.539 Y7.483 R17.247
X-15.359 Y7.772 R1.588
G1 X-15.33 Y7.809
G2 X-15.181 Y7.975 R1.587
G1 X-15.16 Y7.994
G2 X-14.989 Y8.137 R1.588
G1 X-14.952 Y8.165
G2 X-14.907 Y8.196 R1.588
G1 Y8.204
G2 X-14.882 Y8.468 R1.587
G1 X-14.873 Y8.514
G2 X-14.803 Y8.774 R1.587
G1 X-14.788 Y8.815
G2 X-14.644 Y9.11 R1.588
X-14.479 Y9.371 R17.247
X-14.265 Y9.635 R1.588
G1 X-14.232 Y9.668
G2 X-14.062 Y9.814 R1.587
G1 X-14.039 Y9.831
G2 X-13.852 Y9.952 R1.588
G1 X-13.811 Y9.974
G2 X-13.762 Y9.999 R1.587
G1 X-13.761 Y10.007
G2 X-13.703 Y10.267 R1.587
G1 X-13.689 Y10.311
G2 X-13.588 Y10.558 R1.587
G1 X-13.568 Y10.596
G2 X-13.387 Y10.874 R1.588
X-13.19 Y11.112 R17.247
X-12.944 Y11.347 R1.587
G1 X-12.907 Y11.376
G2 X-12.722 Y11.499 R1.588
G1 X-12.697 Y11.513
G2 X-12.496 Y11.609 R1.588
G1 X-12.453 Y11.626
G2 X-12.4 Y11.645 R1.588
G1 X-12.399 Y11.651
G2 X-12.307 Y11.905 R1.588
G1 X-12.288 Y11.948
G2 X-12.157 Y12.179 R1.588
G1 X-12.132 Y12.214
G2 X-11.918 Y12.466 R1.588
X-11.693 Y12.678 R17.247
X-11.422 Y12.879 R1.587
G1 X-11.382 Y12.903
G2 X-11.18 Y13.003 R1.587
G1 X-11.153 Y13.014
G2 X-10.942 Y13.084 R1.587
G1 X-10.897 Y13.095
G2 X-10.843 Y13.108 R1.587
G1 X-10.84 Y13.114
G2 X-10.719 Y13.352 R1.588
G1 X-10.694 Y13.392
G2 X-10.535 Y13.606 R1.588
G1 X-10.506 Y13.638
G2 X-10.262 Y13.862 R1.588
X-10.15 Y13.944 R17.247
X-10.012 Y14.043 Z-4.019 R17.247 F200.
X-9.715 Y14.21 Z-4.058 R1.587
G1 X-9.672 Y14.229 Z-4.063
G2 X-9.466 Y14.3 Z-4.088 R1.588
G1 X-9.438 Y14.308 Z-4.091
G2 X-9.214 Y14.352 Z-4.117 R1.588
G1 X-9.168 Y14.358 Z-4.123
G2 X-9.115 Y14.363 Z-4.129 R1.588
G1 X-9.111 Y14.37 Z-4.13
G2 X-8.961 Y14.59 Z-4.16 R1.587
G1 X-8.932 Y14.626 Z-4.165
G2 X-8.746 Y14.82 Z-4.196 R1.587
G1 X-8.713 Y14.848 Z-4.201
G2 X-8.444 Y15.038 Z-4.238 R1.588
X-8.173 Y15.187 Z-4.273 R17.247
X-7.857 Y15.316 Z-4.312 R1.587
G1 X-7.813 Y15.329 Z-4.317
G2 X-7.594 Y15.375 Z-4.343 R1.587
G1 X-7.565 Y15.379 Z-4.346
G2 X-7.344 Y15.394 Z-4.371 R1.588
G1 X-7.298 Z-4.377
G2 X-7.243 Y15.393 Z-4.383 R1.588
G1 X-7.239 Y15.398 Z-4.384
G2 X-7.061 Y15.599 Z-4.414 R1.587
G1 X-7.027 Y15.631 Z-4.419
G2 X-6.822 Y15.797 Z-4.449 R1.587
G1 X-6.786 Y15.821 Z-4.454
G2 X-6.492 Y15.978 Z-4.492 R1.588
X-6.205 Y16.092 Z-4.527 R17.247
X-5.876 Y16.18 Z-4.566 R1.588
G1 X-5.83 Y16.187 Z-4.571
G2 X-5.61 Y16.205 Z-4.596 R1.588
G1 X-5.582 Y16.206 Z-4.6
G2 X-5.355 Y16.193 Z-4.625 R1.587
G1 X-5.309 Y16.187 Z-4.631
G2 X-5.256 Y16.179 Z-4.637 R1.587
G1 X-5.252 Y16.184 Z-4.638
G2 X-5.052 Y16.36 Z-4.668 R1.587
G1 X-5.015 Y16.387 Z-4.673
G2 X-4.785 Y16.529 Z-4.704 R1.588
G1 X-4.746 Y16.549 Z-4.709
G2 X-4.439 Y16.666 Z-4.746 R1.588
X-4.139 Y16.743 Z-4.781 R17.247
X-3.803 Y16.789 Z-4.82 R1.587
G1 X-3.756 Y16.79 Z-4.825
G2 X-3.533 Y16.78 Z-4.851 R1.587
G1 X-3.505 Y16.777 Z-4.854
G2 X-3.285 Y16.736 Z-4.879 R1.588
G1 X-3.24 Y16.725 Z-4.885
G2 X-3.187 Y16.71 Z-4.891 R1.588
G1 X-3.182 Y16.714 Z-4.892
G2 X-2.96 Y16.865 Z-4.922 R1.587
G1 X-2.919 Y16.888 Z-4.927
G2 X-2.678 Y16.997 Z-4.957 R1.587
G1 X-2.638 Y17.012 Z-4.962
G2 X-2.315 Y17.091 Z-5. R1.588
X-2.008 Y17.13 Z-5.035 R17.247
X-1.666 Y17.133 Z-5.074 R1.588
G1 X-1.62 Y17.128 Z-5.079
G2 X-1.403 Y17.091 Z-5.105 R1.588
G1 X-1.375 Y17.084 Z-5.108
G2 X-1.16 Y17.016 Z-5.133 R1.588
G1 X-1.117 Y16.999 Z-5.139
G2 X-1.068 Y16.978 Z-5.145 R1.588
G1 X-1.063 Y16.981
G2 X-0.822 Y17.103 Z-5.176 R1.587
G1 X-0.779 Y17.121 Z-5.181
G2 X-0.524 Y17.2 Z-5.212 R1.588
G1 X-0.482 Y17.209 Z-5.217
G2 X-0.191 Y17.245 Z-5.25 R1.588
X-0.155 Y17.246 R1.587 F800.
X0.155 R17.247
X0.492 Y17.207 R1.588
G1 X0.537 Y17.197
G2 X0.75 Y17.132 R1.587
G1 X0.776 Y17.122
G2 X0.982 Y17.027 R1.587
G1 X1.022 Y17.004
G2 X1.069 Y16.978 R1.588
G1 X1.074 Y16.98
G2 X1.327 Y17.071 R1.588
G1 X1.372 Y17.083
G2 X1.633 Y17.13 R1.588
G1 X1.677 Y17.134
G2 X2.008 Y17.13 R1.587
X2.315 Y17.091 R17.247
X2.644 Y17.01 R1.587
G1 X2.688 Y16.994
G2 X2.893 Y16.902 R1.587
G1 X2.918 Y16.889
G2 X3.107 Y16.77 R1.587
G1 X3.145 Y16.743
G2 X3.188 Y16.71 R1.588
G1 X3.195 Y16.712
G2 X3.454 Y16.77 R1.588
G1 X3.501 Y16.776
G2 X3.77 Y16.79 R1.587
G1 X3.813 Y16.788
G2 X4.139 Y16.743 R1.587
X4.439 Y16.666 R17.247
X4.757 Y16.543 R1.587
G1 X4.798 Y16.522
G2 X4.987 Y16.407 R1.587
G1 X5.01 Y16.391
G2 X5.184 Y16.249 R1.588
G1 X5.218 Y16.217
G2 X5.257 Y16.179 R1.587
G1 X5.262
G2 X5.531 Y16.205 R1.588
G1 X5.578
G2 X5.844 Y16.185 R1.588
G1 X5.887 Y16.178
G2 X6.205 Y16.092 R1.588
X6.492 Y15.978 R17.247
X6.792 Y15.817 R1.588
G1 X6.83 Y15.791
G2 X7.008 Y15.65 R1.588
G1 X7.029 Y15.63
G2 X7.18 Y15.471 R1.588
G1 X7.21 Y15.435
G2 X7.244 Y15.392 R1.587
G1 X7.248
G2 X7.517 Y15.384 R1.587
G1 X7.563 Y15.379
G2 X7.827 Y15.325 R1.588
G1 X7.868 Y15.313
G2 X8.173 Y15.187 R1.588
X8.444 Y15.038 R17.247
X8.721 Y14.841 R1.588
G1 X8.756 Y14.81
G2 X8.912 Y14.65 R1.588
G1 X8.93 Y14.629
G2 X9.062 Y14.449 R1.588
G1 X9.087 Y14.41
G2 X9.116 Y14.363 R1.587
G1 X9.119
G2 X9.387 Y14.32 R1.588
G1 X9.432 Y14.309
G2 X9.685 Y14.223 R1.587
G1 X9.725 Y14.206
G2 X10.012 Y14.043 R1.588
X10.262 Y13.862 R17.247
X10.512 Y13.632 R1.588
G1 X10.542 Y13.597
G2 X10.679 Y13.416 R1.587
G1 X10.694 Y13.393
G2 X10.802 Y13.199 R1.587
G1 X10.821 Y13.157
G2 X10.844 Y13.107 R1.588
G1 X10.852 Y13.105
G2 X11.108 Y13.031 R1.587
G1 X11.152 Y13.014
G2 X11.39 Y12.898 R1.588
G1 X11.428 Y12.876
G2 X11.693 Y12.678 R1.587
X11.918 Y12.466 R17.247
X12.137 Y12.207 R1.588
G1 X12.163 Y12.169
G2 X12.276 Y11.972 R1.588
G1 X12.289 Y11.947
G2 X12.371 Y11.741 R1.587
G1 X12.385 Y11.697
G2 X12.401 Y11.645 R1.587
G1 X12.407 Y11.643
G2 X12.652 Y11.536 R1.588
G1 X12.694 Y11.514
G2 X12.918 Y11.368 R1.588
G1 X12.952 Y11.341
G2 X13.19 Y11.112 R1.588
X13.387 Y10.874 R17.247
X13.573 Y10.586 R1.587
G1 X13.594 Y10.545
G2 X13.678 Y10.345 R1.587
G1 X13.687 Y10.318
G2 X13.745 Y10.097 R1.587
G1 X13.754 Y10.052
G2 X13.763 Y9.999 R1.588
G1 X13.769 Y9.996
G2 X13.998 Y9.86 R1.588
G1 X14.036 Y9.833
G2 X14.241 Y9.659 R1.587
G1 X14.271 Y9.628
G2 X14.479 Y9.371 R1.588
X14.644 Y9.11 R17.247
X14.792 Y8.804 R1.588
G1 X14.808 Y8.76
G2 X14.867 Y8.546 R1.588
G1 X14.873 Y8.518
G2 X14.902 Y8.295 R1.588
G1 X14.905 Y8.249
G2 X14.907 Y8.195 R1.587
G1 X14.912 Y8.192
G2 X15.124 Y8.027 R1.587
G1 X15.158 Y7.996
G2 X15.34 Y7.798 R1.588
G1 X15.366 Y7.763
G2 X15.539 Y7.483 R1.588
X15.671 Y7.203 R17.247
X15.779 Y6.881 R1.587
G1 X15.789 Y6.836
G2 X15.821 Y6.617 R1.588
G1 X15.823 Y6.589
G2 X15.824 Y6.361 R1.587
G1 X15.821 Y6.314
G2 X15.817 Y6.262 R1.587
G1 X15.822 Y6.257
G2 X16.01 Y6.069 R1.587
G1 X16.04 Y6.034
G2 X16.196 Y5.814 R1.587
G1 X16.218 Y5.776
G2 X16.354 Y5.476 R1.587
X16.45 Y5.182 R17.247
X16.517 Y4.849 R1.588
G1 X16.521 Y4.802
G2 X16.525 Y4.581 R1.588
G1 X16.524 Y4.552
G2 X16.497 Y4.331 R1.587
G1 X16.489 Y4.285
G2 X16.477 Y4.23 R1.588
G1 X16.481 Y4.226
G2 X16.646 Y4.013 R1.588
G1 X16.671 Y3.973
G2 X16.796 Y3.739 R1.587
G1 X16.813 Y3.7
G2 X16.912 Y3.383 R1.588
X16.97 Y3.08 R17.247
X16.994 Y2.742 R1.588
G1 X16.993 Y2.695
G2 X16.969 Y2.471 R1.588
G1 X16.964 Y2.443
G2 X16.91 Y2.228 R1.587
G1 X16.895 Y2.184
G2 X16.877 Y2.131 R1.588
G1 X16.882 Y2.125
G2 X17.016 Y1.898 R1.588
G1 X17.036 Y1.856
G2 X17.133 Y1.602 R1.588
G1 X17.145 Y1.56
G2 X17.202 Y1.238 R1.587
X17.222 Y0.929 R17.247
X17.203 Y0.587 R1.588
G1 X17.196 Y0.541
G2 X17.146 Y0.328 R1.587
G1 X17.137 Y0.301
G2 X17.055 Y0.089 R1.587
G1 X17.035 Y0.047
G2 X17.011 Y-0.001 R1.588
G1 X17.015 Y-0.007
G2 X17.121 Y-0.252 R1.587
G1 X17.135 Y-0.296
G2 X17.198 Y-0.555 R1.587
G1 X17.205 Y-0.597
G2 X17.222 Y-0.929 R1.588
X17.202 Y-1.238 R17.247
X17.142 Y-1.57 R1.588
G1 X17.129 Y-1.615
G2 X17.05 Y-1.826 R1.588
G1 X17.039 Y-1.852
G2 X16.932 Y-2.048 R1.588
G1 X16.907 Y-2.088
G2 X16.877 Y-2.133 R1.588
G1 X16.879 Y-2.138
G2 X16.954 Y-2.397 R1.588
G1 X16.963 Y-2.443
G2 X16.993 Y-2.705 R1.588
G1 X16.994 Y-2.749
G2 X16.97 Y-3.08 R1.587
X16.912 Y-3.383 R17.247
X16.809 Y-3.71 R1.587
G1 X16.79 Y-3.752
G2 X16.688 Y-3.947 R1.588
G1 X16.673 Y-3.971
G2 X16.542 Y-4.154 R1.588
G1 X16.513 Y-4.189
G2 X16.477 Y-4.231 R1.587
G1 X16.478 Y-4.238
G2 X16.52 Y-4.503 R1.587
G1 X16.523 Y-4.55
G2 X16.52 Y-4.816 R1.587
G1 X16.516 Y-4.859
G2 X16.45 Y-5.182 R1.587
X16.354 Y-5.476 R17.247
X16.212 Y-5.787 R1.588
G1 X16.188 Y-5.827
G2 X16.063 Y-6.007 R1.587
G1 X16.045 Y-6.029
G2 X15.891 Y-6.195 R1.588
G1 X15.856 Y-6.227
G2 X15.817 Y-6.263 R1.587
G1 Y-6.268
G2 X15.826 Y-6.537 R1.588
G1 X15.823 Y-6.583
G2 X15.786 Y-6.85 R1.588
G1 X15.776 Y-6.892
G2 X15.671 Y-7.203 R1.588
X15.539 Y-7.483 R17.247
X15.359 Y-7.772 R1.588
G1 X15.33 Y-7.809
G2 X15.181 Y-7.975 R1.587
G1 X15.16 Y-7.994
G2 X14.989 Y-8.137 R1.588
G1 X14.952 Y-8.165
G2 X14.907 Y-8.196 R1.588
G1 Y-8.204
G2 X14.882 Y-8.468 R1.587
G1 X14.873 Y-8.514
G2 X14.803 Y-8.774 R1.587
G1 X14.788 Y-8.815
G2 X14.644 Y-9.11 R1.588
X14.479 Y-9.371 R17.247
X14.265 Y-9.635 R1.588
G1 X14.232 Y-9.668
G2 X14.062 Y-9.814 R1.587
G1 X14.039 Y-9.831
G2 X13.852 Y-9.952 R1.588
G1 X13.811 Y-9.974
G2 X13.762 Y-9.999 R1.587
G1 X13.761 Y-10.007
G2 X13.703 Y-10.267 R1.587
G1 X13.689 Y-10.311
G2 X13.588 Y-10.558 R1.587
G1 X13.568 Y-10.596
G2 X13.387 Y-10.874 R1.588
X13.19 Y-11.112 R17.247
X12.944 Y-11.347 R1.587
G1 X12.907 Y-11.376
G2 X12.722 Y-11.499 R1.588
G1 X12.697 Y-11.513
G2 X12.496 Y-11.609 R1.588
G1 X12.453 Y-11.626
G2 X12.4 Y-11.645 R1.588
G1 X12.399 Y-11.651
G2 X12.307 Y-11.905 R1.588
G1 X12.288 Y-11.948
G2 X12.157 Y-12.179 R1.588
G1 X12.132 Y-12.214
G2 X11.918 Y-12.466 R1.588
X11.693 Y-12.678 R17.247
X11.422 Y-12.879 R1.587
G1 X11.382 Y-12.903
G2 X11.18 Y-13.003 R1.587
G1 X11.153 Y-13.014
G2 X10.942 Y-13.084 R1.587
G1 X10.897 Y-13.095
G2 X10.843 Y-13.108 R1.587
G1 X10.84 Y-13.114
G2 X10.719 Y-13.352 R1.588
G1 X10.694 Y-13.392
G2 X10.535 Y-13.606 R1.588
G1 X10.506 Y-13.638
G2 X10.262 Y-13.862 R1.588
X10.012 Y-14.043 R17.247
X9.715 Y-14.21 R1.587
G1 X9.672 Y-14.229
G2 X9.466 Y-14.3 R1.588
G1 X9.438 Y-14.308
G2 X9.214 Y-14.352 R1.588
G1 X9.168 Y-14.358
G2 X9.115 Y-14.363 R1.588
G1 X9.111 Y-14.37
G2 X8.961 Y-14.59 R1.587
G1 X8.932 Y-14.626
G2 X8.746 Y-14.82 R1.587
G1 X8.713 Y-14.848
G2 X8.444 Y-15.038 R1.588
X8.173 Y-15.187 R17.247
X7.857 Y-15.316 R1.587
G1 X7.813 Y-15.329
G2 X7.594 Y-15.375 R1.587
G1 X7.565 Y-15.379
G2 X7.344 Y-15.394 R1.588
G1 X7.298
G2 X7.243 Y-15.393 R1.588
G1 X7.239 Y-15.398
G2 X7.061 Y-15.599 R1.587
G1 X7.027 Y-15.631
G2 X6.822 Y-15.797 R1.587
G1 X6.786 Y-15.821
G2 X6.492 Y-15.978 R1.588
X6.205 Y-16.092 R17.247
X5.876 Y-16.18 R1.588
G1 X5.83 Y-16.187
G2 X5.61 Y-16.205 R1.588
G1 X5.582 Y-16.206
G2 X5.355 Y-16.193 R1.587
G1 X5.309 Y-16.187
G2 X5.256 Y-16.179 R1.587
G1 X5.252 Y-16.184
G2 X5.052 Y-16.36 R1.587
G1 X5.015 Y-16.387
G2 X4.785 Y-16.529 R1.588
G1 X4.746 Y-16.549
G2 X4.439 Y-16.666 R1.588
X4.139 Y-16.743 R17.247
X3.803 Y-16.789 R1.587
G1 X3.756 Y-16.79
G2 X3.533 Y-16.78 R1.587
G1 X3.505 Y-16.777
G2 X3.285 Y-16.736 R1.588
G1 X3.24 Y-16.725
G2 X3.187 Y-16.71 R1.588
G1 X3.182 Y-16.714
G2 X2.96 Y-16.865 R1.587
G1 X2.919 Y-16.888
G2 X2.678 Y-16.997 R1.587
G1 X2.638 Y-17.012
G2 X2.315 Y-17.091 R1.588
X2.008 Y-17.13 R17.247
X1.666 Y-17.133 R1.588
G1 X1.62 Y-17.128
G2 X1.403 Y-17.091 R1.588
G1 X1.375 Y-17.084
G2 X1.16 Y-17.016 R1.588
G1 X1.117 Y-16.999
G2 X1.068 Y-16.978 R1.588
G1 X1.063 Y-16.981
G2 X0.822 Y-17.103 R1.587
G1 X0.779 Y-17.121
G2 X0.524 Y-17.2 R1.588
G1 X0.482 Y-17.209
G2 X0.155 Y-17.246 R1.587
X-0.155 R17.247
X-0.492 Y-17.207 R1.588
G1 X-0.537 Y-17.197
G2 X-0.75 Y-17.132 R1.587
G1 X-0.776 Y-17.122
G2 X-0.982 Y-17.027 R1.587
G1 X-1.022 Y-17.004
G2 X-1.069 Y-16.978 R1.588
G1 X-1.074 Y-16.98
G2 X-1.327 Y-17.071 R1.588
G1 X-1.372 Y-17.083
G2 X-1.633 Y-17.13 R1.588
G1 X-1.677 Y-17.134
G2 X-2.008 Y-17.13 R1.587
X-2.315 Y-17.091 R17.247
X-2.644 Y-17.01 R1.587
G1 X-2.688 Y-16.994
G2 X-2.893 Y-16.902 R1.587
G1 X-2.918 Y-16.889
G2 X-3.107 Y-16.77 R1.587
G1 X-3.145 Y-16.743
G2 X-3.188 Y-16.71 R1.588
G1 X-3.195 Y-16.712
G2 X-3.454 Y-16.77 R1.588
G1 X-3.501 Y-16.776
G2 X-3.77 Y-16.79 R1.587
G1 X-3.813 Y-16.788
G2 X-4.139 Y-16.743 R1.587
X-4.439 Y-16.666 R17.247
X-4.757 Y-16.543 R1.587
G1 X-4.798 Y-16.522
G2 X-4.987 Y-16.407 R1.587
G1 X-5.01 Y-16.391
G2 X-5.184 Y-16.249 R1.588
G1 X-5.218 Y-16.217
G2 X-5.257 Y-16.179 R1.587
G1 X-5.262
G2 X-5.531 Y-16.205 R1.588
G1 X-5.578
G2 X-5.844 Y-16.185 R1.588
G1 X-5.887 Y-16.178
G2 X-6.205 Y-16.092 R1.588
X-6.492 Y-15.978 R17.247
X-6.792 Y-15.817 R1.588
G1 X-6.83 Y-15.791
G2 X-7.008 Y-15.65 R1.588
G1 X-7.029 Y-15.63
G2 X-7.18 Y-15.471 R1.588
G1 X-7.21 Y-15.435
G2 X-7.244 Y-15.392 R1.587
G1 X-7.248
G2 X-7.517 Y-15.384 R1.587
G1 X-7.563 Y-15.379
G2 X-7.827 Y-15.325 R1.588
G1 X-7.868 Y-15.313
G2 X-8.173 Y-15.187 R1.588
X-8.444 Y-15.038 R17.247
X-8.721 Y-14.841 R1.588
G1 X-8.756 Y-14.81
G2 X-8.912 Y-14.65 R1.588
G1 X-8.93 Y-14.629
G2 X-9.062 Y-14.449 R1.588
G1 X-9.087 Y-14.41
G2 X-9.116 Y-14.363 R1.587
G1 X-9.119
G2 X-9.387 Y-14.32 R1.588
G1 X-9.432 Y-14.309
G2 X-9.685 Y-14.223 R1.587
G1 X-9.725 Y-14.206
G2 X-10.012 Y-14.043 R1.588
X-10.262 Y-13.862 R17.247
X-10.512 Y-13.632 R1.588
G1 X-10.542 Y-13.597
G2 X-10.679 Y-13.416 R1.587
G1 X-10.694 Y-13.393
G2 X-10.802 Y-13.199 R1.587
G1 X-10.821 Y-13.157
G2 X-10.844 Y-13.107 R1.588
G1 X-10.852 Y-13.105
G2 X-11.108 Y-13.031 R1.587
G1 X-11.152 Y-13.014
G2 X-11.39 Y-12.898 R1.588
G1 X-11.428 Y-12.876
G2 X-11.693 Y-12.678 R1.587
X-11.918 Y-12.466 R17.247
X-12.137 Y-12.207 R1.588
G1 X-12.163 Y-12.169
G2 X-12.276 Y-11.972 R1.588
G1 X-12.289 Y-11.947
G2 X-12.371 Y-11.741 R1.587
G1 X-12.385 Y-11.697
G2 X-12.401 Y-11.645 R1.587
G1 X-12.407 Y-11.643
G2 X-12.652 Y-11.536 R1.588
G1 X-12.694 Y-11.514
G2 X-12.918 Y-11.368 R1.588
G1 X-12.952 Y-11.341
G2 X-13.19 Y-11.112 R1.588
X-13.387 Y-10.874 R17.247
X-13.573 Y-10.586 R1.587
G1 X-13.594 Y-10.545
G2 X-13.678 Y-10.345 R1.587
G1 X-13.687 Y-10.318
G2 X-13.745 Y-10.097 R1.587
G1 X-13.754 Y-10.052
G2 X-13.763 Y-9.999 R1.588
G1 X-13.769 Y-9.996
G2 X-13.998 Y-9.86 R1.588
G1 X-14.036 Y-9.833
G2 X-14.241 Y-9.659 R1.587
G1 X-14.271 Y-9.628
G2 X-14.479 Y-9.371 R1.588
X-14.644 Y-9.11 R17.247
X-14.792 Y-8.804 R1.588
G1 X-14.808 Y-8.76
G2 X-14.867 Y-8.546 R1.588
G1 X-14.873 Y-8.518
G2 X-14.902 Y-8.295 R1.588
G1 X-14.905 Y-8.249
G2 X-14.907 Y-8.195 R1.587
G1 X-14.912 Y-8.192
G2 X-15.124 Y-8.027 R1.587
G1 X-15.158 Y-7.996
G2 X-15.34 Y-7.798 R1.588
G1 X-15.366 Y-7.763
G2 X-15.539 Y-7.483 R1.588
X-15.671 Y-7.203 R17.247
X-15.779 Y-6.881 R1.587
G1 X-15.789 Y-6.836
G2 X-15.821 Y-6.617 R1.588
G1 X-15.823 Y-6.589
G2 X-15.824 Y-6.361 R1.587
G1 X-15.821 Y-6.314
G2 X-15.817 Y-6.262 R1.587
G1 X-15.822 Y-6.257
G2 X-16.01 Y-6.069 R1.587
G1 X-16.04 Y-6.034
G2 X-16.196 Y-5.814 R1.587
G1 X-16.218 Y-5.776
G2 X-16.354 Y-5.476 R1.587
X-16.45 Y-5.182 R17.247
X-16.517 Y-4.849 R1.588
G1 X-16.521 Y-4.802
G2 X-16.525 Y-4.581 R1.588
G1 X-16.524 Y-4.552
G2 X-16.497 Y-4.331 R1.587
G1 X-16.489 Y-4.285
G2 X-16.477 Y-4.23 R1.588
G1 X-16.481 Y-4.226
G2 X-16.646 Y-4.013 R1.588
G1 X-16.671 Y-3.973
G2 X-16.796 Y-3.739 R1.587
G1 X-16.813 Y-3.7
G2 X-16.912 Y-3.383 R1.588
X-16.97 Y-3.08 R17.247
X-16.994 Y-2.742 R1.588
G1 X-16.993 Y-2.695
G2 X-16.969 Y-2.471 R1.588
G1 X-16.964 Y-2.443
G2 X-16.91 Y-2.228 R1.587
G1 X-16.895 Y-2.184
G2 X-16.877 Y-2.131 R1.588
G1 X-16.882 Y-2.125
G2 X-17.016 Y-1.898 R1.588
G1 X-17.036 Y-1.856
G2 X-17.133 Y-1.602 R1.588
G1 X-17.145 Y-1.56
G2 X-17.202 Y-1.238 R1.587
X-17.222 Y-0.929 R17.247
X-17.203 Y-0.587 R1.588
G1 X-17.196 Y-0.541
G2 X-17.146 Y-0.328 R1.587
G1 X-17.137 Y-0.301
G2 X-17.055 Y-0.089 R1.587
G1 X-17.035 Y-0.047
G2 X-17.011 Y0.001 R1.588
G1 X-17.015 Y0.007
G2 X-17.121 Y0.252 R1.587
G1 X-17.135 Y0.296
G2 X-17.198 Y0.555 R1.587
G1 X-17.205 Y0.597
G2 X-17.222 Y0.929 R1.588
X-17.202 Y1.238 R17.247
X-17.142 Y1.57 R1.588
G1 X-17.129 Y1.615
G2 X-17.05 Y1.826 R1.588
G1 X-17.039 Y1.852
G2 X-16.932 Y2.048 R1.588
G1 X-16.907 Y2.088
G2 X-16.877 Y2.133 R1.588
G1 X-16.879 Y2.138
G2 X-16.954 Y2.397 R1.588
G1 X-16.963 Y2.443
G2 X-16.993 Y2.705 R1.588
G1 X-16.994 Y2.749
G2 X-16.97 Y3.08 R1.587
X-16.912 Y3.383 R17.247
X-16.809 Y3.71 R1.587
G1 X-16.79 Y3.752
G2 X-16.688 Y3.947 R1.588
G1 X-16.673 Y3.971
G2 X-16.542 Y4.154 R1.588
G1 X-16.513 Y4.189
G2 X-16.477 Y4.231 R1.587
G1 X-16.478 Y4.238
G2 X-16.52 Y4.503 R1.587
G1 X-16.523 Y4.55
G2 X-16.52 Y4.816 R1.587
G1 X-16.516 Y4.859
G2 X-16.45 Y5.182 R1.587
X-16.354 Y5.476 R17.247
X-16.212 Y5.787 R1.588
G1 X-16.188 Y5.827
G2 X-16.063 Y6.007 R1.587
G1 X-16.045 Y6.029
G2 X-15.891 Y6.195 R1.588
G1 X-15.856 Y6.227
G2 X-15.817 Y6.263 R1.587
G1 Y6.268
G2 X-15.826 Y6.537 R1.588
G1 X-15.823 Y6.583
G2 X-15.786 Y6.85 R1.588
G1 X-15.776 Y6.892
G2 X-15.671 Y7.203 R1.588
X-15.539 Y7.483 R17.247
X-15.359 Y7.772 R1.588
G1 X-15.33 Y7.809
G2 X-15.181 Y7.975 R1.587
G1 X-15.16 Y7.994
G2 X-14.989 Y8.137 R1.588
G1 X-14.952 Y8.165
G2 X-14.907 Y8.196 R1.588
G1 Y8.204
G2 X-14.882 Y8.468 R1.587
G1 X-14.873 Y8.514
G2 X-14.803 Y8.774 R1.587
G1 X-14.788 Y8.815
G2 X-14.644 Y9.11 R1.588
X-14.479 Y9.371 R17.247
X-14.265 Y9.635 R1.588
G1 X-14.232 Y9.668
G2 X-14.062 Y9.814 R1.587
G1 X-14.039 Y9.831
G2 X-13.852 Y9.952 R1.588
G1 X-13.811 Y9.974
G2 X-13.762 Y9.999 R1.587
G1 X-13.761 Y10.007
G2 X-13.703 Y10.267 R1.587
G1 X-13.689 Y10.311
G2 X-13.588 Y10.558 R1.587
G1 X-13.568 Y10.596
G2 X-13.387 Y10.874 R1.588
X-13.19 Y11.112 R17.247
X-12.944 Y11.347 R1.587
G1 X-12.907 Y11.376
G2 X-12.722 Y11.499 R1.588
G1 X-12.697 Y11.513
G2 X-12.496 Y11.609 R1.588
G1 X-12.453 Y11.626
G2 X-12.4 Y11.645 R1.588
G1 X-12.399 Y11.651
G2 X-12.307 Y11.905 R1.588
G1 X-12.288 Y11.948
G2 X-12.157 Y12.179 R1.588
G1 X-12.132 Y12.214
G2 X-11.918 Y12.466 R1.588
X-11.693 Y12.678 R17.247
X-11.422 Y12.879 R1.587
G1 X-11.382 Y12.903
G2 X-11.18 Y13.003 R1.587
G1 X-11.153 Y13.014
G2 X-10.942 Y13.084 R1.587
G1 X-10.897 Y13.095
G2 X-10.843 Y13.108 R1.587
G1 X-10.84 Y13.114
G2 X-10.719 Y13.352 R1.588
G1 X-10.694 Y13.392
G2 X-10.535 Y13.606 R1.588
G1 X-10.506 Y13.638
G2 X-10.262 Y13.862 R1.588
X-10.012 Y14.043 R17.247
X-9.715 Y14.21 R1.587
G1 X-9.672 Y14.229
G2 X-9.466 Y14.3 R1.588
G1 X-9.438 Y14.308
G2 X-9.214 Y14.352 R1.588
G1 X-9.168 Y14.358
G2 X-9.115 Y14.363 R1.588
G1 X-9.111 Y14.37
G2 X-8.961 Y14.59 R1.587
G1 X-8.932 Y14.626
G2 X-8.746 Y14.82 R1.587
G1 X-8.713 Y14.848
G2 X-8.444 Y15.038 R1.588
X-8.173 Y15.187 R17.247
X-7.857 Y15.316 R1.587
G1 X-7.813 Y15.329
G2 X-7.594 Y15.375 R1.587
G1 X-7.565 Y15.379
G2 X-7.344 Y15.394 R1.588
G1 X-7.298
G2 X-7.243 Y15.393 R1.588
G1 X-7.239 Y15.398
G2 X-7.061 Y15.599 R1.587
G1 X-7.027 Y15.631
G2 X-6.822 Y15.797 R1.587
G1 X-6.786 Y15.821
G2 X-6.492 Y15.978 R1.588
X-6.205 Y16.092 R17.247
X-5.876 Y16.18 R1.588
G1 X-5.83 Y16.187
G2 X-5.61 Y16.205 R1.588
G1 X-5.582 Y16.206
G2 X-5.355 Y16.193 R1.587
G1 X-5.309 Y16.187
G2 X-5.256 Y16.179 R1.587
G1 X-5.252 Y16.184
G2 X-5.052 Y16.36 R1.587
G1 X-5.015 Y16.387
G2 X-4.785 Y16.529 R1.588
G1 X-4.746 Y16.549
G2 X-4.439 Y16.666 R1.588
X-4.139 Y16.743 R17.247
X-3.803 Y16.789 R1.587
G1 X-3.756 Y16.79
G2 X-3.533 Y16.78 R1.587
G1 X-3.505 Y16.777
G2 X-3.285 Y16.736 R1.588
G1 X-3.24 Y16.725
G2 X-3.187 Y16.71 R1.588
G1 X-3.182 Y16.714
G2 X-2.96 Y16.865 R1.587
G1 X-2.919 Y16.888
G2 X-2.678 Y16.997 R1.587
G1 X-2.638 Y17.012
G2 X-2.315 Y17.091 R1.588
X-2.008 Y17.13 R17.247
X-1.666 Y17.133 R1.588
G1 X-1.62 Y17.128
G2 X-1.403 Y17.091 R1.588
G1 X-1.375 Y17.084
G2 X-1.16 Y17.016 R1.588
G1 X-1.117 Y16.999
G2 X-1.068 Y16.978 R1.588
G1 X-1.063 Y16.981
G2 X-0.822 Y17.103 R1.587
G1 X-0.779 Y17.121
G2 X-0.524 Y17.2 R1.588
G1 X-0.482 Y17.209
G2 X-0.191 Y17.245 R1.588
X-0.155 Y17.246 Z-5.254 R1.587 F200.
X0.155 Z-5.289 R17.247
X0.492 Y17.207 Z-5.328 R1.588
G1 X0.537 Y17.197 Z-5.333
G2 X0.75 Y17.132 Z-5.358 R1.587
G1 X0.776 Y17.122 Z-5.362
G2 X0.982 Y17.027 Z-5.387 R1.587
G1 X1.022 Y17.004 Z-5.393
G2 X1.069 Y16.978 Z-5.399 R1.588
G1 X1.074 Y16.98 Z-5.4
G2 X1.327 Y17.071 Z-5.43 R1.588
G1 X1.372 Y17.083 Z-5.435
G2 X1.633 Y17.13 Z-5.466 R1.588
G1 X1.677 Y17.134 Z-5.47
G2 X2.008 Y17.13 Z-5.508 R1.587
X2.315 Y17.091 Z-5.543 R17.247
X2.644 Y17.01 Z-5.582 R1.587
G1 X2.688 Y16.994 Z-5.587
G2 X2.893 Y16.902 Z-5.613 R1.587
G1 X2.918 Y16.889 Z-5.616
G2 X3.107 Y16.77 Z-5.641 R1.587
G1 X3.145 Y16.743 Z-5.647
G2 X3.188 Y16.71 Z-5.653 R1.588
G1 X3.195 Y16.712 Z-5.654
G2 X3.454 Y16.77 Z-5.684 R1.588
G1 X3.501 Y16.776 Z-5.689
G2 X3.77 Y16.79 Z-5.72 R1.587
G1 X3.813 Y16.788 Z-5.725
G2 X4.139 Y16.743 Z-5.762 R1.587
X4.439 Y16.666 Z-5.797 R17.247
X4.757 Y16.543 Z-5.836 R1.587
G1 X4.798 Y16.522 Z-5.841
G2 X4.987 Y16.407 Z-5.867 R1.587
G1 X5.01 Y16.391 Z-5.87
G2 X5.184 Y16.249 Z-5.895 R1.588
G1 X5.218 Y16.217 Z-5.901
G2 X5.257 Y16.179 Z-5.907 R1.587
G1 X5.262
G2 X5.531 Y16.205 Z-5.938 R1.588
G1 X5.578 Z-5.943
G2 X5.844 Y16.185 Z-5.974 R1.588
G1 X5.887 Y16.178 Z-5.979
G2 X6.205 Y16.092 Z-6.016 R1.588
X6.492 Y15.978 Z-6.051 R17.247
X6.792 Y15.817 Z-6.09 R1.588
G1 X6.83 Y15.791 Z-6.095
G2 X7.008 Y15.65 Z-6.121 R1.588
G1 X7.029 Y15.63 Z-6.124
G2 X7.18 Y15.471 Z-6.149 R1.588
G1 X7.21 Y15.435 Z-6.155
G2 X7.244 Y15.392 Z-6.161 R1.587
G1 X7.248
G2 X7.517 Y15.384 Z-6.192 R1.587
G1 X7.563 Y15.379 Z-6.197
G2 X7.827 Y15.325 Z-6.228 R1.588
G1 X7.868 Y15.313 Z-6.233
G2 X8.173 Y15.187 Z-6.27 R1.588
X8.444 Y15.038 Z-6.305 R17.247
X8.721 Y14.841 Z-6.344 R1.588
G1 X8.756 Y14.81 Z-6.349
G2 X8.912 Y14.65 Z-6.375 R1.588
G1 X8.93 Y14.629 Z-6.378
G2 X9.062 Y14.449 Z-6.403 R1.588
G1 X9.087 Y14.41 Z-6.409
G2 X9.116 Y14.363 Z-6.415 R1.587
G1 X9.119
G2 X9.387 Y14.32 Z-6.446 R1.588
G1 X9.432 Y14.309 Z-6.451
G2 X9.685 Y14.223 Z-6.482 R1.587
G1 X9.725 Y14.206 Z-6.487
G2 X9.831 Y14.155 Z-6.5 R1.588
X10.012 Y14.043 R1.588 F800.
X10.262 Y13.862 R17.247
X10.512 Y13.632 R1.588
G1 X10.542 Y13.597
G2 X10.679 Y13.416 R1.587
G1 X10.694 Y13.393
G2 X10.802 Y13.199 R1.587
G1 X10.821 Y13.157
G2 X10.844 Y13.107 R1.588
G1 X10.852 Y13.105
G2 X11.108 Y13.031 R1.587
G1 X11.152 Y13.014
G2 X11.39 Y12.898 R1.588
G1 X11.428 Y12.876
G2 X11.693 Y12.678 R1.587
X11.918 Y12.466 R17.247
X12.137 Y12.207 R1.588
G1 X12.163 Y12.169
G2 X12.276 Y11.972 R1.588
G1 X12.289 Y11.947
G2 X12.371 Y11.741 R1.587
G1 X12.385 Y11.697
G2 X12.401 Y11.645 R1.587
G1 X12.407 Y11.643
G2 X12.652 Y11.536 R1.588
G1 X12.694 Y11.514
G2 X12.918 Y11.368 R1.588
G1 X12.952 Y11.341
G2 X13.19 Y11.112 R1.588
X13.387 Y10.874 R17.247
X13.573 Y10.586 R1.587
G1 X13.594 Y10.545
G2 X13.678 Y10.345 R1.587
G1 X13.687 Y10.318
G2 X13.745 Y10.097 R1.587
G1 X13.754 Y10.052
G2 X13.763 Y9.999 R1.588
G1 X13.769 Y9.996
G2 X13.998 Y9.86 R1.588
G1 X14.036 Y9.833
G2 X14.241 Y9.659 R1.587
G1 X14.271 Y9.628
G2 X14.479 Y9.371 R1.588
X14.644 Y9.11 R17.247
X14.792 Y8.804 R1.588
G1 X14.808 Y8.76
G2 X14.867 Y8.546 R1.588
G1 X14.873 Y8.518
G2 X14.902 Y8.295 R1.588
G1 X14.905 Y8.249
G2 X14.907 Y8.195 R1.587
G1 X14.912 Y8.192
G2 X15.124 Y8.027 R1.587
G1 X15.158 Y7.996
G2 X15.34 Y7.798 R1.588
G1 X15.366 Y7.763
G2 X15.539 Y7.483 R1.588
X15.671 Y7.203 R17.247
X15.779 Y6.881 R1.587
G1 X15.789 Y6.836
G2 X15.821 Y6.617 R1.588
G1 X15.823 Y6.589
G2 X15.824 Y6.361 R1.587
G1 X15.821 Y6.314
G2 X15.817 Y6.262 R1.587
G1 X15.822 Y6.257
G2 X16.01 Y6.069 R1.587
G1 X16.04 Y6.034
G2 X16.196 Y5.814 R1.587
G1 X16.218 Y5.776
G2 X16.354 Y5.476 R1.587
X16.45 Y5.182 R17.247
X16.517 Y4.849 R1.588
G1 X16.521 Y4.802
G2 X16.525 Y4.581 R1.588
G1 X16.524 Y4.552
G2 X16.497 Y4.331 R1.587
G1 X16.489 Y4.285
G2 X16.477 Y4.23 R1.588
G1 X16.481 Y4.226
G2 X16.646 Y4.013 R1.588
G1 X16.671 Y3.973
G2 X16.796 Y3.739 R1.587
G1 X16.813 Y3.7
G2 X16.912 Y3.383 R1.588
X16.97 Y3.08 R17.247
X16.994 Y2.742 R1.588
G1 X16.993 Y2.695
G2 X16.969 Y2.471 R1.588
G1 X16.964 Y2.443
G2 X16.91 Y2.228 R1.587
G1 X16.895 Y2.184
G2 X16.877 Y2.131 R1.588
G1 X16.882 Y2.125
G2 X17.016 Y1.898 R1.588
G1 X17.036 Y1.856
G2 X17.133 Y1.602 R1.588
G1 X17.145 Y1.56
G2 X17.202 Y1.238 R1.587
X17.222 Y0.929 R17.247
X17.203 Y0.587 R1.588
G1 X17.196 Y0.541
G2 X17.146 Y0.328 R1.587
G1 X17.137 Y0.301
G2 X17.055 Y0.089 R1.587
G1 X17.035 Y0.047
G2 X17.011 Y-0.001 R1.588
G1 X17.015 Y-0.007
G2 X17.121 Y-0.252 R1.587
G1 X17.135 Y-0.296
G2 X17.198 Y-0.555 R1.587
G1 X17.205 Y-0.597
G2 X17.222 Y-0.929 R1.588
X17.202 Y-1.238 R17.247
X17.142 Y-1.57 R1.588
G1 X17.129 Y-1.615
G2 X17.05 Y-1.826 R1.588
G1 X17.039 Y-1.852
G2 X16.932 Y-2.048 R1.588
G1 X16.907 Y-2.088
G2 X16.877 Y-2.133 R1.588
G1 X16.879 Y-2.138
G2 X16.954 Y-2.397 R1.588
G1 X16.963 Y-2.443
G2 X16.993 Y-2.705 R1.588
G1 X16.994 Y-2.749
G2 X16.97 Y-3.08 R1.587
X16.912 Y-3.383 R17.247
X16.809 Y-3.71 R1.587
G1 X16.79 Y-3.752
G2 X16.688 Y-3.947 R1.588
G1 X16.673 Y-3.971
G2 X16.542 Y-4.154 R1.588
G1 X16.513 Y-4.189
G2 X16.477 Y-4.231 R1.587
G1 X16.478 Y-4.238
G2 X16.52 Y-4.503 R1.587
G1 X16.523 Y-4.55
G2 X16.52 Y-4.816 R1.587
G1 X16.516 Y-4.859
G2 X16.45 Y-5.182 R1.587
X16.354 Y-5.476 R17.247
X16.212 Y-5.787 R1.588
G1 X16.188 Y-5.827
G2 X16.063 Y-6.007 R1.587
G1 X16.045 Y-6.029
G2 X15.891 Y-6.195 R1.588
G1 X15.856 Y-6.227
G2 X15.817 Y-6.263 R1.587
G1 Y-6.268
G2 X15.826 Y-6.537 R1.588
G1 X15.823 Y-6.583
G2 X15.786 Y-6.85 R1.588
G1 X15.776 Y-6.892
G2 X15.671 Y-7.203 R1.588
X15.539 Y-7.483 R17.247
X15.359 Y-7.772 R1.588
G1 X15.33 Y-7.809
G2 X15.181 Y-7.975 R1.587
G1 X15.16 Y-7.994
G2 X14.989 Y-8.137 R1.588
G1 X14.952 Y-8.165
G2 X14.907 Y-8.196 R1.588
G1 Y-8.204
G2 X14.882 Y-8.468 R1.587
G1 X14.873 Y-8.514
G2 X14.803 Y-8.774 R1.587
G1 X14.788 Y-8.815
G2 X14.644 Y-9.11 R1.588
X14.479 Y-9.371 R17.247
X14.265 Y-9.635 R1.588
G1 X14.232 Y-9.668
G2 X14.062 Y-9.814 R1.587
G1 X14.039 Y-9.831
G2 X13.852 Y-9.952 R1.588
G1 X13.811 Y-9.974
G2 X13.762 Y-9.999 R1.587
G1 X13.761 Y-10.007
G2 X13.703 Y-10.267 R1.587
G1 X13.689 Y-10.311
G2 X13.588 Y-10.558 R1.587
G1 X13.568 Y-10.596
G2 X13.387 Y-10.874 R1.588
X13.19 Y-11.112 R17.247
X12.944 Y-11.347 R1.587
G1 X12.907 Y-11.376
G2 X12.722 Y-11.499 R1.588
G1 X12.697 Y-11.513
G2 X12.496 Y-11.609 R1.588
G1 X12.453 Y-11.626
G2 X12.4 Y-11.645 R1.588
G1 X12.399 Y-11.651
G2 X12.307 Y-11.905 R1.588
G1 X12.288 Y-11.948
G2 X12.157 Y-12.179 R1.588
G1 X12.132 Y-12.214
G2 X11.918 Y-12.466 R1.588
X11.693 Y-12.678 R17.247
X11.422 Y-12.879 R1.587
G1 X11.382 Y-12.903
G2 X11.18 Y-13.003 R1.587
G1 X11.153 Y-13.014
G2 X10.942 Y-13.084 R1.587
G1 X10.897 Y-13.095
G2 X10.843 Y-13.108 R1.587
G1 X10.84 Y-13.114
G2 X10.719 Y-13.352 R1.588
G1 X10.694 Y-13.392
G2 X10.535 Y-13.606 R1.588
G1 X10.506 Y-13.638
G2 X10.262 Y-13.862 R1.588
X10.012 Y-14.043 R17.247
X9.715 Y-14.21 R1.587
G1 X9.672 Y-14.229
G2 X9.466 Y-14.3 R1.588
G1 X9.438 Y-14.308
G2 X9.214 Y-14.352 R1.588
G1 X9.168 Y-14.358
G2 X9.115 Y-14.363 R1.588
G1 X9.111 Y-14.37
G2 X8.961 Y-14.59 R1.587
G1 X8.932 Y-14.626
G2 X8.746 Y-14.82 R1.587
G1 X8.713 Y-14.848
G2 X8.444 Y-15.038 R1.588
X8.173 Y-15.187 R17.247
X7.857 Y-15.316 R1.587
G1 X7.813 Y-15.329
G2 X7.594 Y-15.375 R1.587
G1 X7.565 Y-15.379
G2 X7.344 Y-15.394 R1.588
G1 X7.298
G2 X7.243 Y-15.393 R1.588
G1 X7.239 Y-15.398
G2 X7.061 Y-15.599 R1.587
G1 X7.027 Y-15.631
G2 X6.822 Y-15.797 R1.587
G1 X6.786 Y-15.821
G2 X6.492 Y-15.978 R1.588
X6.205 Y-16.092 R17.247
X5.876 Y-16.18 R1.588
G1 X5.83 Y-16.187
G2 X5.61 Y-16.205 R1.588
G1 X5.582 Y-16.206
G2 X5.355 Y-16.193 R1.587
G1 X5.309 Y-16.187
G2 X5.256 Y-16.179 R1.587
G1 X5.252 Y-16.184
G2 X5.052 Y-16.36 R1.587
G1 X5.015 Y-16.387
G2 X4.785 Y-16.529 R1.588
G1 X4.746 Y-16.549
G2 X4.439 Y-16.666 R1.588
X4.139 Y-16.743 R17.247
X3.803 Y-16.789 R1.587
G1 X3.756 Y-16.79
G2 X3.533 Y-16.78 R1.587
G1 X3.505 Y-16.777
G2 X3.285 Y-16.736 R1.588
G1 X3.24 Y-16.725
G2 X3.187 Y-16.71 R1.588
G1 X3.182 Y-16.714
G2 X2.96 Y-16.865 R1.587
G1 X2.919 Y-16.888
G2 X2.678 Y-16.997 R1.587
G1 X2.638 Y-17.012
G2 X2.315 Y-17.091 R1.588
X2.008 Y-17.13 R17.247
X1.666 Y-17.133 R1.588
G1 X1.62 Y-17.128
G2 X1.403 Y-17.091 R1.588
G1 X1.375 Y-17.084
G2 X1.16 Y-17.016 R1.588
G1 X1.117 Y-16.999
G2 X1.068 Y-16.978 R1.588
G1 X1.063 Y-16.981
G2 X0.822 Y-17.103 R1.587
G1 X0.779 Y-17.121
G2 X0.524 Y-17.2 R1.588
G1 X0.482 Y-17.209
G2 X0.155 Y-17.246 R1.587
X-0.155 R17.247
X-0.492 Y-17.207 R1.588
G1 X-0.537 Y-17.197
G2 X-0.75 Y-17.132 R1.587
G1 X-0.776 Y-17.122
G2 X-0.982 Y-17.027 R1.587
G1 X-1.022 Y-17.004
G2 X-1.069 Y-16.978 R1.588
G1 X-1.074 Y-16.98
G2 X-1.327 Y-17.071 R1.588
G1 X-1.372 Y-17.083
G2 X-1.633 Y-17.13 R1.588
G1 X-1.677 Y-17.134
G2 X-2.008 Y-17.13 R1.587
X-2.315 Y-17.091 R17.247
X-2.644 Y-17.01 R1.587
G1 X-2.688 Y-16.994
G2 X-2.893 Y-16.902 R1.587
G1 X-2.918 Y-16.889
G2 X-3.107 Y-16.77 R1.587
G1 X-3.145 Y-16.743
G2 X-3.188 Y-16.71 R1.588
G1 X-3.195 Y-16.712
G2 X-3.454 Y-16.77 R1.588
G1 X-3.501 Y-16.776
G2 X-3.77 Y-16.79 R1.587
G1 X-3.813 Y-16.788
G2 X-4.139 Y-16.743 R1.587
X-4.439 Y-16.666 R17.247
X-4.757 Y-16.543 R1.587
G1 X-4.798 Y-16.522
G2 X-4.987 Y-16.407 R1.587
G1 X-5.01 Y-16.391
G2 X-5.184 Y-16.249 R1.588
G1 X-5.218 Y-16.217
G2 X-5.257 Y-16.179 R1.587
G1 X-5.262
G2 X-5.531 Y-16.205 R1.588
G1 X-5.578
G2 X-5.844 Y-16.185 R1.588
G1 X-5.887 Y-16.178
G2 X-6.205 Y-16.092 R1.588
X-6.492 Y-15.978 R17.247
X-6.792 Y-15.817 R1.588
G1 X-6.83 Y-15.791
G2 X-7.008 Y-15.65 R1.588
G1 X-7.029 Y-15.63
G2 X-7.18 Y-15.471 R1.588
G1 X-7.21 Y-15.435
G2 X-7.244 Y-15.392 R1.587
G1 X-7.248
G2 X-7.517 Y-15.384 R1.587
G1 X-7.563 Y-15.379
G2 X-7.827 Y-15.325 R1.588
G1 X-7.868 Y-15.313
G2 X-8.173 Y-15.187 R1.588
X-8.444 Y-15.038 R17.247
X-8.721 Y-14.841 R1.588
G1 X-8.756 Y-14.81
G2 X-8.912 Y-14.65 R1.588
G1 X-8.93 Y-14.629
G2 X-9.062 Y-14.449 R1.588
G1 X-9.087 Y-14.41
G2 X-9.116 Y-14.363 R1.587
G1 X-9.119
G2 X-9.387 Y-14.32 R1.588
G1 X-9.432 Y-14.309
G2 X-9.685 Y-14.223 R1.587
G1 X-9.725 Y-14.206
G2 X-10.012 Y-14.043 R1.588
X-10.262 Y-13.862 R17.247
X-10.512 Y-13.632 R1.588
G1 X-10.542 Y-13.597
G2 X-10.679 Y-13.416 R1.587
G1 X-10.694 Y-13.393
G2 X-10.802 Y-13.199 R1.587
G1 X-10.821 Y-13.157
G2 X-10.844 Y-13.107 R1.588
G1 X-10.852 Y-13.105
G2 X-11.108 Y-13.031 R1.587
G1 X-11.152 Y-13.014
G2 X-11.39 Y-12.898 R1.588
G1 X-11.428 Y-12.876
G2 X-11.693 Y-12.678 R1.587
X-11.918 Y-12.466 R17.247
X-12.137 Y-12.207 R1.588
G1 X-12.163 Y-12.169
G2 X-12.276 Y-11.972 R1.588
G1 X-12.289 Y-11.947
G2 X-12.371 Y-11.741 R1.587
G1 X-12.385 Y-11.697
G2 X-12.401 Y-11.645 R1.587
G1 X-12.407 Y-11.643
G2 X-12.652 Y-11.536 R1.588
G1 X-12.694 Y-11.514
G2 X-12.918 Y-11.368 R1.588
G1 X-12.952 Y-11.341
G2 X-13.19 Y-11.112 R1.588
X-13.387 Y-10.874 R17.247
X-13.573 Y-10.586 R1.587
G1 X-13.594 Y-10.545
G2 X-13.678 Y-10.345 R1.587
G1 X-13.687 Y-10.318
G2 X-13.745 Y-10.097 R1.587
G1 X-13.754 Y-10.052
G2 X-13.763 Y-9.999 R1.588
G1 X-13.769 Y-9.996
G2 X-13.998 Y-9.86 R1.588
G1 X-14.036 Y-9.833
G2 X-14.241 Y-9.659 R1.587
G1 X-14.271 Y-9.628
G2 X-14.479 Y-9.371 R1.588
X-14.644 Y-9.11 R17.247
X-14.792 Y-8.804 R1.588
G1 X-14.808 Y-8.76
G2 X-14.867 Y-8.546 R1.588
G1 X-14.873 Y-8.518
G2 X-14.902 Y-8.295 R1.588
G1 X-14.905 Y-8.249
G2 X-14.907 Y-8.195 R1.587
G1 X-14.912 Y-8.192
G2 X-15.124 Y-8.027 R1.587
G1 X-15.158 Y-7.996
G2 X-15.34 Y-7.798 R1.588
G1 X-15.366 Y-7.763
G2 X-15.539 Y-7.483 R1.588
X-15.671 Y-7.203 R17.247
X-15.779 Y-6.881 R1.587
G1 X-15.789 Y-6.836
G2 X-15.821 Y-6.617 R1.588
G1 X-15.823 Y-6.589
G2 X-15.824 Y-6.361 R1.587
G1 X-15.821 Y-6.314
G2 X-15.817 Y-6.262 R1.587
G1 X-15.822 Y-6.257
G2 X-16.01 Y-6.069 R1.587
G1 X-16.04 Y-6.034
G2 X-16.196 Y-5.814 R1.587
G1 X-16.218 Y-5.776
G2 X-16.354 Y-5.476 R1.587
X-16.45 Y-5.182 R17.247
X-16.517 Y-4.849 R1.588
G1 X-16.521 Y-4.802
G2 X-16.525 Y-4.581 R1.588
G1 X-16.524 Y-4.552
G2 X-16.497 Y-4.331 R1.587
G1 X-16.489 Y-4.285
G2 X-16.477 Y-4.23 R1.588
G1 X-16.481 Y-4.226
G2 X-16.646 Y-4.013 R1.588
G1 X-16.671 Y-3.973
G2 X-16.796 Y-3.739 R1.587
G1 X-16.813 Y-3.7
G2 X-16.912 Y-3.383 R1.588
X-16.97 Y-3.08 R17.247
X-16.994 Y-2.742 R1.588
G1 X-16.993 Y-2.695
G2 X-16.969 Y-2.471 R1.588
G1 X-16.964 Y-2.443
G2 X-16.91 Y-2.228 R1.587
G1 X-16.895 Y-2.184
G2 X-16.877 Y-2.131 R1.588
G1 X-16.882 Y-2.125
G2 X-17.016 Y-1.898 R1.588
G1 X-17.036 Y-1.856
G2 X-17.133 Y-1.602 R1.588
G1 X-17.145 Y-1.56
G2 X-17.202 Y-1.238 R1.587
X-17.222 Y-0.929 R17.247
X-17.203 Y-0.587 R1.588
G1 X-17.196 Y-0.541
G2 X-17.146 Y-0.328 R1.587
G1 X-17.137 Y-0.301
G2 X-17.055 Y-0.089 R1.587
G1 X-17.035 Y-0.047
G2 X-17.011 Y0.001 R1.588
G1 X-17.015 Y0.007
G2 X-17.121 Y0.252 R1.587
G1 X-17.135 Y0.296
G2 X-17.198 Y0.555 R1.587
G1 X-17.205 Y0.597
G2 X-17.222 Y0.929 R1.588
X-17.202 Y1.238 R17.247
X-17.142 Y1.57 R1.588
G1 X-17.129 Y1.615
G2 X-17.05 Y1.826 R1.588
G1 X-17.039 Y1.852
G2 X-16.932 Y2.048 R1.588
G1 X-16.907 Y2.088
G2 X-16.877 Y2.133 R1.588
G1 X-16.879 Y2.138
G2 X-16.954 Y2.397 R1.588
G1 X-16.963 Y2.443
G2 X-16.993 Y2.705 R1.588
G1 X-16.994 Y2.749
G2 X-16.97 Y3.08 R1.587
X-16.912 Y3.383 R17.247
X-16.809 Y3.71 R1.587
G1 X-16.79 Y3.752
G2 X-16.688 Y3.947 R1.588
G1 X-16.673 Y3.971
G2 X-16.542 Y4.154 R1.588
G1 X-16.513 Y4.189
G2 X-16.477 Y4.231 R1.587
G1 X-16.478 Y4.238
G2 X-16.52 Y4.503 R1.587
G1 X-16.523 Y4.55
G2 X-16.52 Y4.816 R1.587
G1 X-16.516 Y4.859
G2 X-16.45 Y5.182 R1.587
X-16.354 Y5.476 R17.247
X-16.212 Y5.787 R1.588
G1 X-16.188 Y5.827
G2 X-16.063 Y6.007 R1.587
G1 X-16.045 Y6.029
G2 X-15.891 Y6.195 R1.588
G1 X-15.856 Y6.227
G2 X-15.817 Y6.263 R1.587
G1 Y6.268
G2 X-15.826 Y6.537 R1.588
G1 X-15.823 Y6.583
G2 X-15.786 Y6.85 R1.588
G1 X-15.776 Y6.892
G2 X-15.671 Y7.203 R1.588
X-15.539 Y7.483 R17.247
X-15.359 Y7.772 R1.588
G1 X-15.33 Y7.809
G2 X-15.181 Y7.975 R1.587
G1 X-15.16 Y7.994
G2 X-14.989 Y8.137 R1.588
G1 X-14.952 Y8.165
G2 X-14.907 Y8.196 R1.588
G1 Y8.204
G2 X-14.882 Y8.468 R1.587
G1 X-14.873 Y8.514
G2 X-14.803 Y8.774 R1.587
G1 X-14.788 Y8.815
G2 X-14.644 Y9.11 R1.588
X-14.479 Y9.371 R17.247
X-14.265 Y9.635 R1.588
G1 X-14.232 Y9.668
G2 X-14.062 Y9.814 R1.587
G1 X-14.039 Y9.831
G2 X-13.852 Y9.952 R1.588
G1 X-13.811 Y9.974
G2 X-13.762 Y9.999 R1.587
G1 X-13.761 Y10.007
G2 X-13.703 Y10.267 R1.587
G1 X-13.689 Y10.311
G2 X-13.588 Y10.558 R1.587
G1 X-13.568 Y10.596
G2 X-13.387 Y10.874 R1.588
X-13.19 Y11.112 R17.247
X-12.944 Y11.347 R1.587
G1 X-12.907 Y11.376
G2 X-12.722 Y11.499 R1.588
G1 X-12.697 Y11.513
G2 X-12.496 Y11.609 R1.588
G1 X-12.453 Y11.626
G2 X-12.4 Y11.645 R1.588
G1 X-12.399 Y11.651
G2 X-12.307 Y11.905 R1.588
G1 X-12.288 Y11.948
G2 X-12.157 Y12.179 R1.588
G1 X-12.132 Y12.214
G2 X-11.918 Y12.466 R1.588
X-11.693 Y12.678 R17.247
X-11.422 Y12.879 R1.587
G1 X-11.382 Y12.903
G2 X-11.18 Y13.003 R1.587
G1 X-11.153 Y13.014
G2 X-10.942 Y13.084 R1.587
G1 X-10.897 Y13.095
G2 X-10.843 Y13.108 R1.587
G1 X-10.84 Y13.114
G2 X-10.719 Y13.352 R1.588
G1 X-10.694 Y13.392
G2 X-10.535 Y13.606 R1.588
G1 X-10.506 Y13.638
G2 X-10.262 Y13.862 R1.588
X-10.012 Y14.043 R17.247
X-9.715 Y14.21 R1.587
G1 X-9.672 Y14.229
G2 X-9.466 Y14.3 R1.588
G1 X-9.438 Y14.308
G2 X-9.214 Y14.352 R1.588
G1 X-9.168 Y14.358
G2 X-9.115 Y14.363 R1.588
G1 X-9.111 Y14.37
G2 X-8.961 Y14.59 R1.587
G1 X-8.932 Y14.626
G2 X-8.746 Y14.82 R1.587
G1 X-8.713 Y14.848
G2 X-8.444 Y15.038 R1.588
X-8.173 Y15.187 R17.247
X-7.857 Y15.316 R1.587
G1 X-7.813 Y15.329
G2 X-7.594 Y15.375 R1.587
G1 X-7.565 Y15.379
G2 X-7.344 Y15.394 R1.588
G1 X-7.298
G2 X-7.243 Y15.393 R1.588
G1 X-7.239 Y15.398
G2 X-7.061 Y15.599 R1.587
G1 X-7.027 Y15.631
G2 X-6.822 Y15.797 R1.587
G1 X-6.786 Y15.821
G2 X-6.492 Y15.978 R1.588
X-6.205 Y16.092 R17.247
X-5.876 Y16.18 R1.588
G1 X-5.83 Y16.187
G2 X-5.61 Y16.205 R1.588
G1 X-5.582 Y16.206
G2 X-5.355 Y16.193 R1.587
G1 X-5.309 Y16.187
G2 X-5.256 Y16.179 R1.587
G1 X-5.252 Y16.184
G2 X-5.052 Y16.36 R1.587
G1 X-5.015 Y16.387
G2 X-4.785 Y16.529 R1.588
G1 X-4.746 Y16.549
G2 X-4.439 Y16.666 R1.588
X-4.139 Y16.743 R17.247
X-3.803 Y16.789 R1.587
G1 X-3.756 Y16.79
G2 X-3.533 Y16.78 R1.587
G1 X-3.505 Y16.777
G2 X-3.285 Y16.736 R1.588
G1 X-3.24 Y16.725
G2 X-3.187 Y16.71 R1.588
G1 X-3.182 Y16.714
G2 X-2.96 Y16.865 R1.587
G1 X-2.919 Y16.888
G2 X-2.678 Y16.997 R1.587
G1 X-2.638 Y17.012
G2 X-2.315 Y17.091 R1.588
X-2.008 Y17.13 R17.247
X-1.666 Y17.133 R1.588
G1 X-1.62 Y17.128
G2 X-1.403 Y17.091 R1.588
G1 X-1.375 Y17.084
G2 X-1.16 Y17.016 R1.588
G1 X-1.117 Y16.999
G2 X-1.068 Y16.978 R1.588
G1 X-1.063 Y16.981
G2 X-0.822 Y17.103 R1.587
G1 X-0.779 Y17.121
G2 X-0.524 Y17.2 R1.588
G1 X-0.482 Y17.209
G2 X-0.155 Y17.246 R1.587
X0.155 R17.247
X0.492 Y17.207 R1.588
G1 X0.537 Y17.197
G2 X0.75 Y17.132 R1.587
G1 X0.776 Y17.122
G2 X0.982 Y17.027 R1.587
G1 X1.022 Y17.004
G2 X1.069 Y16.978 R1.588
G1 X1.074 Y16.98
G2 X1.327 Y17.071 R1.588
G1 X1.372 Y17.083
G2 X1.633 Y17.13 R1.588
G1 X1.677 Y17.134
G2 X2.008 Y17.13 R1.587
X2.315 Y17.091 R17.247
X2.644 Y17.01 R1.587
G1 X2.688 Y16.994
G2 X2.893 Y16.902 R1.587
G1 X2.918 Y16.889
G2 X3.107 Y16.77 R1.587
G1 X3.145 Y16.743
G2 X3.188 Y16.71 R1.588
G1 X3.195 Y16.712
G2 X3.454 Y16.77 R1.588
G1 X3.501 Y16.776
G2 X3.77 Y16.79 R1.587
G1 X3.813 Y16.788
G2 X4.139 Y16.743 R1.587
X4.439 Y16.666 R17.247
X4.757 Y16.543 R1.587
G1 X4.798 Y16.522
G2 X4.987 Y16.407 R1.587
G1 X5.01 Y16.391
G2 X5.184 Y16.249 R1.588
G1 X5.218 Y16.217
G2 X5.257 Y16.179 R1.587
G1 X5.262
G2 X5.531 Y16.205 R1.588
G1 X5.578
G2 X5.844 Y16.185 R1.588
G1 X5.887 Y16.178
G2 X6.205 Y16.092 R1.588
X6.492 Y15.978 R17.247
X6.792 Y15.817 R1.588
G1 X6.83 Y15.791
G2 X7.008 Y15.65 R1.588
G1 X7.029 Y15.63
G2 X7.18 Y15.471 R1.588
G1 X7.21 Y15.435
G2 X7.244 Y15.392 R1.587
G1 X7.248
G2 X7.517 Y15.384 R1.587
G1 X7.563 Y15.379
G2 X7.827 Y15.325 R1.588
G1 X7.868 Y15.313
G2 X8.173 Y15.187 R1.588
X8.444 Y15.038 R17.247
X8.721 Y14.841 R1.588
G1 X8.756 Y14.81
G2 X8.912 Y14.65 R1.588
G1 X8.93 Y14.629
G2 X9.062 Y14.449 R1.588
G1 X9.087 Y14.41
G2 X9.116 Y14.363 R1.587
G1 X9.119
G2 X9.387 Y14.32 R1.588
G1 X9.432 Y14.309
G2 X9.685 Y14.223 R1.587
G1 X9.725 Y14.206
G2 X9.831 Y14.155 R1.588
G0 Z15.

M9
M30
