(GT2_50_SHAFT19.9_STEP3)
(T1  D=3.175 CR=0. - ZMIN=-9.024 - FLAT END MILL)
G90 G94 G91.1 G40 G49 G17
G21

(2D CONTOUR4)
M5
M9
T1
S10000 M3
G54
M8
G0 X3.126 Y17.977
G43 Z15. H1
Z5.
G1 Z3. F200.
Z2.5
G2 X18.247 Y0. Z-2. R18.247
X-18.247 R18.247 F800.
X18.247 R18.247
X10.02 Y-15.25 Z-4. R18.247 F200.
X-10.02 Y15.25 R18.247 F800.
X10.02 Y-15.25 R18.247
X-7.243 Y-16.748 Z-6. R18.247 F200.
X7.243 Y16.748 R18.247 F800.
X-7.243 Y-16.748 R18.247
X-17.974 Y-3.144 Z-8. R18.247 F200.
X17.974 Y3.144 R18.247 F800.
X-17.974 Y-3.144 R18.247
X-17.242 Y5.972 Z-9.024 R18.247 F200.
X17.242 Y-5.972 R18.247 F800.
X-17.242 Y5.972 R18.247
G0 Z15.

M9
M30
