(GT2_50_SHAFT19.2_STEP2)
(T2  D=1. CR=0. - ZMIN=-7.5 - FLAT END MILL)
G90 G94 G91.1 G40 G49 G17
G21

(2D CONTOUR3)
M5
M9
T2
S8730 M3
G54
M9
G0 X-9.701 Y-12.906
G43 Z15. H2
Z5.
G1 Z2.5 F200.
X-9.724 Y-12.88 Z2.494
G2 X-9.767 Y-12.823 Z2.481 R0.5
G1 X-9.783 Y-12.799 Z2.476
G2 X-9.817 Y-12.739 Z2.464 R0.5
G1 X-9.836 Y-12.696 Z2.456
G2 X-9.866 Y-12.617 Z2.441 R0.5
G1 X-9.877 Y-12.576 Z2.433
G2 X-9.892 Y-12.493 Z2.418 R0.5
G1 X-9.897 Y-12.446 Z2.41
G2 X-9.898 Y-12.362 Z2.395 R0.5
G1 X-9.895 Y-12.319 Z2.388
G2 X-9.882 Y-12.235 Z2.373 R0.5
G1 X-9.871 Y-12.189 Z2.364
G2 X-9.85 Y-12.123 Z2.352 R0.5
G1 X-9.812 Y-12.028 Z2.334
X-9.788 Y-11.968 Z2.323
X-9.758 Y-11.883 Z2.307
X-9.754 Y-11.871 Z2.305
X-9.771 Y-11.857 Z2.301
X-9.777 Y-11.852 Z2.299
X-9.833 Y-11.805 Z2.286
X-9.851 Y-11.815 Z2.283
X-9.915 Y-11.854 Z2.27
X-9.97 Y-11.888 Z2.258
X-10.018 Y-11.92 Z2.248
G2 X-10.03 Y-11.927 Z2.246 R0.5
G1 X-10.073 Y-11.954 Z2.237
G2 X-10.118 Y-11.978 Z2.228 R0.5
G1 X-10.143 Y-11.99 Z2.223
G2 X-10.21 Y-12.017 Z2.21 R0.5
G1 X-10.254 Y-12.031 Z2.202
G2 X-10.335 Y-12.049 Z2.187 R0.5
G1 X-10.378 Y-12.055 Z2.18
G2 X-10.462 Y-12.059 Z2.165 R0.5
G1 X-10.509 Y-12.058 Z2.156
G2 X-10.593 Y-12.048 Z2.141 R0.5
G1 X-10.636 Y-12.04 Z2.134
G2 X-10.716 Y-12.016 Z2.119 R0.5
G1 X-10.76 Y-11.999 Z2.111
G2 X-10.835 Y-11.963 Z2.096 R0.5
G1 X-10.872 Y-11.941 Z2.088
G2 X-10.956 Y-11.878 Z2.07 R0.5
X-11.167 Y-11.68 Z2.019 R16.159
X-11.236 Y-11.598 Z2. R0.5
G1 X-11.262 Y-11.56 Z1.992
G2 X-11.297 Y-11.498 Z1.979 R0.5
G1 X-11.31 Y-11.472 Z1.974
G2 X-11.336 Y-11.408 Z1.962 R0.5
G1 X-11.35 Y-11.363 Z1.954
G2 X-11.369 Y-11.282 Z1.939 R0.5
G1 X-11.375 Y-11.239 Z1.931
G2 X-11.38 Y-11.154 Z1.916 R0.5
G1 X-11.379 Y-11.108 Z1.908
G2 X-11.37 Y-11.024 Z1.893 R0.5
G1 X-11.361 Y-10.981 Z1.885
G2 X-11.338 Y-10.9 Z1.871 R0.5
G1 X-11.321 Y-10.856 Z1.862
G2 X-11.292 Y-10.792 Z1.85 R0.5
G1 X-11.242 Y-10.703 Z1.832
X-11.211 Y-10.647 Z1.821
X-11.17 Y-10.566 Z1.805
X-11.165 Y-10.555 Z1.802
X-11.18 Y-10.539 Z1.798
X-11.185 Y-10.534 Z1.797
X-11.235 Y-10.48 Z1.784
X-11.254 Y-10.487 Z1.781
X-11.323 Y-10.517 Z1.767
X-11.381 Y-10.545 Z1.756
X-11.433 Y-10.57 Z1.746
G2 X-11.446 Y-10.576 Z1.743 R0.5
G1 X-11.493 Y-10.597 Z1.734
G2 X-11.54 Y-10.616 Z1.725 R0.5
G1 X-11.566 Y-10.625 Z1.72
G2 X-11.634 Y-10.642 Z1.708 R0.5
G1 X-11.68 Y-10.65 Z1.7
G2 X-11.763 Y-10.659 Z1.685 R0.5
G1 X-11.807 Z1.677
G2 X-11.892 Y-10.653 Z1.662 R0.5
G1 X-11.938 Y-10.646 Z1.654
G2 X-12.019 Y-10.626 Z1.639 R0.5
G1 X-12.06 Y-10.612 Z1.632
G2 X-12.137 Y-10.578 Z1.617 R0.5
G1 X-12.178 Y-10.556 Z1.609
G2 X-12.249 Y-10.51 Z1.594 R0.5
G1 X-12.283 Y-10.484 Z1.586
G2 X-12.358 Y-10.412 Z1.568 R0.5
X-12.543 Y-10.188 Z1.517 R16.159
X-12.601 Y-10.098 Z1.498 R0.5
G1 X-12.622 Y-10.056 Z1.489
G2 X-12.649 Y-9.993 Z1.477 R0.5
G1 X-12.658 Y-9.966 Z1.472
G2 X-12.676 Y-9.897 Z1.46 R0.5
G1 X-12.685 Y-9.851 Z1.451
G2 X-12.693 Y-9.767 Z1.437 R0.5
G1 X-12.694 Y-9.724 Z1.429
G2 X-12.689 Y-9.64 Z1.414 R0.5
G1 X-12.682 Y-9.594 Z1.406
G2 X-12.662 Y-9.512 Z1.391 R0.5
G1 X-12.648 Y-9.471 Z1.383
G2 X-12.615 Y-9.393 Z1.368 R0.5
G1 X-12.592 Y-9.351 Z1.36
G2 X-12.555 Y-9.292 Z1.348 R0.5
G1 X-12.495 Y-9.21 Z1.33
X-12.457 Y-9.158 Z1.318
X-12.406 Y-9.083 Z1.303
X-12.4 Y-9.073 Z1.3
X-12.413 Y-9.055 Z1.296
X-12.417 Y-9.049 Z1.295
X-12.46 Y-8.989 Z1.282
X-12.48 Y-8.994 Z1.279
X-12.552 Y-9.015 Z1.265
X-12.613 Y-9.035 Z1.254
X-12.668 Y-9.054 Z1.244
G2 X-12.681 Y-9.058 Z1.241 R0.5
G1 X-12.73 Y-9.073 Z1.232
G2 X-12.779 Y-9.086 Z1.223 R0.5
G1 X-12.806 Y-9.091 Z1.218
G2 X-12.877 Y-9.1 Z1.206 R0.5
G1 X-12.923 Y-9.103 Z1.198
G2 X-13.007 Y-9.1 Z1.183 R0.5
G1 X-13.05 Y-9.095 Z1.175
G2 X-13.133 Y-9.079 Z1.16 R0.5
G1 X-13.178 Y-9.066 Z1.152
G2 X-13.256 Y-9.035 Z1.137 R0.5
G1 X-13.295 Y-9.017 Z1.13
G2 X-13.367 Y-8.974 Z1.115 R0.5
G1 X-13.405 Y-8.947 Z1.107
G2 X-13.47 Y-8.892 Z1.092 R0.5
G1 X-13.5 Y-8.862 Z1.084
G2 X-13.566 Y-8.781 Z1.066 R0.5
X-13.721 Y-8.536 Z1.015 R16.159
X-13.767 Y-8.439 Z0.996 R0.5
G1 X-13.783 Y-8.396 Z0.987
G2 X-13.802 Y-8.328 Z0.975 R0.5
G1 X-13.807 Y-8.3 Z0.97
G2 X-13.817 Y-8.23 Z0.958 R0.5
G1 X-13.819 Y-8.184 Z0.949
G2 X-13.818 Y-8.1 Z0.935 R0.5
G1 X-13.813 Y-8.057 Z0.927
G2 X-13.797 Y-7.973 Z0.912 R0.5
G1 X-13.784 Y-7.929 Z0.904
G2 X-13.754 Y-7.851 Z0.889 R0.5
G1 X-13.736 Y-7.812 Z0.881
G2 X-13.692 Y-7.737 Z0.866 R0.5
G1 X-13.665 Y-7.699 Z0.858
G2 X-13.621 Y-7.645 Z0.846 R0.5
G1 X-13.551 Y-7.571 Z0.828
X-13.507 Y-7.524 Z0.816
X-13.447 Y-7.457 Z0.8
X-13.439 Y-7.447 Z0.798
X-13.45 Y-7.427 Z0.794
X-13.454 Y-7.421 Z0.793
X-13.489 Y-7.356 Z0.78
X-13.509 Y-7.359 Z0.776
X-13.583 Y-7.371 Z0.763
X-13.646 Y-7.383 Z0.752
X-13.703 Y-7.395 Z0.742
G2 X-13.716 Y-7.397 Z0.739 R0.5
G1 X-13.766 Y-7.406 Z0.73
G2 X-13.818 Y-7.412 Z0.721 R0.5
G1 X-13.845 Y-7.414 Z0.716
G2 X-13.915 Z0.704 R0.5
G1 X-13.962 Y-7.411 Z0.696
G2 X-14.045 Y-7.398 Z0.681 R0.5
G1 X-14.087 Y-7.388 Z0.673
G2 X-14.167 Y-7.361 Z0.658 R0.5
G1 X-14.21 Y-7.343 Z0.65
G2 X-14.284 Y-7.303 Z0.635 R0.5
G1 X-14.32 Y-7.279 Z0.628
G2 X-14.387 Y-7.228 Z0.613 R0.5
G1 X-14.421 Y-7.196 Z0.604
G2 X-14.478 Y-7.134 Z0.59 R0.5
G1 X-14.505 Y-7.099 Z0.582
G2 X-14.559 Y-7.011 Z0.564 R0.5
X-14.683 Y-6.749 Z0.513 R16.159
X-14.717 Y-6.648 Z0.494 R0.5
G1 X-14.727 Y-6.602 Z0.485
G2 X-14.737 Y-6.533 Z0.473 R0.5
G1 X-14.739 Y-6.505 Z0.468
G2 Y-6.433 Z0.455 R0.5
G1 X-14.736 Y-6.387 Z0.447
G2 X-14.724 Y-6.304 Z0.432 R0.5
G1 X-14.714 Y-6.262 Z0.425
G2 X-14.687 Y-6.182 Z0.41 R0.5
G1 X-14.669 Y-6.139 Z0.402
G2 X-14.629 Y-6.064 Z0.387 R0.5
G1 X-14.606 Y-6.028 Z0.379
G2 X-14.554 Y-5.961 Z0.364 R0.5
G1 X-14.522 Y-5.926 Z0.356
G2 X-14.472 Y-5.878 Z0.344 R0.5
G1 X-14.393 Y-5.813 Z0.326
X-14.343 Y-5.772 Z0.314
X-14.275 Y-5.713 Z0.298
X-14.266 Y-5.704 Z0.296
X-14.275 Y-5.683 Z0.292
X-14.277 Y-5.676 Z0.291
X-14.304 Y-5.608 Z0.278
X-14.324 Z0.274
X-14.399 Y-5.611 Z0.261
X-14.463 Y-5.615 Z0.25
X-14.522 Y-5.619 Z0.24
G2 X-14.535 Y-5.62 Z0.237 R0.5
G1 X-14.586 Y-5.622 Z0.228
G2 X-14.637 Z0.219 R0.5
G1 X-14.665 Y-5.621 Z0.214
G2 X-14.735 Y-5.612 Z0.202 R0.5
G1 X-14.781 Y-5.603 Z0.194
G2 X-14.862 Y-5.579 Z0.179 R0.5
G1 X-14.902 Y-5.564 Z0.171
G2 X-14.978 Y-5.528 Z0.156 R0.5
G1 X-15.018 Y-5.504 Z0.148
G2 X-15.087 Y-5.455 Z0.133 R0.5
G1 X-15.12 Y-5.427 Z0.125
G2 X-15.179 Y-5.368 Z0.111 R0.5
G1 X-15.209 Y-5.332 Z0.102
G2 X-15.258 Y-5.263 Z0.087 R0.5
G1 X-15.28 Y-5.226 Z0.08
G2 X-15.323 Y-5.131 Z0.061 R0.5
X-15.413 Y-4.855 Z0.01 R16.159
X-15.434 Y-4.75 Z-0.009 R0.5
G1 X-15.438 Y-4.704 Z-0.017
G2 X-15.439 Y-4.634 Z-0.029 R0.5
G1 X-15.438 Y-4.606 Z-0.034
G2 X-15.43 Y-4.536 Z-0.046 R0.5
G1 X-15.421 Y-4.49 Z-0.055
G2 X-15.397 Y-4.408 Z-0.07 R0.5
G1 X-15.382 Y-4.367 Z-0.077
G2 X-15.346 Y-4.292 Z-0.092 R0.5
G1 X-15.323 Y-4.252 Z-0.1
G2 X-15.275 Y-4.183 Z-0.115 R0.5
G1 X-15.247 Y-4.15 Z-0.123
G2 X-15.186 Y-4.089 Z-0.138 R0.5
G1 X-15.151 Y-4.059 Z-0.146
G2 X-15.094 Y-4.018 Z-0.159 R0.5
G1 X-15.008 Y-3.963 Z-0.177
X-14.954 Y-3.929 Z-0.188
X-14.879 Y-3.878 Z-0.204
X-14.869 Y-3.871 Z-0.206
X-14.875 Y-3.849 Z-0.21
X-14.876 Y-3.842 Z-0.211
X-14.894 Y-3.771 Z-0.224
X-14.914 Y-3.768 Z-0.228
X-14.989 Y-3.762 Z-0.241
X-15.053 Y-3.758 Z-0.252
X-15.111 Y-3.755 Z-0.263
G2 X-15.125 Y-3.754 Z-0.265 R0.5
G1 X-15.176 Y-3.75 Z-0.274
G2 X-15.227 Y-3.743 Z-0.283 R0.5
G1 X-15.254 Y-3.738 Z-0.288
G2 X-15.322 Y-3.721 Z-0.3 R0.5
G1 X-15.367 Y-3.706 Z-0.309
G2 X-15.444 Y-3.673 Z-0.323 R0.5
G1 X-15.482 Y-3.652 Z-0.331
G2 X-15.552 Y-3.607 Z-0.346 R0.5
G1 X-15.589 Y-3.578 Z-0.354
G2 X-15.651 Y-3.521 Z-0.369 R0.5
G1 X-15.681 Y-3.49 Z-0.377
G2 X-15.733 Y-3.422 Z-0.392 R0.5
G1 X-15.758 Y-3.383 Z-0.4
G2 X-15.797 Y-3.309 Z-0.415 R0.5
G1 X-15.814 Y-3.27 Z-0.422
G2 X-15.845 Y-3.17 Z-0.441 R0.5
X-15.9 Y-2.886 Z-0.492 R16.159
X-15.907 Y-2.779 Z-0.511 R0.5
G1 X-15.906 Y-2.733 Z-0.519
G2 X-15.898 Y-2.662 Z-0.531 R0.5
G1 X-15.893 Y-2.634 Z-0.536
G2 X-15.876 Y-2.566 Z-0.549 R0.5
G1 X-15.862 Y-2.522 Z-0.557
G2 X-15.829 Y-2.444 Z-0.572 R0.5
G1 X-15.808 Y-2.406 Z-0.579
G2 X-15.763 Y-2.335 Z-0.594 R0.5
G1 X-15.735 Y-2.298 Z-0.603
G2 X-15.678 Y-2.236 Z-0.617 R0.5
G1 X-15.646 Y-2.206 Z-0.625
G2 X-15.579 Y-2.154 Z-0.64 R0.5
G1 X-15.54 Y-2.128 Z-0.648
G2 X-15.479 Y-2.094 Z-0.661 R0.5
G1 X-15.386 Y-2.051 Z-0.679
X-15.328 Y-2.024 Z-0.69
X-15.247 Y-1.983 Z-0.706
X-15.237 Y-1.977 Z-0.708
X-15.24 Y-1.955 Z-0.712
X-15.241 Y-1.947 Z-0.713
X-15.249 Y-1.874 Z-0.726
X-15.269 Y-1.869 Z-0.73
X-15.342 Y-1.853 Z-0.743
X-15.405 Y-1.841 Z-0.754
X-15.463 Y-1.831 Z-0.765
G2 X-15.476 Y-1.829 Z-0.767 R0.5
G1 X-15.526 Y-1.818 Z-0.776
G2 X-15.576 Y-1.805 Z-0.785 R0.5
G1 X-15.602 Y-1.797 Z-0.79
G2 X-15.668 Y-1.771 Z-0.802 R0.5
G1 X-15.71 Y-1.751 Z-0.811
G2 X-15.782 Y-1.708 Z-0.826 R0.5
G1 X-15.817 Y-1.683 Z-0.833
G2 X-15.882 Y-1.629 Z-0.848 R0.5
G1 X-15.915 Y-1.596 Z-0.856
G2 X-15.97 Y-1.531 Z-0.871 R0.5
G1 X-15.995 Y-1.496 Z-0.879
G2 X-16.037 Y-1.424 Z-0.894 R0.5
G1 X-16.057 Y-1.382 Z-0.902
G2 X-16.088 Y-1.303 Z-0.917 R0.5
G1 X-16.1 Y-1.261 Z-0.924
G2 X-16.118 Y-1.159 Z-0.943 R0.5
X-16.136 Y-0.87 Z-0.994 R16.159
X-16.137 Y-0.835 Z-1. R0.5
X-16.13 Y-0.763 R0.5 F800.
G1 X-16.123 Y-0.717
G2 X-16.107 Y-0.649 R0.5
G1 X-16.098 Y-0.622
G2 X-16.073 Y-0.556 R0.5
G1 X-16.053 Y-0.513
G2 X-16.01 Y-0.441 R0.5
G1 X-15.986 Y-0.406
G2 X-15.931 Y-0.341 R0.5
G1 X-15.899 Y-0.308
G2 X-15.835 Y-0.253 R0.5
G1 X-15.8 Y-0.228
G2 X-15.726 Y-0.184 R0.5
G1 X-15.684 Y-0.164
G2 X-15.619 Y-0.138 R0.5
G1 X-15.522 Y-0.106
X-15.461 Y-0.087
X-15.376 Y-0.056
X-15.364 Y-0.051
Y-0.029
Y-0.022
Y0.052
X-15.383 Y0.059
X-15.454 Y0.084
X-15.514 Y0.104
X-15.57 Y0.121
G2 X-15.583 Y0.125 R0.5
G1 X-15.631 Y0.142
G2 X-15.679 Y0.161 R0.5
G1 X-15.704 Y0.173
G2 X-15.766 Y0.207 R0.5
G1 X-15.805 Y0.232
G2 X-15.872 Y0.283 R0.5
G1 X-15.904 Y0.312
G2 X-15.961 Y0.375 R0.5
G1 X-15.99 Y0.411
G2 X-16.036 Y0.482 R0.5
G1 X-16.056 Y0.52
G2 X-16.089 Y0.597 R0.5
G1 X-16.104 Y0.642
G2 X-16.124 Y0.723 R0.5
G1 X-16.131 Y0.766
G2 X-16.136 Y0.87 R0.5
X-16.118 Y1.159 R16.159
X-16.099 Y1.264 R0.5
G1 X-16.086 Y1.309
G2 X-16.061 Y1.375 R0.5
G1 X-16.049 Y1.401
G2 X-16.016 Y1.463 R0.5
G1 X-15.99 Y1.502
G2 X-15.94 Y1.569 R0.5
G1 X-15.911 Y1.601
G2 X-15.849 Y1.659 R0.5
G1 X-15.812 Y1.687
G2 X-15.742 Y1.734 R0.5
G1 X-15.704 Y1.754
G2 X-15.625 Y1.788 R0.5
G1 X-15.581 Y1.803
G2 X-15.513 Y1.821 R0.5
G1 X-15.413 Y1.84
X-15.35 Y1.852
X-15.262 Y1.871
X-15.25 Y1.875
X-15.247 Y1.897
X-15.246 Y1.904
X-15.236 Y1.977
X-15.254 Y1.987
X-15.321 Y2.02
X-15.379 Y2.048
X-15.432 Y2.072
G2 X-15.445 Y2.078 R0.5
G1 X-15.49 Y2.1
G2 X-15.536 Y2.125 R0.5
G1 X-15.56 Y2.14
G2 X-15.615 Y2.181 R0.5
G1 X-15.651 Y2.211
G2 X-15.712 Y2.271 R0.5
G1 X-15.74 Y2.304
G2 X-15.788 Y2.372 R0.5
G1 X-15.812 Y2.412
G2 X-15.849 Y2.488 R0.5
G1 X-15.864 Y2.528
G2 X-15.888 Y2.61 R0.5
G1 X-15.897 Y2.655
G2 X-15.906 Y2.738 R0.5
G1 X-15.907 Y2.781
G2 X-15.9 Y2.886 R0.5
X-15.845 Y3.17 R16.159
X-15.813 Y3.273 R0.5
G1 X-15.794 Y3.315
G2 X-15.762 Y3.377 R0.5
G1 X-15.747 Y3.401
G2 X-15.706 Y3.458 R0.5
G1 X-15.676 Y3.494
G2 X-15.617 Y3.554 R0.5
G1 X-15.584 Y3.582
G2 X-15.516 Y3.632 R0.5
G1 X-15.476 Y3.656
G2 X-15.4 Y3.693 R0.5
G1 X-15.36 Y3.709
G2 X-15.278 Y3.733 R0.5
G1 X-15.232 Y3.742
G2 X-15.163 Y3.751 R0.5
G1 X-15.061 Y3.757
X-14.997 Y3.761
X-14.907 Y3.769
X-14.894 Y3.771
X-14.889 Y3.793
X-14.887 Y3.8
X-14.869 Y3.871
X-14.885 Y3.883
X-14.947 Y3.925
X-15.001 Y3.959
X-15.051 Y3.99
G2 X-15.062 Y3.997 R0.5
G1 X-15.105 Y4.025
G2 X-15.146 Y4.055 R0.5
G1 X-15.168 Y4.073
G2 X-15.219 Y4.121 R0.5
G1 X-15.251 Y4.155
G2 X-15.303 Y4.222 R0.5
G1 X-15.327 Y4.258
G2 X-15.366 Y4.332 R0.5
G1 X-15.385 Y4.374
G2 X-15.412 Y4.455 R0.5
G1 X-15.422 Y4.497
G2 X-15.435 Y4.58 R0.5
G1 X-15.439 Y4.627
G2 X-15.438 Y4.711 R0.5
G1 X-15.433 Y4.754
G2 X-15.413 Y4.855 R0.5
X-15.323 Y5.131 R16.159
X-15.278 Y5.229 R0.5
G1 X-15.254 Y5.269
G2 X-15.215 Y5.326 R0.5
G1 X-15.197 Y5.348
G2 X-15.148 Y5.4 R0.5
G1 X-15.114 Y5.432
G2 X-15.048 Y5.484 R0.5
G1 X-15.012 Y5.508
G2 X-14.938 Y5.548 R0.5
G1 X-14.895 Y5.567
G2 X-14.816 Y5.594 R0.5
G1 X-14.774 Y5.604
G2 X-14.69 Y5.618 R0.5
G1 X-14.643 Y5.621
G2 X-14.573 Y5.622 R0.5
G1 X-14.471 Y5.615
X-14.407 Y5.611
X-14.317 Y5.608
X-14.304
X-14.296 Y5.629
X-14.294 Y5.636
X-14.266 Y5.704
X-14.281 Y5.718
X-14.337 Y5.767
X-14.387 Y5.808
X-14.432 Y5.845
G2 X-14.443 Y5.853 R0.5
G1 X-14.481 Y5.886
G2 X-14.519 Y5.922 R0.5
G1 X-14.538 Y5.942
G2 X-14.583 Y5.996 R0.5
G1 X-14.61 Y6.033
G2 X-14.653 Y6.106 R0.5
G1 X-14.672 Y6.145
G2 X-14.702 Y6.224 R0.5
G1 X-14.715 Y6.269
G2 X-14.732 Y6.351 R0.5
G1 X-14.737 Y6.394
G2 X-14.74 Y6.478 R0.5
G1 X-14.737 Y6.525
G2 X-14.725 Y6.609 R0.5
G1 X-14.716 Y6.651
G2 X-14.683 Y6.749 R0.5
X-14.559 Y7.011 R16.159
X-14.502 Y7.102 R0.5
G1 X-14.474 Y7.139
G2 X-14.427 Y7.191 R0.5
G1 X-14.406 Y7.211
G2 X-14.352 Y7.256 R0.5
G1 X-14.315 Y7.283
G2 X-14.243 Y7.326 R0.5
G1 X-14.204 Y7.345
G2 X-14.125 Y7.376 R0.5
G1 X-14.08 Y7.39
G2 X-13.998 Y7.407 R0.5
G1 X-13.955 Y7.412
G2 X-13.87 Y7.415 R0.5
G1 X-13.823 Y7.412
G2 X-13.754 Y7.404 R0.5
G1 X-13.653 Y7.385
X-13.59 Y7.372
X-13.501 Y7.358
X-13.489 Y7.357
X-13.478 Y7.376
X-13.474 Y7.383
X-13.439 Y7.447
X-13.452 Y7.462
X-13.501 Y7.519
X-13.545 Y7.565
X-13.586 Y7.607
G2 X-13.595 Y7.618 R0.5
G1 X-13.63 Y7.655
G2 X-13.662 Y7.694 R0.5
G1 X-13.678 Y7.717
G2 X-13.716 Y7.776 R0.5
G1 X-13.738 Y7.817
G2 X-13.773 Y7.895 R0.5
G1 X-13.786 Y7.936
G2 X-13.806 Y8.017 R0.5
G1 X-13.814 Y8.063
G2 X-13.82 Y8.148 R0.5
G1 X-13.819 Y8.191
G2 X-13.811 Y8.274 R0.5
G1 X-13.803 Y8.32
G2 X-13.781 Y8.402 R0.5
G1 X-13.766 Y8.443
G2 X-13.721 Y8.536 R0.5
X-13.566 Y8.781 R16.159
X-13.498 Y8.864 R0.5
G1 X-13.465 Y8.896
G2 X-13.412 Y8.942 R0.5
G1 X-13.389 Y8.959
G2 X-13.33 Y8.997 R0.5
G1 X-13.289 Y9.02
G2 X-13.212 Y9.054 R0.5
G1 X-13.171 Y9.068
G2 X-13.089 Y9.089 R0.5
G1 X-13.043 Y9.096
G2 X-12.959 Y9.103 R0.5
G1 X-12.916 Y9.102
G2 X-12.831 Y9.095 R0.5
G1 X-12.785 Y9.086
G2 X-12.717 Y9.069 R0.5
G1 X-12.62 Y9.038
X-12.559 Y9.018
X-12.472 Y8.992
X-12.46 Y8.989
X-12.447 Y9.007
X-12.443 Y9.013
X-12.399 Y9.073
X-12.41 Y9.09
X-12.453 Y9.151
X-12.49 Y9.203
X-12.525 Y9.25
G2 X-12.534 Y9.261 R0.5
G1 X-12.563 Y9.303
G2 X-12.59 Y9.346 R0.5
G1 X-12.603 Y9.37
G2 X-12.634 Y9.435 R0.5
G1 X-12.651 Y9.478
G2 X-12.674 Y9.558 R0.5
G1 X-12.683 Y9.6
G2 X-12.693 Y9.685 R0.5
G1 X-12.694 Y9.731
G2 X-12.69 Y9.816 R0.5
G1 X-12.684 Y9.858
G2 X-12.665 Y9.94 R0.5
G1 X-12.651 Y9.985
G2 X-12.62 Y10.062 R0.5
G1 X-12.6 Y10.101
G2 X-12.543 Y10.188 R0.5
X-12.358 Y10.412 R16.159
X-12.281 Y10.486 R0.5
G1 X-12.244 Y10.514
G2 X-12.185 Y10.553 R0.5
G1 X-12.161 Y10.567
G2 X-12.097 Y10.597 R0.5
G1 X-12.054 Y10.614
G2 X-11.973 Y10.638 R0.5
G1 X-11.93 Y10.647
G2 X-11.848 Y10.657 R0.5
G1 X-11.801 Y10.659
G2 X-11.716 Y10.655 R0.5
G1 X-11.673 Y10.649
G2 X-11.589 Y10.631 R0.5
G1 X-11.544 Y10.617
G2 X-11.481 Y10.592 R0.5
G1 X-11.388 Y10.548
X-11.33 Y10.521
X-11.247 Y10.484
X-11.235 Y10.48
X-11.22 Y10.496
X-11.215 Y10.502
X-11.165 Y10.555
X-11.173 Y10.574
X-11.207 Y10.64
X-11.238 Y10.696
X-11.267 Y10.747
G2 X-11.274 Y10.759 R0.5
G1 X-11.298 Y10.804
G2 X-11.319 Y10.85 R0.5
G1 X-11.329 Y10.875
G2 X-11.352 Y10.944 R0.5
G1 X-11.363 Y10.989
G2 X-11.376 Y11.071 R0.5
G1 X-11.379 Y11.114
G2 Y11.199 R0.5
G1 X-11.374 Y11.245
G2 X-11.36 Y11.328 R0.5
G1 X-11.348 Y11.37
G2 X-11.319 Y11.45 R0.5
G1 X-11.3 Y11.492
G2 X-11.259 Y11.565 R0.5
G1 X-11.234 Y11.601
G2 X-11.167 Y11.68 R0.5
X-10.956 Y11.878 R16.159
X-10.87 Y11.942 R0.5
G1 X-10.83 Y11.965
G2 X-10.767 Y11.997 R0.5
G1 X-10.74 Y12.008
G2 X-10.674 Y12.03 R0.5
G1 X-10.628 Y12.041
G2 X-10.545 Y12.055 R0.5
G1 X-10.501 Y12.059
G2 X-10.418 Y12.058 R0.5
G1 X-10.372 Y12.054
G2 X-10.288 Y12.04 R0.5
G1 X-10.247 Y12.029
G2 X-10.166 Y12. R0.5
G1 X-10.123 Y11.98
G2 X-10.062 Y11.947 R0.5
G1 X-9.976 Y11.892
X-9.922 Y11.858
X-9.844 Y11.811
X-9.833 Y11.806
X-9.816 Y11.82
X-9.811 Y11.825
X-9.754 Y11.871
X-9.76 Y11.89
X-9.786 Y11.961
X-9.809 Y12.02
X-9.831 Y12.074
G2 X-9.836 Y12.087 R0.5
G1 X-9.854 Y12.135
G2 X-9.87 Y12.184 R0.5
G1 X-9.877 Y12.21
G2 X-9.891 Y12.28 R0.5
G1 X-9.896 Y12.326
G2 X-9.899 Y12.41 R0.5
G1 X-9.897 Y12.453
G2 X-9.885 Y12.537 R0.5
G1 X-9.875 Y12.582
G2 X-9.85 Y12.663 R0.5
G1 X-9.834 Y12.703
G2 X-9.795 Y12.778 R0.5
G1 X-9.771 Y12.817
G2 X-9.721 Y12.885 R0.5
G1 X-9.692 Y12.917
G2 X-9.615 Y12.988 R0.5
X-9.381 Y13.158 R16.159
X-9.287 Y13.21 R0.5
G1 X-9.244 Y13.229
G2 X-9.179 Y13.251 R0.5
G1 X-9.152 Y13.259
G2 X-9.081 Y13.273 R0.5
G1 X-9.035 Y13.278
G2 X-8.951 Y13.282 R0.5
G1 X-8.908 Y13.28
G2 X-8.825 Y13.269 R0.5
G1 X-8.779 Y13.259
G2 X-8.698 Y13.234 R0.5
G1 X-8.658 Y13.218
G2 X-8.583 Y13.18 R0.5
G1 X-8.542 Y13.155
G2 X-8.485 Y13.114 R0.5
G1 X-8.407 Y13.049
X-8.358 Y13.008
X-8.286 Y12.952
X-8.276 Y12.945
X-8.257 Y12.957
X-8.251 Y12.961
X-8.189 Y13.
X-8.193 Y13.02
X-8.209 Y13.093
X-8.225 Y13.155
X-8.241 Y13.211
G2 X-8.244 Y13.225 R0.5
G1 X-8.256 Y13.274
G2 X-8.265 Y13.325 R0.5
G1 X-8.269 Y13.352
G2 X-8.273 Y13.422 R0.5
G1 Y13.469
G2 X-8.265 Y13.553 R0.5
G1 X-8.258 Y13.595
G2 X-8.236 Y13.677 R0.5
G1 X-8.22 Y13.721
G2 X-8.185 Y13.798 R0.5
G1 X-8.164 Y13.835
G2 X-8.117 Y13.905 R0.5
G1 X-8.087 Y13.941
G2 X-8.029 Y14.002 R0.5
G1 X-7.996 Y14.03
G2 X-7.912 Y14.09 R0.5
X-7.658 Y14.23 R16.159
X-7.558 Y14.27 R0.5
G1 X-7.513 Y14.283
G2 X-7.444 Y14.298 R0.5
G1 X-7.416 Y14.301
G2 X-7.347 Y14.306 R0.5
G1 X-7.3
G2 X-7.217 Y14.299 R0.5
G1 X-7.174 Y14.292
G2 X-7.091 Y14.27 R0.5
G1 X-7.047 Y14.254
G2 X-6.972 Y14.22 R0.5
G1 X-6.934 Y14.199
G2 X-6.862 Y14.151 R0.5
G1 X-6.826 Y14.121
G2 X-6.775 Y14.074 R0.5
G1 X-6.705 Y13.999
X-6.661 Y13.953
X-6.598 Y13.888
X-6.588 Y13.88
X-6.568 Y13.89
X-6.562 Y13.893
X-6.495 Y13.924
X-6.496 Y13.944
X-6.504 Y14.019
X-6.512 Y14.082
X-6.52 Y14.14
G2 X-6.521 Y14.154 R0.5
G1 X-6.527 Y14.204
G2 X-6.53 Y14.256 R0.5
G1 Y14.283
G2 X-6.526 Y14.353 R0.5
G1 X-6.52 Y14.4
G2 X-6.502 Y14.482 R0.5
G1 X-6.489 Y14.523
G2 X-6.457 Y14.601 R0.5
G1 X-6.436 Y14.643
G2 X-6.392 Y14.715 R0.5
G1 X-6.366 Y14.749
G2 X-6.31 Y14.813 R0.5
G1 X-6.276 Y14.845
G2 X-6.211 Y14.897 R0.5
G1 X-6.176 Y14.921
G2 X-6.083 Y14.971 R0.5
X-5.814 Y15.077 R16.159
X-5.71 Y15.105 R0.5
G1 X-5.664 Y15.112
G2 X-5.595 Y15.118 R0.5
G1 X-5.566
G2 X-5.495 Y15.114 R0.5
G1 X-5.449 Y15.108
G2 X-5.367 Y15.091 R0.5
G1 X-5.326 Y15.078
G2 X-5.248 Y15.047 R0.5
G1 X-5.206 Y15.026
G2 X-5.133 Y14.981 R0.5
G1 X-5.098 Y14.955
G2 X-5.035 Y14.9 R0.5
G1 X-5.002 Y14.866
G2 X-4.958 Y14.812 R0.5
G1 X-4.898 Y14.729
X-4.86 Y14.678
X-4.805 Y14.606
X-4.797 Y14.596
X-4.776 Y14.604
X-4.769 Y14.606
X-4.699 Y14.628
X-4.697 Y14.648
X-4.695 Y14.723
Y14.787
X-4.696 Y14.846
G2 Y14.859 R0.5
G1 X-4.695 Y14.91
G2 X-4.692 Y14.962 R0.5
G1 X-4.689 Y14.989
G2 X-4.676 Y15.058 R0.5
G1 X-4.664 Y15.103
G2 X-4.635 Y15.183 R0.5
G1 X-4.617 Y15.222
G2 X-4.576 Y15.295 R0.5
G1 X-4.55 Y15.334
G2 X-4.497 Y15.4 R0.5
G1 X-4.467 Y15.431
G2 X-4.404 Y15.486 R0.5
G1 X-4.367 Y15.514
G2 X-4.294 Y15.559 R0.5
G1 X-4.256 Y15.578
G2 X-4.159 Y15.615 R0.5
X-3.878 Y15.687 R16.159
X-3.772 Y15.702 R0.5
G1 X-3.726 Y15.703
G2 X-3.655 Y15.7 R0.5
G1 X-3.627 Y15.697
G2 X-3.558 Y15.684 R0.5
G1 X-3.513 Y15.672
G2 X-3.433 Y15.644 R0.5
G1 X-3.394 Y15.627
G2 X-3.32 Y15.585 R0.5
G1 X-3.281 Y15.559
G2 X-3.216 Y15.507 R0.5
G1 X-3.184 Y15.477
G2 X-3.128 Y15.413 R0.5
G1 X-3.099 Y15.375
G2 X-3.062 Y15.317 R0.5
G1 X-3.013 Y15.227
X-2.982 Y15.171
X-2.936 Y15.093
X-2.93 Y15.083
X-2.908 Y15.087
X-2.9 Y15.088
X-2.828 Y15.102
X-2.824 Y15.121
X-2.813 Y15.196
X-2.805 Y15.259
X-2.798 Y15.317
G2 X-2.797 Y15.331 R0.5
G1 X-2.79 Y15.381
G2 X-2.78 Y15.432 R0.5
G1 X-2.773 Y15.458
G2 X-2.751 Y15.526 R0.5
G1 X-2.734 Y15.569
G2 X-2.696 Y15.644 R0.5
G1 X-2.673 Y15.681
G2 X-2.623 Y15.748 R0.5
G1 X-2.592 Y15.783
G2 X-2.531 Y15.842 R0.5
G1 X-2.498 Y15.869
G2 X-2.428 Y15.916 R0.5
G1 X-2.387 Y15.939
G2 X-2.311 Y15.974 R0.5
G1 X-2.271 Y15.988
G2 X-2.169 Y16.013 R0.5
X-1.882 Y16.049 R16.159
X-1.774 Y16.05 R0.5
G1 X-1.728 Y16.046
G2 X-1.659 Y16.034 R0.5
G1 X-1.632 Y16.028
G2 X-1.564 Y16.006 R0.5
G1 X-1.521 Y15.989
G2 X-1.446 Y15.951 R0.5
G1 X-1.409 Y15.929
G2 X-1.341 Y15.879 R0.5
G1 X-1.306 Y15.848
G2 X-1.247 Y15.787 R0.5
G1 X-1.219 Y15.754
G2 X-1.171 Y15.684 R0.5
G1 X-1.148 Y15.643
G2 X-1.118 Y15.58 R0.5
G1 X-1.081 Y15.485
X-1.057 Y15.425
X-1.022 Y15.342
X-1.016 Y15.331
X-0.994 Y15.332
X-0.986 Y15.333
X-0.913 Y15.337
X-0.907 Y15.356
X-0.886 Y15.428
X-0.87 Y15.49
X-0.857 Y15.547
G2 X-0.853 Y15.56 R0.5
G1 X-0.84 Y15.609
G2 X-0.824 Y15.658 R0.5
G1 X-0.814 Y15.684
G2 X-0.784 Y15.748 R0.5
G1 X-0.761 Y15.789
G2 X-0.714 Y15.859 R0.5
G1 X-0.687 Y15.892
G2 X-0.629 Y15.953 R0.5
G1 X-0.594 Y15.984
G2 X-0.526 Y16.034 R0.5
G1 X-0.489 Y16.057
G2 X-0.414 Y16.095 R0.5
G1 X-0.37 Y16.113
G2 X-0.29 Y16.138 R0.5
G1 X-0.248 Y16.147
G2 X-0.145 Y16.159 R0.5
X0.145 R16.159
X0.251 Y16.146 R0.5
G1 X0.296 Y16.136
G2 X0.363 Y16.116 R0.5
G1 X0.39 Y16.106
G2 X0.455 Y16.076 R0.5
G1 X0.495 Y16.053
G2 X0.565 Y16.007 R0.5
G1 X0.598 Y15.98
G2 X0.66 Y15.922 R0.5
G1 X0.691 Y15.887
G2 X0.742 Y15.819 R0.5
G1 X0.765 Y15.782
G2 X0.804 Y15.707 R0.5
G1 X0.821 Y15.663
G2 X0.843 Y15.597 R0.5
G1 X0.868 Y15.498
X0.884 Y15.436
X0.909 Y15.349
X0.913 Y15.337
X0.936 Y15.336
X0.943
X1.016 Y15.331
X1.025 Y15.349
X1.054 Y15.418
X1.078 Y15.477
X1.099 Y15.532
G2 X1.104 Y15.545 R0.5
G1 X1.123 Y15.592
G2 X1.145 Y15.638 R0.5
G1 X1.158 Y15.662
G2 X1.196 Y15.722 R0.5
G1 X1.224 Y15.76
G2 X1.279 Y15.823 R0.5
G1 X1.31 Y15.853
G2 X1.376 Y15.906 R0.5
G1 X1.415 Y15.932
G2 X1.488 Y15.974 R0.5
G1 X1.527 Y15.992
G2 X1.606 Y16.02 R0.5
G1 X1.652 Y16.032
G2 X1.734 Y16.047 R0.5
G1 X1.777 Y16.051
G2 X1.882 Y16.049 R0.5
X2.169 Y16.013 R16.159
X2.273 Y15.988 R0.5
G1 X2.316 Y15.972
G2 X2.381 Y15.943 R0.5
G1 X2.406 Y15.93
G2 X2.466 Y15.892 R0.5
G1 X2.503 Y15.865
G2 X2.567 Y15.809 R0.5
G1 X2.597 Y15.778
G2 X2.65 Y15.713 R0.5
G1 X2.677 Y15.675
G2 X2.719 Y15.601 R0.5
G1 X2.737 Y15.562
G2 X2.766 Y15.482 R0.5
G1 X2.778 Y15.437
G2 X2.791 Y15.368 R0.5
G1 X2.804 Y15.267
X2.812 Y15.204
X2.826 Y15.114
X2.828 Y15.102
X2.85 Y15.098
X2.858 Y15.096
X2.93 Y15.082
X2.94 Y15.099
X2.978 Y15.164
X3.009 Y15.22
X3.037 Y15.272
G2 X3.043 Y15.284 R0.5
G1 X3.068 Y15.328
G2 X3.096 Y15.372 R0.5
G1 X3.112 Y15.394
G2 X3.158 Y15.449 R0.5
G1 X3.19 Y15.482
G2 X3.252 Y15.537 R0.5
G1 X3.287 Y15.563
G2 X3.359 Y15.608 R0.5
G1 X3.4 Y15.629
G2 X3.478 Y15.661 R0.5
G1 X3.52 Y15.674
G2 X3.601 Y15.692 R0.5
G1 X3.647 Y15.699
G2 X3.732 Y15.703 R0.5
G1 X3.776 Y15.701
G2 X3.878 Y15.687 R0.5
X4.159 Y15.615 R16.159
X4.259 Y15.576 R0.5
G1 X4.3 Y15.555
G2 X4.36 Y15.519 R0.5
G1 X4.383 Y15.503
G2 X4.438 Y15.458 R0.5
G1 X4.472 Y15.426
G2 X4.528 Y15.363 R0.5
G1 X4.554 Y15.329
G2 X4.599 Y15.257 R0.5
G1 X4.62 Y15.215
G2 X4.653 Y15.138 R0.5
G1 X4.666 Y15.097
G2 X4.684 Y15.013 R0.5
G1 X4.691 Y14.967
G2 X4.696 Y14.897 R0.5
G1 X4.695 Y14.795
Y14.731
X4.698 Y14.641
X4.699 Y14.628
X4.72 Y14.622
X4.727 Y14.619
X4.797 Y14.596
X4.81 Y14.612
X4.856 Y14.671
X4.893 Y14.723
X4.927 Y14.771
G2 X4.935 Y14.782 R0.5
G1 X4.965 Y14.822
G2 X4.999 Y14.862 R0.5
G1 X5.017 Y14.883
G2 X5.068 Y14.93 R0.5
G1 X5.104 Y14.96
G2 X5.174 Y15.008 R0.5
G1 X5.212 Y15.029
G2 X5.289 Y15.064 R0.5
G1 X5.332 Y15.08
G2 X5.413 Y15.102 R0.5
G1 X5.456 Y15.109
G2 X5.54 Y15.117 R0.5
G1 X5.587 Y15.118
G2 X5.671 Y15.111 R0.5
G1 X5.714 Y15.104
G2 X5.814 Y15.077 R0.5
X6.083 Y14.971 R16.159
X6.177 Y14.92 R0.5
G1 X6.216 Y14.894
G2 X6.272 Y14.849 R0.5
G1 X6.293 Y14.83
G2 X6.34 Y14.78 R0.5
G1 X6.37 Y14.744
G2 X6.418 Y14.674 R0.5
G1 X6.439 Y14.637
G2 X6.475 Y14.561 R0.5
G1 X6.491 Y14.517
G2 X6.513 Y14.435 R0.5
G1 X6.521 Y14.393
G2 X6.529 Y14.308 R0.5
G1 X6.53 Y14.261
G2 X6.526 Y14.191 R0.5
G1 X6.513 Y14.09
X6.505 Y14.027
X6.496 Y13.936
X6.495 Y13.924
X6.516 Y13.915
X6.522 Y13.912
X6.589 Y13.88
X6.603 Y13.894
X6.656 Y13.947
X6.7 Y13.994
X6.739 Y14.037
G2 X6.748 Y14.046 R0.5
G1 X6.784 Y14.083
G2 X6.822 Y14.119 R0.5
G1 X6.843 Y14.136
G2 X6.9 Y14.178 R0.5
G1 X6.939 Y14.202
G2 X7.014 Y14.241 R0.5
G1 X7.054 Y14.257
G2 X7.135 Y14.282 R0.5
G1 X7.18 Y14.293
G2 X7.263 Y14.304 R0.5
G1 X7.306 Y14.306
G2 X7.391 Y14.304 R0.5
G1 X7.437 Y14.298
G2 X7.52 Y14.281 R0.5
G1 X7.562 Y14.269
G2 X7.658 Y14.23 R0.5
X7.912 Y14.09 R16.159
X7.999 Y14.028 R0.5
G1 X8.033 Y13.997
G2 X8.083 Y13.947 R0.5
G1 X8.101 Y13.925
G2 X8.143 Y13.869 R0.5
G1 X8.167 Y13.829
G2 X8.206 Y13.754 R0.5
G1 X8.223 Y13.714
G2 X8.249 Y13.634 R0.5
G1 X8.259 Y13.589
G2 X8.271 Y13.505 R0.5
G1 X8.273 Y13.462
G2 X8.271 Y13.377 R0.5
G1 X8.266 Y13.33
G2 X8.253 Y13.261 R0.5
G1 X8.227 Y13.163
X8.211 Y13.101
X8.191 Y13.012
X8.189 Y13.
X8.208 Y12.988
X8.214 Y12.984
X8.276 Y12.945
X8.292 Y12.956
X8.351 Y13.003
X8.401 Y13.044
X8.446 Y13.082
G2 X8.456 Y13.09 R0.5
G1 X8.496 Y13.122
G2 X8.537 Y13.152 R0.5
G1 X8.56 Y13.167
G2 X8.623 Y13.201 R0.5
G1 X8.665 Y13.221
G2 X8.744 Y13.249 R0.5
G1 X8.785 Y13.261
G2 X8.869 Y13.276 R0.5
G1 X8.915 Y13.28
G2 X8.998 Y13.281 R0.5
G1 X9.041 Y13.278
G2 X9.126 Y13.265 R0.5
G1 X9.171 Y13.253
G2 X9.251 Y13.226 R0.5
G1 X9.29 Y13.209
G2 X9.381 Y13.158 R0.5
X9.615 Y12.988 R16.159
X9.694 Y12.915 R0.5
G1 X9.724 Y12.88
G2 X9.767 Y12.823 R0.5
G1 X9.783 Y12.799
G2 X9.817 Y12.739 R0.5
G1 X9.836 Y12.696
G2 X9.866 Y12.617 R0.5
G1 X9.877 Y12.576
G2 X9.892 Y12.493 R0.5
G1 X9.897 Y12.446
G2 X9.898 Y12.362 R0.5
G1 X9.895 Y12.319
G2 X9.882 Y12.235 R0.5
G1 X9.871 Y12.189
G2 X9.85 Y12.123 R0.5
G1 X9.812 Y12.028
X9.788 Y11.968
X9.758 Y11.883
X9.754 Y11.871
X9.771 Y11.857
X9.777 Y11.852
X9.833 Y11.805
X9.851 Y11.815
X9.915 Y11.854
X9.97 Y11.888
X10.018 Y11.92
G2 X10.03 Y11.927 R0.5
G1 X10.073 Y11.954
G2 X10.118 Y11.978 R0.5
G1 X10.143 Y11.99
G2 X10.21 Y12.017 R0.5
G1 X10.254 Y12.031
G2 X10.335 Y12.049 R0.5
G1 X10.378 Y12.055
G2 X10.462 Y12.059 R0.5
G1 X10.509 Y12.058
G2 X10.593 Y12.048 R0.5
G1 X10.636 Y12.04
G2 X10.716 Y12.016 R0.5
G1 X10.76 Y11.999
G2 X10.835 Y11.963 R0.5
G1 X10.872 Y11.941
G2 X10.956 Y11.878 R0.5
X11.167 Y11.68 R16.159
X11.236 Y11.598 R0.5
G1 X11.262 Y11.56
G2 X11.297 Y11.498 R0.5
G1 X11.31 Y11.472
G2 X11.336 Y11.408 R0.5
G1 X11.35 Y11.363
G2 X11.369 Y11.282 R0.5
G1 X11.375 Y11.239
G2 X11.38 Y11.154 R0.5
G1 X11.379 Y11.108
G2 X11.37 Y11.024 R0.5
G1 X11.361 Y10.981
G2 X11.338 Y10.9 R0.5
G1 X11.321 Y10.856
G2 X11.292 Y10.792 R0.5
G1 X11.242 Y10.703
X11.211 Y10.647
X11.17 Y10.566
X11.165 Y10.555
X11.18 Y10.539
X11.185 Y10.534
X11.235 Y10.48
X11.254 Y10.487
X11.323 Y10.517
X11.381 Y10.545
X11.433 Y10.57
G2 X11.446 Y10.576 R0.5
G1 X11.493 Y10.597
G2 X11.54 Y10.616 R0.5
G1 X11.566 Y10.625
G2 X11.634 Y10.642 R0.5
G1 X11.68 Y10.65
G2 X11.763 Y10.659 R0.5
G1 X11.807
G2 X11.892 Y10.653 R0.5
G1 X11.938 Y10.646
G2 X12.019 Y10.626 R0.5
G1 X12.06 Y10.612
G2 X12.137 Y10.578 R0.5
G1 X12.178 Y10.556
G2 X12.249 Y10.51 R0.5
G1 X12.283 Y10.484
G2 X12.358 Y10.412 R0.5
X12.543 Y10.188 R16.159
X12.601 Y10.098 R0.5
G1 X12.622 Y10.056
G2 X12.649 Y9.993 R0.5
G1 X12.658 Y9.966
G2 X12.676 Y9.897 R0.5
G1 X12.685 Y9.851
G2 X12.693 Y9.767 R0.5
G1 X12.694 Y9.724
G2 X12.689 Y9.64 R0.5
G1 X12.682 Y9.594
G2 X12.662 Y9.512 R0.5
G1 X12.648 Y9.471
G2 X12.615 Y9.393 R0.5
G1 X12.592 Y9.351
G2 X12.555 Y9.292 R0.5
G1 X12.495 Y9.21
X12.457 Y9.158
X12.406 Y9.083
X12.4 Y9.073
X12.413 Y9.055
X12.417 Y9.049
X12.46 Y8.989
X12.48 Y8.994
X12.552 Y9.015
X12.613 Y9.035
X12.668 Y9.054
G2 X12.681 Y9.058 R0.5
G1 X12.73 Y9.073
G2 X12.779 Y9.086 R0.5
G1 X12.806 Y9.091
G2 X12.877 Y9.1 R0.5
G1 X12.923 Y9.103
G2 X13.007 Y9.1 R0.5
G1 X13.05 Y9.095
G2 X13.133 Y9.079 R0.5
G1 X13.178 Y9.066
G2 X13.256 Y9.035 R0.5
G1 X13.295 Y9.017
G2 X13.367 Y8.974 R0.5
G1 X13.405 Y8.947
G2 X13.47 Y8.892 R0.5
G1 X13.5 Y8.862
G2 X13.566 Y8.781 R0.5
X13.721 Y8.536 R16.159
X13.767 Y8.439 R0.5
G1 X13.783 Y8.396
G2 X13.802 Y8.328 R0.5
G1 X13.807 Y8.3
G2 X13.817 Y8.23 R0.5
G1 X13.819 Y8.184
G2 X13.818 Y8.1 R0.5
G1 X13.813 Y8.057
G2 X13.797 Y7.973 R0.5
G1 X13.784 Y7.929
G2 X13.754 Y7.851 R0.5
G1 X13.736 Y7.812
G2 X13.692 Y7.737 R0.5
G1 X13.665 Y7.699
G2 X13.621 Y7.645 R0.5
G1 X13.551 Y7.571
X13.507 Y7.524
X13.447 Y7.457
X13.439 Y7.447
X13.45 Y7.427
X13.454 Y7.421
X13.489 Y7.356
X13.509 Y7.359
X13.583 Y7.371
X13.646 Y7.383
X13.703 Y7.395
G2 X13.716 Y7.397 R0.5
G1 X13.766 Y7.406
G2 X13.818 Y7.412 R0.5
G1 X13.845 Y7.414
G2 X13.915 R0.5
G1 X13.962 Y7.411
G2 X14.045 Y7.398 R0.5
G1 X14.087 Y7.388
G2 X14.167 Y7.361 R0.5
G1 X14.21 Y7.343
G2 X14.284 Y7.303 R0.5
G1 X14.32 Y7.279
G2 X14.387 Y7.228 R0.5
G1 X14.421 Y7.196
G2 X14.478 Y7.134 R0.5
G1 X14.505 Y7.099
G2 X14.559 Y7.011 R0.5
X14.683 Y6.749 R16.159
X14.717 Y6.648 R0.5
G1 X14.727 Y6.602
G2 X14.737 Y6.533 R0.5
G1 X14.739 Y6.505
G2 Y6.433 R0.5
G1 X14.736 Y6.387
G2 X14.724 Y6.304 R0.5
G1 X14.714 Y6.262
G2 X14.687 Y6.182 R0.5
G1 X14.669 Y6.139
G2 X14.629 Y6.064 R0.5
G1 X14.606 Y6.028
G2 X14.554 Y5.961 R0.5
G1 X14.522 Y5.926
G2 X14.472 Y5.878 R0.5
G1 X14.393 Y5.813
X14.343 Y5.772
X14.275 Y5.713
X14.266 Y5.704
X14.275 Y5.683
X14.277 Y5.676
X14.304 Y5.608
X14.324
X14.399 Y5.611
X14.463 Y5.615
X14.522 Y5.619
G2 X14.535 Y5.62 R0.5
G1 X14.586 Y5.622
G2 X14.637 R0.5
G1 X14.665 Y5.621
G2 X14.735 Y5.612 R0.5
G1 X14.781 Y5.603
G2 X14.862 Y5.579 R0.5
G1 X14.902 Y5.564
G2 X14.978 Y5.528 R0.5
G1 X15.018 Y5.504
G2 X15.087 Y5.455 R0.5
G1 X15.12 Y5.427
G2 X15.179 Y5.368 R0.5
G1 X15.209 Y5.332
G2 X15.258 Y5.263 R0.5
G1 X15.28 Y5.226
G2 X15.323 Y5.131 R0.5
X15.413 Y4.855 R16.159
X15.434 Y4.75 R0.5
G1 X15.438 Y4.704
G2 X15.439 Y4.634 R0.5
G1 X15.438 Y4.606
G2 X15.43 Y4.536 R0.5
G1 X15.421 Y4.49
G2 X15.397 Y4.408 R0.5
G1 X15.382 Y4.367
G2 X15.346 Y4.292 R0.5
G1 X15.323 Y4.252
G2 X15.275 Y4.183 R0.5
G1 X15.247 Y4.15
G2 X15.186 Y4.089 R0.5
G1 X15.151 Y4.059
G2 X15.094 Y4.018 R0.5
G1 X15.008 Y3.963
X14.954 Y3.929
X14.879 Y3.878
X14.869 Y3.871
X14.875 Y3.849
X14.876 Y3.842
X14.894 Y3.771
X14.914 Y3.768
X14.989 Y3.762
X15.053 Y3.758
X15.111 Y3.755
G2 X15.125 Y3.754 R0.5
G1 X15.176 Y3.75
G2 X15.227 Y3.743 R0.5
G1 X15.254 Y3.738
G2 X15.322 Y3.721 R0.5
G1 X15.367 Y3.706
G2 X15.444 Y3.673 R0.5
G1 X15.482 Y3.652
G2 X15.552 Y3.607 R0.5
G1 X15.589 Y3.578
G2 X15.651 Y3.521 R0.5
G1 X15.681 Y3.49
G2 X15.733 Y3.422 R0.5
G1 X15.758 Y3.383
G2 X15.797 Y3.309 R0.5
G1 X15.814 Y3.27
G2 X15.845 Y3.17 R0.5
X15.9 Y2.886 R16.159
X15.907 Y2.779 R0.5
G1 X15.906 Y2.733
G2 X15.898 Y2.662 R0.5
G1 X15.893 Y2.634
G2 X15.876 Y2.566 R0.5
G1 X15.862 Y2.522
G2 X15.829 Y2.444 R0.5
G1 X15.808 Y2.406
G2 X15.763 Y2.335 R0.5
G1 X15.735 Y2.298
G2 X15.678 Y2.236 R0.5
G1 X15.646 Y2.206
G2 X15.579 Y2.154 R0.5
G1 X15.54 Y2.128
G2 X15.479 Y2.094 R0.5
G1 X15.386 Y2.051
X15.328 Y2.024
X15.247 Y1.983
X15.237 Y1.977
X15.24 Y1.955
X15.241 Y1.947
X15.249 Y1.874
X15.269 Y1.869
X15.342 Y1.853
X15.405 Y1.841
X15.463 Y1.831
G2 X15.476 Y1.829 R0.5
G1 X15.526 Y1.818
G2 X15.576 Y1.805 R0.5
G1 X15.602 Y1.797
G2 X15.668 Y1.771 R0.5
G1 X15.71 Y1.751
G2 X15.782 Y1.708 R0.5
G1 X15.817 Y1.683
G2 X15.882 Y1.629 R0.5
G1 X15.915 Y1.596
G2 X15.97 Y1.531 R0.5
G1 X15.995 Y1.496
G2 X16.037 Y1.424 R0.5
G1 X16.057 Y1.382
G2 X16.088 Y1.303 R0.5
G1 X16.1 Y1.261
G2 X16.118 Y1.159 R0.5
X16.136 Y0.87 R16.159
X16.13 Y0.763 R0.5
G1 X16.123 Y0.717
G2 X16.107 Y0.649 R0.5
G1 X16.098 Y0.622
G2 X16.073 Y0.556 R0.5
G1 X16.053 Y0.513
G2 X16.01 Y0.441 R0.5
G1 X15.986 Y0.406
G2 X15.931 Y0.341 R0.5
G1 X15.899 Y0.308
G2 X15.835 Y0.253 R0.5
G1 X15.8 Y0.228
G2 X15.726 Y0.184 R0.5
G1 X15.684 Y0.164
G2 X15.619 Y0.138 R0.5
G1 X15.522 Y0.106
X15.461 Y0.087
X15.376 Y0.056
X15.364 Y0.051
Y0.029
Y0.022
Y-0.052
X15.383 Y-0.059
X15.454 Y-0.084
X15.514 Y-0.104
X15.57 Y-0.121
G2 X15.583 Y-0.125 R0.5
G1 X15.631 Y-0.142
G2 X15.679 Y-0.161 R0.5
G1 X15.704 Y-0.173
G2 X15.766 Y-0.207 R0.5
G1 X15.805 Y-0.232
G2 X15.872 Y-0.283 R0.5
G1 X15.904 Y-0.312
G2 X15.961 Y-0.375 R0.5
G1 X15.99 Y-0.411
G2 X16.036 Y-0.482 R0.5
G1 X16.056 Y-0.52
G2 X16.089 Y-0.597 R0.5
G1 X16.104 Y-0.642
G2 X16.124 Y-0.723 R0.5
G1 X16.131 Y-0.766
G2 X16.136 Y-0.87 R0.5
X16.118 Y-1.159 R16.159
X16.099 Y-1.264 R0.5
G1 X16.086 Y-1.309
G2 X16.061 Y-1.375 R0.5
G1 X16.049 Y-1.401
G2 X16.016 Y-1.463 R0.5
G1 X15.99 Y-1.502
G2 X15.94 Y-1.569 R0.5
G1 X15.911 Y-1.601
G2 X15.849 Y-1.659 R0.5
G1 X15.812 Y-1.687
G2 X15.742 Y-1.734 R0.5
G1 X15.704 Y-1.754
G2 X15.625 Y-1.788 R0.5
G1 X15.581 Y-1.803
G2 X15.513 Y-1.821 R0.5
G1 X15.413 Y-1.84
X15.35 Y-1.852
X15.262 Y-1.871
X15.25 Y-1.875
X15.247 Y-1.897
X15.246 Y-1.904
X15.236 Y-1.977
X15.254 Y-1.987
X15.321 Y-2.02
X15.379 Y-2.048
X15.432 Y-2.072
G2 X15.445 Y-2.078 R0.5
G1 X15.49 Y-2.1
G2 X15.536 Y-2.125 R0.5
G1 X15.56 Y-2.14
G2 X15.615 Y-2.181 R0.5
G1 X15.651 Y-2.211
G2 X15.712 Y-2.271 R0.5
G1 X15.74 Y-2.304
G2 X15.788 Y-2.372 R0.5
G1 X15.812 Y-2.412
G2 X15.849 Y-2.488 R0.5
G1 X15.864 Y-2.528
G2 X15.888 Y-2.61 R0.5
G1 X15.897 Y-2.655
G2 X15.906 Y-2.738 R0.5
G1 X15.907 Y-2.781
G2 X15.9 Y-2.886 R0.5
X15.845 Y-3.17 R16.159
X15.813 Y-3.273 R0.5
G1 X15.794 Y-3.315
G2 X15.762 Y-3.377 R0.5
G1 X15.747 Y-3.401
G2 X15.706 Y-3.458 R0.5
G1 X15.676 Y-3.494
G2 X15.617 Y-3.554 R0.5
G1 X15.584 Y-3.582
G2 X15.516 Y-3.632 R0.5
G1 X15.476 Y-3.656
G2 X15.4 Y-3.693 R0.5
G1 X15.36 Y-3.709
G2 X15.278 Y-3.733 R0.5
G1 X15.232 Y-3.742
G2 X15.163 Y-3.751 R0.5
G1 X15.061 Y-3.757
X14.997 Y-3.761
X14.907 Y-3.769
X14.894 Y-3.771
X14.889 Y-3.793
X14.887 Y-3.8
X14.869 Y-3.871
X14.885 Y-3.883
X14.947 Y-3.925
X15.001 Y-3.959
X15.051 Y-3.99
G2 X15.062 Y-3.997 R0.5
G1 X15.105 Y-4.025
G2 X15.146 Y-4.055 R0.5
G1 X15.168 Y-4.073
G2 X15.219 Y-4.121 R0.5
G1 X15.251 Y-4.155
G2 X15.303 Y-4.222 R0.5
G1 X15.327 Y-4.258
G2 X15.366 Y-4.332 R0.5
G1 X15.385 Y-4.374
G2 X15.412 Y-4.455 R0.5
G1 X15.422 Y-4.497
G2 X15.435 Y-4.58 R0.5
G1 X15.439 Y-4.627
G2 X15.438 Y-4.711 R0.5
G1 X15.433 Y-4.754
G2 X15.413 Y-4.855 R0.5
X15.323 Y-5.131 R16.159
X15.278 Y-5.229 R0.5
G1 X15.254 Y-5.269
G2 X15.215 Y-5.326 R0.5
G1 X15.197 Y-5.348
G2 X15.148 Y-5.4 R0.5
G1 X15.114 Y-5.432
G2 X15.048 Y-5.484 R0.5
G1 X15.012 Y-5.508
G2 X14.938 Y-5.548 R0.5
G1 X14.895 Y-5.567
G2 X14.816 Y-5.594 R0.5
G1 X14.774 Y-5.604
G2 X14.69 Y-5.618 R0.5
G1 X14.643 Y-5.621
G2 X14.573 Y-5.622 R0.5
G1 X14.471 Y-5.615
X14.407 Y-5.611
X14.317 Y-5.608
X14.304
X14.296 Y-5.629
X14.294 Y-5.636
X14.266 Y-5.704
X14.281 Y-5.718
X14.337 Y-5.767
X14.387 Y-5.808
X14.432 Y-5.845
G2 X14.443 Y-5.853 R0.5
G1 X14.481 Y-5.886
G2 X14.519 Y-5.922 R0.5
G1 X14.538 Y-5.942
G2 X14.583 Y-5.996 R0.5
G1 X14.61 Y-6.033
G2 X14.653 Y-6.106 R0.5
G1 X14.672 Y-6.145
G2 X14.702 Y-6.224 R0.5
G1 X14.715 Y-6.269
G2 X14.732 Y-6.351 R0.5
G1 X14.737 Y-6.394
G2 X14.74 Y-6.478 R0.5
G1 X14.737 Y-6.525
G2 X14.725 Y-6.609 R0.5
G1 X14.716 Y-6.651
G2 X14.683 Y-6.749 R0.5
X14.559 Y-7.011 R16.159
X14.502 Y-7.102 R0.5
G1 X14.474 Y-7.139
G2 X14.427 Y-7.191 R0.5
G1 X14.406 Y-7.211
G2 X14.352 Y-7.256 R0.5
G1 X14.315 Y-7.283
G2 X14.243 Y-7.326 R0.5
G1 X14.204 Y-7.345
G2 X14.125 Y-7.376 R0.5
G1 X14.08 Y-7.39
G2 X13.998 Y-7.407 R0.5
G1 X13.955 Y-7.412
G2 X13.87 Y-7.415 R0.5
G1 X13.823 Y-7.412
G2 X13.754 Y-7.404 R0.5
G1 X13.653 Y-7.385
X13.59 Y-7.372
X13.501 Y-7.358
X13.489 Y-7.357
X13.478 Y-7.376
X13.474 Y-7.383
X13.439 Y-7.447
X13.452 Y-7.462
X13.501 Y-7.519
X13.545 Y-7.565
X13.586 Y-7.607
G2 X13.595 Y-7.618 R0.5
G1 X13.63 Y-7.655
G2 X13.662 Y-7.694 R0.5
G1 X13.678 Y-7.717
G2 X13.716 Y-7.776 R0.5
G1 X13.738 Y-7.817
G2 X13.773 Y-7.895 R0.5
G1 X13.786 Y-7.936
G2 X13.806 Y-8.017 R0.5
G1 X13.814 Y-8.063
G2 X13.82 Y-8.148 R0.5
G1 X13.819 Y-8.191
G2 X13.811 Y-8.274 R0.5
G1 X13.803 Y-8.32
G2 X13.781 Y-8.402 R0.5
G1 X13.766 Y-8.443
G2 X13.721 Y-8.536 R0.5
X13.566 Y-8.781 R16.159
X13.498 Y-8.864 R0.5
G1 X13.465 Y-8.896
G2 X13.412 Y-8.942 R0.5
G1 X13.389 Y-8.959
G2 X13.33 Y-8.997 R0.5
G1 X13.289 Y-9.02
G2 X13.212 Y-9.054 R0.5
G1 X13.171 Y-9.068
G2 X13.089 Y-9.089 R0.5
G1 X13.043 Y-9.096
G2 X12.959 Y-9.103 R0.5
G1 X12.916 Y-9.102
G2 X12.831 Y-9.095 R0.5
G1 X12.785 Y-9.086
G2 X12.717 Y-9.069 R0.5
G1 X12.62 Y-9.038
X12.559 Y-9.018
X12.472 Y-8.992
X12.46 Y-8.989
X12.447 Y-9.007
X12.443 Y-9.013
X12.399 Y-9.073
X12.41 Y-9.09
X12.453 Y-9.151
X12.49 Y-9.203
X12.525 Y-9.25
G2 X12.534 Y-9.261 R0.5
G1 X12.563 Y-9.303
G2 X12.59 Y-9.346 R0.5
G1 X12.603 Y-9.37
G2 X12.634 Y-9.435 R0.5
G1 X12.651 Y-9.478
G2 X12.674 Y-9.558 R0.5
G1 X12.683 Y-9.6
G2 X12.693 Y-9.685 R0.5
G1 X12.694 Y-9.731
G2 X12.69 Y-9.816 R0.5
G1 X12.684 Y-9.858
G2 X12.665 Y-9.94 R0.5
G1 X12.651 Y-9.985
G2 X12.62 Y-10.062 R0.5
G1 X12.6 Y-10.101
G2 X12.543 Y-10.188 R0.5
X12.358 Y-10.412 R16.159
X12.281 Y-10.486 R0.5
G1 X12.244 Y-10.514
G2 X12.185 Y-10.553 R0.5
G1 X12.161 Y-10.567
G2 X12.097 Y-10.597 R0.5
G1 X12.054 Y-10.614
G2 X11.973 Y-10.638 R0.5
G1 X11.93 Y-10.647
G2 X11.848 Y-10.657 R0.5
G1 X11.801 Y-10.659
G2 X11.716 Y-10.655 R0.5
G1 X11.673 Y-10.649
G2 X11.589 Y-10.631 R0.5
G1 X11.544 Y-10.617
G2 X11.481 Y-10.592 R0.5
G1 X11.388 Y-10.548
X11.33 Y-10.521
X11.247 Y-10.484
X11.235 Y-10.48
X11.22 Y-10.496
X11.215 Y-10.502
X11.165 Y-10.555
X11.173 Y-10.574
X11.207 Y-10.64
X11.238 Y-10.696
X11.267 Y-10.747
G2 X11.274 Y-10.759 R0.5
G1 X11.298 Y-10.804
G2 X11.319 Y-10.85 R0.5
G1 X11.329 Y-10.875
G2 X11.352 Y-10.944 R0.5
G1 X11.363 Y-10.989
G2 X11.376 Y-11.071 R0.5
G1 X11.379 Y-11.114
G2 Y-11.199 R0.5
G1 X11.374 Y-11.245
G2 X11.36 Y-11.328 R0.5
G1 X11.348 Y-11.37
G2 X11.319 Y-11.45 R0.5
G1 X11.3 Y-11.492
G2 X11.259 Y-11.565 R0.5
G1 X11.234 Y-11.601
G2 X11.167 Y-11.68 R0.5
X10.956 Y-11.878 R16.159
X10.87 Y-11.942 R0.5
G1 X10.83 Y-11.965
G2 X10.767 Y-11.997 R0.5
G1 X10.74 Y-12.008
G2 X10.674 Y-12.03 R0.5
G1 X10.628 Y-12.041
G2 X10.545 Y-12.055 R0.5
G1 X10.501 Y-12.059
G2 X10.418 Y-12.058 R0.5
G1 X10.372 Y-12.054
G2 X10.288 Y-12.04 R0.5
G1 X10.247 Y-12.029
G2 X10.166 Y-12. R0.5
G1 X10.123 Y-11.98
G2 X10.062 Y-11.947 R0.5
G1 X9.976 Y-11.892
X9.922 Y-11.858
X9.844 Y-11.811
X9.833 Y-11.806
X9.816 Y-11.82
X9.811 Y-11.825
X9.754 Y-11.871
X9.76 Y-11.89
X9.786 Y-11.961
X9.809 Y-12.02
X9.831 Y-12.074
G2 X9.836 Y-12.087 R0.5
G1 X9.854 Y-12.135
G2 X9.87 Y-12.184 R0.5
G1 X9.877 Y-12.21
G2 X9.891 Y-12.28 R0.5
G1 X9.896 Y-12.326
G2 X9.899 Y-12.41 R0.5
G1 X9.897 Y-12.453
G2 X9.885 Y-12.537 R0.5
G1 X9.875 Y-12.582
G2 X9.85 Y-12.663 R0.5
G1 X9.834 Y-12.703
G2 X9.795 Y-12.778 R0.5
G1 X9.771 Y-12.817
G2 X9.721 Y-12.885 R0.5
G1 X9.692 Y-12.917
G2 X9.615 Y-12.988 R0.5
X9.381 Y-13.158 R16.159
X9.287 Y-13.21 R0.5
G1 X9.244 Y-13.229
G2 X9.179 Y-13.251 R0.5
G1 X9.152 Y-13.259
G2 X9.081 Y-13.273 R0.5
G1 X9.035 Y-13.278
G2 X8.951 Y-13.282 R0.5
G1 X8.908 Y-13.28
G2 X8.825 Y-13.269 R0.5
G1 X8.779 Y-13.259
G2 X8.698 Y-13.234 R0.5
G1 X8.658 Y-13.218
G2 X8.583 Y-13.18 R0.5
G1 X8.542 Y-13.155
G2 X8.485 Y-13.114 R0.5
G1 X8.407 Y-13.049
X8.358 Y-13.008
X8.286 Y-12.952
X8.276 Y-12.945
X8.257 Y-12.957
X8.251 Y-12.961
X8.189 Y-13.
X8.193 Y-13.02
X8.209 Y-13.093
X8.225 Y-13.155
X8.241 Y-13.211
G2 X8.244 Y-13.225 R0.5
G1 X8.256 Y-13.274
G2 X8.265 Y-13.325 R0.5
G1 X8.269 Y-13.352
G2 X8.273 Y-13.422 R0.5
G1 Y-13.469
G2 X8.265 Y-13.553 R0.5
G1 X8.258 Y-13.595
G2 X8.236 Y-13.677 R0.5
G1 X8.22 Y-13.721
G2 X8.185 Y-13.798 R0.5
G1 X8.164 Y-13.835
G2 X8.117 Y-13.905 R0.5
G1 X8.087 Y-13.941
G2 X8.029 Y-14.002 R0.5
G1 X7.996 Y-14.03
G2 X7.912 Y-14.09 R0.5
X7.658 Y-14.23 R16.159
X7.558 Y-14.27 R0.5
G1 X7.513 Y-14.283
G2 X7.444 Y-14.298 R0.5
G1 X7.416 Y-14.301
G2 X7.347 Y-14.306 R0.5
G1 X7.3
G2 X7.217 Y-14.299 R0.5
G1 X7.174 Y-14.292
G2 X7.091 Y-14.27 R0.5
G1 X7.047 Y-14.254
G2 X6.972 Y-14.22 R0.5
G1 X6.934 Y-14.199
G2 X6.862 Y-14.151 R0.5
G1 X6.826 Y-14.121
G2 X6.775 Y-14.074 R0.5
G1 X6.705 Y-13.999
X6.661 Y-13.953
X6.598 Y-13.888
X6.588 Y-13.88
X6.568 Y-13.89
X6.562 Y-13.893
X6.495 Y-13.924
X6.496 Y-13.944
X6.504 Y-14.019
X6.512 Y-14.082
X6.52 Y-14.14
G2 X6.521 Y-14.154 R0.5
G1 X6.527 Y-14.204
G2 X6.53 Y-14.256 R0.5
G1 Y-14.283
G2 X6.526 Y-14.353 R0.5
G1 X6.52 Y-14.4
G2 X6.502 Y-14.482 R0.5
G1 X6.489 Y-14.523
G2 X6.457 Y-14.601 R0.5
G1 X6.436 Y-14.643
G2 X6.392 Y-14.715 R0.5
G1 X6.366 Y-14.749
G2 X6.31 Y-14.813 R0.5
G1 X6.276 Y-14.845
G2 X6.211 Y-14.897 R0.5
G1 X6.176 Y-14.921
G2 X6.083 Y-14.971 R0.5
X5.814 Y-15.077 R16.159
X5.71 Y-15.105 R0.5
G1 X5.664 Y-15.112
G2 X5.595 Y-15.118 R0.5
G1 X5.566
G2 X5.495 Y-15.114 R0.5
G1 X5.449 Y-15.108
G2 X5.367 Y-15.091 R0.5
G1 X5.326 Y-15.078
G2 X5.248 Y-15.047 R0.5
G1 X5.206 Y-15.026
G2 X5.133 Y-14.981 R0.5
G1 X5.098 Y-14.955
G2 X5.035 Y-14.9 R0.5
G1 X5.002 Y-14.866
G2 X4.958 Y-14.812 R0.5
G1 X4.898 Y-14.729
X4.86 Y-14.678
X4.805 Y-14.606
X4.797 Y-14.596
X4.776 Y-14.604
X4.769 Y-14.606
X4.699 Y-14.628
X4.697 Y-14.648
X4.695 Y-14.723
Y-14.787
X4.696 Y-14.846
G2 Y-14.859 R0.5
G1 X4.695 Y-14.91
G2 X4.692 Y-14.962 R0.5
G1 X4.689 Y-14.989
G2 X4.676 Y-15.058 R0.5
G1 X4.664 Y-15.103
G2 X4.635 Y-15.183 R0.5
G1 X4.617 Y-15.222
G2 X4.576 Y-15.295 R0.5
G1 X4.55 Y-15.334
G2 X4.497 Y-15.4 R0.5
G1 X4.467 Y-15.431
G2 X4.404 Y-15.486 R0.5
G1 X4.367 Y-15.514
G2 X4.294 Y-15.559 R0.5
G1 X4.256 Y-15.578
G2 X4.159 Y-15.615 R0.5
X3.878 Y-15.687 R16.159
X3.772 Y-15.702 R0.5
G1 X3.726 Y-15.703
G2 X3.655 Y-15.7 R0.5
G1 X3.627 Y-15.697
G2 X3.558 Y-15.684 R0.5
G1 X3.513 Y-15.672
G2 X3.433 Y-15.644 R0.5
G1 X3.394 Y-15.627
G2 X3.32 Y-15.585 R0.5
G1 X3.281 Y-15.559
G2 X3.216 Y-15.507 R0.5
G1 X3.184 Y-15.477
G2 X3.128 Y-15.413 R0.5
G1 X3.099 Y-15.375
G2 X3.062 Y-15.317 R0.5
G1 X3.013 Y-15.227
X2.982 Y-15.171
X2.936 Y-15.093
X2.93 Y-15.083
X2.908 Y-15.087
X2.9 Y-15.088
X2.828 Y-15.102
X2.824 Y-15.121
X2.813 Y-15.196
X2.805 Y-15.259
X2.798 Y-15.317
G2 X2.797 Y-15.331 R0.5
G1 X2.79 Y-15.381
G2 X2.78 Y-15.432 R0.5
G1 X2.773 Y-15.458
G2 X2.751 Y-15.526 R0.5
G1 X2.734 Y-15.569
G2 X2.696 Y-15.644 R0.5
G1 X2.673 Y-15.681
G2 X2.623 Y-15.748 R0.5
G1 X2.592 Y-15.783
G2 X2.531 Y-15.842 R0.5
G1 X2.498 Y-15.869
G2 X2.428 Y-15.916 R0.5
G1 X2.387 Y-15.939
G2 X2.311 Y-15.974 R0.5
G1 X2.271 Y-15.988
G2 X2.169 Y-16.013 R0.5
X1.882 Y-16.049 R16.159
X1.774 Y-16.05 R0.5
G1 X1.728 Y-16.046
G2 X1.659 Y-16.034 R0.5
G1 X1.632 Y-16.028
G2 X1.564 Y-16.006 R0.5
G1 X1.521 Y-15.989
G2 X1.446 Y-15.951 R0.5
G1 X1.409 Y-15.929
G2 X1.341 Y-15.879 R0.5
G1 X1.306 Y-15.848
G2 X1.247 Y-15.787 R0.5
G1 X1.219 Y-15.754
G2 X1.171 Y-15.684 R0.5
G1 X1.148 Y-15.643
G2 X1.118 Y-15.58 R0.5
G1 X1.081 Y-15.485
X1.057 Y-15.425
X1.022 Y-15.342
X1.016 Y-15.331
X0.994 Y-15.332
X0.986 Y-15.333
X0.913 Y-15.337
X0.907 Y-15.356
X0.886 Y-15.428
X0.87 Y-15.49
X0.857 Y-15.547
G2 X0.853 Y-15.56 R0.5
G1 X0.84 Y-15.609
G2 X0.824 Y-15.658 R0.5
G1 X0.814 Y-15.684
G2 X0.784 Y-15.748 R0.5
G1 X0.761 Y-15.789
G2 X0.714 Y-15.859 R0.5
G1 X0.687 Y-15.892
G2 X0.629 Y-15.953 R0.5
G1 X0.594 Y-15.984
G2 X0.526 Y-16.034 R0.5
G1 X0.489 Y-16.057
G2 X0.414 Y-16.095 R0.5
G1 X0.37 Y-16.113
G2 X0.29 Y-16.138 R0.5
G1 X0.248 Y-16.147
G2 X0.145 Y-16.159 R0.5
X-0.145 R16.159
X-0.251 Y-16.146 R0.5
G1 X-0.296 Y-16.136
G2 X-0.363 Y-16.116 R0.5
G1 X-0.39 Y-16.106
G2 X-0.455 Y-16.076 R0.5
G1 X-0.495 Y-16.053
G2 X-0.565 Y-16.007 R0.5
G1 X-0.598 Y-15.98
G2 X-0.66 Y-15.922 R0.5
G1 X-0.691 Y-15.887
G2 X-0.742 Y-15.819 R0.5
G1 X-0.765 Y-15.782
G2 X-0.804 Y-15.707 R0.5
G1 X-0.821 Y-15.663
G2 X-0.843 Y-15.597 R0.5
G1 X-0.868 Y-15.498
X-0.884 Y-15.436
X-0.909 Y-15.349
X-0.913 Y-15.337
X-0.936 Y-15.336
X-0.943
X-1.016 Y-15.331
X-1.025 Y-15.349
X-1.054 Y-15.418
X-1.078 Y-15.477
X-1.099 Y-15.532
G2 X-1.104 Y-15.545 R0.5
G1 X-1.123 Y-15.592
G2 X-1.145 Y-15.638 R0.5
G1 X-1.158 Y-15.662
G2 X-1.196 Y-15.722 R0.5
G1 X-1.224 Y-15.76
G2 X-1.279 Y-15.823 R0.5
G1 X-1.31 Y-15.853
G2 X-1.376 Y-15.906 R0.5
G1 X-1.415 Y-15.932
G2 X-1.488 Y-15.974 R0.5
G1 X-1.527 Y-15.992
G2 X-1.606 Y-16.02 R0.5
G1 X-1.652 Y-16.032
G2 X-1.734 Y-16.047 R0.5
G1 X-1.777 Y-16.051
G2 X-1.882 Y-16.049 R0.5
X-2.169 Y-16.013 R16.159
X-2.273 Y-15.988 R0.5
G1 X-2.316 Y-15.972
G2 X-2.381 Y-15.943 R0.5
G1 X-2.406 Y-15.93
G2 X-2.466 Y-15.892 R0.5
G1 X-2.503 Y-15.865
G2 X-2.567 Y-15.809 R0.5
G1 X-2.597 Y-15.778
G2 X-2.65 Y-15.713 R0.5
G1 X-2.677 Y-15.675
G2 X-2.719 Y-15.601 R0.5
G1 X-2.737 Y-15.562
G2 X-2.766 Y-15.482 R0.5
G1 X-2.778 Y-15.437
G2 X-2.791 Y-15.368 R0.5
G1 X-2.804 Y-15.267
X-2.812 Y-15.204
X-2.826 Y-15.114
X-2.828 Y-15.102
X-2.85 Y-15.098
X-2.858 Y-15.096
X-2.93 Y-15.082
X-2.94 Y-15.099
X-2.978 Y-15.164
X-3.009 Y-15.22
X-3.037 Y-15.272
G2 X-3.043 Y-15.284 R0.5
G1 X-3.068 Y-15.328
G2 X-3.096 Y-15.372 R0.5
G1 X-3.112 Y-15.394
G2 X-3.158 Y-15.449 R0.5
G1 X-3.19 Y-15.482
G2 X-3.252 Y-15.537 R0.5
G1 X-3.287 Y-15.563
G2 X-3.359 Y-15.608 R0.5
G1 X-3.4 Y-15.629
G2 X-3.478 Y-15.661 R0.5
G1 X-3.52 Y-15.674
G2 X-3.601 Y-15.692 R0.5
G1 X-3.647 Y-15.699
G2 X-3.732 Y-15.703 R0.5
G1 X-3.776 Y-15.701
G2 X-3.878 Y-15.687 R0.5
X-4.159 Y-15.615 R16.159
X-4.259 Y-15.576 R0.5
G1 X-4.3 Y-15.555
G2 X-4.36 Y-15.519 R0.5
G1 X-4.383 Y-15.503
G2 X-4.438 Y-15.458 R0.5
G1 X-4.472 Y-15.426
G2 X-4.528 Y-15.363 R0.5
G1 X-4.554 Y-15.329
G2 X-4.599 Y-15.257 R0.5
G1 X-4.62 Y-15.215
G2 X-4.653 Y-15.138 R0.5
G1 X-4.666 Y-15.097
G2 X-4.684 Y-15.013 R0.5
G1 X-4.691 Y-14.967
G2 X-4.696 Y-14.897 R0.5
G1 X-4.695 Y-14.795
Y-14.731
X-4.698 Y-14.641
X-4.699 Y-14.628
X-4.72 Y-14.622
X-4.727 Y-14.619
X-4.797 Y-14.596
X-4.81 Y-14.612
X-4.856 Y-14.671
X-4.893 Y-14.723
X-4.927 Y-14.771
G2 X-4.935 Y-14.782 R0.5
G1 X-4.965 Y-14.822
G2 X-4.999 Y-14.862 R0.5
G1 X-5.017 Y-14.883
G2 X-5.068 Y-14.93 R0.5
G1 X-5.104 Y-14.96
G2 X-5.174 Y-15.008 R0.5
G1 X-5.212 Y-15.029
G2 X-5.289 Y-15.064 R0.5
G1 X-5.332 Y-15.08
G2 X-5.413 Y-15.102 R0.5
G1 X-5.456 Y-15.109
G2 X-5.54 Y-15.117 R0.5
G1 X-5.587 Y-15.118
G2 X-5.671 Y-15.111 R0.5
G1 X-5.714 Y-15.104
G2 X-5.814 Y-15.077 R0.5
X-6.083 Y-14.971 R16.159
X-6.177 Y-14.92 R0.5
G1 X-6.216 Y-14.894
G2 X-6.272 Y-14.849 R0.5
G1 X-6.293 Y-14.83
G2 X-6.34 Y-14.78 R0.5
G1 X-6.37 Y-14.744
G2 X-6.418 Y-14.674 R0.5
G1 X-6.439 Y-14.637
G2 X-6.475 Y-14.561 R0.5
G1 X-6.491 Y-14.517
G2 X-6.513 Y-14.435 R0.5
G1 X-6.521 Y-14.393
G2 X-6.529 Y-14.308 R0.5
G1 X-6.53 Y-14.261
G2 X-6.526 Y-14.191 R0.5
G1 X-6.513 Y-14.09
X-6.505 Y-14.027
X-6.496 Y-13.936
X-6.495 Y-13.924
X-6.516 Y-13.915
X-6.522 Y-13.912
X-6.589 Y-13.88
X-6.603 Y-13.894
X-6.656 Y-13.947
X-6.7 Y-13.994
X-6.739 Y-14.037
G2 X-6.748 Y-14.046 R0.5
G1 X-6.784 Y-14.083
G2 X-6.822 Y-14.119 R0.5
G1 X-6.843 Y-14.136
G2 X-6.9 Y-14.178 R0.5
G1 X-6.939 Y-14.202
G2 X-7.014 Y-14.241 R0.5
G1 X-7.054 Y-14.257
G2 X-7.135 Y-14.282 R0.5
G1 X-7.18 Y-14.293
G2 X-7.263 Y-14.304 R0.5
G1 X-7.306 Y-14.306
G2 X-7.391 Y-14.304 R0.5
G1 X-7.437 Y-14.298
G2 X-7.52 Y-14.281 R0.5
G1 X-7.562 Y-14.269
G2 X-7.658 Y-14.23 R0.5
X-7.912 Y-14.09 R16.159
X-7.999 Y-14.028 R0.5
G1 X-8.033 Y-13.997
G2 X-8.083 Y-13.947 R0.5
G1 X-8.101 Y-13.925
G2 X-8.143 Y-13.869 R0.5
G1 X-8.167 Y-13.829
G2 X-8.206 Y-13.754 R0.5
G1 X-8.223 Y-13.714
G2 X-8.249 Y-13.634 R0.5
G1 X-8.259 Y-13.589
G2 X-8.271 Y-13.505 R0.5
G1 X-8.273 Y-13.462
G2 X-8.271 Y-13.377 R0.5
G1 X-8.266 Y-13.33
G2 X-8.253 Y-13.261 R0.5
G1 X-8.227 Y-13.163
X-8.211 Y-13.101
X-8.191 Y-13.012
X-8.189 Y-13.
X-8.208 Y-12.988
X-8.214 Y-12.984
X-8.276 Y-12.945
X-8.292 Y-12.956
X-8.351 Y-13.003
X-8.401 Y-13.044
X-8.446 Y-13.082
G2 X-8.456 Y-13.09 R0.5
G1 X-8.496 Y-13.122
G2 X-8.537 Y-13.152 R0.5
G1 X-8.56 Y-13.167
G2 X-8.623 Y-13.201 R0.5
G1 X-8.665 Y-13.221
G2 X-8.744 Y-13.249 R0.5
G1 X-8.785 Y-13.261
G2 X-8.869 Y-13.276 R0.5
G1 X-8.915 Y-13.28
G2 X-8.998 Y-13.281 R0.5
G1 X-9.041 Y-13.278
G2 X-9.126 Y-13.265 R0.5
G1 X-9.171 Y-13.253
G2 X-9.251 Y-13.226 R0.5
G1 X-9.29 Y-13.209
G2 X-9.381 Y-13.158 R0.5
X-9.615 Y-12.988 R16.159
X-9.694 Y-12.915 R0.5
G1 X-9.724 Y-12.88
G2 X-9.767 Y-12.823 R0.5
G1 X-9.783 Y-12.799
G2 X-9.817 Y-12.739 R0.5
G1 X-9.836 Y-12.696
G2 X-9.866 Y-12.617 R0.5
G1 X-9.877 Y-12.576
G2 X-9.892 Y-12.493 R0.5
G1 X-9.897 Y-12.446
G2 X-9.898 Y-12.362 R0.5
G1 X-9.895 Y-12.319
G2 X-9.882 Y-12.235 R0.5
G1 X-9.871 Y-12.189
G2 X-9.85 Y-12.123 R0.5
G1 X-9.812 Y-12.028
X-9.788 Y-11.968
X-9.758 Y-11.883
X-9.754 Y-11.871
X-9.771 Y-11.857
X-9.777 Y-11.852
X-9.833 Y-11.805
X-9.851 Y-11.815
X-9.915 Y-11.854
X-9.97 Y-11.888
X-10.018 Y-11.92
G2 X-10.03 Y-11.927 R0.5
G1 X-10.073 Y-11.954
G2 X-10.118 Y-11.978 R0.5
G1 X-10.143 Y-11.99
G2 X-10.21 Y-12.017 R0.5
G1 X-10.254 Y-12.031
G2 X-10.335 Y-12.049 R0.5
G1 X-10.378 Y-12.055
G2 X-10.462 Y-12.059 R0.5
G1 X-10.509 Y-12.058
G2 X-10.593 Y-12.048 R0.5
G1 X-10.636 Y-12.04
G2 X-10.716 Y-12.016 R0.5
G1 X-10.76 Y-11.999
G2 X-10.835 Y-11.963 R0.5
G1 X-10.872 Y-11.941
G2 X-10.956 Y-11.878 R0.5
X-11.167 Y-11.68 R16.159
X-11.236 Y-11.598 R0.5
G1 X-11.262 Y-11.56
G2 X-11.297 Y-11.498 R0.5
G1 X-11.31 Y-11.472
G2 X-11.336 Y-11.408 R0.5
G1 X-11.35 Y-11.363
G2 X-11.369 Y-11.282 R0.5
G1 X-11.375 Y-11.239
G2 X-11.38 Y-11.154 R0.5
G1 X-11.379 Y-11.108
G2 X-11.37 Y-11.024 R0.5
G1 X-11.361 Y-10.981
G2 X-11.338 Y-10.9 R0.5
G1 X-11.321 Y-10.856
G2 X-11.292 Y-10.792 R0.5
G1 X-11.242 Y-10.703
X-11.211 Y-10.647
X-11.17 Y-10.566
X-11.165 Y-10.555
X-11.18 Y-10.539
X-11.185 Y-10.534
X-11.235 Y-10.48
X-11.254 Y-10.487
X-11.323 Y-10.517
X-11.381 Y-10.545
X-11.433 Y-10.57
G2 X-11.446 Y-10.576 R0.5
G1 X-11.493 Y-10.597
G2 X-11.54 Y-10.616 R0.5
G1 X-11.566 Y-10.625
G2 X-11.634 Y-10.642 R0.5
G1 X-11.68 Y-10.65
G2 X-11.763 Y-10.659 R0.5
G1 X-11.807
G2 X-11.892 Y-10.653 R0.5
G1 X-11.938 Y-10.646
G2 X-12.019 Y-10.626 R0.5
G1 X-12.06 Y-10.612
G2 X-12.137 Y-10.578 R0.5
G1 X-12.178 Y-10.556
G2 X-12.249 Y-10.51 R0.5
G1 X-12.283 Y-10.484
G2 X-12.358 Y-10.412 R0.5
X-12.543 Y-10.188 R16.159
X-12.601 Y-10.098 R0.5
G1 X-12.622 Y-10.056
G2 X-12.649 Y-9.993 R0.5
G1 X-12.658 Y-9.966
G2 X-12.676 Y-9.897 R0.5
G1 X-12.685 Y-9.851
G2 X-12.693 Y-9.767 R0.5
G1 X-12.694 Y-9.724
G2 X-12.689 Y-9.64 R0.5
G1 X-12.682 Y-9.594
G2 X-12.662 Y-9.512 R0.5
G1 X-12.648 Y-9.471
G2 X-12.615 Y-9.393 R0.5
G1 X-12.592 Y-9.351
G2 X-12.555 Y-9.292 R0.5
G1 X-12.495 Y-9.21
X-12.457 Y-9.158
X-12.406 Y-9.083
X-12.4 Y-9.073
X-12.413 Y-9.055
X-12.417 Y-9.049
X-12.46 Y-8.989
X-12.48 Y-8.994
X-12.552 Y-9.015
X-12.613 Y-9.035
X-12.668 Y-9.054
G2 X-12.681 Y-9.058 R0.5
G1 X-12.73 Y-9.073
G2 X-12.779 Y-9.086 R0.5
G1 X-12.806 Y-9.091
G2 X-12.877 Y-9.1 R0.5
G1 X-12.923 Y-9.103
G2 X-13.007 Y-9.1 R0.5
G1 X-13.05 Y-9.095
G2 X-13.133 Y-9.079 R0.5
G1 X-13.178 Y-9.066
G2 X-13.256 Y-9.035 R0.5
G1 X-13.295 Y-9.017
G2 X-13.367 Y-8.974 R0.5
G1 X-13.405 Y-8.947
G2 X-13.47 Y-8.892 R0.5
G1 X-13.5 Y-8.862
G2 X-13.566 Y-8.781 R0.5
X-13.721 Y-8.536 R16.159
X-13.767 Y-8.439 R0.5
G1 X-13.783 Y-8.396
G2 X-13.802 Y-8.328 R0.5
G1 X-13.807 Y-8.3
G2 X-13.817 Y-8.23 R0.5
G1 X-13.819 Y-8.184
G2 X-13.818 Y-8.1 R0.5
G1 X-13.813 Y-8.057
G2 X-13.797 Y-7.973 R0.5
G1 X-13.784 Y-7.929
G2 X-13.754 Y-7.851 R0.5
G1 X-13.736 Y-7.812
G2 X-13.692 Y-7.737 R0.5
G1 X-13.665 Y-7.699
G2 X-13.621 Y-7.645 R0.5
G1 X-13.551 Y-7.571
X-13.507 Y-7.524
X-13.447 Y-7.457
X-13.439 Y-7.447
X-13.45 Y-7.427
X-13.454 Y-7.421
X-13.489 Y-7.356
X-13.509 Y-7.359
X-13.583 Y-7.371
X-13.646 Y-7.383
X-13.703 Y-7.395
G2 X-13.716 Y-7.397 R0.5
G1 X-13.766 Y-7.406
G2 X-13.818 Y-7.412 R0.5
G1 X-13.845 Y-7.414
G2 X-13.915 R0.5
G1 X-13.962 Y-7.411
G2 X-14.045 Y-7.398 R0.5
G1 X-14.087 Y-7.388
G2 X-14.167 Y-7.361 R0.5
G1 X-14.21 Y-7.343
G2 X-14.284 Y-7.303 R0.5
G1 X-14.32 Y-7.279
G2 X-14.387 Y-7.228 R0.5
G1 X-14.421 Y-7.196
G2 X-14.478 Y-7.134 R0.5
G1 X-14.505 Y-7.099
G2 X-14.559 Y-7.011 R0.5
X-14.683 Y-6.749 R16.159
X-14.717 Y-6.648 R0.5
G1 X-14.727 Y-6.602
G2 X-14.737 Y-6.533 R0.5
G1 X-14.739 Y-6.505
G2 Y-6.433 R0.5
G1 X-14.736 Y-6.387
G2 X-14.724 Y-6.304 R0.5
G1 X-14.714 Y-6.262
G2 X-14.687 Y-6.182 R0.5
G1 X-14.669 Y-6.139
G2 X-14.629 Y-6.064 R0.5
G1 X-14.606 Y-6.028
G2 X-14.554 Y-5.961 R0.5
G1 X-14.522 Y-5.926
G2 X-14.472 Y-5.878 R0.5
G1 X-14.393 Y-5.813
X-14.343 Y-5.772
X-14.275 Y-5.713
X-14.266 Y-5.704
X-14.275 Y-5.683
X-14.277 Y-5.676
X-14.304 Y-5.608
X-14.324
X-14.399 Y-5.611
X-14.463 Y-5.615
X-14.522 Y-5.619
G2 X-14.535 Y-5.62 R0.5
G1 X-14.586 Y-5.622
G2 X-14.637 R0.5
G1 X-14.665 Y-5.621
G2 X-14.735 Y-5.612 R0.5
G1 X-14.781 Y-5.603
G2 X-14.862 Y-5.579 R0.5
G1 X-14.902 Y-5.564
G2 X-14.978 Y-5.528 R0.5
G1 X-15.018 Y-5.504
G2 X-15.087 Y-5.455 R0.5
G1 X-15.12 Y-5.427
G2 X-15.179 Y-5.368 R0.5
G1 X-15.209 Y-5.332
G2 X-15.258 Y-5.263 R0.5
G1 X-15.28 Y-5.226
G2 X-15.323 Y-5.131 R0.5
X-15.413 Y-4.855 R16.159
X-15.434 Y-4.75 R0.5
G1 X-15.438 Y-4.704
G2 X-15.439 Y-4.634 R0.5
G1 X-15.438 Y-4.606
G2 X-15.43 Y-4.536 R0.5
G1 X-15.421 Y-4.49
G2 X-15.397 Y-4.408 R0.5
G1 X-15.382 Y-4.367
G2 X-15.346 Y-4.292 R0.5
G1 X-15.323 Y-4.252
G2 X-15.275 Y-4.183 R0.5
G1 X-15.247 Y-4.15
G2 X-15.186 Y-4.089 R0.5
G1 X-15.151 Y-4.059
G2 X-15.094 Y-4.018 R0.5
G1 X-15.008 Y-3.963
X-14.954 Y-3.929
X-14.879 Y-3.878
X-14.869 Y-3.871
X-14.875 Y-3.849
X-14.876 Y-3.842
X-14.894 Y-3.771
X-14.914 Y-3.768
X-14.989 Y-3.762
X-15.053 Y-3.758
X-15.111 Y-3.755
G2 X-15.125 Y-3.754 R0.5
G1 X-15.176 Y-3.75
G2 X-15.227 Y-3.743 R0.5
G1 X-15.254 Y-3.738
G2 X-15.322 Y-3.721 R0.5
G1 X-15.367 Y-3.706
G2 X-15.444 Y-3.673 R0.5
G1 X-15.482 Y-3.652
G2 X-15.552 Y-3.607 R0.5
G1 X-15.589 Y-3.578
G2 X-15.651 Y-3.521 R0.5
G1 X-15.681 Y-3.49
G2 X-15.733 Y-3.422 R0.5
G1 X-15.758 Y-3.383
G2 X-15.797 Y-3.309 R0.5
G1 X-15.814 Y-3.27
G2 X-15.845 Y-3.17 R0.5
X-15.9 Y-2.886 R16.159
X-15.907 Y-2.779 R0.5
G1 X-15.906 Y-2.733
G2 X-15.898 Y-2.662 R0.5
G1 X-15.893 Y-2.634
G2 X-15.876 Y-2.566 R0.5
G1 X-15.862 Y-2.522
G2 X-15.829 Y-2.444 R0.5
G1 X-15.808 Y-2.406
G2 X-15.763 Y-2.335 R0.5
G1 X-15.735 Y-2.298
G2 X-15.678 Y-2.236 R0.5
G1 X-15.646 Y-2.206
G2 X-15.579 Y-2.154 R0.5
G1 X-15.54 Y-2.128
G2 X-15.479 Y-2.094 R0.5
G1 X-15.386 Y-2.051
X-15.328 Y-2.024
X-15.247 Y-1.983
X-15.237 Y-1.977
X-15.24 Y-1.955
X-15.241 Y-1.947
X-15.249 Y-1.874
X-15.269 Y-1.869
X-15.342 Y-1.853
X-15.405 Y-1.841
X-15.463 Y-1.831
G2 X-15.476 Y-1.829 R0.5
G1 X-15.526 Y-1.818
G2 X-15.576 Y-1.805 R0.5
G1 X-15.602 Y-1.797
G2 X-15.668 Y-1.771 R0.5
G1 X-15.71 Y-1.751
G2 X-15.782 Y-1.708 R0.5
G1 X-15.817 Y-1.683
G2 X-15.882 Y-1.629 R0.5
G1 X-15.915 Y-1.596
G2 X-15.97 Y-1.531 R0.5
G1 X-15.995 Y-1.496
G2 X-16.037 Y-1.424 R0.5
G1 X-16.057 Y-1.382
G2 X-16.088 Y-1.303 R0.5
G1 X-16.1 Y-1.261
G2 X-16.118 Y-1.159 R0.5
X-16.136 Y-0.87 R16.159
X-16.137 Y-0.835 R0.5
X-16.13 Y-0.763 Z-1.005 R0.5 F200.
G1 X-16.123 Y-0.717 Z-1.008
G2 X-16.107 Y-0.649 Z-1.013 R0.5
G1 X-16.098 Y-0.622 Z-1.015
G2 X-16.073 Y-0.556 Z-1.02 R0.5
G1 X-16.053 Y-0.513 Z-1.024
G2 X-16.01 Y-0.441 Z-1.029 R0.5
G1 X-15.986 Y-0.406 Z-1.032
G2 X-15.931 Y-0.341 Z-1.038 R0.5
G1 X-15.899 Y-0.308 Z-1.042
G2 X-15.835 Y-0.253 Z-1.048 R0.5
G1 X-15.8 Y-0.228 Z-1.051
G2 X-15.726 Y-0.184 Z-1.057 R0.5
G1 X-15.684 Y-0.164 Z-1.06
G2 X-15.619 Y-0.138 Z-1.065 R0.5
G1 X-15.522 Y-0.106 Z-1.072
X-15.461 Y-0.087 Z-1.076
X-15.376 Y-0.056 Z-1.083
X-15.364 Y-0.051 Z-1.084
Y-0.029 Z-1.085
Y-0.022 Z-1.086
Y0.052 Z-1.091
X-15.383 Y0.059 Z-1.092
X-15.454 Y0.084 Z-1.098
X-15.514 Y0.104 Z-1.102
X-15.57 Y0.121 Z-1.106
G2 X-15.583 Y0.125 Z-1.107 R0.5
G1 X-15.631 Y0.142 Z-1.111
G2 X-15.679 Y0.161 Z-1.114 R0.5
G1 X-15.704 Y0.173 Z-1.116
G2 X-15.766 Y0.207 Z-1.121 R0.5
G1 X-15.805 Y0.232 Z-1.125
G2 X-15.872 Y0.283 Z-1.13 R0.5
G1 X-15.904 Y0.312 Z-1.134
G2 X-15.961 Y0.375 Z-1.139 R0.5
G1 X-15.99 Y0.411 Z-1.143
G2 X-16.036 Y0.482 Z-1.149 R0.5
G1 X-16.056 Y0.52 Z-1.152
G2 X-16.089 Y0.597 Z-1.158 R0.5
G1 X-16.104 Y0.642 Z-1.161
G2 X-16.124 Y0.723 Z-1.167 R0.5
G1 X-16.131 Y0.766 Z-1.17
G2 X-16.136 Y0.87 Z-1.177 R0.5
X-16.118 Y1.159 Z-1.198 R16.159
X-16.099 Y1.264 Z-1.205 R0.5
G1 X-16.086 Y1.309 Z-1.208
G2 X-16.061 Y1.375 Z-1.213 R0.5
G1 X-16.049 Y1.401 Z-1.215
G2 X-16.016 Y1.463 Z-1.22 R0.5
G1 X-15.99 Y1.502 Z-1.224
G2 X-15.94 Y1.569 Z-1.229 R0.5
G1 X-15.911 Y1.601 Z-1.232
G2 X-15.849 Y1.659 Z-1.238 R0.5
G1 X-15.812 Y1.687 Z-1.242
G2 X-15.742 Y1.734 Z-1.248 R0.5
G1 X-15.704 Y1.754 Z-1.251
G2 X-15.625 Y1.788 Z-1.257 R0.5
G1 X-15.581 Y1.803 Z-1.26
G2 X-15.513 Y1.821 Z-1.265 R0.5
G1 X-15.413 Y1.84 Z-1.272
X-15.35 Y1.852 Z-1.276
X-15.262 Y1.871 Z-1.283
X-15.25 Y1.875 Z-1.284
X-15.247 Y1.897 Z-1.285
X-15.246 Y1.904 Z-1.286
X-15.236 Y1.977 Z-1.291
X-15.254 Y1.987 Z-1.292
X-15.321 Y2.02 Z-1.298
X-15.379 Y2.048 Z-1.302
X-15.432 Y2.072 Z-1.306
G2 X-15.445 Y2.078 Z-1.307 R0.5
G1 X-15.49 Y2.1 Z-1.311
G2 X-15.536 Y2.125 Z-1.314 R0.5
G1 X-15.56 Y2.14 Z-1.316
G2 X-15.615 Y2.181 Z-1.321 R0.5
G1 X-15.651 Y2.211 Z-1.325
G2 X-15.712 Y2.271 Z-1.331 R0.5
G1 X-15.74 Y2.304 Z-1.334
G2 X-15.788 Y2.372 Z-1.339 R0.5
G1 X-15.812 Y2.412 Z-1.343
G2 X-15.849 Y2.488 Z-1.349 R0.5
G1 X-15.864 Y2.528 Z-1.352
G2 X-15.888 Y2.61 Z-1.358 R0.5
G1 X-15.897 Y2.655 Z-1.361
G2 X-15.906 Y2.738 Z-1.367 R0.5
G1 X-15.907 Y2.781 Z-1.37
G2 X-15.9 Y2.886 Z-1.377 R0.5
X-15.845 Y3.17 Z-1.398 R16.159
X-15.813 Y3.273 Z-1.405 R0.5
G1 X-15.794 Y3.315 Z-1.408
G2 X-15.762 Y3.377 Z-1.413 R0.5
G1 X-15.747 Y3.401 Z-1.415
G2 X-15.706 Y3.458 Z-1.42 R0.5
G1 X-15.676 Y3.494 Z-1.423
G2 X-15.617 Y3.554 Z-1.429 R0.5
G1 X-15.584 Y3.582 Z-1.432
G2 X-15.516 Y3.632 Z-1.438 R0.5
G1 X-15.476 Y3.656 Z-1.442
G2 X-15.4 Y3.693 Z-1.448 R0.5
G1 X-15.36 Y3.709 Z-1.451
G2 X-15.278 Y3.733 Z-1.457 R0.5
G1 X-15.232 Y3.742 Z-1.46
G2 X-15.163 Y3.751 Z-1.465 R0.5
G1 X-15.061 Y3.757 Z-1.472
X-14.997 Y3.761 Z-1.476
X-14.907 Y3.769 Z-1.483
X-14.894 Y3.771 Z-1.484
X-14.889 Y3.793 Z-1.485
X-14.887 Y3.8 Z-1.486
X-14.869 Y3.871 Z-1.491
X-14.885 Y3.883 Z-1.492
X-14.947 Y3.925 Z-1.498
X-15.001 Y3.959 Z-1.502
X-15.051 Y3.99 Z-1.506
G2 X-15.062 Y3.997 Z-1.507 R0.5
G1 X-15.105 Y4.025 Z-1.511
G2 X-15.146 Y4.055 Z-1.514 R0.5
G1 X-15.168 Y4.073 Z-1.516
G2 X-15.219 Y4.121 Z-1.521 R0.5
G1 X-15.251 Y4.155 Z-1.525
G2 X-15.303 Y4.222 Z-1.531 R0.5
G1 X-15.327 Y4.258 Z-1.534
G2 X-15.366 Y4.332 Z-1.539 R0.5
G1 X-15.385 Y4.374 Z-1.543
G2 X-15.412 Y4.455 Z-1.549 R0.5
G1 X-15.422 Y4.497 Z-1.552
G2 X-15.435 Y4.58 Z-1.558 R0.5
G1 X-15.439 Y4.627 Z-1.561
G2 X-15.438 Y4.711 Z-1.567 R0.5
G1 X-15.433 Y4.754 Z-1.57
G2 X-15.413 Y4.855 Z-1.577 R0.5
X-15.323 Y5.131 Z-1.598 R16.159
X-15.278 Y5.229 Z-1.605 R0.5
G1 X-15.254 Y5.269 Z-1.608
G2 X-15.215 Y5.326 Z-1.613 R0.5
G1 X-15.197 Y5.348 Z-1.615
G2 X-15.148 Y5.4 Z-1.62 R0.5
G1 X-15.114 Y5.432 Z-1.624
G2 X-15.048 Y5.484 Z-1.629 R0.5
G1 X-15.012 Y5.508 Z-1.632
G2 X-14.938 Y5.548 Z-1.638 R0.5
G1 X-14.895 Y5.567 Z-1.642
G2 X-14.816 Y5.594 Z-1.648 R0.5
G1 X-14.774 Y5.604 Z-1.651
G2 X-14.69 Y5.618 Z-1.657 R0.5
G1 X-14.643 Y5.621 Z-1.66
G2 X-14.573 Y5.622 Z-1.665 R0.5
G1 X-14.471 Y5.615 Z-1.672
X-14.407 Y5.611 Z-1.676
X-14.317 Y5.608 Z-1.683
X-14.304 Z-1.684
X-14.296 Y5.629 Z-1.685
X-14.294 Y5.636 Z-1.686
X-14.266 Y5.704 Z-1.691
X-14.281 Y5.718 Z-1.692
X-14.337 Y5.767 Z-1.698
X-14.387 Y5.808 Z-1.702
X-14.432 Y5.845 Z-1.706
G2 X-14.443 Y5.853 Z-1.707 R0.5
G1 X-14.481 Y5.886 Z-1.711
G2 X-14.519 Y5.922 Z-1.714 R0.5
G1 X-14.538 Y5.942 Z-1.716
G2 X-14.583 Y5.996 Z-1.721 R0.5
G1 X-14.61 Y6.033 Z-1.725
G2 X-14.653 Y6.106 Z-1.731 R0.5
G1 X-14.672 Y6.145 Z-1.734
G2 X-14.702 Y6.224 Z-1.74 R0.5
G1 X-14.715 Y6.269 Z-1.743
G2 X-14.732 Y6.351 Z-1.749 R0.5
G1 X-14.737 Y6.394 Z-1.752
G2 X-14.74 Y6.478 Z-1.758 R0.5
G1 X-14.737 Y6.525 Z-1.761
G2 X-14.725 Y6.609 Z-1.767 R0.5
G1 X-14.716 Y6.651 Z-1.77
G2 X-14.683 Y6.749 Z-1.777 R0.5
X-14.559 Y7.011 Z-1.798 R16.159
X-14.502 Y7.102 Z-1.805 R0.5
G1 X-14.474 Y7.139 Z-1.808
G2 X-14.427 Y7.191 Z-1.813 R0.5
G1 X-14.406 Y7.211 Z-1.815
G2 X-14.352 Y7.256 Z-1.82 R0.5
G1 X-14.315 Y7.283 Z-1.824
G2 X-14.243 Y7.326 Z-1.829 R0.5
G1 X-14.204 Y7.345 Z-1.832
G2 X-14.125 Y7.376 Z-1.838 R0.5
G1 X-14.08 Y7.39 Z-1.842
G2 X-13.998 Y7.407 Z-1.848 R0.5
G1 X-13.955 Y7.412 Z-1.851
G2 X-13.87 Y7.415 Z-1.857 R0.5
G1 X-13.823 Y7.412 Z-1.86
G2 X-13.754 Y7.404 Z-1.865 R0.5
G1 X-13.653 Y7.385 Z-1.872
X-13.59 Y7.372 Z-1.877
X-13.501 Y7.358 Z-1.883
X-13.489 Y7.357 Z-1.884
X-13.478 Y7.376 Z-1.885
X-13.474 Y7.383 Z-1.886
X-13.439 Y7.447 Z-1.891
X-13.452 Y7.462 Z-1.892
X-13.501 Y7.519 Z-1.898
X-13.545 Y7.565 Z-1.902
X-13.586 Y7.607 Z-1.906
G2 X-13.595 Y7.618 Z-1.907 R0.5
G1 X-13.63 Y7.655 Z-1.911
G2 X-13.662 Y7.694 Z-1.914 R0.5
G1 X-13.678 Y7.717 Z-1.916
G2 X-13.716 Y7.776 Z-1.921 R0.5
G1 X-13.738 Y7.817 Z-1.925
G2 X-13.773 Y7.895 Z-1.931 R0.5
G1 X-13.786 Y7.936 Z-1.934
G2 X-13.806 Y8.017 Z-1.939 R0.5
G1 X-13.814 Y8.063 Z-1.943
G2 X-13.82 Y8.148 Z-1.949 R0.5
G1 X-13.819 Y8.191 Z-1.952
G2 X-13.811 Y8.274 Z-1.958 R0.5
G1 X-13.803 Y8.32 Z-1.961
G2 X-13.781 Y8.402 Z-1.967 R0.5
G1 X-13.766 Y8.443 Z-1.97
G2 X-13.721 Y8.536 Z-1.977 R0.5
X-13.566 Y8.781 Z-1.998 R16.159
X-13.546 Y8.809 Z-2. R0.5
X-13.498 Y8.864 R0.5 F800.
G1 X-13.465 Y8.896
G2 X-13.412 Y8.942 R0.5
G1 X-13.389 Y8.959
G2 X-13.33 Y8.997 R0.5
G1 X-13.289 Y9.02
G2 X-13.212 Y9.054 R0.5
G1 X-13.171 Y9.068
G2 X-13.089 Y9.089 R0.5
G1 X-13.043 Y9.096
G2 X-12.959 Y9.103 R0.5
G1 X-12.916 Y9.102
G2 X-12.831 Y9.095 R0.5
G1 X-12.785 Y9.086
G2 X-12.717 Y9.069 R0.5
G1 X-12.62 Y9.038
X-12.559 Y9.018
X-12.472 Y8.992
X-12.46 Y8.989
X-12.447 Y9.007
X-12.443 Y9.013
X-12.399 Y9.073
X-12.41 Y9.09
X-12.453 Y9.151
X-12.49 Y9.203
X-12.525 Y9.25
G2 X-12.534 Y9.261 R0.5
G1 X-12.563 Y9.303
G2 X-12.59 Y9.346 R0.5
G1 X-12.603 Y9.37
G2 X-12.634 Y9.435 R0.5
G1 X-12.651 Y9.478
G2 X-12.674 Y9.558 R0.5
G1 X-12.683 Y9.6
G2 X-12.693 Y9.685 R0.5
G1 X-12.694 Y9.731
G2 X-12.69 Y9.816 R0.5
G1 X-12.684 Y9.858
G2 X-12.665 Y9.94 R0.5
G1 X-12.651 Y9.985
G2 X-12.62 Y10.062 R0.5
G1 X-12.6 Y10.101
G2 X-12.543 Y10.188 R0.5
X-12.358 Y10.412 R16.159
X-12.281 Y10.486 R0.5
G1 X-12.244 Y10.514
G2 X-12.185 Y10.553 R0.5
G1 X-12.161 Y10.567
G2 X-12.097 Y10.597 R0.5
G1 X-12.054 Y10.614
G2 X-11.973 Y10.638 R0.5
G1 X-11.93 Y10.647
G2 X-11.848 Y10.657 R0.5
G1 X-11.801 Y10.659
G2 X-11.716 Y10.655 R0.5
G1 X-11.673 Y10.649
G2 X-11.589 Y10.631 R0.5
G1 X-11.544 Y10.617
G2 X-11.481 Y10.592 R0.5
G1 X-11.388 Y10.548
X-11.33 Y10.521
X-11.247 Y10.484
X-11.235 Y10.48
X-11.22 Y10.496
X-11.215 Y10.502
X-11.165 Y10.555
X-11.173 Y10.574
X-11.207 Y10.64
X-11.238 Y10.696
X-11.267 Y10.747
G2 X-11.274 Y10.759 R0.5
G1 X-11.298 Y10.804
G2 X-11.319 Y10.85 R0.5
G1 X-11.329 Y10.875
G2 X-11.352 Y10.944 R0.5
G1 X-11.363 Y10.989
G2 X-11.376 Y11.071 R0.5
G1 X-11.379 Y11.114
G2 Y11.199 R0.5
G1 X-11.374 Y11.245
G2 X-11.36 Y11.328 R0.5
G1 X-11.348 Y11.37
G2 X-11.319 Y11.45 R0.5
G1 X-11.3 Y11.492
G2 X-11.259 Y11.565 R0.5
G1 X-11.234 Y11.601
G2 X-11.167 Y11.68 R0.5
X-10.956 Y11.878 R16.159
X-10.87 Y11.942 R0.5
G1 X-10.83 Y11.965
G2 X-10.767 Y11.997 R0.5
G1 X-10.74 Y12.008
G2 X-10.674 Y12.03 R0.5
G1 X-10.628 Y12.041
G2 X-10.545 Y12.055 R0.5
G1 X-10.501 Y12.059
G2 X-10.418 Y12.058 R0.5
G1 X-10.372 Y12.054
G2 X-10.288 Y12.04 R0.5
G1 X-10.247 Y12.029
G2 X-10.166 Y12. R0.5
G1 X-10.123 Y11.98
G2 X-10.062 Y11.947 R0.5
G1 X-9.976 Y11.892
X-9.922 Y11.858
X-9.844 Y11.811
X-9.833 Y11.806
X-9.816 Y11.82
X-9.811 Y11.825
X-9.754 Y11.871
X-9.76 Y11.89
X-9.786 Y11.961
X-9.809 Y12.02
X-9.831 Y12.074
G2 X-9.836 Y12.087 R0.5
G1 X-9.854 Y12.135
G2 X-9.87 Y12.184 R0.5
G1 X-9.877 Y12.21
G2 X-9.891 Y12.28 R0.5
G1 X-9.896 Y12.326
G2 X-9.899 Y12.41 R0.5
G1 X-9.897 Y12.453
G2 X-9.885 Y12.537 R0.5
G1 X-9.875 Y12.582
G2 X-9.85 Y12.663 R0.5
G1 X-9.834 Y12.703
G2 X-9.795 Y12.778 R0.5
G1 X-9.771 Y12.817
G2 X-9.721 Y12.885 R0.5
G1 X-9.692 Y12.917
G2 X-9.615 Y12.988 R0.5
X-9.381 Y13.158 R16.159
X-9.287 Y13.21 R0.5
G1 X-9.244 Y13.229
G2 X-9.179 Y13.251 R0.5
G1 X-9.152 Y13.259
G2 X-9.081 Y13.273 R0.5
G1 X-9.035 Y13.278
G2 X-8.951 Y13.282 R0.5
G1 X-8.908 Y13.28
G2 X-8.825 Y13.269 R0.5
G1 X-8.779 Y13.259
G2 X-8.698 Y13.234 R0.5
G1 X-8.658 Y13.218
G2 X-8.583 Y13.18 R0.5
G1 X-8.542 Y13.155
G2 X-8.485 Y13.114 R0.5
G1 X-8.407 Y13.049
X-8.358 Y13.008
X-8.286 Y12.952
X-8.276 Y12.945
X-8.257 Y12.957
X-8.251 Y12.961
X-8.189 Y13.
X-8.193 Y13.02
X-8.209 Y13.093
X-8.225 Y13.155
X-8.241 Y13.211
G2 X-8.244 Y13.225 R0.5
G1 X-8.256 Y13.274
G2 X-8.265 Y13.325 R0.5
G1 X-8.269 Y13.352
G2 X-8.273 Y13.422 R0.5
G1 Y13.469
G2 X-8.265 Y13.553 R0.5
G1 X-8.258 Y13.595
G2 X-8.236 Y13.677 R0.5
G1 X-8.22 Y13.721
G2 X-8.185 Y13.798 R0.5
G1 X-8.164 Y13.835
G2 X-8.117 Y13.905 R0.5
G1 X-8.087 Y13.941
G2 X-8.029 Y14.002 R0.5
G1 X-7.996 Y14.03
G2 X-7.912 Y14.09 R0.5
X-7.658 Y14.23 R16.159
X-7.558 Y14.27 R0.5
G1 X-7.513 Y14.283
G2 X-7.444 Y14.298 R0.5
G1 X-7.416 Y14.301
G2 X-7.347 Y14.306 R0.5
G1 X-7.3
G2 X-7.217 Y14.299 R0.5
G1 X-7.174 Y14.292
G2 X-7.091 Y14.27 R0.5
G1 X-7.047 Y14.254
G2 X-6.972 Y14.22 R0.5
G1 X-6.934 Y14.199
G2 X-6.862 Y14.151 R0.5
G1 X-6.826 Y14.121
G2 X-6.775 Y14.074 R0.5
G1 X-6.705 Y13.999
X-6.661 Y13.953
X-6.598 Y13.888
X-6.588 Y13.88
X-6.568 Y13.89
X-6.562 Y13.893
X-6.495 Y13.924
X-6.496 Y13.944
X-6.504 Y14.019
X-6.512 Y14.082
X-6.52 Y14.14
G2 X-6.521 Y14.154 R0.5
G1 X-6.527 Y14.204
G2 X-6.53 Y14.256 R0.5
G1 Y14.283
G2 X-6.526 Y14.353 R0.5
G1 X-6.52 Y14.4
G2 X-6.502 Y14.482 R0.5
G1 X-6.489 Y14.523
G2 X-6.457 Y14.601 R0.5
G1 X-6.436 Y14.643
G2 X-6.392 Y14.715 R0.5
G1 X-6.366 Y14.749
G2 X-6.31 Y14.813 R0.5
G1 X-6.276 Y14.845
G2 X-6.211 Y14.897 R0.5
G1 X-6.176 Y14.921
G2 X-6.083 Y14.971 R0.5
X-5.814 Y15.077 R16.159
X-5.71 Y15.105 R0.5
G1 X-5.664 Y15.112
G2 X-5.595 Y15.118 R0.5
G1 X-5.566
G2 X-5.495 Y15.114 R0.5
G1 X-5.449 Y15.108
G2 X-5.367 Y15.091 R0.5
G1 X-5.326 Y15.078
G2 X-5.248 Y15.047 R0.5
G1 X-5.206 Y15.026
G2 X-5.133 Y14.981 R0.5
G1 X-5.098 Y14.955
G2 X-5.035 Y14.9 R0.5
G1 X-5.002 Y14.866
G2 X-4.958 Y14.812 R0.5
G1 X-4.898 Y14.729
X-4.86 Y14.678
X-4.805 Y14.606
X-4.797 Y14.596
X-4.776 Y14.604
X-4.769 Y14.606
X-4.699 Y14.628
X-4.697 Y14.648
X-4.695 Y14.723
Y14.787
X-4.696 Y14.846
G2 Y14.859 R0.5
G1 X-4.695 Y14.91
G2 X-4.692 Y14.962 R0.5
G1 X-4.689 Y14.989
G2 X-4.676 Y15.058 R0.5
G1 X-4.664 Y15.103
G2 X-4.635 Y15.183 R0.5
G1 X-4.617 Y15.222
G2 X-4.576 Y15.295 R0.5
G1 X-4.55 Y15.334
G2 X-4.497 Y15.4 R0.5
G1 X-4.467 Y15.431
G2 X-4.404 Y15.486 R0.5
G1 X-4.367 Y15.514
G2 X-4.294 Y15.559 R0.5
G1 X-4.256 Y15.578
G2 X-4.159 Y15.615 R0.5
X-3.878 Y15.687 R16.159
X-3.772 Y15.702 R0.5
G1 X-3.726 Y15.703
G2 X-3.655 Y15.7 R0.5
G1 X-3.627 Y15.697
G2 X-3.558 Y15.684 R0.5
G1 X-3.513 Y15.672
G2 X-3.433 Y15.644 R0.5
G1 X-3.394 Y15.627
G2 X-3.32 Y15.585 R0.5
G1 X-3.281 Y15.559
G2 X-3.216 Y15.507 R0.5
G1 X-3.184 Y15.477
G2 X-3.128 Y15.413 R0.5
G1 X-3.099 Y15.375
G2 X-3.062 Y15.317 R0.5
G1 X-3.013 Y15.227
X-2.982 Y15.171
X-2.936 Y15.093
X-2.93 Y15.083
X-2.908 Y15.087
X-2.9 Y15.088
X-2.828 Y15.102
X-2.824 Y15.121
X-2.813 Y15.196
X-2.805 Y15.259
X-2.798 Y15.317
G2 X-2.797 Y15.331 R0.5
G1 X-2.79 Y15.381
G2 X-2.78 Y15.432 R0.5
G1 X-2.773 Y15.458
G2 X-2.751 Y15.526 R0.5
G1 X-2.734 Y15.569
G2 X-2.696 Y15.644 R0.5
G1 X-2.673 Y15.681
G2 X-2.623 Y15.748 R0.5
G1 X-2.592 Y15.783
G2 X-2.531 Y15.842 R0.5
G1 X-2.498 Y15.869
G2 X-2.428 Y15.916 R0.5
G1 X-2.387 Y15.939
G2 X-2.311 Y15.974 R0.5
G1 X-2.271 Y15.988
G2 X-2.169 Y16.013 R0.5
X-1.882 Y16.049 R16.159
X-1.774 Y16.05 R0.5
G1 X-1.728 Y16.046
G2 X-1.659 Y16.034 R0.5
G1 X-1.632 Y16.028
G2 X-1.564 Y16.006 R0.5
G1 X-1.521 Y15.989
G2 X-1.446 Y15.951 R0.5
G1 X-1.409 Y15.929
G2 X-1.341 Y15.879 R0.5
G1 X-1.306 Y15.848
G2 X-1.247 Y15.787 R0.5
G1 X-1.219 Y15.754
G2 X-1.171 Y15.684 R0.5
G1 X-1.148 Y15.643
G2 X-1.118 Y15.58 R0.5
G1 X-1.081 Y15.485
X-1.057 Y15.425
X-1.022 Y15.342
X-1.016 Y15.331
X-0.994 Y15.332
X-0.986 Y15.333
X-0.913 Y15.337
X-0.907 Y15.356
X-0.886 Y15.428
X-0.87 Y15.49
X-0.857 Y15.547
G2 X-0.853 Y15.56 R0.5
G1 X-0.84 Y15.609
G2 X-0.824 Y15.658 R0.5
G1 X-0.814 Y15.684
G2 X-0.784 Y15.748 R0.5
G1 X-0.761 Y15.789
G2 X-0.714 Y15.859 R0.5
G1 X-0.687 Y15.892
G2 X-0.629 Y15.953 R0.5
G1 X-0.594 Y15.984
G2 X-0.526 Y16.034 R0.5
G1 X-0.489 Y16.057
G2 X-0.414 Y16.095 R0.5
G1 X-0.37 Y16.113
G2 X-0.29 Y16.138 R0.5
G1 X-0.248 Y16.147
G2 X-0.145 Y16.159 R0.5
X0.145 R16.159
X0.251 Y16.146 R0.5
G1 X0.296 Y16.136
G2 X0.363 Y16.116 R0.5
G1 X0.39 Y16.106
G2 X0.455 Y16.076 R0.5
G1 X0.495 Y16.053
G2 X0.565 Y16.007 R0.5
G1 X0.598 Y15.98
G2 X0.66 Y15.922 R0.5
G1 X0.691 Y15.887
G2 X0.742 Y15.819 R0.5
G1 X0.765 Y15.782
G2 X0.804 Y15.707 R0.5
G1 X0.821 Y15.663
G2 X0.843 Y15.597 R0.5
G1 X0.868 Y15.498
X0.884 Y15.436
X0.909 Y15.349
X0.913 Y15.337
X0.936 Y15.336
X0.943
X1.016 Y15.331
X1.025 Y15.349
X1.054 Y15.418
X1.078 Y15.477
X1.099 Y15.532
G2 X1.104 Y15.545 R0.5
G1 X1.123 Y15.592
G2 X1.145 Y15.638 R0.5
G1 X1.158 Y15.662
G2 X1.196 Y15.722 R0.5
G1 X1.224 Y15.76
G2 X1.279 Y15.823 R0.5
G1 X1.31 Y15.853
G2 X1.376 Y15.906 R0.5
G1 X1.415 Y15.932
G2 X1.488 Y15.974 R0.5
G1 X1.527 Y15.992
G2 X1.606 Y16.02 R0.5
G1 X1.652 Y16.032
G2 X1.734 Y16.047 R0.5
G1 X1.777 Y16.051
G2 X1.882 Y16.049 R0.5
X2.169 Y16.013 R16.159
X2.273 Y15.988 R0.5
G1 X2.316 Y15.972
G2 X2.381 Y15.943 R0.5
G1 X2.406 Y15.93
G2 X2.466 Y15.892 R0.5
G1 X2.503 Y15.865
G2 X2.567 Y15.809 R0.5
G1 X2.597 Y15.778
G2 X2.65 Y15.713 R0.5
G1 X2.677 Y15.675
G2 X2.719 Y15.601 R0.5
G1 X2.737 Y15.562
G2 X2.766 Y15.482 R0.5
G1 X2.778 Y15.437
G2 X2.791 Y15.368 R0.5
G1 X2.804 Y15.267
X2.812 Y15.204
X2.826 Y15.114
X2.828 Y15.102
X2.85 Y15.098
X2.858 Y15.096
X2.93 Y15.082
X2.94 Y15.099
X2.978 Y15.164
X3.009 Y15.22
X3.037 Y15.272
G2 X3.043 Y15.284 R0.5
G1 X3.068 Y15.328
G2 X3.096 Y15.372 R0.5
G1 X3.112 Y15.394
G2 X3.158 Y15.449 R0.5
G1 X3.19 Y15.482
G2 X3.252 Y15.537 R0.5
G1 X3.287 Y15.563
G2 X3.359 Y15.608 R0.5
G1 X3.4 Y15.629
G2 X3.478 Y15.661 R0.5
G1 X3.52 Y15.674
G2 X3.601 Y15.692 R0.5
G1 X3.647 Y15.699
G2 X3.732 Y15.703 R0.5
G1 X3.776 Y15.701
G2 X3.878 Y15.687 R0.5
X4.159 Y15.615 R16.159
X4.259 Y15.576 R0.5
G1 X4.3 Y15.555
G2 X4.36 Y15.519 R0.5
G1 X4.383 Y15.503
G2 X4.438 Y15.458 R0.5
G1 X4.472 Y15.426
G2 X4.528 Y15.363 R0.5
G1 X4.554 Y15.329
G2 X4.599 Y15.257 R0.5
G1 X4.62 Y15.215
G2 X4.653 Y15.138 R0.5
G1 X4.666 Y15.097
G2 X4.684 Y15.013 R0.5
G1 X4.691 Y14.967
G2 X4.696 Y14.897 R0.5
G1 X4.695 Y14.795
Y14.731
X4.698 Y14.641
X4.699 Y14.628
X4.72 Y14.622
X4.727 Y14.619
X4.797 Y14.596
X4.81 Y14.612
X4.856 Y14.671
X4.893 Y14.723
X4.927 Y14.771
G2 X4.935 Y14.782 R0.5
G1 X4.965 Y14.822
G2 X4.999 Y14.862 R0.5
G1 X5.017 Y14.883
G2 X5.068 Y14.93 R0.5
G1 X5.104 Y14.96
G2 X5.174 Y15.008 R0.5
G1 X5.212 Y15.029
G2 X5.289 Y15.064 R0.5
G1 X5.332 Y15.08
G2 X5.413 Y15.102 R0.5
G1 X5.456 Y15.109
G2 X5.54 Y15.117 R0.5
G1 X5.587 Y15.118
G2 X5.671 Y15.111 R0.5
G1 X5.714 Y15.104
G2 X5.814 Y15.077 R0.5
X6.083 Y14.971 R16.159
X6.177 Y14.92 R0.5
G1 X6.216 Y14.894
G2 X6.272 Y14.849 R0.5
G1 X6.293 Y14.83
G2 X6.34 Y14.78 R0.5
G1 X6.37 Y14.744
G2 X6.418 Y14.674 R0.5
G1 X6.439 Y14.637
G2 X6.475 Y14.561 R0.5
G1 X6.491 Y14.517
G2 X6.513 Y14.435 R0.5
G1 X6.521 Y14.393
G2 X6.529 Y14.308 R0.5
G1 X6.53 Y14.261
G2 X6.526 Y14.191 R0.5
G1 X6.513 Y14.09
X6.505 Y14.027
X6.496 Y13.936
X6.495 Y13.924
X6.516 Y13.915
X6.522 Y13.912
X6.589 Y13.88
X6.603 Y13.894
X6.656 Y13.947
X6.7 Y13.994
X6.739 Y14.037
G2 X6.748 Y14.046 R0.5
G1 X6.784 Y14.083
G2 X6.822 Y14.119 R0.5
G1 X6.843 Y14.136
G2 X6.9 Y14.178 R0.5
G1 X6.939 Y14.202
G2 X7.014 Y14.241 R0.5
G1 X7.054 Y14.257
G2 X7.135 Y14.282 R0.5
G1 X7.18 Y14.293
G2 X7.263 Y14.304 R0.5
G1 X7.306 Y14.306
G2 X7.391 Y14.304 R0.5
G1 X7.437 Y14.298
G2 X7.52 Y14.281 R0.5
G1 X7.562 Y14.269
G2 X7.658 Y14.23 R0.5
X7.912 Y14.09 R16.159
X7.999 Y14.028 R0.5
G1 X8.033 Y13.997
G2 X8.083 Y13.947 R0.5
G1 X8.101 Y13.925
G2 X8.143 Y13.869 R0.5
G1 X8.167 Y13.829
G2 X8.206 Y13.754 R0.5
G1 X8.223 Y13.714
G2 X8.249 Y13.634 R0.5
G1 X8.259 Y13.589
G2 X8.271 Y13.505 R0.5
G1 X8.273 Y13.462
G2 X8.271 Y13.377 R0.5
G1 X8.266 Y13.33
G2 X8.253 Y13.261 R0.5
G1 X8.227 Y13.163
X8.211 Y13.101
X8.191 Y13.012
X8.189 Y13.
X8.208 Y12.988
X8.214 Y12.984
X8.276 Y12.945
X8.292 Y12.956
X8.351 Y13.003
X8.401 Y13.044
X8.446 Y13.082
G2 X8.456 Y13.09 R0.5
G1 X8.496 Y13.122
G2 X8.537 Y13.152 R0.5
G1 X8.56 Y13.167
G2 X8.623 Y13.201 R0.5
G1 X8.665 Y13.221
G2 X8.744 Y13.249 R0.5
G1 X8.785 Y13.261
G2 X8.869 Y13.276 R0.5
G1 X8.915 Y13.28
G2 X8.998 Y13.281 R0.5
G1 X9.041 Y13.278
G2 X9.126 Y13.265 R0.5
G1 X9.171 Y13.253
G2 X9.251 Y13.226 R0.5
G1 X9.29 Y13.209
G2 X9.381 Y13.158 R0.5
X9.615 Y12.988 R16.159
X9.694 Y12.915 R0.5
G1 X9.724 Y12.88
G2 X9.767 Y12.823 R0.5
G1 X9.783 Y12.799
G2 X9.817 Y12.739 R0.5
G1 X9.836 Y12.696
G2 X9.866 Y12.617 R0.5
G1 X9.877 Y12.576
G2 X9.892 Y12.493 R0.5
G1 X9.897 Y12.446
G2 X9.898 Y12.362 R0.5
G1 X9.895 Y12.319
G2 X9.882 Y12.235 R0.5
G1 X9.871 Y12.189
G2 X9.85 Y12.123 R0.5
G1 X9.812 Y12.028
X9.788 Y11.968
X9.758 Y11.883
X9.754 Y11.871
X9.771 Y11.857
X9.777 Y11.852
X9.833 Y11.805
X9.851 Y11.815
X9.915 Y11.854
X9.97 Y11.888
X10.018 Y11.92
G2 X10.03 Y11.927 R0.5
G1 X10.073 Y11.954
G2 X10.118 Y11.978 R0.5
G1 X10.143 Y11.99
G2 X10.21 Y12.017 R0.5
G1 X10.254 Y12.031
G2 X10.335 Y12.049 R0.5
G1 X10.378 Y12.055
G2 X10.462 Y12.059 R0.5
G1 X10.509 Y12.058
G2 X10.593 Y12.048 R0.5
G1 X10.636 Y12.04
G2 X10.716 Y12.016 R0.5
G1 X10.76 Y11.999
G2 X10.835 Y11.963 R0.5
G1 X10.872 Y11.941
G2 X10.956 Y11.878 R0.5
X11.167 Y11.68 R16.159
X11.236 Y11.598 R0.5
G1 X11.262 Y11.56
G2 X11.297 Y11.498 R0.5
G1 X11.31 Y11.472
G2 X11.336 Y11.408 R0.5
G1 X11.35 Y11.363
G2 X11.369 Y11.282 R0.5
G1 X11.375 Y11.239
G2 X11.38 Y11.154 R0.5
G1 X11.379 Y11.108
G2 X11.37 Y11.024 R0.5
G1 X11.361 Y10.981
G2 X11.338 Y10.9 R0.5
G1 X11.321 Y10.856
G2 X11.292 Y10.792 R0.5
G1 X11.242 Y10.703
X11.211 Y10.647
X11.17 Y10.566
X11.165 Y10.555
X11.18 Y10.539
X11.185 Y10.534
X11.235 Y10.48
X11.254 Y10.487
X11.323 Y10.517
X11.381 Y10.545
X11.433 Y10.57
G2 X11.446 Y10.576 R0.5
G1 X11.493 Y10.597
G2 X11.54 Y10.616 R0.5
G1 X11.566 Y10.625
G2 X11.634 Y10.642 R0.5
G1 X11.68 Y10.65
G2 X11.763 Y10.659 R0.5
G1 X11.807
G2 X11.892 Y10.653 R0.5
G1 X11.938 Y10.646
G2 X12.019 Y10.626 R0.5
G1 X12.06 Y10.612
G2 X12.137 Y10.578 R0.5
G1 X12.178 Y10.556
G2 X12.249 Y10.51 R0.5
G1 X12.283 Y10.484
G2 X12.358 Y10.412 R0.5
X12.543 Y10.188 R16.159
X12.601 Y10.098 R0.5
G1 X12.622 Y10.056
G2 X12.649 Y9.993 R0.5
G1 X12.658 Y9.966
G2 X12.676 Y9.897 R0.5
G1 X12.685 Y9.851
G2 X12.693 Y9.767 R0.5
G1 X12.694 Y9.724
G2 X12.689 Y9.64 R0.5
G1 X12.682 Y9.594
G2 X12.662 Y9.512 R0.5
G1 X12.648 Y9.471
G2 X12.615 Y9.393 R0.5
G1 X12.592 Y9.351
G2 X12.555 Y9.292 R0.5
G1 X12.495 Y9.21
X12.457 Y9.158
X12.406 Y9.083
X12.4 Y9.073
X12.413 Y9.055
X12.417 Y9.049
X12.46 Y8.989
X12.48 Y8.994
X12.552 Y9.015
X12.613 Y9.035
X12.668 Y9.054
G2 X12.681 Y9.058 R0.5
G1 X12.73 Y9.073
G2 X12.779 Y9.086 R0.5
G1 X12.806 Y9.091
G2 X12.877 Y9.1 R0.5
G1 X12.923 Y9.103
G2 X13.007 Y9.1 R0.5
G1 X13.05 Y9.095
G2 X13.133 Y9.079 R0.5
G1 X13.178 Y9.066
G2 X13.256 Y9.035 R0.5
G1 X13.295 Y9.017
G2 X13.367 Y8.974 R0.5
G1 X13.405 Y8.947
G2 X13.47 Y8.892 R0.5
G1 X13.5 Y8.862
G2 X13.566 Y8.781 R0.5
X13.721 Y8.536 R16.159
X13.767 Y8.439 R0.5
G1 X13.783 Y8.396
G2 X13.802 Y8.328 R0.5
G1 X13.807 Y8.3
G2 X13.817 Y8.23 R0.5
G1 X13.819 Y8.184
G2 X13.818 Y8.1 R0.5
G1 X13.813 Y8.057
G2 X13.797 Y7.973 R0.5
G1 X13.784 Y7.929
G2 X13.754 Y7.851 R0.5
G1 X13.736 Y7.812
G2 X13.692 Y7.737 R0.5
G1 X13.665 Y7.699
G2 X13.621 Y7.645 R0.5
G1 X13.551 Y7.571
X13.507 Y7.524
X13.447 Y7.457
X13.439 Y7.447
X13.45 Y7.427
X13.454 Y7.421
X13.489 Y7.356
X13.509 Y7.359
X13.583 Y7.371
X13.646 Y7.383
X13.703 Y7.395
G2 X13.716 Y7.397 R0.5
G1 X13.766 Y7.406
G2 X13.818 Y7.412 R0.5
G1 X13.845 Y7.414
G2 X13.915 R0.5
G1 X13.962 Y7.411
G2 X14.045 Y7.398 R0.5
G1 X14.087 Y7.388
G2 X14.167 Y7.361 R0.5
G1 X14.21 Y7.343
G2 X14.284 Y7.303 R0.5
G1 X14.32 Y7.279
G2 X14.387 Y7.228 R0.5
G1 X14.421 Y7.196
G2 X14.478 Y7.134 R0.5
G1 X14.505 Y7.099
G2 X14.559 Y7.011 R0.5
X14.683 Y6.749 R16.159
X14.717 Y6.648 R0.5
G1 X14.727 Y6.602
G2 X14.737 Y6.533 R0.5
G1 X14.739 Y6.505
G2 Y6.433 R0.5
G1 X14.736 Y6.387
G2 X14.724 Y6.304 R0.5
G1 X14.714 Y6.262
G2 X14.687 Y6.182 R0.5
G1 X14.669 Y6.139
G2 X14.629 Y6.064 R0.5
G1 X14.606 Y6.028
G2 X14.554 Y5.961 R0.5
G1 X14.522 Y5.926
G2 X14.472 Y5.878 R0.5
G1 X14.393 Y5.813
X14.343 Y5.772
X14.275 Y5.713
X14.266 Y5.704
X14.275 Y5.683
X14.277 Y5.676
X14.304 Y5.608
X14.324
X14.399 Y5.611
X14.463 Y5.615
X14.522 Y5.619
G2 X14.535 Y5.62 R0.5
G1 X14.586 Y5.622
G2 X14.637 R0.5
G1 X14.665 Y5.621
G2 X14.735 Y5.612 R0.5
G1 X14.781 Y5.603
G2 X14.862 Y5.579 R0.5
G1 X14.902 Y5.564
G2 X14.978 Y5.528 R0.5
G1 X15.018 Y5.504
G2 X15.087 Y5.455 R0.5
G1 X15.12 Y5.427
G2 X15.179 Y5.368 R0.5
G1 X15.209 Y5.332
G2 X15.258 Y5.263 R0.5
G1 X15.28 Y5.226
G2 X15.323 Y5.131 R0.5
X15.413 Y4.855 R16.159
X15.434 Y4.75 R0.5
G1 X15.438 Y4.704
G2 X15.439 Y4.634 R0.5
G1 X15.438 Y4.606
G2 X15.43 Y4.536 R0.5
G1 X15.421 Y4.49
G2 X15.397 Y4.408 R0.5
G1 X15.382 Y4.367
G2 X15.346 Y4.292 R0.5
G1 X15.323 Y4.252
G2 X15.275 Y4.183 R0.5
G1 X15.247 Y4.15
G2 X15.186 Y4.089 R0.5
G1 X15.151 Y4.059
G2 X15.094 Y4.018 R0.5
G1 X15.008 Y3.963
X14.954 Y3.929
X14.879 Y3.878
X14.869 Y3.871
X14.875 Y3.849
X14.876 Y3.842
X14.894 Y3.771
X14.914 Y3.768
X14.989 Y3.762
X15.053 Y3.758
X15.111 Y3.755
G2 X15.125 Y3.754 R0.5
G1 X15.176 Y3.75
G2 X15.227 Y3.743 R0.5
G1 X15.254 Y3.738
G2 X15.322 Y3.721 R0.5
G1 X15.367 Y3.706
G2 X15.444 Y3.673 R0.5
G1 X15.482 Y3.652
G2 X15.552 Y3.607 R0.5
G1 X15.589 Y3.578
G2 X15.651 Y3.521 R0.5
G1 X15.681 Y3.49
G2 X15.733 Y3.422 R0.5
G1 X15.758 Y3.383
G2 X15.797 Y3.309 R0.5
G1 X15.814 Y3.27
G2 X15.845 Y3.17 R0.5
X15.9 Y2.886 R16.159
X15.907 Y2.779 R0.5
G1 X15.906 Y2.733
G2 X15.898 Y2.662 R0.5
G1 X15.893 Y2.634
G2 X15.876 Y2.566 R0.5
G1 X15.862 Y2.522
G2 X15.829 Y2.444 R0.5
G1 X15.808 Y2.406
G2 X15.763 Y2.335 R0.5
G1 X15.735 Y2.298
G2 X15.678 Y2.236 R0.5
G1 X15.646 Y2.206
G2 X15.579 Y2.154 R0.5
G1 X15.54 Y2.128
G2 X15.479 Y2.094 R0.5
G1 X15.386 Y2.051
X15.328 Y2.024
X15.247 Y1.983
X15.237 Y1.977
X15.24 Y1.955
X15.241 Y1.947
X15.249 Y1.874
X15.269 Y1.869
X15.342 Y1.853
X15.405 Y1.841
X15.463 Y1.831
G2 X15.476 Y1.829 R0.5
G1 X15.526 Y1.818
G2 X15.576 Y1.805 R0.5
G1 X15.602 Y1.797
G2 X15.668 Y1.771 R0.5
G1 X15.71 Y1.751
G2 X15.782 Y1.708 R0.5
G1 X15.817 Y1.683
G2 X15.882 Y1.629 R0.5
G1 X15.915 Y1.596
G2 X15.97 Y1.531 R0.5
G1 X15.995 Y1.496
G2 X16.037 Y1.424 R0.5
G1 X16.057 Y1.382
G2 X16.088 Y1.303 R0.5
G1 X16.1 Y1.261
G2 X16.118 Y1.159 R0.5
X16.136 Y0.87 R16.159
X16.13 Y0.763 R0.5
G1 X16.123 Y0.717
G2 X16.107 Y0.649 R0.5
G1 X16.098 Y0.622
G2 X16.073 Y0.556 R0.5
G1 X16.053 Y0.513
G2 X16.01 Y0.441 R0.5
G1 X15.986 Y0.406
G2 X15.931 Y0.341 R0.5
G1 X15.899 Y0.308
G2 X15.835 Y0.253 R0.5
G1 X15.8 Y0.228
G2 X15.726 Y0.184 R0.5
G1 X15.684 Y0.164
G2 X15.619 Y0.138 R0.5
G1 X15.522 Y0.106
X15.461 Y0.087
X15.376 Y0.056
X15.364 Y0.051
Y0.029
Y0.022
Y-0.052
X15.383 Y-0.059
X15.454 Y-0.084
X15.514 Y-0.104
X15.57 Y-0.121
G2 X15.583 Y-0.125 R0.5
G1 X15.631 Y-0.142
G2 X15.679 Y-0.161 R0.5
G1 X15.704 Y-0.173
G2 X15.766 Y-0.207 R0.5
G1 X15.805 Y-0.232
G2 X15.872 Y-0.283 R0.5
G1 X15.904 Y-0.312
G2 X15.961 Y-0.375 R0.5
G1 X15.99 Y-0.411
G2 X16.036 Y-0.482 R0.5
G1 X16.056 Y-0.52
G2 X16.089 Y-0.597 R0.5
G1 X16.104 Y-0.642
G2 X16.124 Y-0.723 R0.5
G1 X16.131 Y-0.766
G2 X16.136 Y-0.87 R0.5
X16.118 Y-1.159 R16.159
X16.099 Y-1.264 R0.5
G1 X16.086 Y-1.309
G2 X16.061 Y-1.375 R0.5
G1 X16.049 Y-1.401
G2 X16.016 Y-1.463 R0.5
G1 X15.99 Y-1.502
G2 X15.94 Y-1.569 R0.5
G1 X15.911 Y-1.601
G2 X15.849 Y-1.659 R0.5
G1 X15.812 Y-1.687
G2 X15.742 Y-1.734 R0.5
G1 X15.704 Y-1.754
G2 X15.625 Y-1.788 R0.5
G1 X15.581 Y-1.803
G2 X15.513 Y-1.821 R0.5
G1 X15.413 Y-1.84
X15.35 Y-1.852
X15.262 Y-1.871
X15.25 Y-1.875
X15.247 Y-1.897
X15.246 Y-1.904
X15.236 Y-1.977
X15.254 Y-1.987
X15.321 Y-2.02
X15.379 Y-2.048
X15.432 Y-2.072
G2 X15.445 Y-2.078 R0.5
G1 X15.49 Y-2.1
G2 X15.536 Y-2.125 R0.5
G1 X15.56 Y-2.14
G2 X15.615 Y-2.181 R0.5
G1 X15.651 Y-2.211
G2 X15.712 Y-2.271 R0.5
G1 X15.74 Y-2.304
G2 X15.788 Y-2.372 R0.5
G1 X15.812 Y-2.412
G2 X15.849 Y-2.488 R0.5
G1 X15.864 Y-2.528
G2 X15.888 Y-2.61 R0.5
G1 X15.897 Y-2.655
G2 X15.906 Y-2.738 R0.5
G1 X15.907 Y-2.781
G2 X15.9 Y-2.886 R0.5
X15.845 Y-3.17 R16.159
X15.813 Y-3.273 R0.5
G1 X15.794 Y-3.315
G2 X15.762 Y-3.377 R0.5
G1 X15.747 Y-3.401
G2 X15.706 Y-3.458 R0.5
G1 X15.676 Y-3.494
G2 X15.617 Y-3.554 R0.5
G1 X15.584 Y-3.582
G2 X15.516 Y-3.632 R0.5
G1 X15.476 Y-3.656
G2 X15.4 Y-3.693 R0.5
G1 X15.36 Y-3.709
G2 X15.278 Y-3.733 R0.5
G1 X15.232 Y-3.742
G2 X15.163 Y-3.751 R0.5
G1 X15.061 Y-3.757
X14.997 Y-3.761
X14.907 Y-3.769
X14.894 Y-3.771
X14.889 Y-3.793
X14.887 Y-3.8
X14.869 Y-3.871
X14.885 Y-3.883
X14.947 Y-3.925
X15.001 Y-3.959
X15.051 Y-3.99
G2 X15.062 Y-3.997 R0.5
G1 X15.105 Y-4.025
G2 X15.146 Y-4.055 R0.5
G1 X15.168 Y-4.073
G2 X15.219 Y-4.121 R0.5
G1 X15.251 Y-4.155
G2 X15.303 Y-4.222 R0.5
G1 X15.327 Y-4.258
G2 X15.366 Y-4.332 R0.5
G1 X15.385 Y-4.374
G2 X15.412 Y-4.455 R0.5
G1 X15.422 Y-4.497
G2 X15.435 Y-4.58 R0.5
G1 X15.439 Y-4.627
G2 X15.438 Y-4.711 R0.5
G1 X15.433 Y-4.754
G2 X15.413 Y-4.855 R0.5
X15.323 Y-5.131 R16.159
X15.278 Y-5.229 R0.5
G1 X15.254 Y-5.269
G2 X15.215 Y-5.326 R0.5
G1 X15.197 Y-5.348
G2 X15.148 Y-5.4 R0.5
G1 X15.114 Y-5.432
G2 X15.048 Y-5.484 R0.5
G1 X15.012 Y-5.508
G2 X14.938 Y-5.548 R0.5
G1 X14.895 Y-5.567
G2 X14.816 Y-5.594 R0.5
G1 X14.774 Y-5.604
G2 X14.69 Y-5.618 R0.5
G1 X14.643 Y-5.621
G2 X14.573 Y-5.622 R0.5
G1 X14.471 Y-5.615
X14.407 Y-5.611
X14.317 Y-5.608
X14.304
X14.296 Y-5.629
X14.294 Y-5.636
X14.266 Y-5.704
X14.281 Y-5.718
X14.337 Y-5.767
X14.387 Y-5.808
X14.432 Y-5.845
G2 X14.443 Y-5.853 R0.5
G1 X14.481 Y-5.886
G2 X14.519 Y-5.922 R0.5
G1 X14.538 Y-5.942
G2 X14.583 Y-5.996 R0.5
G1 X14.61 Y-6.033
G2 X14.653 Y-6.106 R0.5
G1 X14.672 Y-6.145
G2 X14.702 Y-6.224 R0.5
G1 X14.715 Y-6.269
G2 X14.732 Y-6.351 R0.5
G1 X14.737 Y-6.394
G2 X14.74 Y-6.478 R0.5
G1 X14.737 Y-6.525
G2 X14.725 Y-6.609 R0.5
G1 X14.716 Y-6.651
G2 X14.683 Y-6.749 R0.5
X14.559 Y-7.011 R16.159
X14.502 Y-7.102 R0.5
G1 X14.474 Y-7.139
G2 X14.427 Y-7.191 R0.5
G1 X14.406 Y-7.211
G2 X14.352 Y-7.256 R0.5
G1 X14.315 Y-7.283
G2 X14.243 Y-7.326 R0.5
G1 X14.204 Y-7.345
G2 X14.125 Y-7.376 R0.5
G1 X14.08 Y-7.39
G2 X13.998 Y-7.407 R0.5
G1 X13.955 Y-7.412
G2 X13.87 Y-7.415 R0.5
G1 X13.823 Y-7.412
G2 X13.754 Y-7.404 R0.5
G1 X13.653 Y-7.385
X13.59 Y-7.372
X13.501 Y-7.358
X13.489 Y-7.357
X13.478 Y-7.376
X13.474 Y-7.383
X13.439 Y-7.447
X13.452 Y-7.462
X13.501 Y-7.519
X13.545 Y-7.565
X13.586 Y-7.607
G2 X13.595 Y-7.618 R0.5
G1 X13.63 Y-7.655
G2 X13.662 Y-7.694 R0.5
G1 X13.678 Y-7.717
G2 X13.716 Y-7.776 R0.5
G1 X13.738 Y-7.817
G2 X13.773 Y-7.895 R0.5
G1 X13.786 Y-7.936
G2 X13.806 Y-8.017 R0.5
G1 X13.814 Y-8.063
G2 X13.82 Y-8.148 R0.5
G1 X13.819 Y-8.191
G2 X13.811 Y-8.274 R0.5
G1 X13.803 Y-8.32
G2 X13.781 Y-8.402 R0.5
G1 X13.766 Y-8.443
G2 X13.721 Y-8.536 R0.5
X13.566 Y-8.781 R16.159
X13.498 Y-8.864 R0.5
G1 X13.465 Y-8.896
G2 X13.412 Y-8.942 R0.5
G1 X13.389 Y-8.959
G2 X13.33 Y-8.997 R0.5
G1 X13.289 Y-9.02
G2 X13.212 Y-9.054 R0.5
G1 X13.171 Y-9.068
G2 X13.089 Y-9.089 R0.5
G1 X13.043 Y-9.096
G2 X12.959 Y-9.103 R0.5
G1 X12.916 Y-9.102
G2 X12.831 Y-9.095 R0.5
G1 X12.785 Y-9.086
G2 X12.717 Y-9.069 R0.5
G1 X12.62 Y-9.038
X12.559 Y-9.018
X12.472 Y-8.992
X12.46 Y-8.989
X12.447 Y-9.007
X12.443 Y-9.013
X12.399 Y-9.073
X12.41 Y-9.09
X12.453 Y-9.151
X12.49 Y-9.203
X12.525 Y-9.25
G2 X12.534 Y-9.261 R0.5
G1 X12.563 Y-9.303
G2 X12.59 Y-9.346 R0.5
G1 X12.603 Y-9.37
G2 X12.634 Y-9.435 R0.5
G1 X12.651 Y-9.478
G2 X12.674 Y-9.558 R0.5
G1 X12.683 Y-9.6
G2 X12.693 Y-9.685 R0.5
G1 X12.694 Y-9.731
G2 X12.69 Y-9.816 R0.5
G1 X12.684 Y-9.858
G2 X12.665 Y-9.94 R0.5
G1 X12.651 Y-9.985
G2 X12.62 Y-10.062 R0.5
G1 X12.6 Y-10.101
G2 X12.543 Y-10.188 R0.5
X12.358 Y-10.412 R16.159
X12.281 Y-10.486 R0.5
G1 X12.244 Y-10.514
G2 X12.185 Y-10.553 R0.5
G1 X12.161 Y-10.567
G2 X12.097 Y-10.597 R0.5
G1 X12.054 Y-10.614
G2 X11.973 Y-10.638 R0.5
G1 X11.93 Y-10.647
G2 X11.848 Y-10.657 R0.5
G1 X11.801 Y-10.659
G2 X11.716 Y-10.655 R0.5
G1 X11.673 Y-10.649
G2 X11.589 Y-10.631 R0.5
G1 X11.544 Y-10.617
G2 X11.481 Y-10.592 R0.5
G1 X11.388 Y-10.548
X11.33 Y-10.521
X11.247 Y-10.484
X11.235 Y-10.48
X11.22 Y-10.496
X11.215 Y-10.502
X11.165 Y-10.555
X11.173 Y-10.574
X11.207 Y-10.64
X11.238 Y-10.696
X11.267 Y-10.747
G2 X11.274 Y-10.759 R0.5
G1 X11.298 Y-10.804
G2 X11.319 Y-10.85 R0.5
G1 X11.329 Y-10.875
G2 X11.352 Y-10.944 R0.5
G1 X11.363 Y-10.989
G2 X11.376 Y-11.071 R0.5
G1 X11.379 Y-11.114
G2 Y-11.199 R0.5
G1 X11.374 Y-11.245
G2 X11.36 Y-11.328 R0.5
G1 X11.348 Y-11.37
G2 X11.319 Y-11.45 R0.5
G1 X11.3 Y-11.492
G2 X11.259 Y-11.565 R0.5
G1 X11.234 Y-11.601
G2 X11.167 Y-11.68 R0.5
X10.956 Y-11.878 R16.159
X10.87 Y-11.942 R0.5
G1 X10.83 Y-11.965
G2 X10.767 Y-11.997 R0.5
G1 X10.74 Y-12.008
G2 X10.674 Y-12.03 R0.5
G1 X10.628 Y-12.041
G2 X10.545 Y-12.055 R0.5
G1 X10.501 Y-12.059
G2 X10.418 Y-12.058 R0.5
G1 X10.372 Y-12.054
G2 X10.288 Y-12.04 R0.5
G1 X10.247 Y-12.029
G2 X10.166 Y-12. R0.5
G1 X10.123 Y-11.98
G2 X10.062 Y-11.947 R0.5
G1 X9.976 Y-11.892
X9.922 Y-11.858
X9.844 Y-11.811
X9.833 Y-11.806
X9.816 Y-11.82
X9.811 Y-11.825
X9.754 Y-11.871
X9.76 Y-11.89
X9.786 Y-11.961
X9.809 Y-12.02
X9.831 Y-12.074
G2 X9.836 Y-12.087 R0.5
G1 X9.854 Y-12.135
G2 X9.87 Y-12.184 R0.5
G1 X9.877 Y-12.21
G2 X9.891 Y-12.28 R0.5
G1 X9.896 Y-12.326
G2 X9.899 Y-12.41 R0.5
G1 X9.897 Y-12.453
G2 X9.885 Y-12.537 R0.5
G1 X9.875 Y-12.582
G2 X9.85 Y-12.663 R0.5
G1 X9.834 Y-12.703
G2 X9.795 Y-12.778 R0.5
G1 X9.771 Y-12.817
G2 X9.721 Y-12.885 R0.5
G1 X9.692 Y-12.917
G2 X9.615 Y-12.988 R0.5
X9.381 Y-13.158 R16.159
X9.287 Y-13.21 R0.5
G1 X9.244 Y-13.229
G2 X9.179 Y-13.251 R0.5
G1 X9.152 Y-13.259
G2 X9.081 Y-13.273 R0.5
G1 X9.035 Y-13.278
G2 X8.951 Y-13.282 R0.5
G1 X8.908 Y-13.28
G2 X8.825 Y-13.269 R0.5
G1 X8.779 Y-13.259
G2 X8.698 Y-13.234 R0.5
G1 X8.658 Y-13.218
G2 X8.583 Y-13.18 R0.5
G1 X8.542 Y-13.155
G2 X8.485 Y-13.114 R0.5
G1 X8.407 Y-13.049
X8.358 Y-13.008
X8.286 Y-12.952
X8.276 Y-12.945
X8.257 Y-12.957
X8.251 Y-12.961
X8.189 Y-13.
X8.193 Y-13.02
X8.209 Y-13.093
X8.225 Y-13.155
X8.241 Y-13.211
G2 X8.244 Y-13.225 R0.5
G1 X8.256 Y-13.274
G2 X8.265 Y-13.325 R0.5
G1 X8.269 Y-13.352
G2 X8.273 Y-13.422 R0.5
G1 Y-13.469
G2 X8.265 Y-13.553 R0.5
G1 X8.258 Y-13.595
G2 X8.236 Y-13.677 R0.5
G1 X8.22 Y-13.721
G2 X8.185 Y-13.798 R0.5
G1 X8.164 Y-13.835
G2 X8.117 Y-13.905 R0.5
G1 X8.087 Y-13.941
G2 X8.029 Y-14.002 R0.5
G1 X7.996 Y-14.03
G2 X7.912 Y-14.09 R0.5
X7.658 Y-14.23 R16.159
X7.558 Y-14.27 R0.5
G1 X7.513 Y-14.283
G2 X7.444 Y-14.298 R0.5
G1 X7.416 Y-14.301
G2 X7.347 Y-14.306 R0.5
G1 X7.3
G2 X7.217 Y-14.299 R0.5
G1 X7.174 Y-14.292
G2 X7.091 Y-14.27 R0.5
G1 X7.047 Y-14.254
G2 X6.972 Y-14.22 R0.5
G1 X6.934 Y-14.199
G2 X6.862 Y-14.151 R0.5
G1 X6.826 Y-14.121
G2 X6.775 Y-14.074 R0.5
G1 X6.705 Y-13.999
X6.661 Y-13.953
X6.598 Y-13.888
X6.588 Y-13.88
X6.568 Y-13.89
X6.562 Y-13.893
X6.495 Y-13.924
X6.496 Y-13.944
X6.504 Y-14.019
X6.512 Y-14.082
X6.52 Y-14.14
G2 X6.521 Y-14.154 R0.5
G1 X6.527 Y-14.204
G2 X6.53 Y-14.256 R0.5
G1 Y-14.283
G2 X6.526 Y-14.353 R0.5
G1 X6.52 Y-14.4
G2 X6.502 Y-14.482 R0.5
G1 X6.489 Y-14.523
G2 X6.457 Y-14.601 R0.5
G1 X6.436 Y-14.643
G2 X6.392 Y-14.715 R0.5
G1 X6.366 Y-14.749
G2 X6.31 Y-14.813 R0.5
G1 X6.276 Y-14.845
G2 X6.211 Y-14.897 R0.5
G1 X6.176 Y-14.921
G2 X6.083 Y-14.971 R0.5
X5.814 Y-15.077 R16.159
X5.71 Y-15.105 R0.5
G1 X5.664 Y-15.112
G2 X5.595 Y-15.118 R0.5
G1 X5.566
G2 X5.495 Y-15.114 R0.5
G1 X5.449 Y-15.108
G2 X5.367 Y-15.091 R0.5
G1 X5.326 Y-15.078
G2 X5.248 Y-15.047 R0.5
G1 X5.206 Y-15.026
G2 X5.133 Y-14.981 R0.5
G1 X5.098 Y-14.955
G2 X5.035 Y-14.9 R0.5
G1 X5.002 Y-14.866
G2 X4.958 Y-14.812 R0.5
G1 X4.898 Y-14.729
X4.86 Y-14.678
X4.805 Y-14.606
X4.797 Y-14.596
X4.776 Y-14.604
X4.769 Y-14.606
X4.699 Y-14.628
X4.697 Y-14.648
X4.695 Y-14.723
Y-14.787
X4.696 Y-14.846
G2 Y-14.859 R0.5
G1 X4.695 Y-14.91
G2 X4.692 Y-14.962 R0.5
G1 X4.689 Y-14.989
G2 X4.676 Y-15.058 R0.5
G1 X4.664 Y-15.103
G2 X4.635 Y-15.183 R0.5
G1 X4.617 Y-15.222
G2 X4.576 Y-15.295 R0.5
G1 X4.55 Y-15.334
G2 X4.497 Y-15.4 R0.5
G1 X4.467 Y-15.431
G2 X4.404 Y-15.486 R0.5
G1 X4.367 Y-15.514
G2 X4.294 Y-15.559 R0.5
G1 X4.256 Y-15.578
G2 X4.159 Y-15.615 R0.5
X3.878 Y-15.687 R16.159
X3.772 Y-15.702 R0.5
G1 X3.726 Y-15.703
G2 X3.655 Y-15.7 R0.5
G1 X3.627 Y-15.697
G2 X3.558 Y-15.684 R0.5
G1 X3.513 Y-15.672
G2 X3.433 Y-15.644 R0.5
G1 X3.394 Y-15.627
G2 X3.32 Y-15.585 R0.5
G1 X3.281 Y-15.559
G2 X3.216 Y-15.507 R0.5
G1 X3.184 Y-15.477
G2 X3.128 Y-15.413 R0.5
G1 X3.099 Y-15.375
G2 X3.062 Y-15.317 R0.5
G1 X3.013 Y-15.227
X2.982 Y-15.171
X2.936 Y-15.093
X2.93 Y-15.083
X2.908 Y-15.087
X2.9 Y-15.088
X2.828 Y-15.102
X2.824 Y-15.121
X2.813 Y-15.196
X2.805 Y-15.259
X2.798 Y-15.317
G2 X2.797 Y-15.331 R0.5
G1 X2.79 Y-15.381
G2 X2.78 Y-15.432 R0.5
G1 X2.773 Y-15.458
G2 X2.751 Y-15.526 R0.5
G1 X2.734 Y-15.569
G2 X2.696 Y-15.644 R0.5
G1 X2.673 Y-15.681
G2 X2.623 Y-15.748 R0.5
G1 X2.592 Y-15.783
G2 X2.531 Y-15.842 R0.5
G1 X2.498 Y-15.869
G2 X2.428 Y-15.916 R0.5
G1 X2.387 Y-15.939
G2 X2.311 Y-15.974 R0.5
G1 X2.271 Y-15.988
G2 X2.169 Y-16.013 R0.5
X1.882 Y-16.049 R16.159
X1.774 Y-16.05 R0.5
G1 X1.728 Y-16.046
G2 X1.659 Y-16.034 R0.5
G1 X1.632 Y-16.028
G2 X1.564 Y-16.006 R0.5
G1 X1.521 Y-15.989
G2 X1.446 Y-15.951 R0.5
G1 X1.409 Y-15.929
G2 X1.341 Y-15.879 R0.5
G1 X1.306 Y-15.848
G2 X1.247 Y-15.787 R0.5
G1 X1.219 Y-15.754
G2 X1.171 Y-15.684 R0.5
G1 X1.148 Y-15.643
G2 X1.118 Y-15.58 R0.5
G1 X1.081 Y-15.485
X1.057 Y-15.425
X1.022 Y-15.342
X1.016 Y-15.331
X0.994 Y-15.332
X0.986 Y-15.333
X0.913 Y-15.337
X0.907 Y-15.356
X0.886 Y-15.428
X0.87 Y-15.49
X0.857 Y-15.547
G2 X0.853 Y-15.56 R0.5
G1 X0.84 Y-15.609
G2 X0.824 Y-15.658 R0.5
G1 X0.814 Y-15.684
G2 X0.784 Y-15.748 R0.5
G1 X0.761 Y-15.789
G2 X0.714 Y-15.859 R0.5
G1 X0.687 Y-15.892
G2 X0.629 Y-15.953 R0.5
G1 X0.594 Y-15.984
G2 X0.526 Y-16.034 R0.5
G1 X0.489 Y-16.057
G2 X0.414 Y-16.095 R0.5
G1 X0.37 Y-16.113
G2 X0.29 Y-16.138 R0.5
G1 X0.248 Y-16.147
G2 X0.145 Y-16.159 R0.5
X-0.145 R16.159
X-0.251 Y-16.146 R0.5
G1 X-0.296 Y-16.136
G2 X-0.363 Y-16.116 R0.5
G1 X-0.39 Y-16.106
G2 X-0.455 Y-16.076 R0.5
G1 X-0.495 Y-16.053
G2 X-0.565 Y-16.007 R0.5
G1 X-0.598 Y-15.98
G2 X-0.66 Y-15.922 R0.5
G1 X-0.691 Y-15.887
G2 X-0.742 Y-15.819 R0.5
G1 X-0.765 Y-15.782
G2 X-0.804 Y-15.707 R0.5
G1 X-0.821 Y-15.663
G2 X-0.843 Y-15.597 R0.5
G1 X-0.868 Y-15.498
X-0.884 Y-15.436
X-0.909 Y-15.349
X-0.913 Y-15.337
X-0.936 Y-15.336
X-0.943
X-1.016 Y-15.331
X-1.025 Y-15.349
X-1.054 Y-15.418
X-1.078 Y-15.477
X-1.099 Y-15.532
G2 X-1.104 Y-15.545 R0.5
G1 X-1.123 Y-15.592
G2 X-1.145 Y-15.638 R0.5
G1 X-1.158 Y-15.662
G2 X-1.196 Y-15.722 R0.5
G1 X-1.224 Y-15.76
G2 X-1.279 Y-15.823 R0.5
G1 X-1.31 Y-15.853
G2 X-1.376 Y-15.906 R0.5
G1 X-1.415 Y-15.932
G2 X-1.488 Y-15.974 R0.5
G1 X-1.527 Y-15.992
G2 X-1.606 Y-16.02 R0.5
G1 X-1.652 Y-16.032
G2 X-1.734 Y-16.047 R0.5
G1 X-1.777 Y-16.051
G2 X-1.882 Y-16.049 R0.5
X-2.169 Y-16.013 R16.159
X-2.273 Y-15.988 R0.5
G1 X-2.316 Y-15.972
G2 X-2.381 Y-15.943 R0.5
G1 X-2.406 Y-15.93
G2 X-2.466 Y-15.892 R0.5
G1 X-2.503 Y-15.865
G2 X-2.567 Y-15.809 R0.5
G1 X-2.597 Y-15.778
G2 X-2.65 Y-15.713 R0.5
G1 X-2.677 Y-15.675
G2 X-2.719 Y-15.601 R0.5
G1 X-2.737 Y-15.562
G2 X-2.766 Y-15.482 R0.5
G1 X-2.778 Y-15.437
G2 X-2.791 Y-15.368 R0.5
G1 X-2.804 Y-15.267
X-2.812 Y-15.204
X-2.826 Y-15.114
X-2.828 Y-15.102
X-2.85 Y-15.098
X-2.858 Y-15.096
X-2.93 Y-15.082
X-2.94 Y-15.099
X-2.978 Y-15.164
X-3.009 Y-15.22
X-3.037 Y-15.272
G2 X-3.043 Y-15.284 R0.5
G1 X-3.068 Y-15.328
G2 X-3.096 Y-15.372 R0.5
G1 X-3.112 Y-15.394
G2 X-3.158 Y-15.449 R0.5
G1 X-3.19 Y-15.482
G2 X-3.252 Y-15.537 R0.5
G1 X-3.287 Y-15.563
G2 X-3.359 Y-15.608 R0.5
G1 X-3.4 Y-15.629
G2 X-3.478 Y-15.661 R0.5
G1 X-3.52 Y-15.674
G2 X-3.601 Y-15.692 R0.5
G1 X-3.647 Y-15.699
G2 X-3.732 Y-15.703 R0.5
G1 X-3.776 Y-15.701
G2 X-3.878 Y-15.687 R0.5
X-4.159 Y-15.615 R16.159
X-4.259 Y-15.576 R0.5
G1 X-4.3 Y-15.555
G2 X-4.36 Y-15.519 R0.5
G1 X-4.383 Y-15.503
G2 X-4.438 Y-15.458 R0.5
G1 X-4.472 Y-15.426
G2 X-4.528 Y-15.363 R0.5
G1 X-4.554 Y-15.329
G2 X-4.599 Y-15.257 R0.5
G1 X-4.62 Y-15.215
G2 X-4.653 Y-15.138 R0.5
G1 X-4.666 Y-15.097
G2 X-4.684 Y-15.013 R0.5
G1 X-4.691 Y-14.967
G2 X-4.696 Y-14.897 R0.5
G1 X-4.695 Y-14.795
Y-14.731
X-4.698 Y-14.641
X-4.699 Y-14.628
X-4.72 Y-14.622
X-4.727 Y-14.619
X-4.797 Y-14.596
X-4.81 Y-14.612
X-4.856 Y-14.671
X-4.893 Y-14.723
X-4.927 Y-14.771
G2 X-4.935 Y-14.782 R0.5
G1 X-4.965 Y-14.822
G2 X-4.999 Y-14.862 R0.5
G1 X-5.017 Y-14.883
G2 X-5.068 Y-14.93 R0.5
G1 X-5.104 Y-14.96
G2 X-5.174 Y-15.008 R0.5
G1 X-5.212 Y-15.029
G2 X-5.289 Y-15.064 R0.5
G1 X-5.332 Y-15.08
G2 X-5.413 Y-15.102 R0.5
G1 X-5.456 Y-15.109
G2 X-5.54 Y-15.117 R0.5
G1 X-5.587 Y-15.118
G2 X-5.671 Y-15.111 R0.5
G1 X-5.714 Y-15.104
G2 X-5.814 Y-15.077 R0.5
X-6.083 Y-14.971 R16.159
X-6.177 Y-14.92 R0.5
G1 X-6.216 Y-14.894
G2 X-6.272 Y-14.849 R0.5
G1 X-6.293 Y-14.83
G2 X-6.34 Y-14.78 R0.5
G1 X-6.37 Y-14.744
G2 X-6.418 Y-14.674 R0.5
G1 X-6.439 Y-14.637
G2 X-6.475 Y-14.561 R0.5
G1 X-6.491 Y-14.517
G2 X-6.513 Y-14.435 R0.5
G1 X-6.521 Y-14.393
G2 X-6.529 Y-14.308 R0.5
G1 X-6.53 Y-14.261
G2 X-6.526 Y-14.191 R0.5
G1 X-6.513 Y-14.09
X-6.505 Y-14.027
X-6.496 Y-13.936
X-6.495 Y-13.924
X-6.516 Y-13.915
X-6.522 Y-13.912
X-6.589 Y-13.88
X-6.603 Y-13.894
X-6.656 Y-13.947
X-6.7 Y-13.994
X-6.739 Y-14.037
G2 X-6.748 Y-14.046 R0.5
G1 X-6.784 Y-14.083
G2 X-6.822 Y-14.119 R0.5
G1 X-6.843 Y-14.136
G2 X-6.9 Y-14.178 R0.5
G1 X-6.939 Y-14.202
G2 X-7.014 Y-14.241 R0.5
G1 X-7.054 Y-14.257
G2 X-7.135 Y-14.282 R0.5
G1 X-7.18 Y-14.293
G2 X-7.263 Y-14.304 R0.5
G1 X-7.306 Y-14.306
G2 X-7.391 Y-14.304 R0.5
G1 X-7.437 Y-14.298
G2 X-7.52 Y-14.281 R0.5
G1 X-7.562 Y-14.269
G2 X-7.658 Y-14.23 R0.5
X-7.912 Y-14.09 R16.159
X-7.999 Y-14.028 R0.5
G1 X-8.033 Y-13.997
G2 X-8.083 Y-13.947 R0.5
G1 X-8.101 Y-13.925
G2 X-8.143 Y-13.869 R0.5
G1 X-8.167 Y-13.829
G2 X-8.206 Y-13.754 R0.5
G1 X-8.223 Y-13.714
G2 X-8.249 Y-13.634 R0.5
G1 X-8.259 Y-13.589
G2 X-8.271 Y-13.505 R0.5
G1 X-8.273 Y-13.462
G2 X-8.271 Y-13.377 R0.5
G1 X-8.266 Y-13.33
G2 X-8.253 Y-13.261 R0.5
G1 X-8.227 Y-13.163
X-8.211 Y-13.101
X-8.191 Y-13.012
X-8.189 Y-13.
X-8.208 Y-12.988
X-8.214 Y-12.984
X-8.276 Y-12.945
X-8.292 Y-12.956
X-8.351 Y-13.003
X-8.401 Y-13.044
X-8.446 Y-13.082
G2 X-8.456 Y-13.09 R0.5
G1 X-8.496 Y-13.122
G2 X-8.537 Y-13.152 R0.5
G1 X-8.56 Y-13.167
G2 X-8.623 Y-13.201 R0.5
G1 X-8.665 Y-13.221
G2 X-8.744 Y-13.249 R0.5
G1 X-8.785 Y-13.261
G2 X-8.869 Y-13.276 R0.5
G1 X-8.915 Y-13.28
G2 X-8.998 Y-13.281 R0.5
G1 X-9.041 Y-13.278
G2 X-9.126 Y-13.265 R0.5
G1 X-9.171 Y-13.253
G2 X-9.251 Y-13.226 R0.5
G1 X-9.29 Y-13.209
G2 X-9.381 Y-13.158 R0.5
X-9.615 Y-12.988 R16.159
X-9.694 Y-12.915 R0.5
G1 X-9.724 Y-12.88
G2 X-9.767 Y-12.823 R0.5
G1 X-9.783 Y-12.799
G2 X-9.817 Y-12.739 R0.5
G1 X-9.836 Y-12.696
G2 X-9.866 Y-12.617 R0.5
G1 X-9.877 Y-12.576
G2 X-9.892 Y-12.493 R0.5
G1 X-9.897 Y-12.446
G2 X-9.898 Y-12.362 R0.5
G1 X-9.895 Y-12.319
G2 X-9.882 Y-12.235 R0.5
G1 X-9.871 Y-12.189
G2 X-9.85 Y-12.123 R0.5
G1 X-9.812 Y-12.028
X-9.788 Y-11.968
X-9.758 Y-11.883
X-9.754 Y-11.871
X-9.771 Y-11.857
X-9.777 Y-11.852
X-9.833 Y-11.805
X-9.851 Y-11.815
X-9.915 Y-11.854
X-9.97 Y-11.888
X-10.018 Y-11.92
G2 X-10.03 Y-11.927 R0.5
G1 X-10.073 Y-11.954
G2 X-10.118 Y-11.978 R0.5
G1 X-10.143 Y-11.99
G2 X-10.21 Y-12.017 R0.5
G1 X-10.254 Y-12.031
G2 X-10.335 Y-12.049 R0.5
G1 X-10.378 Y-12.055
G2 X-10.462 Y-12.059 R0.5
G1 X-10.509 Y-12.058
G2 X-10.593 Y-12.048 R0.5
G1 X-10.636 Y-12.04
G2 X-10.716 Y-12.016 R0.5
G1 X-10.76 Y-11.999
G2 X-10.835 Y-11.963 R0.5
G1 X-10.872 Y-11.941
G2 X-10.956 Y-11.878 R0.5
X-11.167 Y-11.68 R16.159
X-11.236 Y-11.598 R0.5
G1 X-11.262 Y-11.56
G2 X-11.297 Y-11.498 R0.5
G1 X-11.31 Y-11.472
G2 X-11.336 Y-11.408 R0.5
G1 X-11.35 Y-11.363
G2 X-11.369 Y-11.282 R0.5
G1 X-11.375 Y-11.239
G2 X-11.38 Y-11.154 R0.5
G1 X-11.379 Y-11.108
G2 X-11.37 Y-11.024 R0.5
G1 X-11.361 Y-10.981
G2 X-11.338 Y-10.9 R0.5
G1 X-11.321 Y-10.856
G2 X-11.292 Y-10.792 R0.5
G1 X-11.242 Y-10.703
X-11.211 Y-10.647
X-11.17 Y-10.566
X-11.165 Y-10.555
X-11.18 Y-10.539
X-11.185 Y-10.534
X-11.235 Y-10.48
X-11.254 Y-10.487
X-11.323 Y-10.517
X-11.381 Y-10.545
X-11.433 Y-10.57
G2 X-11.446 Y-10.576 R0.5
G1 X-11.493 Y-10.597
G2 X-11.54 Y-10.616 R0.5
G1 X-11.566 Y-10.625
G2 X-11.634 Y-10.642 R0.5
G1 X-11.68 Y-10.65
G2 X-11.763 Y-10.659 R0.5
G1 X-11.807
G2 X-11.892 Y-10.653 R0.5
G1 X-11.938 Y-10.646
G2 X-12.019 Y-10.626 R0.5
G1 X-12.06 Y-10.612
G2 X-12.137 Y-10.578 R0.5
G1 X-12.178 Y-10.556
G2 X-12.249 Y-10.51 R0.5
G1 X-12.283 Y-10.484
G2 X-12.358 Y-10.412 R0.5
X-12.543 Y-10.188 R16.159
X-12.601 Y-10.098 R0.5
G1 X-12.622 Y-10.056
G2 X-12.649 Y-9.993 R0.5
G1 X-12.658 Y-9.966
G2 X-12.676 Y-9.897 R0.5
G1 X-12.685 Y-9.851
G2 X-12.693 Y-9.767 R0.5
G1 X-12.694 Y-9.724
G2 X-12.689 Y-9.64 R0.5
G1 X-12.682 Y-9.594
G2 X-12.662 Y-9.512 R0.5
G1 X-12.648 Y-9.471
G2 X-12.615 Y-9.393 R0.5
G1 X-12.592 Y-9.351
G2 X-12.555 Y-9.292 R0.5
G1 X-12.495 Y-9.21
X-12.457 Y-9.158
X-12.406 Y-9.083
X-12.4 Y-9.073
X-12.413 Y-9.055
X-12.417 Y-9.049
X-12.46 Y-8.989
X-12.48 Y-8.994
X-12.552 Y-9.015
X-12.613 Y-9.035
X-12.668 Y-9.054
G2 X-12.681 Y-9.058 R0.5
G1 X-12.73 Y-9.073
G2 X-12.779 Y-9.086 R0.5
G1 X-12.806 Y-9.091
G2 X-12.877 Y-9.1 R0.5
G1 X-12.923 Y-9.103
G2 X-13.007 Y-9.1 R0.5
G1 X-13.05 Y-9.095
G2 X-13.133 Y-9.079 R0.5
G1 X-13.178 Y-9.066
G2 X-13.256 Y-9.035 R0.5
G1 X-13.295 Y-9.017
G2 X-13.367 Y-8.974 R0.5
G1 X-13.405 Y-8.947
G2 X-13.47 Y-8.892 R0.5
G1 X-13.5 Y-8.862
G2 X-13.566 Y-8.781 R0.5
X-13.721 Y-8.536 R16.159
X-13.767 Y-8.439 R0.5
G1 X-13.783 Y-8.396
G2 X-13.802 Y-8.328 R0.5
G1 X-13.807 Y-8.3
G2 X-13.817 Y-8.23 R0.5
G1 X-13.819 Y-8.184
G2 X-13.818 Y-8.1 R0.5
G1 X-13.813 Y-8.057
G2 X-13.797 Y-7.973 R0.5
G1 X-13.784 Y-7.929
G2 X-13.754 Y-7.851 R0.5
G1 X-13.736 Y-7.812
G2 X-13.692 Y-7.737 R0.5
G1 X-13.665 Y-7.699
G2 X-13.621 Y-7.645 R0.5
G1 X-13.551 Y-7.571
X-13.507 Y-7.524
X-13.447 Y-7.457
X-13.439 Y-7.447
X-13.45 Y-7.427
X-13.454 Y-7.421
X-13.489 Y-7.356
X-13.509 Y-7.359
X-13.583 Y-7.371
X-13.646 Y-7.383
X-13.703 Y-7.395
G2 X-13.716 Y-7.397 R0.5
G1 X-13.766 Y-7.406
G2 X-13.818 Y-7.412 R0.5
G1 X-13.845 Y-7.414
G2 X-13.915 R0.5
G1 X-13.962 Y-7.411
G2 X-14.045 Y-7.398 R0.5
G1 X-14.087 Y-7.388
G2 X-14.167 Y-7.361 R0.5
G1 X-14.21 Y-7.343
G2 X-14.284 Y-7.303 R0.5
G1 X-14.32 Y-7.279
G2 X-14.387 Y-7.228 R0.5
G1 X-14.421 Y-7.196
G2 X-14.478 Y-7.134 R0.5
G1 X-14.505 Y-7.099
G2 X-14.559 Y-7.011 R0.5
X-14.683 Y-6.749 R16.159
X-14.717 Y-6.648 R0.5
G1 X-14.727 Y-6.602
G2 X-14.737 Y-6.533 R0.5
G1 X-14.739 Y-6.505
G2 Y-6.433 R0.5
G1 X-14.736 Y-6.387
G2 X-14.724 Y-6.304 R0.5
G1 X-14.714 Y-6.262
G2 X-14.687 Y-6.182 R0.5
G1 X-14.669 Y-6.139
G2 X-14.629 Y-6.064 R0.5
G1 X-14.606 Y-6.028
G2 X-14.554 Y-5.961 R0.5
G1 X-14.522 Y-5.926
G2 X-14.472 Y-5.878 R0.5
G1 X-14.393 Y-5.813
X-14.343 Y-5.772
X-14.275 Y-5.713
X-14.266 Y-5.704
X-14.275 Y-5.683
X-14.277 Y-5.676
X-14.304 Y-5.608
X-14.324
X-14.399 Y-5.611
X-14.463 Y-5.615
X-14.522 Y-5.619
G2 X-14.535 Y-5.62 R0.5
G1 X-14.586 Y-5.622
G2 X-14.637 R0.5
G1 X-14.665 Y-5.621
G2 X-14.735 Y-5.612 R0.5
G1 X-14.781 Y-5.603
G2 X-14.862 Y-5.579 R0.5
G1 X-14.902 Y-5.564
G2 X-14.978 Y-5.528 R0.5
G1 X-15.018 Y-5.504
G2 X-15.087 Y-5.455 R0.5
G1 X-15.12 Y-5.427
G2 X-15.179 Y-5.368 R0.5
G1 X-15.209 Y-5.332
G2 X-15.258 Y-5.263 R0.5
G1 X-15.28 Y-5.226
G2 X-15.323 Y-5.131 R0.5
X-15.413 Y-4.855 R16.159
X-15.434 Y-4.75 R0.5
G1 X-15.438 Y-4.704
G2 X-15.439 Y-4.634 R0.5
G1 X-15.438 Y-4.606
G2 X-15.43 Y-4.536 R0.5
G1 X-15.421 Y-4.49
G2 X-15.397 Y-4.408 R0.5
G1 X-15.382 Y-4.367
G2 X-15.346 Y-4.292 R0.5
G1 X-15.323 Y-4.252
G2 X-15.275 Y-4.183 R0.5
G1 X-15.247 Y-4.15
G2 X-15.186 Y-4.089 R0.5
G1 X-15.151 Y-4.059
G2 X-15.094 Y-4.018 R0.5
G1 X-15.008 Y-3.963
X-14.954 Y-3.929
X-14.879 Y-3.878
X-14.869 Y-3.871
X-14.875 Y-3.849
X-14.876 Y-3.842
X-14.894 Y-3.771
X-14.914 Y-3.768
X-14.989 Y-3.762
X-15.053 Y-3.758
X-15.111 Y-3.755
G2 X-15.125 Y-3.754 R0.5
G1 X-15.176 Y-3.75
G2 X-15.227 Y-3.743 R0.5
G1 X-15.254 Y-3.738
G2 X-15.322 Y-3.721 R0.5
G1 X-15.367 Y-3.706
G2 X-15.444 Y-3.673 R0.5
G1 X-15.482 Y-3.652
G2 X-15.552 Y-3.607 R0.5
G1 X-15.589 Y-3.578
G2 X-15.651 Y-3.521 R0.5
G1 X-15.681 Y-3.49
G2 X-15.733 Y-3.422 R0.5
G1 X-15.758 Y-3.383
G2 X-15.797 Y-3.309 R0.5
G1 X-15.814 Y-3.27
G2 X-15.845 Y-3.17 R0.5
X-15.9 Y-2.886 R16.159
X-15.907 Y-2.779 R0.5
G1 X-15.906 Y-2.733
G2 X-15.898 Y-2.662 R0.5
G1 X-15.893 Y-2.634
G2 X-15.876 Y-2.566 R0.5
G1 X-15.862 Y-2.522
G2 X-15.829 Y-2.444 R0.5
G1 X-15.808 Y-2.406
G2 X-15.763 Y-2.335 R0.5
G1 X-15.735 Y-2.298
G2 X-15.678 Y-2.236 R0.5
G1 X-15.646 Y-2.206
G2 X-15.579 Y-2.154 R0.5
G1 X-15.54 Y-2.128
G2 X-15.479 Y-2.094 R0.5
G1 X-15.386 Y-2.051
X-15.328 Y-2.024
X-15.247 Y-1.983
X-15.237 Y-1.977
X-15.24 Y-1.955
X-15.241 Y-1.947
X-15.249 Y-1.874
X-15.269 Y-1.869
X-15.342 Y-1.853
X-15.405 Y-1.841
X-15.463 Y-1.831
G2 X-15.476 Y-1.829 R0.5
G1 X-15.526 Y-1.818
G2 X-15.576 Y-1.805 R0.5
G1 X-15.602 Y-1.797
G2 X-15.668 Y-1.771 R0.5
G1 X-15.71 Y-1.751
G2 X-15.782 Y-1.708 R0.5
G1 X-15.817 Y-1.683
G2 X-15.882 Y-1.629 R0.5
G1 X-15.915 Y-1.596
G2 X-15.97 Y-1.531 R0.5
G1 X-15.995 Y-1.496
G2 X-16.037 Y-1.424 R0.5
G1 X-16.057 Y-1.382
G2 X-16.088 Y-1.303 R0.5
G1 X-16.1 Y-1.261
G2 X-16.118 Y-1.159 R0.5
X-16.136 Y-0.87 R16.159
X-16.13 Y-0.763 R0.5
G1 X-16.123 Y-0.717
G2 X-16.107 Y-0.649 R0.5
G1 X-16.098 Y-0.622
G2 X-16.073 Y-0.556 R0.5
G1 X-16.053 Y-0.513
G2 X-16.01 Y-0.441 R0.5
G1 X-15.986 Y-0.406
G2 X-15.931 Y-0.341 R0.5
G1 X-15.899 Y-0.308
G2 X-15.835 Y-0.253 R0.5
G1 X-15.8 Y-0.228
G2 X-15.726 Y-0.184 R0.5
G1 X-15.684 Y-0.164
G2 X-15.619 Y-0.138 R0.5
G1 X-15.522 Y-0.106
X-15.461 Y-0.087
X-15.376 Y-0.056
X-15.364 Y-0.051
Y-0.029
Y-0.022
Y0.052
X-15.383 Y0.059
X-15.454 Y0.084
X-15.514 Y0.104
X-15.57 Y0.121
G2 X-15.583 Y0.125 R0.5
G1 X-15.631 Y0.142
G2 X-15.679 Y0.161 R0.5
G1 X-15.704 Y0.173
G2 X-15.766 Y0.207 R0.5
G1 X-15.805 Y0.232
G2 X-15.872 Y0.283 R0.5
G1 X-15.904 Y0.312
G2 X-15.961 Y0.375 R0.5
G1 X-15.99 Y0.411
G2 X-16.036 Y0.482 R0.5
G1 X-16.056 Y0.52
G2 X-16.089 Y0.597 R0.5
G1 X-16.104 Y0.642
G2 X-16.124 Y0.723 R0.5
G1 X-16.131 Y0.766
G2 X-16.136 Y0.87 R0.5
X-16.118 Y1.159 R16.159
X-16.099 Y1.264 R0.5
G1 X-16.086 Y1.309
G2 X-16.061 Y1.375 R0.5
G1 X-16.049 Y1.401
G2 X-16.016 Y1.463 R0.5
G1 X-15.99 Y1.502
G2 X-15.94 Y1.569 R0.5
G1 X-15.911 Y1.601
G2 X-15.849 Y1.659 R0.5
G1 X-15.812 Y1.687
G2 X-15.742 Y1.734 R0.5
