(Exported by FreeCAD)
(Post Processor: grbl_post)
(Output Time:2024-03-04 18:16:15.562118)
(Begin preamble)
G17 G90
G21
(Block-name: Fixture)
(Block-expand: 0)
(Block-enable: 1)
(Begin operation: Fixture)
(Path: Fixture)
G54
(Finish operation: Fixture)
(Block-name: 2mm Endmill001)
(Block-expand: 0)
(Block-enable: 1)
(Begin operation: 2mm Endmill001)
(Path: 2mm Endmill001)
(2mm Endmill001)
(Begin toolchange)
( M6 T2 )
M3 S8000
(Finish operation: 2mm Endmill001)
(Block-name: Drilling)
(Block-expand: 0)
(Block-enable: 1)
(Begin operation: Drilling)
(Path: Drilling)
(Drilling)
(Begin Drilling)
G0 Z5.000
G90
G98
G0 X-17.373 Y24.373
G83 X-17.373 Y24.373 Z-8.000 F400.000 Q1.500 R3.000
G0 X-8.000 Y47.000
G83 X-8.000 Y47.000 Z-8.000 F400.000 Q1.500 R3.000
G0 X-17.373 Y69.627
G83 X-17.373 Y69.627 Z-8.000 F400.000 Q1.500 R3.000
G0 X-40.000 Y79.000
G83 X-40.000 Y79.000 Z-8.000 F400.000 Q1.500 R3.000
G0 X-37.500 Y99.500
G83 X-37.500 Y99.500 Z-8.000 F400.000 Q1.500 R3.000
G0 X-6.500 Y99.500
G83 X-6.500 Y99.500 Z-8.000 F400.000 Q1.500 R3.000
G0 X-6.500 Y130.500
G83 X-6.500 Y130.500 Z-8.000 F400.000 Q1.500 R3.000
G0 X-37.500 Y130.500
G83 X-37.500 Y130.500 Z-8.000 F400.000 Q1.500 R3.000
G0 X-62.627 Y69.627
G83 X-62.627 Y69.627 Z-8.000 F400.000 Q1.500 R3.000
G0 X-72.000 Y47.000
G83 X-72.000 Y47.000 Z-8.000 F400.000 Q1.500 R3.000
G0 X-62.627 Y24.373
G83 X-62.627 Y24.373 Z-8.000 F400.000 Q1.500 R3.000
G0 X-40.000 Y15.000
G83 X-40.000 Y15.000 Z-8.000 F400.000 Q1.500 R3.000
G80
G0 Z3.000
G0 Z5.000
(Finish operation: Drilling)
(Block-name: 3mm Endmill001)
(Block-expand: 0)
(Block-enable: 1)
(Begin operation: 3mm Endmill001)
(Path: 3mm Endmill001)
(3mm Endmill001)
(Begin toolchange)
( M6 T3 )
M3 S8000
(Finish operation: 3mm Endmill001)
(Block-name: Adaptive)
(Block-expand: 0)
(Block-enable: 1)
(Begin operation: Adaptive)
(Path: Adaptive)
(Adaptive)
(Helix to depth: -1.000000)
G0 Z5.000
G0 X-39.099 Y47.659 Z5.000
G0 X-39.099 Y47.659 Z3.000
G1 X-39.099 Y47.659 Z0.000 F400.000
G1 X-39.099 Y47.659 Z0.000 F400.000
G1 X-39.246 Y47.821 Z-0.019 F400.000
G1 X-39.422 Y47.951 Z-0.039 F400.000
G1 X-39.619 Y48.044 Z-0.058 F400.000
G1 X-39.831 Y48.097 Z-0.077 F400.000
G1 X-40.050 Y48.107 Z-0.097 F400.000
G1 X-40.266 Y48.075 Z-0.116 F400.000
G1 X-40.472 Y48.001 Z-0.135 F400.000
G1 X-40.659 Y47.889 Z-0.155 F400.000
G1 X-40.821 Y47.742 Z-0.174 F400.000
G1 X-40.951 Y47.566 Z-0.193 F400.000
G1 X-41.044 Y47.368 Z-0.213 F400.000
G1 X-41.097 Y47.156 Z-0.232 F400.000
G1 X-41.107 Y46.938 Z-0.251 F400.000
G1 X-41.075 Y46.722 Z-0.271 F400.000
G1 X-41.001 Y46.516 Z-0.290 F400.000
G1 X-40.889 Y46.329 Z-0.309 F400.000
G1 X-40.742 Y46.167 Z-0.329 F400.000
G1 X-40.566 Y46.037 Z-0.348 F400.000
G1 X-40.368 Y45.944 Z-0.367 F400.000
G1 X-40.156 Y45.891 Z-0.387 F400.000
G1 X-39.938 Y45.880 Z-0.406 F400.000
G1 X-39.722 Y45.912 Z-0.425 F400.000
G1 X-39.516 Y45.986 Z-0.444 F400.000
G1 X-39.329 Y46.099 Z-0.464 F400.000
G1 X-39.167 Y46.246 Z-0.483 F400.000
G1 X-39.037 Y46.422 Z-0.502 F400.000
G1 X-38.944 Y46.619 Z-0.522 F400.000
G1 X-38.891 Y46.831 Z-0.541 F400.000
G1 X-38.880 Y47.050 Z-0.560 F400.000
G1 X-38.912 Y47.266 Z-0.580 F400.000
G1 X-38.986 Y47.472 Z-0.599 F400.000
G1 X-39.099 Y47.659 Z-0.618 F400.000
G1 X-39.246 Y47.821 Z-0.638 F400.000
G1 X-39.422 Y47.951 Z-0.657 F400.000
G1 X-39.619 Y48.044 Z-0.676 F400.000
G1 X-39.831 Y48.097 Z-0.696 F400.000
G1 X-40.050 Y48.107 Z-0.715 F400.000
G1 X-40.266 Y48.075 Z-0.734 F400.000
G1 X-40.472 Y48.001 Z-0.754 F400.000
G1 X-40.659 Y47.889 Z-0.773 F400.000
G1 X-40.821 Y47.742 Z-0.792 F400.000
G1 X-40.951 Y47.566 Z-0.812 F400.000
G1 X-41.044 Y47.368 Z-0.831 F400.000
G1 X-41.097 Y47.156 Z-0.850 F400.000
G1 X-41.107 Y46.938 Z-0.870 F400.000
G1 X-41.075 Y46.722 Z-0.889 F400.000
G1 X-41.001 Y46.516 Z-0.908 F400.000
G1 X-40.889 Y46.329 Z-0.928 F400.000
G1 X-40.742 Y46.167 Z-0.947 F400.000
G1 X-40.566 Y46.037 Z-0.966 F400.000
G1 X-40.368 Y45.944 Z-0.986 F400.000
G1 X-40.156 Y45.891 Z-1.000 F400.000
G1 X-39.938 Y45.880 Z-1.000 F400.000
G1 X-39.722 Y45.912 Z-1.000 F400.000
G1 X-39.516 Y45.986 Z-1.000 F400.000
G1 X-39.329 Y46.099 Z-1.000 F400.000
G1 X-39.167 Y46.246 Z-1.000 F400.000
G1 X-39.037 Y46.422 Z-1.000 F400.000
G1 X-38.944 Y46.619 Z-1.000 F400.000
G1 X-38.891 Y46.831 Z-1.000 F400.000
G1 X-38.880 Y47.050 Z-1.000 F400.000
G1 X-38.912 Y47.266 Z-1.000 F400.000
G1 X-38.986 Y47.472 Z-1.000 F400.000
G1 X-39.099 Y47.659 Z-1.000 F400.000
G1 X-39.246 Y47.821 Z-1.000 F400.000
G1 X-39.422 Y47.951 Z-1.000 F400.000
G1 X-39.619 Y48.044 Z-1.000 F400.000
G1 X-39.831 Y48.097 Z-1.000 F400.000
G1 X-40.050 Y48.107 Z-1.000 F400.000
G1 X-40.266 Y48.075 Z-1.000 F400.000
G1 X-40.472 Y48.001 Z-1.000 F400.000
G1 X-40.659 Y47.889 Z-1.000 F400.000
G1 X-40.821 Y47.742 Z-1.000 F400.000
G1 X-40.951 Y47.566 Z-1.000 F400.000
G1 X-41.044 Y47.368 Z-1.000 F400.000
G1 X-41.097 Y47.156 Z-1.000 F400.000
G1 X-41.107 Y46.938 Z-1.000 F400.000
G1 X-41.075 Y46.722 Z-1.000 F400.000
G1 X-41.001 Y46.516 Z-1.000 F400.000
G1 X-40.889 Y46.329 Z-1.000 F400.000
G1 X-40.742 Y46.167 Z-1.000 F400.000
G1 X-40.566 Y46.037 Z-1.000 F400.000
G1 X-40.368 Y45.944 Z-1.000 F400.000
(Adaptive - depth: -1.000000)
G1 X-39.994 Y45.869 F400.000
G1 X-39.837 Y45.725 F400.000
G1 X-39.744 Y45.675 F400.000
G1 X-39.444 Y45.612 F400.000
G1 X-39.244 Y45.625 F400.000
G1 X-39.144 Y45.650 F400.000
G1 X-38.806 Y45.819 F400.000
G1 X-38.569 Y46.031 F400.000
G1 X-38.431 Y46.212 F400.000
G1 X-38.325 Y46.413 F400.000
G1 X-38.231 Y46.644 F400.000
G1 X-38.169 Y46.987 F400.000
G1 X-38.169 Y47.294 F400.000
G1 X-38.237 Y47.581 F400.000
G1 X-38.319 Y47.800 F400.000
G1 X-38.450 Y48.044 F400.000
G1 X-38.675 Y48.300 F400.000
G1 X-38.888 Y48.481 F400.000
G1 X-39.138 Y48.638 F400.000
G1 X-39.413 Y48.756 F400.000
G1 X-39.744 Y48.837 F400.000
G1 X-40.050 Y48.850 F400.000
G1 X-40.325 Y48.825 F400.000
G1 X-40.625 Y48.744 F400.000
G1 X-40.894 Y48.619 F400.000
G1 X-41.144 Y48.450 F400.000
G1 X-41.362 Y48.237 F400.000
G1 X-41.544 Y48.000 F400.000
G1 X-41.681 Y47.731 F400.000
G1 X-41.775 Y47.444 F400.000
G1 X-41.825 Y47.144 F400.000
G1 X-41.825 Y46.844 F400.000
G1 X-41.775 Y46.544 F400.000
G1 X-41.675 Y46.256 F400.000
G1 X-41.531 Y45.987 F400.000
G1 X-41.344 Y45.744 F400.000
G1 X-41.131 Y45.525 F400.000
G1 X-40.850 Y45.288 F400.000
G1 X-40.525 Y45.094 F400.000
G1 X-40.194 Y44.950 F400.000
G1 X-39.831 Y44.844 F400.000
G1 X-39.456 Y44.825 F400.000
G1 X-39.181 Y44.837 F400.000
G1 X-38.850 Y44.919 F400.000
G1 X-38.587 Y45.031 F400.000
G1 X-38.337 Y45.188 F400.000
G1 X-38.094 Y45.369 F400.000
G1 X-37.844 Y45.650 F400.000
G1 X-37.656 Y45.925 F400.000
G1 X-37.500 Y46.231 F400.000
G1 X-37.388 Y46.575 F400.000
G1 X-37.325 Y46.913 F400.000
G1 X-37.312 Y47.256 F400.000
G1 X-37.350 Y47.600 F400.000
G1 X-37.438 Y47.938 F400.000
G1 X-37.569 Y48.256 F400.000
G1 X-37.750 Y48.550 F400.000
G1 X-37.969 Y48.819 F400.000
G1 X-38.225 Y49.050 F400.000
G1 X-38.500 Y49.256 F400.000
G1 X-38.825 Y49.431 F400.000
G1 X-39.169 Y49.562 F400.000
G1 X-39.531 Y49.650 F400.000
G1 X-39.900 Y49.688 F400.000
G1 X-40.269 Y49.675 F400.000
G1 X-40.638 Y49.619 F400.000
G1 X-40.987 Y49.500 F400.000
G1 X-41.288 Y49.356 F400.000
G1 X-41.587 Y49.156 F400.000
G1 X-41.850 Y48.919 F400.000
G1 X-42.075 Y48.650 F400.000
G1 X-42.275 Y48.356 F400.000
G1 X-42.438 Y48.019 F400.000
G1 X-42.556 Y47.663 F400.000
G1 X-42.631 Y47.294 F400.000
G1 X-42.656 Y46.919 F400.000
G1 X-42.612 Y46.544 F400.000
G1 X-42.544 Y46.237 F400.000
G1 X-42.413 Y45.894 F400.000
G1 X-42.256 Y45.575 F400.000
G1 X-42.038 Y45.263 F400.000
G1 X-41.794 Y44.969 F400.000
G1 X-41.519 Y44.706 F400.000
G1 X-41.212 Y44.481 F400.000
G1 X-40.888 Y44.288 F400.000
G1 X-40.538 Y44.138 F400.000
G1 X-40.175 Y44.025 F400.000
G1 X-39.800 Y43.956 F400.000
G1 X-39.425 Y43.931 F400.000
G1 X-39.050 Y43.962 F400.000
G1 X-38.694 Y44.031 F400.000
G1 X-38.337 Y44.150 F400.000
G1 X-38.000 Y44.312 F400.000
G1 X-37.694 Y44.525 F400.000
G1 X-37.438 Y44.750 F400.000
G1 X-37.175 Y45.019 F400.000
G1 X-36.944 Y45.312 F400.000
G1 X-36.750 Y45.631 F400.000
G1 X-36.606 Y45.975 F400.000
G1 X-36.494 Y46.331 F400.000
G1 X-36.431 Y46.700 F400.000
G1 X-36.394 Y47.069 F400.000
G1 X-36.400 Y47.438 F400.000
G1 X-36.450 Y47.806 F400.000
G1 X-36.531 Y48.169 F400.000
G1 X-36.656 Y48.519 F400.000
G1 X-36.837 Y48.844 F400.000
G1 X-37.038 Y49.144 F400.000
G1 X-37.281 Y49.425 F400.000
G1 X-37.544 Y49.688 F400.000
G1 X-37.837 Y49.913 F400.000
G1 X-38.150 Y50.106 F400.000
G1 X-38.481 Y50.269 F400.000
G1 X-38.825 Y50.406 F400.000
G1 X-39.181 Y50.506 F400.000
G1 X-39.544 Y50.575 F400.000
G1 X-39.913 Y50.612 F400.000
G1 X-40.281 Y50.594 F400.000
G1 X-40.650 Y50.550 F400.000
G1 X-41.013 Y50.462 F400.000
G1 X-41.362 Y50.337 F400.000
G1 X-41.700 Y50.175 F400.000
G1 X-42.019 Y49.981 F400.000
G1 X-42.312 Y49.750 F400.000
G1 X-42.569 Y49.475 F400.000
G1 X-42.800 Y49.181 F400.000
G1 X-43.013 Y48.875 F400.000
G1 X-43.181 Y48.538 F400.000
G1 X-43.319 Y48.188 F400.000
G1 X-43.425 Y47.825 F400.000
G1 X-43.487 Y47.450 F400.000
G1 X-43.513 Y47.075 F400.000
G1 X-43.500 Y46.700 F400.000
G1 X-43.444 Y46.325 F400.000
G1 X-43.356 Y45.956 F400.000
G1 X-43.231 Y45.600 F400.000
G1 X-43.069 Y45.256 F400.000
G1 X-42.888 Y44.925 F400.000
G1 X-42.669 Y44.612 F400.000
G1 X-42.425 Y44.325 F400.000
G1 X-42.156 Y44.056 F400.000
G1 X-41.862 Y43.812 F400.000
G1 X-41.550 Y43.594 F400.000
G1 X-41.219 Y43.406 F400.000
G1 X-40.875 Y43.250 F400.000
G1 X-40.519 Y43.125 F400.000
G1 X-40.150 Y43.031 F400.000
G1 X-39.775 Y42.987 F400.000
G1 X-39.400 Y42.975 F400.000
G1 X-39.025 Y43.000 F400.000
G1 X-38.656 Y43.069 F400.000
G1 X-38.294 Y43.169 F400.000
G1 X-37.944 Y43.306 F400.000
G1 X-37.600 Y43.462 F400.000
G1 X-37.281 Y43.656 F400.000
G1 X-36.981 Y43.881 F400.000
G1 X-36.700 Y44.125 F400.000
G1 X-36.444 Y44.400 F400.000
G1 X-36.212 Y44.694 F400.000
G1 X-36.006 Y45.006 F400.000
G1 X-35.831 Y45.337 F400.000
G1 X-35.688 Y45.681 F400.000
G1 X-35.575 Y46.038 F400.000
G1 X-35.494 Y46.400 F400.000
G1 X-35.444 Y46.769 F400.000
G1 X-35.431 Y47.506 F400.000
G1 X-35.475 Y47.875 F400.000
G1 X-35.544 Y48.237 F400.000
G1 X-35.656 Y48.594 F400.000
G1 X-35.794 Y48.938 F400.000
G1 X-35.962 Y49.269 F400.000
G1 X-36.163 Y49.581 F400.000
G1 X-36.388 Y49.875 F400.000
G1 X-36.638 Y50.144 F400.000
G1 X-37.194 Y50.631 F400.000
G1 X-37.500 Y50.837 F400.000
G1 X-37.819 Y51.025 F400.000
G1 X-38.150 Y51.188 F400.000
G1 X-38.494 Y51.325 F400.000
G1 X-38.850 Y51.438 F400.000
G1 X-39.212 Y51.519 F400.000
G1 X-39.581 Y51.556 F400.000
G1 X-39.950 Y51.575 F400.000
G1 X-40.319 Y51.556 F400.000
G1 X-41.056 Y51.438 F400.000
G1 X-41.413 Y51.337 F400.000
G1 X-41.763 Y51.206 F400.000
G1 X-42.094 Y51.038 F400.000
G1 X-42.413 Y50.844 F400.000
G1 X-42.712 Y50.625 F400.000
G1 X-42.994 Y50.375 F400.000
G1 X-43.250 Y50.100 F400.000
G1 X-43.494 Y49.812 F400.000
G1 X-43.706 Y49.500 F400.000
G1 X-43.894 Y49.175 F400.000
G1 X-44.062 Y48.837 F400.000
G1 X-44.200 Y48.487 F400.000
G1 X-44.312 Y48.125 F400.000
G1 X-44.394 Y47.756 F400.000
G1 X-44.444 Y47.381 F400.000
G1 X-44.469 Y47.006 F400.000
G1 X-44.462 Y46.631 F400.000
G1 X-44.413 Y46.256 F400.000
G1 X-44.337 Y45.888 F400.000
G1 X-44.225 Y45.525 F400.000
G1 X-43.931 Y44.825 F400.000
G1 X-43.744 Y44.494 F400.000
G1 X-43.531 Y44.181 F400.000
G1 X-43.300 Y43.881 F400.000
G1 X-43.044 Y43.600 F400.000
G1 X-42.769 Y43.337 F400.000
G1 X-42.475 Y43.094 F400.000
G1 X-41.850 Y42.663 F400.000
G1 X-41.519 Y42.481 F400.000
G1 X-41.175 Y42.319 F400.000
G1 X-40.819 Y42.194 F400.000
G1 X-40.456 Y42.087 F400.000
G1 X-40.081 Y42.031 F400.000
G1 X-39.706 Y42.000 F400.000
G1 X-39.331 Y42.000 F400.000
G1 X-38.956 Y42.025 F400.000
G1 X-38.581 Y42.081 F400.000
G1 X-38.212 Y42.169 F400.000
G1 X-37.850 Y42.281 F400.000
G1 X-37.500 Y42.425 F400.000
G1 X-36.831 Y42.775 F400.000
G1 X-36.519 Y42.987 F400.000
G1 X-35.931 Y43.462 F400.000
G1 X-35.669 Y43.731 F400.000
G1 X-35.425 Y44.013 F400.000
G1 X-35.212 Y44.325 F400.000
G1 X-35.019 Y44.644 F400.000
G1 X-34.856 Y44.981 F400.000
G1 X-34.725 Y45.331 F400.000
G1 X-34.525 Y46.050 F400.000
G1 X-34.469 Y46.419 F400.000
G1 X-34.431 Y46.788 F400.000
G1 X-34.413 Y47.525 F400.000
G1 X-34.438 Y47.894 F400.000
G1 X-34.587 Y48.619 F400.000
G1 X-34.700 Y48.975 F400.000
G1 X-34.837 Y49.319 F400.000
G1 X-35.013 Y49.644 F400.000
G1 X-35.413 Y50.263 F400.000
G1 X-35.894 Y50.825 F400.000
G1 X-36.156 Y51.087 F400.000
G1 X-36.438 Y51.331 F400.000
G1 X-36.731 Y51.556 F400.000
G1 X-37.038 Y51.763 F400.000
G1 X-37.356 Y51.950 F400.000
G1 X-37.688 Y52.119 F400.000
G1 X-38.038 Y52.250 F400.000
G1 X-38.388 Y52.362 F400.000
G1 X-38.750 Y52.450 F400.000
G1 X-39.119 Y52.506 F400.000
G1 X-39.856 Y52.562 F400.000
G1 X-40.225 Y52.550 F400.000
G1 X-40.594 Y52.519 F400.000
G1 X-40.962 Y52.469 F400.000
G1 X-41.325 Y52.394 F400.000
G1 X-41.681 Y52.281 F400.000
G1 X-42.031 Y52.150 F400.000
G1 X-42.369 Y51.994 F400.000
G1 X-42.694 Y51.806 F400.000
G1 X-43.006 Y51.600 F400.000
G1 X-43.300 Y51.369 F400.000
G1 X-43.581 Y51.119 F400.000
G1 X-44.100 Y50.575 F400.000
G1 X-44.331 Y50.275 F400.000
G1 X-44.544 Y49.962 F400.000
G1 X-44.737 Y49.644 F400.000
G1 X-44.906 Y49.306 F400.000
G1 X-45.056 Y48.962 F400.000
G1 X-45.188 Y48.612 F400.000
G1 X-45.294 Y48.250 F400.000
G1 X-45.362 Y47.881 F400.000
G1 X-45.413 Y47.506 F400.000
G1 X-45.438 Y47.131 F400.000
G1 X-45.425 Y46.756 F400.000
G1 X-45.394 Y46.381 F400.000
G1 X-45.263 Y45.631 F400.000
G1 X-45.156 Y45.269 F400.000
G1 X-45.031 Y44.913 F400.000
G1 X-44.888 Y44.562 F400.000
G1 X-44.719 Y44.219 F400.000
G1 X-44.531 Y43.888 F400.000
G1 X-44.325 Y43.569 F400.000
G1 X-44.100 Y43.263 F400.000
G1 X-43.844 Y42.981 F400.000
G1 X-43.575 Y42.712 F400.000
G1 X-43.000 Y42.219 F400.000
G1 X-42.688 Y42.000 F400.000
G1 X-42.038 Y41.612 F400.000
G1 X-41.694 Y41.444 F400.000
G1 X-41.344 Y41.294 F400.000
G1 X-40.612 Y41.094 F400.000
G1 X-40.237 Y41.025 F400.000
G1 X-39.862 Y40.987 F400.000
G1 X-39.487 Y40.975 F400.000
G1 X-39.112 Y40.987 F400.000
G1 X-38.737 Y41.025 F400.000
G1 X-38.362 Y41.087 F400.000
G1 X-37.631 Y41.275 F400.000
G1 X-37.275 Y41.400 F400.000
G1 X-36.925 Y41.544 F400.000
G1 X-36.587 Y41.706 F400.000
G1 X-36.256 Y41.888 F400.000
G1 X-35.938 Y42.087 F400.000
G1 X-35.631 Y42.306 F400.000
G1 X-35.081 Y42.812 F400.000
G1 X-34.831 Y43.087 F400.000
G1 X-34.600 Y43.381 F400.000
G1 X-34.388 Y43.688 F400.000
G1 X-34.200 Y44.006 F400.000
G1 X-33.869 Y44.675 F400.000
G1 X-33.737 Y45.025 F400.000
G1 X-33.525 Y45.744 F400.000
G1 X-33.450 Y46.106 F400.000
G1 X-33.394 Y46.475 F400.000
G1 X-33.362 Y46.844 F400.000
G1 X-33.350 Y47.212 F400.000
G1 X-33.356 Y47.581 F400.000
G1 X-33.388 Y47.950 F400.000
G1 X-33.438 Y48.319 F400.000
G1 X-33.513 Y48.681 F400.000
G1 X-33.606 Y49.044 F400.000
G1 X-33.881 Y49.731 F400.000
G1 X-34.237 Y50.388 F400.000
G1 X-34.444 Y50.694 F400.000
G1 X-34.906 Y51.269 F400.000
G1 X-35.419 Y51.806 F400.000
G1 X-35.694 Y52.056 F400.000
G1 X-35.981 Y52.294 F400.000
G1 X-36.600 Y52.706 F400.000
G1 X-36.925 Y52.888 F400.000
G1 X-37.263 Y53.050 F400.000
G1 X-37.606 Y53.194 F400.000
G1 X-38.325 Y53.394 F400.000
G1 X-39.050 Y53.525 F400.000
G1 X-39.788 Y53.575 F400.000
G1 X-40.156 Y53.581 F400.000
G1 X-40.525 Y53.562 F400.000
G1 X-40.894 Y53.525 F400.000
G1 X-41.619 Y53.362 F400.000
G1 X-41.975 Y53.256 F400.000
G1 X-42.325 Y53.119 F400.000
G1 X-42.663 Y52.962 F400.000
G1 X-42.994 Y52.788 F400.000
G1 X-43.312 Y52.587 F400.000
G1 X-43.619 Y52.369 F400.000
G1 X-44.200 Y51.894 F400.000
G1 X-44.469 Y51.631 F400.000
G1 X-44.975 Y51.075 F400.000
G1 X-45.425 Y50.475 F400.000
G1 X-45.788 Y49.819 F400.000
G1 X-45.944 Y49.475 F400.000
G1 X-46.075 Y49.119 F400.000
G1 X-46.188 Y48.756 F400.000
G1 X-46.275 Y48.388 F400.000
G1 X-46.344 Y48.019 F400.000
G1 X-46.388 Y47.644 F400.000
G1 X-46.413 Y47.269 F400.000
G1 X-46.406 Y46.519 F400.000
G1 X-46.319 Y45.769 F400.000
G1 X-46.131 Y45.038 F400.000
G1 X-45.875 Y44.325 F400.000
G1 X-45.550 Y43.644 F400.000
G1 X-45.369 Y43.312 F400.000
G1 X-45.169 Y42.994 F400.000
G1 X-44.700 Y42.400 F400.000
G1 X-44.438 Y42.125 F400.000
G1 X-44.156 Y41.869 F400.000
G1 X-43.569 Y41.388 F400.000
G1 X-42.938 Y40.962 F400.000
G1 X-42.612 Y40.769 F400.000
G1 X-42.275 Y40.594 F400.000
G1 X-41.581 Y40.294 F400.000
G1 X-41.225 Y40.169 F400.000
G1 X-40.487 Y40.006 F400.000
G1 X-40.112 Y39.950 F400.000
G1 X-39.737 Y39.925 F400.000
G1 X-39.362 Y39.919 F400.000
G1 X-38.987 Y39.938 F400.000
G1 X-38.612 Y39.975 F400.000
G1 X-38.237 Y40.038 F400.000
G1 X-37.869 Y40.119 F400.000
G1 X-36.788 Y40.456 F400.000
G1 X-36.094 Y40.750 F400.000
G1 X-35.444 Y41.131 F400.000
G1 X-35.131 Y41.337 F400.000
G1 X-34.831 Y41.569 F400.000
G1 X-34.294 Y42.087 F400.000
G1 X-34.050 Y42.369 F400.000
G1 X-33.600 Y42.969 F400.000
G1 X-33.400 Y43.288 F400.000
G1 X-33.044 Y43.944 F400.000
G1 X-32.756 Y44.638 F400.000
G1 X-32.638 Y44.994 F400.000
G1 X-32.538 Y45.356 F400.000
G1 X-32.456 Y45.719 F400.000
G1 X-32.331 Y46.456 F400.000
G1 X-32.269 Y47.194 F400.000
G1 X-32.300 Y47.931 F400.000
G1 X-32.344 Y48.300 F400.000
G1 X-32.494 Y49.025 F400.000
G1 X-32.594 Y49.381 F400.000
G1 X-32.856 Y50.075 F400.000
G1 X-33.194 Y50.737 F400.000
G1 X-33.388 Y51.050 F400.000
G1 X-33.825 Y51.650 F400.000
G1 X-34.319 Y52.206 F400.000
G1 X-34.575 Y52.475 F400.000
G1 X-34.844 Y52.731 F400.000
G1 X-35.425 Y53.200 F400.000
G1 X-35.731 Y53.413 F400.000
G1 X-36.362 Y53.788 F400.000
G1 X-36.694 Y53.956 F400.000
G1 X-37.031 Y54.106 F400.000
G1 X-37.737 Y54.325 F400.000
G1 X-38.462 Y54.494 F400.000
G1 X-39.200 Y54.594 F400.000
G1 X-39.569 Y54.625 F400.000
G1 X-40.306 Y54.638 F400.000
G1 X-41.044 Y54.556 F400.000
G1 X-41.413 Y54.487 F400.000
G1 X-42.131 Y54.288 F400.000
G1 X-42.481 Y54.156 F400.000
G1 X-42.825 Y54.006 F400.000
G1 X-43.156 Y53.837 F400.000
G1 X-43.800 Y53.456 F400.000
G1 X-44.406 Y53.019 F400.000
G1 X-44.700 Y52.781 F400.000
G1 X-45.244 Y52.269 F400.000
G1 X-45.500 Y51.994 F400.000
G1 X-45.975 Y51.413 F400.000
G1 X-46.400 Y50.788 F400.000
G1 X-46.763 Y50.131 F400.000
G1 X-47.031 Y49.425 F400.000
G1 X-47.231 Y48.694 F400.000
G1 X-47.300 Y48.325 F400.000
G1 X-47.419 Y47.200 F400.000
G1 X-47.419 Y46.450 F400.000
G1 X-47.400 Y46.075 F400.000
G1 X-47.269 Y45.325 F400.000
G1 X-47.181 Y44.956 F400.000
G1 X-47.069 Y44.594 F400.000
G1 X-46.800 Y43.881 F400.000
G1 X-46.462 Y43.200 F400.000
G1 X-46.275 Y42.869 F400.000
G1 X-45.850 Y42.237 F400.000
G1 X-45.375 Y41.650 F400.000
G1 X-45.119 Y41.369 F400.000
G1 X-44.850 Y41.100 F400.000
G1 X-44.569 Y40.844 F400.000
G1 X-43.975 Y40.369 F400.000
G1 X-43.337 Y39.956 F400.000
G1 X-43.006 Y39.769 F400.000
G1 X-42.325 Y39.444 F400.000
G1 X-41.619 Y39.181 F400.000
G1 X-41.256 Y39.075 F400.000
G1 X-40.888 Y38.987 F400.000
G1 X-40.138 Y38.888 F400.000
G1 X-39.763 Y38.869 F400.000
G1 X-39.013 Y38.881 F400.000
G1 X-38.638 Y38.913 F400.000
G1 X-37.888 Y39.025 F400.000
G1 X-36.794 Y39.312 F400.000
G1 X-36.087 Y39.569 F400.000
G1 X-35.406 Y39.894 F400.000
G1 X-35.075 Y40.075 F400.000
G1 X-34.444 Y40.487 F400.000
G1 X-33.875 Y40.975 F400.000
G1 X-33.606 Y41.237 F400.000
G1 X-33.356 Y41.519 F400.000
G1 X-32.888 Y42.106 F400.000
G1 X-32.475 Y42.731 F400.000
G1 X-32.281 Y43.050 F400.000
G1 X-31.944 Y43.719 F400.000
G1 X-31.794 Y44.062 F400.000
G1 X-31.544 Y44.769 F400.000
G1 X-31.438 Y45.125 F400.000
G1 X-31.275 Y45.850 F400.000
G1 X-31.175 Y46.587 F400.000
G1 X-31.169 Y47.325 F400.000
G1 X-31.188 Y47.694 F400.000
G1 X-31.275 Y48.431 F400.000
G1 X-31.344 Y48.794 F400.000
G1 X-31.525 Y49.513 F400.000
G1 X-31.762 Y50.219 F400.000
G1 X-31.900 Y50.562 F400.000
G1 X-32.225 Y51.231 F400.000
G1 X-32.631 Y51.850 F400.000
G1 X-33.081 Y52.438 F400.000
G1 X-33.325 Y52.719 F400.000
G1 X-33.844 Y53.250 F400.000
G1 X-34.119 Y53.500 F400.000
G1 X-34.700 Y53.962 F400.000
G1 X-35.312 Y54.375 F400.000
G1 X-35.956 Y54.737 F400.000
G1 X-36.625 Y55.050 F400.000
G1 X-37.319 Y55.312 F400.000
G1 X-38.031 Y55.513 F400.000
G1 X-38.769 Y55.625 F400.000
G1 X-39.506 Y55.688 F400.000
G1 X-40.612 Y55.675 F400.000
G1 X-40.981 Y55.644 F400.000
G1 X-41.712 Y55.506 F400.000
G1 X-42.075 Y55.413 F400.000
G1 X-42.781 Y55.163 F400.000
G1 X-43.125 Y55.013 F400.000
G1 X-44.106 Y54.475 F400.000
G1 X-44.725 Y54.050 F400.000
G1 X-45.025 Y53.825 F400.000
G1 X-45.600 Y53.344 F400.000
G1 X-46.144 Y52.825 F400.000
G1 X-46.631 Y52.256 F400.000
G1 X-47.069 Y51.644 F400.000
G1 X-47.456 Y51.000 F400.000
G1 X-47.781 Y50.319 F400.000
G1 X-47.925 Y49.969 F400.000
G1 X-48.163 Y49.250 F400.000
G1 X-48.337 Y48.519 F400.000
G1 X-48.400 Y48.144 F400.000
G1 X-48.475 Y47.394 F400.000
G1 X-48.487 Y46.644 F400.000
G1 X-48.469 Y46.269 F400.000
G1 X-48.381 Y45.519 F400.000
G1 X-48.231 Y44.775 F400.000
G1 X-48.019 Y44.050 F400.000
G1 X-47.744 Y43.344 F400.000
G1 X-47.406 Y42.663 F400.000
G1 X-47.219 Y42.331 F400.000
G1 X-46.794 Y41.700 F400.000
G1 X-46.319 Y41.112 F400.000
G1 X-46.062 Y40.831 F400.000
G1 X-45.525 Y40.294 F400.000
G1 X-44.663 Y39.562 F400.000
G1 X-44.044 Y39.119 F400.000
G1 X-43.388 Y38.737 F400.000
G1 X-43.050 Y38.569 F400.000
G1 X-42.350 Y38.281 F400.000
G1 X-41.994 Y38.156 F400.000
G1 X-41.263 Y37.956 F400.000
G1 X-40.894 Y37.881 F400.000
G1 X-40.519 Y37.825 F400.000
G1 X-39.769 Y37.788 F400.000
G1 X-39.019 Y37.806 F400.000
G1 X-37.894 Y37.931 F400.000
G1 X-37.150 Y38.062 F400.000
G1 X-36.425 Y38.275 F400.000
G1 X-36.069 Y38.400 F400.000
G1 X-35.031 Y38.856 F400.000
G1 X-34.375 Y39.219 F400.000
G1 X-33.763 Y39.650 F400.000
G1 X-33.469 Y39.888 F400.000
G1 X-32.925 Y40.400 F400.000
G1 X-32.413 Y40.950 F400.000
G1 X-31.950 Y41.544 F400.000
G1 X-31.525 Y42.163 F400.000
G1 X-31.150 Y42.806 F400.000
G1 X-30.825 Y43.475 F400.000
G1 X-30.550 Y44.169 F400.000
G1 X-30.325 Y44.881 F400.000
G1 X-30.181 Y45.612 F400.000
G1 X-30.087 Y46.350 F400.000
G1 X-30.062 Y46.719 F400.000
G1 X-30.062 Y47.456 F400.000
G1 X-30.113 Y48.194 F400.000
G1 X-30.225 Y48.931 F400.000
G1 X-30.387 Y49.656 F400.000
G1 X-30.613 Y50.362 F400.000
G1 X-30.887 Y51.056 F400.000
G1 X-31.244 Y51.706 F400.000
G1 X-31.644 Y52.331 F400.000
G1 X-32.094 Y52.925 F400.000
G1 X-32.331 Y53.212 F400.000
G1 X-32.837 Y53.756 F400.000
G1 X-33.381 Y54.263 F400.000
G1 X-33.956 Y54.725 F400.000
G1 X-34.562 Y55.150 F400.000
G1 X-35.200 Y55.525 F400.000
G1 X-35.869 Y55.862 F400.000
G1 X-36.550 Y56.150 F400.000
G1 X-37.256 Y56.388 F400.000
G1 X-37.975 Y56.575 F400.000
G1 X-38.337 Y56.650 F400.000
G1 X-39.075 Y56.750 F400.000
G1 X-39.812 Y56.800 F400.000
G1 X-40.550 Y56.769 F400.000
G1 X-40.919 Y56.731 F400.000
G1 X-41.650 Y56.594 F400.000
G1 X-42.375 Y56.400 F400.000
G1 X-43.081 Y56.150 F400.000
G1 X-43.763 Y55.850 F400.000
G1 X-44.419 Y55.500 F400.000
G1 X-45.050 Y55.100 F400.000
G1 X-45.944 Y54.419 F400.000
G1 X-46.775 Y53.669 F400.000
G1 X-47.038 Y53.400 F400.000
G1 X-47.513 Y52.819 F400.000
G1 X-47.737 Y52.519 F400.000
G1 X-48.138 Y51.888 F400.000
G1 X-48.500 Y51.225 F400.000
G1 X-48.812 Y50.544 F400.000
G1 X-49.087 Y49.837 F400.000
G1 X-49.281 Y49.112 F400.000
G1 X-49.356 Y48.744 F400.000
G1 X-49.462 Y47.994 F400.000
G1 X-49.513 Y47.244 F400.000
G1 X-49.519 Y46.869 F400.000
G1 X-49.481 Y46.119 F400.000
G1 X-49.394 Y45.369 F400.000
G1 X-49.244 Y44.625 F400.000
G1 X-49.044 Y43.894 F400.000
G1 X-48.794 Y43.181 F400.000
G1 X-48.650 Y42.831 F400.000
G1 X-48.312 Y42.150 F400.000
G1 X-47.925 Y41.494 F400.000
G1 X-47.500 Y40.869 F400.000
G1 X-47.025 Y40.275 F400.000
G1 X-46.506 Y39.719 F400.000
G1 X-45.950 Y39.206 F400.000
G1 X-45.356 Y38.731 F400.000
G1 X-44.413 Y38.100 F400.000
G1 X-43.756 Y37.719 F400.000
G1 X-43.069 Y37.400 F400.000
G1 X-42.362 Y37.138 F400.000
G1 X-42.000 Y37.025 F400.000
G1 X-41.263 Y36.850 F400.000
G1 X-40.138 Y36.725 F400.000
G1 X-39.013 Y36.725 F400.000
G1 X-37.888 Y36.819 F400.000
G1 X-37.513 Y36.869 F400.000
G1 X-36.775 Y37.025 F400.000
G1 X-36.056 Y37.237 F400.000
G1 X-35.700 Y37.362 F400.000
G1 X-35.006 Y37.663 F400.000
G1 X-34.006 Y38.194 F400.000
G1 X-33.375 Y38.600 F400.000
G1 X-32.781 Y39.056 F400.000
G1 X-32.494 Y39.300 F400.000
G1 X-31.956 Y39.819 F400.000
G1 X-31.700 Y40.094 F400.000
G1 X-31.225 Y40.675 F400.000
G1 X-30.788 Y41.281 F400.000
G1 X-30.206 Y42.237 F400.000
G1 X-29.863 Y42.900 F400.000
G1 X-29.581 Y43.587 F400.000
G1 X-29.456 Y43.938 F400.000
G1 X-29.250 Y44.656 F400.000
G1 X-29.100 Y45.388 F400.000
G1 X-29.044 Y45.756 F400.000
G1 X-28.981 Y46.494 F400.000
G1 X-28.956 Y47.231 F400.000
G1 X-28.975 Y47.969 F400.000
G1 X-29.062 Y48.706 F400.000
G1 X-29.125 Y49.075 F400.000
G1 X-29.300 Y49.800 F400.000
G1 X-29.637 Y50.856 F400.000
G1 X-29.919 Y51.544 F400.000
G1 X-30.256 Y52.206 F400.000
G1 X-30.644 Y52.837 F400.000
G1 X-31.081 Y53.438 F400.000
G1 X-31.556 Y54.006 F400.000
G1 X-32.069 Y54.544 F400.000
G1 X-32.612 Y55.050 F400.000
G1 X-33.181 Y55.525 F400.000
G1 X-33.475 Y55.750 F400.000
G1 X-34.094 Y56.156 F400.000
G1 X-34.731 Y56.531 F400.000
G1 X-35.731 Y57.019 F400.000
G1 X-36.419 Y57.294 F400.000
G1 X-37.131 Y57.494 F400.000
G1 X-37.856 Y57.663 F400.000
G1 X-38.587 Y57.788 F400.000
G1 X-39.325 Y57.844 F400.000
G1 X-39.694 Y57.856 F400.000
G1 X-40.431 Y57.831 F400.000
G1 X-40.800 Y57.800 F400.000
G1 X-41.538 Y57.688 F400.000
G1 X-42.263 Y57.525 F400.000
G1 X-42.975 Y57.300 F400.000
G1 X-43.669 Y57.025 F400.000
G1 X-44.344 Y56.712 F400.000
G1 X-45.325 Y56.169 F400.000
G1 X-45.956 Y55.763 F400.000
G1 X-46.550 Y55.306 F400.000
G1 X-46.837 Y55.062 F400.000
G1 X-47.375 Y54.544 F400.000
G1 X-47.888 Y53.994 F400.000
G1 X-48.600 Y53.119 F400.000
G1 X-48.819 Y52.812 F400.000
G1 X-49.206 Y52.163 F400.000
G1 X-49.381 Y51.831 F400.000
G1 X-49.837 Y50.800 F400.000
G1 X-50.200 Y49.731 F400.000
G1 X-50.300 Y49.369 F400.000
G1 X-50.438 Y48.631 F400.000
G1 X-50.525 Y47.881 F400.000
G1 X-50.569 Y46.756 F400.000
G1 X-50.544 Y46.006 F400.000
G1 X-50.469 Y45.256 F400.000
G1 X-50.413 Y44.881 F400.000
G1 X-50.231 Y44.144 F400.000
G1 X-50.006 Y43.419 F400.000
G1 X-49.737 Y42.712 F400.000
G1 X-49.425 Y42.019 F400.000
G1 X-49.075 Y41.350 F400.000
G1 X-48.681 Y40.706 F400.000
G1 X-48.244 Y40.087 F400.000
G1 X-47.769 Y39.494 F400.000
G1 X-47.263 Y38.931 F400.000
G1 X-46.700 Y38.425 F400.000
G1 X-45.800 Y37.731 F400.000
G1 X-44.844 Y37.112 F400.000
G1 X-43.837 Y36.581 F400.000
G1 X-43.144 Y36.275 F400.000
G1 X-42.794 Y36.138 F400.000
G1 X-42.069 Y35.925 F400.000
G1 X-41.700 Y35.837 F400.000
G1 X-40.950 Y35.712 F400.000
G1 X-40.200 Y35.638 F400.000
G1 X-39.450 Y35.619 F400.000
G1 X-38.700 Y35.644 F400.000
G1 X-37.950 Y35.719 F400.000
G1 X-37.200 Y35.825 F400.000
G1 X-36.462 Y35.969 F400.000
G1 X-35.737 Y36.175 F400.000
G1 X-35.381 Y36.294 F400.000
G1 X-34.681 Y36.575 F400.000
G1 X-34.337 Y36.731 F400.000
G1 X-33.669 Y37.087 F400.000
G1 X-33.038 Y37.487 F400.000
G1 X-32.131 Y38.163 F400.000
G1 X-31.562 Y38.656 F400.000
G1 X-31.031 Y39.188 F400.000
G1 X-30.781 Y39.462 F400.000
G1 X-30.312 Y40.044 F400.000
G1 X-29.875 Y40.644 F400.000
G1 X-29.275 Y41.594 F400.000
G1 X-28.919 Y42.250 F400.000
G1 X-28.625 Y42.938 F400.000
G1 X-28.494 Y43.288 F400.000
G1 X-28.281 Y44.000 F400.000
G1 X-28.106 Y44.725 F400.000
G1 X-27.975 Y45.462 F400.000
G1 X-27.856 Y46.569 F400.000
G1 X-27.831 Y47.675 F400.000
G1 X-27.869 Y48.413 F400.000
G1 X-27.988 Y49.150 F400.000
G1 X-28.156 Y49.875 F400.000
G1 X-28.369 Y50.581 F400.000
G1 X-28.619 Y51.281 F400.000
G1 X-29.050 Y52.306 F400.000
G1 X-29.212 Y52.638 F400.000
G1 X-29.600 Y53.275 F400.000
G1 X-29.806 Y53.581 F400.000
G1 X-30.494 Y54.456 F400.000
G1 X-31.250 Y55.269 F400.000
G1 X-32.069 Y56.019 F400.000
G1 X-32.944 Y56.712 F400.000
G1 X-33.550 Y57.131 F400.000
G1 X-34.200 Y57.494 F400.000
G1 X-34.862 Y57.831 F400.000
G1 X-35.888 Y58.263 F400.000
G1 X-36.237 Y58.388 F400.000
G1 X-36.950 Y58.587 F400.000
G1 X-38.038 Y58.819 F400.000
G1 X-38.406 Y58.875 F400.000
G1 X-39.144 Y58.931 F400.000
G1 X-39.881 Y58.944 F400.000
G1 X-40.619 Y58.913 F400.000
G1 X-41.356 Y58.837 F400.000
G1 X-42.081 Y58.675 F400.000
G1 X-42.800 Y58.481 F400.000
G1 X-43.856 Y58.106 F400.000
G1 X-44.875 Y57.644 F400.000
G1 X-45.531 Y57.288 F400.000
G1 X-46.163 Y56.894 F400.000
G1 X-46.769 Y56.462 F400.000
G1 X-47.631 Y55.750 F400.000
G1 X-48.175 Y55.231 F400.000
G1 X-48.688 Y54.688 F400.000
G1 X-49.169 Y54.106 F400.000
G1 X-49.825 Y53.188 F400.000
G1 X-50.025 Y52.869 F400.000
G1 X-50.369 Y52.200 F400.000
G1 X-50.681 Y51.513 F400.000
G1 X-51.075 Y50.456 F400.000
G1 X-51.294 Y49.737 F400.000
G1 X-51.444 Y49.000 F400.000
G1 X-51.500 Y48.625 F400.000
G1 X-51.581 Y47.875 F400.000
G1 X-51.619 Y46.750 F400.000
G1 X-51.587 Y46.000 F400.000
G1 X-51.513 Y45.250 F400.000
G1 X-51.394 Y44.500 F400.000
G1 X-51.231 Y43.763 F400.000
G1 X-51.025 Y43.031 F400.000
G1 X-50.744 Y42.331 F400.000
G1 X-50.431 Y41.644 F400.000
G1 X-50.069 Y40.975 F400.000
G1 X-49.487 Y40.000 F400.000
G1 X-49.281 Y39.681 F400.000
G1 X-48.819 Y39.081 F400.000
G1 X-48.575 Y38.794 F400.000
G1 X-48.056 Y38.250 F400.000
G1 X-47.506 Y37.725 F400.000
G1 X-46.625 Y36.994 F400.000
G1 X-45.694 Y36.337 F400.000
G1 X-44.719 Y35.756 F400.000
G1 X-44.381 Y35.581 F400.000
G1 X-43.681 Y35.294 F400.000
G1 X-42.969 Y35.044 F400.000
G1 X-41.869 Y34.756 F400.000
G1 X-41.125 Y34.619 F400.000
G1 X-40.375 Y34.531 F400.000
G1 X-39.625 Y34.494 F400.000
G1 X-38.875 Y34.506 F400.000
G1 X-38.125 Y34.562 F400.000
G1 X-37.375 Y34.663 F400.000
G1 X-36.269 Y34.881 F400.000
G1 X-35.538 Y35.062 F400.000
G1 X-35.175 Y35.169 F400.000
G1 X-34.475 Y35.444 F400.000
G1 X-34.131 Y35.594 F400.000
G1 X-33.131 Y36.125 F400.000
G1 X-31.875 Y36.956 F400.000
G1 X-31.275 Y37.406 F400.000
G1 X-30.438 Y38.156 F400.000
G1 X-29.919 Y38.700 F400.000
G1 X-29.438 Y39.269 F400.000
G1 X-28.994 Y39.875 F400.000
G1 X-28.587 Y40.506 F400.000
G1 X-28.056 Y41.494 F400.000
G1 X-27.744 Y42.169 F400.000
G1 X-27.331 Y43.212 F400.000
G1 X-27.212 Y43.562 F400.000
G1 X-26.962 Y44.650 F400.000
G1 X-26.844 Y45.388 F400.000
G1 X-26.725 Y46.862 F400.000
G1 X-26.706 Y47.600 F400.000
G1 X-26.775 Y48.706 F400.000
G1 X-26.825 Y49.075 F400.000
G1 X-26.981 Y49.800 F400.000
G1 X-27.175 Y50.513 F400.000
G1 X-27.663 Y51.919 F400.000
G1 X-27.800 Y52.263 F400.000
G1 X-28.113 Y52.938 F400.000
G1 X-28.281 Y53.269 F400.000
G1 X-28.681 Y53.894 F400.000
G1 X-28.894 Y54.200 F400.000
G1 X-29.587 Y55.075 F400.000
G1 X-30.331 Y55.900 F400.000
G1 X-31.119 Y56.681 F400.000
G1 X-31.394 Y56.931 F400.000
G1 X-32.263 Y57.619 F400.000
G1 X-32.881 Y58.038 F400.000
G1 X-33.850 Y58.587 F400.000
G1 X-34.519 Y58.900 F400.000
G1 X-35.206 Y59.175 F400.000
G1 X-36.263 Y59.525 F400.000
G1 X-36.975 Y59.719 F400.000
G1 X-38.069 Y59.925 F400.000
G1 X-38.806 Y60.006 F400.000
G1 X-39.913 Y60.050 F400.000
G1 X-40.650 Y60.025 F400.000
G1 X-41.019 Y59.994 F400.000
G1 X-41.756 Y59.856 F400.000
G1 X-42.481 Y59.688 F400.000
G1 X-43.550 Y59.350 F400.000
G1 X-44.244 Y59.081 F400.000
G1 X-45.269 Y58.631 F400.000
G1 X-45.938 Y58.300 F400.000
G1 X-46.888 Y57.700 F400.000
G1 X-47.775 Y57.013 F400.000
G1 X-48.612 Y56.263 F400.000
G1 X-49.138 Y55.731 F400.000
G1 X-49.631 Y55.175 F400.000
G1 X-50.325 Y54.294 F400.000
G1 X-50.750 Y53.675 F400.000
G1 X-51.144 Y53.031 F400.000
G1 X-51.475 Y52.356 F400.000
G1 X-51.775 Y51.669 F400.000
G1 X-52.156 Y50.606 F400.000
G1 X-52.362 Y49.881 F400.000
G1 X-52.500 Y49.144 F400.000
G1 X-52.594 Y48.394 F400.000
G1 X-52.669 Y47.269 F400.000
G1 X-52.675 Y46.144 F400.000
G1 X-52.663 Y45.769 F400.000
G1 X-52.587 Y45.019 F400.000
G1 X-52.462 Y44.269 F400.000
G1 X-52.388 Y43.900 F400.000
G1 X-52.075 Y42.806 F400.000
G1 X-51.812 Y42.100 F400.000
G1 X-51.500 Y41.406 F400.000
G1 X-51.156 Y40.731 F400.000
G1 X-50.587 Y39.744 F400.000
G1 X-49.962 Y38.794 F400.000
G1 X-49.506 Y38.188 F400.000
G1 X-48.994 Y37.625 F400.000
G1 X-48.456 Y37.087 F400.000
G1 X-47.600 Y36.331 F400.000
G1 X-46.700 Y35.638 F400.000
G1 X-45.744 Y35.019 F400.000
G1 X-45.069 Y34.681 F400.000
G1 X-44.375 Y34.375 F400.000
G1 X-43.312 Y33.981 F400.000
G1 X-42.587 Y33.763 F400.000
G1 X-41.850 Y33.606 F400.000
G1 X-41.475 Y33.544 F400.000
G1 X-40.350 Y33.425 F400.000
G1 X-39.225 Y33.388 F400.000
G1 X-38.475 Y33.406 F400.000
G1 X-37.725 Y33.462 F400.000
G1 X-37.350 Y33.506 F400.000
G1 X-36.612 Y33.644 F400.000
G1 X-35.875 Y33.812 F400.000
G1 X-34.788 Y34.125 F400.000
G1 X-34.431 Y34.244 F400.000
G1 X-33.737 Y34.538 F400.000
G1 X-33.400 Y34.700 F400.000
G1 X-32.413 Y35.250 F400.000
G1 X-31.469 Y35.869 F400.000
G1 X-30.575 Y36.562 F400.000
G1 X-30.006 Y37.056 F400.000
G1 X-29.462 Y37.575 F400.000
G1 X-28.944 Y38.119 F400.000
G1 X-28.231 Y38.981 F400.000
G1 X-28.006 Y39.281 F400.000
G1 X-27.619 Y39.919 F400.000
G1 X-27.256 Y40.569 F400.000
G1 X-26.600 Y41.913 F400.000
G1 X-26.450 Y42.256 F400.000
G1 X-26.094 Y43.312 F400.000
G1 X-25.913 Y44.038 F400.000
G1 X-25.681 Y45.513 F400.000
G1 X-25.581 Y46.619 F400.000
G1 X-25.544 Y47.725 F400.000
G1 X-25.631 Y48.831 F400.000
G1 X-25.750 Y49.569 F400.000
G1 X-25.913 Y50.294 F400.000
G1 X-26.125 Y51.006 F400.000
G1 X-26.356 Y51.706 F400.000
G1 X-26.762 Y52.737 F400.000
G1 X-26.913 Y53.075 F400.000
G1 X-27.262 Y53.725 F400.000
G1 X-27.450 Y54.044 F400.000
G1 X-28.081 Y54.962 F400.000
G1 X-28.775 Y55.831 F400.000
G1 X-29.269 Y56.388 F400.000
G1 X-29.775 Y56.931 F400.000
G1 X-30.562 Y57.712 F400.000
G1 X-31.438 Y58.406 F400.000
G1 X-32.369 Y59.013 F400.000
G1 X-33.337 Y59.556 F400.000
G1 X-34.344 Y60.025 F400.000
G1 X-35.031 Y60.300 F400.000
G1 X-35.731 Y60.544 F400.000
G1 X-36.444 Y60.750 F400.000
G1 X-37.169 Y60.888 F400.000
G1 X-37.906 Y61.006 F400.000
G1 X-39.013 Y61.125 F400.000
G1 X-39.381 Y61.150 F400.000
G1 X-40.487 Y61.138 F400.000
G1 X-41.225 Y61.069 F400.000
G1 X-41.594 Y61.019 F400.000
G1 X-42.681 Y60.763 F400.000
G1 X-43.750 Y60.425 F400.000
G1 X-44.450 Y60.163 F400.000
G1 X-45.475 Y59.712 F400.000
G1 X-46.144 Y59.381 F400.000
G1 X-47.119 Y58.819 F400.000
G1 X-47.438 Y58.619 F400.000
G1 X-48.038 Y58.169 F400.000
G1 X-48.619 Y57.694 F400.000
G1 X-49.175 Y57.188 F400.000
G1 X-49.706 Y56.656 F400.000
G1 X-50.212 Y56.100 F400.000
G1 X-50.938 Y55.231 F400.000
G1 X-51.394 Y54.631 F400.000
G1 X-51.806 Y54.006 F400.000
G1 X-52.181 Y53.356 F400.000
G1 X-52.519 Y52.688 F400.000
G1 X-52.956 Y51.644 F400.000
G1 X-53.194 Y50.931 F400.000
G1 X-53.394 Y50.200 F400.000
G1 X-53.544 Y49.462 F400.000
G1 X-53.656 Y48.712 F400.000
G1 X-53.756 Y47.212 F400.000
G1 X-53.756 Y46.087 F400.000
G1 X-53.725 Y45.337 F400.000
G1 X-53.625 Y44.587 F400.000
G1 X-53.556 Y44.212 F400.000
G1 X-53.375 Y43.475 F400.000
G1 X-53.169 Y42.750 F400.000
G1 X-52.794 Y41.675 F400.000
G1 X-52.656 Y41.325 F400.000
G1 X-52.331 Y40.638 F400.000
G1 X-51.969 Y39.969 F400.000
G1 X-51.587 Y39.312 F400.000
G1 X-50.962 Y38.356 F400.000
G1 X-50.519 Y37.744 F400.000
G1 X-50.031 Y37.169 F400.000
G1 X-49.775 Y36.888 F400.000
G1 X-49.244 Y36.344 F400.000
G1 X-48.406 Y35.569 F400.000
G1 X-47.525 Y34.856 F400.000
G1 X-47.219 Y34.631 F400.000
G1 X-46.581 Y34.231 F400.000
G1 X-45.913 Y33.869 F400.000
G1 X-44.875 Y33.388 F400.000
G1 X-44.175 Y33.100 F400.000
G1 X-43.456 Y32.856 F400.000
G1 X-42.356 Y32.569 F400.000
G1 X-41.612 Y32.425 F400.000
G1 X-40.487 Y32.288 F400.000
G1 X-39.737 Y32.250 F400.000
G1 X-38.987 Y32.256 F400.000
G1 X-38.237 Y32.288 F400.000
G1 X-37.487 Y32.356 F400.000
G1 X-36.737 Y32.475 F400.000
G1 X-35.631 Y32.719 F400.000
G1 X-34.544 Y33.031 F400.000
G1 X-33.831 Y33.275 F400.000
G1 X-33.144 Y33.575 F400.000
G1 X-32.475 Y33.913 F400.000
G1 X-31.506 Y34.481 F400.000
G1 X-30.575 Y35.112 F400.000
G1 X-29.681 Y35.800 F400.000
G1 X-29.113 Y36.281 F400.000
G1 X-28.587 Y36.819 F400.000
G1 X-28.081 Y37.369 F400.000
G1 X-27.600 Y37.944 F400.000
G1 X-27.163 Y38.550 F400.000
G1 X-26.762 Y39.181 F400.000
G1 X-26.381 Y39.825 F400.000
G1 X-25.863 Y40.819 F400.000
G1 X-25.394 Y41.837 F400.000
G1 X-25.144 Y42.538 F400.000
G1 X-24.950 Y43.256 F400.000
G1 X-24.788 Y43.981 F400.000
G1 X-24.594 Y45.087 F400.000
G1 X-24.413 Y46.562 F400.000
G1 X-24.387 Y47.669 F400.000
G1 X-24.419 Y48.406 F400.000
G1 X-24.494 Y49.144 F400.000
G1 X-24.637 Y49.869 F400.000
G1 X-24.819 Y50.594 F400.000
G1 X-25.137 Y51.663 F400.000
G1 X-25.500 Y52.712 F400.000
G1 X-25.800 Y53.388 F400.000
G1 X-26.319 Y54.369 F400.000
G1 X-26.712 Y55.000 F400.000
G1 X-27.144 Y55.606 F400.000
G1 X-27.844 Y56.481 F400.000
G1 X-28.575 Y57.312 F400.000
G1 X-29.350 Y58.112 F400.000
G1 X-29.619 Y58.369 F400.000
G1 X-30.469 Y59.081 F400.000
G1 X-31.375 Y59.719 F400.000
G1 X-32.006 Y60.100 F400.000
G1 X-32.987 Y60.625 F400.000
G1 X-34.331 Y61.250 F400.000
G1 X-35.388 Y61.606 F400.000
G1 X-36.475 Y61.881 F400.000
G1 X-37.569 Y62.081 F400.000
G1 X-38.675 Y62.212 F400.000
G1 X-39.413 Y62.269 F400.000
G1 X-40.519 Y62.237 F400.000
G1 X-41.256 Y62.150 F400.000
G1 X-41.994 Y62.025 F400.000
G1 X-43.081 Y61.769 F400.000
G1 X-44.150 Y61.431 F400.000
G1 X-45.194 Y61.019 F400.000
G1 X-46.212 Y60.550 F400.000
G1 X-47.212 Y60.038 F400.000
G1 X-48.163 Y59.438 F400.000
G1 X-49.062 Y58.763 F400.000
G1 X-49.631 Y58.269 F400.000
G1 X-50.163 Y57.744 F400.000
G1 X-50.925 Y56.913 F400.000
G1 X-51.894 Y55.756 F400.000
G1 X-52.125 Y55.462 F400.000
G1 X-52.931 Y54.200 F400.000
G1 X-53.294 Y53.544 F400.000
G1 X-53.606 Y52.856 F400.000
G1 X-53.894 Y52.156 F400.000
G1 X-54.269 Y51.087 F400.000
G1 X-54.475 Y50.362 F400.000
G1 X-54.612 Y49.625 F400.000
G1 X-54.756 Y48.500 F400.000
G1 X-54.831 Y47.000 F400.000
G1 X-54.844 Y46.250 F400.000
G1 X-54.781 Y45.125 F400.000
G1 X-54.737 Y44.750 F400.000
G1 X-54.600 Y44.006 F400.000
G1 X-54.425 Y43.269 F400.000
G1 X-54.100 Y42.181 F400.000
G1 X-53.712 Y41.112 F400.000
G1 X-53.425 Y40.413 F400.000
G1 X-53.075 Y39.737 F400.000
G1 X-52.506 Y38.750 F400.000
G1 X-51.888 Y37.800 F400.000
G1 X-51.212 Y36.888 F400.000
G1 X-50.481 Y36.025 F400.000
G1 X-49.962 Y35.469 F400.000
G1 X-49.694 Y35.200 F400.000
G1 X-49.119 Y34.700 F400.000
G1 X-48.231 Y33.987 F400.000
G1 X-47.925 Y33.763 F400.000
G1 X-47.281 Y33.362 F400.000
G1 X-46.619 Y32.987 F400.000
G1 X-45.594 Y32.481 F400.000
G1 X-44.538 Y32.050 F400.000
G1 X-43.819 Y31.806 F400.000
G1 X-42.725 Y31.506 F400.000
G1 X-41.987 Y31.350 F400.000
G1 X-41.237 Y31.231 F400.000
G1 X-40.112 Y31.119 F400.000
G1 X-39.362 Y31.087 F400.000
G1 X-38.612 Y31.094 F400.000
G1 X-38.237 Y31.113 F400.000
G1 X-37.487 Y31.200 F400.000
G1 X-36.737 Y31.319 F400.000
G1 X-35.263 Y31.644 F400.000
G1 X-34.538 Y31.837 F400.000
G1 X-33.469 Y32.200 F400.000
G1 X-32.769 Y32.481 F400.000
G1 X-32.087 Y32.800 F400.000
G1 X-31.438 Y33.175 F400.000
G1 X-30.488 Y33.794 F400.000
G1 X-29.262 Y34.669 F400.000
G1 X-28.400 Y35.400 F400.000
G1 X-27.869 Y35.931 F400.000
G1 X-27.113 Y36.763 F400.000
G1 X-26.637 Y37.337 F400.000
G1 X-25.794 Y38.575 F400.000
G1 X-25.231 Y39.544 F400.000
G1 X-24.725 Y40.544 F400.000
G1 X-24.294 Y41.569 F400.000
G1 X-24.038 Y42.269 F400.000
G1 X-23.750 Y43.350 F400.000
G1 X-23.538 Y44.450 F400.000
G1 X-23.312 Y45.925 F400.000
G1 X-23.244 Y47.031 F400.000
G1 X-23.256 Y48.138 F400.000
G1 X-23.312 Y48.875 F400.000
G1 X-23.356 Y49.244 F400.000
G1 X-23.500 Y49.969 F400.000
G1 X-23.669 Y50.694 F400.000
G1 X-23.981 Y51.763 F400.000
G1 X-24.344 Y52.812 F400.000
G1 X-24.606 Y53.500 F400.000
G1 X-25.081 Y54.506 F400.000
G1 X-25.256 Y54.831 F400.000
G1 X-25.663 Y55.456 F400.000
G1 X-26.087 Y56.062 F400.000
G1 X-26.762 Y56.944 F400.000
G1 X-27.488 Y57.781 F400.000
G1 X-28.256 Y58.581 F400.000
G1 X-29.069 Y59.344 F400.000
G1 X-29.919 Y60.056 F400.000
G1 X-30.212 Y60.281 F400.000
G1 X-31.475 Y61.075 F400.000
G1 X-32.450 Y61.606 F400.000
G1 X-33.456 Y62.075 F400.000
G1 X-34.494 Y62.487 F400.000
G1 X-35.562 Y62.794 F400.000
G1 X-36.288 Y62.962 F400.000
G1 X-37.381 Y63.156 F400.000
G1 X-38.487 Y63.288 F400.000
G1 X-39.594 Y63.362 F400.000
G1 X-40.700 Y63.312 F400.000
G1 X-41.438 Y63.219 F400.000
G1 X-42.175 Y63.100 F400.000
G1 X-43.263 Y62.856 F400.000
G1 X-44.337 Y62.538 F400.000
G1 X-45.044 Y62.294 F400.000
G1 X-45.731 Y61.994 F400.000
G1 X-46.737 Y61.506 F400.000
G1 X-47.400 Y61.156 F400.000
G1 X-48.688 Y60.388 F400.000
G1 X-49.000 Y60.181 F400.000
G1 X-49.587 Y59.719 F400.000
G1 X-49.875 Y59.475 F400.000
G1 X-50.694 Y58.700 F400.000
G1 X-51.487 Y57.900 F400.000
G1 X-52.250 Y57.075 F400.000
G1 X-52.944 Y56.188 F400.000
G1 X-53.562 Y55.244 F400.000
G1 X-54.112 Y54.263 F400.000
G1 X-54.612 Y53.250 F400.000
G1 X-54.769 Y52.906 F400.000
G1 X-55.031 Y52.206 F400.000
G1 X-55.356 Y51.125 F400.000
G1 X-55.538 Y50.388 F400.000
G1 X-55.750 Y49.281 F400.000
G1 X-55.856 Y48.531 F400.000
G1 X-55.931 Y47.031 F400.000
G1 X-55.913 Y45.906 F400.000
G1 X-55.869 Y45.156 F400.000
G1 X-55.763 Y44.406 F400.000
G1 X-55.444 Y42.925 F400.000
G1 X-55.131 Y41.837 F400.000
G1 X-54.756 Y40.763 F400.000
G1 X-54.619 Y40.406 F400.000
G1 X-54.131 Y39.381 F400.000
G1 X-53.569 Y38.394 F400.000
G1 X-52.744 Y37.119 F400.000
G1 X-51.837 Y35.900 F400.000
G1 X-51.356 Y35.312 F400.000
G1 X-50.562 Y34.494 F400.000
G1 X-49.994 Y33.987 F400.000
G1 X-49.112 Y33.263 F400.000
G1 X-48.812 Y33.031 F400.000
G1 X-48.175 Y32.619 F400.000
G1 X-47.194 Y32.038 F400.000
G1 X-46.531 Y31.675 F400.000
G1 X-46.194 Y31.506 F400.000
G1 X-45.494 Y31.206 F400.000
G1 X-45.138 Y31.069 F400.000
G1 X-44.062 Y30.712 F400.000
G1 X-43.337 Y30.500 F400.000
G1 X-42.231 Y30.238 F400.000
G1 X-41.481 Y30.106 F400.000
G1 X-40.731 Y30.012 F400.000
G1 X-39.981 Y29.956 F400.000
G1 X-39.231 Y29.938 F400.000
G1 X-38.106 Y29.975 F400.000
G1 X-37.731 Y30.006 F400.000
G1 X-36.606 Y30.175 F400.000
G1 X-34.763 Y30.581 F400.000
G1 X-34.038 Y30.781 F400.000
G1 X-32.975 Y31.163 F400.000
G1 X-32.288 Y31.456 F400.000
G1 X-31.613 Y31.788 F400.000
G1 X-30.956 Y32.156 F400.000
G1 X-29.994 Y32.744 F400.000
G1 X-28.756 Y33.587 F400.000
G1 X-28.181 Y34.062 F400.000
G1 X-27.900 Y34.312 F400.000
G1 X-27.094 Y35.100 F400.000
G1 X-26.331 Y35.925 F400.000
G1 X-25.613 Y36.788 F400.000
G1 X-24.775 Y38.025 F400.000
G1 X-24.212 Y38.994 F400.000
G1 X-23.706 Y39.994 F400.000
G1 X-23.256 Y41.019 F400.000
G1 X-23.119 Y41.362 F400.000
G1 X-22.794 Y42.431 F400.000
G1 X-22.613 Y43.156 F400.000
G1 X-22.400 Y44.256 F400.000
G1 X-22.200 Y45.731 F400.000
G1 X-22.125 Y46.469 F400.000
G1 X-22.087 Y47.575 F400.000
G1 X-22.106 Y48.312 F400.000
G1 X-22.163 Y49.050 F400.000
G1 X-22.288 Y49.781 F400.000
G1 X-22.444 Y50.506 F400.000
G1 X-22.725 Y51.581 F400.000
G1 X-23.050 Y52.650 F400.000
G1 X-23.169 Y53.000 F400.000
G1 X-23.587 Y54.031 F400.000
G1 X-23.906 Y54.700 F400.000
G1 X-24.450 Y55.675 F400.000
G1 X-24.850 Y56.300 F400.000
G1 X-25.506 Y57.200 F400.000
G1 X-25.975 Y57.769 F400.000
G1 X-26.225 Y58.044 F400.000
G1 X-26.462 Y58.331 F400.000
G1 X-27.469 Y59.425 F400.000
G1 X-28.288 Y60.175 F400.000
G1 X-29.156 Y60.869 F400.000
G1 X-30.381 Y61.694 F400.000
G1 X-31.337 Y62.269 F400.000
G1 X-32.312 Y62.806 F400.000
G1 X-32.987 Y63.106 F400.000
G1 X-34.031 Y63.487 F400.000
G1 X-35.094 Y63.806 F400.000
G1 X-36.175 Y64.075 F400.000
G1 X-37.263 Y64.287 F400.000
G1 X-38.369 Y64.406 F400.000
G1 X-39.475 Y64.456 F400.000
G1 X-40.581 Y64.438 F400.000
G1 X-41.319 Y64.362 F400.000
G1 X-42.425 Y64.175 F400.000
G1 X-43.513 Y63.913 F400.000
G1 X-44.944 Y63.494 F400.000
G1 X-45.644 Y63.219 F400.000
G1 X-46.669 Y62.756 F400.000
G1 X-47.987 Y62.056 F400.000
G1 X-48.950 Y61.487 F400.000
G1 X-49.881 Y60.869 F400.000
G1 X-50.456 Y60.394 F400.000
G1 X-51.556 Y59.375 F400.000
G1 X-52.612 Y58.306 F400.000
G1 X-53.337 Y57.444 F400.000
G1 X-53.788 Y56.844 F400.000
G1 X-54.406 Y55.906 F400.000
G1 X-54.781 Y55.256 F400.000
G1 X-55.475 Y53.919 F400.000
G1 X-55.794 Y53.237 F400.000
G1 X-56.169 Y52.175 F400.000
G1 X-56.388 Y51.456 F400.000
G1 X-56.650 Y50.356 F400.000
G1 X-56.837 Y49.237 F400.000
G1 X-56.950 Y48.112 F400.000
G1 X-57.000 Y46.612 F400.000
G1 X-57.000 Y45.862 F400.000
G1 X-56.906 Y44.737 F400.000
G1 X-56.788 Y43.987 F400.000
G1 X-56.631 Y43.250 F400.000
G1 X-56.350 Y42.150 F400.000
G1 X-56.019 Y41.062 F400.000
G1 X-55.631 Y39.994 F400.000
G1 X-55.319 Y39.306 F400.000
G1 X-54.781 Y38.306 F400.000
G1 X-54.394 Y37.656 F400.000
G1 X-53.775 Y36.700 F400.000
G1 X-52.669 Y35.156 F400.000
G1 X-51.919 Y34.306 F400.000
G1 X-51.112 Y33.506 F400.000
G1 X-50.562 Y32.987 F400.000
G1 X-49.975 Y32.500 F400.000
G1 X-49.044 Y31.850 F400.000
G1 X-47.425 Y30.856 F400.000
G1 X-47.094 Y30.675 F400.000
G1 X-46.056 Y30.206 F400.000
G1 X-44.987 Y29.819 F400.000
G1 X-43.900 Y29.481 F400.000
G1 X-42.800 Y29.194 F400.000
G1 X-42.431 Y29.113 F400.000
G1 X-41.306 Y28.938 F400.000
G1 X-40.181 Y28.844 F400.000
G1 X-39.431 Y28.812 F400.000
G1 X-38.306 Y28.831 F400.000
G1 X-37.556 Y28.875 F400.000
G1 X-36.806 Y28.988 F400.000
G1 X-34.962 Y29.363 F400.000
G1 X-33.862 Y29.631 F400.000
G1 X-33.150 Y29.881 F400.000
G1 X-32.450 Y30.150 F400.000
G1 X-31.419 Y30.613 F400.000
G1 X-30.419 Y31.137 F400.000
G1 X-29.456 Y31.719 F400.000
G1 X-28.531 Y32.356 F400.000
G1 X-27.650 Y33.050 F400.000
G1 X-26.812 Y33.800 F400.000
G1 X-26.012 Y34.594 F400.000
G1 X-25.244 Y35.419 F400.000
G1 X-24.550 Y36.306 F400.000
G1 X-24.125 Y36.925 F400.000
G1 X-23.531 Y37.875 F400.000
G1 X-22.631 Y39.513 F400.000
G1 X-22.188 Y40.538 F400.000
G1 X-21.812 Y41.594 F400.000
G1 X-21.606 Y42.306 F400.000
G1 X-21.363 Y43.394 F400.000
G1 X-21.131 Y44.869 F400.000
G1 X-20.944 Y46.712 F400.000
G1 X-20.931 Y47.819 F400.000
G1 X-20.962 Y48.556 F400.000
G1 X-21.031 Y49.294 F400.000
G1 X-21.325 Y50.744 F400.000
G1 X-21.800 Y52.531 F400.000
G1 X-21.906 Y52.888 F400.000
G1 X-22.300 Y53.931 F400.000
G1 X-22.925 Y55.275 F400.000
G1 X-23.269 Y55.931 F400.000
G1 X-23.656 Y56.562 F400.000
G1 X-24.081 Y57.169 F400.000
G1 X-25.219 Y58.631 F400.000
G1 X-26.206 Y59.737 F400.000
G1 X-26.988 Y60.531 F400.000
G1 X-27.531 Y61.038 F400.000
G1 X-28.113 Y61.500 F400.000
G1 X-29.325 Y62.356 F400.000
G1 X-30.906 Y63.319 F400.000
G1 X-31.556 Y63.681 F400.000
G1 X-32.225 Y64.000 F400.000
G1 X-33.612 Y64.525 F400.000
G1 X-34.312 Y64.763 F400.000
G1 X-35.388 Y65.056 F400.000
G1 X-36.112 Y65.206 F400.000
G1 X-37.587 Y65.438 F400.000
G1 X-37.956 Y65.481 F400.000
G1 X-39.431 Y65.569 F400.000
G1 X-40.169 Y65.575 F400.000
G1 X-41.275 Y65.487 F400.000
G1 X-42.013 Y65.369 F400.000
G1 X-43.100 Y65.131 F400.000
G1 X-43.825 Y64.956 F400.000
G1 X-44.894 Y64.656 F400.000
G1 X-45.944 Y64.281 F400.000
G1 X-46.631 Y63.994 F400.000
G1 X-47.638 Y63.506 F400.000
G1 X-48.944 Y62.775 F400.000
G1 X-49.900 Y62.188 F400.000
G1 X-50.513 Y61.750 F400.000
G1 X-52.206 Y60.275 F400.000
G1 X-52.750 Y59.763 F400.000
G1 X-53.513 Y58.931 F400.000
G1 X-54.450 Y57.756 F400.000
G1 X-54.894 Y57.150 F400.000
G1 X-55.500 Y56.200 F400.000
G1 X-55.869 Y55.544 F400.000
G1 X-56.369 Y54.531 F400.000
G1 X-56.969 Y53.150 F400.000
G1 X-57.106 Y52.800 F400.000
G1 X-57.531 Y51.350 F400.000
G1 X-57.769 Y50.244 F400.000
G1 X-57.938 Y49.119 F400.000
G1 X-58.031 Y47.994 F400.000
G1 X-58.087 Y46.869 F400.000
G1 X-58.100 Y46.119 F400.000
G1 X-58.044 Y44.994 F400.000
G1 X-58.006 Y44.619 F400.000
G1 X-57.875 Y43.869 F400.000
G1 X-57.719 Y43.131 F400.000
G1 X-57.031 Y40.575 F400.000
G1 X-56.638 Y39.506 F400.000
G1 X-56.487 Y39.156 F400.000
G1 X-56.144 Y38.481 F400.000
G1 X-55.775 Y37.819 F400.000
G1 X-54.994 Y36.519 F400.000
G1 X-54.356 Y35.581 F400.000
G1 X-53.450 Y34.362 F400.000
G1 X-52.700 Y33.506 F400.000
G1 X-52.169 Y32.962 F400.000
G1 X-51.612 Y32.444 F400.000
G1 X-51.031 Y31.950 F400.000
G1 X-49.819 Y31.044 F400.000
G1 X-48.881 Y30.394 F400.000
G1 X-48.562 Y30.188 F400.000
G1 X-47.900 Y29.825 F400.000
G1 X-47.219 Y29.500 F400.000
G1 X-46.163 Y29.062 F400.000
G1 X-44.381 Y28.425 F400.000
G1 X-43.275 Y28.137 F400.000
G1 X-42.531 Y27.994 F400.000
G1 X-41.031 Y27.788 F400.000
G1 X-39.906 Y27.681 F400.000
G1 X-38.781 Y27.656 F400.000
G1 X-37.656 Y27.712 F400.000
G1 X-36.906 Y27.794 F400.000
G1 X-35.788 Y27.981 F400.000
G1 X-34.681 Y28.225 F400.000
G1 X-33.944 Y28.413 F400.000
G1 X-32.875 Y28.769 F400.000
G1 X-31.825 Y29.188 F400.000
G1 X-30.456 Y29.812 F400.000
G1 X-30.119 Y29.981 F400.000
G1 X-29.469 Y30.356 F400.000
G1 X-28.519 Y30.962 F400.000
G1 X-27.606 Y31.619 F400.000
G1 X-26.450 Y32.575 F400.000
G1 X-25.894 Y33.081 F400.000
G1 X-24.850 Y34.156 F400.000
G1 X-24.119 Y35.013 F400.000
G1 X-23.444 Y35.906 F400.000
G1 X-22.812 Y36.837 F400.000
G1 X-22.231 Y37.800 F400.000
G1 X-21.706 Y38.788 F400.000
G1 X-21.238 Y39.806 F400.000
G1 X-20.825 Y40.850 F400.000
G1 X-20.613 Y41.562 F400.000
G1 X-20.331 Y42.650 F400.000
G1 X-20.250 Y43.013 F400.000
G1 X-20.019 Y44.487 F400.000
G1 X-19.806 Y46.331 F400.000
G1 X-19.769 Y47.438 F400.000
G1 X-19.800 Y48.544 F400.000
G1 X-19.863 Y49.281 F400.000
G1 X-19.988 Y50.019 F400.000
G1 X-20.394 Y51.831 F400.000
G1 X-20.681 Y52.900 F400.000
G1 X-21.056 Y53.944 F400.000
G1 X-21.663 Y55.300 F400.000
G1 X-22.337 Y56.619 F400.000
G1 X-22.738 Y57.244 F400.000
G1 X-23.381 Y58.156 F400.000
G1 X-24.075 Y59.025 F400.000
G1 X-25.281 Y60.431 F400.000
G1 X-25.531 Y60.706 F400.000
G1 X-26.325 Y61.487 F400.000
G1 X-27.156 Y62.219 F400.000
G1 X-27.444 Y62.450 F400.000
G1 X-28.050 Y62.875 F400.000
G1 X-29.931 Y64.062 F400.000
G1 X-30.900 Y64.606 F400.000
G1 X-32.250 Y65.219 F400.000
G1 X-33.288 Y65.619 F400.000
G1 X-33.987 Y65.856 F400.000
G1 X-35.438 Y66.213 F400.000
G1 X-36.894 Y66.487 F400.000
G1 X-37.263 Y66.544 F400.000
G1 X-38.369 Y66.644 F400.000
G1 X-39.475 Y66.694 F400.000
G1 X-40.212 Y66.694 F400.000
G1 X-41.319 Y66.588 F400.000
G1 X-42.425 Y66.406 F400.000
G1 X-43.875 Y66.081 F400.000
G1 X-44.600 Y65.894 F400.000
G1 X-45.669 Y65.550 F400.000
G1 X-46.712 Y65.138 F400.000
G1 X-47.731 Y64.669 F400.000
G1 X-49.050 Y63.969 F400.000
G1 X-50.344 Y63.212 F400.000
G1 X-51.250 Y62.556 F400.000
G1 X-52.112 Y61.831 F400.000
G1 X-53.206 Y60.800 F400.000
G1 X-53.981 Y59.987 F400.000
G1 X-54.950 Y58.837 F400.000
G1 X-55.844 Y57.631 F400.000
G1 X-56.462 Y56.688 F400.000
G1 X-56.844 Y56.044 F400.000
G1 X-57.181 Y55.369 F400.000
G1 X-57.800 Y53.994 F400.000
G1 X-58.194 Y52.938 F400.000
G1 X-58.425 Y52.219 F400.000
G1 X-58.706 Y51.125 F400.000
G1 X-58.931 Y50.019 F400.000
G1 X-59.081 Y48.894 F400.000
G1 X-59.150 Y48.144 F400.000
G1 X-59.188 Y47.019 F400.000
G1 X-59.181 Y45.519 F400.000
G1 X-59.069 Y44.394 F400.000
G1 X-58.938 Y43.644 F400.000
G1 X-58.694 Y42.538 F400.000
G1 X-58.219 Y40.706 F400.000
G1 X-57.725 Y39.269 F400.000
G1 X-57.413 Y38.581 F400.000
G1 X-57.075 Y37.906 F400.000
G1 X-56.531 Y36.906 F400.000
G1 X-55.331 Y34.975 F400.000
G1 X-55.119 Y34.663 F400.000
G1 X-54.419 Y33.769 F400.000
G1 X-53.419 Y32.631 F400.000
G1 X-52.894 Y32.081 F400.000
G1 X-52.044 Y31.319 F400.000
G1 X-50.844 Y30.381 F400.000
G1 X-49.612 Y29.506 F400.000
G1 X-48.631 Y28.925 F400.000
G1 X-47.612 Y28.419 F400.000
G1 X-46.556 Y27.988 F400.000
G1 X-45.119 Y27.494 F400.000
G1 X-43.663 Y27.075 F400.000
G1 X-42.925 Y26.925 F400.000
G1 X-41.800 Y26.738 F400.000
G1 X-40.300 Y26.556 F400.000
G1 X-39.925 Y26.525 F400.000
G1 X-38.800 Y26.500 F400.000
G1 X-38.050 Y26.531 F400.000
G1 X-37.300 Y26.600 F400.000
G1 X-35.806 Y26.819 F400.000
G1 X-34.331 Y27.119 F400.000
G1 X-33.600 Y27.300 F400.000
G1 X-32.525 Y27.650 F400.000
G1 X-31.131 Y28.225 F400.000
G1 X-29.762 Y28.856 F400.000
G1 X-28.781 Y29.419 F400.000
G1 X-27.531 Y30.244 F400.000
G1 X-26.031 Y31.375 F400.000
G1 X-25.206 Y32.131 F400.000
G1 X-24.675 Y32.663 F400.000
G1 X-23.919 Y33.487 F400.000
G1 X-22.969 Y34.650 F400.000
G1 X-22.094 Y35.862 F400.000
G1 X-21.494 Y36.806 F400.000
G1 X-20.938 Y37.775 F400.000
G1 X-20.431 Y38.775 F400.000
G1 X-20.125 Y39.450 F400.000
G1 X-19.863 Y40.150 F400.000
G1 X-19.525 Y41.219 F400.000
G1 X-19.238 Y42.306 F400.000
G1 X-19.012 Y43.400 F400.000
G1 X-18.844 Y44.506 F400.000
G1 X-18.631 Y46.350 F400.000
G1 X-18.581 Y47.456 F400.000
G1 X-18.581 Y47.825 F400.000
G1 X-18.669 Y48.931 F400.000
G1 X-18.900 Y50.406 F400.000
G1 X-19.387 Y52.581 F400.000
G1 X-19.594 Y53.294 F400.000
G1 X-20.125 Y54.675 F400.000
G1 X-20.581 Y55.688 F400.000
G1 X-21.087 Y56.681 F400.000
G1 X-21.637 Y57.650 F400.000
G1 X-22.050 Y58.263 F400.000
G1 X-22.712 Y59.156 F400.000
G1 X-24.125 Y60.862 F400.000
G1 X-24.887 Y61.669 F400.000
G1 X-25.700 Y62.431 F400.000
G1 X-26.550 Y63.144 F400.000
G1 X-27.438 Y63.812 F400.000
G1 X-28.363 Y64.431 F400.000
G1 X-29.950 Y65.381 F400.000
G1 X-30.950 Y65.869 F400.000
G1 X-31.637 Y66.156 F400.000
G1 X-31.975 Y66.312 F400.000
G1 X-32.663 Y66.588 F400.000
G1 X-34.438 Y67.131 F400.000
G1 X-35.150 Y67.319 F400.000
G1 X-36.244 Y67.519 F400.000
G1 X-37.350 Y67.669 F400.000
G1 X-38.825 Y67.812 F400.000
G1 X-39.931 Y67.812 F400.000
G1 X-40.669 Y67.769 F400.000
G1 X-41.775 Y67.625 F400.000
G1 X-43.619 Y67.294 F400.000
G1 X-44.706 Y67.013 F400.000
G1 X-45.419 Y66.787 F400.000
G1 X-46.469 Y66.406 F400.000
G1 X-47.844 Y65.831 F400.000
G1 X-48.856 Y65.356 F400.000
G1 X-49.188 Y65.188 F400.000
G1 X-49.837 Y64.812 F400.000
G1 X-50.788 Y64.206 F400.000
G1 X-52.006 Y63.331 F400.000
G1 X-52.881 Y62.631 F400.000
G1 X-53.431 Y62.119 F400.000
G1 X-54.475 Y61.044 F400.000
G1 X-55.450 Y59.913 F400.000
G1 X-56.825 Y58.125 F400.000
G1 X-57.450 Y57.188 F400.000
G1 X-57.644 Y56.869 F400.000
G1 X-57.994 Y56.206 F400.000
G1 X-58.325 Y55.525 F400.000
G1 X-58.900 Y54.131 F400.000
G1 X-59.275 Y53.062 F400.000
G1 X-59.594 Y51.975 F400.000
G1 X-59.856 Y50.869 F400.000
G1 X-60.062 Y49.756 F400.000
G1 X-60.200 Y48.631 F400.000
G1 X-60.275 Y47.506 F400.000
G1 X-60.294 Y46.381 F400.000
G1 X-60.256 Y45.256 F400.000
G1 X-60.231 Y44.881 F400.000
G1 X-60.069 Y43.756 F400.000
G1 X-59.500 Y41.175 F400.000
G1 X-59.175 Y40.087 F400.000
G1 X-58.788 Y39.019 F400.000
G1 X-58.337 Y37.975 F400.000
G1 X-57.831 Y36.956 F400.000
G1 X-57.269 Y35.969 F400.000
G1 X-56.050 Y34.044 F400.000
G1 X-55.362 Y33.138 F400.000
G1 X-54.875 Y32.562 F400.000
G1 X-53.837 Y31.456 F400.000
G1 X-53.300 Y30.919 F400.000
G1 X-52.144 Y29.944 F400.000
G1 X-50.938 Y29.025 F400.000
G1 X-50.631 Y28.806 F400.000
G1 X-49.663 Y28.212 F400.000
G1 X-48.994 Y27.856 F400.000
G1 X-47.962 Y27.375 F400.000
G1 X-46.206 Y26.663 F400.000
G1 X-45.138 Y26.288 F400.000
G1 X-44.031 Y26.006 F400.000
G1 X-42.919 Y25.781 F400.000
G1 X-41.044 Y25.500 F400.000
G1 X-39.919 Y25.381 F400.000
G1 X-38.794 Y25.356 F400.000
G1 X-38.044 Y25.387 F400.000
G1 X-37.294 Y25.456 F400.000
G1 X-36.169 Y25.606 F400.000
G1 X-34.306 Y25.925 F400.000
G1 X-33.219 Y26.225 F400.000
G1 X-32.150 Y26.581 F400.000
G1 X-30.400 Y27.269 F400.000
G1 X-29.712 Y27.575 F400.000
G1 X-29.050 Y27.925 F400.000
G1 X-27.769 Y28.712 F400.000
G1 X-26.531 Y29.569 F400.000
G1 X-25.344 Y30.488 F400.000
G1 X-24.488 Y31.219 F400.000
G1 X-23.950 Y31.744 F400.000
G1 X-22.950 Y32.856 F400.000
G1 X-22.006 Y34.019 F400.000
G1 X-20.913 Y35.538 F400.000
G1 X-20.113 Y36.800 F400.000
G1 X-19.438 Y38.131 F400.000
G1 X-19.131 Y38.812 F400.000
G1 X-18.738 Y39.862 F400.000
G1 X-18.406 Y40.931 F400.000
G1 X-18.031 Y42.381 F400.000
G1 X-17.950 Y42.744 F400.000
G1 X-17.494 Y45.694 F400.000
G1 X-17.431 Y46.800 F400.000
G1 X-17.444 Y47.906 F400.000
G1 X-17.538 Y49.013 F400.000
G1 X-17.881 Y51.212 F400.000
G1 X-18.200 Y52.663 F400.000
G1 X-18.538 Y53.725 F400.000
G1 X-18.931 Y54.763 F400.000
G1 X-19.506 Y56.131 F400.000
G1 X-20.012 Y57.125 F400.000
G1 X-20.575 Y58.087 F400.000
G1 X-21.194 Y59.013 F400.000
G1 X-22.087 Y60.200 F400.000
G1 X-23.269 Y61.619 F400.000
G1 X-23.762 Y62.169 F400.000
G1 X-25.113 Y63.438 F400.000
G1 X-25.981 Y64.144 F400.000
G1 X-27.806 Y65.412 F400.000
G1 X-29.075 Y66.188 F400.000
G1 X-29.400 Y66.369 F400.000
G1 X-30.394 Y66.862 F400.000
G1 X-31.406 Y67.312 F400.000
G1 X-32.438 Y67.719 F400.000
G1 X-33.138 Y67.963 F400.000
G1 X-34.569 Y68.338 F400.000
G1 X-36.019 Y68.638 F400.000
G1 X-36.381 Y68.700 F400.000
G1 X-37.487 Y68.838 F400.000
G1 X-38.962 Y68.944 F400.000
G1 X-39.331 Y68.956 F400.000
G1 X-40.438 Y68.912 F400.000
G1 X-41.544 Y68.781 F400.000
G1 X-42.281 Y68.650 F400.000
G1 X-43.388 Y68.481 F400.000
G1 X-44.475 Y68.237 F400.000
G1 X-44.837 Y68.144 F400.000
G1 X-46.256 Y67.656 F400.000
G1 X-47.644 Y67.100 F400.000
G1 X-49.344 Y66.319 F400.000
G1 X-50.006 Y65.975 F400.000
G1 X-51.281 Y65.188 F400.000
G1 X-52.513 Y64.338 F400.000
G1 X-52.812 Y64.112 F400.000
G1 X-53.669 Y63.375 F400.000
G1 X-54.212 Y62.856 F400.000
G1 X-55.775 Y61.231 F400.000
G1 X-56.500 Y60.362 F400.000
G1 X-57.413 Y59.169 F400.000
G1 X-58.288 Y57.950 F400.000
G1 X-58.850 Y56.975 F400.000
G1 X-59.188 Y56.300 F400.000
G1 X-59.769 Y54.906 F400.000
G1 X-60.269 Y53.481 F400.000
G1 X-60.700 Y52.038 F400.000
G1 X-61.056 Y50.569 F400.000
G1 X-61.219 Y49.444 F400.000
G1 X-61.319 Y48.319 F400.000
G1 X-61.375 Y46.819 F400.000
G1 X-61.356 Y45.319 F400.000
G1 X-61.337 Y44.944 F400.000
G1 X-61.194 Y43.819 F400.000
G1 X-60.663 Y41.231 F400.000
G1 X-60.575 Y40.862 F400.000
G1 X-60.256 Y39.775 F400.000
G1 X-59.869 Y38.706 F400.000
G1 X-59.419 Y37.663 F400.000
G1 X-58.913 Y36.644 F400.000
G1 X-57.987 Y34.981 F400.000
G1 X-57.188 Y33.688 F400.000
G1 X-56.513 Y32.775 F400.000
G1 X-55.538 Y31.606 F400.000
G1 X-54.769 Y30.769 F400.000
G1 X-54.219 Y30.244 F400.000
G1 X-52.800 Y29.000 F400.000
G1 X-51.913 Y28.294 F400.000
G1 X-50.631 Y27.469 F400.000
G1 X-49.644 Y26.900 F400.000
G1 X-48.269 Y26.262 F400.000
G1 X-46.862 Y25.688 F400.000
G1 X-45.431 Y25.194 F400.000
G1 X-45.069 Y25.081 F400.000
G1 X-43.962 Y24.819 F400.000
G1 X-42.844 Y24.613 F400.000
G1 X-41.719 Y24.444 F400.000
G1 X-39.844 Y24.250 F400.000
G1 X-39.469 Y24.225 F400.000
G1 X-38.344 Y24.225 F400.000
G1 X-37.594 Y24.281 F400.000
G1 X-36.469 Y24.413 F400.000
G1 X-34.969 Y24.644 F400.000
G1 X-33.862 Y24.869 F400.000
G1 X-32.763 Y25.137 F400.000
G1 X-31.344 Y25.637 F400.000
G1 X-30.294 Y26.050 F400.000
G1 X-29.262 Y26.506 F400.000
G1 X-27.950 Y27.238 F400.000
G1 X-25.744 Y28.688 F400.000
G1 X-25.438 Y28.906 F400.000
G1 X-24.562 Y29.619 F400.000
G1 X-23.456 Y30.631 F400.000
G1 X-22.656 Y31.425 F400.000
G1 X-21.913 Y32.275 F400.000
G1 X-20.769 Y33.756 F400.000
G1 X-19.887 Y34.975 F400.000
G1 X-19.275 Y35.913 F400.000
G1 X-19.081 Y36.231 F400.000
G1 X-18.738 Y36.894 F400.000
G1 X-18.269 Y37.913 F400.000
G1 X-17.712 Y39.300 F400.000
G1 X-17.356 Y40.362 F400.000
G1 X-17.056 Y41.438 F400.000
G1 X-16.725 Y42.888 F400.000
G1 X-16.538 Y43.994 F400.000
G1 X-16.406 Y45.100 F400.000
G1 X-16.331 Y46.206 F400.000
G1 X-16.312 Y47.312 F400.000
G1 X-16.350 Y48.419 F400.000
G1 X-16.444 Y49.525 F400.000
G1 X-16.594 Y50.631 F400.000
G1 X-16.875 Y52.087 F400.000
G1 X-17.137 Y53.169 F400.000
G1 X-17.238 Y53.525 F400.000
G1 X-17.619 Y54.569 F400.000
G1 X-17.762 Y54.913 F400.000
G1 X-17.887 Y55.263 F400.000
G1 X-18.637 Y56.956 F400.000
G1 X-19.169 Y57.931 F400.000
G1 X-19.756 Y58.875 F400.000
G1 X-20.800 Y60.406 F400.000
G1 X-21.462 Y61.300 F400.000
G1 X-22.188 Y62.138 F400.000
G1 X-23.219 Y63.206 F400.000
G1 X-24.575 Y64.475 F400.000
G1 X-25.444 Y65.162 F400.000
G1 X-26.656 Y66.013 F400.000
G1 X-27.913 Y66.806 F400.000
G1 X-29.525 Y67.719 F400.000
G1 X-29.856 Y67.888 F400.000
G1 X-30.531 Y68.188 F400.000
G1 X-31.562 Y68.600 F400.000
G1 X-32.612 Y68.969 F400.000
G1 X-34.038 Y69.388 F400.000
G1 X-35.125 Y69.650 F400.000
G1 X-36.600 Y69.875 F400.000
G1 X-38.812 Y70.062 F400.000
G1 X-39.919 Y70.075 F400.000
G1 X-40.288 Y70.062 F400.000
G1 X-41.025 Y69.987 F400.000
G1 X-42.131 Y69.825 F400.000
G1 X-43.600 Y69.550 F400.000
G1 X-45.050 Y69.206 F400.000
G1 X-45.763 Y68.981 F400.000
G1 X-47.519 Y68.338 F400.000
G1 X-48.550 Y67.900 F400.000
G1 X-49.562 Y67.425 F400.000
G1 X-50.881 Y66.725 F400.000
G1 X-52.169 Y65.956 F400.000
G1 X-52.481 Y65.756 F400.000
G1 X-53.650 Y64.825 F400.000
G1 X-54.481 Y64.075 F400.000
G1 X-56.100 Y62.513 F400.000
G1 X-56.856 Y61.675 F400.000
G1 X-57.562 Y60.806 F400.000
G1 X-58.906 Y59.000 F400.000
G1 X-59.519 Y58.056 F400.000
G1 X-59.894 Y57.400 F400.000
G1 X-60.206 Y56.712 F400.000
G1 X-60.638 Y55.669 F400.000
G1 X-61.519 Y53.181 F400.000
G1 X-61.631 Y52.825 F400.000
G1 X-61.913 Y51.731 F400.000
G1 X-62.125 Y50.625 F400.000
G1 X-62.275 Y49.500 F400.000
G1 X-62.475 Y47.250 F400.000
G1 X-62.494 Y46.125 F400.000
G1 X-62.438 Y45.000 F400.000
G1 X-62.369 Y44.250 F400.000
G1 X-62.200 Y43.125 F400.000
G1 X-61.900 Y41.644 F400.000
G1 X-61.438 Y39.806 F400.000
G1 X-61.331 Y39.444 F400.000
G1 X-60.950 Y38.375 F400.000
G1 X-60.663 Y37.675 F400.000
G1 X-60.175 Y36.650 F400.000
G1 X-58.712 Y33.987 F400.000
G1 X-58.100 Y33.031 F400.000
G1 X-57.438 Y32.106 F400.000
G1 X-56.725 Y31.219 F400.000
G1 X-55.969 Y30.369 F400.000
G1 X-55.169 Y29.556 F400.000
G1 X-54.331 Y28.788 F400.000
G1 X-53.456 Y28.062 F400.000
G1 X-52.544 Y27.387 F400.000
G1 X-51.594 Y26.756 F400.000
G1 X-50.612 Y26.175 F400.000
G1 X-49.606 Y25.650 F400.000
G1 X-48.569 Y25.181 F400.000
G1 X-46.806 Y24.488 F400.000
G1 X-45.381 Y23.994 F400.000
G1 X-44.281 Y23.712 F400.000
G1 X-43.538 Y23.569 F400.000
G1 X-41.288 Y23.219 F400.000
G1 X-40.163 Y23.119 F400.000
G1 X-39.038 Y23.081 F400.000
G1 X-37.913 Y23.100 F400.000
G1 X-36.788 Y23.194 F400.000
G1 X-35.663 Y23.344 F400.000
G1 X-34.919 Y23.475 F400.000
G1 X-33.075 Y23.869 F400.000
G1 X-31.988 Y24.188 F400.000
G1 X-30.925 Y24.562 F400.000
G1 X-28.844 Y25.438 F400.000
G1 X-27.837 Y25.950 F400.000
G1 X-26.863 Y26.519 F400.000
G1 X-25.919 Y27.137 F400.000
G1 X-24.400 Y28.244 F400.000
G1 X-23.812 Y28.706 F400.000
G1 X-22.706 Y29.719 F400.000
G1 X-21.913 Y30.519 F400.000
G1 X-20.919 Y31.644 F400.000
G1 X-19.994 Y32.819 F400.000
G1 X-18.681 Y34.644 F400.000
G1 X-18.094 Y35.594 F400.000
G1 X-17.913 Y35.919 F400.000
G1 X-17.425 Y36.931 F400.000
G1 X-16.575 Y39.006 F400.000
G1 X-16.225 Y40.075 F400.000
G1 X-15.750 Y41.881 F400.000
G1 X-15.581 Y42.606 F400.000
G1 X-15.400 Y43.712 F400.000
G1 X-15.144 Y46.294 F400.000
G1 X-15.131 Y47.400 F400.000
G1 X-15.181 Y48.506 F400.000
G1 X-15.331 Y49.981 F400.000
G1 X-15.619 Y51.825 F400.000
G1 X-15.688 Y52.188 F400.000
G1 X-15.956 Y53.269 F400.000
G1 X-16.294 Y54.331 F400.000
G1 X-17.125 Y56.406 F400.000
G1 X-17.750 Y57.750 F400.000
G1 X-18.300 Y58.719 F400.000
G1 X-19.100 Y59.962 F400.000
G1 X-19.962 Y61.175 F400.000
G1 X-21.113 Y62.631 F400.000
G1 X-21.594 Y63.194 F400.000
G1 X-23.450 Y65.006 F400.000
G1 X-23.725 Y65.256 F400.000
G1 X-24.894 Y66.175 F400.000
G1 X-26.419 Y67.231 F400.000
G1 X-27.681 Y68.006 F400.000
G1 X-28.988 Y68.706 F400.000
G1 X-30.331 Y69.338 F400.000
G1 X-31.363 Y69.763 F400.000
G1 X-32.419 Y70.106 F400.000
G1 X-33.850 Y70.487 F400.000
G1 X-34.938 Y70.713 F400.000
G1 X-37.519 Y71.094 F400.000
G1 X-37.888 Y71.138 F400.000
G1 X-38.994 Y71.206 F400.000
G1 X-40.100 Y71.206 F400.000
G1 X-40.837 Y71.162 F400.000
G1 X-41.575 Y71.056 F400.000
G1 X-43.788 Y70.662 F400.000
G1 X-44.513 Y70.513 F400.000
G1 X-46.300 Y69.981 F400.000
G1 X-48.056 Y69.338 F400.000
G1 X-49.087 Y68.900 F400.000
G1 X-50.431 Y68.250 F400.000
G1 X-52.069 Y67.344 F400.000
G1 X-52.388 Y67.150 F400.000
G1 X-53.300 Y66.506 F400.000
G1 X-53.888 Y66.037 F400.000
G1 X-55.288 Y64.806 F400.000
G1 X-56.644 Y63.519 F400.000
G1 X-57.413 Y62.700 F400.000
G1 X-58.138 Y61.844 F400.000
G1 X-59.050 Y60.656 F400.000
G1 X-59.925 Y59.431 F400.000
G1 X-60.525 Y58.475 F400.000
G1 X-61.069 Y57.487 F400.000
G1 X-61.237 Y57.150 F400.000
G1 X-61.931 Y55.400 F400.000
G1 X-62.656 Y53.263 F400.000
G1 X-62.938 Y52.169 F400.000
G1 X-63.087 Y51.431 F400.000
G1 X-63.469 Y48.806 F400.000
G1 X-63.556 Y48.056 F400.000
G1 X-63.606 Y46.931 F400.000
G1 X-63.581 Y45.431 F400.000
G1 X-63.538 Y44.681 F400.000
G1 X-63.394 Y43.556 F400.000
G1 X-63.188 Y42.438 F400.000
G1 X-62.500 Y39.487 F400.000
G1 X-62.163 Y38.400 F400.000
G1 X-61.906 Y37.688 F400.000
G1 X-61.594 Y37.000 F400.000
G1 X-61.087 Y35.981 F400.000
G1 X-59.631 Y33.325 F400.000
G1 X-59.025 Y32.362 F400.000
G1 X-58.812 Y32.050 F400.000
G1 X-57.650 Y30.556 F400.000
G1 X-56.894 Y29.706 F400.000
G1 X-56.362 Y29.163 F400.000
G1 X-54.994 Y27.856 F400.000
G1 X-54.112 Y27.137 F400.000
G1 X-52.881 Y26.244 F400.000
G1 X-52.256 Y25.819 F400.000
G1 X-51.275 Y25.244 F400.000
G1 X-49.925 Y24.544 F400.000
G1 X-49.237 Y24.219 F400.000
G1 X-48.188 Y23.781 F400.000
G1 X-46.044 Y23.025 F400.000
G1 X-45.319 Y22.800 F400.000
G1 X-43.844 Y22.475 F400.000
G1 X-41.594 Y22.106 F400.000
G1 X-40.469 Y21.981 F400.000
G1 X-38.969 Y21.900 F400.000
G1 X-37.469 Y21.975 F400.000
G1 X-36.344 Y22.106 F400.000
G1 X-33.725 Y22.519 F400.000
G1 X-32.619 Y22.781 F400.000
G1 X-31.531 Y23.100 F400.000
G1 X-30.469 Y23.475 F400.000
G1 X-29.425 Y23.906 F400.000
G1 X-28.400 Y24.375 F400.000
G1 X-26.725 Y25.238 F400.000
G1 X-25.456 Y26.038 F400.000
G1 X-24.225 Y26.900 F400.000
G1 X-22.750 Y28.062 F400.000
G1 X-21.663 Y29.100 F400.000
G1 X-20.887 Y29.919 F400.000
G1 X-19.906 Y31.056 F400.000
G1 X-17.863 Y33.737 F400.000
G1 X-17.456 Y34.362 F400.000
G1 X-16.738 Y35.675 F400.000
G1 X-16.262 Y36.688 F400.000
G1 X-15.675 Y38.056 F400.000
G1 X-15.287 Y39.106 F400.000
G1 X-14.963 Y40.175 F400.000
G1 X-14.525 Y41.987 F400.000
G1 X-14.369 Y42.712 F400.000
G1 X-14.206 Y43.819 F400.000
G1 X-14.019 Y45.663 F400.000
G1 X-13.969 Y46.769 F400.000
G1 X-13.981 Y47.875 F400.000
G1 X-14.056 Y48.981 F400.000
G1 X-14.456 Y51.931 F400.000
G1 X-14.694 Y53.019 F400.000
G1 X-14.988 Y54.087 F400.000
G1 X-15.344 Y55.144 F400.000
G1 X-15.756 Y56.181 F400.000
G1 X-16.519 Y57.875 F400.000
G1 X-17.050 Y58.850 F400.000
G1 X-17.825 Y60.119 F400.000
G1 X-18.869 Y61.650 F400.000
G1 X-19.756 Y62.837 F400.000
G1 X-20.494 Y63.675 F400.000
G1 X-22.050 Y65.263 F400.000
G1 X-22.856 Y66.025 F400.000
G1 X-23.725 Y66.719 F400.000
G1 X-25.844 Y68.219 F400.000
G1 X-26.469 Y68.625 F400.000
G1 X-27.438 Y69.175 F400.000
G1 X-29.419 Y70.175 F400.000
G1 X-30.094 Y70.487 F400.000
G1 X-31.131 Y70.881 F400.000
G1 X-32.556 Y71.306 F400.000
G1 X-34.725 Y71.838 F400.000
G1 X-35.450 Y71.981 F400.000
G1 X-36.556 Y72.138 F400.000
G1 X-38.400 Y72.319 F400.000
G1 X-39.138 Y72.362 F400.000
G1 X-40.244 Y72.325 F400.000
G1 X-40.981 Y72.244 F400.000
G1 X-43.931 Y71.769 F400.000
G1 X-45.744 Y71.331 F400.000
G1 X-46.812 Y71.013 F400.000
G1 X-49.244 Y70.037 F400.000
G1 X-49.931 Y69.737 F400.000
G1 X-51.587 Y68.875 F400.000
G1 X-52.562 Y68.325 F400.000
G1 X-53.494 Y67.706 F400.000
G1 X-54.388 Y67.025 F400.000
G1 X-55.812 Y65.800 F400.000
G1 X-57.194 Y64.525 F400.000
G1 X-57.975 Y63.719 F400.000
G1 X-58.962 Y62.594 F400.000
G1 X-59.888 Y61.413 F400.000
G1 X-60.744 Y60.175 F400.000
G1 X-61.525 Y58.888 F400.000
G1 X-62.062 Y57.900 F400.000
G1 X-62.394 Y57.225 F400.000
G1 X-62.944 Y55.819 F400.000
G1 X-63.675 Y53.681 F400.000
G1 X-63.962 Y52.594 F400.000
G1 X-64.194 Y51.487 F400.000
G1 X-64.419 Y49.987 F400.000
G1 X-64.694 Y47.362 F400.000
G1 X-64.725 Y46.237 F400.000
G1 X-64.688 Y45.112 F400.000
G1 X-64.575 Y43.987 F400.000
G1 X-64.469 Y43.237 F400.000
G1 X-64.244 Y42.125 F400.000
G1 X-63.669 Y39.544 F400.000
G1 X-63.475 Y38.806 F400.000
G1 X-63.112 Y37.725 F400.000
G1 X-62.513 Y36.331 F400.000
G1 X-62.013 Y35.312 F400.000
G1 X-60.544 Y32.656 F400.000
G1 X-60.144 Y32.013 F400.000
G1 X-59.038 Y30.469 F400.000
G1 X-58.306 Y29.594 F400.000
G1 X-57.531 Y28.756 F400.000
G1 X-56.200 Y27.406 F400.000
G1 X-55.925 Y27.144 F400.000
G1 X-55.050 Y26.413 F400.000
G1 X-53.219 Y25.075 F400.000
G1 X-52.906 Y24.863 F400.000
G1 X-51.925 Y24.281 F400.000
G1 X-50.231 Y23.413 F400.000
G1 X-48.844 Y22.806 F400.000
G1 X-47.425 Y22.275 F400.000
G1 X-45.612 Y21.731 F400.000
G1 X-43.769 Y21.312 F400.000
G1 X-41.519 Y20.944 F400.000
G1 X-40.394 Y20.837 F400.000
G1 X-39.269 Y20.794 F400.000
G1 X-38.144 Y20.812 F400.000
G1 X-35.894 Y21.006 F400.000
G1 X-34.019 Y21.262 F400.000
G1 X-32.544 Y21.613 F400.000
G1 X-30.738 Y22.144 F400.000
G1 X-29.669 Y22.519 F400.000
G1 X-28.637 Y22.975 F400.000
G1 X-26.938 Y23.794 F400.000
G1 X-25.950 Y24.337 F400.000
G1 X-24.994 Y24.925 F400.000
G1 X-24.062 Y25.562 F400.000
G1 X-22.281 Y26.938 F400.000
G1 X-21.444 Y27.694 F400.000
G1 X-20.387 Y28.756 F400.000
G1 X-19.131 Y30.150 F400.000
G1 X-17.950 Y31.606 F400.000
G1 X-16.850 Y33.125 F400.000
G1 X-16.644 Y33.438 F400.000
G1 X-16.087 Y34.406 F400.000
G1 X-15.275 Y36.081 F400.000
G1 X-14.669 Y37.450 F400.000
G1 X-14.269 Y38.500 F400.000
G1 X-13.812 Y39.919 F400.000
G1 X-13.531 Y41.000 F400.000
G1 X-13.306 Y42.087 F400.000
G1 X-13.075 Y43.562 F400.000
G1 X-12.831 Y45.775 F400.000
G1 X-12.775 Y47.250 F400.000
G1 X-12.775 Y47.619 F400.000
G1 X-12.844 Y48.725 F400.000
G1 X-12.975 Y49.831 F400.000
G1 X-13.306 Y52.038 F400.000
G1 X-13.544 Y53.125 F400.000
G1 X-13.838 Y54.200 F400.000
G1 X-14.444 Y55.956 F400.000
G1 X-14.975 Y57.331 F400.000
G1 X-15.463 Y58.331 F400.000
G1 X-16.556 Y60.263 F400.000
G1 X-18.200 Y62.731 F400.000
G1 X-18.906 Y63.594 F400.000
G1 X-19.406 Y64.144 F400.000
G1 X-19.644 Y64.425 F400.000
G1 X-21.169 Y66.044 F400.000
G1 X-21.431 Y66.306 F400.000
G1 X-22.269 Y67.037 F400.000
G1 X-23.450 Y67.938 F400.000
G1 X-24.950 Y69.006 F400.000
G1 X-25.887 Y69.600 F400.000
G1 X-26.856 Y70.144 F400.000
G1 X-28.831 Y71.175 F400.000
G1 X-29.850 Y71.625 F400.000
G1 X-30.894 Y72.006 F400.000
G1 X-31.962 Y72.325 F400.000
G1 X-34.856 Y73.031 F400.000
G1 X-36.331 Y73.256 F400.000
G1 X-38.175 Y73.456 F400.000
G1 X-39.281 Y73.475 F400.000
G1 X-40.019 Y73.444 F400.000
G1 X-40.756 Y73.375 F400.000
G1 X-43.706 Y72.931 F400.000
G1 X-45.156 Y72.612 F400.000
G1 X-46.594 Y72.206 F400.000
G1 X-47.656 Y71.850 F400.000
G1 X-50.081 Y70.875 F400.000
G1 X-51.094 Y70.381 F400.000
G1 X-53.062 Y69.319 F400.000
G1 X-54.006 Y68.706 F400.000
G1 X-54.900 Y68.031 F400.000
G1 X-56.044 Y67.062 F400.000
G1 X-57.413 Y65.800 F400.000
G1 X-58.994 Y64.206 F400.000
G1 X-60.006 Y63.094 F400.000
G1 X-61.569 Y60.975 F400.000
G1 X-61.987 Y60.350 F400.000
G1 X-62.725 Y59.038 F400.000
G1 X-63.231 Y58.025 F400.000
G1 X-63.825 Y56.644 F400.000
G1 X-64.219 Y55.581 F400.000
G1 X-64.994 Y53.056 F400.000
G1 X-65.162 Y52.319 F400.000
G1 X-65.412 Y50.825 F400.000
G1 X-65.756 Y48.200 F400.000
G1 X-65.794 Y47.825 F400.000
G1 X-65.850 Y46.700 F400.000
G1 X-65.850 Y45.575 F400.000
G1 X-65.838 Y45.200 F400.000
G1 X-65.662 Y43.700 F400.000
G1 X-65.388 Y42.206 F400.000
G1 X-64.763 Y39.256 F400.000
G1 X-64.469 Y38.163 F400.000
G1 X-63.938 Y36.744 F400.000
G1 X-63.312 Y35.362 F400.000
G1 X-62.425 Y33.688 F400.000
G1 X-61.494 Y32.031 F400.000
G1 X-60.212 Y30.144 F400.000
G1 X-59.000 Y28.688 F400.000
G1 X-58.244 Y27.844 F400.000
G1 X-57.181 Y26.756 F400.000
G1 X-56.906 Y26.494 F400.000
G1 X-55.450 Y25.288 F400.000
G1 X-54.237 Y24.375 F400.000
G1 X-52.962 Y23.556 F400.000
G1 X-52.312 Y23.169 F400.000
G1 X-50.288 Y22.144 F400.000
G1 X-48.888 Y21.569 F400.000
G1 X-47.462 Y21.050 F400.000
G1 X-47.100 Y20.931 F400.000
G1 X-45.994 Y20.656 F400.000
G1 X-45.631 Y20.550 F400.000
G1 X-44.156 Y20.194 F400.000
G1 X-43.038 Y19.981 F400.000
G1 X-41.913 Y19.825 F400.000
G1 X-40.413 Y19.694 F400.000
G1 X-39.288 Y19.656 F400.000
G1 X-38.163 Y19.675 F400.000
G1 X-37.038 Y19.750 F400.000
G1 X-34.413 Y20.031 F400.000
G1 X-33.306 Y20.250 F400.000
G1 X-31.119 Y20.825 F400.000
G1 X-29.325 Y21.413 F400.000
G1 X-27.950 Y22.019 F400.000
G1 X-26.600 Y22.675 F400.000
G1 X-25.606 Y23.206 F400.000
G1 X-23.994 Y24.169 F400.000
G1 X-22.775 Y25.050 F400.000
G1 X-21.606 Y25.981 F400.000
G1 X-20.750 Y26.719 F400.000
G1 X-19.444 Y28.062 F400.000
G1 X-18.188 Y29.444 F400.000
G1 X-17.475 Y30.312 F400.000
G1 X-16.119 Y32.106 F400.000
G1 X-15.525 Y33.056 F400.000
G1 X-14.981 Y34.038 F400.000
G1 X-13.675 Y36.725 F400.000
G1 X-13.525 Y37.069 F400.000
G1 X-13.031 Y38.481 F400.000
G1 X-12.713 Y39.550 F400.000
G1 X-12.363 Y41.000 F400.000
G1 X-11.869 Y43.569 F400.000
G1 X-11.738 Y44.675 F400.000
G1 X-11.600 Y46.888 F400.000
G1 X-11.606 Y47.994 F400.000
G1 X-11.681 Y49.100 F400.000
G1 X-11.812 Y50.206 F400.000
G1 X-12.250 Y52.775 F400.000
G1 X-12.325 Y53.138 F400.000
G1 X-12.625 Y54.206 F400.000
G1 X-12.975 Y55.263 F400.000
G1 X-13.238 Y55.962 F400.000
G1 X-13.600 Y57.013 F400.000
G1 X-13.881 Y57.700 F400.000
G1 X-14.369 Y58.700 F400.000
G1 X-15.812 Y61.294 F400.000
G1 X-16.425 Y62.225 F400.000
G1 X-17.081 Y63.119 F400.000
G1 X-18.988 Y65.394 F400.000
G1 X-19.988 Y66.494 F400.000
G1 X-20.794 Y67.256 F400.000
G1 X-21.931 Y68.200 F400.000
G1 X-23.113 Y69.094 F400.000
G1 X-24.331 Y69.931 F400.000
G1 X-25.913 Y70.906 F400.000
G1 X-27.212 Y71.619 F400.000
G1 X-28.881 Y72.425 F400.000
G1 X-29.562 Y72.719 F400.000
G1 X-31.319 Y73.312 F400.000
G1 X-33.106 Y73.812 F400.000
G1 X-34.556 Y74.138 F400.000
G1 X-35.281 Y74.275 F400.000
G1 X-37.494 Y74.525 F400.000
G1 X-38.600 Y74.594 F400.000
G1 X-39.706 Y74.594 F400.000
G1 X-41.181 Y74.444 F400.000
G1 X-43.763 Y74.050 F400.000
G1 X-45.587 Y73.681 F400.000
G1 X-46.656 Y73.362 F400.000
G1 X-49.812 Y72.219 F400.000
G1 X-51.837 Y71.244 F400.000
G1 X-53.475 Y70.338 F400.000
G1 X-54.112 Y69.950 F400.000
G1 X-55.025 Y69.306 F400.000
G1 X-55.612 Y68.844 F400.000
G1 X-57.038 Y67.619 F400.000
G1 X-58.969 Y65.831 F400.000
G1 X-60.275 Y64.487 F400.000
G1 X-61.250 Y63.350 F400.000
G1 X-62.344 Y61.819 F400.000
G1 X-63.169 Y60.556 F400.000
G1 X-63.712 Y59.575 F400.000
G1 X-64.200 Y58.556 F400.000
G1 X-64.650 Y57.519 F400.000
G1 X-65.206 Y56.119 F400.000
G1 X-65.562 Y55.044 F400.000
G1 X-66.150 Y52.862 F400.000
G1 X-66.237 Y52.494 F400.000
G1 X-66.662 Y49.888 F400.000
G1 X-66.912 Y47.638 F400.000
G1 X-66.975 Y46.888 F400.000
G1 X-66.987 Y45.763 F400.000
G1 X-66.931 Y44.638 F400.000
G1 X-66.894 Y44.263 F400.000
G1 X-66.631 Y42.769 F400.000
G1 X-66.550 Y42.400 F400.000
G1 X-66.138 Y40.156 F400.000
G1 X-65.881 Y39.050 F400.000
G1 X-65.469 Y37.587 F400.000
G1 X-65.206 Y36.875 F400.000
G1 X-64.775 Y35.819 F400.000
G1 X-63.962 Y34.106 F400.000
G1 X-63.231 Y32.775 F400.000
G1 X-61.631 Y30.200 F400.000
G1 X-61.200 Y29.581 F400.000
G1 X-60.494 Y28.694 F400.000
G1 X-59.269 Y27.244 F400.000
G1 X-58.487 Y26.419 F400.000
G1 X-57.375 Y25.387 F400.000
G1 X-56.500 Y24.656 F400.000
G1 X-54.362 Y23.094 F400.000
G1 X-53.737 Y22.669 F400.000
G1 X-52.419 Y21.925 F400.000
G1 X-51.056 Y21.250 F400.000
G1 X-48.962 Y20.375 F400.000
G1 X-48.256 Y20.100 F400.000
G1 X-47.169 Y19.756 F400.000
G1 X-44.587 Y19.113 F400.000
G1 X-43.481 Y18.869 F400.000
G1 X-42.356 Y18.700 F400.000
G1 X-41.231 Y18.594 F400.000
G1 X-39.356 Y18.500 F400.000
G1 X-38.606 Y18.488 F400.000
G1 X-37.481 Y18.544 F400.000
G1 X-34.856 Y18.812 F400.000
G1 X-34.106 Y18.913 F400.000
G1 X-33.000 Y19.137 F400.000
G1 X-30.812 Y19.712 F400.000
G1 X-29.369 Y20.163 F400.000
G1 X-28.319 Y20.581 F400.000
G1 X-26.950 Y21.206 F400.000
G1 X-24.950 Y22.256 F400.000
G1 X-23.337 Y23.219 F400.000
G1 X-21.819 Y24.319 F400.000
G1 X-20.631 Y25.256 F400.000
G1 X-19.794 Y26.012 F400.000
G1 X-17.969 Y27.900 F400.000
G1 X-17.225 Y28.744 F400.000
G1 X-16.281 Y29.906 F400.000
G1 X-15.400 Y31.119 F400.000
G1 X-14.581 Y32.375 F400.000
G1 X-13.831 Y33.669 F400.000
G1 X-13.312 Y34.663 F400.000
G1 X-12.688 Y36.019 F400.000
G1 X-12.131 Y37.406 F400.000
G1 X-12.006 Y37.756 F400.000
G1 X-11.500 Y39.550 F400.000
G1 X-11.094 Y41.362 F400.000
G1 X-10.800 Y42.819 F400.000
G1 X-10.631 Y43.925 F400.000
G1 X-10.475 Y45.400 F400.000
G1 X-10.394 Y46.875 F400.000
G1 X-10.387 Y47.612 F400.000
G1 X-10.506 Y49.087 F400.000
G1 X-10.919 Y52.038 F400.000
G1 X-10.981 Y52.406 F400.000
G1 X-11.231 Y53.494 F400.000
G1 X-11.981 Y55.987 F400.000
G1 X-12.338 Y57.038 F400.000
G1 X-12.781 Y58.056 F400.000
G1 X-13.275 Y59.056 F400.000
G1 X-13.981 Y60.356 F400.000
G1 X-14.319 Y61.013 F400.000
G1 X-14.869 Y61.975 F400.000
G1 X-15.481 Y62.900 F400.000
G1 X-16.144 Y63.794 F400.000
G1 X-18.281 Y66.350 F400.000
G1 X-19.031 Y67.162 F400.000
G1 X-19.819 Y67.944 F400.000
G1 X-20.962 Y68.894 F400.000
G1 X-22.125 Y69.812 F400.000
G1 X-23.038 Y70.444 F400.000
G1 X-24.594 Y71.456 F400.000
G1 X-27.181 Y72.912 F400.000
G1 X-28.188 Y73.388 F400.000
G1 X-29.219 Y73.812 F400.000
G1 X-30.269 Y74.188 F400.000
G1 X-31.337 Y74.506 F400.000
G1 X-34.219 Y75.231 F400.000
G1 X-35.319 Y75.419 F400.000
G1 X-36.425 Y75.556 F400.000
G1 X-38.638 Y75.719 F400.000
G1 X-39.744 Y75.700 F400.000
G1 X-40.850 Y75.606 F400.000
G1 X-43.062 Y75.319 F400.000
G1 X-44.894 Y74.969 F400.000
G1 X-45.981 Y74.706 F400.000
G1 X-47.763 Y74.156 F400.000
G1 X-49.869 Y73.388 F400.000
G1 X-50.900 Y72.950 F400.000
G1 X-51.906 Y72.463 F400.000
G1 X-54.200 Y71.194 F400.000
G1 X-55.138 Y70.569 F400.000
G1 X-56.031 Y69.894 F400.000
G1 X-58.044 Y68.206 F400.000
G1 X-59.438 Y66.950 F400.000
G1 X-61.513 Y64.787 F400.000
G1 X-62.225 Y63.913 F400.000
G1 X-63.306 Y62.375 F400.000
G1 X-64.319 Y60.788 F400.000
G1 X-64.856 Y59.794 F400.000
G1 X-65.487 Y58.431 F400.000
G1 X-65.919 Y57.388 F400.000
G1 X-66.675 Y55.263 F400.000
G1 X-66.787 Y54.906 F400.000
G1 X-67.331 Y52.700 F400.000
G1 X-67.756 Y50.087 F400.000
G1 X-68.069 Y47.462 F400.000
G1 X-68.100 Y47.087 F400.000
G1 X-68.119 Y45.962 F400.000
G1 X-68.050 Y44.837 F400.000
G1 X-67.956 Y44.087 F400.000
G1 X-67.825 Y43.337 F400.000
G1 X-67.775 Y42.962 F400.000
G1 X-67.569 Y41.837 F400.000
G1 X-67.338 Y40.337 F400.000
G1 X-66.994 Y38.862 F400.000
G1 X-66.463 Y37.050 F400.000
G1 X-66.219 Y36.331 F400.000
G1 X-65.469 Y34.594 F400.000
G1 X-65.150 Y33.906 F400.000
G1 X-64.237 Y32.244 F400.000
G1 X-63.450 Y30.944 F400.000
G1 X-62.181 Y29.050 F400.000
G1 X-61.737 Y28.438 F400.000
G1 X-61.025 Y27.550 F400.000
G1 X-59.781 Y26.125 F400.000
G1 X-58.969 Y25.325 F400.000
G1 X-58.400 Y24.825 F400.000
G1 X-58.125 Y24.562 F400.000
G1 X-57.550 Y24.062 F400.000
G1 X-56.356 Y23.119 F400.000
G1 X-55.131 Y22.219 F400.000
G1 X-53.519 Y21.225 F400.000
G1 X-52.525 Y20.669 F400.000
G1 X-51.494 Y20.188 F400.000
G1 X-51.144 Y20.044 F400.000
G1 X-50.800 Y19.881 F400.000
G1 X-48.694 Y19.031 F400.000
G1 X-47.606 Y18.688 F400.000
G1 X-44.294 Y17.856 F400.000
G1 X-43.175 Y17.644 F400.000
G1 X-42.050 Y17.488 F400.000
G1 X-40.925 Y17.387 F400.000
G1 X-39.800 Y17.350 F400.000
G1 X-37.925 Y17.363 F400.000
G1 X-36.425 Y17.481 F400.000
G1 X-33.800 Y17.788 F400.000
G1 X-31.956 Y18.194 F400.000
G1 X-30.506 Y18.587 F400.000
G1 X-28.719 Y19.181 F400.000
G1 X-27.312 Y19.731 F400.000
G1 X-26.969 Y19.881 F400.000
G1 X-25.294 Y20.738 F400.000
G1 X-23.331 Y21.856 F400.000
G1 X-22.375 Y22.450 F400.000
G1 X-21.163 Y23.337 F400.000
G1 X-19.994 Y24.288 F400.000
G1 X-18.613 Y25.544 F400.000
G1 X-17.819 Y26.337 F400.000
G1 X-16.806 Y27.450 F400.000
G1 X-15.825 Y28.594 F400.000
G1 X-15.131 Y29.475 F400.000
G1 X-14.481 Y30.387 F400.000
G1 X-13.481 Y31.969 F400.000
G1 X-12.356 Y33.913 F400.000
G1 X-11.869 Y34.919 F400.000
G1 X-11.438 Y35.956 F400.000
G1 X-11.050 Y37.006 F400.000
G1 X-10.581 Y38.431 F400.000
G1 X-9.969 Y40.969 F400.000
G1 X-9.556 Y43.169 F400.000
G1 X-9.394 Y44.275 F400.000
G1 X-9.219 Y46.487 F400.000
G1 X-9.225 Y47.594 F400.000
G1 X-9.375 Y49.438 F400.000
G1 X-9.669 Y51.650 F400.000
G1 X-9.931 Y53.112 F400.000
G1 X-10.200 Y54.194 F400.000
G1 X-10.519 Y55.263 F400.000
G1 X-11.375 Y57.712 F400.000
G1 X-11.506 Y58.056 F400.000
G1 X-11.975 Y59.062 F400.000
G1 X-13.162 Y61.369 F400.000
G1 X-13.719 Y62.325 F400.000
G1 X-14.537 Y63.562 F400.000
G1 X-15.200 Y64.456 F400.000
G1 X-17.587 Y67.281 F400.000
G1 X-18.087 Y67.831 F400.000
G1 X-18.881 Y68.612 F400.000
G1 X-19.712 Y69.356 F400.000
G1 X-21.750 Y70.963 F400.000
G1 X-23.613 Y72.200 F400.000
G1 X-26.175 Y73.681 F400.000
G1 X-27.175 Y74.175 F400.000
G1 X-28.538 Y74.756 F400.000
G1 X-29.587 Y75.131 F400.000
G1 X-32.431 Y75.981 F400.000
G1 X-33.513 Y76.256 F400.000
G1 X-34.606 Y76.450 F400.000
G1 X-37.556 Y76.806 F400.000
G1 X-38.663 Y76.844 F400.000
G1 X-39.769 Y76.812 F400.000
G1 X-40.506 Y76.756 F400.000
G1 X-42.350 Y76.537 F400.000
G1 X-44.194 Y76.225 F400.000
G1 X-46.006 Y75.825 F400.000
G1 X-48.163 Y75.225 F400.000
G1 X-50.594 Y74.294 F400.000
G1 X-51.625 Y73.856 F400.000
G1 X-52.625 Y73.350 F400.000
G1 X-54.581 Y72.263 F400.000
G1 X-55.525 Y71.656 F400.000
G1 X-56.438 Y71.013 F400.000
G1 X-59.031 Y68.850 F400.000
G1 X-60.394 Y67.562 F400.000
G1 X-61.169 Y66.750 F400.000
G1 X-61.438 Y66.487 F400.000
G1 X-62.219 Y65.675 F400.000
G1 X-63.156 Y64.506 F400.000
G1 X-64.037 Y63.294 F400.000
G1 X-64.862 Y62.031 F400.000
G1 X-65.619 Y60.737 F400.000
G1 X-66.263 Y59.381 F400.000
G1 X-66.713 Y58.350 F400.000
G1 X-67.375 Y56.587 F400.000
G1 X-67.938 Y54.788 F400.000
G1 X-68.406 Y52.962 F400.000
G1 X-68.562 Y52.225 F400.000
G1 X-68.731 Y51.100 F400.000
G1 X-68.819 Y50.350 F400.000
G1 X-69.100 Y48.475 F400.000
G1 X-69.200 Y47.350 F400.000
G1 X-69.219 Y46.975 F400.000
G1 X-69.200 Y45.475 F400.000
G1 X-69.125 Y44.350 F400.000
G1 X-69.088 Y43.975 F400.000
G1 X-68.513 Y40.600 F400.000
G1 X-68.050 Y38.388 F400.000
G1 X-67.513 Y36.575 F400.000
G1 X-67.100 Y35.513 F400.000
G1 X-66.338 Y33.781 F400.000
G1 X-65.463 Y32.100 F400.000
G1 X-64.694 Y30.788 F400.000
G1 X-63.019 Y28.262 F400.000
G1 X-62.337 Y27.350 F400.000
G1 X-61.369 Y26.188 F400.000
G1 X-60.600 Y25.350 F400.000
G1 X-59.788 Y24.550 F400.000
G1 X-57.806 Y22.781 F400.000
G1 X-56.906 Y22.081 F400.000
G1 X-55.031 Y20.781 F400.000
G1 X-54.056 Y20.188 F400.000
G1 X-52.719 Y19.481 F400.000
G1 X-49.587 Y18.119 F400.000
G1 X-48.519 Y17.738 F400.000
G1 X-47.431 Y17.413 F400.000
G1 X-44.487 Y16.688 F400.000
G1 X-43.369 Y16.481 F400.000
G1 X-42.244 Y16.331 F400.000
G1 X-41.119 Y16.238 F400.000
G1 X-39.994 Y16.200 F400.000
G1 X-36.994 Y16.250 F400.000
G1 X-35.869 Y16.350 F400.000
G1 X-33.619 Y16.663 F400.000
G1 X-32.869 Y16.788 F400.000
G1 X-31.394 Y17.144 F400.000
G1 X-28.856 Y17.894 F400.000
G1 X-27.794 Y18.288 F400.000
G1 X-26.756 Y18.738 F400.000
G1 X-25.062 Y19.556 F400.000
G1 X-23.400 Y20.444 F400.000
G1 X-22.750 Y20.819 F400.000
G1 X-21.806 Y21.438 F400.000
G1 X-20.288 Y22.556 F400.000
G1 X-19.106 Y23.488 F400.000
G1 X-18.000 Y24.506 F400.000
G1 X-16.938 Y25.562 F400.000
G1 X-15.681 Y26.950 F400.000
G1 X-14.500 Y28.406 F400.000
G1 X-13.400 Y29.925 F400.000
G1 X-12.200 Y31.819 F400.000
G1 X-11.644 Y32.794 F400.000
G1 X-10.794 Y34.462 F400.000
G1 X-10.481 Y35.138 F400.000
G1 X-9.956 Y36.538 F400.000
G1 X-9.506 Y37.962 F400.000
G1 X-9.125 Y39.406 F400.000
G1 X-8.431 Y42.669 F400.000
G1 X-8.225 Y44.144 F400.000
G1 X-8.131 Y45.250 F400.000
G1 X-8.050 Y47.094 F400.000
G1 X-8.075 Y48.200 F400.000
G1 X-8.169 Y49.306 F400.000
G1 X-8.581 Y52.256 F400.000
G1 X-8.863 Y53.712 F400.000
G1 X-9.156 Y54.781 F400.000
G1 X-9.725 Y56.538 F400.000
G1 X-10.225 Y57.938 F400.000
G1 X-10.950 Y59.644 F400.000
G1 X-11.600 Y60.975 F400.000
G1 X-12.131 Y61.950 F400.000
G1 X-12.700 Y62.906 F400.000
G1 X-13.519 Y64.144 F400.000
G1 X-13.950 Y64.744 F400.000
G1 X-16.087 Y67.300 F400.000
G1 X-17.325 Y68.675 F400.000
G1 X-18.119 Y69.456 F400.000
G1 X-18.950 Y70.200 F400.000
G1 X-20.675 Y71.600 F400.000
G1 X-20.969 Y71.825 F400.000
G1 X-23.137 Y73.256 F400.000
G1 X-24.413 Y74.019 F400.000
G1 X-25.712 Y74.731 F400.000
G1 X-26.706 Y75.231 F400.000
G1 X-27.725 Y75.675 F400.000
G1 X-28.775 Y76.050 F400.000
G1 X-31.244 Y76.856 F400.000
G1 X-32.312 Y77.162 F400.000
G1 X-33.763 Y77.463 F400.000
G1 X-35.237 Y77.688 F400.000
G1 X-36.712 Y77.844 F400.000
G1 X-38.188 Y77.925 F400.000
G1 X-40.031 Y77.925 F400.000
G1 X-41.506 Y77.775 F400.000
G1 X-44.087 Y77.369 F400.000
G1 X-45.194 Y77.162 F400.000
G1 X-47.731 Y76.537 F400.000
G1 X-50.544 Y75.544 F400.000
G1 X-50.894 Y75.406 F400.000
G1 X-52.581 Y74.612 F400.000
G1 X-54.237 Y73.750 F400.000
G1 X-55.212 Y73.200 F400.000
G1 X-57.356 Y71.700 F400.000
G1 X-59.938 Y69.544 F400.000
G1 X-60.219 Y69.294 F400.000
G1 X-62.062 Y67.431 F400.000
G1 X-63.319 Y66.037 F400.000
G1 X-64.281 Y64.888 F400.000
G1 X-65.150 Y63.656 F400.000
G1 X-66.162 Y62.075 F400.000
G1 X-67.000 Y60.388 F400.000
G1 X-67.463 Y59.356 F400.000
G1 X-68.156 Y57.600 F400.000
G1 X-68.900 Y55.462 F400.000
G1 X-69.306 Y54.006 F400.000
G1 X-69.694 Y52.163 F400.000
G1 X-70.219 Y48.413 F400.000
G1 X-70.306 Y47.288 F400.000
G1 X-70.325 Y46.163 F400.000
G1 X-70.269 Y44.663 F400.000
G1 X-70.075 Y43.163 F400.000
G1 X-69.481 Y39.788 F400.000
G1 X-69.181 Y38.312 F400.000
G1 X-68.888 Y37.219 F400.000
G1 X-68.531 Y36.138 F400.000
G1 X-68.119 Y35.075 F400.000
G1 X-67.681 Y34.025 F400.000
G1 X-67.056 Y32.644 F400.000
G1 X-66.525 Y31.637 F400.000
G1 X-65.550 Y30.025 F400.000
G1 X-64.325 Y28.106 F400.000
G1 X-63.894 Y27.488 F400.000
G1 X-63.419 Y26.900 F400.000
G1 X-62.725 Y25.994 F400.000
G1 X-61.981 Y25.137 F400.000
G1 X-61.188 Y24.319 F400.000
G1 X-60.356 Y23.538 F400.000
G1 X-60.087 Y23.269 F400.000
G1 X-58.969 Y22.244 F400.000
G1 X-58.081 Y21.525 F400.000
G1 X-57.156 Y20.856 F400.000
G1 X-55.606 Y19.769 F400.000
G1 X-54.625 Y19.188 F400.000
G1 X-53.275 Y18.494 F400.000
G1 X-51.212 Y17.538 F400.000
G1 X-50.513 Y17.238 F400.000
G1 X-49.444 Y16.850 F400.000
G1 X-47.638 Y16.281 F400.000
G1 X-46.175 Y15.887 F400.000
G1 X-43.962 Y15.400 F400.000
G1 X-42.837 Y15.238 F400.000
G1 X-41.337 Y15.113 F400.000
G1 X-38.712 Y15.019 F400.000
G1 X-37.587 Y15.025 F400.000
G1 X-36.462 Y15.106 F400.000
G1 X-33.087 Y15.569 F400.000
G1 X-31.981 Y15.806 F400.000
G1 X-28.712 Y16.706 F400.000
G1 X-27.650 Y17.100 F400.000
G1 X-24.894 Y18.331 F400.000
G1 X-23.231 Y19.212 F400.000
G1 X-22.256 Y19.781 F400.000
G1 X-20.681 Y20.806 F400.000
G1 X-19.169 Y21.919 F400.000
G1 X-18.294 Y22.625 F400.000
G1 X-16.400 Y24.444 F400.000
G1 X-14.856 Y26.075 F400.000
G1 X-14.606 Y26.356 F400.000
G1 X-13.463 Y27.837 F400.000
G1 X-12.600 Y29.062 F400.000
G1 X-11.162 Y31.256 F400.000
G1 X-10.231 Y32.875 F400.000
G1 X-10.056 Y33.206 F400.000
G1 X-9.744 Y33.881 F400.000
G1 X-9.312 Y34.913 F400.000
G1 X-8.688 Y36.669 F400.000
G1 X-8.269 Y38.100 F400.000
G1 X-7.544 Y40.994 F400.000
G1 X-7.331 Y42.094 F400.000
G1 X-7.125 Y43.569 F400.000
G1 X-6.875 Y46.519 F400.000
G1 X-6.869 Y47.625 F400.000
G1 X-6.925 Y48.731 F400.000
G1 X-7.037 Y49.837 F400.000
G1 X-7.544 Y53.156 F400.000
G1 X-7.612 Y53.519 F400.000
G1 X-7.875 Y54.606 F400.000
G1 X-8.431 Y56.375 F400.000
G1 X-9.213 Y58.462 F400.000
G1 X-10.113 Y60.500 F400.000
G1 X-10.775 Y61.825 F400.000
G1 X-11.488 Y63.125 F400.000
G1 X-12.250 Y64.394 F400.000
G1 X-13.131 Y65.581 F400.000
G1 X-16.012 Y68.975 F400.000
G1 X-16.794 Y69.769 F400.000
G1 X-17.875 Y70.769 F400.000
G1 X-19.863 Y72.444 F400.000
G1 X-21.394 Y73.494 F400.000
G1 X-23.606 Y74.850 F400.000
G1 X-25.881 Y76.094 F400.000
G1 X-26.550 Y76.412 F400.000
G1 X-27.938 Y76.944 F400.000
G1 X-30.744 Y77.906 F400.000
G1 X-31.812 Y78.213 F400.000
G1 X-33.263 Y78.544 F400.000
G1 X-34.362 Y78.731 F400.000
G1 X-35.837 Y78.906 F400.000
G1 X-37.312 Y79.006 F400.000
G1 X-39.156 Y79.062 F400.000
G1 X-40.263 Y79.025 F400.000
G1 X-41.369 Y78.931 F400.000
G1 X-42.475 Y78.781 F400.000
G1 X-44.688 Y78.388 F400.000
G1 X-47.225 Y77.850 F400.000
G1 X-48.294 Y77.531 F400.000
G1 X-48.994 Y77.281 F400.000
G1 X-49.350 Y77.169 F400.000
G1 X-51.100 Y76.519 F400.000
G1 X-53.469 Y75.412 F400.000
G1 X-55.444 Y74.356 F400.000
G1 X-57.006 Y73.325 F400.000
G1 X-58.219 Y72.444 F400.000
G1 X-60.519 Y70.513 F400.000
G1 X-61.331 Y69.744 F400.000
G1 X-62.913 Y68.138 F400.000
G1 X-64.444 Y66.487 F400.000
G1 X-65.144 Y65.612 F400.000
G1 X-65.794 Y64.688 F400.000
G1 X-67.006 Y62.781 F400.000
G1 X-67.200 Y62.456 F400.000
G1 X-67.875 Y61.106 F400.000
G1 X-68.338 Y60.075 F400.000
G1 X-69.950 Y55.837 F400.000
G1 X-70.263 Y54.750 F400.000
G1 X-70.694 Y52.906 F400.000
G1 X-70.906 Y51.800 F400.000
G1 X-71.362 Y48.425 F400.000
G1 X-71.444 Y47.300 F400.000
G1 X-71.456 Y46.175 F400.000
G1 X-71.400 Y45.050 F400.000
G1 X-71.331 Y44.300 F400.000
G1 X-71.000 Y42.050 F400.000
G1 X-70.569 Y39.425 F400.000
G1 X-70.156 Y37.581 F400.000
G1 X-70.062 Y37.212 F400.000
G1 X-69.706 Y36.131 F400.000
G1 X-69.569 Y35.775 F400.000
G1 X-69.450 Y35.413 F400.000
G1 X-68.450 Y32.950 F400.000
G1 X-67.975 Y31.919 F400.000
G1 X-67.037 Y30.275 F400.000
G1 X-66.031 Y28.669 F400.000
G1 X-65.819 Y28.350 F400.000
G1 X-65.425 Y27.706 F400.000
G1 X-64.763 Y26.781 F400.000
G1 X-63.844 Y25.569 F400.000
G1 X-62.619 Y24.125 F400.000
G1 X-62.069 Y23.600 F400.000
G1 X-61.006 Y22.519 F400.000
G1 X-59.894 Y21.494 F400.000
G1 X-58.694 Y20.556 F400.000
G1 X-56.844 Y19.219 F400.000
G1 X-55.894 Y18.606 F400.000
G1 X-54.581 Y17.850 F400.000
G1 X-53.894 Y17.525 F400.000
G1 X-52.206 Y16.675 F400.000
G1 X-51.163 Y16.231 F400.000
G1 X-50.094 Y15.844 F400.000
G1 X-46.837 Y14.838 F400.000
G1 X-45.731 Y14.588 F400.000
G1 X-43.487 Y14.169 F400.000
G1 X-42.362 Y14.037 F400.000
G1 X-40.112 Y13.869 F400.000
G1 X-36.663 Y13.906 F400.000
G1 X-33.362 Y14.300 F400.000
G1 X-27.731 Y15.800 F400.000
G1 X-24.363 Y17.262 F400.000
G1 X-21.450 Y18.863 F400.000
G1 X-18.631 Y20.769 F400.000
G1 X-15.044 Y24.000 F400.000
G1 X-13.050 Y26.369 F400.000
G1 X-11.881 Y27.988 F400.000
G1 X-10.669 Y29.913 F400.000
G1 X-9.994 Y31.113 F400.000
G1 X-8.225 Y35.044 F400.000
G1 X-7.156 Y38.419 F400.000
G1 X-6.287 Y43.013 F400.000
G1 X-6.050 Y47.513 F400.000
G1 X-6.463 Y52.200 F400.000
G1 X-6.975 Y54.825 F400.000
G1 X-7.869 Y57.913 F400.000
G1 X-8.938 Y60.669 F400.000
G1 X-9.994 Y62.856 F400.000
G1 X-12.206 Y66.287 F400.000
G1 X-16.031 Y70.588 F400.000
G1 X-19.550 Y73.581 F400.000
G1 X-22.613 Y75.581 F400.000
G1 X-26.712 Y77.656 F400.000
G1 X-31.837 Y79.350 F400.000
G1 X-35.494 Y79.987 F400.000
G1 X-39.431 Y80.175 F400.000
G1 X-41.006 Y80.081 F400.000
G1 X-42.850 Y79.862 F400.000
G1 X-43.956 Y79.675 F400.000
G1 X-47.225 Y79.006 F400.000
G1 X-49.025 Y78.500 F400.000
G1 X-50.081 Y78.144 F400.000
G1 X-51.469 Y77.594 F400.000
G1 X-54.850 Y75.981 F400.000
G1 X-55.181 Y75.812 F400.000
G1 X-56.462 Y75.031 F400.000
G1 X-58.013 Y73.975 F400.000
G1 X-59.200 Y73.062 F400.000
G1 X-60.931 Y71.638 F400.000
G1 X-61.763 Y70.875 F400.000
G1 X-62.825 Y69.812 F400.000
G1 X-63.337 Y69.263 F400.000
G1 X-63.606 Y69.000 F400.000
G1 X-64.906 Y67.650 F400.000
G1 X-65.881 Y66.500 F400.000
G1 X-66.544 Y65.588 F400.000
G1 X-67.162 Y64.644 F400.000
G1 X-67.737 Y63.675 F400.000
G1 X-68.819 Y61.694 F400.000
G1 X-69.287 Y60.663 F400.000
G1 X-70.919 Y56.431 F400.000
G1 X-71.350 Y54.987 F400.000
G1 X-71.612 Y53.888 F400.000
G1 X-71.975 Y52.044 F400.000
G1 X-72.312 Y49.794 F400.000
G1 X-72.537 Y47.544 F400.000
G1 X-72.562 Y47.169 F400.000
G1 X-72.562 Y46.044 F400.000
G1 X-72.513 Y44.919 F400.000
G1 X-72.369 Y43.419 F400.000
G1 X-71.694 Y39.294 F400.000
G1 X-71.550 Y38.550 F400.000
G1 X-71.281 Y37.444 F400.000
G1 X-70.481 Y34.919 F400.000
G1 X-70.094 Y33.850 F400.000
G1 X-69.644 Y32.806 F400.000
G1 X-68.819 Y31.100 F400.000
G1 X-68.281 Y30.094 F400.000
G1 X-66.250 Y26.887 F400.000
G1 X-65.825 Y26.262 F400.000
G1 X-63.250 Y23.194 F400.000
G1 X-61.494 Y21.413 F400.000
G1 X-60.169 Y20.256 F400.000
G1 X-56.275 Y17.500 F400.000
G1 X-52.312 Y15.450 F400.000
G1 X-48.844 Y14.231 F400.000
G1 X-45.744 Y13.537 F400.000
G1 X-42.144 Y13.119 F400.000
G1 X-37.644 Y13.144 F400.000
G1 X-36.144 Y13.281 F400.000
G1 X-34.044 Y13.588 F400.000
G1 X-32.144 Y13.981 F400.000
G1 X-29.350 Y14.775 F400.000
G1 X-25.194 Y16.462 F400.000
G1 X-21.650 Y18.444 F400.000
G1 X-19.025 Y20.319 F400.000
G1 X-19.025 Y20.319 F400.000
G1 X-19.006 Y20.344 F400.000
G1 X-19.000 Y20.363 F400.000
G1 X-18.925 Y20.394 F400.000
G1 X-18.925 Y20.394 F400.000
G1 X-18.231 Y20.956 F400.000
G1 X-18.231 Y20.956 F400.000
G1 X-18.069 Y21.144 F400.000
G1 X-18.000 Y21.306 F400.000
G0 X-17.988 Y21.369
G0 X-11.900 Y65.006
G1 X-11.875 Y65.200 F400.000
G1 X-11.825 Y65.731 F400.000
G1 X-11.894 Y65.981 F400.000
G1 X-11.950 Y66.100 F400.000
G1 X-11.950 Y66.100 F400.000
G1 X-15.031 Y69.987 F400.000
G1 X-18.731 Y73.450 F400.000
G1 X-22.794 Y76.256 F400.000
G1 X-26.837 Y78.281 F400.000
G1 X-31.394 Y79.831 F400.000
G1 X-32.894 Y80.194 F400.000
G1 X-37.956 Y80.881 F400.000
G1 X-40.019 Y80.950 F400.000
G1 X-40.581 Y80.938 F400.000
G1 X-45.269 Y80.519 F400.000
G1 X-48.081 Y79.875 F400.000
G1 X-52.075 Y78.412 F400.000
G1 X-56.544 Y76.200 F400.000
G1 X-58.331 Y75.000 F400.000
G1 X-62.763 Y71.350 F400.000
G1 X-66.013 Y67.963 F400.000
G1 X-67.256 Y66.400 F400.000
G1 X-68.638 Y64.162 F400.000
G1 X-71.787 Y57.050 F400.000
G1 X-72.631 Y54.212 F400.000
G1 X-73.544 Y48.612 F400.000
G1 X-73.656 Y45.812 F400.000
G1 X-73.444 Y43.212 F400.000
G1 X-72.931 Y40.413 F400.000
G1 X-72.775 Y39.112 F400.000
G1 X-71.644 Y34.913 F400.000
G1 X-70.269 Y31.669 F400.000
G1 X-69.987 Y31.106 F400.000
G1 X-68.525 Y28.613 F400.000
G1 X-67.213 Y26.719 F400.000
G1 X-65.006 Y24.050 F400.000
G1 X-61.263 Y20.544 F400.000
G1 X-58.294 Y18.406 F400.000
G1 X-55.763 Y16.938 F400.000
G1 X-53.038 Y15.669 F400.000
G1 X-53.038 Y15.669 F400.000
G1 X-52.781 Y15.613 F400.000
G1 X-52.663 Y15.619 F400.000
G1 X-52.612 Y15.637 F400.000
G0 X-52.575 Y15.669
G0 X-52.519 Y15.819
G0 X-48.175 Y79.050
G1 X-48.156 Y79.300 F400.000
G1 X-48.144 Y79.612 F400.000
G1 X-48.175 Y79.719 F400.000
G1 X-48.263 Y79.781 F400.000
G1 X-48.438 Y79.819 F400.000
G1 X-48.631 Y79.806 F400.000
G1 X-48.631 Y79.806 F400.000
G1 X-50.788 Y79.169 F400.000
G1 X-53.406 Y78.175 F400.000
G1 X-57.356 Y76.150 F400.000
G1 X-59.756 Y74.594 F400.000
G1 X-62.994 Y71.956 F400.000
G1 X-66.500 Y68.200 F400.000
G1 X-68.569 Y65.325 F400.000
G1 X-69.406 Y63.938 F400.000
G1 X-70.756 Y61.331 F400.000
G1 X-71.919 Y58.538 F400.000
G1 X-72.944 Y55.144 F400.000
G1 X-73.763 Y50.544 F400.000
G1 X-73.931 Y47.044 F400.000
G1 X-73.713 Y43.144 F400.000
G1 X-73.406 Y41.044 F400.000
G1 X-73.013 Y39.144 F400.000
G1 X-71.537 Y34.481 F400.000
G1 X-71.537 Y34.481 F400.000
G1 X-71.456 Y34.350 F400.000
G0 X-71.450 Y34.344
G0 X-71.694 Y34.931
G1 X-71.719 Y34.981 F400.000
G1 X-71.806 Y35.169 F400.000
G1 X-71.819 Y35.169 F400.000
G1 X-71.812 Y35.019 F400.000
G1 X-71.812 Y35.019 F400.000
G1 X-71.219 Y33.550 F400.000
G1 X-70.681 Y32.362 F400.000
G1 X-70.037 Y31.081 F400.000
G1 X-69.294 Y29.756 F400.000
G1 X-68.581 Y28.587 F400.000
G1 X-67.763 Y27.369 F400.000
G1 X-67.350 Y26.800 F400.000
G1 X-66.419 Y25.606 F400.000
G1 X-65.975 Y25.069 F400.000
G1 X-65.056 Y24.019 F400.000
G1 X-64.056 Y22.975 F400.000
G1 X-62.919 Y21.881 F400.000
G1 X-61.306 Y20.506 F400.000
G1 X-60.781 Y20.094 F400.000
G1 X-59.594 Y19.212 F400.000
G1 X-58.400 Y18.406 F400.000
G1 X-57.225 Y17.688 F400.000
G1 X-55.837 Y16.913 F400.000
G1 X-54.663 Y16.331 F400.000
G1 X-53.362 Y15.738 F400.000
G1 X-51.906 Y15.150 F400.000
G1 X-51.300 Y14.931 F400.000
G1 X-49.913 Y14.469 F400.000
G1 X-49.281 Y14.281 F400.000
G1 X-48.562 Y14.094 F400.000
G1 X-47.106 Y13.750 F400.000
G1 X-45.700 Y13.475 F400.000
G1 X-45.000 Y13.363 F400.000
G1 X-43.569 Y13.175 F400.000
G1 X-42.188 Y13.062 F400.000
G1 X-40.631 Y13.000 F400.000
G1 X-39.281 Y13.012 F400.000
G1 X-37.737 Y13.081 F400.000
G1 X-36.413 Y13.188 F400.000
G1 X-34.987 Y13.375 F400.000
G1 X-34.225 Y13.500 F400.000
G1 X-32.775 Y13.775 F400.000
G1 X-30.663 Y14.306 F400.000
G1 X-30.025 Y14.494 F400.000
G1 X-28.019 Y15.181 F400.000
G1 X-26.550 Y15.775 F400.000
G1 X-25.262 Y16.363 F400.000
G1 X-24.081 Y16.956 F400.000
G1 X-22.756 Y17.700 F400.000
G1 X-21.531 Y18.450 F400.000
G1 X-20.369 Y19.231 F400.000
G1 X-19.800 Y19.644 F400.000
G1 X-18.606 Y20.575 F400.000
G1 X-18.069 Y21.019 F400.000
G1 X-17.019 Y21.938 F400.000
G1 X-15.975 Y22.938 F400.000
G1 X-14.881 Y24.075 F400.000
G1 X-13.506 Y25.688 F400.000
G1 X-13.094 Y26.212 F400.000
G1 X-12.250 Y27.350 F400.000
G1 X-11.450 Y28.531 F400.000
G1 X-10.656 Y29.825 F400.000
G1 X-9.912 Y31.156 F400.000
G1 X-9.331 Y32.331 F400.000
G1 X-8.738 Y33.631 F400.000
G1 X-8.150 Y35.087 F400.000
G1 X-7.931 Y35.694 F400.000
G1 X-7.469 Y37.081 F400.000
G1 X-7.281 Y37.712 F400.000
G1 X-7.100 Y38.400 F400.000
G1 X-6.744 Y39.888 F400.000
G1 X-6.481 Y41.237 F400.000
G1 X-6.369 Y41.938 F400.000
G1 X-6.175 Y43.444 F400.000
G1 X-6.062 Y44.812 F400.000
G1 X-6.025 Y45.531 F400.000
G1 X-5.987 Y46.969 F400.000
G1 X-6.081 Y49.244 F400.000
G1 X-6.188 Y50.569 F400.000
G1 X-6.375 Y52.019 F400.000
G1 X-6.494 Y52.763 F400.000
G1 X-6.769 Y54.181 F400.000
G1 X-7.294 Y56.300 F400.000
G1 X-7.481 Y56.931 F400.000
G1 X-8.181 Y58.975 F400.000
G1 X-8.769 Y60.431 F400.000
G1 X-9.312 Y61.631 F400.000
G1 X-9.956 Y62.913 F400.000
G1 X-10.694 Y64.219 F400.000
G1 X-11.444 Y65.456 F400.000
G1 X-12.231 Y66.625 F400.000
G1 X-12.644 Y67.194 F400.000
G1 X-13.575 Y68.388 F400.000
G1 X-14.019 Y68.925 F400.000
G1 X-14.938 Y69.975 F400.000
G1 X-15.938 Y71.013 F400.000
G1 X-17.062 Y72.088 F400.000
G1 X-17.550 Y72.525 F400.000
G1 X-18.656 Y73.463 F400.000
G1 X-19.212 Y73.900 F400.000
G1 X-20.400 Y74.781 F400.000
G1 X-21.619 Y75.600 F400.000
G1 X-22.831 Y76.344 F400.000
G1 X-24.062 Y77.037 F400.000
G1 X-25.331 Y77.662 F400.000
G1 X-26.631 Y78.256 F400.000
G1 X-28.087 Y78.844 F400.000
G1 X-28.694 Y79.062 F400.000
G1 X-30.081 Y79.525 F400.000
G1 X-30.712 Y79.713 F400.000
G1 X-31.431 Y79.900 F400.000
G1 X-32.888 Y80.244 F400.000
G1 X-34.294 Y80.519 F400.000
G1 X-35.000 Y80.631 F400.000
G1 X-36.425 Y80.819 F400.000
G1 X-37.812 Y80.931 F400.000
G1 X-38.600 Y80.969 F400.000
G1 X-40.056 Y81.006 F400.000
G1 X-40.469 Y81.000 F400.000
G1 X-42.250 Y80.912 F400.000
G1 X-43.581 Y80.806 F400.000
G1 X-44.994 Y80.619 F400.000
G1 X-45.775 Y80.494 F400.000
G1 X-47.219 Y80.219 F400.000
G1 X-49.331 Y79.688 F400.000
G1 X-50.638 Y79.287 F400.000
G1 X-51.987 Y78.806 F400.000
G1 X-53.444 Y78.219 F400.000
G1 X-54.731 Y77.631 F400.000
G1 X-55.913 Y77.037 F400.000
G1 X-57.281 Y76.263 F400.000
G1 X-58.487 Y75.525 F400.000
G1 X-59.712 Y74.700 F400.000
G1 X-60.200 Y74.344 F400.000
G1 X-61.431 Y73.388 F400.000
G1 X-61.969 Y72.944 F400.000
G1 X-63.025 Y72.006 F400.000
G1 X-64.112 Y70.963 F400.000
G1 X-65.112 Y69.919 F400.000
G1 X-65.519 Y69.456 F400.000
G1 X-66.519 Y68.269 F400.000
G1 X-66.900 Y67.781 F400.000
G1 X-67.781 Y66.594 F400.000
G1 X-68.625 Y65.344 F400.000
G1 X-69.312 Y64.219 F400.000
G1 X-70.081 Y62.837 F400.000
G1 X-70.713 Y61.569 F400.000
G1 X-71.306 Y60.250 F400.000
G1 X-71.844 Y58.913 F400.000
G1 X-72.075 Y58.269 F400.000
G1 X-72.531 Y56.913 F400.000
G1 X-72.737 Y56.200 F400.000
G1 X-73.256 Y54.050 F400.000
G1 X-73.519 Y52.700 F400.000
G1 X-73.638 Y51.962 F400.000
G1 X-73.825 Y50.487 F400.000
G1 X-73.931 Y49.188 F400.000
G1 X-73.994 Y47.763 F400.000
G1 X-73.981 Y46.281 F400.000
G1 X-73.912 Y44.737 F400.000
G1 X-73.806 Y43.425 F400.000
G1 X-73.619 Y41.975 F400.000
G1 X-73.500 Y41.231 F400.000
G1 X-73.225 Y39.812 F400.000
G1 X-72.700 Y37.694 F400.000
G1 X-72.513 Y37.062 F400.000
G1 X-71.812 Y35.019 F400.000
G1 X-71.812 Y35.019 F400.000
G0 Z5.000
G0 Z5.000
(Finish operation: Adaptive)
(Block-name: Adaptive_2)
(Block-expand: 0)
(Block-enable: 1)
(Begin operation: Adaptive_2)
(Path: Adaptive_2)
(Adaptive_2)
(Helix to depth: -3.700000)
G0 Z5.000
G0 X-40.665 Y47.884 Z5.000
G0 X-40.665 Y47.884 Z3.000
G1 X-40.665 Y47.884 Z-1.000 F400.000
G1 X-40.665 Y47.884 Z-1.000 F400.000
G1 X-40.826 Y47.736 Z-1.019 F400.000
G1 X-40.955 Y47.560 Z-1.039 F400.000
G1 X-41.046 Y47.361 Z-1.058 F400.000
G1 X-41.098 Y47.149 Z-1.077 F400.000
G1 X-41.107 Y46.930 Z-1.097 F400.000
G1 X-41.073 Y46.714 Z-1.116 F400.000
G1 X-40.998 Y46.509 Z-1.135 F400.000
G1 X-40.884 Y46.323 Z-1.155 F400.000
G1 X-40.736 Y46.162 Z-1.174 F400.000
G1 X-40.560 Y46.033 Z-1.193 F400.000
G1 X-40.361 Y45.941 Z-1.213 F400.000
G1 X-40.149 Y45.890 Z-1.232 F400.000
G1 X-39.930 Y45.881 Z-1.251 F400.000
G1 X-39.714 Y45.914 Z-1.271 F400.000
G1 X-39.509 Y45.990 Z-1.290 F400.000
G1 X-39.323 Y46.103 Z-1.309 F400.000
G1 X-39.162 Y46.251 Z-1.329 F400.000
G1 X-39.033 Y46.428 Z-1.348 F400.000
G1 X-38.941 Y46.626 Z-1.367 F400.000
G1 X-38.890 Y46.839 Z-1.387 F400.000
G1 X-38.881 Y47.057 Z-1.406 F400.000
G1 X-38.914 Y47.273 Z-1.425 F400.000
G1 X-38.990 Y47.478 Z-1.444 F400.000
G1 X-39.103 Y47.665 Z-1.464 F400.000
G1 X-39.251 Y47.826 Z-1.483 F400.000
G1 X-39.428 Y47.955 Z-1.502 F400.000
G1 X-39.626 Y48.046 Z-1.522 F400.000
G1 X-39.839 Y48.098 Z-1.541 F400.000
G1 X-40.057 Y48.107 Z-1.560 F400.000
G1 X-40.273 Y48.073 Z-1.580 F400.000
G1 X-40.478 Y47.998 Z-1.599 F400.000
G1 X-40.665 Y47.884 Z-1.618 F400.000
G1 X-40.826 Y47.736 Z-1.638 F400.000
G1 X-40.955 Y47.560 Z-1.657 F400.000
G1 X-41.046 Y47.361 Z-1.676 F400.000
G1 X-41.098 Y47.149 Z-1.696 F400.000
G1 X-41.107 Y46.930 Z-1.715 F400.000
G1 X-41.073 Y46.714 Z-1.734 F400.000
G1 X-40.998 Y46.509 Z-1.754 F400.000
G1 X-40.884 Y46.323 Z-1.773 F400.000
G1 X-40.736 Y46.162 Z-1.792 F400.000
G1 X-40.560 Y46.033 Z-1.812 F400.000
G1 X-40.361 Y45.941 Z-1.831 F400.000
G1 X-40.149 Y45.890 Z-1.850 F400.000
G1 X-39.930 Y45.881 Z-1.870 F400.000
G1 X-39.714 Y45.914 Z-1.889 F400.000
G1 X-39.509 Y45.990 Z-1.908 F400.000
G1 X-39.323 Y46.103 Z-1.928 F400.000
G1 X-39.162 Y46.251 Z-1.947 F400.000
G1 X-39.033 Y46.428 Z-1.966 F400.000
G1 X-38.941 Y46.626 Z-1.986 F400.000
G1 X-38.890 Y46.839 Z-2.005 F400.000
G1 X-38.881 Y47.057 Z-2.024 F400.000
G1 X-38.914 Y47.273 Z-2.044 F400.000
G1 X-38.990 Y47.478 Z-2.063 F400.000
G1 X-39.103 Y47.665 Z-2.082 F400.000
G1 X-39.251 Y47.826 Z-2.102 F400.000
G1 X-39.428 Y47.955 Z-2.121 F400.000
G1 X-39.626 Y48.046 Z-2.140 F400.000
G1 X-39.839 Y48.098 Z-2.160 F400.000
G1 X-40.057 Y48.107 Z-2.179 F400.000
G1 X-40.273 Y48.073 Z-2.198 F400.000
G1 X-40.478 Y47.998 Z-2.218 F400.000
G1 X-40.665 Y47.884 Z-2.237 F400.000
G1 X-40.826 Y47.736 Z-2.256 F400.000
G1 X-40.955 Y47.560 Z-2.275 F400.000
G1 X-41.046 Y47.361 Z-2.295 F400.000
G1 X-41.098 Y47.149 Z-2.314 F400.000
G1 X-41.107 Y46.930 Z-2.333 F400.000
G1 X-41.073 Y46.714 Z-2.353 F400.000
G1 X-40.998 Y46.509 Z-2.372 F400.000
G1 X-40.884 Y46.323 Z-2.391 F400.000
G1 X-40.736 Y46.162 Z-2.411 F400.000
G1 X-40.560 Y46.033 Z-2.430 F400.000
