(Exported by FreeCAD)
(Post Processor: grbl_post)
(Output Time:2024-03-02 21:05:17.668825)
(Begin preamble)
G17 G90
G21
(Block-name: Fixture)
(Block-expand: 0)
(Block-enable: 1)
(Begin operation: Fixture)
(Path: Fixture)
G54
(Finish operation: Fixture)
(Block-name: 3mm Endmill001)
(Block-expand: 0)
(Block-enable: 1)
(Begin operation: 3mm Endmill001)
(Path: 3mm Endmill001)
(3mm Endmill001)
(Begin toolchange)
( M6 T3 )
M3 S8000
(Finish operation: 3mm Endmill001)
(Block-name: MillFace)
(Block-expand: 0)
(Block-enable: 1)
(Begin operation: MillFace)
(Path: MillFace)
(MillFace)
G0 Z6.000
G0 X11.421 Y11.421
G0 Z4.000
G1 X11.421 Y11.421 Z0.000 F400.000
G2 X2.687 Y-15.927 Z0.000 I-11.421 J-11.421 K0.000 F400.000
G2 X-15.927 Y-2.687 Z0.000 I-2.687 J15.927 K0.000 F400.000
G2 X-2.687 Y15.927 Z0.000 I15.927 J2.687 K0.000 F400.000
G2 X11.421 Y11.421 Z0.000 I2.687 J-15.927 K0.000 F400.000
G0 Z6.000
G0 X10.785 Y10.785 Z6.000
G0 X10.785 Y10.785 Z4.000
G1 X10.785 Y10.785 Z0.000 F400.000
G2 X2.537 Y-15.039 Z0.000 I-10.785 J-10.785 K0.000 F400.000
G2 X-2.537 Y15.039 Z0.000 I-2.537 J15.039 K0.000 F400.000
G2 X10.785 Y10.785 Z0.000 I2.537 J-15.039 K0.000 F400.000
G0 Z6.000
G0 X10.148 Y10.148 Z6.000
G0 X10.148 Y10.148 Z4.000
G1 X10.148 Y10.148 Z0.000 F400.000
G2 X2.387 Y-14.151 Z0.000 I-10.148 J-10.148 K0.000 F400.000
G2 X-14.151 Y-2.387 Z0.000 I-2.387 J14.151 K0.000 F400.000
G2 X-2.387 Y14.151 Z0.000 I14.151 J2.387 K0.000 F400.000
G2 X10.148 Y10.148 Z0.000 I2.387 J-14.151 K0.000 F400.000
G0 Z6.000
G0 X9.511 Y9.511 Z6.000
G0 X9.511 Y9.511 Z4.000
G1 X9.511 Y9.511 Z0.000 F400.000
G2 X2.237 Y-13.263 Z0.000 I-9.511 J-9.511 K0.000 F400.000
G2 X-13.263 Y-2.237 Z0.000 I-2.237 J13.263 K0.000 F400.000
G2 X-2.237 Y13.263 Z0.000 I13.263 J2.237 K0.000 F400.000
G2 X9.511 Y9.511 Z0.000 I2.237 J-13.263 K0.000 F400.000
G0 Z6.000
G0 X8.874 Y8.874 Z6.000
G0 X8.874 Y8.874 Z4.000
G1 X8.874 Y8.874 Z0.000 F400.000
G2 X2.087 Y-12.375 Z0.000 I-8.874 J-8.874 K0.000 F400.000
G2 X-2.087 Y12.375 Z0.000 I-2.087 J12.375 K0.000 F400.000
G2 X8.874 Y8.874 Z0.000 I2.087 J-12.375 K0.000 F400.000
G0 Z6.000
G0 X8.238 Y8.238 Z6.000
G0 X8.238 Y8.238 Z4.000
G1 X8.238 Y8.238 Z0.000 F400.000
G2 X1.938 Y-11.487 Z0.000 I-8.238 J-8.238 K0.000 F400.000
G2 X-1.938 Y11.487 Z0.000 I-1.938 J11.487 K0.000 F400.000
G2 X8.238 Y8.238 Z0.000 I1.938 J-11.487 K0.000 F400.000
G0 Z6.000
G0 X7.601 Y7.601 Z6.000
G0 X7.601 Y7.601 Z4.000
G1 X7.601 Y7.601 Z0.000 F400.000
G2 X1.788 Y-10.599 Z0.000 I-7.601 J-7.601 K0.000 F400.000
G2 X-10.599 Y-1.788 Z0.000 I-1.788 J10.599 K0.000 F400.000
G2 X-1.788 Y10.599 Z0.000 I10.599 J1.788 K0.000 F400.000
G2 X7.601 Y7.601 Z0.000 I1.788 J-10.599 K0.000 F400.000
G0 Z6.000
G0 X6.964 Y6.964 Z6.000
G0 X6.964 Y6.964 Z4.000
G1 X6.964 Y6.964 Z0.000 F400.000
G2 X1.638 Y-9.711 Z0.000 I-6.964 J-6.964 K0.000 F400.000
G2 X-9.711 Y-1.638 Z0.000 I-1.638 J9.711 K0.000 F400.000
G2 X-1.638 Y9.711 Z0.000 I9.711 J1.638 K0.000 F400.000
G2 X6.964 Y6.964 Z0.000 I1.638 J-9.711 K0.000 F400.000
G0 Z6.000
G0 X6.327 Y6.327 Z6.000
G0 X6.327 Y6.327 Z4.000
G1 X6.327 Y6.327 Z0.000 F400.000
G2 X1.488 Y-8.823 Z0.000 I-6.327 J-6.327 K0.000 F400.000
G2 X-8.823 Y-1.488 Z0.000 I-1.488 J8.823 K0.000 F400.000
G2 X-1.488 Y8.823 Z0.000 I8.823 J1.488 K0.000 F400.000
G2 X6.327 Y6.327 Z0.000 I1.488 J-8.823 K0.000 F400.000
G0 Z6.000
G0 X5.691 Y5.691 Z6.000
G0 X5.691 Y5.691 Z4.000
G1 X5.691 Y5.691 Z0.000 F400.000
G2 X1.339 Y-7.936 Z0.000 I-5.691 J-5.691 K0.000 F400.000
G2 X-7.936 Y-1.339 Z0.000 I-1.339 J7.936 K0.000 F400.000
G2 X-1.339 Y7.936 Z0.000 I7.936 J1.339 K0.000 F400.000
G2 X5.691 Y5.691 Z0.000 I1.339 J-7.936 K0.000 F400.000
G0 Z6.000
G0 X5.054 Y5.054 Z6.000
G0 X5.054 Y5.054 Z4.000
G1 X5.054 Y5.054 Z0.000 F400.000
G2 X1.189 Y-7.048 Z0.000 I-5.054 J-5.054 K0.000 F400.000
G2 X-1.189 Y7.048 Z0.000 I-1.189 J7.048 K0.000 F400.000
G2 X5.054 Y5.054 Z0.000 I1.189 J-7.048 K0.000 F400.000
G0 Z6.000
G0 X4.417 Y4.417 Z6.000
G0 X4.417 Y4.417 Z4.000
G1 X4.417 Y4.417 Z0.000 F400.000
G2 X1.039 Y-6.160 Z0.000 I-4.417 J-4.417 K0.000 F400.000
G2 X-1.039 Y6.160 Z0.000 I-1.039 J6.160 K0.000 F400.000
G2 X4.417 Y4.417 Z0.000 I1.039 J-6.160 K0.000 F400.000
G0 Z6.000
G0 X3.780 Y3.780 Z6.000
G0 X3.780 Y3.780 Z4.000
G1 X3.780 Y3.780 Z0.000 F400.000
G2 X0.889 Y-5.272 Z0.000 I-3.780 J-3.780 K0.000 F400.000
G2 X-0.889 Y5.272 Z0.000 I-0.889 J5.272 K0.000 F400.000
G2 X3.780 Y3.780 Z0.000 I0.889 J-5.272 K0.000 F400.000
G0 Z6.000
G0 X3.144 Y3.144 Z6.000
G0 X3.144 Y3.144 Z4.000
G1 X3.144 Y3.144 Z0.000 F400.000
G2 X0.739 Y-4.384 Z0.000 I-3.144 J-3.144 K0.000 F400.000
G2 X-0.739 Y4.384 Z0.000 I-0.739 J4.384 K0.000 F400.000
G2 X3.144 Y3.144 Z0.000 I0.739 J-4.384 K0.000 F400.000
G0 Z6.000
G0 X2.507 Y2.507 Z6.000
G0 X2.507 Y2.507 Z4.000
G1 X2.507 Y2.507 Z0.000 F400.000
G2 X0.590 Y-3.496 Z0.000 I-2.507 J-2.507 K0.000 F400.000
G2 X-3.496 Y-0.590 Z0.000 I-0.590 J3.496 K0.000 F400.000
G2 X-0.590 Y3.496 Z0.000 I3.496 J0.590 K0.000 F400.000
G2 X2.507 Y2.507 Z0.000 I0.590 J-3.496 K0.000 F400.000
G0 Z6.000
G0 X1.870 Y1.870 Z6.000
G0 X1.870 Y1.870 Z4.000
G1 X1.870 Y1.870 Z0.000 F400.000
G2 X0.440 Y-2.608 Z0.000 I-1.870 J-1.870 K0.000 F400.000
G2 X-2.608 Y-0.440 Z0.000 I-0.440 J2.608 K0.000 F400.000
G2 X-0.440 Y2.608 Z0.000 I2.608 J0.440 K0.000 F400.000
G2 X1.870 Y1.870 Z0.000 I0.440 J-2.608 K0.000 F400.000
G0 Z6.000
G0 X1.233 Y1.233 Z6.000
G0 X1.233 Y1.233 Z4.000
G1 X1.233 Y1.233 Z0.000 F400.000
G2 X0.290 Y-1.720 Z0.000 I-1.233 J-1.233 K0.000 F400.000
G2 X-1.720 Y-0.290 Z0.000 I-0.290 J1.720 K0.000 F400.000
G2 X-0.290 Y1.720 Z0.000 I1.720 J0.290 K0.000 F400.000
G2 X1.233 Y1.233 Z0.000 I0.290 J-1.720 K0.000 F400.000
G0 Z6.000
G0 X0.597 Y0.597 Z6.000
G0 X0.597 Y0.597 Z4.000
G1 X0.597 Y0.597 Z0.000 F400.000
G2 X0.140 Y-0.832 Z0.000 I-0.597 J-0.597 K0.000 F400.000
G2 X-0.140 Y0.832 Z0.000 I-0.140 J0.832 K0.000 F400.000
G2 X0.597 Y0.597 Z0.000 I0.140 J-0.832 K0.000 F400.000
G0 Z6.000
G0 X0.066 Y0.066 Z6.000
G0 X0.066 Y0.066 Z4.000
G1 X0.066 Y0.066 Z0.000 F400.000
G2 X0.016 Y-0.092 Z0.000 I-0.066 J-0.066 K0.000 F400.000
G2 X-0.016 Y0.092 Z0.000 I-0.016 J0.092 K0.000 F400.000
G2 X0.066 Y0.066 Z0.000 I0.016 J-0.092 K0.000 F400.000
G0 Z6.000
G0 Z6.000
(Finish operation: MillFace)
(Block-name: Adaptive_top1)
(Block-expand: 0)
(Block-enable: 1)
(Begin operation: Adaptive_top1)
(Path: Adaptive_top1)
(Adaptive_top1)
(Helix to depth: -2.500000)
G0 Z6.000
G0 X0.192 Y0.713 Z6.000
G0 X0.192 Y0.713 Z4.000
G1 X0.192 Y0.713 Z1.000 F400.000
G1 X0.192 Y0.713 Z1.000 F400.000
G1 X0.050 Y0.736 Z0.987 F400.000
G1 X-0.095 Y0.732 Z0.974 F400.000
G1 X-0.236 Y0.699 Z0.961 F400.000
G1 X-0.368 Y0.640 Z0.949 F400.000
G1 X-0.486 Y0.556 Z0.936 F400.000
G1 X-0.585 Y0.450 Z0.923 F400.000
G1 X-0.661 Y0.328 Z0.910 F400.000
G1 X-0.713 Y0.192 Z0.897 F400.000
G1 X-0.736 Y0.050 Z0.884 F400.000
G1 X-0.732 Y-0.095 Z0.871 F400.000
G1 X-0.699 Y-0.236 Z0.859 F400.000
G1 X-0.640 Y-0.368 Z0.846 F400.000
G1 X-0.556 Y-0.486 Z0.833 F400.000
G1 X-0.450 Y-0.585 Z0.820 F400.000
G1 X-0.328 Y-0.661 Z0.807 F400.000
G1 X-0.192 Y-0.713 Z0.794 F400.000
G1 X-0.050 Y-0.736 Z0.782 F400.000
G1 X0.095 Y-0.732 Z0.769 F400.000
G1 X0.236 Y-0.699 Z0.756 F400.000
G1 X0.368 Y-0.640 Z0.743 F400.000
G1 X0.486 Y-0.556 Z0.730 F400.000
G1 X0.585 Y-0.450 Z0.717 F400.000
G1 X0.661 Y-0.328 Z0.704 F400.000
G1 X0.713 Y-0.192 Z0.692 F400.000
G1 X0.736 Y-0.050 Z0.679 F400.000
G1 X0.732 Y0.095 Z0.666 F400.000
G1 X0.699 Y0.236 Z0.653 F400.000
G1 X0.640 Y0.368 Z0.640 F400.000
G1 X0.556 Y0.486 Z0.627 F400.000
G1 X0.450 Y0.585 Z0.614 F400.000
G1 X0.328 Y0.661 Z0.602 F400.000
G1 X0.192 Y0.713 Z0.589 F400.000
G1 X0.050 Y0.736 Z0.576 F400.000
G1 X-0.095 Y0.732 Z0.563 F400.000
G1 X-0.236 Y0.699 Z0.550 F400.000
G1 X-0.368 Y0.640 Z0.537 F400.000
G1 X-0.486 Y0.556 Z0.524 F400.000
G1 X-0.585 Y0.450 Z0.512 F400.000
G1 X-0.661 Y0.328 Z0.499 F400.000
G1 X-0.713 Y0.192 Z0.486 F400.000
G1 X-0.736 Y0.050 Z0.473 F400.000
G1 X-0.732 Y-0.095 Z0.460 F400.000
G1 X-0.699 Y-0.236 Z0.447 F400.000
G1 X-0.640 Y-0.368 Z0.435 F400.000
G1 X-0.556 Y-0.486 Z0.422 F400.000
G1 X-0.450 Y-0.585 Z0.409 F400.000
G1 X-0.328 Y-0.661 Z0.396 F400.000
G1 X-0.192 Y-0.713 Z0.383 F400.000
G1 X-0.050 Y-0.736 Z0.370 F400.000
G1 X0.095 Y-0.732 Z0.357 F400.000
G1 X0.236 Y-0.699 Z0.345 F400.000
G1 X0.368 Y-0.640 Z0.332 F400.000
G1 X0.486 Y-0.556 Z0.319 F400.000
G1 X0.585 Y-0.450 Z0.306 F400.000
G1 X0.661 Y-0.328 Z0.293 F400.000
G1 X0.713 Y-0.192 Z0.280 F400.000
G1 X0.736 Y-0.050 Z0.267 F400.000
G1 X0.732 Y0.095 Z0.255 F400.000
G1 X0.699 Y0.236 Z0.242 F400.000
G1 X0.640 Y0.368 Z0.229 F400.000
G1 X0.556 Y0.486 Z0.216 F400.000
G1 X0.450 Y0.585 Z0.203 F400.000
G1 X0.328 Y0.661 Z0.190 F400.000
G1 X0.192 Y0.713 Z0.178 F400.000
G1 X0.050 Y0.736 Z0.165 F400.000
G1 X-0.095 Y0.732 Z0.152 F400.000
G1 X-0.236 Y0.699 Z0.139 F400.000
G1 X-0.368 Y0.640 Z0.126 F400.000
G1 X-0.486 Y0.556 Z0.113 F400.000
G1 X-0.585 Y0.450 Z0.100 F400.000
G1 X-0.661 Y0.328 Z0.088 F400.000
G1 X-0.713 Y0.192 Z0.075 F400.000
G1 X-0.736 Y0.050 Z0.062 F400.000
G1 X-0.732 Y-0.095 Z0.049 F400.000
G1 X-0.699 Y-0.236 Z0.036 F400.000
G1 X-0.640 Y-0.368 Z0.023 F400.000
G1 X-0.556 Y-0.486 Z0.010 F400.000
G1 X-0.450 Y-0.585 Z-0.002 F400.000
G1 X-0.328 Y-0.661 Z-0.015 F400.000
G1 X-0.192 Y-0.713 Z-0.028 F400.000
G1 X-0.050 Y-0.736 Z-0.041 F400.000
G1 X0.095 Y-0.732 Z-0.054 F400.000
G1 X0.236 Y-0.699 Z-0.067 F400.000
G1 X0.368 Y-0.640 Z-0.080 F400.000
G1 X0.486 Y-0.556 Z-0.092 F400.000
G1 X0.585 Y-0.450 Z-0.105 F400.000
G1 X0.661 Y-0.328 Z-0.118 F400.000
G1 X0.713 Y-0.192 Z-0.131 F400.000
G1 X0.736 Y-0.050 Z-0.144 F400.000
G1 X0.732 Y0.095 Z-0.157 F400.000
G1 X0.699 Y0.236 Z-0.169 F400.000
G1 X0.640 Y0.368 Z-0.182 F400.000
G1 X0.556 Y0.486 Z-0.195 F400.000
G1 X0.450 Y0.585 Z-0.208 F400.000
G1 X0.328 Y0.661 Z-0.221 F400.000
G1 X0.192 Y0.713 Z-0.234 F400.000
G1 X0.050 Y0.736 Z-0.247 F400.000
G1 X-0.095 Y0.732 Z-0.259 F400.000
G1 X-0.236 Y0.699 Z-0.272 F400.000
G1 X-0.368 Y0.640 Z-0.285 F400.000
G1 X-0.486 Y0.556 Z-0.298 F400.000
G1 X-0.585 Y0.450 Z-0.311 F400.000
G1 X-0.661 Y0.328 Z-0.324 F400.000
G1 X-0.713 Y0.192 Z-0.337 F400.000
G1 X-0.736 Y0.050 Z-0.349 F400.000
G1 X-0.732 Y-0.095 Z-0.362 F400.000
G1 X-0.699 Y-0.236 Z-0.375 F400.000
G1 X-0.640 Y-0.368 Z-0.388 F400.000
G1 X-0.556 Y-0.486 Z-0.401 F400.000
G1 X-0.450 Y-0.585 Z-0.414 F400.000
G1 X-0.328 Y-0.661 Z-0.427 F400.000
G1 X-0.192 Y-0.713 Z-0.439 F400.000
G1 X-0.050 Y-0.736 Z-0.452 F400.000
G1 X0.095 Y-0.732 Z-0.465 F400.000
G1 X0.236 Y-0.699 Z-0.478 F400.000
G1 X0.368 Y-0.640 Z-0.491 F400.000
G1 X0.486 Y-0.556 Z-0.504 F400.000
G1 X0.585 Y-0.450 Z-0.516 F400.000
G1 X0.661 Y-0.328 Z-0.529 F400.000
G1 X0.713 Y-0.192 Z-0.542 F400.000
G1 X0.736 Y-0.050 Z-0.555 F400.000
G1 X0.732 Y0.095 Z-0.568 F400.000
G1 X0.699 Y0.236 Z-0.581 F400.000
G1 X0.640 Y0.368 Z-0.594 F400.000
G1 X0.556 Y0.486 Z-0.606 F400.000
G1 X0.450 Y0.585 Z-0.619 F400.000
G1 X0.328 Y0.661 Z-0.632 F400.000
G1 X0.192 Y0.713 Z-0.645 F400.000
G1 X0.050 Y0.736 Z-0.658 F400.000
G1 X-0.095 Y0.732 Z-0.671 F400.000
G1 X-0.236 Y0.699 Z-0.684 F400.000
G1 X-0.368 Y0.640 Z-0.696 F400.000
G1 X-0.486 Y0.556 Z-0.709 F400.000
G1 X-0.585 Y0.450 Z-0.722 F400.000
G1 X-0.661 Y0.328 Z-0.735 F400.000
G1 X-0.713 Y0.192 Z-0.748 F400.000
G1 X-0.736 Y0.050 Z-0.761 F400.000
G1 X-0.732 Y-0.095 Z-0.774 F400.000
G1 X-0.699 Y-0.236 Z-0.786 F400.000
G1 X-0.640 Y-0.368 Z-0.799 F400.000
G1 X-0.556 Y-0.486 Z-0.812 F400.000
G1 X-0.450 Y-0.585 Z-0.825 F400.000
G1 X-0.328 Y-0.661 Z-0.838 F400.000
G1 X-0.192 Y-0.713 Z-0.851 F400.000
G1 X-0.050 Y-0.736 Z-0.863 F400.000
G1 X0.095 Y-0.732 Z-0.876 F400.000
G1 X0.236 Y-0.699 Z-0.889 F400.000
G1 X0.368 Y-0.640 Z-0.902 F400.000
G1 X0.486 Y-0.556 Z-0.915 F400.000
G1 X0.585 Y-0.450 Z-0.928 F400.000
G1 X0.661 Y-0.328 Z-0.941 F400.000
G1 X0.713 Y-0.192 Z-0.953 F400.000
G1 X0.736 Y-0.050 Z-0.966 F400.000
G1 X0.732 Y0.095 Z-0.979 F400.000
G1 X0.699 Y0.236 Z-0.992 F400.000
G1 X0.640 Y0.368 Z-1.005 F400.000
G1 X0.556 Y0.486 Z-1.018 F400.000
G1 X0.450 Y0.585 Z-1.031 F400.000
G1 X0.328 Y0.661 Z-1.043 F400.000
G1 X0.192 Y0.713 Z-1.056 F400.000
G1 X0.050 Y0.736 Z-1.069 F400.000
G1 X-0.095 Y0.732 Z-1.082 F400.000
G1 X-0.236 Y0.699 Z-1.095 F400.000
G1 X-0.368 Y0.640 Z-1.108 F400.000
G1 X-0.486 Y0.556 Z-1.120 F400.000
G1 X-0.585 Y0.450 Z-1.133 F400.000
G1 X-0.661 Y0.328 Z-1.146 F400.000
G1 X-0.713 Y0.192 Z-1.159 F400.000
G1 X-0.736 Y0.050 Z-1.172 F400.000
G1 X-0.732 Y-0.095 Z-1.185 F400.000
G1 X-0.699 Y-0.236 Z-1.198 F400.000
G1 X-0.640 Y-0.368 Z-1.210 F400.000
G1 X-0.556 Y-0.486 Z-1.223 F400.000
G1 X-0.450 Y-0.585 Z-1.236 F400.000
G1 X-0.328 Y-0.661 Z-1.249 F400.000
G1 X-0.192 Y-0.713 Z-1.262 F400.000
G1 X-0.050 Y-0.736 Z-1.275 F400.000
G1 X0.095 Y-0.732 Z-1.288 F400.000
G1 X0.236 Y-0.699 Z-1.300 F400.000
G1 X0.368 Y-0.640 Z-1.313 F400.000
G1 X0.486 Y-0.556 Z-1.326 F400.000
G1 X0.585 Y-0.450 Z-1.339 F400.000
G1 X0.661 Y-0.328 Z-1.352 F400.000
G1 X0.713 Y-0.192 Z-1.365 F400.000
G1 X0.736 Y-0.050 Z-1.378 F400.000
G1 X0.732 Y0.095 Z-1.390 F400.000
G1 X0.699 Y0.236 Z-1.403 F400.000
G1 X0.640 Y0.368 Z-1.416 F400.000
G1 X0.556 Y0.486 Z-1.429 F400.000
G1 X0.450 Y0.585 Z-1.442 F400.000
G1 X0.328 Y0.661 Z-1.455 F400.000
G1 X0.192 Y0.713 Z-1.467 F400.000
G1 X0.050 Y0.736 Z-1.480 F400.000
G1 X-0.095 Y0.732 Z-1.493 F400.000
G1 X-0.236 Y0.699 Z-1.506 F400.000
G1 X-0.368 Y0.640 Z-1.519 F400.000
G1 X-0.486 Y0.556 Z-1.532 F400.000
G1 X-0.585 Y0.450 Z-1.545 F400.000
G1 X-0.661 Y0.328 Z-1.557 F400.000
G1 X-0.713 Y0.192 Z-1.570 F400.000
G1 X-0.736 Y0.050 Z-1.583 F400.000
G1 X-0.732 Y-0.095 Z-1.596 F400.000
G1 X-0.699 Y-0.236 Z-1.609 F400.000
G1 X-0.640 Y-0.368 Z-1.622 F400.000
G1 X-0.556 Y-0.486 Z-1.635 F400.000
G1 X-0.450 Y-0.585 Z-1.647 F400.000
G1 X-0.328 Y-0.661 Z-1.660 F400.000
G1 X-0.192 Y-0.713 Z-1.673 F400.000
G1 X-0.050 Y-0.736 Z-1.686 F400.000
G1 X0.095 Y-0.732 Z-1.699 F400.000
G1 X0.236 Y-0.699 Z-1.712 F400.000
G1 X0.368 Y-0.640 Z-1.725 F400.000
G1 X0.486 Y-0.556 Z-1.737 F400.000
G1 X0.585 Y-0.450 Z-1.750 F400.000
G1 X0.661 Y-0.328 Z-1.763 F400.000
G1 X0.713 Y-0.192 Z-1.776 F400.000
G1 X0.736 Y-0.050 Z-1.789 F400.000
G1 X0.732 Y0.095 Z-1.802 F400.000
G1 X0.699 Y0.236 Z-1.814 F400.000
G1 X0.640 Y0.368 Z-1.827 F400.000
G1 X0.556 Y0.486 Z-1.840 F400.000
G1 X0.450 Y0.585 Z-1.853 F400.000
G1 X0.328 Y0.661 Z-1.866 F400.000
G1 X0.192 Y0.713 Z-1.879 F400.000
G1 X0.050 Y0.736 Z-1.892 F400.000
G1 X-0.095 Y0.732 Z-1.904 F400.000
G1 X-0.236 Y0.699 Z-1.917 F400.000
G1 X-0.368 Y0.640 Z-1.930 F400.000
G1 X-0.486 Y0.556 Z-1.943 F400.000
G1 X-0.585 Y0.450 Z-1.956 F400.000
G1 X-0.661 Y0.328 Z-1.969 F400.000
G1 X-0.713 Y0.192 Z-1.982 F400.000
G1 X-0.736 Y0.050 Z-1.994 F400.000
G1 X-0.732 Y-0.095 Z-2.007 F400.000
G1 X-0.699 Y-0.236 Z-2.020 F400.000
G1 X-0.640 Y-0.368 Z-2.033 F400.000
G1 X-0.556 Y-0.486 Z-2.046 F400.000
G1 X-0.450 Y-0.585 Z-2.059 F400.000
G1 X-0.328 Y-0.661 Z-2.072 F400.000
G1 X-0.192 Y-0.713 Z-2.084 F400.000
G1 X-0.050 Y-0.736 Z-2.097 F400.000
G1 X0.095 Y-0.732 Z-2.110 F400.000
G1 X0.236 Y-0.699 Z-2.123 F400.000
G1 X0.368 Y-0.640 Z-2.136 F400.000
G1 X0.486 Y-0.556 Z-2.149 F400.000
G1 X0.585 Y-0.450 Z-2.161 F400.000
G1 X0.661 Y-0.328 Z-2.174 F400.000
G1 X0.713 Y-0.192 Z-2.187 F400.000
G1 X0.736 Y-0.050 Z-2.200 F400.000
G1 X0.732 Y0.095 Z-2.213 F400.000
G1 X0.699 Y0.236 Z-2.226 F400.000
G1 X0.640 Y0.368 Z-2.239 F400.000
G1 X0.556 Y0.486 Z-2.251 F400.000
G1 X0.450 Y0.585 Z-2.264 F400.000
G1 X0.328 Y0.661 Z-2.277 F400.000
G1 X0.192 Y0.713 Z-2.290 F400.000
G1 X0.050 Y0.736 Z-2.303 F400.000
G1 X-0.095 Y0.732 Z-2.316 F400.000
G1 X-0.236 Y0.699 Z-2.329 F400.000
G1 X-0.368 Y0.640 Z-2.341 F400.000
G1 X-0.486 Y0.556 Z-2.354 F400.000
G1 X-0.585 Y0.450 Z-2.367 F400.000
G1 X-0.661 Y0.328 Z-2.380 F400.000
G1 X-0.713 Y0.192 Z-2.393 F400.000
G1 X-0.736 Y0.050 Z-2.406 F400.000
G1 X-0.732 Y-0.095 Z-2.418 F400.000
G1 X-0.699 Y-0.236 Z-2.431 F400.000
G1 X-0.640 Y-0.368 Z-2.444 F400.000
G1 X-0.556 Y-0.486 Z-2.457 F400.000
G1 X-0.450 Y-0.585 Z-2.470 F400.000
G1 X-0.328 Y-0.661 Z-2.483 F400.000
G1 X-0.192 Y-0.713 Z-2.496 F400.000
G1 X-0.050 Y-0.736 Z-2.500 F400.000
G1 X0.095 Y-0.732 Z-2.500 F400.000
G1 X0.236 Y-0.699 Z-2.500 F400.000
G1 X0.368 Y-0.640 Z-2.500 F400.000
G1 X0.486 Y-0.556 Z-2.500 F400.000
G1 X0.585 Y-0.450 Z-2.500 F400.000
G1 X0.661 Y-0.328 Z-2.500 F400.000
G1 X0.713 Y-0.192 Z-2.500 F400.000
G1 X0.736 Y-0.050 Z-2.500 F400.000
G1 X0.732 Y0.095 Z-2.500 F400.000
G1 X0.699 Y0.236 Z-2.500 F400.000
G1 X0.640 Y0.368 Z-2.500 F400.000
G1 X0.556 Y0.486 Z-2.500 F400.000
G1 X0.450 Y0.585 Z-2.500 F400.000
G1 X0.328 Y0.661 Z-2.500 F400.000
G1 X0.192 Y0.713 Z-2.500 F400.000
G1 X0.050 Y0.736 Z-2.500 F400.000
G1 X-0.095 Y0.732 Z-2.500 F400.000
G1 X-0.236 Y0.699 Z-2.500 F400.000
G1 X-0.368 Y0.640 Z-2.500 F400.000
G1 X-0.486 Y0.556 Z-2.500 F400.000
G1 X-0.585 Y0.450 Z-2.500 F400.000
G1 X-0.661 Y0.328 Z-2.500 F400.000
G1 X-0.713 Y0.192 Z-2.500 F400.000
G1 X-0.736 Y0.050 Z-2.500 F400.000
G1 X-0.732 Y-0.095 Z-2.500 F400.000
G1 X-0.699 Y-0.236 Z-2.500 F400.000
G1 X-0.640 Y-0.368 Z-2.500 F400.000
G1 X-0.556 Y-0.486 Z-2.500 F400.000
G1 X-0.450 Y-0.585 Z-2.500 F400.000
G1 X-0.328 Y-0.661 Z-2.500 F400.000
G1 X-0.192 Y-0.713 Z-2.500 F400.000
(Adaptive - depth: -2.500000)
G1 X0.000 Y-0.748 F400.000
G1 X0.041 Y-0.789 F400.000
G1 X0.154 Y-0.820 F400.000
G1 X0.267 Y-0.820 F400.000
G1 X0.436 Y-0.774 F400.000
G1 X0.489 Y-0.748 F400.000
G1 X0.714 Y-0.594 F400.000
G1 X0.838 Y-0.432 F400.000
G1 X0.895 Y-0.316 F400.000
G1 X0.932 Y-0.188 F400.000
G1 X0.951 Y-0.041 F400.000
G1 X0.951 Y0.128 F400.000
G1 X0.910 Y0.323 F400.000
G1 X0.842 Y0.477 F400.000
G1 X0.756 Y0.602 F400.000
G1 X0.654 Y0.711 F400.000
G1 X0.515 Y0.820 F400.000
G1 X0.346 Y0.906 F400.000
G1 X0.180 Y0.955 F400.000
G1 X0.019 Y0.970 F400.000
G1 X-0.132 Y0.962 F400.000
G1 X-0.305 Y0.925 F400.000
G1 X-0.470 Y0.853 F400.000
G1 X-0.613 Y0.756 F400.000
G1 X-0.726 Y0.647 F400.000
G1 X-0.831 Y0.511 F400.000
G1 X-0.914 Y0.346 F400.000
G1 X-0.959 Y0.180 F400.000
G1 X-0.977 Y0.019 F400.000
G1 X-0.966 Y-0.147 F400.000
G1 X-0.925 Y-0.305 F400.000
G1 X-0.861 Y-0.455 F400.000
G1 X-0.763 Y-0.602 F400.000
G1 X-0.650 Y-0.726 F400.000
G1 X-0.508 Y-0.842 F400.000
G1 X-0.342 Y-0.944 F400.000
G1 X-0.169 Y-1.008 F400.000
G1 X0.120 Y-1.049 F400.000
G1 X0.402 Y-1.019 F400.000
G1 X0.744 Y-0.876 F400.000
G1 X0.921 Y-0.722 F400.000
G1 X0.996 Y-0.624 F400.000
G1 X1.064 Y-0.515 F400.000
G1 X1.135 Y-0.361 F400.000
G1 X1.192 Y-0.147 F400.000
G1 X1.207 Y0.056 F400.000
G1 X1.192 Y0.229 F400.000
G1 X1.150 Y0.395 F400.000
G1 X1.083 Y0.564 F400.000
G1 X0.977 Y0.741 F400.000
G1 X0.846 Y0.891 F400.000
G1 X0.711 Y1.008 F400.000
G1 X0.545 Y1.109 F400.000
G1 X0.368 Y1.180 F400.000
G1 X0.184 Y1.226 F400.000
G1 X-0.004 Y1.241 F400.000
G1 X-0.188 Y1.226 F400.000
G1 X-0.368 Y1.180 F400.000
G1 X-0.541 Y1.113 F400.000
G1 X-0.722 Y1.008 F400.000
G1 X-0.872 Y0.883 F400.000
G1 X-1.004 Y0.733 F400.000
G1 X-1.098 Y0.583 F400.000
G1 X-1.173 Y0.406 F400.000
G1 X-1.218 Y0.222 F400.000
G1 X-1.233 Y0.038 F400.000
G1 X-1.229 Y-0.147 F400.000
G1 X-1.184 Y-0.357 F400.000
G1 X-1.117 Y-0.541 F400.000
G1 X-1.019 Y-0.714 F400.000
G1 X-0.906 Y-0.857 F400.000
G1 X-0.767 Y-0.992 F400.000
G1 X-0.602 Y-1.117 F400.000
G1 X-0.410 Y-1.214 F400.000
G1 X-0.218 Y-1.282 F400.000
G1 X-0.015 Y-1.323 F400.000
G1 X0.192 Y-1.335 F400.000
G1 X0.395 Y-1.316 F400.000
G1 X0.594 Y-1.259 F400.000
G1 X0.763 Y-1.188 F400.000
G1 X0.932 Y-1.083 F400.000
G1 X1.079 Y-0.955 F400.000
G1 X1.203 Y-0.808 F400.000
G1 X1.312 Y-0.647 F400.000
G1 X1.402 Y-0.447 F400.000
G1 X1.459 Y-0.252 F400.000
G1 X1.489 Y-0.045 F400.000
G1 X1.489 Y0.158 F400.000
G1 X1.459 Y0.361 F400.000
G1 X1.398 Y0.556 F400.000
G1 X1.312 Y0.744 F400.000
G1 X1.203 Y0.917 F400.000
G1 X1.064 Y1.090 F400.000
G1 X0.887 Y1.241 F400.000
G1 X0.718 Y1.346 F400.000
G1 X0.541 Y1.425 F400.000
G1 X0.342 Y1.489 F400.000
G1 X0.102 Y1.526 F400.000
G1 X-0.105 Y1.530 F400.000
G1 X-0.320 Y1.508 F400.000
G1 X-0.534 Y1.451 F400.000
G1 X-0.729 Y1.361 F400.000
G1 X-0.887 Y1.263 F400.000
G1 X-1.049 Y1.135 F400.000
G1 X-1.203 Y0.970 F400.000
G1 X-1.331 Y0.789 F400.000
G1 X-1.425 Y0.590 F400.000
G1 X-1.485 Y0.402 F400.000
G1 X-1.523 Y0.192 F400.000
G1 X-1.538 Y-0.011 F400.000
G1 X-1.519 Y-0.248 F400.000
G1 X-1.470 Y-0.459 F400.000
G1 X-1.395 Y-0.665 F400.000
G1 X-1.289 Y-0.865 F400.000
G1 X-1.154 Y-1.041 F400.000
G1 X-1.015 Y-1.184 F400.000
G1 X-0.850 Y-1.320 F400.000
G1 X-0.647 Y-1.444 F400.000
G1 X-0.421 Y-1.545 F400.000
G1 X-0.199 Y-1.613 F400.000
G1 X0.034 Y-1.643 F400.000
G1 X0.229 Y-1.647 F400.000
G1 X0.447 Y-1.624 F400.000
G1 X0.680 Y-1.560 F400.000
G1 X0.880 Y-1.474 F400.000
G1 X1.053 Y-1.372 F400.000
G1 X1.226 Y-1.241 F400.000
G1 X1.391 Y-1.068 F400.000
G1 X1.523 Y-0.891 F400.000
G1 X1.632 Y-0.692 F400.000
G1 X1.714 Y-0.481 F400.000
G1 X1.771 Y-0.267 F400.000
G1 X1.801 Y-0.023 F400.000
G1 X1.801 Y0.203 F400.000
G1 X1.771 Y0.432 F400.000
G1 X1.711 Y0.662 F400.000
G1 X1.624 Y0.876 F400.000
G1 X1.500 Y1.071 F400.000
G1 X1.380 Y1.222 F400.000
G1 X1.226 Y1.376 F400.000
G1 X1.023 Y1.538 F400.000
G1 X0.805 Y1.669 F400.000
G1 X0.579 Y1.763 F400.000
G1 X0.376 Y1.820 F400.000
G1 X0.139 Y1.853 F400.000
G1 X-0.086 Y1.861 F400.000
G1 X-0.342 Y1.835 F400.000
G1 X-0.575 Y1.782 F400.000
G1 X-0.797 Y1.695 F400.000
G1 X-0.985 Y1.594 F400.000
G1 X-1.173 Y1.459 F400.000
G1 X-1.342 Y1.305 F400.000
G1 X-1.504 Y1.117 F400.000
G1 X-1.635 Y0.917 F400.000
G1 X-1.733 Y0.699 F400.000
G1 X-1.797 Y0.492 F400.000
G1 X-1.842 Y0.267 F400.000
G1 X-1.861 Y0.015 F400.000
G1 X-1.850 Y-0.233 F400.000
G1 X-1.812 Y-0.474 F400.000
G1 X-1.741 Y-0.711 F400.000
G1 X-1.647 Y-0.921 F400.000
G1 X-1.523 Y-1.128 F400.000
G1 X-1.372 Y-1.316 F400.000
G1 X-1.199 Y-1.485 F400.000
G1 X-1.008 Y-1.632 F400.000
G1 X-0.801 Y-1.752 F400.000
G1 X-0.583 Y-1.853 F400.000
G1 X-0.323 Y-1.932 F400.000
G1 X-0.079 Y-1.977 F400.000
G1 X0.169 Y-1.996 F400.000
G1 X0.421 Y-1.977 F400.000
G1 X0.639 Y-1.936 F400.000
G1 X0.872 Y-1.861 F400.000
G1 X1.086 Y-1.756 F400.000
G1 X1.282 Y-1.632 F400.000
G1 X1.466 Y-1.477 F400.000
G1 X1.632 Y-1.308 F400.000
G1 X1.789 Y-1.098 F400.000
G1 X1.917 Y-0.887 F400.000
G1 X2.030 Y-0.639 F400.000
G1 X2.098 Y-0.387 F400.000
G1 X2.135 Y-0.165 F400.000
G1 X2.150 Y0.079 F400.000
G1 X2.135 Y0.342 F400.000
G1 X2.090 Y0.609 F400.000
G1 X2.004 Y0.857 F400.000
G1 X1.914 Y1.053 F400.000
G1 X1.782 Y1.263 F400.000
G1 X1.635 Y1.455 F400.000
G1 X1.444 Y1.650 F400.000
G1 X1.244 Y1.808 F400.000
G1 X1.026 Y1.944 F400.000
G1 X0.789 Y2.056 F400.000
G1 X0.545 Y2.139 F400.000
G1 X0.293 Y2.192 F400.000
G1 X0.034 Y2.218 F400.000
G1 X-0.218 Y2.214 F400.000
G1 X-0.470 Y2.180 F400.000
G1 X-0.714 Y2.117 F400.000
G1 X-0.951 Y2.026 F400.000
G1 X-1.177 Y1.906 F400.000
G1 X-1.387 Y1.763 F400.000
G1 X-1.579 Y1.594 F400.000
G1 X-1.744 Y1.398 F400.000
G1 X-1.868 Y1.214 F400.000
G1 X-1.989 Y1.000 F400.000
G1 X-2.098 Y0.733 F400.000
G1 X-2.177 Y0.459 F400.000
G1 X-2.214 Y0.188 F400.000
G1 X-2.226 Y-0.041 F400.000
G1 X-2.211 Y-0.297 F400.000
G1 X-2.158 Y-0.575 F400.000
G1 X-2.083 Y-0.823 F400.000
G1 X-1.977 Y-1.068 F400.000
G1 X-1.842 Y-1.301 F400.000
G1 X-1.684 Y-1.515 F400.000
G1 X-1.504 Y-1.711 F400.000
G1 X-1.297 Y-1.880 F400.000
G1 X-1.105 Y-2.004 F400.000
G1 X-0.883 Y-2.120 F400.000
G1 X-0.620 Y-2.229 F400.000
G1 X-0.320 Y-2.316 F400.000
G1 X-0.038 Y-2.350 F400.000
G1 X0.180 Y-2.357 F400.000
G1 X0.444 Y-2.338 F400.000
G1 X0.722 Y-2.282 F400.000
G1 X0.966 Y-2.207 F400.000
G1 X1.211 Y-2.102 F400.000
G1 X1.440 Y-1.966 F400.000
G1 X1.650 Y-1.808 F400.000
G1 X1.846 Y-1.624 F400.000
G1 X2.019 Y-1.421 F400.000
G1 X2.169 Y-1.199 F400.000
G1 X2.293 Y-0.962 F400.000
G1 X2.391 Y-0.711 F400.000
G1 X2.459 Y-0.451 F400.000
G1 X2.504 Y-0.188 F400.000
G1 X2.519 Y0.105 F400.000
G1 X2.504 Y0.376 F400.000
G1 X2.459 Y0.650 F400.000
G1 X2.383 Y0.921 F400.000
G1 X2.274 Y1.177 F400.000
G1 X2.158 Y1.387 F400.000
G1 X2.004 Y1.602 F400.000
G1 X1.831 Y1.801 F400.000
G1 X1.613 Y1.996 F400.000
G1 X1.391 Y2.158 F400.000
G1 X1.154 Y2.297 F400.000
G1 X0.895 Y2.410 F400.000
G1 X0.635 Y2.500 F400.000
G1 X0.327 Y2.568 F400.000
G1 X0.038 Y2.590 F400.000
G1 X-0.207 Y2.590 F400.000
G1 X-0.485 Y2.556 F400.000
G1 X-0.748 Y2.492 F400.000
G1 X-1.000 Y2.406 F400.000
G1 X-1.252 Y2.297 F400.000
G1 X-1.530 Y2.132 F400.000
G1 X-1.748 Y1.947 F400.000
G1 X-1.902 Y1.793 F400.000
G1 X-2.071 Y1.586 F400.000
G1 X-2.226 Y1.353 F400.000
G1 X-2.368 Y1.075 F400.000
G1 X-2.474 Y0.808 F400.000
G1 X-2.553 Y0.530 F400.000
G1 X-2.594 Y0.233 F400.000
G1 X-2.605 Y-0.011 F400.000
G1 X-2.594 Y-0.282 F400.000
G1 X-2.549 Y-0.590 F400.000
G1 X-2.474 Y-0.891 F400.000
G1 X-2.361 Y-1.165 F400.000
G1 X-2.252 Y-1.376 F400.000
G1 X-2.098 Y-1.605 F400.000
G1 X-1.929 Y-1.812 F400.000
G1 X-1.703 Y-2.034 F400.000
G1 X-1.481 Y-2.214 F400.000
G1 X-1.237 Y-2.372 F400.000
G1 X-0.970 Y-2.508 F400.000
G1 X-0.699 Y-2.613 F400.000
G1 X-0.417 Y-2.692 F400.000
G1 X-0.128 Y-2.741 F400.000
G1 X0.162 Y-2.748 F400.000
G1 X0.402 Y-2.733 F400.000
G1 X0.673 Y-2.695 F400.000
G1 X0.992 Y-2.617 F400.000
G1 X1.282 Y-2.496 F400.000
G1 X1.496 Y-2.387 F400.000
G1 X1.737 Y-2.229 F400.000
G1 X1.955 Y-2.056 F400.000
G1 X2.180 Y-1.835 F400.000
G1 X2.368 Y-1.609 F400.000
G1 X2.523 Y-1.361 F400.000
G1 X2.639 Y-1.132 F400.000
G1 X2.744 Y-0.868 F400.000
G1 X2.838 Y-0.556 F400.000
G1 X2.898 Y-0.233 F400.000
G1 X2.914 Y0.071 F400.000
G1 X2.906 Y0.320 F400.000
G1 X2.865 Y0.609 F400.000
G1 X2.801 Y0.883 F400.000
G1 X2.695 Y1.188 F400.000
G1 X2.571 Y1.455 F400.000
G1 X2.410 Y1.707 F400.000
G1 X2.252 Y1.910 F400.000
G1 X2.060 Y2.117 F400.000
G1 X1.827 Y2.327 F400.000
G1 X1.564 Y2.519 F400.000
G1 X1.301 Y2.677 F400.000
G1 X1.008 Y2.801 F400.000
G1 X0.763 Y2.880 F400.000
G1 X0.477 Y2.940 F400.000
G1 X0.192 Y2.977 F400.000
G1 X-0.135 Y2.985 F400.000
G1 X-0.432 Y2.962 F400.000
G1 X-0.729 Y2.914 F400.000
G1 X-1.030 Y2.831 F400.000
G1 X-1.312 Y2.722 F400.000
G1 X-1.579 Y2.571 F400.000
G1 X-1.778 Y2.436 F400.000
G1 X-1.996 Y2.256 F400.000
G1 X-2.211 Y2.041 F400.000
G1 X-2.414 Y1.789 F400.000
G1 X-2.583 Y1.538 F400.000
G1 X-2.729 Y1.267 F400.000
G1 X-2.850 Y0.977 F400.000
G1 X-2.940 Y0.680 F400.000
G1 X-2.985 Y0.372 F400.000
G1 X-3.000 Y0.135 F400.000
G1 X-3.004 Y-0.139 F400.000
G1 X-2.974 Y-0.508 F400.000
G1 X-2.906 Y-0.872 F400.000
G1 X-2.793 Y-1.192 F400.000
G1 X-2.692 Y-1.406 F400.000
G1 X-2.568 Y-1.624 F400.000
G1 X-2.395 Y-1.876 F400.000
G1 X-2.173 Y-2.143 F400.000
G1 X-1.932 Y-2.383 F400.000
G1 X-1.669 Y-2.586 F400.000
G1 X-1.436 Y-2.729 F400.000
G1 X-1.199 Y-2.853 F400.000
G1 X-0.895 Y-2.981 F400.000
G1 X-0.553 Y-3.083 F400.000
G1 X-0.241 Y-3.128 F400.000
G1 X0.000 Y-3.147 F400.000
G1 X0.293 Y-3.147 F400.000
G1 X0.635 Y-3.113 F400.000
G1 X0.981 Y-3.045 F400.000
G1 X1.293 Y-2.936 F400.000
G1 X1.519 Y-2.838 F400.000
G1 X1.782 Y-2.688 F400.000
G1 X2.019 Y-2.526 F400.000
G1 X2.286 Y-2.312 F400.000
G1 X2.530 Y-2.068 F400.000
G1 X2.722 Y-1.805 F400.000
G1 X2.846 Y-1.605 F400.000
G1 X2.985 Y-1.346 F400.000
G1 X3.124 Y-1.019 F400.000
G1 X3.237 Y-0.662 F400.000
G1 X3.293 Y-0.331 F400.000
G1 X3.320 Y-0.075 F400.000
G1 X3.323 Y0.233 F400.000
G1 X3.293 Y0.560 F400.000
G1 X3.233 Y0.883 F400.000
G1 X3.135 Y1.192 F400.000
G1 X3.034 Y1.436 F400.000
G1 X2.891 Y1.703 F400.000
G1 X2.733 Y1.951 F400.000
G1 X2.519 Y2.233 F400.000
G1 X2.274 Y2.496 F400.000
G1 X2.015 Y2.711 F400.000
G1 X1.793 Y2.868 F400.000
G1 X1.519 Y3.026 F400.000
G1 X1.241 Y3.154 F400.000
G1 X0.932 Y3.263 F400.000
G1 X0.624 Y3.338 F400.000
G1 X0.308 Y3.383 F400.000
G1 X-0.008 Y3.398 F400.000
G1 X-0.320 Y3.395 F400.000
G1 X-0.684 Y3.353 F400.000
G1 X-1.008 Y3.271 F400.000
G1 X-1.256 Y3.188 F400.000
G1 X-1.541 Y3.056 F400.000
G1 X-1.805 Y2.914 F400.000
G1 X-2.105 Y2.707 F400.000
G1 X-2.353 Y2.500 F400.000
G1 X-2.575 Y2.259 F400.000
G1 X-2.744 Y2.045 F400.000
G1 X-2.914 Y1.793 F400.000
G1 X-3.079 Y1.492 F400.000
G1 X-3.226 Y1.158 F400.000
G1 X-3.320 Y0.835 F400.000
G1 X-3.376 Y0.571 F400.000
G1 X-3.410 Y0.256 F400.000
G1 X-3.421 Y-0.045 F400.000
G1 X-3.410 Y-0.414 F400.000
G1 X-3.350 Y-0.778 F400.000
G1 X-3.271 Y-1.060 F400.000
G1 X-3.184 Y-1.312 F400.000
G1 X-3.041 Y-1.632 F400.000
G1 X-2.857 Y-1.951 F400.000
G1 X-2.665 Y-2.211 F400.000
G1 X-2.477 Y-2.425 F400.000
G1 X-2.252 Y-2.650 F400.000
G1 X-1.970 Y-2.883 F400.000
G1 X-1.677 Y-3.086 F400.000
G1 X-1.368 Y-3.244 F400.000
G1 X-1.120 Y-3.350 F400.000
G1 X-0.812 Y-3.444 F400.000
G1 X-0.511 Y-3.511 F400.000
G1 X-0.150 Y-3.556 F400.000
G1 X0.173 Y-3.568 F400.000
G1 X0.500 Y-3.553 F400.000
G1 X0.835 Y-3.504 F400.000
G1 X1.154 Y-3.429 F400.000
G1 X1.470 Y-3.323 F400.000
G1 X1.774 Y-3.188 F400.000
G1 X2.068 Y-3.026 F400.000
G1 X2.335 Y-2.827 F400.000
G1 X2.526 Y-2.658 F400.000
G1 X2.741 Y-2.444 F400.000
G1 X2.981 Y-2.158 F400.000
G1 X3.195 Y-1.853 F400.000
G1 X3.361 Y-1.545 F400.000
G1 X3.477 Y-1.286 F400.000
G1 X3.583 Y-0.970 F400.000
G1 X3.665 Y-0.658 F400.000
G1 X3.726 Y-0.289 F400.000
G1 X3.752 Y0.053 F400.000
G1 X3.741 Y0.398 F400.000
G1 X3.707 Y0.688 F400.000
G1 X3.639 Y1.008 F400.000
G1 X3.541 Y1.316 F400.000
G1 X3.417 Y1.605 F400.000
G1 X3.274 Y1.895 F400.000
G1 X3.075 Y2.207 F400.000
G1 X2.872 Y2.477 F400.000
G1 X2.639 Y2.737 F400.000
G1 X2.368 Y2.974 F400.000
G1 X2.135 Y3.147 F400.000
G1 X1.853 Y3.320 F400.000
G1 X1.568 Y3.474 F400.000
G1 X1.222 Y3.617 F400.000
G1 X0.887 Y3.722 F400.000
G1 X0.538 Y3.786 F400.000
G1 X0.263 Y3.816 F400.000
G1 X-0.056 Y3.831 F400.000
G1 X-0.425 Y3.816 F400.000
G1 X-0.793 Y3.771 F400.000
G1 X-1.150 Y3.680 F400.000
G1 X-1.425 Y3.590 F400.000
G1 X-1.737 Y3.455 F400.000
G1 X-2.026 Y3.293 F400.000
G1 X-2.289 Y3.117 F400.000
G1 X-2.545 Y2.906 F400.000
G1 X-2.778 Y2.677 F400.000
G1 X-2.989 Y2.429 F400.000
G1 X-3.184 Y2.165 F400.000
G1 X-3.376 Y1.846 F400.000
G1 X-3.526 Y1.538 F400.000
G1 X-3.654 Y1.211 F400.000
G1 X-3.756 Y0.868 F400.000
G1 X-3.827 Y0.526 F400.000
G1 X-3.857 Y0.173 F400.000
G1 X-3.861 Y-0.109 F400.000
G1 X-3.842 Y-0.432 F400.000
G1 X-3.786 Y-0.797 F400.000
G1 X-3.699 Y-1.158 F400.000
G1 X-3.590 Y-1.496 F400.000
G1 X-3.432 Y-1.827 F400.000
G1 X-3.293 Y-2.071 F400.000
G1 X-3.109 Y-2.346 F400.000
G1 X-2.883 Y-2.628 F400.000
G1 X-2.628 Y-2.898 F400.000
G1 X-2.361 Y-3.135 F400.000
G1 X-2.064 Y-3.346 F400.000
G1 X-1.801 Y-3.504 F400.000
G1 X-1.492 Y-3.654 F400.000
G1 X-1.180 Y-3.778 F400.000
G1 X-0.823 Y-3.883 F400.000
G1 X-0.481 Y-3.955 F400.000
G1 X-0.128 Y-4.000 F400.000
G1 X0.229 Y-4.015 F400.000
G1 X0.579 Y-4.000 F400.000
G1 X0.929 Y-3.940 F400.000
G1 X1.203 Y-3.872 F400.000
G1 X1.515 Y-3.774 F400.000
G1 X1.857 Y-3.632 F400.000
G1 X2.188 Y-3.459 F400.000
G1 X2.489 Y-3.252 F400.000
G1 X2.714 Y-3.071 F400.000
G1 X2.962 Y-2.835 F400.000
G1 X3.188 Y-2.590 F400.000
G1 X3.414 Y-2.293 F400.000
G1 X3.605 Y-1.992 F400.000
G1 X3.778 Y-1.673 F400.000
G1 X3.929 Y-1.331 F400.000
G1 X4.041 Y-0.981 F400.000
G1 X4.120 Y-0.658 F400.000
G1 X4.173 Y-0.305 F400.000
G1 X4.195 Y0.041 F400.000
G1 X4.188 Y0.383 F400.000
G1 X4.150 Y0.729 F400.000
G1 X4.083 Y1.071 F400.000
G1 X3.989 Y1.406 F400.000
G1 X3.865 Y1.733 F400.000
G1 X3.714 Y2.045 F400.000
G1 X3.538 Y2.346 F400.000
G1 X3.335 Y2.628 F400.000
G1 X3.105 Y2.895 F400.000
G1 X2.857 Y3.139 F400.000
G1 X2.586 Y3.361 F400.000
G1 X2.305 Y3.568 F400.000
G1 X1.985 Y3.756 F400.000
G1 X1.658 Y3.917 F400.000
G1 X1.316 Y4.053 F400.000
G1 X0.959 Y4.162 F400.000
G1 X0.594 Y4.229 F400.000
G1 X0.289 Y4.263 F400.000
G1 X-0.053 Y4.278 F400.000
G1 X-0.421 Y4.267 F400.000
G1 X-0.789 Y4.226 F400.000
G1 X-1.150 Y4.147 F400.000
G1 X-1.470 Y4.053 F400.000
G1 X-1.816 Y3.917 F400.000
G1 X-2.139 Y3.759 F400.000
G1 X-2.436 Y3.568 F400.000
G1 X-2.665 Y3.391 F400.000
G1 X-2.910 Y3.165 F400.000
G1 X-3.135 Y2.932 F400.000
G1 X-3.376 Y2.647 F400.000
G1 X-3.590 Y2.342 F400.000
G1 X-3.786 Y2.026 F400.000
G1 X-3.944 Y1.688 F400.000
G1 X-4.060 Y1.391 F400.000
G1 X-4.165 Y1.038 F400.000
G1 X-4.237 Y0.677 F400.000
G1 X-4.278 Y0.327 F400.000
G1 X-4.301 Y-0.030 F400.000
G1 X-4.286 Y-0.398 F400.000
G1 X-4.244 Y-0.767 F400.000
G1 X-4.177 Y-1.132 F400.000
G1 X-4.064 Y-1.485 F400.000
G1 X-3.955 Y-1.763 F400.000
G1 X-3.797 Y-2.079 F400.000
G1 X-3.628 Y-2.376 F400.000
G1 X-3.414 Y-2.680 F400.000
G1 X-3.177 Y-2.962 F400.000
G1 X-2.917 Y-3.229 F400.000
G1 X-2.639 Y-3.474 F400.000
G1 X-2.342 Y-3.695 F400.000
G1 X-2.026 Y-3.895 F400.000
G1 X-1.695 Y-4.068 F400.000
G1 X-1.346 Y-4.199 F400.000
G1 X-1.056 Y-4.289 F400.000
G1 X-0.714 Y-4.372 F400.000
G1 X-0.346 Y-4.429 F400.000
G1 X0.023 Y-4.459 F400.000
G1 X0.391 Y-4.462 F400.000
G1 X0.759 Y-4.436 F400.000
G1 X1.124 Y-4.368 F400.000
G1 X1.421 Y-4.282 F400.000
G1 X1.699 Y-4.184 F400.000
G1 X2.041 Y-4.041 F400.000
G1 X2.368 Y-3.865 F400.000
G1 X2.684 Y-3.669 F400.000
G1 X2.974 Y-3.436 F400.000
G1 X3.211 Y-3.218 F400.000
G1 X3.462 Y-2.959 F400.000
G1 X3.699 Y-2.669 F400.000
G1 X3.910 Y-2.365 F400.000
G1 X4.102 Y-2.045 F400.000
G1 X4.267 Y-1.711 F400.000
G1 X4.406 Y-1.365 F400.000
G1 X4.508 Y-1.004 F400.000
G1 X4.575 Y-0.688 F400.000
G1 X4.620 Y-0.320 F400.000
G1 X4.643 Y0.038 F400.000
G1 X4.635 Y0.406 F400.000
G1 X4.598 Y0.774 F400.000
G1 X4.534 Y1.139 F400.000
G1 X4.440 Y1.496 F400.000
G1 X4.320 Y1.846 F400.000
G1 X4.158 Y2.180 F400.000
G1 X4.011 Y2.436 F400.000
G1 X3.820 Y2.729 F400.000
G1 X3.590 Y3.023 F400.000
G1 X3.338 Y3.297 F400.000
G1 X3.071 Y3.556 F400.000
G1 X2.786 Y3.793 F400.000
G1 X2.481 Y4.008 F400.000
G1 X2.162 Y4.199 F400.000
G1 X1.820 Y4.353 F400.000
G1 X1.530 Y4.462 F400.000
G1 X1.180 Y4.571 F400.000
G1 X0.816 Y4.654 F400.000
G1 X0.447 Y4.711 F400.000
G1 X0.075 Y4.744 F400.000
G1 X-0.293 Y4.737 F400.000
G1 X-0.632 Y4.711 F400.000
G1 X-0.996 Y4.650 F400.000
G1 X-1.357 Y4.568 F400.000
G1 X-1.711 Y4.455 F400.000
G1 X-2.056 Y4.316 F400.000
G1 X-2.383 Y4.139 F400.000
G1 X-2.654 Y3.970 F400.000
G1 X-2.951 Y3.748 F400.000
G1 X-3.218 Y3.508 F400.000
G1 X-3.459 Y3.256 F400.000
G1 X-3.695 Y2.981 F400.000
G1 X-3.917 Y2.680 F400.000
G1 X-4.113 Y2.365 F400.000
G1 X-4.289 Y2.038 F400.000
G1 X-4.429 Y1.692 F400.000
G1 X-4.538 Y1.368 F400.000
G1 X-4.628 Y1.008 F400.000
G1 X-4.699 Y0.639 F400.000
G1 X-4.741 Y0.267 F400.000
G1 X-4.756 Y-0.102 F400.000
G1 X-4.744 Y-0.470 F400.000
G1 X-4.707 Y-0.838 F400.000
G1 X-4.624 Y-1.199 F400.000
G1 X-4.541 Y-1.496 F400.000
G1 X-4.410 Y-1.842 F400.000
G1 X-4.263 Y-2.169 F400.000
G1 X-4.083 Y-2.492 F400.000
G1 X-3.883 Y-2.808 F400.000
G1 X-3.662 Y-3.105 F400.000
G1 X-3.417 Y-3.387 F400.000
G1 X-3.147 Y-3.643 F400.000
G1 X-2.895 Y-3.853 F400.000
G1 X-2.594 Y-4.075 F400.000
G1 X-2.274 Y-4.267 F400.000
G1 X-1.944 Y-4.436 F400.000
G1 X-1.602 Y-4.583 F400.000
G1 X-1.248 Y-4.699 F400.000
G1 X-0.887 Y-4.793 F400.000
G1 X-0.519 Y-4.861 F400.000
G1 X-0.147 Y-4.898 F400.000
G1 X0.222 Y-4.917 F400.000
G1 X0.590 Y-4.906 F400.000
G1 X0.959 Y-4.853 F400.000
G1 X1.278 Y-4.793 F400.000
G1 X1.635 Y-4.692 F400.000
G1 X1.981 Y-4.560 F400.000
G1 X2.312 Y-4.406 F400.000
G1 X2.639 Y-4.229 F400.000
G1 X2.947 Y-4.023 F400.000
G1 X3.244 Y-3.797 F400.000
G1 X3.523 Y-3.549 F400.000
G1 X3.782 Y-3.282 F400.000
G1 X4.023 Y-2.996 F400.000
G1 X4.241 Y-2.692 F400.000
G1 X4.436 Y-2.372 F400.000
G1 X4.613 Y-2.045 F400.000
G1 X4.763 Y-1.703 F400.000
G1 X4.891 Y-1.353 F400.000
G1 X4.977 Y-0.989 F400.000
G1 X5.034 Y-0.673 F400.000
G1 X5.079 Y-0.301 F400.000
G1 X5.098 Y0.068 F400.000
G1 X5.090 Y0.436 F400.000
G1 X5.064 Y0.805 F400.000
G1 X5.004 Y1.169 F400.000
G1 X4.921 Y1.530 F400.000
G1 X4.801 Y1.880 F400.000
G1 X4.673 Y2.192 F400.000
G1 X4.504 Y2.523 F400.000
G1 X4.305 Y2.838 F400.000
G1 X4.086 Y3.135 F400.000
G1 X3.850 Y3.425 F400.000
G1 X3.594 Y3.695 F400.000
G1 X3.320 Y3.947 F400.000
G1 X3.030 Y4.180 F400.000
G1 X2.726 Y4.395 F400.000
G1 X2.406 Y4.586 F400.000
G1 X2.068 Y4.744 F400.000
G1 X1.756 Y4.868 F400.000
G1 X1.402 Y4.989 F400.000
G1 X1.041 Y5.083 F400.000
G1 X0.673 Y5.150 F400.000
G1 X0.301 Y5.184 F400.000
G1 X-0.064 Y5.199 F400.000
G1 X-0.432 Y5.184 F400.000
G1 X-0.801 Y5.150 F400.000
G1 X-1.165 Y5.086 F400.000
G1 X-1.526 Y5.000 F400.000
G1 X-1.880 Y4.891 F400.000
G1 X-2.222 Y4.744 F400.000
G1 X-2.526 Y4.594 F400.000
G1 X-2.846 Y4.402 F400.000
G1 X-3.147 Y4.184 F400.000
G1 X-3.432 Y3.947 F400.000
G1 X-3.699 Y3.688 F400.000
G1 X-3.951 Y3.414 F400.000
G1 X-4.180 Y3.120 F400.000
G1 X-4.387 Y2.808 F400.000
G1 X-4.571 Y2.485 F400.000
G1 X-4.733 Y2.147 F400.000
G1 X-4.876 Y1.801 F400.000
G1 X-4.992 Y1.447 F400.000
G1 X-5.086 Y1.086 F400.000
G1 X-5.158 Y0.718 F400.000
G1 X-5.203 Y0.346 F400.000
G1 X-5.222 Y-0.023 F400.000
G1 X-5.218 Y-0.391 F400.000
G1 X-5.188 Y-0.759 F400.000
G1 X-5.117 Y-1.124 F400.000
G1 X-5.038 Y-1.436 F400.000
G1 X-4.929 Y-1.789 F400.000
G1 X-4.789 Y-2.135 F400.000
G1 X-4.628 Y-2.470 F400.000
G1 X-4.447 Y-2.793 F400.000
G1 X-4.244 Y-3.105 F400.000
G1 X-4.019 Y-3.402 F400.000
G1 X-3.774 Y-3.684 F400.000
G1 X-3.511 Y-3.947 F400.000
G1 X-3.233 Y-4.195 F400.000
G1 X-2.929 Y-4.410 F400.000
G1 X-2.650 Y-4.583 F400.000
G1 X-2.323 Y-4.763 F400.000
G1 X-1.985 Y-4.921 F400.000
G1 X-1.635 Y-5.056 F400.000
G1 X-1.282 Y-5.173 F400.000
G1 X-0.921 Y-5.267 F400.000
G1 X-0.553 Y-5.335 F400.000
G1 X-0.180 Y-5.380 F400.000
G1 X0.188 Y-5.387 F400.000
G1 X0.545 Y-5.376 F400.000
G1 X0.914 Y-5.338 F400.000
G1 X1.278 Y-5.271 F400.000
G1 X1.639 Y-5.177 F400.000
G1 X1.989 Y-5.056 F400.000
G1 X2.331 Y-4.910 F400.000
G1 X2.662 Y-4.741 F400.000
G1 X2.985 Y-4.556 F400.000
G1 X3.289 Y-4.346 F400.000
G1 X3.583 Y-4.117 F400.000
G1 X3.861 Y-3.868 F400.000
G1 X4.120 Y-3.602 F400.000
G1 X4.361 Y-3.320 F400.000
G1 X4.583 Y-3.023 F400.000
G1 X4.786 Y-2.711 F400.000
G1 X4.966 Y-2.383 F400.000
G1 X5.128 Y-2.045 F400.000
G1 X5.267 Y-1.699 F400.000
G1 X5.380 Y-1.342 F400.000
G1 X5.470 Y-0.981 F400.000
G1 X5.523 Y-0.613 F400.000
G1 X5.553 Y-0.259 F400.000
G1 X5.571 Y0.109 F400.000
G1 X5.564 Y0.477 F400.000
G1 X5.534 Y0.846 F400.000
G1 X5.470 Y1.211 F400.000
G1 X5.391 Y1.571 F400.000
G1 X5.286 Y1.929 F400.000
G1 X5.154 Y2.274 F400.000
G1 X4.985 Y2.605 F400.000
G1 X4.812 Y2.902 F400.000
G1 X4.609 Y3.214 F400.000
G1 X4.387 Y3.511 F400.000
G1 X4.143 Y3.793 F400.000
G1 X3.883 Y4.060 F400.000
G1 X3.609 Y4.312 F400.000
G1 X3.320 Y4.545 F400.000
G1 X3.015 Y4.759 F400.000
G1 X2.695 Y4.955 F400.000
G1 X2.365 Y5.128 F400.000
G1 X2.023 Y5.282 F400.000
G1 X1.669 Y5.398 F400.000
G1 X1.316 Y5.496 F400.000
G1 X0.951 Y5.579 F400.000
G1 X0.579 Y5.628 F400.000
G1 X0.207 Y5.654 F400.000
G1 X-0.162 Y5.665 F400.000
G1 X-0.530 Y5.647 F400.000
G1 X-0.898 Y5.609 F400.000
G1 X-1.263 Y5.549 F400.000
G1 X-1.624 Y5.466 F400.000
G1 X-1.977 Y5.350 F400.000
G1 X-2.323 Y5.214 F400.000
G1 X-2.658 Y5.053 F400.000
G1 X-2.981 Y4.868 F400.000
G1 X-3.289 Y4.662 F400.000
G1 X-3.583 Y4.432 F400.000
G1 X-3.861 Y4.184 F400.000
G1 X-4.120 Y3.917 F400.000
G1 X-4.365 Y3.639 F400.000
G1 X-4.586 Y3.342 F400.000
G1 X-4.789 Y3.030 F400.000
G1 X-4.974 Y2.707 F400.000
G1 X-5.143 Y2.376 F400.000
G1 X-5.289 Y2.034 F400.000
G1 X-5.417 Y1.684 F400.000
G1 X-5.526 Y1.327 F400.000
G1 X-5.609 Y0.962 F400.000
G1 X-5.658 Y0.590 F400.000
G1 X-5.688 Y0.218 F400.000
G1 X-5.692 Y-0.150 F400.000
G1 X-5.677 Y-0.519 F400.000
G1 X-5.635 Y-0.887 F400.000
G1 X-5.571 Y-1.252 F400.000
G1 X-5.485 Y-1.613 F400.000
G1 X-5.376 Y-1.966 F400.000
G1 X-5.244 Y-2.312 F400.000
G1 X-5.090 Y-2.650 F400.000
G1 X-4.906 Y-2.974 F400.000
G1 X-4.703 Y-3.286 F400.000
G1 X-4.477 Y-3.583 F400.000
G1 X-4.241 Y-3.868 F400.000
G1 X-3.989 Y-4.143 F400.000
G1 X-3.718 Y-4.398 F400.000
G1 X-3.429 Y-4.632 F400.000
G1 X-3.128 Y-4.850 F400.000
G1 X-2.812 Y-5.049 F400.000
G1 X-2.481 Y-5.226 F400.000
G1 X-2.143 Y-5.380 F400.000
G1 X-1.793 Y-5.511 F400.000
G1 X-1.440 Y-5.628 F400.000
G1 X-1.079 Y-5.718 F400.000
G1 X-0.711 Y-5.789 F400.000
G1 X-0.338 Y-5.838 F400.000
G1 X0.030 Y-5.865 F400.000
G1 X0.398 Y-5.868 F400.000
G1 X0.767 Y-5.835 F400.000
G1 X1.135 Y-5.782 F400.000
G1 X1.496 Y-5.703 F400.000
G1 X1.853 Y-5.598 F400.000
G1 X2.203 Y-5.470 F400.000
G1 X2.545 Y-5.327 F400.000
G1 X2.876 Y-5.158 F400.000
G1 X3.195 Y-4.970 F400.000
G1 X3.504 Y-4.763 F400.000
G1 X3.805 Y-4.541 F400.000
G1 X4.090 Y-4.301 F400.000
G1 X4.361 Y-4.045 F400.000
G1 X4.609 Y-3.767 F400.000
G1 X4.842 Y-3.477 F400.000
G1 X5.056 Y-3.173 F400.000
G1 X5.248 Y-2.853 F400.000
G1 X5.421 Y-2.523 F400.000
G1 X5.579 Y-2.184 F400.000
G1 X5.733 Y-1.778 F400.000
G1 X5.842 Y-1.421 F400.000
G1 X5.932 Y-1.060 F400.000
G1 X5.992 Y-0.692 F400.000
G1 X6.034 Y-0.320 F400.000
G1 X6.056 Y0.049 F400.000
G1 X6.049 Y0.417 F400.000
G1 X6.023 Y0.786 F400.000
G1 X5.974 Y1.154 F400.000
G1 X5.898 Y1.519 F400.000
G1 X5.801 Y1.876 F400.000
G1 X5.417 Y2.737 F400.000
G1 X4.944 Y3.489 F400.000
G1 X4.395 Y4.132 F400.000
G1 X3.827 Y4.662 F400.000
G1 X3.083 Y5.192 F400.000
G1 X2.376 Y5.560 F400.000
G1 X1.620 Y5.827 F400.000
G1 X0.477 Y6.045 F400.000
G1 X-0.451 Y6.090 F400.000
G1 X-1.579 Y5.932 F400.000
G1 X-2.583 Y5.575 F400.000
G1 X-3.444 Y5.068 F400.000
G1 X-4.256 Y4.368 F400.000
G1 X-5.109 Y3.278 F400.000
G1 X-5.564 Y2.414 F400.000
G1 X-5.842 Y1.665 F400.000
G1 X-5.974 Y1.252 F400.000
G1 X-6.060 Y0.887 F400.000
G1 X-6.120 Y0.519 F400.000
G1 X-6.154 Y0.147 F400.000
G1 X-6.169 Y-0.222 F400.000
G1 X-6.154 Y-0.590 F400.000
G1 X-6.113 Y-0.959 F400.000
G1 X-6.053 Y-1.323 F400.000
G1 X-5.947 Y-1.741 F400.000
G1 X-5.500 Y-2.778 F400.000
G1 X-4.966 Y-3.632 F400.000
G1 X-4.256 Y-4.444 F400.000
G1 X-3.414 Y-5.132 F400.000
G1 X-2.733 Y-5.541 F400.000
G1 X-1.718 Y-5.974 F400.000
G1 X-0.707 Y-6.229 F400.000
G1 X0.462 Y-6.301 F400.000
G1 X1.421 Y-6.169 F400.000
G1 X2.436 Y-5.850 F400.000
G1 X3.425 Y-5.335 F400.000
G1 X4.414 Y-4.568 F400.000
G1 X5.169 Y-3.714 F400.000
G1 X5.741 Y-2.793 F400.000
G1 X6.083 Y-2.004 F400.000
G1 X6.410 Y-0.805 F400.000
G1 X6.474 Y-0.436 F400.000
G1 X6.508 Y-0.064 F400.000
G1 X6.519 Y0.305 F400.000
G1 X6.511 Y0.673 F400.000
G1 X6.477 Y1.041 F400.000
G1 X6.421 Y1.406 F400.000
G1 X6.286 Y1.801 F400.000
G1 X5.568 Y3.286 F400.000
G1 X4.853 Y4.226 F400.000
G1 X4.068 Y4.970 F400.000
G1 X3.372 Y5.474 F400.000
G1 X2.508 Y5.921 F400.000
G1 X1.996 Y6.120 F400.000
G1 X0.797 Y6.414 F400.000
G1 X-0.098 Y6.466 F400.000
G1 X-0.662 Y6.436 F400.000
G1 X-1.789 Y6.214 F400.000
G1 X-2.466 Y5.981 F400.000
G1 X-3.410 Y5.500 F400.000
G1 X-4.177 Y4.936 F400.000
G1 X-4.944 Y4.158 F400.000
G1 X-5.410 Y3.519 F400.000
G1 X-5.876 Y2.669 F400.000
G1 X-6.383 Y1.361 F400.000
G1 X-6.545 Y0.695 F400.000
G1 X-6.602 Y0.327 F400.000
G1 X-6.632 Y-0.041 F400.000
G1 X-6.628 Y-0.410 F400.000
G1 X-6.605 Y-0.778 F400.000
G1 X-6.549 Y-1.203 F400.000
G1 X-6.417 Y-1.654 F400.000
G1 X-6.335 Y-1.812 F400.000
G1 X-6.162 Y-2.056 F400.000
G1 X-5.857 Y-2.763 F400.000
G1 X-5.485 Y-3.440 F400.000
G1 X-4.914 Y-4.211 F400.000
G1 X-4.282 Y-4.850 F400.000
G1 X-3.613 Y-5.368 F400.000
G1 X-3.147 Y-5.654 F400.000
G1 X-2.147 Y-6.102 F400.000
G1 X-1.496 Y-6.289 F400.000
G1 X-0.654 Y-6.436 F400.000
G1 X0.060 Y-6.462 F400.000
G1 X0.906 Y-6.406 F400.000
G1 X1.808 Y-6.211 F400.000
G1 X2.429 Y-5.996 F400.000
G1 X3.229 Y-5.605 F400.000
G1 X3.827 Y-5.218 F400.000
G1 X4.711 Y-4.432 F400.000
G1 X5.361 Y-3.628 F400.000
G1 X5.865 Y-2.733 F400.000
G1 X6.158 Y-2.060 F400.000
G1 X6.508 Y-1.568 F400.000
G1 X6.650 Y-1.233 F400.000
G1 X6.838 Y-0.575 F400.000
G1 X6.914 Y-0.211 F400.000
G1 X6.955 Y0.158 F400.000
G1 X6.970 Y0.526 F400.000
G1 X6.936 Y0.951 F400.000
G1 X6.831 Y1.402 F400.000
G1 X6.797 Y1.451 F400.000
G1 X6.748 Y1.485 F400.000
G1 X6.748 Y1.481 F400.000
G1 X6.594 Y1.526 F400.000
G1 X6.564 Y1.526 F400.000
G1 X6.530 Y1.530 F400.000
G0 X6.500 Y1.538
G0 X5.929 Y1.835
G0 X5.297 Y3.049
G0 X5.218 Y3.519
G1 X5.214 Y3.549 F400.000
G1 X5.199 Y3.673 F400.000
G1 X5.165 Y3.857 F400.000
G1 X5.124 Y3.944 F400.000
G1 X5.124 Y3.944 F400.000
G1 X4.481 Y4.665 F400.000
G1 X4.026 Y5.060 F400.000
G1 X3.485 Y5.451 F400.000
G1 X3.173 Y5.639 F400.000
G1 X2.519 Y5.955 F400.000
G1 X2.068 Y6.128 F400.000
G1 X1.951 Y6.162 F400.000
G1 X1.951 Y6.162 F400.000
G1 X1.823 Y6.169 F400.000
G1 X1.729 Y6.147 F400.000
G0 X1.699 Y6.135
G0 X-5.774 Y2.259
G1 X-5.823 Y2.237 F400.000
G1 X-5.951 Y2.177 F400.000
G1 X-6.090 Y2.105 F400.000
G1 X-6.184 Y2.019 F400.000
G1 X-6.184 Y2.019 F400.000
G1 X-6.289 Y1.872 F400.000
G1 X-6.605 Y1.511 F400.000
G1 X-6.737 Y1.233 F400.000
G1 X-6.962 Y0.530 F400.000
G1 X-7.030 Y0.162 F400.000
G1 X-7.064 Y-0.207 F400.000
G1 X-7.068 Y-0.556 F400.000
G1 X-7.030 Y-0.996 F400.000
G1 X-6.944 Y-1.335 F400.000
G1 X-6.914 Y-1.387 F400.000
G1 X-6.872 Y-1.429 F400.000
G1 X-6.759 Y-1.477 F400.000
G1 X-6.462 Y-1.692 F400.000
G1 X-6.376 Y-1.778 F400.000
G1 X-6.376 Y-1.778 F400.000
G1 X-6.271 Y-1.850 F400.000
G1 X-6.214 Y-1.868 F400.000
G1 X-6.192 Y-1.868 F400.000
G0 X-6.173 Y-1.861
G0 X-6.158 Y-1.767
G0 X-6.335 Y1.455
G1 X-6.338 Y1.496 F400.000
G1 X-6.346 Y1.590 F400.000
G1 X-6.372 Y1.632 F400.000
G1 X-6.417 Y1.643 F400.000
G1 X-6.534 Y1.617 F400.000
G1 X-6.590 Y1.586 F400.000
G1 X-6.590 Y1.586 F400.000
G1 X-6.876 Y1.372 F400.000
G1 X-7.023 Y1.180 F400.000
G1 X-7.203 Y0.793 F400.000
G1 X-7.338 Y0.447 F400.000
G1 X-7.425 Y0.083 F400.000
G1 X-7.474 Y-0.274 F400.000
G1 X-7.481 Y-0.549 F400.000
G1 X-7.462 Y-0.820 F400.000
G1 X-7.387 Y-1.102 F400.000
G1 X-7.312 Y-1.263 F400.000
G1 X-7.267 Y-1.305 F400.000
G1 X-7.026 Y-1.361 F400.000
G1 X-6.970 Y-1.387 F400.000
G1 X-6.970 Y-1.387 F400.000
G1 X-6.812 Y-1.410 F400.000
G1 X-6.759 Y-1.395 F400.000
G0 X-6.741 Y-1.376
G0 X-6.714 Y-1.274
G0 X-6.650 Y1.211
G1 X-6.650 Y1.248 F400.000
G1 X-6.650 Y1.342 F400.000
G1 X-6.673 Y1.387 F400.000
G1 X-6.718 Y1.414 F400.000
G1 X-6.808 Y1.421 F400.000
G1 X-6.902 Y1.406 F400.000
G1 X-6.902 Y1.406 F400.000
G1 X-7.117 Y1.301 F400.000
G1 X-7.211 Y1.226 F400.000
G1 X-7.429 Y0.932 F400.000
G1 X-7.519 Y0.774 F400.000
G1 X-7.684 Y0.440 F400.000
G1 X-7.797 Y0.083 F400.000
G1 X-7.846 Y-0.195 F400.000
G1 X-7.861 Y-0.421 F400.000
G1 X-7.853 Y-0.654 F400.000
G1 X-7.805 Y-0.925 F400.000
G1 X-7.741 Y-1.090 F400.000
G1 X-7.647 Y-1.241 F400.000
G1 X-7.605 Y-1.282 F400.000
G1 X-7.545 Y-1.293 F400.000
G1 X-7.305 Y-1.305 F400.000
G1 X-7.305 Y-1.305 F400.000
G1 X-7.177 Y-1.286 F400.000
G1 X-7.094 Y-1.241 F400.000
G0 X-7.079 Y-1.218
G0 X-7.053 Y-1.105
G0 X-6.887 Y1.105
G1 X-6.887 Y1.139 F400.000
G1 X-6.891 Y1.259 F400.000
G1 X-6.921 Y1.301 F400.000
G1 X-7.004 Y1.335 F400.000
G1 X-7.132 Y1.338 F400.000
G1 X-7.132 Y1.338 F400.000
G1 X-7.301 Y1.293 F400.000
G1 X-7.462 Y1.218 F400.000
G1 X-7.744 Y0.902 F400.000
G1 X-8.004 Y0.481 F400.000
G1 X-8.139 Y0.132 F400.000
G1 X-8.195 Y-0.132 F400.000
G1 X-8.214 Y-0.331 F400.000
G1 X-8.214 Y-0.545 F400.000
G1 X-8.180 Y-0.805 F400.000
G1 X-8.105 Y-1.053 F400.000
G1 X-8.008 Y-1.203 F400.000
G1 X-7.921 Y-1.289 F400.000
G1 X-7.872 Y-1.323 F400.000
G1 X-7.812 Y-1.331 F400.000
G1 X-7.632 Y-1.301 F400.000
G1 X-7.632 Y-1.301 F400.000
G1 X-7.481 Y-1.237 F400.000
G1 X-7.432 Y-1.195 F400.000
G0 X-7.417 Y-1.173
G0 X-7.380 Y-1.008
G0 X-7.147 Y1.026
G1 X-7.143 Y1.060 F400.000
G1 X-7.139 Y1.180 F400.000
G1 X-7.165 Y1.229 F400.000
G1 X-7.241 Y1.274 F400.000
G1 X-7.368 Y1.297 F400.000
G1 X-7.368 Y1.297 F400.000
G1 X-7.594 Y1.267 F400.000
G1 X-7.703 Y1.222 F400.000
G1 X-7.932 Y1.030 F400.000
G1 X-8.090 Y0.846 F400.000
G1 X-8.308 Y0.545 F400.000
G1 X-8.462 Y0.203 F400.000
G1 X-8.523 Y-0.019 F400.000
G1 X-8.549 Y-0.203 F400.000
G1 X-8.560 Y-0.406 F400.000
G1 X-8.545 Y-0.684 F400.000
G1 X-8.477 Y-0.947 F400.000
G1 X-8.361 Y-1.180 F400.000
G1 X-8.282 Y-1.274 F400.000
G1 X-8.192 Y-1.353 F400.000
G1 X-8.139 Y-1.387 F400.000
G1 X-8.079 Y-1.402 F400.000
G1 X-7.838 Y-1.338 F400.000
G1 X-7.838 Y-1.338 F400.000
G1 X-7.722 Y-1.278 F400.000
G1 X-7.654 Y-1.211 F400.000
G0 X-7.639 Y-1.180
G0 X-7.609 Y-1.015
G0 X-7.395 Y0.996
G1 X-7.391 Y1.030 F400.000
G1 X-7.387 Y1.154 F400.000
G1 X-7.410 Y1.203 F400.000
G1 X-7.485 Y1.259 F400.000
G1 X-7.609 Y1.297 F400.000
G1 X-7.609 Y1.297 F400.000
G1 X-7.778 Y1.297 F400.000
G1 X-7.891 Y1.278 F400.000
G1 X-8.094 Y1.162 F400.000
G1 X-8.274 Y1.008 F400.000
G1 X-8.564 Y0.684 F400.000
G1 X-8.744 Y0.357 F400.000
G1 X-8.816 Y0.158 F400.000
G1 X-8.857 Y-0.011 F400.000
G1 X-8.887 Y-0.211 F400.000
G1 X-8.898 Y-0.489 F400.000
G1 X-8.872 Y-0.778 F400.000
G1 X-8.797 Y-1.019 F400.000
G1 X-8.677 Y-1.226 F400.000
G1 X-8.556 Y-1.361 F400.000
G1 X-8.462 Y-1.432 F400.000
G1 X-8.406 Y-1.455 F400.000
G1 X-8.346 Y-1.459 F400.000
G1 X-8.105 Y-1.414 F400.000
G1 X-8.105 Y-1.414 F400.000
G1 X-7.989 Y-1.353 F400.000
G1 X-7.921 Y-1.286 F400.000
G0 X-7.906 Y-1.256
G0 X-7.872 Y-1.090
G0 X-7.598 Y0.989
G1 X-7.594 Y1.023 F400.000
G1 X-7.586 Y1.147 F400.000
G1 X-7.605 Y1.203 F400.000
G1 X-7.669 Y1.267 F400.000
G1 X-7.786 Y1.323 F400.000
G1 X-7.786 Y1.323 F400.000
G1 X-7.955 Y1.353 F400.000
G1 X-8.068 Y1.353 F400.000
G1 X-8.124 Y1.342 F400.000
G1 X-8.387 Y1.211 F400.000
G1 X-8.662 Y0.977 F400.000
G1 X-8.940 Y0.647 F400.000
G1 X-9.105 Y0.312 F400.000
G1 X-9.165 Y0.120 F400.000
G1 X-9.203 Y-0.045 F400.000
G1 X-9.233 Y-0.274 F400.000
G1 X-9.237 Y-0.575 F400.000
G1 X-9.188 Y-0.850 F400.000
G1 X-9.079 Y-1.124 F400.000
G1 X-8.910 Y-1.368 F400.000
G1 X-8.808 Y-1.436 F400.000
G1 X-8.568 Y-1.470 F400.000
G1 X-8.447 Y-1.466 F400.000
G1 X-8.447 Y-1.466 F400.000
G1 X-8.320 Y-1.429 F400.000
G1 X-8.244 Y-1.372 F400.000
G0 X-8.229 Y-1.350
G0 X-8.188 Y-1.180
G0 X-7.846 Y1.030
G1 X-7.842 Y1.064 F400.000
G1 X-7.831 Y1.188 F400.000
G1 X-7.865 Y1.271 F400.000
G1 X-7.959 Y1.357 F400.000
G1 X-8.019 Y1.387 F400.000
G1 X-8.019 Y1.387 F400.000
G1 X-8.132 Y1.421 F400.000
G1 X-8.244 Y1.432 F400.000
G1 X-8.414 Y1.410 F400.000
G1 X-8.677 Y1.278 F400.000
G1 X-8.914 Y1.094 F400.000
G1 X-9.113 Y0.868 F400.000
G1 X-9.305 Y0.560 F400.000
G1 X-9.466 Y0.226 F400.000
G1 X-9.541 Y-0.180 F400.000
G1 X-9.553 Y-0.350 F400.000
G1 X-9.526 Y-0.744 F400.000
G1 X-9.470 Y-0.970 F400.000
G1 X-9.425 Y-1.079 F400.000
G1 X-9.353 Y-1.177 F400.000
G1 X-9.263 Y-1.252 F400.000
G1 X-8.989 Y-1.387 F400.000
G1 X-8.932 Y-1.406 F400.000
G1 X-8.932 Y-1.406 F400.000
G1 X-8.805 Y-1.417 F400.000
G1 X-8.714 Y-1.395 F400.000
G0 X-8.695 Y-1.376
G0 X-8.650 Y-1.274
G0 X-8.117 Y1.147
G1 X-8.109 Y1.188 F400.000
G1 X-8.094 Y1.293 F400.000
G1 X-8.117 Y1.350 F400.000
G1 X-8.188 Y1.410 F400.000
G1 X-8.308 Y1.455 F400.000
G1 X-8.308 Y1.455 F400.000
G1 X-8.590 Y1.462 F400.000
G1 X-8.759 Y1.429 F400.000
G1 X-8.925 Y1.361 F400.000
G1 X-9.165 Y1.188 F400.000
G1 X-9.451 Y0.876 F400.000
G1 X-9.609 Y0.617 F400.000
G1 X-9.767 Y0.222 F400.000
G1 X-9.857 Y-0.241 F400.000
G1 X-9.861 Y-0.410 F400.000
G1 X-9.838 Y-0.579 F400.000
G1 X-9.767 Y-0.741 F400.000
G1 X-9.508 Y-1.068 F400.000
G1 X-9.368 Y-1.180 F400.000
G1 X-9.368 Y-1.180 F400.000
G1 X-9.252 Y-1.226 F400.000
G1 X-9.192 Y-1.229 F400.000
G1 X-9.165 Y-1.226 F400.000
G0 X-9.147 Y-1.211
G0 X-9.102 Y-1.117
G0 X-8.632 Y1.180
G1 X-8.624 Y1.214 F400.000
G1 X-8.613 Y1.335 F400.000
G1 X-8.639 Y1.380 F400.000
G1 X-8.718 Y1.417 F400.000
G1 X-8.846 Y1.429 F400.000
G1 X-8.846 Y1.429 F400.000
G1 X-9.071 Y1.350 F400.000
G1 X-9.229 Y1.274 F400.000
G1 X-9.425 Y1.135 F400.000
G1 X-9.560 Y1.019 F400.000
G1 X-9.744 Y0.778 F400.000
G1 X-9.880 Y0.504 F400.000
G1 X-9.955 Y0.203 F400.000
G1 X-9.962 Y-0.090 F400.000
G1 X-9.883 Y-0.485 F400.000
G1 X-9.883 Y-0.485 F400.000
G1 X-9.820 Y-0.590 F400.000
G1 X-9.752 Y-0.654 F400.000
G0 X-9.722 Y-0.665
G0 X-9.609 Y-0.684
G0 X6.000 Y-1.726
G1 X6.075 Y-1.729 F400.000
G1 X6.323 Y-1.733 F400.000
G1 X6.444 Y-1.692 F400.000
G1 X6.496 Y-1.658 F400.000
G1 X6.496 Y-1.658 F400.000
G1 X6.767 Y-1.425 F400.000
G1 X6.880 Y-1.282 F400.000
G1 X7.094 Y-0.842 F400.000
G1 X7.233 Y-0.496 F400.000
G1 X7.323 Y-0.135 F400.000
G1 X7.376 Y0.218 F400.000
G1 X7.387 Y0.511 F400.000
G1 X7.372 Y0.782 F400.000
G1 X7.323 Y1.083 F400.000
G1 X7.256 Y1.244 F400.000
G1 X7.226 Y1.293 F400.000
G1 X7.177 Y1.327 F400.000
G1 X6.996 Y1.376 F400.000
G1 X6.996 Y1.376 F400.000
G1 X6.868 Y1.380 F400.000
G1 X6.808 Y1.365 F400.000
G1 X6.782 Y1.353 F400.000
G0 X6.763 Y1.335
G0 X6.733 Y1.226
G0 X6.508 Y-1.338
G1 X6.504 Y-1.376 F400.000
G1 X6.500 Y-1.470 F400.000
G1 X6.515 Y-1.511 F400.000
G1 X6.560 Y-1.530 F400.000
G1 X6.680 Y-1.511 F400.000
G1 X6.741 Y-1.489 F400.000
G1 X6.741 Y-1.489 F400.000
G1 X7.053 Y-1.308 F400.000
G1 X7.143 Y-1.229 F400.000
G1 X7.289 Y-1.038 F400.000
G1 X7.436 Y-0.771 F400.000
G1 X7.602 Y-0.436 F400.000
G1 X7.711 Y-0.079 F400.000
G1 X7.759 Y0.211 F400.000
G1 X7.774 Y0.447 F400.000
G1 X7.767 Y0.695 F400.000
G1 X7.711 Y0.985 F400.000
G1 X7.605 Y1.199 F400.000
G1 X7.571 Y1.248 F400.000
G1 X7.523 Y1.286 F400.000
G1 X7.282 Y1.308 F400.000
G1 X7.282 Y1.308 F400.000
G1 X7.154 Y1.289 F400.000
G1 X7.071 Y1.248 F400.000
G0 X7.056 Y1.226
G0 X7.023 Y1.117
G0 X6.782 Y-1.158
G1 X6.778 Y-1.192 F400.000
G1 X6.774 Y-1.312 F400.000
G1 X6.805 Y-1.350 F400.000
G1 X6.887 Y-1.376 F400.000
G1 X7.015 Y-1.368 F400.000
G1 X7.015 Y-1.368 F400.000
G1 X7.241 Y-1.293 F400.000
G1 X7.346 Y-1.241 F400.000
G1 X7.485 Y-1.124 F400.000
G1 X7.744 Y-0.786 F400.000
G1 X7.932 Y-0.462 F400.000
G1 X8.060 Y-0.113 F400.000
G1 X8.113 Y0.124 F400.000
G1 X8.135 Y0.331 F400.000
G1 X8.135 Y0.556 F400.000
G1 X8.094 Y0.835 F400.000
G1 X8.019 Y1.060 F400.000
G1 X7.883 Y1.256 F400.000
G1 X7.842 Y1.297 F400.000
G1 X7.786 Y1.320 F400.000
G1 X7.545 Y1.297 F400.000
G1 X7.545 Y1.297 F400.000
G1 X7.417 Y1.263 F400.000
G1 X7.342 Y1.207 F400.000
G0 X7.327 Y1.184
G0 X7.293 Y1.015
G0 X7.075 Y-1.064
G1 X7.071 Y-1.098 F400.000
G1 X7.068 Y-1.218 F400.000
G1 X7.098 Y-1.259 F400.000
G1 X7.180 Y-1.297 F400.000
G1 X7.308 Y-1.305 F400.000
G1 X7.308 Y-1.305 F400.000
G1 X7.590 Y-1.248 F400.000
G1 X7.643 Y-1.226 F400.000
G1 X7.827 Y-1.071 F400.000
G1 X8.023 Y-0.838 F400.000
G1 X8.233 Y-0.530 F400.000
G1 X8.383 Y-0.188 F400.000
G1 X8.444 Y0.049 F400.000
G1 X8.470 Y0.229 F400.000
G1 X8.481 Y0.444 F400.000
G1 X8.459 Y0.711 F400.000
G1 X8.395 Y0.959 F400.000
G1 X8.308 Y1.147 F400.000
G1 X8.195 Y1.286 F400.000
G1 X8.105 Y1.365 F400.000
G1 X8.045 Y1.380 F400.000
G1 X7.985 Y1.372 F400.000
G1 X7.865 Y1.335 F400.000
G1 X7.805 Y1.327 F400.000
G1 X7.805 Y1.327 F400.000
G1 X7.680 Y1.282 F400.000
G1 X7.613 Y1.222 F400.000
G0 X7.598 Y1.195
G0 X7.560 Y1.030
G0 X7.331 Y-0.992
G1 X7.327 Y-1.026 F400.000
G1 X7.323 Y-1.150 F400.000
G1 X7.346 Y-1.199 F400.000
G1 X7.421 Y-1.256 F400.000
G1 X7.545 Y-1.293 F400.000
G1 X7.545 Y-1.293 F400.000
G1 X7.714 Y-1.293 F400.000
G1 X7.827 Y-1.274 F400.000
G1 X7.883 Y-1.256 F400.000
G1 X8.124 Y-1.083 F400.000
G1 X8.252 Y-0.955 F400.000
G1 X8.500 Y-0.677 F400.000
G1 X8.673 Y-0.346 F400.000
G1 X8.737 Y-0.154 F400.000
G1 X8.778 Y0.015 F400.000
G1 X8.812 Y0.237 F400.000
G1 X8.820 Y0.523 F400.000
G1 X8.786 Y0.793 F400.000
G1 X8.714 Y1.008 F400.000
G1 X8.568 Y1.263 F400.000
G1 X8.444 Y1.391 F400.000
G1 X8.395 Y1.429 F400.000
G1 X8.335 Y1.444 F400.000
G1 X8.154 Y1.425 F400.000
G1 X8.034 Y1.387 F400.000
G1 X8.034 Y1.387 F400.000
G1 X7.917 Y1.323 F400.000
G1 X7.853 Y1.256 F400.000
G0 X7.838 Y1.226
G0 X7.808 Y1.060
G0 X7.590 Y-0.981
G1 X7.586 Y-1.015 F400.000
G1 X7.579 Y-1.139 F400.000
G1 X7.620 Y-1.218 F400.000
G1 X7.722 Y-1.297 F400.000
G1 X7.782 Y-1.323 F400.000
G1 X7.782 Y-1.323 F400.000
G1 X7.951 Y-1.346 F400.000
G1 X8.064 Y-1.335 F400.000
G1 X8.327 Y-1.203 F400.000
G1 X8.556 Y-1.011 F400.000
G1 X8.835 Y-0.680 F400.000
G1 X9.015 Y-0.353 F400.000
G1 X9.086 Y-0.147 F400.000
G1 X9.128 Y0.030 F400.000
G1 X9.158 Y0.241 F400.000
G1 X9.165 Y0.523 F400.000
G1 X9.124 Y0.801 F400.000
G1 X9.023 Y1.079 F400.000
G1 X8.876 Y1.335 F400.000
G1 X8.835 Y1.380 F400.000
G1 X8.786 Y1.417 F400.000
G1 X8.733 Y1.444 F400.000
G1 X8.553 Y1.470 F400.000
G1 X8.372 Y1.459 F400.000
G1 X8.372 Y1.459 F400.000
G1 X8.248 Y1.414 F400.000
G1 X8.177 Y1.353 F400.000
G0 X8.162 Y1.327
G0 X8.120 Y1.158
G0 X7.831 Y-1.030
G1 X7.827 Y-1.064 F400.000
G1 X7.816 Y-1.188 F400.000
G1 X7.835 Y-1.244 F400.000
G1 X7.898 Y-1.316 F400.000
G1 X8.015 Y-1.383 F400.000
G1 X8.015 Y-1.383 F400.000
G1 X8.184 Y-1.414 F400.000
G1 X8.353 Y-1.395 F400.000
G1 X8.568 Y-1.293 F400.000
G1 X8.759 Y-1.154 F400.000
G1 X8.974 Y-0.940 F400.000
G1 X9.117 Y-0.744 F400.000
G1 X9.320 Y-0.432 F400.000
G1 X9.447 Y-0.083 F400.000
G1 X9.489 Y0.124 F400.000
G1 X9.485 Y0.519 F400.000
G1 X9.398 Y0.970 F400.000
G1 X9.335 Y1.135 F400.000
G1 X9.222 Y1.274 F400.000
G1 X9.056 Y1.361 F400.000
G1 X8.827 Y1.436 F400.000
G1 X8.767 Y1.447 F400.000
G1 X8.767 Y1.447 F400.000
G1 X8.639 Y1.436 F400.000
G1 X8.553 Y1.398 F400.000
G0 X8.534 Y1.376
G0 X8.496 Y1.271
G0 X8.056 Y-1.128
G1 X8.053 Y-1.162 F400.000
G1 X8.038 Y-1.286 F400.000
G1 X8.060 Y-1.338 F400.000
G1 X8.128 Y-1.398 F400.000
G1 X8.248 Y-1.444 F400.000
G1 X8.248 Y-1.444 F400.000
G1 X8.417 Y-1.466 F400.000
G1 X8.643 Y-1.440 F400.000
G1 X8.812 Y-1.383 F400.000
G1 X9.011 Y-1.256 F400.000
G1 X9.271 Y-1.015 F400.000
G1 X9.485 Y-0.729 F400.000
G1 X9.628 Y-0.459 F400.000
G1 X9.737 Y-0.105 F400.000
G1 X9.797 Y0.350 F400.000
G1 X9.793 Y0.575 F400.000
G1 X9.752 Y0.744 F400.000
G1 X9.695 Y0.850 F400.000
G1 X9.541 Y1.034 F400.000
G1 X9.406 Y1.158 F400.000
G1 X9.256 Y1.259 F400.000
G1 X9.256 Y1.259 F400.000
G1 X9.135 Y1.305 F400.000
G1 X9.075 Y1.308 F400.000
G1 X9.049 Y1.301 F400.000
G0 X9.030 Y1.289
G0 X8.989 Y1.192
G0 X8.511 Y-1.199
G1 X8.504 Y-1.233 F400.000
G1 X8.492 Y-1.353 F400.000
G1 X8.519 Y-1.398 F400.000
G1 X8.598 Y-1.436 F400.000
G1 X8.726 Y-1.447 F400.000
G1 X8.726 Y-1.447 F400.000
G1 X8.838 Y-1.429 F400.000
G1 X9.120 Y-1.331 F400.000
G1 X9.376 Y-1.177 F400.000
G1 X9.635 Y-0.929 F400.000
G1 X9.771 Y-0.729 F400.000
G1 X9.876 Y-0.508 F400.000
G1 X9.940 Y-0.271 F400.000
G1 X9.962 Y-0.090 F400.000
G1 X9.951 Y0.195 F400.000
G1 X9.887 Y0.477 F400.000
G1 X9.793 Y0.695 F400.000
G1 X9.759 Y0.744 F400.000
G1 X9.759 Y0.744 F400.000
G1 X9.741 Y0.752 F400.000
G0 X9.726 Y0.748
G0 X9.718 Y0.737
G1 X9.714 Y0.726 F400.000
G1 X9.737 Y0.722 F400.000
G1 X9.759 Y0.748 F400.000
G1 X9.767 Y0.793 F400.000
G1 X9.767 Y0.793 F400.000
G1 X9.665 Y0.936 F400.000
G1 X9.538 Y1.071 F400.000
G1 X9.398 Y1.195 F400.000
G1 X9.263 Y1.286 F400.000
G1 X9.165 Y1.338 F400.000
G1 X8.827 Y1.462 F400.000
G1 X8.586 Y1.496 F400.000
G1 X8.451 Y1.492 F400.000
G1 X8.199 Y1.462 F400.000
G1 X7.774 Y1.350 F400.000
G1 X7.564 Y1.323 F400.000
G1 X7.248 Y1.342 F400.000
G1 X7.041 Y1.391 F400.000
G1 X6.846 Y1.470 F400.000
G1 X6.662 Y1.575 F400.000
G1 X6.492 Y1.707 F400.000
G1 X6.346 Y1.857 F400.000
G1 X6.218 Y2.030 F400.000
G1 X6.165 Y2.120 F400.000
G1 X5.872 Y2.789 F400.000
G1 X5.590 Y3.320 F400.000
G1 X5.455 Y3.534 F400.000
G1 X5.274 Y3.797 F400.000
G1 X4.921 Y4.244 F400.000
G1 X4.477 Y4.699 F400.000
G1 X4.086 Y5.049 F400.000
G1 X3.669 Y5.365 F400.000
G1 X3.410 Y5.534 F400.000
G1 X3.165 Y5.673 F400.000
G1 X2.617 Y5.947 F400.000
G1 X2.086 Y6.150 F400.000
G1 X1.534 Y6.312 F400.000
G1 X1.274 Y6.365 F400.000
G1 X0.586 Y6.470 F400.000
G1 X0.154 Y6.492 F400.000
G1 X-0.132 Y6.492 F400.000
G1 X-0.729 Y6.455 F400.000
G1 X-1.023 Y6.414 F400.000
G1 X-1.605 Y6.289 F400.000
G1 X-1.850 Y6.222 F400.000
G1 X-2.143 Y6.128 F400.000
G1 X-2.489 Y6.000 F400.000
G1 X-2.677 Y5.921 F400.000
G1 X-3.211 Y5.650 F400.000
G1 X-3.432 Y5.519 F400.000
G1 X-3.895 Y5.199 F400.000
G1 X-4.120 Y5.023 F400.000
G1 X-4.526 Y4.658 F400.000
G1 X-4.737 Y4.444 F400.000
G1 X-5.120 Y4.004 F400.000
G1 X-5.297 Y3.767 F400.000
G1 X-5.632 Y3.237 F400.000
G1 X-5.887 Y2.752 F400.000
G1 X-6.158 Y2.135 F400.000
G1 X-6.207 Y2.041 F400.000
G1 X-6.331 Y1.868 F400.000
G1 X-6.477 Y1.714 F400.000
G1 X-6.643 Y1.583 F400.000
G1 X-6.827 Y1.477 F400.000
G1 X-6.925 Y1.432 F400.000
G1 X-7.128 Y1.368 F400.000
G1 X-7.335 Y1.331 F400.000
G1 X-7.549 Y1.323 F400.000
G1 X-7.654 Y1.331 F400.000
G1 X-7.914 Y1.383 F400.000
G1 X-8.143 Y1.451 F400.000
G1 X-8.395 Y1.489 F400.000
G1 X-8.624 Y1.489 F400.000
G1 X-8.801 Y1.462 F400.000
G1 X-8.989 Y1.410 F400.000
G1 X-9.248 Y1.297 F400.000
G1 X-9.447 Y1.150 F400.000
G1 X-9.583 Y1.030 F400.000
G1 X-9.684 Y0.917 F400.000
G1 X-9.774 Y0.782 F400.000
G1 X-9.921 Y0.466 F400.000
G1 X-9.966 Y0.278 F400.000
G1 X-9.989 Y0.117 F400.000
G1 X-9.992 Y-0.060 F400.000
G1 X-9.985 Y-0.150 F400.000
G1 X-9.902 Y-0.515 F400.000
G1 X-9.778 Y-0.767 F400.000
G1 X-9.699 Y-0.891 F400.000
G1 X-9.526 Y-1.086 F400.000
G1 X-9.282 Y-1.278 F400.000
G1 X-9.139 Y-1.350 F400.000
G1 X-8.823 Y-1.466 F400.000
G1 X-8.556 Y-1.496 F400.000
G1 X-8.459 Y-1.496 F400.000
G1 X-8.165 Y-1.455 F400.000
G1 X-7.797 Y-1.353 F400.000
G1 X-7.586 Y-1.327 F400.000
G1 X-7.372 Y-1.327 F400.000
G1 X-7.267 Y-1.338 F400.000
G1 X-7.060 Y-1.387 F400.000
G1 X-6.861 Y-1.462 F400.000
G1 X-6.767 Y-1.508 F400.000
G1 X-6.590 Y-1.624 F400.000
G1 X-6.429 Y-1.763 F400.000
G1 X-6.289 Y-1.921 F400.000
G1 X-6.173 Y-2.102 F400.000
G1 X-6.105 Y-2.241 F400.000
G1 X-5.902 Y-2.718 F400.000
G1 X-5.553 Y-3.383 F400.000
G1 X-5.256 Y-3.823 F400.000
G1 X-4.914 Y-4.252 F400.000
G1 X-4.492 Y-4.692 F400.000
G1 X-4.075 Y-5.056 F400.000
G1 X-3.643 Y-5.380 F400.000
G1 X-3.071 Y-5.726 F400.000
G1 X-2.887 Y-5.820 F400.000
G1 X-2.583 Y-5.959 F400.000
G1 X-2.203 Y-6.113 F400.000
G1 X-1.733 Y-6.259 F400.000
G1 X-1.530 Y-6.312 F400.000
G1 X-1.274 Y-6.365 F400.000
G1 X-0.586 Y-6.470 F400.000
G1 X-0.154 Y-6.492 F400.000
G1 X0.113 Y-6.492 F400.000
G1 X0.526 Y-6.477 F400.000
G1 X0.985 Y-6.425 F400.000
G1 X1.628 Y-6.289 F400.000
G1 X1.857 Y-6.226 F400.000
G1 X2.361 Y-6.053 F400.000
G1 X2.669 Y-5.921 F400.000
G1 X3.199 Y-5.654 F400.000
G1 X3.421 Y-5.523 F400.000
G1 X3.891 Y-5.203 F400.000
G1 X4.308 Y-4.861 F400.000
G1 X4.538 Y-4.647 F400.000
G1 X4.789 Y-4.391 F400.000
G1 X4.947 Y-4.214 F400.000
G1 X5.353 Y-3.688 F400.000
G1 X5.447 Y-3.549 F400.000
G1 X5.744 Y-3.034 F400.000
G1 X5.872 Y-2.786 F400.000
G1 X6.158 Y-2.135 F400.000
G1 X6.207 Y-2.041 F400.000
G1 X6.331 Y-1.868 F400.000
G1 X6.477 Y-1.714 F400.000
G1 X6.643 Y-1.583 F400.000
G1 X6.827 Y-1.477 F400.000
G1 X6.925 Y-1.432 F400.000
G1 X7.128 Y-1.368 F400.000
G1 X7.335 Y-1.331 F400.000
G1 X7.549 Y-1.323 F400.000
G1 X7.654 Y-1.331 F400.000
G1 X7.880 Y-1.376 F400.000
G1 X8.195 Y-1.462 F400.000
G1 X8.387 Y-1.489 F400.000
G1 X8.598 Y-1.492 F400.000
G1 X8.793 Y-1.470 F400.000
G1 X9.109 Y-1.361 F400.000
G1 X9.282 Y-1.271 F400.000
G1 X9.444 Y-1.158 F400.000
G1 X9.624 Y-0.985 F400.000
G1 X9.711 Y-0.880 F400.000
G1 X9.883 Y-0.564 F400.000
G1 X9.932 Y-0.432 F400.000
G1 X9.996 Y-0.090 F400.000
G1 X9.981 Y0.150 F400.000
G1 X9.947 Y0.357 F400.000
G1 X9.880 Y0.568 F400.000
G1 X9.827 Y0.692 F400.000
G1 X9.767 Y0.793 F400.000
G1 X9.767 Y0.793 F400.000
G0 Z6.000
G0 Z6.000
(Finish operation: Adaptive_top1)
(Block-name: Adaptive_top2)
(Block-expand: 0)
(Block-enable: 1)
(Begin operation: Adaptive_top2)
(Path: Adaptive_top2)
(Adaptive_top2)
(Helix to depth: -5.000000)
G0 Z6.000
G0 X0.375 Y-0.315 Z6.000
G0 X0.375 Y-0.315 Z4.000
G1 X0.375 Y-0.315 Z1.000 F400.000
G1 X0.375 Y-0.315 Z1.000 F400.000
G1 X0.430 Y-0.235 Z0.991 F400.000
G1 X0.467 Y-0.147 Z0.983 F400.000
G1 X0.487 Y-0.053 Z0.974 F400.000
G1 X0.488 Y0.043 Z0.966 F400.000
G1 X0.470 Y0.137 Z0.957 F400.000
G1 X0.435 Y0.226 Z0.948 F400.000
G1 X0.382 Y0.307 Z0.940 F400.000
G1 X0.315 Y0.375 Z0.931 F400.000
G1 X0.235 Y0.430 Z0.923 F400.000
G1 X0.147 Y0.467 Z0.914 F400.000
G1 X0.053 Y0.487 Z0.906 F400.000
G1 X-0.043 Y0.488 Z0.897 F400.000
G1 X-0.137 Y0.470 Z0.888 F400.000
G1 X-0.226 Y0.435 Z0.880 F400.000
G1 X-0.307 Y0.382 Z0.871 F400.000
G1 X-0.375 Y0.315 Z0.863 F400.000
G1 X-0.430 Y0.235 Z0.854 F400.000
G1 X-0.467 Y0.147 Z0.845 F400.000
G1 X-0.487 Y0.053 Z0.837 F400.000
G1 X-0.488 Y-0.043 Z0.828 F400.000
G1 X-0.470 Y-0.137 Z0.820 F400.000
G1 X-0.435 Y-0.226 Z0.811 F400.000
G1 X-0.382 Y-0.307 Z0.802 F400.000
G1 X-0.315 Y-0.375 Z0.794 F400.000
G1 X-0.235 Y-0.430 Z0.785 F400.000
G1 X-0.147 Y-0.467 Z0.777 F400.000
G1 X-0.053 Y-0.487 Z0.768 F400.000
G1 X0.043 Y-0.488 Z0.760 F400.000
G1 X0.137 Y-0.470 Z0.751 F400.000
G1 X0.226 Y-0.435 Z0.742 F400.000
G1 X0.307 Y-0.382 Z0.734 F400.000
G1 X0.375 Y-0.315 Z0.725 F400.000
G1 X0.430 Y-0.235 Z0.717 F400.000
G1 X0.467 Y-0.147 Z0.708 F400.000
G1 X0.487 Y-0.053 Z0.699 F400.000
G1 X0.488 Y0.043 Z0.691 F400.000
G1 X0.470 Y0.137 Z0.682 F400.000
G1 X0.435 Y0.226 Z0.674 F400.000
G1 X0.382 Y0.307 Z0.665 F400.000
G1 X0.315 Y0.375 Z0.656 F400.000
G1 X0.235 Y0.430 Z0.648 F400.000
G1 X0.147 Y0.467 Z0.639 F400.000
G1 X0.053 Y0.487 Z0.631 F400.000
G1 X-0.043 Y0.488 Z0.622 F400.000
G1 X-0.137 Y0.470 Z0.613 F400.000
G1 X-0.226 Y0.435 Z0.605 F400.000
G1 X-0.307 Y0.382 Z0.596 F400.000
G1 X-0.375 Y0.315 Z0.588 F400.000
G1 X-0.430 Y0.235 Z0.579 F400.000
G1 X-0.467 Y0.147 Z0.571 F400.000
G1 X-0.487 Y0.053 Z0.562 F400.000
G1 X-0.488 Y-0.043 Z0.553 F400.000
G1 X-0.470 Y-0.137 Z0.545 F400.000
G1 X-0.435 Y-0.226 Z0.536 F400.000
G1 X-0.382 Y-0.307 Z0.528 F400.000
G1 X-0.315 Y-0.375 Z0.519 F400.000
G1 X-0.235 Y-0.430 Z0.510 F400.000
G1 X-0.147 Y-0.467 Z0.502 F400.000
G1 X-0.053 Y-0.487 Z0.493 F400.000
G1 X0.043 Y-0.488 Z0.485 F400.000
G1 X0.137 Y-0.470 Z0.476 F400.000
G1 X0.226 Y-0.435 Z0.467 F400.000
G1 X0.307 Y-0.382 Z0.459 F400.000
G1 X0.375 Y-0.315 Z0.450 F400.000
G1 X0.430 Y-0.235 Z0.442 F400.000
G1 X0.467 Y-0.147 Z0.433 F400.000
G1 X0.487 Y-0.053 Z0.425 F400.000
G1 X0.488 Y0.043 Z0.416 F400.000
G1 X0.470 Y0.137 Z0.407 F400.000
G1 X0.435 Y0.226 Z0.399 F400.000
G1 X0.382 Y0.307 Z0.390 F400.000
G1 X0.315 Y0.375 Z0.382 F400.000
G1 X0.235 Y0.430 Z0.373 F400.000
G1 X0.147 Y0.467 Z0.364 F400.000
G1 X0.053 Y0.487 Z0.356 F400.000
G1 X-0.043 Y0.488 Z0.347 F400.000
G1 X-0.137 Y0.470 Z0.339 F400.000
G1 X-0.226 Y0.435 Z0.330 F400.000
G1 X-0.307 Y0.382 Z0.321 F400.000
G1 X-0.375 Y0.315 Z0.313 F400.000
G1 X-0.430 Y0.235 Z0.304 F400.000
G1 X-0.467 Y0.147 Z0.296 F400.000
G1 X-0.487 Y0.053 Z0.287 F400.000
G1 X-0.488 Y-0.043 Z0.279 F400.000
G1 X-0.470 Y-0.137 Z0.270 F400.000
G1 X-0.435 Y-0.226 Z0.261 F400.000
G1 X-0.382 Y-0.307 Z0.253 F400.000
G1 X-0.315 Y-0.375 Z0.244 F400.000
G1 X-0.235 Y-0.430 Z0.236 F400.000
G1 X-0.147 Y-0.467 Z0.227 F400.000
G1 X-0.053 Y-0.487 Z0.218 F400.000
G1 X0.043 Y-0.488 Z0.210 F400.000
G1 X0.137 Y-0.470 Z0.201 F400.000
G1 X0.226 Y-0.435 Z0.193 F400.000
G1 X0.307 Y-0.382 Z0.184 F400.000
G1 X0.375 Y-0.315 Z0.175 F400.000
G1 X0.430 Y-0.235 Z0.167 F400.000
G1 X0.467 Y-0.147 Z0.158 F400.000
G1 X0.487 Y-0.053 Z0.150 F400.000
G1 X0.488 Y0.043 Z0.141 F400.000
G1 X0.470 Y0.137 Z0.132 F400.000
G1 X0.435 Y0.226 Z0.124 F400.000
G1 X0.382 Y0.307 Z0.115 F400.000
G1 X0.315 Y0.375 Z0.107 F400.000
G1 X0.235 Y0.430 Z0.098 F400.000
G1 X0.147 Y0.467 Z0.090 F400.000
G1 X0.053 Y0.487 Z0.081 F400.000
G1 X-0.043 Y0.488 Z0.072 F400.000
G1 X-0.137 Y0.470 Z0.064 F400.000
G1 X-0.226 Y0.435 Z0.055 F400.000
G1 X-0.307 Y0.382 Z0.047 F400.000
G1 X-0.375 Y0.315 Z0.038 F400.000
G1 X-0.430 Y0.235 Z0.029 F400.000
G1 X-0.467 Y0.147 Z0.021 F400.000
G1 X-0.487 Y0.053 Z0.012 F400.000
G1 X-0.488 Y-0.043 Z0.004 F400.000
G1 X-0.470 Y-0.137 Z-0.005 F400.000
G1 X-0.435 Y-0.226 Z-0.014 F400.000
G1 X-0.382 Y-0.307 Z-0.022 F400.000
G1 X-0.315 Y-0.375 Z-0.031 F400.000
G1 X-0.235 Y-0.430 Z-0.039 F400.000
G1 X-0.147 Y-0.467 Z-0.048 F400.000
G1 X-0.053 Y-0.487 Z-0.056 F400.000
G1 X0.043 Y-0.488 Z-0.065 F400.000
G1 X0.137 Y-0.470 Z-0.074 F400.000
G1 X0.226 Y-0.435 Z-0.082 F400.000
G1 X0.307 Y-0.382 Z-0.091 F400.000
G1 X0.375 Y-0.315 Z-0.099 F400.000
G1 X0.430 Y-0.235 Z-0.108 F400.000
G1 X0.467 Y-0.147 Z-0.117 F400.000
G1 X0.487 Y-0.053 Z-0.125 F400.000
G1 X0.488 Y0.043 Z-0.134 F400.000
G1 X0.470 Y0.137 Z-0.142 F400.000
G1 X0.435 Y0.226 Z-0.151 F400.000
G1 X0.382 Y0.307 Z-0.160 F400.000
G1 X0.315 Y0.375 Z-0.168 F400.000
G1 X0.235 Y0.430 Z-0.177 F400.000
G1 X0.147 Y0.467 Z-0.185 F400.000
G1 X0.053 Y0.487 Z-0.194 F400.000
G1 X-0.043 Y0.488 Z-0.202 F400.000
G1 X-0.137 Y0.470 Z-0.211 F400.000
G1 X-0.226 Y0.435 Z-0.220 F400.000
G1 X-0.307 Y0.382 Z-0.228 F400.000
G1 X-0.375 Y0.315 Z-0.237 F400.000
G1 X-0.430 Y0.235 Z-0.245 F400.000
G1 X-0.467 Y0.147 Z-0.254 F400.000
G1 X-0.487 Y0.053 Z-0.263 F400.000
G1 X-0.488 Y-0.043 Z-0.271 F400.000
G1 X-0.470 Y-0.137 Z-0.280 F400.000
G1 X-0.435 Y-0.226 Z-0.288 F400.000
G1 X-0.382 Y-0.307 Z-0.297 F400.000
G1 X-0.315 Y-0.375 Z-0.306 F400.000
G1 X-0.235 Y-0.430 Z-0.314 F400.000
G1 X-0.147 Y-0.467 Z-0.323 F400.000
G1 X-0.053 Y-0.487 Z-0.331 F400.000
G1 X0.043 Y-0.488 Z-0.340 F400.000
G1 X0.137 Y-0.470 Z-0.349 F400.000
G1 X0.226 Y-0.435 Z-0.357 F400.000
G1 X0.307 Y-0.382 Z-0.366 F400.000
G1 X0.375 Y-0.315 Z-0.374 F400.000
G1 X0.430 Y-0.235 Z-0.383 F400.000
G1 X0.467 Y-0.147 Z-0.391 F400.000
G1 X0.487 Y-0.053 Z-0.400 F400.000
G1 X0.488 Y0.043 Z-0.409 F400.000
G1 X0.470 Y0.137 Z-0.417 F400.000
G1 X0.435 Y0.226 Z-0.426 F400.000
G1 X0.382 Y0.307 Z-0.434 F400.000
G1 X0.315 Y0.375 Z-0.443 F400.000
G1 X0.235 Y0.430 Z-0.452 F400.000
G1 X0.147 Y0.467 Z-0.460 F400.000
G1 X0.053 Y0.487 Z-0.469 F400.000
G1 X-0.043 Y0.488 Z-0.477 F400.000
G1 X-0.137 Y0.470 Z-0.486 F400.000
G1 X-0.226 Y0.435 Z-0.495 F400.000
G1 X-0.307 Y0.382 Z-0.503 F400.000
G1 X-0.375 Y0.315 Z-0.512 F400.000
G1 X-0.430 Y0.235 Z-0.520 F400.000
G1 X-0.467 Y0.147 Z-0.529 F400.000
G1 X-0.487 Y0.053 Z-0.537 F400.000
G1 X-0.488 Y-0.043 Z-0.546 F400.000
G1 X-0.470 Y-0.137 Z-0.555 F400.000
G1 X-0.435 Y-0.226 Z-0.563 F400.000
G1 X-0.382 Y-0.307 Z-0.572 F400.000
G1 X-0.315 Y-0.375 Z-0.580 F400.000
G1 X-0.235 Y-0.430 Z-0.589 F400.000
G1 X-0.147 Y-0.467 Z-0.598 F400.000
G1 X-0.053 Y-0.487 Z-0.606 F400.000
G1 X0.043 Y-0.488 Z-0.615 F400.000
G1 X0.137 Y-0.470 Z-0.623 F400.000
G1 X0.226 Y-0.435 Z-0.632 F400.000
G1 X0.307 Y-0.382 Z-0.641 F400.000
G1 X0.375 Y-0.315 Z-0.649 F400.000
G1 X0.430 Y-0.235 Z-0.658 F400.000
G1 X0.467 Y-0.147 Z-0.666 F400.000
G1 X0.487 Y-0.053 Z-0.675 F400.000
G1 X0.488 Y0.043 Z-0.683 F400.000
G1 X0.470 Y0.137 Z-0.692 F400.000
G1 X0.435 Y0.226 Z-0.701 F400.000
G1 X0.382 Y0.307 Z-0.709 F400.000
G1 X0.315 Y0.375 Z-0.718 F400.000
G1 X0.235 Y0.430 Z-0.726 F400.000
G1 X0.147 Y0.467 Z-0.735 F400.000
G1 X0.053 Y0.487 Z-0.744 F400.000
G1 X-0.043 Y0.488 Z-0.752 F400.000
G1 X-0.137 Y0.470 Z-0.761 F400.000
G1 X-0.226 Y0.435 Z-0.769 F400.000
G1 X-0.307 Y0.382 Z-0.778 F400.000
G1 X-0.375 Y0.315 Z-0.787 F400.000
G1 X-0.430 Y0.235 Z-0.795 F400.000
G1 X-0.467 Y0.147 Z-0.804 F400.000
G1 X-0.487 Y0.053 Z-0.812 F400.000
G1 X-0.488 Y-0.043 Z-0.821 F400.000
G1 X-0.470 Y-0.137 Z-0.829 F400.000
G1 X-0.435 Y-0.226 Z-0.838 F400.000
G1 X-0.382 Y-0.307 Z-0.847 F400.000
G1 X-0.315 Y-0.375 Z-0.855 F400.000
G1 X-0.235 Y-0.430 Z-0.864 F400.000
G1 X-0.147 Y-0.467 Z-0.872 F400.000
G1 X-0.053 Y-0.487 Z-0.881 F400.000
G1 X0.043 Y-0.488 Z-0.890 F400.000
G1 X0.137 Y-0.470 Z-0.898 F400.000
G1 X0.226 Y-0.435 Z-0.907 F400.000
G1 X0.307 Y-0.382 Z-0.915 F400.000
G1 X0.375 Y-0.315 Z-0.924 F400.000
G1 X0.430 Y-0.235 Z-0.933 F400.000
G1 X0.467 Y-0.147 Z-0.941 F400.000
G1 X0.487 Y-0.053 Z-0.950 F400.000
G1 X0.488 Y0.043 Z-0.958 F400.000
G1 X0.470 Y0.137 Z-0.967 F400.000
G1 X0.435 Y0.226 Z-0.976 F400.000
G1 X0.382 Y0.307 Z-0.984 F400.000
G1 X0.315 Y0.375 Z-0.993 F400.000
G1 X0.235 Y0.430 Z-1.001 F400.000
G1 X0.147 Y0.467 Z-1.010 F400.000
G1 X0.053 Y0.487 Z-1.018 F400.000
G1 X-0.043 Y0.488 Z-1.027 F400.000
G1 X-0.137 Y0.470 Z-1.036 F400.000
G1 X-0.226 Y0.435 Z-1.044 F400.000
G1 X-0.307 Y0.382 Z-1.053 F400.000
G1 X-0.375 Y0.315 Z-1.061 F400.000
G1 X-0.430 Y0.235 Z-1.070 F400.000
G1 X-0.467 Y0.147 Z-1.079 F400.000
G1 X-0.487 Y0.053 Z-1.087 F400.000
G1 X-0.488 Y-0.043 Z-1.096 F400.000
G1 X-0.470 Y-0.137 Z-1.104 F400.000
G1 X-0.435 Y-0.226 Z-1.113 F400.000
G1 X-0.382 Y-0.307 Z-1.122 F400.000
G1 X-0.315 Y-0.375 Z-1.130 F400.000
G1 X-0.235 Y-0.430 Z-1.139 F400.000
G1 X-0.147 Y-0.467 Z-1.147 F400.000
G1 X-0.053 Y-0.487 Z-1.156 F400.000
G1 X0.043 Y-0.488 Z-1.164 F400.000
G1 X0.137 Y-0.470 Z-1.173 F400.000
G1 X0.226 Y-0.435 Z-1.182 F400.000
G1 X0.307 Y-0.382 Z-1.190 F400.000
G1 X0.375 Y-0.315 Z-1.199 F400.000
G1 X0.430 Y-0.235 Z-1.207 F400.000
G1 X0.467 Y-0.147 Z-1.216 F400.000
G1 X0.487 Y-0.053 Z-1.225 F400.000
G1 X0.488 Y0.043 Z-1.233 F400.000
G1 X0.470 Y0.137 Z-1.242 F400.000
G1 X0.435 Y0.226 Z-1.250 F400.000
G1 X0.382 Y0.307 Z-1.259 F400.000
G1 X0.315 Y0.375 Z-1.268 F400.000
G1 X0.235 Y0.430 Z-1.276 F400.000
G1 X0.147 Y0.467 Z-1.285 F400.000
G1 X0.053 Y0.487 Z-1.293 F400.000
G1 X-0.043 Y0.488 Z-1.302 F400.000
G1 X-0.137 Y0.470 Z-1.310 F400.000
G1 X-0.226 Y0.435 Z-1.319 F400.000
G1 X-0.307 Y0.382 Z-1.328 F400.000
G1 X-0.375 Y0.315 Z-1.336 F400.000
G1 X-0.430 Y0.235 Z-1.345 F400.000
G1 X-0.467 Y0.147 Z-1.353 F400.000
G1 X-0.487 Y0.053 Z-1.362 F400.000
G1 X-0.488 Y-0.043 Z-1.371 F400.000
G1 X-0.470 Y-0.137 Z-1.379 F400.000
G1 X-0.435 Y-0.226 Z-1.388 F400.000
G1 X-0.382 Y-0.307 Z-1.396 F400.000
G1 X-0.315 Y-0.375 Z-1.405 F400.000
G1 X-0.235 Y-0.430 Z-1.414 F400.000
G1 X-0.147 Y-0.467 Z-1.422 F400.000
G1 X-0.053 Y-0.487 Z-1.431 F400.000
G1 X0.043 Y-0.488 Z-1.439 F400.000
G1 X0.137 Y-0.470 Z-1.448 F400.000
G1 X0.226 Y-0.435 Z-1.457 F400.000
G1 X0.307 Y-0.382 Z-1.465 F400.000
G1 X0.375 Y-0.315 Z-1.474 F400.000
G1 X0.430 Y-0.235 Z-1.482 F400.000
G1 X0.467 Y-0.147 Z-1.491 F400.000
G1 X0.487 Y-0.053 Z-1.499 F400.000
G1 X0.488 Y0.043 Z-1.508 F400.000
G1 X0.470 Y0.137 Z-1.517 F400.000
G1 X0.435 Y0.226 Z-1.525 F400.000
G1 X0.382 Y0.307 Z-1.534 F400.000
G1 X0.315 Y0.375 Z-1.542 F400.000
G1 X0.235 Y0.430 Z-1.551 F400.000
G1 X0.147 Y0.467 Z-1.560 F400.000
G1 X0.053 Y0.487 Z-1.568 F400.000
G1 X-0.043 Y0.488 Z-1.577 F400.000
G1 X-0.137 Y0.470 Z-1.585 F400.000
G1 X-0.226 Y0.435 Z-1.594 F400.000
G1 X-0.307 Y0.382 Z-1.603 F400.000
G1 X-0.375 Y0.315 Z-1.611 F400.000
G1 X-0.430 Y0.235 Z-1.620 F400.000
G1 X-0.467 Y0.147 Z-1.628 F400.000
G1 X-0.487 Y0.053 Z-1.637 F400.000
G1 X-0.488 Y-0.043 Z-1.645 F400.000
G1 X-0.470 Y-0.137 Z-1.654 F400.000
G1 X-0.435 Y-0.226 Z-1.663 F400.000
G1 X-0.382 Y-0.307 Z-1.671 F400.000
G1 X-0.315 Y-0.375 Z-1.680 F400.000
G1 X-0.235 Y-0.430 Z-1.688 F400.000
G1 X-0.147 Y-0.467 Z-1.697 F400.000
G1 X-0.053 Y-0.487 Z-1.706 F400.000
G1 X0.043 Y-0.488 Z-1.714 F400.000
G1 X0.137 Y-0.470 Z-1.723 F400.000
G1 X0.226 Y-0.435 Z-1.731 F400.000
G1 X0.307 Y-0.382 Z-1.740 F400.000
G1 X0.375 Y-0.315 Z-1.749 F400.000
G1 X0.430 Y-0.235 Z-1.757 F400.000
G1 X0.467 Y-0.147 Z-1.766 F400.000
G1 X0.487 Y-0.053 Z-1.774 F400.000
G1 X0.488 Y0.043 Z-1.783 F400.000
G1 X0.470 Y0.137 Z-1.791 F400.000
G1 X0.435 Y0.226 Z-1.800 F400.000
G1 X0.382 Y0.307 Z-1.809 F400.000
G1 X0.315 Y0.375 Z-1.817 F400.000
G1 X0.235 Y0.430 Z-1.826 F400.000
G1 X0.147 Y0.467 Z-1.834 F400.000
G1 X0.053 Y0.487 Z-1.843 F400.000
G1 X-0.043 Y0.488 Z-1.852 F400.000
G1 X-0.137 Y0.470 Z-1.860 F400.000
G1 X-0.226 Y0.435 Z-1.869 F400.000
G1 X-0.307 Y0.382 Z-1.877 F400.000
G1 X-0.375 Y0.315 Z-1.886 F400.000
G1 X-0.430 Y0.235 Z-1.895 F400.000
G1 X-0.467 Y0.147 Z-1.903 F400.000
G1 X-0.487 Y0.053 Z-1.912 F400.000
G1 X-0.488 Y-0.043 Z-1.920 F400.000
G1 X-0.470 Y-0.137 Z-1.929 F400.000
G1 X-0.435 Y-0.226 Z-1.937 F400.000
G1 X-0.382 Y-0.307 Z-1.946 F400.000
G1 X-0.315 Y-0.375 Z-1.955 F400.000
G1 X-0.235 Y-0.430 Z-1.963 F400.000
G1 X-0.147 Y-0.467 Z-1.972 F400.000
G1 X-0.053 Y-0.487 Z-1.980 F400.000
G1 X0.043 Y-0.488 Z-1.989 F400.000
G1 X0.137 Y-0.470 Z-1.998 F400.000
G1 X0.226 Y-0.435 Z-2.006 F400.000
G1 X0.307 Y-0.382 Z-2.015 F400.000
G1 X0.375 Y-0.315 Z-2.023 F400.000
G1 X0.430 Y-0.235 Z-2.032 F400.000
G1 X0.467 Y-0.147 Z-2.041 F400.000
G1 X0.487 Y-0.053 Z-2.049 F400.000
G1 X0.488 Y0.043 Z-2.058 F400.000
G1 X0.470 Y0.137 Z-2.066 F400.000
G1 X0.435 Y0.226 Z-2.075 F400.000
G1 X0.382 Y0.307 Z-2.084 F400.000
G1 X0.315 Y0.375 Z-2.092 F400.000
G1 X0.235 Y0.430 Z-2.101 F400.000
G1 X0.147 Y0.467 Z-2.109 F400.000
G1 X0.053 Y0.487 Z-2.118 F400.000
G1 X-0.043 Y0.488 Z-2.126 F400.000
G1 X-0.137 Y0.470 Z-2.135 F400.000
G1 X-0.226 Y0.435 Z-2.144 F400.000
G1 X-0.307 Y0.382 Z-2.152 F400.000
G1 X-0.375 Y0.315 Z-2.161 F400.000
G1 X-0.430 Y0.235 Z-2.169 F400.000
G1 X-0.467 Y0.147 Z-2.178 F400.000
G1 X-0.487 Y0.053 Z-2.187 F400.000
G1 X-0.488 Y-0.043 Z-2.195 F400.000
G1 X-0.470 Y-0.137 Z-2.204 F400.000
G1 X-0.435 Y-0.226 Z-2.212 F400.000
G1 X-0.382 Y-0.307 Z-2.221 F400.000
G1 X-0.315 Y-0.375 Z-2.230 F400.000
G1 X-0.235 Y-0.430 Z-2.238 F400.000
G1 X-0.147 Y-0.467 Z-2.247 F400.000
G1 X-0.053 Y-0.487 Z-2.255 F400.000
G1 X0.043 Y-0.488 Z-2.264 F400.000
G1 X0.137 Y-0.470 Z-2.272 F400.000
G1 X0.226 Y-0.435 Z-2.281 F400.000
G1 X0.307 Y-0.382 Z-2.290 F400.000
G1 X0.375 Y-0.315 Z-2.298 F400.000
G1 X0.430 Y-0.235 Z-2.307 F400.000
G1 X0.467 Y-0.147 Z-2.315 F400.000
G1 X0.487 Y-0.053 Z-2.324 F400.000
G1 X0.488 Y0.043 Z-2.333 F400.000
G1 X0.470 Y0.137 Z-2.341 F400.000
G1 X0.435 Y0.226 Z-2.350 F400.000
G1 X0.382 Y0.307 Z-2.358 F400.000
G1 X0.315 Y0.375 Z-2.367 F400.000
G1 X0.235 Y0.430 Z-2.376 F400.000
G1 X0.147 Y0.467 Z-2.384 F400.000
G1 X0.053 Y0.487 Z-2.393 F400.000
G1 X-0.043 Y0.488 Z-2.401 F400.000
G1 X-0.137 Y0.470 Z-2.410 F400.000
G1 X-0.226 Y0.435 Z-2.418 F400.000
G1 X-0.307 Y0.382 Z-2.427 F400.000
G1 X-0.375 Y0.315 Z-2.436 F400.000
G1 X-0.430 Y0.235 Z-2.444 F400.000
G1 X-0.467 Y0.147 Z-2.453 F400.000
G1 X-0.487 Y0.053 Z-2.461 F400.000
G1 X-0.488 Y-0.043 Z-2.470 F400.000
G1 X-0.470 Y-0.137 Z-2.479 F400.000
G1 X-0.435 Y-0.226 Z-2.487 F400.000
G1 X-0.382 Y-0.307 Z-2.496 F400.000
G1 X-0.315 Y-0.375 Z-2.504 F400.000
G1 X-0.235 Y-0.430 Z-2.513 F400.000
G1 X-0.147 Y-0.467 Z-2.522 F400.000
G1 X-0.053 Y-0.487 Z-2.530 F400.000
G1 X0.043 Y-0.488 Z-2.539 F400.000
G1 X0.137 Y-0.470 Z-2.547 F400.000
G1 X0.226 Y-0.435 Z-2.556 F400.000
G1 X0.307 Y-0.382 Z-2.565 F400.000
G1 X0.375 Y-0.315 Z-2.573 F400.000
G1 X0.430 Y-0.235 Z-2.582 F400.000
G1 X0.467 Y-0.147 Z-2.590 F400.000
G1 X0.487 Y-0.053 Z-2.599 F400.000
G1 X0.488 Y0.043 Z-2.607 F400.000
G1 X0.470 Y0.137 Z-2.616 F400.000
G1 X0.435 Y0.226 Z-2.625 F400.000
G1 X0.382 Y0.307 Z-2.633 F400.000
G1 X0.315 Y0.375 Z-2.642 F400.000
G1 X0.235 Y0.430 Z-2.650 F400.000
G1 X0.147 Y0.467 Z-2.659 F400.000
G1 X0.053 Y0.487 Z-2.668 F400.000
G1 X-0.043 Y0.488 Z-2.676 F400.000
G1 X-0.137 Y0.470 Z-2.685 F400.000
G1 X-0.226 Y0.435 Z-2.693 F400.000
G1 X-0.307 Y0.382 Z-2.702 F400.000
G1 X-0.375 Y0.315 Z-2.711 F400.000
G1 X-0.430 Y0.235 Z-2.719 F400.000
G1 X-0.467 Y0.147 Z-2.728 F400.000
G1 X-0.487 Y0.053 Z-2.736 F400.000
G1 X-0.488 Y-0.043 Z-2.745 F400.000
G1 X-0.470 Y-0.137 Z-2.753 F400.000
G1 X-0.435 Y-0.226 Z-2.762 F400.000
G1 X-0.382 Y-0.307 Z-2.771 F400.000
G1 X-0.315 Y-0.375 Z-2.779 F400.000
G1 X-0.235 Y-0.430 Z-2.788 F400.000
G1 X-0.147 Y-0.467 Z-2.796 F400.000
G1 X-0.053 Y-0.487 Z-2.805 F400.000
G1 X0.043 Y-0.488 Z-2.814 F400.000
G1 X0.137 Y-0.470 Z-2.822 F400.000
G1 X0.226 Y-0.435 Z-2.831 F400.000
G1 X0.307 Y-0.382 Z-2.839 F400.000
G1 X0.375 Y-0.315 Z-2.848 F400.000
G1 X0.430 Y-0.235 Z-2.857 F400.000
G1 X0.467 Y-0.147 Z-2.865 F400.000
G1 X0.487 Y-0.053 Z-2.874 F400.000
G1 X0.488 Y0.043 Z-2.882 F400.000
G1 X0.470 Y0.137 Z-2.891 F400.000
G1 X0.435 Y0.226 Z-2.899 F400.000
G1 X0.382 Y0.307 Z-2.908 F400.000
G1 X0.315 Y0.375 Z-2.917 F400.000
G1 X0.235 Y0.430 Z-2.925 F400.000
G1 X0.147 Y0.467 Z-2.934 F400.000
G1 X0.053 Y0.487 Z-2.942 F400.000
G1 X-0.043 Y0.488 Z-2.951 F400.000
G1 X-0.137 Y0.470 Z-2.960 F400.000
G1 X-0.226 Y0.435 Z-2.968 F400.000
G1 X-0.307 Y0.382 Z-2.977 F400.000
G1 X-0.375 Y0.315 Z-2.985 F400.000
G1 X-0.430 Y0.235 Z-2.994 F400.000
G1 X-0.467 Y0.147 Z-3.003 F400.000
G1 X-0.487 Y0.053 Z-3.011 F400.000
G1 X-0.488 Y-0.043 Z-3.020 F400.000
G1 X-0.470 Y-0.137 Z-3.028 F400.000
G1 X-0.435 Y-0.226 Z-3.037 F400.000
G1 X-0.382 Y-0.307 Z-3.046 F400.000
G1 X-0.315 Y-0.375 Z-3.054 F400.000
G1 X-0.235 Y-0.430 Z-3.063 F400.000
G1 X-0.147 Y-0.467 Z-3.071 F400.000
G1 X-0.053 Y-0.487 Z-3.080 F400.000
G1 X0.043 Y-0.488 Z-3.088 F400.000
G1 X0.137 Y-0.470 Z-3.097 F400.000
G1 X0.226 Y-0.435 Z-3.106 F400.000
G1 X0.307 Y-0.382 Z-3.114 F400.000
G1 X0.375 Y-0.315 Z-3.123 F400.000
G1 X0.430 Y-0.235 Z-3.131 F400.000
G1 X0.467 Y-0.147 Z-3.140 F400.000
G1 X0.487 Y-0.053 Z-3.149 F400.000
G1 X0.488 Y0.043 Z-3.157 F400.000
G1 X0.470 Y0.137 Z-3.166 F400.000
G1 X0.435 Y0.226 Z-3.174 F400.000
G1 X0.382 Y0.307 Z-3.183 F400.000
G1 X0.315 Y0.375 Z-3.192 F400.000
G1 X0.235 Y0.430 Z-3.200 F400.000
G1 X0.147 Y0.467 Z-3.209 F400.000
G1 X0.053 Y0.487 Z-3.217 F400.000
G1 X-0.043 Y0.488 Z-3.226 F400.000
G1 X-0.137 Y0.470 Z-3.234 F400.000
G1 X-0.226 Y0.435 Z-3.243 F400.000
G1 X-0.307 Y0.382 Z-3.252 F400.000
G1 X-0.375 Y0.315 Z-3.260 F400.000
G1 X-0.430 Y0.235 Z-3.269 F400.000
G1 X-0.467 Y0.147 Z-3.277 F400.000
G1 X-0.487 Y0.053 Z-3.286 F400.000
G1 X-0.488 Y-0.043 Z-3.295 F400.000
G1 X-0.470 Y-0.137 Z-3.303 F400.000
G1 X-0.435 Y-0.226 Z-3.312 F400.000
G1 X-0.382 Y-0.307 Z-3.320 F400.000
G1 X-0.315 Y-0.375 Z-3.329 F400.000
G1 X-0.235 Y-0.430 Z-3.338 F400.000
G1 X-0.147 Y-0.467 Z-3.346 F400.000
G1 X-0.053 Y-0.487 Z-3.355 F400.000
G1 X0.043 Y-0.488 Z-3.363 F400.000
G1 X0.137 Y-0.470 Z-3.372 F400.000
G1 X0.226 Y-0.435 Z-3.380 F400.000
G1 X0.307 Y-0.382 Z-3.389 F400.000
G1 X0.375 Y-0.315 Z-3.398 F400.000
G1 X0.430 Y-0.235 Z-3.406 F400.000
G1 X0.467 Y-0.147 Z-3.415 F400.000
G1 X0.487 Y-0.053 Z-3.423 F400.000
G1 X0.488 Y0.043 Z-3.432 F400.000
G1 X0.470 Y0.137 Z-3.441 F400.000
G1 X0.435 Y0.226 Z-3.449 F400.000
G1 X0.382 Y0.307 Z-3.458 F400.000
G1 X0.315 Y0.375 Z-3.466 F400.000
G1 X0.235 Y0.430 Z-3.475 F400.000
G1 X0.147 Y0.467 Z-3.484 F400.000
G1 X0.053 Y0.487 Z-3.492 F400.000
G1 X-0.043 Y0.488 Z-3.501 F400.000
G1 X-0.137 Y0.470 Z-3.509 F400.000
G1 X-0.226 Y0.435 Z-3.518 F400.000
G1 X-0.307 Y0.382 Z-3.526 F400.000
G1 X-0.375 Y0.315 Z-3.535 F400.000
G1 X-0.430 Y0.235 Z-3.544 F400.000
G1 X-0.467 Y0.147 Z-3.552 F400.000
G1 X-0.487 Y0.053 Z-3.561 F400.000
G1 X-0.488 Y-0.043 Z-3.569 F400.000
G1 X-0.470 Y-0.137 Z-3.578 F400.000
G1 X-0.435 Y-0.226 Z-3.587 F400.000
G1 X-0.382 Y-0.307 Z-3.595 F400.000
G1 X-0.315 Y-0.375 Z-3.604 F400.000
G1 X-0.235 Y-0.430 Z-3.612 F400.000
G1 X-0.147 Y-0.467 Z-3.621 F400.000
G1 X-0.053 Y-0.487 Z-3.630 F400.000
G1 X0.043 Y-0.488 Z-3.638 F400.000
G1 X0.137 Y-0.470 Z-3.647 F400.000
G1 X0.226 Y-0.435 Z-3.655 F400.000
G1 X0.307 Y-0.382 Z-3.664 F400.000
G1 X0.375 Y-0.315 Z-3.673 F400.000
G1 X0.430 Y-0.235 Z-3.681 F400.000
G1 X0.467 Y-0.147 Z-3.690 F400.000
G1 X0.487 Y-0.053 Z-3.698 F400.000
G1 X0.488 Y0.043 Z-3.707 F400.000
G1 X0.470 Y0.137 Z-3.715 F400.000
G1 X0.435 Y0.226 Z-3.724 F400.000
G1 X0.382 Y0.307 Z-3.733 F400.000
G1 X0.315 Y0.375 Z-3.741 F400.000
G1 X0.235 Y0.430 Z-3.750 F400.000
G1 X0.147 Y0.467 Z-3.758 F400.000
G1 X0.053 Y0.487 Z-3.767 F400.000
G1 X-0.043 Y0.488 Z-3.776 F400.000
G1 X-0.137 Y0.470 Z-3.784 F400.000
G1 X-0.226 Y0.435 Z-3.793 F400.000
G1 X-0.307 Y0.382 Z-3.801 F400.000
G1 X-0.375 Y0.315 Z-3.810 F400.000
G1 X-0.430 Y0.235 Z-3.819 F400.000
G1 X-0.467 Y0.147 Z-3.827 F400.000
G1 X-0.487 Y0.053 Z-3.836 F400.000
G1 X-0.488 Y-0.043 Z-3.844 F400.000
G1 X-0.470 Y-0.137 Z-3.853 F400.000
G1 X-0.435 Y-0.226 Z-3.861 F400.000
G1 X-0.382 Y-0.307 Z-3.870 F400.000
G1 X-0.315 Y-0.375 Z-3.879 F400.000
G1 X-0.235 Y-0.430 Z-3.887 F400.000
G1 X-0.147 Y-0.467 Z-3.896 F400.000
G1 X-0.053 Y-0.487 Z-3.904 F400.000
G1 X0.043 Y-0.488 Z-3.913 F400.000
G1 X0.137 Y-0.470 Z-3.922 F400.000
G1 X0.226 Y-0.435 Z-3.930 F400.000
G1 X0.307 Y-0.382 Z-3.939 F400.000
G1 X0.375 Y-0.315 Z-3.947 F400.000
G1 X0.430 Y-0.235 Z-3.956 F400.000
G1 X0.467 Y-0.147 Z-3.965 F400.000
G1 X0.487 Y-0.053 Z-3.973 F400.000
G1 X0.488 Y0.043 Z-3.982 F400.000
G1 X0.470 Y0.137 Z-3.990 F400.000
G1 X0.435 Y0.226 Z-3.999 F400.000
G1 X0.382 Y0.307 Z-4.007 F400.000
G1 X0.315 Y0.375 Z-4.016 F400.000
G1 X0.235 Y0.430 Z-4.025 F400.000
G1 X0.147 Y0.467 Z-4.033 F400.000
G1 X0.053 Y0.487 Z-4.042 F400.000
G1 X-0.043 Y0.488 Z-4.050 F400.000
G1 X-0.137 Y0.470 Z-4.059 F400.000
G1 X-0.226 Y0.435 Z-4.068 F400.000
G1 X-0.307 Y0.382 Z-4.076 F400.000
G1 X-0.375 Y0.315 Z-4.085 F400.000
G1 X-0.430 Y0.235 Z-4.093 F400.000
G1 X-0.467 Y0.147 Z-4.102 F400.000
G1 X-0.487 Y0.053 Z-4.111 F400.000
G1 X-0.488 Y-0.043 Z-4.119 F400.000
G1 X-0.470 Y-0.137 Z-4.128 F400.000
G1 X-0.435 Y-0.226 Z-4.136 F400.000
G1 X-0.382 Y-0.307 Z-4.145 F400.000
G1 X-0.315 Y-0.375 Z-4.154 F400.000
G1 X-0.235 Y-0.430 Z-4.162 F400.000
G1 X-0.147 Y-0.467 Z-4.171 F400.000
G1 X-0.053 Y-0.487 Z-4.179 F400.000
G1 X0.043 Y-0.488 Z-4.188 F400.000
G1 X0.137 Y-0.470 Z-4.196 F400.000
G1 X0.226 Y-0.435 Z-4.205 F400.000
G1 X0.307 Y-0.382 Z-4.214 F400.000
G1 X0.375 Y-0.315 Z-4.222 F400.000
G1 X0.430 Y-0.235 Z-4.231 F400.000
G1 X0.467 Y-0.147 Z-4.239 F400.000
G1 X0.487 Y-0.053 Z-4.248 F400.000
G1 X0.488 Y0.043 Z-4.257 F400.000
G1 X0.470 Y0.137 Z-4.265 F400.000
G1 X0.435 Y0.226 Z-4.274 F400.000
G1 X0.382 Y0.307 Z-4.282 F400.000
G1 X0.315 Y0.375 Z-4.291 F400.000
G1 X0.235 Y0.430 Z-4.300 F400.000
G1 X0.147 Y0.467 Z-4.308 F400.000
G1 X0.053 Y0.487 Z-4.317 F400.000
G1 X-0.043 Y0.488 Z-4.325 F400.000
G1 X-0.137 Y0.470 Z-4.334 F400.000
G1 X-0.226 Y0.435 Z-4.342 F400.000
G1 X-0.307 Y0.382 Z-4.351 F400.000
G1 X-0.375 Y0.315 Z-4.360 F400.000
G1 X-0.430 Y0.235 Z-4.368 F400.000
G1 X-0.467 Y0.147 Z-4.377 F400.000
G1 X-0.487 Y0.053 Z-4.385 F400.000
G1 X-0.488 Y-0.043 Z-4.394 F400.000
G1 X-0.470 Y-0.137 Z-4.403 F400.000
G1 X-0.435 Y-0.226 Z-4.411 F400.000
G1 X-0.382 Y-0.307 Z-4.420 F400.000
G1 X-0.315 Y-0.375 Z-4.428 F400.000
G1 X-0.235 Y-0.430 Z-4.437 F400.000
G1 X-0.147 Y-0.467 Z-4.446 F400.000
G1 X-0.053 Y-0.487 Z-4.454 F400.000
G1 X0.043 Y-0.488 Z-4.463 F400.000
G1 X0.137 Y-0.470 Z-4.471 F400.000
G1 X0.226 Y-0.435 Z-4.480 F400.000
G1 X0.307 Y-0.382 Z-4.488 F400.000
G1 X0.375 Y-0.315 Z-4.497 F400.000
G1 X0.430 Y-0.235 Z-4.506 F400.000
G1 X0.467 Y-0.147 Z-4.514 F400.000
G1 X0.487 Y-0.053 Z-4.523 F400.000
G1 X0.488 Y0.043 Z-4.531 F400.000
G1 X0.470 Y0.137 Z-4.540 F400.000
G1 X0.435 Y0.226 Z-4.549 F400.000
G1 X0.382 Y0.307 Z-4.557 F400.000
G1 X0.315 Y0.375 Z-4.566 F400.000
G1 X0.235 Y0.430 Z-4.574 F400.000
G1 X0.147 Y0.467 Z-4.583 F400.000
G1 X0.053 Y0.487 Z-4.592 F400.000
G1 X-0.043 Y0.488 Z-4.600 F400.000
G1 X-0.137 Y0.470 Z-4.609 F400.000
G1 X-0.226 Y0.435 Z-4.617 F400.000
G1 X-0.307 Y0.382 Z-4.626 F400.000
G1 X-0.375 Y0.315 Z-4.635 F400.000
G1 X-0.430 Y0.235 Z-4.643 F400.000
G1 X-0.467 Y0.147 Z-4.652 F400.000
G1 X-0.487 Y0.053 Z-4.660 F400.000
G1 X-0.488 Y-0.043 Z-4.669 F400.000
G1 X-0.470 Y-0.137 Z-4.677 F400.000
G1 X-0.435 Y-0.226 Z-4.686 F400.000
G1 X-0.382 Y-0.307 Z-4.695 F400.000
G1 X-0.315 Y-0.375 Z-4.703 F400.000
G1 X-0.235 Y-0.430 Z-4.712 F400.000
G1 X-0.147 Y-0.467 Z-4.720 F400.000
G1 X-0.053 Y-0.487 Z-4.729 F400.000
G1 X0.043 Y-0.488 Z-4.738 F400.000
G1 X0.137 Y-0.470 Z-4.746 F400.000
G1 X0.226 Y-0.435 Z-4.755 F400.000
G1 X0.307 Y-0.382 Z-4.763 F400.000
G1 X0.375 Y-0.315 Z-4.772 F400.000
G1 X0.430 Y-0.235 Z-4.781 F400.000
G1 X0.467 Y-0.147 Z-4.789 F400.000
G1 X0.487 Y-0.053 Z-4.798 F400.000
G1 X0.488 Y0.043 Z-4.806 F400.000
G1 X0.470 Y0.137 Z-4.815 F400.000
G1 X0.435 Y0.226 Z-4.823 F400.000
G1 X0.382 Y0.307 Z-4.832 F400.000
G1 X0.315 Y0.375 Z-4.841 F400.000
G1 X0.235 Y0.430 Z-4.849 F400.000
G1 X0.147 Y0.467 Z-4.858 F400.000
G1 X0.053 Y0.487 Z-4.866 F400.000
G1 X-0.043 Y0.488 Z-4.875 F400.000
G1 X-0.137 Y0.470 Z-4.884 F400.000
G1 X-0.226 Y0.435 Z-4.892 F400.000
G1 X-0.307 Y0.382 Z-4.901 F400.000
G1 X-0.375 Y0.315 Z-4.909 F400.000
G1 X-0.430 Y0.235 Z-4.918 F400.000
G1 X-0.467 Y0.147 Z-4.927 F400.000
G1 X-0.487 Y0.053 Z-4.935 F400.000
G1 X-0.488 Y-0.043 Z-4.944 F400.000
G1 X-0.470 Y-0.137 Z-4.952 F400.000
G1 X-0.435 Y-0.226 Z-4.961 F400.000
G1 X-0.382 Y-0.307 Z-4.969 F400.000
G1 X-0.315 Y-0.375 Z-4.978 F400.000
G1 X-0.235 Y-0.430 Z-4.987 F400.000
G1 X-0.147 Y-0.467 Z-4.995 F400.000
G1 X-0.053 Y-0.487 Z-5.000 F400.000
G1 X0.043 Y-0.488 Z-5.000 F400.000
G1 X0.137 Y-0.470 Z-5.000 F400.000
G1 X0.226 Y-0.435 Z-5.000 F400.000
G1 X0.307 Y-0.382 Z-5.000 F400.000
G1 X0.375 Y-0.315 Z-5.000 F400.000
G1 X0.430 Y-0.235 Z-5.000 F400.000
G1 X0.467 Y-0.147 Z-5.000 F400.000
G1 X0.487 Y-0.053 Z-5.000 F400.000
G1 X0.488 Y0.043 Z-5.000 F400.000
G1 X0.470 Y0.137 Z-5.000 F400.000
G1 X0.435 Y0.226 Z-5.000 F400.000
G1 X0.382 Y0.307 Z-5.000 F400.000
G1 X0.315 Y0.375 Z-5.000 F400.000
G1 X0.235 Y0.430 Z-5.000 F400.000
G1 X0.147 Y0.467 Z-5.000 F400.000
G1 X0.053 Y0.487 Z-5.000 F400.000
G1 X-0.043 Y0.488 Z-5.000 F400.000
G1 X-0.137 Y0.470 Z-5.000 F400.000
G1 X-0.226 Y0.435 Z-5.000 F400.000
G1 X-0.307 Y0.382 Z-5.000 F400.000
G1 X-0.375 Y0.315 Z-5.000 F400.000
G1 X-0.430 Y0.235 Z-5.000 F400.000
G1 X-0.467 Y0.147 Z-5.000 F400.000
G1 X-0.487 Y0.053 Z-5.000 F400.000
G1 X-0.488 Y-0.043 Z-5.000 F400.000
G1 X-0.470 Y-0.137 Z-5.000 F400.000
G1 X-0.435 Y-0.226 Z-5.000 F400.000
G1 X-0.382 Y-0.307 Z-5.000 F400.000
G1 X-0.315 Y-0.375 Z-5.000 F400.000
G1 X-0.235 Y-0.430 Z-5.000 F400.000
G1 X-0.147 Y-0.467 Z-5.000 F400.000
(Adaptive - depth: -5.000000)
G1 X0.000 Y-0.500 F400.000
G1 X0.049 Y-0.534 F400.000
G1 X0.105 Y-0.549 F400.000
G1 X0.218 Y-0.549 F400.000
G1 X0.331 Y-0.511 F400.000
G1 X0.432 Y-0.447 F400.000
G1 X0.477 Y-0.406 F400.000
G1 X0.613 Y-0.211 F400.000
G1 X0.650 Y-0.056 F400.000
G1 X0.654 Y0.041 F400.000
G1 X0.643 Y0.150 F400.000
G1 X0.594 Y0.301 F400.000
G1 X0.515 Y0.432 F400.000
G1 X0.417 Y0.530 F400.000
G1 X0.312 Y0.598 F400.000
G1 X0.180 Y0.647 F400.000
G1 X0.045 Y0.669 F400.000
G1 X-0.094 Y0.665 F400.000
G1 X-0.237 Y0.628 F400.000
G1 X-0.365 Y0.564 F400.000
G1 X-0.477 Y0.477 F400.000
G1 X-0.571 Y0.365 F400.000
G1 X-0.635 Y0.237 F400.000
G1 X-0.669 Y0.109 F400.000
G1 X-0.677 Y-0.026 F400.000
G1 X-0.658 Y-0.162 F400.000
G1 X-0.609 Y-0.301 F400.000
G1 X-0.530 Y-0.429 F400.000
G1 X-0.429 Y-0.534 F400.000
G1 X-0.278 Y-0.635 F400.000
G1 X-0.105 Y-0.703 F400.000
G1 X0.124 Y-0.733 F400.000
G1 X0.293 Y-0.711 F400.000
G1 X0.455 Y-0.639 F400.000
G1 X0.504 Y-0.609 F400.000
G1 X0.767 Y-0.346 F400.000
G1 X0.827 Y-0.180 F400.000
G1 X0.846 Y-0.086 F400.000
G1 X0.853 Y0.026 F400.000
G1 X0.846 Y0.184 F400.000
G1 X0.778 Y0.395 F400.000
G1 X0.699 Y0.526 F400.000
G1 X0.617 Y0.628 F400.000
G1 X0.492 Y0.733 F400.000
G1 X0.346 Y0.816 F400.000
G1 X0.192 Y0.868 F400.000
G1 X0.030 Y0.887 F400.000
G1 X-0.113 Y0.880 F400.000
G1 X-0.267 Y0.846 F400.000
G1 X-0.425 Y0.782 F400.000
G1 X-0.575 Y0.684 F400.000
G1 X-0.692 Y0.564 F400.000
G1 X-0.771 Y0.447 F400.000
G1 X-0.838 Y0.308 F400.000
G1 X-0.883 Y0.139 F400.000
G1 X-0.895 Y-0.026 F400.000
G1 X-0.880 Y-0.188 F400.000
G1 X-0.835 Y-0.350 F400.000
G1 X-0.756 Y-0.496 F400.000
G1 X-0.665 Y-0.617 F400.000
G1 X-0.549 Y-0.729 F400.000
G1 X-0.395 Y-0.835 F400.000
G1 X-0.222 Y-0.914 F400.000
G1 X0.015 Y-0.951 F400.000
G1 X0.184 Y-0.951 F400.000
G1 X0.541 Y-0.857 F400.000
G1 X0.726 Y-0.748 F400.000
G1 X0.816 Y-0.658 F400.000
G1 X0.891 Y-0.564 F400.000
G1 X0.974 Y-0.429 F400.000
G1 X1.056 Y-0.222 F400.000
G1 X1.090 Y-0.023 F400.000
G1 X1.090 Y0.128 F400.000
G1 X1.064 Y0.286 F400.000
G1 X1.011 Y0.447 F400.000
G1 X0.925 Y0.624 F400.000
G1 X0.801 Y0.786 F400.000
G1 X0.673 Y0.902 F400.000
G1 X0.530 Y1.000 F400.000
G1 X0.365 Y1.071 F400.000
G1 X0.192 Y1.117 F400.000
G1 X0.015 Y1.132 F400.000
G1 X-0.158 Y1.124 F400.000
G1 X-0.353 Y1.086 F400.000
G1 X-0.538 Y1.011 F400.000
G1 X-0.684 Y0.921 F400.000
G1 X-0.820 Y0.805 F400.000
G1 X-0.936 Y0.665 F400.000
G1 X-1.034 Y0.500 F400.000
G1 X-1.102 Y0.327 F400.000
G1 X-1.143 Y0.147 F400.000
G1 X-1.154 Y-0.038 F400.000
G1 X-1.135 Y-0.218 F400.000
G1 X-1.086 Y-0.395 F400.000
G1 X-1.011 Y-0.560 F400.000
G1 X-0.914 Y-0.714 F400.000
G1 X-0.786 Y-0.868 F400.000
G1 X-0.624 Y-1.008 F400.000
G1 X-0.451 Y-1.105 F400.000
G1 X-0.293 Y-1.169 F400.000
G1 X-0.105 Y-1.211 F400.000
G1 X0.075 Y-1.229 F400.000
G1 X0.286 Y-1.214 F400.000
G1 X0.474 Y-1.173 F400.000
G1 X0.658 Y-1.102 F400.000
G1 X0.835 Y-1.000 F400.000
G1 X0.981 Y-0.868 F400.000
G1 X1.086 Y-0.744 F400.000
G1 X1.188 Y-0.590 F400.000
G1 X1.282 Y-0.391 F400.000
G1 X1.342 Y-0.188 F400.000
G1 X1.365 Y0.011 F400.000
G1 X1.361 Y0.184 F400.000
G1 X1.323 Y0.376 F400.000
G1 X1.263 Y0.556 F400.000
G1 X1.173 Y0.744 F400.000
G1 X1.049 Y0.925 F400.000
G1 X0.902 Y1.071 F400.000
G1 X0.763 Y1.180 F400.000
G1 X0.590 Y1.278 F400.000
G1 X0.395 Y1.357 F400.000
G1 X0.180 Y1.406 F400.000
G1 X-0.023 Y1.425 F400.000
G1 X-0.229 Y1.414 F400.000
G1 X-0.432 Y1.365 F400.000
G1 X-0.605 Y1.301 F400.000
G1 X-0.782 Y1.203 F400.000
G1 X-0.944 Y1.086 F400.000
G1 X-1.105 Y0.925 F400.000
G1 X-1.226 Y0.752 F400.000
G1 X-1.316 Y0.586 F400.000
G1 X-1.383 Y0.391 F400.000
G1 X-1.425 Y0.192 F400.000
G1 X-1.444 Y-0.019 F400.000
G1 X-1.429 Y-0.244 F400.000
G1 X-1.376 Y-0.451 F400.000
G1 X-1.308 Y-0.624 F400.000
G1 X-1.211 Y-0.805 F400.000
G1 X-1.075 Y-0.989 F400.000
G1 X-0.917 Y-1.154 F400.000
G1 X-0.737 Y-1.286 F400.000
G1 X-0.568 Y-1.380 F400.000
G1 X-0.365 Y-1.455 F400.000
G1 X-0.162 Y-1.500 F400.000
G1 X0.038 Y-1.523 F400.000
G1 X0.274 Y-1.519 F400.000
G1 X0.515 Y-1.481 F400.000
G1 X0.726 Y-1.402 F400.000
G1 X0.887 Y-1.323 F400.000
G1 X1.060 Y-1.199 F400.000
G1 X1.211 Y-1.064 F400.000
G1 X1.361 Y-0.883 F400.000
G1 X1.477 Y-0.699 F400.000
G1 X1.568 Y-0.500 F400.000
G1 X1.632 Y-0.286 F400.000
G1 X1.665 Y-0.068 F400.000
G1 X1.669 Y0.147 F400.000
G1 X1.643 Y0.365 F400.000
G1 X1.590 Y0.575 F400.000
G1 X1.508 Y0.774 F400.000
G1 X1.398 Y0.962 F400.000
G1 X1.263 Y1.135 F400.000
G1 X1.113 Y1.293 F400.000
G1 X0.921 Y1.440 F400.000
G1 X0.726 Y1.553 F400.000
G1 X0.515 Y1.643 F400.000
G1 X0.289 Y1.707 F400.000
G1 X0.060 Y1.733 F400.000
G1 X-0.147 Y1.733 F400.000
G1 X-0.368 Y1.703 F400.000
G1 X-0.583 Y1.647 F400.000
G1 X-0.805 Y1.556 F400.000
G1 X-1.004 Y1.444 F400.000
G1 X-1.184 Y1.305 F400.000
G1 X-1.346 Y1.135 F400.000
G1 X-1.470 Y0.970 F400.000
G1 X-1.575 Y0.774 F400.000
G1 X-1.662 Y0.571 F400.000
G1 X-1.729 Y0.320 F400.000
G1 X-1.763 Y0.086 F400.000
G1 X-1.767 Y-0.147 F400.000
G1 X-1.729 Y-0.387 F400.000
G1 X-1.677 Y-0.579 F400.000
G1 X-1.594 Y-0.789 F400.000
G1 X-1.474 Y-1.008 F400.000
G1 X-1.327 Y-1.207 F400.000
G1 X-1.158 Y-1.376 F400.000
G1 X-0.989 Y-1.508 F400.000
G1 X-0.789 Y-1.628 F400.000
G1 X-0.579 Y-1.722 F400.000
G1 X-0.338 Y-1.797 F400.000
G1 X-0.105 Y-1.838 F400.000
G1 X0.128 Y-1.857 F400.000
G1 X0.391 Y-1.842 F400.000
G1 X0.632 Y-1.786 F400.000
G1 X0.827 Y-1.722 F400.000
G1 X1.038 Y-1.617 F400.000
G1 X1.229 Y-1.492 F400.000
G1 X1.417 Y-1.331 F400.000
G1 X1.575 Y-1.154 F400.000
G1 X1.711 Y-0.962 F400.000
G1 X1.823 Y-0.748 F400.000
G1 X1.910 Y-0.523 F400.000
G1 X1.966 Y-0.289 F400.000
G1 X1.996 Y-0.049 F400.000
G1 X1.996 Y0.188 F400.000
G1 X1.966 Y0.425 F400.000
G1 X1.906 Y0.658 F400.000
G1 X1.823 Y0.883 F400.000
G1 X1.699 Y1.117 F400.000
G1 X1.556 Y1.320 F400.000
G1 X1.391 Y1.504 F400.000
G1 X1.203 Y1.669 F400.000
G1 X0.992 Y1.805 F400.000
G1 X0.801 Y1.898 F400.000
G1 X0.579 Y1.981 F400.000
G1 X0.327 Y2.041 F400.000
G1 X0.064 Y2.071 F400.000
G1 X-0.184 Y2.071 F400.000
G1 X-0.440 Y2.041 F400.000
G1 X-0.692 Y1.981 F400.000
G1 X-0.925 Y1.883 F400.000
G1 X-1.109 Y1.782 F400.000
G1 X-1.308 Y1.647 F400.000
G1 X-1.504 Y1.474 F400.000
G1 X-1.680 Y1.278 F400.000
G1 X-1.823 Y1.064 F400.000
G1 X-1.929 Y0.865 F400.000
G1 X-2.015 Y0.632 F400.000
G1 X-2.071 Y0.391 F400.000
G1 X-2.105 Y0.150 F400.000
G1 X-2.113 Y-0.117 F400.000
G1 X-2.086 Y-0.395 F400.000
G1 X-2.026 Y-0.650 F400.000
G1 X-1.951 Y-0.868 F400.000
G1 X-1.838 Y-1.098 F400.000
G1 X-1.699 Y-1.305 F400.000
G1 X-1.541 Y-1.492 F400.000
G1 X-1.361 Y-1.665 F400.000
G1 X-1.143 Y-1.827 F400.000
G1 X-0.921 Y-1.955 F400.000
G1 X-0.684 Y-2.060 F400.000
G1 X-0.432 Y-2.139 F400.000
G1 X-0.177 Y-2.188 F400.000
G1 X0.079 Y-2.207 F400.000
G1 X0.335 Y-2.203 F400.000
G1 X0.628 Y-2.162 F400.000
G1 X0.883 Y-2.079 F400.000
G1 X1.079 Y-1.996 F400.000
G1 X1.301 Y-1.868 F400.000
G1 X1.500 Y-1.726 F400.000
G1 X1.711 Y-1.534 F400.000
G1 X1.883 Y-1.335 F400.000
G1 X2.034 Y-1.120 F400.000
G1 X2.162 Y-0.880 F400.000
G1 X2.259 Y-0.635 F400.000
G1 X2.323 Y-0.376 F400.000
G1 X2.353 Y-0.150 F400.000
G1 X2.361 Y0.098 F400.000
G1 X2.342 Y0.365 F400.000
G1 X2.289 Y0.643 F400.000
G1 X2.211 Y0.898 F400.000
G1 X2.102 Y1.150 F400.000
G1 X1.966 Y1.387 F400.000
G1 X1.797 Y1.605 F400.000
G1 X1.635 Y1.778 F400.000
G1 X1.436 Y1.944 F400.000
G1 X1.222 Y2.086 F400.000
G1 X0.974 Y2.214 F400.000
G1 X0.726 Y2.316 F400.000
G1 X0.432 Y2.398 F400.000
G1 X0.150 Y2.436 F400.000
G1 X-0.079 Y2.447 F400.000
G1 X-0.346 Y2.432 F400.000
G1 X-0.624 Y2.380 F400.000
G1 X-0.872 Y2.305 F400.000
G1 X-1.120 Y2.199 F400.000
G1 X-1.353 Y2.064 F400.000
G1 X-1.568 Y1.910 F400.000
G1 X-1.767 Y1.729 F400.000
G1 X-1.947 Y1.526 F400.000
G1 X-2.102 Y1.305 F400.000
G1 X-2.233 Y1.068 F400.000
G1 X-2.338 Y0.816 F400.000
G1 X-2.414 Y0.556 F400.000
G1 X-2.466 Y0.289 F400.000
G1 X-2.489 Y-0.008 F400.000
G1 X-2.481 Y-0.282 F400.000
G1 X-2.436 Y-0.560 F400.000
G1 X-2.372 Y-0.789 F400.000
G1 X-2.274 Y-1.038 F400.000
G1 X-2.158 Y-1.274 F400.000
G1 X-1.985 Y-1.541 F400.000
G1 X-1.808 Y-1.759 F400.000
G1 X-1.598 Y-1.955 F400.000
G1 X-1.406 Y-2.102 F400.000
G1 X-1.180 Y-2.244 F400.000
G1 X-0.906 Y-2.380 F400.000
G1 X-0.617 Y-2.489 F400.000
G1 X-0.331 Y-2.556 F400.000
G1 X-0.079 Y-2.590 F400.000
G1 X0.199 Y-2.598 F400.000
G1 X0.470 Y-2.571 F400.000
G1 X0.729 Y-2.519 F400.000
G1 X0.989 Y-2.436 F400.000
G1 X1.241 Y-2.335 F400.000
G1 X1.519 Y-2.180 F400.000
G1 X1.752 Y-2.019 F400.000
G1 X1.966 Y-1.820 F400.000
G1 X2.124 Y-1.643 F400.000
G1 X2.289 Y-1.429 F400.000
G1 X2.455 Y-1.150 F400.000
G1 X2.583 Y-0.865 F400.000
G1 X2.662 Y-0.609 F400.000
G1 X2.711 Y-0.361 F400.000
G1 X2.741 Y-0.086 F400.000
G1 X2.737 Y0.203 F400.000
G1 X2.714 Y0.470 F400.000
G1 X2.647 Y0.797 F400.000
G1 X2.560 Y1.079 F400.000
G1 X2.436 Y1.346 F400.000
G1 X2.308 Y1.564 F400.000
G1 X2.139 Y1.789 F400.000
G1 X1.955 Y1.992 F400.000
G1 X1.726 Y2.199 F400.000
G1 X1.492 Y2.368 F400.000
G1 X1.241 Y2.515 F400.000
G1 X0.974 Y2.635 F400.000
G1 X0.699 Y2.729 F400.000
G1 X0.417 Y2.793 F400.000
G1 X0.124 Y2.827 F400.000
G1 X-0.162 Y2.831 F400.000
G1 X-0.451 Y2.805 F400.000
G1 X-0.737 Y2.752 F400.000
G1 X-1.011 Y2.669 F400.000
G1 X-1.282 Y2.556 F400.000
G1 X-1.538 Y2.417 F400.000
G1 X-1.774 Y2.256 F400.000
G1 X-1.992 Y2.056 F400.000
G1 X-2.162 Y1.872 F400.000
G1 X-2.331 Y1.658 F400.000
G1 X-2.508 Y1.380 F400.000
G1 X-2.658 Y1.083 F400.000
G1 X-2.763 Y0.789 F400.000
G1 X-2.831 Y0.530 F400.000
G1 X-2.876 Y0.229 F400.000
G1 X-2.887 Y-0.056 F400.000
G1 X-2.872 Y-0.338 F400.000
G1 X-2.827 Y-0.624 F400.000
G1 X-2.752 Y-0.902 F400.000
G1 X-2.647 Y-1.173 F400.000
G1 X-2.523 Y-1.432 F400.000
G1 X-2.342 Y-1.718 F400.000
G1 X-2.158 Y-1.959 F400.000
G1 X-1.944 Y-2.177 F400.000
G1 X-1.741 Y-2.350 F400.000
G1 X-1.504 Y-2.519 F400.000
G1 X-1.218 Y-2.673 F400.000
G1 X-0.951 Y-2.789 F400.000
G1 X-0.665 Y-2.883 F400.000
G1 X-0.365 Y-2.947 F400.000
G1 X-0.068 Y-2.981 F400.000
G1 X0.229 Y-2.985 F400.000
G1 X0.526 Y-2.959 F400.000
G1 X0.820 Y-2.902 F400.000
G1 X1.105 Y-2.816 F400.000
G1 X1.383 Y-2.703 F400.000
G1 X1.650 Y-2.564 F400.000
G1 X1.898 Y-2.398 F400.000
G1 X2.132 Y-2.207 F400.000
G1 X2.346 Y-1.992 F400.000
G1 X2.538 Y-1.759 F400.000
G1 X2.711 Y-1.511 F400.000
G1 X2.872 Y-1.218 F400.000
G1 X2.985 Y-0.925 F400.000
G1 X3.060 Y-0.677 F400.000
G1 X3.113 Y-0.383 F400.000
G1 X3.139 Y-0.098 F400.000
G1 X3.143 Y0.226 F400.000
G1 X3.113 Y0.564 F400.000
G1 X3.056 Y0.872 F400.000
G1 X2.955 Y1.184 F400.000
G1 X2.853 Y1.429 F400.000
G1 X2.711 Y1.692 F400.000
G1 X2.541 Y1.936 F400.000
G1 X2.357 Y2.154 F400.000
G1 X2.150 Y2.361 F400.000
G1 X1.891 Y2.583 F400.000
G1 X1.598 Y2.786 F400.000
G1 X1.308 Y2.940 F400.000
G1 X1.049 Y3.053 F400.000
G1 X0.744 Y3.150 F400.000
G1 X0.440 Y3.214 F400.000
G1 X0.139 Y3.248 F400.000
G1 X-0.165 Y3.252 F400.000
G1 X-0.466 Y3.226 F400.000
G1 X-0.763 Y3.173 F400.000
G1 X-1.060 Y3.090 F400.000
G1 X-1.346 Y2.977 F400.000
G1 X-1.620 Y2.838 F400.000
G1 X-1.880 Y2.673 F400.000
G1 X-2.120 Y2.481 F400.000
G1 X-2.342 Y2.267 F400.000
G1 X-2.549 Y2.038 F400.000
G1 X-2.763 Y1.744 F400.000
G1 X-2.932 Y1.466 F400.000
G1 X-3.068 Y1.162 F400.000
G1 X-3.158 Y0.906 F400.000
G1 X-3.229 Y0.609 F400.000
G1 X-3.274 Y0.312 F400.000
G1 X-3.293 Y-0.023 F400.000
G1 X-3.278 Y-0.331 F400.000
G1 X-3.237 Y-0.643 F400.000
G1 X-3.162 Y-0.955 F400.000
G1 X-3.060 Y-1.252 F400.000
G1 X-2.932 Y-1.545 F400.000
G1 X-2.774 Y-1.823 F400.000
G1 X-2.594 Y-2.086 F400.000
G1 X-2.387 Y-2.331 F400.000
G1 X-2.154 Y-2.549 F400.000
G1 X-1.940 Y-2.714 F400.000
G1 X-1.692 Y-2.883 F400.000
G1 X-1.365 Y-3.064 F400.000
G1 X-1.041 Y-3.207 F400.000
G1 X-0.711 Y-3.301 F400.000
G1 X-0.451 Y-3.353 F400.000
G1 X-0.135 Y-3.387 F400.000
G1 X0.165 Y-3.398 F400.000
G1 X0.534 Y-3.376 F400.000
G1 X0.857 Y-3.327 F400.000
G1 X1.173 Y-3.237 F400.000
G1 X1.429 Y-3.139 F400.000
G1 X1.707 Y-3.008 F400.000
G1 X2.008 Y-2.831 F400.000
G1 X2.289 Y-2.628 F400.000
G1 X2.534 Y-2.402 F400.000
G1 X2.722 Y-2.199 F400.000
G1 X2.914 Y-1.947 F400.000
G1 X3.083 Y-1.688 F400.000
G1 X3.256 Y-1.357 F400.000
G1 X3.383 Y-1.049 F400.000
G1 X3.474 Y-0.726 F400.000
G1 X3.526 Y-0.451 F400.000
G1 X3.560 Y-0.139 F400.000
G1 X3.568 Y0.199 F400.000
G1 X3.541 Y0.553 F400.000
G1 X3.489 Y0.887 F400.000
G1 X3.391 Y1.218 F400.000
G1 X3.293 Y1.470 F400.000
G1 X3.154 Y1.748 F400.000
G1 X2.996 Y2.008 F400.000
G1 X2.793 Y2.289 F400.000
G1 X2.556 Y2.560 F400.000
G1 X2.316 Y2.793 F400.000
G1 X2.041 Y3.004 F400.000
G1 X1.793 Y3.162 F400.000
G1 X1.508 Y3.316 F400.000
G1 X1.169 Y3.455 F400.000
G1 X0.861 Y3.553 F400.000
G1 X0.530 Y3.628 F400.000
G1 X0.188 Y3.673 F400.000
G1 X-0.143 Y3.677 F400.000
G1 X-0.417 Y3.658 F400.000
G1 X-0.729 Y3.613 F400.000
G1 X-1.071 Y3.534 F400.000
G1 X-1.425 Y3.417 F400.000
G1 X-1.733 Y3.263 F400.000
