(Exported by FreeCAD)
(Post Processor: grbl_post)
(Output Time:2024-03-03 18:22:32.163174)
(Begin preamble)
G17 G90
G21
(Block-name: Fixture)
(Block-expand: 0)
(Block-enable: 1)
(Begin operation: Fixture)
(Path: Fixture)
G54
(Finish operation: Fixture)
(Block-name: 3mm Endmill001)
(Block-expand: 0)
(Block-enable: 1)
(Begin operation: 3mm Endmill001)
(Path: 3mm Endmill001)
(3mm Endmill001)
(Begin toolchange)
( M6 T3 )
M3 S8000
(Finish operation: 3mm Endmill001)
(Block-name: Adaptive_MillFace)
(Block-expand: 0)
(Block-enable: 1)
(Begin operation: Adaptive_MillFace)
(Path: Adaptive_MillFace)
(Adaptive_MillFace)
(Helix to depth: 0.000000)
G0 Z6.000
G0 X0.899 Y0.659 Z6.000
G0 X0.899 Y0.659 Z4.000
G1 X0.899 Y0.659 Z1.000 F400.000
G1 X0.899 Y0.659 Z1.000 F400.000
G1 X0.753 Y0.822 Z0.981 F400.000
G1 X0.578 Y0.953 Z0.961 F400.000
G1 X0.381 Y1.047 Z0.942 F400.000
G1 X0.169 Y1.101 Z0.923 F400.000
G1 X-0.049 Y1.113 Z0.903 F400.000
G1 X-0.265 Y1.082 Z0.884 F400.000
G1 X-0.471 Y1.010 Z0.865 F400.000
G1 X-0.659 Y0.899 Z0.845 F400.000
G1 X-0.822 Y0.753 Z0.826 F400.000
G1 X-0.953 Y0.578 Z0.807 F400.000
G1 X-1.047 Y0.381 Z0.788 F400.000
G1 X-1.101 Y0.169 Z0.768 F400.000
G1 X-1.113 Y-0.049 Z0.749 F400.000
G1 X-1.082 Y-0.265 Z0.730 F400.000
G1 X-1.010 Y-0.471 Z0.710 F400.000
G1 X-0.899 Y-0.659 Z0.691 F400.000
G1 X-0.753 Y-0.822 Z0.672 F400.000
G1 X-0.578 Y-0.953 Z0.652 F400.000
G1 X-0.381 Y-1.047 Z0.633 F400.000
G1 X-0.169 Y-1.101 Z0.614 F400.000
G1 X0.049 Y-1.113 Z0.594 F400.000
G1 X0.265 Y-1.082 Z0.575 F400.000
G1 X0.471 Y-1.010 Z0.556 F400.000
G1 X0.659 Y-0.899 Z0.536 F400.000
G1 X0.822 Y-0.753 Z0.517 F400.000
G1 X0.953 Y-0.578 Z0.498 F400.000
G1 X1.047 Y-0.381 Z0.479 F400.000
G1 X1.101 Y-0.169 Z0.459 F400.000
G1 X1.113 Y0.049 Z0.440 F400.000
G1 X1.082 Y0.265 Z0.421 F400.000
G1 X1.010 Y0.471 Z0.401 F400.000
G1 X0.899 Y0.659 Z0.382 F400.000
G1 X0.753 Y0.822 Z0.363 F400.000
G1 X0.578 Y0.953 Z0.343 F400.000
G1 X0.381 Y1.047 Z0.324 F400.000
G1 X0.169 Y1.101 Z0.305 F400.000
G1 X-0.049 Y1.113 Z0.285 F400.000
G1 X-0.265 Y1.082 Z0.266 F400.000
G1 X-0.471 Y1.010 Z0.247 F400.000
G1 X-0.659 Y0.899 Z0.227 F400.000
G1 X-0.822 Y0.753 Z0.208 F400.000
G1 X-0.953 Y0.578 Z0.189 F400.000
G1 X-1.047 Y0.381 Z0.170 F400.000
G1 X-1.101 Y0.169 Z0.150 F400.000
G1 X-1.113 Y-0.049 Z0.131 F400.000
G1 X-1.082 Y-0.265 Z0.112 F400.000
G1 X-1.010 Y-0.471 Z0.092 F400.000
G1 X-0.899 Y-0.659 Z0.073 F400.000
G1 X-0.753 Y-0.822 Z0.054 F400.000
G1 X-0.578 Y-0.953 Z0.034 F400.000
G1 X-0.381 Y-1.047 Z0.015 F400.000
G1 X-0.169 Y-1.101 Z0.000 F400.000
G1 X0.049 Y-1.113 Z0.000 F400.000
G1 X0.265 Y-1.082 Z0.000 F400.000
G1 X0.471 Y-1.010 Z0.000 F400.000
G1 X0.659 Y-0.899 Z0.000 F400.000
G1 X0.822 Y-0.753 Z0.000 F400.000
G1 X0.953 Y-0.578 Z0.000 F400.000
G1 X1.047 Y-0.381 Z0.000 F400.000
G1 X1.101 Y-0.169 Z0.000 F400.000
G1 X1.113 Y0.049 Z0.000 F400.000
G1 X1.082 Y0.265 Z0.000 F400.000
G1 X1.010 Y0.471 Z0.000 F400.000
G1 X0.899 Y0.659 Z0.000 F400.000
G1 X0.753 Y0.822 Z0.000 F400.000
G1 X0.578 Y0.953 Z0.000 F400.000
G1 X0.381 Y1.047 Z0.000 F400.000
G1 X0.169 Y1.101 Z0.000 F400.000
G1 X-0.049 Y1.113 Z0.000 F400.000
G1 X-0.265 Y1.082 Z0.000 F400.000
G1 X-0.471 Y1.010 Z0.000 F400.000
G1 X-0.659 Y0.899 Z0.000 F400.000
G1 X-0.822 Y0.753 Z0.000 F400.000
G1 X-0.953 Y0.578 Z0.000 F400.000
G1 X-1.047 Y0.381 Z0.000 F400.000
G1 X-1.101 Y0.169 Z0.000 F400.000
G1 X-1.113 Y-0.049 Z0.000 F400.000
G1 X-1.082 Y-0.265 Z0.000 F400.000
G1 X-1.010 Y-0.471 Z0.000 F400.000
G1 X-0.899 Y-0.659 Z0.000 F400.000
G1 X-0.753 Y-0.822 Z0.000 F400.000
G1 X-0.578 Y-0.953 Z0.000 F400.000
G1 X-0.381 Y-1.047 Z0.000 F400.000
(Adaptive - depth: 0.000000)
G1 X0.000 Y-1.124 F400.000
G1 X0.062 Y-1.186 F400.000
G1 X0.136 Y-1.232 F400.000
G1 X0.299 Y-1.277 F400.000
G1 X0.469 Y-1.282 F400.000
G1 X0.723 Y-1.220 F400.000
G1 X1.051 Y-1.045 F400.000
G1 X1.282 Y-0.814 F400.000
G1 X1.384 Y-0.644 F400.000
G1 X1.458 Y-0.469 F400.000
G1 X1.520 Y-0.249 F400.000
G1 X1.559 Y0.034 F400.000
G1 X1.542 Y0.345 F400.000
G1 X1.469 Y0.605 F400.000
G1 X1.373 Y0.808 F400.000
G1 X1.232 Y1.000 F400.000
G1 X1.062 Y1.175 F400.000
G1 X0.819 Y1.350 F400.000
G1 X0.582 Y1.463 F400.000
G1 X0.328 Y1.542 F400.000
G1 X0.056 Y1.576 F400.000
G1 X-0.203 Y1.565 F400.000
G1 X-0.463 Y1.508 F400.000
G1 X-0.718 Y1.418 F400.000
G1 X-0.977 Y1.254 F400.000
G1 X-1.158 Y1.090 F400.000
G1 X-1.305 Y0.904 F400.000
G1 X-1.441 Y0.678 F400.000
G1 X-1.542 Y0.401 F400.000
G1 X-1.582 Y0.136 F400.000
G1 X-1.582 Y-0.102 F400.000
G1 X-1.537 Y-0.362 F400.000
G1 X-1.463 Y-0.605 F400.000
G1 X-1.322 Y-0.881 F400.000
G1 X-1.147 Y-1.096 F400.000
G1 X-0.966 Y-1.266 F400.000
G1 X-0.746 Y-1.435 F400.000
G1 X-0.441 Y-1.621 F400.000
G1 X-0.079 Y-1.718 F400.000
G1 X0.429 Y-1.757 F400.000
G1 X0.797 Y-1.695 F400.000
G1 X1.141 Y-1.559 F400.000
G1 X1.362 Y-1.412 F400.000
G1 X1.525 Y-1.254 F400.000
G1 X1.678 Y-1.079 F400.000
G1 X1.847 Y-0.825 F400.000
G1 X1.977 Y-0.503 F400.000
G1 X2.045 Y-0.220 F400.000
G1 X2.073 Y0.051 F400.000
G1 X2.056 Y0.345 F400.000
G1 X1.994 Y0.621 F400.000
G1 X1.898 Y0.893 F400.000
G1 X1.740 Y1.175 F400.000
G1 X1.559 Y1.412 F400.000
G1 X1.345 Y1.627 F400.000
G1 X1.090 Y1.808 F400.000
G1 X0.819 Y1.949 F400.000
G1 X0.531 Y2.051 F400.000
G1 X0.232 Y2.107 F400.000
G1 X-0.068 Y2.119 F400.000
G1 X-0.367 Y2.090 F400.000
G1 X-0.661 Y2.017 F400.000
G1 X-0.944 Y1.898 F400.000
G1 X-1.203 Y1.740 F400.000
G1 X-1.446 Y1.554 F400.000
G1 X-1.695 Y1.294 F400.000
G1 X-1.864 Y1.017 F400.000
G1 X-1.977 Y0.785 F400.000
G1 X-2.062 Y0.492 F400.000
G1 X-2.107 Y0.198 F400.000
G1 X-2.113 Y-0.130 F400.000
G1 X-2.073 Y-0.435 F400.000
G1 X-1.989 Y-0.734 F400.000
G1 X-1.859 Y-1.023 F400.000
G1 X-1.695 Y-1.282 F400.000
G1 X-1.503 Y-1.525 F400.000
G1 X-1.237 Y-1.774 F400.000
G1 X-0.972 Y-1.966 F400.000
G1 X-0.678 Y-2.124 F400.000
G1 X-0.356 Y-2.243 F400.000
G1 X-0.028 Y-2.305 F400.000
G1 X0.260 Y-2.328 F400.000
G1 X0.576 Y-2.322 F400.000
G1 X0.938 Y-2.254 F400.000
G1 X1.249 Y-2.130 F400.000
G1 X1.486 Y-2.000 F400.000
G1 X1.723 Y-1.836 F400.000
G1 X1.983 Y-1.599 F400.000
G1 X2.215 Y-1.311 F400.000
G1 X2.379 Y-1.017 F400.000
G1 X2.492 Y-0.751 F400.000
G1 X2.588 Y-0.435 F400.000
G1 X2.633 Y-0.068 F400.000
G1 X2.633 Y0.249 F400.000
G1 X2.593 Y0.582 F400.000
G1 X2.503 Y0.910 F400.000
G1 X2.379 Y1.215 F400.000
G1 X2.209 Y1.508 F400.000
G1 X2.000 Y1.774 F400.000
G1 X1.768 Y2.023 F400.000
G1 X1.475 Y2.254 F400.000
G1 X1.175 Y2.435 F400.000
G1 X0.847 Y2.571 F400.000
G1 X0.548 Y2.655 F400.000
G1 X0.209 Y2.701 F400.000
G1 X-0.124 Y2.701 F400.000
G1 X-0.446 Y2.667 F400.000
G1 X-0.808 Y2.576 F400.000
G1 X-1.136 Y2.452 F400.000
G1 X-1.446 Y2.288 F400.000
G1 X-1.740 Y2.079 F400.000
G1 X-2.000 Y1.836 F400.000
G1 X-2.220 Y1.554 F400.000
G1 X-2.384 Y1.282 F400.000
G1 X-2.520 Y0.972 F400.000
G1 X-2.621 Y0.655 F400.000
G1 X-2.684 Y0.288 F400.000
G1 X-2.701 Y-0.056 F400.000
G1 X-2.678 Y-0.407 F400.000
G1 X-2.605 Y-0.757 F400.000
G1 X-2.492 Y-1.090 F400.000
G1 X-2.339 Y-1.412 F400.000
G1 X-2.141 Y-1.718 F400.000
G1 X-1.910 Y-1.989 F400.000
G1 X-1.650 Y-2.232 F400.000
G1 X-1.356 Y-2.441 F400.000
G1 X-1.051 Y-2.621 F400.000
G1 X-0.706 Y-2.763 F400.000
G1 X-0.345 Y-2.864 F400.000
G1 X0.017 Y-2.932 F400.000
G1 X0.384 Y-2.949 F400.000
G1 X0.751 Y-2.927 F400.000
G1 X1.113 Y-2.842 F400.000
G1 X1.407 Y-2.740 F400.000
G1 X1.723 Y-2.582 F400.000
G1 X2.017 Y-2.390 F400.000
G1 X2.299 Y-2.147 F400.000
G1 X2.542 Y-1.876 F400.000
G1 X2.751 Y-1.582 F400.000
G1 X2.932 Y-1.260 F400.000
G1 X3.073 Y-0.915 F400.000
G1 X3.175 Y-0.554 F400.000
G1 X3.237 Y-0.186 F400.000
G1 X3.254 Y0.181 F400.000
G1 X3.232 Y0.548 F400.000
G1 X3.153 Y0.910 F400.000
G1 X3.045 Y1.232 F400.000
G1 X2.893 Y1.571 F400.000
G1 X2.706 Y1.893 F400.000
G1 X2.480 Y2.192 F400.000
G1 X2.226 Y2.463 F400.000
G1 X1.944 Y2.706 F400.000
G1 X1.633 Y2.915 F400.000
G1 X1.294 Y3.079 F400.000
G1 X0.972 Y3.198 F400.000
G1 X0.605 Y3.282 F400.000
G1 X0.232 Y3.322 F400.000
G1 X-0.130 Y3.333 F400.000
G1 X-0.497 Y3.294 F400.000
G1 X-0.859 Y3.215 F400.000
G1 X-1.209 Y3.102 F400.000
G1 X-1.548 Y2.944 F400.000
G1 X-1.870 Y2.763 F400.000
G1 X-2.169 Y2.542 F400.000
G1 X-2.435 Y2.282 F400.000
G1 X-2.667 Y2.011 F400.000
G1 X-2.876 Y1.701 F400.000
G1 X-3.045 Y1.367 F400.000
G1 X-3.181 Y1.017 F400.000
G1 X-3.271 Y0.655 F400.000
G1 X-3.322 Y0.282 F400.000
G1 X-3.339 Y-0.085 F400.000
G1 X-3.311 Y-0.452 F400.000
G1 X-3.243 Y-0.819 F400.000
G1 X-3.141 Y-1.175 F400.000
G1 X-3.000 Y-1.520 F400.000
G1 X-2.819 Y-1.847 F400.000
G1 X-2.610 Y-2.153 F400.000
G1 X-2.367 Y-2.435 F400.000
G1 X-2.096 Y-2.689 F400.000
G1 X-1.797 Y-2.915 F400.000
G1 X-1.475 Y-3.107 F400.000
G1 X-1.141 Y-3.277 F400.000
G1 X-0.797 Y-3.418 F400.000
G1 X-0.435 Y-3.520 F400.000
G1 X-0.062 Y-3.576 F400.000
G1 X0.305 Y-3.605 F400.000
G1 X0.672 Y-3.593 F400.000
G1 X1.040 Y-3.537 F400.000
G1 X1.395 Y-3.435 F400.000
G1 X1.734 Y-3.299 F400.000
G1 X2.062 Y-3.124 F400.000
G1 X2.373 Y-2.921 F400.000
G1 X2.661 Y-2.684 F400.000
G1 X2.921 Y-2.418 F400.000
G1 X3.153 Y-2.124 F400.000
G1 X3.362 Y-1.814 F400.000
G1 X3.537 Y-1.480 F400.000
G1 X3.678 Y-1.136 F400.000
G1 X3.791 Y-0.780 F400.000
G1 X3.864 Y-0.412 F400.000
G1 X3.904 Y-0.040 F400.000
G1 X3.910 Y0.328 F400.000
G1 X3.881 Y0.695 F400.000
G1 X3.802 Y1.056 F400.000
G1 X3.689 Y1.412 F400.000
G1 X3.542 Y1.751 F400.000
G1 X3.367 Y2.079 F400.000
G1 X3.158 Y2.384 F400.000
G1 X2.927 Y2.678 F400.000
G1 X2.667 Y2.949 F400.000
G1 X2.384 Y3.192 F400.000
G1 X2.085 Y3.412 F400.000
G1 X1.751 Y3.588 F400.000
G1 X1.407 Y3.740 F400.000
G1 X1.051 Y3.853 F400.000
G1 X0.684 Y3.938 F400.000
G1 X0.311 Y3.983 F400.000
G1 X-0.056 Y3.994 F400.000
G1 X-0.424 Y3.972 F400.000
G1 X-0.791 Y3.910 F400.000
G1 X-1.153 Y3.831 F400.000
G1 X-1.503 Y3.712 F400.000
G1 X-1.842 Y3.565 F400.000
G1 X-2.158 Y3.373 F400.000
G1 X-2.463 Y3.158 F400.000
G1 X-2.740 Y2.910 F400.000
G1 X-3.000 Y2.644 F400.000
G1 X-3.232 Y2.350 F400.000
G1 X-3.441 Y2.040 F400.000
G1 X-3.621 Y1.712 F400.000
G1 X-3.768 Y1.367 F400.000
G1 X-3.887 Y1.011 F400.000
G1 X-3.949 Y0.644 F400.000
G1 X-3.983 Y0.282 F400.000
G1 X-4.000 Y-0.085 F400.000
G1 X-3.983 Y-0.452 F400.000
G1 X-3.932 Y-0.819 F400.000
G1 X-3.853 Y-1.181 F400.000
G1 X-3.723 Y-1.531 F400.000
G1 X-3.571 Y-1.870 F400.000
G1 X-3.390 Y-2.192 F400.000
G1 X-3.175 Y-2.497 F400.000
G1 X-2.944 Y-2.785 F400.000
G1 X-2.678 Y-3.051 F400.000
G1 X-2.390 Y-3.294 F400.000
G1 X-2.085 Y-3.514 F400.000
G1 X-1.768 Y-3.718 F400.000
G1 X-1.435 Y-3.887 F400.000
G1 X-1.090 Y-4.034 F400.000
G1 X-0.734 Y-4.153 F400.000
G1 X-0.367 Y-4.220 F400.000
G1 X0.000 Y-4.271 F400.000
G1 X0.367 Y-4.288 F400.000
G1 X0.734 Y-4.266 F400.000
G1 X1.102 Y-4.215 F400.000
G1 X1.463 Y-4.124 F400.000
G1 X1.814 Y-4.000 F400.000
G1 X2.153 Y-3.847 F400.000
G1 X2.475 Y-3.667 F400.000
G1 X2.780 Y-3.452 F400.000
G1 X3.068 Y-3.215 F400.000
G1 X3.339 Y-2.960 F400.000
G1 X3.582 Y-2.678 F400.000
G1 X3.802 Y-2.379 F400.000
G1 X4.000 Y-2.062 F400.000
G1 X4.169 Y-1.729 F400.000
G1 X4.311 Y-1.384 F400.000
G1 X4.424 Y-1.028 F400.000
G1 X4.503 Y-0.661 F400.000
G1 X4.554 Y-0.288 F400.000
G1 X4.576 Y0.079 F400.000
G1 X4.565 Y0.446 F400.000
G1 X4.525 Y0.814 F400.000
G1 X4.452 Y1.175 F400.000
G1 X4.350 Y1.531 F400.000
G1 X4.220 Y1.876 F400.000
G1 X4.062 Y2.209 F400.000
G1 X3.876 Y2.531 F400.000
G1 X3.661 Y2.836 F400.000
G1 X3.424 Y3.124 F400.000
G1 X3.169 Y3.395 F400.000
G1 X2.893 Y3.644 F400.000
G1 X2.599 Y3.870 F400.000
G1 X2.282 Y4.068 F400.000
G1 X1.949 Y4.243 F400.000
G1 X1.605 Y4.390 F400.000
G1 X1.249 Y4.503 F400.000
G1 X0.881 Y4.588 F400.000
G1 X0.508 Y4.638 F400.000
G1 X0.136 Y4.661 F400.000
G1 X-0.232 Y4.661 F400.000
G1 X-0.599 Y4.627 F400.000
G1 X-0.966 Y4.565 F400.000
G1 X-1.328 Y4.480 F400.000
G1 X-1.678 Y4.362 F400.000
G1 X-2.023 Y4.220 F400.000
G1 X-2.356 Y4.051 F400.000
G1 X-2.672 Y3.859 F400.000
G1 X-2.966 Y3.627 F400.000
G1 X-3.243 Y3.379 F400.000
G1 X-3.497 Y3.107 F400.000
G1 X-3.734 Y2.819 F400.000
G1 X-3.944 Y2.508 F400.000
G1 X-4.130 Y2.186 F400.000
G1 X-4.294 Y1.853 F400.000
G1 X-4.429 Y1.503 F400.000
G1 X-4.542 Y1.147 F400.000
G1 X-4.627 Y0.780 F400.000
G1 X-4.684 Y0.407 F400.000
G1 X-4.695 Y0.034 F400.000
G1 X-4.684 Y-0.333 F400.000
G1 X-4.638 Y-0.701 F400.000
G1 X-4.576 Y-1.068 F400.000
G1 X-4.480 Y-1.424 F400.000
G1 X-4.356 Y-1.774 F400.000
G1 X-4.209 Y-2.113 F400.000
G1 X-4.034 Y-2.441 F400.000
G1 X-3.836 Y-2.757 F400.000
G1 X-3.616 Y-3.056 F400.000
G1 X-3.373 Y-3.339 F400.000
G1 X-3.113 Y-3.605 F400.000
G1 X-2.831 Y-3.847 F400.000
G1 X-2.531 Y-4.073 F400.000
G1 X-2.215 Y-4.277 F400.000
G1 X-1.887 Y-4.452 F400.000
G1 X-1.548 Y-4.605 F400.000
G1 X-1.198 Y-4.734 F400.000
G1 X-0.836 Y-4.836 F400.000
G1 X-0.469 Y-4.910 F400.000
G1 X-0.096 Y-4.955 F400.000
G1 X0.271 Y-4.972 F400.000
G1 X0.638 Y-4.966 F400.000
G1 X1.006 Y-4.932 F400.000
G1 X1.373 Y-4.870 F400.000
G1 X1.734 Y-4.780 F400.000
G1 X2.085 Y-4.661 F400.000
G1 X2.418 Y-4.497 F400.000
G1 X2.740 Y-4.316 F400.000
G1 X3.051 Y-4.113 F400.000
G1 X3.350 Y-3.893 F400.000
G1 X3.633 Y-3.650 F400.000
G1 X3.898 Y-3.390 F400.000
G1 X4.147 Y-3.113 F400.000
G1 X4.373 Y-2.814 F400.000
G1 X4.565 Y-2.492 F400.000
G1 X4.740 Y-2.164 F400.000
G1 X4.887 Y-1.819 F400.000
G1 X5.017 Y-1.469 F400.000
G1 X5.119 Y-1.107 F400.000
G1 X5.192 Y-0.740 F400.000
G1 X5.271 Y0.000 F400.000
G1 X5.271 Y0.367 F400.000
G1 X5.249 Y0.734 F400.000
G1 X5.186 Y1.102 F400.000
G1 X5.107 Y1.463 F400.000
G1 X4.994 Y1.819 F400.000
G1 X4.853 Y2.164 F400.000
G1 X4.514 Y2.825 F400.000
G1 X4.305 Y3.136 F400.000
G1 X4.079 Y3.429 F400.000
G1 X3.836 Y3.712 F400.000
G1 X3.571 Y3.977 F400.000
G1 X3.288 Y4.226 F400.000
G1 X2.994 Y4.452 F400.000
G1 X2.684 Y4.661 F400.000
G1 X2.350 Y4.836 F400.000
G1 X2.011 Y4.994 F400.000
G1 X1.661 Y5.124 F400.000
G1 X1.299 Y5.220 F400.000
G1 X0.932 Y5.294 F400.000
G1 X0.559 Y5.345 F400.000
G1 X0.186 Y5.367 F400.000
G1 X-0.181 Y5.362 F400.000
G1 X-0.915 Y5.294 F400.000
G1 X-1.277 Y5.226 F400.000
G1 X-1.638 Y5.136 F400.000
G1 X-1.989 Y5.006 F400.000
G1 X-2.333 Y4.859 F400.000
G1 X-2.667 Y4.689 F400.000
G1 X-2.983 Y4.492 F400.000
G1 X-3.288 Y4.277 F400.000
G1 X-3.576 Y4.040 F400.000
G1 X-3.842 Y3.780 F400.000
G1 X-4.090 Y3.503 F400.000
G1 X-4.531 Y2.904 F400.000
G1 X-4.723 Y2.582 F400.000
G1 X-4.893 Y2.249 F400.000
G1 X-5.045 Y1.904 F400.000
G1 X-5.169 Y1.554 F400.000
G1 X-5.271 Y1.192 F400.000
G1 X-5.350 Y0.825 F400.000
G1 X-5.384 Y0.452 F400.000
G1 X-5.401 Y0.079 F400.000
G1 X-5.395 Y-0.288 F400.000
G1 X-5.367 Y-0.655 F400.000
G1 X-5.311 Y-1.023 F400.000
G1 X-5.237 Y-1.384 F400.000
G1 X-5.141 Y-1.740 F400.000
G1 X-5.006 Y-2.085 F400.000
G1 X-4.853 Y-2.424 F400.000
G1 X-4.678 Y-2.751 F400.000
G1 X-4.486 Y-3.068 F400.000
G1 X-4.271 Y-3.373 F400.000
G1 X-4.040 Y-3.661 F400.000
G1 X-3.791 Y-3.938 F400.000
G1 X-3.520 Y-4.198 F400.000
G1 X-3.237 Y-4.441 F400.000
G1 X-2.938 Y-4.667 F400.000
G1 X-2.627 Y-4.870 F400.000
G1 X-2.299 Y-5.056 F400.000
G1 X-1.960 Y-5.220 F400.000
G1 X-1.616 Y-5.362 F400.000
G1 X-1.260 Y-5.480 F400.000
G1 X-0.898 Y-5.576 F400.000
G1 X-0.525 Y-5.633 F400.000
G1 X0.215 Y-5.701 F400.000
G1 X0.582 Y-5.701 F400.000
G1 X0.949 Y-5.678 F400.000
G1 X1.316 Y-5.621 F400.000
G1 X1.678 Y-5.548 F400.000
G1 X2.034 Y-5.446 F400.000
G1 X2.379 Y-5.305 F400.000
G1 X2.718 Y-5.147 F400.000
G1 X3.045 Y-4.972 F400.000
G1 X3.362 Y-4.774 F400.000
G1 X3.667 Y-4.559 F400.000
G1 X3.955 Y-4.328 F400.000
G1 X4.232 Y-4.079 F400.000
G1 X4.492 Y-3.814 F400.000
G1 X4.734 Y-3.531 F400.000
G1 X4.960 Y-3.232 F400.000
G1 X5.153 Y-2.910 F400.000
G1 X5.328 Y-2.582 F400.000
G1 X5.480 Y-2.237 F400.000
G1 X5.616 Y-1.887 F400.000
G1 X5.729 Y-1.531 F400.000
G1 X5.898 Y-0.797 F400.000
G1 X5.949 Y-0.424 F400.000
G1 X5.983 Y-0.051 F400.000
G1 X5.983 Y0.316 F400.000
G1 X5.966 Y0.684 F400.000
G1 X5.921 Y1.051 F400.000
G1 X5.853 Y1.412 F400.000
G1 X5.763 Y1.774 F400.000
G1 X5.650 Y2.124 F400.000
G1 X5.508 Y2.469 F400.000
G1 X5.350 Y2.802 F400.000
G1 X5.169 Y3.124 F400.000
G1 X4.966 Y3.435 F400.000
G1 X4.514 Y4.028 F400.000
G1 X4.260 Y4.299 F400.000
G1 X3.994 Y4.559 F400.000
G1 X3.718 Y4.808 F400.000
G1 X3.424 Y5.040 F400.000
G1 X2.785 Y5.424 F400.000
G1 X2.446 Y5.588 F400.000
G1 X2.096 Y5.723 F400.000
G1 X1.740 Y5.842 F400.000
G1 X1.379 Y5.932 F400.000
G1 X1.011 Y6.000 F400.000
G1 X0.638 Y6.045 F400.000
G1 X-0.102 Y6.073 F400.000
G1 X-0.469 Y6.068 F400.000
G1 X-0.836 Y6.040 F400.000
G1 X-1.565 Y5.915 F400.000
G1 X-1.927 Y5.819 F400.000
G1 X-2.277 Y5.701 F400.000
G1 X-2.949 Y5.384 F400.000
G1 X-3.266 Y5.192 F400.000
G1 X-3.571 Y4.977 F400.000
G1 X-4.141 Y4.503 F400.000
G1 X-4.401 Y4.237 F400.000
G1 X-4.644 Y3.955 F400.000
G1 X-5.085 Y3.356 F400.000
G1 X-5.288 Y3.045 F400.000
G1 X-5.475 Y2.718 F400.000
G1 X-5.780 Y2.034 F400.000
G1 X-5.904 Y1.684 F400.000
G1 X-6.062 Y0.949 F400.000
G1 X-6.107 Y0.576 F400.000
G1 X-6.124 Y0.203 F400.000
G1 X-6.102 Y-0.531 F400.000
G1 X-6.068 Y-0.898 F400.000
G1 X-6.011 Y-1.266 F400.000
G1 X-5.819 Y-1.983 F400.000
G1 X-5.695 Y-2.333 F400.000
G1 X-5.548 Y-2.672 F400.000
G1 X-5.384 Y-3.006 F400.000
G1 X-5.198 Y-3.328 F400.000
G1 X-4.994 Y-3.638 F400.000
G1 X-4.768 Y-3.938 F400.000
G1 X-4.525 Y-4.220 F400.000
G1 X-4.266 Y-4.492 F400.000
G1 X-3.994 Y-4.746 F400.000
G1 X-3.412 Y-5.209 F400.000
G1 X-3.102 Y-5.418 F400.000
G1 X-2.780 Y-5.610 F400.000
G1 X-2.452 Y-5.785 F400.000
G1 X-2.113 Y-5.944 F400.000
G1 X-1.763 Y-6.085 F400.000
G1 X-1.401 Y-6.192 F400.000
G1 X-1.040 Y-6.282 F400.000
G1 X-0.672 Y-6.350 F400.000
G1 X-0.299 Y-6.401 F400.000
G1 X0.068 Y-6.429 F400.000
G1 X0.435 Y-6.441 F400.000
G1 X0.802 Y-6.429 F400.000
G1 X1.169 Y-6.395 F400.000
G1 X1.531 Y-6.328 F400.000
G1 X1.893 Y-6.243 F400.000
G1 X2.249 Y-6.136 F400.000
G1 X2.593 Y-6.000 F400.000
G1 X3.266 Y-5.684 F400.000
G1 X3.582 Y-5.492 F400.000
G1 X3.893 Y-5.282 F400.000
G1 X4.480 Y-4.825 F400.000
G1 X4.757 Y-4.571 F400.000
G1 X5.023 Y-4.305 F400.000
G1 X5.486 Y-3.718 F400.000
G1 X5.689 Y-3.407 F400.000
G1 X5.870 Y-3.079 F400.000
G1 X6.186 Y-2.407 F400.000
G1 X6.322 Y-2.056 F400.000
G1 X6.441 Y-1.701 F400.000
G1 X6.542 Y-1.339 F400.000
G1 X6.627 Y-0.972 F400.000
G1 X6.706 Y-0.226 F400.000
G1 X6.718 Y0.141 F400.000
G1 X6.678 Y0.876 F400.000
G1 X6.627 Y1.243 F400.000
G1 X6.469 Y1.966 F400.000
G1 X6.356 Y2.322 F400.000
G1 X6.226 Y2.672 F400.000
G1 X6.079 Y3.011 F400.000
G1 X5.706 Y3.650 F400.000
G1 X5.271 Y4.254 F400.000
G1 X5.040 Y4.542 F400.000
G1 X4.525 Y5.085 F400.000
G1 X3.944 Y5.554 F400.000
G1 X3.638 Y5.763 F400.000
G1 X2.983 Y6.124 F400.000
G1 X2.638 Y6.277 F400.000
G1 X2.288 Y6.407 F400.000
G1 X1.932 Y6.520 F400.000
G1 X1.203 Y6.689 F400.000
G1 X0.831 Y6.740 F400.000
G1 X0.458 Y6.774 F400.000
G1 X-0.282 Y6.797 F400.000
G1 X-1.017 Y6.751 F400.000
G1 X-1.384 Y6.706 F400.000
G1 X-2.107 Y6.531 F400.000
G1 X-2.463 Y6.418 F400.000
G1 X-2.808 Y6.282 F400.000
G1 X-3.147 Y6.130 F400.000
G1 X-3.469 Y5.944 F400.000
G1 X-3.780 Y5.740 F400.000
G1 X-4.367 Y5.282 F400.000
G1 X-4.638 Y5.028 F400.000
G1 X-5.153 Y4.480 F400.000
G1 X-5.616 Y3.893 F400.000
G1 X-6.011 Y3.260 F400.000
G1 X-6.186 Y2.932 F400.000
G1 X-6.345 Y2.593 F400.000
G1 X-6.486 Y2.249 F400.000
G1 X-6.689 Y1.531 F400.000
G1 X-6.763 Y1.164 F400.000
G1 X-6.808 Y0.791 F400.000
G1 X-6.853 Y0.045 F400.000
G1 X-6.853 Y-0.322 F400.000
G1 X-6.797 Y-1.056 F400.000
G1 X-6.650 Y-1.785 F400.000
G1 X-6.548 Y-2.141 F400.000
G1 X-6.424 Y-2.492 F400.000
G1 X-6.282 Y-2.836 F400.000
G1 X-6.124 Y-3.169 F400.000
G1 X-5.944 Y-3.497 F400.000
G1 X-5.746 Y-3.814 F400.000
G1 X-5.531 Y-4.119 F400.000
G1 X-5.062 Y-4.701 F400.000
G1 X-4.808 Y-4.972 F400.000
G1 X-4.542 Y-5.232 F400.000
G1 X-4.266 Y-5.480 F400.000
G1 X-3.977 Y-5.718 F400.000
G1 X-3.350 Y-6.130 F400.000
G1 X-2.689 Y-6.486 F400.000
G1 X-2.000 Y-6.780 F400.000
G1 X-1.644 Y-6.893 F400.000
G1 X-1.282 Y-6.989 F400.000
G1 X-0.548 Y-7.124 F400.000
G1 X-0.175 Y-7.164 F400.000
G1 X0.192 Y-7.186 F400.000
G1 X0.559 Y-7.192 F400.000
G1 X0.927 Y-7.181 F400.000
G1 X1.661 Y-7.068 F400.000
G1 X2.379 Y-6.876 F400.000
G1 X2.729 Y-6.751 F400.000
G1 X3.073 Y-6.605 F400.000
G1 X3.407 Y-6.441 F400.000
G1 X3.729 Y-6.260 F400.000
G1 X4.045 Y-6.062 F400.000
G1 X4.650 Y-5.627 F400.000
G1 X4.944 Y-5.395 F400.000
G1 X5.220 Y-5.147 F400.000
G1 X5.734 Y-4.610 F400.000
G1 X6.175 Y-4.011 F400.000
G1 X6.373 Y-3.695 F400.000
G1 X6.554 Y-3.367 F400.000
G1 X6.718 Y-3.028 F400.000
G1 X7.006 Y-2.339 F400.000
G1 X7.124 Y-1.983 F400.000
G1 X7.316 Y-1.260 F400.000
G1 X7.390 Y-0.893 F400.000
G1 X7.446 Y-0.147 F400.000
G1 X7.441 Y0.588 F400.000
G1 X7.407 Y0.955 F400.000
G1 X7.294 Y1.689 F400.000
G1 X7.209 Y2.051 F400.000
G1 X7.107 Y2.407 F400.000
G1 X6.989 Y2.757 F400.000
G1 X6.853 Y3.102 F400.000
G1 X6.503 Y3.763 F400.000
G1 X6.096 Y4.390 F400.000
G1 X5.876 Y4.689 F400.000
G1 X5.395 Y5.260 F400.000
G1 X5.141 Y5.531 F400.000
G1 X4.571 Y6.011 F400.000
G1 X4.271 Y6.232 F400.000
G1 X3.633 Y6.616 F400.000
G1 X3.299 Y6.780 F400.000
G1 X2.955 Y6.927 F400.000
G1 X2.254 Y7.181 F400.000
G1 X1.893 Y7.282 F400.000
G1 X1.158 Y7.441 F400.000
G1 X0.785 Y7.497 F400.000
G1 X0.412 Y7.537 F400.000
G1 X0.040 Y7.559 F400.000
G1 X-0.328 Y7.565 F400.000
G1 X-0.695 Y7.554 F400.000
G1 X-1.797 Y7.390 F400.000
G1 X-2.514 Y7.198 F400.000
G1 X-2.864 Y7.079 F400.000
G1 X-3.537 Y6.763 F400.000
G1 X-3.859 Y6.582 F400.000
G1 X-4.169 Y6.379 F400.000
G1 X-4.469 Y6.158 F400.000
G1 X-5.040 Y5.678 F400.000
G1 X-5.305 Y5.418 F400.000
G1 X-5.802 Y4.859 F400.000
G1 X-6.040 Y4.571 F400.000
G1 X-6.469 Y3.955 F400.000
G1 X-6.667 Y3.638 F400.000
G1 X-6.847 Y3.311 F400.000
G1 X-7.136 Y2.621 F400.000
G1 X-7.254 Y2.266 F400.000
G1 X-7.356 Y1.904 F400.000
G1 X-7.441 Y1.537 F400.000
G1 X-7.508 Y1.169 F400.000
G1 X-7.559 Y0.797 F400.000
G1 X-7.588 Y0.424 F400.000
G1 X-7.599 Y0.051 F400.000
G1 X-7.582 Y-0.684 F400.000
G1 X-7.548 Y-1.051 F400.000
G1 X-7.497 Y-1.418 F400.000
G1 X-7.316 Y-2.136 F400.000
G1 X-7.079 Y-2.836 F400.000
G1 X-6.938 Y-3.181 F400.000
G1 X-6.780 Y-3.520 F400.000
G1 X-6.395 Y-4.158 F400.000
G1 X-5.966 Y-4.768 F400.000
G1 X-5.729 Y-5.056 F400.000
G1 X-5.226 Y-5.605 F400.000
G1 X-4.678 Y-6.113 F400.000
G1 X-4.073 Y-6.554 F400.000
G1 X-3.757 Y-6.751 F400.000
G1 X-3.102 Y-7.107 F400.000
G1 X-2.418 Y-7.401 F400.000
G1 X-2.068 Y-7.531 F400.000
G1 X-1.712 Y-7.644 F400.000
G1 X-0.983 Y-7.825 F400.000
G1 X-0.616 Y-7.893 F400.000
G1 X0.124 Y-7.949 F400.000
G1 X0.492 Y-7.949 F400.000
G1 X0.859 Y-7.927 F400.000
G1 X1.226 Y-7.887 F400.000
G1 X1.955 Y-7.757 F400.000
G1 X2.316 Y-7.667 F400.000
G1 X3.023 Y-7.441 F400.000
G1 X3.367 Y-7.299 F400.000
G1 X4.028 Y-6.955 F400.000
G1 X4.661 Y-6.559 F400.000
G1 X5.254 Y-6.107 F400.000
G1 X5.542 Y-5.870 F400.000
G1 X5.819 Y-5.616 F400.000
G1 X6.322 Y-5.068 F400.000
G1 X6.554 Y-4.774 F400.000
G1 X6.972 Y-4.153 F400.000
G1 X7.158 Y-3.831 F400.000
G1 X7.328 Y-3.497 F400.000
G1 X7.480 Y-3.158 F400.000
G1 X7.751 Y-2.458 F400.000
G1 X7.966 Y-1.740 F400.000
G1 X8.056 Y-1.379 F400.000
G1 X8.164 Y-0.633 F400.000
G1 X8.192 Y-0.260 F400.000
G1 X8.192 Y0.475 F400.000
G1 X8.130 Y1.209 F400.000
G1 X8.006 Y1.938 F400.000
G1 X7.927 Y2.299 F400.000
G1 X7.831 Y2.655 F400.000
G1 X7.559 Y3.345 F400.000
G1 X7.232 Y4.011 F400.000
G1 X7.045 Y4.333 F400.000
G1 X6.627 Y4.949 F400.000
G1 X6.153 Y5.525 F400.000
G1 X5.898 Y5.797 F400.000
G1 X5.633 Y6.056 F400.000
G1 X5.356 Y6.305 F400.000
G1 X4.768 Y6.757 F400.000
G1 X4.458 Y6.966 F400.000
G1 X3.808 Y7.339 F400.000
G1 X3.469 Y7.503 F400.000
G1 X3.124 Y7.650 F400.000
G1 X2.418 Y7.898 F400.000
G1 X1.695 Y8.096 F400.000
G1 X0.955 Y8.232 F400.000
G1 X0.582 Y8.282 F400.000
G1 X0.209 Y8.316 F400.000
G1 X-0.525 Y8.316 F400.000
G1 X-0.893 Y8.288 F400.000
G1 X-1.627 Y8.192 F400.000
G1 X-2.350 Y8.034 F400.000
G1 X-2.706 Y7.938 F400.000
G1 X-3.056 Y7.819 F400.000
G1 X-3.734 Y7.520 F400.000
G1 X-4.062 Y7.345 F400.000
G1 X-4.684 Y6.938 F400.000
G1 X-4.977 Y6.712 F400.000
G1 X-5.537 Y6.220 F400.000
G1 X-5.808 Y5.966 F400.000
G1 X-6.322 Y5.429 F400.000
G1 X-6.565 Y5.147 F400.000
G1 X-7.011 Y4.548 F400.000
G1 X-7.379 Y3.898 F400.000
G1 X-7.695 Y3.220 F400.000
G1 X-7.831 Y2.870 F400.000
G1 X-8.056 Y2.158 F400.000
G1 X-8.147 Y1.797 F400.000
G1 X-8.282 Y1.056 F400.000
G1 X-8.328 Y0.684 F400.000
G1 X-8.373 Y-0.056 F400.000
G1 X-8.373 Y-0.424 F400.000
G1 X-8.356 Y-0.791 F400.000
G1 X-8.254 Y-1.525 F400.000
G1 X-8.085 Y-2.249 F400.000
G1 X-7.977 Y-2.605 F400.000
G1 X-7.853 Y-2.955 F400.000
G1 X-7.712 Y-3.299 F400.000
G1 X-7.384 Y-3.966 F400.000
G1 X-7.006 Y-4.610 F400.000
G1 X-6.576 Y-5.220 F400.000
G1 X-6.113 Y-5.797 F400.000
G1 X-5.588 Y-6.322 F400.000
G1 X-5.311 Y-6.571 F400.000
G1 X-4.718 Y-7.023 F400.000
G1 X-4.085 Y-7.418 F400.000
G1 X-3.763 Y-7.605 F400.000
G1 X-3.090 Y-7.932 F400.000
G1 X-2.746 Y-8.079 F400.000
G1 X-2.040 Y-8.328 F400.000
G1 X-1.316 Y-8.531 F400.000
G1 X-0.949 Y-8.610 F400.000
G1 X-0.203 Y-8.695 F400.000
G1 X0.164 Y-8.712 F400.000
G1 X0.898 Y-8.678 F400.000
G1 X1.266 Y-8.644 F400.000
G1 X1.633 Y-8.593 F400.000
G1 X2.362 Y-8.446 F400.000
G1 X2.723 Y-8.356 F400.000
G1 X3.424 Y-8.102 F400.000
G1 X3.763 Y-7.955 F400.000
G1 X4.734 Y-7.418 F400.000
G1 X5.350 Y-6.994 F400.000
G1 X5.644 Y-6.768 F400.000
G1 X6.203 Y-6.277 F400.000
G1 X6.469 Y-6.017 F400.000
G1 X6.972 Y-5.463 F400.000
G1 X7.407 Y-4.859 F400.000
G1 X7.605 Y-4.542 F400.000
G1 X8.124 Y-3.548 F400.000
G1 X8.537 Y-2.503 F400.000
G1 X8.650 Y-2.147 F400.000
G1 X8.814 Y-1.412 F400.000
G1 X8.870 Y-1.040 F400.000
G1 X8.938 Y-0.294 F400.000
G1 X8.949 Y0.441 F400.000
G1 X8.904 Y1.175 F400.000
G1 X8.864 Y1.542 F400.000
G1 X8.808 Y1.910 F400.000
G1 X8.627 Y2.633 F400.000
G1 X8.514 Y2.989 F400.000
G1 X8.079 Y4.011 F400.000
G1 X7.718 Y4.661 F400.000
G1 X7.520 Y4.977 F400.000
G1 X7.079 Y5.582 F400.000
G1 X6.842 Y5.870 F400.000
G1 X6.593 Y6.147 F400.000
G1 X6.062 Y6.672 F400.000
G1 X5.780 Y6.921 F400.000
G1 X5.192 Y7.373 F400.000
G1 X4.565 Y7.780 F400.000
G1 X4.237 Y7.966 F400.000
G1 X3.565 Y8.294 F400.000
G1 X2.870 Y8.565 F400.000
G1 X2.153 Y8.780 F400.000
G1 X1.785 Y8.864 F400.000
G1 X1.045 Y8.989 F400.000
G1 X0.672 Y9.028 F400.000
G1 X-0.068 Y9.062 F400.000
G1 X-0.802 Y9.051 F400.000
G1 X-1.537 Y8.983 F400.000
G1 X-2.266 Y8.842 F400.000
G1 X-2.627 Y8.751 F400.000
G1 X-3.333 Y8.514 F400.000
G1 X-4.017 Y8.220 F400.000
G1 X-4.350 Y8.051 F400.000
G1 X-4.672 Y7.864 F400.000
G1 X-5.571 Y7.203 F400.000
G1 X-5.859 Y6.966 F400.000
G1 X-6.407 Y6.458 F400.000
G1 X-6.667 Y6.192 F400.000
G1 X-7.158 Y5.633 F400.000
G1 X-7.593 Y5.023 F400.000
G1 X-7.791 Y4.706 F400.000
G1 X-8.141 Y4.045 F400.000
G1 X-8.305 Y3.706 F400.000
G1 X-8.576 Y3.011 F400.000
G1 X-8.802 Y2.294 F400.000
G1 X-8.898 Y1.932 F400.000
G1 X-9.045 Y1.198 F400.000
G1 X-9.136 Y0.452 F400.000
G1 X-9.147 Y-0.288 F400.000
G1 X-9.130 Y-0.655 F400.000
G1 X-8.983 Y-1.757 F400.000
G1 X-8.814 Y-2.480 F400.000
G1 X-8.712 Y-2.836 F400.000
G1 X-8.593 Y-3.186 F400.000
G1 X-8.294 Y-3.864 F400.000
G1 X-7.949 Y-4.520 F400.000
G1 X-7.565 Y-5.153 F400.000
G1 X-7.141 Y-5.763 F400.000
G1 X-6.667 Y-6.333 F400.000
G1 X-6.130 Y-6.853 F400.000
G1 X-5.559 Y-7.333 F400.000
G1 X-4.949 Y-7.763 F400.000
G1 X-4.316 Y-8.158 F400.000
G1 X-3.322 Y-8.672 F400.000
G1 X-2.621 Y-8.944 F400.000
G1 X-2.266 Y-9.062 F400.000
G1 X-1.542 Y-9.254 F400.000
G1 X-1.175 Y-9.333 F400.000
G1 X-0.802 Y-9.395 F400.000
G1 X-0.056 Y-9.446 F400.000
G1 X0.678 Y-9.458 F400.000
G1 X1.412 Y-9.412 F400.000
G1 X1.780 Y-9.367 F400.000
G1 X2.503 Y-9.215 F400.000
G1 X2.859 Y-9.113 F400.000
G1 X3.209 Y-8.994 F400.000
G1 X3.898 Y-8.718 F400.000
G1 X4.559 Y-8.390 F400.000
G1 X4.881 Y-8.209 F400.000
G1 X5.508 Y-7.808 F400.000
G1 X6.107 Y-7.367 F400.000
G1 X6.678 Y-6.893 F400.000
G1 X7.198 Y-6.356 F400.000
G1 X7.441 Y-6.073 F400.000
G1 X7.887 Y-5.475 F400.000
G1 X8.294 Y-4.853 F400.000
G1 X8.655 Y-4.203 F400.000
G1 X8.825 Y-3.870 F400.000
G1 X8.977 Y-3.531 F400.000
G1 X9.232 Y-2.825 F400.000
G1 X9.435 Y-2.102 F400.000
G1 X9.520 Y-1.734 F400.000
G1 X9.644 Y-0.994 F400.000
G1 X9.689 Y-0.621 F400.000
G1 X9.734 Y0.119 F400.000
G1 X9.740 Y0.486 F400.000
G1 X9.729 Y0.853 F400.000
G1 X9.644 Y1.588 F400.000
G1 X9.582 Y1.955 F400.000
G1 X9.401 Y2.672 F400.000
G1 X9.175 Y3.373 F400.000
G1 X8.740 Y4.395 F400.000
G1 X8.571 Y4.729 F400.000
G1 X8.181 Y5.362 F400.000
G1 X7.746 Y5.966 F400.000
G1 X7.271 Y6.537 F400.000
G1 X7.017 Y6.808 F400.000
G1 X6.475 Y7.322 F400.000
G1 X5.898 Y7.797 F400.000
G1 X5.288 Y8.226 F400.000
G1 X4.650 Y8.610 F400.000
G1 X3.983 Y8.949 F400.000
G1 X3.638 Y9.102 F400.000
G1 X2.938 Y9.362 F400.000
G1 X2.582 Y9.475 F400.000
G1 X1.847 Y9.633 F400.000
G1 X0.729 Y9.797 F400.000
G1 X-0.011 Y9.859 F400.000
G1 X-0.746 Y9.853 F400.000
G1 X-1.480 Y9.774 F400.000
G1 X-2.215 Y9.644 F400.000
G1 X-2.576 Y9.559 F400.000
G1 X-3.288 Y9.350 F400.000
G1 X-3.983 Y9.090 F400.000
G1 X-4.322 Y8.944 F400.000
G1 X-4.972 Y8.576 F400.000
G1 X-5.588 Y8.158 F400.000
G1 X-6.458 Y7.458 F400.000
G1 X-6.994 Y6.944 F400.000
G1 X-7.254 Y6.678 F400.000
G1 X-7.746 Y6.113 F400.000
G1 X-7.977 Y5.819 F400.000
G1 X-8.390 Y5.198 F400.000
G1 X-8.582 Y4.876 F400.000
G1 X-8.921 Y4.203 F400.000
G1 X-9.209 Y3.514 F400.000
G1 X-9.446 Y2.802 F400.000
G1 X-9.638 Y2.073 F400.000
G1 X-9.785 Y1.339 F400.000
G1 X-9.842 Y0.966 F400.000
G1 X-9.898 Y0.220 F400.000
G1 X-9.910 Y-0.147 F400.000
G1 X-9.887 Y-0.881 F400.000
G1 X-9.853 Y-1.249 F400.000
G1 X-9.740 Y-1.983 F400.000
G1 X-9.571 Y-2.706 F400.000
G1 X-9.345 Y-3.412 F400.000
G1 X-9.062 Y-4.096 F400.000
G1 X-8.723 Y-4.757 F400.000
G1 X-8.345 Y-5.401 F400.000
G1 X-7.701 Y-6.316 F400.000
G1 X-7.469 Y-6.605 F400.000
G1 X-6.955 Y-7.141 F400.000
G1 X-6.684 Y-7.395 F400.000
G1 X-5.808 Y-8.096 F400.000
G1 X-5.198 Y-8.525 F400.000
G1 X-4.554 Y-8.904 F400.000
G1 X-3.881 Y-9.243 F400.000
G1 X-2.836 Y-9.672 F400.000
G1 X-2.124 Y-9.910 F400.000
G1 X-1.390 Y-10.073 F400.000
G1 X-1.023 Y-10.136 F400.000
G1 X-0.277 Y-10.215 F400.000
G1 X0.090 Y-10.232 F400.000
G1 X0.825 Y-10.226 F400.000
G1 X1.559 Y-10.169 F400.000
G1 X1.927 Y-10.124 F400.000
G1 X2.294 Y-10.062 F400.000
G1 X3.011 Y-9.876 F400.000
G1 X3.362 Y-9.757 F400.000
G1 X4.051 Y-9.486 F400.000
G1 X4.723 Y-9.158 F400.000
G1 X5.373 Y-8.802 F400.000
G1 X6.305 Y-8.192 F400.000
G1 X6.605 Y-7.972 F400.000
G1 X7.169 Y-7.486 F400.000
G1 X7.441 Y-7.226 F400.000
G1 X7.944 Y-6.678 F400.000
G1 X8.407 Y-6.090 F400.000
G1 X8.825 Y-5.469 F400.000
G1 X9.209 Y-4.825 F400.000
G1 X9.548 Y-4.153 F400.000
G1 X9.825 Y-3.458 F400.000
G1 X10.056 Y-2.746 F400.000
G1 X10.237 Y-2.017 F400.000
G1 X10.373 Y-1.277 F400.000
G1 X10.463 Y-0.531 F400.000
G1 X10.492 Y-0.158 F400.000
G1 X10.503 Y0.576 F400.000
G1 X10.469 Y1.311 F400.000
G1 X10.350 Y2.045 F400.000
G1 X10.181 Y2.768 F400.000
G1 X10.073 Y3.124 F400.000
G1 X9.831 Y3.825 F400.000
G1 X9.542 Y4.508 F400.000
G1 X9.384 Y4.847 F400.000
G1 X9.011 Y5.492 F400.000
G1 X8.599 Y6.113 F400.000
G1 X8.147 Y6.706 F400.000
G1 X7.910 Y6.994 F400.000
G1 X7.401 Y7.542 F400.000
G1 X6.842 Y8.034 F400.000
G1 X6.254 Y8.492 F400.000
G1 X5.638 Y8.910 F400.000
G1 X4.994 Y9.294 F400.000
G1 X4.322 Y9.633 F400.000
G1 X3.633 Y9.927 F400.000
G1 X2.927 Y10.175 F400.000
G1 X2.198 Y10.350 F400.000
G1 X1.090 Y10.537 F400.000
G1 X0.345 Y10.621 F400.000
G1 X-0.390 Y10.627 F400.000
G1 X-1.124 Y10.593 F400.000
G1 X-1.859 Y10.503 F400.000
G1 X-2.588 Y10.367 F400.000
G1 X-2.949 Y10.282 F400.000
G1 X-3.661 Y10.068 F400.000
G1 X-4.350 Y9.785 F400.000
G1 X-4.684 Y9.627 F400.000
G1 X-5.333 Y9.254 F400.000
G1 X-5.955 Y8.842 F400.000
G1 X-6.831 Y8.153 F400.000
G1 X-7.379 Y7.650 F400.000
G1 X-7.904 Y7.119 F400.000
G1 X-8.379 Y6.542 F400.000
G1 X-8.605 Y6.243 F400.000
G1 X-9.011 Y5.616 F400.000
G1 X-9.379 Y4.966 F400.000
G1 X-9.706 Y4.294 F400.000
G1 X-9.989 Y3.599 F400.000
G1 X-10.232 Y2.893 F400.000
G1 X-10.429 Y2.169 F400.000
G1 X-10.565 Y1.435 F400.000
G1 X-10.616 Y1.062 F400.000
G1 X-10.672 Y0.316 F400.000
G1 X-10.678 Y-0.418 F400.000
G1 X-10.599 Y-1.520 F400.000
G1 X-10.486 Y-2.254 F400.000
G1 X-10.412 Y-2.616 F400.000
G1 X-10.203 Y-3.328 F400.000
G1 X-10.079 Y-3.678 F400.000
G1 X-9.616 Y-4.701 F400.000
G1 X-9.266 Y-5.362 F400.000
G1 X-8.887 Y-6.000 F400.000
G1 X-8.684 Y-6.311 F400.000
G1 X-8.226 Y-6.898 F400.000
G1 X-7.983 Y-7.181 F400.000
G1 X-7.463 Y-7.718 F400.000
G1 X-6.904 Y-8.215 F400.000
G1 X-6.316 Y-8.678 F400.000
G1 X-5.706 Y-9.107 F400.000
G1 X-5.079 Y-9.508 F400.000
G1 X-4.412 Y-9.847 F400.000
G1 X-3.734 Y-10.153 F400.000
G1 X-2.689 Y-10.548 F400.000
G1 X-2.333 Y-10.661 F400.000
G1 X-1.605 Y-10.836 F400.000
G1 X-1.237 Y-10.904 F400.000
G1 X-0.864 Y-10.955 F400.000
G1 X0.249 Y-11.011 F400.000
G1 X0.983 Y-11.011 F400.000
G1 X1.718 Y-10.949 F400.000
G1 X2.446 Y-10.814 F400.000
G1 X2.808 Y-10.729 F400.000
G1 X3.520 Y-10.514 F400.000
G1 X4.215 Y-10.243 F400.000
G1 X4.893 Y-9.944 F400.000
G1 X5.554 Y-9.599 F400.000
G1 X6.192 Y-9.215 F400.000
G1 X6.808 Y-8.797 F400.000
G1 X7.107 Y-8.576 F400.000
G1 X7.672 Y-8.096 F400.000
G1 X7.944 Y-7.842 F400.000
G1 X8.458 Y-7.299 F400.000
G1 X8.701 Y-7.017 F400.000
G1 X9.345 Y-6.096 F400.000
G1 X9.915 Y-5.130 F400.000
G1 X10.254 Y-4.458 F400.000
G1 X10.531 Y-3.763 F400.000
G1 X10.768 Y-3.051 F400.000
G1 X10.960 Y-2.328 F400.000
G1 X11.045 Y-1.960 F400.000
G1 X11.175 Y-1.220 F400.000
G1 X11.266 Y-0.475 F400.000
G1 X11.282 Y0.266 F400.000
G1 X11.260 Y1.000 F400.000
G1 X11.192 Y1.734 F400.000
G1 X11.051 Y2.463 F400.000
G1 X10.864 Y3.181 F400.000
G1 X10.638 Y3.887 F400.000
G1 X10.367 Y4.582 F400.000
G1 X10.051 Y5.254 F400.000
G1 X9.689 Y5.904 F400.000
G1 X9.288 Y6.531 F400.000
G1 X8.847 Y7.130 F400.000
G1 X8.610 Y7.418 F400.000
G1 X7.819 Y8.209 F400.000
G1 X7.260 Y8.706 F400.000
G1 X6.678 Y9.169 F400.000
G1 X6.056 Y9.582 F400.000
G1 X5.412 Y9.960 F400.000
G1 X4.746 Y10.299 F400.000
G1 X4.062 Y10.605 F400.000
G1 X3.362 Y10.864 F400.000
G1 X2.638 Y11.051 F400.000
G1 X1.904 Y11.203 F400.000
G1 X0.785 Y11.345 F400.000
G1 X-0.328 Y11.384 F400.000
G1 X-1.062 Y11.367 F400.000
G1 X-1.429 Y11.345 F400.000
G1 X-2.164 Y11.254 F400.000
G1 X-2.531 Y11.192 F400.000
G1 X-2.893 Y11.113 F400.000
G1 X-3.605 Y10.904 F400.000
G1 X-4.299 Y10.650 F400.000
G1 X-4.972 Y10.345 F400.000
G1 X-5.299 Y10.175 F400.000
G1 X-5.938 Y9.797 F400.000
G1 X-6.554 Y9.379 F400.000
G1 X-7.136 Y8.915 F400.000
G1 X-7.695 Y8.418 F400.000
G1 X-8.480 Y7.621 F400.000
G1 X-8.729 Y7.345 F400.000
G1 X-9.186 Y6.757 F400.000
G1 X-9.605 Y6.136 F400.000
G1 X-9.977 Y5.486 F400.000
G1 X-10.311 Y4.819 F400.000
G1 X-10.605 Y4.130 F400.000
G1 X-10.870 Y3.429 F400.000
G1 X-10.989 Y3.073 F400.000
G1 X-11.181 Y2.350 F400.000
G1 X-11.266 Y1.983 F400.000
G1 X-11.333 Y1.616 F400.000
G1 X-11.435 Y0.497 F400.000
G1 X-11.452 Y-0.243 F400.000
G1 X-11.446 Y-0.610 F400.000
G1 X-11.395 Y-1.345 F400.000
G1 X-11.249 Y-2.446 F400.000
G1 X-11.073 Y-3.169 F400.000
G1 X-10.966 Y-3.525 F400.000
G1 X-10.712 Y-4.220 F400.000
G1 X-10.243 Y-5.226 F400.000
G1 X-9.876 Y-5.876 F400.000
G1 X-9.469 Y-6.503 F400.000
G1 X-9.028 Y-7.107 F400.000
G1 X-8.548 Y-7.678 F400.000
G1 X-8.034 Y-8.220 F400.000
G1 X-7.768 Y-8.480 F400.000
G1 X-7.209 Y-8.972 F400.000
G1 X-6.616 Y-9.429 F400.000
G1 X-6.000 Y-9.853 F400.000
G1 X-5.362 Y-10.237 F400.000
G1 X-4.701 Y-10.582 F400.000
G1 X-4.017 Y-10.887 F400.000
G1 X-2.966 Y-11.271 F400.000
G1 X-1.887 Y-11.582 F400.000
G1 X0.102 Y-11.780 F400.000
G1 X1.373 Y-11.740 F400.000
G1 X3.068 Y-11.429 F400.000
G1 X5.147 Y-10.650 F400.000
G1 X6.898 Y-9.616 F400.000
G1 X8.153 Y-8.588 F400.000
G1 X9.006 Y-7.678 F400.000
G1 X10.124 Y-6.119 F400.000
G1 X10.932 Y-4.571 F400.000
G1 X11.486 Y-3.023 F400.000
G1 X11.910 Y-0.853 F400.000
G1 X11.972 Y0.808 F400.000
G1 X11.847 Y2.164 F400.000
G1 X11.638 Y3.096 F400.000
G1 X10.831 Y5.260 F400.000
G1 X10.192 Y6.429 F400.000
G1 X9.328 Y7.593 F400.000
G1 X7.859 Y9.079 F400.000
G1 X6.407 Y10.158 F400.000
G1 X4.785 Y11.028 F400.000
G1 X3.153 Y11.644 F400.000
G1 X1.887 Y11.927 F400.000
G1 X0.350 Y12.107 F400.000
G1 X-1.531 Y12.096 F400.000
G1 X-2.972 Y11.864 F400.000
G1 X-4.893 Y11.175 F400.000
G1 X-6.000 Y10.571 F400.000
G1 X-7.932 Y9.141 F400.000
G1 X-9.243 Y7.785 F400.000
G1 X-10.209 Y6.435 F400.000
G1 X-11.017 Y4.893 F400.000
G1 X-11.661 Y3.186 F400.000
G1 X-11.989 Y1.740 F400.000
G1 X-12.124 Y0.384 F400.000
G1 X-12.102 Y-1.588 F400.000
G1 X-11.898 Y-2.859 F400.000
G1 X-11.045 Y-5.186 F400.000
G1 X-10.068 Y-6.864 F400.000
G1 X-8.305 Y-8.910 F400.000
G1 X-6.819 Y-10.113 F400.000
G1 X-5.141 Y-11.175 F400.000
G1 X-3.633 Y-11.836 F400.000
G1 X-2.554 Y-12.153 F400.000
G1 X-0.113 Y-12.458 F400.000
G1 X0.994 Y-12.424 F400.000
G1 X2.689 Y-12.158 F400.000
G1 X4.045 Y-11.780 F400.000
G1 X5.927 Y-10.955 F400.000
G1 X6.243 Y-10.785 F400.000
G1 X7.153 Y-10.198 F400.000
G1 X7.938 Y-9.605 F400.000
G1 X9.356 Y-8.220 F400.000
G1 X10.497 Y-6.689 F400.000
G1 X11.446 Y-4.915 F400.000
G1 X12.000 Y-3.356 F400.000
G1 X12.243 Y-2.271 F400.000
G1 X12.446 Y-0.463 F400.000
G1 X12.418 Y0.921 F400.000
G1 X12.175 Y2.616 F400.000
G1 X11.831 Y3.887 F400.000
G1 X11.452 Y4.904 F400.000
G1 X10.588 Y6.559 F400.000
G1 X9.424 Y8.158 F400.000
G1 X8.616 Y9.006 F400.000
G1 X6.983 Y10.322 F400.000
G1 X5.814 Y11.017 F400.000
G1 X4.729 Y11.531 F400.000
G1 X3.605 Y11.927 F400.000
G1 X1.887 Y12.316 F400.000
G1 X0.712 Y12.435 F400.000
G1 X-0.006 Y12.463 F400.000
G1 X-1.955 Y12.299 F400.000
G1 X-3.565 Y11.932 F400.000
G1 X-5.085 Y11.373 F400.000
G1 X-6.271 Y10.757 F400.000
G1 X-7.028 Y10.288 F400.000
G1 X-7.972 Y9.576 F400.000
G1 X-9.328 Y8.254 F400.000
G1 X-10.424 Y6.814 F400.000
G1 X-11.463 Y4.898 F400.000
G1 X-12.056 Y3.141 F400.000
G1 X-12.220 Y2.418 F400.000
G1 X-12.441 Y0.701 F400.000
G1 X-12.424 Y-0.864 F400.000
G1 X-12.186 Y-2.559 F400.000
G1 X-11.876 Y-3.746 F400.000
G1 X-11.441 Y-4.932 F400.000
G1 X-10.661 Y-6.441 F400.000
G1 X-9.452 Y-8.124 F400.000
G1 X-8.576 Y-9.040 F400.000
G1 X-7.023 Y-10.294 F400.000
G1 X-6.085 Y-10.876 F400.000
G1 X-4.746 Y-11.525 F400.000
G1 X-2.627 Y-12.181 F400.000
G1 X-2.175 Y-12.271 F400.000
G1 X-2.169 Y-12.271 F400.000
G1 X-2.147 Y-12.271 F400.000
G1 X-2.141 Y-12.271 F400.000
G1 X-2.124 Y-12.277 F400.000
G1 X-2.124 Y-12.277 F400.000
G1 X-1.944 Y-12.311 F400.000
G1 X-1.944 Y-12.311 F400.000
G1 X-1.847 Y-12.328 F400.000
G1 X-1.847 Y-12.328 F400.000
G1 X-1.881 Y-12.350 F400.000
G1 X-1.881 Y-12.350 F400.000
G1 X-1.791 Y-12.373 F400.000
G1 X-1.791 Y-12.373 F400.000
G1 X-1.062 Y-12.458 F400.000
G1 X-0.153 Y-12.503 F400.000
G1 X0.232 Y-12.503 F400.000
G1 X1.085 Y-12.452 F400.000
G1 X1.938 Y-12.350 F400.000
G1 X2.712 Y-12.198 F400.000
G1 X3.559 Y-11.977 F400.000
G1 X4.023 Y-11.831 F400.000
G1 X4.842 Y-11.525 F400.000
G1 X5.090 Y-11.418 F400.000
G1 X5.859 Y-11.034 F400.000
G1 X6.339 Y-10.774 F400.000
G1 X7.006 Y-10.350 F400.000
G1 X7.678 Y-9.859 F400.000
G1 X7.983 Y-9.616 F400.000
G1 X8.672 Y-9.000 F400.000
G1 X9.226 Y-8.429 F400.000
G1 X9.537 Y-8.079 F400.000
G1 X10.034 Y-7.446 F400.000
G1 X10.497 Y-6.774 F400.000
G1 X10.949 Y-6.017 F400.000
G1 X11.186 Y-5.576 F400.000
G1 X11.492 Y-4.915 F400.000
G1 X11.808 Y-4.102 F400.000
G1 X12.034 Y-3.390 F400.000
G1 X12.249 Y-2.480 F400.000
G1 X12.379 Y-1.729 F400.000
G1 X12.469 Y-0.870 F400.000
G1 X12.492 Y-0.395 F400.000
G1 X12.486 Y0.395 F400.000
G1 X12.469 Y0.785 F400.000
G1 X12.379 Y1.678 F400.000
G1 X12.215 Y2.616 F400.000
G1 X12.051 Y3.299 F400.000
G1 X11.915 Y3.763 F400.000
G1 X11.621 Y4.593 F400.000
G1 X11.486 Y4.932 F400.000
G1 X11.141 Y5.650 F400.000
G1 X10.723 Y6.407 F400.000
G1 X10.463 Y6.825 F400.000
G1 X9.983 Y7.514 F400.000
G1 X9.424 Y8.220 F400.000
G1 X8.881 Y8.802 F400.000
G1 X8.605 Y9.068 F400.000
G1 X7.989 Y9.610 F400.000
G1 X7.395 Y10.073 F400.000
G1 X6.972 Y10.379 F400.000
G1 X6.181 Y10.870 F400.000
G1 X5.531 Y11.209 F400.000
G1 X4.740 Y11.571 F400.000
G1 X3.938 Y11.864 F400.000
G1 X3.486 Y12.000 F400.000
G1 X2.689 Y12.209 F400.000
G1 X1.791 Y12.373 F400.000
G1 X1.062 Y12.458 F400.000
G1 X0.186 Y12.503 F400.000
G1 X-0.203 Y12.492 F400.000
G1 X-1.175 Y12.435 F400.000
G1 X-1.938 Y12.345 F400.000
G1 X-2.350 Y12.277 F400.000
G1 X-3.588 Y11.966 F400.000
G1 X-4.028 Y11.825 F400.000
G1 X-4.819 Y11.531 F400.000
G1 X-5.090 Y11.418 F400.000
G1 X-5.989 Y10.966 F400.000
G1 X-7.079 Y10.299 F400.000
G1 X-7.678 Y9.859 F400.000
G1 X-7.989 Y9.610 F400.000
G1 X-8.678 Y8.994 F400.000
G1 X-9.232 Y8.424 F400.000
G1 X-9.542 Y8.073 F400.000
G1 X-10.090 Y7.373 F400.000
G1 X-10.480 Y6.808 F400.000
G1 X-10.955 Y6.006 F400.000
G1 X-11.192 Y5.571 F400.000
G1 X-11.480 Y4.966 F400.000
G1 X-11.808 Y4.102 F400.000
G1 X-11.960 Y3.650 F400.000
G1 X-12.062 Y3.299 F400.000
G1 X-12.254 Y2.475 F400.000
G1 X-12.395 Y1.627 F400.000
G1 X-12.480 Y0.774 F400.000
G1 X-12.508 Y-0.068 F400.000
G1 X-12.486 Y-0.655 F400.000
G1 X-12.373 Y-1.734 F400.000
G1 X-12.226 Y-2.554 F400.000
G1 X-12.028 Y-3.390 F400.000
G1 X-11.915 Y-3.751 F400.000
G1 X-11.492 Y-4.915 F400.000
G1 X-11.051 Y-5.836 F400.000
G1 X-10.734 Y-6.401 F400.000
G1 X-10.463 Y-6.825 F400.000
G1 X-9.977 Y-7.525 F400.000
G1 X-9.424 Y-8.220 F400.000
G1 X-8.881 Y-8.802 F400.000
G1 X-8.599 Y-9.073 F400.000
G1 X-7.983 Y-9.616 F400.000
G1 X-7.017 Y-10.350 F400.000
G1 X-6.181 Y-10.870 F400.000
G1 X-5.531 Y-11.209 F400.000
G1 X-4.740 Y-11.571 F400.000
G1 X-3.938 Y-11.864 F400.000
G1 X-3.486 Y-12.000 F400.000
G1 X-2.712 Y-12.203 F400.000
G1 X-1.791 Y-12.373 F400.000
G1 X-1.791 Y-12.373 F400.000
G0 Z6.000
G0 Z6.000
(Finish operation: Adaptive_MillFace)
(Block-name: Adaptive_bearing)
(Block-expand: 0)
(Block-enable: 1)
(Begin operation: Adaptive_bearing)
(Path: Adaptive_bearing)
(Adaptive_bearing)
(Helix to depth: -2.600000)
G0 Z6.000
G0 X0.720 Y-0.161 Z6.000
G0 X0.720 Y-0.161 Z4.000
G1 X0.720 Y-0.161 Z1.000 F400.000
G1 X0.720 Y-0.161 Z1.000 F400.000
G1 X0.738 Y-0.018 Z0.987 F400.000
G1 X0.727 Y0.126 Z0.974 F400.000
G1 X0.689 Y0.266 Z0.961 F400.000
G1 X0.623 Y0.395 Z0.949 F400.000
G1 X0.534 Y0.509 Z0.936 F400.000
G1 X0.425 Y0.604 Z0.923 F400.000
G1 X0.299 Y0.675 Z0.910 F400.000
G1 X0.161 Y0.720 Z0.897 F400.000
G1 X0.018 Y0.738 Z0.884 F400.000
G1 X-0.126 Y0.727 Z0.871 F400.000
G1 X-0.266 Y0.689 Z0.859 F400.000
G1 X-0.395 Y0.623 Z0.846 F400.000
G1 X-0.509 Y0.534 Z0.833 F400.000
G1 X-0.604 Y0.425 Z0.820 F400.000
G1 X-0.675 Y0.299 Z0.807 F400.000
G1 X-0.720 Y0.161 Z0.794 F400.000
G1 X-0.738 Y0.018 Z0.782 F400.000
G1 X-0.727 Y-0.126 Z0.769 F400.000
G1 X-0.689 Y-0.266 Z0.756 F400.000
G1 X-0.623 Y-0.395 Z0.743 F400.000
G1 X-0.534 Y-0.509 Z0.730 F400.000
G1 X-0.425 Y-0.604 Z0.717 F400.000
G1 X-0.299 Y-0.675 Z0.704 F400.000
G1 X-0.161 Y-0.720 Z0.692 F400.000
G1 X-0.018 Y-0.738 Z0.679 F400.000
G1 X0.126 Y-0.727 Z0.666 F400.000
G1 X0.266 Y-0.689 Z0.653 F400.000
G1 X0.395 Y-0.623 Z0.640 F400.000
G1 X0.509 Y-0.534 Z0.627 F400.000
G1 X0.604 Y-0.425 Z0.614 F400.000
G1 X0.675 Y-0.299 Z0.602 F400.000
G1 X0.720 Y-0.161 Z0.589 F400.000
G1 X0.738 Y-0.018 Z0.576 F400.000
G1 X0.727 Y0.126 Z0.563 F400.000
G1 X0.689 Y0.266 Z0.550 F400.000
G1 X0.623 Y0.395 Z0.537 F400.000
G1 X0.534 Y0.509 Z0.524 F400.000
G1 X0.425 Y0.604 Z0.512 F400.000
G1 X0.299 Y0.675 Z0.499 F400.000
G1 X0.161 Y0.720 Z0.486 F400.000
G1 X0.018 Y0.738 Z0.473 F400.000
G1 X-0.126 Y0.727 Z0.460 F400.000
G1 X-0.266 Y0.689 Z0.447 F400.000
G1 X-0.395 Y0.623 Z0.435 F400.000
G1 X-0.509 Y0.534 Z0.422 F400.000
G1 X-0.604 Y0.425 Z0.409 F400.000
G1 X-0.675 Y0.299 Z0.396 F400.000
G1 X-0.720 Y0.161 Z0.383 F400.000
G1 X-0.738 Y0.018 Z0.370 F400.000
G1 X-0.727 Y-0.126 Z0.357 F400.000
G1 X-0.689 Y-0.266 Z0.345 F400.000
G1 X-0.623 Y-0.395 Z0.332 F400.000
G1 X-0.534 Y-0.509 Z0.319 F400.000
G1 X-0.425 Y-0.604 Z0.306 F400.000
G1 X-0.299 Y-0.675 Z0.293 F400.000
G1 X-0.161 Y-0.720 Z0.280 F400.000
G1 X-0.018 Y-0.738 Z0.267 F400.000
G1 X0.126 Y-0.727 Z0.255 F400.000
G1 X0.266 Y-0.689 Z0.242 F400.000
G1 X0.395 Y-0.623 Z0.229 F400.000
G1 X0.509 Y-0.534 Z0.216 F400.000
G1 X0.604 Y-0.425 Z0.203 F400.000
G1 X0.675 Y-0.299 Z0.190 F400.000
G1 X0.720 Y-0.161 Z0.178 F400.000
G1 X0.738 Y-0.018 Z0.165 F400.000
G1 X0.727 Y0.126 Z0.152 F400.000
G1 X0.689 Y0.266 Z0.139 F400.000
G1 X0.623 Y0.395 Z0.126 F400.000
G1 X0.534 Y0.509 Z0.113 F400.000
G1 X0.425 Y0.604 Z0.100 F400.000
G1 X0.299 Y0.675 Z0.088 F400.000
G1 X0.161 Y0.720 Z0.075 F400.000
G1 X0.018 Y0.738 Z0.062 F400.000
G1 X-0.126 Y0.727 Z0.049 F400.000
G1 X-0.266 Y0.689 Z0.036 F400.000
G1 X-0.395 Y0.623 Z0.023 F400.000
G1 X-0.509 Y0.534 Z0.010 F400.000
G1 X-0.604 Y0.425 Z-0.002 F400.000
G1 X-0.675 Y0.299 Z-0.015 F400.000
G1 X-0.720 Y0.161 Z-0.028 F400.000
G1 X-0.738 Y0.018 Z-0.041 F400.000
G1 X-0.727 Y-0.126 Z-0.054 F400.000
G1 X-0.689 Y-0.266 Z-0.067 F400.000
G1 X-0.623 Y-0.395 Z-0.080 F400.000
G1 X-0.534 Y-0.509 Z-0.092 F400.000
G1 X-0.425 Y-0.604 Z-0.105 F400.000
G1 X-0.299 Y-0.675 Z-0.118 F400.000
G1 X-0.161 Y-0.720 Z-0.131 F400.000
G1 X-0.018 Y-0.738 Z-0.144 F400.000
G1 X0.126 Y-0.727 Z-0.157 F400.000
G1 X0.266 Y-0.689 Z-0.169 F400.000
G1 X0.395 Y-0.623 Z-0.182 F400.000
G1 X0.509 Y-0.534 Z-0.195 F400.000
G1 X0.604 Y-0.425 Z-0.208 F400.000
G1 X0.675 Y-0.299 Z-0.221 F400.000
G1 X0.720 Y-0.161 Z-0.234 F400.000
G1 X0.738 Y-0.018 Z-0.247 F400.000
G1 X0.727 Y0.126 Z-0.259 F400.000
G1 X0.689 Y0.266 Z-0.272 F400.000
G1 X0.623 Y0.395 Z-0.285 F400.000
G1 X0.534 Y0.509 Z-0.298 F400.000
G1 X0.425 Y0.604 Z-0.311 F400.000
G1 X0.299 Y0.675 Z-0.324 F400.000
G1 X0.161 Y0.720 Z-0.337 F400.000
G1 X0.018 Y0.738 Z-0.349 F400.000
G1 X-0.126 Y0.727 Z-0.362 F400.000
G1 X-0.266 Y0.689 Z-0.375 F400.000
G1 X-0.395 Y0.623 Z-0.388 F400.000
G1 X-0.509 Y0.534 Z-0.401 F400.000
G1 X-0.604 Y0.425 Z-0.414 F400.000
G1 X-0.675 Y0.299 Z-0.427 F400.000
G1 X-0.720 Y0.161 Z-0.439 F400.000
G1 X-0.738 Y0.018 Z-0.452 F400.000
G1 X-0.727 Y-0.126 Z-0.465 F400.000
G1 X-0.689 Y-0.266 Z-0.478 F400.000
G1 X-0.623 Y-0.395 Z-0.491 F400.000
G1 X-0.534 Y-0.509 Z-0.504 F400.000
G1 X-0.425 Y-0.604 Z-0.516 F400.000
G1 X-0.299 Y-0.675 Z-0.529 F400.000
G1 X-0.161 Y-0.720 Z-0.542 F400.000
G1 X-0.018 Y-0.738 Z-0.555 F400.000
G1 X0.126 Y-0.727 Z-0.568 F400.000
G1 X0.266 Y-0.689 Z-0.581 F400.000
G1 X0.395 Y-0.623 Z-0.594 F400.000
G1 X0.509 Y-0.534 Z-0.606 F400.000
G1 X0.604 Y-0.425 Z-0.619 F400.000
G1 X0.675 Y-0.299 Z-0.632 F400.000
G1 X0.720 Y-0.161 Z-0.645 F400.000
G1 X0.738 Y-0.018 Z-0.658 F400.000
G1 X0.727 Y0.126 Z-0.671 F400.000
G1 X0.689 Y0.266 Z-0.684 F400.000
G1 X0.623 Y0.395 Z-0.696 F400.000
G1 X0.534 Y0.509 Z-0.709 F400.000
G1 X0.425 Y0.604 Z-0.722 F400.000
G1 X0.299 Y0.675 Z-0.735 F400.000
G1 X0.161 Y0.720 Z-0.748 F400.000
G1 X0.018 Y0.738 Z-0.761 F400.000
G1 X-0.126 Y0.727 Z-0.774 F400.000
G1 X-0.266 Y0.689 Z-0.786 F400.000
G1 X-0.395 Y0.623 Z-0.799 F400.000
G1 X-0.509 Y0.534 Z-0.812 F400.000
G1 X-0.604 Y0.425 Z-0.825 F400.000
G1 X-0.675 Y0.299 Z-0.838 F400.000
G1 X-0.720 Y0.161 Z-0.851 F400.000
G1 X-0.738 Y0.018 Z-0.863 F400.000
G1 X-0.727 Y-0.126 Z-0.876 F400.000
G1 X-0.689 Y-0.266 Z-0.889 F400.000
G1 X-0.623 Y-0.395 Z-0.902 F400.000
G1 X-0.534 Y-0.509 Z-0.915 F400.000
G1 X-0.425 Y-0.604 Z-0.928 F400.000
G1 X-0.299 Y-0.675 Z-0.941 F400.000
G1 X-0.161 Y-0.720 Z-0.953 F400.000
G1 X-0.018 Y-0.738 Z-0.966 F400.000
G1 X0.126 Y-0.727 Z-0.979 F400.000
G1 X0.266 Y-0.689 Z-0.992 F400.000
G1 X0.395 Y-0.623 Z-1.005 F400.000
G1 X0.509 Y-0.534 Z-1.018 F400.000
G1 X0.604 Y-0.425 Z-1.031 F400.000
G1 X0.675 Y-0.299 Z-1.043 F400.000
G1 X0.720 Y-0.161 Z-1.056 F400.000
G1 X0.738 Y-0.018 Z-1.069 F400.000
G1 X0.727 Y0.126 Z-1.082 F400.000
G1 X0.689 Y0.266 Z-1.095 F400.000
G1 X0.623 Y0.395 Z-1.108 F400.000
G1 X0.534 Y0.509 Z-1.120 F400.000
G1 X0.425 Y0.604 Z-1.133 F400.000
G1 X0.299 Y0.675 Z-1.146 F400.000
G1 X0.161 Y0.720 Z-1.159 F400.000
G1 X0.018 Y0.738 Z-1.172 F400.000
G1 X-0.126 Y0.727 Z-1.185 F400.000
G1 X-0.266 Y0.689 Z-1.198 F400.000
G1 X-0.395 Y0.623 Z-1.210 F400.000
G1 X-0.509 Y0.534 Z-1.223 F400.000
G1 X-0.604 Y0.425 Z-1.236 F400.000
G1 X-0.675 Y0.299 Z-1.249 F400.000
G1 X-0.720 Y0.161 Z-1.262 F400.000
G1 X-0.738 Y0.018 Z-1.275 F400.000
G1 X-0.727 Y-0.126 Z-1.288 F400.000
G1 X-0.689 Y-0.266 Z-1.300 F400.000
G1 X-0.623 Y-0.395 Z-1.313 F400.000
G1 X-0.534 Y-0.509 Z-1.326 F400.000
G1 X-0.425 Y-0.604 Z-1.339 F400.000
G1 X-0.299 Y-0.675 Z-1.352 F400.000
G1 X-0.161 Y-0.720 Z-1.365 F400.000
G1 X-0.018 Y-0.738 Z-1.378 F400.000
G1 X0.126 Y-0.727 Z-1.390 F400.000
G1 X0.266 Y-0.689 Z-1.403 F400.000
G1 X0.395 Y-0.623 Z-1.416 F400.000
G1 X0.509 Y-0.534 Z-1.429 F400.000
G1 X0.604 Y-0.425 Z-1.442 F400.000
G1 X0.675 Y-0.299 Z-1.455 F400.000
G1 X0.720 Y-0.161 Z-1.467 F400.000
G1 X0.738 Y-0.018 Z-1.480 F400.000
G1 X0.727 Y0.126 Z-1.493 F400.000
G1 X0.689 Y0.266 Z-1.506 F400.000
G1 X0.623 Y0.395 Z-1.519 F400.000
G1 X0.534 Y0.509 Z-1.532 F400.000
G1 X0.425 Y0.604 Z-1.545 F400.000
G1 X0.299 Y0.675 Z-1.557 F400.000
G1 X0.161 Y0.720 Z-1.570 F400.000
G1 X0.018 Y0.738 Z-1.583 F400.000
G1 X-0.126 Y0.727 Z-1.596 F400.000
G1 X-0.266 Y0.689 Z-1.609 F400.000
G1 X-0.395 Y0.623 Z-1.622 F400.000
G1 X-0.509 Y0.534 Z-1.635 F400.000
G1 X-0.604 Y0.425 Z-1.647 F400.000
G1 X-0.675 Y0.299 Z-1.660 F400.000
G1 X-0.720 Y0.161 Z-1.673 F400.000
G1 X-0.738 Y0.018 Z-1.686 F400.000
G1 X-0.727 Y-0.126 Z-1.699 F400.000
G1 X-0.689 Y-0.266 Z-1.712 F400.000
G1 X-0.623 Y-0.395 Z-1.725 F400.000
G1 X-0.534 Y-0.509 Z-1.737 F400.000
G1 X-0.425 Y-0.604 Z-1.750 F400.000
G1 X-0.299 Y-0.675 Z-1.763 F400.000
G1 X-0.161 Y-0.720 Z-1.776 F400.000
G1 X-0.018 Y-0.738 Z-1.789 F400.000
G1 X0.126 Y-0.727 Z-1.802 F400.000
G1 X0.266 Y-0.689 Z-1.814 F400.000
G1 X0.395 Y-0.623 Z-1.827 F400.000
G1 X0.509 Y-0.534 Z-1.840 F400.000
G1 X0.604 Y-0.425 Z-1.853 F400.000
G1 X0.675 Y-0.299 Z-1.866 F400.000
G1 X0.720 Y-0.161 Z-1.879 F400.000
G1 X0.738 Y-0.018 Z-1.892 F400.000
G1 X0.727 Y0.126 Z-1.904 F400.000
G1 X0.689 Y0.266 Z-1.917 F400.000
G1 X0.623 Y0.395 Z-1.930 F400.000
G1 X0.534 Y0.509 Z-1.943 F400.000
G1 X0.425 Y0.604 Z-1.956 F400.000
G1 X0.299 Y0.675 Z-1.969 F400.000
G1 X0.161 Y0.720 Z-1.982 F400.000
G1 X0.018 Y0.738 Z-1.994 F400.000
G1 X-0.126 Y0.727 Z-2.007 F400.000
G1 X-0.266 Y0.689 Z-2.020 F400.000
G1 X-0.395 Y0.623 Z-2.033 F400.000
G1 X-0.509 Y0.534 Z-2.046 F400.000
G1 X-0.604 Y0.425 Z-2.059 F400.000
G1 X-0.675 Y0.299 Z-2.072 F400.000
G1 X-0.720 Y0.161 Z-2.084 F400.000
G1 X-0.738 Y0.018 Z-2.097 F400.000
G1 X-0.727 Y-0.126 Z-2.110 F400.000
G1 X-0.689 Y-0.266 Z-2.123 F400.000
G1 X-0.623 Y-0.395 Z-2.136 F400.000
G1 X-0.534 Y-0.509 Z-2.149 F400.000
G1 X-0.425 Y-0.604 Z-2.161 F400.000
G1 X-0.299 Y-0.675 Z-2.174 F400.000
G1 X-0.161 Y-0.720 Z-2.187 F400.000
G1 X-0.018 Y-0.738 Z-2.200 F400.000
G1 X0.126 Y-0.727 Z-2.213 F400.000
G1 X0.266 Y-0.689 Z-2.226 F400.000
G1 X0.395 Y-0.623 Z-2.239 F400.000
G1 X0.509 Y-0.534 Z-2.251 F400.000
G1 X0.604 Y-0.425 Z-2.264 F400.000
G1 X0.675 Y-0.299 Z-2.277 F400.000
G1 X0.720 Y-0.161 Z-2.290 F400.000
G1 X0.738 Y-0.018 Z-2.303 F400.000
G1 X0.727 Y0.126 Z-2.316 F400.000
G1 X0.689 Y0.266 Z-2.329 F400.000
G1 X0.623 Y0.395 Z-2.341 F400.000
G1 X0.534 Y0.509 Z-2.354 F400.000
G1 X0.425 Y0.604 Z-2.367 F400.000
G1 X0.299 Y0.675 Z-2.380 F400.000
G1 X0.161 Y0.720 Z-2.393 F400.000
G1 X0.018 Y0.738 Z-2.406 F400.000
G1 X-0.126 Y0.727 Z-2.418 F400.000
G1 X-0.266 Y0.689 Z-2.431 F400.000
G1 X-0.395 Y0.623 Z-2.444 F400.000
G1 X-0.509 Y0.534 Z-2.457 F400.000
G1 X-0.604 Y0.425 Z-2.470 F400.000
G1 X-0.675 Y0.299 Z-2.483 F400.000
G1 X-0.720 Y0.161 Z-2.496 F400.000
G1 X-0.738 Y0.018 Z-2.508 F400.000
G1 X-0.727 Y-0.126 Z-2.521 F400.000
G1 X-0.689 Y-0.266 Z-2.534 F400.000
G1 X-0.623 Y-0.395 Z-2.547 F400.000
G1 X-0.534 Y-0.509 Z-2.560 F400.000
G1 X-0.425 Y-0.604 Z-2.573 F400.000
G1 X-0.299 Y-0.675 Z-2.586 F400.000
G1 X-0.161 Y-0.720 Z-2.598 F400.000
G1 X-0.018 Y-0.738 Z-2.600 F400.000
G1 X0.126 Y-0.727 Z-2.600 F400.000
G1 X0.266 Y-0.689 Z-2.600 F400.000
G1 X0.395 Y-0.623 Z-2.600 F400.000
G1 X0.509 Y-0.534 Z-2.600 F400.000
G1 X0.604 Y-0.425 Z-2.600 F400.000
G1 X0.675 Y-0.299 Z-2.600 F400.000
G1 X0.720 Y-0.161 Z-2.600 F400.000
G1 X0.738 Y-0.018 Z-2.600 F400.000
G1 X0.727 Y0.126 Z-2.600 F400.000
G1 X0.689 Y0.266 Z-2.600 F400.000
G1 X0.623 Y0.395 Z-2.600 F400.000
G1 X0.534 Y0.509 Z-2.600 F400.000
G1 X0.425 Y0.604 Z-2.600 F400.000
G1 X0.299 Y0.675 Z-2.600 F400.000
G1 X0.161 Y0.720 Z-2.600 F400.000
G1 X0.018 Y0.738 Z-2.600 F400.000
G1 X-0.126 Y0.727 Z-2.600 F400.000
G1 X-0.266 Y0.689 Z-2.600 F400.000
G1 X-0.395 Y0.623 Z-2.600 F400.000
G1 X-0.509 Y0.534 Z-2.600 F400.000
G1 X-0.604 Y0.425 Z-2.600 F400.000
G1 X-0.675 Y0.299 Z-2.600 F400.000
G1 X-0.720 Y0.161 Z-2.600 F400.000
G1 X-0.738 Y0.018 Z-2.600 F400.000
G1 X-0.727 Y-0.126 Z-2.600 F400.000
G1 X-0.689 Y-0.266 Z-2.600 F400.000
G1 X-0.623 Y-0.395 Z-2.600 F400.000
G1 X-0.534 Y-0.509 Z-2.600 F400.000
G1 X-0.425 Y-0.604 Z-2.600 F400.000
G1 X-0.299 Y-0.675 Z-2.600 F400.000
G1 X-0.161 Y-0.720 Z-2.600 F400.000
(Adaptive - depth: -2.600000)
G1 X0.000 Y-0.748 F400.000
G1 X0.041 Y-0.789 F400.000
G1 X0.154 Y-0.820 F400.000
G1 X0.267 Y-0.820 F400.000
G1 X0.436 Y-0.774 F400.000
G1 X0.489 Y-0.748 F400.000
G1 X0.714 Y-0.594 F400.000
G1 X0.838 Y-0.432 F400.000
G1 X0.895 Y-0.316 F400.000
G1 X0.932 Y-0.188 F400.000
G1 X0.951 Y-0.041 F400.000
G1 X0.951 Y0.128 F400.000
G1 X0.910 Y0.323 F400.000
G1 X0.842 Y0.477 F400.000
G1 X0.756 Y0.602 F400.000
G1 X0.654 Y0.711 F400.000
G1 X0.515 Y0.820 F400.000
G1 X0.346 Y0.906 F400.000
G1 X0.180 Y0.955 F400.000
G1 X0.019 Y0.970 F400.000
G1 X-0.132 Y0.962 F400.000
G1 X-0.305 Y0.925 F400.000
G1 X-0.470 Y0.853 F400.000
G1 X-0.613 Y0.756 F400.000
G1 X-0.726 Y0.647 F400.000
G1 X-0.831 Y0.511 F400.000
G1 X-0.914 Y0.346 F400.000
G1 X-0.959 Y0.180 F400.000
G1 X-0.977 Y0.019 F400.000
G1 X-0.966 Y-0.147 F400.000
G1 X-0.925 Y-0.305 F400.000
G1 X-0.861 Y-0.455 F400.000
G1 X-0.763 Y-0.602 F400.000
G1 X-0.650 Y-0.726 F400.000
G1 X-0.508 Y-0.842 F400.000
G1 X-0.342 Y-0.944 F400.000
G1 X-0.169 Y-1.008 F400.000
G1 X0.120 Y-1.049 F400.000
G1 X0.402 Y-1.019 F400.000
G1 X0.744 Y-0.876 F400.000
G1 X0.921 Y-0.722 F400.000
G1 X0.996 Y-0.624 F400.000
G1 X1.064 Y-0.515 F400.000
G1 X1.135 Y-0.361 F400.000
G1 X1.192 Y-0.147 F400.000
G1 X1.207 Y0.056 F400.000
G1 X1.192 Y0.229 F400.000
G1 X1.150 Y0.395 F400.000
G1 X1.083 Y0.564 F400.000
G1 X0.977 Y0.741 F400.000
G1 X0.846 Y0.891 F400.000
G1 X0.711 Y1.008 F400.000
G1 X0.545 Y1.109 F400.000
G1 X0.368 Y1.180 F400.000
G1 X0.184 Y1.226 F400.000
G1 X-0.004 Y1.241 F400.000
G1 X-0.188 Y1.226 F400.000
G1 X-0.368 Y1.180 F400.000
G1 X-0.541 Y1.113 F400.000
G1 X-0.722 Y1.008 F400.000
G1 X-0.872 Y0.883 F400.000
G1 X-1.004 Y0.733 F400.000
G1 X-1.098 Y0.583 F400.000
G1 X-1.173 Y0.406 F400.000
G1 X-1.218 Y0.222 F400.000
G1 X-1.233 Y0.038 F400.000
G1 X-1.229 Y-0.147 F400.000
G1 X-1.184 Y-0.357 F400.000
G1 X-1.117 Y-0.541 F400.000
G1 X-1.019 Y-0.714 F400.000
G1 X-0.906 Y-0.857 F400.000
G1 X-0.767 Y-0.992 F400.000
G1 X-0.602 Y-1.117 F400.000
G1 X-0.410 Y-1.214 F400.000
G1 X-0.218 Y-1.282 F400.000
G1 X-0.015 Y-1.323 F400.000
G1 X0.192 Y-1.335 F400.000
G1 X0.395 Y-1.316 F400.000
G1 X0.594 Y-1.259 F400.000
G1 X0.763 Y-1.188 F400.000
G1 X0.932 Y-1.083 F400.000
G1 X1.079 Y-0.955 F400.000
G1 X1.203 Y-0.808 F400.000
G1 X1.312 Y-0.647 F400.000
G1 X1.402 Y-0.447 F400.000
G1 X1.459 Y-0.252 F400.000
G1 X1.489 Y-0.045 F400.000
G1 X1.489 Y0.158 F400.000
G1 X1.459 Y0.361 F400.000
G1 X1.398 Y0.556 F400.000
G1 X1.312 Y0.744 F400.000
G1 X1.203 Y0.917 F400.000
G1 X1.064 Y1.090 F400.000
G1 X0.887 Y1.241 F400.000
G1 X0.718 Y1.346 F400.000
G1 X0.541 Y1.425 F400.000
G1 X0.342 Y1.489 F400.000
G1 X0.102 Y1.526 F400.000
G1 X-0.105 Y1.530 F400.000
G1 X-0.320 Y1.508 F400.000
G1 X-0.534 Y1.451 F400.000
G1 X-0.729 Y1.361 F400.000
G1 X-0.887 Y1.263 F400.000
G1 X-1.049 Y1.135 F400.000
G1 X-1.203 Y0.970 F400.000
G1 X-1.331 Y0.789 F400.000
G1 X-1.425 Y0.590 F400.000
G1 X-1.485 Y0.402 F400.000
G1 X-1.523 Y0.192 F400.000
G1 X-1.538 Y-0.011 F400.000
G1 X-1.519 Y-0.248 F400.000
G1 X-1.470 Y-0.459 F400.000
G1 X-1.395 Y-0.665 F400.000
G1 X-1.289 Y-0.865 F400.000
G1 X-1.154 Y-1.041 F400.000
G1 X-1.015 Y-1.184 F400.000
G1 X-0.850 Y-1.320 F400.000
G1 X-0.647 Y-1.444 F400.000
G1 X-0.421 Y-1.545 F400.000
G1 X-0.199 Y-1.613 F400.000
G1 X0.034 Y-1.643 F400.000
G1 X0.229 Y-1.647 F400.000
G1 X0.447 Y-1.624 F400.000
G1 X0.680 Y-1.560 F400.000
G1 X0.880 Y-1.474 F400.000
G1 X1.053 Y-1.372 F400.000
G1 X1.226 Y-1.241 F400.000
G1 X1.391 Y-1.068 F400.000
G1 X1.523 Y-0.891 F400.000
G1 X1.632 Y-0.692 F400.000
G1 X1.714 Y-0.481 F400.000
G1 X1.771 Y-0.267 F400.000
G1 X1.801 Y-0.023 F400.000
G1 X1.801 Y0.203 F400.000
G1 X1.771 Y0.432 F400.000
G1 X1.711 Y0.662 F400.000
G1 X1.624 Y0.876 F400.000
G1 X1.500 Y1.071 F400.000
G1 X1.380 Y1.222 F400.000
G1 X1.226 Y1.376 F400.000
G1 X1.023 Y1.538 F400.000
G1 X0.805 Y1.669 F400.000
G1 X0.579 Y1.763 F400.000
G1 X0.376 Y1.820 F400.000
G1 X0.139 Y1.853 F400.000
G1 X-0.086 Y1.861 F400.000
G1 X-0.342 Y1.835 F400.000
G1 X-0.575 Y1.782 F400.000
G1 X-0.797 Y1.695 F400.000
G1 X-0.985 Y1.594 F400.000
G1 X-1.173 Y1.459 F400.000
G1 X-1.342 Y1.305 F400.000
G1 X-1.504 Y1.117 F400.000
G1 X-1.635 Y0.917 F400.000
G1 X-1.733 Y0.699 F400.000
G1 X-1.797 Y0.492 F400.000
G1 X-1.842 Y0.267 F400.000
G1 X-1.861 Y0.015 F400.000
G1 X-1.850 Y-0.233 F400.000
G1 X-1.812 Y-0.474 F400.000
G1 X-1.741 Y-0.711 F400.000
G1 X-1.647 Y-0.921 F400.000
G1 X-1.523 Y-1.128 F400.000
G1 X-1.372 Y-1.316 F400.000
G1 X-1.199 Y-1.485 F400.000
G1 X-1.008 Y-1.632 F400.000
G1 X-0.801 Y-1.752 F400.000
G1 X-0.583 Y-1.853 F400.000
G1 X-0.323 Y-1.932 F400.000
G1 X-0.079 Y-1.977 F400.000
G1 X0.169 Y-1.996 F400.000
G1 X0.421 Y-1.977 F400.000
G1 X0.639 Y-1.936 F400.000
G1 X0.872 Y-1.861 F400.000
G1 X1.086 Y-1.756 F400.000
G1 X1.282 Y-1.632 F400.000
G1 X1.466 Y-1.477 F400.000
G1 X1.632 Y-1.308 F400.000
G1 X1.789 Y-1.098 F400.000
G1 X1.917 Y-0.887 F400.000
G1 X2.030 Y-0.639 F400.000
G1 X2.098 Y-0.387 F400.000
G1 X2.135 Y-0.165 F400.000
G1 X2.150 Y0.079 F400.000
G1 X2.135 Y0.342 F400.000
G1 X2.090 Y0.609 F400.000
G1 X2.004 Y0.857 F400.000
G1 X1.914 Y1.053 F400.000
G1 X1.782 Y1.263 F400.000
G1 X1.635 Y1.455 F400.000
G1 X1.444 Y1.650 F400.000
G1 X1.244 Y1.808 F400.000
G1 X1.026 Y1.944 F400.000
G1 X0.789 Y2.056 F400.000
G1 X0.545 Y2.139 F400.000
G1 X0.293 Y2.192 F400.000
G1 X0.034 Y2.218 F400.000
G1 X-0.218 Y2.214 F400.000
G1 X-0.470 Y2.180 F400.000
G1 X-0.714 Y2.117 F400.000
G1 X-0.951 Y2.026 F400.000
G1 X-1.177 Y1.906 F400.000
G1 X-1.387 Y1.763 F400.000
G1 X-1.579 Y1.594 F400.000
G1 X-1.744 Y1.398 F400.000
G1 X-1.868 Y1.214 F400.000
G1 X-1.989 Y1.000 F400.000
G1 X-2.098 Y0.733 F400.000
G1 X-2.177 Y0.459 F400.000
G1 X-2.214 Y0.188 F400.000
G1 X-2.226 Y-0.041 F400.000
G1 X-2.211 Y-0.297 F400.000
G1 X-2.158 Y-0.575 F400.000
G1 X-2.083 Y-0.823 F400.000
G1 X-1.977 Y-1.068 F400.000
G1 X-1.842 Y-1.301 F400.000
G1 X-1.684 Y-1.515 F400.000
G1 X-1.504 Y-1.711 F400.000
G1 X-1.297 Y-1.880 F400.000
G1 X-1.105 Y-2.004 F400.000
G1 X-0.883 Y-2.120 F400.000
G1 X-0.620 Y-2.229 F400.000
G1 X-0.320 Y-2.316 F400.000
G1 X-0.038 Y-2.350 F400.000
G1 X0.180 Y-2.357 F400.000
G1 X0.444 Y-2.338 F400.000
G1 X0.722 Y-2.282 F400.000
G1 X0.966 Y-2.207 F400.000
G1 X1.211 Y-2.102 F400.000
G1 X1.440 Y-1.966 F400.000
G1 X1.650 Y-1.808 F400.000
G1 X1.846 Y-1.624 F400.000
G1 X2.019 Y-1.421 F400.000
G1 X2.169 Y-1.199 F400.000
G1 X2.293 Y-0.962 F400.000
G1 X2.391 Y-0.711 F400.000
G1 X2.459 Y-0.451 F400.000
G1 X2.504 Y-0.188 F400.000
G1 X2.519 Y0.105 F400.000
G1 X2.504 Y0.376 F400.000
G1 X2.459 Y0.650 F400.000
G1 X2.383 Y0.921 F400.000
G1 X2.274 Y1.177 F400.000
G1 X2.158 Y1.387 F400.000
G1 X2.004 Y1.602 F400.000
G1 X1.831 Y1.801 F400.000
G1 X1.613 Y1.996 F400.000
G1 X1.391 Y2.158 F400.000
G1 X1.154 Y2.297 F400.000
G1 X0.895 Y2.410 F400.000
G1 X0.635 Y2.500 F400.000
G1 X0.327 Y2.568 F400.000
G1 X0.038 Y2.590 F400.000
G1 X-0.207 Y2.590 F400.000
G1 X-0.485 Y2.556 F400.000
G1 X-0.748 Y2.492 F400.000
G1 X-1.000 Y2.406 F400.000
G1 X-1.252 Y2.297 F400.000
G1 X-1.530 Y2.132 F400.000
G1 X-1.748 Y1.947 F400.000
G1 X-1.902 Y1.793 F400.000
G1 X-2.071 Y1.586 F400.000
G1 X-2.226 Y1.353 F400.000
G1 X-2.368 Y1.075 F400.000
G1 X-2.474 Y0.808 F400.000
G1 X-2.553 Y0.530 F400.000
G1 X-2.594 Y0.233 F400.000
G1 X-2.605 Y-0.011 F400.000
G1 X-2.594 Y-0.282 F400.000
G1 X-2.549 Y-0.590 F400.000
G1 X-2.474 Y-0.891 F400.000
G1 X-2.361 Y-1.165 F400.000
G1 X-2.252 Y-1.376 F400.000
G1 X-2.098 Y-1.605 F400.000
G1 X-1.929 Y-1.812 F400.000
G1 X-1.703 Y-2.034 F400.000
G1 X-1.481 Y-2.214 F400.000
G1 X-1.237 Y-2.372 F400.000
G1 X-0.970 Y-2.508 F400.000
G1 X-0.699 Y-2.613 F400.000
G1 X-0.417 Y-2.692 F400.000
G1 X-0.128 Y-2.741 F400.000
G1 X0.162 Y-2.748 F400.000
G1 X0.402 Y-2.733 F400.000
G1 X0.673 Y-2.695 F400.000
G1 X0.992 Y-2.617 F400.000
G1 X1.282 Y-2.496 F400.000
G1 X1.496 Y-2.387 F400.000
G1 X1.737 Y-2.229 F400.000
G1 X1.955 Y-2.056 F400.000
G1 X2.180 Y-1.835 F400.000
G1 X2.368 Y-1.609 F400.000
G1 X2.523 Y-1.361 F400.000
G1 X2.639 Y-1.132 F400.000
G1 X2.744 Y-0.868 F400.000
G1 X2.838 Y-0.556 F400.000
G1 X2.898 Y-0.233 F400.000
G1 X2.914 Y0.071 F400.000
G1 X2.906 Y0.320 F400.000
G1 X2.865 Y0.609 F400.000
G1 X2.801 Y0.883 F400.000
G1 X2.695 Y1.188 F400.000
G1 X2.571 Y1.455 F400.000
G1 X2.410 Y1.707 F400.000
G1 X2.252 Y1.910 F400.000
G1 X2.060 Y2.117 F400.000
G1 X1.827 Y2.327 F400.000
G1 X1.564 Y2.519 F400.000
G1 X1.301 Y2.677 F400.000
G1 X1.008 Y2.801 F400.000
G1 X0.763 Y2.880 F400.000
G1 X0.477 Y2.940 F400.000
G1 X0.192 Y2.977 F400.000
G1 X-0.135 Y2.985 F400.000
G1 X-0.432 Y2.962 F400.000
G1 X-0.729 Y2.914 F400.000
G1 X-1.030 Y2.831 F400.000
G1 X-1.312 Y2.722 F400.000
G1 X-1.579 Y2.571 F400.000
G1 X-1.778 Y2.436 F400.000
G1 X-1.996 Y2.256 F400.000
G1 X-2.211 Y2.041 F400.000
G1 X-2.414 Y1.789 F400.000
G1 X-2.583 Y1.538 F400.000
G1 X-2.729 Y1.267 F400.000
G1 X-2.850 Y0.977 F400.000
G1 X-2.940 Y0.680 F400.000
G1 X-2.985 Y0.372 F400.000
G1 X-3.000 Y0.135 F400.000
G1 X-3.004 Y-0.139 F400.000
G1 X-2.974 Y-0.508 F400.000
G1 X-2.906 Y-0.872 F400.000
G1 X-2.793 Y-1.192 F400.000
G1 X-2.692 Y-1.406 F400.000
G1 X-2.568 Y-1.624 F400.000
G1 X-2.395 Y-1.876 F400.000
G1 X-2.173 Y-2.143 F400.000
G1 X-1.932 Y-2.383 F400.000
G1 X-1.669 Y-2.586 F400.000
G1 X-1.436 Y-2.729 F400.000
G1 X-1.199 Y-2.853 F400.000
G1 X-0.895 Y-2.981 F400.000
G1 X-0.553 Y-3.083 F400.000
G1 X-0.241 Y-3.128 F400.000
G1 X0.000 Y-3.147 F400.000
G1 X0.293 Y-3.147 F400.000
G1 X0.635 Y-3.113 F400.000
G1 X0.981 Y-3.045 F400.000
G1 X1.293 Y-2.936 F400.000
G1 X1.519 Y-2.838 F400.000
G1 X1.782 Y-2.688 F400.000
G1 X2.019 Y-2.526 F400.000
G1 X2.286 Y-2.312 F400.000
G1 X2.530 Y-2.068 F400.000
G1 X2.722 Y-1.805 F400.000
G1 X2.846 Y-1.605 F400.000
G1 X2.985 Y-1.346 F400.000
G1 X3.124 Y-1.019 F400.000
G1 X3.237 Y-0.662 F400.000
G1 X3.293 Y-0.331 F400.000
G1 X3.320 Y-0.075 F400.000
G1 X3.323 Y0.233 F400.000
G1 X3.293 Y0.560 F400.000
G1 X3.233 Y0.883 F400.000
G1 X3.135 Y1.192 F400.000
G1 X3.034 Y1.436 F400.000
G1 X2.891 Y1.703 F400.000
G1 X2.733 Y1.951 F400.000
G1 X2.519 Y2.233 F400.000
G1 X2.274 Y2.496 F400.000
G1 X2.015 Y2.711 F400.000
G1 X1.793 Y2.868 F400.000
G1 X1.519 Y3.026 F400.000
G1 X1.241 Y3.154 F400.000
G1 X0.932 Y3.263 F400.000
G1 X0.624 Y3.338 F400.000
G1 X0.308 Y3.383 F400.000
G1 X-0.008 Y3.398 F400.000
G1 X-0.320 Y3.395 F400.000
G1 X-0.684 Y3.353 F400.000
G1 X-1.008 Y3.271 F400.000
G1 X-1.256 Y3.188 F400.000
G1 X-1.541 Y3.056 F400.000
G1 X-1.805 Y2.914 F400.000
G1 X-2.105 Y2.707 F400.000
G1 X-2.353 Y2.500 F400.000
G1 X-2.575 Y2.259 F400.000
G1 X-2.744 Y2.045 F400.000
G1 X-2.914 Y1.793 F400.000
G1 X-3.079 Y1.492 F400.000
G1 X-3.226 Y1.158 F400.000
G1 X-3.320 Y0.835 F400.000
G1 X-3.376 Y0.571 F400.000
G1 X-3.410 Y0.256 F400.000
G1 X-3.421 Y-0.045 F400.000
G1 X-3.410 Y-0.414 F400.000
G1 X-3.350 Y-0.778 F400.000
G1 X-3.271 Y-1.060 F400.000
G1 X-3.184 Y-1.312 F400.000
G1 X-3.041 Y-1.632 F400.000
G1 X-2.857 Y-1.951 F400.000
G1 X-2.665 Y-2.211 F400.000
G1 X-2.477 Y-2.425 F400.000
G1 X-2.252 Y-2.650 F400.000
G1 X-1.970 Y-2.883 F400.000
G1 X-1.677 Y-3.086 F400.000
G1 X-1.368 Y-3.244 F400.000
G1 X-1.120 Y-3.350 F400.000
G1 X-0.812 Y-3.444 F400.000
G1 X-0.511 Y-3.511 F400.000
G1 X-0.150 Y-3.556 F400.000
G1 X0.173 Y-3.568 F400.000
G1 X0.500 Y-3.553 F400.000
G1 X0.835 Y-3.504 F400.000
G1 X1.154 Y-3.429 F400.000
G1 X1.470 Y-3.323 F400.000
G1 X1.774 Y-3.188 F400.000
G1 X2.068 Y-3.026 F400.000
G1 X2.335 Y-2.827 F400.000
G1 X2.526 Y-2.658 F400.000
G1 X2.741 Y-2.444 F400.000
G1 X2.981 Y-2.158 F400.000
G1 X3.195 Y-1.853 F400.000
G1 X3.361 Y-1.545 F400.000
G1 X3.477 Y-1.286 F400.000
G1 X3.583 Y-0.970 F400.000
G1 X3.665 Y-0.658 F400.000
G1 X3.726 Y-0.289 F400.000
G1 X3.752 Y0.053 F400.000
G1 X3.741 Y0.398 F400.000
G1 X3.707 Y0.688 F400.000
G1 X3.639 Y1.008 F400.000
G1 X3.541 Y1.316 F400.000
G1 X3.417 Y1.605 F400.000
G1 X3.274 Y1.895 F400.000
G1 X3.075 Y2.207 F400.000
G1 X2.872 Y2.477 F400.000
G1 X2.639 Y2.737 F400.000
G1 X2.368 Y2.974 F400.000
G1 X2.135 Y3.147 F400.000
G1 X1.853 Y3.320 F400.000
G1 X1.568 Y3.474 F400.000
G1 X1.222 Y3.617 F400.000
G1 X0.887 Y3.722 F400.000
G1 X0.538 Y3.786 F400.000
G1 X0.263 Y3.816 F400.000
G1 X-0.056 Y3.831 F400.000
G1 X-0.425 Y3.816 F400.000
G1 X-0.793 Y3.771 F400.000
G1 X-1.150 Y3.680 F400.000
G1 X-1.425 Y3.590 F400.000
G1 X-1.737 Y3.455 F400.000
G1 X-2.026 Y3.293 F400.000
G1 X-2.289 Y3.117 F400.000
G1 X-2.545 Y2.906 F400.000
G1 X-2.778 Y2.677 F400.000
G1 X-2.989 Y2.429 F400.000
G1 X-3.184 Y2.165 F400.000
G1 X-3.376 Y1.846 F400.000
G1 X-3.526 Y1.538 F400.000
G1 X-3.654 Y1.211 F400.000
G1 X-3.756 Y0.868 F400.000
G1 X-3.827 Y0.526 F400.000
G1 X-3.857 Y0.173 F400.000
G1 X-3.861 Y-0.109 F400.000
G1 X-3.842 Y-0.432 F400.000
G1 X-3.786 Y-0.797 F400.000
G1 X-3.699 Y-1.158 F400.000
G1 X-3.590 Y-1.496 F400.000
G1 X-3.432 Y-1.827 F400.000
G1 X-3.293 Y-2.071 F400.000
G1 X-3.109 Y-2.346 F400.000
G1 X-2.883 Y-2.628 F400.000
G1 X-2.628 Y-2.898 F400.000
G1 X-2.361 Y-3.135 F400.000
G1 X-2.064 Y-3.346 F400.000
G1 X-1.801 Y-3.504 F400.000
G1 X-1.492 Y-3.654 F400.000
G1 X-1.180 Y-3.778 F400.000
G1 X-0.823 Y-3.883 F400.000
G1 X-0.481 Y-3.955 F400.000
G1 X-0.128 Y-4.000 F400.000
G1 X0.229 Y-4.015 F400.000
G1 X0.579 Y-4.000 F400.000
G1 X0.929 Y-3.940 F400.000
G1 X1.203 Y-3.872 F400.000
G1 X1.515 Y-3.774 F400.000
G1 X1.857 Y-3.632 F400.000
G1 X2.188 Y-3.459 F400.000
G1 X2.489 Y-3.252 F400.000
G1 X2.714 Y-3.071 F400.000
G1 X2.962 Y-2.835 F400.000
G1 X3.188 Y-2.590 F400.000
G1 X3.414 Y-2.293 F400.000
G1 X3.605 Y-1.992 F400.000
G1 X3.778 Y-1.673 F400.000
G1 X3.929 Y-1.331 F400.000
G1 X4.041 Y-0.981 F400.000
G1 X4.120 Y-0.658 F400.000
G1 X4.173 Y-0.305 F400.000
G1 X4.195 Y0.041 F400.000
G1 X4.188 Y0.383 F400.000
G1 X4.150 Y0.729 F400.000
G1 X4.083 Y1.071 F400.000
G1 X3.989 Y1.406 F400.000
G1 X3.865 Y1.733 F400.000
G1 X3.714 Y2.045 F400.000
G1 X3.538 Y2.346 F400.000
G1 X3.335 Y2.628 F400.000
G1 X3.105 Y2.895 F400.000
G1 X2.857 Y3.139 F400.000
G1 X2.586 Y3.361 F400.000
G1 X2.305 Y3.568 F400.000
G1 X1.985 Y3.756 F400.000
G1 X1.658 Y3.917 F400.000
G1 X1.316 Y4.053 F400.000
G1 X0.959 Y4.162 F400.000
G1 X0.594 Y4.229 F400.000
G1 X0.289 Y4.263 F400.000
G1 X-0.053 Y4.278 F400.000
G1 X-0.421 Y4.267 F400.000
G1 X-0.789 Y4.226 F400.000
G1 X-1.150 Y4.147 F400.000
G1 X-1.470 Y4.053 F400.000
G1 X-1.816 Y3.917 F400.000
G1 X-2.139 Y3.759 F400.000
G1 X-2.436 Y3.568 F400.000
G1 X-2.665 Y3.391 F400.000
G1 X-2.910 Y3.165 F400.000
G1 X-3.135 Y2.932 F400.000
G1 X-3.376 Y2.647 F400.000
G1 X-3.590 Y2.342 F400.000
G1 X-3.786 Y2.026 F400.000
G1 X-3.944 Y1.688 F400.000
G1 X-4.060 Y1.391 F400.000
G1 X-4.165 Y1.038 F400.000
G1 X-4.237 Y0.677 F400.000
G1 X-4.278 Y0.327 F400.000
G1 X-4.301 Y-0.030 F400.000
G1 X-4.286 Y-0.398 F400.000
G1 X-4.244 Y-0.767 F400.000
G1 X-4.177 Y-1.132 F400.000
G1 X-4.064 Y-1.485 F400.000
G1 X-3.955 Y-1.763 F400.000
G1 X-3.797 Y-2.079 F400.000
G1 X-3.628 Y-2.376 F400.000
G1 X-3.414 Y-2.680 F400.000
G1 X-3.177 Y-2.962 F400.000
G1 X-2.917 Y-3.229 F400.000
G1 X-2.639 Y-3.474 F400.000
G1 X-2.342 Y-3.695 F400.000
G1 X-2.026 Y-3.895 F400.000
G1 X-1.695 Y-4.068 F400.000
G1 X-1.346 Y-4.199 F400.000
G1 X-1.056 Y-4.289 F400.000
G1 X-0.714 Y-4.372 F400.000
G1 X-0.346 Y-4.429 F400.000
G1 X0.023 Y-4.459 F400.000
G1 X0.391 Y-4.462 F400.000
G1 X0.759 Y-4.436 F400.000
G1 X1.124 Y-4.368 F400.000
G1 X1.421 Y-4.282 F400.000
G1 X1.699 Y-4.184 F400.000
G1 X2.041 Y-4.041 F400.000
G1 X2.368 Y-3.865 F400.000
G1 X2.684 Y-3.669 F400.000
G1 X2.974 Y-3.436 F400.000
G1 X3.211 Y-3.218 F400.000
G1 X3.462 Y-2.959 F400.000
G1 X3.699 Y-2.669 F400.000
G1 X3.910 Y-2.365 F400.000
G1 X4.102 Y-2.045 F400.000
G1 X4.267 Y-1.711 F400.000
G1 X4.406 Y-1.365 F400.000
G1 X4.508 Y-1.004 F400.000
G1 X4.575 Y-0.688 F400.000
G1 X4.620 Y-0.320 F400.000
G1 X4.643 Y0.038 F400.000
G1 X4.635 Y0.406 F400.000
G1 X4.598 Y0.774 F400.000
G1 X4.534 Y1.139 F400.000
G1 X4.440 Y1.496 F400.000
G1 X4.320 Y1.846 F400.000
G1 X4.158 Y2.180 F400.000
G1 X4.011 Y2.436 F400.000
G1 X3.820 Y2.729 F400.000
G1 X3.590 Y3.023 F400.000
G1 X3.338 Y3.297 F400.000
G1 X3.071 Y3.556 F400.000
G1 X2.786 Y3.793 F400.000
G1 X2.481 Y4.008 F400.000
G1 X2.162 Y4.199 F400.000
G1 X1.820 Y4.353 F400.000
G1 X1.530 Y4.462 F400.000
G1 X1.180 Y4.571 F400.000
G1 X0.816 Y4.654 F400.000
G1 X0.447 Y4.711 F400.000
G1 X0.075 Y4.744 F400.000
G1 X-0.293 Y4.737 F400.000
G1 X-0.632 Y4.711 F400.000
G1 X-0.996 Y4.650 F400.000
G1 X-1.357 Y4.568 F400.000
G1 X-1.711 Y4.455 F400.000
G1 X-2.056 Y4.316 F400.000
G1 X-2.383 Y4.139 F400.000
G1 X-2.654 Y3.970 F400.000
G1 X-2.951 Y3.748 F400.000
G1 X-3.218 Y3.508 F400.000
G1 X-3.459 Y3.256 F400.000
G1 X-3.695 Y2.981 F400.000
G1 X-3.917 Y2.680 F400.000
G1 X-4.113 Y2.365 F400.000
G1 X-4.289 Y2.038 F400.000
G1 X-4.429 Y1.692 F400.000
G1 X-4.538 Y1.368 F400.000
G1 X-4.628 Y1.008 F400.000
G1 X-4.699 Y0.639 F400.000
G1 X-4.741 Y0.267 F400.000
G1 X-4.756 Y-0.102 F400.000
G1 X-4.744 Y-0.470 F400.000
G1 X-4.707 Y-0.838 F400.000
G1 X-4.624 Y-1.199 F400.000
G1 X-4.541 Y-1.496 F400.000
G1 X-4.410 Y-1.842 F400.000
G1 X-4.263 Y-2.169 F400.000
G1 X-4.083 Y-2.492 F400.000
G1 X-3.883 Y-2.808 F400.000
G1 X-3.662 Y-3.105 F400.000
G1 X-3.417 Y-3.387 F400.000
G1 X-3.147 Y-3.643 F400.000
G1 X-2.895 Y-3.853 F400.000
G1 X-2.594 Y-4.075 F400.000
G1 X-2.274 Y-4.267 F400.000
G1 X-1.944 Y-4.436 F400.000
G1 X-1.602 Y-4.583 F400.000
G1 X-1.248 Y-4.699 F400.000
G1 X-0.887 Y-4.793 F400.000
G1 X-0.519 Y-4.861 F400.000
G1 X-0.147 Y-4.898 F400.000
G1 X0.222 Y-4.917 F400.000
G1 X0.590 Y-4.906 F400.000
G1 X0.959 Y-4.853 F400.000
G1 X1.278 Y-4.793 F400.000
G1 X1.635 Y-4.692 F400.000
G1 X1.981 Y-4.560 F400.000
G1 X2.312 Y-4.406 F400.000
G1 X2.639 Y-4.229 F400.000
G1 X2.947 Y-4.023 F400.000
G1 X3.244 Y-3.797 F400.000
G1 X3.523 Y-3.549 F400.000
G1 X3.782 Y-3.282 F400.000
G1 X4.023 Y-2.996 F400.000
G1 X4.241 Y-2.692 F400.000
G1 X4.436 Y-2.372 F400.000
G1 X4.613 Y-2.045 F400.000
G1 X4.763 Y-1.703 F400.000
G1 X4.891 Y-1.353 F400.000
G1 X4.977 Y-0.989 F400.000
G1 X5.034 Y-0.673 F400.000
G1 X5.079 Y-0.301 F400.000
G1 X5.098 Y0.068 F400.000
G1 X5.090 Y0.436 F400.000
G1 X5.064 Y0.805 F400.000
G1 X5.004 Y1.169 F400.000
G1 X4.921 Y1.530 F400.000
G1 X4.801 Y1.880 F400.000
G1 X4.673 Y2.192 F400.000
G1 X4.504 Y2.523 F400.000
G1 X4.305 Y2.838 F400.000
G1 X4.086 Y3.135 F400.000
G1 X3.850 Y3.425 F400.000
G1 X3.594 Y3.695 F400.000
G1 X3.320 Y3.947 F400.000
G1 X3.030 Y4.180 F400.000
G1 X2.726 Y4.395 F400.000
G1 X2.406 Y4.586 F400.000
G1 X2.068 Y4.744 F400.000
G1 X1.756 Y4.868 F400.000
G1 X1.402 Y4.989 F400.000
G1 X1.041 Y5.083 F400.000
G1 X0.673 Y5.150 F400.000
G1 X0.301 Y5.184 F400.000
G1 X-0.064 Y5.199 F400.000
G1 X-0.432 Y5.184 F400.000
G1 X-0.801 Y5.150 F400.000
G1 X-1.165 Y5.086 F400.000
G1 X-1.526 Y5.000 F400.000
G1 X-1.880 Y4.891 F400.000
G1 X-2.222 Y4.744 F400.000
G1 X-2.526 Y4.594 F400.000
G1 X-2.846 Y4.402 F400.000
G1 X-3.147 Y4.184 F400.000
G1 X-3.432 Y3.947 F400.000
G1 X-3.699 Y3.688 F400.000
G1 X-3.951 Y3.414 F400.000
G1 X-4.180 Y3.120 F400.000
G1 X-4.387 Y2.808 F400.000
G1 X-4.571 Y2.485 F400.000
G1 X-4.733 Y2.147 F400.000
G1 X-4.876 Y1.801 F400.000
G1 X-4.992 Y1.447 F400.000
G1 X-5.086 Y1.086 F400.000
G1 X-5.158 Y0.718 F400.000
G1 X-5.203 Y0.346 F400.000
G1 X-5.222 Y-0.023 F400.000
G1 X-5.218 Y-0.391 F400.000
G1 X-5.188 Y-0.759 F400.000
G1 X-5.117 Y-1.124 F400.000
G1 X-5.038 Y-1.436 F400.000
G1 X-4.929 Y-1.789 F400.000
G1 X-4.789 Y-2.135 F400.000
G1 X-4.628 Y-2.470 F400.000
G1 X-4.447 Y-2.793 F400.000
G1 X-4.244 Y-3.105 F400.000
G1 X-4.019 Y-3.402 F400.000
G1 X-3.774 Y-3.684 F400.000
G1 X-3.511 Y-3.947 F400.000
G1 X-3.233 Y-4.195 F400.000
G1 X-2.929 Y-4.410 F400.000
G1 X-2.650 Y-4.583 F400.000
G1 X-2.323 Y-4.763 F400.000
G1 X-1.985 Y-4.921 F400.000
G1 X-1.635 Y-5.056 F400.000
G1 X-1.282 Y-5.173 F400.000
G1 X-0.921 Y-5.267 F400.000
G1 X-0.553 Y-5.335 F400.000
G1 X-0.180 Y-5.380 F400.000
G1 X0.188 Y-5.387 F400.000
G1 X0.545 Y-5.376 F400.000
G1 X0.914 Y-5.338 F400.000
G1 X1.278 Y-5.271 F400.000
G1 X1.639 Y-5.177 F400.000
G1 X1.989 Y-5.056 F400.000
G1 X2.331 Y-4.910 F400.000
G1 X2.662 Y-4.741 F400.000
G1 X2.985 Y-4.556 F400.000
G1 X3.289 Y-4.346 F400.000
G1 X3.583 Y-4.117 F400.000
G1 X3.861 Y-3.868 F400.000
G1 X4.120 Y-3.602 F400.000
G1 X4.361 Y-3.320 F400.000
G1 X4.583 Y-3.023 F400.000
G1 X4.786 Y-2.711 F400.000
G1 X4.966 Y-2.383 F400.000
G1 X5.128 Y-2.045 F400.000
G1 X5.267 Y-1.699 F400.000
G1 X5.380 Y-1.342 F400.000
G1 X5.470 Y-0.981 F400.000
G1 X5.523 Y-0.613 F400.000
G1 X5.553 Y-0.259 F400.000
G1 X5.571 Y0.109 F400.000
G1 X5.564 Y0.477 F400.000
G1 X5.534 Y0.846 F400.000
G1 X5.470 Y1.211 F400.000
G1 X5.391 Y1.571 F400.000
G1 X5.286 Y1.929 F400.000
G1 X5.154 Y2.274 F400.000
G1 X4.985 Y2.605 F400.000
G1 X4.812 Y2.902 F400.000
G1 X4.609 Y3.214 F400.000
G1 X4.387 Y3.511 F400.000
G1 X4.143 Y3.793 F400.000
G1 X3.883 Y4.060 F400.000
G1 X3.609 Y4.312 F400.000
G1 X3.320 Y4.545 F400.000
G1 X3.015 Y4.759 F400.000
G1 X2.695 Y4.955 F400.000
G1 X2.365 Y5.128 F400.000
G1 X2.023 Y5.282 F400.000
G1 X1.669 Y5.398 F400.000
G1 X1.316 Y5.496 F400.000
G1 X0.951 Y5.579 F400.000
G1 X0.579 Y5.628 F400.000
G1 X0.207 Y5.654 F400.000
G1 X-0.162 Y5.665 F400.000
G1 X-0.530 Y5.647 F400.000
G1 X-0.898 Y5.609 F400.000
G1 X-1.263 Y5.549 F400.000
G1 X-1.624 Y5.466 F400.000
G1 X-1.977 Y5.350 F400.000
G1 X-2.323 Y5.214 F400.000
G1 X-2.658 Y5.053 F400.000
G1 X-2.981 Y4.868 F400.000
G1 X-3.289 Y4.662 F400.000
G1 X-3.583 Y4.432 F400.000
G1 X-3.861 Y4.184 F400.000
G1 X-4.120 Y3.917 F400.000
G1 X-4.365 Y3.639 F400.000
G1 X-4.586 Y3.342 F400.000
G1 X-4.789 Y3.030 F400.000
G1 X-4.974 Y2.707 F400.000
G1 X-5.143 Y2.376 F400.000
G1 X-5.289 Y2.034 F400.000
G1 X-5.417 Y1.684 F400.000
G1 X-5.526 Y1.327 F400.000
G1 X-5.609 Y0.962 F400.000
G1 X-5.658 Y0.590 F400.000
G1 X-5.688 Y0.218 F400.000
G1 X-5.692 Y-0.150 F400.000
G1 X-5.677 Y-0.519 F400.000
G1 X-5.635 Y-0.887 F400.000
G1 X-5.571 Y-1.252 F400.000
G1 X-5.485 Y-1.613 F400.000
G1 X-5.376 Y-1.966 F400.000
G1 X-5.244 Y-2.312 F400.000
G1 X-5.090 Y-2.650 F400.000
G1 X-4.906 Y-2.974 F400.000
G1 X-4.703 Y-3.286 F400.000
G1 X-4.477 Y-3.583 F400.000
G1 X-4.241 Y-3.868 F400.000
G1 X-3.989 Y-4.143 F400.000
G1 X-3.718 Y-4.398 F400.000
G1 X-3.429 Y-4.632 F400.000
G1 X-3.128 Y-4.850 F400.000
G1 X-2.812 Y-5.049 F400.000
G1 X-2.481 Y-5.226 F400.000
G1 X-2.143 Y-5.380 F400.000
G1 X-1.793 Y-5.511 F400.000
G1 X-1.440 Y-5.628 F400.000
G1 X-1.079 Y-5.718 F400.000
G1 X-0.711 Y-5.789 F400.000
G1 X-0.338 Y-5.838 F400.000
G1 X0.030 Y-5.865 F400.000
G1 X0.398 Y-5.868 F400.000
G1 X0.767 Y-5.835 F400.000
G1 X1.135 Y-5.782 F400.000
G1 X1.496 Y-5.703 F400.000
G1 X1.853 Y-5.598 F400.000
G1 X2.203 Y-5.470 F400.000
G1 X2.545 Y-5.327 F400.000
G1 X2.876 Y-5.158 F400.000
G1 X3.195 Y-4.970 F400.000
G1 X3.504 Y-4.763 F400.000
G1 X3.805 Y-4.541 F400.000
G1 X4.090 Y-4.301 F400.000
G1 X4.361 Y-4.045 F400.000
G1 X4.609 Y-3.767 F400.000
G1 X4.842 Y-3.477 F400.000
G1 X5.056 Y-3.173 F400.000
G1 X5.248 Y-2.853 F400.000
G1 X5.421 Y-2.523 F400.000
G1 X5.579 Y-2.184 F400.000
G1 X5.711 Y-1.835 F400.000
G1 X5.823 Y-1.477 F400.000
G1 X5.959 Y-0.752 F400.000
G1 X5.970 Y-0.571 F400.000
G1 X6.011 Y-0.199 F400.000
G1 X5.906 Y1.222 F400.000
G1 X5.669 Y2.068 F400.000
G1 X5.361 Y2.771 F400.000
G1 X4.929 Y3.470 F400.000
G1 X4.395 Y4.120 F400.000
G1 X3.553 Y4.876 F400.000
G1 X2.462 Y5.523 F400.000
G1 X1.665 Y5.820 F400.000
G1 X0.402 Y6.060 F400.000
G1 X-0.410 Y6.090 F400.000
G1 X-1.143 Y6.023 F400.000
G1 X-1.820 Y5.868 F400.000
G1 X-2.541 Y5.594 F400.000
G1 X-3.263 Y5.192 F400.000
G1 X-4.056 Y4.564 F400.000
G1 X-4.549 Y4.041 F400.000
G1 X-5.120 Y3.252 F400.000
G1 X-5.549 Y2.444 F400.000
G1 X-5.868 Y1.579 F400.000
G1 X-6.071 Y0.496 F400.000
G1 X-6.071 Y-0.718 F400.000
G1 X-5.962 Y-1.451 F400.000
G1 X-5.560 Y-2.617 F400.000
G1 X-4.966 Y-3.632 F400.000
G1 X-4.256 Y-4.444 F400.000
G1 X-3.560 Y-5.034 F400.000
G1 X-2.737 Y-5.545 F400.000
G1 X-1.722 Y-5.977 F400.000
G1 X-0.647 Y-6.244 F400.000
G1 X0.462 Y-6.305 F400.000
G1 X1.421 Y-6.173 F400.000
G1 X2.699 Y-5.733 F400.000
G1 X3.477 Y-5.305 F400.000
G1 X4.372 Y-4.602 F400.000
G1 X5.173 Y-3.711 F400.000
G1 X5.711 Y-2.842 F400.000
G1 X6.034 Y-2.117 F400.000
G1 X6.342 Y-0.921 F400.000
G1 X6.410 Y0.432 F400.000
G1 X6.267 Y1.504 F400.000
G1 X5.906 Y2.564 F400.000
G1 X5.459 Y3.395 F400.000
G1 X4.782 Y4.293 F400.000
G1 X4.041 Y4.989 F400.000
G1 X3.447 Y5.421 F400.000
G1 X2.417 Y5.962 F400.000
G1 X1.733 Y6.203 F400.000
G1 X0.470 Y6.444 F400.000
G1 X-0.177 Y6.477 F400.000
G1 X-0.910 Y6.417 F400.000
G1 X-1.812 Y6.226 F400.000
G1 X-2.594 Y5.944 F400.000
G1 X-3.432 Y5.496 F400.000
G1 X-4.241 Y4.895 F400.000
G1 X-4.917 Y4.195 F400.000
G1 X-5.447 Y3.455 F400.000
G1 X-5.981 Y2.421 F400.000
G1 X-6.331 Y1.308 F400.000
G1 X-6.485 Y-0.011 F400.000
G1 X-6.477 Y-0.350 F400.000
G1 X-6.372 Y-1.195 F400.000
G1 X-6.150 Y-2.041 F400.000
G1 X-5.812 Y-2.865 F400.000
G1 X-5.590 Y-3.286 F400.000
G1 X-5.293 Y-3.737 F400.000
G1 X-4.853 Y-4.293 F400.000
G1 X-4.305 Y-4.850 F400.000
G1 X-3.489 Y-5.466 F400.000
G1 X-2.579 Y-5.951 F400.000
G1 X-1.898 Y-6.203 F400.000
G1 X-1.177 Y-6.380 F400.000
G1 X-0.335 Y-6.474 F400.000
G1 X0.474 Y-6.470 F400.000
G1 X1.432 Y-6.323 F400.000
G1 X2.165 Y-6.113 F400.000
G1 X3.038 Y-5.733 F400.000
G1 X3.692 Y-5.331 F400.000
G1 X4.301 Y-4.850 F400.000
G1 X4.853 Y-4.305 F400.000
G1 X5.263 Y-3.782 F400.000
G1 X5.658 Y-3.177 F400.000
G1 X6.068 Y-2.289 F400.000
G1 X6.289 Y-1.590 F400.000
G1 X6.421 Y-0.929 F400.000
G1 X6.470 Y-0.447 F400.000
G1 X6.459 Y0.538 F400.000
G1 X6.357 Y1.271 F400.000
G1 X6.132 Y2.117 F400.000
G1 X5.756 Y2.989 F400.000
G1 X5.192 Y3.887 F400.000
G1 X4.812 Y4.353 F400.000
G1 X4.207 Y4.936 F400.000
G1 X3.523 Y5.447 F400.000
G1 X2.496 Y5.989 F400.000
G1 X1.876 Y6.211 F400.000
G1 X1.034 Y6.406 F400.000
G1 X0.432 Y6.474 F400.000
G1 X0.432 Y6.474 F400.000
G1 X0.305 Y6.447 F400.000
G1 X0.218 Y6.406 F400.000
G0 X0.192 Y6.391
G0 X-4.959 Y3.880
G1 X-5.004 Y3.857 F400.000
G1 X-5.109 Y3.808 F400.000
G1 X-5.286 Y3.718 F400.000
G1 X-5.353 Y3.658 F400.000
G1 X-5.353 Y3.658 F400.000
G1 X-5.729 Y3.038 F400.000
G1 X-5.992 Y2.485 F400.000
G1 X-6.218 Y1.857 F400.000
G1 X-6.391 Y1.135 F400.000
G1 X-6.436 Y0.835 F400.000
G1 X-6.436 Y0.835 F400.000
G1 X-6.429 Y0.816 F400.000
G0 X-6.414 Y0.808
G0 X-6.383 Y0.816
G1 X-6.372 Y0.827 F400.000
G1 X-6.383 Y0.857 F400.000
G1 X-6.414 Y0.880 F400.000
G1 X-6.459 Y0.853 F400.000
G1 X-6.459 Y0.853 F400.000
G1 X-6.511 Y0.214 F400.000
G1 X-6.515 Y0.041 F400.000
G1 X-6.500 Y-0.380 F400.000
G1 X-6.444 Y-0.925 F400.000
G1 X-6.402 Y-1.203 F400.000
G1 X-6.271 Y-1.752 F400.000
G1 X-6.188 Y-2.023 F400.000
G1 X-6.004 Y-2.508 F400.000
G1 X-5.857 Y-2.846 F400.000
G1 X-5.586 Y-3.342 F400.000
G1 X-5.414 Y-3.617 F400.000
G1 X-5.113 Y-4.026 F400.000
G1 X-4.857 Y-4.331 F400.000
G1 X-4.470 Y-4.737 F400.000
G1 X-4.011 Y-5.128 F400.000
G1 X-3.632 Y-5.406 F400.000
G1 X-3.286 Y-5.628 F400.000
G1 X-3.105 Y-5.729 F400.000
G1 X-2.530 Y-6.004 F400.000
G1 X-2.008 Y-6.195 F400.000
G1 X-1.805 Y-6.256 F400.000
G1 X-1.180 Y-6.406 F400.000
G1 X-0.868 Y-6.459 F400.000
G1 X-0.680 Y-6.481 F400.000
G1 X-0.365 Y-6.504 F400.000
G1 X-0.113 Y-6.511 F400.000
G1 X0.523 Y-6.489 F400.000
G1 X0.831 Y-6.459 F400.000
G1 X1.425 Y-6.350 F400.000
G1 X1.951 Y-6.211 F400.000
G1 X2.248 Y-6.113 F400.000
G1 X2.778 Y-5.887 F400.000
G1 X3.075 Y-5.744 F400.000
G1 X3.523 Y-5.481 F400.000
G1 X3.733 Y-5.338 F400.000
G1 X4.267 Y-4.921 F400.000
G1 X4.673 Y-4.534 F400.000
G1 X4.857 Y-4.342 F400.000
G1 X5.034 Y-4.132 F400.000
G1 X5.395 Y-3.643 F400.000
G1 X5.568 Y-3.380 F400.000
G1 X5.726 Y-3.113 F400.000
G1 X5.921 Y-2.707 F400.000
G1 X6.038 Y-2.440 F400.000
G1 X6.233 Y-1.906 F400.000
G1 X6.323 Y-1.560 F400.000
G1 X6.372 Y-1.338 F400.000
G1 X6.447 Y-0.925 F400.000
G1 X6.496 Y-0.470 F400.000
G1 X6.511 Y-0.109 F400.000
G1 X6.508 Y0.124 F400.000
G1 X6.455 Y0.838 F400.000
G1 X6.372 Y1.327 F400.000
G1 X6.312 Y1.605 F400.000
G1 X6.256 Y1.820 F400.000
G1 X6.169 Y2.086 F400.000
G1 X6.056 Y2.383 F400.000
G1 X5.906 Y2.741 F400.000
G1 X5.677 Y3.188 F400.000
G1 X5.534 Y3.425 F400.000
G1 X5.192 Y3.929 F400.000
G1 X4.801 Y4.406 F400.000
G1 X4.665 Y4.545 F400.000
G1 X4.263 Y4.921 F400.000
G1 X3.673 Y5.380 F400.000
G1 X3.459 Y5.523 F400.000
G1 X3.023 Y5.771 F400.000
G1 X2.440 Y6.038 F400.000
G1 X1.868 Y6.237 F400.000
G1 X1.361 Y6.368 F400.000
G1 X0.974 Y6.444 F400.000
G1 X0.470 Y6.500 F400.000
G1 X-0.086 Y6.515 F400.000
G1 X-0.763 Y6.470 F400.000
G1 X-1.271 Y6.383 F400.000
G1 X-1.865 Y6.237 F400.000
G1 X-2.436 Y6.041 F400.000
G1 X-2.947 Y5.805 F400.000
G1 X-3.365 Y5.571 F400.000
G1 X-3.868 Y5.233 F400.000
G1 X-4.083 Y5.068 F400.000
G1 X-4.395 Y4.801 F400.000
G1 X-4.523 Y4.680 F400.000
G1 X-4.970 Y4.207 F400.000
G1 X-5.154 Y3.981 F400.000
G1 X-5.447 Y3.564 F400.000
G1 X-5.635 Y3.263 F400.000
G1 X-5.767 Y3.026 F400.000
G1 X-6.045 Y2.432 F400.000
G1 X-6.241 Y1.872 F400.000
G1 X-6.293 Y1.699 F400.000
G1 X-6.432 Y1.060 F400.000
G1 X-6.459 Y0.853 F400.000
G1 X-6.459 Y0.853 F400.000
G0 Z6.000
G0 Z6.000
(Finish operation: Adaptive_bearing)
(Block-name: Adaptive_outFace)
(Block-expand: 0)
(Block-enable: 1)
(Begin operation: Adaptive_outFace)
(Path: Adaptive_outFace)
(Adaptive_outFace)
G0 Z6.000
G0 X0.859 Y-31.028 Z6.000
G1 X0.859 Y-31.028 Z-1.000 F400.000
(Adaptive - depth: -1.000000)
G1 X0.859 Y-31.028 F400.000
G1 X0.486 Y-30.915 F400.000
G1 X0.119 Y-30.836 F400.000
G1 X-0.983 Y-30.667 F400.000
G1 X-2.819 Y-30.469 F400.000
G1 X-5.023 Y-30.169 F400.000
G1 X-6.475 Y-29.881 F400.000
G1 X-7.910 Y-29.514 F400.000
G1 X-8.977 Y-29.192 F400.000
G1 X-9.328 Y-29.073 F400.000
G1 X-10.395 Y-28.746 F400.000
G1 X-11.096 Y-28.497 F400.000
G1 X-12.808 Y-27.763 F400.000
G1 X-14.141 Y-27.102 F400.000
G1 X-16.085 Y-26.000 F400.000
G1 X-17.339 Y-25.192 F400.000
G1 X-18.548 Y-24.328 F400.000
G1 X-19.712 Y-23.401 F400.000
G1 X-20.831 Y-22.412 F400.000
G1 X-21.633 Y-21.638 F400.000
G1 X-22.407 Y-20.831 F400.000
G1 X-23.390 Y-19.706 F400.000
G1 X-24.316 Y-18.531 F400.000
G1 X-25.412 Y-17.017 F400.000
G1 X-26.028 Y-16.079 F400.000
G1 X-26.774 Y-14.780 F400.000
G1 X-27.638 Y-13.119 F400.000
G1 X-28.266 Y-11.757 F400.000
G1 X-28.678 Y-10.712 F400.000
G1 X-29.153 Y-9.294 F400.000
G1 X-29.559 Y-7.847 F400.000
G1 X-29.989 Y-6.023 F400.000
G1 X-30.328 Y-4.181 F400.000
G1 X-30.384 Y-3.808 F400.000
G1 X-30.525 Y-2.316 F400.000
G1 X-30.621 Y-0.079 F400.000
G1 X-30.616 Y0.655 F400.000
G1 X-30.531 Y2.124 F400.000
G1 X-30.350 Y3.960 F400.000
G1 X-30.175 Y5.062 F400.000
G1 X-29.723 Y7.237 F400.000
G1 X-29.452 Y8.322 F400.000
G1 X-29.124 Y9.390 F400.000
G1 X-28.633 Y10.791 F400.000
G1 X-27.915 Y12.503 F400.000
G1 X-27.277 Y13.847 F400.000
G1 X-26.751 Y14.831 F400.000
G1 X-25.983 Y16.107 F400.000
G1 X-25.181 Y17.356 F400.000
G1 X-24.322 Y18.571 F400.000
G1 X-23.621 Y19.446 F400.000
G1 X-22.395 Y20.842 F400.000
G1 X-21.362 Y21.915 F400.000
G1 X-20.542 Y22.672 F400.000
G1 X-19.407 Y23.638 F400.000
G1 X-17.927 Y24.774 F400.000
G1 X-17.006 Y25.407 F400.000
G1 X-14.446 Y26.949 F400.000
G1 X-13.446 Y27.469 F400.000
G1 X-12.429 Y27.944 F400.000
G1 X-11.040 Y28.508 F400.000
G1 X-8.915 Y29.243 F400.000
G1 X-7.836 Y29.548 F400.000
G1 X-6.379 Y29.893 F400.000
G1 X-4.537 Y30.232 F400.000
G1 X-3.418 Y30.384 F400.000
G1 X-1.927 Y30.520 F400.000
G1 X-0.808 Y30.571 F400.000
G1 X0.672 Y30.571 F400.000
G1 X1.774 Y30.520 F400.000
G1 X3.243 Y30.390 F400.000
G1 X5.079 Y30.119 F400.000
G1 X6.164 Y29.898 F400.000
G1 X7.972 Y29.486 F400.000
G1 X9.040 Y29.175 F400.000
G1 X10.090 Y28.814 F400.000
G1 X11.819 Y28.153 F400.000
G1 X13.514 Y27.390 F400.000
G1 X14.181 Y27.056 F400.000
G1 X15.469 Y26.322 F400.000
G1 X16.734 Y25.542 F400.000
G1 X17.356 Y25.136 F400.000
G1 X18.266 Y24.486 F400.000
G1 X19.141 Y23.791 F400.000
G1 X21.096 Y22.062 F400.000
G1 X21.367 Y21.808 F400.000
G1 X22.153 Y21.006 F400.000
G1 X23.141 Y19.887 F400.000
G1 X23.864 Y19.028 F400.000
G1 X24.989 Y17.542 F400.000
G1 X25.610 Y16.605 F400.000
G1 X25.989 Y15.966 F400.000
G1 X26.192 Y15.650 F400.000
G1 X26.944 Y14.356 F400.000
G1 X27.458 Y13.356 F400.000
G1 X28.073 Y11.989 F400.000
G1 X28.881 Y9.898 F400.000
G1 X29.232 Y8.831 F400.000
G1 X29.621 Y7.384 F400.000
G1 X30.141 Y4.814 F400.000
G1 X30.305 Y3.695 F400.000
G1 X30.446 Y2.203 F400.000
G1 X30.497 Y1.085 F400.000
G1 X30.497 Y-0.763 F400.000
G1 X30.446 Y-1.864 F400.000
G1 X30.322 Y-3.333 F400.000
G1 X30.124 Y-4.802 F400.000
G1 X29.921 Y-5.893 F400.000
G1 X29.514 Y-7.701 F400.000
G1 X29.226 Y-8.768 F400.000
G1 X28.898 Y-9.836 F400.000
G1 X28.401 Y-11.237 F400.000
G1 X27.808 Y-12.593 F400.000
G1 X26.814 Y-14.588 F400.000
G1 X26.458 Y-15.243 F400.000
G1 X25.876 Y-16.192 F400.000
G1 X24.616 Y-18.034 F400.000
G1 X23.949 Y-18.927 F400.000
G1 X23.000 Y-20.073 F400.000
G1 X21.989 Y-21.169 F400.000
G1 X21.198 Y-21.955 F400.000
G1 X20.373 Y-22.712 F400.000
G1 X19.520 Y-23.435 F400.000
G1 X19.243 Y-23.684 F400.000
G1 X18.068 Y-24.605 F400.000
G1 X17.147 Y-25.249 F400.000
G1 X15.893 Y-26.051 F400.000
G1 X14.605 Y-26.808 F400.000
G1 X13.616 Y-27.328 F400.000
G1 X12.599 Y-27.802 F400.000
G1 X10.881 Y-28.537 F400.000
G1 X9.831 Y-28.938 F400.000
G1 X9.119 Y-29.175 F400.000
G1 X7.311 Y-29.678 F400.000
G1 X5.847 Y-30.000 F400.000
G1 X3.616 Y-30.356 F400.000
G1 X3.243 Y-30.401 F400.000
G1 X2.870 Y-30.407 F400.000
G1 X2.497 Y-30.367 F400.000
G1 X1.017 Y-30.113 F400.000
G1 X0.650 Y-30.034 F400.000
G1 X-4.497 Y-29.322 F400.000
G1 X-5.226 Y-29.192 F400.000
G1 X-7.395 Y-28.678 F400.000
G1 X-8.819 Y-28.271 F400.000
G1 X-10.576 Y-27.661 F400.000
G1 X-11.610 Y-27.249 F400.000
G1 X-12.966 Y-26.644 F400.000
G1 X-13.966 Y-26.147 F400.000
G1 X-14.938 Y-25.599 F400.000
G1 X-17.441 Y-23.977 F400.000
G1 X-18.333 Y-23.311 F400.000
G1 X-19.192 Y-22.593 F400.000
G1 X-19.469 Y-22.345 F400.000
G1 X-19.757 Y-22.107 F400.000
G1 X-20.853 Y-21.096 F400.000
G1 X-22.113 Y-19.723 F400.000
G1 X-23.090 Y-18.588 F400.000
G1 X-23.780 Y-17.701 F400.000
G1 X-24.424 Y-16.780 F400.000
G1 X-25.435 Y-15.209 F400.000
G1 X-26.175 Y-13.910 F400.000
G1 X-26.525 Y-13.254 F400.000
G1 X-27.011 Y-12.243 F400.000
G1 X-27.452 Y-11.209 F400.000
G1 X-27.966 Y-9.802 F400.000
G1 X-28.638 Y-7.650 F400.000
G1 X-29.090 Y-5.831 F400.000
G1 X-29.311 Y-4.729 F400.000
G1 X-29.542 Y-2.864 F400.000
G1 X-29.661 Y-1.373 F400.000
G1 X-29.684 Y-0.254 F400.000
G1 X-29.650 Y0.847 F400.000
G1 X-29.599 Y1.582 F400.000
G1 X-29.588 Y1.949 F400.000
G1 X-29.503 Y3.051 F400.000
G1 X-29.356 Y4.153 F400.000
G1 X-28.893 Y6.701 F400.000
G1 X-28.520 Y8.130 F400.000
G1 X-28.192 Y9.198 F400.000
G1 X-27.695 Y10.599 F400.000
G1 X-27.282 Y11.633 F400.000
G1 X-26.672 Y12.983 F400.000
G1 X-26.339 Y13.650 F400.000
G1 X-25.785 Y14.616 F400.000
G1 X-24.808 Y16.198 F400.000
G1 X-23.989 Y17.441 F400.000
G1 X-23.322 Y18.333 F400.000
G1 X-22.610 Y19.192 F400.000
G1 X-21.102 Y20.836 F400.000
G1 X-20.028 Y21.876 F400.000
G1 X-19.186 Y22.616 F400.000
G1 X-18.316 Y23.322 F400.000
G1 X-17.107 Y24.203 F400.000
G1 X-15.853 Y25.017 F400.000
G1 X-14.571 Y25.797 F400.000
G1 X-13.588 Y26.339 F400.000
G1 X-12.588 Y26.842 F400.000
G1 X-11.559 Y27.294 F400.000
G1 X-9.814 Y27.955 F400.000
G1 X-8.746 Y28.311 F400.000
G1 X-6.944 Y28.819 F400.000
G1 X-5.842 Y29.045 F400.000
G1 X-3.994 Y29.362 F400.000
G1 X-3.249 Y29.469 F400.000
G1 X-2.130 Y29.582 F400.000
G1 X-1.011 Y29.638 F400.000
G1 X0.102 Y29.638 F400.000
G1 X2.305 Y29.531 F400.000
G1 X3.774 Y29.379 F400.000
G1 X4.876 Y29.209 F400.000
G1 X7.051 Y28.746 F400.000
G1 X8.119 Y28.452 F400.000
G1 X9.181 Y28.113 F400.000
G1 X10.927 Y27.480 F400.000
G1 X11.960 Y27.068 F400.000
G1 X12.972 Y26.605 F400.000
G1 X13.960 Y26.090 F400.000
G1 X16.192 Y24.774 F400.000
G1 X16.814 Y24.367 F400.000
G1 X17.718 Y23.712 F400.000
G1 X19.153 Y22.514 F400.000
G1 X20.797 Y21.006 F400.000
G1 X21.328 Y20.486 F400.000
G1 X22.085 Y19.667 F400.000
G1 X23.040 Y18.525 F400.000
G1 X24.175 Y17.040 F400.000
G1 X24.797 Y16.113 F400.000
G1 X25.571 Y14.836 F400.000
G1 X26.486 Y13.198 F400.000
G1 X26.972 Y12.181 F400.000
G1 X27.955 Y9.746 F400.000
G1 X28.305 Y8.678 F400.000
G1 X28.605 Y7.593 F400.000
G1 X29.096 Y5.395 F400.000
G1 X29.288 Y4.288 F400.000
G1 X29.475 Y2.797 F400.000
G1 X29.559 Y1.678 F400.000
G1 X29.582 Y0.559 F400.000
G1 X29.565 Y-0.915 F400.000
G1 X29.492 Y-2.017 F400.000
G1 X29.260 Y-4.220 F400.000
G1 X29.073 Y-5.322 F400.000
G1 X28.593 Y-7.492 F400.000
G1 X28.085 Y-9.271 F400.000
G1 X27.729 Y-10.328 F400.000
G1 X27.158 Y-11.695 F400.000
G1 X26.525 Y-13.040 F400.000
G1 X26.028 Y-14.040 F400.000
G1 X25.305 Y-15.333 F400.000
G1 X24.486 Y-16.571 F400.000
G1 X23.175 Y-18.384 F400.000
G1 X22.463 Y-19.243 F400.000
G1 X21.452 Y-20.339 F400.000
G1 X20.136 Y-21.655 F400.000
G1 X19.299 Y-22.401 F400.000
G1 X18.136 Y-23.333 F400.000
G1 X16.627 Y-24.429 F400.000
G1 X15.706 Y-25.062 F400.000
G1 X14.751 Y-25.644 F400.000
G1 X13.429 Y-26.350 F400.000
G1 X11.395 Y-27.305 F400.000
G1 X10.362 Y-27.734 F400.000
G1 X9.305 Y-28.107 F400.000
G1 X7.508 Y-28.661 F400.000
G1 X6.418 Y-28.927 F400.000
G1 X4.944 Y-29.203 F400.000
G1 X3.825 Y-29.345 F400.000
G1 X3.452 Y-29.362 F400.000
G1 X2.706 Y-29.345 F400.000
G1 X1.960 Y-29.277 F400.000
G1 X-3.944 Y-28.480 F400.000
G1 X-4.672 Y-28.350 F400.000
G1 X-7.203 Y-27.751 F400.000
G1 X-8.627 Y-27.345 F400.000
G1 X-10.034 Y-26.853 F400.000
G1 X-11.062 Y-26.429 F400.000
G1 X-11.757 Y-26.158 F400.000
G1 X-12.768 Y-25.689 F400.000
G1 X-13.757 Y-25.164 F400.000
G1 X-15.983 Y-23.825 F400.000
G1 X-16.904 Y-23.192 F400.000
G1 X-18.090 Y-22.294 F400.000
G1 X-18.949 Y-21.576 F400.000
G1 X-20.045 Y-20.565 F400.000
G1 X-21.808 Y-18.638 F400.000
G1 X-22.531 Y-17.785 F400.000
G1 X-23.203 Y-16.887 F400.000
G1 X-24.243 Y-15.345 F400.000
G1 X-24.825 Y-14.384 F400.000
G1 X-25.362 Y-13.401 F400.000
G1 X-26.034 Y-12.068 F400.000
G1 X-26.497 Y-11.045 F400.000
G1 X-26.898 Y-9.994 F400.000
G1 X-27.497 Y-8.220 F400.000
G1 X-27.921 Y-6.780 F400.000
G1 X-28.175 Y-5.678 F400.000
G1 X-28.379 Y-4.576 F400.000
G1 X-28.531 Y-3.458 F400.000
G1 X-28.701 Y-1.593 F400.000
G1 X-28.746 Y-0.475 F400.000
G1 X-28.729 Y0.633 F400.000
G1 X-28.633 Y2.102 F400.000
G1 X-28.514 Y3.203 F400.000
G1 X-28.119 Y5.774 F400.000
G1 X-27.881 Y6.859 F400.000
G1 X-27.266 Y8.994 F400.000
G1 X-26.893 Y10.045 F400.000
G1 X-26.480 Y11.079 F400.000
G1 X-26.023 Y12.090 F400.000
G1 X-25.175 Y13.746 F400.000
G1 X-24.237 Y15.356 F400.000
G1 X-23.638 Y16.299 F400.000
G1 X-22.989 Y17.209 F400.000
G1 X-22.288 Y18.073 F400.000
G1 X-21.808 Y18.644 F400.000
G1 X-20.299 Y20.288 F400.000
G1 X-19.497 Y21.073 F400.000
G1 X-18.655 Y21.819 F400.000
G1 X-17.480 Y22.746 F400.000
G1 X-15.966 Y23.831 F400.000
G1 X-15.028 Y24.435 F400.000
G1 X-14.062 Y25.006 F400.000
G1 X-12.740 Y25.712 F400.000
G1 X-11.384 Y26.345 F400.000
G1 X-9.994 Y26.910 F400.000
G1 X-8.932 Y27.282 F400.000
G1 X-7.497 Y27.718 F400.000
G1 X-6.407 Y27.994 F400.000
G1 X-5.299 Y28.198 F400.000
G1 X-4.932 Y28.277 F400.000
G1 X-4.198 Y28.401 F400.000
G1 X-3.079 Y28.548 F400.000
G1 X-1.588 Y28.667 F400.000
G1 X-0.469 Y28.701 F400.000
G1 X0.638 Y28.684 F400.000
G1 X1.740 Y28.616 F400.000
G1 X3.576 Y28.435 F400.000
G1 X5.412 Y28.153 F400.000
G1 X6.497 Y27.904 F400.000
G1 X8.633 Y27.288 F400.000
G1 X9.689 Y26.944 F400.000
G1 X10.729 Y26.548 F400.000
G1 X11.751 Y26.102 F400.000
G1 X13.746 Y25.113 F400.000
G1 X15.045 Y24.390 F400.000
G1 X16.588 Y23.350 F400.000
G1 X17.774 Y22.452 F400.000
G1 X18.915 Y21.497 F400.000
G1 X19.740 Y20.740 F400.000
G1 X20.791 Y19.678 F400.000
G1 X21.542 Y18.853 F400.000
G1 X22.492 Y17.701 F400.000
G1 X23.164 Y16.808 F400.000
G1 X24.006 Y15.576 F400.000
G1 X24.599 Y14.621 F400.000
G1 X25.503 Y12.983 F400.000
G1 X25.994 Y11.972 F400.000
G1 X26.881 Y9.910 F400.000
G1 X27.260 Y8.853 F400.000
G1 X27.582 Y7.774 F400.000
G1 X28.186 Y5.215 F400.000
G1 X28.407 Y3.723 F400.000
G1 X28.525 Y2.605 F400.000
G1 X28.621 Y1.113 F400.000
G1 X28.650 Y-0.367 F400.000
G1 X28.644 Y-0.734 F400.000
G1 X28.537 Y-2.203 F400.000
G1 X28.305 Y-4.040 F400.000
G1 X28.051 Y-5.503 F400.000
G1 X27.734 Y-6.949 F400.000
G1 X27.356 Y-8.384 F400.000
G1 X27.028 Y-9.452 F400.000
G1 X26.486 Y-10.836 F400.000
G1 X25.559 Y-12.864 F400.000
G1 X24.864 Y-14.186 F400.000
G1 X24.497 Y-14.831 F400.000
G1 X24.102 Y-15.463 F400.000
G1 X23.260 Y-16.695 F400.000
G1 X22.367 Y-17.887 F400.000
G1 X21.633 Y-18.729 F400.000
G1 X21.379 Y-19.000 F400.000
G1 X21.136 Y-19.282 F400.000
G1 X19.842 Y-20.627 F400.000
G1 X19.576 Y-20.887 F400.000
G1 X18.740 Y-21.627 F400.000
G1 X16.689 Y-23.237 F400.000
G1 X15.785 Y-23.893 F400.000
G1 X14.847 Y-24.497 F400.000
G1 X13.876 Y-25.056 F400.000
G1 X12.881 Y-25.565 F400.000
G1 X11.192 Y-26.379 F400.000
G1 X10.153 Y-26.808 F400.000
G1 X8.740 Y-27.299 F400.000
G1 X7.311 Y-27.746 F400.000
G1 X6.220 Y-28.017 F400.000
G1 X5.119 Y-28.237 F400.000
G1 X4.373 Y-28.328 F400.000
G1 X3.627 Y-28.373 F400.000
G1 X2.881 Y-28.373 F400.000
G1 X1.763 Y-28.294 F400.000
G1 X-1.198 Y-27.938 F400.000
G1 X-3.034 Y-27.689 F400.000
G1 X-4.136 Y-27.503 F400.000
G1 X-5.220 Y-27.271 F400.000
G1 X-7.379 Y-26.723 F400.000
G1 X-8.802 Y-26.299 F400.000
G1 X-9.853 Y-25.915 F400.000
G1 X-11.226 Y-25.345 F400.000
G1 X-12.571 Y-24.718 F400.000
G1 X-13.548 Y-24.186 F400.000
G1 X-15.158 Y-23.237 F400.000
G1 X-16.090 Y-22.621 F400.000
G1 X-16.983 Y-21.955 F400.000
G1 X-18.424 Y-20.780 F400.000
G1 X-19.237 Y-20.011 F400.000
G1 X-20.271 Y-18.932 F400.000
G1 X-21.508 Y-17.537 F400.000
G1 X-22.203 Y-16.661 F400.000
G1 X-22.859 Y-15.757 F400.000
G1 X-23.469 Y-14.819 F400.000
G1 X-24.220 Y-13.520 F400.000
G1 X-25.096 Y-11.859 F400.000
G1 X-25.565 Y-10.842 F400.000
G1 X-25.712 Y-10.497 F400.000
G1 X-26.576 Y-8.023 F400.000
G1 X-26.910 Y-6.955 F400.000
G1 X-27.175 Y-5.859 F400.000
G1 X-27.311 Y-5.124 F400.000
G1 X-27.582 Y-3.266 F400.000
G1 X-27.751 Y-1.401 F400.000
G1 X-27.808 Y-0.282 F400.000
G1 X-27.785 Y0.819 F400.000
G1 X-27.734 Y1.554 F400.000
G1 X-27.475 Y3.757 F400.000
G1 X-27.175 Y5.593 F400.000
G1 X-26.842 Y7.040 F400.000
G1 X-26.537 Y8.107 F400.000
G1 X-26.181 Y9.164 F400.000
G1 X-25.655 Y10.554 F400.000
G1 X-25.209 Y11.571 F400.000
G1 X-24.362 Y13.226 F400.000
G1 X-23.825 Y14.203 F400.000
G1 X-23.243 Y15.158 F400.000
G1 X-22.412 Y16.390 F400.000
G1 X-21.480 Y17.554 F400.000
G1 X-20.000 Y19.226 F400.000
G1 X-19.486 Y19.768 F400.000
G1 X-18.678 Y20.542 F400.000
G1 X-17.825 Y21.271 F400.000
G1 X-16.045 Y22.621 F400.000
G1 X-15.124 Y23.260 F400.000
G1 X-13.525 Y24.232 F400.000
G1 X-12.203 Y24.927 F400.000
G1 X-11.186 Y25.401 F400.000
G1 X-9.797 Y25.966 F400.000
G1 X-8.734 Y26.339 F400.000
G1 X-7.299 Y26.774 F400.000
G1 X-6.209 Y27.045 F400.000
G1 X-4.740 Y27.333 F400.000
G1 X-3.621 Y27.503 F400.000
G1 X-1.384 Y27.718 F400.000
G1 X-0.266 Y27.751 F400.000
G1 X0.836 Y27.718 F400.000
G1 X3.040 Y27.559 F400.000
G1 X4.141 Y27.418 F400.000
G1 X5.232 Y27.215 F400.000
G1 X6.316 Y26.960 F400.000
G1 X8.458 Y26.362 F400.000
G1 X9.508 Y26.006 F400.000
G1 X10.209 Y25.746 F400.000
G1 X11.226 Y25.299 F400.000
G1 X12.898 Y24.480 F400.000
G1 X14.525 Y23.582 F400.000
G1 X15.469 Y22.983 F400.000
G1 X16.079 Y22.554 F400.000
G1 X18.113 Y20.927 F400.000
G1 X18.395 Y20.684 F400.000
G1 X19.203 Y19.915 F400.000
G1 X19.463 Y19.650 F400.000
G1 X19.734 Y19.395 F400.000
G1 X20.508 Y18.588 F400.000
G1 X21.006 Y18.028 F400.000
G1 X21.712 Y17.158 F400.000
G1 X22.593 Y15.949 F400.000
G1 X23.621 Y14.390 F400.000
G1 X24.192 Y13.424 F400.000
G1 X24.898 Y12.102 F400.000
G1 X25.525 Y10.740 F400.000
G1 X25.949 Y9.701 F400.000
G1 X26.446 Y8.288 F400.000
G1 X26.768 Y7.209 F400.000
G1 X27.124 Y5.751 F400.000
G1 X27.203 Y5.384 F400.000
G1 X27.542 Y3.158 F400.000
G1 X27.644 Y2.040 F400.000
G1 X27.695 Y0.921 F400.000
G1 X27.695 Y-0.192 F400.000
G1 X27.667 Y-0.927 F400.000
G1 X27.418 Y-3.497 F400.000
G1 X27.266 Y-4.599 F400.000
G1 X27.136 Y-5.328 F400.000
G1 X26.797 Y-6.774 F400.000
G1 X26.525 Y-7.853 F400.000
G1 X26.198 Y-8.921 F400.000
G1 X25.808 Y-9.966 F400.000
G1 X25.220 Y-11.333 F400.000
G1 X24.418 Y-13.017 F400.000
G1 X23.701 Y-14.316 F400.000
G1 X22.904 Y-15.576 F400.000
G1 X22.260 Y-16.486 F400.000
G1 X21.559 Y-17.362 F400.000
G1 X20.836 Y-18.215 F400.000
G1 X19.814 Y-19.299 F400.000
G1 X18.751 Y-20.345 F400.000
G1 X17.915 Y-21.085 F400.000
G1 X17.045 Y-21.791 F400.000
G1 X15.554 Y-22.910 F400.000
G1 X14.621 Y-23.531 F400.000
G1 X13.650 Y-24.102 F400.000
G1 X11.989 Y-24.966 F400.000
G1 X10.972 Y-25.452 F400.000
G1 X9.932 Y-25.887 F400.000
G1 X8.876 Y-26.260 F400.000
G1 X8.164 Y-26.480 F400.000
G1 X7.458 Y-26.718 F400.000
G1 X6.373 Y-27.006 F400.000
G1 X5.271 Y-27.232 F400.000
G1 X4.898 Y-27.294 F400.000
G1 X4.153 Y-27.373 F400.000
G1 X3.407 Y-27.395 F400.000
G1 X2.661 Y-27.390 F400.000
G1 X1.169 Y-27.282 F400.000
G1 X-1.051 Y-27.023 F400.000
G1 X-3.254 Y-26.706 F400.000
G1 X-4.339 Y-26.497 F400.000
G1 X-6.508 Y-25.977 F400.000
G1 X-8.288 Y-25.469 F400.000
G1 X-8.644 Y-25.356 F400.000
G1 X-9.684 Y-24.960 F400.000
G1 X-11.384 Y-24.237 F400.000
G1 X-12.051 Y-23.910 F400.000
G1 X-13.028 Y-23.367 F400.000
G1 X-13.362 Y-23.198 F400.000
G1 X-14.006 Y-22.831 F400.000
G1 X-14.949 Y-22.237 F400.000
G1 X-15.870 Y-21.605 F400.000
G1 X-16.763 Y-20.927 F400.000
G1 X-17.621 Y-20.209 F400.000
G1 X-18.446 Y-19.452 F400.000
G1 X-19.237 Y-18.655 F400.000
G1 X-20.966 Y-16.701 F400.000
G1 X-21.655 Y-15.814 F400.000
G1 X-22.508 Y-14.588 F400.000
G1 X-23.102 Y-13.633 F400.000
G1 X-23.825 Y-12.322 F400.000
G1 X-24.316 Y-11.311 F400.000
G1 X-24.757 Y-10.282 F400.000
G1 X-25.525 Y-8.169 F400.000
G1 X-25.763 Y-7.458 F400.000
G1 X-26.079 Y-6.373 F400.000
G1 X-26.328 Y-5.271 F400.000
G1 X-26.458 Y-4.531 F400.000
G1 X-26.780 Y-1.921 F400.000
G1 X-26.876 Y-0.429 F400.000
G1 X-26.881 Y-0.056 F400.000
G1 X-26.797 Y1.412 F400.000
G1 X-26.706 Y2.147 F400.000
G1 X-26.678 Y2.514 F400.000
G1 X-26.424 Y4.350 F400.000
G1 X-26.153 Y5.808 F400.000
G1 X-25.797 Y7.249 F400.000
G1 X-25.220 Y9.011 F400.000
G1 X-24.960 Y9.712 F400.000
G1 X-24.379 Y11.079 F400.000
G1 X-23.887 Y12.085 F400.000
G1 X-23.198 Y13.401 F400.000
G1 X-22.633 Y14.367 F400.000
G1 X-22.237 Y14.994 F400.000
G1 X-21.582 Y15.898 F400.000
G1 X-20.175 Y17.633 F400.000
G1 X-19.689 Y18.198 F400.000
G1 X-18.921 Y19.011 F400.000
G1 X-18.119 Y19.785 F400.000
G1 X-17.842 Y20.034 F400.000
G1 X-17.266 Y20.508 F400.000
G1 X-16.672 Y20.955 F400.000
G1 X-16.384 Y21.192 F400.000
G1 X-14.876 Y22.299 F400.000
G1 X-13.938 Y22.910 F400.000
G1 X-12.638 Y23.661 F400.000
G1 X-11.633 Y24.169 F400.000
G1 X-10.610 Y24.627 F400.000
G1 X-9.215 Y25.164 F400.000
G1 X-8.147 Y25.520 F400.000
G1 X-6.706 Y25.944 F400.000
G1 X-5.249 Y26.288 F400.000
G1 X-4.141 Y26.492 F400.000
G1 X-3.023 Y26.644 F400.000
G1 X-1.904 Y26.746 F400.000
G1 X-0.785 Y26.797 F400.000
G1 X0.328 Y26.797 F400.000
G1 X1.429 Y26.746 F400.000
G1 X2.531 Y26.644 F400.000
G1 X4.000 Y26.458 F400.000
G1 X5.102 Y26.271 F400.000
G1 X6.186 Y26.023 F400.000
G1 X8.328 Y25.424 F400.000
G1 X9.028 Y25.186 F400.000
G1 X10.401 Y24.621 F400.000
G1 X11.418 Y24.158 F400.000
G1 X13.401 Y23.141 F400.000
G1 X14.045 Y22.774 F400.000
G1 X14.983 Y22.164 F400.000
G1 X15.881 Y21.503 F400.000
G1 X17.333 Y20.333 F400.000
G1 X17.898 Y19.847 F400.000
G1 X18.706 Y19.079 F400.000
G1 X19.480 Y18.277 F400.000
G1 X19.972 Y17.718 F400.000
G1 X20.226 Y17.446 F400.000
G1 X20.712 Y16.881 F400.000
G1 X21.395 Y15.994 F400.000
G1 X22.644 Y14.141 F400.000
G1 X23.610 Y12.542 F400.000
G1 X23.797 Y12.215 F400.000
G1 X24.299 Y11.209 F400.000
G1 X24.740 Y10.175 F400.000
G1 X25.407 Y8.429 F400.000
G1 X25.644 Y7.718 F400.000
G1 X25.944 Y6.633 F400.000
G1 X26.186 Y5.531 F400.000
G1 X26.514 Y3.684 F400.000
G1 X26.655 Y2.565 F400.000
G1 X26.723 Y1.819 F400.000
G1 X26.763 Y0.701 F400.000
G1 X26.712 Y-0.774 F400.000
G1 X26.492 Y-3.345 F400.000
G1 X26.322 Y-4.446 F400.000
G1 X26.102 Y-5.537 F400.000
G1 X25.672 Y-7.345 F400.000
G1 X25.362 Y-8.412 F400.000
G1 X24.983 Y-9.458 F400.000
G1 X24.266 Y-11.164 F400.000
G1 X23.452 Y-12.836 F400.000
G1 X22.904 Y-13.808 F400.000
G1 X22.305 Y-14.746 F400.000
G1 X21.672 Y-15.667 F400.000
G1 X21.000 Y-16.559 F400.000
G1 X20.045 Y-17.701 F400.000
G1 X19.542 Y-18.254 F400.000
G1 X17.650 Y-20.056 F400.000
G1 X17.090 Y-20.554 F400.000
G1 X15.316 Y-21.915 F400.000
G1 X14.706 Y-22.356 F400.000
G1 X13.757 Y-22.955 F400.000
G1 X12.107 Y-23.847 F400.000
G1 X10.424 Y-24.667 F400.000
G1 X9.028 Y-25.215 F400.000
G1 X7.254 Y-25.797 F400.000
G1 X6.531 Y-26.000 F400.000
G1 X5.429 Y-26.237 F400.000
G1 X4.684 Y-26.350 F400.000
G1 X3.938 Y-26.412 F400.000
G1 X3.565 Y-26.429 F400.000
G1 X2.819 Y-26.424 F400.000
G1 X2.073 Y-26.395 F400.000
G1 X0.955 Y-26.311 F400.000
G1 X-1.260 Y-26.062 F400.000
G1 X-3.096 Y-25.797 F400.000
