(Exported by FreeCAD)
(Post Processor: grbl_post)
(Output Time:2024-03-16 14:55:32.506761)
(Begin preamble)
G17 G90
G21
(Block-name: Fixture)
(Block-expand: 0)
(Block-enable: 1)
(Begin operation: Fixture)
(Path: Fixture)
G54
(Finish operation: Fixture)
(Block-name: 3mm Endmill001)
(Block-expand: 0)
(Block-enable: 1)
(Begin operation: 3mm Endmill001)
(Path: 3mm Endmill001)
(3mm Endmill001)
(Begin toolchange)
( M6 T3 )
M3 S8000
(Finish operation: 3mm Endmill001)
(Block-name: Adaptive_MillFace)
(Block-expand: 0)
(Block-enable: 1)
(Begin operation: Adaptive_MillFace)
(Path: Adaptive_MillFace)
(Adaptive_MillFace)
(Helix to depth: 0.000000)
G0 Z10.000
G0 X-0.770 Y-0.805 Z10.000
G0 X-0.770 Y-0.805 Z8.000
G1 X-0.770 Y-0.805 Z5.000 F400.000
G1 X-0.770 Y-0.805 Z5.000 F400.000
G1 X-0.598 Y-0.940 Z4.981 F400.000
G1 X-0.403 Y-1.039 Z4.961 F400.000
G1 X-0.193 Y-1.097 Z4.942 F400.000
G1 X0.025 Y-1.114 Z4.923 F400.000
G1 X0.242 Y-1.088 Z4.903 F400.000
G1 X0.449 Y-1.020 Z4.884 F400.000
G1 X0.640 Y-0.912 Z4.865 F400.000
G1 X0.805 Y-0.770 Z4.845 F400.000
G1 X0.940 Y-0.598 Z4.826 F400.000
G1 X1.039 Y-0.403 Z4.807 F400.000
G1 X1.097 Y-0.193 Z4.788 F400.000
G1 X1.114 Y0.025 Z4.768 F400.000
G1 X1.088 Y0.242 Z4.749 F400.000
G1 X1.020 Y0.449 Z4.730 F400.000
G1 X0.912 Y0.640 Z4.710 F400.000
G1 X0.770 Y0.805 Z4.691 F400.000
G1 X0.598 Y0.940 Z4.672 F400.000
G1 X0.403 Y1.039 Z4.652 F400.000
G1 X0.193 Y1.097 Z4.633 F400.000
G1 X-0.025 Y1.114 Z4.614 F400.000
G1 X-0.242 Y1.088 Z4.594 F400.000
G1 X-0.449 Y1.020 Z4.575 F400.000
G1 X-0.640 Y0.912 Z4.556 F400.000
G1 X-0.805 Y0.770 Z4.536 F400.000
G1 X-0.940 Y0.598 Z4.517 F400.000
G1 X-1.039 Y0.403 Z4.498 F400.000
G1 X-1.097 Y0.193 Z4.479 F400.000
G1 X-1.114 Y-0.025 Z4.459 F400.000
G1 X-1.088 Y-0.242 Z4.440 F400.000
G1 X-1.020 Y-0.449 Z4.421 F400.000
G1 X-0.912 Y-0.640 Z4.401 F400.000
G1 X-0.770 Y-0.805 Z4.382 F400.000
G1 X-0.598 Y-0.940 Z4.363 F400.000
G1 X-0.403 Y-1.039 Z4.343 F400.000
G1 X-0.193 Y-1.097 Z4.324 F400.000
G1 X0.025 Y-1.114 Z4.305 F400.000
G1 X0.242 Y-1.088 Z4.285 F400.000
G1 X0.449 Y-1.020 Z4.266 F400.000
G1 X0.640 Y-0.912 Z4.247 F400.000
G1 X0.805 Y-0.770 Z4.227 F400.000
G1 X0.940 Y-0.598 Z4.208 F400.000
G1 X1.039 Y-0.403 Z4.189 F400.000
G1 X1.097 Y-0.193 Z4.170 F400.000
G1 X1.114 Y0.025 Z4.150 F400.000
G1 X1.088 Y0.242 Z4.131 F400.000
G1 X1.020 Y0.449 Z4.112 F400.000
G1 X0.912 Y0.640 Z4.092 F400.000
G1 X0.770 Y0.805 Z4.073 F400.000
G1 X0.598 Y0.940 Z4.054 F400.000
G1 X0.403 Y1.039 Z4.034 F400.000
G1 X0.193 Y1.097 Z4.015 F400.000
G1 X-0.025 Y1.114 Z3.996 F400.000
G1 X-0.242 Y1.088 Z3.976 F400.000
G1 X-0.449 Y1.020 Z3.957 F400.000
G1 X-0.640 Y0.912 Z3.938 F400.000
G1 X-0.805 Y0.770 Z3.918 F400.000
G1 X-0.940 Y0.598 Z3.899 F400.000
G1 X-1.039 Y0.403 Z3.880 F400.000
G1 X-1.097 Y0.193 Z3.861 F400.000
G1 X-1.114 Y-0.025 Z3.841 F400.000
G1 X-1.088 Y-0.242 Z3.822 F400.000
G1 X-1.020 Y-0.449 Z3.803 F400.000
G1 X-0.912 Y-0.640 Z3.783 F400.000
G1 X-0.770 Y-0.805 Z3.764 F400.000
G1 X-0.598 Y-0.940 Z3.745 F400.000
G1 X-0.403 Y-1.039 Z3.725 F400.000
G1 X-0.193 Y-1.097 Z3.706 F400.000
G1 X0.025 Y-1.114 Z3.687 F400.000
G1 X0.242 Y-1.088 Z3.667 F400.000
G1 X0.449 Y-1.020 Z3.648 F400.000
G1 X0.640 Y-0.912 Z3.629 F400.000
G1 X0.805 Y-0.770 Z3.609 F400.000
G1 X0.940 Y-0.598 Z3.590 F400.000
G1 X1.039 Y-0.403 Z3.571 F400.000
G1 X1.097 Y-0.193 Z3.551 F400.000
G1 X1.114 Y0.025 Z3.532 F400.000
G1 X1.088 Y0.242 Z3.513 F400.000
G1 X1.020 Y0.449 Z3.494 F400.000
G1 X0.912 Y0.640 Z3.474 F400.000
G1 X0.770 Y0.805 Z3.455 F400.000
G1 X0.598 Y0.940 Z3.436 F400.000
G1 X0.403 Y1.039 Z3.416 F400.000
G1 X0.193 Y1.097 Z3.397 F400.000
G1 X-0.025 Y1.114 Z3.378 F400.000
G1 X-0.242 Y1.088 Z3.358 F400.000
G1 X-0.449 Y1.020 Z3.339 F400.000
G1 X-0.640 Y0.912 Z3.320 F400.000
G1 X-0.805 Y0.770 Z3.300 F400.000
G1 X-0.940 Y0.598 Z3.281 F400.000
G1 X-1.039 Y0.403 Z3.262 F400.000
G1 X-1.097 Y0.193 Z3.242 F400.000
G1 X-1.114 Y-0.025 Z3.223 F400.000
G1 X-1.088 Y-0.242 Z3.204 F400.000
G1 X-1.020 Y-0.449 Z3.185 F400.000
G1 X-0.912 Y-0.640 Z3.165 F400.000
G1 X-0.770 Y-0.805 Z3.146 F400.000
G1 X-0.598 Y-0.940 Z3.127 F400.000
G1 X-0.403 Y-1.039 Z3.107 F400.000
G1 X-0.193 Y-1.097 Z3.088 F400.000
G1 X0.025 Y-1.114 Z3.069 F400.000
G1 X0.242 Y-1.088 Z3.049 F400.000
G1 X0.449 Y-1.020 Z3.030 F400.000
G1 X0.640 Y-0.912 Z3.011 F400.000
G1 X0.805 Y-0.770 Z2.991 F400.000
G1 X0.940 Y-0.598 Z2.972 F400.000
G1 X1.039 Y-0.403 Z2.953 F400.000
G1 X1.097 Y-0.193 Z2.933 F400.000
G1 X1.114 Y0.025 Z2.914 F400.000
G1 X1.088 Y0.242 Z2.895 F400.000
G1 X1.020 Y0.449 Z2.876 F400.000
G1 X0.912 Y0.640 Z2.856 F400.000
G1 X0.770 Y0.805 Z2.837 F400.000
G1 X0.598 Y0.940 Z2.818 F400.000
G1 X0.403 Y1.039 Z2.798 F400.000
G1 X0.193 Y1.097 Z2.779 F400.000
G1 X-0.025 Y1.114 Z2.760 F400.000
G1 X-0.242 Y1.088 Z2.740 F400.000
G1 X-0.449 Y1.020 Z2.721 F400.000
G1 X-0.640 Y0.912 Z2.702 F400.000
G1 X-0.805 Y0.770 Z2.682 F400.000
G1 X-0.940 Y0.598 Z2.663 F400.000
G1 X-1.039 Y0.403 Z2.644 F400.000
G1 X-1.097 Y0.193 Z2.624 F400.000
G1 X-1.114 Y-0.025 Z2.605 F400.000
G1 X-1.088 Y-0.242 Z2.586 F400.000
G1 X-1.020 Y-0.449 Z2.566 F400.000
G1 X-0.912 Y-0.640 Z2.547 F400.000
G1 X-0.770 Y-0.805 Z2.528 F400.000
G1 X-0.598 Y-0.940 Z2.509 F400.000
G1 X-0.403 Y-1.039 Z2.489 F400.000
G1 X-0.193 Y-1.097 Z2.470 F400.000
G1 X0.025 Y-1.114 Z2.451 F400.000
G1 X0.242 Y-1.088 Z2.431 F400.000
G1 X0.449 Y-1.020 Z2.412 F400.000
G1 X0.640 Y-0.912 Z2.393 F400.000
G1 X0.805 Y-0.770 Z2.373 F400.000
G1 X0.940 Y-0.598 Z2.354 F400.000
G1 X1.039 Y-0.403 Z2.335 F400.000
G1 X1.097 Y-0.193 Z2.315 F400.000
G1 X1.114 Y0.025 Z2.296 F400.000
G1 X1.088 Y0.242 Z2.277 F400.000
G1 X1.020 Y0.449 Z2.257 F400.000
G1 X0.912 Y0.640 Z2.238 F400.000
G1 X0.770 Y0.805 Z2.219 F400.000
G1 X0.598 Y0.940 Z2.200 F400.000
G1 X0.403 Y1.039 Z2.180 F400.000
G1 X0.193 Y1.097 Z2.161 F400.000
G1 X-0.025 Y1.114 Z2.142 F400.000
G1 X-0.242 Y1.088 Z2.122 F400.000
G1 X-0.449 Y1.020 Z2.103 F400.000
G1 X-0.640 Y0.912 Z2.084 F400.000
G1 X-0.805 Y0.770 Z2.064 F400.000
G1 X-0.940 Y0.598 Z2.045 F400.000
G1 X-1.039 Y0.403 Z2.026 F400.000
G1 X-1.097 Y0.193 Z2.006 F400.000
G1 X-1.114 Y-0.025 Z1.987 F400.000
G1 X-1.088 Y-0.242 Z1.968 F400.000
G1 X-1.020 Y-0.449 Z1.948 F400.000
G1 X-0.912 Y-0.640 Z1.929 F400.000
G1 X-0.770 Y-0.805 Z1.910 F400.000
G1 X-0.598 Y-0.940 Z1.891 F400.000
G1 X-0.403 Y-1.039 Z1.871 F400.000
G1 X-0.193 Y-1.097 Z1.852 F400.000
G1 X0.025 Y-1.114 Z1.833 F400.000
G1 X0.242 Y-1.088 Z1.813 F400.000
G1 X0.449 Y-1.020 Z1.794 F400.000
G1 X0.640 Y-0.912 Z1.775 F400.000
G1 X0.805 Y-0.770 Z1.755 F400.000
G1 X0.940 Y-0.598 Z1.736 F400.000
G1 X1.039 Y-0.403 Z1.717 F400.000
G1 X1.097 Y-0.193 Z1.697 F400.000
G1 X1.114 Y0.025 Z1.678 F400.000
G1 X1.088 Y0.242 Z1.659 F400.000
G1 X1.020 Y0.449 Z1.639 F400.000
G1 X0.912 Y0.640 Z1.620 F400.000
G1 X0.770 Y0.805 Z1.601 F400.000
G1 X0.598 Y0.940 Z1.582 F400.000
G1 X0.403 Y1.039 Z1.562 F400.000
G1 X0.193 Y1.097 Z1.543 F400.000
G1 X-0.025 Y1.114 Z1.524 F400.000
G1 X-0.242 Y1.088 Z1.504 F400.000
G1 X-0.449 Y1.020 Z1.485 F400.000
G1 X-0.640 Y0.912 Z1.466 F400.000
G1 X-0.805 Y0.770 Z1.446 F400.000
G1 X-0.940 Y0.598 Z1.427 F400.000
G1 X-1.039 Y0.403 Z1.408 F400.000
G1 X-1.097 Y0.193 Z1.388 F400.000
G1 X-1.114 Y-0.025 Z1.369 F400.000
G1 X-1.088 Y-0.242 Z1.350 F400.000
G1 X-1.020 Y-0.449 Z1.330 F400.000
G1 X-0.912 Y-0.640 Z1.311 F400.000
G1 X-0.770 Y-0.805 Z1.292 F400.000
G1 X-0.598 Y-0.940 Z1.272 F400.000
G1 X-0.403 Y-1.039 Z1.253 F400.000
G1 X-0.193 Y-1.097 Z1.234 F400.000
G1 X0.025 Y-1.114 Z1.215 F400.000
G1 X0.242 Y-1.088 Z1.195 F400.000
G1 X0.449 Y-1.020 Z1.176 F400.000
G1 X0.640 Y-0.912 Z1.157 F400.000
G1 X0.805 Y-0.770 Z1.137 F400.000
G1 X0.940 Y-0.598 Z1.118 F400.000
G1 X1.039 Y-0.403 Z1.099 F400.000
G1 X1.097 Y-0.193 Z1.079 F400.000
G1 X1.114 Y0.025 Z1.060 F400.000
G1 X1.088 Y0.242 Z1.041 F400.000
G1 X1.020 Y0.449 Z1.021 F400.000
G1 X0.912 Y0.640 Z1.002 F400.000
G1 X0.770 Y0.805 Z0.983 F400.000
G1 X0.598 Y0.940 Z0.963 F400.000
G1 X0.403 Y1.039 Z0.944 F400.000
G1 X0.193 Y1.097 Z0.925 F400.000
G1 X-0.025 Y1.114 Z0.906 F400.000
G1 X-0.242 Y1.088 Z0.886 F400.000
G1 X-0.449 Y1.020 Z0.867 F400.000
G1 X-0.640 Y0.912 Z0.848 F400.000
G1 X-0.805 Y0.770 Z0.828 F400.000
G1 X-0.940 Y0.598 Z0.809 F400.000
G1 X-1.039 Y0.403 Z0.790 F400.000
G1 X-1.097 Y0.193 Z0.770 F400.000
G1 X-1.114 Y-0.025 Z0.751 F400.000
G1 X-1.088 Y-0.242 Z0.732 F400.000
G1 X-1.020 Y-0.449 Z0.712 F400.000
G1 X-0.912 Y-0.640 Z0.693 F400.000
G1 X-0.770 Y-0.805 Z0.674 F400.000
G1 X-0.598 Y-0.940 Z0.654 F400.000
G1 X-0.403 Y-1.039 Z0.635 F400.000
G1 X-0.193 Y-1.097 Z0.616 F400.000
G1 X0.025 Y-1.114 Z0.597 F400.000
G1 X0.242 Y-1.088 Z0.577 F400.000
G1 X0.449 Y-1.020 Z0.558 F400.000
G1 X0.640 Y-0.912 Z0.539 F400.000
G1 X0.805 Y-0.770 Z0.519 F400.000
G1 X0.940 Y-0.598 Z0.500 F400.000
G1 X1.039 Y-0.403 Z0.481 F400.000
G1 X1.097 Y-0.193 Z0.461 F400.000
G1 X1.114 Y0.025 Z0.442 F400.000
G1 X1.088 Y0.242 Z0.423 F400.000
G1 X1.020 Y0.449 Z0.403 F400.000
G1 X0.912 Y0.640 Z0.384 F400.000
G1 X0.770 Y0.805 Z0.365 F400.000
G1 X0.598 Y0.940 Z0.345 F400.000
G1 X0.403 Y1.039 Z0.326 F400.000
G1 X0.193 Y1.097 Z0.307 F400.000
G1 X-0.025 Y1.114 Z0.288 F400.000
G1 X-0.242 Y1.088 Z0.268 F400.000
G1 X-0.449 Y1.020 Z0.249 F400.000
G1 X-0.640 Y0.912 Z0.230 F400.000
G1 X-0.805 Y0.770 Z0.210 F400.000
G1 X-0.940 Y0.598 Z0.191 F400.000
G1 X-1.039 Y0.403 Z0.172 F400.000
G1 X-1.097 Y0.193 Z0.152 F400.000
G1 X-1.114 Y-0.025 Z0.133 F400.000
G1 X-1.088 Y-0.242 Z0.114 F400.000
G1 X-1.020 Y-0.449 Z0.094 F400.000
G1 X-0.912 Y-0.640 Z0.075 F400.000
G1 X-0.770 Y-0.805 Z0.056 F400.000
G1 X-0.598 Y-0.940 Z0.036 F400.000
G1 X-0.403 Y-1.039 Z0.017 F400.000
G1 X-0.193 Y-1.097 Z0.000 F400.000
G1 X0.025 Y-1.114 Z0.000 F400.000
G1 X0.242 Y-1.088 Z0.000 F400.000
G1 X0.449 Y-1.020 Z0.000 F400.000
G1 X0.640 Y-0.912 Z0.000 F400.000
G1 X0.805 Y-0.770 Z0.000 F400.000
G1 X0.940 Y-0.598 Z0.000 F400.000
G1 X1.039 Y-0.403 Z0.000 F400.000
G1 X1.097 Y-0.193 Z0.000 F400.000
G1 X1.114 Y0.025 Z0.000 F400.000
G1 X1.088 Y0.242 Z0.000 F400.000
G1 X1.020 Y0.449 Z0.000 F400.000
G1 X0.912 Y0.640 Z0.000 F400.000
G1 X0.770 Y0.805 Z0.000 F400.000
G1 X0.598 Y0.940 Z0.000 F400.000
G1 X0.403 Y1.039 Z0.000 F400.000
G1 X0.193 Y1.097 Z0.000 F400.000
G1 X-0.025 Y1.114 Z0.000 F400.000
G1 X-0.242 Y1.088 Z0.000 F400.000
G1 X-0.449 Y1.020 Z0.000 F400.000
G1 X-0.640 Y0.912 Z0.000 F400.000
G1 X-0.805 Y0.770 Z0.000 F400.000
G1 X-0.940 Y0.598 Z0.000 F400.000
G1 X-1.039 Y0.403 Z0.000 F400.000
G1 X-1.097 Y0.193 Z0.000 F400.000
G1 X-1.114 Y-0.025 Z0.000 F400.000
G1 X-1.088 Y-0.242 Z0.000 F400.000
G1 X-1.020 Y-0.449 Z0.000 F400.000
G1 X-0.912 Y-0.640 Z0.000 F400.000
G1 X-0.770 Y-0.805 Z0.000 F400.000
G1 X-0.598 Y-0.940 Z0.000 F400.000
G1 X-0.403 Y-1.039 Z0.000 F400.000
(Adaptive - depth: 0.000000)
G1 X0.000 Y-1.124 F400.000
G1 X0.062 Y-1.186 F400.000
G1 X0.136 Y-1.232 F400.000
G1 X0.299 Y-1.277 F400.000
G1 X0.469 Y-1.282 F400.000
G1 X0.723 Y-1.220 F400.000
G1 X1.051 Y-1.045 F400.000
G1 X1.282 Y-0.814 F400.000
G1 X1.384 Y-0.644 F400.000
G1 X1.458 Y-0.469 F400.000
G1 X1.520 Y-0.249 F400.000
G1 X1.559 Y0.034 F400.000
G1 X1.542 Y0.345 F400.000
G1 X1.469 Y0.605 F400.000
G1 X1.373 Y0.808 F400.000
G1 X1.232 Y1.000 F400.000
G1 X1.062 Y1.175 F400.000
G1 X0.819 Y1.350 F400.000
G1 X0.582 Y1.463 F400.000
G1 X0.328 Y1.542 F400.000
G1 X0.056 Y1.576 F400.000
G1 X-0.203 Y1.565 F400.000
G1 X-0.463 Y1.508 F400.000
G1 X-0.718 Y1.418 F400.000
G1 X-0.977 Y1.254 F400.000
G1 X-1.158 Y1.090 F400.000
G1 X-1.305 Y0.904 F400.000
G1 X-1.441 Y0.678 F400.000
G1 X-1.542 Y0.401 F400.000
G1 X-1.582 Y0.136 F400.000
G1 X-1.582 Y-0.102 F400.000
G1 X-1.537 Y-0.362 F400.000
G1 X-1.463 Y-0.605 F400.000
G1 X-1.322 Y-0.881 F400.000
G1 X-1.147 Y-1.096 F400.000
G1 X-0.966 Y-1.266 F400.000
G1 X-0.746 Y-1.435 F400.000
G1 X-0.441 Y-1.621 F400.000
G1 X-0.079 Y-1.718 F400.000
G1 X0.429 Y-1.757 F400.000
G1 X0.797 Y-1.695 F400.000
G1 X1.141 Y-1.559 F400.000
G1 X1.362 Y-1.412 F400.000
G1 X1.525 Y-1.254 F400.000
G1 X1.678 Y-1.079 F400.000
G1 X1.847 Y-0.825 F400.000
G1 X1.977 Y-0.503 F400.000
G1 X2.045 Y-0.220 F400.000
G1 X2.073 Y0.051 F400.000
G1 X2.056 Y0.345 F400.000
G1 X1.994 Y0.621 F400.000
G1 X1.898 Y0.893 F400.000
G1 X1.740 Y1.175 F400.000
G1 X1.559 Y1.412 F400.000
G1 X1.345 Y1.627 F400.000
G1 X1.090 Y1.808 F400.000
G1 X0.819 Y1.949 F400.000
G1 X0.531 Y2.051 F400.000
G1 X0.232 Y2.107 F400.000
G1 X-0.068 Y2.119 F400.000
G1 X-0.367 Y2.090 F400.000
G1 X-0.661 Y2.017 F400.000
G1 X-0.944 Y1.898 F400.000
G1 X-1.203 Y1.740 F400.000
G1 X-1.446 Y1.554 F400.000
G1 X-1.695 Y1.294 F400.000
G1 X-1.864 Y1.017 F400.000
G1 X-1.977 Y0.785 F400.000
G1 X-2.062 Y0.492 F400.000
G1 X-2.107 Y0.198 F400.000
G1 X-2.113 Y-0.130 F400.000
G1 X-2.073 Y-0.435 F400.000
G1 X-1.989 Y-0.734 F400.000
G1 X-1.859 Y-1.023 F400.000
G1 X-1.695 Y-1.282 F400.000
G1 X-1.503 Y-1.525 F400.000
G1 X-1.237 Y-1.774 F400.000
G1 X-0.972 Y-1.966 F400.000
G1 X-0.678 Y-2.124 F400.000
G1 X-0.356 Y-2.243 F400.000
G1 X-0.028 Y-2.305 F400.000
G1 X0.260 Y-2.328 F400.000
G1 X0.576 Y-2.322 F400.000
G1 X0.938 Y-2.254 F400.000
G1 X1.249 Y-2.130 F400.000
G1 X1.486 Y-2.000 F400.000
G1 X1.723 Y-1.836 F400.000
G1 X1.983 Y-1.599 F400.000
G1 X2.215 Y-1.311 F400.000
G1 X2.379 Y-1.017 F400.000
G1 X2.492 Y-0.751 F400.000
G1 X2.588 Y-0.435 F400.000
G1 X2.633 Y-0.068 F400.000
G1 X2.633 Y0.249 F400.000
G1 X2.593 Y0.582 F400.000
G1 X2.503 Y0.910 F400.000
G1 X2.379 Y1.215 F400.000
G1 X2.209 Y1.508 F400.000
G1 X2.000 Y1.774 F400.000
G1 X1.768 Y2.023 F400.000
G1 X1.475 Y2.254 F400.000
G1 X1.175 Y2.435 F400.000
G1 X0.847 Y2.571 F400.000
G1 X0.548 Y2.655 F400.000
G1 X0.209 Y2.701 F400.000
G1 X-0.124 Y2.701 F400.000
G1 X-0.446 Y2.667 F400.000
G1 X-0.808 Y2.576 F400.000
G1 X-1.136 Y2.452 F400.000
G1 X-1.446 Y2.288 F400.000
G1 X-1.740 Y2.079 F400.000
G1 X-2.000 Y1.836 F400.000
G1 X-2.220 Y1.554 F400.000
G1 X-2.384 Y1.282 F400.000
G1 X-2.520 Y0.972 F400.000
G1 X-2.621 Y0.655 F400.000
G1 X-2.684 Y0.288 F400.000
G1 X-2.701 Y-0.056 F400.000
G1 X-2.678 Y-0.407 F400.000
G1 X-2.605 Y-0.757 F400.000
G1 X-2.492 Y-1.090 F400.000
G1 X-2.339 Y-1.412 F400.000
G1 X-2.141 Y-1.718 F400.000
G1 X-1.910 Y-1.989 F400.000
G1 X-1.650 Y-2.232 F400.000
G1 X-1.356 Y-2.441 F400.000
G1 X-1.051 Y-2.621 F400.000
G1 X-0.706 Y-2.763 F400.000
G1 X-0.345 Y-2.864 F400.000
G1 X0.017 Y-2.932 F400.000
G1 X0.384 Y-2.949 F400.000
G1 X0.751 Y-2.927 F400.000
G1 X1.113 Y-2.842 F400.000
G1 X1.407 Y-2.740 F400.000
G1 X1.723 Y-2.582 F400.000
G1 X2.017 Y-2.390 F400.000
G1 X2.299 Y-2.147 F400.000
G1 X2.542 Y-1.876 F400.000
G1 X2.751 Y-1.582 F400.000
G1 X2.932 Y-1.260 F400.000
G1 X3.073 Y-0.915 F400.000
G1 X3.175 Y-0.554 F400.000
G1 X3.237 Y-0.186 F400.000
G1 X3.254 Y0.181 F400.000
G1 X3.232 Y0.548 F400.000
G1 X3.153 Y0.910 F400.000
G1 X3.045 Y1.232 F400.000
G1 X2.893 Y1.571 F400.000
G1 X2.706 Y1.893 F400.000
G1 X2.480 Y2.192 F400.000
G1 X2.226 Y2.463 F400.000
G1 X1.944 Y2.706 F400.000
G1 X1.633 Y2.915 F400.000
G1 X1.294 Y3.079 F400.000
G1 X0.972 Y3.198 F400.000
G1 X0.605 Y3.282 F400.000
G1 X0.232 Y3.322 F400.000
G1 X-0.130 Y3.333 F400.000
G1 X-0.497 Y3.294 F400.000
G1 X-0.859 Y3.215 F400.000
G1 X-1.209 Y3.102 F400.000
G1 X-1.548 Y2.944 F400.000
G1 X-1.870 Y2.763 F400.000
G1 X-2.169 Y2.542 F400.000
G1 X-2.435 Y2.282 F400.000
G1 X-2.667 Y2.011 F400.000
G1 X-2.876 Y1.701 F400.000
G1 X-3.045 Y1.367 F400.000
G1 X-3.181 Y1.017 F400.000
G1 X-3.271 Y0.655 F400.000
G1 X-3.322 Y0.282 F400.000
G1 X-3.339 Y-0.085 F400.000
G1 X-3.311 Y-0.452 F400.000
G1 X-3.243 Y-0.819 F400.000
G1 X-3.141 Y-1.175 F400.000
G1 X-3.000 Y-1.520 F400.000
G1 X-2.819 Y-1.847 F400.000
G1 X-2.610 Y-2.153 F400.000
G1 X-2.367 Y-2.435 F400.000
G1 X-2.096 Y-2.689 F400.000
G1 X-1.797 Y-2.915 F400.000
G1 X-1.475 Y-3.107 F400.000
G1 X-1.141 Y-3.277 F400.000
G1 X-0.797 Y-3.418 F400.000
G1 X-0.435 Y-3.520 F400.000
G1 X-0.062 Y-3.576 F400.000
G1 X0.305 Y-3.605 F400.000
G1 X0.672 Y-3.593 F400.000
G1 X1.040 Y-3.537 F400.000
G1 X1.395 Y-3.435 F400.000
G1 X1.734 Y-3.299 F400.000
G1 X2.062 Y-3.124 F400.000
G1 X2.373 Y-2.921 F400.000
G1 X2.661 Y-2.684 F400.000
G1 X2.921 Y-2.418 F400.000
G1 X3.153 Y-2.124 F400.000
G1 X3.362 Y-1.814 F400.000
G1 X3.537 Y-1.480 F400.000
G1 X3.678 Y-1.136 F400.000
G1 X3.791 Y-0.780 F400.000
G1 X3.864 Y-0.412 F400.000
G1 X3.904 Y-0.040 F400.000
G1 X3.910 Y0.328 F400.000
G1 X3.881 Y0.695 F400.000
G1 X3.802 Y1.056 F400.000
G1 X3.689 Y1.412 F400.000
G1 X3.542 Y1.751 F400.000
G1 X3.367 Y2.079 F400.000
G1 X3.158 Y2.384 F400.000
G1 X2.927 Y2.678 F400.000
G1 X2.667 Y2.949 F400.000
G1 X2.384 Y3.192 F400.000
G1 X2.085 Y3.412 F400.000
G1 X1.751 Y3.588 F400.000
G1 X1.407 Y3.740 F400.000
G1 X1.051 Y3.853 F400.000
G1 X0.684 Y3.938 F400.000
G1 X0.311 Y3.983 F400.000
G1 X-0.056 Y3.994 F400.000
G1 X-0.424 Y3.972 F400.000
G1 X-0.791 Y3.910 F400.000
G1 X-1.153 Y3.831 F400.000
G1 X-1.503 Y3.712 F400.000
G1 X-1.842 Y3.565 F400.000
G1 X-2.158 Y3.373 F400.000
G1 X-2.463 Y3.158 F400.000
G1 X-2.740 Y2.910 F400.000
G1 X-3.000 Y2.644 F400.000
G1 X-3.232 Y2.350 F400.000
G1 X-3.441 Y2.040 F400.000
G1 X-3.621 Y1.712 F400.000
G1 X-3.768 Y1.367 F400.000
G1 X-3.887 Y1.011 F400.000
G1 X-3.949 Y0.644 F400.000
G1 X-3.983 Y0.282 F400.000
G1 X-4.000 Y-0.085 F400.000
G1 X-3.983 Y-0.452 F400.000
G1 X-3.932 Y-0.819 F400.000
G1 X-3.853 Y-1.181 F400.000
G1 X-3.723 Y-1.531 F400.000
G1 X-3.571 Y-1.870 F400.000
G1 X-3.390 Y-2.192 F400.000
G1 X-3.175 Y-2.497 F400.000
G1 X-2.944 Y-2.785 F400.000
G1 X-2.678 Y-3.051 F400.000
G1 X-2.390 Y-3.294 F400.000
G1 X-2.085 Y-3.514 F400.000
G1 X-1.768 Y-3.718 F400.000
G1 X-1.435 Y-3.887 F400.000
G1 X-1.090 Y-4.034 F400.000
G1 X-0.734 Y-4.153 F400.000
G1 X-0.367 Y-4.220 F400.000
G1 X0.000 Y-4.271 F400.000
G1 X0.367 Y-4.288 F400.000
G1 X0.734 Y-4.266 F400.000
G1 X1.102 Y-4.215 F400.000
G1 X1.463 Y-4.124 F400.000
G1 X1.814 Y-4.000 F400.000
G1 X2.153 Y-3.847 F400.000
G1 X2.475 Y-3.667 F400.000
G1 X2.780 Y-3.452 F400.000
G1 X3.068 Y-3.215 F400.000
G1 X3.339 Y-2.960 F400.000
G1 X3.582 Y-2.678 F400.000
G1 X3.802 Y-2.379 F400.000
G1 X4.000 Y-2.062 F400.000
G1 X4.169 Y-1.729 F400.000
G1 X4.311 Y-1.384 F400.000
G1 X4.424 Y-1.028 F400.000
G1 X4.503 Y-0.661 F400.000
G1 X4.554 Y-0.288 F400.000
G1 X4.576 Y0.079 F400.000
G1 X4.565 Y0.446 F400.000
G1 X4.525 Y0.814 F400.000
G1 X4.452 Y1.175 F400.000
G1 X4.350 Y1.531 F400.000
G1 X4.220 Y1.876 F400.000
G1 X4.062 Y2.209 F400.000
G1 X3.876 Y2.531 F400.000
G1 X3.661 Y2.836 F400.000
G1 X3.424 Y3.124 F400.000
G1 X3.169 Y3.395 F400.000
G1 X2.893 Y3.644 F400.000
G1 X2.599 Y3.870 F400.000
G1 X2.282 Y4.068 F400.000
G1 X1.949 Y4.243 F400.000
G1 X1.605 Y4.390 F400.000
G1 X1.249 Y4.503 F400.000
G1 X0.881 Y4.588 F400.000
G1 X0.508 Y4.638 F400.000
G1 X0.136 Y4.661 F400.000
G1 X-0.232 Y4.661 F400.000
G1 X-0.599 Y4.627 F400.000
G1 X-0.966 Y4.565 F400.000
G1 X-1.328 Y4.480 F400.000
G1 X-1.678 Y4.362 F400.000
G1 X-2.023 Y4.220 F400.000
G1 X-2.356 Y4.051 F400.000
G1 X-2.672 Y3.859 F400.000
G1 X-2.966 Y3.627 F400.000
G1 X-3.243 Y3.379 F400.000
G1 X-3.497 Y3.107 F400.000
G1 X-3.734 Y2.819 F400.000
G1 X-3.944 Y2.508 F400.000
G1 X-4.130 Y2.186 F400.000
G1 X-4.294 Y1.853 F400.000
G1 X-4.429 Y1.503 F400.000
G1 X-4.542 Y1.147 F400.000
G1 X-4.627 Y0.780 F400.000
G1 X-4.684 Y0.407 F400.000
G1 X-4.695 Y0.034 F400.000
G1 X-4.684 Y-0.333 F400.000
G1 X-4.638 Y-0.701 F400.000
G1 X-4.576 Y-1.068 F400.000
G1 X-4.480 Y-1.424 F400.000
G1 X-4.356 Y-1.774 F400.000
G1 X-4.209 Y-2.113 F400.000
G1 X-4.034 Y-2.441 F400.000
G1 X-3.836 Y-2.757 F400.000
G1 X-3.616 Y-3.056 F400.000
G1 X-3.373 Y-3.339 F400.000
G1 X-3.113 Y-3.605 F400.000
G1 X-2.831 Y-3.847 F400.000
G1 X-2.531 Y-4.073 F400.000
G1 X-2.215 Y-4.277 F400.000
G1 X-1.887 Y-4.452 F400.000
G1 X-1.548 Y-4.605 F400.000
G1 X-1.198 Y-4.734 F400.000
G1 X-0.836 Y-4.836 F400.000
G1 X-0.469 Y-4.910 F400.000
G1 X-0.096 Y-4.955 F400.000
G1 X0.271 Y-4.972 F400.000
G1 X0.638 Y-4.966 F400.000
G1 X1.006 Y-4.932 F400.000
G1 X1.373 Y-4.870 F400.000
G1 X1.734 Y-4.780 F400.000
G1 X2.085 Y-4.661 F400.000
G1 X2.418 Y-4.497 F400.000
G1 X2.740 Y-4.316 F400.000
G1 X3.051 Y-4.113 F400.000
G1 X3.350 Y-3.893 F400.000
G1 X3.633 Y-3.650 F400.000
G1 X3.898 Y-3.390 F400.000
G1 X4.147 Y-3.113 F400.000
G1 X4.373 Y-2.814 F400.000
G1 X4.565 Y-2.492 F400.000
G1 X4.740 Y-2.164 F400.000
G1 X4.887 Y-1.819 F400.000
G1 X5.017 Y-1.469 F400.000
G1 X5.119 Y-1.107 F400.000
G1 X5.192 Y-0.740 F400.000
G1 X5.271 Y0.000 F400.000
G1 X5.271 Y0.367 F400.000
G1 X5.249 Y0.734 F400.000
G1 X5.186 Y1.102 F400.000
G1 X5.107 Y1.463 F400.000
G1 X4.994 Y1.819 F400.000
G1 X4.853 Y2.164 F400.000
G1 X4.514 Y2.825 F400.000
G1 X4.305 Y3.136 F400.000
G1 X4.079 Y3.429 F400.000
G1 X3.836 Y3.712 F400.000
G1 X3.571 Y3.977 F400.000
G1 X3.288 Y4.226 F400.000
G1 X2.994 Y4.452 F400.000
G1 X2.684 Y4.661 F400.000
G1 X2.350 Y4.836 F400.000
G1 X2.011 Y4.994 F400.000
G1 X1.661 Y5.124 F400.000
G1 X1.299 Y5.220 F400.000
G1 X0.932 Y5.294 F400.000
G1 X0.559 Y5.345 F400.000
G1 X0.186 Y5.367 F400.000
G1 X-0.181 Y5.362 F400.000
G1 X-0.915 Y5.294 F400.000
G1 X-1.277 Y5.226 F400.000
G1 X-1.638 Y5.136 F400.000
G1 X-1.989 Y5.006 F400.000
G1 X-2.333 Y4.859 F400.000
G1 X-2.667 Y4.689 F400.000
G1 X-2.983 Y4.492 F400.000
G1 X-3.288 Y4.277 F400.000
G1 X-3.576 Y4.040 F400.000
G1 X-3.842 Y3.780 F400.000
G1 X-4.090 Y3.503 F400.000
G1 X-4.531 Y2.904 F400.000
G1 X-4.723 Y2.582 F400.000
G1 X-4.893 Y2.249 F400.000
G1 X-5.045 Y1.904 F400.000
G1 X-5.169 Y1.554 F400.000
G1 X-5.271 Y1.192 F400.000
G1 X-5.350 Y0.825 F400.000
G1 X-5.384 Y0.452 F400.000
G1 X-5.401 Y0.079 F400.000
G1 X-5.395 Y-0.288 F400.000
G1 X-5.367 Y-0.655 F400.000
G1 X-5.311 Y-1.023 F400.000
G1 X-5.237 Y-1.384 F400.000
G1 X-5.141 Y-1.740 F400.000
G1 X-5.006 Y-2.085 F400.000
G1 X-4.853 Y-2.424 F400.000
G1 X-4.678 Y-2.751 F400.000
G1 X-4.486 Y-3.068 F400.000
G1 X-4.271 Y-3.373 F400.000
G1 X-4.040 Y-3.661 F400.000
G1 X-3.791 Y-3.938 F400.000
G1 X-3.520 Y-4.198 F400.000
G1 X-3.237 Y-4.441 F400.000
G1 X-2.938 Y-4.667 F400.000
G1 X-2.627 Y-4.870 F400.000
G1 X-2.299 Y-5.056 F400.000
G1 X-1.960 Y-5.220 F400.000
G1 X-1.616 Y-5.362 F400.000
G1 X-1.260 Y-5.480 F400.000
G1 X-0.898 Y-5.576 F400.000
G1 X-0.525 Y-5.633 F400.000
G1 X0.215 Y-5.701 F400.000
G1 X0.582 Y-5.701 F400.000
G1 X0.949 Y-5.678 F400.000
G1 X1.316 Y-5.621 F400.000
G1 X1.678 Y-5.548 F400.000
G1 X2.034 Y-5.446 F400.000
G1 X2.379 Y-5.305 F400.000
G1 X2.718 Y-5.147 F400.000
G1 X3.045 Y-4.972 F400.000
G1 X3.362 Y-4.774 F400.000
G1 X3.667 Y-4.559 F400.000
G1 X3.955 Y-4.328 F400.000
G1 X4.232 Y-4.079 F400.000
G1 X4.492 Y-3.814 F400.000
G1 X4.734 Y-3.531 F400.000
G1 X4.960 Y-3.232 F400.000
G1 X5.153 Y-2.910 F400.000
G1 X5.328 Y-2.582 F400.000
G1 X5.480 Y-2.237 F400.000
G1 X5.616 Y-1.887 F400.000
G1 X5.729 Y-1.531 F400.000
G1 X5.898 Y-0.797 F400.000
G1 X5.949 Y-0.424 F400.000
G1 X5.983 Y-0.051 F400.000
G1 X5.983 Y0.316 F400.000
G1 X5.966 Y0.684 F400.000
G1 X5.921 Y1.051 F400.000
G1 X5.853 Y1.412 F400.000
G1 X5.763 Y1.774 F400.000
G1 X5.650 Y2.124 F400.000
G1 X5.508 Y2.469 F400.000
G1 X5.350 Y2.802 F400.000
G1 X5.169 Y3.124 F400.000
G1 X4.966 Y3.435 F400.000
G1 X4.514 Y4.028 F400.000
G1 X4.260 Y4.299 F400.000
G1 X3.994 Y4.559 F400.000
G1 X3.718 Y4.808 F400.000
G1 X3.424 Y5.040 F400.000
G1 X2.785 Y5.424 F400.000
G1 X2.446 Y5.588 F400.000
G1 X2.096 Y5.723 F400.000
G1 X1.740 Y5.842 F400.000
G1 X1.379 Y5.932 F400.000
G1 X1.011 Y6.000 F400.000
G1 X0.638 Y6.045 F400.000
G1 X-0.102 Y6.073 F400.000
G1 X-0.469 Y6.068 F400.000
G1 X-0.836 Y6.040 F400.000
G1 X-1.565 Y5.915 F400.000
G1 X-1.927 Y5.819 F400.000
G1 X-2.277 Y5.701 F400.000
G1 X-2.949 Y5.384 F400.000
G1 X-3.266 Y5.192 F400.000
G1 X-3.571 Y4.977 F400.000
G1 X-4.141 Y4.503 F400.000
G1 X-4.401 Y4.237 F400.000
G1 X-4.644 Y3.955 F400.000
G1 X-5.085 Y3.356 F400.000
G1 X-5.288 Y3.045 F400.000
G1 X-5.475 Y2.718 F400.000
G1 X-5.780 Y2.034 F400.000
G1 X-5.904 Y1.684 F400.000
G1 X-6.062 Y0.949 F400.000
G1 X-6.107 Y0.576 F400.000
G1 X-6.124 Y0.203 F400.000
G1 X-6.102 Y-0.531 F400.000
G1 X-6.068 Y-0.898 F400.000
G1 X-6.011 Y-1.266 F400.000
G1 X-5.819 Y-1.983 F400.000
G1 X-5.695 Y-2.333 F400.000
G1 X-5.548 Y-2.672 F400.000
G1 X-5.384 Y-3.006 F400.000
G1 X-5.198 Y-3.328 F400.000
G1 X-4.994 Y-3.638 F400.000
G1 X-4.768 Y-3.938 F400.000
G1 X-4.525 Y-4.220 F400.000
G1 X-4.266 Y-4.492 F400.000
G1 X-3.994 Y-4.746 F400.000
G1 X-3.412 Y-5.209 F400.000
G1 X-3.102 Y-5.418 F400.000
G1 X-2.780 Y-5.610 F400.000
G1 X-2.452 Y-5.785 F400.000
G1 X-2.113 Y-5.944 F400.000
G1 X-1.763 Y-6.085 F400.000
G1 X-1.401 Y-6.192 F400.000
G1 X-1.040 Y-6.282 F400.000
G1 X-0.672 Y-6.350 F400.000
G1 X-0.299 Y-6.401 F400.000
G1 X0.068 Y-6.429 F400.000
G1 X0.435 Y-6.441 F400.000
G1 X0.802 Y-6.429 F400.000
G1 X1.169 Y-6.395 F400.000
G1 X1.531 Y-6.328 F400.000
G1 X1.893 Y-6.243 F400.000
G1 X2.249 Y-6.136 F400.000
G1 X2.593 Y-6.000 F400.000
G1 X3.266 Y-5.684 F400.000
G1 X3.582 Y-5.492 F400.000
G1 X3.893 Y-5.282 F400.000
G1 X4.480 Y-4.825 F400.000
G1 X4.757 Y-4.571 F400.000
G1 X5.023 Y-4.305 F400.000
G1 X5.486 Y-3.718 F400.000
G1 X5.689 Y-3.407 F400.000
G1 X5.870 Y-3.079 F400.000
G1 X6.186 Y-2.407 F400.000
G1 X6.322 Y-2.056 F400.000
G1 X6.441 Y-1.701 F400.000
G1 X6.542 Y-1.339 F400.000
G1 X6.627 Y-0.972 F400.000
G1 X6.706 Y-0.226 F400.000
G1 X6.718 Y0.141 F400.000
G1 X6.678 Y0.876 F400.000
G1 X6.627 Y1.243 F400.000
G1 X6.469 Y1.966 F400.000
G1 X6.356 Y2.322 F400.000
G1 X6.226 Y2.672 F400.000
G1 X6.079 Y3.011 F400.000
G1 X5.706 Y3.650 F400.000
G1 X5.271 Y4.254 F400.000
G1 X5.040 Y4.542 F400.000
G1 X4.525 Y5.085 F400.000
G1 X3.944 Y5.554 F400.000
G1 X3.638 Y5.763 F400.000
G1 X2.983 Y6.124 F400.000
G1 X2.638 Y6.277 F400.000
G1 X2.288 Y6.407 F400.000
G1 X1.932 Y6.520 F400.000
G1 X1.203 Y6.689 F400.000
G1 X0.831 Y6.740 F400.000
G1 X0.458 Y6.774 F400.000
G1 X-0.282 Y6.797 F400.000
G1 X-1.017 Y6.751 F400.000
G1 X-1.384 Y6.706 F400.000
G1 X-2.107 Y6.531 F400.000
G1 X-2.463 Y6.418 F400.000
G1 X-2.808 Y6.282 F400.000
G1 X-3.147 Y6.130 F400.000
G1 X-3.469 Y5.944 F400.000
G1 X-3.780 Y5.740 F400.000
G1 X-4.367 Y5.282 F400.000
G1 X-4.638 Y5.028 F400.000
G1 X-5.153 Y4.480 F400.000
G1 X-5.616 Y3.893 F400.000
G1 X-6.011 Y3.260 F400.000
G1 X-6.186 Y2.932 F400.000
G1 X-6.345 Y2.593 F400.000
G1 X-6.486 Y2.249 F400.000
G1 X-6.689 Y1.531 F400.000
G1 X-6.763 Y1.164 F400.000
G1 X-6.808 Y0.791 F400.000
G1 X-6.853 Y0.045 F400.000
G1 X-6.853 Y-0.322 F400.000
G1 X-6.797 Y-1.056 F400.000
G1 X-6.650 Y-1.785 F400.000
G1 X-6.548 Y-2.141 F400.000
G1 X-6.424 Y-2.492 F400.000
G1 X-6.282 Y-2.836 F400.000
G1 X-6.124 Y-3.169 F400.000
G1 X-5.944 Y-3.497 F400.000
G1 X-5.746 Y-3.814 F400.000
G1 X-5.531 Y-4.119 F400.000
G1 X-5.062 Y-4.701 F400.000
G1 X-4.808 Y-4.972 F400.000
G1 X-4.542 Y-5.232 F400.000
G1 X-4.266 Y-5.480 F400.000
G1 X-3.977 Y-5.718 F400.000
G1 X-3.350 Y-6.130 F400.000
G1 X-2.689 Y-6.486 F400.000
G1 X-2.000 Y-6.780 F400.000
G1 X-1.644 Y-6.893 F400.000
G1 X-1.282 Y-6.989 F400.000
G1 X-0.548 Y-7.124 F400.000
G1 X-0.175 Y-7.164 F400.000
G1 X0.192 Y-7.186 F400.000
G1 X0.559 Y-7.192 F400.000
G1 X0.927 Y-7.181 F400.000
G1 X1.661 Y-7.068 F400.000
G1 X2.379 Y-6.876 F400.000
G1 X2.729 Y-6.751 F400.000
G1 X3.073 Y-6.605 F400.000
G1 X3.407 Y-6.441 F400.000
G1 X3.729 Y-6.260 F400.000
G1 X4.045 Y-6.062 F400.000
G1 X4.650 Y-5.627 F400.000
G1 X4.944 Y-5.395 F400.000
G1 X5.220 Y-5.147 F400.000
G1 X5.734 Y-4.610 F400.000
G1 X6.175 Y-4.011 F400.000
G1 X6.373 Y-3.695 F400.000
G1 X6.554 Y-3.367 F400.000
G1 X6.718 Y-3.028 F400.000
G1 X7.006 Y-2.339 F400.000
G1 X7.124 Y-1.983 F400.000
G1 X7.316 Y-1.260 F400.000
G1 X7.390 Y-0.893 F400.000
G1 X7.446 Y-0.147 F400.000
G1 X7.441 Y0.588 F400.000
G1 X7.407 Y0.955 F400.000
G1 X7.294 Y1.689 F400.000
G1 X7.209 Y2.051 F400.000
G1 X7.107 Y2.407 F400.000
G1 X6.989 Y2.757 F400.000
G1 X6.853 Y3.102 F400.000
G1 X6.503 Y3.763 F400.000
G1 X6.096 Y4.390 F400.000
G1 X5.876 Y4.689 F400.000
G1 X5.395 Y5.260 F400.000
G1 X5.141 Y5.531 F400.000
G1 X4.571 Y6.011 F400.000
G1 X4.271 Y6.232 F400.000
G1 X3.633 Y6.616 F400.000
G1 X3.299 Y6.780 F400.000
G1 X2.955 Y6.927 F400.000
G1 X2.254 Y7.181 F400.000
G1 X1.893 Y7.282 F400.000
G1 X1.158 Y7.441 F400.000
G1 X0.785 Y7.497 F400.000
G1 X0.412 Y7.537 F400.000
G1 X0.040 Y7.559 F400.000
G1 X-0.328 Y7.565 F400.000
G1 X-0.695 Y7.554 F400.000
G1 X-1.797 Y7.390 F400.000
G1 X-2.514 Y7.198 F400.000
G1 X-2.864 Y7.079 F400.000
G1 X-3.537 Y6.763 F400.000
G1 X-3.859 Y6.582 F400.000
G1 X-4.169 Y6.379 F400.000
G1 X-4.469 Y6.158 F400.000
G1 X-5.040 Y5.678 F400.000
G1 X-5.305 Y5.418 F400.000
G1 X-5.802 Y4.859 F400.000
G1 X-6.040 Y4.571 F400.000
G1 X-6.469 Y3.955 F400.000
G1 X-6.667 Y3.638 F400.000
G1 X-6.847 Y3.311 F400.000
G1 X-7.136 Y2.621 F400.000
G1 X-7.254 Y2.266 F400.000
G1 X-7.356 Y1.904 F400.000
G1 X-7.441 Y1.537 F400.000
G1 X-7.508 Y1.169 F400.000
G1 X-7.559 Y0.797 F400.000
G1 X-7.588 Y0.424 F400.000
G1 X-7.599 Y0.051 F400.000
G1 X-7.582 Y-0.684 F400.000
G1 X-7.548 Y-1.051 F400.000
G1 X-7.497 Y-1.418 F400.000
G1 X-7.316 Y-2.136 F400.000
G1 X-7.079 Y-2.836 F400.000
G1 X-6.938 Y-3.181 F400.000
G1 X-6.780 Y-3.520 F400.000
G1 X-6.395 Y-4.158 F400.000
G1 X-5.966 Y-4.768 F400.000
G1 X-5.729 Y-5.056 F400.000
G1 X-5.226 Y-5.605 F400.000
G1 X-4.678 Y-6.113 F400.000
G1 X-4.073 Y-6.554 F400.000
G1 X-3.757 Y-6.751 F400.000
G1 X-3.102 Y-7.107 F400.000
G1 X-2.418 Y-7.401 F400.000
G1 X-2.068 Y-7.531 F400.000
G1 X-1.712 Y-7.644 F400.000
G1 X-0.983 Y-7.825 F400.000
G1 X-0.616 Y-7.893 F400.000
G1 X0.124 Y-7.949 F400.000
G1 X0.492 Y-7.949 F400.000
G1 X0.859 Y-7.927 F400.000
G1 X1.226 Y-7.887 F400.000
G1 X1.955 Y-7.757 F400.000
G1 X2.316 Y-7.667 F400.000
G1 X3.023 Y-7.441 F400.000
G1 X3.367 Y-7.299 F400.000
G1 X4.028 Y-6.955 F400.000
G1 X4.661 Y-6.559 F400.000
G1 X5.254 Y-6.107 F400.000
G1 X5.542 Y-5.870 F400.000
G1 X5.819 Y-5.616 F400.000
G1 X6.322 Y-5.068 F400.000
G1 X6.554 Y-4.774 F400.000
G1 X6.972 Y-4.153 F400.000
G1 X7.158 Y-3.831 F400.000
G1 X7.328 Y-3.497 F400.000
G1 X7.480 Y-3.158 F400.000
G1 X7.751 Y-2.458 F400.000
G1 X7.966 Y-1.740 F400.000
G1 X8.056 Y-1.379 F400.000
G1 X8.164 Y-0.633 F400.000
G1 X8.192 Y-0.260 F400.000
G1 X8.192 Y0.475 F400.000
G1 X8.130 Y1.209 F400.000
G1 X8.006 Y1.938 F400.000
G1 X7.927 Y2.299 F400.000
G1 X7.831 Y2.655 F400.000
G1 X7.559 Y3.345 F400.000
G1 X7.232 Y4.011 F400.000
G1 X7.045 Y4.333 F400.000
G1 X6.627 Y4.949 F400.000
G1 X6.153 Y5.525 F400.000
G1 X5.898 Y5.797 F400.000
G1 X5.633 Y6.056 F400.000
G1 X5.356 Y6.305 F400.000
G1 X4.768 Y6.757 F400.000
G1 X4.458 Y6.966 F400.000
G1 X3.808 Y7.339 F400.000
G1 X3.469 Y7.503 F400.000
G1 X3.124 Y7.650 F400.000
G1 X2.418 Y7.898 F400.000
G1 X1.695 Y8.096 F400.000
G1 X0.955 Y8.232 F400.000
G1 X0.582 Y8.282 F400.000
G1 X0.209 Y8.316 F400.000
G1 X-0.525 Y8.316 F400.000
G1 X-0.893 Y8.288 F400.000
G1 X-1.627 Y8.192 F400.000
G1 X-2.350 Y8.034 F400.000
G1 X-2.706 Y7.938 F400.000
G1 X-3.056 Y7.819 F400.000
G1 X-3.734 Y7.520 F400.000
G1 X-4.062 Y7.345 F400.000
G1 X-4.684 Y6.938 F400.000
G1 X-4.977 Y6.712 F400.000
G1 X-5.537 Y6.220 F400.000
G1 X-5.808 Y5.966 F400.000
G1 X-6.322 Y5.429 F400.000
G1 X-6.565 Y5.147 F400.000
G1 X-7.011 Y4.548 F400.000
G1 X-7.379 Y3.898 F400.000
G1 X-7.695 Y3.220 F400.000
G1 X-7.831 Y2.870 F400.000
G1 X-8.056 Y2.158 F400.000
G1 X-8.147 Y1.797 F400.000
G1 X-8.282 Y1.056 F400.000
G1 X-8.328 Y0.684 F400.000
G1 X-8.373 Y-0.056 F400.000
G1 X-8.373 Y-0.424 F400.000
G1 X-8.356 Y-0.791 F400.000
G1 X-8.254 Y-1.525 F400.000
G1 X-8.085 Y-2.249 F400.000
G1 X-7.977 Y-2.605 F400.000
G1 X-7.853 Y-2.955 F400.000
G1 X-7.712 Y-3.299 F400.000
G1 X-7.384 Y-3.966 F400.000
G1 X-7.006 Y-4.610 F400.000
G1 X-6.576 Y-5.220 F400.000
G1 X-6.113 Y-5.797 F400.000
G1 X-5.588 Y-6.322 F400.000
G1 X-5.311 Y-6.571 F400.000
G1 X-4.718 Y-7.023 F400.000
G1 X-4.085 Y-7.418 F400.000
G1 X-3.763 Y-7.605 F400.000
G1 X-3.090 Y-7.932 F400.000
G1 X-2.746 Y-8.079 F400.000
G1 X-2.040 Y-8.328 F400.000
G1 X-1.316 Y-8.531 F400.000
G1 X-0.949 Y-8.610 F400.000
G1 X-0.203 Y-8.695 F400.000
G1 X0.164 Y-8.712 F400.000
G1 X0.898 Y-8.678 F400.000
G1 X1.266 Y-8.644 F400.000
G1 X1.633 Y-8.593 F400.000
G1 X2.362 Y-8.446 F400.000
G1 X2.723 Y-8.356 F400.000
G1 X3.424 Y-8.102 F400.000
G1 X3.763 Y-7.955 F400.000
G1 X4.734 Y-7.418 F400.000
G1 X5.350 Y-6.994 F400.000
G1 X5.644 Y-6.768 F400.000
G1 X6.203 Y-6.277 F400.000
G1 X6.469 Y-6.017 F400.000
G1 X6.972 Y-5.463 F400.000
G1 X7.407 Y-4.859 F400.000
G1 X7.605 Y-4.542 F400.000
G1 X8.124 Y-3.548 F400.000
G1 X8.537 Y-2.503 F400.000
G1 X8.650 Y-2.147 F400.000
G1 X8.814 Y-1.412 F400.000
G1 X8.870 Y-1.040 F400.000
G1 X8.938 Y-0.294 F400.000
G1 X8.949 Y0.441 F400.000
G1 X8.904 Y1.175 F400.000
G1 X8.864 Y1.542 F400.000
G1 X8.808 Y1.910 F400.000
G1 X8.627 Y2.633 F400.000
G1 X8.514 Y2.989 F400.000
G1 X8.079 Y4.011 F400.000
G1 X7.718 Y4.661 F400.000
G1 X7.520 Y4.977 F400.000
G1 X7.079 Y5.582 F400.000
G1 X6.842 Y5.870 F400.000
G1 X6.593 Y6.147 F400.000
G1 X6.062 Y6.672 F400.000
G1 X5.780 Y6.921 F400.000
G1 X5.192 Y7.373 F400.000
G1 X4.565 Y7.780 F400.000
G1 X4.237 Y7.966 F400.000
G1 X3.565 Y8.294 F400.000
G1 X2.870 Y8.565 F400.000
G1 X2.153 Y8.780 F400.000
G1 X1.785 Y8.864 F400.000
G1 X1.045 Y8.989 F400.000
G1 X0.672 Y9.028 F400.000
G1 X-0.068 Y9.062 F400.000
G1 X-0.802 Y9.051 F400.000
G1 X-1.537 Y8.983 F400.000
G1 X-2.266 Y8.842 F400.000
G1 X-2.627 Y8.751 F400.000
G1 X-3.333 Y8.514 F400.000
G1 X-4.017 Y8.220 F400.000
G1 X-4.350 Y8.051 F400.000
G1 X-4.672 Y7.864 F400.000
G1 X-5.571 Y7.203 F400.000
G1 X-5.859 Y6.966 F400.000
G1 X-6.407 Y6.458 F400.000
G1 X-6.667 Y6.192 F400.000
G1 X-7.158 Y5.633 F400.000
G1 X-7.593 Y5.023 F400.000
G1 X-7.791 Y4.706 F400.000
G1 X-8.141 Y4.045 F400.000
G1 X-8.305 Y3.706 F400.000
G1 X-8.576 Y3.011 F400.000
G1 X-8.802 Y2.294 F400.000
G1 X-8.898 Y1.932 F400.000
G1 X-9.045 Y1.198 F400.000
G1 X-9.136 Y0.452 F400.000
G1 X-9.147 Y-0.288 F400.000
G1 X-9.130 Y-0.655 F400.000
G1 X-8.983 Y-1.757 F400.000
G1 X-8.814 Y-2.480 F400.000
G1 X-8.712 Y-2.836 F400.000
G1 X-8.593 Y-3.186 F400.000
G1 X-8.294 Y-3.864 F400.000
G1 X-7.949 Y-4.520 F400.000
G1 X-7.565 Y-5.153 F400.000
G1 X-7.141 Y-5.763 F400.000
G1 X-6.667 Y-6.333 F400.000
G1 X-6.130 Y-6.853 F400.000
G1 X-5.559 Y-7.333 F400.000
G1 X-4.949 Y-7.763 F400.000
G1 X-4.316 Y-8.158 F400.000
G1 X-3.322 Y-8.672 F400.000
G1 X-2.621 Y-8.944 F400.000
G1 X-2.266 Y-9.062 F400.000
G1 X-1.542 Y-9.254 F400.000
G1 X-1.175 Y-9.333 F400.000
G1 X-0.802 Y-9.395 F400.000
G1 X-0.056 Y-9.446 F400.000
G1 X0.678 Y-9.458 F400.000
G1 X1.412 Y-9.412 F400.000
G1 X1.780 Y-9.367 F400.000
G1 X2.503 Y-9.215 F400.000
G1 X2.859 Y-9.113 F400.000
G1 X3.209 Y-8.994 F400.000
G1 X3.898 Y-8.718 F400.000
G1 X4.559 Y-8.390 F400.000
G1 X4.881 Y-8.209 F400.000
G1 X5.508 Y-7.808 F400.000
G1 X6.107 Y-7.367 F400.000
G1 X6.678 Y-6.893 F400.000
G1 X7.198 Y-6.356 F400.000
G1 X7.441 Y-6.073 F400.000
G1 X7.887 Y-5.475 F400.000
G1 X8.294 Y-4.853 F400.000
G1 X8.655 Y-4.203 F400.000
G1 X8.825 Y-3.870 F400.000
G1 X8.977 Y-3.531 F400.000
G1 X9.232 Y-2.825 F400.000
G1 X9.435 Y-2.102 F400.000
G1 X9.520 Y-1.734 F400.000
G1 X9.644 Y-0.994 F400.000
G1 X9.689 Y-0.621 F400.000
G1 X9.734 Y0.119 F400.000
G1 X9.740 Y0.486 F400.000
G1 X9.729 Y0.853 F400.000
G1 X9.644 Y1.588 F400.000
G1 X9.582 Y1.955 F400.000
G1 X9.401 Y2.672 F400.000
G1 X9.175 Y3.373 F400.000
G1 X8.740 Y4.395 F400.000
G1 X8.571 Y4.729 F400.000
G1 X8.181 Y5.362 F400.000
G1 X7.746 Y5.966 F400.000
G1 X7.271 Y6.537 F400.000
G1 X7.017 Y6.808 F400.000
G1 X6.475 Y7.322 F400.000
G1 X5.898 Y7.797 F400.000
G1 X5.288 Y8.226 F400.000
G1 X4.650 Y8.610 F400.000
G1 X3.983 Y8.949 F400.000
G1 X3.638 Y9.102 F400.000
G1 X2.938 Y9.362 F400.000
G1 X2.582 Y9.475 F400.000
G1 X1.847 Y9.633 F400.000
G1 X0.729 Y9.797 F400.000
G1 X-0.011 Y9.859 F400.000
G1 X-0.746 Y9.853 F400.000
G1 X-1.480 Y9.774 F400.000
G1 X-2.215 Y9.644 F400.000
G1 X-2.576 Y9.559 F400.000
G1 X-3.288 Y9.350 F400.000
G1 X-3.983 Y9.090 F400.000
G1 X-4.322 Y8.944 F400.000
G1 X-4.972 Y8.576 F400.000
G1 X-5.588 Y8.158 F400.000
G1 X-6.458 Y7.458 F400.000
G1 X-6.994 Y6.944 F400.000
G1 X-7.254 Y6.678 F400.000
G1 X-7.746 Y6.113 F400.000
G1 X-7.977 Y5.819 F400.000
G1 X-8.390 Y5.198 F400.000
G1 X-8.582 Y4.876 F400.000
G1 X-8.921 Y4.203 F400.000
G1 X-9.209 Y3.514 F400.000
G1 X-9.446 Y2.802 F400.000
G1 X-9.638 Y2.073 F400.000
G1 X-9.785 Y1.339 F400.000
G1 X-9.842 Y0.966 F400.000
G1 X-9.898 Y0.220 F400.000
G1 X-9.910 Y-0.147 F400.000
G1 X-9.887 Y-0.881 F400.000
G1 X-9.853 Y-1.249 F400.000
G1 X-9.740 Y-1.983 F400.000
G1 X-9.571 Y-2.706 F400.000
G1 X-9.345 Y-3.412 F400.000
G1 X-9.062 Y-4.096 F400.000
G1 X-8.723 Y-4.757 F400.000
G1 X-8.345 Y-5.401 F400.000
G1 X-7.701 Y-6.316 F400.000
G1 X-7.469 Y-6.605 F400.000
G1 X-6.955 Y-7.141 F400.000
G1 X-6.684 Y-7.395 F400.000
G1 X-5.808 Y-8.096 F400.000
G1 X-5.198 Y-8.525 F400.000
G1 X-4.554 Y-8.904 F400.000
G1 X-3.881 Y-9.243 F400.000
G1 X-2.836 Y-9.672 F400.000
G1 X-2.124 Y-9.910 F400.000
G1 X-1.390 Y-10.073 F400.000
G1 X-1.023 Y-10.136 F400.000
G1 X-0.277 Y-10.215 F400.000
G1 X0.090 Y-10.232 F400.000
G1 X0.825 Y-10.226 F400.000
G1 X1.559 Y-10.169 F400.000
G1 X1.927 Y-10.124 F400.000
G1 X2.294 Y-10.062 F400.000
G1 X3.011 Y-9.876 F400.000
G1 X3.362 Y-9.757 F400.000
G1 X4.051 Y-9.486 F400.000
G1 X4.723 Y-9.158 F400.000
G1 X5.373 Y-8.802 F400.000
G1 X6.305 Y-8.192 F400.000
G1 X6.605 Y-7.972 F400.000
G1 X7.169 Y-7.486 F400.000
G1 X7.441 Y-7.226 F400.000
G1 X7.944 Y-6.678 F400.000
G1 X8.407 Y-6.090 F400.000
G1 X8.825 Y-5.469 F400.000
G1 X9.209 Y-4.825 F400.000
G1 X9.548 Y-4.153 F400.000
G1 X9.825 Y-3.458 F400.000
G1 X10.056 Y-2.746 F400.000
G1 X10.237 Y-2.017 F400.000
G1 X10.373 Y-1.277 F400.000
G1 X10.463 Y-0.531 F400.000
G1 X10.492 Y-0.158 F400.000
G1 X10.503 Y0.576 F400.000
G1 X10.469 Y1.311 F400.000
G1 X10.350 Y2.045 F400.000
G1 X10.181 Y2.768 F400.000
G1 X10.073 Y3.124 F400.000
G1 X9.831 Y3.825 F400.000
G1 X9.542 Y4.508 F400.000
G1 X9.384 Y4.847 F400.000
G1 X9.011 Y5.492 F400.000
G1 X8.599 Y6.113 F400.000
G1 X8.147 Y6.706 F400.000
G1 X7.910 Y6.994 F400.000
G1 X7.401 Y7.542 F400.000
G1 X6.842 Y8.034 F400.000
G1 X6.254 Y8.492 F400.000
G1 X5.638 Y8.910 F400.000
G1 X4.994 Y9.294 F400.000
G1 X4.322 Y9.633 F400.000
G1 X3.633 Y9.927 F400.000
G1 X2.927 Y10.175 F400.000
G1 X2.198 Y10.350 F400.000
G1 X1.090 Y10.537 F400.000
G1 X0.345 Y10.621 F400.000
G1 X-0.390 Y10.627 F400.000
G1 X-1.124 Y10.593 F400.000
G1 X-1.859 Y10.503 F400.000
G1 X-2.588 Y10.367 F400.000
G1 X-2.949 Y10.282 F400.000
G1 X-3.661 Y10.068 F400.000
G1 X-4.350 Y9.785 F400.000
G1 X-4.684 Y9.627 F400.000
G1 X-5.333 Y9.254 F400.000
G1 X-5.955 Y8.842 F400.000
G1 X-6.831 Y8.153 F400.000
G1 X-7.379 Y7.650 F400.000
G1 X-7.904 Y7.119 F400.000
G1 X-8.379 Y6.542 F400.000
G1 X-8.605 Y6.243 F400.000
G1 X-9.011 Y5.616 F400.000
G1 X-9.379 Y4.966 F400.000
G1 X-9.706 Y4.294 F400.000
G1 X-9.989 Y3.599 F400.000
G1 X-10.232 Y2.893 F400.000
G1 X-10.429 Y2.169 F400.000
G1 X-10.565 Y1.435 F400.000
G1 X-10.616 Y1.062 F400.000
G1 X-10.672 Y0.316 F400.000
G1 X-10.678 Y-0.418 F400.000
G1 X-10.599 Y-1.520 F400.000
G1 X-10.486 Y-2.254 F400.000
G1 X-10.412 Y-2.616 F400.000
G1 X-10.203 Y-3.328 F400.000
G1 X-10.079 Y-3.678 F400.000
G1 X-9.616 Y-4.701 F400.000
G1 X-9.266 Y-5.362 F400.000
G1 X-8.887 Y-6.000 F400.000
G1 X-8.684 Y-6.311 F400.000
G1 X-8.226 Y-6.898 F400.000
G1 X-7.983 Y-7.181 F400.000
G1 X-7.463 Y-7.718 F400.000
G1 X-6.904 Y-8.215 F400.000
G1 X-6.316 Y-8.678 F400.000
G1 X-5.706 Y-9.107 F400.000
G1 X-5.079 Y-9.508 F400.000
G1 X-4.412 Y-9.847 F400.000
G1 X-3.734 Y-10.153 F400.000
G1 X-2.689 Y-10.548 F400.000
G1 X-2.333 Y-10.661 F400.000
G1 X-1.605 Y-10.836 F400.000
G1 X-1.237 Y-10.904 F400.000
G1 X-0.864 Y-10.955 F400.000
G1 X0.249 Y-11.011 F400.000
G1 X0.983 Y-11.011 F400.000
G1 X1.718 Y-10.949 F400.000
G1 X2.446 Y-10.814 F400.000
G1 X2.808 Y-10.729 F400.000
G1 X3.520 Y-10.514 F400.000
G1 X4.215 Y-10.243 F400.000
G1 X4.893 Y-9.944 F400.000
G1 X5.554 Y-9.599 F400.000
G1 X6.192 Y-9.215 F400.000
G1 X6.808 Y-8.797 F400.000
G1 X7.107 Y-8.576 F400.000
G1 X7.672 Y-8.096 F400.000
G1 X7.944 Y-7.842 F400.000
G1 X8.458 Y-7.299 F400.000
G1 X8.701 Y-7.017 F400.000
G1 X9.345 Y-6.096 F400.000
G1 X9.915 Y-5.130 F400.000
G1 X10.254 Y-4.458 F400.000
G1 X10.531 Y-3.763 F400.000
G1 X10.768 Y-3.051 F400.000
G1 X10.960 Y-2.328 F400.000
G1 X11.045 Y-1.960 F400.000
G1 X11.175 Y-1.220 F400.000
G1 X11.266 Y-0.475 F400.000
G1 X11.282 Y0.266 F400.000
G1 X11.260 Y1.000 F400.000
G1 X11.192 Y1.734 F400.000
G1 X11.051 Y2.463 F400.000
G1 X10.864 Y3.181 F400.000
G1 X10.638 Y3.887 F400.000
G1 X10.367 Y4.582 F400.000
G1 X10.051 Y5.254 F400.000
G1 X9.689 Y5.904 F400.000
G1 X9.288 Y6.531 F400.000
G1 X8.847 Y7.130 F400.000
G1 X8.610 Y7.418 F400.000
G1 X7.819 Y8.209 F400.000
G1 X7.260 Y8.706 F400.000
G1 X6.678 Y9.169 F400.000
G1 X6.056 Y9.582 F400.000
G1 X5.412 Y9.960 F400.000
G1 X4.746 Y10.299 F400.000
G1 X4.062 Y10.605 F400.000
G1 X3.362 Y10.864 F400.000
G1 X2.638 Y11.051 F400.000
G1 X1.904 Y11.203 F400.000
G1 X0.785 Y11.345 F400.000
G1 X-0.328 Y11.384 F400.000
G1 X-1.062 Y11.367 F400.000
G1 X-1.429 Y11.345 F400.000
G1 X-2.164 Y11.254 F400.000
G1 X-2.531 Y11.192 F400.000
G1 X-2.893 Y11.113 F400.000
G1 X-3.605 Y10.904 F400.000
G1 X-4.299 Y10.650 F400.000
G1 X-4.972 Y10.345 F400.000
G1 X-5.299 Y10.175 F400.000
G1 X-5.938 Y9.797 F400.000
G1 X-6.554 Y9.379 F400.000
G1 X-7.136 Y8.915 F400.000
G1 X-7.695 Y8.418 F400.000
G1 X-8.480 Y7.621 F400.000
G1 X-8.729 Y7.345 F400.000
G1 X-9.186 Y6.757 F400.000
G1 X-9.605 Y6.136 F400.000
G1 X-9.977 Y5.486 F400.000
G1 X-10.311 Y4.819 F400.000
G1 X-10.605 Y4.130 F400.000
G1 X-10.870 Y3.429 F400.000
G1 X-10.989 Y3.073 F400.000
G1 X-11.181 Y2.350 F400.000
G1 X-11.266 Y1.983 F400.000
G1 X-11.333 Y1.616 F400.000
G1 X-11.435 Y0.497 F400.000
G1 X-11.452 Y-0.243 F400.000
G1 X-11.446 Y-0.610 F400.000
G1 X-11.395 Y-1.345 F400.000
G1 X-11.249 Y-2.446 F400.000
G1 X-11.073 Y-3.169 F400.000
G1 X-10.966 Y-3.525 F400.000
G1 X-10.712 Y-4.220 F400.000
G1 X-10.243 Y-5.226 F400.000
G1 X-9.876 Y-5.876 F400.000
G1 X-9.469 Y-6.503 F400.000
G1 X-9.028 Y-7.107 F400.000
G1 X-8.548 Y-7.678 F400.000
G1 X-8.034 Y-8.220 F400.000
G1 X-7.768 Y-8.480 F400.000
G1 X-7.209 Y-8.972 F400.000
G1 X-6.616 Y-9.429 F400.000
G1 X-6.000 Y-9.853 F400.000
G1 X-5.362 Y-10.237 F400.000
G1 X-4.701 Y-10.582 F400.000
G1 X-4.017 Y-10.887 F400.000
G1 X-2.966 Y-11.271 F400.000
G1 X-1.887 Y-11.582 F400.000
G1 X-1.514 Y-11.644 F400.000
G1 X-0.395 Y-11.774 F400.000
G1 X0.345 Y-11.814 F400.000
G1 X1.079 Y-11.791 F400.000
G1 X1.446 Y-11.763 F400.000
G1 X2.181 Y-11.661 F400.000
G1 X2.910 Y-11.514 F400.000
G1 X3.271 Y-11.424 F400.000
G1 X3.977 Y-11.198 F400.000
G1 X4.667 Y-10.927 F400.000
G1 X5.672 Y-10.429 F400.000
G1 X6.644 Y-9.876 F400.000
G1 X7.254 Y-9.446 F400.000
G1 X7.842 Y-8.989 F400.000
G1 X8.401 Y-8.497 F400.000
G1 X8.915 Y-7.955 F400.000
G1 X9.158 Y-7.672 F400.000
G1 X10.040 Y-6.458 F400.000
G1 X10.441 Y-5.825 F400.000
G1 X10.780 Y-5.158 F400.000
G1 X10.938 Y-4.819 F400.000
G1 X11.345 Y-3.774 F400.000
G1 X11.667 Y-2.695 F400.000
G1 X11.836 Y-1.960 F400.000
G1 X12.011 Y-0.847 F400.000
G1 X12.051 Y-0.102 F400.000
G1 X12.051 Y0.633 F400.000
G1 X12.011 Y1.367 F400.000
G1 X11.977 Y1.734 F400.000
G1 X11.853 Y2.469 F400.000
G1 X11.774 Y2.831 F400.000
G1 X11.463 Y3.898 F400.000
G1 X11.062 Y4.938 F400.000
G1 X10.746 Y5.610 F400.000
G1 X10.390 Y6.260 F400.000
G1 X9.994 Y6.887 F400.000
G1 X9.565 Y7.492 F400.000
G1 X9.073 Y8.051 F400.000
G1 X8.554 Y8.582 F400.000
G1 X7.718 Y9.328 F400.000
G1 X7.124 Y9.780 F400.000
G1 X6.508 Y10.198 F400.000
G1 X5.870 Y10.582 F400.000
G1 X5.209 Y10.932 F400.000
G1 X4.525 Y11.243 F400.000
G1 X3.831 Y11.514 F400.000
G1 X3.119 Y11.746 F400.000
G1 X2.384 Y11.910 F400.000
G1 X1.638 Y12.034 F400.000
G1 X0.520 Y12.141 F400.000
G1 X-0.588 Y12.181 F400.000
G1 X-1.322 Y12.141 F400.000
G1 X-1.689 Y12.107 F400.000
G1 X-2.424 Y12.000 F400.000
G1 X-3.147 Y11.842 F400.000
G1 X-3.864 Y11.638 F400.000
G1 X-4.565 Y11.390 F400.000
G1 X-4.910 Y11.249 F400.000
G1 X-5.571 Y10.915 F400.000
G1 X-6.215 Y10.542 F400.000
G1 X-6.831 Y10.130 F400.000
G1 X-7.424 Y9.678 F400.000
G1 X-7.994 Y9.192 F400.000
G1 X-8.537 Y8.684 F400.000
G1 X-9.311 Y7.876 F400.000
G1 X-9.774 Y7.288 F400.000
G1 X-10.203 Y6.678 F400.000
G1 X-10.588 Y6.040 F400.000
G1 X-10.927 Y5.379 F400.000
G1 X-11.367 Y4.350 F400.000
G1 X-11.740 Y3.288 F400.000
G1 X-11.847 Y2.927 F400.000
G1 X-12.017 Y2.192 F400.000
G1 X-12.085 Y1.825 F400.000
G1 X-12.181 Y1.079 F400.000
G1 X-12.226 Y0.333 F400.000
G1 X-12.220 Y-0.768 F400.000
G1 X-12.124 Y-1.870 F400.000
G1 X-12.011 Y-2.605 F400.000
G1 X-11.944 Y-2.966 F400.000
G1 X-11.740 Y-3.678 F400.000
G1 X-11.621 Y-4.028 F400.000
G1 X-11.345 Y-4.718 F400.000
G1 X-11.028 Y-5.390 F400.000
G1 X-10.678 Y-6.045 F400.000
G1 X-10.085 Y-6.994 F400.000
G1 X-9.655 Y-7.599 F400.000
G1 X-9.175 Y-8.169 F400.000
G1 X-8.921 Y-8.446 F400.000
G1 X-8.384 Y-8.966 F400.000
G1 X-7.825 Y-9.463 F400.000
G1 X-6.944 Y-10.153 F400.000
G1 X-6.328 Y-10.576 F400.000
G1 X-5.689 Y-10.966 F400.000
G1 X-5.023 Y-11.311 F400.000
G1 X-4.684 Y-11.469 F400.000
G1 X-3.989 Y-11.746 F400.000
G1 X-3.282 Y-12.000 F400.000
G1 X-2.565 Y-12.220 F400.000
G1 X-1.831 Y-12.384 F400.000
G1 X-1.090 Y-12.497 F400.000
G1 X-0.345 Y-12.565 F400.000
G1 X0.390 Y-12.588 F400.000
G1 X1.492 Y-12.554 F400.000
G1 X1.859 Y-12.520 F400.000
G1 X2.593 Y-12.395 F400.000
G1 X3.316 Y-12.232 F400.000
G1 X4.028 Y-12.017 F400.000
G1 X4.379 Y-11.898 F400.000
G1 X5.068 Y-11.621 F400.000
G1 X5.740 Y-11.305 F400.000
G1 X6.712 Y-10.757 F400.000
G1 X7.644 Y-10.147 F400.000
G1 X7.944 Y-9.927 F400.000
G1 X8.520 Y-9.452 F400.000
G1 X8.797 Y-9.203 F400.000
G1 X9.322 Y-8.678 F400.000
G1 X9.571 Y-8.401 F400.000
G1 X10.040 Y-7.819 F400.000
G1 X10.480 Y-7.220 F400.000
G1 X11.079 Y-6.277 F400.000
G1 X11.441 Y-5.621 F400.000
G1 X11.740 Y-4.932 F400.000
G1 X12.006 Y-4.232 F400.000
G1 X12.243 Y-3.520 F400.000
G1 X12.452 Y-2.797 F400.000
G1 X12.610 Y-2.062 F400.000
G1 X12.768 Y-0.949 F400.000
G1 X12.836 Y0.531 F400.000
G1 X12.819 Y1.266 F400.000
G1 X12.734 Y2.000 F400.000
G1 X12.678 Y2.367 F400.000
G1 X12.520 Y3.090 F400.000
G1 X12.198 Y4.158 F400.000
G1 X11.791 Y5.198 F400.000
G1 X11.480 Y5.870 F400.000
G1 X11.136 Y6.531 F400.000
G1 X10.757 Y7.169 F400.000
G1 X10.554 Y7.480 F400.000
G1 X10.090 Y8.068 F400.000
G1 X9.593 Y8.627 F400.000
G1 X9.068 Y9.153 F400.000
G1 X8.520 Y9.661 F400.000
G1 X7.655 Y10.373 F400.000
G1 X7.034 Y10.791 F400.000
G1 X6.390 Y11.175 F400.000
G1 X5.734 Y11.537 F400.000
G1 X4.718 Y12.011 F400.000
G1 X4.023 Y12.288 F400.000
G1 X3.299 Y12.503 F400.000
G1 X2.571 Y12.678 F400.000
G1 X1.458 Y12.853 F400.000
G1 X0.339 Y12.944 F400.000
G1 X-0.395 Y12.960 F400.000
G1 X-1.497 Y12.927 F400.000
G1 X-2.232 Y12.836 F400.000
G1 X-2.960 Y12.701 F400.000
G1 X-3.678 Y12.520 F400.000
G1 X-4.384 Y12.294 F400.000
G1 X-5.073 Y12.017 F400.000
G1 X-5.746 Y11.701 F400.000
G1 X-6.395 Y11.339 F400.000
G1 X-7.028 Y10.944 F400.000
G1 X-7.927 Y10.282 F400.000
G1 X-8.497 Y9.802 F400.000
G1 X-9.045 Y9.299 F400.000
G1 X-9.571 Y8.763 F400.000
G1 X-10.062 Y8.203 F400.000
G1 X-10.525 Y7.621 F400.000
G1 X-10.938 Y7.000 F400.000
G1 X-11.311 Y6.350 F400.000
G1 X-11.644 Y5.684 F400.000
G1 X-12.090 Y4.655 F400.000
G1 X-12.356 Y3.955 F400.000
G1 X-12.588 Y3.243 F400.000
G1 X-12.757 Y2.508 F400.000
G1 X-12.887 Y1.768 F400.000
G1 X-12.977 Y1.023 F400.000
G1 X-13.023 Y0.277 F400.000
G1 X-13.023 Y-0.458 F400.000
G1 X-12.949 Y-1.559 F400.000
G1 X-12.864 Y-2.294 F400.000
G1 X-12.723 Y-3.017 F400.000
G1 X-12.638 Y-3.379 F400.000
G1 X-12.429 Y-4.090 F400.000
G1 X-12.169 Y-4.785 F400.000
G1 X-11.864 Y-5.469 F400.000
G1 X-11.525 Y-6.130 F400.000
G1 X-10.960 Y-7.090 F400.000
G1 X-10.763 Y-7.401 F400.000
G1 X-10.322 Y-8.000 F400.000
G1 X-9.847 Y-8.576 F400.000
G1 X-9.339 Y-9.124 F400.000
G1 X-8.802 Y-9.644 F400.000
G1 X-8.243 Y-10.136 F400.000
G1 X-7.356 Y-10.819 F400.000
G1 X-6.740 Y-11.243 F400.000
G1 X-6.096 Y-11.627 F400.000
G1 X-5.768 Y-11.808 F400.000
G1 X-5.096 Y-12.130 F400.000
G1 X-4.407 Y-12.424 F400.000
G1 X-3.350 Y-12.814 F400.000
G1 X-2.994 Y-12.927 F400.000
G1 X-2.260 Y-13.096 F400.000
G1 X-1.525 Y-13.232 F400.000
G1 X-0.780 Y-13.328 F400.000
G1 X-0.034 Y-13.384 F400.000
G1 X0.701 Y-13.401 F400.000
G1 X1.068 Y-13.395 F400.000
G1 X1.802 Y-13.333 F400.000
G1 X2.169 Y-13.282 F400.000
G1 X2.893 Y-13.136 F400.000
G1 X3.616 Y-12.960 F400.000
G1 X4.678 Y-12.621 F400.000
G1 X5.373 Y-12.356 F400.000
G1 X6.373 Y-11.859 F400.000
G1 X7.339 Y-11.299 F400.000
G1 X7.966 Y-10.893 F400.000
G1 X8.271 Y-10.678 F400.000
G1 X9.130 Y-9.966 F400.000
G1 X9.667 Y-9.441 F400.000
G1 X9.921 Y-9.169 F400.000
G1 X10.638 Y-8.311 F400.000
G1 X11.299 Y-7.407 F400.000
G1 X11.706 Y-6.780 F400.000
G1 X12.062 Y-6.124 F400.000
G1 X12.226 Y-5.785 F400.000
G1 X12.655 Y-4.751 F400.000
G1 X12.898 Y-4.040 F400.000
G1 X13.220 Y-2.966 F400.000
G1 X13.446 Y-1.864 F400.000
G1 X13.542 Y-1.119 F400.000
G1 X13.599 Y-0.373 F400.000
G1 X13.621 Y0.734 F400.000
G1 X13.616 Y1.102 F400.000
G1 X13.554 Y1.836 F400.000
G1 X13.452 Y2.571 F400.000
G1 X13.305 Y3.294 F400.000
G1 X12.847 Y4.706 F400.000
G1 X12.435 Y5.740 F400.000
G1 X12.282 Y6.079 F400.000
G1 X11.932 Y6.734 F400.000
G1 X11.548 Y7.373 F400.000
G1 X11.130 Y7.989 F400.000
G1 X10.672 Y8.571 F400.000
G1 X9.927 Y9.407 F400.000
G1 X9.124 Y10.186 F400.000
G1 X8.565 Y10.678 F400.000
G1 X7.960 Y11.119 F400.000
G1 X7.333 Y11.525 F400.000
G1 X6.689 Y11.910 F400.000
G1 X5.695 Y12.435 F400.000
G1 X5.356 Y12.599 F400.000
G1 X4.667 Y12.881 F400.000
G1 X3.960 Y13.130 F400.000
G1 X3.243 Y13.333 F400.000
G1 X2.508 Y13.497 F400.000
G1 X1.768 Y13.621 F400.000
G1 X1.023 Y13.701 F400.000
G1 X-0.458 Y13.763 F400.000
G1 X-0.825 Y13.763 F400.000
G1 X-1.927 Y13.701 F400.000
G1 X-2.661 Y13.588 F400.000
G1 X-3.023 Y13.514 F400.000
G1 X-3.740 Y13.328 F400.000
G1 X-4.452 Y13.102 F400.000
G1 X-5.147 Y12.836 F400.000
G1 X-5.831 Y12.531 F400.000
G1 X-6.492 Y12.192 F400.000
G1 X-7.130 Y11.819 F400.000
G1 X-7.751 Y11.412 F400.000
G1 X-8.350 Y10.972 F400.000
G1 X-8.921 Y10.497 F400.000
G1 X-9.469 Y9.994 F400.000
G1 X-10.249 Y9.186 F400.000
G1 X-10.740 Y8.627 F400.000
G1 X-10.977 Y8.339 F400.000
G1 X-11.407 Y7.729 F400.000
G1 X-11.610 Y7.412 F400.000
G1 X-12.158 Y6.435 F400.000
G1 X-12.475 Y5.757 F400.000
G1 X-12.774 Y5.068 F400.000
G1 X-13.175 Y4.017 F400.000
G1 X-13.384 Y3.294 F400.000
G1 X-13.475 Y2.932 F400.000
G1 X-13.616 Y2.198 F400.000
G1 X-13.718 Y1.452 F400.000
G1 X-13.785 Y0.706 F400.000
G1 X-13.819 Y-0.401 F400.000
G1 X-13.802 Y-1.136 F400.000
G1 X-13.746 Y-1.870 F400.000
G1 X-13.627 Y-2.605 F400.000
G1 X-13.554 Y-2.966 F400.000
G1 X-13.373 Y-3.689 F400.000
G1 X-13.153 Y-4.395 F400.000
G1 X-12.751 Y-5.435 F400.000
G1 X-12.435 Y-6.107 F400.000
G1 X-12.085 Y-6.763 F400.000
G1 X-11.701 Y-7.401 F400.000
G1 X-11.282 Y-8.017 F400.000
G1 X-10.831 Y-8.610 F400.000
G1 X-10.593 Y-8.898 F400.000
G1 X-9.842 Y-9.723 F400.000
G1 X-9.316 Y-10.249 F400.000
G1 X-8.768 Y-10.751 F400.000
G1 X-8.181 Y-11.215 F400.000
G1 X-7.571 Y-11.650 F400.000
G1 X-6.621 Y-12.243 F400.000
G1 X-5.960 Y-12.599 F400.000
G1 X-5.288 Y-12.921 F400.000
G1 X-4.254 Y-13.350 F400.000
G1 X-3.554 Y-13.605 F400.000
G1 X-2.469 Y-13.876 F400.000
G1 X-1.734 Y-14.028 F400.000
G1 X-0.989 Y-14.119 F400.000
G1 X0.124 Y-14.186 F400.000
G1 X1.226 Y-14.169 F400.000
G1 X1.593 Y-14.147 F400.000
G1 X2.328 Y-14.045 F400.000
G1 X3.062 Y-13.910 F400.000
G1 X3.785 Y-13.740 F400.000
G1 X4.497 Y-13.537 F400.000
G1 X5.198 Y-13.294 F400.000
G1 X5.542 Y-13.158 F400.000
G1 X6.209 Y-12.836 F400.000
G1 X6.870 Y-12.492 F400.000
G1 X7.842 Y-11.938 F400.000
G1 X8.763 Y-11.311 F400.000
G1 X9.056 Y-11.085 F400.000
G1 X9.616 Y-10.588 F400.000
G1 X10.147 Y-10.062 F400.000
G1 X10.655 Y-9.514 F400.000
G1 X11.605 Y-8.362 F400.000
G1 X11.831 Y-8.062 F400.000
G1 X12.226 Y-7.429 F400.000
G1 X12.599 Y-6.780 F400.000
G1 X12.938 Y-6.113 F400.000
G1 X13.384 Y-5.085 F400.000
G1 X13.763 Y-4.023 F400.000
G1 X14.056 Y-2.938 F400.000
G1 X14.209 Y-2.203 F400.000
G1 X14.271 Y-1.836 F400.000
G1 X14.379 Y-0.718 F400.000
G1 X14.429 Y0.390 F400.000
G1 X14.424 Y1.124 F400.000
G1 X14.328 Y2.226 F400.000
G1 X14.271 Y2.593 F400.000
G1 X14.011 Y3.678 F400.000
G1 X13.797 Y4.390 F400.000
G1 X13.548 Y5.090 F400.000
G1 X13.266 Y5.780 F400.000
G1 X12.960 Y6.458 F400.000
G1 X12.627 Y7.124 F400.000
G1 X12.243 Y7.757 F400.000
G1 X12.040 Y8.068 F400.000
G1 X11.367 Y8.955 F400.000
G1 X10.633 Y9.797 F400.000
G1 X9.847 Y10.593 F400.000
G1 X9.576 Y10.847 F400.000
G1 X9.000 Y11.322 F400.000
G1 X8.401 Y11.763 F400.000
G1 X7.458 Y12.373 F400.000
G1 X6.480 Y12.921 F400.000
G1 X5.475 Y13.412 F400.000
G1 X4.774 Y13.689 F400.000
G1 X4.068 Y13.927 F400.000
G1 X3.345 Y14.130 F400.000
G1 X2.610 Y14.288 F400.000
G1 X1.870 Y14.401 F400.000
G1 X0.751 Y14.520 F400.000
G1 X0.379 Y14.548 F400.000
G1 X-0.729 Y14.571 F400.000
G1 X-1.463 Y14.542 F400.000
G1 X-2.198 Y14.475 F400.000
G1 X-2.927 Y14.345 F400.000
G1 X-3.650 Y14.175 F400.000
G1 X-4.362 Y13.966 F400.000
G1 X-5.062 Y13.718 F400.000
G1 X-5.746 Y13.435 F400.000
G1 X-6.418 Y13.113 F400.000
G1 X-7.395 Y12.576 F400.000
G1 X-8.028 Y12.186 F400.000
G1 X-8.927 Y11.525 F400.000
G1 X-9.497 Y11.045 F400.000
G1 X-10.040 Y10.531 F400.000
G1 X-11.073 Y9.463 F400.000
G1 X-11.316 Y9.181 F400.000
G1 X-11.768 Y8.582 F400.000
G1 X-12.181 Y7.960 F400.000
G1 X-12.559 Y7.316 F400.000
G1 X-13.073 Y6.322 F400.000
G1 X-13.531 Y5.294 F400.000
G1 X-13.938 Y4.249 F400.000
G1 X-14.249 Y3.164 F400.000
G1 X-14.401 Y2.429 F400.000
G1 X-14.514 Y1.689 F400.000
G1 X-14.582 Y0.944 F400.000
G1 X-14.610 Y0.198 F400.000
G1 X-14.616 Y-0.537 F400.000
G1 X-14.571 Y-1.638 F400.000
G1 X-14.542 Y-2.006 F400.000
G1 X-14.424 Y-2.740 F400.000
G1 X-14.271 Y-3.463 F400.000
G1 X-14.079 Y-4.181 F400.000
G1 X-13.842 Y-4.887 F400.000
G1 X-13.571 Y-5.576 F400.000
G1 X-13.260 Y-6.249 F400.000
G1 X-12.915 Y-6.910 F400.000
G1 X-12.339 Y-7.864 F400.000
G1 X-11.712 Y-8.785 F400.000
G1 X-11.000 Y-9.650 F400.000
G1 X-9.960 Y-10.723 F400.000
G1 X-9.418 Y-11.237 F400.000
G1 X-8.548 Y-11.944 F400.000
G1 X-7.938 Y-12.379 F400.000
G1 X-7.311 Y-12.780 F400.000
G1 X-6.661 Y-13.147 F400.000
G1 X-5.989 Y-13.480 F400.000
G1 X-4.960 Y-13.932 F400.000
G1 X-3.910 Y-14.328 F400.000
G1 X-2.825 Y-14.638 F400.000
G1 X-2.090 Y-14.791 F400.000
G1 X-0.599 Y-14.955 F400.000
G1 X0.141 Y-15.000 F400.000
G1 X1.243 Y-14.989 F400.000
G1 X1.977 Y-14.927 F400.000
G1 X2.712 Y-14.825 F400.000
G1 X4.158 Y-14.492 F400.000
G1 X4.514 Y-14.390 F400.000
G1 X5.215 Y-14.153 F400.000
G1 X5.904 Y-13.881 F400.000
G1 X6.576 Y-13.576 F400.000
G1 X7.237 Y-13.232 F400.000
G1 X8.192 Y-12.661 F400.000
G1 X9.113 Y-12.034 F400.000
G1 X9.412 Y-11.814 F400.000
G1 X9.977 Y-11.328 F400.000
G1 X10.254 Y-11.073 F400.000
G1 X11.294 Y-9.994 F400.000
G1 X11.791 Y-9.435 F400.000
G1 X12.243 Y-8.836 F400.000
G1 X12.661 Y-8.215 F400.000
G1 X13.232 Y-7.254 F400.000
G1 X13.740 Y-6.260 F400.000
G1 X14.051 Y-5.576 F400.000
G1 X14.328 Y-4.881 F400.000
G1 X14.554 Y-4.169 F400.000
G1 X14.751 Y-3.446 F400.000
G1 X14.977 Y-2.345 F400.000
G1 X15.136 Y-1.226 F400.000
G1 X15.198 Y-0.480 F400.000
G1 X15.226 Y0.260 F400.000
G1 X15.198 Y1.362 F400.000
G1 X15.136 Y2.096 F400.000
G1 X15.090 Y2.463 F400.000
G1 X14.949 Y3.186 F400.000
G1 X14.774 Y3.910 F400.000
G1 X14.559 Y4.621 F400.000
G1 X14.181 Y5.667 F400.000
G1 X13.740 Y6.689 F400.000
G1 X13.232 Y7.684 F400.000
G1 X12.836 Y8.316 F400.000
G1 X12.627 Y8.621 F400.000
G1 X11.701 Y9.791 F400.000
G1 X10.966 Y10.633 F400.000
G1 X10.429 Y11.153 F400.000
G1 X10.153 Y11.401 F400.000
G1 X9.576 Y11.876 F400.000
G1 X8.972 Y12.316 F400.000
G1 X8.034 Y12.932 F400.000
G1 X7.068 Y13.497 F400.000
G1 X6.073 Y14.011 F400.000
G1 X5.734 Y14.169 F400.000
G1 X5.034 Y14.446 F400.000
G1 X4.328 Y14.684 F400.000
G1 X3.605 Y14.887 F400.000
G1 X2.870 Y15.045 F400.000
G1 X1.384 Y15.271 F400.000
G1 X1.011 Y15.316 F400.000
G1 X0.638 Y15.345 F400.000
G1 X-0.102 Y15.373 F400.000
G1 X-1.203 Y15.345 F400.000
G1 X-2.305 Y15.249 F400.000
G1 X-2.672 Y15.203 F400.000
G1 X-3.395 Y15.062 F400.000
G1 X-3.757 Y14.977 F400.000
G1 X-4.469 Y14.768 F400.000
G1 X-5.164 Y14.520 F400.000
G1 X-5.853 Y14.237 F400.000
G1 X-6.859 Y13.763 F400.000
G1 X-7.836 Y13.220 F400.000
G1 X-8.463 Y12.831 F400.000
G1 X-9.379 Y12.186 F400.000
G1 X-9.949 Y11.706 F400.000
G1 X-10.497 Y11.203 F400.000
G1 X-11.023 Y10.678 F400.000
G1 X-11.525 Y10.124 F400.000
G1 X-12.000 Y9.548 F400.000
G1 X-12.661 Y8.644 F400.000
G1 X-13.254 Y7.695 F400.000
G1 X-13.780 Y6.706 F400.000
G1 X-14.237 Y5.678 F400.000
G1 X-14.503 Y4.977 F400.000
G1 X-14.734 Y4.266 F400.000
G1 X-15.034 Y3.181 F400.000
G1 X-15.119 Y2.814 F400.000
G1 X-15.305 Y1.706 F400.000
G1 X-15.379 Y0.960 F400.000
G1 X-15.418 Y-0.153 F400.000
G1 X-15.412 Y-0.887 F400.000
G1 X-15.373 Y-1.621 F400.000
G1 X-15.288 Y-2.356 F400.000
G1 X-15.090 Y-3.446 F400.000
G1 X-14.910 Y-4.164 F400.000
G1 X-14.559 Y-5.220 F400.000
G1 X-14.130 Y-6.243 F400.000
G1 X-13.638 Y-7.243 F400.000
G1 X-13.079 Y-8.209 F400.000
G1 X-12.881 Y-8.525 F400.000
G1 X-12.441 Y-9.124 F400.000
G1 X-11.977 Y-9.712 F400.000
G1 X-10.983 Y-10.825 F400.000
G1 X-10.463 Y-11.362 F400.000
G1 X-9.910 Y-11.859 F400.000
G1 X-9.040 Y-12.565 F400.000
G1 X-8.441 Y-13.011 F400.000
G1 X-7.164 Y-13.785 F400.000
G1 X-6.169 Y-14.294 F400.000
G1 X-5.486 Y-14.605 F400.000
G1 X-4.441 Y-15.011 F400.000
G1 X-3.729 Y-15.243 F400.000
G1 X-2.627 Y-15.497 F400.000
G1 X-1.136 Y-15.723 F400.000
G1 X-0.390 Y-15.797 F400.000
G1 X1.085 Y-15.797 F400.000
G1 X2.186 Y-15.712 F400.000
G1 X2.554 Y-15.667 F400.000
G1 X3.277 Y-15.525 F400.000
G1 X4.000 Y-15.356 F400.000
G1 X5.068 Y-15.045 F400.000
G1 X5.768 Y-14.802 F400.000
G1 X6.797 Y-14.379 F400.000
G1 X8.424 Y-13.480 F400.000
G1 X9.045 Y-13.073 F400.000
G1 X9.944 Y-12.412 F400.000
G1 X10.514 Y-11.932 F400.000
G1 X11.062 Y-11.429 F400.000
G1 X11.588 Y-10.893 F400.000
G1 X12.079 Y-10.333 F400.000
G1 X12.774 Y-9.452 F400.000
G1 X13.401 Y-8.520 F400.000
G1 X13.966 Y-7.554 F400.000
G1 X14.486 Y-6.559 F400.000
G1 X14.650 Y-6.220 F400.000
G1 X14.932 Y-5.531 F400.000
G1 X15.294 Y-4.469 F400.000
G1 X15.576 Y-3.379 F400.000
G1 X15.791 Y-2.277 F400.000
G1 X15.944 Y-1.158 F400.000
G1 X16.028 Y-0.040 F400.000
G1 X16.045 Y0.695 F400.000
G1 X16.011 Y1.429 F400.000
G1 X15.932 Y2.164 F400.000
G1 X15.819 Y2.898 F400.000
G1 X15.582 Y3.983 F400.000
G1 X15.384 Y4.695 F400.000
G1 X15.153 Y5.401 F400.000
G1 X14.887 Y6.096 F400.000
G1 X14.588 Y6.774 F400.000
G1 X14.079 Y7.768 F400.000
G1 X13.503 Y8.718 F400.000
G1 X12.859 Y9.633 F400.000
G1 X12.147 Y10.497 F400.000
G1 X11.644 Y11.045 F400.000
G1 X11.113 Y11.571 F400.000
G1 X10.554 Y12.073 F400.000
G1 X9.672 Y12.768 F400.000
G1 X8.435 Y13.605 F400.000
G1 X7.475 Y14.181 F400.000
G1 X6.486 Y14.706 F400.000
G1 X5.797 Y15.000 F400.000
G1 X5.096 Y15.260 F400.000
G1 X4.379 Y15.486 F400.000
G1 X3.655 Y15.672 F400.000
G1 X2.921 Y15.831 F400.000
G1 X1.441 Y16.079 F400.000
G1 X0.322 Y16.153 F400.000
G1 X-0.412 Y16.164 F400.000
G1 X-1.881 Y16.090 F400.000
G1 X-2.616 Y16.017 F400.000
G1 X-3.350 Y15.893 F400.000
G1 X-3.712 Y15.814 F400.000
G1 X-4.429 Y15.616 F400.000
G1 X-5.136 Y15.379 F400.000
G1 X-5.831 Y15.113 F400.000
G1 X-6.847 Y14.661 F400.000
G1 X-7.836 Y14.153 F400.000
G1 X-8.797 Y13.576 F400.000
G1 X-9.412 Y13.164 F400.000
G1 X-10.000 Y12.701 F400.000
G1 X-10.842 Y11.966 F400.000
G1 X-11.379 Y11.452 F400.000
G1 X-11.893 Y10.915 F400.000
G1 X-12.384 Y10.356 F400.000
G1 X-13.079 Y9.475 F400.000
G1 X-13.492 Y8.853 F400.000
G1 X-13.876 Y8.209 F400.000
G1 X-14.571 Y6.881 F400.000
G1 X-15.034 Y5.859 F400.000
G1 X-15.175 Y5.514 F400.000
G1 X-15.412 Y4.802 F400.000
G1 X-15.723 Y3.718 F400.000
G1 X-15.960 Y2.616 F400.000
G1 X-16.136 Y1.503 F400.000
G1 X-16.186 Y0.757 F400.000
G1 X-16.215 Y0.011 F400.000
G1 X-16.203 Y-1.090 F400.000
G1 X-16.136 Y-2.192 F400.000
G1 X-16.023 Y-2.927 F400.000
G1 X-15.955 Y-3.288 F400.000
G1 X-15.780 Y-4.011 F400.000
G1 X-15.571 Y-4.723 F400.000
G1 X-15.198 Y-5.768 F400.000
G1 X-14.910 Y-6.452 F400.000
G1 X-14.424 Y-7.458 F400.000
G1 X-13.887 Y-8.435 F400.000
G1 X-13.480 Y-9.056 F400.000
G1 X-13.040 Y-9.655 F400.000
G1 X-12.576 Y-10.237 F400.000
G1 X-11.842 Y-11.079 F400.000
G1 X-11.333 Y-11.621 F400.000
G1 X-10.232 Y-12.627 F400.000
G1 X-9.362 Y-13.333 F400.000
G1 X-8.429 Y-13.960 F400.000
G1 X-7.463 Y-14.531 F400.000
G1 X-6.469 Y-15.040 F400.000
G1 X-5.785 Y-15.350 F400.000
G1 X-4.740 Y-15.757 F400.000
G1 X-3.655 Y-16.073 F400.000
G1 X-2.554 Y-16.328 F400.000
G1 X-1.446 Y-16.514 F400.000
G1 X-0.328 Y-16.599 F400.000
G1 X0.774 Y-16.633 F400.000
G1 X1.876 Y-16.571 F400.000
G1 X2.610 Y-16.475 F400.000
G1 X3.339 Y-16.339 F400.000
G1 X4.062 Y-16.169 F400.000
G1 X5.130 Y-15.864 F400.000
G1 X6.181 Y-15.492 F400.000
G1 X6.870 Y-15.209 F400.000
G1 X7.876 Y-14.734 F400.000
G1 X8.203 Y-14.565 F400.000
G1 X8.836 Y-14.181 F400.000
G1 X9.763 Y-13.554 F400.000
G1 X10.356 Y-13.102 F400.000
G1 X10.927 Y-12.621 F400.000
G1 X11.475 Y-12.119 F400.000
G1 X12.000 Y-11.593 F400.000
G1 X12.503 Y-11.045 F400.000
G1 X13.215 Y-10.181 F400.000
G1 X13.661 Y-9.576 F400.000
G1 X14.271 Y-8.638 F400.000
G1 X14.650 Y-7.989 F400.000
G1 X15.158 Y-6.989 F400.000
G1 X15.599 Y-5.960 F400.000
G1 X15.972 Y-4.898 F400.000
G1 X16.277 Y-3.819 F400.000
G1 X16.441 Y-3.085 F400.000
G1 X16.684 Y-1.605 F400.000
G1 X16.808 Y-0.486 F400.000
G1 X16.831 Y0.621 F400.000
G1 X16.802 Y1.356 F400.000
G1 X16.734 Y2.090 F400.000
G1 X16.565 Y3.192 F400.000
G1 X16.333 Y4.277 F400.000
G1 X16.243 Y4.638 F400.000
G1 X16.028 Y5.350 F400.000
G1 X15.627 Y6.390 F400.000
G1 X15.322 Y7.068 F400.000
G1 X14.819 Y8.062 F400.000
G1 X14.260 Y9.028 F400.000
G1 X14.062 Y9.345 F400.000
G1 X13.621 Y9.944 F400.000
G1 X13.158 Y10.531 F400.000
G1 X12.418 Y11.367 F400.000
G1 X11.627 Y12.164 F400.000
G1 X10.791 Y12.910 F400.000
G1 X9.910 Y13.605 F400.000
G1 X8.983 Y14.232 F400.000
G1 X8.023 Y14.808 F400.000
G1 X7.028 Y15.322 F400.000
G1 X6.345 Y15.633 F400.000
G1 X5.299 Y16.040 F400.000
G1 X4.944 Y16.164 F400.000
G1 X4.220 Y16.362 F400.000
G1 X3.119 Y16.605 F400.000
G1 X2.384 Y16.734 F400.000
G1 X1.266 Y16.870 F400.000
G1 X0.147 Y16.938 F400.000
G1 X-0.955 Y16.938 F400.000
G1 X-2.056 Y16.876 F400.000
G1 X-3.158 Y16.746 F400.000
G1 X-4.243 Y16.497 F400.000
G1 X-4.955 Y16.288 F400.000
G1 X-6.000 Y15.910 F400.000
G1 X-7.023 Y15.463 F400.000
G1 X-8.023 Y14.972 F400.000
G1 X-8.350 Y14.797 F400.000
G1 X-8.983 Y14.401 F400.000
G1 X-9.910 Y13.774 F400.000
G1 X-10.209 Y13.554 F400.000
G1 X-10.785 Y13.079 F400.000
G1 X-11.616 Y12.328 F400.000
G1 X-12.141 Y11.802 F400.000
G1 X-12.644 Y11.254 F400.000
G1 X-13.356 Y10.390 F400.000
G1 X-14.017 Y9.492 F400.000
G1 X-14.226 Y9.181 F400.000
G1 X-14.966 Y7.881 F400.000
G1 X-15.469 Y6.881 F400.000
G1 X-15.627 Y6.542 F400.000
G1 X-15.910 Y5.853 F400.000
G1 X-16.271 Y4.791 F400.000
G1 X-16.469 Y4.068 F400.000
G1 X-16.768 Y2.599 F400.000
G1 X-16.887 Y1.853 F400.000
G1 X-17.000 Y0.362 F400.000
G1 X-17.017 Y-0.740 F400.000
G1 X-16.966 Y-1.842 F400.000
G1 X-16.938 Y-2.209 F400.000
G1 X-16.774 Y-3.311 F400.000
G1 X-16.610 Y-4.034 F400.000
G1 X-16.407 Y-4.746 F400.000
G1 X-16.040 Y-5.797 F400.000
G1 X-15.763 Y-6.486 F400.000
G1 X-15.130 Y-7.831 F400.000
G1 X-14.785 Y-8.486 F400.000
G1 X-14.186 Y-9.429 F400.000
G1 X-13.757 Y-10.034 F400.000
G1 X-13.062 Y-10.910 F400.000
G1 X-12.571 Y-11.469 F400.000
G1 X-12.056 Y-12.006 F400.000
G1 X-11.249 Y-12.774 F400.000
G1 X-10.407 Y-13.508 F400.000
G1 X-10.119 Y-13.746 F400.000
G1 X-9.514 Y-14.186 F400.000
G1 X-8.582 Y-14.814 F400.000
G1 X-8.266 Y-15.011 F400.000
G1 X-7.610 Y-15.373 F400.000
G1 X-6.944 Y-15.712 F400.000
G1 X-5.915 Y-16.169 F400.000
G1 X-5.215 Y-16.446 F400.000
G1 X-4.147 Y-16.780 F400.000
G1 X-3.424 Y-16.977 F400.000
G1 X-1.955 Y-17.249 F400.000
G1 X-0.836 Y-17.384 F400.000
G1 X-0.463 Y-17.418 F400.000
G1 X1.011 Y-17.441 F400.000
G1 X2.113 Y-17.373 F400.000
G1 X2.480 Y-17.328 F400.000
G1 X3.927 Y-17.040 F400.000
G1 X5.362 Y-16.661 F400.000
G1 X6.062 Y-16.412 F400.000
G1 X6.751 Y-16.141 F400.000
G1 X7.768 Y-15.689 F400.000
G1 X8.763 Y-15.181 F400.000
G1 X9.395 Y-14.785 F400.000
G1 X10.305 Y-14.141 F400.000
G1 X11.175 Y-13.446 F400.000
G1 X12.017 Y-12.706 F400.000
G1 X12.288 Y-12.452 F400.000
G1 X13.299 Y-11.362 F400.000
G1 X13.542 Y-11.079 F400.000
G1 X13.994 Y-10.480 F400.000
G1 X14.424 Y-9.870 F400.000
G1 X15.017 Y-8.921 F400.000
G1 X15.559 Y-7.938 F400.000
G1 X16.051 Y-6.932 F400.000
G1 X16.203 Y-6.593 F400.000
G1 X16.599 Y-5.542 F400.000
G1 X16.921 Y-4.469 F400.000
G1 X17.181 Y-3.373 F400.000
G1 X17.384 Y-2.271 F400.000
G1 X17.537 Y-1.153 F400.000
G1 X17.610 Y-0.407 F400.000
G1 X17.610 Y1.068 F400.000
G1 X17.542 Y2.169 F400.000
G1 X17.503 Y2.537 F400.000
G1 X17.379 Y3.271 F400.000
G1 X17.147 Y4.356 F400.000
G1 X16.847 Y5.429 F400.000
G1 X16.734 Y5.785 F400.000
G1 X16.463 Y6.475 F400.000
G1 X16.169 Y7.153 F400.000
G1 X15.678 Y8.153 F400.000
G1 X15.141 Y9.130 F400.000
G1 X14.746 Y9.763 F400.000
G1 X14.537 Y10.073 F400.000
G1 X13.853 Y10.955 F400.000
G1 X12.864 Y12.068 F400.000
G1 X12.345 Y12.605 F400.000
G1 X11.226 Y13.588 F400.000
G1 X10.339 Y14.271 F400.000
G1 X9.418 Y14.915 F400.000
G1 X8.785 Y15.316 F400.000
G1 X7.797 Y15.842 F400.000
G1 X6.774 Y16.311 F400.000
G1 X6.079 Y16.588 F400.000
G1 X5.017 Y16.944 F400.000
G1 X3.932 Y17.232 F400.000
G1 X2.831 Y17.452 F400.000
G1 X1.339 Y17.661 F400.000
G1 X0.966 Y17.701 F400.000
G1 X-0.514 Y17.746 F400.000
G1 X-1.616 Y17.712 F400.000
G1 X-2.718 Y17.610 F400.000
G1 X-3.085 Y17.565 F400.000
G1 X-3.808 Y17.429 F400.000
G1 X-4.525 Y17.249 F400.000
G1 X-5.237 Y17.040 F400.000
G1 X-5.938 Y16.797 F400.000
G1 X-6.966 Y16.373 F400.000
G1 X-7.972 Y15.898 F400.000
G1 X-8.633 Y15.559 F400.000
G1 X-9.582 Y14.977 F400.000
G1 X-10.192 Y14.554 F400.000
G1 X-11.079 Y13.870 F400.000
G1 X-11.650 Y13.390 F400.000
G1 X-12.469 Y12.627 F400.000
G1 X-12.977 Y12.079 F400.000
G1 X-13.469 Y11.520 F400.000
G1 X-14.169 Y10.650 F400.000
G1 X-14.395 Y10.350 F400.000
G1 X-14.814 Y9.729 F400.000
G1 X-15.198 Y9.090 F400.000
G1 X-16.096 Y7.458 F400.000
G1 X-16.678 Y6.079 F400.000
G1 X-17.051 Y5.017 F400.000
G1 X-17.232 Y4.294 F400.000
G1 X-17.469 Y3.192 F400.000
G1 X-17.655 Y2.085 F400.000
G1 X-17.791 Y0.966 F400.000
G1 X-17.819 Y-0.514 F400.000
G1 X-17.774 Y-1.983 F400.000
G1 X-17.734 Y-2.350 F400.000
G1 X-17.554 Y-3.452 F400.000
G1 X-17.299 Y-4.537 F400.000
G1 X-16.960 Y-5.599 F400.000
G1 X-16.559 Y-6.638 F400.000
G1 X-16.107 Y-7.655 F400.000
G1 X-15.435 Y-8.977 F400.000
G1 X-14.836 Y-9.921 F400.000
G1 X-14.401 Y-10.525 F400.000
G1 X-13.452 Y-11.678 F400.000
G1 X-12.701 Y-12.508 F400.000
G1 X-11.610 Y-13.537 F400.000
G1 X-10.757 Y-14.266 F400.000
G1 X-10.169 Y-14.723 F400.000
G1 X-9.237 Y-15.350 F400.000
G1 X-8.271 Y-15.915 F400.000
G1 X-7.277 Y-16.435 F400.000
G1 X-6.260 Y-16.910 F400.000
G1 X-5.559 Y-17.169 F400.000
G1 X-4.492 Y-17.525 F400.000
G1 X-4.130 Y-17.633 F400.000
G1 X-2.661 Y-17.949 F400.000
G1 X-1.542 Y-18.119 F400.000
G1 X-0.424 Y-18.220 F400.000
G1 X0.684 Y-18.254 F400.000
G1 X1.785 Y-18.220 F400.000
G1 X2.153 Y-18.192 F400.000
G1 X2.887 Y-18.079 F400.000
G1 X3.972 Y-17.870 F400.000
G1 X5.056 Y-17.610 F400.000
G1 X5.412 Y-17.508 F400.000
G1 X6.463 Y-17.136 F400.000
G1 X7.831 Y-16.548 F400.000
G1 X8.503 Y-16.232 F400.000
G1 X9.147 Y-15.870 F400.000
G1 X10.395 Y-15.056 F400.000
G1 X11.288 Y-14.384 F400.000
G1 X12.147 Y-13.667 F400.000
G1 X12.695 Y-13.164 F400.000
G1 X13.480 Y-12.367 F400.000
G1 X13.983 Y-11.814 F400.000
G1 X14.446 Y-11.226 F400.000
G1 X15.294 Y-10.000 F400.000
G1 X16.068 Y-8.723 F400.000
G1 X16.249 Y-8.395 F400.000
G1 X16.881 Y-7.034 F400.000
G1 X17.288 Y-5.989 F400.000
G1 X17.644 Y-4.921 F400.000
G1 X17.825 Y-4.198 F400.000
G1 X18.051 Y-3.096 F400.000
G1 X18.333 Y-1.237 F400.000
G1 X18.418 Y-0.119 F400.000
G1 X18.435 Y0.249 F400.000
G1 X18.412 Y1.350 F400.000
G1 X18.316 Y2.452 F400.000
G1 X18.147 Y3.554 F400.000
G1 X17.910 Y4.638 F400.000
G1 X17.605 Y5.706 F400.000
G1 X17.232 Y6.751 F400.000
G1 X16.791 Y7.774 F400.000
G1 X16.282 Y8.768 F400.000
G1 X15.910 Y9.412 F400.000
G1 X15.299 Y10.345 F400.000
G1 X14.859 Y10.949 F400.000
G1 X14.158 Y11.819 F400.000
G1 X13.418 Y12.661 F400.000
G1 X12.345 Y13.689 F400.000
G1 X11.785 Y14.181 F400.000
G1 X10.910 Y14.876 F400.000
G1 X10.000 Y15.525 F400.000
G1 X9.045 Y16.102 F400.000
G1 X8.045 Y16.616 F400.000
G1 X7.017 Y17.073 F400.000
G1 X5.966 Y17.480 F400.000
G1 X4.893 Y17.819 F400.000
G1 X4.169 Y18.017 F400.000
G1 X2.333 Y18.362 F400.000
G1 X1.215 Y18.497 F400.000
G1 X0.842 Y18.531 F400.000
G1 X-0.271 Y18.565 F400.000
G1 X-1.373 Y18.542 F400.000
G1 X-2.475 Y18.469 F400.000
G1 X-2.842 Y18.429 F400.000
G1 X-3.576 Y18.305 F400.000
G1 X-3.938 Y18.232 F400.000
G1 X-5.011 Y17.949 F400.000
G1 X-6.068 Y17.593 F400.000
G1 X-7.102 Y17.181 F400.000
G1 X-8.119 Y16.729 F400.000
G1 X-8.785 Y16.401 F400.000
G1 X-9.746 Y15.842 F400.000
G1 X-10.672 Y15.215 F400.000
G1 X-11.554 Y14.520 F400.000
G1 X-12.938 Y13.266 F400.000
G1 X-13.723 Y12.463 F400.000
G1 X-14.667 Y11.305 F400.000
G1 X-15.328 Y10.395 F400.000
G1 X-15.938 Y9.458 F400.000
G1 X-16.497 Y8.486 F400.000
G1 X-16.825 Y7.808 F400.000
G1 X-17.271 Y6.774 F400.000
G1 X-17.537 Y6.073 F400.000
G1 X-17.876 Y5.000 F400.000
G1 X-18.068 Y4.277 F400.000
G1 X-18.305 Y3.175 F400.000
G1 X-18.475 Y2.062 F400.000
G1 X-18.582 Y0.944 F400.000
G1 X-18.621 Y0.198 F400.000
G1 X-18.621 Y-0.904 F400.000
G1 X-18.559 Y-2.006 F400.000
G1 X-18.486 Y-2.740 F400.000
G1 X-18.379 Y-3.475 F400.000
G1 X-18.215 Y-4.198 F400.000
G1 X-17.910 Y-5.266 F400.000
G1 X-17.542 Y-6.316 F400.000
G1 X-17.130 Y-7.350 F400.000
G1 X-16.672 Y-8.367 F400.000
G1 X-16.508 Y-8.701 F400.000
G1 X-15.949 Y-9.661 F400.000
G1 X-15.339 Y-10.593 F400.000
G1 X-14.898 Y-11.198 F400.000
G1 X-14.186 Y-12.062 F400.000
G1 X-13.424 Y-12.887 F400.000
G1 X-12.627 Y-13.678 F400.000
G1 X-11.531 Y-14.684 F400.000
G1 X-10.644 Y-15.373 F400.000
G1 X-9.718 Y-16.000 F400.000
G1 X-9.079 Y-16.390 F400.000
G1 X-7.751 Y-17.090 F400.000
G1 X-6.390 Y-17.723 F400.000
G1 X-5.333 Y-18.113 F400.000
G1 X-4.621 Y-18.333 F400.000
G1 X-3.531 Y-18.605 F400.000
G1 X-2.797 Y-18.746 F400.000
G1 X-1.678 Y-18.910 F400.000
G1 X-0.186 Y-19.051 F400.000
G1 X0.181 Y-19.073 F400.000
G1 X1.282 Y-19.062 F400.000
G1 X2.017 Y-19.000 F400.000
G1 X2.751 Y-18.904 F400.000
G1 X4.576 Y-18.588 F400.000
G1 X5.644 Y-18.282 F400.000
G1 X6.695 Y-17.910 F400.000
G1 X8.062 Y-17.328 F400.000
G1 X9.068 Y-16.847 F400.000
G1 X10.339 Y-16.073 F400.000
G1 X11.254 Y-15.429 F400.000
G1 X12.130 Y-14.734 F400.000
G1 X12.972 Y-14.000 F400.000
G1 X13.780 Y-13.232 F400.000
G1 X14.288 Y-12.684 F400.000
G1 X15.000 Y-11.819 F400.000
G1 X15.441 Y-11.215 F400.000
G1 X16.655 Y-9.328 F400.000
G1 X16.842 Y-9.006 F400.000
G1 X17.492 Y-7.655 F400.000
G1 X17.915 Y-6.616 F400.000
G1 X18.288 Y-5.554 F400.000
G1 X18.593 Y-4.475 F400.000
G1 X18.847 Y-3.379 F400.000
G1 X18.989 Y-2.644 F400.000
G1 X19.141 Y-1.525 F400.000
G1 X19.215 Y-0.780 F400.000
G1 X19.237 Y0.701 F400.000
G1 X19.226 Y1.435 F400.000
G1 X19.141 Y2.537 F400.000
G1 X19.096 Y2.904 F400.000
G1 X18.893 Y3.994 F400.000
G1 X18.525 Y5.429 F400.000
G1 X18.186 Y6.492 F400.000
G1 X17.932 Y7.192 F400.000
G1 X17.638 Y7.870 F400.000
G1 X16.960 Y9.186 F400.000
G1 X16.384 Y10.141 F400.000
G1 X15.757 Y11.068 F400.000
G1 X15.079 Y11.960 F400.000
G1 X14.356 Y12.814 F400.000
G1 X13.853 Y13.362 F400.000
G1 X12.785 Y14.401 F400.000
G1 X12.226 Y14.893 F400.000
G1 X11.350 Y15.588 F400.000
G1 X10.729 Y16.006 F400.000
G1 X10.096 Y16.401 F400.000
G1 X8.785 Y17.124 F400.000
G1 X7.774 Y17.616 F400.000
G1 X6.734 Y18.056 F400.000
G1 X6.034 Y18.322 F400.000
G1 X4.966 Y18.661 F400.000
G1 X3.130 Y19.068 F400.000
G1 X2.763 Y19.136 F400.000
G1 X1.644 Y19.277 F400.000
G1 X0.898 Y19.328 F400.000
G1 X-0.582 Y19.379 F400.000
G1 X-1.684 Y19.350 F400.000
G1 X-2.785 Y19.266 F400.000
G1 X-3.520 Y19.141 F400.000
G1 X-4.605 Y18.904 F400.000
G1 X-5.322 Y18.718 F400.000
G1 X-6.723 Y18.215 F400.000
G1 X-7.757 Y17.791 F400.000
G1 X-9.102 Y17.164 F400.000
G1 X-9.746 Y16.791 F400.000
G1 X-10.684 Y16.181 F400.000
G1 X-11.588 Y15.520 F400.000
G1 X-12.452 Y14.808 F400.000
G1 X-13.271 Y14.045 F400.000
G1 X-14.311 Y12.977 F400.000
G1 X-14.814 Y12.424 F400.000
G1 X-15.503 Y11.548 F400.000
G1 X-15.932 Y10.938 F400.000
G1 X-16.542 Y10.000 F400.000
G1 X-17.113 Y9.028 F400.000
G1 X-17.599 Y8.023 F400.000
G1 X-18.040 Y6.989 F400.000
G1 X-18.441 Y5.938 F400.000
G1 X-18.763 Y4.859 F400.000
G1 X-19.079 Y3.390 F400.000
G1 X-19.254 Y2.277 F400.000
G1 X-19.373 Y1.158 F400.000
G1 X-19.441 Y0.040 F400.000
G1 X-19.458 Y-0.695 F400.000
G1 X-19.367 Y-2.164 F400.000
G1 X-19.232 Y-3.266 F400.000
G1 X-19.102 Y-3.994 F400.000
G1 X-18.915 Y-4.718 F400.000
G1 X-18.701 Y-5.429 F400.000
G1 X-18.085 Y-7.181 F400.000
G1 X-17.644 Y-8.203 F400.000
G1 X-17.316 Y-8.870 F400.000
G1 X-16.774 Y-9.842 F400.000
G1 X-16.181 Y-10.785 F400.000
G1 X-15.520 Y-11.689 F400.000
G1 X-14.808 Y-12.554 F400.000
G1 X-13.531 Y-13.910 F400.000
G1 X-12.458 Y-14.955 F400.000
G1 X-11.605 Y-15.678 F400.000
G1 X-10.701 Y-16.339 F400.000
G1 X-9.751 Y-16.932 F400.000
G1 X-9.096 Y-17.299 F400.000
G1 X-7.429 Y-18.153 F400.000
G1 X-6.740 Y-18.446 F400.000
G1 X-5.684 Y-18.831 F400.000
G1 X-4.605 Y-19.158 F400.000
G1 X-3.514 Y-19.429 F400.000
G1 X-2.412 Y-19.633 F400.000
G1 X-1.667 Y-19.740 F400.000
G1 X-0.548 Y-19.842 F400.000
G1 X0.192 Y-19.881 F400.000
G1 X0.927 Y-19.887 F400.000
G1 X2.395 Y-19.774 F400.000
G1 X3.497 Y-19.621 F400.000
G1 X4.588 Y-19.401 F400.000
G1 X5.667 Y-19.130 F400.000
G1 X6.023 Y-19.023 F400.000
G1 X7.073 Y-18.638 F400.000
G1 X8.441 Y-18.051 F400.000
G1 X9.119 Y-17.734 F400.000
G1 X10.096 Y-17.192 F400.000
G1 X11.034 Y-16.582 F400.000
G1 X11.638 Y-16.147 F400.000
G1 X12.514 Y-15.452 F400.000
G1 X13.633 Y-14.463 F400.000
G1 X14.695 Y-13.418 F400.000
G1 X15.198 Y-12.870 F400.000
G1 X16.328 Y-11.384 F400.000
G1 X16.938 Y-10.446 F400.000
G1 X17.503 Y-9.475 F400.000
G1 X18.011 Y-8.480 F400.000
G1 X18.469 Y-7.458 F400.000
G1 X18.876 Y-6.412 F400.000
G1 X19.000 Y-6.056 F400.000
G1 X19.492 Y-4.249 F400.000
G1 X19.802 Y-2.780 F400.000
G1 X19.944 Y-1.661 F400.000
G1 X20.017 Y-0.542 F400.000
G1 X20.040 Y0.565 F400.000
G1 X20.006 Y1.667 F400.000
G1 X19.921 Y2.768 F400.000
G1 X19.881 Y3.136 F400.000
G1 X19.746 Y3.870 F400.000
G1 X19.497 Y4.955 F400.000
G1 X19.085 Y6.379 F400.000
G1 X18.853 Y7.079 F400.000
G1 X18.582 Y7.768 F400.000
G1 X18.277 Y8.446 F400.000
G1 X17.768 Y9.441 F400.000
G1 X17.192 Y10.395 F400.000
G1 X16.571 Y11.322 F400.000
G1 X15.689 Y12.514 F400.000
G1 X14.706 Y13.633 F400.000
G1 X13.932 Y14.435 F400.000
G1 X13.124 Y15.209 F400.000
G1 X12.254 Y15.915 F400.000
G1 X11.339 Y16.559 F400.000
G1 X10.384 Y17.153 F400.000
G1 X8.746 Y18.056 F400.000
G1 X7.723 Y18.520 F400.000
G1 X6.672 Y18.938 F400.000
G1 X5.610 Y19.305 F400.000
G1 X4.887 Y19.497 F400.000
G1 X3.791 Y19.751 F400.000
G1 X2.689 Y19.960 F400.000
G1 X1.571 Y20.090 F400.000
G1 X0.452 Y20.164 F400.000
G1 X-1.390 Y20.203 F400.000
G1 X-1.757 Y20.186 F400.000
G1 X-2.859 Y20.068 F400.000
G1 X-3.960 Y19.876 F400.000
G1 X-5.045 Y19.633 F400.000
G1 X-5.757 Y19.435 F400.000
G1 X-6.458 Y19.198 F400.000
G1 X-7.836 Y18.650 F400.000
G1 X-8.853 Y18.198 F400.000
G1 X-9.842 Y17.672 F400.000
G1 X-10.791 Y17.096 F400.000
G1 X-11.706 Y16.452 F400.000
G1 X-12.576 Y15.757 F400.000
G1 X-13.412 Y15.011 F400.000
G1 X-14.475 Y13.960 F400.000
G1 X-15.232 Y13.136 F400.000
G1 X-15.955 Y12.282 F400.000
G1 X-16.412 Y11.695 F400.000
G1 X-17.220 Y10.441 F400.000
G1 X-17.966 Y9.141 F400.000
G1 X-18.282 Y8.463 F400.000
G1 X-18.723 Y7.435 F400.000
G1 X-19.124 Y6.384 F400.000
G1 X-19.480 Y5.316 F400.000
G1 X-19.661 Y4.593 F400.000
G1 X-19.808 Y3.859 F400.000
G1 X-19.938 Y3.119 F400.000
G1 X-20.141 Y1.627 F400.000
G1 X-20.243 Y0.136 F400.000
G1 X-20.266 Y-0.966 F400.000
G1 X-20.153 Y-2.435 F400.000
G1 X-20.000 Y-3.537 F400.000
G1 X-19.870 Y-4.266 F400.000
G1 X-19.463 Y-5.689 F400.000
G1 X-19.107 Y-6.746 F400.000
G1 X-18.576 Y-8.136 F400.000
G1 X-17.915 Y-9.463 F400.000
G1 X-17.356 Y-10.435 F400.000
G1 X-16.746 Y-11.373 F400.000
G1 X-16.085 Y-12.277 F400.000
G1 X-15.136 Y-13.424 F400.000
G1 X-14.633 Y-13.972 F400.000
G1 X-13.294 Y-15.271 F400.000
G1 X-12.181 Y-16.260 F400.000
G1 X-11.282 Y-16.932 F400.000
G1 X-10.655 Y-17.345 F400.000
G1 X-9.356 Y-18.085 F400.000
G1 X-8.028 Y-18.763 F400.000
G1 X-6.994 Y-19.215 F400.000
G1 X-5.938 Y-19.605 F400.000
G1 X-5.226 Y-19.836 F400.000
G1 X-4.141 Y-20.124 F400.000
G1 X-3.407 Y-20.288 F400.000
G1 X-2.299 Y-20.475 F400.000
G1 X-1.181 Y-20.599 F400.000
G1 X-0.435 Y-20.650 F400.000
G1 X0.672 Y-20.667 F400.000
G1 X2.141 Y-20.621 F400.000
G1 X3.243 Y-20.497 F400.000
G1 X3.977 Y-20.379 F400.000
G1 X5.424 Y-20.040 F400.000
G1 X6.492 Y-19.729 F400.000
G1 X6.842 Y-19.616 F400.000
G1 X7.876 Y-19.209 F400.000
G1 X9.559 Y-18.424 F400.000
G1 X10.215 Y-18.073 F400.000
G1 X10.537 Y-17.887 F400.000
G1 X11.768 Y-17.051 F400.000
G1 X12.655 Y-16.373 F400.000
G1 X13.514 Y-15.655 F400.000
G1 X14.610 Y-14.644 F400.000
G1 X15.395 Y-13.847 F400.000
G1 X16.339 Y-12.689 F400.000
G1 X17.017 Y-11.797 F400.000
G1 X17.232 Y-11.492 F400.000
G1 X17.825 Y-10.537 F400.000
G1 X18.701 Y-8.881 F400.000
G1 X19.023 Y-8.209 F400.000
G1 X19.441 Y-7.169 F400.000
G1 X19.921 Y-5.746 F400.000
G1 X20.333 Y-4.305 F400.000
G1 X20.542 Y-3.203 F400.000
G1 X20.701 Y-2.085 F400.000
G1 X20.780 Y-1.339 F400.000
G1 X20.864 Y0.514 F400.000
G1 X20.831 Y1.616 F400.000
G1 X20.751 Y2.718 F400.000
G1 X20.712 Y3.085 F400.000
G1 X20.588 Y3.819 F400.000
G1 X20.158 Y5.627 F400.000
G1 X19.853 Y6.695 F400.000
G1 X19.475 Y7.740 F400.000
G1 X19.023 Y8.763 F400.000
G1 X18.689 Y9.424 F400.000
G1 X18.130 Y10.390 F400.000
G1 X17.113 Y11.955 F400.000
G1 X16.684 Y12.565 F400.000
G1 X15.972 Y13.424 F400.000
G1 X14.706 Y14.797 F400.000
G1 X14.446 Y15.062 F400.000
G1 X13.627 Y15.819 F400.000
G1 X12.757 Y16.531 F400.000
G1 X11.847 Y17.192 F400.000
G1 X11.220 Y17.599 F400.000
G1 X9.921 Y18.345 F400.000
G1 X8.582 Y19.023 F400.000
G1 X8.243 Y19.181 F400.000
G1 X7.554 Y19.463 F400.000
G1 X6.147 Y19.983 F400.000
G1 X5.062 Y20.294 F400.000
G1 X3.593 Y20.610 F400.000
G1 X2.859 Y20.746 F400.000
G1 X0.621 Y20.989 F400.000
G1 X-0.486 Y21.023 F400.000
G1 X-1.955 Y20.983 F400.000
G1 X-2.322 Y20.960 F400.000
G1 X-3.791 Y20.734 F400.000
G1 X-4.876 Y20.497 F400.000
G1 X-5.949 Y20.209 F400.000
G1 X-7.006 Y19.853 F400.000
G1 X-7.695 Y19.588 F400.000
G1 X-9.062 Y18.994 F400.000
G1 X-10.373 Y18.294 F400.000
G1 X-11.328 Y17.723 F400.000
G1 X-12.237 Y17.073 F400.000
G1 X-12.819 Y16.610 F400.000
G1 X-13.661 Y15.876 F400.000
G1 X-14.740 Y14.836 F400.000
G1 X-15.757 Y13.746 F400.000
G1 X-16.712 Y12.605 F400.000
G1 X-16.944 Y12.311 F400.000
G1 X-17.373 Y11.701 F400.000
G1 X-18.164 Y10.435 F400.000
G1 X-18.706 Y9.452 F400.000
G1 X-19.023 Y8.774 F400.000
G1 X-19.463 Y7.740 F400.000
G1 X-19.864 Y6.689 F400.000
G1 X-20.220 Y5.621 F400.000
G1 X-20.492 Y4.531 F400.000
G1 X-20.644 Y3.797 F400.000
G1 X-20.819 Y2.684 F400.000
G1 X-20.977 Y1.192 F400.000
G1 X-21.062 Y0.073 F400.000
G1 X-21.085 Y-0.661 F400.000
G1 X-21.034 Y-1.763 F400.000
G1 X-20.921 Y-2.864 F400.000
G1 X-20.751 Y-3.966 F400.000
G1 X-20.514 Y-5.051 F400.000
G1 X-19.955 Y-6.819 F400.000
G1 X-19.441 Y-8.209 F400.000
G1 X-18.785 Y-9.548 F400.000
G1 X-18.249 Y-10.525 F400.000
G1 X-17.667 Y-11.480 F400.000
G1 X-17.463 Y-11.791 F400.000
G1 X-17.023 Y-12.390 F400.000
G1 X-15.853 Y-13.842 F400.000
G1 X-15.362 Y-14.401 F400.000
G1 X-13.492 Y-16.220 F400.000
G1 X-12.638 Y-16.944 F400.000
G1 X-12.051 Y-17.401 F400.000
G1 X-10.797 Y-18.215 F400.000
G1 X-9.819 Y-18.768 F400.000
G1 X-8.819 Y-19.277 F400.000
G1 X-7.452 Y-19.893 F400.000
G1 X-6.407 Y-20.299 F400.000
G1 X-5.339 Y-20.655 F400.000
G1 X-4.616 Y-20.864 F400.000
G1 X-3.514 Y-21.102 F400.000
G1 X-2.401 Y-21.282 F400.000
G1 X-1.282 Y-21.401 F400.000
G1 X0.203 Y-21.469 F400.000
G1 X1.672 Y-21.469 F400.000
G1 X2.040 Y-21.458 F400.000
G1 X2.774 Y-21.384 F400.000
G1 X3.876 Y-21.220 F400.000
G1 X4.599 Y-21.079 F400.000
G1 X5.678 Y-20.808 F400.000
G1 X6.746 Y-20.486 F400.000
G1 X7.446 Y-20.249 F400.000
G1 X8.819 Y-19.678 F400.000
G1 X9.497 Y-19.373 F400.000
G1 X10.480 Y-18.853 F400.000
G1 X11.734 Y-18.056 F400.000
G1 X12.644 Y-17.412 F400.000
G1 X13.808 Y-16.486 F400.000
G1 X14.644 Y-15.746 F400.000
G1 X15.706 Y-14.701 F400.000
G1 X16.209 Y-14.153 F400.000
G1 X16.921 Y-13.288 F400.000
G1 X17.576 Y-12.384 F400.000
G1 X18.186 Y-11.441 F400.000
G1 X18.932 Y-10.147 F400.000
G1 X19.785 Y-8.492 F400.000
G1 X20.333 Y-7.102 F400.000
G1 X20.797 Y-5.678 F400.000
G1 X21.000 Y-4.955 F400.000
G1 X21.243 Y-3.853 F400.000
G1 X21.525 Y-1.994 F400.000
G1 X21.650 Y-0.130 F400.000
G1 X21.672 Y1.339 F400.000
G1 X21.667 Y1.706 F400.000
G1 X21.582 Y2.808 F400.000
G1 X21.486 Y3.542 F400.000
G1 X21.356 Y4.271 F400.000
G1 X21.192 Y4.994 F400.000
G1 X20.791 Y6.418 F400.000
G1 X20.565 Y7.130 F400.000
G1 X20.316 Y7.831 F400.000
G1 X19.870 Y8.859 F400.000
G1 X19.537 Y9.525 F400.000
G1 X18.435 Y11.469 F400.000
G1 X17.814 Y12.395 F400.000
G1 X17.136 Y13.288 F400.000
G1 X16.655 Y13.859 F400.000
G1 X15.672 Y14.977 F400.000
G1 X15.158 Y15.514 F400.000
G1 X14.040 Y16.514 F400.000
G1 X12.864 Y17.441 F400.000
G1 X11.944 Y18.085 F400.000
G1 X10.994 Y18.678 F400.000
G1 X10.017 Y19.232 F400.000
G1 X9.011 Y19.740 F400.000
G1 X8.672 Y19.898 F400.000
G1 X6.927 Y20.588 F400.000
G1 X5.859 Y20.927 F400.000
G1 X5.136 Y21.119 F400.000
G1 X4.034 Y21.356 F400.000
G1 X2.927 Y21.542 F400.000
G1 X1.435 Y21.740 F400.000
G1 X0.316 Y21.825 F400.000
G1 X-0.785 Y21.847 F400.000
G1 X-1.887 Y21.814 F400.000
G1 X-2.989 Y21.712 F400.000
G1 X-4.452 Y21.441 F400.000
G1 X-5.175 Y21.282 F400.000
G1 X-6.599 Y20.864 F400.000
G1 X-7.650 Y20.503 F400.000
G1 X-9.017 Y19.910 F400.000
G1 X-10.011 Y19.407 F400.000
G1 X-10.983 Y18.859 F400.000
G1 X-11.927 Y18.266 F400.000
G1 X-12.842 Y17.621 F400.000
G1 X-13.983 Y16.661 F400.000
G1 X-15.339 Y15.379 F400.000
G1 X-16.373 Y14.294 F400.000
G1 X-16.864 Y13.734 F400.000
G1 X-17.559 Y12.853 F400.000
G1 X-18.203 Y11.938 F400.000
G1 X-18.797 Y10.983 F400.000
G1 X-19.339 Y10.000 F400.000
G1 X-19.672 Y9.328 F400.000
G1 X-20.113 Y8.299 F400.000
G1 X-20.514 Y7.249 F400.000
G1 X-20.989 Y5.825 F400.000
G1 X-21.181 Y5.102 F400.000
G1 X-21.412 Y4.000 F400.000
G1 X-21.593 Y2.887 F400.000
G1 X-21.814 Y1.023 F400.000
G1 X-21.876 Y-0.090 F400.000
G1 X-21.881 Y-1.192 F400.000
G1 X-21.853 Y-1.927 F400.000
G1 X-21.672 Y-3.395 F400.000
G1 X-21.469 Y-4.486 F400.000
G1 X-21.215 Y-5.571 F400.000
G1 X-21.017 Y-6.282 F400.000
G1 X-20.650 Y-7.333 F400.000
G1 X-20.232 Y-8.367 F400.000
G1 X-19.757 Y-9.379 F400.000
G1 X-18.904 Y-11.028 F400.000
G1 X-18.322 Y-11.983 F400.000
G1 X-17.904 Y-12.599 F400.000
G1 X-17.226 Y-13.486 F400.000
G1 X-16.746 Y-14.056 F400.000
G1 X-15.994 Y-14.887 F400.000
G1 X-14.944 Y-15.949 F400.000
G1 X-13.836 Y-16.955 F400.000
G1 X-12.684 Y-17.904 F400.000
G1 X-12.085 Y-18.350 F400.000
G1 X-10.808 Y-19.136 F400.000
G1 X-9.825 Y-19.678 F400.000
G1 X-8.819 Y-20.169 F400.000
G1 X-7.791 Y-20.610 F400.000
G1 X-6.395 Y-21.164 F400.000
G1 X-5.328 Y-21.514 F400.000
G1 X-4.243 Y-21.802 F400.000
G1 X-3.141 Y-22.023 F400.000
G1 X-0.904 Y-22.260 F400.000
G1 X-0.531 Y-22.288 F400.000
G1 X1.311 Y-22.316 F400.000
G1 X1.678 Y-22.311 F400.000
G1 X2.412 Y-22.249 F400.000
G1 X3.514 Y-22.113 F400.000
G1 X4.610 Y-21.927 F400.000
G1 X5.333 Y-21.774 F400.000
G1 X7.113 Y-21.249 F400.000
G1 X7.814 Y-21.000 F400.000
G1 X8.847 Y-20.576 F400.000
G1 X9.853 Y-20.102 F400.000
G1 X10.831 Y-19.576 F400.000
G1 X11.785 Y-19.000 F400.000
G1 X12.706 Y-18.373 F400.000
G1 X13.593 Y-17.695 F400.000
G1 X15.023 Y-16.503 F400.000
G1 X16.096 Y-15.469 F400.000
G1 X16.610 Y-14.932 F400.000
G1 X17.096 Y-14.362 F400.000
G1 X18.006 Y-13.175 F400.000
G1 X18.836 Y-11.932 F400.000
G1 X19.412 Y-10.972 F400.000
G1 X20.113 Y-9.650 F400.000
G1 X20.441 Y-8.977 F400.000
G1 X20.876 Y-7.938 F400.000
G1 X21.379 Y-6.525 F400.000
G1 X21.712 Y-5.452 F400.000
G1 X22.028 Y-3.983 F400.000
G1 X22.271 Y-2.503 F400.000
G1 X22.367 Y-1.757 F400.000
G1 X22.463 Y-0.266 F400.000
G1 X22.486 Y1.203 F400.000
G1 X22.452 Y2.305 F400.000
G1 X22.429 Y2.672 F400.000
G1 X22.203 Y4.141 F400.000
G1 X21.966 Y5.226 F400.000
G1 X21.350 Y7.367 F400.000
G1 X21.232 Y7.718 F400.000
G1 X20.819 Y8.751 F400.000
G1 X20.508 Y9.424 F400.000
G1 X19.802 Y10.734 F400.000
G1 X18.853 Y12.333 F400.000
G1 X18.209 Y13.243 F400.000
G1 X16.797 Y14.972 F400.000
G1 X16.548 Y15.249 F400.000
G1 X15.763 Y16.045 F400.000
G1 X14.938 Y16.802 F400.000
G1 X14.090 Y17.531 F400.000
G1 X13.203 Y18.203 F400.000
G1 X12.277 Y18.831 F400.000
G1 X10.350 Y19.977 F400.000
G1 X10.023 Y20.158 F400.000
G1 X9.006 Y20.638 F400.000
G1 X8.316 Y20.927 F400.000
G1 X7.260 Y21.316 F400.000
G1 X6.192 Y21.667 F400.000
G1 X5.107 Y21.972 F400.000
G1 X3.638 Y22.260 F400.000
G1 X2.147 Y22.486 F400.000
G1 X1.401 Y22.576 F400.000
G1 X0.282 Y22.644 F400.000
G1 X-0.819 Y22.661 F400.000
G1 X-2.288 Y22.616 F400.000
G1 X-3.757 Y22.407 F400.000
G1 X-4.842 Y22.186 F400.000
G1 X-5.921 Y21.915 F400.000
G1 X-7.339 Y21.480 F400.000
G1 X-7.689 Y21.362 F400.000
G1 X-8.723 Y20.949 F400.000
G1 X-9.734 Y20.475 F400.000
G1 X-10.718 Y19.955 F400.000
G1 X-12.000 Y19.203 F400.000
G1 X-12.316 Y19.006 F400.000
G1 X-12.927 Y18.576 F400.000
G1 X-13.802 Y17.881 F400.000
G1 X-15.480 Y16.401 F400.000
G1 X-15.751 Y16.147 F400.000
G1 X-16.525 Y15.339 F400.000
G1 X-17.266 Y14.503 F400.000
G1 X-18.198 Y13.339 F400.000
G1 X-18.859 Y12.435 F400.000
G1 X-19.441 Y11.486 F400.000
G1 X-19.983 Y10.508 F400.000
G1 X-20.644 Y9.164 F400.000
G1 X-20.944 Y8.480 F400.000
G1 X-21.678 Y6.356 F400.000
G1 X-21.977 Y5.271 F400.000
G1 X-22.215 Y4.169 F400.000
G1 X-22.531 Y1.938 F400.000
G1 X-22.684 Y0.446 F400.000
G1 X-22.729 Y-0.661 F400.000
G1 X-22.729 Y-1.028 F400.000
G1 X-22.684 Y-1.763 F400.000
G1 X-22.565 Y-2.864 F400.000
G1 X-22.395 Y-3.966 F400.000
G1 X-22.175 Y-5.051 F400.000
G1 X-21.994 Y-5.774 F400.000
G1 X-21.672 Y-6.842 F400.000
G1 X-21.299 Y-7.893 F400.000
G1 X-20.876 Y-8.921 F400.000
G1 X-20.401 Y-9.932 F400.000
G1 X-19.701 Y-11.249 F400.000
G1 X-19.141 Y-12.215 F400.000
G1 X-18.525 Y-13.141 F400.000
G1 X-17.859 Y-14.034 F400.000
G1 X-17.627 Y-14.322 F400.000
G1 X-16.616 Y-15.418 F400.000
G1 X-15.034 Y-16.994 F400.000
G1 X-14.763 Y-17.249 F400.000
G1 X-13.621 Y-18.209 F400.000
G1 X-13.034 Y-18.672 F400.000
G1 X-11.791 Y-19.503 F400.000
G1 X-11.158 Y-19.898 F400.000
G1 X-10.169 Y-20.435 F400.000
G1 X-7.780 Y-21.525 F400.000
G1 X-7.435 Y-21.672 F400.000
G1 X-6.734 Y-21.938 F400.000
G1 X-5.294 Y-22.362 F400.000
G1 X-4.198 Y-22.616 F400.000
G1 X-3.096 Y-22.819 F400.000
G1 X-1.977 Y-22.972 F400.000
G1 X-0.859 Y-23.073 F400.000
G1 X0.254 Y-23.124 F400.000
G1 X1.356 Y-23.124 F400.000
G1 X2.458 Y-23.062 F400.000
G1 X3.559 Y-22.944 F400.000
G1 X4.661 Y-22.774 F400.000
G1 X6.819 Y-22.226 F400.000
G1 X8.220 Y-21.734 F400.000
G1 X8.910 Y-21.458 F400.000
G1 X9.915 Y-20.989 F400.000
G1 X10.898 Y-20.469 F400.000
G1 X12.175 Y-19.706 F400.000
G1 X13.102 Y-19.096 F400.000
G1 X14.299 Y-18.215 F400.000
G1 X15.164 Y-17.503 F400.000
G1 X15.706 Y-16.983 F400.000
G1 X15.983 Y-16.734 F400.000
G1 X16.780 Y-15.949 F400.000
G1 X17.040 Y-15.678 F400.000
G1 X17.768 Y-14.825 F400.000
G1 X18.446 Y-13.938 F400.000
G1 X19.288 Y-12.706 F400.000
G1 X19.881 Y-11.751 F400.000
G1 X20.605 Y-10.446 F400.000
G1 X21.260 Y-9.102 F400.000
G1 X21.559 Y-8.418 F400.000
G1 X22.073 Y-7.011 F400.000
G1 X22.311 Y-6.299 F400.000
G1 X22.593 Y-5.215 F400.000
G1 X22.887 Y-3.746 F400.000
G1 X23.062 Y-2.627 F400.000
G1 X23.260 Y-0.763 F400.000
G1 X23.288 Y-0.390 F400.000
G1 X23.311 Y0.718 F400.000
G1 X23.271 Y2.186 F400.000
G1 X23.220 Y2.921 F400.000
G1 X23.068 Y4.023 F400.000
G1 X22.751 Y5.469 F400.000
G1 X22.345 Y6.893 F400.000
G1 X21.989 Y7.944 F400.000
G1 X21.582 Y8.977 F400.000
G1 X21.124 Y9.994 F400.000
G1 X20.616 Y10.989 F400.000
G1 X20.056 Y11.949 F400.000
G1 X19.469 Y12.898 F400.000
G1 X18.819 Y13.808 F400.000
G1 X18.124 Y14.684 F400.000
G1 X17.136 Y15.802 F400.000
G1 X16.356 Y16.610 F400.000
G1 X15.548 Y17.384 F400.000
G1 X15.271 Y17.633 F400.000
G1 X14.395 Y18.333 F400.000
G1 X13.497 Y18.994 F400.000
G1 X12.571 Y19.616 F400.000
G1 X11.294 Y20.390 F400.000
G1 X9.972 Y21.096 F400.000
G1 X9.633 Y21.260 F400.000
G1 X8.944 Y21.554 F400.000
G1 X6.836 Y22.333 F400.000
G1 X6.119 Y22.554 F400.000
G1 X4.294 Y22.977 F400.000
G1 X3.181 Y23.169 F400.000
G1 X1.689 Y23.373 F400.000
G1 X0.198 Y23.463 F400.000
G1 X-0.904 Y23.480 F400.000
G1 X-1.638 Y23.463 F400.000
G1 X-3.107 Y23.328 F400.000
G1 X-4.576 Y23.102 F400.000
G1 X-4.938 Y23.034 F400.000
G1 X-5.661 Y22.853 F400.000
G1 X-6.729 Y22.548 F400.000
G1 X-8.141 Y22.079 F400.000
G1 X-9.169 Y21.655 F400.000
G1 X-10.175 Y21.169 F400.000
G1 X-11.153 Y20.644 F400.000
G1 X-12.746 Y19.684 F400.000
G1 X-13.056 Y19.480 F400.000
G1 X-13.655 Y19.040 F400.000
G1 X-14.531 Y18.339 F400.000
G1 X-15.927 Y17.107 F400.000
G1 X-16.718 Y16.311 F400.000
G1 X-17.475 Y15.480 F400.000
G1 X-18.678 Y14.056 F400.000
G1 X-19.136 Y13.469 F400.000
G1 X-19.944 Y12.215 F400.000
G1 X-20.503 Y11.237 F400.000
G1 X-21.017 Y10.243 F400.000
G1 X-21.633 Y8.876 F400.000
G1 X-22.040 Y7.831 F400.000
G1 X-22.395 Y6.763 F400.000
G1 X-22.701 Y5.684 F400.000
G1 X-22.955 Y4.588 F400.000
G1 X-23.158 Y3.486 F400.000
G1 X-23.520 Y0.503 F400.000
G1 X-23.554 Y-0.605 F400.000
G1 X-23.520 Y-1.706 F400.000
G1 X-23.418 Y-2.808 F400.000
G1 X-23.311 Y-3.542 F400.000
G1 X-23.023 Y-4.994 F400.000
G1 X-22.661 Y-6.435 F400.000
G1 X-22.452 Y-7.147 F400.000
G1 X-21.927 Y-8.537 F400.000
G1 X-21.475 Y-9.554 F400.000
G1 X-20.480 Y-11.542 F400.000
G1 X-20.305 Y-11.870 F400.000
G1 X-19.723 Y-12.819 F400.000
G1 X-19.090 Y-13.734 F400.000
G1 X-18.418 Y-14.627 F400.000
G1 X-17.932 Y-15.192 F400.000
G1 X-16.650 Y-16.542 F400.000
G1 X-15.593 Y-17.593 F400.000
G1 X-14.469 Y-18.582 F400.000
G1 X-13.893 Y-19.056 F400.000
G1 X-12.672 Y-19.915 F400.000
G1 X-11.407 Y-20.706 F400.000
G1 X-11.085 Y-20.893 F400.000
G1 X-10.418 Y-21.232 F400.000
G1 X-8.034 Y-22.322 F400.000
G1 X-6.983 Y-22.712 F400.000
G1 X-5.910 Y-23.051 F400.000
G1 X-5.186 Y-23.249 F400.000
G1 X-4.085 Y-23.486 F400.000
G1 X-2.972 Y-23.672 F400.000
G1 X-1.107 Y-23.887 F400.000
G1 X0.740 Y-23.949 F400.000
G1 X1.842 Y-23.944 F400.000
G1 X3.311 Y-23.808 F400.000
G1 X4.412 Y-23.655 F400.000
G1 X6.220 Y-23.254 F400.000
G1 X7.288 Y-22.949 F400.000
G1 X8.339 Y-22.582 F400.000
G1 X9.367 Y-22.158 F400.000
G1 X10.040 Y-21.847 F400.000
G1 X11.678 Y-20.966 F400.000
G1 X12.960 Y-20.209 F400.000
G1 X14.774 Y-18.904 F400.000
G1 X15.068 Y-18.678 F400.000
G1 X16.181 Y-17.684 F400.000
G1 X16.983 Y-16.898 F400.000
G1 X18.000 Y-15.802 F400.000
G1 X18.949 Y-14.650 F400.000
G1 X19.395 Y-14.056 F400.000
G1 X20.599 Y-12.164 F400.000
G1 X21.141 Y-11.181 F400.000
G1 X21.977 Y-9.508 F400.000
G1 X22.136 Y-9.169 F400.000
G1 X22.672 Y-7.768 F400.000
G1 X23.028 Y-6.701 F400.000
G1 X23.333 Y-5.616 F400.000
G1 X23.508 Y-4.887 F400.000
G1 X23.712 Y-3.785 F400.000
G1 X24.017 Y-1.548 F400.000
G1 X24.113 Y-0.429 F400.000
G1 X24.153 Y0.678 F400.000
G1 X24.141 Y1.780 F400.000
G1 X24.124 Y2.147 F400.000
G1 X23.944 Y3.616 F400.000
G1 X23.740 Y4.712 F400.000
G1 X23.395 Y6.158 F400.000
G1 X22.989 Y7.582 F400.000
G1 X22.740 Y8.282 F400.000
G1 X22.169 Y9.655 F400.000
G1 X21.537 Y11.006 F400.000
G1 X21.367 Y11.339 F400.000
G1 X20.412 Y12.938 F400.000
G1 X19.797 Y13.870 F400.000
G1 X18.881 Y15.045 F400.000
G1 X18.158 Y15.898 F400.000
G1 X17.147 Y16.994 F400.000
G1 X16.621 Y17.525 F400.000
G1 X15.780 Y18.266 F400.000
G1 X14.910 Y18.972 F400.000
G1 X13.701 Y19.853 F400.000
G1 X12.763 Y20.463 F400.000
G1 X11.463 Y21.209 F400.000
G1 X10.136 Y21.904 F400.000
G1 X9.107 Y22.356 F400.000
G1 X8.056 Y22.757 F400.000
G1 X6.633 Y23.232 F400.000
G1 X6.277 Y23.339 F400.000
G1 X4.819 Y23.684 F400.000
G1 X3.350 Y23.955 F400.000
G1 X1.859 Y24.175 F400.000
G1 X0.367 Y24.271 F400.000
G1 X-1.102 Y24.294 F400.000
G1 X-2.203 Y24.249 F400.000
G1 X-2.938 Y24.186 F400.000
G1 X-4.040 Y24.034 F400.000
G1 X-4.768 Y23.904 F400.000
G1 X-5.853 Y23.650 F400.000
G1 X-6.565 Y23.452 F400.000
G1 X-8.328 Y22.881 F400.000
G1 X-9.356 Y22.458 F400.000
G1 X-10.367 Y21.983 F400.000
G1 X-11.362 Y21.469 F400.000
G1 X-12.644 Y20.718 F400.000
G1 X-13.582 Y20.107 F400.000
G1 X-13.887 Y19.893 F400.000
G1 X-15.051 Y18.955 F400.000
G1 X-16.186 Y17.989 F400.000
G1 X-16.989 Y17.203 F400.000
G1 X-18.249 Y15.825 F400.000
G1 X-19.209 Y14.678 F400.000
G1 X-19.672 Y14.090 F400.000
G1 X-20.311 Y13.169 F400.000
G1 X-20.887 Y12.215 F400.000
G1 X-21.593 Y10.893 F400.000
G1 X-22.390 Y9.209 F400.000
G1 X-22.537 Y8.864 F400.000
G1 X-23.034 Y7.452 F400.000
G1 X-23.469 Y6.017 F400.000
G1 X-23.864 Y4.181 F400.000
G1 X-24.119 Y2.701 F400.000
G1 X-24.243 Y1.582 F400.000
G1 X-24.339 Y0.090 F400.000
G1 X-24.367 Y-1.011 F400.000
G1 X-24.316 Y-2.113 F400.000
G1 X-24.186 Y-3.215 F400.000
G1 X-24.000 Y-4.311 F400.000
G1 X-23.780 Y-5.395 F400.000
G1 X-23.424 Y-6.836 F400.000
G1 X-22.921 Y-8.237 F400.000
G1 X-22.034 Y-10.282 F400.000
G1 X-21.379 Y-11.616 F400.000
G1 X-21.028 Y-12.271 F400.000
G1 X-20.435 Y-13.215 F400.000
G1 X-20.017 Y-13.831 F400.000
G1 X-19.356 Y-14.729 F400.000
G1 X-18.655 Y-15.599 F400.000
G1 X-17.904 Y-16.429 F400.000
G1 X-16.593 Y-17.751 F400.000
G1 X-15.497 Y-18.757 F400.000
G1 X-14.356 Y-19.718 F400.000
G1 X-13.147 Y-20.605 F400.000
G1 X-12.192 Y-21.198 F400.000
G1 X-10.881 Y-21.915 F400.000
G1 X-8.853 Y-22.881 F400.000
G1 X-6.746 Y-23.667 F400.000
G1 X-6.390 Y-23.785 F400.000
G1 X-5.667 Y-23.977 F400.000
G1 X-3.831 Y-24.373 F400.000
G1 X-3.463 Y-24.441 F400.000
G1 X-1.599 Y-24.678 F400.000
G1 X-0.853 Y-24.746 F400.000
G1 X0.994 Y-24.797 F400.000
G1 X2.096 Y-24.757 F400.000
G1 X3.198 Y-24.655 F400.000
G1 X4.299 Y-24.486 F400.000
G1 X5.390 Y-24.282 F400.000
G1 X6.475 Y-24.040 F400.000
G1 X7.542 Y-23.723 F400.000
G1 X8.243 Y-23.480 F400.000
G1 X9.972 Y-22.785 F400.000
G1 X11.305 Y-22.119 F400.000
G1 X12.288 Y-21.593 F400.000
G1 X13.237 Y-21.011 F400.000
G1 X14.158 Y-20.384 F400.000
G1 X15.350 Y-19.497 F400.000
G1 X16.475 Y-18.525 F400.000
G1 X17.559 Y-17.503 F400.000
G1 X18.819 Y-16.124 F400.000
G1 X19.299 Y-15.548 F400.000
G1 X20.169 Y-14.333 F400.000
G1 X20.989 Y-13.085 F400.000
G1 X21.559 Y-12.113 F400.000
G1 X22.599 Y-10.124 F400.000
G1 X23.034 Y-9.090 F400.000
G1 X23.548 Y-7.684 F400.000
G1 X23.887 Y-6.616 F400.000
G1 X24.271 Y-5.169 F400.000
G1 X24.508 Y-4.068 F400.000
G1 X24.695 Y-2.960 F400.000
G1 X24.921 Y-0.723 F400.000
G1 X24.949 Y-0.350 F400.000
G1 X24.904 Y2.277 F400.000
G1 X24.469 Y5.073 F400.000
G1 X23.814 Y7.531 F400.000
G1 X23.023 Y9.661 F400.000
G1 X21.588 Y12.503 F400.000
G1 X20.921 Y13.605 F400.000
G1 X20.808 Y13.751 F400.000
G1 X20.395 Y14.373 F400.000
G1 X19.966 Y14.977 F400.000
G1 X19.842 Y15.113 F400.000
G1 X18.684 Y16.537 F400.000
G1 X18.441 Y16.819 F400.000
G1 X17.226 Y18.073 F400.000
G1 X15.621 Y19.446 F400.000
G1 X14.960 Y19.960 F400.000
G1 X14.356 Y20.401 F400.000
G1 X12.706 Y21.452 F400.000
G1 X11.740 Y22.023 F400.000
G1 X11.571 Y22.090 F400.000
G1 X10.825 Y22.486 F400.000
G1 X9.130 Y23.220 F400.000
G1 X7.989 Y23.644 F400.000
G1 X5.661 Y24.311 F400.000
G1 X2.316 Y24.910 F400.000
G1 X-1.215 Y25.085 F400.000
G1 X-4.096 Y24.842 F400.000
G1 X-8.164 Y23.723 F400.000
G1 X-11.395 Y22.282 F400.000
G1 X-14.056 Y20.661 F400.000
G1 X-16.977 Y18.294 F400.000
G1 X-18.158 Y17.130 F400.000
G1 X-20.175 Y14.723 F400.000
G1 X-21.599 Y12.492 F400.000
G1 X-22.910 Y9.949 F400.000
G1 X-23.983 Y7.040 F400.000
G1 X-24.797 Y3.424 F400.000
G1 X-25.113 Y0.531 F400.000
G1 X-25.079 Y-2.463 F400.000
G1 X-24.316 Y-6.446 F400.000
G1 X-22.819 Y-10.356 F400.000
G1 X-20.983 Y-13.780 F400.000
G1 X-18.480 Y-16.864 F400.000
G1 X-15.384 Y-19.876 F400.000
G1 X-13.254 Y-21.446 F400.000
G1 X-9.785 Y-23.305 F400.000
G1 X-7.763 Y-24.141 F400.000
G1 X-4.983 Y-24.927 F400.000
G1 X-1.729 Y-25.463 F400.000
G1 X1.175 Y-25.576 F400.000
G1 X3.802 Y-25.333 F400.000
G1 X6.938 Y-24.695 F400.000
G1 X9.972 Y-23.605 F400.000
G1 X13.266 Y-21.893 F400.000
G1 X15.249 Y-20.537 F400.000
G1 X16.910 Y-19.169 F400.000
G1 X19.186 Y-16.836 F400.000
G1 X20.808 Y-14.746 F400.000
G1 X22.492 Y-12.028 F400.000
G1 X23.842 Y-9.113 F400.000
G1 X25.017 Y-5.090 F400.000
G1 X25.475 Y-2.469 F400.000
G1 X25.638 Y1.412 F400.000
G1 X25.073 Y5.565 F400.000
G1 X24.215 Y8.531 F400.000
G1 X22.429 Y12.475 F400.000
G1 X20.412 Y15.525 F400.000
G1 X17.870 Y18.424 F400.000
G1 X15.288 Y20.599 F400.000
G1 X12.452 Y22.435 F400.000
G1 X8.475 Y24.232 F400.000
G1 X5.542 Y25.062 F400.000
G1 X2.469 Y25.565 F400.000
G1 X-0.565 Y25.678 F400.000
G1 X-3.701 Y25.412 F400.000
G1 X-6.921 Y24.729 F400.000
G1 X-10.192 Y23.571 F400.000
G1 X-13.113 Y22.073 F400.000
G1 X-16.492 Y19.672 F400.000
G1 X-19.780 Y16.305 F400.000
G1 X-21.814 Y13.497 F400.000
G1 X-23.525 Y10.186 F400.000
G1 X-24.644 Y7.209 F400.000
G1 X-25.418 Y3.684 F400.000
G1 X-25.655 Y1.243 F400.000
G1 X-25.605 Y-1.966 F400.000
G1 X-25.062 Y-5.610 F400.000
G1 X-24.237 Y-8.492 F400.000
G1 X-23.718 Y-9.847 F400.000
G1 X-22.209 Y-12.881 F400.000
G1 X-21.119 Y-14.616 F400.000
G1 X-19.853 Y-16.282 F400.000
G1 X-17.073 Y-19.186 F400.000
G1 X-14.373 Y-21.271 F400.000
G1 X-12.186 Y-22.593 F400.000
G1 X-9.102 Y-24.017 F400.000
G1 X-5.576 Y-25.073 F400.000
G1 X-3.407 Y-25.452 F400.000
G1 X-1.237 Y-25.655 F400.000
G1 X1.887 Y-25.610 F400.000
G1 X5.531 Y-25.079 F400.000
G1 X5.870 Y-24.994 F400.000
G1 X5.870 Y-24.994 F400.000
G1 X6.028 Y-24.910 F400.000
G1 X6.130 Y-24.814 F400.000
G0 X6.164 Y-24.780
G0 X6.870 Y-24.198
G0 X8.734 Y-23.582
G0 X9.429 Y-23.605
G1 X9.475 Y-23.610 F400.000
G1 X9.661 Y-23.621 F400.000
G1 X9.944 Y-23.644 F400.000
G1 X10.085 Y-23.616 F400.000
G1 X10.085 Y-23.616 F400.000
G1 X12.542 Y-22.407 F400.000
G1 X14.576 Y-21.147 F400.000
G1 X17.322 Y-18.955 F400.000
G1 X20.023 Y-16.073 F400.000
G1 X21.819 Y-13.542 F400.000
G1 X22.424 Y-12.514 F400.000
G1 X24.045 Y-9.023 F400.000
G1 X25.068 Y-5.593 F400.000
G1 X25.429 Y-3.605 F400.000
G1 X25.655 Y-1.254 F400.000
G1 X25.661 Y-0.983 F400.000
G1 X25.661 Y-0.983 F400.000
G1 X25.644 Y-0.864 F400.000
G0 X25.638 Y-0.859
G0 X25.633 Y-1.198
G1 X25.633 Y-1.243 F400.000
G1 X25.638 Y-1.395 F400.000
G1 X25.644 Y-1.407 F400.000
G1 X25.695 Y-1.299 F400.000
G1 X25.695 Y-1.299 F400.000
G1 X25.718 Y0.593 F400.000
G1 X25.689 Y1.305 F400.000
G1 X25.610 Y2.441 F400.000
G1 X25.463 Y3.678 F400.000
G1 X25.237 Y4.966 F400.000
G1 X25.113 Y5.576 F400.000
G1 X24.825 Y6.729 F400.000
G1 X24.644 Y7.362 F400.000
G1 X24.277 Y8.503 F400.000
G1 X23.797 Y9.763 F400.000
G1 X23.599 Y10.237 F400.000
G1 X23.079 Y11.356 F400.000
G1 X22.458 Y12.525 F400.000
G1 X21.797 Y13.655 F400.000
G1 X21.175 Y14.599 F400.000
G1 X20.797 Y15.136 F400.000
G1 X19.989 Y16.181 F400.000
G1 X19.271 Y17.040 F400.000
G1 X18.864 Y17.486 F400.000
G1 X17.938 Y18.435 F400.000
G1 X17.090 Y19.226 F400.000
G1 X16.136 Y20.023 F400.000
G1 X15.023 Y20.870 F400.000
G1 X14.107 Y21.503 F400.000
G1 X13.554 Y21.859 F400.000
G1 X12.469 Y22.492 F400.000
G1 X11.345 Y23.073 F400.000
G1 X10.164 Y23.627 F400.000
G1 X9.130 Y24.045 F400.000
G1 X8.520 Y24.271 F400.000
G1 X7.333 Y24.655 F400.000
G1 X6.695 Y24.836 F400.000
G1 X5.542 Y25.124 F400.000
G1 X4.311 Y25.362 F400.000
G1 X3.695 Y25.458 F400.000
G1 X2.373 Y25.616 F400.000
G1 X1.260 Y25.695 F400.000
G1 X0.559 Y25.718 F400.000
G1 X-0.593 Y25.718 F400.000
G1 X-1.305 Y25.689 F400.000
G1 X-2.441 Y25.610 F400.000
G1 X-3.729 Y25.452 F400.000
G1 X-4.960 Y25.232 F400.000
G1 X-5.644 Y25.096 F400.000
G1 X-6.729 Y24.825 F400.000
G1 X-7.379 Y24.638 F400.000
G1 X-8.542 Y24.260 F400.000
G1 X-9.785 Y23.791 F400.000
G1 X-11.350 Y23.073 F400.000
G1 X-12.593 Y22.424 F400.000
G1 X-13.621 Y21.819 F400.000
G1 X-14.599 Y21.175 F400.000
G1 X-15.136 Y20.797 F400.000
G1 X-16.136 Y20.023 F400.000
G1 X-17.130 Y19.186 F400.000
G1 X-18.011 Y18.367 F400.000
G1 X-18.412 Y17.960 F400.000
G1 X-19.322 Y16.983 F400.000
G1 X-20.023 Y16.136 F400.000
G1 X-20.876 Y15.017 F400.000
G1 X-21.559 Y14.028 F400.000
G1 X-21.864 Y13.542 F400.000
G1 X-22.492 Y12.469 F400.000
G1 X-23.107 Y11.294 F400.000
G1 X-23.621 Y10.175 F400.000
G1 X-24.045 Y9.136 F400.000
G1 X-24.294 Y8.458 F400.000
G1 X-24.678 Y7.260 F400.000
G1 X-24.836 Y6.695 F400.000
G1 X-25.136 Y5.492 F400.000
G1 X-25.356 Y4.299 F400.000
G1 X-25.469 Y3.610 F400.000
G1 X-25.616 Y2.373 F400.000
G1 X-25.695 Y1.260 F400.000
G1 X-25.718 Y0.661 F400.000
G1 X-25.718 Y-0.593 F400.000
G1 X-25.689 Y-1.305 F400.000
G1 X-25.610 Y-2.441 F400.000
G1 X-25.452 Y-3.751 F400.000
G1 X-25.237 Y-4.966 F400.000
G1 X-25.113 Y-5.576 F400.000
G1 X-24.825 Y-6.729 F400.000
G1 X-24.644 Y-7.362 F400.000
G1 X-24.277 Y-8.503 F400.000
G1 X-23.785 Y-9.791 F400.000
G1 X-23.599 Y-10.232 F400.000
G1 X-23.073 Y-11.356 F400.000
G1 X-22.424 Y-12.593 F400.000
G1 X-21.825 Y-13.610 F400.000
G1 X-21.175 Y-14.599 F400.000
G1 X-20.797 Y-15.136 F400.000
G1 X-19.989 Y-16.181 F400.000
G1 X-19.271 Y-17.040 F400.000
G1 X-18.864 Y-17.486 F400.000
G1 X-17.938 Y-18.435 F400.000
G1 X-17.090 Y-19.226 F400.000
G1 X-16.136 Y-20.023 F400.000
G1 X-15.051 Y-20.847 F400.000
G1 X-14.073 Y-21.520 F400.000
G1 X-13.486 Y-21.904 F400.000
