(Exported by FreeCAD)
(Post Processor: grbl_post)
(Output Time:2024-02-21 18:12:22.865978)
(Begin preamble)
G17 G90
G21
(Block-name: Fixture)
(Block-expand: 0)
(Block-enable: 1)
(Begin operation: Fixture)
(Path: Fixture)
G54
(Finish operation: Fixture)
(Block-name: 2mm Endmill001)
(Block-expand: 0)
(Block-enable: 1)
(Begin operation: 2mm Endmill001)
(Path: 2mm Endmill001)
(2mm Endmill001)
(Begin toolchange)
( M6 T2 )
M3 S8000
(Finish operation: 2mm Endmill001)
(Block-name: Adaptive_big hole)
(Block-expand: 0)
(Block-enable: 1)
(Begin operation: Adaptive_big hole)
(Path: Adaptive_big hole)
(Adaptive)
(Helix to depth: -5.000000)
G0 Z5.000
G0 X44.697 Y19.301 Z5.000
G0 X44.697 Y19.301 Z3.000
G1 X44.697 Y19.301 Z0.000 F400.000
G1 X44.697 Y19.301 Z0.000 F400.000
G1 X44.846 Y19.176 Z-0.017 F400.000
G1 X45.016 Y19.083 Z-0.034 F400.000
G1 X45.201 Y19.024 Z-0.052 F400.000
G1 X45.394 Y19.003 Z-0.069 F400.000
G1 X45.587 Y19.019 Z-0.086 F400.000
G1 X45.773 Y19.073 Z-0.103 F400.000
G1 X45.946 Y19.162 Z-0.120 F400.000
G1 X46.097 Y19.284 Z-0.137 F400.000
G1 X46.222 Y19.432 Z-0.155 F400.000
G1 X46.316 Y19.602 Z-0.172 F400.000
G1 X46.374 Y19.787 Z-0.189 F400.000
G1 X46.396 Y19.980 Z-0.206 F400.000
G1 X46.379 Y20.173 Z-0.223 F400.000
G1 X46.325 Y20.360 Z-0.240 F400.000
G1 X46.236 Y20.532 Z-0.258 F400.000
G1 X46.115 Y20.684 Z-0.275 F400.000
G1 X45.966 Y20.809 Z-0.292 F400.000
G1 X45.796 Y20.902 Z-0.309 F400.000
G1 X45.611 Y20.961 Z-0.326 F400.000
G1 X45.418 Y20.982 Z-0.344 F400.000
G1 X45.225 Y20.966 Z-0.361 F400.000
G1 X45.039 Y20.912 Z-0.378 F400.000
G1 X44.866 Y20.822 Z-0.395 F400.000
G1 X44.715 Y20.701 Z-0.412 F400.000
G1 X44.590 Y20.553 Z-0.429 F400.000
G1 X44.496 Y20.383 Z-0.447 F400.000
G1 X44.438 Y20.198 Z-0.464 F400.000
G1 X44.416 Y20.005 Z-0.481 F400.000
G1 X44.433 Y19.812 Z-0.498 F400.000
G1 X44.487 Y19.625 Z-0.515 F400.000
G1 X44.576 Y19.453 Z-0.533 F400.000
G1 X44.697 Y19.301 Z-0.550 F400.000
G1 X44.846 Y19.176 Z-0.567 F400.000
G1 X45.016 Y19.083 Z-0.584 F400.000
G1 X45.201 Y19.024 Z-0.601 F400.000
G1 X45.394 Y19.003 Z-0.618 F400.000
G1 X45.587 Y19.019 Z-0.636 F400.000
G1 X45.773 Y19.073 Z-0.653 F400.000
G1 X45.946 Y19.162 Z-0.670 F400.000
G1 X46.097 Y19.284 Z-0.687 F400.000
G1 X46.222 Y19.432 Z-0.704 F400.000
G1 X46.316 Y19.602 Z-0.721 F400.000
G1 X46.374 Y19.787 Z-0.739 F400.000
G1 X46.396 Y19.980 Z-0.756 F400.000
G1 X46.379 Y20.173 Z-0.773 F400.000
G1 X46.325 Y20.360 Z-0.790 F400.000
G1 X46.236 Y20.532 Z-0.807 F400.000
G1 X46.115 Y20.684 Z-0.825 F400.000
G1 X45.966 Y20.809 Z-0.842 F400.000
G1 X45.796 Y20.902 Z-0.859 F400.000
G1 X45.611 Y20.961 Z-0.876 F400.000
G1 X45.418 Y20.982 Z-0.893 F400.000
G1 X45.225 Y20.966 Z-0.910 F400.000
G1 X45.039 Y20.912 Z-0.928 F400.000
G1 X44.866 Y20.822 Z-0.945 F400.000
G1 X44.715 Y20.701 Z-0.962 F400.000
G1 X44.590 Y20.553 Z-0.979 F400.000
G1 X44.496 Y20.383 Z-0.996 F400.000
G1 X44.438 Y20.198 Z-1.014 F400.000
G1 X44.416 Y20.005 Z-1.031 F400.000
G1 X44.433 Y19.812 Z-1.048 F400.000
G1 X44.487 Y19.625 Z-1.065 F400.000
G1 X44.576 Y19.453 Z-1.082 F400.000
G1 X44.697 Y19.301 Z-1.099 F400.000
G1 X44.846 Y19.176 Z-1.117 F400.000
G1 X45.016 Y19.083 Z-1.134 F400.000
G1 X45.201 Y19.024 Z-1.151 F400.000
G1 X45.394 Y19.003 Z-1.168 F400.000
G1 X45.587 Y19.019 Z-1.185 F400.000
G1 X45.773 Y19.073 Z-1.202 F400.000
G1 X45.946 Y19.162 Z-1.220 F400.000
G1 X46.097 Y19.284 Z-1.237 F400.000
G1 X46.222 Y19.432 Z-1.254 F400.000
G1 X46.316 Y19.602 Z-1.271 F400.000
G1 X46.374 Y19.787 Z-1.288 F400.000
G1 X46.396 Y19.980 Z-1.306 F400.000
G1 X46.379 Y20.173 Z-1.323 F400.000
G1 X46.325 Y20.360 Z-1.340 F400.000
G1 X46.236 Y20.532 Z-1.357 F400.000
G1 X46.115 Y20.684 Z-1.374 F400.000
G1 X45.966 Y20.809 Z-1.391 F400.000
G1 X45.796 Y20.902 Z-1.409 F400.000
G1 X45.611 Y20.961 Z-1.426 F400.000
G1 X45.418 Y20.982 Z-1.443 F400.000
G1 X45.225 Y20.966 Z-1.460 F400.000
G1 X45.039 Y20.912 Z-1.477 F400.000
G1 X44.866 Y20.822 Z-1.495 F400.000
G1 X44.715 Y20.701 Z-1.512 F400.000
G1 X44.590 Y20.553 Z-1.529 F400.000
G1 X44.496 Y20.383 Z-1.546 F400.000
G1 X44.438 Y20.198 Z-1.563 F400.000
G1 X44.416 Y20.005 Z-1.580 F400.000
G1 X44.433 Y19.812 Z-1.598 F400.000
G1 X44.487 Y19.625 Z-1.615 F400.000
G1 X44.576 Y19.453 Z-1.632 F400.000
G1 X44.697 Y19.301 Z-1.649 F400.000
G1 X44.846 Y19.176 Z-1.666 F400.000
G1 X45.016 Y19.083 Z-1.683 F400.000
G1 X45.201 Y19.024 Z-1.701 F400.000
G1 X45.394 Y19.003 Z-1.718 F400.000
G1 X45.587 Y19.019 Z-1.735 F400.000
G1 X45.773 Y19.073 Z-1.752 F400.000
G1 X45.946 Y19.162 Z-1.769 F400.000
G1 X46.097 Y19.284 Z-1.787 F400.000
G1 X46.222 Y19.432 Z-1.804 F400.000
G1 X46.316 Y19.602 Z-1.821 F400.000
G1 X46.374 Y19.787 Z-1.838 F400.000
G1 X46.396 Y19.980 Z-1.855 F400.000
G1 X46.379 Y20.173 Z-1.872 F400.000
G1 X46.325 Y20.360 Z-1.890 F400.000
G1 X46.236 Y20.532 Z-1.907 F400.000
G1 X46.115 Y20.684 Z-1.924 F400.000
G1 X45.966 Y20.809 Z-1.941 F400.000
G1 X45.796 Y20.902 Z-1.958 F400.000
G1 X45.611 Y20.961 Z-1.976 F400.000
G1 X45.418 Y20.982 Z-1.993 F400.000
G1 X45.225 Y20.966 Z-2.010 F400.000
G1 X45.039 Y20.912 Z-2.027 F400.000
G1 X44.866 Y20.822 Z-2.044 F400.000
G1 X44.715 Y20.701 Z-2.061 F400.000
G1 X44.590 Y20.553 Z-2.079 F400.000
G1 X44.496 Y20.383 Z-2.096 F400.000
G1 X44.438 Y20.198 Z-2.113 F400.000
G1 X44.416 Y20.005 Z-2.130 F400.000
G1 X44.433 Y19.812 Z-2.147 F400.000
G1 X44.487 Y19.625 Z-2.164 F400.000
G1 X44.576 Y19.453 Z-2.182 F400.000
G1 X44.697 Y19.301 Z-2.199 F400.000
G1 X44.846 Y19.176 Z-2.216 F400.000
G1 X45.016 Y19.083 Z-2.233 F400.000
G1 X45.201 Y19.024 Z-2.250 F400.000
G1 X45.394 Y19.003 Z-2.268 F400.000
G1 X45.587 Y19.019 Z-2.285 F400.000
G1 X45.773 Y19.073 Z-2.302 F400.000
G1 X45.946 Y19.162 Z-2.319 F400.000
G1 X46.097 Y19.284 Z-2.336 F400.000
G1 X46.222 Y19.432 Z-2.353 F400.000
G1 X46.316 Y19.602 Z-2.371 F400.000
G1 X46.374 Y19.787 Z-2.388 F400.000
G1 X46.396 Y19.980 Z-2.405 F400.000
G1 X46.379 Y20.173 Z-2.422 F400.000
G1 X46.325 Y20.360 Z-2.439 F400.000
G1 X46.236 Y20.532 Z-2.457 F400.000
G1 X46.115 Y20.684 Z-2.474 F400.000
G1 X45.966 Y20.809 Z-2.491 F400.000
G1 X45.796 Y20.902 Z-2.508 F400.000
G1 X45.611 Y20.961 Z-2.525 F400.000
G1 X45.418 Y20.982 Z-2.542 F400.000
G1 X45.225 Y20.966 Z-2.560 F400.000
G1 X45.039 Y20.912 Z-2.577 F400.000
G1 X44.866 Y20.822 Z-2.594 F400.000
G1 X44.715 Y20.701 Z-2.611 F400.000
G1 X44.590 Y20.553 Z-2.628 F400.000
G1 X44.496 Y20.383 Z-2.645 F400.000
G1 X44.438 Y20.198 Z-2.663 F400.000
G1 X44.416 Y20.005 Z-2.680 F400.000
G1 X44.433 Y19.812 Z-2.697 F400.000
G1 X44.487 Y19.625 Z-2.714 F400.000
G1 X44.576 Y19.453 Z-2.731 F400.000
G1 X44.697 Y19.301 Z-2.749 F400.000
G1 X44.846 Y19.176 Z-2.766 F400.000
G1 X45.016 Y19.083 Z-2.783 F400.000
G1 X45.201 Y19.024 Z-2.800 F400.000
G1 X45.394 Y19.003 Z-2.817 F400.000
G1 X45.587 Y19.019 Z-2.834 F400.000
G1 X45.773 Y19.073 Z-2.852 F400.000
G1 X45.946 Y19.162 Z-2.869 F400.000
G1 X46.097 Y19.284 Z-2.886 F400.000
G1 X46.222 Y19.432 Z-2.903 F400.000
G1 X46.316 Y19.602 Z-2.920 F400.000
G1 X46.374 Y19.787 Z-2.937 F400.000
G1 X46.396 Y19.980 Z-2.955 F400.000
G1 X46.379 Y20.173 Z-2.972 F400.000
G1 X46.325 Y20.360 Z-2.989 F400.000
G1 X46.236 Y20.532 Z-3.006 F400.000
G1 X46.115 Y20.684 Z-3.023 F400.000
G1 X45.966 Y20.809 Z-3.041 F400.000
G1 X45.796 Y20.902 Z-3.058 F400.000
G1 X45.611 Y20.961 Z-3.075 F400.000
G1 X45.418 Y20.982 Z-3.092 F400.000
G1 X45.225 Y20.966 Z-3.109 F400.000
G1 X45.039 Y20.912 Z-3.126 F400.000
G1 X44.866 Y20.822 Z-3.144 F400.000
G1 X44.715 Y20.701 Z-3.161 F400.000
G1 X44.590 Y20.553 Z-3.178 F400.000
G1 X44.496 Y20.383 Z-3.195 F400.000
G1 X44.438 Y20.198 Z-3.212 F400.000
G1 X44.416 Y20.005 Z-3.230 F400.000
G1 X44.433 Y19.812 Z-3.247 F400.000
G1 X44.487 Y19.625 Z-3.264 F400.000
G1 X44.576 Y19.453 Z-3.281 F400.000
G1 X44.697 Y19.301 Z-3.298 F400.000
G1 X44.846 Y19.176 Z-3.315 F400.000
G1 X45.016 Y19.083 Z-3.333 F400.000
G1 X45.201 Y19.024 Z-3.350 F400.000
G1 X45.394 Y19.003 Z-3.367 F400.000
G1 X45.587 Y19.019 Z-3.384 F400.000
G1 X45.773 Y19.073 Z-3.401 F400.000
G1 X45.946 Y19.162 Z-3.418 F400.000
G1 X46.097 Y19.284 Z-3.436 F400.000
G1 X46.222 Y19.432 Z-3.453 F400.000
G1 X46.316 Y19.602 Z-3.470 F400.000
G1 X46.374 Y19.787 Z-3.487 F400.000
G1 X46.396 Y19.980 Z-3.504 F400.000
G1 X46.379 Y20.173 Z-3.522 F400.000
G1 X46.325 Y20.360 Z-3.539 F400.000
G1 X46.236 Y20.532 Z-3.556 F400.000
G1 X46.115 Y20.684 Z-3.573 F400.000
G1 X45.966 Y20.809 Z-3.590 F400.000
G1 X45.796 Y20.902 Z-3.607 F400.000
G1 X45.611 Y20.961 Z-3.625 F400.000
G1 X45.418 Y20.982 Z-3.642 F400.000
G1 X45.225 Y20.966 Z-3.659 F400.000
G1 X45.039 Y20.912 Z-3.676 F400.000
G1 X44.866 Y20.822 Z-3.693 F400.000
G1 X44.715 Y20.701 Z-3.711 F400.000
G1 X44.590 Y20.553 Z-3.728 F400.000
G1 X44.496 Y20.383 Z-3.745 F400.000
G1 X44.438 Y20.198 Z-3.762 F400.000
G1 X44.416 Y20.005 Z-3.779 F400.000
G1 X44.433 Y19.812 Z-3.796 F400.000
G1 X44.487 Y19.625 Z-3.814 F400.000
G1 X44.576 Y19.453 Z-3.831 F400.000
G1 X44.697 Y19.301 Z-3.848 F400.000
G1 X44.846 Y19.176 Z-3.865 F400.000
G1 X45.016 Y19.083 Z-3.882 F400.000
G1 X45.201 Y19.024 Z-3.899 F400.000
G1 X45.394 Y19.003 Z-3.917 F400.000
G1 X45.587 Y19.019 Z-3.934 F400.000
G1 X45.773 Y19.073 Z-3.951 F400.000
G1 X45.946 Y19.162 Z-3.968 F400.000
G1 X46.097 Y19.284 Z-3.985 F400.000
G1 X46.222 Y19.432 Z-4.003 F400.000
G1 X46.316 Y19.602 Z-4.020 F400.000
G1 X46.374 Y19.787 Z-4.037 F400.000
G1 X46.396 Y19.980 Z-4.054 F400.000
G1 X46.379 Y20.173 Z-4.071 F400.000
G1 X46.325 Y20.360 Z-4.088 F400.000
G1 X46.236 Y20.532 Z-4.106 F400.000
G1 X46.115 Y20.684 Z-4.123 F400.000
G1 X45.966 Y20.809 Z-4.140 F400.000
G1 X45.796 Y20.902 Z-4.157 F400.000
G1 X45.611 Y20.961 Z-4.174 F400.000
G1 X45.418 Y20.982 Z-4.192 F400.000
G1 X45.225 Y20.966 Z-4.209 F400.000
G1 X45.039 Y20.912 Z-4.226 F400.000
G1 X44.866 Y20.822 Z-4.243 F400.000
G1 X44.715 Y20.701 Z-4.260 F400.000
G1 X44.590 Y20.553 Z-4.277 F400.000
G1 X44.496 Y20.383 Z-4.295 F400.000
G1 X44.438 Y20.198 Z-4.312 F400.000
G1 X44.416 Y20.005 Z-4.329 F400.000
G1 X44.433 Y19.812 Z-4.346 F400.000
G1 X44.487 Y19.625 Z-4.363 F400.000
G1 X44.576 Y19.453 Z-4.380 F400.000
G1 X44.697 Y19.301 Z-4.398 F400.000
G1 X44.846 Y19.176 Z-4.415 F400.000
G1 X45.016 Y19.083 Z-4.432 F400.000
G1 X45.201 Y19.024 Z-4.449 F400.000
G1 X45.394 Y19.003 Z-4.466 F400.000
G1 X45.587 Y19.019 Z-4.484 F400.000
G1 X45.773 Y19.073 Z-4.501 F400.000
G1 X45.946 Y19.162 Z-4.518 F400.000
G1 X46.097 Y19.284 Z-4.535 F400.000
G1 X46.222 Y19.432 Z-4.552 F400.000
G1 X46.316 Y19.602 Z-4.569 F400.000
G1 X46.374 Y19.787 Z-4.587 F400.000
G1 X46.396 Y19.980 Z-4.604 F400.000
G1 X46.379 Y20.173 Z-4.621 F400.000
G1 X46.325 Y20.360 Z-4.638 F400.000
G1 X46.236 Y20.532 Z-4.655 F400.000
G1 X46.115 Y20.684 Z-4.673 F400.000
G1 X45.966 Y20.809 Z-4.690 F400.000
G1 X45.796 Y20.902 Z-4.707 F400.000
G1 X45.611 Y20.961 Z-4.724 F400.000
G1 X45.418 Y20.982 Z-4.741 F400.000
G1 X45.225 Y20.966 Z-4.758 F400.000
G1 X45.039 Y20.912 Z-4.776 F400.000
G1 X44.866 Y20.822 Z-4.793 F400.000
G1 X44.715 Y20.701 Z-4.810 F400.000
G1 X44.590 Y20.553 Z-4.827 F400.000
G1 X44.496 Y20.383 Z-4.844 F400.000
G1 X44.438 Y20.198 Z-4.861 F400.000
G1 X44.416 Y20.005 Z-4.879 F400.000
G1 X44.433 Y19.812 Z-4.896 F400.000
G1 X44.487 Y19.625 Z-4.913 F400.000
G1 X44.576 Y19.453 Z-4.930 F400.000
G1 X44.697 Y19.301 Z-4.947 F400.000
G1 X44.846 Y19.176 Z-4.965 F400.000
G1 X45.016 Y19.083 Z-4.982 F400.000
G1 X45.201 Y19.024 Z-4.999 F400.000
G1 X45.394 Y19.003 Z-5.000 F400.000
G1 X45.587 Y19.019 Z-5.000 F400.000
G1 X45.773 Y19.073 Z-5.000 F400.000
G1 X45.946 Y19.162 Z-5.000 F400.000
G1 X46.097 Y19.284 Z-5.000 F400.000
G1 X46.222 Y19.432 Z-5.000 F400.000
G1 X46.316 Y19.602 Z-5.000 F400.000
G1 X46.374 Y19.787 Z-5.000 F400.000
G1 X46.396 Y19.980 Z-5.000 F400.000
G1 X46.379 Y20.173 Z-5.000 F400.000
G1 X46.325 Y20.360 Z-5.000 F400.000
G1 X46.236 Y20.532 Z-5.000 F400.000
G1 X46.115 Y20.684 Z-5.000 F400.000
G1 X45.966 Y20.809 Z-5.000 F400.000
G1 X45.796 Y20.902 Z-5.000 F400.000
G1 X45.611 Y20.961 Z-5.000 F400.000
G1 X45.418 Y20.982 Z-5.000 F400.000
G1 X45.225 Y20.966 Z-5.000 F400.000
G1 X45.039 Y20.912 Z-5.000 F400.000
G1 X44.866 Y20.822 Z-5.000 F400.000
G1 X44.715 Y20.701 Z-5.000 F400.000
G1 X44.590 Y20.553 Z-5.000 F400.000
G1 X44.496 Y20.383 Z-5.000 F400.000
G1 X44.438 Y20.198 Z-5.000 F400.000
G1 X44.416 Y20.005 Z-5.000 F400.000
G1 X44.433 Y19.812 Z-5.000 F400.000
G1 X44.487 Y19.625 Z-5.000 F400.000
G1 X44.576 Y19.453 Z-5.000 F400.000
G1 X44.697 Y19.301 Z-5.000 F400.000
G1 X44.846 Y19.176 Z-5.000 F400.000
G1 X45.016 Y19.083 Z-5.000 F400.000
G1 X45.201 Y19.024 Z-5.000 F400.000
(Adaptive - depth: -5.000000)
G1 X45.406 Y18.992 F400.000
G1 X45.492 Y18.910 F400.000
G1 X45.658 Y18.850 F400.000
G1 X45.827 Y18.838 F400.000
G1 X45.996 Y18.872 F400.000
G1 X46.158 Y18.940 F400.000
G1 X46.346 Y19.071 F400.000
G1 X46.504 Y19.237 F400.000
G1 X46.624 Y19.432 F400.000
G1 X46.718 Y19.707 F400.000
G1 X46.744 Y20.045 F400.000
G1 X46.714 Y20.271 F400.000
G1 X46.639 Y20.492 F400.000
G1 X46.556 Y20.650 F400.000
G1 X46.372 Y20.887 F400.000
G1 X46.139 Y21.079 F400.000
G1 X45.865 Y21.214 F400.000
G1 X45.624 Y21.274 F400.000
G1 X45.323 Y21.297 F400.000
G1 X45.023 Y21.259 F400.000
G1 X44.789 Y21.173 F400.000
G1 X44.526 Y21.004 F400.000
G1 X44.353 Y20.823 F400.000
G1 X44.214 Y20.620 F400.000
G1 X44.113 Y20.387 F400.000
G1 X44.053 Y20.147 F400.000
G1 X44.034 Y19.906 F400.000
G1 X44.060 Y19.665 F400.000
G1 X44.135 Y19.432 F400.000
G1 X44.248 Y19.218 F400.000
G1 X44.432 Y18.981 F400.000
G1 X44.658 Y18.782 F400.000
G1 X44.962 Y18.598 F400.000
G1 X45.075 Y18.560 F400.000
G1 X45.470 Y18.526 F400.000
G1 X45.695 Y18.556 F400.000
G1 X45.921 Y18.620 F400.000
G1 X46.132 Y18.718 F400.000
G1 X46.365 Y18.880 F400.000
G1 X46.564 Y19.086 F400.000
G1 X46.692 Y19.278 F400.000
G1 X46.771 Y19.436 F400.000
G1 X46.853 Y19.718 F400.000
G1 X46.876 Y20.000 F400.000
G1 X46.865 Y20.169 F400.000
G1 X46.823 Y20.395 F400.000
G1 X46.789 Y20.508 F400.000
G1 X46.692 Y20.722 F400.000
G1 X46.556 Y20.917 F400.000
G1 X46.346 Y21.135 F400.000
G1 X46.094 Y21.301 F400.000
G1 X45.868 Y21.398 F400.000
G1 X45.692 Y21.447 F400.000
G1 X45.451 Y21.470 F400.000
G1 X45.090 Y21.429 F400.000
G1 X44.970 Y21.402 F400.000
G1 X44.741 Y21.308 F400.000
G1 X44.481 Y21.135 F400.000
G1 X44.297 Y20.959 F400.000
G1 X44.150 Y20.756 F400.000
G1 X44.060 Y20.590 F400.000
G1 X43.981 Y20.353 F400.000
G1 X43.947 Y20.173 F400.000
G1 X43.936 Y19.992 F400.000
G1 X43.962 Y19.752 F400.000
G1 X44.023 Y19.511 F400.000
G1 X44.124 Y19.286 F400.000
G1 X44.301 Y19.030 F400.000
G1 X44.383 Y18.947 F400.000
G1 X44.383 Y18.947 F400.000
G1 X44.425 Y18.902 F400.000
G1 X44.425 Y18.902 F400.000
G1 X44.391 Y18.914 F400.000
G1 X44.391 Y18.914 F400.000
G1 X44.432 Y18.865 F400.000
G1 X44.432 Y18.865 F400.000
G1 X44.579 Y18.752 F400.000
G1 X44.699 Y18.680 F400.000
G1 X44.895 Y18.586 F400.000
G1 X45.094 Y18.530 F400.000
G1 X45.214 Y18.511 F400.000
G1 X45.489 Y18.500 F400.000
G1 X45.639 Y18.515 F400.000
G1 X45.898 Y18.583 F400.000
G1 X46.026 Y18.635 F400.000
G1 X46.259 Y18.767 F400.000
G1 X46.440 Y18.914 F400.000
G1 X46.530 Y19.008 F400.000
G1 X46.673 Y19.192 F400.000
G1 X46.733 Y19.293 F400.000
G1 X46.812 Y19.474 F400.000
G1 X46.880 Y19.733 F400.000
G1 X46.902 Y19.921 F400.000
G1 X46.887 Y20.184 F400.000
G1 X46.846 Y20.410 F400.000
G1 X46.778 Y20.609 F400.000
G1 X46.707 Y20.744 F400.000
G1 X46.598 Y20.906 F400.000
G1 X46.395 Y21.124 F400.000
G1 X46.323 Y21.184 F400.000
G1 X46.086 Y21.335 F400.000
G1 X45.861 Y21.429 F400.000
G1 X45.635 Y21.485 F400.000
G1 X45.474 Y21.500 F400.000
G1 X45.368 Y21.496 F400.000
G1 X45.177 Y21.474 F400.000
G1 X44.974 Y21.429 F400.000
G1 X44.853 Y21.387 F400.000
G1 X44.628 Y21.278 F400.000
G1 X44.417 Y21.120 F400.000
G1 X44.278 Y20.981 F400.000
G1 X44.184 Y20.861 F400.000
G1 X44.086 Y20.707 F400.000
G1 X44.008 Y20.526 F400.000
G1 X43.974 Y20.429 F400.000
G1 X43.929 Y20.237 F400.000
G1 X43.914 Y20.102 F400.000
G1 X43.910 Y19.936 F400.000
G1 X43.917 Y19.865 F400.000
G1 X43.985 Y19.534 F400.000
G1 X44.056 Y19.357 F400.000
G1 X44.192 Y19.128 F400.000
G1 X44.259 Y19.038 F400.000
G1 X44.432 Y18.865 F400.000
G1 X44.432 Y18.865 F400.000
G0 Z5.000
(Helix to depth: -5.000000)
G0 Z5.000
G0 X64.697 Y19.301 Z5.000
G0 X64.697 Y19.301 Z3.000
G1 X64.697 Y19.301 Z0.000 F400.000
G1 X64.697 Y19.301 Z0.000 F400.000
G1 X64.846 Y19.176 Z-0.017 F400.000
G1 X65.016 Y19.083 Z-0.034 F400.000
G1 X65.201 Y19.024 Z-0.052 F400.000
G1 X65.394 Y19.003 Z-0.069 F400.000
G1 X65.587 Y19.019 Z-0.086 F400.000
G1 X65.773 Y19.073 Z-0.103 F400.000
G1 X65.946 Y19.162 Z-0.120 F400.000
G1 X66.097 Y19.284 Z-0.137 F400.000
G1 X66.222 Y19.432 Z-0.155 F400.000
G1 X66.316 Y19.602 Z-0.172 F400.000
G1 X66.374 Y19.787 Z-0.189 F400.000
G1 X66.396 Y19.980 Z-0.206 F400.000
G1 X66.379 Y20.173 Z-0.223 F400.000
G1 X66.325 Y20.360 Z-0.240 F400.000
G1 X66.236 Y20.532 Z-0.258 F400.000
G1 X66.115 Y20.684 Z-0.275 F400.000
G1 X65.966 Y20.809 Z-0.292 F400.000
G1 X65.796 Y20.902 Z-0.309 F400.000
G1 X65.611 Y20.961 Z-0.326 F400.000
G1 X65.418 Y20.982 Z-0.344 F400.000
G1 X65.225 Y20.966 Z-0.361 F400.000
G1 X65.039 Y20.912 Z-0.378 F400.000
G1 X64.866 Y20.822 Z-0.395 F400.000
G1 X64.715 Y20.701 Z-0.412 F400.000
G1 X64.590 Y20.553 Z-0.429 F400.000
G1 X64.496 Y20.383 Z-0.447 F400.000
G1 X64.438 Y20.198 Z-0.464 F400.000
G1 X64.416 Y20.005 Z-0.481 F400.000
G1 X64.433 Y19.812 Z-0.498 F400.000
G1 X64.487 Y19.625 Z-0.515 F400.000
G1 X64.576 Y19.453 Z-0.533 F400.000
G1 X64.697 Y19.301 Z-0.550 F400.000
G1 X64.846 Y19.176 Z-0.567 F400.000
G1 X65.016 Y19.083 Z-0.584 F400.000
G1 X65.201 Y19.024 Z-0.601 F400.000
G1 X65.394 Y19.003 Z-0.618 F400.000
G1 X65.587 Y19.019 Z-0.636 F400.000
G1 X65.773 Y19.073 Z-0.653 F400.000
G1 X65.946 Y19.162 Z-0.670 F400.000
G1 X66.097 Y19.284 Z-0.687 F400.000
G1 X66.222 Y19.432 Z-0.704 F400.000
G1 X66.316 Y19.602 Z-0.721 F400.000
G1 X66.374 Y19.787 Z-0.739 F400.000
G1 X66.396 Y19.980 Z-0.756 F400.000
G1 X66.379 Y20.173 Z-0.773 F400.000
G1 X66.325 Y20.360 Z-0.790 F400.000
G1 X66.236 Y20.532 Z-0.807 F400.000
G1 X66.115 Y20.684 Z-0.825 F400.000
G1 X65.966 Y20.809 Z-0.842 F400.000
G1 X65.796 Y20.902 Z-0.859 F400.000
G1 X65.611 Y20.961 Z-0.876 F400.000
G1 X65.418 Y20.982 Z-0.893 F400.000
G1 X65.225 Y20.966 Z-0.910 F400.000
G1 X65.039 Y20.912 Z-0.928 F400.000
G1 X64.866 Y20.822 Z-0.945 F400.000
G1 X64.715 Y20.701 Z-0.962 F400.000
G1 X64.590 Y20.553 Z-0.979 F400.000
G1 X64.496 Y20.383 Z-0.996 F400.000
G1 X64.438 Y20.198 Z-1.014 F400.000
G1 X64.416 Y20.005 Z-1.031 F400.000
G1 X64.433 Y19.812 Z-1.048 F400.000
G1 X64.487 Y19.625 Z-1.065 F400.000
G1 X64.576 Y19.453 Z-1.082 F400.000
G1 X64.697 Y19.301 Z-1.099 F400.000
G1 X64.846 Y19.176 Z-1.117 F400.000
G1 X65.016 Y19.083 Z-1.134 F400.000
G1 X65.201 Y19.024 Z-1.151 F400.000
G1 X65.394 Y19.003 Z-1.168 F400.000
G1 X65.587 Y19.019 Z-1.185 F400.000
G1 X65.773 Y19.073 Z-1.202 F400.000
G1 X65.946 Y19.162 Z-1.220 F400.000
G1 X66.097 Y19.284 Z-1.237 F400.000
G1 X66.222 Y19.432 Z-1.254 F400.000
G1 X66.316 Y19.602 Z-1.271 F400.000
G1 X66.374 Y19.787 Z-1.288 F400.000
G1 X66.396 Y19.980 Z-1.306 F400.000
G1 X66.379 Y20.173 Z-1.323 F400.000
G1 X66.325 Y20.360 Z-1.340 F400.000
G1 X66.236 Y20.532 Z-1.357 F400.000
G1 X66.115 Y20.684 Z-1.374 F400.000
G1 X65.966 Y20.809 Z-1.391 F400.000
G1 X65.796 Y20.902 Z-1.409 F400.000
G1 X65.611 Y20.961 Z-1.426 F400.000
G1 X65.418 Y20.982 Z-1.443 F400.000
G1 X65.225 Y20.966 Z-1.460 F400.000
G1 X65.039 Y20.912 Z-1.477 F400.000
G1 X64.866 Y20.822 Z-1.495 F400.000
G1 X64.715 Y20.701 Z-1.512 F400.000
G1 X64.590 Y20.553 Z-1.529 F400.000
G1 X64.496 Y20.383 Z-1.546 F400.000
G1 X64.438 Y20.198 Z-1.563 F400.000
G1 X64.416 Y20.005 Z-1.580 F400.000
G1 X64.433 Y19.812 Z-1.598 F400.000
G1 X64.487 Y19.625 Z-1.615 F400.000
G1 X64.576 Y19.453 Z-1.632 F400.000
G1 X64.697 Y19.301 Z-1.649 F400.000
G1 X64.846 Y19.176 Z-1.666 F400.000
G1 X65.016 Y19.083 Z-1.683 F400.000
G1 X65.201 Y19.024 Z-1.701 F400.000
G1 X65.394 Y19.003 Z-1.718 F400.000
G1 X65.587 Y19.019 Z-1.735 F400.000
G1 X65.773 Y19.073 Z-1.752 F400.000
G1 X65.946 Y19.162 Z-1.769 F400.000
G1 X66.097 Y19.284 Z-1.787 F400.000
G1 X66.222 Y19.432 Z-1.804 F400.000
G1 X66.316 Y19.602 Z-1.821 F400.000
G1 X66.374 Y19.787 Z-1.838 F400.000
G1 X66.396 Y19.980 Z-1.855 F400.000
G1 X66.379 Y20.173 Z-1.872 F400.000
G1 X66.325 Y20.360 Z-1.890 F400.000
G1 X66.236 Y20.532 Z-1.907 F400.000
G1 X66.115 Y20.684 Z-1.924 F400.000
G1 X65.966 Y20.809 Z-1.941 F400.000
G1 X65.796 Y20.902 Z-1.958 F400.000
G1 X65.611 Y20.961 Z-1.976 F400.000
G1 X65.418 Y20.982 Z-1.993 F400.000
G1 X65.225 Y20.966 Z-2.010 F400.000
G1 X65.039 Y20.912 Z-2.027 F400.000
G1 X64.866 Y20.822 Z-2.044 F400.000
G1 X64.715 Y20.701 Z-2.061 F400.000
G1 X64.590 Y20.553 Z-2.079 F400.000
G1 X64.496 Y20.383 Z-2.096 F400.000
G1 X64.438 Y20.198 Z-2.113 F400.000
G1 X64.416 Y20.005 Z-2.130 F400.000
G1 X64.433 Y19.812 Z-2.147 F400.000
G1 X64.487 Y19.625 Z-2.164 F400.000
G1 X64.576 Y19.453 Z-2.182 F400.000
G1 X64.697 Y19.301 Z-2.199 F400.000
G1 X64.846 Y19.176 Z-2.216 F400.000
G1 X65.016 Y19.083 Z-2.233 F400.000
G1 X65.201 Y19.024 Z-2.250 F400.000
G1 X65.394 Y19.003 Z-2.268 F400.000
G1 X65.587 Y19.019 Z-2.285 F400.000
G1 X65.773 Y19.073 Z-2.302 F400.000
G1 X65.946 Y19.162 Z-2.319 F400.000
G1 X66.097 Y19.284 Z-2.336 F400.000
G1 X66.222 Y19.432 Z-2.353 F400.000
G1 X66.316 Y19.602 Z-2.371 F400.000
G1 X66.374 Y19.787 Z-2.388 F400.000
G1 X66.396 Y19.980 Z-2.405 F400.000
G1 X66.379 Y20.173 Z-2.422 F400.000
G1 X66.325 Y20.360 Z-2.439 F400.000
G1 X66.236 Y20.532 Z-2.457 F400.000
G1 X66.115 Y20.684 Z-2.474 F400.000
G1 X65.966 Y20.809 Z-2.491 F400.000
G1 X65.796 Y20.902 Z-2.508 F400.000
G1 X65.611 Y20.961 Z-2.525 F400.000
G1 X65.418 Y20.982 Z-2.542 F400.000
G1 X65.225 Y20.966 Z-2.560 F400.000
G1 X65.039 Y20.912 Z-2.577 F400.000
G1 X64.866 Y20.822 Z-2.594 F400.000
G1 X64.715 Y20.701 Z-2.611 F400.000
G1 X64.590 Y20.553 Z-2.628 F400.000
G1 X64.496 Y20.383 Z-2.645 F400.000
G1 X64.438 Y20.198 Z-2.663 F400.000
G1 X64.416 Y20.005 Z-2.680 F400.000
G1 X64.433 Y19.812 Z-2.697 F400.000
G1 X64.487 Y19.625 Z-2.714 F400.000
G1 X64.576 Y19.453 Z-2.731 F400.000
G1 X64.697 Y19.301 Z-2.749 F400.000
G1 X64.846 Y19.176 Z-2.766 F400.000
G1 X65.016 Y19.083 Z-2.783 F400.000
G1 X65.201 Y19.024 Z-2.800 F400.000
G1 X65.394 Y19.003 Z-2.817 F400.000
G1 X65.587 Y19.019 Z-2.834 F400.000
G1 X65.773 Y19.073 Z-2.852 F400.000
G1 X65.946 Y19.162 Z-2.869 F400.000
G1 X66.097 Y19.284 Z-2.886 F400.000
G1 X66.222 Y19.432 Z-2.903 F400.000
G1 X66.316 Y19.602 Z-2.920 F400.000
G1 X66.374 Y19.787 Z-2.937 F400.000
G1 X66.396 Y19.980 Z-2.955 F400.000
G1 X66.379 Y20.173 Z-2.972 F400.000
G1 X66.325 Y20.360 Z-2.989 F400.000
G1 X66.236 Y20.532 Z-3.006 F400.000
G1 X66.115 Y20.684 Z-3.023 F400.000
G1 X65.966 Y20.809 Z-3.041 F400.000
G1 X65.796 Y20.902 Z-3.058 F400.000
G1 X65.611 Y20.961 Z-3.075 F400.000
G1 X65.418 Y20.982 Z-3.092 F400.000
G1 X65.225 Y20.966 Z-3.109 F400.000
G1 X65.039 Y20.912 Z-3.126 F400.000
G1 X64.866 Y20.822 Z-3.144 F400.000
G1 X64.715 Y20.701 Z-3.161 F400.000
G1 X64.590 Y20.553 Z-3.178 F400.000
G1 X64.496 Y20.383 Z-3.195 F400.000
G1 X64.438 Y20.198 Z-3.212 F400.000
G1 X64.416 Y20.005 Z-3.230 F400.000
G1 X64.433 Y19.812 Z-3.247 F400.000
G1 X64.487 Y19.625 Z-3.264 F400.000
G1 X64.576 Y19.453 Z-3.281 F400.000
G1 X64.697 Y19.301 Z-3.298 F400.000
G1 X64.846 Y19.176 Z-3.315 F400.000
G1 X65.016 Y19.083 Z-3.333 F400.000
G1 X65.201 Y19.024 Z-3.350 F400.000
G1 X65.394 Y19.003 Z-3.367 F400.000
G1 X65.587 Y19.019 Z-3.384 F400.000
G1 X65.773 Y19.073 Z-3.401 F400.000
G1 X65.946 Y19.162 Z-3.418 F400.000
G1 X66.097 Y19.284 Z-3.436 F400.000
G1 X66.222 Y19.432 Z-3.453 F400.000
G1 X66.316 Y19.602 Z-3.470 F400.000
G1 X66.374 Y19.787 Z-3.487 F400.000
G1 X66.396 Y19.980 Z-3.504 F400.000
G1 X66.379 Y20.173 Z-3.522 F400.000
G1 X66.325 Y20.360 Z-3.539 F400.000
G1 X66.236 Y20.532 Z-3.556 F400.000
G1 X66.115 Y20.684 Z-3.573 F400.000
G1 X65.966 Y20.809 Z-3.590 F400.000
G1 X65.796 Y20.902 Z-3.607 F400.000
G1 X65.611 Y20.961 Z-3.625 F400.000
G1 X65.418 Y20.982 Z-3.642 F400.000
G1 X65.225 Y20.966 Z-3.659 F400.000
G1 X65.039 Y20.912 Z-3.676 F400.000
G1 X64.866 Y20.822 Z-3.693 F400.000
G1 X64.715 Y20.701 Z-3.711 F400.000
G1 X64.590 Y20.553 Z-3.728 F400.000
G1 X64.496 Y20.383 Z-3.745 F400.000
G1 X64.438 Y20.198 Z-3.762 F400.000
G1 X64.416 Y20.005 Z-3.779 F400.000
G1 X64.433 Y19.812 Z-3.796 F400.000
G1 X64.487 Y19.625 Z-3.814 F400.000
G1 X64.576 Y19.453 Z-3.831 F400.000
G1 X64.697 Y19.301 Z-3.848 F400.000
G1 X64.846 Y19.176 Z-3.865 F400.000
G1 X65.016 Y19.083 Z-3.882 F400.000
G1 X65.201 Y19.024 Z-3.899 F400.000
G1 X65.394 Y19.003 Z-3.917 F400.000
G1 X65.587 Y19.019 Z-3.934 F400.000
G1 X65.773 Y19.073 Z-3.951 F400.000
G1 X65.946 Y19.162 Z-3.968 F400.000
G1 X66.097 Y19.284 Z-3.985 F400.000
G1 X66.222 Y19.432 Z-4.003 F400.000
G1 X66.316 Y19.602 Z-4.020 F400.000
G1 X66.374 Y19.787 Z-4.037 F400.000
G1 X66.396 Y19.980 Z-4.054 F400.000
G1 X66.379 Y20.173 Z-4.071 F400.000
G1 X66.325 Y20.360 Z-4.088 F400.000
G1 X66.236 Y20.532 Z-4.106 F400.000
G1 X66.115 Y20.684 Z-4.123 F400.000
G1 X65.966 Y20.809 Z-4.140 F400.000
G1 X65.796 Y20.902 Z-4.157 F400.000
G1 X65.611 Y20.961 Z-4.174 F400.000
G1 X65.418 Y20.982 Z-4.192 F400.000
G1 X65.225 Y20.966 Z-4.209 F400.000
G1 X65.039 Y20.912 Z-4.226 F400.000
G1 X64.866 Y20.822 Z-4.243 F400.000
G1 X64.715 Y20.701 Z-4.260 F400.000
G1 X64.590 Y20.553 Z-4.277 F400.000
G1 X64.496 Y20.383 Z-4.295 F400.000
G1 X64.438 Y20.198 Z-4.312 F400.000
G1 X64.416 Y20.005 Z-4.329 F400.000
G1 X64.433 Y19.812 Z-4.346 F400.000
G1 X64.487 Y19.625 Z-4.363 F400.000
G1 X64.576 Y19.453 Z-4.380 F400.000
G1 X64.697 Y19.301 Z-4.398 F400.000
G1 X64.846 Y19.176 Z-4.415 F400.000
G1 X65.016 Y19.083 Z-4.432 F400.000
G1 X65.201 Y19.024 Z-4.449 F400.000
G1 X65.394 Y19.003 Z-4.466 F400.000
G1 X65.587 Y19.019 Z-4.484 F400.000
G1 X65.773 Y19.073 Z-4.501 F400.000
G1 X65.946 Y19.162 Z-4.518 F400.000
G1 X66.097 Y19.284 Z-4.535 F400.000
G1 X66.222 Y19.432 Z-4.552 F400.000
G1 X66.316 Y19.602 Z-4.569 F400.000
G1 X66.374 Y19.787 Z-4.587 F400.000
G1 X66.396 Y19.980 Z-4.604 F400.000
G1 X66.379 Y20.173 Z-4.621 F400.000
G1 X66.325 Y20.360 Z-4.638 F400.000
G1 X66.236 Y20.532 Z-4.655 F400.000
G1 X66.115 Y20.684 Z-4.673 F400.000
G1 X65.966 Y20.809 Z-4.690 F400.000
G1 X65.796 Y20.902 Z-4.707 F400.000
G1 X65.611 Y20.961 Z-4.724 F400.000
G1 X65.418 Y20.982 Z-4.741 F400.000
G1 X65.225 Y20.966 Z-4.758 F400.000
G1 X65.039 Y20.912 Z-4.776 F400.000
G1 X64.866 Y20.822 Z-4.793 F400.000
G1 X64.715 Y20.701 Z-4.810 F400.000
G1 X64.590 Y20.553 Z-4.827 F400.000
G1 X64.496 Y20.383 Z-4.844 F400.000
G1 X64.438 Y20.198 Z-4.861 F400.000
G1 X64.416 Y20.005 Z-4.879 F400.000
G1 X64.433 Y19.812 Z-4.896 F400.000
G1 X64.487 Y19.625 Z-4.913 F400.000
G1 X64.576 Y19.453 Z-4.930 F400.000
G1 X64.697 Y19.301 Z-4.947 F400.000
G1 X64.846 Y19.176 Z-4.965 F400.000
G1 X65.016 Y19.083 Z-4.982 F400.000
G1 X65.201 Y19.024 Z-4.999 F400.000
G1 X65.394 Y19.003 Z-5.000 F400.000
G1 X65.587 Y19.019 Z-5.000 F400.000
G1 X65.773 Y19.073 Z-5.000 F400.000
G1 X65.946 Y19.162 Z-5.000 F400.000
G1 X66.097 Y19.284 Z-5.000 F400.000
G1 X66.222 Y19.432 Z-5.000 F400.000
G1 X66.316 Y19.602 Z-5.000 F400.000
G1 X66.374 Y19.787 Z-5.000 F400.000
G1 X66.396 Y19.980 Z-5.000 F400.000
G1 X66.379 Y20.173 Z-5.000 F400.000
G1 X66.325 Y20.360 Z-5.000 F400.000
G1 X66.236 Y20.532 Z-5.000 F400.000
G1 X66.115 Y20.684 Z-5.000 F400.000
G1 X65.966 Y20.809 Z-5.000 F400.000
G1 X65.796 Y20.902 Z-5.000 F400.000
G1 X65.611 Y20.961 Z-5.000 F400.000
G1 X65.418 Y20.982 Z-5.000 F400.000
G1 X65.225 Y20.966 Z-5.000 F400.000
G1 X65.039 Y20.912 Z-5.000 F400.000
G1 X64.866 Y20.822 Z-5.000 F400.000
G1 X64.715 Y20.701 Z-5.000 F400.000
G1 X64.590 Y20.553 Z-5.000 F400.000
G1 X64.496 Y20.383 Z-5.000 F400.000
G1 X64.438 Y20.198 Z-5.000 F400.000
G1 X64.416 Y20.005 Z-5.000 F400.000
G1 X64.433 Y19.812 Z-5.000 F400.000
G1 X64.487 Y19.625 Z-5.000 F400.000
G1 X64.576 Y19.453 Z-5.000 F400.000
G1 X64.697 Y19.301 Z-5.000 F400.000
G1 X64.846 Y19.176 Z-5.000 F400.000
G1 X65.016 Y19.083 Z-5.000 F400.000
G1 X65.201 Y19.024 Z-5.000 F400.000
(Adaptive - depth: -5.000000)
G1 X65.406 Y18.992 F400.000
G1 X65.492 Y18.910 F400.000
G1 X65.658 Y18.850 F400.000
G1 X65.827 Y18.838 F400.000
G1 X65.996 Y18.872 F400.000
G1 X66.158 Y18.940 F400.000
G1 X66.346 Y19.071 F400.000
G1 X66.504 Y19.237 F400.000
G1 X66.624 Y19.432 F400.000
G1 X66.718 Y19.707 F400.000
G1 X66.744 Y20.045 F400.000
G1 X66.714 Y20.271 F400.000
G1 X66.639 Y20.492 F400.000
G1 X66.556 Y20.650 F400.000
G1 X66.372 Y20.887 F400.000
G1 X66.139 Y21.079 F400.000
G1 X65.865 Y21.214 F400.000
G1 X65.624 Y21.274 F400.000
G1 X65.323 Y21.297 F400.000
G1 X65.023 Y21.259 F400.000
G1 X64.789 Y21.173 F400.000
G1 X64.526 Y21.004 F400.000
G1 X64.353 Y20.823 F400.000
G1 X64.214 Y20.620 F400.000
G1 X64.113 Y20.387 F400.000
G1 X64.053 Y20.147 F400.000
G1 X64.034 Y19.906 F400.000
G1 X64.060 Y19.665 F400.000
G1 X64.135 Y19.432 F400.000
G1 X64.248 Y19.218 F400.000
G1 X64.432 Y18.981 F400.000
G1 X64.658 Y18.782 F400.000
G1 X64.962 Y18.598 F400.000
G1 X65.075 Y18.560 F400.000
G1 X65.470 Y18.526 F400.000
G1 X65.695 Y18.556 F400.000
G1 X65.921 Y18.620 F400.000
G1 X66.132 Y18.718 F400.000
G1 X66.365 Y18.880 F400.000
G1 X66.564 Y19.086 F400.000
G1 X66.692 Y19.278 F400.000
G1 X66.771 Y19.436 F400.000
G1 X66.853 Y19.718 F400.000
G1 X66.876 Y20.000 F400.000
G1 X66.865 Y20.169 F400.000
G1 X66.823 Y20.395 F400.000
G1 X66.789 Y20.508 F400.000
G1 X66.692 Y20.722 F400.000
G1 X66.556 Y20.917 F400.000
G1 X66.346 Y21.135 F400.000
G1 X66.094 Y21.301 F400.000
G1 X65.868 Y21.398 F400.000
G1 X65.692 Y21.447 F400.000
G1 X65.451 Y21.470 F400.000
G1 X65.090 Y21.429 F400.000
G1 X64.970 Y21.402 F400.000
G1 X64.741 Y21.308 F400.000
G1 X64.481 Y21.135 F400.000
G1 X64.297 Y20.959 F400.000
G1 X64.150 Y20.756 F400.000
G1 X64.060 Y20.590 F400.000
G1 X63.981 Y20.353 F400.000
G1 X63.947 Y20.173 F400.000
G1 X63.936 Y19.992 F400.000
G1 X63.962 Y19.752 F400.000
G1 X64.023 Y19.511 F400.000
G1 X64.124 Y19.286 F400.000
G1 X64.301 Y19.030 F400.000
G1 X64.383 Y18.947 F400.000
G1 X64.383 Y18.947 F400.000
G1 X64.425 Y18.902 F400.000
G1 X64.425 Y18.902 F400.000
G1 X64.391 Y18.914 F400.000
G1 X64.391 Y18.914 F400.000
G1 X64.432 Y18.865 F400.000
G1 X64.432 Y18.865 F400.000
G1 X64.579 Y18.752 F400.000
G1 X64.699 Y18.680 F400.000
G1 X64.895 Y18.586 F400.000
G1 X65.094 Y18.530 F400.000
G1 X65.214 Y18.511 F400.000
G1 X65.489 Y18.500 F400.000
G1 X65.639 Y18.515 F400.000
G1 X65.898 Y18.583 F400.000
G1 X66.026 Y18.635 F400.000
G1 X66.259 Y18.767 F400.000
G1 X66.440 Y18.914 F400.000
G1 X66.530 Y19.008 F400.000
G1 X66.673 Y19.192 F400.000
G1 X66.733 Y19.293 F400.000
G1 X66.812 Y19.474 F400.000
G1 X66.880 Y19.733 F400.000
G1 X66.902 Y19.921 F400.000
G1 X66.887 Y20.184 F400.000
G1 X66.846 Y20.410 F400.000
G1 X66.778 Y20.609 F400.000
G1 X66.707 Y20.744 F400.000
G1 X66.598 Y20.906 F400.000
G1 X66.395 Y21.124 F400.000
G1 X66.323 Y21.184 F400.000
G1 X66.086 Y21.335 F400.000
G1 X65.861 Y21.429 F400.000
G1 X65.635 Y21.485 F400.000
G1 X65.474 Y21.500 F400.000
G1 X65.368 Y21.496 F400.000
G1 X65.177 Y21.474 F400.000
G1 X64.974 Y21.429 F400.000
G1 X64.853 Y21.387 F400.000
G1 X64.628 Y21.278 F400.000
G1 X64.417 Y21.120 F400.000
G1 X64.278 Y20.981 F400.000
G1 X64.184 Y20.861 F400.000
G1 X64.086 Y20.707 F400.000
G1 X64.008 Y20.526 F400.000
G1 X63.974 Y20.429 F400.000
G1 X63.929 Y20.237 F400.000
G1 X63.914 Y20.102 F400.000
G1 X63.910 Y19.936 F400.000
G1 X63.917 Y19.865 F400.000
G1 X63.985 Y19.534 F400.000
G1 X64.056 Y19.357 F400.000
G1 X64.192 Y19.128 F400.000
G1 X64.259 Y19.038 F400.000
G1 X64.432 Y18.865 F400.000
G1 X64.432 Y18.865 F400.000
G0 Z5.000
(Helix to depth: -5.000000)
G0 Z5.000
G0 X-0.709 Y-0.691 Z5.000
G0 X-0.709 Y-0.691 Z3.000
G1 X-0.709 Y-0.691 Z0.000 F400.000
G1 X-0.709 Y-0.691 Z0.000 F400.000
G1 X-0.560 Y-0.816 Z-0.017 F400.000
G1 X-0.390 Y-0.910 Z-0.034 F400.000
G1 X-0.205 Y-0.968 Z-0.052 F400.000
G1 X-0.012 Y-0.990 Z-0.069 F400.000
G1 X0.181 Y-0.973 Z-0.086 F400.000
G1 X0.367 Y-0.919 Z-0.103 F400.000
G1 X0.540 Y-0.830 Z-0.120 F400.000
G1 X0.691 Y-0.709 Z-0.137 F400.000
G1 X0.816 Y-0.560 Z-0.155 F400.000
G1 X0.910 Y-0.390 Z-0.172 F400.000
G1 X0.968 Y-0.205 Z-0.189 F400.000
G1 X0.990 Y-0.012 Z-0.206 F400.000
G1 X0.973 Y0.181 Z-0.223 F400.000
G1 X0.919 Y0.367 Z-0.240 F400.000
G1 X0.830 Y0.540 Z-0.258 F400.000
G1 X0.709 Y0.691 Z-0.275 F400.000
G1 X0.560 Y0.816 Z-0.292 F400.000
G1 X0.390 Y0.910 Z-0.309 F400.000
G1 X0.205 Y0.968 Z-0.326 F400.000
G1 X0.012 Y0.990 Z-0.344 F400.000
G1 X-0.181 Y0.973 Z-0.361 F400.000
G1 X-0.367 Y0.919 Z-0.378 F400.000
G1 X-0.540 Y0.830 Z-0.395 F400.000
G1 X-0.691 Y0.709 Z-0.412 F400.000
G1 X-0.816 Y0.560 Z-0.429 F400.000
G1 X-0.910 Y0.390 Z-0.447 F400.000
G1 X-0.968 Y0.205 Z-0.464 F400.000
G1 X-0.990 Y0.012 Z-0.481 F400.000
G1 X-0.973 Y-0.181 Z-0.498 F400.000
G1 X-0.919 Y-0.367 Z-0.515 F400.000
G1 X-0.830 Y-0.540 Z-0.533 F400.000
G1 X-0.709 Y-0.691 Z-0.550 F400.000
G1 X-0.560 Y-0.816 Z-0.567 F400.000
G1 X-0.390 Y-0.910 Z-0.584 F400.000
G1 X-0.205 Y-0.968 Z-0.601 F400.000
G1 X-0.012 Y-0.990 Z-0.618 F400.000
G1 X0.181 Y-0.973 Z-0.636 F400.000
G1 X0.367 Y-0.919 Z-0.653 F400.000
G1 X0.540 Y-0.830 Z-0.670 F400.000
G1 X0.691 Y-0.709 Z-0.687 F400.000
G1 X0.816 Y-0.560 Z-0.704 F400.000
G1 X0.910 Y-0.390 Z-0.721 F400.000
G1 X0.968 Y-0.205 Z-0.739 F400.000
G1 X0.990 Y-0.012 Z-0.756 F400.000
G1 X0.973 Y0.181 Z-0.773 F400.000
G1 X0.919 Y0.367 Z-0.790 F400.000
G1 X0.830 Y0.540 Z-0.807 F400.000
G1 X0.709 Y0.691 Z-0.825 F400.000
G1 X0.560 Y0.816 Z-0.842 F400.000
G1 X0.390 Y0.910 Z-0.859 F400.000
G1 X0.205 Y0.968 Z-0.876 F400.000
G1 X0.012 Y0.990 Z-0.893 F400.000
G1 X-0.181 Y0.973 Z-0.910 F400.000
G1 X-0.367 Y0.919 Z-0.928 F400.000
G1 X-0.540 Y0.830 Z-0.945 F400.000
G1 X-0.691 Y0.709 Z-0.962 F400.000
G1 X-0.816 Y0.560 Z-0.979 F400.000
G1 X-0.910 Y0.390 Z-0.996 F400.000
G1 X-0.968 Y0.205 Z-1.014 F400.000
G1 X-0.990 Y0.012 Z-1.031 F400.000
G1 X-0.973 Y-0.181 Z-1.048 F400.000
G1 X-0.919 Y-0.367 Z-1.065 F400.000
G1 X-0.830 Y-0.540 Z-1.082 F400.000
G1 X-0.709 Y-0.691 Z-1.099 F400.000
G1 X-0.560 Y-0.816 Z-1.117 F400.000
G1 X-0.390 Y-0.910 Z-1.134 F400.000
G1 X-0.205 Y-0.968 Z-1.151 F400.000
G1 X-0.012 Y-0.990 Z-1.168 F400.000
G1 X0.181 Y-0.973 Z-1.185 F400.000
G1 X0.367 Y-0.919 Z-1.202 F400.000
G1 X0.540 Y-0.830 Z-1.220 F400.000
G1 X0.691 Y-0.709 Z-1.237 F400.000
G1 X0.816 Y-0.560 Z-1.254 F400.000
G1 X0.910 Y-0.390 Z-1.271 F400.000
G1 X0.968 Y-0.205 Z-1.288 F400.000
G1 X0.990 Y-0.012 Z-1.306 F400.000
G1 X0.973 Y0.181 Z-1.323 F400.000
G1 X0.919 Y0.367 Z-1.340 F400.000
G1 X0.830 Y0.540 Z-1.357 F400.000
G1 X0.709 Y0.691 Z-1.374 F400.000
G1 X0.560 Y0.816 Z-1.391 F400.000
G1 X0.390 Y0.910 Z-1.409 F400.000
G1 X0.205 Y0.968 Z-1.426 F400.000
G1 X0.012 Y0.990 Z-1.443 F400.000
G1 X-0.181 Y0.973 Z-1.460 F400.000
G1 X-0.367 Y0.919 Z-1.477 F400.000
G1 X-0.540 Y0.830 Z-1.495 F400.000
G1 X-0.691 Y0.709 Z-1.512 F400.000
G1 X-0.816 Y0.560 Z-1.529 F400.000
G1 X-0.910 Y0.390 Z-1.546 F400.000
G1 X-0.968 Y0.205 Z-1.563 F400.000
G1 X-0.990 Y0.012 Z-1.580 F400.000
G1 X-0.973 Y-0.181 Z-1.598 F400.000
G1 X-0.919 Y-0.367 Z-1.615 F400.000
G1 X-0.830 Y-0.540 Z-1.632 F400.000
G1 X-0.709 Y-0.691 Z-1.649 F400.000
G1 X-0.560 Y-0.816 Z-1.666 F400.000
G1 X-0.390 Y-0.910 Z-1.683 F400.000
G1 X-0.205 Y-0.968 Z-1.701 F400.000
G1 X-0.012 Y-0.990 Z-1.718 F400.000
G1 X0.181 Y-0.973 Z-1.735 F400.000
G1 X0.367 Y-0.919 Z-1.752 F400.000
G1 X0.540 Y-0.830 Z-1.769 F400.000
G1 X0.691 Y-0.709 Z-1.787 F400.000
G1 X0.816 Y-0.560 Z-1.804 F400.000
G1 X0.910 Y-0.390 Z-1.821 F400.000
G1 X0.968 Y-0.205 Z-1.838 F400.000
G1 X0.990 Y-0.012 Z-1.855 F400.000
G1 X0.973 Y0.181 Z-1.872 F400.000
G1 X0.919 Y0.367 Z-1.890 F400.000
G1 X0.830 Y0.540 Z-1.907 F400.000
G1 X0.709 Y0.691 Z-1.924 F400.000
G1 X0.560 Y0.816 Z-1.941 F400.000
G1 X0.390 Y0.910 Z-1.958 F400.000
G1 X0.205 Y0.968 Z-1.976 F400.000
G1 X0.012 Y0.990 Z-1.993 F400.000
G1 X-0.181 Y0.973 Z-2.010 F400.000
G1 X-0.367 Y0.919 Z-2.027 F400.000
G1 X-0.540 Y0.830 Z-2.044 F400.000
G1 X-0.691 Y0.709 Z-2.061 F400.000
G1 X-0.816 Y0.560 Z-2.079 F400.000
G1 X-0.910 Y0.390 Z-2.096 F400.000
G1 X-0.968 Y0.205 Z-2.113 F400.000
G1 X-0.990 Y0.012 Z-2.130 F400.000
G1 X-0.973 Y-0.181 Z-2.147 F400.000
G1 X-0.919 Y-0.367 Z-2.164 F400.000
G1 X-0.830 Y-0.540 Z-2.182 F400.000
G1 X-0.709 Y-0.691 Z-2.199 F400.000
G1 X-0.560 Y-0.816 Z-2.216 F400.000
G1 X-0.390 Y-0.910 Z-2.233 F400.000
G1 X-0.205 Y-0.968 Z-2.250 F400.000
G1 X-0.012 Y-0.990 Z-2.268 F400.000
G1 X0.181 Y-0.973 Z-2.285 F400.000
G1 X0.367 Y-0.919 Z-2.302 F400.000
G1 X0.540 Y-0.830 Z-2.319 F400.000
G1 X0.691 Y-0.709 Z-2.336 F400.000
G1 X0.816 Y-0.560 Z-2.353 F400.000
G1 X0.910 Y-0.390 Z-2.371 F400.000
G1 X0.968 Y-0.205 Z-2.388 F400.000
G1 X0.990 Y-0.012 Z-2.405 F400.000
G1 X0.973 Y0.181 Z-2.422 F400.000
G1 X0.919 Y0.367 Z-2.439 F400.000
G1 X0.830 Y0.540 Z-2.457 F400.000
G1 X0.709 Y0.691 Z-2.474 F400.000
G1 X0.560 Y0.816 Z-2.491 F400.000
G1 X0.390 Y0.910 Z-2.508 F400.000
G1 X0.205 Y0.968 Z-2.525 F400.000
G1 X0.012 Y0.990 Z-2.542 F400.000
G1 X-0.181 Y0.973 Z-2.560 F400.000
G1 X-0.367 Y0.919 Z-2.577 F400.000
G1 X-0.540 Y0.830 Z-2.594 F400.000
G1 X-0.691 Y0.709 Z-2.611 F400.000
G1 X-0.816 Y0.560 Z-2.628 F400.000
G1 X-0.910 Y0.390 Z-2.645 F400.000
G1 X-0.968 Y0.205 Z-2.663 F400.000
G1 X-0.990 Y0.012 Z-2.680 F400.000
G1 X-0.973 Y-0.181 Z-2.697 F400.000
G1 X-0.919 Y-0.367 Z-2.714 F400.000
G1 X-0.830 Y-0.540 Z-2.731 F400.000
G1 X-0.709 Y-0.691 Z-2.749 F400.000
G1 X-0.560 Y-0.816 Z-2.766 F400.000
G1 X-0.390 Y-0.910 Z-2.783 F400.000
G1 X-0.205 Y-0.968 Z-2.800 F400.000
G1 X-0.012 Y-0.990 Z-2.817 F400.000
G1 X0.181 Y-0.973 Z-2.834 F400.000
G1 X0.367 Y-0.919 Z-2.852 F400.000
G1 X0.540 Y-0.830 Z-2.869 F400.000
G1 X0.691 Y-0.709 Z-2.886 F400.000
G1 X0.816 Y-0.560 Z-2.903 F400.000
G1 X0.910 Y-0.390 Z-2.920 F400.000
G1 X0.968 Y-0.205 Z-2.937 F400.000
G1 X0.990 Y-0.012 Z-2.955 F400.000
G1 X0.973 Y0.181 Z-2.972 F400.000
G1 X0.919 Y0.367 Z-2.989 F400.000
G1 X0.830 Y0.540 Z-3.006 F400.000
G1 X0.709 Y0.691 Z-3.023 F400.000
G1 X0.560 Y0.816 Z-3.041 F400.000
G1 X0.390 Y0.910 Z-3.058 F400.000
G1 X0.205 Y0.968 Z-3.075 F400.000
G1 X0.012 Y0.990 Z-3.092 F400.000
G1 X-0.181 Y0.973 Z-3.109 F400.000
G1 X-0.367 Y0.919 Z-3.126 F400.000
G1 X-0.540 Y0.830 Z-3.144 F400.000
G1 X-0.691 Y0.709 Z-3.161 F400.000
G1 X-0.816 Y0.560 Z-3.178 F400.000
G1 X-0.910 Y0.390 Z-3.195 F400.000
G1 X-0.968 Y0.205 Z-3.212 F400.000
G1 X-0.990 Y0.012 Z-3.230 F400.000
G1 X-0.973 Y-0.181 Z-3.247 F400.000
G1 X-0.919 Y-0.367 Z-3.264 F400.000
G1 X-0.830 Y-0.540 Z-3.281 F400.000
G1 X-0.709 Y-0.691 Z-3.298 F400.000
G1 X-0.560 Y-0.816 Z-3.315 F400.000
G1 X-0.390 Y-0.910 Z-3.333 F400.000
G1 X-0.205 Y-0.968 Z-3.350 F400.000
G1 X-0.012 Y-0.990 Z-3.367 F400.000
G1 X0.181 Y-0.973 Z-3.384 F400.000
G1 X0.367 Y-0.919 Z-3.401 F400.000
G1 X0.540 Y-0.830 Z-3.418 F400.000
G1 X0.691 Y-0.709 Z-3.436 F400.000
G1 X0.816 Y-0.560 Z-3.453 F400.000
G1 X0.910 Y-0.390 Z-3.470 F400.000
G1 X0.968 Y-0.205 Z-3.487 F400.000
G1 X0.990 Y-0.012 Z-3.504 F400.000
G1 X0.973 Y0.181 Z-3.522 F400.000
G1 X0.919 Y0.367 Z-3.539 F400.000
G1 X0.830 Y0.540 Z-3.556 F400.000
G1 X0.709 Y0.691 Z-3.573 F400.000
G1 X0.560 Y0.816 Z-3.590 F400.000
G1 X0.390 Y0.910 Z-3.607 F400.000
G1 X0.205 Y0.968 Z-3.625 F400.000
G1 X0.012 Y0.990 Z-3.642 F400.000
G1 X-0.181 Y0.973 Z-3.659 F400.000
G1 X-0.367 Y0.919 Z-3.676 F400.000
G1 X-0.540 Y0.830 Z-3.693 F400.000
G1 X-0.691 Y0.709 Z-3.711 F400.000
G1 X-0.816 Y0.560 Z-3.728 F400.000
G1 X-0.910 Y0.390 Z-3.745 F400.000
G1 X-0.968 Y0.205 Z-3.762 F400.000
G1 X-0.990 Y0.012 Z-3.779 F400.000
G1 X-0.973 Y-0.181 Z-3.796 F400.000
G1 X-0.919 Y-0.367 Z-3.814 F400.000
G1 X-0.830 Y-0.540 Z-3.831 F400.000
G1 X-0.709 Y-0.691 Z-3.848 F400.000
G1 X-0.560 Y-0.816 Z-3.865 F400.000
G1 X-0.390 Y-0.910 Z-3.882 F400.000
G1 X-0.205 Y-0.968 Z-3.899 F400.000
G1 X-0.012 Y-0.990 Z-3.917 F400.000
G1 X0.181 Y-0.973 Z-3.934 F400.000
G1 X0.367 Y-0.919 Z-3.951 F400.000
G1 X0.540 Y-0.830 Z-3.968 F400.000
G1 X0.691 Y-0.709 Z-3.985 F400.000
G1 X0.816 Y-0.560 Z-4.003 F400.000
G1 X0.910 Y-0.390 Z-4.020 F400.000
G1 X0.968 Y-0.205 Z-4.037 F400.000
G1 X0.990 Y-0.012 Z-4.054 F400.000
G1 X0.973 Y0.181 Z-4.071 F400.000
G1 X0.919 Y0.367 Z-4.088 F400.000
G1 X0.830 Y0.540 Z-4.106 F400.000
G1 X0.709 Y0.691 Z-4.123 F400.000
G1 X0.560 Y0.816 Z-4.140 F400.000
G1 X0.390 Y0.910 Z-4.157 F400.000
G1 X0.205 Y0.968 Z-4.174 F400.000
G1 X0.012 Y0.990 Z-4.192 F400.000
G1 X-0.181 Y0.973 Z-4.209 F400.000
G1 X-0.367 Y0.919 Z-4.226 F400.000
G1 X-0.540 Y0.830 Z-4.243 F400.000
G1 X-0.691 Y0.709 Z-4.260 F400.000
G1 X-0.816 Y0.560 Z-4.277 F400.000
G1 X-0.910 Y0.390 Z-4.295 F400.000
G1 X-0.968 Y0.205 Z-4.312 F400.000
G1 X-0.990 Y0.012 Z-4.329 F400.000
G1 X-0.973 Y-0.181 Z-4.346 F400.000
G1 X-0.919 Y-0.367 Z-4.363 F400.000
G1 X-0.830 Y-0.540 Z-4.380 F400.000
G1 X-0.709 Y-0.691 Z-4.398 F400.000
G1 X-0.560 Y-0.816 Z-4.415 F400.000
G1 X-0.390 Y-0.910 Z-4.432 F400.000
G1 X-0.205 Y-0.968 Z-4.449 F400.000
G1 X-0.012 Y-0.990 Z-4.466 F400.000
G1 X0.181 Y-0.973 Z-4.484 F400.000
G1 X0.367 Y-0.919 Z-4.501 F400.000
G1 X0.540 Y-0.830 Z-4.518 F400.000
G1 X0.691 Y-0.709 Z-4.535 F400.000
G1 X0.816 Y-0.560 Z-4.552 F400.000
G1 X0.910 Y-0.390 Z-4.569 F400.000
G1 X0.968 Y-0.205 Z-4.587 F400.000
G1 X0.990 Y-0.012 Z-4.604 F400.000
G1 X0.973 Y0.181 Z-4.621 F400.000
G1 X0.919 Y0.367 Z-4.638 F400.000
G1 X0.830 Y0.540 Z-4.655 F400.000
G1 X0.709 Y0.691 Z-4.673 F400.000
G1 X0.560 Y0.816 Z-4.690 F400.000
G1 X0.390 Y0.910 Z-4.707 F400.000
G1 X0.205 Y0.968 Z-4.724 F400.000
G1 X0.012 Y0.990 Z-4.741 F400.000
G1 X-0.181 Y0.973 Z-4.758 F400.000
G1 X-0.367 Y0.919 Z-4.776 F400.000
G1 X-0.540 Y0.830 Z-4.793 F400.000
G1 X-0.691 Y0.709 Z-4.810 F400.000
G1 X-0.816 Y0.560 Z-4.827 F400.000
G1 X-0.910 Y0.390 Z-4.844 F400.000
G1 X-0.968 Y0.205 Z-4.861 F400.000
G1 X-0.990 Y0.012 Z-4.879 F400.000
G1 X-0.973 Y-0.181 Z-4.896 F400.000
G1 X-0.919 Y-0.367 Z-4.913 F400.000
G1 X-0.830 Y-0.540 Z-4.930 F400.000
G1 X-0.709 Y-0.691 Z-4.947 F400.000
G1 X-0.560 Y-0.816 Z-4.965 F400.000
G1 X-0.390 Y-0.910 Z-4.982 F400.000
G1 X-0.205 Y-0.968 Z-4.999 F400.000
G1 X-0.012 Y-0.990 Z-5.000 F400.000
G1 X0.181 Y-0.973 Z-5.000 F400.000
G1 X0.367 Y-0.919 Z-5.000 F400.000
G1 X0.540 Y-0.830 Z-5.000 F400.000
G1 X0.691 Y-0.709 Z-5.000 F400.000
G1 X0.816 Y-0.560 Z-5.000 F400.000
G1 X0.910 Y-0.390 Z-5.000 F400.000
G1 X0.968 Y-0.205 Z-5.000 F400.000
G1 X0.990 Y-0.012 Z-5.000 F400.000
G1 X0.973 Y0.181 Z-5.000 F400.000
G1 X0.919 Y0.367 Z-5.000 F400.000
G1 X0.830 Y0.540 Z-5.000 F400.000
G1 X0.709 Y0.691 Z-5.000 F400.000
G1 X0.560 Y0.816 Z-5.000 F400.000
G1 X0.390 Y0.910 Z-5.000 F400.000
G1 X0.205 Y0.968 Z-5.000 F400.000
G1 X0.012 Y0.990 Z-5.000 F400.000
G1 X-0.181 Y0.973 Z-5.000 F400.000
G1 X-0.367 Y0.919 Z-5.000 F400.000
G1 X-0.540 Y0.830 Z-5.000 F400.000
G1 X-0.691 Y0.709 Z-5.000 F400.000
G1 X-0.816 Y0.560 Z-5.000 F400.000
G1 X-0.910 Y0.390 Z-5.000 F400.000
G1 X-0.968 Y0.205 Z-5.000 F400.000
G1 X-0.990 Y0.012 Z-5.000 F400.000
G1 X-0.973 Y-0.181 Z-5.000 F400.000
G1 X-0.919 Y-0.367 Z-5.000 F400.000
G1 X-0.830 Y-0.540 Z-5.000 F400.000
G1 X-0.709 Y-0.691 Z-5.000 F400.000
G1 X-0.560 Y-0.816 Z-5.000 F400.000
G1 X-0.390 Y-0.910 Z-5.000 F400.000
G1 X-0.205 Y-0.968 Z-5.000 F400.000
(Adaptive - depth: -5.000000)
G1 X0.000 Y-1.000 F400.000
G1 X0.086 Y-1.075 F400.000
G1 X0.252 Y-1.124 F400.000
G1 X0.421 Y-1.124 F400.000
G1 X0.477 Y-1.113 F400.000
G1 X0.711 Y-1.038 F400.000
G1 X0.895 Y-0.921 F400.000
G1 X1.004 Y-0.820 F400.000
G1 X1.094 Y-0.703 F400.000
G1 X1.184 Y-0.564 F400.000
G1 X1.278 Y-0.353 F400.000
G1 X1.323 Y-0.139 F400.000
G1 X1.335 Y0.030 F400.000
G1 X1.320 Y0.199 F400.000
G1 X1.286 Y0.380 F400.000
G1 X1.195 Y0.605 F400.000
G1 X1.098 Y0.774 F400.000
G1 X0.966 Y0.932 F400.000
G1 X0.831 Y1.056 F400.000
G1 X0.665 Y1.165 F400.000
G1 X0.489 Y1.252 F400.000
G1 X0.274 Y1.320 F400.000
G1 X0.071 Y1.342 F400.000
G1 X-0.098 Y1.342 F400.000
G1 X-0.293 Y1.316 F400.000
G1 X-0.496 Y1.256 F400.000
G1 X-0.692 Y1.165 F400.000
G1 X-0.865 Y1.045 F400.000
G1 X-0.996 Y0.921 F400.000
G1 X-1.124 Y0.763 F400.000
G1 X-1.218 Y0.590 F400.000
G1 X-1.286 Y0.410 F400.000
G1 X-1.327 Y0.218 F400.000
G1 X-1.346 Y0.023 F400.000
G1 X-1.331 Y-0.199 F400.000
G1 X-1.289 Y-0.395 F400.000
G1 X-1.214 Y-0.586 F400.000
G1 X-1.124 Y-0.744 F400.000
G1 X-1.000 Y-0.898 F400.000
G1 X-0.861 Y-1.034 F400.000
G1 X-0.684 Y-1.169 F400.000
G1 X-0.485 Y-1.301 F400.000
G1 X-0.259 Y-1.406 F400.000
G1 X-0.019 Y-1.474 F400.000
G1 X0.338 Y-1.496 F400.000
G1 X0.583 Y-1.466 F400.000
G1 X0.816 Y-1.387 F400.000
G1 X0.970 Y-1.301 F400.000
G1 X1.098 Y-1.207 F400.000
G1 X1.248 Y-1.079 F400.000
G1 X1.410 Y-0.891 F400.000
G1 X1.541 Y-0.692 F400.000
G1 X1.628 Y-0.474 F400.000
G1 X1.673 Y-0.305 F400.000
G1 X1.699 Y-0.094 F400.000
G1 X1.707 Y0.105 F400.000
G1 X1.677 Y0.350 F400.000
G1 X1.620 Y0.564 F400.000
G1 X1.538 Y0.774 F400.000
G1 X1.421 Y0.981 F400.000
G1 X1.278 Y1.162 F400.000
G1 X1.135 Y1.301 F400.000
G1 X0.962 Y1.440 F400.000
G1 X0.748 Y1.560 F400.000
G1 X0.541 Y1.647 F400.000
G1 X0.320 Y1.707 F400.000
G1 X0.086 Y1.737 F400.000
G1 X-0.135 Y1.737 F400.000
G1 X-0.361 Y1.711 F400.000
G1 X-0.583 Y1.654 F400.000
G1 X-0.793 Y1.568 F400.000
G1 X-0.992 Y1.455 F400.000
G1 X-1.169 Y1.308 F400.000
G1 X-1.305 Y1.165 F400.000
G1 X-1.432 Y0.989 F400.000
G1 X-1.541 Y0.805 F400.000
G1 X-1.635 Y0.571 F400.000
G1 X-1.695 Y0.350 F400.000
G1 X-1.729 Y0.117 F400.000
G1 X-1.733 Y-0.124 F400.000
G1 X-1.707 Y-0.357 F400.000
G1 X-1.639 Y-0.583 F400.000
G1 X-1.560 Y-0.767 F400.000
G1 X-1.444 Y-0.959 F400.000
G1 X-1.312 Y-1.135 F400.000
G1 X-1.147 Y-1.320 F400.000
G1 X-0.955 Y-1.481 F400.000
G1 X-0.748 Y-1.620 F400.000
G1 X-0.530 Y-1.737 F400.000
G1 X-0.297 Y-1.827 F400.000
G1 X-0.053 Y-1.880 F400.000
G1 X0.158 Y-1.902 F400.000
G1 X0.398 Y-1.898 F400.000
G1 X0.632 Y-1.861 F400.000
G1 X0.853 Y-1.797 F400.000
G1 X1.071 Y-1.703 F400.000
G1 X1.274 Y-1.583 F400.000
G1 X1.462 Y-1.440 F400.000
G1 X1.632 Y-1.274 F400.000
G1 X1.778 Y-1.086 F400.000
G1 X1.898 Y-0.883 F400.000
G1 X1.992 Y-0.665 F400.000
G1 X2.060 Y-0.436 F400.000
G1 X2.098 Y-0.199 F400.000
G1 X2.117 Y0.034 F400.000
G1 X2.102 Y0.278 F400.000
G1 X2.056 Y0.523 F400.000
G1 X1.985 Y0.759 F400.000
G1 X1.887 Y0.985 F400.000
G1 X1.763 Y1.199 F400.000
G1 X1.617 Y1.398 F400.000
G1 X1.444 Y1.579 F400.000
G1 X1.252 Y1.737 F400.000
G1 X1.045 Y1.872 F400.000
G1 X0.823 Y1.985 F400.000
G1 X0.590 Y2.071 F400.000
G1 X0.346 Y2.128 F400.000
G1 X0.098 Y2.158 F400.000
G1 X-0.147 Y2.158 F400.000
G1 X-0.391 Y2.128 F400.000
G1 X-0.632 Y2.071 F400.000
G1 X-0.865 Y1.985 F400.000
G1 X-1.086 Y1.872 F400.000
G1 X-1.293 Y1.737 F400.000
G1 X-1.481 Y1.575 F400.000
G1 X-1.650 Y1.395 F400.000
G1 X-1.797 Y1.195 F400.000
G1 X-1.921 Y0.981 F400.000
G1 X-2.019 Y0.752 F400.000
G1 X-2.090 Y0.511 F400.000
G1 X-2.132 Y0.267 F400.000
G1 X-2.147 Y0.019 F400.000
G1 X-2.139 Y-0.226 F400.000
G1 X-2.102 Y-0.470 F400.000
G1 X-2.038 Y-0.707 F400.000
G1 X-1.951 Y-0.936 F400.000
G1 X-1.838 Y-1.154 F400.000
G1 X-1.703 Y-1.361 F400.000
G1 X-1.545 Y-1.553 F400.000
G1 X-1.365 Y-1.726 F400.000
G1 X-1.169 Y-1.876 F400.000
G1 X-0.959 Y-2.008 F400.000
G1 X-0.737 Y-2.124 F400.000
G1 X-0.504 Y-2.211 F400.000
G1 X-0.263 Y-2.274 F400.000
G1 X-0.019 Y-2.320 F400.000
G1 X0.226 Y-2.338 F400.000
G1 X0.470 Y-2.331 F400.000
G1 X0.714 Y-2.289 F400.000
G1 X0.955 Y-2.229 F400.000
G1 X1.184 Y-2.139 F400.000
G1 X1.402 Y-2.023 F400.000
G1 X1.609 Y-1.887 F400.000
G1 X1.797 Y-1.729 F400.000
G1 X1.966 Y-1.549 F400.000
G1 X2.117 Y-1.350 F400.000
G1 X2.244 Y-1.135 F400.000
G1 X2.350 Y-0.910 F400.000
G1 X2.436 Y-0.677 F400.000
G1 X2.496 Y-0.432 F400.000
G1 X2.530 Y-0.184 F400.000
G1 X2.541 Y0.060 F400.000
G1 X2.526 Y0.305 F400.000
G1 X2.489 Y0.549 F400.000
G1 X2.432 Y0.789 F400.000
G1 X2.350 Y1.023 F400.000
G1 X2.248 Y1.248 F400.000
G1 X2.117 Y1.459 F400.000
G1 X1.966 Y1.658 F400.000
G1 X1.797 Y1.838 F400.000
G1 X1.613 Y2.008 F400.000
G1 X1.414 Y2.154 F400.000
G1 X1.199 Y2.282 F400.000
G1 X0.977 Y2.391 F400.000
G1 X0.744 Y2.477 F400.000
G1 X0.504 Y2.541 F400.000
G1 X0.259 Y2.583 F400.000
G1 X0.011 Y2.602 F400.000
G1 X-0.233 Y2.598 F400.000
G1 X-0.477 Y2.568 F400.000
G1 X-0.718 Y2.515 F400.000
G1 X-0.955 Y2.440 F400.000
G1 X-1.180 Y2.342 F400.000
G1 X-1.391 Y2.214 F400.000
G1 X-1.594 Y2.071 F400.000
G1 X-1.778 Y1.906 F400.000
G1 X-1.947 Y1.726 F400.000
G1 X-2.098 Y1.526 F400.000
G1 X-2.229 Y1.316 F400.000
G1 X-2.342 Y1.094 F400.000
G1 X-2.440 Y0.865 F400.000
G1 X-2.511 Y0.624 F400.000
G1 X-2.564 Y0.380 F400.000
G1 X-2.583 Y0.132 F400.000
G1 X-2.583 Y-0.113 F400.000
G1 X-2.560 Y-0.357 F400.000
G1 X-2.523 Y-0.602 F400.000
G1 X-2.459 Y-0.838 F400.000
G1 X-2.376 Y-1.071 F400.000
G1 X-2.274 Y-1.297 F400.000
G1 X-2.154 Y-1.511 F400.000
G1 X-2.008 Y-1.711 F400.000
G1 X-1.846 Y-1.898 F400.000
G1 X-1.665 Y-2.068 F400.000
G1 X-1.466 Y-2.218 F400.000
G1 X-1.259 Y-2.357 F400.000
G1 X-1.041 Y-2.474 F400.000
G1 X-0.812 Y-2.571 F400.000
G1 X-0.579 Y-2.658 F400.000
G1 X-0.338 Y-2.718 F400.000
G1 X-0.094 Y-2.759 F400.000
G1 X0.150 Y-2.786 F400.000
G1 X0.395 Y-2.789 F400.000
G1 X0.639 Y-2.763 F400.000
G1 X0.883 Y-2.722 F400.000
G1 X1.120 Y-2.658 F400.000
G1 X1.350 Y-2.568 F400.000
G1 X1.571 Y-2.459 F400.000
G1 X1.782 Y-2.331 F400.000
G1 X1.974 Y-2.177 F400.000
G1 X2.154 Y-2.008 F400.000
G1 X2.323 Y-1.827 F400.000
G1 X2.470 Y-1.624 F400.000
G1 X2.605 Y-1.417 F400.000
G1 X2.718 Y-1.195 F400.000
G1 X2.812 Y-0.966 F400.000
G1 X2.887 Y-0.729 F400.000
G1 X2.944 Y-0.485 F400.000
G1 X2.977 Y-0.237 F400.000
G1 X2.992 Y0.008 F400.000
G1 X2.985 Y0.252 F400.000
G1 X2.955 Y0.496 F400.000
G1 X2.906 Y0.737 F400.000
G1 X2.846 Y0.977 F400.000
G1 X2.763 Y1.211 F400.000
G1 X2.662 Y1.436 F400.000
G1 X2.538 Y1.650 F400.000
G1 X2.398 Y1.853 F400.000
G1 X2.241 Y2.045 F400.000
G1 X2.068 Y2.222 F400.000
G1 X1.880 Y2.383 F400.000
G1 X1.677 Y2.530 F400.000
G1 X1.462 Y2.658 F400.000
G1 X1.237 Y2.767 F400.000
G1 X1.008 Y2.865 F400.000
G1 X0.771 Y2.940 F400.000
G1 X0.526 Y2.996 F400.000
G1 X0.278 Y3.034 F400.000
G1 X0.030 Y3.053 F400.000
G1 X-0.214 Y3.053 F400.000
G1 X-0.459 Y3.030 F400.000
G1 X-0.703 Y2.989 F400.000
G1 X-0.944 Y2.929 F400.000
G1 X-1.177 Y2.850 F400.000
G1 X-1.398 Y2.741 F400.000
G1 X-1.613 Y2.617 F400.000
G1 X-1.816 Y2.474 F400.000
G1 X-2.008 Y2.316 F400.000
G1 X-2.184 Y2.143 F400.000
G1 X-2.346 Y1.955 F400.000
G1 X-2.492 Y1.752 F400.000
G1 X-2.624 Y1.541 F400.000
G1 X-2.842 Y1.094 F400.000
G1 X-2.929 Y0.861 F400.000
G1 X-2.985 Y0.617 F400.000
G1 X-3.030 Y0.372 F400.000
G1 X-3.053 Y0.124 F400.000
G1 X-3.053 Y-0.120 F400.000
G1 X-3.034 Y-0.365 F400.000
G1 X-2.996 Y-0.609 F400.000
G1 X-2.868 Y-1.086 F400.000
G1 X-2.778 Y-1.316 F400.000
G1 X-2.673 Y-1.538 F400.000
G1 X-2.545 Y-1.748 F400.000
G1 X-2.402 Y-1.951 F400.000
G1 X-2.244 Y-2.143 F400.000
G1 X-2.071 Y-2.320 F400.000
G1 X-1.883 Y-2.481 F400.000
G1 X-1.684 Y-2.628 F400.000
G1 X-1.256 Y-2.883 F400.000
G1 X-1.030 Y-2.985 F400.000
G1 X-0.797 Y-3.071 F400.000
G1 X-0.560 Y-3.143 F400.000
G1 X-0.316 Y-3.195 F400.000
G1 X-0.068 Y-3.233 F400.000
G1 X0.177 Y-3.252 F400.000
G1 X0.421 Y-3.252 F400.000
G1 X0.665 Y-3.237 F400.000
G1 X0.910 Y-3.203 F400.000
G1 X1.147 Y-3.139 F400.000
G1 X1.380 Y-3.064 F400.000
G1 X1.605 Y-2.966 F400.000
G1 X1.823 Y-2.846 F400.000
G1 X2.030 Y-2.711 F400.000
G1 X2.414 Y-2.395 F400.000
G1 X2.586 Y-2.214 F400.000
G1 X2.744 Y-2.023 F400.000
G1 X2.891 Y-1.820 F400.000
G1 X3.019 Y-1.605 F400.000
G1 X3.132 Y-1.383 F400.000
G1 X3.229 Y-1.154 F400.000
G1 X3.308 Y-0.917 F400.000
G1 X3.368 Y-0.677 F400.000
G1 X3.414 Y-0.432 F400.000
G1 X3.440 Y-0.184 F400.000
G1 X3.447 Y0.060 F400.000
G1 X3.417 Y0.549 F400.000
G1 X3.376 Y0.793 F400.000
G1 X3.320 Y1.034 F400.000
G1 X3.248 Y1.271 F400.000
G1 X3.162 Y1.500 F400.000
G1 X3.045 Y1.718 F400.000
G1 X2.917 Y1.932 F400.000
G1 X2.617 Y2.323 F400.000
G1 X2.444 Y2.504 F400.000
G1 X2.259 Y2.669 F400.000
G1 X2.064 Y2.823 F400.000
G1 X1.857 Y2.962 F400.000
G1 X1.643 Y3.086 F400.000
G1 X1.421 Y3.195 F400.000
G1 X1.192 Y3.289 F400.000
G1 X0.955 Y3.365 F400.000
G1 X0.470 Y3.477 F400.000
G1 X0.222 Y3.508 F400.000
G1 X-0.023 Y3.523 F400.000
G1 X-0.267 Y3.526 F400.000
G1 X-0.511 Y3.504 F400.000
G1 X-0.756 Y3.470 F400.000
G1 X-0.996 Y3.417 F400.000
G1 X-1.229 Y3.335 F400.000
G1 X-1.459 Y3.241 F400.000
G1 X-1.680 Y3.128 F400.000
G1 X-1.891 Y2.996 F400.000
G1 X-2.090 Y2.850 F400.000
G1 X-2.278 Y2.688 F400.000
G1 X-2.459 Y2.519 F400.000
G1 X-2.624 Y2.335 F400.000
G1 X-2.778 Y2.139 F400.000
G1 X-2.921 Y1.936 F400.000
G1 X-3.169 Y1.504 F400.000
G1 X-3.271 Y1.278 F400.000
G1 X-3.361 Y1.045 F400.000
G1 X-3.429 Y0.805 F400.000
G1 X-3.481 Y0.560 F400.000
G1 X-3.508 Y0.312 F400.000
G1 X-3.519 Y0.064 F400.000
G1 X-3.511 Y-0.180 F400.000
G1 X-3.492 Y-0.425 F400.000
G1 X-3.459 Y-0.669 F400.000
G1 X-3.406 Y-0.910 F400.000
G1 X-3.342 Y-1.150 F400.000
G1 X-3.267 Y-1.383 F400.000
G1 X-3.165 Y-1.609 F400.000
G1 X-3.053 Y-1.831 F400.000
G1 X-2.925 Y-2.041 F400.000
G1 X-2.778 Y-2.241 F400.000
G1 X-2.620 Y-2.432 F400.000
G1 X-2.447 Y-2.613 F400.000
G1 X-2.263 Y-2.778 F400.000
G1 X-2.068 Y-2.932 F400.000
G1 X-1.650 Y-3.203 F400.000
G1 X-1.429 Y-3.320 F400.000
G1 X-1.203 Y-3.421 F400.000
G1 X-0.970 Y-3.511 F400.000
G1 X-0.733 Y-3.586 F400.000
G1 X-0.492 Y-3.647 F400.000
G1 X-0.248 Y-3.692 F400.000
G1 X0.000 Y-3.722 F400.000
G1 X0.244 Y-3.737 F400.000
G1 X0.489 Y-3.737 F400.000
G1 X0.733 Y-3.714 F400.000
G1 X0.977 Y-3.669 F400.000
G1 X1.218 Y-3.609 F400.000
G1 X1.455 Y-3.538 F400.000
G1 X1.684 Y-3.444 F400.000
G1 X1.906 Y-3.335 F400.000
G1 X2.120 Y-3.211 F400.000
G1 X2.327 Y-3.071 F400.000
G1 X2.523 Y-2.921 F400.000
G1 X2.707 Y-2.756 F400.000
G1 X2.883 Y-2.583 F400.000
G1 X3.045 Y-2.395 F400.000
G1 X3.195 Y-2.199 F400.000
G1 X3.335 Y-1.992 F400.000
G1 X3.462 Y-1.778 F400.000
G1 X3.575 Y-1.556 F400.000
G1 X3.673 Y-1.327 F400.000
G1 X3.759 Y-1.094 F400.000
G1 X3.820 Y-0.853 F400.000
G1 X3.868 Y-0.609 F400.000
G1 X3.898 Y-0.361 F400.000
G1 X3.917 Y-0.113 F400.000
G1 X3.925 Y0.132 F400.000
G1 X3.914 Y0.376 F400.000
G1 X3.891 Y0.620 F400.000
G1 X3.857 Y0.865 F400.000
G1 X3.808 Y1.105 F400.000
G1 X3.737 Y1.342 F400.000
G1 X3.654 Y1.575 F400.000
G1 X3.545 Y1.797 F400.000
G1 X3.425 Y2.011 F400.000
G1 X3.147 Y2.421 F400.000
G1 X2.989 Y2.609 F400.000
G1 X2.820 Y2.789 F400.000
G1 X2.643 Y2.962 F400.000
G1 X2.252 Y3.271 F400.000
G1 X2.045 Y3.406 F400.000
G1 X1.831 Y3.530 F400.000
G1 X1.609 Y3.639 F400.000
G1 X1.380 Y3.737 F400.000
G1 X1.147 Y3.820 F400.000
G1 X0.906 Y3.887 F400.000
G1 X0.662 Y3.944 F400.000
G1 X0.414 Y3.985 F400.000
G1 X-0.079 Y4.011 F400.000
G1 X-0.323 Y4.004 F400.000
G1 X-0.568 Y3.977 F400.000
G1 X-0.812 Y3.940 F400.000
G1 X-1.053 Y3.883 F400.000
G1 X-1.289 Y3.812 F400.000
G1 X-1.523 Y3.729 F400.000
G1 X-1.748 Y3.632 F400.000
G1 X-1.962 Y3.511 F400.000
G1 X-2.173 Y3.380 F400.000
G1 X-2.568 Y3.079 F400.000
G1 X-2.748 Y2.910 F400.000
G1 X-2.917 Y2.729 F400.000
G1 X-3.079 Y2.541 F400.000
G1 X-3.226 Y2.342 F400.000
G1 X-3.361 Y2.135 F400.000
G1 X-3.605 Y1.703 F400.000
G1 X-3.711 Y1.477 F400.000
G1 X-3.805 Y1.248 F400.000
G1 X-3.876 Y1.008 F400.000
G1 X-3.936 Y0.767 F400.000
G1 X-3.970 Y0.519 F400.000
G1 X-4.000 Y0.023 F400.000
G1 X-3.996 Y-0.222 F400.000
G1 X-3.977 Y-0.466 F400.000
G1 X-3.947 Y-0.711 F400.000
G1 X-3.902 Y-0.955 F400.000
G1 X-3.846 Y-1.195 F400.000
G1 X-3.774 Y-1.432 F400.000
G1 X-3.579 Y-1.887 F400.000
G1 X-3.459 Y-2.105 F400.000
G1 X-3.323 Y-2.312 F400.000
G1 X-3.023 Y-2.707 F400.000
G1 X-2.853 Y-2.887 F400.000
G1 X-2.673 Y-3.060 F400.000
G1 X-2.485 Y-3.222 F400.000
G1 X-2.286 Y-3.372 F400.000
G1 X-2.079 Y-3.511 F400.000
G1 X-1.865 Y-3.639 F400.000
G1 X-1.643 Y-3.752 F400.000
G1 X-1.184 Y-3.951 F400.000
G1 X-0.947 Y-4.030 F400.000
G1 X-0.466 Y-4.158 F400.000
G1 X-0.222 Y-4.203 F400.000
G1 X0.267 Y-4.233 F400.000
G1 X0.511 Y-4.229 F400.000
G1 X0.756 Y-4.203 F400.000
G1 X1.000 Y-4.165 F400.000
G1 X1.241 Y-4.113 F400.000
G1 X1.477 Y-4.041 F400.000
G1 X1.711 Y-3.959 F400.000
G1 X1.936 Y-3.861 F400.000
G1 X2.154 Y-3.748 F400.000
G1 X2.571 Y-3.489 F400.000
G1 X2.962 Y-3.180 F400.000
G1 X3.147 Y-3.011 F400.000
G1 X3.320 Y-2.831 F400.000
G1 X3.481 Y-2.643 F400.000
G1 X3.632 Y-2.447 F400.000
G1 X3.771 Y-2.241 F400.000
G1 X3.898 Y-2.026 F400.000
G1 X4.015 Y-1.808 F400.000
G1 X4.195 Y-1.346 F400.000
G1 X4.263 Y-1.105 F400.000
G1 X4.320 Y-0.861 F400.000
G1 X4.361 Y-0.613 F400.000
G1 X4.406 Y-0.117 F400.000
G1 X4.414 Y0.128 F400.000
G1 X4.391 Y0.617 F400.000
G1 X4.365 Y0.861 F400.000
G1 X4.256 Y1.342 F400.000
G1 X4.180 Y1.579 F400.000
G1 X4.090 Y1.808 F400.000
G1 X3.977 Y2.030 F400.000
G1 X3.722 Y2.455 F400.000
G1 X3.579 Y2.658 F400.000
G1 X3.425 Y2.850 F400.000
G1 X3.259 Y3.034 F400.000
G1 X3.086 Y3.211 F400.000
G1 X2.902 Y3.376 F400.000
G1 X2.711 Y3.534 F400.000
G1 X2.511 Y3.680 F400.000
G1 X2.301 Y3.816 F400.000
G1 X2.086 Y3.940 F400.000
G1 X1.865 Y4.053 F400.000
G1 X1.635 Y4.154 F400.000
G1 X1.402 Y4.241 F400.000
G1 X1.165 Y4.316 F400.000
G1 X0.925 Y4.380 F400.000
G1 X0.680 Y4.429 F400.000
G1 X0.432 Y4.466 F400.000
G1 X0.184 Y4.489 F400.000
G1 X-0.060 Y4.500 F400.000
G1 X-0.305 Y4.496 F400.000
G1 X-0.549 Y4.481 F400.000
G1 X-0.793 Y4.451 F400.000
G1 X-1.034 Y4.402 F400.000
G1 X-1.274 Y4.342 F400.000
G1 X-1.511 Y4.267 F400.000
G1 X-1.741 Y4.177 F400.000
G1 X-1.966 Y4.071 F400.000
G1 X-2.184 Y3.955 F400.000
G1 X-2.395 Y3.823 F400.000
G1 X-2.598 Y3.680 F400.000
G1 X-2.789 Y3.526 F400.000
G1 X-3.154 Y3.188 F400.000
G1 X-3.320 Y3.004 F400.000
G1 X-3.628 Y2.613 F400.000
G1 X-3.771 Y2.410 F400.000
G1 X-3.902 Y2.199 F400.000
G1 X-4.135 Y1.759 F400.000
G1 X-4.226 Y1.526 F400.000
G1 X-4.301 Y1.289 F400.000
G1 X-4.365 Y1.049 F400.000
G1 X-4.447 Y0.556 F400.000
G1 X-4.474 Y0.308 F400.000
G1 X-4.489 Y-0.184 F400.000
G1 X-4.477 Y-0.429 F400.000
G1 X-4.455 Y-0.673 F400.000
G1 X-4.421 Y-0.917 F400.000
G1 X-4.376 Y-1.158 F400.000
G1 X-4.226 Y-1.628 F400.000
G1 X-4.132 Y-1.857 F400.000
G1 X-3.898 Y-2.293 F400.000
G1 X-3.774 Y-2.508 F400.000
G1 X-3.481 Y-2.906 F400.000
G1 X-3.323 Y-3.098 F400.000
G1 X-3.154 Y-3.278 F400.000
G1 X-2.977 Y-3.451 F400.000
G1 X-2.586 Y-3.759 F400.000
G1 X-2.169 Y-4.030 F400.000
G1 X-1.951 Y-4.147 F400.000
G1 X-1.500 Y-4.353 F400.000
G1 X-1.030 Y-4.519 F400.000
G1 X-0.789 Y-4.586 F400.000
G1 X-0.545 Y-4.643 F400.000
G1 X-0.301 Y-4.688 F400.000
G1 X0.192 Y-4.726 F400.000
G1 X0.436 Y-4.729 F400.000
G1 X0.680 Y-4.714 F400.000
G1 X0.925 Y-4.688 F400.000
G1 X1.169 Y-4.647 F400.000
G1 X1.410 Y-4.594 F400.000
G1 X1.647 Y-4.526 F400.000
G1 X2.102 Y-4.331 F400.000
G1 X2.323 Y-4.222 F400.000
G1 X2.541 Y-4.102 F400.000
G1 X2.752 Y-3.970 F400.000
G1 X3.150 Y-3.677 F400.000
G1 X3.338 Y-3.515 F400.000
G1 X3.519 Y-3.346 F400.000
G1 X3.692 Y-3.169 F400.000
G1 X3.857 Y-2.981 F400.000
G1 X4.011 Y-2.786 F400.000
G1 X4.278 Y-2.368 F400.000
G1 X4.395 Y-2.150 F400.000
G1 X4.496 Y-1.925 F400.000
G1 X4.669 Y-1.459 F400.000
G1 X4.737 Y-1.218 F400.000
G1 X4.793 Y-0.974 F400.000
G1 X4.838 Y-0.729 F400.000
G1 X4.872 Y-0.481 F400.000
G1 X4.910 Y0.011 F400.000
G1 X4.902 Y0.500 F400.000
G1 X4.887 Y0.744 F400.000
G1 X4.857 Y0.989 F400.000
G1 X4.741 Y1.470 F400.000
G1 X4.665 Y1.703 F400.000
G1 X4.571 Y1.932 F400.000
G1 X4.466 Y2.158 F400.000
G1 X4.226 Y2.590 F400.000
G1 X4.086 Y2.797 F400.000
G1 X3.778 Y3.188 F400.000
G1 X3.617 Y3.376 F400.000
G1 X3.444 Y3.553 F400.000
G1 X3.075 Y3.887 F400.000
G1 X2.880 Y4.041 F400.000
G1 X2.462 Y4.308 F400.000
G1 X2.023 Y4.534 F400.000
G1 X1.793 Y4.632 F400.000
G1 X1.560 Y4.718 F400.000
G1 X1.323 Y4.793 F400.000
G1 X1.083 Y4.857 F400.000
G1 X0.838 Y4.910 F400.000
G1 X0.590 Y4.951 F400.000
G1 X0.342 Y4.977 F400.000
G1 X0.094 Y4.992 F400.000
G1 X-0.150 Y4.996 F400.000
G1 X-0.395 Y4.989 F400.000
G1 X-0.639 Y4.970 F400.000
G1 X-0.883 Y4.940 F400.000
G1 X-1.128 Y4.895 F400.000
G1 X-1.368 Y4.838 F400.000
G1 X-1.605 Y4.771 F400.000
G1 X-2.064 Y4.586 F400.000
G1 X-2.286 Y4.477 F400.000
G1 X-2.500 Y4.353 F400.000
G1 X-2.707 Y4.218 F400.000
G1 X-3.102 Y3.921 F400.000
G1 X-3.286 Y3.756 F400.000
G1 X-3.462 Y3.583 F400.000
G1 X-3.797 Y3.218 F400.000
G1 X-4.102 Y2.823 F400.000
G1 X-4.244 Y2.620 F400.000
G1 X-4.489 Y2.188 F400.000
G1 X-4.598 Y1.962 F400.000
G1 X-4.692 Y1.733 F400.000
G1 X-4.767 Y1.496 F400.000
G1 X-4.831 Y1.256 F400.000
G1 X-4.921 Y0.767 F400.000
G1 X-4.955 Y0.519 F400.000
G1 X-4.985 Y0.023 F400.000
G1 X-4.989 Y-0.222 F400.000
G1 X-4.959 Y-0.711 F400.000
G1 X-4.929 Y-0.955 F400.000
G1 X-4.820 Y-1.436 F400.000
G1 X-4.748 Y-1.673 F400.000
G1 X-4.662 Y-1.906 F400.000
G1 X-4.564 Y-2.132 F400.000
G1 X-4.455 Y-2.353 F400.000
G1 X-4.335 Y-2.568 F400.000
G1 X-4.203 Y-2.778 F400.000
G1 X-3.910 Y-3.180 F400.000
G1 X-3.748 Y-3.368 F400.000
G1 X-3.579 Y-3.549 F400.000
G1 X-3.402 Y-3.722 F400.000
G1 X-3.218 Y-3.887 F400.000
G1 X-3.026 Y-4.045 F400.000
G1 X-2.620 Y-4.331 F400.000
G1 X-2.188 Y-4.579 F400.000
G1 X-1.737 Y-4.793 F400.000
G1 X-1.271 Y-4.970 F400.000
G1 X-0.793 Y-5.113 F400.000
G1 X-0.301 Y-5.199 F400.000
G1 X-0.053 Y-5.226 F400.000
G1 X0.436 Y-5.241 F400.000
G1 X0.680 Y-5.229 F400.000
G1 X0.925 Y-5.207 F400.000
G1 X1.169 Y-5.173 F400.000
G1 X1.647 Y-5.045 F400.000
G1 X2.113 Y-4.876 F400.000
G1 X2.338 Y-4.774 F400.000
G1 X2.774 Y-4.541 F400.000
G1 X2.985 Y-4.410 F400.000
G1 X3.383 Y-4.117 F400.000
G1 X3.579 Y-3.962 F400.000
G1 X3.944 Y-3.628 F400.000
G1 X4.267 Y-3.248 F400.000
G1 X4.560 Y-2.846 F400.000
G1 X4.692 Y-2.635 F400.000
G1 X4.925 Y-2.195 F400.000
G1 X5.026 Y-1.970 F400.000
G1 X5.117 Y-1.737 F400.000
G1 X5.252 Y-1.256 F400.000
G1 X5.346 Y-0.767 F400.000
G1 X5.376 Y-0.519 F400.000
G1 X5.414 Y-0.023 F400.000
G1 X5.417 Y0.222 F400.000
G1 X5.398 Y0.711 F400.000
G1 X5.376 Y0.955 F400.000
G1 X5.274 Y1.436 F400.000
G1 X5.207 Y1.673 F400.000
G1 X5.124 Y1.906 F400.000
G1 X5.030 Y2.135 F400.000
G1 X4.812 Y2.575 F400.000
G1 X4.549 Y2.996 F400.000
G1 X4.410 Y3.203 F400.000
G1 X4.102 Y3.590 F400.000
G1 X3.936 Y3.774 F400.000
G1 X3.583 Y4.124 F400.000
G1 X3.188 Y4.429 F400.000
G1 X2.771 Y4.699 F400.000
G1 X2.331 Y4.932 F400.000
G1 X2.105 Y5.038 F400.000
G1 X1.876 Y5.132 F400.000
G1 X1.639 Y5.214 F400.000
G1 X1.162 Y5.350 F400.000
G1 X0.917 Y5.402 F400.000
G1 X0.673 Y5.444 F400.000
G1 X0.425 Y5.474 F400.000
G1 X0.177 Y5.492 F400.000
G1 X-0.312 Y5.500 F400.000
G1 X-0.556 Y5.489 F400.000
G1 X-0.801 Y5.466 F400.000
G1 X-1.045 Y5.432 F400.000
G1 X-1.289 Y5.387 F400.000
G1 X-1.530 Y5.331 F400.000
G1 X-1.767 Y5.263 F400.000
G1 X-2.226 Y5.079 F400.000
G1 X-2.447 Y4.970 F400.000
G1 X-2.872 Y4.718 F400.000
G1 X-3.274 Y4.429 F400.000
G1 X-3.466 Y4.271 F400.000
G1 X-3.650 Y4.105 F400.000
G1 X-3.827 Y3.932 F400.000
G1 X-3.996 Y3.752 F400.000
G1 X-4.316 Y3.372 F400.000
G1 X-4.605 Y2.970 F400.000
G1 X-4.868 Y2.549 F400.000
G1 X-5.083 Y2.098 F400.000
G1 X-5.241 Y1.628 F400.000
G1 X-5.368 Y1.147 F400.000
G1 X-5.451 Y0.654 F400.000
G1 X-5.481 Y0.406 F400.000
G1 X-5.500 Y0.158 F400.000
G1 X-5.508 Y-0.331 F400.000
G1 X-5.496 Y-0.575 F400.000
G1 X-5.474 Y-0.820 F400.000
G1 X-5.380 Y-1.305 F400.000
G1 X-5.248 Y-1.778 F400.000
G1 X-5.075 Y-2.241 F400.000
G1 X-4.974 Y-2.466 F400.000
G1 X-4.729 Y-2.898 F400.000
G1 X-4.447 Y-3.308 F400.000
G1 X-4.132 Y-3.692 F400.000
G1 X-3.966 Y-3.876 F400.000
G1 X-3.789 Y-4.053 F400.000
G1 X-3.417 Y-4.383 F400.000
G1 X-3.222 Y-4.538 F400.000
G1 X-2.812 Y-4.816 F400.000
G1 X-2.598 Y-4.944 F400.000
G1 X-2.154 Y-5.169 F400.000
G1 X-1.925 Y-5.271 F400.000
G1 X-1.459 Y-5.447 F400.000
G1 X-0.981 Y-5.590 F400.000
G1 X-0.741 Y-5.650 F400.000
G1 X-0.244 Y-5.722 F400.000
G1 X0.000 Y-5.744 F400.000
G1 X0.489 Y-5.744 F400.000
G1 X0.733 Y-5.733 F400.000
G1 X1.222 Y-5.673 F400.000
G1 X1.699 Y-5.553 F400.000
G1 X1.936 Y-5.481 F400.000
G1 X2.395 Y-5.297 F400.000
G1 X2.617 Y-5.192 F400.000
G1 X3.053 Y-4.959 F400.000
G1 X3.470 Y-4.688 F400.000
G1 X3.868 Y-4.395 F400.000
G1 X4.229 Y-4.056 F400.000
G1 X4.564 Y-3.692 F400.000
G1 X4.722 Y-3.500 F400.000
G1 X5.011 Y-3.098 F400.000
G1 X5.267 Y-2.673 F400.000
G1 X5.470 Y-2.218 F400.000
G1 X5.635 Y-1.748 F400.000
G1 X5.703 Y-1.508 F400.000
G1 X5.853 Y-0.774 F400.000
G1 X5.910 Y-0.278 F400.000
G1 X5.929 Y-0.030 F400.000
G1 X5.936 Y0.459 F400.000
G1 X5.887 Y0.947 F400.000
G1 X5.850 Y1.192 F400.000
G1 X5.737 Y1.673 F400.000
G1 X5.662 Y1.910 F400.000
G1 X5.481 Y2.372 F400.000
G1 X5.376 Y2.594 F400.000
G1 X5.259 Y2.812 F400.000
G1 X4.861 Y3.440 F400.000
G1 X4.398 Y4.023 F400.000
G1 X4.056 Y4.383 F400.000
G1 X3.673 Y4.699 F400.000
G1 X3.263 Y4.985 F400.000
G1 X3.053 Y5.117 F400.000
G1 X2.613 Y5.350 F400.000
G1 X2.387 Y5.455 F400.000
G1 X1.925 Y5.643 F400.000
G1 X1.451 Y5.793 F400.000
G1 X1.211 Y5.861 F400.000
G1 X0.966 Y5.917 F400.000
G1 X0.470 Y5.981 F400.000
G1 X-0.023 Y6.011 F400.000
G1 X-0.267 Y6.011 F400.000
G1 X-0.756 Y5.981 F400.000
G1 X-1.000 Y5.951 F400.000
G1 X-1.485 Y5.861 F400.000
G1 X-1.962 Y5.733 F400.000
G1 X-2.421 Y5.549 F400.000
G1 X-2.643 Y5.440 F400.000
G1 X-2.857 Y5.320 F400.000
G1 X-3.278 Y5.056 F400.000
G1 X-3.673 Y4.756 F400.000
G1 X-3.861 Y4.594 F400.000
G1 X-4.218 Y4.248 F400.000
G1 X-4.387 Y4.064 F400.000
G1 X-4.707 Y3.680 F400.000
G1 X-5.000 Y3.278 F400.000
G1 X-5.271 Y2.861 F400.000
G1 X-5.489 Y2.414 F400.000
G1 X-5.583 Y2.184 F400.000
G1 X-5.741 Y1.711 F400.000
G1 X-5.812 Y1.470 F400.000
G1 X-5.917 Y0.981 F400.000
G1 X-5.959 Y0.733 F400.000
G1 X-5.989 Y0.485 F400.000
G1 X-6.019 Y-0.008 F400.000
G1 X-6.011 Y-0.496 F400.000
G1 X-5.966 Y-0.985 F400.000
G1 X-5.929 Y-1.229 F400.000
G1 X-5.808 Y-1.711 F400.000
G1 X-5.654 Y-2.180 F400.000
G1 X-5.459 Y-2.635 F400.000
G1 X-5.350 Y-2.857 F400.000
G1 X-5.102 Y-3.286 F400.000
G1 X-4.966 Y-3.492 F400.000
G1 X-4.665 Y-3.887 F400.000
G1 X-4.504 Y-4.075 F400.000
G1 X-4.158 Y-4.432 F400.000
G1 X-3.786 Y-4.763 F400.000
G1 X-3.387 Y-5.064 F400.000
G1 X-2.966 Y-5.327 F400.000
G1 X-2.526 Y-5.560 F400.000
G1 X-2.071 Y-5.763 F400.000
G1 X-1.602 Y-5.936 F400.000
G1 X-1.124 Y-6.079 F400.000
G1 X-0.639 Y-6.192 F400.000
G1 X-0.391 Y-6.226 F400.000
G1 X0.102 Y-6.256 F400.000
G1 X0.346 Y-6.259 F400.000
G1 X0.835 Y-6.233 F400.000
G1 X1.079 Y-6.207 F400.000
G1 X1.323 Y-6.169 F400.000
G1 X1.805 Y-6.064 F400.000
G1 X2.271 Y-5.902 F400.000
G1 X2.726 Y-5.703 F400.000
G1 X3.165 Y-5.477 F400.000
G1 X3.590 Y-5.222 F400.000
G1 X4.000 Y-4.944 F400.000
G1 X4.376 Y-4.620 F400.000
G1 X4.729 Y-4.271 F400.000
G1 X4.895 Y-4.086 F400.000
G1 X5.203 Y-3.699 F400.000
G1 X5.481 Y-3.286 F400.000
G1 X5.729 Y-2.853 F400.000
G1 X5.940 Y-2.406 F400.000
G1 X6.117 Y-1.940 F400.000
G1 X6.192 Y-1.703 F400.000
G1 X6.312 Y-1.218 F400.000
G1 X6.395 Y-0.726 F400.000
G1 X6.440 Y-0.229 F400.000
G1 X6.447 Y0.259 F400.000
G1 X6.436 Y0.504 F400.000
G1 X6.383 Y0.992 F400.000
G1 X6.293 Y1.477 F400.000
G1 X6.165 Y1.955 F400.000
G1 X6.000 Y2.417 F400.000
G1 X5.797 Y2.872 F400.000
G1 X5.684 Y3.090 F400.000
G1 X5.429 Y3.515 F400.000
G1 X5.143 Y3.921 F400.000
G1 X4.827 Y4.301 F400.000
G1 X4.658 Y4.481 F400.000
G1 X4.297 Y4.823 F400.000
G1 X3.914 Y5.139 F400.000
G1 X3.711 Y5.286 F400.000
G1 X3.075 Y5.677 F400.000
G1 X2.635 Y5.902 F400.000
G1 X2.180 Y6.105 F400.000
G1 X1.947 Y6.195 F400.000
G1 X1.466 Y6.335 F400.000
G1 X1.222 Y6.391 F400.000
G1 X0.481 Y6.496 F400.000
G1 X-0.011 Y6.519 F400.000
G1 X-0.256 Y6.519 F400.000
G1 X-0.744 Y6.489 F400.000
G1 X-0.989 Y6.462 F400.000
G1 X-1.477 Y6.380 F400.000
G1 X-1.718 Y6.327 F400.000
G1 X-2.195 Y6.192 F400.000
G1 X-2.654 Y6.004 F400.000
G1 X-2.876 Y5.895 F400.000
G1 X-3.301 Y5.647 F400.000
G1 X-3.711 Y5.372 F400.000
G1 X-4.098 Y5.068 F400.000
G1 X-4.286 Y4.906 F400.000
G1 X-4.643 Y4.564 F400.000
G1 X-4.977 Y4.195 F400.000
G1 X-5.286 Y3.805 F400.000
G1 X-5.564 Y3.395 F400.000
G1 X-5.801 Y2.955 F400.000
G1 X-6.008 Y2.500 F400.000
G1 X-6.180 Y2.030 F400.000
G1 X-6.256 Y1.793 F400.000
G1 X-6.376 Y1.308 F400.000
G1 X-6.425 Y1.064 F400.000
G1 X-6.492 Y0.568 F400.000
G1 X-6.515 Y0.320 F400.000
G1 X-6.530 Y-0.173 F400.000
G1 X-6.526 Y-0.417 F400.000
G1 X-6.489 Y-0.906 F400.000
G1 X-6.414 Y-1.395 F400.000
G1 X-6.365 Y-1.635 F400.000
G1 X-6.237 Y-2.113 F400.000
G1 X-6.162 Y-2.346 F400.000
G1 X-5.970 Y-2.801 F400.000
G1 X-5.861 Y-3.023 F400.000
G1 X-5.474 Y-3.658 F400.000
G1 X-5.188 Y-4.064 F400.000
G1 X-4.868 Y-4.444 F400.000
G1 X-4.699 Y-4.624 F400.000
G1 X-4.338 Y-4.966 F400.000
G1 X-3.955 Y-5.282 F400.000
G1 X-3.553 Y-5.575 F400.000
G1 X-2.902 Y-5.947 F400.000
G1 X-2.447 Y-6.154 F400.000
G1 X-1.989 Y-6.342 F400.000
G1 X-1.282 Y-6.579 F400.000
G1 X-1.038 Y-6.635 F400.000
G1 X-0.545 Y-6.718 F400.000
G1 X-0.297 Y-6.741 F400.000
G1 X0.440 Y-6.767 F400.000
G1 X0.684 Y-6.759 F400.000
G1 X1.173 Y-6.711 F400.000
G1 X1.417 Y-6.673 F400.000
G1 X1.658 Y-6.624 F400.000
G1 X2.132 Y-6.489 F400.000
G1 X2.598 Y-6.320 F400.000
G1 X3.045 Y-6.117 F400.000
G1 X3.695 Y-5.763 F400.000
G1 X4.113 Y-5.496 F400.000
G1 X4.504 Y-5.192 F400.000
G1 X4.692 Y-5.030 F400.000
G1 X5.045 Y-4.680 F400.000
G1 X5.376 Y-4.312 F400.000
G1 X5.680 Y-3.921 F400.000
G1 X5.827 Y-3.718 F400.000
G1 X5.962 Y-3.511 F400.000
G1 X6.199 Y-3.075 F400.000
G1 X6.406 Y-2.624 F400.000
G1 X6.579 Y-2.154 F400.000
G1 X6.722 Y-1.677 F400.000
G1 X6.827 Y-1.188 F400.000
G1 X6.932 Y-0.444 F400.000
G1 X6.962 Y0.049 F400.000
G1 X6.951 Y0.538 F400.000
G1 X6.932 Y0.782 F400.000
G1 X6.865 Y1.271 F400.000
G1 X6.816 Y1.511 F400.000
G1 X6.620 Y2.226 F400.000
G1 X6.451 Y2.688 F400.000
G1 X6.357 Y2.917 F400.000
G1 X6.128 Y3.357 F400.000
G1 X6.004 Y3.571 F400.000
G1 X5.583 Y4.184 F400.000
G1 X5.267 Y4.564 F400.000
G1 X4.929 Y4.929 F400.000
G1 X4.571 Y5.271 F400.000
G1 X4.383 Y5.432 F400.000
G1 X3.771 Y5.861 F400.000
G1 X3.132 Y6.248 F400.000
G1 X2.680 Y6.462 F400.000
G1 X2.451 Y6.560 F400.000
G1 X1.981 Y6.726 F400.000
G1 X1.500 Y6.861 F400.000
G1 X1.256 Y6.917 F400.000
G1 X0.763 Y7.000 F400.000
G1 X0.515 Y7.030 F400.000
G1 X-0.226 Y7.049 F400.000
G1 X-0.470 Y7.045 F400.000
G1 X-0.959 Y7.011 F400.000
G1 X-1.447 Y6.932 F400.000
G1 X-1.688 Y6.883 F400.000
G1 X-2.165 Y6.756 F400.000
G1 X-2.398 Y6.680 F400.000
G1 X-2.850 Y6.481 F400.000
G1 X-3.500 Y6.132 F400.000
G1 X-3.917 Y5.865 F400.000
G1 X-4.320 Y5.571 F400.000
G1 X-4.692 Y5.244 F400.000
G1 X-5.045 Y4.895 F400.000
G1 X-5.376 Y4.523 F400.000
G1 X-5.684 Y4.132 F400.000
G1 X-5.966 Y3.722 F400.000
G1 X-6.098 Y3.511 F400.000
G1 X-6.327 Y3.068 F400.000
G1 X-6.429 Y2.842 F400.000
G1 X-6.684 Y2.143 F400.000
G1 X-6.880 Y1.421 F400.000
G1 X-6.977 Y0.932 F400.000
G1 X-7.026 Y0.436 F400.000
G1 X-7.045 Y-0.056 F400.000
G1 X-7.038 Y-0.545 F400.000
G1 X-7.000 Y-1.034 F400.000
G1 X-6.932 Y-1.523 F400.000
G1 X-6.887 Y-1.763 F400.000
G1 X-6.748 Y-2.237 F400.000
G1 X-6.579 Y-2.699 F400.000
G1 X-6.376 Y-3.147 F400.000
G1 X-6.143 Y-3.583 F400.000
G1 X-5.880 Y-4.000 F400.000
G1 X-5.586 Y-4.398 F400.000
G1 X-5.429 Y-4.590 F400.000
G1 X-5.094 Y-4.955 F400.000
G1 X-4.733 Y-5.297 F400.000
G1 X-4.357 Y-5.620 F400.000
G1 X-3.759 Y-6.060 F400.000
G1 X-3.331 Y-6.308 F400.000
G1 X-2.887 Y-6.534 F400.000
G1 X-2.432 Y-6.737 F400.000
G1 X-1.966 Y-6.914 F400.000
G1 X-1.489 Y-7.064 F400.000
G1 X-1.248 Y-7.128 F400.000
G1 X-0.759 Y-7.222 F400.000
G1 X-0.511 Y-7.256 F400.000
G1 X-0.015 Y-7.293 F400.000
G1 X0.474 Y-7.293 F400.000
G1 X1.207 Y-7.229 F400.000
G1 X1.692 Y-7.147 F400.000
G1 X1.932 Y-7.094 F400.000
G1 X2.406 Y-6.947 F400.000
G1 X2.868 Y-6.771 F400.000
G1 X3.316 Y-6.568 F400.000
G1 X3.748 Y-6.335 F400.000
G1 X4.169 Y-6.079 F400.000
G1 X4.579 Y-5.797 F400.000
G1 X4.959 Y-5.477 F400.000
G1 X5.323 Y-5.139 F400.000
G1 X5.665 Y-4.778 F400.000
G1 X5.989 Y-4.398 F400.000
G1 X6.271 Y-3.989 F400.000
G1 X6.402 Y-3.778 F400.000
G1 X6.635 Y-3.338 F400.000
G1 X6.846 Y-2.887 F400.000
G1 X7.026 Y-2.425 F400.000
G1 X7.184 Y-1.951 F400.000
G1 X7.312 Y-1.470 F400.000
G1 X7.365 Y-1.226 F400.000
G1 X7.429 Y-0.729 F400.000
G1 X7.466 Y-0.233 F400.000
G1 X7.474 Y0.256 F400.000
G1 X7.451 Y0.744 F400.000
G1 X7.398 Y1.233 F400.000
G1 X7.308 Y1.718 F400.000
G1 X7.188 Y2.199 F400.000
G1 X7.038 Y2.669 F400.000
G1 X6.835 Y3.120 F400.000
G1 X6.609 Y3.556 F400.000
G1 X6.350 Y3.981 F400.000
G1 X6.064 Y4.387 F400.000
G1 X5.756 Y4.778 F400.000
G1 X5.429 Y5.150 F400.000
G1 X5.083 Y5.508 F400.000
G1 X4.707 Y5.831 F400.000
G1 X4.105 Y6.267 F400.000
G1 X3.680 Y6.523 F400.000
G1 X3.241 Y6.756 F400.000
G1 X2.556 Y7.060 F400.000
G1 X2.090 Y7.237 F400.000
G1 X1.609 Y7.372 F400.000
G1 X1.365 Y7.429 F400.000
G1 X0.872 Y7.511 F400.000
G1 X0.624 Y7.541 F400.000
G1 X0.128 Y7.571 F400.000
G1 X-0.361 Y7.575 F400.000
G1 X-0.850 Y7.549 F400.000
G1 X-1.338 Y7.496 F400.000
G1 X-1.820 Y7.395 F400.000
G1 X-2.056 Y7.331 F400.000
G1 X-2.523 Y7.173 F400.000
G1 X-2.981 Y6.981 F400.000
G1 X-3.421 Y6.759 F400.000
G1 X-3.853 Y6.519 F400.000
G1 X-4.474 Y6.113 F400.000
G1 X-4.857 Y5.797 F400.000
G1 X-5.041 Y5.632 F400.000
G1 X-5.560 Y5.098 F400.000
G1 X-5.880 Y4.718 F400.000
G1 X-6.180 Y4.323 F400.000
G1 X-6.462 Y3.914 F400.000
G1 X-6.703 Y3.477 F400.000
G1 X-6.812 Y3.256 F400.000
G1 X-7.000 Y2.793 F400.000
G1 X-7.165 Y2.320 F400.000
G1 X-7.372 Y1.598 F400.000
G1 X-7.470 Y1.109 F400.000
G1 X-7.511 Y0.861 F400.000
G1 X-7.541 Y0.613 F400.000
G1 X-7.571 Y-0.128 F400.000
G1 X-7.553 Y-0.861 F400.000
G1 X-7.534 Y-1.105 F400.000
G1 X-7.459 Y-1.594 F400.000
G1 X-7.410 Y-1.835 F400.000
G1 X-7.282 Y-2.312 F400.000
G1 X-7.117 Y-2.774 F400.000
G1 X-7.023 Y-3.004 F400.000
G1 X-6.692 Y-3.669 F400.000
G1 X-6.436 Y-4.094 F400.000
G1 X-6.158 Y-4.504 F400.000
G1 X-5.853 Y-4.898 F400.000
G1 X-5.526 Y-5.271 F400.000
G1 X-5.177 Y-5.624 F400.000
G1 X-4.602 Y-6.098 F400.000
G1 X-4.199 Y-6.391 F400.000
G1 X-3.778 Y-6.650 F400.000
G1 X-3.342 Y-6.891 F400.000
G1 X-2.895 Y-7.105 F400.000
G1 X-2.432 Y-7.297 F400.000
G1 X-1.726 Y-7.538 F400.000
G1 X-1.244 Y-7.665 F400.000
G1 X-1.000 Y-7.718 F400.000
G1 X-0.504 Y-7.782 F400.000
G1 X-0.008 Y-7.812 F400.000
G1 X0.237 Y-7.816 F400.000
G1 X0.970 Y-7.778 F400.000
G1 X1.459 Y-7.722 F400.000
G1 X1.940 Y-7.624 F400.000
G1 X2.180 Y-7.564 F400.000
G1 X2.650 Y-7.414 F400.000
G1 X3.109 Y-7.229 F400.000
G1 X3.782 Y-6.910 F400.000
G1 X4.000 Y-6.793 F400.000
G1 X4.421 Y-6.538 F400.000
G1 X4.827 Y-6.259 F400.000
G1 X5.218 Y-5.955 F400.000
G1 X5.590 Y-5.628 F400.000
G1 X5.940 Y-5.278 F400.000
G1 X6.267 Y-4.906 F400.000
G1 X6.421 Y-4.711 F400.000
G1 X6.695 Y-4.297 F400.000
G1 X6.944 Y-3.865 F400.000
G1 X7.169 Y-3.421 F400.000
G1 X7.470 Y-2.737 F400.000
G1 X7.643 Y-2.271 F400.000
G1 X7.722 Y-2.034 F400.000
G1 X7.835 Y-1.545 F400.000
G1 X7.880 Y-1.301 F400.000
G1 X7.966 Y-0.556 F400.000
G1 X7.992 Y0.184 F400.000
G1 X7.977 Y0.673 F400.000
G1 X7.902 Y1.406 F400.000
G1 X7.820 Y1.891 F400.000
G1 X7.767 Y2.132 F400.000
G1 X7.617 Y2.602 F400.000
G1 X7.436 Y3.060 F400.000
G1 X7.335 Y3.286 F400.000
G1 X7.105 Y3.726 F400.000
G1 X6.853 Y4.154 F400.000
G1 X6.436 Y4.767 F400.000
G1 X5.974 Y5.353 F400.000
G1 X5.628 Y5.707 F400.000
G1 X5.447 Y5.876 F400.000
G1 X5.071 Y6.199 F400.000
G1 X4.474 Y6.639 F400.000
G1 X4.053 Y6.902 F400.000
G1 X3.620 Y7.143 F400.000
G1 X2.947 Y7.466 F400.000
G1 X2.485 Y7.654 F400.000
G1 X2.011 Y7.805 F400.000
G1 X1.771 Y7.868 F400.000
G1 X1.282 Y7.970 F400.000
G1 X0.786 Y8.038 F400.000
G1 X0.289 Y8.083 F400.000
G1 X-0.447 Y8.098 F400.000
G1 X-0.936 Y8.075 F400.000
G1 X-1.425 Y8.011 F400.000
G1 X-1.669 Y7.970 F400.000
G1 X-2.150 Y7.857 F400.000
G1 X-2.387 Y7.789 F400.000
G1 X-2.853 Y7.624 F400.000
G1 X-3.308 Y7.429 F400.000
G1 X-3.530 Y7.320 F400.000
G1 X-4.177 Y6.947 F400.000
G1 X-4.789 Y6.530 F400.000
G1 X-4.985 Y6.380 F400.000
G1 X-5.357 Y6.053 F400.000
G1 X-5.711 Y5.707 F400.000
G1 X-6.045 Y5.342 F400.000
G1 X-6.361 Y4.959 F400.000
G1 X-6.654 Y4.556 F400.000
G1 X-6.925 Y4.139 F400.000
G1 X-7.173 Y3.707 F400.000
G1 X-7.376 Y3.252 F400.000
G1 X-7.556 Y2.786 F400.000
G1 X-7.793 Y2.075 F400.000
G1 X-7.861 Y1.835 F400.000
G1 X-8.011 Y1.102 F400.000
G1 X-8.075 Y0.605 F400.000
G1 X-8.105 Y0.109 F400.000
G1 X-8.105 Y-0.380 F400.000
G1 X-8.056 Y-1.113 F400.000
G1 X-7.992 Y-1.602 F400.000
G1 X-7.883 Y-2.083 F400.000
G1 X-7.820 Y-2.320 F400.000
G1 X-7.662 Y-2.789 F400.000
G1 X-7.477 Y-3.248 F400.000
G1 X-7.154 Y-3.917 F400.000
G1 X-6.906 Y-4.346 F400.000
G1 X-6.774 Y-4.556 F400.000
G1 X-6.327 Y-5.150 F400.000
G1 X-6.000 Y-5.523 F400.000
G1 X-5.650 Y-5.876 F400.000
G1 X-5.278 Y-6.207 F400.000
G1 X-4.895 Y-6.523 F400.000
G1 X-4.289 Y-6.959 F400.000
G1 X-4.079 Y-7.094 F400.000
G1 X-3.643 Y-7.335 F400.000
G1 X-2.966 Y-7.647 F400.000
G1 X-2.271 Y-7.917 F400.000
G1 X-1.797 Y-8.079 F400.000
G1 X-1.312 Y-8.195 F400.000
G1 X-1.068 Y-8.244 F400.000
G1 X-0.571 Y-8.316 F400.000
G1 X-0.323 Y-8.338 F400.000
G1 X0.414 Y-8.346 F400.000
G1 X0.902 Y-8.327 F400.000
G1 X1.391 Y-8.267 F400.000
G1 X1.635 Y-8.226 F400.000
G1 X2.357 Y-8.056 F400.000
G1 X2.831 Y-7.914 F400.000
G1 X3.289 Y-7.729 F400.000
G1 X3.737 Y-7.523 F400.000
G1 X4.383 Y-7.165 F400.000
G1 X4.805 Y-6.902 F400.000
G1 X5.410 Y-6.474 F400.000
G1 X5.605 Y-6.323 F400.000
G1 X5.974 Y-5.989 F400.000
G1 X6.323 Y-5.639 F400.000
G1 X6.654 Y-5.267 F400.000
G1 X6.944 Y-4.865 F400.000
G1 X7.211 Y-4.444 F400.000
G1 X7.571 Y-3.786 F400.000
G1 X7.887 Y-3.109 F400.000
G1 X8.071 Y-2.647 F400.000
G1 X8.218 Y-2.173 F400.000
G1 X8.338 Y-1.688 F400.000
G1 X8.429 Y-1.195 F400.000
G1 X8.489 Y-0.699 F400.000
G1 X8.508 Y-0.451 F400.000
G1 X8.523 Y0.041 F400.000
G1 X8.500 Y0.774 F400.000
G1 X8.455 Y1.263 F400.000
G1 X8.383 Y1.752 F400.000
G1 X8.338 Y1.996 F400.000
G1 X8.214 Y2.474 F400.000
G1 X8.143 Y2.711 F400.000
G1 X7.970 Y3.173 F400.000
G1 X7.872 Y3.398 F400.000
G1 X7.650 Y3.838 F400.000
G1 X7.274 Y4.481 F400.000
G1 X6.865 Y5.098 F400.000
G1 X6.718 Y5.297 F400.000
G1 X6.395 Y5.673 F400.000
G1 X6.226 Y5.853 F400.000
G1 X5.680 Y6.365 F400.000
G1 X5.098 Y6.827 F400.000
G1 X4.692 Y7.117 F400.000
G1 X4.274 Y7.383 F400.000
G1 X3.620 Y7.744 F400.000
G1 X3.173 Y7.959 F400.000
G1 X2.944 Y8.056 F400.000
G1 X2.470 Y8.214 F400.000
G1 X1.989 Y8.350 F400.000
G1 X1.500 Y8.459 F400.000
G1 X0.759 Y8.575 F400.000
G1 X0.263 Y8.620 F400.000
G1 X-0.229 Y8.639 F400.000
G1 X-0.718 Y8.632 F400.000
G1 X-0.962 Y8.617 F400.000
G1 X-1.451 Y8.549 F400.000
G1 X-1.932 Y8.455 F400.000
G1 X-2.647 Y8.256 F400.000
G1 X-3.113 Y8.090 F400.000
G1 X-3.568 Y7.895 F400.000
G1 X-4.008 Y7.677 F400.000
G1 X-4.635 Y7.282 F400.000
G1 X-5.237 Y6.850 F400.000
G1 X-5.432 Y6.695 F400.000
G1 X-5.801 Y6.365 F400.000
G1 X-5.977 Y6.192 F400.000
G1 X-6.481 Y5.643 F400.000
G1 X-6.947 Y5.064 F400.000
G1 X-7.094 Y4.865 F400.000
G1 X-7.365 Y4.444 F400.000
G1 X-7.605 Y4.011 F400.000
G1 X-7.823 Y3.564 F400.000
G1 X-8.011 Y3.102 F400.000
G1 X-8.177 Y2.628 F400.000
G1 X-8.380 Y1.906 F400.000
G1 X-8.530 Y1.173 F400.000
G1 X-8.602 Y0.677 F400.000
G1 X-8.628 Y0.429 F400.000
G1 X-8.639 Y-0.064 F400.000
G1 X-8.632 Y-0.553 F400.000
G1 X-8.571 Y-1.286 F400.000
G1 X-8.500 Y-1.774 F400.000
G1 X-8.391 Y-2.256 F400.000
G1 X-8.327 Y-2.492 F400.000
G1 X-8.169 Y-2.962 F400.000
G1 X-7.883 Y-3.643 F400.000
G1 X-7.545 Y-4.301 F400.000
G1 X-7.289 Y-4.726 F400.000
G1 X-7.011 Y-5.135 F400.000
G1 X-6.711 Y-5.530 F400.000
G1 X-6.376 Y-5.898 F400.000
G1 X-5.838 Y-6.417 F400.000
G1 X-5.267 Y-6.895 F400.000
G1 X-4.662 Y-7.335 F400.000
G1 X-4.244 Y-7.602 F400.000
G1 X-3.579 Y-7.944 F400.000
G1 X-2.891 Y-8.244 F400.000
G1 X-2.192 Y-8.508 F400.000
G1 X-1.955 Y-8.586 F400.000
G1 X-1.470 Y-8.707 F400.000
G1 X-1.226 Y-8.756 F400.000
G1 X-0.729 Y-8.827 F400.000
G1 X-0.481 Y-8.850 F400.000
G1 X0.256 Y-8.883 F400.000
G1 X0.500 Y-8.883 F400.000
G1 X0.989 Y-8.861 F400.000
G1 X1.233 Y-8.838 F400.000
G1 X1.722 Y-8.767 F400.000
G1 X2.203 Y-8.669 F400.000
G1 X2.910 Y-8.444 F400.000
G1 X3.368 Y-8.267 F400.000
G1 X4.041 Y-7.959 F400.000
G1 X4.477 Y-7.726 F400.000
G1 X4.902 Y-7.474 F400.000
G1 X5.519 Y-7.056 F400.000
G1 X5.914 Y-6.756 F400.000
G1 X6.105 Y-6.598 F400.000
G1 X6.462 Y-6.256 F400.000
G1 X6.635 Y-6.075 F400.000
G1 X6.955 Y-5.695 F400.000
G1 X7.259 Y-5.305 F400.000
G1 X7.677 Y-4.688 F400.000
G1 X7.932 Y-4.263 F400.000
G1 X8.053 Y-4.045 F400.000
G1 X8.259 Y-3.594 F400.000
G1 X8.447 Y-3.135 F400.000
G1 X8.688 Y-2.429 F400.000
G1 X8.820 Y-1.947 F400.000
G1 X8.970 Y-1.214 F400.000
G1 X9.023 Y-0.718 F400.000
G1 X9.049 Y-0.222 F400.000
G1 X9.045 Y0.511 F400.000
G1 X8.996 Y1.244 F400.000
G1 X8.970 Y1.489 F400.000
G1 X8.883 Y1.977 F400.000
G1 X8.831 Y2.218 F400.000
G1 X8.699 Y2.692 F400.000
G1 X8.624 Y2.925 F400.000
G1 X8.447 Y3.387 F400.000
G1 X8.244 Y3.835 F400.000
G1 X7.767 Y4.695 F400.000
G1 X7.504 Y5.117 F400.000
G1 X7.060 Y5.711 F400.000
G1 X6.902 Y5.902 F400.000
G1 X6.560 Y6.259 F400.000
G1 X6.203 Y6.602 F400.000
G1 X5.831 Y6.929 F400.000
G1 X5.444 Y7.237 F400.000
G1 X4.835 Y7.665 F400.000
G1 X4.195 Y8.053 F400.000
G1 X3.756 Y8.286 F400.000
G1 X3.297 Y8.481 F400.000
G1 X2.831 Y8.654 F400.000
G1 X2.353 Y8.801 F400.000
G1 X1.624 Y8.974 F400.000
G1 X0.883 Y9.090 F400.000
G1 X0.139 Y9.150 F400.000
G1 X-0.594 Y9.154 F400.000
G1 X-1.083 Y9.124 F400.000
G1 X-1.571 Y9.068 F400.000
G1 X-1.816 Y9.030 F400.000
G1 X-2.297 Y8.917 F400.000
G1 X-2.771 Y8.778 F400.000
G1 X-3.237 Y8.613 F400.000
G1 X-3.692 Y8.425 F400.000
G1 X-4.135 Y8.207 F400.000
G1 X-4.568 Y7.966 F400.000
G1 X-4.985 Y7.699 F400.000
G1 X-5.387 Y7.410 F400.000
G1 X-5.774 Y7.098 F400.000
G1 X-6.139 Y6.763 F400.000
G1 X-6.662 Y6.229 F400.000
G1 X-6.989 Y5.857 F400.000
G1 X-7.451 Y5.271 F400.000
G1 X-7.726 Y4.857 F400.000
G1 X-7.974 Y4.425 F400.000
G1 X-8.199 Y3.977 F400.000
G1 X-8.402 Y3.523 F400.000
G1 X-8.662 Y2.823 F400.000
G1 X-8.812 Y2.350 F400.000
G1 X-8.940 Y1.868 F400.000
G1 X-8.996 Y1.624 F400.000
G1 X-9.075 Y1.128 F400.000
G1 X-9.132 Y0.632 F400.000
G1 X-9.169 Y-0.109 F400.000
G1 X-9.150 Y-0.842 F400.000
G1 X-9.109 Y-1.331 F400.000
G1 X-9.041 Y-1.820 F400.000
G1 X-8.925 Y-2.301 F400.000
G1 X-8.786 Y-2.774 F400.000
G1 X-8.620 Y-3.241 F400.000
G1 X-8.432 Y-3.695 F400.000
G1 X-8.109 Y-4.365 F400.000
G1 X-7.741 Y-5.011 F400.000
G1 X-7.609 Y-5.222 F400.000
G1 X-7.316 Y-5.620 F400.000
G1 X-7.000 Y-6.004 F400.000
G1 X-6.835 Y-6.188 F400.000
G1 X-6.485 Y-6.541 F400.000
G1 X-6.117 Y-6.876 F400.000
G1 X-5.538 Y-7.346 F400.000
G1 X-4.932 Y-7.786 F400.000
G1 X-4.726 Y-7.925 F400.000
G1 X-4.297 Y-8.173 F400.000
G1 X-3.628 Y-8.508 F400.000
G1 X-2.940 Y-8.797 F400.000
G1 X-2.241 Y-9.056 F400.000
G1 X-1.759 Y-9.184 F400.000
G1 X-1.515 Y-9.241 F400.000
G1 X-1.026 Y-9.327 F400.000
G1 X-0.778 Y-9.361 F400.000
G1 X-0.282 Y-9.402 F400.000
G1 X0.455 Y-9.417 F400.000
G1 X0.944 Y-9.398 F400.000
G1 X1.432 Y-9.357 F400.000
G1 X1.677 Y-9.327 F400.000
G1 X2.158 Y-9.222 F400.000
G1 X2.632 Y-9.094 F400.000
G1 X3.331 Y-8.850 F400.000
G1 X3.789 Y-8.662 F400.000
G1 X4.459 Y-8.346 F400.000
G1 X4.895 Y-8.117 F400.000
G1 X5.722 Y-7.575 F400.000
G1 X6.673 Y-6.741 F400.000
G1 X7.049 Y-6.346 F400.000
G1 X7.568 Y-5.733 F400.000
G1 X8.263 Y-4.665 F400.000
G1 X8.372 Y-4.444 F400.000
G1 X8.553 Y-4.120 F400.000
G1 X8.620 Y-3.951 F400.000
G1 X8.823 Y-3.504 F400.000
G1 X8.883 Y-3.327 F400.000
G1 X8.985 Y-3.098 F400.000
G1 X9.410 Y-1.361 F400.000
G1 X9.511 Y-0.278 F400.000
G1 X9.489 Y1.316 F400.000
G1 X9.350 Y2.162 F400.000
G1 X8.797 Y3.778 F400.000
G1 X8.113 Y5.038 F400.000
G1 X7.338 Y6.086 F400.000
G1 X6.282 Y7.150 F400.000
G1 X5.421 Y7.823 F400.000
G1 X4.338 Y8.500 F400.000
G1 X3.105 Y9.045 F400.000
G1 X1.312 Y9.500 F400.000
G1 X-0.797 Y9.654 F400.000
G1 X-2.263 Y9.455 F400.000
G1 X-3.613 Y8.992 F400.000
G1 X-5.019 Y8.237 F400.000
G1 X-5.797 Y7.680 F400.000
G1 X-6.718 Y6.846 F400.000
G1 X-7.778 Y5.594 F400.000
G1 X-8.447 Y4.515 F400.000
G1 X-9.015 Y3.226 F400.000
G1 X-9.414 Y1.872 F400.000
G1 X-9.594 Y0.729 F400.000
G1 X-9.617 Y-1.233 F400.000
G1 X-9.470 Y-2.135 F400.000
G1 X-9.173 Y-3.150 F400.000
G1 X-8.500 Y-4.658 F400.000
G1 X-7.910 Y-5.609 F400.000
G1 X-7.150 Y-6.530 F400.000
G1 X-6.105 Y-7.500 F400.000
G1 X-5.117 Y-8.218 F400.000
G1 X-4.124 Y-8.808 F400.000
G1 X-2.838 Y-9.380 F400.000
G1 X-1.782 Y-9.699 F400.000
G1 X-0.759 Y-9.868 F400.000
G1 X0.583 Y-9.925 F400.000
G1 X1.541 Y-9.835 F400.000
G1 X2.895 Y-9.523 F400.000
G1 X4.060 Y-9.075 F400.000
G1 X5.361 Y-8.372 F400.000
G1 X6.729 Y-7.297 F400.000
G1 X7.617 Y-6.383 F400.000
G1 X8.500 Y-5.139 F400.000
G1 X9.045 Y-4.113 F400.000
G1 X9.575 Y-2.677 F400.000
G1 X9.808 Y-1.654 F400.000
G1 X9.936 Y-0.511 F400.000
G1 X9.925 Y0.929 F400.000
G1 X9.752 Y2.056 F400.000
G1 X9.406 Y3.297 F400.000
G1 X9.192 Y3.861 F400.000
G1 X8.459 Y5.274 F400.000
G1 X7.538 Y6.519 F400.000
G1 X6.316 Y7.692 F400.000
G1 X5.383 Y8.376 F400.000
G1 X3.883 Y9.173 F400.000
G1 X2.850 Y9.556 F400.000
G1 X1.707 Y9.827 F400.000
G1 X0.504 Y9.959 F400.000
G1 X-0.880 Y9.932 F400.000
G1 X-2.008 Y9.763 F400.000
G1 X-3.192 Y9.444 F400.000
G1 X-4.504 Y8.895 F400.000
G1 X-5.820 Y8.098 F400.000
G1 X-6.974 Y7.128 F400.000
G1 X-7.966 Y5.996 F400.000
G1 X-8.786 Y4.718 F400.000
G1 X-9.274 Y3.673 F400.000
G1 X-9.662 Y2.455 F400.000
G1 X-9.876 Y1.372 F400.000
G1 X-9.947 Y0.711 F400.000
G1 X-9.951 Y-0.684 F400.000
G1 X-9.767 Y-1.981 F400.000
G1 X-9.395 Y-3.335 F400.000
G1 X-8.906 Y-4.481 F400.000
G1 X-8.556 Y-5.113 F400.000
G1 X-7.962 Y-6.000 F400.000
G1 X-6.929 Y-7.169 F400.000
G1 X-6.068 Y-7.914 F400.000
G1 X-4.805 Y-8.737 F400.000
G1 X-3.594 Y-9.301 F400.000
G1 X-2.305 Y-9.699 F400.000
G1 X-1.102 Y-9.914 F400.000
G1 X-0.019 Y-9.970 F400.000
G1 X0.432 Y-9.955 F400.000
G1 X0.432 Y-9.955 F400.000
G1 X0.444 Y-9.951 F400.000
G1 X0.447 Y-9.951 F400.000
G1 X0.485 Y-9.951 F400.000
G1 X0.485 Y-9.951 F400.000
G1 X0.711 Y-9.944 F400.000
G1 X0.711 Y-9.944 F400.000
G1 X0.827 Y-9.906 F400.000
G1 X0.902 Y-9.853 F400.000
G0 X0.929 Y-9.835
G0 X1.549 Y-9.383
G0 X3.722 Y-8.549
G0 X5.571 Y-7.707
G0 X6.120 Y-7.617
G1 X6.150 Y-7.613 F400.000
G1 X6.274 Y-7.598 F400.000
G1 X6.429 Y-7.575 F400.000
G1 X6.545 Y-7.519 F400.000
G1 X6.545 Y-7.519 F400.000
G1 X7.323 Y-6.763 F400.000
G1 X8.053 Y-5.876 F400.000
G1 X8.850 Y-4.590 F400.000
G1 X9.323 Y-3.534 F400.000
G1 X9.759 Y-2.053 F400.000
G1 X9.910 Y-1.090 F400.000
G1 X9.910 Y-1.090 F400.000
G1 X9.914 Y-1.026 F400.000
G1 X9.914 Y-1.026 F400.000
G1 X9.940 Y-1.023 F400.000
G1 X9.940 Y-1.023 F400.000
G1 X9.951 Y-0.962 F400.000
G1 X9.951 Y-0.962 F400.000
G1 X9.944 Y-0.959 F400.000
G1 X9.981 Y-0.602 F400.000
G1 X9.996 Y-0.218 F400.000
G1 X9.992 Y0.173 F400.000
G1 X9.974 Y0.624 F400.000
G1 X9.951 Y0.936 F400.000
G1 X9.910 Y1.305 F400.000
G1 X9.853 Y1.688 F400.000
G1 X9.786 Y2.041 F400.000
G1 X9.594 Y2.801 F400.000
G1 X9.455 Y3.244 F400.000
G1 X9.214 Y3.872 F400.000
G1 X9.060 Y4.218 F400.000
G1 X8.872 Y4.602 F400.000
G1 X8.714 Y4.898 F400.000
G1 X8.489 Y5.278 F400.000
G1 X8.098 Y5.857 F400.000
G1 X7.827 Y6.214 F400.000
G1 X7.323 Y6.801 F400.000
G1 X7.105 Y7.034 F400.000
G1 X6.534 Y7.571 F400.000
G1 X5.929 Y8.049 F400.000
G1 X5.669 Y8.237 F400.000
G1 X4.985 Y8.669 F400.000
G1 X4.647 Y8.853 F400.000
G1 X4.308 Y9.019 F400.000
G1 X3.571 Y9.342 F400.000
G1 X3.274 Y9.451 F400.000
G1 X2.526 Y9.677 F400.000
G1 X2.169 Y9.763 F400.000
G1 X1.786 Y9.842 F400.000
G1 X1.406 Y9.902 F400.000
G1 X0.673 Y9.977 F400.000
G1 X0.229 Y9.996 F400.000
G1 X-0.071 Y10.000 F400.000
G1 X-0.883 Y9.955 F400.000
G1 X-1.688 Y9.853 F400.000
G1 X-1.966 Y9.801 F400.000
G1 X-2.774 Y9.602 F400.000
G1 X-3.105 Y9.500 F400.000
G1 X-3.466 Y9.372 F400.000
G1 X-3.827 Y9.229 F400.000
G1 X-4.523 Y8.917 F400.000
G1 X-4.842 Y8.744 F400.000
G1 X-5.177 Y8.549 F400.000
G1 X-5.511 Y8.338 F400.000
G1 X-5.812 Y8.135 F400.000
G1 X-6.109 Y7.910 F400.000
G1 X-6.451 Y7.635 F400.000
G1 X-6.680 Y7.436 F400.000
G1 X-7.004 Y7.135 F400.000
G1 X-7.545 Y6.560 F400.000
G1 X-7.756 Y6.312 F400.000
G1 X-7.992 Y6.011 F400.000
G1 X-8.211 Y5.703 F400.000
G1 X-8.647 Y5.019 F400.000
G1 X-8.831 Y4.695 F400.000
G1 X-9.162 Y4.008 F400.000
G1 X-9.312 Y3.650 F400.000
G1 X-9.534 Y3.011 F400.000
G1 X-9.662 Y2.568 F400.000
G1 X-9.752 Y2.211 F400.000
G1 X-9.827 Y1.857 F400.000
G1 X-9.895 Y1.455 F400.000
G1 X-9.940 Y1.090 F400.000
G1 X-9.977 Y0.684 F400.000
G1 X-10.004 Y-0.008 F400.000
G1 X-9.970 Y-0.752 F400.000
G1 X-9.883 Y-1.489 F400.000
G1 X-9.808 Y-1.917 F400.000
G1 X-9.737 Y-2.244 F400.000
G1 X-9.515 Y-3.068 F400.000
G1 X-9.293 Y-3.684 F400.000
G1 X-8.936 Y-4.481 F400.000
G1 X-8.805 Y-4.733 F400.000
G1 X-8.613 Y-5.068 F400.000
G1 X-8.398 Y-5.417 F400.000
G1 X-8.207 Y-5.711 F400.000
G1 X-7.962 Y-6.045 F400.000
G1 X-7.733 Y-6.335 F400.000
G1 X-7.180 Y-6.955 F400.000
G1 X-6.989 Y-7.150 F400.000
G1 X-6.677 Y-7.440 F400.000
G1 X-6.406 Y-7.673 F400.000
G1 X-6.086 Y-7.932 F400.000
G1 X-5.748 Y-8.180 F400.000
G1 X-5.147 Y-8.568 F400.000
G1 X-4.489 Y-8.936 F400.000
G1 X-4.128 Y-9.105 F400.000
G1 X-3.782 Y-9.256 F400.000
G1 X-3.068 Y-9.519 F400.000
G1 X-2.748 Y-9.617 F400.000
G1 X-1.917 Y-9.812 F400.000
G1 X-1.624 Y-9.868 F400.000
G1 X-1.188 Y-9.932 F400.000
G1 X-0.842 Y-9.970 F400.000
G1 X-0.045 Y-10.000 F400.000
G1 X0.684 Y-9.970 F400.000
G1 X1.496 Y-9.887 F400.000
G1 X1.835 Y-9.831 F400.000
G1 X2.158 Y-9.763 F400.000
G1 X2.932 Y-9.556 F400.000
G1 X3.271 Y-9.447 F400.000
G1 X3.989 Y-9.165 F400.000
G1 X4.335 Y-9.004 F400.000
G1 X4.699 Y-8.820 F400.000
G1 X5.395 Y-8.417 F400.000
G1 X5.658 Y-8.244 F400.000
G1 X6.259 Y-7.793 F400.000
G1 X6.556 Y-7.549 F400.000
G1 X7.109 Y-7.030 F400.000
G1 X7.372 Y-6.752 F400.000
G1 X7.632 Y-6.455 F400.000
G1 X7.838 Y-6.203 F400.000
G1 X8.068 Y-5.898 F400.000
G1 X8.508 Y-5.248 F400.000
G1 X8.902 Y-4.549 F400.000
G1 X9.214 Y-3.887 F400.000
G1 X9.353 Y-3.534 F400.000
G1 X9.598 Y-2.793 F400.000
G1 X9.789 Y-2.038 F400.000
G1 X9.850 Y-1.726 F400.000
G1 X9.914 Y-1.297 F400.000
G1 X9.951 Y-0.962 F400.000
G1 X9.951 Y-0.962 F400.000
G0 Z5.000
(Helix to depth: -5.000000)
G0 Z5.000
G0 X44.697 Y-20.691 Z5.000
G0 X44.697 Y-20.691 Z3.000
G1 X44.697 Y-20.691 Z0.000 F400.000
G1 X44.697 Y-20.691 Z0.000 F400.000
G1 X44.846 Y-20.816 Z-0.017 F400.000
G1 X45.016 Y-20.910 Z-0.034 F400.000
G1 X45.201 Y-20.968 Z-0.052 F400.000
G1 X45.394 Y-20.990 Z-0.069 F400.000
G1 X45.587 Y-20.973 Z-0.086 F400.000
G1 X45.773 Y-20.919 Z-0.103 F400.000
G1 X45.946 Y-20.830 Z-0.120 F400.000
G1 X46.097 Y-20.709 Z-0.137 F400.000
G1 X46.222 Y-20.560 Z-0.155 F400.000
G1 X46.316 Y-20.390 Z-0.172 F400.000
G1 X46.374 Y-20.205 Z-0.189 F400.000
G1 X46.396 Y-20.012 Z-0.206 F400.000
G1 X46.379 Y-19.819 Z-0.223 F400.000
G1 X46.325 Y-19.633 Z-0.240 F400.000
G1 X46.236 Y-19.460 Z-0.258 F400.000
G1 X46.115 Y-19.309 Z-0.275 F400.000
G1 X45.966 Y-19.184 Z-0.292 F400.000
G1 X45.796 Y-19.090 Z-0.309 F400.000
G1 X45.611 Y-19.032 Z-0.326 F400.000
G1 X45.418 Y-19.010 Z-0.344 F400.000
G1 X45.225 Y-19.027 Z-0.361 F400.000
G1 X45.039 Y-19.081 Z-0.378 F400.000
G1 X44.866 Y-19.170 Z-0.395 F400.000
G1 X44.715 Y-19.291 Z-0.412 F400.000
G1 X44.590 Y-19.440 Z-0.429 F400.000
G1 X44.496 Y-19.610 Z-0.447 F400.000
G1 X44.438 Y-19.795 Z-0.464 F400.000
G1 X44.416 Y-19.988 Z-0.481 F400.000
G1 X44.433 Y-20.181 Z-0.498 F400.000
G1 X44.487 Y-20.367 Z-0.515 F400.000
G1 X44.576 Y-20.540 Z-0.533 F400.000
G1 X44.697 Y-20.691 Z-0.550 F400.000
G1 X44.846 Y-20.816 Z-0.567 F400.000
G1 X45.016 Y-20.910 Z-0.584 F400.000
G1 X45.201 Y-20.968 Z-0.601 F400.000
G1 X45.394 Y-20.990 Z-0.618 F400.000
G1 X45.587 Y-20.973 Z-0.636 F400.000
G1 X45.773 Y-20.919 Z-0.653 F400.000
G1 X45.946 Y-20.830 Z-0.670 F400.000
G1 X46.097 Y-20.709 Z-0.687 F400.000
G1 X46.222 Y-20.560 Z-0.704 F400.000
G1 X46.316 Y-20.390 Z-0.721 F400.000
G1 X46.374 Y-20.205 Z-0.739 F400.000
G1 X46.396 Y-20.012 Z-0.756 F400.000
G1 X46.379 Y-19.819 Z-0.773 F400.000
G1 X46.325 Y-19.633 Z-0.790 F400.000
G1 X46.236 Y-19.460 Z-0.807 F400.000
G1 X46.115 Y-19.309 Z-0.825 F400.000
G1 X45.966 Y-19.184 Z-0.842 F400.000
G1 X45.796 Y-19.090 Z-0.859 F400.000
G1 X45.611 Y-19.032 Z-0.876 F400.000
G1 X45.418 Y-19.010 Z-0.893 F400.000
G1 X45.225 Y-19.027 Z-0.910 F400.000
G1 X45.039 Y-19.081 Z-0.928 F400.000
G1 X44.866 Y-19.170 Z-0.945 F400.000
G1 X44.715 Y-19.291 Z-0.962 F400.000
G1 X44.590 Y-19.440 Z-0.979 F400.000
G1 X44.496 Y-19.610 Z-0.996 F400.000
G1 X44.438 Y-19.795 Z-1.014 F400.000
G1 X44.416 Y-19.988 Z-1.031 F400.000
G1 X44.433 Y-20.181 Z-1.048 F400.000
G1 X44.487 Y-20.367 Z-1.065 F400.000
G1 X44.576 Y-20.540 Z-1.082 F400.000
G1 X44.697 Y-20.691 Z-1.099 F400.000
G1 X44.846 Y-20.816 Z-1.117 F400.000
G1 X45.016 Y-20.910 Z-1.134 F400.000
G1 X45.201 Y-20.968 Z-1.151 F400.000
G1 X45.394 Y-20.990 Z-1.168 F400.000
G1 X45.587 Y-20.973 Z-1.185 F400.000
G1 X45.773 Y-20.919 Z-1.202 F400.000
G1 X45.946 Y-20.830 Z-1.220 F400.000
G1 X46.097 Y-20.709 Z-1.237 F400.000
G1 X46.222 Y-20.560 Z-1.254 F400.000
G1 X46.316 Y-20.390 Z-1.271 F400.000
G1 X46.374 Y-20.205 Z-1.288 F400.000
G1 X46.396 Y-20.012 Z-1.306 F400.000
G1 X46.379 Y-19.819 Z-1.323 F400.000
G1 X46.325 Y-19.633 Z-1.340 F400.000
G1 X46.236 Y-19.460 Z-1.357 F400.000
G1 X46.115 Y-19.309 Z-1.374 F400.000
G1 X45.966 Y-19.184 Z-1.391 F400.000
G1 X45.796 Y-19.090 Z-1.409 F400.000
G1 X45.611 Y-19.032 Z-1.426 F400.000
G1 X45.418 Y-19.010 Z-1.443 F400.000
G1 X45.225 Y-19.027 Z-1.460 F400.000
G1 X45.039 Y-19.081 Z-1.477 F400.000
G1 X44.866 Y-19.170 Z-1.495 F400.000
G1 X44.715 Y-19.291 Z-1.512 F400.000
G1 X44.590 Y-19.440 Z-1.529 F400.000
G1 X44.496 Y-19.610 Z-1.546 F400.000
G1 X44.438 Y-19.795 Z-1.563 F400.000
G1 X44.416 Y-19.988 Z-1.580 F400.000
G1 X44.433 Y-20.181 Z-1.598 F400.000
G1 X44.487 Y-20.367 Z-1.615 F400.000
G1 X44.576 Y-20.540 Z-1.632 F400.000
G1 X44.697 Y-20.691 Z-1.649 F400.000
G1 X44.846 Y-20.816 Z-1.666 F400.000
G1 X45.016 Y-20.910 Z-1.683 F400.000
G1 X45.201 Y-20.968 Z-1.701 F400.000
G1 X45.394 Y-20.990 Z-1.718 F400.000
G1 X45.587 Y-20.973 Z-1.735 F400.000
G1 X45.773 Y-20.919 Z-1.752 F400.000
G1 X45.946 Y-20.830 Z-1.769 F400.000
G1 X46.097 Y-20.709 Z-1.787 F400.000
G1 X46.222 Y-20.560 Z-1.804 F400.000
G1 X46.316 Y-20.390 Z-1.821 F400.000
G1 X46.374 Y-20.205 Z-1.838 F400.000
G1 X46.396 Y-20.012 Z-1.855 F400.000
G1 X46.379 Y-19.819 Z-1.872 F400.000
G1 X46.325 Y-19.633 Z-1.890 F400.000
G1 X46.236 Y-19.460 Z-1.907 F400.000
G1 X46.115 Y-19.309 Z-1.924 F400.000
G1 X45.966 Y-19.184 Z-1.941 F400.000
G1 X45.796 Y-19.090 Z-1.958 F400.000
G1 X45.611 Y-19.032 Z-1.976 F400.000
G1 X45.418 Y-19.010 Z-1.993 F400.000
G1 X45.225 Y-19.027 Z-2.010 F400.000
G1 X45.039 Y-19.081 Z-2.027 F400.000
G1 X44.866 Y-19.170 Z-2.044 F400.000
G1 X44.715 Y-19.291 Z-2.061 F400.000
G1 X44.590 Y-19.440 Z-2.079 F400.000
G1 X44.496 Y-19.610 Z-2.096 F400.000
G1 X44.438 Y-19.795 Z-2.113 F400.000
G1 X44.416 Y-19.988 Z-2.130 F400.000
G1 X44.433 Y-20.181 Z-2.147 F400.000
G1 X44.487 Y-20.367 Z-2.164 F400.000
G1 X44.576 Y-20.540 Z-2.182 F400.000
G1 X44.697 Y-20.691 Z-2.199 F400.000
G1 X44.846 Y-20.816 Z-2.216 F400.000
G1 X45.016 Y-20.910 Z-2.233 F400.000
G1 X45.201 Y-20.968 Z-2.250 F400.000
G1 X45.394 Y-20.990 Z-2.268 F400.000
G1 X45.587 Y-20.973 Z-2.285 F400.000
G1 X45.773 Y-20.919 Z-2.302 F400.000
G1 X45.946 Y-20.830 Z-2.319 F400.000
G1 X46.097 Y-20.709 Z-2.336 F400.000
G1 X46.222 Y-20.560 Z-2.353 F400.000
G1 X46.316 Y-20.390 Z-2.371 F400.000
G1 X46.374 Y-20.205 Z-2.388 F400.000
G1 X46.396 Y-20.012 Z-2.405 F400.000
G1 X46.379 Y-19.819 Z-2.422 F400.000
G1 X46.325 Y-19.633 Z-2.439 F400.000
G1 X46.236 Y-19.460 Z-2.457 F400.000
G1 X46.115 Y-19.309 Z-2.474 F400.000
G1 X45.966 Y-19.184 Z-2.491 F400.000
G1 X45.796 Y-19.090 Z-2.508 F400.000
G1 X45.611 Y-19.032 Z-2.525 F400.000
G1 X45.418 Y-19.010 Z-2.542 F400.000
G1 X45.225 Y-19.027 Z-2.560 F400.000
G1 X45.039 Y-19.081 Z-2.577 F400.000
G1 X44.866 Y-19.170 Z-2.594 F400.000
G1 X44.715 Y-19.291 Z-2.611 F400.000
G1 X44.590 Y-19.440 Z-2.628 F400.000
G1 X44.496 Y-19.610 Z-2.645 F400.000
G1 X44.438 Y-19.795 Z-2.663 F400.000
G1 X44.416 Y-19.988 Z-2.680 F400.000
G1 X44.433 Y-20.181 Z-2.697 F400.000
G1 X44.487 Y-20.367 Z-2.714 F400.000
G1 X44.576 Y-20.540 Z-2.731 F400.000
G1 X44.697 Y-20.691 Z-2.749 F400.000
G1 X44.846 Y-20.816 Z-2.766 F400.000
G1 X45.016 Y-20.910 Z-2.783 F400.000
G1 X45.201 Y-20.968 Z-2.800 F400.000
G1 X45.394 Y-20.990 Z-2.817 F400.000
G1 X45.587 Y-20.973 Z-2.834 F400.000
G1 X45.773 Y-20.919 Z-2.852 F400.000
G1 X45.946 Y-20.830 Z-2.869 F400.000
G1 X46.097 Y-20.709 Z-2.886 F400.000
G1 X46.222 Y-20.560 Z-2.903 F400.000
G1 X46.316 Y-20.390 Z-2.920 F400.000
G1 X46.374 Y-20.205 Z-2.937 F400.000
G1 X46.396 Y-20.012 Z-2.955 F400.000
G1 X46.379 Y-19.819 Z-2.972 F400.000
G1 X46.325 Y-19.633 Z-2.989 F400.000
G1 X46.236 Y-19.460 Z-3.006 F400.000
G1 X46.115 Y-19.309 Z-3.023 F400.000
G1 X45.966 Y-19.184 Z-3.041 F400.000
G1 X45.796 Y-19.090 Z-3.058 F400.000
G1 X45.611 Y-19.032 Z-3.075 F400.000
G1 X45.418 Y-19.010 Z-3.092 F400.000
G1 X45.225 Y-19.027 Z-3.109 F400.000
G1 X45.039 Y-19.081 Z-3.126 F400.000
G1 X44.866 Y-19.170 Z-3.144 F400.000
G1 X44.715 Y-19.291 Z-3.161 F400.000
G1 X44.590 Y-19.440 Z-3.178 F400.000
G1 X44.496 Y-19.610 Z-3.195 F400.000
G1 X44.438 Y-19.795 Z-3.212 F400.000
G1 X44.416 Y-19.988 Z-3.230 F400.000
G1 X44.433 Y-20.181 Z-3.247 F400.000
G1 X44.487 Y-20.367 Z-3.264 F400.000
G1 X44.576 Y-20.540 Z-3.281 F400.000
G1 X44.697 Y-20.691 Z-3.298 F400.000
G1 X44.846 Y-20.816 Z-3.315 F400.000
G1 X45.016 Y-20.910 Z-3.333 F400.000
G1 X45.201 Y-20.968 Z-3.350 F400.000
G1 X45.394 Y-20.990 Z-3.367 F400.000
G1 X45.587 Y-20.973 Z-3.384 F400.000
G1 X45.773 Y-20.919 Z-3.401 F400.000
G1 X45.946 Y-20.830 Z-3.418 F400.000
G1 X46.097 Y-20.709 Z-3.436 F400.000
G1 X46.222 Y-20.560 Z-3.453 F400.000
G1 X46.316 Y-20.390 Z-3.470 F400.000
G1 X46.374 Y-20.205 Z-3.487 F400.000
G1 X46.396 Y-20.012 Z-3.504 F400.000
G1 X46.379 Y-19.819 Z-3.522 F400.000
G1 X46.325 Y-19.633 Z-3.539 F400.000
G1 X46.236 Y-19.460 Z-3.556 F400.000
G1 X46.115 Y-19.309 Z-3.573 F400.000
G1 X45.966 Y-19.184 Z-3.590 F400.000
G1 X45.796 Y-19.090 Z-3.607 F400.000
G1 X45.611 Y-19.032 Z-3.625 F400.000
G1 X45.418 Y-19.010 Z-3.642 F400.000
G1 X45.225 Y-19.027 Z-3.659 F400.000
G1 X45.039 Y-19.081 Z-3.676 F400.000
G1 X44.866 Y-19.170 Z-3.693 F400.000
G1 X44.715 Y-19.291 Z-3.711 F400.000
G1 X44.590 Y-19.440 Z-3.728 F400.000
G1 X44.496 Y-19.610 Z-3.745 F400.000
G1 X44.438 Y-19.795 Z-3.762 F400.000
G1 X44.416 Y-19.988 Z-3.779 F400.000
G1 X44.433 Y-20.181 Z-3.796 F400.000
G1 X44.487 Y-20.367 Z-3.814 F400.000
G1 X44.576 Y-20.540 Z-3.831 F400.000
G1 X44.697 Y-20.691 Z-3.848 F400.000
G1 X44.846 Y-20.816 Z-3.865 F400.000
G1 X45.016 Y-20.910 Z-3.882 F400.000
G1 X45.201 Y-20.968 Z-3.899 F400.000
G1 X45.394 Y-20.990 Z-3.917 F400.000
G1 X45.587 Y-20.973 Z-3.934 F400.000
G1 X45.773 Y-20.919 Z-3.951 F400.000
G1 X45.946 Y-20.830 Z-3.968 F400.000
G1 X46.097 Y-20.709 Z-3.985 F400.000
G1 X46.222 Y-20.560 Z-4.003 F400.000
G1 X46.316 Y-20.390 Z-4.020 F400.000
G1 X46.374 Y-20.205 Z-4.037 F400.000
G1 X46.396 Y-20.012 Z-4.054 F400.000
G1 X46.379 Y-19.819 Z-4.071 F400.000
G1 X46.325 Y-19.633 Z-4.088 F400.000
G1 X46.236 Y-19.460 Z-4.106 F400.000
G1 X46.115 Y-19.309 Z-4.123 F400.000
G1 X45.966 Y-19.184 Z-4.140 F400.000
G1 X45.796 Y-19.090 Z-4.157 F400.000
G1 X45.611 Y-19.032 Z-4.174 F400.000
G1 X45.418 Y-19.010 Z-4.192 F400.000
G1 X45.225 Y-19.027 Z-4.209 F400.000
G1 X45.039 Y-19.081 Z-4.226 F400.000
G1 X44.866 Y-19.170 Z-4.243 F400.000
G1 X44.715 Y-19.291 Z-4.260 F400.000
G1 X44.590 Y-19.440 Z-4.277 F400.000
G1 X44.496 Y-19.610 Z-4.295 F400.000
G1 X44.438 Y-19.795 Z-4.312 F400.000
G1 X44.416 Y-19.988 Z-4.329 F400.000
G1 X44.433 Y-20.181 Z-4.346 F400.000
G1 X44.487 Y-20.367 Z-4.363 F400.000
G1 X44.576 Y-20.540 Z-4.380 F400.000
G1 X44.697 Y-20.691 Z-4.398 F400.000
G1 X44.846 Y-20.816 Z-4.415 F400.000
G1 X45.016 Y-20.910 Z-4.432 F400.000
G1 X45.201 Y-20.968 Z-4.449 F400.000
G1 X45.394 Y-20.990 Z-4.466 F400.000
G1 X45.587 Y-20.973 Z-4.484 F400.000
G1 X45.773 Y-20.919 Z-4.501 F400.000
G1 X45.946 Y-20.830 Z-4.518 F400.000
G1 X46.097 Y-20.709 Z-4.535 F400.000
G1 X46.222 Y-20.560 Z-4.552 F400.000
G1 X46.316 Y-20.390 Z-4.569 F400.000
G1 X46.374 Y-20.205 Z-4.587 F400.000
G1 X46.396 Y-20.012 Z-4.604 F400.000
G1 X46.379 Y-19.819 Z-4.621 F400.000
G1 X46.325 Y-19.633 Z-4.638 F400.000
G1 X46.236 Y-19.460 Z-4.655 F400.000
G1 X46.115 Y-19.309 Z-4.673 F400.000
G1 X45.966 Y-19.184 Z-4.690 F400.000
G1 X45.796 Y-19.090 Z-4.707 F400.000
G1 X45.611 Y-19.032 Z-4.724 F400.000
G1 X45.418 Y-19.010 Z-4.741 F400.000
G1 X45.225 Y-19.027 Z-4.758 F400.000
G1 X45.039 Y-19.081 Z-4.776 F400.000
G1 X44.866 Y-19.170 Z-4.793 F400.000
G1 X44.715 Y-19.291 Z-4.810 F400.000
G1 X44.590 Y-19.440 Z-4.827 F400.000
G1 X44.496 Y-19.610 Z-4.844 F400.000
G1 X44.438 Y-19.795 Z-4.861 F400.000
G1 X44.416 Y-19.988 Z-4.879 F400.000
G1 X44.433 Y-20.181 Z-4.896 F400.000
G1 X44.487 Y-20.367 Z-4.913 F400.000
G1 X44.576 Y-20.540 Z-4.930 F400.000
G1 X44.697 Y-20.691 Z-4.947 F400.000
G1 X44.846 Y-20.816 Z-4.965 F400.000
G1 X45.016 Y-20.910 Z-4.982 F400.000
G1 X45.201 Y-20.968 Z-4.999 F400.000
G1 X45.394 Y-20.990 Z-5.000 F400.000
G1 X45.587 Y-20.973 Z-5.000 F400.000
G1 X45.773 Y-20.919 Z-5.000 F400.000
G1 X45.946 Y-20.830 Z-5.000 F400.000
G1 X46.097 Y-20.709 Z-5.000 F400.000
G1 X46.222 Y-20.560 Z-5.000 F400.000
G1 X46.316 Y-20.390 Z-5.000 F400.000
G1 X46.374 Y-20.205 Z-5.000 F400.000
G1 X46.396 Y-20.012 Z-5.000 F400.000
G1 X46.379 Y-19.819 Z-5.000 F400.000
G1 X46.325 Y-19.633 Z-5.000 F400.000
G1 X46.236 Y-19.460 Z-5.000 F400.000
G1 X46.115 Y-19.309 Z-5.000 F400.000
G1 X45.966 Y-19.184 Z-5.000 F400.000
G1 X45.796 Y-19.090 Z-5.000 F400.000
G1 X45.611 Y-19.032 Z-5.000 F400.000
G1 X45.418 Y-19.010 Z-5.000 F400.000
G1 X45.225 Y-19.027 Z-5.000 F400.000
