(Exported by FreeCAD)
(Post Processor: grbl_post)
(Output Time:2024-03-02 12:12:07.912356)
(Begin preamble)
G17 G90
G21
(Block-name: Fixture)
(Block-expand: 0)
(Block-enable: 1)
(Begin operation: Fixture)
(Path: Fixture)
G54
(Finish operation: Fixture)
(Block-name: 3mm Endmill001)
(Block-expand: 0)
(Block-enable: 1)
(Begin operation: 3mm Endmill001)
(Path: 3mm Endmill001)
(3mm Endmill001)
(Begin toolchange)
( M6 T3 )
M3 S8000
(Finish operation: 3mm Endmill001)
(Block-name: Adaptive_big hole)
(Block-expand: 0)
(Block-enable: 1)
(Begin operation: Adaptive_big hole)
(Path: Adaptive_big hole)
(Adaptive_big hole)
(Helix to depth: -4.000000)
G0 Z5.000
G0 X0.714 Y-0.176 Z5.000
G0 X0.714 Y-0.176 Z3.000
G1 X0.714 Y-0.176 Z0.000 F400.000
G1 X1.092 Y0.000 Z0.000 F400.000
G1 X1.086 Y0.097 Z-0.015 F400.000
G1 X1.071 Y0.193 Z-0.030 F400.000
G1 X1.048 Y0.287 Z-0.045 F400.000
G1 X1.017 Y0.378 Z-0.060 F400.000
G1 X0.978 Y0.467 Z-0.075 F400.000
G1 X0.931 Y0.551 Z-0.090 F400.000
G1 X0.878 Y0.631 Z-0.105 F400.000
G1 X0.817 Y0.705 Z-0.120 F400.000
G1 X0.750 Y0.774 Z-0.135 F400.000
G1 X0.677 Y0.836 Z-0.150 F400.000
G1 X0.599 Y0.892 Z-0.165 F400.000
G1 X0.517 Y0.940 Z-0.180 F400.000
G1 X0.431 Y0.981 Z-0.195 F400.000
G1 X0.341 Y1.014 Z-0.210 F400.000
G1 X0.249 Y1.038 Z-0.225 F400.000
G1 X0.156 Y1.055 Z-0.240 F400.000
G1 X0.061 Y1.063 Z-0.255 F400.000
G1 X-0.033 Y1.063 Z-0.270 F400.000
G1 X-0.128 Y1.054 Z-0.285 F400.000
G1 X-0.220 Y1.037 Z-0.300 F400.000
G1 X-0.311 Y1.012 Z-0.315 F400.000
G1 X-0.399 Y0.979 Z-0.330 F400.000
G1 X-0.484 Y0.938 Z-0.345 F400.000
G1 X-0.565 Y0.890 Z-0.360 F400.000
G1 X-0.641 Y0.835 Z-0.375 F400.000
G1 X-0.711 Y0.773 Z-0.390 F400.000
G1 X-0.776 Y0.706 Z-0.405 F400.000
G1 X-0.834 Y0.633 Z-0.420 F400.000
G1 X-0.886 Y0.556 Z-0.435 F400.000
G1 X-0.930 Y0.474 Z-0.450 F400.000
G1 X-0.967 Y0.389 Z-0.465 F400.000
G1 X-0.997 Y0.301 Z-0.480 F400.000
G1 X-1.018 Y0.211 Z-0.495 F400.000
G1 X-1.031 Y0.119 Z-0.510 F400.000
G1 X-1.036 Y0.027 Z-0.525 F400.000
G1 X-1.033 Y-0.065 Z-0.540 F400.000
G1 X-1.021 Y-0.156 Z-0.555 F400.000
G1 X-1.002 Y-0.246 Z-0.570 F400.000
G1 X-0.975 Y-0.334 Z-0.585 F400.000
G1 X-0.940 Y-0.418 Z-0.600 F400.000
G1 X-0.897 Y-0.499 Z-0.615 F400.000
G1 X-0.848 Y-0.576 Z-0.630 F400.000
G1 X-0.792 Y-0.648 Z-0.645 F400.000
G1 X-0.730 Y-0.715 Z-0.660 F400.000
G1 X-0.663 Y-0.776 Z-0.675 F400.000
G1 X-0.590 Y-0.831 Z-0.690 F400.000
G1 X-0.513 Y-0.879 Z-0.705 F400.000
G1 X-0.433 Y-0.919 Z-0.720 F400.000
G1 X-0.349 Y-0.953 Z-0.735 F400.000
G1 X-0.262 Y-0.978 Z-0.750 F400.000
G1 X-0.174 Y-0.996 Z-0.765 F400.000
G1 X-0.084 Y-1.006 Z-0.780 F400.000
G1 X0.005 Y-1.008 Z-0.795 F400.000
G1 X0.095 Y-1.002 Z-0.810 F400.000
G1 X0.183 Y-0.988 Z-0.825 F400.000
G1 X0.270 Y-0.966 Z-0.840 F400.000
G1 X0.354 Y-0.937 Z-0.855 F400.000
G1 X0.435 Y-0.900 Z-0.870 F400.000
G1 X0.513 Y-0.857 Z-0.885 F400.000
G1 X0.586 Y-0.807 Z-0.900 F400.000
G1 X0.654 Y-0.750 Z-0.915 F400.000
G1 X0.717 Y-0.688 Z-0.930 F400.000
G1 X0.774 Y-0.620 Z-0.945 F400.000
G1 X0.825 Y-0.548 Z-0.960 F400.000
G1 X0.869 Y-0.472 Z-0.975 F400.000
G1 X0.906 Y-0.392 Z-0.990 F400.000
G1 X0.936 Y-0.310 Z-1.005 F400.000
G1 X0.958 Y-0.225 Z-1.020 F400.000
G1 X0.973 Y-0.138 Z-1.035 F400.000
G1 X0.980 Y-0.051 Z-1.050 F400.000
G1 X0.979 Y0.036 Z-1.065 F400.000
G1 X0.970 Y0.123 Z-1.080 F400.000
G1 X0.954 Y0.208 Z-1.095 F400.000
G1 X0.930 Y0.292 Z-1.110 F400.000
G1 X0.899 Y0.372 Z-1.125 F400.000
G1 X0.861 Y0.450 Z-1.140 F400.000
G1 X0.816 Y0.524 Z-1.155 F400.000
G1 X0.765 Y0.594 Z-1.170 F400.000
G1 X0.708 Y0.658 Z-1.185 F400.000
G1 X0.646 Y0.717 Z-1.200 F400.000
G1 X0.579 Y0.771 Z-1.215 F400.000
G1 X0.507 Y0.818 Z-1.230 F400.000
G1 X0.432 Y0.858 Z-1.245 F400.000
G1 X0.353 Y0.892 Z-1.260 F400.000
G1 X0.272 Y0.918 Z-1.275 F400.000
G1 X0.189 Y0.937 Z-1.290 F400.000
G1 X0.105 Y0.949 Z-1.305 F400.000
G1 X0.020 Y0.953 Z-1.320 F400.000
G1 X-0.065 Y0.949 Z-1.335 F400.000
G1 X-0.149 Y0.938 Z-1.350 F400.000
G1 X-0.231 Y0.920 Z-1.365 F400.000
G1 X-0.311 Y0.894 Z-1.380 F400.000
G1 X-0.389 Y0.861 Z-1.395 F400.000
G1 X-0.463 Y0.822 Z-1.410 F400.000
G1 X-0.533 Y0.776 Z-1.425 F400.000
G1 X-0.599 Y0.724 Z-1.440 F400.000
G1 X-0.660 Y0.667 Z-1.455 F400.000
G1 X-0.716 Y0.605 Z-1.470 F400.000
G1 X-0.765 Y0.538 Z-1.485 F400.000
G1 X-0.809 Y0.467 Z-1.500 F400.000
G1 X-0.846 Y0.393 Z-1.515 F400.000
G1 X-0.876 Y0.315 Z-1.530 F400.000
G1 X-0.899 Y0.236 Z-1.545 F400.000
G1 X-0.915 Y0.155 Z-1.560 F400.000
G1 X-0.923 Y0.073 Z-1.575 F400.000
G1 X-0.924 Y-0.010 Z-1.590 F400.000
G1 X-0.918 Y-0.092 Z-1.605 F400.000
G1 X-0.905 Y-0.173 Z-1.620 F400.000
G1 X-0.885 Y-0.252 Z-1.635 F400.000
G1 X-0.857 Y-0.329 Z-1.650 F400.000
G1 X-0.823 Y-0.403 Z-1.665 F400.000
G1 X-0.783 Y-0.474 Z-1.680 F400.000
G1 X-0.736 Y-0.541 Z-1.695 F400.000
G1 X-0.684 Y-0.603 Z-1.710 F400.000
G1 X-0.627 Y-0.660 Z-1.725 F400.000
G1 X-0.564 Y-0.712 Z-1.740 F400.000
G1 X-0.498 Y-0.758 Z-1.755 F400.000
G1 X-0.428 Y-0.798 Z-1.770 F400.000
G1 X-0.355 Y-0.832 Z-1.785 F400.000
G1 X-0.279 Y-0.858 Z-1.800 F400.000
G1 X-0.201 Y-0.878 Z-1.815 F400.000
G1 X-0.122 Y-0.891 Z-1.830 F400.000
G1 X-0.042 Y-0.897 Z-1.845 F400.000
G1 X0.038 Y-0.895 Z-1.860 F400.000
G1 X0.117 Y-0.887 Z-1.875 F400.000
G1 X0.195 Y-0.871 Z-1.890 F400.000
G1 X0.271 Y-0.849 Z-1.905 F400.000
G1 X0.345 Y-0.820 Z-1.920 F400.000
G1 X0.416 Y-0.785 Z-1.935 F400.000
G1 X0.483 Y-0.744 Z-1.950 F400.000
G1 X0.546 Y-0.696 Z-1.965 F400.000
G1 X0.605 Y-0.644 Z-1.980 F400.000
G1 X0.658 Y-0.587 Z-1.995 F400.000
G1 X0.707 Y-0.525 Z-2.010 F400.000
G1 X0.749 Y-0.459 Z-2.025 F400.000
G1 X0.786 Y-0.390 Z-2.040 F400.000
G1 X0.816 Y-0.318 Z-2.055 F400.000
G1 X0.839 Y-0.244 Z-2.070 F400.000
G1 X0.856 Y-0.168 Z-2.085 F400.000
G1 X0.866 Y-0.091 Z-2.100 F400.000
G1 X0.869 Y-0.014 Z-2.115 F400.000
G1 X0.865 Y0.064 Z-2.130 F400.000
G1 X0.855 Y0.140 Z-2.145 F400.000
G1 X0.837 Y0.215 Z-2.160 F400.000
G1 X0.814 Y0.288 Z-2.175 F400.000
G1 X0.783 Y0.359 Z-2.190 F400.000
G1 X0.747 Y0.426 Z-2.205 F400.000
G1 X0.705 Y0.490 Z-2.220 F400.000
G1 X0.657 Y0.550 Z-2.235 F400.000
G1 X0.605 Y0.605 Z-2.250 F400.000
G1 X0.548 Y0.655 Z-2.265 F400.000
G1 X0.486 Y0.700 Z-2.280 F400.000
G1 X0.421 Y0.739 Z-2.295 F400.000
G1 X0.353 Y0.772 Z-2.310 F400.000
G1 X0.283 Y0.799 Z-2.325 F400.000
G1 X0.210 Y0.819 Z-2.340 F400.000
G1 X0.136 Y0.833 Z-2.355 F400.000
G1 X0.062 Y0.840 Z-2.370 F400.000
G1 X-0.013 Y0.841 Z-2.385 F400.000
G1 X-0.088 Y0.835 Z-2.400 F400.000
G1 X-0.161 Y0.822 Z-2.415 F400.000
G1 X-0.233 Y0.803 Z-2.430 F400.000
G1 X-0.303 Y0.778 Z-2.445 F400.000
G1 X-0.370 Y0.746 Z-2.460 F400.000
G1 X-0.434 Y0.709 Z-2.475 F400.000
G1 X-0.495 Y0.666 Z-2.490 F400.000
G1 X-0.551 Y0.618 Z-2.505 F400.000
G1 X-0.603 Y0.566 Z-2.520 F400.000
G1 X-0.649 Y0.509 Z-2.535 F400.000
G1 X-0.691 Y0.449 Z-2.550 F400.000
G1 X-0.726 Y0.385 Z-2.565 F400.000
G1 X-0.756 Y0.318 Z-2.580 F400.000
G1 X-0.780 Y0.249 Z-2.595 F400.000
G1 X-0.798 Y0.178 Z-2.610 F400.000
G1 X-0.809 Y0.106 Z-2.625 F400.000
G1 X-0.813 Y0.034 Z-2.640 F400.000
G1 X-0.812 Y-0.038 Z-2.655 F400.000
G1 X-0.803 Y-0.110 Z-2.670 F400.000
G1 X-0.789 Y-0.181 Z-2.685 F400.000
G1 X-0.768 Y-0.250 Z-2.700 F400.000
G1 X-0.742 Y-0.316 Z-2.715 F400.000
G1 X-0.709 Y-0.380 Z-2.730 F400.000
G1 X-0.671 Y-0.441 Z-2.745 F400.000
G1 X-0.628 Y-0.498 Z-2.760 F400.000
G1 X-0.580 Y-0.551 Z-2.775 F400.000
G1 X-0.528 Y-0.599 Z-2.790 F400.000
G1 X-0.472 Y-0.642 Z-2.805 F400.000
G1 X-0.412 Y-0.680 Z-2.820 F400.000
G1 X-0.349 Y-0.713 Z-2.835 F400.000
G1 X-0.284 Y-0.739 Z-2.850 F400.000
G1 X-0.217 Y-0.760 Z-2.865 F400.000
G1 X-0.148 Y-0.775 Z-2.880 F400.000
G1 X-0.078 Y-0.783 Z-2.895 F400.000
G1 X-0.008 Y-0.786 Z-2.910 F400.000
G1 X0.062 Y-0.782 Z-2.925 F400.000
G1 X0.131 Y-0.772 Z-2.940 F400.000
G1 X0.198 Y-0.755 Z-2.955 F400.000
G1 X0.264 Y-0.733 Z-2.970 F400.000
G1 X0.328 Y-0.706 Z-2.985 F400.000
G1 X0.388 Y-0.672 Z-3.000 F400.000
G1 X0.445 Y-0.634 Z-3.015 F400.000
G1 X0.499 Y-0.591 Z-3.030 F400.000
G1 X0.548 Y-0.543 Z-3.045 F400.000
G1 X0.593 Y-0.491 Z-3.060 F400.000
G1 X0.633 Y-0.435 Z-3.075 F400.000
G1 X0.668 Y-0.376 Z-3.090 F400.000
G1 X0.697 Y-0.315 Z-3.105 F400.000
G1 X0.721 Y-0.251 Z-3.120 F400.000
G1 X0.739 Y-0.186 Z-3.135 F400.000
G1 X0.751 Y-0.119 Z-3.150 F400.000
G1 X0.757 Y-0.052 Z-3.165 F400.000
G1 X0.757 Y0.016 Z-3.180 F400.000
G1 X0.751 Y0.083 Z-3.195 F400.000
G1 X0.739 Y0.149 Z-3.210 F400.000
G1 X0.722 Y0.214 Z-3.225 F400.000
G1 X0.698 Y0.276 Z-3.240 F400.000
G1 X0.670 Y0.337 Z-3.255 F400.000
G1 X0.636 Y0.394 Z-3.270 F400.000
G1 X0.597 Y0.448 Z-3.285 F400.000
G1 X0.553 Y0.498 Z-3.300 F400.000
G1 X0.506 Y0.544 Z-3.315 F400.000
G1 X0.455 Y0.586 Z-3.330 F400.000
G1 X0.400 Y0.623 Z-3.345 F400.000
G1 X0.342 Y0.654 Z-3.360 F400.000
G1 X0.282 Y0.681 Z-3.375 F400.000
G1 X0.220 Y0.702 Z-3.390 F400.000
G1 X0.156 Y0.717 Z-3.405 F400.000
G1 X0.092 Y0.726 Z-3.420 F400.000
G1 X0.027 Y0.730 Z-3.435 F400.000
G1 X-0.038 Y0.728 Z-3.450 F400.000
G1 X-0.102 Y0.720 Z-3.465 F400.000
G1 X-0.166 Y0.707 Z-3.480 F400.000
G1 X-0.227 Y0.688 Z-3.495 F400.000
G1 X-0.287 Y0.663 Z-3.510 F400.000
G1 X-0.344 Y0.634 Z-3.525 F400.000
G1 X-0.398 Y0.599 Z-3.540 F400.000
G1 X-0.449 Y0.560 Z-3.555 F400.000
G1 X-0.496 Y0.517 Z-3.570 F400.000
G1 X-0.539 Y0.470 Z-3.585 F400.000
G1 X-0.577 Y0.419 Z-3.600 F400.000
G1 X-0.611 Y0.365 Z-3.615 F400.000
G1 X-0.639 Y0.309 Z-3.630 F400.000
G1 X-0.663 Y0.250 Z-3.645 F400.000
G1 X-0.681 Y0.190 Z-3.660 F400.000
G1 X-0.694 Y0.129 Z-3.675 F400.000
G1 X-0.701 Y0.066 Z-3.690 F400.000
G1 X-0.702 Y0.004 Z-3.705 F400.000
G1 X-0.698 Y-0.059 Z-3.720 F400.000
G1 X-0.689 Y-0.120 Z-3.735 F400.000
G1 X-0.674 Y-0.181 Z-3.750 F400.000
G1 X-0.654 Y-0.239 Z-3.765 F400.000
G1 X-0.628 Y-0.296 Z-3.780 F400.000
G1 X-0.598 Y-0.350 Z-3.795 F400.000
G1 X-0.563 Y-0.400 Z-3.810 F400.000
G1 X-0.524 Y-0.448 Z-3.825 F400.000
G1 X-0.481 Y-0.492 Z-3.840 F400.000
G1 X-0.435 Y-0.531 Z-3.855 F400.000
G1 X-0.385 Y-0.566 Z-3.870 F400.000
G1 X-0.332 Y-0.597 Z-3.885 F400.000
G1 X-0.277 Y-0.623 Z-3.900 F400.000
G1 X-0.220 Y-0.643 Z-3.915 F400.000
G1 X-0.162 Y-0.659 Z-3.930 F400.000
G1 X-0.102 Y-0.669 Z-3.945 F400.000
G1 X-0.042 Y-0.674 Z-3.960 F400.000
G1 X0.018 Y-0.674 Z-3.975 F400.000
G1 X0.077 Y-0.668 Z-3.990 F400.000
G3 X-0.077 Y0.668 Z-4.000 I-0.077 J0.668 F400.000
G3 X0.077 Y-0.668 Z-4.000 I0.077 J-0.668 F400.000
(Adaptive - depth: -4.000000)
G1 X0.000 Y-0.746 F400.000
G1 X0.062 Y-0.808 F400.000
G1 X0.141 Y-0.842 F400.000
G1 X0.311 Y-0.864 F400.000
G1 X0.395 Y-0.859 F400.000
G1 X0.565 Y-0.802 F400.000
G1 X0.718 Y-0.706 F400.000
G1 X0.785 Y-0.644 F400.000
G1 X1.000 Y-0.345 F400.000
G1 X1.073 Y-0.102 F400.000
G1 X1.085 Y0.056 F400.000
G1 X1.068 Y0.220 F400.000
G1 X1.011 Y0.424 F400.000
G1 X0.898 Y0.650 F400.000
G1 X0.740 Y0.831 F400.000
G1 X0.576 Y0.955 F400.000
G1 X0.390 Y1.045 F400.000
G1 X0.181 Y1.107 F400.000
G1 X-0.056 Y1.130 F400.000
G1 X-0.288 Y1.102 F400.000
G1 X-0.503 Y1.017 F400.000
G1 X-0.672 Y0.915 F400.000
G1 X-0.836 Y0.768 F400.000
G1 X-0.972 Y0.576 F400.000
G1 X-1.062 Y0.379 F400.000
G1 X-1.113 Y0.164 F400.000
G1 X-1.130 Y-0.056 F400.000
G1 X-1.096 Y-0.294 F400.000
G1 X-1.023 Y-0.508 F400.000
G1 X-0.898 Y-0.701 F400.000
G1 X-0.763 Y-0.853 F400.000
G1 X-0.576 Y-1.017 F400.000
G1 X-0.333 Y-1.147 F400.000
G1 X0.017 Y-1.243 F400.000
G1 X0.271 Y-1.260 F400.000
G1 X0.525 Y-1.226 F400.000
G1 X0.610 Y-1.198 F400.000
G1 X0.944 Y-1.034 F400.000
G1 X1.215 Y-0.785 F400.000
G1 X1.328 Y-0.610 F400.000
G1 X1.407 Y-0.441 F400.000
G1 X1.469 Y-0.215 F400.000
G1 X1.503 Y0.040 F400.000
G1 X1.486 Y0.328 F400.000
G1 X1.424 Y0.576 F400.000
G1 X1.333 Y0.797 F400.000
G1 X1.186 Y1.017 F400.000
G1 X1.011 Y1.203 F400.000
G1 X0.808 Y1.356 F400.000
G1 X0.576 Y1.475 F400.000
G1 X0.333 Y1.548 F400.000
G1 X0.079 Y1.582 F400.000
G1 X-0.175 Y1.582 F400.000
G1 X-0.469 Y1.525 F400.000
G1 X-0.723 Y1.429 F400.000
G1 X-0.955 Y1.288 F400.000
G1 X-1.136 Y1.130 F400.000
G1 X-1.299 Y0.927 F400.000
G1 X-1.435 Y0.706 F400.000
G1 X-1.542 Y0.429 F400.000
G1 X-1.599 Y0.164 F400.000
G1 X-1.605 Y-0.107 F400.000
G1 X-1.571 Y-0.350 F400.000
G1 X-1.492 Y-0.599 F400.000
G1 X-1.390 Y-0.836 F400.000
G1 X-1.203 Y-1.113 F400.000
G1 X-1.000 Y-1.311 F400.000
G1 X-0.802 Y-1.463 F400.000
G1 X-0.554 Y-1.605 F400.000
G1 X-0.243 Y-1.712 F400.000
G1 X0.034 Y-1.757 F400.000
G1 X0.288 Y-1.763 F400.000
G1 X0.571 Y-1.729 F400.000
G1 X0.864 Y-1.644 F400.000
G1 X1.124 Y-1.525 F400.000
G1 X1.362 Y-1.350 F400.000
G1 X1.542 Y-1.175 F400.000
G1 X1.706 Y-0.949 F400.000
G1 X1.842 Y-0.706 F400.000
G1 X1.944 Y-0.418 F400.000
G1 X1.994 Y-0.136 F400.000
G1 X2.017 Y0.147 F400.000
G1 X1.983 Y0.475 F400.000
G1 X1.910 Y0.763 F400.000
G1 X1.797 Y1.045 F400.000
G1 X1.627 Y1.305 F400.000
G1 X1.446 Y1.514 F400.000
G1 X1.220 Y1.712 F400.000
G1 X0.972 Y1.864 F400.000
G1 X0.706 Y1.977 F400.000
G1 X0.424 Y2.062 F400.000
G1 X0.090 Y2.113 F400.000
G1 X-0.243 Y2.113 F400.000
G1 X-0.554 Y2.056 F400.000
G1 X-0.814 Y1.977 F400.000
G1 X-1.090 Y1.842 F400.000
G1 X-1.333 Y1.667 F400.000
G1 X-1.548 Y1.463 F400.000
G1 X-1.734 Y1.226 F400.000
G1 X-1.893 Y0.972 F400.000
G1 X-2.034 Y0.638 F400.000
G1 X-2.107 Y0.328 F400.000
G1 X-2.130 Y0.040 F400.000
G1 X-2.124 Y-0.237 F400.000
G1 X-2.073 Y-0.582 F400.000
G1 X-1.966 Y-0.921 F400.000
G1 X-1.808 Y-1.209 F400.000
G1 X-1.655 Y-1.424 F400.000
G1 X-1.452 Y-1.655 F400.000
G1 X-1.181 Y-1.887 F400.000
G1 X-0.893 Y-2.073 F400.000
G1 X-0.576 Y-2.203 F400.000
G1 X-0.299 Y-2.282 F400.000
G1 X0.017 Y-2.328 F400.000
G1 X0.322 Y-2.333 F400.000
G1 X0.667 Y-2.288 F400.000
G1 X0.983 Y-2.203 F400.000
G1 X1.282 Y-2.079 F400.000
G1 X1.571 Y-1.904 F400.000
G1 X1.831 Y-1.695 F400.000
G1 X2.051 Y-1.446 F400.000
G1 X2.209 Y-1.215 F400.000
G1 X2.362 Y-0.938 F400.000
G1 X2.492 Y-0.593 F400.000
G1 X2.576 Y-0.237 F400.000
G1 X2.599 Y0.102 F400.000
G1 X2.582 Y0.390 F400.000
G1 X2.531 Y0.718 F400.000
G1 X2.418 Y1.068 F400.000
G1 X2.282 Y1.367 F400.000
G1 X2.085 Y1.655 F400.000
G1 X1.881 Y1.887 F400.000
G1 X1.633 Y2.102 F400.000
G1 X1.367 Y2.294 F400.000
G1 X1.034 Y2.463 F400.000
G1 X0.706 Y2.588 F400.000
G1 X0.362 Y2.672 F400.000
G1 X0.000 Y2.712 F400.000
G1 X-0.356 Y2.695 F400.000
G1 X-0.667 Y2.644 F400.000
G1 X-0.994 Y2.542 F400.000
G1 X-1.299 Y2.401 F400.000
G1 X-1.582 Y2.226 F400.000
G1 X-1.842 Y2.006 F400.000
G1 X-2.079 Y1.763 F400.000
G1 X-2.299 Y1.463 F400.000
G1 X-2.469 Y1.158 F400.000
G1 X-2.605 Y0.831 F400.000
G1 X-2.701 Y0.480 F400.000
G1 X-2.734 Y0.124 F400.000
G1 X-2.740 Y-0.181 F400.000
G1 X-2.689 Y-0.548 F400.000
G1 X-2.610 Y-0.887 F400.000
G1 X-2.480 Y-1.237 F400.000
G1 X-2.311 Y-1.565 F400.000
G1 X-2.090 Y-1.864 F400.000
G1 X-1.876 Y-2.096 F400.000
G1 X-1.610 Y-2.328 F400.000
G1 X-1.294 Y-2.531 F400.000
G1 X-0.977 Y-2.689 F400.000
G1 X-0.633 Y-2.814 F400.000
G1 X-0.266 Y-2.893 F400.000
G1 X0.090 Y-2.927 F400.000
G1 X0.452 Y-2.921 F400.000
G1 X0.814 Y-2.881 F400.000
G1 X1.175 Y-2.791 F400.000
G1 X1.514 Y-2.644 F400.000
G1 X1.797 Y-2.492 F400.000
G1 X2.096 Y-2.271 F400.000
G1 X2.350 Y-2.023 F400.000
G1 X2.571 Y-1.751 F400.000
G1 X2.774 Y-1.452 F400.000
G1 X2.949 Y-1.124 F400.000
G1 X3.085 Y-0.774 F400.000
G1 X3.169 Y-0.407 F400.000
G1 X3.215 Y-0.068 F400.000
G1 X3.220 Y0.299 F400.000
G1 X3.175 Y0.667 F400.000
G1 X3.090 Y1.023 F400.000
G1 X2.960 Y1.373 F400.000
G1 X2.791 Y1.701 F400.000
G1 X2.582 Y2.011 F400.000
G1 X2.339 Y2.294 F400.000
G1 X2.062 Y2.542 F400.000
G1 X1.768 Y2.774 F400.000
G1 X1.446 Y2.960 F400.000
G1 X1.107 Y3.113 F400.000
G1 X0.751 Y3.232 F400.000
G1 X0.384 Y3.311 F400.000
G1 X0.011 Y3.333 F400.000
G1 X-0.333 Y3.322 F400.000
G1 X-0.701 Y3.266 F400.000
G1 X-1.062 Y3.175 F400.000
G1 X-1.407 Y3.040 F400.000
G1 X-1.734 Y2.870 F400.000
G1 X-2.045 Y2.667 F400.000
G1 X-2.333 Y2.429 F400.000
G1 X-2.582 Y2.153 F400.000
G1 X-2.791 Y1.870 F400.000
G1 X-2.977 Y1.542 F400.000
G1 X-3.136 Y1.203 F400.000
G1 X-3.249 Y0.847 F400.000
G1 X-3.328 Y0.480 F400.000
G1 X-3.373 Y0.107 F400.000
G1 X-3.373 Y-0.260 F400.000
G1 X-3.333 Y-0.627 F400.000
G1 X-3.254 Y-0.989 F400.000
G1 X-3.141 Y-1.339 F400.000
G1 X-2.989 Y-1.678 F400.000
G1 X-2.802 Y-2.000 F400.000
G1 X-2.582 Y-2.299 F400.000
G1 X-2.322 Y-2.565 F400.000
G1 X-2.045 Y-2.797 F400.000
G1 X-1.740 Y-3.011 F400.000
G1 X-1.412 Y-3.198 F400.000
G1 X-1.068 Y-3.345 F400.000
G1 X-0.712 Y-3.463 F400.000
G1 X-0.345 Y-3.542 F400.000
G1 X0.023 Y-3.588 F400.000
G1 X0.390 Y-3.593 F400.000
G1 X0.757 Y-3.565 F400.000
G1 X1.124 Y-3.497 F400.000
G1 X1.475 Y-3.379 F400.000
G1 X1.814 Y-3.232 F400.000
G1 X2.136 Y-3.045 F400.000
G1 X2.435 Y-2.825 F400.000
G1 X2.712 Y-2.576 F400.000
G1 X2.966 Y-2.305 F400.000
G1 X3.186 Y-2.006 F400.000
G1 X3.379 Y-1.684 F400.000
G1 X3.554 Y-1.350 F400.000
G1 X3.684 Y-1.000 F400.000
G1 X3.785 Y-0.638 F400.000
G1 X3.842 Y-0.266 F400.000
G1 X3.864 Y0.102 F400.000
G1 X3.847 Y0.469 F400.000
G1 X3.791 Y0.836 F400.000
G1 X3.701 Y1.198 F400.000
G1 X3.571 Y1.548 F400.000
G1 X3.418 Y1.887 F400.000
G1 X3.226 Y2.209 F400.000
G1 X3.006 Y2.508 F400.000
G1 X2.763 Y2.791 F400.000
G1 X2.492 Y3.045 F400.000
G1 X2.198 Y3.277 F400.000
G1 X1.887 Y3.480 F400.000
G1 X1.554 Y3.655 F400.000
G1 X1.209 Y3.797 F400.000
G1 X0.847 Y3.893 F400.000
G1 X0.480 Y3.960 F400.000
G1 X0.107 Y3.989 F400.000
G1 X-0.260 Y3.989 F400.000
G1 X-0.627 Y3.949 F400.000
G1 X-0.989 Y3.876 F400.000
G1 X-1.345 Y3.768 F400.000
G1 X-1.689 Y3.627 F400.000
G1 X-2.023 Y3.463 F400.000
G1 X-2.339 Y3.266 F400.000
G1 X-2.638 Y3.040 F400.000
G1 X-2.904 Y2.774 F400.000
G1 X-3.147 Y2.492 F400.000
G1 X-3.362 Y2.186 F400.000
G1 X-3.554 Y1.870 F400.000
G1 X-3.712 Y1.531 F400.000
G1 X-3.842 Y1.181 F400.000
G1 X-3.944 Y0.819 F400.000
G1 X-4.011 Y0.452 F400.000
G1 X-4.045 Y0.079 F400.000
G1 X-4.051 Y-0.288 F400.000
G1 X-4.023 Y-0.655 F400.000
G1 X-3.960 Y-1.023 F400.000
G1 X-3.864 Y-1.379 F400.000
G1 X-3.723 Y-1.723 F400.000
G1 X-3.554 Y-2.056 F400.000
G1 X-3.350 Y-2.367 F400.000
G1 X-3.130 Y-2.667 F400.000
G1 X-2.881 Y-2.944 F400.000
G1 X-2.605 Y-3.198 F400.000
G1 X-2.311 Y-3.429 F400.000
G1 X-1.994 Y-3.633 F400.000
G1 X-1.661 Y-3.808 F400.000
G1 X-1.316 Y-3.955 F400.000
G1 X-0.966 Y-4.079 F400.000
G1 X-0.605 Y-4.169 F400.000
G1 X-0.237 Y-4.232 F400.000
G1 X0.130 Y-4.271 F400.000
G1 X0.497 Y-4.277 F400.000
G1 X0.864 Y-4.237 F400.000
G1 X1.226 Y-4.158 F400.000
G1 X1.582 Y-4.051 F400.000
G1 X1.927 Y-3.915 F400.000
G1 X2.254 Y-3.740 F400.000
G1 X2.571 Y-3.542 F400.000
G1 X2.876 Y-3.328 F400.000
G1 X3.153 Y-3.079 F400.000
G1 X3.412 Y-2.808 F400.000
G1 X3.650 Y-2.520 F400.000
G1 X3.859 Y-2.209 F400.000
G1 X4.045 Y-1.887 F400.000
G1 X4.203 Y-1.548 F400.000
G1 X4.333 Y-1.198 F400.000
G1 X4.435 Y-0.836 F400.000
G1 X4.508 Y-0.469 F400.000
G1 X4.548 Y-0.096 F400.000
G1 X4.542 Y0.271 F400.000
G1 X4.514 Y0.638 F400.000
G1 X4.452 Y1.006 F400.000
G1 X4.362 Y1.367 F400.000
G1 X4.237 Y1.718 F400.000
G1 X4.085 Y2.056 F400.000
G1 X3.904 Y2.384 F400.000
G1 X3.706 Y2.701 F400.000
G1 X3.480 Y2.994 F400.000
G1 X3.232 Y3.271 F400.000
G1 X2.966 Y3.531 F400.000
G1 X2.678 Y3.768 F400.000
G1 X2.373 Y3.983 F400.000
G1 X2.051 Y4.175 F400.000
G1 X1.706 Y4.328 F400.000
G1 X1.356 Y4.458 F400.000
G1 X0.994 Y4.554 F400.000
G1 X0.627 Y4.616 F400.000
G1 X0.254 Y4.650 F400.000
G1 X-0.113 Y4.667 F400.000
G1 X-0.480 Y4.644 F400.000
G1 X-0.847 Y4.599 F400.000
G1 X-1.209 Y4.525 F400.000
G1 X-1.565 Y4.424 F400.000
G1 X-1.915 Y4.294 F400.000
G1 X-2.254 Y4.136 F400.000
G1 X-2.576 Y3.955 F400.000
G1 X-2.870 Y3.729 F400.000
G1 X-3.153 Y3.486 F400.000
G1 X-3.412 Y3.220 F400.000
G1 X-3.655 Y2.938 F400.000
G1 X-3.881 Y2.644 F400.000
G1 X-4.079 Y2.328 F400.000
G1 X-4.260 Y2.000 F400.000
G1 X-4.418 Y1.661 F400.000
G1 X-4.548 Y1.311 F400.000
G1 X-4.638 Y0.949 F400.000
G1 X-4.712 Y0.582 F400.000
G1 X-4.751 Y0.209 F400.000
G1 X-4.757 Y-0.158 F400.000
G1 X-4.734 Y-0.525 F400.000
G1 X-4.678 Y-0.893 F400.000
G1 X-4.605 Y-1.254 F400.000
G1 X-4.497 Y-1.610 F400.000
G1 X-4.367 Y-1.960 F400.000
G1 X-4.215 Y-2.299 F400.000
G1 X-4.023 Y-2.616 F400.000
G1 X-3.814 Y-2.921 F400.000
G1 X-3.576 Y-3.209 F400.000
G1 X-3.316 Y-3.475 F400.000
G1 X-2.746 Y-3.960 F400.000
G1 X-2.435 Y-4.164 F400.000
G1 X-2.113 Y-4.350 F400.000
G1 X-1.780 Y-4.514 F400.000
G1 X-1.429 Y-4.650 F400.000
G1 X-1.073 Y-4.763 F400.000
G1 X-0.712 Y-4.853 F400.000
G1 X-0.345 Y-4.915 F400.000
G1 X0.023 Y-4.955 F400.000
G1 X0.390 Y-4.966 F400.000
G1 X0.757 Y-4.949 F400.000
G1 X1.124 Y-4.887 F400.000
G1 X1.486 Y-4.808 F400.000
G1 X1.842 Y-4.695 F400.000
G1 X2.186 Y-4.559 F400.000
G1 X2.520 Y-4.395 F400.000
G1 X2.842 Y-4.203 F400.000
G1 X3.147 Y-3.989 F400.000
G1 X3.435 Y-3.751 F400.000
G1 X3.706 Y-3.492 F400.000
G1 X3.966 Y-3.220 F400.000
G1 X4.198 Y-2.927 F400.000
G1 X4.412 Y-2.621 F400.000
G1 X4.605 Y-2.305 F400.000
G1 X4.774 Y-1.972 F400.000
G1 X4.921 Y-1.627 F400.000
G1 X5.045 Y-1.271 F400.000
G1 X5.130 Y-0.904 F400.000
G1 X5.198 Y-0.537 F400.000
G1 X5.232 Y-0.164 F400.000
G1 X5.232 Y0.203 F400.000
G1 X5.209 Y0.571 F400.000
G1 X5.158 Y0.938 F400.000
G1 X5.090 Y1.299 F400.000
G1 X4.989 Y1.655 F400.000
G1 X4.864 Y2.006 F400.000
G1 X4.718 Y2.350 F400.000
G1 X4.548 Y2.678 F400.000
G1 X4.356 Y2.994 F400.000
G1 X4.141 Y3.299 F400.000
G1 X3.910 Y3.588 F400.000
G1 X3.655 Y3.859 F400.000
G1 X3.384 Y4.113 F400.000
G1 X3.096 Y4.350 F400.000
G1 X2.791 Y4.565 F400.000
G1 X2.463 Y4.746 F400.000
G1 X2.124 Y4.910 F400.000
G1 X1.774 Y5.045 F400.000
G1 X1.418 Y5.158 F400.000
G1 X1.051 Y5.243 F400.000
G1 X0.678 Y5.305 F400.000
G1 X-0.062 Y5.362 F400.000
G1 X-0.429 Y5.356 F400.000
G1 X-0.797 Y5.328 F400.000
G1 X-1.158 Y5.260 F400.000
G1 X-1.520 Y5.175 F400.000
G1 X-1.870 Y5.062 F400.000
G1 X-2.215 Y4.932 F400.000
G1 X-2.554 Y4.774 F400.000
G1 X-2.881 Y4.593 F400.000
G1 X-3.469 Y4.141 F400.000
G1 X-4.000 Y3.616 F400.000
G1 X-4.463 Y3.034 F400.000
G1 X-4.672 Y2.723 F400.000
G1 X-4.859 Y2.401 F400.000
G1 X-5.153 Y1.712 F400.000
G1 X-5.266 Y1.356 F400.000
G1 X-5.350 Y0.989 F400.000
G1 X-5.412 Y0.616 F400.000
G1 X-5.446 Y0.243 F400.000
G1 X-5.452 Y-0.124 F400.000
G1 X-5.435 Y-0.492 F400.000
G1 X-5.333 Y-1.226 F400.000
G1 X-5.243 Y-1.588 F400.000
G1 X-5.136 Y-1.944 F400.000
G1 X-4.994 Y-2.288 F400.000
G1 X-4.831 Y-2.621 F400.000
G1 X-4.644 Y-2.944 F400.000
G1 X-4.435 Y-3.249 F400.000
G1 X-4.203 Y-3.542 F400.000
G1 X-3.689 Y-4.085 F400.000
G1 X-3.407 Y-4.328 F400.000
G1 X-3.107 Y-4.554 F400.000
G1 X-2.797 Y-4.763 F400.000
G1 X-2.475 Y-4.949 F400.000
G1 X-2.141 Y-5.119 F400.000
G1 X-1.797 Y-5.266 F400.000
G1 X-1.446 Y-5.390 F400.000
G1 X-1.085 Y-5.492 F400.000
G1 X-0.718 Y-5.571 F400.000
G1 X-0.345 Y-5.627 F400.000
G1 X0.023 Y-5.661 F400.000
G1 X0.390 Y-5.672 F400.000
G1 X0.757 Y-5.661 F400.000
G1 X1.124 Y-5.610 F400.000
G1 X1.492 Y-5.542 F400.000
G1 X1.853 Y-5.446 F400.000
G1 X2.203 Y-5.322 F400.000
G1 X2.548 Y-5.175 F400.000
G1 X2.876 Y-5.006 F400.000
G1 X3.192 Y-4.814 F400.000
G1 X3.791 Y-4.373 F400.000
G1 X4.068 Y-4.124 F400.000
G1 X4.582 Y-3.588 F400.000
G1 X4.814 Y-3.294 F400.000
G1 X5.028 Y-2.989 F400.000
G1 X5.215 Y-2.667 F400.000
G1 X5.384 Y-2.333 F400.000
G1 X5.531 Y-1.989 F400.000
G1 X5.655 Y-1.633 F400.000
G1 X5.757 Y-1.271 F400.000
G1 X5.836 Y-0.904 F400.000
G1 X5.887 Y-0.531 F400.000
G1 X5.915 Y-0.158 F400.000
G1 X5.915 Y0.576 F400.000
G1 X5.876 Y0.944 F400.000
G1 X5.819 Y1.311 F400.000
G1 X5.746 Y1.672 F400.000
G1 X5.644 Y2.028 F400.000
G1 X5.508 Y2.373 F400.000
G1 X5.356 Y2.712 F400.000
G1 X5.181 Y3.040 F400.000
G1 X4.989 Y3.362 F400.000
G1 X4.774 Y3.667 F400.000
G1 X4.542 Y3.960 F400.000
G1 X4.294 Y4.237 F400.000
G1 X4.028 Y4.497 F400.000
G1 X3.746 Y4.740 F400.000
G1 X3.452 Y4.966 F400.000
G1 X3.141 Y5.175 F400.000
G1 X2.819 Y5.367 F400.000
G1 X2.486 Y5.537 F400.000
G1 X2.141 Y5.689 F400.000
G1 X1.785 Y5.802 F400.000
G1 X1.056 Y5.983 F400.000
G1 X0.684 Y6.034 F400.000
G1 X-0.056 Y6.085 F400.000
G1 X-0.424 Y6.073 F400.000
G1 X-0.791 Y6.045 F400.000
G1 X-1.158 Y6.000 F400.000
G1 X-1.525 Y5.932 F400.000
G1 X-2.232 Y5.706 F400.000
G1 X-2.576 Y5.565 F400.000
G1 X-2.904 Y5.395 F400.000
G1 X-3.226 Y5.209 F400.000
G1 X-3.531 Y5.000 F400.000
G1 X-3.825 Y4.768 F400.000
G1 X-4.373 Y4.260 F400.000
G1 X-4.627 Y3.989 F400.000
G1 X-5.090 Y3.407 F400.000
G1 X-5.463 Y2.757 F400.000
G1 X-5.627 Y2.418 F400.000
G1 X-5.774 Y2.073 F400.000
G1 X-5.898 Y1.718 F400.000
G1 X-6.000 Y1.356 F400.000
G1 X-6.085 Y0.989 F400.000
G1 X-6.147 Y0.621 F400.000
G1 X-6.169 Y0.249 F400.000
G1 X-6.175 Y-0.119 F400.000
G1 X-6.164 Y-0.486 F400.000
G1 X-6.130 Y-0.853 F400.000
G1 X-6.079 Y-1.220 F400.000
G1 X-6.006 Y-1.582 F400.000
G1 X-5.898 Y-1.938 F400.000
G1 X-5.774 Y-2.288 F400.000
G1 X-5.469 Y-2.960 F400.000
G1 X-5.288 Y-3.282 F400.000
G1 X-5.085 Y-3.593 F400.000
G1 X-4.864 Y-3.893 F400.000
G1 X-4.627 Y-4.181 F400.000
G1 X-4.362 Y-4.446 F400.000
G1 X-3.802 Y-4.944 F400.000
G1 X-3.497 Y-5.164 F400.000
G1 X-3.186 Y-5.367 F400.000
G1 X-2.537 Y-5.729 F400.000
G1 X-1.847 Y-6.023 F400.000
G1 X-1.492 Y-6.147 F400.000
G1 X-1.130 Y-6.249 F400.000
G1 X-0.763 Y-6.322 F400.000
G1 X-0.390 Y-6.379 F400.000
G1 X-0.017 Y-6.412 F400.000
G1 X0.350 Y-6.424 F400.000
G1 X0.718 Y-6.412 F400.000
G1 X1.085 Y-6.379 F400.000
G1 X1.452 Y-6.322 F400.000
G1 X1.814 Y-6.243 F400.000
G1 X2.169 Y-6.130 F400.000
G1 X2.520 Y-6.000 F400.000
G1 X2.859 Y-5.847 F400.000
G1 X3.503 Y-5.480 F400.000
G1 X3.814 Y-5.277 F400.000
G1 X4.401 Y-4.819 F400.000
G1 X4.678 Y-4.571 F400.000
G1 X4.944 Y-4.305 F400.000
G1 X5.192 Y-4.028 F400.000
G1 X5.621 Y-3.418 F400.000
G1 X5.983 Y-2.763 F400.000
G1 X6.136 Y-2.424 F400.000
G1 X6.271 Y-2.073 F400.000
G1 X6.384 Y-1.718 F400.000
G1 X6.480 Y-1.356 F400.000
G1 X6.554 Y-0.989 F400.000
G1 X6.605 Y-0.616 F400.000
G1 X6.638 Y-0.243 F400.000
G1 X6.650 Y0.124 F400.000
G1 X6.621 Y0.859 F400.000
G1 X6.576 Y1.226 F400.000
G1 X6.514 Y1.593 F400.000
G1 X6.424 Y1.955 F400.000
G1 X6.316 Y2.311 F400.000
G1 X6.186 Y2.661 F400.000
G1 X6.034 Y3.000 F400.000
G1 X5.864 Y3.333 F400.000
G1 X5.672 Y3.655 F400.000
G1 X5.463 Y3.966 F400.000
G1 X5.237 Y4.260 F400.000
G1 X4.994 Y4.542 F400.000
G1 X4.740 Y4.814 F400.000
G1 X4.469 Y5.068 F400.000
G1 X3.893 Y5.542 F400.000
G1 X3.271 Y5.949 F400.000
G1 X2.944 Y6.130 F400.000
G1 X2.599 Y6.277 F400.000
G1 X1.893 Y6.525 F400.000
G1 X1.525 Y6.616 F400.000
G1 X1.158 Y6.689 F400.000
G1 X0.412 Y6.780 F400.000
G1 X0.040 Y6.797 F400.000
G1 X-0.328 Y6.797 F400.000
G1 X-0.695 Y6.780 F400.000
G1 X-1.062 Y6.746 F400.000
G1 X-1.429 Y6.695 F400.000
G1 X-2.147 Y6.514 F400.000
G1 X-2.497 Y6.395 F400.000
G1 X-2.842 Y6.249 F400.000
G1 X-3.175 Y6.085 F400.000
G1 X-3.497 Y5.904 F400.000
G1 X-3.808 Y5.701 F400.000
G1 X-4.107 Y5.480 F400.000
G1 X-4.395 Y5.243 F400.000
G1 X-4.932 Y4.729 F400.000
G1 X-5.181 Y4.452 F400.000
G1 X-5.644 Y3.864 F400.000
G1 X-5.853 Y3.554 F400.000
G1 X-6.045 Y3.232 F400.000
G1 X-6.220 Y2.904 F400.000
G1 X-6.379 Y2.565 F400.000
G1 X-6.520 Y2.220 F400.000
G1 X-6.644 Y1.870 F400.000
G1 X-6.814 Y1.141 F400.000
G1 X-6.870 Y0.768 F400.000
G1 X-6.898 Y0.395 F400.000
G1 X-6.910 Y-0.345 F400.000
G1 X-6.881 Y-0.712 F400.000
G1 X-6.836 Y-1.079 F400.000
G1 X-6.774 Y-1.446 F400.000
G1 X-6.689 Y-1.808 F400.000
G1 X-6.588 Y-2.164 F400.000
G1 X-6.469 Y-2.514 F400.000
G1 X-6.328 Y-2.859 F400.000
G1 X-6.169 Y-3.198 F400.000
G1 X-5.994 Y-3.525 F400.000
G1 X-5.802 Y-3.842 F400.000
G1 X-5.593 Y-4.147 F400.000
G1 X-5.367 Y-4.441 F400.000
G1 X-5.124 Y-4.723 F400.000
G1 X-4.870 Y-4.994 F400.000
G1 X-4.599 Y-5.254 F400.000
G1 X-4.316 Y-5.497 F400.000
G1 X-4.023 Y-5.723 F400.000
G1 X-3.401 Y-6.130 F400.000
G1 X-3.073 Y-6.311 F400.000
G1 X-2.734 Y-6.469 F400.000
G1 X-2.390 Y-6.610 F400.000
G1 X-1.678 Y-6.853 F400.000
G1 X-1.316 Y-6.949 F400.000
G1 X-0.582 Y-7.096 F400.000
G1 X-0.209 Y-7.141 F400.000
G1 X0.158 Y-7.169 F400.000
G1 X0.893 Y-7.158 F400.000
G1 X1.260 Y-7.107 F400.000
G1 X1.621 Y-7.040 F400.000
G1 X2.339 Y-6.847 F400.000
G1 X2.689 Y-6.718 F400.000
G1 X3.028 Y-6.571 F400.000
G1 X3.362 Y-6.407 F400.000
G1 X4.006 Y-6.034 F400.000
G1 X4.610 Y-5.605 F400.000
G1 X4.898 Y-5.373 F400.000
G1 X5.175 Y-5.124 F400.000
G1 X5.441 Y-4.864 F400.000
G1 X5.921 Y-4.294 F400.000
G1 X6.136 Y-3.989 F400.000
G1 X6.333 Y-3.672 F400.000
G1 X6.514 Y-3.345 F400.000
G1 X6.831 Y-2.667 F400.000
G1 X6.960 Y-2.316 F400.000
G1 X7.175 Y-1.599 F400.000
G1 X7.254 Y-1.232 F400.000
G1 X7.316 Y-0.864 F400.000
G1 X7.362 Y-0.492 F400.000
G1 X7.390 Y-0.119 F400.000
G1 X7.401 Y0.249 F400.000
G1 X7.395 Y0.616 F400.000
G1 X7.367 Y0.983 F400.000
G1 X7.322 Y1.350 F400.000
G1 X7.260 Y1.718 F400.000
G1 X7.181 Y2.079 F400.000
G1 X7.085 Y2.435 F400.000
G1 X6.814 Y3.124 F400.000
G1 X6.650 Y3.458 F400.000
G1 X6.469 Y3.785 F400.000
G1 X6.271 Y4.102 F400.000
G1 X6.056 Y4.407 F400.000
G1 X5.825 Y4.701 F400.000
G1 X5.328 Y5.260 F400.000
G1 X5.062 Y5.520 F400.000
G1 X4.503 Y6.011 F400.000
G1 X4.209 Y6.237 F400.000
G1 X3.571 Y6.633 F400.000
G1 X3.243 Y6.808 F400.000
G1 X2.559 Y7.102 F400.000
G1 X2.203 Y7.220 F400.000
G1 X1.842 Y7.322 F400.000
G1 X1.475 Y7.407 F400.000
G1 X1.107 Y7.469 F400.000
G1 X0.734 Y7.514 F400.000
G1 X0.362 Y7.542 F400.000
G1 X-0.373 Y7.548 F400.000
G1 X-0.740 Y7.537 F400.000
G1 X-1.107 Y7.508 F400.000
G1 X-1.475 Y7.446 F400.000
G1 X-1.836 Y7.367 F400.000
G1 X-2.548 Y7.164 F400.000
G1 X-2.893 Y7.034 F400.000
G1 X-3.565 Y6.729 F400.000
G1 X-3.893 Y6.548 F400.000
G1 X-4.503 Y6.119 F400.000
G1 X-4.791 Y5.881 F400.000
G1 X-5.068 Y5.633 F400.000
G1 X-5.593 Y5.102 F400.000
G1 X-6.068 Y4.525 F400.000
G1 X-6.294 Y4.226 F400.000
G1 X-6.701 Y3.599 F400.000
G1 X-7.040 Y2.932 F400.000
G1 X-7.186 Y2.588 F400.000
G1 X-7.424 Y1.881 F400.000
G1 X-7.503 Y1.514 F400.000
G1 X-7.565 Y1.147 F400.000
G1 X-7.638 Y0.401 F400.000
G1 X-7.650 Y0.028 F400.000
G1 X-7.627 Y-0.706 F400.000
G1 X-7.588 Y-1.073 F400.000
G1 X-7.531 Y-1.441 F400.000
G1 X-7.458 Y-1.802 F400.000
G1 X-7.367 Y-2.164 F400.000
G1 X-7.260 Y-2.520 F400.000
G1 X-7.136 Y-2.870 F400.000
G1 X-6.842 Y-3.554 F400.000
G1 X-6.672 Y-3.881 F400.000
G1 X-6.266 Y-4.508 F400.000
G1 X-5.802 Y-5.090 F400.000
G1 X-5.548 Y-5.362 F400.000
G1 X-5.282 Y-5.621 F400.000
G1 X-4.723 Y-6.113 F400.000
G1 X-4.124 Y-6.554 F400.000
G1 X-3.475 Y-6.927 F400.000
G1 X-3.141 Y-7.090 F400.000
G1 X-2.452 Y-7.379 F400.000
G1 X-1.734 Y-7.605 F400.000
G1 X-1.006 Y-7.785 F400.000
G1 X-0.638 Y-7.853 F400.000
G1 X0.102 Y-7.921 F400.000
G1 X0.469 Y-7.932 F400.000
G1 X0.836 Y-7.921 F400.000
G1 X1.571 Y-7.808 F400.000
G1 X1.932 Y-7.734 F400.000
G1 X2.294 Y-7.644 F400.000
G1 X2.650 Y-7.537 F400.000
G1 X3.000 Y-7.412 F400.000
G1 X3.345 Y-7.271 F400.000
G1 X3.684 Y-7.113 F400.000
G1 X4.633 Y-6.531 F400.000
G1 X5.226 Y-6.079 F400.000
G1 X5.514 Y-5.842 F400.000
G1 X5.791 Y-5.593 F400.000
G1 X6.294 Y-5.045 F400.000
G1 X6.525 Y-4.757 F400.000
G1 X6.944 Y-4.141 F400.000
G1 X7.130 Y-3.819 F400.000
G1 X7.458 Y-3.147 F400.000
G1 X7.599 Y-2.802 F400.000
G1 X7.723 Y-2.446 F400.000
G1 X7.831 Y-2.085 F400.000
G1 X7.921 Y-1.723 F400.000
G1 X8.062 Y-0.989 F400.000
G1 X8.107 Y-0.616 F400.000
G1 X8.153 Y0.124 F400.000
G1 X8.141 Y0.859 F400.000
G1 X8.113 Y1.226 F400.000
G1 X8.068 Y1.593 F400.000
G1 X7.898 Y2.316 F400.000
G1 X7.661 Y3.023 F400.000
G1 X7.520 Y3.367 F400.000
G1 X7.192 Y4.034 F400.000
G1 X7.006 Y4.356 F400.000
G1 X6.802 Y4.667 F400.000
G1 X6.350 Y5.260 F400.000
G1 X6.107 Y5.542 F400.000
G1 X5.582 Y6.079 F400.000
G1 X5.305 Y6.328 F400.000
G1 X4.723 Y6.791 F400.000
G1 X4.418 Y7.006 F400.000
G1 X3.768 Y7.373 F400.000
G1 X3.090 Y7.689 F400.000
G1 X2.740 Y7.825 F400.000
G1 X2.028 Y8.051 F400.000
G1 X1.667 Y8.141 F400.000
G1 X0.921 Y8.249 F400.000
G1 X0.548 Y8.288 F400.000
G1 X-0.192 Y8.322 F400.000
G1 X-0.559 Y8.322 F400.000
G1 X-0.927 Y8.305 F400.000
G1 X-1.661 Y8.186 F400.000
G1 X-2.384 Y8.006 F400.000
G1 X-2.740 Y7.893 F400.000
G1 X-3.435 Y7.621 F400.000
G1 X-4.102 Y7.294 F400.000
G1 X-4.729 Y6.887 F400.000
G1 X-5.311 Y6.424 F400.000
G1 X-5.588 Y6.175 F400.000
G1 X-5.853 Y5.910 F400.000
G1 X-6.362 Y5.362 F400.000
G1 X-6.825 Y4.780 F400.000
G1 X-7.045 Y4.480 F400.000
G1 X-7.435 Y3.842 F400.000
G1 X-7.610 Y3.514 F400.000
G1 X-7.915 Y2.831 F400.000
G1 X-8.141 Y2.113 F400.000
G1 X-8.232 Y1.746 F400.000
G1 X-8.299 Y1.379 F400.000
G1 X-8.350 Y1.006 F400.000
G1 X-8.401 Y0.260 F400.000
G1 X-8.401 Y-0.475 F400.000
G1 X-8.384 Y-0.842 F400.000
G1 X-8.350 Y-1.209 F400.000
G1 X-8.215 Y-1.938 F400.000
G1 X-8.124 Y-2.299 F400.000
G1 X-7.887 Y-3.006 F400.000
G1 X-7.599 Y-3.689 F400.000
G1 X-7.249 Y-4.350 F400.000
G1 X-6.853 Y-4.983 F400.000
G1 X-6.384 Y-5.559 F400.000
G1 X-5.870 Y-6.102 F400.000
G1 X-5.599 Y-6.356 F400.000
G1 X-5.023 Y-6.831 F400.000
G1 X-4.407 Y-7.260 F400.000
G1 X-4.090 Y-7.458 F400.000
G1 X-3.429 Y-7.808 F400.000
G1 X-3.090 Y-7.966 F400.000
G1 X-2.395 Y-8.237 F400.000
G1 X-1.678 Y-8.452 F400.000
G1 X-1.311 Y-8.537 F400.000
G1 X-0.565 Y-8.638 F400.000
G1 X-0.192 Y-8.667 F400.000
G1 X0.542 Y-8.672 F400.000
G1 X0.910 Y-8.650 F400.000
G1 X1.644 Y-8.559 F400.000
G1 X2.006 Y-8.492 F400.000
G1 X2.367 Y-8.407 F400.000
G1 X3.073 Y-8.192 F400.000
G1 X3.424 Y-8.062 F400.000
G1 X4.102 Y-7.757 F400.000
G1 X4.429 Y-7.582 F400.000
G1 X5.350 Y-6.955 F400.000
G1 X5.932 Y-6.492 F400.000
G1 X6.215 Y-6.249 F400.000
G1 X6.729 Y-5.712 F400.000
G1 X6.972 Y-5.429 F400.000
G1 X7.412 Y-4.825 F400.000
G1 X7.616 Y-4.508 F400.000
G1 X7.802 Y-4.186 F400.000
G1 X8.130 Y-3.514 F400.000
G1 X8.271 Y-3.169 F400.000
G1 X8.508 Y-2.463 F400.000
G1 X8.605 Y-2.102 F400.000
G1 X8.763 Y-1.367 F400.000
G1 X8.864 Y-0.621 F400.000
G1 X8.898 Y-0.249 F400.000
G1 X8.921 Y0.486 F400.000
G1 X8.915 Y0.853 F400.000
G1 X8.893 Y1.220 F400.000
G1 X8.774 Y1.955 F400.000
G1 X8.695 Y2.316 F400.000
G1 X8.480 Y3.023 F400.000
G1 X8.203 Y3.712 F400.000
G1 X7.864 Y4.373 F400.000
G1 X7.678 Y4.695 F400.000
G1 X7.260 Y5.311 F400.000
G1 X6.797 Y5.893 F400.000
G1 X6.548 Y6.169 F400.000
G1 X6.288 Y6.435 F400.000
G1 X5.740 Y6.944 F400.000
G1 X5.158 Y7.407 F400.000
G1 X4.531 Y7.808 F400.000
G1 X4.203 Y7.989 F400.000
G1 X3.525 Y8.311 F400.000
G1 X3.181 Y8.452 F400.000
G1 X2.475 Y8.695 F400.000
G1 X2.113 Y8.797 F400.000
G1 X1.379 Y8.955 F400.000
G1 X0.633 Y9.056 F400.000
G1 X0.260 Y9.085 F400.000
G1 X-0.475 Y9.096 F400.000
G1 X-0.842 Y9.079 F400.000
G1 X-1.944 Y8.915 F400.000
G1 X-2.661 Y8.723 F400.000
G1 X-3.017 Y8.610 F400.000
G1 X-3.712 Y8.339 F400.000
G1 X-4.379 Y8.011 F400.000
G1 X-4.701 Y7.831 F400.000
G1 X-5.322 Y7.424 F400.000
G1 X-5.887 Y6.944 F400.000
G1 X-6.424 Y6.429 F400.000
G1 X-6.932 Y5.876 F400.000
G1 X-7.407 Y5.294 F400.000
G1 X-7.633 Y4.994 F400.000
G1 X-8.028 Y4.362 F400.000
G1 X-8.209 Y4.034 F400.000
G1 X-8.525 Y3.356 F400.000
G1 X-8.785 Y2.650 F400.000
G1 X-8.893 Y2.294 F400.000
G1 X-8.983 Y1.932 F400.000
G1 X-9.096 Y1.192 F400.000
G1 X-9.158 Y0.446 F400.000
G1 X-9.169 Y-0.294 F400.000
G1 X-9.136 Y-1.028 F400.000
G1 X-9.102 Y-1.395 F400.000
G1 X-8.960 Y-2.119 F400.000
G1 X-8.870 Y-2.480 F400.000
G1 X-8.633 Y-3.181 F400.000
G1 X-8.350 Y-3.870 F400.000
G1 X-8.011 Y-4.531 F400.000
G1 X-7.831 Y-4.853 F400.000
G1 X-7.633 Y-5.169 F400.000
G1 X-7.186 Y-5.768 F400.000
G1 X-6.706 Y-6.339 F400.000
G1 X-6.181 Y-6.870 F400.000
G1 X-5.904 Y-7.119 F400.000
G1 X-5.616 Y-7.356 F400.000
G1 X-4.689 Y-7.989 F400.000
G1 X-4.034 Y-8.350 F400.000
G1 X-3.362 Y-8.672 F400.000
G1 X-2.667 Y-8.949 F400.000
G1 X-2.311 Y-9.073 F400.000
G1 X-1.588 Y-9.260 F400.000
G1 X-1.220 Y-9.333 F400.000
G1 X-0.475 Y-9.424 F400.000
G1 X-0.102 Y-9.446 F400.000
G1 X0.266 Y-9.452 F400.000
G1 X0.633 Y-9.441 F400.000
G1 X1.367 Y-9.379 F400.000
G1 X2.102 Y-9.266 F400.000
G1 X2.463 Y-9.192 F400.000
G1 X2.825 Y-9.102 F400.000
G1 X3.870 Y-8.712 F400.000
G1 X4.537 Y-8.384 F400.000
G1 X4.859 Y-8.203 F400.000
G1 X5.791 Y-7.588 F400.000
G1 X6.373 Y-7.124 F400.000
G1 X6.655 Y-6.881 F400.000
G1 X6.927 Y-6.627 F400.000
G1 X7.429 Y-6.073 F400.000
G1 X7.661 Y-5.785 F400.000
G1 X8.090 Y-5.169 F400.000
G1 X8.638 Y-4.192 F400.000
G1 X8.944 Y-3.508 F400.000
G1 X9.203 Y-2.802 F400.000
G1 X9.316 Y-2.446 F400.000
G1 X9.548 Y-1.345 F400.000
G1 X9.627 Y-0.599 F400.000
G1 X9.672 Y0.141 F400.000
G1 X9.678 Y0.876 F400.000
G1 X9.610 Y1.610 F400.000
G1 X9.559 Y1.977 F400.000
G1 X9.401 Y2.701 F400.000
G1 X9.299 Y3.056 F400.000
G1 X9.181 Y3.407 F400.000
G1 X8.876 Y4.085 F400.000
G1 X8.537 Y4.746 F400.000
G1 X8.147 Y5.379 F400.000
G1 X7.718 Y5.983 F400.000
G1 X7.243 Y6.559 F400.000
G1 X6.729 Y7.102 F400.000
G1 X6.175 Y7.605 F400.000
G1 X5.887 Y7.842 F400.000
G1 X5.271 Y8.266 F400.000
G1 X4.949 Y8.458 F400.000
G1 X3.938 Y8.955 F400.000
G1 X3.593 Y9.107 F400.000
G1 X2.893 Y9.373 F400.000
G1 X2.169 Y9.582 F400.000
G1 X1.802 Y9.667 F400.000
G1 X1.062 Y9.791 F400.000
G1 X0.689 Y9.836 F400.000
G1 X-0.051 Y9.881 F400.000
G1 X-0.418 Y9.881 F400.000
G1 X-1.153 Y9.819 F400.000
G1 X-1.887 Y9.706 F400.000
G1 X-2.610 Y9.537 F400.000
G1 X-2.966 Y9.441 F400.000
G1 X-3.667 Y9.203 F400.000
G1 X-4.011 Y9.068 F400.000
G1 X-4.350 Y8.915 F400.000
G1 X-5.000 Y8.559 F400.000
G1 X-5.316 Y8.362 F400.000
G1 X-5.921 Y7.921 F400.000
G1 X-6.209 Y7.684 F400.000
G1 X-6.486 Y7.429 F400.000
G1 X-7.277 Y6.638 F400.000
G1 X-7.780 Y6.085 F400.000
G1 X-8.232 Y5.486 F400.000
G1 X-8.446 Y5.181 F400.000
G1 X-8.644 Y4.864 F400.000
G1 X-8.983 Y4.198 F400.000
G1 X-9.288 Y3.514 F400.000
G1 X-9.424 Y3.164 F400.000
G1 X-9.638 Y2.446 F400.000
G1 X-9.723 Y2.079 F400.000
G1 X-9.847 Y1.339 F400.000
G1 X-9.887 Y0.966 F400.000
G1 X-9.944 Y-0.147 F400.000
G1 X-9.938 Y-0.514 F400.000
G1 X-9.887 Y-1.249 F400.000
G1 X-9.842 Y-1.616 F400.000
G1 X-9.706 Y-2.345 F400.000
G1 X-9.492 Y-3.056 F400.000
G1 X-9.090 Y-4.096 F400.000
G1 X-8.780 Y-4.768 F400.000
G1 X-8.401 Y-5.407 F400.000
G1 X-8.192 Y-5.718 F400.000
G1 X-7.497 Y-6.593 F400.000
G1 X-6.983 Y-7.136 F400.000
G1 X-6.718 Y-7.395 F400.000
G1 X-6.441 Y-7.644 F400.000
G1 X-5.859 Y-8.113 F400.000
G1 X-5.249 Y-8.542 F400.000
G1 X-4.610 Y-8.927 F400.000
G1 X-3.949 Y-9.266 F400.000
G1 X-3.266 Y-9.559 F400.000
G1 X-2.559 Y-9.808 F400.000
G1 X-1.836 Y-10.011 F400.000
G1 X-0.718 Y-10.181 F400.000
G1 X0.023 Y-10.220 F400.000
G1 X0.390 Y-10.220 F400.000
G1 X1.492 Y-10.147 F400.000
G1 X2.226 Y-10.040 F400.000
G1 X2.944 Y-9.853 F400.000
G1 X3.650 Y-9.621 F400.000
G1 X4.333 Y-9.339 F400.000
G1 X5.322 Y-8.819 F400.000
G1 X5.949 Y-8.418 F400.000
G1 X6.548 Y-7.977 F400.000
G1 X7.119 Y-7.497 F400.000
G1 X7.655 Y-6.977 F400.000
G1 X7.910 Y-6.706 F400.000
G1 X8.367 Y-6.113 F400.000
G1 X8.785 Y-5.492 F400.000
G1 X9.158 Y-4.842 F400.000
G1 X9.486 Y-4.169 F400.000
G1 X9.768 Y-3.475 F400.000
G1 X9.994 Y-2.757 F400.000
G1 X10.254 Y-1.661 F400.000
G1 X10.373 Y-0.921 F400.000
G1 X10.452 Y-0.175 F400.000
G1 X10.469 Y0.559 F400.000
G1 X10.458 Y0.927 F400.000
G1 X10.390 Y1.661 F400.000
G1 X10.266 Y2.390 F400.000
G1 X10.085 Y3.107 F400.000
G1 X9.847 Y3.814 F400.000
G1 X9.712 Y4.158 F400.000
G1 X9.395 Y4.831 F400.000
G1 X9.034 Y5.480 F400.000
G1 X8.836 Y5.791 F400.000
G1 X8.395 Y6.395 F400.000
G1 X7.661 Y7.243 F400.000
G1 X7.130 Y7.768 F400.000
G1 X6.571 Y8.266 F400.000
G1 X6.282 Y8.497 F400.000
G1 X5.661 Y8.910 F400.000
G1 X5.339 Y9.102 F400.000
G1 X4.678 Y9.452 F400.000
G1 X3.655 Y9.910 F400.000
G1 X2.955 Y10.169 F400.000
G1 X2.232 Y10.356 F400.000
G1 X1.497 Y10.503 F400.000
G1 X0.751 Y10.605 F400.000
G1 X0.379 Y10.638 F400.000
G1 X-0.729 Y10.627 F400.000
G1 X-1.463 Y10.571 F400.000
G1 X-2.198 Y10.441 F400.000
G1 X-2.921 Y10.271 F400.000
G1 X-3.633 Y10.056 F400.000
G1 X-3.983 Y9.938 F400.000
G1 X-4.328 Y9.802 F400.000
G1 X-4.989 Y9.463 F400.000
G1 X-5.627 Y9.085 F400.000
G1 X-6.232 Y8.655 F400.000
G1 X-6.808 Y8.181 F400.000
G1 X-7.621 Y7.412 F400.000
G1 X-8.379 Y6.588 F400.000
G1 X-8.616 Y6.299 F400.000
G1 X-9.045 Y5.689 F400.000
G1 X-9.249 Y5.373 F400.000
G1 X-9.435 Y5.051 F400.000
G1 X-9.763 Y4.379 F400.000
G1 X-10.175 Y3.333 F400.000
G1 X-10.395 Y2.616 F400.000
G1 X-10.486 Y2.254 F400.000
G1 X-10.605 Y1.514 F400.000
G1 X-10.678 Y0.768 F400.000
G1 X-10.701 Y-0.345 F400.000
G1 X-10.695 Y-0.712 F400.000
G1 X-10.644 Y-1.446 F400.000
G1 X-10.525 Y-2.181 F400.000
G1 X-10.446 Y-2.542 F400.000
G1 X-10.243 Y-3.254 F400.000
G1 X-9.994 Y-3.955 F400.000
G1 X-9.701 Y-4.638 F400.000
G1 X-9.362 Y-5.299 F400.000
G1 X-8.983 Y-5.938 F400.000
G1 X-8.780 Y-6.249 F400.000
G1 X-8.068 Y-7.113 F400.000
G1 X-7.819 Y-7.390 F400.000
G1 X-7.294 Y-7.915 F400.000
G1 X-6.740 Y-8.418 F400.000
G1 X-6.452 Y-8.655 F400.000
G1 X-5.842 Y-9.079 F400.000
G1 X-5.209 Y-9.475 F400.000
G1 X-4.554 Y-9.836 F400.000
G1 X-4.220 Y-10.006 F400.000
G1 X-3.876 Y-10.158 F400.000
G1 X-3.175 Y-10.418 F400.000
G1 X-2.819 Y-10.537 F400.000
G1 X-2.096 Y-10.729 F400.000
G1 X-1.729 Y-10.814 F400.000
G1 X-0.989 Y-10.938 F400.000
G1 X-0.243 Y-10.989 F400.000
G1 X0.492 Y-11.000 F400.000
G1 X1.593 Y-10.938 F400.000
G1 X1.960 Y-10.893 F400.000
G1 X3.045 Y-10.644 F400.000
G1 X3.757 Y-10.429 F400.000
G1 X4.785 Y-9.994 F400.000
G1 X5.768 Y-9.469 F400.000
G1 X6.395 Y-9.068 F400.000
G1 X7.000 Y-8.627 F400.000
G1 X7.571 Y-8.153 F400.000
G1 X8.113 Y-7.638 F400.000
G1 X8.605 Y-7.073 F400.000
G1 X9.260 Y-6.169 F400.000
G1 X9.644 Y-5.531 F400.000
G1 X9.825 Y-5.203 F400.000
G1 X10.158 Y-4.531 F400.000
G1 X10.452 Y-3.842 F400.000
G1 X10.684 Y-3.130 F400.000
G1 X10.881 Y-2.407 F400.000
G1 X11.107 Y-1.305 F400.000
G1 X11.209 Y-0.559 F400.000
G1 X11.243 Y-0.186 F400.000
G1 X11.254 Y0.548 F400.000
G1 X11.243 Y0.915 F400.000
G1 X11.175 Y1.650 F400.000
G1 X11.051 Y2.379 F400.000
G1 X10.881 Y3.102 F400.000
G1 X10.667 Y3.814 F400.000
G1 X10.418 Y4.508 F400.000
G1 X10.096 Y5.175 F400.000
G1 X9.729 Y5.825 F400.000
G1 X9.322 Y6.446 F400.000
G1 X8.870 Y7.040 F400.000
G1 X8.124 Y7.876 F400.000
G1 X7.588 Y8.395 F400.000
G1 X7.028 Y8.887 F400.000
G1 X6.424 Y9.322 F400.000
G1 X5.791 Y9.723 F400.000
G1 X5.130 Y10.085 F400.000
G1 X4.463 Y10.412 F400.000
G1 X3.774 Y10.706 F400.000
G1 X3.062 Y10.944 F400.000
G1 X2.701 Y11.045 F400.000
G1 X1.966 Y11.209 F400.000
G1 X1.226 Y11.322 F400.000
G1 X0.853 Y11.362 F400.000
G1 X0.107 Y11.395 F400.000
G1 X-0.627 Y11.395 F400.000
G1 X-1.362 Y11.356 F400.000
G1 X-2.096 Y11.249 F400.000
G1 X-2.458 Y11.181 F400.000
G1 X-3.181 Y11.017 F400.000
G1 X-3.893 Y10.808 F400.000
G1 X-4.582 Y10.531 F400.000
G1 X-4.921 Y10.373 F400.000
G1 X-5.571 Y10.011 F400.000
G1 X-6.198 Y9.616 F400.000
G1 X-6.797 Y9.175 F400.000
G1 X-7.367 Y8.701 F400.000
G1 X-7.921 Y8.198 F400.000
G1 X-8.701 Y7.390 F400.000
G1 X-9.192 Y6.819 F400.000
G1 X-9.627 Y6.215 F400.000
G1 X-10.023 Y5.582 F400.000
G1 X-10.373 Y4.921 F400.000
G1 X-10.678 Y4.237 F400.000
G1 X-10.938 Y3.531 F400.000
G1 X-11.051 Y3.175 F400.000
G1 X-11.232 Y2.446 F400.000
G1 X-11.367 Y1.706 F400.000
G1 X-11.446 Y0.960 F400.000
G1 X-11.469 Y0.588 F400.000
G1 X-11.486 Y-0.153 F400.000
G1 X-11.446 Y-1.254 F400.000
G1 X-11.412 Y-1.621 F400.000
G1 X-11.288 Y-2.356 F400.000
G1 X-11.209 Y-2.718 F400.000
G1 X-11.006 Y-3.429 F400.000
G1 X-10.763 Y-4.130 F400.000
G1 X-10.475 Y-4.814 F400.000
G1 X-10.147 Y-5.486 F400.000
G1 X-9.785 Y-6.136 F400.000
G1 X-9.362 Y-6.746 F400.000
G1 X-8.904 Y-7.333 F400.000
G1 X-8.661 Y-7.616 F400.000
G1 X-8.147 Y-8.153 F400.000
G1 X-7.610 Y-8.672 F400.000
G1 X-7.051 Y-9.164 F400.000
G1 X-6.441 Y-9.599 F400.000
G1 X-5.819 Y-10.006 F400.000
G1 X-5.175 Y-10.390 F400.000
G1 X-4.508 Y-10.729 F400.000
G1 X-3.825 Y-11.034 F400.000
G1 X-3.475 Y-11.169 F400.000
G1 X-2.390 Y-11.475 F400.000
G1 X-1.655 Y-11.633 F400.000
G1 X-0.910 Y-11.729 F400.000
G1 X-0.537 Y-11.763 F400.000
G1 X0.571 Y-11.785 F400.000
G1 X1.305 Y-11.746 F400.000
G1 X2.040 Y-11.667 F400.000
G1 X2.407 Y-11.610 F400.000
G1 X3.486 Y-11.333 F400.000
G1 X4.542 Y-10.966 F400.000
G1 X5.226 Y-10.678 F400.000
G1 X6.198 Y-10.130 F400.000
G1 X7.136 Y-9.525 F400.000
G1 X7.723 Y-9.062 F400.000
G1 X8.006 Y-8.819 F400.000
G1 X8.542 Y-8.305 F400.000
G1 X9.045 Y-7.751 F400.000
G1 X9.508 Y-7.169 F400.000
G1 X9.932 Y-6.554 F400.000
G1 X10.316 Y-5.910 F400.000
G1 X10.667 Y-5.243 F400.000
G1 X11.124 Y-4.215 F400.000
G1 X11.390 Y-3.514 F400.000
G1 X11.599 Y-2.791 F400.000
G1 X11.768 Y-2.056 F400.000
G1 X11.944 Y-0.944 F400.000
G1 X12.034 Y0.169 F400.000
G1 X12.045 Y0.537 F400.000
G1 X12.006 Y1.271 F400.000
G1 X11.966 Y1.638 F400.000
G1 X11.847 Y2.373 F400.000
G1 X11.689 Y3.096 F400.000
G1 X11.384 Y4.164 F400.000
G1 X11.260 Y4.514 F400.000
G1 X10.960 Y5.192 F400.000
G1 X10.797 Y5.525 F400.000
G1 X10.226 Y6.480 F400.000
G1 X9.797 Y7.085 F400.000
G1 X9.333 Y7.667 F400.000
G1 X8.842 Y8.232 F400.000
G1 X8.328 Y8.768 F400.000
G1 X7.768 Y9.260 F400.000
G1 X7.480 Y9.497 F400.000
G1 X6.876 Y9.932 F400.000
G1 X6.254 Y10.339 F400.000
G1 X5.277 Y10.887 F400.000
G1 X4.605 Y11.215 F400.000
G1 X3.904 Y11.486 F400.000
G1 X3.548 Y11.605 F400.000
G1 X2.463 Y11.893 F400.000
G1 X1.729 Y12.034 F400.000
G1 X0.983 Y12.136 F400.000
G1 X0.237 Y12.192 F400.000
G1 X-0.497 Y12.209 F400.000
G1 X-1.599 Y12.124 F400.000
G1 X-2.695 Y11.938 F400.000
G1 X-3.412 Y11.757 F400.000
G1 X-4.119 Y11.531 F400.000
G1 X-4.814 Y11.266 F400.000
G1 X-5.486 Y10.960 F400.000
G1 X-6.130 Y10.582 F400.000
G1 X-6.751 Y10.169 F400.000
G1 X-7.345 Y9.718 F400.000
G1 X-7.921 Y9.243 F400.000
G1 X-8.740 Y8.486 F400.000
G1 X-9.260 Y7.949 F400.000
G1 X-9.740 Y7.379 F400.000
G1 X-10.181 Y6.780 F400.000
G1 X-10.588 Y6.153 F400.000
G1 X-10.955 Y5.503 F400.000
G1 X-11.282 Y4.831 F400.000
G1 X-11.565 Y4.136 F400.000
G1 X-11.802 Y3.424 F400.000
G1 X-11.994 Y2.701 F400.000
G1 X-12.141 Y1.966 F400.000
G1 X-12.249 Y0.847 F400.000
G1 X-12.288 Y-0.266 F400.000
G1 X-12.243 Y-1.367 F400.000
G1 X-12.209 Y-1.734 F400.000
G1 X-12.073 Y-2.469 F400.000
G1 X-11.994 Y-2.831 F400.000
G1 X-11.791 Y-3.542 F400.000
G1 X-11.424 Y-4.593 F400.000
G1 X-11.136 Y-5.277 F400.000
G1 X-10.977 Y-5.616 F400.000
G1 X-10.616 Y-6.266 F400.000
G1 X-10.424 Y-6.582 F400.000
G1 X-10.000 Y-7.198 F400.000
G1 X-9.299 Y-8.068 F400.000
G1 X-8.785 Y-8.616 F400.000
G1 X-8.249 Y-9.136 F400.000
G1 X-7.689 Y-9.627 F400.000
G1 X-6.791 Y-10.305 F400.000
G1 X-6.164 Y-10.718 F400.000
G1 X-5.514 Y-11.096 F400.000
G1 X-4.853 Y-11.441 F400.000
G1 X-4.169 Y-11.746 F400.000
G1 X-3.102 Y-12.102 F400.000
G1 X-2.379 Y-12.305 F400.000
G1 X-1.644 Y-12.441 F400.000
G1 X-1.271 Y-12.492 F400.000
G1 X-0.525 Y-12.548 F400.000
G1 X0.215 Y-12.576 F400.000
G1 X1.316 Y-12.559 F400.000
G1 X2.051 Y-12.458 F400.000
G1 X2.780 Y-12.322 F400.000
G1 X3.497 Y-12.136 F400.000
G1 X4.209 Y-11.921 F400.000
G1 X4.910 Y-11.667 F400.000
G1 X5.588 Y-11.356 F400.000
G1 X6.249 Y-11.011 F400.000
G1 X6.887 Y-10.633 F400.000
G1 X7.503 Y-10.220 F400.000
G1 X8.096 Y-9.774 F400.000
G1 X8.667 Y-9.294 F400.000
G1 X9.186 Y-8.757 F400.000
G1 X9.678 Y-8.192 F400.000
G1 X10.356 Y-7.294 F400.000
G1 X10.763 Y-6.667 F400.000
G1 X11.136 Y-6.017 F400.000
G1 X11.463 Y-5.345 F400.000
G1 X11.774 Y-4.661 F400.000
G1 X12.051 Y-3.966 F400.000
G1 X12.271 Y-3.254 F400.000
G1 X12.458 Y-2.531 F400.000
G1 X12.610 Y-1.797 F400.000
G1 X12.768 Y-0.684 F400.000
G1 X12.802 Y-0.311 F400.000
G1 X12.819 Y0.424 F400.000
G1 X12.814 Y0.791 F400.000
G1 X12.757 Y1.525 F400.000
G1 X12.661 Y2.260 F400.000
G1 X12.520 Y2.989 F400.000
G1 X12.339 Y3.706 F400.000
G1 X12.119 Y4.412 F400.000
G1 X11.859 Y5.107 F400.000
G1 X11.548 Y5.780 F400.000
G1 X11.186 Y6.429 F400.000
G1 X10.571 Y7.362 F400.000
G1 X9.638 Y8.531 F400.000
G1 X9.136 Y9.079 F400.000
G1 X8.582 Y9.588 F400.000
G1 X8.011 Y10.068 F400.000
G1 X7.102 Y10.729 F400.000
G1 X6.141 Y11.311 F400.000
G1 X5.480 Y11.655 F400.000
G1 X4.452 Y12.102 F400.000
G1 X3.746 Y12.356 F400.000
G1 X3.028 Y12.571 F400.000
G1 X2.299 Y12.746 F400.000
G1 X1.565 Y12.881 F400.000
G1 X0.819 Y12.955 F400.000
G1 X-0.294 Y12.994 F400.000
G1 X-1.028 Y12.977 F400.000
G1 X-1.763 Y12.904 F400.000
G1 X-2.130 Y12.853 F400.000
G1 X-2.853 Y12.706 F400.000
G1 X-3.576 Y12.525 F400.000
G1 X-4.633 Y12.186 F400.000
G1 X-5.322 Y11.915 F400.000
G1 X-5.989 Y11.588 F400.000
G1 X-6.633 Y11.215 F400.000
G1 X-7.249 Y10.797 F400.000
G1 X-7.842 Y10.345 F400.000
G1 X-8.695 Y9.621 F400.000
G1 X-9.508 Y8.853 F400.000
G1 X-9.768 Y8.588 F400.000
G1 X-10.254 Y8.023 F400.000
G1 X-10.706 Y7.429 F400.000
G1 X-11.124 Y6.814 F400.000
G1 X-11.508 Y6.175 F400.000
G1 X-11.847 Y5.514 F400.000
G1 X-12.153 Y4.831 F400.000
G1 X-12.412 Y4.124 F400.000
G1 X-12.627 Y3.407 F400.000
G1 X-12.797 Y2.678 F400.000
G1 X-12.921 Y1.938 F400.000
G1 X-13.028 Y0.819 F400.000
G1 X-13.068 Y-0.294 F400.000
G1 X-13.062 Y-1.028 F400.000
G1 X-12.949 Y-2.130 F400.000
G1 X-12.814 Y-2.859 F400.000
G1 X-12.633 Y-3.576 F400.000
G1 X-12.407 Y-4.282 F400.000
G1 X-12.136 Y-4.972 F400.000
G1 X-11.831 Y-5.650 F400.000
G1 X-11.305 Y-6.633 F400.000
G1 X-10.915 Y-7.266 F400.000
G1 X-10.475 Y-7.864 F400.000
G1 X-10.011 Y-8.441 F400.000
G1 X-9.520 Y-9.000 F400.000
G1 X-9.000 Y-9.537 F400.000
G1 X-8.153 Y-10.271 F400.000
G1 X-7.559 Y-10.723 F400.000
G1 X-6.944 Y-11.147 F400.000
G1 X-5.983 Y-11.729 F400.000
G1 X-5.328 Y-12.085 F400.000
G1 X-4.638 Y-12.390 F400.000
G1 X-4.288 Y-12.531 F400.000
G1 X-3.582 Y-12.785 F400.000
G1 X-2.864 Y-13.000 F400.000
G1 X-2.130 Y-13.153 F400.000
G1 X-1.757 Y-13.215 F400.000
G1 X-1.011 Y-13.305 F400.000
G1 X0.102 Y-13.373 F400.000
G1 X0.836 Y-13.379 F400.000
G1 X1.938 Y-13.277 F400.000
G1 X2.672 Y-13.147 F400.000
G1 X3.395 Y-12.977 F400.000
G1 X4.107 Y-12.774 F400.000
G1 X5.158 Y-12.401 F400.000
G1 X5.842 Y-12.113 F400.000
G1 X6.497 Y-11.768 F400.000
G1 X7.141 Y-11.395 F400.000
G1 X8.073 Y-10.785 F400.000
G1 X8.667 Y-10.339 F400.000
G1 X9.220 Y-9.836 F400.000
G1 X9.746 Y-9.299 F400.000
G1 X9.994 Y-9.023 F400.000
G1 X10.695 Y-8.147 F400.000
G1 X11.339 Y-7.232 F400.000
G1 X11.712 Y-6.588 F400.000
G1 X12.062 Y-5.932 F400.000
G1 X12.537 Y-4.915 F400.000
G1 X12.678 Y-4.571 F400.000
G1 X12.915 Y-3.859 F400.000
G1 X13.023 Y-3.497 F400.000
G1 X13.209 Y-2.774 F400.000
G1 X13.435 Y-1.672 F400.000
G1 X13.497 Y-1.305 F400.000
G1 X13.576 Y-0.559 F400.000
G1 X13.599 Y-0.186 F400.000
G1 X13.605 Y0.548 F400.000
G1 X13.571 Y1.282 F400.000
G1 X13.492 Y2.017 F400.000
G1 X13.294 Y3.107 F400.000
G1 X13.113 Y3.831 F400.000
G1 X12.898 Y4.542 F400.000
G1 X12.655 Y5.243 F400.000
G1 X12.350 Y5.921 F400.000
G1 X12.000 Y6.576 F400.000
G1 X11.616 Y7.215 F400.000
G1 X10.972 Y8.130 F400.000
G1 X10.260 Y8.994 F400.000
G1 X9.757 Y9.548 F400.000
G1 X9.497 Y9.814 F400.000
G1 X8.938 Y10.311 F400.000
G1 X8.056 Y11.006 F400.000
G1 X7.124 Y11.633 F400.000
G1 X6.480 Y12.011 F400.000
G1 X5.480 Y12.520 F400.000
G1 X4.797 Y12.819 F400.000
G1 X4.096 Y13.085 F400.000
G1 X3.740 Y13.203 F400.000
G1 X3.017 Y13.390 F400.000
G1 X2.282 Y13.548 F400.000
G1 X1.169 Y13.718 F400.000
G1 X0.424 Y13.785 F400.000
G1 X-0.684 Y13.785 F400.000
G1 X-1.418 Y13.734 F400.000
G1 X-2.153 Y13.644 F400.000
G1 X-2.881 Y13.514 F400.000
G1 X-3.605 Y13.345 F400.000
G1 X-4.316 Y13.136 F400.000
G1 X-5.017 Y12.887 F400.000
G1 X-5.701 Y12.599 F400.000
G1 X-6.373 Y12.277 F400.000
G1 X-6.701 Y12.102 F400.000
G1 X-7.328 Y11.701 F400.000
G1 X-7.938 Y11.271 F400.000
G1 X-9.096 Y10.333 F400.000
G1 X-9.379 Y10.090 F400.000
G1 X-10.181 Y9.305 F400.000
G1 X-10.684 Y8.757 F400.000
G1 X-11.141 Y8.169 F400.000
G1 X-11.571 Y7.559 F400.000
G1 X-12.164 Y6.610 F400.000
G1 X-12.520 Y5.955 F400.000
G1 X-12.819 Y5.266 F400.000
G1 X-13.085 Y4.565 F400.000
G1 X-13.311 Y3.853 F400.000
G1 X-13.503 Y3.130 F400.000
G1 X-13.655 Y2.395 F400.000
G1 X-13.814 Y1.282 F400.000
G1 X-13.870 Y0.537 F400.000
G1 X-13.876 Y-0.571 F400.000
G1 X-13.802 Y-1.672 F400.000
G1 X-13.718 Y-2.407 F400.000
G1 X-13.571 Y-3.130 F400.000
G1 X-13.480 Y-3.492 F400.000
G1 X-13.260 Y-4.203 F400.000
G1 X-13.011 Y-4.904 F400.000
G1 X-12.571 Y-5.927 F400.000
G1 X-12.237 Y-6.588 F400.000
G1 X-11.870 Y-7.237 F400.000
G1 X-11.260 Y-8.169 F400.000
G1 X-11.040 Y-8.469 F400.000
G1 X-10.311 Y-9.316 F400.000
G1 X-9.514 Y-10.107 F400.000
G1 X-8.966 Y-10.610 F400.000
G1 X-8.102 Y-11.322 F400.000
G1 X-7.480 Y-11.740 F400.000
G1 X-6.847 Y-12.136 F400.000
G1 X-5.864 Y-12.678 F400.000
G1 X-5.186 Y-13.000 F400.000
G1 X-4.497 Y-13.288 F400.000
G1 X-3.791 Y-13.542 F400.000
G1 X-3.435 Y-13.655 F400.000
G1 X-2.712 Y-13.836 F400.000
G1 X-2.345 Y-13.910 F400.000
G1 X-1.226 Y-14.073 F400.000
G1 X-0.107 Y-14.175 F400.000
G1 X0.994 Y-14.164 F400.000
G1 X1.729 Y-14.102 F400.000
G1 X2.463 Y-14.000 F400.000
G1 X3.186 Y-13.853 F400.000
G1 X4.260 Y-13.559 F400.000
G1 X5.311 Y-13.186 F400.000
G1 X6.333 Y-12.746 F400.000
G1 X6.994 Y-12.412 F400.000
G1 X7.960 Y-11.853 F400.000
G1 X8.271 Y-11.650 F400.000
G1 X9.153 Y-10.955 F400.000
G1 X9.712 Y-10.463 F400.000
G1 X10.232 Y-9.932 F400.000
G1 X10.966 Y-9.090 F400.000
G1 X11.650 Y-8.203 F400.000
G1 X11.864 Y-7.898 F400.000
G1 X12.249 Y-7.254 F400.000
G1 X12.610 Y-6.599 F400.000
G1 X13.102 Y-5.588 F400.000
G1 X13.401 Y-4.898 F400.000
G1 X13.751 Y-3.831 F400.000
G1 X14.028 Y-2.746 F400.000
G1 X14.243 Y-1.644 F400.000
G1 X14.350 Y-0.898 F400.000
G1 X14.390 Y0.215 F400.000
G1 X14.379 Y0.949 F400.000
G1 X14.328 Y1.684 F400.000
G1 X14.181 Y2.785 F400.000
G1 X13.949 Y3.870 F400.000
G1 X13.746 Y4.582 F400.000
G1 X13.508 Y5.282 F400.000
G1 X13.209 Y5.960 F400.000
G1 X12.876 Y6.627 F400.000
G1 X12.503 Y7.271 F400.000
G1 X12.096 Y7.898 F400.000
G1 X11.435 Y8.802 F400.000
G1 X10.729 Y9.667 F400.000
G1 X9.944 Y10.458 F400.000
G1 X9.102 Y11.192 F400.000
G1 X8.209 Y11.870 F400.000
G1 X7.593 Y12.294 F400.000
G1 X6.277 Y13.017 F400.000
G1 X5.605 Y13.345 F400.000
G1 X4.915 Y13.627 F400.000
G1 X3.853 Y13.989 F400.000
G1 X3.130 Y14.181 F400.000
G1 X2.395 Y14.339 F400.000
G1 X1.282 Y14.497 F400.000
G1 X0.537 Y14.554 F400.000
G1 X-0.571 Y14.559 F400.000
G1 X-1.672 Y14.497 F400.000
G1 X-2.040 Y14.463 F400.000
G1 X-2.774 Y14.345 F400.000
G1 X-3.859 Y14.096 F400.000
G1 X-4.565 Y13.881 F400.000
G1 X-5.266 Y13.633 F400.000
G1 X-5.955 Y13.350 F400.000
G1 X-6.627 Y13.040 F400.000
G1 X-7.588 Y12.475 F400.000
G1 X-8.198 Y12.051 F400.000
G1 X-9.090 Y11.373 F400.000
G1 X-9.667 Y10.898 F400.000
G1 X-10.492 Y10.147 F400.000
G1 X-11.249 Y9.322 F400.000
G1 X-11.718 Y8.740 F400.000
G1 X-12.147 Y8.130 F400.000
G1 X-12.554 Y7.497 F400.000
G1 X-13.113 Y6.520 F400.000
G1 X-13.282 Y6.186 F400.000
G1 X-13.576 Y5.497 F400.000
G1 X-13.712 Y5.147 F400.000
G1 X-14.056 Y4.079 F400.000
G1 X-14.328 Y2.989 F400.000
G1 X-14.537 Y1.887 F400.000
G1 X-14.593 Y1.514 F400.000
G1 X-14.661 Y0.768 F400.000
G1 X-14.684 Y0.023 F400.000
G1 X-14.672 Y-0.712 F400.000
G1 X-14.588 Y-1.814 F400.000
G1 X-14.492 Y-2.548 F400.000
G1 X-14.362 Y-3.277 F400.000
G1 X-14.169 Y-3.989 F400.000
G1 X-13.808 Y-5.045 F400.000
G1 X-13.367 Y-6.068 F400.000
G1 X-13.045 Y-6.734 F400.000
G1 X-12.514 Y-7.718 F400.000
G1 X-11.898 Y-8.644 F400.000
G1 X-11.446 Y-9.237 F400.000
G1 X-10.429 Y-10.328 F400.000
G1 X-9.627 Y-11.102 F400.000
G1 X-9.350 Y-11.350 F400.000
G1 X-8.763 Y-11.808 F400.000
G1 X-8.153 Y-12.243 F400.000
G1 X-7.203 Y-12.836 F400.000
G1 X-6.220 Y-13.379 F400.000
G1 X-5.554 Y-13.718 F400.000
G1 X-5.215 Y-13.876 F400.000
G1 X-4.164 Y-14.271 F400.000
G1 X-3.808 Y-14.384 F400.000
G1 X-3.085 Y-14.565 F400.000
G1 X-2.350 Y-14.718 F400.000
G1 X-1.237 Y-14.893 F400.000
G1 X-0.864 Y-14.938 F400.000
G1 X0.249 Y-14.989 F400.000
G1 X1.350 Y-14.955 F400.000
G1 X2.085 Y-14.887 F400.000
G1 X3.175 Y-14.684 F400.000
G1 X3.893 Y-14.497 F400.000
G1 X4.955 Y-14.175 F400.000
G1 X6.000 Y-13.802 F400.000
G1 X6.672 Y-13.486 F400.000
G1 X7.328 Y-13.147 F400.000
G1 X8.282 Y-12.576 F400.000
G1 X9.198 Y-11.949 F400.000
G1 X9.774 Y-11.475 F400.000
G1 X10.051 Y-11.226 F400.000
G1 X10.836 Y-10.435 F400.000
G1 X11.571 Y-9.593 F400.000
G1 X12.249 Y-8.706 F400.000
G1 X12.876 Y-7.774 F400.000
G1 X13.254 Y-7.136 F400.000
G1 X13.588 Y-6.469 F400.000
G1 X13.893 Y-5.785 F400.000
G1 X14.288 Y-4.734 F400.000
G1 X14.514 Y-4.023 F400.000
G1 X14.706 Y-3.299 F400.000
G1 X14.949 Y-2.198 F400.000
G1 X15.079 Y-1.463 F400.000
G1 X15.169 Y-0.345 F400.000
G1 X15.175 Y0.390 F400.000
G1 X15.158 Y1.124 F400.000
G1 X15.107 Y1.859 F400.000
G1 X15.011 Y2.593 F400.000
G1 X14.887 Y3.328 F400.000
G1 X14.734 Y4.051 F400.000
G1 X14.525 Y4.763 F400.000
G1 X14.407 Y5.113 F400.000
G1 X14.130 Y5.802 F400.000
G1 X13.825 Y6.480 F400.000
G1 X13.299 Y7.469 F400.000
G1 X12.915 Y8.107 F400.000
G1 X12.288 Y9.023 F400.000
G1 X11.593 Y9.904 F400.000
G1 X11.102 Y10.463 F400.000
G1 X10.288 Y11.237 F400.000
G1 X9.429 Y11.955 F400.000
G1 X8.525 Y12.616 F400.000
G1 X7.898 Y13.028 F400.000
G1 X6.927 Y13.588 F400.000
G1 X6.260 Y13.927 F400.000
G1 X5.576 Y14.237 F400.000
G1 X5.232 Y14.379 F400.000
G1 X4.520 Y14.621 F400.000
G1 X3.797 Y14.836 F400.000
G1 X2.701 Y15.090 F400.000
G1 X1.960 Y15.220 F400.000
G1 X1.215 Y15.316 F400.000
G1 X0.842 Y15.350 F400.000
G1 X-0.638 Y15.373 F400.000
G1 X-1.373 Y15.350 F400.000
G1 X-2.107 Y15.277 F400.000
G1 X-3.209 Y15.085 F400.000
G1 X-3.932 Y14.915 F400.000
G1 X-5.000 Y14.599 F400.000
G1 X-5.701 Y14.350 F400.000
G1 X-6.045 Y14.215 F400.000
G1 X-6.712 Y13.887 F400.000
G1 X-7.367 Y13.531 F400.000
G1 X-8.311 Y12.938 F400.000
G1 X-9.220 Y12.288 F400.000
G1 X-10.096 Y11.599 F400.000
G1 X-10.927 Y10.847 F400.000
G1 X-11.452 Y10.316 F400.000
G1 X-11.932 Y9.746 F400.000
G1 X-12.384 Y9.153 F400.000
G1 X-13.215 Y7.910 F400.000
G1 X-13.599 Y7.266 F400.000
G1 X-13.938 Y6.599 F400.000
G1 X-14.096 Y6.260 F400.000
G1 X-14.508 Y5.215 F400.000
G1 X-14.847 Y4.141 F400.000
G1 X-15.034 Y3.418 F400.000
G1 X-15.260 Y2.316 F400.000
G1 X-15.379 Y1.576 F400.000
G1 X-15.446 Y0.831 F400.000
G1 X-15.463 Y0.458 F400.000
G1 X-15.469 Y-0.282 F400.000
G1 X-15.418 Y-1.384 F400.000
G1 X-15.345 Y-2.119 F400.000
G1 X-15.237 Y-2.853 F400.000
G1 X-15.096 Y-3.582 F400.000
G1 X-15.011 Y-3.944 F400.000
G1 X-14.797 Y-4.655 F400.000
G1 X-14.542 Y-5.356 F400.000
G1 X-14.260 Y-6.045 F400.000
G1 X-13.785 Y-7.051 F400.000
G1 X-13.260 Y-8.028 F400.000
G1 X-13.068 Y-8.350 F400.000
G1 X-12.650 Y-8.966 F400.000
G1 X-12.198 Y-9.559 F400.000
G1 X-11.960 Y-9.847 F400.000
G1 X-10.949 Y-10.938 F400.000
G1 X-10.689 Y-11.203 F400.000
G1 X-10.141 Y-11.712 F400.000
G1 X-9.277 Y-12.424 F400.000
G1 X-8.672 Y-12.870 F400.000
G1 X-8.040 Y-13.266 F400.000
G1 X-6.412 Y-14.192 F400.000
G1 X-5.395 Y-14.667 F400.000
G1 X-4.701 Y-14.944 F400.000
G1 X-3.977 Y-15.158 F400.000
G1 X-3.254 Y-15.345 F400.000
G1 X-2.153 Y-15.565 F400.000
G1 X-1.034 Y-15.718 F400.000
G1 X-0.288 Y-15.780 F400.000
G1 X0.079 Y-15.797 F400.000
G1 X1.181 Y-15.768 F400.000
G1 X2.282 Y-15.650 F400.000
G1 X3.017 Y-15.531 F400.000
G1 X4.102 Y-15.271 F400.000
G1 X5.169 Y-14.944 F400.000
G1 X5.864 Y-14.689 F400.000
G1 X6.887 Y-14.249 F400.000
G1 X7.881 Y-13.740 F400.000
G1 X8.525 Y-13.367 F400.000
G1 X9.458 Y-12.757 F400.000
G1 X10.316 Y-12.045 F400.000
G1 X11.401 Y-11.023 F400.000
G1 X11.898 Y-10.463 F400.000
G1 X12.367 Y-9.887 F400.000
G1 X13.028 Y-8.977 F400.000
G1 X13.638 Y-8.040 F400.000
G1 X13.831 Y-7.718 F400.000
G1 X14.181 Y-7.051 F400.000
G1 X14.497 Y-6.367 F400.000
G1 X14.910 Y-5.322 F400.000
G1 X15.266 Y-4.254 F400.000
G1 X15.554 Y-3.169 F400.000
G1 X15.718 Y-2.435 F400.000
G1 X15.847 Y-1.701 F400.000
G1 X15.932 Y-0.955 F400.000
G1 X15.989 Y0.158 F400.000
G1 X15.960 Y1.260 F400.000
G1 X15.802 Y2.729 F400.000
G1 X15.599 Y3.825 F400.000
G1 X15.520 Y4.186 F400.000
G1 X15.316 Y4.898 F400.000
G1 X15.068 Y5.593 F400.000
G1 X14.627 Y6.616 F400.000
G1 X14.124 Y7.610 F400.000
G1 X13.565 Y8.571 F400.000
G1 X13.158 Y9.192 F400.000
G1 X12.497 Y10.090 F400.000
G1 X12.006 Y10.650 F400.000
G1 X11.751 Y10.921 F400.000
G1 X10.955 Y11.701 F400.000
G1 X10.119 Y12.441 F400.000
G1 X9.531 Y12.904 F400.000
G1 X7.966 Y13.927 F400.000
G1 X6.977 Y14.469 F400.000
G1 X5.966 Y14.949 F400.000
G1 X5.266 Y15.209 F400.000
G1 X4.554 Y15.441 F400.000
G1 X3.469 Y15.746 F400.000
G1 X3.102 Y15.836 F400.000
G1 X2.367 Y15.972 F400.000
G1 X1.994 Y16.028 F400.000
G1 X0.876 Y16.136 F400.000
G1 X-0.237 Y16.186 F400.000
G1 X-1.339 Y16.169 F400.000
G1 X-2.073 Y16.090 F400.000
G1 X-2.808 Y15.983 F400.000
G1 X-3.706 Y15.797 F400.000
G1 X-4.864 Y15.480 F400.000
G1 X-5.655 Y15.209 F400.000
G1 X-6.836 Y14.712 F400.000
G1 X-7.819 Y14.186 F400.000
G1 X-8.452 Y13.797 F400.000
G1 X-9.373 Y13.158 F400.000
G1 X-10.548 Y12.243 F400.000
G1 X-11.124 Y11.768 F400.000
G1 X-11.915 Y10.983 F400.000
G1 X-12.407 Y10.424 F400.000
G1 X-12.864 Y9.836 F400.000
G1 X-13.718 Y8.605 F400.000
G1 X-13.921 Y8.288 F400.000
G1 X-14.294 Y7.644 F400.000
G1 X-14.797 Y6.644 F400.000
G1 X-15.090 Y5.955 F400.000
G1 X-15.226 Y5.605 F400.000
G1 X-15.701 Y4.085 F400.000
G1 X-16.017 Y2.616 F400.000
G1 X-16.085 Y2.249 F400.000
G1 X-16.102 Y1.977 F400.000
G1 X-16.209 Y0.960 F400.000
G1 X-16.158 Y-1.689 F400.000
G1 X-15.864 Y-3.554 F400.000
G1 X-15.339 Y-5.350 F400.000
G1 X-14.458 Y-7.379 F400.000
G1 X-13.859 Y-8.508 F400.000
G1 X-13.034 Y-9.672 F400.000
G1 X-12.525 Y-10.333 F400.000
G1 X-12.226 Y-10.684 F400.000
G1 X-10.819 Y-12.107 F400.000
G1 X-10.684 Y-12.220 F400.000
G1 X-10.418 Y-12.480 F400.000
G1 X-8.723 Y-13.723 F400.000
G1 X-7.006 Y-14.740 F400.000
G1 X-5.085 Y-15.599 F400.000
G1 X-3.130 Y-16.158 F400.000
G1 X-1.051 Y-16.497 F400.000
G1 X1.808 Y-16.497 F400.000
G1 X4.774 Y-15.887 F400.000
G1 X7.090 Y-15.000 F400.000
G1 X8.740 Y-14.119 F400.000
G1 X9.994 Y-13.277 F400.000
G1 X11.480 Y-11.994 F400.000
G1 X13.034 Y-10.271 F400.000
G1 X14.028 Y-8.864 F400.000
G1 X15.141 Y-6.746 F400.000
G1 X15.944 Y-4.599 F400.000
G1 X16.469 Y-2.249 F400.000
G1 X16.684 Y-0.169 F400.000
G1 X16.638 Y2.124 F400.000
G1 X16.373 Y3.819 F400.000
G1 X15.927 Y5.345 F400.000
G1 X14.927 Y7.706 F400.000
G1 X13.571 Y9.910 F400.000
G1 X12.153 Y11.571 F400.000
G1 X10.701 Y12.915 F400.000
G1 X8.842 Y14.266 F400.000
G1 X7.661 Y14.960 F400.000
G1 X5.565 Y15.904 F400.000
G1 X4.045 Y16.379 F400.000
G1 X1.424 Y16.842 F400.000
G1 X-1.797 Y16.853 F400.000
G1 X-3.746 Y16.531 F400.000
G1 X-5.271 Y16.119 F400.000
G1 X-7.627 Y15.124 F400.000
G1 X-10.401 Y13.277 F400.000
G1 X-12.226 Y11.684 F400.000
G1 X-13.881 Y9.610 F400.000
G1 X-15.006 Y7.825 F400.000
G1 X-15.718 Y6.249 F400.000
G1 X-16.220 Y4.881 F400.000
G1 X-16.729 Y2.621 F400.000
G1 X-16.932 Y0.542 F400.000
G1 X-16.853 Y-1.780 F400.000
G1 X-16.503 Y-3.898 F400.000
G1 X-16.090 Y-5.339 F400.000
G1 X-14.859 Y-8.096 F400.000
G1 X-13.441 Y-10.271 F400.000
G1 X-11.588 Y-12.322 F400.000
G1 X-10.011 Y-13.678 F400.000
G1 X-8.723 Y-14.542 F400.000
G1 X-7.045 Y-15.424 F400.000
G1 X-6.028 Y-15.847 F400.000
G1 X-4.192 Y-16.429 F400.000
G1 X-3.198 Y-16.655 F400.000
G1 X-0.757 Y-16.944 F400.000
G1 X1.746 Y-16.876 F400.000
G1 X3.271 Y-16.638 F400.000
G1 X5.305 Y-16.107 F400.000
G1 X6.316 Y-15.729 F400.000
G1 X7.458 Y-15.232 F400.000
G1 X8.797 Y-14.497 F400.000
G1 X11.124 Y-12.802 F400.000
G1 X12.661 Y-11.282 F400.000
G1 X13.842 Y-9.797 F400.000
G1 X14.910 Y-8.090 F400.000
G1 X15.723 Y-6.350 F400.000
G1 X16.215 Y-4.966 F400.000
G1 X16.627 Y-3.339 F400.000
G1 X16.898 Y-1.441 F400.000
G1 X16.898 Y1.441 F400.000
G1 X16.599 Y3.475 F400.000
G1 X16.068 Y5.424 F400.000
G1 X15.718 Y6.356 F400.000
G1 X15.215 Y7.492 F400.000
G1 X14.480 Y8.831 F400.000
G1 X13.842 Y9.797 F400.000
G1 X12.616 Y11.333 F400.000
G1 X10.989 Y12.910 F400.000
G1 X9.554 Y14.011 F400.000
G1 X8.633 Y14.593 F400.000
G1 X6.915 Y15.480 F400.000
G1 X5.045 Y16.186 F400.000
G1 X3.068 Y16.678 F400.000
G1 X0.718 Y16.944 F400.000
G1 X0.266 Y16.949 F400.000
G1 X0.266 Y16.949 F400.000
G1 X0.243 Y16.944 F400.000
G1 X0.237 Y16.944 F400.000
G1 X0.192 Y16.949 F400.000
G1 X0.192 Y16.949 F400.000
G1 X-0.328 Y16.955 F400.000
G1 X-0.322 Y16.955 F400.000
G1 X-0.537 Y16.887 F400.000
G1 X-0.616 Y16.842 F400.000
G0 X-0.655 Y16.814
G0 X-1.746 Y16.299
G0 X-4.932 Y15.429
G0 X-7.661 Y14.571
G0 X-8.288 Y14.497
G1 X-8.339 Y14.497 F400.000
G1 X-8.520 Y14.480 F400.000
G1 X-8.802 Y14.452 F400.000
G1 X-8.938 Y14.401 F400.000
G1 X-8.938 Y14.401 F400.000
G1 X-9.977 Y13.706 F400.000
G1 X-11.164 Y12.768 F400.000
G1 X-12.938 Y10.966 F400.000
G1 X-13.927 Y9.672 F400.000
G1 X-14.938 Y8.034 F400.000
G1 X-15.774 Y6.198 F400.000
G1 X-15.774 Y6.198 F400.000
G1 X-15.791 Y5.960 F400.000
G1 X-15.768 Y5.870 F400.000
G0 X-15.746 Y5.836
G0 X-15.610 Y5.723
G0 X11.859 Y-11.282
G1 X11.977 Y-11.362 F400.000
G1 X12.198 Y-11.480 F400.000
G1 X12.328 Y-11.492 F400.000
G1 X12.497 Y-11.424 F400.000
G1 X12.576 Y-11.367 F400.000
G1 X12.576 Y-11.367 F400.000
G1 X13.503 Y-10.260 F400.000
G1 X13.503 Y-10.260 F400.000
G1 X13.503 Y-10.232 F400.000
G0 X13.497 Y-10.220
G1 X13.486 Y-10.226 F400.000
G1 X13.492 Y-10.260 F400.000
G1 X13.559 Y-10.260 F400.000
G1 X13.559 Y-10.260 F400.000
G1 X13.847 Y-9.870 F400.000
G1 X14.497 Y-8.881 F400.000
G1 X14.977 Y-8.051 F400.000
G1 X15.356 Y-7.288 F400.000
G1 X15.757 Y-6.367 F400.000
G1 X16.164 Y-5.266 F400.000
G1 X16.525 Y-3.977 F400.000
G1 X16.650 Y-3.452 F400.000
G1 X16.825 Y-2.441 F400.000
G1 X16.938 Y-1.441 F400.000
G1 X16.994 Y-0.559 F400.000
G1 X16.989 Y0.638 F400.000
G1 X16.938 Y1.452 F400.000
G1 X16.814 Y2.525 F400.000
G1 X16.638 Y3.508 F400.000
G1 X16.542 Y3.910 F400.000
G1 X16.254 Y4.966 F400.000
G1 X16.119 Y5.401 F400.000
G1 X15.740 Y6.407 F400.000
G1 X15.345 Y7.328 F400.000
G1 X14.949 Y8.096 F400.000
G1 X14.412 Y9.017 F400.000
G1 X13.887 Y9.808 F400.000
G1 X13.554 Y10.260 F400.000
G1 X12.972 Y10.989 F400.000
G1 X12.616 Y11.395 F400.000
G1 X11.949 Y12.096 F400.000
G1 X11.186 Y12.797 F400.000
G1 X10.373 Y13.469 F400.000
G1 X9.633 Y14.006 F400.000
G1 X8.684 Y14.616 F400.000
G1 X7.944 Y15.028 F400.000
G1 X7.446 Y15.282 F400.000
G1 X7.068 Y15.458 F400.000
G1 X5.972 Y15.915 F400.000
G1 X5.164 Y16.198 F400.000
G1 X4.141 Y16.480 F400.000
G1 X3.186 Y16.701 F400.000
G1 X2.203 Y16.853 F400.000
G1 X1.655 Y16.915 F400.000
G1 X0.774 Y16.983 F400.000
G1 X-0.232 Y17.000 F400.000
G1 X-0.819 Y16.977 F400.000
G1 X-1.831 Y16.904 F400.000
G1 X-2.712 Y16.780 F400.000
G1 X-3.260 Y16.678 F400.000
G1 X-4.226 Y16.463 F400.000
G1 X-5.266 Y16.164 F400.000
G1 X-6.056 Y15.876 F400.000
G1 X-7.119 Y15.441 F400.000
G1 X-7.424 Y15.294 F400.000
G1 X-8.384 Y14.785 F400.000
G1 X-8.808 Y14.537 F400.000
G1 X-9.706 Y13.955 F400.000
G1 X-10.429 Y13.424 F400.000
G1 X-11.260 Y12.740 F400.000
G1 X-11.983 Y12.062 F400.000
G1 X-12.655 Y11.350 F400.000
G1 X-13.000 Y10.949 F400.000
G1 X-13.554 Y10.254 F400.000
G1 X-13.927 Y9.746 F400.000
G1 X-14.497 Y8.881 F400.000
G1 X-14.960 Y8.079 F400.000
G1 X-15.379 Y7.243 F400.000
G1 X-15.757 Y6.356 F400.000
G1 X-16.158 Y5.271 F400.000
G1 X-16.266 Y4.949 F400.000
G1 X-16.542 Y3.904 F400.000
G1 X-16.655 Y3.390 F400.000
G1 X-16.825 Y2.429 F400.000
G1 X-16.944 Y1.367 F400.000
G1 X-16.994 Y0.548 F400.000
G1 X-16.989 Y-0.638 F400.000
G1 X-16.938 Y-1.452 F400.000
G1 X-16.814 Y-2.537 F400.000
G1 X-16.638 Y-3.508 F400.000
G1 X-16.542 Y-3.910 F400.000
G1 X-16.141 Y-5.345 F400.000
G1 X-15.729 Y-6.429 F400.000
G1 X-15.345 Y-7.328 F400.000
G1 X-14.949 Y-8.096 F400.000
G1 X-14.401 Y-9.040 F400.000
G1 X-13.887 Y-9.808 F400.000
G1 X-13.554 Y-10.260 F400.000
G1 X-12.972 Y-10.989 F400.000
G1 X-12.655 Y-11.350 F400.000
G1 X-11.876 Y-12.158 F400.000
G1 X-11.164 Y-12.819 F400.000
G1 X-10.356 Y-13.480 F400.000
G1 X-9.633 Y-14.006 F400.000
G1 X-8.672 Y-14.621 F400.000
G1 X-7.944 Y-15.028 F400.000
G1 X-7.446 Y-15.282 F400.000
G1 X-7.068 Y-15.458 F400.000
G1 X-5.972 Y-15.915 F400.000
G1 X-5.164 Y-16.198 F400.000
G1 X-4.141 Y-16.480 F400.000
G1 X-3.186 Y-16.701 F400.000
G1 X-2.203 Y-16.853 F400.000
G1 X-1.655 Y-16.915 F400.000
G1 X-0.774 Y-16.983 F400.000
G1 X0.232 Y-17.000 F400.000
G1 X0.819 Y-16.977 F400.000
G1 X1.831 Y-16.904 F400.000
G1 X2.712 Y-16.780 F400.000
G1 X3.260 Y-16.678 F400.000
G1 X4.226 Y-16.463 F400.000
G1 X5.266 Y-16.164 F400.000
G1 X6.056 Y-15.876 F400.000
G1 X7.119 Y-15.435 F400.000
G1 X7.497 Y-15.260 F400.000
G1 X8.328 Y-14.819 F400.000
G1 X8.802 Y-14.542 F400.000
G1 X9.678 Y-13.977 F400.000
G1 X10.418 Y-13.435 F400.000
G1 X11.237 Y-12.757 F400.000
G1 X11.994 Y-12.045 F400.000
G1 X12.644 Y-11.362 F400.000
G1 X13.000 Y-10.949 F400.000
G1 X13.559 Y-10.260 F400.000
G1 X13.559 Y-10.260 F400.000
G0 Z5.000
G0 Z5.000
(Finish operation: Adaptive_big hole)
(Block-name: Adaptive_big hole001)
(Block-expand: 0)
(Block-enable: 1)
(Begin operation: Adaptive_big hole001)
(Path: Adaptive_big hole001)
(Adaptive_big hole001)
(Helix to depth: -5.000000)
G0 Z5.000
G0 X-0.135 Y0.723 Z5.000
G0 X-0.135 Y0.723 Z3.000
G1 X-0.135 Y0.723 Z-4.000 F400.000
G1 X-0.135 Y0.723 Z-4.000 F400.000
G1 X-0.274 Y0.683 Z-4.013 F400.000
G1 X-0.402 Y0.616 Z-4.026 F400.000
G1 X-0.514 Y0.526 Z-4.038 F400.000
G1 X-0.607 Y0.416 Z-4.051 F400.000
G1 X-0.677 Y0.289 Z-4.064 F400.000
G1 X-0.720 Y0.152 Z-4.077 F400.000
G1 X-0.736 Y0.008 Z-4.090 F400.000
G1 X-0.723 Y-0.135 Z-4.102 F400.000
G1 X-0.683 Y-0.274 Z-4.115 F400.000
G1 X-0.616 Y-0.402 Z-4.128 F400.000
G1 X-0.526 Y-0.514 Z-4.141 F400.000
G1 X-0.416 Y-0.607 Z-4.154 F400.000
G1 X-0.289 Y-0.677 Z-4.167 F400.000
G1 X-0.152 Y-0.720 Z-4.179 F400.000
G1 X-0.008 Y-0.736 Z-4.192 F400.000
G1 X0.135 Y-0.723 Z-4.205 F400.000
G1 X0.274 Y-0.683 Z-4.218 F400.000
G1 X0.402 Y-0.616 Z-4.231 F400.000
G1 X0.514 Y-0.526 Z-4.243 F400.000
G1 X0.607 Y-0.416 Z-4.256 F400.000
G1 X0.677 Y-0.289 Z-4.269 F400.000
G1 X0.720 Y-0.152 Z-4.282 F400.000
G1 X0.736 Y-0.008 Z-4.295 F400.000
G1 X0.723 Y0.135 Z-4.307 F400.000
G1 X0.683 Y0.274 Z-4.320 F400.000
G1 X0.616 Y0.402 Z-4.333 F400.000
G1 X0.526 Y0.514 Z-4.346 F400.000
G1 X0.416 Y0.607 Z-4.359 F400.000
G1 X0.289 Y0.677 Z-4.372 F400.000
G1 X0.152 Y0.720 Z-4.384 F400.000
G1 X0.008 Y0.736 Z-4.397 F400.000
G1 X-0.135 Y0.723 Z-4.410 F400.000
G1 X-0.274 Y0.683 Z-4.423 F400.000
G1 X-0.402 Y0.616 Z-4.436 F400.000
G1 X-0.514 Y0.526 Z-4.448 F400.000
G1 X-0.607 Y0.416 Z-4.461 F400.000
G1 X-0.677 Y0.289 Z-4.474 F400.000
G1 X-0.720 Y0.152 Z-4.487 F400.000
G1 X-0.736 Y0.008 Z-4.500 F400.000
G1 X-0.723 Y-0.135 Z-4.512 F400.000
G1 X-0.683 Y-0.274 Z-4.525 F400.000
G1 X-0.616 Y-0.402 Z-4.538 F400.000
G1 X-0.526 Y-0.514 Z-4.551 F400.000
G1 X-0.416 Y-0.607 Z-4.564 F400.000
G1 X-0.289 Y-0.677 Z-4.576 F400.000
G1 X-0.152 Y-0.720 Z-4.589 F400.000
G1 X-0.008 Y-0.736 Z-4.602 F400.000
G1 X0.135 Y-0.723 Z-4.615 F400.000
G1 X0.274 Y-0.683 Z-4.628 F400.000
G1 X0.402 Y-0.616 Z-4.641 F400.000
G1 X0.514 Y-0.526 Z-4.653 F400.000
G1 X0.607 Y-0.416 Z-4.666 F400.000
G1 X0.677 Y-0.289 Z-4.679 F400.000
G1 X0.720 Y-0.152 Z-4.692 F400.000
G1 X0.736 Y-0.008 Z-4.705 F400.000
G1 X0.723 Y0.135 Z-4.717 F400.000
G1 X0.683 Y0.274 Z-4.730 F400.000
G1 X0.616 Y0.402 Z-4.743 F400.000
G1 X0.526 Y0.514 Z-4.756 F400.000
G1 X0.416 Y0.607 Z-4.769 F400.000
G1 X0.289 Y0.677 Z-4.781 F400.000
G1 X0.152 Y0.720 Z-4.794 F400.000
G1 X0.008 Y0.736 Z-4.807 F400.000
G1 X-0.135 Y0.723 Z-4.820 F400.000
G1 X-0.274 Y0.683 Z-4.833 F400.000
G1 X-0.402 Y0.616 Z-4.846 F400.000
G1 X-0.514 Y0.526 Z-4.858 F400.000
G1 X-0.607 Y0.416 Z-4.871 F400.000
G1 X-0.677 Y0.289 Z-4.884 F400.000
G1 X-0.720 Y0.152 Z-4.897 F400.000
G1 X-0.736 Y0.008 Z-4.910 F400.000
G1 X-0.723 Y-0.135 Z-4.922 F400.000
G1 X-0.683 Y-0.274 Z-4.935 F400.000
G1 X-0.616 Y-0.402 Z-4.948 F400.000
G1 X-0.526 Y-0.514 Z-4.961 F400.000
G1 X-0.416 Y-0.607 Z-4.974 F400.000
G1 X-0.289 Y-0.677 Z-4.986 F400.000
G1 X-0.152 Y-0.720 Z-4.999 F400.000
G1 X-0.008 Y-0.736 Z-5.000 F400.000
G1 X0.135 Y-0.723 Z-5.000 F400.000
G1 X0.274 Y-0.683 Z-5.000 F400.000
G1 X0.402 Y-0.616 Z-5.000 F400.000
G1 X0.514 Y-0.526 Z-5.000 F400.000
G1 X0.607 Y-0.416 Z-5.000 F400.000
G1 X0.677 Y-0.289 Z-5.000 F400.000
G1 X0.720 Y-0.152 Z-5.000 F400.000
G1 X0.736 Y-0.008 Z-5.000 F400.000
G1 X0.723 Y0.135 Z-5.000 F400.000
G1 X0.683 Y0.274 Z-5.000 F400.000
G1 X0.616 Y0.402 Z-5.000 F400.000
G1 X0.526 Y0.514 Z-5.000 F400.000
G1 X0.416 Y0.607 Z-5.000 F400.000
G1 X0.289 Y0.677 Z-5.000 F400.000
G1 X0.152 Y0.720 Z-5.000 F400.000
G1 X0.008 Y0.736 Z-5.000 F400.000
G1 X-0.135 Y0.723 Z-5.000 F400.000
G1 X-0.274 Y0.683 Z-5.000 F400.000
G1 X-0.402 Y0.616 Z-5.000 F400.000
G1 X-0.514 Y0.526 Z-5.000 F400.000
G1 X-0.607 Y0.416 Z-5.000 F400.000
G1 X-0.677 Y0.289 Z-5.000 F400.000
G1 X-0.720 Y0.152 Z-5.000 F400.000
G1 X-0.736 Y0.008 Z-5.000 F400.000
G1 X-0.723 Y-0.135 Z-5.000 F400.000
G1 X-0.683 Y-0.274 Z-5.000 F400.000
G1 X-0.616 Y-0.402 Z-5.000 F400.000
G1 X-0.526 Y-0.514 Z-5.000 F400.000
G1 X-0.416 Y-0.607 Z-5.000 F400.000
G1 X-0.289 Y-0.677 Z-5.000 F400.000
G1 X-0.152 Y-0.720 Z-5.000 F400.000
(Adaptive - depth: -5.000000)
G1 X0.000 Y-0.746 F400.000
G1 X0.062 Y-0.808 F400.000
G1 X0.141 Y-0.842 F400.000
G1 X0.311 Y-0.864 F400.000
G1 X0.395 Y-0.859 F400.000
G1 X0.565 Y-0.802 F400.000
G1 X0.718 Y-0.706 F400.000
G1 X0.785 Y-0.644 F400.000
G1 X1.000 Y-0.345 F400.000
G1 X1.073 Y-0.102 F400.000
G1 X1.085 Y0.056 F400.000
G1 X1.068 Y0.220 F400.000
G1 X1.011 Y0.424 F400.000
G1 X0.898 Y0.650 F400.000
G1 X0.740 Y0.831 F400.000
G1 X0.576 Y0.955 F400.000
G1 X0.390 Y1.045 F400.000
G1 X0.181 Y1.107 F400.000
G1 X-0.056 Y1.130 F400.000
G1 X-0.288 Y1.102 F400.000
G1 X-0.503 Y1.017 F400.000
G1 X-0.672 Y0.915 F400.000
G1 X-0.836 Y0.768 F400.000
G1 X-0.972 Y0.576 F400.000
G1 X-1.062 Y0.379 F400.000
G1 X-1.113 Y0.164 F400.000
G1 X-1.130 Y-0.056 F400.000
G1 X-1.096 Y-0.294 F400.000
G1 X-1.023 Y-0.508 F400.000
G1 X-0.898 Y-0.701 F400.000
G1 X-0.763 Y-0.853 F400.000
G1 X-0.576 Y-1.017 F400.000
G1 X-0.333 Y-1.147 F400.000
G1 X0.017 Y-1.243 F400.000
G1 X0.271 Y-1.260 F400.000
G1 X0.525 Y-1.226 F400.000
G1 X0.610 Y-1.198 F400.000
G1 X0.944 Y-1.034 F400.000
G1 X1.215 Y-0.785 F400.000
G1 X1.328 Y-0.610 F400.000
G1 X1.407 Y-0.441 F400.000
G1 X1.469 Y-0.215 F400.000
G1 X1.503 Y0.040 F400.000
G1 X1.486 Y0.328 F400.000
G1 X1.424 Y0.576 F400.000
G1 X1.333 Y0.797 F400.000
G1 X1.186 Y1.017 F400.000
G1 X1.011 Y1.203 F400.000
G1 X0.808 Y1.356 F400.000
G1 X0.576 Y1.475 F400.000
G1 X0.333 Y1.548 F400.000
G1 X0.079 Y1.582 F400.000
G1 X-0.175 Y1.582 F400.000
G1 X-0.469 Y1.525 F400.000
G1 X-0.723 Y1.429 F400.000
G1 X-0.955 Y1.288 F400.000
G1 X-1.136 Y1.130 F400.000
G1 X-1.299 Y0.927 F400.000
G1 X-1.435 Y0.706 F400.000
G1 X-1.542 Y0.429 F400.000
G1 X-1.599 Y0.164 F400.000
G1 X-1.605 Y-0.107 F400.000
G1 X-1.571 Y-0.350 F400.000
G1 X-1.492 Y-0.599 F400.000
G1 X-1.390 Y-0.836 F400.000
G1 X-1.203 Y-1.113 F400.000
G1 X-1.000 Y-1.311 F400.000
G1 X-0.802 Y-1.463 F400.000
G1 X-0.554 Y-1.605 F400.000
G1 X-0.243 Y-1.712 F400.000
G1 X0.034 Y-1.757 F400.000
G1 X0.288 Y-1.763 F400.000
G1 X0.571 Y-1.729 F400.000
G1 X0.864 Y-1.644 F400.000
G1 X1.124 Y-1.525 F400.000
G1 X1.362 Y-1.350 F400.000
G1 X1.542 Y-1.175 F400.000
G1 X1.706 Y-0.949 F400.000
G1 X1.842 Y-0.706 F400.000
G1 X1.944 Y-0.418 F400.000
G1 X1.994 Y-0.136 F400.000
G1 X2.017 Y0.147 F400.000
G1 X1.983 Y0.475 F400.000
G1 X1.910 Y0.763 F400.000
G1 X1.797 Y1.045 F400.000
G1 X1.627 Y1.305 F400.000
G1 X1.446 Y1.514 F400.000
G1 X1.220 Y1.712 F400.000
G1 X0.972 Y1.864 F400.000
G1 X0.706 Y1.977 F400.000
G1 X0.424 Y2.062 F400.000
G1 X0.090 Y2.113 F400.000
G1 X-0.243 Y2.113 F400.000
G1 X-0.554 Y2.056 F400.000
G1 X-0.814 Y1.977 F400.000
G1 X-1.090 Y1.842 F400.000
G1 X-1.333 Y1.667 F400.000
G1 X-1.548 Y1.463 F400.000
G1 X-1.734 Y1.226 F400.000
G1 X-1.893 Y0.972 F400.000
G1 X-2.034 Y0.638 F400.000
G1 X-2.107 Y0.328 F400.000
G1 X-2.130 Y0.040 F400.000
G1 X-2.124 Y-0.237 F400.000
G1 X-2.073 Y-0.582 F400.000
G1 X-1.966 Y-0.921 F400.000
G1 X-1.808 Y-1.209 F400.000
G1 X-1.655 Y-1.424 F400.000
G1 X-1.452 Y-1.655 F400.000
G1 X-1.181 Y-1.887 F400.000
G1 X-0.893 Y-2.073 F400.000
G1 X-0.576 Y-2.203 F400.000
G1 X-0.299 Y-2.282 F400.000
G1 X0.017 Y-2.328 F400.000
G1 X0.322 Y-2.333 F400.000
G1 X0.667 Y-2.288 F400.000
G1 X0.983 Y-2.203 F400.000
G1 X1.282 Y-2.079 F400.000
G1 X1.571 Y-1.904 F400.000
G1 X1.831 Y-1.695 F400.000
G1 X2.051 Y-1.446 F400.000
G1 X2.209 Y-1.215 F400.000
G1 X2.362 Y-0.938 F400.000
G1 X2.492 Y-0.593 F400.000
G1 X2.576 Y-0.237 F400.000
G1 X2.599 Y0.102 F400.000
G1 X2.582 Y0.390 F400.000
G1 X2.531 Y0.718 F400.000
G1 X2.418 Y1.068 F400.000
G1 X2.282 Y1.367 F400.000
G1 X2.085 Y1.655 F400.000
G1 X1.881 Y1.887 F400.000
G1 X1.633 Y2.102 F400.000
G1 X1.367 Y2.294 F400.000
G1 X1.034 Y2.463 F400.000
G1 X0.706 Y2.588 F400.000
G1 X0.362 Y2.672 F400.000
G1 X0.000 Y2.712 F400.000
G1 X-0.356 Y2.695 F400.000
G1 X-0.667 Y2.644 F400.000
G1 X-0.994 Y2.542 F400.000
G1 X-1.299 Y2.401 F400.000
G1 X-1.582 Y2.226 F400.000
G1 X-1.842 Y2.006 F400.000
G1 X-2.079 Y1.763 F400.000
G1 X-2.299 Y1.463 F400.000
G1 X-2.469 Y1.158 F400.000
G1 X-2.605 Y0.831 F400.000
G1 X-2.701 Y0.480 F400.000
G1 X-2.734 Y0.124 F400.000
G1 X-2.740 Y-0.181 F400.000
G1 X-2.689 Y-0.548 F400.000
G1 X-2.610 Y-0.887 F400.000
G1 X-2.480 Y-1.237 F400.000
G1 X-2.311 Y-1.565 F400.000
G1 X-2.090 Y-1.864 F400.000
G1 X-1.876 Y-2.096 F400.000
G1 X-1.610 Y-2.328 F400.000
G1 X-1.294 Y-2.531 F400.000
G1 X-0.977 Y-2.689 F400.000
G1 X-0.633 Y-2.814 F400.000
G1 X-0.266 Y-2.893 F400.000
G1 X0.090 Y-2.927 F400.000
G1 X0.452 Y-2.921 F400.000
G1 X0.814 Y-2.881 F400.000
G1 X1.175 Y-2.791 F400.000
G1 X1.514 Y-2.644 F400.000
G1 X1.797 Y-2.492 F400.000
G1 X2.096 Y-2.271 F400.000
G1 X2.350 Y-2.023 F400.000
G1 X2.571 Y-1.751 F400.000
G1 X2.774 Y-1.452 F400.000
G1 X2.949 Y-1.124 F400.000
G1 X3.085 Y-0.774 F400.000
G1 X3.169 Y-0.407 F400.000
G1 X3.215 Y-0.068 F400.000
G1 X3.220 Y0.299 F400.000
G1 X3.175 Y0.667 F400.000
G1 X3.090 Y1.023 F400.000
G1 X2.960 Y1.373 F400.000
G1 X2.791 Y1.701 F400.000
G1 X2.582 Y2.011 F400.000
G1 X2.339 Y2.294 F400.000
G1 X2.062 Y2.542 F400.000
G1 X1.768 Y2.774 F400.000
G1 X1.446 Y2.960 F400.000
G1 X1.107 Y3.113 F400.000
G1 X0.751 Y3.232 F400.000
G1 X0.384 Y3.311 F400.000
G1 X0.011 Y3.333 F400.000
G1 X-0.333 Y3.322 F400.000
G1 X-0.701 Y3.266 F400.000
G1 X-1.062 Y3.175 F400.000
G1 X-1.407 Y3.040 F400.000
G1 X-1.734 Y2.870 F400.000
G1 X-2.045 Y2.667 F400.000
G1 X-2.333 Y2.429 F400.000
G1 X-2.582 Y2.153 F400.000
G1 X-2.791 Y1.870 F400.000
G1 X-2.977 Y1.542 F400.000
G1 X-3.136 Y1.203 F400.000
G1 X-3.249 Y0.847 F400.000
G1 X-3.328 Y0.480 F400.000
G1 X-3.373 Y0.107 F400.000
G1 X-3.373 Y-0.260 F400.000
G1 X-3.333 Y-0.627 F400.000
G1 X-3.254 Y-0.989 F400.000
G1 X-3.141 Y-1.339 F400.000
G1 X-2.989 Y-1.678 F400.000
G1 X-2.802 Y-2.000 F400.000
G1 X-2.582 Y-2.299 F400.000
G1 X-2.322 Y-2.565 F400.000
G1 X-2.045 Y-2.797 F400.000
G1 X-1.740 Y-3.011 F400.000
G1 X-1.412 Y-3.198 F400.000
G1 X-1.068 Y-3.345 F400.000
G1 X-0.712 Y-3.463 F400.000
G1 X-0.345 Y-3.542 F400.000
G1 X0.023 Y-3.588 F400.000
G1 X0.390 Y-3.593 F400.000
G1 X0.757 Y-3.565 F400.000
G1 X1.124 Y-3.497 F400.000
G1 X1.475 Y-3.379 F400.000
G1 X1.814 Y-3.232 F400.000
G1 X2.136 Y-3.045 F400.000
G1 X2.435 Y-2.825 F400.000
G1 X2.712 Y-2.576 F400.000
G1 X2.966 Y-2.305 F400.000
G1 X3.186 Y-2.006 F400.000
G1 X3.379 Y-1.684 F400.000
G1 X3.554 Y-1.350 F400.000
G1 X3.684 Y-1.000 F400.000
G1 X3.785 Y-0.638 F400.000
G1 X3.842 Y-0.266 F400.000
G1 X3.864 Y0.102 F400.000
G1 X3.847 Y0.469 F400.000
G1 X3.791 Y0.836 F400.000
G1 X3.701 Y1.198 F400.000
G1 X3.571 Y1.548 F400.000
G1 X3.418 Y1.887 F400.000
G1 X3.226 Y2.209 F400.000
G1 X3.006 Y2.508 F400.000
G1 X2.763 Y2.791 F400.000
G1 X2.492 Y3.045 F400.000
G1 X2.198 Y3.277 F400.000
G1 X1.887 Y3.480 F400.000
G1 X1.554 Y3.655 F400.000
G1 X1.209 Y3.797 F400.000
G1 X0.847 Y3.893 F400.000
G1 X0.480 Y3.960 F400.000
G1 X0.107 Y3.989 F400.000
G1 X-0.260 Y3.989 F400.000
G1 X-0.627 Y3.949 F400.000
G1 X-0.989 Y3.876 F400.000
G1 X-1.345 Y3.768 F400.000
G1 X-1.689 Y3.627 F400.000
G1 X-2.023 Y3.463 F400.000
G1 X-2.339 Y3.266 F400.000
G1 X-2.638 Y3.040 F400.000
G1 X-2.904 Y2.774 F400.000
G1 X-3.147 Y2.492 F400.000
G1 X-3.362 Y2.186 F400.000
G1 X-3.554 Y1.870 F400.000
G1 X-3.712 Y1.531 F400.000
G1 X-3.842 Y1.181 F400.000
G1 X-3.944 Y0.819 F400.000
G1 X-4.011 Y0.452 F400.000
G1 X-4.045 Y0.079 F400.000
G1 X-4.051 Y-0.288 F400.000
G1 X-4.023 Y-0.655 F400.000
G1 X-3.960 Y-1.023 F400.000
G1 X-3.864 Y-1.379 F400.000
G1 X-3.723 Y-1.723 F400.000
G1 X-3.554 Y-2.056 F400.000
G1 X-3.350 Y-2.367 F400.000
G1 X-3.130 Y-2.667 F400.000
G1 X-2.881 Y-2.944 F400.000
G1 X-2.605 Y-3.198 F400.000
G1 X-2.311 Y-3.429 F400.000
G1 X-1.994 Y-3.633 F400.000
G1 X-1.661 Y-3.808 F400.000
G1 X-1.316 Y-3.955 F400.000
G1 X-0.966 Y-4.079 F400.000
G1 X-0.605 Y-4.169 F400.000
G1 X-0.237 Y-4.232 F400.000
G1 X0.130 Y-4.271 F400.000
G1 X0.497 Y-4.277 F400.000
G1 X0.864 Y-4.237 F400.000
G1 X1.226 Y-4.158 F400.000
G1 X1.582 Y-4.051 F400.000
G1 X1.927 Y-3.915 F400.000
G1 X2.254 Y-3.740 F400.000
G1 X2.571 Y-3.542 F400.000
G1 X2.876 Y-3.328 F400.000
G1 X3.153 Y-3.079 F400.000
G1 X3.412 Y-2.808 F400.000
G1 X3.650 Y-2.520 F400.000
G1 X3.859 Y-2.209 F400.000
G1 X4.045 Y-1.887 F400.000
G1 X4.203 Y-1.548 F400.000
G1 X4.333 Y-1.198 F400.000
G1 X4.435 Y-0.836 F400.000
G1 X4.508 Y-0.469 F400.000
G1 X4.548 Y-0.096 F400.000
G1 X4.542 Y0.271 F400.000
G1 X4.514 Y0.638 F400.000
G1 X4.452 Y1.006 F400.000
G1 X4.362 Y1.367 F400.000
G1 X4.237 Y1.718 F400.000
G1 X4.085 Y2.056 F400.000
G1 X3.904 Y2.384 F400.000
G1 X3.706 Y2.701 F400.000
G1 X3.480 Y2.994 F400.000
G1 X3.232 Y3.271 F400.000
G1 X2.966 Y3.531 F400.000
G1 X2.678 Y3.768 F400.000
G1 X2.373 Y3.983 F400.000
G1 X2.051 Y4.175 F400.000
G1 X1.706 Y4.328 F400.000
G1 X1.356 Y4.458 F400.000
G1 X0.994 Y4.554 F400.000
G1 X0.627 Y4.616 F400.000
G1 X0.254 Y4.650 F400.000
G1 X-0.113 Y4.667 F400.000
G1 X-0.480 Y4.644 F400.000
G1 X-0.847 Y4.599 F400.000
G1 X-1.209 Y4.525 F400.000
G1 X-1.565 Y4.424 F400.000
G1 X-1.915 Y4.294 F400.000
G1 X-2.254 Y4.136 F400.000
G1 X-2.576 Y3.955 F400.000
G1 X-2.870 Y3.729 F400.000
G1 X-3.153 Y3.486 F400.000
G1 X-3.412 Y3.220 F400.000
G1 X-3.655 Y2.938 F400.000
G1 X-3.881 Y2.644 F400.000
G1 X-4.079 Y2.328 F400.000
G1 X-4.260 Y2.000 F400.000
G1 X-4.418 Y1.661 F400.000
G1 X-4.548 Y1.311 F400.000
G1 X-4.638 Y0.949 F400.000
G1 X-4.712 Y0.582 F400.000
G1 X-4.751 Y0.209 F400.000
G1 X-4.757 Y-0.158 F400.000
G1 X-4.734 Y-0.525 F400.000
G1 X-4.678 Y-0.893 F400.000
G1 X-4.605 Y-1.254 F400.000
G1 X-4.497 Y-1.610 F400.000
G1 X-4.367 Y-1.960 F400.000
G1 X-4.215 Y-2.299 F400.000
G1 X-4.023 Y-2.616 F400.000
G1 X-3.814 Y-2.921 F400.000
G1 X-3.576 Y-3.209 F400.000
G1 X-3.316 Y-3.475 F400.000
G1 X-2.746 Y-3.960 F400.000
G1 X-2.435 Y-4.164 F400.000
G1 X-2.113 Y-4.350 F400.000
G1 X-1.780 Y-4.514 F400.000
G1 X-1.429 Y-4.650 F400.000
G1 X-1.073 Y-4.763 F400.000
G1 X-0.712 Y-4.853 F400.000
G1 X-0.345 Y-4.915 F400.000
G1 X0.023 Y-4.955 F400.000
G1 X0.390 Y-4.966 F400.000
G1 X0.757 Y-4.949 F400.000
G1 X1.124 Y-4.887 F400.000
G1 X1.486 Y-4.808 F400.000
G1 X1.842 Y-4.695 F400.000
G1 X2.186 Y-4.559 F400.000
G1 X2.520 Y-4.395 F400.000
G1 X2.842 Y-4.203 F400.000
G1 X3.147 Y-3.989 F400.000
G1 X3.435 Y-3.751 F400.000
G1 X3.706 Y-3.492 F400.000
G1 X3.966 Y-3.220 F400.000
G1 X4.198 Y-2.927 F400.000
G1 X4.412 Y-2.621 F400.000
G1 X4.605 Y-2.305 F400.000
G1 X4.774 Y-1.972 F400.000
G1 X4.921 Y-1.627 F400.000
G1 X5.045 Y-1.271 F400.000
G1 X5.130 Y-0.904 F400.000
G1 X5.198 Y-0.537 F400.000
G1 X5.232 Y-0.164 F400.000
G1 X5.232 Y0.203 F400.000
G1 X5.209 Y0.571 F400.000
G1 X5.158 Y0.938 F400.000
G1 X5.090 Y1.299 F400.000
G1 X4.989 Y1.655 F400.000
G1 X4.864 Y2.006 F400.000
G1 X4.718 Y2.350 F400.000
G1 X4.548 Y2.678 F400.000
G1 X4.356 Y2.994 F400.000
G1 X4.141 Y3.299 F400.000
G1 X3.910 Y3.588 F400.000
G1 X3.655 Y3.859 F400.000
G1 X3.384 Y4.113 F400.000
G1 X3.096 Y4.350 F400.000
G1 X2.791 Y4.565 F400.000
G1 X2.463 Y4.746 F400.000
G1 X2.124 Y4.910 F400.000
G1 X1.774 Y5.045 F400.000
G1 X1.418 Y5.158 F400.000
G1 X1.051 Y5.243 F400.000
G1 X0.678 Y5.305 F400.000
G1 X-0.062 Y5.362 F400.000
G1 X-0.429 Y5.356 F400.000
G1 X-0.797 Y5.328 F400.000
G1 X-1.158 Y5.260 F400.000
G1 X-1.520 Y5.175 F400.000
G1 X-1.870 Y5.062 F400.000
G1 X-2.215 Y4.932 F400.000
G1 X-2.554 Y4.774 F400.000
G1 X-2.881 Y4.593 F400.000
G1 X-3.469 Y4.141 F400.000
G1 X-4.000 Y3.616 F400.000
G1 X-4.463 Y3.034 F400.000
G1 X-4.672 Y2.723 F400.000
G1 X-4.859 Y2.401 F400.000
G1 X-5.153 Y1.712 F400.000
G1 X-5.266 Y1.356 F400.000
G1 X-5.350 Y0.989 F400.000
G1 X-5.412 Y0.616 F400.000
G1 X-5.446 Y0.243 F400.000
G1 X-5.452 Y-0.124 F400.000
G1 X-5.435 Y-0.492 F400.000
G1 X-5.333 Y-1.226 F400.000
G1 X-5.243 Y-1.588 F400.000
G1 X-5.136 Y-1.944 F400.000
G1 X-4.994 Y-2.288 F400.000
G1 X-4.831 Y-2.621 F400.000
G1 X-4.644 Y-2.944 F400.000
G1 X-4.435 Y-3.249 F400.000
G1 X-4.203 Y-3.542 F400.000
G1 X-3.689 Y-4.085 F400.000
G1 X-3.407 Y-4.328 F400.000
G1 X-3.107 Y-4.554 F400.000
G1 X-2.797 Y-4.763 F400.000
G1 X-2.475 Y-4.949 F400.000
G1 X-2.141 Y-5.119 F400.000
G1 X-1.797 Y-5.266 F400.000
G1 X-1.446 Y-5.390 F400.000
G1 X-1.085 Y-5.492 F400.000
G1 X-0.718 Y-5.571 F400.000
G1 X-0.345 Y-5.627 F400.000
G1 X0.023 Y-5.661 F400.000
G1 X0.390 Y-5.672 F400.000
G1 X0.757 Y-5.661 F400.000
G1 X1.124 Y-5.610 F400.000
G1 X1.492 Y-5.542 F400.000
G1 X1.853 Y-5.446 F400.000
G1 X2.203 Y-5.322 F400.000
G1 X2.548 Y-5.175 F400.000
G1 X2.876 Y-5.006 F400.000
G1 X3.192 Y-4.814 F400.000
G1 X3.791 Y-4.373 F400.000
G1 X4.068 Y-4.124 F400.000
G1 X4.582 Y-3.588 F400.000
G1 X4.814 Y-3.294 F400.000
G1 X5.028 Y-2.989 F400.000
G1 X5.215 Y-2.667 F400.000
G1 X5.384 Y-2.333 F400.000
G1 X5.531 Y-1.989 F400.000
G1 X5.655 Y-1.633 F400.000
G1 X5.757 Y-1.271 F400.000
G1 X5.836 Y-0.904 F400.000
G1 X5.887 Y-0.531 F400.000
G1 X5.915 Y-0.158 F400.000
G1 X5.915 Y0.576 F400.000
G1 X5.876 Y0.944 F400.000
G1 X5.819 Y1.311 F400.000
G1 X5.746 Y1.672 F400.000
G1 X5.644 Y2.028 F400.000
G1 X5.508 Y2.373 F400.000
G1 X5.356 Y2.712 F400.000
G1 X5.181 Y3.040 F400.000
G1 X4.989 Y3.362 F400.000
G1 X4.774 Y3.667 F400.000
G1 X4.542 Y3.960 F400.000
G1 X4.294 Y4.237 F400.000
G1 X4.028 Y4.497 F400.000
G1 X3.746 Y4.740 F400.000
G1 X3.452 Y4.966 F400.000
G1 X3.141 Y5.175 F400.000
G1 X2.819 Y5.367 F400.000
G1 X2.486 Y5.537 F400.000
G1 X2.141 Y5.689 F400.000
G1 X1.785 Y5.802 F400.000
G1 X1.056 Y5.983 F400.000
G1 X0.684 Y6.034 F400.000
G1 X-0.056 Y6.085 F400.000
G1 X-0.424 Y6.073 F400.000
G1 X-0.791 Y6.045 F400.000
G1 X-1.158 Y6.000 F400.000
G1 X-1.525 Y5.932 F400.000
G1 X-2.232 Y5.706 F400.000
G1 X-2.576 Y5.565 F400.000
G1 X-2.904 Y5.395 F400.000
G1 X-3.226 Y5.209 F400.000
G1 X-3.531 Y5.000 F400.000
G1 X-3.825 Y4.768 F400.000
G1 X-4.373 Y4.260 F400.000
G1 X-4.627 Y3.989 F400.000
G1 X-5.090 Y3.407 F400.000
G1 X-5.463 Y2.757 F400.000
G1 X-5.627 Y2.418 F400.000
G1 X-5.774 Y2.073 F400.000
G1 X-5.898 Y1.718 F400.000
G1 X-6.000 Y1.356 F400.000
G1 X-6.085 Y0.989 F400.000
G1 X-6.147 Y0.621 F400.000
G1 X-6.169 Y0.249 F400.000
G1 X-6.175 Y-0.119 F400.000
G1 X-6.164 Y-0.486 F400.000
G1 X-6.130 Y-0.853 F400.000
G1 X-6.079 Y-1.220 F400.000
G1 X-6.006 Y-1.582 F400.000
G1 X-5.898 Y-1.938 F400.000
G1 X-5.774 Y-2.288 F400.000
G1 X-5.469 Y-2.960 F400.000
G1 X-5.288 Y-3.282 F400.000
G1 X-5.085 Y-3.593 F400.000
G1 X-4.864 Y-3.893 F400.000
G1 X-4.627 Y-4.181 F400.000
G1 X-4.362 Y-4.446 F400.000
G1 X-3.802 Y-4.944 F400.000
G1 X-3.497 Y-5.164 F400.000
G1 X-3.186 Y-5.367 F400.000
G1 X-2.537 Y-5.729 F400.000
G1 X-1.847 Y-6.023 F400.000
G1 X-1.492 Y-6.147 F400.000
G1 X-1.130 Y-6.249 F400.000
G1 X-0.763 Y-6.322 F400.000
G1 X-0.390 Y-6.379 F400.000
G1 X-0.017 Y-6.412 F400.000
G1 X0.350 Y-6.424 F400.000
G1 X0.718 Y-6.412 F400.000
G1 X1.085 Y-6.379 F400.000
G1 X1.452 Y-6.322 F400.000
G1 X1.814 Y-6.243 F400.000
G1 X2.169 Y-6.130 F400.000
G1 X2.520 Y-6.000 F400.000
G1 X2.859 Y-5.847 F400.000
G1 X3.503 Y-5.480 F400.000
G1 X3.814 Y-5.277 F400.000
G1 X4.401 Y-4.819 F400.000
G1 X4.678 Y-4.571 F400.000
G1 X4.944 Y-4.305 F400.000
G1 X5.192 Y-4.028 F400.000
G1 X5.621 Y-3.418 F400.000
G1 X5.983 Y-2.763 F400.000
G1 X6.136 Y-2.424 F400.000
G1 X6.271 Y-2.073 F400.000
G1 X6.384 Y-1.718 F400.000
G1 X6.480 Y-1.356 F400.000
G1 X6.554 Y-0.989 F400.000
G1 X6.605 Y-0.616 F400.000
G1 X6.638 Y-0.243 F400.000
G1 X6.650 Y0.124 F400.000
G1 X6.621 Y0.859 F400.000
G1 X6.576 Y1.226 F400.000
G1 X6.514 Y1.593 F400.000
G1 X6.424 Y1.955 F400.000
G1 X6.316 Y2.311 F400.000
G1 X6.186 Y2.661 F400.000
G1 X6.034 Y3.000 F400.000
G1 X5.864 Y3.333 F400.000
G1 X5.672 Y3.655 F400.000
G1 X5.463 Y3.966 F400.000
G1 X5.237 Y4.260 F400.000
G1 X4.994 Y4.542 F400.000
G1 X4.740 Y4.814 F400.000
G1 X4.469 Y5.068 F400.000
G1 X3.893 Y5.542 F400.000
G1 X3.271 Y5.949 F400.000
G1 X2.944 Y6.130 F400.000
G1 X2.599 Y6.277 F400.000
G1 X1.893 Y6.525 F400.000
G1 X1.525 Y6.616 F400.000
G1 X1.158 Y6.689 F400.000
G1 X0.412 Y6.780 F400.000
G1 X0.040 Y6.797 F400.000
G1 X-0.328 Y6.797 F400.000
G1 X-0.695 Y6.780 F400.000
G1 X-1.062 Y6.746 F400.000
G1 X-1.429 Y6.695 F400.000
G1 X-2.147 Y6.514 F400.000
G1 X-2.497 Y6.395 F400.000
G1 X-2.842 Y6.249 F400.000
G1 X-3.175 Y6.085 F400.000
G1 X-3.497 Y5.904 F400.000
G1 X-3.808 Y5.701 F400.000
G1 X-4.107 Y5.480 F400.000
G1 X-4.395 Y5.243 F400.000
G1 X-4.932 Y4.729 F400.000
G1 X-5.181 Y4.452 F400.000
G1 X-5.644 Y3.864 F400.000
G1 X-5.853 Y3.554 F400.000
G1 X-6.045 Y3.232 F400.000
G1 X-6.220 Y2.904 F400.000
G1 X-6.379 Y2.565 F400.000
G1 X-6.520 Y2.220 F400.000
G1 X-6.644 Y1.870 F400.000
G1 X-6.814 Y1.141 F400.000
G1 X-6.870 Y0.768 F400.000
G1 X-6.898 Y0.395 F400.000
G1 X-6.910 Y-0.345 F400.000
G1 X-6.881 Y-0.712 F400.000
G1 X-6.836 Y-1.079 F400.000
G1 X-6.774 Y-1.446 F400.000
G1 X-6.689 Y-1.808 F400.000
G1 X-6.588 Y-2.164 F400.000
G1 X-6.469 Y-2.514 F400.000
G1 X-6.328 Y-2.859 F400.000
G1 X-6.169 Y-3.198 F400.000
G1 X-5.994 Y-3.525 F400.000
G1 X-5.802 Y-3.842 F400.000
G1 X-5.593 Y-4.147 F400.000
G1 X-5.367 Y-4.441 F400.000
G1 X-5.124 Y-4.723 F400.000
G1 X-4.870 Y-4.994 F400.000
G1 X-4.599 Y-5.254 F400.000
G1 X-4.316 Y-5.497 F400.000
G1 X-4.023 Y-5.723 F400.000
G1 X-3.401 Y-6.130 F400.000
G1 X-3.073 Y-6.311 F400.000
G1 X-2.734 Y-6.469 F400.000
G1 X-2.390 Y-6.610 F400.000
G1 X-1.678 Y-6.853 F400.000
G1 X-1.316 Y-6.949 F400.000
G1 X-0.582 Y-7.096 F400.000
G1 X-0.209 Y-7.141 F400.000
G1 X0.158 Y-7.169 F400.000
G1 X0.893 Y-7.158 F400.000
G1 X1.260 Y-7.107 F400.000
G1 X1.621 Y-7.040 F400.000
G1 X2.339 Y-6.847 F400.000
G1 X2.689 Y-6.718 F400.000
G1 X3.028 Y-6.571 F400.000
G1 X3.362 Y-6.407 F400.000
G1 X4.006 Y-6.034 F400.000
G1 X4.610 Y-5.605 F400.000
G1 X4.898 Y-5.373 F400.000
G1 X5.175 Y-5.124 F400.000
G1 X5.441 Y-4.864 F400.000
G1 X5.921 Y-4.294 F400.000
G1 X6.136 Y-3.989 F400.000
G1 X6.333 Y-3.672 F400.000
G1 X6.514 Y-3.345 F400.000
G1 X6.831 Y-2.667 F400.000
G1 X6.960 Y-2.316 F400.000
G1 X7.175 Y-1.599 F400.000
G1 X7.254 Y-1.232 F400.000
G1 X7.316 Y-0.864 F400.000
G1 X7.362 Y-0.492 F400.000
G1 X7.390 Y-0.119 F400.000
G1 X7.401 Y0.249 F400.000
G1 X7.395 Y0.616 F400.000
G1 X7.367 Y0.983 F400.000
G1 X7.322 Y1.350 F400.000
G1 X7.260 Y1.718 F400.000
G1 X7.181 Y2.079 F400.000
G1 X7.085 Y2.435 F400.000
G1 X6.814 Y3.124 F400.000
G1 X6.650 Y3.458 F400.000
G1 X6.469 Y3.785 F400.000
G1 X6.271 Y4.102 F400.000
G1 X6.056 Y4.407 F400.000
G1 X5.825 Y4.701 F400.000
G1 X5.328 Y5.260 F400.000
G1 X5.062 Y5.520 F400.000
G1 X4.503 Y6.011 F400.000
G1 X4.209 Y6.237 F400.000
G1 X3.571 Y6.633 F400.000
G1 X3.243 Y6.808 F400.000
G1 X2.559 Y7.102 F400.000
G1 X2.203 Y7.220 F400.000
G1 X1.842 Y7.322 F400.000
G1 X1.475 Y7.407 F400.000
G1 X1.107 Y7.469 F400.000
G1 X0.734 Y7.514 F400.000
G1 X0.362 Y7.542 F400.000
G1 X-0.373 Y7.548 F400.000
G1 X-0.740 Y7.537 F400.000
G1 X-1.107 Y7.508 F400.000
G1 X-1.475 Y7.446 F400.000
G1 X-1.836 Y7.367 F400.000
G1 X-2.548 Y7.164 F400.000
G1 X-2.893 Y7.034 F400.000
G1 X-3.565 Y6.729 F400.000
G1 X-3.893 Y6.548 F400.000
G1 X-4.503 Y6.119 F400.000
G1 X-4.791 Y5.881 F400.000
G1 X-5.068 Y5.633 F400.000
G1 X-5.593 Y5.102 F400.000
G1 X-6.068 Y4.525 F400.000
G1 X-6.294 Y4.226 F400.000
G1 X-6.701 Y3.599 F400.000
G1 X-7.040 Y2.932 F400.000
G1 X-7.186 Y2.588 F400.000
G1 X-7.424 Y1.881 F400.000
G1 X-7.503 Y1.514 F400.000
G1 X-7.565 Y1.147 F400.000
G1 X-7.638 Y0.401 F400.000
G1 X-7.650 Y0.028 F400.000
G1 X-7.627 Y-0.706 F400.000
G1 X-7.588 Y-1.073 F400.000
G1 X-7.531 Y-1.441 F400.000
G1 X-7.458 Y-1.802 F400.000
G1 X-7.367 Y-2.164 F400.000
G1 X-7.260 Y-2.520 F400.000
G1 X-7.136 Y-2.870 F400.000
G1 X-6.842 Y-3.554 F400.000
G1 X-6.672 Y-3.881 F400.000
G1 X-6.266 Y-4.508 F400.000
G1 X-5.802 Y-5.090 F400.000
G1 X-5.548 Y-5.362 F400.000
G1 X-5.282 Y-5.621 F400.000
G1 X-4.723 Y-6.113 F400.000
G1 X-4.124 Y-6.554 F400.000
G1 X-3.475 Y-6.927 F400.000
G1 X-3.141 Y-7.090 F400.000
G1 X-2.452 Y-7.379 F400.000
G1 X-1.734 Y-7.605 F400.000
G1 X-1.006 Y-7.785 F400.000
G1 X-0.638 Y-7.853 F400.000
G1 X0.102 Y-7.921 F400.000
G1 X0.469 Y-7.932 F400.000
G1 X0.836 Y-7.921 F400.000
G1 X1.571 Y-7.808 F400.000
G1 X1.932 Y-7.734 F400.000
G1 X2.294 Y-7.644 F400.000
G1 X2.650 Y-7.537 F400.000
G1 X3.000 Y-7.412 F400.000
G1 X3.345 Y-7.271 F400.000
G1 X3.684 Y-7.113 F400.000
G1 X4.633 Y-6.531 F400.000
G1 X5.226 Y-6.079 F400.000
G1 X5.514 Y-5.842 F400.000
G1 X5.791 Y-5.593 F400.000
G1 X6.294 Y-5.045 F400.000
G1 X6.525 Y-4.757 F400.000
G1 X6.944 Y-4.141 F400.000
G1 X7.130 Y-3.819 F400.000
G1 X7.458 Y-3.147 F400.000
G1 X7.599 Y-2.802 F400.000
G1 X7.723 Y-2.446 F400.000
G1 X7.831 Y-2.085 F400.000
G1 X7.921 Y-1.723 F400.000
G1 X8.062 Y-0.989 F400.000
G1 X8.107 Y-0.616 F400.000
G1 X8.153 Y0.124 F400.000
G1 X8.141 Y0.859 F400.000
G1 X8.113 Y1.226 F400.000
G1 X8.068 Y1.593 F400.000
G1 X7.898 Y2.316 F400.000
G1 X7.661 Y3.023 F400.000
G1 X7.520 Y3.367 F400.000
G1 X7.192 Y4.034 F400.000
G1 X7.006 Y4.356 F400.000
G1 X6.802 Y4.667 F400.000
G1 X6.350 Y5.260 F400.000
G1 X6.107 Y5.542 F400.000
G1 X5.582 Y6.079 F400.000
G1 X5.305 Y6.328 F400.000
G1 X4.723 Y6.791 F400.000
G1 X4.418 Y7.006 F400.000
G1 X3.768 Y7.373 F400.000
G1 X3.090 Y7.689 F400.000
G1 X2.740 Y7.825 F400.000
G1 X2.028 Y8.051 F400.000
G1 X1.667 Y8.141 F400.000
G1 X0.921 Y8.249 F400.000
G1 X0.548 Y8.288 F400.000
G1 X-0.192 Y8.322 F400.000
G1 X-0.559 Y8.322 F400.000
G1 X-0.927 Y8.305 F400.000
G1 X-1.661 Y8.186 F400.000
G1 X-2.384 Y8.006 F400.000
G1 X-2.740 Y7.893 F400.000
G1 X-3.435 Y7.621 F400.000
G1 X-4.102 Y7.294 F400.000
G1 X-4.729 Y6.887 F400.000
G1 X-5.311 Y6.424 F400.000
G1 X-5.588 Y6.175 F400.000
G1 X-5.853 Y5.910 F400.000
G1 X-6.362 Y5.362 F400.000
G1 X-6.825 Y4.780 F400.000
G1 X-7.045 Y4.480 F400.000
G1 X-7.435 Y3.842 F400.000
G1 X-7.610 Y3.514 F400.000
G1 X-7.915 Y2.831 F400.000
G1 X-8.141 Y2.113 F400.000
G1 X-8.232 Y1.746 F400.000
G1 X-8.299 Y1.379 F400.000
G1 X-8.350 Y1.006 F400.000
G1 X-8.401 Y0.260 F400.000
G1 X-8.401 Y-0.475 F400.000
G1 X-8.384 Y-0.842 F400.000
G1 X-8.350 Y-1.209 F400.000
G1 X-8.215 Y-1.938 F400.000
G1 X-8.124 Y-2.299 F400.000
G1 X-7.887 Y-3.006 F400.000
G1 X-7.599 Y-3.689 F400.000
G1 X-7.249 Y-4.350 F400.000
G1 X-6.853 Y-4.983 F400.000
G1 X-6.384 Y-5.559 F400.000
G1 X-5.870 Y-6.102 F400.000
G1 X-5.599 Y-6.356 F400.000
G1 X-5.023 Y-6.831 F400.000
G1 X-4.407 Y-7.260 F400.000
G1 X-4.090 Y-7.458 F400.000
G1 X-3.429 Y-7.808 F400.000
G1 X-3.090 Y-7.966 F400.000
G1 X-2.395 Y-8.237 F400.000
G1 X-1.678 Y-8.452 F400.000
G1 X-1.311 Y-8.537 F400.000
G1 X-0.565 Y-8.638 F400.000
G1 X-0.192 Y-8.667 F400.000
G1 X0.542 Y-8.672 F400.000
G1 X0.910 Y-8.650 F400.000
G1 X1.644 Y-8.559 F400.000
G1 X2.006 Y-8.492 F400.000
G1 X2.367 Y-8.407 F400.000
G1 X3.073 Y-8.192 F400.000
G1 X3.424 Y-8.062 F400.000
G1 X4.102 Y-7.757 F400.000
G1 X4.429 Y-7.582 F400.000
G1 X5.350 Y-6.955 F400.000
G1 X5.932 Y-6.492 F400.000
G1 X6.215 Y-6.249 F400.000
G1 X6.729 Y-5.712 F400.000
G1 X6.972 Y-5.429 F400.000
G1 X7.412 Y-4.825 F400.000
G1 X7.616 Y-4.508 F400.000
G1 X7.802 Y-4.186 F400.000
G1 X8.130 Y-3.514 F400.000
G1 X8.271 Y-3.169 F400.000
G1 X8.508 Y-2.463 F400.000
G1 X8.605 Y-2.102 F400.000
G1 X8.763 Y-1.367 F400.000
G1 X8.864 Y-0.621 F400.000
G1 X8.898 Y-0.249 F400.000
G1 X8.921 Y0.486 F400.000
G1 X8.915 Y0.853 F400.000
G1 X8.893 Y1.220 F400.000
G1 X8.774 Y1.955 F400.000
G1 X8.695 Y2.316 F400.000
G1 X8.480 Y3.023 F400.000
G1 X8.203 Y3.712 F400.000
G1 X7.864 Y4.373 F400.000
G1 X7.678 Y4.695 F400.000
G1 X7.260 Y5.311 F400.000
G1 X6.797 Y5.893 F400.000
G1 X6.548 Y6.169 F400.000
G1 X6.288 Y6.435 F400.000
G1 X5.740 Y6.944 F400.000
G1 X5.158 Y7.407 F400.000
G1 X4.531 Y7.808 F400.000
G1 X4.203 Y7.989 F400.000
G1 X3.525 Y8.311 F400.000
G1 X3.181 Y8.452 F400.000
G1 X2.475 Y8.695 F400.000
G1 X2.113 Y8.797 F400.000
G1 X1.379 Y8.955 F400.000
G1 X0.633 Y9.056 F400.000
G1 X0.260 Y9.085 F400.000
G1 X-0.475 Y9.096 F400.000
G1 X-0.842 Y9.079 F400.000
G1 X-1.944 Y8.915 F400.000
G1 X-2.661 Y8.723 F400.000
G1 X-3.017 Y8.610 F400.000
G1 X-3.712 Y8.339 F400.000
G1 X-4.379 Y8.011 F400.000
G1 X-4.701 Y7.831 F400.000
G1 X-5.322 Y7.424 F400.000
G1 X-5.887 Y6.944 F400.000
G1 X-6.424 Y6.429 F400.000
G1 X-6.932 Y5.876 F400.000
G1 X-7.407 Y5.294 F400.000
G1 X-7.633 Y4.994 F400.000
G1 X-8.028 Y4.362 F400.000
G1 X-8.209 Y4.034 F400.000
G1 X-8.525 Y3.356 F400.000
G1 X-8.785 Y2.650 F400.000
G1 X-8.893 Y2.294 F400.000
G1 X-8.983 Y1.932 F400.000
G1 X-9.096 Y1.192 F400.000
G1 X-9.158 Y0.446 F400.000
G1 X-9.169 Y-0.294 F400.000
G1 X-9.136 Y-1.028 F400.000
G1 X-9.102 Y-1.395 F400.000
G1 X-8.960 Y-2.119 F400.000
G1 X-8.870 Y-2.480 F400.000
G1 X-8.633 Y-3.181 F400.000
G1 X-8.350 Y-3.870 F400.000
G1 X-8.011 Y-4.531 F400.000
G1 X-7.831 Y-4.853 F400.000
G1 X-7.633 Y-5.169 F400.000
G1 X-7.186 Y-5.768 F400.000
G1 X-6.706 Y-6.339 F400.000
G1 X-6.181 Y-6.870 F400.000
G1 X-5.904 Y-7.119 F400.000
G1 X-5.616 Y-7.356 F400.000
G1 X-4.689 Y-7.989 F400.000
G1 X-4.034 Y-8.350 F400.000
G1 X-3.362 Y-8.672 F400.000
G1 X-2.667 Y-8.949 F400.000
G1 X-2.311 Y-9.073 F400.000
G1 X-1.588 Y-9.260 F400.000
G1 X-1.220 Y-9.333 F400.000
G1 X-0.475 Y-9.424 F400.000
G1 X-0.102 Y-9.446 F400.000
G1 X0.266 Y-9.452 F400.000
G1 X0.633 Y-9.441 F400.000
G1 X1.367 Y-9.379 F400.000
G1 X2.102 Y-9.266 F400.000
G1 X2.463 Y-9.192 F400.000
G1 X2.825 Y-9.102 F400.000
G1 X3.870 Y-8.712 F400.000
G1 X4.537 Y-8.384 F400.000
G1 X4.859 Y-8.203 F400.000
G1 X5.791 Y-7.588 F400.000
G1 X6.373 Y-7.124 F400.000
G1 X6.655 Y-6.881 F400.000
G1 X6.927 Y-6.627 F400.000
G1 X7.429 Y-6.073 F400.000
G1 X7.661 Y-5.785 F400.000
G1 X8.090 Y-5.169 F400.000
G1 X8.638 Y-4.192 F400.000
G1 X8.944 Y-3.508 F400.000
G1 X9.203 Y-2.802 F400.000
G1 X9.316 Y-2.446 F400.000
G1 X9.548 Y-1.345 F400.000
G1 X9.627 Y-0.599 F400.000
G1 X9.672 Y0.141 F400.000
G1 X9.678 Y0.876 F400.000
G1 X9.610 Y1.610 F400.000
G1 X9.559 Y1.977 F400.000
G1 X9.401 Y2.701 F400.000
G1 X9.299 Y3.056 F400.000
G1 X9.181 Y3.407 F400.000
G1 X8.876 Y4.085 F400.000
G1 X8.537 Y4.746 F400.000
G1 X8.147 Y5.379 F400.000
G1 X7.718 Y5.983 F400.000
G1 X7.243 Y6.559 F400.000
G1 X6.729 Y7.102 F400.000
G1 X6.175 Y7.605 F400.000
G1 X5.887 Y7.842 F400.000
G1 X5.271 Y8.266 F400.000
G1 X4.949 Y8.458 F400.000
G1 X3.938 Y8.955 F400.000
G1 X3.593 Y9.107 F400.000
G1 X2.893 Y9.373 F400.000
G1 X2.169 Y9.582 F400.000
G1 X1.802 Y9.667 F400.000
G1 X1.062 Y9.791 F400.000
G1 X0.689 Y9.836 F400.000
G1 X-0.051 Y9.881 F400.000
G1 X-0.418 Y9.881 F400.000
G1 X-1.153 Y9.819 F400.000
G1 X-1.887 Y9.706 F400.000
G1 X-2.610 Y9.537 F400.000
G1 X-2.966 Y9.441 F400.000
G1 X-3.667 Y9.203 F400.000
G1 X-4.011 Y9.068 F400.000
G1 X-4.350 Y8.915 F400.000
G1 X-5.000 Y8.559 F400.000
G1 X-5.316 Y8.362 F400.000
G1 X-5.921 Y7.921 F400.000
G1 X-6.209 Y7.684 F400.000
G1 X-6.486 Y7.429 F400.000
G1 X-7.277 Y6.638 F400.000
G1 X-7.780 Y6.085 F400.000
G1 X-8.232 Y5.486 F400.000
G1 X-8.446 Y5.181 F400.000
G1 X-8.644 Y4.864 F400.000
G1 X-8.983 Y4.198 F400.000
G1 X-9.288 Y3.514 F400.000
G1 X-9.424 Y3.164 F400.000
G1 X-9.638 Y2.446 F400.000
G1 X-9.723 Y2.079 F400.000
G1 X-9.847 Y1.339 F400.000
G1 X-9.887 Y0.966 F400.000
G1 X-9.944 Y-0.147 F400.000
G1 X-9.938 Y-0.514 F400.000
G1 X-9.887 Y-1.249 F400.000
G1 X-9.842 Y-1.616 F400.000
G1 X-9.706 Y-2.345 F400.000
G1 X-9.492 Y-3.056 F400.000
G1 X-9.090 Y-4.096 F400.000
G1 X-8.780 Y-4.768 F400.000
G1 X-8.401 Y-5.407 F400.000
G1 X-8.192 Y-5.718 F400.000
G1 X-7.497 Y-6.593 F400.000
G1 X-6.983 Y-7.136 F400.000
G1 X-6.718 Y-7.395 F400.000
G1 X-6.441 Y-7.644 F400.000
G1 X-5.859 Y-8.113 F400.000
G1 X-5.249 Y-8.542 F400.000
G1 X-4.610 Y-8.927 F400.000
G1 X-3.949 Y-9.266 F400.000
G1 X-3.266 Y-9.559 F400.000
G1 X-2.559 Y-9.808 F400.000
G1 X-1.836 Y-10.011 F400.000
G1 X-0.718 Y-10.181 F400.000
G1 X0.023 Y-10.220 F400.000
G1 X0.390 Y-10.220 F400.000
G1 X1.492 Y-10.147 F400.000
G1 X2.226 Y-10.040 F400.000
G1 X2.944 Y-9.853 F400.000
G1 X3.650 Y-9.621 F400.000
G1 X4.333 Y-9.339 F400.000
G1 X5.322 Y-8.819 F400.000
G1 X5.949 Y-8.418 F400.000
G1 X6.548 Y-7.977 F400.000
G1 X7.119 Y-7.497 F400.000
G1 X7.655 Y-6.977 F400.000
G1 X7.910 Y-6.706 F400.000
G1 X8.367 Y-6.113 F400.000
G1 X8.785 Y-5.492 F400.000
G1 X9.158 Y-4.842 F400.000
G1 X9.486 Y-4.169 F400.000
G1 X9.768 Y-3.475 F400.000
G1 X9.994 Y-2.757 F400.000
G1 X10.254 Y-1.661 F400.000
G1 X10.373 Y-0.921 F400.000
G1 X10.452 Y-0.175 F400.000
G1 X10.469 Y0.559 F400.000
G1 X10.458 Y0.927 F400.000
G1 X10.390 Y1.661 F400.000
G1 X10.266 Y2.390 F400.000
G1 X10.085 Y3.107 F400.000
G1 X9.847 Y3.814 F400.000
G1 X9.712 Y4.158 F400.000
G1 X9.395 Y4.831 F400.000
G1 X9.034 Y5.480 F400.000
G1 X8.836 Y5.791 F400.000
G1 X8.395 Y6.395 F400.000
G1 X7.661 Y7.243 F400.000
G1 X7.130 Y7.768 F400.000
G1 X6.571 Y8.266 F400.000
G1 X6.282 Y8.497 F400.000
G1 X5.661 Y8.910 F400.000
G1 X5.339 Y9.102 F400.000
G1 X4.678 Y9.452 F400.000
G1 X3.655 Y9.910 F400.000
G1 X2.955 Y10.169 F400.000
G1 X2.232 Y10.356 F400.000
G1 X1.497 Y10.503 F400.000
G1 X0.751 Y10.605 F400.000
G1 X0.379 Y10.638 F400.000
G1 X-0.729 Y10.627 F400.000
G1 X-1.463 Y10.571 F400.000
G1 X-2.198 Y10.441 F400.000
G1 X-2.921 Y10.271 F400.000
G1 X-3.633 Y10.056 F400.000
G1 X-3.983 Y9.938 F400.000
G1 X-4.328 Y9.802 F400.000
G1 X-4.989 Y9.463 F400.000
G1 X-5.627 Y9.085 F400.000
G1 X-6.232 Y8.655 F400.000
G1 X-6.808 Y8.181 F400.000
G1 X-7.621 Y7.412 F400.000
G1 X-8.379 Y6.588 F400.000
G1 X-8.616 Y6.299 F400.000
G1 X-9.045 Y5.689 F400.000
G1 X-9.249 Y5.373 F400.000
