(MAP__)
(T1  D=3. CR=0. - ZMIN=-8. - FLAT END MILL)
(T2  D=3. CR=0. - ZMIN=-8. - FLAT END MILL)
G90 G94 G91.1 G40 G49 G17
G21

(DRILL1)
M5
M9
T1
S9700 M3
G54
M8
G0 X7. Y32.
G43 Z15. H1
Z5.
G98 G73 X7. Y32. Z-8. R5. Q0.75 F30.
X-30.
Y-32.
X7.
G80
Z15.

(2D CONTOUR1)
M5
M9
M1
T2
S9700 M3
G54
M8
G0 X-26.425 Y27.5
G43 Z15. H2
Z5.
G1 Z3. F100.
Z0.5
X-27.5 Z0.406 F466.
Y0. Z-2.
Y-27.5
X-14.
G2 X-12.5 Y-29. R1.5
G1 Y-30.5
X-11.
Y-29.
G2 X-9.5 Y-27.5 R1.5
G1 X27.5
Y27.5
X-27.5
Y0.
Y-27.5 Z-3.469
X-17.548 Z-4.
X-14.
G2 X-12.5 Y-29. R1.5
G1 Y-30.5
X-11.
Y-29.
G2 X-9.5 Y-27.5 R1.5
G1 X27.5
Y27.5
X-27.5
Y-27.5
X-17.548
X-14. Z-4.189
G2 X-12.5 Y-29. Z-4.315 R1.5
G1 Y-30.5 Z-4.395
X-11. Z-4.475
Y-29. Z-4.556
G2 X-9.5 Y-27.5 Z-4.681 R1.5
G1 X15.192 Z-6.
X27.5
Y27.5
X-27.5
Y-27.5
X-17.548
X-14.
G2 X-12.5 Y-29. R1.5
G1 Y-30.5
X-11.
Y-29.
G2 X-9.5 Y-27.5 R1.5
G1 X15.192
X27.5 Z-6.657
Y-2.356 Z-8.
Y27.5
X-27.5
Y-27.5
X-14.
G2 X-12.5 Y-29. R1.5
G1 Y-30.5
X-11.
Y-29.
G2 X-9.5 Y-27.5 R1.5
G1 X15.192
X27.5
Y-2.356
G0 Z15.

(2D CONTOUR2)
M8
G0 X-12.518 Y-30.267
Z15.
Z5.
G1 Z3. F100.
Z0.5
G2 X-12.5 Y-30.5 Z0.492 R1.5 F466.
G1 X-11. Z0.439
G2 X-9.5 Y-29. Z0.357 R1.5
G1 X29. Z-0.987
Y0. Z-2.
Y29.
X-29.
Y-29.
X-14.
G2 X-12.5 Y-30.5 R1.5
G1 X-11.
G2 X-9.5 Y-29. R1.5
G1 X29.
Y0.
Y29. Z-3.013
X0.727 Z-4.
X-29.
Y-29.
X-14.
G2 X-12.5 Y-30.5 R1.5
G1 X-11.
G2 X-9.5 Y-29. R1.5
G1 X29.
Y29.
X0.727
X-29. Z-5.038
Y24.364 Z-5.2
Y-29.
X-14.
G2 X-12.5 Y-30.5 R1.5
G1 X-11.
G2 X-9.5 Y-29. R1.5
G1 X29.
Y29.
X-29.
Y24.364
G0 Z15.

(2D CONTOUR4)
M8
G0 X-14.131 Y-30.798
Z15.
Z5.
G1 Z3. F100.
Z0.5
X28.479 Z-0.988 F466.
G3 X28.798 Y-30.479 Z-1.005 R0.319
G1 Y-2. Z-2.
Y30.479
G3 X28.479 Y30.798 R0.319
G1 X-28.483
G3 X-28.798 Y30.483 R0.315
G1 Y-30.479
G3 X-28.479 Y-30.798 R0.319
G1 X28.479
G3 X28.798 Y-30.479 R0.319
G1 Y-2.
G2 X29.999 Y-0.199 R1.951
G3 X31.2 Y1.602 R1.951
G1 Y32.
G3 X30. Y33.2 R1.2
G1 X-30.
G3 X-31.2 Y32. R1.2
G1 Y-32.
G3 X-30. Y-33.2 R1.2
G1 X30.
G3 X31.2 Y-32. R1.2
G1 Y1.602
G2 X31.35 Y1.827 R0.244
G3 X31.5 Y2.052 R0.244
G1 Y32.
G3 X30. Y33.5 R1.5
G1 X-30.
G3 X-31.5 Y32. R1.5
G1 Y-32.
G3 X-30. Y-33.5 R1.5
G1 X30.
G3 X31.5 Y-32. R1.5
G1 Y2.052
G0 Z5.
X-14.131 Y-30.798
G1 Z1. F100.
Z-1.5
X28.479 Z-2.988 F466.
G3 X28.798 Y-30.479 Z-3.005 R0.319
G1 Y-2. Z-4.
Y30.479
G3 X28.479 Y30.798 R0.319
G1 X-28.483
G3 X-28.798 Y30.483 R0.315
G1 Y-30.479
G3 X-28.479 Y-30.798 R0.319
G1 X28.479
G3 X28.798 Y-30.479 R0.319
G1 Y-2.
G2 X29.999 Y-0.199 R1.951
G3 X31.2 Y1.602 R1.951
G1 Y32.
G3 X30. Y33.2 R1.2
G1 X-30.
G3 X-31.2 Y32. R1.2
G1 Y-32.
G3 X-30. Y-33.2 R1.2
G1 X30.
G3 X31.2 Y-32. R1.2
G1 Y1.602
G2 X31.35 Y1.827 R0.244
G3 X31.5 Y2.052 R0.244
G1 Y32.
G3 X30. Y33.5 R1.5
G1 X-30.
G3 X-31.5 Y32. R1.5
G1 Y-32.
G3 X-30. Y-33.5 R1.5
G1 X30.
G3 X31.5 Y-32. R1.5
G1 Y2.052
G0 Z15.

(2D CONTOUR5)
M8
G0 X2.522 Y-36.5
Z15.
Z5.
G1 Z3. F100.
Z0.5
X-30. Z-0.636 F466.
G2 X-34.5 Y-32. Z-0.883 R4.5
G1 Y0. Z-2.
Y32.
G2 X-30. Y36.5 R4.5
G1 X30.
G2 X34.5 Y32. R4.5
G1 Y-32.
G2 X30. Y-36.5 R4.5
G1 X-30.
G2 X-34.5 Y-32. R4.5
G1 Y0.
Y32. Z-3.117
G2 X-30. Y36.5 Z-3.364 R4.5
G1 X-11.796 Z-4.
X30.
G2 X34.5 Y32. R4.5
G1 Y-32.
G2 X30. Y-36.5 R4.5
G1 X-30.
G2 X-34.5 Y-32. R4.5
G1 Y32.
G2 X-30. Y36.5 R4.5
G1 X-11.796
X30. Z-5.46
G2 X34.5 Y32. Z-5.706 R4.5
G1 Y23.592 Z-6.
Y-32.
G2 X30. Y-36.5 R4.5
G1 X-30.
G2 X-34.5 Y-32. R4.5
G1 Y32.
G2 X-30. Y36.5 R4.5
G1 X30.
G2 X34.5 Y32. R4.5
G1 Y23.592
Y-32. Z-7.941
G2 X34.19 Y-33.642 Z-8. R4.5
X30. Y-36.5 R4.5
G1 X-30.
G2 X-34.5 Y-32. R4.5
G1 Y32.
G2 X-30. Y36.5 R4.5
G1 X30.
G2 X34.5 Y32. R4.5
G1 Y-32.
G2 X34.19 Y-33.642 R4.5
G0 Z15.

M9
M30
