(MAP__)
(T1  D=3. CR=0. - ZMIN=-8. - FLAT END MILL)
G90 G94 G91.1 G40 G49 G17
G21

(DRILL2)
M5
M9
T1
S9700 M3
G54
M8
G0 X-32. Y-18.5
G43 Z15. H1
Z5.
G98 G73 X-32. Y-18.5 Z-8. R5. Q0.75 F30.
Y18.5
X32.
Y-18.5
G80
Z15.

(2D CONTOUR6)
M8
G0 X29.409 Y-0.5
Z15.
Z5.
G1 Z3. F30.
Z0.5
X30.5 Z0.462 F466.
Y1. Z0.41
X29. Z0.357
X30.5 Z0.305
Y-0.5 Z0.252
X29. Z0.2
X30.5 Z0.148
Y1. Z0.095
X29. Z0.043
X30.5 Z-0.01
Y-0.5 Z-0.062
X29. Z-0.114
X30.5 Z-0.167
Y1. Z-0.219
X29. Z-0.271
X30.5 Z-0.324
Y-0.5 Z-0.376
X29. Z-0.429
X30.5 Z-0.481
Y1. Z-0.533
X29. Z-0.586
X30.5 Z-0.638
Y-0.5 Z-0.69
X29. Z-0.743
X30.5 Z-0.795
Y1. Z-0.848
X29. Z-0.9
X30.5 Z-0.952
Y-0.5 Z-1.005
X29. Z-1.057
X30.5 Z-1.11
Y1. Z-1.162
X29. Z-1.214
X30.5 Z-1.267
Y-0.5 Z-1.319
X29. Z-1.371
X30.5 Z-1.424
Y1. Z-1.476
X29. Z-1.529
X30.5 Z-1.581
Y-0.5 Z-1.633
X29. Z-1.686
X30.5 Z-1.738
Y1. Z-1.79
X29. Z-1.843
X30.5 Z-1.895
Y-0.5 Z-1.948
X29. Z-2.
X30.5
Y1.
X29.
X30.5 Z-2.051
Y-0.5 Z-2.103
X29. Z-2.154
X30.5 Z-2.205
Y1. Z-2.256
X29. Z-2.308
X30.5 Z-2.359
Y-0.5 Z-2.41
X29. Z-2.462
X30.5 Z-2.513
Y1. Z-2.564
X29. Z-2.615
X30.5 Z-2.667
Y-0.5 Z-2.718
X29. Z-2.769
X30.5 Z-2.821
Y1. Z-2.872
X29. Z-2.923
X30.5 Z-2.974
Y-0.5 Z-3.026
X29. Z-3.077
X30.5 Z-3.128
Y1. Z-3.179
X29. Z-3.231
X30.5 Z-3.282
Y-0.5 Z-3.333
X29. Z-3.385
X30.5 Z-3.436
Y1. Z-3.487
X29. Z-3.538
X30.5 Z-3.59
Y-0.5 Z-3.641
X29. Z-3.692
X30.5 Z-3.744
Y1. Z-3.795
X29. Z-3.846
X30.5 Z-3.897
Y-0.5 Z-3.949
X29. Z-4.
X30.5
Y1.
X29.
G0 Z15.

(2D CONTOUR7)
M8
G0 X-36.5 Y-14.022
Z15.
Z5.
G1 Z3. F30.
Z0.5
Y18.5 Z-0.636 F466.
G2 X-32. Y23. Z-0.883 R4.5
G1 X0. Z-2.
X32.
G2 X36.5 Y18.5 R4.5
G1 Y-18.5
G2 X32. Y-23. R4.5
G1 X29.
G2 X27.5 Y-21.5 R1.5
G1 Y16.
X-27.5
Y-21.5
G2 X-29. Y-23. R1.5
G1 X-32.
G2 X-36.5 Y-18.5 R4.5
G1 Y18.5
G2 X-32. Y23. R4.5
G1 X0.
X32. Z-3.117
G2 X36.5 Y18.5 Z-3.364 R4.5
G1 Y0.296 Z-4.
Y-18.5
G2 X32. Y-23. R4.5
G1 X29.
G2 X27.5 Y-21.5 R1.5
G1 Y16.
X-27.5
Y-21.5
G2 X-29. Y-23. R1.5
G1 X-32.
G2 X-36.5 Y-18.5 R4.5
G1 Y18.5
G2 X-32. Y23. R4.5
G1 X32.
G2 X36.5 Y18.5 R4.5
G1 Y0.296
Y-18.5 Z-4.656
G2 X32. Y-23. Z-4.903 R4.5
G1 X29. Z-5.008
G2 X27.5 Y-21.5 Z-5.09 R1.5
G1 Y4.552 Z-6.
Y16.
X-27.5
Y-21.5
G2 X-29. Y-23. R1.5
G1 X-32.
G2 X-36.5 Y-18.5 R4.5
G1 Y18.5
G2 X-32. Y23. R4.5
G1 X32.
G2 X36.5 Y18.5 R4.5
G1 Y-18.5
G2 X32. Y-23. R4.5
G1 X29.
G2 X27.5 Y-21.5 R1.5
G1 Y4.552
Y16. Z-6.4
X-18.324 Z-8.
X-27.5
Y-21.5
G2 X-29. Y-23. R1.5
G1 X-32.
G2 X-36.5 Y-18.5 R4.5
G1 Y18.5
G2 X-32. Y23. R4.5
G1 X32.
G2 X36.5 Y18.5 R4.5
G1 Y-18.5
G2 X32. Y-23. R4.5
G1 X29.
G2 X27.5 Y-21.5 R1.5
G1 Y4.552
Y16.
X-18.324
G0 Z15.

M9
M30
