(MOTOR_HOLDER)
(T1  D=3.175 CR=0. - ZMIN=-10. - FLAT END MILL)
G90 G94 G91.1 G40 G49 G17
G21

(POCKET1)
M5
M9
T1
S10000 M3
G54
M8
G0 X7.374 Y0.171
G43 Z10. H1
Z3.
G1 Z2.131 F762.
X7.375 Y0.173 Z2.118
X7.367 Y0.177 Z2.105
X7.368 Y0.169 Z2.1
X7.369
X7.375 Y0.173 Z2.099
X7.367 Y0.177 Z2.097
X7.368 Y0.169 Z2.095
X7.375 Y0.173 Z2.093
X7.367 Y0.177 Z2.091
X7.368 Y0.169 Z2.089
X7.375 Y0.173 Z2.087
X7.367 Y0.177 Z2.085
X7.368 Y0.169 Z2.084
X7.375 Y0.173 Z2.082
X7.367 Y0.177 Z2.08
X7.368 Y0.169 Z2.078
X7.375 Y0.173 Z2.076
X7.367 Y0.177 Z2.074
X7.368 Y0.169 Z2.072
X7.375 Y0.173 Z2.071
X7.367 Y0.177 Z2.069
X7.368 Y0.169 Z2.067
X7.375 Y0.173 Z2.065
X7.367 Y0.177 Z2.063
X7.368 Y0.169 Z2.061
X7.375 Y0.173 Z2.06
X7.367 Y0.177 Z2.058
X7.368 Y0.169 Z2.056
X7.375 Y0.173 Z2.054
X7.367 Y0.177 Z2.052
X7.368 Y0.169 Z2.05
X7.375 Y0.173 Z2.049
X7.367 Y0.177 Z2.047
X7.368 Y0.169 Z2.045
X7.375 Y0.173 Z2.043
X7.367 Y0.177 Z2.041
X7.368 Y0.169 Z2.039
X7.375 Y0.173 Z2.038
X7.367 Y0.177 Z2.036
X7.368 Y0.169 Z2.034
X7.375 Y0.173 Z2.032
X7.367 Y0.177 Z2.03
X7.368 Y0.169 Z2.028
X7.375 Y0.173 Z2.027
X7.367 Y0.177 Z2.025
X7.368 Y0.169 Z2.023
X7.375 Y0.173 Z2.021
X7.367 Y0.177 Z2.019
X7.368 Y0.169 Z2.017
X7.375 Y0.173 Z2.015
X7.367 Y0.177 Z2.013
X7.368 Y0.169 Z2.012
X7.375 Y0.173 Z2.01
X7.367 Y0.177 Z2.008
X7.368 Y0.169 Z2.006
X7.375 Y0.173 Z2.004
X7.367 Y0.177 Z2.002
X7.368 Y0.169 Z2.
X7.375 Y0.173 Z1.999
X7.367 Y0.177 Z1.997
X7.368 Y0.169 Z1.995
X7.375 Y0.173 Z1.993
X7.367 Y0.177 Z1.991
X7.368 Y0.169 Z1.989
X7.375 Y0.173 Z1.988
X7.367 Y0.177 Z1.986
X7.368 Y0.169 Z1.984
X7.375 Y0.173 Z1.982
X7.367 Y0.177 Z1.98
X7.368 Y0.169 Z1.978
X7.375 Y0.173 Z1.977
X7.367 Y0.177 Z1.975
X7.368 Y0.169 Z1.973
X7.375 Y0.173 Z1.971
X7.367 Y0.177 Z1.969
X7.368 Y0.169 Z1.967
X7.375 Y0.173 Z1.966
X7.367 Y0.177 Z1.964
X7.368 Y0.169 Z1.962
X7.375 Y0.173 Z1.96
X7.367 Y0.177 Z1.958
X7.368 Y0.169 Z1.956
X7.375 Y0.173 Z1.954
X7.367 Y0.177 Z1.953
X7.368 Y0.169 Z1.951
X7.375 Y0.173 Z1.949
X7.367 Y0.177 Z1.947
X7.368 Y0.169 Z1.945
X7.375 Y0.173 Z1.943
X7.367 Y0.177 Z1.941
X7.368 Y0.169 Z1.94
X7.375 Y0.173 Z1.938
X7.367 Y0.177 Z1.936
X7.368 Y0.169 Z1.934
X7.375 Y0.173 Z1.932
X7.367 Y0.177 Z1.93
X7.368 Y0.169 Z1.928
X7.375 Y0.173 Z1.927
X7.367 Y0.177 Z1.925
X7.368 Y0.169 Z1.923
X7.375 Y0.173 Z1.921
X7.367 Y0.177 Z1.919
X7.368 Y0.169 Z1.917
X7.375 Y0.173 Z1.916
X7.367 Y0.177 Z1.914
X7.368 Y0.169 Z1.912
X7.375 Y0.173 Z1.91
X7.367 Y0.177 Z1.908
X7.368 Y0.169 Z1.906
X7.375 Y0.173 Z1.905
X7.367 Y0.177 Z1.903
X7.368 Y0.169 Z1.901
X7.375 Y0.173 Z1.899
X7.367 Y0.177 Z1.897
X7.368 Y0.169 Z1.895
X7.375 Y0.173 Z1.894
X7.367 Y0.177 Z1.892
X7.368 Y0.169 Z1.89
X7.375 Y0.173 Z1.888
X7.367 Y0.177 Z1.886
X7.368 Y0.169 Z1.884
X7.375 Y0.173 Z1.882
X7.367 Y0.177 Z1.881
X7.368 Y0.169 Z1.879
X7.375 Y0.173 Z1.877
X7.367 Y0.177 Z1.875
X7.368 Y0.169 Z1.873
X7.375 Y0.173 Z1.871
X7.367 Y0.177 Z1.869
X7.368 Y0.169 Z1.867
X7.375 Y0.173 Z1.866
X7.367 Y0.177 Z1.864
X7.368 Y0.169 Z1.862
X7.375 Y0.173 Z1.86
X7.367 Y0.177 Z1.858
X7.368 Y0.169 Z1.856
X7.375 Y0.173 Z1.855
X7.367 Y0.177 Z1.853
X7.368 Y0.169 Z1.851
X7.375 Y0.173 Z1.849
X7.367 Y0.177 Z1.847
X7.368 Y0.169 Z1.845
X7.375 Y0.173 Z1.844
X7.367 Y0.177 Z1.842
X7.368 Y0.169 Z1.84
X7.375 Y0.173 Z1.838
X7.367 Y0.177 Z1.836
X7.368 Y0.169 Z1.834
X7.375 Y0.173 Z1.833
X7.367 Y0.177 Z1.831
X7.368 Y0.169 Z1.829
X7.375 Y0.173 Z1.827
X7.367 Y0.177 Z1.825
X7.368 Y0.169 Z1.823
X7.375 Y0.173 Z1.822
X7.367 Y0.177 Z1.82
X7.368 Y0.169 Z1.818
X7.375 Y0.173 Z1.816
X7.367 Y0.177 Z1.814
X7.368 Y0.169 Z1.812
X7.375 Y0.173 Z1.81
X7.367 Y0.177 Z1.809
X7.368 Y0.169 Z1.807
X7.375 Y0.173 Z1.805
X7.367 Y0.177 Z1.803
X7.368 Y0.169 Z1.801
X7.375 Y0.173 Z1.799
X7.367 Y0.177 Z1.797
X7.368 Y0.169 Z1.795
X7.375 Y0.173 Z1.794
X7.367 Y0.177 Z1.792
X7.368 Y0.169 Z1.79
X7.375 Y0.173 Z1.788
X7.367 Y0.177 Z1.786
X7.368 Y0.169 Z1.784
X7.375 Y0.173 Z1.783
X7.367 Y0.177 Z1.781
X7.368 Y0.169 Z1.779
X7.375 Y0.173 Z1.777
X7.367 Y0.177 Z1.775
X7.368 Y0.169 Z1.773
X7.375 Y0.173 Z1.772
X7.367 Y0.177 Z1.77
X7.368 Y0.169 Z1.768
X7.375 Y0.173 Z1.766
X7.367 Y0.177 Z1.764
X7.368 Y0.169 Z1.762
X7.375 Y0.173 Z1.761
X7.367 Y0.177 Z1.759
X7.368 Y0.169 Z1.757
X7.375 Y0.173 Z1.755
X7.367 Y0.177 Z1.753
X7.368 Y0.169 Z1.751
X7.375 Y0.173 Z1.75
X7.367 Y0.177 Z1.748
X7.368 Y0.169 Z1.746
X7.375 Y0.173 Z1.744
X7.367 Y0.177 Z1.742
X7.368 Y0.169 Z1.74
X7.375 Y0.173 Z1.738
X7.367 Y0.177 Z1.737
X7.368 Y0.169 Z1.735
X7.375 Y0.173 Z1.733
X7.367 Y0.177 Z1.731
X7.368 Y0.169 Z1.729
X7.375 Y0.173 Z1.727
X7.367 Y0.177 Z1.725
X7.368 Y0.169 Z1.723
X7.375 Y0.173 Z1.722
X7.367 Y0.177 Z1.72
X7.368 Y0.169 Z1.718
X7.375 Y0.173 Z1.716
X7.367 Y0.177 Z1.714
X7.368 Y0.169 Z1.712
X7.375 Y0.173 Z1.711
X7.367 Y0.177 Z1.709
X7.368 Y0.169 Z1.707
X7.375 Y0.173 Z1.705
X7.367 Y0.177 Z1.703
X7.368 Y0.169 Z1.701
X7.375 Y0.173 Z1.7
X7.367 Y0.177 Z1.698
X7.368 Y0.169 Z1.696
X7.375 Y0.173 Z1.694
X7.367 Y0.177 Z1.692
X7.368 Y0.169 Z1.69
X7.375 Y0.173 Z1.689
X7.367 Y0.177 Z1.687
X7.368 Y0.169 Z1.685
X7.375 Y0.173 Z1.683
X7.367 Y0.177 Z1.681
X7.368 Y0.169 Z1.679
X7.375 Y0.173 Z1.678
X7.367 Y0.177 Z1.676
X7.368 Y0.169 Z1.674
X7.375 Y0.173 Z1.672
X7.367 Y0.177 Z1.67
X7.368 Y0.169 Z1.668
X7.375 Y0.173 Z1.666
X7.367 Y0.177 Z1.664
X7.368 Y0.169 Z1.663
X7.375 Y0.173 Z1.661
X7.367 Y0.177 Z1.659
X7.368 Y0.169 Z1.657
X7.375 Y0.173 Z1.655
X7.367 Y0.177 Z1.653
X7.368 Y0.169 Z1.651
X7.375 Y0.173 Z1.65
X7.367 Y0.177 Z1.648
X7.368 Y0.169 Z1.646
X7.375 Y0.173 Z1.644
X7.367 Y0.177 Z1.642
X7.368 Y0.169 Z1.64
X7.375 Y0.173 Z1.639
X7.367 Y0.177 Z1.637
X7.368 Y0.169 Z1.635
X7.375 Y0.173 Z1.633
X7.367 Y0.177 Z1.631
X7.368 Y0.169 Z1.629
X7.375 Y0.173 Z1.628
X7.367 Y0.177 Z1.626
X7.368 Y0.169 Z1.624
X7.375 Y0.173 Z1.622
X7.367 Y0.177 Z1.62
X7.368 Y0.169 Z1.618
X7.375 Y0.173 Z1.617
X7.367 Y0.177 Z1.615
X7.368 Y0.169 Z1.613
X7.375 Y0.173 Z1.611
X7.367 Y0.177 Z1.609
X7.368 Y0.169 Z1.607
X7.375 Y0.173 Z1.606
X7.367 Y0.177 Z1.604
X7.368 Y0.169 Z1.602
X7.375 Y0.173 Z1.6
X7.367 Y0.177 Z1.598
X7.368 Y0.169 Z1.596
X7.375 Y0.173 Z1.594
X7.367 Y0.177 Z1.592
X7.368 Y0.169 Z1.591
X7.375 Y0.173 Z1.589
X7.367 Y0.177 Z1.587
X7.368 Y0.169 Z1.585
X7.375 Y0.173 Z1.583
X7.367 Y0.177 Z1.581
X7.368 Y0.169 Z1.579
X7.375 Y0.173 Z1.578
X7.367 Y0.177 Z1.576
X7.368 Y0.169 Z1.574
X7.375 Y0.173 Z1.572
X7.367 Y0.177 Z1.57
X7.368 Y0.169 Z1.568
X7.375 Y0.173 Z1.567
X7.367 Y0.177 Z1.565
X7.368 Y0.169 Z1.563
X7.375 Y0.173 Z1.561
X7.367 Y0.177 Z1.559
X7.368 Y0.169 Z1.557
X7.375 Y0.173 Z1.556
X7.367 Y0.177 Z1.554
X7.368 Y0.169 Z1.552
X7.375 Y0.173 Z1.55
X7.367 Y0.177 Z1.548
X7.368 Y0.169 Z1.546
X7.375 Y0.173 Z1.545
X7.367 Y0.177 Z1.543
X7.368 Y0.169 Z1.541
X7.375 Y0.173 Z1.539
X7.367 Y0.177 Z1.537
X7.368 Y0.169 Z1.535
X7.375 Y0.173 Z1.533
X7.367 Y0.177 Z1.532
X7.368 Y0.169 Z1.53
X7.375 Y0.173 Z1.528
X7.367 Y0.177 Z1.526
X7.368 Y0.169 Z1.524
X7.375 Y0.173 Z1.522
X7.367 Y0.177 Z1.52
X7.368 Y0.169 Z1.519
X7.375 Y0.173 Z1.517
X7.367 Y0.177 Z1.515
X7.368 Y0.169 Z1.513
X7.375 Y0.173 Z1.511
X7.367 Y0.177 Z1.509
X7.368 Y0.169 Z1.507
X7.375 Y0.173 Z1.506
X7.367 Y0.177 Z1.504
X7.368 Y0.169 Z1.502
X7.375 Y0.173 Z1.5
X7.367 Y0.177 Z1.498
X7.368 Y0.169 Z1.496
X7.375 Y0.173 Z1.495
X7.367 Y0.177 Z1.493
X7.368 Y0.169 Z1.491
X7.375 Y0.173 Z1.489
X7.367 Y0.177 Z1.487
X7.368 Y0.169 Z1.485
X7.375 Y0.173 Z1.484
X7.367 Y0.177 Z1.482
X7.368 Y0.169 Z1.48
X7.375 Y0.173 Z1.478
X7.367 Y0.177 Z1.476
X7.368 Y0.169 Z1.474
X7.375 Y0.173 Z1.473
X7.367 Y0.177 Z1.471
X7.368 Y0.169 Z1.469
X7.375 Y0.173 Z1.467
X7.367 Y0.177 Z1.465
X7.368 Y0.169 Z1.463
X7.375 Y0.173 Z1.461
X7.367 Y0.177 Z1.46
X7.368 Y0.169 Z1.458
X7.375 Y0.173 Z1.456
X7.367 Y0.177 Z1.454
X7.368 Y0.169 Z1.452
X7.375 Y0.173 Z1.45
X7.367 Y0.177 Z1.448
X7.368 Y0.169 Z1.446
X7.375 Y0.173 Z1.445
X7.367 Y0.177 Z1.443
X7.368 Y0.169 Z1.441
X7.375 Y0.173 Z1.439
X7.367 Y0.177 Z1.437
X7.368 Y0.169 Z1.435
X7.375 Y0.173 Z1.434
X7.367 Y0.177 Z1.432
X7.368 Y0.169 Z1.43
X7.375 Y0.173 Z1.428
X7.367 Y0.177 Z1.426
X7.368 Y0.169 Z1.424
X7.375 Y0.173 Z1.423
X7.367 Y0.177 Z1.421
X7.368 Y0.169 Z1.419
X7.375 Y0.173 Z1.417
X7.367 Y0.177 Z1.415
X7.368 Y0.169 Z1.413
X7.375 Y0.173 Z1.412
X7.367 Y0.177 Z1.41
X7.368 Y0.169 Z1.408
X7.375 Y0.173 Z1.406
X7.367 Y0.177 Z1.404
X7.368 Y0.169 Z1.402
X7.375 Y0.173 Z1.401
X7.367 Y0.177 Z1.399
X7.368 Y0.169 Z1.397
X7.375 Y0.173 Z1.395
X7.367 Y0.177 Z1.393
X7.368 Y0.169 Z1.391
X7.375 Y0.173 Z1.389
X7.367 Y0.177 Z1.388
X7.368 Y0.169 Z1.386
X7.375 Y0.173 Z1.384
X7.367 Y0.177 Z1.382
X7.368 Y0.169 Z1.38
X7.375 Y0.173 Z1.378
X7.367 Y0.177 Z1.376
X7.368 Y0.169 Z1.374
X7.375 Y0.173 Z1.373
X7.367 Y0.177 Z1.371
X7.368 Y0.169 Z1.369
X7.375 Y0.173 Z1.367
X7.367 Y0.177 Z1.365
X7.368 Y0.169 Z1.363
X7.375 Y0.173 Z1.362
X7.367 Y0.177 Z1.36
X7.368 Y0.169 Z1.358
X7.375 Y0.173 Z1.356
X7.367 Y0.177 Z1.354
X7.368 Y0.169 Z1.352
X7.375 Y0.173 Z1.351
X7.367 Y0.177 Z1.349
X7.368 Y0.169 Z1.347
X7.375 Y0.173 Z1.345
X7.367 Y0.177 Z1.343
X7.368 Y0.169 Z1.341
X7.375 Y0.173 Z1.34
X7.367 Y0.177 Z1.338
X7.368 Y0.169 Z1.336
X7.375 Y0.173 Z1.334
X7.367 Y0.177 Z1.332
X7.368 Y0.169 Z1.33
X7.375 Y0.173 Z1.329
X7.367 Y0.177 Z1.327
X7.368 Y0.169 Z1.325
X7.375 Y0.173 Z1.323
X7.367 Y0.177 Z1.321
X7.368 Y0.169 Z1.319
X7.375 Y0.173 Z1.317
X7.367 Y0.177 Z1.316
X7.368 Y0.169 Z1.314
X7.375 Y0.173 Z1.312
X7.367 Y0.177 Z1.31
X7.368 Y0.169 Z1.308
X7.375 Y0.173 Z1.306
X7.367 Y0.177 Z1.304
X7.368 Y0.169 Z1.302
X7.375 Y0.173 Z1.301
X7.367 Y0.177 Z1.299
X7.368 Y0.169 Z1.297
X7.375 Y0.173 Z1.295
X7.367 Y0.177 Z1.293
X7.368 Y0.169 Z1.291
X7.375 Y0.173 Z1.29
X7.367 Y0.177 Z1.288
X7.368 Y0.169 Z1.286
X7.375 Y0.173 Z1.284
X7.367 Y0.177 Z1.282
X7.368 Y0.169 Z1.28
X7.375 Y0.173 Z1.279
X7.367 Y0.177 Z1.277
X7.368 Y0.169 Z1.275
X7.375 Y0.173 Z1.273
X7.367 Y0.177 Z1.271
X7.368 Y0.169 Z1.269
X7.375 Y0.173 Z1.268
X7.367 Y0.177 Z1.266
X7.368 Y0.169 Z1.264
X7.375 Y0.173 Z1.262
X7.367 Y0.177 Z1.26
X7.368 Y0.169 Z1.258
X7.375 Y0.173 Z1.257
X7.367 Y0.177 Z1.255
X7.368 Y0.169 Z1.253
X7.375 Y0.173 Z1.251
X7.367 Y0.177 Z1.249
X7.368 Y0.169 Z1.247
X7.375 Y0.173 Z1.245
X7.367 Y0.177 Z1.243
X7.368 Y0.169 Z1.242
X7.375 Y0.173 Z1.24
X7.367 Y0.177 Z1.238
X7.368 Y0.169 Z1.236
X7.375 Y0.173 Z1.234
X7.367 Y0.177 Z1.232
X7.368 Y0.169 Z1.23
X7.375 Y0.173 Z1.229
X7.367 Y0.177 Z1.227
X7.368 Y0.169 Z1.225
X7.375 Y0.173 Z1.223
X7.367 Y0.177 Z1.221
X7.368 Y0.169 Z1.219
X7.375 Y0.173 Z1.218
X7.367 Y0.177 Z1.216
X7.368 Y0.169 Z1.214
X7.375 Y0.173 Z1.212
X7.367 Y0.177 Z1.21
X7.368 Y0.169 Z1.208
X7.375 Y0.173 Z1.207
X7.367 Y0.177 Z1.205
X7.368 Y0.169 Z1.203
X7.375 Y0.173 Z1.201
X7.367 Y0.177 Z1.199
X7.368 Y0.169 Z1.197
X7.375 Y0.173 Z1.196
X7.367 Y0.177 Z1.194
X7.368 Y0.169 Z1.192
X7.375 Y0.173 Z1.19
X7.367 Y0.177 Z1.188
X7.368 Y0.169 Z1.186
X7.375 Y0.173 Z1.185
X7.367 Y0.177 Z1.183
X7.368 Y0.169 Z1.181
X7.375 Y0.173 Z1.179
X7.367 Y0.177 Z1.177
X7.368 Y0.169 Z1.175
X7.375 Y0.173 Z1.173
X7.367 Y0.177 Z1.171
X7.368 Y0.169 Z1.17
X7.375 Y0.173 Z1.168
X7.367 Y0.177 Z1.166
X7.368 Y0.169 Z1.164
X7.375 Y0.173 Z1.162
X7.367 Y0.177 Z1.16
X7.368 Y0.169 Z1.158
X7.375 Y0.173 Z1.157
X7.367 Y0.177 Z1.155
X7.368 Y0.169 Z1.153
X7.375 Y0.173 Z1.151
X7.367 Y0.177 Z1.149
X7.368 Y0.169 Z1.147
X7.375 Y0.173 Z1.146
X7.367 Y0.177 Z1.144
X7.368 Y0.169 Z1.142
X7.375 Y0.173 Z1.14
X7.367 Y0.177 Z1.138
X7.368 Y0.169 Z1.136
X7.375 Y0.173 Z1.135
X7.367 Y0.177 Z1.133
X7.368 Y0.169 Z1.131
X7.375 Y0.173 Z1.129
X7.367 Y0.177 Z1.127
X7.368 Y0.169 Z1.125
X7.375 Y0.173 Z1.124
X7.367 Y0.177 Z1.122
X7.368 Y0.169 Z1.12
X7.375 Y0.173 Z1.118
X7.367 Y0.177 Z1.116
X7.368 Y0.169 Z1.114
X7.375 Y0.173 Z1.112
X7.367 Y0.177 Z1.111
X7.368 Y0.169 Z1.109
X7.375 Y0.173 Z1.107
X7.367 Y0.177 Z1.105
X7.368 Y0.169 Z1.103
X7.375 Y0.173 Z1.101
X7.367 Y0.177 Z1.099
X7.368 Y0.169 Z1.098
X7.375 Y0.173 Z1.096
X7.367 Y0.177 Z1.094
X7.368 Y0.169 Z1.092
X7.375 Y0.173 Z1.09
X7.367 Y0.177 Z1.088
X7.368 Y0.169 Z1.086
X7.375 Y0.173 Z1.085
X7.367 Y0.177 Z1.083
X7.368 Y0.169 Z1.081
X7.375 Y0.173 Z1.079
X7.367 Y0.177 Z1.077
X7.368 Y0.169 Z1.075
X7.375 Y0.173 Z1.074
X7.367 Y0.177 Z1.072
X7.368 Y0.169 Z1.07
X7.375 Y0.173 Z1.068
X7.367 Y0.177 Z1.066
X7.368 Y0.169 Z1.064
X7.375 Y0.173 Z1.063
X7.367 Y0.177 Z1.061
X7.368 Y0.169 Z1.059
X7.375 Y0.173 Z1.057
X7.367 Y0.177 Z1.055
X7.368 Y0.169 Z1.053
X7.375 Y0.173 Z1.052
X7.367 Y0.177 Z1.05
X7.368 Y0.169 Z1.048
X7.375 Y0.173 Z1.046
X7.367 Y0.177 Z1.044
X7.368 Y0.169 Z1.042
X7.375 Y0.173 Z1.04
X7.367 Y0.177 Z1.039
X7.368 Y0.169 Z1.037
X7.375 Y0.173 Z1.035
X7.367 Y0.177 Z1.033
X7.368 Y0.169 Z1.031
X7.375 Y0.173 Z1.029
X7.367 Y0.177 Z1.027
X7.368 Y0.169 Z1.025
X7.375 Y0.173 Z1.024
X7.367 Y0.177 Z1.022
X7.368 Y0.169 Z1.02
X7.375 Y0.173 Z1.018
X7.367 Y0.177 Z1.016
X7.368 Y0.169 Z1.014
X7.375 Y0.173 Z1.013
X7.367 Y0.177 Z1.011
X7.368 Y0.169 Z1.009
X7.375 Y0.173 Z1.007
X7.367 Y0.177 Z1.005
X7.368 Y0.169 Z1.003
X7.375 Y0.173 Z1.002
X7.367 Y0.177 Z1.
X7.368 Y0.169 Z0.998
X7.375 Y0.173 Z0.996
X7.367 Y0.177 Z0.994
X7.368 Y0.169 Z0.992
X7.375 Y0.173 Z0.991
X7.367 Y0.177 Z0.989
X7.368 Y0.169 Z0.987
X7.375 Y0.173 Z0.985
X7.367 Y0.177 Z0.983
X7.368 Y0.169 Z0.981
X7.375 Y0.173 Z0.98
X7.367 Y0.177 Z0.978
X7.368 Y0.169 Z0.976
X7.375 Y0.173 Z0.974
X7.367 Y0.177 Z0.972
X7.368 Y0.169 Z0.97
X7.375 Y0.173 Z0.968
X7.367 Y0.177 Z0.967
X7.368 Y0.169 Z0.965
X7.375 Y0.173 Z0.963
X7.367 Y0.177 Z0.961
X7.368 Y0.169 Z0.959
X7.375 Y0.173 Z0.957
X7.367 Y0.177 Z0.955
X7.368 Y0.169 Z0.953
X7.375 Y0.173 Z0.952
X7.367 Y0.177 Z0.95
X7.368 Y0.169 Z0.948
X7.375 Y0.173 Z0.946
X7.367 Y0.177 Z0.944
X7.368 Y0.169 Z0.942
X7.375 Y0.173 Z0.941
X7.367 Y0.177 Z0.939
X7.368 Y0.169 Z0.937
X7.375 Y0.173 Z0.935
X7.367 Y0.177 Z0.933
X7.368 Y0.169 Z0.931
X7.375 Y0.173 Z0.93
X7.367 Y0.177 Z0.928
X7.368 Y0.169 Z0.926
X7.375 Y0.173 Z0.924
X7.367 Y0.177 Z0.922
X7.368 Y0.169 Z0.92
X7.375 Y0.173 Z0.919
X7.367 Y0.177 Z0.917
X7.368 Y0.169 Z0.915
X7.375 Y0.173 Z0.913
X7.367 Y0.177 Z0.911
X7.368 Y0.169 Z0.909
X7.375 Y0.173 Z0.908
X7.367 Y0.177 Z0.906
X7.368 Y0.169 Z0.904
X7.375 Y0.173 Z0.902
X7.367 Y0.177 Z0.9
X7.368 Y0.169 Z0.898
X7.375 Y0.173 Z0.896
X7.367 Y0.177 Z0.895
X7.368 Y0.169 Z0.893
X7.375 Y0.173 Z0.891
X7.367 Y0.177 Z0.889
X7.368 Y0.169 Z0.887
X7.375 Y0.173 Z0.885
X7.367 Y0.177 Z0.883
X7.368 Y0.169 Z0.881
X7.375 Y0.173 Z0.88
X7.367 Y0.177 Z0.878
X7.368 Y0.169 Z0.876
X7.375 Y0.173 Z0.874
X7.367 Y0.177 Z0.872
X7.368 Y0.169 Z0.87
X7.375 Y0.173 Z0.869
X7.367 Y0.177 Z0.867
X7.368 Y0.169 Z0.865
X7.375 Y0.173 Z0.863
X7.367 Y0.177 Z0.861
X7.368 Y0.169 Z0.859
X7.375 Y0.173 Z0.858
X7.367 Y0.177 Z0.856
X7.368 Y0.169 Z0.854
X7.375 Y0.173 Z0.852
X7.367 Y0.177 Z0.85
X7.368 Y0.169 Z0.848
X7.375 Y0.173 Z0.847
X7.367 Y0.177 Z0.845
X7.368 Y0.169 Z0.843
X7.375 Y0.173 Z0.841
X7.367 Y0.177 Z0.839
X7.368 Y0.169 Z0.837
X7.375 Y0.173 Z0.836
X7.367 Y0.177 Z0.834
X7.368 Y0.169 Z0.832
X7.375 Y0.173 Z0.83
X7.367 Y0.177 Z0.828
X7.368 Y0.169 Z0.826
X7.375 Y0.173 Z0.824
X7.367 Y0.177 Z0.822
X7.368 Y0.169 Z0.821
X7.375 Y0.173 Z0.819
X7.367 Y0.177 Z0.817
X7.368 Y0.169 Z0.815
X7.375 Y0.173 Z0.813
X7.367 Y0.177 Z0.811
X7.368 Y0.169 Z0.809
X7.375 Y0.173 Z0.808
X7.367 Y0.177 Z0.806
X7.368 Y0.169 Z0.804
X7.375 Y0.173 Z0.802
X7.367 Y0.177 Z0.8
X7.368 Y0.169 Z0.798
X7.375 Y0.173 Z0.797
X7.367 Y0.177 Z0.795
X7.368 Y0.169 Z0.793
X7.375 Y0.173 Z0.791
X7.367 Y0.177 Z0.789
X7.368 Y0.169 Z0.787
X7.375 Y0.173 Z0.786
X7.367 Y0.177 Z0.784
X7.368 Y0.169 Z0.782
X7.375 Y0.173 Z0.78
X7.367 Y0.177 Z0.778
X7.368 Y0.169 Z0.776
X7.375 Y0.173 Z0.775
X7.367 Y0.177 Z0.773
X7.368 Y0.169 Z0.771
X7.375 Y0.173 Z0.769
X7.367 Y0.177 Z0.767
X7.368 Y0.169 Z0.765
X7.375 Y0.173 Z0.764
X7.367 Y0.177 Z0.762
X7.368 Y0.169 Z0.76
X7.375 Y0.173 Z0.758
X7.367 Y0.177 Z0.756
X7.368 Y0.169 Z0.754
X7.375 Y0.173 Z0.752
X7.367 Y0.177 Z0.75
X7.368 Y0.169 Z0.749
X7.375 Y0.173 Z0.747
X7.367 Y0.177 Z0.745
X7.368 Y0.169 Z0.743
X7.375 Y0.173 Z0.741
X7.367 Y0.177 Z0.739
X7.368 Y0.169 Z0.737
X7.375 Y0.173 Z0.736
X7.367 Y0.177 Z0.734
X7.368 Y0.169 Z0.732
X7.375 Y0.173 Z0.73
X7.367 Y0.177 Z0.728
X7.368 Y0.169 Z0.726
X7.375 Y0.173 Z0.725
X7.367 Y0.177 Z0.723
X7.368 Y0.169 Z0.721
X7.375 Y0.173 Z0.719
X7.367 Y0.177 Z0.717
X7.368 Y0.169 Z0.715
X7.375 Y0.173 Z0.714
X7.367 Y0.177 Z0.712
X7.368 Y0.169 Z0.71
X7.375 Y0.173 Z0.708
X7.367 Y0.177 Z0.706
X7.368 Y0.169 Z0.704
X7.375 Y0.173 Z0.703
X7.367 Y0.177 Z0.701
X7.368 Y0.169 Z0.699
X7.375 Y0.173 Z0.697
X7.367 Y0.177 Z0.695
X7.368 Y0.169 Z0.693
X7.375 Y0.173 Z0.691
X7.367 Y0.177 Z0.69
X7.368 Y0.169 Z0.688
X7.375 Y0.173 Z0.686
X7.367 Y0.177 Z0.684
X7.368 Y0.169 Z0.682
X7.375 Y0.173 Z0.68
X7.367 Y0.177 Z0.678
X7.368 Y0.169 Z0.677
X7.375 Y0.173 Z0.675
X7.367 Y0.177 Z0.673
X7.368 Y0.169 Z0.671
X7.375 Y0.173 Z0.669
X7.367 Y0.177 Z0.667
X7.368 Y0.169 Z0.665
X7.375 Y0.173 Z0.664
X7.367 Y0.177 Z0.662
X7.368 Y0.169 Z0.66
X7.375 Y0.173 Z0.658
X7.367 Y0.177 Z0.656
X7.368 Y0.169 Z0.654
X7.375 Y0.173 Z0.653
X7.367 Y0.177 Z0.651
X7.368 Y0.169 Z0.649
X7.375 Y0.173 Z0.647
X7.367 Y0.177 Z0.645
X7.368 Y0.169 Z0.643
X7.375 Y0.173 Z0.642
X7.367 Y0.177 Z0.64
X7.368 Y0.169 Z0.638
X7.375 Y0.173 Z0.636
X7.367 Y0.177 Z0.634
X7.368 Y0.169 Z0.632
X7.375 Y0.173 Z0.631
X7.367 Y0.177 Z0.629
X7.368 Y0.169 Z0.627
X7.375 Y0.173 Z0.625
X7.367 Y0.177 Z0.623
X7.368 Y0.169 Z0.621
X7.375 Y0.173 Z0.619
X7.367 Y0.177 Z0.618
X7.368 Y0.169 Z0.616
X7.375 Y0.173 Z0.614
X7.367 Y0.177 Z0.612
X7.368 Y0.169 Z0.61
X7.375 Y0.173 Z0.608
X7.367 Y0.177 Z0.606
X7.368 Y0.169 Z0.604
X7.375 Y0.173 Z0.603
X7.367 Y0.177 Z0.601
X7.368 Y0.169 Z0.599
X7.375 Y0.173 Z0.597
X7.367 Y0.177 Z0.595
X7.368 Y0.169 Z0.593
X7.375 Y0.173 Z0.592
X7.367 Y0.177 Z0.59
X7.368 Y0.169 Z0.588
X7.375 Y0.173 Z0.586
X7.367 Y0.177 Z0.584
X7.368 Y0.169 Z0.582
X7.375 Y0.173 Z0.581
X7.367 Y0.177 Z0.579
X7.368 Y0.169 Z0.577
X7.375 Y0.173 Z0.575
X7.367 Y0.177 Z0.573
X7.368 Y0.169 Z0.571
X7.375 Y0.173 Z0.57
X7.367 Y0.177 Z0.568
X7.368 Y0.169 Z0.566
X7.375 Y0.173 Z0.564
X7.367 Y0.177 Z0.562
X7.368 Y0.169 Z0.56
X7.375 Y0.173 Z0.559
X7.367 Y0.177 Z0.557
X7.368 Y0.169 Z0.555
X7.375 Y0.173 Z0.553
X7.367 Y0.177 Z0.551
X7.368 Y0.169 Z0.549
X7.375 Y0.173 Z0.547
X7.367 Y0.177 Z0.546
X7.368 Y0.169 Z0.544
X7.375 Y0.173 Z0.542
X7.367 Y0.177 Z0.54
X7.368 Y0.169 Z0.538
X7.375 Y0.173 Z0.536
X7.367 Y0.177 Z0.534
X7.368 Y0.169 Z0.532
X7.375 Y0.173 Z0.531
X7.367 Y0.177 Z0.529
X7.368 Y0.169 Z0.527
X7.375 Y0.173 Z0.525
X7.367 Y0.177 Z0.523
X7.368 Y0.169 Z0.521
X7.375 Y0.173 Z0.52
X7.367 Y0.177 Z0.518
X7.368 Y0.169 Z0.516
X7.375 Y0.173 Z0.514
X7.367 Y0.177 Z0.512
X7.368 Y0.169 Z0.51
X7.375 Y0.173 Z0.509
X7.367 Y0.177 Z0.507
X7.368 Y0.169 Z0.505
X7.375 Y0.173 Z0.503
X7.367 Y0.177 Z0.501
X7.368 Y0.169 Z0.499
X7.375 Y0.173 Z0.498
X7.367 Y0.177 Z0.496
X7.368 Y0.169 Z0.494
X7.375 Y0.173 Z0.492
X7.367 Y0.177 Z0.49
X7.368 Y0.169 Z0.488
X7.375 Y0.173 Z0.487
X7.367 Y0.177 Z0.485
X7.368 Y0.169 Z0.483
X7.375 Y0.173 Z0.481
X7.367 Y0.177 Z0.479
X7.368 Y0.169 Z0.477
X7.375 Y0.173 Z0.475
X7.367 Y0.177 Z0.474
X7.368 Y0.169 Z0.472
X7.375 Y0.173 Z0.47
X7.367 Y0.177 Z0.468
X7.368 Y0.169 Z0.466
X7.375 Y0.173 Z0.464
X7.367 Y0.177 Z0.462
X7.368 Y0.169 Z0.46
X7.375 Y0.173 Z0.459
X7.367 Y0.177 Z0.457
X7.368 Y0.169 Z0.455
X7.375 Y0.173 Z0.453
X7.367 Y0.177 Z0.451
X7.368 Y0.169 Z0.449
X7.375 Y0.173 Z0.448
X7.367 Y0.177 Z0.446
X7.368 Y0.169 Z0.444
X7.375 Y0.173 Z0.442
X7.367 Y0.177 Z0.44
X7.368 Y0.169 Z0.438
X7.375 Y0.173 Z0.437
X7.367 Y0.177 Z0.435
X7.368 Y0.169 Z0.433
X7.375 Y0.173 Z0.431
X7.367 Y0.177 Z0.429
X7.368 Y0.169 Z0.427
X7.375 Y0.173 Z0.426
X7.367 Y0.177 Z0.424
X7.368 Y0.169 Z0.422
X7.375 Y0.173 Z0.42
X7.367 Y0.177 Z0.418
X7.368 Y0.169 Z0.416
X7.375 Y0.173 Z0.415
X7.367 Y0.177 Z0.413
X7.368 Y0.169 Z0.411
X7.375 Y0.173 Z0.409
X7.367 Y0.177 Z0.407
X7.368 Y0.169 Z0.405
X7.375 Y0.173 Z0.403
X7.367 Y0.177 Z0.401
X7.368 Y0.169 Z0.4
X7.375 Y0.173 Z0.398
X7.367 Y0.177 Z0.396
X7.368 Y0.169 Z0.394
X7.375 Y0.173 Z0.392
X7.367 Y0.177 Z0.39
X7.368 Y0.169 Z0.388
X7.375 Y0.173 Z0.387
X7.367 Y0.177 Z0.385
X7.368 Y0.169 Z0.383
X7.375 Y0.173 Z0.381
X7.367 Y0.177 Z0.379
X7.368 Y0.169 Z0.377
X7.375 Y0.173 Z0.376
X7.367 Y0.177 Z0.374
X7.368 Y0.169 Z0.372
X7.375 Y0.173 Z0.37
X7.367 Y0.177 Z0.368
X7.368 Y0.169 Z0.366
X7.375 Y0.173 Z0.365
X7.367 Y0.177 Z0.363
X7.368 Y0.169 Z0.361
X7.375 Y0.173 Z0.359
X7.367 Y0.177 Z0.357
X7.368 Y0.169 Z0.355
X7.375 Y0.173 Z0.354
X7.367 Y0.177 Z0.352
X7.368 Y0.169 Z0.35
X7.375 Y0.173 Z0.348
X7.367 Y0.177 Z0.346
X7.368 Y0.169 Z0.344
X7.375 Y0.173 Z0.343
X7.367 Y0.177 Z0.341
X7.368 Y0.169 Z0.339
X7.375 Y0.173 Z0.337
X7.367 Y0.177 Z0.335
X7.368 Y0.169 Z0.333
X7.375 Y0.173 Z0.331
X7.367 Y0.177 Z0.329
X7.368 Y0.169 Z0.328
X7.375 Y0.173 Z0.326
X7.367 Y0.177 Z0.324
X7.368 Y0.169 Z0.322
X7.375 Y0.173 Z0.32
X7.367 Y0.177 Z0.318
X7.368 Y0.169 Z0.316
X7.375 Y0.173 Z0.315
X7.367 Y0.177 Z0.313
X7.368 Y0.169 Z0.311
X7.375 Y0.173 Z0.309
X7.367 Y0.177 Z0.307
X7.368 Y0.169 Z0.305
X7.375 Y0.173 Z0.304
X7.367 Y0.177 Z0.302
X7.368 Y0.169 Z0.3
X7.375 Y0.173 Z0.298
X7.367 Y0.177 Z0.296
X7.368 Y0.169 Z0.294
X7.375 Y0.173 Z0.293
X7.367 Y0.177 Z0.291
X7.368 Y0.169 Z0.289
X7.375 Y0.173 Z0.287
X7.367 Y0.177 Z0.285
X7.368 Y0.169 Z0.283
X7.375 Y0.173 Z0.282
X7.367 Y0.177 Z0.28
X7.368 Y0.169 Z0.278
X7.375 Y0.173 Z0.276
X7.367 Y0.177 Z0.274
X7.368 Y0.169 Z0.272
X7.375 Y0.173 Z0.27
X7.367 Y0.177 Z0.269
X7.368 Y0.169 Z0.267
X7.375 Y0.173 Z0.265
X7.367 Y0.177 Z0.263
X7.368 Y0.169 Z0.261
X7.375 Y0.173 Z0.259
X7.367 Y0.177 Z0.257
X7.368 Y0.169 Z0.256
X7.375 Y0.173 Z0.254
X7.367 Y0.177 Z0.252
X7.368 Y0.169 Z0.25
X7.375 Y0.173 Z0.248
X7.367 Y0.177 Z0.246
X7.368 Y0.169 Z0.244
X7.375 Y0.173 Z0.243
X7.367 Y0.177 Z0.241
X7.368 Y0.169 Z0.239
X7.375 Y0.173 Z0.237
X7.367 Y0.177 Z0.235
X7.368 Y0.169 Z0.233
X7.375 Y0.173 Z0.232
X7.367 Y0.177 Z0.23
X7.368 Y0.169 Z0.228
X7.375 Y0.173 Z0.226
X7.367 Y0.177 Z0.224
X7.368 Y0.169 Z0.222
X7.375 Y0.173 Z0.221
X7.367 Y0.177 Z0.219
X7.368 Y0.169 Z0.217
X7.375 Y0.173 Z0.215
X7.367 Y0.177 Z0.213
X7.368 Y0.169 Z0.211
X7.375 Y0.173 Z0.21
X7.367 Y0.177 Z0.208
X7.368 Y0.169 Z0.206
X7.375 Y0.173 Z0.204
X7.367 Y0.177 Z0.202
X7.368 Y0.169 Z0.2
X7.375 Y0.173 Z0.198
X7.367 Y0.177 Z0.197
X7.368 Y0.169 Z0.195
X7.375 Y0.173 Z0.193
X7.367 Y0.177 Z0.191
X7.368 Y0.169 Z0.189
X7.375 Y0.173 Z0.187
X7.367 Y0.177 Z0.185
X7.368 Y0.169 Z0.183
X7.375 Y0.173 Z0.182
X7.367 Y0.177 Z0.18
X7.368 Y0.169 Z0.178
X7.375 Y0.173 Z0.176
X7.367 Y0.177 Z0.174
X7.368 Y0.169 Z0.172
X7.375 Y0.173 Z0.171
X7.367 Y0.177 Z0.169
X7.368 Y0.169 Z0.167
X7.375 Y0.173 Z0.165
X7.367 Y0.177 Z0.163
X7.368 Y0.169 Z0.161
X7.375 Y0.173 Z0.16
X7.367 Y0.177 Z0.158
X7.368 Y0.169 Z0.156
X7.375 Y0.173 Z0.154
X7.367 Y0.177 Z0.152
X7.368 Y0.169 Z0.15
X7.375 Y0.173 Z0.149
X7.367 Y0.177 Z0.147
X7.368 Y0.169 Z0.145
X7.375 Y0.173 Z0.143
X7.367 Y0.177 Z0.141
X7.368 Y0.169 Z0.139
X7.375 Y0.173 Z0.138
X7.367 Y0.177 Z0.136
X7.368 Y0.169 Z0.134
X7.375 Y0.173 Z0.132
X7.367 Y0.177 Z0.13
X7.368 Y0.169 Z0.128
X7.375 Y0.173 Z0.126
X7.367 Y0.177 Z0.125
X7.368 Y0.169 Z0.123
X7.375 Y0.173 Z0.121
X7.367 Y0.177 Z0.119
X7.368 Y0.169 Z0.117
X7.375 Y0.173 Z0.115
X7.367 Y0.177 Z0.113
X7.368 Y0.169 Z0.111
X7.375 Y0.173 Z0.11
X7.367 Y0.177 Z0.108
X7.368 Y0.169 Z0.106
X7.375 Y0.173 Z0.104
X7.367 Y0.177 Z0.102
X7.368 Y0.169 Z0.1
X7.375 Y0.173 Z0.099
X7.367 Y0.177 Z0.097
X7.368 Y0.169 Z0.095
X7.375 Y0.173 Z0.093
X7.367 Y0.177 Z0.091
X7.368 Y0.169 Z0.089
X7.375 Y0.173 Z0.088
X7.367 Y0.177 Z0.086
X7.368 Y0.169 Z0.084
X7.375 Y0.173 Z0.082
X7.367 Y0.177 Z0.08
X7.368 Y0.169 Z0.078
X7.375 Y0.173 Z0.077
X7.367 Y0.177 Z0.075
X7.368 Y0.169 Z0.073
X7.375 Y0.173 Z0.071
X7.367 Y0.177 Z0.069
X7.368 Y0.169 Z0.067
X7.375 Y0.173 Z0.066
X7.367 Y0.177 Z0.064
X7.368 Y0.169 Z0.062
X7.375 Y0.173 Z0.06
X7.367 Y0.177 Z0.058
X7.368 Y0.169 Z0.056
X7.375 Y0.173 Z0.054
X7.367 Y0.177 Z0.053
X7.368 Y0.169 Z0.051
X7.375 Y0.173 Z0.049
X7.367 Y0.177 Z0.047
X7.368 Y0.169 Z0.045
X7.375 Y0.173 Z0.043
X7.367 Y0.177 Z0.041
X7.368 Y0.169 Z0.039
X7.375 Y0.173 Z0.038
X7.367 Y0.177 Z0.036
X7.368 Y0.169 Z0.034
X7.375 Y0.173 Z0.032
X7.367 Y0.177 Z0.03
X7.368 Y0.169 Z0.028
X7.375 Y0.173 Z0.027
X7.367 Y0.177 Z0.025
X7.368 Y0.169 Z0.023
X7.375 Y0.173 Z0.021
X7.367 Y0.177 Z0.019
X7.368 Y0.169 Z0.017
X7.375 Y0.173 Z0.016
X7.367 Y0.177 Z0.014
X7.368 Y0.169 Z0.012
X7.375 Y0.173 Z0.01
X7.367 Y0.177 Z0.008
X7.368 Y0.169 Z0.006
X7.375 Y0.173 Z0.005
X7.367 Y0.177 Z0.003
X7.368 Y0.169 Z0.001
X7.375 Y0.173 Z-0.001
X7.367 Y0.177 Z-0.003
X7.368 Y0.169 Z-0.005
X7.375 Y0.173 Z-0.006
X7.367 Y0.177 Z-0.008
X7.368 Y0.169 Z-0.01
X7.375 Y0.173 Z-0.012
X7.367 Y0.177 Z-0.014
X7.368 Y0.169 Z-0.016
X7.375 Y0.173 Z-0.018
X7.367 Y0.177 Z-0.02
X7.368 Y0.169 Z-0.021
X7.375 Y0.173 Z-0.023
X7.367 Y0.177 Z-0.025
X7.368 Y0.169 Z-0.027
X7.375 Y0.173 Z-0.029
X7.367 Y0.177 Z-0.031
X7.368 Y0.169 Z-0.033
X7.375 Y0.173 Z-0.034
X7.367 Y0.177 Z-0.036
X7.368 Y0.169 Z-0.038
X7.375 Y0.173 Z-0.04
X7.367 Y0.177 Z-0.042
X7.368 Y0.169 Z-0.044
X7.375 Y0.173 Z-0.045
X7.367 Y0.177 Z-0.047
X7.368 Y0.169 Z-0.049
X7.375 Y0.173 Z-0.051
X7.367 Y0.177 Z-0.053
X7.368 Y0.169 Z-0.055
X7.375 Y0.173 Z-0.056
X7.367 Y0.177 Z-0.058
X7.368 Y0.169 Z-0.06
X7.375 Y0.173 Z-0.062
X7.367 Y0.177 Z-0.064
X7.368 Y0.169 Z-0.066
X7.375 Y0.173 Z-0.067
X7.367 Y0.177 Z-0.069
X7.368 Y0.169 Z-0.071
X7.375 Y0.173 Z-0.073
X7.367 Y0.177 Z-0.075
X7.368 Y0.169 Z-0.077
X7.375 Y0.173 Z-0.078
X7.367 Y0.177 Z-0.08
X7.368 Y0.169 Z-0.082
X7.375 Y0.173 Z-0.084
X7.367 Y0.177 Z-0.086
X7.368 Y0.169 Z-0.088
X7.375 Y0.173 Z-0.09
X7.367 Y0.177 Z-0.092
X7.368 Y0.169 Z-0.093
X7.375 Y0.173 Z-0.095
X7.367 Y0.177 Z-0.097
X7.368 Y0.169 Z-0.099
X7.375 Y0.173 Z-0.101
X7.367 Y0.177 Z-0.103
X7.368 Y0.169 Z-0.105
X7.375 Y0.173 Z-0.106
X7.367 Y0.177 Z-0.108
X7.368 Y0.169 Z-0.11
X7.375 Y0.173 Z-0.112
X7.367 Y0.177 Z-0.114
X7.368 Y0.169 Z-0.116
X7.375 Y0.173 Z-0.117
X7.367 Y0.177 Z-0.119
X7.368 Y0.169 Z-0.121
X7.375 Y0.173 Z-0.123
X7.367 Y0.177 Z-0.125
X7.368 Y0.169 Z-0.127
X7.375 Y0.173 Z-0.128
X7.367 Y0.177 Z-0.13
X7.368 Y0.169 Z-0.132
X7.375 Y0.173 Z-0.134
X7.367 Y0.177 Z-0.136
X7.368 Y0.169 Z-0.138
X7.375 Y0.173 Z-0.139
X7.367 Y0.177 Z-0.141
X7.368 Y0.169 Z-0.143
X7.375 Y0.173 Z-0.145
X7.367 Y0.177 Z-0.147
X7.368 Y0.169 Z-0.149
X7.375 Y0.173 Z-0.151
X7.367 Y0.177 Z-0.152
X7.368 Y0.169 Z-0.154
X7.375 Y0.173 Z-0.156
X7.367 Y0.177 Z-0.158
X7.368 Y0.169 Z-0.16
X7.375 Y0.173 Z-0.162
X7.367 Y0.177 Z-0.164
X7.368 Y0.169 Z-0.165
X7.375 Y0.173 Z-0.167
X7.367 Y0.177 Z-0.169
X7.368 Y0.169 Z-0.171
X7.375 Y0.173 Z-0.173
X7.367 Y0.177 Z-0.175
X7.368 Y0.169 Z-0.177
X7.375 Y0.173 Z-0.178
X7.367 Y0.177 Z-0.18
X7.368 Y0.169 Z-0.182
X7.375 Y0.173 Z-0.184
X7.367 Y0.177 Z-0.186
X7.368 Y0.169 Z-0.188
X7.375 Y0.173 Z-0.189
X7.367 Y0.177 Z-0.191
X7.368 Y0.169 Z-0.193
X7.375 Y0.173 Z-0.195
X7.367 Y0.177 Z-0.197
X7.368 Y0.169 Z-0.199
X7.375 Y0.173 Z-0.2
X7.367 Y0.177 Z-0.202
X7.368 Y0.169 Z-0.204
X7.375 Y0.173 Z-0.206
X7.367 Y0.177 Z-0.208
X7.368 Y0.169 Z-0.21
X7.375 Y0.173 Z-0.211
X7.367 Y0.177 Z-0.213
X7.368 Y0.169 Z-0.215
X7.375 Y0.173 Z-0.217
X7.367 Y0.177 Z-0.219
X7.368 Y0.169 Z-0.221
X7.375 Y0.173 Z-0.223
X7.367 Y0.177 Z-0.224
X7.368 Y0.169 Z-0.226
X7.375 Y0.173 Z-0.228
X7.367 Y0.177 Z-0.23
X7.368 Y0.169 Z-0.232
X7.375 Y0.173 Z-0.234
X7.367 Y0.177 Z-0.236
X7.368 Y0.169 Z-0.238
X7.375 Y0.173 Z-0.239
X7.367 Y0.177 Z-0.241
X7.368 Y0.169 Z-0.243
X7.375 Y0.173 Z-0.245
X7.367 Y0.177 Z-0.247
X7.368 Y0.169 Z-0.249
X7.375 Y0.173 Z-0.25
X7.367 Y0.177 Z-0.252
X7.368 Y0.169 Z-0.254
X7.375 Y0.173 Z-0.256
X7.367 Y0.177 Z-0.258
X7.368 Y0.169 Z-0.26
X7.375 Y0.173 Z-0.261
X7.367 Y0.177 Z-0.263
X7.368 Y0.169 Z-0.265
X7.375 Y0.173 Z-0.267
X7.367 Y0.177 Z-0.269
X7.368 Y0.169 Z-0.271
X7.375 Y0.173 Z-0.272
X7.367 Y0.177 Z-0.274
X7.368 Y0.169 Z-0.276
X7.375 Y0.173 Z-0.278
X7.367 Y0.177 Z-0.28
X7.368 Y0.169 Z-0.282
X7.375 Y0.173 Z-0.283
X7.367 Y0.177 Z-0.285
X7.368 Y0.169 Z-0.287
X7.375 Y0.173 Z-0.289
X7.367 Y0.177 Z-0.291
X7.368 Y0.169 Z-0.293
X7.375 Y0.173 Z-0.295
X7.367 Y0.177 Z-0.296
X7.368 Y0.169 Z-0.298
X7.375 Y0.173 Z-0.3
X7.367 Y0.177 Z-0.302
X7.368 Y0.169 Z-0.304
X7.375 Y0.173 Z-0.306
X7.367 Y0.177 Z-0.308
X7.368 Y0.169 Z-0.31
X7.375 Y0.173 Z-0.311
X7.367 Y0.177 Z-0.313
X7.368 Y0.169 Z-0.315
X7.375 Y0.173 Z-0.317
X7.367 Y0.177 Z-0.319
X7.368 Y0.169 Z-0.321
X7.375 Y0.173 Z-0.322
X7.367 Y0.177 Z-0.324
X7.368 Y0.169 Z-0.326
X7.375 Y0.173 Z-0.328
X7.367 Y0.177 Z-0.33
X7.368 Y0.169 Z-0.332
X7.375 Y0.173 Z-0.333
X7.367 Y0.177 Z-0.335
X7.368 Y0.169 Z-0.337
X7.375 Y0.173 Z-0.339
X7.367 Y0.177 Z-0.341
X7.368 Y0.169 Z-0.343
X7.375 Y0.173 Z-0.344
X7.367 Y0.177 Z-0.346
X7.368 Y0.169 Z-0.348
X7.375 Y0.173 Z-0.35
X7.367 Y0.177 Z-0.352
X7.368 Y0.169 Z-0.354
X7.375 Y0.173 Z-0.355
X7.367 Y0.177 Z-0.357
X7.368 Y0.169 Z-0.359
X7.375 Y0.173 Z-0.361
X7.367 Y0.177 Z-0.363
X7.368 Y0.169 Z-0.365
X7.375 Y0.173 Z-0.367
X7.367 Y0.177 Z-0.368
X7.368 Y0.169 Z-0.37
X7.375 Y0.173 Z-0.372
X7.367 Y0.177 Z-0.374
X7.368 Y0.169 Z-0.376
X7.375 Y0.173 Z-0.378
X7.367 Y0.177 Z-0.38
X7.368 Y0.169 Z-0.382
X7.375 Y0.173 Z-0.383
X7.367 Y0.177 Z-0.385
X7.368 Y0.169 Z-0.387
X7.375 Y0.173 Z-0.389
X7.367 Y0.177 Z-0.391
X7.368 Y0.169 Z-0.393
X7.375 Y0.173 Z-0.394
X7.367 Y0.177 Z-0.396
X7.368 Y0.169 Z-0.398
X7.375 Y0.173 Z-0.4
X7.367 Y0.177 Z-0.402
X7.368 Y0.169 Z-0.404
X7.375 Y0.173 Z-0.405
X7.367 Y0.177 Z-0.407
X7.368 Y0.169 Z-0.409
X7.375 Y0.173 Z-0.411
X7.367 Y0.177 Z-0.413
X7.368 Y0.169 Z-0.415
X7.375 Y0.173 Z-0.416
X7.367 Y0.177 Z-0.418
X7.368 Y0.169 Z-0.42
X7.375 Y0.173 Z-0.422
X7.367 Y0.177 Z-0.424
X7.368 Y0.169 Z-0.426
X7.375 Y0.173 Z-0.427
X7.367 Y0.177 Z-0.429
X7.368 Y0.169 Z-0.431
X7.375 Y0.173 Z-0.433
X7.367 Y0.177 Z-0.435
X7.368 Y0.169 Z-0.437
X7.375 Y0.173 Z-0.439
X7.367 Y0.177 Z-0.441
X7.368 Y0.169 Z-0.442
X7.375 Y0.173 Z-0.444
X7.367 Y0.177 Z-0.446
X7.368 Y0.169 Z-0.448
X7.375 Y0.173 Z-0.45
X7.367 Y0.177 Z-0.452
X7.368 Y0.169 Z-0.454
X7.375 Y0.173 Z-0.455
X7.367 Y0.177 Z-0.457
X7.368 Y0.169 Z-0.459
X7.375 Y0.173 Z-0.461
X7.367 Y0.177 Z-0.463
X7.368 Y0.169 Z-0.465
X7.375 Y0.173 Z-0.466
X7.367 Y0.177 Z-0.468
X7.368 Y0.169 Z-0.47
X7.375 Y0.173 Z-0.472
X7.367 Y0.177 Z-0.474
X7.368 Y0.169 Z-0.476
X7.375 Y0.173 Z-0.477
X7.367 Y0.177 Z-0.479
X7.368 Y0.169 Z-0.481
X7.375 Y0.173 Z-0.483
X7.367 Y0.177 Z-0.485
X7.368 Y0.169 Z-0.487
X7.375 Y0.173 Z-0.488
X7.367 Y0.177 Z-0.49
X7.368 Y0.169 Z-0.492
X7.375 Y0.173 Z-0.494
X7.367 Y0.177 Z-0.496
X7.368 Y0.169 Z-0.498
X7.375 Y0.173 Z-0.499
X7.367 Y0.177 Z-0.501
X7.368 Y0.169 Z-0.503
X7.375 Y0.173 Z-0.505
X7.367 Y0.177 Z-0.507
X7.368 Y0.169 Z-0.509
X7.375 Y0.173 Z-0.511
X7.367 Y0.177 Z-0.513
X7.368 Y0.169 Z-0.514
X7.375 Y0.173 Z-0.516
X7.367 Y0.177 Z-0.518
X7.368 Y0.169 Z-0.52
X7.375 Y0.173 Z-0.522
X7.367 Y0.177 Z-0.524
X7.368 Y0.169 Z-0.526
X7.375 Y0.173 Z-0.527
X7.367 Y0.177 Z-0.529
X7.368 Y0.169 Z-0.531
X7.375 Y0.173 Z-0.533
X7.367 Y0.177 Z-0.535
X7.368 Y0.169 Z-0.537
X7.375 Y0.173 Z-0.538
X7.367 Y0.177 Z-0.54
X7.368 Y0.169 Z-0.542
X7.375 Y0.173 Z-0.544
X7.367 Y0.177 Z-0.546
X7.368 Y0.169 Z-0.548
X7.375 Y0.173 Z-0.549
X7.367 Y0.177 Z-0.551
X7.368 Y0.169 Z-0.553
X7.375 Y0.173 Z-0.555
X7.367 Y0.177 Z-0.557
X7.368 Y0.169 Z-0.559
X7.375 Y0.173 Z-0.56
X7.367 Y0.177 Z-0.562
X7.368 Y0.169 Z-0.564
X7.375 Y0.173 Z-0.566
X7.367 Y0.177 Z-0.568
X7.368 Y0.169 Z-0.57
X7.375 Y0.173 Z-0.572
X7.367 Y0.177 Z-0.573
X7.368 Y0.169 Z-0.575
X7.375 Y0.173 Z-0.577
X7.367 Y0.177 Z-0.579
X7.368 Y0.169 Z-0.581
X7.375 Y0.173 Z-0.583
X7.367 Y0.177 Z-0.585
X7.368 Y0.169 Z-0.586
X7.375 Y0.173 Z-0.588
X7.367 Y0.177 Z-0.59
X7.368 Y0.169 Z-0.592
X7.375 Y0.173 Z-0.594
X7.367 Y0.177 Z-0.596
X7.368 Y0.169 Z-0.598
X7.375 Y0.173 Z-0.599
X7.367 Y0.177 Z-0.601
X7.368 Y0.169 Z-0.603
X7.375 Y0.173 Z-0.605
X7.367 Y0.177 Z-0.607
X7.368 Y0.169 Z-0.609
X7.375 Y0.173 Z-0.61
X7.367 Y0.177 Z-0.612
X7.368 Y0.169 Z-0.614
X7.375 Y0.173 Z-0.616
X7.367 Y0.177 Z-0.618
X7.368 Y0.169 Z-0.62
X7.375 Y0.173 Z-0.621
X7.367 Y0.177 Z-0.623
X7.368 Y0.169 Z-0.625
X7.375 Y0.173 Z-0.627
X7.367 Y0.177 Z-0.629
X7.368 Y0.169 Z-0.631
X7.375 Y0.173 Z-0.632
X7.367 Y0.177 Z-0.634
X7.368 Y0.169 Z-0.636
X7.375 Y0.173 Z-0.638
X7.367 Y0.177 Z-0.64
X7.368 Y0.169 Z-0.642
X7.375 Y0.173 Z-0.644
X7.367 Y0.177 Z-0.645
X7.368 Y0.169 Z-0.647
X7.375 Y0.173 Z-0.649
X7.367 Y0.177 Z-0.651
X7.368 Y0.169 Z-0.653
X7.375 Y0.173 Z-0.655
X7.367 Y0.177 Z-0.657
X7.368 Y0.169 Z-0.659
X7.375 Y0.173 Z-0.66
X7.367 Y0.177 Z-0.662
X7.368 Y0.169 Z-0.664
X7.375 Y0.173 Z-0.666
X7.367 Y0.177 Z-0.668
X7.368 Y0.169 Z-0.67
X7.375 Y0.173 Z-0.671
X7.367 Y0.177 Z-0.673
X7.368 Y0.169 Z-0.675
X7.375 Y0.173 Z-0.677
X7.367 Y0.177 Z-0.679
X7.368 Y0.169 Z-0.681
X7.375 Y0.173 Z-0.682
X7.367 Y0.177 Z-0.684
X7.368 Y0.169 Z-0.686
X7.375 Y0.173 Z-0.688
X7.367 Y0.177 Z-0.69
X7.368 Y0.169 Z-0.692
X7.375 Y0.173 Z-0.693
X7.367 Y0.177 Z-0.695
X7.368 Y0.169 Z-0.697
X7.375 Y0.173 Z-0.699
X7.367 Y0.177 Z-0.701
X7.368 Y0.169 Z-0.703
X7.375 Y0.173 Z-0.704
X7.367 Y0.177 Z-0.706
X7.368 Y0.169 Z-0.708
X7.375 Y0.173 Z-0.71
X7.367 Y0.177 Z-0.712
X7.368 Y0.169 Z-0.714
X7.375 Y0.173 Z-0.716
X7.367 Y0.177 Z-0.717
X7.368 Y0.169 Z-0.719
X7.375 Y0.173 Z-0.721
X7.367 Y0.177 Z-0.723
X7.368 Y0.169 Z-0.725
X7.375 Y0.173 Z-0.727
X7.367 Y0.177 Z-0.729
X7.368 Y0.169 Z-0.731
X7.375 Y0.173 Z-0.732
X7.367 Y0.177 Z-0.734
X7.368 Y0.169 Z-0.736
X7.375 Y0.173 Z-0.738
X7.367 Y0.177 Z-0.74
X7.368 Y0.169 Z-0.742
X7.375 Y0.173 Z-0.743
X7.367 Y0.177 Z-0.745
X7.368 Y0.169 Z-0.747
X7.375 Y0.173 Z-0.749
X7.367 Y0.177 Z-0.751
X7.368 Y0.169 Z-0.753
X7.375 Y0.173 Z-0.754
X7.367 Y0.177 Z-0.756
X7.368 Y0.169 Z-0.758
X7.375 Y0.173 Z-0.76
X7.367 Y0.177 Z-0.762
X7.368 Y0.169 Z-0.764
X7.375 Y0.173 Z-0.765
X7.367 Y0.177 Z-0.767
X7.368 Y0.169 Z-0.769
X7.375 Y0.173 Z-0.771
X7.367 Y0.177 Z-0.773
X7.368 Y0.169 Z-0.775
X7.375 Y0.173 Z-0.776
X7.367 Y0.177 Z-0.778
X7.368 Y0.169 Z-0.78
X7.375 Y0.173 Z-0.782
X7.367 Y0.177 Z-0.784
X7.368 Y0.169 Z-0.786
X7.375 Y0.173 Z-0.788
X7.367 Y0.177 Z-0.789
X7.368 Y0.169 Z-0.791
X7.375 Y0.173 Z-0.793
X7.367 Y0.177 Z-0.795
X7.368 Y0.169 Z-0.797
X7.375 Y0.173 Z-0.799
X7.367 Y0.177 Z-0.801
X7.368 Y0.169 Z-0.803
X7.375 Y0.173 Z-0.804
X7.367 Y0.177 Z-0.806
X7.368 Y0.169 Z-0.808
X7.375 Y0.173 Z-0.81
X7.367 Y0.177 Z-0.812
X7.368 Y0.169 Z-0.814
X7.375 Y0.173 Z-0.815
X7.367 Y0.177 Z-0.817
X7.368 Y0.169 Z-0.819
X7.375 Y0.173 Z-0.821
X7.367 Y0.177 Z-0.823
X7.368 Y0.169 Z-0.825
X7.375 Y0.173 Z-0.826
X7.367 Y0.177 Z-0.828
X7.368 Y0.169 Z-0.83
X7.375 Y0.173 Z-0.832
X7.367 Y0.177 Z-0.834
X7.368 Y0.169 Z-0.836
X7.375 Y0.173 Z-0.837
X7.367 Y0.177 Z-0.839
X7.368 Y0.169 Z-0.841
X7.375 Y0.173 Z-0.843
X7.367 Y0.177 Z-0.845
X7.368 Y0.169 Z-0.847
X7.375 Y0.173 Z-0.848
X7.367 Y0.177 Z-0.85
X7.368 Y0.169 Z-0.852
X7.375 Y0.173 Z-0.854
X7.367 Y0.177 Z-0.856
X7.368 Y0.169 Z-0.858
X7.375 Y0.173 Z-0.86
X7.367 Y0.177 Z-0.862
X7.368 Y0.169 Z-0.863
X7.375 Y0.173 Z-0.865
X7.367 Y0.177 Z-0.867
X7.368 Y0.169 Z-0.869
X7.375 Y0.173 Z-0.871
X7.367 Y0.177 Z-0.873
X7.368 Y0.169 Z-0.875
X7.375 Y0.173 Z-0.876
X7.367 Y0.177 Z-0.878
X7.368 Y0.169 Z-0.88
X7.375 Y0.173 Z-0.882
X7.367 Y0.177 Z-0.884
X7.368 Y0.169 Z-0.886
X7.375 Y0.173 Z-0.887
X7.367 Y0.177 Z-0.889
X7.368 Y0.169 Z-0.891
X7.375 Y0.173 Z-0.893
X7.367 Y0.177 Z-0.895
X7.368 Y0.169 Z-0.897
X7.375 Y0.173 Z-0.898
X7.367 Y0.177 Z-0.9
X7.368 Y0.169 Z-0.902
X7.375 Y0.173 Z-0.904
X7.367 Y0.177 Z-0.906
X7.368 Y0.169 Z-0.908
X7.375 Y0.173 Z-0.909
X7.367 Y0.177 Z-0.911
X7.368 Y0.169 Z-0.913
X7.375 Y0.173 Z-0.915
X7.367 Y0.177 Z-0.917
X7.368 Y0.169 Z-0.919
X7.375 Y0.173 Z-0.92
X7.367 Y0.177 Z-0.922
X7.368 Y0.169 Z-0.924
X7.375 Y0.173 Z-0.926
X7.367 Y0.177 Z-0.928
X7.368 Y0.169 Z-0.93
X7.375 Y0.173 Z-0.932
X7.367 Y0.177 Z-0.934
X7.368 Y0.169 Z-0.935
X7.375 Y0.173 Z-0.937
X7.367 Y0.177 Z-0.939
X7.368 Y0.169 Z-0.941
X7.375 Y0.173 Z-0.943
X7.367 Y0.177 Z-0.945
X7.368 Y0.169 Z-0.947
X7.375 Y0.173 Z-0.948
X7.367 Y0.177 Z-0.95
X7.368 Y0.169 Z-0.952
X7.375 Y0.173 Z-0.954
X7.367 Y0.177 Z-0.956
X7.368 Y0.169 Z-0.958
X7.375 Y0.173 Z-0.959
X7.367 Y0.177 Z-0.961
X7.368 Y0.169 Z-0.963
X7.375 Y0.173 Z-0.965
X7.367 Y0.177 Z-0.967
X7.368 Y0.169 Z-0.969
X7.375 Y0.173 Z-0.97
X7.367 Y0.177 Z-0.972
X7.368 Y0.169 Z-0.974
X7.375 Y0.173 Z-0.976
X7.367 Y0.177 Z-0.978
X7.368 Y0.169 Z-0.98
X7.375 Y0.173 Z-0.981
X7.367 Y0.177 Z-0.983
X7.368 Y0.169 Z-0.985
X7.375 Y0.173 Z-0.987
X7.367 Y0.177 Z-0.989
X7.368 Y0.169 Z-0.991
X7.375 Y0.173 Z-0.993
X7.367 Y0.177 Z-0.994
X7.368 Y0.169 Z-0.996
X7.375 Y0.173 Z-0.998
X7.367 Y0.177 Z-1.
G3 X7.633 Y-0.177 R0.222
X7.367 Y0.177 R0.222
G2 X5.926 Y-0.082 R1.631
G3 X4.974 Y-1.194 R0.802
X7.837 Y-2.777 R2.801
X9.725 Y-1.655 R2.731
X10.46 Y0.414 R3.973
X9.513 Y2.206 R1.948
X6.76 Y2.63 R3.71
X4.784 Y0.666 R2.664
X4.974 Y-1.194 R2.801
G2 X4.831 Y-3.086 R1.916
G3 X5.361 Y-4.908 R1.234
X11.911 Y-3.036 R5.358
X12.839 Y-0.615 R5.541
X13.123 Y1.962 R64.319
X12.282 Y3.544 R1.639
X9.391 Y4.947 R30.838
X6.188 Y5.193 R5.062
X3.1 Y-3.053 R5.351
X5.361 Y-4.908 R5.358
G2 X6.516 Y-6.529 R1.933
G3 X8.022 Y-7.831 R1.416
X14.838 Y-2.786 R7.852
X15.483 Y0.36 R10.144
G2 X15.856 Y3.549 R21.874
G3 X15.147 Y4.897 R1.22
G2 X11.449 Y6.776 R35.824
G3 X7.442 Y7.849 R7.873
X5.635 Y-7.625 R7.847
X8.022 Y-7.831 R7.852
G2 X9.768 Y-8.756 R1.877
G3 X11.648 Y-9.362 R1.483
X17.076 Y-3.631 R10.245
X17.622 Y-1.301 R9.17
X17.814 Y1.085 R62.573
G2 X18.151 Y3.187 R10.916
X18.755 Y5.229 R34.212
G3 X18.158 Y6.351 R0.879
G2 X12.929 Y8.671 R19.987
G3 X7.429 Y10.24 R10.237
X5.067 Y-9.948 R10.239
X11.648 Y-9.362 R10.245
G2 X13.516 Y-9.635 R1.772
G3 X15.404 Y-9.655 R1.472
X19.891 Y-1.474 R12.479
X20.111 Y1.099 R36.808
G2 X20.497 Y3.654 R13.005
X21.147 Y5.438 R9.514
X22.031 Y7.119 R27.176
G3 X21.569 Y7.988 R0.582
G2 X18.64 Y8.467 R17.254
X15.869 Y9.532 R12.529
X13.236 Y10.999 R67.092
G3 X10.441 Y12.127 R10.295
X1.732 Y-11.065 R12.48
X15.404 Y-9.655 R12.479
G2 X17.087 Y-9.456 R1.574
G3 X18.74 Y-9.085 R1.363
X21.851 Y-1.712 R14.454
X22.213 Y1.806 R97.58
G2 X23.121 Y5.224 R10.126
X24.573 Y7.511 R10.426
X26.478 Y9.438 R16.173
G3 X25.995 Y10.349 R0.528
G2 X21.304 Y9.935 R13.2
X16.789 Y11.276 R12.02
X13.933 Y12.845 R97.896
G3 X10.904 Y14.047 R11.586
X0.819 Y-12.816 R14.455
X18.74 Y-9.085 R14.454
G2 X20.484 Y-8.505 R1.704
G3 X22.164 Y-7.759 R1.488
X23.016 Y-5.875 R16.599
X23.824 Y-2.631 R14.291
X24.137 Y0.698 R51.037
G2 X25.317 Y4.718 R9.419
X28.004 Y7.932 R11.295
G3 X28.835 Y9.69 R2.275
G1 Y13.06
G3 X28.02 Y13.518 R0.536
G2 X24.069 Y12.071 R10.804
X19.869 Y12.314 R9.964
X17.43 Y13.403 R8.956
G3 X15.117 Y14.739 R29.082
X-3.488 Y-12.431 R16.589
X22.164 Y-7.759 R16.599
G2 X23.63 Y-6.937 R1.551
G3 X25.027 Y-6.003 R1.387
X25.497 Y-4.401 R18.529
X26.14 Y0.325 R22.82
G2 X27.634 Y4.853 R8.398
X28.62 Y5.955 R5.997
X29.792 Y6.857 R12.117
G3 X30.768 Y8.696 R2.221
G1 Y17.493
G3 X30.001 Y17.811 R0.449
X28.131 Y15.933 R468.753
G2 X25.919 Y14.473 R6.456
X22.353 Y13.855 R8.877
X18.855 Y14.784 R8.076
X16.462 Y16.149 R42.585
G3 X13.987 Y17.357 R14.316
X-2.997 Y-15.268 R18.529
X25.027 Y-6.003 R18.529
G2 X26.366 Y-4.915 R1.629
G3 X27.614 Y-3.723 R1.448
X28.099 Y0.455 R38.635
G2 X29.246 Y3.594 R5.86
X31.847 Y5.694 R6.701
G3 X32.804 Y7.181 R1.634
G1 Y19.753
G3 X31.841 Y20.717 R0.963
G1 X30.734
G3 X29.531 Y20.219 R1.703
X27.007 Y17.644 R167.576
G2 X23.811 Y15.974 R5.651
X19.384 Y16.816 R6.668
G3 X14.819 Y19.127 R37.101
X9.871 Y20.431 R18.058
X0.265 Y-19.253 R20.568
X25.732 Y-9.518 R20.555
X27.442 Y-4.657 R18.007
X27.614 Y-3.723 R38.635
G2 X29.023 Y-2.211 R1.884
G3 X30.366 Y-0.641 R1.771
X30.435 Y0.312 R40.513
G2 X31.653 Y2.837 R3.703
X34.233 Y3.934 R4.308
G3 X35.145 Y4.912 R0.98
G1 Y22.094
G3 X34.181 Y23.057 R0.963
G1 X30.318
G3 X28.171 Y22.169 R3.039
X25.798 Y19.601 R43.628
G2 X22.584 Y18.225 R3.937
X21.547 Y18.404 R4.537
X20.583 Y18.827 R4.226
G3 X15.57 Y21.347 R39.076
X10.141 Y22.76 R20.201
X-0.561 Y-21.448 R22.913
X27.809 Y-10.605 R22.899
X29.699 Y-5.285 R20.141
X30.366 Y-0.641 R40.513
G2 X32.829 Y1.601 R2.45
G3 X36.16 Y1.585 R400.921
G1 X37.5 Y1.584
Y25.413
X28.086
X23.783 Y21.115
G2 X23.658 Y21.014 R0.794
G1 X23.536 Y20.934
G2 X23.392 Y20.859 R0.794
G1 X23.225 Y20.793
G2 X23.057 Y20.747 R0.794
G1 X22.89 Y20.72
G2 X22.722 Y20.712 R0.794
G1 X22.555 Y20.721
G2 X22.387 Y20.749 R0.794
G1 X22.22 Y20.795
G2 X22.061 Y20.858 R0.794
G1 X21.894 Y20.946
G2 X21.858 Y20.966 R0.794
G1 X19.172 Y22.568
X16.395 Y23.802
X13.474 Y24.697
X10.429 Y25.239
X7.352 Y25.407
X4.33 Y25.211
X1.303 Y24.642
X-1.607 Y23.721
X-4.404 Y22.448
X-7.005 Y20.862
X-9.41 Y18.964
X-11.589 Y16.769
X-13.478 Y14.335
X-15.043 Y11.722
X-16.29 Y8.926
X-17.19 Y6.005
X-17.734 Y2.976
X-17.907 Y-0.109
X-17.715 Y-3.137
X-17.149 Y-6.167
X-16.228 Y-9.088
X-14.958 Y-11.884
X-13.367 Y-14.497
X-11.463 Y-16.911
X-9.323 Y-19.041
X-6.895 Y-20.939
X-4.244 Y-22.531
X-1.44 Y-23.783
X1.469 Y-24.683
X4.491 Y-25.23
X7.568 Y-25.408
X10.59 Y-25.221
X13.613 Y-24.663
X16.569 Y-23.734
X19.341 Y-22.481
X21.966 Y-20.889
X24.364 Y-19.007
X26.532 Y-16.835
X28.437 Y-14.395
X30.021 Y-11.761
X31.265 Y-8.99
X32.18 Y-6.036
X32.727 Y-3.029
X32.922 Y0.16
G2 X32.945 Y0.307 R0.794
G1 X32.987 Y0.474
G2 X33.037 Y0.613 R0.794
G1 X33.089 Y0.724
G2 X33.156 Y0.842 R0.794
G1 X33.241 Y0.964
G2 X33.342 Y1.083 R0.794
G1 X33.459 Y1.196
G2 X33.575 Y1.288 R0.794
G1 X33.686 Y1.361
G2 X33.824 Y1.434 R0.794
G1 X33.991 Y1.501
G2 X34.159 Y1.548 R0.794
G1 X34.326 Y1.576
G2 X34.455 Y1.586 R0.794
G1 X36.16 Y1.585
X27.377 Y11.71 Z-3.
X27.194 Y11.527
G3 X27.509 Y10.777 R0.439
G1 X27.781 Y10.778
G3 X28.31 Y11.306 R0.528
G1 Y11.559
G3 X27.543 Y11.876 R0.449
G1 X27.377 Y11.71
G3 X27.353 Y11.669 Z-2.987 R0.097
X27.349 Y11.634 Z-2.951 R0.097
X27.351 Y11.621 Z-2.903 R0.097
G0 Z5.
X13.027 Y20.208
Z1.131
G1 X13.028 Y20.21 Z1.118 F762.
X13.023 Y20.215 Z1.108
X13.018 Y20.209 Z1.102
X13.023 Y20.205 Z1.1
X13.027 Y20.207 Z1.099
X13.023 Y20.215 Z1.097
X13.018 Y20.209 Z1.096
X13.027 Y20.207 Z1.094
X13.023 Y20.215 Z1.092
X13.018 Y20.209 Z1.09
X13.027 Y20.207 Z1.088
X13.023 Y20.215 Z1.086
X13.018 Y20.209 Z1.085
X13.027 Y20.207 Z1.083
X13.023 Y20.215 Z1.081
X13.018 Y20.209 Z1.079
X13.027 Y20.207 Z1.077
X13.023 Y20.215 Z1.075
X13.018 Y20.209 Z1.073
X13.027 Y20.207 Z1.072
X13.023 Y20.215 Z1.07
X13.018 Y20.209 Z1.068
X13.027 Y20.207 Z1.066
X13.023 Y20.215 Z1.064
X13.018 Y20.209 Z1.062
X13.027 Y20.207 Z1.06
X13.023 Y20.215 Z1.058
X13.018 Y20.209 Z1.057
X13.027 Y20.207 Z1.055
X13.023 Y20.215 Z1.053
X13.018 Y20.209 Z1.051
X13.027 Y20.207 Z1.049
X13.023 Y20.215 Z1.047
X13.018 Y20.209 Z1.046
X13.027 Y20.207 Z1.044
X13.023 Y20.215 Z1.042
X13.018 Y20.209 Z1.04
X13.027 Y20.207 Z1.038
X13.023 Y20.215 Z1.036
X13.018 Y20.209 Z1.035
X13.027 Y20.207 Z1.033
X13.023 Y20.215 Z1.031
X13.018 Y20.209 Z1.029
X13.027 Y20.207 Z1.027
X13.023 Y20.215 Z1.025
X13.018 Y20.209 Z1.024
X13.027 Y20.207 Z1.022
X13.023 Y20.215 Z1.02
X13.018 Y20.209 Z1.018
X13.027 Y20.207 Z1.016
X13.023 Y20.215 Z1.014
X13.018 Y20.209 Z1.013
X13.027 Y20.207 Z1.011
X13.023 Y20.215 Z1.009
X13.018 Y20.209 Z1.007
X13.027 Y20.207 Z1.005
X13.023 Y20.215 Z1.003
X13.018 Y20.209 Z1.001
X13.027 Y20.207 Z1.
X13.023 Y20.215 Z0.998
X13.018 Y20.209 Z0.996
X13.027 Y20.207 Z0.994
X13.023 Y20.215 Z0.992
X13.018 Y20.209 Z0.99
X13.027 Y20.207 Z0.988
X13.023 Y20.215 Z0.986
X13.018 Y20.209 Z0.985
X13.027 Y20.207 Z0.983
X13.023 Y20.215 Z0.981
X13.018 Y20.209 Z0.979
X13.027 Y20.207 Z0.977
X13.023 Y20.215 Z0.975
X13.018 Y20.209 Z0.974
X13.027 Y20.207 Z0.972
X13.023 Y20.215 Z0.97
X13.018 Y20.209 Z0.968
X13.027 Y20.207 Z0.966
X13.023 Y20.215 Z0.964
X13.018 Y20.209 Z0.963
X13.027 Y20.207 Z0.961
X13.023 Y20.215 Z0.959
X13.018 Y20.209 Z0.957
X13.027 Y20.207 Z0.955
X13.023 Y20.215 Z0.953
X13.018 Y20.209 Z0.952
X13.027 Y20.207 Z0.95
X13.023 Y20.215 Z0.948
X13.018 Y20.209 Z0.946
X13.027 Y20.207 Z0.944
X13.023 Y20.215 Z0.942
X13.018 Y20.209 Z0.941
X13.027 Y20.207 Z0.939
X13.023 Y20.215 Z0.937
X13.018 Y20.209 Z0.935
X13.027 Y20.207 Z0.933
X13.023 Y20.215 Z0.931
X13.018 Y20.209 Z0.929
X13.027 Y20.207 Z0.927
X13.023 Y20.215 Z0.926
X13.018 Y20.209 Z0.924
X13.027 Y20.207 Z0.922
X13.023 Y20.215 Z0.92
X13.018 Y20.209 Z0.918
X13.027 Y20.207 Z0.916
X13.023 Y20.215 Z0.914
X13.018 Y20.209 Z0.913
X13.027 Y20.207 Z0.911
X13.023 Y20.215 Z0.909
X13.018 Y20.209 Z0.907
X13.027 Y20.207 Z0.905
X13.023 Y20.215 Z0.903
X13.018 Y20.209 Z0.902
X13.027 Y20.207 Z0.9
X13.023 Y20.215 Z0.898
X13.018 Y20.209 Z0.896
X13.027 Y20.207 Z0.894
X13.023 Y20.215 Z0.892
X13.018 Y20.209 Z0.891
X13.027 Y20.207 Z0.889
X13.023 Y20.215 Z0.887
X13.018 Y20.209 Z0.885
X13.027 Y20.207 Z0.883
X13.023 Y20.215 Z0.881
X13.018 Y20.209 Z0.88
X13.027 Y20.207 Z0.878
X13.023 Y20.215 Z0.876
X13.018 Y20.209 Z0.874
X13.027 Y20.207 Z0.872
X13.023 Y20.215 Z0.87
X13.018 Y20.209 Z0.869
X13.027 Y20.207 Z0.867
X13.023 Y20.215 Z0.865
X13.018 Y20.209 Z0.863
X13.027 Y20.207 Z0.861
X13.023 Y20.215 Z0.859
X13.018 Y20.209 Z0.857
X13.027 Y20.207 Z0.855
X13.023 Y20.215 Z0.854
X13.018 Y20.209 Z0.852
X13.027 Y20.207 Z0.85
X13.023 Y20.215 Z0.848
X13.018 Y20.209 Z0.846
X13.027 Y20.207 Z0.844
X13.023 Y20.215 Z0.842
X13.018 Y20.209 Z0.841
X13.027 Y20.207 Z0.839
X13.023 Y20.215 Z0.837
X13.018 Y20.209 Z0.835
X13.027 Y20.207 Z0.833
X13.023 Y20.215 Z0.831
X13.018 Y20.209 Z0.83
X13.027 Y20.207 Z0.828
X13.023 Y20.215 Z0.826
X13.018 Y20.209 Z0.824
X13.027 Y20.207 Z0.822
X13.023 Y20.215 Z0.82
X13.018 Y20.209 Z0.819
X13.027 Y20.207 Z0.817
X13.023 Y20.215 Z0.815
X13.018 Y20.209 Z0.813
X13.027 Y20.207 Z0.811
X13.023 Y20.215 Z0.809
X13.018 Y20.209 Z0.808
X13.027 Y20.207 Z0.806
X13.023 Y20.215 Z0.804
X13.018 Y20.209 Z0.802
X13.027 Y20.207 Z0.8
X13.023 Y20.215 Z0.798
X13.018 Y20.209 Z0.796
X13.027 Y20.207 Z0.795
X13.023 Y20.215 Z0.793
X13.018 Y20.209 Z0.791
X13.027 Y20.207 Z0.789
X13.023 Y20.215 Z0.787
X13.018 Y20.209 Z0.785
X13.027 Y20.207 Z0.783
X13.023 Y20.215 Z0.782
X13.018 Y20.209 Z0.78
X13.027 Y20.207 Z0.778
X13.023 Y20.215 Z0.776
X13.018 Y20.209 Z0.774
X13.027 Y20.207 Z0.772
X13.023 Y20.215 Z0.77
X13.018 Y20.209 Z0.769
X13.027 Y20.207 Z0.767
X13.023 Y20.215 Z0.765
X13.018 Y20.209 Z0.763
X13.027 Y20.207 Z0.761
X13.023 Y20.215 Z0.759
X13.018 Y20.209 Z0.758
X13.027 Y20.207 Z0.756
X13.023 Y20.215 Z0.754
X13.018 Y20.209 Z0.752
X13.027 Y20.207 Z0.75
X13.023 Y20.215 Z0.748
X13.018 Y20.209 Z0.747
X13.027 Y20.207 Z0.745
X13.023 Y20.215 Z0.743
X13.018 Y20.209 Z0.741
X13.027 Y20.207 Z0.739
X13.023 Y20.215 Z0.737
X13.018 Y20.209 Z0.736
X13.027 Y20.207 Z0.734
X13.023 Y20.215 Z0.732
X13.018 Y20.209 Z0.73
X13.027 Y20.207 Z0.728
X13.023 Y20.215 Z0.726
X13.018 Y20.209 Z0.724
X13.027 Y20.207 Z0.723
X13.023 Y20.215 Z0.721
X13.018 Y20.209 Z0.719
X13.027 Y20.207 Z0.717
X13.023 Y20.215 Z0.715
X13.018 Y20.209 Z0.713
X13.027 Y20.207 Z0.711
X13.023 Y20.215 Z0.709
X13.018 Y20.209 Z0.708
X13.027 Y20.207 Z0.706
X13.023 Y20.215 Z0.704
X13.018 Y20.209 Z0.702
X13.027 Y20.207 Z0.7
X13.023 Y20.215 Z0.698
X13.018 Y20.209 Z0.697
X13.027 Y20.207 Z0.695
X13.023 Y20.215 Z0.693
X13.018 Y20.209 Z0.691
X13.027 Y20.207 Z0.689
X13.023 Y20.215 Z0.687
X13.018 Y20.209 Z0.686
X13.027 Y20.207 Z0.684
X13.023 Y20.215 Z0.682
X13.018 Y20.209 Z0.68
X13.027 Y20.207 Z0.678
X13.023 Y20.215 Z0.676
X13.018 Y20.209 Z0.675
X13.027 Y20.207 Z0.673
X13.023 Y20.215 Z0.671
X13.018 Y20.209 Z0.669
X13.027 Y20.207 Z0.667
X13.023 Y20.215 Z0.665
X13.018 Y20.209 Z0.664
X13.027 Y20.207 Z0.662
X13.023 Y20.215 Z0.66
X13.018 Y20.209 Z0.658
X13.027 Y20.207 Z0.656
X13.023 Y20.215 Z0.654
X13.018 Y20.209 Z0.652
X13.027 Y20.207 Z0.651
X13.023 Y20.215 Z0.649
X13.018 Y20.209 Z0.647
X13.027 Y20.207 Z0.645
X13.023 Y20.215 Z0.643
X13.018 Y20.209 Z0.641
X13.027 Y20.207 Z0.639
X13.023 Y20.215 Z0.637
X13.018 Y20.209 Z0.636
X13.027 Y20.207 Z0.634
X13.023 Y20.215 Z0.632
X13.018 Y20.209 Z0.63
X13.027 Y20.207 Z0.628
X13.023 Y20.215 Z0.626
X13.018 Y20.209 Z0.625
X13.027 Y20.207 Z0.623
X13.023 Y20.215 Z0.621
X13.018 Y20.209 Z0.619
X13.027 Y20.207 Z0.617
X13.023 Y20.215 Z0.615
X13.018 Y20.209 Z0.614
X13.027 Y20.207 Z0.612
X13.023 Y20.215 Z0.61
X13.018 Y20.209 Z0.608
X13.027 Y20.207 Z0.606
X13.023 Y20.215 Z0.604
X13.018 Y20.209 Z0.603
X13.027 Y20.207 Z0.601
X13.023 Y20.215 Z0.599
X13.018 Y20.209 Z0.597
X13.027 Y20.207 Z0.595
X13.023 Y20.215 Z0.593
X13.018 Y20.209 Z0.592
X13.027 Y20.207 Z0.59
X13.023 Y20.215 Z0.588
X13.018 Y20.209 Z0.586
X13.027 Y20.207 Z0.584
X13.023 Y20.215 Z0.582
X13.018 Y20.209 Z0.58
X13.027 Y20.207 Z0.579
X13.023 Y20.215 Z0.577
X13.018 Y20.209 Z0.575
X13.027 Y20.207 Z0.573
X13.023 Y20.215 Z0.571
X13.018 Y20.209 Z0.569
X13.027 Y20.207 Z0.567
X13.023 Y20.215 Z0.565
X13.018 Y20.209 Z0.564
X13.027 Y20.207 Z0.562
X13.023 Y20.215 Z0.56
X13.018 Y20.209 Z0.558
X13.027 Y20.207 Z0.556
X13.023 Y20.215 Z0.554
X13.018 Y20.209 Z0.553
X13.027 Y20.207 Z0.551
X13.023 Y20.215 Z0.549
X13.018 Y20.209 Z0.547
X13.027 Y20.207 Z0.545
X13.023 Y20.215 Z0.543
X13.018 Y20.209 Z0.542
X13.027 Y20.207 Z0.54
X13.023 Y20.215 Z0.538
X13.018 Y20.209 Z0.536
X13.027 Y20.207 Z0.534
X13.023 Y20.215 Z0.532
X13.018 Y20.209 Z0.531
X13.027 Y20.207 Z0.529
X13.023 Y20.215 Z0.527
X13.018 Y20.209 Z0.525
X13.027 Y20.207 Z0.523
X13.023 Y20.215 Z0.521
X13.018 Y20.209 Z0.52
X13.027 Y20.207 Z0.518
X13.023 Y20.215 Z0.516
X13.018 Y20.209 Z0.514
X13.027 Y20.207 Z0.512
X13.023 Y20.215 Z0.51
X13.018 Y20.209 Z0.508
X13.027 Y20.207 Z0.506
X13.023 Y20.215 Z0.505
X13.018 Y20.209 Z0.503
X13.027 Y20.207 Z0.501
X13.023 Y20.215 Z0.499
X13.018 Y20.209 Z0.497
X13.027 Y20.207 Z0.495
X13.023 Y20.215 Z0.493
X13.018 Y20.209 Z0.492
X13.027 Y20.207 Z0.49
X13.023 Y20.215 Z0.488
X13.018 Y20.209 Z0.486
X13.027 Y20.207 Z0.484
X13.023 Y20.215 Z0.482
X13.018 Y20.209 Z0.481
X13.027 Y20.207 Z0.479
X13.023 Y20.215 Z0.477
X13.018 Y20.209 Z0.475
X13.027 Y20.207 Z0.473
X13.023 Y20.215 Z0.471
X13.018 Y20.209 Z0.47
X13.027 Y20.207 Z0.468
X13.023 Y20.215 Z0.466
X13.018 Y20.209 Z0.464
X13.027 Y20.207 Z0.462
X13.023 Y20.215 Z0.46
X13.018 Y20.209 Z0.459
X13.027 Y20.207 Z0.457
X13.023 Y20.215 Z0.455
X13.018 Y20.209 Z0.453
X13.027 Y20.207 Z0.451
X13.023 Y20.215 Z0.449
X13.018 Y20.209 Z0.448
X13.027 Y20.207 Z0.446
X13.023 Y20.215 Z0.444
X13.018 Y20.209 Z0.442
X13.027 Y20.207 Z0.44
X13.023 Y20.215 Z0.438
X13.018 Y20.209 Z0.436
X13.027 Y20.207 Z0.434
X13.023 Y20.215 Z0.433
X13.018 Y20.209 Z0.431
X13.027 Y20.207 Z0.429
X13.023 Y20.215 Z0.427
X13.018 Y20.209 Z0.425
X13.027 Y20.207 Z0.423
X13.023 Y20.215 Z0.421
X13.018 Y20.209 Z0.42
X13.027 Y20.207 Z0.418
X13.023 Y20.215 Z0.416
X13.018 Y20.209 Z0.414
X13.027 Y20.207 Z0.412
X13.023 Y20.215 Z0.41
X13.018 Y20.209 Z0.409
X13.027 Y20.207 Z0.407
X13.023 Y20.215 Z0.405
X13.018 Y20.209 Z0.403
X13.027 Y20.207 Z0.401
X13.023 Y20.215 Z0.399
X13.018 Y20.209 Z0.398
X13.027 Y20.207 Z0.396
X13.023 Y20.215 Z0.394
X13.018 Y20.209 Z0.392
X13.027 Y20.207 Z0.39
X13.023 Y20.215 Z0.388
X13.018 Y20.209 Z0.387
X13.027 Y20.207 Z0.385
X13.023 Y20.215 Z0.383
X13.018 Y20.209 Z0.381
X13.027 Y20.207 Z0.379
X13.023 Y20.215 Z0.377
X13.018 Y20.209 Z0.375
X13.027 Y20.207 Z0.374
X13.023 Y20.215 Z0.372
X13.018 Y20.209 Z0.37
X13.027 Y20.207 Z0.368
X13.023 Y20.215 Z0.366
X13.018 Y20.209 Z0.364
X13.027 Y20.207 Z0.362
X13.023 Y20.215 Z0.361
X13.018 Y20.209 Z0.359
X13.027 Y20.207 Z0.357
X13.023 Y20.215 Z0.355
X13.018 Y20.209 Z0.353
X13.027 Y20.207 Z0.351
X13.023 Y20.215 Z0.349
X13.018 Y20.209 Z0.348
X13.027 Y20.207 Z0.346
X13.023 Y20.215 Z0.344
X13.018 Y20.209 Z0.342
X13.027 Y20.207 Z0.34
X13.023 Y20.215 Z0.338
X13.018 Y20.209 Z0.337
X13.027 Y20.207 Z0.335
X13.023 Y20.215 Z0.333
X13.018 Y20.209 Z0.331
X13.027 Y20.207 Z0.329
X13.023 Y20.215 Z0.327
X13.018 Y20.209 Z0.326
X13.027 Y20.207 Z0.324
X13.023 Y20.215 Z0.322
X13.018 Y20.209 Z0.32
X13.027 Y20.207 Z0.318
X13.023 Y20.215 Z0.316
X13.018 Y20.209 Z0.315
X13.027 Y20.207 Z0.313
X13.023 Y20.215 Z0.311
X13.018 Y20.209 Z0.309
X13.027 Y20.207 Z0.307
X13.023 Y20.215 Z0.305
X13.018 Y20.209 Z0.303
X13.027 Y20.207 Z0.302
X13.023 Y20.215 Z0.3
X13.018 Y20.209 Z0.298
X13.027 Y20.207 Z0.296
X13.023 Y20.215 Z0.294
X13.018 Y20.209 Z0.292
X13.027 Y20.207 Z0.29
X13.023 Y20.215 Z0.288
X13.018 Y20.209 Z0.287
X13.027 Y20.207 Z0.285
X13.023 Y20.215 Z0.283
X13.018 Y20.209 Z0.281
X13.027 Y20.207 Z0.279
X13.023 Y20.215 Z0.277
X13.018 Y20.209 Z0.276
X13.027 Y20.207 Z0.274
X13.023 Y20.215 Z0.272
X13.018 Y20.209 Z0.27
X13.027 Y20.207 Z0.268
X13.023 Y20.215 Z0.266
X13.018 Y20.209 Z0.265
X13.027 Y20.207 Z0.263
X13.023 Y20.215 Z0.261
X13.018 Y20.209 Z0.259
X13.027 Y20.207 Z0.257
X13.023 Y20.215 Z0.255
X13.018 Y20.209 Z0.254
X13.027 Y20.207 Z0.252
X13.023 Y20.215 Z0.25
X13.018 Y20.209 Z0.248
X13.027 Y20.207 Z0.246
X13.023 Y20.215 Z0.244
X13.018 Y20.209 Z0.243
X13.027 Y20.207 Z0.241
X13.023 Y20.215 Z0.239
X13.018 Y20.209 Z0.237
X13.027 Y20.207 Z0.235
X13.023 Y20.215 Z0.233
X13.018 Y20.209 Z0.231
X13.027 Y20.207 Z0.23
X13.023 Y20.215 Z0.228
X13.018 Y20.209 Z0.226
X13.027 Y20.207 Z0.224
X13.023 Y20.215 Z0.222
X13.018 Y20.209 Z0.22
X13.027 Y20.207 Z0.218
X13.023 Y20.215 Z0.216
X13.018 Y20.209 Z0.215
X13.027 Y20.207 Z0.213
X13.023 Y20.215 Z0.211
X13.018 Y20.209 Z0.209
X13.027 Y20.207 Z0.207
X13.023 Y20.215 Z0.205
X13.018 Y20.209 Z0.204
X13.027 Y20.207 Z0.202
X13.023 Y20.215 Z0.2
X13.018 Y20.209 Z0.198
X13.027 Y20.207 Z0.196
X13.023 Y20.215 Z0.194
X13.018 Y20.209 Z0.193
X13.027 Y20.207 Z0.191
X13.023 Y20.215 Z0.189
X13.018 Y20.209 Z0.187
X13.027 Y20.207 Z0.185
X13.023 Y20.215 Z0.183
X13.018 Y20.209 Z0.182
X13.027 Y20.207 Z0.18
X13.023 Y20.215 Z0.178
X13.018 Y20.209 Z0.176
X13.027 Y20.207 Z0.174
X13.023 Y20.215 Z0.172
X13.018 Y20.209 Z0.171
X13.027 Y20.207 Z0.169
X13.023 Y20.215 Z0.167
X13.018 Y20.209 Z0.165
X13.027 Y20.207 Z0.163
X13.023 Y20.215 Z0.161
X13.018 Y20.209 Z0.159
X13.027 Y20.207 Z0.158
X13.023 Y20.215 Z0.156
X13.018 Y20.209 Z0.154
X13.027 Y20.207 Z0.152
X13.023 Y20.215 Z0.15
X13.018 Y20.209 Z0.148
X13.027 Y20.207 Z0.146
X13.023 Y20.215 Z0.144
X13.018 Y20.209 Z0.143
X13.027 Y20.207 Z0.141
X13.023 Y20.215 Z0.139
X13.018 Y20.209 Z0.137
X13.027 Y20.207 Z0.135
X13.023 Y20.215 Z0.133
X13.018 Y20.209 Z0.132
X13.027 Y20.207 Z0.13
X13.023 Y20.215 Z0.128
X13.018 Y20.209 Z0.126
X13.027 Y20.207 Z0.124
X13.023 Y20.215 Z0.122
X13.018 Y20.209 Z0.121
X13.027 Y20.207 Z0.119
X13.023 Y20.215 Z0.117
X13.018 Y20.209 Z0.115
X13.027 Y20.207 Z0.113
X13.023 Y20.215 Z0.111
X13.018 Y20.209 Z0.11
X13.027 Y20.207 Z0.108
X13.023 Y20.215 Z0.106
X13.018 Y20.209 Z0.104
X13.027 Y20.207 Z0.102
X13.023 Y20.215 Z0.1
X13.018 Y20.209 Z0.099
X13.027 Y20.207 Z0.097
X13.023 Y20.215 Z0.095
X13.018 Y20.209 Z0.093
X13.027 Y20.207 Z0.091
X13.023 Y20.215 Z0.089
X13.018 Y20.209 Z0.087
X13.027 Y20.207 Z0.085
X13.023 Y20.215 Z0.084
X13.018 Y20.209 Z0.082
X13.027 Y20.207 Z0.08
X13.023 Y20.215 Z0.078
X13.018 Y20.209 Z0.076
X13.027 Y20.207 Z0.074
X13.023 Y20.215 Z0.072
X13.018 Y20.209 Z0.071
X13.027 Y20.207 Z0.069
X13.023 Y20.215 Z0.067
X13.018 Y20.209 Z0.065
X13.027 Y20.207 Z0.063
X13.023 Y20.215 Z0.061
X13.018 Y20.209 Z0.06
X13.027 Y20.207 Z0.058
X13.023 Y20.215 Z0.056
X13.018 Y20.209 Z0.054
X13.027 Y20.207 Z0.052
X13.023 Y20.215 Z0.05
X13.018 Y20.209 Z0.049
X13.027 Y20.207 Z0.047
X13.023 Y20.215 Z0.045
X13.018 Y20.209 Z0.043
X13.027 Y20.207 Z0.041
X13.023 Y20.215 Z0.039
X13.018 Y20.209 Z0.038
X13.027 Y20.207 Z0.036
X13.023 Y20.215 Z0.034
X13.018 Y20.209 Z0.032
X13.027 Y20.207 Z0.03
X13.023 Y20.215 Z0.028
X13.018 Y20.209 Z0.027
X13.027 Y20.207 Z0.025
X13.023 Y20.215 Z0.023
X13.018 Y20.209 Z0.021
X13.027 Y20.207 Z0.019
X13.023 Y20.215 Z0.017
X13.018 Y20.209 Z0.015
X13.027 Y20.207 Z0.013
X13.023 Y20.215 Z0.012
X13.018 Y20.209 Z0.01
X13.027 Y20.207 Z0.008
X13.023 Y20.215 Z0.006
X13.018 Y20.209 Z0.004
X13.027 Y20.207 Z0.002
X13.023 Y20.215 Z0.
X13.018 Y20.209 Z-0.001
X13.027 Y20.207 Z-0.003
X13.023 Y20.215 Z-0.005
X13.018 Y20.209 Z-0.007
X13.027 Y20.207 Z-0.009
X13.023 Y20.215 Z-0.011
X13.018 Y20.209 Z-0.012
X13.027 Y20.207 Z-0.014
X13.023 Y20.215 Z-0.016
X13.018 Y20.209 Z-0.018
X13.027 Y20.207 Z-0.02
X13.023 Y20.215 Z-0.022
X13.018 Y20.209 Z-0.023
X13.027 Y20.207 Z-0.025
X13.023 Y20.215 Z-0.027
X13.018 Y20.209 Z-0.029
X13.027 Y20.207 Z-0.031
X13.023 Y20.215 Z-0.033
X13.018 Y20.209 Z-0.034
X13.027 Y20.207 Z-0.036
X13.023 Y20.215 Z-0.038
X13.018 Y20.209 Z-0.04
X13.027 Y20.207 Z-0.042
X13.023 Y20.215 Z-0.044
X13.018 Y20.209 Z-0.046
X13.027 Y20.207 Z-0.047
X13.023 Y20.215 Z-0.049
X13.018 Y20.209 Z-0.051
X13.027 Y20.207 Z-0.053
X13.023 Y20.215 Z-0.055
X13.018 Y20.209 Z-0.057
X13.027 Y20.207 Z-0.059
X13.023 Y20.215 Z-0.06
X13.018 Y20.209 Z-0.062
X13.027 Y20.207 Z-0.064
X13.023 Y20.215 Z-0.066
X13.018 Y20.209 Z-0.068
X13.027 Y20.207 Z-0.07
X13.023 Y20.215 Z-0.072
X13.018 Y20.209 Z-0.073
X13.027 Y20.207 Z-0.075
X13.023 Y20.215 Z-0.077
X13.018 Y20.209 Z-0.079
X13.027 Y20.207 Z-0.081
X13.023 Y20.215 Z-0.083
X13.018 Y20.209 Z-0.084
X13.027 Y20.207 Z-0.086
X13.023 Y20.215 Z-0.088
X13.018 Y20.209 Z-0.09
X13.027 Y20.207 Z-0.092
X13.023 Y20.215 Z-0.094
X13.018 Y20.209 Z-0.095
X13.027 Y20.207 Z-0.097
X13.023 Y20.215 Z-0.099
X13.018 Y20.209 Z-0.101
X13.027 Y20.207 Z-0.103
X13.023 Y20.215 Z-0.105
X13.018 Y20.209 Z-0.106
X13.027 Y20.207 Z-0.108
X13.023 Y20.215 Z-0.11
X13.018 Y20.209 Z-0.112
X13.027 Y20.207 Z-0.114
X13.023 Y20.215 Z-0.116
X13.018 Y20.209 Z-0.118
X13.027 Y20.207 Z-0.119
X13.023 Y20.215 Z-0.121
X13.018 Y20.209 Z-0.123
X13.027 Y20.207 Z-0.125
X13.023 Y20.215 Z-0.127
X13.018 Y20.209 Z-0.129
X13.027 Y20.207 Z-0.131
X13.023 Y20.215 Z-0.133
X13.018 Y20.209 Z-0.134
X13.027 Y20.207 Z-0.136
X13.023 Y20.215 Z-0.138
X13.018 Y20.209 Z-0.14
X13.027 Y20.207 Z-0.142
X13.023 Y20.215 Z-0.144
X13.018 Y20.209 Z-0.145
X13.027 Y20.207 Z-0.147
X13.023 Y20.215 Z-0.149
X13.018 Y20.209 Z-0.151
X13.027 Y20.207 Z-0.153
X13.023 Y20.215 Z-0.155
X13.018 Y20.209 Z-0.156
X13.027 Y20.207 Z-0.158
X13.023 Y20.215 Z-0.16
X13.018 Y20.209 Z-0.162
X13.027 Y20.207 Z-0.164
X13.023 Y20.215 Z-0.166
X13.018 Y20.209 Z-0.167
X13.027 Y20.207 Z-0.169
X13.023 Y20.215 Z-0.171
X13.018 Y20.209 Z-0.173
X13.027 Y20.207 Z-0.175
X13.023 Y20.215 Z-0.177
X13.018 Y20.209 Z-0.178
X13.027 Y20.207 Z-0.18
X13.023 Y20.215 Z-0.182
X13.018 Y20.209 Z-0.184
X13.027 Y20.207 Z-0.186
X13.023 Y20.215 Z-0.188
X13.018 Y20.209 Z-0.19
X13.027 Y20.207 Z-0.191
X13.023 Y20.215 Z-0.193
X13.018 Y20.209 Z-0.195
X13.027 Y20.207 Z-0.197
X13.023 Y20.215 Z-0.199
X13.018 Y20.209 Z-0.201
X13.027 Y20.207 Z-0.203
X13.023 Y20.215 Z-0.205
X13.018 Y20.209 Z-0.206
X13.027 Y20.207 Z-0.208
X13.023 Y20.215 Z-0.21
X13.018 Y20.209 Z-0.212
X13.027 Y20.207 Z-0.214
X13.023 Y20.215 Z-0.216
X13.018 Y20.209 Z-0.217
X13.027 Y20.207 Z-0.219
X13.023 Y20.215 Z-0.221
X13.018 Y20.209 Z-0.223
X13.027 Y20.207 Z-0.225
X13.023 Y20.215 Z-0.227
X13.018 Y20.209 Z-0.228
X13.027 Y20.207 Z-0.23
X13.023 Y20.215 Z-0.232
X13.018 Y20.209 Z-0.234
X13.027 Y20.207 Z-0.236
X13.023 Y20.215 Z-0.238
X13.018 Y20.209 Z-0.239
X13.027 Y20.207 Z-0.241
X13.023 Y20.215 Z-0.243
X13.018 Y20.209 Z-0.245
X13.027 Y20.207 Z-0.247
X13.023 Y20.215 Z-0.249
X13.018 Y20.209 Z-0.25
X13.027 Y20.207 Z-0.252
X13.023 Y20.215 Z-0.254
X13.018 Y20.209 Z-0.256
X13.027 Y20.207 Z-0.258
X13.023 Y20.215 Z-0.26
X13.018 Y20.209 Z-0.262
X13.027 Y20.207 Z-0.263
X13.023 Y20.215 Z-0.265
X13.018 Y20.209 Z-0.267
X13.027 Y20.207 Z-0.269
X13.023 Y20.215 Z-0.271
X13.018 Y20.209 Z-0.273
X13.027 Y20.207 Z-0.275
X13.023 Y20.215 Z-0.277
X13.018 Y20.209 Z-0.278
X13.027 Y20.207 Z-0.28
X13.023 Y20.215 Z-0.282
X13.018 Y20.209 Z-0.284
X13.027 Y20.207 Z-0.286
X13.023 Y20.215 Z-0.288
X13.018 Y20.209 Z-0.289
X13.027 Y20.207 Z-0.291
X13.023 Y20.215 Z-0.293
X13.018 Y20.209 Z-0.295
X13.027 Y20.207 Z-0.297
X13.023 Y20.215 Z-0.299
X13.018 Y20.209 Z-0.3
X13.027 Y20.207 Z-0.302
X13.023 Y20.215 Z-0.304
X13.018 Y20.209 Z-0.306
X13.027 Y20.207 Z-0.308
X13.023 Y20.215 Z-0.31
X13.018 Y20.209 Z-0.311
X13.027 Y20.207 Z-0.313
X13.023 Y20.215 Z-0.315
X13.018 Y20.209 Z-0.317
X13.027 Y20.207 Z-0.319
X13.023 Y20.215 Z-0.321
X13.018 Y20.209 Z-0.322
X13.027 Y20.207 Z-0.324
X13.023 Y20.215 Z-0.326
X13.018 Y20.209 Z-0.328
X13.027 Y20.207 Z-0.33
X13.023 Y20.215 Z-0.332
X13.018 Y20.209 Z-0.334
X13.027 Y20.207 Z-0.336
X13.023 Y20.215 Z-0.337
X13.018 Y20.209 Z-0.339
X13.027 Y20.207 Z-0.341
X13.023 Y20.215 Z-0.343
X13.018 Y20.209 Z-0.345
X13.027 Y20.207 Z-0.347
X13.023 Y20.215 Z-0.349
X13.018 Y20.209 Z-0.35
X13.027 Y20.207 Z-0.352
X13.023 Y20.215 Z-0.354
X13.018 Y20.209 Z-0.356
X13.027 Y20.207 Z-0.358
X13.023 Y20.215 Z-0.36
X13.018 Y20.209 Z-0.361
X13.027 Y20.207 Z-0.363
X13.023 Y20.215 Z-0.365
X13.018 Y20.209 Z-0.367
X13.027 Y20.207 Z-0.369
X13.023 Y20.215 Z-0.371
X13.018 Y20.209 Z-0.372
X13.027 Y20.207 Z-0.374
X13.023 Y20.215 Z-0.376
X13.018 Y20.209 Z-0.378
X13.027 Y20.207 Z-0.38
X13.023 Y20.215 Z-0.382
X13.018 Y20.209 Z-0.383
X13.027 Y20.207 Z-0.385
X13.023 Y20.215 Z-0.387
X13.018 Y20.209 Z-0.389
X13.027 Y20.207 Z-0.391
X13.023 Y20.215 Z-0.393
X13.018 Y20.209 Z-0.394
X13.027 Y20.207 Z-0.396
X13.023 Y20.215 Z-0.398
X13.018 Y20.209 Z-0.4
X13.027 Y20.207 Z-0.402
X13.023 Y20.215 Z-0.404
X13.018 Y20.209 Z-0.406
X13.027 Y20.207 Z-0.408
X13.023 Y20.215 Z-0.409
X13.018 Y20.209 Z-0.411
X13.027 Y20.207 Z-0.413
X13.023 Y20.215 Z-0.415
X13.018 Y20.209 Z-0.417
X13.027 Y20.207 Z-0.419
X13.023 Y20.215 Z-0.421
X13.018 Y20.209 Z-0.422
X13.027 Y20.207 Z-0.424
X13.023 Y20.215 Z-0.426
X13.018 Y20.209 Z-0.428
X13.027 Y20.207 Z-0.43
X13.023 Y20.215 Z-0.432
X13.018 Y20.209 Z-0.433
X13.027 Y20.207 Z-0.435
X13.023 Y20.215 Z-0.437
X13.018 Y20.209 Z-0.439
X13.027 Y20.207 Z-0.441
X13.023 Y20.215 Z-0.443
X13.018 Y20.209 Z-0.444
X13.027 Y20.207 Z-0.446
X13.023 Y20.215 Z-0.448
X13.018 Y20.209 Z-0.45
X13.027 Y20.207 Z-0.452
X13.023 Y20.215 Z-0.454
X13.018 Y20.209 Z-0.455
X13.027 Y20.207 Z-0.457
X13.023 Y20.215 Z-0.459
X13.018 Y20.209 Z-0.461
X13.027 Y20.207 Z-0.463
X13.023 Y20.215 Z-0.465
X13.018 Y20.209 Z-0.467
X13.027 Y20.207 Z-0.468
X13.023 Y20.215 Z-0.47
X13.018 Y20.209 Z-0.472
X13.027 Y20.207 Z-0.474
X13.023 Y20.215 Z-0.476
X13.018 Y20.209 Z-0.478
X13.027 Y20.207 Z-0.48
X13.023 Y20.215 Z-0.481
X13.018 Y20.209 Z-0.483
X13.027 Y20.207 Z-0.485
X13.023 Y20.215 Z-0.487
X13.018 Y20.209 Z-0.489
X13.027 Y20.207 Z-0.491
X13.023 Y20.215 Z-0.493
X13.018 Y20.209 Z-0.494
X13.027 Y20.207 Z-0.496
X13.023 Y20.215 Z-0.498
X13.018 Y20.209 Z-0.5
X13.027 Y20.207 Z-0.502
X13.023 Y20.215 Z-0.504
X13.018 Y20.209 Z-0.505
X13.027 Y20.207 Z-0.507
X13.023 Y20.215 Z-0.509
X13.018 Y20.209 Z-0.511
X13.027 Y20.207 Z-0.513
X13.023 Y20.215 Z-0.515
X13.018 Y20.209 Z-0.516
X13.027 Y20.207 Z-0.518
X13.023 Y20.215 Z-0.52
X13.018 Y20.209 Z-0.522
X13.027 Y20.207 Z-0.524
X13.023 Y20.215 Z-0.526
X13.018 Y20.209 Z-0.527
X13.027 Y20.207 Z-0.529
X13.023 Y20.215 Z-0.531
X13.018 Y20.209 Z-0.533
X13.027 Y20.207 Z-0.535
X13.023 Y20.215 Z-0.537
X13.018 Y20.209 Z-0.539
X13.027 Y20.207 Z-0.54
X13.023 Y20.215 Z-0.542
X13.018 Y20.209 Z-0.544
X13.027 Y20.207 Z-0.546
X13.023 Y20.215 Z-0.548
X13.018 Y20.209 Z-0.55
X13.027 Y20.207 Z-0.552
X13.023 Y20.215 Z-0.554
X13.018 Y20.209 Z-0.555
X13.027 Y20.207 Z-0.557
X13.023 Y20.215 Z-0.559
X13.018 Y20.209 Z-0.561
X13.027 Y20.207 Z-0.563
X13.023 Y20.215 Z-0.565
X13.018 Y20.209 Z-0.566
X13.027 Y20.207 Z-0.568
X13.023 Y20.215 Z-0.57
X13.018 Y20.209 Z-0.572
X13.027 Y20.207 Z-0.574
X13.023 Y20.215 Z-0.576
X13.018 Y20.209 Z-0.577
X13.027 Y20.207 Z-0.579
X13.023 Y20.215 Z-0.581
X13.018 Y20.209 Z-0.583
X13.027 Y20.207 Z-0.585
X13.023 Y20.215 Z-0.587
X13.018 Y20.209 Z-0.588
X13.027 Y20.207 Z-0.59
X13.023 Y20.215 Z-0.592
X13.018 Y20.209 Z-0.594
X13.027 Y20.207 Z-0.596
X13.023 Y20.215 Z-0.598
X13.018 Y20.209 Z-0.599
X13.027 Y20.207 Z-0.601
X13.023 Y20.215 Z-0.603
X13.018 Y20.209 Z-0.605
X13.027 Y20.207 Z-0.607
X13.023 Y20.215 Z-0.609
X13.018 Y20.209 Z-0.611
X13.027 Y20.207 Z-0.612
X13.023 Y20.215 Z-0.614
X13.018 Y20.209 Z-0.616
X13.027 Y20.207 Z-0.618
X13.023 Y20.215 Z-0.62
X13.018 Y20.209 Z-0.622
X13.027 Y20.207 Z-0.624
X13.023 Y20.215 Z-0.626
X13.018 Y20.209 Z-0.627
X13.027 Y20.207 Z-0.629
X13.023 Y20.215 Z-0.631
X13.018 Y20.209 Z-0.633
X13.027 Y20.207 Z-0.635
X13.023 Y20.215 Z-0.637
X13.018 Y20.209 Z-0.638
X13.027 Y20.207 Z-0.64
X13.023 Y20.215 Z-0.642
X13.018 Y20.209 Z-0.644
X13.027 Y20.207 Z-0.646
X13.023 Y20.215 Z-0.648
X13.018 Y20.209 Z-0.649
X13.027 Y20.207 Z-0.651
X13.023 Y20.215 Z-0.653
X13.018 Y20.209 Z-0.655
X13.027 Y20.207 Z-0.657
X13.023 Y20.215 Z-0.659
X13.018 Y20.209 Z-0.66
X13.027 Y20.207 Z-0.662
X13.023 Y20.215 Z-0.664
X13.018 Y20.209 Z-0.666
X13.027 Y20.207 Z-0.668
X13.023 Y20.215 Z-0.67
X13.018 Y20.209 Z-0.671
X13.027 Y20.207 Z-0.673
X13.023 Y20.215 Z-0.675
X13.018 Y20.209 Z-0.677
X13.027 Y20.207 Z-0.679
X13.023 Y20.215 Z-0.681
X13.018 Y20.209 Z-0.683
X13.027 Y20.207 Z-0.684
X13.023 Y20.215 Z-0.686
X13.018 Y20.209 Z-0.688
X13.027 Y20.207 Z-0.69
X13.023 Y20.215 Z-0.692
X13.018 Y20.209 Z-0.694
X13.027 Y20.207 Z-0.696
X13.023 Y20.215 Z-0.698
X13.018 Y20.209 Z-0.699
X13.027 Y20.207 Z-0.701
X13.023 Y20.215 Z-0.703
X13.018 Y20.209 Z-0.705
X13.027 Y20.207 Z-0.707
X13.023 Y20.215 Z-0.709
X13.018 Y20.209 Z-0.71
X13.027 Y20.207 Z-0.712
X13.023 Y20.215 Z-0.714
X13.018 Y20.209 Z-0.716
X13.027 Y20.207 Z-0.718
X13.023 Y20.215 Z-0.72
X13.018 Y20.209 Z-0.721
X13.027 Y20.207 Z-0.723
X13.023 Y20.215 Z-0.725
X13.018 Y20.209 Z-0.727
X13.027 Y20.207 Z-0.729
X13.023 Y20.215 Z-0.731
X13.018 Y20.209 Z-0.732
X13.027 Y20.207 Z-0.734
X13.023 Y20.215 Z-0.736
X13.018 Y20.209 Z-0.738
X13.027 Y20.207 Z-0.74
X13.023 Y20.215 Z-0.742
X13.018 Y20.209 Z-0.743
X13.027 Y20.207 Z-0.745
X13.023 Y20.215 Z-0.747
X13.018 Y20.209 Z-0.749
X13.027 Y20.207 Z-0.751
X13.023 Y20.215 Z-0.753
X13.018 Y20.209 Z-0.755
X13.027 Y20.207 Z-0.757
X13.023 Y20.215 Z-0.758
X13.018 Y20.209 Z-0.76
X13.027 Y20.207 Z-0.762
X13.023 Y20.215 Z-0.764
X13.018 Y20.209 Z-0.766
X13.027 Y20.207 Z-0.768
X13.023 Y20.215 Z-0.77
X13.018 Y20.209 Z-0.771
X13.027 Y20.207 Z-0.773
X13.023 Y20.215 Z-0.775
X13.018 Y20.209 Z-0.777
X13.027 Y20.207 Z-0.779
X13.023 Y20.215 Z-0.781
X13.018 Y20.209 Z-0.782
X13.027 Y20.207 Z-0.784
X13.023 Y20.215 Z-0.786
X13.018 Y20.209 Z-0.788
X13.027 Y20.207 Z-0.79
X13.023 Y20.215 Z-0.792
X13.018 Y20.209 Z-0.793
X13.027 Y20.207 Z-0.795
X13.023 Y20.215 Z-0.797
X13.018 Y20.209 Z-0.799
X13.027 Y20.207 Z-0.801
X13.023 Y20.215 Z-0.803
X13.018 Y20.209 Z-0.804
X13.027 Y20.207 Z-0.806
X13.023 Y20.215 Z-0.808
X13.018 Y20.209 Z-0.81
X13.027 Y20.207 Z-0.812
X13.023 Y20.215 Z-0.814
X13.018 Y20.209 Z-0.815
X13.027 Y20.207 Z-0.817
X13.023 Y20.215 Z-0.819
X13.018 Y20.209 Z-0.821
X13.027 Y20.207 Z-0.823
X13.023 Y20.215 Z-0.825
X13.018 Y20.209 Z-0.827
X13.027 Y20.207 Z-0.829
X13.023 Y20.215 Z-0.83
X13.018 Y20.209 Z-0.832
X13.027 Y20.207 Z-0.834
X13.023 Y20.215 Z-0.836
X13.018 Y20.209 Z-0.838
X13.027 Y20.207 Z-0.84
X13.023 Y20.215 Z-0.842
X13.018 Y20.209 Z-0.843
X13.027 Y20.207 Z-0.845
X13.023 Y20.215 Z-0.847
X13.018 Y20.209 Z-0.849
X13.027 Y20.207 Z-0.851
X13.023 Y20.215 Z-0.853
X13.018 Y20.209 Z-0.854
X13.027 Y20.207 Z-0.856
X13.023 Y20.215 Z-0.858
X13.018 Y20.209 Z-0.86
X13.027 Y20.207 Z-0.862
X13.023 Y20.215 Z-0.864
X13.018 Y20.209 Z-0.865
X13.027 Y20.207 Z-0.867
X13.023 Y20.215 Z-0.869
X13.018 Y20.209 Z-0.871
X13.027 Y20.207 Z-0.873
X13.023 Y20.215 Z-0.875
X13.018 Y20.209 Z-0.876
X13.027 Y20.207 Z-0.878
X13.023 Y20.215 Z-0.88
X13.018 Y20.209 Z-0.882
X13.027 Y20.207 Z-0.884
X13.023 Y20.215 Z-0.886
X13.018 Y20.209 Z-0.888
X13.027 Y20.207 Z-0.889
X13.023 Y20.215 Z-0.891
X13.018 Y20.209 Z-0.893
X13.027 Y20.207 Z-0.895
X13.023 Y20.215 Z-0.897
X13.018 Y20.209 Z-0.899
X13.027 Y20.207 Z-0.901
X13.023 Y20.215 Z-0.902
X13.018 Y20.209 Z-0.904
X13.027 Y20.207 Z-0.906
X13.023 Y20.215 Z-0.908
X13.018 Y20.209 Z-0.91
X13.027 Y20.207 Z-0.912
X13.023 Y20.215 Z-0.914
X13.018 Y20.209 Z-0.915
X13.027 Y20.207 Z-0.917
X13.023 Y20.215 Z-0.919
X13.018 Y20.209 Z-0.921
X13.027 Y20.207 Z-0.923
X13.023 Y20.215 Z-0.925
X13.018 Y20.209 Z-0.926
X13.027 Y20.207 Z-0.928
X13.023 Y20.215 Z-0.93
X13.018 Y20.209 Z-0.932
X13.027 Y20.207 Z-0.934
X13.023 Y20.215 Z-0.936
X13.018 Y20.209 Z-0.937
X13.027 Y20.207 Z-0.939
X13.023 Y20.215 Z-0.941
X13.018 Y20.209 Z-0.943
X13.027 Y20.207 Z-0.945
X13.023 Y20.215 Z-0.947
X13.018 Y20.209 Z-0.948
X13.027 Y20.207 Z-0.95
X13.023 Y20.215 Z-0.952
X13.018 Y20.209 Z-0.954
X13.027 Y20.207 Z-0.956
X13.023 Y20.215 Z-0.958
X13.018 Y20.209 Z-0.96
X13.027 Y20.207 Z-0.961
X13.023 Y20.215 Z-0.963
X13.018 Y20.209 Z-0.965
X13.027 Y20.207 Z-0.967
X13.023 Y20.215 Z-0.969
X13.018 Y20.209 Z-0.971
X13.027 Y20.207 Z-0.973
X13.023 Y20.215 Z-0.975
X13.018 Y20.209 Z-0.976
X13.027 Y20.207 Z-0.978
X13.023 Y20.215 Z-0.98
X13.018 Y20.209 Z-0.982
X13.027 Y20.207 Z-0.984
X13.023 Y20.215 Z-0.986
X13.018 Y20.209 Z-0.987
X13.027 Y20.207 Z-0.989
X13.023 Y20.215 Z-0.991
X13.018 Y20.209 Z-0.993
X13.027 Y20.207 Z-0.995
X13.023 Y20.215 Z-0.997
X13.018 Y20.209 Z-0.998
X13.027 Y20.207 Z-1.
X13.023 Y20.215 Z-1.002
X13.018 Y20.209 Z-1.004
X13.027 Y20.207 Z-1.006
X13.023 Y20.215 Z-1.008
X13.018 Y20.209 Z-1.009
X13.027 Y20.207 Z-1.011
X13.023 Y20.215 Z-1.013
X13.018 Y20.209 Z-1.015
X13.027 Y20.207 Z-1.017
X13.023 Y20.215 Z-1.019
X13.018 Y20.209 Z-1.02
X13.027 Y20.207 Z-1.022
X13.023 Y20.215 Z-1.024
X13.018 Y20.209 Z-1.026
X13.027 Y20.207 Z-1.028
X13.023 Y20.215 Z-1.03
X13.018 Y20.209 Z-1.032
X13.027 Y20.207 Z-1.033
X13.023 Y20.215 Z-1.035
X13.018 Y20.209 Z-1.037
X13.027 Y20.207 Z-1.039
X13.023 Y20.215 Z-1.041
X13.018 Y20.209 Z-1.043
X13.027 Y20.207 Z-1.045
X13.023 Y20.215 Z-1.047
X13.018 Y20.209 Z-1.048
X13.027 Y20.207 Z-1.05
X13.023 Y20.215 Z-1.052
X13.018 Y20.209 Z-1.054
X13.027 Y20.207 Z-1.056
X13.023 Y20.215 Z-1.058
X13.018 Y20.209 Z-1.059
X13.027 Y20.207 Z-1.061
X13.023 Y20.215 Z-1.063
X13.018 Y20.209 Z-1.065
X13.027 Y20.207 Z-1.067
X13.023 Y20.215 Z-1.069
X13.018 Y20.209 Z-1.07
X13.027 Y20.207 Z-1.072
X13.023 Y20.215 Z-1.074
X13.018 Y20.209 Z-1.076
X13.027 Y20.207 Z-1.078
X13.023 Y20.215 Z-1.08
X13.018 Y20.209 Z-1.081
X13.027 Y20.207 Z-1.083
X13.023 Y20.215 Z-1.085
X13.018 Y20.209 Z-1.087
X13.027 Y20.207 Z-1.089
X13.023 Y20.215 Z-1.091
X13.018 Y20.209 Z-1.092
X13.027 Y20.207 Z-1.094
X13.023 Y20.215 Z-1.096
X13.018 Y20.209 Z-1.098
X13.027 Y20.207 Z-1.1
X13.023 Y20.215 Z-1.102
X13.018 Y20.209 Z-1.104
X13.027 Y20.207 Z-1.105
X13.023 Y20.215 Z-1.107
X13.018 Y20.209 Z-1.109
X13.027 Y20.207 Z-1.111
X13.023 Y20.215 Z-1.113
X13.018 Y20.209 Z-1.115
X13.027 Y20.207 Z-1.117
X13.023 Y20.215 Z-1.119
X13.018 Y20.209 Z-1.12
X13.027 Y20.207 Z-1.122
X13.023 Y20.215 Z-1.124
X13.018 Y20.209 Z-1.126
X13.027 Y20.207 Z-1.128
X13.023 Y20.215 Z-1.13
X13.018 Y20.209 Z-1.131
X13.027 Y20.207 Z-1.133
X13.023 Y20.215 Z-1.135
X13.018 Y20.209 Z-1.137
X13.027 Y20.207 Z-1.139
X13.023 Y20.215 Z-1.141
X13.018 Y20.209 Z-1.142
X13.027 Y20.207 Z-1.144
X13.023 Y20.215 Z-1.146
X13.018 Y20.209 Z-1.148
X13.027 Y20.207 Z-1.15
X13.023 Y20.215 Z-1.152
X13.018 Y20.209 Z-1.153
X13.027 Y20.207 Z-1.155
X13.023 Y20.215 Z-1.157
X13.018 Y20.209 Z-1.159
X13.027 Y20.207 Z-1.161
X13.023 Y20.215 Z-1.163
X13.018 Y20.209 Z-1.164
X13.027 Y20.207 Z-1.166
X13.023 Y20.215 Z-1.168
X13.018 Y20.209 Z-1.17
X13.027 Y20.207 Z-1.172
X13.023 Y20.215 Z-1.174
X13.018 Y20.209 Z-1.176
X13.027 Y20.207 Z-1.178
X13.023 Y20.215 Z-1.179
X13.018 Y20.209 Z-1.181
X13.027 Y20.207 Z-1.183
X13.023 Y20.215 Z-1.185
X13.018 Y20.209 Z-1.187
X13.027 Y20.207 Z-1.189
X13.023 Y20.215 Z-1.191
X13.018 Y20.209 Z-1.192
X13.027 Y20.207 Z-1.194
X13.023 Y20.215 Z-1.196
X13.018 Y20.209 Z-1.198
X13.027 Y20.207 Z-1.2
X13.023 Y20.215 Z-1.202
X13.018 Y20.209 Z-1.203
X13.027 Y20.207 Z-1.205
X13.023 Y20.215 Z-1.207
X13.018 Y20.209 Z-1.209
X13.027 Y20.207 Z-1.211
X13.023 Y20.215 Z-1.213
X13.018 Y20.209 Z-1.214
X13.027 Y20.207 Z-1.216
X13.023 Y20.215 Z-1.218
X13.018 Y20.209 Z-1.22
X13.027 Y20.207 Z-1.222
X13.023 Y20.215 Z-1.224
X13.018 Y20.209 Z-1.225
X13.027 Y20.207 Z-1.227
X13.023 Y20.215 Z-1.229
X13.018 Y20.209 Z-1.231
X13.027 Y20.207 Z-1.233
X13.023 Y20.215 Z-1.235
X13.018 Y20.209 Z-1.236
X13.027 Y20.207 Z-1.238
X13.023 Y20.215 Z-1.24
X13.018 Y20.209 Z-1.242
X13.027 Y20.207 Z-1.244
X13.023 Y20.215 Z-1.246
X13.018 Y20.209 Z-1.248
X13.027 Y20.207 Z-1.25
X13.023 Y20.215 Z-1.251
X13.018 Y20.209 Z-1.253
X13.027 Y20.207 Z-1.255
X13.023 Y20.215 Z-1.257
X13.018 Y20.209 Z-1.259
X13.027 Y20.207 Z-1.261
X13.023 Y20.215 Z-1.263
X13.018 Y20.209 Z-1.264
X13.027 Y20.207 Z-1.266
X13.023 Y20.215 Z-1.268
X13.018 Y20.209 Z-1.27
X13.027 Y20.207 Z-1.272
X13.023 Y20.215 Z-1.274
X13.018 Y20.209 Z-1.275
X13.027 Y20.207 Z-1.277
X13.023 Y20.215 Z-1.279
X13.018 Y20.209 Z-1.281
X13.027 Y20.207 Z-1.283
X13.023 Y20.215 Z-1.285
X13.018 Y20.209 Z-1.286
X13.027 Y20.207 Z-1.288
X13.023 Y20.215 Z-1.29
X13.018 Y20.209 Z-1.292
X13.027 Y20.207 Z-1.294
X13.023 Y20.215 Z-1.296
X13.018 Y20.209 Z-1.297
X13.027 Y20.207 Z-1.299
X13.023 Y20.215 Z-1.301
X13.018 Y20.209 Z-1.303
X13.027 Y20.207 Z-1.305
X13.023 Y20.215 Z-1.307
X13.018 Y20.209 Z-1.309
X13.027 Y20.207 Z-1.31
X13.023 Y20.215 Z-1.312
X13.018 Y20.209 Z-1.314
X13.027 Y20.207 Z-1.316
X13.023 Y20.215 Z-1.318
X13.018 Y20.209 Z-1.32
X13.027 Y20.207 Z-1.322
X13.023 Y20.215 Z-1.323
X13.018 Y20.209 Z-1.325
X13.027 Y20.207 Z-1.327
X13.023 Y20.215 Z-1.329
X13.018 Y20.209 Z-1.331
X13.027 Y20.207 Z-1.333
X13.023 Y20.215 Z-1.335
X13.018 Y20.209 Z-1.336
X13.027 Y20.207 Z-1.338
X13.023 Y20.215 Z-1.34
X13.018 Y20.209 Z-1.342
X13.027 Y20.207 Z-1.344
X13.023 Y20.215 Z-1.346
X13.018 Y20.209 Z-1.347
X13.027 Y20.207 Z-1.349
X13.023 Y20.215 Z-1.351
X13.018 Y20.209 Z-1.353
X13.027 Y20.207 Z-1.355
X13.023 Y20.215 Z-1.357
X13.018 Y20.209 Z-1.358
X13.027 Y20.207 Z-1.36
X13.023 Y20.215 Z-1.362
X13.018 Y20.209 Z-1.364
X13.027 Y20.207 Z-1.366
X13.023 Y20.215 Z-1.368
X13.018 Y20.209 Z-1.369
X13.027 Y20.207 Z-1.371
X13.023 Y20.215 Z-1.373
X13.018 Y20.209 Z-1.375
X13.027 Y20.207 Z-1.377
X13.023 Y20.215 Z-1.379
X13.018 Y20.209 Z-1.381
X13.027 Y20.207 Z-1.382
X13.023 Y20.215 Z-1.384
X13.018 Y20.209 Z-1.386
X13.027 Y20.207 Z-1.388
X13.023 Y20.215 Z-1.39
X13.018 Y20.209 Z-1.392
X13.027 Y20.207 Z-1.394
X13.023 Y20.215 Z-1.396
X13.018 Y20.209 Z-1.397
X13.027 Y20.207 Z-1.399
X13.023 Y20.215 Z-1.401
X13.018 Y20.209 Z-1.403
X13.027 Y20.207 Z-1.405
X13.023 Y20.215 Z-1.407
X13.018 Y20.209 Z-1.408
X13.027 Y20.207 Z-1.41
X13.023 Y20.215 Z-1.412
X13.018 Y20.209 Z-1.414
X13.027 Y20.207 Z-1.416
X13.023 Y20.215 Z-1.418
X13.018 Y20.209 Z-1.419
X13.027 Y20.207 Z-1.421
X13.023 Y20.215 Z-1.423
X13.018 Y20.209 Z-1.425
X13.027 Y20.207 Z-1.427
X13.023 Y20.215 Z-1.429
X13.018 Y20.209 Z-1.43
X13.027 Y20.207 Z-1.432
X13.023 Y20.215 Z-1.434
X13.018 Y20.209 Z-1.436
X13.027 Y20.207 Z-1.438
X13.023 Y20.215 Z-1.44
X13.018 Y20.209 Z-1.441
X13.027 Y20.207 Z-1.443
X13.023 Y20.215 Z-1.445
X13.018 Y20.209 Z-1.447
X13.027 Y20.207 Z-1.449
X13.023 Y20.215 Z-1.451
X13.018 Y20.209 Z-1.453
X13.027 Y20.207 Z-1.454
X13.023 Y20.215 Z-1.456
X13.018 Y20.209 Z-1.458
X13.027 Y20.207 Z-1.46
X13.023 Y20.215 Z-1.462
X13.018 Y20.209 Z-1.464
X13.027 Y20.207 Z-1.466
X13.023 Y20.215 Z-1.468
X13.018 Y20.209 Z-1.469
X13.027 Y20.207 Z-1.471
X13.023 Y20.215 Z-1.473
X13.018 Y20.209 Z-1.475
X13.027 Y20.207 Z-1.477
X13.023 Y20.215 Z-1.479
X13.018 Y20.209 Z-1.48
X13.027 Y20.207 Z-1.482
X13.023 Y20.215 Z-1.484
X13.018 Y20.209 Z-1.486
X13.027 Y20.207 Z-1.488
X13.023 Y20.215 Z-1.49
X13.018 Y20.209 Z-1.491
X13.027 Y20.207 Z-1.493
X13.023 Y20.215 Z-1.495
X13.018 Y20.209 Z-1.497
X13.027 Y20.207 Z-1.499
X13.023 Y20.215 Z-1.501
X13.018 Y20.209 Z-1.502
X13.027 Y20.207 Z-1.504
X13.023 Y20.215 Z-1.506
X13.018 Y20.209 Z-1.508
X13.027 Y20.207 Z-1.51
X13.023 Y20.215 Z-1.512
X13.018 Y20.209 Z-1.513
X13.027 Y20.207 Z-1.515
X13.023 Y20.215 Z-1.517
X13.018 Y20.209 Z-1.519
X13.027 Y20.207 Z-1.521
X13.023 Y20.215 Z-1.523
X13.018 Y20.209 Z-1.525
X13.027 Y20.207 Z-1.526
X13.023 Y20.215 Z-1.528
X13.018 Y20.209 Z-1.53
X13.027 Y20.207 Z-1.532
X13.023 Y20.215 Z-1.534
X13.018 Y20.209 Z-1.536
X13.027 Y20.207 Z-1.538
X13.023 Y20.215 Z-1.54
X13.018 Y20.209 Z-1.541
X13.027 Y20.207 Z-1.543
X13.023 Y20.215 Z-1.545
X13.018 Y20.209 Z-1.547
X13.027 Y20.207 Z-1.549
X13.023 Y20.215 Z-1.551
X13.018 Y20.209 Z-1.552
X13.027 Y20.207 Z-1.554
X13.023 Y20.215 Z-1.556
X13.018 Y20.209 Z-1.558
X13.027 Y20.207 Z-1.56
X13.023 Y20.215 Z-1.562
X13.018 Y20.209 Z-1.563
X13.027 Y20.207 Z-1.565
X13.023 Y20.215 Z-1.567
X13.018 Y20.209 Z-1.569
X13.027 Y20.207 Z-1.571
X13.023 Y20.215 Z-1.573
X13.018 Y20.209 Z-1.574
X13.027 Y20.207 Z-1.576
X13.023 Y20.215 Z-1.578
X13.018 Y20.209 Z-1.58
X13.027 Y20.207 Z-1.582
X13.023 Y20.215 Z-1.584
X13.018 Y20.209 Z-1.585
X13.027 Y20.207 Z-1.587
X13.023 Y20.215 Z-1.589
X13.018 Y20.209 Z-1.591
X13.027 Y20.207 Z-1.593
X13.023 Y20.215 Z-1.595
X13.018 Y20.209 Z-1.597
X13.027 Y20.207 Z-1.599
X13.023 Y20.215 Z-1.6
X13.018 Y20.209 Z-1.602
X13.027 Y20.207 Z-1.604
X13.023 Y20.215 Z-1.606
X13.018 Y20.209 Z-1.608
X13.027 Y20.207 Z-1.61
X13.023 Y20.215 Z-1.612
X13.018 Y20.209 Z-1.613
X13.027 Y20.207 Z-1.615
X13.023 Y20.215 Z-1.617
X13.018 Y20.209 Z-1.619
X13.027 Y20.207 Z-1.621
X13.023 Y20.215 Z-1.623
X13.018 Y20.209 Z-1.624
X13.027 Y20.207 Z-1.626
X13.023 Y20.215 Z-1.628
X13.018 Y20.209 Z-1.63
X13.027 Y20.207 Z-1.632
X13.023 Y20.215 Z-1.634
X13.018 Y20.209 Z-1.635
X13.027 Y20.207 Z-1.637
X13.023 Y20.215 Z-1.639
X13.018 Y20.209 Z-1.641
X13.027 Y20.207 Z-1.643
X13.023 Y20.215 Z-1.645
X13.018 Y20.209 Z-1.646
X13.027 Y20.207 Z-1.648
X13.023 Y20.215 Z-1.65
X13.018 Y20.209 Z-1.652
X13.027 Y20.207 Z-1.654
X13.023 Y20.215 Z-1.656
X13.018 Y20.209 Z-1.657
X13.027 Y20.207 Z-1.659
X13.023 Y20.215 Z-1.661
X13.018 Y20.209 Z-1.663
X13.027 Y20.207 Z-1.665
X13.023 Y20.215 Z-1.667
X13.018 Y20.209 Z-1.669
X13.027 Y20.207 Z-1.671
X13.023 Y20.215 Z-1.672
X13.018 Y20.209 Z-1.674
X13.027 Y20.207 Z-1.676
X13.023 Y20.215 Z-1.678
X13.018 Y20.209 Z-1.68
X13.027 Y20.207 Z-1.682
X13.023 Y20.215 Z-1.684
X13.018 Y20.209 Z-1.685
X13.027 Y20.207 Z-1.687
X13.023 Y20.215 Z-1.689
X13.018 Y20.209 Z-1.691
X13.027 Y20.207 Z-1.693
X13.023 Y20.215 Z-1.695
X13.018 Y20.209 Z-1.696
X13.027 Y20.207 Z-1.698
X13.023 Y20.215 Z-1.7
X13.018 Y20.209 Z-1.702
X13.027 Y20.207 Z-1.704
X13.023 Y20.215 Z-1.706
X13.018 Y20.209 Z-1.707
X13.027 Y20.207 Z-1.709
X13.023 Y20.215 Z-1.711
X13.018 Y20.209 Z-1.713
X13.027 Y20.207 Z-1.715
X13.023 Y20.215 Z-1.717
X13.018 Y20.209 Z-1.718
X13.027 Y20.207 Z-1.72
X13.023 Y20.215 Z-1.722
X13.018 Y20.209 Z-1.724
X13.027 Y20.207 Z-1.726
X13.023 Y20.215 Z-1.728
X13.018 Y20.209 Z-1.73
X13.027 Y20.207 Z-1.731
X13.023 Y20.215 Z-1.733
X13.018 Y20.209 Z-1.735
X13.027 Y20.207 Z-1.737
X13.023 Y20.215 Z-1.739
X13.018 Y20.209 Z-1.741
X13.027 Y20.207 Z-1.743
X13.023 Y20.215 Z-1.744
X13.018 Y20.209 Z-1.746
X13.027 Y20.207 Z-1.748
X13.023 Y20.215 Z-1.75
X13.018 Y20.209 Z-1.752
X13.027 Y20.207 Z-1.754
X13.023 Y20.215 Z-1.756
X13.018 Y20.209 Z-1.757
X13.027 Y20.207 Z-1.759
X13.023 Y20.215 Z-1.761
X13.018 Y20.209 Z-1.763
X13.027 Y20.207 Z-1.765
X13.023 Y20.215 Z-1.767
X13.018 Y20.209 Z-1.768
X13.027 Y20.207 Z-1.77
X13.023 Y20.215 Z-1.772
X13.018 Y20.209 Z-1.774
X13.027 Y20.207 Z-1.776
X13.023 Y20.215 Z-1.778
X13.018 Y20.209 Z-1.779
X13.027 Y20.207 Z-1.781
X13.023 Y20.215 Z-1.783
X13.018 Y20.209 Z-1.785
X13.027 Y20.207 Z-1.787
X13.023 Y20.215 Z-1.789
X13.018 Y20.209 Z-1.79
X13.027 Y20.207 Z-1.792
X13.023 Y20.215 Z-1.794
X13.018 Y20.209 Z-1.796
X13.027 Y20.207 Z-1.798
X13.023 Y20.215 Z-1.8
X13.018 Y20.209 Z-1.802
X13.027 Y20.207 Z-1.803
X13.023 Y20.215 Z-1.805
X13.018 Y20.209 Z-1.807
X13.027 Y20.207 Z-1.809
X13.023 Y20.215 Z-1.811
X13.018 Y20.209 Z-1.813
X13.027 Y20.207 Z-1.815
X13.023 Y20.215 Z-1.817
X13.018 Y20.209 Z-1.818
X13.027 Y20.207 Z-1.82
X13.023 Y20.215 Z-1.822
X13.018 Y20.209 Z-1.824
X13.027 Y20.207 Z-1.826
X13.023 Y20.215 Z-1.828
X13.018 Y20.209 Z-1.829
X13.027 Y20.207 Z-1.831
X13.023 Y20.215 Z-1.833
X13.018 Y20.209 Z-1.835
X13.027 Y20.207 Z-1.837
X13.023 Y20.215 Z-1.839
X13.018 Y20.209 Z-1.84
X13.027 Y20.207 Z-1.842
X13.023 Y20.215 Z-1.844
X13.018 Y20.209 Z-1.846
X13.027 Y20.207 Z-1.848
X13.023 Y20.215 Z-1.85
X13.018 Y20.209 Z-1.851
X13.027 Y20.207 Z-1.853
X13.023 Y20.215 Z-1.855
X13.018 Y20.209 Z-1.857
X13.027 Y20.207 Z-1.859
X13.023 Y20.215 Z-1.861
X13.018 Y20.209 Z-1.862
X13.027 Y20.207 Z-1.864
X13.023 Y20.215 Z-1.866
X13.018 Y20.209 Z-1.868
X13.027 Y20.207 Z-1.87
X13.023 Y20.215 Z-1.872
X13.018 Y20.209 Z-1.874
X13.027 Y20.207 Z-1.875
X13.023 Y20.215 Z-1.877
X13.018 Y20.209 Z-1.879
X13.027 Y20.207 Z-1.881
X13.023 Y20.215 Z-1.883
X13.018 Y20.209 Z-1.885
X13.027 Y20.207 Z-1.887
X13.023 Y20.215 Z-1.889
X13.018 Y20.209 Z-1.89
X13.027 Y20.207 Z-1.892
X13.023 Y20.215 Z-1.894
X13.018 Y20.209 Z-1.896
X13.027 Y20.207 Z-1.898
X13.023 Y20.215 Z-1.9
X13.018 Y20.209 Z-1.901
X13.027 Y20.207 Z-1.903
X13.023 Y20.215 Z-1.905
X13.018 Y20.209 Z-1.907
X13.027 Y20.207 Z-1.909
X13.023 Y20.215 Z-1.911
X13.018 Y20.209 Z-1.912
X13.027 Y20.207 Z-1.914
X13.023 Y20.215 Z-1.916
X13.018 Y20.209 Z-1.918
X13.027 Y20.207 Z-1.92
X13.023 Y20.215 Z-1.922
X13.018 Y20.209 Z-1.923
X13.027 Y20.207 Z-1.925
X13.023 Y20.215 Z-1.927
X13.018 Y20.209 Z-1.929
X13.027 Y20.207 Z-1.931
X13.023 Y20.215 Z-1.933
X13.018 Y20.209 Z-1.934
X13.027 Y20.207 Z-1.936
X13.023 Y20.215 Z-1.938
X13.018 Y20.209 Z-1.94
X13.027 Y20.207 Z-1.942
X13.023 Y20.215 Z-1.944
X13.018 Y20.209 Z-1.946
X13.027 Y20.207 Z-1.947
X13.023 Y20.215 Z-1.949
X13.018 Y20.209 Z-1.951
X13.027 Y20.207 Z-1.953
X13.023 Y20.215 Z-1.955
X13.018 Y20.209 Z-1.957
X13.027 Y20.207 Z-1.959
X13.023 Y20.215 Z-1.961
X13.018 Y20.209 Z-1.962
X13.027 Y20.207 Z-1.964
X13.023 Y20.215 Z-1.966
X13.018 Y20.209 Z-1.968
X13.027 Y20.207 Z-1.97
X13.023 Y20.215 Z-1.972
X13.018 Y20.209 Z-1.973
X13.027 Y20.207 Z-1.975
X13.023 Y20.215 Z-1.977
X13.018 Y20.209 Z-1.979
X13.027 Y20.207 Z-1.981
X13.023 Y20.215 Z-1.983
X13.018 Y20.209 Z-1.984
X13.027 Y20.207 Z-1.986
X13.023 Y20.215 Z-1.988
X13.018 Y20.209 Z-1.99
X13.027 Y20.207 Z-1.992
X13.023 Y20.215 Z-1.994
X13.018 Y20.209 Z-1.995
X13.027 Y20.207 Z-1.997
X13.023 Y20.215 Z-1.999
X13.018 Y20.209 Z-2.001
X13.027 Y20.207 Z-2.003
X13.023 Y20.215 Z-2.005
X13.018 Y20.209 Z-2.006
X13.027 Y20.207 Z-2.008
X13.023 Y20.215 Z-2.01
X13.018 Y20.209 Z-2.012
X13.027 Y20.207 Z-2.014
X13.023 Y20.215 Z-2.016
X13.018 Y20.209 Z-2.018
X13.027 Y20.207 Z-2.02
X13.023 Y20.215 Z-2.021
X13.018 Y20.209 Z-2.023
X13.027 Y20.207 Z-2.025
X13.023 Y20.215 Z-2.027
X13.018 Y20.209 Z-2.029
X13.027 Y20.207 Z-2.031
X13.023 Y20.215 Z-2.033
X13.018 Y20.209 Z-2.034
X13.027 Y20.207 Z-2.036
X13.023 Y20.215 Z-2.038
X13.018 Y20.209 Z-2.04
X13.027 Y20.207 Z-2.042
X13.023 Y20.215 Z-2.044
X13.018 Y20.209 Z-2.045
X13.027 Y20.207 Z-2.047
X13.023 Y20.215 Z-2.049
X13.018 Y20.209 Z-2.051
X13.027 Y20.207 Z-2.053
X13.023 Y20.215 Z-2.055
X13.018 Y20.209 Z-2.056
X13.027 Y20.207 Z-2.058
X13.023 Y20.215 Z-2.06
X13.018 Y20.209 Z-2.062
X13.027 Y20.207 Z-2.064
X13.023 Y20.215 Z-2.066
X13.018 Y20.209 Z-2.067
X13.027 Y20.207 Z-2.069
X13.023 Y20.215 Z-2.071
X13.018 Y20.209 Z-2.073
X13.027 Y20.207 Z-2.075
X13.023 Y20.215 Z-2.077
X13.018 Y20.209 Z-2.078
X13.027 Y20.207 Z-2.08
X13.023 Y20.215 Z-2.082
X13.018 Y20.209 Z-2.084
X13.027 Y20.207 Z-2.086
X13.023 Y20.215 Z-2.088
X13.018 Y20.209 Z-2.09
X13.027 Y20.207 Z-2.092
X13.023 Y20.215 Z-2.093
X13.018 Y20.209 Z-2.095
X13.027 Y20.207 Z-2.097
X13.023 Y20.215 Z-2.099
X13.018 Y20.209 Z-2.101
X13.027 Y20.207 Z-2.103
X13.023 Y20.215 Z-2.105
X13.018 Y20.209 Z-2.106
X13.027 Y20.207 Z-2.108
X13.023 Y20.215 Z-2.11
X13.018 Y20.209 Z-2.112
X13.027 Y20.207 Z-2.114
X13.023 Y20.215 Z-2.116
X13.018 Y20.209 Z-2.117
X13.027 Y20.207 Z-2.119
X13.023 Y20.215 Z-2.121
X13.018 Y20.209 Z-2.123
X13.027 Y20.207 Z-2.125
X13.023 Y20.215 Z-2.127
X13.018 Y20.209 Z-2.128
X13.027 Y20.207 Z-2.13
X13.023 Y20.215 Z-2.132
X13.018 Y20.209 Z-2.134
X13.027 Y20.207 Z-2.136
X13.023 Y20.215 Z-2.138
X13.018 Y20.209 Z-2.139
X13.027 Y20.207 Z-2.141
X13.023 Y20.215 Z-2.143
X13.018 Y20.209 Z-2.145
X13.027 Y20.207 Z-2.147
X13.023 Y20.215 Z-2.149
X13.018 Y20.209 Z-2.151
X13.027 Y20.207 Z-2.152
X13.023 Y20.215 Z-2.154
X13.018 Y20.209 Z-2.156
X13.027 Y20.207 Z-2.158
X13.023 Y20.215 Z-2.16
X13.018 Y20.209 Z-2.162
X13.027 Y20.207 Z-2.164
X13.023 Y20.215 Z-2.165
X13.018 Y20.209 Z-2.167
X13.027 Y20.207 Z-2.169
X13.023 Y20.215 Z-2.171
X13.018 Y20.209 Z-2.173
X13.027 Y20.207 Z-2.175
X13.023 Y20.215 Z-2.177
X13.018 Y20.209 Z-2.178
X13.027 Y20.207 Z-2.18
X13.023 Y20.215 Z-2.182
X13.018 Y20.209 Z-2.184
X13.027 Y20.207 Z-2.186
X13.023 Y20.215 Z-2.188
X13.018 Y20.209 Z-2.189
X13.027 Y20.207 Z-2.191
X13.023 Y20.215 Z-2.193
X13.018 Y20.209 Z-2.195
X13.027 Y20.207 Z-2.197
X13.023 Y20.215 Z-2.199
X13.018 Y20.209 Z-2.2
X13.027 Y20.207 Z-2.202
X13.023 Y20.215 Z-2.204
X13.018 Y20.209 Z-2.206
X13.027 Y20.207 Z-2.208
X13.023 Y20.215 Z-2.21
X13.018 Y20.209 Z-2.211
X13.027 Y20.207 Z-2.213
X13.023 Y20.215 Z-2.215
X13.018 Y20.209 Z-2.217
X13.027 Y20.207 Z-2.219
X13.023 Y20.215 Z-2.221
X13.018 Y20.209 Z-2.223
X13.027 Y20.207 Z-2.224
X13.023 Y20.215 Z-2.226
X13.018 Y20.209 Z-2.228
X13.027 Y20.207 Z-2.23
X13.023 Y20.215 Z-2.232
X13.018 Y20.209 Z-2.234
X13.027 Y20.207 Z-2.236
X13.023 Y20.215 Z-2.238
X13.018 Y20.209 Z-2.239
X13.027 Y20.207 Z-2.241
X13.023 Y20.215 Z-2.243
X13.018 Y20.209 Z-2.245
X13.027 Y20.207 Z-2.247
X13.023 Y20.215 Z-2.249
X13.018 Y20.209 Z-2.25
X13.027 Y20.207 Z-2.252
X13.023 Y20.215 Z-2.254
X13.018 Y20.209 Z-2.256
X13.027 Y20.207 Z-2.258
X13.023 Y20.215 Z-2.26
X13.018 Y20.209 Z-2.261
X13.027 Y20.207 Z-2.263
X13.023 Y20.215 Z-2.265
X13.018 Y20.209 Z-2.267
X13.027 Y20.207 Z-2.269
X13.023 Y20.215 Z-2.271
X13.018 Y20.209 Z-2.272
X13.027 Y20.207 Z-2.274
X13.023 Y20.215 Z-2.276
X13.018 Y20.209 Z-2.278
X13.027 Y20.207 Z-2.28
X13.023 Y20.215 Z-2.282
X13.018 Y20.209 Z-2.283
X13.027 Y20.207 Z-2.285
X13.023 Y20.215 Z-2.287
X13.018 Y20.209 Z-2.289
X13.027 Y20.207 Z-2.291
X13.023 Y20.215 Z-2.293
X13.018 Y20.209 Z-2.295
X13.027 Y20.207 Z-2.296
X13.023 Y20.215 Z-2.298
X13.018 Y20.209 Z-2.3
X13.027 Y20.207 Z-2.302
X13.023 Y20.215 Z-2.304
X13.018 Y20.209 Z-2.306
X13.027 Y20.207 Z-2.308
X13.023 Y20.215 Z-2.31
X13.018 Y20.209 Z-2.311
X13.027 Y20.207 Z-2.313
X13.023 Y20.215 Z-2.315
X13.018 Y20.209 Z-2.317
X13.027 Y20.207 Z-2.319
X13.023 Y20.215 Z-2.321
X13.018 Y20.209 Z-2.322
X13.027 Y20.207 Z-2.324
X13.023 Y20.215 Z-2.326
X13.018 Y20.209 Z-2.328
X13.027 Y20.207 Z-2.33
X13.023 Y20.215 Z-2.332
X13.018 Y20.209 Z-2.333
X13.027 Y20.207 Z-2.335
X13.023 Y20.215 Z-2.337
X13.018 Y20.209 Z-2.339
X13.027 Y20.207 Z-2.341
X13.023 Y20.215 Z-2.343
X13.018 Y20.209 Z-2.344
X13.027 Y20.207 Z-2.346
X13.023 Y20.215 Z-2.348
X13.018 Y20.209 Z-2.35
X13.027 Y20.207 Z-2.352
X13.023 Y20.215 Z-2.354
X13.018 Y20.209 Z-2.355
X13.027 Y20.207 Z-2.357
X13.023 Y20.215 Z-2.359
X13.018 Y20.209 Z-2.361
X13.027 Y20.207 Z-2.363
X13.023 Y20.215 Z-2.365
X13.018 Y20.209 Z-2.367
X13.027 Y20.207 Z-2.368
X13.023 Y20.215 Z-2.37
X13.018 Y20.209 Z-2.372
X13.027 Y20.207 Z-2.374
X13.023 Y20.215 Z-2.376
X13.018 Y20.209 Z-2.378
X13.027 Y20.207 Z-2.38
X13.023 Y20.215 Z-2.382
X13.018 Y20.209 Z-2.383
X13.027 Y20.207 Z-2.385
X13.023 Y20.215 Z-2.387
X13.018 Y20.209 Z-2.389
X13.027 Y20.207 Z-2.391
X13.023 Y20.215 Z-2.393
X13.018 Y20.209 Z-2.394
X13.027 Y20.207 Z-2.396
X13.023 Y20.215 Z-2.398
X13.018 Y20.209 Z-2.4
X13.027 Y20.207 Z-2.402
X13.023 Y20.215 Z-2.404
X13.018 Y20.209 Z-2.405
X13.027 Y20.207 Z-2.407
X13.023 Y20.215 Z-2.409
X13.018 Y20.209 Z-2.411
X13.027 Y20.207 Z-2.413
X13.023 Y20.215 Z-2.415
X13.018 Y20.209 Z-2.416
X13.027 Y20.207 Z-2.418
X13.023 Y20.215 Z-2.42
X13.018 Y20.209 Z-2.422
X13.027 Y20.207 Z-2.424
X13.023 Y20.215 Z-2.426
X13.018 Y20.209 Z-2.427
X13.027 Y20.207 Z-2.429
X13.023 Y20.215 Z-2.431
X13.018 Y20.209 Z-2.433
X13.027 Y20.207 Z-2.435
X13.023 Y20.215 Z-2.437
X13.018 Y20.209 Z-2.439
X13.027 Y20.207 Z-2.441
X13.023 Y20.215 Z-2.442
X13.018 Y20.209 Z-2.444
X13.027 Y20.207 Z-2.446
X13.023 Y20.215 Z-2.448
X13.018 Y20.209 Z-2.45
X13.027 Y20.207 Z-2.452
X13.023 Y20.215 Z-2.454
X13.018 Y20.209 Z-2.455
X13.027 Y20.207 Z-2.457
X13.023 Y20.215 Z-2.459
X13.018 Y20.209 Z-2.461
X13.027 Y20.207 Z-2.463
X13.023 Y20.215 Z-2.465
X13.018 Y20.209 Z-2.466
X13.027 Y20.207 Z-2.468
X13.023 Y20.215 Z-2.47
X13.018 Y20.209 Z-2.472
X13.027 Y20.207 Z-2.474
X13.023 Y20.215 Z-2.476
X13.018 Y20.209 Z-2.477
X13.027 Y20.207 Z-2.479
X13.023 Y20.215 Z-2.481
X13.018 Y20.209 Z-2.483
X13.027 Y20.207 Z-2.485
X13.023 Y20.215 Z-2.487
X13.018 Y20.209 Z-2.488
X13.027 Y20.207 Z-2.49
X13.023 Y20.215 Z-2.492
X13.018 Y20.209 Z-2.494
X13.027 Y20.207 Z-2.496
X13.023 Y20.215 Z-2.498
X13.018 Y20.209 Z-2.499
X13.027 Y20.207 Z-2.501
X13.023 Y20.215 Z-2.503
X13.018 Y20.209 Z-2.505
X13.027 Y20.207 Z-2.507
X13.023 Y20.215 Z-2.509
X13.018 Y20.209 Z-2.511
X13.027 Y20.207 Z-2.513
X13.023 Y20.215 Z-2.514
X13.018 Y20.209 Z-2.516
X13.027 Y20.207 Z-2.518
X13.023 Y20.215 Z-2.52
X13.018 Y20.209 Z-2.522
X13.027 Y20.207 Z-2.524
X13.023 Y20.215 Z-2.526
X13.018 Y20.209 Z-2.527
X13.027 Y20.207 Z-2.529
X13.023 Y20.215 Z-2.531
X13.018 Y20.209 Z-2.533
X13.027 Y20.207 Z-2.535
X13.023 Y20.215 Z-2.537
X13.018 Y20.209 Z-2.538
X13.027 Y20.207 Z-2.54
X13.023 Y20.215 Z-2.542
X13.018 Y20.209 Z-2.544
X13.027 Y20.207 Z-2.546
X13.023 Y20.215 Z-2.548
X13.018 Y20.209 Z-2.549
X13.027 Y20.207 Z-2.551
X13.023 Y20.215 Z-2.553
X13.018 Y20.209 Z-2.555
X13.027 Y20.207 Z-2.557
X13.023 Y20.215 Z-2.559
X13.018 Y20.209 Z-2.56
X13.027 Y20.207 Z-2.562
X13.023 Y20.215 Z-2.564
X13.018 Y20.209 Z-2.566
X13.027 Y20.207 Z-2.568
X13.023 Y20.215 Z-2.57
X13.018 Y20.209 Z-2.572
X13.027 Y20.207 Z-2.573
X13.023 Y20.215 Z-2.575
X13.018 Y20.209 Z-2.577
X13.027 Y20.207 Z-2.579
X13.023 Y20.215 Z-2.581
X13.018 Y20.209 Z-2.583
X13.027 Y20.207 Z-2.585
X13.023 Y20.215 Z-2.586
X13.018 Y20.209 Z-2.588
X13.027 Y20.207 Z-2.59
X13.023 Y20.215 Z-2.592
X13.018 Y20.209 Z-2.594
X13.027 Y20.207 Z-2.596
X13.023 Y20.215 Z-2.598
X13.018 Y20.209 Z-2.599
X13.027 Y20.207 Z-2.601
X13.023 Y20.215 Z-2.603
X13.018 Y20.209 Z-2.605
X13.027 Y20.207 Z-2.607
X13.023 Y20.215 Z-2.609
X13.018 Y20.209 Z-2.61
X13.027 Y20.207 Z-2.612
X13.023 Y20.215 Z-2.614
X13.018 Y20.209 Z-2.616
X13.027 Y20.207 Z-2.618
X13.023 Y20.215 Z-2.62
X13.018 Y20.209 Z-2.621
X13.027 Y20.207 Z-2.623
X13.023 Y20.215 Z-2.625
X13.018 Y20.209 Z-2.627
X13.027 Y20.207 Z-2.629
X13.023 Y20.215 Z-2.631
X13.018 Y20.209 Z-2.632
X13.027 Y20.207 Z-2.634
X13.023 Y20.215 Z-2.636
X13.018 Y20.209 Z-2.638
X13.027 Y20.207 Z-2.64
X13.023 Y20.215 Z-2.642
X13.018 Y20.209 Z-2.644
X13.027 Y20.207 Z-2.645
X13.023 Y20.215 Z-2.647
X13.018 Y20.209 Z-2.649
X13.027 Y20.207 Z-2.651
X13.023 Y20.215 Z-2.653
X13.018 Y20.209 Z-2.655
X13.027 Y20.207 Z-2.657
X13.023 Y20.215 Z-2.659
X13.018 Y20.209 Z-2.66
X13.027 Y20.207 Z-2.662
X13.023 Y20.215 Z-2.664
X13.018 Y20.209 Z-2.666
X13.027 Y20.207 Z-2.668
X13.023 Y20.215 Z-2.67
X13.018 Y20.209 Z-2.671
X13.027 Y20.207 Z-2.673
X13.023 Y20.215 Z-2.675
X13.018 Y20.209 Z-2.677
X13.027 Y20.207 Z-2.679
X13.023 Y20.215 Z-2.681
X13.018 Y20.209 Z-2.682
X13.027 Y20.207 Z-2.684
X13.023 Y20.215 Z-2.686
X13.018 Y20.209 Z-2.688
X13.027 Y20.207 Z-2.69
X13.023 Y20.215 Z-2.692
X13.018 Y20.209 Z-2.693
X13.027 Y20.207 Z-2.695
X13.023 Y20.215 Z-2.697
X13.018 Y20.209 Z-2.699
X13.027 Y20.207 Z-2.701
X13.023 Y20.215 Z-2.703
X13.018 Y20.209 Z-2.704
X13.027 Y20.207 Z-2.706
X13.023 Y20.215 Z-2.708
X13.018 Y20.209 Z-2.71
X13.027 Y20.207 Z-2.712
X13.023 Y20.215 Z-2.714
X13.018 Y20.209 Z-2.716
X13.027 Y20.207 Z-2.717
X13.023 Y20.215 Z-2.719
X13.018 Y20.209 Z-2.721
X13.027 Y20.207 Z-2.723
X13.023 Y20.215 Z-2.725
X13.018 Y20.209 Z-2.727
X13.027 Y20.207 Z-2.729
X13.023 Y20.215 Z-2.731
X13.018 Y20.209 Z-2.732
X13.027 Y20.207 Z-2.734
X13.023 Y20.215 Z-2.736
X13.018 Y20.209 Z-2.738
X13.027 Y20.207 Z-2.74
X13.023 Y20.215 Z-2.742
X13.018 Y20.209 Z-2.743
X13.027 Y20.207 Z-2.745
X13.023 Y20.215 Z-2.747
X13.018 Y20.209 Z-2.749
X13.027 Y20.207 Z-2.751
X13.023 Y20.215 Z-2.753
X13.018 Y20.209 Z-2.754
X13.027 Y20.207 Z-2.756
X13.023 Y20.215 Z-2.758
X13.018 Y20.209 Z-2.76
X13.027 Y20.207 Z-2.762
X13.023 Y20.215 Z-2.764
X13.018 Y20.209 Z-2.765
X13.027 Y20.207 Z-2.767
X13.023 Y20.215 Z-2.769
X13.018 Y20.209 Z-2.771
X13.027 Y20.207 Z-2.773
X13.023 Y20.215 Z-2.775
X13.018 Y20.209 Z-2.776
X13.027 Y20.207 Z-2.778
X13.023 Y20.215 Z-2.78
X13.018 Y20.209 Z-2.782
X13.027 Y20.207 Z-2.784
X13.023 Y20.215 Z-2.786
X13.018 Y20.209 Z-2.788
X13.027 Y20.207 Z-2.789
X13.023 Y20.215 Z-2.791
X13.018 Y20.209 Z-2.793
X13.027 Y20.207 Z-2.795
X13.023 Y20.215 Z-2.797
X13.018 Y20.209 Z-2.799
X13.027 Y20.207 Z-2.801
X13.023 Y20.215 Z-2.803
X13.018 Y20.209 Z-2.804
X13.027 Y20.207 Z-2.806
X13.023 Y20.215 Z-2.808
X13.018 Y20.209 Z-2.81
X13.027 Y20.207 Z-2.812
X13.023 Y20.215 Z-2.814
X13.018 Y20.209 Z-2.815
X13.027 Y20.207 Z-2.817
X13.023 Y20.215 Z-2.819
X13.018 Y20.209 Z-2.821
X13.027 Y20.207 Z-2.823
X13.023 Y20.215 Z-2.825
X13.018 Y20.209 Z-2.826
X13.027 Y20.207 Z-2.828
X13.023 Y20.215 Z-2.83
X13.018 Y20.209 Z-2.832
X13.027 Y20.207 Z-2.834
X13.023 Y20.215 Z-2.836
X13.018 Y20.209 Z-2.837
X13.027 Y20.207 Z-2.839
X13.023 Y20.215 Z-2.841
X13.018 Y20.209 Z-2.843
X13.027 Y20.207 Z-2.845
X13.023 Y20.215 Z-2.847
X13.018 Y20.209 Z-2.848
X13.027 Y20.207 Z-2.85
X13.023 Y20.215 Z-2.852
X13.018 Y20.209 Z-2.854
X13.027 Y20.207 Z-2.856
X13.023 Y20.215 Z-2.858
X13.018 Y20.209 Z-2.86
X13.027 Y20.207 Z-2.862
X13.023 Y20.215 Z-2.863
X13.018 Y20.209 Z-2.865
X13.027 Y20.207 Z-2.867
X13.023 Y20.215 Z-2.869
X13.018 Y20.209 Z-2.871
X13.027 Y20.207 Z-2.873
X13.023 Y20.215 Z-2.875
X13.018 Y20.209 Z-2.876
X13.027 Y20.207 Z-2.878
X13.023 Y20.215 Z-2.88
X13.018 Y20.209 Z-2.882
X13.027 Y20.207 Z-2.884
X13.023 Y20.215 Z-2.886
X13.018 Y20.209 Z-2.887
X13.027 Y20.207 Z-2.889
X13.023 Y20.215 Z-2.891
X13.018 Y20.209 Z-2.893
X13.027 Y20.207 Z-2.895
X13.023 Y20.215 Z-2.897
X13.018 Y20.209 Z-2.898
X13.027 Y20.207 Z-2.9
X13.023 Y20.215 Z-2.902
X13.018 Y20.209 Z-2.904
X13.027 Y20.207 Z-2.906
X13.023 Y20.215 Z-2.908
X13.018 Y20.209 Z-2.909
X13.027 Y20.207 Z-2.911
X13.023 Y20.215 Z-2.913
X13.018 Y20.209 Z-2.915
X13.027 Y20.207 Z-2.917
X13.023 Y20.215 Z-2.919
X13.018 Y20.209 Z-2.92
X13.027 Y20.207 Z-2.922
X13.023 Y20.215 Z-2.924
X13.018 Y20.209 Z-2.926
X13.027 Y20.207 Z-2.928
X13.023 Y20.215 Z-2.93
X13.018 Y20.209 Z-2.932
X13.027 Y20.207 Z-2.934
X13.023 Y20.215 Z-2.935
X13.018 Y20.209 Z-2.937
X13.027 Y20.207 Z-2.939
X13.023 Y20.215 Z-2.941
X13.018 Y20.209 Z-2.943
X13.027 Y20.207 Z-2.945
X13.023 Y20.215 Z-2.947
X13.018 Y20.209 Z-2.948
X13.027 Y20.207 Z-2.95
X13.023 Y20.215 Z-2.952
X13.018 Y20.209 Z-2.954
X13.027 Y20.207 Z-2.956
X13.023 Y20.215 Z-2.958
X13.018 Y20.209 Z-2.959
X13.027 Y20.207 Z-2.961
X13.023 Y20.215 Z-2.963
X13.018 Y20.209 Z-2.965
X13.027 Y20.207 Z-2.967
X13.023 Y20.215 Z-2.969
X13.018 Y20.209 Z-2.97
X13.027 Y20.207 Z-2.972
X13.023 Y20.215 Z-2.974
X13.018 Y20.209 Z-2.976
X13.027 Y20.207 Z-2.978
X13.023 Y20.215 Z-2.98
X13.018 Y20.209 Z-2.981
X13.027 Y20.207 Z-2.983
X13.023 Y20.215 Z-2.985
X13.018 Y20.209 Z-2.987
X13.027 Y20.207 Z-2.989
X13.023 Y20.215 Z-2.991
X13.018 Y20.209 Z-2.993
X13.027 Y20.207 Z-2.994
X13.023 Y20.215 Z-2.996
X13.018 Y20.209 Z-2.998
X13.027 Y20.207 Z-3.
X13.043 Y20.227
X13.056 Y20.282
X13.045 Y20.332
X13.01 Y20.377
X12.965 Y20.399
X12.912 Y20.4
X12.864 Y20.378
X12.831 Y20.339
X12.814 Y20.277
X12.859 Y19.993
X13.027 Y20.207
G3 X12.943 Y20.319 R0.073
G1 X12.907 Y20.305
G3 X12.883 Y20.185 R0.073
G1 X12.885
X12.892 Y20.19 Z-3.002
X12.885 Y20.194 Z-3.004
Y20.185 Z-3.006
X12.892 Y20.19 Z-3.008
X12.885 Y20.194 Z-3.009
Y20.185 Z-3.011
X12.892 Y20.19 Z-3.013
X12.885 Y20.194 Z-3.015
Y20.185 Z-3.017
X12.892 Y20.19 Z-3.019
X12.885 Y20.194 Z-3.02
Y20.185 Z-3.022
X12.892 Y20.19 Z-3.024
X12.885 Y20.194 Z-3.026
Y20.185 Z-3.028
X12.892 Y20.19 Z-3.03
X12.885 Y20.194 Z-3.032
Y20.185 Z-3.033
X12.892 Y20.19 Z-3.035
X12.885 Y20.194 Z-3.037
Y20.185 Z-3.039
X12.892 Y20.19 Z-3.041
X12.885 Y20.194 Z-3.043
Y20.185 Z-3.045
X12.892 Y20.19 Z-3.047
X12.885 Y20.194 Z-3.048
Y20.185 Z-3.05
X12.892 Y20.19 Z-3.052
X12.885 Y20.194 Z-3.054
Y20.185 Z-3.056
X12.892 Y20.19 Z-3.058
X12.885 Y20.194 Z-3.059
Y20.185 Z-3.061
X12.892 Y20.19 Z-3.063
X12.885 Y20.194 Z-3.065
Y20.185 Z-3.067
X12.892 Y20.19 Z-3.069
X12.885 Y20.194 Z-3.07
Y20.185 Z-3.072
X12.892 Y20.19 Z-3.074
X12.885 Y20.194 Z-3.076
Y20.185 Z-3.078
X12.892 Y20.19 Z-3.08
X12.885 Y20.194 Z-3.081
Y20.185 Z-3.083
X12.892 Y20.19 Z-3.085
X12.885 Y20.194 Z-3.087
Y20.185 Z-3.089
X12.892 Y20.19 Z-3.091
X12.885 Y20.194 Z-3.092
Y20.185 Z-3.094
X12.892 Y20.19 Z-3.096
X12.885 Y20.194 Z-3.098
Y20.185 Z-3.1
X12.892 Y20.19 Z-3.102
X12.885 Y20.194 Z-3.104
Y20.185 Z-3.105
X12.892 Y20.19 Z-3.107
X12.885 Y20.194 Z-3.109
Y20.185 Z-3.111
X12.892 Y20.19 Z-3.113
X12.885 Y20.194 Z-3.115
Y20.185 Z-3.117
X12.892 Y20.19 Z-3.119
X12.885 Y20.194 Z-3.12
Y20.185 Z-3.122
X12.892 Y20.19 Z-3.124
X12.885 Y20.194 Z-3.126
Y20.185 Z-3.128
X12.892 Y20.19 Z-3.13
X12.885 Y20.194 Z-3.131
Y20.185 Z-3.133
X12.892 Y20.19 Z-3.135
X12.885 Y20.194 Z-3.137
Y20.185 Z-3.139
X12.892 Y20.19 Z-3.141
X12.885 Y20.194 Z-3.142
Y20.185 Z-3.144
X12.892 Y20.19 Z-3.146
X12.885 Y20.194 Z-3.148
Y20.185 Z-3.15
X12.892 Y20.19 Z-3.152
X12.885 Y20.194 Z-3.153
Y20.185 Z-3.155
X12.892 Y20.19 Z-3.157
X12.885 Y20.194 Z-3.159
Y20.185 Z-3.161
X12.892 Y20.19 Z-3.163
X12.885 Y20.194 Z-3.164
Y20.185 Z-3.166
X12.892 Y20.19 Z-3.168
X12.885 Y20.194 Z-3.17
