(MOTOR_HOLDER)
(T1  D=3.175 CR=0. - ZMIN=-6. - FLAT END MILL)
G90 G94 G91.1 G40 G49 G17
G21

(2D POCKET1)
M5
M9
T1
S5500 M3
G54
M8
G0 X0.675 Y-0.786
G43 Z10. H1
Z5.
G1 Z2.5 F351.
G3 X-1.899 Y0.786 Z1.665 R1.508
X0.675 Y-0.786 Z0.829 R1.508
X-1.899 Y0.786 Z-0.006 R1.508
X0.675 Y-0.786 Z-0.842 R1.508
X-1.899 Y0.786 Z-1.677 R1.508
X0.675 Y-0.786 Z-2.513 R1.508
X-1.899 Y0.786 Z-3.348 R1.508
X0.675 Y-0.786 Z-4.183 R1.508
X-1.899 Y0.786 Z-5.019 R1.508
X0.675 Y-0.786 Z-5.854 R1.508
X0.896 Y0. Z-6. R1.508
X-0.896 R0.896
X3.912 R2.404
X-3.912 R3.912
X3.912 R3.912
G1 X3.309 Z-5.94
G0 Z5.
X9.248 Y-25.013
G1 Z2.5 F351.
X20.249 Z0.56
G3 Y-24.987 Z0.553 R0.013
G1 X8. Z-1.606
X7.988 Y-25. Z-1.61
G3 X8. Y-25.013 Z-1.613 R0.013
G1 X20.249 Z-3.773
G3 Y-24.987 Z-3.78 R0.013
G1 X8. Z-5.94
X7.988 Y-25. Z-5.943
G3 X8. Y-25.013 Z-5.947 R0.013
G1 X8.302 Z-6.
X20.249
G3 Y-24.987 R0.013
G1 X8.
G3 Y-25.013 R0.013
G1 X8.302
Y-25. Z-5.999
G0 Z5.
X-18.792 Y-25.013
G1 Z2.5 F351.
X-7.751 Z0.553
X-7.739 Y-25. Z0.55
G3 X-7.751 Y-24.987 Z0.546 R0.013
G1 X-20. Z-1.613
G3 Y-25.013 Z-1.62 R0.013
G1 X-7.751 Z-3.78
X-7.739 Y-25. Z-3.784
G3 X-7.751 Y-24.987 Z-3.787 R0.013
G1 X-20. Z-5.947
G3 Y-25.013 Z-5.954 R0.013
G1 X-19.738 Z-6.
X-7.751
G3 Y-24.987 R0.013
G1 X-20.
G3 Y-25.013 R0.013
G1 X-19.738
Y-25. Z-5.999
G0 Z5.
X-8.999 Y25.013
G1 Z2.5 F351.
X-20. Z0.56
G3 Y24.987 Z0.553 R0.013
G1 X-7.751 Z-1.606
X-7.739 Y25. Z-1.61
G3 X-7.751 Y25.013 Z-1.613 R0.013
G1 X-20. Z-3.773
G3 Y24.987 Z-3.78 R0.013
G1 X-7.751 Z-5.94
X-7.739 Y25. Z-5.943
G3 X-7.751 Y25.013 Z-5.947 R0.013
G1 X-8.053 Z-6.
X-20.
G3 Y24.987 R0.013
G1 X-7.751
G3 Y25.013 R0.013
G1 X-8.053
Y25. Z-5.999
G0 Z5.
X19.04 Y25.013
G1 Z2.5 F351.
X8. Z0.553
X7.988 Y25. Z0.55
G3 X8. Y24.987 Z0.546 R0.013
G1 X20.249 Z-1.613
G3 Y25.013 Z-1.62 R0.013
G1 X8. Z-3.78
X7.988 Y25. Z-3.784
G3 X8. Y24.987 Z-3.787 R0.013
G1 X20.249 Z-5.947
G3 Y25.013 Z-5.954 R0.013
G1 X19.986 Z-6.
X8.
G3 Y24.987 R0.013
G1 X20.249
G3 Y25.013 R0.013
G1 X19.986
Y25. Z-5.999
G0 Z10.

(2D POCKET2)
M8
G0 X3.087 Y-1.413
Z10.
Z5.
G1 Z2.5 F351.
G3 X2.034 Y1.413 Z1.665 R1.508
X3.087 Y-1.413 Z0.829 R1.508
X2.034 Y1.413 Z-0.006 R1.508
X3.087 Y-1.413 Z-0.842 R1.508
X2.034 Y1.413 Z-1.677 R1.508
X1.053 Y0. Z-2. R1.508
X1.964 R0.456
X-1.964 R1.964
X4.98 R3.472
X-4.98 R4.98
X7.996 R6.488
X-7.996 R7.996
X11.012 R9.504
X-11.012 R11.012
X11.012 R11.012
G1 X10.409 Z-1.94
G0 Z10.

(DRILL1)
M8
G0 X8. Y0.
Z10.
Z5.
G98 G73 X8. Y0. Z-6. R5. Q2. F762.
X0. Y-9.5
X-8. Y0.
X0. Y9.5
G80
Z10.

(2D CONTOUR2)
M8
G0 X26.587 Y25.521
Z10.
Z5.
G1 Z3. F762.
Z2.5
Y0. Z-2. F351.
Y-28.
G2 X23. Y-31.587 R3.587
G1 X-23.
G2 X-26.587 Y-28. R3.587
G1 Y28.
G2 X-23. Y31.587 R3.587
G1 X23.
G2 X26.587 Y28. R3.587
G1 Y0.
Y-28. Z-3.57
G2 X23. Y-31.587 Z-3.886 R3.587
G1 X20.959 Z-4.
X-23.
G2 X-26.587 Y-28. R3.587
G1 Y28.
G2 X-23. Y31.587 R3.587
G1 X23.
G2 X26.587 Y28. R3.587
G1 Y-28.
G2 X23. Y-31.587 R3.587
G1 X20.959
X-14.716 Z-6.
X-23.
G2 X-26.587 Y-28. R3.587
G1 Y28.
G2 X-23. Y31.587 R3.587
G1 X23.
G2 X26.587 Y28. R3.587
G1 Y-28.
G2 X23. Y-31.587 R3.587
G1 X-14.716
G0 Z10.

M9
M30
