(MOTOR_HOLDER)
(T1  D=3.175 CR=0. - ZMIN=-10. - FLAT END MILL)
G90 G94 G91.1 G40 G49 G17
G21

(POCKET1)
M5
M9
T1
S10000 M3
G54
M8
G0 X7.455 Y0.197
G43 Z10. H1
Z3.
G1 Z-0.907 F762.
G3 X7.443 Y0.199 Z-0.953 R0.11
X7.409 Y0.197 Z-0.987 R0.111
X7.367 Y0.177 Z-1. R0.11
X7.633 Y-0.177 R0.222
X7.367 Y0.177 R0.222
G2 X5.926 Y-0.082 R1.631
G3 X4.974 Y-1.194 R0.802
X7.837 Y-2.777 R2.801
X9.725 Y-1.655 R2.731
X10.46 Y0.414 R3.973
X9.513 Y2.206 R1.948
X6.76 Y2.63 R3.71
X4.784 Y0.666 R2.664
X4.974 Y-1.194 R2.801
G2 X4.831 Y-3.086 R1.916
G3 X5.361 Y-4.908 R1.234
X11.911 Y-3.036 R5.358
X12.839 Y-0.615 R5.541
X13.123 Y1.962 R64.319
X12.282 Y3.544 R1.639
X9.391 Y4.947 R30.838
X6.188 Y5.193 R5.062
X3.1 Y-3.053 R5.351
X5.361 Y-4.908 R5.358
G2 X6.516 Y-6.529 R1.933
G3 X8.022 Y-7.831 R1.416
X14.838 Y-2.786 R7.852
X15.483 Y0.36 R10.144
G2 X15.856 Y3.549 R21.874
G3 X15.147 Y4.897 R1.22
G2 X11.449 Y6.776 R35.824
G3 X7.442 Y7.849 R7.873
X5.635 Y-7.625 R7.847
X8.022 Y-7.831 R7.852
G2 X9.768 Y-8.756 R1.877
G3 X11.648 Y-9.362 R1.483
X17.076 Y-3.631 R10.245
X17.622 Y-1.301 R9.17
X17.814 Y1.085 R62.573
G2 X18.151 Y3.187 R10.916
X18.755 Y5.229 R34.212
G3 X18.158 Y6.351 R0.879
G2 X12.929 Y8.671 R19.987
G3 X7.429 Y10.24 R10.237
X5.067 Y-9.948 R10.239
X11.648 Y-9.362 R10.245
G2 X13.516 Y-9.635 R1.772
G3 X15.404 Y-9.655 R1.472
X19.891 Y-1.474 R12.479
X20.111 Y1.099 R36.808
G2 X20.497 Y3.654 R13.005
X21.147 Y5.438 R9.514
X22.031 Y7.119 R27.176
G3 X21.569 Y7.988 R0.582
G2 X18.64 Y8.467 R17.254
X15.869 Y9.532 R12.529
X13.236 Y10.999 R67.092
G3 X10.441 Y12.127 R10.295
X1.732 Y-11.065 R12.48
X15.404 Y-9.655 R12.479
G2 X17.087 Y-9.456 R1.574
G3 X18.74 Y-9.085 R1.363
X21.851 Y-1.712 R14.454
X22.213 Y1.806 R97.58
G2 X23.121 Y5.224 R10.126
X24.573 Y7.511 R10.426
X26.478 Y9.438 R16.173
G3 X25.995 Y10.349 R0.528
G2 X21.304 Y9.935 R13.2
X16.789 Y11.276 R12.02
X13.933 Y12.845 R97.896
G3 X10.904 Y14.047 R11.586
X0.819 Y-12.816 R14.455
X18.74 Y-9.085 R14.454
G2 X20.484 Y-8.505 R1.704
G3 X22.164 Y-7.759 R1.488
X23.016 Y-5.875 R16.599
X23.824 Y-2.631 R14.291
X24.137 Y0.698 R51.037
G2 X25.317 Y4.718 R9.419
X28.004 Y7.932 R11.295
G3 X28.835 Y9.69 R2.275
G1 Y13.06
G3 X28.02 Y13.518 R0.536
G2 X24.069 Y12.071 R10.804
X19.869 Y12.314 R9.964
X17.43 Y13.403 R8.956
G3 X15.117 Y14.739 R29.082
X-3.488 Y-12.431 R16.589
X22.164 Y-7.759 R16.599
G2 X23.63 Y-6.937 R1.551
G3 X25.027 Y-6.003 R1.387
X25.497 Y-4.401 R18.529
X26.14 Y0.325 R22.82
G2 X27.634 Y4.853 R8.398
X28.62 Y5.955 R5.997
X29.792 Y6.857 R12.117
G3 X30.768 Y8.696 R2.221
G1 Y17.493
G3 X30.001 Y17.811 R0.449
X28.131 Y15.933 R468.753
G2 X25.919 Y14.473 R6.456
X22.353 Y13.855 R8.877
X18.855 Y14.784 R8.076
X16.462 Y16.149 R42.585
G3 X13.987 Y17.357 R14.316
X-2.997 Y-15.268 R18.529
X25.027 Y-6.003 R18.529
G2 X26.366 Y-4.915 R1.629
G3 X27.614 Y-3.723 R1.448
X28.099 Y0.455 R38.635
G2 X29.246 Y3.594 R5.86
X31.847 Y5.694 R6.701
G3 X32.804 Y7.181 R1.634
G1 Y19.753
G3 X31.841 Y20.717 R0.963
G1 X30.734
G3 X29.531 Y20.219 R1.703
X27.007 Y17.644 R167.576
G2 X23.811 Y15.974 R5.651
X19.384 Y16.816 R6.668
G3 X14.819 Y19.127 R37.101
X9.871 Y20.431 R18.058
X0.265 Y-19.253 R20.568
X25.732 Y-9.518 R20.555
X27.442 Y-4.657 R18.007
X27.614 Y-3.723 R38.635
G2 X29.023 Y-2.211 R1.884
G3 X30.366 Y-0.641 R1.771
X30.435 Y0.312 R40.513
G2 X31.653 Y2.837 R3.703
X34.233 Y3.934 R4.308
G3 X35.145 Y4.912 R0.98
G1 Y22.094
G3 X34.181 Y23.057 R0.963
G1 X30.318
G3 X28.171 Y22.169 R3.039
X25.798 Y19.601 R43.628
G2 X22.584 Y18.225 R3.937
X21.547 Y18.404 R4.537
X20.583 Y18.827 R4.226
G3 X15.57 Y21.347 R39.076
X10.141 Y22.76 R20.201
X-0.561 Y-21.448 R22.913
X27.809 Y-10.605 R22.899
X29.699 Y-5.285 R20.141
X30.366 Y-0.641 R40.513
G2 X32.829 Y1.601 R2.45
G3 X36.16 Y1.585 R400.921
G1 X37.5 Y1.584
Y25.413
X28.086
X23.783 Y21.115
G2 X23.658 Y21.014 R0.794
G1 X23.536 Y20.934
G2 X23.392 Y20.859 R0.794
G1 X23.225 Y20.793
G2 X23.057 Y20.747 R0.794
G1 X22.89 Y20.72
G2 X22.722 Y20.712 R0.794
G1 X22.555 Y20.721
G2 X22.387 Y20.749 R0.794
G1 X22.22 Y20.795
G2 X22.061 Y20.858 R0.794
G1 X21.894 Y20.946
G2 X21.858 Y20.966 R0.794
G1 X19.172 Y22.568
X16.395 Y23.802
X13.474 Y24.697
X10.429 Y25.239
X7.352 Y25.407
X4.33 Y25.211
X1.303 Y24.642
X-1.607 Y23.721
X-4.404 Y22.448
X-7.005 Y20.862
X-9.41 Y18.964
X-11.589 Y16.769
X-13.478 Y14.335
X-15.043 Y11.722
X-16.29 Y8.926
X-17.19 Y6.005
X-17.734 Y2.976
X-17.907 Y-0.109
X-17.715 Y-3.137
X-17.149 Y-6.167
X-16.228 Y-9.088
X-14.958 Y-11.884
X-13.367 Y-14.497
X-11.463 Y-16.911
X-9.323 Y-19.041
X-6.895 Y-20.939
X-4.244 Y-22.531
X-1.44 Y-23.783
X1.469 Y-24.683
X4.491 Y-25.23
X7.568 Y-25.408
X10.59 Y-25.221
X13.613 Y-24.663
X16.569 Y-23.734
X19.341 Y-22.481
X21.966 Y-20.889
X24.364 Y-19.007
X26.532 Y-16.835
X28.437 Y-14.395
X30.021 Y-11.761
X31.265 Y-8.99
X32.18 Y-6.036
X32.727 Y-3.029
X32.922 Y0.16
G2 X32.945 Y0.307 R0.794
G1 X32.987 Y0.474
G2 X33.037 Y0.613 R0.794
G1 X33.089 Y0.724
G2 X33.156 Y0.842 R0.794
G1 X33.241 Y0.964
G2 X33.342 Y1.083 R0.794
G1 X33.459 Y1.196
G2 X33.575 Y1.288 R0.794
G1 X33.686 Y1.361
G2 X33.824 Y1.434 R0.794
G1 X33.991 Y1.501
G2 X34.159 Y1.548 R0.794
G1 X34.326 Y1.576
G2 X34.455 Y1.586 R0.794
G1 X36.16 Y1.585
G3 X36.243 Y1.768 R0.11
G1 X27.538 Y11.705
G3 X27.462 Y11.743 R0.111
G1 Z-2.907
G3 X27.45 Z-2.953 R0.11
X27.416 Y11.736 Z-2.987 R0.11
X27.377 Y11.71 Z-3. R0.11
G1 X27.194 Y11.527
G3 X27.509 Y10.777 R0.439
G1 X27.781 Y10.778
G3 X28.31 Y11.306 R0.528
G1 Y11.559
G3 X27.543 Y11.876 R0.449
G1 X27.377 Y11.71
G3 X27.35 Y11.673 Z-2.987 R0.141
X27.339 Y11.64 Z-2.953 R0.141
X27.337 Y11.628 Z-2.907 R0.141
G0 Z5.
X12.946 Y20.165
Z2.
G1 Z-2.907 F762.
G3 X12.959 Y20.166 Z-2.953 R0.11
X12.991 Y20.177 Z-2.987 R0.11
X13.027 Y20.207 Z-3. R0.111
G1 X13.043 Y20.227
X13.056 Y20.282
X13.045 Y20.332
X13.01 Y20.377
X12.965 Y20.399
X12.912 Y20.4
X12.864 Y20.378
X12.831 Y20.339
X12.814 Y20.277
X12.859 Y19.993
X13.027 Y20.207
G3 X12.996 Y20.36 R0.102
G1 X12.977 Y20.37
G3 X12.829 Y20.256 R0.102
G1 Z-4.906
G3 X12.832 Y20.244 Z-4.953 R0.11
X12.849 Y20.214 Z-4.987 R0.11
X12.885 Y20.185 Z-5. R0.11
G1 X12.91 Y20.171
X12.965
X13.014 Y20.193
X13.044 Y20.231
X13.056 Y20.282
X13.045 Y20.332
X13.01 Y20.377
X12.965 Y20.399
X12.912 Y20.4
X12.864 Y20.378
X12.831 Y20.339
X12.815 Y20.279
X12.819 Y20.255
X12.862 Y20.197
X12.885 Y20.185
G3 X12.973 Y20.186 R0.092
G1 X13.004 Y20.204
G3 X13.049 Y20.266 R0.092
G1 Z-5.906
G3 X13.05 Y20.279 Z-5.953 R0.111
X13.048 Y20.313 Z-5.987 R0.111
X13.028 Y20.355 Z-6. R0.111
G1 X13.01 Y20.377
X12.965 Y20.399
X12.912 Y20.4
X12.864 Y20.378
X12.831 Y20.339
X12.815 Y20.279
X12.819 Y20.255
X12.862 Y20.197
X12.91 Y20.171
X12.965
X13.014 Y20.193
X13.044 Y20.231
X13.056 Y20.282
X13.045 Y20.332
X13.028 Y20.355
G3 X12.856 Y20.358 R0.111
G1 X12.852 Y20.354
G3 X12.829 Y20.256 R0.11
G1 Z-7.906
G3 X12.832 Y20.244 Z-7.953 R0.11
X12.849 Y20.214 Z-7.987 R0.11
X12.885 Y20.185 Z-8. R0.11
G1 X12.91 Y20.171
X12.965
X13.014 Y20.193
X13.044 Y20.231
X13.056 Y20.282
X13.045 Y20.332
X13.01 Y20.377
X12.965 Y20.399
X12.912 Y20.4
X12.864 Y20.378
X12.831 Y20.339
X12.815 Y20.281
X12.82 Y20.253
X12.862 Y20.197
X12.885 Y20.185
G3 X12.913 Y20.218 R0.022
G1 X12.869 Y20.275
G3 X12.83 Y20.256 R0.022
G1 Z-9.906
G3 X12.833 Y20.244 Z-9.953 R0.11
X12.85 Y20.214 Z-9.987 R0.111
X12.885 Y20.184 Z-10. R0.11
G1 X12.91 Y20.171
X12.965
X13.014 Y20.193
X13.044 Y20.231
X13.056 Y20.282
X13.045 Y20.332
X13.01 Y20.377
X12.965 Y20.399
X12.912 Y20.4
X12.864 Y20.378
X12.831 Y20.339
X12.817 Y20.286
X12.825 Y20.247
X12.862 Y20.196
X12.885 Y20.184
X12.91 Y20.171 Z-9.996
X12.942 Z-9.978
X12.965 Z-9.95
X12.972 Y20.174 Z-9.929
X12.975 Y20.175 Z-9.906
G0 Z5.
X6.681 Y-0.244
Z2.
G1 Z-2.907 F762.
G3 X6.676 Y-0.256 Z-2.953 R0.111
X6.67 Y-0.289 Z-2.987 R0.11
X6.678 Y-0.335 Z-3. R0.11
X7.412 Y-0.917 R0.951
X8.337 Y-0.448 R0.886
X8.437 Y-0.173 R1.151
X8.478 Y0.116 R1.83
X8.098 Y0.789 R0.71
X7.039 Y0.759 R1.085
X6.641 Y-0.223 R0.88
X6.678 Y-0.335 R0.951
G2 X6.525 Y-1.927 R1.727
G3 X7.231 Y-3.361 R0.93
X8.478 Y-3.224 R3.365
X10.447 Y-1.502 R3.191
X11.083 Y1.036 R7.151
X10.216 Y2.554 R1.593
X7.194 Y3.233 R6.276
X4.549 Y1.622 R3.123
X7.231 Y-3.361 R3.365
G2 X8.777 Y-4.432 R1.869
G3 X10.58 Y-4.968 R1.259
X12.984 Y-2.035 R5.848
X13.481 Y0.359 R8.089
G2 X13.792 Y2.785 R16.403
G3 X13.098 Y4.005 R1.065
G2 X9.752 Y5.336 R40.411
G3 X6.168 Y5.687 R5.632
X4.494 Y-5.008 R5.836
X10.58 Y-4.968 R5.848
G2 X12.459 Y-4.954 R1.808
G3 X14.292 Y-4.541 R1.362
X14.754 Y-3.756 R8.128
X15.673 Y-0.295 R8.339
G2 X16.238 Y3.242 R15.592
X16.502 Y3.989 R5.882
X16.821 Y4.714 R75.629
G3 X16.298 Y5.634 R0.658
G2 X13.532 Y6.321 R11.485
X10.907 Y7.431 R44.039
G3 X0.219 Y-3.683 R8.159
X7.464 Y-8.159 R8.208
X14.292 Y-4.541 R8.128
G2 X15.84 Y-3.79 R1.698
G3 X17.234 Y-2.781 R1.326
X17.758 Y0.69 R19.965
G2 X20.906 Y7.13 R9.363
X27.611 Y9.665 R10.126
X28.059 Y9.651 R7.164
G3 X28.506 Y9.637 R7.164
X29.45 Y10.581 R0.944
G1 Y14.332
G3 X28.699 Y14.643 R0.44
X24.709 Y10.528 R182.887
G2 X19.732 Y7.684 R9.784
X16.846 Y7.493 R9.323
X14.032 Y8.158 R10.19
X12.124 Y9.1 R12.63
G3 X10.166 Y9.931 R7.541
X0.657 Y7.531 R10.096
X-2.687 Y-1.689 R10.861
X-2.174 Y-3.606 R7.079
X14.078 Y-7.961 R10.679
X15.445 Y-6.608 R7.079
X17.146 Y-3.131 R9.783
X17.234 Y-2.781 R19.965
G2 X18.075 Y-1.998 R1.043
G3 X18.881 Y-1.18 R0.98
X19.072 Y0.609 R20.159
G2 X21.8 Y6.19 R8.114
X27.611 Y8.387 R8.775
X28.708 Y8.353 R17.574
G3 X29.806 Y8.318 R17.574
X30.769 Y9.281 R0.963
G1 Y17.493
G3 X30.002 Y17.81 R0.449
G1 X23.577 Y11.197
G2 X19.377 Y8.945 R8.25
X14.63 Y9.362 R8.424
X13.02 Y10.177 R9.545
G3 X11.41 Y10.993 R10.587
X9.583 Y11.465 R7.224
X0.562 Y9.123 R12.7
X-4.021 Y1.008 R11.254
X-3.976 Y-2.012 R14.779
X-3.453 Y-3.969 R7.224
X3.086 Y-10.586 R12.613
X12.387 Y-10.481 R11.284
X14.999 Y-8.919 R14.779
X16.393 Y-7.538 R7.224
X18.34 Y-3.664 R11.57
X18.881 Y-1.18 R20.159
G2 X20.042 Y0.202 R1.732
G3 X21.259 Y1.534 R1.859
G2 X23.181 Y4.739 R6.192
X27.61 Y6.416 R6.682
X29.726 Y6.349 R33.877
G3 X31.841 Y6.282 R33.877
X32.804 Y7.245 R0.963
G1 Y19.753
G3 X31.841 Y20.717 R0.963
G1 X30.736
G3 X29.532 Y20.218 R1.703
G1 X22.138 Y12.636
G2 X18.961 Y10.933 R6.239
X15.371 Y11.249 R6.373
X13.647 Y12.115 R10.59
G3 X11.923 Y12.981 R11.796
X10.097 Y13.452 R7.224
X2.678 Y12.611 R16.056
X-3.326 Y8.172 R13.098
X-5.682 Y3.07 R13.319
X-5.962 Y-2.543 R16.585
X-5.439 Y-4.5 R7.224
X-0.99 Y-10.496 R15.933
X5.861 Y-13.465 R13.183
X11.452 Y-12.947 R13.215
X16.444 Y-10.378 R16.703
X17.838 Y-8.998 R7.224
X20.178 Y-4.501 R14.599
X21.103 Y0.483 R20.877
G2 X21.259 Y1.534 R6.192
X23.293 Y3.159 R2.115
G3 X25.838 Y3.705 R6.541
G2 X26.156 Y3.829 R4.229
X27.487 Y4.077 R4.62
X30.835 Y4.04 R34.921
G3 X34.181 Y3.941 R57.197
X35.144 Y4.904 R0.963
G1 Y22.094
G3 X34.181 Y23.057 R0.963
G1 X30.32
G3 X28.172 Y22.168 R3.039
G1 X20.483 Y14.292
G2 X18.484 Y13.22 R3.925
X16.224 Y13.419 R4.014
X14.369 Y14.343 R11.825
G3 X12.513 Y15.266 R13.231
X10.687 Y15.738 R7.224
X1.918 Y14.789 R19.386
X-5.201 Y9.583 R15.208
X-7.957 Y3.51 R15.342
X-8.245 Y-3.153 R20.46
X-7.722 Y-5.11 R7.224
X-2.504 Y-12.234 R19.332
X5.577 Y-15.793 R15.276
X12.204 Y-15.139 R15.249
X18.108 Y-12.056 R20.549
X19.553 Y-10.609 R7.224
X21.999 Y-6.497 R22.617
X23.301 Y-1.892 R15.477
X23.618 Y0.817 R361.33
G2 X24.963 Y3.189 R3.479
X25.838 Y3.705 R4.229
X28.29 Y2.888 R1.93
G3 X30.522 Y1.587 R2.567
G1 X37.5 Y1.584
Y25.413
X28.086
X18.722 Y16.054
G2 X18.603 Y15.956 R0.794
G1 X18.475 Y15.87
G2 X18.347 Y15.8 R0.794
G1 X18.22 Y15.746
G2 X18.081 Y15.701 R0.794
G1 X17.931 Y15.667
G2 X17.772 Y15.647 R0.794
G1 X17.605 Y15.644
G2 X17.437 Y15.659 R0.794
G1 X17.27 Y15.692
G2 X17.132 Y15.732 R0.794
G1 X17.024 Y15.774
G2 X16.946 Y15.81 R0.794
G1 X15.197 Y16.724
X13.36 Y17.465
G2 X13.22 Y17.538 R0.794
G1 X13.073 Y17.635
G2 X12.938 Y17.747 R0.794
G1 X12.818 Y17.871
G2 X12.712 Y18.008 R0.794
G1 X12.622 Y18.154
G2 X12.553 Y18.299 R0.794
G1 X12.502 Y18.439
G2 X12.47 Y18.554 R0.794
G1 X12.405 Y18.486
G2 X12.3 Y18.394 R0.794
G1 X12.194 Y18.316
G2 X12.067 Y18.24 R0.794
G1 X11.92 Y18.17
G2 X11.762 Y18.114 R0.794
G1 X11.595 Y18.074
G2 X11.427 Y18.053 R0.794
G1 X11.26 Y18.049
G2 X11.147 Y18.055 R0.794
G1 X8.475 Y18.382
X5.859 Y18.333
X3.33 Y17.928
X0.903 Y17.186
X-1.45 Y16.084
X-3.587 Y14.694
X-5.539 Y12.991
X-7.196 Y11.085
X-8.613 Y8.898
X-9.692 Y6.578
X-10.44 Y4.117
X-10.838 Y1.604
X-10.883 Y-0.963
X-10.552 Y-3.698
G2 X-10.549 Y-3.86 R0.794
G1 X-10.563 Y-4.028
G2 X-10.593 Y-4.185 R0.794
G1 X-10.636 Y-4.331
G2 X-10.693 Y-4.472 R0.794
G1 X-10.763 Y-4.608
G2 X-10.853 Y-4.744 R0.794
G1 X-10.963 Y-4.879
G2 X-11.05 Y-4.97 R0.794
X-11.005 Y-4.983 R0.794
G1 X-10.859 Y-5.029
G2 X-10.738 Y-5.079 R0.794
G1 X-10.64 Y-5.129
G2 X-10.527 Y-5.199 R0.794
G1 X-10.401 Y-5.292
G2 X-10.287 Y-5.396 R0.794
G1 X-10.185 Y-5.508
G2 X-10.09 Y-5.636 R0.794
G1 X-10.005 Y-5.78
G2 X-9.957 Y-5.875 R0.794
G1 X-8.909 Y-8.341
X-7.555 Y-10.589
X-5.951 Y-12.566
X-4.081 Y-14.309
X-1.976 Y-15.782
X0.31 Y-16.946
X2.765 Y-17.787
X5.273 Y-18.272
X7.819 Y-18.406
X10.395 Y-18.178
X12.869 Y-17.608
X15.278 Y-16.684
X17.528 Y-15.437
X19.729 Y-13.784
G2 X19.875 Y-13.697 R0.794
G1 X20.042 Y-13.621
G2 X20.21 Y-13.566 R0.794
G1 X20.377 Y-13.531
G2 X20.545 Y-13.514 R0.794
G1 X20.712 Y-13.515
G2 X20.88 Y-13.535 R0.794
G1 X21.047 Y-13.572
G2 X21.08 Y-13.58 R0.794
X21.05 Y-13.459 R0.794
G1 X21.022 Y-13.283
G2 X21.012 Y-13.117 R0.794
G1 X21.02 Y-12.961
G2 X21.045 Y-12.797 R0.794
G1 X21.09 Y-12.628
G2 X21.141 Y-12.488 R0.794
G1 X21.195 Y-12.377
G2 X21.27 Y-12.251 R0.794
G1 X21.433 Y-12.028
G2 X21.444 Y-12.013 R0.794
G1 X22.748 Y-10.313
X23.856 Y-8.45
X24.753 Y-6.417
X25.392 Y-4.331
X25.779 Y-2.192
X25.926 Y0.185
G2 X25.954 Y0.35 R0.794
G1 X25.997 Y0.505
G2 X26.06 Y0.662 R0.794
G1 X26.142 Y0.817
G2 X26.24 Y0.962 R0.794
G1 X26.354 Y1.095
G2 X26.476 Y1.21 R0.794
G1 X26.601 Y1.306
G2 X26.733 Y1.388 R0.794
G1 X26.868 Y1.454
G2 X27.02 Y1.511 R0.794
G1 X27.187 Y1.554
G2 X27.356 Y1.579 R0.794
G1 X27.579 Y1.587
G2 X27.609 R0.794
G1 X30.522
G3 X30.627 Y1.73 R0.11
G1 X27.543 Y11.682
G3 X27.444 Y11.76 R0.111
G1 Z-4.906
G3 X27.431 Z-4.953 R0.111
X27.398 Y11.753 Z-4.987 R0.111
X27.359 Y11.728 Z-5. R0.11
G1 X27.147 Y11.516
G3 X27.465 Y10.749 R0.449
G1 X27.808
G3 X28.337 Y11.278 R0.528
G1 Y11.621
G3 X27.57 Y11.939 R0.449
G1 X27.359 Y11.728
G2 X26.303 Y11.517 R0.97
G3 X25.248 Y11.306 R0.97
G1 X24.265 Y10.323
G3 X24.582 Y9.556 R0.449
G1 X28.568 Y9.555
G3 X29.531 Y10.518 R0.963
G1 Y14.504
G3 X28.764 Y14.821 R0.449
G1 X25.248 Y11.306
G3 X25.221 Y11.268 Z-4.987 R0.14
X25.21 Y11.235 Z-4.953 R0.14
X25.208 Y11.223 Z-4.906 R0.141
G0 Z5.
X7.87 Y-0.082
Z0.
G1 Z-4.906 F762.
G3 X7.879 Y-0.073 Z-4.953 R0.111
X7.898 Y-0.045 Z-4.987 R0.111
X7.907 Y0. Z-5. R0.111
X7.097 R0.405
X7.907 R0.405
G2 X8.802 Y1.193 R1.242
G3 X8.764 Y2.683 R0.771
X7.731 Y2.861 R8.484
X5.683 Y2.258 R2.767
X4.828 Y-1.119 R2.916
X7.835 Y-2.879 R2.882
X9.933 Y-1.406 R2.71
X10.628 Y1.061 R6.736
X9.807 Y2.363 R1.278
X8.764 Y2.683 R8.484
G2 X7.493 Y4.047 R1.682
G3 X5.904 Y5.025 R1.234
X5.621 Y4.926 R5.171
X6.461 Y-5.171 R5.272
X12.168 Y-2.457 R5.254
X12.927 Y0.299 R6.692
G2 X13.465 Y3.107 R10.541
G3 X12.874 Y4.043 R0.713
G2 X9.301 Y4.924 R15.036
G3 X5.904 Y5.025 R5.171
G2 X4.441 Y5.389 R1.445
G3 X2.935 Y5.461 R1.112
X4.96 Y-6.654 R7.125
X13.197 Y-4.275 R7.144
X14.569 Y-0.278 R6.818
G2 X15.64 Y3.81 R8.865
X22.496 Y7.797 R7.622
G3 X30.426 Y7.716 R393.655
X31.37 Y8.66 R0.944
G1 Y18.765
G3 X30.852 Y19.283 R0.518
G1 X30.84
G3 X30.474 Y19.131 R0.518
G1 X19.482 Y7.952
G2 X11.247 Y6.173 R7.775
G3 X8.725 Y6.942 R19.865
X6.088 Y6.98 R6.173
X2.935 Y5.461 R7.125
G2 X1.728 Y5.299 R1.139
G3 X0.552 Y4.986 R0.957
X4.451 Y-7.997 R8.561
X14.344 Y-5.139 R8.58
X15.637 Y-2.384 R7.408
X16.115 Y0.621 R20.478
G2 X22.874 Y6.519 R6.442
G3 X31.841 Y6.282 R171.115
X32.804 Y7.245 R0.963
G1 Y19.753
G3 X31.841 Y20.716 R0.963
G1 X30.737
G3 X29.533 Y20.218 R1.703
G1 X18.47 Y8.964
G2 X11.754 Y7.511 R6.344
G3 X8.84 Y8.371 R20.143
X5.802 Y8.387 R7.422
X0.552 Y4.986 R8.561
G2 X-1.253 Y4.24 R1.849
G3 X-2.915 Y3.213 R1.485
X3.618 Y-10.192 R10.909
X16.22 Y-6.552 R10.928
X17.828 Y-3.221 R9.492
X18.447 Y0.426 R21.759
G2 X19.755 Y3.041 R3.934
X22.488 Y4.079 R4.114
X28.335 Y4.01 R251.864
G3 X34.181 Y3.941 R251.864
X35.144 Y4.904 R0.963
G1 Y22.094
G3 X34.181 Y23.057 R0.963
G1 X30.321
G3 X28.172 Y22.167 R3.039
G1 X16.815 Y10.62
G2 X14.835 Y9.536 R4.023
X12.584 Y9.7 R3.954
G3 X9.029 Y10.708 R21.492
X5.333 Y10.689 R9.509
X-2.915 Y3.213 R10.909
G2 X-4.496 Y1.87 R1.93
G3 X-5.861 Y0.307 R1.58
G1 X-5.864 Y-1.053
X-5.516 Y-3.21
X-5.481 Y-3.314
X-4.827 Y-5.266
X-3.833 Y-7.161
X-2.521 Y-8.903
X-0.999 Y-10.367
X0.793 Y-11.608
X2.732 Y-12.529
X4.835 Y-13.137
X6.935 Y-13.393
X9.089 Y-13.311
X11.245 Y-12.872
X13.24 Y-12.116
X15.133 Y-11.02
X16.762 Y-9.69
X18.216 Y-8.057
X19.366 Y-6.239
X20.217 Y-4.245
X20.732 Y-2.158
X20.93 Y0.219
G2 X20.962 Y0.384 R0.794
G1 X21.009 Y0.538
G2 X21.07 Y0.685 R0.794
G1 X21.146 Y0.825
G2 X21.237 Y0.958 R0.794
G1 X21.342 Y1.083
G2 X21.449 Y1.188 R0.794
G1 X21.554 Y1.273
G2 X21.685 Y1.36 R0.794
G1 X21.843 Y1.442
G2 X22.005 Y1.506 R0.794
G1 X22.169 Y1.55
G2 X22.308 Y1.575 R0.794
G1 X22.419 Y1.584
G2 X22.488 Y1.587 R0.794
G1 X37.5 Y1.584
Y25.413
X28.086
X15.053 Y12.381
G2 X14.961 Y12.302 R0.794
G1 X14.84 Y12.214
G2 X14.718 Y12.14 R0.794
G1 X14.597 Y12.081
G2 X14.452 Y12.027 R0.794
G1 X14.285 Y11.983
G2 X14.117 Y11.958 R0.794
G1 X13.95 Y11.95
G2 X13.782 Y11.961 R0.794
G1 X13.615 Y11.989
G2 X13.467 Y12.03 R0.794
G1 X11.244 Y12.872
X9.143 Y13.304
X6.988 Y13.395
X4.835 Y13.138
X2.732 Y12.527
X0.792 Y11.606
X-0.945 Y10.409
X-2.522 Y8.904
X-3.832 Y7.161
X-4.829 Y5.266
X-5.515 Y3.211
X-5.859 Y1.106
X-5.861 Y0.307
G3 X-5.753 Y0.197 R0.11
G1 X7.794 Y-0.11
G3 X7.87 Y-0.082 R0.111
G1 Z-5.906
G3 X7.879 Y-0.073 Z-5.953 R0.111
X7.898 Y-0.045 Z-5.987 R0.111
X7.907 Y0. Z-6. R0.111
X7.097 R0.405
X7.907 R0.405
G2 X8.802 Y1.193 R1.242
G3 X8.764 Y2.683 R0.771
X7.731 Y2.861 R8.484
X5.683 Y2.258 R2.767
X4.828 Y-1.119 R2.916
X7.835 Y-2.879 R2.882
X9.933 Y-1.406 R2.71
X10.628 Y1.061 R6.736
X9.807 Y2.363 R1.278
X8.764 Y2.683 R8.484
G2 X7.493 Y4.047 R1.682
G3 X5.904 Y5.025 R1.234
X5.621 Y4.926 R5.171
X6.461 Y-5.171 R5.272
X12.168 Y-2.457 R5.254
X12.927 Y0.299 R6.692
G2 X13.465 Y3.107 R10.541
G3 X12.874 Y4.043 R0.713
G2 X9.301 Y4.924 R15.036
G3 X5.904 Y5.025 R5.171
X5.863 Y5.005 Z-5.987 R0.14
X5.837 Y4.982 Z-5.953 R0.14
X5.83 Y4.972 Z-5.906 R0.141
G0 Z5.
X27.444 Y11.76
Z-2.
G1 Z-5.906 F762.
G3 X27.431 Z-5.953 R0.111
X27.398 Y11.753 Z-5.987 R0.111
X27.359 Y11.728 Z-6. R0.11
G1 X27.147 Y11.516
G3 X27.465 Y10.749 R0.449
G1 X27.808
G3 X28.337 Y11.278 R0.528
G1 Y11.621
G3 X27.57 Y11.939 R0.449
G1 X27.359 Y11.728
G2 X26.303 Y11.517 R0.97
G3 X25.248 Y11.306 R0.97
G1 X24.265 Y10.323
G3 X24.582 Y9.556 R0.449
G1 X28.568 Y9.555
G3 X29.531 Y10.518 R0.963
G1 Y14.504
G3 X28.764 Y14.821 R0.449
G1 X25.248 Y11.306
G2 X23.7 Y10.986 R1.438
G3 X22.152 Y10.667 R1.419
G1 X19.482 Y7.952
G2 X11.247 Y6.173 R7.775
G3 X8.725 Y6.942 R19.865
X6.088 Y6.98 R6.173
X4.96 Y-6.654 R7.125
X13.197 Y-4.275 R7.144
X14.569 Y-0.278 R6.818
G2 X15.64 Y3.81 R8.865
X22.496 Y7.797 R7.622
G3 X30.426 Y7.716 R393.655
X31.37 Y8.66 R0.944
G1 Y18.765
G3 X30.852 Y19.283 R0.518
G1 X30.84
G3 X30.474 Y19.131 R0.518
G1 X22.152 Y10.667
G2 X20.889 Y10.404 R1.163
G3 X19.625 Y10.14 R1.163
G1 X18.47 Y8.964
G2 X11.754 Y7.511 R6.344
G3 X8.84 Y8.371 R20.143
X5.802 Y8.387 R7.422
X4.451 Y-7.997 R8.561
X14.344 Y-5.139 R8.58
X15.637 Y-2.384 R7.408
X16.115 Y0.621 R20.478
G2 X22.874 Y6.519 R6.442
G3 X31.841 Y6.282 R171.115
X32.804 Y7.245 R0.963
G1 Y19.753
G3 X31.841 Y20.716 R0.963
G1 X30.737
G3 X29.533 Y20.218 R1.703
G1 X19.625 Y10.14
G2 X17.456 Y9.628 R2.091
G3 X15.227 Y9.643 R3.501
G2 X14.835 Y9.536 R4.023
X12.584 Y9.7 R3.954
G3 X9.029 Y10.708 R21.492
X5.333 Y10.689 R9.509
X3.618 Y-10.192 R10.909
X16.22 Y-6.552 R10.928
X17.828 Y-3.221 R9.492
X18.447 Y0.426 R21.759
G2 X19.755 Y3.041 R3.934
X22.488 Y4.079 R4.114
X28.335 Y4.01 R251.864
G3 X34.181 Y3.941 R251.864
X35.144 Y4.904 R0.963
G1 Y22.094
G3 X34.181 Y23.057 R0.963
G1 X30.321
G3 X28.172 Y22.167 R3.039
G1 X16.815 Y10.62
G2 X15.227 Y9.643 R4.023
X12.827 Y11.011 R1.861
G3 X10.861 Y12.951 R2.536
G1 X9.143 Y13.304
X6.988 Y13.395
X4.835 Y13.138
X2.732 Y12.527
X0.792 Y11.606
X-0.945 Y10.409
X-2.522 Y8.904
X-3.832 Y7.161
X-4.829 Y5.266
X-5.515 Y3.211
X-5.859 Y1.106
X-5.864 Y-1.053
X-5.516 Y-3.21
X-5.481 Y-3.314
X-4.827 Y-5.266
X-3.833 Y-7.161
X-2.521 Y-8.903
X-0.999 Y-10.367
X0.793 Y-11.608
X2.732 Y-12.529
X4.835 Y-13.137
X6.935 Y-13.393
X9.089 Y-13.311
X11.245 Y-12.872
X13.24 Y-12.116
X15.133 Y-11.02
X16.762 Y-9.69
X18.216 Y-8.057
X19.366 Y-6.239
X20.217 Y-4.245
X20.732 Y-2.158
X20.93 Y0.219
G2 X20.962 Y0.384 R0.794
G1 X21.009 Y0.538
G2 X21.07 Y0.685 R0.794
G1 X21.146 Y0.825
G2 X21.237 Y0.958 R0.794
G1 X21.342 Y1.083
G2 X21.449 Y1.188 R0.794
G1 X21.554 Y1.273
G2 X21.685 Y1.36 R0.794
G1 X21.843 Y1.442
G2 X22.005 Y1.506 R0.794
G1 X22.169 Y1.55
G2 X22.308 Y1.575 R0.794
G1 X22.419 Y1.584
G2 X22.488 Y1.587 R0.794
G1 X37.5 Y1.584
Y25.413
X28.086
X15.053 Y12.381
G2 X14.961 Y12.302 R0.794
G1 X14.84 Y12.214
G2 X14.718 Y12.14 R0.794
G1 X14.597 Y12.081
G2 X14.452 Y12.027 R0.794
G1 X14.285 Y11.983
G2 X14.117 Y11.958 R0.794
G1 X13.95 Y11.95
G2 X13.782 Y11.961 R0.794
G1 X13.615 Y11.989
G2 X13.467 Y12.03 R0.794
G1 X11.244 Y12.872
X10.861 Y12.951
G3 X10.729 Y12.856 R0.111
G1 X9.166 Y-0.108
G2 X8.946 Y-0.094 R0.11
G1 Z-7.905
G19 G3 Y0. Z-8. R0.095
G17 G3 X6.054 R1.446
X11.962 R2.954
X3.038 R4.462
X14.979 R5.97
X0.022 R7.478
X17.995 R8.986
X-2.994 R10.495
X17.995 R10.495
G2 X19.203 Y2.385 R2.958
G3 X19.91 Y4.964 R2.151
G1 X19.366 Y6.237
X18.214 Y8.057
X16.814 Y9.64
X15.132 Y11.021
X13.24 Y12.113
X11.244 Y12.872
X9.143 Y13.304
X6.988 Y13.395
X4.835 Y13.138
X2.732 Y12.527
X0.792 Y11.606
X-0.945 Y10.409
X-2.522 Y8.904
X-3.832 Y7.161
X-4.829 Y5.266
X-5.515 Y3.211
X-5.859 Y1.106
X-5.864 Y-1.053
X-5.516 Y-3.21
X-5.481 Y-3.314
X-4.827 Y-5.266
X-3.833 Y-7.161
X-2.521 Y-8.903
X-0.999 Y-10.367
X0.793 Y-11.608
X2.732 Y-12.529
X4.835 Y-13.137
X6.935 Y-13.393
X9.089 Y-13.311
X11.245 Y-12.872
X13.24 Y-12.116
X15.133 Y-11.02
X16.762 Y-9.69
X18.216 Y-8.057
X19.366 Y-6.239
X20.217 Y-4.245
X20.732 Y-2.159
X20.907 Y0.
X20.731 Y2.159
X20.217 Y4.244
X19.91 Y4.964
G3 X19.723 Y4.992 R0.111
G1 X15.667 Y0.14
G2 X15.539 Y0.109 R0.11
G1 Z-9.906
G3 X15.528 Y0.113 Z-9.953 R0.111
X15.494 Y0.118 Z-9.987 R0.11
X15.449 Y0.107 Z-10. R0.11
G1 X15.424 Y0.095
X15.39 Y0.052
X15.378 Y0.
X15.39 Y-0.052
X15.424 Y-0.095
X15.473 Y-0.119
X15.527
X15.576 Y-0.095
X15.61 Y-0.053
X15.622 Y0.
X15.61 Y0.053
X15.576 Y0.095
X15.527 Y0.119
X15.473
X15.449 Y0.107
X15.424 Y0.095 Z-9.996
X15.405 Y0.07 Z-9.979
X15.39 Y0.052 Z-9.952
X15.388 Y0.044 Z-9.93
Y0.041 Z-9.906
G0 Z5.
X7.571 Y0.962
Z-5.
G1 Z-9.906 F762.
G3 X7.562 Y0.971 Z-9.953 R0.111
X7.533 Y0.989 Z-9.987 R0.11
X7.487 Y0.998 Z-10. R0.111
X7.514 Y-0.998 R0.998
X7.487 Y0.998 R0.998
G2 X5.843 Y1.849 R1.964
G3 X4.002 Y1.655 R1.054
G1 X3.738 Y1.019
X3.601 Y0.
X3.738 Y-1.019
X4.12 Y-1.941
X4.734 Y-2.744
X5.548 Y-3.374
X6.496 Y-3.766
X7.513 Y-3.897
X8.506 Y-3.766
X8.516 Y-3.763
X9.457 Y-3.371
X10.251 Y-2.762
X10.876 Y-1.949
X11.267 Y-1.003
X11.399 Y0.
X11.267 Y1.003
X10.882 Y1.935
X10.686 Y2.198
X10.251 Y2.761
X9.457 Y3.371
X8.525 Y3.759
X7.909 Y3.845
X7.513 Y3.897
X6.496 Y3.766
X5.548 Y3.374
X4.734 Y2.744
X4.12 Y1.941
X4.002 Y1.655
G3 X3.991 Y1.61 Z-9.987 R0.141
X3.993 Y1.576 Z-9.953 R0.141
X3.996 Y1.563 Z-9.906 R0.141
G0 Z5.
X-0.596 Y0.062
Z-5.
G1 Z-9.906 F762.
G3 X-0.603 Y0.052 Z-9.953 R0.111
X-0.614 Y0.019 Z-9.987 R0.111
X-0.613 Y-0.027 Z-10. R0.111
G1 X-0.605 Y-0.058
X-0.576 Y-0.095
X-0.529 Y-0.118
X-0.481
X-0.418 Y-0.087
X-0.39 Y-0.053
X-0.378 Y0.
X-0.39 Y0.053
X-0.418 Y0.087
X-0.455 Y0.105
X-0.481 Y0.118
X-0.529
X-0.576 Y0.095
X-0.605 Y0.058
X-0.619 Y0.
X-0.613 Y-0.027
X-0.605 Y-0.058 Z-9.994
X-0.589 Y-0.079 Z-9.979
X-0.576 Y-0.095 Z-9.956
X-0.566 Y-0.1 Z-9.932
X-0.563 Y-0.101 Z-9.906
G0 Z5.
X6.801 Y-9.423
Z-5.
G1 Z-9.906 F762.
X6.793 Z-9.943
G3 X6.774 Y-9.431 Z-9.974 R0.029
X6.767 Y-9.459 Z-9.993 R0.029
X6.791 Y-9.481 Z-10. R0.029
G1 X6.793
X7.396 Y-9.485
G2 X7.377 Y-9.483 R0.794
G1 X5.812 Y-9.32
X5.675 Y-9.323
X6.782 Y-9.48
X6.791 Y-9.481
X6.793
X6.828 Y-9.482 Z-9.992
X6.858 Z-9.972
X6.878 Z-9.942
X6.885 Z-9.906
G0 Z5.
X8.104 Y-9.43
Z-5.
G1 Z-9.906 F762.
X8.097 Y-9.431 Z-9.943
G3 X8.079 Y-9.442 Z-9.974 R0.029
X8.075 Y-9.47 Z-9.993 R0.029
X8.102 Y-9.489 Z-10. R0.029
G1 X8.104
X9.243 Y-9.34
X9.101 Y-9.336
X8.092 Y-9.431
X7.533 Y-9.484
G2 X7.513 Y-9.486 R0.794
G1 X8.093 Y-9.489
X8.102
X8.104
X8.139 Y-9.484 Z-9.992
X8.168 Y-9.481 Z-9.972
X8.188 Y-9.478 Z-9.942
X8.195 Y-9.477 Z-9.906
G0 Z5.
X7.514 Y9.621
Z-5.
G1 Z-10. F762.
G2 X7.579 Y9.619 R0.794
G1 X8.86 Y9.514
X8.953 Y9.519
X7.522 Y9.639
X7.514 Y9.64
X6.064 Y9.52
X6.167 Y9.515
X7.451 Y9.619
G2 X7.514 Y9.621 R0.794
G1 X7.523
G2 X7.553 Y9.62 Z-9.991 R0.794
X7.579 Y9.619 Z-9.973 R0.794
G1 X7.6 Y9.617 Z-9.943
X7.607 Y9.616 Z-9.906
G0 Z5.
X31.542 Y18.455
Z-3.
G1 Z-7.906 F762.
G3 X31.55 Y18.465 Z-7.953 R0.061
X31.561 Y18.497 Z-7.987 R0.061
X31.546 Y18.54 Z-8. R0.061
G1 X31.533 Y18.555
X31.513 Y18.563
X31.477 Y18.559
X31.45 Y18.54
X31.437 Y18.516
Y18.484
X31.449 Y18.461
X31.478 Y18.441
X31.509 Y18.437
X31.539 Y18.449
X31.558 Y18.47
X31.565 Y18.5
X31.559 Y18.525
X31.546 Y18.54
G3 X31.509 Y18.527 R0.021
G1 X31.506 Y18.472
G3 X31.542 Y18.455 R0.021
G1 Z-9.906
G3 X31.55 Y18.465 Z-9.953 R0.061
X31.561 Y18.497 Z-9.987 R0.061
X31.546 Y18.54 Z-10. R0.061
G1 X31.533 Y18.555
X31.513 Y18.563
X31.477 Y18.559
X31.45 Y18.54
X31.437 Y18.516
Y18.484
X31.449 Y18.461
X31.478 Y18.441
X31.509 Y18.437
X31.539 Y18.449
X31.558 Y18.47
X31.565 Y18.5
X31.559 Y18.525
X31.546 Y18.54
X31.533 Y18.555 Z-9.998
X31.513 Y18.563 Z-9.99
X31.493 Y18.56 Z-9.976
X31.477 Y18.559 Z-9.958
X31.467 Y18.552 Z-9.933
X31.464 Y18.55 Z-9.906
G0 Z5.
X22.46 Y-14.86
Z2.
G1 Z-2.907 F762.
G3 X22.461 Y-14.848 Z-2.953 R0.111
X22.457 Y-14.814 Z-2.987 R0.111
X22.435 Y-14.773 Z-3. R0.111
G1 X22.416 Y-14.75
X22.391 Y-14.738
X22.139 Y-14.637
X22.238 Y-14.896
X22.259 Y-14.924
X22.279 Y-14.944
X22.329 Y-14.967
X22.371 Y-14.966
X22.431 Y-14.937
X22.454 Y-14.908
X22.468 Y-14.845
X22.457 Y-14.799
X22.435 Y-14.773
G3 X22.395 Y-14.795 R0.023
G1 X22.416 Y-14.866
G3 X22.462 Y-14.863 R0.023
G1 Z-4.906
G3 X22.463 Y-14.851 Z-4.953 R0.111
X22.459 Y-14.817 Z-4.987 R0.111
X22.438 Y-14.776 Z-5. R0.111
G1 X22.416 Y-14.75
X22.394 Y-14.739
X22.374 Y-14.731
X22.312 Y-14.737
X22.271 Y-14.762
X22.251 Y-14.788
X22.242 Y-14.803
X22.234 Y-14.844
X22.231 Y-14.875
X22.239 Y-14.897
X22.262 Y-14.928
X22.277 Y-14.943
X22.329 Y-14.967
X22.371 Y-14.966
X22.431 Y-14.937
X22.454 Y-14.908
X22.468 Y-14.845
X22.457 Y-14.799
X22.438 Y-14.776
G3 X22.398 Y-14.796 R0.023
G1 X22.418 Y-14.866
G3 X22.462 Y-14.863 R0.023
G1 Z-5.906
G3 X22.463 Y-14.851 Z-5.953 R0.111
X22.459 Y-14.817 Z-5.987 R0.111
X22.438 Y-14.776 Z-6. R0.111
G1 X22.416 Y-14.75
X22.394 Y-14.739
X22.374 Y-14.731
X22.312 Y-14.737
X22.271 Y-14.762
X22.251 Y-14.788
X22.242 Y-14.803
X22.234 Y-14.844
X22.231 Y-14.875
X22.239 Y-14.897
X22.262 Y-14.928
X22.277 Y-14.943
X22.329 Y-14.967
X22.371 Y-14.966
X22.431 Y-14.937
X22.454 Y-14.908
X22.468 Y-14.845
X22.457 Y-14.799
X22.438 Y-14.776
G3 X22.414 Y-14.763 R0.037
G1 X22.29 Y-14.754
Z-7.906
G3 X22.28 Y-14.76 Z-7.953 R0.11
X22.256 Y-14.785 Z-7.987 R0.111
X22.237 Y-14.827 Z-8. R0.11
G1 X22.234 Y-14.844
X22.231 Y-14.875
X22.239 Y-14.897
X22.262 Y-14.928
X22.277 Y-14.943
X22.329 Y-14.967
X22.371 Y-14.966
X22.431 Y-14.937
X22.454 Y-14.908
X22.468 Y-14.845
X22.457 Y-14.799
X22.416 Y-14.75
X22.401 Y-14.743
X22.377 Y-14.734
X22.308 Y-14.739
X22.271 Y-14.762
X22.251 Y-14.788
X22.242 Y-14.803
X22.237 Y-14.827
G3 X22.252 Y-14.854 R0.024
G1 X22.354 Y-14.897
X22.4 Y-14.952
Z-10.
X22.431 Y-14.937
X22.454 Y-14.908
X22.468 Y-14.845
X22.457 Y-14.799
X22.416 Y-14.75
X22.394 Y-14.739
X22.382 Y-14.734
X22.313 Y-14.736
X22.271 Y-14.762
X22.251 Y-14.788
X22.242 Y-14.803
X22.234 Y-14.844
X22.232 Y-14.867
X22.237 Y-14.889
X22.24 Y-14.898
X22.262 Y-14.928
X22.277 Y-14.943
X22.329 Y-14.967
X22.371 Y-14.966
X22.4 Y-14.952
X22.431 Y-14.937 Z-9.993
X22.443 Y-14.921 Z-9.982
X22.454 Y-14.908 Z-9.967
X22.458 Y-14.892 Z-9.939
X22.459 Y-14.887 Z-9.906
G0 Z5.
X-12.696 Y-5.356
Z2.
G1 Z-2.907 F762.
G3 X-12.705 Y-5.347 Z-2.953 R0.111
X-12.733 Y-5.328 Z-2.987 R0.111
X-12.779 Y-5.318 Z-3. R0.111
G1 X-12.797
X-12.841 Y-5.332
X-12.85 Y-5.336
X-12.876 Y-5.359
X-12.889 Y-5.377
X-12.892 Y-5.384
X-12.902 Y-5.424
X-12.9 Y-5.464
X-12.897 Y-5.475
X-12.888 Y-5.492
X-12.863 Y-5.523
X-12.842 Y-5.538
X-12.818 Y-5.548
X-12.787 Y-5.554
X-12.782
X-12.736 Y-5.543
X-12.712 Y-5.531
X-12.499 Y-5.36
X-12.758 Y-5.318
X-12.779
G3 X-12.864 Y-5.447 R0.092
G1 X-12.85 Y-5.477
G3 X-12.68 Y-5.473 R0.092
G1 Z-4.906
G3 X-12.677 Y-5.461 Z-4.953 R0.11
X-12.673 Y-5.427 Z-4.987 R0.11
X-12.686 Y-5.382 Z-5. R0.11
G1 X-12.701 Y-5.353
X-12.748 Y-5.32
X-12.758 Y-5.318
X-12.797
X-12.841 Y-5.332
X-12.85 Y-5.336
X-12.876 Y-5.359
X-12.889 Y-5.377
X-12.892 Y-5.384
X-12.902 Y-5.424
X-12.9 Y-5.464
X-12.897 Y-5.475
X-12.888 Y-5.492
X-12.863 Y-5.523
X-12.842 Y-5.538
X-12.818 Y-5.548
X-12.787 Y-5.554
X-12.782
X-12.736 Y-5.543
X-12.714 Y-5.532
X-12.7 Y-5.521
X-12.668 Y-5.45
X-12.67 Y-5.413
X-12.686 Y-5.382
G3 X-12.728 Y-5.394 R0.023
G1 X-12.724 Y-5.466
G3 X-12.68 Y-5.473 R0.023
G1 Z-5.906
G3 X-12.677 Y-5.461 Z-5.953 R0.11
X-12.673 Y-5.427 Z-5.987 R0.11
X-12.686 Y-5.382 Z-6. R0.11
G1 X-12.701 Y-5.353
X-12.748 Y-5.32
X-12.758 Y-5.318
X-12.797
X-12.841 Y-5.332
X-12.85 Y-5.336
X-12.876 Y-5.359
X-12.889 Y-5.377
X-12.892 Y-5.384
X-12.902 Y-5.424
X-12.9 Y-5.464
X-12.897 Y-5.475
X-12.888 Y-5.492
X-12.863 Y-5.523
X-12.842 Y-5.538
X-12.818 Y-5.548
X-12.787 Y-5.554
X-12.782
X-12.736 Y-5.543
X-12.714 Y-5.532
X-12.7 Y-5.521
X-12.668 Y-5.45
X-12.67 Y-5.413
X-12.686 Y-5.382
G3 X-12.728 Y-5.394 R0.023
G1 X-12.724 Y-5.466
G3 X-12.68 Y-5.473 R0.023
G1 Z-7.906
G3 X-12.676 Y-5.461 Z-7.953 R0.11
X-12.673 Y-5.427 Z-7.987 R0.11
X-12.685 Y-5.383 Z-8. R0.11
G1 X-12.699 Y-5.356
X-12.752 Y-5.319
X-12.76 Y-5.318
X-12.797
X-12.841 Y-5.332
X-12.85 Y-5.336
X-12.876 Y-5.359
X-12.889 Y-5.377
X-12.892 Y-5.384
X-12.902 Y-5.424
X-12.9 Y-5.464
X-12.897 Y-5.475
X-12.888 Y-5.492
X-12.863 Y-5.523
X-12.842 Y-5.538
X-12.818 Y-5.548
X-12.787 Y-5.554
X-12.782
X-12.736 Y-5.543
X-12.715 Y-5.533
X-12.699 Y-5.519
X-12.668 Y-5.45
X-12.67 Y-5.413
X-12.685 Y-5.383
G3 X-12.829 Y-5.335 R0.109
G1 X-12.839 Y-5.34
G3 X-12.899 Y-5.421 R0.109
G1 Z-9.906
G3 X-12.9 Y-5.434 Z-9.953 R0.111
X-12.896 Y-5.468 Z-9.987 R0.11
X-12.875 Y-5.509 Z-10. R0.11
G1 X-12.863 Y-5.523
X-12.842 Y-5.538
X-12.818 Y-5.548
X-12.787 Y-5.554
X-12.782
X-12.736 Y-5.543
X-12.716 Y-5.533
X-12.689 Y-5.499
X-12.668 Y-5.451
X-12.67 Y-5.413
X-12.699 Y-5.357
X-12.752 Y-5.32
X-12.797 Y-5.318
X-12.841 Y-5.332
X-12.85 Y-5.336
X-12.876 Y-5.359
X-12.889 Y-5.377
X-12.892 Y-5.384
X-12.902 Y-5.424
X-12.9 Y-5.464
X-12.897 Y-5.475
X-12.888 Y-5.492
X-12.875 Y-5.509
X-12.863 Y-5.523 Z-9.998
X-12.842 Y-5.538 Z-9.989
X-12.818 Y-5.548 Z-9.969
X-12.801 Y-5.551 Z-9.94
X-12.795 Y-5.552 Z-9.906
G0 Z5.
X31.462 Y-18.548
Z3.
G1 Z-0.907 F762.
G3 X31.473 Y-18.555 Z-0.953 R0.061
X31.506 Y-18.561 Z-0.987 R0.061
X31.546 Y-18.54 Z-1. R0.061
G1 X31.559 Y-18.526
X31.565 Y-18.5
X31.558 Y-18.47
X31.539 Y-18.449
X31.51 Y-18.438
X31.477 Y-18.441
X31.453 Y-18.458
X31.437 Y-18.49
Y-18.516
X31.45 Y-18.54
X31.477 Y-18.559
X31.512 Y-18.563
X31.534 Y-18.555
X31.546 Y-18.54
G3 X31.528 Y-18.505 R0.021
G1 X31.473 Y-18.51
G3 X31.462 Y-18.548 R0.021
G1 Z-2.907
G3 X31.473 Y-18.555 Z-2.953 R0.061
X31.506 Y-18.561 Z-2.987 R0.061
X31.546 Y-18.54 Z-3. R0.061
G1 X31.559 Y-18.526
X31.565 Y-18.5
X31.558 Y-18.47
X31.539 Y-18.449
X31.51 Y-18.438
X31.477 Y-18.441
X31.453 Y-18.458
X31.437 Y-18.49
Y-18.516
X31.45 Y-18.54
X31.477 Y-18.559
X31.512 Y-18.563
X31.534 Y-18.555
X31.546 Y-18.54
G3 X31.528 Y-18.505 R0.021
G1 X31.473 Y-18.51
G3 X31.462 Y-18.548 R0.021
G1 Z-4.906
G3 X31.473 Y-18.555 Z-4.953 R0.061
X31.506 Y-18.561 Z-4.987 R0.061
X31.546 Y-18.54 Z-5. R0.061
G1 X31.559 Y-18.526
X31.565 Y-18.5
X31.558 Y-18.47
X31.539 Y-18.449
X31.51 Y-18.438
X31.477 Y-18.441
X31.453 Y-18.458
X31.437 Y-18.49
Y-18.516
X31.45 Y-18.54
X31.477 Y-18.559
X31.512 Y-18.563
X31.534 Y-18.555
X31.546 Y-18.54
G3 X31.528 Y-18.505 R0.021
G1 X31.473 Y-18.51
G3 X31.462 Y-18.548 R0.021
G1 Z-5.906
G3 X31.473 Y-18.555 Z-5.953 R0.061
X31.506 Y-18.561 Z-5.987 R0.061
X31.546 Y-18.54 Z-6. R0.061
G1 X31.559 Y-18.526
X31.565 Y-18.5
X31.558 Y-18.47
X31.539 Y-18.449
X31.51 Y-18.438
X31.477 Y-18.441
X31.453 Y-18.458
X31.437 Y-18.49
Y-18.516
X31.45 Y-18.54
X31.477 Y-18.559
X31.512 Y-18.563
X31.534 Y-18.555
X31.546 Y-18.54
G3 X31.528 Y-18.505 R0.021
G1 X31.473 Y-18.51
G3 X31.462 Y-18.548 R0.021
G1 Z-7.906
G3 X31.473 Y-18.555 Z-7.953 R0.061
X31.506 Y-18.561 Z-7.987 R0.061
X31.546 Y-18.54 Z-8. R0.061
G1 X31.559 Y-18.526
X31.565 Y-18.5
X31.558 Y-18.47
X31.539 Y-18.449
X31.51 Y-18.438
X31.477 Y-18.441
X31.453 Y-18.458
X31.437 Y-18.49
Y-18.516
X31.45 Y-18.54
X31.477 Y-18.559
X31.512 Y-18.563
X31.534 Y-18.555
X31.546 Y-18.54
G3 X31.528 Y-18.505 R0.021
G1 X31.473 Y-18.51
G3 X31.462 Y-18.548 R0.021
G1 Z-9.906
G3 X31.473 Y-18.555 Z-9.953 R0.061
X31.506 Y-18.561 Z-9.987 R0.061
X31.546 Y-18.54 Z-10. R0.061
G1 X31.559 Y-18.526
X31.565 Y-18.5
X31.558 Y-18.47
X31.539 Y-18.449
X31.51 Y-18.438
X31.477 Y-18.441
X31.453 Y-18.458
X31.437 Y-18.49
Y-18.516
X31.45 Y-18.54
X31.477 Y-18.559
X31.512 Y-18.563
X31.534 Y-18.555
X31.546 Y-18.54
X31.559 Y-18.526 Z-9.998
X31.565 Y-18.5 Z-9.988
X31.561 Y-18.483 Z-9.976
X31.558 Y-18.47 Z-9.96
X31.549 Y-18.46 Z-9.935
X31.546 Y-18.457 Z-9.906
G0 Z5.
X-25.538 Y-18.548
Z3.
G1 Z-0.907 F762.
G3 X-25.527 Y-18.554 Z-0.953 R0.061
X-25.494 Y-18.561 Z-0.987 R0.061
X-25.454 Y-18.54 Z-1. R0.061
G1 X-25.441 Y-18.525
X-25.435 Y-18.5
X-25.442 Y-18.47
X-25.46 Y-18.45
X-25.491 Y-18.438
X-25.524 Y-18.442
X-25.547 Y-18.458
X-25.563 Y-18.49
Y-18.516
X-25.55 Y-18.54
X-25.524 Y-18.559
X-25.487 Y-18.563
X-25.466 Y-18.555
X-25.454 Y-18.54
X-25.44 Y-18.492
Z-2.907
G3 X-25.443 Y-18.48 Z-2.953 R0.061
X-25.462 Y-18.452 Z-2.987 R0.061
X-25.506 Y-18.44 Z-3. R0.061
G1 X-25.524 Y-18.442
X-25.547 Y-18.458
X-25.563 Y-18.49
Y-18.516
X-25.55 Y-18.54
X-25.524 Y-18.559
X-25.487 Y-18.563
X-25.466 Y-18.555
X-25.441 Y-18.525
X-25.435 Y-18.5
X-25.442 Y-18.47
X-25.46 Y-18.45
X-25.491 Y-18.438
X-25.506 Y-18.44
G3 X-25.517 Y-18.477 R0.021
G1 X-25.473 Y-18.511
G3 X-25.44 Y-18.492 R0.021
G1 Z-4.906
G3 X-25.443 Y-18.48 Z-4.953 R0.061
X-25.462 Y-18.452 Z-4.987 R0.061
X-25.506 Y-18.44 Z-5. R0.061
G1 X-25.524 Y-18.442
X-25.547 Y-18.458
X-25.563 Y-18.49
Y-18.516
X-25.55 Y-18.54
X-25.524 Y-18.559
X-25.487 Y-18.563
X-25.466 Y-18.555
X-25.441 Y-18.525
X-25.435 Y-18.5
X-25.442 Y-18.47
X-25.46 Y-18.45
X-25.491 Y-18.438
X-25.506 Y-18.44
G3 X-25.517 Y-18.477 R0.021
G1 X-25.473 Y-18.511
G3 X-25.44 Y-18.492 R0.021
G1 Z-5.906
G3 X-25.443 Y-18.48 Z-5.953 R0.061
X-25.462 Y-18.452 Z-5.987 R0.061
X-25.506 Y-18.44 Z-6. R0.061
G1 X-25.524 Y-18.442
X-25.547 Y-18.458
X-25.563 Y-18.49
Y-18.516
X-25.55 Y-18.54
X-25.524 Y-18.559
X-25.487 Y-18.563
X-25.466 Y-18.555
X-25.441 Y-18.525
X-25.435 Y-18.5
X-25.442 Y-18.47
X-25.46 Y-18.45
X-25.491 Y-18.438
X-25.506 Y-18.44
G3 X-25.517 Y-18.477 R0.021
G1 X-25.473 Y-18.511
G3 X-25.44 Y-18.492 R0.021
G1 Z-7.906
G3 X-25.443 Y-18.48 Z-7.953 R0.061
X-25.462 Y-18.452 Z-7.987 R0.061
X-25.506 Y-18.44 Z-8. R0.061
G1 X-25.524 Y-18.442
X-25.547 Y-18.458
X-25.563 Y-18.49
Y-18.516
X-25.55 Y-18.54
X-25.524 Y-18.559
X-25.487 Y-18.563
X-25.466 Y-18.555
X-25.441 Y-18.525
X-25.435 Y-18.5
X-25.442 Y-18.47
X-25.46 Y-18.45
X-25.491 Y-18.438
X-25.506 Y-18.44
G3 X-25.517 Y-18.477 R0.021
G1 X-25.473 Y-18.511
G3 X-25.44 Y-18.492 R0.021
G1 Z-9.906
G3 X-25.443 Y-18.48 Z-9.953 R0.061
X-25.462 Y-18.452 Z-9.987 R0.061
X-25.506 Y-18.44 Z-10. R0.061
G1 X-25.524 Y-18.442
X-25.547 Y-18.458
X-25.563 Y-18.49
Y-18.516
X-25.55 Y-18.54
X-25.524 Y-18.559
X-25.487 Y-18.563
X-25.466 Y-18.555
X-25.441 Y-18.525
X-25.435 Y-18.5
X-25.442 Y-18.47
X-25.46 Y-18.45
X-25.491 Y-18.438
X-25.506 Y-18.44
X-25.524 Y-18.442 Z-9.998
X-25.547 Y-18.458 Z-9.988
X-25.556 Y-18.476 Z-9.973
X-25.563 Y-18.49 Z-9.952
G19 G2 Y-18.502 Z-9.906 R0.094
G0 Z5.
X-34.323 Y-25.002
Z3.
G1 Z-0.907 F762.
G17 G3 X-34.313 Y-25.012 Z-0.957 R0.013
X-34.299 Y-24.995 Z-0.985 R0.013
X-34.319 Y-24.991 Z-0.996 R0.013
X-34.313 Y-25.012 Z-1. R0.013
G1 X-34.312 Y-25.013
X-23.69
X-23.635 Y-25.
X-23.69 Y-24.987
X-34.312
X-34.368 Y-25.
X-34.313 Y-25.012
X-34.312 Y-25.013
G18 G2 X-34.22 Z-0.907 R0.093
G0 Z5.
X-23.688 Y-24.988
Z2.
G1 Z-3. F762.
X-23.69 Y-24.987
X-34.312
X-34.368 Y-25.
X-34.312 Y-25.013
X-23.69
X-23.635 Y-25.
X-23.688 Y-24.988
X-23.701 Y-25.007
Z-4.906
G17 G3 X-23.688 Y-25.012 Z-4.957 R0.013
X-23.683 Y-24.99 Z-4.985 R0.013
X-23.703 Y-24.995 Z-4.996 R0.013
X-23.688 Y-25.012 Z-5. R0.013
G1 X-23.635 Y-25.
X-23.69 Y-24.987
X-34.312
X-34.368 Y-25.
X-34.312 Y-25.013
X-23.69
X-23.688 Y-25.012
X-23.701 Y-25.007
Z-5.906
G3 X-23.688 Y-25.012 Z-5.957 R0.013
X-23.683 Y-24.99 Z-5.985 R0.013
X-23.703 Y-24.995 Z-5.996 R0.013
X-23.688 Y-25.012 Z-6. R0.013
G1 X-23.635 Y-25.
X-23.69 Y-24.987
X-34.312
X-34.368 Y-25.
X-34.312 Y-25.013
X-23.69
X-23.688 Y-25.012
X-23.701 Y-25.007
Z-7.906
G3 X-23.688 Y-25.012 Z-7.957 R0.013
X-23.683 Y-24.99 Z-7.985 R0.013
X-23.703 Y-24.995 Z-7.996 R0.013
X-23.688 Y-25.012 Z-8. R0.013
G1 X-23.635 Y-25.
X-23.69 Y-24.987
X-34.312
X-34.368 Y-25.
X-34.312 Y-25.013
X-23.69
X-23.688 Y-25.012
X-23.701 Y-25.007
Z-9.906
G3 X-23.688 Y-25.012 Z-9.957 R0.013
X-23.683 Y-24.99 Z-9.985 R0.013
X-23.703 Y-24.995 Z-9.996 R0.013
X-23.688 Y-25.012 Z-10. R0.013
G1 X-23.635 Y-25.
X-23.69 Y-24.987
X-34.312
X-34.368 Y-25.
X-34.312 Y-25.013
X-23.69
X-23.688 Y-25.012
X-23.66 Y-25.006 Z-9.995
X-23.635 Y-25. Z-9.982
X-23.655 Y-24.995 Z-9.961
X-23.668 Y-24.993 Z-9.935
X-23.672 Y-24.992 Z-9.906
G0 Z5.
X-25.44 Y18.508
Z3.
G1 Z-0.907 F762.
G3 X-25.443 Y18.52 Z-0.953 R0.061
X-25.463 Y18.548 Z-0.987 R0.061
X-25.507 Y18.56 Z-1. R0.061
G1 X-25.524 Y18.558
X-25.55 Y18.54
X-25.563 Y18.516
Y18.484
X-25.55 Y18.46
X-25.523 Y18.441
X-25.492 Y18.438
X-25.46 Y18.45
X-25.442 Y18.47
X-25.435 Y18.5
X-25.441 Y18.525
X-25.467 Y18.555
X-25.486 Y18.562
X-25.507 Y18.56
G3 X-25.517 Y18.522 R0.021
G1 X-25.474 Y18.489
G3 X-25.44 Y18.508 R0.021
G1 Z-2.907
G3 X-25.443 Y18.52 Z-2.953 R0.061
X-25.463 Y18.548 Z-2.987 R0.061
X-25.507 Y18.56 Z-3. R0.061
G1 X-25.524 Y18.558
X-25.55 Y18.54
X-25.563 Y18.516
Y18.484
X-25.55 Y18.46
X-25.523 Y18.441
X-25.492 Y18.438
X-25.46 Y18.45
X-25.442 Y18.47
X-25.435 Y18.5
X-25.441 Y18.525
X-25.467 Y18.555
X-25.486 Y18.562
X-25.507 Y18.56
G3 X-25.517 Y18.522 R0.021
G1 X-25.474 Y18.489
G3 X-25.44 Y18.508 R0.021
G1 Z-4.906
G3 X-25.443 Y18.52 Z-4.953 R0.061
X-25.463 Y18.548 Z-4.987 R0.061
X-25.507 Y18.56 Z-5. R0.061
G1 X-25.524 Y18.558
X-25.55 Y18.54
X-25.563 Y18.516
Y18.484
X-25.55 Y18.46
X-25.523 Y18.441
X-25.492 Y18.438
X-25.46 Y18.45
X-25.442 Y18.47
X-25.435 Y18.5
X-25.441 Y18.525
X-25.467 Y18.555
X-25.486 Y18.562
X-25.507 Y18.56
G3 X-25.517 Y18.522 R0.021
G1 X-25.474 Y18.489
G3 X-25.44 Y18.508 R0.021
G1 Z-5.906
G3 X-25.443 Y18.52 Z-5.953 R0.061
X-25.463 Y18.548 Z-5.987 R0.061
X-25.507 Y18.56 Z-6. R0.061
G1 X-25.524 Y18.558
X-25.55 Y18.54
X-25.563 Y18.516
Y18.484
X-25.55 Y18.46
X-25.523 Y18.441
X-25.492 Y18.438
X-25.46 Y18.45
X-25.442 Y18.47
X-25.435 Y18.5
X-25.441 Y18.525
X-25.467 Y18.555
X-25.486 Y18.562
X-25.507 Y18.56
G3 X-25.517 Y18.522 R0.021
G1 X-25.474 Y18.489
G3 X-25.44 Y18.508 R0.021
G1 Z-7.906
G3 X-25.443 Y18.52 Z-7.953 R0.061
X-25.463 Y18.548 Z-7.987 R0.061
X-25.507 Y18.56 Z-8. R0.061
G1 X-25.524 Y18.558
X-25.55 Y18.54
X-25.563 Y18.516
Y18.484
X-25.55 Y18.46
X-25.523 Y18.441
X-25.492 Y18.438
X-25.46 Y18.45
X-25.442 Y18.47
X-25.435 Y18.5
X-25.441 Y18.525
X-25.467 Y18.555
X-25.486 Y18.562
X-25.507 Y18.56
G3 X-25.517 Y18.522 R0.021
G1 X-25.474 Y18.489
G3 X-25.44 Y18.508 R0.021
G1 Z-9.906
G3 X-25.443 Y18.52 Z-9.953 R0.061
X-25.463 Y18.548 Z-9.987 R0.061
X-25.507 Y18.56 Z-10. R0.061
G1 X-25.524 Y18.558
X-25.55 Y18.54
X-25.563 Y18.516
Y18.484
X-25.55 Y18.46
X-25.523 Y18.441
X-25.492 Y18.438
X-25.46 Y18.45
X-25.442 Y18.47
X-25.435 Y18.5
X-25.441 Y18.525
X-25.467 Y18.555
X-25.486 Y18.562
X-25.507 Y18.56
X-25.524 Y18.558 Z-9.998
X-25.55 Y18.54 Z-9.986
X-25.557 Y18.527 Z-9.974
X-25.563 Y18.516 Z-9.959
G19 G2 Y18.499 Z-9.906 R0.094
G0 Z5.
X-34.299 Y25.005
Z3.
G1 Z-0.907 F762.
G17 G3 X-34.311 Y25.013 Z-0.957 R0.013
X-34.321 Y24.993 Z-0.985 R0.013
G1 X-34.301 Z-0.996
G3 X-34.311 Y25.013 Z-1. R0.013
G1 X-34.312
X-34.368 Y25.
X-34.312 Y24.987
X-23.69
X-23.635 Y25.
X-23.69 Y25.013
X-34.311
X-34.312
X-34.342 Y25.006 Z-0.994
X-34.368 Y25. Z-0.979
X-34.35 Y24.996 Z-0.959
X-34.339 Y24.993 Z-0.934
X-34.335 Z-0.907
G0 Z5.
X-23.701
Z2.
G1 Z-2.907 F762.
G3 X-23.688 Y24.988 Z-2.957 R0.013
X-23.683 Y25.01 Z-2.985 R0.013
X-23.703 Y25.005 Z-2.996 R0.013
X-23.688 Y24.988 Z-3. R0.013
G1 X-23.635 Y25.
X-23.69 Y25.013
X-34.312
X-34.368 Y25.
X-34.312 Y24.987
X-23.69
X-23.688 Y24.988
X-23.679 Y25.002
Z-4.906
G3 X-23.688 Y25.012 Z-4.957 R0.013
X-23.703 Y24.995 Z-4.985 R0.013
X-23.683 Y24.99 Z-4.996 R0.013
X-23.688 Y25.012 Z-5. R0.013
G1 X-23.69 Y25.013
X-34.312
X-34.368 Y25.
X-34.312 Y24.987
X-23.69
X-23.635 Y25.
X-23.688 Y25.012
X-23.679 Y25.002
Z-5.906
G3 X-23.688 Y25.012 Z-5.957 R0.013
X-23.703 Y24.995 Z-5.985 R0.013
X-23.683 Y24.99 Z-5.996 R0.013
X-23.688 Y25.012 Z-6. R0.013
G1 X-23.69 Y25.013
X-34.312
X-34.368 Y25.
X-34.312 Y24.987
X-23.69
X-23.635 Y25.
X-23.688 Y25.012
X-23.69 Y25.013
G18 G3 X-23.782 Z-5.906 R0.094
G0 Z5.
X-34.3 Y25.007
G1 Z-3. F762.
Z-7.906
G17 G3 X-34.313 Y25.012 Z-7.957 R0.013
X-34.319 Y24.991 Z-7.985 R0.013
X-34.299 Y24.995 Z-7.996 R0.013
X-34.313 Y25.012 Z-8. R0.013
G1 X-34.368 Y25.
X-34.312 Y24.987
X-23.69
X-23.635 Y25.
X-23.69 Y25.013
X-34.312
X-34.313 Y25.012
X-34.3 Y25.007
Z-9.906
G3 X-34.313 Y25.012 Z-9.957 R0.013
X-34.319 Y24.991 Z-9.985 R0.013
X-34.299 Y24.995 Z-9.996 R0.013
X-34.313 Y25.012 Z-10. R0.013
G1 X-34.368 Y25.
X-34.312 Y24.987
X-23.69
X-23.635 Y25.
X-23.69 Y25.013
X-34.312
X-34.313 Y25.012
X-34.342 Y25.006 Z-9.995
X-34.368 Y25. Z-9.981
X-34.349 Y24.996 Z-9.961
X-34.336 Y24.993 Z-9.935
X-34.332 Y24.992 Z-9.906
G0 Z10.

(2D CONTOUR1)
M8
G0 X-39.088 Y0.
Z10.
Z5.
G1 Z3. F762.
Z-2.
Y27.
G2 X-34.5 Y31.587 R4.587
G1 X34.5
G2 X39.088 Y27. R4.588
G1 Y-27.
G2 X38.059 Y-29.895 R4.588
X34.5 Y-31.587 R4.588
G1 X-34.5
G2 X-39.088 Y-27. R4.588
G1 Y0.
Z-4.
Y27.
G2 X-34.5 Y31.587 R4.587
G1 X34.5
G2 X39.088 Y27. R4.588
G1 Y-27.
G2 X38.059 Y-29.895 R4.588
X34.5 Y-31.587 R4.588
G1 X-34.5
G2 X-39.088 Y-27. R4.588
G1 Y0.
Z-6.
Y27.
G2 X-34.5 Y31.587 R4.587
G1 X34.5
G2 X39.088 Y27. R4.588
G1 Y-27.
G2 X38.059 Y-29.895 R4.588
X34.5 Y-31.587 R4.588
G1 X-34.5
G2 X-39.088 Y-27. R4.588
G1 Y0.
Z-8.
Y27.
G2 X-34.5 Y31.587 R4.587
G1 X34.5
G2 X39.088 Y27. R4.588
G1 Y-27.
G2 X38.059 Y-29.895 R4.588
X34.5 Y-31.587 R4.588
G1 X-34.5
G2 X-39.088 Y-27. R4.588
G1 Y0.
Z-10.
Y27.
G2 X-34.5 Y31.587 R4.587
G1 X34.5
G2 X39.088 Y27. R4.588
G1 Y-27.
G2 X38.059 Y-29.895 R4.588
X34.5 Y-31.587 R4.588
G1 X-34.5
G2 X-39.088 Y-27. R4.588
G1 Y0.
G0 Z10.

M9
M30
