(RING_TEST)
(T1  D=3.175 CR=0. - ZMIN=-6. - FLAT END MILL)
G90 G94 G91.1 G40 G49 G17
G21

(2D POCKET1)
M5
M9
T1
S5500 M3
G54
M8
G0 X-0.464 Y1.492
G43 Z10. H1
Z5.
G1 Z3. F351.
Z2.817 F762.
X-0.468 Z2.768 F351.
G3 X-0.479 Y1.49 Z2.721 R1.508
X-0.497 Y1.487 Z2.675 R1.508
X-0.522 Y1.482 Z2.633 R1.508
X-0.553 Y1.476 Z2.595 R1.508
X-0.589 Y1.468 Z2.563 R1.508
X-0.63 Y1.458 Z2.537 R1.508
X-0.673 Y1.446 Z2.517 R1.508
X-0.719 Y1.432 Z2.505 R1.508
X0.23 Y-1.432 Z1.669 R1.508
X-0.719 Y1.432 Z0.834 R1.508
X0.23 Y-1.432 Z-0.001 R1.508
X-0.719 Y1.432 Z-0.837 R1.508
X0.23 Y-1.432 Z-1.672 R1.508
X1.263 Y-0.055 Z-1.995 R1.508
Y-0.028 Z-1.999 R1.508
X1.264 Y0. Z-2. R1.508
X-1.264 R1.264
X4.28 R2.772
X-4.28 R4.28
X7.296 R5.788
X-7.296 R7.296
X10.313 R8.804
X-10.313 R10.313
X10.313 R10.313
X8.05 Y1.306 Z-2.547 R1.508
G1 X3.526 Y-1.306 Z-3.453
G2 X1.264 Y0. Z-4. R1.508
G3 X-1.264 R1.264
X4.28 R2.772
X-4.28 R4.28
X7.296 R5.788
X-7.296 R7.296
X10.313 R8.804
X-10.313 R10.313
X10.313 R10.313
X8.05 Y1.306 Z-4.547 R1.508
G1 X3.526 Y-1.306 Z-5.453
G2 X1.264 Y0. Z-6. R1.508
G3 X-1.264 R1.264
X4.28 R2.772
X-4.28 R4.28
X7.296 R5.788
X-7.296 R7.296
X10.313 R8.804
X-10.313 R10.312
X10.413 R10.363
X-10.413 R10.413
X10.413 R10.413
X-10.413 R10.413
X10.413 R10.413
X9.235 Y4.81 R10.413
X8.807 Y4.945 R0.318
G1 X8.525 Y4.798
X8.462 Y4.766 Z-5.992
X8.403 Y4.735 Z-5.969
X8.349 Y4.707 Z-5.931
X8.305 Y4.684 Z-5.88
X8.271 Y4.666 Z-5.82
X8.251 Y4.655 Z-5.753
X8.243 Y4.652 Z-5.683
G0 Z10.

M9
M30
