(Exported by FreeCAD)
(Post Processor: grbl_post)
(Output Time:2024-03-15 21:22:20.365674)
(Begin preamble)
G17 G90
G21
(Block-name: Fixture)
(Block-expand: 0)
(Block-enable: 1)
(Begin operation: Fixture)
(Path: Fixture)
G54
(Finish operation: Fixture)
(Block-name: 2mm Endmill001)
(Block-expand: 0)
(Block-enable: 1)
(Begin operation: 2mm Endmill001)
(Path: 2mm Endmill001)
(2mm Endmill001)
(Begin toolchange)
( M6 T2 )
M3 S8000
(Finish operation: 2mm Endmill001)
(Block-name: Adaptive)
(Block-expand: 0)
(Block-enable: 1)
(Begin operation: Adaptive)
(Path: Adaptive)
(Adaptive)
(Helix to depth: -4.000000)
G0 Z5.000
G0 X0.488 Y0.423 Z5.000
G0 X0.488 Y0.423 Z3.000
G1 X0.488 Y0.423 Z0.000 F420.000
G1 X0.488 Y0.423 Z0.000 F420.000
G1 X0.401 Y0.463 Z-0.009 F420.000
G1 X0.307 Y0.485 Z-0.017 F420.000
G1 X0.211 Y0.489 Z-0.026 F420.000
G1 X0.116 Y0.474 Z-0.034 F420.000
G1 X0.026 Y0.441 Z-0.043 F420.000
G1 X-0.056 Y0.391 Z-0.052 F420.000
G1 X-0.126 Y0.326 Z-0.060 F420.000
G1 X-0.183 Y0.248 Z-0.069 F420.000
G1 X-0.223 Y0.161 Z-0.077 F420.000
G1 X-0.245 Y0.067 Z-0.086 F420.000
G1 X-0.249 Y-0.029 Z-0.094 F420.000
G1 X-0.234 Y-0.124 Z-0.103 F420.000
G1 X-0.201 Y-0.214 Z-0.112 F420.000
G1 X-0.151 Y-0.296 Z-0.120 F420.000
G1 X-0.086 Y-0.366 Z-0.129 F420.000
G1 X-0.008 Y-0.423 Z-0.137 F420.000
G1 X0.079 Y-0.463 Z-0.146 F420.000
G1 X0.173 Y-0.485 Z-0.155 F420.000
G1 X0.269 Y-0.489 Z-0.163 F420.000
G1 X0.364 Y-0.474 Z-0.172 F420.000
G1 X0.454 Y-0.441 Z-0.180 F420.000
G1 X0.536 Y-0.391 Z-0.189 F420.000
G1 X0.606 Y-0.326 Z-0.198 F420.000
G1 X0.663 Y-0.248 Z-0.206 F420.000
G1 X0.703 Y-0.161 Z-0.215 F420.000
G1 X0.725 Y-0.067 Z-0.223 F420.000
G1 X0.729 Y0.029 Z-0.232 F420.000
G1 X0.714 Y0.124 Z-0.240 F420.000
G1 X0.681 Y0.214 Z-0.249 F420.000
G1 X0.631 Y0.296 Z-0.258 F420.000
G1 X0.566 Y0.366 Z-0.266 F420.000
G1 X0.488 Y0.423 Z-0.275 F420.000
G1 X0.401 Y0.463 Z-0.283 F420.000
G1 X0.307 Y0.485 Z-0.292 F420.000
G1 X0.211 Y0.489 Z-0.301 F420.000
G1 X0.116 Y0.474 Z-0.309 F420.000
G1 X0.026 Y0.441 Z-0.318 F420.000
G1 X-0.056 Y0.391 Z-0.326 F420.000
G1 X-0.126 Y0.326 Z-0.335 F420.000
G1 X-0.183 Y0.248 Z-0.344 F420.000
G1 X-0.223 Y0.161 Z-0.352 F420.000
G1 X-0.245 Y0.067 Z-0.361 F420.000
G1 X-0.249 Y-0.029 Z-0.369 F420.000
G1 X-0.234 Y-0.124 Z-0.378 F420.000
G1 X-0.201 Y-0.214 Z-0.387 F420.000
G1 X-0.151 Y-0.296 Z-0.395 F420.000
G1 X-0.086 Y-0.366 Z-0.404 F420.000
G1 X-0.008 Y-0.423 Z-0.412 F420.000
G1 X0.079 Y-0.463 Z-0.421 F420.000
G1 X0.173 Y-0.485 Z-0.429 F420.000
G1 X0.269 Y-0.489 Z-0.438 F420.000
G1 X0.364 Y-0.474 Z-0.447 F420.000
G1 X0.454 Y-0.441 Z-0.455 F420.000
G1 X0.536 Y-0.391 Z-0.464 F420.000
G1 X0.606 Y-0.326 Z-0.472 F420.000
G1 X0.663 Y-0.248 Z-0.481 F420.000
G1 X0.703 Y-0.161 Z-0.490 F420.000
G1 X0.725 Y-0.067 Z-0.498 F420.000
G1 X0.729 Y0.029 Z-0.507 F420.000
G1 X0.714 Y0.124 Z-0.515 F420.000
G1 X0.681 Y0.214 Z-0.524 F420.000
G1 X0.631 Y0.296 Z-0.533 F420.000
G1 X0.566 Y0.366 Z-0.541 F420.000
G1 X0.488 Y0.423 Z-0.550 F420.000
G1 X0.401 Y0.463 Z-0.558 F420.000
G1 X0.307 Y0.485 Z-0.567 F420.000
G1 X0.211 Y0.489 Z-0.575 F420.000
G1 X0.116 Y0.474 Z-0.584 F420.000
G1 X0.026 Y0.441 Z-0.593 F420.000
G1 X-0.056 Y0.391 Z-0.601 F420.000
G1 X-0.126 Y0.326 Z-0.610 F420.000
G1 X-0.183 Y0.248 Z-0.618 F420.000
G1 X-0.223 Y0.161 Z-0.627 F420.000
G1 X-0.245 Y0.067 Z-0.636 F420.000
G1 X-0.249 Y-0.029 Z-0.644 F420.000
G1 X-0.234 Y-0.124 Z-0.653 F420.000
G1 X-0.201 Y-0.214 Z-0.661 F420.000
G1 X-0.151 Y-0.296 Z-0.670 F420.000
G1 X-0.086 Y-0.366 Z-0.679 F420.000
G1 X-0.008 Y-0.423 Z-0.687 F420.000
G1 X0.079 Y-0.463 Z-0.696 F420.000
G1 X0.173 Y-0.485 Z-0.704 F420.000
G1 X0.269 Y-0.489 Z-0.713 F420.000
G1 X0.364 Y-0.474 Z-0.721 F420.000
G1 X0.454 Y-0.441 Z-0.730 F420.000
G1 X0.536 Y-0.391 Z-0.739 F420.000
G1 X0.606 Y-0.326 Z-0.747 F420.000
G1 X0.663 Y-0.248 Z-0.756 F420.000
G1 X0.703 Y-0.161 Z-0.764 F420.000
G1 X0.725 Y-0.067 Z-0.773 F420.000
G1 X0.729 Y0.029 Z-0.782 F420.000
G1 X0.714 Y0.124 Z-0.790 F420.000
G1 X0.681 Y0.214 Z-0.799 F420.000
G1 X0.631 Y0.296 Z-0.807 F420.000
G1 X0.566 Y0.366 Z-0.816 F420.000
G1 X0.488 Y0.423 Z-0.825 F420.000
G1 X0.401 Y0.463 Z-0.833 F420.000
G1 X0.307 Y0.485 Z-0.842 F420.000
G1 X0.211 Y0.489 Z-0.850 F420.000
G1 X0.116 Y0.474 Z-0.859 F420.000
G1 X0.026 Y0.441 Z-0.868 F420.000
G1 X-0.056 Y0.391 Z-0.876 F420.000
G1 X-0.126 Y0.326 Z-0.885 F420.000
G1 X-0.183 Y0.248 Z-0.893 F420.000
G1 X-0.223 Y0.161 Z-0.902 F420.000
G1 X-0.245 Y0.067 Z-0.910 F420.000
G1 X-0.249 Y-0.029 Z-0.919 F420.000
G1 X-0.234 Y-0.124 Z-0.928 F420.000
G1 X-0.201 Y-0.214 Z-0.936 F420.000
G1 X-0.151 Y-0.296 Z-0.945 F420.000
G1 X-0.086 Y-0.366 Z-0.953 F420.000
G1 X-0.008 Y-0.423 Z-0.962 F420.000
G1 X0.079 Y-0.463 Z-0.971 F420.000
G1 X0.173 Y-0.485 Z-0.979 F420.000
G1 X0.269 Y-0.489 Z-0.988 F420.000
G1 X0.364 Y-0.474 Z-0.996 F420.000
G1 X0.454 Y-0.441 Z-1.005 F420.000
G1 X0.536 Y-0.391 Z-1.014 F420.000
G1 X0.606 Y-0.326 Z-1.022 F420.000
G1 X0.663 Y-0.248 Z-1.031 F420.000
G1 X0.703 Y-0.161 Z-1.039 F420.000
G1 X0.725 Y-0.067 Z-1.048 F420.000
G1 X0.729 Y0.029 Z-1.056 F420.000
G1 X0.714 Y0.124 Z-1.065 F420.000
G1 X0.681 Y0.214 Z-1.074 F420.000
G1 X0.631 Y0.296 Z-1.082 F420.000
G1 X0.566 Y0.366 Z-1.091 F420.000
G1 X0.488 Y0.423 Z-1.099 F420.000
G1 X0.401 Y0.463 Z-1.108 F420.000
G1 X0.307 Y0.485 Z-1.117 F420.000
G1 X0.211 Y0.489 Z-1.125 F420.000
G1 X0.116 Y0.474 Z-1.134 F420.000
G1 X0.026 Y0.441 Z-1.142 F420.000
G1 X-0.056 Y0.391 Z-1.151 F420.000
G1 X-0.126 Y0.326 Z-1.160 F420.000
G1 X-0.183 Y0.248 Z-1.168 F420.000
G1 X-0.223 Y0.161 Z-1.177 F420.000
G1 X-0.245 Y0.067 Z-1.185 F420.000
G1 X-0.249 Y-0.029 Z-1.194 F420.000
G1 X-0.234 Y-0.124 Z-1.202 F420.000
G1 X-0.201 Y-0.214 Z-1.211 F420.000
G1 X-0.151 Y-0.296 Z-1.220 F420.000
G1 X-0.086 Y-0.366 Z-1.228 F420.000
G1 X-0.008 Y-0.423 Z-1.237 F420.000
G1 X0.079 Y-0.463 Z-1.245 F420.000
G1 X0.173 Y-0.485 Z-1.254 F420.000
G1 X0.269 Y-0.489 Z-1.263 F420.000
G1 X0.364 Y-0.474 Z-1.271 F420.000
G1 X0.454 Y-0.441 Z-1.280 F420.000
G1 X0.536 Y-0.391 Z-1.288 F420.000
G1 X0.606 Y-0.326 Z-1.297 F420.000
G1 X0.663 Y-0.248 Z-1.306 F420.000
G1 X0.703 Y-0.161 Z-1.314 F420.000
G1 X0.725 Y-0.067 Z-1.323 F420.000
G1 X0.729 Y0.029 Z-1.331 F420.000
G1 X0.714 Y0.124 Z-1.340 F420.000
G1 X0.681 Y0.214 Z-1.349 F420.000
G1 X0.631 Y0.296 Z-1.357 F420.000
G1 X0.566 Y0.366 Z-1.366 F420.000
G1 X0.488 Y0.423 Z-1.374 F420.000
G1 X0.401 Y0.463 Z-1.383 F420.000
G1 X0.307 Y0.485 Z-1.391 F420.000
G1 X0.211 Y0.489 Z-1.400 F420.000
G1 X0.116 Y0.474 Z-1.409 F420.000
G1 X0.026 Y0.441 Z-1.417 F420.000
G1 X-0.056 Y0.391 Z-1.426 F420.000
G1 X-0.126 Y0.326 Z-1.434 F420.000
G1 X-0.183 Y0.248 Z-1.443 F420.000
G1 X-0.223 Y0.161 Z-1.452 F420.000
G1 X-0.245 Y0.067 Z-1.460 F420.000
G1 X-0.249 Y-0.029 Z-1.469 F420.000
G1 X-0.234 Y-0.124 Z-1.477 F420.000
G1 X-0.201 Y-0.214 Z-1.486 F420.000
G1 X-0.151 Y-0.296 Z-1.495 F420.000
G1 X-0.086 Y-0.366 Z-1.503 F420.000
G1 X-0.008 Y-0.423 Z-1.512 F420.000
G1 X0.079 Y-0.463 Z-1.520 F420.000
G1 X0.173 Y-0.485 Z-1.529 F420.000
G1 X0.269 Y-0.489 Z-1.537 F420.000
G1 X0.364 Y-0.474 Z-1.546 F420.000
G1 X0.454 Y-0.441 Z-1.555 F420.000
G1 X0.536 Y-0.391 Z-1.563 F420.000
G1 X0.606 Y-0.326 Z-1.572 F420.000
G1 X0.663 Y-0.248 Z-1.580 F420.000
G1 X0.703 Y-0.161 Z-1.589 F420.000
G1 X0.725 Y-0.067 Z-1.598 F420.000
G1 X0.729 Y0.029 Z-1.606 F420.000
G1 X0.714 Y0.124 Z-1.615 F420.000
G1 X0.681 Y0.214 Z-1.623 F420.000
G1 X0.631 Y0.296 Z-1.632 F420.000
G1 X0.566 Y0.366 Z-1.641 F420.000
G1 X0.488 Y0.423 Z-1.649 F420.000
G1 X0.401 Y0.463 Z-1.658 F420.000
G1 X0.307 Y0.485 Z-1.666 F420.000
G1 X0.211 Y0.489 Z-1.675 F420.000
G1 X0.116 Y0.474 Z-1.683 F420.000
G1 X0.026 Y0.441 Z-1.692 F420.000
G1 X-0.056 Y0.391 Z-1.701 F420.000
G1 X-0.126 Y0.326 Z-1.709 F420.000
G1 X-0.183 Y0.248 Z-1.718 F420.000
G1 X-0.223 Y0.161 Z-1.726 F420.000
G1 X-0.245 Y0.067 Z-1.735 F420.000
G1 X-0.249 Y-0.029 Z-1.744 F420.000
G1 X-0.234 Y-0.124 Z-1.752 F420.000
G1 X-0.201 Y-0.214 Z-1.761 F420.000
G1 X-0.151 Y-0.296 Z-1.769 F420.000
G1 X-0.086 Y-0.366 Z-1.778 F420.000
G1 X-0.008 Y-0.423 Z-1.787 F420.000
G1 X0.079 Y-0.463 Z-1.795 F420.000
G1 X0.173 Y-0.485 Z-1.804 F420.000
G1 X0.269 Y-0.489 Z-1.812 F420.000
G1 X0.364 Y-0.474 Z-1.821 F420.000
G1 X0.454 Y-0.441 Z-1.829 F420.000
G1 X0.536 Y-0.391 Z-1.838 F420.000
G1 X0.606 Y-0.326 Z-1.847 F420.000
G1 X0.663 Y-0.248 Z-1.855 F420.000
G1 X0.703 Y-0.161 Z-1.864 F420.000
G1 X0.725 Y-0.067 Z-1.872 F420.000
G1 X0.729 Y0.029 Z-1.881 F420.000
G1 X0.714 Y0.124 Z-1.890 F420.000
G1 X0.681 Y0.214 Z-1.898 F420.000
G1 X0.631 Y0.296 Z-1.907 F420.000
G1 X0.566 Y0.366 Z-1.915 F420.000
G1 X0.488 Y0.423 Z-1.924 F420.000
G1 X0.401 Y0.463 Z-1.933 F420.000
G1 X0.307 Y0.485 Z-1.941 F420.000
G1 X0.211 Y0.489 Z-1.950 F420.000
G1 X0.116 Y0.474 Z-1.958 F420.000
G1 X0.026 Y0.441 Z-1.967 F420.000
G1 X-0.056 Y0.391 Z-1.976 F420.000
G1 X-0.126 Y0.326 Z-1.984 F420.000
G1 X-0.183 Y0.248 Z-1.993 F420.000
G1 X-0.223 Y0.161 Z-2.001 F420.000
G1 X-0.245 Y0.067 Z-2.010 F420.000
G1 X-0.249 Y-0.029 Z-2.018 F420.000
G1 X-0.234 Y-0.124 Z-2.027 F420.000
G1 X-0.201 Y-0.214 Z-2.036 F420.000
G1 X-0.151 Y-0.296 Z-2.044 F420.000
G1 X-0.086 Y-0.366 Z-2.053 F420.000
G1 X-0.008 Y-0.423 Z-2.061 F420.000
G1 X0.079 Y-0.463 Z-2.070 F420.000
G1 X0.173 Y-0.485 Z-2.079 F420.000
G1 X0.269 Y-0.489 Z-2.087 F420.000
G1 X0.364 Y-0.474 Z-2.096 F420.000
G1 X0.454 Y-0.441 Z-2.104 F420.000
G1 X0.536 Y-0.391 Z-2.113 F420.000
G1 X0.606 Y-0.326 Z-2.122 F420.000
G1 X0.663 Y-0.248 Z-2.130 F420.000
G1 X0.703 Y-0.161 Z-2.139 F420.000
G1 X0.725 Y-0.067 Z-2.147 F420.000
G1 X0.729 Y0.029 Z-2.156 F420.000
G1 X0.714 Y0.124 Z-2.164 F420.000
G1 X0.681 Y0.214 Z-2.173 F420.000
G1 X0.631 Y0.296 Z-2.182 F420.000
G1 X0.566 Y0.366 Z-2.190 F420.000
G1 X0.488 Y0.423 Z-2.199 F420.000
G1 X0.401 Y0.463 Z-2.207 F420.000
G1 X0.307 Y0.485 Z-2.216 F420.000
G1 X0.211 Y0.489 Z-2.225 F420.000
G1 X0.116 Y0.474 Z-2.233 F420.000
G1 X0.026 Y0.441 Z-2.242 F420.000
G1 X-0.056 Y0.391 Z-2.250 F420.000
G1 X-0.126 Y0.326 Z-2.259 F420.000
G1 X-0.183 Y0.248 Z-2.268 F420.000
G1 X-0.223 Y0.161 Z-2.276 F420.000
G1 X-0.245 Y0.067 Z-2.285 F420.000
G1 X-0.249 Y-0.029 Z-2.293 F420.000
G1 X-0.234 Y-0.124 Z-2.302 F420.000
G1 X-0.201 Y-0.214 Z-2.310 F420.000
G1 X-0.151 Y-0.296 Z-2.319 F420.000
G1 X-0.086 Y-0.366 Z-2.328 F420.000
G1 X-0.008 Y-0.423 Z-2.336 F420.000
G1 X0.079 Y-0.463 Z-2.345 F420.000
G1 X0.173 Y-0.485 Z-2.353 F420.000
G1 X0.269 Y-0.489 Z-2.362 F420.000
G1 X0.364 Y-0.474 Z-2.371 F420.000
G1 X0.454 Y-0.441 Z-2.379 F420.000
G1 X0.536 Y-0.391 Z-2.388 F420.000
G1 X0.606 Y-0.326 Z-2.396 F420.000
G1 X0.663 Y-0.248 Z-2.405 F420.000
G1 X0.703 Y-0.161 Z-2.414 F420.000
G1 X0.725 Y-0.067 Z-2.422 F420.000
G1 X0.729 Y0.029 Z-2.431 F420.000
G1 X0.714 Y0.124 Z-2.439 F420.000
G1 X0.681 Y0.214 Z-2.448 F420.000
G1 X0.631 Y0.296 Z-2.457 F420.000
G1 X0.566 Y0.366 Z-2.465 F420.000
G1 X0.488 Y0.423 Z-2.474 F420.000
G1 X0.401 Y0.463 Z-2.482 F420.000
G1 X0.307 Y0.485 Z-2.491 F420.000
G1 X0.211 Y0.489 Z-2.499 F420.000
G1 X0.116 Y0.474 Z-2.508 F420.000
G1 X0.026 Y0.441 Z-2.517 F420.000
G1 X-0.056 Y0.391 Z-2.525 F420.000
G1 X-0.126 Y0.326 Z-2.534 F420.000
G1 X-0.183 Y0.248 Z-2.542 F420.000
G1 X-0.223 Y0.161 Z-2.551 F420.000
G1 X-0.245 Y0.067 Z-2.560 F420.000
G1 X-0.249 Y-0.029 Z-2.568 F420.000
G1 X-0.234 Y-0.124 Z-2.577 F420.000
G1 X-0.201 Y-0.214 Z-2.585 F420.000
G1 X-0.151 Y-0.296 Z-2.594 F420.000
G1 X-0.086 Y-0.366 Z-2.603 F420.000
G1 X-0.008 Y-0.423 Z-2.611 F420.000
G1 X0.079 Y-0.463 Z-2.620 F420.000
G1 X0.173 Y-0.485 Z-2.628 F420.000
G1 X0.269 Y-0.489 Z-2.637 F420.000
G1 X0.364 Y-0.474 Z-2.645 F420.000
G1 X0.454 Y-0.441 Z-2.654 F420.000
G1 X0.536 Y-0.391 Z-2.663 F420.000
G1 X0.606 Y-0.326 Z-2.671 F420.000
G1 X0.663 Y-0.248 Z-2.680 F420.000
G1 X0.703 Y-0.161 Z-2.688 F420.000
G1 X0.725 Y-0.067 Z-2.697 F420.000
G1 X0.729 Y0.029 Z-2.706 F420.000
G1 X0.714 Y0.124 Z-2.714 F420.000
G1 X0.681 Y0.214 Z-2.723 F420.000
G1 X0.631 Y0.296 Z-2.731 F420.000
G1 X0.566 Y0.366 Z-2.740 F420.000
G1 X0.488 Y0.423 Z-2.749 F420.000
G1 X0.401 Y0.463 Z-2.757 F420.000
G1 X0.307 Y0.485 Z-2.766 F420.000
G1 X0.211 Y0.489 Z-2.774 F420.000
G1 X0.116 Y0.474 Z-2.783 F420.000
G1 X0.026 Y0.441 Z-2.791 F420.000
G1 X-0.056 Y0.391 Z-2.800 F420.000
G1 X-0.126 Y0.326 Z-2.809 F420.000
G1 X-0.183 Y0.248 Z-2.817 F420.000
G1 X-0.223 Y0.161 Z-2.826 F420.000
G1 X-0.245 Y0.067 Z-2.834 F420.000
G1 X-0.249 Y-0.029 Z-2.843 F420.000
G1 X-0.234 Y-0.124 Z-2.852 F420.000
G1 X-0.201 Y-0.214 Z-2.860 F420.000
G1 X-0.151 Y-0.296 Z-2.869 F420.000
G1 X-0.086 Y-0.366 Z-2.877 F420.000
G1 X-0.008 Y-0.423 Z-2.886 F420.000
G1 X0.079 Y-0.463 Z-2.895 F420.000
G1 X0.173 Y-0.485 Z-2.903 F420.000
G1 X0.269 Y-0.489 Z-2.912 F420.000
G1 X0.364 Y-0.474 Z-2.920 F420.000
G1 X0.454 Y-0.441 Z-2.929 F420.000
G1 X0.536 Y-0.391 Z-2.937 F420.000
G1 X0.606 Y-0.326 Z-2.946 F420.000
G1 X0.663 Y-0.248 Z-2.955 F420.000
G1 X0.703 Y-0.161 Z-2.963 F420.000
G1 X0.725 Y-0.067 Z-2.972 F420.000
G1 X0.729 Y0.029 Z-2.980 F420.000
G1 X0.714 Y0.124 Z-2.989 F420.000
G1 X0.681 Y0.214 Z-2.998 F420.000
G1 X0.631 Y0.296 Z-3.006 F420.000
G1 X0.566 Y0.366 Z-3.015 F420.000
G1 X0.488 Y0.423 Z-3.023 F420.000
G1 X0.401 Y0.463 Z-3.032 F420.000
G1 X0.307 Y0.485 Z-3.041 F420.000
G1 X0.211 Y0.489 Z-3.049 F420.000
G1 X0.116 Y0.474 Z-3.058 F420.000
G1 X0.026 Y0.441 Z-3.066 F420.000
G1 X-0.056 Y0.391 Z-3.075 F420.000
G1 X-0.126 Y0.326 Z-3.084 F420.000
G1 X-0.183 Y0.248 Z-3.092 F420.000
G1 X-0.223 Y0.161 Z-3.101 F420.000
G1 X-0.245 Y0.067 Z-3.109 F420.000
G1 X-0.249 Y-0.029 Z-3.118 F420.000
G1 X-0.234 Y-0.124 Z-3.126 F420.000
G1 X-0.201 Y-0.214 Z-3.135 F420.000
G1 X-0.151 Y-0.296 Z-3.144 F420.000
G1 X-0.086 Y-0.366 Z-3.152 F420.000
G1 X-0.008 Y-0.423 Z-3.161 F420.000
G1 X0.079 Y-0.463 Z-3.169 F420.000
G1 X0.173 Y-0.485 Z-3.178 F420.000
G1 X0.269 Y-0.489 Z-3.187 F420.000
G1 X0.364 Y-0.474 Z-3.195 F420.000
G1 X0.454 Y-0.441 Z-3.204 F420.000
G1 X0.536 Y-0.391 Z-3.212 F420.000
G1 X0.606 Y-0.326 Z-3.221 F420.000
G1 X0.663 Y-0.248 Z-3.230 F420.000
G1 X0.703 Y-0.161 Z-3.238 F420.000
G1 X0.725 Y-0.067 Z-3.247 F420.000
G1 X0.729 Y0.029 Z-3.255 F420.000
G1 X0.714 Y0.124 Z-3.264 F420.000
G1 X0.681 Y0.214 Z-3.272 F420.000
G1 X0.631 Y0.296 Z-3.281 F420.000
G1 X0.566 Y0.366 Z-3.290 F420.000
G1 X0.488 Y0.423 Z-3.298 F420.000
G1 X0.401 Y0.463 Z-3.307 F420.000
G1 X0.307 Y0.485 Z-3.315 F420.000
G1 X0.211 Y0.489 Z-3.324 F420.000
G1 X0.116 Y0.474 Z-3.333 F420.000
G1 X0.026 Y0.441 Z-3.341 F420.000
G1 X-0.056 Y0.391 Z-3.350 F420.000
G1 X-0.126 Y0.326 Z-3.358 F420.000
G1 X-0.183 Y0.248 Z-3.367 F420.000
G1 X-0.223 Y0.161 Z-3.376 F420.000
G1 X-0.245 Y0.067 Z-3.384 F420.000
G1 X-0.249 Y-0.029 Z-3.393 F420.000
G1 X-0.234 Y-0.124 Z-3.401 F420.000
G1 X-0.201 Y-0.214 Z-3.410 F420.000
G1 X-0.151 Y-0.296 Z-3.418 F420.000
G1 X-0.086 Y-0.366 Z-3.427 F420.000
G1 X-0.008 Y-0.423 Z-3.436 F420.000
G1 X0.079 Y-0.463 Z-3.444 F420.000
G1 X0.173 Y-0.485 Z-3.453 F420.000
G1 X0.269 Y-0.489 Z-3.461 F420.000
G1 X0.364 Y-0.474 Z-3.470 F420.000
G1 X0.454 Y-0.441 Z-3.479 F420.000
G1 X0.536 Y-0.391 Z-3.487 F420.000
G1 X0.606 Y-0.326 Z-3.496 F420.000
G1 X0.663 Y-0.248 Z-3.504 F420.000
G1 X0.703 Y-0.161 Z-3.513 F420.000
G1 X0.725 Y-0.067 Z-3.522 F420.000
G1 X0.729 Y0.029 Z-3.530 F420.000
G1 X0.714 Y0.124 Z-3.539 F420.000
G1 X0.681 Y0.214 Z-3.547 F420.000
G1 X0.631 Y0.296 Z-3.556 F420.000
G1 X0.566 Y0.366 Z-3.565 F420.000
G1 X0.488 Y0.423 Z-3.573 F420.000
G1 X0.401 Y0.463 Z-3.582 F420.000
G1 X0.307 Y0.485 Z-3.590 F420.000
G1 X0.211 Y0.489 Z-3.599 F420.000
G1 X0.116 Y0.474 Z-3.607 F420.000
G1 X0.026 Y0.441 Z-3.616 F420.000
G1 X-0.056 Y0.391 Z-3.625 F420.000
G1 X-0.126 Y0.326 Z-3.633 F420.000
G1 X-0.183 Y0.248 Z-3.642 F420.000
G1 X-0.223 Y0.161 Z-3.650 F420.000
G1 X-0.245 Y0.067 Z-3.659 F420.000
G1 X-0.249 Y-0.029 Z-3.668 F420.000
G1 X-0.234 Y-0.124 Z-3.676 F420.000
G1 X-0.201 Y-0.214 Z-3.685 F420.000
G1 X-0.151 Y-0.296 Z-3.693 F420.000
G1 X-0.086 Y-0.366 Z-3.702 F420.000
G1 X-0.008 Y-0.423 Z-3.711 F420.000
G1 X0.079 Y-0.463 Z-3.719 F420.000
G1 X0.173 Y-0.485 Z-3.728 F420.000
G1 X0.269 Y-0.489 Z-3.736 F420.000
G1 X0.364 Y-0.474 Z-3.745 F420.000
G1 X0.454 Y-0.441 Z-3.753 F420.000
G1 X0.536 Y-0.391 Z-3.762 F420.000
G1 X0.606 Y-0.326 Z-3.771 F420.000
G1 X0.663 Y-0.248 Z-3.779 F420.000
G1 X0.703 Y-0.161 Z-3.788 F420.000
G1 X0.725 Y-0.067 Z-3.796 F420.000
G1 X0.729 Y0.029 Z-3.805 F420.000
G1 X0.714 Y0.124 Z-3.814 F420.000
G1 X0.681 Y0.214 Z-3.822 F420.000
G1 X0.631 Y0.296 Z-3.831 F420.000
G1 X0.566 Y0.366 Z-3.839 F420.000
G1 X0.488 Y0.423 Z-3.848 F420.000
G1 X0.401 Y0.463 Z-3.857 F420.000
G1 X0.307 Y0.485 Z-3.865 F420.000
G1 X0.211 Y0.489 Z-3.874 F420.000
G1 X0.116 Y0.474 Z-3.882 F420.000
G1 X0.026 Y0.441 Z-3.891 F420.000
G1 X-0.056 Y0.391 Z-3.899 F420.000
G1 X-0.126 Y0.326 Z-3.908 F420.000
G1 X-0.183 Y0.248 Z-3.917 F420.000
G1 X-0.223 Y0.161 Z-3.925 F420.000
G1 X-0.245 Y0.067 Z-3.934 F420.000
G1 X-0.249 Y-0.029 Z-3.942 F420.000
G1 X-0.234 Y-0.124 Z-3.951 F420.000
G1 X-0.201 Y-0.214 Z-3.960 F420.000
G1 X-0.151 Y-0.296 Z-3.968 F420.000
G1 X-0.086 Y-0.366 Z-3.977 F420.000
G1 X-0.008 Y-0.423 Z-3.985 F420.000
G1 X0.079 Y-0.463 Z-3.994 F420.000
G1 X0.173 Y-0.485 Z-4.000 F420.000
G1 X0.269 Y-0.489 Z-4.000 F420.000
G1 X0.364 Y-0.474 Z-4.000 F420.000
G1 X0.454 Y-0.441 Z-4.000 F420.000
G1 X0.536 Y-0.391 Z-4.000 F420.000
G1 X0.606 Y-0.326 Z-4.000 F420.000
G1 X0.663 Y-0.248 Z-4.000 F420.000
G1 X0.703 Y-0.161 Z-4.000 F420.000
G1 X0.725 Y-0.067 Z-4.000 F420.000
G1 X0.729 Y0.029 Z-4.000 F420.000
G1 X0.714 Y0.124 Z-4.000 F420.000
G1 X0.681 Y0.214 Z-4.000 F420.000
G1 X0.631 Y0.296 Z-4.000 F420.000
G1 X0.566 Y0.366 Z-4.000 F420.000
G1 X0.488 Y0.423 Z-4.000 F420.000
G1 X0.401 Y0.463 Z-4.000 F420.000
G1 X0.307 Y0.485 Z-4.000 F420.000
G1 X0.211 Y0.489 Z-4.000 F420.000
G1 X0.116 Y0.474 Z-4.000 F420.000
G1 X0.026 Y0.441 Z-4.000 F420.000
G1 X-0.056 Y0.391 Z-4.000 F420.000
G1 X-0.126 Y0.326 Z-4.000 F420.000
G1 X-0.183 Y0.248 Z-4.000 F420.000
G1 X-0.223 Y0.161 Z-4.000 F420.000
G1 X-0.245 Y0.067 Z-4.000 F420.000
G1 X-0.249 Y-0.029 Z-4.000 F420.000
G1 X-0.234 Y-0.124 Z-4.000 F420.000
G1 X-0.201 Y-0.214 Z-4.000 F420.000
G1 X-0.151 Y-0.296 Z-4.000 F420.000
G1 X-0.086 Y-0.366 Z-4.000 F420.000
G1 X-0.008 Y-0.423 Z-4.000 F420.000
G1 X0.079 Y-0.463 Z-4.000 F420.000
(Adaptive - depth: -4.000000)
G1 X0.240 Y-0.500 F420.000
G1 X0.270 Y-0.525 F420.000
G1 X0.345 Y-0.545 F420.000
G1 X0.420 Y-0.547 F420.000
G1 X0.495 Y-0.532 F420.000
G1 X0.568 Y-0.500 F420.000
G1 X0.735 Y-0.383 F420.000
G1 X0.820 Y-0.265 F420.000
G1 X0.850 Y-0.188 F420.000
G1 X0.868 Y-0.115 F420.000
G1 X0.882 Y-0.015 F420.000
G1 X0.873 Y0.130 F420.000
G1 X0.840 Y0.247 F420.000
G1 X0.792 Y0.338 F420.000
G1 X0.738 Y0.415 F420.000
G1 X0.655 Y0.497 F420.000
G1 X0.557 Y0.568 F420.000
G1 X0.445 Y0.618 F420.000
G1 X0.338 Y0.642 F420.000
G1 X0.235 Y0.650 F420.000
G1 X0.125 Y0.640 F420.000
G1 X0.007 Y0.605 F420.000
G1 X-0.092 Y0.560 F420.000
G1 X-0.193 Y0.490 F420.000
G1 X-0.275 Y0.407 F420.000
G1 X-0.338 Y0.307 F420.000
G1 X-0.378 Y0.217 F420.000
G1 X-0.403 Y0.110 F420.000
G1 X-0.410 Y0.003 F420.000
G1 X-0.400 Y-0.117 F420.000
G1 X-0.367 Y-0.233 F420.000
G1 X-0.315 Y-0.338 F420.000
G1 X-0.253 Y-0.425 F420.000
G1 X-0.170 Y-0.505 F420.000
G1 X-0.080 Y-0.573 F420.000
G1 X0.037 Y-0.642 F420.000
G1 X0.223 Y-0.693 F420.000
G1 X0.372 Y-0.705 F420.000
G1 X0.485 Y-0.690 F420.000
G1 X0.522 Y-0.680 F420.000
G1 X0.752 Y-0.583 F420.000
G1 X0.873 Y-0.472 F420.000
G1 X0.965 Y-0.333 F420.000
G1 X1.018 Y-0.207 F420.000
G1 X1.048 Y-0.070 F420.000
G1 X1.055 Y0.048 F420.000
G1 X1.042 Y0.160 F420.000
G1 X1.010 Y0.280 F420.000
G1 X0.958 Y0.398 F420.000
G1 X0.890 Y0.500 F420.000
G1 X0.807 Y0.595 F420.000
G1 X0.703 Y0.680 F420.000
G1 X0.593 Y0.745 F420.000
G1 X0.470 Y0.790 F420.000
G1 X0.355 Y0.815 F420.000
G1 X0.230 Y0.823 F420.000
G1 X0.105 Y0.812 F420.000
G1 X-0.028 Y0.780 F420.000
G1 X-0.145 Y0.735 F420.000
G1 X-0.265 Y0.660 F420.000
G1 X-0.355 Y0.580 F420.000
G1 X-0.430 Y0.490 F420.000
G1 X-0.495 Y0.383 F420.000
G1 X-0.545 Y0.260 F420.000
G1 X-0.575 Y0.138 F420.000
G1 X-0.585 Y0.010 F420.000
G1 X-0.578 Y-0.117 F420.000
G1 X-0.550 Y-0.250 F420.000
G1 X-0.505 Y-0.372 F420.000
G1 X-0.435 Y-0.485 F420.000
G1 X-0.365 Y-0.575 F420.000
G1 X-0.265 Y-0.672 F420.000
G1 X-0.150 Y-0.752 F420.000
G1 X-0.033 Y-0.812 F420.000
G1 X0.095 Y-0.860 F420.000
G1 X0.245 Y-0.890 F420.000
G1 X0.383 Y-0.890 F420.000
G1 X0.495 Y-0.880 F420.000
G1 X0.640 Y-0.843 F420.000
G1 X0.762 Y-0.787 F420.000
G1 X0.875 Y-0.720 F420.000
G1 X0.978 Y-0.627 F420.000
G1 X1.093 Y-0.458 F420.000
G1 X1.183 Y-0.233 F420.000
G1 X1.215 Y0.005 F420.000
G1 X1.202 Y0.193 F420.000
G1 X1.153 Y0.380 F420.000
G1 X1.060 Y0.552 F420.000
G1 X0.932 Y0.705 F420.000
G1 X0.840 Y0.785 F420.000
G1 X0.632 Y0.925 F420.000
G1 X0.395 Y1.002 F420.000
G1 X0.287 Y1.015 F420.000
G1 X0.193 Y1.018 F420.000
G1 X0.068 Y1.005 F420.000
G1 X-0.080 Y0.970 F420.000
G1 X-0.225 Y0.912 F420.000
G1 X-0.350 Y0.838 F420.000
G1 X-0.455 Y0.755 F420.000
G1 X-0.555 Y0.650 F420.000
G1 X-0.635 Y0.535 F420.000
G1 X-0.700 Y0.410 F420.000
G1 X-0.748 Y0.210 F420.000
G1 X-0.762 Y-0.065 F420.000
G1 X-0.743 Y-0.215 F420.000
G1 X-0.665 Y-0.438 F420.000
G1 X-0.522 Y-0.688 F420.000
G1 X-0.347 Y-0.865 F420.000
G1 X-0.250 Y-0.930 F420.000
G1 X-0.163 Y-0.980 F420.000
G1 X-0.037 Y-1.035 F420.000
G1 X0.133 Y-1.080 F420.000
G1 X0.290 Y-1.103 F420.000
G1 X0.480 Y-1.093 F420.000
G1 X0.667 Y-1.045 F420.000
G1 X0.812 Y-0.983 F420.000
G1 X1.008 Y-0.848 F420.000
G1 X1.167 Y-0.670 F420.000
G1 X1.270 Y-0.500 F420.000
G1 X1.345 Y-0.312 F420.000
G1 X1.390 Y-0.072 F420.000
G1 X1.390 Y0.155 F420.000
G1 X1.353 Y0.343 F420.000
G1 X1.265 Y0.562 F420.000
G1 X1.105 Y0.787 F420.000
G1 X0.993 Y0.902 F420.000
G1 X0.830 Y1.020 F420.000
G1 X0.610 Y1.125 F420.000
G1 X0.412 Y1.177 F420.000
G1 X0.172 Y1.192 F420.000
G1 X-0.100 Y1.160 F420.000
G1 X-0.212 Y1.127 F420.000
G1 X-0.440 Y1.025 F420.000
G1 X-0.613 Y0.897 F420.000
G1 X-0.695 Y0.810 F420.000
G1 X-0.800 Y0.637 F420.000
G1 X-0.905 Y0.375 F420.000
G1 X-0.948 Y0.135 F420.000
G1 X-0.945 Y-0.135 F420.000
G1 X-0.905 Y-0.360 F420.000
G1 X-0.800 Y-0.615 F420.000
G1 X-0.695 Y-0.782 F420.000
G1 X-0.475 Y-1.028 F420.000
G1 X-0.270 Y-1.170 F420.000
G1 X0.037 Y-1.268 F420.000
G1 X0.300 Y-1.305 F420.000
G1 X0.525 Y-1.292 F420.000
G1 X0.713 Y-1.245 F420.000
G1 X0.887 Y-1.155 F420.000
G1 X1.045 Y-1.038 F420.000
G1 X1.202 Y-0.858 F420.000
G1 X1.357 Y-0.578 F420.000
G1 X1.452 Y-0.265 F420.000
G1 X1.472 Y-0.105 F420.000
G1 X1.472 Y0.087 F420.000
G1 X1.410 Y0.425 F420.000
G1 X1.357 Y0.575 F420.000
G1 X1.268 Y0.748 F420.000
G1 X1.185 Y0.882 F420.000
G1 X0.963 Y1.117 F420.000
G1 X0.728 Y1.270 F420.000
G1 X0.540 Y1.343 F420.000
G1 X0.340 Y1.380 F420.000
G1 X0.060 Y1.383 F420.000
G1 X-0.205 Y1.345 F420.000
G1 X-0.427 Y1.268 F420.000
G1 X-0.532 Y1.212 F420.000
G1 X-0.720 Y1.065 F420.000
G1 X-0.853 Y0.915 F420.000
G1 X-0.940 Y0.780 F420.000
G1 X-0.980 Y0.662 F420.000
G1 X-0.975 Y-0.540 F420.000
G1 X-0.945 Y-0.690 F420.000
G1 X-0.855 Y-0.868 F420.000
G1 X-0.685 Y-1.087 F420.000
G1 X-0.537 Y-1.218 F420.000
G1 X-0.330 Y-1.343 F420.000
G1 X-0.102 Y-1.435 F420.000
G1 X0.128 Y-1.470 F420.000
G1 X0.390 Y-1.425 F420.000
G1 X0.578 Y-1.357 F420.000
G1 X0.752 Y-1.270 F420.000
G1 X0.978 Y-1.107 F420.000
G1 X0.978 Y-1.107 F420.000
G1 X1.020 Y-1.035 F420.000
G1 X1.032 Y-0.973 F420.000
G0 X1.035 Y-0.953
G0 X0.755 Y1.077
G1 X0.752 Y1.103 F420.000
G1 X0.725 Y1.225 F420.000
G1 X0.677 Y1.292 F420.000
G1 X0.630 Y1.333 F420.000
G1 X0.630 Y1.333 F420.000
G1 X0.560 Y1.367 F420.000
G1 X0.365 Y1.430 F420.000
G1 X0.205 Y1.465 F420.000
G1 X0.005 Y1.478 F420.000
G1 X-0.333 Y1.438 F420.000
G1 X-0.595 Y1.347 F420.000
G1 X-0.800 Y1.230 F420.000
G1 X-0.948 Y1.097 F420.000
G1 X-0.968 Y1.062 F420.000
G1 X-0.980 Y1.025 F420.000
G1 X-0.980 Y0.705 F420.000
G1 X-0.980 Y0.705 F420.000
G1 X-0.978 Y0.695 F420.000
G0 X-0.975 Y0.693
G0 X-0.935 Y0.932
G1 X-0.932 Y0.953 F420.000
G1 X-0.915 Y1.123 F420.000
G1 X-0.943 Y1.130 F420.000
G1 X-0.943 Y1.130 F420.000
G1 X-0.970 Y1.103 F420.000
G1 X-0.970 Y1.103 F420.000
G1 X-0.973 Y0.995 F420.000
G1 X-0.963 Y0.955 F420.000
G0 X-0.955 Y0.935
G0 X-0.757 Y0.603
G0 X-0.703 Y0.185
G0 X-0.738 Y-0.152
G0 X-0.860 Y-0.385
G1 X-0.870 Y-0.403 F420.000
G1 X-0.910 Y-0.475 F420.000
G1 X-0.963 Y-0.568 F420.000
G1 X-0.980 Y-0.652 F420.000
G1 X-0.980 Y-0.652 F420.000
G1 X-0.970 Y-0.877 F420.000
G1 X-0.940 Y-0.990 F420.000
G1 X-0.905 Y-1.062 F420.000
G1 X-0.815 Y-1.190 F420.000
G1 X-0.695 Y-1.295 F420.000
G1 X-0.550 Y-1.370 F420.000
G1 X-0.438 Y-1.410 F420.000
G1 X-0.117 Y-1.472 F420.000
G1 X-0.037 Y-1.475 F420.000
G1 X-0.037 Y-1.475 F420.000
G1 X0.040 Y-1.458 F420.000
G1 X0.072 Y-1.440 F420.000
G1 X0.083 Y-1.430 F420.000
G0 X0.085 Y-1.420
G0 X0.040 Y-1.375
G0 X-0.815 Y-0.835
G1 X-0.835 Y-0.823 F420.000
G1 X-0.895 Y-0.795 F420.000
G1 X-0.927 Y-0.802 F420.000
G1 X-0.963 Y-0.850 F420.000
G1 X-0.980 Y-0.932 F420.000
G1 X-0.980 Y-0.932 F420.000
G1 X-0.978 Y-1.083 F420.000
G1 X-0.960 Y-1.117 F420.000
G1 X-0.797 Y-1.240 F420.000
G1 X-0.797 Y-1.240 F420.000
G1 X-0.785 Y-1.238 F420.000
G1 X-0.777 Y-1.230 F420.000
G1 X-0.777 Y-1.200 F420.000
G1 X-0.792 Y-1.180 F420.000
G1 X-0.823 Y-1.183 F420.000
G1 X-0.845 Y-1.200 F420.000
G1 X-0.843 Y-1.235 F420.000
G1 X-0.843 Y-1.235 F420.000
G1 X-0.680 Y-1.330 F420.000
G1 X-0.505 Y-1.407 F420.000
G1 X-0.440 Y-1.430 F420.000
G1 X-0.220 Y-1.480 F420.000
G1 X-0.138 Y-1.492 F420.000
G1 X-0.005 Y-1.498 F420.000
G1 X0.170 Y-1.488 F420.000
G1 X0.335 Y-1.458 F420.000
G1 X0.500 Y-1.410 F420.000
G1 X0.600 Y-1.370 F420.000
G1 X0.757 Y-1.290 F420.000
G1 X0.963 Y-1.147 F420.000
G1 X1.167 Y-0.932 F420.000
G1 X1.235 Y-0.848 F420.000
G1 X1.288 Y-0.762 F420.000
G1 X1.363 Y-0.613 F420.000
G1 X1.415 Y-0.482 F420.000
G1 X1.455 Y-0.343 F420.000
G1 X1.480 Y-0.220 F420.000
G1 X1.498 Y0.013 F420.000
G1 X1.490 Y0.113 F420.000
G1 X1.445 Y0.372 F420.000
G1 X1.427 Y0.438 F420.000
G1 X1.365 Y0.603 F420.000
G1 X1.315 Y0.708 F420.000
G1 X1.188 Y0.912 F420.000
G1 X1.087 Y1.030 F420.000
G1 X0.953 Y1.155 F420.000
G1 X0.755 Y1.292 F420.000
G1 X0.608 Y1.367 F420.000
G1 X0.417 Y1.438 F420.000
G1 X0.235 Y1.480 F420.000
G1 X0.170 Y1.490 F420.000
G1 X-0.013 Y1.498 F420.000
G1 X-0.250 Y1.470 F420.000
G1 X-0.355 Y1.450 F420.000
G1 X-0.588 Y1.375 F420.000
G1 X-0.670 Y1.335 F420.000
G1 X-0.802 Y1.260 F420.000
G1 X-0.875 Y1.212 F420.000
G1 X-0.975 Y1.127 F420.000
G1 X-1.000 Y1.087 F420.000
G1 X-0.995 Y-1.100 F420.000
G1 X-0.950 Y-1.155 F420.000
G1 X-0.843 Y-1.235 F420.000
G1 X-0.843 Y-1.235 F420.000
G0 Z5.000
(Helix to depth: -5.000000)
G0 Z5.000
G0 X0.669 Y0.237 Z5.000
G0 X0.669 Y0.237 Z3.000
G1 X0.669 Y0.237 Z-4.000 F420.000
G1 X0.669 Y0.237 Z-4.000 F420.000
G1 X0.614 Y0.316 Z-4.009 F420.000
G1 X0.545 Y0.383 Z-4.017 F420.000
G1 X0.465 Y0.435 Z-4.026 F420.000
G1 X0.375 Y0.471 Z-4.034 F420.000
G1 X0.281 Y0.488 Z-4.043 F420.000
G1 X0.185 Y0.487 Z-4.052 F420.000
G1 X0.091 Y0.467 Z-4.060 F420.000
G1 X0.003 Y0.429 Z-4.069 F420.000
G1 X-0.076 Y0.374 Z-4.077 F420.000
G1 X-0.143 Y0.305 Z-4.086 F420.000
G1 X-0.195 Y0.225 Z-4.094 F420.000
G1 X-0.231 Y0.135 Z-4.103 F420.000
G1 X-0.248 Y0.041 Z-4.112 F420.000
G1 X-0.247 Y-0.055 Z-4.120 F420.000
G1 X-0.227 Y-0.149 Z-4.129 F420.000
G1 X-0.189 Y-0.237 Z-4.137 F420.000
G1 X-0.134 Y-0.316 Z-4.146 F420.000
G1 X-0.065 Y-0.383 Z-4.155 F420.000
G1 X0.015 Y-0.435 Z-4.163 F420.000
G1 X0.105 Y-0.471 Z-4.172 F420.000
G1 X0.199 Y-0.488 Z-4.180 F420.000
G1 X0.295 Y-0.487 Z-4.189 F420.000
G1 X0.389 Y-0.467 Z-4.198 F420.000
G1 X0.477 Y-0.429 Z-4.206 F420.000
G1 X0.556 Y-0.374 Z-4.215 F420.000
G1 X0.623 Y-0.305 Z-4.223 F420.000
G1 X0.675 Y-0.225 Z-4.232 F420.000
G1 X0.711 Y-0.135 Z-4.240 F420.000
G1 X0.728 Y-0.041 Z-4.249 F420.000
G1 X0.727 Y0.055 Z-4.258 F420.000
G1 X0.707 Y0.149 Z-4.266 F420.000
G1 X0.669 Y0.237 Z-4.275 F420.000
G1 X0.614 Y0.316 Z-4.283 F420.000
G1 X0.545 Y0.383 Z-4.292 F420.000
G1 X0.465 Y0.435 Z-4.301 F420.000
G1 X0.375 Y0.471 Z-4.309 F420.000
G1 X0.281 Y0.488 Z-4.318 F420.000
G1 X0.185 Y0.487 Z-4.326 F420.000
G1 X0.091 Y0.467 Z-4.335 F420.000
G1 X0.003 Y0.429 Z-4.344 F420.000
G1 X-0.076 Y0.374 Z-4.352 F420.000
G1 X-0.143 Y0.305 Z-4.361 F420.000
G1 X-0.195 Y0.225 Z-4.369 F420.000
G1 X-0.231 Y0.135 Z-4.378 F420.000
G1 X-0.248 Y0.041 Z-4.387 F420.000
G1 X-0.247 Y-0.055 Z-4.395 F420.000
G1 X-0.227 Y-0.149 Z-4.404 F420.000
G1 X-0.189 Y-0.237 Z-4.412 F420.000
G1 X-0.134 Y-0.316 Z-4.421 F420.000
G1 X-0.065 Y-0.383 Z-4.429 F420.000
G1 X0.015 Y-0.435 Z-4.438 F420.000
G1 X0.105 Y-0.471 Z-4.447 F420.000
G1 X0.199 Y-0.488 Z-4.455 F420.000
G1 X0.295 Y-0.487 Z-4.464 F420.000
G1 X0.389 Y-0.467 Z-4.472 F420.000
G1 X0.477 Y-0.429 Z-4.481 F420.000
G1 X0.556 Y-0.374 Z-4.490 F420.000
G1 X0.623 Y-0.305 Z-4.498 F420.000
G1 X0.675 Y-0.225 Z-4.507 F420.000
G1 X0.711 Y-0.135 Z-4.515 F420.000
G1 X0.728 Y-0.041 Z-4.524 F420.000
G1 X0.727 Y0.055 Z-4.533 F420.000
G1 X0.707 Y0.149 Z-4.541 F420.000
G1 X0.669 Y0.237 Z-4.550 F420.000
G1 X0.614 Y0.316 Z-4.558 F420.000
G1 X0.545 Y0.383 Z-4.567 F420.000
G1 X0.465 Y0.435 Z-4.575 F420.000
G1 X0.375 Y0.471 Z-4.584 F420.000
G1 X0.281 Y0.488 Z-4.593 F420.000
G1 X0.185 Y0.487 Z-4.601 F420.000
G1 X0.091 Y0.467 Z-4.610 F420.000
G1 X0.003 Y0.429 Z-4.618 F420.000
G1 X-0.076 Y0.374 Z-4.627 F420.000
G1 X-0.143 Y0.305 Z-4.636 F420.000
G1 X-0.195 Y0.225 Z-4.644 F420.000
G1 X-0.231 Y0.135 Z-4.653 F420.000
G1 X-0.248 Y0.041 Z-4.661 F420.000
G1 X-0.247 Y-0.055 Z-4.670 F420.000
G1 X-0.227 Y-0.149 Z-4.679 F420.000
G1 X-0.189 Y-0.237 Z-4.687 F420.000
G1 X-0.134 Y-0.316 Z-4.696 F420.000
G1 X-0.065 Y-0.383 Z-4.704 F420.000
G1 X0.015 Y-0.435 Z-4.713 F420.000
G1 X0.105 Y-0.471 Z-4.721 F420.000
G1 X0.199 Y-0.488 Z-4.730 F420.000
G1 X0.295 Y-0.487 Z-4.739 F420.000
G1 X0.389 Y-0.467 Z-4.747 F420.000
G1 X0.477 Y-0.429 Z-4.756 F420.000
G1 X0.556 Y-0.374 Z-4.764 F420.000
G1 X0.623 Y-0.305 Z-4.773 F420.000
G1 X0.675 Y-0.225 Z-4.782 F420.000
G1 X0.711 Y-0.135 Z-4.790 F420.000
G1 X0.728 Y-0.041 Z-4.799 F420.000
G1 X0.727 Y0.055 Z-4.807 F420.000
G1 X0.707 Y0.149 Z-4.816 F420.000
G1 X0.669 Y0.237 Z-4.825 F420.000
G1 X0.614 Y0.316 Z-4.833 F420.000
G1 X0.545 Y0.383 Z-4.842 F420.000
G1 X0.465 Y0.435 Z-4.850 F420.000
G1 X0.375 Y0.471 Z-4.859 F420.000
G1 X0.281 Y0.488 Z-4.868 F420.000
G1 X0.185 Y0.487 Z-4.876 F420.000
G1 X0.091 Y0.467 Z-4.885 F420.000
G1 X0.003 Y0.429 Z-4.893 F420.000
G1 X-0.076 Y0.374 Z-4.902 F420.000
G1 X-0.143 Y0.305 Z-4.910 F420.000
G1 X-0.195 Y0.225 Z-4.919 F420.000
G1 X-0.231 Y0.135 Z-4.928 F420.000
G1 X-0.248 Y0.041 Z-4.936 F420.000
G1 X-0.247 Y-0.055 Z-4.945 F420.000
G1 X-0.227 Y-0.149 Z-4.953 F420.000
G1 X-0.189 Y-0.237 Z-4.962 F420.000
G1 X-0.134 Y-0.316 Z-4.971 F420.000
G1 X-0.065 Y-0.383 Z-4.979 F420.000
G1 X0.015 Y-0.435 Z-4.988 F420.000
G1 X0.105 Y-0.471 Z-4.996 F420.000
G1 X0.199 Y-0.488 Z-5.000 F420.000
G1 X0.295 Y-0.487 Z-5.000 F420.000
G1 X0.389 Y-0.467 Z-5.000 F420.000
G1 X0.477 Y-0.429 Z-5.000 F420.000
G1 X0.556 Y-0.374 Z-5.000 F420.000
G1 X0.623 Y-0.305 Z-5.000 F420.000
G1 X0.675 Y-0.225 Z-5.000 F420.000
G1 X0.711 Y-0.135 Z-5.000 F420.000
G1 X0.728 Y-0.041 Z-5.000 F420.000
G1 X0.727 Y0.055 Z-5.000 F420.000
G1 X0.707 Y0.149 Z-5.000 F420.000
G1 X0.669 Y0.237 Z-5.000 F420.000
G1 X0.614 Y0.316 Z-5.000 F420.000
G1 X0.545 Y0.383 Z-5.000 F420.000
G1 X0.465 Y0.435 Z-5.000 F420.000
G1 X0.375 Y0.471 Z-5.000 F420.000
G1 X0.281 Y0.488 Z-5.000 F420.000
G1 X0.185 Y0.487 Z-5.000 F420.000
G1 X0.091 Y0.467 Z-5.000 F420.000
G1 X0.003 Y0.429 Z-5.000 F420.000
G1 X-0.076 Y0.374 Z-5.000 F420.000
G1 X-0.143 Y0.305 Z-5.000 F420.000
G1 X-0.195 Y0.225 Z-5.000 F420.000
G1 X-0.231 Y0.135 Z-5.000 F420.000
G1 X-0.248 Y0.041 Z-5.000 F420.000
G1 X-0.247 Y-0.055 Z-5.000 F420.000
G1 X-0.227 Y-0.149 Z-5.000 F420.000
G1 X-0.189 Y-0.237 Z-5.000 F420.000
G1 X-0.134 Y-0.316 Z-5.000 F420.000
G1 X-0.065 Y-0.383 Z-5.000 F420.000
G1 X0.015 Y-0.435 Z-5.000 F420.000
G1 X0.105 Y-0.471 Z-5.000 F420.000
(Adaptive - depth: -5.000000)
G1 X0.240 Y-0.500 F420.000
G1 X0.270 Y-0.525 F420.000
G1 X0.345 Y-0.545 F420.000
G1 X0.420 Y-0.547 F420.000
G1 X0.495 Y-0.532 F420.000
G1 X0.568 Y-0.500 F420.000
G1 X0.735 Y-0.383 F420.000
G1 X0.820 Y-0.265 F420.000
G1 X0.850 Y-0.188 F420.000
G1 X0.868 Y-0.115 F420.000
G1 X0.882 Y-0.015 F420.000
G1 X0.873 Y0.130 F420.000
G1 X0.840 Y0.247 F420.000
G1 X0.792 Y0.338 F420.000
G1 X0.738 Y0.415 F420.000
G1 X0.655 Y0.497 F420.000
G1 X0.557 Y0.568 F420.000
G1 X0.445 Y0.618 F420.000
G1 X0.338 Y0.642 F420.000
G1 X0.235 Y0.650 F420.000
G1 X0.125 Y0.640 F420.000
G1 X0.007 Y0.605 F420.000
G1 X-0.092 Y0.560 F420.000
G1 X-0.193 Y0.490 F420.000
G1 X-0.275 Y0.407 F420.000
G1 X-0.338 Y0.307 F420.000
G1 X-0.378 Y0.217 F420.000
G1 X-0.403 Y0.110 F420.000
G1 X-0.410 Y0.003 F420.000
G1 X-0.400 Y-0.117 F420.000
G1 X-0.367 Y-0.233 F420.000
G1 X-0.315 Y-0.338 F420.000
G1 X-0.253 Y-0.425 F420.000
G1 X-0.170 Y-0.505 F420.000
G1 X-0.080 Y-0.573 F420.000
G1 X0.037 Y-0.642 F420.000
G1 X0.223 Y-0.693 F420.000
G1 X0.372 Y-0.705 F420.000
G1 X0.485 Y-0.690 F420.000
G1 X0.522 Y-0.680 F420.000
G1 X0.752 Y-0.583 F420.000
G1 X0.873 Y-0.472 F420.000
G1 X0.965 Y-0.333 F420.000
G1 X1.018 Y-0.207 F420.000
G1 X1.048 Y-0.070 F420.000
G1 X1.055 Y0.048 F420.000
G1 X1.042 Y0.160 F420.000
G1 X1.010 Y0.280 F420.000
G1 X0.958 Y0.398 F420.000
G1 X0.890 Y0.500 F420.000
G1 X0.807 Y0.595 F420.000
G1 X0.703 Y0.680 F420.000
G1 X0.593 Y0.745 F420.000
G1 X0.470 Y0.790 F420.000
G1 X0.355 Y0.815 F420.000
G1 X0.230 Y0.823 F420.000
G1 X0.105 Y0.812 F420.000
G1 X-0.028 Y0.780 F420.000
G1 X-0.145 Y0.735 F420.000
G1 X-0.265 Y0.660 F420.000
G1 X-0.355 Y0.580 F420.000
G1 X-0.430 Y0.490 F420.000
G1 X-0.495 Y0.383 F420.000
G1 X-0.545 Y0.260 F420.000
G1 X-0.575 Y0.138 F420.000
G1 X-0.585 Y0.010 F420.000
G1 X-0.578 Y-0.117 F420.000
G1 X-0.550 Y-0.250 F420.000
G1 X-0.505 Y-0.372 F420.000
G1 X-0.435 Y-0.485 F420.000
G1 X-0.365 Y-0.575 F420.000
G1 X-0.265 Y-0.672 F420.000
G1 X-0.150 Y-0.752 F420.000
G1 X-0.033 Y-0.812 F420.000
G1 X0.095 Y-0.860 F420.000
G1 X0.245 Y-0.890 F420.000
G1 X0.383 Y-0.890 F420.000
G1 X0.495 Y-0.880 F420.000
G1 X0.640 Y-0.843 F420.000
G1 X0.762 Y-0.787 F420.000
G1 X0.875 Y-0.720 F420.000
G1 X0.978 Y-0.627 F420.000
G1 X1.093 Y-0.458 F420.000
G1 X1.183 Y-0.233 F420.000
G1 X1.215 Y0.005 F420.000
G1 X1.202 Y0.193 F420.000
G1 X1.153 Y0.380 F420.000
G1 X1.060 Y0.552 F420.000
G1 X0.932 Y0.705 F420.000
G1 X0.840 Y0.785 F420.000
G1 X0.632 Y0.925 F420.000
G1 X0.395 Y1.002 F420.000
G1 X0.287 Y1.015 F420.000
G1 X0.193 Y1.018 F420.000
G1 X0.068 Y1.005 F420.000
G1 X-0.080 Y0.970 F420.000
G1 X-0.225 Y0.912 F420.000
G1 X-0.350 Y0.838 F420.000
G1 X-0.455 Y0.755 F420.000
G1 X-0.555 Y0.650 F420.000
G1 X-0.635 Y0.535 F420.000
G1 X-0.700 Y0.410 F420.000
G1 X-0.748 Y0.210 F420.000
G1 X-0.762 Y-0.065 F420.000
G1 X-0.743 Y-0.215 F420.000
G1 X-0.665 Y-0.438 F420.000
G1 X-0.522 Y-0.688 F420.000
G1 X-0.347 Y-0.865 F420.000
G1 X-0.250 Y-0.930 F420.000
G1 X-0.163 Y-0.980 F420.000
G1 X-0.037 Y-1.035 F420.000
G1 X0.133 Y-1.080 F420.000
G1 X0.290 Y-1.103 F420.000
G1 X0.480 Y-1.093 F420.000
G1 X0.667 Y-1.045 F420.000
G1 X0.812 Y-0.983 F420.000
G1 X1.008 Y-0.848 F420.000
G1 X1.167 Y-0.670 F420.000
G1 X1.270 Y-0.500 F420.000
G1 X1.345 Y-0.312 F420.000
G1 X1.390 Y-0.072 F420.000
G1 X1.390 Y0.155 F420.000
G1 X1.353 Y0.343 F420.000
G1 X1.265 Y0.562 F420.000
G1 X1.105 Y0.787 F420.000
G1 X0.993 Y0.902 F420.000
G1 X0.830 Y1.020 F420.000
G1 X0.610 Y1.125 F420.000
G1 X0.412 Y1.177 F420.000
G1 X0.172 Y1.192 F420.000
G1 X-0.100 Y1.160 F420.000
G1 X-0.212 Y1.127 F420.000
G1 X-0.440 Y1.025 F420.000
G1 X-0.613 Y0.897 F420.000
G1 X-0.695 Y0.810 F420.000
G1 X-0.800 Y0.637 F420.000
G1 X-0.905 Y0.375 F420.000
G1 X-0.948 Y0.135 F420.000
G1 X-0.945 Y-0.135 F420.000
G1 X-0.905 Y-0.360 F420.000
G1 X-0.800 Y-0.615 F420.000
G1 X-0.695 Y-0.782 F420.000
G1 X-0.475 Y-1.028 F420.000
G1 X-0.270 Y-1.170 F420.000
G1 X0.037 Y-1.268 F420.000
G1 X0.300 Y-1.305 F420.000
G1 X0.525 Y-1.292 F420.000
G1 X0.713 Y-1.245 F420.000
G1 X0.887 Y-1.155 F420.000
G1 X1.045 Y-1.038 F420.000
G1 X1.202 Y-0.858 F420.000
G1 X1.357 Y-0.578 F420.000
G1 X1.452 Y-0.265 F420.000
G1 X1.472 Y-0.105 F420.000
G1 X1.472 Y0.087 F420.000
G1 X1.410 Y0.425 F420.000
G1 X1.357 Y0.575 F420.000
G1 X1.268 Y0.748 F420.000
G1 X1.185 Y0.882 F420.000
G1 X0.963 Y1.117 F420.000
G1 X0.728 Y1.270 F420.000
G1 X0.540 Y1.343 F420.000
G1 X0.340 Y1.380 F420.000
G1 X0.060 Y1.383 F420.000
G1 X-0.205 Y1.345 F420.000
G1 X-0.427 Y1.268 F420.000
G1 X-0.532 Y1.212 F420.000
G1 X-0.720 Y1.065 F420.000
G1 X-0.853 Y0.915 F420.000
G1 X-0.940 Y0.780 F420.000
G1 X-0.980 Y0.662 F420.000
G1 X-0.975 Y-0.540 F420.000
G1 X-0.945 Y-0.690 F420.000
G1 X-0.855 Y-0.868 F420.000
G1 X-0.685 Y-1.087 F420.000
G1 X-0.537 Y-1.218 F420.000
G1 X-0.330 Y-1.343 F420.000
G1 X-0.102 Y-1.435 F420.000
G1 X0.128 Y-1.470 F420.000
G1 X0.390 Y-1.425 F420.000
G1 X0.578 Y-1.357 F420.000
G1 X0.752 Y-1.270 F420.000
G1 X0.978 Y-1.107 F420.000
G1 X0.978 Y-1.107 F420.000
G1 X1.020 Y-1.035 F420.000
G1 X1.032 Y-0.973 F420.000
G0 X1.035 Y-0.953
G0 X0.755 Y1.077
G1 X0.752 Y1.103 F420.000
G1 X0.725 Y1.225 F420.000
G1 X0.677 Y1.292 F420.000
G1 X0.630 Y1.333 F420.000
G1 X0.630 Y1.333 F420.000
G1 X0.560 Y1.367 F420.000
G1 X0.365 Y1.430 F420.000
G1 X0.205 Y1.465 F420.000
G1 X0.005 Y1.478 F420.000
G1 X-0.333 Y1.438 F420.000
G1 X-0.595 Y1.347 F420.000
G1 X-0.800 Y1.230 F420.000
G1 X-0.948 Y1.097 F420.000
G1 X-0.968 Y1.062 F420.000
G1 X-0.980 Y1.025 F420.000
G1 X-0.980 Y0.705 F420.000
G1 X-0.980 Y0.705 F420.000
G1 X-0.978 Y0.695 F420.000
G0 X-0.975 Y0.693
G0 X-0.935 Y0.932
G1 X-0.932 Y0.953 F420.000
G1 X-0.915 Y1.123 F420.000
G1 X-0.943 Y1.130 F420.000
G1 X-0.943 Y1.130 F420.000
G1 X-0.970 Y1.103 F420.000
G1 X-0.970 Y1.103 F420.000
G1 X-0.973 Y0.995 F420.000
G1 X-0.963 Y0.955 F420.000
G0 X-0.955 Y0.935
G0 X-0.757 Y0.603
G0 X-0.703 Y0.185
G0 X-0.738 Y-0.152
G0 X-0.860 Y-0.385
G1 X-0.870 Y-0.403 F420.000
G1 X-0.910 Y-0.475 F420.000
G1 X-0.963 Y-0.568 F420.000
G1 X-0.980 Y-0.652 F420.000
G1 X-0.980 Y-0.652 F420.000
G1 X-0.970 Y-0.877 F420.000
G1 X-0.940 Y-0.990 F420.000
G1 X-0.905 Y-1.062 F420.000
G1 X-0.815 Y-1.190 F420.000
G1 X-0.695 Y-1.295 F420.000
G1 X-0.550 Y-1.370 F420.000
G1 X-0.438 Y-1.410 F420.000
G1 X-0.117 Y-1.472 F420.000
G1 X-0.037 Y-1.475 F420.000
G1 X-0.037 Y-1.475 F420.000
G1 X0.040 Y-1.458 F420.000
G1 X0.072 Y-1.440 F420.000
G1 X0.083 Y-1.430 F420.000
G0 X0.085 Y-1.420
G0 X0.040 Y-1.375
G0 X-0.815 Y-0.835
G1 X-0.835 Y-0.823 F420.000
G1 X-0.895 Y-0.795 F420.000
G1 X-0.927 Y-0.802 F420.000
G1 X-0.963 Y-0.850 F420.000
G1 X-0.980 Y-0.932 F420.000
G1 X-0.980 Y-0.932 F420.000
G1 X-0.978 Y-1.083 F420.000
G1 X-0.960 Y-1.117 F420.000
G1 X-0.797 Y-1.240 F420.000
G1 X-0.797 Y-1.240 F420.000
G1 X-0.785 Y-1.238 F420.000
G1 X-0.777 Y-1.230 F420.000
G1 X-0.777 Y-1.200 F420.000
G1 X-0.792 Y-1.180 F420.000
G1 X-0.823 Y-1.183 F420.000
G1 X-0.845 Y-1.200 F420.000
G1 X-0.843 Y-1.235 F420.000
G1 X-0.843 Y-1.235 F420.000
G1 X-0.680 Y-1.330 F420.000
G1 X-0.505 Y-1.407 F420.000
G1 X-0.440 Y-1.430 F420.000
G1 X-0.220 Y-1.480 F420.000
G1 X-0.138 Y-1.492 F420.000
G1 X-0.005 Y-1.498 F420.000
G1 X0.170 Y-1.488 F420.000
G1 X0.335 Y-1.458 F420.000
G1 X0.500 Y-1.410 F420.000
G1 X0.600 Y-1.370 F420.000
G1 X0.757 Y-1.290 F420.000
G1 X0.963 Y-1.147 F420.000
G1 X1.167 Y-0.932 F420.000
G1 X1.235 Y-0.848 F420.000
G1 X1.288 Y-0.762 F420.000
G1 X1.363 Y-0.613 F420.000
G1 X1.415 Y-0.482 F420.000
G1 X1.455 Y-0.343 F420.000
G1 X1.480 Y-0.220 F420.000
G1 X1.498 Y0.013 F420.000
G1 X1.490 Y0.113 F420.000
G1 X1.445 Y0.372 F420.000
G1 X1.427 Y0.438 F420.000
G1 X1.365 Y0.603 F420.000
G1 X1.315 Y0.708 F420.000
G1 X1.188 Y0.912 F420.000
G1 X1.087 Y1.030 F420.000
G1 X0.953 Y1.155 F420.000
G1 X0.755 Y1.292 F420.000
G1 X0.608 Y1.367 F420.000
G1 X0.417 Y1.438 F420.000
G1 X0.235 Y1.480 F420.000
G1 X0.170 Y1.490 F420.000
G1 X-0.013 Y1.498 F420.000
G1 X-0.250 Y1.470 F420.000
G1 X-0.355 Y1.450 F420.000
G1 X-0.588 Y1.375 F420.000
G1 X-0.670 Y1.335 F420.000
G1 X-0.802 Y1.260 F420.000
G1 X-0.875 Y1.212 F420.000
G1 X-0.975 Y1.127 F420.000
G1 X-1.000 Y1.087 F420.000
G1 X-0.995 Y-1.100 F420.000
G1 X-0.950 Y-1.155 F420.000
G1 X-0.843 Y-1.235 F420.000
G1 X-0.843 Y-1.235 F420.000
G0 Z5.000
G0 Z5.000
(Finish operation: Adaptive)
(Block-name: Adaptive001)
(Block-expand: 0)
(Block-enable: 1)
(Begin operation: Adaptive001)
(Path: Adaptive001)
(Adaptive001)
(Helix to depth: -4.000000)
G0 Z5.000
G0 X0.413 Y5.847 Z5.000
G0 X0.413 Y5.847 Z3.000
G1 X0.413 Y5.847 Z0.000 F420.000
G1 X0.413 Y5.847 Z0.000 F420.000
G1 X0.384 Y5.989 Z-0.013 F420.000
G1 X0.328 Y6.123 Z-0.026 F420.000
G1 X0.247 Y6.243 Z-0.039 F420.000
G1 X0.143 Y6.345 Z-0.052 F420.000
G1 X0.022 Y6.425 Z-0.064 F420.000
G1 X-0.112 Y6.479 Z-0.077 F420.000
G1 X-0.255 Y6.507 Z-0.090 F420.000
G1 X-0.400 Y6.506 Z-0.103 F420.000
G1 X-0.542 Y6.477 Z-0.116 F420.000
G1 X-0.675 Y6.420 Z-0.129 F420.000
G1 X-0.796 Y6.339 Z-0.142 F420.000
G1 X-0.897 Y6.236 Z-0.155 F420.000
G1 X-0.977 Y6.115 Z-0.167 F420.000
G1 X-1.032 Y5.980 Z-0.180 F420.000
G1 X-1.059 Y5.838 Z-0.193 F420.000
G1 X-1.058 Y5.693 Z-0.206 F420.000
G1 X-1.029 Y5.551 Z-0.219 F420.000
G1 X-0.973 Y5.417 Z-0.232 F420.000
G1 X-0.892 Y5.297 Z-0.245 F420.000
G1 X-0.788 Y5.195 Z-0.258 F420.000
G1 X-0.667 Y5.115 Z-0.271 F420.000
G1 X-0.533 Y5.061 Z-0.283 F420.000
G1 X-0.390 Y5.033 Z-0.296 F420.000
G1 X-0.245 Y5.034 Z-0.309 F420.000
G1 X-0.103 Y5.063 Z-0.322 F420.000
G1 X0.030 Y5.120 Z-0.335 F420.000
G1 X0.151 Y5.201 Z-0.348 F420.000
G1 X0.252 Y5.304 Z-0.361 F420.000
G1 X0.332 Y5.425 Z-0.374 F420.000
G1 X0.387 Y5.560 Z-0.387 F420.000
G1 X0.414 Y5.702 Z-0.399 F420.000
G1 X0.413 Y5.847 Z-0.412 F420.000
G1 X0.384 Y5.989 Z-0.425 F420.000
G1 X0.328 Y6.123 Z-0.438 F420.000
G1 X0.247 Y6.243 Z-0.451 F420.000
G1 X0.143 Y6.345 Z-0.464 F420.000
G1 X0.022 Y6.425 Z-0.477 F420.000
G1 X-0.112 Y6.479 Z-0.490 F420.000
G1 X-0.255 Y6.507 Z-0.502 F420.000
G1 X-0.400 Y6.506 Z-0.515 F420.000
G1 X-0.542 Y6.477 Z-0.528 F420.000
G1 X-0.675 Y6.420 Z-0.541 F420.000
G1 X-0.796 Y6.339 Z-0.554 F420.000
G1 X-0.897 Y6.236 Z-0.567 F420.000
G1 X-0.977 Y6.115 Z-0.580 F420.000
G1 X-1.032 Y5.980 Z-0.593 F420.000
G1 X-1.059 Y5.838 Z-0.606 F420.000
G1 X-1.058 Y5.693 Z-0.618 F420.000
G1 X-1.029 Y5.551 Z-0.631 F420.000
G1 X-0.973 Y5.417 Z-0.644 F420.000
G1 X-0.892 Y5.297 Z-0.657 F420.000
G1 X-0.788 Y5.195 Z-0.670 F420.000
G1 X-0.667 Y5.115 Z-0.683 F420.000
G1 X-0.533 Y5.061 Z-0.696 F420.000
G1 X-0.390 Y5.033 Z-0.709 F420.000
G1 X-0.245 Y5.034 Z-0.721 F420.000
G1 X-0.103 Y5.063 Z-0.734 F420.000
G1 X0.030 Y5.120 Z-0.747 F420.000
G1 X0.151 Y5.201 Z-0.760 F420.000
G1 X0.252 Y5.304 Z-0.773 F420.000
G1 X0.332 Y5.425 Z-0.786 F420.000
G1 X0.387 Y5.560 Z-0.799 F420.000
G1 X0.414 Y5.702 Z-0.812 F420.000
G1 X0.413 Y5.847 Z-0.825 F420.000
G1 X0.384 Y5.989 Z-0.837 F420.000
G1 X0.328 Y6.123 Z-0.850 F420.000
G1 X0.247 Y6.243 Z-0.863 F420.000
G1 X0.143 Y6.345 Z-0.876 F420.000
G1 X0.022 Y6.425 Z-0.889 F420.000
G1 X-0.112 Y6.479 Z-0.902 F420.000
G1 X-0.255 Y6.507 Z-0.915 F420.000
G1 X-0.400 Y6.506 Z-0.928 F420.000
G1 X-0.542 Y6.477 Z-0.941 F420.000
G1 X-0.675 Y6.420 Z-0.953 F420.000
G1 X-0.796 Y6.339 Z-0.966 F420.000
G1 X-0.897 Y6.236 Z-0.979 F420.000
G1 X-0.977 Y6.115 Z-0.992 F420.000
G1 X-1.032 Y5.980 Z-1.005 F420.000
G1 X-1.059 Y5.838 Z-1.018 F420.000
G1 X-1.058 Y5.693 Z-1.031 F420.000
G1 X-1.029 Y5.551 Z-1.044 F420.000
G1 X-0.973 Y5.417 Z-1.056 F420.000
G1 X-0.892 Y5.297 Z-1.069 F420.000
G1 X-0.788 Y5.195 Z-1.082 F420.000
G1 X-0.667 Y5.115 Z-1.095 F420.000
G1 X-0.533 Y5.061 Z-1.108 F420.000
G1 X-0.390 Y5.033 Z-1.121 F420.000
G1 X-0.245 Y5.034 Z-1.134 F420.000
G1 X-0.103 Y5.063 Z-1.147 F420.000
G1 X0.030 Y5.120 Z-1.160 F420.000
G1 X0.151 Y5.201 Z-1.172 F420.000
G1 X0.252 Y5.304 Z-1.185 F420.000
G1 X0.332 Y5.425 Z-1.198 F420.000
G1 X0.387 Y5.560 Z-1.211 F420.000
G1 X0.414 Y5.702 Z-1.224 F420.000
G1 X0.413 Y5.847 Z-1.237 F420.000
G1 X0.384 Y5.989 Z-1.250 F420.000
G1 X0.328 Y6.123 Z-1.263 F420.000
G1 X0.247 Y6.243 Z-1.275 F420.000
G1 X0.143 Y6.345 Z-1.288 F420.000
G1 X0.022 Y6.425 Z-1.301 F420.000
G1 X-0.112 Y6.479 Z-1.314 F420.000
G1 X-0.255 Y6.507 Z-1.327 F420.000
G1 X-0.400 Y6.506 Z-1.340 F420.000
G1 X-0.542 Y6.477 Z-1.353 F420.000
G1 X-0.675 Y6.420 Z-1.366 F420.000
G1 X-0.796 Y6.339 Z-1.379 F420.000
G1 X-0.897 Y6.236 Z-1.391 F420.000
G1 X-0.977 Y6.115 Z-1.404 F420.000
G1 X-1.032 Y5.980 Z-1.417 F420.000
G1 X-1.059 Y5.838 Z-1.430 F420.000
G1 X-1.058 Y5.693 Z-1.443 F420.000
G1 X-1.029 Y5.551 Z-1.456 F420.000
G1 X-0.973 Y5.417 Z-1.469 F420.000
G1 X-0.892 Y5.297 Z-1.482 F420.000
G1 X-0.788 Y5.195 Z-1.495 F420.000
G1 X-0.667 Y5.115 Z-1.507 F420.000
G1 X-0.533 Y5.061 Z-1.520 F420.000
G1 X-0.390 Y5.033 Z-1.533 F420.000
G1 X-0.245 Y5.034 Z-1.546 F420.000
G1 X-0.103 Y5.063 Z-1.559 F420.000
G1 X0.030 Y5.120 Z-1.572 F420.000
G1 X0.151 Y5.201 Z-1.585 F420.000
G1 X0.252 Y5.304 Z-1.598 F420.000
G1 X0.332 Y5.425 Z-1.610 F420.000
G1 X0.387 Y5.560 Z-1.623 F420.000
G1 X0.414 Y5.702 Z-1.636 F420.000
G1 X0.413 Y5.847 Z-1.649 F420.000
G1 X0.384 Y5.989 Z-1.662 F420.000
G1 X0.328 Y6.123 Z-1.675 F420.000
G1 X0.247 Y6.243 Z-1.688 F420.000
G1 X0.143 Y6.345 Z-1.701 F420.000
G1 X0.022 Y6.425 Z-1.714 F420.000
G1 X-0.112 Y6.479 Z-1.726 F420.000
G1 X-0.255 Y6.507 Z-1.739 F420.000
G1 X-0.400 Y6.506 Z-1.752 F420.000
G1 X-0.542 Y6.477 Z-1.765 F420.000
G1 X-0.675 Y6.420 Z-1.778 F420.000
G1 X-0.796 Y6.339 Z-1.791 F420.000
G1 X-0.897 Y6.236 Z-1.804 F420.000
G1 X-0.977 Y6.115 Z-1.817 F420.000
G1 X-1.032 Y5.980 Z-1.829 F420.000
G1 X-1.059 Y5.838 Z-1.842 F420.000
G1 X-1.058 Y5.693 Z-1.855 F420.000
G1 X-1.029 Y5.551 Z-1.868 F420.000
G1 X-0.973 Y5.417 Z-1.881 F420.000
G1 X-0.892 Y5.297 Z-1.894 F420.000
G1 X-0.788 Y5.195 Z-1.907 F420.000
G1 X-0.667 Y5.115 Z-1.920 F420.000
G1 X-0.533 Y5.061 Z-1.933 F420.000
G1 X-0.390 Y5.033 Z-1.945 F420.000
G1 X-0.245 Y5.034 Z-1.958 F420.000
G1 X-0.103 Y5.063 Z-1.971 F420.000
G1 X0.030 Y5.120 Z-1.984 F420.000
G1 X0.151 Y5.201 Z-1.997 F420.000
G1 X0.252 Y5.304 Z-2.010 F420.000
G1 X0.332 Y5.425 Z-2.023 F420.000
G1 X0.387 Y5.560 Z-2.036 F420.000
G1 X0.414 Y5.702 Z-2.049 F420.000
G1 X0.413 Y5.847 Z-2.061 F420.000
G1 X0.384 Y5.989 Z-2.074 F420.000
G1 X0.328 Y6.123 Z-2.087 F420.000
G1 X0.247 Y6.243 Z-2.100 F420.000
G1 X0.143 Y6.345 Z-2.113 F420.000
G1 X0.022 Y6.425 Z-2.126 F420.000
G1 X-0.112 Y6.479 Z-2.139 F420.000
G1 X-0.255 Y6.507 Z-2.152 F420.000
G1 X-0.400 Y6.506 Z-2.164 F420.000
G1 X-0.542 Y6.477 Z-2.177 F420.000
G1 X-0.675 Y6.420 Z-2.190 F420.000
G1 X-0.796 Y6.339 Z-2.203 F420.000
G1 X-0.897 Y6.236 Z-2.216 F420.000
G1 X-0.977 Y6.115 Z-2.229 F420.000
G1 X-1.032 Y5.980 Z-2.242 F420.000
G1 X-1.059 Y5.838 Z-2.255 F420.000
G1 X-1.058 Y5.693 Z-2.268 F420.000
G1 X-1.029 Y5.551 Z-2.280 F420.000
G1 X-0.973 Y5.417 Z-2.293 F420.000
G1 X-0.892 Y5.297 Z-2.306 F420.000
G1 X-0.788 Y5.195 Z-2.319 F420.000
G1 X-0.667 Y5.115 Z-2.332 F420.000
G1 X-0.533 Y5.061 Z-2.345 F420.000
G1 X-0.390 Y5.033 Z-2.358 F420.000
G1 X-0.245 Y5.034 Z-2.371 F420.000
G1 X-0.103 Y5.063 Z-2.383 F420.000
G1 X0.030 Y5.120 Z-2.396 F420.000
G1 X0.151 Y5.201 Z-2.409 F420.000
G1 X0.252 Y5.304 Z-2.422 F420.000
G1 X0.332 Y5.425 Z-2.435 F420.000
G1 X0.387 Y5.560 Z-2.448 F420.000
G1 X0.414 Y5.702 Z-2.461 F420.000
G1 X0.413 Y5.847 Z-2.474 F420.000
G1 X0.384 Y5.989 Z-2.487 F420.000
G1 X0.328 Y6.123 Z-2.499 F420.000
G1 X0.247 Y6.243 Z-2.512 F420.000
G1 X0.143 Y6.345 Z-2.525 F420.000
G1 X0.022 Y6.425 Z-2.538 F420.000
G1 X-0.112 Y6.479 Z-2.551 F420.000
G1 X-0.255 Y6.507 Z-2.564 F420.000
G1 X-0.400 Y6.506 Z-2.577 F420.000
G1 X-0.542 Y6.477 Z-2.590 F420.000
G1 X-0.675 Y6.420 Z-2.603 F420.000
G1 X-0.796 Y6.339 Z-2.615 F420.000
G1 X-0.897 Y6.236 Z-2.628 F420.000
G1 X-0.977 Y6.115 Z-2.641 F420.000
G1 X-1.032 Y5.980 Z-2.654 F420.000
G1 X-1.059 Y5.838 Z-2.667 F420.000
G1 X-1.058 Y5.693 Z-2.680 F420.000
G1 X-1.029 Y5.551 Z-2.693 F420.000
G1 X-0.973 Y5.417 Z-2.706 F420.000
G1 X-0.892 Y5.297 Z-2.718 F420.000
G1 X-0.788 Y5.195 Z-2.731 F420.000
G1 X-0.667 Y5.115 Z-2.744 F420.000
G1 X-0.533 Y5.061 Z-2.757 F420.000
G1 X-0.390 Y5.033 Z-2.770 F420.000
G1 X-0.245 Y5.034 Z-2.783 F420.000
G1 X-0.103 Y5.063 Z-2.796 F420.000
G1 X0.030 Y5.120 Z-2.809 F420.000
G1 X0.151 Y5.201 Z-2.822 F420.000
G1 X0.252 Y5.304 Z-2.834 F420.000
G1 X0.332 Y5.425 Z-2.847 F420.000
G1 X0.387 Y5.560 Z-2.860 F420.000
G1 X0.414 Y5.702 Z-2.873 F420.000
G1 X0.413 Y5.847 Z-2.886 F420.000
G1 X0.384 Y5.989 Z-2.899 F420.000
G1 X0.328 Y6.123 Z-2.912 F420.000
G1 X0.247 Y6.243 Z-2.925 F420.000
G1 X0.143 Y6.345 Z-2.937 F420.000
G1 X0.022 Y6.425 Z-2.950 F420.000
G1 X-0.112 Y6.479 Z-2.963 F420.000
G1 X-0.255 Y6.507 Z-2.976 F420.000
G1 X-0.400 Y6.506 Z-2.989 F420.000
G1 X-0.542 Y6.477 Z-3.002 F420.000
G1 X-0.675 Y6.420 Z-3.015 F420.000
G1 X-0.796 Y6.339 Z-3.028 F420.000
G1 X-0.897 Y6.236 Z-3.041 F420.000
G1 X-0.977 Y6.115 Z-3.053 F420.000
G1 X-1.032 Y5.980 Z-3.066 F420.000
G1 X-1.059 Y5.838 Z-3.079 F420.000
G1 X-1.058 Y5.693 Z-3.092 F420.000
G1 X-1.029 Y5.551 Z-3.105 F420.000
G1 X-0.973 Y5.417 Z-3.118 F420.000
G1 X-0.892 Y5.297 Z-3.131 F420.000
G1 X-0.788 Y5.195 Z-3.144 F420.000
G1 X-0.667 Y5.115 Z-3.157 F420.000
G1 X-0.533 Y5.061 Z-3.169 F420.000
G1 X-0.390 Y5.033 Z-3.182 F420.000
G1 X-0.245 Y5.034 Z-3.195 F420.000
G1 X-0.103 Y5.063 Z-3.208 F420.000
G1 X0.030 Y5.120 Z-3.221 F420.000
G1 X0.151 Y5.201 Z-3.234 F420.000
G1 X0.252 Y5.304 Z-3.247 F420.000
G1 X0.332 Y5.425 Z-3.260 F420.000
G1 X0.387 Y5.560 Z-3.272 F420.000
G1 X0.414 Y5.702 Z-3.285 F420.000
G1 X0.413 Y5.847 Z-3.298 F420.000
G1 X0.384 Y5.989 Z-3.311 F420.000
G1 X0.328 Y6.123 Z-3.324 F420.000
G1 X0.247 Y6.243 Z-3.337 F420.000
G1 X0.143 Y6.345 Z-3.350 F420.000
G1 X0.022 Y6.425 Z-3.363 F420.000
G1 X-0.112 Y6.479 Z-3.376 F420.000
G1 X-0.255 Y6.507 Z-3.388 F420.000
G1 X-0.400 Y6.506 Z-3.401 F420.000
G1 X-0.542 Y6.477 Z-3.414 F420.000
G1 X-0.675 Y6.420 Z-3.427 F420.000
G1 X-0.796 Y6.339 Z-3.440 F420.000
G1 X-0.897 Y6.236 Z-3.453 F420.000
G1 X-0.977 Y6.115 Z-3.466 F420.000
G1 X-1.032 Y5.980 Z-3.479 F420.000
G1 X-1.059 Y5.838 Z-3.492 F420.000
G1 X-1.058 Y5.693 Z-3.504 F420.000
G1 X-1.029 Y5.551 Z-3.517 F420.000
G1 X-0.973 Y5.417 Z-3.530 F420.000
G1 X-0.892 Y5.297 Z-3.543 F420.000
G1 X-0.788 Y5.195 Z-3.556 F420.000
G1 X-0.667 Y5.115 Z-3.569 F420.000
G1 X-0.533 Y5.061 Z-3.582 F420.000
G1 X-0.390 Y5.033 Z-3.595 F420.000
G1 X-0.245 Y5.034 Z-3.607 F420.000
G1 X-0.103 Y5.063 Z-3.620 F420.000
G1 X0.030 Y5.120 Z-3.633 F420.000
G1 X0.151 Y5.201 Z-3.646 F420.000
G1 X0.252 Y5.304 Z-3.659 F420.000
G1 X0.332 Y5.425 Z-3.672 F420.000
G1 X0.387 Y5.560 Z-3.685 F420.000
G1 X0.414 Y5.702 Z-3.698 F420.000
G1 X0.413 Y5.847 Z-3.711 F420.000
G1 X0.384 Y5.989 Z-3.723 F420.000
G1 X0.328 Y6.123 Z-3.736 F420.000
G1 X0.247 Y6.243 Z-3.749 F420.000
G1 X0.143 Y6.345 Z-3.762 F420.000
G1 X0.022 Y6.425 Z-3.775 F420.000
G1 X-0.112 Y6.479 Z-3.788 F420.000
G1 X-0.255 Y6.507 Z-3.801 F420.000
G1 X-0.400 Y6.506 Z-3.814 F420.000
G1 X-0.542 Y6.477 Z-3.826 F420.000
G1 X-0.675 Y6.420 Z-3.839 F420.000
G1 X-0.796 Y6.339 Z-3.852 F420.000
G1 X-0.897 Y6.236 Z-3.865 F420.000
G1 X-0.977 Y6.115 Z-3.878 F420.000
G1 X-1.032 Y5.980 Z-3.891 F420.000
G1 X-1.059 Y5.838 Z-3.904 F420.000
G1 X-1.058 Y5.693 Z-3.917 F420.000
G1 X-1.029 Y5.551 Z-3.930 F420.000
G1 X-0.973 Y5.417 Z-3.942 F420.000
G1 X-0.892 Y5.297 Z-3.955 F420.000
G1 X-0.788 Y5.195 Z-3.968 F420.000
G1 X-0.667 Y5.115 Z-3.981 F420.000
G1 X-0.533 Y5.061 Z-3.994 F420.000
G1 X-0.390 Y5.033 Z-4.000 F420.000
G1 X-0.245 Y5.034 Z-4.000 F420.000
G1 X-0.103 Y5.063 Z-4.000 F420.000
G1 X0.030 Y5.120 Z-4.000 F420.000
G1 X0.151 Y5.201 Z-4.000 F420.000
G1 X0.252 Y5.304 Z-4.000 F420.000
G1 X0.332 Y5.425 Z-4.000 F420.000
G1 X0.387 Y5.560 Z-4.000 F420.000
G1 X0.414 Y5.702 Z-4.000 F420.000
G1 X0.413 Y5.847 Z-4.000 F420.000
G1 X0.384 Y5.989 Z-4.000 F420.000
G1 X0.328 Y6.123 Z-4.000 F420.000
G1 X0.247 Y6.243 Z-4.000 F420.000
G1 X0.143 Y6.345 Z-4.000 F420.000
G1 X0.022 Y6.425 Z-4.000 F420.000
G1 X-0.112 Y6.479 Z-4.000 F420.000
G1 X-0.255 Y6.507 Z-4.000 F420.000
G1 X-0.400 Y6.506 Z-4.000 F420.000
G1 X-0.542 Y6.477 Z-4.000 F420.000
G1 X-0.675 Y6.420 Z-4.000 F420.000
G1 X-0.796 Y6.339 Z-4.000 F420.000
G1 X-0.897 Y6.236 Z-4.000 F420.000
G1 X-0.977 Y6.115 Z-4.000 F420.000
G1 X-1.032 Y5.980 Z-4.000 F420.000
G1 X-1.059 Y5.838 Z-4.000 F420.000
G1 X-1.058 Y5.693 Z-4.000 F420.000
G1 X-1.029 Y5.551 Z-4.000 F420.000
G1 X-0.973 Y5.417 Z-4.000 F420.000
G1 X-0.892 Y5.297 Z-4.000 F420.000
G1 X-0.788 Y5.195 Z-4.000 F420.000
G1 X-0.667 Y5.115 Z-4.000 F420.000
G1 X-0.533 Y5.061 Z-4.000 F420.000
(Adaptive - depth: -4.000000)
G1 X-0.323 Y5.020 F420.000
G1 X-0.282 Y5.010 F420.000
G1 X0.072 Y5.027 F420.000
G1 X0.220 Y5.065 F420.000
G1 X0.345 Y5.152 F420.000
G1 X0.425 Y5.235 F420.000
G1 X0.490 Y5.330 F420.000
G1 X0.590 Y5.558 F420.000
G1 X0.618 Y5.758 F420.000
G1 X0.613 Y5.857 F420.000
G1 X0.598 Y5.952 F420.000
G1 X0.565 Y6.067 F420.000
G1 X0.500 Y6.215 F420.000
G1 X0.407 Y6.343 F420.000
G1 X0.292 Y6.455 F420.000
G1 X0.225 Y6.500 F420.000
G1 X0.188 Y6.515 F420.000
G1 X-0.385 Y6.537 F420.000
G1 X-0.835 Y6.445 F420.000
G1 X-0.907 Y6.415 F420.000
G1 X-1.028 Y6.315 F420.000
G1 X-1.103 Y6.218 F420.000
G1 X-1.175 Y6.072 F420.000
G1 X-1.245 Y5.832 F420.000
G1 X-1.242 Y5.615 F420.000
G1 X-1.222 Y5.515 F420.000
G1 X-1.192 Y5.425 F420.000
G1 X-1.143 Y5.317 F420.000
G1 X-1.055 Y5.185 F420.000
G1 X-0.940 Y5.065 F420.000
G1 X-0.840 Y4.987 F420.000
G1 X-0.805 Y4.968 F420.000
G1 X-0.765 Y4.955 F420.000
G1 X-0.765 Y4.955 F420.000
G1 X-0.630 Y5.015 F420.000
G0 X-0.613 Y5.025
G0 X-0.125 Y5.067
G1 X-0.100 Y5.070 F420.000
G1 X-0.033 Y5.070 F420.000
G1 X0.145 Y5.015 F420.000
G1 X0.145 Y5.015 F420.000
G1 X0.295 Y5.013 F420.000
G1 X0.407 Y5.035 F420.000
G1 X0.443 Y5.050 F420.000
G1 X0.562 Y5.147 F420.000
G1 X0.657 Y5.265 F420.000
G1 X0.677 Y5.298 F420.000
G1 X0.780 Y5.525 F420.000
G1 X0.818 Y5.745 F420.000
G1 X0.815 Y5.853 F420.000
G1 X0.805 Y5.950 F420.000
G1 X0.775 Y6.082 F420.000
G1 X0.715 Y6.242 F420.000
G1 X0.630 Y6.375 F420.000
G1 X0.550 Y6.463 F420.000
G1 X0.477 Y6.503 F420.000
G1 X0.357 Y6.510 F420.000
G1 X0.357 Y6.510 F420.000
G1 X0.273 Y6.495 F420.000
G1 X0.220 Y6.465 F420.000
G0 X0.210 Y6.450
G0 X0.200 Y6.375
G0 X0.225 Y5.192
G1 X0.228 Y5.168 F420.000
G1 X0.235 Y5.100 F420.000
G1 X0.255 Y5.062 F420.000
G1 X0.302 Y5.025 F420.000
G1 X0.385 Y5.003 F420.000
G1 X0.385 Y5.003 F420.000
G1 X0.535 Y5.000 F420.000
G1 X0.610 Y5.018 F420.000
G1 X0.675 Y5.058 F420.000
G1 X0.790 Y5.162 F420.000
G1 X0.877 Y5.290 F420.000
G1 X0.983 Y5.515 F420.000
G1 X1.028 Y5.760 F420.000
G1 X1.028 Y5.870 F420.000
G1 X1.018 Y5.968 F420.000
G1 X0.995 Y6.098 F420.000
G1 X0.930 Y6.277 F420.000
G1 X0.815 Y6.440 F420.000
G1 X0.780 Y6.463 F420.000
G1 X0.743 Y6.478 F420.000
G1 X0.743 Y6.478 F420.000
G1 X0.657 Y6.465 F420.000
G1 X0.603 Y6.438 F420.000
G0 X0.593 Y6.423
G0 X0.568 Y6.317
G0 X0.443 Y5.173
G1 X0.440 Y5.147 F420.000
G1 X0.438 Y5.080 F420.000
G1 X0.453 Y5.043 F420.000
G1 X0.500 Y5.005 F420.000
G1 X0.583 Y4.982 F420.000
G1 X0.583 Y4.982 F420.000
G1 X0.733 Y4.980 F420.000
G1 X0.807 Y5.000 F420.000
G1 X0.930 Y5.090 F420.000
G1 X1.030 Y5.202 F420.000
G1 X1.173 Y5.452 F420.000
G1 X1.232 Y5.680 F420.000
G1 X1.245 Y5.798 F420.000
G1 X1.245 Y5.905 F420.000
G1 X1.232 Y6.040 F420.000
G1 X1.185 Y6.220 F420.000
G1 X1.113 Y6.357 F420.000
G1 X1.090 Y6.390 F420.000
G1 X1.025 Y6.435 F420.000
G1 X0.945 Y6.447 F420.000
G1 X0.945 Y6.447 F420.000
G1 X0.860 Y6.440 F420.000
G1 X0.802 Y6.415 F420.000
G0 X0.792 Y6.400
G0 X0.765 Y6.298
G0 X0.610 Y5.162
G1 X0.605 Y5.138 F420.000
G1 X0.603 Y5.067 F420.000
G1 X0.618 Y5.030 F420.000
G1 X0.662 Y4.990 F420.000
G1 X0.743 Y4.960 F420.000
G1 X0.743 Y4.960 F420.000
G1 X0.855 Y4.950 F420.000
G1 X0.968 Y4.965 F420.000
G1 X1.097 Y5.045 F420.000
G1 X1.232 Y5.183 F420.000
G1 X1.255 Y5.213 F420.000
G1 X1.377 Y5.428 F420.000
G1 X1.445 Y5.645 F420.000
G1 X1.462 Y5.768 F420.000
G1 X1.468 Y5.880 F420.000
G1 X1.455 Y6.020 F420.000
G1 X1.420 Y6.183 F420.000
G1 X1.350 Y6.320 F420.000
G1 X1.327 Y6.353 F420.000
G1 X1.295 Y6.378 F420.000
G1 X1.258 Y6.395 F420.000
G1 X1.258 Y6.395 F420.000
G1 X1.173 Y6.393 F420.000
G1 X1.115 Y6.370 F420.000
G0 X1.100 Y6.357
G0 X1.062 Y6.258
G0 X0.780 Y5.135
G1 X0.775 Y5.110 F420.000
G1 X0.762 Y5.043 F420.000
G1 X0.775 Y5.005 F420.000
G1 X0.820 Y4.965 F420.000
G1 X0.900 Y4.935 F420.000
G1 X0.900 Y4.935 F420.000
G1 X1.087 Y4.918 F420.000
G1 X1.125 Y4.920 F420.000
G1 X1.163 Y4.930 F420.000
G1 X1.323 Y5.035 F420.000
G1 X1.427 Y5.147 F420.000
G1 X1.567 Y5.353 F420.000
G1 X1.655 Y5.585 F420.000
G1 X1.677 Y5.707 F420.000
G1 X1.688 Y5.815 F420.000
G1 X1.688 Y5.957 F420.000
G1 X1.653 Y6.138 F420.000
G1 X1.580 Y6.280 F420.000
G1 X1.552 Y6.310 F420.000
G1 X1.520 Y6.332 F420.000
G1 X1.482 Y6.345 F420.000
G1 X1.482 Y6.345 F420.000
G1 X1.397 Y6.343 F420.000
G1 X1.340 Y6.320 F420.000
G0 X1.325 Y6.308
G0 X1.285 Y6.207
G0 X0.985 Y5.105
G1 X0.978 Y5.080 F420.000
G1 X0.968 Y5.013 F420.000
G1 X0.978 Y4.975 F420.000
G1 X1.018 Y4.930 F420.000
G1 X1.095 Y4.895 F420.000
G1 X1.095 Y4.895 F420.000
G1 X1.245 Y4.872 F420.000
G1 X1.320 Y4.880 F420.000
G1 X1.357 Y4.890 F420.000
G1 X1.518 Y4.992 F420.000
G1 X1.627 Y5.100 F420.000
G1 X1.772 Y5.303 F420.000
G1 X1.867 Y5.532 F420.000
G1 X1.895 Y5.655 F420.000
G1 X1.910 Y5.763 F420.000
G1 X1.910 Y5.905 F420.000
G1 X1.880 Y6.055 F420.000
G1 X1.823 Y6.200 F420.000
G1 X1.802 Y6.235 F420.000
G1 X1.772 Y6.263 F420.000
G1 X1.738 Y6.280 F420.000
G1 X1.657 Y6.303 F420.000
G1 X1.657 Y6.303 F420.000
G1 X1.573 Y6.305 F420.000
G1 X1.515 Y6.287 F420.000
G0 X1.500 Y6.275
G0 X1.462 Y6.173
G0 X1.188 Y5.065
G1 X1.180 Y5.040 F420.000
G1 X1.170 Y4.973 F420.000
G1 X1.180 Y4.933 F420.000
G1 X1.218 Y4.888 F420.000
G1 X1.290 Y4.848 F420.000
G1 X1.290 Y4.848 F420.000
G1 X1.440 Y4.825 F420.000
G1 X1.515 Y4.830 F420.000
G1 X1.620 Y4.878 F420.000
G1 X1.772 Y4.992 F420.000
G1 X1.827 Y5.048 F420.000
G1 X1.978 Y5.245 F420.000
G1 X2.080 Y5.473 F420.000
G1 X2.110 Y5.595 F420.000
G1 X2.125 Y5.700 F420.000
G1 X2.125 Y5.878 F420.000
G1 X2.080 Y6.065 F420.000
G1 X2.050 Y6.138 F420.000
G1 X2.000 Y6.197 F420.000
G1 X1.927 Y6.228 F420.000
G1 X1.927 Y6.228 F420.000
G1 X1.843 Y6.230 F420.000
G1 X1.782 Y6.213 F420.000
G0 X1.770 Y6.200
G0 X1.722 Y6.103
G0 X1.353 Y5.018
G1 X1.343 Y4.992 F420.000
G1 X1.327 Y4.928 F420.000
G1 X1.335 Y4.888 F420.000
G1 X1.373 Y4.843 F420.000
G1 X1.445 Y4.803 F420.000
G1 X1.445 Y4.803 F420.000
G1 X1.633 Y4.765 F420.000
G1 X1.708 Y4.770 F420.000
G1 X1.845 Y4.832 F420.000
G1 X1.998 Y4.947 F420.000
G1 X2.025 Y4.975 F420.000
G1 X2.178 Y5.170 F420.000
G1 X2.285 Y5.393 F420.000
G1 X2.320 Y5.515 F420.000
G1 X2.340 Y5.625 F420.000
G1 X2.348 Y5.768 F420.000
G1 X2.328 Y5.918 F420.000
G1 X2.275 Y6.065 F420.000
G1 X2.252 Y6.098 F420.000
G1 X2.223 Y6.125 F420.000
G1 X2.035 Y6.192 F420.000
G1 X2.035 Y6.192 F420.000
G1 X1.930 Y6.200 F420.000
G1 X1.893 Y6.188 F420.000
G0 X1.877 Y6.178
G0 X1.845 Y6.110
G0 X1.540 Y4.970
G1 X1.532 Y4.945 F420.000
G1 X1.520 Y4.878 F420.000
G1 X1.528 Y4.838 F420.000
G1 X1.562 Y4.787 F420.000
G1 X1.635 Y4.742 F420.000
G1 X1.635 Y4.742 F420.000
G1 X1.785 Y4.700 F420.000
G1 X1.860 Y4.692 F420.000
G1 X1.897 Y4.697 F420.000
G1 X2.038 Y4.760 F420.000
G1 X2.190 Y4.875 F420.000
G1 X2.357 Y5.060 F420.000
G1 X2.480 Y5.275 F420.000
G1 X2.522 Y5.402 F420.000
G1 X2.545 Y5.505 F420.000
G1 X2.560 Y5.630 F420.000
G1 X2.558 Y5.800 F420.000
G1 X2.518 Y5.950 F420.000
G1 X2.502 Y5.987 F420.000
G1 X2.478 Y6.018 F420.000
G1 X2.442 Y6.040 F420.000
G1 X2.368 Y6.072 F420.000
G1 X2.368 Y6.072 F420.000
G1 X2.283 Y6.085 F420.000
G1 X2.225 Y6.072 F420.000
G0 X2.210 Y6.060
G0 X2.170 Y5.995
G0 X1.740 Y4.895
G1 X1.730 Y4.872 F420.000
G1 X1.712 Y4.805 F420.000
G1 X1.718 Y4.768 F420.000
G1 X1.750 Y4.718 F420.000
G1 X1.823 Y4.673 F420.000
G1 X1.823 Y4.673 F420.000
G1 X1.972 Y4.630 F420.000
G1 X2.047 Y4.625 F420.000
G1 X2.192 Y4.673 F420.000
G1 X2.355 Y4.772 F420.000
G1 X2.385 Y4.798 F420.000
G1 X2.558 Y4.978 F420.000
G1 X2.683 Y5.192 F420.000
G1 X2.728 Y5.308 F420.000
G1 X2.757 Y5.418 F420.000
G1 X2.780 Y5.598 F420.000
G1 X2.770 Y5.747 F420.000
G1 X2.740 Y5.860 F420.000
G1 X2.725 Y5.895 F420.000
G1 X2.700 Y5.925 F420.000
G1 X2.553 Y5.992 F420.000
G1 X2.553 Y5.992 F420.000
G1 X2.467 Y6.008 F420.000
G1 X2.410 Y5.995 F420.000
G0 X2.395 Y5.985
G0 X2.340 Y5.893
G0 X1.897 Y4.838
G1 X1.887 Y4.815 F420.000
G1 X1.867 Y4.750 F420.000
G1 X1.870 Y4.710 F420.000
G1 X1.903 Y4.660 F420.000
G1 X1.970 Y4.610 F420.000
G1 X1.970 Y4.610 F420.000
G1 X2.155 Y4.548 F420.000
G1 X2.230 Y4.540 F420.000
G1 X2.342 Y4.572 F420.000
G1 X2.513 Y4.662 F420.000
G1 X2.575 Y4.707 F420.000
G1 X2.750 Y4.883 F420.000
G1 X2.880 Y5.090 F420.000
G1 X2.930 Y5.202 F420.000
G1 X2.965 Y5.312 F420.000
G1 X2.995 Y5.530 F420.000
G1 X2.975 Y5.718 F420.000
G1 X2.965 Y5.755 F420.000
G1 X2.947 Y5.790 F420.000
G1 X2.922 Y5.820 F420.000
G1 X2.743 Y5.912 F420.000
G1 X2.743 Y5.912 F420.000
G1 X2.658 Y5.928 F420.000
G1 X2.600 Y5.915 F420.000
G0 X2.585 Y5.905
G0 X2.530 Y5.812
G0 X2.083 Y4.758
G1 X2.072 Y4.735 F420.000
G1 X2.053 Y4.670 F420.000
G1 X2.055 Y4.630 F420.000
G1 X2.085 Y4.580 F420.000
G1 X2.152 Y4.530 F420.000
G1 X2.152 Y4.530 F420.000
G1 X2.300 Y4.470 F420.000
G1 X2.375 Y4.452 F420.000
G1 X2.413 Y4.450 F420.000
G1 X2.560 Y4.490 F420.000
G1 X2.695 Y4.560 F420.000
G1 X2.757 Y4.605 F420.000
G1 X2.938 Y4.775 F420.000
G1 X3.078 Y4.980 F420.000
G1 X3.135 Y5.103 F420.000
G1 X3.170 Y5.213 F420.000
G1 X3.200 Y5.372 F420.000
G1 X3.203 Y5.522 F420.000
G1 X3.183 Y5.635 F420.000
G1 X3.167 Y5.673 F420.000
G1 X3.143 Y5.705 F420.000
G1 X3.002 Y5.780 F420.000
G1 X3.002 Y5.780 F420.000
G1 X2.917 Y5.800 F420.000
G1 X2.860 Y5.793 F420.000
G0 X2.842 Y5.782
G0 X2.783 Y5.692
G0 X2.275 Y4.673
G1 X2.263 Y4.650 F420.000
G1 X2.237 Y4.588 F420.000
G1 X2.240 Y4.548 F420.000
G1 X2.268 Y4.495 F420.000
G1 X2.330 Y4.440 F420.000
G1 X2.330 Y4.440 F420.000
G1 X2.513 Y4.367 F420.000
G1 X2.587 Y4.357 F420.000
G1 X2.772 Y4.412 F420.000
G1 X2.908 Y4.485 F420.000
G1 X3.100 Y4.643 F420.000
G1 X3.243 Y4.827 F420.000
G1 X3.305 Y4.938 F420.000
G1 X3.350 Y5.043 F420.000
G1 X3.390 Y5.180 F420.000
G1 X3.415 Y5.345 F420.000
G1 X3.408 Y5.457 F420.000
G1 X3.393 Y5.532 F420.000
G1 X3.373 Y5.567 F420.000
G1 X3.200 Y5.673 F420.000
G1 X3.200 Y5.673 F420.000
G1 X3.118 Y5.697 F420.000
G1 X3.078 Y5.697 F420.000
G1 X3.060 Y5.692 F420.000
G0 X3.042 Y5.685
G0 X2.982 Y5.595
G0 X2.460 Y4.580
G1 X2.447 Y4.558 F420.000
G1 X2.420 Y4.495 F420.000
G1 X2.420 Y4.455 F420.000
G1 X2.445 Y4.402 F420.000
G1 X2.507 Y4.345 F420.000
G1 X2.507 Y4.345 F420.000
G1 X2.650 Y4.275 F420.000
G1 X2.725 Y4.255 F420.000
G1 X2.763 Y4.253 F420.000
G1 X2.875 Y4.275 F420.000
G1 X3.083 Y4.367 F420.000
G1 X3.277 Y4.520 F420.000
G1 X3.433 Y4.705 F420.000
G1 X3.495 Y4.812 F420.000
G1 X3.542 Y4.912 F420.000
G1 X3.587 Y5.045 F420.000
G1 X3.620 Y5.218 F420.000
G1 X3.612 Y5.367 F420.000
G1 X3.603 Y5.405 F420.000
G1 X3.583 Y5.438 F420.000
G1 X3.485 Y5.508 F420.000
G1 X3.485 Y5.508 F420.000
G1 X3.402 Y5.537 F420.000
G1 X3.342 Y5.537 F420.000
G0 X3.328 Y5.530
G0 X3.257 Y5.445
G0 X2.640 Y4.473
G1 X2.625 Y4.450 F420.000
G1 X2.592 Y4.390 F420.000
G1 X2.590 Y4.350 F420.000
G1 X2.615 Y4.298 F420.000
G1 X2.678 Y4.242 F420.000
G1 X2.678 Y4.242 F420.000
G1 X2.815 Y4.170 F420.000
G1 X2.890 Y4.150 F420.000
G1 X3.040 Y4.168 F420.000
G1 X3.185 Y4.218 F420.000
G1 X3.255 Y4.253 F420.000
G1 X3.458 Y4.397 F420.000
G1 X3.623 Y4.582 F420.000
G1 X3.690 Y4.690 F420.000
G1 X3.740 Y4.790 F420.000
G1 X3.790 Y4.925 F420.000
G1 X3.820 Y5.112 F420.000
G1 X3.817 Y5.225 F420.000
G1 X3.810 Y5.263 F420.000
G1 X3.792 Y5.298 F420.000
G1 X3.663 Y5.390 F420.000
G1 X3.663 Y5.390 F420.000
G1 X3.580 Y5.420 F420.000
G1 X3.520 Y5.420 F420.000
G0 X3.505 Y5.412
G0 X3.435 Y5.330
G0 X2.815 Y4.367
G1 X2.800 Y4.348 F420.000
G1 X2.768 Y4.287 F420.000
G1 X2.765 Y4.247 F420.000
G1 X2.785 Y4.190 F420.000
G1 X2.842 Y4.130 F420.000
G1 X2.842 Y4.130 F420.000
G1 X2.980 Y4.058 F420.000
G1 X3.055 Y4.035 F420.000
G1 X3.167 Y4.043 F420.000
G1 X3.353 Y4.093 F420.000
G1 X3.422 Y4.125 F420.000
G1 X3.627 Y4.265 F420.000
G1 X3.788 Y4.428 F420.000
G1 X3.862 Y4.535 F420.000
G1 X3.920 Y4.635 F420.000
G1 X3.975 Y4.770 F420.000
G1 X4.015 Y4.957 F420.000
G1 X4.015 Y5.070 F420.000
G1 X4.008 Y5.107 F420.000
G1 X3.993 Y5.143 F420.000
G1 X3.805 Y5.295 F420.000
G1 X3.805 Y5.295 F420.000
G1 X3.723 Y5.325 F420.000
G1 X3.663 Y5.325 F420.000
G0 X3.647 Y5.317
G0 X3.578 Y5.232
G0 X2.955 Y4.280
G1 X2.940 Y4.258 F420.000
G1 X2.908 Y4.197 F420.000
G1 X2.902 Y4.157 F420.000
G1 X2.920 Y4.100 F420.000
G1 X2.975 Y4.037 F420.000
G1 X2.975 Y4.037 F420.000
G1 X3.107 Y3.950 F420.000
G1 X3.180 Y3.917 F420.000
G1 X3.217 Y3.910 F420.000
G1 X3.405 Y3.930 F420.000
G1 X3.550 Y3.980 F420.000
G1 X3.765 Y4.103 F420.000
G1 X3.947 Y4.270 F420.000
G1 X4.025 Y4.370 F420.000
G1 X4.082 Y4.460 F420.000
G1 X4.145 Y4.590 F420.000
G1 X4.202 Y4.785 F420.000
G1 X4.205 Y4.935 F420.000
G1 X4.192 Y4.973 F420.000
G1 X4.170 Y5.005 F420.000
G1 X4.077 Y5.080 F420.000
G1 X4.075 Y5.080 F420.000
G1 X3.998 Y5.115 F420.000
G1 X3.938 Y5.120 F420.000
G0 X3.920 Y5.112
G0 X3.842 Y5.037
G0 X3.125 Y4.150
G1 X3.107 Y4.130 F420.000
G1 X3.067 Y4.072 F420.000
G1 X3.060 Y4.035 F420.000
G1 X3.078 Y3.978 F420.000
G1 X3.132 Y3.915 F420.000
G1 X3.132 Y3.915 F420.000
G1 X3.260 Y3.825 F420.000
G1 X3.330 Y3.792 F420.000
G1 X3.368 Y3.783 F420.000
G1 X3.480 Y3.783 F420.000
G1 X3.630 Y3.812 F420.000
G1 X3.737 Y3.850 F420.000
G1 X3.953 Y3.975 F420.000
G1 X4.125 Y4.128 F420.000
G1 X4.205 Y4.228 F420.000
G1 X4.265 Y4.320 F420.000
G1 X4.345 Y4.482 F420.000
G1 X4.393 Y4.707 F420.000
G1 X4.390 Y4.782 F420.000
G1 X4.378 Y4.820 F420.000
G1 X4.353 Y4.850 F420.000
G1 X4.263 Y4.925 F420.000
G1 X4.263 Y4.925 F420.000
G1 X4.188 Y4.963 F420.000
G1 X4.128 Y4.970 F420.000
G0 X4.110 Y4.963
G0 X4.030 Y4.890
G0 X3.290 Y4.025
G1 X3.272 Y4.005 F420.000
G1 X3.232 Y3.950 F420.000
G1 X3.223 Y3.910 F420.000
G1 X3.235 Y3.853 F420.000
G1 X3.285 Y3.788 F420.000
G1 X3.285 Y3.788 F420.000
G1 X3.447 Y3.675 F420.000
G1 X3.520 Y3.647 F420.000
G1 X3.670 Y3.647 F420.000
G1 X3.820 Y3.678 F420.000
G1 X3.857 Y3.690 F420.000
G1 X4.080 Y3.800 F420.000
G1 X4.268 Y3.950 F420.000
G1 X4.350 Y4.040 F420.000
G1 X4.420 Y4.133 F420.000
G1 X4.490 Y4.258 F420.000
G1 X4.550 Y4.407 F420.000
G1 X4.572 Y4.520 F420.000
G1 X4.577 Y4.595 F420.000
G1 X4.567 Y4.633 F420.000
G1 X4.548 Y4.668 F420.000
G1 X4.438 Y4.777 F420.000
G1 X4.438 Y4.777 F420.000
G1 X4.365 Y4.820 F420.000
G1 X4.305 Y4.830 F420.000
G0 X4.287 Y4.827
G0 X4.228 Y4.780
G0 X3.442 Y3.890
G1 X3.425 Y3.870 F420.000
G1 X3.385 Y3.815 F420.000
G1 X3.375 Y3.777 F420.000
G1 X3.388 Y3.720 F420.000
G1 X3.438 Y3.655 F420.000
G1 X3.438 Y3.655 F420.000
G1 X3.560 Y3.555 F420.000
G1 X3.627 Y3.518 F420.000
G1 X3.740 Y3.500 F420.000
G1 X3.890 Y3.510 F420.000
G1 X4.003 Y3.538 F420.000
G1 X4.230 Y3.640 F420.000
G1 X4.423 Y3.783 F420.000
G1 X4.508 Y3.870 F420.000
G1 X4.577 Y3.958 F420.000
G1 X4.655 Y4.077 F420.000
G1 X4.728 Y4.237 F420.000
G1 X4.750 Y4.350 F420.000
G1 X4.753 Y4.425 F420.000
G1 X4.742 Y4.463 F420.000
G1 X4.582 Y4.633 F420.000
G1 X4.580 Y4.633 F420.000
G1 X4.508 Y4.678 F420.000
G1 X4.447 Y4.688 F420.000
G0 X4.430 Y4.685
G0 X4.370 Y4.638
G0 X3.598 Y3.757
G1 X3.580 Y3.737 F420.000
G1 X3.538 Y3.683 F420.000
G1 X3.527 Y3.643 F420.000
G1 X3.545 Y3.567 F420.000
G1 X3.578 Y3.515 F420.000
G1 X3.578 Y3.515 F420.000
G1 X3.697 Y3.410 F420.000
G1 X3.765 Y3.370 F420.000
G1 X3.803 Y3.357 F420.000
G1 X3.990 Y3.353 F420.000
G1 X4.140 Y3.380 F420.000
G1 X4.370 Y3.475 F420.000
G1 X4.560 Y3.603 F420.000
G1 X4.657 Y3.690 F420.000
G1 X4.737 Y3.780 F420.000
G1 X4.838 Y3.935 F420.000
G1 X4.897 Y4.077 F420.000
G1 X4.925 Y4.228 F420.000
G1 X4.915 Y4.265 F420.000
G1 X4.790 Y4.418 F420.000
G1 X4.790 Y4.418 F420.000
G1 X4.720 Y4.465 F420.000
G1 X4.662 Y4.480 F420.000
G0 X4.645 Y4.478
G0 X4.582 Y4.435
G0 X3.745 Y3.605
G1 X3.728 Y3.587 F420.000
G1 X3.683 Y3.535 F420.000
G1 X3.670 Y3.498 F420.000
G1 X3.675 Y3.440 F420.000
G1 X3.715 Y3.370 F420.000
G1 X3.715 Y3.370 F420.000
G1 X3.830 Y3.260 F420.000
G1 X3.897 Y3.220 F420.000
G1 X3.935 Y3.208 F420.000
G1 X4.122 Y3.195 F420.000
G1 X4.272 Y3.215 F420.000
G1 X4.505 Y3.300 F420.000
G1 X4.710 Y3.430 F420.000
G1 X4.803 Y3.513 F420.000
G1 X4.880 Y3.592 F420.000
G1 X4.992 Y3.748 F420.000
G1 X5.058 Y3.885 F420.000
G1 X5.088 Y3.998 F420.000
G1 X5.088 Y4.035 F420.000
G1 X5.080 Y4.072 F420.000
G1 X5.010 Y4.168 F420.000
G1 X5.010 Y4.168 F420.000
G1 X4.942 Y4.220 F420.000
G1 X4.885 Y4.237 F420.000
G0 X4.867 Y4.237
G0 X4.803 Y4.200
G0 X3.885 Y3.447
G1 X3.865 Y3.430 F420.000
G1 X3.817 Y3.382 F420.000
G1 X3.803 Y3.348 F420.000
G1 X3.808 Y3.290 F420.000
G1 X3.845 Y3.217 F420.000
G1 X3.845 Y3.217 F420.000
G1 X3.958 Y3.107 F420.000
G1 X4.025 Y3.065 F420.000
G1 X4.175 Y3.035 F420.000
G1 X4.287 Y3.035 F420.000
G1 X4.400 Y3.050 F420.000
G1 X4.635 Y3.127 F420.000
G1 X4.830 Y3.240 F420.000
G1 X4.928 Y3.315 F420.000
G1 X5.015 Y3.400 F420.000
G1 X5.107 Y3.513 F420.000
G1 X5.185 Y3.645 F420.000
G1 X5.237 Y3.790 F420.000
G1 X5.245 Y3.828 F420.000
G1 X5.240 Y3.865 F420.000
G1 X5.170 Y3.965 F420.000
G1 X5.170 Y3.965 F420.000
G1 X5.103 Y4.018 F420.000
G1 X5.045 Y4.035 F420.000
G0 X5.027 Y4.035
G0 X4.935 Y3.980
G0 X4.020 Y3.288
G1 X4.000 Y3.272 F420.000
G1 X3.950 Y3.228 F420.000
G1 X3.933 Y3.192 F420.000
G1 X3.935 Y3.132 F420.000
G1 X3.970 Y3.060 F420.000
G1 X3.970 Y3.060 F420.000
G1 X4.080 Y2.942 F420.000
G1 X4.145 Y2.897 F420.000
G1 X4.295 Y2.865 F420.000
G1 X4.482 Y2.862 F420.000
G1 X4.520 Y2.868 F420.000
G1 X4.758 Y2.940 F420.000
G1 X4.933 Y3.030 F420.000
G1 X5.037 Y3.103 F420.000
G1 X5.138 Y3.188 F420.000
G1 X5.245 Y3.305 F420.000
G1 X5.345 Y3.467 F420.000
G1 X5.383 Y3.575 F420.000
G1 X5.390 Y3.612 F420.000
G1 X5.385 Y3.650 F420.000
G1 X5.370 Y3.688 F420.000
G1 X5.325 Y3.752 F420.000
G1 X5.325 Y3.752 F420.000
G1 X5.263 Y3.810 F420.000
G1 X5.207 Y3.833 F420.000
G0 X5.190 Y3.833
G0 X5.095 Y3.783
G0 X4.152 Y3.125
G1 X4.133 Y3.110 F420.000
G1 X4.080 Y3.067 F420.000
G1 X4.062 Y3.033 F420.000
G1 X4.060 Y2.975 F420.000
G1 X4.090 Y2.900 F420.000
G1 X4.090 Y2.900 F420.000
G1 X4.195 Y2.780 F420.000
G1 X4.258 Y2.732 F420.000
G1 X4.407 Y2.692 F420.000
G1 X4.595 Y2.683 F420.000
G1 X4.633 Y2.685 F420.000
G1 X4.872 Y2.748 F420.000
G1 X5.065 Y2.840 F420.000
G1 X5.173 Y2.908 F420.000
G1 X5.275 Y2.990 F420.000
G1 X5.378 Y3.098 F420.000
G1 X5.482 Y3.255 F420.000
G1 X5.525 Y3.362 F420.000
G1 X5.530 Y3.400 F420.000
G1 X5.525 Y3.438 F420.000
G1 X5.470 Y3.542 F420.000
G1 X5.470 Y3.542 F420.000
G1 X5.410 Y3.603 F420.000
G1 X5.357 Y3.627 F420.000
G0 X5.338 Y3.627
G0 X5.268 Y3.600
G0 X4.270 Y2.958
G1 X4.247 Y2.942 F420.000
G1 X4.192 Y2.902 F420.000
G1 X4.175 Y2.868 F420.000
G1 X4.173 Y2.810 F420.000
G1 X4.202 Y2.735 F420.000
G1 X4.202 Y2.735 F420.000
G1 X4.303 Y2.607 F420.000
G1 X4.365 Y2.555 F420.000
G1 X4.475 Y2.518 F420.000
G1 X4.625 Y2.495 F420.000
G1 X4.737 Y2.498 F420.000
G1 X4.980 Y2.550 F420.000
G1 X5.192 Y2.645 F420.000
G1 X5.303 Y2.712 F420.000
G1 X5.397 Y2.788 F420.000
G1 X5.527 Y2.920 F420.000
G1 X5.612 Y3.047 F420.000
G1 X5.657 Y3.155 F420.000
G1 X5.662 Y3.192 F420.000
G1 X5.657 Y3.230 F420.000
G1 X5.638 Y3.263 F420.000
G1 X5.638 Y3.263 F420.000
G1 X5.577 Y3.322 F420.000
G1 X5.522 Y3.350 F420.000
G0 X5.505 Y3.350
G0 X5.405 Y3.310
G0 X4.393 Y2.777
G1 X4.370 Y2.765 F420.000
G1 X4.312 Y2.730 F420.000
G1 X4.290 Y2.697 F420.000
G1 X4.285 Y2.640 F420.000
G1 X4.308 Y2.565 F420.000
G1 X4.308 Y2.565 F420.000
G1 X4.378 Y2.467 F420.000
G1 X4.463 Y2.385 F420.000
G1 X4.610 Y2.333 F420.000
G1 X4.798 Y2.308 F420.000
G1 X4.835 Y2.308 F420.000
G1 X5.080 Y2.350 F420.000
G1 X5.282 Y2.430 F420.000
G1 X5.393 Y2.490 F420.000
G1 X5.497 Y2.565 F420.000
G1 X5.657 Y2.720 F420.000
G1 X5.745 Y2.845 F420.000
G1 X5.777 Y2.915 F420.000
G1 X5.785 Y2.953 F420.000
G1 X5.782 Y2.990 F420.000
G1 X5.768 Y3.025 F420.000
G1 X5.768 Y3.025 F420.000
G1 X5.713 Y3.087 F420.000
G1 X5.660 Y3.115 F420.000
G0 X5.643 Y3.118
G0 X5.540 Y3.083
G0 X4.495 Y2.600
G1 X4.473 Y2.587 F420.000
G1 X4.412 Y2.555 F420.000
G1 X4.390 Y2.525 F420.000
G1 X4.385 Y2.467 F420.000
G1 X4.407 Y2.393 F420.000
G1 X4.407 Y2.393 F420.000
G1 X4.497 Y2.257 F420.000
G1 X4.555 Y2.203 F420.000
G1 X4.665 Y2.155 F420.000
G1 X4.853 Y2.118 F420.000
G1 X4.928 Y2.112 F420.000
G1 X5.173 Y2.147 F420.000
G1 X5.367 Y2.215 F420.000
G1 X5.485 Y2.272 F420.000
G1 X5.593 Y2.342 F420.000
G1 X5.763 Y2.490 F420.000
G1 X5.835 Y2.580 F420.000
G1 X5.890 Y2.683 F420.000
G1 X5.900 Y2.720 F420.000
G1 X5.900 Y2.757 F420.000
G1 X5.853 Y2.865 F420.000
G1 X5.853 Y2.865 F420.000
G1 X5.798 Y2.928 F420.000
G1 X5.745 Y2.955 F420.000
G0 X5.728 Y2.958
G0 X5.625 Y2.922
G0 X4.598 Y2.425
G1 X4.575 Y2.413 F420.000
G1 X4.515 Y2.377 F420.000
G1 X4.490 Y2.348 F420.000
G1 X4.480 Y2.290 F420.000
G1 X4.497 Y2.212 F420.000
G1 X4.497 Y2.212 F420.000
G1 X4.588 Y2.075 F420.000
G1 X4.643 Y2.018 F420.000
G1 X4.750 Y1.965 F420.000
G1 X4.975 Y1.917 F420.000
G1 X5.013 Y1.915 F420.000
G1 X5.260 Y1.940 F420.000
G1 X5.457 Y2.000 F420.000
G1 X5.572 Y2.053 F420.000
G1 X5.678 Y2.112 F420.000
G1 X5.832 Y2.235 F420.000
G1 X5.912 Y2.317 F420.000
G1 X5.978 Y2.413 F420.000
G1 X5.995 Y2.447 F420.000
G1 X6.005 Y2.485 F420.000
G1 X6.005 Y2.522 F420.000
G1 X6.005 Y2.522 F420.000
G1 X5.955 Y2.587 F420.000
G1 X5.905 Y2.620 F420.000
G0 X5.888 Y2.623
G0 X5.782 Y2.600
G0 X4.690 Y2.230
G1 X4.665 Y2.220 F420.000
G1 X4.603 Y2.195 F420.000
G1 X4.577 Y2.165 F420.000
G1 X4.565 Y2.110 F420.000
G1 X4.582 Y2.033 F420.000
G1 X4.582 Y2.033 F420.000
G1 X4.638 Y1.925 F420.000
G1 X4.685 Y1.860 F420.000
G1 X4.745 Y1.808 F420.000
G1 X4.890 Y1.748 F420.000
G1 X5.077 Y1.712 F420.000
G1 X5.325 Y1.725 F420.000
G1 X5.550 Y1.782 F420.000
G1 X5.670 Y1.833 F420.000
G1 X5.775 Y1.890 F420.000
G1 X5.952 Y2.027 F420.000
G1 X6.053 Y2.143 F420.000
G1 X6.093 Y2.208 F420.000
G1 X6.100 Y2.245 F420.000
G1 X6.100 Y2.283 F420.000
G1 X6.100 Y2.283 F420.000
G1 X6.055 Y2.350 F420.000
G1 X6.005 Y2.385 F420.000
G0 X5.987 Y2.390
G0 X5.880 Y2.370
G0 X4.772 Y2.040
G1 X4.747 Y2.033 F420.000
G1 X4.683 Y2.010 F420.000
G1 X4.657 Y1.980 F420.000
G1 X4.645 Y1.925 F420.000
G1 X4.662 Y1.847 F420.000
G1 X4.662 Y1.847 F420.000
G1 X4.732 Y1.700 F420.000
G1 X4.782 Y1.637 F420.000
G1 X4.815 Y1.613 F420.000
G1 X4.997 Y1.538 F420.000
G1 X5.147 Y1.508 F420.000
G1 X5.395 Y1.510 F420.000
G1 X5.635 Y1.565 F420.000
G1 X5.753 Y1.610 F420.000
G1 X5.860 Y1.665 F420.000
G1 X6.043 Y1.795 F420.000
G1 X6.143 Y1.907 F420.000
G1 X6.183 Y1.972 F420.000
G1 X6.190 Y2.010 F420.000
G1 X6.185 Y2.047 F420.000
G1 X6.173 Y2.085 F420.000
G1 X6.173 Y2.085 F420.000
G1 X6.128 Y2.152 F420.000
G1 X6.077 Y2.188 F420.000
G0 X6.060 Y2.192
G0 X5.952 Y2.175
G0 X4.853 Y1.853
G1 X4.827 Y1.845 F420.000
G1 X4.763 Y1.823 F420.000
G1 X4.735 Y1.792 F420.000
G1 X4.720 Y1.738 F420.000
G1 X4.730 Y1.660 F420.000
G1 X4.730 Y1.660 F420.000
G1 X4.777 Y1.548 F420.000
G1 X4.820 Y1.478 F420.000
G1 X4.848 Y1.448 F420.000
G1 X4.985 Y1.365 F420.000
G1 X5.135 Y1.312 F420.000
G1 X5.210 Y1.298 F420.000
G1 X5.457 Y1.292 F420.000
G1 X5.695 Y1.337 F420.000
G1 X5.815 Y1.377 F420.000
G1 X5.923 Y1.427 F420.000
G1 X6.107 Y1.548 F420.000
G1 X6.192 Y1.627 F420.000
G1 X6.260 Y1.720 F420.000
G1 X6.268 Y1.758 F420.000
G1 X6.260 Y1.795 F420.000
G1 X6.260 Y1.795 F420.000
G1 X6.220 Y1.865 F420.000
G1 X6.175 Y1.905 F420.000
G0 X6.157 Y1.910
G0 X6.050 Y1.900
G0 X4.925 Y1.653
G1 X4.900 Y1.645 F420.000
G1 X4.832 Y1.627 F420.000
G1 X4.805 Y1.603 F420.000
G1 X4.785 Y1.548 F420.000
G1 X4.793 Y1.470 F420.000
G1 X4.793 Y1.470 F420.000
G1 X4.850 Y1.317 F420.000
G1 X4.893 Y1.250 F420.000
G1 X4.952 Y1.200 F420.000
G1 X5.095 Y1.130 F420.000
G1 X5.245 Y1.087 F420.000
G1 X5.492 Y1.070 F420.000
G1 X5.728 Y1.103 F420.000
G1 X5.853 Y1.137 F420.000
G1 X5.965 Y1.183 F420.000
G1 X6.160 Y1.295 F420.000
G1 X6.275 Y1.395 F420.000
G1 X6.322 Y1.455 F420.000
G1 X6.332 Y1.492 F420.000
G1 X6.330 Y1.530 F420.000
G1 X6.330 Y1.530 F420.000
G1 X6.295 Y1.603 F420.000
G1 X6.253 Y1.645 F420.000
G0 X6.235 Y1.650
G0 X6.128 Y1.645
G0 X4.985 Y1.452
G1 X4.960 Y1.450 F420.000
G1 X4.893 Y1.433 F420.000
G1 X4.865 Y1.407 F420.000
G1 X4.843 Y1.355 F420.000
G1 X4.845 Y1.278 F420.000
G1 X4.845 Y1.278 F420.000
G1 X4.902 Y1.125 F420.000
G1 X4.945 Y1.058 F420.000
G1 X5.040 Y0.985 F420.000
G1 X5.185 Y0.920 F420.000
G1 X5.260 Y0.900 F420.000
G1 X5.505 Y0.863 F420.000
G1 X5.753 Y0.877 F420.000
G1 X5.895 Y0.910 F420.000
G1 X6.190 Y1.035 F420.000
G1 X6.310 Y1.127 F420.000
G1 X6.362 Y1.185 F420.000
G1 X6.383 Y1.218 F420.000
G1 X6.390 Y1.255 F420.000
G1 X6.383 Y1.292 F420.000
G1 X6.383 Y1.292 F420.000
G1 X6.348 Y1.365 F420.000
G1 X6.305 Y1.407 F420.000
G0 X6.287 Y1.413
G0 X6.180 Y1.410
G0 X5.037 Y1.255
G1 X5.013 Y1.252 F420.000
G1 X4.945 Y1.238 F420.000
G1 X4.915 Y1.212 F420.000
G1 X4.893 Y1.160 F420.000
G1 X4.893 Y1.083 F420.000
G1 X4.893 Y1.083 F420.000
G1 X4.928 Y0.965 F420.000
G1 X4.987 Y0.860 F420.000
G1 X5.085 Y0.792 F420.000
G1 X5.230 Y0.728 F420.000
G1 X5.305 Y0.708 F420.000
G1 X5.550 Y0.660 F420.000
G1 X5.798 Y0.662 F420.000
G1 X5.955 Y0.693 F420.000
G1 X6.067 Y0.730 F420.000
G1 X6.210 Y0.795 F420.000
G1 X6.362 Y0.910 F420.000
G1 X6.415 Y0.965 F420.000
G1 X6.428 Y1.000 F420.000
G1 X6.430 Y1.038 F420.000
G1 X6.430 Y1.038 F420.000
G1 X6.397 Y1.113 F420.000
G1 X6.357 Y1.153 F420.000
G0 X6.340 Y1.160
G0 X6.232 Y1.163
G0 X5.088 Y1.050
G1 X5.062 Y1.050 F420.000
G1 X4.995 Y1.038 F420.000
G1 X4.963 Y1.018 F420.000
G1 X4.938 Y0.965 F420.000
G1 X4.935 Y0.887 F420.000
G1 X4.935 Y0.887 F420.000
G1 X4.952 Y0.807 F420.000
G1 X4.985 Y0.733 F420.000
G1 X5.008 Y0.698 F420.000
G1 X5.133 Y0.603 F420.000
G1 X5.275 Y0.532 F420.000
G1 X5.553 Y0.458 F420.000
G1 X5.800 Y0.448 F420.000
G1 X5.950 Y0.468 F420.000
G1 X6.065 Y0.500 F420.000
G1 X6.173 Y0.540 F420.000
G1 X6.322 Y0.618 F420.000
G1 X6.410 Y0.693 F420.000
G1 X6.455 Y0.755 F420.000
G1 X6.465 Y0.792 F420.000
G1 X6.460 Y0.868 F420.000
G1 X6.460 Y0.868 F420.000
G1 X6.418 Y0.960 F420.000
G1 X6.390 Y0.988 F420.000
G0 X6.375 Y0.995
G0 X6.265 Y0.998
G0 X5.112 Y0.890
G1 X5.088 Y0.890 F420.000
G1 X5.020 Y0.877 F420.000
G1 X4.987 Y0.853 F420.000
G1 X4.963 Y0.790 F420.000
G1 X4.957 Y0.730 F420.000
G1 X4.957 Y0.730 F420.000
G1 X4.987 Y0.610 F420.000
G1 X5.020 Y0.537 F420.000
G1 X5.045 Y0.505 F420.000
G1 X5.170 Y0.407 F420.000
G1 X5.345 Y0.325 F420.000
G1 X5.582 Y0.253 F420.000
G1 X5.830 Y0.235 F420.000
G1 X5.968 Y0.250 F420.000
G1 X6.075 Y0.275 F420.000
G1 X6.197 Y0.315 F420.000
G1 X6.348 Y0.390 F420.000
G1 X6.435 Y0.463 F420.000
G1 X6.485 Y0.520 F420.000
G1 X6.495 Y0.557 F420.000
G1 X6.492 Y0.595 F420.000
G1 X6.492 Y0.595 F420.000
G1 X6.452 Y0.665 F420.000
G1 X6.407 Y0.705 F420.000
G0 X6.388 Y0.713
G0 X6.277 Y0.723
G0 X5.147 Y0.723
G1 X5.122 Y0.723 F420.000
G1 X5.045 Y0.718 F420.000
G1 X5.015 Y0.698 F420.000
G1 X4.987 Y0.650 F420.000
G1 X4.980 Y0.573 F420.000
G1 X4.980 Y0.573 F420.000
G1 X5.003 Y0.453 F420.000
G1 X5.030 Y0.375 F420.000
G1 X5.050 Y0.340 F420.000
G1 X5.170 Y0.233 F420.000
G1 X5.343 Y0.135 F420.000
G1 X5.577 Y0.050 F420.000
G1 X5.825 Y0.020 F420.000
G1 X5.968 Y0.030 F420.000
G1 X6.075 Y0.050 F420.000
G1 X6.197 Y0.083 F420.000
G1 X6.353 Y0.152 F420.000
G1 X6.415 Y0.195 F420.000
G1 X6.495 Y0.278 F420.000
G1 X6.515 Y0.310 F420.000
G1 X6.537 Y0.383 F420.000
G1 X6.537 Y0.420 F420.000
G1 X6.537 Y0.420 F420.000
G1 X6.497 Y0.490 F420.000
G1 X6.452 Y0.530 F420.000
G0 X6.433 Y0.537
G0 X6.325 Y0.550
G0 X5.160 Y0.560
G1 X5.135 Y0.562 F420.000
G1 X5.067 Y0.557 F420.000
G1 X5.035 Y0.537 F420.000
G1 X5.005 Y0.490 F420.000
G1 X4.995 Y0.412 F420.000
G1 X4.995 Y0.412 F420.000
G1 X5.022 Y0.253 F420.000
G1 X5.053 Y0.177 F420.000
G1 X5.130 Y0.087 F420.000
G1 X5.223 Y0.013 F420.000
G1 X5.355 Y-0.065 F420.000
G1 X5.585 Y-0.158 F420.000
G1 X5.830 Y-0.195 F420.000
G1 X5.955 Y-0.190 F420.000
G1 X6.062 Y-0.177 F420.000
G1 X6.207 Y-0.142 F420.000
G1 X6.315 Y-0.095 F420.000
G1 X6.500 Y0.045 F420.000
G1 X6.518 Y0.077 F420.000
G1 X6.527 Y0.115 F420.000
G1 X6.530 Y0.152 F420.000
G1 X6.530 Y0.152 F420.000
G1 X6.515 Y0.230 F420.000
G1 X6.485 Y0.280 F420.000
G0 X6.470 Y0.290
G0 X6.362 Y0.305
G0 X5.180 Y0.355
G1 X5.155 Y0.357 F420.000
G1 X5.107 Y0.355 F420.000
G1 X5.065 Y0.340 F420.000
G1 X5.035 Y0.307 F420.000
G1 X5.010 Y0.212 F420.000
G1 X5.010 Y0.212 F420.000
G1 X5.025 Y0.092 F420.000
G1 X5.062 Y-0.020 F420.000
G1 X5.107 Y-0.080 F420.000
G1 X5.190 Y-0.160 F420.000
G1 X5.348 Y-0.268 F420.000
G1 X5.575 Y-0.367 F420.000
G1 X5.808 Y-0.410 F420.000
G1 X5.925 Y-0.412 F420.000
G1 X6.032 Y-0.403 F420.000
G1 X6.165 Y-0.375 F420.000
G1 X6.325 Y-0.320 F420.000
G1 X6.455 Y-0.230 F420.000
G1 X6.485 Y-0.203 F420.000
G1 X6.508 Y-0.168 F420.000
G1 X6.518 Y-0.128 F420.000
G1 X6.520 Y-0.087 F420.000
G1 X6.520 Y-0.087 F420.000
G1 X6.503 Y-0.003 F420.000
G1 X6.473 Y0.045 F420.000
G0 X6.457 Y0.055
G0 X6.350 Y0.072
G0 X5.200 Y0.147
G1 X5.175 Y0.150 F420.000
G1 X5.105 Y0.145 F420.000
G1 X5.065 Y0.122 F420.000
G1 X5.032 Y0.070 F420.000
G1 X5.020 Y0.013 F420.000
G1 X5.020 Y0.013 F420.000
G1 X5.027 Y-0.100 F420.000
G1 X5.045 Y-0.175 F420.000
G1 X5.080 Y-0.242 F420.000
G1 X5.207 Y-0.380 F420.000
G1 X5.332 Y-0.470 F420.000
G1 X5.558 Y-0.575 F420.000
G1 X5.790 Y-0.625 F420.000
G1 X5.910 Y-0.632 F420.000
G1 X6.022 Y-0.627 F420.000
G1 X6.162 Y-0.603 F420.000
G1 X6.315 Y-0.552 F420.000
G1 X6.447 Y-0.463 F420.000
G1 X6.478 Y-0.435 F420.000
G1 X6.497 Y-0.400 F420.000
G1 X6.510 Y-0.362 F420.000
G1 X6.513 Y-0.323 F420.000
G1 X6.513 Y-0.323 F420.000
G1 X6.497 Y-0.237 F420.000
G1 X6.468 Y-0.185 F420.000
G0 X6.452 Y-0.172
G0 X6.348 Y-0.147
G0 X5.197 Y-0.005
G1 X5.173 Y-0.003 F420.000
G1 X5.105 Y0.000 F420.000
G1 X5.067 Y-0.015 F420.000
G1 X5.032 Y-0.062 F420.000
G1 X5.015 Y-0.145 F420.000
G1 X5.015 Y-0.145 F420.000
G1 X5.015 Y-0.295 F420.000
G1 X5.027 Y-0.370 F420.000
G1 X5.058 Y-0.443 F420.000
G1 X5.185 Y-0.583 F420.000
G1 X5.310 Y-0.675 F420.000
G1 X5.532 Y-0.785 F420.000
G1 X5.775 Y-0.843 F420.000
G1 X5.895 Y-0.850 F420.000
G1 X6.003 Y-0.848 F420.000
G1 X6.143 Y-0.825 F420.000
G1 X6.298 Y-0.780 F420.000
G1 X6.430 Y-0.695 F420.000
G1 X6.460 Y-0.667 F420.000
G1 X6.480 Y-0.632 F420.000
G1 X6.490 Y-0.593 F420.000
G1 X6.490 Y-0.593 F420.000
G1 X6.480 Y-0.507 F420.000
G1 X6.452 Y-0.453 F420.000
G0 X6.438 Y-0.440
G0 X6.335 Y-0.412
G0 X5.192 Y-0.247
G1 X5.168 Y-0.245 F420.000
G1 X5.100 Y-0.240 F420.000
G1 X5.062 Y-0.258 F420.000
G1 X5.025 Y-0.305 F420.000
G1 X5.003 Y-0.385 F420.000
G1 X5.003 Y-0.385 F420.000
G1 X5.003 Y-0.497 F420.000
G1 X5.015 Y-0.573 F420.000
G1 X5.027 Y-0.608 F420.000
G1 X5.143 Y-0.760 F420.000
G1 X5.260 Y-0.860 F420.000
G1 X5.513 Y-0.995 F420.000
G1 X5.753 Y-1.058 F420.000
G1 X5.878 Y-1.070 F420.000
G1 X5.990 Y-1.070 F420.000
G1 X6.135 Y-1.050 F420.000
G1 X6.317 Y-0.978 F420.000
G1 X6.418 Y-0.915 F420.000
G1 X6.445 Y-0.885 F420.000
G1 X6.465 Y-0.850 F420.000
G1 X6.468 Y-0.810 F420.000
G1 X6.468 Y-0.810 F420.000
G1 X6.457 Y-0.725 F420.000
G1 X6.430 Y-0.670 F420.000
G0 X6.415 Y-0.657
G0 X6.312 Y-0.625
G0 X5.178 Y-0.412
G1 X5.152 Y-0.407 F420.000
G1 X5.085 Y-0.403 F420.000
G1 X5.048 Y-0.417 F420.000
G1 X5.010 Y-0.463 F420.000
G1 X4.985 Y-0.542 F420.000
G1 X4.985 Y-0.542 F420.000
G1 X4.982 Y-0.730 F420.000
G1 X5.003 Y-0.805 F420.000
G1 X5.117 Y-0.958 F420.000
G1 X5.263 Y-1.080 F420.000
G1 X5.478 Y-1.205 F420.000
G1 X5.715 Y-1.275 F420.000
G1 X5.835 Y-1.290 F420.000
G1 X5.940 Y-1.292 F420.000
G1 X6.080 Y-1.280 F420.000
G1 X6.265 Y-1.218 F420.000
G1 X6.367 Y-1.160 F420.000
G1 X6.397 Y-1.133 F420.000
G1 X6.420 Y-1.100 F420.000
G1 X6.430 Y-1.060 F420.000
G1 X6.430 Y-1.060 F420.000
G1 X6.420 Y-0.953 F420.000
G1 X6.400 Y-0.917 F420.000
G0 X6.388 Y-0.902
G0 X6.317 Y-0.875
G0 X5.162 Y-0.620
G1 X5.138 Y-0.613 F420.000
G1 X5.067 Y-0.605 F420.000
G1 X5.030 Y-0.618 F420.000
G1 X4.990 Y-0.662 F420.000
G1 X4.960 Y-0.743 F420.000
G1 X4.960 Y-0.743 F420.000
G1 X4.950 Y-0.892 F420.000
G1 X4.960 Y-0.968 F420.000
G1 X4.990 Y-1.038 F420.000
G1 X5.082 Y-1.160 F420.000
G1 X5.195 Y-1.262 F420.000
G1 X5.402 Y-1.397 F420.000
G1 X5.635 Y-1.482 F420.000
G1 X5.760 Y-1.505 F420.000
G1 X5.867 Y-1.510 F420.000
G1 X5.992 Y-1.505 F420.000
G1 X6.160 Y-1.478 F420.000
G1 X6.335 Y-1.387 F420.000
G1 X6.362 Y-1.357 F420.000
G1 X6.380 Y-1.323 F420.000
G1 X6.390 Y-1.282 F420.000
G1 X6.390 Y-1.282 F420.000
G1 X6.388 Y-1.198 F420.000
G1 X6.365 Y-1.140 F420.000
G0 X6.353 Y-1.125
G0 X6.250 Y-1.087
G0 X5.128 Y-0.820
G1 X5.103 Y-0.812 F420.000
G1 X5.035 Y-0.802 F420.000
G1 X4.997 Y-0.815 F420.000
G1 X4.957 Y-0.860 F420.000
G1 X4.928 Y-0.940 F420.000
G1 X4.928 Y-0.940 F420.000
G1 X4.915 Y-1.090 F420.000
G1 X4.923 Y-1.165 F420.000
G1 X4.935 Y-1.200 F420.000
G1 X5.045 Y-1.357 F420.000
G1 X5.155 Y-1.465 F420.000
G1 X5.362 Y-1.603 F420.000
G1 X5.593 Y-1.692 F420.000
G1 X5.718 Y-1.718 F420.000
G1 X5.830 Y-1.730 F420.000
G1 X5.975 Y-1.728 F420.000
G1 X6.162 Y-1.680 F420.000
G1 X6.268 Y-1.627 F420.000
G1 X6.300 Y-1.603 F420.000
G1 X6.325 Y-1.570 F420.000
G1 X6.332 Y-1.530 F420.000
G1 X6.332 Y-1.530 F420.000
G1 X6.330 Y-1.445 F420.000
G1 X6.308 Y-1.387 F420.000
G0 X6.295 Y-1.373
G0 X6.197 Y-1.327
G0 X5.103 Y-0.988
G1 X5.080 Y-0.980 F420.000
G1 X5.013 Y-0.968 F420.000
G1 X4.975 Y-0.978 F420.000
G1 X4.930 Y-1.018 F420.000
G1 X4.895 Y-1.095 F420.000
G1 X4.895 Y-1.095 F420.000
G1 X4.872 Y-1.208 F420.000
G1 X4.870 Y-1.320 F420.000
G1 X4.875 Y-1.357 F420.000
G1 X4.905 Y-1.430 F420.000
G1 X5.045 Y-1.613 F420.000
G1 X5.103 Y-1.665 F420.000
G1 X5.305 Y-1.810 F420.000
G1 X5.535 Y-1.907 F420.000
G1 X5.657 Y-1.935 F420.000
G1 X5.770 Y-1.950 F420.000
G1 X5.952 Y-1.942 F420.000
G1 X6.103 Y-1.903 F420.000
G1 X6.210 Y-1.855 F420.000
G1 X6.240 Y-1.827 F420.000
G1 X6.263 Y-1.795 F420.000
G1 X6.275 Y-1.758 F420.000
G1 X6.275 Y-1.758 F420.000
G1 X6.277 Y-1.673 F420.000
G1 X6.260 Y-1.615 F420.000
G0 X6.247 Y-1.600
G0 X6.147 Y-1.558
G0 X5.058 Y-1.230
G1 X5.032 Y-1.222 F420.000
G1 X4.965 Y-1.210 F420.000
G1 X4.925 Y-1.218 F420.000
G1 X4.878 Y-1.255 F420.000
G1 X4.838 Y-1.327 F420.000
G1 X4.838 Y-1.327 F420.000
G1 X4.815 Y-1.478 F420.000
G1 X4.825 Y-1.552 F420.000
G1 X4.895 Y-1.688 F420.000
G1 X4.990 Y-1.808 F420.000
G1 X5.210 Y-1.992 F420.000
G1 X5.433 Y-2.103 F420.000
G1 X5.553 Y-2.138 F420.000
G1 X5.660 Y-2.155 F420.000
G1 X5.787 Y-2.163 F420.000
G1 X5.947 Y-2.152 F420.000
G1 X6.060 Y-2.123 F420.000
G1 X6.133 Y-2.090 F420.000
G1 X6.190 Y-2.035 F420.000
G1 X6.207 Y-1.998 F420.000
G1 X6.207 Y-1.998 F420.000
G1 X6.215 Y-1.913 F420.000
G1 X6.200 Y-1.853 F420.000
G0 X6.190 Y-1.837
G0 X6.093 Y-1.788
G0 X5.008 Y-1.393
G1 X4.985 Y-1.383 F420.000
G1 X4.918 Y-1.365 F420.000
G1 X4.880 Y-1.373 F420.000
G1 X4.832 Y-1.410 F420.000
G1 X4.793 Y-1.482 F420.000
G1 X4.793 Y-1.482 F420.000
G1 X4.758 Y-1.633 F420.000
G1 X4.758 Y-1.708 F420.000
G1 X4.765 Y-1.745 F420.000
G1 X4.812 Y-1.850 F420.000
G1 X4.950 Y-2.033 F420.000
G1 X5.138 Y-2.195 F420.000
G1 X5.357 Y-2.308 F420.000
G1 X5.470 Y-2.342 F420.000
G1 X5.575 Y-2.365 F420.000
G1 X5.713 Y-2.380 F420.000
G1 X5.888 Y-2.375 F420.000
G1 X6.000 Y-2.345 F420.000
G1 X6.070 Y-2.310 F420.000
G1 X6.098 Y-2.283 F420.000
G1 X6.130 Y-2.210 F420.000
G1 X6.130 Y-2.210 F420.000
G1 X6.138 Y-2.105 F420.000
G1 X6.128 Y-2.067 F420.000
G0 X6.115 Y-2.053
G0 X6.050 Y-2.013
G0 X4.955 Y-1.593
G1 X4.933 Y-1.583 F420.000
G1 X4.865 Y-1.565 F420.000
G1 X4.827 Y-1.570 F420.000
G1 X4.777 Y-1.603 F420.000
G1 X4.728 Y-1.670 F420.000
G1 X4.728 Y-1.670 F420.000
G1 X4.688 Y-1.820 F420.000
G1 X4.685 Y-1.895 F420.000
G1 X4.692 Y-1.933 F420.000
G1 X4.777 Y-2.103 F420.000
G1 X4.872 Y-2.225 F420.000
G1 X5.058 Y-2.393 F420.000
G1 X5.275 Y-2.513 F420.000
G1 X5.395 Y-2.555 F420.000
G1 X5.500 Y-2.583 F420.000
G1 X5.643 Y-2.600 F420.000
G1 X5.793 Y-2.592 F420.000
G1 X5.942 Y-2.553 F420.000
G1 X5.978 Y-2.535 F420.000
G1 X6.008 Y-2.510 F420.000
G1 X6.043 Y-2.435 F420.000
G1 X6.043 Y-2.435 F420.000
G1 X6.058 Y-2.350 F420.000
G1 X6.045 Y-2.292 F420.000
G0 X6.035 Y-2.277
G0 X5.942 Y-2.223
G0 X4.878 Y-1.778
G1 X4.855 Y-1.768 F420.000
G1 X4.790 Y-1.748 F420.000
G1 X4.750 Y-1.752 F420.000
G1 X4.702 Y-1.785 F420.000
G1 X4.657 Y-1.857 F420.000
G1 X4.657 Y-1.857 F420.000
G1 X4.615 Y-2.007 F420.000
G1 X4.610 Y-2.083 F420.000
G1 X4.660 Y-2.225 F420.000
G1 X4.763 Y-2.388 F420.000
G1 X4.787 Y-2.417 F420.000
G1 X4.968 Y-2.587 F420.000
G1 X5.180 Y-2.715 F420.000
G1 X5.300 Y-2.763 F420.000
G1 X5.410 Y-2.795 F420.000
G1 X5.558 Y-2.815 F420.000
G1 X5.745 Y-2.803 F420.000
G1 X5.857 Y-2.772 F420.000
G1 X5.920 Y-2.723 F420.000
G1 X5.938 Y-2.685 F420.000
G1 X5.938 Y-2.685 F420.000
G1 X5.952 Y-2.600 F420.000
G1 X5.940 Y-2.542 F420.000
G0 X5.930 Y-2.525
G0 X5.840 Y-2.465
G0 X4.820 Y-1.942
G1 X4.798 Y-1.930 F420.000
G1 X4.735 Y-1.905 F420.000
G1 X4.695 Y-1.905 F420.000
G1 X4.645 Y-1.938 F420.000
G1 X4.595 Y-2.005 F420.000
G1 X4.595 Y-2.005 F420.000
G1 X4.545 Y-2.152 F420.000
G1 X4.532 Y-2.228 F420.000
G1 X4.532 Y-2.265 F420.000
G1 X4.582 Y-2.413 F420.000
G1 X4.655 Y-2.545 F420.000
G1 X4.845 Y-2.757 F420.000
G1 X5.048 Y-2.897 F420.000
G1 X5.162 Y-2.950 F420.000
G1 X5.268 Y-2.987 F420.000
G1 X5.407 Y-3.018 F420.000
G1 X5.560 Y-3.030 F420.000
G1 X5.673 Y-3.015 F420.000
G1 X5.747 Y-2.995 F420.000
G1 X5.780 Y-2.975 F420.000
G1 X5.808 Y-2.947 F420.000
G1 X5.827 Y-2.913 F420.000
G1 X5.827 Y-2.913 F420.000
G1 X5.848 Y-2.828 F420.000
G1 X5.840 Y-2.768 F420.000
G0 X5.830 Y-2.752
G0 X5.742 Y-2.690
G0 X4.745 Y-2.135
G1 X4.723 Y-2.123 F420.000
G1 X4.660 Y-2.095 F420.000
G1 X4.622 Y-2.095 F420.000
G1 X4.570 Y-2.123 F420.000
G1 X4.515 Y-2.188 F420.000
G1 X4.515 Y-2.188 F420.000
G1 X4.455 Y-2.333 F420.000
G1 X4.442 Y-2.408 F420.000
G1 X4.442 Y-2.445 F420.000
G1 X4.485 Y-2.592 F420.000
G1 X4.555 Y-2.728 F420.000
G1 X4.577 Y-2.760 F420.000
G1 X4.740 Y-2.947 F420.000
G1 X4.940 Y-3.092 F420.000
G1 X5.053 Y-3.150 F420.000
G1 X5.157 Y-3.192 F420.000
G1 X5.338 Y-3.232 F420.000
G1 X5.525 Y-3.235 F420.000
G1 X5.638 Y-3.208 F420.000
G1 X5.697 Y-3.158 F420.000
G1 X5.718 Y-3.123 F420.000
G1 X5.718 Y-3.123 F420.000
G1 X5.742 Y-3.040 F420.000
G1 X5.737 Y-2.980 F420.000
G0 X5.730 Y-2.965
G0 X5.645 Y-2.900
G0 X4.652 Y-2.317
G1 X4.630 Y-2.305 F420.000
G1 X4.567 Y-2.275 F420.000
G1 X4.530 Y-2.275 F420.000
G1 X4.478 Y-2.303 F420.000
G1 X4.423 Y-2.365 F420.000
G1 X4.423 Y-2.365 F420.000
G1 X4.348 Y-2.547 F420.000
G1 X4.338 Y-2.623 F420.000
G1 X4.380 Y-2.770 F420.000
G1 X4.473 Y-2.940 F420.000
G1 X4.630 Y-3.132 F420.000
G1 X4.825 Y-3.285 F420.000
G1 X4.940 Y-3.348 F420.000
G1 X5.043 Y-3.388 F420.000
G1 X5.205 Y-3.435 F420.000
G1 X5.430 Y-3.438 F420.000
G1 X5.505 Y-3.422 F420.000
G1 X5.570 Y-3.377 F420.000
G1 X5.590 Y-3.342 F420.000
G1 X5.590 Y-3.342 F420.000
G1 X5.615 Y-3.260 F420.000
G1 X5.610 Y-3.200 F420.000
G0 X5.603 Y-3.185
G0 X5.520 Y-3.118
G0 X4.553 Y-2.502
G1 X4.532 Y-2.487 F420.000
G1 X4.473 Y-2.455 F420.000
G1 X4.433 Y-2.453 F420.000
G1 X4.380 Y-2.478 F420.000
G1 X4.325 Y-2.540 F420.000
G1 X4.325 Y-2.540 F420.000
G1 X4.255 Y-2.683 F420.000
G1 X4.237 Y-2.757 F420.000
G1 X4.235 Y-2.795 F420.000
G1 X4.258 Y-2.908 F420.000
G1 X4.332 Y-3.085 F420.000
G1 X4.505 Y-3.315 F420.000
G1 X4.697 Y-3.473 F420.000
G1 X4.803 Y-3.535 F420.000
G1 X4.907 Y-3.585 F420.000
G1 X5.085 Y-3.635 F420.000
G1 X5.272 Y-3.647 F420.000
G1 X5.348 Y-3.640 F420.000
G1 X5.385 Y-3.630 F420.000
G1 X5.445 Y-3.580 F420.000
G1 X5.445 Y-3.580 F420.000
G1 X5.475 Y-3.498 F420.000
G1 X5.475 Y-3.438 F420.000
G0 X5.468 Y-3.420
G0 X5.388 Y-3.350
G0 X4.452 Y-2.685
G1 X4.433 Y-2.670 F420.000
G1 X4.372 Y-2.635 F420.000
G1 X4.335 Y-2.630 F420.000
G1 X4.280 Y-2.652 F420.000
G1 X4.220 Y-2.712 F420.000
G1 X4.220 Y-2.712 F420.000
G1 X4.162 Y-2.817 F420.000
G1 X4.135 Y-2.893 F420.000
G1 X4.128 Y-2.930 F420.000
G1 X4.160 Y-3.118 F420.000
G1 X4.235 Y-3.295 F420.000
G1 X4.383 Y-3.495 F420.000
G1 X4.555 Y-3.650 F420.000
G1 X4.668 Y-3.723 F420.000
G1 X4.770 Y-3.775 F420.000
G1 X4.907 Y-3.822 F420.000
G1 X5.095 Y-3.853 F420.000
G1 X5.207 Y-3.845 F420.000
G1 X5.245 Y-3.835 F420.000
G1 X5.280 Y-3.815 F420.000
G1 X5.330 Y-3.752 F420.000
G1 X5.330 Y-3.752 F420.000
G1 X5.360 Y-3.670 F420.000
G1 X5.360 Y-3.610 F420.000
G0 X5.353 Y-3.592
G0 X5.275 Y-3.518
G0 X4.362 Y-2.822
G1 X4.343 Y-2.808 F420.000
G1 X4.285 Y-2.770 F420.000
G1 X4.247 Y-2.765 F420.000
G1 X4.190 Y-2.785 F420.000
G1 X4.130 Y-2.842 F420.000
G1 X4.130 Y-2.842 F420.000
G1 X4.032 Y-3.013 F420.000
G1 X4.013 Y-3.087 F420.000
G1 X4.020 Y-3.200 F420.000
G1 X4.072 Y-3.385 F420.000
G1 X4.105 Y-3.455 F420.000
G1 X4.242 Y-3.663 F420.000
G1 X4.415 Y-3.828 F420.000
G1 X4.520 Y-3.900 F420.000
G1 X4.620 Y-3.958 F420.000
G1 X4.830 Y-4.030 F420.000
G1 X5.018 Y-4.048 F420.000
G1 X5.055 Y-4.045 F420.000
G1 X5.093 Y-4.035 F420.000
G1 X5.128 Y-4.015 F420.000
G1 X5.178 Y-3.955 F420.000
G1 X5.178 Y-3.955 F420.000
G1 X5.213 Y-3.877 F420.000
G1 X5.218 Y-3.817 F420.000
G0 X5.210 Y-3.800
G0 X5.135 Y-3.723
G0 X4.250 Y-3.002
G1 X4.230 Y-2.985 F420.000
G1 X4.173 Y-2.945 F420.000
G1 X4.135 Y-2.938 F420.000
G1 X4.077 Y-2.955 F420.000
G1 X4.013 Y-3.005 F420.000
G1 X4.013 Y-3.005 F420.000
G1 X3.910 Y-3.172 F420.000
G1 X3.890 Y-3.248 F420.000
G1 X3.900 Y-3.397 F420.000
G1 X3.960 Y-3.583 F420.000
G1 X4.082 Y-3.797 F420.000
G1 X4.240 Y-3.973 F420.000
G1 X4.335 Y-4.048 F420.000
G1 X4.430 Y-4.110 F420.000
G1 X4.558 Y-4.173 F420.000
G1 X4.713 Y-4.225 F420.000
G1 X4.862 Y-4.242 F420.000
G1 X4.900 Y-4.240 F420.000
G1 X4.938 Y-4.230 F420.000
G1 X4.970 Y-4.207 F420.000
G1 X4.997 Y-4.178 F420.000
G1 X4.995 Y-4.178 F420.000
G1 X5.032 Y-4.103 F420.000
G1 X5.040 Y-4.043 F420.000
G0 X5.032 Y-4.025
G0 X4.963 Y-3.942
G0 X4.117 Y-3.160
G1 X4.100 Y-3.143 F420.000
G1 X4.045 Y-3.100 F420.000
G1 X4.008 Y-3.092 F420.000
G1 X3.953 Y-3.110 F420.000
G1 X3.890 Y-3.163 F420.000
G1 X3.890 Y-3.163 F420.000
G1 X3.800 Y-3.295 F420.000
G1 X3.768 Y-3.368 F420.000
G1 X3.760 Y-3.405 F420.000
G1 X3.768 Y-3.555 F420.000
G1 X3.820 Y-3.743 F420.000
G1 X3.938 Y-3.960 F420.000
G1 X4.082 Y-4.133 F420.000
G1 X4.178 Y-4.215 F420.000
G1 X4.272 Y-4.282 F420.000
G1 X4.397 Y-4.353 F420.000
G1 X4.562 Y-4.412 F420.000
G1 X4.713 Y-4.430 F420.000
G1 X4.750 Y-4.428 F420.000
G1 X4.787 Y-4.415 F420.000
G1 X4.817 Y-4.390 F420.000
G1 X4.843 Y-4.360 F420.000
G1 X4.843 Y-4.360 F420.000
G1 X4.880 Y-4.285 F420.000
G1 X4.888 Y-4.225 F420.000
G0 X4.883 Y-4.207
G0 X4.812 Y-4.122
G0 X3.990 Y-3.322
G1 X3.973 Y-3.305 F420.000
G1 X3.920 Y-3.263 F420.000
G1 X3.882 Y-3.252 F420.000
G1 X3.825 Y-3.265 F420.000
G1 X3.760 Y-3.315 F420.000
G1 X3.760 Y-3.315 F420.000
G1 X3.670 Y-3.445 F420.000
G1 X3.638 Y-3.515 F420.000
G1 X3.627 Y-3.553 F420.000
G1 X3.627 Y-3.703 F420.000
G1 X3.672 Y-3.890 F420.000
G1 X3.783 Y-4.112 F420.000
G1 X3.938 Y-4.308 F420.000
G1 X4.032 Y-4.395 F420.000
G1 X4.125 Y-4.465 F420.000
G1 X4.322 Y-4.565 F420.000
G1 X4.510 Y-4.607 F420.000
G1 X4.548 Y-4.610 F420.000
G1 X4.585 Y-4.605 F420.000
G1 X4.622 Y-4.590 F420.000
G1 X4.680 Y-4.535 F420.000
G1 X4.680 Y-4.535 F420.000
G1 X4.725 Y-4.463 F420.000
G1 X4.737 Y-4.402 F420.000
G0 X4.732 Y-4.385
G0 X4.668 Y-4.300
G0 X3.860 Y-3.480
G1 X3.842 Y-3.462 F420.000
G1 X3.790 Y-3.417 F420.000
G1 X3.752 Y-3.405 F420.000
G1 X3.695 Y-3.417 F420.000
G1 X3.630 Y-3.465 F420.000
G1 X3.630 Y-3.465 F420.000
G1 X3.550 Y-3.555 F420.000
G1 X3.507 Y-3.623 F420.000
G1 X3.482 Y-3.697 F420.000
G1 X3.475 Y-3.810 F420.000
G1 X3.493 Y-3.960 F420.000
G1 X3.515 Y-4.035 F420.000
G1 X3.618 Y-4.260 F420.000
G1 X3.765 Y-4.460 F420.000
G1 X3.862 Y-4.555 F420.000
G1 X3.953 Y-4.628 F420.000
G1 X4.117 Y-4.723 F420.000
G1 X4.303 Y-4.777 F420.000
G1 X4.378 Y-4.785 F420.000
G1 X4.415 Y-4.777 F420.000
G1 X4.450 Y-4.760 F420.000
G1 X4.480 Y-4.735 F420.000
G1 X4.480 Y-4.735 F420.000
G1 X4.525 Y-4.662 F420.000
G1 X4.537 Y-4.603 F420.000
G0 X4.532 Y-4.582
G0 X4.473 Y-4.495
G0 X3.715 Y-3.638
G1 X3.697 Y-3.618 F420.000
G1 X3.647 Y-3.570 F420.000
G1 X3.612 Y-3.555 F420.000
G1 X3.555 Y-3.565 F420.000
G1 X3.485 Y-3.605 F420.000
G1 X3.485 Y-3.605 F420.000
G1 X3.360 Y-3.755 F420.000
G1 X3.330 Y-3.828 F420.000
G1 X3.317 Y-3.978 F420.000
G1 X3.333 Y-4.090 F420.000
G1 X3.353 Y-4.165 F420.000
G1 X3.442 Y-4.397 F420.000
G1 X3.583 Y-4.603 F420.000
G1 X3.670 Y-4.695 F420.000
G1 X3.752 Y-4.768 F420.000
G1 X3.902 Y-4.867 F420.000
G1 X4.045 Y-4.928 F420.000
G1 X4.157 Y-4.950 F420.000
G1 X4.195 Y-4.952 F420.000
G1 X4.232 Y-4.942 F420.000
G1 X4.268 Y-4.923 F420.000
G1 X4.298 Y-4.895 F420.000
G1 X4.298 Y-4.893 F420.000
G1 X4.345 Y-4.822 F420.000
G1 X4.360 Y-4.763 F420.000
G0 X4.357 Y-4.745
G0 X4.298 Y-4.655
G0 X3.567 Y-3.780
G1 X3.550 Y-3.760 F420.000
G1 X3.502 Y-3.712 F420.000
G1 X3.467 Y-3.697 F420.000
G1 X3.410 Y-3.703 F420.000
G1 X3.340 Y-3.743 F420.000
G1 X3.340 Y-3.743 F420.000
G1 X3.228 Y-3.857 F420.000
G1 X3.188 Y-3.925 F420.000
G1 X3.163 Y-4.037 F420.000
G1 X3.163 Y-4.188 F420.000
G1 X3.180 Y-4.300 F420.000
G1 X3.268 Y-4.532 F420.000
G1 X3.385 Y-4.723 F420.000
G1 X3.470 Y-4.820 F420.000
G1 X3.555 Y-4.900 F420.000
G1 X3.670 Y-4.987 F420.000
G1 X3.822 Y-5.072 F420.000
G1 X3.970 Y-5.112 F420.000
G1 X4.008 Y-5.112 F420.000
G1 X4.045 Y-5.103 F420.000
G1 X4.107 Y-5.055 F420.000
G1 X4.107 Y-5.055 F420.000
G1 X4.160 Y-4.987 F420.000
G1 X4.178 Y-4.930 F420.000
G0 X4.178 Y-4.912
G0 X4.122 Y-4.820
G0 X3.410 Y-3.913
G1 X3.395 Y-3.893 F420.000
G1 X3.350 Y-3.842 F420.000
G1 X3.315 Y-3.828 F420.000
G1 X3.257 Y-3.833 F420.000
G1 X3.188 Y-3.873 F420.000
G1 X3.188 Y-3.873 F420.000
G1 X3.098 Y-3.953 F420.000
G1 X3.047 Y-4.015 F420.000
G1 X3.018 Y-4.088 F420.000
G1 X2.995 Y-4.237 F420.000
G1 X3.010 Y-4.425 F420.000
G1 X3.087 Y-4.660 F420.000
G1 X3.195 Y-4.845 F420.000
G1 X3.272 Y-4.942 F420.000
G1 X3.353 Y-5.030 F420.000
G1 X3.482 Y-5.140 F420.000
G1 X3.615 Y-5.218 F420.000
G1 X3.763 Y-5.265 F420.000
G1 X3.800 Y-5.268 F420.000
G1 X3.837 Y-5.260 F420.000
G1 X3.873 Y-5.242 F420.000
G1 X3.902 Y-5.218 F420.000
G1 X3.902 Y-5.218 F420.000
G1 X3.955 Y-5.150 F420.000
G1 X3.975 Y-5.093 F420.000
G0 X3.973 Y-5.075
G0 X3.920 Y-4.980
G0 X3.255 Y-4.048
G1 X3.240 Y-4.027 F420.000
G1 X3.195 Y-3.975 F420.000
G1 X3.163 Y-3.958 F420.000
G1 X3.103 Y-3.960 F420.000
G1 X3.030 Y-3.995 F420.000
G1 X3.030 Y-3.995 F420.000
G1 X2.938 Y-4.072 F420.000
G1 X2.862 Y-4.165 F420.000
G1 X2.830 Y-4.275 F420.000
G1 X2.820 Y-4.463 F420.000
G1 X2.830 Y-4.537 F420.000
G1 X2.900 Y-4.775 F420.000
G1 X3.005 Y-4.978 F420.000
G1 X3.085 Y-5.088 F420.000
G1 X3.165 Y-5.178 F420.000
G1 X3.310 Y-5.298 F420.000
G1 X3.408 Y-5.357 F420.000
G1 X3.553 Y-5.410 F420.000
G1 X3.590 Y-5.415 F420.000
G1 X3.627 Y-5.407 F420.000
G1 X3.695 Y-5.365 F420.000
G1 X3.695 Y-5.365 F420.000
G1 X3.750 Y-5.303 F420.000
G1 X3.772 Y-5.247 F420.000
G0 X3.772 Y-5.230
G0 X3.723 Y-5.133
G0 X3.092 Y-4.180
G1 X3.078 Y-4.160 F420.000
G1 X3.035 Y-4.105 F420.000
G1 X3.000 Y-4.088 F420.000
G1 X2.942 Y-4.085 F420.000
G1 X2.868 Y-4.112 F420.000
G1 X2.868 Y-4.112 F420.000
G1 X2.772 Y-4.185 F420.000
G1 X2.717 Y-4.242 F420.000
G1 X2.678 Y-4.310 F420.000
G1 X2.647 Y-4.460 F420.000
G1 X2.645 Y-4.647 F420.000
G1 X2.705 Y-4.888 F420.000
G1 X2.788 Y-5.067 F420.000
G1 X2.857 Y-5.175 F420.000
G1 X2.930 Y-5.270 F420.000
G1 X3.053 Y-5.393 F420.000
G1 X3.240 Y-5.518 F420.000
G1 X3.350 Y-5.555 F420.000
G1 X3.388 Y-5.553 F420.000
G1 X3.425 Y-5.540 F420.000
G1 X3.493 Y-5.500 F420.000
G1 X3.493 Y-5.500 F420.000
G1 X3.550 Y-5.440 F420.000
G1 X3.575 Y-5.388 F420.000
G0 X3.578 Y-5.367
G0 X3.530 Y-5.270
G0 X2.922 Y-4.290
G1 X2.908 Y-4.268 F420.000
G1 X2.868 Y-4.213 F420.000
G1 X2.833 Y-4.195 F420.000
G1 X2.775 Y-4.195 F420.000
G1 X2.703 Y-4.225 F420.000
G1 X2.703 Y-4.225 F420.000
G1 X2.575 Y-4.325 F420.000
G1 X2.525 Y-4.388 F420.000
G1 X2.487 Y-4.500 F420.000
G1 X2.462 Y-4.688 F420.000
G1 X2.462 Y-4.763 F420.000
G1 X2.515 Y-5.005 F420.000
G1 X2.600 Y-5.202 F420.000
G1 X2.665 Y-5.312 F420.000
G1 X2.740 Y-5.412 F420.000
G1 X2.842 Y-5.520 F420.000
G1 X2.933 Y-5.593 F420.000
G1 X3.067 Y-5.665 F420.000
G1 X3.143 Y-5.685 F420.000
G1 X3.180 Y-5.683 F420.000
G1 X3.250 Y-5.645 F420.000
G1 X3.250 Y-5.645 F420.000
G1 X3.308 Y-5.585 F420.000
G1 X3.335 Y-5.530 F420.000
G0 X3.335 Y-5.513
G0 X3.295 Y-5.412
G0 X2.745 Y-4.407
G1 X2.732 Y-4.385 F420.000
G1 X2.695 Y-4.327 F420.000
G1 X2.663 Y-4.305 F420.000
G1 X2.605 Y-4.303 F420.000
G1 X2.530 Y-4.327 F420.000
G1 X2.530 Y-4.327 F420.000
G1 X2.400 Y-4.423 F420.000
G1 X2.345 Y-4.480 F420.000
G1 X2.292 Y-4.628 F420.000
G1 X2.268 Y-4.815 F420.000
G1 X2.268 Y-4.853 F420.000
G1 X2.310 Y-5.098 F420.000
G1 X2.393 Y-5.312 F420.000
G1 X2.455 Y-5.425 F420.000
G1 X2.527 Y-5.527 F420.000
G1 X2.630 Y-5.638 F420.000
G1 X2.750 Y-5.735 F420.000
G1 X2.885 Y-5.805 F420.000
G1 X2.922 Y-5.808 F420.000
G1 X2.960 Y-5.803 F420.000
G1 X3.030 Y-5.765 F420.000
G1 X3.030 Y-5.765 F420.000
G1 X3.092 Y-5.710 F420.000
G1 X3.120 Y-5.657 F420.000
G0 X3.123 Y-5.640
G0 X3.085 Y-5.537
G0 X2.572 Y-4.522
G1 X2.560 Y-4.500 F420.000
G1 X2.525 Y-4.442 F420.000
G1 X2.493 Y-4.418 F420.000
G1 X2.435 Y-4.407 F420.000
G1 X2.357 Y-4.425 F420.000
G1 X2.357 Y-4.425 F420.000
G1 X2.223 Y-4.515 F420.000
G1 X2.167 Y-4.572 F420.000
G1 X2.120 Y-4.683 F420.000
G1 X2.085 Y-4.832 F420.000
G1 X2.078 Y-4.945 F420.000
G1 X2.107 Y-5.192 F420.000
G1 X2.183 Y-5.405 F420.000
G1 X2.237 Y-5.513 F420.000
G1 X2.300 Y-5.615 F420.000
