(Exported by FreeCAD)
(Post Processor: grbl_post)
(Output Time:2024-03-15 17:31:50.115528)
(Begin preamble)
G17 G90
G21
(Block-name: Fixture)
(Block-expand: 0)
(Block-enable: 1)
(Begin operation: Fixture)
(Path: Fixture)
G54
(Finish operation: Fixture)
(Block-name: 2mm Endmill001)
(Block-expand: 0)
(Block-enable: 1)
(Begin operation: 2mm Endmill001)
(Path: 2mm Endmill001)
(2mm Endmill001)
(Begin toolchange)
( M6 T2 )
(Finish operation: 2mm Endmill001)
(Block-name: Adaptive)
(Block-expand: 0)
(Block-enable: 1)
(Begin operation: Adaptive)
(Path: Adaptive)
(Adaptive)
(Helix to depth: -4.000000)
G0 Z5.000
G0 X0.488 Y0.423 Z5.000
G0 X0.488 Y0.423 Z3.000
G1 X0.488 Y0.423 Z0.000
G1 X0.488 Y0.423 Z0.000
G1 X0.401 Y0.463 Z-0.009
G1 X0.307 Y0.485 Z-0.017
G1 X0.211 Y0.489 Z-0.026
G1 X0.116 Y0.474 Z-0.034
G1 X0.026 Y0.441 Z-0.043
G1 X-0.056 Y0.391 Z-0.052
G1 X-0.126 Y0.326 Z-0.060
G1 X-0.183 Y0.248 Z-0.069
G1 X-0.223 Y0.161 Z-0.077
G1 X-0.245 Y0.067 Z-0.086
G1 X-0.249 Y-0.029 Z-0.094
G1 X-0.234 Y-0.124 Z-0.103
G1 X-0.201 Y-0.214 Z-0.112
G1 X-0.151 Y-0.296 Z-0.120
G1 X-0.086 Y-0.366 Z-0.129
G1 X-0.008 Y-0.423 Z-0.137
G1 X0.079 Y-0.463 Z-0.146
G1 X0.173 Y-0.485 Z-0.155
G1 X0.269 Y-0.489 Z-0.163
G1 X0.364 Y-0.474 Z-0.172
G1 X0.454 Y-0.441 Z-0.180
G1 X0.536 Y-0.391 Z-0.189
G1 X0.606 Y-0.326 Z-0.198
G1 X0.663 Y-0.248 Z-0.206
G1 X0.703 Y-0.161 Z-0.215
G1 X0.725 Y-0.067 Z-0.223
G1 X0.729 Y0.029 Z-0.232
G1 X0.714 Y0.124 Z-0.240
G1 X0.681 Y0.214 Z-0.249
G1 X0.631 Y0.296 Z-0.258
G1 X0.566 Y0.366 Z-0.266
G1 X0.488 Y0.423 Z-0.275
G1 X0.401 Y0.463 Z-0.283
G1 X0.307 Y0.485 Z-0.292
G1 X0.211 Y0.489 Z-0.301
G1 X0.116 Y0.474 Z-0.309
G1 X0.026 Y0.441 Z-0.318
G1 X-0.056 Y0.391 Z-0.326
G1 X-0.126 Y0.326 Z-0.335
G1 X-0.183 Y0.248 Z-0.344
G1 X-0.223 Y0.161 Z-0.352
G1 X-0.245 Y0.067 Z-0.361
G1 X-0.249 Y-0.029 Z-0.369
G1 X-0.234 Y-0.124 Z-0.378
G1 X-0.201 Y-0.214 Z-0.387
G1 X-0.151 Y-0.296 Z-0.395
G1 X-0.086 Y-0.366 Z-0.404
G1 X-0.008 Y-0.423 Z-0.412
G1 X0.079 Y-0.463 Z-0.421
G1 X0.173 Y-0.485 Z-0.429
G1 X0.269 Y-0.489 Z-0.438
G1 X0.364 Y-0.474 Z-0.447
G1 X0.454 Y-0.441 Z-0.455
G1 X0.536 Y-0.391 Z-0.464
G1 X0.606 Y-0.326 Z-0.472
G1 X0.663 Y-0.248 Z-0.481
G1 X0.703 Y-0.161 Z-0.490
G1 X0.725 Y-0.067 Z-0.498
G1 X0.729 Y0.029 Z-0.507
G1 X0.714 Y0.124 Z-0.515
G1 X0.681 Y0.214 Z-0.524
G1 X0.631 Y0.296 Z-0.533
G1 X0.566 Y0.366 Z-0.541
G1 X0.488 Y0.423 Z-0.550
G1 X0.401 Y0.463 Z-0.558
G1 X0.307 Y0.485 Z-0.567
G1 X0.211 Y0.489 Z-0.575
G1 X0.116 Y0.474 Z-0.584
G1 X0.026 Y0.441 Z-0.593
G1 X-0.056 Y0.391 Z-0.601
G1 X-0.126 Y0.326 Z-0.610
G1 X-0.183 Y0.248 Z-0.618
G1 X-0.223 Y0.161 Z-0.627
G1 X-0.245 Y0.067 Z-0.636
G1 X-0.249 Y-0.029 Z-0.644
G1 X-0.234 Y-0.124 Z-0.653
G1 X-0.201 Y-0.214 Z-0.661
G1 X-0.151 Y-0.296 Z-0.670
G1 X-0.086 Y-0.366 Z-0.679
G1 X-0.008 Y-0.423 Z-0.687
G1 X0.079 Y-0.463 Z-0.696
G1 X0.173 Y-0.485 Z-0.704
G1 X0.269 Y-0.489 Z-0.713
G1 X0.364 Y-0.474 Z-0.721
G1 X0.454 Y-0.441 Z-0.730
G1 X0.536 Y-0.391 Z-0.739
G1 X0.606 Y-0.326 Z-0.747
G1 X0.663 Y-0.248 Z-0.756
G1 X0.703 Y-0.161 Z-0.764
G1 X0.725 Y-0.067 Z-0.773
G1 X0.729 Y0.029 Z-0.782
G1 X0.714 Y0.124 Z-0.790
G1 X0.681 Y0.214 Z-0.799
G1 X0.631 Y0.296 Z-0.807
G1 X0.566 Y0.366 Z-0.816
G1 X0.488 Y0.423 Z-0.825
G1 X0.401 Y0.463 Z-0.833
G1 X0.307 Y0.485 Z-0.842
G1 X0.211 Y0.489 Z-0.850
G1 X0.116 Y0.474 Z-0.859
G1 X0.026 Y0.441 Z-0.868
G1 X-0.056 Y0.391 Z-0.876
G1 X-0.126 Y0.326 Z-0.885
G1 X-0.183 Y0.248 Z-0.893
G1 X-0.223 Y0.161 Z-0.902
G1 X-0.245 Y0.067 Z-0.910
G1 X-0.249 Y-0.029 Z-0.919
G1 X-0.234 Y-0.124 Z-0.928
G1 X-0.201 Y-0.214 Z-0.936
G1 X-0.151 Y-0.296 Z-0.945
G1 X-0.086 Y-0.366 Z-0.953
G1 X-0.008 Y-0.423 Z-0.962
G1 X0.079 Y-0.463 Z-0.971
G1 X0.173 Y-0.485 Z-0.979
G1 X0.269 Y-0.489 Z-0.988
G1 X0.364 Y-0.474 Z-0.996
G1 X0.454 Y-0.441 Z-1.005
G1 X0.536 Y-0.391 Z-1.014
G1 X0.606 Y-0.326 Z-1.022
G1 X0.663 Y-0.248 Z-1.031
G1 X0.703 Y-0.161 Z-1.039
G1 X0.725 Y-0.067 Z-1.048
G1 X0.729 Y0.029 Z-1.056
G1 X0.714 Y0.124 Z-1.065
G1 X0.681 Y0.214 Z-1.074
G1 X0.631 Y0.296 Z-1.082
G1 X0.566 Y0.366 Z-1.091
G1 X0.488 Y0.423 Z-1.099
G1 X0.401 Y0.463 Z-1.108
G1 X0.307 Y0.485 Z-1.117
G1 X0.211 Y0.489 Z-1.125
G1 X0.116 Y0.474 Z-1.134
G1 X0.026 Y0.441 Z-1.142
G1 X-0.056 Y0.391 Z-1.151
G1 X-0.126 Y0.326 Z-1.160
G1 X-0.183 Y0.248 Z-1.168
G1 X-0.223 Y0.161 Z-1.177
G1 X-0.245 Y0.067 Z-1.185
G1 X-0.249 Y-0.029 Z-1.194
G1 X-0.234 Y-0.124 Z-1.202
G1 X-0.201 Y-0.214 Z-1.211
G1 X-0.151 Y-0.296 Z-1.220
G1 X-0.086 Y-0.366 Z-1.228
G1 X-0.008 Y-0.423 Z-1.237
G1 X0.079 Y-0.463 Z-1.245
G1 X0.173 Y-0.485 Z-1.254
G1 X0.269 Y-0.489 Z-1.263
G1 X0.364 Y-0.474 Z-1.271
G1 X0.454 Y-0.441 Z-1.280
G1 X0.536 Y-0.391 Z-1.288
G1 X0.606 Y-0.326 Z-1.297
G1 X0.663 Y-0.248 Z-1.306
G1 X0.703 Y-0.161 Z-1.314
G1 X0.725 Y-0.067 Z-1.323
G1 X0.729 Y0.029 Z-1.331
G1 X0.714 Y0.124 Z-1.340
G1 X0.681 Y0.214 Z-1.349
G1 X0.631 Y0.296 Z-1.357
G1 X0.566 Y0.366 Z-1.366
G1 X0.488 Y0.423 Z-1.374
G1 X0.401 Y0.463 Z-1.383
G1 X0.307 Y0.485 Z-1.391
G1 X0.211 Y0.489 Z-1.400
G1 X0.116 Y0.474 Z-1.409
G1 X0.026 Y0.441 Z-1.417
G1 X-0.056 Y0.391 Z-1.426
G1 X-0.126 Y0.326 Z-1.434
G1 X-0.183 Y0.248 Z-1.443
G1 X-0.223 Y0.161 Z-1.452
G1 X-0.245 Y0.067 Z-1.460
G1 X-0.249 Y-0.029 Z-1.469
G1 X-0.234 Y-0.124 Z-1.477
G1 X-0.201 Y-0.214 Z-1.486
G1 X-0.151 Y-0.296 Z-1.495
G1 X-0.086 Y-0.366 Z-1.503
G1 X-0.008 Y-0.423 Z-1.512
G1 X0.079 Y-0.463 Z-1.520
G1 X0.173 Y-0.485 Z-1.529
G1 X0.269 Y-0.489 Z-1.537
G1 X0.364 Y-0.474 Z-1.546
G1 X0.454 Y-0.441 Z-1.555
G1 X0.536 Y-0.391 Z-1.563
G1 X0.606 Y-0.326 Z-1.572
G1 X0.663 Y-0.248 Z-1.580
G1 X0.703 Y-0.161 Z-1.589
G1 X0.725 Y-0.067 Z-1.598
G1 X0.729 Y0.029 Z-1.606
G1 X0.714 Y0.124 Z-1.615
G1 X0.681 Y0.214 Z-1.623
G1 X0.631 Y0.296 Z-1.632
G1 X0.566 Y0.366 Z-1.641
G1 X0.488 Y0.423 Z-1.649
G1 X0.401 Y0.463 Z-1.658
G1 X0.307 Y0.485 Z-1.666
G1 X0.211 Y0.489 Z-1.675
G1 X0.116 Y0.474 Z-1.683
G1 X0.026 Y0.441 Z-1.692
G1 X-0.056 Y0.391 Z-1.701
G1 X-0.126 Y0.326 Z-1.709
G1 X-0.183 Y0.248 Z-1.718
G1 X-0.223 Y0.161 Z-1.726
G1 X-0.245 Y0.067 Z-1.735
G1 X-0.249 Y-0.029 Z-1.744
G1 X-0.234 Y-0.124 Z-1.752
G1 X-0.201 Y-0.214 Z-1.761
G1 X-0.151 Y-0.296 Z-1.769
G1 X-0.086 Y-0.366 Z-1.778
G1 X-0.008 Y-0.423 Z-1.787
G1 X0.079 Y-0.463 Z-1.795
G1 X0.173 Y-0.485 Z-1.804
G1 X0.269 Y-0.489 Z-1.812
G1 X0.364 Y-0.474 Z-1.821
G1 X0.454 Y-0.441 Z-1.829
G1 X0.536 Y-0.391 Z-1.838
G1 X0.606 Y-0.326 Z-1.847
G1 X0.663 Y-0.248 Z-1.855
G1 X0.703 Y-0.161 Z-1.864
G1 X0.725 Y-0.067 Z-1.872
G1 X0.729 Y0.029 Z-1.881
G1 X0.714 Y0.124 Z-1.890
G1 X0.681 Y0.214 Z-1.898
G1 X0.631 Y0.296 Z-1.907
G1 X0.566 Y0.366 Z-1.915
G1 X0.488 Y0.423 Z-1.924
G1 X0.401 Y0.463 Z-1.933
G1 X0.307 Y0.485 Z-1.941
G1 X0.211 Y0.489 Z-1.950
G1 X0.116 Y0.474 Z-1.958
G1 X0.026 Y0.441 Z-1.967
G1 X-0.056 Y0.391 Z-1.976
G1 X-0.126 Y0.326 Z-1.984
G1 X-0.183 Y0.248 Z-1.993
G1 X-0.223 Y0.161 Z-2.001
G1 X-0.245 Y0.067 Z-2.010
G1 X-0.249 Y-0.029 Z-2.018
G1 X-0.234 Y-0.124 Z-2.027
G1 X-0.201 Y-0.214 Z-2.036
G1 X-0.151 Y-0.296 Z-2.044
G1 X-0.086 Y-0.366 Z-2.053
G1 X-0.008 Y-0.423 Z-2.061
G1 X0.079 Y-0.463 Z-2.070
G1 X0.173 Y-0.485 Z-2.079
G1 X0.269 Y-0.489 Z-2.087
G1 X0.364 Y-0.474 Z-2.096
G1 X0.454 Y-0.441 Z-2.104
G1 X0.536 Y-0.391 Z-2.113
G1 X0.606 Y-0.326 Z-2.122
G1 X0.663 Y-0.248 Z-2.130
G1 X0.703 Y-0.161 Z-2.139
G1 X0.725 Y-0.067 Z-2.147
G1 X0.729 Y0.029 Z-2.156
G1 X0.714 Y0.124 Z-2.164
G1 X0.681 Y0.214 Z-2.173
G1 X0.631 Y0.296 Z-2.182
G1 X0.566 Y0.366 Z-2.190
G1 X0.488 Y0.423 Z-2.199
G1 X0.401 Y0.463 Z-2.207
G1 X0.307 Y0.485 Z-2.216
G1 X0.211 Y0.489 Z-2.225
G1 X0.116 Y0.474 Z-2.233
G1 X0.026 Y0.441 Z-2.242
G1 X-0.056 Y0.391 Z-2.250
G1 X-0.126 Y0.326 Z-2.259
G1 X-0.183 Y0.248 Z-2.268
G1 X-0.223 Y0.161 Z-2.276
G1 X-0.245 Y0.067 Z-2.285
G1 X-0.249 Y-0.029 Z-2.293
G1 X-0.234 Y-0.124 Z-2.302
G1 X-0.201 Y-0.214 Z-2.310
G1 X-0.151 Y-0.296 Z-2.319
G1 X-0.086 Y-0.366 Z-2.328
G1 X-0.008 Y-0.423 Z-2.336
G1 X0.079 Y-0.463 Z-2.345
G1 X0.173 Y-0.485 Z-2.353
G1 X0.269 Y-0.489 Z-2.362
G1 X0.364 Y-0.474 Z-2.371
G1 X0.454 Y-0.441 Z-2.379
G1 X0.536 Y-0.391 Z-2.388
G1 X0.606 Y-0.326 Z-2.396
G1 X0.663 Y-0.248 Z-2.405
G1 X0.703 Y-0.161 Z-2.414
G1 X0.725 Y-0.067 Z-2.422
G1 X0.729 Y0.029 Z-2.431
G1 X0.714 Y0.124 Z-2.439
G1 X0.681 Y0.214 Z-2.448
G1 X0.631 Y0.296 Z-2.457
G1 X0.566 Y0.366 Z-2.465
G1 X0.488 Y0.423 Z-2.474
G1 X0.401 Y0.463 Z-2.482
G1 X0.307 Y0.485 Z-2.491
G1 X0.211 Y0.489 Z-2.499
G1 X0.116 Y0.474 Z-2.508
G1 X0.026 Y0.441 Z-2.517
G1 X-0.056 Y0.391 Z-2.525
G1 X-0.126 Y0.326 Z-2.534
G1 X-0.183 Y0.248 Z-2.542
G1 X-0.223 Y0.161 Z-2.551
G1 X-0.245 Y0.067 Z-2.560
G1 X-0.249 Y-0.029 Z-2.568
G1 X-0.234 Y-0.124 Z-2.577
G1 X-0.201 Y-0.214 Z-2.585
G1 X-0.151 Y-0.296 Z-2.594
G1 X-0.086 Y-0.366 Z-2.603
G1 X-0.008 Y-0.423 Z-2.611
G1 X0.079 Y-0.463 Z-2.620
G1 X0.173 Y-0.485 Z-2.628
G1 X0.269 Y-0.489 Z-2.637
G1 X0.364 Y-0.474 Z-2.645
G1 X0.454 Y-0.441 Z-2.654
G1 X0.536 Y-0.391 Z-2.663
G1 X0.606 Y-0.326 Z-2.671
G1 X0.663 Y-0.248 Z-2.680
G1 X0.703 Y-0.161 Z-2.688
G1 X0.725 Y-0.067 Z-2.697
G1 X0.729 Y0.029 Z-2.706
G1 X0.714 Y0.124 Z-2.714
G1 X0.681 Y0.214 Z-2.723
G1 X0.631 Y0.296 Z-2.731
G1 X0.566 Y0.366 Z-2.740
G1 X0.488 Y0.423 Z-2.749
G1 X0.401 Y0.463 Z-2.757
G1 X0.307 Y0.485 Z-2.766
G1 X0.211 Y0.489 Z-2.774
G1 X0.116 Y0.474 Z-2.783
G1 X0.026 Y0.441 Z-2.791
G1 X-0.056 Y0.391 Z-2.800
G1 X-0.126 Y0.326 Z-2.809
G1 X-0.183 Y0.248 Z-2.817
G1 X-0.223 Y0.161 Z-2.826
G1 X-0.245 Y0.067 Z-2.834
G1 X-0.249 Y-0.029 Z-2.843
G1 X-0.234 Y-0.124 Z-2.852
G1 X-0.201 Y-0.214 Z-2.860
G1 X-0.151 Y-0.296 Z-2.869
G1 X-0.086 Y-0.366 Z-2.877
G1 X-0.008 Y-0.423 Z-2.886
G1 X0.079 Y-0.463 Z-2.895
G1 X0.173 Y-0.485 Z-2.903
G1 X0.269 Y-0.489 Z-2.912
G1 X0.364 Y-0.474 Z-2.920
G1 X0.454 Y-0.441 Z-2.929
G1 X0.536 Y-0.391 Z-2.937
G1 X0.606 Y-0.326 Z-2.946
G1 X0.663 Y-0.248 Z-2.955
G1 X0.703 Y-0.161 Z-2.963
G1 X0.725 Y-0.067 Z-2.972
G1 X0.729 Y0.029 Z-2.980
G1 X0.714 Y0.124 Z-2.989
G1 X0.681 Y0.214 Z-2.998
G1 X0.631 Y0.296 Z-3.006
G1 X0.566 Y0.366 Z-3.015
G1 X0.488 Y0.423 Z-3.023
G1 X0.401 Y0.463 Z-3.032
G1 X0.307 Y0.485 Z-3.041
G1 X0.211 Y0.489 Z-3.049
G1 X0.116 Y0.474 Z-3.058
G1 X0.026 Y0.441 Z-3.066
G1 X-0.056 Y0.391 Z-3.075
G1 X-0.126 Y0.326 Z-3.084
G1 X-0.183 Y0.248 Z-3.092
G1 X-0.223 Y0.161 Z-3.101
G1 X-0.245 Y0.067 Z-3.109
G1 X-0.249 Y-0.029 Z-3.118
G1 X-0.234 Y-0.124 Z-3.126
G1 X-0.201 Y-0.214 Z-3.135
G1 X-0.151 Y-0.296 Z-3.144
G1 X-0.086 Y-0.366 Z-3.152
G1 X-0.008 Y-0.423 Z-3.161
G1 X0.079 Y-0.463 Z-3.169
G1 X0.173 Y-0.485 Z-3.178
G1 X0.269 Y-0.489 Z-3.187
G1 X0.364 Y-0.474 Z-3.195
G1 X0.454 Y-0.441 Z-3.204
G1 X0.536 Y-0.391 Z-3.212
G1 X0.606 Y-0.326 Z-3.221
G1 X0.663 Y-0.248 Z-3.230
G1 X0.703 Y-0.161 Z-3.238
G1 X0.725 Y-0.067 Z-3.247
G1 X0.729 Y0.029 Z-3.255
G1 X0.714 Y0.124 Z-3.264
G1 X0.681 Y0.214 Z-3.272
G1 X0.631 Y0.296 Z-3.281
G1 X0.566 Y0.366 Z-3.290
G1 X0.488 Y0.423 Z-3.298
G1 X0.401 Y0.463 Z-3.307
G1 X0.307 Y0.485 Z-3.315
G1 X0.211 Y0.489 Z-3.324
G1 X0.116 Y0.474 Z-3.333
G1 X0.026 Y0.441 Z-3.341
G1 X-0.056 Y0.391 Z-3.350
G1 X-0.126 Y0.326 Z-3.358
G1 X-0.183 Y0.248 Z-3.367
G1 X-0.223 Y0.161 Z-3.376
G1 X-0.245 Y0.067 Z-3.384
G1 X-0.249 Y-0.029 Z-3.393
G1 X-0.234 Y-0.124 Z-3.401
G1 X-0.201 Y-0.214 Z-3.410
G1 X-0.151 Y-0.296 Z-3.418
G1 X-0.086 Y-0.366 Z-3.427
G1 X-0.008 Y-0.423 Z-3.436
G1 X0.079 Y-0.463 Z-3.444
G1 X0.173 Y-0.485 Z-3.453
G1 X0.269 Y-0.489 Z-3.461
G1 X0.364 Y-0.474 Z-3.470
G1 X0.454 Y-0.441 Z-3.479
G1 X0.536 Y-0.391 Z-3.487
G1 X0.606 Y-0.326 Z-3.496
G1 X0.663 Y-0.248 Z-3.504
G1 X0.703 Y-0.161 Z-3.513
G1 X0.725 Y-0.067 Z-3.522
G1 X0.729 Y0.029 Z-3.530
G1 X0.714 Y0.124 Z-3.539
G1 X0.681 Y0.214 Z-3.547
G1 X0.631 Y0.296 Z-3.556
G1 X0.566 Y0.366 Z-3.565
G1 X0.488 Y0.423 Z-3.573
G1 X0.401 Y0.463 Z-3.582
G1 X0.307 Y0.485 Z-3.590
G1 X0.211 Y0.489 Z-3.599
G1 X0.116 Y0.474 Z-3.607
G1 X0.026 Y0.441 Z-3.616
G1 X-0.056 Y0.391 Z-3.625
G1 X-0.126 Y0.326 Z-3.633
G1 X-0.183 Y0.248 Z-3.642
G1 X-0.223 Y0.161 Z-3.650
G1 X-0.245 Y0.067 Z-3.659
G1 X-0.249 Y-0.029 Z-3.668
G1 X-0.234 Y-0.124 Z-3.676
G1 X-0.201 Y-0.214 Z-3.685
G1 X-0.151 Y-0.296 Z-3.693
G1 X-0.086 Y-0.366 Z-3.702
G1 X-0.008 Y-0.423 Z-3.711
G1 X0.079 Y-0.463 Z-3.719
G1 X0.173 Y-0.485 Z-3.728
G1 X0.269 Y-0.489 Z-3.736
G1 X0.364 Y-0.474 Z-3.745
G1 X0.454 Y-0.441 Z-3.753
G1 X0.536 Y-0.391 Z-3.762
G1 X0.606 Y-0.326 Z-3.771
G1 X0.663 Y-0.248 Z-3.779
G1 X0.703 Y-0.161 Z-3.788
G1 X0.725 Y-0.067 Z-3.796
G1 X0.729 Y0.029 Z-3.805
G1 X0.714 Y0.124 Z-3.814
G1 X0.681 Y0.214 Z-3.822
G1 X0.631 Y0.296 Z-3.831
G1 X0.566 Y0.366 Z-3.839
G1 X0.488 Y0.423 Z-3.848
G1 X0.401 Y0.463 Z-3.857
G1 X0.307 Y0.485 Z-3.865
G1 X0.211 Y0.489 Z-3.874
G1 X0.116 Y0.474 Z-3.882
G1 X0.026 Y0.441 Z-3.891
G1 X-0.056 Y0.391 Z-3.899
G1 X-0.126 Y0.326 Z-3.908
G1 X-0.183 Y0.248 Z-3.917
G1 X-0.223 Y0.161 Z-3.925
G1 X-0.245 Y0.067 Z-3.934
G1 X-0.249 Y-0.029 Z-3.942
G1 X-0.234 Y-0.124 Z-3.951
G1 X-0.201 Y-0.214 Z-3.960
G1 X-0.151 Y-0.296 Z-3.968
G1 X-0.086 Y-0.366 Z-3.977
G1 X-0.008 Y-0.423 Z-3.985
G1 X0.079 Y-0.463 Z-3.994
G1 X0.173 Y-0.485 Z-4.000
G1 X0.269 Y-0.489 Z-4.000
G1 X0.364 Y-0.474 Z-4.000
G1 X0.454 Y-0.441 Z-4.000
G1 X0.536 Y-0.391 Z-4.000
G1 X0.606 Y-0.326 Z-4.000
G1 X0.663 Y-0.248 Z-4.000
G1 X0.703 Y-0.161 Z-4.000
G1 X0.725 Y-0.067 Z-4.000
G1 X0.729 Y0.029 Z-4.000
G1 X0.714 Y0.124 Z-4.000
G1 X0.681 Y0.214 Z-4.000
G1 X0.631 Y0.296 Z-4.000
G1 X0.566 Y0.366 Z-4.000
G1 X0.488 Y0.423 Z-4.000
G1 X0.401 Y0.463 Z-4.000
G1 X0.307 Y0.485 Z-4.000
G1 X0.211 Y0.489 Z-4.000
G1 X0.116 Y0.474 Z-4.000
G1 X0.026 Y0.441 Z-4.000
G1 X-0.056 Y0.391 Z-4.000
G1 X-0.126 Y0.326 Z-4.000
G1 X-0.183 Y0.248 Z-4.000
G1 X-0.223 Y0.161 Z-4.000
G1 X-0.245 Y0.067 Z-4.000
G1 X-0.249 Y-0.029 Z-4.000
G1 X-0.234 Y-0.124 Z-4.000
G1 X-0.201 Y-0.214 Z-4.000
G1 X-0.151 Y-0.296 Z-4.000
G1 X-0.086 Y-0.366 Z-4.000
G1 X-0.008 Y-0.423 Z-4.000
G1 X0.079 Y-0.463 Z-4.000
(Adaptive - depth: -4.000000)
G1 X0.240 Y-0.500
G1 X0.270 Y-0.525
G1 X0.345 Y-0.545
G1 X0.420 Y-0.547
G1 X0.495 Y-0.532
G1 X0.568 Y-0.500
G1 X0.735 Y-0.383
G1 X0.820 Y-0.265
G1 X0.850 Y-0.188
G1 X0.868 Y-0.115
G1 X0.882 Y-0.015
G1 X0.873 Y0.130
G1 X0.840 Y0.247
G1 X0.792 Y0.338
G1 X0.738 Y0.415
G1 X0.655 Y0.497
G1 X0.557 Y0.568
G1 X0.445 Y0.618
G1 X0.338 Y0.642
G1 X0.235 Y0.650
G1 X0.125 Y0.640
G1 X0.007 Y0.605
G1 X-0.092 Y0.560
G1 X-0.193 Y0.490
G1 X-0.275 Y0.407
G1 X-0.338 Y0.307
G1 X-0.378 Y0.217
G1 X-0.403 Y0.110
G1 X-0.410 Y0.003
G1 X-0.400 Y-0.117
G1 X-0.367 Y-0.233
G1 X-0.315 Y-0.338
G1 X-0.253 Y-0.425
G1 X-0.170 Y-0.505
G1 X-0.080 Y-0.573
G1 X0.037 Y-0.642
G1 X0.223 Y-0.693
G1 X0.372 Y-0.705
G1 X0.485 Y-0.690
G1 X0.522 Y-0.680
G1 X0.752 Y-0.583
G1 X0.873 Y-0.472
G1 X0.965 Y-0.333
G1 X1.018 Y-0.207
G1 X1.048 Y-0.070
G1 X1.055 Y0.048
G1 X1.042 Y0.160
G1 X1.010 Y0.280
G1 X0.958 Y0.398
G1 X0.890 Y0.500
G1 X0.807 Y0.595
G1 X0.703 Y0.680
G1 X0.593 Y0.745
G1 X0.470 Y0.790
G1 X0.355 Y0.815
G1 X0.230 Y0.823
G1 X0.105 Y0.812
G1 X-0.028 Y0.780
G1 X-0.145 Y0.735
G1 X-0.265 Y0.660
G1 X-0.355 Y0.580
G1 X-0.430 Y0.490
G1 X-0.495 Y0.383
G1 X-0.545 Y0.260
G1 X-0.575 Y0.138
G1 X-0.585 Y0.010
G1 X-0.578 Y-0.117
G1 X-0.550 Y-0.250
G1 X-0.505 Y-0.372
G1 X-0.435 Y-0.485
G1 X-0.365 Y-0.575
G1 X-0.265 Y-0.672
G1 X-0.150 Y-0.752
G1 X-0.033 Y-0.812
G1 X0.095 Y-0.860
G1 X0.245 Y-0.890
G1 X0.383 Y-0.890
G1 X0.495 Y-0.880
G1 X0.640 Y-0.843
G1 X0.762 Y-0.787
G1 X0.875 Y-0.720
G1 X0.978 Y-0.627
G1 X1.093 Y-0.458
G1 X1.183 Y-0.233
G1 X1.215 Y0.005
G1 X1.202 Y0.193
G1 X1.153 Y0.380
G1 X1.060 Y0.552
G1 X0.932 Y0.705
G1 X0.840 Y0.785
G1 X0.632 Y0.925
G1 X0.395 Y1.002
G1 X0.287 Y1.015
G1 X0.193 Y1.018
G1 X0.068 Y1.005
G1 X-0.080 Y0.970
G1 X-0.225 Y0.912
G1 X-0.350 Y0.838
G1 X-0.455 Y0.755
G1 X-0.555 Y0.650
G1 X-0.635 Y0.535
G1 X-0.700 Y0.410
G1 X-0.748 Y0.210
G1 X-0.762 Y-0.065
G1 X-0.743 Y-0.215
G1 X-0.665 Y-0.438
G1 X-0.522 Y-0.688
G1 X-0.347 Y-0.865
G1 X-0.250 Y-0.930
G1 X-0.163 Y-0.980
G1 X-0.037 Y-1.035
G1 X0.133 Y-1.080
G1 X0.290 Y-1.103
G1 X0.480 Y-1.093
G1 X0.667 Y-1.045
G1 X0.812 Y-0.983
G1 X1.008 Y-0.848
G1 X1.167 Y-0.670
G1 X1.270 Y-0.500
G1 X1.345 Y-0.312
G1 X1.390 Y-0.072
G1 X1.390 Y0.155
G1 X1.353 Y0.343
G1 X1.265 Y0.562
G1 X1.105 Y0.787
G1 X0.993 Y0.902
G1 X0.830 Y1.020
G1 X0.610 Y1.125
G1 X0.412 Y1.177
G1 X0.172 Y1.192
G1 X-0.100 Y1.160
G1 X-0.212 Y1.127
G1 X-0.440 Y1.025
G1 X-0.613 Y0.897
G1 X-0.695 Y0.810
G1 X-0.800 Y0.637
G1 X-0.905 Y0.375
G1 X-0.948 Y0.135
G1 X-0.945 Y-0.135
G1 X-0.905 Y-0.360
G1 X-0.800 Y-0.615
G1 X-0.695 Y-0.782
G1 X-0.475 Y-1.028
G1 X-0.270 Y-1.170
G1 X0.037 Y-1.268
G1 X0.300 Y-1.305
G1 X0.525 Y-1.292
G1 X0.713 Y-1.245
G1 X0.887 Y-1.155
G1 X1.045 Y-1.038
G1 X1.202 Y-0.858
G1 X1.357 Y-0.578
G1 X1.452 Y-0.265
G1 X1.472 Y-0.105
G1 X1.472 Y0.087
G1 X1.410 Y0.425
G1 X1.357 Y0.575
G1 X1.268 Y0.748
G1 X1.185 Y0.882
G1 X0.963 Y1.117
G1 X0.728 Y1.270
G1 X0.540 Y1.343
G1 X0.340 Y1.380
G1 X0.060 Y1.383
G1 X-0.205 Y1.345
G1 X-0.427 Y1.268
G1 X-0.532 Y1.212
G1 X-0.720 Y1.065
G1 X-0.853 Y0.915
G1 X-0.940 Y0.780
G1 X-0.980 Y0.662
G1 X-0.975 Y-0.540
G1 X-0.945 Y-0.690
G1 X-0.855 Y-0.868
G1 X-0.685 Y-1.087
G1 X-0.537 Y-1.218
G1 X-0.330 Y-1.343
G1 X-0.102 Y-1.435
G1 X0.128 Y-1.470
G1 X0.390 Y-1.425
G1 X0.578 Y-1.357
G1 X0.752 Y-1.270
G1 X0.978 Y-1.107
G1 X0.978 Y-1.107
G1 X1.020 Y-1.035
G1 X1.032 Y-0.973
G0 X1.035 Y-0.953
G0 X0.755 Y1.077
G1 X0.752 Y1.103
G1 X0.725 Y1.225
G1 X0.677 Y1.292
G1 X0.630 Y1.333
G1 X0.630 Y1.333
G1 X0.560 Y1.367
G1 X0.365 Y1.430
G1 X0.205 Y1.465
G1 X0.005 Y1.478
G1 X-0.333 Y1.438
G1 X-0.595 Y1.347
G1 X-0.800 Y1.230
G1 X-0.948 Y1.097
G1 X-0.968 Y1.062
G1 X-0.980 Y1.025
G1 X-0.980 Y0.705
G1 X-0.980 Y0.705
G1 X-0.978 Y0.695
G0 X-0.975 Y0.693
G0 X-0.935 Y0.932
G1 X-0.932 Y0.953
G1 X-0.915 Y1.123
G1 X-0.943 Y1.130
G1 X-0.943 Y1.130
G1 X-0.970 Y1.103
G1 X-0.970 Y1.103
G1 X-0.973 Y0.995
G1 X-0.963 Y0.955
G0 X-0.955 Y0.935
G0 X-0.757 Y0.603
G0 X-0.703 Y0.185
G0 X-0.738 Y-0.152
G0 X-0.860 Y-0.385
G1 X-0.870 Y-0.403
G1 X-0.910 Y-0.475
G1 X-0.963 Y-0.568
G1 X-0.980 Y-0.652
G1 X-0.980 Y-0.652
G1 X-0.970 Y-0.877
G1 X-0.940 Y-0.990
G1 X-0.905 Y-1.062
G1 X-0.815 Y-1.190
G1 X-0.695 Y-1.295
G1 X-0.550 Y-1.370
G1 X-0.438 Y-1.410
G1 X-0.117 Y-1.472
G1 X-0.037 Y-1.475
G1 X-0.037 Y-1.475
G1 X0.040 Y-1.458
G1 X0.072 Y-1.440
G1 X0.083 Y-1.430
G0 X0.085 Y-1.420
G0 X0.040 Y-1.375
G0 X-0.815 Y-0.835
G1 X-0.835 Y-0.823
G1 X-0.895 Y-0.795
G1 X-0.927 Y-0.802
G1 X-0.963 Y-0.850
G1 X-0.980 Y-0.932
G1 X-0.980 Y-0.932
G1 X-0.978 Y-1.083
G1 X-0.960 Y-1.117
G1 X-0.797 Y-1.240
G1 X-0.797 Y-1.240
G1 X-0.785 Y-1.238
G1 X-0.777 Y-1.230
G1 X-0.777 Y-1.200
G1 X-0.792 Y-1.180
G1 X-0.823 Y-1.183
G1 X-0.845 Y-1.200
G1 X-0.843 Y-1.235
G1 X-0.843 Y-1.235
G1 X-0.680 Y-1.330
G1 X-0.505 Y-1.407
G1 X-0.440 Y-1.430
G1 X-0.220 Y-1.480
G1 X-0.138 Y-1.492
G1 X-0.005 Y-1.498
G1 X0.170 Y-1.488
G1 X0.335 Y-1.458
G1 X0.500 Y-1.410
G1 X0.600 Y-1.370
G1 X0.757 Y-1.290
G1 X0.963 Y-1.147
G1 X1.167 Y-0.932
G1 X1.235 Y-0.848
G1 X1.288 Y-0.762
G1 X1.363 Y-0.613
G1 X1.415 Y-0.482
G1 X1.455 Y-0.343
G1 X1.480 Y-0.220
G1 X1.498 Y0.013
G1 X1.490 Y0.113
G1 X1.445 Y0.372
G1 X1.427 Y0.438
G1 X1.365 Y0.603
G1 X1.315 Y0.708
G1 X1.188 Y0.912
G1 X1.087 Y1.030
G1 X0.953 Y1.155
G1 X0.755 Y1.292
G1 X0.608 Y1.367
G1 X0.417 Y1.438
G1 X0.235 Y1.480
G1 X0.170 Y1.490
G1 X-0.013 Y1.498
G1 X-0.250 Y1.470
G1 X-0.355 Y1.450
G1 X-0.588 Y1.375
G1 X-0.670 Y1.335
G1 X-0.802 Y1.260
G1 X-0.875 Y1.212
G1 X-0.975 Y1.127
G1 X-1.000 Y1.087
G1 X-0.995 Y-1.100
G1 X-0.950 Y-1.155
G1 X-0.843 Y-1.235
G1 X-0.843 Y-1.235
G0 Z5.000
(Helix to depth: -5.000000)
G0 Z5.000
G0 X0.669 Y0.237 Z5.000
G0 X0.669 Y0.237 Z3.000
G1 X0.669 Y0.237 Z-4.000
G1 X0.669 Y0.237 Z-4.000
G1 X0.614 Y0.316 Z-4.009
G1 X0.545 Y0.383 Z-4.017
G1 X0.465 Y0.435 Z-4.026
G1 X0.375 Y0.471 Z-4.034
G1 X0.281 Y0.488 Z-4.043
G1 X0.185 Y0.487 Z-4.052
G1 X0.091 Y0.467 Z-4.060
G1 X0.003 Y0.429 Z-4.069
G1 X-0.076 Y0.374 Z-4.077
G1 X-0.143 Y0.305 Z-4.086
G1 X-0.195 Y0.225 Z-4.094
G1 X-0.231 Y0.135 Z-4.103
G1 X-0.248 Y0.041 Z-4.112
G1 X-0.247 Y-0.055 Z-4.120
G1 X-0.227 Y-0.149 Z-4.129
G1 X-0.189 Y-0.237 Z-4.137
G1 X-0.134 Y-0.316 Z-4.146
G1 X-0.065 Y-0.383 Z-4.155
G1 X0.015 Y-0.435 Z-4.163
G1 X0.105 Y-0.471 Z-4.172
G1 X0.199 Y-0.488 Z-4.180
G1 X0.295 Y-0.487 Z-4.189
G1 X0.389 Y-0.467 Z-4.198
G1 X0.477 Y-0.429 Z-4.206
G1 X0.556 Y-0.374 Z-4.215
G1 X0.623 Y-0.305 Z-4.223
G1 X0.675 Y-0.225 Z-4.232
G1 X0.711 Y-0.135 Z-4.240
G1 X0.728 Y-0.041 Z-4.249
G1 X0.727 Y0.055 Z-4.258
G1 X0.707 Y0.149 Z-4.266
G1 X0.669 Y0.237 Z-4.275
G1 X0.614 Y0.316 Z-4.283
G1 X0.545 Y0.383 Z-4.292
G1 X0.465 Y0.435 Z-4.301
G1 X0.375 Y0.471 Z-4.309
G1 X0.281 Y0.488 Z-4.318
G1 X0.185 Y0.487 Z-4.326
G1 X0.091 Y0.467 Z-4.335
G1 X0.003 Y0.429 Z-4.344
G1 X-0.076 Y0.374 Z-4.352
G1 X-0.143 Y0.305 Z-4.361
G1 X-0.195 Y0.225 Z-4.369
G1 X-0.231 Y0.135 Z-4.378
G1 X-0.248 Y0.041 Z-4.387
G1 X-0.247 Y-0.055 Z-4.395
G1 X-0.227 Y-0.149 Z-4.404
G1 X-0.189 Y-0.237 Z-4.412
G1 X-0.134 Y-0.316 Z-4.421
G1 X-0.065 Y-0.383 Z-4.429
G1 X0.015 Y-0.435 Z-4.438
G1 X0.105 Y-0.471 Z-4.447
G1 X0.199 Y-0.488 Z-4.455
G1 X0.295 Y-0.487 Z-4.464
G1 X0.389 Y-0.467 Z-4.472
G1 X0.477 Y-0.429 Z-4.481
G1 X0.556 Y-0.374 Z-4.490
G1 X0.623 Y-0.305 Z-4.498
G1 X0.675 Y-0.225 Z-4.507
G1 X0.711 Y-0.135 Z-4.515
G1 X0.728 Y-0.041 Z-4.524
G1 X0.727 Y0.055 Z-4.533
G1 X0.707 Y0.149 Z-4.541
G1 X0.669 Y0.237 Z-4.550
G1 X0.614 Y0.316 Z-4.558
G1 X0.545 Y0.383 Z-4.567
G1 X0.465 Y0.435 Z-4.575
G1 X0.375 Y0.471 Z-4.584
G1 X0.281 Y0.488 Z-4.593
G1 X0.185 Y0.487 Z-4.601
G1 X0.091 Y0.467 Z-4.610
G1 X0.003 Y0.429 Z-4.618
G1 X-0.076 Y0.374 Z-4.627
G1 X-0.143 Y0.305 Z-4.636
G1 X-0.195 Y0.225 Z-4.644
G1 X-0.231 Y0.135 Z-4.653
G1 X-0.248 Y0.041 Z-4.661
G1 X-0.247 Y-0.055 Z-4.670
G1 X-0.227 Y-0.149 Z-4.679
G1 X-0.189 Y-0.237 Z-4.687
G1 X-0.134 Y-0.316 Z-4.696
G1 X-0.065 Y-0.383 Z-4.704
G1 X0.015 Y-0.435 Z-4.713
G1 X0.105 Y-0.471 Z-4.721
G1 X0.199 Y-0.488 Z-4.730
G1 X0.295 Y-0.487 Z-4.739
G1 X0.389 Y-0.467 Z-4.747
G1 X0.477 Y-0.429 Z-4.756
G1 X0.556 Y-0.374 Z-4.764
G1 X0.623 Y-0.305 Z-4.773
G1 X0.675 Y-0.225 Z-4.782
G1 X0.711 Y-0.135 Z-4.790
G1 X0.728 Y-0.041 Z-4.799
G1 X0.727 Y0.055 Z-4.807
G1 X0.707 Y0.149 Z-4.816
G1 X0.669 Y0.237 Z-4.825
G1 X0.614 Y0.316 Z-4.833
G1 X0.545 Y0.383 Z-4.842
G1 X0.465 Y0.435 Z-4.850
G1 X0.375 Y0.471 Z-4.859
G1 X0.281 Y0.488 Z-4.868
G1 X0.185 Y0.487 Z-4.876
G1 X0.091 Y0.467 Z-4.885
G1 X0.003 Y0.429 Z-4.893
G1 X-0.076 Y0.374 Z-4.902
G1 X-0.143 Y0.305 Z-4.910
G1 X-0.195 Y0.225 Z-4.919
G1 X-0.231 Y0.135 Z-4.928
G1 X-0.248 Y0.041 Z-4.936
G1 X-0.247 Y-0.055 Z-4.945
G1 X-0.227 Y-0.149 Z-4.953
G1 X-0.189 Y-0.237 Z-4.962
G1 X-0.134 Y-0.316 Z-4.971
G1 X-0.065 Y-0.383 Z-4.979
G1 X0.015 Y-0.435 Z-4.988
G1 X0.105 Y-0.471 Z-4.996
G1 X0.199 Y-0.488 Z-5.000
G1 X0.295 Y-0.487 Z-5.000
G1 X0.389 Y-0.467 Z-5.000
G1 X0.477 Y-0.429 Z-5.000
G1 X0.556 Y-0.374 Z-5.000
G1 X0.623 Y-0.305 Z-5.000
G1 X0.675 Y-0.225 Z-5.000
G1 X0.711 Y-0.135 Z-5.000
G1 X0.728 Y-0.041 Z-5.000
G1 X0.727 Y0.055 Z-5.000
G1 X0.707 Y0.149 Z-5.000
G1 X0.669 Y0.237 Z-5.000
G1 X0.614 Y0.316 Z-5.000
G1 X0.545 Y0.383 Z-5.000
G1 X0.465 Y0.435 Z-5.000
G1 X0.375 Y0.471 Z-5.000
G1 X0.281 Y0.488 Z-5.000
G1 X0.185 Y0.487 Z-5.000
G1 X0.091 Y0.467 Z-5.000
G1 X0.003 Y0.429 Z-5.000
G1 X-0.076 Y0.374 Z-5.000
G1 X-0.143 Y0.305 Z-5.000
G1 X-0.195 Y0.225 Z-5.000
G1 X-0.231 Y0.135 Z-5.000
G1 X-0.248 Y0.041 Z-5.000
G1 X-0.247 Y-0.055 Z-5.000
G1 X-0.227 Y-0.149 Z-5.000
G1 X-0.189 Y-0.237 Z-5.000
G1 X-0.134 Y-0.316 Z-5.000
G1 X-0.065 Y-0.383 Z-5.000
G1 X0.015 Y-0.435 Z-5.000
G1 X0.105 Y-0.471 Z-5.000
(Adaptive - depth: -5.000000)
G1 X0.240 Y-0.500
G1 X0.270 Y-0.525
G1 X0.345 Y-0.545
G1 X0.420 Y-0.547
G1 X0.495 Y-0.532
G1 X0.568 Y-0.500
G1 X0.735 Y-0.383
G1 X0.820 Y-0.265
G1 X0.850 Y-0.188
G1 X0.868 Y-0.115
G1 X0.882 Y-0.015
G1 X0.873 Y0.130
G1 X0.840 Y0.247
G1 X0.792 Y0.338
G1 X0.738 Y0.415
G1 X0.655 Y0.497
G1 X0.557 Y0.568
G1 X0.445 Y0.618
G1 X0.338 Y0.642
G1 X0.235 Y0.650
G1 X0.125 Y0.640
G1 X0.007 Y0.605
G1 X-0.092 Y0.560
G1 X-0.193 Y0.490
G1 X-0.275 Y0.407
G1 X-0.338 Y0.307
G1 X-0.378 Y0.217
G1 X-0.403 Y0.110
G1 X-0.410 Y0.003
G1 X-0.400 Y-0.117
G1 X-0.367 Y-0.233
G1 X-0.315 Y-0.338
G1 X-0.253 Y-0.425
G1 X-0.170 Y-0.505
G1 X-0.080 Y-0.573
G1 X0.037 Y-0.642
G1 X0.223 Y-0.693
G1 X0.372 Y-0.705
G1 X0.485 Y-0.690
G1 X0.522 Y-0.680
G1 X0.752 Y-0.583
G1 X0.873 Y-0.472
G1 X0.965 Y-0.333
G1 X1.018 Y-0.207
G1 X1.048 Y-0.070
G1 X1.055 Y0.048
G1 X1.042 Y0.160
G1 X1.010 Y0.280
G1 X0.958 Y0.398
G1 X0.890 Y0.500
G1 X0.807 Y0.595
G1 X0.703 Y0.680
G1 X0.593 Y0.745
G1 X0.470 Y0.790
G1 X0.355 Y0.815
G1 X0.230 Y0.823
G1 X0.105 Y0.812
G1 X-0.028 Y0.780
G1 X-0.145 Y0.735
G1 X-0.265 Y0.660
G1 X-0.355 Y0.580
G1 X-0.430 Y0.490
G1 X-0.495 Y0.383
G1 X-0.545 Y0.260
G1 X-0.575 Y0.138
G1 X-0.585 Y0.010
G1 X-0.578 Y-0.117
G1 X-0.550 Y-0.250
G1 X-0.505 Y-0.372
G1 X-0.435 Y-0.485
G1 X-0.365 Y-0.575
G1 X-0.265 Y-0.672
G1 X-0.150 Y-0.752
G1 X-0.033 Y-0.812
G1 X0.095 Y-0.860
G1 X0.245 Y-0.890
G1 X0.383 Y-0.890
G1 X0.495 Y-0.880
G1 X0.640 Y-0.843
G1 X0.762 Y-0.787
G1 X0.875 Y-0.720
G1 X0.978 Y-0.627
G1 X1.093 Y-0.458
G1 X1.183 Y-0.233
G1 X1.215 Y0.005
G1 X1.202 Y0.193
G1 X1.153 Y0.380
G1 X1.060 Y0.552
G1 X0.932 Y0.705
G1 X0.840 Y0.785
G1 X0.632 Y0.925
G1 X0.395 Y1.002
G1 X0.287 Y1.015
G1 X0.193 Y1.018
G1 X0.068 Y1.005
G1 X-0.080 Y0.970
G1 X-0.225 Y0.912
G1 X-0.350 Y0.838
G1 X-0.455 Y0.755
G1 X-0.555 Y0.650
G1 X-0.635 Y0.535
G1 X-0.700 Y0.410
G1 X-0.748 Y0.210
G1 X-0.762 Y-0.065
G1 X-0.743 Y-0.215
G1 X-0.665 Y-0.438
G1 X-0.522 Y-0.688
G1 X-0.347 Y-0.865
G1 X-0.250 Y-0.930
G1 X-0.163 Y-0.980
G1 X-0.037 Y-1.035
G1 X0.133 Y-1.080
G1 X0.290 Y-1.103
G1 X0.480 Y-1.093
G1 X0.667 Y-1.045
G1 X0.812 Y-0.983
G1 X1.008 Y-0.848
G1 X1.167 Y-0.670
G1 X1.270 Y-0.500
G1 X1.345 Y-0.312
G1 X1.390 Y-0.072
G1 X1.390 Y0.155
G1 X1.353 Y0.343
G1 X1.265 Y0.562
G1 X1.105 Y0.787
G1 X0.993 Y0.902
G1 X0.830 Y1.020
G1 X0.610 Y1.125
G1 X0.412 Y1.177
G1 X0.172 Y1.192
G1 X-0.100 Y1.160
G1 X-0.212 Y1.127
G1 X-0.440 Y1.025
G1 X-0.613 Y0.897
G1 X-0.695 Y0.810
G1 X-0.800 Y0.637
G1 X-0.905 Y0.375
G1 X-0.948 Y0.135
G1 X-0.945 Y-0.135
G1 X-0.905 Y-0.360
G1 X-0.800 Y-0.615
G1 X-0.695 Y-0.782
G1 X-0.475 Y-1.028
G1 X-0.270 Y-1.170
G1 X0.037 Y-1.268
G1 X0.300 Y-1.305
G1 X0.525 Y-1.292
G1 X0.713 Y-1.245
G1 X0.887 Y-1.155
G1 X1.045 Y-1.038
G1 X1.202 Y-0.858
G1 X1.357 Y-0.578
G1 X1.452 Y-0.265
G1 X1.472 Y-0.105
G1 X1.472 Y0.087
G1 X1.410 Y0.425
G1 X1.357 Y0.575
G1 X1.268 Y0.748
G1 X1.185 Y0.882
G1 X0.963 Y1.117
G1 X0.728 Y1.270
G1 X0.540 Y1.343
G1 X0.340 Y1.380
G1 X0.060 Y1.383
G1 X-0.205 Y1.345
G1 X-0.427 Y1.268
G1 X-0.532 Y1.212
G1 X-0.720 Y1.065
G1 X-0.853 Y0.915
G1 X-0.940 Y0.780
G1 X-0.980 Y0.662
G1 X-0.975 Y-0.540
G1 X-0.945 Y-0.690
G1 X-0.855 Y-0.868
G1 X-0.685 Y-1.087
G1 X-0.537 Y-1.218
G1 X-0.330 Y-1.343
G1 X-0.102 Y-1.435
G1 X0.128 Y-1.470
G1 X0.390 Y-1.425
G1 X0.578 Y-1.357
G1 X0.752 Y-1.270
G1 X0.978 Y-1.107
G1 X0.978 Y-1.107
G1 X1.020 Y-1.035
G1 X1.032 Y-0.973
G0 X1.035 Y-0.953
G0 X0.755 Y1.077
G1 X0.752 Y1.103
G1 X0.725 Y1.225
G1 X0.677 Y1.292
G1 X0.630 Y1.333
G1 X0.630 Y1.333
G1 X0.560 Y1.367
G1 X0.365 Y1.430
G1 X0.205 Y1.465
G1 X0.005 Y1.478
G1 X-0.333 Y1.438
G1 X-0.595 Y1.347
G1 X-0.800 Y1.230
G1 X-0.948 Y1.097
G1 X-0.968 Y1.062
G1 X-0.980 Y1.025
G1 X-0.980 Y0.705
G1 X-0.980 Y0.705
G1 X-0.978 Y0.695
G0 X-0.975 Y0.693
G0 X-0.935 Y0.932
G1 X-0.932 Y0.953
G1 X-0.915 Y1.123
G1 X-0.943 Y1.130
G1 X-0.943 Y1.130
G1 X-0.970 Y1.103
G1 X-0.970 Y1.103
G1 X-0.973 Y0.995
G1 X-0.963 Y0.955
G0 X-0.955 Y0.935
G0 X-0.757 Y0.603
G0 X-0.703 Y0.185
G0 X-0.738 Y-0.152
G0 X-0.860 Y-0.385
G1 X-0.870 Y-0.403
G1 X-0.910 Y-0.475
G1 X-0.963 Y-0.568
G1 X-0.980 Y-0.652
G1 X-0.980 Y-0.652
G1 X-0.970 Y-0.877
G1 X-0.940 Y-0.990
G1 X-0.905 Y-1.062
G1 X-0.815 Y-1.190
G1 X-0.695 Y-1.295
G1 X-0.550 Y-1.370
G1 X-0.438 Y-1.410
G1 X-0.117 Y-1.472
G1 X-0.037 Y-1.475
G1 X-0.037 Y-1.475
G1 X0.040 Y-1.458
G1 X0.072 Y-1.440
G1 X0.083 Y-1.430
G0 X0.085 Y-1.420
G0 X0.040 Y-1.375
G0 X-0.815 Y-0.835
G1 X-0.835 Y-0.823
G1 X-0.895 Y-0.795
G1 X-0.927 Y-0.802
G1 X-0.963 Y-0.850
G1 X-0.980 Y-0.932
G1 X-0.980 Y-0.932
G1 X-0.978 Y-1.083
G1 X-0.960 Y-1.117
G1 X-0.797 Y-1.240
G1 X-0.797 Y-1.240
G1 X-0.785 Y-1.238
G1 X-0.777 Y-1.230
G1 X-0.777 Y-1.200
G1 X-0.792 Y-1.180
G1 X-0.823 Y-1.183
G1 X-0.845 Y-1.200
G1 X-0.843 Y-1.235
G1 X-0.843 Y-1.235
G1 X-0.680 Y-1.330
G1 X-0.505 Y-1.407
G1 X-0.440 Y-1.430
G1 X-0.220 Y-1.480
G1 X-0.138 Y-1.492
G1 X-0.005 Y-1.498
G1 X0.170 Y-1.488
G1 X0.335 Y-1.458
G1 X0.500 Y-1.410
G1 X0.600 Y-1.370
G1 X0.757 Y-1.290
G1 X0.963 Y-1.147
G1 X1.167 Y-0.932
G1 X1.235 Y-0.848
G1 X1.288 Y-0.762
G1 X1.363 Y-0.613
G1 X1.415 Y-0.482
G1 X1.455 Y-0.343
G1 X1.480 Y-0.220
G1 X1.498 Y0.013
G1 X1.490 Y0.113
G1 X1.445 Y0.372
G1 X1.427 Y0.438
G1 X1.365 Y0.603
G1 X1.315 Y0.708
G1 X1.188 Y0.912
G1 X1.087 Y1.030
G1 X0.953 Y1.155
G1 X0.755 Y1.292
G1 X0.608 Y1.367
G1 X0.417 Y1.438
G1 X0.235 Y1.480
G1 X0.170 Y1.490
G1 X-0.013 Y1.498
G1 X-0.250 Y1.470
G1 X-0.355 Y1.450
G1 X-0.588 Y1.375
G1 X-0.670 Y1.335
G1 X-0.802 Y1.260
G1 X-0.875 Y1.212
G1 X-0.975 Y1.127
G1 X-1.000 Y1.087
G1 X-0.995 Y-1.100
G1 X-0.950 Y-1.155
G1 X-0.843 Y-1.235
G1 X-0.843 Y-1.235
G0 Z5.000
G0 Z5.000
(Finish operation: Adaptive)
(Block-name: Fixture)
(Block-expand: 0)
(Block-enable: 1)
(Begin operation: Fixture)
(Path: Fixture)
G54
(Finish operation: Fixture)
(Block-name: Adaptive001)
(Block-expand: 0)
(Block-enable: 1)
(Begin operation: Adaptive001)
(Path: Adaptive001)
(Adaptive001)
(Helix to depth: -4.000000)
G0 Z5.000
G0 X0.413 Y5.847 Z5.000
G0 X0.413 Y5.847 Z3.000
G1 X0.413 Y5.847 Z0.000
G1 X0.413 Y5.847 Z0.000
G1 X0.384 Y5.989 Z-0.013
G1 X0.328 Y6.123 Z-0.026
G1 X0.247 Y6.243 Z-0.039
G1 X0.143 Y6.345 Z-0.052
G1 X0.022 Y6.425 Z-0.064
G1 X-0.112 Y6.479 Z-0.077
G1 X-0.255 Y6.507 Z-0.090
G1 X-0.400 Y6.506 Z-0.103
G1 X-0.542 Y6.477 Z-0.116
G1 X-0.675 Y6.420 Z-0.129
G1 X-0.796 Y6.339 Z-0.142
G1 X-0.897 Y6.236 Z-0.155
G1 X-0.977 Y6.115 Z-0.167
G1 X-1.032 Y5.980 Z-0.180
G1 X-1.059 Y5.838 Z-0.193
G1 X-1.058 Y5.693 Z-0.206
G1 X-1.029 Y5.551 Z-0.219
G1 X-0.973 Y5.417 Z-0.232
G1 X-0.892 Y5.297 Z-0.245
G1 X-0.788 Y5.195 Z-0.258
G1 X-0.667 Y5.115 Z-0.271
G1 X-0.533 Y5.061 Z-0.283
G1 X-0.390 Y5.033 Z-0.296
G1 X-0.245 Y5.034 Z-0.309
G1 X-0.103 Y5.063 Z-0.322
G1 X0.030 Y5.120 Z-0.335
G1 X0.151 Y5.201 Z-0.348
G1 X0.252 Y5.304 Z-0.361
G1 X0.332 Y5.425 Z-0.374
G1 X0.387 Y5.560 Z-0.387
G1 X0.414 Y5.702 Z-0.399
G1 X0.413 Y5.847 Z-0.412
G1 X0.384 Y5.989 Z-0.425
G1 X0.328 Y6.123 Z-0.438
G1 X0.247 Y6.243 Z-0.451
G1 X0.143 Y6.345 Z-0.464
G1 X0.022 Y6.425 Z-0.477
G1 X-0.112 Y6.479 Z-0.490
G1 X-0.255 Y6.507 Z-0.502
G1 X-0.400 Y6.506 Z-0.515
G1 X-0.542 Y6.477 Z-0.528
G1 X-0.675 Y6.420 Z-0.541
G1 X-0.796 Y6.339 Z-0.554
G1 X-0.897 Y6.236 Z-0.567
G1 X-0.977 Y6.115 Z-0.580
G1 X-1.032 Y5.980 Z-0.593
G1 X-1.059 Y5.838 Z-0.606
G1 X-1.058 Y5.693 Z-0.618
G1 X-1.029 Y5.551 Z-0.631
G1 X-0.973 Y5.417 Z-0.644
G1 X-0.892 Y5.297 Z-0.657
G1 X-0.788 Y5.195 Z-0.670
G1 X-0.667 Y5.115 Z-0.683
G1 X-0.533 Y5.061 Z-0.696
G1 X-0.390 Y5.033 Z-0.709
G1 X-0.245 Y5.034 Z-0.721
G1 X-0.103 Y5.063 Z-0.734
G1 X0.030 Y5.120 Z-0.747
G1 X0.151 Y5.201 Z-0.760
G1 X0.252 Y5.304 Z-0.773
G1 X0.332 Y5.425 Z-0.786
G1 X0.387 Y5.560 Z-0.799
G1 X0.414 Y5.702 Z-0.812
G1 X0.413 Y5.847 Z-0.825
G1 X0.384 Y5.989 Z-0.837
G1 X0.328 Y6.123 Z-0.850
G1 X0.247 Y6.243 Z-0.863
G1 X0.143 Y6.345 Z-0.876
G1 X0.022 Y6.425 Z-0.889
G1 X-0.112 Y6.479 Z-0.902
G1 X-0.255 Y6.507 Z-0.915
G1 X-0.400 Y6.506 Z-0.928
G1 X-0.542 Y6.477 Z-0.941
G1 X-0.675 Y6.420 Z-0.953
G1 X-0.796 Y6.339 Z-0.966
G1 X-0.897 Y6.236 Z-0.979
G1 X-0.977 Y6.115 Z-0.992
G1 X-1.032 Y5.980 Z-1.005
G1 X-1.059 Y5.838 Z-1.018
G1 X-1.058 Y5.693 Z-1.031
G1 X-1.029 Y5.551 Z-1.044
G1 X-0.973 Y5.417 Z-1.056
G1 X-0.892 Y5.297 Z-1.069
G1 X-0.788 Y5.195 Z-1.082
G1 X-0.667 Y5.115 Z-1.095
G1 X-0.533 Y5.061 Z-1.108
G1 X-0.390 Y5.033 Z-1.121
G1 X-0.245 Y5.034 Z-1.134
G1 X-0.103 Y5.063 Z-1.147
G1 X0.030 Y5.120 Z-1.160
G1 X0.151 Y5.201 Z-1.172
G1 X0.252 Y5.304 Z-1.185
G1 X0.332 Y5.425 Z-1.198
G1 X0.387 Y5.560 Z-1.211
G1 X0.414 Y5.702 Z-1.224
G1 X0.413 Y5.847 Z-1.237
G1 X0.384 Y5.989 Z-1.250
G1 X0.328 Y6.123 Z-1.263
G1 X0.247 Y6.243 Z-1.275
G1 X0.143 Y6.345 Z-1.288
G1 X0.022 Y6.425 Z-1.301
G1 X-0.112 Y6.479 Z-1.314
G1 X-0.255 Y6.507 Z-1.327
G1 X-0.400 Y6.506 Z-1.340
G1 X-0.542 Y6.477 Z-1.353
G1 X-0.675 Y6.420 Z-1.366
G1 X-0.796 Y6.339 Z-1.379
G1 X-0.897 Y6.236 Z-1.391
G1 X-0.977 Y6.115 Z-1.404
G1 X-1.032 Y5.980 Z-1.417
G1 X-1.059 Y5.838 Z-1.430
G1 X-1.058 Y5.693 Z-1.443
G1 X-1.029 Y5.551 Z-1.456
G1 X-0.973 Y5.417 Z-1.469
G1 X-0.892 Y5.297 Z-1.482
G1 X-0.788 Y5.195 Z-1.495
G1 X-0.667 Y5.115 Z-1.507
G1 X-0.533 Y5.061 Z-1.520
G1 X-0.390 Y5.033 Z-1.533
G1 X-0.245 Y5.034 Z-1.546
G1 X-0.103 Y5.063 Z-1.559
G1 X0.030 Y5.120 Z-1.572
G1 X0.151 Y5.201 Z-1.585
G1 X0.252 Y5.304 Z-1.598
G1 X0.332 Y5.425 Z-1.610
G1 X0.387 Y5.560 Z-1.623
G1 X0.414 Y5.702 Z-1.636
G1 X0.413 Y5.847 Z-1.649
G1 X0.384 Y5.989 Z-1.662
G1 X0.328 Y6.123 Z-1.675
G1 X0.247 Y6.243 Z-1.688
G1 X0.143 Y6.345 Z-1.701
G1 X0.022 Y6.425 Z-1.714
G1 X-0.112 Y6.479 Z-1.726
G1 X-0.255 Y6.507 Z-1.739
G1 X-0.400 Y6.506 Z-1.752
G1 X-0.542 Y6.477 Z-1.765
G1 X-0.675 Y6.420 Z-1.778
G1 X-0.796 Y6.339 Z-1.791
G1 X-0.897 Y6.236 Z-1.804
G1 X-0.977 Y6.115 Z-1.817
G1 X-1.032 Y5.980 Z-1.829
G1 X-1.059 Y5.838 Z-1.842
G1 X-1.058 Y5.693 Z-1.855
G1 X-1.029 Y5.551 Z-1.868
G1 X-0.973 Y5.417 Z-1.881
G1 X-0.892 Y5.297 Z-1.894
G1 X-0.788 Y5.195 Z-1.907
G1 X-0.667 Y5.115 Z-1.920
G1 X-0.533 Y5.061 Z-1.933
G1 X-0.390 Y5.033 Z-1.945
G1 X-0.245 Y5.034 Z-1.958
G1 X-0.103 Y5.063 Z-1.971
G1 X0.030 Y5.120 Z-1.984
G1 X0.151 Y5.201 Z-1.997
G1 X0.252 Y5.304 Z-2.010
G1 X0.332 Y5.425 Z-2.023
G1 X0.387 Y5.560 Z-2.036
G1 X0.414 Y5.702 Z-2.049
G1 X0.413 Y5.847 Z-2.061
G1 X0.384 Y5.989 Z-2.074
G1 X0.328 Y6.123 Z-2.087
G1 X0.247 Y6.243 Z-2.100
G1 X0.143 Y6.345 Z-2.113
G1 X0.022 Y6.425 Z-2.126
G1 X-0.112 Y6.479 Z-2.139
G1 X-0.255 Y6.507 Z-2.152
G1 X-0.400 Y6.506 Z-2.164
G1 X-0.542 Y6.477 Z-2.177
G1 X-0.675 Y6.420 Z-2.190
G1 X-0.796 Y6.339 Z-2.203
G1 X-0.897 Y6.236 Z-2.216
G1 X-0.977 Y6.115 Z-2.229
G1 X-1.032 Y5.980 Z-2.242
G1 X-1.059 Y5.838 Z-2.255
G1 X-1.058 Y5.693 Z-2.268
G1 X-1.029 Y5.551 Z-2.280
G1 X-0.973 Y5.417 Z-2.293
G1 X-0.892 Y5.297 Z-2.306
G1 X-0.788 Y5.195 Z-2.319
G1 X-0.667 Y5.115 Z-2.332
G1 X-0.533 Y5.061 Z-2.345
G1 X-0.390 Y5.033 Z-2.358
G1 X-0.245 Y5.034 Z-2.371
G1 X-0.103 Y5.063 Z-2.383
G1 X0.030 Y5.120 Z-2.396
G1 X0.151 Y5.201 Z-2.409
G1 X0.252 Y5.304 Z-2.422
G1 X0.332 Y5.425 Z-2.435
G1 X0.387 Y5.560 Z-2.448
G1 X0.414 Y5.702 Z-2.461
G1 X0.413 Y5.847 Z-2.474
G1 X0.384 Y5.989 Z-2.487
G1 X0.328 Y6.123 Z-2.499
G1 X0.247 Y6.243 Z-2.512
G1 X0.143 Y6.345 Z-2.525
G1 X0.022 Y6.425 Z-2.538
G1 X-0.112 Y6.479 Z-2.551
G1 X-0.255 Y6.507 Z-2.564
G1 X-0.400 Y6.506 Z-2.577
G1 X-0.542 Y6.477 Z-2.590
G1 X-0.675 Y6.420 Z-2.603
G1 X-0.796 Y6.339 Z-2.615
G1 X-0.897 Y6.236 Z-2.628
G1 X-0.977 Y6.115 Z-2.641
G1 X-1.032 Y5.980 Z-2.654
G1 X-1.059 Y5.838 Z-2.667
G1 X-1.058 Y5.693 Z-2.680
G1 X-1.029 Y5.551 Z-2.693
G1 X-0.973 Y5.417 Z-2.706
G1 X-0.892 Y5.297 Z-2.718
G1 X-0.788 Y5.195 Z-2.731
G1 X-0.667 Y5.115 Z-2.744
G1 X-0.533 Y5.061 Z-2.757
G1 X-0.390 Y5.033 Z-2.770
G1 X-0.245 Y5.034 Z-2.783
G1 X-0.103 Y5.063 Z-2.796
G1 X0.030 Y5.120 Z-2.809
G1 X0.151 Y5.201 Z-2.822
G1 X0.252 Y5.304 Z-2.834
G1 X0.332 Y5.425 Z-2.847
G1 X0.387 Y5.560 Z-2.860
G1 X0.414 Y5.702 Z-2.873
G1 X0.413 Y5.847 Z-2.886
G1 X0.384 Y5.989 Z-2.899
G1 X0.328 Y6.123 Z-2.912
G1 X0.247 Y6.243 Z-2.925
G1 X0.143 Y6.345 Z-2.937
G1 X0.022 Y6.425 Z-2.950
G1 X-0.112 Y6.479 Z-2.963
G1 X-0.255 Y6.507 Z-2.976
G1 X-0.400 Y6.506 Z-2.989
G1 X-0.542 Y6.477 Z-3.002
G1 X-0.675 Y6.420 Z-3.015
G1 X-0.796 Y6.339 Z-3.028
G1 X-0.897 Y6.236 Z-3.041
G1 X-0.977 Y6.115 Z-3.053
G1 X-1.032 Y5.980 Z-3.066
G1 X-1.059 Y5.838 Z-3.079
G1 X-1.058 Y5.693 Z-3.092
G1 X-1.029 Y5.551 Z-3.105
G1 X-0.973 Y5.417 Z-3.118
G1 X-0.892 Y5.297 Z-3.131
G1 X-0.788 Y5.195 Z-3.144
G1 X-0.667 Y5.115 Z-3.157
G1 X-0.533 Y5.061 Z-3.169
G1 X-0.390 Y5.033 Z-3.182
G1 X-0.245 Y5.034 Z-3.195
G1 X-0.103 Y5.063 Z-3.208
G1 X0.030 Y5.120 Z-3.221
G1 X0.151 Y5.201 Z-3.234
G1 X0.252 Y5.304 Z-3.247
G1 X0.332 Y5.425 Z-3.260
G1 X0.387 Y5.560 Z-3.272
G1 X0.414 Y5.702 Z-3.285
G1 X0.413 Y5.847 Z-3.298
G1 X0.384 Y5.989 Z-3.311
G1 X0.328 Y6.123 Z-3.324
G1 X0.247 Y6.243 Z-3.337
G1 X0.143 Y6.345 Z-3.350
G1 X0.022 Y6.425 Z-3.363
G1 X-0.112 Y6.479 Z-3.376
G1 X-0.255 Y6.507 Z-3.388
G1 X-0.400 Y6.506 Z-3.401
G1 X-0.542 Y6.477 Z-3.414
G1 X-0.675 Y6.420 Z-3.427
G1 X-0.796 Y6.339 Z-3.440
G1 X-0.897 Y6.236 Z-3.453
G1 X-0.977 Y6.115 Z-3.466
G1 X-1.032 Y5.980 Z-3.479
G1 X-1.059 Y5.838 Z-3.492
G1 X-1.058 Y5.693 Z-3.504
G1 X-1.029 Y5.551 Z-3.517
G1 X-0.973 Y5.417 Z-3.530
G1 X-0.892 Y5.297 Z-3.543
G1 X-0.788 Y5.195 Z-3.556
G1 X-0.667 Y5.115 Z-3.569
G1 X-0.533 Y5.061 Z-3.582
G1 X-0.390 Y5.033 Z-3.595
G1 X-0.245 Y5.034 Z-3.607
G1 X-0.103 Y5.063 Z-3.620
G1 X0.030 Y5.120 Z-3.633
G1 X0.151 Y5.201 Z-3.646
G1 X0.252 Y5.304 Z-3.659
G1 X0.332 Y5.425 Z-3.672
G1 X0.387 Y5.560 Z-3.685
G1 X0.414 Y5.702 Z-3.698
G1 X0.413 Y5.847 Z-3.711
G1 X0.384 Y5.989 Z-3.723
G1 X0.328 Y6.123 Z-3.736
G1 X0.247 Y6.243 Z-3.749
G1 X0.143 Y6.345 Z-3.762
G1 X0.022 Y6.425 Z-3.775
G1 X-0.112 Y6.479 Z-3.788
G1 X-0.255 Y6.507 Z-3.801
G1 X-0.400 Y6.506 Z-3.814
G1 X-0.542 Y6.477 Z-3.826
G1 X-0.675 Y6.420 Z-3.839
G1 X-0.796 Y6.339 Z-3.852
G1 X-0.897 Y6.236 Z-3.865
G1 X-0.977 Y6.115 Z-3.878
G1 X-1.032 Y5.980 Z-3.891
G1 X-1.059 Y5.838 Z-3.904
G1 X-1.058 Y5.693 Z-3.917
G1 X-1.029 Y5.551 Z-3.930
G1 X-0.973 Y5.417 Z-3.942
G1 X-0.892 Y5.297 Z-3.955
G1 X-0.788 Y5.195 Z-3.968
G1 X-0.667 Y5.115 Z-3.981
G1 X-0.533 Y5.061 Z-3.994
G1 X-0.390 Y5.033 Z-4.000
G1 X-0.245 Y5.034 Z-4.000
G1 X-0.103 Y5.063 Z-4.000
G1 X0.030 Y5.120 Z-4.000
G1 X0.151 Y5.201 Z-4.000
G1 X0.252 Y5.304 Z-4.000
G1 X0.332 Y5.425 Z-4.000
G1 X0.387 Y5.560 Z-4.000
G1 X0.414 Y5.702 Z-4.000
G1 X0.413 Y5.847 Z-4.000
G1 X0.384 Y5.989 Z-4.000
G1 X0.328 Y6.123 Z-4.000
G1 X0.247 Y6.243 Z-4.000
G1 X0.143 Y6.345 Z-4.000
G1 X0.022 Y6.425 Z-4.000
G1 X-0.112 Y6.479 Z-4.000
G1 X-0.255 Y6.507 Z-4.000
G1 X-0.400 Y6.506 Z-4.000
G1 X-0.542 Y6.477 Z-4.000
G1 X-0.675 Y6.420 Z-4.000
G1 X-0.796 Y6.339 Z-4.000
G1 X-0.897 Y6.236 Z-4.000
G1 X-0.977 Y6.115 Z-4.000
G1 X-1.032 Y5.980 Z-4.000
G1 X-1.059 Y5.838 Z-4.000
G1 X-1.058 Y5.693 Z-4.000
G1 X-1.029 Y5.551 Z-4.000
G1 X-0.973 Y5.417 Z-4.000
G1 X-0.892 Y5.297 Z-4.000
G1 X-0.788 Y5.195 Z-4.000
G1 X-0.667 Y5.115 Z-4.000
G1 X-0.533 Y5.061 Z-4.000
(Adaptive - depth: -4.000000)
G1 X-0.323 Y5.020
G1 X-0.282 Y5.010
G1 X0.072 Y5.027
G1 X0.220 Y5.065
G1 X0.345 Y5.155
G1 X0.448 Y5.270
G1 X0.490 Y5.335
G1 X0.590 Y5.562
G1 X0.618 Y5.758
G1 X0.613 Y5.857
G1 X0.598 Y5.952
G1 X0.565 Y6.067
G1 X0.500 Y6.215
G1 X0.407 Y6.343
G1 X0.292 Y6.455
G1 X0.225 Y6.500
G1 X0.188 Y6.515
G1 X-0.385 Y6.537
G1 X-0.835 Y6.445
G1 X-0.907 Y6.415
G1 X-1.028 Y6.315
G1 X-1.103 Y6.218
G1 X-1.175 Y6.072
G1 X-1.245 Y5.832
G1 X-1.242 Y5.610
G1 X-1.220 Y5.508
G1 X-1.192 Y5.420
G1 X-1.140 Y5.312
G1 X-1.058 Y5.188
G1 X-0.943 Y5.067
G1 X-0.810 Y4.968
G1 X-0.770 Y4.955
G1 X-0.770 Y4.955
G1 X-0.688 Y4.978
G1 X-0.652 Y5.000
G1 X-0.635 Y5.010
G0 X-0.618 Y5.018
G0 X-0.125 Y5.065
G1 X-0.102 Y5.067
G1 X-0.033 Y5.067
G1 X0.145 Y5.015
G1 X0.145 Y5.015
G1 X0.295 Y5.015
G1 X0.407 Y5.037
G1 X0.443 Y5.053
G1 X0.588 Y5.180
G1 X0.675 Y5.305
G1 X0.777 Y5.530
G1 X0.818 Y5.772
G1 X0.812 Y5.883
G1 X0.800 Y5.978
G1 X0.767 Y6.103
G1 X0.710 Y6.245
G1 X0.573 Y6.438
G1 X0.512 Y6.487
G1 X0.475 Y6.503
G1 X0.395 Y6.510
G1 X0.395 Y6.510
G1 X0.310 Y6.495
G1 X0.258 Y6.465
G0 X0.245 Y6.450
G0 X0.233 Y6.375
G0 X0.233 Y5.197
G1 X0.233 Y5.173
G1 X0.237 Y5.093
G1 X0.255 Y5.060
G1 X0.302 Y5.025
G1 X0.385 Y5.003
G1 X0.385 Y5.003
G1 X0.497 Y5.000
G1 X0.573 Y5.013
G1 X0.610 Y5.025
G1 X0.730 Y5.117
G1 X0.807 Y5.202
G1 X0.853 Y5.268
G1 X0.968 Y5.487
G1 X1.022 Y5.730
G1 X1.025 Y5.843
G1 X1.018 Y5.938
G1 X0.995 Y6.067
G1 X0.945 Y6.230
G1 X0.890 Y6.335
G1 X0.820 Y6.430
G1 X0.787 Y6.455
G1 X0.752 Y6.473
G1 X0.713 Y6.480
G1 X0.713 Y6.480
G1 X0.627 Y6.468
G1 X0.573 Y6.440
G0 X0.562 Y6.425
G0 X0.537 Y6.320
G0 X0.407 Y5.178
G1 X0.405 Y5.152
G1 X0.403 Y5.085
G1 X0.417 Y5.048
G1 X0.465 Y5.010
G1 X0.545 Y4.985
G1 X0.545 Y4.985
G1 X0.733 Y4.985
G1 X0.805 Y5.005
G1 X0.925 Y5.095
G1 X1.048 Y5.240
G1 X1.167 Y5.457
G1 X1.230 Y5.697
G1 X1.240 Y5.808
G1 X1.238 Y5.910
G1 X1.220 Y6.043
G1 X1.177 Y6.210
G1 X1.105 Y6.348
G1 X1.055 Y6.410
G1 X1.020 Y6.433
G1 X0.980 Y6.442
G1 X0.980 Y6.442
G1 X0.895 Y6.435
G1 X0.838 Y6.410
G0 X0.825 Y6.395
G0 X0.795 Y6.293
G0 X0.613 Y5.162
G1 X0.608 Y5.138
G1 X0.603 Y5.067
G1 X0.618 Y5.030
G1 X0.662 Y4.990
G1 X0.743 Y4.960
G1 X0.743 Y4.960
G1 X0.855 Y4.952
G1 X0.930 Y4.960
G1 X0.968 Y4.970
G1 X1.067 Y5.030
G1 X1.183 Y5.133
G1 X1.230 Y5.192
G1 X1.360 Y5.405
G1 X1.435 Y5.643
G1 X1.452 Y5.760
G1 X1.458 Y5.867
G1 X1.448 Y6.008
G1 X1.415 Y6.170
G1 X1.345 Y6.312
G1 X1.323 Y6.345
G1 X1.258 Y6.395
G1 X1.177 Y6.412
G1 X1.177 Y6.412
G1 X1.093 Y6.405
G1 X1.035 Y6.380
G0 X1.022 Y6.365
G0 X0.990 Y6.263
G0 X0.772 Y5.138
G1 X0.767 Y5.112
G1 X0.762 Y5.043
G1 X0.775 Y5.005
G1 X0.820 Y4.965
G1 X0.900 Y4.935
G1 X0.900 Y4.935
G1 X1.050 Y4.918
G1 X1.125 Y4.925
G1 X1.163 Y4.935
G1 X1.290 Y5.015
G1 X1.400 Y5.120
G1 X1.425 Y5.150
G1 X1.562 Y5.357
G1 X1.647 Y5.590
G1 X1.670 Y5.713
G1 X1.680 Y5.820
G1 X1.675 Y5.963
G1 X1.647 Y6.122
G1 X1.558 Y6.298
G1 X1.528 Y6.325
G1 X1.490 Y6.343
G1 X1.450 Y6.353
G1 X1.450 Y6.353
G1 X1.365 Y6.350
G1 X1.308 Y6.327
G0 X1.292 Y6.315
G0 X1.255 Y6.213
G0 X0.983 Y5.105
G1 X0.975 Y5.080
G1 X0.965 Y5.013
G1 X0.978 Y4.975
G1 X1.018 Y4.930
G1 X1.095 Y4.895
G1 X1.095 Y4.895
G1 X1.245 Y4.872
G1 X1.320 Y4.880
G1 X1.425 Y4.928
G1 X1.548 Y5.020
G1 X1.627 Y5.105
G1 X1.770 Y5.308
G1 X1.863 Y5.537
G1 X1.887 Y5.662
G1 X1.903 Y5.775
G1 X1.900 Y5.925
G1 X1.853 Y6.112
G1 X1.805 Y6.220
G1 X1.778 Y6.250
G1 X1.745 Y6.275
G1 X1.708 Y6.287
G1 X1.708 Y6.287
G1 X1.623 Y6.290
G1 X1.565 Y6.272
G0 X1.550 Y6.260
G0 X1.508 Y6.160
G0 X1.192 Y5.065
G1 X1.185 Y5.040
G1 X1.173 Y4.973
G1 X1.180 Y4.933
G1 X1.218 Y4.888
G1 X1.290 Y4.848
G1 X1.290 Y4.848
G1 X1.440 Y4.825
G1 X1.515 Y4.835
G1 X1.650 Y4.905
G1 X1.772 Y5.000
G1 X1.800 Y5.027
G1 X1.955 Y5.223
G1 X2.062 Y5.445
G1 X2.095 Y5.565
G1 X2.112 Y5.675
G1 X2.118 Y5.800
G1 X2.105 Y5.963
G1 X2.070 Y6.075
G1 X2.015 Y6.180
G1 X1.985 Y6.207
G1 X1.748 Y6.277
G1 X1.748 Y6.277
G1 X1.663 Y6.280
G1 X1.605 Y6.263
G0 X1.593 Y6.250
G0 X1.565 Y6.180
G0 X1.335 Y5.022
G1 X1.333 Y4.997
G1 X1.323 Y4.928
G1 X1.335 Y4.888
G1 X1.373 Y4.843
G1 X1.445 Y4.803
G1 X1.445 Y4.803
G1 X1.633 Y4.768
G1 X1.708 Y4.772
G1 X1.877 Y4.862
G1 X1.995 Y4.960
G1 X2.158 Y5.147
G1 X2.270 Y5.370
G1 X2.303 Y5.480
G1 X2.322 Y5.582
G1 X2.337 Y5.718
G1 X2.328 Y5.912
G1 X2.275 Y6.060
G1 X2.255 Y6.095
G1 X2.228 Y6.122
G1 X2.000 Y6.205
G1 X2.000 Y6.205
G1 X1.895 Y6.213
G1 X1.857 Y6.200
G0 X1.845 Y6.190
G0 X1.812 Y6.122
G0 X1.538 Y4.970
G1 X1.530 Y4.945
G1 X1.520 Y4.878
G1 X1.528 Y4.838
G1 X1.562 Y4.787
G1 X1.635 Y4.742
G1 X1.635 Y4.742
G1 X1.785 Y4.700
G1 X1.860 Y4.697
G1 X1.897 Y4.705
G1 X2.067 Y4.790
G1 X2.188 Y4.883
G1 X2.353 Y5.067
G1 X2.467 Y5.272
G1 X2.507 Y5.390
G1 X2.535 Y5.497
G1 X2.555 Y5.638
G1 X2.553 Y5.812
G1 X2.525 Y5.925
G1 X2.493 Y5.997
G1 X2.465 Y6.027
G1 X2.353 Y6.077
G1 X2.353 Y6.077
G1 X2.248 Y6.085
G1 X2.210 Y6.075
G0 X2.195 Y6.062
G0 X2.155 Y5.997
G0 X1.740 Y4.895
G1 X1.730 Y4.872
G1 X1.712 Y4.805
G1 X1.718 Y4.768
G1 X1.750 Y4.718
G1 X1.823 Y4.673
G1 X1.823 Y4.673
G1 X1.972 Y4.630
G1 X2.047 Y4.625
G1 X2.225 Y4.695
G1 X2.382 Y4.805
G1 X2.553 Y4.987
G1 X2.672 Y5.190
G1 X2.717 Y5.305
G1 X2.750 Y5.418
G1 X2.775 Y5.598
G1 X2.765 Y5.747
G1 X2.723 Y5.897
G1 X2.697 Y5.928
G1 X2.475 Y6.025
G1 X2.475 Y6.025
G1 X2.390 Y6.040
G1 X2.333 Y6.027
G0 X2.317 Y6.018
G0 X2.280 Y5.952
G0 X1.893 Y4.840
G1 X1.883 Y4.817
G1 X1.865 Y4.750
G1 X1.870 Y4.710
G1 X1.903 Y4.660
G1 X1.970 Y4.610
G1 X1.970 Y4.610
G1 X2.120 Y4.560
G1 X2.195 Y4.548
G1 X2.232 Y4.548
G1 X2.413 Y4.612
G1 X2.542 Y4.692
G1 X2.723 Y4.862
G1 X2.842 Y5.035
G1 X2.900 Y5.147
G1 X2.942 Y5.263
G1 X2.975 Y5.402
G1 X2.990 Y5.558
G1 X2.973 Y5.707
G1 X2.950 Y5.782
G1 X2.928 Y5.815
G1 X2.750 Y5.910
G1 X2.712 Y5.925
G1 X2.712 Y5.925
G1 X2.627 Y5.940
G1 X2.570 Y5.928
G0 X2.555 Y5.918
G0 X2.515 Y5.853
G0 X2.080 Y4.760
G1 X2.070 Y4.737
G1 X2.050 Y4.670
G1 X2.055 Y4.630
G1 X2.085 Y4.580
G1 X2.152 Y4.530
G1 X2.152 Y4.530
G1 X2.300 Y4.470
G1 X2.375 Y4.455
G1 X2.413 Y4.455
G1 X2.560 Y4.497
G1 X2.695 Y4.567
G1 X2.728 Y4.590
G1 X2.913 Y4.755
G1 X3.053 Y4.947
G1 X3.110 Y5.062
G1 X3.152 Y5.173
G1 X3.192 Y5.353
G1 X3.197 Y5.540
G1 X3.175 Y5.652
G1 X3.155 Y5.688
G1 X3.127 Y5.715
G1 X2.985 Y5.790
G1 X2.985 Y5.790
G1 X2.900 Y5.810
G1 X2.842 Y5.803
G0 X2.825 Y5.793
G0 X2.768 Y5.702
G0 X2.275 Y4.675
G1 X2.263 Y4.652
G1 X2.237 Y4.588
G1 X2.240 Y4.548
G1 X2.268 Y4.495
G1 X2.330 Y4.440
G1 X2.330 Y4.440
G1 X2.513 Y4.367
G1 X2.587 Y4.357
G1 X2.737 Y4.395
G1 X2.908 Y4.482
G1 X3.098 Y4.643
G1 X3.237 Y4.822
G1 X3.297 Y4.933
G1 X3.342 Y5.035
G1 X3.388 Y5.185
G1 X3.413 Y5.350
G1 X3.405 Y5.463
G1 X3.390 Y5.537
G1 X3.368 Y5.570
G1 X3.195 Y5.675
G1 X3.195 Y5.675
G1 X3.112 Y5.700
G1 X3.072 Y5.700
G1 X3.055 Y5.695
G0 X3.038 Y5.688
G0 X2.993 Y5.625
G0 X2.460 Y4.580
G1 X2.447 Y4.558
G1 X2.420 Y4.495
G1 X2.420 Y4.455
G1 X2.445 Y4.402
G1 X2.507 Y4.345
G1 X2.507 Y4.345
G1 X2.650 Y4.275
G1 X2.725 Y4.258
G1 X2.763 Y4.255
G1 X2.875 Y4.277
G1 X3.053 Y4.353
G1 X3.085 Y4.372
G1 X3.280 Y4.525
G1 X3.430 Y4.707
G1 X3.493 Y4.812
G1 X3.540 Y4.915
G1 X3.587 Y5.050
G1 X3.620 Y5.225
G1 X3.615 Y5.338
G1 X3.595 Y5.412
G1 X3.575 Y5.445
G1 X3.405 Y5.555
G1 X3.405 Y5.555
G1 X3.322 Y5.580
G1 X3.263 Y5.575
G0 X3.248 Y5.567
G0 X3.185 Y5.480
G0 X2.632 Y4.478
G1 X2.620 Y4.455
G1 X2.592 Y4.393
G1 X2.590 Y4.353
G1 X2.615 Y4.300
G1 X2.678 Y4.242
G1 X2.678 Y4.242
G1 X2.815 Y4.170
G1 X2.890 Y4.150
G1 X2.928 Y4.147
G1 X3.078 Y4.178
G1 X3.255 Y4.253
G1 X3.455 Y4.400
G1 X3.610 Y4.572
G1 X3.683 Y4.683
G1 X3.737 Y4.790
G1 X3.788 Y4.930
G1 X3.815 Y5.117
G1 X3.812 Y5.230
G1 X3.805 Y5.268
G1 X3.788 Y5.303
G1 X3.655 Y5.395
G1 X3.655 Y5.395
G1 X3.572 Y5.425
G1 X3.513 Y5.425
G0 X3.498 Y5.418
G0 X3.430 Y5.335
G0 X2.815 Y4.367
G1 X2.800 Y4.348
G1 X2.768 Y4.287
G1 X2.765 Y4.247
G1 X2.785 Y4.190
G1 X2.842 Y4.130
G1 X2.842 Y4.130
G1 X2.980 Y4.058
G1 X3.055 Y4.037
G1 X3.167 Y4.045
G1 X3.353 Y4.098
G1 X3.422 Y4.130
G1 X3.630 Y4.268
G1 X3.790 Y4.435
G1 X3.860 Y4.540
G1 X3.915 Y4.635
G1 X3.975 Y4.780
G1 X4.008 Y4.930
G1 X4.010 Y5.080
G1 X4.003 Y5.117
G1 X3.985 Y5.152
G1 X3.828 Y5.277
G1 X3.828 Y5.277
G1 X3.750 Y5.312
G1 X3.690 Y5.317
G0 X3.675 Y5.310
G0 X3.623 Y5.258
G0 X2.958 Y4.277
G1 X2.942 Y4.258
G1 X2.908 Y4.197
G1 X2.902 Y4.157
G1 X2.920 Y4.100
G1 X2.975 Y4.037
G1 X2.975 Y4.037
G1 X3.107 Y3.950
G1 X3.180 Y3.917
G1 X3.217 Y3.910
G1 X3.405 Y3.930
G1 X3.550 Y3.980
G1 X3.765 Y4.105
G1 X3.947 Y4.272
G1 X4.025 Y4.372
G1 X4.085 Y4.465
G1 X4.145 Y4.595
G1 X4.200 Y4.785
G1 X4.207 Y4.897
G1 X4.205 Y4.935
G1 X4.192 Y4.973
G1 X4.170 Y5.005
G1 X4.110 Y5.055
G1 X4.110 Y5.055
G1 X4.032 Y5.090
G1 X3.973 Y5.095
G0 X3.955 Y5.088
G0 X3.875 Y5.015
G0 X3.127 Y4.147
G1 X3.110 Y4.128
G1 X3.070 Y4.072
G1 X3.060 Y4.032
G1 X3.078 Y3.978
G1 X3.132 Y3.915
G1 X3.132 Y3.915
G1 X3.260 Y3.825
G1 X3.330 Y3.792
G1 X3.368 Y3.783
G1 X3.518 Y3.785
G1 X3.705 Y3.837
G1 X3.740 Y3.853
G1 X3.955 Y3.978
G1 X4.125 Y4.133
G1 X4.205 Y4.228
G1 X4.272 Y4.327
G1 X4.350 Y4.495
G1 X4.383 Y4.607
G1 X4.395 Y4.758
G1 X4.390 Y4.795
G1 X4.375 Y4.830
G1 X4.255 Y4.933
G1 X4.255 Y4.933
G1 X4.180 Y4.970
G1 X4.120 Y4.975
G0 X4.103 Y4.970
G0 X4.022 Y4.897
G0 X3.288 Y4.025
G1 X3.270 Y4.005
G1 X3.230 Y3.950
G1 X3.223 Y3.910
G1 X3.235 Y3.853
G1 X3.285 Y3.788
G1 X3.285 Y3.788
G1 X3.413 Y3.695
G1 X3.482 Y3.660
G1 X3.520 Y3.647
G1 X3.670 Y3.645
G1 X3.857 Y3.690
G1 X4.080 Y3.800
G1 X4.270 Y3.950
G1 X4.357 Y4.048
G1 X4.428 Y4.140
G1 X4.530 Y4.338
G1 X4.570 Y4.487
G1 X4.580 Y4.600
G1 X4.570 Y4.638
G1 X4.435 Y4.780
G1 X4.433 Y4.780
G1 X4.360 Y4.825
G1 X4.300 Y4.835
G0 X4.282 Y4.832
G0 X4.223 Y4.785
G0 X3.442 Y3.893
G1 X3.425 Y3.873
G1 X3.385 Y3.817
G1 X3.375 Y3.777
G1 X3.388 Y3.720
G1 X3.438 Y3.655
G1 X3.438 Y3.655
G1 X3.558 Y3.555
G1 X3.627 Y3.518
G1 X3.665 Y3.505
G1 X3.777 Y3.498
G1 X3.928 Y3.518
G1 X4.003 Y3.540
G1 X4.228 Y3.645
G1 X4.415 Y3.780
G1 X4.515 Y3.880
G1 X4.593 Y3.973
G1 X4.688 Y4.140
G1 X4.740 Y4.285
G1 X4.758 Y4.397
G1 X4.753 Y4.435
G1 X4.740 Y4.473
G1 X4.657 Y4.558
G1 X4.657 Y4.558
G1 X4.585 Y4.603
G1 X4.525 Y4.615
G0 X4.508 Y4.610
G0 X4.420 Y4.545
G0 X3.603 Y3.748
G1 X3.585 Y3.730
G1 X3.540 Y3.680
G1 X3.527 Y3.643
G1 X3.545 Y3.565
G1 X3.578 Y3.515
G1 X3.578 Y3.515
G1 X3.665 Y3.433
G1 X3.730 Y3.388
G1 X3.803 Y3.357
G1 X3.953 Y3.348
G1 X4.140 Y3.380
G1 X4.370 Y3.473
G1 X4.572 Y3.615
G1 X4.662 Y3.697
G1 X4.742 Y3.788
G1 X4.843 Y3.942
G1 X4.900 Y4.085
G1 X4.925 Y4.197
G1 X4.925 Y4.235
G1 X4.915 Y4.272
G1 X4.890 Y4.305
G1 X4.888 Y4.305
G1 X4.817 Y4.353
G1 X4.758 Y4.367
G0 X4.740 Y4.365
G0 X4.650 Y4.308
G0 X3.755 Y3.592
G1 X3.735 Y3.578
G1 X3.685 Y3.533
G1 X3.670 Y3.498
G1 X3.675 Y3.440
G1 X3.715 Y3.370
G1 X3.715 Y3.370
G1 X3.830 Y3.260
G1 X3.897 Y3.217
G1 X3.935 Y3.203
G1 X4.048 Y3.188
G1 X4.197 Y3.197
G1 X4.272 Y3.212
G1 X4.505 Y3.300
G1 X4.700 Y3.422
G1 X4.798 Y3.505
G1 X4.880 Y3.590
G1 X4.987 Y3.737
G1 X5.053 Y3.875
G1 X5.082 Y3.987
G1 X5.088 Y4.025
G1 X5.080 Y4.062
G1 X5.065 Y4.098
G1 X4.990 Y4.190
G1 X4.990 Y4.190
G1 X4.920 Y4.237
G1 X4.860 Y4.253
G0 X4.843 Y4.250
G0 X4.755 Y4.190
G0 X3.885 Y3.447
G1 X3.865 Y3.430
G1 X3.817 Y3.382
G1 X3.803 Y3.348
G1 X3.808 Y3.290
G1 X3.845 Y3.217
G1 X3.845 Y3.217
G1 X3.925 Y3.130
G1 X3.985 Y3.080
G1 X4.053 Y3.045
G1 X4.202 Y3.025
G1 X4.390 Y3.038
G1 X4.628 Y3.112
G1 X4.822 Y3.225
G1 X4.920 Y3.300
G1 X5.010 Y3.385
G1 X5.103 Y3.498
G1 X5.188 Y3.638
G1 X5.228 Y3.743
G1 X5.240 Y3.817
G1 X5.237 Y3.855
G1 X5.225 Y3.893
G1 X5.105 Y4.048
G1 X5.105 Y4.048
G1 X5.037 Y4.100
G1 X4.980 Y4.117
G0 X4.963 Y4.115
G0 X4.900 Y4.077
G0 X4.015 Y3.295
G1 X3.995 Y3.277
G1 X3.947 Y3.228
G1 X3.933 Y3.192
G1 X3.935 Y3.135
G1 X3.970 Y3.060
G1 X3.970 Y3.060
G1 X4.080 Y2.945
G1 X4.145 Y2.897
G1 X4.258 Y2.865
G1 X4.407 Y2.853
G1 X4.520 Y2.862
G1 X4.758 Y2.933
G1 X4.945 Y3.030
G1 X5.050 Y3.105
G1 X5.145 Y3.188
G1 X5.275 Y3.337
G1 X5.335 Y3.438
G1 X5.385 Y3.583
G1 X5.390 Y3.620
G1 X5.385 Y3.658
G1 X5.345 Y3.725
G1 X5.345 Y3.725
G1 X5.282 Y3.783
G1 X5.228 Y3.805
G0 X5.210 Y3.805
G0 X5.112 Y3.757
G0 X4.155 Y3.125
G1 X4.135 Y3.110
G1 X4.080 Y3.067
G1 X4.062 Y3.033
G1 X4.060 Y2.975
G1 X4.090 Y2.900
G1 X4.090 Y2.900
G1 X4.192 Y2.780
G1 X4.255 Y2.732
G1 X4.402 Y2.690
G1 X4.590 Y2.678
G1 X4.628 Y2.680
G1 X4.867 Y2.740
G1 X5.040 Y2.817
G1 X5.150 Y2.885
G1 X5.255 Y2.965
G1 X5.365 Y3.078
G1 X5.475 Y3.232
G1 X5.518 Y3.337
G1 X5.527 Y3.375
G1 X5.530 Y3.413
G1 X5.525 Y3.450
G1 X5.465 Y3.553
G1 X5.465 Y3.553
G1 X5.402 Y3.610
G1 X5.350 Y3.635
G0 X5.330 Y3.635
G0 X5.235 Y3.587
G0 X4.268 Y2.958
G1 X4.247 Y2.942
G1 X4.192 Y2.902
G1 X4.175 Y2.868
G1 X4.173 Y2.810
G1 X4.202 Y2.735
G1 X4.202 Y2.735
G1 X4.303 Y2.607
G1 X4.365 Y2.558
G1 X4.550 Y2.502
G1 X4.700 Y2.493
G1 X4.737 Y2.495
G1 X4.980 Y2.545
G1 X5.190 Y2.638
G1 X5.298 Y2.703
G1 X5.393 Y2.772
G1 X5.553 Y2.942
G1 X5.633 Y3.075
G1 X5.660 Y3.147
G1 X5.665 Y3.185
G1 X5.660 Y3.223
G1 X5.620 Y3.292
G1 X5.620 Y3.292
G1 X5.560 Y3.353
G1 X5.505 Y3.377
G0 X5.487 Y3.380
G0 X5.388 Y3.337
G0 X4.390 Y2.780
G1 X4.367 Y2.768
G1 X4.310 Y2.730
G1 X4.290 Y2.697
G1 X4.285 Y2.640
G1 X4.308 Y2.565
G1 X4.308 Y2.565
G1 X4.397 Y2.435
G1 X4.455 Y2.380
G1 X4.490 Y2.360
G1 X4.678 Y2.310
G1 X4.827 Y2.300
G1 X5.072 Y2.342
G1 X5.285 Y2.422
G1 X5.400 Y2.487
G1 X5.500 Y2.558
G1 X5.635 Y2.685
G1 X5.745 Y2.842
G1 X5.777 Y2.913
G1 X5.785 Y2.950
G1 X5.782 Y2.987
G1 X5.768 Y3.025
G1 X5.768 Y3.025
G1 X5.713 Y3.087
G1 X5.660 Y3.115
G0 X5.643 Y3.118
G0 X5.540 Y3.083
G0 X4.495 Y2.600
G1 X4.473 Y2.587
G1 X4.412 Y2.555
G1 X4.390 Y2.525
G1 X4.385 Y2.467
G1 X4.407 Y2.393
G1 X4.407 Y2.393
G1 X4.497 Y2.257
G1 X4.555 Y2.203
G1 X4.625 Y2.167
G1 X4.775 Y2.125
G1 X4.925 Y2.110
G1 X5.173 Y2.143
G1 X5.378 Y2.210
G1 X5.495 Y2.270
G1 X5.595 Y2.335
G1 X5.763 Y2.482
G1 X5.835 Y2.572
G1 X5.890 Y2.675
G1 X5.900 Y2.712
G1 X5.900 Y2.750
G1 X5.875 Y2.822
G1 X5.875 Y2.822
G1 X5.822 Y2.888
G1 X5.772 Y2.920
G0 X5.753 Y2.922
G0 X5.650 Y2.890
G0 X4.598 Y2.420
G1 X4.575 Y2.410
G1 X4.515 Y2.377
G1 X4.490 Y2.348
G1 X4.480 Y2.290
G1 X4.497 Y2.212
G1 X4.497 Y2.212
G1 X4.585 Y2.078
G1 X4.638 Y2.020
G1 X4.742 Y1.968
G1 X4.893 Y1.925
G1 X5.005 Y1.910
G1 X5.253 Y1.933
G1 X5.460 Y1.992
G1 X5.580 Y2.045
G1 X5.685 Y2.107
G1 X5.832 Y2.223
G1 X5.957 Y2.368
G1 X5.995 Y2.433
G1 X6.005 Y2.470
G1 X6.005 Y2.507
G1 X5.965 Y2.615
G1 X5.965 Y2.615
G1 X5.915 Y2.680
G1 X5.865 Y2.712
G0 X5.848 Y2.715
G0 X5.745 Y2.685
G0 X4.685 Y2.237
G1 X4.662 Y2.228
G1 X4.603 Y2.197
G1 X4.577 Y2.167
G1 X4.565 Y2.110
G1 X4.582 Y2.033
G1 X4.582 Y2.033
G1 X4.660 Y1.893
G1 X4.713 Y1.830
G1 X4.745 Y1.805
G1 X4.893 Y1.745
G1 X5.080 Y1.710
G1 X5.327 Y1.722
G1 X5.558 Y1.782
G1 X5.675 Y1.833
G1 X5.780 Y1.890
G1 X5.957 Y2.025
G1 X6.058 Y2.140
G1 X6.095 Y2.208
G1 X6.103 Y2.245
G1 X6.100 Y2.283
G1 X6.072 Y2.357
G1 X6.072 Y2.357
G1 X6.027 Y2.425
G1 X5.978 Y2.460
G0 X5.960 Y2.465
G0 X5.855 Y2.440
G0 X4.770 Y2.047
G1 X4.745 Y2.038
G1 X4.683 Y2.010
G1 X4.657 Y1.982
G1 X4.645 Y1.925
G1 X4.662 Y1.847
G1 X4.662 Y1.847
G1 X4.732 Y1.702
G1 X4.782 Y1.640
G1 X4.815 Y1.615
G1 X4.997 Y1.538
G1 X5.147 Y1.502
G1 X5.395 Y1.505
G1 X5.603 Y1.550
G1 X5.720 Y1.590
G1 X5.835 Y1.647
G1 X6.018 Y1.770
G1 X6.125 Y1.880
G1 X6.168 Y1.942
G1 X6.183 Y1.978
G1 X6.190 Y2.015
G1 X6.185 Y2.053
G1 X6.185 Y2.053
G1 X6.140 Y2.120
G1 X6.090 Y2.155
G0 X6.072 Y2.160
G0 X5.965 Y2.145
G0 X4.853 Y1.850
G1 X4.827 Y1.843
G1 X4.763 Y1.820
G1 X4.735 Y1.792
G1 X4.720 Y1.738
G1 X4.730 Y1.660
G1 X4.730 Y1.660
G1 X4.777 Y1.548
G1 X4.820 Y1.478
G1 X4.845 Y1.448
G1 X4.980 Y1.365
G1 X5.168 Y1.305
G1 X5.205 Y1.298
G1 X5.452 Y1.288
G1 X5.660 Y1.323
G1 X5.777 Y1.357
G1 X5.893 Y1.407
G1 X6.082 Y1.525
G1 X6.168 Y1.603
G1 X6.240 Y1.692
G1 X6.260 Y1.725
G1 X6.268 Y1.762
G1 X6.258 Y1.800
G1 X6.258 Y1.800
G1 X6.218 Y1.870
G1 X6.173 Y1.910
G0 X6.155 Y1.915
G0 X6.048 Y1.903
G0 X4.925 Y1.653
G1 X4.900 Y1.647
G1 X4.832 Y1.627
G1 X4.805 Y1.603
G1 X4.785 Y1.548
G1 X4.793 Y1.470
G1 X4.793 Y1.470
G1 X4.853 Y1.320
G1 X4.900 Y1.252
G1 X5.032 Y1.165
G1 X5.215 Y1.093
G1 X5.253 Y1.083
G1 X5.500 Y1.065
G1 X5.702 Y1.087
G1 X5.830 Y1.123
G1 X5.942 Y1.167
G1 X6.135 Y1.275
G1 X6.225 Y1.345
G1 X6.325 Y1.460
G1 X6.332 Y1.498
G1 X6.320 Y1.573
G1 X6.320 Y1.573
G1 X6.285 Y1.645
G1 X6.242 Y1.688
G0 X6.225 Y1.692
G0 X6.117 Y1.683
G0 X4.985 Y1.455
G1 X4.960 Y1.452
G1 X4.893 Y1.433
G1 X4.865 Y1.407
G1 X4.843 Y1.355
G1 X4.845 Y1.278
G1 X4.845 Y1.278
G1 X4.902 Y1.125
G1 X4.945 Y1.058
G1 X5.040 Y0.983
G1 X5.145 Y0.930
G1 X5.258 Y0.897
G1 X5.503 Y0.860
G1 X5.750 Y0.873
G1 X5.890 Y0.905
G1 X5.997 Y0.943
G1 X6.188 Y1.032
G1 X6.310 Y1.125
G1 X6.362 Y1.183
G1 X6.383 Y1.215
G1 X6.390 Y1.252
G1 X6.383 Y1.290
G1 X6.383 Y1.290
G1 X6.348 Y1.363
G1 X6.305 Y1.405
G0 X6.287 Y1.410
G0 X6.180 Y1.407
G0 X5.037 Y1.255
G1 X5.013 Y1.250
G1 X4.945 Y1.238
G1 X4.915 Y1.212
G1 X4.893 Y1.160
G1 X4.893 Y1.083
G1 X4.893 Y1.083
G1 X4.930 Y0.965
G1 X4.968 Y0.892
G1 X4.992 Y0.860
G1 X5.125 Y0.772
G1 X5.308 Y0.703
G1 X5.553 Y0.652
G1 X5.800 Y0.657
G1 X5.938 Y0.682
G1 X6.048 Y0.718
G1 X6.165 Y0.765
G1 X6.295 Y0.848
G1 X6.405 Y0.953
G1 X6.423 Y0.988
G1 X6.430 Y1.025
G1 X6.425 Y1.062
G1 X6.425 Y1.062
G1 X6.393 Y1.137
G1 X6.353 Y1.177
G0 X6.335 Y1.185
G0 X6.228 Y1.185
G0 X5.088 Y1.055
G1 X5.062 Y1.052
G1 X4.995 Y1.040
G1 X4.963 Y1.018
G1 X4.938 Y0.965
G1 X4.935 Y0.887
G1 X4.935 Y0.887
G1 X4.973 Y0.770
G1 X5.013 Y0.703
G1 X5.138 Y0.603
G1 X5.280 Y0.532
G1 X5.558 Y0.453
G1 X5.805 Y0.443
G1 X5.952 Y0.463
G1 X6.062 Y0.490
G1 X6.178 Y0.535
G1 X6.315 Y0.610
G1 X6.428 Y0.713
G1 X6.450 Y0.743
G1 X6.463 Y0.777
G1 X6.465 Y0.815
G1 X6.465 Y0.815
G1 X6.438 Y0.890
G1 X6.400 Y0.935
G0 X6.385 Y0.943
G0 X6.277 Y0.950
G0 X5.112 Y0.887
G1 X5.088 Y0.885
G1 X5.020 Y0.877
G1 X4.987 Y0.853
G1 X4.963 Y0.790
G1 X4.957 Y0.730
G1 X4.957 Y0.730
G1 X5.005 Y0.575
G1 X5.050 Y0.510
G1 X5.175 Y0.410
G1 X5.353 Y0.323
G1 X5.590 Y0.247
G1 X5.838 Y0.230
G1 X5.973 Y0.245
G1 X6.075 Y0.268
G1 X6.200 Y0.310
G1 X6.345 Y0.383
G1 X6.457 Y0.487
G1 X6.480 Y0.517
G1 X6.492 Y0.552
G1 X6.492 Y0.590
G1 X6.492 Y0.590
G1 X6.452 Y0.660
G1 X6.407 Y0.700
G0 X6.388 Y0.708
G0 X6.277 Y0.718
G0 X5.143 Y0.723
G1 X5.117 Y0.723
G1 X5.050 Y0.718
G1 X5.018 Y0.698
G1 X4.987 Y0.650
G1 X4.980 Y0.573
G1 X4.980 Y0.573
G1 X5.003 Y0.453
G1 X5.030 Y0.378
G1 X5.050 Y0.343
G1 X5.165 Y0.235
G1 X5.335 Y0.135
G1 X5.605 Y0.040
G1 X5.853 Y0.015
G1 X6.000 Y0.030
G1 X6.103 Y0.050
G1 X6.225 Y0.090
G1 X6.423 Y0.212
G1 X6.503 Y0.292
G1 X6.532 Y0.365
G1 X6.537 Y0.403
G1 X6.532 Y0.440
G1 X6.532 Y0.440
G1 X6.492 Y0.510
G1 X6.447 Y0.550
G0 X6.428 Y0.557
G0 X6.317 Y0.568
G0 X5.160 Y0.565
G1 X5.135 Y0.565
G1 X5.067 Y0.557
G1 X5.035 Y0.537
G1 X5.005 Y0.490
G1 X4.995 Y0.412
G1 X4.995 Y0.412
G1 X5.022 Y0.253
G1 X5.050 Y0.175
G1 X5.100 Y0.110
G1 X5.190 Y0.030
G1 X5.353 Y-0.072
G1 X5.582 Y-0.163
G1 X5.812 Y-0.198
G1 X5.935 Y-0.198
G1 X6.045 Y-0.185
G1 X6.183 Y-0.150
G1 X6.325 Y-0.092
G1 X6.452 Y-0.003
G1 X6.505 Y0.052
G1 X6.520 Y0.087
G1 X6.530 Y0.163
G1 X6.530 Y0.163
G1 X6.515 Y0.240
G1 X6.485 Y0.290
G0 X6.470 Y0.297
G0 X6.362 Y0.315
G0 X5.180 Y0.355
G1 X5.155 Y0.357
G1 X5.107 Y0.355
G1 X5.065 Y0.340
G1 X5.035 Y0.307
G1 X5.010 Y0.212
G1 X5.010 Y0.212
G1 X5.025 Y0.092
G1 X5.062 Y-0.022
G1 X5.107 Y-0.085
G1 X5.253 Y-0.212
G1 X5.350 Y-0.270
G1 X5.577 Y-0.370
G1 X5.822 Y-0.412
G1 X5.947 Y-0.412
G1 X6.055 Y-0.403
G1 X6.197 Y-0.370
G1 X6.375 Y-0.285
G1 X6.470 Y-0.212
G1 X6.515 Y-0.147
G1 X6.520 Y-0.107
G1 X6.520 Y-0.107
G1 X6.503 Y-0.022
G1 X6.473 Y0.025
G0 X6.457 Y0.035
G0 X6.350 Y0.055
G0 X5.200 Y0.145
G1 X5.175 Y0.147
G1 X5.105 Y0.145
G1 X5.065 Y0.122
G1 X5.032 Y0.070
G1 X5.020 Y0.013
G1 X5.020 Y0.013
G1 X5.030 Y-0.138
G1 X5.053 Y-0.210
G1 X5.147 Y-0.330
G1 X5.265 Y-0.427
G1 X5.330 Y-0.468
G1 X5.553 Y-0.575
G1 X5.795 Y-0.627
G1 X5.920 Y-0.632
G1 X6.027 Y-0.627
G1 X6.170 Y-0.600
G1 X6.315 Y-0.540
G1 X6.478 Y-0.427
G1 X6.497 Y-0.393
G1 X6.510 Y-0.352
G1 X6.513 Y-0.312
G1 X6.513 Y-0.312
G1 X6.497 Y-0.228
G1 X6.468 Y-0.175
G0 X6.452 Y-0.165
G0 X6.348 Y-0.142
G0 X5.197 Y-0.040
G1 X5.173 Y-0.040
G1 X5.105 Y-0.040
G1 X5.067 Y-0.055
G1 X5.032 Y-0.102
G1 X5.013 Y-0.185
G1 X5.013 Y-0.185
G1 X5.020 Y-0.335
G1 X5.043 Y-0.410
G1 X5.135 Y-0.530
G1 X5.282 Y-0.652
G1 X5.535 Y-0.785
G1 X5.775 Y-0.845
G1 X5.900 Y-0.853
G1 X6.003 Y-0.850
G1 X6.143 Y-0.825
G1 X6.287 Y-0.780
G1 X6.390 Y-0.720
G1 X6.452 Y-0.667
G1 X6.475 Y-0.635
G1 X6.490 Y-0.598
G1 X6.490 Y-0.598
G1 X6.480 Y-0.512
G1 X6.452 Y-0.458
G0 X6.438 Y-0.445
G0 X6.335 Y-0.417
G0 X5.192 Y-0.247
G1 X5.168 Y-0.245
G1 X5.100 Y-0.240
G1 X5.062 Y-0.258
G1 X5.025 Y-0.305
G1 X5.003 Y-0.385
G1 X5.003 Y-0.385
G1 X5.003 Y-0.497
G1 X5.015 Y-0.573
G1 X5.027 Y-0.608
G1 X5.117 Y-0.730
G1 X5.200 Y-0.810
G1 X5.290 Y-0.877
G1 X5.508 Y-0.995
G1 X5.747 Y-1.060
G1 X5.865 Y-1.070
G1 X5.970 Y-1.070
G1 X6.105 Y-1.052
G1 X6.265 Y-1.008
G1 X6.400 Y-0.930
G1 X6.430 Y-0.905
G1 X6.452 Y-0.873
G1 X6.465 Y-0.835
G1 X6.470 Y-0.795
G1 X6.470 Y-0.795
G1 X6.460 Y-0.710
G1 X6.433 Y-0.655
G0 X6.418 Y-0.642
G0 X6.315 Y-0.613
G0 X5.178 Y-0.410
G1 X5.152 Y-0.407
G1 X5.085 Y-0.403
G1 X5.048 Y-0.415
G1 X5.010 Y-0.463
G1 X4.985 Y-0.542
G1 X4.985 Y-0.542
G1 X4.980 Y-0.730
G1 X4.995 Y-0.805
G1 X5.082 Y-0.930
G1 X5.192 Y-1.035
G1 X5.255 Y-1.080
G1 X5.470 Y-1.202
G1 X5.707 Y-1.275
G1 X5.835 Y-1.288
G1 X5.942 Y-1.290
G1 X6.088 Y-1.275
G1 X6.272 Y-1.212
G1 X6.375 Y-1.155
G1 X6.402 Y-1.127
G1 X6.425 Y-1.093
G1 X6.433 Y-1.052
G1 X6.433 Y-1.052
G1 X6.423 Y-0.945
G1 X6.402 Y-0.910
G0 X6.390 Y-0.895
G0 X6.320 Y-0.868
G0 X5.162 Y-0.620
G1 X5.138 Y-0.613
G1 X5.067 Y-0.605
G1 X5.030 Y-0.618
G1 X4.990 Y-0.662
G1 X4.960 Y-0.743
G1 X4.960 Y-0.743
G1 X4.950 Y-0.892
G1 X4.960 Y-0.968
G1 X4.990 Y-1.038
G1 X5.082 Y-1.160
G1 X5.195 Y-1.265
G1 X5.402 Y-1.400
G1 X5.630 Y-1.480
G1 X5.747 Y-1.500
G1 X5.855 Y-1.508
G1 X5.992 Y-1.505
G1 X6.175 Y-1.472
G1 X6.315 Y-1.400
G1 X6.348 Y-1.375
G1 X6.372 Y-1.343
G1 X6.385 Y-1.302
G1 X6.385 Y-1.302
G1 X6.383 Y-1.218
G1 X6.360 Y-1.160
G0 X6.348 Y-1.145
G0 X6.247 Y-1.105
G0 X5.128 Y-0.820
G1 X5.103 Y-0.815
G1 X5.035 Y-0.802
G1 X4.997 Y-0.815
G1 X4.957 Y-0.860
G1 X4.928 Y-0.940
G1 X4.928 Y-0.940
G1 X4.912 Y-1.052
G1 X4.920 Y-1.165
G1 X4.970 Y-1.265
G1 X5.065 Y-1.385
G1 X5.150 Y-1.462
G1 X5.355 Y-1.600
G1 X5.585 Y-1.692
G1 X5.718 Y-1.720
G1 X5.830 Y-1.730
G1 X5.997 Y-1.722
G1 X6.147 Y-1.683
G1 X6.290 Y-1.615
G1 X6.315 Y-1.583
G1 X6.330 Y-1.545
G1 X6.330 Y-1.545
G1 X6.327 Y-1.460
G1 X6.305 Y-1.403
G0 X6.293 Y-1.387
G0 X6.192 Y-1.345
G0 X5.095 Y-1.028
G1 X5.070 Y-1.020
G1 X5.003 Y-1.008
G1 X4.965 Y-1.018
G1 X4.920 Y-1.058
G1 X4.885 Y-1.135
G1 X4.885 Y-1.135
G1 X4.870 Y-1.248
G1 X4.872 Y-1.323
G1 X4.880 Y-1.360
G1 X4.952 Y-1.495
G1 X5.048 Y-1.615
G1 X5.103 Y-1.667
G1 X5.305 Y-1.812
G1 X5.527 Y-1.905
G1 X5.647 Y-1.933
G1 X5.753 Y-1.945
G1 X5.890 Y-1.945
G1 X6.077 Y-1.910
G1 X6.188 Y-1.867
G1 X6.223 Y-1.847
G1 X6.250 Y-1.817
G1 X6.268 Y-1.780
G1 X6.268 Y-1.780
G1 X6.270 Y-1.695
G1 X6.253 Y-1.635
G0 X6.240 Y-1.623
G0 X6.143 Y-1.575
G0 X5.058 Y-1.192
G1 X5.035 Y-1.183
G1 X4.970 Y-1.165
G1 X4.930 Y-1.173
G1 X4.888 Y-1.212
G1 X4.850 Y-1.290
G1 X4.850 Y-1.290
G1 X4.817 Y-1.440
G1 X4.817 Y-1.515
G1 X4.825 Y-1.552
G1 X4.895 Y-1.690
G1 X4.990 Y-1.810
G1 X5.210 Y-1.995
G1 X5.433 Y-2.103
G1 X5.550 Y-2.135
G1 X5.655 Y-2.155
G1 X5.793 Y-2.163
G1 X5.952 Y-2.155
G1 X6.100 Y-2.105
G1 X6.135 Y-2.087
G1 X6.165 Y-2.062
G1 X6.190 Y-2.033
G1 X6.207 Y-1.995
G1 X6.207 Y-1.995
G1 X6.215 Y-1.890
G1 X6.205 Y-1.853
G0 X6.192 Y-1.837
G0 X6.128 Y-1.800
G0 X5.010 Y-1.393
G1 X4.985 Y-1.383
G1 X4.918 Y-1.365
G1 X4.880 Y-1.373
G1 X4.832 Y-1.410
G1 X4.793 Y-1.482
G1 X4.793 Y-1.482
G1 X4.753 Y-1.670
G1 X4.753 Y-1.708
G1 X4.760 Y-1.745
G1 X4.830 Y-1.883
G1 X4.947 Y-2.033
G1 X5.138 Y-2.192
G1 X5.343 Y-2.303
G1 X5.463 Y-2.342
G1 X5.572 Y-2.368
G1 X5.713 Y-2.382
G1 X5.878 Y-2.377
G1 X5.990 Y-2.348
G1 X6.062 Y-2.315
G1 X6.112 Y-2.255
G1 X6.128 Y-2.217
G1 X6.128 Y-2.215
G1 X6.135 Y-2.110
G1 X6.125 Y-2.072
G0 X6.112 Y-2.058
G0 X6.018 Y-2.005
G0 X4.955 Y-1.593
G1 X4.933 Y-1.583
G1 X4.865 Y-1.565
G1 X4.827 Y-1.570
G1 X4.777 Y-1.603
G1 X4.728 Y-1.670
G1 X4.728 Y-1.670
G1 X4.697 Y-1.782
G1 X4.688 Y-1.895
G1 X4.723 Y-2.002
G1 X4.822 Y-2.165
G1 X4.872 Y-2.225
G1 X5.058 Y-2.390
G1 X5.275 Y-2.513
G1 X5.393 Y-2.555
G1 X5.497 Y-2.583
G1 X5.640 Y-2.600
G1 X5.790 Y-2.592
G1 X5.940 Y-2.555
G1 X5.975 Y-2.538
G1 X6.005 Y-2.510
G1 X6.043 Y-2.438
G1 X6.043 Y-2.438
G1 X6.058 Y-2.353
G1 X6.045 Y-2.295
G0 X6.035 Y-2.280
G0 X5.942 Y-2.225
G0 X4.878 Y-1.778
G1 X4.855 Y-1.768
G1 X4.790 Y-1.748
G1 X4.750 Y-1.752
G1 X4.702 Y-1.785
G1 X4.657 Y-1.857
G1 X4.657 Y-1.857
G1 X4.615 Y-2.007
G1 X4.610 Y-2.083
G1 X4.680 Y-2.260
G1 X4.793 Y-2.417
G1 X4.973 Y-2.587
G1 X5.185 Y-2.715
G1 X5.312 Y-2.763
G1 X5.423 Y-2.792
G1 X5.593 Y-2.812
G1 X5.742 Y-2.803
G1 X5.855 Y-2.772
G1 X5.890 Y-2.752
G1 X5.920 Y-2.725
G1 X5.935 Y-2.688
G1 X5.935 Y-2.688
G1 X5.950 Y-2.603
G1 X5.938 Y-2.545
G0 X5.928 Y-2.527
G0 X5.840 Y-2.467
G0 X4.820 Y-1.942
G1 X4.798 Y-1.930
G1 X4.735 Y-1.905
G1 X4.695 Y-1.905
G1 X4.645 Y-1.938
G1 X4.595 Y-2.005
G1 X4.595 Y-2.005
G1 X4.545 Y-2.155
G1 X4.532 Y-2.230
G1 X4.532 Y-2.268
G1 X4.582 Y-2.413
G1 X4.660 Y-2.547
G1 X4.683 Y-2.578
G1 X4.853 Y-2.757
G1 X5.058 Y-2.900
G1 X5.178 Y-2.953
G1 X5.280 Y-2.985
G1 X5.402 Y-3.015
G1 X5.590 Y-3.030
G1 X5.740 Y-3.000
G1 X5.775 Y-2.980
G1 X5.805 Y-2.953
G1 X5.825 Y-2.917
G1 X5.825 Y-2.917
G1 X5.845 Y-2.833
G1 X5.838 Y-2.772
G0 X5.827 Y-2.757
G0 X5.740 Y-2.692
G0 X4.745 Y-2.135
G1 X4.723 Y-2.123
G1 X4.660 Y-2.095
G1 X4.622 Y-2.095
G1 X4.570 Y-2.123
G1 X4.515 Y-2.188
G1 X4.515 Y-2.188
G1 X4.455 Y-2.333
G1 X4.442 Y-2.408
G1 X4.442 Y-2.445
G1 X4.503 Y-2.627
G1 X4.580 Y-2.760
G1 X4.745 Y-2.945
G1 X4.940 Y-3.087
G1 X5.053 Y-3.145
G1 X5.155 Y-3.185
G1 X5.370 Y-3.230
G1 X5.520 Y-3.230
G1 X5.633 Y-3.208
G1 X5.668 Y-3.188
G1 X5.695 Y-3.160
G1 X5.715 Y-3.125
G1 X5.715 Y-3.125
G1 X5.740 Y-3.042
G1 X5.735 Y-2.982
G0 X5.728 Y-2.967
G0 X5.643 Y-2.902
G0 X4.652 Y-2.317
G1 X4.630 Y-2.305
G1 X4.567 Y-2.275
G1 X4.530 Y-2.275
G1 X4.478 Y-2.303
G1 X4.423 Y-2.365
G1 X4.423 Y-2.365
G1 X4.362 Y-2.510
G1 X4.345 Y-2.585
G1 X4.345 Y-2.623
G1 X4.385 Y-2.770
G1 X4.473 Y-2.940
G1 X4.630 Y-3.130
G1 X4.800 Y-3.265
G1 X4.910 Y-3.328
G1 X5.018 Y-3.375
G1 X5.155 Y-3.420
G1 X5.338 Y-3.445
G1 X5.450 Y-3.438
G1 X5.525 Y-3.417
G1 X5.558 Y-3.395
G1 X5.600 Y-3.325
G1 X5.600 Y-3.325
G1 X5.625 Y-3.243
G1 X5.620 Y-3.183
G0 X5.612 Y-3.167
G0 X5.527 Y-3.100
G0 X4.558 Y-2.500
G1 X4.535 Y-2.485
G1 X4.473 Y-2.455
G1 X4.435 Y-2.453
G1 X4.383 Y-2.478
G1 X4.325 Y-2.540
G1 X4.325 Y-2.540
G1 X4.275 Y-2.645
G1 X4.245 Y-2.757
G1 X4.260 Y-2.870
G1 X4.310 Y-3.015
G1 X4.365 Y-3.118
G1 X4.518 Y-3.315
G1 X4.707 Y-3.473
G1 X4.812 Y-3.533
G1 X4.910 Y-3.578
G1 X5.120 Y-3.635
G1 X5.270 Y-3.645
G1 X5.383 Y-3.630
G1 X5.418 Y-3.610
G1 X5.513 Y-3.478
G1 X5.513 Y-3.478
G1 X5.543 Y-3.395
G1 X5.543 Y-3.335
G0 X5.535 Y-3.320
G0 X5.450 Y-3.252
G0 X4.473 Y-2.640
G1 X4.450 Y-2.625
G1 X4.390 Y-2.592
G1 X4.350 Y-2.590
G1 X4.298 Y-2.615
G1 X4.242 Y-2.678
G1 X4.242 Y-2.678
G1 X4.165 Y-2.815
G1 X4.140 Y-2.890
G1 X4.135 Y-2.928
G1 X4.168 Y-3.115
G1 X4.225 Y-3.257
G1 X4.365 Y-3.462
G1 X4.532 Y-3.620
G1 X4.635 Y-3.690
G1 X4.735 Y-3.745
G1 X4.865 Y-3.797
G1 X5.027 Y-3.840
G1 X5.215 Y-3.840
G1 X5.253 Y-3.830
G1 X5.287 Y-3.810
G1 X5.335 Y-3.745
G1 X5.335 Y-3.745
G1 X5.365 Y-3.663
G1 X5.365 Y-3.603
G0 X5.357 Y-3.585
G0 X5.280 Y-3.513
G0 X4.362 Y-2.822
G1 X4.343 Y-2.808
G1 X4.285 Y-2.770
G1 X4.247 Y-2.765
G1 X4.190 Y-2.785
G1 X4.130 Y-2.842
G1 X4.130 Y-2.842
G1 X4.032 Y-3.013
G1 X4.013 Y-3.087
G1 X4.030 Y-3.237
G1 X4.095 Y-3.417
G1 X4.112 Y-3.453
G1 X4.255 Y-3.658
G1 X4.425 Y-3.820
G1 X4.532 Y-3.893
G1 X4.635 Y-3.950
G1 X4.772 Y-4.005
G1 X4.923 Y-4.035
G1 X5.072 Y-4.035
G1 X5.110 Y-4.022
G1 X5.168 Y-3.967
G1 X5.168 Y-3.967
G1 X5.202 Y-3.890
G1 X5.207 Y-3.830
G0 X5.200 Y-3.812
G0 X5.128 Y-3.735
G0 X4.247 Y-3.002
G1 X4.228 Y-2.985
G1 X4.173 Y-2.945
G1 X4.133 Y-2.938
G1 X4.077 Y-2.955
G1 X4.013 Y-3.005
G1 X4.013 Y-3.005
G1 X3.910 Y-3.172
G1 X3.890 Y-3.248
G1 X3.897 Y-3.360
G1 X3.960 Y-3.580
G1 X4.088 Y-3.792
G1 X4.237 Y-3.955
G1 X4.332 Y-4.035
G1 X4.435 Y-4.103
G1 X4.565 Y-4.168
G1 X4.718 Y-4.220
G1 X4.830 Y-4.235
G1 X4.905 Y-4.235
G1 X4.942 Y-4.223
G1 X4.978 Y-4.202
G1 X5.027 Y-4.143
G1 X5.027 Y-4.143
G1 X5.065 Y-4.067
G1 X5.072 Y-4.008
G0 X5.065 Y-3.990
G0 X4.992 Y-3.910
G0 X4.122 Y-3.158
G1 X4.103 Y-3.140
G1 X4.048 Y-3.100
G1 X4.008 Y-3.090
G1 X3.953 Y-3.107
G1 X3.890 Y-3.163
G1 X3.890 Y-3.163
G1 X3.800 Y-3.290
G1 X3.768 Y-3.360
G1 X3.757 Y-3.397
G1 X3.757 Y-3.510
G1 X3.815 Y-3.732
G1 X3.935 Y-3.950
G1 X4.088 Y-4.128
G1 X4.183 Y-4.210
G1 X4.280 Y-4.277
G1 X4.407 Y-4.348
G1 X4.567 Y-4.407
G1 X4.718 Y-4.425
G1 X4.755 Y-4.420
G1 X4.793 Y-4.407
G1 X4.850 Y-4.353
G1 X4.848 Y-4.353
G1 X4.885 Y-4.277
G1 X4.893 Y-4.218
G0 X4.888 Y-4.200
G0 X4.817 Y-4.117
G0 X3.990 Y-3.322
G1 X3.973 Y-3.305
G1 X3.920 Y-3.263
G1 X3.882 Y-3.252
G1 X3.825 Y-3.265
G1 X3.760 Y-3.315
G1 X3.760 Y-3.315
G1 X3.650 Y-3.478
G1 X3.625 Y-3.553
G1 X3.625 Y-3.665
G1 X3.663 Y-3.853
G1 X3.675 Y-3.890
G1 X3.785 Y-4.112
G1 X3.942 Y-4.305
G1 X4.035 Y-4.390
G1 X4.125 Y-4.457
G1 X4.325 Y-4.560
G1 X4.510 Y-4.603
G1 X4.585 Y-4.603
G1 X4.622 Y-4.590
G1 X4.680 Y-4.535
G1 X4.680 Y-4.535
G1 X4.725 Y-4.463
G1 X4.737 Y-4.402
G0 X4.732 Y-4.385
G0 X4.668 Y-4.300
G0 X3.860 Y-3.480
G1 X3.842 Y-3.462
G1 X3.790 Y-3.417
G1 X3.752 Y-3.405
G1 X3.695 Y-3.417
G1 X3.630 Y-3.465
G1 X3.630 Y-3.465
G1 X3.550 Y-3.555
G1 X3.507 Y-3.623
G1 X3.482 Y-3.697
G1 X3.480 Y-3.848
G1 X3.522 Y-4.035
G1 X3.625 Y-4.260
G1 X3.772 Y-4.460
G1 X3.865 Y-4.553
G1 X3.955 Y-4.625
G1 X4.085 Y-4.702
G1 X4.265 Y-4.768
G1 X4.378 Y-4.782
G1 X4.415 Y-4.775
G1 X4.450 Y-4.758
G1 X4.482 Y-4.732
G1 X4.482 Y-4.732
G1 X4.527 Y-4.660
G1 X4.540 Y-4.600
G0 X4.535 Y-4.580
G0 X4.475 Y-4.492
G0 X3.715 Y-3.635
G1 X3.697 Y-3.615
G1 X3.647 Y-3.567
G1 X3.612 Y-3.555
G1 X3.555 Y-3.565
G1 X3.485 Y-3.605
G1 X3.485 Y-3.605
G1 X3.382 Y-3.728
G1 X3.345 Y-3.797
G1 X3.328 Y-3.910
G1 X3.340 Y-4.098
G1 X3.357 Y-4.173
G1 X3.453 Y-4.402
G1 X3.592 Y-4.607
G1 X3.685 Y-4.702
G1 X3.775 Y-4.775
G1 X3.950 Y-4.883
G1 X4.095 Y-4.935
G1 X4.170 Y-4.950
G1 X4.207 Y-4.950
G1 X4.245 Y-4.938
G1 X4.308 Y-4.888
G1 X4.308 Y-4.888
G1 X4.355 Y-4.817
G1 X4.370 Y-4.758
G0 X4.367 Y-4.740
G0 X4.308 Y-4.650
G0 X3.567 Y-3.780
G1 X3.550 Y-3.760
G1 X3.502 Y-3.712
G1 X3.467 Y-3.697
G1 X3.410 Y-3.703
G1 X3.340 Y-3.743
G1 X3.340 Y-3.743
G1 X3.252 Y-3.828
G1 X3.205 Y-3.893
G1 X3.188 Y-3.928
G1 X3.165 Y-4.077
G1 X3.178 Y-4.265
G1 X3.185 Y-4.303
G1 X3.272 Y-4.535
G1 X3.388 Y-4.718
G1 X3.467 Y-4.810
G1 X3.550 Y-4.893
G1 X3.745 Y-5.030
G1 X3.888 Y-5.088
G1 X4.000 Y-5.110
G1 X4.037 Y-5.103
G1 X4.105 Y-5.058
G1 X4.105 Y-5.058
G1 X4.157 Y-4.990
G1 X4.175 Y-4.933
G0 X4.175 Y-4.915
G0 X4.120 Y-4.822
G0 X3.410 Y-3.913
G1 X3.395 Y-3.893
G1 X3.350 Y-3.842
G1 X3.315 Y-3.828
G1 X3.257 Y-3.833
G1 X3.188 Y-3.873
G1 X3.188 Y-3.873
G1 X3.072 Y-3.985
G1 X3.033 Y-4.053
G1 X3.002 Y-4.202
G1 X3.002 Y-4.353
G1 X3.013 Y-4.428
G1 X3.090 Y-4.662
G1 X3.203 Y-4.855
G1 X3.280 Y-4.957
G1 X3.368 Y-5.048
G1 X3.550 Y-5.178
G1 X3.652 Y-5.228
G1 X3.765 Y-5.260
G1 X3.803 Y-5.265
G1 X3.840 Y-5.258
G1 X3.875 Y-5.240
G1 X3.905 Y-5.215
G1 X3.905 Y-5.215
G1 X3.958 Y-5.147
G1 X3.978 Y-5.090
G0 X3.975 Y-5.072
G0 X3.925 Y-4.975
G0 X3.283 Y-4.025
G1 X3.268 Y-4.005
G1 X3.225 Y-3.950
G1 X3.190 Y-3.933
G1 X3.132 Y-3.935
G1 X3.060 Y-3.970
G1 X3.060 Y-3.970
G1 X2.940 Y-4.075
G1 X2.888 Y-4.135
G1 X2.853 Y-4.205
G1 X2.830 Y-4.317
G1 X2.828 Y-4.468
G1 X2.837 Y-4.543
G1 X2.900 Y-4.782
G1 X3.018 Y-5.000
G1 X3.090 Y-5.098
G1 X3.167 Y-5.180
G1 X3.328 Y-5.310
G1 X3.462 Y-5.383
G1 X3.572 Y-5.415
G1 X3.610 Y-5.412
G1 X3.647 Y-5.397
G1 X3.680 Y-5.375
G1 X3.680 Y-5.375
G1 X3.735 Y-5.312
G1 X3.757 Y-5.258
G0 X3.757 Y-5.240
G0 X3.710 Y-5.143
G0 X3.090 Y-4.180
G1 X3.075 Y-4.160
G1 X3.035 Y-4.105
G1 X3.000 Y-4.088
G1 X2.942 Y-4.085
G1 X2.868 Y-4.112
G1 X2.868 Y-4.112
G1 X2.745 Y-4.218
G1 X2.700 Y-4.280
G1 X2.658 Y-4.428
G1 X2.645 Y-4.615
G1 X2.647 Y-4.652
G1 X2.708 Y-4.893
G1 X2.785 Y-5.065
G1 X2.853 Y-5.170
G1 X2.925 Y-5.265
G1 X3.040 Y-5.383
G1 X3.180 Y-5.487
G1 X3.320 Y-5.548
G1 X3.357 Y-5.555
G1 X3.395 Y-5.550
G1 X3.467 Y-5.515
G1 X3.467 Y-5.515
G1 X3.525 Y-5.455
G1 X3.550 Y-5.400
G0 X3.553 Y-5.383
G0 X3.507 Y-5.285
G0 X2.917 Y-4.293
G1 X2.905 Y-4.270
G1 X2.865 Y-4.213
G1 X2.833 Y-4.195
G1 X2.775 Y-4.195
G1 X2.703 Y-4.225
G1 X2.703 Y-4.225
G1 X2.575 Y-4.325
G1 X2.525 Y-4.388
G1 X2.487 Y-4.500
G1 X2.462 Y-4.688
G1 X2.465 Y-4.763
G1 X2.518 Y-5.005
G1 X2.610 Y-5.218
G1 X2.680 Y-5.330
G1 X2.752 Y-5.425
G1 X2.888 Y-5.555
G1 X2.982 Y-5.620
G1 X3.125 Y-5.680
G1 X3.163 Y-5.683
G1 X3.200 Y-5.675
G1 X3.268 Y-5.635
G1 X3.268 Y-5.635
G1 X3.325 Y-5.575
G1 X3.353 Y-5.520
G0 X3.353 Y-5.503
G0 X3.310 Y-5.402
G0 X2.745 Y-4.405
G1 X2.732 Y-4.383
G1 X2.695 Y-4.325
G1 X2.663 Y-4.305
G1 X2.605 Y-4.300
G1 X2.530 Y-4.327
G1 X2.530 Y-4.327
G1 X2.400 Y-4.423
G1 X2.345 Y-4.480
G1 X2.295 Y-4.628
G1 X2.270 Y-4.815
G1 X2.270 Y-4.853
G1 X2.312 Y-5.098
G1 X2.377 Y-5.275
G1 X2.435 Y-5.388
G1 X2.502 Y-5.492
G1 X2.635 Y-5.645
G1 X2.755 Y-5.740
G1 X2.890 Y-5.808
G1 X2.928 Y-5.810
G1 X2.965 Y-5.800
G1 X3.035 Y-5.763
G1 X3.035 Y-5.763
G1 X3.098 Y-5.707
G1 X3.125 Y-5.655
G0 X3.127 Y-5.638
G0 X3.090 Y-5.535
G0 X2.572 Y-4.522
G1 X2.560 Y-4.500
G1 X2.525 Y-4.440
G1 X2.493 Y-4.418
G1 X2.435 Y-4.407
G1 X2.357 Y-4.425
G1 X2.357 Y-4.425
G1 X2.223 Y-4.515
G1 X2.167 Y-4.572
G1 X2.132 Y-4.643
G1 X2.090 Y-4.793
G1 X2.075 Y-4.942
G1 X2.107 Y-5.190
G1 X2.178 Y-5.402
G1 X2.240 Y-5.522
G1 X2.303 Y-5.620
G1 X2.450 Y-5.787
G1 X2.605 Y-5.897
G1 X2.640 Y-5.912
G1 X2.678 Y-5.920
G1 X2.715 Y-5.920
G1 X2.825 Y-5.872
G1 X2.825 Y-5.872
G1 X2.890 Y-5.820
G1 X2.920 Y-5.770
G0 X2.922 Y-5.753
G0 X2.890 Y-5.650
G0 X2.390 Y-4.615
G1 X2.377 Y-4.593
G1 X2.342 Y-4.532
G1 X2.312 Y-4.508
G1 X2.255 Y-4.497
G1 X2.178 Y-4.515
G1 X2.178 Y-4.515
G1 X2.042 Y-4.603
G1 X1.985 Y-4.657
G1 X1.933 Y-4.763
G1 X1.893 Y-4.912
G1 X1.877 Y-5.025
G1 X1.900 Y-5.272
G1 X1.955 Y-5.468
G1 X2.005 Y-5.582
G1 X2.062 Y-5.688
G1 X2.208 Y-5.875
G1 X2.325 Y-5.975
G1 X2.390 Y-6.013
G1 X2.428 Y-6.025
G1 X2.465 Y-6.025
G1 X2.540 Y-5.997
G1 X2.540 Y-5.997
G1 X2.605 Y-5.947
G1 X2.638 Y-5.897
G0 X2.640 Y-5.880
G0 X2.615 Y-5.775
G0 X2.232 Y-4.690
G1 X2.223 Y-4.665
G1 X2.195 Y-4.603
G1 X2.167 Y-4.577
G1 X2.110 Y-4.565
G1 X2.033 Y-4.582
G1 X2.033 Y-4.582
G1 X1.890 Y-4.655
G1 X1.825 Y-4.702
G1 X1.775 Y-4.763
G1 X1.725 Y-4.867
G1 X1.677 Y-5.055
G1 X1.673 Y-5.093
G1 X1.685 Y-5.340
G1 X1.735 Y-5.545
G1 X1.782 Y-5.668
G1 X1.843 Y-5.782
G1 X1.952 Y-5.938
G1 X2.030 Y-6.020
G1 X2.155 Y-6.107
G1 X2.192 Y-6.117
G1 X2.230 Y-6.120
G1 X2.305 Y-6.090
G1 X2.305 Y-6.090
G1 X2.373 Y-6.045
G1 X2.408 Y-5.995
G0 X2.413 Y-5.978
G0 X2.390 Y-5.872
G0 X2.013 Y-4.790
G1 X2.002 Y-4.768
G1 X1.975 Y-4.705
G1 X1.948 Y-4.678
G1 X1.890 Y-4.662
G1 X1.812 Y-4.675
G1 X1.812 Y-4.675
G1 X1.667 Y-4.745
G1 X1.605 Y-4.795
G1 X1.542 Y-4.897
G1 X1.480 Y-5.082
G1 X1.465 Y-5.157
G1 X1.468 Y-5.405
G1 X1.512 Y-5.615
G1 X1.552 Y-5.732
G1 X1.605 Y-5.853
G1 X1.715 Y-6.020
G1 X1.820 Y-6.130
G1 X1.913 Y-6.195
G1 X1.950 Y-6.205
G1 X1.988 Y-6.205
G1 X2.062 Y-6.180
G1 X2.062 Y-6.180
G1 X2.130 Y-6.135
G1 X2.165 Y-6.085
G0 X2.170 Y-6.067
G0 X2.150 Y-5.963
G0 X1.815 Y-4.865
G1 X1.808 Y-4.840
G1 X1.785 Y-4.775
G1 X1.755 Y-4.747
G1 X1.700 Y-4.732
G1 X1.623 Y-4.742
G1 X1.623 Y-4.742
G1 X1.475 Y-4.808
G1 X1.410 Y-4.855
G1 X1.327 Y-4.990
G1 X1.265 Y-5.175
G1 X1.258 Y-5.213
G1 X1.250 Y-5.460
G1 X1.285 Y-5.675
G1 X1.323 Y-5.800
G1 X1.373 Y-5.918
G1 X1.468 Y-6.080
G1 X1.595 Y-6.220
G1 X1.655 Y-6.265
G1 X1.690 Y-6.277
G1 X1.728 Y-6.280
G1 X1.802 Y-6.258
G1 X1.802 Y-6.258
G1 X1.873 Y-6.218
G1 X1.913 Y-6.173
G0 X1.917 Y-6.155
G0 X1.903 Y-6.048
G0 X1.617 Y-4.940
G1 X1.613 Y-4.915
G1 X1.590 Y-4.850
G1 X1.565 Y-4.820
G1 X1.510 Y-4.800
G1 X1.433 Y-4.803
G1 X1.433 Y-4.803
G1 X1.282 Y-4.860
G1 X1.215 Y-4.902
G1 X1.165 Y-4.963
G1 X1.107 Y-5.065
G1 X1.048 Y-5.253
G1 X1.028 Y-5.500
G1 X1.055 Y-5.737
G1 X1.087 Y-5.862
G1 X1.130 Y-5.973
G1 X1.218 Y-6.135
G1 X1.312 Y-6.255
G1 X1.400 Y-6.330
G1 X1.438 Y-6.343
G1 X1.550 Y-6.325
G1 X1.550 Y-6.325
G1 X1.623 Y-6.290
G1 X1.665 Y-6.247
G0 X1.670 Y-6.230
G0 X1.660 Y-6.122
G0 X1.420 Y-4.990
G1 X1.415 Y-4.965
G1 X1.397 Y-4.897
G1 X1.373 Y-4.870
G1 X1.317 Y-4.850
G1 X1.240 Y-4.857
G1 X1.240 Y-4.857
G1 X1.123 Y-4.893
G1 X1.018 Y-4.952
G1 X0.968 Y-5.013
G1 X0.910 Y-5.115
G1 X0.863 Y-5.265
G1 X0.820 Y-5.510
G1 X0.833 Y-5.758
G1 X0.863 Y-5.905
G1 X0.902 Y-6.018
G1 X1.012 Y-6.230
G1 X1.083 Y-6.322
G1 X1.137 Y-6.375
G1 X1.173 Y-6.393
G1 X1.210 Y-6.397
G1 X1.323 Y-6.375
G1 X1.323 Y-6.375
G1 X1.395 Y-6.340
G1 X1.438 Y-6.298
G0 X1.442 Y-6.280
G0 X1.435 Y-6.173
G0 X1.222 Y-5.045
G1 X1.218 Y-5.020
G1 X1.200 Y-4.952
G1 X1.175 Y-4.923
G1 X1.123 Y-4.900
G1 X1.045 Y-4.902
G1 X1.045 Y-4.902
G1 X0.927 Y-4.935
G1 X0.855 Y-4.973
G1 X0.823 Y-4.997
G1 X0.733 Y-5.130
G1 X0.665 Y-5.315
G1 X0.613 Y-5.558
G1 X0.615 Y-5.805
G1 X0.642 Y-5.955
G1 X0.675 Y-6.067
G1 X0.728 Y-6.190
G1 X0.838 Y-6.348
G1 X0.922 Y-6.425
G1 X0.960 Y-6.438
G1 X1.073 Y-6.423
G1 X1.073 Y-6.423
G1 X1.147 Y-6.390
G1 X1.188 Y-6.350
G0 X1.195 Y-6.332
G0 X1.192 Y-6.225
G0 X1.020 Y-5.095
G1 X1.015 Y-5.070
G1 X1.000 Y-5.003
G1 X0.973 Y-4.970
G1 X0.910 Y-4.945
G1 X0.850 Y-4.940
G1 X0.850 Y-4.940
G1 X0.770 Y-4.960
G1 X0.695 Y-4.992
G1 X0.660 Y-5.015
G1 X0.562 Y-5.138
G1 X0.477 Y-5.315
G1 X0.410 Y-5.555
G1 X0.398 Y-5.803
G1 X0.415 Y-5.942
G1 X0.443 Y-6.050
G1 X0.482 Y-6.162
G1 X0.562 Y-6.320
G1 X0.665 Y-6.433
G1 X0.695 Y-6.455
G1 X0.730 Y-6.468
G1 X0.880 Y-6.455
G1 X0.880 Y-6.455
G1 X0.955 Y-6.423
G1 X0.995 Y-6.383
G0 X1.002 Y-6.365
G0 X1.002 Y-6.258
G0 X0.858 Y-5.117
G1 X0.853 Y-5.093
G1 X0.840 Y-5.025
G1 X0.812 Y-4.992
G1 X0.750 Y-4.968
G1 X0.690 Y-4.963
G1 X0.690 Y-4.963
G1 X0.570 Y-4.995
G1 X0.497 Y-5.027
G1 X0.465 Y-5.053
G1 X0.365 Y-5.178
G1 X0.278 Y-5.353
G1 X0.200 Y-5.590
G1 X0.185 Y-5.838
G1 X0.198 Y-5.968
G1 X0.220 Y-6.075
G1 X0.263 Y-6.202
G1 X0.335 Y-6.348
G1 X0.438 Y-6.463
G1 X0.468 Y-6.487
G1 X0.502 Y-6.503
G1 X0.540 Y-6.505
G1 X0.615 Y-6.487
G1 X0.615 Y-6.487
G1 X0.685 Y-6.447
G1 X0.725 Y-6.402
G0 X0.733 Y-6.383
G0 X0.738 Y-6.275
G0 X0.688 Y-5.147
G1 X0.688 Y-5.122
G1 X0.680 Y-5.055
G1 X0.660 Y-5.022
G1 X0.610 Y-4.992
G1 X0.532 Y-4.985
G1 X0.532 Y-4.985
G1 X0.412 Y-5.005
G1 X0.335 Y-5.032
G1 X0.270 Y-5.077
G1 X0.190 Y-5.168
G1 X0.090 Y-5.338
G1 X-0.005 Y-5.607
G1 X-0.030 Y-5.855
G1 X-0.018 Y-6.008
G1 X0.007 Y-6.117
G1 X0.043 Y-6.225
G1 X0.115 Y-6.360
G1 X0.185 Y-6.452
G1 X0.240 Y-6.505
G1 X0.310 Y-6.535
G1 X0.422 Y-6.535
G1 X0.460 Y-6.527
G1 X0.460 Y-6.527
G1 X0.530 Y-6.487
G1 X0.570 Y-6.442
G0 X0.578 Y-6.423
G0 X0.580 Y-6.315
G0 X0.492 Y-5.168
G1 X0.490 Y-5.143
G1 X0.480 Y-5.075
G1 X0.460 Y-5.043
G1 X0.410 Y-5.013
G1 X0.333 Y-5.003
G1 X0.333 Y-5.003
G1 X0.212 Y-5.022
G1 X0.135 Y-5.050
G1 X0.100 Y-5.070
G1 X-0.055 Y-5.247
G1 X-0.113 Y-5.348
G1 X-0.207 Y-5.577
G1 X-0.245 Y-5.822
G1 X-0.242 Y-5.947
G1 X-0.230 Y-6.058
G1 X-0.195 Y-6.200
G1 X-0.125 Y-6.340
G1 X-0.003 Y-6.497
G1 X0.030 Y-6.518
G1 X0.255 Y-6.532
G1 X0.255 Y-6.532
G1 X0.333 Y-6.518
G1 X0.380 Y-6.487
G0 X0.390 Y-6.473
G0 X0.398 Y-6.397
G0 X0.328 Y-5.183
G1 X0.328 Y-5.157
G1 X0.312 Y-5.088
G1 X0.287 Y-5.050
G1 X0.230 Y-5.020
G1 X0.172 Y-5.013
G1 X0.172 Y-5.013
G1 X0.013 Y-5.035
G1 X-0.060 Y-5.060
G1 X-0.150 Y-5.128
G1 X-0.273 Y-5.275
G1 X-0.312 Y-5.340
G1 X-0.415 Y-5.567
G1 X-0.460 Y-5.812
G1 X-0.460 Y-5.933
G1 X-0.453 Y-6.037
G1 X-0.422 Y-6.175
G1 X-0.370 Y-6.320
G1 X-0.280 Y-6.452
G1 X-0.253 Y-6.482
G1 X-0.220 Y-6.505
G1 X-0.182 Y-6.518
G1 X0.015 Y-6.525
G1 X0.015 Y-6.525
G1 X0.092 Y-6.510
G1 X0.140 Y-6.480
G0 X0.150 Y-6.465
G0 X0.160 Y-6.357
G0 X0.125 Y-5.200
G1 X0.125 Y-5.175
G1 X0.113 Y-5.105
G1 X0.087 Y-5.065
G1 X0.035 Y-5.032
G1 X-0.022 Y-5.020
G1 X-0.022 Y-5.020
G1 X-0.172 Y-5.027
G1 X-0.247 Y-5.048
G1 X-0.312 Y-5.088
G1 X-0.422 Y-5.192
G1 X-0.510 Y-5.317
G1 X-0.620 Y-5.540
G1 X-0.675 Y-5.782
G1 X-0.680 Y-5.905
G1 X-0.675 Y-6.010
G1 X-0.650 Y-6.152
G1 X-0.603 Y-6.305
G1 X-0.542 Y-6.407
G1 X-0.492 Y-6.470
G1 X-0.460 Y-6.492
G1 X-0.422 Y-6.508
G1 X-0.302 Y-6.513
G1 X-0.302 Y-6.513
G1 X-0.217 Y-6.497
G1 X-0.165 Y-6.468
G0 X-0.155 Y-6.452
G0 X-0.135 Y-6.345
G0 X-0.075 Y-5.195
G1 X-0.072 Y-5.170
G1 X-0.075 Y-5.103
G1 X-0.092 Y-5.065
G1 X-0.140 Y-5.030
G1 X-0.223 Y-5.010
G1 X-0.223 Y-5.010
G1 X-0.372 Y-5.020
G1 X-0.448 Y-5.040
G1 X-0.573 Y-5.130
G1 X-0.718 Y-5.308
G1 X-0.833 Y-5.527
G1 X-0.890 Y-5.765
G1 X-0.900 Y-5.880
G1 X-0.897 Y-5.990
G1 X-0.880 Y-6.128
G1 X-0.833 Y-6.293
G1 X-0.772 Y-6.395
G1 X-0.720 Y-6.455
G1 X-0.685 Y-6.478
G1 X-0.485 Y-6.500
G1 X-0.485 Y-6.500
G1 X-0.400 Y-6.487
G1 X-0.345 Y-6.460
G0 X-0.335 Y-6.445
G0 X-0.318 Y-6.370
G0 X-0.235 Y-5.192
G1 X-0.235 Y-5.168
G1 X-0.235 Y-5.100
G1 X-0.253 Y-5.062
G1 X-0.300 Y-5.025
G1 X-0.383 Y-5.003
G1 X-0.383 Y-5.003
G1 X-0.532 Y-5.000
G1 X-0.608 Y-5.013
G1 X-0.645 Y-5.025
G1 X-0.797 Y-5.140
G1 X-0.920 Y-5.285
G1 X-1.040 Y-5.503
G1 X-1.107 Y-5.737
G1 X-1.120 Y-5.862
G1 X-1.120 Y-5.970
G1 X-1.103 Y-6.110
G1 X-1.038 Y-6.295
G1 X-0.978 Y-6.397
G1 X-0.950 Y-6.428
G1 X-0.915 Y-6.447
G1 X-0.715 Y-6.480
G1 X-0.715 Y-6.480
G1 X-0.630 Y-6.468
G1 X-0.575 Y-6.440
G0 X-0.565 Y-6.425
G0 X-0.545 Y-6.350
G0 X-0.438 Y-5.173
G1 X-0.438 Y-5.147
G1 X-0.438 Y-5.080
G1 X-0.453 Y-5.043
G1 X-0.500 Y-5.005
G1 X-0.583 Y-4.982
G1 X-0.583 Y-4.982
G1 X-0.733 Y-4.980
G1 X-0.807 Y-4.992
G1 X-0.940 Y-5.070
G1 X-1.055 Y-5.175
G1 X-1.105 Y-5.235
G1 X-1.238 Y-5.445
G1 X-1.315 Y-5.670
G1 X-1.333 Y-5.787
G1 X-1.337 Y-5.890
G1 X-1.330 Y-6.022
G1 X-1.298 Y-6.190
G1 X-1.228 Y-6.332
G1 X-1.177 Y-6.395
G1 X-1.143 Y-6.415
G1 X-0.943 Y-6.447
G1 X-0.943 Y-6.447
G1 X-0.858 Y-6.440
G1 X-0.800 Y-6.415
G0 X-0.790 Y-6.400
G0 X-0.762 Y-6.298
G0 X-0.608 Y-5.162
G1 X-0.603 Y-5.138
G1 X-0.600 Y-5.067
G1 X-0.615 Y-5.030
G1 X-0.660 Y-4.990
G1 X-0.740 Y-4.960
G1 X-0.740 Y-4.960
G1 X-0.927 Y-4.945
G1 X-1.002 Y-4.955
G1 X-1.073 Y-4.985
G1 X-1.225 Y-5.100
G1 X-1.302 Y-5.183
G1 X-1.440 Y-5.388
G1 X-1.525 Y-5.620
G1 X-1.545 Y-5.737
G1 X-1.555 Y-5.838
G1 X-1.555 Y-5.985
G1 X-1.520 Y-6.165
G1 X-1.450 Y-6.308
G1 X-1.425 Y-6.338
G1 X-1.393 Y-6.360
G1 X-1.195 Y-6.410
G1 X-1.195 Y-6.410
G1 X-1.087 Y-6.400
G1 X-1.052 Y-6.380
G0 X-1.040 Y-6.367
G0 X-1.015 Y-6.295
G0 X-0.853 Y-5.133
G1 X-0.850 Y-5.107
G1 X-0.845 Y-5.037
G1 X-0.858 Y-5.000
G1 X-0.900 Y-4.955
G1 X-0.978 Y-4.923
G1 X-0.978 Y-4.923
G1 X-1.127 Y-4.902
G1 X-1.202 Y-4.910
G1 X-1.272 Y-4.940
G1 X-1.427 Y-5.053
G1 X-1.508 Y-5.138
G1 X-1.647 Y-5.343
G1 X-1.740 Y-5.572
G1 X-1.768 Y-5.697
G1 X-1.780 Y-5.808
G1 X-1.778 Y-5.952
G1 X-1.730 Y-6.140
G1 X-1.683 Y-6.247
G1 X-1.660 Y-6.280
G1 X-1.627 Y-6.305
G1 X-1.430 Y-6.355
G1 X-1.430 Y-6.355
G1 X-1.345 Y-6.353
G1 X-1.288 Y-6.330
G0 X-1.275 Y-6.317
G0 X-1.248 Y-6.245
G0 X-1.050 Y-5.090
G1 X-1.048 Y-5.065
G1 X-1.040 Y-4.995
G1 X-1.052 Y-4.957
G1 X-1.095 Y-4.912
G1 X-1.173 Y-4.878
G1 X-1.173 Y-4.878
G1 X-1.323 Y-4.855
G1 X-1.397 Y-4.860
G1 X-1.532 Y-4.928
G1 X-1.702 Y-5.082
G1 X-1.850 Y-5.282
G1 X-1.950 Y-5.510
G1 X-1.980 Y-5.635
G1 X-1.992 Y-5.742
G1 X-1.995 Y-5.865
G1 X-1.978 Y-6.030
G1 X-1.920 Y-6.175
G1 X-1.900 Y-6.210
G1 X-1.870 Y-6.237
G1 X-1.633 Y-6.308
G1 X-1.633 Y-6.308
G1 X-1.548 Y-6.310
G1 X-1.490 Y-6.293
G0 X-1.478 Y-6.280
G0 X-1.450 Y-6.210
G0 X-1.252 Y-5.045
G1 X-1.250 Y-5.020
G1 X-1.242 Y-4.950
G1 X-1.255 Y-4.910
G1 X-1.292 Y-4.865
G1 X-1.365 Y-4.825
G1 X-1.365 Y-4.825
G1 X-1.515 Y-4.803
G1 X-1.552 Y-4.803
G1 X-1.590 Y-4.810
G1 X-1.728 Y-4.880
G1 X-1.847 Y-4.973
G1 X-2.035 Y-5.190
G1 X-2.147 Y-5.412
G1 X-2.185 Y-5.532
G1 X-2.208 Y-5.640
G1 X-2.217 Y-5.782
G1 X-2.208 Y-5.935
G1 X-2.160 Y-6.085
G1 X-2.143 Y-6.120
G1 X-2.085 Y-6.175
G1 X-1.893 Y-6.237
G1 X-1.893 Y-6.237
G1 X-1.808 Y-6.240
G1 X-1.750 Y-6.223
G0 X-1.735 Y-6.210
G0 X-1.705 Y-6.140
G0 X-1.417 Y-4.997
G1 X-1.410 Y-4.973
G1 X-1.400 Y-4.905
G1 X-1.410 Y-4.865
G1 X-1.448 Y-4.820
G1 X-1.520 Y-4.780
G1 X-1.520 Y-4.780
G1 X-1.670 Y-4.745
G1 X-1.745 Y-4.742
G1 X-1.782 Y-4.750
G1 X-1.920 Y-4.815
G1 X-2.075 Y-4.935
G1 X-2.237 Y-5.122
G1 X-2.355 Y-5.340
G1 X-2.393 Y-5.455
G1 X-2.417 Y-5.560
G1 X-2.433 Y-5.775
G1 X-2.400 Y-5.963
G1 X-2.370 Y-6.035
G1 X-2.345 Y-6.067
G1 X-2.312 Y-6.093
G1 X-2.123 Y-6.160
G1 X-2.123 Y-6.160
G1 X-2.018 Y-6.168
G1 X-1.980 Y-6.155
G0 X-1.965 Y-6.145
G0 X-1.933 Y-6.077
G0 X-1.610 Y-4.942
G1 X-1.605 Y-4.918
G1 X-1.590 Y-4.850
G1 X-1.597 Y-4.810
G1 X-1.635 Y-4.763
G1 X-1.708 Y-4.718
G1 X-1.708 Y-4.718
G1 X-1.857 Y-4.678
G1 X-1.933 Y-4.673
G1 X-2.075 Y-4.723
G1 X-2.203 Y-4.805
G1 X-2.263 Y-4.855
G1 X-2.433 Y-5.037
G1 X-2.558 Y-5.253
G1 X-2.603 Y-5.372
G1 X-2.630 Y-5.482
G1 X-2.647 Y-5.612
G1 X-2.638 Y-5.800
G1 X-2.607 Y-5.912
G1 X-2.592 Y-5.950
G1 X-2.567 Y-5.980
G1 X-2.345 Y-6.080
G1 X-2.345 Y-6.080
G1 X-2.240 Y-6.088
G1 X-2.203 Y-6.075
G0 X-2.188 Y-6.065
G0 X-2.152 Y-5.997
G0 X-1.812 Y-4.880
G1 X-1.805 Y-4.855
G1 X-1.790 Y-4.787
G1 X-1.798 Y-4.745
G1 X-1.827 Y-4.695
G1 X-1.895 Y-4.643
G1 X-1.895 Y-4.643
G1 X-2.045 Y-4.600
G1 X-2.120 Y-4.595
G1 X-2.265 Y-4.645
G1 X-2.428 Y-4.747
G1 X-2.458 Y-4.772
G1 X-2.630 Y-4.950
G1 X-2.760 Y-5.162
G1 X-2.810 Y-5.287
G1 X-2.842 Y-5.395
G1 X-2.865 Y-5.545
G1 X-2.853 Y-5.732
G1 X-2.835 Y-5.808
G1 X-2.820 Y-5.845
G1 X-2.795 Y-5.875
G1 X-2.765 Y-5.900
G1 X-2.542 Y-5.997
G1 X-2.542 Y-5.997
G1 X-2.458 Y-6.013
G1 X-2.400 Y-6.000
G0 X-2.385 Y-5.990
G0 X-2.348 Y-5.925
G0 X-1.965 Y-4.810
G1 X-1.955 Y-4.787
G1 X-1.938 Y-4.720
G1 X-1.942 Y-4.680
G1 X-1.975 Y-4.630
G1 X-2.042 Y-4.580
G1 X-2.042 Y-4.580
G1 X-2.230 Y-4.518
G1 X-2.305 Y-4.513
G1 X-2.450 Y-4.562
G1 X-2.612 Y-4.662
G1 X-2.795 Y-4.832
G1 X-2.940 Y-5.035
G1 X-3.000 Y-5.157
G1 X-3.038 Y-5.265
G1 X-3.070 Y-5.430
G1 X-3.072 Y-5.580
G1 X-3.050 Y-5.692
G1 X-3.038 Y-5.730
G1 X-3.015 Y-5.763
G1 X-2.985 Y-5.790
G1 X-2.810 Y-5.878
G1 X-2.810 Y-5.878
G1 X-2.725 Y-5.897
G1 X-2.667 Y-5.890
G0 X-2.652 Y-5.880
G0 X-2.612 Y-5.817
G0 X-2.160 Y-4.730
G1 X-2.150 Y-4.707
G1 X-2.130 Y-4.643
G1 X-2.130 Y-4.603
G1 X-2.160 Y-4.550
G1 X-2.223 Y-4.495
G1 X-2.223 Y-4.495
G1 X-2.408 Y-4.428
G1 X-2.482 Y-4.423
G1 X-2.665 Y-4.487
G1 X-2.797 Y-4.562
G1 X-2.985 Y-4.725
G1 X-3.132 Y-4.925
G1 X-3.190 Y-5.037
G1 X-3.232 Y-5.143
G1 X-3.270 Y-5.282
G1 X-3.283 Y-5.470
G1 X-3.265 Y-5.582
G1 X-3.252 Y-5.620
G1 X-3.228 Y-5.652
G1 X-3.055 Y-5.755
G1 X-3.055 Y-5.755
G1 X-2.970 Y-5.775
G1 X-2.913 Y-5.768
G0 X-2.895 Y-5.758
G0 X-2.837 Y-5.668
G0 X-2.342 Y-4.640
G1 X-2.330 Y-4.617
G1 X-2.305 Y-4.553
G1 X-2.308 Y-4.513
G1 X-2.335 Y-4.460
G1 X-2.400 Y-4.405
G1 X-2.400 Y-4.405
G1 X-2.542 Y-4.345
G1 X-2.618 Y-4.327
G1 X-2.655 Y-4.327
G1 X-2.840 Y-4.383
G1 X-2.975 Y-4.452
G1 X-3.167 Y-4.610
G1 X-3.310 Y-4.782
G1 X-3.375 Y-4.895
G1 X-3.425 Y-5.003
G1 X-3.475 Y-5.180
G1 X-3.487 Y-5.367
G1 X-3.480 Y-5.442
G1 X-3.470 Y-5.480
G1 X-3.450 Y-5.515
G1 X-3.422 Y-5.545
G1 X-3.248 Y-5.645
G1 X-3.248 Y-5.645
G1 X-3.165 Y-5.670
G1 X-3.105 Y-5.665
G0 X-3.090 Y-5.657
G0 X-3.027 Y-5.567
G0 X-2.493 Y-4.560
G1 X-2.480 Y-4.537
G1 X-2.453 Y-4.475
G1 X-2.453 Y-4.435
G1 X-2.478 Y-4.383
G1 X-2.540 Y-4.325
G1 X-2.540 Y-4.325
G1 X-2.715 Y-4.237
G1 X-2.790 Y-4.218
G1 X-2.828 Y-4.218
G1 X-3.013 Y-4.268
G1 X-3.150 Y-4.335
G1 X-3.348 Y-4.485
G1 X-3.500 Y-4.660
G1 X-3.565 Y-4.768
G1 X-3.615 Y-4.870
G1 X-3.672 Y-5.043
G1 X-3.692 Y-5.192
G1 X-3.685 Y-5.305
G1 X-3.678 Y-5.343
G1 X-3.660 Y-5.378
G1 X-3.635 Y-5.407
G1 X-3.500 Y-5.495
G1 X-3.500 Y-5.495
G1 X-3.417 Y-5.525
G1 X-3.377 Y-5.527
G1 X-3.357 Y-5.525
G0 X-3.342 Y-5.515
G0 X-3.295 Y-5.457
G0 X-2.708 Y-4.442
G1 X-2.695 Y-4.420
G1 X-2.667 Y-4.357
G1 X-2.663 Y-4.317
G1 X-2.685 Y-4.260
G1 X-2.743 Y-4.200
G1 X-2.743 Y-4.200
G1 X-2.848 Y-4.143
G1 X-2.922 Y-4.115
G1 X-2.960 Y-4.107
G1 X-3.072 Y-4.122
G1 X-3.255 Y-4.183
G1 X-3.290 Y-4.200
G1 X-3.498 Y-4.338
G1 X-3.670 Y-4.518
G1 X-3.743 Y-4.620
G1 X-3.797 Y-4.720
G1 X-3.860 Y-4.893
G1 X-3.888 Y-5.080
G1 X-3.880 Y-5.192
G1 X-3.845 Y-5.263
G1 X-3.715 Y-5.355
G1 X-3.715 Y-5.355
G1 X-3.632 Y-5.385
G1 X-3.572 Y-5.385
G0 X-3.558 Y-5.378
G0 X-3.485 Y-5.295
G0 X-2.850 Y-4.345
G1 X-2.835 Y-4.325
G1 X-2.803 Y-4.265
G1 X-2.797 Y-4.225
G1 X-2.817 Y-4.168
G1 X-2.875 Y-4.107
G1 X-2.875 Y-4.107
G1 X-3.045 Y-4.010
G1 X-3.120 Y-3.990
G1 X-3.270 Y-4.008
G1 X-3.450 Y-4.070
G1 X-3.663 Y-4.200
G1 X-3.842 Y-4.372
G1 X-3.917 Y-4.478
G1 X-3.973 Y-4.570
G1 X-4.032 Y-4.700
G1 X-4.080 Y-4.862
G1 X-4.088 Y-4.975
G1 X-4.077 Y-5.050
G1 X-4.060 Y-5.085
G1 X-3.875 Y-5.240
G1 X-3.875 Y-5.240
G1 X-3.797 Y-5.275
G1 X-3.737 Y-5.280
G0 X-3.723 Y-5.272
G0 X-3.670 Y-5.218
G0 X-3.020 Y-4.232
G1 X-3.005 Y-4.213
G1 X-2.973 Y-4.152
G1 X-2.967 Y-4.112
G1 X-2.995 Y-4.037
G1 X-3.035 Y-3.990
G1 X-3.035 Y-3.990
G1 X-3.167 Y-3.902
G1 X-3.277 Y-3.862
G1 X-3.465 Y-3.882
G1 X-3.610 Y-3.933
G1 X-3.825 Y-4.058
G1 X-4.010 Y-4.223
G1 X-4.095 Y-4.327
G1 X-4.157 Y-4.428
G1 X-4.240 Y-4.620
G1 X-4.270 Y-4.770
G1 X-4.272 Y-4.883
G1 X-4.258 Y-4.920
G1 X-4.080 Y-5.077
G1 X-4.080 Y-5.075
G1 X-4.003 Y-5.110
G1 X-3.942 Y-5.115
G0 X-3.925 Y-5.107
G0 X-3.873 Y-5.055
G0 X-3.183 Y-4.105
G1 X-3.167 Y-4.085
G1 X-3.132 Y-4.025
G1 X-3.125 Y-3.987
G1 X-3.143 Y-3.930
G1 X-3.192 Y-3.865
G1 X-3.192 Y-3.865
G1 X-3.320 Y-3.775
G1 X-3.393 Y-3.743
G1 X-3.430 Y-3.732
G1 X-3.542 Y-3.732
G1 X-3.765 Y-3.790
G1 X-3.985 Y-3.905
G1 X-4.173 Y-4.065
G1 X-4.255 Y-4.160
G1 X-4.320 Y-4.253
G1 X-4.388 Y-4.380
G1 X-4.435 Y-4.525
G1 X-4.457 Y-4.675
G1 X-4.457 Y-4.713
G1 X-4.447 Y-4.750
G1 X-4.428 Y-4.785
G1 X-4.277 Y-4.912
G1 X-4.277 Y-4.910
G1 X-4.202 Y-4.947
G1 X-4.143 Y-4.952
G0 X-4.125 Y-4.947
G0 X-4.050 Y-4.872
G0 X-3.342 Y-3.975
G1 X-3.328 Y-3.955
G1 X-3.290 Y-3.897
G1 X-3.283 Y-3.857
G1 X-3.295 Y-3.800
G1 X-3.345 Y-3.735
G1 X-3.345 Y-3.735
G1 X-3.440 Y-3.660
G1 X-3.510 Y-3.620
G1 X-3.585 Y-3.595
G1 X-3.772 Y-3.603
G1 X-3.922 Y-3.645
G1 X-4.145 Y-3.755
G1 X-4.340 Y-3.910
G1 X-4.428 Y-4.008
G1 X-4.492 Y-4.095
G1 X-4.593 Y-4.293
G1 X-4.633 Y-4.442
G1 X-4.640 Y-4.518
G1 X-4.635 Y-4.555
G1 X-4.620 Y-4.593
G1 X-4.482 Y-4.732
G1 X-4.482 Y-4.732
G1 X-4.410 Y-4.777
G1 X-4.350 Y-4.787
G0 X-4.332 Y-4.785
G0 X-4.275 Y-4.737
G0 X-3.510 Y-3.842
G1 X-3.493 Y-3.822
G1 X-3.453 Y-3.768
G1 X-3.442 Y-3.728
G1 X-3.460 Y-3.652
G1 X-3.493 Y-3.600
G1 X-3.493 Y-3.600
G1 X-3.615 Y-3.500
G1 X-3.685 Y-3.465
G1 X-3.723 Y-3.455
G1 X-3.910 Y-3.455
G1 X-4.060 Y-3.490
G1 X-4.287 Y-3.590
G1 X-4.487 Y-3.737
G1 X-4.577 Y-3.833
G1 X-4.647 Y-3.917
G1 X-4.730 Y-4.045
G1 X-4.795 Y-4.223
G1 X-4.815 Y-4.335
G1 X-4.795 Y-4.410
G1 X-4.660 Y-4.555
G1 X-4.660 Y-4.555
G1 X-4.588 Y-4.600
G1 X-4.527 Y-4.610
G0 X-4.510 Y-4.607
G0 X-4.450 Y-4.560
G0 X-3.655 Y-3.697
G1 X-3.638 Y-3.678
G1 X-3.595 Y-3.623
G1 X-3.583 Y-3.585
G1 X-3.600 Y-3.510
G1 X-3.632 Y-3.458
G1 X-3.632 Y-3.458
G1 X-3.755 Y-3.353
G1 X-3.822 Y-3.315
G1 X-3.935 Y-3.297
G1 X-4.122 Y-3.310
G1 X-4.197 Y-3.328
G1 X-4.428 Y-3.422
G1 X-4.633 Y-3.560
G1 X-4.732 Y-3.652
G1 X-4.810 Y-3.745
G1 X-4.918 Y-3.925
G1 X-4.947 Y-3.995
G1 X-4.980 Y-4.145
G1 X-4.965 Y-4.220
G1 X-4.832 Y-4.370
G1 X-4.830 Y-4.370
G1 X-4.760 Y-4.418
G1 X-4.702 Y-4.433
G0 X-4.685 Y-4.430
G0 X-4.622 Y-4.385
G0 X-3.797 Y-3.545
G1 X-3.780 Y-3.527
G1 X-3.735 Y-3.475
G1 X-3.723 Y-3.438
G1 X-3.728 Y-3.380
G1 X-3.768 Y-3.310
G1 X-3.768 Y-3.310
G1 X-3.882 Y-3.197
G1 X-3.950 Y-3.155
G1 X-3.987 Y-3.143
G1 X-4.138 Y-3.132
G1 X-4.325 Y-3.158
G1 X-4.560 Y-3.243
G1 X-4.770 Y-3.375
G1 X-4.870 Y-3.462
G1 X-4.950 Y-3.545
G1 X-5.058 Y-3.700
G1 X-5.117 Y-3.840
G1 X-5.143 Y-3.953
G1 X-5.138 Y-3.990
G1 X-5.120 Y-4.025
G1 X-5.048 Y-4.117
G1 X-5.048 Y-4.117
G1 X-4.980 Y-4.170
G1 X-4.923 Y-4.188
G0 X-4.905 Y-4.188
G0 X-4.840 Y-4.147
G0 X-3.942 Y-3.390
G1 X-3.922 Y-3.373
G1 X-3.873 Y-3.325
G1 X-3.857 Y-3.290
G1 X-3.860 Y-3.232
G1 X-3.895 Y-3.158
G1 X-3.895 Y-3.158
G1 X-3.978 Y-3.070
G1 X-4.075 Y-3.002
G1 X-4.263 Y-2.973
G1 X-4.412 Y-2.980
G1 X-4.450 Y-2.987
G1 X-4.688 Y-3.062
G1 X-4.902 Y-3.185
G1 X-5.005 Y-3.270
G1 X-5.082 Y-3.345
G1 X-5.213 Y-3.525
G1 X-5.263 Y-3.627
G1 X-5.293 Y-3.740
G1 X-5.290 Y-3.777
G1 X-5.280 Y-3.815
G1 X-5.185 Y-3.945
G1 X-5.185 Y-3.945
G1 X-5.117 Y-3.998
G1 X-5.060 Y-4.015
G0 X-5.043 Y-4.015
G0 X-4.950 Y-3.960
G0 X-4.043 Y-3.257
G1 X-4.022 Y-3.243
G1 X-3.973 Y-3.197
G1 X-3.955 Y-3.163
G1 X-3.958 Y-3.103
G1 X-3.993 Y-3.030
G1 X-3.993 Y-3.030
G1 X-4.100 Y-2.908
G1 X-4.160 Y-2.855
G1 X-4.195 Y-2.835
G1 X-4.270 Y-2.812
G1 X-4.457 Y-2.797
G1 X-4.570 Y-2.808
G1 X-4.810 Y-2.875
G1 X-5.027 Y-2.993
G1 X-5.128 Y-3.067
G1 X-5.218 Y-3.147
G1 X-5.338 Y-3.295
G1 X-5.407 Y-3.430
G1 X-5.438 Y-3.540
G1 X-5.435 Y-3.578
G1 X-5.420 Y-3.615
G1 X-5.353 Y-3.712
G1 X-5.353 Y-3.712
G1 X-5.290 Y-3.768
G1 X-5.235 Y-3.790
G0 X-5.218 Y-3.790
G0 X-5.150 Y-3.755
G0 X-4.197 Y-3.062
G1 X-4.178 Y-3.047
G1 X-4.125 Y-3.002
G1 X-4.107 Y-2.970
G1 X-4.105 Y-2.910
G1 X-4.135 Y-2.835
G1 X-4.135 Y-2.835
G1 X-4.240 Y-2.712
G1 X-4.303 Y-2.665
G1 X-4.452 Y-2.625
G1 X-4.678 Y-2.623
G1 X-4.918 Y-2.683
G1 X-5.140 Y-2.788
G1 X-5.250 Y-2.862
G1 X-5.340 Y-2.938
G1 X-5.485 Y-3.107
G1 X-5.553 Y-3.245
G1 X-5.575 Y-3.320
G1 X-5.572 Y-3.357
G1 X-5.435 Y-3.595
G1 X-5.435 Y-3.595
G1 X-5.372 Y-3.650
G1 X-5.317 Y-3.672
G0 X-5.300 Y-3.670
G0 X-5.232 Y-3.635
G0 X-4.305 Y-2.900
G1 X-4.285 Y-2.885
G1 X-4.235 Y-2.840
G1 X-4.215 Y-2.805
G1 X-4.215 Y-2.745
G1 X-4.245 Y-2.670
G1 X-4.245 Y-2.670
G1 X-4.345 Y-2.545
G1 X-4.407 Y-2.495
G1 X-4.480 Y-2.467
G1 X-4.705 Y-2.435
G1 X-4.780 Y-2.435
G1 X-5.022 Y-2.485
G1 X-5.230 Y-2.572
G1 X-5.343 Y-2.638
G1 X-5.442 Y-2.712
G1 X-5.575 Y-2.848
G1 X-5.640 Y-2.940
G1 X-5.702 Y-3.080
G1 X-5.705 Y-3.118
G1 X-5.697 Y-3.155
G1 X-5.577 Y-3.362
G1 X-5.577 Y-3.362
G1 X-5.518 Y-3.420
G1 X-5.465 Y-3.445
G0 X-5.445 Y-3.445
G0 X-5.378 Y-3.415
G0 X-4.400 Y-2.757
G1 X-4.380 Y-2.743
G1 X-4.325 Y-2.700
G1 X-4.305 Y-2.665
G1 X-4.300 Y-2.607
G1 X-4.327 Y-2.533
G1 X-4.327 Y-2.533
G1 X-4.418 Y-2.400
G1 X-4.473 Y-2.342
G1 X-4.505 Y-2.317
G1 X-4.728 Y-2.255
G1 X-4.878 Y-2.245
G1 X-5.122 Y-2.285
G1 X-5.335 Y-2.365
G1 X-5.445 Y-2.425
G1 X-5.548 Y-2.498
G1 X-5.683 Y-2.625
G1 X-5.795 Y-2.783
G1 X-5.827 Y-2.853
G1 X-5.830 Y-2.890
G1 X-5.745 Y-3.067
G1 X-5.745 Y-3.067
G1 X-5.690 Y-3.130
G1 X-5.638 Y-3.158
G0 X-5.620 Y-3.160
G0 X-5.520 Y-3.120
G0 X-4.518 Y-2.572
G1 X-4.495 Y-2.560
G1 X-4.435 Y-2.522
G1 X-4.412 Y-2.490
G1 X-4.405 Y-2.433
G1 X-4.428 Y-2.357
G1 X-4.428 Y-2.357
G1 X-4.508 Y-2.220
G1 X-4.560 Y-2.158
G1 X-4.625 Y-2.112
G1 X-4.812 Y-2.058
G1 X-4.925 Y-2.047
G1 X-5.173 Y-2.072
G1 X-5.395 Y-2.140
G1 X-5.518 Y-2.197
G1 X-5.625 Y-2.260
G1 X-5.800 Y-2.410
G1 X-5.872 Y-2.500
G1 X-5.930 Y-2.600
G1 X-5.938 Y-2.638
G1 X-5.938 Y-2.675
G1 X-5.855 Y-2.855
G1 X-5.855 Y-2.855
G1 X-5.800 Y-2.917
G1 X-5.747 Y-2.945
G0 X-5.730 Y-2.947
G0 X-5.630 Y-2.908
G0 X-4.630 Y-2.360
G1 X-4.607 Y-2.348
G1 X-4.548 Y-2.310
G1 X-4.525 Y-2.277
G1 X-4.515 Y-2.220
G1 X-4.532 Y-2.143
G1 X-4.532 Y-2.143
G1 X-4.622 Y-2.005
G1 X-4.680 Y-1.950
G1 X-4.825 Y-1.890
G1 X-5.013 Y-1.855
G1 X-5.260 Y-1.867
G1 X-5.465 Y-1.920
G1 X-5.580 Y-1.965
G1 X-5.692 Y-2.022
G1 X-5.853 Y-2.138
G1 X-5.957 Y-2.248
G1 X-6.037 Y-2.377
G1 X-6.043 Y-2.415
G1 X-6.035 Y-2.453
G1 X-5.955 Y-2.630
G1 X-5.955 Y-2.630
G1 X-5.905 Y-2.695
G1 X-5.855 Y-2.728
G0 X-5.835 Y-2.728
G0 X-5.732 Y-2.695
G0 X-4.700 Y-2.210
G1 X-4.678 Y-2.197
G1 X-4.617 Y-2.163
G1 X-4.593 Y-2.132
G1 X-4.580 Y-2.075
G1 X-4.598 Y-1.998
G1 X-4.598 Y-1.998
G1 X-4.673 Y-1.855
G1 X-4.720 Y-1.790
G1 X-4.750 Y-1.762
G1 X-4.895 Y-1.695
G1 X-5.082 Y-1.653
G1 X-5.330 Y-1.655
G1 X-5.572 Y-1.710
G1 X-5.695 Y-1.758
G1 X-5.805 Y-1.812
G1 X-5.960 Y-1.923
G1 X-6.065 Y-2.033
G1 X-6.110 Y-2.095
G1 X-6.128 Y-2.130
G1 X-6.133 Y-2.167
G1 X-6.128 Y-2.205
G1 X-6.060 Y-2.393
G1 X-6.060 Y-2.393
G1 X-6.015 Y-2.460
G1 X-5.965 Y-2.495
G0 X-5.947 Y-2.498
G0 X-5.875 Y-2.480
G0 X-4.790 Y-2.018
G1 X-4.768 Y-2.007
G1 X-4.707 Y-1.978
G1 X-4.680 Y-1.948
G1 X-4.665 Y-1.890
G1 X-4.678 Y-1.812
G1 X-4.678 Y-1.812
G1 X-4.723 Y-1.700
G1 X-4.790 Y-1.597
G1 X-4.820 Y-1.570
G1 X-4.923 Y-1.512
G1 X-5.147 Y-1.450
G1 X-5.395 Y-1.442
G1 X-5.622 Y-1.482
G1 X-5.742 Y-1.520
G1 X-5.853 Y-1.570
G1 X-6.040 Y-1.690
G1 X-6.150 Y-1.795
G1 X-6.195 Y-1.857
G1 X-6.210 Y-1.893
G1 X-6.218 Y-1.930
G1 X-6.145 Y-2.155
G1 X-6.145 Y-2.152
G1 X-6.100 Y-2.220
G1 X-6.050 Y-2.255
G0 X-6.032 Y-2.260
G0 X-5.928 Y-2.232
G0 X-4.860 Y-1.827
G1 X-4.838 Y-1.817
G1 X-4.775 Y-1.790
G1 X-4.747 Y-1.760
G1 X-4.732 Y-1.702
G1 X-4.742 Y-1.625
G1 X-4.742 Y-1.625
G1 X-4.803 Y-1.472
G1 X-4.845 Y-1.405
G1 X-4.872 Y-1.375
G1 X-5.010 Y-1.298
G1 X-5.197 Y-1.240
G1 X-5.445 Y-1.222
G1 X-5.690 Y-1.258
G1 X-5.808 Y-1.292
G1 X-5.920 Y-1.337
G1 X-6.115 Y-1.452
G1 X-6.225 Y-1.555
G1 X-6.272 Y-1.617
G1 X-6.287 Y-1.653
G1 X-6.290 Y-1.690
G1 X-6.225 Y-1.915
G1 X-6.225 Y-1.915
G1 X-6.185 Y-1.985
G1 X-6.140 Y-2.022
G0 X-6.122 Y-2.027
G0 X-6.048 Y-2.018
G0 X-4.935 Y-1.630
G1 X-4.912 Y-1.620
G1 X-4.850 Y-1.593
G1 X-4.820 Y-1.565
G1 X-4.800 Y-1.510
G1 X-4.803 Y-1.433
G1 X-4.803 Y-1.433
G1 X-4.860 Y-1.280
G1 X-4.928 Y-1.183
G1 X-5.062 Y-1.100
G1 X-5.247 Y-1.035
G1 X-5.495 Y-1.008
G1 X-5.742 Y-1.032
G1 X-5.870 Y-1.062
G1 X-5.987 Y-1.107
G1 X-6.175 Y-1.210
G1 X-6.315 Y-1.337
G1 X-6.338 Y-1.367
G1 X-6.348 Y-1.405
G1 X-6.348 Y-1.442
G1 X-6.315 Y-1.593
G1 X-6.315 Y-1.593
G1 X-6.280 Y-1.665
G1 X-6.237 Y-1.708
G0 X-6.220 Y-1.712
G0 X-6.112 Y-1.700
G0 X-4.987 Y-1.427
G1 X-4.963 Y-1.420
G1 X-4.897 Y-1.400
G1 X-4.870 Y-1.375
G1 X-4.850 Y-1.320
G1 X-4.857 Y-1.242
G1 X-4.857 Y-1.242
G1 X-4.907 Y-1.085
G1 X-4.945 Y-1.012
G1 X-4.970 Y-0.983
G1 X-5.035 Y-0.935
G1 X-5.178 Y-0.870
G1 X-5.290 Y-0.840
G1 X-5.535 Y-0.802
G1 X-5.782 Y-0.815
G1 X-5.933 Y-0.848
G1 X-6.048 Y-0.887
G1 X-6.230 Y-0.983
G1 X-6.320 Y-1.052
G1 X-6.372 Y-1.110
G1 X-6.393 Y-1.143
G1 X-6.402 Y-1.180
G1 X-6.357 Y-1.405
G1 X-6.357 Y-1.405
G1 X-6.322 Y-1.478
G1 X-6.280 Y-1.520
G0 X-6.263 Y-1.525
G0 X-6.157 Y-1.510
G0 X-5.043 Y-1.232
G1 X-5.018 Y-1.225
G1 X-4.952 Y-1.205
G1 X-4.923 Y-1.180
G1 X-4.900 Y-1.125
G1 X-4.900 Y-1.048
G1 X-4.900 Y-1.048
G1 X-4.933 Y-0.927
G1 X-4.965 Y-0.853
G1 X-4.987 Y-0.818
G1 X-5.082 Y-0.745
G1 X-5.225 Y-0.677
G1 X-5.300 Y-0.652
G1 X-5.543 Y-0.598
G1 X-5.790 Y-0.595
G1 X-5.942 Y-0.618
G1 X-6.055 Y-0.650
G1 X-6.173 Y-0.695
G1 X-6.330 Y-0.802
G1 X-6.410 Y-0.882
G1 X-6.433 Y-0.912
G1 X-6.442 Y-0.950
G1 X-6.412 Y-1.137
G1 X-6.412 Y-1.137
G1 X-6.380 Y-1.212
G1 X-6.340 Y-1.252
G0 X-6.322 Y-1.260
G0 X-6.218 Y-1.250
G0 X-5.095 Y-1.022
G1 X-5.070 Y-1.020
G1 X-5.003 Y-1.000
G1 X-4.970 Y-0.973
G1 X-4.945 Y-0.910
G1 X-4.940 Y-0.850
G1 X-4.940 Y-0.850
G1 X-4.970 Y-0.730
G1 X-5.005 Y-0.657
G1 X-5.030 Y-0.625
G1 X-5.192 Y-0.512
G1 X-5.338 Y-0.450
G1 X-5.577 Y-0.388
G1 X-5.825 Y-0.375
G1 X-5.980 Y-0.398
G1 X-6.090 Y-0.427
G1 X-6.202 Y-0.472
G1 X-6.332 Y-0.555
G1 X-6.420 Y-0.632
G1 X-6.465 Y-0.695
G1 X-6.475 Y-0.733
G1 X-6.450 Y-0.920
G1 X-6.450 Y-0.920
G1 X-6.418 Y-0.995
G1 X-6.378 Y-1.035
G0 X-6.360 Y-1.042
G0 X-6.253 Y-1.038
G0 X-5.117 Y-0.863
G1 X-5.093 Y-0.858
G1 X-5.025 Y-0.843
G1 X-4.992 Y-0.815
G1 X-4.968 Y-0.752
G1 X-4.963 Y-0.693
G1 X-4.963 Y-0.693
G1 X-5.003 Y-0.532
G1 X-5.043 Y-0.463
G1 X-5.200 Y-0.335
G1 X-5.340 Y-0.263
G1 X-5.577 Y-0.182
G1 X-5.825 Y-0.160
G1 X-5.965 Y-0.175
G1 X-6.067 Y-0.195
G1 X-6.190 Y-0.235
G1 X-6.332 Y-0.305
G1 X-6.473 Y-0.432
G1 X-6.495 Y-0.463
G1 X-6.508 Y-0.497
G1 X-6.508 Y-0.535
G1 X-6.487 Y-0.647
G1 X-6.487 Y-0.647
G1 X-6.445 Y-0.740
G1 X-6.418 Y-0.767
G0 X-6.402 Y-0.775
G0 X-6.295 Y-0.777
G0 X-5.152 Y-0.657
G1 X-5.128 Y-0.652
G1 X-5.060 Y-0.642
G1 X-5.027 Y-0.620
G1 X-4.997 Y-0.570
G1 X-4.987 Y-0.492
G1 X-4.987 Y-0.492
G1 X-5.025 Y-0.335
G1 X-5.065 Y-0.265
G1 X-5.183 Y-0.160
G1 X-5.353 Y-0.062
G1 X-5.585 Y0.022
G1 X-5.832 Y0.052
G1 X-5.978 Y0.043
G1 X-6.090 Y0.020
G1 X-6.202 Y-0.015
G1 X-6.372 Y-0.105
G1 X-6.463 Y-0.175
G1 X-6.490 Y-0.203
G1 X-6.525 Y-0.270
G1 X-6.530 Y-0.458
G1 X-6.520 Y-0.495
G1 X-6.520 Y-0.495
G1 X-6.478 Y-0.565
G1 X-6.433 Y-0.605
G0 X-6.412 Y-0.610
G0 X-6.305 Y-0.610
G0 X-5.165 Y-0.497
G1 X-5.140 Y-0.495
G1 X-5.072 Y-0.482
G1 X-5.040 Y-0.463
G1 X-5.010 Y-0.412
G1 X-5.003 Y-0.335
G1 X-5.003 Y-0.335
G1 X-5.030 Y-0.175
G1 X-5.060 Y-0.100
G1 X-5.165 Y0.015
G1 X-5.322 Y0.122
G1 X-5.588 Y0.233
G1 X-5.832 Y0.268
G1 X-5.950 Y0.263
G1 X-6.053 Y0.247
G1 X-6.185 Y0.215
G1 X-6.350 Y0.150
G1 X-6.475 Y0.052
G1 X-6.500 Y0.022
G1 X-6.518 Y-0.013
G1 X-6.527 Y-0.237
G1 X-6.527 Y-0.237
G1 X-6.513 Y-0.315
G1 X-6.495 Y-0.350
G1 X-6.482 Y-0.362
G0 X-6.468 Y-0.372
G0 X-6.393 Y-0.380
G0 X-5.185 Y-0.290
G1 X-5.160 Y-0.290
G1 X-5.090 Y-0.275
G1 X-5.053 Y-0.250
G1 X-5.022 Y-0.193
G1 X-5.015 Y-0.135
G1 X-5.015 Y-0.135
G1 X-5.050 Y0.060
G1 X-5.065 Y0.095
G1 X-5.165 Y0.210
G1 X-5.320 Y0.325
G1 X-5.580 Y0.440
G1 X-5.825 Y0.480
G1 X-5.945 Y0.480
G1 X-6.055 Y0.470
G1 X-6.192 Y0.440
G1 X-6.335 Y0.375
G1 X-6.463 Y0.285
G1 X-6.492 Y0.258
G1 X-6.510 Y0.220
G1 X-6.518 Y0.060
G1 X-6.518 Y0.060
G1 X-6.500 Y-0.020
G1 X-6.470 Y-0.068
G0 X-6.455 Y-0.077
G0 X-6.350 Y-0.092
G0 X-5.202 Y-0.115
G1 X-5.178 Y-0.117
G1 X-5.110 Y-0.113
G1 X-5.072 Y-0.095
G1 X-5.048 Y-0.065
G1 X-5.018 Y0.022
G1 X-5.018 Y0.022
G1 X-5.025 Y0.210
G1 X-5.045 Y0.282
G1 X-5.062 Y0.318
G1 X-5.168 Y0.430
G1 X-5.325 Y0.540
G1 X-5.550 Y0.645
G1 X-5.793 Y0.698
G1 X-5.920 Y0.703
G1 X-6.027 Y0.693
G1 X-6.157 Y0.667
G1 X-6.310 Y0.618
G1 X-6.410 Y0.557
G1 X-6.470 Y0.505
G1 X-6.490 Y0.470
G1 X-6.503 Y0.430
G1 X-6.510 Y0.270
G1 X-6.510 Y0.270
G1 X-6.492 Y0.185
G1 X-6.463 Y0.133
G0 X-6.447 Y0.122
G0 X-6.372 Y0.110
G0 X-5.192 Y0.107
G1 X-5.168 Y0.107
G1 X-5.100 Y0.113
G1 X-5.062 Y0.130
G1 X-5.027 Y0.180
G1 X-5.010 Y0.263
G1 X-5.010 Y0.263
G1 X-5.010 Y0.375
G1 X-5.022 Y0.450
G1 X-5.035 Y0.487
G1 X-5.105 Y0.580
G1 X-5.188 Y0.660
G1 X-5.310 Y0.748
G1 X-5.532 Y0.858
G1 X-5.775 Y0.915
G1 X-5.897 Y0.922
G1 X-6.008 Y0.920
G1 X-6.152 Y0.895
G1 X-6.335 Y0.818
G1 X-6.433 Y0.750
G1 X-6.460 Y0.723
G1 X-6.480 Y0.688
G1 X-6.495 Y0.527
G1 X-6.495 Y0.527
G1 X-6.482 Y0.443
G1 X-6.455 Y0.390
G0 X-6.440 Y0.378
G0 X-6.365 Y0.362
G0 X-5.185 Y0.315
G1 X-5.160 Y0.315
G1 X-5.093 Y0.318
G1 X-5.055 Y0.335
G1 X-5.018 Y0.383
G1 X-4.992 Y0.463
G1 X-4.992 Y0.463
G1 X-4.992 Y0.575
G1 X-5.005 Y0.650
G1 X-5.018 Y0.688
G1 X-5.110 Y0.807
G1 X-5.253 Y0.932
G1 X-5.285 Y0.955
G1 X-5.505 Y1.070
G1 X-5.745 Y1.135
G1 X-5.870 Y1.145
G1 X-5.975 Y1.143
G1 X-6.115 Y1.123
G1 X-6.298 Y1.050
G1 X-6.400 Y0.988
G1 X-6.428 Y0.958
G1 X-6.447 Y0.922
G1 X-6.478 Y0.723
G1 X-6.478 Y0.723
G1 X-6.465 Y0.637
G1 X-6.438 Y0.585
G0 X-6.423 Y0.573
G0 X-6.348 Y0.555
G0 X-5.170 Y0.475
G1 X-5.145 Y0.475
G1 X-5.077 Y0.475
G1 X-5.040 Y0.492
G1 X-5.003 Y0.540
G1 X-4.978 Y0.620
G1 X-4.978 Y0.620
G1 X-4.973 Y0.807
G1 X-4.992 Y0.882
G1 X-5.082 Y1.008
G1 X-5.225 Y1.135
G1 X-5.438 Y1.265
G1 X-5.673 Y1.343
G1 X-5.800 Y1.357
G1 X-5.902 Y1.363
G1 X-6.045 Y1.350
G1 X-6.200 Y1.315
G1 X-6.338 Y1.242
G1 X-6.370 Y1.220
G1 X-6.397 Y1.190
G1 X-6.415 Y1.155
G1 X-6.445 Y0.955
G1 X-6.445 Y0.955
G1 X-6.438 Y0.870
G1 X-6.412 Y0.815
G0 X-6.397 Y0.802
G0 X-6.325 Y0.782
G0 X-5.150 Y0.677
G1 X-5.125 Y0.677
G1 X-5.055 Y0.675
G1 X-5.018 Y0.693
G1 X-4.978 Y0.738
G1 X-4.947 Y0.818
G1 X-4.947 Y0.818
G1 X-4.938 Y0.968
