(Exported by FreeCAD)
(Post Processor: grbl_post)
(Output Time:2024-02-19 19:36:18.803173)
(Begin preamble)
G17 G90
G21
(Block-name: G54)
(Block-expand: 0)
(Block-enable: 1)
(Begin operation: G54)
(Path: G54)
G54
G0 Z5.000
(Finish operation: G54)
(Block-name: 2mm Endmill003)
(Block-expand: 0)
(Block-enable: 1)
(Begin operation: 2mm Endmill003)
(Path: 2mm Endmill003)
(2mm Endmill003)
(Begin toolchange)
( M6 T2 )
M3 S8000
(Finish operation: 2mm Endmill003)
(Block-name: Adaptive)
(Block-expand: 0)
(Block-enable: 1)
(Begin operation: Adaptive)
(Path: Adaptive)
(Adaptive)
(Helix to depth: -4.000000)
G0 Z5.000
G0 X0.248 Y0.423 Z5.000
G0 X0.248 Y0.423 Z3.000
G1 X0.248 Y0.423 Z0.000 F400
G1 X0.248 Y0.423 Z0.000 F400
G1 X0.161 Y0.463 Z-0.009 F400
G1 X0.067 Y0.485 Z-0.017 F400
G1 X-0.029 Y0.489 Z-0.026 F400
G1 X-0.124 Y0.474 Z-0.034 F400
G1 X-0.214 Y0.441 Z-0.043 F400
G1 X-0.296 Y0.391 Z-0.052 F400
G1 X-0.366 Y0.326 Z-0.060 F400
G1 X-0.423 Y0.248 Z-0.069 F400
G1 X-0.463 Y0.161 Z-0.077 F400
G1 X-0.485 Y0.067 Z-0.086 F400
G1 X-0.489 Y-0.029 Z-0.094 F400
G1 X-0.474 Y-0.124 Z-0.103 F400
G1 X-0.441 Y-0.214 Z-0.112 F400
G1 X-0.391 Y-0.296 Z-0.120 F400
G1 X-0.326 Y-0.366 Z-0.129 F400
G1 X-0.248 Y-0.423 Z-0.137 F400
G1 X-0.161 Y-0.463 Z-0.146 F400
G1 X-0.067 Y-0.485 Z-0.155 F400
G1 X0.029 Y-0.489 Z-0.163 F400
G1 X0.124 Y-0.474 Z-0.172 F400
G1 X0.214 Y-0.441 Z-0.180 F400
G1 X0.296 Y-0.391 Z-0.189 F400
G1 X0.366 Y-0.326 Z-0.198 F400
G1 X0.423 Y-0.248 Z-0.206 F400
G1 X0.463 Y-0.161 Z-0.215 F400
G1 X0.485 Y-0.067 Z-0.223 F400
G1 X0.489 Y0.029 Z-0.232 F400
G1 X0.474 Y0.124 Z-0.240 F400
G1 X0.441 Y0.214 Z-0.249 F400
G1 X0.391 Y0.296 Z-0.258 F400
G1 X0.326 Y0.366 Z-0.266 F400
G1 X0.248 Y0.423 Z-0.275 F400
G1 X0.161 Y0.463 Z-0.283 F400
G1 X0.067 Y0.485 Z-0.292 F400
G1 X-0.029 Y0.489 Z-0.301 F400
G1 X-0.124 Y0.474 Z-0.309 F400
G1 X-0.214 Y0.441 Z-0.318 F400
G1 X-0.296 Y0.391 Z-0.326 F400
G1 X-0.366 Y0.326 Z-0.335 F400
G1 X-0.423 Y0.248 Z-0.344 F400
G1 X-0.463 Y0.161 Z-0.352 F400
G1 X-0.485 Y0.067 Z-0.361 F400
G1 X-0.489 Y-0.029 Z-0.369 F400
G1 X-0.474 Y-0.124 Z-0.378 F400
G1 X-0.441 Y-0.214 Z-0.387 F400
G1 X-0.391 Y-0.296 Z-0.395 F400
G1 X-0.326 Y-0.366 Z-0.404 F400
G1 X-0.248 Y-0.423 Z-0.412 F400
G1 X-0.161 Y-0.463 Z-0.421 F400
G1 X-0.067 Y-0.485 Z-0.429 F400
G1 X0.029 Y-0.489 Z-0.438 F400
G1 X0.124 Y-0.474 Z-0.447 F400
G1 X0.214 Y-0.441 Z-0.455 F400
G1 X0.296 Y-0.391 Z-0.464 F400
G1 X0.366 Y-0.326 Z-0.472 F400
G1 X0.423 Y-0.248 Z-0.481 F400
G1 X0.463 Y-0.161 Z-0.490 F400
G1 X0.485 Y-0.067 Z-0.498 F400
G1 X0.489 Y0.029 Z-0.507 F400
G1 X0.474 Y0.124 Z-0.515 F400
G1 X0.441 Y0.214 Z-0.524 F400
G1 X0.391 Y0.296 Z-0.533 F400
G1 X0.326 Y0.366 Z-0.541 F400
G1 X0.248 Y0.423 Z-0.550 F400
G1 X0.161 Y0.463 Z-0.558 F400
G1 X0.067 Y0.485 Z-0.567 F400
G1 X-0.029 Y0.489 Z-0.575 F400
G1 X-0.124 Y0.474 Z-0.584 F400
G1 X-0.214 Y0.441 Z-0.593 F400
G1 X-0.296 Y0.391 Z-0.601 F400
G1 X-0.366 Y0.326 Z-0.610 F400
G1 X-0.423 Y0.248 Z-0.618 F400
G1 X-0.463 Y0.161 Z-0.627 F400
G1 X-0.485 Y0.067 Z-0.636 F400
G1 X-0.489 Y-0.029 Z-0.644 F400
G1 X-0.474 Y-0.124 Z-0.653 F400
G1 X-0.441 Y-0.214 Z-0.661 F400
G1 X-0.391 Y-0.296 Z-0.670 F400
G1 X-0.326 Y-0.366 Z-0.679 F400
G1 X-0.248 Y-0.423 Z-0.687 F400
G1 X-0.161 Y-0.463 Z-0.696 F400
G1 X-0.067 Y-0.485 Z-0.704 F400
G1 X0.029 Y-0.489 Z-0.713 F400
G1 X0.124 Y-0.474 Z-0.721 F400
G1 X0.214 Y-0.441 Z-0.730 F400
G1 X0.296 Y-0.391 Z-0.739 F400
G1 X0.366 Y-0.326 Z-0.747 F400
G1 X0.423 Y-0.248 Z-0.756 F400
G1 X0.463 Y-0.161 Z-0.764 F400
G1 X0.485 Y-0.067 Z-0.773 F400
G1 X0.489 Y0.029 Z-0.782 F400
G1 X0.474 Y0.124 Z-0.790 F400
G1 X0.441 Y0.214 Z-0.799 F400
G1 X0.391 Y0.296 Z-0.807 F400
G1 X0.326 Y0.366 Z-0.816 F400
G1 X0.248 Y0.423 Z-0.825 F400
G1 X0.161 Y0.463 Z-0.833 F400
G1 X0.067 Y0.485 Z-0.842 F400
G1 X-0.029 Y0.489 Z-0.850 F400
G1 X-0.124 Y0.474 Z-0.859 F400
G1 X-0.214 Y0.441 Z-0.868 F400
G1 X-0.296 Y0.391 Z-0.876 F400
G1 X-0.366 Y0.326 Z-0.885 F400
G1 X-0.423 Y0.248 Z-0.893 F400
G1 X-0.463 Y0.161 Z-0.902 F400
G1 X-0.485 Y0.067 Z-0.910 F400
G1 X-0.489 Y-0.029 Z-0.919 F400
G1 X-0.474 Y-0.124 Z-0.928 F400
G1 X-0.441 Y-0.214 Z-0.936 F400
G1 X-0.391 Y-0.296 Z-0.945 F400
G1 X-0.326 Y-0.366 Z-0.953 F400
G1 X-0.248 Y-0.423 Z-0.962 F400
G1 X-0.161 Y-0.463 Z-0.971 F400
G1 X-0.067 Y-0.485 Z-0.979 F400
G1 X0.029 Y-0.489 Z-0.988 F400
G1 X0.124 Y-0.474 Z-0.996 F400
G1 X0.214 Y-0.441 Z-1.005 F400
G1 X0.296 Y-0.391 Z-1.014 F400
G1 X0.366 Y-0.326 Z-1.022 F400
G1 X0.423 Y-0.248 Z-1.031 F400
G1 X0.463 Y-0.161 Z-1.039 F400
G1 X0.485 Y-0.067 Z-1.048 F400
G1 X0.489 Y0.029 Z-1.056 F400
G1 X0.474 Y0.124 Z-1.065 F400
G1 X0.441 Y0.214 Z-1.074 F400
G1 X0.391 Y0.296 Z-1.082 F400
G1 X0.326 Y0.366 Z-1.091 F400
G1 X0.248 Y0.423 Z-1.099 F400
G1 X0.161 Y0.463 Z-1.108 F400
G1 X0.067 Y0.485 Z-1.117 F400
G1 X-0.029 Y0.489 Z-1.125 F400
G1 X-0.124 Y0.474 Z-1.134 F400
G1 X-0.214 Y0.441 Z-1.142 F400
G1 X-0.296 Y0.391 Z-1.151 F400
G1 X-0.366 Y0.326 Z-1.160 F400
G1 X-0.423 Y0.248 Z-1.168 F400
G1 X-0.463 Y0.161 Z-1.177 F400
G1 X-0.485 Y0.067 Z-1.185 F400
G1 X-0.489 Y-0.029 Z-1.194 F400
G1 X-0.474 Y-0.124 Z-1.202 F400
G1 X-0.441 Y-0.214 Z-1.211 F400
G1 X-0.391 Y-0.296 Z-1.220 F400
G1 X-0.326 Y-0.366 Z-1.228 F400
G1 X-0.248 Y-0.423 Z-1.237 F400
G1 X-0.161 Y-0.463 Z-1.245 F400
G1 X-0.067 Y-0.485 Z-1.254 F400
G1 X0.029 Y-0.489 Z-1.263 F400
G1 X0.124 Y-0.474 Z-1.271 F400
G1 X0.214 Y-0.441 Z-1.280 F400
G1 X0.296 Y-0.391 Z-1.288 F400
G1 X0.366 Y-0.326 Z-1.297 F400
G1 X0.423 Y-0.248 Z-1.306 F400
G1 X0.463 Y-0.161 Z-1.314 F400
G1 X0.485 Y-0.067 Z-1.323 F400
G1 X0.489 Y0.029 Z-1.331 F400
G1 X0.474 Y0.124 Z-1.340 F400
G1 X0.441 Y0.214 Z-1.349 F400
G1 X0.391 Y0.296 Z-1.357 F400
G1 X0.326 Y0.366 Z-1.366 F400
G1 X0.248 Y0.423 Z-1.374 F400
G1 X0.161 Y0.463 Z-1.383 F400
G1 X0.067 Y0.485 Z-1.391 F400
G1 X-0.029 Y0.489 Z-1.400 F400
G1 X-0.124 Y0.474 Z-1.409 F400
G1 X-0.214 Y0.441 Z-1.417 F400
G1 X-0.296 Y0.391 Z-1.426 F400
G1 X-0.366 Y0.326 Z-1.434 F400
G1 X-0.423 Y0.248 Z-1.443 F400
G1 X-0.463 Y0.161 Z-1.452 F400
G1 X-0.485 Y0.067 Z-1.460 F400
G1 X-0.489 Y-0.029 Z-1.469 F400
G1 X-0.474 Y-0.124 Z-1.477 F400
G1 X-0.441 Y-0.214 Z-1.486 F400
G1 X-0.391 Y-0.296 Z-1.495 F400
G1 X-0.326 Y-0.366 Z-1.503 F400
G1 X-0.248 Y-0.423 Z-1.512 F400
G1 X-0.161 Y-0.463 Z-1.520 F400
G1 X-0.067 Y-0.485 Z-1.529 F400
G1 X0.029 Y-0.489 Z-1.537 F400
G1 X0.124 Y-0.474 Z-1.546 F400
G1 X0.214 Y-0.441 Z-1.555 F400
G1 X0.296 Y-0.391 Z-1.563 F400
G1 X0.366 Y-0.326 Z-1.572 F400
G1 X0.423 Y-0.248 Z-1.580 F400
G1 X0.463 Y-0.161 Z-1.589 F400
G1 X0.485 Y-0.067 Z-1.598 F400
G1 X0.489 Y0.029 Z-1.606 F400
G1 X0.474 Y0.124 Z-1.615 F400
G1 X0.441 Y0.214 Z-1.623 F400
G1 X0.391 Y0.296 Z-1.632 F400
G1 X0.326 Y0.366 Z-1.641 F400
G1 X0.248 Y0.423 Z-1.649 F400
G1 X0.161 Y0.463 Z-1.658 F400
G1 X0.067 Y0.485 Z-1.666 F400
G1 X-0.029 Y0.489 Z-1.675 F400
G1 X-0.124 Y0.474 Z-1.683 F400
G1 X-0.214 Y0.441 Z-1.692 F400
G1 X-0.296 Y0.391 Z-1.701 F400
G1 X-0.366 Y0.326 Z-1.709 F400
G1 X-0.423 Y0.248 Z-1.718 F400
G1 X-0.463 Y0.161 Z-1.726 F400
G1 X-0.485 Y0.067 Z-1.735 F400
G1 X-0.489 Y-0.029 Z-1.744 F400
G1 X-0.474 Y-0.124 Z-1.752 F400
G1 X-0.441 Y-0.214 Z-1.761 F400
G1 X-0.391 Y-0.296 Z-1.769 F400
G1 X-0.326 Y-0.366 Z-1.778 F400
G1 X-0.248 Y-0.423 Z-1.787 F400
G1 X-0.161 Y-0.463 Z-1.795 F400
G1 X-0.067 Y-0.485 Z-1.804 F400
G1 X0.029 Y-0.489 Z-1.812 F400
G1 X0.124 Y-0.474 Z-1.821 F400
G1 X0.214 Y-0.441 Z-1.829 F400
G1 X0.296 Y-0.391 Z-1.838 F400
G1 X0.366 Y-0.326 Z-1.847 F400
G1 X0.423 Y-0.248 Z-1.855 F400
G1 X0.463 Y-0.161 Z-1.864 F400
G1 X0.485 Y-0.067 Z-1.872 F400
G1 X0.489 Y0.029 Z-1.881 F400
G1 X0.474 Y0.124 Z-1.890 F400
G1 X0.441 Y0.214 Z-1.898 F400
G1 X0.391 Y0.296 Z-1.907 F400
G1 X0.326 Y0.366 Z-1.915 F400
G1 X0.248 Y0.423 Z-1.924 F400
G1 X0.161 Y0.463 Z-1.933 F400
G1 X0.067 Y0.485 Z-1.941 F400
G1 X-0.029 Y0.489 Z-1.950 F400
G1 X-0.124 Y0.474 Z-1.958 F400
G1 X-0.214 Y0.441 Z-1.967 F400
G1 X-0.296 Y0.391 Z-1.976 F400
G1 X-0.366 Y0.326 Z-1.984 F400
G1 X-0.423 Y0.248 Z-1.993 F400
G1 X-0.463 Y0.161 Z-2.001 F400
G1 X-0.485 Y0.067 Z-2.010 F400
G1 X-0.489 Y-0.029 Z-2.018 F400
G1 X-0.474 Y-0.124 Z-2.027 F400
G1 X-0.441 Y-0.214 Z-2.036 F400
G1 X-0.391 Y-0.296 Z-2.044 F400
G1 X-0.326 Y-0.366 Z-2.053 F400
G1 X-0.248 Y-0.423 Z-2.061 F400
G1 X-0.161 Y-0.463 Z-2.070 F400
G1 X-0.067 Y-0.485 Z-2.079 F400
G1 X0.029 Y-0.489 Z-2.087 F400
G1 X0.124 Y-0.474 Z-2.096 F400
G1 X0.214 Y-0.441 Z-2.104 F400
G1 X0.296 Y-0.391 Z-2.113 F400
G1 X0.366 Y-0.326 Z-2.122 F400
G1 X0.423 Y-0.248 Z-2.130 F400
G1 X0.463 Y-0.161 Z-2.139 F400
G1 X0.485 Y-0.067 Z-2.147 F400
G1 X0.489 Y0.029 Z-2.156 F400
G1 X0.474 Y0.124 Z-2.164 F400
G1 X0.441 Y0.214 Z-2.173 F400
G1 X0.391 Y0.296 Z-2.182 F400
G1 X0.326 Y0.366 Z-2.190 F400
G1 X0.248 Y0.423 Z-2.199 F400
G1 X0.161 Y0.463 Z-2.207 F400
G1 X0.067 Y0.485 Z-2.216 F400
G1 X-0.029 Y0.489 Z-2.225 F400
G1 X-0.124 Y0.474 Z-2.233 F400
G1 X-0.214 Y0.441 Z-2.242 F400
G1 X-0.296 Y0.391 Z-2.250 F400
G1 X-0.366 Y0.326 Z-2.259 F400
G1 X-0.423 Y0.248 Z-2.268 F400
G1 X-0.463 Y0.161 Z-2.276 F400
G1 X-0.485 Y0.067 Z-2.285 F400
G1 X-0.489 Y-0.029 Z-2.293 F400
G1 X-0.474 Y-0.124 Z-2.302 F400
G1 X-0.441 Y-0.214 Z-2.310 F400
G1 X-0.391 Y-0.296 Z-2.319 F400
G1 X-0.326 Y-0.366 Z-2.328 F400
G1 X-0.248 Y-0.423 Z-2.336 F400
G1 X-0.161 Y-0.463 Z-2.345 F400
G1 X-0.067 Y-0.485 Z-2.353 F400
G1 X0.029 Y-0.489 Z-2.362 F400
G1 X0.124 Y-0.474 Z-2.371 F400
G1 X0.214 Y-0.441 Z-2.379 F400
G1 X0.296 Y-0.391 Z-2.388 F400
G1 X0.366 Y-0.326 Z-2.396 F400
G1 X0.423 Y-0.248 Z-2.405 F400
G1 X0.463 Y-0.161 Z-2.414 F400
G1 X0.485 Y-0.067 Z-2.422 F400
G1 X0.489 Y0.029 Z-2.431 F400
G1 X0.474 Y0.124 Z-2.439 F400
G1 X0.441 Y0.214 Z-2.448 F400
G1 X0.391 Y0.296 Z-2.457 F400
G1 X0.326 Y0.366 Z-2.465 F400
G1 X0.248 Y0.423 Z-2.474 F400
G1 X0.161 Y0.463 Z-2.482 F400
G1 X0.067 Y0.485 Z-2.491 F400
G1 X-0.029 Y0.489 Z-2.499 F400
G1 X-0.124 Y0.474 Z-2.508 F400
G1 X-0.214 Y0.441 Z-2.517 F400
G1 X-0.296 Y0.391 Z-2.525 F400
G1 X-0.366 Y0.326 Z-2.534 F400
G1 X-0.423 Y0.248 Z-2.542 F400
G1 X-0.463 Y0.161 Z-2.551 F400
G1 X-0.485 Y0.067 Z-2.560 F400
G1 X-0.489 Y-0.029 Z-2.568 F400
G1 X-0.474 Y-0.124 Z-2.577 F400
G1 X-0.441 Y-0.214 Z-2.585 F400
G1 X-0.391 Y-0.296 Z-2.594 F400
G1 X-0.326 Y-0.366 Z-2.603 F400
G1 X-0.248 Y-0.423 Z-2.611 F400
G1 X-0.161 Y-0.463 Z-2.620 F400
G1 X-0.067 Y-0.485 Z-2.628 F400
G1 X0.029 Y-0.489 Z-2.637 F400
G1 X0.124 Y-0.474 Z-2.645 F400
G1 X0.214 Y-0.441 Z-2.654 F400
G1 X0.296 Y-0.391 Z-2.663 F400
G1 X0.366 Y-0.326 Z-2.671 F400
G1 X0.423 Y-0.248 Z-2.680 F400
G1 X0.463 Y-0.161 Z-2.688 F400
G1 X0.485 Y-0.067 Z-2.697 F400
G1 X0.489 Y0.029 Z-2.706 F400
G1 X0.474 Y0.124 Z-2.714 F400
G1 X0.441 Y0.214 Z-2.723 F400
G1 X0.391 Y0.296 Z-2.731 F400
G1 X0.326 Y0.366 Z-2.740 F400
G1 X0.248 Y0.423 Z-2.749 F400
G1 X0.161 Y0.463 Z-2.757 F400
G1 X0.067 Y0.485 Z-2.766 F400
G1 X-0.029 Y0.489 Z-2.774 F400
G1 X-0.124 Y0.474 Z-2.783 F400
G1 X-0.214 Y0.441 Z-2.791 F400
G1 X-0.296 Y0.391 Z-2.800 F400
G1 X-0.366 Y0.326 Z-2.809 F400
G1 X-0.423 Y0.248 Z-2.817 F400
G1 X-0.463 Y0.161 Z-2.826 F400
G1 X-0.485 Y0.067 Z-2.834 F400
G1 X-0.489 Y-0.029 Z-2.843 F400
G1 X-0.474 Y-0.124 Z-2.852 F400
G1 X-0.441 Y-0.214 Z-2.860 F400
G1 X-0.391 Y-0.296 Z-2.869 F400
G1 X-0.326 Y-0.366 Z-2.877 F400
G1 X-0.248 Y-0.423 Z-2.886 F400
G1 X-0.161 Y-0.463 Z-2.895 F400
G1 X-0.067 Y-0.485 Z-2.903 F400
G1 X0.029 Y-0.489 Z-2.912 F400
G1 X0.124 Y-0.474 Z-2.920 F400
G1 X0.214 Y-0.441 Z-2.929 F400
G1 X0.296 Y-0.391 Z-2.937 F400
G1 X0.366 Y-0.326 Z-2.946 F400
G1 X0.423 Y-0.248 Z-2.955 F400
G1 X0.463 Y-0.161 Z-2.963 F400
G1 X0.485 Y-0.067 Z-2.972 F400
G1 X0.489 Y0.029 Z-2.980 F400
G1 X0.474 Y0.124 Z-2.989 F400
G1 X0.441 Y0.214 Z-2.998 F400
G1 X0.391 Y0.296 Z-3.006 F400
G1 X0.326 Y0.366 Z-3.015 F400
G1 X0.248 Y0.423 Z-3.023 F400
G1 X0.161 Y0.463 Z-3.032 F400
G1 X0.067 Y0.485 Z-3.041 F400
G1 X-0.029 Y0.489 Z-3.049 F400
G1 X-0.124 Y0.474 Z-3.058 F400
G1 X-0.214 Y0.441 Z-3.066 F400
G1 X-0.296 Y0.391 Z-3.075 F400
G1 X-0.366 Y0.326 Z-3.084 F400
G1 X-0.423 Y0.248 Z-3.092 F400
G1 X-0.463 Y0.161 Z-3.101 F400
G1 X-0.485 Y0.067 Z-3.109 F400
G1 X-0.489 Y-0.029 Z-3.118 F400
G1 X-0.474 Y-0.124 Z-3.126 F400
G1 X-0.441 Y-0.214 Z-3.135 F400
G1 X-0.391 Y-0.296 Z-3.144 F400
G1 X-0.326 Y-0.366 Z-3.152 F400
G1 X-0.248 Y-0.423 Z-3.161 F400
G1 X-0.161 Y-0.463 Z-3.169 F400
G1 X-0.067 Y-0.485 Z-3.178 F400
G1 X0.029 Y-0.489 Z-3.187 F400
G1 X0.124 Y-0.474 Z-3.195 F400
G1 X0.214 Y-0.441 Z-3.204 F400
G1 X0.296 Y-0.391 Z-3.212 F400
G1 X0.366 Y-0.326 Z-3.221 F400
G1 X0.423 Y-0.248 Z-3.230 F400
G1 X0.463 Y-0.161 Z-3.238 F400
G1 X0.485 Y-0.067 Z-3.247 F400
G1 X0.489 Y0.029 Z-3.255 F400
G1 X0.474 Y0.124 Z-3.264 F400
G1 X0.441 Y0.214 Z-3.272 F400
G1 X0.391 Y0.296 Z-3.281 F400
G1 X0.326 Y0.366 Z-3.290 F400
G1 X0.248 Y0.423 Z-3.298 F400
G1 X0.161 Y0.463 Z-3.307 F400
G1 X0.067 Y0.485 Z-3.315 F400
G1 X-0.029 Y0.489 Z-3.324 F400
G1 X-0.124 Y0.474 Z-3.333 F400
G1 X-0.214 Y0.441 Z-3.341 F400
G1 X-0.296 Y0.391 Z-3.350 F400
G1 X-0.366 Y0.326 Z-3.358 F400
G1 X-0.423 Y0.248 Z-3.367 F400
G1 X-0.463 Y0.161 Z-3.376 F400
G1 X-0.485 Y0.067 Z-3.384 F400
G1 X-0.489 Y-0.029 Z-3.393 F400
G1 X-0.474 Y-0.124 Z-3.401 F400
G1 X-0.441 Y-0.214 Z-3.410 F400
G1 X-0.391 Y-0.296 Z-3.418 F400
G1 X-0.326 Y-0.366 Z-3.427 F400
G1 X-0.248 Y-0.423 Z-3.436 F400
G1 X-0.161 Y-0.463 Z-3.444 F400
G1 X-0.067 Y-0.485 Z-3.453 F400
G1 X0.029 Y-0.489 Z-3.461 F400
G1 X0.124 Y-0.474 Z-3.470 F400
G1 X0.214 Y-0.441 Z-3.479 F400
G1 X0.296 Y-0.391 Z-3.487 F400
G1 X0.366 Y-0.326 Z-3.496 F400
G1 X0.423 Y-0.248 Z-3.504 F400
G1 X0.463 Y-0.161 Z-3.513 F400
G1 X0.485 Y-0.067 Z-3.522 F400
G1 X0.489 Y0.029 Z-3.530 F400
G1 X0.474 Y0.124 Z-3.539 F400
G1 X0.441 Y0.214 Z-3.547 F400
G1 X0.391 Y0.296 Z-3.556 F400
G1 X0.326 Y0.366 Z-3.565 F400
G1 X0.248 Y0.423 Z-3.573 F400
G1 X0.161 Y0.463 Z-3.582 F400
G1 X0.067 Y0.485 Z-3.590 F400
G1 X-0.029 Y0.489 Z-3.599 F400
G1 X-0.124 Y0.474 Z-3.607 F400
G1 X-0.214 Y0.441 Z-3.616 F400
G1 X-0.296 Y0.391 Z-3.625 F400
G1 X-0.366 Y0.326 Z-3.633 F400
G1 X-0.423 Y0.248 Z-3.642 F400
G1 X-0.463 Y0.161 Z-3.650 F400
G1 X-0.485 Y0.067 Z-3.659 F400
G1 X-0.489 Y-0.029 Z-3.668 F400
G1 X-0.474 Y-0.124 Z-3.676 F400
G1 X-0.441 Y-0.214 Z-3.685 F400
G1 X-0.391 Y-0.296 Z-3.693 F400
G1 X-0.326 Y-0.366 Z-3.702 F400
G1 X-0.248 Y-0.423 Z-3.711 F400
G1 X-0.161 Y-0.463 Z-3.719 F400
G1 X-0.067 Y-0.485 Z-3.728 F400
G1 X0.029 Y-0.489 Z-3.736 F400
G1 X0.124 Y-0.474 Z-3.745 F400
G1 X0.214 Y-0.441 Z-3.753 F400
G1 X0.296 Y-0.391 Z-3.762 F400
G1 X0.366 Y-0.326 Z-3.771 F400
G1 X0.423 Y-0.248 Z-3.779 F400
G1 X0.463 Y-0.161 Z-3.788 F400
G1 X0.485 Y-0.067 Z-3.796 F400
G1 X0.489 Y0.029 Z-3.805 F400
G1 X0.474 Y0.124 Z-3.814 F400
G1 X0.441 Y0.214 Z-3.822 F400
G1 X0.391 Y0.296 Z-3.831 F400
G1 X0.326 Y0.366 Z-3.839 F400
G1 X0.248 Y0.423 Z-3.848 F400
G1 X0.161 Y0.463 Z-3.857 F400
G1 X0.067 Y0.485 Z-3.865 F400
G1 X-0.029 Y0.489 Z-3.874 F400
G1 X-0.124 Y0.474 Z-3.882 F400
G1 X-0.214 Y0.441 Z-3.891 F400
G1 X-0.296 Y0.391 Z-3.899 F400
G1 X-0.366 Y0.326 Z-3.908 F400
G1 X-0.423 Y0.248 Z-3.917 F400
G1 X-0.463 Y0.161 Z-3.925 F400
G1 X-0.485 Y0.067 Z-3.934 F400
G1 X-0.489 Y-0.029 Z-3.942 F400
G1 X-0.474 Y-0.124 Z-3.951 F400
G1 X-0.441 Y-0.214 Z-3.960 F400
G1 X-0.391 Y-0.296 Z-3.968 F400
G1 X-0.326 Y-0.366 Z-3.977 F400
G1 X-0.248 Y-0.423 Z-3.985 F400
G1 X-0.161 Y-0.463 Z-3.994 F400
G1 X-0.067 Y-0.485 Z-4.000 F400
G1 X0.029 Y-0.489 Z-4.000 F400
G1 X0.124 Y-0.474 Z-4.000 F400
G1 X0.214 Y-0.441 Z-4.000 F400
G1 X0.296 Y-0.391 Z-4.000 F400
G1 X0.366 Y-0.326 Z-4.000 F400
G1 X0.423 Y-0.248 Z-4.000 F400
G1 X0.463 Y-0.161 Z-4.000 F400
G1 X0.485 Y-0.067 Z-4.000 F400
G1 X0.489 Y0.029 Z-4.000 F400
G1 X0.474 Y0.124 Z-4.000 F400
G1 X0.441 Y0.214 Z-4.000 F400
G1 X0.391 Y0.296 Z-4.000 F400
G1 X0.326 Y0.366 Z-4.000 F400
G1 X0.248 Y0.423 Z-4.000 F400
G1 X0.161 Y0.463 Z-4.000 F400
G1 X0.067 Y0.485 Z-4.000 F400
G1 X-0.029 Y0.489 Z-4.000 F400
G1 X-0.124 Y0.474 Z-4.000 F400
G1 X-0.214 Y0.441 Z-4.000 F400
G1 X-0.296 Y0.391 Z-4.000 F400
G1 X-0.366 Y0.326 Z-4.000 F400
G1 X-0.423 Y0.248 Z-4.000 F400
G1 X-0.463 Y0.161 Z-4.000 F400
G1 X-0.485 Y0.067 Z-4.000 F400
G1 X-0.489 Y-0.029 Z-4.000 F400
G1 X-0.474 Y-0.124 Z-4.000 F400
G1 X-0.441 Y-0.214 Z-4.000 F400
G1 X-0.391 Y-0.296 Z-4.000 F400
G1 X-0.326 Y-0.366 Z-4.000 F400
G1 X-0.248 Y-0.423 Z-4.000 F400
G1 X-0.161 Y-0.463 Z-4.000 F400
(Adaptive - depth: -4.000000)
G1 X0.000 Y-0.500 F400
G1 X0.029 Y-0.526 F400
G1 X0.105 Y-0.547 F400
G1 X0.184 Y-0.550 F400
G1 X0.263 Y-0.534 F400
G1 X0.339 Y-0.500 F400
G1 X0.516 Y-0.366 F400
G1 X0.589 Y-0.255 F400
G1 X0.618 Y-0.179 F400
G1 X0.637 Y-0.100 F400
G1 X0.647 Y0.003 F400
G1 X0.637 Y0.142 F400
G1 X0.597 Y0.268 F400
G1 X0.545 Y0.366 F400
G1 X0.482 Y0.447 F400
G1 X0.397 Y0.524 F400
G1 X0.295 Y0.589 F400
G1 X0.176 Y0.634 F400
G1 X0.068 Y0.655 F400
G1 X-0.047 Y0.658 F400
G1 X-0.161 Y0.639 F400
G1 X-0.266 Y0.603 F400
G1 X-0.368 Y0.550 F400
G1 X-0.471 Y0.468 F400
G1 X-0.547 Y0.374 F400
G1 X-0.600 Y0.282 F400
G1 X-0.639 Y0.168 F400
G1 X-0.658 Y0.055 F400
G1 X-0.658 Y-0.063 F400
G1 X-0.637 Y-0.179 F400
G1 X-0.595 Y-0.289 F400
G1 X-0.534 Y-0.392 F400
G1 X-0.458 Y-0.482 F400
G1 X-0.368 Y-0.558 F400
G1 X-0.261 Y-0.629 F400
G1 X-0.100 Y-0.687 F400
G1 X0.103 Y-0.716 F400
G1 X0.261 Y-0.697 F400
G1 X0.300 Y-0.687 F400
G1 X0.526 Y-0.584 F400
G1 X0.647 Y-0.474 F400
G1 X0.700 Y-0.400 F400
G1 X0.742 Y-0.324 F400
G1 X0.784 Y-0.218 F400
G1 X0.818 Y-0.068 F400
G1 X0.826 Y0.076 F400
G1 X0.808 Y0.211 F400
G1 X0.771 Y0.324 F400
G1 X0.721 Y0.426 F400
G1 X0.647 Y0.534 F400
G1 X0.547 Y0.637 F400
G1 X0.445 Y0.716 F400
G1 X0.326 Y0.782 F400
G1 X0.200 Y0.826 F400
G1 X0.066 Y0.845 F400
G1 X-0.047 Y0.847 F400
G1 X-0.182 Y0.829 F400
G1 X-0.316 Y0.789 F400
G1 X-0.442 Y0.726 F400
G1 X-0.545 Y0.655 F400
G1 X-0.642 Y0.563 F400
G1 X-0.724 Y0.455 F400
G1 X-0.787 Y0.339 F400
G1 X-0.829 Y0.211 F400
G1 X-0.850 Y0.089 F400
G1 X-0.853 Y-0.037 F400
G1 X-0.834 Y-0.174 F400
G1 X-0.795 Y-0.311 F400
G1 X-0.739 Y-0.434 F400
G1 X-0.663 Y-0.550 F400
G1 X-0.571 Y-0.653 F400
G1 X-0.463 Y-0.742 F400
G1 X-0.342 Y-0.813 F400
G1 X-0.213 Y-0.866 F400
G1 X-0.076 Y-0.900 F400
G1 X0.061 Y-0.913 F400
G1 X0.197 Y-0.908 F400
G1 X0.347 Y-0.884 F400
G1 X0.495 Y-0.829 F400
G1 X0.608 Y-0.766 F400
G1 X0.711 Y-0.687 F400
G1 X0.803 Y-0.587 F400
G1 X0.879 Y-0.479 F400
G1 X0.947 Y-0.347 F400
G1 X0.997 Y-0.203 F400
G1 X1.021 Y-0.061 F400
G1 X1.026 Y0.068 F400
G1 X1.013 Y0.208 F400
G1 X0.976 Y0.353 F400
G1 X0.921 Y0.484 F400
G1 X0.847 Y0.608 F400
G1 X0.758 Y0.721 F400
G1 X0.642 Y0.832 F400
G1 X0.518 Y0.916 F400
G1 X0.397 Y0.976 F400
G1 X0.258 Y1.024 F400
G1 X0.116 Y1.053 F400
G1 X-0.037 Y1.061 F400
G1 X-0.182 Y1.047 F400
G1 X-0.326 Y1.013 F400
G1 X-0.466 Y0.961 F400
G1 X-0.597 Y0.887 F400
G1 X-0.716 Y0.797 F400
G1 X-0.821 Y0.692 F400
G1 X-0.911 Y0.571 F400
G1 X-0.979 Y0.437 F400
G1 X-1.024 Y0.313 F400
G1 X-1.055 Y0.174 F400
G1 X-1.066 Y0.013 F400
G1 X-1.061 Y-0.129 F400
G1 X-1.029 Y-0.295 F400
G1 X-0.979 Y-0.445 F400
G1 X-0.908 Y-0.582 F400
G1 X-0.829 Y-0.695 F400
G1 X-0.726 Y-0.805 F400
G1 X-0.613 Y-0.903 F400
G1 X-0.466 Y-0.997 F400
G1 X-0.321 Y-1.066 F400
G1 X-0.168 Y-1.116 F400
G1 X-0.008 Y-1.145 F400
G1 X0.150 Y-1.147 F400
G1 X0.287 Y-1.134 F400
G1 X0.434 Y-1.097 F400
G1 X0.574 Y-1.045 F400
G1 X0.716 Y-0.966 F400
G1 X0.839 Y-0.874 F400
G1 X0.950 Y-0.766 F400
G1 X1.047 Y-0.642 F400
G1 X1.126 Y-0.508 F400
G1 X1.187 Y-0.361 F400
G1 X1.229 Y-0.208 F400
G1 X1.250 Y-0.050 F400
G1 X1.250 Y0.105 F400
G1 X1.232 Y0.261 F400
G1 X1.189 Y0.426 F400
G1 X1.132 Y0.574 F400
G1 X1.053 Y0.716 F400
G1 X0.955 Y0.850 F400
G1 X0.842 Y0.968 F400
G1 X0.716 Y1.071 F400
G1 X0.574 Y1.153 F400
G1 X0.439 Y1.211 F400
G1 X0.287 Y1.258 F400
G1 X0.111 Y1.289 F400
G1 X-0.061 Y1.297 F400
G1 X-0.226 Y1.279 F400
G1 X-0.371 Y1.247 F400
G1 X-0.524 Y1.192 F400
G1 X-0.668 Y1.121 F400
G1 X-0.818 Y1.021 F400
G1 X-0.945 Y0.911 F400
G1 X-1.053 Y0.782 F400
G1 X-1.129 Y0.663 F400
G1 X-1.197 Y0.518 F400
G1 X-1.250 Y0.371 F400
G1 X-1.289 Y0.184 F400
G1 X-1.303 Y0.018 F400
G1 X-1.297 Y-0.147 F400
G1 X-1.271 Y-0.318 F400
G1 X-1.224 Y-0.482 F400
G1 X-1.150 Y-0.637 F400
G1 X-1.074 Y-0.761 F400
G1 X-0.976 Y-0.889 F400
G1 X-0.845 Y-1.026 F400
G1 X-0.700 Y-1.145 F400
G1 X-0.545 Y-1.237 F400
G1 X-0.405 Y-1.300 F400
G1 X-0.242 Y-1.350 F400
G1 X-0.079 Y-1.382 F400
G1 X0.097 Y-1.392 F400
G1 X0.268 Y-1.382 F400
G1 X0.439 Y-1.353 F400
G1 X0.608 Y-1.300 F400
G1 X0.766 Y-1.229 F400
G1 X0.911 Y-1.132 F400
G1 X1.021 Y-1.039 F400
G1 X1.137 Y-0.924 F400
G1 X1.250 Y-0.776 F400
G1 X1.345 Y-0.616 F400
G1 X1.418 Y-0.455 F400
G1 X1.466 Y-0.279 F400
G1 X1.492 Y-0.126 F400
G1 X1.500 Y0.042 F400
G1 X1.492 Y0.208 F400
G1 X1.461 Y0.403 F400
G1 X1.405 Y0.589 F400
G1 X1.326 Y0.758 F400
G1 X1.247 Y0.889 F400
G1 X1.139 Y1.029 F400
G1 X1.018 Y1.150 F400
G1 X0.876 Y1.263 F400
G1 X0.726 Y1.355 F400
G1 X0.566 Y1.432 F400
G1 X0.397 Y1.492 F400
G1 X0.203 Y1.534 F400
G1 X0.018 Y1.547 F400
G1 X-0.134 Y1.542 F400
G1 X-0.308 Y1.521 F400
G1 X-0.503 Y1.474 F400
G1 X-0.689 Y1.405 F400
G1 X-0.858 Y1.313 F400
G1 X-0.979 Y1.221 F400
G1 X-1.089 Y1.124 F400
G1 X-1.216 Y0.982 F400
G1 X-1.326 Y0.826 F400
G1 X-1.416 Y0.655 F400
G1 X-1.476 Y0.500 F400
G1 X-1.524 Y0.324 F400
G1 X-1.553 Y0.145 F400
G1 X-1.561 Y-0.047 F400
G1 X-1.547 Y-0.229 F400
G1 X-1.513 Y-0.411 F400
G1 X-1.458 Y-0.592 F400
G1 X-1.379 Y-0.761 F400
G1 X-1.295 Y-0.900 F400
G1 X-1.189 Y-1.045 F400
G1 X-1.042 Y-1.197 F400
G1 X-0.903 Y-1.316 F400
G1 X-0.745 Y-1.424 F400
G1 X-0.574 Y-1.513 F400
G1 X-0.400 Y-1.582 F400
G1 X-0.216 Y-1.624 F400
G1 X-0.053 Y-1.645 F400
G1 X0.124 Y-1.653 F400
G1 X0.329 Y-1.642 F400
G1 X0.550 Y-1.595 F400
G1 X0.708 Y-1.539 F400
G1 X0.850 Y-1.474 F400
G1 X1.003 Y-1.382 F400
G1 X1.166 Y-1.261 F400
G1 X1.318 Y-1.118 F400
G1 X1.439 Y-0.966 F400
G1 X1.529 Y-0.829 F400
G1 X1.613 Y-0.661 F400
G1 X1.679 Y-0.489 F400
G1 X1.732 Y-0.289 F400
G1 X1.761 Y-0.100 F400
G1 X1.768 Y0.089 F400
G1 X1.755 Y0.282 F400
G1 X1.721 Y0.468 F400
G1 X1.668 Y0.653 F400
G1 X1.595 Y0.832 F400
G1 X1.497 Y0.997 F400
G1 X1.397 Y1.134 F400
G1 X1.276 Y1.274 F400
G1 X1.124 Y1.413 F400
G1 X0.958 Y1.534 F400
G1 X0.787 Y1.634 F400
G1 X0.597 Y1.716 F400
G1 X0.424 Y1.763 F400
G1 X0.261 Y1.792 F400
G1 X0.082 Y1.811 F400
G1 X-0.147 Y1.813 F400
G1 X-0.392 Y1.789 F400
G1 X-0.600 Y1.734 F400
G1 X-0.747 Y1.674 F400
G1 X-0.884 Y1.605 F400
G1 X-1.055 Y1.500 F400
G1 X-1.237 Y1.361 F400
G1 X-1.382 Y1.208 F400
G1 X-1.484 Y1.074 F400
G1 X-1.579 Y0.921 F400
G1 X-1.663 Y0.755 F400
G1 X-1.745 Y0.553 F400
G1 X-1.805 Y0.334 F400
G1 X-1.829 Y0.126 F400
G1 X-1.834 Y-0.032 F400
G1 X-1.824 Y-0.224 F400
G1 X-1.789 Y-0.437 F400
G1 X-1.726 Y-0.645 F400
G1 X-1.661 Y-0.808 F400
G1 X-1.566 Y-0.987 F400
G1 X-1.453 Y-1.150 F400
G1 X-1.329 Y-1.297 F400
G1 X-1.189 Y-1.437 F400
G1 X-1.005 Y-1.584 F400
G1 X-0.832 Y-1.697 F400
G1 X-0.637 Y-1.787 F400
G1 X-0.482 Y-1.842 F400
G1 X-0.295 Y-1.892 F400
G1 X-0.079 Y-1.924 F400
G1 X0.134 Y-1.934 F400
G1 X0.339 Y-1.924 F400
G1 X0.547 Y-1.882 F400
G1 X0.708 Y-1.834 F400
G1 X0.887 Y-1.761 F400
G1 X1.055 Y-1.676 F400
G1 X1.255 Y-1.545 F400
G1 X1.413 Y-1.416 F400
G1 X1.558 Y-1.263 F400
G1 X1.671 Y-1.121 F400
G1 X1.776 Y-0.953 F400
G1 X1.868 Y-0.776 F400
G1 X1.950 Y-0.563 F400
G1 X2.005 Y-0.363 F400
G1 X2.042 Y-0.155 F400
G1 X2.058 Y0.055 F400
G1 X2.047 Y0.263 F400
G1 X2.021 Y0.442 F400
G1 X1.971 Y0.634 F400
G1 X1.905 Y0.818 F400
G1 X1.811 Y1.013 F400
G1 X1.703 Y1.187 F400
G1 X1.579 Y1.350 F400
G1 X1.437 Y1.505 F400
G1 X1.263 Y1.661 F400
G1 X1.089 Y1.789 F400
G1 X0.895 Y1.892 F400
G1 X0.742 Y1.958 F400
G1 X0.553 Y2.018 F400
G1 X0.345 Y2.066 F400
G1 X0.111 Y2.095 F400
G1 X-0.100 Y2.100 F400
G1 X-0.318 Y2.087 F400
G1 X-0.537 Y2.050 F400
G1 X-0.742 Y1.982 F400
G1 X-0.892 Y1.918 F400
G1 X-1.068 Y1.832 F400
G1 X-1.279 Y1.695 F400
G1 X-1.453 Y1.547 F400
G1 X-1.579 Y1.413 F400
G1 X-1.687 Y1.274 F400
G1 X-1.795 Y1.113 F400
G1 X-1.916 Y0.895 F400
G1 X-2.016 Y0.663 F400
G1 X-2.076 Y0.439 F400
G1 X-2.103 Y0.266 F400
G1 X-2.118 Y0.095 F400
G1 X-2.118 Y-0.132 F400
G1 X-2.089 Y-0.379 F400
G1 X-2.042 Y-0.587 F400
G1 X-1.984 Y-0.774 F400
G1 X-1.897 Y-0.974 F400
G1 X-1.795 Y-1.155 F400
G1 X-1.676 Y-1.326 F400
G1 X-1.542 Y-1.492 F400
G1 X-1.366 Y-1.666 F400
G1 X-1.195 Y-1.808 F400
G1 X-1.003 Y-1.929 F400
G1 X-0.839 Y-2.013 F400
G1 X-0.645 Y-2.089 F400
G1 X-0.450 Y-2.150 F400
G1 X-0.203 Y-2.200 F400
G1 X0.016 Y-2.224 F400
G1 X0.239 Y-2.221 F400
G1 X0.429 Y-2.203 F400
G1 X0.634 Y-2.161 F400
G1 X0.832 Y-2.097 F400
G1 X1.018 Y-2.024 F400
G1 X1.237 Y-1.908 F400
G1 X1.418 Y-1.787 F400
G1 X1.592 Y-1.650 F400
G1 X1.750 Y-1.484 F400
G1 X1.863 Y-1.342 F400
G1 X1.982 Y-1.171 F400
G1 X2.103 Y-0.955 F400
G1 X2.205 Y-0.729 F400
G1 X2.271 Y-0.505 F400
G1 X2.311 Y-0.324 F400
G1 X2.339 Y-0.108 F400
G1 X2.347 Y0.124 F400
G1 X2.334 Y0.353 F400
G1 X2.289 Y0.574 F400
G1 X2.242 Y0.745 F400
G1 X2.168 Y0.942 F400
G1 X2.066 Y1.155 F400
G1 X1.945 Y1.355 F400
G1 X1.811 Y1.537 F400
G1 X1.658 Y1.711 F400
G1 X1.489 Y1.868 F400
G1 X1.303 Y2.000 F400
G1 X1.150 Y2.089 F400
G1 X0.963 Y2.182 F400
G1 X0.745 Y2.266 F400
G1 X0.503 Y2.334 F400
G1 X0.274 Y2.379 F400
G1 X0.034 Y2.397 F400
G1 X-0.168 Y2.397 F400
G1 X-0.389 Y2.374 F400
G1 X-0.605 Y2.329 F400
G1 X-0.813 Y2.271 F400
G1 X-1.045 Y2.179 F400
G1 X-1.245 Y2.068 F400
G1 X-1.408 Y1.963 F400
G1 X-1.582 Y1.824 F400
G1 X-1.734 Y1.671 F400
G1 X-1.871 Y1.511 F400
G1 X-2.003 Y1.339 F400
G1 X-2.132 Y1.124 F400
G1 X-2.234 Y0.916 F400
G1 X-2.313 Y0.687 F400
G1 X-2.363 Y0.495 F400
G1 X-2.397 Y0.274 F400
G1 X-2.416 Y0.055 F400
G1 X-2.411 Y-0.192 F400
G1 X-2.387 Y-0.418 F400
G1 X-2.342 Y-0.645 F400
G1 X-2.268 Y-0.868 F400
G1 X-2.192 Y-1.047 F400
G1 X-2.092 Y-1.245 F400
G1 X-1.963 Y-1.453 F400
G1 X-1.811 Y-1.650 F400
G1 X-1.642 Y-1.821 F400
G1 X-1.495 Y-1.950 F400
G1 X-1.311 Y-2.082 F400
G1 X-1.124 Y-2.197 F400
G1 X-0.900 Y-2.308 F400
G1 X-0.679 Y-2.395 F400
G1 X-0.450 Y-2.463 F400
G1 X-0.203 Y-2.505 F400
G1 X-0.003 Y-2.524 F400
G1 X0.221 Y-2.524 F400
G1 X0.442 Y-2.500 F400
G1 X0.653 Y-2.463 F400
G1 X0.892 Y-2.395 F400
G1 X1.105 Y-2.313 F400
G1 X1.313 Y-2.213 F400
G1 X1.516 Y-2.089 F400
G1 X1.705 Y-1.950 F400
G1 X1.876 Y-1.789 F400
G1 X2.005 Y-1.645 F400
G1 X2.142 Y-1.474 F400
G1 X2.282 Y-1.266 F400
G1 X2.400 Y-1.045 F400
G1 X2.497 Y-0.813 F400
G1 X2.566 Y-0.605 F400
G1 X2.621 Y-0.366 F400
G1 X2.650 Y0.008 F400
G1 X2.574 Y0.611 F400
G1 X2.418 Y1.084 F400
G1 X2.237 Y1.413 F400
G1 X1.926 Y1.811 F400
G1 X1.582 Y2.118 F400
G1 X1.311 Y2.313 F400
G1 X0.800 Y2.526 F400
G1 X0.337 Y2.632 F400
G1 X-0.197 Y2.666 F400
G1 X-0.671 Y2.605 F400
G1 X-1.139 Y2.442 F400
G1 X-1.532 Y2.211 F400
G1 X-1.905 Y1.876 F400
G1 X-2.245 Y1.447 F400
G1 X-2.463 Y1.029 F400
G1 X-2.616 Y0.534 F400
G1 X-2.674 Y-0.011 F400
G1 X-2.666 Y-0.326 F400
G1 X-2.574 Y-0.800 F400
G1 X-2.442 Y-1.147 F400
G1 X-2.266 Y-1.474 F400
G1 X-2.045 Y-1.776 F400
G1 X-1.618 Y-2.184 F400
G1 X-1.189 Y-2.458 F400
G1 X-0.797 Y-2.624 F400
G1 X-0.382 Y-2.745 F400
G1 X0.076 Y-2.797 F400
G1 X0.550 Y-2.763 F400
G1 X0.984 Y-2.653 F400
G1 X1.403 Y-2.471 F400
G1 X1.687 Y-2.297 F400
G1 X2.066 Y-1.971 F400
G1 X2.437 Y-1.508 F400
G1 X2.589 Y-1.250 F400
G1 X2.745 Y-0.895 F400
G1 X2.874 Y-0.389 F400
G1 X2.897 Y0.187 F400
G1 X2.826 Y0.700 F400
G1 X2.655 Y1.205 F400
G1 X2.497 Y1.500 F400
G1 X2.203 Y1.900 F400
G1 X1.842 Y2.253 F400
G1 X1.495 Y2.500 F400
G1 X1.192 Y2.658 F400
G1 X0.795 Y2.805 F400
G1 X0.247 Y2.913 F400
G1 X-0.239 Y2.939 F400
G1 X-0.792 Y2.858 F400
G1 X-1.108 Y2.753 F400
G1 X-1.508 Y2.547 F400
G1 X-1.905 Y2.247 F400
G1 X-2.253 Y1.882 F400
G1 X-2.476 Y1.571 F400
G1 X-2.695 Y1.155 F400
G1 X-2.811 Y0.834 F400
G1 X-2.924 Y0.245 F400
G1 X-2.939 Y-0.163 F400
G1 X-2.861 Y-0.755 F400
G1 X-2.713 Y-1.184 F400
G1 X-2.482 Y-1.618 F400
G1 X-2.137 Y-2.047 F400
G1 X-1.863 Y-2.305 F400
G1 X-1.553 Y-2.532 F400
G1 X-1.142 Y-2.753 F400
G1 X-0.739 Y-2.887 F400
G1 X-0.361 Y-2.958 F400
G1 X-0.024 Y-2.976 F400
G1 X0.489 Y-2.937 F400
G1 X0.766 Y-2.876 F400
G1 X1.158 Y-2.742 F400
G1 X1.595 Y-2.513 F400
G1 X1.903 Y-2.289 F400
G1 X2.176 Y-2.034 F400
G1 X2.439 Y-1.713 F400
G1 X2.637 Y-1.384 F400
G1 X2.782 Y-1.076 F400
G1 X2.895 Y-0.708 F400
G1 X2.958 Y-0.371 F400
G1 X2.976 Y0.005 F400
G1 X2.945 Y0.439 F400
G1 X2.868 Y0.795 F400
G1 X2.697 Y1.261 F400
G1 X2.624 Y1.408 F400
G1 X2.426 Y1.726 F400
G1 X2.042 Y2.171 F400
G1 X1.616 Y2.505 F400
G1 X1.203 Y2.726 F400
G1 X1.084 Y2.779 F400
G1 X0.716 Y2.892 F400
G1 X0.337 Y2.961 F400
G1 X0.000 Y2.976 F400
G1 X-0.474 Y2.939 F400
G1 X-0.671 Y2.897 F400
G1 X-0.671 Y2.897 F400
G1 X-0.676 Y2.895 F400
G1 X-0.679 Y2.892 F400
G1 X-0.700 Y2.889 F400
G1 X-0.700 Y2.889 F400
G1 X-0.779 Y2.874 F400
G1 X-0.779 Y2.874 F400
G1 X-0.871 Y2.813 F400
G1 X-0.887 Y2.800 F400
G1 X-0.903 Y2.784 F400
G0 X-0.918 Y2.771
G0 X-1.329 Y2.576
G1 X-1.347 Y2.568 F400
G1 X-1.621 Y2.497 F400
G1 X-1.621 Y2.497 F400
G1 X-1.892 Y2.300 F400
G1 X-2.166 Y2.045 F400
G1 X-2.434 Y1.721 F400
G1 X-2.724 Y1.211 F400
G1 X-2.882 Y0.768 F400
G1 X-2.955 Y0.389 F400
G1 X-2.979 Y0.011 F400
G1 X-2.947 Y-0.424 F400
G1 X-2.874 Y-0.779 F400
G1 X-2.753 Y-1.132 F400
G1 X-2.503 Y-1.616 F400
G1 X-2.279 Y-1.916 F400
G1 X-2.050 Y-2.161 F400
G1 X-1.692 Y-2.453 F400
G1 X-1.547 Y-2.542 F400
G1 X-1.547 Y-2.542 F400
G1 X-1.534 Y-2.539 F400
G1 X-1.526 Y-2.534 F400
G1 X-1.524 Y-2.505 F400
G1 X-1.539 Y-2.487 F400
G1 X-1.568 Y-2.489 F400
G1 X-1.592 Y-2.508 F400
G1 X-1.584 Y-2.545 F400
G1 X-1.584 Y-2.545 F400
G1 X-1.582 Y-2.539 F400
G1 X-1.421 Y-2.639 F400
G1 X-1.224 Y-2.739 F400
G1 X-1.066 Y-2.805 F400
G1 X-0.808 Y-2.889 F400
G1 X-0.513 Y-2.953 F400
G1 X-0.347 Y-2.979 F400
G1 X-0.161 Y-2.997 F400
G1 X0.216 Y-2.987 F400
G1 X0.424 Y-2.966 F400
G1 X0.550 Y-2.945 F400
G1 X0.787 Y-2.889 F400
G1 X1.082 Y-2.795 F400
G1 X1.282 Y-2.708 F400
G1 X1.439 Y-2.626 F400
G1 X1.650 Y-2.503 F400
G1 X1.747 Y-2.434 F400
G1 X1.945 Y-2.279 F400
G1 X2.050 Y-2.187 F400
G1 X2.200 Y-2.034 F400
G1 X2.461 Y-1.713 F400
G1 X2.542 Y-1.589 F400
G1 X2.647 Y-1.408 F400
G1 X2.724 Y-1.253 F400
G1 X2.803 Y-1.066 F400
G1 X2.903 Y-0.753 F400
G1 X2.958 Y-0.497 F400
G1 X2.979 Y-0.353 F400
G1 X2.997 Y-0.158 F400
G1 X2.987 Y0.211 F400
G1 X2.968 Y0.421 F400
G1 X2.950 Y0.526 F400
G1 X2.892 Y0.779 F400
G1 X2.842 Y0.942 F400
G1 X2.784 Y1.100 F400
G1 X2.708 Y1.276 F400
G1 X2.618 Y1.455 F400
G1 X2.503 Y1.650 F400
G1 X2.292 Y1.929 F400
G1 X2.187 Y2.050 F400
G1 X2.037 Y2.197 F400
G1 X1.705 Y2.466 F400
G1 X1.621 Y2.521 F400
G1 X1.389 Y2.655 F400
G1 X1.224 Y2.739 F400
G1 X1.066 Y2.805 F400
G1 X0.808 Y2.889 F400
G1 X0.513 Y2.953 F400
G1 X0.345 Y2.979 F400
G1 X0.161 Y2.997 F400
G1 X-0.216 Y2.987 F400
G1 X-0.424 Y2.966 F400
G1 X-0.550 Y2.945 F400
G1 X-0.787 Y2.889 F400
G1 X-1.079 Y2.795 F400
G1 X-1.308 Y2.695 F400
G1 X-1.453 Y2.621 F400
G1 X-1.645 Y2.505 F400
G1 X-1.916 Y2.300 F400
G1 X-2.095 Y2.142 F400
G1 X-2.189 Y2.045 F400
G1 X-2.347 Y1.863 F400
G1 X-2.482 Y1.684 F400
G1 X-2.645 Y1.413 F400
G1 X-2.729 Y1.242 F400
G1 X-2.808 Y1.053 F400
G1 X-2.892 Y0.795 F400
G1 X-2.963 Y0.463 F400
G1 X-2.997 Y0.100 F400
G1 X-2.987 Y-0.218 F400
G1 X-2.966 Y-0.434 F400
G1 X-2.889 Y-0.784 F400
G1 X-2.837 Y-0.963 F400
G1 X-2.766 Y-1.153 F400
G1 X-2.624 Y-1.445 F400
G1 X-2.503 Y-1.653 F400
G1 X-2.292 Y-1.926 F400
G1 X-2.142 Y-2.095 F400
G1 X-2.047 Y-2.187 F400
G1 X-1.874 Y-2.337 F400
G1 X-1.708 Y-2.466 F400
G1 X-1.584 Y-2.545 F400
G1 X-1.584 Y-2.545 F400
G0 Z5.000
(Helix to depth: -5.000000)
G0 Z5.000
G0 X0.429 Y0.237 Z5.000
G0 X0.429 Y0.237 Z3.000
G1 X0.429 Y0.237 Z-4.000 F400
G1 X0.429 Y0.237 Z-4.000 F400
G1 X0.374 Y0.316 Z-4.009 F400
G1 X0.305 Y0.383 Z-4.017 F400
G1 X0.225 Y0.435 Z-4.026 F400
G1 X0.135 Y0.471 Z-4.034 F400
G1 X0.041 Y0.488 Z-4.043 F400
G1 X-0.055 Y0.487 Z-4.052 F400
G1 X-0.149 Y0.467 Z-4.060 F400
G1 X-0.237 Y0.429 Z-4.069 F400
G1 X-0.316 Y0.374 Z-4.077 F400
G1 X-0.383 Y0.305 Z-4.086 F400
G1 X-0.435 Y0.225 Z-4.094 F400
G1 X-0.471 Y0.135 Z-4.103 F400
G1 X-0.488 Y0.041 Z-4.112 F400
G1 X-0.487 Y-0.055 Z-4.120 F400
G1 X-0.467 Y-0.149 Z-4.129 F400
G1 X-0.429 Y-0.237 Z-4.137 F400
G1 X-0.374 Y-0.316 Z-4.146 F400
G1 X-0.305 Y-0.383 Z-4.155 F400
G1 X-0.225 Y-0.435 Z-4.163 F400
G1 X-0.135 Y-0.471 Z-4.172 F400
G1 X-0.041 Y-0.488 Z-4.180 F400
G1 X0.055 Y-0.487 Z-4.189 F400
G1 X0.149 Y-0.467 Z-4.198 F400
G1 X0.237 Y-0.429 Z-4.206 F400
G1 X0.316 Y-0.374 Z-4.215 F400
G1 X0.383 Y-0.305 Z-4.223 F400
G1 X0.435 Y-0.225 Z-4.232 F400
G1 X0.471 Y-0.135 Z-4.240 F400
G1 X0.488 Y-0.041 Z-4.249 F400
G1 X0.487 Y0.055 Z-4.258 F400
G1 X0.467 Y0.149 Z-4.266 F400
G1 X0.429 Y0.237 Z-4.275 F400
G1 X0.374 Y0.316 Z-4.283 F400
G1 X0.305 Y0.383 Z-4.292 F400
G1 X0.225 Y0.435 Z-4.301 F400
G1 X0.135 Y0.471 Z-4.309 F400
G1 X0.041 Y0.488 Z-4.318 F400
G1 X-0.055 Y0.487 Z-4.326 F400
G1 X-0.149 Y0.467 Z-4.335 F400
G1 X-0.237 Y0.429 Z-4.344 F400
G1 X-0.316 Y0.374 Z-4.352 F400
G1 X-0.383 Y0.305 Z-4.361 F400
G1 X-0.435 Y0.225 Z-4.369 F400
G1 X-0.471 Y0.135 Z-4.378 F400
G1 X-0.488 Y0.041 Z-4.387 F400
G1 X-0.487 Y-0.055 Z-4.395 F400
G1 X-0.467 Y-0.149 Z-4.404 F400
G1 X-0.429 Y-0.237 Z-4.412 F400
G1 X-0.374 Y-0.316 Z-4.421 F400
G1 X-0.305 Y-0.383 Z-4.429 F400
G1 X-0.225 Y-0.435 Z-4.438 F400
G1 X-0.135 Y-0.471 Z-4.447 F400
G1 X-0.041 Y-0.488 Z-4.455 F400
G1 X0.055 Y-0.487 Z-4.464 F400
G1 X0.149 Y-0.467 Z-4.472 F400
G1 X0.237 Y-0.429 Z-4.481 F400
G1 X0.316 Y-0.374 Z-4.490 F400
G1 X0.383 Y-0.305 Z-4.498 F400
G1 X0.435 Y-0.225 Z-4.507 F400
G1 X0.471 Y-0.135 Z-4.515 F400
G1 X0.488 Y-0.041 Z-4.524 F400
G1 X0.487 Y0.055 Z-4.533 F400
G1 X0.467 Y0.149 Z-4.541 F400
G1 X0.429 Y0.237 Z-4.550 F400
G1 X0.374 Y0.316 Z-4.558 F400
G1 X0.305 Y0.383 Z-4.567 F400
G1 X0.225 Y0.435 Z-4.575 F400
G1 X0.135 Y0.471 Z-4.584 F400
G1 X0.041 Y0.488 Z-4.593 F400
G1 X-0.055 Y0.487 Z-4.601 F400
G1 X-0.149 Y0.467 Z-4.610 F400
G1 X-0.237 Y0.429 Z-4.618 F400
G1 X-0.316 Y0.374 Z-4.627 F400
G1 X-0.383 Y0.305 Z-4.636 F400
G1 X-0.435 Y0.225 Z-4.644 F400
G1 X-0.471 Y0.135 Z-4.653 F400
G1 X-0.488 Y0.041 Z-4.661 F400
G1 X-0.487 Y-0.055 Z-4.670 F400
G1 X-0.467 Y-0.149 Z-4.679 F400
G1 X-0.429 Y-0.237 Z-4.687 F400
G1 X-0.374 Y-0.316 Z-4.696 F400
G1 X-0.305 Y-0.383 Z-4.704 F400
G1 X-0.225 Y-0.435 Z-4.713 F400
G1 X-0.135 Y-0.471 Z-4.721 F400
G1 X-0.041 Y-0.488 Z-4.730 F400
G1 X0.055 Y-0.487 Z-4.739 F400
G1 X0.149 Y-0.467 Z-4.747 F400
G1 X0.237 Y-0.429 Z-4.756 F400
G1 X0.316 Y-0.374 Z-4.764 F400
G1 X0.383 Y-0.305 Z-4.773 F400
G1 X0.435 Y-0.225 Z-4.782 F400
G1 X0.471 Y-0.135 Z-4.790 F400
G1 X0.488 Y-0.041 Z-4.799 F400
G1 X0.487 Y0.055 Z-4.807 F400
G1 X0.467 Y0.149 Z-4.816 F400
G1 X0.429 Y0.237 Z-4.825 F400
G1 X0.374 Y0.316 Z-4.833 F400
G1 X0.305 Y0.383 Z-4.842 F400
G1 X0.225 Y0.435 Z-4.850 F400
G1 X0.135 Y0.471 Z-4.859 F400
G1 X0.041 Y0.488 Z-4.868 F400
G1 X-0.055 Y0.487 Z-4.876 F400
G1 X-0.149 Y0.467 Z-4.885 F400
G1 X-0.237 Y0.429 Z-4.893 F400
G1 X-0.316 Y0.374 Z-4.902 F400
G1 X-0.383 Y0.305 Z-4.910 F400
G1 X-0.435 Y0.225 Z-4.919 F400
G1 X-0.471 Y0.135 Z-4.928 F400
G1 X-0.488 Y0.041 Z-4.936 F400
G1 X-0.487 Y-0.055 Z-4.945 F400
G1 X-0.467 Y-0.149 Z-4.953 F400
G1 X-0.429 Y-0.237 Z-4.962 F400
G1 X-0.374 Y-0.316 Z-4.971 F400
G1 X-0.305 Y-0.383 Z-4.979 F400
G1 X-0.225 Y-0.435 Z-4.988 F400
G1 X-0.135 Y-0.471 Z-4.996 F400
G1 X-0.041 Y-0.488 Z-5.000 F400
G1 X0.055 Y-0.487 Z-5.000 F400
G1 X0.149 Y-0.467 Z-5.000 F400
G1 X0.237 Y-0.429 Z-5.000 F400
G1 X0.316 Y-0.374 Z-5.000 F400
G1 X0.383 Y-0.305 Z-5.000 F400
G1 X0.435 Y-0.225 Z-5.000 F400
G1 X0.471 Y-0.135 Z-5.000 F400
G1 X0.488 Y-0.041 Z-5.000 F400
G1 X0.487 Y0.055 Z-5.000 F400
G1 X0.467 Y0.149 Z-5.000 F400
G1 X0.429 Y0.237 Z-5.000 F400
G1 X0.374 Y0.316 Z-5.000 F400
G1 X0.305 Y0.383 Z-5.000 F400
G1 X0.225 Y0.435 Z-5.000 F400
G1 X0.135 Y0.471 Z-5.000 F400
G1 X0.041 Y0.488 Z-5.000 F400
G1 X-0.055 Y0.487 Z-5.000 F400
G1 X-0.149 Y0.467 Z-5.000 F400
G1 X-0.237 Y0.429 Z-5.000 F400
G1 X-0.316 Y0.374 Z-5.000 F400
G1 X-0.383 Y0.305 Z-5.000 F400
G1 X-0.435 Y0.225 Z-5.000 F400
G1 X-0.471 Y0.135 Z-5.000 F400
G1 X-0.488 Y0.041 Z-5.000 F400
G1 X-0.487 Y-0.055 Z-5.000 F400
G1 X-0.467 Y-0.149 Z-5.000 F400
G1 X-0.429 Y-0.237 Z-5.000 F400
G1 X-0.374 Y-0.316 Z-5.000 F400
G1 X-0.305 Y-0.383 Z-5.000 F400
G1 X-0.225 Y-0.435 Z-5.000 F400
G1 X-0.135 Y-0.471 Z-5.000 F400
(Adaptive - depth: -5.000000)
G1 X0.000 Y-0.500 F400
G1 X0.029 Y-0.526 F400
G1 X0.105 Y-0.547 F400
G1 X0.184 Y-0.550 F400
G1 X0.263 Y-0.534 F400
G1 X0.339 Y-0.500 F400
G1 X0.516 Y-0.366 F400
G1 X0.589 Y-0.255 F400
G1 X0.618 Y-0.179 F400
G1 X0.637 Y-0.100 F400
G1 X0.647 Y0.003 F400
G1 X0.637 Y0.142 F400
G1 X0.597 Y0.268 F400
G1 X0.545 Y0.366 F400
G1 X0.482 Y0.447 F400
G1 X0.397 Y0.524 F400
G1 X0.295 Y0.589 F400
G1 X0.176 Y0.634 F400
G1 X0.068 Y0.655 F400
G1 X-0.047 Y0.658 F400
G1 X-0.161 Y0.639 F400
G1 X-0.266 Y0.603 F400
G1 X-0.368 Y0.550 F400
G1 X-0.471 Y0.468 F400
G1 X-0.547 Y0.374 F400
G1 X-0.600 Y0.282 F400
G1 X-0.639 Y0.168 F400
G1 X-0.658 Y0.055 F400
G1 X-0.658 Y-0.063 F400
G1 X-0.637 Y-0.179 F400
G1 X-0.595 Y-0.289 F400
G1 X-0.534 Y-0.392 F400
G1 X-0.458 Y-0.482 F400
G1 X-0.368 Y-0.558 F400
G1 X-0.261 Y-0.629 F400
G1 X-0.100 Y-0.687 F400
G1 X0.103 Y-0.716 F400
G1 X0.261 Y-0.697 F400
G1 X0.300 Y-0.687 F400
G1 X0.526 Y-0.584 F400
G1 X0.647 Y-0.474 F400
G1 X0.700 Y-0.400 F400
G1 X0.742 Y-0.324 F400
G1 X0.784 Y-0.218 F400
G1 X0.818 Y-0.068 F400
G1 X0.826 Y0.076 F400
G1 X0.808 Y0.211 F400
G1 X0.771 Y0.324 F400
G1 X0.721 Y0.426 F400
G1 X0.647 Y0.534 F400
G1 X0.547 Y0.637 F400
G1 X0.445 Y0.716 F400
G1 X0.326 Y0.782 F400
G1 X0.200 Y0.826 F400
G1 X0.066 Y0.845 F400
G1 X-0.047 Y0.847 F400
G1 X-0.182 Y0.829 F400
G1 X-0.316 Y0.789 F400
G1 X-0.442 Y0.726 F400
G1 X-0.545 Y0.655 F400
G1 X-0.642 Y0.563 F400
G1 X-0.724 Y0.455 F400
G1 X-0.787 Y0.339 F400
G1 X-0.829 Y0.211 F400
G1 X-0.850 Y0.089 F400
G1 X-0.853 Y-0.037 F400
G1 X-0.834 Y-0.174 F400
G1 X-0.795 Y-0.311 F400
G1 X-0.739 Y-0.434 F400
G1 X-0.663 Y-0.550 F400
G1 X-0.571 Y-0.653 F400
G1 X-0.463 Y-0.742 F400
G1 X-0.342 Y-0.813 F400
G1 X-0.213 Y-0.866 F400
G1 X-0.076 Y-0.900 F400
G1 X0.061 Y-0.913 F400
G1 X0.197 Y-0.908 F400
G1 X0.347 Y-0.884 F400
G1 X0.495 Y-0.829 F400
G1 X0.608 Y-0.766 F400
G1 X0.711 Y-0.687 F400
G1 X0.803 Y-0.587 F400
G1 X0.879 Y-0.479 F400
G1 X0.947 Y-0.347 F400
G1 X0.997 Y-0.203 F400
G1 X1.021 Y-0.061 F400
G1 X1.026 Y0.068 F400
G1 X1.013 Y0.208 F400
G1 X0.976 Y0.353 F400
G1 X0.921 Y0.484 F400
G1 X0.847 Y0.608 F400
G1 X0.758 Y0.721 F400
G1 X0.642 Y0.832 F400
G1 X0.518 Y0.916 F400
G1 X0.397 Y0.976 F400
G1 X0.258 Y1.024 F400
G1 X0.116 Y1.053 F400
G1 X-0.037 Y1.061 F400
G1 X-0.182 Y1.047 F400
G1 X-0.326 Y1.013 F400
G1 X-0.466 Y0.961 F400
G1 X-0.597 Y0.887 F400
G1 X-0.716 Y0.797 F400
G1 X-0.821 Y0.692 F400
G1 X-0.911 Y0.571 F400
G1 X-0.979 Y0.437 F400
G1 X-1.024 Y0.313 F400
G1 X-1.055 Y0.174 F400
G1 X-1.066 Y0.013 F400
G1 X-1.061 Y-0.129 F400
G1 X-1.029 Y-0.295 F400
G1 X-0.979 Y-0.445 F400
G1 X-0.908 Y-0.582 F400
G1 X-0.829 Y-0.695 F400
G1 X-0.726 Y-0.805 F400
G1 X-0.613 Y-0.903 F400
G1 X-0.466 Y-0.997 F400
G1 X-0.321 Y-1.066 F400
G1 X-0.168 Y-1.116 F400
G1 X-0.008 Y-1.145 F400
G1 X0.150 Y-1.147 F400
G1 X0.287 Y-1.134 F400
G1 X0.434 Y-1.097 F400
G1 X0.574 Y-1.045 F400
G1 X0.716 Y-0.966 F400
G1 X0.839 Y-0.874 F400
G1 X0.950 Y-0.766 F400
G1 X1.047 Y-0.642 F400
G1 X1.126 Y-0.508 F400
G1 X1.187 Y-0.361 F400
G1 X1.229 Y-0.208 F400
G1 X1.250 Y-0.050 F400
G1 X1.250 Y0.105 F400
G1 X1.232 Y0.261 F400
G1 X1.189 Y0.426 F400
G1 X1.132 Y0.574 F400
G1 X1.053 Y0.716 F400
G1 X0.955 Y0.850 F400
G1 X0.842 Y0.968 F400
G1 X0.716 Y1.071 F400
G1 X0.574 Y1.153 F400
G1 X0.439 Y1.211 F400
G1 X0.287 Y1.258 F400
G1 X0.111 Y1.289 F400
G1 X-0.061 Y1.297 F400
G1 X-0.226 Y1.279 F400
G1 X-0.371 Y1.247 F400
G1 X-0.524 Y1.192 F400
G1 X-0.668 Y1.121 F400
G1 X-0.818 Y1.021 F400
G1 X-0.945 Y0.911 F400
G1 X-1.053 Y0.782 F400
G1 X-1.129 Y0.663 F400
G1 X-1.197 Y0.518 F400
G1 X-1.250 Y0.371 F400
G1 X-1.289 Y0.184 F400
G1 X-1.303 Y0.018 F400
G1 X-1.297 Y-0.147 F400
G1 X-1.271 Y-0.318 F400
G1 X-1.224 Y-0.482 F400
G1 X-1.150 Y-0.637 F400
G1 X-1.074 Y-0.761 F400
G1 X-0.976 Y-0.889 F400
G1 X-0.845 Y-1.026 F400
G1 X-0.700 Y-1.145 F400
G1 X-0.545 Y-1.237 F400
G1 X-0.405 Y-1.300 F400
G1 X-0.242 Y-1.350 F400
G1 X-0.079 Y-1.382 F400
G1 X0.097 Y-1.392 F400
G1 X0.268 Y-1.382 F400
G1 X0.439 Y-1.353 F400
G1 X0.608 Y-1.300 F400
G1 X0.766 Y-1.229 F400
G1 X0.911 Y-1.132 F400
G1 X1.021 Y-1.039 F400
G1 X1.137 Y-0.924 F400
G1 X1.250 Y-0.776 F400
G1 X1.345 Y-0.616 F400
G1 X1.418 Y-0.455 F400
G1 X1.466 Y-0.279 F400
G1 X1.492 Y-0.126 F400
G1 X1.500 Y0.042 F400
G1 X1.492 Y0.208 F400
G1 X1.461 Y0.403 F400
G1 X1.405 Y0.589 F400
G1 X1.326 Y0.758 F400
G1 X1.247 Y0.889 F400
G1 X1.139 Y1.029 F400
G1 X1.018 Y1.150 F400
G1 X0.876 Y1.263 F400
G1 X0.726 Y1.355 F400
G1 X0.566 Y1.432 F400
G1 X0.397 Y1.492 F400
G1 X0.203 Y1.534 F400
G1 X0.018 Y1.547 F400
G1 X-0.134 Y1.542 F400
G1 X-0.308 Y1.521 F400
G1 X-0.503 Y1.474 F400
G1 X-0.689 Y1.405 F400
G1 X-0.858 Y1.313 F400
G1 X-0.979 Y1.221 F400
G1 X-1.089 Y1.124 F400
G1 X-1.216 Y0.982 F400
G1 X-1.326 Y0.826 F400
G1 X-1.416 Y0.655 F400
G1 X-1.476 Y0.500 F400
G1 X-1.524 Y0.324 F400
G1 X-1.553 Y0.145 F400
G1 X-1.561 Y-0.047 F400
G1 X-1.547 Y-0.229 F400
G1 X-1.513 Y-0.411 F400
G1 X-1.458 Y-0.592 F400
G1 X-1.379 Y-0.761 F400
G1 X-1.295 Y-0.900 F400
G1 X-1.189 Y-1.045 F400
G1 X-1.042 Y-1.197 F400
G1 X-0.903 Y-1.316 F400
G1 X-0.745 Y-1.424 F400
G1 X-0.574 Y-1.513 F400
G1 X-0.400 Y-1.582 F400
G1 X-0.216 Y-1.624 F400
G1 X-0.053 Y-1.645 F400
G1 X0.124 Y-1.653 F400
G1 X0.329 Y-1.642 F400
G1 X0.550 Y-1.595 F400
G1 X0.708 Y-1.539 F400
G1 X0.850 Y-1.474 F400
G1 X1.003 Y-1.382 F400
G1 X1.166 Y-1.261 F400
G1 X1.318 Y-1.118 F400
G1 X1.439 Y-0.966 F400
G1 X1.529 Y-0.829 F400
G1 X1.613 Y-0.661 F400
G1 X1.679 Y-0.489 F400
G1 X1.732 Y-0.289 F400
G1 X1.761 Y-0.100 F400
G1 X1.768 Y0.089 F400
G1 X1.755 Y0.282 F400
G1 X1.721 Y0.468 F400
G1 X1.668 Y0.653 F400
G1 X1.595 Y0.832 F400
G1 X1.497 Y0.997 F400
G1 X1.397 Y1.134 F400
G1 X1.276 Y1.274 F400
G1 X1.124 Y1.413 F400
G1 X0.958 Y1.534 F400
G1 X0.787 Y1.634 F400
G1 X0.597 Y1.716 F400
G1 X0.424 Y1.763 F400
G1 X0.261 Y1.792 F400
G1 X0.082 Y1.811 F400
G1 X-0.147 Y1.813 F400
G1 X-0.392 Y1.789 F400
G1 X-0.600 Y1.734 F400
G1 X-0.747 Y1.674 F400
G1 X-0.884 Y1.605 F400
G1 X-1.055 Y1.500 F400
G1 X-1.237 Y1.361 F400
G1 X-1.382 Y1.208 F400
G1 X-1.484 Y1.074 F400
G1 X-1.579 Y0.921 F400
G1 X-1.663 Y0.755 F400
G1 X-1.745 Y0.553 F400
G1 X-1.805 Y0.334 F400
G1 X-1.829 Y0.126 F400
G1 X-1.834 Y-0.032 F400
G1 X-1.824 Y-0.224 F400
G1 X-1.789 Y-0.437 F400
G1 X-1.726 Y-0.645 F400
G1 X-1.661 Y-0.808 F400
G1 X-1.566 Y-0.987 F400
G1 X-1.453 Y-1.150 F400
G1 X-1.329 Y-1.297 F400
G1 X-1.189 Y-1.437 F400
G1 X-1.005 Y-1.584 F400
G1 X-0.832 Y-1.697 F400
G1 X-0.637 Y-1.787 F400
G1 X-0.482 Y-1.842 F400
G1 X-0.295 Y-1.892 F400
G1 X-0.079 Y-1.924 F400
G1 X0.134 Y-1.934 F400
G1 X0.339 Y-1.924 F400
G1 X0.547 Y-1.882 F400
G1 X0.708 Y-1.834 F400
G1 X0.887 Y-1.761 F400
G1 X1.055 Y-1.676 F400
G1 X1.255 Y-1.545 F400
G1 X1.413 Y-1.416 F400
G1 X1.558 Y-1.263 F400
G1 X1.671 Y-1.121 F400
G1 X1.776 Y-0.953 F400
G1 X1.868 Y-0.776 F400
G1 X1.950 Y-0.563 F400
G1 X2.005 Y-0.363 F400
G1 X2.042 Y-0.155 F400
G1 X2.058 Y0.055 F400
G1 X2.047 Y0.263 F400
G1 X2.021 Y0.442 F400
G1 X1.971 Y0.634 F400
G1 X1.905 Y0.818 F400
G1 X1.811 Y1.013 F400
G1 X1.703 Y1.187 F400
G1 X1.579 Y1.350 F400
G1 X1.437 Y1.505 F400
G1 X1.263 Y1.661 F400
G1 X1.089 Y1.789 F400
G1 X0.895 Y1.892 F400
G1 X0.742 Y1.958 F400
G1 X0.553 Y2.018 F400
G1 X0.345 Y2.066 F400
G1 X0.111 Y2.095 F400
G1 X-0.100 Y2.100 F400
G1 X-0.318 Y2.087 F400
G1 X-0.537 Y2.050 F400
G1 X-0.742 Y1.982 F400
G1 X-0.892 Y1.918 F400
G1 X-1.068 Y1.832 F400
G1 X-1.279 Y1.695 F400
G1 X-1.453 Y1.547 F400
G1 X-1.579 Y1.413 F400
G1 X-1.687 Y1.274 F400
G1 X-1.795 Y1.113 F400
G1 X-1.916 Y0.895 F400
G1 X-2.016 Y0.663 F400
G1 X-2.076 Y0.439 F400
G1 X-2.103 Y0.266 F400
G1 X-2.118 Y0.095 F400
G1 X-2.118 Y-0.132 F400
G1 X-2.089 Y-0.379 F400
G1 X-2.042 Y-0.587 F400
G1 X-1.984 Y-0.774 F400
G1 X-1.897 Y-0.974 F400
G1 X-1.795 Y-1.155 F400
G1 X-1.676 Y-1.326 F400
G1 X-1.542 Y-1.492 F400
G1 X-1.366 Y-1.666 F400
G1 X-1.195 Y-1.808 F400
G1 X-1.003 Y-1.929 F400
G1 X-0.839 Y-2.013 F400
G1 X-0.645 Y-2.089 F400
G1 X-0.450 Y-2.150 F400
G1 X-0.203 Y-2.200 F400
G1 X0.016 Y-2.224 F400
G1 X0.239 Y-2.221 F400
G1 X0.429 Y-2.203 F400
G1 X0.634 Y-2.161 F400
G1 X0.832 Y-2.097 F400
G1 X1.018 Y-2.024 F400
G1 X1.237 Y-1.908 F400
G1 X1.418 Y-1.787 F400
G1 X1.592 Y-1.650 F400
G1 X1.750 Y-1.484 F400
G1 X1.863 Y-1.342 F400
G1 X1.982 Y-1.171 F400
G1 X2.103 Y-0.955 F400
G1 X2.205 Y-0.729 F400
G1 X2.271 Y-0.505 F400
G1 X2.311 Y-0.324 F400
G1 X2.339 Y-0.108 F400
G1 X2.347 Y0.124 F400
G1 X2.334 Y0.353 F400
G1 X2.289 Y0.574 F400
G1 X2.242 Y0.745 F400
G1 X2.168 Y0.942 F400
G1 X2.066 Y1.155 F400
G1 X1.945 Y1.355 F400
G1 X1.811 Y1.537 F400
G1 X1.658 Y1.711 F400
G1 X1.489 Y1.868 F400
G1 X1.303 Y2.000 F400
G1 X1.150 Y2.089 F400
G1 X0.963 Y2.182 F400
G1 X0.745 Y2.266 F400
G1 X0.503 Y2.334 F400
G1 X0.274 Y2.379 F400
G1 X0.034 Y2.397 F400
G1 X-0.168 Y2.397 F400
G1 X-0.389 Y2.374 F400
G1 X-0.605 Y2.329 F400
G1 X-0.813 Y2.271 F400
G1 X-1.045 Y2.179 F400
G1 X-1.245 Y2.068 F400
G1 X-1.408 Y1.963 F400
G1 X-1.582 Y1.824 F400
G1 X-1.734 Y1.671 F400
G1 X-1.871 Y1.511 F400
G1 X-2.003 Y1.339 F400
G1 X-2.132 Y1.124 F400
G1 X-2.234 Y0.916 F400
G1 X-2.313 Y0.687 F400
G1 X-2.363 Y0.495 F400
G1 X-2.397 Y0.274 F400
G1 X-2.416 Y0.055 F400
G1 X-2.411 Y-0.192 F400
G1 X-2.387 Y-0.418 F400
G1 X-2.342 Y-0.645 F400
G1 X-2.268 Y-0.868 F400
G1 X-2.192 Y-1.047 F400
G1 X-2.092 Y-1.245 F400
G1 X-1.963 Y-1.453 F400
G1 X-1.811 Y-1.650 F400
G1 X-1.642 Y-1.821 F400
G1 X-1.495 Y-1.950 F400
G1 X-1.311 Y-2.082 F400
G1 X-1.124 Y-2.197 F400
G1 X-0.900 Y-2.308 F400
G1 X-0.679 Y-2.395 F400
G1 X-0.450 Y-2.463 F400
G1 X-0.203 Y-2.505 F400
G1 X-0.003 Y-2.524 F400
G1 X0.221 Y-2.524 F400
G1 X0.442 Y-2.500 F400
G1 X0.653 Y-2.463 F400
G1 X0.892 Y-2.395 F400
G1 X1.105 Y-2.313 F400
G1 X1.313 Y-2.213 F400
G1 X1.516 Y-2.089 F400
G1 X1.705 Y-1.950 F400
G1 X1.876 Y-1.789 F400
G1 X2.005 Y-1.645 F400
G1 X2.142 Y-1.474 F400
G1 X2.282 Y-1.266 F400
G1 X2.400 Y-1.045 F400
G1 X2.497 Y-0.813 F400
G1 X2.566 Y-0.605 F400
G1 X2.621 Y-0.366 F400
G1 X2.650 Y0.008 F400
G1 X2.574 Y0.611 F400
G1 X2.418 Y1.084 F400
G1 X2.237 Y1.413 F400
G1 X1.926 Y1.811 F400
G1 X1.582 Y2.118 F400
G1 X1.311 Y2.313 F400
G1 X0.800 Y2.526 F400
G1 X0.337 Y2.632 F400
G1 X-0.197 Y2.666 F400
G1 X-0.671 Y2.605 F400
G1 X-1.139 Y2.442 F400
G1 X-1.532 Y2.211 F400
G1 X-1.905 Y1.876 F400
G1 X-2.245 Y1.447 F400
G1 X-2.463 Y1.029 F400
G1 X-2.616 Y0.534 F400
G1 X-2.674 Y-0.011 F400
G1 X-2.666 Y-0.326 F400
G1 X-2.574 Y-0.800 F400
G1 X-2.442 Y-1.147 F400
G1 X-2.266 Y-1.474 F400
G1 X-2.045 Y-1.776 F400
G1 X-1.618 Y-2.184 F400
G1 X-1.189 Y-2.458 F400
G1 X-0.797 Y-2.624 F400
G1 X-0.382 Y-2.745 F400
G1 X0.076 Y-2.797 F400
G1 X0.550 Y-2.763 F400
G1 X0.984 Y-2.653 F400
G1 X1.403 Y-2.471 F400
G1 X1.687 Y-2.297 F400
G1 X2.066 Y-1.971 F400
G1 X2.437 Y-1.508 F400
G1 X2.589 Y-1.250 F400
G1 X2.745 Y-0.895 F400
G1 X2.874 Y-0.389 F400
G1 X2.897 Y0.187 F400
G1 X2.826 Y0.700 F400
G1 X2.655 Y1.205 F400
G1 X2.497 Y1.500 F400
G1 X2.203 Y1.900 F400
G1 X1.842 Y2.253 F400
G1 X1.495 Y2.500 F400
G1 X1.192 Y2.658 F400
G1 X0.795 Y2.805 F400
G1 X0.247 Y2.913 F400
G1 X-0.239 Y2.939 F400
G1 X-0.792 Y2.858 F400
G1 X-1.108 Y2.753 F400
G1 X-1.508 Y2.547 F400
G1 X-1.905 Y2.247 F400
G1 X-2.253 Y1.882 F400
G1 X-2.476 Y1.571 F400
G1 X-2.695 Y1.155 F400
G1 X-2.811 Y0.834 F400
G1 X-2.924 Y0.245 F400
G1 X-2.939 Y-0.163 F400
G1 X-2.861 Y-0.755 F400
G1 X-2.713 Y-1.184 F400
G1 X-2.482 Y-1.618 F400
G1 X-2.137 Y-2.047 F400
G1 X-1.863 Y-2.305 F400
G1 X-1.553 Y-2.532 F400
G1 X-1.142 Y-2.753 F400
G1 X-0.739 Y-2.887 F400
G1 X-0.361 Y-2.958 F400
G1 X-0.024 Y-2.976 F400
G1 X0.489 Y-2.937 F400
G1 X0.766 Y-2.876 F400
G1 X1.158 Y-2.742 F400
G1 X1.595 Y-2.513 F400
G1 X1.903 Y-2.289 F400
G1 X2.176 Y-2.034 F400
G1 X2.439 Y-1.713 F400
G1 X2.637 Y-1.384 F400
G1 X2.782 Y-1.076 F400
G1 X2.895 Y-0.708 F400
G1 X2.958 Y-0.371 F400
G1 X2.976 Y0.005 F400
G1 X2.945 Y0.439 F400
G1 X2.868 Y0.795 F400
G1 X2.697 Y1.261 F400
G1 X2.624 Y1.408 F400
G1 X2.426 Y1.726 F400
G1 X2.042 Y2.171 F400
G1 X1.616 Y2.505 F400
G1 X1.203 Y2.726 F400
G1 X1.084 Y2.779 F400
G1 X0.716 Y2.892 F400
G1 X0.337 Y2.961 F400
G1 X0.000 Y2.976 F400
G1 X-0.474 Y2.939 F400
G1 X-0.671 Y2.897 F400
G1 X-0.671 Y2.897 F400
G1 X-0.676 Y2.895 F400
G1 X-0.679 Y2.892 F400
G1 X-0.700 Y2.889 F400
G1 X-0.700 Y2.889 F400
G1 X-0.779 Y2.874 F400
G1 X-0.779 Y2.874 F400
G1 X-0.871 Y2.813 F400
G1 X-0.887 Y2.800 F400
G1 X-0.903 Y2.784 F400
G0 X-0.918 Y2.771
G0 X-1.329 Y2.576
G1 X-1.347 Y2.568 F400
G1 X-1.621 Y2.497 F400
G1 X-1.621 Y2.497 F400
G1 X-1.892 Y2.300 F400
G1 X-2.166 Y2.045 F400
G1 X-2.434 Y1.721 F400
G1 X-2.724 Y1.211 F400
G1 X-2.882 Y0.768 F400
G1 X-2.955 Y0.389 F400
G1 X-2.979 Y0.011 F400
G1 X-2.947 Y-0.424 F400
G1 X-2.874 Y-0.779 F400
G1 X-2.753 Y-1.132 F400
G1 X-2.503 Y-1.616 F400
G1 X-2.279 Y-1.916 F400
G1 X-2.050 Y-2.161 F400
G1 X-1.692 Y-2.453 F400
G1 X-1.547 Y-2.542 F400
G1 X-1.547 Y-2.542 F400
G1 X-1.534 Y-2.539 F400
G1 X-1.526 Y-2.534 F400
G1 X-1.524 Y-2.505 F400
G1 X-1.539 Y-2.487 F400
G1 X-1.568 Y-2.489 F400
G1 X-1.592 Y-2.508 F400
G1 X-1.584 Y-2.545 F400
G1 X-1.584 Y-2.545 F400
G1 X-1.582 Y-2.539 F400
G1 X-1.421 Y-2.639 F400
G1 X-1.224 Y-2.739 F400
G1 X-1.066 Y-2.805 F400
G1 X-0.808 Y-2.889 F400
G1 X-0.513 Y-2.953 F400
G1 X-0.347 Y-2.979 F400
G1 X-0.161 Y-2.997 F400
G1 X0.216 Y-2.987 F400
G1 X0.424 Y-2.966 F400
G1 X0.550 Y-2.945 F400
G1 X0.787 Y-2.889 F400
G1 X1.082 Y-2.795 F400
G1 X1.282 Y-2.708 F400
G1 X1.439 Y-2.626 F400
G1 X1.650 Y-2.503 F400
G1 X1.747 Y-2.434 F400
G1 X1.945 Y-2.279 F400
G1 X2.050 Y-2.187 F400
G1 X2.200 Y-2.034 F400
G1 X2.461 Y-1.713 F400
G1 X2.542 Y-1.589 F400
G1 X2.647 Y-1.408 F400
G1 X2.724 Y-1.253 F400
G1 X2.803 Y-1.066 F400
G1 X2.903 Y-0.753 F400
G1 X2.958 Y-0.497 F400
G1 X2.979 Y-0.353 F400
G1 X2.997 Y-0.158 F400
G1 X2.987 Y0.211 F400
G1 X2.968 Y0.421 F400
G1 X2.950 Y0.526 F400
G1 X2.892 Y0.779 F400
G1 X2.842 Y0.942 F400
G1 X2.784 Y1.100 F400
G1 X2.708 Y1.276 F400
G1 X2.618 Y1.455 F400
G1 X2.503 Y1.650 F400
G1 X2.292 Y1.929 F400
G1 X2.187 Y2.050 F400
G1 X2.037 Y2.197 F400
G1 X1.705 Y2.466 F400
G1 X1.621 Y2.521 F400
G1 X1.389 Y2.655 F400
G1 X1.224 Y2.739 F400
G1 X1.066 Y2.805 F400
G1 X0.808 Y2.889 F400
G1 X0.513 Y2.953 F400
G1 X0.345 Y2.979 F400
G1 X0.161 Y2.997 F400
G1 X-0.216 Y2.987 F400
G1 X-0.424 Y2.966 F400
G1 X-0.550 Y2.945 F400
G1 X-0.787 Y2.889 F400
G1 X-1.079 Y2.795 F400
G1 X-1.308 Y2.695 F400
G1 X-1.453 Y2.621 F400
G1 X-1.645 Y2.505 F400
G1 X-1.916 Y2.300 F400
G1 X-2.095 Y2.142 F400
G1 X-2.189 Y2.045 F400
G1 X-2.347 Y1.863 F400
G1 X-2.482 Y1.684 F400
G1 X-2.645 Y1.413 F400
G1 X-2.729 Y1.242 F400
G1 X-2.808 Y1.053 F400
G1 X-2.892 Y0.795 F400
G1 X-2.963 Y0.463 F400
G1 X-2.997 Y0.100 F400
G1 X-2.987 Y-0.218 F400
G1 X-2.966 Y-0.434 F400
G1 X-2.889 Y-0.784 F400
G1 X-2.837 Y-0.963 F400
G1 X-2.766 Y-1.153 F400
G1 X-2.624 Y-1.445 F400
G1 X-2.503 Y-1.653 F400
G1 X-2.292 Y-1.926 F400
G1 X-2.142 Y-2.095 F400
G1 X-2.047 Y-2.187 F400
G1 X-1.874 Y-2.337 F400
G1 X-1.708 Y-2.466 F400
G1 X-1.584 Y-2.545 F400
G1 X-1.584 Y-2.545 F400
G0 Z5.000
G0 Z5.000
(Finish operation: Adaptive)
(Block-name: Adaptive001)
(Block-expand: 0)
(Block-enable: 1)
(Begin operation: Adaptive001)
(Path: Adaptive001)
(Adaptive001)
(Helix to depth: -3.000000)
G0 Z5.000
G0 X0.184 Y6.843 Z5.000
G0 X0.184 Y6.843 Z3.000
G1 X0.184 Y6.843 Z0.000 F400
G1 X0.184 Y6.843 Z0.000 F400
G1 X0.210 Y6.882 Z-0.004 F400
G1 X0.229 Y6.925 Z-0.009 F400
G1 X0.239 Y6.971 Z-0.013 F400
G1 X0.239 Y7.019 Z-0.017 F400
G1 X0.230 Y7.065 Z-0.021 F400
G1 X0.213 Y7.108 Z-0.026 F400
G1 X0.187 Y7.148 Z-0.030 F400
G1 X0.154 Y7.181 Z-0.034 F400
G1 X0.115 Y7.208 Z-0.039 F400
G1 X0.072 Y7.226 Z-0.043 F400
G1 X0.026 Y7.236 Z-0.047 F400
G1 X-0.021 Y7.237 Z-0.052 F400
G1 X-0.067 Y7.228 Z-0.056 F400
G1 X-0.111 Y7.210 Z-0.060 F400
G1 X-0.150 Y7.185 Z-0.064 F400
G1 X-0.184 Y7.152 Z-0.069 F400
G1 X-0.210 Y7.113 Z-0.073 F400
G1 X-0.229 Y7.070 Z-0.077 F400
G1 X-0.239 Y7.024 Z-0.082 F400
G1 X-0.239 Y6.976 Z-0.086 F400
G1 X-0.230 Y6.930 Z-0.090 F400
G1 X-0.213 Y6.887 Z-0.094 F400
G1 X-0.187 Y6.847 Z-0.099 F400
G1 X-0.154 Y6.814 Z-0.103 F400
G1 X-0.115 Y6.787 Z-0.107 F400
G1 X-0.072 Y6.769 Z-0.112 F400
G1 X-0.026 Y6.759 Z-0.116 F400
G1 X0.021 Y6.758 Z-0.120 F400
G1 X0.067 Y6.767 Z-0.125 F400
G1 X0.111 Y6.785 Z-0.129 F400
G1 X0.150 Y6.810 Z-0.133 F400
G1 X0.184 Y6.843 Z-0.137 F400
G1 X0.210 Y6.882 Z-0.142 F400
G1 X0.229 Y6.925 Z-0.146 F400
G1 X0.239 Y6.971 Z-0.150 F400
G1 X0.239 Y7.019 Z-0.155 F400
G1 X0.230 Y7.065 Z-0.159 F400
G1 X0.213 Y7.108 Z-0.163 F400
G1 X0.187 Y7.148 Z-0.167 F400
G1 X0.154 Y7.181 Z-0.172 F400
G1 X0.115 Y7.208 Z-0.176 F400
G1 X0.072 Y7.226 Z-0.180 F400
G1 X0.026 Y7.236 Z-0.185 F400
G1 X-0.021 Y7.237 Z-0.189 F400
G1 X-0.067 Y7.228 Z-0.193 F400
G1 X-0.111 Y7.210 Z-0.198 F400
G1 X-0.150 Y7.185 Z-0.202 F400
G1 X-0.184 Y7.152 Z-0.206 F400
G1 X-0.210 Y7.113 Z-0.210 F400
G1 X-0.229 Y7.070 Z-0.215 F400
G1 X-0.239 Y7.024 Z-0.219 F400
G1 X-0.239 Y6.976 Z-0.223 F400
G1 X-0.230 Y6.930 Z-0.228 F400
G1 X-0.213 Y6.887 Z-0.232 F400
G1 X-0.187 Y6.847 Z-0.236 F400
G1 X-0.154 Y6.814 Z-0.240 F400
G1 X-0.115 Y6.787 Z-0.245 F400
G1 X-0.072 Y6.769 Z-0.249 F400
G1 X-0.026 Y6.759 Z-0.253 F400
G1 X0.021 Y6.758 Z-0.258 F400
G1 X0.067 Y6.767 Z-0.262 F400
G1 X0.111 Y6.785 Z-0.266 F400
G1 X0.150 Y6.810 Z-0.271 F400
G1 X0.184 Y6.843 Z-0.275 F400
G1 X0.210 Y6.882 Z-0.279 F400
G1 X0.229 Y6.925 Z-0.283 F400
G1 X0.239 Y6.971 Z-0.288 F400
G1 X0.239 Y7.019 Z-0.292 F400
G1 X0.230 Y7.065 Z-0.296 F400
G1 X0.213 Y7.108 Z-0.301 F400
G1 X0.187 Y7.148 Z-0.305 F400
G1 X0.154 Y7.181 Z-0.309 F400
G1 X0.115 Y7.208 Z-0.314 F400
G1 X0.072 Y7.226 Z-0.318 F400
G1 X0.026 Y7.236 Z-0.322 F400
G1 X-0.021 Y7.237 Z-0.326 F400
G1 X-0.067 Y7.228 Z-0.331 F400
G1 X-0.111 Y7.210 Z-0.335 F400
G1 X-0.150 Y7.185 Z-0.339 F400
G1 X-0.184 Y7.152 Z-0.344 F400
G1 X-0.210 Y7.113 Z-0.348 F400
G1 X-0.229 Y7.070 Z-0.352 F400
G1 X-0.239 Y7.024 Z-0.356 F400
G1 X-0.239 Y6.976 Z-0.361 F400
G1 X-0.230 Y6.930 Z-0.365 F400
G1 X-0.213 Y6.887 Z-0.369 F400
G1 X-0.187 Y6.847 Z-0.374 F400
G1 X-0.154 Y6.814 Z-0.378 F400
G1 X-0.115 Y6.787 Z-0.382 F400
G1 X-0.072 Y6.769 Z-0.387 F400
G1 X-0.026 Y6.759 Z-0.391 F400
G1 X0.021 Y6.758 Z-0.395 F400
G1 X0.067 Y6.767 Z-0.399 F400
G1 X0.111 Y6.785 Z-0.404 F400
G1 X0.150 Y6.810 Z-0.408 F400
G1 X0.184 Y6.843 Z-0.412 F400
G1 X0.210 Y6.882 Z-0.417 F400
G1 X0.229 Y6.925 Z-0.421 F400
G1 X0.239 Y6.971 Z-0.425 F400
G1 X0.239 Y7.019 Z-0.429 F400
G1 X0.230 Y7.065 Z-0.434 F400
G1 X0.213 Y7.108 Z-0.438 F400
G1 X0.187 Y7.148 Z-0.442 F400
G1 X0.154 Y7.181 Z-0.447 F400
G1 X0.115 Y7.208 Z-0.451 F400
G1 X0.072 Y7.226 Z-0.455 F400
G1 X0.026 Y7.236 Z-0.460 F400
G1 X-0.021 Y7.237 Z-0.464 F400
G1 X-0.067 Y7.228 Z-0.468 F400
G1 X-0.111 Y7.210 Z-0.472 F400
G1 X-0.150 Y7.185 Z-0.477 F400
G1 X-0.184 Y7.152 Z-0.481 F400
G1 X-0.210 Y7.113 Z-0.485 F400
G1 X-0.229 Y7.070 Z-0.490 F400
G1 X-0.239 Y7.024 Z-0.494 F400
G1 X-0.239 Y6.976 Z-0.498 F400
G1 X-0.230 Y6.930 Z-0.502 F400
G1 X-0.213 Y6.887 Z-0.507 F400
G1 X-0.187 Y6.847 Z-0.511 F400
G1 X-0.154 Y6.814 Z-0.515 F400
G1 X-0.115 Y6.787 Z-0.520 F400
G1 X-0.072 Y6.769 Z-0.524 F400
G1 X-0.026 Y6.759 Z-0.528 F400
G1 X0.021 Y6.758 Z-0.533 F400
G1 X0.067 Y6.767 Z-0.537 F400
G1 X0.111 Y6.785 Z-0.541 F400
G1 X0.150 Y6.810 Z-0.545 F400
G1 X0.184 Y6.843 Z-0.550 F400
G1 X0.210 Y6.882 Z-0.554 F400
G1 X0.229 Y6.925 Z-0.558 F400
G1 X0.239 Y6.971 Z-0.563 F400
G1 X0.239 Y7.019 Z-0.567 F400
G1 X0.230 Y7.065 Z-0.571 F400
G1 X0.213 Y7.108 Z-0.575 F400
G1 X0.187 Y7.148 Z-0.580 F400
G1 X0.154 Y7.181 Z-0.584 F400
G1 X0.115 Y7.208 Z-0.588 F400
G1 X0.072 Y7.226 Z-0.593 F400
G1 X0.026 Y7.236 Z-0.597 F400
G1 X-0.021 Y7.237 Z-0.601 F400
G1 X-0.067 Y7.228 Z-0.606 F400
G1 X-0.111 Y7.210 Z-0.610 F400
G1 X-0.150 Y7.185 Z-0.614 F400
G1 X-0.184 Y7.152 Z-0.618 F400
G1 X-0.210 Y7.113 Z-0.623 F400
G1 X-0.229 Y7.070 Z-0.627 F400
G1 X-0.239 Y7.024 Z-0.631 F400
G1 X-0.239 Y6.976 Z-0.636 F400
G1 X-0.230 Y6.930 Z-0.640 F400
G1 X-0.213 Y6.887 Z-0.644 F400
G1 X-0.187 Y6.847 Z-0.648 F400
G1 X-0.154 Y6.814 Z-0.653 F400
G1 X-0.115 Y6.787 Z-0.657 F400
G1 X-0.072 Y6.769 Z-0.661 F400
G1 X-0.026 Y6.759 Z-0.666 F400
G1 X0.021 Y6.758 Z-0.670 F400
G1 X0.067 Y6.767 Z-0.674 F400
G1 X0.111 Y6.785 Z-0.679 F400
G1 X0.150 Y6.810 Z-0.683 F400
G1 X0.184 Y6.843 Z-0.687 F400
G1 X0.210 Y6.882 Z-0.691 F400
G1 X0.229 Y6.925 Z-0.696 F400
G1 X0.239 Y6.971 Z-0.700 F400
G1 X0.239 Y7.019 Z-0.704 F400
G1 X0.230 Y7.065 Z-0.709 F400
G1 X0.213 Y7.108 Z-0.713 F400
G1 X0.187 Y7.148 Z-0.717 F400
G1 X0.154 Y7.181 Z-0.721 F400
G1 X0.115 Y7.208 Z-0.726 F400
G1 X0.072 Y7.226 Z-0.730 F400
G1 X0.026 Y7.236 Z-0.734 F400
G1 X-0.021 Y7.237 Z-0.739 F400
G1 X-0.067 Y7.228 Z-0.743 F400
G1 X-0.111 Y7.210 Z-0.747 F400
G1 X-0.150 Y7.185 Z-0.752 F400
G1 X-0.184 Y7.152 Z-0.756 F400
G1 X-0.210 Y7.113 Z-0.760 F400
G1 X-0.229 Y7.070 Z-0.764 F400
G1 X-0.239 Y7.024 Z-0.769 F400
G1 X-0.239 Y6.976 Z-0.773 F400
G1 X-0.230 Y6.930 Z-0.777 F400
G1 X-0.213 Y6.887 Z-0.782 F400
G1 X-0.187 Y6.847 Z-0.786 F400
G1 X-0.154 Y6.814 Z-0.790 F400
G1 X-0.115 Y6.787 Z-0.794 F400
G1 X-0.072 Y6.769 Z-0.799 F400
G1 X-0.026 Y6.759 Z-0.803 F400
G1 X0.021 Y6.758 Z-0.807 F400
G1 X0.067 Y6.767 Z-0.812 F400
G1 X0.111 Y6.785 Z-0.816 F400
G1 X0.150 Y6.810 Z-0.820 F400
G1 X0.184 Y6.843 Z-0.825 F400
G1 X0.210 Y6.882 Z-0.829 F400
G1 X0.229 Y6.925 Z-0.833 F400
G1 X0.239 Y6.971 Z-0.837 F400
G1 X0.239 Y7.019 Z-0.842 F400
G1 X0.230 Y7.065 Z-0.846 F400
G1 X0.213 Y7.108 Z-0.850 F400
G1 X0.187 Y7.148 Z-0.855 F400
G1 X0.154 Y7.181 Z-0.859 F400
G1 X0.115 Y7.208 Z-0.863 F400
G1 X0.072 Y7.226 Z-0.868 F400
G1 X0.026 Y7.236 Z-0.872 F400
G1 X-0.021 Y7.237 Z-0.876 F400
G1 X-0.067 Y7.228 Z-0.880 F400
G1 X-0.111 Y7.210 Z-0.885 F400
G1 X-0.150 Y7.185 Z-0.889 F400
G1 X-0.184 Y7.152 Z-0.893 F400
G1 X-0.210 Y7.113 Z-0.898 F400
G1 X-0.229 Y7.070 Z-0.902 F400
G1 X-0.239 Y7.024 Z-0.906 F400
G1 X-0.239 Y6.976 Z-0.910 F400
G1 X-0.230 Y6.930 Z-0.915 F400
G1 X-0.213 Y6.887 Z-0.919 F400
G1 X-0.187 Y6.847 Z-0.923 F400
G1 X-0.154 Y6.814 Z-0.928 F400
G1 X-0.115 Y6.787 Z-0.932 F400
G1 X-0.072 Y6.769 Z-0.936 F400
G1 X-0.026 Y6.759 Z-0.941 F400
G1 X0.021 Y6.758 Z-0.945 F400
G1 X0.067 Y6.767 Z-0.949 F400
G1 X0.111 Y6.785 Z-0.953 F400
G1 X0.150 Y6.810 Z-0.958 F400
G1 X0.184 Y6.843 Z-0.962 F400
G1 X0.210 Y6.882 Z-0.966 F400
G1 X0.229 Y6.925 Z-0.971 F400
G1 X0.239 Y6.971 Z-0.975 F400
G1 X0.239 Y7.019 Z-0.979 F400
G1 X0.230 Y7.065 Z-0.983 F400
G1 X0.213 Y7.108 Z-0.988 F400
G1 X0.187 Y7.148 Z-0.992 F400
G1 X0.154 Y7.181 Z-0.996 F400
G1 X0.115 Y7.208 Z-1.001 F400
G1 X0.072 Y7.226 Z-1.005 F400
G1 X0.026 Y7.236 Z-1.009 F400
G1 X-0.021 Y7.237 Z-1.014 F400
G1 X-0.067 Y7.228 Z-1.018 F400
G1 X-0.111 Y7.210 Z-1.022 F400
G1 X-0.150 Y7.185 Z-1.026 F400
G1 X-0.184 Y7.152 Z-1.031 F400
G1 X-0.210 Y7.113 Z-1.035 F400
G1 X-0.229 Y7.070 Z-1.039 F400
G1 X-0.239 Y7.024 Z-1.044 F400
G1 X-0.239 Y6.976 Z-1.048 F400
G1 X-0.230 Y6.930 Z-1.052 F400
G1 X-0.213 Y6.887 Z-1.056 F400
G1 X-0.187 Y6.847 Z-1.061 F400
G1 X-0.154 Y6.814 Z-1.065 F400
G1 X-0.115 Y6.787 Z-1.069 F400
G1 X-0.072 Y6.769 Z-1.074 F400
G1 X-0.026 Y6.759 Z-1.078 F400
G1 X0.021 Y6.758 Z-1.082 F400
G1 X0.067 Y6.767 Z-1.087 F400
G1 X0.111 Y6.785 Z-1.091 F400
G1 X0.150 Y6.810 Z-1.095 F400
G1 X0.184 Y6.843 Z-1.099 F400
G1 X0.210 Y6.882 Z-1.104 F400
G1 X0.229 Y6.925 Z-1.108 F400
G1 X0.239 Y6.971 Z-1.112 F400
G1 X0.239 Y7.019 Z-1.117 F400
G1 X0.230 Y7.065 Z-1.121 F400
G1 X0.213 Y7.108 Z-1.125 F400
G1 X0.187 Y7.148 Z-1.129 F400
G1 X0.154 Y7.181 Z-1.134 F400
G1 X0.115 Y7.208 Z-1.138 F400
G1 X0.072 Y7.226 Z-1.142 F400
G1 X0.026 Y7.236 Z-1.147 F400
G1 X-0.021 Y7.237 Z-1.151 F400
G1 X-0.067 Y7.228 Z-1.155 F400
G1 X-0.111 Y7.210 Z-1.160 F400
G1 X-0.150 Y7.185 Z-1.164 F400
G1 X-0.184 Y7.152 Z-1.168 F400
G1 X-0.210 Y7.113 Z-1.172 F400
G1 X-0.229 Y7.070 Z-1.177 F400
G1 X-0.239 Y7.024 Z-1.181 F400
G1 X-0.239 Y6.976 Z-1.185 F400
G1 X-0.230 Y6.930 Z-1.190 F400
G1 X-0.213 Y6.887 Z-1.194 F400
G1 X-0.187 Y6.847 Z-1.198 F400
G1 X-0.154 Y6.814 Z-1.202 F400
G1 X-0.115 Y6.787 Z-1.207 F400
G1 X-0.072 Y6.769 Z-1.211 F400
G1 X-0.026 Y6.759 Z-1.215 F400
G1 X0.021 Y6.758 Z-1.220 F400
G1 X0.067 Y6.767 Z-1.224 F400
G1 X0.111 Y6.785 Z-1.228 F400
G1 X0.150 Y6.810 Z-1.233 F400
G1 X0.184 Y6.843 Z-1.237 F400
G1 X0.210 Y6.882 Z-1.241 F400
G1 X0.229 Y6.925 Z-1.245 F400
G1 X0.239 Y6.971 Z-1.250 F400
G1 X0.239 Y7.019 Z-1.254 F400
G1 X0.230 Y7.065 Z-1.258 F400
G1 X0.213 Y7.108 Z-1.263 F400
G1 X0.187 Y7.148 Z-1.267 F400
G1 X0.154 Y7.181 Z-1.271 F400
G1 X0.115 Y7.208 Z-1.275 F400
G1 X0.072 Y7.226 Z-1.280 F400
G1 X0.026 Y7.236 Z-1.284 F400
G1 X-0.021 Y7.237 Z-1.288 F400
G1 X-0.067 Y7.228 Z-1.293 F400
G1 X-0.111 Y7.210 Z-1.297 F400
G1 X-0.150 Y7.185 Z-1.301 F400
G1 X-0.184 Y7.152 Z-1.306 F400
G1 X-0.210 Y7.113 Z-1.310 F400
G1 X-0.229 Y7.070 Z-1.314 F400
G1 X-0.239 Y7.024 Z-1.318 F400
G1 X-0.239 Y6.976 Z-1.323 F400
G1 X-0.230 Y6.930 Z-1.327 F400
G1 X-0.213 Y6.887 Z-1.331 F400
G1 X-0.187 Y6.847 Z-1.336 F400
G1 X-0.154 Y6.814 Z-1.340 F400
G1 X-0.115 Y6.787 Z-1.344 F400
G1 X-0.072 Y6.769 Z-1.349 F400
G1 X-0.026 Y6.759 Z-1.353 F400
G1 X0.021 Y6.758 Z-1.357 F400
G1 X0.067 Y6.767 Z-1.361 F400
G1 X0.111 Y6.785 Z-1.366 F400
G1 X0.150 Y6.810 Z-1.370 F400
G1 X0.184 Y6.843 Z-1.374 F400
G1 X0.210 Y6.882 Z-1.379 F400
G1 X0.229 Y6.925 Z-1.383 F400
G1 X0.239 Y6.971 Z-1.387 F400
G1 X0.239 Y7.019 Z-1.391 F400
G1 X0.230 Y7.065 Z-1.396 F400
G1 X0.213 Y7.108 Z-1.400 F400
G1 X0.187 Y7.148 Z-1.404 F400
G1 X0.154 Y7.181 Z-1.409 F400
G1 X0.115 Y7.208 Z-1.413 F400
G1 X0.072 Y7.226 Z-1.417 F400
G1 X0.026 Y7.236 Z-1.422 F400
G1 X-0.021 Y7.237 Z-1.426 F400
G1 X-0.067 Y7.228 Z-1.430 F400
G1 X-0.111 Y7.210 Z-1.434 F400
G1 X-0.150 Y7.185 Z-1.439 F400
G1 X-0.184 Y7.152 Z-1.443 F400
G1 X-0.210 Y7.113 Z-1.447 F400
G1 X-0.229 Y7.070 Z-1.452 F400
G1 X-0.239 Y7.024 Z-1.456 F400
G1 X-0.239 Y6.976 Z-1.460 F400
G1 X-0.230 Y6.930 Z-1.464 F400
G1 X-0.213 Y6.887 Z-1.469 F400
G1 X-0.187 Y6.847 Z-1.473 F400
G1 X-0.154 Y6.814 Z-1.477 F400
G1 X-0.115 Y6.787 Z-1.482 F400
G1 X-0.072 Y6.769 Z-1.486 F400
G1 X-0.026 Y6.759 Z-1.490 F400
G1 X0.021 Y6.758 Z-1.495 F400
G1 X0.067 Y6.767 Z-1.499 F400
G1 X0.111 Y6.785 Z-1.503 F400
G1 X0.150 Y6.810 Z-1.507 F400
G1 X0.184 Y6.843 Z-1.512 F400
G1 X0.210 Y6.882 Z-1.516 F400
G1 X0.229 Y6.925 Z-1.520 F400
G1 X0.239 Y6.971 Z-1.525 F400
G1 X0.239 Y7.019 Z-1.529 F400
G1 X0.230 Y7.065 Z-1.533 F400
G1 X0.213 Y7.108 Z-1.537 F400
G1 X0.187 Y7.148 Z-1.542 F400
G1 X0.154 Y7.181 Z-1.546 F400
G1 X0.115 Y7.208 Z-1.550 F400
G1 X0.072 Y7.226 Z-1.555 F400
G1 X0.026 Y7.236 Z-1.559 F400
G1 X-0.021 Y7.237 Z-1.563 F400
G1 X-0.067 Y7.228 Z-1.568 F400
G1 X-0.111 Y7.210 Z-1.572 F400
G1 X-0.150 Y7.185 Z-1.576 F400
G1 X-0.184 Y7.152 Z-1.580 F400
G1 X-0.210 Y7.113 Z-1.585 F400
G1 X-0.229 Y7.070 Z-1.589 F400
G1 X-0.239 Y7.024 Z-1.593 F400
G1 X-0.239 Y6.976 Z-1.598 F400
G1 X-0.230 Y6.930 Z-1.602 F400
G1 X-0.213 Y6.887 Z-1.606 F400
G1 X-0.187 Y6.847 Z-1.610 F400
G1 X-0.154 Y6.814 Z-1.615 F400
G1 X-0.115 Y6.787 Z-1.619 F400
G1 X-0.072 Y6.769 Z-1.623 F400
G1 X-0.026 Y6.759 Z-1.628 F400
G1 X0.021 Y6.758 Z-1.632 F400
G1 X0.067 Y6.767 Z-1.636 F400
G1 X0.111 Y6.785 Z-1.641 F400
G1 X0.150 Y6.810 Z-1.645 F400
G1 X0.184 Y6.843 Z-1.649 F400
G1 X0.210 Y6.882 Z-1.653 F400
G1 X0.229 Y6.925 Z-1.658 F400
G1 X0.239 Y6.971 Z-1.662 F400
G1 X0.239 Y7.019 Z-1.666 F400
G1 X0.230 Y7.065 Z-1.671 F400
G1 X0.213 Y7.108 Z-1.675 F400
G1 X0.187 Y7.148 Z-1.679 F400
G1 X0.154 Y7.181 Z-1.683 F400
G1 X0.115 Y7.208 Z-1.688 F400
G1 X0.072 Y7.226 Z-1.692 F400
G1 X0.026 Y7.236 Z-1.696 F400
G1 X-0.021 Y7.237 Z-1.701 F400
G1 X-0.067 Y7.228 Z-1.705 F400
G1 X-0.111 Y7.210 Z-1.709 F400
G1 X-0.150 Y7.185 Z-1.714 F400
G1 X-0.184 Y7.152 Z-1.718 F400
G1 X-0.210 Y7.113 Z-1.722 F400
G1 X-0.229 Y7.070 Z-1.726 F400
G1 X-0.239 Y7.024 Z-1.731 F400
G1 X-0.239 Y6.976 Z-1.735 F400
G1 X-0.230 Y6.930 Z-1.739 F400
G1 X-0.213 Y6.887 Z-1.744 F400
G1 X-0.187 Y6.847 Z-1.748 F400
G1 X-0.154 Y6.814 Z-1.752 F400
G1 X-0.115 Y6.787 Z-1.756 F400
G1 X-0.072 Y6.769 Z-1.761 F400
G1 X-0.026 Y6.759 Z-1.765 F400
G1 X0.021 Y6.758 Z-1.769 F400
G1 X0.067 Y6.767 Z-1.774 F400
G1 X0.111 Y6.785 Z-1.778 F400
G1 X0.150 Y6.810 Z-1.782 F400
G1 X0.184 Y6.843 Z-1.787 F400
G1 X0.210 Y6.882 Z-1.791 F400
G1 X0.229 Y6.925 Z-1.795 F400
G1 X0.239 Y6.971 Z-1.799 F400
G1 X0.239 Y7.019 Z-1.804 F400
G1 X0.230 Y7.065 Z-1.808 F400
G1 X0.213 Y7.108 Z-1.812 F400
G1 X0.187 Y7.148 Z-1.817 F400
G1 X0.154 Y7.181 Z-1.821 F400
G1 X0.115 Y7.208 Z-1.825 F400
G1 X0.072 Y7.226 Z-1.829 F400
G1 X0.026 Y7.236 Z-1.834 F400
G1 X-0.021 Y7.237 Z-1.838 F400
G1 X-0.067 Y7.228 Z-1.842 F400
G1 X-0.111 Y7.210 Z-1.847 F400
G1 X-0.150 Y7.185 Z-1.851 F400
G1 X-0.184 Y7.152 Z-1.855 F400
G1 X-0.210 Y7.113 Z-1.860 F400
G1 X-0.229 Y7.070 Z-1.864 F400
G1 X-0.239 Y7.024 Z-1.868 F400
G1 X-0.239 Y6.976 Z-1.872 F400
G1 X-0.230 Y6.930 Z-1.877 F400
G1 X-0.213 Y6.887 Z-1.881 F400
G1 X-0.187 Y6.847 Z-1.885 F400
G1 X-0.154 Y6.814 Z-1.890 F400
G1 X-0.115 Y6.787 Z-1.894 F400
G1 X-0.072 Y6.769 Z-1.898 F400
G1 X-0.026 Y6.759 Z-1.903 F400
G1 X0.021 Y6.758 Z-1.907 F400
G1 X0.067 Y6.767 Z-1.911 F400
G1 X0.111 Y6.785 Z-1.915 F400
G1 X0.150 Y6.810 Z-1.920 F400
G1 X0.184 Y6.843 Z-1.924 F400
G1 X0.210 Y6.882 Z-1.928 F400
G1 X0.229 Y6.925 Z-1.933 F400
G1 X0.239 Y6.971 Z-1.937 F400
G1 X0.239 Y7.019 Z-1.941 F400
G1 X0.230 Y7.065 Z-1.945 F400
G1 X0.213 Y7.108 Z-1.950 F400
G1 X0.187 Y7.148 Z-1.954 F400
G1 X0.154 Y7.181 Z-1.958 F400
G1 X0.115 Y7.208 Z-1.963 F400
G1 X0.072 Y7.226 Z-1.967 F400
G1 X0.026 Y7.236 Z-1.971 F400
G1 X-0.021 Y7.237 Z-1.976 F400
G1 X-0.067 Y7.228 Z-1.980 F400
G1 X-0.111 Y7.210 Z-1.984 F400
G1 X-0.150 Y7.185 Z-1.988 F400
G1 X-0.184 Y7.152 Z-1.993 F400
G1 X-0.210 Y7.113 Z-1.997 F400
G1 X-0.229 Y7.070 Z-2.001 F400
G1 X-0.239 Y7.024 Z-2.006 F400
G1 X-0.239 Y6.976 Z-2.010 F400
G1 X-0.230 Y6.930 Z-2.014 F400
G1 X-0.213 Y6.887 Z-2.018 F400
G1 X-0.187 Y6.847 Z-2.023 F400
G1 X-0.154 Y6.814 Z-2.027 F400
G1 X-0.115 Y6.787 Z-2.031 F400
G1 X-0.072 Y6.769 Z-2.036 F400
G1 X-0.026 Y6.759 Z-2.040 F400
G1 X0.021 Y6.758 Z-2.044 F400
G1 X0.067 Y6.767 Z-2.049 F400
G1 X0.111 Y6.785 Z-2.053 F400
G1 X0.150 Y6.810 Z-2.057 F400
G1 X0.184 Y6.843 Z-2.061 F400
G1 X0.210 Y6.882 Z-2.066 F400
G1 X0.229 Y6.925 Z-2.070 F400
G1 X0.239 Y6.971 Z-2.074 F400
G1 X0.239 Y7.019 Z-2.079 F400
G1 X0.230 Y7.065 Z-2.083 F400
G1 X0.213 Y7.108 Z-2.087 F400
G1 X0.187 Y7.148 Z-2.091 F400
G1 X0.154 Y7.181 Z-2.096 F400
G1 X0.115 Y7.208 Z-2.100 F400
G1 X0.072 Y7.226 Z-2.104 F400
G1 X0.026 Y7.236 Z-2.109 F400
G1 X-0.021 Y7.237 Z-2.113 F400
G1 X-0.067 Y7.228 Z-2.117 F400
G1 X-0.111 Y7.210 Z-2.122 F400
G1 X-0.150 Y7.185 Z-2.126 F400
G1 X-0.184 Y7.152 Z-2.130 F400
G1 X-0.210 Y7.113 Z-2.134 F400
G1 X-0.229 Y7.070 Z-2.139 F400
G1 X-0.239 Y7.024 Z-2.143 F400
G1 X-0.239 Y6.976 Z-2.147 F400
G1 X-0.230 Y6.930 Z-2.152 F400
G1 X-0.213 Y6.887 Z-2.156 F400
G1 X-0.187 Y6.847 Z-2.160 F400
G1 X-0.154 Y6.814 Z-2.164 F400
G1 X-0.115 Y6.787 Z-2.169 F400
G1 X-0.072 Y6.769 Z-2.173 F400
G1 X-0.026 Y6.759 Z-2.177 F400
G1 X0.021 Y6.758 Z-2.182 F400
G1 X0.067 Y6.767 Z-2.186 F400
G1 X0.111 Y6.785 Z-2.190 F400
G1 X0.150 Y6.810 Z-2.195 F400
G1 X0.184 Y6.843 Z-2.199 F400
G1 X0.210 Y6.882 Z-2.203 F400
G1 X0.229 Y6.925 Z-2.207 F400
G1 X0.239 Y6.971 Z-2.212 F400
G1 X0.239 Y7.019 Z-2.216 F400
G1 X0.230 Y7.065 Z-2.220 F400
G1 X0.213 Y7.108 Z-2.225 F400
G1 X0.187 Y7.148 Z-2.229 F400
G1 X0.154 Y7.181 Z-2.233 F400
G1 X0.115 Y7.208 Z-2.237 F400
G1 X0.072 Y7.226 Z-2.242 F400
G1 X0.026 Y7.236 Z-2.246 F400
G1 X-0.021 Y7.237 Z-2.250 F400
G1 X-0.067 Y7.228 Z-2.255 F400
G1 X-0.111 Y7.210 Z-2.259 F400
G1 X-0.150 Y7.185 Z-2.263 F400
G1 X-0.184 Y7.152 Z-2.268 F400
G1 X-0.210 Y7.113 Z-2.272 F400
G1 X-0.229 Y7.070 Z-2.276 F400
G1 X-0.239 Y7.024 Z-2.280 F400
G1 X-0.239 Y6.976 Z-2.285 F400
G1 X-0.230 Y6.930 Z-2.289 F400
G1 X-0.213 Y6.887 Z-2.293 F400
G1 X-0.187 Y6.847 Z-2.298 F400
G1 X-0.154 Y6.814 Z-2.302 F400
G1 X-0.115 Y6.787 Z-2.306 F400
G1 X-0.072 Y6.769 Z-2.310 F400
G1 X-0.026 Y6.759 Z-2.315 F400
G1 X0.021 Y6.758 Z-2.319 F400
G1 X0.067 Y6.767 Z-2.323 F400
G1 X0.111 Y6.785 Z-2.328 F400
G1 X0.150 Y6.810 Z-2.332 F400
G1 X0.184 Y6.843 Z-2.336 F400
G1 X0.210 Y6.882 Z-2.341 F400
G1 X0.229 Y6.925 Z-2.345 F400
G1 X0.239 Y6.971 Z-2.349 F400
G1 X0.239 Y7.019 Z-2.353 F400
G1 X0.230 Y7.065 Z-2.358 F400
G1 X0.213 Y7.108 Z-2.362 F400
G1 X0.187 Y7.148 Z-2.366 F400
G1 X0.154 Y7.181 Z-2.371 F400
G1 X0.115 Y7.208 Z-2.375 F400
G1 X0.072 Y7.226 Z-2.379 F400
G1 X0.026 Y7.236 Z-2.383 F400
G1 X-0.021 Y7.237 Z-2.388 F400
G1 X-0.067 Y7.228 Z-2.392 F400
G1 X-0.111 Y7.210 Z-2.396 F400
G1 X-0.150 Y7.185 Z-2.401 F400
G1 X-0.184 Y7.152 Z-2.405 F400
G1 X-0.210 Y7.113 Z-2.409 F400
G1 X-0.229 Y7.070 Z-2.414 F400
G1 X-0.239 Y7.024 Z-2.418 F400
G1 X-0.239 Y6.976 Z-2.422 F400
G1 X-0.230 Y6.930 Z-2.426 F400
G1 X-0.213 Y6.887 Z-2.431 F400
G1 X-0.187 Y6.847 Z-2.435 F400
G1 X-0.154 Y6.814 Z-2.439 F400
G1 X-0.115 Y6.787 Z-2.444 F400
G1 X-0.072 Y6.769 Z-2.448 F400
G1 X-0.026 Y6.759 Z-2.452 F400
G1 X0.021 Y6.758 Z-2.457 F400
G1 X0.067 Y6.767 Z-2.461 F400
G1 X0.111 Y6.785 Z-2.465 F400
G1 X0.150 Y6.810 Z-2.469 F400
G1 X0.184 Y6.843 Z-2.474 F400
G1 X0.210 Y6.882 Z-2.478 F400
G1 X0.229 Y6.925 Z-2.482 F400
G1 X0.239 Y6.971 Z-2.487 F400
G1 X0.239 Y7.019 Z-2.491 F400
G1 X0.230 Y7.065 Z-2.495 F400
G1 X0.213 Y7.108 Z-2.499 F400
G1 X0.187 Y7.148 Z-2.504 F400
G1 X0.154 Y7.181 Z-2.508 F400
G1 X0.115 Y7.208 Z-2.512 F400
G1 X0.072 Y7.226 Z-2.517 F400
G1 X0.026 Y7.236 Z-2.521 F400
G1 X-0.021 Y7.237 Z-2.525 F400
G1 X-0.067 Y7.228 Z-2.530 F400
G1 X-0.111 Y7.210 Z-2.534 F400
G1 X-0.150 Y7.185 Z-2.538 F400
G1 X-0.184 Y7.152 Z-2.542 F400
G1 X-0.210 Y7.113 Z-2.547 F400
G1 X-0.229 Y7.070 Z-2.551 F400
G1 X-0.239 Y7.024 Z-2.555 F400
G1 X-0.239 Y6.976 Z-2.560 F400
G1 X-0.230 Y6.930 Z-2.564 F400
G1 X-0.213 Y6.887 Z-2.568 F400
G1 X-0.187 Y6.847 Z-2.572 F400
G1 X-0.154 Y6.814 Z-2.577 F400
G1 X-0.115 Y6.787 Z-2.581 F400
G1 X-0.072 Y6.769 Z-2.585 F400
G1 X-0.026 Y6.759 Z-2.590 F400
G1 X0.021 Y6.758 Z-2.594 F400
G1 X0.067 Y6.767 Z-2.598 F400
G1 X0.111 Y6.785 Z-2.603 F400
G1 X0.150 Y6.810 Z-2.607 F400
G1 X0.184 Y6.843 Z-2.611 F400
G1 X0.210 Y6.882 Z-2.615 F400
G1 X0.229 Y6.925 Z-2.620 F400
G1 X0.239 Y6.971 Z-2.624 F400
G1 X0.239 Y7.019 Z-2.628 F400
G1 X0.230 Y7.065 Z-2.633 F400
G1 X0.213 Y7.108 Z-2.637 F400
G1 X0.187 Y7.148 Z-2.641 F400
G1 X0.154 Y7.181 Z-2.645 F400
G1 X0.115 Y7.208 Z-2.650 F400
G1 X0.072 Y7.226 Z-2.654 F400
G1 X0.026 Y7.236 Z-2.658 F400
G1 X-0.021 Y7.237 Z-2.663 F400
G1 X-0.067 Y7.228 Z-2.667 F400
G1 X-0.111 Y7.210 Z-2.671 F400
G1 X-0.150 Y7.185 Z-2.676 F400
G1 X-0.184 Y7.152 Z-2.680 F400
G1 X-0.210 Y7.113 Z-2.684 F400
G1 X-0.229 Y7.070 Z-2.688 F400
G1 X-0.239 Y7.024 Z-2.693 F400
G1 X-0.239 Y6.976 Z-2.697 F400
G1 X-0.230 Y6.930 Z-2.701 F400
G1 X-0.213 Y6.887 Z-2.706 F400
G1 X-0.187 Y6.847 Z-2.710 F400
G1 X-0.154 Y6.814 Z-2.714 F400
G1 X-0.115 Y6.787 Z-2.718 F400
G1 X-0.072 Y6.769 Z-2.723 F400
G1 X-0.026 Y6.759 Z-2.727 F400
G1 X0.021 Y6.758 Z-2.731 F400
G1 X0.067 Y6.767 Z-2.736 F400
G1 X0.111 Y6.785 Z-2.740 F400
G1 X0.150 Y6.810 Z-2.744 F400
G1 X0.184 Y6.843 Z-2.749 F400
G1 X0.210 Y6.882 Z-2.753 F400
G1 X0.229 Y6.925 Z-2.757 F400
G1 X0.239 Y6.971 Z-2.761 F400
G1 X0.239 Y7.019 Z-2.766 F400
G1 X0.230 Y7.065 Z-2.770 F400
G1 X0.213 Y7.108 Z-2.774 F400
G1 X0.187 Y7.148 Z-2.779 F400
G1 X0.154 Y7.181 Z-2.783 F400
G1 X0.115 Y7.208 Z-2.787 F400
G1 X0.072 Y7.226 Z-2.791 F400
G1 X0.026 Y7.236 Z-2.796 F400
G1 X-0.021 Y7.237 Z-2.800 F400
G1 X-0.067 Y7.228 Z-2.804 F400
G1 X-0.111 Y7.210 Z-2.809 F400
G1 X-0.150 Y7.185 Z-2.813 F400
G1 X-0.184 Y7.152 Z-2.817 F400
G1 X-0.210 Y7.113 Z-2.822 F400
G1 X-0.229 Y7.070 Z-2.826 F400
G1 X-0.239 Y7.024 Z-2.830 F400
G1 X-0.239 Y6.976 Z-2.834 F400
G1 X-0.230 Y6.930 Z-2.839 F400
G1 X-0.213 Y6.887 Z-2.843 F400
G1 X-0.187 Y6.847 Z-2.847 F400
G1 X-0.154 Y6.814 Z-2.852 F400
G1 X-0.115 Y6.787 Z-2.856 F400
G1 X-0.072 Y6.769 Z-2.860 F400
G1 X-0.026 Y6.759 Z-2.864 F400
G1 X0.021 Y6.758 Z-2.869 F400
G1 X0.067 Y6.767 Z-2.873 F400
G1 X0.111 Y6.785 Z-2.877 F400
G1 X0.150 Y6.810 Z-2.882 F400
G1 X0.184 Y6.843 Z-2.886 F400
G1 X0.210 Y6.882 Z-2.890 F400
G1 X0.229 Y6.925 Z-2.895 F400
G1 X0.239 Y6.971 Z-2.899 F400
G1 X0.239 Y7.019 Z-2.903 F400
G1 X0.230 Y7.065 Z-2.907 F400
G1 X0.213 Y7.108 Z-2.912 F400
G1 X0.187 Y7.148 Z-2.916 F400
G1 X0.154 Y7.181 Z-2.920 F400
G1 X0.115 Y7.208 Z-2.925 F400
G1 X0.072 Y7.226 Z-2.929 F400
G1 X0.026 Y7.236 Z-2.933 F400
G1 X-0.021 Y7.237 Z-2.937 F400
G1 X-0.067 Y7.228 Z-2.942 F400
G1 X-0.111 Y7.210 Z-2.946 F400
G1 X-0.150 Y7.185 Z-2.950 F400
G1 X-0.184 Y7.152 Z-2.955 F400
G1 X-0.210 Y7.113 Z-2.959 F400
G1 X-0.229 Y7.070 Z-2.963 F400
G1 X-0.239 Y7.024 Z-2.968 F400
G1 X-0.239 Y6.976 Z-2.972 F400
G1 X-0.230 Y6.930 Z-2.976 F400
G1 X-0.213 Y6.887 Z-2.980 F400
G1 X-0.187 Y6.847 Z-2.985 F400
G1 X-0.154 Y6.814 Z-2.989 F400
G1 X-0.115 Y6.787 Z-2.993 F400
G1 X-0.072 Y6.769 Z-2.998 F400
G1 X-0.026 Y6.759 Z-3.000 F400
G1 X0.021 Y6.758 Z-3.000 F400
G1 X0.067 Y6.767 Z-3.000 F400
G1 X0.111 Y6.785 Z-3.000 F400
G1 X0.150 Y6.810 Z-3.000 F400
G1 X0.184 Y6.843 Z-3.000 F400
G1 X0.210 Y6.882 Z-3.000 F400
G1 X0.229 Y6.925 Z-3.000 F400
G1 X0.239 Y6.971 Z-3.000 F400
G1 X0.239 Y7.019 Z-3.000 F400
G1 X0.230 Y7.065 Z-3.000 F400
G1 X0.213 Y7.108 Z-3.000 F400
G1 X0.187 Y7.148 Z-3.000 F400
G1 X0.154 Y7.181 Z-3.000 F400
G1 X0.115 Y7.208 Z-3.000 F400
G1 X0.072 Y7.226 Z-3.000 F400
G1 X0.026 Y7.236 Z-3.000 F400
G1 X-0.021 Y7.237 Z-3.000 F400
G1 X-0.067 Y7.228 Z-3.000 F400
G1 X-0.111 Y7.210 Z-3.000 F400
G1 X-0.150 Y7.185 Z-3.000 F400
G1 X-0.184 Y7.152 Z-3.000 F400
G1 X-0.210 Y7.113 Z-3.000 F400
G1 X-0.229 Y7.070 Z-3.000 F400
G1 X-0.239 Y7.024 Z-3.000 F400
G1 X-0.239 Y6.976 Z-3.000 F400
G1 X-0.230 Y6.930 Z-3.000 F400
G1 X-0.213 Y6.887 Z-3.000 F400
G1 X-0.187 Y6.847 Z-3.000 F400
G1 X-0.154 Y6.814 Z-3.000 F400
G1 X-0.115 Y6.787 Z-3.000 F400
G1 X-0.072 Y6.769 Z-3.000 F400
(Adaptive - depth: -3.000000)
G1 X0.000 Y6.747 F400
G1 X0.033 Y6.725 F400
G1 X0.070 Y6.715 F400
G1 X0.107 Y6.715 F400
G1 X0.145 Y6.723 F400
G1 X0.212 Y6.755 F400
G1 X0.270 Y6.805 F400
G1 X0.310 Y6.867 F400
G1 X0.335 Y6.940 F400
G1 X0.340 Y7.015 F400
G1 X0.325 Y7.090 F400
G1 X0.292 Y7.162 F400
G1 X0.245 Y7.225 F400
G1 X0.182 Y7.277 F400
G1 X0.110 Y7.312 F400
G1 X0.030 Y7.330 F400
G1 X-0.045 Y7.330 F400
G1 X-0.120 Y7.312 F400
G1 X-0.190 Y7.277 F400
G1 X-0.223 Y7.253 F400
G1 X-0.275 Y7.190 F400
G1 X-0.312 Y7.117 F400
G1 X-0.333 Y7.040 F400
G1 X-0.328 Y6.920 F400
G1 X-0.300 Y6.843 F400
G1 X-0.255 Y6.772 F400
G1 X-0.198 Y6.710 F400
G1 X-0.130 Y6.657 F400
G1 X-0.055 Y6.620 F400
G1 X0.060 Y6.595 F400
G1 X0.135 Y6.598 F400
G1 X0.210 Y6.617 F400
G1 X0.278 Y6.650 F400
G1 X0.338 Y6.697 F400
G1 X0.405 Y6.787 F400
G1 X0.443 Y6.895 F400
G1 X0.458 Y7.008 F400
G1 X0.440 Y7.120 F400
G1 X0.390 Y7.228 F400
G1 X0.312 Y7.320 F400
G1 X0.250 Y7.370 F400
G1 X0.140 Y7.423 F400
G1 X0.100 Y7.435 F400
G1 X-0.018 Y7.445 F400
G1 X-0.130 Y7.425 F400
G1 X-0.237 Y7.375 F400
G1 X-0.328 Y7.298 F400
G1 X-0.378 Y7.235 F400
G1 X-0.412 Y7.162 F400
G1 X-0.435 Y7.082 F400
G1 X-0.438 Y6.923 F400
G1 X-0.403 Y6.803 F400
G1 X-0.343 Y6.692 F400
G1 X-0.290 Y6.628 F400
G1 X-0.182 Y6.560 F400
G1 X-0.062 Y6.525 F400
G1 X-0.022 Y6.520 F400
G1 X0.128 Y6.540 F400
G1 X0.235 Y6.588 F400
G1 X0.355 Y6.680 F400
G1 X0.420 Y6.772 F400
G1 X0.450 Y6.843 F400
G1 X0.472 Y6.955 F400
G1 X0.475 Y6.992 F400
G1 X0.463 Y7.105 F400
G1 X0.420 Y7.218 F400
G1 X0.328 Y7.345 F400
G1 X0.230 Y7.418 F400
G1 X0.117 Y7.463 F400
G1 X0.037 Y7.478 F400
G1 X-0.113 Y7.457 F400
G1 X-0.188 Y7.435 F400
G1 X-0.258 Y7.397 F400
G1 X-0.347 Y7.322 F400
G1 X-0.400 Y7.263 F400
G1 X-0.453 Y7.152 F400
G1 X-0.465 Y7.115 F400
G1 X-0.475 Y6.955 F400
G1 X-0.460 Y6.875 F400
G1 X-0.388 Y6.725 F400
G1 X-0.362 Y6.692 F400
G1 X-0.362 Y6.692 F400
G1 X-0.333 Y6.660 F400
G1 X-0.333 Y6.660 F400
G1 X-0.357 Y6.665 F400
G1 X-0.357 Y6.665 F400
G1 X-0.333 Y6.633 F400
G1 X-0.333 Y6.633 F400
G1 X-0.275 Y6.588 F400
G1 X-0.207 Y6.548 F400
G1 X-0.105 Y6.513 F400
G1 X-0.015 Y6.500 F400
G1 X0.035 Y6.503 F400
G1 X0.142 Y6.525 F400
G1 X0.265 Y6.580 F400
G1 X0.362 Y6.660 F400
G1 X0.435 Y6.760 F400
G1 X0.480 Y6.880 F400
G1 X0.492 Y6.938 F400
G1 X0.495 Y7.010 F400
G1 X0.480 Y7.117 F400
G1 X0.460 Y7.178 F400
G1 X0.412 Y7.270 F400
G1 X0.347 Y7.353 F400
G1 X0.242 Y7.430 F400
G1 X0.160 Y7.470 F400
G1 X0.058 Y7.497 F400
G1 X0.018 Y7.500 F400
G1 X-0.117 Y7.478 F400
G1 X-0.237 Y7.433 F400
G1 X-0.295 Y7.395 F400
G1 X-0.415 Y7.270 F400
G1 X-0.443 Y7.225 F400
G1 X-0.485 Y7.115 F400
G1 X-0.497 Y6.982 F400
G1 X-0.480 Y6.885 F400
G1 X-0.443 Y6.782 F400
G1 X-0.407 Y6.718 F400
G1 X-0.333 Y6.633 F400
G1 X-0.333 Y6.633 F400
G0 Z5.000
(Helix to depth: -3.000000)
G0 Z5.000
G0 X-6.814 Y-0.154 Z5.000
G0 X-6.814 Y-0.154 Z3.000
G1 X-6.814 Y-0.154 Z0.000 F400
G1 X-6.814 Y-0.154 Z0.000 F400
G1 X-6.787 Y-0.115 Z-0.004 F400
G1 X-6.769 Y-0.072 Z-0.009 F400
G1 X-6.759 Y-0.026 Z-0.013 F400
G1 X-6.758 Y0.021 Z-0.017 F400
G1 X-6.767 Y0.067 Z-0.021 F400
G1 X-6.785 Y0.111 Z-0.026 F400
G1 X-6.810 Y0.150 Z-0.030 F400
G1 X-6.843 Y0.184 Z-0.034 F400
G1 X-6.882 Y0.210 Z-0.039 F400
G1 X-6.925 Y0.229 Z-0.043 F400
G1 X-6.971 Y0.239 Z-0.047 F400
G1 X-7.019 Y0.239 Z-0.052 F400
G1 X-7.065 Y0.230 Z-0.056 F400
G1 X-7.108 Y0.213 Z-0.060 F400
G1 X-7.148 Y0.187 Z-0.064 F400
G1 X-7.181 Y0.154 Z-0.069 F400
G1 X-7.208 Y0.115 Z-0.073 F400
G1 X-7.226 Y0.072 Z-0.077 F400
G1 X-7.236 Y0.026 Z-0.082 F400
G1 X-7.237 Y-0.021 Z-0.086 F400
G1 X-7.228 Y-0.067 Z-0.090 F400
G1 X-7.210 Y-0.111 Z-0.094 F400
G1 X-7.185 Y-0.150 Z-0.099 F400
G1 X-7.152 Y-0.184 Z-0.103 F400
G1 X-7.113 Y-0.210 Z-0.107 F400
G1 X-7.070 Y-0.229 Z-0.112 F400
G1 X-7.024 Y-0.239 Z-0.116 F400
G1 X-6.976 Y-0.239 Z-0.120 F400
G1 X-6.930 Y-0.230 Z-0.125 F400
G1 X-6.887 Y-0.213 Z-0.129 F400
G1 X-6.847 Y-0.187 Z-0.133 F400
G1 X-6.814 Y-0.154 Z-0.137 F400
G1 X-6.787 Y-0.115 Z-0.142 F400
G1 X-6.769 Y-0.072 Z-0.146 F400
G1 X-6.759 Y-0.026 Z-0.150 F400
G1 X-6.758 Y0.021 Z-0.155 F400
G1 X-6.767 Y0.067 Z-0.159 F400
G1 X-6.785 Y0.111 Z-0.163 F400
G1 X-6.810 Y0.150 Z-0.167 F400
G1 X-6.843 Y0.184 Z-0.172 F400
G1 X-6.882 Y0.210 Z-0.176 F400
G1 X-6.925 Y0.229 Z-0.180 F400
G1 X-6.971 Y0.239 Z-0.185 F400
G1 X-7.019 Y0.239 Z-0.189 F400
G1 X-7.065 Y0.230 Z-0.193 F400
G1 X-7.108 Y0.213 Z-0.198 F400
G1 X-7.148 Y0.187 Z-0.202 F400
G1 X-7.181 Y0.154 Z-0.206 F400
G1 X-7.208 Y0.115 Z-0.210 F400
G1 X-7.226 Y0.072 Z-0.215 F400
G1 X-7.236 Y0.026 Z-0.219 F400
G1 X-7.237 Y-0.021 Z-0.223 F400
G1 X-7.228 Y-0.067 Z-0.228 F400
G1 X-7.210 Y-0.111 Z-0.232 F400
G1 X-7.185 Y-0.150 Z-0.236 F400
G1 X-7.152 Y-0.184 Z-0.240 F400
G1 X-7.113 Y-0.210 Z-0.245 F400
G1 X-7.070 Y-0.229 Z-0.249 F400
G1 X-7.024 Y-0.239 Z-0.253 F400
G1 X-6.976 Y-0.239 Z-0.258 F400
G1 X-6.930 Y-0.230 Z-0.262 F400
G1 X-6.887 Y-0.213 Z-0.266 F400
G1 X-6.847 Y-0.187 Z-0.271 F400
G1 X-6.814 Y-0.154 Z-0.275 F400
G1 X-6.787 Y-0.115 Z-0.279 F400
G1 X-6.769 Y-0.072 Z-0.283 F400
G1 X-6.759 Y-0.026 Z-0.288 F400
G1 X-6.758 Y0.021 Z-0.292 F400
G1 X-6.767 Y0.067 Z-0.296 F400
G1 X-6.785 Y0.111 Z-0.301 F400
G1 X-6.810 Y0.150 Z-0.305 F400
G1 X-6.843 Y0.184 Z-0.309 F400
G1 X-6.882 Y0.210 Z-0.314 F400
G1 X-6.925 Y0.229 Z-0.318 F400
G1 X-6.971 Y0.239 Z-0.322 F400
G1 X-7.019 Y0.239 Z-0.326 F400
G1 X-7.065 Y0.230 Z-0.331 F400
G1 X-7.108 Y0.213 Z-0.335 F400
G1 X-7.148 Y0.187 Z-0.339 F400
G1 X-7.181 Y0.154 Z-0.344 F400
G1 X-7.208 Y0.115 Z-0.348 F400
G1 X-7.226 Y0.072 Z-0.352 F400
G1 X-7.236 Y0.026 Z-0.356 F400
G1 X-7.237 Y-0.021 Z-0.361 F400
G1 X-7.228 Y-0.067 Z-0.365 F400
G1 X-7.210 Y-0.111 Z-0.369 F400
G1 X-7.185 Y-0.150 Z-0.374 F400
G1 X-7.152 Y-0.184 Z-0.378 F400
G1 X-7.113 Y-0.210 Z-0.382 F400
G1 X-7.070 Y-0.229 Z-0.387 F400
G1 X-7.024 Y-0.239 Z-0.391 F400
G1 X-6.976 Y-0.239 Z-0.395 F400
G1 X-6.930 Y-0.230 Z-0.399 F400
G1 X-6.887 Y-0.213 Z-0.404 F400
G1 X-6.847 Y-0.187 Z-0.408 F400
G1 X-6.814 Y-0.154 Z-0.412 F400
G1 X-6.787 Y-0.115 Z-0.417 F400
G1 X-6.769 Y-0.072 Z-0.421 F400
G1 X-6.759 Y-0.026 Z-0.425 F400
G1 X-6.758 Y0.021 Z-0.429 F400
G1 X-6.767 Y0.067 Z-0.434 F400
G1 X-6.785 Y0.111 Z-0.438 F400
G1 X-6.810 Y0.150 Z-0.442 F400
G1 X-6.843 Y0.184 Z-0.447 F400
G1 X-6.882 Y0.210 Z-0.451 F400
G1 X-6.925 Y0.229 Z-0.455 F400
G1 X-6.971 Y0.239 Z-0.460 F400
G1 X-7.019 Y0.239 Z-0.464 F400
G1 X-7.065 Y0.230 Z-0.468 F400
G1 X-7.108 Y0.213 Z-0.472 F400
G1 X-7.148 Y0.187 Z-0.477 F400
G1 X-7.181 Y0.154 Z-0.481 F400
G1 X-7.208 Y0.115 Z-0.485 F400
G1 X-7.226 Y0.072 Z-0.490 F400
G1 X-7.236 Y0.026 Z-0.494 F400
G1 X-7.237 Y-0.021 Z-0.498 F400
G1 X-7.228 Y-0.067 Z-0.502 F400
G1 X-7.210 Y-0.111 Z-0.507 F400
G1 X-7.185 Y-0.150 Z-0.511 F400
G1 X-7.152 Y-0.184 Z-0.515 F400
G1 X-7.113 Y-0.210 Z-0.520 F400
G1 X-7.070 Y-0.229 Z-0.524 F400
G1 X-7.024 Y-0.239 Z-0.528 F400
G1 X-6.976 Y-0.239 Z-0.533 F400
G1 X-6.930 Y-0.230 Z-0.537 F400
G1 X-6.887 Y-0.213 Z-0.541 F400
G1 X-6.847 Y-0.187 Z-0.545 F400
G1 X-6.814 Y-0.154 Z-0.550 F400
G1 X-6.787 Y-0.115 Z-0.554 F400
G1 X-6.769 Y-0.072 Z-0.558 F400
G1 X-6.759 Y-0.026 Z-0.563 F400
G1 X-6.758 Y0.021 Z-0.567 F400
G1 X-6.767 Y0.067 Z-0.571 F400
G1 X-6.785 Y0.111 Z-0.575 F400
G1 X-6.810 Y0.150 Z-0.580 F400
G1 X-6.843 Y0.184 Z-0.584 F400
G1 X-6.882 Y0.210 Z-0.588 F400
G1 X-6.925 Y0.229 Z-0.593 F400
G1 X-6.971 Y0.239 Z-0.597 F400
G1 X-7.019 Y0.239 Z-0.601 F400
G1 X-7.065 Y0.230 Z-0.606 F400
G1 X-7.108 Y0.213 Z-0.610 F400
G1 X-7.148 Y0.187 Z-0.614 F400
G1 X-7.181 Y0.154 Z-0.618 F400
G1 X-7.208 Y0.115 Z-0.623 F400
G1 X-7.226 Y0.072 Z-0.627 F400
G1 X-7.236 Y0.026 Z-0.631 F400
G1 X-7.237 Y-0.021 Z-0.636 F400
G1 X-7.228 Y-0.067 Z-0.640 F400
G1 X-7.210 Y-0.111 Z-0.644 F400
G1 X-7.185 Y-0.150 Z-0.648 F400
G1 X-7.152 Y-0.184 Z-0.653 F400
G1 X-7.113 Y-0.210 Z-0.657 F400
G1 X-7.070 Y-0.229 Z-0.661 F400
G1 X-7.024 Y-0.239 Z-0.666 F400
G1 X-6.976 Y-0.239 Z-0.670 F400
G1 X-6.930 Y-0.230 Z-0.674 F400
G1 X-6.887 Y-0.213 Z-0.679 F400
G1 X-6.847 Y-0.187 Z-0.683 F400
G1 X-6.814 Y-0.154 Z-0.687 F400
G1 X-6.787 Y-0.115 Z-0.691 F400
G1 X-6.769 Y-0.072 Z-0.696 F400
G1 X-6.759 Y-0.026 Z-0.700 F400
G1 X-6.758 Y0.021 Z-0.704 F400
G1 X-6.767 Y0.067 Z-0.709 F400
G1 X-6.785 Y0.111 Z-0.713 F400
G1 X-6.810 Y0.150 Z-0.717 F400
G1 X-6.843 Y0.184 Z-0.721 F400
G1 X-6.882 Y0.210 Z-0.726 F400
G1 X-6.925 Y0.229 Z-0.730 F400
G1 X-6.971 Y0.239 Z-0.734 F400
G1 X-7.019 Y0.239 Z-0.739 F400
G1 X-7.065 Y0.230 Z-0.743 F400
G1 X-7.108 Y0.213 Z-0.747 F400
G1 X-7.148 Y0.187 Z-0.752 F400
G1 X-7.181 Y0.154 Z-0.756 F400
G1 X-7.208 Y0.115 Z-0.760 F400
G1 X-7.226 Y0.072 Z-0.764 F400
G1 X-7.236 Y0.026 Z-0.769 F400
G1 X-7.237 Y-0.021 Z-0.773 F400
G1 X-7.228 Y-0.067 Z-0.777 F400
G1 X-7.210 Y-0.111 Z-0.782 F400
G1 X-7.185 Y-0.150 Z-0.786 F400
G1 X-7.152 Y-0.184 Z-0.790 F400
G1 X-7.113 Y-0.210 Z-0.794 F400
G1 X-7.070 Y-0.229 Z-0.799 F400
G1 X-7.024 Y-0.239 Z-0.803 F400
G1 X-6.976 Y-0.239 Z-0.807 F400
G1 X-6.930 Y-0.230 Z-0.812 F400
G1 X-6.887 Y-0.213 Z-0.816 F400
G1 X-6.847 Y-0.187 Z-0.820 F400
G1 X-6.814 Y-0.154 Z-0.825 F400
G1 X-6.787 Y-0.115 Z-0.829 F400
G1 X-6.769 Y-0.072 Z-0.833 F400
G1 X-6.759 Y-0.026 Z-0.837 F400
G1 X-6.758 Y0.021 Z-0.842 F400
G1 X-6.767 Y0.067 Z-0.846 F400
G1 X-6.785 Y0.111 Z-0.850 F400
G1 X-6.810 Y0.150 Z-0.855 F400
G1 X-6.843 Y0.184 Z-0.859 F400
G1 X-6.882 Y0.210 Z-0.863 F400
G1 X-6.925 Y0.229 Z-0.868 F400
G1 X-6.971 Y0.239 Z-0.872 F400
G1 X-7.019 Y0.239 Z-0.876 F400
G1 X-7.065 Y0.230 Z-0.880 F400
G1 X-7.108 Y0.213 Z-0.885 F400
G1 X-7.148 Y0.187 Z-0.889 F400
G1 X-7.181 Y0.154 Z-0.893 F400
G1 X-7.208 Y0.115 Z-0.898 F400
G1 X-7.226 Y0.072 Z-0.902 F400
G1 X-7.236 Y0.026 Z-0.906 F400
G1 X-7.237 Y-0.021 Z-0.910 F400
G1 X-7.228 Y-0.067 Z-0.915 F400
G1 X-7.210 Y-0.111 Z-0.919 F400
G1 X-7.185 Y-0.150 Z-0.923 F400
G1 X-7.152 Y-0.184 Z-0.928 F400
G1 X-7.113 Y-0.210 Z-0.932 F400
G1 X-7.070 Y-0.229 Z-0.936 F400
G1 X-7.024 Y-0.239 Z-0.941 F400
G1 X-6.976 Y-0.239 Z-0.945 F400
G1 X-6.930 Y-0.230 Z-0.949 F400
G1 X-6.887 Y-0.213 Z-0.953 F400
G1 X-6.847 Y-0.187 Z-0.958 F400
G1 X-6.814 Y-0.154 Z-0.962 F400
G1 X-6.787 Y-0.115 Z-0.966 F400
G1 X-6.769 Y-0.072 Z-0.971 F400
G1 X-6.759 Y-0.026 Z-0.975 F400
G1 X-6.758 Y0.021 Z-0.979 F400
G1 X-6.767 Y0.067 Z-0.983 F400
G1 X-6.785 Y0.111 Z-0.988 F400
G1 X-6.810 Y0.150 Z-0.992 F400
G1 X-6.843 Y0.184 Z-0.996 F400
G1 X-6.882 Y0.210 Z-1.001 F400
G1 X-6.925 Y0.229 Z-1.005 F400
G1 X-6.971 Y0.239 Z-1.009 F400
G1 X-7.019 Y0.239 Z-1.014 F400
G1 X-7.065 Y0.230 Z-1.018 F400
G1 X-7.108 Y0.213 Z-1.022 F400
G1 X-7.148 Y0.187 Z-1.026 F400
G1 X-7.181 Y0.154 Z-1.031 F400
G1 X-7.208 Y0.115 Z-1.035 F400
G1 X-7.226 Y0.072 Z-1.039 F400
G1 X-7.236 Y0.026 Z-1.044 F400
G1 X-7.237 Y-0.021 Z-1.048 F400
G1 X-7.228 Y-0.067 Z-1.052 F400
G1 X-7.210 Y-0.111 Z-1.056 F400
G1 X-7.185 Y-0.150 Z-1.061 F400
G1 X-7.152 Y-0.184 Z-1.065 F400
G1 X-7.113 Y-0.210 Z-1.069 F400
G1 X-7.070 Y-0.229 Z-1.074 F400
G1 X-7.024 Y-0.239 Z-1.078 F400
G1 X-6.976 Y-0.239 Z-1.082 F400
G1 X-6.930 Y-0.230 Z-1.087 F400
G1 X-6.887 Y-0.213 Z-1.091 F400
G1 X-6.847 Y-0.187 Z-1.095 F400
G1 X-6.814 Y-0.154 Z-1.099 F400
G1 X-6.787 Y-0.115 Z-1.104 F400
G1 X-6.769 Y-0.072 Z-1.108 F400
G1 X-6.759 Y-0.026 Z-1.112 F400
G1 X-6.758 Y0.021 Z-1.117 F400
G1 X-6.767 Y0.067 Z-1.121 F400
G1 X-6.785 Y0.111 Z-1.125 F400
G1 X-6.810 Y0.150 Z-1.129 F400
G1 X-6.843 Y0.184 Z-1.134 F400
G1 X-6.882 Y0.210 Z-1.138 F400
G1 X-6.925 Y0.229 Z-1.142 F400
G1 X-6.971 Y0.239 Z-1.147 F400
G1 X-7.019 Y0.239 Z-1.151 F400
G1 X-7.065 Y0.230 Z-1.155 F400
G1 X-7.108 Y0.213 Z-1.160 F400
G1 X-7.148 Y0.187 Z-1.164 F400
G1 X-7.181 Y0.154 Z-1.168 F400
G1 X-7.208 Y0.115 Z-1.172 F400
G1 X-7.226 Y0.072 Z-1.177 F400
G1 X-7.236 Y0.026 Z-1.181 F400
G1 X-7.237 Y-0.021 Z-1.185 F400
G1 X-7.228 Y-0.067 Z-1.190 F400
G1 X-7.210 Y-0.111 Z-1.194 F400
G1 X-7.185 Y-0.150 Z-1.198 F400
G1 X-7.152 Y-0.184 Z-1.202 F400
G1 X-7.113 Y-0.210 Z-1.207 F400
G1 X-7.070 Y-0.229 Z-1.211 F400
G1 X-7.024 Y-0.239 Z-1.215 F400
G1 X-6.976 Y-0.239 Z-1.220 F400
G1 X-6.930 Y-0.230 Z-1.224 F400
G1 X-6.887 Y-0.213 Z-1.228 F400
G1 X-6.847 Y-0.187 Z-1.233 F400
G1 X-6.814 Y-0.154 Z-1.237 F400
G1 X-6.787 Y-0.115 Z-1.241 F400
G1 X-6.769 Y-0.072 Z-1.245 F400
G1 X-6.759 Y-0.026 Z-1.250 F400
G1 X-6.758 Y0.021 Z-1.254 F400
G1 X-6.767 Y0.067 Z-1.258 F400
G1 X-6.785 Y0.111 Z-1.263 F400
G1 X-6.810 Y0.150 Z-1.267 F400
G1 X-6.843 Y0.184 Z-1.271 F400
G1 X-6.882 Y0.210 Z-1.275 F400
G1 X-6.925 Y0.229 Z-1.280 F400
G1 X-6.971 Y0.239 Z-1.284 F400
G1 X-7.019 Y0.239 Z-1.288 F400
G1 X-7.065 Y0.230 Z-1.293 F400
G1 X-7.108 Y0.213 Z-1.297 F400
G1 X-7.148 Y0.187 Z-1.301 F400
G1 X-7.181 Y0.154 Z-1.306 F400
G1 X-7.208 Y0.115 Z-1.310 F400
G1 X-7.226 Y0.072 Z-1.314 F400
G1 X-7.236 Y0.026 Z-1.318 F400
G1 X-7.237 Y-0.021 Z-1.323 F400
G1 X-7.228 Y-0.067 Z-1.327 F400
G1 X-7.210 Y-0.111 Z-1.331 F400
G1 X-7.185 Y-0.150 Z-1.336 F400
G1 X-7.152 Y-0.184 Z-1.340 F400
G1 X-7.113 Y-0.210 Z-1.344 F400
G1 X-7.070 Y-0.229 Z-1.349 F400
G1 X-7.024 Y-0.239 Z-1.353 F400
G1 X-6.976 Y-0.239 Z-1.357 F400
G1 X-6.930 Y-0.230 Z-1.361 F400
G1 X-6.887 Y-0.213 Z-1.366 F400
G1 X-6.847 Y-0.187 Z-1.370 F400
G1 X-6.814 Y-0.154 Z-1.374 F400
G1 X-6.787 Y-0.115 Z-1.379 F400
G1 X-6.769 Y-0.072 Z-1.383 F400
G1 X-6.759 Y-0.026 Z-1.387 F400
G1 X-6.758 Y0.021 Z-1.391 F400
G1 X-6.767 Y0.067 Z-1.396 F400
G1 X-6.785 Y0.111 Z-1.400 F400
G1 X-6.810 Y0.150 Z-1.404 F400
G1 X-6.843 Y0.184 Z-1.409 F400
G1 X-6.882 Y0.210 Z-1.413 F400
G1 X-6.925 Y0.229 Z-1.417 F400
G1 X-6.971 Y0.239 Z-1.422 F400
G1 X-7.019 Y0.239 Z-1.426 F400
G1 X-7.065 Y0.230 Z-1.430 F400
G1 X-7.108 Y0.213 Z-1.434 F400
G1 X-7.148 Y0.187 Z-1.439 F400
G1 X-7.181 Y0.154 Z-1.443 F400
G1 X-7.208 Y0.115 Z-1.447 F400
G1 X-7.226 Y0.072 Z-1.452 F400
G1 X-7.236 Y0.026 Z-1.456 F400
G1 X-7.237 Y-0.021 Z-1.460 F400
G1 X-7.228 Y-0.067 Z-1.464 F400
G1 X-7.210 Y-0.111 Z-1.469 F400
G1 X-7.185 Y-0.150 Z-1.473 F400
G1 X-7.152 Y-0.184 Z-1.477 F400
G1 X-7.113 Y-0.210 Z-1.482 F400
G1 X-7.070 Y-0.229 Z-1.486 F400
G1 X-7.024 Y-0.239 Z-1.490 F400
G1 X-6.976 Y-0.239 Z-1.495 F400
G1 X-6.930 Y-0.230 Z-1.499 F400
G1 X-6.887 Y-0.213 Z-1.503 F400
G1 X-6.847 Y-0.187 Z-1.507 F400
G1 X-6.814 Y-0.154 Z-1.512 F400
G1 X-6.787 Y-0.115 Z-1.516 F400
G1 X-6.769 Y-0.072 Z-1.520 F400
G1 X-6.759 Y-0.026 Z-1.525 F400
G1 X-6.758 Y0.021 Z-1.529 F400
G1 X-6.767 Y0.067 Z-1.533 F400
G1 X-6.785 Y0.111 Z-1.537 F400
G1 X-6.810 Y0.150 Z-1.542 F400
G1 X-6.843 Y0.184 Z-1.546 F400
G1 X-6.882 Y0.210 Z-1.550 F400
G1 X-6.925 Y0.229 Z-1.555 F400
G1 X-6.971 Y0.239 Z-1.559 F400
G1 X-7.019 Y0.239 Z-1.563 F400
G1 X-7.065 Y0.230 Z-1.568 F400
G1 X-7.108 Y0.213 Z-1.572 F400
G1 X-7.148 Y0.187 Z-1.576 F400
G1 X-7.181 Y0.154 Z-1.580 F400
G1 X-7.208 Y0.115 Z-1.585 F400
G1 X-7.226 Y0.072 Z-1.589 F400
G1 X-7.236 Y0.026 Z-1.593 F400
G1 X-7.237 Y-0.021 Z-1.598 F400
G1 X-7.228 Y-0.067 Z-1.602 F400
G1 X-7.210 Y-0.111 Z-1.606 F400
G1 X-7.185 Y-0.150 Z-1.610 F400
G1 X-7.152 Y-0.184 Z-1.615 F400
G1 X-7.113 Y-0.210 Z-1.619 F400
G1 X-7.070 Y-0.229 Z-1.623 F400
G1 X-7.024 Y-0.239 Z-1.628 F400
G1 X-6.976 Y-0.239 Z-1.632 F400
G1 X-6.930 Y-0.230 Z-1.636 F400
G1 X-6.887 Y-0.213 Z-1.641 F400
G1 X-6.847 Y-0.187 Z-1.645 F400
G1 X-6.814 Y-0.154 Z-1.649 F400
G1 X-6.787 Y-0.115 Z-1.653 F400
G1 X-6.769 Y-0.072 Z-1.658 F400
G1 X-6.759 Y-0.026 Z-1.662 F400
G1 X-6.758 Y0.021 Z-1.666 F400
G1 X-6.767 Y0.067 Z-1.671 F400
G1 X-6.785 Y0.111 Z-1.675 F400
G1 X-6.810 Y0.150 Z-1.679 F400
G1 X-6.843 Y0.184 Z-1.683 F400
G1 X-6.882 Y0.210 Z-1.688 F400
G1 X-6.925 Y0.229 Z-1.692 F400
G1 X-6.971 Y0.239 Z-1.696 F400
G1 X-7.019 Y0.239 Z-1.701 F400
G1 X-7.065 Y0.230 Z-1.705 F400
G1 X-7.108 Y0.213 Z-1.709 F400
G1 X-7.148 Y0.187 Z-1.714 F400
G1 X-7.181 Y0.154 Z-1.718 F400
G1 X-7.208 Y0.115 Z-1.722 F400
G1 X-7.226 Y0.072 Z-1.726 F400
G1 X-7.236 Y0.026 Z-1.731 F400
G1 X-7.237 Y-0.021 Z-1.735 F400
G1 X-7.228 Y-0.067 Z-1.739 F400
G1 X-7.210 Y-0.111 Z-1.744 F400
G1 X-7.185 Y-0.150 Z-1.748 F400
G1 X-7.152 Y-0.184 Z-1.752 F400
G1 X-7.113 Y-0.210 Z-1.756 F400
G1 X-7.070 Y-0.229 Z-1.761 F400
G1 X-7.024 Y-0.239 Z-1.765 F400
G1 X-6.976 Y-0.239 Z-1.769 F400
G1 X-6.930 Y-0.230 Z-1.774 F400
G1 X-6.887 Y-0.213 Z-1.778 F400
G1 X-6.847 Y-0.187 Z-1.782 F400
G1 X-6.814 Y-0.154 Z-1.787 F400
G1 X-6.787 Y-0.115 Z-1.791 F400
G1 X-6.769 Y-0.072 Z-1.795 F400
G1 X-6.759 Y-0.026 Z-1.799 F400
G1 X-6.758 Y0.021 Z-1.804 F400
G1 X-6.767 Y0.067 Z-1.808 F400
G1 X-6.785 Y0.111 Z-1.812 F400
G1 X-6.810 Y0.150 Z-1.817 F400
G1 X-6.843 Y0.184 Z-1.821 F400
G1 X-6.882 Y0.210 Z-1.825 F400
G1 X-6.925 Y0.229 Z-1.829 F400
G1 X-6.971 Y0.239 Z-1.834 F400
G1 X-7.019 Y0.239 Z-1.838 F400
G1 X-7.065 Y0.230 Z-1.842 F400
G1 X-7.108 Y0.213 Z-1.847 F400
G1 X-7.148 Y0.187 Z-1.851 F400
G1 X-7.181 Y0.154 Z-1.855 F400
G1 X-7.208 Y0.115 Z-1.860 F400
G1 X-7.226 Y0.072 Z-1.864 F400
G1 X-7.236 Y0.026 Z-1.868 F400
G1 X-7.237 Y-0.021 Z-1.872 F400
G1 X-7.228 Y-0.067 Z-1.877 F400
G1 X-7.210 Y-0.111 Z-1.881 F400
G1 X-7.185 Y-0.150 Z-1.885 F400
G1 X-7.152 Y-0.184 Z-1.890 F400
G1 X-7.113 Y-0.210 Z-1.894 F400
G1 X-7.070 Y-0.229 Z-1.898 F400
G1 X-7.024 Y-0.239 Z-1.903 F400
G1 X-6.976 Y-0.239 Z-1.907 F400
G1 X-6.930 Y-0.230 Z-1.911 F400
G1 X-6.887 Y-0.213 Z-1.915 F400
G1 X-6.847 Y-0.187 Z-1.920 F400
G1 X-6.814 Y-0.154 Z-1.924 F400
G1 X-6.787 Y-0.115 Z-1.928 F400
G1 X-6.769 Y-0.072 Z-1.933 F400
G1 X-6.759 Y-0.026 Z-1.937 F400
G1 X-6.758 Y0.021 Z-1.941 F400
G1 X-6.767 Y0.067 Z-1.945 F400
G1 X-6.785 Y0.111 Z-1.950 F400
G1 X-6.810 Y0.150 Z-1.954 F400
G1 X-6.843 Y0.184 Z-1.958 F400
G1 X-6.882 Y0.210 Z-1.963 F400
G1 X-6.925 Y0.229 Z-1.967 F400
G1 X-6.971 Y0.239 Z-1.971 F400
G1 X-7.019 Y0.239 Z-1.976 F400
G1 X-7.065 Y0.230 Z-1.980 F400
G1 X-7.108 Y0.213 Z-1.984 F400
G1 X-7.148 Y0.187 Z-1.988 F400
G1 X-7.181 Y0.154 Z-1.993 F400
G1 X-7.208 Y0.115 Z-1.997 F400
G1 X-7.226 Y0.072 Z-2.001 F400
G1 X-7.236 Y0.026 Z-2.006 F400
G1 X-7.237 Y-0.021 Z-2.010 F400
G1 X-7.228 Y-0.067 Z-2.014 F400
G1 X-7.210 Y-0.111 Z-2.018 F400
G1 X-7.185 Y-0.150 Z-2.023 F400
G1 X-7.152 Y-0.184 Z-2.027 F400
G1 X-7.113 Y-0.210 Z-2.031 F400
G1 X-7.070 Y-0.229 Z-2.036 F400
G1 X-7.024 Y-0.239 Z-2.040 F400
G1 X-6.976 Y-0.239 Z-2.044 F400
G1 X-6.930 Y-0.230 Z-2.049 F400
G1 X-6.887 Y-0.213 Z-2.053 F400
G1 X-6.847 Y-0.187 Z-2.057 F400
G1 X-6.814 Y-0.154 Z-2.061 F400
G1 X-6.787 Y-0.115 Z-2.066 F400
G1 X-6.769 Y-0.072 Z-2.070 F400
G1 X-6.759 Y-0.026 Z-2.074 F400
G1 X-6.758 Y0.021 Z-2.079 F400
G1 X-6.767 Y0.067 Z-2.083 F400
G1 X-6.785 Y0.111 Z-2.087 F400
G1 X-6.810 Y0.150 Z-2.091 F400
G1 X-6.843 Y0.184 Z-2.096 F400
G1 X-6.882 Y0.210 Z-2.100 F400
G1 X-6.925 Y0.229 Z-2.104 F400
G1 X-6.971 Y0.239 Z-2.109 F400
G1 X-7.019 Y0.239 Z-2.113 F400
G1 X-7.065 Y0.230 Z-2.117 F400
G1 X-7.108 Y0.213 Z-2.122 F400
G1 X-7.148 Y0.187 Z-2.126 F400
G1 X-7.181 Y0.154 Z-2.130 F400
G1 X-7.208 Y0.115 Z-2.134 F400
G1 X-7.226 Y0.072 Z-2.139 F400
G1 X-7.236 Y0.026 Z-2.143 F400
G1 X-7.237 Y-0.021 Z-2.147 F400
G1 X-7.228 Y-0.067 Z-2.152 F400
G1 X-7.210 Y-0.111 Z-2.156 F400
G1 X-7.185 Y-0.150 Z-2.160 F400
G1 X-7.152 Y-0.184 Z-2.164 F400
G1 X-7.113 Y-0.210 Z-2.169 F400
G1 X-7.070 Y-0.229 Z-2.173 F400
G1 X-7.024 Y-0.239 Z-2.177 F400
G1 X-6.976 Y-0.239 Z-2.182 F400
G1 X-6.930 Y-0.230 Z-2.186 F400
G1 X-6.887 Y-0.213 Z-2.190 F400
G1 X-6.847 Y-0.187 Z-2.195 F400
G1 X-6.814 Y-0.154 Z-2.199 F400
G1 X-6.787 Y-0.115 Z-2.203 F400
G1 X-6.769 Y-0.072 Z-2.207 F400
G1 X-6.759 Y-0.026 Z-2.212 F400
G1 X-6.758 Y0.021 Z-2.216 F400
G1 X-6.767 Y0.067 Z-2.220 F400
G1 X-6.785 Y0.111 Z-2.225 F400
G1 X-6.810 Y0.150 Z-2.229 F400
G1 X-6.843 Y0.184 Z-2.233 F400
G1 X-6.882 Y0.210 Z-2.237 F400
G1 X-6.925 Y0.229 Z-2.242 F400
G1 X-6.971 Y0.239 Z-2.246 F400
G1 X-7.019 Y0.239 Z-2.250 F400
G1 X-7.065 Y0.230 Z-2.255 F400
G1 X-7.108 Y0.213 Z-2.259 F400
G1 X-7.148 Y0.187 Z-2.263 F400
G1 X-7.181 Y0.154 Z-2.268 F400
G1 X-7.208 Y0.115 Z-2.272 F400
G1 X-7.226 Y0.072 Z-2.276 F400
G1 X-7.236 Y0.026 Z-2.280 F400
G1 X-7.237 Y-0.021 Z-2.285 F400
G1 X-7.228 Y-0.067 Z-2.289 F400
G1 X-7.210 Y-0.111 Z-2.293 F400
G1 X-7.185 Y-0.150 Z-2.298 F400
G1 X-7.152 Y-0.184 Z-2.302 F400
G1 X-7.113 Y-0.210 Z-2.306 F400
G1 X-7.070 Y-0.229 Z-2.310 F400
G1 X-7.024 Y-0.239 Z-2.315 F400
G1 X-6.976 Y-0.239 Z-2.319 F400
G1 X-6.930 Y-0.230 Z-2.323 F400
G1 X-6.887 Y-0.213 Z-2.328 F400
G1 X-6.847 Y-0.187 Z-2.332 F400
G1 X-6.814 Y-0.154 Z-2.336 F400
G1 X-6.787 Y-0.115 Z-2.341 F400
G1 X-6.769 Y-0.072 Z-2.345 F400
G1 X-6.759 Y-0.026 Z-2.349 F400
G1 X-6.758 Y0.021 Z-2.353 F400
G1 X-6.767 Y0.067 Z-2.358 F400
G1 X-6.785 Y0.111 Z-2.362 F400
G1 X-6.810 Y0.150 Z-2.366 F400
G1 X-6.843 Y0.184 Z-2.371 F400
G1 X-6.882 Y0.210 Z-2.375 F400
G1 X-6.925 Y0.229 Z-2.379 F400
G1 X-6.971 Y0.239 Z-2.383 F400
G1 X-7.019 Y0.239 Z-2.388 F400
G1 X-7.065 Y0.230 Z-2.392 F400
G1 X-7.108 Y0.213 Z-2.396 F400
G1 X-7.148 Y0.187 Z-2.401 F400
G1 X-7.181 Y0.154 Z-2.405 F400
G1 X-7.208 Y0.115 Z-2.409 F400
G1 X-7.226 Y0.072 Z-2.414 F400
G1 X-7.236 Y0.026 Z-2.418 F400
G1 X-7.237 Y-0.021 Z-2.422 F400
G1 X-7.228 Y-0.067 Z-2.426 F400
G1 X-7.210 Y-0.111 Z-2.431 F400
G1 X-7.185 Y-0.150 Z-2.435 F400
G1 X-7.152 Y-0.184 Z-2.439 F400
G1 X-7.113 Y-0.210 Z-2.444 F400
G1 X-7.070 Y-0.229 Z-2.448 F400
G1 X-7.024 Y-0.239 Z-2.452 F400
G1 X-6.976 Y-0.239 Z-2.457 F400
G1 X-6.930 Y-0.230 Z-2.461 F400
G1 X-6.887 Y-0.213 Z-2.465 F400
G1 X-6.847 Y-0.187 Z-2.469 F400
G1 X-6.814 Y-0.154 Z-2.474 F400
G1 X-6.787 Y-0.115 Z-2.478 F400
G1 X-6.769 Y-0.072 Z-2.482 F400
G1 X-6.759 Y-0.026 Z-2.487 F400
G1 X-6.758 Y0.021 Z-2.491 F400
G1 X-6.767 Y0.067 Z-2.495 F400
G1 X-6.785 Y0.111 Z-2.499 F400
G1 X-6.810 Y0.150 Z-2.504 F400
G1 X-6.843 Y0.184 Z-2.508 F400
G1 X-6.882 Y0.210 Z-2.512 F400
G1 X-6.925 Y0.229 Z-2.517 F400
G1 X-6.971 Y0.239 Z-2.521 F400
G1 X-7.019 Y0.239 Z-2.525 F400
G1 X-7.065 Y0.230 Z-2.530 F400
G1 X-7.108 Y0.213 Z-2.534 F400
G1 X-7.148 Y0.187 Z-2.538 F400
G1 X-7.181 Y0.154 Z-2.542 F400
G1 X-7.208 Y0.115 Z-2.547 F400
G1 X-7.226 Y0.072 Z-2.551 F400
G1 X-7.236 Y0.026 Z-2.555 F400
G1 X-7.237 Y-0.021 Z-2.560 F400
G1 X-7.228 Y-0.067 Z-2.564 F400
G1 X-7.210 Y-0.111 Z-2.568 F400
G1 X-7.185 Y-0.150 Z-2.572 F400
G1 X-7.152 Y-0.184 Z-2.577 F400
G1 X-7.113 Y-0.210 Z-2.581 F400
G1 X-7.070 Y-0.229 Z-2.585 F400
G1 X-7.024 Y-0.239 Z-2.590 F400
G1 X-6.976 Y-0.239 Z-2.594 F400
G1 X-6.930 Y-0.230 Z-2.598 F400
G1 X-6.887 Y-0.213 Z-2.603 F400
G1 X-6.847 Y-0.187 Z-2.607 F400
G1 X-6.814 Y-0.154 Z-2.611 F400
G1 X-6.787 Y-0.115 Z-2.615 F400
G1 X-6.769 Y-0.072 Z-2.620 F400
G1 X-6.759 Y-0.026 Z-2.624 F400
G1 X-6.758 Y0.021 Z-2.628 F400
G1 X-6.767 Y0.067 Z-2.633 F400
G1 X-6.785 Y0.111 Z-2.637 F400
G1 X-6.810 Y0.150 Z-2.641 F400
G1 X-6.843 Y0.184 Z-2.645 F400
G1 X-6.882 Y0.210 Z-2.650 F400
G1 X-6.925 Y0.229 Z-2.654 F400
G1 X-6.971 Y0.239 Z-2.658 F400
G1 X-7.019 Y0.239 Z-2.663 F400
G1 X-7.065 Y0.230 Z-2.667 F400
G1 X-7.108 Y0.213 Z-2.671 F400
G1 X-7.148 Y0.187 Z-2.676 F400
G1 X-7.181 Y0.154 Z-2.680 F400
G1 X-7.208 Y0.115 Z-2.684 F400
G1 X-7.226 Y0.072 Z-2.688 F400
G1 X-7.236 Y0.026 Z-2.693 F400
G1 X-7.237 Y-0.021 Z-2.697 F400
G1 X-7.228 Y-0.067 Z-2.701 F400
G1 X-7.210 Y-0.111 Z-2.706 F400
G1 X-7.185 Y-0.150 Z-2.710 F400
G1 X-7.152 Y-0.184 Z-2.714 F400
G1 X-7.113 Y-0.210 Z-2.718 F400
G1 X-7.070 Y-0.229 Z-2.723 F400
G1 X-7.024 Y-0.239 Z-2.727 F400
G1 X-6.976 Y-0.239 Z-2.731 F400
G1 X-6.930 Y-0.230 Z-2.736 F400
G1 X-6.887 Y-0.213 Z-2.740 F400
G1 X-6.847 Y-0.187 Z-2.744 F400
G1 X-6.814 Y-0.154 Z-2.749 F400
G1 X-6.787 Y-0.115 Z-2.753 F400
G1 X-6.769 Y-0.072 Z-2.757 F400
G1 X-6.759 Y-0.026 Z-2.761 F400
G1 X-6.758 Y0.021 Z-2.766 F400
G1 X-6.767 Y0.067 Z-2.770 F400
G1 X-6.785 Y0.111 Z-2.774 F400
G1 X-6.810 Y0.150 Z-2.779 F400
G1 X-6.843 Y0.184 Z-2.783 F400
G1 X-6.882 Y0.210 Z-2.787 F400
G1 X-6.925 Y0.229 Z-2.791 F400
G1 X-6.971 Y0.239 Z-2.796 F400
G1 X-7.019 Y0.239 Z-2.800 F400
G1 X-7.065 Y0.230 Z-2.804 F400
G1 X-7.108 Y0.213 Z-2.809 F400
G1 X-7.148 Y0.187 Z-2.813 F400
G1 X-7.181 Y0.154 Z-2.817 F400
G1 X-7.208 Y0.115 Z-2.822 F400
G1 X-7.226 Y0.072 Z-2.826 F400
G1 X-7.236 Y0.026 Z-2.830 F400
G1 X-7.237 Y-0.021 Z-2.834 F400
G1 X-7.228 Y-0.067 Z-2.839 F400
G1 X-7.210 Y-0.111 Z-2.843 F400
G1 X-7.185 Y-0.150 Z-2.847 F400
G1 X-7.152 Y-0.184 Z-2.852 F400
G1 X-7.113 Y-0.210 Z-2.856 F400
G1 X-7.070 Y-0.229 Z-2.860 F400
G1 X-7.024 Y-0.239 Z-2.864 F400
G1 X-6.976 Y-0.239 Z-2.869 F400
G1 X-6.930 Y-0.230 Z-2.873 F400
G1 X-6.887 Y-0.213 Z-2.877 F400
G1 X-6.847 Y-0.187 Z-2.882 F400
G1 X-6.814 Y-0.154 Z-2.886 F400
G1 X-6.787 Y-0.115 Z-2.890 F400
G1 X-6.769 Y-0.072 Z-2.895 F400
G1 X-6.759 Y-0.026 Z-2.899 F400
G1 X-6.758 Y0.021 Z-2.903 F400
G1 X-6.767 Y0.067 Z-2.907 F400
G1 X-6.785 Y0.111 Z-2.912 F400
G1 X-6.810 Y0.150 Z-2.916 F400
G1 X-6.843 Y0.184 Z-2.920 F400
G1 X-6.882 Y0.210 Z-2.925 F400
G1 X-6.925 Y0.229 Z-2.929 F400
G1 X-6.971 Y0.239 Z-2.933 F400
G1 X-7.019 Y0.239 Z-2.937 F400
G1 X-7.065 Y0.230 Z-2.942 F400
G1 X-7.108 Y0.213 Z-2.946 F400
G1 X-7.148 Y0.187 Z-2.950 F400
G1 X-7.181 Y0.154 Z-2.955 F400
G1 X-7.208 Y0.115 Z-2.959 F400
G1 X-7.226 Y0.072 Z-2.963 F400
G1 X-7.236 Y0.026 Z-2.968 F400
G1 X-7.237 Y-0.021 Z-2.972 F400
G1 X-7.228 Y-0.067 Z-2.976 F400
G1 X-7.210 Y-0.111 Z-2.980 F400
G1 X-7.185 Y-0.150 Z-2.985 F400
G1 X-7.152 Y-0.184 Z-2.989 F400
G1 X-7.113 Y-0.210 Z-2.993 F400
G1 X-7.070 Y-0.229 Z-2.998 F400
G1 X-7.024 Y-0.239 Z-3.000 F400
G1 X-6.976 Y-0.239 Z-3.000 F400
G1 X-6.930 Y-0.230 Z-3.000 F400
G1 X-6.887 Y-0.213 Z-3.000 F400
G1 X-6.847 Y-0.187 Z-3.000 F400
G1 X-6.814 Y-0.154 Z-3.000 F400
G1 X-6.787 Y-0.115 Z-3.000 F400
G1 X-6.769 Y-0.072 Z-3.000 F400
G1 X-6.759 Y-0.026 Z-3.000 F400
G1 X-6.758 Y0.021 Z-3.000 F400
G1 X-6.767 Y0.067 Z-3.000 F400
G1 X-6.785 Y0.111 Z-3.000 F400
G1 X-6.810 Y0.150 Z-3.000 F400
G1 X-6.843 Y0.184 Z-3.000 F400
G1 X-6.882 Y0.210 Z-3.000 F400
G1 X-6.925 Y0.229 Z-3.000 F400
G1 X-6.971 Y0.239 Z-3.000 F400
G1 X-7.019 Y0.239 Z-3.000 F400
G1 X-7.065 Y0.230 Z-3.000 F400
G1 X-7.108 Y0.213 Z-3.000 F400
G1 X-7.148 Y0.187 Z-3.000 F400
G1 X-7.181 Y0.154 Z-3.000 F400
G1 X-7.208 Y0.115 Z-3.000 F400
G1 X-7.226 Y0.072 Z-3.000 F400
G1 X-7.236 Y0.026 Z-3.000 F400
G1 X-7.237 Y-0.021 Z-3.000 F400
G1 X-7.228 Y-0.067 Z-3.000 F400
G1 X-7.210 Y-0.111 Z-3.000 F400
G1 X-7.185 Y-0.150 Z-3.000 F400
G1 X-7.152 Y-0.184 Z-3.000 F400
G1 X-7.113 Y-0.210 Z-3.000 F400
G1 X-7.070 Y-0.229 Z-3.000 F400
(Adaptive - depth: -3.000000)
G1 X-6.997 Y-0.250 F400
G1 X-6.963 Y-0.270 F400
G1 X-6.923 Y-0.278 F400
G1 X-6.883 Y-0.275 F400
G1 X-6.805 Y-0.245 F400
G1 X-6.737 Y-0.195 F400
G1 X-6.690 Y-0.128 F400
G1 X-6.673 Y-0.090 F400
G1 X-6.655 Y0.028 F400
G1 X-6.665 Y0.102 F400
G1 X-6.695 Y0.175 F400
G1 X-6.740 Y0.237 F400
G1 X-6.798 Y0.290 F400
G1 X-6.865 Y0.328 F400
G1 X-6.940 Y0.345 F400
G1 X-7.015 Y0.347 F400
G1 X-7.128 Y0.320 F400
G1 X-7.195 Y0.282 F400
G1 X-7.253 Y0.228 F400
G1 X-7.298 Y0.160 F400
G1 X-7.325 Y0.083 F400
G1 X-7.335 Y0.003 F400
G1 X-7.315 Y-0.110 F400
G1 X-7.280 Y-0.180 F400
G1 X-7.228 Y-0.242 F400
G1 X-7.168 Y-0.295 F400
G1 X-7.098 Y-0.338 F400
G1 X-6.980 Y-0.370 F400
G1 X-6.900 Y-0.372 F400
G1 X-6.820 Y-0.357 F400
G1 X-6.742 Y-0.325 F400
G1 X-6.675 Y-0.275 F400
G1 X-6.617 Y-0.212 F400
G1 X-6.560 Y-0.102 F400
G1 X-6.535 Y0.015 F400
G1 X-6.543 Y0.128 F400
G1 X-6.585 Y0.235 F400
G1 X-6.652 Y0.325 F400
G1 X-6.772 Y0.420 F400
G1 X-6.880 Y0.463 F400
G1 X-6.955 Y0.475 F400
G1 X-7.067 Y0.468 F400
