(Exported by FreeCAD)
(Post Processor: grbl_post)
(Output Time:2024-02-19 22:52:36.669246)
(Begin preamble)
G17 G90
G21
(Block-name: Fixture)
(Block-expand: 0)
(Block-enable: 1)
(Begin operation: Fixture)
(Path: Fixture)
G54
(Finish operation: Fixture)
(Block-name: 2mm Endmill001)
(Block-expand: 0)
(Block-enable: 1)
(Begin operation: 2mm Endmill001)
(Path: 2mm Endmill001)
(2mm Endmill001)
(Begin toolchange)
( M6 T5 )
M3 S8000
(Finish operation: 2mm Endmill001)
(Block-name: Adaptive)
(Block-expand: 0)
(Block-enable: 1)
(Begin operation: Adaptive)
(Path: Adaptive)
(Adaptive)
(Helix to depth: -3.500000)
G0 Z5.000
G0 X0.192 Y0.713 Z5.000
G0 X0.192 Y0.713 Z3.000
G1 X0.192 Y0.713 Z0.000 F420.000
G1 X0.192 Y0.713 Z0.000 F420.000
G1 X0.050 Y0.736 Z-0.013 F420.000
G1 X-0.095 Y0.732 Z-0.026 F420.000
G1 X-0.236 Y0.699 Z-0.039 F420.000
G1 X-0.368 Y0.640 Z-0.051 F420.000
G1 X-0.486 Y0.556 Z-0.064 F420.000
G1 X-0.585 Y0.450 Z-0.077 F420.000
G1 X-0.661 Y0.328 Z-0.090 F420.000
G1 X-0.713 Y0.192 Z-0.103 F420.000
G1 X-0.736 Y0.050 Z-0.116 F420.000
G1 X-0.732 Y-0.095 Z-0.129 F420.000
G1 X-0.699 Y-0.236 Z-0.141 F420.000
G1 X-0.640 Y-0.368 Z-0.154 F420.000
G1 X-0.556 Y-0.486 Z-0.167 F420.000
G1 X-0.450 Y-0.585 Z-0.180 F420.000
G1 X-0.328 Y-0.661 Z-0.193 F420.000
G1 X-0.192 Y-0.713 Z-0.206 F420.000
G1 X-0.050 Y-0.736 Z-0.218 F420.000
G1 X0.095 Y-0.732 Z-0.231 F420.000
G1 X0.236 Y-0.699 Z-0.244 F420.000
G1 X0.368 Y-0.640 Z-0.257 F420.000
G1 X0.486 Y-0.556 Z-0.270 F420.000
G1 X0.585 Y-0.450 Z-0.283 F420.000
G1 X0.661 Y-0.328 Z-0.296 F420.000
G1 X0.713 Y-0.192 Z-0.308 F420.000
G1 X0.736 Y-0.050 Z-0.321 F420.000
G1 X0.732 Y0.095 Z-0.334 F420.000
G1 X0.699 Y0.236 Z-0.347 F420.000
G1 X0.640 Y0.368 Z-0.360 F420.000
G1 X0.556 Y0.486 Z-0.373 F420.000
G1 X0.450 Y0.585 Z-0.386 F420.000
G1 X0.328 Y0.661 Z-0.398 F420.000
G1 X0.192 Y0.713 Z-0.411 F420.000
G1 X0.050 Y0.736 Z-0.424 F420.000
G1 X-0.095 Y0.732 Z-0.437 F420.000
G1 X-0.236 Y0.699 Z-0.450 F420.000
G1 X-0.368 Y0.640 Z-0.463 F420.000
G1 X-0.486 Y0.556 Z-0.476 F420.000
G1 X-0.585 Y0.450 Z-0.488 F420.000
G1 X-0.661 Y0.328 Z-0.501 F420.000
G1 X-0.713 Y0.192 Z-0.514 F420.000
G1 X-0.736 Y0.050 Z-0.527 F420.000
G1 X-0.732 Y-0.095 Z-0.540 F420.000
G1 X-0.699 Y-0.236 Z-0.553 F420.000
G1 X-0.640 Y-0.368 Z-0.565 F420.000
G1 X-0.556 Y-0.486 Z-0.578 F420.000
G1 X-0.450 Y-0.585 Z-0.591 F420.000
G1 X-0.328 Y-0.661 Z-0.604 F420.000
G1 X-0.192 Y-0.713 Z-0.617 F420.000
G1 X-0.050 Y-0.736 Z-0.630 F420.000
G1 X0.095 Y-0.732 Z-0.643 F420.000
G1 X0.236 Y-0.699 Z-0.655 F420.000
G1 X0.368 Y-0.640 Z-0.668 F420.000
G1 X0.486 Y-0.556 Z-0.681 F420.000
G1 X0.585 Y-0.450 Z-0.694 F420.000
G1 X0.661 Y-0.328 Z-0.707 F420.000
G1 X0.713 Y-0.192 Z-0.720 F420.000
G1 X0.736 Y-0.050 Z-0.733 F420.000
G1 X0.732 Y0.095 Z-0.745 F420.000
G1 X0.699 Y0.236 Z-0.758 F420.000
G1 X0.640 Y0.368 Z-0.771 F420.000
G1 X0.556 Y0.486 Z-0.784 F420.000
G1 X0.450 Y0.585 Z-0.797 F420.000
G1 X0.328 Y0.661 Z-0.810 F420.000
G1 X0.192 Y0.713 Z-0.822 F420.000
G1 X0.050 Y0.736 Z-0.835 F420.000
G1 X-0.095 Y0.732 Z-0.848 F420.000
G1 X-0.236 Y0.699 Z-0.861 F420.000
G1 X-0.368 Y0.640 Z-0.874 F420.000
G1 X-0.486 Y0.556 Z-0.887 F420.000
G1 X-0.585 Y0.450 Z-0.900 F420.000
G1 X-0.661 Y0.328 Z-0.912 F420.000
G1 X-0.713 Y0.192 Z-0.925 F420.000
G1 X-0.736 Y0.050 Z-0.938 F420.000
G1 X-0.732 Y-0.095 Z-0.951 F420.000
G1 X-0.699 Y-0.236 Z-0.964 F420.000
G1 X-0.640 Y-0.368 Z-0.977 F420.000
G1 X-0.556 Y-0.486 Z-0.990 F420.000
G1 X-0.450 Y-0.585 Z-1.002 F420.000
G1 X-0.328 Y-0.661 Z-1.015 F420.000
G1 X-0.192 Y-0.713 Z-1.028 F420.000
G1 X-0.050 Y-0.736 Z-1.041 F420.000
G1 X0.095 Y-0.732 Z-1.054 F420.000
G1 X0.236 Y-0.699 Z-1.067 F420.000
G1 X0.368 Y-0.640 Z-1.080 F420.000
G1 X0.486 Y-0.556 Z-1.092 F420.000
G1 X0.585 Y-0.450 Z-1.105 F420.000
G1 X0.661 Y-0.328 Z-1.118 F420.000
G1 X0.713 Y-0.192 Z-1.131 F420.000
G1 X0.736 Y-0.050 Z-1.144 F420.000
G1 X0.732 Y0.095 Z-1.157 F420.000
G1 X0.699 Y0.236 Z-1.169 F420.000
G1 X0.640 Y0.368 Z-1.182 F420.000
G1 X0.556 Y0.486 Z-1.195 F420.000
G1 X0.450 Y0.585 Z-1.208 F420.000
G1 X0.328 Y0.661 Z-1.221 F420.000
G1 X0.192 Y0.713 Z-1.234 F420.000
G1 X0.050 Y0.736 Z-1.247 F420.000
G1 X-0.095 Y0.732 Z-1.259 F420.000
G1 X-0.236 Y0.699 Z-1.272 F420.000
G1 X-0.368 Y0.640 Z-1.285 F420.000
G1 X-0.486 Y0.556 Z-1.298 F420.000
G1 X-0.585 Y0.450 Z-1.311 F420.000
G1 X-0.661 Y0.328 Z-1.324 F420.000
G1 X-0.713 Y0.192 Z-1.337 F420.000
G1 X-0.736 Y0.050 Z-1.349 F420.000
G1 X-0.732 Y-0.095 Z-1.362 F420.000
G1 X-0.699 Y-0.236 Z-1.375 F420.000
G1 X-0.640 Y-0.368 Z-1.388 F420.000
G1 X-0.556 Y-0.486 Z-1.401 F420.000
G1 X-0.450 Y-0.585 Z-1.414 F420.000
G1 X-0.328 Y-0.661 Z-1.427 F420.000
G1 X-0.192 Y-0.713 Z-1.439 F420.000
G1 X-0.050 Y-0.736 Z-1.452 F420.000
G1 X0.095 Y-0.732 Z-1.465 F420.000
G1 X0.236 Y-0.699 Z-1.478 F420.000
G1 X0.368 Y-0.640 Z-1.491 F420.000
G1 X0.486 Y-0.556 Z-1.504 F420.000
G1 X0.585 Y-0.450 Z-1.516 F420.000
G1 X0.661 Y-0.328 Z-1.529 F420.000
G1 X0.713 Y-0.192 Z-1.542 F420.000
G1 X0.736 Y-0.050 Z-1.555 F420.000
G1 X0.732 Y0.095 Z-1.568 F420.000
G1 X0.699 Y0.236 Z-1.581 F420.000
G1 X0.640 Y0.368 Z-1.594 F420.000
G1 X0.556 Y0.486 Z-1.606 F420.000
G1 X0.450 Y0.585 Z-1.619 F420.000
G1 X0.328 Y0.661 Z-1.632 F420.000
G1 X0.192 Y0.713 Z-1.645 F420.000
G1 X0.050 Y0.736 Z-1.658 F420.000
G1 X-0.095 Y0.732 Z-1.671 F420.000
G1 X-0.236 Y0.699 Z-1.684 F420.000
G1 X-0.368 Y0.640 Z-1.696 F420.000
G1 X-0.486 Y0.556 Z-1.709 F420.000
G1 X-0.585 Y0.450 Z-1.722 F420.000
G1 X-0.661 Y0.328 Z-1.735 F420.000
G1 X-0.713 Y0.192 Z-1.748 F420.000
G1 X-0.736 Y0.050 Z-1.761 F420.000
G1 X-0.732 Y-0.095 Z-1.774 F420.000
G1 X-0.699 Y-0.236 Z-1.786 F420.000
G1 X-0.640 Y-0.368 Z-1.799 F420.000
G1 X-0.556 Y-0.486 Z-1.812 F420.000
G1 X-0.450 Y-0.585 Z-1.825 F420.000
G1 X-0.328 Y-0.661 Z-1.838 F420.000
G1 X-0.192 Y-0.713 Z-1.851 F420.000
G1 X-0.050 Y-0.736 Z-1.863 F420.000
G1 X0.095 Y-0.732 Z-1.876 F420.000
G1 X0.236 Y-0.699 Z-1.889 F420.000
G1 X0.368 Y-0.640 Z-1.902 F420.000
G1 X0.486 Y-0.556 Z-1.915 F420.000
G1 X0.585 Y-0.450 Z-1.928 F420.000
G1 X0.661 Y-0.328 Z-1.941 F420.000
G1 X0.713 Y-0.192 Z-1.953 F420.000
G1 X0.736 Y-0.050 Z-1.966 F420.000
G1 X0.732 Y0.095 Z-1.979 F420.000
G1 X0.699 Y0.236 Z-1.992 F420.000
G1 X0.640 Y0.368 Z-2.005 F420.000
G1 X0.556 Y0.486 Z-2.018 F420.000
G1 X0.450 Y0.585 Z-2.031 F420.000
G1 X0.328 Y0.661 Z-2.043 F420.000
G1 X0.192 Y0.713 Z-2.056 F420.000
G1 X0.050 Y0.736 Z-2.069 F420.000
G1 X-0.095 Y0.732 Z-2.082 F420.000
G1 X-0.236 Y0.699 Z-2.095 F420.000
G1 X-0.368 Y0.640 Z-2.108 F420.000
G1 X-0.486 Y0.556 Z-2.120 F420.000
G1 X-0.585 Y0.450 Z-2.133 F420.000
G1 X-0.661 Y0.328 Z-2.146 F420.000
G1 X-0.713 Y0.192 Z-2.159 F420.000
G1 X-0.736 Y0.050 Z-2.172 F420.000
G1 X-0.732 Y-0.095 Z-2.185 F420.000
G1 X-0.699 Y-0.236 Z-2.198 F420.000
G1 X-0.640 Y-0.368 Z-2.210 F420.000
G1 X-0.556 Y-0.486 Z-2.223 F420.000
G1 X-0.450 Y-0.585 Z-2.236 F420.000
G1 X-0.328 Y-0.661 Z-2.249 F420.000
G1 X-0.192 Y-0.713 Z-2.262 F420.000
G1 X-0.050 Y-0.736 Z-2.275 F420.000
G1 X0.095 Y-0.732 Z-2.288 F420.000
G1 X0.236 Y-0.699 Z-2.300 F420.000
G1 X0.368 Y-0.640 Z-2.313 F420.000
G1 X0.486 Y-0.556 Z-2.326 F420.000
G1 X0.585 Y-0.450 Z-2.339 F420.000
G1 X0.661 Y-0.328 Z-2.352 F420.000
G1 X0.713 Y-0.192 Z-2.365 F420.000
G1 X0.736 Y-0.050 Z-2.378 F420.000
G1 X0.732 Y0.095 Z-2.390 F420.000
G1 X0.699 Y0.236 Z-2.403 F420.000
G1 X0.640 Y0.368 Z-2.416 F420.000
G1 X0.556 Y0.486 Z-2.429 F420.000
G1 X0.450 Y0.585 Z-2.442 F420.000
G1 X0.328 Y0.661 Z-2.455 F420.000
G1 X0.192 Y0.713 Z-2.467 F420.000
G1 X0.050 Y0.736 Z-2.480 F420.000
G1 X-0.095 Y0.732 Z-2.493 F420.000
G1 X-0.236 Y0.699 Z-2.506 F420.000
G1 X-0.368 Y0.640 Z-2.519 F420.000
G1 X-0.486 Y0.556 Z-2.532 F420.000
G1 X-0.585 Y0.450 Z-2.545 F420.000
G1 X-0.661 Y0.328 Z-2.557 F420.000
G1 X-0.713 Y0.192 Z-2.570 F420.000
G1 X-0.736 Y0.050 Z-2.583 F420.000
G1 X-0.732 Y-0.095 Z-2.596 F420.000
G1 X-0.699 Y-0.236 Z-2.609 F420.000
G1 X-0.640 Y-0.368 Z-2.622 F420.000
G1 X-0.556 Y-0.486 Z-2.635 F420.000
G1 X-0.450 Y-0.585 Z-2.647 F420.000
G1 X-0.328 Y-0.661 Z-2.660 F420.000
G1 X-0.192 Y-0.713 Z-2.673 F420.000
G1 X-0.050 Y-0.736 Z-2.686 F420.000
G1 X0.095 Y-0.732 Z-2.699 F420.000
G1 X0.236 Y-0.699 Z-2.712 F420.000
G1 X0.368 Y-0.640 Z-2.725 F420.000
G1 X0.486 Y-0.556 Z-2.737 F420.000
G1 X0.585 Y-0.450 Z-2.750 F420.000
G1 X0.661 Y-0.328 Z-2.763 F420.000
G1 X0.713 Y-0.192 Z-2.776 F420.000
G1 X0.736 Y-0.050 Z-2.789 F420.000
G1 X0.732 Y0.095 Z-2.802 F420.000
G1 X0.699 Y0.236 Z-2.814 F420.000
G1 X0.640 Y0.368 Z-2.827 F420.000
G1 X0.556 Y0.486 Z-2.840 F420.000
G1 X0.450 Y0.585 Z-2.853 F420.000
G1 X0.328 Y0.661 Z-2.866 F420.000
G1 X0.192 Y0.713 Z-2.879 F420.000
G1 X0.050 Y0.736 Z-2.892 F420.000
G1 X-0.095 Y0.732 Z-2.904 F420.000
G1 X-0.236 Y0.699 Z-2.917 F420.000
G1 X-0.368 Y0.640 Z-2.930 F420.000
G1 X-0.486 Y0.556 Z-2.943 F420.000
G1 X-0.585 Y0.450 Z-2.956 F420.000
G1 X-0.661 Y0.328 Z-2.969 F420.000
G1 X-0.713 Y0.192 Z-2.982 F420.000
G1 X-0.736 Y0.050 Z-2.994 F420.000
G1 X-0.732 Y-0.095 Z-3.007 F420.000
G1 X-0.699 Y-0.236 Z-3.020 F420.000
G1 X-0.640 Y-0.368 Z-3.033 F420.000
G1 X-0.556 Y-0.486 Z-3.046 F420.000
G1 X-0.450 Y-0.585 Z-3.059 F420.000
G1 X-0.328 Y-0.661 Z-3.072 F420.000
G1 X-0.192 Y-0.713 Z-3.084 F420.000
G1 X-0.050 Y-0.736 Z-3.097 F420.000
G1 X0.095 Y-0.732 Z-3.110 F420.000
G1 X0.236 Y-0.699 Z-3.123 F420.000
G1 X0.368 Y-0.640 Z-3.136 F420.000
G1 X0.486 Y-0.556 Z-3.149 F420.000
G1 X0.585 Y-0.450 Z-3.161 F420.000
G1 X0.661 Y-0.328 Z-3.174 F420.000
G1 X0.713 Y-0.192 Z-3.187 F420.000
G1 X0.736 Y-0.050 Z-3.200 F420.000
G1 X0.732 Y0.095 Z-3.213 F420.000
G1 X0.699 Y0.236 Z-3.226 F420.000
G1 X0.640 Y0.368 Z-3.239 F420.000
G1 X0.556 Y0.486 Z-3.251 F420.000
G1 X0.450 Y0.585 Z-3.264 F420.000
G1 X0.328 Y0.661 Z-3.277 F420.000
G1 X0.192 Y0.713 Z-3.290 F420.000
G1 X0.050 Y0.736 Z-3.303 F420.000
G1 X-0.095 Y0.732 Z-3.316 F420.000
G1 X-0.236 Y0.699 Z-3.329 F420.000
G1 X-0.368 Y0.640 Z-3.341 F420.000
G1 X-0.486 Y0.556 Z-3.354 F420.000
G1 X-0.585 Y0.450 Z-3.367 F420.000
G1 X-0.661 Y0.328 Z-3.380 F420.000
G1 X-0.713 Y0.192 Z-3.393 F420.000
G1 X-0.736 Y0.050 Z-3.406 F420.000
G1 X-0.732 Y-0.095 Z-3.418 F420.000
G1 X-0.699 Y-0.236 Z-3.431 F420.000
G1 X-0.640 Y-0.368 Z-3.444 F420.000
G1 X-0.556 Y-0.486 Z-3.457 F420.000
G1 X-0.450 Y-0.585 Z-3.470 F420.000
G1 X-0.328 Y-0.661 Z-3.483 F420.000
G1 X-0.192 Y-0.713 Z-3.496 F420.000
G1 X-0.050 Y-0.736 Z-3.500 F420.000
G1 X0.095 Y-0.732 Z-3.500 F420.000
G1 X0.236 Y-0.699 Z-3.500 F420.000
G1 X0.368 Y-0.640 Z-3.500 F420.000
G1 X0.486 Y-0.556 Z-3.500 F420.000
G1 X0.585 Y-0.450 Z-3.500 F420.000
G1 X0.661 Y-0.328 Z-3.500 F420.000
G1 X0.713 Y-0.192 Z-3.500 F420.000
G1 X0.736 Y-0.050 Z-3.500 F420.000
G1 X0.732 Y0.095 Z-3.500 F420.000
G1 X0.699 Y0.236 Z-3.500 F420.000
G1 X0.640 Y0.368 Z-3.500 F420.000
G1 X0.556 Y0.486 Z-3.500 F420.000
G1 X0.450 Y0.585 Z-3.500 F420.000
G1 X0.328 Y0.661 Z-3.500 F420.000
G1 X0.192 Y0.713 Z-3.500 F420.000
G1 X0.050 Y0.736 Z-3.500 F420.000
G1 X-0.095 Y0.732 Z-3.500 F420.000
G1 X-0.236 Y0.699 Z-3.500 F420.000
G1 X-0.368 Y0.640 Z-3.500 F420.000
G1 X-0.486 Y0.556 Z-3.500 F420.000
G1 X-0.585 Y0.450 Z-3.500 F420.000
G1 X-0.661 Y0.328 Z-3.500 F420.000
G1 X-0.713 Y0.192 Z-3.500 F420.000
G1 X-0.736 Y0.050 Z-3.500 F420.000
G1 X-0.732 Y-0.095 Z-3.500 F420.000
G1 X-0.699 Y-0.236 Z-3.500 F420.000
G1 X-0.640 Y-0.368 Z-3.500 F420.000
G1 X-0.556 Y-0.486 Z-3.500 F420.000
G1 X-0.450 Y-0.585 Z-3.500 F420.000
G1 X-0.328 Y-0.661 Z-3.500 F420.000
G1 X-0.192 Y-0.713 Z-3.500 F420.000
(Adaptive - depth: -3.500000)
G1 X0.000 Y-0.748 F420.000
G1 X0.041 Y-0.789 F420.000
G1 X0.090 Y-0.820 F420.000
G1 X0.203 Y-0.850 F420.000
G1 X0.316 Y-0.853 F420.000
G1 X0.485 Y-0.812 F420.000
G1 X0.703 Y-0.695 F420.000
G1 X0.857 Y-0.538 F420.000
G1 X0.925 Y-0.425 F420.000
G1 X0.970 Y-0.312 F420.000
G1 X1.011 Y-0.169 F420.000
G1 X1.038 Y0.030 F420.000
G1 X1.023 Y0.237 F420.000
G1 X0.966 Y0.406 F420.000
G1 X0.906 Y0.534 F420.000
G1 X0.808 Y0.677 F420.000
G1 X0.684 Y0.805 F420.000
G1 X0.538 Y0.914 F420.000
G1 X0.376 Y0.996 F420.000
G1 X0.199 Y1.041 F420.000
G1 X0.045 Y1.056 F420.000
G1 X-0.124 Y1.053 F420.000
G1 X-0.312 Y1.015 F420.000
G1 X-0.489 Y0.947 F420.000
G1 X-0.643 Y0.850 F420.000
G1 X-0.763 Y0.744 F420.000
G1 X-0.872 Y0.605 F420.000
G1 X-0.959 Y0.455 F420.000
G1 X-1.026 Y0.278 F420.000
G1 X-1.060 Y0.098 F420.000
G1 X-1.068 Y-0.079 F420.000
G1 X-1.034 Y-0.256 F420.000
G1 X-0.981 Y-0.402 F420.000
G1 X-0.906 Y-0.556 F420.000
G1 X-0.782 Y-0.714 F420.000
G1 X-0.654 Y-0.835 F420.000
G1 X-0.511 Y-0.947 F420.000
G1 X-0.308 Y-1.071 F420.000
G1 X0.105 Y-1.162 F420.000
G1 X0.274 Y-1.169 F420.000
G1 X0.519 Y-1.132 F420.000
G1 X0.748 Y-1.045 F420.000
G1 X0.891 Y-0.951 F420.000
G1 X1.000 Y-0.861 F420.000
G1 X1.124 Y-0.722 F420.000
G1 X1.229 Y-0.553 F420.000
G1 X1.308 Y-0.372 F420.000
G1 X1.361 Y-0.184 F420.000
G1 X1.383 Y0.008 F420.000
G1 X1.376 Y0.199 F420.000
G1 X1.338 Y0.391 F420.000
G1 X1.271 Y0.575 F420.000
G1 X1.184 Y0.748 F420.000
G1 X1.053 Y0.932 F420.000
G1 X0.914 Y1.079 F420.000
G1 X0.752 Y1.207 F420.000
G1 X0.560 Y1.305 F420.000
G1 X0.395 Y1.365 F420.000
G1 X0.203 Y1.402 F420.000
G1 X0.011 Y1.417 F420.000
G1 X-0.218 Y1.402 F420.000
G1 X-0.440 Y1.353 F420.000
G1 X-0.639 Y1.278 F420.000
G1 X-0.805 Y1.177 F420.000
G1 X-0.944 Y1.064 F420.000
G1 X-1.083 Y0.925 F420.000
G1 X-1.214 Y0.737 F420.000
G1 X-1.305 Y0.560 F420.000
G1 X-1.372 Y0.365 F420.000
G1 X-1.410 Y0.158 F420.000
G1 X-1.421 Y-0.045 F420.000
G1 X-1.402 Y-0.248 F420.000
G1 X-1.353 Y-0.447 F420.000
G1 X-1.274 Y-0.639 F420.000
G1 X-1.169 Y-0.816 F420.000
G1 X-1.041 Y-0.977 F420.000
G1 X-0.898 Y-1.124 F420.000
G1 X-0.699 Y-1.274 F420.000
G1 X-0.508 Y-1.383 F420.000
G1 X-0.297 Y-1.470 F420.000
G1 X-0.075 Y-1.526 F420.000
G1 X0.147 Y-1.556 F420.000
G1 X0.368 Y-1.556 F420.000
G1 X0.586 Y-1.511 F420.000
G1 X0.759 Y-1.455 F420.000
G1 X0.947 Y-1.361 F420.000
G1 X1.117 Y-1.241 F420.000
G1 X1.267 Y-1.109 F420.000
G1 X1.429 Y-0.936 F420.000
G1 X1.568 Y-0.729 F420.000
G1 X1.662 Y-0.519 F420.000
G1 X1.718 Y-0.327 F420.000
G1 X1.748 Y-0.132 F420.000
G1 X1.763 Y0.071 F420.000
G1 X1.748 Y0.316 F420.000
G1 X1.699 Y0.556 F420.000
G1 X1.613 Y0.782 F420.000
G1 X1.523 Y0.955 F420.000
G1 X1.391 Y1.143 F420.000
G1 X1.244 Y1.305 F420.000
G1 X1.060 Y1.459 F420.000
G1 X0.865 Y1.583 F420.000
G1 X0.658 Y1.680 F420.000
G1 X0.436 Y1.752 F420.000
G1 X0.211 Y1.793 F420.000
G1 X-0.015 Y1.808 F420.000
G1 X-0.244 Y1.793 F420.000
G1 X-0.470 Y1.756 F420.000
G1 X-0.707 Y1.680 F420.000
G1 X-0.925 Y1.579 F420.000
G1 X-1.124 Y1.440 F420.000
G1 X-1.271 Y1.312 F420.000
G1 X-1.417 Y1.143 F420.000
G1 X-1.541 Y0.962 F420.000
G1 X-1.654 Y0.741 F420.000
G1 X-1.733 Y0.519 F420.000
G1 X-1.786 Y0.286 F420.000
G1 X-1.808 Y0.045 F420.000
G1 X-1.801 Y-0.188 F420.000
G1 X-1.767 Y-0.421 F420.000
G1 X-1.703 Y-0.650 F420.000
G1 X-1.609 Y-0.868 F420.000
G1 X-1.489 Y-1.071 F420.000
G1 X-1.346 Y-1.259 F420.000
G1 X-1.180 Y-1.429 F420.000
G1 X-0.992 Y-1.575 F420.000
G1 X-0.789 Y-1.699 F420.000
G1 X-0.575 Y-1.805 F420.000
G1 X-0.338 Y-1.883 F420.000
G1 X-0.094 Y-1.936 F420.000
G1 X0.150 Y-1.962 F420.000
G1 X0.395 Y-1.955 F420.000
G1 X0.639 Y-1.921 F420.000
G1 X0.872 Y-1.842 F420.000
G1 X1.049 Y-1.763 F420.000
G1 X1.252 Y-1.650 F420.000
G1 X1.451 Y-1.504 F420.000
G1 X1.632 Y-1.335 F420.000
G1 X1.786 Y-1.139 F420.000
G1 X1.910 Y-0.947 F420.000
G1 X2.019 Y-0.722 F420.000
G1 X2.094 Y-0.489 F420.000
G1 X2.143 Y-0.252 F420.000
G1 X2.173 Y-0.004 F420.000
G1 X2.169 Y0.241 F420.000
G1 X2.139 Y0.485 F420.000
G1 X2.083 Y0.726 F420.000
G1 X1.989 Y0.955 F420.000
G1 X1.883 Y1.154 F420.000
G1 X1.748 Y1.361 F420.000
G1 X1.583 Y1.549 F420.000
G1 X1.402 Y1.718 F420.000
G1 X1.203 Y1.865 F420.000
G1 X0.985 Y1.989 F420.000
G1 X0.756 Y2.086 F420.000
G1 X0.515 Y2.158 F420.000
G1 X0.271 Y2.203 F420.000
G1 X0.023 Y2.226 F420.000
G1 X-0.222 Y2.218 F420.000
G1 X-0.466 Y2.184 F420.000
G1 X-0.707 Y2.128 F420.000
G1 X-0.940 Y2.041 F420.000
G1 X-1.162 Y1.932 F420.000
G1 X-1.365 Y1.789 F420.000
G1 X-1.534 Y1.647 F420.000
G1 X-1.699 Y1.462 F420.000
G1 X-1.850 Y1.267 F420.000
G1 X-1.974 Y1.053 F420.000
G1 X-2.075 Y0.827 F420.000
G1 X-2.154 Y0.590 F420.000
G1 X-2.207 Y0.346 F420.000
G1 X-2.233 Y0.098 F420.000
G1 X-2.233 Y-0.147 F420.000
G1 X-2.207 Y-0.391 F420.000
G1 X-2.154 Y-0.632 F420.000
G1 X-2.075 Y-0.865 F420.000
G1 X-1.970 Y-1.090 F420.000
G1 X-1.842 Y-1.301 F420.000
G1 X-1.692 Y-1.496 F420.000
G1 X-1.519 Y-1.677 F420.000
G1 X-1.335 Y-1.842 F420.000
G1 X-1.132 Y-1.985 F420.000
G1 X-0.917 Y-2.109 F420.000
G1 X-0.692 Y-2.211 F420.000
G1 X-0.455 Y-2.289 F420.000
G1 X-0.211 Y-2.346 F420.000
G1 X0.034 Y-2.376 F420.000
G1 X0.278 Y-2.383 F420.000
G1 X0.523 Y-2.365 F420.000
G1 X0.767 Y-2.323 F420.000
G1 X1.004 Y-2.256 F420.000
G1 X1.233 Y-2.165 F420.000
G1 X1.447 Y-2.041 F420.000
G1 X1.643 Y-1.906 F420.000
G1 X1.835 Y-1.748 F420.000
G1 X2.004 Y-1.564 F420.000
G1 X2.154 Y-1.365 F420.000
G1 X2.282 Y-1.150 F420.000
G1 X2.395 Y-0.929 F420.000
G1 X2.481 Y-0.695 F420.000
G1 X2.545 Y-0.455 F420.000
G1 X2.586 Y-0.211 F420.000
G1 X2.605 Y0.034 F420.000
G1 X2.598 Y0.278 F420.000
G1 X2.568 Y0.523 F420.000
G1 X2.515 Y0.763 F420.000
G1 X2.436 Y0.996 F420.000
G1 X2.338 Y1.222 F420.000
G1 X2.218 Y1.436 F420.000
G1 X2.075 Y1.639 F420.000
G1 X1.914 Y1.827 F420.000
G1 X1.737 Y2.000 F420.000
G1 X1.541 Y2.154 F420.000
G1 X1.331 Y2.289 F420.000
G1 X1.109 Y2.402 F420.000
G1 X0.876 Y2.496 F420.000
G1 X0.635 Y2.568 F420.000
G1 X0.391 Y2.624 F420.000
G1 X0.143 Y2.654 F420.000
G1 X-0.102 Y2.665 F420.000
G1 X-0.346 Y2.658 F420.000
G1 X-0.590 Y2.617 F420.000
G1 X-0.831 Y2.560 F420.000
G1 X-1.064 Y2.477 F420.000
G1 X-1.286 Y2.372 F420.000
G1 X-1.500 Y2.248 F420.000
G1 X-1.699 Y2.102 F420.000
G1 X-1.883 Y1.936 F420.000
G1 X-2.053 Y1.756 F420.000
G1 X-2.203 Y1.560 F420.000
G1 X-2.335 Y1.350 F420.000
G1 X-2.447 Y1.128 F420.000
G1 X-2.538 Y0.895 F420.000
G1 X-2.605 Y0.654 F420.000
G1 X-2.650 Y0.410 F420.000
G1 X-2.673 Y0.162 F420.000
G1 X-2.680 Y-0.083 F420.000
G1 X-2.662 Y-0.327 F420.000
G1 X-2.620 Y-0.571 F420.000
G1 X-2.560 Y-0.812 F420.000
G1 X-2.477 Y-1.045 F420.000
G1 X-2.376 Y-1.271 F420.000
G1 X-2.256 Y-1.485 F420.000
G1 X-2.117 Y-1.688 F420.000
G1 X-1.959 Y-1.880 F420.000
G1 X-1.786 Y-2.056 F420.000
G1 X-1.598 Y-2.218 F420.000
G1 X-1.395 Y-2.365 F420.000
G1 X-1.180 Y-2.492 F420.000
G1 X-0.955 Y-2.602 F420.000
G1 X-0.722 Y-2.692 F420.000
G1 X-0.481 Y-2.759 F420.000
G1 X-0.237 Y-2.808 F420.000
G1 X0.008 Y-2.835 F420.000
G1 X0.252 Y-2.838 F420.000
G1 X0.496 Y-2.823 F420.000
G1 X0.741 Y-2.786 F420.000
G1 X0.981 Y-2.726 F420.000
G1 X1.214 Y-2.647 F420.000
G1 X1.440 Y-2.545 F420.000
G1 X1.658 Y-2.425 F420.000
G1 X1.865 Y-2.286 F420.000
G1 X2.056 Y-2.132 F420.000
G1 X2.237 Y-1.959 F420.000
G1 X2.402 Y-1.771 F420.000
G1 X2.549 Y-1.571 F420.000
G1 X2.677 Y-1.357 F420.000
G1 X2.786 Y-1.135 F420.000
G1 X2.876 Y-0.902 F420.000
G1 X2.947 Y-0.662 F420.000
G1 X3.008 Y-0.417 F420.000
G1 X3.041 Y-0.169 F420.000
G1 X3.056 Y0.075 F420.000
G1 X3.056 Y0.320 F420.000
G1 X3.034 Y0.564 F420.000
G1 X2.981 Y0.805 F420.000
G1 X2.914 Y1.041 F420.000
G1 X2.823 Y1.271 F420.000
G1 X2.711 Y1.492 F420.000
G1 X2.586 Y1.707 F420.000
G1 X2.440 Y1.906 F420.000
G1 X2.278 Y2.094 F420.000
G1 X2.105 Y2.271 F420.000
G1 X1.914 Y2.432 F420.000
G1 X1.711 Y2.575 F420.000
G1 X1.496 Y2.703 F420.000
G1 X1.041 Y2.914 F420.000
G1 X0.805 Y2.992 F420.000
G1 X0.564 Y3.053 F420.000
G1 X0.320 Y3.098 F420.000
G1 X0.071 Y3.124 F420.000
G1 X-0.173 Y3.132 F420.000
G1 X-0.417 Y3.113 F420.000
G1 X-0.662 Y3.079 F420.000
G1 X-0.902 Y3.023 F420.000
G1 X-1.135 Y2.944 F420.000
G1 X-1.365 Y2.850 F420.000
G1 X-1.583 Y2.733 F420.000
G1 X-1.789 Y2.602 F420.000
G1 X-1.985 Y2.451 F420.000
G1 X-2.169 Y2.286 F420.000
G1 X-2.342 Y2.109 F420.000
G1 X-2.500 Y1.917 F420.000
G1 X-2.643 Y1.714 F420.000
G1 X-2.771 Y1.500 F420.000
G1 X-2.880 Y1.278 F420.000
G1 X-2.974 Y1.049 F420.000
G1 X-3.049 Y0.812 F420.000
G1 X-3.105 Y0.568 F420.000
G1 X-3.132 Y0.320 F420.000
G1 X-3.143 Y0.071 F420.000
G1 X-3.143 Y-0.173 F420.000
G1 X-3.117 Y-0.417 F420.000
G1 X-3.071 Y-0.662 F420.000
G1 X-2.936 Y-1.139 F420.000
G1 X-2.842 Y-1.368 F420.000
G1 X-2.733 Y-1.590 F420.000
G1 X-2.602 Y-1.801 F420.000
G1 X-2.459 Y-2.004 F420.000
G1 X-2.301 Y-2.195 F420.000
G1 X-2.128 Y-2.372 F420.000
G1 X-1.940 Y-2.538 F420.000
G1 X-1.741 Y-2.688 F420.000
G1 X-1.530 Y-2.820 F420.000
G1 X-1.083 Y-3.045 F420.000
G1 X-0.850 Y-3.132 F420.000
G1 X-0.609 Y-3.203 F420.000
G1 X-0.365 Y-3.259 F420.000
G1 X-0.117 Y-3.289 F420.000
G1 X0.128 Y-3.305 F420.000
G1 X0.372 Y-3.301 F420.000
G1 X0.617 Y-3.274 F420.000
G1 X0.861 Y-3.233 F420.000
G1 X1.102 Y-3.173 F420.000
G1 X1.335 Y-3.094 F420.000
G1 X1.560 Y-2.996 F420.000
G1 X1.782 Y-2.887 F420.000
G1 X1.992 Y-2.759 F420.000
G1 X2.195 Y-2.617 F420.000
G1 X2.391 Y-2.462 F420.000
G1 X2.571 Y-2.293 F420.000
G1 X2.737 Y-2.105 F420.000
G1 X2.891 Y-1.910 F420.000
G1 X3.026 Y-1.703 F420.000
G1 X3.143 Y-1.485 F420.000
G1 X3.244 Y-1.259 F420.000
G1 X3.335 Y-1.026 F420.000
G1 X3.406 Y-0.786 F420.000
G1 X3.459 Y-0.541 F420.000
G1 X3.496 Y-0.293 F420.000
G1 X3.526 Y0.199 F420.000
G1 X3.515 Y0.444 F420.000
G1 X3.489 Y0.688 F420.000
G1 X3.432 Y0.929 F420.000
G1 X3.365 Y1.165 F420.000
G1 X3.278 Y1.398 F420.000
G1 X3.169 Y1.620 F420.000
G1 X2.914 Y2.045 F420.000
G1 X2.763 Y2.241 F420.000
G1 X2.598 Y2.425 F420.000
G1 X2.421 Y2.602 F420.000
G1 X2.233 Y2.763 F420.000
G1 X2.034 Y2.910 F420.000
G1 X1.823 Y3.045 F420.000
G1 X1.383 Y3.278 F420.000
G1 X1.154 Y3.372 F420.000
G1 X0.917 Y3.451 F420.000
G1 X0.677 Y3.519 F420.000
G1 X0.432 Y3.560 F420.000
G1 X0.184 Y3.590 F420.000
G1 X-0.060 Y3.605 F420.000
G1 X-0.305 Y3.598 F420.000
G1 X-0.549 Y3.575 F420.000
G1 X-0.793 Y3.534 F420.000
G1 X-1.034 Y3.477 F420.000
G1 X-1.271 Y3.402 F420.000
G1 X-1.500 Y3.312 F420.000
G1 X-1.722 Y3.207 F420.000
G1 X-1.936 Y3.086 F420.000
G1 X-2.135 Y2.940 F420.000
G1 X-2.327 Y2.782 F420.000
G1 X-2.511 Y2.617 F420.000
G1 X-2.680 Y2.432 F420.000
G1 X-2.838 Y2.241 F420.000
G1 X-3.117 Y1.831 F420.000
G1 X-3.237 Y1.613 F420.000
G1 X-3.342 Y1.387 F420.000
G1 X-3.436 Y1.158 F420.000
G1 X-3.564 Y0.673 F420.000
G1 X-3.605 Y0.425 F420.000
G1 X-3.624 Y0.177 F420.000
G1 X-3.628 Y-0.068 F420.000
G1 X-3.613 Y-0.312 F420.000
G1 X-3.583 Y-0.556 F420.000
G1 X-3.477 Y-1.038 F420.000
G1 X-3.398 Y-1.271 F420.000
G1 X-3.308 Y-1.500 F420.000
G1 X-3.207 Y-1.726 F420.000
G1 X-3.086 Y-1.944 F420.000
G1 X-2.947 Y-2.147 F420.000
G1 X-2.797 Y-2.346 F420.000
G1 X-2.632 Y-2.530 F420.000
G1 X-2.459 Y-2.707 F420.000
G1 X-2.274 Y-2.872 F420.000
G1 X-2.079 Y-3.026 F420.000
G1 X-1.872 Y-3.165 F420.000
G1 X-1.658 Y-3.293 F420.000
G1 X-1.436 Y-3.406 F420.000
G1 X-1.207 Y-3.504 F420.000
G1 X-0.974 Y-3.586 F420.000
G1 X-0.733 Y-3.654 F420.000
G1 X-0.489 Y-3.707 F420.000
G1 X-0.241 Y-3.744 F420.000
G1 X0.004 Y-3.767 F420.000
G1 X0.248 Y-3.778 F420.000
G1 X0.492 Y-3.774 F420.000
G1 X0.981 Y-3.707 F420.000
G1 X1.222 Y-3.650 F420.000
G1 X1.459 Y-3.575 F420.000
G1 X1.688 Y-3.485 F420.000
G1 X1.914 Y-3.380 F420.000
G1 X2.128 Y-3.259 F420.000
G1 X2.335 Y-3.124 F420.000
G1 X2.534 Y-2.977 F420.000
G1 X2.722 Y-2.816 F420.000
G1 X2.898 Y-2.643 F420.000
G1 X3.064 Y-2.459 F420.000
G1 X3.214 Y-2.263 F420.000
G1 X3.485 Y-1.846 F420.000
G1 X3.602 Y-1.624 F420.000
G1 X3.703 Y-1.398 F420.000
G1 X3.793 Y-1.165 F420.000
G1 X3.868 Y-0.929 F420.000
G1 X3.929 Y-0.688 F420.000
G1 X3.977 Y-0.444 F420.000
G1 X4.008 Y0.049 F420.000
G1 X4.008 Y0.293 F420.000
G1 X3.985 Y0.538 F420.000
G1 X3.947 Y0.782 F420.000
G1 X3.898 Y1.023 F420.000
G1 X3.831 Y1.259 F420.000
G1 X3.748 Y1.492 F420.000
G1 X3.650 Y1.722 F420.000
G1 X3.538 Y1.944 F420.000
G1 X3.414 Y2.158 F420.000
G1 X3.274 Y2.365 F420.000
G1 X3.124 Y2.560 F420.000
G1 X2.959 Y2.748 F420.000
G1 X2.782 Y2.925 F420.000
G1 X2.594 Y3.090 F420.000
G1 X2.398 Y3.244 F420.000
G1 X2.192 Y3.383 F420.000
G1 X1.759 Y3.632 F420.000
G1 X1.534 Y3.737 F420.000
G1 X1.301 Y3.831 F420.000
G1 X1.064 Y3.914 F420.000
G1 X0.823 Y3.981 F420.000
G1 X0.579 Y4.038 F420.000
G1 X0.331 Y4.068 F420.000
G1 X0.083 Y4.086 F420.000
G1 X-0.162 Y4.090 F420.000
G1 X-0.406 Y4.075 F420.000
G1 X-0.895 Y4.008 F420.000
G1 X-1.135 Y3.951 F420.000
G1 X-1.372 Y3.883 F420.000
G1 X-1.605 Y3.805 F420.000
G1 X-2.045 Y3.586 F420.000
G1 X-2.256 Y3.459 F420.000
G1 X-2.455 Y3.312 F420.000
G1 X-2.647 Y3.154 F420.000
G1 X-2.827 Y2.985 F420.000
G1 X-2.996 Y2.801 F420.000
G1 X-3.308 Y2.414 F420.000
G1 X-3.451 Y2.211 F420.000
G1 X-3.583 Y2.000 F420.000
G1 X-3.801 Y1.553 F420.000
G1 X-3.891 Y1.320 F420.000
G1 X-3.966 Y1.083 F420.000
G1 X-4.030 Y0.842 F420.000
G1 X-4.079 Y0.598 F420.000
G1 X-4.109 Y0.102 F420.000
G1 X-4.086 Y-0.387 F420.000
G1 X-4.011 Y-0.876 F420.000
G1 X-3.955 Y-1.117 F420.000
G1 X-3.887 Y-1.353 F420.000
G1 X-3.808 Y-1.586 F420.000
G1 X-3.598 Y-2.034 F420.000
G1 X-3.474 Y-2.248 F420.000
G1 X-3.335 Y-2.451 F420.000
G1 X-3.184 Y-2.647 F420.000
G1 X-3.023 Y-2.835 F420.000
G1 X-2.850 Y-3.011 F420.000
G1 X-2.665 Y-3.177 F420.000
G1 X-2.474 Y-3.335 F420.000
G1 X-2.271 Y-3.481 F420.000
G1 X-2.060 Y-3.617 F420.000
G1 X-1.846 Y-3.741 F420.000
G1 X-1.624 Y-3.853 F420.000
G1 X-1.395 Y-3.955 F420.000
G1 X-1.162 Y-4.041 F420.000
G1 X-0.925 Y-4.117 F420.000
G1 X-0.684 Y-4.177 F420.000
G1 X-0.440 Y-4.226 F420.000
G1 X-0.192 Y-4.259 F420.000
G1 X0.053 Y-4.282 F420.000
G1 X0.541 Y-4.267 F420.000
G1 X1.030 Y-4.199 F420.000
G1 X1.271 Y-4.143 F420.000
G1 X1.508 Y-4.075 F420.000
G1 X1.741 Y-3.996 F420.000
G1 X1.970 Y-3.902 F420.000
G1 X2.402 Y-3.662 F420.000
G1 X2.805 Y-3.380 F420.000
G1 X2.996 Y-3.222 F420.000
G1 X3.177 Y-3.053 F420.000
G1 X3.350 Y-2.876 F420.000
G1 X3.665 Y-2.492 F420.000
G1 X3.801 Y-2.282 F420.000
G1 X4.041 Y-1.850 F420.000
G1 X4.233 Y-1.391 F420.000
G1 X4.312 Y-1.154 F420.000
G1 X4.380 Y-0.914 F420.000
G1 X4.462 Y-0.421 F420.000
G1 X4.485 Y-0.173 F420.000
G1 X4.496 Y0.071 F420.000
G1 X4.492 Y0.316 F420.000
G1 X4.474 Y0.560 F420.000
G1 X4.444 Y0.805 F420.000
G1 X4.398 Y1.049 F420.000
G1 X4.342 Y1.289 F420.000
G1 X4.271 Y1.526 F420.000
G1 X4.075 Y1.981 F420.000
G1 X3.959 Y2.199 F420.000
G1 X3.692 Y2.617 F420.000
G1 X3.376 Y3.000 F420.000
G1 X3.203 Y3.180 F420.000
G1 X3.019 Y3.350 F420.000
G1 X2.632 Y3.662 F420.000
G1 X2.214 Y3.932 F420.000
G1 X2.000 Y4.056 F420.000
G1 X1.778 Y4.169 F420.000
G1 X1.553 Y4.271 F420.000
G1 X1.320 Y4.361 F420.000
G1 X0.838 Y4.489 F420.000
G1 X0.594 Y4.534 F420.000
G1 X0.346 Y4.560 F420.000
G1 X0.098 Y4.575 F420.000
G1 X-0.391 Y4.564 F420.000
G1 X-0.635 Y4.549 F420.000
G1 X-0.880 Y4.519 F420.000
G1 X-1.361 Y4.410 F420.000
G1 X-1.598 Y4.338 F420.000
G1 X-2.053 Y4.150 F420.000
G1 X-2.274 Y4.038 F420.000
G1 X-2.684 Y3.759 F420.000
G1 X-2.876 Y3.602 F420.000
G1 X-3.060 Y3.436 F420.000
G1 X-3.237 Y3.263 F420.000
G1 X-3.402 Y3.079 F420.000
G1 X-3.714 Y2.692 F420.000
G1 X-3.857 Y2.489 F420.000
G1 X-4.113 Y2.064 F420.000
G1 X-4.320 Y1.609 F420.000
G1 X-4.406 Y1.376 F420.000
G1 X-4.477 Y1.135 F420.000
G1 X-4.568 Y0.643 F420.000
G1 X-4.590 Y0.395 F420.000
G1 X-4.594 Y-0.098 F420.000
G1 X-4.583 Y-0.342 F420.000
G1 X-4.523 Y-0.831 F420.000
G1 X-4.474 Y-1.071 F420.000
G1 X-4.414 Y-1.312 F420.000
G1 X-4.342 Y-1.549 F420.000
G1 X-4.259 Y-1.782 F420.000
G1 X-4.165 Y-2.011 F420.000
G1 X-3.929 Y-2.444 F420.000
G1 X-3.650 Y-2.853 F420.000
G1 X-3.496 Y-3.045 F420.000
G1 X-3.331 Y-3.229 F420.000
G1 X-3.158 Y-3.406 F420.000
G1 X-2.974 Y-3.575 F420.000
G1 X-2.782 Y-3.733 F420.000
G1 X-2.376 Y-4.019 F420.000
G1 X-2.162 Y-4.147 F420.000
G1 X-1.940 Y-4.263 F420.000
G1 X-1.714 Y-4.368 F420.000
G1 X-1.481 Y-4.462 F420.000
G1 X-1.244 Y-4.541 F420.000
G1 X-1.004 Y-4.609 F420.000
G1 X-0.759 Y-4.665 F420.000
G1 X-0.515 Y-4.711 F420.000
G1 X-0.267 Y-4.741 F420.000
G1 X-0.019 Y-4.759 F420.000
G1 X0.226 Y-4.763 F420.000
G1 X0.470 Y-4.756 F420.000
G1 X0.714 Y-4.737 F420.000
G1 X0.959 Y-4.703 F420.000
G1 X1.199 Y-4.658 F420.000
G1 X1.440 Y-4.602 F420.000
G1 X1.677 Y-4.530 F420.000
G1 X1.910 Y-4.447 F420.000
G1 X2.139 Y-4.353 F420.000
G1 X2.361 Y-4.248 F420.000
G1 X2.579 Y-4.132 F420.000
G1 X2.789 Y-4.004 F420.000
G1 X2.992 Y-3.865 F420.000
G1 X3.188 Y-3.714 F420.000
G1 X3.376 Y-3.553 F420.000
G1 X3.556 Y-3.383 F420.000
G1 X3.729 Y-3.203 F420.000
G1 X4.045 Y-2.820 F420.000
G1 X4.188 Y-2.617 F420.000
G1 X4.320 Y-2.406 F420.000
G1 X4.440 Y-2.188 F420.000
G1 X4.549 Y-1.966 F420.000
G1 X4.647 Y-1.737 F420.000
G1 X4.733 Y-1.504 F420.000
G1 X4.808 Y-1.267 F420.000
G1 X4.872 Y-1.026 F420.000
G1 X4.921 Y-0.782 F420.000
G1 X4.959 Y-0.534 F420.000
G1 X4.985 Y-0.286 F420.000
G1 X4.996 Y-0.038 F420.000
G1 X4.996 Y0.207 F420.000
G1 X4.962 Y0.695 F420.000
G1 X4.929 Y0.940 F420.000
G1 X4.883 Y1.184 F420.000
G1 X4.741 Y1.658 F420.000
G1 X4.650 Y1.887 F420.000
G1 X4.440 Y2.335 F420.000
G1 X4.320 Y2.549 F420.000
G1 X4.049 Y2.966 F420.000
G1 X3.898 Y3.162 F420.000
G1 X3.564 Y3.526 F420.000
G1 X3.383 Y3.695 F420.000
G1 X2.996 Y4.008 F420.000
G1 X2.590 Y4.289 F420.000
G1 X2.380 Y4.421 F420.000
G1 X2.162 Y4.541 F420.000
G1 X1.707 Y4.744 F420.000
G1 X1.474 Y4.831 F420.000
G1 X1.233 Y4.902 F420.000
G1 X0.992 Y4.962 F420.000
G1 X0.748 Y5.011 F420.000
G1 X0.500 Y5.049 F420.000
G1 X0.252 Y5.071 F420.000
G1 X0.004 Y5.083 F420.000
G1 X-0.241 Y5.083 F420.000
G1 X-0.485 Y5.068 F420.000
G1 X-0.729 Y5.041 F420.000
G1 X-1.218 Y4.962 F420.000
G1 X-1.695 Y4.842 F420.000
G1 X-2.154 Y4.654 F420.000
G1 X-2.376 Y4.545 F420.000
G1 X-2.594 Y4.425 F420.000
G1 X-2.805 Y4.293 F420.000
G1 X-3.203 Y4.000 F420.000
G1 X-3.560 Y3.654 F420.000
G1 X-3.729 Y3.474 F420.000
G1 X-4.045 Y3.090 F420.000
G1 X-4.331 Y2.684 F420.000
G1 X-4.579 Y2.252 F420.000
G1 X-4.692 Y2.030 F420.000
G1 X-4.872 Y1.564 F420.000
G1 X-4.947 Y1.327 F420.000
G1 X-5.008 Y1.086 F420.000
G1 X-5.045 Y0.838 F420.000
G1 X-5.090 Y0.342 F420.000
G1 X-5.098 Y-0.150 F420.000
G1 X-5.068 Y-0.639 F420.000
G1 X-4.985 Y-1.128 F420.000
G1 X-4.929 Y-1.368 F420.000
G1 X-4.778 Y-1.838 F420.000
G1 X-4.684 Y-2.068 F420.000
G1 X-4.466 Y-2.511 F420.000
G1 X-4.342 Y-2.726 F420.000
G1 X-4.207 Y-2.932 F420.000
G1 X-3.906 Y-3.323 F420.000
G1 X-3.748 Y-3.515 F420.000
G1 X-3.579 Y-3.695 F420.000
G1 X-3.402 Y-3.868 F420.000
G1 X-3.019 Y-4.184 F420.000
G1 X-2.816 Y-4.327 F420.000
G1 X-2.391 Y-4.586 F420.000
G1 X-1.944 Y-4.805 F420.000
G1 X-1.714 Y-4.902 F420.000
G1 X-1.481 Y-4.989 F420.000
G1 X-1.244 Y-5.064 F420.000
G1 X-1.004 Y-5.128 F420.000
G1 X-0.515 Y-5.226 F420.000
G1 X-0.019 Y-5.263 F420.000
G1 X0.470 Y-5.259 F420.000
G1 X0.714 Y-5.241 F420.000
G1 X1.203 Y-5.173 F420.000
G1 X1.444 Y-5.124 F420.000
G1 X1.684 Y-5.064 F420.000
G1 X1.921 Y-4.992 F420.000
G1 X2.154 Y-4.910 F420.000
G1 X2.602 Y-4.699 F420.000
G1 X2.816 Y-4.579 F420.000
G1 X3.229 Y-4.308 F420.000
G1 X3.617 Y-4.000 F420.000
G1 X3.805 Y-3.838 F420.000
G1 X3.981 Y-3.665 F420.000
G1 X4.150 Y-3.485 F420.000
G1 X4.466 Y-3.102 F420.000
G1 X4.613 Y-2.898 F420.000
G1 X4.868 Y-2.474 F420.000
G1 X4.981 Y-2.252 F420.000
G1 X5.169 Y-1.789 F420.000
G1 X5.316 Y-1.312 F420.000
G1 X5.421 Y-0.823 F420.000
G1 X5.459 Y-0.575 F420.000
G1 X5.485 Y-0.327 F420.000
G1 X5.508 Y0.165 F420.000
G1 X5.504 Y0.410 F420.000
G1 X5.489 Y0.654 F420.000
G1 X5.406 Y1.143 F420.000
G1 X5.350 Y1.383 F420.000
G1 X5.278 Y1.620 F420.000
G1 X5.109 Y2.083 F420.000
G1 X5.008 Y2.308 F420.000
G1 X4.782 Y2.752 F420.000
G1 X4.519 Y3.173 F420.000
G1 X4.218 Y3.568 F420.000
G1 X3.868 Y3.921 F420.000
G1 X3.500 Y4.256 F420.000
G1 X3.105 Y4.560 F420.000
G1 X2.902 Y4.703 F420.000
G1 X2.470 Y4.947 F420.000
G1 X2.019 Y5.158 F420.000
G1 X1.786 Y5.252 F420.000
G1 X1.312 Y5.410 F420.000
G1 X1.071 Y5.474 F420.000
G1 X0.575 Y5.553 F420.000
G1 X0.327 Y5.575 F420.000
G1 X0.079 Y5.586 F420.000
G1 X-0.165 Y5.586 F420.000
G1 X-0.654 Y5.560 F420.000
G1 X-1.143 Y5.492 F420.000
G1 X-1.383 Y5.447 F420.000
G1 X-1.624 Y5.391 F420.000
G1 X-1.861 Y5.323 F420.000
G1 X-2.320 Y5.132 F420.000
G1 X-2.759 Y4.906 F420.000
G1 X-2.970 Y4.778 F420.000
G1 X-3.380 Y4.496 F420.000
G1 X-3.759 Y4.180 F420.000
G1 X-3.932 Y4.004 F420.000
G1 X-4.259 Y3.632 F420.000
G1 X-4.417 Y3.440 F420.000
G1 X-4.707 Y3.038 F420.000
G1 X-4.842 Y2.827 F420.000
G1 X-4.966 Y2.613 F420.000
G1 X-5.180 Y2.165 F420.000
G1 X-5.274 Y1.936 F420.000
G1 X-5.425 Y1.459 F420.000
G1 X-5.485 Y1.218 F420.000
G1 X-5.534 Y0.974 F420.000
G1 X-5.571 Y0.726 F420.000
G1 X-5.598 Y0.477 F420.000
G1 X-5.613 Y0.229 F420.000
G1 X-5.617 Y-0.015 F420.000
G1 X-5.609 Y-0.259 F420.000
G1 X-5.568 Y-0.748 F420.000
G1 X-5.485 Y-1.233 F420.000
G1 X-5.432 Y-1.474 F420.000
G1 X-5.368 Y-1.711 F420.000
G1 X-5.195 Y-2.173 F420.000
G1 X-4.985 Y-2.620 F420.000
G1 X-4.737 Y-3.049 F420.000
G1 X-4.459 Y-3.459 F420.000
G1 X-4.308 Y-3.654 F420.000
G1 X-3.977 Y-4.026 F420.000
G1 X-3.801 Y-4.203 F420.000
G1 X-3.214 Y-4.665 F420.000
G1 X-2.789 Y-4.929 F420.000
G1 X-2.353 Y-5.165 F420.000
G1 X-1.669 Y-5.462 F420.000
G1 X-1.436 Y-5.545 F420.000
G1 X-0.955 Y-5.669 F420.000
G1 X-0.711 Y-5.714 F420.000
G1 X-0.214 Y-5.767 F420.000
G1 X0.030 Y-5.778 F420.000
G1 X0.519 Y-5.771 F420.000
G1 X0.763 Y-5.752 F420.000
G1 X1.252 Y-5.684 F420.000
G1 X1.733 Y-5.579 F420.000
G1 X1.970 Y-5.515 F420.000
G1 X2.432 Y-5.338 F420.000
G1 X2.658 Y-5.237 F420.000
G1 X3.090 Y-4.996 F420.000
G1 X3.301 Y-4.868 F420.000
G1 X3.703 Y-4.575 F420.000
G1 X3.895 Y-4.421 F420.000
G1 X4.263 Y-4.090 F420.000
G1 X4.609 Y-3.733 F420.000
G1 X4.914 Y-3.342 F420.000
G1 X5.056 Y-3.139 F420.000
G1 X5.305 Y-2.707 F420.000
G1 X5.519 Y-2.259 F420.000
G1 X5.699 Y-1.797 F420.000
G1 X5.842 Y-1.320 F420.000
G1 X5.947 Y-0.831 F420.000
G1 X5.985 Y-0.583 F420.000
G1 X6.011 Y-0.335 F420.000
G1 X6.019 Y0.158 F420.000
G1 X5.992 Y0.647 F420.000
G1 X5.962 Y0.891 F420.000
G1 X5.872 Y1.376 F420.000
G1 X5.744 Y1.853 F420.000
G1 X5.579 Y2.316 F420.000
G1 X5.361 Y2.759 F420.000
G1 X5.244 Y2.977 F420.000
G1 X4.974 Y3.395 F420.000
G1 X4.673 Y3.786 F420.000
G1 X4.511 Y3.974 F420.000
G1 X4.169 Y4.331 F420.000
G1 X3.989 Y4.500 F420.000
G1 X3.609 Y4.820 F420.000
G1 X3.207 Y5.113 F420.000
G1 X3.000 Y5.248 F420.000
G1 X2.560 Y5.481 F420.000
G1 X2.105 Y5.684 F420.000
G1 X1.635 Y5.850 F420.000
G1 X1.154 Y5.977 F420.000
G1 X0.910 Y6.026 F420.000
G1 X0.414 Y6.079 F420.000
G1 X-0.079 Y6.098 F420.000
G1 X-0.568 Y6.075 F420.000
G1 X-1.056 Y6.026 F420.000
G1 X-1.301 Y5.989 F420.000
G1 X-1.782 Y5.880 F420.000
G1 X-2.019 Y5.812 F420.000
G1 X-2.477 Y5.628 F420.000
G1 X-2.699 Y5.523 F420.000
G1 X-3.132 Y5.282 F420.000
G1 X-3.541 Y5.004 F420.000
G1 X-3.932 Y4.695 F420.000
G1 X-4.117 Y4.530 F420.000
G1 X-4.293 Y4.357 F420.000
G1 X-4.462 Y4.177 F420.000
G1 X-4.786 Y3.801 F420.000
G1 X-5.079 Y3.398 F420.000
G1 X-5.350 Y2.981 F420.000
G1 X-5.579 Y2.538 F420.000
G1 X-5.680 Y2.308 F420.000
G1 X-5.853 Y1.838 F420.000
G1 X-5.925 Y1.598 F420.000
G1 X-5.985 Y1.357 F420.000
G1 X-6.034 Y1.113 F420.000
G1 X-6.071 Y0.865 F420.000
G1 X-6.098 Y0.617 F420.000
G1 X-6.124 Y-0.124 F420.000
G1 X-6.094 Y-0.613 F420.000
G1 X-6.068 Y-0.857 F420.000
G1 X-5.985 Y-1.342 F420.000
G1 X-5.932 Y-1.583 F420.000
G1 X-5.797 Y-2.056 F420.000
G1 X-5.609 Y-2.515 F420.000
G1 X-5.387 Y-2.959 F420.000
G1 X-5.132 Y-3.383 F420.000
G1 X-4.846 Y-3.789 F420.000
G1 X-4.530 Y-4.169 F420.000
G1 X-4.361 Y-4.350 F420.000
G1 X-4.000 Y-4.692 F420.000
G1 X-3.617 Y-5.008 F420.000
G1 X-3.207 Y-5.293 F420.000
G1 X-2.996 Y-5.425 F420.000
G1 X-2.556 Y-5.658 F420.000
G1 X-2.102 Y-5.861 F420.000
G1 X-1.632 Y-6.026 F420.000
G1 X-1.391 Y-6.098 F420.000
G1 X-0.906 Y-6.211 F420.000
G1 X-0.662 Y-6.252 F420.000
G1 X0.079 Y-6.301 F420.000
G1 X0.568 Y-6.301 F420.000
G1 X1.056 Y-6.252 F420.000
G1 X1.301 Y-6.214 F420.000
G1 X1.782 Y-6.109 F420.000
G1 X2.019 Y-6.041 F420.000
G1 X2.485 Y-5.876 F420.000
G1 X2.936 Y-5.673 F420.000
G1 X3.368 Y-5.432 F420.000
G1 X3.782 Y-5.162 F420.000
G1 X4.365 Y-4.695 F420.000
G1 X4.726 Y-4.353 F420.000
G1 X4.898 Y-4.177 F420.000
G1 X5.218 Y-3.793 F420.000
G1 X5.368 Y-3.594 F420.000
G1 X5.639 Y-3.177 F420.000
G1 X5.763 Y-2.959 F420.000
G1 X5.981 Y-2.511 F420.000
G1 X6.162 Y-2.049 F420.000
G1 X6.368 Y-1.331 F420.000
G1 X6.466 Y-0.842 F420.000
G1 X6.504 Y-0.594 F420.000
G1 X6.530 Y-0.098 F420.000
G1 X6.530 Y0.147 F420.000
G1 X6.508 Y0.635 F420.000
G1 X6.447 Y1.124 F420.000
G1 X6.406 Y1.368 F420.000
G1 X6.293 Y1.850 F420.000
G1 X6.132 Y2.316 F420.000
G1 X6.038 Y2.545 F420.000
G1 X5.823 Y2.989 F420.000
G1 X5.575 Y3.414 F420.000
G1 X5.297 Y3.823 F420.000
G1 X4.989 Y4.211 F420.000
G1 X4.823 Y4.395 F420.000
G1 X4.289 Y4.914 F420.000
G1 X3.910 Y5.229 F420.000
G1 X3.511 Y5.523 F420.000
G1 X3.305 Y5.662 F420.000
G1 X2.868 Y5.906 F420.000
G1 X2.643 Y6.015 F420.000
G1 X2.180 Y6.203 F420.000
G1 X1.707 Y6.361 F420.000
G1 X1.222 Y6.481 F420.000
G1 X0.729 Y6.556 F420.000
G1 X0.481 Y6.579 F420.000
G1 X-0.256 Y6.609 F420.000
G1 X-0.744 Y6.598 F420.000
G1 X-1.233 Y6.538 F420.000
G1 X-1.477 Y6.496 F420.000
G1 X-1.959 Y6.380 F420.000
G1 X-2.195 Y6.308 F420.000
G1 X-2.429 Y6.226 F420.000
G1 X-2.876 Y6.019 F420.000
G1 X-3.308 Y5.778 F420.000
G1 X-3.519 Y5.650 F420.000
G1 X-3.929 Y5.368 F420.000
G1 X-4.128 Y5.218 F420.000
G1 X-4.496 Y4.887 F420.000
G1 X-4.673 Y4.711 F420.000
G1 X-5.162 Y4.150 F420.000
G1 X-5.602 Y3.545 F420.000
G1 X-5.861 Y3.120 F420.000
G1 X-6.083 Y2.673 F420.000
G1 X-6.180 Y2.444 F420.000
G1 X-6.346 Y1.974 F420.000
G1 X-6.417 Y1.733 F420.000
G1 X-6.530 Y1.248 F420.000
G1 X-6.571 Y1.000 F420.000
G1 X-6.624 Y0.504 F420.000
G1 X-6.635 Y0.256 F420.000
G1 X-6.635 Y-0.237 F420.000
G1 X-6.571 Y-0.970 F420.000
G1 X-6.489 Y-1.459 F420.000
G1 X-6.376 Y-1.940 F420.000
G1 X-6.214 Y-2.406 F420.000
G1 X-6.120 Y-2.635 F420.000
G1 X-5.902 Y-3.079 F420.000
G1 X-5.786 Y-3.297 F420.000
G1 X-5.523 Y-3.714 F420.000
G1 X-5.229 Y-4.113 F420.000
G1 X-4.906 Y-4.492 F420.000
G1 X-4.568 Y-4.853 F420.000
G1 X-4.203 Y-5.195 F420.000
G1 X-3.808 Y-5.500 F420.000
G1 X-3.398 Y-5.778 F420.000
G1 X-2.966 Y-6.026 F420.000
G1 X-2.519 Y-6.252 F420.000
G1 X-1.820 Y-6.511 F420.000
G1 X-1.338 Y-6.643 F420.000
G1 X-1.094 Y-6.699 F420.000
G1 X-0.602 Y-6.782 F420.000
G1 X-0.353 Y-6.812 F420.000
G1 X0.139 Y-6.842 F420.000
G1 X0.872 Y-6.801 F420.000
G1 X1.361 Y-6.726 F420.000
G1 X1.602 Y-6.677 F420.000
G1 X2.083 Y-6.556 F420.000
G1 X2.553 Y-6.402 F420.000
G1 X2.786 Y-6.316 F420.000
G1 X3.229 Y-6.102 F420.000
G1 X3.662 Y-5.857 F420.000
G1 X4.071 Y-5.579 F420.000
G1 X4.470 Y-5.282 F420.000
G1 X4.850 Y-4.962 F420.000
G1 X5.199 Y-4.605 F420.000
G1 X5.526 Y-4.229 F420.000
G1 X5.827 Y-3.835 F420.000
G1 X6.105 Y-3.421 F420.000
G1 X6.335 Y-2.981 F420.000
G1 X6.436 Y-2.756 F420.000
G1 X6.703 Y-2.056 F420.000
G1 X6.850 Y-1.579 F420.000
G1 X6.914 Y-1.338 F420.000
G1 X6.996 Y-0.842 F420.000
G1 X7.026 Y-0.594 F420.000
G1 X7.049 Y-0.098 F420.000
G1 X7.038 Y0.391 F420.000
G1 X6.974 Y1.124 F420.000
G1 X6.940 Y1.368 F420.000
G1 X6.831 Y1.850 F420.000
G1 X6.767 Y2.086 F420.000
G1 X6.609 Y2.553 F420.000
G1 X6.414 Y3.008 F420.000
G1 X6.305 Y3.229 F420.000
G1 X5.910 Y3.857 F420.000
G1 X5.771 Y4.060 F420.000
G1 X5.470 Y4.455 F420.000
G1 X5.312 Y4.647 F420.000
G1 X4.782 Y5.173 F420.000
G1 X4.214 Y5.658 F420.000
G1 X3.816 Y5.955 F420.000
G1 X3.387 Y6.211 F420.000
G1 X3.169 Y6.327 F420.000
G1 X2.485 Y6.628 F420.000
G1 X2.019 Y6.801 F420.000
G1 X1.538 Y6.940 F420.000
G1 X1.293 Y6.996 F420.000
G1 X0.797 Y7.068 F420.000
G1 X0.301 Y7.113 F420.000
G1 X-0.192 Y7.132 F420.000
G1 X-0.680 Y7.128 F420.000
G1 X-1.169 Y7.079 F420.000
G1 X-1.414 Y7.041 F420.000
G1 X-1.895 Y6.940 F420.000
G1 X-2.132 Y6.876 F420.000
G1 X-2.602 Y6.718 F420.000
G1 X-2.831 Y6.628 F420.000
G1 X-3.271 Y6.406 F420.000
G1 X-3.699 Y6.154 F420.000
G1 X-4.113 Y5.876 F420.000
G1 X-4.508 Y5.575 F420.000
G1 X-4.872 Y5.241 F420.000
G1 X-5.214 Y4.883 F420.000
G1 X-5.538 Y4.508 F420.000
G1 X-5.989 Y3.910 F420.000
G1 X-6.128 Y3.703 F420.000
G1 X-6.368 Y3.267 F420.000
G1 X-6.481 Y3.045 F420.000
G1 X-6.673 Y2.586 F420.000
G1 X-6.838 Y2.113 F420.000
G1 X-6.974 Y1.632 F420.000
G1 X-7.068 Y1.143 F420.000
G1 X-7.102 Y0.895 F420.000
G1 X-7.150 Y0.150 F420.000
G1 X-7.143 Y-0.338 F420.000
G1 X-7.105 Y-0.827 F420.000
G1 X-7.038 Y-1.316 F420.000
G1 X-6.940 Y-1.797 F420.000
G1 X-6.812 Y-2.274 F420.000
G1 X-6.737 Y-2.508 F420.000
G1 X-6.545 Y-2.962 F420.000
G1 X-6.323 Y-3.406 F420.000
G1 X-6.071 Y-3.831 F420.000
G1 X-5.793 Y-4.241 F420.000
G1 X-5.489 Y-4.632 F420.000
G1 X-5.158 Y-5.004 F420.000
G1 X-4.805 Y-5.353 F420.000
G1 X-4.620 Y-5.519 F420.000
G1 X-4.233 Y-5.831 F420.000
G1 X-3.827 Y-6.117 F420.000
G1 X-3.402 Y-6.376 F420.000
G1 X-2.962 Y-6.609 F420.000
G1 X-2.508 Y-6.812 F420.000
G1 X-2.038 Y-6.985 F420.000
G1 X-1.560 Y-7.128 F420.000
G1 X-1.075 Y-7.241 F420.000
G1 X-0.583 Y-7.316 F420.000
G1 X-0.086 Y-7.361 F420.000
G1 X0.402 Y-7.357 F420.000
G1 X0.891 Y-7.323 F420.000
G1 X1.380 Y-7.256 F420.000
G1 X1.865 Y-7.158 F420.000
G1 X2.342 Y-7.030 F420.000
G1 X2.808 Y-6.872 F420.000
G1 X3.263 Y-6.684 F420.000
G1 X3.695 Y-6.444 F420.000
G1 X4.117 Y-6.180 F420.000
G1 X4.714 Y-5.741 F420.000
G1 X5.098 Y-5.425 F420.000
G1 X5.455 Y-5.079 F420.000
G1 X5.789 Y-4.711 F420.000
G1 X6.102 Y-4.323 F420.000
G1 X6.387 Y-3.914 F420.000
G1 X6.643 Y-3.489 F420.000
G1 X6.876 Y-3.049 F420.000
G1 X7.079 Y-2.594 F420.000
G1 X7.252 Y-2.124 F420.000
G1 X7.432 Y-1.398 F420.000
G1 X7.504 Y-0.902 F420.000
G1 X7.530 Y-0.654 F420.000
G1 X7.560 Y0.086 F420.000
G1 X7.530 Y0.820 F420.000
G1 X7.477 Y1.308 F420.000
G1 X7.383 Y1.789 F420.000
G1 X7.323 Y2.030 F420.000
G1 X7.177 Y2.500 F420.000
G1 X6.996 Y2.962 F420.000
G1 X6.895 Y3.188 F420.000
G1 X6.662 Y3.628 F420.000
G1 X6.406 Y4.049 F420.000
G1 X6.124 Y4.459 F420.000
G1 X5.820 Y4.850 F420.000
G1 X5.492 Y5.222 F420.000
G1 X5.143 Y5.575 F420.000
G1 X4.962 Y5.744 F420.000
G1 X4.571 Y6.049 F420.000
G1 X4.165 Y6.335 F420.000
G1 X3.523 Y6.718 F420.000
G1 X3.075 Y6.944 F420.000
G1 X2.620 Y7.143 F420.000
G1 X2.154 Y7.316 F420.000
G1 X1.917 Y7.391 F420.000
G1 X1.184 Y7.545 F420.000
G1 X0.688 Y7.620 F420.000
G1 X-0.053 Y7.665 F420.000
G1 X-0.786 Y7.647 F420.000
G1 X-1.274 Y7.598 F420.000
G1 X-1.519 Y7.564 F420.000
G1 X-2.000 Y7.455 F420.000
G1 X-2.474 Y7.320 F420.000
G1 X-2.940 Y7.154 F420.000
G1 X-3.387 Y6.947 F420.000
G1 X-3.605 Y6.831 F420.000
G1 X-4.229 Y6.432 F420.000
G1 X-4.624 Y6.132 F420.000
G1 X-5.004 Y5.816 F420.000
G1 X-5.368 Y5.481 F420.000
G1 X-5.545 Y5.308 F420.000
G1 X-6.026 Y4.741 F420.000
G1 X-6.327 Y4.346 F420.000
G1 X-6.594 Y3.929 F420.000
G1 X-6.835 Y3.492 F420.000
G1 X-7.045 Y3.045 F420.000
G1 X-7.226 Y2.583 F420.000
G1 X-7.376 Y2.105 F420.000
G1 X-7.496 Y1.620 F420.000
G1 X-7.617 Y0.880 F420.000
G1 X-7.665 Y0.383 F420.000
G1 X-7.673 Y-0.109 F420.000
G1 X-7.654 Y-0.598 F420.000
G1 X-7.568 Y-1.331 F420.000
G1 X-7.477 Y-1.816 F420.000
G1 X-7.357 Y-2.293 F420.000
G1 X-7.207 Y-2.763 F420.000
G1 X-7.015 Y-3.218 F420.000
G1 X-6.906 Y-3.440 F420.000
G1 X-6.534 Y-4.083 F420.000
G1 X-6.252 Y-4.492 F420.000
G1 X-5.951 Y-4.887 F420.000
G1 X-5.632 Y-5.267 F420.000
G1 X-5.466 Y-5.451 F420.000
G1 X-5.105 Y-5.789 F420.000
G1 X-4.726 Y-6.109 F420.000
G1 X-4.128 Y-6.549 F420.000
G1 X-3.711 Y-6.816 F420.000
G1 X-3.278 Y-7.056 F420.000
G1 X-2.590 Y-7.350 F420.000
G1 X-2.117 Y-7.504 F420.000
G1 X-1.635 Y-7.643 F420.000
G1 X-1.150 Y-7.759 F420.000
G1 X-0.654 Y-7.838 F420.000
G1 X-0.406 Y-7.868 F420.000
G1 X0.331 Y-7.887 F420.000
G1 X0.820 Y-7.861 F420.000
G1 X1.064 Y-7.838 F420.000
G1 X1.553 Y-7.767 F420.000
G1 X2.034 Y-7.669 F420.000
G1 X2.511 Y-7.541 F420.000
G1 X2.977 Y-7.383 F420.000
G1 X3.207 Y-7.293 F420.000
G1 X3.650 Y-7.071 F420.000
G1 X4.079 Y-6.827 F420.000
G1 X4.695 Y-6.414 F420.000
G1 X5.286 Y-5.962 F420.000
G1 X5.474 Y-5.801 F420.000
G1 X5.827 Y-5.455 F420.000
G1 X5.996 Y-5.274 F420.000
G1 X6.320 Y-4.895 F420.000
G1 X6.759 Y-4.293 F420.000
G1 X7.147 Y-3.654 F420.000
G1 X7.372 Y-3.214 F420.000
G1 X7.575 Y-2.759 F420.000
G1 X7.748 Y-2.293 F420.000
G1 X7.872 Y-1.812 F420.000
G1 X7.970 Y-1.323 F420.000
G1 X8.038 Y-0.827 F420.000
G1 X8.075 Y-0.331 F420.000
G1 X8.083 Y0.162 F420.000
G1 X8.068 Y0.650 F420.000
G1 X8.000 Y1.383 F420.000
G1 X7.910 Y1.865 F420.000
G1 X7.853 Y2.105 F420.000
G1 X7.714 Y2.579 F420.000
G1 X7.635 Y2.812 F420.000
G1 X7.447 Y3.271 F420.000
G1 X7.229 Y3.718 F420.000
G1 X6.981 Y4.150 F420.000
G1 X6.707 Y4.560 F420.000
G1 X6.252 Y5.150 F420.000
G1 X5.756 Y5.707 F420.000
G1 X5.583 Y5.883 F420.000
G1 X5.211 Y6.214 F420.000
G1 X5.019 Y6.372 F420.000
G1 X4.617 Y6.662 F420.000
G1 X4.195 Y6.932 F420.000
G1 X3.541 Y7.293 F420.000
G1 X3.090 Y7.504 F420.000
G1 X2.395 Y7.778 F420.000
G1 X1.921 Y7.929 F420.000
G1 X1.432 Y8.030 F420.000
G1 X0.936 Y8.105 F420.000
G1 X0.192 Y8.177 F420.000
G1 X-0.053 Y8.188 F420.000
G1 X-0.541 Y8.184 F420.000
G1 X-0.786 Y8.173 F420.000
G1 X-1.274 Y8.120 F420.000
G1 X-1.759 Y8.038 F420.000
G1 X-2.241 Y7.925 F420.000
G1 X-2.711 Y7.782 F420.000
G1 X-3.173 Y7.602 F420.000
G1 X-3.620 Y7.391 F420.000
G1 X-4.053 Y7.158 F420.000
G1 X-4.470 Y6.895 F420.000
G1 X-4.872 Y6.602 F420.000
G1 X-5.256 Y6.293 F420.000
G1 X-5.808 Y5.789 F420.000
G1 X-6.150 Y5.432 F420.000
G1 X-6.462 Y5.049 F420.000
G1 X-6.748 Y4.643 F420.000
G1 X-7.019 Y4.222 F420.000
G1 X-7.380 Y3.568 F420.000
G1 X-7.489 Y3.342 F420.000
G1 X-7.673 Y2.876 F420.000
G1 X-7.756 Y2.639 F420.000
G1 X-7.955 Y1.917 F420.000
G1 X-8.094 Y1.184 F420.000
G1 X-8.154 Y0.688 F420.000
G1 X-8.192 Y-0.053 F420.000
G1 X-8.184 Y-0.541 F420.000
G1 X-8.150 Y-1.030 F420.000
G1 X-8.090 Y-1.519 F420.000
G1 X-7.989 Y-2.000 F420.000
G1 X-7.925 Y-2.237 F420.000
G1 X-7.778 Y-2.711 F420.000
G1 X-7.602 Y-3.173 F420.000
G1 X-7.274 Y-3.842 F420.000
G1 X-6.895 Y-4.477 F420.000
G1 X-6.466 Y-5.086 F420.000
G1 X-6.162 Y-5.474 F420.000
G1 X-5.820 Y-5.835 F420.000
G1 X-5.462 Y-6.177 F420.000
G1 X-4.887 Y-6.650 F420.000
G1 X-4.481 Y-6.936 F420.000
G1 X-4.064 Y-7.207 F420.000
G1 X-3.635 Y-7.459 F420.000
G1 X-3.188 Y-7.677 F420.000
G1 X-2.959 Y-7.778 F420.000
G1 X-2.492 Y-7.955 F420.000
G1 X-2.015 Y-8.098 F420.000
G1 X-1.534 Y-8.222 F420.000
G1 X-0.801 Y-8.361 F420.000
G1 X-0.305 Y-8.406 F420.000
G1 X-0.056 Y-8.417 F420.000
G1 X0.432 Y-8.410 F420.000
G1 X0.921 Y-8.380 F420.000
G1 X1.654 Y-8.289 F420.000
G1 X2.139 Y-8.199 F420.000
G1 X2.613 Y-8.064 F420.000
G1 X3.079 Y-7.902 F420.000
G1 X3.534 Y-7.711 F420.000
G1 X3.981 Y-7.492 F420.000
G1 X4.414 Y-7.248 F420.000
G1 X4.831 Y-6.977 F420.000
G1 X5.421 Y-6.534 F420.000
G1 X5.801 Y-6.214 F420.000
G1 X5.985 Y-6.049 F420.000
G1 X6.327 Y-5.688 F420.000
G1 X6.654 Y-5.312 F420.000
G1 X7.105 Y-4.718 F420.000
G1 X7.511 Y-4.094 F420.000
G1 X7.756 Y-3.662 F420.000
G1 X7.868 Y-3.440 F420.000
G1 X8.060 Y-2.981 F420.000
G1 X8.226 Y-2.511 F420.000
G1 X8.361 Y-2.030 F420.000
G1 X8.466 Y-1.541 F420.000
G1 X8.541 Y-1.049 F420.000
G1 X8.586 Y-0.553 F420.000
G1 X8.605 Y0.188 F420.000
G1 X8.571 Y0.921 F420.000
G1 X8.485 Y1.654 F420.000
G1 X8.398 Y2.139 F420.000
G1 X8.263 Y2.613 F420.000
G1 X8.184 Y2.846 F420.000
G1 X7.898 Y3.530 F420.000
G1 X7.677 Y3.970 F420.000
G1 X7.429 Y4.398 F420.000
G1 X7.158 Y4.816 F420.000
G1 X6.865 Y5.214 F420.000
G1 X6.395 Y5.793 F420.000
G1 X6.060 Y6.158 F420.000
G1 X5.692 Y6.492 F420.000
G1 X5.105 Y6.955 F420.000
G1 X4.485 Y7.368 F420.000
G1 X3.831 Y7.729 F420.000
G1 X3.380 Y7.940 F420.000
G1 X2.921 Y8.135 F420.000
G1 X2.455 Y8.312 F420.000
G1 X1.974 Y8.451 F420.000
G1 X1.733 Y8.511 F420.000
G1 X1.244 Y8.605 F420.000
G1 X0.748 Y8.665 F420.000
G1 X0.252 Y8.699 F420.000
G1 X-0.485 Y8.714 F420.000
G1 X-0.729 Y8.711 F420.000
G1 X-1.462 Y8.635 F420.000
G1 X-1.947 Y8.545 F420.000
G1 X-2.425 Y8.425 F420.000
G1 X-2.895 Y8.274 F420.000
G1 X-3.353 Y8.094 F420.000
G1 X-3.801 Y7.883 F420.000
G1 X-4.237 Y7.650 F420.000
G1 X-4.868 Y7.256 F420.000
G1 X-5.466 Y6.816 F420.000
G1 X-5.846 Y6.500 F420.000
G1 X-6.030 Y6.335 F420.000
G1 X-6.372 Y5.974 F420.000
G1 X-6.695 Y5.598 F420.000
G1 X-6.996 Y5.203 F420.000
G1 X-7.274 Y4.793 F420.000
G1 X-7.658 Y4.154 F420.000
G1 X-7.895 Y3.714 F420.000
G1 X-7.996 Y3.485 F420.000
G1 X-8.252 Y2.782 F420.000
G1 X-8.459 Y2.064 F420.000
G1 X-8.609 Y1.331 F420.000
G1 X-8.680 Y0.835 F420.000
G1 X-8.707 Y0.586 F420.000
G1 X-8.733 Y0.090 F420.000
G1 X-8.737 Y-0.154 F420.000
G1 X-8.703 Y-0.887 F420.000
G1 X-8.654 Y-1.376 F420.000
G1 X-8.560 Y-1.857 F420.000
G1 X-8.440 Y-2.338 F420.000
G1 X-8.214 Y-3.041 F420.000
G1 X-8.034 Y-3.500 F420.000
G1 X-7.831 Y-3.947 F420.000
G1 X-7.586 Y-4.376 F420.000
G1 X-7.323 Y-4.797 F420.000
G1 X-6.902 Y-5.410 F420.000
G1 X-6.586 Y-5.789 F420.000
G1 X-6.421 Y-5.974 F420.000
G1 X-6.071 Y-6.327 F420.000
G1 X-5.891 Y-6.496 F420.000
G1 X-5.515 Y-6.820 F420.000
G1 X-4.921 Y-7.271 F420.000
G1 X-4.511 Y-7.549 F420.000
G1 X-3.868 Y-7.932 F420.000
G1 X-3.429 Y-8.162 F420.000
G1 X-2.970 Y-8.353 F420.000
G1 X-2.737 Y-8.440 F420.000
G1 X-2.019 Y-8.658 F420.000
G1 X-1.289 Y-8.827 F420.000
G1 X-0.797 Y-8.910 F420.000
G1 X-0.301 Y-8.940 F420.000
G1 X0.192 Y-8.947 F420.000
G1 X0.925 Y-8.914 F420.000
G1 X1.658 Y-8.838 F420.000
G1 X2.143 Y-8.748 F420.000
G1 X2.853 Y-8.541 F420.000
G1 X3.320 Y-8.376 F420.000
G1 X4.000 Y-8.086 F420.000
G1 X4.440 Y-7.865 F420.000
G1 X4.861 Y-7.602 F420.000
G1 X5.267 Y-7.316 F420.000
G1 X5.857 Y-6.865 F420.000
G1 X6.049 Y-6.707 F420.000
G1 X6.410 Y-6.368 F420.000
G1 X6.583 Y-6.192 F420.000
G1 X6.910 Y-5.820 F420.000
G1 X7.226 Y-5.436 F420.000
G1 X7.665 Y-4.835 F420.000
G1 X7.940 Y-4.417 F420.000
G1 X8.068 Y-4.203 F420.000
G1 X8.293 Y-3.759 F420.000
G1 X8.398 Y-3.534 F420.000
G1 X8.583 Y-3.071 F420.000
G1 X8.808 Y-2.357 F420.000
G1 X8.989 Y-1.628 F420.000
G1 X9.064 Y-1.132 F420.000
G1 X9.113 Y-0.635 F420.000
G1 X9.139 Y0.105 F420.000
G1 X9.094 Y1.083 F420.000
G1 X9.041 Y1.571 F420.000
G1 X8.898 Y2.297 F420.000
G1 X8.767 Y2.771 F420.000
G1 X8.609 Y3.237 F420.000
G1 X8.421 Y3.692 F420.000
G1 X8.203 Y4.135 F420.000
G1 X7.959 Y4.568 F420.000
G1 X7.549 Y5.192 F420.000
G1 X6.944 Y5.970 F420.000
G1 X6.782 Y6.158 F420.000
G1 X6.440 Y6.519 F420.000
G1 X6.263 Y6.692 F420.000
G1 X5.891 Y7.023 F420.000
G1 X5.699 Y7.180 F420.000
G1 X5.293 Y7.470 F420.000
G1 X4.876 Y7.741 F420.000
G1 X4.233 Y8.120 F420.000
G1 X4.015 Y8.237 F420.000
G1 X3.564 Y8.447 F420.000
G1 X2.868 Y8.722 F420.000
G1 X2.391 Y8.872 F420.000
G1 X1.910 Y9.000 F420.000
G1 X1.421 Y9.109 F420.000
G1 X0.925 Y9.177 F420.000
G1 X0.429 Y9.222 F420.000
G1 X-0.308 Y9.244 F420.000
G1 X-1.041 Y9.214 F420.000
G1 X-1.530 Y9.165 F420.000
G1 X-2.015 Y9.075 F420.000
G1 X-2.496 Y8.959 F420.000
G1 X-2.970 Y8.820 F420.000
G1 X-3.203 Y8.741 F420.000
G1 X-3.654 Y8.545 F420.000
G1 X-4.316 Y8.211 F420.000
G1 X-4.744 Y7.962 F420.000
G1 X-5.365 Y7.556 F420.000
G1 X-5.767 Y7.263 F420.000
G1 X-5.962 Y7.109 F420.000
G1 X-6.331 Y6.774 F420.000
G1 X-6.508 Y6.598 F420.000
G1 X-6.846 Y6.233 F420.000
G1 X-7.316 Y5.654 F420.000
G1 X-7.737 Y5.038 F420.000
G1 X-8.000 Y4.617 F420.000
G1 X-8.244 Y4.184 F420.000
G1 X-8.545 Y3.496 F420.000
G1 X-8.726 Y3.030 F420.000
G1 X-8.808 Y2.793 F420.000
G1 X-8.940 Y2.312 F420.000
G1 X-9.102 Y1.579 F420.000
G1 X-9.188 Y1.086 F420.000
G1 X-9.222 Y0.838 F420.000
G1 X-9.259 Y0.342 F420.000
G1 X-9.271 Y-0.150 F420.000
G1 X-9.241 Y-0.883 F420.000
G1 X-9.192 Y-1.372 F420.000
G1 X-9.117 Y-1.861 F420.000
G1 X-8.996 Y-2.342 F420.000
G1 X-8.778 Y-3.053 F420.000
G1 X-8.613 Y-3.519 F420.000
G1 X-8.414 Y-3.970 F420.000
G1 X-8.188 Y-4.410 F420.000
G1 X-7.940 Y-4.835 F420.000
G1 X-7.526 Y-5.447 F420.000
G1 X-7.075 Y-6.038 F420.000
G1 X-6.575 Y-6.586 F420.000
G1 X-6.218 Y-6.929 F420.000
G1 X-6.034 Y-7.094 F420.000
G1 X-5.447 Y-7.556 F420.000
G1 X-4.831 Y-7.977 F420.000
G1 X-4.192 Y-8.361 F420.000
G1 X-3.756 Y-8.598 F420.000
G1 X-3.297 Y-8.797 F420.000
G1 X-3.064 Y-8.887 F420.000
G1 X-2.353 Y-9.113 F420.000
G1 X-1.628 Y-9.305 F420.000
G1 X-1.383 Y-9.357 F420.000
G1 X-0.887 Y-9.432 F420.000
G1 X-0.639 Y-9.459 F420.000
G1 X-0.143 Y-9.485 F420.000
G1 X0.590 Y-9.474 F420.000
G1 X1.323 Y-9.421 F420.000
G1 X1.812 Y-9.357 F420.000
G1 X2.534 Y-9.192 F420.000
G1 X3.008 Y-9.053 F420.000
G1 X3.474 Y-8.887 F420.000
G1 X4.154 Y-8.598 F420.000
G1 X4.594 Y-8.376 F420.000
G1 X5.026 Y-8.132 F420.000
G1 X5.639 Y-7.711 F420.000
G1 X6.229 Y-7.259 F420.000
G1 X6.598 Y-6.925 F420.000
G1 X6.774 Y-6.752 F420.000
G1 X7.109 Y-6.387 F420.000
G1 X7.432 Y-6.011 F420.000
G1 X8.049 Y-5.229 F420.000
G1 X8.320 Y-4.812 F420.000
G1 X8.568 Y-4.380 F420.000
G1 X8.793 Y-3.932 F420.000
G1 X8.989 Y-3.474 F420.000
G1 X9.233 Y-2.767 F420.000
G1 X9.429 Y-2.045 F420.000
G1 X9.575 Y-1.312 F420.000
G1 X9.613 Y-1.064 F420.000
G1 X9.654 Y-0.568 F420.000
G1 X9.665 Y-0.320 F420.000
G1 X9.669 Y0.173 F420.000
G1 X9.647 Y0.906 F420.000
G1 X9.632 Y1.150 F420.000
G1 X9.534 Y1.883 F420.000
G1 X9.432 Y2.365 F420.000
G1 X9.305 Y2.842 F420.000
G1 X9.150 Y3.312 F420.000
G1 X8.970 Y3.771 F420.000
G1 X8.763 Y4.218 F420.000
G1 X8.530 Y4.654 F420.000
G1 X8.274 Y5.079 F420.000
G1 X7.992 Y5.489 F420.000
G1 X7.541 Y6.083 F420.000
G1 X7.226 Y6.466 F420.000
G1 X7.060 Y6.654 F420.000
G1 X6.523 Y7.169 F420.000
G1 X6.147 Y7.496 F420.000
G1 X5.756 Y7.801 F420.000
G1 X5.350 Y8.086 F420.000
G1 X4.932 Y8.353 F420.000
G1 X4.278 Y8.714 F420.000
G1 X3.831 Y8.929 F420.000
G1 X3.372 Y9.120 F420.000
G1 X2.902 Y9.289 F420.000
G1 X2.180 Y9.485 F420.000
G1 X1.692 Y9.586 F420.000
G1 X1.203 Y9.669 F420.000
G1 X0.459 Y9.759 F420.000
G1 X-0.523 Y9.786 F420.000
G1 X-0.767 Y9.782 F420.000
G1 X-1.500 Y9.718 F420.000
G1 X-1.989 Y9.639 F420.000
G1 X-2.470 Y9.534 F420.000
G1 X-2.944 Y9.398 F420.000
G1 X-3.410 Y9.233 F420.000
G1 X-3.865 Y9.045 F420.000
G1 X-4.312 Y8.827 F420.000
G1 X-4.959 Y8.462 F420.000
G1 X-5.579 Y8.056 F420.000
G1 X-5.981 Y7.767 F420.000
G1 X-6.553 Y7.293 F420.000
G1 X-6.914 Y6.951 F420.000
G1 X-7.086 Y6.774 F420.000
G1 X-7.564 Y6.199 F420.000
G1 X-8.004 Y5.594 F420.000
G1 X-8.274 Y5.177 F420.000
G1 X-8.647 Y4.530 F420.000
G1 X-8.763 Y4.308 F420.000
G1 X-8.966 Y3.853 F420.000
G1 X-9.154 Y3.387 F420.000
G1 X-9.391 Y2.680 F420.000
G1 X-9.586 Y1.959 F420.000
G1 X-9.673 Y1.470 F420.000
G1 X-9.741 Y0.974 F420.000
G1 X-9.797 Y0.229 F420.000
G1 X-9.808 Y-0.259 F420.000
G1 X-9.797 Y-0.748 F420.000
G1 X-9.763 Y-1.237 F420.000
G1 X-9.688 Y-1.726 F420.000
G1 X-9.643 Y-1.966 F420.000
G1 X-9.459 Y-2.680 F420.000
G1 X-9.222 Y-3.383 F420.000
G1 X-8.947 Y-4.075 F420.000
G1 X-8.729 Y-4.519 F420.000
G1 X-8.489 Y-4.951 F420.000
G1 X-8.226 Y-5.368 F420.000
G1 X-7.797 Y-5.974 F420.000
G1 X-7.335 Y-6.556 F420.000
G1 X-6.996 Y-6.917 F420.000
G1 X-6.635 Y-7.259 F420.000
G1 X-6.068 Y-7.744 F420.000
G1 X-5.474 Y-8.192 F420.000
G1 X-4.857 Y-8.609 F420.000
G1 X-4.421 Y-8.850 F420.000
G1 X-3.977 Y-9.075 F420.000
G1 X-3.523 Y-9.282 F420.000
G1 X-3.056 Y-9.459 F420.000
G1 X-2.583 Y-9.617 F420.000
G1 X-1.861 Y-9.816 F420.000
G1 X-1.617 Y-9.872 F420.000
G1 X-1.120 Y-9.947 F420.000
G1 X-0.872 Y-9.974 F420.000
G1 X-0.128 Y-10.019 F420.000
G1 X0.605 Y-10.023 F420.000
G1 X1.094 Y-10.004 F420.000
G1 X1.583 Y-9.940 F420.000
G1 X2.071 Y-9.853 F420.000
G1 X2.553 Y-9.744 F420.000
G1 X3.030 Y-9.613 F420.000
G1 X3.500 Y-9.459 F420.000
G1 X3.962 Y-9.282 F420.000
G1 X4.414 Y-9.083 F420.000
G1 X4.853 Y-8.861 F420.000
G1 X5.692 Y-8.335 F420.000
G1 X5.898 Y-8.195 F420.000
G1 X6.489 Y-7.741 F420.000
G1 X6.861 Y-7.414 F420.000
G1 X7.218 Y-7.068 F420.000
G1 X7.556 Y-6.703 F420.000
G1 X8.034 Y-6.132 F420.000
G1 X8.481 Y-5.538 F420.000
G1 X8.624 Y-5.335 F420.000
G1 X8.883 Y-4.910 F420.000
G1 X9.226 Y-4.248 F420.000
G1 X9.421 Y-3.793 F420.000
G1 X9.677 Y-3.090 F420.000
G1 X9.891 Y-2.372 F420.000
G1 X10.060 Y-1.643 F420.000
G1 X10.132 Y-1.147 F420.000
G1 X10.158 Y-0.898 F420.000
G1 X10.203 Y0.090 F420.000
G1 X10.199 Y0.823 F420.000
G1 X10.188 Y1.068 F420.000
G1 X10.132 Y1.556 F420.000
G1 X10.053 Y2.045 F420.000
G1 X9.951 Y2.526 F420.000
G1 X9.812 Y3.000 F420.000
G1 X9.654 Y3.466 F420.000
G1 X9.376 Y4.154 F420.000
G1 X9.169 Y4.602 F420.000
G1 X9.056 Y4.823 F420.000
G1 X8.801 Y5.244 F420.000
G1 X8.383 Y5.861 F420.000
G1 X7.940 Y6.455 F420.000
G1 X7.786 Y6.647 F420.000
G1 X7.455 Y7.015 F420.000
G1 X6.921 Y7.534 F420.000
G1 X6.150 Y8.162 F420.000
G1 X5.545 Y8.594 F420.000
G1 X4.914 Y8.989 F420.000
G1 X4.699 Y9.113 F420.000
G1 X4.248 Y9.331 F420.000
G1 X3.789 Y9.526 F420.000
G1 X3.323 Y9.699 F420.000
G1 X2.850 Y9.850 F420.000
G1 X2.368 Y9.977 F420.000
G1 X1.391 Y10.173 F420.000
G1 X0.647 Y10.274 F420.000
G1 X-0.094 Y10.312 F420.000
G1 X-0.827 Y10.305 F420.000
G1 X-1.316 Y10.274 F420.000
G1 X-1.805 Y10.211 F420.000
G1 X-2.289 Y10.120 F420.000
G1 X-2.767 Y10.000 F420.000
G1 X-3.241 Y9.857 F420.000
G1 X-3.707 Y9.695 F420.000
G1 X-4.158 Y9.496 F420.000
G1 X-4.820 Y9.162 F420.000
G1 X-5.459 Y8.786 F420.000
G1 X-6.075 Y8.368 F420.000
G1 X-6.474 Y8.071 F420.000
G1 X-6.850 Y7.748 F420.000
G1 X-7.030 Y7.579 F420.000
G1 X-7.541 Y7.041 F420.000
G1 X-8.015 Y6.466 F420.000
G1 X-8.308 Y6.064 F420.000
G1 X-8.726 Y5.444 F420.000
G1 X-8.857 Y5.233 F420.000
G1 X-9.098 Y4.797 F420.000
G1 X-9.316 Y4.350 F420.000
G1 X-9.519 Y3.891 F420.000
G1 X-9.789 Y3.192 F420.000
G1 X-9.944 Y2.718 F420.000
G1 X-10.064 Y2.237 F420.000
G1 X-10.165 Y1.748 F420.000
G1 X-10.278 Y1.008 F420.000
G1 X-10.346 Y0.263 F420.000
G1 X-10.346 Y-0.474 F420.000
G1 X-10.308 Y-1.207 F420.000
G1 X-10.199 Y-1.940 F420.000
G1 X-10.086 Y-2.421 F420.000
G1 X-9.876 Y-3.132 F420.000
G1 X-9.620 Y-3.831 F420.000
G1 X-9.327 Y-4.515 F420.000
G1 X-8.977 Y-5.165 F420.000
G1 X-8.575 Y-5.789 F420.000
G1 X-8.004 Y-6.594 F420.000
G1 X-7.680 Y-6.970 F420.000
G1 X-7.511 Y-7.150 F420.000
G1 X-7.158 Y-7.500 F420.000
G1 X-6.598 Y-7.992 F420.000
G1 X-6.011 Y-8.455 F420.000
G1 X-5.410 Y-8.891 F420.000
G1 X-5.203 Y-9.030 F420.000
G1 X-4.556 Y-9.398 F420.000
G1 X-4.109 Y-9.613 F420.000
G1 X-3.650 Y-9.808 F420.000
G1 X-2.951 Y-10.068 F420.000
G1 X-2.477 Y-10.222 F420.000
G1 X-2.237 Y-10.289 F420.000
G1 X-1.748 Y-10.395 F420.000
G1 X-1.256 Y-10.470 F420.000
G1 X-0.759 Y-10.526 F420.000
G1 X-0.015 Y-10.568 F420.000
G1 X0.474 Y-10.571 F420.000
G1 X0.962 Y-10.553 F420.000
G1 X1.451 Y-10.511 F420.000
G1 X2.184 Y-10.383 F420.000
G1 X2.902 Y-10.203 F420.000
G1 X3.376 Y-10.060 F420.000
G1 X4.075 Y-9.812 F420.000
G1 X4.305 Y-9.722 F420.000
G1 X4.748 Y-9.511 F420.000
G1 X4.966 Y-9.398 F420.000
G1 X5.609 Y-9.026 F420.000
G1 X6.023 Y-8.756 F420.000
G1 X6.620 Y-8.316 F420.000
G1 X7.192 Y-7.842 F420.000
G1 X7.376 Y-7.677 F420.000
G1 X7.718 Y-7.316 F420.000
G1 X8.053 Y-6.944 F420.000
G1 X8.526 Y-6.368 F420.000
G1 X8.970 Y-5.767 F420.000
G1 X9.361 Y-5.132 F420.000
G1 X9.699 Y-4.466 F420.000
G1 X9.895 Y-4.008 F420.000
G1 X10.075 Y-3.541 F420.000
G1 X10.312 Y-2.831 F420.000
G1 X10.504 Y-2.109 F420.000
G1 X10.609 Y-1.620 F420.000
G1 X10.669 Y-1.124 F420.000
G1 X10.711 Y-0.628 F420.000
G1 X10.744 Y0.357 F420.000
G1 X10.744 Y0.846 F420.000
G1 X10.688 Y1.579 F420.000
G1 X10.617 Y2.068 F420.000
G1 X10.500 Y2.549 F420.000
G1 X10.365 Y3.023 F420.000
G1 X10.124 Y3.722 F420.000
G1 X9.850 Y4.410 F420.000
G1 X9.752 Y4.635 F420.000
G1 X9.402 Y5.286 F420.000
G1 X9.004 Y5.914 F420.000
G1 X8.568 Y6.515 F420.000
G1 X8.094 Y7.090 F420.000
G1 X7.586 Y7.639 F420.000
G1 X7.222 Y7.977 F420.000
G1 X6.647 Y8.451 F420.000
G1 X6.045 Y8.895 F420.000
G1 X5.425 Y9.308 F420.000
G1 X5.214 Y9.440 F420.000
G1 X4.774 Y9.673 F420.000
G1 X4.549 Y9.782 F420.000
G1 X3.861 Y10.068 F420.000
G1 X3.154 Y10.316 F420.000
G1 X2.673 Y10.455 F420.000
G1 X2.188 Y10.571 F420.000
G1 X1.699 Y10.665 F420.000
G1 X0.955 Y10.767 F420.000
G1 X0.211 Y10.827 F420.000
G1 X-0.523 Y10.853 F420.000
G1 X-0.767 Y10.853 F420.000
G1 X-1.500 Y10.801 F420.000
G1 X-1.744 Y10.771 F420.000
G1 X-2.229 Y10.677 F420.000
G1 X-2.711 Y10.568 F420.000
G1 X-3.421 Y10.365 F420.000
G1 X-3.887 Y10.203 F420.000
G1 X-4.338 Y10.000 F420.000
G1 X-4.782 Y9.782 F420.000
G1 X-5.432 Y9.425 F420.000
G1 X-6.068 Y9.038 F420.000
G1 X-6.274 Y8.902 F420.000
G1 X-7.049 Y8.282 F420.000
G1 X-7.594 Y7.778 F420.000
G1 X-8.090 Y7.226 F420.000
G1 X-8.556 Y6.647 F420.000
G1 X-8.996 Y6.041 F420.000
G1 X-9.252 Y5.613 F420.000
G1 X-9.492 Y5.177 F420.000
G1 X-9.823 Y4.508 F420.000
G1 X-10.117 Y3.823 F420.000
G1 X-10.293 Y3.357 F420.000
G1 X-10.519 Y2.643 F420.000
G1 X-10.677 Y1.910 F420.000
G1 X-10.801 Y1.169 F420.000
G1 X-10.835 Y0.921 F420.000
G1 X-10.872 Y0.425 F420.000
G1 X-10.883 Y-0.312 F420.000
G1 X-10.850 Y-1.045 F420.000
G1 X-10.801 Y-1.534 F420.000
G1 X-10.729 Y-2.023 F420.000
G1 X-10.617 Y-2.504 F420.000
G1 X-10.410 Y-3.214 F420.000
G1 X-10.169 Y-3.914 F420.000
G1 X-10.083 Y-4.143 F420.000
G1 X-9.778 Y-4.816 F420.000
G1 X-9.549 Y-5.252 F420.000
G1 X-9.293 Y-5.677 F420.000
G1 X-8.741 Y-6.496 F420.000
G1 X-8.447 Y-6.895 F420.000
G1 X-7.959 Y-7.455 F420.000
G1 X-7.609 Y-7.808 F420.000
G1 X-7.241 Y-8.143 F420.000
G1 X-6.861 Y-8.466 F420.000
G1 X-5.880 Y-9.233 F420.000
G1 X-5.252 Y-9.635 F420.000
G1 X-4.816 Y-9.876 F420.000
G1 X-4.143 Y-10.195 F420.000
G1 X-3.447 Y-10.470 F420.000
G1 X-2.737 Y-10.707 F420.000
G1 X-2.496 Y-10.778 F420.000
G1 X-1.519 Y-10.974 F420.000
G1 X-0.774 Y-11.071 F420.000
G1 X-0.278 Y-11.113 F420.000
G1 X0.459 Y-11.135 F420.000
G1 X0.703 Y-11.132 F420.000
G1 X1.680 Y-11.026 F420.000
G1 X2.406 Y-10.891 F420.000
G1 X2.887 Y-10.774 F420.000
G1 X3.594 Y-10.560 F420.000
G1 X4.056 Y-10.391 F420.000
G1 X4.737 Y-10.098 F420.000
G1 X5.398 Y-9.759 F420.000
G1 X5.827 Y-9.511 F420.000
G1 X6.447 Y-9.105 F420.000
G1 X7.041 Y-8.654 F420.000
G1 X7.421 Y-8.335 F420.000
G1 X7.786 Y-8.000 F420.000
G1 X8.135 Y-7.650 F420.000
G1 X8.632 Y-7.094 F420.000
G1 X8.940 Y-6.707 F420.000
G1 X9.368 Y-6.098 F420.000
G1 X9.632 Y-5.677 F420.000
G1 X10.004 Y-5.030 F420.000
G1 X10.120 Y-4.812 F420.000
G1 X10.323 Y-4.353 F420.000
G1 X10.598 Y-3.654 F420.000
G1 X10.756 Y-3.180 F420.000
G1 X10.962 Y-2.459 F420.000
G1 X11.023 Y-2.218 F420.000
G1 X11.113 Y-1.729 F420.000
G1 X11.184 Y-1.233 F420.000
G1 X11.248 Y-0.489 F420.000
G1 X11.282 Y0.248 F420.000
G1 X11.286 Y0.737 F420.000
G1 X11.244 Y1.470 F420.000
G1 X11.218 Y1.714 F420.000
G1 X11.128 Y2.199 F420.000
G1 X11.015 Y2.680 F420.000
G1 X10.726 Y3.620 F420.000
G1 X10.466 Y4.312 F420.000
G1 X10.169 Y4.992 F420.000
G1 X10.060 Y5.214 F420.000
G1 X9.812 Y5.643 F420.000
G1 X9.549 Y6.060 F420.000
G1 X9.128 Y6.673 F420.000
G1 X8.981 Y6.872 F420.000
G1 X8.504 Y7.440 F420.000
G1 X7.992 Y7.977 F420.000
G1 X7.635 Y8.320 F420.000
G1 X7.263 Y8.647 F420.000
G1 X6.677 Y9.109 F420.000
G1 X6.068 Y9.538 F420.000
G1 X5.432 Y9.932 F420.000
G1 X4.996 Y10.169 F420.000
G1 X4.079 Y10.560 F420.000
G1 X3.376 Y10.816 F420.000
G1 X2.654 Y11.011 F420.000
G1 X1.921 Y11.165 F420.000
G1 X1.177 Y11.282 F420.000
G1 X0.432 Y11.361 F420.000
G1 X-0.305 Y11.406 F420.000
G1 X-1.038 Y11.387 F420.000
G1 X-1.526 Y11.338 F420.000
G1 X-2.259 Y11.226 F420.000
G1 X-2.981 Y11.068 F420.000
G1 X-3.455 Y10.936 F420.000
G1 X-3.921 Y10.771 F420.000
G1 X-4.376 Y10.575 F420.000
G1 X-5.041 Y10.256 F420.000
G1 X-5.695 Y9.902 F420.000
G1 X-6.124 Y9.650 F420.000
G1 X-6.530 Y9.372 F420.000
G1 X-6.929 Y9.079 F420.000
G1 X-7.504 Y8.605 F420.000
G1 X-7.868 Y8.271 F420.000
G1 X-8.207 Y7.910 F420.000
G1 X-8.530 Y7.534 F420.000
G1 X-9.143 Y6.752 F420.000
G1 X-9.432 Y6.350 F420.000
G1 X-9.823 Y5.714 F420.000
G1 X-10.056 Y5.274 F420.000
G1 X-10.372 Y4.598 F420.000
G1 X-10.748 Y3.669 F420.000
G1 X-10.835 Y3.436 F420.000
G1 X-10.981 Y2.959 F420.000
G1 X-11.211 Y1.985 F420.000
G1 X-11.342 Y1.248 F420.000
G1 X-11.376 Y1.000 F420.000
G1 X-11.410 Y0.504 F420.000
G1 X-11.421 Y0.008 F420.000
G1 X-11.387 Y-0.970 F420.000
G1 X-11.323 Y-1.703 F420.000
G1 X-11.241 Y-2.192 F420.000
G1 X-11.128 Y-2.673 F420.000
G1 X-11.064 Y-2.910 F420.000
G1 X-10.842 Y-3.617 F420.000
G1 X-10.590 Y-4.316 F420.000
G1 X-10.500 Y-4.545 F420.000
G1 X-10.184 Y-5.218 F420.000
G1 X-9.947 Y-5.650 F420.000
G1 X-9.688 Y-6.068 F420.000
G1 X-9.267 Y-6.684 F420.000
G1 X-8.820 Y-7.282 F420.000
G1 X-8.331 Y-7.842 F420.000
G1 X-7.981 Y-8.195 F420.000
G1 X-7.617 Y-8.530 F420.000
G1 X-7.049 Y-9.011 F420.000
G1 X-6.256 Y-9.609 F420.000
G1 X-5.635 Y-10.026 F420.000
G1 X-5.425 Y-10.158 F420.000
G1 X-4.989 Y-10.391 F420.000
G1 X-4.316 Y-10.707 F420.000
G1 X-3.620 Y-10.981 F420.000
G1 X-2.910 Y-11.218 F420.000
G1 X-2.429 Y-11.350 F420.000
G1 X-1.940 Y-11.447 F420.000
G1 X-1.447 Y-11.534 F420.000
G1 X-0.703 Y-11.628 F420.000
G1 X-0.455 Y-11.650 F420.000
G1 X0.038 Y-11.673 F420.000
G1 X0.771 Y-11.654 F420.000
G1 X1.504 Y-11.590 F420.000
G1 X2.237 Y-11.481 F420.000
G1 X2.718 Y-11.387 F420.000
G1 X2.959 Y-11.331 F420.000
G1 X3.669 Y-11.113 F420.000
G1 X4.594 Y-10.756 F420.000
G1 X5.271 Y-10.455 F420.000
G1 X5.707 Y-10.214 F420.000
G1 X6.132 Y-9.959 F420.000
G1 X6.744 Y-9.541 F420.000
G1 X7.534 Y-8.944 F420.000
G1 X7.726 Y-8.789 F420.000
G1 X8.267 Y-8.278 F420.000
G1 X8.617 Y-7.921 F420.000
G1 X9.113 Y-7.365 F420.000
G1 X9.575 Y-6.778 F420.000
G1 X10.109 Y-5.936 F420.000
G1 X10.361 Y-5.508 F420.000
G1 X10.586 Y-5.064 F420.000
G1 X10.883 Y-4.380 F420.000
G1 X11.064 Y-3.914 F420.000
G1 X11.305 Y-3.203 F420.000
G1 X11.508 Y-2.485 F420.000
G1 X11.568 Y-2.244 F420.000
G1 X11.658 Y-1.756 F420.000
G1 X11.695 Y-1.508 F420.000
G1 X11.808 Y-0.267 F420.000
G1 X11.831 Y0.470 F420.000
G1 X11.808 Y1.203 F420.000
G1 X11.793 Y1.447 F420.000
G1 X11.718 Y1.936 F420.000
G1 X11.620 Y2.417 F420.000
G1 X11.500 Y2.898 F420.000
G1 X11.286 Y3.609 F420.000
G1 X11.038 Y4.308 F420.000
G1 X10.763 Y4.996 F420.000
G1 X10.432 Y5.658 F420.000
G1 X10.188 Y6.086 F420.000
G1 X9.921 Y6.504 F420.000
G1 X9.331 Y7.297 F420.000
G1 X8.850 Y7.865 F420.000
G1 X8.338 Y8.406 F420.000
G1 X7.797 Y8.917 F420.000
G1 X7.214 Y9.383 F420.000
G1 X6.605 Y9.820 F420.000
G1 X5.981 Y10.226 F420.000
G1 X5.335 Y10.598 F420.000
G1 X4.883 Y10.808 F420.000
G1 X3.959 Y11.180 F420.000
G1 X3.726 Y11.263 F420.000
G1 X3.248 Y11.410 F420.000
G1 X2.526 Y11.598 F420.000
G1 X1.793 Y11.748 F420.000
G1 X1.053 Y11.861 F420.000
G1 X0.308 Y11.921 F420.000
G1 X-0.429 Y11.940 F420.000
G1 X-1.162 Y11.917 F420.000
G1 X-1.650 Y11.876 F420.000
G1 X-2.383 Y11.759 F420.000
G1 X-3.105 Y11.602 F420.000
G1 X-3.579 Y11.470 F420.000
G1 X-4.045 Y11.305 F420.000
G1 X-4.274 Y11.214 F420.000
G1 X-5.169 Y10.801 F420.000
G1 X-5.831 Y10.466 F420.000
G1 X-6.462 Y10.075 F420.000
G1 X-6.868 Y9.789 F420.000
G1 X-7.459 Y9.338 F420.000
G1 X-8.030 Y8.861 F420.000
G1 X-8.718 Y8.139 F420.000
G1 X-9.203 Y7.571 F420.000
G1 X-9.654 Y6.981 F420.000
G1 X-10.071 Y6.365 F420.000
G1 X-10.203 Y6.154 F420.000
G1 X-10.436 Y5.718 F420.000
G1 X-10.658 Y5.274 F420.000
G1 X-11.147 Y4.128 F420.000
G1 X-11.398 Y3.421 F420.000
G1 X-11.605 Y2.703 F420.000
G1 X-11.774 Y1.974 F420.000
G1 X-11.861 Y1.481 F420.000
G1 X-11.932 Y0.737 F420.000
G1 X-11.951 Y-0.248 F420.000
G1 X-11.932 Y-0.981 F420.000
G1 X-11.902 Y-1.470 F420.000
G1 X-11.793 Y-2.203 F420.000
G1 X-11.684 Y-2.684 F420.000
G1 X-11.481 Y-3.395 F420.000
G1 X-11.244 Y-4.098 F420.000
G1 X-10.981 Y-4.793 F420.000
G1 X-10.665 Y-5.466 F420.000
G1 X-10.429 Y-5.902 F420.000
G1 X-10.034 Y-6.534 F420.000
G1 X-9.605 Y-7.139 F420.000
G1 X-9.305 Y-7.530 F420.000
G1 X-8.827 Y-8.102 F420.000
G1 X-8.481 Y-8.455 F420.000
G1 X-8.124 Y-8.797 F420.000
G1 X-7.564 Y-9.289 F420.000
G1 X-6.782 Y-9.906 F420.000
G1 X-6.169 Y-10.335 F420.000
G1 X-5.752 Y-10.602 F420.000
G1 X-5.316 Y-10.835 F420.000
G1 X-4.643 Y-11.154 F420.000
G1 X-4.184 Y-11.346 F420.000
G1 X-3.481 Y-11.605 F420.000
G1 X-2.763 Y-11.823 F420.000
G1 X-2.034 Y-11.996 F420.000
G1 X-1.545 Y-12.086 F420.000
G1 X-0.801 Y-12.180 F420.000
G1 X-0.305 Y-12.218 F420.000
G1 X0.677 Y-12.207 F420.000
G1 X1.165 Y-12.184 F420.000
G1 X1.898 Y-12.098 F420.000
G1 X2.628 Y-11.962 F420.000
G1 X3.109 Y-11.846 F420.000
G1 X3.583 Y-11.703 F420.000
G1 X4.286 Y-11.466 F420.000
G1 X4.977 Y-11.199 F420.000
G1 X5.643 Y-10.868 F420.000
G1 X6.079 Y-10.632 F420.000
G1 X6.500 Y-10.368 F420.000
G1 X7.117 Y-9.947 F420.000
G1 X7.711 Y-9.496 F420.000
G1 X8.282 Y-9.019 F420.000
G1 X8.647 Y-8.684 F420.000
G1 X9.150 Y-8.139 F420.000
G1 X9.632 Y-7.571 F420.000
G1 X9.786 Y-7.376 F420.000
G1 X10.353 Y-6.556 F420.000
G1 X10.865 Y-5.699 F420.000
G1 X11.083 Y-5.248 F420.000
G1 X11.380 Y-4.560 F420.000
G1 X11.650 Y-3.865 F420.000
G1 X11.895 Y-3.162 F420.000
G1 X12.019 Y-2.680 F420.000
G1 X12.169 Y-1.947 F420.000
G1 X12.248 Y-1.451 F420.000
G1 X12.305 Y-0.955 F420.000
G1 X12.365 Y0.034 F420.000
G1 X12.376 Y0.767 F420.000
G1 X12.372 Y1.011 F420.000
G1 X12.293 Y1.744 F420.000
G1 X12.211 Y2.233 F420.000
G1 X12.041 Y2.955 F420.000
G1 X11.831 Y3.665 F420.000
G1 X11.500 Y4.594 F420.000
G1 X11.120 Y5.504 F420.000
G1 X10.643 Y6.368 F420.000
G1 X10.237 Y6.989 F420.000
G1 X9.944 Y7.391 F420.000
G1 X9.470 Y7.966 F420.000
G1 X9.143 Y8.338 F420.000
G1 X8.632 Y8.880 F420.000
G1 X8.075 Y9.376 F420.000
G1 X7.489 Y9.838 F420.000
G1 X6.883 Y10.274 F420.000
G1 X6.049 Y10.816 F420.000
G1 X5.613 Y11.056 F420.000
G1 X5.165 Y11.274 F420.000
G1 X4.707 Y11.470 F420.000
G1 X4.004 Y11.729 F420.000
G1 X3.289 Y11.955 F420.000
G1 X2.808 Y12.086 F420.000
G1 X2.075 Y12.244 F420.000
G1 X1.338 Y12.368 F420.000
G1 X0.842 Y12.432 F420.000
G1 X0.346 Y12.466 F420.000
G1 X-0.391 Y12.489 F420.000
G1 X-1.124 Y12.477 F420.000
G1 X-1.613 Y12.429 F420.000
G1 X-2.590 Y12.278 F420.000
G1 X-2.831 Y12.233 F420.000
G1 X-3.312 Y12.117 F420.000
G1 X-3.786 Y11.974 F420.000
G1 X-4.252 Y11.808 F420.000
G1 X-4.707 Y11.617 F420.000
G1 X-5.827 Y11.086 F420.000
G1 X-6.466 Y10.711 F420.000
G1 X-7.286 Y10.150 F420.000
G1 X-8.068 Y9.534 F420.000
G1 X-8.440 Y9.207 F420.000
G1 X-9.124 Y8.489 F420.000
G1 X-9.605 Y7.921 F420.000
G1 X-10.060 Y7.331 F420.000
G1 X-10.489 Y6.718 F420.000
G1 X-10.737 Y6.289 F420.000
G1 X-11.079 Y5.628 F420.000
G1 X-11.485 Y4.722 F420.000
G1 X-11.767 Y4.034 F420.000
G1 X-12.064 Y3.083 F420.000
G1 X-12.244 Y2.357 F420.000
G1 X-12.346 Y1.868 F420.000
G1 X-12.440 Y1.124 F420.000
G1 X-12.474 Y0.628 F420.000
G1 X-12.496 Y-0.113 F420.000
G1 X-12.485 Y-1.090 F420.000
G1 X-12.410 Y-1.823 F420.000
G1 X-12.331 Y-2.312 F420.000
G1 X-12.229 Y-2.793 F420.000
G1 X-12.105 Y-3.271 F420.000
G1 X-11.959 Y-3.741 F420.000
G1 X-11.538 Y-4.898 F420.000
G1 X-11.222 Y-5.571 F420.000
G1 X-10.985 Y-6.004 F420.000
G1 X-10.462 Y-6.850 F420.000
G1 X-10.045 Y-7.466 F420.000
G1 X-9.583 Y-8.049 F420.000
G1 X-9.086 Y-8.602 F420.000
G1 X-8.560 Y-9.128 F420.000
G1 X-8.011 Y-9.632 F420.000
G1 X-7.244 Y-10.259 F420.000
G1 X-6.425 Y-10.820 F420.000
G1 X-5.786 Y-11.207 F420.000
G1 X-5.568 Y-11.327 F420.000
G1 X-4.662 Y-11.744 F420.000
G1 X-3.966 Y-12.023 F420.000
G1 X-3.259 Y-12.263 F420.000
G1 X-3.023 Y-12.335 F420.000
G1 X-2.534 Y-12.451 F420.000
G1 X-1.801 Y-12.598 F420.000
G1 X-1.056 Y-12.711 F420.000
G1 X-0.560 Y-12.744 F420.000
G1 X0.180 Y-12.767 F420.000
G1 X0.914 Y-12.759 F420.000
G1 X1.158 Y-12.748 F420.000
G1 X1.647 Y-12.692 F420.000
G1 X2.135 Y-12.617 F420.000
G1 X2.857 Y-12.470 F420.000
G1 X3.335 Y-12.346 F420.000
G1 X4.045 Y-12.128 F420.000
G1 X4.744 Y-11.883 F420.000
G1 X5.647 Y-11.477 F420.000
G1 X5.868 Y-11.368 F420.000
G1 X6.519 Y-11.008 F420.000
G1 X6.936 Y-10.744 F420.000
G1 X7.541 Y-10.316 F420.000
G1 X8.316 Y-9.695 F420.000
G1 X8.872 Y-9.203 F420.000
G1 X9.053 Y-9.034 F420.000
G1 X9.722 Y-8.305 F420.000
G1 X10.195 Y-7.726 F420.000
G1 X10.635 Y-7.124 F420.000
G1 X10.910 Y-6.711 F420.000
G1 X11.158 Y-6.282 F420.000
G1 X11.605 Y-5.387 F420.000
G1 X12.015 Y-4.477 F420.000
G1 X12.263 Y-3.774 F420.000
G1 X12.474 Y-3.053 F420.000
G1 X12.643 Y-2.323 F420.000
G1 X12.767 Y-1.586 F420.000
G1 X12.850 Y-0.842 F420.000
G1 X12.898 Y-0.098 F420.000
G1 X12.917 Y0.880 F420.000
G1 X12.883 Y1.368 F420.000
G1 X12.786 Y2.102 F420.000
G1 X12.632 Y2.823 F420.000
G1 X12.508 Y3.301 F420.000
G1 X12.211 Y4.241 F420.000
G1 X11.951 Y4.936 F420.000
G1 X11.662 Y5.620 F420.000
G1 X11.316 Y6.274 F420.000
G1 X10.929 Y6.906 F420.000
G1 X10.511 Y7.519 F420.000
G1 X10.068 Y8.113 F420.000
G1 X9.579 Y8.673 F420.000
G1 X9.237 Y9.030 F420.000
G1 X8.692 Y9.538 F420.000
G1 X8.124 Y10.023 F420.000
G1 X7.534 Y10.481 F420.000
G1 X6.921 Y10.902 F420.000
G1 X6.289 Y11.293 F420.000
G1 X6.075 Y11.417 F420.000
G1 X5.632 Y11.639 F420.000
G1 X4.951 Y11.944 F420.000
G1 X4.256 Y12.214 F420.000
G1 X3.545 Y12.451 F420.000
G1 X3.064 Y12.590 F420.000
G1 X2.335 Y12.759 F420.000
G1 X1.598 Y12.895 F420.000
G1 X1.350 Y12.932 F420.000
G1 X0.357 Y13.015 F420.000
G1 X-0.624 Y13.049 F420.000
G1 X-1.113 Y13.023 F420.000
G1 X-1.846 Y12.947 F420.000
G1 X-2.335 Y12.876 F420.000
G1 X-3.060 Y12.729 F420.000
G1 X-3.541 Y12.613 F420.000
G1 X-4.015 Y12.474 F420.000
G1 X-4.481 Y12.301 F420.000
G1 X-4.940 Y12.113 F420.000
G1 X-5.831 Y11.688 F420.000
G1 X-6.267 Y11.455 F420.000
G1 X-7.316 Y10.797 F420.000
G1 X-7.910 Y10.353 F420.000
G1 X-8.673 Y9.718 F420.000
G1 X-9.026 Y9.372 F420.000
G1 X-9.368 Y9.015 F420.000
G1 X-9.861 Y8.455 F420.000
G1 X-10.477 Y7.673 F420.000
G1 X-10.906 Y7.064 F420.000
G1 X-11.162 Y6.635 F420.000
G1 X-11.395 Y6.195 F420.000
G1 X-11.936 Y5.071 F420.000
G1 X-12.038 Y4.846 F420.000
G1 X-12.297 Y4.147 F420.000
G1 X-12.658 Y2.955 F420.000
G1 X-12.827 Y2.226 F420.000
G1 X-12.951 Y1.489 F420.000
G1 X-12.981 Y1.241 F420.000
G1 X-13.038 Y0.000 F420.000
G1 X-13.023 Y-1.222 F420.000
G1 X-12.981 Y-1.711 F420.000
G1 X-12.902 Y-2.199 F420.000
G1 X-12.748 Y-2.921 F420.000
G1 X-12.481 Y-3.872 F420.000
G1 X-12.248 Y-4.571 F420.000
G1 X-12.075 Y-5.034 F420.000
G1 X-11.872 Y-5.485 F420.000
G1 X-11.647 Y-5.925 F420.000
G1 X-11.406 Y-6.357 F420.000
G1 X-11.019 Y-6.989 F420.000
G1 X-10.474 Y-7.812 F420.000
G1 X-10.008 Y-8.387 F420.000
G1 X-9.673 Y-8.759 F420.000
G1 X-9.158 Y-9.297 F420.000
G1 X-8.444 Y-9.981 F420.000
G1 X-8.071 Y-10.312 F420.000
G1 X-7.481 Y-10.763 F420.000
G1 X-6.865 Y-11.180 F420.000
G1 X-6.226 Y-11.564 F420.000
G1 X-5.564 Y-11.914 F420.000
G1 X-4.883 Y-12.229 F420.000
G1 X-3.959 Y-12.609 F420.000
G1 X-3.485 Y-12.759 F420.000
G1 X-2.519 Y-13.019 F420.000
G1 X-2.274 Y-13.075 F420.000
G1 X-1.786 Y-13.158 F420.000
G1 X-1.041 Y-13.248 F420.000
G1 X-0.297 Y-13.297 F420.000
G1 X0.440 Y-13.308 F420.000
G1 X1.173 Y-13.278 F420.000
G1 X1.906 Y-13.211 F420.000
G1 X2.395 Y-13.128 F420.000
G1 X3.117 Y-12.970 F420.000
G1 X3.594 Y-12.846 F420.000
G1 X4.301 Y-12.620 F420.000
G1 X4.996 Y-12.361 F420.000
G1 X5.677 Y-12.068 F420.000
G1 X6.338 Y-11.729 F420.000
G1 X6.985 Y-11.357 F420.000
G1 X7.402 Y-11.090 F420.000
G1 X8.395 Y-10.353 F420.000
G1 X8.774 Y-10.034 F420.000
G1 X9.320 Y-9.526 F420.000
G1 X9.838 Y-8.989 F420.000
G1 X10.165 Y-8.617 F420.000
G1 X10.632 Y-8.038 F420.000
G1 X11.218 Y-7.237 F420.000
G1 X11.474 Y-6.812 F420.000
G1 X11.944 Y-5.932 F420.000
G1 X12.361 Y-5.030 F420.000
G1 X12.643 Y-4.338 F420.000
G1 X12.729 Y-4.105 F420.000
G1 X13.000 Y-3.147 F420.000
G1 X13.165 Y-2.414 F420.000
G1 X13.289 Y-1.677 F420.000
G1 X13.380 Y-0.932 F420.000
G1 X13.436 Y-0.188 F420.000
G1 X13.451 Y0.545 F420.000
G1 X13.429 Y1.278 F420.000
G1 X13.414 Y1.523 F420.000
G1 X13.305 Y2.256 F420.000
G1 X13.207 Y2.737 F420.000
G1 X13.026 Y3.455 F420.000
G1 X12.812 Y4.162 F420.000
G1 X12.564 Y4.857 F420.000
G1 X12.282 Y5.541 F420.000
G1 X11.966 Y6.211 F420.000
G1 X11.737 Y6.647 F420.000
G1 X11.203 Y7.481 F420.000
G1 X10.767 Y8.083 F420.000
G1 X10.135 Y8.850 F420.000
G1 X9.801 Y9.214 F420.000
G1 X9.274 Y9.741 F420.000
G1 X8.910 Y10.075 F420.000
G1 X8.338 Y10.556 F420.000
G1 X7.744 Y11.008 F420.000
G1 X7.128 Y11.425 F420.000
G1 X6.489 Y11.808 F420.000
G1 X6.053 Y12.045 F420.000
G1 X5.602 Y12.256 F420.000
G1 X5.143 Y12.451 F420.000
G1 X4.444 Y12.718 F420.000
G1 X3.970 Y12.883 F420.000
G1 X3.008 Y13.154 F420.000
G1 X2.034 Y13.380 F420.000
G1 X1.041 Y13.511 F420.000
G1 X0.297 Y13.568 F420.000
G1 X-0.440 Y13.590 F420.000
G1 X-1.173 Y13.571 F420.000
G1 X-1.662 Y13.538 F420.000
G1 X-2.150 Y13.466 F420.000
G1 X-2.639 Y13.380 F420.000
G1 X-3.602 Y13.169 F420.000
G1 X-4.308 Y12.944 F420.000
G1 X-5.000 Y12.677 F420.000
G1 X-5.673 Y12.372 F420.000
G1 X-6.331 Y12.023 F420.000
G1 X-6.970 Y11.650 F420.000
G1 X-7.805 Y11.113 F420.000
G1 X-8.008 Y10.974 F420.000
G1 X-8.586 Y10.508 F420.000
G1 X-8.959 Y10.180 F420.000
G1 X-9.316 Y9.838 F420.000
G1 X-9.827 Y9.297 F420.000
G1 X-10.474 Y8.541 F420.000
G1 X-11.083 Y7.759 F420.000
G1 X-11.361 Y7.346 F420.000
G1 X-11.850 Y6.477 F420.000
G1 X-12.301 Y5.586 F420.000
G1 X-12.508 Y5.135 F420.000
G1 X-12.680 Y4.669 F420.000
G1 X-12.917 Y3.959 F420.000
G1 X-13.199 Y3.000 F420.000
G1 X-13.451 Y1.778 F420.000
G1 X-13.508 Y1.282 F420.000
G1 X-13.556 Y0.538 F420.000
G1 X-13.575 Y-0.447 F420.000
G1 X-13.549 Y-1.425 F420.000
G1 X-13.459 Y-2.158 F420.000
G1 X-13.365 Y-2.639 F420.000
G1 X-13.256 Y-3.120 F420.000
G1 X-13.056 Y-3.831 F420.000
G1 X-12.677 Y-5.004 F420.000
G1 X-12.383 Y-5.684 F420.000
G1 X-11.914 Y-6.556 F420.000
G1 X-11.395 Y-7.402 F420.000
G1 X-11.124 Y-7.816 F420.000
G1 X-10.680 Y-8.410 F420.000
G1 X-10.203 Y-8.981 F420.000
G1 X-9.868 Y-9.346 F420.000
G1 X-9.346 Y-9.872 F420.000
G1 X-8.620 Y-10.545 F420.000
G1 X-8.053 Y-11.026 F420.000
G1 X-7.853 Y-11.177 F420.000
G1 X-7.233 Y-11.594 F420.000
G1 X-6.376 Y-12.098 F420.000
G1 X-5.496 Y-12.564 F420.000
G1 X-5.271 Y-12.673 F420.000
G1 X-4.812 Y-12.868 F420.000
G1 X-4.113 Y-13.132 F420.000
G1 X-3.402 Y-13.365 F420.000
G1 X-2.921 Y-13.485 F420.000
G1 X-2.188 Y-13.643 F420.000
G1 X-1.699 Y-13.729 F420.000
G1 X-0.955 Y-13.808 F420.000
G1 X0.034 Y-13.853 F420.000
G1 X0.523 Y-13.861 F420.000
G1 X1.256 Y-13.823 F420.000
G1 X1.744 Y-13.774 F420.000
G1 X2.722 Y-13.613 F420.000
G1 X3.444 Y-13.459 F420.000
G1 X4.387 Y-13.169 F420.000
G1 X5.083 Y-12.910 F420.000
G1 X5.763 Y-12.617 F420.000
G1 X6.432 Y-12.289 F420.000
G1 X7.083 Y-11.929 F420.000
G1 X7.921 Y-11.398 F420.000
G1 X8.124 Y-11.259 F420.000
G1 X8.714 Y-10.801 F420.000
G1 X9.462 Y-10.150 F420.000
G1 X9.989 Y-9.628 F420.000
G1 X10.323 Y-9.263 F420.000
G1 X10.955 Y-8.496 F420.000
G1 X11.410 Y-7.906 F420.000
G1 X11.823 Y-7.282 F420.000
G1 X12.301 Y-6.410 F420.000
G1 X12.744 Y-5.515 F420.000
G1 X12.940 Y-5.056 F420.000
G1 X13.195 Y-4.353 F420.000
G1 X13.481 Y-3.398 F420.000
G1 X13.609 Y-2.917 F420.000
G1 X13.752 Y-2.184 F420.000
G1 X13.831 Y-1.688 F420.000
G1 X13.951 Y-0.695 F420.000
G1 X13.996 Y0.289 F420.000
G1 X13.996 Y1.023 F420.000
G1 X13.989 Y1.267 F420.000
G1 X13.902 Y2.000 F420.000
G1 X13.816 Y2.485 F420.000
G1 X13.650 Y3.207 F420.000
G1 X13.395 Y4.162 F420.000
G1 X13.060 Y5.090 F420.000
G1 X12.782 Y5.778 F420.000
G1 X12.579 Y6.229 F420.000
G1 X12.094 Y7.094 F420.000
G1 X11.695 Y7.718 F420.000
G1 X11.267 Y8.323 F420.000
G1 X10.812 Y8.910 F420.000
G1 X10.492 Y9.289 F420.000
G1 X10.327 Y9.474 F420.000
G1 X9.259 Y10.508 F420.000
G1 X8.489 Y11.135 F420.000
G1 X7.684 Y11.718 F420.000
G1 X7.060 Y12.124 F420.000
G1 X6.624 Y12.365 F420.000
G1 X5.726 Y12.793 F420.000
G1 X5.038 Y13.086 F420.000
G1 X4.571 Y13.267 F420.000
G1 X3.617 Y13.560 F420.000
G1 X2.895 Y13.744 F420.000
G1 X1.917 Y13.944 F420.000
G1 X1.173 Y14.056 F420.000
G1 X-0.064 Y14.128 F420.000
G1 X-0.553 Y14.143 F420.000
G1 X-1.286 Y14.117 F420.000
G1 X-2.019 Y14.049 F420.000
G1 X-2.752 Y13.936 F420.000
G1 X-3.474 Y13.778 F420.000
G1 X-4.188 Y13.579 F420.000
G1 X-4.654 Y13.421 F420.000
G1 X-5.560 Y13.026 F420.000
G1 X-6.226 Y12.699 F420.000
G1 X-7.090 Y12.222 F420.000
G1 X-7.925 Y11.692 F420.000
G1 X-8.128 Y11.553 F420.000
G1 X-8.519 Y11.252 F420.000
G1 X-9.090 Y10.774 F420.000
G1 X-9.639 Y10.274 F420.000
G1 X-10.158 Y9.741 F420.000
G1 X-10.647 Y9.180 F420.000
G1 X-11.278 Y8.414 F420.000
G1 X-11.707 Y7.808 F420.000
G1 X-12.102 Y7.173 F420.000
G1 X-12.346 Y6.737 F420.000
G1 X-12.673 Y6.068 F420.000
G1 X-12.977 Y5.383 F420.000
G1 X-13.342 Y4.459 F420.000
G1 X-13.684 Y3.263 F420.000
G1 X-13.910 Y2.289 F420.000
G1 X-14.015 Y1.545 F420.000
G1 X-14.079 Y0.801 F420.000
G1 X-14.113 Y0.056 F420.000
G1 X-14.117 Y-0.677 F420.000
G1 X-14.075 Y-1.654 F420.000
G1 X-14.011 Y-2.143 F420.000
G1 X-13.868 Y-2.868 F420.000
G1 X-13.688 Y-3.590 F420.000
G1 X-13.331 Y-4.771 F420.000
G1 X-13.169 Y-5.237 F420.000
G1 X-12.868 Y-5.917 F420.000
G1 X-12.402 Y-6.789 F420.000
G1 X-12.023 Y-7.425 F420.000
G1 X-11.613 Y-8.045 F420.000
G1 X-11.180 Y-8.647 F420.000
G1 X-10.722 Y-9.229 F420.000
G1 X-10.041 Y-9.947 F420.000
G1 X-9.323 Y-10.632 F420.000
G1 X-8.774 Y-11.132 F420.000
G1 X-8.184 Y-11.590 F420.000
G1 X-7.778 Y-11.876 F420.000
G1 X-7.150 Y-12.274 F420.000
G1 X-6.068 Y-12.887 F420.000
G1 X-5.624 Y-13.117 F420.000
G1 X-4.707 Y-13.504 F420.000
G1 X-4.000 Y-13.752 F420.000
G1 X-3.286 Y-13.966 F420.000
G1 X-2.805 Y-14.090 F420.000
G1 X-2.316 Y-14.180 F420.000
G1 X-1.571 Y-14.293 F420.000
G1 X-0.827 Y-14.372 F420.000
G1 X-0.331 Y-14.406 F420.000
G1 X0.406 Y-14.410 F420.000
G1 X1.139 Y-14.383 F420.000
G1 X1.872 Y-14.323 F420.000
G1 X2.850 Y-14.158 F420.000
G1 X3.331 Y-14.060 F420.000
G1 X4.041 Y-13.861 F420.000
G1 X4.744 Y-13.624 F420.000
G1 X5.432 Y-13.357 F420.000
G1 X6.109 Y-13.053 F420.000
G1 X6.771 Y-12.714 F420.000
G1 X7.417 Y-12.350 F420.000
G1 X8.045 Y-11.955 F420.000
G1 X8.650 Y-11.526 F420.000
G1 X9.237 Y-11.071 F420.000
G1 X9.617 Y-10.752 F420.000
G1 X9.801 Y-10.586 F420.000
G1 X10.154 Y-10.233 F420.000
G1 X10.496 Y-9.876 F420.000
G1 X10.992 Y-9.316 F420.000
G1 X11.613 Y-8.541 F420.000
G1 X12.053 Y-7.940 F420.000
G1 X12.316 Y-7.519 F420.000
G1 X12.677 Y-6.868 F420.000
G1 X13.237 Y-5.752 F420.000
G1 X13.519 Y-5.060 F420.000
G1 X13.759 Y-4.353 F420.000
G1 X13.974 Y-3.635 F420.000
G1 X14.218 Y-2.669 F420.000
G1 X14.380 Y-1.684 F420.000
G1 X14.504 Y-0.692 F420.000
G1 X14.549 Y0.293 F420.000
G1 X14.553 Y0.782 F420.000
G1 X14.511 Y1.515 F420.000
G1 X14.455 Y2.004 F420.000
G1 X14.372 Y2.492 F420.000
G1 X14.154 Y3.455 F420.000
G1 X13.962 Y4.165 F420.000
G1 X13.891 Y4.402 F420.000
G1 X13.556 Y5.331 F420.000
G1 X13.278 Y6.019 F420.000
G1 X13.177 Y6.244 F420.000
G1 X12.586 Y7.323 F420.000
G1 X12.331 Y7.748 F420.000
G1 X11.910 Y8.365 F420.000
G1 X11.462 Y8.959 F420.000
G1 X10.996 Y9.534 F420.000
G1 X10.492 Y10.083 F420.000
G1 X9.955 Y10.598 F420.000
G1 X9.391 Y11.090 F420.000
G1 X8.620 Y11.718 F420.000
G1 X8.425 Y11.868 F420.000
G1 X7.602 Y12.417 F420.000
G1 X7.177 Y12.677 F420.000
G1 X6.733 Y12.910 F420.000
G1 X6.060 Y13.237 F420.000
G1 X5.372 Y13.534 F420.000
G1 X4.673 Y13.801 F420.000
G1 X3.962 Y14.038 F420.000
G1 X3.241 Y14.241 F420.000
G1 X2.511 Y14.410 F420.000
G1 X2.267 Y14.459 F420.000
G1 X1.274 Y14.594 F420.000
G1 X0.530 Y14.665 F420.000
G1 X0.282 Y14.680 F420.000
G1 X-0.699 Y14.684 F420.000
G1 X-1.677 Y14.639 F420.000
G1 X-1.921 Y14.620 F420.000
G1 X-2.898 Y14.470 F420.000
G1 X-3.620 Y14.312 F420.000
G1 X-4.098 Y14.188 F420.000
G1 X-4.335 Y14.117 F420.000
G1 X-5.252 Y13.759 F420.000
G1 X-6.594 Y13.124 F420.000
G1 X-7.034 Y12.898 F420.000
G1 X-7.669 Y12.515 F420.000
G1 X-8.282 Y12.098 F420.000
G1 X-9.071 Y11.500 F420.000
G1 X-9.643 Y11.023 F420.000
G1 X-9.827 Y10.857 F420.000
G1 X-10.515 Y10.143 F420.000
G1 X-11.496 Y9.023 F420.000
G1 X-11.801 Y8.628 F420.000
G1 X-12.613 Y7.376 F420.000
G1 X-12.962 Y6.718 F420.000
G1 X-13.380 Y5.816 F420.000
G1 X-13.662 Y5.124 F420.000
G1 X-13.992 Y4.184 F420.000
G1 X-14.207 Y3.466 F420.000
G1 X-14.331 Y2.985 F420.000
G1 X-14.421 Y2.496 F420.000
G1 X-14.526 Y1.752 F420.000
G1 X-14.639 Y0.511 F420.000
G1 X-14.677 Y-0.229 F420.000
G1 X-14.662 Y-0.962 F420.000
G1 X-14.609 Y-1.695 F420.000
G1 X-14.556 Y-2.184 F420.000
G1 X-14.466 Y-2.673 F420.000
G1 X-14.237 Y-3.635 F420.000
G1 X-13.895 Y-4.820 F420.000
G1 X-13.741 Y-5.286 F420.000
G1 X-13.553 Y-5.744 F420.000
G1 X-13.229 Y-6.414 F420.000
G1 X-12.748 Y-7.278 F420.000
G1 X-12.368 Y-7.917 F420.000
G1 X-11.947 Y-8.530 F420.000
G1 X-11.500 Y-9.124 F420.000
G1 X-11.192 Y-9.508 F420.000
G1 X-10.692 Y-10.056 F420.000
G1 X-10.165 Y-10.586 F420.000
G1 X-9.256 Y-11.436 F420.000
G1 X-8.677 Y-11.906 F420.000
G1 X-8.274 Y-12.199 F420.000
G1 X-7.650 Y-12.605 F420.000
G1 X-6.135 Y-13.470 F420.000
G1 X-5.462 Y-13.786 F420.000
G1 X-5.004 Y-13.974 F420.000
G1 X-4.060 Y-14.301 F420.000
G1 X-3.102 Y-14.575 F420.000
G1 X-2.861 Y-14.635 F420.000
G1 X-2.128 Y-14.774 F420.000
G1 X-1.383 Y-14.876 F420.000
G1 X-0.887 Y-14.929 F420.000
G1 X0.102 Y-14.962 F420.000
G1 X1.079 Y-14.947 F420.000
G1 X1.323 Y-14.936 F420.000
G1 X2.301 Y-14.812 F420.000
G1 X3.271 Y-14.632 F420.000
G1 X3.752 Y-14.523 F420.000
G1 X4.692 Y-14.222 F420.000
G1 X5.383 Y-13.966 F420.000
G1 X6.293 Y-13.579 F420.000
G1 X6.519 Y-13.474 F420.000
G1 X7.602 Y-12.876 F420.000
G1 X8.233 Y-12.489 F420.000
G1 X8.647 Y-12.218 F420.000
G1 X9.241 Y-11.771 F420.000
G1 X9.812 Y-11.297 F420.000
G1 X10.361 Y-10.797 F420.000
G1 X10.887 Y-10.267 F420.000
G1 X11.549 Y-9.526 F420.000
G1 X12.011 Y-8.944 F420.000
G1 X12.447 Y-8.338 F420.000
G1 X12.586 Y-8.132 F420.000
G1 X12.842 Y-7.703 F420.000
G1 X13.541 Y-6.383 F420.000
G1 X13.842 Y-5.703 F420.000
G1 X14.105 Y-5.004 F420.000
G1 X14.342 Y-4.293 F420.000
G1 X14.620 Y-3.338 F420.000
G1 X14.774 Y-2.605 F420.000
G1 X14.977 Y-1.372 F420.000
G1 X15.011 Y-1.124 F420.000
G1 X15.075 Y-0.380 F420.000
G1 X15.098 Y0.357 F420.000
G1 X15.094 Y0.846 F420.000
G1 X15.049 Y1.579 F420.000
G1 X14.962 Y2.312 F420.000
G1 X14.925 Y2.556 F420.000
G1 X14.707 Y3.519 F420.000
G1 X14.515 Y4.229 F420.000
G1 X14.372 Y4.703 F420.000
G1 X14.207 Y5.169 F420.000
G1 X13.842 Y6.090 F420.000
G1 X13.519 Y6.756 F420.000
G1 X13.158 Y7.406 F420.000
G1 X12.771 Y8.041 F420.000
G1 X12.214 Y8.861 F420.000
G1 X11.609 Y9.643 F420.000
G1 X11.289 Y10.023 F420.000
G1 X10.959 Y10.391 F420.000
G1 X10.425 Y10.910 F420.000
G1 X9.677 Y11.564 F420.000
G1 X8.906 Y12.192 F420.000
G1 X8.293 Y12.620 F420.000
G1 X7.658 Y13.015 F420.000
G1 X7.222 Y13.259 F420.000
G1 X6.556 Y13.598 F420.000
G1 X5.417 Y14.105 F420.000
G1 X4.722 Y14.376 F420.000
G1 X4.489 Y14.459 F420.000
G1 X3.289 Y14.805 F420.000
G1 X2.556 Y14.962 F420.000
G1 X1.816 Y15.079 F420.000
G1 X0.823 Y15.188 F420.000
G1 X0.327 Y15.226 F420.000
G1 X-0.898 Y15.229 F420.000
G1 X-1.632 Y15.199 F420.000
G1 X-2.365 Y15.113 F420.000
G1 X-3.335 Y14.936 F420.000
G1 X-3.816 Y14.831 F420.000
G1 X-4.526 Y14.617 F420.000
G1 X-4.992 Y14.447 F420.000
G1 X-5.677 Y14.162 F420.000
G1 X-6.575 Y13.752 F420.000
G1 X-7.229 Y13.406 F420.000
G1 X-7.868 Y13.023 F420.000
G1 X-8.692 Y12.466 F420.000
G1 X-9.485 Y11.880 F420.000
G1 X-10.398 Y11.038 F420.000
G1 X-10.925 Y10.508 F420.000
G1 X-11.594 Y9.778 F420.000
G1 X-11.910 Y9.395 F420.000
G1 X-12.763 Y8.169 F420.000
G1 X-12.898 Y7.962 F420.000
G1 X-13.376 Y7.094 F420.000
G1 X-13.703 Y6.421 F420.000
G1 X-13.996 Y5.737 F420.000
G1 X-14.436 Y4.571 F420.000
G1 X-14.658 Y3.857 F420.000
G1 X-14.838 Y3.132 F420.000
G1 X-14.940 Y2.643 F420.000
G1 X-15.053 Y1.902 F420.000
G1 X-15.109 Y1.406 F420.000
G1 X-15.203 Y0.165 F420.000
G1 X-15.214 Y-0.079 F420.000
G1 X-15.211 Y-0.812 F420.000
G1 X-15.165 Y-1.545 F420.000
G1 X-15.075 Y-2.278 F420.000
G1 X-14.996 Y-2.767 F420.000
G1 X-14.838 Y-3.489 F420.000
G1 X-14.583 Y-4.444 F420.000
G1 X-14.365 Y-5.154 F420.000
G1 X-14.102 Y-5.850 F420.000
G1 X-13.797 Y-6.523 F420.000
G1 X-12.947 Y-8.026 F420.000
G1 X-12.820 Y-8.237 F420.000
G1 X-12.395 Y-8.850 F420.000
G1 X-11.944 Y-9.440 F420.000
G1 X-11.466 Y-10.011 F420.000
G1 X-10.962 Y-10.560 F420.000
G1 X-10.432 Y-11.086 F420.000
G1 X-9.711 Y-11.767 F420.000
G1 X-9.132 Y-12.237 F420.000
G1 X-8.530 Y-12.677 F420.000
G1 X-7.902 Y-13.083 F420.000
G1 X-6.827 Y-13.714 F420.000
G1 X-6.165 Y-14.068 F420.000
G1 X-5.944 Y-14.177 F420.000
G1 X-4.789 Y-14.647 F420.000
G1 X-4.556 Y-14.733 F420.000
G1 X-3.842 Y-14.951 F420.000
G1 X-3.120 Y-15.139 F420.000
G1 X-2.143 Y-15.338 F420.000
G1 X-0.654 Y-15.500 F420.000
G1 X0.575 Y-15.523 F420.000
G1 X0.820 Y-15.519 F420.000
G1 X1.553 Y-15.470 F420.000
G1 X2.041 Y-15.414 F420.000
G1 X3.015 Y-15.252 F420.000
G1 X3.737 Y-15.098 F420.000
G1 X4.447 Y-14.887 F420.000
G1 X5.380 Y-14.553 F420.000
G1 X6.297 Y-14.188 F420.000
G1 X6.962 Y-13.861 F420.000
G1 X7.613 Y-13.504 F420.000
G1 X8.462 Y-13.000 F420.000
G1 X9.079 Y-12.579 F420.000
G1 X9.861 Y-11.970 F420.000
G1 X10.609 Y-11.323 F420.000
G1 X10.789 Y-11.154 F420.000
G1 X11.474 Y-10.436 F420.000
G1 X11.962 Y-9.876 F420.000
G1 X12.586 Y-9.102 F420.000
G1 X13.004 Y-8.481 F420.000
G1 X13.865 Y-6.970 F420.000
G1 X14.188 Y-6.297 F420.000
G1 X14.477 Y-5.605 F420.000
G1 X14.726 Y-4.902 F420.000
G1 X15.150 Y-3.466 F420.000
G1 X15.305 Y-2.733 F420.000
G1 X15.508 Y-1.496 F420.000
G1 X15.617 Y-0.504 F420.000
G1 X15.643 Y0.481 F420.000
G1 X15.624 Y1.214 F420.000
G1 X15.571 Y1.947 F420.000
G1 X15.462 Y2.680 F420.000
G1 X15.237 Y3.643 F420.000
G1 X15.117 Y4.120 F420.000
G1 X14.902 Y4.831 F420.000
G1 X14.489 Y5.992 F420.000
G1 X14.173 Y6.665 F420.000
G1 X13.707 Y7.541 F420.000
G1 X13.071 Y8.602 F420.000
G1 X12.936 Y8.808 F420.000
G1 X12.342 Y9.598 F420.000
G1 X11.549 Y10.549 F420.000
G1 X11.030 Y11.083 F420.000
G1 X10.485 Y11.586 F420.000
G1 X9.346 Y12.545 F420.000
G1 X8.733 Y12.974 F420.000
G1 X7.673 Y13.624 F420.000
G1 X7.237 Y13.868 F420.000
G1 X6.342 Y14.297 F420.000
G1 X5.421 Y14.688 F420.000
G1 X4.485 Y15.030 F420.000
G1 X4.011 Y15.184 F420.000
G1 X3.038 Y15.414 F420.000
G1 X2.305 Y15.560 F420.000
G1 X2.060 Y15.602 F420.000
G1 X0.820 Y15.733 F420.000
G1 X0.323 Y15.771 F420.000
G1 X-0.902 Y15.774 F420.000
G1 X-1.880 Y15.733 F420.000
G1 X-2.613 Y15.635 F420.000
G1 X-3.338 Y15.500 F420.000
G1 X-4.060 Y15.331 F420.000
G1 X-4.534 Y15.199 F420.000
G1 X-5.000 Y15.030 F420.000
G1 X-5.914 Y14.650 F420.000
G1 X-7.034 Y14.120 F420.000
G1 X-7.692 Y13.778 F420.000
G1 X-8.526 Y13.248 F420.000
G1 X-9.538 Y12.534 F420.000
G1 X-10.105 Y12.056 F420.000
G1 X-10.654 Y11.553 F420.000
G1 X-11.519 Y10.665 F420.000
G1 X-11.857 Y10.297 F420.000
G1 X-12.327 Y9.718 F420.000
G1 X-12.914 Y8.914 F420.000
G1 X-13.192 Y8.500 F420.000
G1 X-13.447 Y8.071 F420.000
G1 X-13.917 Y7.192 F420.000
G1 X-14.440 Y6.064 F420.000
G1 X-14.729 Y5.376 F420.000
G1 X-14.974 Y4.669 F420.000
G1 X-15.248 Y3.707 F420.000
G1 X-15.477 Y2.737 F420.000
G1 X-15.526 Y2.492 F420.000
G1 X-15.647 Y1.500 F420.000
G1 X-15.737 Y0.508 F420.000
G1 X-15.759 Y-0.233 F420.000
G1 X-15.722 Y-1.455 F420.000
G1 X-15.688 Y-1.944 F420.000
G1 X-15.579 Y-2.677 F420.000
G1 X-15.477 Y-3.158 F420.000
G1 X-15.248 Y-4.120 F420.000
G1 X-14.981 Y-5.068 F420.000
G1 X-14.906 Y-5.305 F420.000
G1 X-14.643 Y-6.000 F420.000
G1 X-14.444 Y-6.451 F420.000
G1 X-14.105 Y-7.109 F420.000
G1 X-13.496 Y-8.184 F420.000
G1 X-13.094 Y-8.808 F420.000
G1 X-12.511 Y-9.613 F420.000
G1 X-12.049 Y-10.192 F420.000
G1 X-11.556 Y-10.748 F420.000
G1 X-10.861 Y-11.455 F420.000
G1 X-10.312 Y-11.959 F420.000
G1 X-9.545 Y-12.586 F420.000
G1 X-8.541 Y-13.316 F420.000
G1 X-8.135 Y-13.594 F420.000
G1 X-7.056 Y-14.214 F420.000
G1 X-6.398 Y-14.560 F420.000
G1 X-5.489 Y-14.966 F420.000
G1 X-5.026 Y-15.150 F420.000
G1 X-4.316 Y-15.387 F420.000
G1 X-3.353 Y-15.647 F420.000
G1 X-2.376 Y-15.861 F420.000
G1 X-1.135 Y-16.015 F420.000
G1 X-0.391 Y-16.071 F420.000
G1 X-0.143 Y-16.083 F420.000
G1 X0.835 Y-16.071 F420.000
G1 X1.323 Y-16.049 F420.000
G1 X2.301 Y-15.932 F420.000
G1 X3.034 Y-15.820 F420.000
G1 X3.278 Y-15.774 F420.000
G1 X4.000 Y-15.602 F420.000
G1 X4.474 Y-15.459 F420.000
G1 X5.173 Y-15.218 F420.000
G1 X5.868 Y-14.966 F420.000
G1 X6.556 Y-14.680 F420.000
G1 X6.782 Y-14.579 F420.000
G1 X8.308 Y-13.756 F420.000
G1 X8.932 Y-13.353 F420.000
G1 X9.338 Y-13.068 F420.000
G1 X10.120 Y-12.459 F420.000
G1 X10.883 Y-11.823 F420.000
G1 X11.064 Y-11.654 F420.000
G1 X11.752 Y-10.936 F420.000
G1 X12.571 Y-10.008 F420.000
G1 X13.023 Y-9.417 F420.000
G1 X13.440 Y-8.797 F420.000
G1 X14.203 Y-7.515 F420.000
G1 X14.538 Y-6.846 F420.000
G1 X14.831 Y-6.158 F420.000
G1 X15.098 Y-5.459 F420.000
G1 X15.425 Y-4.511 F420.000
G1 X15.624 Y-3.789 F420.000
G1 X15.838 Y-2.812 F420.000
G1 X16.045 Y-1.583 F420.000
G1 X16.109 Y-1.086 F420.000
G1 X16.162 Y-0.342 F420.000
G1 X16.184 Y1.128 F420.000
G1 X16.135 Y1.861 F420.000
G1 X16.038 Y2.594 F420.000
G1 X15.778 Y3.797 F420.000
G1 X15.575 Y4.508 F420.000
G1 X15.350 Y5.211 F420.000
G1 X15.098 Y5.910 F420.000
G1 X15.008 Y6.139 F420.000
G1 X14.699 Y6.816 F420.000
G1 X14.237 Y7.692 F420.000
G1 X13.613 Y8.759 F420.000
G1 X13.346 Y9.173 F420.000
G1 X12.902 Y9.767 F420.000
G1 X12.436 Y10.346 F420.000
G1 X11.782 Y11.090 F420.000
G1 X11.429 Y11.444 F420.000
G1 X10.331 Y12.447 F420.000
G1 X9.752 Y12.917 F420.000
G1 X9.147 Y13.353 F420.000
G1 X8.519 Y13.759 F420.000
G1 X7.868 Y14.132 F420.000
G1 X6.763 Y14.707 F420.000
G1 X5.387 Y15.293 F420.000
G1 X4.684 Y15.549 F420.000
G1 X4.447 Y15.624 F420.000
G1 X3.726 Y15.816 F420.000
G1 X2.504 Y16.075 F420.000
G1 X1.767 Y16.199 F420.000
G1 X1.023 Y16.274 F420.000
G1 X0.526 Y16.308 F420.000
G1 X-0.214 Y16.327 F420.000
G1 X-1.436 Y16.316 F420.000
G1 X-2.169 Y16.252 F420.000
G1 X-2.902 Y16.150 F420.000
G1 X-3.628 Y16.004 F420.000
G1 X-4.342 Y15.812 F420.000
G1 X-5.045 Y15.579 F420.000
G1 X-5.962 Y15.218 F420.000
G1 X-6.865 Y14.816 F420.000
G1 X-7.530 Y14.485 F420.000
G1 X-7.748 Y14.368 F420.000
G1 X-8.594 Y13.850 F420.000
G1 X-9.414 Y13.293 F420.000
G1 X-10.203 Y12.695 F420.000
G1 X-10.579 Y12.372 F420.000
G1 X-11.297 Y11.684 F420.000
G1 X-12.154 Y10.778 F420.000
G1 X-12.320 Y10.594 F420.000
G1 X-13.083 Y9.617 F420.000
G1 X-13.376 Y9.218 F420.000
G1 X-13.778 Y8.590 F420.000
G1 X-14.143 Y7.940 F420.000
G1 X-14.808 Y6.598 F420.000
G1 X-15.098 Y5.910 F420.000
G1 X-15.357 Y5.211 F420.000
G1 X-15.583 Y4.500 F420.000
G1 X-15.914 Y3.297 F420.000
G1 X-16.060 Y2.564 F420.000
G1 X-16.165 Y1.820 F420.000
G1 X-16.278 Y0.579 F420.000
G1 X-16.297 Y-0.406 F420.000
G1 X-16.267 Y-1.628 F420.000
G1 X-16.252 Y-1.872 F420.000
G1 X-16.150 Y-2.605 F420.000
G1 X-15.955 Y-3.571 F420.000
G1 X-15.714 Y-4.530 F420.000
G1 X-15.432 Y-5.477 F420.000
G1 X-15.353 Y-5.711 F420.000
G1 X-15.071 Y-6.395 F420.000
G1 X-14.857 Y-6.838 F420.000
G1 X-14.150 Y-8.147 F420.000
G1 X-13.763 Y-8.778 F420.000
G1 X-13.342 Y-9.391 F420.000
G1 X-12.602 Y-10.380 F420.000
G1 X-12.289 Y-10.763 F420.000
G1 X-11.609 Y-11.481 F420.000
G1 X-10.895 Y-12.169 F420.000
G1 X-10.338 Y-12.662 F420.000
G1 X-8.955 Y-13.703 F420.000
G1 X-8.335 Y-14.117 F420.000
G1 X-7.477 Y-14.620 F420.000
G1 X-6.598 Y-15.083 F420.000
G1 X-6.376 Y-15.192 F420.000
G1 X-5.917 Y-15.387 F420.000
G1 X-5.222 Y-15.658 F420.000
G1 X-4.282 Y-15.977 F420.000
G1 X-3.075 Y-16.282 F420.000
G1 X-1.598 Y-16.530 F420.000
G1 X-0.605 Y-16.613 F420.000
G1 X0.380 Y-16.643 F420.000
G1 X0.868 Y-16.639 F420.000
G1 X1.846 Y-16.549 F420.000
G1 X2.823 Y-16.425 F420.000
G1 X3.545 Y-16.278 F420.000
G1 X4.259 Y-16.090 F420.000
G1 X4.966 Y-15.868 F420.000
G1 X6.132 Y-15.462 F420.000
G1 X6.812 Y-15.173 F420.000
G1 X7.477 Y-14.846 F420.000
G1 X8.342 Y-14.365 F420.000
G1 X9.188 Y-13.850 F420.000
G1 X9.793 Y-13.417 F420.000
G1 X10.180 Y-13.109 F420.000
G1 X10.380 Y-12.962 F420.000
G1 X10.763 Y-12.650 F420.000
G1 X11.312 Y-12.150 F420.000
G1 X12.011 Y-11.444 F420.000
G1 X12.692 Y-10.714 F420.000
G1 X13.158 Y-10.132 F420.000
G1 X13.594 Y-9.530 F420.000
G1 X14.011 Y-8.910 F420.000
G1 X14.654 Y-7.846 F420.000
G1 X14.880 Y-7.402 F420.000
G1 X15.278 Y-6.489 F420.000
G1 X15.722 Y-5.323 F420.000
G1 X15.883 Y-4.853 F420.000
G1 X16.154 Y-3.891 F420.000
G1 X16.323 Y-3.162 F420.000
G1 X16.504 Y-2.180 F420.000
G1 X16.605 Y-1.436 F420.000
G1 X16.695 Y-0.444 F420.000
G1 X16.729 Y0.293 F420.000
G1 X16.729 Y1.026 F420.000
G1 X16.714 Y1.515 F420.000
G1 X16.639 Y2.248 F420.000
G1 X16.519 Y2.981 F420.000
G1 X16.361 Y3.703 F420.000
G1 X16.169 Y4.417 F420.000
G1 X15.793 Y5.590 F420.000
G1 X15.628 Y6.056 F420.000
G1 X15.335 Y6.741 F420.000
G1 X15.008 Y7.406 F420.000
G1 X14.538 Y8.274 F420.000
G1 X14.026 Y9.124 F420.000
G1 X13.617 Y9.741 F420.000
G1 X12.850 Y10.711 F420.000
G1 X12.361 Y11.271 F420.000
G1 X11.846 Y11.808 F420.000
G1 X11.128 Y12.492 F420.000
G1 X10.372 Y13.139 F420.000
G1 X9.981 Y13.444 F420.000
G1 X8.951 Y14.139 F420.000
G1 X8.316 Y14.530 F420.000
G1 X7.662 Y14.891 F420.000
G1 X7.440 Y15.004 F420.000
G1 X6.075 Y15.617 F420.000
G1 X5.147 Y15.977 F420.000
G1 X4.914 Y16.060 F420.000
G1 X4.192 Y16.267 F420.000
G1 X3.703 Y16.376 F420.000
G1 X3.462 Y16.440 F420.000
G1 X2.485 Y16.650 F420.000
G1 X1.741 Y16.763 F420.000
G1 X0.996 Y16.835 F420.000
G1 X0.252 Y16.868 F420.000
G1 X-0.974 Y16.887 F420.000
G1 X-1.462 Y16.872 F420.000
G1 X-2.440 Y16.771 F420.000
G1 X-3.173 Y16.658 F420.000
G1 X-3.895 Y16.511 F420.000
G1 X-4.838 Y16.226 F420.000
G1 X-5.538 Y15.974 F420.000
G1 X-6.455 Y15.605 F420.000
G1 X-7.357 Y15.199 F420.000
G1 X-7.579 Y15.090 F420.000
G1 X-8.222 Y14.726 F420.000
G1 X-9.263 Y14.056 F420.000
G1 X-9.876 Y13.635 F420.000
G1 X-10.462 Y13.180 F420.000
G1 X-11.023 Y12.695 F420.000
G1 X-11.737 Y12.004 F420.000
G1 X-12.425 Y11.282 F420.000
G1 X-13.079 Y10.538 F420.000
G1 X-13.530 Y9.947 F420.000
G1 X-13.947 Y9.327 F420.000
G1 X-14.338 Y8.692 F420.000
G1 X-14.936 Y7.598 F420.000
G1 X-15.372 Y6.703 F420.000
G1 X-15.729 Y5.774 F420.000
G1 X-16.117 Y4.586 F420.000
G1 X-16.398 Y3.624 F420.000
G1 X-16.556 Y2.891 F420.000
G1 X-16.673 Y2.150 F420.000
G1 X-16.782 Y1.158 F420.000
G1 X-16.835 Y0.414 F420.000
G1 X-16.835 Y-1.301 F420.000
G1 X-16.816 Y-1.789 F420.000
G1 X-16.726 Y-2.523 F420.000
G1 X-16.590 Y-3.248 F420.000
G1 X-16.312 Y-4.451 F420.000
G1 X-16.105 Y-5.162 F420.000
G1 X-15.868 Y-5.861 F420.000
G1 X-15.598 Y-6.549 F420.000
G1 X-15.398 Y-7.000 F420.000
G1 X-14.695 Y-8.305 F420.000
G1 X-14.447 Y-8.733 F420.000
G1 X-13.756 Y-9.759 F420.000
G1 X-13.011 Y-10.748 F420.000
G1 X-12.353 Y-11.492 F420.000
G1 X-11.838 Y-12.026 F420.000
G1 X-11.117 Y-12.711 F420.000
G1 X-10.932 Y-12.876 F420.000
G1 X-9.560 Y-13.947 F420.000
G1 X-8.955 Y-14.383 F420.000
G1 X-8.105 Y-14.902 F420.000
G1 X-6.902 Y-15.534 F420.000
G1 X-4.519 Y-16.451 F420.000
G1 X-2.237 Y-16.966 F420.000
G1 X-0.492 Y-17.150 F420.000
G1 X1.624 Y-17.117 F420.000
G1 X3.598 Y-16.816 F420.000
G1 X7.008 Y-15.654 F420.000
G1 X8.891 Y-14.647 F420.000
G1 X10.962 Y-13.150 F420.000
G1 X12.763 Y-11.387 F420.000
G1 X14.038 Y-9.786 F420.000
G1 X15.102 Y-8.079 F420.000
G1 X15.929 Y-6.229 F420.000
G1 X16.346 Y-5.075 F420.000
G1 X16.989 Y-2.263 F420.000
G1 X17.233 Y1.316 F420.000
G1 X16.917 Y3.628 F420.000
G1 X16.282 Y5.771 F420.000
G1 X15.414 Y7.759 F420.000
G1 X14.267 Y9.684 F420.000
G1 X12.823 Y11.523 F420.000
G1 X10.883 Y13.372 F420.000
G1 X9.173 Y14.613 F420.000
G1 X8.177 Y15.199 F420.000
G1 X5.662 Y16.338 F420.000
G1 X3.466 Y16.977 F420.000
G1 X1.481 Y17.320 F420.000
G1 X-0.526 Y17.417 F420.000
G1 X-2.782 Y17.226 F420.000
G1 X-4.925 Y16.729 F420.000
G1 X-7.695 Y15.586 F420.000
G1 X-9.511 Y14.492 F420.000
G1 X-10.805 Y13.515 F420.000
G1 X-13.289 Y11.064 F420.000
G1 X-14.357 Y9.598 F420.000
G1 X-14.929 Y8.598 F420.000
G1 X-15.068 Y8.391 F420.000
G1 X-15.331 Y7.970 F420.000
G1 X-15.575 Y7.534 F420.000
G1 X-15.789 Y7.083 F420.000
G1 X-15.985 Y6.624 F420.000
G1 X-16.331 Y5.688 F420.000
G1 X-16.568 Y4.977 F420.000
G1 X-16.977 Y3.538 F420.000
G1 X-17.094 Y3.053 F420.000
G1 X-17.244 Y2.060 F420.000
G1 X-17.350 Y1.068 F420.000
G1 X-17.387 Y0.571 F420.000
G1 X-17.406 Y-1.147 F420.000
G1 X-17.365 Y-1.880 F420.000
G1 X-17.278 Y-2.613 F420.000
G1 X-17.199 Y-3.102 F420.000
G1 X-17.041 Y-3.823 F420.000
G1 X-16.722 Y-5.015 F420.000
G1 X-16.504 Y-5.726 F420.000
G1 X-16.346 Y-6.192 F420.000
G1 X-16.053 Y-6.872 F420.000
G1 X-15.613 Y-7.759 F420.000
G1 X-15.271 Y-8.414 F420.000
G1 X-12.966 Y-11.534 F420.000
G1 X-11.432 Y-13.105 F420.000
G1 X-9.466 Y-14.635 F420.000
G1 X-7.838 Y-15.594 F420.000
G1 X-6.056 Y-16.387 F420.000
G1 X-4.180 Y-16.959 F420.000
G1 X-1.654 Y-17.395 F420.000
G1 X0.365 Y-17.466 F420.000
G1 X2.508 Y-17.293 F420.000
G1 X4.425 Y-16.898 F420.000
G1 X5.440 Y-16.602 F420.000
G1 X6.838 Y-16.071 F420.000
G1 X7.752 Y-15.658 F420.000
G1 X9.060 Y-14.936 F420.000
G1 X10.541 Y-13.929 F420.000
G1 X11.560 Y-13.102 F420.000
G1 X13.056 Y-11.613 F420.000
G1 X14.617 Y-9.568 F420.000
G1 X15.395 Y-8.263 F420.000
G1 X16.226 Y-6.489 F420.000
G1 X16.654 Y-5.282 F420.000
G1 X17.233 Y-2.891 F420.000
G1 X17.444 Y-1.026 F420.000
G1 X17.398 Y1.575 F420.000
G1 X17.105 Y3.549 F420.000
G1 X16.571 Y5.523 F420.000
G1 X16.041 Y6.917 F420.000
G1 X15.015 Y8.921 F420.000
G1 X14.274 Y10.056 F420.000
G1 X12.981 Y11.692 F420.000
G1 X11.075 Y13.511 F420.000
G1 X9.868 Y14.417 F420.000
G1 X8.211 Y15.421 F420.000
G1 X6.383 Y16.267 F420.000
G1 X5.237 Y16.669 F420.000
G1 X2.906 Y17.237 F420.000
G1 X0.921 Y17.451 F420.000
G1 X-0.602 Y17.451 F420.000
G1 X-0.602 Y17.451 F420.000
G1 X-0.718 Y17.417 F420.000
G1 X-0.797 Y17.372 F420.000
G0 X-0.823 Y17.353
G0 X-1.365 Y17.075
G0 X-3.342 Y16.763
G0 X-4.977 Y16.391
G0 X-5.410 Y16.429
G1 X-5.440 Y16.432 F420.000
G1 X-5.564 Y16.447 F420.000
G1 X-5.752 Y16.474 F420.000
G1 X-5.846 Y16.459 F420.000
G1 X-5.846 Y16.459 F420.000
G1 X-8.011 Y15.523 F420.000
G1 X-9.056 Y14.936 F420.000
G1 X-10.192 Y14.184 F420.000
G1 X-11.910 Y12.782 F420.000
G1 X-13.504 Y11.083 F420.000
G1 X-14.786 Y9.331 F420.000
G1 X-15.180 Y8.962 F420.000
G1 X-15.692 Y8.282 F420.000
G1 X-15.835 Y8.079 F420.000
G1 X-16.207 Y7.432 F420.000
G1 X-16.316 Y7.211 F420.000
G1 X-16.605 Y6.523 F420.000
G1 X-16.955 Y5.590 F420.000
G1 X-17.188 Y4.880 F420.000
G1 X-17.515 Y3.677 F420.000
G1 X-17.673 Y2.944 F420.000
G1 X-17.808 Y1.951 F420.000
G1 X-17.887 Y1.207 F420.000
G1 X-17.962 Y-0.030 F420.000
G1 X-17.977 Y-0.519 F420.000
G1 X-17.925 Y-1.741 F420.000
G1 X-17.865 Y-2.474 F420.000
G1 X-17.741 Y-3.203 F420.000
G1 X-17.583 Y-3.925 F420.000
G1 X-17.139 Y-5.590 F420.000
G1 X-17.068 Y-5.827 F420.000
G1 X-16.797 Y-6.519 F420.000
G1 X-16.391 Y-7.421 F420.000
G1 X-15.823 Y-8.523 F420.000
G1 X-15.549 Y-8.914 F420.000
