(TEST_PLATE_2)
(T1  D=3.175 CR=0. - ZMIN=-6. - FLAT END MILL)
G90 G94 G91.1 G40 G49 G17
G21

(2D CONTOUR3)
M5
M9
T1
S10000 M3
G54
M8
G0 X25.521 Y-31.587
G43 Z10. H1
Z5.
G1 Z3. F762.
Z2.5
X0. Z-2. F953.
X-57.
G2 X-61.588 Y-27. R4.588
G1 Y27.
G2 X-57. Y31.587 R4.587
G1 X57.
G2 X61.588 Y27. R4.588
G1 Y20.
G2 X60. Y18.413 R1.587
G1 X12.539
G3 Y-18.413 R23.413
G1 X60.
G2 X61.588 Y-20. R1.588
G1 Y-27.
G2 X57. Y-31.587 R4.587
G1 X0.
X-57. Z-3.55
G2 X-61.588 Y-27. Z-3.746 R4.588
G1 Y-17.645 Z-4.
Y27.
G2 X-57. Y31.587 R4.587
G1 X57.
G2 X61.588 Y27. R4.588
G1 Y20.
G2 X60. Y18.413 R1.587
G1 X12.539
G3 Y-18.413 R23.413
G1 X60.
G2 X61.588 Y-20. R1.588
G1 Y-27.
G2 X57. Y-31.587 R4.587
G1 X-57.
G2 X-61.588 Y-27. R4.588
G1 Y-17.645
Y27. Z-5.214
G2 X-57. Y31.587 Z-5.41 R4.587
G1 X-35.29 Z-6.
X57.
G2 X61.588 Y27. R4.588
G1 Y20.
G2 X60. Y18.413 R1.587
G1 X12.539
G3 Y-18.413 R23.413
G1 X60.
G2 X61.588 Y-20. R1.588
G1 Y-27.
G2 X57. Y-31.587 R4.587
G1 X-57.
G2 X-61.588 Y-27. R4.588
G1 Y27.
G2 X-57. Y31.587 R4.587
G1 X-35.29
G0 Z10.

M9
M30
