(TEST_PLATE)
(T1  D=3.175 CR=0. - ZMIN=-6. - FLAT END MILL)
G90 G94 G91.1 G40 G49 G17
G21

(2D POCKET1)
M5
M9
T1
S10000 M3
G54
M8
G0 X-27.607 Y-0.786
G43 Z10. H1
Z5.
G1 Z2.5 F953.
G3 X-30.182 Y0.786 Z1.665 R1.508
X-27.607 Y-0.786 Z0.829 R1.508
X-30.182 Y0.786 Z-0.006 R1.508
X-27.607 Y-0.786 Z-0.842 R1.508
X-30.182 Y0.786 Z-1.677 R1.508
X-27.607 Y-0.786 Z-2.513 R1.508
X-30.182 Y0.786 Z-3.348 R1.508
X-27.607 Y-0.786 Z-4.183 R1.508
X-30.182 Y0.786 Z-5.019 R1.508
X-27.607 Y-0.786 Z-5.854 R1.508
X-27.386 Y0. Z-6. R1.508
X-29.646 R1.13
X-27.337 R1.154
X-32.663 R2.663
X-27.337 R2.663
G1 X-27.941 Z-5.94
G0 Z10.

(2D POCKET2)
M8
G0 X-31.972 Y1.413
Z10.
Z5.
G1 Z2.5 F953.
G3 X-30.919 Y-1.413 Z1.665 R1.508
X-31.972 Y1.413 Z0.829 R1.508
X-30.919 Y-1.413 Z-0.006 R1.508
X-31.972 Y1.413 Z-0.842 R1.508
X-30.919 Y-1.413 Z-1.677 R1.508
X-29.938 Y0. Z-2. R1.508
X-30.063 R0.063
X-26.921 R1.571
X-33.079 R3.079
X-23.905 R4.587
X-36.095 R6.095
X-23.905 R6.095
X-24.162 Y0.192 R0.2
G1 X-30.83 Y-1.806
G2 X-30.953 Y-1.425 R0.2
G3 X-31.939 Y1.425 Z-2.835 R1.508
X-30.953 Y-1.425 Z-3.671 R1.508
X-29.938 Y0. Z-4. R1.508
X-30.063 R0.063
X-26.921 R1.571
X-33.079 R3.079
X-23.905 R4.587
X-36.095 R6.095
X-23.587 R6.254
X-36.413 R6.413
X-23.587 R6.413
X-27.963 Y6.08 R6.413
G1 X-28.155 Y5.508 Z-3.94
G0 Z10.

(DRILL1)
M8
G0 X-5. Y-25.
Z10.
Z5.
G1 Z0. F762.
Z-2.
G3 X-4.588 R0.206 F953.
X-5.412 R0.412
X-4.588 R0.412
G1 X-5.
Z-4. F762.
G3 X-4.588 R0.206 F953.
X-5.412 R0.412
X-4.588 R0.412
G1 X-5.
Z-6. F762.
G3 X-4.588 R0.206 F953.
X-5.412 R0.412
X-4.588 R0.412
G1 X-5.
G0 Z5.
X-11.514 Y-0.72
G1 Z0. F762.
Z-2.
G3 X-11.102 R0.206 F953.
X-11.927 R0.412
X-11.102 R0.412
G1 X-11.514
Z-4. F762.
G3 X-11.102 R0.206 F953.
X-11.927 R0.412
X-11.102 R0.412
G1 X-11.514
Z-6. F762.
G3 X-11.102 R0.206 F953.
X-11.927 R0.412
X-11.102 R0.412
G1 X-11.514
G0 Z5.
X-5. Y25.
G1 Z0. F762.
Z-2.
G3 X-4.588 R0.206 F953.
X-5.412 R0.412
X-4.588 R0.412
G1 X-5.
Z-4. F762.
G3 X-4.588 R0.206 F953.
X-5.412 R0.412
X-4.588 R0.412
G1 X-5.
Z-6. F762.
G3 X-4.588 R0.206 F953.
X-5.412 R0.412
X-4.588 R0.412
G1 X-5.
G0 Z5.
X-55.
G1 Z0. F762.
Z-2.
G3 X-54.587 R0.206 F953.
X-55.413 R0.413
X-54.587 R0.413
G1 X-55.
Z-4. F762.
G3 X-54.587 R0.206 F953.
X-55.413 R0.413
X-54.587 R0.413
G1 X-55.
Z-6. F762.
G3 X-54.587 R0.206 F953.
X-55.413 R0.413
X-54.587 R0.413
G1 X-55.
G0 Z5.
X-48.5 Y0.
G1 Z0. F762.
Z-2.
G3 X-48.087 R0.206 F953.
X-48.913 R0.413
X-48.087 R0.413
G1 X-48.5
Z-4. F762.
G3 X-48.087 R0.206 F953.
X-48.913 R0.413
X-48.087 R0.413
G1 X-48.5
Z-6. F762.
G3 X-48.087 R0.206 F953.
X-48.913 R0.413
X-48.087 R0.413
G1 X-48.5
G0 Z5.
X-55. Y-25.
G1 Z0. F762.
Z-2.
G3 X-54.587 R0.206 F953.
X-55.413 R0.413
X-54.587 R0.413
G1 X-55.
Z-4. F762.
G3 X-54.587 R0.206 F953.
X-55.413 R0.413
X-54.587 R0.413
G1 X-55.
Z-6. F762.
G3 X-54.587 R0.206 F953.
X-55.413 R0.413
X-54.587 R0.413
G1 X-55.
G0 Z5.
Z10.

(2D POCKET3)
M8
G0 X-3.536 Y-19.765
Z10.
Z5.
G1 Z2.5 F953.
G3 X-6.033 Y-18.074 Z1.665 R1.508
X-3.536 Y-19.765 Z0.829 R1.508
X-6.033 Y-18.074 Z-0.006 R1.508
X-3.536 Y-19.765 Z-0.842 R1.508
X-3.277 Y-18.919 Z-1. R1.508
G1 Y-15.215
G3 X-3.501 Y-15.155 R0.12
G2 X-7.395 Y-20.515 R30.661
G3 X-7.266 Y-20.682 R0.107
G2 X-3.562 Y-20.34 R4.881
G3 X-3.277 Y-20.13 R0.22
G1 Y-18.919
G3 X-3.591 Y-18.756 R0.2
G1 X-11.809 Y-24.518
G2 X-14.845 Y-26.499 R30.014
G3 X-14.785 Y-26.723 R0.12
G1 X-9.87
G3 X-9.66 Y-26.438 R0.22
G2 X-9.318 Y-22.734 R4.848
G3 X-9.485 Y-22.606 R0.107
G2 X-11.809 Y-24.518 R30.014
X-13.364 Y-24.584 R1.385
G3 X-14.92 Y-24.58 R1.483
G2 X-25.067 Y-28.413 R28.838
G1 X-4.987
X-1.587
Y-4.933
G2 X-14.92 Y-24.58 R28.838
G3 X-14.832 Y-24.95 R0.2
G1 X-8.392 Y-25.482
G3 X-8.176 Y-25.266 R0.2
G2 X-7.266 Y-22.758 R3.188
X-6.912 Y-22.45 R3.188
X-3.088 Y-27.55 R3.187
X-6.912 R3.187
X-8.176 Y-25.266 R3.188
G1 X-8.778 Y-25.316 Z-0.94
G0 Z5.
X-47.672 Y-25.227
G1 Z2.5 F953.
G3 X-50.518 Y-26.224 Z1.665 R1.508
X-47.672 Y-25.227 Z0.829 R1.508
X-50.518 Y-26.224 Z-0.006 R1.508
X-47.672 Y-25.227 Z-0.842 R1.508
X-48.196 Y-24.515 Z-1. R1.508
G2 X-50.568 Y-22.558 R30.056
G3 X-50.714 Y-22.673 R0.094
G2 X-50.34 Y-26.438 R4.847
G3 X-50.13 Y-26.723 R0.22
G1 X-45.216
G3 X-45.156 Y-26.498 R0.12
G2 X-48.196 Y-24.515 R30.056
G1 X-54.519 Y-18.184
G2 X-56.547 Y-15.072 R30.6
G3 X-56.723 Y-15.119 R0.094
G1 Y-20.13
G3 X-56.438 Y-20.34 R0.22
G2 X-52.736 Y-20.681 R4.854
G3 X-52.607 Y-20.514 R0.107
G2 X-54.519 Y-18.184 R30.6
X-54.584 Y-16.632 R1.382
G3 X-54.581 Y-15.08 R1.479
G2 X-58.412 Y-4.933 R28.838
G1 Y-27.
G3 X-57. Y-28.413 R1.413
G1 X-34.933
G2 X-47.303 Y-23.07 R28.838
X-54.581 Y-15.08 R28.838
G3 X-54.95 Y-15.168 R0.2
G1 X-55.482 Y-21.608
G3 X-55.266 Y-21.824 R0.2
G2 X-54.734 Y-28.176 R3.187
X-56.912 Y-27.55 R3.187
X-58.188 Y-25.014 R3.188
X-56.912 Y-22.45 R3.188
X-55.266 Y-21.824 R3.187
G1 X-55.316 Y-21.222 Z-0.94
G0 Z5.
X-56.464 Y19.765
G1 Z2.5 F953.
G3 X-53.966 Y18.074 Z1.665 R1.508
X-56.464 Y19.765 Z0.829 R1.508
X-53.966 Y18.074 Z-0.006 R1.508
X-56.464 Y19.765 Z-0.842 R1.508
X-56.723 Y18.919 Z-1. R1.508
G1 Y15.216
G3 X-56.499 Y15.156 R0.12
G2 X-52.607 Y20.514 R30.648
G3 X-52.736 Y20.681 R0.107
G2 X-56.425 Y20.336 R4.893
G3 X-56.723 Y20.116 R0.231
G1 Y18.919
G3 X-56.408 Y18.756 R0.2
G1 X-48.186 Y24.522
G2 X-45.156 Y26.498 R30.007
G3 X-45.216 Y26.723 R0.12
G1 X-50.13
G3 X-50.34 Y26.438 R0.22
G2 X-50.681 Y22.736 R4.85
G3 X-50.514 Y22.607 R0.107
G2 X-48.186 Y24.522 R30.007
X-46.631 Y24.587 R1.385
G3 X-45.074 Y24.584 R1.483
G2 X-34.933 Y28.413 R28.838
G1 X-57.
G3 X-58.412 Y27. R1.412
G1 Y4.933
G2 X-47.303 Y23.07 R28.838
X-45.074 Y24.584 R28.838
G3 X-45.163 Y24.954 R0.2
G1 X-51.608 Y25.482
G3 X-51.824 Y25.266 R0.2
G2 X-56.912 Y22.45 R3.187
X-58.188 Y25.014 R3.188
X-56.912 Y27.55 R3.188
X-51.824 Y25.266 R3.187
G1 X-51.222 Y25.316 Z-0.94
G0 Z5.
X-12.329 Y25.227
G1 Z2.5 F953.
G3 X-9.482 Y26.224 Z1.665 R1.508
X-12.329 Y25.227 Z0.829 R1.508
X-9.482 Y26.224 Z-0.006 R1.508
X-12.329 Y25.227 Z-0.842 R1.508
X-11.804 Y24.514 Z-1. R1.508
G2 X-9.485 Y22.606 R30.056
G3 X-9.318 Y22.734 R0.107
G2 X-9.66 Y26.438 R4.897
G3 X-9.87 Y26.723 R0.22
G1 X-14.785
G3 X-14.845 Y26.499 R0.12
G2 X-11.804 Y24.514 R30.056
G1 X-5.481 Y18.184
G2 X-3.501 Y15.155 R30.612
G3 X-3.277 Y15.215 R0.12
G1 Y18.918
Y20.13
G3 X-3.562 Y20.34 R0.22
G2 X-7.266 Y20.682 R4.846
G3 X-7.395 Y20.515 R0.107
G2 X-5.481 Y18.184 R30.612
X-5.416 Y16.633 R1.382
G3 X-5.42 Y15.08 R1.479
G2 X-1.587 Y4.933 R28.838
G1 Y25.
Y28.413
X-25.067
G2 X-5.42 Y15.08 R28.838
G3 X-4.177 Y15.226 R0.69
G1 X-3.228 Y18.116
G3 X-3.21 Y18.182 R0.69
G1 X-1.724 Y24.901
X-1.738 Y25.016
G3 X-1.813 Y25.01 R0.038
G2 Y25. R3.188
X-8.187 R3.187
X-6.912 Y27.55 R3.187
X-4.987 Y28.188 R3.188
X-1.813 Y25.01 R3.188
G1 X-1.7 Y25.011 Z-0.989
G0 Z10.

(2D CONTOUR2)
M8
G0 X-7.728 Y18.319
Z10.
Z5.
G1 Z2.5 F762.
G2 X-1.163 Y0. Z-1. R28.837 F953.
X-58.837 R28.837
X-1.163 R28.837
G0 Z10.

(2D CONTOUR3)
M8
G0 X25.521 Y-31.587
Z10.
Z5.
G1 Z3. F762.
Z2.5
X0. Z-2. F953.
X-57.
G2 X-61.588 Y-27. R4.588
G1 Y27.
G2 X-57. Y31.587 R4.587
G1 X57.
G2 X61.588 Y27. R4.588
G1 Y20.
G2 X60. Y18.413 R1.587
G1 X35.535
G3 Y-18.413 R23.415
G1 X60.
G2 X61.588 Y-20. R1.588
G1 Y-27.
G2 X57. Y-31.587 R4.587
G1 X0.
X-57. Z-3.719
G2 X-61.588 Y-27. Z-3.936 R4.588
G1 Y-24.888 Z-4.
Y27.
G2 X-57. Y31.587 R4.587
G1 X57.
G2 X61.588 Y27. R4.588
G1 Y20.
G2 X60. Y18.413 R1.587
G1 X35.535
G3 Y-18.413 R23.415
G1 X60.
G2 X61.588 Y-20. R1.588
G1 Y-27.
G2 X57. Y-31.587 R4.587
G1 X-57.
G2 X-61.588 Y-27. R4.588
G1 Y-24.888
Y27. Z-5.565
G2 X-57. Y31.587 Z-5.782 R4.587
G1 X-49.777 Z-6.
X57.
G2 X61.588 Y27. R4.588
G1 Y20.
G2 X60. Y18.413 R1.587
G1 X35.535
G3 Y-18.413 R23.415
G1 X60.
G2 X61.588 Y-20. R1.588
G1 Y-27.
G2 X57. Y-31.587 R4.587
G1 X-57.
G2 X-61.588 Y-27. R4.588
G1 Y27.
G2 X-57. Y31.587 R4.587
G1 X-49.777
G0 Z10.

M9
M30
