(_)
(T1  D=3.175 CR=0. - ZMIN=-5. - FLAT END MILL)
G90 G94 G91.1 G40 G49 G17
G21

(2D POCKET2)
M5
M9
T1
S10000 M3
G54
M8
G0 X173.345 Y1.413
G43 Z10. H1
Z5.
G1 Z2.5 F400.
G3 X172.967 Y1.207 Z2.424 R1.508
X174.777 Y-1.207 Z1.588 R1.508
X172.967 Y1.207 Z0.753 R1.508
X174.777 Y-1.207 Z-0.083 R1.508
X172.967 Y1.207 Z-0.918 R1.508
X174.777 Y-1.207 Z-1.753 R1.508
X175.38 Y0. Z-2. R1.508
X174.62 R0.38
X178.396 R1.888
X171.604 R3.396
X181.413 R4.904
X168.587 R6.413
X181.413 R6.413
X181.155 Y0.192 R0.2
G1 X174.488 Y-1.806
G2 X174.365 Y-1.425 R0.2
G3 X173.379 Y1.425 Z-2.835 R1.508
X174.365 Y-1.425 Z-3.671 R1.508
X175.38 Y0. Z-4. R1.508
X174.62 R0.38
X178.396 R1.888
X171.604 R3.396
X181.413 R4.904
X168.587 R6.413
X181.413 R6.413
X178.396 Z-4.5 R1.508
G2 X175.38 Z-5. R1.508
G3 X174.62 R0.38
X178.396 R1.888
X171.604 R3.396
X181.413 R4.904
X168.587 R6.413
X181.413 R6.413
G1 X180.809 Z-4.94
G0 Z10.

M9
M30
