(_)
(T1  D=3.175 CR=0. - ZMIN=-18. - FLAT END MILL)
G90 G94 G91.1 G40 G49 G17
G21

(2D POCKET2)
M5
M9
T1
S10000 M3
G54
M8
G0 X173.345 Y1.413
G43 Z10. H1
Z5.
G1 Z2.5 F400.
G3 X172.967 Y1.207 Z2.424 R1.508
X174.777 Y-1.207 Z1.588 R1.508
X172.967 Y1.207 Z0.753 R1.508
X174.777 Y-1.207 Z-0.083 R1.508
X172.967 Y1.207 Z-0.918 R1.508
X174.777 Y-1.207 Z-1.753 R1.508
X175.38 Y0. Z-2. R1.508
X174.62 R0.38
X178.396 R1.888
X171.604 R3.396
X181.413 R4.904
X168.587 R6.413
X181.413 R6.413
X181.155 Y0.192 R0.2
G1 X174.488 Y-1.806
G2 X174.365 Y-1.425 R0.2
G3 X173.379 Y1.425 Z-2.835 R1.508
X174.365 Y-1.425 Z-3.671 R1.508
X175.38 Y0. Z-4. R1.508
X174.62 R0.38
X178.396 R1.888
X171.604 R3.396
X181.413 R4.904
X168.587 R6.413
X181.413 R6.413
X178.396 Z-4.5 R1.508
G2 X175.38 Z-5. R1.508
G3 X174.62 R0.38
X178.396 R1.888
X171.604 R3.396
X181.413 R4.904
X168.587 R6.413
X181.413 R6.413
G1 X180.809 Z-4.94
G0 Z10.

(2D POCKET1)
M8
G0 X175.332 Y1.413
Z10.
Z5.
G1 Z2.5 F400.
G3 X176.384 Y-1.413 Z1.665 R1.508
X175.332 Y1.413 Z0.829 R1.508
X176.384 Y-1.413 Z-0.006 R1.508
X175.332 Y1.413 Z-0.842 R1.508
X176.384 Y-1.413 Z-1.677 R1.508
X177.366 Y0. Z-2. R1.508
X175.604 R0.881
X177.413 R0.904
X172.587 R2.413
X177.413 R2.413
X177.052 Y0.12 R0.2
G1 X176.126 Y-1.116
G3 X176.351 Y-1.425 R0.2
X175.365 Y1.425 Z-2.835 R1.508
X176.351 Y-1.425 Z-3.671 R1.508
X177.366 Y0. Z-4. R1.508
X175.604 R0.881
X177.413 R0.904
X172.587 R2.413
X177.413 R2.413
X177.052 Y0.12 R0.2
G1 X176.126 Y-1.116
G3 X176.351 Y-1.425 R0.2
X175.365 Y1.425 Z-4.835 R1.508
X176.351 Y-1.425 Z-5.671 R1.508
X177.366 Y0. Z-6. R1.508
X175.604 R0.881
X177.413 R0.904
X172.587 R2.413
X177.413 R2.413
X177.052 Y0.12 R0.2
G1 X176.126 Y-1.116
G3 X176.351 Y-1.425 R0.2
X175.365 Y1.425 Z-6.835 R1.508
X176.351 Y-1.425 Z-7.671 R1.508
X177.366 Y0. Z-8. R1.508
X175.604 R0.881
X177.413 R0.904
X172.587 R2.413
X177.413 R2.413
X177.052 Y0.12 R0.2
G1 X176.126 Y-1.116
G3 X176.351 Y-1.425 R0.2
X175.365 Y1.425 Z-8.835 R1.508
X176.351 Y-1.425 Z-9.671 R1.508
X177.366 Y0. Z-10. R1.508
X175.604 R0.881
X177.413 R0.904
X172.587 R2.413
X177.413 R2.413
X177.052 Y0.12 R0.2
G1 X176.126 Y-1.116
G3 X176.351 Y-1.425 R0.2
X175.365 Y1.425 Z-10.835 R1.508
X176.351 Y-1.425 Z-11.671 R1.508
X177.366 Y0. Z-12. R1.508
X175.604 R0.881
X177.413 R0.904
X172.587 R2.413
X177.413 R2.413
X177.052 Y0.12 R0.2
G1 X176.126 Y-1.116
G3 X176.351 Y-1.425 R0.2
X175.365 Y1.425 Z-12.835 R1.508
X176.351 Y-1.425 Z-13.671 R1.508
X177.366 Y0. Z-14. R1.508
X175.604 R0.881
X177.413 R0.904
X172.587 R2.413
X177.413 R2.413
X177.052 Y0.12 R0.2
G1 X176.126 Y-1.116
G3 X176.351 Y-1.425 R0.2
X175.365 Y1.425 Z-14.835 R1.508
X176.351 Y-1.425 Z-15.671 R1.508
X177.366 Y0. Z-16. R1.508
X175.604 R0.881
X177.413 R0.904
X172.587 R2.413
X177.413 R2.413
X177.052 Y0.12 R0.2
G1 X176.126 Y-1.116
G3 X176.351 Y-1.425 R0.2
X175.365 Y1.425 Z-16.835 R1.508
X176.351 Y-1.425 Z-17.671 R1.508
X177.366 Y0. Z-18. R1.508
X175.604 R0.881
X177.413 R0.904
X172.587 R2.413
X177.413 R2.413
G1 X176.809 Z-17.94
G0 Z10.

(2D CONTOUR2)
M8
G0 X-25.521 Y16.587
Z10.
Z5.
G1 Z3. F400.
Z2.5
X0. Z-2.
X175.
G2 Y-16.587 R16.587
G1 X-190.
G2 X-191.587 Y-15. R1.587
G1 Y15.
G2 X-190. Y16.587 R1.587
G1 X0.
X128.677 Z-4.
X175.
G2 Y-16.587 R16.587
G1 X-190.
G2 X-191.587 Y-15. R1.587
G1 Y15.
G2 X-190. Y16.587 R1.587
G1 X0.
X128.677
X175. Z-4.72
G2 Y-16.587 Z-5.53 R16.587
G1 X144.757 Z-6.
X-190.
G2 X-191.587 Y-15. R1.587
G1 Y15.
G2 X-190. Y16.587 R1.587
G1 X128.677
X175.
G2 Y-16.587 R16.587
G1 X144.757
X16.08 Z-8.
X-190.
G2 X-191.587 Y-15. R1.587
G1 Y15.
G2 X-190. Y16.587 R1.587
G1 X175.
G2 Y-16.587 R16.587
G1 X16.08
X-112.597 Z-10.
X-190.
G2 X-191.587 Y-15. R1.587
G1 Y15.
G2 X-190. Y16.587 R1.587
G1 X175.
G2 Y-16.587 R16.587
G1 X16.08
X-112.597
X-190. Z-11.203
G2 X-191.42 Y-15.71 Z-11.23 R1.588
X-191.587 Y-15. Z-11.242 R1.587
G1 Y15. Z-11.708
G2 X-190. Y16.587 Z-11.747 R1.587
G1 X-173.714 Z-12.
X175.
G2 Y-16.587 R16.587
G1 X-112.597
X-190.
G2 X-191.587 Y-15. R1.587
G1 Y15.
G2 X-190. Y16.587 R1.587
G1 X-173.714
X-45.037 Z-14.
X175.
G2 Y-16.587 R16.587
G1 X-190.
G2 X-191.587 Y-15. R1.587
G1 Y15.
G2 X-190. Y16.587 R1.587
G1 X-45.037
X83.64 Z-16.
X175.
G2 Y-16.587 R16.587
G1 X-190.
G2 X-191.587 Y-15. R1.587
G1 Y15.
G2 X-190. Y16.587 R1.587
G1 X-45.037
X83.64
X175. Z-17.42
G2 X191.587 Y0. Z-17.825 R16.587
X187.909 Y-10.416 Z-18. R16.588
X175. Y-16.587 R16.587
G1 X-190.
G2 X-191.587 Y-15. R1.587
G1 Y15.
G2 X-190. Y16.587 R1.587
G1 X83.64
X175.
G2 X187.909 Y-10.416 R16.588
G0 Z10.

M9
M30
