(__120T_STEP1)
(T1  D=3.175 CR=0. - ZMIN=-8. - FLAT END MILL)
G90 G94 G91.1 G40 G49 G17
G21

(DRILL1)
M5
M9
T1
S10000 M3
G54
M8
G0 X26. Y42.
G43 Z10. H1
Z5.
G98 G73 X26. Y42. Z-8. R5. Q0.5 F762.
X16.5
X0. Y58.5
Y68.
X-26. Y42.
X-16.5
X0. Y25.5
Y16.
Y-16.
Y-25.5
X16.5 Y-42.
X26.
X0. Y-68.
Y-58.5
X-16.5 Y-42.
X-26.
G80
Z10.

(2D CONTOUR1)
M8
G0 X-7.816 Y34.747
Z10.
Z5.
G1 Z3. F762.
Z2.5
G3 X10.663 Y42. Z-2. R10.663
X-10.663 R10.663
X10.663 R10.663
X5.177 Y51.321 Z-4. R10.663
X-5.177 Y32.679 R10.663
X5.177 Y51.321 R10.663
X-5.635 Y51.052 Z-6. R10.663
X5.635 Y32.948 R10.663
X-5.635 Y51.052 R10.663
X-6.398 Y50.53 Z-6.163 R10.662
X-10.649 Y41.47 Z-8. R10.662
X10.649 Y42.53 R10.662
X-10.649 Y41.47 R10.662
G0 Z5.
X-7.816 Y-49.253
G1 Z3. F762.
Z2.5
G3 X10.663 Y-42. Z-2. R10.663
X-10.663 R10.663
X10.663 R10.663
X5.177 Y-32.679 Z-4. R10.663
X-5.177 Y-51.321 R10.663
X5.177 Y-32.679 R10.663
X-5.635 Y-32.948 Z-6. R10.663
X5.635 Y-51.052 R10.663
X-5.635 Y-32.948 R10.663
X-6.398 Y-33.47 Z-6.163 R10.662
X-10.649 Y-42.53 Z-8. R10.662
X10.649 Y-41.47 R10.662
X-10.649 Y-42.53 R10.662
G0 Z10.

(2D CONTOUR3)
M8
G0 X7.559 Y-49.801
Z10.
Z5.
G1 Z2.5 F762.
G2 X-7.559 Y-34.199 Z-3.517 R10.863
X10.863 Y-42. Z-8. R10.863
X-10.863 R10.863
X10.863 R10.863
X-10.863 R10.863
X0.5 Y-31.149 R10.863
X10.817 Y-42.999 R10.863
G0 Z5.
X7.559 Y34.199
G1 Z2.5 F762.
G2 X-7.559 Y49.801 Z-3.517 R10.863
X10.863 Y42. Z-8. R10.863
X-10.863 R10.863
X10.863 R10.863
X-10.863 R10.863
X0.5 Y52.851 R10.863
X10.817 Y41.001 R10.863
G0 Z10.

(2D CONTOUR2)
M8
G0 X-30.098 Y16.221
Z10.
Z5.
G1 Z3. F762.
Z2.5
G2 X-30.239 Y16.386 Z2.462 R39.629
X-30.481 Y16.764 Z2.382 R1.688
G1 X-30.511 Y16.829 Z2.37
G2 X-30.633 Y17.194 Z2.302 R1.687
X-30.967 Y17.391 Z2.233 R1.687
G1 X-31.024 Y17.434 Z2.221
G2 X-31.34 Y17.747 Z2.142 R1.687
X-31.538 Y18.004 Z2.085 R39.629
X-31.758 Y18.392 Z2.006 R1.688
G1 X-31.785 Y18.458 Z1.993
G2 X-31.889 Y18.831 Z1.925 R1.687
X-32.21 Y19.044 Z1.857 R1.687
G1 X-32.265 Y19.09 Z1.844
G2 X-32.567 Y19.421 Z1.765 R1.688
X-32.751 Y19.688 Z1.708 R39.629
X-32.951 Y20.088 Z1.629 R1.687
G1 X-32.974 Y20.156 Z1.616
G2 X-33.058 Y20.532 Z1.548 R1.687
X-33.368 Y20.761 Z1.48 R1.688
G1 X-33.42 Y20.81 Z1.467
G2 X-33.704 Y21.156 Z1.388 R1.688
X-33.873 Y21.432 Z1.331 R39.629
X-34.052 Y21.841 Z1.252 R1.687
G1 X-34.072 Y21.91 Z1.239
G2 X-34.136 Y22.292 Z1.171 R1.688
X-34.435 Y22.538 Z1.102 R1.688
G1 X-34.484 Y22.589 Z1.09
G2 X-34.749 Y22.949 Z1.011 R1.688
X-34.903 Y23.233 Z0.954 R39.629
X-35.061 Y23.653 Z0.875 R1.688
G1 X-35.077 Y23.722 Z0.862
G2 X-35.121 Y24.105 Z0.794 R1.687
X-35.405 Y24.366 Z0.726 R1.687
G1 X-35.452 Y24.42 Z0.713
G2 X-35.698 Y24.793 Z0.634 R1.687
X-35.838 Y25.086 Z0.577 R39.629
X-35.973 Y25.511 Z0.498 R1.687
G1 X-35.986 Y25.581 Z0.485
G2 X-36.009 Y25.968 Z0.417 R1.687
X-36.28 Y26.243 Z0.349 R1.687
G1 X-36.324 Y26.3 Z0.336
G2 X-36.55 Y26.686 Z0.257 R1.687
X-36.674 Y26.985 Z0.2 R39.629
X-36.787 Y27.416 Z0.121 R1.688
G1 X-36.795 Y27.487 Z0.108
G2 X-36.799 Y27.874 Z0.04 R1.687
X-37.055 Y28.164 Z-0.028 R1.687
G1 X-37.096 Y28.223 Z-0.041
G2 X-37.301 Y28.619 Z-0.12 R1.688
X-37.409 Y28.925 Z-0.177 R39.629
X-37.5 Y29.363 Z-0.256 R1.687
G1 X-37.505 Y29.435 Z-0.269
G2 X-37.488 Y29.819 Z-0.337 R1.688
X-37.729 Y30.123 Z-0.406 R1.687
G1 X-37.767 Y30.184 Z-0.418
G2 X-37.95 Y30.59 Z-0.497 R1.687
X-38.042 Y30.9 Z-0.554 R39.629
X-38.11 Y31.342 Z-0.633 R1.688
G1 X-38.111 Y31.414 Z-0.646
G2 X-38.074 Y31.798 Z-0.714 R1.688
X-38.297 Y32.11 Z-0.782 R1.687
G1 X-38.332 Y32.173 Z-0.794
G2 X-38.496 Y32.592 Z-0.874 R1.687
X-38.571 Y32.907 Z-0.931 R39.629
X-38.615 Y33.35 Z-1.01 R1.687
G1 X-38.613 Y33.422 Z-1.023
G2 X-38.555 Y33.805 Z-1.091 R1.687
X-38.763 Y34.131 Z-1.159 R1.687
G1 X-38.794 Y34.195 Z-1.172
G2 X-38.935 Y34.619 Z-1.251 R1.687
X-38.994 Y34.938 Z-1.308 R39.629
X-39.015 Y35.385 Z-1.387 R1.688
G1 X-39.009 Y35.456 Z-1.4
G2 X-38.931 Y35.834 Z-1.468 R1.687
X-39.122 Y36.169 Z-1.536 R1.687
G1 X-39.15 Y36.235 Z-1.549
G2 X-39.268 Y36.667 Z-1.628 R1.687
X-39.31 Y36.988 Z-1.685 R39.629
X-39.308 Y37.435 Z-1.764 R1.688
G1 X-39.298 Y37.506 Z-1.777
G2 X-39.201 Y37.88 Z-1.845 R1.687
X-39.373 Y38.225 Z-1.913 R1.688
G1 X-39.398 Y38.293 Z-1.926
G2 X-39.491 Y38.702 Z-2. R1.687
X-39.493 Y38.729 R1.687
X-39.519 Y39.052 R39.629
X-39.493 Y39.499 R1.687
G1 X-39.479 Y39.569
G2 X-39.363 Y39.937 R1.688
X-39.517 Y40.29 R1.687
G1 X-39.538 Y40.359
G2 X-39.61 Y40.801 R1.688
X-39.619 Y41.125 R39.629
X-39.57 Y41.568 R1.687
G1 X-39.553 Y41.637
G2 X-39.417 Y42. R1.687
X-39.553 Y42.363 R1.687
G1 X-39.57 Y42.432
G2 X-39.619 Y42.875 R1.687
X-39.61 Y43.199 R39.629
X-39.538 Y43.641 R1.688
G1 X-39.517 Y43.71
G2 X-39.363 Y44.063 R1.688
X-39.479 Y44.431 R1.687
G1 X-39.493 Y44.501
G2 X-39.519 Y44.948 R1.688
X-39.493 Y45.271 R39.629
X-39.398 Y45.707 R1.688
G1 X-39.373 Y45.775
G2 X-39.201 Y46.12 R1.687
X-39.298 Y46.494 R1.688
G1 X-39.308 Y46.565
G2 X-39.31 Y47.012 R1.688
X-39.268 Y47.333 R39.629
X-39.15 Y47.765 R1.687
G1 X-39.122 Y47.831
G2 X-38.931 Y48.166 R1.687
X-39.009 Y48.544 R1.687
G1 X-39.015 Y48.615
G2 X-38.994 Y49.062 R1.688
X-38.935 Y49.381 R39.629
X-38.794 Y49.805 R1.687
G1 X-38.763 Y49.869
G2 X-38.555 Y50.195 R1.688
X-38.613 Y50.578 R1.687
G1 X-38.615 Y50.65
G2 X-38.571 Y51.093 R1.688
X-38.496 Y51.408 R39.629
X-38.332 Y51.827 R1.687
G1 X-38.297 Y51.89
G2 X-38.074 Y52.202 R1.688
X-38.111 Y52.586 R1.688
G1 X-38.11 Y52.658
G2 X-38.042 Y53.1 R1.687
X-37.95 Y53.41 R39.629
X-37.767 Y53.816 R1.687
G1 X-37.729 Y53.877
G2 X-37.488 Y54.181 R1.688
X-37.505 Y54.565 R1.687
G1 X-37.5 Y54.637
G2 X-37.409 Y55.075 R1.687
X-37.301 Y55.381 R39.629
X-37.096 Y55.777 R1.687
G1 X-37.055 Y55.836
G2 X-36.799 Y56.126 R1.687
X-36.795 Y56.513 R1.688
G1 X-36.787 Y56.584
G2 X-36.674 Y57.015 R1.687
X-36.55 Y57.314 R39.629
X-36.324 Y57.7 R1.688
G1 X-36.28 Y57.757
G2 X-36.009 Y58.032 R1.687
X-35.986 Y58.419 R1.687
G1 X-35.973 Y58.489
G2 X-35.838 Y58.914 R1.688
X-35.698 Y59.207 R39.629
X-35.452 Y59.58 R1.687
G1 X-35.405 Y59.634
G2 X-35.121 Y59.895 R1.687
X-35.077 Y60.278 R1.687
G1 X-35.061 Y60.347
G2 X-34.903 Y60.767 R1.687
X-34.749 Y61.051 R39.629
X-34.484 Y61.411 R1.687
G1 X-34.435 Y61.462
G2 X-34.136 Y61.708 R1.688
X-34.072 Y62.09 R1.687
G1 X-34.052 Y62.159
G2 X-33.873 Y62.568 R1.687
X-33.704 Y62.844 R39.629
X-33.42 Y63.19 R1.688
G1 X-33.368 Y63.239
G2 X-33.058 Y63.468 R1.688
X-32.974 Y63.844 R1.687
G1 X-32.951 Y63.912
G2 X-32.751 Y64.312 R1.688
X-32.567 Y64.579 R39.629
X-32.265 Y64.91 R1.688
G1 X-32.21 Y64.956
G2 X-31.889 Y65.169 R1.687
X-31.785 Y65.542 R1.687
G1 X-31.758 Y65.608
G2 X-31.538 Y65.996 R1.688
X-31.34 Y66.253 R39.629
X-31.024 Y66.566 R1.688
G1 X-30.967 Y66.609
G2 X-30.633 Y66.806 R1.688
X-30.511 Y67.171 R1.687
G1 X-30.481 Y67.236
G2 X-30.239 Y67.614 R1.688
X-30.028 Y67.86 R39.629
X-29.695 Y68.156 R1.687
G1 X-29.636 Y68.196
G2 X-29.292 Y68.375 R1.687
X-29.151 Y68.734 R1.687
G1 X-29.117 Y68.797
G2 X-28.857 Y69.161 R1.687
X-28.634 Y69.396 R39.629
X-28.284 Y69.675 R1.687
G1 X-28.223 Y69.712
G2 X-27.872 Y69.872 R1.687
X-27.712 Y70.223 R1.687
G1 X-27.675 Y70.284
G2 X-27.396 Y70.634 R1.688
X-27.161 Y70.857 R39.629
X-26.797 Y71.117 R1.688
G1 X-26.734 Y71.151
G2 X-26.375 Y71.292 R1.688
X-26.196 Y71.636 R1.687
G1 X-26.156 Y71.695
G2 X-25.86 Y72.028 R1.687
X-25.614 Y72.239 R39.629
X-25.236 Y72.481 R1.687
G1 X-25.171 Y72.511
G2 X-24.806 Y72.633 R1.688
X-24.609 Y72.967 R1.688
G1 X-24.566 Y73.024
G2 X-24.253 Y73.34 R1.688
X-23.996 Y73.538 R39.629
X-23.608 Y73.758 R1.687
G1 X-23.542 Y73.785
G2 X-23.169 Y73.889 R1.687
X-22.956 Y74.21 R1.688
G1 X-22.91 Y74.265
G2 X-22.579 Y74.567 R1.687
X-22.312 Y74.751 R39.629
X-21.912 Y74.951 R1.688
G1 X-21.844 Y74.974
G2 X-21.468 Y75.058 R1.688
X-21.239 Y75.368 R1.688
G1 X-21.19 Y75.42
G2 X-20.844 Y75.704 R1.688
X-20.568 Y75.873 R39.629
X-20.159 Y76.052 R1.687
G1 X-20.09 Y76.072
G2 X-19.708 Y76.136 R1.687
X-19.462 Y76.435 R1.688
G1 X-19.411 Y76.484
G2 X-19.051 Y76.749 R1.688
X-18.767 Y76.903 R39.629
X-18.347 Y77.061 R1.687
G1 X-18.278 Y77.077
G2 X-17.895 Y77.121 R1.688
X-17.634 Y77.405 R1.687
G1 X-17.58 Y77.452
G2 X-17.207 Y77.698 R1.687
X-16.914 Y77.838 R39.629
X-16.489 Y77.973 R1.688
G1 X-16.419 Y77.986
G2 X-16.032 Y78.009 R1.688
X-15.757 Y78.28 R1.687
G1 X-15.7 Y78.324
G2 X-15.314 Y78.55 R1.688
X-15.015 Y78.674 R39.629
X-14.584 Y78.787 R1.687
G1 X-14.513 Y78.795
G2 X-14.126 Y78.799 R1.688
X-13.836 Y79.055 R1.688
G1 X-13.777 Y79.096
G2 X-13.381 Y79.301 R1.688
X-13.075 Y79.409 R39.629
X-12.637 Y79.5 R1.687
G1 X-12.565 Y79.505
G2 X-12.181 Y79.488 R1.688
X-11.877 Y79.729 R1.687
G1 X-11.816 Y79.767
G2 X-11.41 Y79.95 R1.687
X-11.1 Y80.042 R39.629
X-10.658 Y80.11 R1.687
G1 X-10.586 Y80.111
G2 X-10.202 Y80.074 R1.687
X-9.889 Y80.297 R1.688
G1 X-9.826 Y80.332
G2 X-9.408 Y80.496 R1.687
X-9.093 Y80.571 R39.629
X-8.65 Y80.615 R1.688
G1 X-8.578 Y80.613
G2 X-8.195 Y80.555 R1.687
X-7.869 Y80.763 R1.687
G1 X-7.805 Y80.794
G2 X-7.381 Y80.935 R1.688
X-7.062 Y80.994 R39.629
X-6.615 Y81.015 R1.687
G1 X-6.544 Y81.009
G2 X-6.166 Y80.931 R1.688
X-5.83 Y81.122 R1.687
G1 X-5.764 Y81.15
G2 X-5.333 Y81.268 R1.687
X-5.012 Y81.31 R39.629
X-4.565 Y81.308 R1.687
G1 X-4.494 Y81.298
G2 X-4.12 Y81.201 R1.687
X-3.774 Y81.373 R1.687
G1 X-3.707 Y81.398
G2 X-3.271 Y81.493 R1.687
X-2.948 Y81.519 R39.629
X-2.501 Y81.493 R1.688
G1 X-2.431 Y81.479
G2 X-2.063 Y81.363 R1.687
X-1.71 Y81.517 R1.687
G1 X-1.641 Y81.538
G2 X-1.199 Y81.61 R1.687
X-0.875 Y81.619 R39.629
X-0.432 Y81.57 R1.688
G1 X-0.363 Y81.553
G2 X0. Y81.417 R1.688
X0.363 Y81.553 R1.688
G1 X0.432 Y81.57
G2 X0.875 Y81.619 R1.687
X1.199 Y81.61 R39.629
X1.641 Y81.538 R1.688
G1 X1.71 Y81.517
G2 X2.063 Y81.363 R1.687
X2.431 Y81.479 R1.687
G1 X2.501 Y81.493
G2 X2.948 Y81.519 R1.688
X3.271 Y81.493 R39.629
X3.707 Y81.398 R1.687
G1 X3.774 Y81.373
G2 X4.12 Y81.201 R1.688
X4.494 Y81.298 R1.687
G1 X4.565 Y81.308
G2 X5.012 Y81.31 R1.688
X5.333 Y81.268 R39.629
X5.764 Y81.15 R1.687
G1 X5.83 Y81.122
G2 X6.166 Y80.931 R1.688
X6.544 Y81.009 R1.687
G1 X6.615 Y81.015
G2 X7.062 Y80.994 R1.687
X7.381 Y80.935 R39.629
X7.805 Y80.794 R1.688
G1 X7.869 Y80.763
G2 X8.195 Y80.555 R1.687
X8.578 Y80.613 R1.687
G1 X8.65 Y80.615
G2 X9.093 Y80.571 R1.688
X9.408 Y80.496 R39.629
X9.826 Y80.332 R1.688
G1 X9.889 Y80.297
G2 X10.202 Y80.074 R1.687
X10.586 Y80.111 R1.688
G1 X10.658 Y80.11
G2 X11.1 Y80.042 R1.687
X11.41 Y79.95 R39.629
X11.816 Y79.767 R1.688
G1 X11.877 Y79.729
G2 X12.181 Y79.488 R1.688
X12.565 Y79.505 R1.688
G1 X12.637 Y79.5
G2 X13.075 Y79.409 R1.687
X13.381 Y79.301 R39.629
X13.777 Y79.096 R1.688
G1 X13.836 Y79.055
G2 X14.126 Y78.799 R1.688
X14.513 Y78.795 R1.688
G1 X14.584 Y78.787
G2 X15.015 Y78.674 R1.687
X15.314 Y78.55 R39.629
X15.7 Y78.324 R1.687
G1 X15.757 Y78.28
G2 X16.032 Y78.009 R1.687
X16.419 Y77.986 R1.688
G1 X16.489 Y77.973
G2 X16.914 Y77.838 R1.687
X17.207 Y77.698 R39.629
X17.58 Y77.452 R1.687
G1 X17.634 Y77.405
G2 X17.895 Y77.121 R1.687
X18.278 Y77.077 R1.688
G1 X18.347 Y77.061
G2 X18.767 Y76.903 R1.688
X19.051 Y76.749 R39.629
X19.411 Y76.484 R1.688
G1 X19.462 Y76.435
G2 X19.708 Y76.136 R1.688
X20.09 Y76.072 R1.687
G1 X20.159 Y76.052
G2 X20.568 Y75.873 R1.688
X20.844 Y75.704 R39.629
X21.19 Y75.42 R1.688
G1 X21.239 Y75.368
G2 X21.468 Y75.058 R1.688
X21.844 Y74.974 R1.688
G1 X21.912 Y74.951
G2 X22.312 Y74.751 R1.688
X22.579 Y74.567 R39.629
X22.91 Y74.265 R1.688
G1 X22.956 Y74.21
G2 X23.169 Y73.889 R1.688
X23.542 Y73.785 R1.687
G1 X23.608 Y73.758
G2 X23.996 Y73.538 R1.688
X24.253 Y73.34 R39.629
X24.566 Y73.024 R1.688
G1 X24.609 Y72.967
G2 X24.806 Y72.633 R1.688
X25.171 Y72.511 R1.688
G1 X25.236 Y72.481
G2 X25.614 Y72.239 R1.687
X25.86 Y72.028 R39.629
X26.156 Y71.695 R1.687
G1 X26.196 Y71.636
G2 X26.375 Y71.292 R1.687
X26.734 Y71.151 R1.688
G1 X26.797 Y71.117
G2 X27.161 Y70.857 R1.687
X27.396 Y70.634 R39.629
X27.675 Y70.284 R1.688
G1 X27.712 Y70.223
G2 X27.872 Y69.872 R1.687
X28.223 Y69.712 R1.687
G1 X28.284 Y69.675
G2 X28.634 Y69.396 R1.687
X28.857 Y69.161 R39.629
X29.117 Y68.797 R1.687
G1 X29.151 Y68.734
G2 X29.292 Y68.375 R1.687
X29.636 Y68.196 R1.688
G1 X29.695 Y68.156
G2 X30.028 Y67.86 R1.688
X30.239 Y67.614 R39.629
X30.481 Y67.236 R1.688
G1 X30.511 Y67.171
G2 X30.633 Y66.806 R1.687
X30.967 Y66.609 R1.688
G1 X31.024 Y66.566
G2 X31.34 Y66.253 R1.687
X31.538 Y65.996 R39.629
X31.758 Y65.608 R1.687
G1 X31.785 Y65.542
G2 X31.889 Y65.169 R1.687
X32.21 Y64.956 R1.687
G1 X32.265 Y64.91
G2 X32.567 Y64.579 R1.688
X32.751 Y64.312 R39.629
X32.951 Y63.912 R1.687
G1 X32.974 Y63.844
G2 X33.058 Y63.468 R1.687
X33.368 Y63.239 R1.687
G1 X33.42 Y63.19
G2 X33.704 Y62.844 R1.688
X33.873 Y62.568 R39.629
X34.052 Y62.159 R1.687
G1 X34.072 Y62.09
G2 X34.136 Y61.708 R1.688
X34.435 Y61.462 R1.688
G1 X34.484 Y61.411
G2 X34.749 Y61.051 R1.687
X34.903 Y60.767 R39.629
X35.061 Y60.347 R1.688
G1 X35.077 Y60.278
G2 X35.121 Y59.895 R1.687
X35.405 Y59.634 R1.687
G1 X35.452 Y59.58
G2 X35.698 Y59.207 R1.687
X35.838 Y58.914 R39.629
X35.973 Y58.489 R1.687
G1 X35.986 Y58.419
G2 X36.009 Y58.032 R1.687
X36.28 Y57.757 R1.687
G1 X36.324 Y57.7
G2 X36.55 Y57.314 R1.687
X36.674 Y57.015 R39.629
X36.787 Y56.584 R1.688
G1 X36.795 Y56.513
G2 X36.799 Y56.126 R1.687
X37.055 Y55.836 R1.687
G1 X37.096 Y55.777
G2 X37.301 Y55.381 R1.688
X37.409 Y55.075 R39.629
X37.5 Y54.637 R1.687
G1 X37.505 Y54.565
G2 X37.488 Y54.181 R1.688
X37.729 Y53.877 R1.688
G1 X37.767 Y53.816
G2 X37.95 Y53.41 R1.687
X38.042 Y53.1 R39.629
X38.11 Y52.658 R1.688
G1 X38.111 Y52.586
G2 X38.074 Y52.202 R1.688
X38.297 Y51.89 R1.687
G1 X38.332 Y51.827
G2 X38.496 Y51.408 R1.687
X38.571 Y51.093 R39.629
X38.615 Y50.65 R1.687
G1 X38.613 Y50.578
G2 X38.555 Y50.195 R1.687
X38.763 Y49.869 R1.687
G1 X38.794 Y49.805
G2 X38.935 Y49.381 R1.687
X38.994 Y49.062 R39.629
X39.015 Y48.615 R1.688
G1 X39.009 Y48.544
G2 X38.931 Y48.166 R1.687
X39.122 Y47.831 R1.687
G1 X39.15 Y47.765
G2 X39.268 Y47.333 R1.687
X39.31 Y47.012 R39.629
X39.308 Y46.565 R1.688
G1 X39.298 Y46.494
G2 X39.201 Y46.12 R1.687
X39.373 Y45.775 R1.688
G1 X39.398 Y45.707
G2 X39.493 Y45.271 R1.687
X39.519 Y44.948 R39.629
X39.493 Y44.501 R1.687
G1 X39.479 Y44.431
G2 X39.363 Y44.063 R1.688
X39.517 Y43.71 R1.687
G1 X39.538 Y43.641
G2 X39.61 Y43.199 R1.688
X39.619 Y42.875 R39.629
X39.57 Y42.432 R1.687
G1 X39.553 Y42.363
G2 X39.417 Y42. R1.687
X39.553 Y41.637 R1.687
G1 X39.57 Y41.568
G2 X39.619 Y41.125 R1.687
X39.61 Y40.801 R39.629
X39.538 Y40.359 R1.688
G1 X39.517 Y40.29
G2 X39.363 Y39.937 R1.688
X39.479 Y39.569 R1.687
G1 X39.493 Y39.499
G2 X39.519 Y39.052 R1.688
X39.493 Y38.729 R39.629
X39.398 Y38.293 R1.688
G1 X39.373 Y38.225
G2 X39.201 Y37.88 R1.687
X39.298 Y37.506 R1.688
G1 X39.308 Y37.435
G2 X39.31 Y36.988 R1.688
X39.268 Y36.667 R39.629
X39.15 Y36.235 R1.687
G1 X39.122 Y36.169
G2 X38.931 Y35.834 R1.687
X39.009 Y35.456 R1.687
G1 X39.015 Y35.385
G2 X38.994 Y34.938 R1.688
X38.935 Y34.619 R39.629
X38.794 Y34.195 R1.687
G1 X38.763 Y34.131
G2 X38.555 Y33.805 R1.688
X38.613 Y33.422 R1.687
G1 X38.615 Y33.35
G2 X38.571 Y32.907 R1.688
X38.496 Y32.592 R39.629
X38.332 Y32.173 R1.687
G1 X38.297 Y32.11
G2 X38.074 Y31.798 R1.687
X38.111 Y31.414 R1.688
G1 X38.11 Y31.342
G2 X38.042 Y30.9 R1.687
X37.95 Y30.59 R39.629
X37.767 Y30.184 R1.687
G1 X37.729 Y30.123
G2 X37.488 Y29.819 R1.688
X37.505 Y29.435 R1.687
G1 X37.5 Y29.363
G2 X37.409 Y28.925 R1.687
X37.301 Y28.619 R39.629
X37.096 Y28.223 R1.687
G1 X37.055 Y28.164
G2 X36.799 Y27.874 R1.687
X36.795 Y27.487 R1.688
G1 X36.787 Y27.416
G2 X36.674 Y26.985 R1.687
X36.55 Y26.686 R39.629
X36.324 Y26.3 R1.687
G1 X36.28 Y26.243
G2 X36.009 Y25.968 R1.687
X35.986 Y25.581 R1.687
G1 X35.973 Y25.511
G2 X35.838 Y25.086 R1.688
X35.698 Y24.793 R39.629
X35.452 Y24.42 R1.687
G1 X35.405 Y24.366
G2 X35.121 Y24.105 R1.688
X35.077 Y23.722 R1.687
G1 X35.061 Y23.653
G2 X34.903 Y23.233 R1.687
X34.749 Y22.949 R39.629
X34.484 Y22.589 R1.687
G1 X34.435 Y22.538
G2 X34.136 Y22.292 R1.688
X34.072 Y21.91 R1.687
G1 X34.052 Y21.841
G2 X33.873 Y21.432 R1.687
X33.704 Y21.156 R39.629
X33.42 Y20.81 R1.688
G1 X33.368 Y20.761
G2 X33.058 Y20.532 R1.688
X32.974 Y20.156 R1.687
G1 X32.951 Y20.088
G2 X32.751 Y19.688 R1.687
X32.567 Y19.421 R39.629
X32.265 Y19.09 R1.687
G1 X32.21 Y19.044
G2 X31.889 Y18.831 R1.688
X31.785 Y18.458 R1.687
G1 X31.758 Y18.392
G2 X31.538 Y18.004 R1.688
X31.34 Y17.747 R39.629
X31.024 Y17.434 R1.687
G1 X30.967 Y17.391
G2 X30.633 Y17.194 R1.687
X30.511 Y16.829 R1.687
G1 X30.481 Y16.764
G2 X30.239 Y16.386 R1.688
X30.028 Y16.14 R39.629
X29.695 Y15.844 R1.687
G1 X29.636 Y15.804
G2 X29.292 Y15.625 R1.688
X29.151 Y15.266 R1.688
G1 X29.117 Y15.203
G2 X28.857 Y14.839 R1.687
X28.634 Y14.604 R39.629
X28.284 Y14.325 R1.688
G1 X28.223 Y14.288
G2 X27.872 Y14.128 R1.687
X27.712 Y13.777 R1.687
G1 X27.675 Y13.716
G2 X27.396 Y13.366 R1.688
X27.161 Y13.143 R39.629
X26.797 Y12.883 R1.687
G1 X26.734 Y12.849
G2 X26.375 Y12.708 R1.688
X26.196 Y12.364 R1.687
G1 X26.156 Y12.305
G2 X25.86 Y11.972 R1.688
X25.614 Y11.761 R39.629
X25.236 Y11.519 R1.688
G1 X25.171 Y11.489
G2 X24.806 Y11.367 R1.688
X24.609 Y11.033 R1.687
G1 X24.566 Y10.976
G2 X24.253 Y10.66 R1.687
X23.996 Y10.462 R39.629
X23.608 Y10.242 R1.688
G1 X23.542 Y10.215
G2 X23.169 Y10.111 R1.688
X22.956 Y9.79 R1.687
G1 X22.91 Y9.735
G2 X22.579 Y9.433 R1.687
X22.312 Y9.249 R39.629
X21.912 Y9.049 R1.687
G1 X21.844 Y9.026
G2 X21.468 Y8.942 R1.687
X21.238 Y8.632 R1.688
G1 X21.19 Y8.579
G2 X20.844 Y8.296 R1.688
X20.568 Y8.127 R39.629
X20.158 Y7.947 R1.687
G1 X20.09 Y7.928
G2 X19.708 Y7.864 R1.687
X19.462 Y7.566 R1.688
G1 X19.411 Y7.516
G2 X19.051 Y7.251 R1.687
X18.767 Y7.097 R39.629
X18.348 Y6.939 R1.688
G1 X18.279 Y6.923
G2 X17.895 Y6.879 R1.687
X17.634 Y6.594 R1.687
G1 X17.58 Y6.548
G2 X17.207 Y6.302 R1.687
X16.914 Y6.162 R39.629
X16.489 Y6.027 R1.687
G1 X16.418 Y6.014
G2 X16.032 Y5.991 R1.688
X15.756 Y5.72 R1.688
G1 X15.7 Y5.676
G2 X15.315 Y5.45 R1.687
X15.016 Y5.326 R39.629
X14.583 Y5.213 R1.688
G1 X14.512 Y5.204
G2 X14.126 Y5.201 R1.687
X13.835 Y4.944 R1.687
G1 X13.777 Y4.903
G2 X13.381 Y4.699 R1.688
X13.075 Y4.591 R39.629
X12.638 Y4.5 R1.688
G1 X12.567 Y4.495
G2 X12.18 Y4.512 R1.687
X11.878 Y4.272 R1.687
G1 X11.817 Y4.234
G2 X11.41 Y4.05 R1.687
X11.1 Y3.958 R39.629
X10.658 Y3.89 R1.687
G1 X10.587 Y3.889
G2 X10.202 Y3.926 R1.688
X9.887 Y3.702 R1.688
G1 X9.825 Y3.667
G2 X9.408 Y3.505 R1.688
X9.094 Y3.429 R39.629
X8.649 Y3.385 R1.688
G1 X8.578 Y3.387
G2 X8.195 Y3.445 R1.688
X7.869 Y3.237 R1.687
G1 X7.805 Y3.205
G2 X7.381 Y3.065 R1.687
X7.062 Y3.006 R39.629
X6.616 Y2.985 R1.687
G1 X6.545 Y2.991
G2 X6.166 Y3.069 R1.688
X5.83 Y2.878 R1.688
G1 X5.764 Y2.85
G2 X5.333 Y2.732 R1.687
X5.012 Y2.69 R39.629
X4.565 Y2.692 R1.687
G1 X4.494 Y2.702
G2 X4.12 Y2.799 R1.687
X3.774 Y2.627 R1.688
G1 X3.707 Y2.602
G2 X3.271 Y2.507 R1.688
X2.948 Y2.481 R39.629
X2.502 Y2.507 R1.688
G1 X2.432 Y2.521
G2 X2.063 Y2.637 R1.687
X1.708 Y2.483 R1.687
G1 X1.64 Y2.462
G2 X1.199 Y2.39 R1.688
X0.875 Y2.381 R39.629
X0.431 Y2.43 R1.688
G1 X0.362 Y2.448
G2 X0. Y2.583 R1.688
X-0.362 Y2.448 R1.688
G1 X-0.431 Y2.43
G2 X-0.875 Y2.381 R1.688
X-1.199 Y2.39 R39.629
X-1.64 Y2.462 R1.688
G1 X-1.708 Y2.483
G2 X-2.063 Y2.637 R1.687
X-2.432 Y2.521 R1.687
G1 X-2.502 Y2.507
G2 X-2.948 Y2.481 R1.687
X-3.271 Y2.507 R39.629
X-3.707 Y2.602 R1.688
G1 X-3.774 Y2.627
G2 X-4.12 Y2.799 R1.687
X-4.494 Y2.702 R1.687
G1 X-4.565 Y2.692
G2 X-5.012 Y2.69 R1.687
X-5.333 Y2.732 R39.629
X-5.764 Y2.85 R1.688
G1 X-5.83 Y2.878
G2 X-6.166 Y3.069 R1.688
X-6.545 Y2.991 R1.688
G1 X-6.616 Y2.985
G2 X-7.062 Y3.006 R1.687
X-7.381 Y3.065 R39.629
X-7.805 Y3.205 R1.687
G1 X-7.869 Y3.237
G2 X-8.195 Y3.445 R1.688
X-8.578 Y3.387 R1.688
G1 X-8.649 Y3.385
G2 X-9.094 Y3.429 R1.688
X-9.408 Y3.505 R39.629
X-9.825 Y3.667 R1.688
G1 X-9.887 Y3.702
G2 X-10.202 Y3.926 R1.688
X-10.587 Y3.889 R1.688
G1 X-10.658 Y3.89
G2 X-11.1 Y3.958 R1.687
X-11.41 Y4.05 R39.629
X-11.817 Y4.234 R1.687
G1 X-11.878 Y4.272
G2 X-12.18 Y4.512 R1.688
X-12.567 Y4.495 R1.688
G1 X-12.638 Y4.5
G2 X-13.075 Y4.591 R1.688
X-13.381 Y4.699 R39.629
X-13.777 Y4.903 R1.688
G1 X-13.835 Y4.944
G2 X-14.126 Y5.201 R1.687
X-14.512 Y5.204 R1.687
G1 X-14.583 Y5.213
G2 X-15.016 Y5.326 R1.688
X-15.315 Y5.45 R39.629
X-15.7 Y5.676 R1.687
G1 X-15.756 Y5.72
G2 X-16.032 Y5.991 R1.688
X-16.418 Y6.014 R1.688
G1 X-16.489 Y6.027
G2 X-16.914 Y6.162 R1.687
X-17.207 Y6.302 R39.629
X-17.58 Y6.548 R1.687
G1 X-17.634 Y6.594
G2 X-17.895 Y6.879 R1.687
X-18.279 Y6.923 R1.687
G1 X-18.348 Y6.939
G2 X-18.767 Y7.097 R1.688
X-19.051 Y7.251 R39.629
X-19.411 Y7.516 R1.688
G1 X-19.462 Y7.566
G2 X-19.708 Y7.864 R1.688
X-20.09 Y7.928 R1.687
G1 X-20.158 Y7.947
G2 X-20.568 Y8.127 R1.687
X-20.844 Y8.296 R39.629
X-21.19 Y8.579 R1.688
G1 X-21.238 Y8.632
G2 X-21.468 Y8.942 R1.687
X-21.844 Y9.026 R1.687
G1 X-21.912 Y9.049
G2 X-22.312 Y9.249 R1.688
X-22.579 Y9.433 R39.629
X-22.91 Y9.735 R1.687
G1 X-22.956 Y9.79
G2 X-23.169 Y10.111 R1.688
X-23.542 Y10.215 R1.687
G1 X-23.608 Y10.242
G2 X-23.996 Y10.462 R1.687
X-24.253 Y10.66 R39.629
X-24.566 Y10.976 R1.687
G1 X-24.609 Y11.033
G2 X-24.806 Y11.367 R1.687
X-25.171 Y11.489 R1.688
G1 X-25.236 Y11.519
G2 X-25.614 Y11.761 R1.687
X-25.86 Y11.972 R39.629
X-26.156 Y12.305 R1.688
G1 X-26.196 Y12.364
G2 X-26.375 Y12.708 R1.688
X-26.734 Y12.849 R1.688
G1 X-26.797 Y12.883
G2 X-27.161 Y13.143 R1.687
X-27.396 Y13.366 R39.629
X-27.675 Y13.716 R1.687
G1 X-27.712 Y13.777
G2 X-27.872 Y14.128 R1.687
X-28.223 Y14.288 R1.687
G1 X-28.284 Y14.325
G2 X-28.634 Y14.604 R1.688
X-28.857 Y14.839 R39.629
X-29.117 Y15.203 R1.687
G1 X-29.151 Y15.266
G2 X-29.292 Y15.625 R1.688
X-29.636 Y15.804 R1.688
G1 X-29.695 Y15.844
G2 X-30.028 Y16.14 R1.687
X-30.239 Y16.386 R39.629
X-30.481 Y16.764 R1.688
G1 X-30.511 Y16.829
G2 X-30.633 Y17.194 R1.687
X-30.967 Y17.391 R1.687
G1 X-31.024 Y17.434
G2 X-31.34 Y17.747 R1.687
X-31.538 Y18.004 R39.629
X-31.758 Y18.392 R1.688
G1 X-31.785 Y18.458
G2 X-31.889 Y18.831 R1.687
X-32.21 Y19.044 R1.687
G1 X-32.265 Y19.09
G2 X-32.567 Y19.421 R1.688
X-32.751 Y19.688 R39.629
X-32.951 Y20.088 R1.687
G1 X-32.974 Y20.156
G2 X-33.058 Y20.532 R1.687
X-33.368 Y20.761 R1.688
G1 X-33.42 Y20.81
G2 X-33.704 Y21.156 R1.688
X-33.873 Y21.432 R39.629
X-34.052 Y21.841 R1.687
G1 X-34.072 Y21.91
G2 X-34.136 Y22.292 R1.688
X-34.435 Y22.538 R1.688
G1 X-34.484 Y22.589
G2 X-34.749 Y22.949 R1.688
X-34.903 Y23.233 R39.629
X-35.061 Y23.653 R1.688
G1 X-35.077 Y23.722
G2 X-35.121 Y24.105 R1.687
X-35.405 Y24.366 R1.687
G1 X-35.452 Y24.42
G2 X-35.698 Y24.793 R1.687
X-35.838 Y25.086 R39.629
X-35.973 Y25.511 R1.687
G1 X-35.986 Y25.581
G2 X-36.009 Y25.968 R1.687
X-36.28 Y26.243 R1.687
G1 X-36.324 Y26.3
G2 X-36.55 Y26.686 R1.687
X-36.674 Y26.985 R39.629
X-36.787 Y27.416 R1.688
G1 X-36.795 Y27.487
G2 X-36.799 Y27.874 R1.687
X-37.055 Y28.164 R1.687
G1 X-37.096 Y28.223
G2 X-37.301 Y28.619 R1.688
X-37.409 Y28.925 R39.629
X-37.5 Y29.363 R1.687
G1 X-37.505 Y29.435
G2 X-37.488 Y29.819 R1.688
X-37.729 Y30.123 R1.687
G1 X-37.767 Y30.184
G2 X-37.95 Y30.59 R1.687
X-38.042 Y30.9 R39.629
X-38.11 Y31.342 R1.688
G1 X-38.111 Y31.414
G2 X-38.074 Y31.798 R1.688
X-38.297 Y32.11 R1.687
G1 X-38.332 Y32.173
G2 X-38.496 Y32.592 R1.687
X-38.571 Y32.907 R39.629
X-38.615 Y33.35 R1.687
G1 X-38.613 Y33.422
G2 X-38.555 Y33.805 R1.687
X-38.763 Y34.131 R1.687
G1 X-38.794 Y34.195
G2 X-38.935 Y34.619 R1.687
X-38.994 Y34.938 R39.629
X-39.015 Y35.385 R1.688
G1 X-39.009 Y35.456
G2 X-38.931 Y35.834 R1.687
X-39.122 Y36.169 R1.687
G1 X-39.15 Y36.235
G2 X-39.268 Y36.667 R1.687
X-39.31 Y36.988 R39.629
X-39.308 Y37.435 R1.688
G1 X-39.298 Y37.506
G2 X-39.201 Y37.88 R1.687
X-39.373 Y38.225 R1.688
G1 X-39.398 Y38.293
G2 X-39.491 Y38.702 R1.687
X-39.493 Y38.729 Z-2.001 R1.687
X-39.519 Y39.052 Z-2.017 R39.629
X-39.493 Y39.499 Z-2.04 R1.687
G1 X-39.479 Y39.569 Z-2.043
G2 X-39.363 Y39.937 Z-2.062 R1.688
X-39.517 Y40.29 Z-2.081 R1.687
G1 X-39.538 Y40.359 Z-2.085
G2 X-39.61 Y40.801 Z-2.107 R1.688
X-39.619 Y41.125 Z-2.123 R39.629
X-39.57 Y41.568 Z-2.145 R1.687
G1 X-39.553 Y41.637 Z-2.149
G2 X-39.417 Y42. Z-2.168 R1.687
X-39.553 Y42.363 Z-2.187 R1.687
G1 X-39.57 Y42.432 Z-2.191
G2 X-39.619 Y42.875 Z-2.213 R1.687
X-39.61 Y43.199 Z-2.229 R39.629
X-39.538 Y43.641 Z-2.251 R1.688
G1 X-39.517 Y43.71 Z-2.255
G2 X-39.363 Y44.063 Z-2.274 R1.688
X-39.479 Y44.431 Z-2.293 R1.687
G1 X-39.493 Y44.501 Z-2.297
G2 X-39.519 Y44.948 Z-2.319 R1.688
X-39.493 Y45.271 Z-2.335 R39.629
X-39.398 Y45.707 Z-2.357 R1.688
G1 X-39.373 Y45.775 Z-2.361
G2 X-39.201 Y46.12 Z-2.38 R1.687
X-39.298 Y46.494 Z-2.399 R1.688
G1 X-39.308 Y46.565 Z-2.402
G2 X-39.31 Y47.012 Z-2.425 R1.688
X-39.268 Y47.333 Z-2.441 R39.629
X-39.15 Y47.765 Z-2.463 R1.687
G1 X-39.122 Y47.831 Z-2.466
G2 X-38.931 Y48.166 Z-2.486 R1.687
X-39.009 Y48.544 Z-2.505 R1.687
G1 X-39.015 Y48.615 Z-2.508
G2 X-38.994 Y49.062 Z-2.531 R1.688
X-38.935 Y49.381 Z-2.547 R39.629
X-38.794 Y49.805 Z-2.569 R1.687
G1 X-38.763 Y49.869 Z-2.572
G2 X-38.555 Y50.195 Z-2.591 R1.688
X-38.613 Y50.578 Z-2.611 R1.687
G1 X-38.615 Y50.65 Z-2.614
G2 X-38.571 Y51.093 Z-2.636 R1.688
X-38.496 Y51.408 Z-2.652 R39.629
X-38.332 Y51.827 Z-2.675 R1.687
G1 X-38.297 Y51.89 Z-2.678
G2 X-38.074 Y52.202 Z-2.697 R1.688
X-38.111 Y52.586 Z-2.716 R1.688
G1 X-38.11 Y52.658 Z-2.72
G2 X-38.042 Y53.1 Z-2.742 R1.687
X-37.95 Y53.41 Z-2.758 R39.629
X-37.767 Y53.816 Z-2.78 R1.687
G1 X-37.729 Y53.877 Z-2.784
G2 X-37.488 Y54.181 Z-2.803 R1.688
X-37.505 Y54.565 Z-2.822 R1.687
G1 X-37.5 Y54.637 Z-2.826
G2 X-37.409 Y55.075 Z-2.848 R1.687
X-37.301 Y55.381 Z-2.864 R39.629
X-37.096 Y55.777 Z-2.886 R1.687
G1 X-37.055 Y55.836 Z-2.89
G2 X-36.799 Y56.126 Z-2.909 R1.687
X-36.795 Y56.513 Z-2.928 R1.688
G1 X-36.787 Y56.584 Z-2.932
G2 X-36.674 Y57.015 Z-2.954 R1.687
X-36.55 Y57.314 Z-2.97 R39.629
X-36.324 Y57.7 Z-2.992 R1.688
G1 X-36.28 Y57.757 Z-2.996
G2 X-36.009 Y58.032 Z-3.015 R1.687
X-35.986 Y58.419 Z-3.034 R1.687
G1 X-35.973 Y58.489 Z-3.038
G2 X-35.838 Y58.914 Z-3.06 R1.688
X-35.698 Y59.207 Z-3.076 R39.629
X-35.452 Y59.58 Z-3.098 R1.687
G1 X-35.405 Y59.634 Z-3.101
G2 X-35.121 Y59.895 Z-3.121 R1.687
X-35.077 Y60.278 Z-3.14 R1.687
G1 X-35.061 Y60.347 Z-3.143
G2 X-34.903 Y60.767 Z-3.166 R1.687
X-34.749 Y61.051 Z-3.182 R39.629
X-34.484 Y61.411 Z-3.204 R1.687
G1 X-34.435 Y61.462 Z-3.207
G2 X-34.136 Y61.708 Z-3.226 R1.688
X-34.072 Y62.09 Z-3.246 R1.687
G1 X-34.052 Y62.159 Z-3.249
G2 X-33.873 Y62.568 Z-3.271 R1.687
X-33.704 Y62.844 Z-3.287 R39.629
X-33.42 Y63.19 Z-3.31 R1.688
G1 X-33.368 Y63.239 Z-3.313
G2 X-33.058 Y63.468 Z-3.332 R1.688
X-32.974 Y63.844 Z-3.351 R1.687
G1 X-32.951 Y63.912 Z-3.355
G2 X-32.751 Y64.312 Z-3.377 R1.688
X-32.567 Y64.579 Z-3.393 R39.629
X-32.265 Y64.91 Z-3.415 R1.688
G1 X-32.21 Y64.956 Z-3.419
G2 X-31.889 Y65.169 Z-3.438 R1.687
X-31.785 Y65.542 Z-3.457 R1.687
G1 X-31.758 Y65.608 Z-3.461
G2 X-31.538 Y65.996 Z-3.483 R1.688
X-31.34 Y66.253 Z-3.499 R39.629
X-31.024 Y66.566 Z-3.521 R1.688
G1 X-30.967 Y66.609 Z-3.525
G2 X-30.633 Y66.806 Z-3.544 R1.688
X-30.511 Y67.171 Z-3.563 R1.687
G1 X-30.481 Y67.236 Z-3.567
G2 X-30.239 Y67.614 Z-3.589 R1.688
X-30.028 Y67.86 Z-3.605 R39.629
X-29.695 Y68.156 Z-3.627 R1.687
G1 X-29.636 Y68.196 Z-3.631
G2 X-29.292 Y68.375 Z-3.65 R1.687
X-29.151 Y68.734 Z-3.669 R1.687
G1 X-29.117 Y68.797 Z-3.672
G2 X-28.857 Y69.161 Z-3.695 R1.687
X-28.634 Y69.396 Z-3.711 R39.629
X-28.284 Y69.675 Z-3.733 R1.687
G1 X-28.223 Y69.712 Z-3.737
G2 X-27.872 Y69.872 Z-3.756 R1.687
X-27.712 Y70.223 Z-3.775 R1.687
G1 X-27.675 Y70.284 Z-3.778
G2 X-27.396 Y70.634 Z-3.801 R1.688
X-27.161 Y70.857 Z-3.817 R39.629
X-26.797 Y71.117 Z-3.839 R1.688
G1 X-26.734 Y71.151 Z-3.842
G2 X-26.375 Y71.292 Z-3.861 R1.688
X-26.196 Y71.636 Z-3.881 R1.687
G1 X-26.156 Y71.695 Z-3.884
G2 X-25.86 Y72.028 Z-3.906 R1.687
X-25.614 Y72.239 Z-3.922 R39.629
X-25.236 Y72.481 Z-3.945 R1.687
G1 X-25.171 Y72.511 Z-3.948
G2 X-24.806 Y72.633 Z-3.967 R1.688
X-24.609 Y72.967 Z-3.987 R1.688
G1 X-24.566 Y73.024 Z-3.99
G2 X-24.436 Y73.176 Z-4. R1.688
X-24.253 Y73.34 R1.688
X-23.996 Y73.538 R39.629
X-23.608 Y73.758 R1.687
G1 X-23.542 Y73.785
G2 X-23.169 Y73.889 R1.687
X-22.956 Y74.21 R1.688
G1 X-22.91 Y74.265
G2 X-22.579 Y74.567 R1.687
X-22.312 Y74.751 R39.629
X-21.912 Y74.951 R1.688
G1 X-21.844 Y74.974
G2 X-21.468 Y75.058 R1.688
X-21.239 Y75.368 R1.688
G1 X-21.19 Y75.42
G2 X-20.844 Y75.704 R1.688
X-20.568 Y75.873 R39.629
X-20.159 Y76.052 R1.687
G1 X-20.09 Y76.072
G2 X-19.708 Y76.136 R1.687
X-19.462 Y76.435 R1.688
G1 X-19.411 Y76.484
G2 X-19.051 Y76.749 R1.688
X-18.767 Y76.903 R39.629
X-18.347 Y77.061 R1.687
G1 X-18.278 Y77.077
G2 X-17.895 Y77.121 R1.688
X-17.634 Y77.405 R1.687
G1 X-17.58 Y77.452
G2 X-17.207 Y77.698 R1.687
X-16.914 Y77.838 R39.629
X-16.489 Y77.973 R1.688
G1 X-16.419 Y77.986
G2 X-16.032 Y78.009 R1.688
X-15.757 Y78.28 R1.687
G1 X-15.7 Y78.324
G2 X-15.314 Y78.55 R1.688
X-15.015 Y78.674 R39.629
X-14.584 Y78.787 R1.687
G1 X-14.513 Y78.795
G2 X-14.126 Y78.799 R1.688
X-13.836 Y79.055 R1.688
G1 X-13.777 Y79.096
G2 X-13.381 Y79.301 R1.688
X-13.075 Y79.409 R39.629
X-12.637 Y79.5 R1.687
G1 X-12.565 Y79.505
G2 X-12.181 Y79.488 R1.688
X-11.877 Y79.729 R1.687
G1 X-11.816 Y79.767
G2 X-11.41 Y79.95 R1.687
X-11.1 Y80.042 R39.629
X-10.658 Y80.11 R1.687
G1 X-10.586 Y80.111
G2 X-10.202 Y80.074 R1.687
X-9.889 Y80.297 R1.688
G1 X-9.826 Y80.332
G2 X-9.408 Y80.496 R1.687
X-9.093 Y80.571 R39.629
X-8.65 Y80.615 R1.688
G1 X-8.578 Y80.613
G2 X-8.195 Y80.555 R1.687
X-7.869 Y80.763 R1.687
G1 X-7.805 Y80.794
G2 X-7.381 Y80.935 R1.688
X-7.062 Y80.994 R39.629
X-6.615 Y81.015 R1.687
G1 X-6.544 Y81.009
G2 X-6.166 Y80.931 R1.688
X-5.83 Y81.122 R1.687
G1 X-5.764 Y81.15
G2 X-5.333 Y81.268 R1.687
X-5.012 Y81.31 R39.629
X-4.565 Y81.308 R1.687
G1 X-4.494 Y81.298
G2 X-4.12 Y81.201 R1.687
X-3.774 Y81.373 R1.687
G1 X-3.707 Y81.398
G2 X-3.271 Y81.493 R1.687
X-2.948 Y81.519 R39.629
X-2.501 Y81.493 R1.688
G1 X-2.431 Y81.479
G2 X-2.063 Y81.363 R1.687
X-1.71 Y81.517 R1.687
G1 X-1.641 Y81.538
G2 X-1.199 Y81.61 R1.687
X-0.875 Y81.619 R39.629
X-0.432 Y81.57 R1.688
G1 X-0.363 Y81.553
G2 X0. Y81.417 R1.688
X0.363 Y81.553 R1.688
G1 X0.432 Y81.57
G2 X0.875 Y81.619 R1.687
X1.199 Y81.61 R39.629
X1.641 Y81.538 R1.688
G1 X1.71 Y81.517
G2 X2.063 Y81.363 R1.687
X2.431 Y81.479 R1.687
G1 X2.501 Y81.493
G2 X2.948 Y81.519 R1.688
X3.271 Y81.493 R39.629
X3.707 Y81.398 R1.687
G1 X3.774 Y81.373
G2 X4.12 Y81.201 R1.688
X4.494 Y81.298 R1.687
G1 X4.565 Y81.308
G2 X5.012 Y81.31 R1.688
X5.333 Y81.268 R39.629
X5.764 Y81.15 R1.687
G1 X5.83 Y81.122
G2 X6.166 Y80.931 R1.688
X6.544 Y81.009 R1.687
G1 X6.615 Y81.015
G2 X7.062 Y80.994 R1.687
X7.381 Y80.935 R39.629
X7.805 Y80.794 R1.688
G1 X7.869 Y80.763
G2 X8.195 Y80.555 R1.687
X8.578 Y80.613 R1.687
G1 X8.65 Y80.615
G2 X9.093 Y80.571 R1.688
X9.408 Y80.496 R39.629
X9.826 Y80.332 R1.688
G1 X9.889 Y80.297
G2 X10.202 Y80.074 R1.687
X10.586 Y80.111 R1.688
G1 X10.658 Y80.11
G2 X11.1 Y80.042 R1.687
X11.41 Y79.95 R39.629
X11.816 Y79.767 R1.688
G1 X11.877 Y79.729
G2 X12.181 Y79.488 R1.688
X12.565 Y79.505 R1.688
G1 X12.637 Y79.5
G2 X13.075 Y79.409 R1.687
X13.381 Y79.301 R39.629
X13.777 Y79.096 R1.688
G1 X13.836 Y79.055
G2 X14.126 Y78.799 R1.688
X14.513 Y78.795 R1.688
G1 X14.584 Y78.787
G2 X15.015 Y78.674 R1.687
X15.314 Y78.55 R39.629
X15.7 Y78.324 R1.687
G1 X15.757 Y78.28
G2 X16.032 Y78.009 R1.687
X16.419 Y77.986 R1.688
G1 X16.489 Y77.973
G2 X16.914 Y77.838 R1.687
X17.207 Y77.698 R39.629
X17.58 Y77.452 R1.687
G1 X17.634 Y77.405
G2 X17.895 Y77.121 R1.687
X18.278 Y77.077 R1.688
G1 X18.347 Y77.061
G2 X18.767 Y76.903 R1.688
X19.051 Y76.749 R39.629
X19.411 Y76.484 R1.688
G1 X19.462 Y76.435
G2 X19.708 Y76.136 R1.688
X20.09 Y76.072 R1.687
G1 X20.159 Y76.052
G2 X20.568 Y75.873 R1.688
X20.844 Y75.704 R39.629
X21.19 Y75.42 R1.688
G1 X21.239 Y75.368
G2 X21.468 Y75.058 R1.688
X21.844 Y74.974 R1.688
G1 X21.912 Y74.951
G2 X22.312 Y74.751 R1.688
X22.579 Y74.567 R39.629
X22.91 Y74.265 R1.688
G1 X22.956 Y74.21
G2 X23.169 Y73.889 R1.688
X23.542 Y73.785 R1.687
G1 X23.608 Y73.758
G2 X23.996 Y73.538 R1.688
X24.253 Y73.34 R39.629
X24.566 Y73.024 R1.688
G1 X24.609 Y72.967
G2 X24.806 Y72.633 R1.688
X25.171 Y72.511 R1.688
G1 X25.236 Y72.481
G2 X25.614 Y72.239 R1.687
X25.86 Y72.028 R39.629
X26.156 Y71.695 R1.687
G1 X26.196 Y71.636
G2 X26.375 Y71.292 R1.687
X26.734 Y71.151 R1.688
G1 X26.797 Y71.117
G2 X27.161 Y70.857 R1.687
X27.396 Y70.634 R39.629
X27.675 Y70.284 R1.688
G1 X27.712 Y70.223
G2 X27.872 Y69.872 R1.687
X28.223 Y69.712 R1.687
G1 X28.284 Y69.675
G2 X28.634 Y69.396 R1.687
X28.857 Y69.161 R39.629
X29.117 Y68.797 R1.687
G1 X29.151 Y68.734
G2 X29.292 Y68.375 R1.687
X29.636 Y68.196 R1.688
G1 X29.695 Y68.156
G2 X30.028 Y67.86 R1.688
X30.239 Y67.614 R39.629
X30.481 Y67.236 R1.688
G1 X30.511 Y67.171
G2 X30.633 Y66.806 R1.687
X30.967 Y66.609 R1.688
G1 X31.024 Y66.566
G2 X31.34 Y66.253 R1.687
X31.538 Y65.996 R39.629
X31.758 Y65.608 R1.687
G1 X31.785 Y65.542
G2 X31.889 Y65.169 R1.687
X32.21 Y64.956 R1.687
G1 X32.265 Y64.91
G2 X32.567 Y64.579 R1.688
X32.751 Y64.312 R39.629
X32.951 Y63.912 R1.687
G1 X32.974 Y63.844
G2 X33.058 Y63.468 R1.687
X33.368 Y63.239 R1.687
G1 X33.42 Y63.19
G2 X33.704 Y62.844 R1.688
X33.873 Y62.568 R39.629
X34.052 Y62.159 R1.687
G1 X34.072 Y62.09
G2 X34.136 Y61.708 R1.688
X34.435 Y61.462 R1.688
G1 X34.484 Y61.411
G2 X34.749 Y61.051 R1.687
X34.903 Y60.767 R39.629
X35.061 Y60.347 R1.688
G1 X35.077 Y60.278
G2 X35.121 Y59.895 R1.687
X35.405 Y59.634 R1.687
G1 X35.452 Y59.58
G2 X35.698 Y59.207 R1.687
X35.838 Y58.914 R39.629
X35.973 Y58.489 R1.687
G1 X35.986 Y58.419
G2 X36.009 Y58.032 R1.687
X36.28 Y57.757 R1.687
G1 X36.324 Y57.7
G2 X36.55 Y57.314 R1.687
X36.674 Y57.015 R39.629
X36.787 Y56.584 R1.688
G1 X36.795 Y56.513
G2 X36.799 Y56.126 R1.687
X37.055 Y55.836 R1.687
G1 X37.096 Y55.777
G2 X37.301 Y55.381 R1.688
X37.409 Y55.075 R39.629
X37.5 Y54.637 R1.687
G1 X37.505 Y54.565
G2 X37.488 Y54.181 R1.688
X37.729 Y53.877 R1.688
G1 X37.767 Y53.816
G2 X37.95 Y53.41 R1.687
X38.042 Y53.1 R39.629
X38.11 Y52.658 R1.688
G1 X38.111 Y52.586
G2 X38.074 Y52.202 R1.688
X38.297 Y51.89 R1.687
G1 X38.332 Y51.827
G2 X38.496 Y51.408 R1.687
X38.571 Y51.093 R39.629
X38.615 Y50.65 R1.687
G1 X38.613 Y50.578
G2 X38.555 Y50.195 R1.687
X38.763 Y49.869 R1.687
G1 X38.794 Y49.805
G2 X38.935 Y49.381 R1.687
X38.994 Y49.062 R39.629
X39.015 Y48.615 R1.688
G1 X39.009 Y48.544
G2 X38.931 Y48.166 R1.687
X39.122 Y47.831 R1.687
G1 X39.15 Y47.765
G2 X39.268 Y47.333 R1.687
X39.31 Y47.012 R39.629
X39.308 Y46.565 R1.688
G1 X39.298 Y46.494
G2 X39.201 Y46.12 R1.687
X39.373 Y45.775 R1.688
G1 X39.398 Y45.707
G2 X39.493 Y45.271 R1.687
X39.519 Y44.948 R39.629
X39.493 Y44.501 R1.687
G1 X39.479 Y44.431
G2 X39.363 Y44.063 R1.688
X39.517 Y43.71 R1.687
G1 X39.538 Y43.641
G2 X39.61 Y43.199 R1.688
X39.619 Y42.875 R39.629
X39.57 Y42.432 R1.687
G1 X39.553 Y42.363
G2 X39.417 Y42. R1.687
X39.553 Y41.637 R1.687
G1 X39.57 Y41.568
G2 X39.619 Y41.125 R1.687
X39.61 Y40.801 R39.629
X39.538 Y40.359 R1.688
G1 X39.517 Y40.29
G2 X39.363 Y39.937 R1.688
X39.479 Y39.569 R1.687
G1 X39.493 Y39.499
G2 X39.519 Y39.052 R1.688
X39.493 Y38.729 R39.629
X39.398 Y38.293 R1.688
G1 X39.373 Y38.225
G2 X39.201 Y37.88 R1.687
X39.298 Y37.506 R1.688
G1 X39.308 Y37.435
G2 X39.31 Y36.988 R1.688
X39.268 Y36.667 R39.629
X39.15 Y36.235 R1.687
G1 X39.122 Y36.169
G2 X38.931 Y35.834 R1.687
X39.009 Y35.456 R1.687
G1 X39.015 Y35.385
G2 X38.994 Y34.938 R1.688
X38.935 Y34.619 R39.629
X38.794 Y34.195 R1.687
G1 X38.763 Y34.131
G2 X38.555 Y33.805 R1.688
X38.613 Y33.422 R1.687
G1 X38.615 Y33.35
G2 X38.571 Y32.907 R1.688
X38.496 Y32.592 R39.629
X38.332 Y32.173 R1.687
G1 X38.297 Y32.11
G2 X38.074 Y31.798 R1.687
X38.111 Y31.414 R1.688
G1 X38.11 Y31.342
G2 X38.042 Y30.9 R1.687
X37.95 Y30.59 R39.629
X37.767 Y30.184 R1.687
G1 X37.729 Y30.123
G2 X37.488 Y29.819 R1.688
X37.505 Y29.435 R1.687
G1 X37.5 Y29.363
G2 X37.409 Y28.925 R1.687
X37.301 Y28.619 R39.629
X37.096 Y28.223 R1.687
G1 X37.055 Y28.164
G2 X36.799 Y27.874 R1.687
X36.795 Y27.487 R1.688
G1 X36.787 Y27.416
G2 X36.674 Y26.985 R1.687
X36.55 Y26.686 R39.629
X36.324 Y26.3 R1.687
G1 X36.28 Y26.243
G2 X36.009 Y25.968 R1.687
X35.986 Y25.581 R1.687
G1 X35.973 Y25.511
G2 X35.838 Y25.086 R1.688
X35.698 Y24.793 R39.629
X35.452 Y24.42 R1.687
G1 X35.405 Y24.366
G2 X35.121 Y24.105 R1.688
X35.077 Y23.722 R1.687
G1 X35.061 Y23.653
G2 X34.903 Y23.233 R1.687
X34.749 Y22.949 R39.629
X34.484 Y22.589 R1.687
G1 X34.435 Y22.538
G2 X34.136 Y22.292 R1.688
X34.072 Y21.91 R1.687
G1 X34.052 Y21.841
G2 X33.873 Y21.432 R1.687
X33.704 Y21.156 R39.629
X33.42 Y20.81 R1.688
G1 X33.368 Y20.761
G2 X33.058 Y20.532 R1.688
X32.974 Y20.156 R1.687
G1 X32.951 Y20.088
G2 X32.751 Y19.688 R1.687
X32.567 Y19.421 R39.629
X32.265 Y19.09 R1.687
G1 X32.21 Y19.044
G2 X31.889 Y18.831 R1.688
X31.785 Y18.458 R1.687
G1 X31.758 Y18.392
G2 X31.538 Y18.004 R1.688
X31.34 Y17.747 R39.629
X31.024 Y17.434 R1.687
G1 X30.967 Y17.391
G2 X30.633 Y17.194 R1.687
X30.511 Y16.829 R1.687
G1 X30.481 Y16.764
G2 X30.239 Y16.386 R1.688
X30.028 Y16.14 R39.629
X29.695 Y15.844 R1.687
G1 X29.636 Y15.804
G2 X29.292 Y15.625 R1.688
X29.151 Y15.266 R1.688
G1 X29.117 Y15.203
G2 X28.857 Y14.839 R1.687
X28.634 Y14.604 R39.629
X28.284 Y14.325 R1.688
G1 X28.223 Y14.288
G2 X27.872 Y14.128 R1.687
X27.712 Y13.777 R1.687
G1 X27.675 Y13.716
G2 X27.396 Y13.366 R1.688
X27.161 Y13.143 R39.629
X26.797 Y12.883 R1.687
G1 X26.734 Y12.849
G2 X26.375 Y12.708 R1.688
X26.196 Y12.364 R1.687
G1 X26.156 Y12.305
G2 X25.86 Y11.972 R1.688
X25.614 Y11.761 R39.629
X25.236 Y11.519 R1.688
G1 X25.171 Y11.489
G2 X24.806 Y11.367 R1.688
X24.609 Y11.033 R1.687
G1 X24.566 Y10.976
G2 X24.253 Y10.66 R1.687
X23.996 Y10.462 R39.629
X23.608 Y10.242 R1.688
G1 X23.542 Y10.215
G2 X23.169 Y10.111 R1.688
X22.956 Y9.79 R1.687
G1 X22.91 Y9.735
G2 X22.579 Y9.433 R1.687
X22.312 Y9.249 R39.629
X21.912 Y9.049 R1.687
G1 X21.844 Y9.026
G2 X21.468 Y8.942 R1.687
X21.238 Y8.632 R1.688
G1 X21.19 Y8.579
G2 X20.844 Y8.296 R1.688
X20.568 Y8.127 R39.629
X20.158 Y7.947 R1.687
G1 X20.09 Y7.928
G2 X19.708 Y7.864 R1.687
X19.462 Y7.566 R1.688
G1 X19.411 Y7.516
G2 X19.051 Y7.251 R1.687
X18.767 Y7.097 R39.629
X18.348 Y6.939 R1.688
G1 X18.279 Y6.923
G2 X17.895 Y6.879 R1.687
X17.634 Y6.594 R1.687
G1 X17.58 Y6.548
G2 X17.207 Y6.302 R1.687
X16.914 Y6.162 R39.629
X16.489 Y6.027 R1.687
G1 X16.418 Y6.014
G2 X16.032 Y5.991 R1.688
X15.756 Y5.72 R1.688
G1 X15.7 Y5.676
G2 X15.315 Y5.45 R1.687
X15.016 Y5.326 R39.629
X14.583 Y5.213 R1.688
G1 X14.512 Y5.204
G2 X14.126 Y5.201 R1.687
X13.835 Y4.944 R1.687
G1 X13.777 Y4.903
G2 X13.381 Y4.699 R1.688
X13.075 Y4.591 R39.629
X12.638 Y4.5 R1.688
G1 X12.567 Y4.495
G2 X12.18 Y4.512 R1.687
X11.878 Y4.272 R1.687
G1 X11.817 Y4.234
G2 X11.41 Y4.05 R1.687
X11.1 Y3.958 R39.629
X10.658 Y3.89 R1.687
G1 X10.587 Y3.889
G2 X10.202 Y3.926 R1.688
X9.887 Y3.702 R1.688
G1 X9.825 Y3.667
G2 X9.408 Y3.505 R1.688
X9.094 Y3.429 R39.629
X8.649 Y3.385 R1.688
G1 X8.578 Y3.387
G2 X8.195 Y3.445 R1.688
X7.869 Y3.237 R1.687
G1 X7.805 Y3.205
G2 X7.381 Y3.065 R1.687
X7.062 Y3.006 R39.629
X6.616 Y2.985 R1.687
G1 X6.545 Y2.991
G2 X6.166 Y3.069 R1.688
X5.83 Y2.878 R1.688
G1 X5.764 Y2.85
G2 X5.333 Y2.732 R1.687
X5.012 Y2.69 R39.629
X4.565 Y2.692 R1.687
G1 X4.494 Y2.702
G2 X4.12 Y2.799 R1.687
X3.774 Y2.627 R1.688
G1 X3.707 Y2.602
G2 X3.271 Y2.507 R1.688
X2.948 Y2.481 R39.629
X2.502 Y2.507 R1.688
G1 X2.432 Y2.521
G2 X2.063 Y2.637 R1.687
X1.708 Y2.483 R1.687
G1 X1.64 Y2.462
G2 X1.199 Y2.39 R1.688
X0.875 Y2.381 R39.629
X0.431 Y2.43 R1.688
G1 X0.362 Y2.448
G2 X0. Y2.583 R1.688
X-0.362 Y2.448 R1.688
G1 X-0.431 Y2.43
G2 X-0.875 Y2.381 R1.688
X-1.199 Y2.39 R39.629
X-1.64 Y2.462 R1.688
G1 X-1.708 Y2.483
G2 X-2.063 Y2.637 R1.687
X-2.432 Y2.521 R1.687
G1 X-2.502 Y2.507
G2 X-2.948 Y2.481 R1.687
X-3.271 Y2.507 R39.629
X-3.707 Y2.602 R1.688
G1 X-3.774 Y2.627
G2 X-4.12 Y2.799 R1.687
X-4.494 Y2.702 R1.687
G1 X-4.565 Y2.692
G2 X-5.012 Y2.69 R1.687
X-5.333 Y2.732 R39.629
X-5.764 Y2.85 R1.688
G1 X-5.83 Y2.878
G2 X-6.166 Y3.069 R1.688
X-6.545 Y2.991 R1.688
G1 X-6.616 Y2.985
G2 X-7.062 Y3.006 R1.687
X-7.381 Y3.065 R39.629
X-7.805 Y3.205 R1.687
G1 X-7.869 Y3.237
G2 X-8.195 Y3.445 R1.688
X-8.578 Y3.387 R1.688
G1 X-8.649 Y3.385
G2 X-9.094 Y3.429 R1.688
X-9.408 Y3.505 R39.629
X-9.825 Y3.667 R1.688
G1 X-9.887 Y3.702
G2 X-10.202 Y3.926 R1.688
X-10.587 Y3.889 R1.688
G1 X-10.658 Y3.89
G2 X-11.1 Y3.958 R1.687
X-11.41 Y4.05 R39.629
X-11.817 Y4.234 R1.687
G1 X-11.878 Y4.272
G2 X-12.18 Y4.512 R1.688
X-12.567 Y4.495 R1.688
G1 X-12.638 Y4.5
G2 X-13.075 Y4.591 R1.688
X-13.381 Y4.699 R39.629
X-13.777 Y4.903 R1.688
G1 X-13.835 Y4.944
G2 X-14.126 Y5.201 R1.687
X-14.512 Y5.204 R1.687
G1 X-14.583 Y5.213
G2 X-15.016 Y5.326 R1.688
X-15.315 Y5.45 R39.629
X-15.7 Y5.676 R1.687
G1 X-15.756 Y5.72
G2 X-16.032 Y5.991 R1.688
X-16.418 Y6.014 R1.688
G1 X-16.489 Y6.027
G2 X-16.914 Y6.162 R1.687
X-17.207 Y6.302 R39.629
X-17.58 Y6.548 R1.687
G1 X-17.634 Y6.594
G2 X-17.895 Y6.879 R1.687
X-18.279 Y6.923 R1.687
G1 X-18.348 Y6.939
G2 X-18.767 Y7.097 R1.688
X-19.051 Y7.251 R39.629
X-19.411 Y7.516 R1.688
G1 X-19.462 Y7.566
G2 X-19.708 Y7.864 R1.688
X-20.09 Y7.928 R1.687
G1 X-20.158 Y7.947
G2 X-20.568 Y8.127 R1.687
X-20.844 Y8.296 R39.629
X-21.19 Y8.579 R1.688
G1 X-21.238 Y8.632
G2 X-21.468 Y8.942 R1.687
X-21.844 Y9.026 R1.687
G1 X-21.912 Y9.049
G2 X-22.312 Y9.249 R1.688
X-22.579 Y9.433 R39.629
X-22.91 Y9.735 R1.687
G1 X-22.956 Y9.79
G2 X-23.169 Y10.111 R1.688
X-23.542 Y10.215 R1.687
G1 X-23.608 Y10.242
G2 X-23.996 Y10.462 R1.687
X-24.253 Y10.66 R39.629
X-24.566 Y10.976 R1.687
G1 X-24.609 Y11.033
G2 X-24.806 Y11.367 R1.687
X-25.171 Y11.489 R1.688
G1 X-25.236 Y11.519
G2 X-25.614 Y11.761 R1.687
X-25.86 Y11.972 R39.629
X-26.156 Y12.305 R1.688
G1 X-26.196 Y12.364
G2 X-26.375 Y12.708 R1.688
X-26.734 Y12.849 R1.688
G1 X-26.797 Y12.883
G2 X-27.161 Y13.143 R1.687
X-27.396 Y13.366 R39.629
X-27.675 Y13.716 R1.687
G1 X-27.712 Y13.777
G2 X-27.872 Y14.128 R1.687
X-28.223 Y14.288 R1.687
G1 X-28.284 Y14.325
G2 X-28.634 Y14.604 R1.688
X-28.857 Y14.839 R39.629
X-29.117 Y15.203 R1.687
G1 X-29.151 Y15.266
G2 X-29.292 Y15.625 R1.688
X-29.636 Y15.804 R1.688
G1 X-29.695 Y15.844
G2 X-30.028 Y16.14 R1.687
X-30.239 Y16.386 R39.629
X-30.481 Y16.764 R1.688
G1 X-30.511 Y16.829
G2 X-30.633 Y17.194 R1.687
X-30.967 Y17.391 R1.687
G1 X-31.024 Y17.434
G2 X-31.34 Y17.747 R1.687
X-31.538 Y18.004 R39.629
X-31.758 Y18.392 R1.688
G1 X-31.785 Y18.458
G2 X-31.889 Y18.831 R1.687
X-32.21 Y19.044 R1.687
G1 X-32.265 Y19.09
G2 X-32.567 Y19.421 R1.688
X-32.751 Y19.688 R39.629
X-32.951 Y20.088 R1.687
G1 X-32.974 Y20.156
G2 X-33.058 Y20.532 R1.687
X-33.368 Y20.761 R1.688
G1 X-33.42 Y20.81
G2 X-33.704 Y21.156 R1.688
X-33.873 Y21.432 R39.629
X-34.052 Y21.841 R1.687
G1 X-34.072 Y21.91
G2 X-34.136 Y22.292 R1.688
X-34.435 Y22.538 R1.688
G1 X-34.484 Y22.589
G2 X-34.749 Y22.949 R1.688
X-34.903 Y23.233 R39.629
X-35.061 Y23.653 R1.688
G1 X-35.077 Y23.722
G2 X-35.121 Y24.105 R1.687
X-35.405 Y24.366 R1.687
G1 X-35.452 Y24.42
G2 X-35.698 Y24.793 R1.687
X-35.838 Y25.086 R39.629
X-35.973 Y25.511 R1.687
G1 X-35.986 Y25.581
G2 X-36.009 Y25.968 R1.687
X-36.28 Y26.243 R1.687
G1 X-36.324 Y26.3
G2 X-36.55 Y26.686 R1.687
X-36.674 Y26.985 R39.629
X-36.787 Y27.416 R1.688
G1 X-36.795 Y27.487
G2 X-36.799 Y27.874 R1.687
X-37.055 Y28.164 R1.687
G1 X-37.096 Y28.223
G2 X-37.301 Y28.619 R1.688
X-37.409 Y28.925 R39.629
X-37.5 Y29.363 R1.687
G1 X-37.505 Y29.435
G2 X-37.488 Y29.819 R1.688
X-37.729 Y30.123 R1.687
G1 X-37.767 Y30.184
G2 X-37.95 Y30.59 R1.687
X-38.042 Y30.9 R39.629
X-38.11 Y31.342 R1.688
G1 X-38.111 Y31.414
G2 X-38.074 Y31.798 R1.688
X-38.297 Y32.11 R1.687
G1 X-38.332 Y32.173
G2 X-38.496 Y32.592 R1.687
X-38.571 Y32.907 R39.629
X-38.615 Y33.35 R1.687
G1 X-38.613 Y33.422
G2 X-38.555 Y33.805 R1.687
X-38.763 Y34.131 R1.687
G1 X-38.794 Y34.195
G2 X-38.935 Y34.619 R1.687
X-38.994 Y34.938 R39.629
X-39.015 Y35.385 R1.688
G1 X-39.009 Y35.456
G2 X-38.931 Y35.834 R1.687
X-39.122 Y36.169 R1.687
G1 X-39.15 Y36.235
G2 X-39.268 Y36.667 R1.687
X-39.31 Y36.988 R39.629
X-39.308 Y37.435 R1.688
G1 X-39.298 Y37.506
G2 X-39.201 Y37.88 R1.687
X-39.373 Y38.225 R1.688
G1 X-39.398 Y38.293
G2 X-39.493 Y38.729 R1.687
X-39.519 Y39.052 R39.629
X-39.493 Y39.499 R1.687
G1 X-39.479 Y39.569
G2 X-39.363 Y39.937 R1.688
X-39.517 Y40.29 R1.687
G1 X-39.538 Y40.359
G2 X-39.61 Y40.801 R1.688
X-39.619 Y41.125 R39.629
X-39.57 Y41.568 R1.687
G1 X-39.553 Y41.637
G2 X-39.417 Y42. R1.687
X-39.553 Y42.363 R1.687
G1 X-39.57 Y42.432
G2 X-39.619 Y42.875 R1.687
X-39.61 Y43.199 R39.629
X-39.538 Y43.641 R1.688
G1 X-39.517 Y43.71
G2 X-39.363 Y44.063 R1.688
X-39.479 Y44.431 R1.687
G1 X-39.493 Y44.501
G2 X-39.519 Y44.948 R1.688
X-39.493 Y45.271 R39.629
X-39.398 Y45.707 R1.688
G1 X-39.373 Y45.775
G2 X-39.201 Y46.12 R1.687
X-39.298 Y46.494 R1.688
G1 X-39.308 Y46.565
G2 X-39.31 Y47.012 R1.688
X-39.268 Y47.333 R39.629
X-39.15 Y47.765 R1.687
G1 X-39.122 Y47.831
G2 X-38.931 Y48.166 R1.687
X-39.009 Y48.544 R1.687
G1 X-39.015 Y48.615
G2 X-38.994 Y49.062 R1.688
X-38.935 Y49.381 R39.629
X-38.794 Y49.805 R1.687
G1 X-38.763 Y49.869
G2 X-38.555 Y50.195 R1.688
X-38.613 Y50.578 R1.687
G1 X-38.615 Y50.65
G2 X-38.571 Y51.093 R1.688
X-38.496 Y51.408 R39.629
X-38.332 Y51.827 R1.687
G1 X-38.297 Y51.89
G2 X-38.074 Y52.202 R1.688
X-38.111 Y52.586 R1.688
G1 X-38.11 Y52.658
G2 X-38.042 Y53.1 R1.687
X-37.95 Y53.41 R39.629
X-37.767 Y53.816 R1.687
G1 X-37.729 Y53.877
G2 X-37.488 Y54.181 R1.688
X-37.505 Y54.565 R1.687
G1 X-37.5 Y54.637
G2 X-37.409 Y55.075 R1.687
X-37.301 Y55.381 R39.629
X-37.096 Y55.777 R1.687
G1 X-37.055 Y55.836
G2 X-36.799 Y56.126 R1.687
X-36.795 Y56.513 R1.688
G1 X-36.787 Y56.584
G2 X-36.674 Y57.015 R1.687
X-36.55 Y57.314 R39.629
X-36.324 Y57.7 R1.688
G1 X-36.28 Y57.757
G2 X-36.009 Y58.032 R1.687
X-35.986 Y58.419 R1.687
G1 X-35.973 Y58.489
G2 X-35.838 Y58.914 R1.688
X-35.698 Y59.207 R39.629
X-35.452 Y59.58 R1.687
G1 X-35.405 Y59.634
G2 X-35.121 Y59.895 R1.687
X-35.077 Y60.278 R1.687
G1 X-35.061 Y60.347
G2 X-34.903 Y60.767 R1.687
X-34.749 Y61.051 R39.629
X-34.484 Y61.411 R1.687
G1 X-34.435 Y61.462
G2 X-34.136 Y61.708 R1.688
X-34.072 Y62.09 R1.687
G1 X-34.052 Y62.159
G2 X-33.873 Y62.568 R1.687
X-33.704 Y62.844 R39.629
X-33.42 Y63.19 R1.688
G1 X-33.368 Y63.239
G2 X-33.058 Y63.468 R1.688
X-32.974 Y63.844 R1.687
G1 X-32.951 Y63.912
G2 X-32.751 Y64.312 R1.688
X-32.567 Y64.579 R39.629
X-32.265 Y64.91 R1.688
G1 X-32.21 Y64.956
G2 X-31.889 Y65.169 R1.687
X-31.785 Y65.542 R1.687
G1 X-31.758 Y65.608
G2 X-31.538 Y65.996 R1.688
X-31.34 Y66.253 R39.629
X-31.024 Y66.566 R1.688
G1 X-30.967 Y66.609
G2 X-30.633 Y66.806 R1.688
X-30.511 Y67.171 R1.687
G1 X-30.481 Y67.236
G2 X-30.239 Y67.614 R1.688
X-30.028 Y67.86 R39.629
X-29.695 Y68.156 R1.687
G1 X-29.636 Y68.196
G2 X-29.292 Y68.375 R1.687
X-29.151 Y68.734 R1.687
G1 X-29.117 Y68.797
G2 X-28.857 Y69.161 R1.687
X-28.634 Y69.396 R39.629
X-28.284 Y69.675 R1.687
G1 X-28.223 Y69.712
G2 X-27.872 Y69.872 R1.687
X-27.712 Y70.223 R1.687
G1 X-27.675 Y70.284
G2 X-27.396 Y70.634 R1.688
X-27.161 Y70.857 R39.629
X-26.797 Y71.117 R1.688
G1 X-26.734 Y71.151
G2 X-26.375 Y71.292 R1.688
X-26.196 Y71.636 R1.687
G1 X-26.156 Y71.695
G2 X-25.86 Y72.028 R1.687
X-25.614 Y72.239 R39.629
X-25.236 Y72.481 R1.687
G1 X-25.171 Y72.511
G2 X-24.806 Y72.633 R1.688
X-24.609 Y72.967 R1.688
G1 X-24.566 Y73.024
G2 X-24.436 Y73.176 R1.688
X-24.253 Y73.34 Z-4.012 R1.688
X-23.996 Y73.538 Z-4.028 R39.629
X-23.608 Y73.758 Z-4.05 R1.687
G1 X-23.542 Y73.785 Z-4.054
G2 X-23.169 Y73.889 Z-4.073 R1.687
X-22.956 Y74.21 Z-4.092 R1.688
G1 X-22.91 Y74.265 Z-4.096
G2 X-22.579 Y74.567 Z-4.118 R1.687
X-22.312 Y74.751 Z-4.134 R39.629
X-21.912 Y74.951 Z-4.156 R1.688
G1 X-21.844 Y74.974 Z-4.16
G2 X-21.468 Y75.058 Z-4.179 R1.688
X-21.239 Y75.368 Z-4.198 R1.688
G1 X-21.19 Y75.42 Z-4.202
G2 X-20.844 Y75.704 Z-4.224 R1.688
X-20.568 Y75.873 Z-4.24 R39.629
X-20.159 Y76.052 Z-4.262 R1.687
G1 X-20.09 Y76.072 Z-4.266
G2 X-19.708 Y76.136 Z-4.285 R1.687
X-19.462 Y76.435 Z-4.304 R1.688
G1 X-19.411 Y76.484 Z-4.308
G2 X-19.051 Y76.749 Z-4.33 R1.688
X-18.767 Y76.903 Z-4.346 R39.629
X-18.347 Y77.061 Z-4.368 R1.687
G1 X-18.278 Y77.077 Z-4.372
G2 X-17.895 Y77.121 Z-4.391 R1.688
X-17.634 Y77.405 Z-4.41 R1.687
G1 X-17.58 Y77.452 Z-4.413
G2 X-17.207 Y77.698 Z-4.436 R1.687
X-16.914 Y77.838 Z-4.452 R39.629
X-16.489 Y77.973 Z-4.474 R1.688
G1 X-16.419 Y77.986 Z-4.477
G2 X-16.032 Y78.009 Z-4.496 R1.688
X-15.757 Y78.28 Z-4.516 R1.687
G1 X-15.7 Y78.324 Z-4.519
G2 X-15.314 Y78.55 Z-4.541 R1.688
X-15.015 Y78.674 Z-4.557 R39.629
X-14.584 Y78.787 Z-4.58 R1.687
G1 X-14.513 Y78.795 Z-4.583
G2 X-14.126 Y78.799 Z-4.602 R1.688
X-13.836 Y79.055 Z-4.621 R1.688
G1 X-13.777 Y79.096 Z-4.625
G2 X-13.381 Y79.301 Z-4.647 R1.688
X-13.075 Y79.409 Z-4.663 R39.629
X-12.637 Y79.5 Z-4.685 R1.687
G1 X-12.565 Y79.505 Z-4.689
G2 X-12.181 Y79.488 Z-4.708 R1.688
X-11.877 Y79.729 Z-4.727 R1.687
G1 X-11.816 Y79.767 Z-4.731
G2 X-11.41 Y79.95 Z-4.753 R1.687
X-11.1 Y80.042 Z-4.769 R39.629
X-10.658 Y80.11 Z-4.791 R1.687
G1 X-10.586 Y80.111 Z-4.795
G2 X-10.202 Y80.074 Z-4.814 R1.687
X-9.889 Y80.297 Z-4.833 R1.688
G1 X-9.826 Y80.332 Z-4.837
G2 X-9.408 Y80.496 Z-4.859 R1.687
X-9.093 Y80.571 Z-4.875 R39.629
X-8.65 Y80.615 Z-4.897 R1.688
G1 X-8.578 Y80.613 Z-4.901
G2 X-8.195 Y80.555 Z-4.92 R1.687
X-7.869 Y80.763 Z-4.939 R1.687
G1 X-7.805 Y80.794 Z-4.943
G2 X-7.381 Y80.935 Z-4.965 R1.688
X-7.062 Y80.994 Z-4.981 R39.629
X-6.615 Y81.015 Z-5.003 R1.687
G1 X-6.544 Y81.009 Z-5.006
G2 X-6.166 Y80.931 Z-5.026 R1.688
X-5.83 Y81.122 Z-5.045 R1.687
G1 X-5.764 Y81.15 Z-5.048
G2 X-5.333 Y81.268 Z-5.071 R1.687
X-5.012 Y81.31 Z-5.087 R39.629
X-4.565 Y81.308 Z-5.109 R1.687
G1 X-4.494 Y81.298 Z-5.112
G2 X-4.12 Y81.201 Z-5.131 R1.687
X-3.774 Y81.373 Z-5.151 R1.687
G1 X-3.707 Y81.398 Z-5.154
G2 X-3.271 Y81.493 Z-5.176 R1.687
X-2.948 Y81.519 Z-5.192 R39.629
X-2.501 Y81.493 Z-5.215 R1.688
G1 X-2.431 Y81.479 Z-5.218
G2 X-2.063 Y81.363 Z-5.237 R1.687
X-1.832 Y81.474 Z-5.25 R1.688
X-1.71 Y81.517 R1.687
G1 X-1.641 Y81.538
G2 X-1.199 Y81.61 R1.687
X-0.875 Y81.619 R39.629
X-0.432 Y81.57 R1.688
G1 X-0.363 Y81.553
G2 X0. Y81.417 R1.688
X0.363 Y81.553 R1.688
G1 X0.432 Y81.57
G2 X0.875 Y81.619 R1.687
X1.199 Y81.61 R39.629
X1.641 Y81.538 R1.688
G1 X1.71 Y81.517
G2 X2.063 Y81.363 R1.687
X2.431 Y81.479 R1.687
G1 X2.501 Y81.493
G2 X2.948 Y81.519 R1.688
X3.271 Y81.493 R39.629
X3.707 Y81.398 R1.687
G1 X3.774 Y81.373
G2 X4.12 Y81.201 R1.688
X4.494 Y81.298 R1.687
G1 X4.565 Y81.308
G2 X5.012 Y81.31 R1.688
X5.333 Y81.268 R39.629
X5.764 Y81.15 R1.687
G1 X5.83 Y81.122
G2 X6.166 Y80.931 R1.688
X6.544 Y81.009 R1.687
G1 X6.615 Y81.015
G2 X7.062 Y80.994 R1.687
X7.381 Y80.935 R39.629
X7.805 Y80.794 R1.688
G1 X7.869 Y80.763
G2 X8.195 Y80.555 R1.687
X8.578 Y80.613 R1.687
G1 X8.65 Y80.615
G2 X9.093 Y80.571 R1.688
X9.408 Y80.496 R39.629
X9.826 Y80.332 R1.688
G1 X9.889 Y80.297
G2 X10.202 Y80.074 R1.687
X10.586 Y80.111 R1.688
G1 X10.658 Y80.11
G2 X11.1 Y80.042 R1.687
X11.41 Y79.95 R39.629
X11.816 Y79.767 R1.688
G1 X11.877 Y79.729
G2 X12.181 Y79.488 R1.688
X12.565 Y79.505 R1.688
G1 X12.637 Y79.5
G2 X13.075 Y79.409 R1.687
X13.381 Y79.301 R39.629
X13.777 Y79.096 R1.688
G1 X13.836 Y79.055
G2 X14.126 Y78.799 R1.688
X14.513 Y78.795 R1.688
G1 X14.584 Y78.787
G2 X15.015 Y78.674 R1.687
X15.314 Y78.55 R39.629
X15.7 Y78.324 R1.687
G1 X15.757 Y78.28
G2 X16.032 Y78.009 R1.687
X16.419 Y77.986 R1.688
G1 X16.489 Y77.973
G2 X16.914 Y77.838 R1.687
X17.207 Y77.698 R39.629
X17.58 Y77.452 R1.687
G1 X17.634 Y77.405
G2 X17.895 Y77.121 R1.687
X18.278 Y77.077 R1.688
G1 X18.347 Y77.061
G2 X18.767 Y76.903 R1.688
X19.051 Y76.749 R39.629
X19.411 Y76.484 R1.688
G1 X19.462 Y76.435
G2 X19.708 Y76.136 R1.688
X20.09 Y76.072 R1.687
G1 X20.159 Y76.052
G2 X20.568 Y75.873 R1.688
X20.844 Y75.704 R39.629
X21.19 Y75.42 R1.688
G1 X21.239 Y75.368
G2 X21.468 Y75.058 R1.688
X21.844 Y74.974 R1.688
G1 X21.912 Y74.951
G2 X22.312 Y74.751 R1.688
X22.579 Y74.567 R39.629
X22.91 Y74.265 R1.688
G1 X22.956 Y74.21
G2 X23.169 Y73.889 R1.688
X23.542 Y73.785 R1.687
G1 X23.608 Y73.758
G2 X23.996 Y73.538 R1.688
X24.253 Y73.34 R39.629
X24.566 Y73.024 R1.688
G1 X24.609 Y72.967
G2 X24.806 Y72.633 R1.688
X25.171 Y72.511 R1.688
G1 X25.236 Y72.481
G2 X25.614 Y72.239 R1.687
X25.86 Y72.028 R39.629
X26.156 Y71.695 R1.687
G1 X26.196 Y71.636
G2 X26.375 Y71.292 R1.687
X26.734 Y71.151 R1.688
G1 X26.797 Y71.117
G2 X27.161 Y70.857 R1.687
X27.396 Y70.634 R39.629
X27.675 Y70.284 R1.688
G1 X27.712 Y70.223
G2 X27.872 Y69.872 R1.687
X28.223 Y69.712 R1.687
G1 X28.284 Y69.675
G2 X28.634 Y69.396 R1.687
X28.857 Y69.161 R39.629
X29.117 Y68.797 R1.687
G1 X29.151 Y68.734
G2 X29.292 Y68.375 R1.687
X29.636 Y68.196 R1.688
G1 X29.695 Y68.156
G2 X30.028 Y67.86 R1.688
X30.239 Y67.614 R39.629
X30.481 Y67.236 R1.688
G1 X30.511 Y67.171
G2 X30.633 Y66.806 R1.687
X30.967 Y66.609 R1.688
G1 X31.024 Y66.566
G2 X31.34 Y66.253 R1.687
X31.538 Y65.996 R39.629
X31.758 Y65.608 R1.687
G1 X31.785 Y65.542
G2 X31.889 Y65.169 R1.687
X32.21 Y64.956 R1.687
G1 X32.265 Y64.91
G2 X32.567 Y64.579 R1.688
X32.751 Y64.312 R39.629
X32.951 Y63.912 R1.687
G1 X32.974 Y63.844
G2 X33.058 Y63.468 R1.687
X33.368 Y63.239 R1.687
G1 X33.42 Y63.19
G2 X33.704 Y62.844 R1.688
X33.873 Y62.568 R39.629
X34.052 Y62.159 R1.687
G1 X34.072 Y62.09
G2 X34.136 Y61.708 R1.688
X34.435 Y61.462 R1.688
G1 X34.484 Y61.411
G2 X34.749 Y61.051 R1.687
X34.903 Y60.767 R39.629
X35.061 Y60.347 R1.688
G1 X35.077 Y60.278
G2 X35.121 Y59.895 R1.687
X35.405 Y59.634 R1.687
G1 X35.452 Y59.58
G2 X35.698 Y59.207 R1.687
X35.838 Y58.914 R39.629
X35.973 Y58.489 R1.687
G1 X35.986 Y58.419
G2 X36.009 Y58.032 R1.687
X36.28 Y57.757 R1.687
G1 X36.324 Y57.7
G2 X36.55 Y57.314 R1.687
X36.674 Y57.015 R39.629
X36.787 Y56.584 R1.688
G1 X36.795 Y56.513
G2 X36.799 Y56.126 R1.687
X37.055 Y55.836 R1.687
G1 X37.096 Y55.777
G2 X37.301 Y55.381 R1.688
X37.409 Y55.075 R39.629
X37.5 Y54.637 R1.687
G1 X37.505 Y54.565
G2 X37.488 Y54.181 R1.688
X37.729 Y53.877 R1.688
G1 X37.767 Y53.816
G2 X37.95 Y53.41 R1.687
X38.042 Y53.1 R39.629
X38.11 Y52.658 R1.688
G1 X38.111 Y52.586
G2 X38.074 Y52.202 R1.688
X38.297 Y51.89 R1.687
G1 X38.332 Y51.827
G2 X38.496 Y51.408 R1.687
X38.571 Y51.093 R39.629
X38.615 Y50.65 R1.687
G1 X38.613 Y50.578
G2 X38.555 Y50.195 R1.687
X38.763 Y49.869 R1.687
G1 X38.794 Y49.805
G2 X38.935 Y49.381 R1.687
X38.994 Y49.062 R39.629
X39.015 Y48.615 R1.688
G1 X39.009 Y48.544
G2 X38.931 Y48.166 R1.687
X39.122 Y47.831 R1.687
G1 X39.15 Y47.765
G2 X39.268 Y47.333 R1.687
X39.31 Y47.012 R39.629
X39.308 Y46.565 R1.688
G1 X39.298 Y46.494
G2 X39.201 Y46.12 R1.687
X39.373 Y45.775 R1.688
G1 X39.398 Y45.707
G2 X39.493 Y45.271 R1.687
X39.519 Y44.948 R39.629
X39.493 Y44.501 R1.687
G1 X39.479 Y44.431
G2 X39.363 Y44.063 R1.688
X39.517 Y43.71 R1.687
G1 X39.538 Y43.641
G2 X39.61 Y43.199 R1.688
X39.619 Y42.875 R39.629
X39.57 Y42.432 R1.687
G1 X39.553 Y42.363
G2 X39.417 Y42. R1.687
X39.553 Y41.637 R1.687
G1 X39.57 Y41.568
G2 X39.619 Y41.125 R1.687
X39.61 Y40.801 R39.629
X39.538 Y40.359 R1.688
G1 X39.517 Y40.29
G2 X39.363 Y39.937 R1.688
X39.479 Y39.569 R1.687
G1 X39.493 Y39.499
G2 X39.519 Y39.052 R1.688
X39.493 Y38.729 R39.629
X39.398 Y38.293 R1.688
G1 X39.373 Y38.225
G2 X39.201 Y37.88 R1.687
X39.298 Y37.506 R1.688
G1 X39.308 Y37.435
G2 X39.31 Y36.988 R1.688
X39.268 Y36.667 R39.629
X39.15 Y36.235 R1.687
G1 X39.122 Y36.169
G2 X38.931 Y35.834 R1.687
X39.009 Y35.456 R1.687
G1 X39.015 Y35.385
G2 X38.994 Y34.938 R1.688
X38.935 Y34.619 R39.629
X38.794 Y34.195 R1.687
G1 X38.763 Y34.131
G2 X38.555 Y33.805 R1.688
X38.613 Y33.422 R1.687
G1 X38.615 Y33.35
G2 X38.571 Y32.907 R1.688
X38.496 Y32.592 R39.629
X38.332 Y32.173 R1.687
G1 X38.297 Y32.11
G2 X38.074 Y31.798 R1.687
X38.111 Y31.414 R1.688
G1 X38.11 Y31.342
G2 X38.042 Y30.9 R1.687
X37.95 Y30.59 R39.629
X37.767 Y30.184 R1.687
G1 X37.729 Y30.123
G2 X37.488 Y29.819 R1.688
X37.505 Y29.435 R1.687
G1 X37.5 Y29.363
G2 X37.409 Y28.925 R1.687
X37.301 Y28.619 R39.629
X37.096 Y28.223 R1.687
G1 X37.055 Y28.164
G2 X36.799 Y27.874 R1.687
X36.795 Y27.487 R1.688
G1 X36.787 Y27.416
G2 X36.674 Y26.985 R1.687
X36.55 Y26.686 R39.629
X36.324 Y26.3 R1.687
G1 X36.28 Y26.243
G2 X36.009 Y25.968 R1.687
X35.986 Y25.581 R1.687
G1 X35.973 Y25.511
G2 X35.838 Y25.086 R1.688
X35.698 Y24.793 R39.629
X35.452 Y24.42 R1.687
G1 X35.405 Y24.366
G2 X35.121 Y24.105 R1.688
X35.077 Y23.722 R1.687
G1 X35.061 Y23.653
G2 X34.903 Y23.233 R1.687
X34.749 Y22.949 R39.629
X34.484 Y22.589 R1.687
G1 X34.435 Y22.538
G2 X34.136 Y22.292 R1.688
X34.072 Y21.91 R1.687
G1 X34.052 Y21.841
G2 X33.873 Y21.432 R1.687
X33.704 Y21.156 R39.629
X33.42 Y20.81 R1.688
G1 X33.368 Y20.761
G2 X33.058 Y20.532 R1.688
X32.974 Y20.156 R1.687
G1 X32.951 Y20.088
G2 X32.751 Y19.688 R1.687
X32.567 Y19.421 R39.629
X32.265 Y19.09 R1.687
G1 X32.21 Y19.044
G2 X31.889 Y18.831 R1.688
X31.785 Y18.458 R1.687
G1 X31.758 Y18.392
G2 X31.538 Y18.004 R1.688
X31.34 Y17.747 R39.629
X31.024 Y17.434 R1.687
G1 X30.967 Y17.391
G2 X30.633 Y17.194 R1.687
X30.511 Y16.829 R1.687
G1 X30.481 Y16.764
G2 X30.239 Y16.386 R1.688
X30.028 Y16.14 R39.629
X29.695 Y15.844 R1.687
G1 X29.636 Y15.804
G2 X29.292 Y15.625 R1.688
X29.151 Y15.266 R1.688
G1 X29.117 Y15.203
G2 X28.857 Y14.839 R1.687
X28.634 Y14.604 R39.629
X28.284 Y14.325 R1.688
G1 X28.223 Y14.288
G2 X27.872 Y14.128 R1.687
X27.712 Y13.777 R1.687
G1 X27.675 Y13.716
G2 X27.396 Y13.366 R1.688
X27.161 Y13.143 R39.629
X26.797 Y12.883 R1.687
G1 X26.734 Y12.849
G2 X26.375 Y12.708 R1.688
X26.196 Y12.364 R1.687
G1 X26.156 Y12.305
G2 X25.86 Y11.972 R1.688
X25.614 Y11.761 R39.629
X25.236 Y11.519 R1.688
G1 X25.171 Y11.489
G2 X24.806 Y11.367 R1.688
X24.609 Y11.033 R1.687
G1 X24.566 Y10.976
G2 X24.253 Y10.66 R1.687
X23.996 Y10.462 R39.629
X23.608 Y10.242 R1.688
G1 X23.542 Y10.215
G2 X23.169 Y10.111 R1.688
X22.956 Y9.79 R1.687
G1 X22.91 Y9.735
G2 X22.579 Y9.433 R1.687
X22.312 Y9.249 R39.629
X21.912 Y9.049 R1.687
G1 X21.844 Y9.026
G2 X21.468 Y8.942 R1.687
X21.238 Y8.632 R1.688
G1 X21.19 Y8.579
G2 X20.844 Y8.296 R1.688
X20.568 Y8.127 R39.629
X20.158 Y7.947 R1.687
G1 X20.09 Y7.928
G2 X19.708 Y7.864 R1.687
X19.462 Y7.566 R1.688
G1 X19.411 Y7.516
G2 X19.051 Y7.251 R1.687
X18.767 Y7.097 R39.629
X18.348 Y6.939 R1.688
G1 X18.279 Y6.923
G2 X17.895 Y6.879 R1.687
X17.634 Y6.594 R1.687
G1 X17.58 Y6.548
G2 X17.207 Y6.302 R1.687
X16.914 Y6.162 R39.629
X16.489 Y6.027 R1.687
G1 X16.418 Y6.014
G2 X16.032 Y5.991 R1.688
X15.756 Y5.72 R1.688
G1 X15.7 Y5.676
G2 X15.315 Y5.45 R1.687
X15.016 Y5.326 R39.629
X14.583 Y5.213 R1.688
G1 X14.512 Y5.204
G2 X14.126 Y5.201 R1.687
X13.835 Y4.944 R1.687
G1 X13.777 Y4.903
G2 X13.381 Y4.699 R1.688
X13.075 Y4.591 R39.629
X12.638 Y4.5 R1.688
G1 X12.567 Y4.495
G2 X12.18 Y4.512 R1.687
X11.878 Y4.272 R1.687
G1 X11.817 Y4.234
G2 X11.41 Y4.05 R1.687
X11.1 Y3.958 R39.629
X10.658 Y3.89 R1.687
G1 X10.587 Y3.889
G2 X10.202 Y3.926 R1.688
X9.887 Y3.702 R1.688
G1 X9.825 Y3.667
G2 X9.408 Y3.505 R1.688
X9.094 Y3.429 R39.629
X8.649 Y3.385 R1.688
G1 X8.578 Y3.387
G2 X8.195 Y3.445 R1.688
X7.869 Y3.237 R1.687
G1 X7.805 Y3.205
G2 X7.381 Y3.065 R1.687
X7.062 Y3.006 R39.629
X6.616 Y2.985 R1.687
G1 X6.545 Y2.991
G2 X6.166 Y3.069 R1.688
X5.83 Y2.878 R1.688
G1 X5.764 Y2.85
G2 X5.333 Y2.732 R1.687
X5.012 Y2.69 R39.629
X4.565 Y2.692 R1.687
G1 X4.494 Y2.702
G2 X4.12 Y2.799 R1.687
X3.774 Y2.627 R1.688
G1 X3.707 Y2.602
G2 X3.271 Y2.507 R1.688
X2.948 Y2.481 R39.629
X2.502 Y2.507 R1.688
G1 X2.432 Y2.521
G2 X2.063 Y2.637 R1.687
X1.708 Y2.483 R1.687
G1 X1.64 Y2.462
G2 X1.199 Y2.39 R1.688
X0.875 Y2.381 R39.629
X0.431 Y2.43 R1.688
G1 X0.362 Y2.448
G2 X0. Y2.583 R1.688
X-0.362 Y2.448 R1.688
G1 X-0.431 Y2.43
G2 X-0.875 Y2.381 R1.688
X-1.199 Y2.39 R39.629
X-1.64 Y2.462 R1.688
G1 X-1.708 Y2.483
G2 X-2.063 Y2.637 R1.687
X-2.432 Y2.521 R1.687
G1 X-2.502 Y2.507
G2 X-2.948 Y2.481 R1.687
X-3.271 Y2.507 R39.629
X-3.707 Y2.602 R1.688
G1 X-3.774 Y2.627
G2 X-4.12 Y2.799 R1.687
X-4.494 Y2.702 R1.687
G1 X-4.565 Y2.692
G2 X-5.012 Y2.69 R1.687
X-5.333 Y2.732 R39.629
X-5.764 Y2.85 R1.688
G1 X-5.83 Y2.878
G2 X-6.166 Y3.069 R1.688
X-6.545 Y2.991 R1.688
G1 X-6.616 Y2.985
G2 X-7.062 Y3.006 R1.687
X-7.381 Y3.065 R39.629
X-7.805 Y3.205 R1.687
G1 X-7.869 Y3.237
G2 X-8.195 Y3.445 R1.688
X-8.578 Y3.387 R1.688
G1 X-8.649 Y3.385
G2 X-9.094 Y3.429 R1.688
X-9.408 Y3.505 R39.629
X-9.825 Y3.667 R1.688
G1 X-9.887 Y3.702
G2 X-10.202 Y3.926 R1.688
X-10.587 Y3.889 R1.688
G1 X-10.658 Y3.89
G2 X-11.1 Y3.958 R1.687
X-11.41 Y4.05 R39.629
X-11.817 Y4.234 R1.687
G1 X-11.878 Y4.272
G2 X-12.18 Y4.512 R1.688
X-12.567 Y4.495 R1.688
G1 X-12.638 Y4.5
G2 X-13.075 Y4.591 R1.688
X-13.381 Y4.699 R39.629
X-13.777 Y4.903 R1.688
G1 X-13.835 Y4.944
G2 X-14.126 Y5.201 R1.687
X-14.512 Y5.204 R1.687
G1 X-14.583 Y5.213
G2 X-15.016 Y5.326 R1.688
X-15.315 Y5.45 R39.629
X-15.7 Y5.676 R1.687
G1 X-15.756 Y5.72
G2 X-16.032 Y5.991 R1.688
X-16.418 Y6.014 R1.688
G1 X-16.489 Y6.027
G2 X-16.914 Y6.162 R1.687
X-17.207 Y6.302 R39.629
X-17.58 Y6.548 R1.687
G1 X-17.634 Y6.594
G2 X-17.895 Y6.879 R1.687
X-18.279 Y6.923 R1.687
G1 X-18.348 Y6.939
G2 X-18.767 Y7.097 R1.688
X-19.051 Y7.251 R39.629
X-19.411 Y7.516 R1.688
G1 X-19.462 Y7.566
G2 X-19.708 Y7.864 R1.688
X-20.09 Y7.928 R1.687
G1 X-20.158 Y7.947
G2 X-20.568 Y8.127 R1.687
X-20.844 Y8.296 R39.629
X-21.19 Y8.579 R1.688
G1 X-21.238 Y8.632
G2 X-21.468 Y8.942 R1.687
X-21.844 Y9.026 R1.687
G1 X-21.912 Y9.049
G2 X-22.312 Y9.249 R1.688
X-22.579 Y9.433 R39.629
X-22.91 Y9.735 R1.687
G1 X-22.956 Y9.79
G2 X-23.169 Y10.111 R1.688
X-23.542 Y10.215 R1.687
G1 X-23.608 Y10.242
G2 X-23.996 Y10.462 R1.687
X-24.253 Y10.66 R39.629
X-24.566 Y10.976 R1.687
G1 X-24.609 Y11.033
G2 X-24.806 Y11.367 R1.687
X-25.171 Y11.489 R1.688
G1 X-25.236 Y11.519
G2 X-25.614 Y11.761 R1.687
X-25.86 Y11.972 R39.629
X-26.156 Y12.305 R1.688
G1 X-26.196 Y12.364
G2 X-26.375 Y12.708 R1.688
X-26.734 Y12.849 R1.688
G1 X-26.797 Y12.883
G2 X-27.161 Y13.143 R1.687
X-27.396 Y13.366 R39.629
X-27.675 Y13.716 R1.687
G1 X-27.712 Y13.777
G2 X-27.872 Y14.128 R1.687
X-28.223 Y14.288 R1.687
G1 X-28.284 Y14.325
G2 X-28.634 Y14.604 R1.688
X-28.857 Y14.839 R39.629
X-29.117 Y15.203 R1.687
G1 X-29.151 Y15.266
G2 X-29.292 Y15.625 R1.688
X-29.636 Y15.804 R1.688
G1 X-29.695 Y15.844
G2 X-30.028 Y16.14 R1.687
X-30.239 Y16.386 R39.629
X-30.481 Y16.764 R1.688
G1 X-30.511 Y16.829
G2 X-30.633 Y17.194 R1.687
X-30.967 Y17.391 R1.687
G1 X-31.024 Y17.434
G2 X-31.34 Y17.747 R1.687
X-31.538 Y18.004 R39.629
X-31.758 Y18.392 R1.688
G1 X-31.785 Y18.458
G2 X-31.889 Y18.831 R1.687
X-32.21 Y19.044 R1.687
G1 X-32.265 Y19.09
G2 X-32.567 Y19.421 R1.688
X-32.751 Y19.688 R39.629
X-32.951 Y20.088 R1.687
G1 X-32.974 Y20.156
G2 X-33.058 Y20.532 R1.687
X-33.368 Y20.761 R1.688
G1 X-33.42 Y20.81
G2 X-33.704 Y21.156 R1.688
X-33.873 Y21.432 R39.629
X-34.052 Y21.841 R1.687
G1 X-34.072 Y21.91
G2 X-34.136 Y22.292 R1.688
X-34.435 Y22.538 R1.688
G1 X-34.484 Y22.589
G2 X-34.749 Y22.949 R1.688
X-34.903 Y23.233 R39.629
X-35.061 Y23.653 R1.688
G1 X-35.077 Y23.722
G2 X-35.121 Y24.105 R1.687
X-35.405 Y24.366 R1.687
G1 X-35.452 Y24.42
G2 X-35.698 Y24.793 R1.687
X-35.838 Y25.086 R39.629
X-35.973 Y25.511 R1.687
G1 X-35.986 Y25.581
G2 X-36.009 Y25.968 R1.687
X-36.28 Y26.243 R1.687
G1 X-36.324 Y26.3
G2 X-36.55 Y26.686 R1.687
X-36.674 Y26.985 R39.629
X-36.787 Y27.416 R1.688
G1 X-36.795 Y27.487
G2 X-36.799 Y27.874 R1.687
X-37.055 Y28.164 R1.687
G1 X-37.096 Y28.223
G2 X-37.301 Y28.619 R1.688
X-37.409 Y28.925 R39.629
X-37.5 Y29.363 R1.687
G1 X-37.505 Y29.435
G2 X-37.488 Y29.819 R1.688
X-37.729 Y30.123 R1.687
G1 X-37.767 Y30.184
G2 X-37.95 Y30.59 R1.687
X-38.042 Y30.9 R39.629
X-38.11 Y31.342 R1.688
G1 X-38.111 Y31.414
G2 X-38.074 Y31.798 R1.688
X-38.297 Y32.11 R1.687
G1 X-38.332 Y32.173
G2 X-38.496 Y32.592 R1.687
X-38.571 Y32.907 R39.629
X-38.615 Y33.35 R1.687
G1 X-38.613 Y33.422
G2 X-38.555 Y33.805 R1.687
X-38.763 Y34.131 R1.687
G1 X-38.794 Y34.195
G2 X-38.935 Y34.619 R1.687
X-38.994 Y34.938 R39.629
X-39.015 Y35.385 R1.688
G1 X-39.009 Y35.456
G2 X-38.931 Y35.834 R1.687
X-39.122 Y36.169 R1.687
G1 X-39.15 Y36.235
G2 X-39.268 Y36.667 R1.687
X-39.31 Y36.988 R39.629
X-39.308 Y37.435 R1.688
G1 X-39.298 Y37.506
G2 X-39.201 Y37.88 R1.687
X-39.373 Y38.225 R1.688
G1 X-39.398 Y38.293
G2 X-39.493 Y38.729 R1.687
X-39.519 Y39.052 R39.629
X-39.493 Y39.499 R1.687
G1 X-39.479 Y39.569
G2 X-39.363 Y39.937 R1.688
X-39.517 Y40.29 R1.687
G1 X-39.538 Y40.359
G2 X-39.61 Y40.801 R1.688
X-39.619 Y41.125 R39.629
X-39.57 Y41.568 R1.687
G1 X-39.553 Y41.637
G2 X-39.417 Y42. R1.687
X-39.553 Y42.363 R1.687
G1 X-39.57 Y42.432
G2 X-39.619 Y42.875 R1.687
X-39.61 Y43.199 R39.629
X-39.538 Y43.641 R1.688
G1 X-39.517 Y43.71
G2 X-39.363 Y44.063 R1.688
X-39.479 Y44.431 R1.687
G1 X-39.493 Y44.501
G2 X-39.519 Y44.948 R1.688
X-39.493 Y45.271 R39.629
X-39.398 Y45.707 R1.688
G1 X-39.373 Y45.775
G2 X-39.201 Y46.12 R1.687
X-39.298 Y46.494 R1.688
G1 X-39.308 Y46.565
G2 X-39.31 Y47.012 R1.688
X-39.268 Y47.333 R39.629
X-39.15 Y47.765 R1.687
G1 X-39.122 Y47.831
G2 X-38.931 Y48.166 R1.687
X-39.009 Y48.544 R1.687
G1 X-39.015 Y48.615
G2 X-38.994 Y49.062 R1.688
X-38.935 Y49.381 R39.629
X-38.794 Y49.805 R1.687
G1 X-38.763 Y49.869
G2 X-38.555 Y50.195 R1.688
X-38.613 Y50.578 R1.687
G1 X-38.615 Y50.65
G2 X-38.571 Y51.093 R1.688
X-38.496 Y51.408 R39.629
X-38.332 Y51.827 R1.687
G1 X-38.297 Y51.89
G2 X-38.074 Y52.202 R1.688
X-38.111 Y52.586 R1.688
G1 X-38.11 Y52.658
G2 X-38.042 Y53.1 R1.687
X-37.95 Y53.41 R39.629
X-37.767 Y53.816 R1.687
G1 X-37.729 Y53.877
G2 X-37.488 Y54.181 R1.688
X-37.505 Y54.565 R1.687
G1 X-37.5 Y54.637
G2 X-37.409 Y55.075 R1.687
X-37.301 Y55.381 R39.629
X-37.096 Y55.777 R1.687
G1 X-37.055 Y55.836
G2 X-36.799 Y56.126 R1.687
X-36.795 Y56.513 R1.688
G1 X-36.787 Y56.584
G2 X-36.674 Y57.015 R1.687
X-36.55 Y57.314 R39.629
X-36.324 Y57.7 R1.688
G1 X-36.28 Y57.757
G2 X-36.009 Y58.032 R1.687
X-35.986 Y58.419 R1.687
G1 X-35.973 Y58.489
G2 X-35.838 Y58.914 R1.688
X-35.698 Y59.207 R39.629
X-35.452 Y59.58 R1.687
G1 X-35.405 Y59.634
G2 X-35.121 Y59.895 R1.687
X-35.077 Y60.278 R1.687
G1 X-35.061 Y60.347
G2 X-34.903 Y60.767 R1.687
X-34.749 Y61.051 R39.629
X-34.484 Y61.411 R1.687
G1 X-34.435 Y61.462
G2 X-34.136 Y61.708 R1.688
X-34.072 Y62.09 R1.687
G1 X-34.052 Y62.159
G2 X-33.873 Y62.568 R1.687
X-33.704 Y62.844 R39.629
X-33.42 Y63.19 R1.688
G1 X-33.368 Y63.239
G2 X-33.058 Y63.468 R1.688
X-32.974 Y63.844 R1.687
G1 X-32.951 Y63.912
G2 X-32.751 Y64.312 R1.688
X-32.567 Y64.579 R39.629
X-32.265 Y64.91 R1.688
G1 X-32.21 Y64.956
G2 X-31.889 Y65.169 R1.687
X-31.785 Y65.542 R1.687
G1 X-31.758 Y65.608
G2 X-31.538 Y65.996 R1.688
X-31.34 Y66.253 R39.629
X-31.024 Y66.566 R1.688
G1 X-30.967 Y66.609
G2 X-30.633 Y66.806 R1.688
X-30.511 Y67.171 R1.687
G1 X-30.481 Y67.236
G2 X-30.239 Y67.614 R1.688
X-30.028 Y67.86 R39.629
X-29.695 Y68.156 R1.687
G1 X-29.636 Y68.196
G2 X-29.292 Y68.375 R1.687
X-29.151 Y68.734 R1.687
G1 X-29.117 Y68.797
G2 X-28.857 Y69.161 R1.687
X-28.634 Y69.396 R39.629
X-28.284 Y69.675 R1.687
G1 X-28.223 Y69.712
G2 X-27.872 Y69.872 R1.687
X-27.712 Y70.223 R1.687
G1 X-27.675 Y70.284
G2 X-27.396 Y70.634 R1.688
X-27.161 Y70.857 R39.629
X-26.797 Y71.117 R1.688
G1 X-26.734 Y71.151
G2 X-26.375 Y71.292 R1.688
X-26.196 Y71.636 R1.687
G1 X-26.156 Y71.695
G2 X-25.86 Y72.028 R1.687
X-25.614 Y72.239 R39.629
X-25.236 Y72.481 R1.687
G1 X-25.171 Y72.511
G2 X-24.806 Y72.633 R1.688
X-24.609 Y72.967 R1.688
G1 X-24.566 Y73.024
G2 X-24.253 Y73.34 R1.688
X-23.996 Y73.538 R39.629
X-23.608 Y73.758 R1.687
G1 X-23.542 Y73.785
G2 X-23.169 Y73.889 R1.687
X-22.956 Y74.21 R1.688
G1 X-22.91 Y74.265
G2 X-22.579 Y74.567 R1.687
X-22.312 Y74.751 R39.629
X-21.912 Y74.951 R1.688
G1 X-21.844 Y74.974
G2 X-21.468 Y75.058 R1.688
X-21.239 Y75.368 R1.688
G1 X-21.19 Y75.42
G2 X-20.844 Y75.704 R1.688
X-20.568 Y75.873 R39.629
X-20.159 Y76.052 R1.687
G1 X-20.09 Y76.072
G2 X-19.708 Y76.136 R1.687
X-19.462 Y76.435 R1.688
G1 X-19.411 Y76.484
G2 X-19.051 Y76.749 R1.688
X-18.767 Y76.903 R39.629
X-18.347 Y77.061 R1.687
G1 X-18.278 Y77.077
G2 X-17.895 Y77.121 R1.688
X-17.634 Y77.405 R1.687
G1 X-17.58 Y77.452
G2 X-17.207 Y77.698 R1.687
X-16.914 Y77.838 R39.629
X-16.489 Y77.973 R1.688
G1 X-16.419 Y77.986
G2 X-16.032 Y78.009 R1.688
X-15.757 Y78.28 R1.687
G1 X-15.7 Y78.324
G2 X-15.314 Y78.55 R1.688
X-15.015 Y78.674 R39.629
X-14.584 Y78.787 R1.687
G1 X-14.513 Y78.795
G2 X-14.126 Y78.799 R1.688
X-13.836 Y79.055 R1.688
G1 X-13.777 Y79.096
G2 X-13.381 Y79.301 R1.688
X-13.075 Y79.409 R39.629
X-12.637 Y79.5 R1.687
G1 X-12.565 Y79.505
G2 X-12.181 Y79.488 R1.688
X-11.877 Y79.729 R1.687
G1 X-11.816 Y79.767
G2 X-11.41 Y79.95 R1.687
X-11.1 Y80.042 R39.629
X-10.658 Y80.11 R1.687
G1 X-10.586 Y80.111
G2 X-10.202 Y80.074 R1.687
X-9.889 Y80.297 R1.688
G1 X-9.826 Y80.332
G2 X-9.408 Y80.496 R1.687
X-9.093 Y80.571 R39.629
X-8.65 Y80.615 R1.688
G1 X-8.578 Y80.613
G2 X-8.195 Y80.555 R1.687
X-7.869 Y80.763 R1.687
G1 X-7.805 Y80.794
G2 X-7.381 Y80.935 R1.688
X-7.062 Y80.994 R39.629
X-6.615 Y81.015 R1.687
G1 X-6.544 Y81.009
G2 X-6.166 Y80.931 R1.688
X-5.83 Y81.122 R1.687
G1 X-5.764 Y81.15
G2 X-5.333 Y81.268 R1.687
X-5.012 Y81.31 R39.629
X-4.565 Y81.308 R1.687
G1 X-4.494 Y81.298
G2 X-4.12 Y81.201 R1.687
X-3.774 Y81.373 R1.687
G1 X-3.707 Y81.398
G2 X-3.271 Y81.493 R1.687
X-2.948 Y81.519 R39.629
X-2.501 Y81.493 R1.688
G1 X-2.431 Y81.479
G2 X-2.063 Y81.363 R1.687
X-1.832 Y81.474 R1.688
G0 Z5.
X30.098 Y-16.221
G1 Z3. F762.
Z2.5
G2 X30.239 Y-16.386 Z2.462 R39.629
X30.481 Y-16.764 Z2.382 R1.688
G1 X30.511 Y-16.829 Z2.37
G2 X30.633 Y-17.194 Z2.302 R1.687
X30.967 Y-17.391 Z2.233 R1.687
G1 X31.024 Y-17.434 Z2.221
G2 X31.34 Y-17.747 Z2.142 R1.687
X31.538 Y-18.004 Z2.085 R39.629
X31.758 Y-18.392 Z2.006 R1.688
G1 X31.785 Y-18.458 Z1.993
G2 X31.889 Y-18.831 Z1.925 R1.687
X32.21 Y-19.044 Z1.857 R1.687
G1 X32.265 Y-19.09 Z1.844
G2 X32.567 Y-19.421 Z1.765 R1.688
X32.751 Y-19.688 Z1.708 R39.629
X32.951 Y-20.088 Z1.629 R1.687
G1 X32.974 Y-20.156 Z1.616
G2 X33.058 Y-20.532 Z1.548 R1.687
X33.368 Y-20.761 Z1.48 R1.688
G1 X33.42 Y-20.81 Z1.467
G2 X33.704 Y-21.156 Z1.388 R1.688
X33.873 Y-21.432 Z1.331 R39.629
X34.052 Y-21.841 Z1.252 R1.687
G1 X34.072 Y-21.91 Z1.239
G2 X34.136 Y-22.292 Z1.171 R1.688
X34.435 Y-22.538 Z1.102 R1.688
G1 X34.484 Y-22.589 Z1.09
G2 X34.749 Y-22.949 Z1.011 R1.688
X34.903 Y-23.233 Z0.954 R39.629
X35.061 Y-23.653 Z0.875 R1.688
G1 X35.077 Y-23.722 Z0.862
G2 X35.121 Y-24.105 Z0.794 R1.687
X35.405 Y-24.366 Z0.726 R1.687
G1 X35.452 Y-24.42 Z0.713
G2 X35.698 Y-24.793 Z0.634 R1.687
X35.838 Y-25.086 Z0.577 R39.629
X35.973 Y-25.511 Z0.498 R1.687
G1 X35.986 Y-25.581 Z0.485
G2 X36.009 Y-25.968 Z0.417 R1.687
X36.28 Y-26.243 Z0.349 R1.687
G1 X36.324 Y-26.3 Z0.336
G2 X36.55 Y-26.686 Z0.257 R1.687
X36.674 Y-26.985 Z0.2 R39.629
X36.787 Y-27.416 Z0.121 R1.688
G1 X36.795 Y-27.487 Z0.108
G2 X36.799 Y-27.874 Z0.04 R1.687
X37.055 Y-28.164 Z-0.028 R1.687
G1 X37.096 Y-28.223 Z-0.041
G2 X37.301 Y-28.619 Z-0.12 R1.688
X37.409 Y-28.925 Z-0.177 R39.629
X37.5 Y-29.363 Z-0.256 R1.687
G1 X37.505 Y-29.435 Z-0.269
G2 X37.488 Y-29.819 Z-0.337 R1.688
X37.729 Y-30.123 Z-0.406 R1.687
G1 X37.767 Y-30.184 Z-0.418
G2 X37.95 Y-30.59 Z-0.497 R1.687
X38.042 Y-30.9 Z-0.554 R39.629
X38.11 Y-31.342 Z-0.633 R1.688
G1 X38.111 Y-31.414 Z-0.646
G2 X38.074 Y-31.798 Z-0.714 R1.688
X38.297 Y-32.11 Z-0.782 R1.687
G1 X38.332 Y-32.173 Z-0.794
G2 X38.496 Y-32.592 Z-0.874 R1.687
X38.571 Y-32.907 Z-0.931 R39.629
X38.615 Y-33.35 Z-1.01 R1.687
G1 X38.613 Y-33.422 Z-1.023
G2 X38.555 Y-33.805 Z-1.091 R1.687
X38.763 Y-34.131 Z-1.159 R1.687
G1 X38.794 Y-34.195 Z-1.172
G2 X38.935 Y-34.619 Z-1.251 R1.687
X38.994 Y-34.938 Z-1.308 R39.629
X39.015 Y-35.385 Z-1.387 R1.688
G1 X39.009 Y-35.456 Z-1.4
G2 X38.931 Y-35.834 Z-1.468 R1.687
X39.122 Y-36.169 Z-1.536 R1.687
G1 X39.15 Y-36.235 Z-1.549
G2 X39.268 Y-36.667 Z-1.628 R1.687
X39.31 Y-36.988 Z-1.685 R39.629
X39.308 Y-37.435 Z-1.764 R1.688
G1 X39.298 Y-37.506 Z-1.777
G2 X39.201 Y-37.88 Z-1.845 R1.687
X39.373 Y-38.225 Z-1.913 R1.688
G1 X39.398 Y-38.293 Z-1.926
G2 X39.491 Y-38.702 Z-2. R1.687
X39.493 Y-38.729 R1.687
X39.519 Y-39.052 R39.629
X39.493 Y-39.499 R1.687
G1 X39.479 Y-39.569
G2 X39.363 Y-39.937 R1.688
X39.517 Y-40.29 R1.687
G1 X39.538 Y-40.359
G2 X39.61 Y-40.801 R1.688
X39.619 Y-41.125 R39.629
X39.57 Y-41.568 R1.687
G1 X39.553 Y-41.637
G2 X39.417 Y-42. R1.687
X39.553 Y-42.363 R1.687
G1 X39.57 Y-42.432
G2 X39.619 Y-42.875 R1.687
X39.61 Y-43.199 R39.629
X39.538 Y-43.641 R1.688
G1 X39.517 Y-43.71
G2 X39.363 Y-44.063 R1.688
X39.479 Y-44.431 R1.687
G1 X39.493 Y-44.501
G2 X39.519 Y-44.948 R1.688
X39.493 Y-45.271 R39.629
X39.398 Y-45.707 R1.688
G1 X39.373 Y-45.775
G2 X39.201 Y-46.12 R1.687
X39.298 Y-46.494 R1.688
G1 X39.308 Y-46.565
G2 X39.31 Y-47.012 R1.688
X39.268 Y-47.333 R39.629
X39.15 Y-47.765 R1.687
G1 X39.122 Y-47.831
G2 X38.931 Y-48.166 R1.687
X39.009 Y-48.544 R1.687
G1 X39.015 Y-48.615
G2 X38.994 Y-49.062 R1.688
X38.935 Y-49.381 R39.629
X38.794 Y-49.805 R1.687
G1 X38.763 Y-49.869
G2 X38.555 Y-50.195 R1.688
X38.613 Y-50.578 R1.687
G1 X38.615 Y-50.65
G2 X38.571 Y-51.093 R1.688
X38.496 Y-51.408 R39.629
X38.332 Y-51.827 R1.687
G1 X38.297 Y-51.89
G2 X38.074 Y-52.202 R1.688
X38.111 Y-52.586 R1.688
G1 X38.11 Y-52.658
G2 X38.042 Y-53.1 R1.687
X37.95 Y-53.41 R39.629
X37.767 Y-53.816 R1.687
G1 X37.729 Y-53.877
G2 X37.488 Y-54.181 R1.688
X37.505 Y-54.565 R1.687
G1 X37.5 Y-54.637
G2 X37.409 Y-55.075 R1.687
X37.301 Y-55.381 R39.629
X37.096 Y-55.777 R1.687
G1 X37.055 Y-55.836
G2 X36.799 Y-56.126 R1.687
X36.795 Y-56.513 R1.688
G1 X36.787 Y-56.584
G2 X36.674 Y-57.015 R1.687
X36.55 Y-57.314 R39.629
X36.324 Y-57.7 R1.688
G1 X36.28 Y-57.757
G2 X36.009 Y-58.032 R1.687
X35.986 Y-58.419 R1.687
G1 X35.973 Y-58.489
G2 X35.838 Y-58.914 R1.688
X35.698 Y-59.207 R39.629
X35.452 Y-59.58 R1.687
G1 X35.405 Y-59.634
G2 X35.121 Y-59.895 R1.687
X35.077 Y-60.278 R1.687
G1 X35.061 Y-60.347
G2 X34.903 Y-60.767 R1.687
X34.749 Y-61.051 R39.629
X34.484 Y-61.411 R1.687
G1 X34.435 Y-61.462
G2 X34.136 Y-61.708 R1.688
X34.072 Y-62.09 R1.687
G1 X34.052 Y-62.159
G2 X33.873 Y-62.568 R1.687
X33.704 Y-62.844 R39.629
X33.42 Y-63.19 R1.688
G1 X33.368 Y-63.239
G2 X33.058 Y-63.468 R1.688
X32.974 Y-63.844 R1.687
G1 X32.951 Y-63.912
G2 X32.751 Y-64.312 R1.688
X32.567 Y-64.579 R39.629
X32.265 Y-64.91 R1.688
G1 X32.21 Y-64.956
G2 X31.889 Y-65.169 R1.687
X31.785 Y-65.542 R1.687
G1 X31.758 Y-65.608
G2 X31.538 Y-65.996 R1.688
X31.34 Y-66.253 R39.629
X31.024 Y-66.566 R1.688
G1 X30.967 Y-66.609
G2 X30.633 Y-66.806 R1.688
X30.511 Y-67.171 R1.687
G1 X30.481 Y-67.236
G2 X30.239 Y-67.614 R1.688
X30.028 Y-67.86 R39.629
X29.695 Y-68.156 R1.687
G1 X29.636 Y-68.196
G2 X29.292 Y-68.375 R1.687
X29.151 Y-68.734 R1.687
G1 X29.117 Y-68.797
G2 X28.857 Y-69.161 R1.687
X28.634 Y-69.396 R39.629
X28.284 Y-69.675 R1.687
G1 X28.223 Y-69.712
G2 X27.872 Y-69.872 R1.687
X27.712 Y-70.223 R1.687
G1 X27.675 Y-70.284
G2 X27.396 Y-70.634 R1.688
X27.161 Y-70.857 R39.629
X26.797 Y-71.117 R1.688
G1 X26.734 Y-71.151
G2 X26.375 Y-71.292 R1.688
X26.196 Y-71.636 R1.687
G1 X26.156 Y-71.695
G2 X25.86 Y-72.028 R1.687
X25.614 Y-72.239 R39.629
X25.236 Y-72.481 R1.687
G1 X25.171 Y-72.511
G2 X24.806 Y-72.633 R1.688
X24.609 Y-72.967 R1.688
G1 X24.566 Y-73.024
G2 X24.253 Y-73.34 R1.688
X23.996 Y-73.538 R39.629
X23.608 Y-73.758 R1.687
G1 X23.542 Y-73.785
G2 X23.169 Y-73.889 R1.687
X22.956 Y-74.21 R1.688
G1 X22.91 Y-74.265
G2 X22.579 Y-74.567 R1.687
X22.312 Y-74.751 R39.629
X21.912 Y-74.951 R1.688
G1 X21.844 Y-74.974
G2 X21.468 Y-75.058 R1.688
X21.239 Y-75.368 R1.688
G1 X21.19 Y-75.42
G2 X20.844 Y-75.704 R1.688
X20.568 Y-75.873 R39.629
X20.159 Y-76.052 R1.687
G1 X20.09 Y-76.072
G2 X19.708 Y-76.136 R1.687
X19.462 Y-76.435 R1.688
G1 X19.411 Y-76.484
G2 X19.051 Y-76.749 R1.688
X18.767 Y-76.903 R39.629
X18.347 Y-77.061 R1.687
G1 X18.278 Y-77.077
G2 X17.895 Y-77.121 R1.688
X17.634 Y-77.405 R1.687
G1 X17.58 Y-77.452
G2 X17.207 Y-77.698 R1.687
X16.914 Y-77.838 R39.629
X16.489 Y-77.973 R1.688
G1 X16.419 Y-77.986
G2 X16.032 Y-78.009 R1.688
X15.757 Y-78.28 R1.687
G1 X15.7 Y-78.324
G2 X15.314 Y-78.55 R1.688
X15.015 Y-78.674 R39.629
X14.584 Y-78.787 R1.687
G1 X14.513 Y-78.795
G2 X14.126 Y-78.799 R1.688
X13.836 Y-79.055 R1.688
G1 X13.777 Y-79.096
G2 X13.381 Y-79.301 R1.688
X13.075 Y-79.409 R39.629
X12.637 Y-79.5 R1.687
G1 X12.565 Y-79.505
G2 X12.181 Y-79.488 R1.688
X11.877 Y-79.729 R1.687
G1 X11.816 Y-79.767
G2 X11.41 Y-79.95 R1.687
X11.1 Y-80.042 R39.629
X10.658 Y-80.11 R1.687
G1 X10.586 Y-80.111
G2 X10.202 Y-80.074 R1.687
X9.889 Y-80.297 R1.688
G1 X9.826 Y-80.332
G2 X9.408 Y-80.496 R1.687
X9.093 Y-80.571 R39.629
X8.65 Y-80.615 R1.688
G1 X8.578 Y-80.613
G2 X8.195 Y-80.555 R1.687
X7.869 Y-80.763 R1.687
G1 X7.805 Y-80.794
G2 X7.381 Y-80.935 R1.688
X7.062 Y-80.994 R39.629
X6.615 Y-81.015 R1.687
G1 X6.544 Y-81.009
G2 X6.166 Y-80.931 R1.688
X5.83 Y-81.122 R1.687
G1 X5.764 Y-81.15
G2 X5.333 Y-81.268 R1.687
X5.012 Y-81.31 R39.629
X4.565 Y-81.308 R1.687
G1 X4.494 Y-81.298
G2 X4.12 Y-81.201 R1.687
X3.774 Y-81.373 R1.687
G1 X3.707 Y-81.398
G2 X3.271 Y-81.493 R1.687
X2.948 Y-81.519 R39.629
X2.501 Y-81.493 R1.688
G1 X2.431 Y-81.479
G2 X2.063 Y-81.363 R1.687
X1.71 Y-81.517 R1.687
G1 X1.641 Y-81.538
G2 X1.199 Y-81.61 R1.687
X0.875 Y-81.619 R39.629
X0.432 Y-81.57 R1.688
G1 X0.363 Y-81.553
G2 X0. Y-81.417 R1.688
X-0.363 Y-81.553 R1.688
G1 X-0.432 Y-81.57
G2 X-0.875 Y-81.619 R1.687
X-1.199 Y-81.61 R39.629
X-1.641 Y-81.538 R1.688
G1 X-1.71 Y-81.517
G2 X-2.063 Y-81.363 R1.687
X-2.431 Y-81.479 R1.687
G1 X-2.501 Y-81.493
G2 X-2.948 Y-81.519 R1.688
X-3.271 Y-81.493 R39.629
X-3.707 Y-81.398 R1.687
G1 X-3.774 Y-81.373
G2 X-4.12 Y-81.201 R1.688
X-4.494 Y-81.298 R1.687
G1 X-4.565 Y-81.308
G2 X-5.012 Y-81.31 R1.688
X-5.333 Y-81.268 R39.629
X-5.764 Y-81.15 R1.687
G1 X-5.83 Y-81.122
G2 X-6.166 Y-80.931 R1.688
X-6.544 Y-81.009 R1.687
G1 X-6.615 Y-81.015
G2 X-7.062 Y-80.994 R1.687
X-7.381 Y-80.935 R39.629
X-7.805 Y-80.794 R1.688
G1 X-7.869 Y-80.763
G2 X-8.195 Y-80.555 R1.687
X-8.578 Y-80.613 R1.687
G1 X-8.65 Y-80.615
G2 X-9.093 Y-80.571 R1.688
X-9.408 Y-80.496 R39.629
X-9.826 Y-80.332 R1.688
G1 X-9.889 Y-80.297
G2 X-10.202 Y-80.074 R1.687
X-10.586 Y-80.111 R1.688
G1 X-10.658 Y-80.11
G2 X-11.1 Y-80.042 R1.687
X-11.41 Y-79.95 R39.629
X-11.816 Y-79.767 R1.688
G1 X-11.877 Y-79.729
G2 X-12.181 Y-79.488 R1.688
X-12.565 Y-79.505 R1.688
G1 X-12.637 Y-79.5
G2 X-13.075 Y-79.409 R1.687
X-13.381 Y-79.301 R39.629
X-13.777 Y-79.096 R1.688
G1 X-13.836 Y-79.055
G2 X-14.126 Y-78.799 R1.688
X-14.513 Y-78.795 R1.688
G1 X-14.584 Y-78.787
G2 X-15.015 Y-78.674 R1.687
X-15.314 Y-78.55 R39.629
X-15.7 Y-78.324 R1.687
G1 X-15.757 Y-78.28
G2 X-16.032 Y-78.009 R1.687
X-16.419 Y-77.986 R1.688
G1 X-16.489 Y-77.973
G2 X-16.914 Y-77.838 R1.687
X-17.207 Y-77.698 R39.629
X-17.58 Y-77.452 R1.687
G1 X-17.634 Y-77.405
G2 X-17.895 Y-77.121 R1.687
X-18.278 Y-77.077 R1.688
G1 X-18.347 Y-77.061
G2 X-18.767 Y-76.903 R1.688
X-19.051 Y-76.749 R39.629
X-19.411 Y-76.484 R1.688
G1 X-19.462 Y-76.435
G2 X-19.708 Y-76.136 R1.688
X-20.09 Y-76.072 R1.687
G1 X-20.159 Y-76.052
G2 X-20.568 Y-75.873 R1.688
X-20.844 Y-75.704 R39.629
X-21.19 Y-75.42 R1.688
G1 X-21.239 Y-75.368
G2 X-21.468 Y-75.058 R1.688
X-21.844 Y-74.974 R1.688
G1 X-21.912 Y-74.951
G2 X-22.312 Y-74.751 R1.688
X-22.579 Y-74.567 R39.629
X-22.91 Y-74.265 R1.688
G1 X-22.956 Y-74.21
G2 X-23.169 Y-73.889 R1.688
X-23.542 Y-73.785 R1.687
G1 X-23.608 Y-73.758
G2 X-23.996 Y-73.538 R1.688
X-24.253 Y-73.34 R39.629
X-24.566 Y-73.024 R1.688
G1 X-24.609 Y-72.967
G2 X-24.806 Y-72.633 R1.688
X-25.171 Y-72.511 R1.688
G1 X-25.236 Y-72.481
G2 X-25.614 Y-72.239 R1.687
X-25.86 Y-72.028 R39.629
X-26.156 Y-71.695 R1.687
G1 X-26.196 Y-71.636
G2 X-26.375 Y-71.292 R1.687
X-26.734 Y-71.151 R1.688
G1 X-26.797 Y-71.117
G2 X-27.161 Y-70.857 R1.687
X-27.396 Y-70.634 R39.629
X-27.675 Y-70.284 R1.688
G1 X-27.712 Y-70.223
G2 X-27.872 Y-69.872 R1.687
X-28.223 Y-69.712 R1.687
G1 X-28.284 Y-69.675
G2 X-28.634 Y-69.396 R1.687
X-28.857 Y-69.161 R39.629
X-29.117 Y-68.797 R1.687
G1 X-29.151 Y-68.734
G2 X-29.292 Y-68.375 R1.687
X-29.636 Y-68.196 R1.688
G1 X-29.695 Y-68.156
G2 X-30.028 Y-67.86 R1.688
X-30.239 Y-67.614 R39.629
X-30.481 Y-67.236 R1.688
G1 X-30.511 Y-67.171
G2 X-30.633 Y-66.806 R1.687
X-30.967 Y-66.609 R1.688
G1 X-31.024 Y-66.566
G2 X-31.34 Y-66.253 R1.687
X-31.538 Y-65.996 R39.629
X-31.758 Y-65.608 R1.687
G1 X-31.785 Y-65.542
G2 X-31.889 Y-65.169 R1.687
X-32.21 Y-64.956 R1.687
G1 X-32.265 Y-64.91
G2 X-32.567 Y-64.579 R1.688
X-32.751 Y-64.312 R39.629
X-32.951 Y-63.912 R1.687
G1 X-32.974 Y-63.844
G2 X-33.058 Y-63.468 R1.687
X-33.368 Y-63.239 R1.687
G1 X-33.42 Y-63.19
G2 X-33.704 Y-62.844 R1.688
X-33.873 Y-62.568 R39.629
X-34.052 Y-62.159 R1.687
G1 X-34.072 Y-62.09
G2 X-34.136 Y-61.708 R1.688
X-34.435 Y-61.462 R1.688
G1 X-34.484 Y-61.411
G2 X-34.749 Y-61.051 R1.687
X-34.903 Y-60.767 R39.629
X-35.061 Y-60.347 R1.688
G1 X-35.077 Y-60.278
G2 X-35.121 Y-59.895 R1.687
X-35.405 Y-59.634 R1.687
G1 X-35.452 Y-59.58
G2 X-35.698 Y-59.207 R1.687
X-35.838 Y-58.914 R39.629
X-35.973 Y-58.489 R1.687
G1 X-35.986 Y-58.419
G2 X-36.009 Y-58.032 R1.687
X-36.28 Y-57.757 R1.687
G1 X-36.324 Y-57.7
G2 X-36.55 Y-57.314 R1.687
X-36.674 Y-57.015 R39.629
X-36.787 Y-56.584 R1.688
G1 X-36.795 Y-56.513
G2 X-36.799 Y-56.126 R1.687
X-37.055 Y-55.836 R1.687
G1 X-37.096 Y-55.777
G2 X-37.301 Y-55.381 R1.688
X-37.409 Y-55.075 R39.629
X-37.5 Y-54.637 R1.687
G1 X-37.505 Y-54.565
G2 X-37.488 Y-54.181 R1.688
X-37.729 Y-53.877 R1.688
G1 X-37.767 Y-53.816
G2 X-37.95 Y-53.41 R1.687
X-38.042 Y-53.1 R39.629
X-38.11 Y-52.658 R1.688
G1 X-38.111 Y-52.586
G2 X-38.074 Y-52.202 R1.688
X-38.297 Y-51.89 R1.687
G1 X-38.332 Y-51.827
G2 X-38.496 Y-51.408 R1.687
X-38.571 Y-51.093 R39.629
X-38.615 Y-50.65 R1.687
G1 X-38.613 Y-50.578
G2 X-38.555 Y-50.195 R1.687
X-38.763 Y-49.869 R1.687
G1 X-38.794 Y-49.805
G2 X-38.935 Y-49.381 R1.687
X-38.994 Y-49.062 R39.629
X-39.015 Y-48.615 R1.688
G1 X-39.009 Y-48.544
G2 X-38.931 Y-48.166 R1.687
X-39.122 Y-47.831 R1.687
G1 X-39.15 Y-47.765
G2 X-39.268 Y-47.333 R1.687
X-39.31 Y-47.012 R39.629
X-39.308 Y-46.565 R1.688
G1 X-39.298 Y-46.494
G2 X-39.201 Y-46.12 R1.687
X-39.373 Y-45.775 R1.688
G1 X-39.398 Y-45.707
G2 X-39.493 Y-45.271 R1.687
X-39.519 Y-44.948 R39.629
X-39.493 Y-44.501 R1.687
G1 X-39.479 Y-44.431
G2 X-39.363 Y-44.063 R1.688
X-39.517 Y-43.71 R1.687
G1 X-39.538 Y-43.641
G2 X-39.61 Y-43.199 R1.688
X-39.619 Y-42.875 R39.629
X-39.57 Y-42.432 R1.687
G1 X-39.553 Y-42.363
G2 X-39.417 Y-42. R1.687
X-39.553 Y-41.637 R1.687
G1 X-39.57 Y-41.568
G2 X-39.619 Y-41.125 R1.687
X-39.61 Y-40.801 R39.629
X-39.538 Y-40.359 R1.688
G1 X-39.517 Y-40.29
G2 X-39.363 Y-39.937 R1.688
X-39.479 Y-39.569 R1.687
G1 X-39.493 Y-39.499
G2 X-39.519 Y-39.052 R1.688
X-39.493 Y-38.729 R39.629
X-39.398 Y-38.293 R1.688
G1 X-39.373 Y-38.225
G2 X-39.201 Y-37.88 R1.687
X-39.298 Y-37.506 R1.688
G1 X-39.308 Y-37.435
G2 X-39.31 Y-36.988 R1.688
X-39.268 Y-36.667 R39.629
X-39.15 Y-36.235 R1.687
G1 X-39.122 Y-36.169
G2 X-38.931 Y-35.834 R1.687
X-39.009 Y-35.456 R1.687
G1 X-39.015 Y-35.385
G2 X-38.994 Y-34.938 R1.688
X-38.935 Y-34.619 R39.629
X-38.794 Y-34.195 R1.687
G1 X-38.763 Y-34.131
G2 X-38.555 Y-33.805 R1.688
X-38.613 Y-33.422 R1.687
G1 X-38.615 Y-33.35
G2 X-38.571 Y-32.907 R1.688
X-38.496 Y-32.592 R39.629
X-38.332 Y-32.173 R1.687
G1 X-38.297 Y-32.11
G2 X-38.074 Y-31.798 R1.687
X-38.111 Y-31.414 R1.688
G1 X-38.11 Y-31.342
G2 X-38.042 Y-30.9 R1.687
X-37.95 Y-30.59 R39.629
X-37.767 Y-30.184 R1.687
G1 X-37.729 Y-30.123
G2 X-37.488 Y-29.819 R1.688
X-37.505 Y-29.435 R1.687
G1 X-37.5 Y-29.363
G2 X-37.409 Y-28.925 R1.687
X-37.301 Y-28.619 R39.629
X-37.096 Y-28.223 R1.687
G1 X-37.055 Y-28.164
G2 X-36.799 Y-27.874 R1.687
X-36.795 Y-27.487 R1.688
G1 X-36.787 Y-27.416
G2 X-36.674 Y-26.985 R1.687
X-36.55 Y-26.686 R39.629
X-36.324 Y-26.3 R1.687
G1 X-36.28 Y-26.243
G2 X-36.009 Y-25.968 R1.687
X-35.986 Y-25.581 R1.687
G1 X-35.973 Y-25.511
G2 X-35.838 Y-25.086 R1.688
X-35.698 Y-24.793 R39.629
X-35.452 Y-24.42 R1.687
G1 X-35.405 Y-24.366
G2 X-35.121 Y-24.105 R1.688
X-35.077 Y-23.722 R1.687
G1 X-35.061 Y-23.653
G2 X-34.903 Y-23.233 R1.687
X-34.749 Y-22.949 R39.629
X-34.484 Y-22.589 R1.687
G1 X-34.435 Y-22.538
G2 X-34.136 Y-22.292 R1.688
X-34.072 Y-21.91 R1.687
G1 X-34.052 Y-21.841
G2 X-33.873 Y-21.432 R1.687
X-33.704 Y-21.156 R39.629
X-33.42 Y-20.81 R1.688
G1 X-33.368 Y-20.761
G2 X-33.058 Y-20.532 R1.688
X-32.974 Y-20.156 R1.687
G1 X-32.951 Y-20.088
G2 X-32.751 Y-19.688 R1.687
X-32.567 Y-19.421 R39.629
X-32.265 Y-19.09 R1.687
G1 X-32.21 Y-19.044
G2 X-31.889 Y-18.831 R1.688
X-31.785 Y-18.458 R1.687
G1 X-31.758 Y-18.392
G2 X-31.538 Y-18.004 R1.688
X-31.34 Y-17.747 R39.629
X-31.024 Y-17.434 R1.687
G1 X-30.967 Y-17.391
G2 X-30.633 Y-17.194 R1.687
X-30.511 Y-16.829 R1.687
G1 X-30.481 Y-16.764
G2 X-30.239 Y-16.386 R1.688
X-30.028 Y-16.14 R39.629
X-29.695 Y-15.844 R1.687
G1 X-29.636 Y-15.804
G2 X-29.292 Y-15.625 R1.688
X-29.151 Y-15.266 R1.688
G1 X-29.117 Y-15.203
G2 X-28.857 Y-14.839 R1.687
X-28.634 Y-14.604 R39.629
X-28.284 Y-14.325 R1.688
G1 X-28.223 Y-14.288
G2 X-27.872 Y-14.128 R1.687
X-27.712 Y-13.777 R1.687
G1 X-27.675 Y-13.716
G2 X-27.396 Y-13.366 R1.688
X-27.161 Y-13.143 R39.629
X-26.797 Y-12.883 R1.687
G1 X-26.734 Y-12.849
G2 X-26.375 Y-12.708 R1.688
X-26.196 Y-12.364 R1.687
G1 X-26.156 Y-12.305
G2 X-25.86 Y-11.972 R1.688
X-25.614 Y-11.761 R39.629
X-25.236 Y-11.519 R1.688
G1 X-25.171 Y-11.489
G2 X-24.806 Y-11.367 R1.688
X-24.609 Y-11.033 R1.687
G1 X-24.566 Y-10.976
G2 X-24.253 Y-10.66 R1.687
X-23.996 Y-10.462 R39.629
X-23.608 Y-10.242 R1.688
G1 X-23.542 Y-10.215
G2 X-23.169 Y-10.111 R1.688
X-22.956 Y-9.79 R1.687
G1 X-22.91 Y-9.735
G2 X-22.579 Y-9.433 R1.687
X-22.312 Y-9.249 R39.629
X-21.912 Y-9.049 R1.687
G1 X-21.844 Y-9.026
G2 X-21.468 Y-8.942 R1.687
X-21.238 Y-8.632 R1.688
G1 X-21.19 Y-8.579
G2 X-20.844 Y-8.296 R1.688
X-20.568 Y-8.127 R39.629
X-20.158 Y-7.947 R1.687
G1 X-20.09 Y-7.928
G2 X-19.708 Y-7.864 R1.687
X-19.462 Y-7.566 R1.688
G1 X-19.411 Y-7.516
G2 X-19.051 Y-7.251 R1.687
X-18.767 Y-7.097 R39.629
X-18.348 Y-6.939 R1.688
G1 X-18.279 Y-6.923
G2 X-17.895 Y-6.879 R1.687
X-17.634 Y-6.594 R1.687
G1 X-17.58 Y-6.548
G2 X-17.207 Y-6.302 R1.687
X-16.914 Y-6.162 R39.629
X-16.489 Y-6.027 R1.687
G1 X-16.418 Y-6.014
G2 X-16.032 Y-5.991 R1.688
X-15.756 Y-5.72 R1.688
G1 X-15.7 Y-5.676
G2 X-15.315 Y-5.45 R1.687
X-15.016 Y-5.326 R39.629
X-14.583 Y-5.213 R1.688
G1 X-14.512 Y-5.204
G2 X-14.126 Y-5.201 R1.687
X-13.835 Y-4.944 R1.687
G1 X-13.777 Y-4.903
G2 X-13.381 Y-4.699 R1.688
X-13.075 Y-4.591 R39.629
X-12.638 Y-4.5 R1.688
G1 X-12.567 Y-4.495
G2 X-12.18 Y-4.512 R1.687
X-11.878 Y-4.272 R1.687
G1 X-11.817 Y-4.234
G2 X-11.41 Y-4.05 R1.687
X-11.1 Y-3.958 R39.629
X-10.658 Y-3.89 R1.687
G1 X-10.587 Y-3.889
G2 X-10.202 Y-3.926 R1.688
X-9.887 Y-3.702 R1.688
G1 X-9.825 Y-3.667
G2 X-9.408 Y-3.505 R1.688
X-9.094 Y-3.429 R39.629
X-8.649 Y-3.385 R1.688
G1 X-8.578 Y-3.387
G2 X-8.195 Y-3.445 R1.688
X-7.869 Y-3.237 R1.687
G1 X-7.805 Y-3.205
G2 X-7.381 Y-3.065 R1.687
X-7.062 Y-3.006 R39.629
X-6.616 Y-2.985 R1.687
G1 X-6.545 Y-2.991
G2 X-6.166 Y-3.069 R1.688
X-5.83 Y-2.878 R1.688
G1 X-5.764 Y-2.85
G2 X-5.333 Y-2.732 R1.687
X-5.012 Y-2.69 R39.629
X-4.565 Y-2.692 R1.687
G1 X-4.494 Y-2.702
G2 X-4.12 Y-2.799 R1.687
X-3.774 Y-2.627 R1.688
G1 X-3.707 Y-2.602
G2 X-3.271 Y-2.507 R1.688
X-2.948 Y-2.481 R39.629
X-2.502 Y-2.507 R1.688
G1 X-2.432 Y-2.521
G2 X-2.063 Y-2.637 R1.687
X-1.708 Y-2.483 R1.687
G1 X-1.64 Y-2.462
G2 X-1.199 Y-2.39 R1.688
X-0.875 Y-2.381 R39.629
X-0.431 Y-2.43 R1.688
G1 X-0.362 Y-2.448
G2 X0. Y-2.583 R1.688
X0.362 Y-2.448 R1.688
G1 X0.431 Y-2.43
G2 X0.875 Y-2.381 R1.688
X1.199 Y-2.39 R39.629
X1.64 Y-2.462 R1.688
G1 X1.708 Y-2.483
G2 X2.063 Y-2.637 R1.687
X2.432 Y-2.521 R1.687
G1 X2.502 Y-2.507
G2 X2.948 Y-2.481 R1.687
X3.271 Y-2.507 R39.629
X3.707 Y-2.602 R1.688
G1 X3.774 Y-2.627
G2 X4.12 Y-2.799 R1.687
X4.494 Y-2.702 R1.687
G1 X4.565 Y-2.692
G2 X5.012 Y-2.69 R1.687
X5.333 Y-2.732 R39.629
X5.764 Y-2.85 R1.688
G1 X5.83 Y-2.878
G2 X6.166 Y-3.069 R1.688
X6.545 Y-2.991 R1.688
G1 X6.616 Y-2.985
G2 X7.062 Y-3.006 R1.687
X7.381 Y-3.065 R39.629
X7.805 Y-3.205 R1.687
G1 X7.869 Y-3.237
G2 X8.195 Y-3.445 R1.688
X8.578 Y-3.387 R1.688
G1 X8.649 Y-3.385
G2 X9.094 Y-3.429 R1.688
X9.408 Y-3.505 R39.629
X9.825 Y-3.667 R1.688
G1 X9.887 Y-3.702
G2 X10.202 Y-3.926 R1.688
X10.587 Y-3.889 R1.688
G1 X10.658 Y-3.89
G2 X11.1 Y-3.958 R1.687
X11.41 Y-4.05 R39.629
X11.817 Y-4.234 R1.687
G1 X11.878 Y-4.272
G2 X12.18 Y-4.512 R1.688
X12.567 Y-4.495 R1.688
G1 X12.638 Y-4.5
G2 X13.075 Y-4.591 R1.688
X13.381 Y-4.699 R39.629
X13.777 Y-4.903 R1.688
G1 X13.835 Y-4.944
G2 X14.126 Y-5.201 R1.687
X14.512 Y-5.204 R1.687
G1 X14.583 Y-5.213
G2 X15.016 Y-5.326 R1.688
X15.315 Y-5.45 R39.629
X15.7 Y-5.676 R1.687
G1 X15.756 Y-5.72
G2 X16.032 Y-5.991 R1.688
X16.418 Y-6.014 R1.688
G1 X16.489 Y-6.027
G2 X16.914 Y-6.162 R1.687
X17.207 Y-6.302 R39.629
X17.58 Y-6.548 R1.687
G1 X17.634 Y-6.594
G2 X17.895 Y-6.879 R1.687
X18.279 Y-6.923 R1.687
G1 X18.348 Y-6.939
G2 X18.767 Y-7.097 R1.688
X19.051 Y-7.251 R39.629
X19.411 Y-7.516 R1.688
G1 X19.462 Y-7.566
G2 X19.708 Y-7.864 R1.688
X20.09 Y-7.928 R1.687
G1 X20.158 Y-7.947
G2 X20.568 Y-8.127 R1.687
X20.844 Y-8.296 R39.629
X21.19 Y-8.579 R1.688
G1 X21.238 Y-8.632
G2 X21.468 Y-8.942 R1.687
X21.844 Y-9.026 R1.687
G1 X21.912 Y-9.049
G2 X22.312 Y-9.249 R1.688
X22.579 Y-9.433 R39.629
X22.91 Y-9.735 R1.687
G1 X22.956 Y-9.79
G2 X23.169 Y-10.111 R1.688
X23.542 Y-10.215 R1.687
G1 X23.608 Y-10.242
G2 X23.996 Y-10.462 R1.687
X24.253 Y-10.66 R39.629
X24.566 Y-10.976 R1.687
G1 X24.609 Y-11.033
G2 X24.806 Y-11.367 R1.687
X25.171 Y-11.489 R1.688
G1 X25.236 Y-11.519
G2 X25.614 Y-11.761 R1.687
X25.86 Y-11.972 R39.629
X26.156 Y-12.305 R1.688
G1 X26.196 Y-12.364
G2 X26.375 Y-12.708 R1.688
X26.734 Y-12.849 R1.688
G1 X26.797 Y-12.883
G2 X27.161 Y-13.143 R1.687
X27.396 Y-13.366 R39.629
X27.675 Y-13.716 R1.687
G1 X27.712 Y-13.777
G2 X27.872 Y-14.128 R1.687
X28.223 Y-14.288 R1.687
G1 X28.284 Y-14.325
G2 X28.634 Y-14.604 R1.688
X28.857 Y-14.839 R39.629
X29.117 Y-15.203 R1.687
G1 X29.151 Y-15.266
G2 X29.292 Y-15.625 R1.688
X29.636 Y-15.804 R1.688
G1 X29.695 Y-15.844
G2 X30.028 Y-16.14 R1.687
X30.239 Y-16.386 R39.629
X30.481 Y-16.764 R1.688
G1 X30.511 Y-16.829
G2 X30.633 Y-17.194 R1.687
X30.967 Y-17.391 R1.687
G1 X31.024 Y-17.434
G2 X31.34 Y-17.747 R1.687
X31.538 Y-18.004 R39.629
X31.758 Y-18.392 R1.688
G1 X31.785 Y-18.458
G2 X31.889 Y-18.831 R1.687
X32.21 Y-19.044 R1.687
G1 X32.265 Y-19.09
G2 X32.567 Y-19.421 R1.688
X32.751 Y-19.688 R39.629
X32.951 Y-20.088 R1.687
G1 X32.974 Y-20.156
G2 X33.058 Y-20.532 R1.687
X33.368 Y-20.761 R1.688
G1 X33.42 Y-20.81
G2 X33.704 Y-21.156 R1.688
X33.873 Y-21.432 R39.629
X34.052 Y-21.841 R1.687
G1 X34.072 Y-21.91
G2 X34.136 Y-22.292 R1.688
X34.435 Y-22.538 R1.688
G1 X34.484 Y-22.589
G2 X34.749 Y-22.949 R1.688
X34.903 Y-23.233 R39.629
X35.061 Y-23.653 R1.688
G1 X35.077 Y-23.722
G2 X35.121 Y-24.105 R1.687
X35.405 Y-24.366 R1.687
G1 X35.452 Y-24.42
G2 X35.698 Y-24.793 R1.687
X35.838 Y-25.086 R39.629
X35.973 Y-25.511 R1.687
G1 X35.986 Y-25.581
G2 X36.009 Y-25.968 R1.687
X36.28 Y-26.243 R1.687
G1 X36.324 Y-26.3
G2 X36.55 Y-26.686 R1.687
X36.674 Y-26.985 R39.629
X36.787 Y-27.416 R1.688
G1 X36.795 Y-27.487
G2 X36.799 Y-27.874 R1.687
X37.055 Y-28.164 R1.687
G1 X37.096 Y-28.223
G2 X37.301 Y-28.619 R1.688
X37.409 Y-28.925 R39.629
X37.5 Y-29.363 R1.687
G1 X37.505 Y-29.435
G2 X37.488 Y-29.819 R1.688
X37.729 Y-30.123 R1.687
G1 X37.767 Y-30.184
G2 X37.95 Y-30.59 R1.687
X38.042 Y-30.9 R39.629
X38.11 Y-31.342 R1.688
G1 X38.111 Y-31.414
G2 X38.074 Y-31.798 R1.688
X38.297 Y-32.11 R1.687
G1 X38.332 Y-32.173
G2 X38.496 Y-32.592 R1.687
X38.571 Y-32.907 R39.629
X38.615 Y-33.35 R1.687
G1 X38.613 Y-33.422
G2 X38.555 Y-33.805 R1.687
X38.763 Y-34.131 R1.687
G1 X38.794 Y-34.195
G2 X38.935 Y-34.619 R1.687
X38.994 Y-34.938 R39.629
X39.015 Y-35.385 R1.688
G1 X39.009 Y-35.456
G2 X38.931 Y-35.834 R1.687
X39.122 Y-36.169 R1.687
G1 X39.15 Y-36.235
G2 X39.268 Y-36.667 R1.687
X39.31 Y-36.988 R39.629
X39.308 Y-37.435 R1.688
G1 X39.298 Y-37.506
G2 X39.201 Y-37.88 R1.687
X39.373 Y-38.225 R1.688
G1 X39.398 Y-38.293
G2 X39.491 Y-38.702 R1.687
X39.493 Y-38.729 Z-2.001 R1.687
X39.519 Y-39.052 Z-2.017 R39.629
X39.493 Y-39.499 Z-2.04 R1.687
G1 X39.479 Y-39.569 Z-2.043
G2 X39.363 Y-39.937 Z-2.062 R1.688
X39.517 Y-40.29 Z-2.081 R1.687
G1 X39.538 Y-40.359 Z-2.085
G2 X39.61 Y-40.801 Z-2.107 R1.688
X39.619 Y-41.125 Z-2.123 R39.629
X39.57 Y-41.568 Z-2.145 R1.687
G1 X39.553 Y-41.637 Z-2.149
G2 X39.417 Y-42. Z-2.168 R1.687
X39.553 Y-42.363 Z-2.187 R1.687
G1 X39.57 Y-42.432 Z-2.191
G2 X39.619 Y-42.875 Z-2.213 R1.687
X39.61 Y-43.199 Z-2.229 R39.629
X39.538 Y-43.641 Z-2.251 R1.688
G1 X39.517 Y-43.71 Z-2.255
G2 X39.363 Y-44.063 Z-2.274 R1.688
X39.479 Y-44.431 Z-2.293 R1.687
G1 X39.493 Y-44.501 Z-2.297
G2 X39.519 Y-44.948 Z-2.319 R1.688
X39.493 Y-45.271 Z-2.335 R39.629
X39.398 Y-45.707 Z-2.357 R1.688
G1 X39.373 Y-45.775 Z-2.361
G2 X39.201 Y-46.12 Z-2.38 R1.687
X39.298 Y-46.494 Z-2.399 R1.688
G1 X39.308 Y-46.565 Z-2.402
G2 X39.31 Y-47.012 Z-2.425 R1.688
X39.268 Y-47.333 Z-2.441 R39.629
X39.15 Y-47.765 Z-2.463 R1.687
G1 X39.122 Y-47.831 Z-2.466
G2 X38.931 Y-48.166 Z-2.486 R1.687
X39.009 Y-48.544 Z-2.505 R1.687
G1 X39.015 Y-48.615 Z-2.508
G2 X38.994 Y-49.062 Z-2.531 R1.688
X38.935 Y-49.381 Z-2.547 R39.629
X38.794 Y-49.805 Z-2.569 R1.687
G1 X38.763 Y-49.869 Z-2.572
G2 X38.555 Y-50.195 Z-2.591 R1.688
X38.613 Y-50.578 Z-2.611 R1.687
G1 X38.615 Y-50.65 Z-2.614
G2 X38.571 Y-51.093 Z-2.636 R1.688
X38.496 Y-51.408 Z-2.652 R39.629
X38.332 Y-51.827 Z-2.675 R1.687
G1 X38.297 Y-51.89 Z-2.678
G2 X38.074 Y-52.202 Z-2.697 R1.688
X38.111 Y-52.586 Z-2.716 R1.688
G1 X38.11 Y-52.658 Z-2.72
G2 X38.042 Y-53.1 Z-2.742 R1.687
X37.95 Y-53.41 Z-2.758 R39.629
X37.767 Y-53.816 Z-2.78 R1.687
G1 X37.729 Y-53.877 Z-2.784
G2 X37.488 Y-54.181 Z-2.803 R1.688
X37.505 Y-54.565 Z-2.822 R1.687
G1 X37.5 Y-54.637 Z-2.826
G2 X37.409 Y-55.075 Z-2.848 R1.687
X37.301 Y-55.381 Z-2.864 R39.629
X37.096 Y-55.777 Z-2.886 R1.687
G1 X37.055 Y-55.836 Z-2.89
G2 X36.799 Y-56.126 Z-2.909 R1.687
X36.795 Y-56.513 Z-2.928 R1.688
G1 X36.787 Y-56.584 Z-2.932
G2 X36.674 Y-57.015 Z-2.954 R1.687
X36.55 Y-57.314 Z-2.97 R39.629
X36.324 Y-57.7 Z-2.992 R1.688
G1 X36.28 Y-57.757 Z-2.996
G2 X36.009 Y-58.032 Z-3.015 R1.687
X35.986 Y-58.419 Z-3.034 R1.687
G1 X35.973 Y-58.489 Z-3.038
G2 X35.838 Y-58.914 Z-3.06 R1.688
X35.698 Y-59.207 Z-3.076 R39.629
X35.452 Y-59.58 Z-3.098 R1.687
G1 X35.405 Y-59.634 Z-3.101
G2 X35.121 Y-59.895 Z-3.121 R1.687
X35.077 Y-60.278 Z-3.14 R1.687
G1 X35.061 Y-60.347 Z-3.143
G2 X34.903 Y-60.767 Z-3.166 R1.687
X34.749 Y-61.051 Z-3.182 R39.629
X34.484 Y-61.411 Z-3.204 R1.687
G1 X34.435 Y-61.462 Z-3.207
G2 X34.136 Y-61.708 Z-3.226 R1.688
X34.072 Y-62.09 Z-3.246 R1.687
G1 X34.052 Y-62.159 Z-3.249
G2 X33.873 Y-62.568 Z-3.271 R1.687
X33.704 Y-62.844 Z-3.287 R39.629
X33.42 Y-63.19 Z-3.31 R1.688
G1 X33.368 Y-63.239 Z-3.313
G2 X33.058 Y-63.468 Z-3.332 R1.688
X32.974 Y-63.844 Z-3.351 R1.687
G1 X32.951 Y-63.912 Z-3.355
G2 X32.751 Y-64.312 Z-3.377 R1.688
X32.567 Y-64.579 Z-3.393 R39.629
X32.265 Y-64.91 Z-3.415 R1.688
G1 X32.21 Y-64.956 Z-3.419
G2 X31.889 Y-65.169 Z-3.438 R1.687
X31.785 Y-65.542 Z-3.457 R1.687
G1 X31.758 Y-65.608 Z-3.461
G2 X31.538 Y-65.996 Z-3.483 R1.688
X31.34 Y-66.253 Z-3.499 R39.629
X31.024 Y-66.566 Z-3.521 R1.688
G1 X30.967 Y-66.609 Z-3.525
G2 X30.633 Y-66.806 Z-3.544 R1.688
X30.511 Y-67.171 Z-3.563 R1.687
G1 X30.481 Y-67.236 Z-3.567
G2 X30.239 Y-67.614 Z-3.589 R1.688
X30.028 Y-67.86 Z-3.605 R39.629
X29.695 Y-68.156 Z-3.627 R1.687
G1 X29.636 Y-68.196 Z-3.631
G2 X29.292 Y-68.375 Z-3.65 R1.687
X29.151 Y-68.734 Z-3.669 R1.687
G1 X29.117 Y-68.797 Z-3.672
G2 X28.857 Y-69.161 Z-3.695 R1.687
X28.634 Y-69.396 Z-3.711 R39.629
X28.284 Y-69.675 Z-3.733 R1.687
G1 X28.223 Y-69.712 Z-3.737
G2 X27.872 Y-69.872 Z-3.756 R1.687
X27.712 Y-70.223 Z-3.775 R1.687
G1 X27.675 Y-70.284 Z-3.778
G2 X27.396 Y-70.634 Z-3.801 R1.688
X27.161 Y-70.857 Z-3.817 R39.629
X26.797 Y-71.117 Z-3.839 R1.688
G1 X26.734 Y-71.151 Z-3.842
G2 X26.375 Y-71.292 Z-3.861 R1.688
X26.196 Y-71.636 Z-3.881 R1.687
G1 X26.156 Y-71.695 Z-3.884
G2 X25.86 Y-72.028 Z-3.906 R1.687
X25.614 Y-72.239 Z-3.922 R39.629
X25.236 Y-72.481 Z-3.945 R1.687
G1 X25.171 Y-72.511 Z-3.948
G2 X24.806 Y-72.633 Z-3.967 R1.688
X24.609 Y-72.967 Z-3.987 R1.688
G1 X24.566 Y-73.024 Z-3.99
G2 X24.436 Y-73.176 Z-4. R1.688
X24.253 Y-73.34 R1.688
X23.996 Y-73.538 R39.629
X23.608 Y-73.758 R1.687
G1 X23.542 Y-73.785
G2 X23.169 Y-73.889 R1.687
X22.956 Y-74.21 R1.688
G1 X22.91 Y-74.265
G2 X22.579 Y-74.567 R1.687
X22.312 Y-74.751 R39.629
X21.912 Y-74.951 R1.688
G1 X21.844 Y-74.974
G2 X21.468 Y-75.058 R1.688
X21.239 Y-75.368 R1.688
G1 X21.19 Y-75.42
G2 X20.844 Y-75.704 R1.688
X20.568 Y-75.873 R39.629
X20.159 Y-76.052 R1.687
G1 X20.09 Y-76.072
G2 X19.708 Y-76.136 R1.687
X19.462 Y-76.435 R1.688
G1 X19.411 Y-76.484
G2 X19.051 Y-76.749 R1.688
X18.767 Y-76.903 R39.629
X18.347 Y-77.061 R1.687
G1 X18.278 Y-77.077
G2 X17.895 Y-77.121 R1.688
X17.634 Y-77.405 R1.687
G1 X17.58 Y-77.452
G2 X17.207 Y-77.698 R1.687
X16.914 Y-77.838 R39.629
X16.489 Y-77.973 R1.688
G1 X16.419 Y-77.986
G2 X16.032 Y-78.009 R1.688
X15.757 Y-78.28 R1.687
G1 X15.7 Y-78.324
G2 X15.314 Y-78.55 R1.688
X15.015 Y-78.674 R39.629
X14.584 Y-78.787 R1.687
G1 X14.513 Y-78.795
G2 X14.126 Y-78.799 R1.688
X13.836 Y-79.055 R1.688
G1 X13.777 Y-79.096
G2 X13.381 Y-79.301 R1.688
X13.075 Y-79.409 R39.629
X12.637 Y-79.5 R1.687
G1 X12.565 Y-79.505
G2 X12.181 Y-79.488 R1.688
X11.877 Y-79.729 R1.687
G1 X11.816 Y-79.767
G2 X11.41 Y-79.95 R1.687
X11.1 Y-80.042 R39.629
X10.658 Y-80.11 R1.687
G1 X10.586 Y-80.111
G2 X10.202 Y-80.074 R1.687
X9.889 Y-80.297 R1.688
G1 X9.826 Y-80.332
G2 X9.408 Y-80.496 R1.687
X9.093 Y-80.571 R39.629
X8.65 Y-80.615 R1.688
G1 X8.578 Y-80.613
G2 X8.195 Y-80.555 R1.687
X7.869 Y-80.763 R1.687
G1 X7.805 Y-80.794
G2 X7.381 Y-80.935 R1.688
X7.062 Y-80.994 R39.629
X6.615 Y-81.015 R1.687
G1 X6.544 Y-81.009
G2 X6.166 Y-80.931 R1.688
X5.83 Y-81.122 R1.687
G1 X5.764 Y-81.15
G2 X5.333 Y-81.268 R1.687
X5.012 Y-81.31 R39.629
X4.565 Y-81.308 R1.687
G1 X4.494 Y-81.298
G2 X4.12 Y-81.201 R1.687
X3.774 Y-81.373 R1.687
G1 X3.707 Y-81.398
G2 X3.271 Y-81.493 R1.687
X2.948 Y-81.519 R39.629
X2.501 Y-81.493 R1.688
G1 X2.431 Y-81.479
G2 X2.063 Y-81.363 R1.687
X1.71 Y-81.517 R1.687
G1 X1.641 Y-81.538
G2 X1.199 Y-81.61 R1.687
X0.875 Y-81.619 R39.629
X0.432 Y-81.57 R1.688
G1 X0.363 Y-81.553
G2 X0. Y-81.417 R1.688
X-0.363 Y-81.553 R1.688
G1 X-0.432 Y-81.57
G2 X-0.875 Y-81.619 R1.687
X-1.199 Y-81.61 R39.629
X-1.641 Y-81.538 R1.688
G1 X-1.71 Y-81.517
G2 X-2.063 Y-81.363 R1.687
X-2.431 Y-81.479 R1.687
G1 X-2.501 Y-81.493
G2 X-2.948 Y-81.519 R1.688
X-3.271 Y-81.493 R39.629
X-3.707 Y-81.398 R1.687
G1 X-3.774 Y-81.373
G2 X-4.12 Y-81.201 R1.688
X-4.494 Y-81.298 R1.687
G1 X-4.565 Y-81.308
G2 X-5.012 Y-81.31 R1.688
X-5.333 Y-81.268 R39.629
X-5.764 Y-81.15 R1.687
G1 X-5.83 Y-81.122
G2 X-6.166 Y-80.931 R1.688
X-6.544 Y-81.009 R1.687
G1 X-6.615 Y-81.015
G2 X-7.062 Y-80.994 R1.687
X-7.381 Y-80.935 R39.629
X-7.805 Y-80.794 R1.688
G1 X-7.869 Y-80.763
G2 X-8.195 Y-80.555 R1.687
X-8.578 Y-80.613 R1.687
G1 X-8.65 Y-80.615
G2 X-9.093 Y-80.571 R1.688
X-9.408 Y-80.496 R39.629
X-9.826 Y-80.332 R1.688
G1 X-9.889 Y-80.297
G2 X-10.202 Y-80.074 R1.687
X-10.586 Y-80.111 R1.688
G1 X-10.658 Y-80.11
G2 X-11.1 Y-80.042 R1.687
X-11.41 Y-79.95 R39.629
X-11.816 Y-79.767 R1.688
G1 X-11.877 Y-79.729
G2 X-12.181 Y-79.488 R1.688
X-12.565 Y-79.505 R1.688
G1 X-12.637 Y-79.5
G2 X-13.075 Y-79.409 R1.687
X-13.381 Y-79.301 R39.629
X-13.777 Y-79.096 R1.688
G1 X-13.836 Y-79.055
G2 X-14.126 Y-78.799 R1.688
X-14.513 Y-78.795 R1.688
G1 X-14.584 Y-78.787
G2 X-15.015 Y-78.674 R1.687
X-15.314 Y-78.55 R39.629
X-15.7 Y-78.324 R1.687
G1 X-15.757 Y-78.28
G2 X-16.032 Y-78.009 R1.687
X-16.419 Y-77.986 R1.688
G1 X-16.489 Y-77.973
G2 X-16.914 Y-77.838 R1.687
X-17.207 Y-77.698 R39.629
X-17.58 Y-77.452 R1.687
G1 X-17.634 Y-77.405
G2 X-17.895 Y-77.121 R1.687
X-18.278 Y-77.077 R1.688
G1 X-18.347 Y-77.061
G2 X-18.767 Y-76.903 R1.688
X-19.051 Y-76.749 R39.629
X-19.411 Y-76.484 R1.688
G1 X-19.462 Y-76.435
G2 X-19.708 Y-76.136 R1.688
X-20.09 Y-76.072 R1.687
G1 X-20.159 Y-76.052
G2 X-20.568 Y-75.873 R1.688
X-20.844 Y-75.704 R39.629
X-21.19 Y-75.42 R1.688
G1 X-21.239 Y-75.368
G2 X-21.468 Y-75.058 R1.688
X-21.844 Y-74.974 R1.688
G1 X-21.912 Y-74.951
G2 X-22.312 Y-74.751 R1.688
X-22.579 Y-74.567 R39.629
X-22.91 Y-74.265 R1.688
G1 X-22.956 Y-74.21
G2 X-23.169 Y-73.889 R1.688
X-23.542 Y-73.785 R1.687
G1 X-23.608 Y-73.758
G2 X-23.996 Y-73.538 R1.688
X-24.253 Y-73.34 R39.629
X-24.566 Y-73.024 R1.688
G1 X-24.609 Y-72.967
G2 X-24.806 Y-72.633 R1.688
X-25.171 Y-72.511 R1.688
G1 X-25.236 Y-72.481
G2 X-25.614 Y-72.239 R1.687
X-25.86 Y-72.028 R39.629
X-26.156 Y-71.695 R1.687
G1 X-26.196 Y-71.636
G2 X-26.375 Y-71.292 R1.687
X-26.734 Y-71.151 R1.688
G1 X-26.797 Y-71.117
G2 X-27.161 Y-70.857 R1.687
X-27.396 Y-70.634 R39.629
X-27.675 Y-70.284 R1.688
G1 X-27.712 Y-70.223
G2 X-27.872 Y-69.872 R1.687
X-28.223 Y-69.712 R1.687
G1 X-28.284 Y-69.675
G2 X-28.634 Y-69.396 R1.687
X-28.857 Y-69.161 R39.629
X-29.117 Y-68.797 R1.687
G1 X-29.151 Y-68.734
G2 X-29.292 Y-68.375 R1.687
X-29.636 Y-68.196 R1.688
G1 X-29.695 Y-68.156
G2 X-30.028 Y-67.86 R1.688
