(__120T_STEP3)
(T1  D=3.175 CR=0. - ZMIN=-8. - FLAT END MILL)
G90 G94 G91.1 G40 G49 G17
G21

(2D CONTOUR9)
M5
M9
T1
S10000 M3
G54
M8
G0 X34.964 Y62.613
G43 Z10. H1
Z5.
G1 Z3. F762.
Z2.5
G2 X40.588 Y42. Z-1.312 R40.588
X40.4 Y38.107 Z-2. R40.587
X-40.4 Y45.893 R40.588
X-24.353 Y74.47 R40.588
X-20.816 Y76.843 R40.588
X40.588 Y42. R40.588
X40.4 Y38.107 R40.587
X18.931 Y6.098 Z-4. R40.588
X-24.353 Y74.47 R40.588
X-20.816 Y76.843 R40.588
X40.588 Y42. R40.588
X18.931 Y6.098 R40.588
X-19.609 Y6.464 Z-6. R40.588
X-24.353 Y74.47 R40.588
X-20.816 Y76.843 R40.588
X40.588 Y42. R40.588
X-19.609 Y6.464 R40.588
X-40.467 Y38.875 Z-8. R40.588
X-24.353 Y74.47 R40.588
X-20.816 Y76.843 R40.588
X40.588 Y42. R40.588
X-40.467 Y38.875 R40.588
G0 Z5.
X30.384 Y-15.089
G1 Z3. F762.
Z2.5
G2 X40.4 Y-38.106 Z-2. R40.588
X40.588 Y-42. R40.588
X-40.588 R40.588
X-24.353 Y-9.53 R40.588
X-0.121 Y-1.412 R40.588
X40.4 Y-38.106 R40.588
X40.588 Y-42. Z-2.194 R40.588
X25.439 Y-73.626 Z-4. R40.587
X-32.053 Y-66.899 R40.588
X-24.353 Y-9.53 R40.588
X-0.121 Y-1.412 R40.588
X40.588 Y-42. R40.588
X25.439 Y-73.626 R40.587
X-12.462 Y-80.627 Z-6. R40.587
X-24.353 Y-9.53 R40.588
X-0.121 Y-1.412 R40.588
X40.588 Y-42. R40.588
X-12.462 Y-80.627 R40.587
X-24.353 Y-74.47 Z-6.67 R40.588
X-39.125 Y-52.796 Z-8. R40.587
X-24.353 Y-9.53 R40.588
X-0.121 Y-1.412 R40.588
X40.588 Y-42. R40.588
X-39.125 Y-52.796 R40.587
G0 Z10.

M9
M30
