(__120T_STEP3)
(T1  D=3.175 CR=0. - ZMIN=-8. - FLAT END MILL)
G90 G94 G91.1 G40 G49 G17
G21

(2D CONTOUR9)
M5
M9
T1
S10000 M3
G54
M8
G0 X-31.581 Y14.942
G43 Z10. H1
Z5.
G1 Z3. F762.
Z2.5
G2 X-41.401 Y38.066 Z-2. R41.588
X-24.952 Y75.27 R41.587
X-21.377 Y77.673 R41.588
X41.588 Y42. R41.588
X-41.401 Y38.066 R41.588
X-26.022 Y74.44 Z-4. R41.588
X-24.952 Y75.27 R41.587
X-21.377 Y77.673 R41.588
X41.588 Y42. R41.588
X-41.588 R41.588
X-26.022 Y74.44 R41.588
X-24.952 Y75.27 Z-4.066 R41.587
X-21.377 Y77.673 Z-4.275 R41.588
X12.822 Y81.562 Z-6. R41.588
X41.588 Y42. R41.588
X-41.587 R41.587
X-24.952 Y75.27 R41.587
X-21.377 Y77.673 R41.588
X12.822 Y81.562 R41.588
X40.104 Y53.009 Z-8. R41.588
X41.588 Y42. R41.588
X-41.587 R41.587
X-24.952 Y75.27 R41.587
X-21.377 Y77.673 R41.588
X40.104 Y53.009 R41.588
G0 Z5.
X-36.113 Y-62.625
G1 Z3. F762.
Z2.5
G2 X-41.401 Y-38.066 Z-2. R41.588
X-24.952 Y-8.73 R41.588
X0.117 Y-0.412 R41.588
X41.588 Y-42. R41.588
X-1.969 Y-83.541 R41.588
X-41.401 Y-38.066 R41.588
X-24.952 Y-8.73 Z-3.683 R41.587
X-19.446 Y-5.239 Z-4. R41.588
X0.117 Y-0.412 R41.588
X41.588 Y-42. R41.588
X-41.588 R41.587
X-24.952 Y-8.73 R41.587
X-19.446 Y-5.239 R41.588
X0.117 Y-0.412 Z-4.989 R41.588
X20.044 Y-5.561 Z-6. R41.588
X41.588 Y-42. R41.588
X-41.588 R41.587
X-24.952 Y-8.73 R41.587
X0.117 Y-0.412 R41.588
X20.044 Y-5.561 R41.588
X41.46 Y-38.742 Z-8. R41.588
X41.588 Y-42. R41.588
X-41.588 R41.587
X-24.952 Y-8.73 R41.587
X0.117 Y-0.412 R41.588
X41.46 Y-38.742 R41.588
G0 Z10.

M9
M30
