(__120T_STEP2)
(T3  D=1. CR=0. - ZMIN=-5.25 - FLAT END MILL)
G90 G94 G91.1 G40 G49 G17
G21

(2D CONTOUR8)
M5
M9
T3
S10000 M3
G54
M9
G0 X-34.657 Y25.554
G43 Z10. H3
Z5.
G1 Z2.5 F250.
G2 X-34.691 Y25.627 Z2.486 R38.361
X-34.725 Y25.733 Z2.466 R0.42
G1 X-34.738 Y25.803 Z2.454
G2 X-34.742 Y25.916 Z2.434 R0.42
G1 X-34.735 Y25.987 Z2.421
G2 X-34.707 Y26.104 Z2.4 R0.42
G1 X-34.676 Y26.181 Z2.385
G2 X-34.61 Y26.292 Z2.362 R0.42
G1 X-34.557 Y26.356 Z2.348
G2 X-34.513 Y26.401 Z2.336 R0.42
G1 X-34.397 Y26.505 Z2.309
X-34.295 Y26.604 Z2.284
X-34.276 Y26.625 Z2.279
X-34.318 Y26.718 Z2.261
X-34.32 Y26.723 Z2.26
X-34.36 Y26.815 Z2.242
X-34.394 Y26.816 Z2.236
X-34.531 Y26.807 Z2.212
X-34.686 Y26.789 Z2.184
G2 X-34.75 Y26.787 Z2.173 R0.42
G1 X-34.832 Y26.791 Z2.159
G2 X-34.959 Y26.816 Z2.136 R0.42
G1 X-35.036 Y26.844 Z2.121
G2 X-35.143 Y26.901 Z2.1 R0.42
G1 X-35.2 Y26.944 Z2.087
G2 X-35.281 Y27.023 Z2.067 R0.42
G1 X-35.325 Y27.079 Z2.055
G2 X-35.381 Y27.175 Z2.035 R0.42
X-35.501 Y27.465 Z1.98 R38.361
X-35.529 Y27.572 Z1.96 R0.42
G1 X-35.538 Y27.643 Z1.947
G2 X-35.536 Y27.756 Z1.928 R0.42
G1 X-35.526 Y27.827 Z1.915
G2 X-35.491 Y27.943 Z1.893 R0.42
G1 X-35.457 Y28.017 Z1.879
G2 X-35.384 Y28.125 Z1.856 R0.42
G1 X-35.329 Y28.186 Z1.842
G2 X-35.282 Y28.229 Z1.83 R0.42
G1 X-35.161 Y28.326 Z1.803
X-35.054 Y28.42 Z1.778
X-35.033 Y28.44 Z1.773
X-35.07 Y28.535 Z1.755
X-35.072 Y28.54 Z1.754
X-35.108 Y28.634 Z1.736
X-35.142 Y28.637 Z1.73
X-35.279 Y28.635 Z1.706
X-35.435 Y28.626 Z1.678
G2 X-35.498 Y28.627 Z1.667 R0.42
G1 X-35.58 Y28.634 Z1.653
G2 X-35.705 Y28.666 Z1.63 R0.42
G1 X-35.781 Y28.698 Z1.615
G2 X-35.884 Y28.761 Z1.594 R0.42
G1 X-35.94 Y28.807 Z1.581
G2 X-36.016 Y28.89 Z1.561 R0.42
G1 X-36.057 Y28.948 Z1.549
G2 X-36.108 Y29.047 Z1.529 R0.42
X-36.213 Y29.343 Z1.474 R38.361
X-36.235 Y29.452 Z1.454 R0.42
G1 X-36.24 Y29.523 Z1.441
G2 X-36.233 Y29.635 Z1.421 R0.42
G1 X-36.219 Y29.706 Z1.409
G2 X-36.178 Y29.819 Z1.387 R0.42
G1 X-36.14 Y29.892 Z1.373
G2 X-36.062 Y29.996 Z1.35 R0.42
G1 X-36.003 Y30.053 Z1.335
G2 X-35.955 Y30.094 Z1.324 R0.42
G1 X-35.828 Y30.185 Z1.297
X-35.717 Y30.273 Z1.272
X-35.695 Y30.292 Z1.267
X-35.727 Y30.389 Z1.249
X-35.729 Y30.394 Z1.248
X-35.759 Y30.49 Z1.23
X-35.793 Y30.494 Z1.224
X-35.93 Y30.499 Z1.2
X-36.086 Y30.498 Z1.172
G2 X-36.149 Y30.503 Z1.161 R0.42
G1 X-36.231 Y30.515 Z1.147
G2 X-36.354 Y30.553 Z1.124 R0.42
G1 X-36.428 Y30.589 Z1.109
G2 X-36.528 Y30.657 Z1.088 R0.42
G1 X-36.581 Y30.706 Z1.075
G2 X-36.653 Y30.793 Z1.055 R0.42
G1 X-36.691 Y30.854 Z1.043
G2 X-36.736 Y30.955 Z1.023 R0.42
X-36.826 Y31.255 Z0.968 R38.361
X-36.842 Y31.365 Z0.948 R0.42
G1 X-36.844 Y31.437 Z0.935
G2 X-36.831 Y31.548 Z0.915 R0.42
G1 X-36.813 Y31.618 Z0.903
G2 X-36.766 Y31.73 Z0.881 R0.42
G1 X-36.724 Y31.801 Z0.867
G2 X-36.641 Y31.9 Z0.844 R0.42
G1 X-36.579 Y31.954 Z0.829
G2 X-36.528 Y31.992 Z0.818 R0.42
G1 X-36.397 Y32.076 Z0.791
X-36.281 Y32.158 Z0.766
X-36.259 Y32.176 Z0.761
X-36.286 Y32.275 Z0.743
X-36.287 Y32.28 Z0.742
X-36.312 Y32.377 Z0.724
X-36.346 Y32.383 Z0.718
X-36.483 Y32.395 Z0.694
X-36.639 Y32.403 Z0.666
G2 X-36.702 Y32.411 Z0.655 R0.42
G1 X-36.782 Y32.427 Z0.641
G2 X-36.903 Y32.471 Z0.618 R0.42
G1 X-36.975 Y32.511 Z0.603
G2 X-37.072 Y32.585 Z0.582 R0.42
G1 X-37.122 Y32.636 Z0.569
G2 X-37.189 Y32.726 Z0.549 R0.42
G1 X-37.224 Y32.788 Z0.537
G2 X-37.264 Y32.893 Z0.517 R0.42
X-37.337 Y33.197 Z0.462 R38.361
X-37.348 Y33.308 Z0.442 R0.42
G1 X-37.346 Y33.379 Z0.429
G2 X-37.327 Y33.49 Z0.409 R0.42
G1 X-37.306 Y33.558 Z0.397
G2 X-37.253 Y33.668 Z0.375 R0.42
G1 X-37.207 Y33.736 Z0.361
G2 X-37.119 Y33.831 Z0.338 R0.42
G1 X-37.055 Y33.882 Z0.323
G2 X-37.002 Y33.918 Z0.312 R0.42
G1 X-36.867 Y33.995 Z0.285
X-36.747 Y34.07 Z0.26
X-36.723 Y34.087 Z0.255
X-36.745 Y34.187 Z0.237
X-36.746 Y34.192 Z0.236
X-36.766 Y34.291 Z0.218
X-36.799 Y34.299 Z0.212
X-36.935 Y34.318 Z0.188
X-37.091 Y34.333 Z0.16
G2 X-37.153 Y34.344 Z0.149 R0.42
G1 X-37.233 Y34.365 Z0.135
G2 X-37.352 Y34.416 Z0.112 R0.42
G1 X-37.422 Y34.46 Z0.097
G2 X-37.514 Y34.538 Z0.076 R0.42
G1 X-37.561 Y34.591 Z0.063
G2 X-37.624 Y34.685 Z0.043 R0.42
G1 X-37.655 Y34.75 Z0.031
G2 X-37.69 Y34.855 Z0.011 R0.42
X-37.747 Y35.163 Z-0.044 R38.361
X-37.752 Y35.275 Z-0.064 R0.42
G1 X-37.746 Y35.346 Z-0.077
G2 X-37.721 Y35.456 Z-0.097 R0.42
G1 X-37.696 Y35.523 Z-0.109
G2 X-37.638 Y35.629 Z-0.131 R0.42
G1 X-37.589 Y35.695 Z-0.145
G2 X-37.496 Y35.785 Z-0.168 R0.42
G1 X-37.428 Y35.833 Z-0.183
G2 X-37.375 Y35.865 Z-0.194 R0.42
G1 X-37.235 Y35.935 Z-0.221
X-37.111 Y36.004 Z-0.246
X-37.087 Y36.02 Z-0.251
X-37.103 Y36.121 Z-0.269
X-37.104 Y36.126 Z-0.27
X-37.119 Y36.225 Z-0.288
X-37.152 Y36.235 Z-0.294
X-37.287 Y36.262 Z-0.318
X-37.441 Y36.285 Z-0.346
G2 X-37.503 Y36.299 Z-0.357 R0.42
G1 X-37.581 Y36.324 Z-0.372
G2 X-37.698 Y36.381 Z-0.394 R0.42
G1 X-37.765 Y36.428 Z-0.409
G2 X-37.853 Y36.512 Z-0.43 R0.42
G1 X-37.898 Y36.568 Z-0.443
G2 X-37.955 Y36.664 Z-0.463 R0.42
G1 X-37.983 Y36.73 Z-0.475
G2 X-38.012 Y36.837 Z-0.495 R0.42
X-38.053 Y37.148 Z-0.55 R38.361
X-38.052 Y37.26 Z-0.57 R0.42
G1 X-38.042 Y37.33 Z-0.583
G2 X-38.012 Y37.439 Z-0.603 R0.42
G1 X-37.984 Y37.504 Z-0.615
G2 X-37.92 Y37.608 Z-0.637 R0.42
G1 X-37.867 Y37.671 Z-0.651
G2 X-37.77 Y37.756 Z-0.674 R0.42
G1 X-37.7 Y37.8 Z-0.689
G2 X-37.644 Y37.83 Z-0.7 R0.42
G1 X-37.501 Y37.892 Z-0.727
X-37.374 Y37.955 Z-0.752
X-37.349 Y37.969 Z-0.757
X-37.36 Y38.071 Z-0.775
X-37.361 Y38.076 Z-0.776
X-37.371 Y38.176 Z-0.794
X-37.403 Y38.187 Z-0.8
X-37.536 Y38.221 Z-0.824
X-37.689 Y38.252 Z-0.852
G2 X-37.75 Y38.27 Z-0.863 R0.42
G1 X-37.827 Y38.299 Z-0.878
G2 X-37.94 Y38.362 Z-0.901 R0.42
G1 X-38.005 Y38.413 Z-0.915
G2 X-38.088 Y38.5 Z-0.936 R0.42
G1 X-38.13 Y38.558 Z-0.949
G2 X-38.182 Y38.658 Z-0.969 R0.42
G1 X-38.206 Y38.725 Z-0.982
G2 X-38.23 Y38.827 Z-1. R0.42
G1 Y38.834 F400.
G2 X-38.255 Y39.146 R38.361
X-38.248 Y39.258 R0.42
G1 X-38.235 Y39.328
G2 X-38.199 Y39.435 R0.42
G1 X-38.167 Y39.499
G2 X-38.098 Y39.598 R0.42
G1 X-38.042 Y39.658
G2 X-37.94 Y39.739 R0.42
G1 X-37.868 Y39.779
G2 X-37.811 Y39.806 R0.42
G1 X-37.665 Y39.861
X-37.535 Y39.916
X-37.509 Y39.93
X-37.515 Y40.032
Y40.037
X-37.52 Y40.137
X-37.551 Y40.15
X-37.682 Y40.191
X-37.833 Y40.23
G2 X-37.893 Y40.251 R0.42
G1 X-37.969 Y40.283
G2 X-38.078 Y40.352 R0.42
G1 X-38.14 Y40.406
G2 X-38.22 Y40.499 R0.42
G1 X-38.258 Y40.559
G2 X-38.304 Y40.661 R0.42
G1 X-38.325 Y40.729
G2 X-38.344 Y40.839 R0.42
X-38.352 Y41.153 R38.361
X-38.339 Y41.263 R0.42
G1 X-38.322 Y41.332
G2 X-38.281 Y41.437 R0.42
G1 X-38.246 Y41.5
G2 X-38.172 Y41.595 R0.42
G1 X-38.112 Y41.653
G2 X-38.007 Y41.727 R0.42
G1 X-37.933 Y41.764
G2 X-37.874 Y41.788 R0.42
G1 X-37.725 Y41.835
X-37.592 Y41.884
X-37.566 Y41.896
Y41.998
Y42.003
Y42.103
X-37.597 Y42.118
X-37.725 Y42.165
X-37.874 Y42.212
G2 X-37.933 Y42.236 R0.42
G1 X-38.007 Y42.273
G2 X-38.112 Y42.347 R0.42
G1 X-38.172 Y42.405
G2 X-38.246 Y42.5 R0.42
G1 X-38.281 Y42.563
G2 X-38.322 Y42.668 R0.42
G1 X-38.339 Y42.737
G2 X-38.352 Y42.847 R0.42
X-38.344 Y43.161 R38.361
X-38.325 Y43.271 R0.42
G1 X-38.304 Y43.339
G2 X-38.258 Y43.441 R0.42
G1 X-38.22 Y43.501
G2 X-38.14 Y43.594 R0.42
G1 X-38.078 Y43.648
G2 X-37.969 Y43.717 R0.42
G1 X-37.893 Y43.749
G2 X-37.833 Y43.77 R0.42
G1 X-37.682 Y43.809
X-37.547 Y43.851
X-37.52 Y43.862
X-37.515 Y43.964
Y43.969
X-37.509 Y44.069
X-37.539 Y44.085
X-37.665 Y44.139
X-37.811 Y44.194
G2 X-37.868 Y44.221 R0.42
G1 X-37.94 Y44.261
G2 X-38.042 Y44.342 R0.42
G1 X-38.098 Y44.402
G2 X-38.167 Y44.501 R0.42
G1 X-38.199 Y44.565
G2 X-38.235 Y44.672 R0.42
G1 X-38.248 Y44.742
G2 X-38.255 Y44.854 R0.42
X-38.23 Y45.166 R38.361
X-38.206 Y45.275 R0.42
G1 X-38.182 Y45.342
G2 X-38.13 Y45.442 R0.42
G1 X-38.088 Y45.5
G2 X-38.005 Y45.587 R0.42
G1 X-37.94 Y45.638
G2 X-37.827 Y45.701 R0.42
G1 X-37.75 Y45.73
G2 X-37.689 Y45.748 R0.42
G1 X-37.536 Y45.779
X-37.399 Y45.814
X-37.371 Y45.823
X-37.361 Y45.924
X-37.36 Y45.93
X-37.349 Y46.029
X-37.378 Y46.047
X-37.501 Y46.108
X-37.644 Y46.17
G2 X-37.7 Y46.2 R0.42
G1 X-37.77 Y46.244
G2 X-37.867 Y46.329 R0.42
G1 X-37.92 Y46.392
G2 X-37.984 Y46.496 R0.42
G1 X-38.012 Y46.561
G2 X-38.042 Y46.67 R0.42
G1 X-38.052 Y46.74
G2 X-38.053 Y46.852 R0.42
X-38.012 Y47.163 R38.361
X-37.983 Y47.27 R0.42
G1 X-37.955 Y47.336
G2 X-37.898 Y47.432 R0.42
G1 X-37.853 Y47.488
G2 X-37.765 Y47.572 R0.42
G1 X-37.698 Y47.619
G2 X-37.581 Y47.676 R0.42
G1 X-37.503 Y47.701
G2 X-37.441 Y47.715 R0.42
G1 X-37.287 Y47.738
X-37.148 Y47.766
X-37.12 Y47.773
X-37.104 Y47.874
X-37.103 Y47.88
X-37.087 Y47.979
X-37.115 Y47.998
X-37.235 Y48.065
X-37.375 Y48.135
G2 X-37.428 Y48.167 R0.42
G1 X-37.496 Y48.215
G2 X-37.589 Y48.305 R0.42
G1 X-37.638 Y48.371
G2 X-37.696 Y48.477 R0.42
G1 X-37.721 Y48.544
G2 X-37.746 Y48.654 R0.42
G1 X-37.752 Y48.725
G2 X-37.747 Y48.837 R0.42
X-37.69 Y49.145 R38.361
X-37.655 Y49.25 R0.42
G1 X-37.624 Y49.315
G2 X-37.561 Y49.409 R0.42
G1 X-37.514 Y49.462
G2 X-37.422 Y49.54 R0.42
G1 X-37.352 Y49.584
G2 X-37.233 Y49.635 R0.42
G1 X-37.153 Y49.656
G2 X-37.091 Y49.667 R0.42
G1 X-36.935 Y49.682
X-36.795 Y49.702
X-36.767 Y49.708
X-36.746 Y49.808
X-36.745 Y49.813
X-36.723 Y49.911
X-36.751 Y49.932
X-36.867 Y50.005
X-37.002 Y50.082
G2 X-37.055 Y50.118 R0.42
G1 X-37.119 Y50.169
G2 X-37.207 Y50.264 R0.42
G1 X-37.253 Y50.332
G2 X-37.306 Y50.442 R0.42
G1 X-37.327 Y50.51
G2 X-37.346 Y50.621 R0.42
G1 X-37.348 Y50.692
G2 X-37.337 Y50.803 R0.42
X-37.264 Y51.107 R38.361
X-37.224 Y51.212 R0.42
G1 X-37.189 Y51.274
G2 X-37.122 Y51.364 R0.42
G1 X-37.072 Y51.415
G2 X-36.975 Y51.489 R0.42
G1 X-36.903 Y51.529
G2 X-36.782 Y51.573 R0.42
G1 X-36.702 Y51.589
G2 X-36.639 Y51.597 R0.42
G1 X-36.483 Y51.605
X-36.342 Y51.617
X-36.313 Y51.622
X-36.287 Y51.721
X-36.286 Y51.726
X-36.259 Y51.822
X-36.285 Y51.845
X-36.397 Y51.924
X-36.528 Y52.008
G2 X-36.579 Y52.046 R0.42
G1 X-36.641 Y52.1
G2 X-36.724 Y52.199 R0.42
G1 X-36.766 Y52.27
G2 X-36.813 Y52.382 R0.42
G1 X-36.831 Y52.452
G2 X-36.844 Y52.563 R0.42
G1 X-36.842 Y52.635
G2 X-36.826 Y52.745 R0.42
X-36.736 Y53.045 R38.361
X-36.691 Y53.146 R0.42
G1 X-36.653 Y53.207
G2 X-36.581 Y53.294 R0.42
G1 X-36.528 Y53.343
G2 X-36.428 Y53.411 R0.42
G1 X-36.354 Y53.447
G2 X-36.231 Y53.485 R0.42
G1 X-36.149 Y53.497
G2 X-36.086 Y53.502 R0.42
G1 X-35.93 Y53.501
X-35.788 Y53.506
X-35.759 Y53.509
X-35.728 Y53.606
X-35.727 Y53.611
X-35.695 Y53.707
X-35.72 Y53.73
X-35.828 Y53.815
X-35.955 Y53.906
G2 X-36.003 Y53.947 R0.42
G1 X-36.062 Y54.004
G2 X-36.14 Y54.108 R0.42
G1 X-36.178 Y54.181
G2 X-36.219 Y54.294 R0.42
G1 X-36.233 Y54.365
G2 X-36.24 Y54.477 R0.42
G1 X-36.235 Y54.548
G2 X-36.213 Y54.657 R0.42
X-36.108 Y54.953 R38.361
X-36.057 Y55.051 R0.42
G1 X-36.016 Y55.11
G2 X-35.94 Y55.193 R0.42
G1 X-35.884 Y55.239
G2 X-35.781 Y55.302 R0.42
G1 X-35.705 Y55.334
G2 X-35.58 Y55.366 R0.42
G1 X-35.498 Y55.373
G2 X-35.435 Y55.374 R0.42
G1 X-35.279 Y55.365
X-35.137 Y55.363
X-35.108 Y55.365
X-35.072 Y55.46
X-35.07 Y55.465
X-35.034 Y55.559
X-35.057 Y55.583
X-35.161 Y55.674
X-35.282 Y55.771
G2 X-35.329 Y55.814 R0.42
G1 X-35.384 Y55.875
G2 X-35.457 Y55.983 R0.42
G1 X-35.491 Y56.057
G2 X-35.526 Y56.173 R0.42
G1 X-35.536 Y56.244
G2 X-35.538 Y56.357 R0.42
G1 X-35.529 Y56.428
G2 X-35.501 Y56.535 R0.42
X-35.381 Y56.825 R38.361
X-35.325 Y56.921 R0.42
G1 X-35.281 Y56.977
G2 X-35.2 Y57.056 R0.42
G1 X-35.143 Y57.099
G2 X-35.036 Y57.156 R0.42
G1 X-34.959 Y57.184
G2 X-34.832 Y57.209 R0.42
G1 X-34.75 Y57.213
G2 X-34.686 Y57.211 R0.42
G1 X-34.531 Y57.193
X-34.39 Y57.184
X-34.361
X-34.32 Y57.277
X-34.317 Y57.282
X-34.276 Y57.374
X-34.298 Y57.4
X-34.397 Y57.495
X-34.513 Y57.599
G2 X-34.557 Y57.644 R0.42
G1 X-34.61 Y57.708
G2 X-34.676 Y57.819 R0.42
G1 X-34.707 Y57.896
G2 X-34.735 Y58.013 R0.42
G1 X-34.742 Y58.084
G2 X-34.738 Y58.197 R0.42
G1 X-34.725 Y58.267
G2 X-34.691 Y58.373 R0.42
X-34.556 Y58.656 R38.361
X-34.495 Y58.749 R0.42
G1 X-34.448 Y58.803
G2 X-34.364 Y58.878 R0.42
G1 X-34.304 Y58.917
G2 X-34.195 Y58.969 R0.42
G1 X-34.116 Y58.993
G2 X-33.988 Y59.012 R0.42
G1 X-33.906 Y59.011
G2 X-33.843 Y59.005 R0.42
G1 X-33.689 Y58.98
X-33.548 Y58.963
X-33.519 Y58.961
X-33.473 Y59.053
X-33.47 Y59.057
X-33.424 Y59.146
X-33.445 Y59.174
X-33.539 Y59.274
X-33.65 Y59.384
G2 X-33.691 Y59.432 R0.42
G1 X-33.74 Y59.498
G2 X-33.801 Y59.612 R0.42
G1 X-33.827 Y59.69
G2 X-33.85 Y59.809 R0.42
G1 X-33.853 Y59.881
G2 X-33.842 Y59.992 R0.42
G1 X-33.826 Y60.062
G2 X-33.787 Y60.166 R0.42
X-33.637 Y60.442 R38.361
X-33.572 Y60.531 R0.42
G1 X-33.522 Y60.583
G2 X-33.434 Y60.653 R0.42
G1 X-33.372 Y60.689
G2 X-33.259 Y60.736 R0.42
G1 X-33.18 Y60.755
G2 X-33.051 Y60.767 R0.42
G1 X-32.969 Y60.762
G2 X-32.906 Y60.753 R0.42
G1 X-32.754 Y60.72
X-32.614 Y60.695
X-32.585 Y60.692
X-32.535 Y60.781
X-32.532 Y60.786
X-32.481 Y60.872
X-32.501 Y60.9
X-32.589 Y61.006
X-32.694 Y61.121
G2 X-32.733 Y61.171 R0.42
G1 X-32.778 Y61.239
G2 X-32.833 Y61.357 R0.42
G1 X-32.855 Y61.436
G2 X-32.871 Y61.556 R0.42
G1 Y61.628
G2 X-32.854 Y61.739 R0.42
G1 X-32.834 Y61.808
G2 X-32.79 Y61.91 R0.42
X-32.626 Y62.177 R38.361
X-32.555 Y62.263 R0.42
G1 X-32.503 Y62.312
G2 X-32.412 Y62.377 R0.42
G1 X-32.348 Y62.41
G2 X-32.234 Y62.45 R0.42
G1 X-32.153 Y62.466
G2 X-32.023 Y62.471 R0.42
G1 X-31.942 Y62.462
G2 X-31.88 Y62.449 R0.42
G1 X-31.729 Y62.408
X-31.591 Y62.377
X-31.562 Y62.372
X-31.507 Y62.458
X-31.504 Y62.462
X-31.449 Y62.546
X-31.467 Y62.575
X-31.549 Y62.685
X-31.648 Y62.806
G2 X-31.685 Y62.858 R0.42
G1 X-31.727 Y62.929
G2 X-31.774 Y63.048 R0.42
G1 X-31.793 Y63.129
G2 X-31.803 Y63.25 R0.42
G1 X-31.798 Y63.322
G2 X-31.776 Y63.431 R0.42
G1 X-31.753 Y63.499
G2 X-31.703 Y63.599 R0.42
X-31.525 Y63.857 R38.361
X-31.45 Y63.939 R0.42
G1 X-31.395 Y63.985
G2 X-31.3 Y64.045 R0.42
G1 X-31.235 Y64.075
G2 X-31.119 Y64.109 R0.42
G1 X-31.038 Y64.121
G2 X-30.908 Y64.119 R0.42
G1 X-30.827 Y64.105
G2 X-30.766 Y64.09 R0.42
G1 X-30.618 Y64.041
X-30.481 Y64.002
X-30.453 Y63.996
X-30.393 Y64.079
X-30.39 Y64.083
X-30.331 Y64.164
X-30.347 Y64.194
X-30.423 Y64.308
X-30.516 Y64.434
G2 X-30.55 Y64.488 R0.42
G1 X-30.588 Y64.561
G2 X-30.629 Y64.683 R0.42
G1 X-30.644 Y64.764
G2 X-30.647 Y64.885 R0.42
G1 X-30.639 Y64.956
G2 X-30.611 Y65.066 R0.42
G1 X-30.584 Y65.132
G2 X-30.529 Y65.228 R0.42
X-30.338 Y65.477 R38.361
X-30.259 Y65.555 R0.42
G1 X-30.202 Y65.598
G2 X-30.103 Y65.654 R0.42
G1 X-30.037 Y65.68
G2 X-29.92 Y65.708 R0.42
G1 X-29.838 Y65.715
G2 X-29.708 Y65.706 R0.42
G1 X-29.628 Y65.688
G2 X-29.567 Y65.67 R0.42
G1 X-29.422 Y65.613
X-29.288 Y65.567
X-29.26 Y65.56
X-29.196 Y65.64
X-29.193 Y65.643
X-29.129 Y65.721
X-29.144 Y65.752
X-29.214 Y65.87
X-29.3 Y66.
G2 X-29.331 Y66.055 R0.42
G1 X-29.365 Y66.13
G2 X-29.4 Y66.255 R0.42
G1 X-29.41 Y66.337
G2 X-29.407 Y66.458 R0.42
G1 X-29.395 Y66.528
G2 X-29.362 Y66.635 R0.42
G1 X-29.332 Y66.7
G2 X-29.272 Y66.794 R0.42
X-29.068 Y67.033 R38.361
X-28.985 Y67.106 R0.42
G1 X-28.926 Y67.146
G2 X-28.824 Y67.197 R0.42
G1 X-28.757 Y67.219
G2 X-28.638 Y67.241 R0.42
G1 X-28.556 Y67.244
G2 X-28.427 Y67.229 R0.42
G1 X-28.348 Y67.207
G2 X-28.288 Y67.185 R0.42
G1 X-28.146 Y67.12
X-28.014 Y67.068
X-27.987 Y67.059
X-27.919 Y67.135
X-27.915 Y67.139
X-27.848 Y67.213
X-27.861 Y67.245
X-27.925 Y67.366
X-28.004 Y67.501
G2 X-28.031 Y67.558 R0.42
G1 X-28.062 Y67.634
G2 X-28.091 Y67.76 R0.42
G1 X-28.096 Y67.842
G2 X-28.087 Y67.963 R0.42
G1 X-28.071 Y68.033
G2 X-28.032 Y68.139 R0.42
G1 X-27.999 Y68.202
G2 X-27.934 Y68.292 R0.42
X-27.718 Y68.52 R38.361
X-27.631 Y68.589 R0.42
G1 X-27.57 Y68.626
G2 X-27.467 Y68.67 R0.42
G1 X-27.398 Y68.69
G2 X-27.278 Y68.705 R0.42
G1 X-27.195 Y68.704
G2 X-27.067 Y68.682 R0.42
G1 X-26.989 Y68.655
G2 X-26.932 Y68.631 R0.42
G1 X-26.793 Y68.559
X-26.664 Y68.499
X-26.637 Y68.489
X-26.565 Y68.562
X-26.561 Y68.565
X-26.49 Y68.636
X-26.501 Y68.668
X-26.559 Y68.793
X-26.631 Y68.932
G2 X-26.655 Y68.989 R0.42
G1 X-26.682 Y69.067
G2 X-26.704 Y69.195 R0.42
G1 X-26.705 Y69.278
G2 X-26.69 Y69.398 R0.42
G1 X-26.67 Y69.467
G2 X-26.626 Y69.57 R0.42
G1 X-26.589 Y69.631
G2 X-26.52 Y69.718 R0.42
X-26.292 Y69.934 R38.361
X-26.202 Y69.999 R0.42
G1 X-26.139 Y70.032
G2 X-26.033 Y70.071 R0.42
G1 X-25.963 Y70.087
G2 X-25.842 Y70.096 R0.42
G1 X-25.76 Y70.091
G2 X-25.634 Y70.062 R0.42
G1 X-25.558 Y70.031
G2 X-25.501 Y70.004 R0.42
G1 X-25.366 Y69.925
X-25.241 Y69.859
X-25.214 Y69.847
X-25.138 Y69.916
X-25.135 Y69.919
X-25.06 Y69.986
X-25.069 Y70.019
X-25.12 Y70.146
X-25.185 Y70.288
G2 X-25.207 Y70.348 R0.42
G1 X-25.229 Y70.427
G2 X-25.244 Y70.556 R0.42
G1 X-25.241 Y70.638
G2 X-25.219 Y70.757 R0.42
G1 X-25.197 Y70.824
G2 X-25.146 Y70.926 R0.42
G1 X-25.106 Y70.985
G2 X-25.033 Y71.068 R0.42
X-24.794 Y71.272 R38.361
X-24.7 Y71.332 R0.42
G1 X-24.635 Y71.362
G2 X-24.528 Y71.395 R0.42
G1 X-24.458 Y71.407
G2 X-24.337 Y71.41 R0.42
G1 X-24.255 Y71.4
G2 X-24.13 Y71.365 R0.42
G1 X-24.055 Y71.331
G2 X-24. Y71.3 R0.42
G1 X-23.87 Y71.214
X-23.748 Y71.142
X-23.722 Y71.128
X-23.643 Y71.193
X-23.639 Y71.196
X-23.561 Y71.259
X-23.569 Y71.292
X-23.613 Y71.422
X-23.67 Y71.567
G2 X-23.688 Y71.628 R0.42
G1 X-23.706 Y71.708
G2 X-23.715 Y71.838 R0.42
G1 X-23.708 Y71.92
G2 X-23.68 Y72.037 R0.42
G1 X-23.654 Y72.103
G2 X-23.598 Y72.202 R0.42
G1 X-23.555 Y72.259
G2 X-23.477 Y72.338 R0.42
X-23.228 Y72.529 R38.361
X-23.132 Y72.584 R0.42
G1 X-23.066 Y72.611
G2 X-22.956 Y72.639 R0.42
G1 X-22.885 Y72.647
G2 X-22.764 Y72.644 R0.42
G1 X-22.683 Y72.629
G2 X-22.561 Y72.588 R0.42
G1 X-22.488 Y72.55
G2 X-22.434 Y72.516 R0.42
G1 X-22.308 Y72.423
X-22.19 Y72.344
X-22.165 Y72.33
X-22.083 Y72.39
X-22.079 Y72.393
X-21.997 Y72.452
X-22.003 Y72.486
X-22.041 Y72.618
X-22.09 Y72.766
G2 X-22.105 Y72.827 R0.42
G1 X-22.119 Y72.908
G2 X-22.121 Y73.038 R0.42
G1 X-22.109 Y73.119
G2 X-22.075 Y73.235 R0.42
G1 X-22.045 Y73.3
G2 X-21.985 Y73.395 R0.42
G1 X-21.939 Y73.45
G2 X-21.857 Y73.525 R0.42
X-21.599 Y73.703 R38.361
X-21.499 Y73.753 R0.42
G1 X-21.431 Y73.776
G2 X-21.322 Y73.798 R0.42
G1 X-21.25 Y73.803
G2 X-21.129 Y73.793 R0.42
G1 X-21.048 Y73.774
G2 X-20.929 Y73.727 R0.42
G1 X-20.858 Y73.685
G2 X-20.806 Y73.648 R0.42
G1 X-20.685 Y73.549
X-20.572 Y73.464
X-20.547 Y73.448
X-20.462 Y73.505
X-20.458 Y73.507
X-20.373 Y73.561
X-20.378 Y73.595
X-20.408 Y73.729
X-20.449 Y73.88
G2 X-20.462 Y73.942 R0.42
G1 X-20.471 Y74.023
G2 X-20.466 Y74.153 R0.42
G1 X-20.45 Y74.234
G2 X-20.41 Y74.348 R0.42
G1 X-20.377 Y74.412
G2 X-20.312 Y74.503 R0.42
G1 X-20.263 Y74.555
G2 X-20.177 Y74.626 R0.42
X-19.91 Y74.79 R38.361
X-19.808 Y74.834 R0.42
G1 X-19.739 Y74.854
G2 X-19.628 Y74.871 R0.42
G1 X-19.556
G2 X-19.436 Y74.855 R0.42
G1 X-19.357 Y74.833
G2 X-19.239 Y74.778 R0.42
G1 X-19.171 Y74.733
G2 X-19.121 Y74.694 R0.42
G1 X-19.006 Y74.589
X-18.897 Y74.498
X-18.873 Y74.481
X-18.785 Y74.532
X-18.781 Y74.535
X-18.693 Y74.584
X-18.696 Y74.618
X-18.72 Y74.754
X-18.753 Y74.906
G2 X-18.762 Y74.969 R0.42
G1 X-18.767 Y75.051
G2 X-18.755 Y75.18 R0.42
G1 X-18.736 Y75.259
G2 X-18.689 Y75.372 R0.42
G1 X-18.653 Y75.434
G2 X-18.583 Y75.522 R0.42
G1 X-18.531 Y75.572
G2 X-18.442 Y75.637 R0.42
X-18.166 Y75.787 R38.361
X-18.062 Y75.826 R0.42
G1 X-17.992 Y75.842
G2 X-17.881 Y75.853 R0.42
G1 X-17.809 Y75.85
G2 X-17.69 Y75.827 R0.42
G1 X-17.612 Y75.801
G2 X-17.498 Y75.74 R0.42
G1 X-17.432 Y75.691
G2 X-17.384 Y75.65 R0.42
G1 X-17.274 Y75.539
X-17.17 Y75.442
X-17.148 Y75.424
X-17.057 Y75.471
X-17.052 Y75.473
X-16.962 Y75.518
X-16.963 Y75.552
X-16.98 Y75.689
X-17.005 Y75.843
G2 X-17.011 Y75.906 R0.42
G1 X-17.012 Y75.988
G2 X-16.993 Y76.116 R0.42
G1 X-16.969 Y76.195
G2 X-16.917 Y76.304 R0.42
G1 X-16.878 Y76.364
G2 X-16.803 Y76.448 R0.42
G1 X-16.749 Y76.495
G2 X-16.656 Y76.556 R0.42
X-16.373 Y76.691 R38.361
X-16.267 Y76.725 R0.42
G1 X-16.197 Y76.738
G2 X-16.084 Y76.742 R0.42
G1 X-16.013 Y76.735
G2 X-15.896 Y76.707 R0.42
G1 X-15.819 Y76.676
G2 X-15.708 Y76.61 R0.42
G1 X-15.644 Y76.557
G2 X-15.599 Y76.513 R0.42
G1 X-15.495 Y76.397
X-15.396 Y76.295
X-15.375 Y76.276
X-15.282 Y76.318
X-15.277 Y76.32
X-15.185 Y76.36
X-15.184 Y76.394
X-15.193 Y76.531
X-15.211 Y76.686
G2 X-15.213 Y76.75 R0.42
G1 X-15.209 Y76.832
G2 X-15.184 Y76.959 R0.42
G1 X-15.156 Y77.036
G2 X-15.099 Y77.143 R0.42
G1 X-15.056 Y77.2
G2 X-14.977 Y77.281 R0.42
G1 X-14.921 Y77.325
G2 X-14.825 Y77.381 R0.42
X-14.535 Y77.501 R38.361
X-14.428 Y77.529 R0.42
G1 X-14.357 Y77.538
G2 X-14.244 Y77.536 R0.42
G1 X-14.173 Y77.526
G2 X-14.057 Y77.491 R0.42
G1 X-13.983 Y77.457
G2 X-13.875 Y77.384 R0.42
G1 X-13.814 Y77.329
G2 X-13.771 Y77.282 R0.42
G1 X-13.674 Y77.161
X-13.58 Y77.054
X-13.56 Y77.033
X-13.465 Y77.07
X-13.46 Y77.072
X-13.366 Y77.108
X-13.363 Y77.142
X-13.365 Y77.279
X-13.374 Y77.435
G2 X-13.373 Y77.498 R0.42
G1 X-13.366 Y77.58
G2 X-13.334 Y77.705 R0.42
G1 X-13.302 Y77.781
G2 X-13.239 Y77.884 R0.42
G1 X-13.193 Y77.94
G2 X-13.11 Y78.016 R0.42
G1 X-13.051 Y78.057
G2 X-12.953 Y78.108 R0.42
X-12.657 Y78.213 R38.361
X-12.548 Y78.235 R0.42
G1 X-12.477 Y78.24
G2 X-12.365 Y78.233 R0.42
G1 X-12.294 Y78.219
G2 X-12.181 Y78.178 R0.42
G1 X-12.108 Y78.14
G2 X-12.004 Y78.062 R0.42
G1 X-11.947 Y78.003
G2 X-11.906 Y77.955 R0.42
G1 X-11.815 Y77.828
X-11.727 Y77.717
X-11.708 Y77.695
X-11.611 Y77.727
X-11.606 Y77.729
X-11.51 Y77.759
X-11.506 Y77.793
X-11.501 Y77.93
X-11.502 Y78.086
G2 X-11.497 Y78.149 R0.42
G1 X-11.485 Y78.231
G2 X-11.447 Y78.354 R0.42
G1 X-11.411 Y78.428
G2 X-11.343 Y78.528 R0.42
G1 X-11.294 Y78.581
G2 X-11.207 Y78.653 R0.42
G1 X-11.146 Y78.691
G2 X-11.045 Y78.737 R0.42
X-10.745 Y78.826 R38.361
X-10.635 Y78.842 R0.42
G1 X-10.563 Y78.844
G2 X-10.452 Y78.831 R0.42
G1 X-10.382 Y78.813
G2 X-10.27 Y78.766 R0.42
G1 X-10.199 Y78.724
G2 X-10.1 Y78.641 R0.42
G1 X-10.046 Y78.579
G2 X-10.008 Y78.528 R0.42
G1 X-9.924 Y78.397
X-9.842 Y78.281
X-9.824 Y78.259
X-9.725 Y78.286
X-9.72 Y78.287
X-9.623 Y78.312
X-9.617 Y78.346
X-9.604 Y78.483
X-9.597 Y78.639
G2 X-9.59 Y78.701 R0.42
G1 X-9.573 Y78.782
G2 X-9.529 Y78.904 R0.42
G1 X-9.489 Y78.976
G2 X-9.415 Y79.072 R0.42
G1 X-9.364 Y79.122
G2 X-9.274 Y79.189 R0.42
G1 X-9.212 Y79.224
G2 X-9.107 Y79.264 R0.42
X-8.803 Y79.337 R38.361
X-8.692 Y79.348 R0.42
G1 X-8.621 Y79.346
G2 X-8.51 Y79.327 R0.42
G1 X-8.441 Y79.306
G2 X-8.332 Y79.253 R0.42
G1 X-8.264 Y79.207
G2 X-8.169 Y79.119 R0.42
G1 X-8.118 Y79.055
G2 X-8.082 Y79.002 R0.42
G1 X-8.005 Y78.867
X-7.93 Y78.747
X-7.913 Y78.723
X-7.813 Y78.745
X-7.808 Y78.746
X-7.709 Y78.766
X-7.701 Y78.799
X-7.682 Y78.935
X-7.667 Y79.091
G2 X-7.656 Y79.153 R0.42
G1 X-7.635 Y79.233
G2 X-7.584 Y79.352 R0.42
G1 X-7.54 Y79.422
G2 X-7.462 Y79.514 R0.42
G1 X-7.409 Y79.561
G2 X-7.315 Y79.624 R0.42
G1 X-7.25 Y79.655
G2 X-7.145 Y79.69 R0.42
X-6.837 Y79.747 R38.361
X-6.725 Y79.752 R0.42
G1 X-6.654 Y79.746
G2 X-6.544 Y79.721 R0.42
G1 X-6.477 Y79.696
G2 X-6.371 Y79.638 R0.42
G1 X-6.305 Y79.589
G2 X-6.215 Y79.496 R0.42
G1 X-6.167 Y79.429
G2 X-6.135 Y79.375 R0.42
G1 X-6.065 Y79.235
X-5.996 Y79.111
X-5.98 Y79.087
X-5.879 Y79.103
X-5.874 Y79.104
X-5.775 Y79.119
X-5.765 Y79.152
X-5.738 Y79.287
X-5.715 Y79.441
G2 X-5.701 Y79.503 R0.42
G1 X-5.676 Y79.581
G2 X-5.619 Y79.697 R0.42
G1 X-5.572 Y79.765
G2 X-5.488 Y79.853 R0.42
G1 X-5.432 Y79.898
G2 X-5.336 Y79.955 R0.42
G1 X-5.27 Y79.983
G2 X-5.163 Y80.012 R0.42
X-4.852 Y80.053 R38.361
X-4.74 Y80.052 R0.42
G1 X-4.67 Y80.042
G2 X-4.561 Y80.012 R0.42
G1 X-4.496 Y79.984
G2 X-4.392 Y79.92 R0.42
G1 X-4.329 Y79.867
G2 X-4.244 Y79.77 R0.42
G1 X-4.2 Y79.7
G2 X-4.17 Y79.644 R0.42
G1 X-4.108 Y79.501
X-4.045 Y79.374
X-4.031 Y79.349
X-3.929 Y79.36
X-3.924 Y79.361
X-3.824 Y79.371
X-3.813 Y79.403
X-3.779 Y79.536
X-3.748 Y79.689
G2 X-3.73 Y79.75 R0.42
G1 X-3.702 Y79.827
G2 X-3.638 Y79.94 R0.42
G1 X-3.587 Y80.005
G2 X-3.5 Y80.088 R0.42
G1 X-3.442 Y80.13
G2 X-3.342 Y80.182 R0.42
G1 X-3.275 Y80.206
G2 X-3.166 Y80.23 R0.42
X-2.854 Y80.255 R38.361
X-2.742 Y80.248 R0.42
G1 X-2.672 Y80.235
G2 X-2.565 Y80.199 R0.42
G1 X-2.501 Y80.167
G2 X-2.402 Y80.098 R0.42
G1 X-2.342 Y80.042
G2 X-2.261 Y79.94 R0.42
G1 X-2.221 Y79.868
G2 X-2.194 Y79.811 R0.42
G1 X-2.139 Y79.665
X-2.084 Y79.535
X-2.07 Y79.509
X-1.968 Y79.515
X-1.963
X-1.863 Y79.52
X-1.85 Y79.551
X-1.809 Y79.682
X-1.77 Y79.833
G2 X-1.749 Y79.893 R0.42
G1 X-1.717 Y79.969
G2 X-1.648 Y80.078 R0.42
G1 X-1.594 Y80.14
G2 X-1.501 Y80.22 R0.42
G1 X-1.441 Y80.258
G2 X-1.339 Y80.304 R0.42
G1 X-1.271 Y80.325
G2 X-1.161 Y80.344 R0.42
X-0.847 Y80.352 R38.361
X-0.737 Y80.339 R0.42
G1 X-0.668 Y80.322
G2 X-0.563 Y80.281 R0.42
G1 X-0.5 Y80.245
G2 X-0.405 Y80.172 R0.42
G1 X-0.347 Y80.113
G2 X-0.273 Y80.007 R0.42
G1 X-0.236 Y79.933
G2 X-0.213 Y79.874 R0.42
G1 X-0.165 Y79.725
X-0.116 Y79.592
X-0.104 Y79.566
X-0.002
X0.003
X0.103
X0.118 Y79.597
X0.165 Y79.725
X0.213 Y79.874
G2 X0.236 Y79.933 R0.42
G1 X0.273 Y80.007
G2 X0.347 Y80.113 R0.42
G1 X0.405 Y80.172
G2 X0.5 Y80.245 R0.42
G1 X0.563 Y80.281
G2 X0.668 Y80.322 R0.42
G1 X0.737 Y80.339
G2 X0.847 Y80.352 R0.42
X1.161 Y80.344 R38.361
X1.271 Y80.325 R0.42
G1 X1.339 Y80.304
G2 X1.441 Y80.258 R0.42
G1 X1.501 Y80.22
G2 X1.594 Y80.14 R0.42
G1 X1.648 Y80.078
G2 X1.717 Y79.969 R0.42
G1 X1.749 Y79.893
G2 X1.77 Y79.833 R0.42
G1 X1.809 Y79.682
X1.851 Y79.547
X1.862 Y79.52
X1.964 Y79.515
X1.969
X2.069 Y79.509
X2.085 Y79.539
X2.139 Y79.665
X2.194 Y79.811
G2 X2.221 Y79.868 R0.42
G1 X2.261 Y79.94
G2 X2.342 Y80.042 R0.42
G1 X2.402 Y80.098
G2 X2.501 Y80.167 R0.42
G1 X2.565 Y80.199
G2 X2.672 Y80.235 R0.42
G1 X2.742 Y80.248
G2 X2.854 Y80.255 R0.42
X3.166 Y80.23 R38.361
X3.275 Y80.206 R0.42
G1 X3.342 Y80.182
G2 X3.442 Y80.13 R0.42
G1 X3.5 Y80.088
G2 X3.587 Y80.005 R0.42
G1 X3.638 Y79.94
G2 X3.702 Y79.827 R0.42
G1 X3.73 Y79.75
G2 X3.748 Y79.689 R0.42
G1 X3.779 Y79.536
X3.814 Y79.399
X3.823 Y79.371
X3.924 Y79.361
X3.93 Y79.36
X4.029 Y79.349
X4.047 Y79.378
X4.108 Y79.501
X4.17 Y79.644
G2 X4.2 Y79.7 R0.42
G1 X4.244 Y79.77
G2 X4.329 Y79.867 R0.42
G1 X4.392 Y79.92
G2 X4.496 Y79.984 R0.42
G1 X4.561 Y80.012
G2 X4.67 Y80.042 R0.42
G1 X4.74 Y80.052
G2 X4.852 Y80.053 R0.42
X5.163 Y80.012 R38.361
X5.27 Y79.983 R0.42
G1 X5.336 Y79.955
G2 X5.432 Y79.898 R0.42
G1 X5.488 Y79.853
G2 X5.572 Y79.765 R0.42
G1 X5.619 Y79.697
G2 X5.676 Y79.581 R0.42
G1 X5.701 Y79.503
G2 X5.715 Y79.441 R0.42
G1 X5.738 Y79.287
X5.766 Y79.148
X5.773 Y79.12
X5.874 Y79.104
X5.88 Y79.103
X5.979 Y79.087
X5.998 Y79.115
X6.065 Y79.235
X6.135 Y79.375
G2 X6.167 Y79.429 R0.42
G1 X6.215 Y79.496
G2 X6.305 Y79.589 R0.42
G1 X6.371 Y79.638
G2 X6.477 Y79.696 R0.42
G1 X6.544 Y79.721
G2 X6.654 Y79.746 R0.42
G1 X6.725 Y79.752
G2 X6.837 Y79.747 R0.42
X7.145 Y79.69 R38.361
X7.25 Y79.655 R0.42
G1 X7.315 Y79.624
G2 X7.409 Y79.561 R0.42
G1 X7.462 Y79.514
G2 X7.54 Y79.422 R0.42
G1 X7.584 Y79.352
G2 X7.635 Y79.233 R0.42
G1 X7.656 Y79.153
G2 X7.667 Y79.091 R0.42
G1 X7.682 Y78.935
X7.702 Y78.795
X7.708 Y78.767
X7.808 Y78.746
X7.813 Y78.745
X7.911 Y78.723
X7.932 Y78.751
X8.005 Y78.867
X8.082 Y79.002
G2 X8.118 Y79.055 R0.42
G1 X8.169 Y79.119
G2 X8.264 Y79.207 R0.42
G1 X8.332 Y79.253
G2 X8.441 Y79.306 R0.42
G1 X8.51 Y79.327
G2 X8.621 Y79.346 R0.42
G1 X8.692 Y79.348
G2 X8.803 Y79.337 R0.42
X9.107 Y79.264 R38.361
X9.212 Y79.224 R0.42
G1 X9.274 Y79.189
G2 X9.364 Y79.122 R0.42
G1 X9.415 Y79.072
G2 X9.489 Y78.976 R0.42
G1 X9.529 Y78.904
G2 X9.573 Y78.782 R0.42
G1 X9.59 Y78.701
G2 X9.597 Y78.639 R0.42
G1 X9.604 Y78.483
X9.617 Y78.342
X9.622 Y78.313
X9.721 Y78.287
X9.726 Y78.286
X9.822 Y78.259
X9.845 Y78.285
X9.924 Y78.397
X10.008 Y78.528
G2 X10.046 Y78.579 R0.42
G1 X10.1 Y78.641
G2 X10.199 Y78.724 R0.42
G1 X10.27 Y78.766
G2 X10.382 Y78.813 R0.42
G1 X10.452 Y78.831
G2 X10.563 Y78.844 R0.42
G1 X10.635 Y78.842
G2 X10.745 Y78.826 R0.42
X11.045 Y78.737 R38.361
X11.146 Y78.691 R0.42
G1 X11.207 Y78.653
G2 X11.294 Y78.581 R0.42
G1 X11.343 Y78.528
G2 X11.411 Y78.428 R0.42
G1 X11.447 Y78.354
G2 X11.485 Y78.231 R0.42
G1 X11.497 Y78.149
G2 X11.502 Y78.086 R0.42
G1 X11.501 Y77.93
X11.506 Y77.788
X11.509 Y77.759
X11.606 Y77.728
X11.611 Y77.727
X11.707 Y77.695
X11.73 Y77.72
X11.815 Y77.828
X11.906 Y77.955
G2 X11.947 Y78.003 R0.42
G1 X12.004 Y78.062
G2 X12.108 Y78.14 R0.42
G1 X12.181 Y78.178
G2 X12.294 Y78.219 R0.42
G1 X12.365 Y78.233
G2 X12.477 Y78.24 R0.42
G1 X12.548 Y78.235
G2 X12.657 Y78.213 R0.42
X12.953 Y78.108 R38.361
X13.051 Y78.057 R0.42
G1 X13.11 Y78.016
G2 X13.193 Y77.94 R0.42
G1 X13.239 Y77.884
G2 X13.302 Y77.781 R0.42
G1 X13.334 Y77.705
G2 X13.366 Y77.58 R0.42
G1 X13.373 Y77.498
G2 X13.374 Y77.435 R0.42
G1 X13.365 Y77.279
X13.363 Y77.137
X13.365 Y77.108
X13.46 Y77.072
X13.465 Y77.07
X13.559 Y77.034
X13.583 Y77.057
X13.674 Y77.161
X13.771 Y77.282
G2 X13.814 Y77.329 R0.42
G1 X13.875 Y77.384
G2 X13.983 Y77.457 R0.42
G1 X14.057 Y77.491
G2 X14.173 Y77.526 R0.42
G1 X14.244 Y77.536
G2 X14.357 Y77.538 R0.42
G1 X14.428 Y77.529
G2 X14.535 Y77.501 R0.42
X14.825 Y77.381 R38.361
X14.921 Y77.325 R0.42
G1 X14.977 Y77.281
G2 X15.056 Y77.2 R0.42
G1 X15.099 Y77.143
G2 X15.156 Y77.036 R0.42
G1 X15.184 Y76.959
G2 X15.209 Y76.832 R0.42
G1 X15.213 Y76.75
G2 X15.211 Y76.686 R0.42
G1 X15.193 Y76.531
X15.184 Y76.39
Y76.361
X15.277 Y76.32
X15.282 Y76.317
X15.374 Y76.276
X15.4 Y76.298
X15.495 Y76.397
X15.599 Y76.513
G2 X15.644 Y76.557 R0.42
G1 X15.708 Y76.61
G2 X15.819 Y76.676 R0.42
G1 X15.896 Y76.707
G2 X16.013 Y76.735 R0.42
G1 X16.084 Y76.742
G2 X16.197 Y76.738 R0.42
G1 X16.267 Y76.725
G2 X16.373 Y76.691 R0.42
X16.656 Y76.556 R38.361
X16.749 Y76.495 R0.42
G1 X16.803 Y76.448
G2 X16.878 Y76.364 R0.42
G1 X16.917 Y76.304
G2 X16.969 Y76.195 R0.42
G1 X16.993 Y76.116
G2 X17.012 Y75.988 R0.42
G1 X17.011 Y75.906
G2 X17.005 Y75.843 R0.42
G1 X16.98 Y75.689
X16.963 Y75.548
X16.961 Y75.519
X17.053 Y75.473
X17.057 Y75.47
X17.146 Y75.424
X17.174 Y75.445
X17.274 Y75.539
X17.384 Y75.65
G2 X17.432 Y75.691 R0.42
G1 X17.498 Y75.74
G2 X17.612 Y75.801 R0.42
G1 X17.69 Y75.827
G2 X17.809 Y75.85 R0.42
G1 X17.881 Y75.853
G2 X17.992 Y75.842 R0.42
G1 X18.062 Y75.826
G2 X18.166 Y75.787 R0.42
X18.442 Y75.637 R38.361
X18.531 Y75.572 R0.42
G1 X18.583 Y75.522
G2 X18.653 Y75.434 R0.42
G1 X18.689 Y75.372
G2 X18.736 Y75.259 R0.42
G1 X18.755 Y75.18
G2 X18.767 Y75.051 R0.42
G1 X18.762 Y74.969
G2 X18.753 Y74.906 R0.42
G1 X18.72 Y74.754
X18.695 Y74.614
X18.692 Y74.585
X18.781 Y74.535
X18.786 Y74.532
X18.872 Y74.481
X18.9 Y74.501
X19.006 Y74.589
X19.121 Y74.694
G2 X19.171 Y74.733 R0.42
G1 X19.239 Y74.778
G2 X19.357 Y74.833 R0.42
G1 X19.436 Y74.855
G2 X19.556 Y74.871 R0.42
G1 X19.628
G2 X19.739 Y74.854 R0.42
G1 X19.808 Y74.834
G2 X19.91 Y74.79 R0.42
X20.177 Y74.626 R38.361
X20.263 Y74.555 R0.42
G1 X20.312 Y74.503
G2 X20.377 Y74.412 R0.42
G1 X20.41 Y74.348
G2 X20.45 Y74.234 R0.42
G1 X20.466 Y74.153
G2 X20.471 Y74.023 R0.42
G1 X20.462 Y73.942
G2 X20.449 Y73.88 R0.42
G1 X20.408 Y73.729
X20.377 Y73.591
X20.372 Y73.562
X20.458 Y73.507
X20.462 Y73.504
X20.546 Y73.449
X20.575 Y73.467
X20.685 Y73.549
X20.806 Y73.648
G2 X20.858 Y73.685 R0.42
G1 X20.929 Y73.727
G2 X21.048 Y73.774 R0.42
G1 X21.129 Y73.793
G2 X21.25 Y73.803 R0.42
G1 X21.322 Y73.798
G2 X21.431 Y73.776 R0.42
G1 X21.499 Y73.753
G2 X21.599 Y73.703 R0.42
X21.857 Y73.525 R38.361
X21.939 Y73.45 R0.42
G1 X21.985 Y73.395
G2 X22.045 Y73.3 R0.42
G1 X22.075 Y73.235
G2 X22.109 Y73.119 R0.42
G1 X22.121 Y73.038
G2 X22.119 Y72.908 R0.42
G1 X22.105 Y72.827
G2 X22.09 Y72.766 R0.42
G1 X22.041 Y72.618
X22.002 Y72.481
X21.996 Y72.453
X22.079 Y72.393
X22.083 Y72.39
X22.164 Y72.331
X22.194 Y72.347
X22.308 Y72.423
X22.434 Y72.516
G2 X22.488 Y72.55 R0.42
G1 X22.561 Y72.588
G2 X22.683 Y72.629 R0.42
G1 X22.764 Y72.644
G2 X22.885 Y72.647 R0.42
G1 X22.956 Y72.639
G2 X23.066 Y72.611 R0.42
G1 X23.132 Y72.584
G2 X23.228 Y72.529 R0.42
X23.477 Y72.338 R38.361
X23.555 Y72.259 R0.42
G1 X23.598 Y72.202
G2 X23.654 Y72.103 R0.42
G1 X23.68 Y72.037
G2 X23.708 Y71.92 R0.42
G1 X23.715 Y71.838
G2 X23.706 Y71.708 R0.42
G1 X23.688 Y71.628
G2 X23.67 Y71.567 R0.42
G1 X23.613 Y71.422
X23.567 Y71.288
X23.56 Y71.26
X23.64 Y71.196
X23.643 Y71.193
X23.721 Y71.129
X23.752 Y71.144
X23.87 Y71.214
X24. Y71.3
G2 X24.055 Y71.331 R0.42
G1 X24.13 Y71.365
G2 X24.255 Y71.4 R0.42
G1 X24.337 Y71.41
G2 X24.458 Y71.407 R0.42
G1 X24.528 Y71.395
G2 X24.635 Y71.362 R0.42
G1 X24.7 Y71.332
G2 X24.794 Y71.272 R0.42
X25.033 Y71.068 R38.361
X25.106 Y70.985 R0.42
G1 X25.146 Y70.926
G2 X25.197 Y70.824 R0.42
G1 X25.219 Y70.757
G2 X25.241 Y70.638 R0.42
G1 X25.244 Y70.556
G2 X25.229 Y70.427 R0.42
G1 X25.207 Y70.348
G2 X25.185 Y70.288 R0.42
G1 X25.12 Y70.146
X25.068 Y70.014
X25.059 Y69.987
X25.135 Y69.919
X25.139 Y69.915
X25.213 Y69.848
X25.245 Y69.861
X25.366 Y69.925
X25.501 Y70.004
G2 X25.558 Y70.031 R0.42
G1 X25.634 Y70.062
G2 X25.76 Y70.091 R0.42
G1 X25.842 Y70.096
G2 X25.963 Y70.087 R0.42
G1 X26.033 Y70.071
G2 X26.139 Y70.032 R0.42
G1 X26.202 Y69.999
G2 X26.292 Y69.934 R0.42
X26.52 Y69.718 R38.361
X26.589 Y69.631 R0.42
G1 X26.626 Y69.57
G2 X26.67 Y69.467 R0.42
G1 X26.69 Y69.398
G2 X26.705 Y69.278 R0.42
G1 X26.704 Y69.195
G2 X26.682 Y69.067 R0.42
G1 X26.655 Y68.989
G2 X26.631 Y68.932 R0.42
G1 X26.559 Y68.793
X26.499 Y68.664
X26.489 Y68.637
X26.562 Y68.565
X26.565 Y68.561
X26.636 Y68.49
X26.668 Y68.501
X26.793 Y68.559
X26.932 Y68.631
G2 X26.989 Y68.655 R0.42
G1 X27.067 Y68.682
G2 X27.195 Y68.704 R0.42
G1 X27.278 Y68.705
G2 X27.398 Y68.69 R0.42
G1 X27.467 Y68.67
G2 X27.57 Y68.626 R0.42
G1 X27.631 Y68.589
G2 X27.718 Y68.52 R0.42
X27.934 Y68.292 R38.361
X27.999 Y68.202 R0.42
G1 X28.032 Y68.139
G2 X28.071 Y68.033 R0.42
G1 X28.087 Y67.963
G2 X28.096 Y67.842 R0.42
G1 X28.091 Y67.76
G2 X28.062 Y67.634 R0.42
G1 X28.031 Y67.558
G2 X28.004 Y67.501 R0.42
G1 X27.925 Y67.366
X27.859 Y67.241
X27.847 Y67.214
X27.916 Y67.138
X27.919 Y67.135
X27.986 Y67.06
X28.019 Y67.069
X28.146 Y67.12
X28.288 Y67.185
G2 X28.348 Y67.207 R0.42
G1 X28.427 Y67.229
G2 X28.556 Y67.244 R0.42
G1 X28.638 Y67.241
G2 X28.757 Y67.219 R0.42
G1 X28.824 Y67.197
G2 X28.926 Y67.146 R0.42
G1 X28.985 Y67.106
G2 X29.068 Y67.033 R0.42
X29.272 Y66.794 R38.361
X29.332 Y66.7 R0.42
G1 X29.362 Y66.635
G2 X29.395 Y66.528 R0.42
G1 X29.407 Y66.458
G2 X29.41 Y66.337 R0.42
G1 X29.4 Y66.255
G2 X29.365 Y66.13 R0.42
G1 X29.331 Y66.055
G2 X29.3 Y66. R0.42
G1 X29.214 Y65.87
X29.142 Y65.748
X29.128 Y65.722
X29.193 Y65.643
X29.196 Y65.639
X29.259 Y65.561
X29.292 Y65.569
X29.422 Y65.613
X29.567 Y65.67
G2 X29.628 Y65.688 R0.42
G1 X29.708 Y65.706
G2 X29.838 Y65.715 R0.42
G1 X29.92 Y65.708
G2 X30.037 Y65.68 R0.42
G1 X30.103 Y65.654
G2 X30.202 Y65.598 R0.42
G1 X30.259 Y65.555
G2 X30.338 Y65.477 R0.42
X30.529 Y65.228 R38.361
X30.584 Y65.132 R0.42
G1 X30.611 Y65.066
G2 X30.639 Y64.956 R0.42
G1 X30.647 Y64.885
G2 X30.644 Y64.764 R0.42
G1 X30.629 Y64.683
G2 X30.588 Y64.561 R0.42
G1 X30.55 Y64.488
G2 X30.516 Y64.434 R0.42
G1 X30.423 Y64.308
X30.344 Y64.19
X30.33 Y64.165
X30.39 Y64.083
X30.393 Y64.079
X30.452 Y63.997
X30.486 Y64.003
X30.618 Y64.041
X30.766 Y64.09
G2 X30.827 Y64.105 R0.42
G1 X30.908 Y64.119
G2 X31.038 Y64.121 R0.42
G1 X31.119 Y64.109
G2 X31.235 Y64.075 R0.42
G1 X31.3 Y64.045
G2 X31.395 Y63.985 R0.42
G1 X31.45 Y63.939
G2 X31.525 Y63.857 R0.42
X31.703 Y63.599 R38.361
X31.753 Y63.499 R0.42
G1 X31.776 Y63.431
G2 X31.798 Y63.322 R0.42
G1 X31.803 Y63.25
G2 X31.793 Y63.129 R0.42
G1 X31.774 Y63.048
G2 X31.727 Y62.929 R0.42
G1 X31.685 Y62.858
G2 X31.648 Y62.806 R0.42
G1 X31.549 Y62.685
X31.464 Y62.572
X31.448 Y62.547
X31.505 Y62.462
X31.507 Y62.458
X31.561 Y62.373
X31.595 Y62.378
X31.729 Y62.408
X31.88 Y62.449
G2 X31.942 Y62.462 R0.42
G1 X32.023 Y62.471
G2 X32.153 Y62.466 R0.42
G1 X32.234 Y62.45
G2 X32.348 Y62.41 R0.42
G1 X32.412 Y62.377
G2 X32.503 Y62.312 R0.42
G1 X32.555 Y62.263
G2 X32.626 Y62.177 R0.42
X32.79 Y61.91 R38.361
X32.834 Y61.808 R0.42
G1 X32.854 Y61.739
G2 X32.871 Y61.628 R0.42
G1 Y61.556
G2 X32.855 Y61.436 R0.42
G1 X32.833 Y61.357
G2 X32.778 Y61.239 R0.42
G1 X32.733 Y61.171
G2 X32.694 Y61.121 R0.42
G1 X32.589 Y61.006
X32.498 Y60.897
X32.481 Y60.873
X32.532 Y60.785
X32.535 Y60.781
X32.584 Y60.693
X32.618 Y60.696
X32.754 Y60.72
X32.906 Y60.753
G2 X32.969 Y60.762 R0.42
G1 X33.051 Y60.767
G2 X33.18 Y60.755 R0.42
G1 X33.259 Y60.736
G2 X33.372 Y60.689 R0.42
G1 X33.434 Y60.653
G2 X33.522 Y60.583 R0.42
G1 X33.572 Y60.531
G2 X33.637 Y60.442 R0.42
X33.787 Y60.166 R38.361
X33.826 Y60.062 R0.42
G1 X33.842 Y59.992
G2 X33.853 Y59.881 R0.42
G1 X33.85 Y59.809
G2 X33.827 Y59.69 R0.42
G1 X33.801 Y59.612
G2 X33.74 Y59.498 R0.42
G1 X33.691 Y59.432
G2 X33.65 Y59.384 R0.42
G1 X33.539 Y59.274
X33.442 Y59.17
X33.424 Y59.148
X33.471 Y59.057
X33.473 Y59.052
X33.518 Y58.962
X33.552 Y58.963
X33.689 Y58.98
X33.843 Y59.005
G2 X33.906 Y59.011 R0.42
G1 X33.988 Y59.012
G2 X34.116 Y58.993 R0.42
G1 X34.195 Y58.969
G2 X34.304 Y58.917 R0.42
G1 X34.364 Y58.878
G2 X34.448 Y58.803 R0.42
G1 X34.495 Y58.749
G2 X34.556 Y58.656 R0.42
X34.691 Y58.373 R38.361
X34.725 Y58.267 R0.42
G1 X34.738 Y58.197
G2 X34.742 Y58.084 R0.42
G1 X34.735 Y58.013
G2 X34.707 Y57.896 R0.42
G1 X34.676 Y57.819
G2 X34.61 Y57.708 R0.42
G1 X34.557 Y57.644
G2 X34.513 Y57.599 R0.42
G1 X34.397 Y57.495
X34.295 Y57.396
X34.276 Y57.375
X34.318 Y57.282
X34.32 Y57.277
X34.36 Y57.185
X34.394 Y57.184
X34.531 Y57.193
X34.686 Y57.211
G2 X34.75 Y57.213 R0.42
G1 X34.832 Y57.209
G2 X34.959 Y57.184 R0.42
G1 X35.036 Y57.156
G2 X35.143 Y57.099 R0.42
G1 X35.2 Y57.056
G2 X35.281 Y56.977 R0.42
G1 X35.325 Y56.921
G2 X35.381 Y56.825 R0.42
X35.501 Y56.535 R38.361
X35.529 Y56.428 R0.42
G1 X35.538 Y56.357
G2 X35.536 Y56.244 R0.42
G1 X35.526 Y56.173
G2 X35.491 Y56.057 R0.42
G1 X35.457 Y55.983
G2 X35.384 Y55.875 R0.42
G1 X35.329 Y55.814
G2 X35.282 Y55.771 R0.42
G1 X35.161 Y55.674
X35.054 Y55.58
X35.033 Y55.56
X35.07 Y55.465
X35.072 Y55.46
X35.108 Y55.366
X35.142 Y55.363
X35.279 Y55.365
X35.435 Y55.374
G2 X35.498 Y55.373 R0.42
G1 X35.58 Y55.366
G2 X35.705 Y55.334 R0.42
G1 X35.781 Y55.302
G2 X35.884 Y55.239 R0.42
G1 X35.94 Y55.193
G2 X36.016 Y55.11 R0.42
G1 X36.057 Y55.051
G2 X36.108 Y54.953 R0.42
X36.213 Y54.657 R38.361
X36.235 Y54.548 R0.42
G1 X36.24 Y54.477
G2 X36.233 Y54.365 R0.42
G1 X36.219 Y54.294
G2 X36.178 Y54.181 R0.42
G1 X36.14 Y54.108
G2 X36.062 Y54.004 R0.42
G1 X36.003 Y53.947
G2 X35.955 Y53.906 R0.42
G1 X35.828 Y53.815
X35.717 Y53.727
X35.695 Y53.708
X35.727 Y53.611
X35.729 Y53.606
X35.759 Y53.51
X35.793 Y53.506
X35.93 Y53.501
X36.086 Y53.502
G2 X36.149 Y53.497 R0.42
G1 X36.231 Y53.485
G2 X36.354 Y53.447 R0.42
G1 X36.428 Y53.411
G2 X36.528 Y53.343 R0.42
G1 X36.581 Y53.294
G2 X36.653 Y53.207 R0.42
G1 X36.691 Y53.146
G2 X36.736 Y53.045 R0.42
X36.826 Y52.745 R38.361
X36.842 Y52.635 R0.42
G1 X36.844 Y52.563
G2 X36.831 Y52.452 R0.42
G1 X36.813 Y52.382
G2 X36.766 Y52.27 R0.42
G1 X36.724 Y52.199
G2 X36.641 Y52.1 R0.42
G1 X36.579 Y52.046
G2 X36.528 Y52.008 R0.42
G1 X36.397 Y51.924
X36.281 Y51.842
X36.259 Y51.824
X36.286 Y51.725
X36.287 Y51.72
X36.312 Y51.623
X36.346 Y51.617
X36.483 Y51.605
X36.639 Y51.597
G2 X36.702 Y51.589 R0.42
G1 X36.782 Y51.573
G2 X36.903 Y51.529 R0.42
G1 X36.975 Y51.489
G2 X37.072 Y51.415 R0.42
G1 X37.122 Y51.364
G2 X37.189 Y51.274 R0.42
G1 X37.224 Y51.212
G2 X37.264 Y51.107 R0.42
X37.337 Y50.803 R38.361
X37.348 Y50.692 R0.42
G1 X37.346 Y50.621
G2 X37.327 Y50.51 R0.42
G1 X37.306 Y50.442
G2 X37.253 Y50.332 R0.42
G1 X37.207 Y50.264
G2 X37.119 Y50.169 R0.42
G1 X37.055 Y50.118
G2 X37.002 Y50.082 R0.42
G1 X36.867 Y50.005
X36.747 Y49.93
X36.723 Y49.913
X36.745 Y49.813
X36.746 Y49.808
X36.766 Y49.709
X36.799 Y49.701
X36.935 Y49.682
X37.091 Y49.667
G2 X37.153 Y49.656 R0.42
G1 X37.233 Y49.635
G2 X37.352 Y49.584 R0.42
G1 X37.422 Y49.54
G2 X37.514 Y49.462 R0.42
G1 X37.561 Y49.409
G2 X37.624 Y49.315 R0.42
G1 X37.655 Y49.25
G2 X37.69 Y49.145 R0.42
X37.747 Y48.837 R38.361
X37.752 Y48.725 R0.42
G1 X37.746 Y48.654
G2 X37.721 Y48.544 R0.42
G1 X37.696 Y48.477
G2 X37.638 Y48.371 R0.42
G1 X37.589 Y48.305
G2 X37.496 Y48.215 R0.42
G1 X37.428 Y48.167
G2 X37.375 Y48.135 R0.42
G1 X37.235 Y48.065
X37.111 Y47.996
X37.087 Y47.98
X37.103 Y47.879
X37.104 Y47.874
X37.119 Y47.775
X37.152 Y47.765
X37.287 Y47.738
X37.441 Y47.715
G2 X37.503 Y47.701 R0.42
G1 X37.581 Y47.676
G2 X37.698 Y47.619 R0.42
G1 X37.765 Y47.572
G2 X37.853 Y47.488 R0.42
G1 X37.898 Y47.432
G2 X37.955 Y47.336 R0.42
G1 X37.983 Y47.27
G2 X38.012 Y47.163 R0.42
X38.053 Y46.852 R38.361
X38.052 Y46.74 R0.42
G1 X38.042 Y46.67
G2 X38.012 Y46.561 R0.42
G1 X37.984 Y46.496
G2 X37.92 Y46.392 R0.42
G1 X37.867 Y46.329
G2 X37.77 Y46.244 R0.42
G1 X37.7 Y46.2
G2 X37.644 Y46.17 R0.42
G1 X37.501 Y46.108
X37.374 Y46.045
X37.349 Y46.031
X37.36 Y45.929
X37.361 Y45.924
X37.371 Y45.824
X37.403 Y45.813
X37.536 Y45.779
X37.689 Y45.748
G2 X37.75 Y45.73 R0.42
G1 X37.827 Y45.701
G2 X37.94 Y45.638 R0.42
G1 X38.005 Y45.587
G2 X38.088 Y45.5 R0.42
G1 X38.13 Y45.442
G2 X38.182 Y45.342 R0.42
G1 X38.206 Y45.275
G2 X38.23 Y45.166 R0.42
X38.255 Y44.854 R38.361
X38.248 Y44.742 R0.42
G1 X38.235 Y44.672
G2 X38.199 Y44.565 R0.42
G1 X38.167 Y44.501
G2 X38.098 Y44.402 R0.42
G1 X38.042 Y44.342
G2 X37.94 Y44.261 R0.42
G1 X37.868 Y44.221
G2 X37.811 Y44.194 R0.42
G1 X37.665 Y44.139
X37.535 Y44.084
X37.509 Y44.07
X37.515 Y43.968
Y43.963
X37.52 Y43.863
X37.551 Y43.85
X37.682 Y43.809
X37.833 Y43.77
G2 X37.893 Y43.749 R0.42
G1 X37.969 Y43.717
G2 X38.078 Y43.648 R0.42
G1 X38.14 Y43.594
G2 X38.22 Y43.501 R0.42
G1 X38.258 Y43.441
G2 X38.304 Y43.339 R0.42
G1 X38.325 Y43.271
G2 X38.344 Y43.161 R0.42
X38.352 Y42.847 R38.361
X38.339 Y42.737 R0.42
G1 X38.322 Y42.668
G2 X38.281 Y42.563 R0.42
G1 X38.246 Y42.5
G2 X38.172 Y42.405 R0.42
G1 X38.112 Y42.347
G2 X38.007 Y42.273 R0.42
G1 X37.933 Y42.236
G2 X37.874 Y42.212 R0.42
G1 X37.725 Y42.165
X37.592 Y42.116
X37.566 Y42.104
Y42.002
Y41.997
Y41.897
X37.597 Y41.882
X37.725 Y41.835
X37.874 Y41.788
G2 X37.933 Y41.764 R0.42
G1 X38.007 Y41.727
G2 X38.112 Y41.653 R0.42
G1 X38.172 Y41.595
G2 X38.246 Y41.5 R0.42
G1 X38.281 Y41.437
G2 X38.322 Y41.332 R0.42
G1 X38.339 Y41.263
G2 X38.352 Y41.153 R0.42
X38.344 Y40.839 R38.361
X38.325 Y40.729 R0.42
G1 X38.304 Y40.661
G2 X38.258 Y40.559 R0.42
G1 X38.22 Y40.499
G2 X38.14 Y40.406 R0.42
G1 X38.078 Y40.352
G2 X37.969 Y40.283 R0.42
G1 X37.893 Y40.251
G2 X37.833 Y40.23 R0.42
G1 X37.682 Y40.191
X37.547 Y40.149
X37.52 Y40.138
X37.515 Y40.036
Y40.031
X37.509 Y39.931
X37.539 Y39.915
X37.665 Y39.861
X37.811 Y39.806
G2 X37.868 Y39.779 R0.42
G1 X37.94 Y39.739
G2 X38.042 Y39.658 R0.42
G1 X38.098 Y39.598
G2 X38.167 Y39.499 R0.42
G1 X38.199 Y39.435
G2 X38.235 Y39.328 R0.42
G1 X38.248 Y39.258
G2 X38.255 Y39.146 R0.42
X38.23 Y38.834 R38.361
X38.206 Y38.725 R0.42
G1 X38.182 Y38.658
G2 X38.13 Y38.558 R0.42
G1 X38.088 Y38.5
G2 X38.005 Y38.413 R0.42
G1 X37.94 Y38.362
G2 X37.827 Y38.299 R0.42
G1 X37.75 Y38.27
G2 X37.689 Y38.252 R0.42
G1 X37.536 Y38.221
X37.399 Y38.186
X37.371 Y38.177
X37.361 Y38.076
X37.36 Y38.07
X37.349 Y37.971
X37.378 Y37.953
X37.501 Y37.892
X37.644 Y37.83
G2 X37.7 Y37.8 R0.42
G1 X37.77 Y37.756
G2 X37.867 Y37.671 R0.42
G1 X37.92 Y37.608
G2 X37.984 Y37.504 R0.42
G1 X38.012 Y37.439
G2 X38.042 Y37.33 R0.42
G1 X38.052 Y37.26
G2 X38.053 Y37.148 R0.42
X38.012 Y36.837 R38.361
X37.983 Y36.73 R0.42
G1 X37.955 Y36.664
G2 X37.898 Y36.568 R0.42
G1 X37.853 Y36.512
G2 X37.765 Y36.428 R0.42
G1 X37.698 Y36.381
G2 X37.581 Y36.324 R0.42
G1 X37.503 Y36.299
G2 X37.441 Y36.285 R0.42
G1 X37.287 Y36.262
X37.148 Y36.234
X37.12 Y36.227
X37.104 Y36.126
X37.103 Y36.12
X37.087 Y36.021
X37.115 Y36.002
X37.235 Y35.935
X37.375 Y35.865
G2 X37.428 Y35.833 R0.42
G1 X37.496 Y35.785
G2 X37.589 Y35.695 R0.42
G1 X37.638 Y35.629
G2 X37.696 Y35.523 R0.42
G1 X37.721 Y35.456
G2 X37.746 Y35.346 R0.42
G1 X37.752 Y35.275
G2 X37.747 Y35.163 R0.42
X37.69 Y34.855 R38.361
X37.655 Y34.75 R0.42
G1 X37.624 Y34.685
G2 X37.561 Y34.591 R0.42
G1 X37.514 Y34.538
G2 X37.422 Y34.46 R0.42
G1 X37.352 Y34.416
G2 X37.233 Y34.365 R0.42
G1 X37.153 Y34.344
G2 X37.091 Y34.333 R0.42
G1 X36.935 Y34.318
X36.795 Y34.298
X36.767 Y34.292
X36.746 Y34.192
X36.745 Y34.187
X36.723 Y34.089
X36.751 Y34.068
X36.867 Y33.995
X37.002 Y33.918
G2 X37.055 Y33.882 R0.42
G1 X37.119 Y33.831
G2 X37.207 Y33.736 R0.42
G1 X37.253 Y33.668
G2 X37.306 Y33.558 R0.42
G1 X37.327 Y33.49
G2 X37.346 Y33.379 R0.42
G1 X37.348 Y33.308
G2 X37.337 Y33.197 R0.42
X37.264 Y32.893 R38.361
X37.224 Y32.788 R0.42
G1 X37.189 Y32.726
G2 X37.122 Y32.636 R0.42
G1 X37.072 Y32.585
G2 X36.975 Y32.511 R0.42
G1 X36.903 Y32.471
G2 X36.782 Y32.427 R0.42
G1 X36.702 Y32.411
G2 X36.639 Y32.403 R0.42
G1 X36.483 Y32.395
X36.342 Y32.383
X36.313 Y32.378
X36.287 Y32.279
X36.286 Y32.274
X36.259 Y32.178
X36.285 Y32.155
X36.397 Y32.076
X36.528 Y31.992
G2 X36.579 Y31.954 R0.42
G1 X36.641 Y31.9
G2 X36.724 Y31.801 R0.42
G1 X36.766 Y31.73
G2 X36.813 Y31.618 R0.42
G1 X36.831 Y31.548
G2 X36.844 Y31.437 R0.42
G1 X36.842 Y31.365
G2 X36.826 Y31.255 R0.42
X36.736 Y30.955 R38.361
X36.691 Y30.854 R0.42
G1 X36.653 Y30.793
G2 X36.581 Y30.706 R0.42
G1 X36.528 Y30.657
G2 X36.428 Y30.589 R0.42
G1 X36.354 Y30.553
G2 X36.231 Y30.515 R0.42
G1 X36.149 Y30.503
G2 X36.086 Y30.498 R0.42
G1 X35.93 Y30.499
X35.788 Y30.494
X35.759 Y30.491
X35.728 Y30.394
X35.727 Y30.389
X35.695 Y30.293
X35.72 Y30.27
X35.828 Y30.185
X35.955 Y30.094
G2 X36.003 Y30.053 R0.42
G1 X36.062 Y29.996
G2 X36.14 Y29.892 R0.42
G1 X36.178 Y29.819
G2 X36.219 Y29.706 R0.42
G1 X36.233 Y29.635
G2 X36.24 Y29.523 R0.42
G1 X36.235 Y29.452
G2 X36.213 Y29.343 R0.42
X36.108 Y29.047 R38.361
X36.057 Y28.948 R0.42
G1 X36.016 Y28.89
G2 X35.94 Y28.807 R0.42
G1 X35.884 Y28.761
G2 X35.781 Y28.698 R0.42
G1 X35.705 Y28.666
G2 X35.58 Y28.634 R0.42
G1 X35.498 Y28.627
G2 X35.435 Y28.626 R0.42
G1 X35.279 Y28.635
X35.137 Y28.637
X35.108 Y28.635
X35.072 Y28.54
X35.07 Y28.535
X35.034 Y28.441
X35.057 Y28.417
X35.161 Y28.326
X35.282 Y28.229
G2 X35.329 Y28.186 R0.42
G1 X35.384 Y28.125
G2 X35.457 Y28.017 R0.42
G1 X35.491 Y27.943
G2 X35.526 Y27.827 R0.42
G1 X35.536 Y27.756
G2 X35.538 Y27.643 R0.42
G1 X35.529 Y27.572
G2 X35.501 Y27.465 R0.42
X35.381 Y27.175 R38.361
X35.325 Y27.079 R0.42
G1 X35.281 Y27.023
G2 X35.2 Y26.944 R0.42
G1 X35.143 Y26.901
G2 X35.036 Y26.844 R0.42
G1 X34.959 Y26.816
G2 X34.832 Y26.791 R0.42
G1 X34.75 Y26.787
G2 X34.686 Y26.789 R0.42
G1 X34.531 Y26.807
X34.39 Y26.816
X34.361
X34.32 Y26.723
X34.317 Y26.718
X34.276 Y26.626
X34.298 Y26.6
X34.397 Y26.505
X34.513 Y26.401
G2 X34.557 Y26.356 R0.42
G1 X34.61 Y26.292
G2 X34.676 Y26.181 R0.42
G1 X34.707 Y26.104
G2 X34.735 Y25.987 R0.42
G1 X34.742 Y25.916
G2 X34.738 Y25.803 R0.42
G1 X34.725 Y25.733
G2 X34.691 Y25.627 R0.42
X34.556 Y25.344 R38.361
X34.495 Y25.251 R0.42
G1 X34.448 Y25.197
G2 X34.364 Y25.122 R0.42
G1 X34.304 Y25.083
G2 X34.195 Y25.031 R0.42
G1 X34.116 Y25.007
G2 X33.988 Y24.988 R0.42
G1 X33.906 Y24.989
G2 X33.843 Y24.995 R0.42
G1 X33.689 Y25.02
X33.548 Y25.037
X33.519 Y25.039
X33.473 Y24.947
X33.47 Y24.943
X33.424 Y24.854
X33.445 Y24.826
X33.539 Y24.726
X33.65 Y24.616
G2 X33.691 Y24.568 R0.42
G1 X33.74 Y24.502
G2 X33.801 Y24.388 R0.42
G1 X33.827 Y24.31
G2 X33.85 Y24.191 R0.42
G1 X33.853 Y24.119
G2 X33.842 Y24.008 R0.42
G1 X33.826 Y23.938
G2 X33.787 Y23.834 R0.42
X33.637 Y23.558 R38.361
X33.572 Y23.469 R0.42
G1 X33.522 Y23.417
G2 X33.434 Y23.347 R0.42
G1 X33.372 Y23.311
G2 X33.259 Y23.264 R0.42
G1 X33.18 Y23.245
G2 X33.051 Y23.233 R0.42
G1 X32.969 Y23.238
G2 X32.906 Y23.247 R0.42
G1 X32.754 Y23.28
X32.614 Y23.305
X32.585 Y23.308
X32.535 Y23.219
X32.532 Y23.214
X32.481 Y23.128
X32.501 Y23.1
X32.589 Y22.994
X32.694 Y22.879
G2 X32.733 Y22.829 R0.42
G1 X32.778 Y22.761
G2 X32.833 Y22.643 R0.42
G1 X32.855 Y22.564
G2 X32.871 Y22.444 R0.42
G1 Y22.372
G2 X32.854 Y22.261 R0.42
G1 X32.834 Y22.192
G2 X32.79 Y22.09 R0.42
X32.626 Y21.823 R38.361
X32.555 Y21.737 R0.42
G1 X32.503 Y21.688
G2 X32.412 Y21.623 R0.42
G1 X32.348 Y21.59
G2 X32.234 Y21.55 R0.42
G1 X32.153 Y21.534
G2 X32.023 Y21.529 R0.42
G1 X31.942 Y21.538
G2 X31.88 Y21.551 R0.42
G1 X31.729 Y21.592
X31.591 Y21.623
X31.562 Y21.628
X31.507 Y21.542
X31.504 Y21.538
X31.449 Y21.454
X31.467 Y21.425
X31.549 Y21.315
X31.648 Y21.194
G2 X31.685 Y21.142 R0.42
G1 X31.727 Y21.071
G2 X31.774 Y20.952 R0.42
G1 X31.793 Y20.871
G2 X31.803 Y20.75 R0.42
G1 X31.798 Y20.678
G2 X31.776 Y20.569 R0.42
G1 X31.753 Y20.501
G2 X31.703 Y20.401 R0.42
X31.525 Y20.143 R38.361
X31.45 Y20.061 R0.42
G1 X31.395 Y20.015
G2 X31.3 Y19.955 R0.42
G1 X31.235 Y19.925
G2 X31.119 Y19.891 R0.42
G1 X31.038 Y19.879
G2 X30.908 Y19.881 R0.42
G1 X30.827 Y19.895
G2 X30.766 Y19.91 R0.42
G1 X30.618 Y19.959
X30.481 Y19.998
X30.453 Y20.004
X30.393 Y19.921
X30.39 Y19.917
X30.331 Y19.836
X30.347 Y19.806
X30.423 Y19.692
X30.516 Y19.566
G2 X30.55 Y19.512 R0.42
G1 X30.588 Y19.439
G2 X30.629 Y19.317 R0.42
G1 X30.644 Y19.236
G2 X30.647 Y19.115 R0.42
G1 X30.639 Y19.044
G2 X30.611 Y18.934 R0.42
G1 X30.584 Y18.868
G2 X30.529 Y18.772 R0.42
X30.338 Y18.523 R38.361
X30.259 Y18.445 R0.42
G1 X30.202 Y18.402
G2 X30.103 Y18.346 R0.42
G1 X30.037 Y18.32
G2 X29.92 Y18.292 R0.42
G1 X29.838 Y18.285
G2 X29.708 Y18.294 R0.42
G1 X29.628 Y18.312
G2 X29.567 Y18.33 R0.42
G1 X29.422 Y18.387
X29.288 Y18.433
X29.26 Y18.44
X29.196 Y18.36
X29.193 Y18.357
X29.129 Y18.279
X29.144 Y18.248
X29.214 Y18.13
X29.3 Y18.
G2 X29.331 Y17.945 R0.42
G1 X29.365 Y17.87
G2 X29.4 Y17.745 R0.42
G1 X29.41 Y17.663
G2 X29.407 Y17.542 R0.42
G1 X29.395 Y17.472
G2 X29.362 Y17.365 R0.42
G1 X29.332 Y17.3
G2 X29.272 Y17.206 R0.42
X29.068 Y16.967 R38.361
X28.985 Y16.894 R0.42
G1 X28.926 Y16.854
G2 X28.824 Y16.803 R0.42
G1 X28.757 Y16.781
G2 X28.638 Y16.759 R0.42
G1 X28.556 Y16.756
G2 X28.427 Y16.771 R0.42
G1 X28.348 Y16.793
G2 X28.288 Y16.815 R0.42
G1 X28.146 Y16.88
X28.014 Y16.932
X27.987 Y16.941
X27.919 Y16.865
X27.915 Y16.861
X27.848 Y16.787
X27.861 Y16.755
X27.925 Y16.634
X28.004 Y16.499
G2 X28.031 Y16.442 R0.42
G1 X28.062 Y16.366
G2 X28.091 Y16.24 R0.42
G1 X28.096 Y16.158
G2 X28.087 Y16.037 R0.42
G1 X28.071 Y15.967
G2 X28.032 Y15.861 R0.42
G1 X27.999 Y15.798
G2 X27.934 Y15.708 R0.42
X27.718 Y15.48 R38.361
X27.631 Y15.411 R0.42
G1 X27.57 Y15.374
G2 X27.467 Y15.33 R0.42
G1 X27.398 Y15.31
G2 X27.278 Y15.295 R0.42
G1 X27.195 Y15.296
G2 X27.067 Y15.318 R0.42
G1 X26.989 Y15.345
G2 X26.932 Y15.369 R0.42
G1 X26.793 Y15.441
X26.664 Y15.501
X26.637 Y15.511
X26.565 Y15.438
X26.561 Y15.435
X26.49 Y15.364
X26.501 Y15.332
X26.559 Y15.207
X26.631 Y15.068
G2 X26.655 Y15.011 R0.42
G1 X26.682 Y14.933
G2 X26.704 Y14.805 R0.42
G1 X26.705 Y14.722
G2 X26.69 Y14.602 R0.42
G1 X26.67 Y14.533
G2 X26.626 Y14.43 R0.42
G1 X26.589 Y14.369
G2 X26.52 Y14.282 R0.42
X26.292 Y14.066 R38.361
X26.202 Y14.001 R0.42
G1 X26.139 Y13.968
G2 X26.033 Y13.929 R0.42
G1 X25.963 Y13.913
G2 X25.842 Y13.904 R0.42
G1 X25.76 Y13.909
G2 X25.634 Y13.938 R0.42
G1 X25.558 Y13.969
G2 X25.501 Y13.996 R0.42
G1 X25.366 Y14.075
X25.241 Y14.141
X25.214 Y14.153
X25.138 Y14.084
X25.135 Y14.081
X25.06 Y14.014
X25.069 Y13.981
X25.12 Y13.854
X25.185 Y13.712
G2 X25.207 Y13.652 R0.42
G1 X25.229 Y13.573
G2 X25.244 Y13.444 R0.42
G1 X25.241 Y13.362
G2 X25.219 Y13.243 R0.42
G1 X25.197 Y13.176
G2 X25.146 Y13.074 R0.42
G1 X25.106 Y13.015
G2 X25.033 Y12.932 R0.42
X24.794 Y12.728 R38.361
X24.7 Y12.668 R0.42
G1 X24.635 Y12.638
G2 X24.528 Y12.605 R0.42
G1 X24.458 Y12.593
G2 X24.337 Y12.59 R0.42
G1 X24.255 Y12.6
G2 X24.13 Y12.635 R0.42
G1 X24.055 Y12.669
G2 X24. Y12.7 R0.42
G1 X23.87 Y12.786
X23.748 Y12.858
X23.722 Y12.872
X23.643 Y12.807
X23.639 Y12.804
X23.561 Y12.741
X23.569 Y12.708
X23.613 Y12.578
X23.67 Y12.433
G2 X23.688 Y12.372 R0.42
G1 X23.706 Y12.292
G2 X23.715 Y12.162 R0.42
G1 X23.708 Y12.08
G2 X23.68 Y11.963 R0.42
G1 X23.654 Y11.897
G2 X23.598 Y11.798 R0.42
G1 X23.555 Y11.741
G2 X23.477 Y11.662 R0.42
X23.228 Y11.471 R38.361
X23.132 Y11.416 R0.42
G1 X23.066 Y11.389
G2 X22.956 Y11.361 R0.42
G1 X22.885 Y11.353
G2 X22.764 Y11.356 R0.42
G1 X22.683 Y11.371
G2 X22.561 Y11.412 R0.42
G1 X22.488 Y11.45
G2 X22.434 Y11.484 R0.42
G1 X22.308 Y11.577
X22.19 Y11.656
X22.165 Y11.67
X22.083 Y11.61
X22.079 Y11.607
X21.997 Y11.548
X22.003 Y11.514
X22.041 Y11.382
X22.09 Y11.234
G2 X22.105 Y11.173 R0.42
G1 X22.119 Y11.092
G2 X22.121 Y10.962 R0.42
G1 X22.109 Y10.881
G2 X22.075 Y10.765 R0.42
G1 X22.045 Y10.7
G2 X21.985 Y10.605 R0.42
G1 X21.939 Y10.55
G2 X21.857 Y10.475 R0.42
X21.599 Y10.297 R38.361
X21.499 Y10.247 R0.42
G1 X21.431 Y10.224
G2 X21.322 Y10.202 R0.42
G1 X21.25 Y10.197
G2 X21.129 Y10.207 R0.42
G1 X21.048 Y10.226
G2 X20.929 Y10.273 R0.42
G1 X20.858 Y10.315
G2 X20.806 Y10.352 R0.42
G1 X20.685 Y10.451
X20.572 Y10.536
X20.547 Y10.552
X20.462 Y10.495
X20.458 Y10.493
X20.373 Y10.439
X20.378 Y10.405
X20.408 Y10.271
X20.449 Y10.12
G2 X20.462 Y10.058 R0.42
G1 X20.471 Y9.977
G2 X20.466 Y9.847 R0.42
G1 X20.45 Y9.766
G2 X20.41 Y9.652 R0.42
G1 X20.377 Y9.589
G2 X20.312 Y9.497 R0.42
G1 X20.263 Y9.445
G2 X20.177 Y9.374 R0.42
X19.91 Y9.21 R38.361
X19.808 Y9.166 R0.42
G1 X19.739 Y9.146
G2 X19.628 Y9.129 R0.42
G1 X19.556
G2 X19.436 Y9.145 R0.42
G1 X19.357 Y9.167
G2 X19.239 Y9.222 R0.42
G1 X19.171 Y9.267
G2 X19.121 Y9.306 R0.42
G1 X19.006 Y9.411
X18.897 Y9.502
X18.873 Y9.519
X18.785 Y9.468
X18.781 Y9.465
X18.693 Y9.416
X18.696 Y9.381
X18.72 Y9.246
X18.753 Y9.094
G2 X18.762 Y9.031 R0.42
G1 X18.767 Y8.949
G2 X18.755 Y8.82 R0.42
G1 X18.736 Y8.741
G2 X18.689 Y8.628 R0.42
G1 X18.653 Y8.566
G2 X18.583 Y8.478 R0.42
G1 X18.531 Y8.429
G2 X18.442 Y8.363 R0.42
X18.166 Y8.213 R38.361
X18.062 Y8.174 R0.42
G1 X17.993 Y8.158
G2 X17.881 Y8.147 R0.42
G1 X17.809 Y8.15
G2 X17.69 Y8.173 R0.42
G1 X17.612 Y8.199
G2 X17.498 Y8.26 R0.42
G1 X17.432 Y8.309
G2 X17.384 Y8.35 R0.42
G1 X17.274 Y8.461
X17.17 Y8.558
X17.148 Y8.576
X17.057 Y8.529
X17.052 Y8.527
X16.962 Y8.482
X16.963 Y8.448
X16.98 Y8.311
X17.005 Y8.157
G2 X17.011 Y8.094 R0.42
G1 X17.012 Y8.012
G2 X16.993 Y7.884 R0.42
G1 X16.969 Y7.805
G2 X16.917 Y7.696 R0.42
G1 X16.878 Y7.636
G2 X16.803 Y7.552 R0.42
G1 X16.749 Y7.505
G2 X16.656 Y7.444 R0.42
X16.373 Y7.309 R38.361
X16.267 Y7.275 R0.42
G1 X16.197 Y7.262
G2 X16.084 Y7.258 R0.42
G1 X16.013 Y7.265
G2 X15.896 Y7.293 R0.42
G1 X15.819 Y7.324
G2 X15.708 Y7.39 R0.42
G1 X15.644 Y7.443
G2 X15.599 Y7.487 R0.42
G1 X15.495 Y7.603
X15.396 Y7.705
X15.375 Y7.724
X15.282 Y7.682
X15.277 Y7.68
X15.185 Y7.64
X15.184 Y7.606
X15.193 Y7.469
X15.211 Y7.314
G2 X15.213 Y7.25 R0.42
G1 X15.209 Y7.168
G2 X15.184 Y7.041 R0.42
G1 X15.156 Y6.964
G2 X15.099 Y6.857 R0.42
G1 X15.056 Y6.8
G2 X14.977 Y6.719 R0.42
G1 X14.921 Y6.675
G2 X14.825 Y6.619 R0.42
X14.535 Y6.499 R38.361
X14.428 Y6.471 R0.42
G1 X14.357 Y6.462
G2 X14.244 Y6.464 R0.42
G1 X14.173 Y6.474
G2 X14.057 Y6.509 R0.42
G1 X13.983 Y6.543
G2 X13.875 Y6.616 R0.42
G1 X13.815 Y6.671
G2 X13.771 Y6.718 R0.42
G1 X13.674 Y6.839
X13.58 Y6.946
X13.56 Y6.967
X13.465 Y6.93
X13.46 Y6.928
X13.366 Y6.892
X13.363 Y6.858
X13.365 Y6.721
X13.374 Y6.565
G2 X13.373 Y6.502 R0.42
G1 X13.366 Y6.42
G2 X13.334 Y6.295 R0.42
G1 X13.302 Y6.219
G2 X13.239 Y6.115 R0.42
G1 X13.193 Y6.06
G2 X13.11 Y5.984 R0.42
G1 X13.051 Y5.943
G2 X12.953 Y5.892 R0.42
X12.657 Y5.787 R38.361
X12.548 Y5.765 R0.42
G1 X12.477 Y5.76
G2 X12.365 Y5.767 R0.42
G1 X12.295 Y5.781
G2 X12.181 Y5.822 R0.42
G1 X12.108 Y5.86
G2 X12.004 Y5.938 R0.42
G1 X11.947 Y5.997
G2 X11.906 Y6.045 R0.42
G1 X11.815 Y6.172
X11.727 Y6.284
X11.708 Y6.305
X11.611 Y6.273
X11.606 Y6.271
X11.51 Y6.241
X11.506 Y6.207
X11.501 Y6.07
X11.502 Y5.914
G2 X11.497 Y5.851 R0.42
G1 X11.485 Y5.769
G2 X11.447 Y5.645 R0.42
G1 X11.411 Y5.571
G2 X11.343 Y5.472 R0.42
G1 X11.294 Y5.419
G2 X11.207 Y5.347 R0.42
G1 X11.147 Y5.309
G2 X11.045 Y5.263 R0.42
X10.745 Y5.174 R38.361
X10.635 Y5.158 R0.42
G1 X10.563 Y5.156
G2 X10.451 Y5.169 R0.42
G1 X10.382 Y5.187
G2 X10.27 Y5.234 R0.42
G1 X10.2 Y5.276
G2 X10.1 Y5.359 R0.42
G1 X10.046 Y5.421
G2 X10.008 Y5.472 R0.42
G1 X9.924 Y5.603
X9.842 Y5.719
X9.824 Y5.741
X9.725 Y5.714
X9.72 Y5.713
X9.623 Y5.688
X9.617 Y5.654
X9.604 Y5.517
X9.597 Y5.361
G2 X9.59 Y5.299 R0.42
G1 X9.573 Y5.218
G2 X9.529 Y5.096 R0.42
G1 X9.489 Y5.024
G2 X9.415 Y4.928 R0.42
G1 X9.364 Y4.878
G2 X9.274 Y4.811 R0.42
G1 X9.211 Y4.776
G2 X9.108 Y4.736 R0.42
X8.803 Y4.663 R38.361
X8.692 Y4.652 R0.42
G1 X8.621 Y4.654
G2 X8.51 Y4.673 R0.42
G1 X8.441 Y4.694
G2 X8.332 Y4.747 R0.42
G1 X8.264 Y4.793
G2 X8.169 Y4.881 R0.42
G1 X8.118 Y4.945
G2 X8.082 Y4.998 R0.42
G1 X8.005 Y5.133
X7.93 Y5.253
X7.913 Y5.277
X7.813 Y5.255
X7.808 Y5.254
X7.709 Y5.234
X7.701 Y5.2
X7.682 Y5.065
X7.667 Y4.909
G2 X7.656 Y4.847 R0.42
G1 X7.635 Y4.767
G2 X7.584 Y4.648 R0.42
G1 X7.541 Y4.578
G2 X7.462 Y4.486 R0.42
G1 X7.408 Y4.439
G2 X7.315 Y4.376 R0.42
G1 X7.25 Y4.345
G2 X7.145 Y4.31 R0.42
X6.837 Y4.253 R38.361
X6.725 Y4.248 R0.42
G1 X6.654 Y4.254
G2 X6.544 Y4.279 R0.42
G1 X6.477 Y4.304
G2 X6.371 Y4.362 R0.42
G1 X6.305 Y4.411
G2 X6.215 Y4.504 R0.42
G1 X6.167 Y4.571
G2 X6.135 Y4.625 R0.42
G1 X6.065 Y4.765
X5.996 Y4.889
X5.98 Y4.913
X5.879 Y4.897
X5.874 Y4.896
X5.775 Y4.881
X5.765 Y4.848
X5.738 Y4.713
X5.715 Y4.559
G2 X5.701 Y4.497 R0.42
G1 X5.676 Y4.419
G2 X5.619 Y4.302 R0.42
G1 X5.572 Y4.235
G2 X5.489 Y4.147 R0.42
G1 X5.432 Y4.103
G2 X5.336 Y4.045 R0.42
G1 X5.27 Y4.017
G2 X5.162 Y3.988 R0.42
X4.852 Y3.947 R38.361
X4.74 Y3.948 R0.42
G1 X4.67 Y3.958
G2 X4.561 Y3.988 R0.42
G1 X4.496 Y4.016
G2 X4.392 Y4.08 R0.42
G1 X4.329 Y4.133
G2 X4.244 Y4.23 R0.42
G1 X4.2 Y4.3
G2 X4.17 Y4.356 R0.42
G1 X4.108 Y4.499
X4.045 Y4.626
X4.031 Y4.651
X3.929 Y4.64
X3.924 Y4.639
X3.824 Y4.629
X3.813 Y4.597
X3.779 Y4.464
X3.748 Y4.311
G2 X3.73 Y4.25 R0.42
G1 X3.702 Y4.173
G2 X3.638 Y4.06 R0.42
G1 X3.588 Y3.995
G2 X3.5 Y3.912 R0.42
G1 X3.442 Y3.87
G2 X3.342 Y3.818 R0.42
G1 X3.275 Y3.794
G2 X3.166 Y3.77 R0.42
X2.853 Y3.745 R38.361
X2.742 Y3.752 R0.42
G1 X2.672 Y3.765
G2 X2.566 Y3.801 R0.42
G1 X2.501 Y3.833
G2 X2.402 Y3.902 R0.42
G1 X2.342 Y3.958
G2 X2.262 Y4.06 R0.42
G1 X2.221 Y4.132
G2 X2.194 Y4.189 R0.42
G1 X2.139 Y4.335
X2.084 Y4.465
X2.07 Y4.491
X1.968 Y4.485
X1.963
X1.863 Y4.48
X1.85 Y4.449
X1.809 Y4.318
X1.77 Y4.167
G2 X1.749 Y4.107 R0.42
G1 X1.717 Y4.031
G2 X1.648 Y3.922 R0.42
G1 X1.594 Y3.86
G2 X1.502 Y3.781 R0.42
G1 X1.441 Y3.742
G2 X1.339 Y3.695 R0.42
G1 X1.271 Y3.675
G2 X1.161 Y3.657 R0.42
X0.847 Y3.648 R38.361
X0.737 Y3.661 R0.42
G1 X0.668 Y3.678
G2 X0.563 Y3.719 R0.42
G1 X0.501 Y3.754
G2 X0.405 Y3.828 R0.42
G1 X0.347 Y3.888
G2 X0.273 Y3.993 R0.42
G1 X0.236 Y4.067
G2 X0.213 Y4.126 R0.42
G1 X0.165 Y4.275
X0.116 Y4.408
X0.104 Y4.434
X0.002
X-0.003
X-0.103
X-0.118 Y4.403
X-0.165 Y4.275
X-0.213 Y4.126
G2 X-0.236 Y4.067 R0.42
G1 X-0.273 Y3.993
G2 X-0.347 Y3.888 R0.42
G1 X-0.405 Y3.828
G2 X-0.501 Y3.754 R0.42
G1 X-0.563 Y3.719
G2 X-0.668 Y3.678 R0.42
G1 X-0.737 Y3.661
G2 X-0.847 Y3.648 R0.42
X-1.161 Y3.657 R38.361
X-1.271 Y3.675 R0.42
G1 X-1.339 Y3.695
G2 X-1.441 Y3.742 R0.42
G1 X-1.502 Y3.781
G2 X-1.594 Y3.86 R0.42
G1 X-1.648 Y3.922
G2 X-1.717 Y4.031 R0.42
G1 X-1.749 Y4.107
G2 X-1.77 Y4.167 R0.42
G1 X-1.809 Y4.318
X-1.851 Y4.453
X-1.862 Y4.48
X-1.964 Y4.485
X-1.969
X-2.069 Y4.491
X-2.085 Y4.461
X-2.139 Y4.335
X-2.194 Y4.189
G2 X-2.221 Y4.132 R0.42
G1 X-2.262 Y4.06
G2 X-2.342 Y3.958 R0.42
G1 X-2.402 Y3.902
G2 X-2.501 Y3.833 R0.42
G1 X-2.566 Y3.801
G2 X-2.672 Y3.765 R0.42
G1 X-2.742 Y3.752
G2 X-2.853 Y3.745 R0.42
X-3.166 Y3.77 R38.361
X-3.275 Y3.794 R0.42
G1 X-3.342 Y3.818
G2 X-3.442 Y3.87 R0.42
G1 X-3.5 Y3.912
G2 X-3.588 Y3.995 R0.42
G1 X-3.638 Y4.06
G2 X-3.702 Y4.173 R0.42
G1 X-3.73 Y4.25
G2 X-3.748 Y4.311 R0.42
G1 X-3.779 Y4.464
X-3.814 Y4.601
X-3.823 Y4.629
X-3.924 Y4.639
X-3.93 Y4.64
X-4.029 Y4.651
X-4.047 Y4.622
X-4.108 Y4.499
X-4.17 Y4.356
G2 X-4.2 Y4.3 R0.42
G1 X-4.244 Y4.23
G2 X-4.329 Y4.133 R0.42
G1 X-4.392 Y4.08
G2 X-4.496 Y4.016 R0.42
G1 X-4.561 Y3.988
G2 X-4.67 Y3.958 R0.42
G1 X-4.74 Y3.948
G2 X-4.852 Y3.947 R0.42
X-5.162 Y3.988 R38.361
X-5.27 Y4.017 R0.42
G1 X-5.336 Y4.045
G2 X-5.432 Y4.103 R0.42
G1 X-5.489 Y4.147
G2 X-5.572 Y4.235 R0.42
G1 X-5.619 Y4.302
G2 X-5.676 Y4.419 R0.42
G1 X-5.701 Y4.497
G2 X-5.715 Y4.559 R0.42
G1 X-5.738 Y4.713
X-5.766 Y4.852
X-5.773 Y4.88
X-5.874 Y4.896
X-5.88 Y4.897
X-5.979 Y4.913
X-5.998 Y4.885
X-6.065 Y4.765
X-6.135 Y4.625
G2 X-6.167 Y4.571 R0.42
G1 X-6.215 Y4.504
G2 X-6.305 Y4.411 R0.42
G1 X-6.371 Y4.362
G2 X-6.477 Y4.304 R0.42
G1 X-6.544 Y4.279
G2 X-6.654 Y4.254 R0.42
G1 X-6.725 Y4.248
G2 X-6.837 Y4.253 R0.42
X-7.145 Y4.31 R38.361
X-7.25 Y4.345 R0.42
G1 X-7.315 Y4.376
G2 X-7.408 Y4.439 R0.42
G1 X-7.462 Y4.486
G2 X-7.541 Y4.578 R0.42
G1 X-7.584 Y4.648
G2 X-7.635 Y4.767 R0.42
G1 X-7.656 Y4.847
G2 X-7.667 Y4.909 R0.42
G1 X-7.682 Y5.065
X-7.702 Y5.205
X-7.708 Y5.233
X-7.808 Y5.254
X-7.813 Y5.255
X-7.911 Y5.277
X-7.932 Y5.249
X-8.005 Y5.133
X-8.082 Y4.998
G2 X-8.118 Y4.945 R0.42
G1 X-8.169 Y4.881
G2 X-8.264 Y4.793 R0.42
G1 X-8.332 Y4.747
G2 X-8.441 Y4.694 R0.42
G1 X-8.51 Y4.673
G2 X-8.621 Y4.654 R0.42
G1 X-8.692 Y4.652
G2 X-8.803 Y4.663 R0.42
X-9.108 Y4.736 R38.361
X-9.211 Y4.776 R0.42
G1 X-9.274 Y4.811
G2 X-9.364 Y4.878 R0.42
G1 X-9.415 Y4.928
G2 X-9.489 Y5.024 R0.42
G1 X-9.529 Y5.096
G2 X-9.573 Y5.218 R0.42
G1 X-9.59 Y5.299
G2 X-9.597 Y5.361 R0.42
G1 X-9.604 Y5.517
X-9.617 Y5.658
X-9.622 Y5.687
X-9.721 Y5.713
X-9.726 Y5.714
X-9.822 Y5.741
X-9.845 Y5.715
X-9.924 Y5.603
X-10.008 Y5.472
G2 X-10.046 Y5.421 R0.42
G1 X-10.1 Y5.359
G2 X-10.2 Y5.276 R0.42
G1 X-10.27 Y5.234
G2 X-10.382 Y5.187 R0.42
G1 X-10.451 Y5.169
G2 X-10.563 Y5.156 R0.42
G1 X-10.635 Y5.158
G2 X-10.745 Y5.174 R0.42
X-11.045 Y5.263 R38.361
X-11.147 Y5.309 R0.42
G1 X-11.207 Y5.347
G2 X-11.294 Y5.419 R0.42
G1 X-11.343 Y5.472
G2 X-11.411 Y5.571 R0.42
G1 X-11.447 Y5.645
G2 X-11.485 Y5.769 R0.42
G1 X-11.497 Y5.851
G2 X-11.502 Y5.914 R0.42
G1 X-11.501 Y6.07
X-11.506 Y6.212
X-11.509 Y6.241
X-11.606 Y6.272
X-11.611 Y6.273
X-11.707 Y6.305
X-11.73 Y6.28
X-11.815 Y6.172
X-11.906 Y6.045
G2 X-11.947 Y5.997 R0.42
G1 X-12.004 Y5.938
G2 X-12.108 Y5.86 R0.42
G1 X-12.181 Y5.822
G2 X-12.295 Y5.781 R0.42
G1 X-12.365 Y5.767
G2 X-12.477 Y5.76 R0.42
G1 X-12.548 Y5.765
G2 X-12.657 Y5.787 R0.42
X-12.953 Y5.892 R38.361
X-13.051 Y5.943 R0.42
G1 X-13.11 Y5.984
G2 X-13.193 Y6.06 R0.42
G1 X-13.239 Y6.115
G2 X-13.302 Y6.219 R0.42
G1 X-13.334 Y6.295
G2 X-13.366 Y6.42 R0.42
G1 X-13.373 Y6.502
G2 X-13.374 Y6.565 R0.42
G1 X-13.365 Y6.721
X-13.363 Y6.863
X-13.365 Y6.892
X-13.46 Y6.928
X-13.465 Y6.93
X-13.559 Y6.966
X-13.583 Y6.943
X-13.674 Y6.839
X-13.771 Y6.718
G2 X-13.815 Y6.671 R0.42
G1 X-13.875 Y6.616
G2 X-13.983 Y6.543 R0.42
G1 X-14.057 Y6.509
G2 X-14.173 Y6.474 R0.42
G1 X-14.244 Y6.464
G2 X-14.357 Y6.462 R0.42
G1 X-14.428 Y6.471
G2 X-14.535 Y6.499 R0.42
X-14.825 Y6.619 R38.361
X-14.921 Y6.675 R0.42
G1 X-14.977 Y6.719
G2 X-15.056 Y6.8 R0.42
G1 X-15.099 Y6.857
G2 X-15.156 Y6.964 R0.42
G1 X-15.184 Y7.041
G2 X-15.209 Y7.168 R0.42
G1 X-15.213 Y7.25
G2 X-15.211 Y7.314 R0.42
G1 X-15.193 Y7.469
X-15.184 Y7.61
Y7.639
X-15.277 Y7.68
X-15.282 Y7.683
X-15.374 Y7.724
X-15.4 Y7.702
X-15.495 Y7.603
X-15.599 Y7.487
G2 X-15.644 Y7.443 R0.42
G1 X-15.708 Y7.39
G2 X-15.819 Y7.324 R0.42
G1 X-15.896 Y7.293
G2 X-16.013 Y7.265 R0.42
G1 X-16.084 Y7.258
G2 X-16.197 Y7.262 R0.42
G1 X-16.267 Y7.275
G2 X-16.373 Y7.309 R0.42
X-16.656 Y7.444 R38.361
X-16.749 Y7.505 R0.42
G1 X-16.803 Y7.552
G2 X-16.878 Y7.636 R0.42
G1 X-16.917 Y7.696
G2 X-16.969 Y7.805 R0.42
G1 X-16.993 Y7.884
G2 X-17.012 Y8.012 R0.42
G1 X-17.011 Y8.094
G2 X-17.005 Y8.157 R0.42
G1 X-16.98 Y8.311
X-16.963 Y8.452
X-16.961 Y8.481
X-17.053 Y8.527
X-17.057 Y8.529
X-17.146 Y8.576
X-17.174 Y8.555
X-17.274 Y8.461
X-17.384 Y8.35
G2 X-17.432 Y8.309 R0.42
G1 X-17.498 Y8.26
G2 X-17.612 Y8.199 R0.42
G1 X-17.69 Y8.173
G2 X-17.809 Y8.15 R0.42
G1 X-17.881 Y8.147
G2 X-17.993 Y8.158 R0.42
G1 X-18.062 Y8.174
G2 X-18.166 Y8.213 R0.42
X-18.442 Y8.363 R38.361
X-18.531 Y8.429 R0.42
G1 X-18.583 Y8.478
G2 X-18.653 Y8.566 R0.42
G1 X-18.689 Y8.628
G2 X-18.736 Y8.741 R0.42
G1 X-18.755 Y8.82
G2 X-18.767 Y8.949 R0.42
G1 X-18.762 Y9.031
G2 X-18.753 Y9.094 R0.42
G1 X-18.72 Y9.246
X-18.695 Y9.386
X-18.692 Y9.415
X-18.781 Y9.465
X-18.786 Y9.468
X-18.872 Y9.519
X-18.9 Y9.499
X-19.006 Y9.411
X-19.121 Y9.306
G2 X-19.171 Y9.267 R0.42
G1 X-19.239 Y9.222
G2 X-19.357 Y9.167 R0.42
G1 X-19.436 Y9.145
G2 X-19.556 Y9.129 R0.42
G1 X-19.628
G2 X-19.739 Y9.146 R0.42
G1 X-19.808 Y9.166
G2 X-19.91 Y9.21 R0.42
X-20.177 Y9.374 R38.361
X-20.263 Y9.445 R0.42
G1 X-20.312 Y9.497
G2 X-20.377 Y9.589 R0.42
G1 X-20.41 Y9.652
G2 X-20.45 Y9.766 R0.42
G1 X-20.466 Y9.847
G2 X-20.471 Y9.977 R0.42
G1 X-20.462 Y10.058
G2 X-20.449 Y10.12 R0.42
G1 X-20.408 Y10.271
X-20.377 Y10.409
X-20.372 Y10.438
X-20.458 Y10.493
X-20.462 Y10.496
X-20.546 Y10.551
X-20.575 Y10.533
X-20.685 Y10.451
X-20.806 Y10.352
G2 X-20.858 Y10.315 R0.42
G1 X-20.929 Y10.273
G2 X-21.048 Y10.226 R0.42
G1 X-21.129 Y10.207
G2 X-21.25 Y10.197 R0.42
G1 X-21.322 Y10.202
G2 X-21.431 Y10.224 R0.42
G1 X-21.499 Y10.247
G2 X-21.599 Y10.297 R0.42
X-21.857 Y10.475 R38.361
X-21.939 Y10.55 R0.42
G1 X-21.985 Y10.605
G2 X-22.045 Y10.7 R0.42
G1 X-22.075 Y10.765
G2 X-22.109 Y10.881 R0.42
G1 X-22.121 Y10.962
G2 X-22.119 Y11.092 R0.42
G1 X-22.105 Y11.173
G2 X-22.09 Y11.234 R0.42
G1 X-22.041 Y11.382
X-22.002 Y11.519
X-21.996 Y11.547
X-22.079 Y11.607
X-22.083 Y11.61
X-22.164 Y11.669
X-22.194 Y11.653
X-22.308 Y11.577
X-22.434 Y11.484
G2 X-22.488 Y11.45 R0.42
G1 X-22.561 Y11.412
G2 X-22.683 Y11.371 R0.42
G1 X-22.764 Y11.356
G2 X-22.885 Y11.353 R0.42
G1 X-22.956 Y11.361
G2 X-23.066 Y11.389 R0.42
G1 X-23.132 Y11.416
G2 X-23.228 Y11.471 R0.42
X-23.477 Y11.662 R38.361
X-23.555 Y11.741 R0.42
G1 X-23.598 Y11.798
G2 X-23.654 Y11.897 R0.42
G1 X-23.68 Y11.963
G2 X-23.708 Y12.08 R0.42
G1 X-23.715 Y12.162
G2 X-23.706 Y12.292 R0.42
G1 X-23.688 Y12.372
G2 X-23.67 Y12.433 R0.42
G1 X-23.613 Y12.578
X-23.567 Y12.712
X-23.56 Y12.74
X-23.64 Y12.804
X-23.643 Y12.807
X-23.721 Y12.871
X-23.752 Y12.856
X-23.87 Y12.786
X-24. Y12.7
G2 X-24.055 Y12.669 R0.42
G1 X-24.13 Y12.635
G2 X-24.255 Y12.6 R0.42
G1 X-24.337 Y12.59
G2 X-24.458 Y12.593 R0.42
G1 X-24.528 Y12.605
G2 X-24.635 Y12.638 R0.42
G1 X-24.7 Y12.668
G2 X-24.794 Y12.728 R0.42
X-25.033 Y12.932 R38.361
X-25.106 Y13.015 R0.42
G1 X-25.146 Y13.074
G2 X-25.197 Y13.176 R0.42
G1 X-25.219 Y13.243
G2 X-25.241 Y13.362 R0.42
G1 X-25.244 Y13.444
G2 X-25.229 Y13.573 R0.42
G1 X-25.207 Y13.652
G2 X-25.185 Y13.712 R0.42
G1 X-25.12 Y13.854
X-25.068 Y13.986
X-25.059 Y14.013
X-25.135 Y14.081
X-25.139 Y14.085
X-25.213 Y14.152
X-25.245 Y14.139
X-25.366 Y14.075
X-25.501 Y13.996
G2 X-25.558 Y13.969 R0.42
G1 X-25.634 Y13.938
G2 X-25.76 Y13.909 R0.42
G1 X-25.842 Y13.904
G2 X-25.963 Y13.913 R0.42
G1 X-26.033 Y13.929
G2 X-26.139 Y13.968 R0.42
G1 X-26.202 Y14.001
G2 X-26.292 Y14.066 R0.42
X-26.52 Y14.282 R38.361
X-26.589 Y14.369 R0.42
G1 X-26.626 Y14.43
G2 X-26.67 Y14.533 R0.42
G1 X-26.69 Y14.602
G2 X-26.705 Y14.722 R0.42
G1 X-26.704 Y14.805
G2 X-26.682 Y14.933 R0.42
G1 X-26.655 Y15.011
G2 X-26.631 Y15.068 R0.42
G1 X-26.559 Y15.207
X-26.499 Y15.336
X-26.489 Y15.363
X-26.562 Y15.435
X-26.565 Y15.439
X-26.636 Y15.51
X-26.668 Y15.499
X-26.793 Y15.441
X-26.932 Y15.369
G2 X-26.989 Y15.345 R0.42
G1 X-27.067 Y15.318
G2 X-27.195 Y15.296 R0.42
G1 X-27.278 Y15.295
G2 X-27.398 Y15.31 R0.42
G1 X-27.467 Y15.33
G2 X-27.57 Y15.374 R0.42
G1 X-27.631 Y15.411
G2 X-27.718 Y15.48 R0.42
X-27.934 Y15.708 R38.361
X-27.999 Y15.798 R0.42
G1 X-28.032 Y15.861
G2 X-28.071 Y15.967 R0.42
G1 X-28.087 Y16.037
G2 X-28.096 Y16.158 R0.42
G1 X-28.091 Y16.24
G2 X-28.062 Y16.366 R0.42
G1 X-28.031 Y16.442
G2 X-28.004 Y16.499 R0.42
G1 X-27.925 Y16.634
X-27.859 Y16.759
X-27.847 Y16.786
X-27.916 Y16.862
X-27.919 Y16.865
X-27.986 Y16.94
X-28.019 Y16.931
X-28.146 Y16.88
X-28.288 Y16.815
G2 X-28.348 Y16.793 R0.42
G1 X-28.427 Y16.771
G2 X-28.556 Y16.756 R0.42
G1 X-28.638 Y16.759
G2 X-28.757 Y16.781 R0.42
G1 X-28.824 Y16.803
G2 X-28.926 Y16.854 R0.42
G1 X-28.985 Y16.894
G2 X-29.068 Y16.967 R0.42
X-29.272 Y17.206 R38.361
X-29.332 Y17.3 R0.42
G1 X-29.362 Y17.365
G2 X-29.395 Y17.472 R0.42
G1 X-29.407 Y17.542
G2 X-29.41 Y17.663 R0.42
G1 X-29.4 Y17.745
G2 X-29.365 Y17.87 R0.42
G1 X-29.331 Y17.945
G2 X-29.3 Y18. R0.42
G1 X-29.214 Y18.13
X-29.142 Y18.252
X-29.128 Y18.278
X-29.193 Y18.357
X-29.196 Y18.361
X-29.259 Y18.439
X-29.292 Y18.431
X-29.422 Y18.387
X-29.567 Y18.33
G2 X-29.628 Y18.312 R0.42
G1 X-29.708 Y18.294
G2 X-29.838 Y18.285 R0.42
G1 X-29.92 Y18.292
G2 X-30.037 Y18.32 R0.42
G1 X-30.103 Y18.346
G2 X-30.202 Y18.402 R0.42
G1 X-30.259 Y18.445
G2 X-30.338 Y18.523 R0.42
X-30.529 Y18.772 R38.361
X-30.584 Y18.868 R0.42
G1 X-30.611 Y18.934
G2 X-30.639 Y19.044 R0.42
G1 X-30.647 Y19.115
G2 X-30.644 Y19.236 R0.42
G1 X-30.629 Y19.317
G2 X-30.588 Y19.439 R0.42
G1 X-30.55 Y19.512
G2 X-30.516 Y19.566 R0.42
G1 X-30.423 Y19.692
X-30.344 Y19.81
X-30.33 Y19.835
X-30.39 Y19.917
X-30.393 Y19.921
X-30.452 Y20.003
X-30.486 Y19.997
X-30.618 Y19.959
X-30.766 Y19.91
G2 X-30.827 Y19.895 R0.42
G1 X-30.908 Y19.881
G2 X-31.038 Y19.879 R0.42
G1 X-31.119 Y19.891
G2 X-31.235 Y19.925 R0.42
G1 X-31.3 Y19.955
G2 X-31.395 Y20.015 R0.42
G1 X-31.45 Y20.061
G2 X-31.525 Y20.143 R0.42
X-31.703 Y20.401 R38.361
X-31.753 Y20.501 R0.42
G1 X-31.776 Y20.569
G2 X-31.798 Y20.678 R0.42
G1 X-31.803 Y20.75
G2 X-31.793 Y20.871 R0.42
G1 X-31.774 Y20.952
G2 X-31.727 Y21.071 R0.42
G1 X-31.685 Y21.142
G2 X-31.648 Y21.194 R0.42
G1 X-31.549 Y21.315
X-31.464 Y21.428
X-31.448 Y21.453
X-31.505 Y21.538
X-31.507 Y21.542
X-31.561 Y21.627
X-31.595 Y21.622
X-31.729 Y21.592
X-31.88 Y21.551
G2 X-31.942 Y21.538 R0.42
G1 X-32.023 Y21.529
G2 X-32.153 Y21.534 R0.42
G1 X-32.234 Y21.55
G2 X-32.348 Y21.59 R0.42
G1 X-32.412 Y21.623
G2 X-32.503 Y21.688 R0.42
G1 X-32.555 Y21.737
G2 X-32.626 Y21.823 R0.42
X-32.79 Y22.09 R38.361
X-32.834 Y22.192 R0.42
G1 X-32.854 Y22.261
G2 X-32.871 Y22.372 R0.42
G1 Y22.444
G2 X-32.855 Y22.564 R0.42
G1 X-32.833 Y22.643
G2 X-32.778 Y22.761 R0.42
G1 X-32.733 Y22.829
G2 X-32.694 Y22.879 R0.42
G1 X-32.589 Y22.994
X-32.498 Y23.103
X-32.481 Y23.127
X-32.532 Y23.215
X-32.535 Y23.219
X-32.584 Y23.307
X-32.618 Y23.304
X-32.754 Y23.28
X-32.906 Y23.247
G2 X-32.969 Y23.238 R0.42
G1 X-33.051 Y23.233
G2 X-33.18 Y23.245 R0.42
G1 X-33.259 Y23.264
G2 X-33.372 Y23.311 R0.42
G1 X-33.434 Y23.347
G2 X-33.522 Y23.417 R0.42
G1 X-33.572 Y23.469
G2 X-33.637 Y23.558 R0.42
X-33.787 Y23.834 R38.361
X-33.826 Y23.938 R0.42
G1 X-33.842 Y24.008
G2 X-33.853 Y24.119 R0.42
G1 X-33.85 Y24.191
G2 X-33.827 Y24.31 R0.42
G1 X-33.801 Y24.388
G2 X-33.74 Y24.502 R0.42
G1 X-33.691 Y24.568
G2 X-33.65 Y24.616 R0.42
G1 X-33.539 Y24.726
X-33.442 Y24.83
X-33.424 Y24.852
X-33.471 Y24.943
X-33.473 Y24.948
X-33.518 Y25.038
X-33.552 Y25.037
X-33.689 Y25.02
X-33.843 Y24.995
G2 X-33.906 Y24.989 R0.42
G1 X-33.988 Y24.988
G2 X-34.116 Y25.007 R0.42
G1 X-34.195 Y25.031
G2 X-34.304 Y25.083 R0.42
G1 X-34.364 Y25.122
G2 X-34.448 Y25.197 R0.42
G1 X-34.495 Y25.251
G2 X-34.556 Y25.344 R0.42
X-34.691 Y25.627 R38.361
X-34.725 Y25.733 R0.42
G1 X-34.738 Y25.803
G2 X-34.742 Y25.916 R0.42
G1 X-34.735 Y25.987
G2 X-34.707 Y26.104 R0.42
G1 X-34.676 Y26.181
G2 X-34.61 Y26.292 R0.42
G1 X-34.557 Y26.356
G2 X-34.513 Y26.401 R0.42
G1 X-34.397 Y26.505
X-34.295 Y26.604
X-34.276 Y26.625
X-34.318 Y26.718
X-34.32 Y26.723
X-34.36 Y26.815
X-34.394 Y26.816
X-34.531 Y26.807
X-34.686 Y26.789
G2 X-34.75 Y26.787 R0.42
G1 X-34.832 Y26.791
G2 X-34.959 Y26.816 R0.42
G1 X-35.036 Y26.844
G2 X-35.143 Y26.901 R0.42
G1 X-35.2 Y26.944
G2 X-35.281 Y27.023 R0.42
G1 X-35.325 Y27.079
G2 X-35.381 Y27.175 R0.42
X-35.501 Y27.465 R38.361
X-35.529 Y27.572 R0.42
G1 X-35.538 Y27.643
G2 X-35.536 Y27.756 R0.42
G1 X-35.526 Y27.827
G2 X-35.491 Y27.943 R0.42
G1 X-35.457 Y28.017
G2 X-35.384 Y28.125 R0.42
G1 X-35.329 Y28.186
G2 X-35.282 Y28.229 R0.42
G1 X-35.161 Y28.326
X-35.054 Y28.42
X-35.033 Y28.44
X-35.07 Y28.535
X-35.072 Y28.54
X-35.108 Y28.634
X-35.142 Y28.637
X-35.279 Y28.635
X-35.435 Y28.626
G2 X-35.498 Y28.627 R0.42
G1 X-35.58 Y28.634
G2 X-35.705 Y28.666 R0.42
G1 X-35.781 Y28.698
G2 X-35.884 Y28.761 R0.42
G1 X-35.94 Y28.807
G2 X-36.016 Y28.89 R0.42
G1 X-36.057 Y28.948
G2 X-36.108 Y29.047 R0.42
X-36.213 Y29.343 R38.361
X-36.235 Y29.452 R0.42
G1 X-36.24 Y29.523
G2 X-36.233 Y29.635 R0.42
G1 X-36.219 Y29.706
G2 X-36.178 Y29.819 R0.42
G1 X-36.14 Y29.892
G2 X-36.062 Y29.996 R0.42
G1 X-36.003 Y30.053
G2 X-35.955 Y30.094 R0.42
G1 X-35.828 Y30.185
X-35.717 Y30.273
X-35.695 Y30.292
X-35.727 Y30.389
X-35.729 Y30.394
X-35.759 Y30.49
X-35.793 Y30.494
X-35.93 Y30.499
X-36.086 Y30.498
G2 X-36.149 Y30.503 R0.42
G1 X-36.231 Y30.515
G2 X-36.354 Y30.553 R0.42
G1 X-36.428 Y30.589
G2 X-36.528 Y30.657 R0.42
G1 X-36.581 Y30.706
G2 X-36.653 Y30.793 R0.42
G1 X-36.691 Y30.854
G2 X-36.736 Y30.955 R0.42
X-36.826 Y31.255 R38.361
X-36.842 Y31.365 R0.42
G1 X-36.844 Y31.437
G2 X-36.831 Y31.548 R0.42
G1 X-36.813 Y31.618
G2 X-36.766 Y31.73 R0.42
G1 X-36.724 Y31.801
G2 X-36.641 Y31.9 R0.42
G1 X-36.579 Y31.954
G2 X-36.528 Y31.992 R0.42
G1 X-36.397 Y32.076
X-36.281 Y32.158
X-36.259 Y32.176
X-36.286 Y32.275
X-36.287 Y32.28
X-36.312 Y32.377
X-36.346 Y32.383
X-36.483 Y32.395
X-36.639 Y32.403
G2 X-36.702 Y32.411 R0.42
G1 X-36.782 Y32.427
G2 X-36.903 Y32.471 R0.42
G1 X-36.975 Y32.511
G2 X-37.072 Y32.585 R0.42
G1 X-37.122 Y32.636
G2 X-37.189 Y32.726 R0.42
G1 X-37.224 Y32.788
G2 X-37.264 Y32.893 R0.42
X-37.337 Y33.197 R38.361
X-37.348 Y33.308 R0.42
G1 X-37.346 Y33.379
G2 X-37.327 Y33.49 R0.42
G1 X-37.306 Y33.558
G2 X-37.253 Y33.668 R0.42
G1 X-37.207 Y33.736
G2 X-37.119 Y33.831 R0.42
G1 X-37.055 Y33.882
G2 X-37.002 Y33.918 R0.42
G1 X-36.867 Y33.995
X-36.747 Y34.07
X-36.723 Y34.087
X-36.745 Y34.187
X-36.746 Y34.192
X-36.766 Y34.291
X-36.799 Y34.299
X-36.935 Y34.318
X-37.091 Y34.333
G2 X-37.153 Y34.344 R0.42
G1 X-37.233 Y34.365
G2 X-37.352 Y34.416 R0.42
G1 X-37.422 Y34.46
G2 X-37.514 Y34.538 R0.42
G1 X-37.561 Y34.591
G2 X-37.624 Y34.685 R0.42
G1 X-37.655 Y34.75
G2 X-37.69 Y34.855 R0.42
X-37.747 Y35.163 R38.361
X-37.752 Y35.275 R0.42
G1 X-37.746 Y35.346
G2 X-37.721 Y35.456 R0.42
G1 X-37.696 Y35.523
G2 X-37.638 Y35.629 R0.42
G1 X-37.589 Y35.695
G2 X-37.496 Y35.785 R0.42
G1 X-37.428 Y35.833
G2 X-37.375 Y35.865 R0.42
G1 X-37.235 Y35.935
X-37.111 Y36.004
X-37.087 Y36.02
X-37.103 Y36.121
X-37.104 Y36.126
X-37.119 Y36.225
X-37.152 Y36.235
X-37.287 Y36.262
X-37.441 Y36.285
G2 X-37.503 Y36.299 R0.42
G1 X-37.581 Y36.324
G2 X-37.698 Y36.381 R0.42
G1 X-37.765 Y36.428
G2 X-37.853 Y36.512 R0.42
G1 X-37.898 Y36.568
G2 X-37.955 Y36.664 R0.42
G1 X-37.983 Y36.73
G2 X-38.012 Y36.837 R0.42
X-38.053 Y37.148 R38.361
X-38.052 Y37.26 R0.42
G1 X-38.042 Y37.33
G2 X-38.012 Y37.439 R0.42
G1 X-37.984 Y37.504
G2 X-37.92 Y37.608 R0.42
G1 X-37.867 Y37.671
G2 X-37.77 Y37.756 R0.42
G1 X-37.7 Y37.8
G2 X-37.644 Y37.83 R0.42
G1 X-37.501 Y37.892
X-37.374 Y37.955
X-37.349 Y37.969
X-37.36 Y38.071
X-37.361 Y38.076
X-37.371 Y38.176
X-37.403 Y38.187
X-37.536 Y38.221
X-37.689 Y38.252
G2 X-37.75 Y38.27 R0.42
G1 X-37.827 Y38.299
G2 X-37.94 Y38.362 R0.42
G1 X-38.005 Y38.413
G2 X-38.088 Y38.5 R0.42
G1 X-38.13 Y38.558
G2 X-38.182 Y38.658 R0.42
G1 X-38.206 Y38.725
G2 X-38.23 Y38.827 R0.42
G1 Y38.834 F250.
G2 X-38.255 Y39.146 Z-1.009 R38.361
X-38.248 Y39.258 Z-1.013 R0.42
G1 X-38.235 Y39.328 Z-1.015
G2 X-38.199 Y39.435 Z-1.018 R0.42
G1 X-38.167 Y39.499 Z-1.02
G2 X-38.098 Y39.598 Z-1.024 R0.42
G1 X-38.042 Y39.658 Z-1.026
G2 X-37.94 Y39.739 Z-1.03 R0.42
G1 X-37.868 Y39.779 Z-1.032
G2 X-37.811 Y39.806 Z-1.034 R0.42
G1 X-37.665 Y39.861 Z-1.038
X-37.535 Y39.916 Z-1.043
X-37.509 Y39.93
X-37.515 Y40.032 Z-1.046
Y40.037 Z-1.047
X-37.52 Y40.137 Z-1.049
X-37.551 Y40.15 Z-1.05
X-37.682 Y40.191 Z-1.054
X-37.833 Y40.23 Z-1.059
G2 X-37.893 Y40.251 Z-1.061 R0.42
G1 X-37.969 Y40.283 Z-1.063
G2 X-38.078 Y40.352 Z-1.067 R0.42
G1 X-38.14 Y40.406 Z-1.069
G2 X-38.22 Y40.499 Z-1.073 R0.42
G1 X-38.258 Y40.559 Z-1.075
G2 X-38.304 Y40.661 Z-1.078 R0.42
G1 X-38.325 Y40.729 Z-1.08
G2 X-38.344 Y40.839 Z-1.084 R0.42
X-38.352 Y41.153 Z-1.093 R38.361
X-38.339 Y41.263 Z-1.096 R0.42
G1 X-38.322 Y41.332 Z-1.098
G2 X-38.281 Y41.437 Z-1.101 R0.42
G1 X-38.246 Y41.5 Z-1.103
G2 X-38.172 Y41.595 Z-1.107 R0.42
G1 X-38.112 Y41.653 Z-1.109
G2 X-38.007 Y41.727 Z-1.113 R0.42
G1 X-37.933 Y41.764 Z-1.115
G2 X-37.874 Y41.788 Z-1.117 R0.42
G1 X-37.725 Y41.835 Z-1.122
X-37.592 Y41.884 Z-1.126
X-37.566 Y41.896 Z-1.127
Y41.998 Z-1.13
Y42.003
Y42.103 Z-1.133
X-37.597 Y42.118 Z-1.134
X-37.725 Y42.165 Z-1.138
X-37.874 Y42.212 Z-1.142
G2 X-37.933 Y42.236 Z-1.144 R0.42
G1 X-38.007 Y42.273 Z-1.147
G2 X-38.112 Y42.347 Z-1.15 R0.42
G1 X-38.172 Y42.405 Z-1.153
G2 X-38.246 Y42.5 Z-1.156 R0.42
G1 X-38.281 Y42.563 Z-1.158
G2 X-38.322 Y42.668 Z-1.162 R0.42
G1 X-38.339 Y42.737 Z-1.164
G2 X-38.352 Y42.847 Z-1.167 R0.42
X-38.344 Y43.161 Z-1.176 R38.361
X-38.325 Y43.271 Z-1.179 R0.42
G1 X-38.304 Y43.339 Z-1.181
G2 X-38.258 Y43.441 Z-1.185 R0.42
G1 X-38.22 Y43.501 Z-1.187
G2 X-38.14 Y43.594 Z-1.19 R0.42
G1 X-38.078 Y43.648 Z-1.193
G2 X-37.969 Y43.717 Z-1.196 R0.42
G1 X-37.893 Y43.749 Z-1.199
G2 X-37.833 Y43.77 Z-1.201 R0.42
G1 X-37.682 Y43.809 Z-1.205
X-37.547 Y43.851 Z-1.209
X-37.52 Y43.862 Z-1.21
X-37.515 Y43.964 Z-1.213
Y43.969
X-37.509 Y44.069 Z-1.216
X-37.539 Y44.085 Z-1.217
X-37.665 Y44.139 Z-1.221
X-37.811 Y44.194 Z-1.226
G2 X-37.868 Y44.221 Z-1.227 R0.42
G1 X-37.94 Y44.261 Z-1.23
G2 X-38.042 Y44.342 Z-1.234 R0.42
G1 X-38.098 Y44.402 Z-1.236
G2 X-38.167 Y44.501 Z-1.24 R0.42
G1 X-38.199 Y44.565 Z-1.242
G2 X-38.235 Y44.672 Z-1.245 R0.42
G1 X-38.248 Y44.742 Z-1.247
G2 X-38.255 Y44.854 Z-1.25 R0.42
X-38.23 Y45.166 Z-1.259 R38.361
X-38.206 Y45.275 Z-1.263 R0.42
G1 X-38.182 Y45.342 Z-1.265
G2 X-38.13 Y45.442 Z-1.268 R0.42
G1 X-38.088 Y45.5 Z-1.27
G2 X-38.005 Y45.587 Z-1.274 R0.42
G1 X-37.94 Y45.638 Z-1.276
G2 X-37.827 Y45.701 Z-1.28 R0.42
G1 X-37.75 Y45.73 Z-1.282
G2 X-37.689 Y45.748 Z-1.284 R0.42
G1 X-37.536 Y45.779 Z-1.288
X-37.399 Y45.814 Z-1.293
X-37.371 Y45.823
X-37.361 Y45.924 Z-1.296
X-37.36 Y45.93 Z-1.297
X-37.349 Y46.029 Z-1.299
X-37.378 Y46.047 Z-1.3
X-37.501 Y46.108 Z-1.304
X-37.644 Y46.17 Z-1.309
G2 X-37.7 Y46.2 Z-1.311 R0.42
G1 X-37.77 Y46.244 Z-1.313
G2 X-37.867 Y46.329 Z-1.317 R0.42
G1 X-37.92 Y46.392 Z-1.319
G2 X-37.984 Y46.496 Z-1.323 R0.42
G1 X-38.012 Y46.561 Z-1.325
G2 X-38.042 Y46.67 Z-1.328 R0.42
G1 X-38.052 Y46.74 Z-1.33
G2 X-38.053 Y46.852 Z-1.334 R0.42
X-38.012 Y47.163 Z-1.343 R38.361
X-37.983 Y47.27 Z-1.346 R0.42
G1 X-37.955 Y47.336 Z-1.348
G2 X-37.898 Y47.432 Z-1.351 R0.42
G1 X-37.853 Y47.488 Z-1.353
G2 X-37.765 Y47.572 Z-1.357 R0.42
G1 X-37.698 Y47.619 Z-1.359
G2 X-37.581 Y47.676 Z-1.363 R0.42
G1 X-37.503 Y47.701 Z-1.365
G2 X-37.441 Y47.715 Z-1.367 R0.42
G1 X-37.287 Y47.738 Z-1.372
X-37.148 Y47.766 Z-1.376
X-37.12 Y47.773 Z-1.377
X-37.104 Y47.874 Z-1.38
X-37.103 Y47.88
X-37.087 Y47.979 Z-1.383
X-37.115 Y47.998 Z-1.384
X-37.235 Y48.065 Z-1.388
X-37.375 Y48.135 Z-1.392
G2 X-37.428 Y48.167 Z-1.394 R0.42
G1 X-37.496 Y48.215 Z-1.396
G2 X-37.589 Y48.305 Z-1.4 R0.42
G1 X-37.638 Y48.371 Z-1.403
G2 X-37.696 Y48.477 Z-1.406 R0.42
G1 X-37.721 Y48.544 Z-1.408
G2 X-37.746 Y48.654 Z-1.412 R0.42
G1 X-37.752 Y48.725 Z-1.414
G2 X-37.747 Y48.837 Z-1.417 R0.42
X-37.69 Y49.145 Z-1.426 R38.361
X-37.655 Y49.25 Z-1.429 R0.42
G1 X-37.624 Y49.315 Z-1.431
G2 X-37.561 Y49.409 Z-1.435 R0.42
G1 X-37.514 Y49.462 Z-1.437
G2 X-37.422 Y49.54 Z-1.44 R0.42
G1 X-37.352 Y49.584 Z-1.443
G2 X-37.233 Y49.635 Z-1.446 R0.42
G1 X-37.153 Y49.656 Z-1.449
G2 X-37.091 Y49.667 Z-1.451 R0.42
G1 X-36.935 Y49.682 Z-1.455
X-36.795 Y49.702 Z-1.459
X-36.767 Y49.708 Z-1.46
X-36.746 Y49.808 Z-1.463
X-36.745 Y49.813
X-36.723 Y49.911 Z-1.466
X-36.751 Y49.932 Z-1.467
X-36.867 Y50.005 Z-1.471
X-37.002 Y50.082 Z-1.476
G2 X-37.055 Y50.118 Z-1.477 R0.42
G1 X-37.119 Y50.169 Z-1.48
G2 X-37.207 Y50.264 Z-1.484 R0.42
G1 X-37.253 Y50.332 Z-1.486
G2 X-37.306 Y50.442 Z-1.49 R0.42
G1 X-37.327 Y50.51 Z-1.492
G2 X-37.346 Y50.621 Z-1.495 R0.42
G1 X-37.348 Y50.692 Z-1.497
G2 X-37.337 Y50.803 Z-1.5 R0.42
X-37.264 Y51.107 Z-1.509 R38.361
X-37.224 Y51.212 Z-1.513 R0.42
G1 X-37.189 Y51.274 Z-1.515
G2 X-37.122 Y51.364 Z-1.518 R0.42
G1 X-37.072 Y51.415 Z-1.52
G2 X-36.975 Y51.489 Z-1.524 R0.42
G1 X-36.903 Y51.529 Z-1.526
G2 X-36.782 Y51.573 Z-1.53 R0.42
G1 X-36.702 Y51.589 Z-1.532
G2 X-36.639 Y51.597 Z-1.534 R0.42
G1 X-36.483 Y51.605 Z-1.538
X-36.342 Y51.617 Z-1.543
X-36.313 Y51.622
X-36.287 Y51.721 Z-1.546
X-36.286 Y51.726 Z-1.547
X-36.259 Y51.822 Z-1.549
X-36.285 Y51.845 Z-1.55
X-36.397 Y51.924 Z-1.554
X-36.528 Y52.008 Z-1.559
G2 X-36.579 Y52.046 Z-1.561 R0.42
G1 X-36.641 Y52.1 Z-1.563
G2 X-36.724 Y52.199 Z-1.567 R0.42
G1 X-36.766 Y52.27 Z-1.569
G2 X-36.813 Y52.382 Z-1.573 R0.42
G1 X-36.831 Y52.452 Z-1.575
G2 X-36.844 Y52.563 Z-1.578 R0.42
G1 X-36.842 Y52.635 Z-1.58
G2 X-36.826 Y52.745 Z-1.584 R0.42
X-36.736 Y53.045 Z-1.593 R38.361
X-36.691 Y53.146 Z-1.596 R0.42
G1 X-36.653 Y53.207 Z-1.598
G2 X-36.581 Y53.294 Z-1.601 R0.42
G1 X-36.528 Y53.343 Z-1.603
G2 X-36.428 Y53.411 Z-1.607 R0.42
G1 X-36.354 Y53.447 Z-1.609
G2 X-36.231 Y53.485 Z-1.613 R0.42
G1 X-36.149 Y53.497 Z-1.615
G2 X-36.086 Y53.502 Z-1.617 R0.42
G1 X-35.93 Y53.501 Z-1.622
X-35.788 Y53.506 Z-1.626
X-35.759 Y53.509 Z-1.627
X-35.728 Y53.606 Z-1.63
X-35.727 Y53.611
X-35.695 Y53.707 Z-1.633
X-35.72 Y53.73 Z-1.634
X-35.828 Y53.815 Z-1.638
X-35.955 Y53.906 Z-1.642
G2 X-36.003 Y53.947 Z-1.644 R0.42
G1 X-36.062 Y54.004 Z-1.647
G2 X-36.14 Y54.108 Z-1.65 R0.42
G1 X-36.178 Y54.181 Z-1.653
G2 X-36.219 Y54.294 Z-1.656 R0.42
G1 X-36.233 Y54.365 Z-1.658
G2 X-36.24 Y54.477 Z-1.662 R0.42
G1 X-36.235 Y54.548 Z-1.664
G2 X-36.213 Y54.657 Z-1.667 R0.42
X-36.108 Y54.953 Z-1.676 R38.361
X-36.057 Y55.051 Z-1.679 R0.42
G1 X-36.016 Y55.11 Z-1.681
G2 X-35.94 Y55.193 Z-1.685 R0.42
G1 X-35.884 Y55.239 Z-1.687
G2 X-35.781 Y55.302 Z-1.69 R0.42
G1 X-35.705 Y55.334 Z-1.693
G2 X-35.58 Y55.366 Z-1.696 R0.42
G1 X-35.498 Y55.373 Z-1.699
G2 X-35.435 Y55.374 Z-1.701 R0.42
G1 X-35.279 Y55.365 Z-1.705
X-35.137 Y55.363 Z-1.709
X-35.108 Y55.365 Z-1.71
X-35.072 Y55.46 Z-1.713
X-35.07 Y55.465
X-35.034 Y55.559 Z-1.716
X-35.057 Y55.583 Z-1.717
X-35.161 Y55.674 Z-1.721
X-35.282 Y55.771 Z-1.726
G2 X-35.329 Y55.814 Z-1.727 R0.42
G1 X-35.384 Y55.875 Z-1.73
G2 X-35.457 Y55.983 Z-1.734 R0.42
G1 X-35.491 Y56.057 Z-1.736
G2 X-35.526 Y56.173 Z-1.74 R0.42
G1 X-35.536 Y56.244 Z-1.742
G2 X-35.538 Y56.357 Z-1.745 R0.42
G1 X-35.529 Y56.428 Z-1.747
G2 X-35.501 Y56.535 Z-1.75 R0.42
X-35.381 Y56.825 Z-1.759 R38.361
X-35.325 Y56.921 Z-1.763 R0.42
G1 X-35.281 Y56.977 Z-1.765
G2 X-35.2 Y57.056 Z-1.768 R0.42
G1 X-35.143 Y57.099 Z-1.77
G2 X-35.036 Y57.156 Z-1.774 R0.42
G1 X-34.959 Y57.184 Z-1.776
G2 X-34.832 Y57.209 Z-1.78 R0.42
G1 X-34.75 Y57.213 Z-1.782
G2 X-34.686 Y57.211 Z-1.784 R0.42
G1 X-34.531 Y57.193 Z-1.788
X-34.39 Y57.184 Z-1.793
X-34.361
X-34.32 Y57.277 Z-1.796
X-34.317 Y57.282 Z-1.797
X-34.276 Y57.374 Z-1.799
X-34.298 Y57.4 Z-1.8
X-34.397 Y57.495 Z-1.804
X-34.513 Y57.599 Z-1.809
G2 X-34.557 Y57.644 Z-1.811 R0.42
G1 X-34.61 Y57.708 Z-1.813
G2 X-34.676 Y57.819 Z-1.817 R0.42
G1 X-34.707 Y57.896 Z-1.819
G2 X-34.735 Y58.013 Z-1.823 R0.42
G1 X-34.742 Y58.084 Z-1.825
G2 X-34.738 Y58.197 Z-1.828 R0.42
G1 X-34.725 Y58.267 Z-1.83
G2 X-34.691 Y58.373 Z-1.834 R0.42
X-34.556 Y58.656 Z-1.843 R38.361
X-34.495 Y58.749 Z-1.846 R0.42
G1 X-34.448 Y58.803 Z-1.848
G2 X-34.364 Y58.878 Z-1.851 R0.42
G1 X-34.304 Y58.917 Z-1.853
G2 X-34.195 Y58.969 Z-1.857 R0.42
G1 X-34.116 Y58.993 Z-1.859
G2 X-33.988 Y59.012 Z-1.863 R0.42
G1 X-33.906 Y59.011 Z-1.865
G2 X-33.843 Y59.005 Z-1.867 R0.42
G1 X-33.689 Y58.98 Z-1.872
X-33.548 Y58.963 Z-1.876
X-33.519 Y58.961 Z-1.877
X-33.473 Y59.053 Z-1.88
X-33.47 Y59.057
X-33.424 Y59.146 Z-1.883
X-33.445 Y59.174 Z-1.884
X-33.539 Y59.274 Z-1.888
X-33.65 Y59.384 Z-1.892
G2 X-33.691 Y59.432 Z-1.894 R0.42
G1 X-33.74 Y59.498 Z-1.896
G2 X-33.801 Y59.612 Z-1.9 R0.42
G1 X-33.827 Y59.69 Z-1.903
G2 X-33.85 Y59.809 Z-1.906 R0.42
G1 X-33.853 Y59.881 Z-1.908
G2 X-33.842 Y59.992 Z-1.912 R0.42
G1 X-33.826 Y60.062 Z-1.914
G2 X-33.787 Y60.166 Z-1.917 R0.42
X-33.637 Y60.442 Z-1.926 R38.361
X-33.572 Y60.531 Z-1.929 R0.42
G1 X-33.522 Y60.583 Z-1.931
G2 X-33.434 Y60.653 Z-1.935 R0.42
G1 X-33.372 Y60.689 Z-1.937
G2 X-33.259 Y60.736 Z-1.94 R0.42
G1 X-33.18 Y60.755 Z-1.943
G2 X-33.051 Y60.767 Z-1.946 R0.42
G1 X-32.969 Y60.762 Z-1.949
G2 X-32.906 Y60.753 Z-1.951 R0.42
G1 X-32.754 Y60.72 Z-1.955
X-32.614 Y60.695 Z-1.959
X-32.585 Y60.692 Z-1.96
X-32.535 Y60.781 Z-1.963
X-32.532 Y60.786
X-32.481 Y60.872 Z-1.966
X-32.501 Y60.9 Z-1.967
X-32.589 Y61.006 Z-1.971
X-32.694 Y61.121 Z-1.976
G2 X-32.733 Y61.171 Z-1.977 R0.42
G1 X-32.778 Y61.239 Z-1.98
G2 X-32.833 Y61.357 Z-1.984 R0.42
G1 X-32.855 Y61.436 Z-1.986
G2 X-32.871 Y61.556 Z-1.99 R0.42
G1 Y61.628 Z-1.992
G2 X-32.854 Y61.739 Z-1.995 R0.42
G1 X-32.834 Y61.808 Z-1.997
G2 X-32.793 Y61.904 Z-2. R0.42
G1 X-32.79 Y61.91 F400.
G2 X-32.626 Y62.177 R38.361
X-32.555 Y62.263 R0.42
G1 X-32.503 Y62.312
G2 X-32.412 Y62.377 R0.42
G1 X-32.348 Y62.41
G2 X-32.234 Y62.45 R0.42
G1 X-32.153 Y62.466
G2 X-32.023 Y62.471 R0.42
G1 X-31.942 Y62.462
G2 X-31.88 Y62.449 R0.42
G1 X-31.729 Y62.408
X-31.591 Y62.377
X-31.562 Y62.372
X-31.507 Y62.458
X-31.504 Y62.462
X-31.449 Y62.546
X-31.467 Y62.575
X-31.549 Y62.685
X-31.648 Y62.806
G2 X-31.685 Y62.858 R0.42
G1 X-31.727 Y62.929
G2 X-31.774 Y63.048 R0.42
G1 X-31.793 Y63.129
G2 X-31.803 Y63.25 R0.42
G1 X-31.798 Y63.322
G2 X-31.776 Y63.431 R0.42
G1 X-31.753 Y63.499
G2 X-31.703 Y63.599 R0.42
X-31.525 Y63.857 R38.361
X-31.45 Y63.939 R0.42
G1 X-31.395 Y63.985
G2 X-31.3 Y64.045 R0.42
G1 X-31.235 Y64.075
G2 X-31.119 Y64.109 R0.42
G1 X-31.038 Y64.121
G2 X-30.908 Y64.119 R0.42
G1 X-30.827 Y64.105
G2 X-30.766 Y64.09 R0.42
G1 X-30.618 Y64.041
X-30.481 Y64.002
X-30.453 Y63.996
X-30.393 Y64.079
X-30.39 Y64.083
X-30.331 Y64.164
X-30.347 Y64.194
X-30.423 Y64.308
X-30.516 Y64.434
G2 X-30.55 Y64.488 R0.42
G1 X-30.588 Y64.561
G2 X-30.629 Y64.683 R0.42
G1 X-30.644 Y64.764
G2 X-30.647 Y64.885 R0.42
G1 X-30.639 Y64.956
G2 X-30.611 Y65.066 R0.42
G1 X-30.584 Y65.132
G2 X-30.529 Y65.228 R0.42
X-30.338 Y65.477 R38.361
X-30.259 Y65.555 R0.42
G1 X-30.202 Y65.598
G2 X-30.103 Y65.654 R0.42
G1 X-30.037 Y65.68
G2 X-29.92 Y65.708 R0.42
G1 X-29.838 Y65.715
G2 X-29.708 Y65.706 R0.42
G1 X-29.628 Y65.688
G2 X-29.567 Y65.67 R0.42
G1 X-29.422 Y65.613
X-29.288 Y65.567
X-29.26 Y65.56
X-29.196 Y65.64
X-29.193 Y65.643
X-29.129 Y65.721
X-29.144 Y65.752
X-29.214 Y65.87
X-29.3 Y66.
G2 X-29.331 Y66.055 R0.42
G1 X-29.365 Y66.13
G2 X-29.4 Y66.255 R0.42
G1 X-29.41 Y66.337
G2 X-29.407 Y66.458 R0.42
G1 X-29.395 Y66.528
G2 X-29.362 Y66.635 R0.42
G1 X-29.332 Y66.7
G2 X-29.272 Y66.794 R0.42
X-29.068 Y67.033 R38.361
X-28.985 Y67.106 R0.42
G1 X-28.926 Y67.146
G2 X-28.824 Y67.197 R0.42
G1 X-28.757 Y67.219
G2 X-28.638 Y67.241 R0.42
G1 X-28.556 Y67.244
G2 X-28.427 Y67.229 R0.42
G1 X-28.348 Y67.207
G2 X-28.288 Y67.185 R0.42
G1 X-28.146 Y67.12
X-28.014 Y67.068
X-27.987 Y67.059
X-27.919 Y67.135
X-27.915 Y67.139
X-27.848 Y67.213
X-27.861 Y67.245
X-27.925 Y67.366
X-28.004 Y67.501
G2 X-28.031 Y67.558 R0.42
G1 X-28.062 Y67.634
G2 X-28.091 Y67.76 R0.42
G1 X-28.096 Y67.842
G2 X-28.087 Y67.963 R0.42
G1 X-28.071 Y68.033
G2 X-28.032 Y68.139 R0.42
G1 X-27.999 Y68.202
G2 X-27.934 Y68.292 R0.42
X-27.718 Y68.52 R38.361
X-27.631 Y68.589 R0.42
G1 X-27.57 Y68.626
G2 X-27.467 Y68.67 R0.42
G1 X-27.398 Y68.69
G2 X-27.278 Y68.705 R0.42
G1 X-27.195 Y68.704
G2 X-27.067 Y68.682 R0.42
G1 X-26.989 Y68.655
G2 X-26.932 Y68.631 R0.42
G1 X-26.793 Y68.559
X-26.664 Y68.499
X-26.637 Y68.489
X-26.565 Y68.562
X-26.561 Y68.565
X-26.49 Y68.636
X-26.501 Y68.668
X-26.559 Y68.793
X-26.631 Y68.932
G2 X-26.655 Y68.989 R0.42
G1 X-26.682 Y69.067
G2 X-26.704 Y69.195 R0.42
G1 X-26.705 Y69.278
G2 X-26.69 Y69.398 R0.42
G1 X-26.67 Y69.467
G2 X-26.626 Y69.57 R0.42
G1 X-26.589 Y69.631
G2 X-26.52 Y69.718 R0.42
X-26.292 Y69.934 R38.361
X-26.202 Y69.999 R0.42
G1 X-26.139 Y70.032
G2 X-26.033 Y70.071 R0.42
G1 X-25.963 Y70.087
G2 X-25.842 Y70.096 R0.42
G1 X-25.76 Y70.091
G2 X-25.634 Y70.062 R0.42
G1 X-25.558 Y70.031
G2 X-25.501 Y70.004 R0.42
G1 X-25.366 Y69.925
X-25.241 Y69.859
X-25.214 Y69.847
X-25.138 Y69.916
X-25.135 Y69.919
X-25.06 Y69.986
X-25.069 Y70.019
X-25.12 Y70.146
X-25.185 Y70.288
G2 X-25.207 Y70.348 R0.42
G1 X-25.229 Y70.427
G2 X-25.244 Y70.556 R0.42
G1 X-25.241 Y70.638
G2 X-25.219 Y70.757 R0.42
G1 X-25.197 Y70.824
G2 X-25.146 Y70.926 R0.42
G1 X-25.106 Y70.985
G2 X-25.033 Y71.068 R0.42
X-24.794 Y71.272 R38.361
X-24.7 Y71.332 R0.42
G1 X-24.635 Y71.362
G2 X-24.528 Y71.395 R0.42
G1 X-24.458 Y71.407
G2 X-24.337 Y71.41 R0.42
G1 X-24.255 Y71.4
G2 X-24.13 Y71.365 R0.42
G1 X-24.055 Y71.331
G2 X-24. Y71.3 R0.42
G1 X-23.87 Y71.214
X-23.748 Y71.142
X-23.722 Y71.128
X-23.643 Y71.193
X-23.639 Y71.196
X-23.561 Y71.259
X-23.569 Y71.292
X-23.613 Y71.422
X-23.67 Y71.567
G2 X-23.688 Y71.628 R0.42
G1 X-23.706 Y71.708
G2 X-23.715 Y71.838 R0.42
G1 X-23.708 Y71.92
G2 X-23.68 Y72.037 R0.42
G1 X-23.654 Y72.103
G2 X-23.598 Y72.202 R0.42
G1 X-23.555 Y72.259
G2 X-23.477 Y72.338 R0.42
X-23.228 Y72.529 R38.361
X-23.132 Y72.584 R0.42
G1 X-23.066 Y72.611
G2 X-22.956 Y72.639 R0.42
G1 X-22.885 Y72.647
G2 X-22.764 Y72.644 R0.42
G1 X-22.683 Y72.629
G2 X-22.561 Y72.588 R0.42
G1 X-22.488 Y72.55
G2 X-22.434 Y72.516 R0.42
G1 X-22.308 Y72.423
X-22.19 Y72.344
X-22.165 Y72.33
X-22.083 Y72.39
X-22.079 Y72.393
X-21.997 Y72.452
X-22.003 Y72.486
X-22.041 Y72.618
X-22.09 Y72.766
G2 X-22.105 Y72.827 R0.42
G1 X-22.119 Y72.908
G2 X-22.121 Y73.038 R0.42
G1 X-22.109 Y73.119
G2 X-22.075 Y73.235 R0.42
G1 X-22.045 Y73.3
G2 X-21.985 Y73.395 R0.42
G1 X-21.939 Y73.45
G2 X-21.857 Y73.525 R0.42
X-21.599 Y73.703 R38.361
X-21.499 Y73.753 R0.42
G1 X-21.431 Y73.776
G2 X-21.322 Y73.798 R0.42
G1 X-21.25 Y73.803
G2 X-21.129 Y73.793 R0.42
G1 X-21.048 Y73.774
G2 X-20.929 Y73.727 R0.42
G1 X-20.858 Y73.685
G2 X-20.806 Y73.648 R0.42
G1 X-20.685 Y73.549
X-20.572 Y73.464
X-20.547 Y73.448
X-20.462 Y73.505
X-20.458 Y73.507
X-20.373 Y73.561
X-20.378 Y73.595
X-20.408 Y73.729
X-20.449 Y73.88
G2 X-20.462 Y73.942 R0.42
G1 X-20.471 Y74.023
G2 X-20.466 Y74.153 R0.42
G1 X-20.45 Y74.234
G2 X-20.41 Y74.348 R0.42
G1 X-20.377 Y74.412
G2 X-20.312 Y74.503 R0.42
G1 X-20.263 Y74.555
G2 X-20.177 Y74.626 R0.42
X-19.91 Y74.79 R38.361
X-19.808 Y74.834 R0.42
G1 X-19.739 Y74.854
G2 X-19.628 Y74.871 R0.42
G1 X-19.556
G2 X-19.436 Y74.855 R0.42
G1 X-19.357 Y74.833
G2 X-19.239 Y74.778 R0.42
G1 X-19.171 Y74.733
G2 X-19.121 Y74.694 R0.42
G1 X-19.006 Y74.589
X-18.897 Y74.498
X-18.873 Y74.481
X-18.785 Y74.532
X-18.781 Y74.535
X-18.693 Y74.584
X-18.696 Y74.618
X-18.72 Y74.754
X-18.753 Y74.906
G2 X-18.762 Y74.969 R0.42
G1 X-18.767 Y75.051
G2 X-18.755 Y75.18 R0.42
G1 X-18.736 Y75.259
G2 X-18.689 Y75.372 R0.42
G1 X-18.653 Y75.434
G2 X-18.583 Y75.522 R0.42
G1 X-18.531 Y75.572
G2 X-18.442 Y75.637 R0.42
X-18.166 Y75.787 R38.361
X-18.062 Y75.826 R0.42
G1 X-17.992 Y75.842
G2 X-17.881 Y75.853 R0.42
G1 X-17.809 Y75.85
G2 X-17.69 Y75.827 R0.42
G1 X-17.612 Y75.801
G2 X-17.498 Y75.74 R0.42
G1 X-17.432 Y75.691
G2 X-17.384 Y75.65 R0.42
G1 X-17.274 Y75.539
X-17.17 Y75.442
X-17.148 Y75.424
X-17.057 Y75.471
X-17.052 Y75.473
X-16.962 Y75.518
X-16.963 Y75.552
X-16.98 Y75.689
X-17.005 Y75.843
G2 X-17.011 Y75.906 R0.42
G1 X-17.012 Y75.988
G2 X-16.993 Y76.116 R0.42
G1 X-16.969 Y76.195
G2 X-16.917 Y76.304 R0.42
G1 X-16.878 Y76.364
G2 X-16.803 Y76.448 R0.42
G1 X-16.749 Y76.495
G2 X-16.656 Y76.556 R0.42
X-16.373 Y76.691 R38.361
X-16.267 Y76.725 R0.42
G1 X-16.197 Y76.738
G2 X-16.084 Y76.742 R0.42
G1 X-16.013 Y76.735
G2 X-15.896 Y76.707 R0.42
G1 X-15.819 Y76.676
G2 X-15.708 Y76.61 R0.42
G1 X-15.644 Y76.557
G2 X-15.599 Y76.513 R0.42
G1 X-15.495 Y76.397
X-15.396 Y76.295
X-15.375 Y76.276
X-15.282 Y76.318
X-15.277 Y76.32
X-15.185 Y76.36
X-15.184 Y76.394
X-15.193 Y76.531
X-15.211 Y76.686
G2 X-15.213 Y76.75 R0.42
G1 X-15.209 Y76.832
G2 X-15.184 Y76.959 R0.42
G1 X-15.156 Y77.036
G2 X-15.099 Y77.143 R0.42
G1 X-15.056 Y77.2
G2 X-14.977 Y77.281 R0.42
G1 X-14.921 Y77.325
G2 X-14.825 Y77.381 R0.42
X-14.535 Y77.501 R38.361
X-14.428 Y77.529 R0.42
G1 X-14.357 Y77.538
G2 X-14.244 Y77.536 R0.42
G1 X-14.173 Y77.526
G2 X-14.057 Y77.491 R0.42
G1 X-13.983 Y77.457
G2 X-13.875 Y77.384 R0.42
G1 X-13.814 Y77.329
G2 X-13.771 Y77.282 R0.42
G1 X-13.674 Y77.161
X-13.58 Y77.054
X-13.56 Y77.033
X-13.465 Y77.07
X-13.46 Y77.072
X-13.366 Y77.108
X-13.363 Y77.142
X-13.365 Y77.279
X-13.374 Y77.435
G2 X-13.373 Y77.498 R0.42
G1 X-13.366 Y77.58
G2 X-13.334 Y77.705 R0.42
G1 X-13.302 Y77.781
G2 X-13.239 Y77.884 R0.42
G1 X-13.193 Y77.94
G2 X-13.11 Y78.016 R0.42
G1 X-13.051 Y78.057
G2 X-12.953 Y78.108 R0.42
X-12.657 Y78.213 R38.361
X-12.548 Y78.235 R0.42
G1 X-12.477 Y78.24
G2 X-12.365 Y78.233 R0.42
G1 X-12.294 Y78.219
G2 X-12.181 Y78.178 R0.42
G1 X-12.108 Y78.14
G2 X-12.004 Y78.062 R0.42
G1 X-11.947 Y78.003
G2 X-11.906 Y77.955 R0.42
G1 X-11.815 Y77.828
X-11.727 Y77.717
X-11.708 Y77.695
X-11.611 Y77.727
X-11.606 Y77.729
X-11.51 Y77.759
X-11.506 Y77.793
X-11.501 Y77.93
X-11.502 Y78.086
G2 X-11.497 Y78.149 R0.42
G1 X-11.485 Y78.231
G2 X-11.447 Y78.354 R0.42
G1 X-11.411 Y78.428
G2 X-11.343 Y78.528 R0.42
G1 X-11.294 Y78.581
G2 X-11.207 Y78.653 R0.42
G1 X-11.146 Y78.691
G2 X-11.045 Y78.737 R0.42
X-10.745 Y78.826 R38.361
X-10.635 Y78.842 R0.42
G1 X-10.563 Y78.844
G2 X-10.452 Y78.831 R0.42
G1 X-10.382 Y78.813
G2 X-10.27 Y78.766 R0.42
G1 X-10.199 Y78.724
G2 X-10.1 Y78.641 R0.42
G1 X-10.046 Y78.579
G2 X-10.008 Y78.528 R0.42
G1 X-9.924 Y78.397
X-9.842 Y78.281
X-9.824 Y78.259
X-9.725 Y78.286
X-9.72 Y78.287
X-9.623 Y78.312
X-9.617 Y78.346
X-9.604 Y78.483
X-9.597 Y78.639
G2 X-9.59 Y78.701 R0.42
G1 X-9.573 Y78.782
G2 X-9.529 Y78.904 R0.42
G1 X-9.489 Y78.976
G2 X-9.415 Y79.072 R0.42
G1 X-9.364 Y79.122
G2 X-9.274 Y79.189 R0.42
G1 X-9.212 Y79.224
G2 X-9.107 Y79.264 R0.42
X-8.803 Y79.337 R38.361
X-8.692 Y79.348 R0.42
G1 X-8.621 Y79.346
G2 X-8.51 Y79.327 R0.42
G1 X-8.441 Y79.306
G2 X-8.332 Y79.253 R0.42
G1 X-8.264 Y79.207
G2 X-8.169 Y79.119 R0.42
G1 X-8.118 Y79.055
G2 X-8.082 Y79.002 R0.42
G1 X-8.005 Y78.867
X-7.93 Y78.747
X-7.913 Y78.723
X-7.813 Y78.745
X-7.808 Y78.746
X-7.709 Y78.766
X-7.701 Y78.799
X-7.682 Y78.935
X-7.667 Y79.091
G2 X-7.656 Y79.153 R0.42
G1 X-7.635 Y79.233
G2 X-7.584 Y79.352 R0.42
G1 X-7.54 Y79.422
G2 X-7.462 Y79.514 R0.42
G1 X-7.409 Y79.561
G2 X-7.315 Y79.624 R0.42
G1 X-7.25 Y79.655
G2 X-7.145 Y79.69 R0.42
X-6.837 Y79.747 R38.361
X-6.725 Y79.752 R0.42
G1 X-6.654 Y79.746
G2 X-6.544 Y79.721 R0.42
G1 X-6.477 Y79.696
G2 X-6.371 Y79.638 R0.42
G1 X-6.305 Y79.589
G2 X-6.215 Y79.496 R0.42
G1 X-6.167 Y79.429
G2 X-6.135 Y79.375 R0.42
G1 X-6.065 Y79.235
X-5.996 Y79.111
X-5.98 Y79.087
X-5.879 Y79.103
X-5.874 Y79.104
X-5.775 Y79.119
X-5.765 Y79.152
X-5.738 Y79.287
X-5.715 Y79.441
G2 X-5.701 Y79.503 R0.42
G1 X-5.676 Y79.581
G2 X-5.619 Y79.697 R0.42
G1 X-5.572 Y79.765
G2 X-5.488 Y79.853 R0.42
G1 X-5.432 Y79.898
G2 X-5.336 Y79.955 R0.42
G1 X-5.27 Y79.983
G2 X-5.163 Y80.012 R0.42
X-4.852 Y80.053 R38.361
X-4.74 Y80.052 R0.42
G1 X-4.67 Y80.042
G2 X-4.561 Y80.012 R0.42
G1 X-4.496 Y79.984
G2 X-4.392 Y79.92 R0.42
G1 X-4.329 Y79.867
G2 X-4.244 Y79.77 R0.42
G1 X-4.2 Y79.7
G2 X-4.17 Y79.644 R0.42
G1 X-4.108 Y79.501
X-4.045 Y79.374
X-4.031 Y79.349
X-3.929 Y79.36
X-3.924 Y79.361
X-3.824 Y79.371
X-3.813 Y79.403
X-3.779 Y79.536
X-3.748 Y79.689
G2 X-3.73 Y79.75 R0.42
G1 X-3.702 Y79.827
G2 X-3.638 Y79.94 R0.42
G1 X-3.587 Y80.005
G2 X-3.5 Y80.088 R0.42
G1 X-3.442 Y80.13
G2 X-3.342 Y80.182 R0.42
G1 X-3.275 Y80.206
G2 X-3.166 Y80.23 R0.42
X-2.854 Y80.255 R38.361
X-2.742 Y80.248 R0.42
G1 X-2.672 Y80.235
G2 X-2.565 Y80.199 R0.42
G1 X-2.501 Y80.167
G2 X-2.402 Y80.098 R0.42
G1 X-2.342 Y80.042
G2 X-2.261 Y79.94 R0.42
G1 X-2.221 Y79.868
G2 X-2.194 Y79.811 R0.42
G1 X-2.139 Y79.665
X-2.084 Y79.535
X-2.07 Y79.509
X-1.968 Y79.515
X-1.963
X-1.863 Y79.52
X-1.85 Y79.551
X-1.809 Y79.682
X-1.77 Y79.833
G2 X-1.749 Y79.893 R0.42
G1 X-1.717 Y79.969
G2 X-1.648 Y80.078 R0.42
G1 X-1.594 Y80.14
G2 X-1.501 Y80.22 R0.42
G1 X-1.441 Y80.258
G2 X-1.339 Y80.304 R0.42
G1 X-1.271 Y80.325
G2 X-1.161 Y80.344 R0.42
X-0.847 Y80.352 R38.361
X-0.737 Y80.339 R0.42
G1 X-0.668 Y80.322
G2 X-0.563 Y80.281 R0.42
G1 X-0.5 Y80.245
G2 X-0.405 Y80.172 R0.42
G1 X-0.347 Y80.113
G2 X-0.273 Y80.007 R0.42
G1 X-0.236 Y79.933
G2 X-0.213 Y79.874 R0.42
G1 X-0.165 Y79.725
X-0.116 Y79.592
X-0.104 Y79.566
X-0.002
X0.003
X0.103
X0.118 Y79.597
X0.165 Y79.725
X0.213 Y79.874
G2 X0.236 Y79.933 R0.42
G1 X0.273 Y80.007
G2 X0.347 Y80.113 R0.42
G1 X0.405 Y80.172
G2 X0.5 Y80.245 R0.42
G1 X0.563 Y80.281
G2 X0.668 Y80.322 R0.42
G1 X0.737 Y80.339
G2 X0.847 Y80.352 R0.42
X1.161 Y80.344 R38.361
X1.271 Y80.325 R0.42
G1 X1.339 Y80.304
G2 X1.441 Y80.258 R0.42
G1 X1.501 Y80.22
G2 X1.594 Y80.14 R0.42
G1 X1.648 Y80.078
G2 X1.717 Y79.969 R0.42
G1 X1.749 Y79.893
G2 X1.77 Y79.833 R0.42
G1 X1.809 Y79.682
X1.851 Y79.547
X1.862 Y79.52
X1.964 Y79.515
X1.969
X2.069 Y79.509
X2.085 Y79.539
X2.139 Y79.665
X2.194 Y79.811
G2 X2.221 Y79.868 R0.42
G1 X2.261 Y79.94
G2 X2.342 Y80.042 R0.42
G1 X2.402 Y80.098
G2 X2.501 Y80.167 R0.42
G1 X2.565 Y80.199
G2 X2.672 Y80.235 R0.42
G1 X2.742 Y80.248
G2 X2.854 Y80.255 R0.42
X3.166 Y80.23 R38.361
X3.275 Y80.206 R0.42
G1 X3.342 Y80.182
G2 X3.442 Y80.13 R0.42
G1 X3.5 Y80.088
G2 X3.587 Y80.005 R0.42
G1 X3.638 Y79.94
G2 X3.702 Y79.827 R0.42
G1 X3.73 Y79.75
G2 X3.748 Y79.689 R0.42
G1 X3.779 Y79.536
X3.814 Y79.399
X3.823 Y79.371
X3.924 Y79.361
X3.93 Y79.36
X4.029 Y79.349
X4.047 Y79.378
X4.108 Y79.501
X4.17 Y79.644
G2 X4.2 Y79.7 R0.42
G1 X4.244 Y79.77
G2 X4.329 Y79.867 R0.42
G1 X4.392 Y79.92
G2 X4.496 Y79.984 R0.42
G1 X4.561 Y80.012
G2 X4.67 Y80.042 R0.42
G1 X4.74 Y80.052
G2 X4.852 Y80.053 R0.42
X5.163 Y80.012 R38.361
X5.27 Y79.983 R0.42
G1 X5.336 Y79.955
G2 X5.432 Y79.898 R0.42
G1 X5.488 Y79.853
G2 X5.572 Y79.765 R0.42
G1 X5.619 Y79.697
G2 X5.676 Y79.581 R0.42
G1 X5.701 Y79.503
G2 X5.715 Y79.441 R0.42
G1 X5.738 Y79.287
X5.766 Y79.148
X5.773 Y79.12
X5.874 Y79.104
X5.88 Y79.103
X5.979 Y79.087
X5.998 Y79.115
X6.065 Y79.235
X6.135 Y79.375
G2 X6.167 Y79.429 R0.42
G1 X6.215 Y79.496
G2 X6.305 Y79.589 R0.42
G1 X6.371 Y79.638
G2 X6.477 Y79.696 R0.42
G1 X6.544 Y79.721
G2 X6.654 Y79.746 R0.42
G1 X6.725 Y79.752
G2 X6.837 Y79.747 R0.42
X7.145 Y79.69 R38.361
X7.25 Y79.655 R0.42
G1 X7.315 Y79.624
G2 X7.409 Y79.561 R0.42
G1 X7.462 Y79.514
G2 X7.54 Y79.422 R0.42
G1 X7.584 Y79.352
G2 X7.635 Y79.233 R0.42
G1 X7.656 Y79.153
G2 X7.667 Y79.091 R0.42
G1 X7.682 Y78.935
X7.702 Y78.795
X7.708 Y78.767
X7.808 Y78.746
X7.813 Y78.745
X7.911 Y78.723
X7.932 Y78.751
X8.005 Y78.867
X8.082 Y79.002
G2 X8.118 Y79.055 R0.42
G1 X8.169 Y79.119
G2 X8.264 Y79.207 R0.42
G1 X8.332 Y79.253
G2 X8.441 Y79.306 R0.42
G1 X8.51 Y79.327
G2 X8.621 Y79.346 R0.42
G1 X8.692 Y79.348
G2 X8.803 Y79.337 R0.42
X9.107 Y79.264 R38.361
X9.212 Y79.224 R0.42
G1 X9.274 Y79.189
G2 X9.364 Y79.122 R0.42
G1 X9.415 Y79.072
G2 X9.489 Y78.976 R0.42
G1 X9.529 Y78.904
G2 X9.573 Y78.782 R0.42
G1 X9.59 Y78.701
G2 X9.597 Y78.639 R0.42
G1 X9.604 Y78.483
X9.617 Y78.342
X9.622 Y78.313
X9.721 Y78.287
X9.726 Y78.286
X9.822 Y78.259
X9.845 Y78.285
X9.924 Y78.397
X10.008 Y78.528
G2 X10.046 Y78.579 R0.42
G1 X10.1 Y78.641
G2 X10.199 Y78.724 R0.42
G1 X10.27 Y78.766
G2 X10.382 Y78.813 R0.42
G1 X10.452 Y78.831
G2 X10.563 Y78.844 R0.42
G1 X10.635 Y78.842
G2 X10.745 Y78.826 R0.42
X11.045 Y78.737 R38.361
X11.146 Y78.691 R0.42
G1 X11.207 Y78.653
G2 X11.294 Y78.581 R0.42
G1 X11.343 Y78.528
G2 X11.411 Y78.428 R0.42
G1 X11.447 Y78.354
G2 X11.485 Y78.231 R0.42
G1 X11.497 Y78.149
G2 X11.502 Y78.086 R0.42
G1 X11.501 Y77.93
X11.506 Y77.788
X11.509 Y77.759
X11.606 Y77.728
X11.611 Y77.727
X11.707 Y77.695
X11.73 Y77.72
X11.815 Y77.828
X11.906 Y77.955
G2 X11.947 Y78.003 R0.42
G1 X12.004 Y78.062
G2 X12.108 Y78.14 R0.42
G1 X12.181 Y78.178
G2 X12.294 Y78.219 R0.42
G1 X12.365 Y78.233
G2 X12.477 Y78.24 R0.42
G1 X12.548 Y78.235
G2 X12.657 Y78.213 R0.42
X12.953 Y78.108 R38.361
X13.051 Y78.057 R0.42
G1 X13.11 Y78.016
G2 X13.193 Y77.94 R0.42
G1 X13.239 Y77.884
G2 X13.302 Y77.781 R0.42
G1 X13.334 Y77.705
G2 X13.366 Y77.58 R0.42
G1 X13.373 Y77.498
G2 X13.374 Y77.435 R0.42
G1 X13.365 Y77.279
X13.363 Y77.137
X13.365 Y77.108
X13.46 Y77.072
X13.465 Y77.07
X13.559 Y77.034
X13.583 Y77.057
X13.674 Y77.161
X13.771 Y77.282
G2 X13.814 Y77.329 R0.42
G1 X13.875 Y77.384
G2 X13.983 Y77.457 R0.42
G1 X14.057 Y77.491
G2 X14.173 Y77.526 R0.42
G1 X14.244 Y77.536
G2 X14.357 Y77.538 R0.42
G1 X14.428 Y77.529
G2 X14.535 Y77.501 R0.42
X14.825 Y77.381 R38.361
X14.921 Y77.325 R0.42
G1 X14.977 Y77.281
G2 X15.056 Y77.2 R0.42
G1 X15.099 Y77.143
G2 X15.156 Y77.036 R0.42
G1 X15.184 Y76.959
G2 X15.209 Y76.832 R0.42
G1 X15.213 Y76.75
G2 X15.211 Y76.686 R0.42
G1 X15.193 Y76.531
X15.184 Y76.39
Y76.361
X15.277 Y76.32
X15.282 Y76.317
X15.374 Y76.276
X15.4 Y76.298
X15.495 Y76.397
X15.599 Y76.513
G2 X15.644 Y76.557 R0.42
G1 X15.708 Y76.61
G2 X15.819 Y76.676 R0.42
G1 X15.896 Y76.707
G2 X16.013 Y76.735 R0.42
G1 X16.084 Y76.742
G2 X16.197 Y76.738 R0.42
G1 X16.267 Y76.725
G2 X16.373 Y76.691 R0.42
X16.656 Y76.556 R38.361
X16.749 Y76.495 R0.42
G1 X16.803 Y76.448
G2 X16.878 Y76.364 R0.42
G1 X16.917 Y76.304
G2 X16.969 Y76.195 R0.42
G1 X16.993 Y76.116
G2 X17.012 Y75.988 R0.42
G1 X17.011 Y75.906
G2 X17.005 Y75.843 R0.42
G1 X16.98 Y75.689
X16.963 Y75.548
X16.961 Y75.519
X17.053 Y75.473
X17.057 Y75.47
X17.146 Y75.424
X17.174 Y75.445
X17.274 Y75.539
X17.384 Y75.65
G2 X17.432 Y75.691 R0.42
G1 X17.498 Y75.74
G2 X17.612 Y75.801 R0.42
G1 X17.69 Y75.827
G2 X17.809 Y75.85 R0.42
G1 X17.881 Y75.853
G2 X17.992 Y75.842 R0.42
G1 X18.062 Y75.826
G2 X18.166 Y75.787 R0.42
X18.442 Y75.637 R38.361
X18.531 Y75.572 R0.42
G1 X18.583 Y75.522
G2 X18.653 Y75.434 R0.42
G1 X18.689 Y75.372
G2 X18.736 Y75.259 R0.42
G1 X18.755 Y75.18
G2 X18.767 Y75.051 R0.42
G1 X18.762 Y74.969
G2 X18.753 Y74.906 R0.42
