(__120T_STEP3)
(T1  D=3.175 CR=0. - ZMIN=-8. - FLAT END MILL)
G90 G94 G91.1 G40 G49 G17
G21

(2D CONTOUR9)
M5
M9
T1
S10000 M3
G54
M8
G0 X-31.581 Y56.942
G43 Z10. H1
Z5.
G1 Z3. F762.
Z2.5
G2 X-41.401 Y80.066 Z-2. R41.588
X-24.952 Y117.27 R41.587
X-21.377 Y119.673 R41.588
X41.588 Y84. R41.588
X-41.401 Y80.066 R41.588
X-26.022 Y116.44 Z-4. R41.588
X-24.952 Y117.27 R41.587
X-21.377 Y119.673 R41.588
X41.588 Y84. R41.588
X-41.588 R41.588
X-26.022 Y116.44 R41.588
X-24.952 Y117.27 Z-4.066 R41.587
X-21.377 Y119.673 Z-4.275 R41.588
X12.822 Y123.562 Z-6. R41.588
X41.588 Y84. R41.588
X-41.587 R41.587
X-24.952 Y117.27 R41.587
X-21.377 Y119.673 R41.588
X12.822 Y123.562 R41.588
X40.104 Y95.009 Z-8. R41.588
X41.588 Y84. R41.588
X-41.587 R41.587
X-24.952 Y117.27 R41.587
X-21.377 Y119.673 R41.588
X40.104 Y95.009 R41.588
G0 Z5.
X-36.113 Y-20.625
G1 Z3. F762.
Z2.5
G2 X-41.401 Y3.934 Z-2. R41.588
X-24.952 Y33.27 R41.587
X0.117 Y41.588 R41.588
X41.588 Y0. R41.588
X-1.969 Y-41.541 R41.588
X-41.401 Y3.934 R41.588
X-24.952 Y33.27 Z-3.683 R41.588
X-19.446 Y36.761 Z-4. R41.588
X0.117 Y41.588 R41.588
X41.588 Y0. R41.588
X-41.588 R41.587
X-24.952 Y33.27 R41.587
X-19.446 Y36.761 R41.588
X0.117 Y41.588 Z-4.989 R41.588
X20.044 Y36.439 Z-6. R41.588
X41.588 Y0. R41.588
X-41.588 R41.587
X-24.952 Y33.27 R41.587
X0.117 Y41.588 R41.588
X20.044 Y36.439 R41.588
X41.46 Y3.258 Z-8. R41.588
X41.588 Y0. R41.588
X-41.588 R41.587
X-24.952 Y33.27 R41.587
X0.117 Y41.588 R41.588
X41.46 Y3.258 R41.588
G0 Z10.

M9
M30
