(__120T_STEP2)
(T3  D=1. CR=0. - ZMIN=-5.25 - FLAT END MILL)
G90 G94 G91.1 G40 G49 G17
G21

(2D CONTOUR8)
M5
M9
T3
S10000 M3
G54
M9
G0 X-34.657 Y67.554
G43 Z10. H3
Z5.
G1 Z2.5 F250.
G2 X-34.691 Y67.627 Z2.486 R38.361
X-34.725 Y67.733 Z2.466 R0.42
G1 X-34.738 Y67.803 Z2.454
G2 X-34.742 Y67.916 Z2.434 R0.42
G1 X-34.735 Y67.987 Z2.421
G2 X-34.707 Y68.104 Z2.4 R0.42
G1 X-34.676 Y68.181 Z2.385
G2 X-34.61 Y68.292 Z2.362 R0.42
G1 X-34.557 Y68.356 Z2.348
G2 X-34.513 Y68.401 Z2.336 R0.42
G1 X-34.397 Y68.505 Z2.309
X-34.295 Y68.604 Z2.284
X-34.276 Y68.625 Z2.279
X-34.318 Y68.718 Z2.261
X-34.32 Y68.723 Z2.26
X-34.36 Y68.815 Z2.242
X-34.394 Y68.816 Z2.236
X-34.531 Y68.807 Z2.212
X-34.686 Y68.789 Z2.184
G2 X-34.75 Y68.787 Z2.173 R0.42
G1 X-34.832 Y68.791 Z2.159
G2 X-34.959 Y68.816 Z2.136 R0.42
G1 X-35.036 Y68.844 Z2.121
G2 X-35.143 Y68.901 Z2.1 R0.42
G1 X-35.2 Y68.944 Z2.087
G2 X-35.281 Y69.023 Z2.067 R0.42
G1 X-35.325 Y69.079 Z2.055
G2 X-35.381 Y69.175 Z2.035 R0.42
X-35.501 Y69.465 Z1.98 R38.361
X-35.529 Y69.572 Z1.96 R0.42
G1 X-35.538 Y69.643 Z1.947
G2 X-35.536 Y69.756 Z1.928 R0.42
G1 X-35.526 Y69.827 Z1.915
G2 X-35.491 Y69.943 Z1.893 R0.42
G1 X-35.457 Y70.017 Z1.879
G2 X-35.384 Y70.125 Z1.856 R0.42
G1 X-35.329 Y70.186 Z1.842
G2 X-35.282 Y70.229 Z1.83 R0.42
G1 X-35.161 Y70.326 Z1.803
X-35.054 Y70.42 Z1.778
X-35.033 Y70.44 Z1.773
X-35.07 Y70.535 Z1.755
X-35.072 Y70.54 Z1.754
X-35.108 Y70.634 Z1.736
X-35.142 Y70.637 Z1.73
X-35.279 Y70.635 Z1.706
X-35.435 Y70.626 Z1.678
G2 X-35.498 Y70.627 Z1.667 R0.42
G1 X-35.58 Y70.634 Z1.653
G2 X-35.705 Y70.666 Z1.63 R0.42
G1 X-35.781 Y70.698 Z1.615
G2 X-35.884 Y70.761 Z1.594 R0.42
G1 X-35.94 Y70.807 Z1.581
G2 X-36.016 Y70.89 Z1.561 R0.42
G1 X-36.057 Y70.949 Z1.549
G2 X-36.108 Y71.047 Z1.529 R0.42
X-36.213 Y71.343 Z1.474 R38.361
X-36.235 Y71.452 Z1.454 R0.42
G1 X-36.24 Y71.523 Z1.441
G2 X-36.233 Y71.635 Z1.421 R0.42
G1 X-36.219 Y71.706 Z1.409
G2 X-36.178 Y71.819 Z1.387 R0.42
G1 X-36.14 Y71.892 Z1.373
G2 X-36.062 Y71.996 Z1.35 R0.42
G1 X-36.003 Y72.053 Z1.335
G2 X-35.955 Y72.094 Z1.324 R0.42
G1 X-35.828 Y72.185 Z1.297
X-35.717 Y72.273 Z1.272
X-35.695 Y72.292 Z1.267
X-35.727 Y72.389 Z1.249
X-35.729 Y72.394 Z1.248
X-35.759 Y72.49 Z1.23
X-35.793 Y72.494 Z1.224
X-35.93 Y72.499 Z1.2
X-36.086 Y72.498 Z1.172
G2 X-36.149 Y72.503 Z1.161 R0.42
G1 X-36.231 Y72.515 Z1.147
G2 X-36.354 Y72.553 Z1.124 R0.42
G1 X-36.428 Y72.589 Z1.109
G2 X-36.528 Y72.657 Z1.088 R0.42
G1 X-36.581 Y72.706 Z1.075
G2 X-36.653 Y72.793 Z1.055 R0.42
G1 X-36.691 Y72.854 Z1.043
G2 X-36.736 Y72.955 Z1.023 R0.42
X-36.826 Y73.255 Z0.968 R38.361
X-36.842 Y73.365 Z0.948 R0.42
G1 X-36.844 Y73.437 Z0.935
G2 X-36.831 Y73.548 Z0.915 R0.42
G1 X-36.813 Y73.618 Z0.903
G2 X-36.766 Y73.73 Z0.881 R0.42
G1 X-36.724 Y73.801 Z0.867
G2 X-36.641 Y73.9 Z0.844 R0.42
G1 X-36.579 Y73.954 Z0.829
G2 X-36.528 Y73.992 Z0.818 R0.42
G1 X-36.397 Y74.076 Z0.791
X-36.281 Y74.158 Z0.766
X-36.259 Y74.176 Z0.761
X-36.286 Y74.275 Z0.743
X-36.287 Y74.28 Z0.742
X-36.312 Y74.377 Z0.724
X-36.346 Y74.383 Z0.718
X-36.483 Y74.395 Z0.694
X-36.639 Y74.403 Z0.666
G2 X-36.702 Y74.411 Z0.655 R0.42
G1 X-36.782 Y74.427 Z0.641
G2 X-36.903 Y74.471 Z0.618 R0.42
G1 X-36.975 Y74.511 Z0.603
G2 X-37.072 Y74.585 Z0.582 R0.42
G1 X-37.122 Y74.636 Z0.569
G2 X-37.189 Y74.726 Z0.549 R0.42
G1 X-37.224 Y74.788 Z0.537
G2 X-37.264 Y74.893 Z0.517 R0.42
X-37.337 Y75.197 Z0.462 R38.361
X-37.348 Y75.308 Z0.442 R0.42
G1 X-37.346 Y75.379 Z0.429
G2 X-37.327 Y75.49 Z0.409 R0.42
G1 X-37.306 Y75.558 Z0.397
G2 X-37.253 Y75.668 Z0.375 R0.42
G1 X-37.207 Y75.736 Z0.361
G2 X-37.119 Y75.831 Z0.338 R0.42
G1 X-37.055 Y75.882 Z0.323
G2 X-37.002 Y75.918 Z0.312 R0.42
G1 X-36.867 Y75.995 Z0.285
X-36.747 Y76.07 Z0.26
X-36.723 Y76.088 Z0.255
X-36.745 Y76.187 Z0.237
X-36.746 Y76.192 Z0.236
X-36.766 Y76.291 Z0.218
X-36.799 Y76.299 Z0.212
X-36.935 Y76.318 Z0.188
X-37.091 Y76.333 Z0.16
G2 X-37.153 Y76.344 Z0.149 R0.42
G1 X-37.233 Y76.365 Z0.135
G2 X-37.352 Y76.416 Z0.112 R0.42
G1 X-37.422 Y76.46 Z0.097
G2 X-37.514 Y76.538 Z0.076 R0.42
G1 X-37.561 Y76.591 Z0.063
G2 X-37.624 Y76.685 Z0.043 R0.42
G1 X-37.655 Y76.75 Z0.031
G2 X-37.69 Y76.855 Z0.011 R0.42
X-37.747 Y77.163 Z-0.044 R38.361
X-37.752 Y77.275 Z-0.064 R0.42
G1 X-37.746 Y77.346 Z-0.077
G2 X-37.721 Y77.456 Z-0.097 R0.42
G1 X-37.696 Y77.523 Z-0.109
G2 X-37.638 Y77.629 Z-0.131 R0.42
G1 X-37.589 Y77.695 Z-0.145
G2 X-37.496 Y77.785 Z-0.168 R0.42
G1 X-37.428 Y77.833 Z-0.183
G2 X-37.375 Y77.865 Z-0.194 R0.42
G1 X-37.235 Y77.935 Z-0.221
X-37.111 Y78.004 Z-0.246
X-37.087 Y78.02 Z-0.251
X-37.103 Y78.121 Z-0.269
X-37.104 Y78.126 Z-0.27
X-37.119 Y78.225 Z-0.288
X-37.152 Y78.235 Z-0.294
X-37.287 Y78.262 Z-0.318
X-37.441 Y78.285 Z-0.346
G2 X-37.503 Y78.299 Z-0.357 R0.42
G1 X-37.581 Y78.324 Z-0.372
G2 X-37.698 Y78.381 Z-0.394 R0.42
G1 X-37.765 Y78.428 Z-0.409
G2 X-37.853 Y78.512 Z-0.43 R0.42
G1 X-37.898 Y78.568 Z-0.443
G2 X-37.955 Y78.664 Z-0.463 R0.42
G1 X-37.983 Y78.73 Z-0.475
G2 X-38.012 Y78.837 Z-0.495 R0.42
X-38.053 Y79.148 Z-0.55 R38.361
X-38.052 Y79.26 Z-0.57 R0.42
G1 X-38.042 Y79.33 Z-0.583
G2 X-38.012 Y79.439 Z-0.603 R0.42
G1 X-37.984 Y79.504 Z-0.615
G2 X-37.92 Y79.608 Z-0.637 R0.42
G1 X-37.867 Y79.671 Z-0.651
G2 X-37.77 Y79.756 Z-0.674 R0.42
G1 X-37.7 Y79.8 Z-0.689
G2 X-37.644 Y79.83 Z-0.7 R0.42
G1 X-37.501 Y79.892 Z-0.727
X-37.374 Y79.955 Z-0.752
X-37.349 Y79.969 Z-0.757
X-37.36 Y80.071 Z-0.775
X-37.361 Y80.076 Z-0.776
X-37.371 Y80.176 Z-0.794
X-37.403 Y80.187 Z-0.8
X-37.536 Y80.221 Z-0.824
X-37.689 Y80.252 Z-0.852
G2 X-37.75 Y80.27 Z-0.863 R0.42
G1 X-37.827 Y80.299 Z-0.878
G2 X-37.94 Y80.362 Z-0.901 R0.42
G1 X-38.005 Y80.413 Z-0.915
G2 X-38.088 Y80.5 Z-0.936 R0.42
G1 X-38.13 Y80.558 Z-0.949
G2 X-38.182 Y80.658 Z-0.969 R0.42
G1 X-38.206 Y80.725 Z-0.982
G2 X-38.23 Y80.827 Z-1. R0.42
G1 Y80.834 F400.
G2 X-38.255 Y81.146 R38.361
X-38.248 Y81.258 R0.42
G1 X-38.235 Y81.328
G2 X-38.199 Y81.435 R0.42
G1 X-38.167 Y81.499
G2 X-38.098 Y81.598 R0.42
G1 X-38.042 Y81.658
G2 X-37.94 Y81.739 R0.42
G1 X-37.868 Y81.779
G2 X-37.811 Y81.806 R0.42
G1 X-37.665 Y81.861
X-37.535 Y81.916
X-37.509 Y81.93
X-37.515 Y82.032
Y82.037
X-37.52 Y82.137
X-37.551 Y82.15
X-37.682 Y82.191
X-37.833 Y82.23
G2 X-37.893 Y82.251 R0.42
G1 X-37.969 Y82.283
G2 X-38.078 Y82.352 R0.42
G1 X-38.14 Y82.406
G2 X-38.22 Y82.499 R0.42
G1 X-38.258 Y82.559
G2 X-38.304 Y82.661 R0.42
G1 X-38.325 Y82.729
G2 X-38.344 Y82.839 R0.42
X-38.352 Y83.153 R38.361
X-38.339 Y83.263 R0.42
G1 X-38.322 Y83.332
G2 X-38.281 Y83.437 R0.42
G1 X-38.246 Y83.5
G2 X-38.172 Y83.595 R0.42
G1 X-38.112 Y83.653
G2 X-38.007 Y83.727 R0.42
G1 X-37.933 Y83.764
G2 X-37.874 Y83.788 R0.42
G1 X-37.725 Y83.835
X-37.592 Y83.884
X-37.566 Y83.896
Y83.998
Y84.003
Y84.103
X-37.597 Y84.118
X-37.725 Y84.165
X-37.874 Y84.212
G2 X-37.933 Y84.236 R0.42
G1 X-38.007 Y84.273
G2 X-38.112 Y84.347 R0.42
G1 X-38.172 Y84.405
G2 X-38.246 Y84.5 R0.42
G1 X-38.281 Y84.563
G2 X-38.322 Y84.668 R0.42
G1 X-38.339 Y84.737
G2 X-38.352 Y84.847 R0.42
X-38.344 Y85.161 R38.361
X-38.325 Y85.271 R0.42
G1 X-38.304 Y85.339
G2 X-38.258 Y85.441 R0.42
G1 X-38.22 Y85.501
G2 X-38.14 Y85.594 R0.42
G1 X-38.078 Y85.648
G2 X-37.969 Y85.717 R0.42
G1 X-37.893 Y85.749
G2 X-37.833 Y85.77 R0.42
G1 X-37.682 Y85.809
X-37.547 Y85.851
X-37.52 Y85.862
X-37.515 Y85.964
Y85.969
X-37.509 Y86.069
X-37.539 Y86.085
X-37.665 Y86.139
X-37.811 Y86.194
G2 X-37.868 Y86.221 R0.42
G1 X-37.94 Y86.261
G2 X-38.042 Y86.342 R0.42
G1 X-38.098 Y86.402
G2 X-38.167 Y86.501 R0.42
G1 X-38.199 Y86.565
G2 X-38.235 Y86.672 R0.42
G1 X-38.248 Y86.742
G2 X-38.255 Y86.854 R0.42
X-38.23 Y87.166 R38.361
X-38.206 Y87.275 R0.42
G1 X-38.182 Y87.342
G2 X-38.13 Y87.442 R0.42
G1 X-38.088 Y87.5
G2 X-38.005 Y87.587 R0.42
G1 X-37.94 Y87.638
G2 X-37.827 Y87.701 R0.42
G1 X-37.75 Y87.73
G2 X-37.689 Y87.748 R0.42
G1 X-37.536 Y87.779
X-37.399 Y87.814
X-37.371 Y87.823
X-37.361 Y87.924
X-37.36 Y87.93
X-37.349 Y88.029
X-37.378 Y88.047
X-37.501 Y88.108
X-37.644 Y88.17
G2 X-37.7 Y88.2 R0.42
G1 X-37.77 Y88.244
G2 X-37.867 Y88.329 R0.42
G1 X-37.92 Y88.392
G2 X-37.984 Y88.496 R0.42
G1 X-38.012 Y88.561
G2 X-38.042 Y88.67 R0.42
G1 X-38.052 Y88.74
G2 X-38.053 Y88.852 R0.42
X-38.012 Y89.163 R38.361
X-37.983 Y89.27 R0.42
G1 X-37.955 Y89.336
G2 X-37.898 Y89.432 R0.42
G1 X-37.853 Y89.488
G2 X-37.765 Y89.572 R0.42
G1 X-37.698 Y89.619
G2 X-37.581 Y89.676 R0.42
G1 X-37.503 Y89.701
G2 X-37.441 Y89.715 R0.42
G1 X-37.287 Y89.738
X-37.148 Y89.766
X-37.12 Y89.773
X-37.104 Y89.874
X-37.103 Y89.88
X-37.087 Y89.979
X-37.115 Y89.998
X-37.235 Y90.065
X-37.375 Y90.135
G2 X-37.428 Y90.167 R0.42
G1 X-37.496 Y90.215
G2 X-37.589 Y90.305 R0.42
G1 X-37.638 Y90.371
G2 X-37.696 Y90.477 R0.42
G1 X-37.721 Y90.544
G2 X-37.746 Y90.654 R0.42
G1 X-37.752 Y90.725
G2 X-37.747 Y90.837 R0.42
X-37.69 Y91.145 R38.361
X-37.655 Y91.25 R0.42
G1 X-37.624 Y91.315
G2 X-37.561 Y91.409 R0.42
G1 X-37.514 Y91.462
G2 X-37.422 Y91.54 R0.42
G1 X-37.352 Y91.584
G2 X-37.233 Y91.635 R0.42
G1 X-37.153 Y91.656
G2 X-37.091 Y91.667 R0.42
G1 X-36.935 Y91.682
X-36.795 Y91.702
X-36.767 Y91.708
X-36.746 Y91.808
X-36.745 Y91.813
X-36.723 Y91.911
X-36.751 Y91.932
X-36.867 Y92.005
X-37.002 Y92.082
G2 X-37.055 Y92.118 R0.42
G1 X-37.119 Y92.169
G2 X-37.207 Y92.264 R0.42
G1 X-37.253 Y92.332
G2 X-37.306 Y92.442 R0.42
G1 X-37.327 Y92.51
G2 X-37.346 Y92.621 R0.42
G1 X-37.348 Y92.692
G2 X-37.337 Y92.803 R0.42
X-37.264 Y93.107 R38.361
X-37.224 Y93.212 R0.42
G1 X-37.189 Y93.274
G2 X-37.122 Y93.364 R0.42
G1 X-37.072 Y93.415
G2 X-36.975 Y93.489 R0.42
G1 X-36.903 Y93.529
G2 X-36.782 Y93.573 R0.42
G1 X-36.702 Y93.589
G2 X-36.639 Y93.597 R0.42
G1 X-36.483 Y93.605
X-36.342 Y93.617
X-36.313 Y93.622
X-36.287 Y93.721
X-36.286 Y93.726
X-36.259 Y93.822
X-36.285 Y93.845
X-36.397 Y93.924
X-36.528 Y94.008
G2 X-36.579 Y94.046 R0.42
G1 X-36.641 Y94.1
G2 X-36.724 Y94.199 R0.42
G1 X-36.766 Y94.27
G2 X-36.813 Y94.382 R0.42
G1 X-36.831 Y94.452
G2 X-36.844 Y94.563 R0.42
G1 X-36.842 Y94.635
G2 X-36.826 Y94.745 R0.42
X-36.736 Y95.045 R38.361
X-36.691 Y95.146 R0.42
G1 X-36.653 Y95.207
G2 X-36.581 Y95.294 R0.42
G1 X-36.528 Y95.343
G2 X-36.428 Y95.411 R0.42
G1 X-36.354 Y95.447
G2 X-36.231 Y95.485 R0.42
G1 X-36.149 Y95.497
G2 X-36.086 Y95.502 R0.42
G1 X-35.93 Y95.501
X-35.788 Y95.506
X-35.759 Y95.509
X-35.728 Y95.606
X-35.727 Y95.611
X-35.695 Y95.707
X-35.72 Y95.73
X-35.828 Y95.815
X-35.955 Y95.906
G2 X-36.003 Y95.947 R0.42
G1 X-36.062 Y96.004
G2 X-36.14 Y96.108 R0.42
G1 X-36.178 Y96.181
G2 X-36.219 Y96.294 R0.42
G1 X-36.233 Y96.365
G2 X-36.24 Y96.477 R0.42
G1 X-36.235 Y96.548
G2 X-36.213 Y96.657 R0.42
X-36.108 Y96.953 R38.361
X-36.057 Y97.051 R0.42
G1 X-36.016 Y97.11
G2 X-35.94 Y97.193 R0.42
G1 X-35.884 Y97.239
G2 X-35.781 Y97.302 R0.42
G1 X-35.705 Y97.334
G2 X-35.58 Y97.366 R0.42
G1 X-35.498 Y97.373
G2 X-35.435 Y97.374 R0.42
G1 X-35.279 Y97.365
X-35.137 Y97.363
X-35.108 Y97.365
X-35.072 Y97.46
X-35.07 Y97.465
X-35.034 Y97.559
X-35.057 Y97.583
X-35.161 Y97.674
X-35.282 Y97.771
G2 X-35.329 Y97.814 R0.42
G1 X-35.384 Y97.875
G2 X-35.457 Y97.983 R0.42
G1 X-35.491 Y98.057
G2 X-35.526 Y98.173 R0.42
G1 X-35.536 Y98.244
G2 X-35.538 Y98.357 R0.42
G1 X-35.529 Y98.428
G2 X-35.501 Y98.535 R0.42
X-35.381 Y98.825 R38.361
X-35.325 Y98.921 R0.42
G1 X-35.281 Y98.977
G2 X-35.2 Y99.056 R0.42
G1 X-35.143 Y99.099
G2 X-35.036 Y99.156 R0.42
G1 X-34.959 Y99.184
G2 X-34.832 Y99.209 R0.42
G1 X-34.75 Y99.213
G2 X-34.686 Y99.211 R0.42
G1 X-34.531 Y99.193
X-34.39 Y99.184
X-34.361
X-34.32 Y99.277
X-34.317 Y99.282
X-34.276 Y99.374
X-34.298 Y99.4
X-34.397 Y99.495
X-34.513 Y99.599
G2 X-34.557 Y99.644 R0.42
G1 X-34.61 Y99.708
G2 X-34.676 Y99.819 R0.42
G1 X-34.707 Y99.895
G2 X-34.735 Y100.013 R0.42
G1 X-34.742 Y100.085
G2 X-34.737 Y100.198 R0.42
G1 X-34.725 Y100.268
G2 X-34.691 Y100.373 R0.42
X-34.556 Y100.656 R38.361
X-34.495 Y100.749 R0.42
G1 X-34.448 Y100.803
G2 X-34.361 Y100.879 R0.42
G1 X-34.302 Y100.918
G2 X-34.199 Y100.967 R0.42
G1 X-34.12 Y100.992
G2 X-33.988 Y101.012 R0.42
G1 X-33.906 Y101.011
G2 X-33.842 Y101.005 R0.42
G1 X-33.688 Y100.98
X-33.547 Y100.963
X-33.519 Y100.961
X-33.473 Y101.053
X-33.47 Y101.057
X-33.424 Y101.146
X-33.445 Y101.173
X-33.539 Y101.274
X-33.651 Y101.385
G2 X-33.691 Y101.432 R0.42
G1 X-33.74 Y101.498
G2 X-33.8 Y101.611 R0.42
G1 X-33.827 Y101.688
G2 X-33.85 Y101.809 R0.42
G1 X-33.853 Y101.881
G2 X-33.842 Y101.992 R0.42
G1 X-33.826 Y102.062
G2 X-33.787 Y102.167 R0.42
X-33.637 Y102.442 R38.361
X-33.573 Y102.53 R0.42
G1 X-33.523 Y102.582
G2 X-33.431 Y102.655 R0.42
G1 X-33.37 Y102.691
G2 X-33.26 Y102.735 R0.42
G1 X-33.18 Y102.755
G2 X-33.052 Y102.767 R0.42
G1 X-32.97 Y102.762
G2 X-32.904 Y102.753 R0.42
G1 X-32.753 Y102.719
X-32.616 Y102.696
X-32.585 Y102.693
X-32.534 Y102.781
X-32.532 Y102.785
X-32.481 Y102.872
X-32.501 Y102.9
X-32.589 Y103.006
X-32.693 Y103.121
G2 X-32.732 Y103.17 R0.42
G1 X-32.778 Y103.238
G2 X-32.833 Y103.358 R0.42
G1 X-32.856 Y103.438
G2 X-32.871 Y103.557 R0.42
G1 Y103.628
G2 X-32.854 Y103.739 R0.42
G1 X-32.835 Y103.808
G2 X-32.79 Y103.91 R0.42
X-32.626 Y104.177 R38.361
X-32.556 Y104.262 R0.42
G1 X-32.504 Y104.312
G2 X-32.411 Y104.377 R0.42
G1 X-32.347 Y104.41
G2 X-32.235 Y104.45 R0.42
G1 X-32.154 Y104.466
G2 X-32.021 Y104.471 R0.42
G1 X-31.94 Y104.461
G2 X-31.881 Y104.449 R0.42
G1 X-31.73 Y104.409
X-31.591 Y104.377
X-31.562 Y104.372
X-31.507 Y104.458
X-31.505 Y104.462
X-31.449 Y104.546
X-31.467 Y104.575
X-31.549 Y104.685
X-31.648 Y104.806
G2 X-31.685 Y104.859 R0.42
G1 X-31.727 Y104.93
G2 X-31.774 Y105.048 R0.42
G1 X-31.793 Y105.128
G2 X-31.803 Y105.25 R0.42
G1 X-31.798 Y105.322
G2 X-31.776 Y105.433 R0.42
G1 X-31.752 Y105.5
G2 X-31.703 Y105.598 R0.42
X-31.526 Y105.857 R38.361
X-31.45 Y105.94 R0.42
G1 X-31.395 Y105.986
G2 X-31.297 Y106.048 R0.42
G1 X-31.232 Y106.077
G2 X-31.122 Y106.109 R0.42
G1 X-31.04 Y106.121
G2 X-30.907 Y106.119 R0.42
G1 X-30.826 Y106.105
G2 X-30.766 Y106.09 R0.42
G1 X-30.618 Y106.041
X-30.482 Y106.002
X-30.453 Y105.996
X-30.393 Y106.079
X-30.39 Y106.083
X-30.331 Y106.164
X-30.347 Y106.194
X-30.424 Y106.309
X-30.516 Y106.434
G2 X-30.549 Y106.486 R0.42
G1 X-30.587 Y106.558
G2 X-30.63 Y106.683 R0.42
G1 X-30.644 Y106.765
G2 X-30.647 Y106.885 R0.42
G1 X-30.639 Y106.956
G2 X-30.611 Y107.067 R0.42
G1 X-30.584 Y107.133
G2 X-30.529 Y107.228 R0.42
X-30.338 Y107.477 R38.361
X-30.259 Y107.555 R0.42
G1 X-30.202 Y107.598
G2 X-30.102 Y107.654 R0.42
G1 X-30.035 Y107.68
G2 X-29.923 Y107.707 R0.42
G1 X-29.841 Y107.715
G2 X-29.709 Y107.707 R0.42
G1 X-29.628 Y107.689
G2 X-29.565 Y107.669 R0.42
G1 X-29.421 Y107.612
X-29.288 Y107.567
X-29.26 Y107.56
X-29.196 Y107.639
X-29.193 Y107.644
X-29.129 Y107.721
X-29.144 Y107.752
X-29.214 Y107.87
X-29.3 Y108.
G2 X-29.331 Y108.056 R0.42
G1 X-29.365 Y108.131
G2 X-29.4 Y108.255 R0.42
G1 X-29.41 Y108.336
G2 X-29.407 Y108.457 R0.42
G1 X-29.395 Y108.528
G2 X-29.362 Y108.635 R0.42
G1 X-29.332 Y108.7
G2 X-29.271 Y108.795 R0.42
X-29.067 Y109.033 R38.361
X-28.985 Y109.106 R0.42
G1 X-28.925 Y109.146
G2 X-28.826 Y109.196 R0.42
G1 X-28.758 Y109.219
G2 X-28.638 Y109.241 R0.42
G1 X-28.556 Y109.244
G2 X-28.428 Y109.229 R0.42
G1 X-28.349 Y109.207
G2 X-28.288 Y109.185 R0.42
G1 X-28.147 Y109.121
X-28.014 Y109.068
X-27.987 Y109.059
X-27.919 Y109.135
X-27.915 Y109.14
X-27.848 Y109.213
X-27.861 Y109.244
X-27.925 Y109.366
X-28.004 Y109.501
G2 X-28.031 Y109.557 R0.42
G1 X-28.062 Y109.633
G2 X-28.091 Y109.76 R0.42
G1 X-28.096 Y109.842
G2 X-28.087 Y109.963 R0.42
G1 X-28.071 Y110.033
G2 X-28.032 Y110.139 R0.42
G1 X-27.999 Y110.202
G2 X-27.934 Y110.292 R0.42
X-27.718 Y110.519 R38.361
X-27.632 Y110.588 R0.42
G1 X-27.571 Y110.625
G2 X-27.465 Y110.671 R0.42
G1 X-27.396 Y110.69
G2 X-27.279 Y110.705 R0.42
G1 X-27.197 Y110.704
G2 X-27.069 Y110.682 R0.42
G1 X-26.991 Y110.656
G2 X-26.931 Y110.631 R0.42
G1 X-26.792 Y110.559
X-26.664 Y110.499
X-26.637 Y110.489
X-26.565 Y110.562
X-26.561 Y110.565
X-26.49 Y110.636
X-26.501 Y110.668
X-26.559 Y110.792
X-26.631 Y110.932
G2 X-26.655 Y110.989 R0.42
G1 X-26.682 Y111.067
G2 X-26.704 Y111.195 R0.42
G1 X-26.705 Y111.277
G2 X-26.69 Y111.397 R0.42
G1 X-26.67 Y111.466
G2 X-26.627 Y111.567 R0.42
G1 X-26.59 Y111.629
G2 X-26.519 Y111.719 R0.42
X-26.292 Y111.934 R38.361
X-26.203 Y111.998 R0.42
G1 X-26.14 Y112.032
G2 X-26.029 Y112.073 R0.42
G1 X-25.96 Y112.088
G2 X-25.846 Y112.096 R0.42
G1 X-25.764 Y112.091
G2 X-25.631 Y112.061 R0.42
G1 X-25.555 Y112.03
G2 X-25.502 Y112.004 R0.42
G1 X-25.367 Y111.925
X-25.24 Y111.859
X-25.214 Y111.847
X-25.139 Y111.915
X-25.135 Y111.919
X-25.06 Y111.986
X-25.07 Y112.018
X-25.12 Y112.146
X-25.185 Y112.287
G2 X-25.206 Y112.347 R0.42
G1 X-25.229 Y112.426
G2 X-25.244 Y112.555 R0.42
G1 X-25.241 Y112.638
G2 X-25.219 Y112.758 R0.42
G1 X-25.196 Y112.825
G2 X-25.148 Y112.923 R0.42
G1 X-25.108 Y112.983
G2 X-25.032 Y113.068 R0.42
X-24.794 Y113.272 R38.361
X-24.699 Y113.332 R0.42
G1 X-24.634 Y113.362
G2 X-24.528 Y113.395 R0.42
G1 X-24.458 Y113.407
G2 X-24.336 Y113.41 R0.42
G1 X-24.255 Y113.4
G2 X-24.132 Y113.365 R0.42
G1 X-24.057 Y113.331
G2 X-24. Y113.3 R0.42
G1 X-23.87 Y113.214
X-23.749 Y113.142
X-23.722 Y113.129
X-23.643 Y113.193
X-23.64 Y113.196
X-23.561 Y113.259
X-23.569 Y113.292
X-23.613 Y113.422
X-23.67 Y113.567
G2 X-23.688 Y113.628 R0.42
G1 X-23.706 Y113.709
G2 X-23.715 Y113.839 R0.42
G1 X-23.708 Y113.92
G2 X-23.68 Y114.035 R0.42
G1 X-23.654 Y114.102
G2 X-23.598 Y114.202 R0.42
G1 X-23.555 Y114.259
G2 X-23.477 Y114.338 R0.42
X-23.228 Y114.529 R38.361
X-23.132 Y114.584 R0.42
G1 X-23.066 Y114.611
G2 X-22.955 Y114.639 R0.42
G1 X-22.883 Y114.647
G2 X-22.765 Y114.644 R0.42
G1 X-22.684 Y114.63
G2 X-22.557 Y114.586 R0.42
G1 X-22.484 Y114.547
G2 X-22.435 Y114.516 R0.42
G1 X-22.309 Y114.424
X-22.189 Y114.344
X-22.165 Y114.33
X-22.083 Y114.391
X-22.079 Y114.393
X-21.997 Y114.452
X-22.003 Y114.486
X-22.041 Y114.618
X-22.09 Y114.766
G2 X-22.105 Y114.827 R0.42
G1 X-22.119 Y114.908
G2 X-22.121 Y115.038 R0.42
G1 X-22.109 Y115.119
G2 X-22.075 Y115.235 R0.42
G1 X-22.045 Y115.3
G2 X-21.986 Y115.394 R0.42
G1 X-21.94 Y115.449
G2 X-21.857 Y115.525 R0.42
X-21.599 Y115.703 R38.361
X-21.497 Y115.754 R0.42
G1 X-21.43 Y115.777
G2 X-21.324 Y115.798 R0.42
G1 X-21.252 Y115.803
G2 X-21.126 Y115.793 R0.42
G1 X-21.046 Y115.774
G2 X-20.928 Y115.726 R0.42
G1 X-20.858 Y115.684
G2 X-20.807 Y115.649 R0.42
G1 X-20.686 Y115.55
X-20.571 Y115.464
X-20.548 Y115.449
X-20.462 Y115.505
X-20.457 Y115.508
X-20.373 Y115.561
X-20.378 Y115.595
X-20.408 Y115.729
X-20.45 Y115.88
G2 X-20.461 Y115.942 R0.42
G1 X-20.471 Y116.023
G2 X-20.466 Y116.152 R0.42
G1 X-20.45 Y116.233
G2 X-20.411 Y116.346 R0.42
G1 X-20.378 Y116.41
G2 X-20.311 Y116.504 R0.42
G1 X-20.262 Y116.556
G2 X-20.177 Y116.626 R0.42
X-19.91 Y116.79 R38.361
X-19.809 Y116.834 R0.42
G1 X-19.74 Y116.854
G2 X-19.623 Y116.871 R0.42
G1 X-19.552
G2 X-19.439 Y116.856 R0.42
G1 X-19.36 Y116.834
G2 X-19.238 Y116.778 R0.42
G1 X-19.17 Y116.732
G2 X-19.121 Y116.694 R0.42
G1 X-19.006 Y116.589
X-18.897 Y116.498
X-18.873 Y116.481
X-18.787 Y116.532
X-18.78 Y116.536
X-18.693 Y116.585
X-18.696 Y116.619
X-18.72 Y116.754
X-18.753 Y116.906
G2 X-18.762 Y116.969 R0.42
G1 X-18.767 Y117.051
G2 X-18.755 Y117.179 R0.42
G1 X-18.736 Y117.259
G2 X-18.688 Y117.374 R0.42
G1 X-18.652 Y117.435
G2 X-18.584 Y117.52 R0.42
G1 X-18.533 Y117.57
G2 X-18.442 Y117.637 R0.42
X-18.166 Y117.787 R38.361
X-18.061 Y117.826 R0.42
G1 X-17.992 Y117.842
G2 X-17.88 Y117.853 R0.42
G1 X-17.809 Y117.85
G2 X-17.689 Y117.827 R0.42
G1 X-17.611 Y117.8
G2 X-17.498 Y117.74 R0.42
G1 X-17.432 Y117.691
G2 X-17.385 Y117.65 R0.42
G1 X-17.275 Y117.539
X-17.169 Y117.442
X-17.148 Y117.424
X-17.058 Y117.471
X-17.051 Y117.474
X-16.962 Y117.518
X-16.963 Y117.553
X-16.98 Y117.689
X-17.005 Y117.843
G2 X-17.011 Y117.906 R0.42
G1 X-17.012 Y117.988
G2 X-16.993 Y118.116 R0.42
G1 X-16.969 Y118.195
G2 X-16.916 Y118.306 R0.42
G1 X-16.877 Y118.365
G2 X-16.804 Y118.448 R0.42
G1 X-16.75 Y118.495
G2 X-16.657 Y118.556 R0.42
X-16.374 Y118.692 R38.361
X-16.265 Y118.726 R0.42
G1 X-16.194 Y118.738
G2 X-16.083 Y118.742 R0.42
G1 X-16.011 Y118.735
G2 X-15.899 Y118.708 R0.42
G1 X-15.822 Y118.678
G2 X-15.706 Y118.609 R0.42
G1 X-15.643 Y118.556
G2 X-15.599 Y118.514 R0.42
G1 X-15.495 Y118.397
X-15.396 Y118.294
X-15.375 Y118.275
X-15.282 Y118.318
X-15.277 Y118.32
X-15.185 Y118.36
X-15.184 Y118.394
X-15.193 Y118.531
X-15.211 Y118.686
G2 X-15.213 Y118.749 R0.42
G1 X-15.209 Y118.832
G2 X-15.184 Y118.959 R0.42
G1 X-15.156 Y119.036
G2 X-15.098 Y119.144 R0.42
G1 X-15.055 Y119.201
G2 X-14.977 Y119.28 R0.42
G1 X-14.921 Y119.324
G2 X-14.825 Y119.38 R0.42
X-14.536 Y119.501 R38.361
X-14.429 Y119.529 R0.42
G1 X-14.358 Y119.538
G2 X-14.241 Y119.536 R0.42
G1 X-14.17 Y119.525
G2 X-14.06 Y119.492 R0.42
G1 X-13.986 Y119.458
G2 X-13.874 Y119.384 R0.42
G1 X-13.814 Y119.328
G2 X-13.771 Y119.282 R0.42
G1 X-13.674 Y119.161
X-13.58 Y119.054
X-13.56 Y119.033
X-13.465 Y119.07
X-13.46 Y119.072
X-13.366 Y119.107
X-13.363 Y119.142
X-13.365 Y119.279
X-13.374 Y119.435
G2 X-13.373 Y119.498 R0.42
G1 X-13.366 Y119.58
G2 X-13.334 Y119.705 R0.42
G1 X-13.302 Y119.781
G2 X-13.239 Y119.885 R0.42
G1 X-13.193 Y119.94
G2 X-13.11 Y120.016 R0.42
G1 X-13.051 Y120.057
G2 X-12.952 Y120.109 R0.42
X-12.657 Y120.213 R38.361
X-12.548 Y120.235 R0.42
G1 X-12.477 Y120.24
G2 X-12.365 Y120.233 R0.42
G1 X-12.295 Y120.219
G2 X-12.183 Y120.179 R0.42
G1 X-12.11 Y120.141
G2 X-12.004 Y120.062 R0.42
G1 X-11.946 Y120.003
G2 X-11.906 Y119.955 R0.42
G1 X-11.815 Y119.828
X-11.727 Y119.716
X-11.708 Y119.695
X-11.609 Y119.727
X-11.606 Y119.728
X-11.51 Y119.759
X-11.506 Y119.793
X-11.501 Y119.93
X-11.502 Y120.086
G2 X-11.497 Y120.15 R0.42
G1 X-11.485 Y120.231
G2 X-11.447 Y120.355 R0.42
G1 X-11.411 Y120.429
G2 X-11.341 Y120.53 R0.42
G1 X-11.293 Y120.582
G2 X-11.208 Y120.652 R0.42
G1 X-11.147 Y120.69
G2 X-11.045 Y120.736 R0.42
X-10.745 Y120.825 R38.361
X-10.639 Y120.842 R0.42
G1 X-10.567 Y120.844
G2 X-10.45 Y120.831 R0.42
G1 X-10.381 Y120.813
G2 X-10.272 Y120.767 R0.42
G1 X-10.201 Y120.725
G2 X-10.1 Y120.641 R0.42
G1 X-10.045 Y120.579
G2 X-10.008 Y120.529 R0.42
G1 X-9.924 Y120.397
X-9.842 Y120.281
X-9.824 Y120.259
X-9.727 Y120.286
X-9.719 Y120.288
X-9.623 Y120.312
X-9.617 Y120.347
X-9.604 Y120.483
X-9.597 Y120.639
G2 X-9.59 Y120.701 R0.42
G1 X-9.573 Y120.782
G2 X-9.529 Y120.904 R0.42
G1 X-9.489 Y120.976
G2 X-9.415 Y121.072 R0.42
G1 X-9.364 Y121.122
G2 X-9.271 Y121.191 R0.42
G1 X-9.208 Y121.225
G2 X-9.108 Y121.264 R0.42
X-8.803 Y121.338 R38.361
X-8.689 Y121.349 R0.42
G1 X-8.617 Y121.346
G2 X-8.511 Y121.327 R0.42
G1 X-8.443 Y121.306
G2 X-8.332 Y121.253 R0.42
G1 X-8.264 Y121.207
G2 X-8.168 Y121.118 R0.42
G1 X-8.117 Y121.053
G2 X-8.083 Y121.002 R0.42
G1 X-8.005 Y120.867
X-7.929 Y120.746
X-7.913 Y120.723
X-7.813 Y120.745
X-7.807 Y120.747
X-7.709 Y120.767
X-7.701 Y120.799
X-7.682 Y120.936
X-7.667 Y121.091
G2 X-7.656 Y121.153 R0.42
G1 X-7.635 Y121.233
G2 X-7.585 Y121.351 R0.42
G1 X-7.541 Y121.421
G2 X-7.461 Y121.515 R0.42
G1 X-7.408 Y121.562
G2 X-7.313 Y121.624 R0.42
G1 X-7.249 Y121.655
G2 X-7.145 Y121.69 R0.42
X-6.837 Y121.747 R38.361
X-6.726 Y121.753 R0.42
G1 X-6.655 Y121.747
G2 X-6.544 Y121.722 R0.42
G1 X-6.477 Y121.697
G2 X-6.369 Y121.637 R0.42
G1 X-6.303 Y121.587
G2 X-6.215 Y121.496 R0.42
G1 X-6.168 Y121.429
G2 X-6.135 Y121.374 R0.42
G1 X-6.065 Y121.235
X-5.996 Y121.112
X-5.98 Y121.087
X-5.88 Y121.103
X-5.875 Y121.104
X-5.774 Y121.119
X-5.765 Y121.152
X-5.738 Y121.286
X-5.715 Y121.441
G2 X-5.7 Y121.504 R0.42
G1 X-5.676 Y121.582
G2 X-5.62 Y121.696 R0.42
G1 X-5.573 Y121.764
G2 X-5.487 Y121.854 R0.42
G1 X-5.431 Y121.898
G2 X-5.336 Y121.955 R0.42
G1 X-5.27 Y121.983
G2 X-5.162 Y122.012 R0.42
X-4.851 Y122.053 R38.361
X-4.746 R0.42
G1 X-4.675 Y122.044
G2 X-4.558 Y122.011 R0.42
G1 X-4.492 Y121.982
G2 X-4.392 Y121.92 R0.42
G1 X-4.329 Y121.867
G2 X-4.245 Y121.771 R0.42
G1 X-4.201 Y121.702
G2 X-4.17 Y121.645 R0.42
G1 X-4.108 Y121.502
X-4.045 Y121.374
X-4.031 Y121.349
X-3.929 Y121.36
X-3.924 Y121.361
X-3.824 Y121.371
X-3.813 Y121.403
X-3.779 Y121.536
X-3.748 Y121.689
G2 X-3.73 Y121.75 R0.42
G1 X-3.701 Y121.827
G2 X-3.639 Y121.939 R0.42
G1 X-3.588 Y122.004
G2 X-3.498 Y122.09 R0.42
G1 X-3.44 Y122.131
G2 X-3.345 Y122.181 R0.42
G1 X-3.278 Y122.206
G2 X-3.166 Y122.231 R0.42
X-2.853 Y122.255 R38.361
X-2.74 Y122.248 R0.42
G1 X-2.67 Y122.234
G2 X-2.569 Y122.2 R0.42
G1 X-2.505 Y122.169
G2 X-2.402 Y122.099 R0.42
G1 X-2.342 Y122.043
G2 X-2.261 Y121.94 R0.42
G1 X-2.221 Y121.868
G2 X-2.194 Y121.811 R0.42
G1 X-2.139 Y121.665
X-2.084 Y121.535
X-2.07 Y121.509
X-1.967 Y121.514
X-1.965 Y121.515
X-1.863 Y121.519
X-1.85 Y121.551
X-1.809 Y121.682
X-1.77 Y121.833
G2 X-1.75 Y121.892 R0.42
G1 X-1.717 Y121.968
G2 X-1.648 Y122.079 R0.42
G1 X-1.594 Y122.141
G2 X-1.501 Y122.221 R0.42
G1 X-1.44 Y122.259
G2 X-1.34 Y122.305 R0.42
G1 X-1.271 Y122.326
G2 X-1.161 Y122.344 R0.42
X-0.847 Y122.352 R38.361
X-0.738 Y122.34 R0.42
G1 X-0.669 Y122.323
G2 X-0.563 Y122.281 R0.42
G1 X-0.501 Y122.246
G2 X-0.403 Y122.17 R0.42
G1 X-0.345 Y122.11
G2 X-0.274 Y122.008 R0.42
G1 X-0.237 Y121.935
G2 X-0.212 Y121.874 R0.42
G1 X-0.165 Y121.725
X-0.116 Y121.593
X-0.105 Y121.566
X0.
X0.002
X0.103 Y121.565
X0.118 Y121.597
X0.165 Y121.725
X0.212 Y121.874
G2 X0.237 Y121.935 R0.42
G1 X0.274 Y122.008
G2 X0.345 Y122.11 R0.42
G1 X0.403 Y122.17
G2 X0.501 Y122.246 R0.42
G1 X0.563 Y122.281
G2 X0.669 Y122.323 R0.42
G1 X0.738 Y122.34
G2 X0.847 Y122.352 R0.42
X1.161 Y122.344 R38.361
X1.271 Y122.326 R0.42
G1 X1.34 Y122.305
G2 X1.44 Y122.259 R0.42
G1 X1.501 Y122.221
G2 X1.594 Y122.141 R0.42
G1 X1.648 Y122.079
G2 X1.717 Y121.968 R0.42
G1 X1.75 Y121.892
G2 X1.77 Y121.833 R0.42
G1 X1.809 Y121.682
X1.851 Y121.547
X1.862 Y121.519
X1.964 Y121.515
X1.969 Y121.514
X2.069 Y121.508
X2.086 Y121.539
X2.139 Y121.665
X2.194 Y121.811
G2 X2.221 Y121.868 R0.42
G1 X2.261 Y121.94
G2 X2.342 Y122.043 R0.42
G1 X2.402 Y122.099
G2 X2.505 Y122.169 R0.42
G1 X2.569 Y122.2
G2 X2.67 Y122.234 R0.42
G1 X2.74 Y122.248
G2 X2.853 Y122.255 R0.42
X3.166 Y122.231 R38.361
X3.278 Y122.206 R0.42
G1 X3.345 Y122.181
G2 X3.44 Y122.131 R0.42
G1 X3.498 Y122.09
G2 X3.588 Y122.004 R0.42
G1 X3.639 Y121.939
G2 X3.701 Y121.827 R0.42
G1 X3.73 Y121.75
G2 X3.748 Y121.689 R0.42
G1 X3.779 Y121.536
X3.814 Y121.399
X3.823 Y121.371
X3.923 Y121.361
X3.931 Y121.36
X4.029 Y121.349
X4.047 Y121.378
X4.108 Y121.502
X4.17 Y121.645
G2 X4.201 Y121.702 R0.42
G1 X4.245 Y121.771
G2 X4.329 Y121.867 R0.42
G1 X4.392 Y121.92
G2 X4.492 Y121.982 R0.42
G1 X4.558 Y122.011
G2 X4.675 Y122.044 R0.42
G1 X4.746 Y122.053
G2 X4.851 R0.42
X5.162 Y122.012 R38.361
X5.27 Y121.983 R0.42
G1 X5.336 Y121.955
G2 X5.431 Y121.898 R0.42
G1 X5.487 Y121.854
G2 X5.573 Y121.764 R0.42
G1 X5.62 Y121.696
G2 X5.676 Y121.582 R0.42
G1 X5.7 Y121.504
G2 X5.715 Y121.441 R0.42
G1 X5.738 Y121.286
X5.766 Y121.147
X5.773 Y121.12
X5.875 Y121.104
X5.879 Y121.103
X5.979 Y121.087
X5.998 Y121.115
X6.065 Y121.235
X6.135 Y121.374
G2 X6.168 Y121.429 R0.42
G1 X6.215 Y121.496
G2 X6.303 Y121.587 R0.42
G1 X6.369 Y121.637
G2 X6.477 Y121.697 R0.42
G1 X6.544 Y121.722
G2 X6.655 Y121.747 R0.42
G1 X6.726 Y121.753
G2 X6.837 Y121.747 R0.42
X7.145 Y121.69 R38.361
X7.249 Y121.655 R0.42
G1 X7.313 Y121.624
G2 X7.408 Y121.562 R0.42
G1 X7.461 Y121.515
G2 X7.541 Y121.421 R0.42
G1 X7.585 Y121.351
G2 X7.635 Y121.233 R0.42
G1 X7.656 Y121.153
G2 X7.667 Y121.091 R0.42
G1 X7.682 Y120.936
X7.702 Y120.795
X7.708 Y120.767
X7.807 Y120.747
X7.814 Y120.745
X7.912 Y120.723
X7.932 Y120.75
X8.005 Y120.867
X8.083 Y121.002
G2 X8.117 Y121.053 R0.42
G1 X8.168 Y121.118
G2 X8.264 Y121.207 R0.42
G1 X8.332 Y121.253
G2 X8.443 Y121.306 R0.42
G1 X8.511 Y121.327
G2 X8.617 Y121.346 R0.42
G1 X8.689 Y121.349
G2 X8.803 Y121.338 R0.42
X9.108 Y121.264 R38.361
X9.208 Y121.225 R0.42
G1 X9.271 Y121.191
G2 X9.364 Y121.122 R0.42
G1 X9.415 Y121.072
G2 X9.489 Y120.976 R0.42
G1 X9.529 Y120.904
G2 X9.573 Y120.782 R0.42
G1 X9.59 Y120.701
G2 X9.597 Y120.639 R0.42
G1 X9.604 Y120.483
X9.617 Y120.342
X9.622 Y120.313
X9.718 Y120.288
X9.728 Y120.285
X9.822 Y120.259
X9.845 Y120.285
X9.924 Y120.397
X10.008 Y120.529
G2 X10.045 Y120.579 R0.42
G1 X10.1 Y120.641
G2 X10.201 Y120.725 R0.42
G1 X10.272 Y120.767
G2 X10.381 Y120.813 R0.42
G1 X10.45 Y120.831
G2 X10.567 Y120.844 R0.42
G1 X10.639 Y120.842
G2 X10.745 Y120.825 R0.42
X11.045 Y120.736 R38.361
X11.147 Y120.69 R0.42
G1 X11.208 Y120.652
G2 X11.293 Y120.582 R0.42
G1 X11.341 Y120.53
G2 X11.411 Y120.429 R0.42
G1 X11.447 Y120.355
G2 X11.485 Y120.231 R0.42
G1 X11.497 Y120.15
G2 X11.502 Y120.086 R0.42
G1 X11.501 Y119.93
X11.506 Y119.788
X11.509 Y119.759
X11.606 Y119.728
X11.611 Y119.727
X11.706 Y119.695
X11.73 Y119.72
X11.815 Y119.828
X11.906 Y119.955
G2 X11.946 Y120.003 R0.42
G1 X12.004 Y120.062
G2 X12.11 Y120.141 R0.42
G1 X12.183 Y120.179
G2 X12.295 Y120.219 R0.42
G1 X12.365 Y120.233
G2 X12.477 Y120.24 R0.42
G1 X12.548 Y120.235
G2 X12.657 Y120.213 R0.42
X12.952 Y120.109 R38.361
X13.051 Y120.057 R0.42
G1 X13.11 Y120.016
G2 X13.193 Y119.94 R0.42
G1 X13.239 Y119.885
G2 X13.302 Y119.781 R0.42
G1 X13.334 Y119.705
G2 X13.366 Y119.58 R0.42
G1 X13.373 Y119.498
G2 X13.374 Y119.435 R0.42
G1 X13.365 Y119.279
X13.363 Y119.137
X13.365 Y119.108
X13.46 Y119.072
X13.464 Y119.07
X13.559 Y119.034
X13.583 Y119.057
X13.674 Y119.161
X13.771 Y119.282
G2 X13.814 Y119.328 R0.42
G1 X13.874 Y119.384
G2 X13.986 Y119.458 R0.42
G1 X14.06 Y119.492
G2 X14.17 Y119.525 R0.42
G1 X14.241 Y119.536
G2 X14.358 Y119.538 R0.42
G1 X14.429 Y119.529
G2 X14.536 Y119.501 R0.42
X14.825 Y119.38 R38.361
X14.921 Y119.324 R0.42
G1 X14.977 Y119.28
G2 X15.055 Y119.201 R0.42
G1 X15.098 Y119.144
G2 X15.156 Y119.036 R0.42
G1 X15.184 Y118.959
G2 X15.209 Y118.832 R0.42
G1 X15.213 Y118.749
G2 X15.211 Y118.686 R0.42
G1 X15.193 Y118.531
X15.184 Y118.39
Y118.36
X15.277 Y118.32
X15.283 Y118.317
X15.374 Y118.276
X15.399 Y118.298
X15.495 Y118.397
X15.599 Y118.514
G2 X15.643 Y118.556 R0.42
G1 X15.706 Y118.609
G2 X15.822 Y118.678 R0.42
G1 X15.899 Y118.708
G2 X16.011 Y118.735 R0.42
G1 X16.083 Y118.742
G2 X16.194 Y118.738 R0.42
G1 X16.265 Y118.726
G2 X16.374 Y118.692 R0.42
X16.657 Y118.556 R38.361
X16.75 Y118.495 R0.42
G1 X16.804 Y118.448
G2 X16.877 Y118.365 R0.42
G1 X16.916 Y118.306
G2 X16.969 Y118.195 R0.42
G1 X16.993 Y118.116
G2 X17.012 Y117.988 R0.42
G1 X17.011 Y117.906
G2 X17.005 Y117.843 R0.42
G1 X16.98 Y117.689
X16.963 Y117.548
X16.961 Y117.519
X17.052 Y117.474
X17.057 Y117.471
X17.146 Y117.425
X17.174 Y117.446
X17.275 Y117.539
X17.385 Y117.65
G2 X17.432 Y117.691 R0.42
G1 X17.498 Y117.74
G2 X17.611 Y117.8 R0.42
G1 X17.689 Y117.827
G2 X17.809 Y117.85 R0.42
G1 X17.88 Y117.853
G2 X17.992 Y117.842 R0.42
G1 X18.061 Y117.826
G2 X18.166 Y117.787 R0.42
X18.442 Y117.637 R38.361
X18.533 Y117.57 R0.42
G1 X18.584 Y117.52
G2 X18.652 Y117.435 R0.42
G1 X18.688 Y117.374
G2 X18.736 Y117.259 R0.42
G1 X18.755 Y117.179
G2 X18.767 Y117.051 R0.42
G1 X18.762 Y116.969
G2 X18.753 Y116.906 R0.42
G1 X18.72 Y116.754
X18.695 Y116.614
X18.692 Y116.585
X18.781 Y116.535
X18.786 Y116.532
X18.872 Y116.481
X18.9 Y116.5
X19.006 Y116.589
X19.121 Y116.694
G2 X19.17 Y116.732 R0.42
G1 X19.238 Y116.778
G2 X19.36 Y116.834 R0.42
G1 X19.439 Y116.856
G2 X19.552 Y116.871 R0.42
G1 X19.623
G2 X19.74 Y116.854 R0.42
G1 X19.809 Y116.834
G2 X19.91 Y116.79 R0.42
X20.177 Y116.626 R38.361
X20.262 Y116.556 R0.42
G1 X20.311 Y116.504
G2 X20.378 Y116.41 R0.42
G1 X20.411 Y116.346
G2 X20.45 Y116.233 R0.42
G1 X20.466 Y116.152
G2 X20.471 Y116.023 R0.42
G1 X20.461 Y115.942
G2 X20.45 Y115.88 R0.42
G1 X20.408 Y115.729
X20.377 Y115.59
X20.372 Y115.562
X20.457 Y115.508
X20.463 Y115.505
X20.546 Y115.449
X20.575 Y115.467
X20.686 Y115.55
X20.807 Y115.649
G2 X20.858 Y115.684 R0.42
G1 X20.928 Y115.726
G2 X21.046 Y115.774 R0.42
G1 X21.126 Y115.793
G2 X21.252 Y115.803 R0.42
G1 X21.324 Y115.798
G2 X21.43 Y115.777 R0.42
G1 X21.497 Y115.754
G2 X21.599 Y115.703 R0.42
X21.857 Y115.525 R38.361
X21.94 Y115.449 R0.42
G1 X21.986 Y115.394
G2 X22.045 Y115.3 R0.42
G1 X22.075 Y115.235
G2 X22.109 Y115.119 R0.42
G1 X22.121 Y115.038
G2 X22.119 Y114.908 R0.42
G1 X22.105 Y114.827
G2 X22.09 Y114.766 R0.42
G1 X22.041 Y114.618
X22.002 Y114.481
X21.996 Y114.453
X22.079 Y114.393
X22.084 Y114.39
X22.164 Y114.331
X22.194 Y114.347
X22.309 Y114.424
X22.435 Y114.516
G2 X22.484 Y114.547 R0.42
G1 X22.557 Y114.586
G2 X22.684 Y114.63 R0.42
G1 X22.765 Y114.644
G2 X22.883 Y114.647 R0.42
G1 X22.955 Y114.639
G2 X23.066 Y114.611 R0.42
G1 X23.132 Y114.584
G2 X23.228 Y114.529 R0.42
X23.477 Y114.338 R38.361
X23.555 Y114.259 R0.42
G1 X23.598 Y114.202
G2 X23.654 Y114.102 R0.42
G1 X23.68 Y114.035
G2 X23.708 Y113.92 R0.42
G1 X23.715 Y113.839
G2 X23.706 Y113.709 R0.42
G1 X23.688 Y113.628
G2 X23.67 Y113.567 R0.42
G1 X23.613 Y113.422
X23.567 Y113.288
X23.56 Y113.26
X23.64 Y113.196
X23.643 Y113.193
X23.721 Y113.129
X23.753 Y113.145
X23.87 Y113.214
X24. Y113.3
G2 X24.057 Y113.331 R0.42
G1 X24.132 Y113.365
G2 X24.255 Y113.4 R0.42
G1 X24.336 Y113.41
G2 X24.458 Y113.407 R0.42
G1 X24.528 Y113.395
G2 X24.634 Y113.362 R0.42
G1 X24.699 Y113.332
G2 X24.794 Y113.272 R0.42
X25.032 Y113.068 R38.361
X25.108 Y112.983 R0.42
G1 X25.148 Y112.923
G2 X25.196 Y112.825 R0.42
G1 X25.219 Y112.758
G2 X25.241 Y112.638 R0.42
G1 X25.244 Y112.555
G2 X25.229 Y112.426 R0.42
G1 X25.206 Y112.347
G2 X25.185 Y112.287 R0.42
G1 X25.12 Y112.146
X25.068 Y112.014
X25.059 Y111.987
X25.136 Y111.918
X25.139 Y111.915
X25.213 Y111.848
X25.245 Y111.861
X25.367 Y111.925
X25.502 Y112.004
G2 X25.555 Y112.03 R0.42
G1 X25.631 Y112.061
G2 X25.764 Y112.091 R0.42
G1 X25.846 Y112.096
G2 X25.96 Y112.088 R0.42
G1 X26.029 Y112.073
G2 X26.14 Y112.032 R0.42
G1 X26.203 Y111.998
G2 X26.292 Y111.934 R0.42
X26.519 Y111.719 R38.361
X26.59 Y111.629 R0.42
G1 X26.627 Y111.567
G2 X26.67 Y111.466 R0.42
G1 X26.69 Y111.397
G2 X26.705 Y111.277 R0.42
G1 X26.704 Y111.195
G2 X26.682 Y111.067 R0.42
G1 X26.655 Y110.989
G2 X26.631 Y110.932 R0.42
G1 X26.559 Y110.792
X26.5 Y110.664
X26.489 Y110.637
X26.563 Y110.563
X26.565 Y110.562
X26.636 Y110.49
X26.668 Y110.501
X26.792 Y110.559
X26.931 Y110.631
G2 X26.991 Y110.656 R0.42
G1 X27.069 Y110.682
G2 X27.197 Y110.704 R0.42
G1 X27.279 Y110.705
G2 X27.396 Y110.69 R0.42
G1 X27.465 Y110.671
G2 X27.571 Y110.625 R0.42
G1 X27.632 Y110.588
G2 X27.718 Y110.519 R0.42
X27.934 Y110.292 R38.361
X27.999 Y110.202 R0.42
G1 X28.032 Y110.139
G2 X28.071 Y110.033 R0.42
G1 X28.087 Y109.963
G2 X28.096 Y109.842 R0.42
G1 X28.091 Y109.76
G2 X28.062 Y109.633 R0.42
G1 X28.031 Y109.557
G2 X28.004 Y109.501 R0.42
G1 X27.925 Y109.366
X27.858 Y109.24
X27.847 Y109.214
X27.915 Y109.14
X27.92 Y109.134
X27.985 Y109.06
X28.019 Y109.07
X28.147 Y109.121
X28.288 Y109.185
G2 X28.349 Y109.207 R0.42
G1 X28.428 Y109.229
G2 X28.556 Y109.244 R0.42
G1 X28.638 Y109.241
G2 X28.758 Y109.219 R0.42
G1 X28.826 Y109.196
G2 X28.925 Y109.146 R0.42
G1 X28.985 Y109.106
G2 X29.067 Y109.033 R0.42
X29.271 Y108.795 R38.361
X29.332 Y108.7 R0.42
G1 X29.362 Y108.635
G2 X29.395 Y108.528 R0.42
G1 X29.407 Y108.457
G2 X29.41 Y108.336 R0.42
G1 X29.4 Y108.255
G2 X29.365 Y108.131 R0.42
G1 X29.331 Y108.056
G2 X29.3 Y108. R0.42
G1 X29.214 Y107.87
X29.141 Y107.748
X29.128 Y107.722
X29.193 Y107.644
X29.197 Y107.639
X29.259 Y107.561
X29.293 Y107.569
X29.421 Y107.612
X29.565 Y107.669
G2 X29.628 Y107.689 R0.42
G1 X29.709 Y107.707
G2 X29.841 Y107.715 R0.42
G1 X29.923 Y107.707
G2 X30.035 Y107.68 R0.42
G1 X30.102 Y107.654
G2 X30.202 Y107.598 R0.42
G1 X30.259 Y107.555
G2 X30.338 Y107.477 R0.42
X30.529 Y107.228 R38.361
X30.584 Y107.133 R0.42
G1 X30.611 Y107.067
G2 X30.639 Y106.956 R0.42
G1 X30.647 Y106.885
G2 X30.644 Y106.765 R0.42
G1 X30.63 Y106.683
G2 X30.587 Y106.558 R0.42
G1 X30.549 Y106.486
G2 X30.516 Y106.434 R0.42
G1 X30.424 Y106.309
X30.345 Y106.19
X30.33 Y106.165
X30.39 Y106.083
X30.393 Y106.079
X30.452 Y105.997
X30.486 Y106.003
X30.618 Y106.041
X30.766 Y106.09
G2 X30.826 Y106.105 R0.42
G1 X30.907 Y106.119
G2 X31.04 Y106.121 R0.42
G1 X31.122 Y106.109
G2 X31.232 Y106.077 R0.42
G1 X31.297 Y106.048
G2 X31.395 Y105.986 R0.42
G1 X31.45 Y105.94
G2 X31.526 Y105.857 R0.42
X31.703 Y105.598 R38.361
X31.752 Y105.5 R0.42
G1 X31.776 Y105.433
G2 X31.798 Y105.322 R0.42
G1 X31.803 Y105.25
G2 X31.793 Y105.128 R0.42
G1 X31.774 Y105.048
G2 X31.727 Y104.93 R0.42
G1 X31.685 Y104.859
G2 X31.648 Y104.806 R0.42
G1 X31.549 Y104.685
X31.464 Y104.571
X31.448 Y104.547
X31.505 Y104.461
X31.507 Y104.458
X31.561 Y104.373
X31.596 Y104.378
X31.73 Y104.409
X31.881 Y104.449
G2 X31.94 Y104.461 R0.42
G1 X32.021 Y104.471
G2 X32.154 Y104.466 R0.42
G1 X32.235 Y104.45
G2 X32.347 Y104.41 R0.42
G1 X32.411 Y104.377
G2 X32.504 Y104.312 R0.42
G1 X32.556 Y104.262
G2 X32.626 Y104.177 R0.42
X32.79 Y103.91 R38.361
X32.835 Y103.808 R0.42
G1 X32.854 Y103.739
G2 X32.871 Y103.628 R0.42
G1 Y103.557
G2 X32.856 Y103.438 R0.42
G1 X32.833 Y103.358
G2 X32.778 Y103.238 R0.42
G1 X32.732 Y103.17
G2 X32.693 Y103.121 R0.42
G1 X32.589 Y103.006
X32.498 Y102.897
X32.481 Y102.873
X32.533 Y102.784
X32.535 Y102.78
X32.584 Y102.693
X32.619 Y102.696
X32.753 Y102.719
X32.904 Y102.753
G2 X32.97 Y102.762 R0.42
G1 X33.052 Y102.767
G2 X33.18 Y102.755 R0.42
G1 X33.26 Y102.735
G2 X33.37 Y102.691 R0.42
G1 X33.431 Y102.655
G2 X33.523 Y102.582 R0.42
G1 X33.573 Y102.53
G2 X33.637 Y102.442 R0.42
X33.787 Y102.167 R38.361
X33.826 Y102.062 R0.42
G1 X33.842 Y101.992
G2 X33.853 Y101.881 R0.42
G1 X33.85 Y101.809
G2 X33.827 Y101.688 R0.42
G1 X33.8 Y101.611
G2 X33.74 Y101.498 R0.42
G1 X33.691 Y101.432
G2 X33.651 Y101.385 R0.42
G1 X33.539 Y101.274
X33.442 Y101.17
X33.424 Y101.147
X33.471 Y101.057
X33.473 Y101.053
X33.518 Y100.962
X33.552 Y100.963
X33.688 Y100.98
X33.842 Y101.005
G2 X33.906 Y101.011 R0.42
G1 X33.988 Y101.012
G2 X34.12 Y100.992 R0.42
G1 X34.199 Y100.967
G2 X34.302 Y100.918 R0.42
G1 X34.361 Y100.879
G2 X34.448 Y100.803 R0.42
G1 X34.495 Y100.749
G2 X34.556 Y100.656 R0.42
X34.691 Y100.373 R38.361
X34.725 Y100.268 R0.42
G1 X34.737 Y100.198
G2 X34.742 Y100.085 R0.42
G1 X34.735 Y100.013
G2 X34.707 Y99.895 R0.42
G1 X34.676 Y99.819
G2 X34.61 Y99.708 R0.42
G1 X34.557 Y99.644
G2 X34.513 Y99.599 R0.42
G1 X34.397 Y99.495
X34.295 Y99.396
X34.276 Y99.375
X34.318 Y99.282
X34.32 Y99.277
X34.36 Y99.185
X34.394 Y99.184
X34.531 Y99.193
X34.686 Y99.211
G2 X34.75 Y99.213 R0.42
G1 X34.832 Y99.209
G2 X34.959 Y99.184 R0.42
G1 X35.036 Y99.156
G2 X35.143 Y99.099 R0.42
G1 X35.2 Y99.056
G2 X35.281 Y98.977 R0.42
G1 X35.325 Y98.921
G2 X35.381 Y98.825 R0.42
X35.501 Y98.535 R38.361
X35.529 Y98.428 R0.42
G1 X35.538 Y98.357
G2 X35.536 Y98.244 R0.42
G1 X35.526 Y98.173
G2 X35.491 Y98.057 R0.42
G1 X35.457 Y97.983
G2 X35.384 Y97.875 R0.42
G1 X35.329 Y97.814
G2 X35.282 Y97.771 R0.42
G1 X35.161 Y97.674
X35.054 Y97.58
X35.033 Y97.56
X35.07 Y97.465
X35.072 Y97.46
X35.108 Y97.366
X35.142 Y97.363
X35.279 Y97.365
X35.435 Y97.374
G2 X35.498 Y97.373 R0.42
G1 X35.58 Y97.366
G2 X35.705 Y97.334 R0.42
G1 X35.781 Y97.302
G2 X35.884 Y97.239 R0.42
G1 X35.94 Y97.193
G2 X36.016 Y97.11 R0.42
G1 X36.057 Y97.051
G2 X36.108 Y96.953 R0.42
X36.213 Y96.657 R38.361
X36.235 Y96.548 R0.42
G1 X36.24 Y96.477
G2 X36.233 Y96.365 R0.42
G1 X36.219 Y96.294
G2 X36.178 Y96.181 R0.42
G1 X36.14 Y96.108
G2 X36.062 Y96.004 R0.42
G1 X36.003 Y95.947
G2 X35.955 Y95.906 R0.42
G1 X35.828 Y95.815
X35.717 Y95.727
X35.695 Y95.708
X35.727 Y95.611
X35.729 Y95.606
X35.759 Y95.51
X35.793 Y95.506
X35.93 Y95.501
X36.086 Y95.502
G2 X36.149 Y95.497 R0.42
G1 X36.231 Y95.485
G2 X36.354 Y95.447 R0.42
G1 X36.428 Y95.411
G2 X36.528 Y95.343 R0.42
G1 X36.581 Y95.294
G2 X36.653 Y95.207 R0.42
G1 X36.691 Y95.146
G2 X36.736 Y95.045 R0.42
X36.826 Y94.745 R38.361
X36.842 Y94.635 R0.42
G1 X36.844 Y94.563
G2 X36.831 Y94.452 R0.42
G1 X36.813 Y94.382
G2 X36.766 Y94.27 R0.42
G1 X36.724 Y94.199
G2 X36.641 Y94.1 R0.42
G1 X36.579 Y94.046
G2 X36.528 Y94.008 R0.42
G1 X36.397 Y93.924
X36.281 Y93.842
X36.259 Y93.824
X36.286 Y93.725
X36.287 Y93.72
X36.312 Y93.623
X36.346 Y93.617
X36.483 Y93.605
X36.639 Y93.597
G2 X36.702 Y93.589 R0.42
G1 X36.782 Y93.573
G2 X36.903 Y93.529 R0.42
G1 X36.975 Y93.489
G2 X37.072 Y93.415 R0.42
G1 X37.122 Y93.364
G2 X37.189 Y93.274 R0.42
G1 X37.224 Y93.212
G2 X37.264 Y93.107 R0.42
X37.337 Y92.803 R38.361
X37.348 Y92.692 R0.42
G1 X37.346 Y92.621
G2 X37.327 Y92.51 R0.42
G1 X37.306 Y92.442
G2 X37.253 Y92.332 R0.42
G1 X37.207 Y92.264
G2 X37.119 Y92.169 R0.42
G1 X37.055 Y92.118
G2 X37.002 Y92.082 R0.42
G1 X36.867 Y92.005
X36.747 Y91.93
X36.723 Y91.912
X36.745 Y91.813
X36.746 Y91.808
X36.766 Y91.709
X36.799 Y91.701
X36.935 Y91.682
X37.091 Y91.667
G2 X37.153 Y91.656 R0.42
G1 X37.233 Y91.635
G2 X37.352 Y91.584 R0.42
G1 X37.422 Y91.54
G2 X37.514 Y91.462 R0.42
G1 X37.561 Y91.409
G2 X37.624 Y91.315 R0.42
G1 X37.655 Y91.25
G2 X37.69 Y91.145 R0.42
X37.747 Y90.837 R38.361
X37.752 Y90.725 R0.42
G1 X37.746 Y90.654
G2 X37.721 Y90.544 R0.42
G1 X37.696 Y90.477
G2 X37.638 Y90.371 R0.42
G1 X37.589 Y90.305
G2 X37.496 Y90.215 R0.42
G1 X37.428 Y90.167
G2 X37.375 Y90.135 R0.42
G1 X37.235 Y90.065
X37.111 Y89.996
X37.087 Y89.98
X37.103 Y89.879
X37.104 Y89.874
X37.119 Y89.775
X37.152 Y89.765
X37.287 Y89.738
X37.441 Y89.715
G2 X37.503 Y89.701 R0.42
G1 X37.581 Y89.676
G2 X37.698 Y89.619 R0.42
G1 X37.765 Y89.572
G2 X37.853 Y89.488 R0.42
G1 X37.898 Y89.432
G2 X37.955 Y89.336 R0.42
G1 X37.983 Y89.27
G2 X38.012 Y89.163 R0.42
X38.053 Y88.852 R38.361
X38.052 Y88.74 R0.42
G1 X38.042 Y88.67
G2 X38.012 Y88.561 R0.42
G1 X37.984 Y88.496
G2 X37.92 Y88.392 R0.42
G1 X37.867 Y88.329
G2 X37.77 Y88.244 R0.42
G1 X37.7 Y88.2
G2 X37.644 Y88.17 R0.42
G1 X37.501 Y88.108
X37.374 Y88.045
X37.349 Y88.031
X37.36 Y87.929
X37.361 Y87.924
X37.371 Y87.824
X37.403 Y87.813
X37.536 Y87.779
X37.689 Y87.748
G2 X37.75 Y87.73 R0.42
G1 X37.827 Y87.701
G2 X37.94 Y87.638 R0.42
G1 X38.005 Y87.587
G2 X38.088 Y87.5 R0.42
G1 X38.13 Y87.442
G2 X38.182 Y87.342 R0.42
G1 X38.206 Y87.275
G2 X38.23 Y87.166 R0.42
X38.255 Y86.854 R38.361
X38.248 Y86.742 R0.42
G1 X38.235 Y86.672
G2 X38.199 Y86.565 R0.42
G1 X38.167 Y86.501
G2 X38.098 Y86.402 R0.42
G1 X38.042 Y86.342
G2 X37.94 Y86.261 R0.42
G1 X37.868 Y86.221
G2 X37.811 Y86.194 R0.42
G1 X37.665 Y86.139
X37.535 Y86.084
X37.509 Y86.07
X37.515 Y85.968
Y85.963
X37.52 Y85.863
X37.551 Y85.85
X37.682 Y85.809
X37.833 Y85.77
G2 X37.893 Y85.749 R0.42
G1 X37.969 Y85.717
G2 X38.078 Y85.648 R0.42
G1 X38.14 Y85.594
G2 X38.22 Y85.501 R0.42
G1 X38.258 Y85.441
G2 X38.304 Y85.339 R0.42
G1 X38.325 Y85.271
G2 X38.344 Y85.161 R0.42
X38.352 Y84.847 R38.361
X38.339 Y84.737 R0.42
G1 X38.322 Y84.668
G2 X38.281 Y84.563 R0.42
G1 X38.246 Y84.5
G2 X38.172 Y84.405 R0.42
G1 X38.112 Y84.347
G2 X38.007 Y84.273 R0.42
G1 X37.933 Y84.236
G2 X37.874 Y84.212 R0.42
G1 X37.725 Y84.165
X37.592 Y84.116
X37.566 Y84.104
Y84.002
Y83.997
Y83.897
X37.597 Y83.882
X37.725 Y83.835
X37.874 Y83.788
G2 X37.933 Y83.764 R0.42
G1 X38.007 Y83.727
G2 X38.112 Y83.653 R0.42
G1 X38.172 Y83.595
G2 X38.246 Y83.5 R0.42
G1 X38.281 Y83.437
G2 X38.322 Y83.332 R0.42
G1 X38.339 Y83.263
G2 X38.352 Y83.153 R0.42
X38.344 Y82.839 R38.361
X38.325 Y82.729 R0.42
G1 X38.304 Y82.661
G2 X38.258 Y82.559 R0.42
G1 X38.22 Y82.499
G2 X38.14 Y82.406 R0.42
G1 X38.078 Y82.352
G2 X37.969 Y82.283 R0.42
G1 X37.893 Y82.251
G2 X37.833 Y82.23 R0.42
G1 X37.682 Y82.191
X37.547 Y82.149
X37.52 Y82.138
X37.515 Y82.036
Y82.031
X37.509 Y81.931
X37.539 Y81.915
X37.665 Y81.861
X37.811 Y81.806
G2 X37.868 Y81.779 R0.42
G1 X37.94 Y81.739
G2 X38.042 Y81.658 R0.42
G1 X38.098 Y81.598
G2 X38.167 Y81.499 R0.42
G1 X38.199 Y81.435
G2 X38.235 Y81.328 R0.42
G1 X38.248 Y81.258
G2 X38.255 Y81.146 R0.42
X38.23 Y80.834 R38.361
X38.206 Y80.725 R0.42
G1 X38.182 Y80.658
G2 X38.13 Y80.558 R0.42
G1 X38.088 Y80.5
G2 X38.005 Y80.413 R0.42
G1 X37.94 Y80.362
G2 X37.827 Y80.299 R0.42
G1 X37.75 Y80.27
G2 X37.689 Y80.252 R0.42
G1 X37.536 Y80.221
X37.399 Y80.186
X37.371 Y80.177
X37.361 Y80.076
X37.36 Y80.07
X37.349 Y79.971
X37.378 Y79.953
X37.501 Y79.892
X37.644 Y79.83
G2 X37.7 Y79.8 R0.42
G1 X37.77 Y79.756
G2 X37.867 Y79.671 R0.42
G1 X37.92 Y79.608
G2 X37.984 Y79.504 R0.42
G1 X38.012 Y79.439
G2 X38.042 Y79.33 R0.42
G1 X38.052 Y79.26
G2 X38.053 Y79.148 R0.42
X38.012 Y78.837 R38.361
X37.983 Y78.73 R0.42
G1 X37.955 Y78.664
G2 X37.898 Y78.568 R0.42
G1 X37.853 Y78.512
G2 X37.765 Y78.428 R0.42
G1 X37.698 Y78.381
G2 X37.581 Y78.324 R0.42
G1 X37.503 Y78.299
G2 X37.441 Y78.285 R0.42
G1 X37.287 Y78.262
X37.148 Y78.234
X37.12 Y78.227
X37.104 Y78.126
X37.103 Y78.12
X37.087 Y78.021
X37.115 Y78.002
X37.235 Y77.935
X37.375 Y77.865
G2 X37.428 Y77.833 R0.42
G1 X37.496 Y77.785
G2 X37.589 Y77.695 R0.42
G1 X37.638 Y77.629
G2 X37.696 Y77.523 R0.42
G1 X37.721 Y77.456
G2 X37.746 Y77.346 R0.42
G1 X37.752 Y77.275
G2 X37.747 Y77.163 R0.42
X37.69 Y76.855 R38.361
X37.655 Y76.75 R0.42
G1 X37.624 Y76.685
G2 X37.561 Y76.591 R0.42
G1 X37.514 Y76.538
G2 X37.422 Y76.46 R0.42
G1 X37.352 Y76.416
G2 X37.233 Y76.365 R0.42
G1 X37.153 Y76.344
G2 X37.091 Y76.333 R0.42
G1 X36.935 Y76.318
X36.795 Y76.298
X36.767 Y76.292
X36.746 Y76.192
X36.745 Y76.187
X36.723 Y76.089
X36.751 Y76.068
X36.867 Y75.995
X37.002 Y75.918
G2 X37.055 Y75.882 R0.42
G1 X37.119 Y75.831
G2 X37.207 Y75.736 R0.42
G1 X37.253 Y75.668
G2 X37.306 Y75.558 R0.42
G1 X37.327 Y75.49
G2 X37.346 Y75.379 R0.42
G1 X37.348 Y75.308
G2 X37.337 Y75.197 R0.42
X37.264 Y74.893 R38.361
X37.224 Y74.788 R0.42
G1 X37.189 Y74.726
G2 X37.122 Y74.636 R0.42
G1 X37.072 Y74.585
G2 X36.975 Y74.511 R0.42
G1 X36.903 Y74.471
G2 X36.782 Y74.427 R0.42
G1 X36.702 Y74.411
G2 X36.639 Y74.403 R0.42
G1 X36.483 Y74.395
X36.342 Y74.383
X36.313 Y74.378
X36.287 Y74.279
X36.286 Y74.274
X36.259 Y74.178
X36.285 Y74.155
X36.397 Y74.076
X36.528 Y73.992
G2 X36.579 Y73.954 R0.42
G1 X36.641 Y73.9
G2 X36.724 Y73.801 R0.42
G1 X36.766 Y73.73
G2 X36.813 Y73.618 R0.42
G1 X36.831 Y73.548
G2 X36.844 Y73.437 R0.42
G1 X36.842 Y73.365
G2 X36.826 Y73.255 R0.42
X36.736 Y72.955 R38.361
X36.691 Y72.854 R0.42
G1 X36.653 Y72.793
G2 X36.581 Y72.706 R0.42
G1 X36.528 Y72.657
G2 X36.428 Y72.589 R0.42
G1 X36.354 Y72.553
G2 X36.231 Y72.515 R0.42
G1 X36.149 Y72.503
G2 X36.086 Y72.498 R0.42
G1 X35.93 Y72.499
X35.788 Y72.494
X35.759 Y72.491
X35.728 Y72.394
X35.727 Y72.389
X35.695 Y72.293
X35.72 Y72.27
X35.828 Y72.185
X35.955 Y72.094
G2 X36.003 Y72.053 R0.42
G1 X36.062 Y71.996
G2 X36.14 Y71.892 R0.42
G1 X36.178 Y71.819
G2 X36.219 Y71.706 R0.42
G1 X36.233 Y71.635
G2 X36.24 Y71.523 R0.42
G1 X36.235 Y71.452
G2 X36.213 Y71.343 R0.42
X36.108 Y71.047 R38.361
X36.057 Y70.949 R0.42
G1 X36.016 Y70.89
G2 X35.94 Y70.807 R0.42
G1 X35.884 Y70.761
G2 X35.781 Y70.698 R0.42
G1 X35.705 Y70.666
G2 X35.58 Y70.634 R0.42
G1 X35.498 Y70.627
G2 X35.435 Y70.626 R0.42
G1 X35.279 Y70.635
X35.137 Y70.637
X35.108 Y70.635
X35.072 Y70.54
X35.07 Y70.535
X35.034 Y70.441
X35.057 Y70.417
X35.161 Y70.326
X35.282 Y70.229
G2 X35.329 Y70.186 R0.42
G1 X35.384 Y70.125
G2 X35.457 Y70.017 R0.42
G1 X35.491 Y69.943
G2 X35.526 Y69.827 R0.42
G1 X35.536 Y69.756
G2 X35.538 Y69.643 R0.42
G1 X35.529 Y69.572
G2 X35.501 Y69.465 R0.42
X35.381 Y69.175 R38.361
X35.325 Y69.079 R0.42
G1 X35.281 Y69.023
G2 X35.2 Y68.944 R0.42
G1 X35.143 Y68.901
G2 X35.036 Y68.844 R0.42
G1 X34.959 Y68.816
G2 X34.832 Y68.791 R0.42
G1 X34.75 Y68.787
G2 X34.686 Y68.789 R0.42
G1 X34.531 Y68.807
X34.39 Y68.816
X34.361
X34.32 Y68.723
X34.317 Y68.718
X34.276 Y68.626
X34.298 Y68.6
X34.397 Y68.505
X34.513 Y68.401
G2 X34.557 Y68.356 R0.42
G1 X34.61 Y68.292
G2 X34.676 Y68.181 R0.42
G1 X34.707 Y68.104
G2 X34.735 Y67.987 R0.42
G1 X34.742 Y67.916
G2 X34.738 Y67.803 R0.42
G1 X34.725 Y67.733
G2 X34.691 Y67.627 R0.42
X34.556 Y67.344 R38.361
X34.495 Y67.251 R0.42
G1 X34.448 Y67.197
G2 X34.364 Y67.122 R0.42
G1 X34.304 Y67.083
G2 X34.195 Y67.031 R0.42
G1 X34.116 Y67.007
G2 X33.988 Y66.988 R0.42
G1 X33.906 Y66.989
G2 X33.843 Y66.995 R0.42
G1 X33.689 Y67.02
X33.548 Y67.037
X33.519 Y67.039
X33.473 Y66.947
X33.47 Y66.943
X33.424 Y66.854
X33.445 Y66.826
X33.539 Y66.726
X33.65 Y66.616
G2 X33.691 Y66.568 R0.42
G1 X33.74 Y66.502
G2 X33.801 Y66.388 R0.42
G1 X33.827 Y66.31
G2 X33.85 Y66.191 R0.42
G1 X33.853 Y66.119
G2 X33.842 Y66.008 R0.42
G1 X33.826 Y65.938
G2 X33.787 Y65.834 R0.42
X33.637 Y65.558 R38.361
X33.572 Y65.469 R0.42
G1 X33.522 Y65.417
G2 X33.434 Y65.347 R0.42
G1 X33.372 Y65.311
G2 X33.259 Y65.264 R0.42
G1 X33.18 Y65.245
G2 X33.051 Y65.233 R0.42
G1 X32.969 Y65.238
G2 X32.906 Y65.247 R0.42
G1 X32.754 Y65.28
X32.614 Y65.305
X32.585 Y65.308
X32.535 Y65.219
X32.532 Y65.214
X32.481 Y65.128
X32.501 Y65.1
X32.589 Y64.994
X32.694 Y64.879
G2 X32.733 Y64.829 R0.42
G1 X32.778 Y64.761
G2 X32.833 Y64.643 R0.42
G1 X32.855 Y64.564
G2 X32.871 Y64.444 R0.42
G1 Y64.372
G2 X32.854 Y64.261 R0.42
G1 X32.834 Y64.192
G2 X32.79 Y64.09 R0.42
X32.626 Y63.823 R38.361
X32.555 Y63.737 R0.42
G1 X32.503 Y63.688
G2 X32.412 Y63.623 R0.42
G1 X32.348 Y63.59
G2 X32.234 Y63.55 R0.42
G1 X32.153 Y63.534
G2 X32.023 Y63.529 R0.42
G1 X31.942 Y63.538
G2 X31.88 Y63.551 R0.42
G1 X31.729 Y63.592
X31.591 Y63.623
X31.562 Y63.628
X31.507 Y63.542
X31.504 Y63.538
X31.449 Y63.454
X31.467 Y63.425
X31.549 Y63.315
X31.648 Y63.194
G2 X31.685 Y63.142 R0.42
G1 X31.727 Y63.071
G2 X31.774 Y62.952 R0.42
G1 X31.793 Y62.871
G2 X31.803 Y62.75 R0.42
G1 X31.798 Y62.678
G2 X31.776 Y62.569 R0.42
G1 X31.753 Y62.501
G2 X31.703 Y62.401 R0.42
X31.525 Y62.143 R38.361
X31.45 Y62.061 R0.42
G1 X31.395 Y62.015
G2 X31.3 Y61.955 R0.42
G1 X31.235 Y61.925
G2 X31.119 Y61.891 R0.42
G1 X31.038 Y61.879
G2 X30.908 Y61.881 R0.42
G1 X30.827 Y61.895
G2 X30.766 Y61.91 R0.42
G1 X30.618 Y61.959
X30.481 Y61.998
X30.453 Y62.004
X30.393 Y61.921
X30.39 Y61.917
X30.331 Y61.836
X30.347 Y61.806
X30.423 Y61.692
X30.516 Y61.566
G2 X30.55 Y61.512 R0.42
G1 X30.588 Y61.439
G2 X30.629 Y61.317 R0.42
G1 X30.644 Y61.236
G2 X30.647 Y61.115 R0.42
G1 X30.639 Y61.044
G2 X30.611 Y60.934 R0.42
G1 X30.584 Y60.868
G2 X30.529 Y60.772 R0.42
X30.338 Y60.523 R38.361
X30.259 Y60.445 R0.42
G1 X30.202 Y60.402
G2 X30.103 Y60.346 R0.42
G1 X30.037 Y60.32
G2 X29.92 Y60.292 R0.42
G1 X29.838 Y60.285
G2 X29.708 Y60.294 R0.42
G1 X29.628 Y60.312
G2 X29.567 Y60.33 R0.42
G1 X29.422 Y60.387
X29.288 Y60.433
X29.26 Y60.44
X29.196 Y60.36
X29.193 Y60.357
X29.129 Y60.279
X29.144 Y60.248
X29.214 Y60.13
X29.3 Y60.
G2 X29.331 Y59.945 R0.42
G1 X29.365 Y59.87
G2 X29.4 Y59.745 R0.42
G1 X29.41 Y59.663
G2 X29.407 Y59.542 R0.42
G1 X29.395 Y59.472
G2 X29.362 Y59.365 R0.42
G1 X29.332 Y59.3
G2 X29.272 Y59.206 R0.42
X29.068 Y58.967 R38.361
X28.985 Y58.894 R0.42
G1 X28.926 Y58.854
G2 X28.824 Y58.803 R0.42
G1 X28.757 Y58.781
G2 X28.638 Y58.759 R0.42
G1 X28.556 Y58.756
G2 X28.427 Y58.771 R0.42
G1 X28.348 Y58.793
G2 X28.288 Y58.815 R0.42
G1 X28.146 Y58.88
X28.014 Y58.932
X27.987 Y58.941
X27.919 Y58.865
X27.915 Y58.861
X27.848 Y58.787
X27.861 Y58.755
X27.925 Y58.634
X28.004 Y58.499
G2 X28.031 Y58.442 R0.42
G1 X28.062 Y58.366
G2 X28.091 Y58.24 R0.42
G1 X28.096 Y58.158
G2 X28.087 Y58.037 R0.42
G1 X28.071 Y57.967
G2 X28.032 Y57.861 R0.42
G1 X27.999 Y57.798
G2 X27.934 Y57.708 R0.42
X27.718 Y57.48 R38.361
X27.631 Y57.411 R0.42
G1 X27.57 Y57.374
G2 X27.467 Y57.33 R0.42
G1 X27.398 Y57.31
G2 X27.278 Y57.295 R0.42
G1 X27.195 Y57.296
G2 X27.067 Y57.318 R0.42
G1 X26.989 Y57.345
G2 X26.932 Y57.369 R0.42
G1 X26.793 Y57.441
X26.664 Y57.501
X26.637 Y57.511
X26.565 Y57.438
X26.561 Y57.435
X26.49 Y57.364
X26.501 Y57.332
X26.559 Y57.207
X26.631 Y57.068
G2 X26.655 Y57.011 R0.42
G1 X26.682 Y56.933
G2 X26.704 Y56.805 R0.42
G1 X26.705 Y56.722
G2 X26.69 Y56.602 R0.42
G1 X26.67 Y56.533
G2 X26.626 Y56.43 R0.42
G1 X26.589 Y56.369
G2 X26.52 Y56.282 R0.42
X26.292 Y56.066 R38.361
X26.202 Y56.001 R0.42
G1 X26.139 Y55.968
G2 X26.033 Y55.929 R0.42
G1 X25.963 Y55.913
G2 X25.842 Y55.904 R0.42
G1 X25.76 Y55.909
G2 X25.634 Y55.938 R0.42
G1 X25.558 Y55.969
G2 X25.501 Y55.996 R0.42
G1 X25.366 Y56.075
X25.241 Y56.141
X25.214 Y56.153
X25.138 Y56.084
X25.135 Y56.081
X25.06 Y56.014
X25.069 Y55.981
X25.12 Y55.854
X25.185 Y55.712
G2 X25.207 Y55.652 R0.42
G1 X25.229 Y55.573
G2 X25.244 Y55.444 R0.42
G1 X25.241 Y55.362
G2 X25.219 Y55.243 R0.42
G1 X25.197 Y55.176
G2 X25.146 Y55.074 R0.42
G1 X25.106 Y55.015
G2 X25.033 Y54.932 R0.42
X24.794 Y54.728 R38.361
X24.7 Y54.668 R0.42
G1 X24.635 Y54.638
G2 X24.528 Y54.605 R0.42
G1 X24.458 Y54.593
G2 X24.337 Y54.59 R0.42
G1 X24.255 Y54.6
G2 X24.13 Y54.635 R0.42
G1 X24.055 Y54.669
G2 X24. Y54.7 R0.42
G1 X23.87 Y54.786
X23.748 Y54.858
X23.722 Y54.872
X23.643 Y54.807
X23.639 Y54.804
X23.561 Y54.741
X23.569 Y54.708
X23.613 Y54.578
X23.67 Y54.433
G2 X23.688 Y54.372 R0.42
G1 X23.706 Y54.292
G2 X23.715 Y54.162 R0.42
G1 X23.708 Y54.08
G2 X23.68 Y53.963 R0.42
G1 X23.654 Y53.897
G2 X23.598 Y53.798 R0.42
G1 X23.555 Y53.741
G2 X23.477 Y53.662 R0.42
X23.228 Y53.471 R38.361
X23.132 Y53.416 R0.42
G1 X23.066 Y53.389
G2 X22.956 Y53.361 R0.42
G1 X22.885 Y53.353
G2 X22.764 Y53.356 R0.42
G1 X22.683 Y53.371
G2 X22.561 Y53.412 R0.42
G1 X22.488 Y53.45
G2 X22.434 Y53.484 R0.42
G1 X22.308 Y53.577
X22.19 Y53.656
X22.165 Y53.67
X22.083 Y53.61
X22.079 Y53.607
X21.997 Y53.548
X22.003 Y53.514
X22.041 Y53.382
X22.09 Y53.234
G2 X22.105 Y53.173 R0.42
G1 X22.119 Y53.092
G2 X22.121 Y52.962 R0.42
G1 X22.109 Y52.881
G2 X22.075 Y52.765 R0.42
G1 X22.045 Y52.7
G2 X21.985 Y52.605 R0.42
G1 X21.939 Y52.55
G2 X21.857 Y52.475 R0.42
X21.599 Y52.297 R38.361
X21.499 Y52.247 R0.42
G1 X21.431 Y52.224
G2 X21.322 Y52.202 R0.42
G1 X21.25 Y52.197
G2 X21.129 Y52.207 R0.42
G1 X21.048 Y52.226
G2 X20.929 Y52.273 R0.42
G1 X20.858 Y52.315
G2 X20.806 Y52.352 R0.42
G1 X20.685 Y52.451
X20.572 Y52.536
X20.547 Y52.552
X20.462 Y52.495
X20.458 Y52.493
X20.373 Y52.439
X20.378 Y52.405
X20.408 Y52.271
X20.449 Y52.12
G2 X20.462 Y52.058 R0.42
G1 X20.471 Y51.977
G2 X20.466 Y51.847 R0.42
G1 X20.45 Y51.766
G2 X20.41 Y51.652 R0.42
G1 X20.377 Y51.588
G2 X20.312 Y51.497 R0.42
G1 X20.263 Y51.445
G2 X20.177 Y51.374 R0.42
X19.91 Y51.21 R38.361
X19.808 Y51.166 R0.42
G1 X19.739 Y51.146
G2 X19.628 Y51.129 R0.42
G1 X19.556
G2 X19.436 Y51.145 R0.42
G1 X19.357 Y51.167
G2 X19.239 Y51.222 R0.42
G1 X19.171 Y51.267
G2 X19.121 Y51.306 R0.42
G1 X19.006 Y51.411
X18.897 Y51.502
X18.873 Y51.519
X18.785 Y51.468
X18.781 Y51.465
X18.693 Y51.416
X18.696 Y51.382
X18.72 Y51.246
X18.753 Y51.094
G2 X18.762 Y51.031 R0.42
G1 X18.767 Y50.949
G2 X18.755 Y50.82 R0.42
G1 X18.736 Y50.741
G2 X18.689 Y50.628 R0.42
G1 X18.653 Y50.566
G2 X18.583 Y50.478 R0.42
G1 X18.531 Y50.428
G2 X18.442 Y50.363 R0.42
X18.166 Y50.213 R38.361
X18.062 Y50.174 R0.42
G1 X17.992 Y50.158
G2 X17.881 Y50.147 R0.42
G1 X17.809 Y50.15
G2 X17.69 Y50.173 R0.42
G1 X17.612 Y50.199
G2 X17.498 Y50.26 R0.42
G1 X17.432 Y50.309
G2 X17.384 Y50.35 R0.42
G1 X17.274 Y50.461
X17.17 Y50.558
X17.148 Y50.576
X17.057 Y50.529
X17.052 Y50.527
X16.962 Y50.482
X16.963 Y50.448
X16.98 Y50.311
X17.005 Y50.157
G2 X17.011 Y50.094 R0.42
G1 X17.012 Y50.012
G2 X16.993 Y49.884 R0.42
G1 X16.969 Y49.805
G2 X16.917 Y49.696 R0.42
G1 X16.878 Y49.636
G2 X16.803 Y49.552 R0.42
G1 X16.749 Y49.505
G2 X16.656 Y49.444 R0.42
X16.373 Y49.309 R38.361
X16.267 Y49.275 R0.42
G1 X16.197 Y49.262
G2 X16.084 Y49.258 R0.42
G1 X16.013 Y49.265
G2 X15.896 Y49.293 R0.42
G1 X15.819 Y49.324
G2 X15.708 Y49.39 R0.42
G1 X15.644 Y49.443
G2 X15.599 Y49.487 R0.42
G1 X15.495 Y49.603
X15.396 Y49.705
X15.375 Y49.724
X15.282 Y49.682
X15.277 Y49.68
X15.185 Y49.64
X15.184 Y49.606
X15.193 Y49.469
X15.211 Y49.314
G2 X15.213 Y49.25 R0.42
G1 X15.209 Y49.168
G2 X15.184 Y49.041 R0.42
G1 X15.156 Y48.964
G2 X15.099 Y48.857 R0.42
G1 X15.056 Y48.8
G2 X14.977 Y48.719 R0.42
G1 X14.921 Y48.675
G2 X14.825 Y48.619 R0.42
X14.535 Y48.499 R38.361
X14.428 Y48.471 R0.42
G1 X14.357 Y48.462
G2 X14.244 Y48.464 R0.42
G1 X14.173 Y48.474
G2 X14.057 Y48.509 R0.42
G1 X13.983 Y48.543
G2 X13.875 Y48.616 R0.42
G1 X13.814 Y48.671
G2 X13.771 Y48.718 R0.42
G1 X13.674 Y48.839
X13.58 Y48.946
X13.56 Y48.967
X13.465 Y48.93
X13.46 Y48.928
X13.366 Y48.892
X13.363 Y48.858
X13.365 Y48.721
X13.374 Y48.565
G2 X13.373 Y48.502 R0.42
G1 X13.366 Y48.42
G2 X13.334 Y48.295 R0.42
G1 X13.302 Y48.219
G2 X13.239 Y48.116 R0.42
G1 X13.193 Y48.06
G2 X13.11 Y47.984 R0.42
G1 X13.051 Y47.943
G2 X12.953 Y47.892 R0.42
X12.657 Y47.787 R38.361
X12.548 Y47.765 R0.42
G1 X12.477 Y47.76
G2 X12.365 Y47.767 R0.42
G1 X12.294 Y47.781
G2 X12.181 Y47.822 R0.42
G1 X12.108 Y47.86
G2 X12.004 Y47.938 R0.42
G1 X11.947 Y47.997
G2 X11.906 Y48.045 R0.42
G1 X11.815 Y48.172
X11.727 Y48.283
X11.708 Y48.305
X11.611 Y48.273
X11.606 Y48.271
X11.51 Y48.241
X11.506 Y48.207
X11.501 Y48.07
X11.502 Y47.914
G2 X11.497 Y47.851 R0.42
G1 X11.485 Y47.769
G2 X11.447 Y47.646 R0.42
G1 X11.411 Y47.572
G2 X11.343 Y47.472 R0.42
G1 X11.294 Y47.419
G2 X11.207 Y47.347 R0.42
G1 X11.146 Y47.309
G2 X11.045 Y47.264 R0.42
X10.745 Y47.174 R38.361
X10.635 Y47.158 R0.42
G1 X10.563 Y47.156
G2 X10.452 Y47.169 R0.42
G1 X10.382 Y47.187
G2 X10.27 Y47.234 R0.42
G1 X10.199 Y47.276
G2 X10.1 Y47.359 R0.42
G1 X10.046 Y47.421
G2 X10.008 Y47.472 R0.42
G1 X9.924 Y47.603
X9.842 Y47.719
X9.824 Y47.741
X9.725 Y47.714
X9.72 Y47.713
X9.623 Y47.688
X9.617 Y47.654
X9.604 Y47.517
X9.597 Y47.361
G2 X9.59 Y47.299 R0.42
G1 X9.573 Y47.218
G2 X9.529 Y47.096 R0.42
G1 X9.489 Y47.024
G2 X9.415 Y46.928 R0.42
G1 X9.364 Y46.878
G2 X9.274 Y46.811 R0.42
G1 X9.212 Y46.776
G2 X9.107 Y46.736 R0.42
X8.803 Y46.663 R38.361
X8.692 Y46.652 R0.42
G1 X8.621 Y46.654
G2 X8.51 Y46.673 R0.42
G1 X8.441 Y46.694
G2 X8.332 Y46.747 R0.42
G1 X8.264 Y46.793
G2 X8.169 Y46.881 R0.42
G1 X8.118 Y46.945
G2 X8.082 Y46.998 R0.42
G1 X8.005 Y47.133
X7.93 Y47.253
X7.913 Y47.277
X7.813 Y47.255
X7.808 Y47.254
X7.709 Y47.234
X7.701 Y47.201
X7.682 Y47.065
X7.667 Y46.909
G2 X7.656 Y46.847 R0.42
G1 X7.635 Y46.767
G2 X7.584 Y46.648 R0.42
G1 X7.54 Y46.578
G2 X7.462 Y46.486 R0.42
G1 X7.409 Y46.439
G2 X7.315 Y46.376 R0.42
G1 X7.25 Y46.345
G2 X7.145 Y46.31 R0.42
X6.837 Y46.253 R38.361
X6.725 Y46.248 R0.42
G1 X6.654 Y46.254
G2 X6.544 Y46.279 R0.42
G1 X6.477 Y46.304
G2 X6.371 Y46.362 R0.42
G1 X6.305 Y46.411
G2 X6.215 Y46.504 R0.42
G1 X6.167 Y46.571
G2 X6.135 Y46.625 R0.42
G1 X6.065 Y46.765
X5.996 Y46.889
X5.98 Y46.913
X5.879 Y46.897
X5.874 Y46.896
X5.775 Y46.881
X5.765 Y46.848
X5.738 Y46.713
X5.715 Y46.559
G2 X5.701 Y46.497 R0.42
G1 X5.676 Y46.419
G2 X5.619 Y46.303 R0.42
G1 X5.572 Y46.235
G2 X5.488 Y46.147 R0.42
G1 X5.432 Y46.102
G2 X5.336 Y46.045 R0.42
G1 X5.27 Y46.017
G2 X5.163 Y45.988 R0.42
X4.852 Y45.947 R38.361
X4.74 Y45.948 R0.42
G1 X4.67 Y45.958
G2 X4.561 Y45.988 R0.42
G1 X4.496 Y46.016
G2 X4.392 Y46.08 R0.42
G1 X4.329 Y46.133
G2 X4.244 Y46.23 R0.42
G1 X4.2 Y46.3
G2 X4.17 Y46.356 R0.42
G1 X4.108 Y46.499
X4.045 Y46.626
X4.031 Y46.651
X3.929 Y46.64
X3.924 Y46.639
X3.824 Y46.629
X3.813 Y46.597
X3.779 Y46.464
X3.748 Y46.311
G2 X3.73 Y46.25 R0.42
G1 X3.702 Y46.173
G2 X3.638 Y46.06 R0.42
G1 X3.587 Y45.995
G2 X3.5 Y45.912 R0.42
G1 X3.442 Y45.87
G2 X3.342 Y45.818 R0.42
G1 X3.275 Y45.794
G2 X3.166 Y45.77 R0.42
X2.854 Y45.745 R38.361
X2.742 Y45.752 R0.42
G1 X2.672 Y45.765
G2 X2.565 Y45.801 R0.42
G1 X2.501 Y45.833
G2 X2.402 Y45.902 R0.42
G1 X2.342 Y45.958
G2 X2.261 Y46.06 R0.42
G1 X2.221 Y46.132
G2 X2.194 Y46.189 R0.42
G1 X2.139 Y46.335
X2.084 Y46.465
X2.07 Y46.491
X1.968 Y46.485
X1.963
X1.863 Y46.48
X1.85 Y46.449
X1.809 Y46.318
X1.77 Y46.167
G2 X1.749 Y46.107 R0.42
G1 X1.717 Y46.031
G2 X1.648 Y45.922 R0.42
G1 X1.594 Y45.86
G2 X1.501 Y45.78 R0.42
G1 X1.441 Y45.742
G2 X1.339 Y45.696 R0.42
G1 X1.271 Y45.675
G2 X1.161 Y45.656 R0.42
X0.847 Y45.648 R38.361
X0.737 Y45.661 R0.42
G1 X0.668 Y45.678
G2 X0.563 Y45.719 R0.42
G1 X0.5 Y45.755
G2 X0.405 Y45.828 R0.42
G1 X0.347 Y45.887
G2 X0.273 Y45.993 R0.42
G1 X0.236 Y46.067
G2 X0.213 Y46.126 R0.42
G1 X0.165 Y46.275
X0.116 Y46.408
X0.104 Y46.434
X0.002
X-0.003
X-0.103
X-0.118 Y46.403
X-0.165 Y46.275
X-0.213 Y46.126
G2 X-0.236 Y46.067 R0.42
G1 X-0.273 Y45.993
G2 X-0.347 Y45.887 R0.42
G1 X-0.405 Y45.828
G2 X-0.5 Y45.755 R0.42
G1 X-0.563 Y45.719
G2 X-0.668 Y45.678 R0.42
G1 X-0.737 Y45.661
G2 X-0.847 Y45.648 R0.42
X-1.161 Y45.656 R38.361
X-1.271 Y45.675 R0.42
G1 X-1.339 Y45.696
G2 X-1.441 Y45.742 R0.42
G1 X-1.501 Y45.78
G2 X-1.594 Y45.86 R0.42
G1 X-1.648 Y45.922
G2 X-1.717 Y46.031 R0.42
G1 X-1.749 Y46.107
G2 X-1.77 Y46.167 R0.42
G1 X-1.809 Y46.318
X-1.851 Y46.453
X-1.862 Y46.48
X-1.964 Y46.485
X-1.969
X-2.069 Y46.491
X-2.085 Y46.461
X-2.139 Y46.335
X-2.194 Y46.189
G2 X-2.221 Y46.132 R0.42
G1 X-2.261 Y46.06
G2 X-2.342 Y45.958 R0.42
G1 X-2.402 Y45.902
G2 X-2.501 Y45.833 R0.42
G1 X-2.565 Y45.801
G2 X-2.672 Y45.765 R0.42
G1 X-2.742 Y45.752
G2 X-2.854 Y45.745 R0.42
X-3.166 Y45.77 R38.361
X-3.275 Y45.794 R0.42
G1 X-3.342 Y45.818
G2 X-3.442 Y45.87 R0.42
G1 X-3.5 Y45.912
G2 X-3.587 Y45.995 R0.42
G1 X-3.638 Y46.06
G2 X-3.702 Y46.173 R0.42
G1 X-3.73 Y46.25
G2 X-3.748 Y46.311 R0.42
G1 X-3.779 Y46.464
X-3.814 Y46.601
X-3.823 Y46.629
X-3.924 Y46.639
X-3.93 Y46.64
X-4.029 Y46.651
X-4.047 Y46.622
X-4.108 Y46.499
X-4.17 Y46.356
G2 X-4.2 Y46.3 R0.42
G1 X-4.244 Y46.23
G2 X-4.329 Y46.133 R0.42
G1 X-4.392 Y46.08
G2 X-4.496 Y46.016 R0.42
G1 X-4.561 Y45.988
G2 X-4.67 Y45.958 R0.42
G1 X-4.74 Y45.948
G2 X-4.852 Y45.947 R0.42
X-5.163 Y45.988 R38.361
X-5.27 Y46.017 R0.42
G1 X-5.336 Y46.045
G2 X-5.432 Y46.102 R0.42
G1 X-5.488 Y46.147
G2 X-5.572 Y46.235 R0.42
G1 X-5.619 Y46.303
G2 X-5.676 Y46.419 R0.42
G1 X-5.701 Y46.497
G2 X-5.715 Y46.559 R0.42
G1 X-5.738 Y46.713
X-5.766 Y46.852
X-5.773 Y46.88
X-5.874 Y46.896
X-5.88 Y46.897
X-5.979 Y46.913
X-5.998 Y46.885
X-6.065 Y46.765
X-6.135 Y46.625
G2 X-6.167 Y46.571 R0.42
G1 X-6.215 Y46.504
G2 X-6.305 Y46.411 R0.42
G1 X-6.371 Y46.362
G2 X-6.477 Y46.304 R0.42
G1 X-6.544 Y46.279
G2 X-6.654 Y46.254 R0.42
G1 X-6.725 Y46.248
G2 X-6.837 Y46.253 R0.42
X-7.145 Y46.31 R38.361
X-7.25 Y46.345 R0.42
G1 X-7.315 Y46.376
G2 X-7.409 Y46.439 R0.42
G1 X-7.462 Y46.486
G2 X-7.54 Y46.578 R0.42
G1 X-7.584 Y46.648
G2 X-7.635 Y46.767 R0.42
G1 X-7.656 Y46.847
G2 X-7.667 Y46.909 R0.42
G1 X-7.682 Y47.065
X-7.702 Y47.205
X-7.708 Y47.233
X-7.808 Y47.254
X-7.813 Y47.255
X-7.911 Y47.277
X-7.932 Y47.249
X-8.005 Y47.133
X-8.082 Y46.998
G2 X-8.118 Y46.945 R0.42
G1 X-8.169 Y46.881
G2 X-8.264 Y46.793 R0.42
G1 X-8.332 Y46.747
G2 X-8.441 Y46.694 R0.42
G1 X-8.51 Y46.673
G2 X-8.621 Y46.654 R0.42
G1 X-8.692 Y46.652
G2 X-8.803 Y46.663 R0.42
X-9.107 Y46.736 R38.361
X-9.212 Y46.776 R0.42
G1 X-9.274 Y46.811
G2 X-9.364 Y46.878 R0.42
G1 X-9.415 Y46.928
G2 X-9.489 Y47.024 R0.42
G1 X-9.529 Y47.096
G2 X-9.573 Y47.218 R0.42
G1 X-9.59 Y47.299
G2 X-9.597 Y47.361 R0.42
G1 X-9.604 Y47.517
X-9.617 Y47.658
X-9.622 Y47.687
X-9.721 Y47.713
X-9.726 Y47.714
X-9.822 Y47.741
X-9.845 Y47.715
X-9.924 Y47.603
X-10.008 Y47.472
G2 X-10.046 Y47.421 R0.42
G1 X-10.1 Y47.359
G2 X-10.199 Y47.276 R0.42
G1 X-10.27 Y47.234
G2 X-10.382 Y47.187 R0.42
G1 X-10.452 Y47.169
G2 X-10.563 Y47.156 R0.42
G1 X-10.635 Y47.158
G2 X-10.745 Y47.174 R0.42
X-11.045 Y47.264 R38.361
X-11.146 Y47.309 R0.42
G1 X-11.207 Y47.347
G2 X-11.294 Y47.419 R0.42
G1 X-11.343 Y47.472
G2 X-11.411 Y47.572 R0.42
G1 X-11.447 Y47.646
G2 X-11.485 Y47.769 R0.42
G1 X-11.497 Y47.851
G2 X-11.502 Y47.914 R0.42
G1 X-11.501 Y48.07
X-11.506 Y48.212
X-11.509 Y48.241
X-11.606 Y48.272
X-11.611 Y48.273
X-11.707 Y48.305
X-11.73 Y48.28
X-11.815 Y48.172
X-11.906 Y48.045
G2 X-11.947 Y47.997 R0.42
G1 X-12.004 Y47.938
G2 X-12.108 Y47.86 R0.42
G1 X-12.181 Y47.822
G2 X-12.294 Y47.781 R0.42
G1 X-12.365 Y47.767
G2 X-12.477 Y47.76 R0.42
G1 X-12.548 Y47.765
G2 X-12.657 Y47.787 R0.42
X-12.953 Y47.892 R38.361
X-13.051 Y47.943 R0.42
G1 X-13.11 Y47.984
G2 X-13.193 Y48.06 R0.42
G1 X-13.239 Y48.116
G2 X-13.302 Y48.219 R0.42
G1 X-13.334 Y48.295
G2 X-13.366 Y48.42 R0.42
G1 X-13.373 Y48.502
G2 X-13.374 Y48.565 R0.42
G1 X-13.365 Y48.721
X-13.363 Y48.863
X-13.365 Y48.892
X-13.46 Y48.928
X-13.465 Y48.93
X-13.559 Y48.966
X-13.583 Y48.943
X-13.674 Y48.839
X-13.771 Y48.718
G2 X-13.814 Y48.671 R0.42
G1 X-13.875 Y48.616
G2 X-13.983 Y48.543 R0.42
G1 X-14.057 Y48.509
G2 X-14.173 Y48.474 R0.42
G1 X-14.244 Y48.464
G2 X-14.357 Y48.462 R0.42
G1 X-14.428 Y48.471
G2 X-14.535 Y48.499 R0.42
X-14.825 Y48.619 R38.361
X-14.921 Y48.675 R0.42
G1 X-14.977 Y48.719
G2 X-15.056 Y48.8 R0.42
G1 X-15.099 Y48.857
G2 X-15.156 Y48.964 R0.42
G1 X-15.184 Y49.041
G2 X-15.209 Y49.168 R0.42
G1 X-15.213 Y49.25
G2 X-15.211 Y49.314 R0.42
G1 X-15.193 Y49.469
X-15.184 Y49.61
Y49.639
X-15.277 Y49.68
X-15.282 Y49.683
X-15.374 Y49.724
X-15.4 Y49.702
X-15.495 Y49.603
X-15.599 Y49.487
G2 X-15.644 Y49.443 R0.42
G1 X-15.708 Y49.39
G2 X-15.819 Y49.324 R0.42
G1 X-15.896 Y49.293
G2 X-16.013 Y49.265 R0.42
G1 X-16.084 Y49.258
G2 X-16.197 Y49.262 R0.42
G1 X-16.267 Y49.275
G2 X-16.373 Y49.309 R0.42
X-16.656 Y49.444 R38.361
X-16.749 Y49.505 R0.42
G1 X-16.803 Y49.552
G2 X-16.878 Y49.636 R0.42
G1 X-16.917 Y49.696
G2 X-16.969 Y49.805 R0.42
G1 X-16.993 Y49.884
G2 X-17.012 Y50.012 R0.42
G1 X-17.011 Y50.094
G2 X-17.005 Y50.157 R0.42
G1 X-16.98 Y50.311
X-16.963 Y50.452
X-16.961 Y50.481
X-17.053 Y50.527
X-17.057 Y50.53
X-17.146 Y50.576
X-17.174 Y50.555
X-17.274 Y50.461
X-17.384 Y50.35
G2 X-17.432 Y50.309 R0.42
G1 X-17.498 Y50.26
G2 X-17.612 Y50.199 R0.42
G1 X-17.69 Y50.173
G2 X-17.809 Y50.15 R0.42
G1 X-17.881 Y50.147
G2 X-17.992 Y50.158 R0.42
G1 X-18.062 Y50.174
G2 X-18.166 Y50.213 R0.42
X-18.442 Y50.363 R38.361
X-18.531 Y50.428 R0.42
G1 X-18.583 Y50.478
G2 X-18.653 Y50.566 R0.42
G1 X-18.689 Y50.628
G2 X-18.736 Y50.741 R0.42
G1 X-18.755 Y50.82
G2 X-18.767 Y50.949 R0.42
G1 X-18.762 Y51.031
G2 X-18.753 Y51.094 R0.42
G1 X-18.72 Y51.246
X-18.695 Y51.386
X-18.692 Y51.415
X-18.781 Y51.465
X-18.786 Y51.468
X-18.872 Y51.519
X-18.9 Y51.499
X-19.006 Y51.411
X-19.121 Y51.306
G2 X-19.171 Y51.267 R0.42
G1 X-19.239 Y51.222
G2 X-19.357 Y51.167 R0.42
G1 X-19.436 Y51.145
G2 X-19.556 Y51.129 R0.42
G1 X-19.628
G2 X-19.739 Y51.146 R0.42
G1 X-19.808 Y51.166
G2 X-19.91 Y51.21 R0.42
X-20.177 Y51.374 R38.361
X-20.263 Y51.445 R0.42
G1 X-20.312 Y51.497
G2 X-20.377 Y51.588 R0.42
G1 X-20.41 Y51.652
G2 X-20.45 Y51.766 R0.42
G1 X-20.466 Y51.847
G2 X-20.471 Y51.977 R0.42
G1 X-20.462 Y52.058
G2 X-20.449 Y52.12 R0.42
G1 X-20.408 Y52.271
X-20.377 Y52.409
X-20.372 Y52.438
X-20.458 Y52.493
X-20.462 Y52.496
X-20.546 Y52.551
X-20.575 Y52.533
X-20.685 Y52.451
X-20.806 Y52.352
G2 X-20.858 Y52.315 R0.42
G1 X-20.929 Y52.273
G2 X-21.048 Y52.226 R0.42
G1 X-21.129 Y52.207
G2 X-21.25 Y52.197 R0.42
G1 X-21.322 Y52.202
G2 X-21.431 Y52.224 R0.42
G1 X-21.499 Y52.247
G2 X-21.599 Y52.297 R0.42
X-21.857 Y52.475 R38.361
X-21.939 Y52.55 R0.42
G1 X-21.985 Y52.605
G2 X-22.045 Y52.7 R0.42
G1 X-22.075 Y52.765
G2 X-22.109 Y52.881 R0.42
G1 X-22.121 Y52.962
G2 X-22.119 Y53.092 R0.42
G1 X-22.105 Y53.173
G2 X-22.09 Y53.234 R0.42
G1 X-22.041 Y53.382
X-22.002 Y53.519
X-21.996 Y53.547
X-22.079 Y53.607
X-22.083 Y53.61
X-22.164 Y53.669
X-22.194 Y53.653
X-22.308 Y53.577
X-22.434 Y53.484
G2 X-22.488 Y53.45 R0.42
G1 X-22.561 Y53.412
G2 X-22.683 Y53.371 R0.42
G1 X-22.764 Y53.356
G2 X-22.885 Y53.353 R0.42
G1 X-22.956 Y53.361
G2 X-23.066 Y53.389 R0.42
G1 X-23.132 Y53.416
G2 X-23.228 Y53.471 R0.42
X-23.477 Y53.662 R38.361
X-23.555 Y53.741 R0.42
G1 X-23.598 Y53.798
G2 X-23.654 Y53.897 R0.42
G1 X-23.68 Y53.963
G2 X-23.708 Y54.08 R0.42
G1 X-23.715 Y54.162
G2 X-23.706 Y54.292 R0.42
G1 X-23.688 Y54.372
G2 X-23.67 Y54.433 R0.42
G1 X-23.613 Y54.578
X-23.567 Y54.712
X-23.56 Y54.74
X-23.64 Y54.804
X-23.643 Y54.807
X-23.721 Y54.871
X-23.752 Y54.856
X-23.87 Y54.786
X-24. Y54.7
G2 X-24.055 Y54.669 R0.42
G1 X-24.13 Y54.635
G2 X-24.255 Y54.6 R0.42
G1 X-24.337 Y54.59
G2 X-24.458 Y54.593 R0.42
G1 X-24.528 Y54.605
G2 X-24.635 Y54.638 R0.42
G1 X-24.7 Y54.668
G2 X-24.794 Y54.728 R0.42
X-25.033 Y54.932 R38.361
X-25.106 Y55.015 R0.42
G1 X-25.146 Y55.074
G2 X-25.197 Y55.176 R0.42
G1 X-25.219 Y55.243
G2 X-25.241 Y55.362 R0.42
G1 X-25.244 Y55.444
G2 X-25.229 Y55.573 R0.42
G1 X-25.207 Y55.652
G2 X-25.185 Y55.712 R0.42
G1 X-25.12 Y55.854
X-25.068 Y55.986
X-25.059 Y56.013
X-25.135 Y56.081
X-25.139 Y56.085
X-25.213 Y56.152
X-25.245 Y56.139
X-25.366 Y56.075
X-25.501 Y55.996
G2 X-25.558 Y55.969 R0.42
G1 X-25.634 Y55.938
G2 X-25.76 Y55.909 R0.42
G1 X-25.842 Y55.904
G2 X-25.963 Y55.913 R0.42
G1 X-26.033 Y55.929
G2 X-26.139 Y55.968 R0.42
G1 X-26.202 Y56.001
G2 X-26.292 Y56.066 R0.42
X-26.52 Y56.282 R38.361
X-26.589 Y56.369 R0.42
G1 X-26.626 Y56.43
G2 X-26.67 Y56.533 R0.42
G1 X-26.69 Y56.602
G2 X-26.705 Y56.722 R0.42
G1 X-26.704 Y56.805
G2 X-26.682 Y56.933 R0.42
G1 X-26.655 Y57.011
G2 X-26.631 Y57.068 R0.42
G1 X-26.559 Y57.207
X-26.499 Y57.336
X-26.489 Y57.363
X-26.562 Y57.435
X-26.565 Y57.439
X-26.636 Y57.51
X-26.668 Y57.499
X-26.793 Y57.441
X-26.932 Y57.369
G2 X-26.989 Y57.345 R0.42
G1 X-27.067 Y57.318
G2 X-27.195 Y57.296 R0.42
G1 X-27.278 Y57.295
G2 X-27.398 Y57.31 R0.42
G1 X-27.467 Y57.33
G2 X-27.57 Y57.374 R0.42
G1 X-27.631 Y57.411
G2 X-27.718 Y57.48 R0.42
X-27.934 Y57.708 R38.361
X-27.999 Y57.798 R0.42
G1 X-28.032 Y57.861
G2 X-28.071 Y57.967 R0.42
G1 X-28.087 Y58.037
G2 X-28.096 Y58.158 R0.42
G1 X-28.091 Y58.24
G2 X-28.062 Y58.366 R0.42
G1 X-28.031 Y58.442
G2 X-28.004 Y58.499 R0.42
G1 X-27.925 Y58.634
X-27.859 Y58.759
X-27.847 Y58.786
X-27.916 Y58.862
X-27.919 Y58.865
X-27.986 Y58.94
X-28.019 Y58.931
X-28.146 Y58.88
X-28.288 Y58.815
G2 X-28.348 Y58.793 R0.42
G1 X-28.427 Y58.771
G2 X-28.556 Y58.756 R0.42
G1 X-28.638 Y58.759
G2 X-28.757 Y58.781 R0.42
G1 X-28.824 Y58.803
G2 X-28.926 Y58.854 R0.42
G1 X-28.985 Y58.894
G2 X-29.068 Y58.967 R0.42
X-29.272 Y59.206 R38.361
X-29.332 Y59.3 R0.42
G1 X-29.362 Y59.365
G2 X-29.395 Y59.472 R0.42
G1 X-29.407 Y59.542
G2 X-29.41 Y59.663 R0.42
G1 X-29.4 Y59.745
G2 X-29.365 Y59.87 R0.42
G1 X-29.331 Y59.945
G2 X-29.3 Y60. R0.42
G1 X-29.214 Y60.13
X-29.142 Y60.252
X-29.128 Y60.278
X-29.193 Y60.357
X-29.196 Y60.361
X-29.259 Y60.439
X-29.292 Y60.431
X-29.422 Y60.387
X-29.567 Y60.33
G2 X-29.628 Y60.312 R0.42
G1 X-29.708 Y60.294
G2 X-29.838 Y60.285 R0.42
G1 X-29.92 Y60.292
G2 X-30.037 Y60.32 R0.42
G1 X-30.103 Y60.346
G2 X-30.202 Y60.402 R0.42
G1 X-30.259 Y60.445
G2 X-30.338 Y60.523 R0.42
X-30.529 Y60.772 R38.361
X-30.584 Y60.868 R0.42
G1 X-30.611 Y60.934
G2 X-30.639 Y61.044 R0.42
G1 X-30.647 Y61.115
G2 X-30.644 Y61.236 R0.42
G1 X-30.629 Y61.317
G2 X-30.588 Y61.439 R0.42
G1 X-30.55 Y61.512
G2 X-30.516 Y61.566 R0.42
G1 X-30.423 Y61.692
X-30.344 Y61.81
X-30.33 Y61.835
X-30.39 Y61.917
X-30.393 Y61.921
X-30.452 Y62.003
X-30.486 Y61.997
X-30.618 Y61.959
X-30.766 Y61.91
G2 X-30.827 Y61.895 R0.42
G1 X-30.908 Y61.881
G2 X-31.038 Y61.879 R0.42
G1 X-31.119 Y61.891
G2 X-31.235 Y61.925 R0.42
G1 X-31.3 Y61.955
G2 X-31.395 Y62.015 R0.42
G1 X-31.45 Y62.061
G2 X-31.525 Y62.143 R0.42
X-31.703 Y62.401 R38.361
X-31.753 Y62.501 R0.42
G1 X-31.776 Y62.569
G2 X-31.798 Y62.678 R0.42
G1 X-31.803 Y62.75
G2 X-31.793 Y62.871 R0.42
G1 X-31.774 Y62.952
G2 X-31.727 Y63.071 R0.42
G1 X-31.685 Y63.142
G2 X-31.648 Y63.194 R0.42
G1 X-31.549 Y63.315
X-31.464 Y63.428
X-31.448 Y63.453
X-31.505 Y63.538
X-31.507 Y63.542
X-31.561 Y63.627
X-31.595 Y63.622
X-31.729 Y63.592
X-31.88 Y63.551
G2 X-31.942 Y63.538 R0.42
G1 X-32.023 Y63.529
G2 X-32.153 Y63.534 R0.42
G1 X-32.234 Y63.55
G2 X-32.348 Y63.59 R0.42
G1 X-32.412 Y63.623
G2 X-32.503 Y63.688 R0.42
G1 X-32.555 Y63.737
G2 X-32.626 Y63.823 R0.42
X-32.79 Y64.09 R38.361
X-32.834 Y64.192 R0.42
G1 X-32.854 Y64.261
G2 X-32.871 Y64.372 R0.42
G1 Y64.444
G2 X-32.855 Y64.564 R0.42
G1 X-32.833 Y64.643
G2 X-32.778 Y64.761 R0.42
G1 X-32.733 Y64.829
G2 X-32.694 Y64.879 R0.42
G1 X-32.589 Y64.994
X-32.498 Y65.103
X-32.481 Y65.127
X-32.532 Y65.215
X-32.535 Y65.219
X-32.584 Y65.307
X-32.618 Y65.304
X-32.754 Y65.28
X-32.906 Y65.247
G2 X-32.969 Y65.238 R0.42
G1 X-33.051 Y65.233
G2 X-33.18 Y65.245 R0.42
G1 X-33.259 Y65.264
G2 X-33.372 Y65.311 R0.42
G1 X-33.434 Y65.347
G2 X-33.522 Y65.417 R0.42
G1 X-33.572 Y65.469
G2 X-33.637 Y65.558 R0.42
X-33.787 Y65.834 R38.361
X-33.826 Y65.938 R0.42
G1 X-33.842 Y66.008
G2 X-33.853 Y66.119 R0.42
G1 X-33.85 Y66.191
G2 X-33.827 Y66.31 R0.42
G1 X-33.801 Y66.388
G2 X-33.74 Y66.502 R0.42
G1 X-33.691 Y66.568
G2 X-33.65 Y66.616 R0.42
G1 X-33.539 Y66.726
X-33.442 Y66.83
X-33.424 Y66.852
X-33.471 Y66.943
X-33.473 Y66.948
X-33.518 Y67.038
X-33.552 Y67.037
X-33.689 Y67.02
X-33.843 Y66.995
G2 X-33.906 Y66.989 R0.42
G1 X-33.988 Y66.988
G2 X-34.116 Y67.007 R0.42
G1 X-34.195 Y67.031
G2 X-34.304 Y67.083 R0.42
G1 X-34.364 Y67.122
G2 X-34.448 Y67.197 R0.42
G1 X-34.495 Y67.251
G2 X-34.556 Y67.344 R0.42
X-34.691 Y67.627 R38.361
X-34.725 Y67.733 R0.42
G1 X-34.738 Y67.803
G2 X-34.742 Y67.916 R0.42
G1 X-34.735 Y67.987
G2 X-34.707 Y68.104 R0.42
G1 X-34.676 Y68.181
G2 X-34.61 Y68.292 R0.42
G1 X-34.557 Y68.356
G2 X-34.513 Y68.401 R0.42
G1 X-34.397 Y68.505
X-34.295 Y68.604
X-34.276 Y68.625
X-34.318 Y68.718
X-34.32 Y68.723
X-34.36 Y68.815
X-34.394 Y68.816
X-34.531 Y68.807
X-34.686 Y68.789
G2 X-34.75 Y68.787 R0.42
G1 X-34.832 Y68.791
G2 X-34.959 Y68.816 R0.42
G1 X-35.036 Y68.844
G2 X-35.143 Y68.901 R0.42
G1 X-35.2 Y68.944
G2 X-35.281 Y69.023 R0.42
G1 X-35.325 Y69.079
G2 X-35.381 Y69.175 R0.42
X-35.501 Y69.465 R38.361
X-35.529 Y69.572 R0.42
G1 X-35.538 Y69.643
G2 X-35.536 Y69.756 R0.42
G1 X-35.526 Y69.827
G2 X-35.491 Y69.943 R0.42
G1 X-35.457 Y70.017
G2 X-35.384 Y70.125 R0.42
G1 X-35.329 Y70.186
G2 X-35.282 Y70.229 R0.42
G1 X-35.161 Y70.326
X-35.054 Y70.42
X-35.033 Y70.44
X-35.07 Y70.535
X-35.072 Y70.54
X-35.108 Y70.634
X-35.142 Y70.637
X-35.279 Y70.635
X-35.435 Y70.626
G2 X-35.498 Y70.627 R0.42
G1 X-35.58 Y70.634
G2 X-35.705 Y70.666 R0.42
G1 X-35.781 Y70.698
G2 X-35.884 Y70.761 R0.42
G1 X-35.94 Y70.807
G2 X-36.016 Y70.89 R0.42
G1 X-36.057 Y70.949
G2 X-36.108 Y71.047 R0.42
X-36.213 Y71.343 R38.361
X-36.235 Y71.452 R0.42
G1 X-36.24 Y71.523
G2 X-36.233 Y71.635 R0.42
G1 X-36.219 Y71.706
G2 X-36.178 Y71.819 R0.42
G1 X-36.14 Y71.892
G2 X-36.062 Y71.996 R0.42
G1 X-36.003 Y72.053
G2 X-35.955 Y72.094 R0.42
G1 X-35.828 Y72.185
X-35.717 Y72.273
X-35.695 Y72.292
X-35.727 Y72.389
X-35.729 Y72.394
X-35.759 Y72.49
X-35.793 Y72.494
X-35.93 Y72.499
X-36.086 Y72.498
G2 X-36.149 Y72.503 R0.42
G1 X-36.231 Y72.515
G2 X-36.354 Y72.553 R0.42
G1 X-36.428 Y72.589
G2 X-36.528 Y72.657 R0.42
G1 X-36.581 Y72.706
G2 X-36.653 Y72.793 R0.42
G1 X-36.691 Y72.854
G2 X-36.736 Y72.955 R0.42
X-36.826 Y73.255 R38.361
X-36.842 Y73.365 R0.42
G1 X-36.844 Y73.437
G2 X-36.831 Y73.548 R0.42
G1 X-36.813 Y73.618
G2 X-36.766 Y73.73 R0.42
G1 X-36.724 Y73.801
G2 X-36.641 Y73.9 R0.42
G1 X-36.579 Y73.954
G2 X-36.528 Y73.992 R0.42
G1 X-36.397 Y74.076
X-36.281 Y74.158
X-36.259 Y74.176
X-36.286 Y74.275
X-36.287 Y74.28
X-36.312 Y74.377
X-36.346 Y74.383
X-36.483 Y74.395
X-36.639 Y74.403
G2 X-36.702 Y74.411 R0.42
G1 X-36.782 Y74.427
G2 X-36.903 Y74.471 R0.42
G1 X-36.975 Y74.511
G2 X-37.072 Y74.585 R0.42
G1 X-37.122 Y74.636
G2 X-37.189 Y74.726 R0.42
G1 X-37.224 Y74.788
G2 X-37.264 Y74.893 R0.42
X-37.337 Y75.197 R38.361
X-37.348 Y75.308 R0.42
G1 X-37.346 Y75.379
G2 X-37.327 Y75.49 R0.42
G1 X-37.306 Y75.558
G2 X-37.253 Y75.668 R0.42
G1 X-37.207 Y75.736
G2 X-37.119 Y75.831 R0.42
G1 X-37.055 Y75.882
G2 X-37.002 Y75.918 R0.42
G1 X-36.867 Y75.995
X-36.747 Y76.07
X-36.723 Y76.088
X-36.745 Y76.187
X-36.746 Y76.192
X-36.766 Y76.291
X-36.799 Y76.299
X-36.935 Y76.318
X-37.091 Y76.333
G2 X-37.153 Y76.344 R0.42
G1 X-37.233 Y76.365
G2 X-37.352 Y76.416 R0.42
G1 X-37.422 Y76.46
G2 X-37.514 Y76.538 R0.42
G1 X-37.561 Y76.591
G2 X-37.624 Y76.685 R0.42
G1 X-37.655 Y76.75
G2 X-37.69 Y76.855 R0.42
X-37.747 Y77.163 R38.361
X-37.752 Y77.275 R0.42
G1 X-37.746 Y77.346
G2 X-37.721 Y77.456 R0.42
G1 X-37.696 Y77.523
G2 X-37.638 Y77.629 R0.42
G1 X-37.589 Y77.695
G2 X-37.496 Y77.785 R0.42
G1 X-37.428 Y77.833
G2 X-37.375 Y77.865 R0.42
G1 X-37.235 Y77.935
X-37.111 Y78.004
X-37.087 Y78.02
X-37.103 Y78.121
X-37.104 Y78.126
X-37.119 Y78.225
X-37.152 Y78.235
X-37.287 Y78.262
X-37.441 Y78.285
G2 X-37.503 Y78.299 R0.42
G1 X-37.581 Y78.324
G2 X-37.698 Y78.381 R0.42
G1 X-37.765 Y78.428
G2 X-37.853 Y78.512 R0.42
G1 X-37.898 Y78.568
G2 X-37.955 Y78.664 R0.42
G1 X-37.983 Y78.73
G2 X-38.012 Y78.837 R0.42
X-38.053 Y79.148 R38.361
X-38.052 Y79.26 R0.42
G1 X-38.042 Y79.33
G2 X-38.012 Y79.439 R0.42
G1 X-37.984 Y79.504
G2 X-37.92 Y79.608 R0.42
G1 X-37.867 Y79.671
G2 X-37.77 Y79.756 R0.42
G1 X-37.7 Y79.8
G2 X-37.644 Y79.83 R0.42
G1 X-37.501 Y79.892
X-37.374 Y79.955
X-37.349 Y79.969
X-37.36 Y80.071
X-37.361 Y80.076
X-37.371 Y80.176
X-37.403 Y80.187
X-37.536 Y80.221
X-37.689 Y80.252
G2 X-37.75 Y80.27 R0.42
G1 X-37.827 Y80.299
G2 X-37.94 Y80.362 R0.42
G1 X-38.005 Y80.413
G2 X-38.088 Y80.5 R0.42
G1 X-38.13 Y80.558
G2 X-38.182 Y80.658 R0.42
G1 X-38.206 Y80.725
G2 X-38.23 Y80.827 R0.42
G1 Y80.834 F250.
G2 X-38.255 Y81.146 Z-1.009 R38.361
X-38.248 Y81.258 Z-1.013 R0.42
G1 X-38.235 Y81.328 Z-1.015
G2 X-38.199 Y81.435 Z-1.018 R0.42
G1 X-38.167 Y81.499 Z-1.02
G2 X-38.098 Y81.598 Z-1.024 R0.42
G1 X-38.042 Y81.658 Z-1.026
G2 X-37.94 Y81.739 Z-1.03 R0.42
G1 X-37.868 Y81.779 Z-1.032
G2 X-37.811 Y81.806 Z-1.034 R0.42
G1 X-37.665 Y81.861 Z-1.038
X-37.535 Y81.916 Z-1.043
X-37.509 Y81.93
X-37.515 Y82.032 Z-1.046
Y82.037 Z-1.047
X-37.52 Y82.137 Z-1.049
X-37.551 Y82.15 Z-1.05
X-37.682 Y82.191 Z-1.054
X-37.833 Y82.23 Z-1.059
G2 X-37.893 Y82.251 Z-1.061 R0.42
G1 X-37.969 Y82.283 Z-1.063
G2 X-38.078 Y82.352 Z-1.067 R0.42
G1 X-38.14 Y82.406 Z-1.069
G2 X-38.22 Y82.499 Z-1.073 R0.42
G1 X-38.258 Y82.559 Z-1.075
G2 X-38.304 Y82.661 Z-1.078 R0.42
G1 X-38.325 Y82.729 Z-1.08
G2 X-38.344 Y82.839 Z-1.084 R0.42
X-38.352 Y83.153 Z-1.093 R38.361
X-38.339 Y83.263 Z-1.096 R0.42
G1 X-38.322 Y83.332 Z-1.098
G2 X-38.281 Y83.437 Z-1.101 R0.42
G1 X-38.246 Y83.5 Z-1.103
G2 X-38.172 Y83.595 Z-1.107 R0.42
G1 X-38.112 Y83.653 Z-1.109
G2 X-38.007 Y83.727 Z-1.113 R0.42
G1 X-37.933 Y83.764 Z-1.115
G2 X-37.874 Y83.788 Z-1.117 R0.42
G1 X-37.725 Y83.835 Z-1.122
X-37.592 Y83.884 Z-1.126
X-37.566 Y83.896 Z-1.127
Y83.998 Z-1.13
Y84.003
Y84.103 Z-1.133
X-37.597 Y84.118 Z-1.134
X-37.725 Y84.165 Z-1.138
X-37.874 Y84.212 Z-1.142
G2 X-37.933 Y84.236 Z-1.144 R0.42
G1 X-38.007 Y84.273 Z-1.147
G2 X-38.112 Y84.347 Z-1.15 R0.42
G1 X-38.172 Y84.405 Z-1.153
G2 X-38.246 Y84.5 Z-1.156 R0.42
G1 X-38.281 Y84.563 Z-1.158
G2 X-38.322 Y84.668 Z-1.162 R0.42
G1 X-38.339 Y84.737 Z-1.164
G2 X-38.352 Y84.847 Z-1.167 R0.42
X-38.344 Y85.161 Z-1.176 R38.361
X-38.325 Y85.271 Z-1.179 R0.42
G1 X-38.304 Y85.339 Z-1.181
G2 X-38.258 Y85.441 Z-1.185 R0.42
G1 X-38.22 Y85.501 Z-1.187
G2 X-38.14 Y85.594 Z-1.19 R0.42
G1 X-38.078 Y85.648 Z-1.193
G2 X-37.969 Y85.717 Z-1.196 R0.42
G1 X-37.893 Y85.749 Z-1.199
G2 X-37.833 Y85.77 Z-1.201 R0.42
G1 X-37.682 Y85.809 Z-1.205
X-37.547 Y85.851 Z-1.209
X-37.52 Y85.862 Z-1.21
X-37.515 Y85.964 Z-1.213
Y85.969
X-37.509 Y86.069 Z-1.216
X-37.539 Y86.085 Z-1.217
X-37.665 Y86.139 Z-1.221
X-37.811 Y86.194 Z-1.226
G2 X-37.868 Y86.221 Z-1.227 R0.42
G1 X-37.94 Y86.261 Z-1.23
G2 X-38.042 Y86.342 Z-1.234 R0.42
G1 X-38.098 Y86.402 Z-1.236
G2 X-38.167 Y86.501 Z-1.24 R0.42
G1 X-38.199 Y86.565 Z-1.242
G2 X-38.235 Y86.672 Z-1.245 R0.42
G1 X-38.248 Y86.742 Z-1.247
G2 X-38.255 Y86.854 Z-1.25 R0.42
X-38.23 Y87.166 Z-1.259 R38.361
X-38.206 Y87.275 Z-1.263 R0.42
G1 X-38.182 Y87.342 Z-1.265
G2 X-38.13 Y87.442 Z-1.268 R0.42
G1 X-38.088 Y87.5 Z-1.27
G2 X-38.005 Y87.587 Z-1.274 R0.42
G1 X-37.94 Y87.638 Z-1.276
G2 X-37.827 Y87.701 Z-1.28 R0.42
G1 X-37.75 Y87.73 Z-1.282
G2 X-37.689 Y87.748 Z-1.284 R0.42
G1 X-37.536 Y87.779 Z-1.288
X-37.399 Y87.814 Z-1.293
X-37.371 Y87.823
X-37.361 Y87.924 Z-1.296
X-37.36 Y87.93 Z-1.297
X-37.349 Y88.029 Z-1.299
X-37.378 Y88.047 Z-1.3
X-37.501 Y88.108 Z-1.304
X-37.644 Y88.17 Z-1.309
G2 X-37.7 Y88.2 Z-1.311 R0.42
G1 X-37.77 Y88.244 Z-1.313
G2 X-37.867 Y88.329 Z-1.317 R0.42
G1 X-37.92 Y88.392 Z-1.319
G2 X-37.984 Y88.496 Z-1.323 R0.42
G1 X-38.012 Y88.561 Z-1.325
G2 X-38.042 Y88.67 Z-1.328 R0.42
G1 X-38.052 Y88.74 Z-1.33
G2 X-38.053 Y88.852 Z-1.334 R0.42
X-38.012 Y89.163 Z-1.343 R38.361
X-37.983 Y89.27 Z-1.346 R0.42
G1 X-37.955 Y89.336 Z-1.348
G2 X-37.898 Y89.432 Z-1.351 R0.42
G1 X-37.853 Y89.488 Z-1.353
G2 X-37.765 Y89.572 Z-1.357 R0.42
G1 X-37.698 Y89.619 Z-1.359
G2 X-37.581 Y89.676 Z-1.363 R0.42
G1 X-37.503 Y89.701 Z-1.365
G2 X-37.441 Y89.715 Z-1.367 R0.42
G1 X-37.287 Y89.738 Z-1.372
X-37.148 Y89.766 Z-1.376
X-37.12 Y89.773 Z-1.377
X-37.104 Y89.874 Z-1.38
X-37.103 Y89.88
X-37.087 Y89.979 Z-1.383
X-37.115 Y89.998 Z-1.384
X-37.235 Y90.065 Z-1.388
X-37.375 Y90.135 Z-1.392
G2 X-37.428 Y90.167 Z-1.394 R0.42
G1 X-37.496 Y90.215 Z-1.396
G2 X-37.589 Y90.305 Z-1.4 R0.42
G1 X-37.638 Y90.371 Z-1.403
G2 X-37.696 Y90.477 Z-1.406 R0.42
G1 X-37.721 Y90.544 Z-1.408
G2 X-37.746 Y90.654 Z-1.412 R0.42
G1 X-37.752 Y90.725 Z-1.414
G2 X-37.747 Y90.837 Z-1.417 R0.42
X-37.69 Y91.145 Z-1.426 R38.361
X-37.655 Y91.25 Z-1.429 R0.42
G1 X-37.624 Y91.315 Z-1.431
G2 X-37.561 Y91.409 Z-1.435 R0.42
G1 X-37.514 Y91.462 Z-1.437
G2 X-37.422 Y91.54 Z-1.44 R0.42
G1 X-37.352 Y91.584 Z-1.443
G2 X-37.233 Y91.635 Z-1.446 R0.42
G1 X-37.153 Y91.656 Z-1.449
G2 X-37.091 Y91.667 Z-1.451 R0.42
G1 X-36.935 Y91.682 Z-1.455
X-36.795 Y91.702 Z-1.459
X-36.767 Y91.708 Z-1.46
X-36.746 Y91.808 Z-1.463
X-36.745 Y91.813
X-36.723 Y91.911 Z-1.466
X-36.751 Y91.932 Z-1.467
X-36.867 Y92.005 Z-1.471
X-37.002 Y92.082 Z-1.476
G2 X-37.055 Y92.118 Z-1.477 R0.42
G1 X-37.119 Y92.169 Z-1.48
G2 X-37.207 Y92.264 Z-1.484 R0.42
G1 X-37.253 Y92.332 Z-1.486
G2 X-37.306 Y92.442 Z-1.49 R0.42
G1 X-37.327 Y92.51 Z-1.492
G2 X-37.346 Y92.621 Z-1.495 R0.42
G1 X-37.348 Y92.692 Z-1.497
G2 X-37.337 Y92.803 Z-1.5 R0.42
X-37.264 Y93.107 Z-1.509 R38.361
X-37.224 Y93.212 Z-1.513 R0.42
G1 X-37.189 Y93.274 Z-1.515
G2 X-37.122 Y93.364 Z-1.518 R0.42
G1 X-37.072 Y93.415 Z-1.52
G2 X-36.975 Y93.489 Z-1.524 R0.42
G1 X-36.903 Y93.529 Z-1.526
G2 X-36.782 Y93.573 Z-1.53 R0.42
G1 X-36.702 Y93.589 Z-1.532
G2 X-36.639 Y93.597 Z-1.534 R0.42
G1 X-36.483 Y93.605 Z-1.538
X-36.342 Y93.617 Z-1.543
X-36.313 Y93.622
X-36.287 Y93.721 Z-1.546
X-36.286 Y93.726 Z-1.547
X-36.259 Y93.822 Z-1.549
X-36.285 Y93.845 Z-1.55
X-36.397 Y93.924 Z-1.554
X-36.528 Y94.008 Z-1.559
G2 X-36.579 Y94.046 Z-1.561 R0.42
G1 X-36.641 Y94.1 Z-1.563
G2 X-36.724 Y94.199 Z-1.567 R0.42
G1 X-36.766 Y94.27 Z-1.569
G2 X-36.813 Y94.382 Z-1.573 R0.42
G1 X-36.831 Y94.452 Z-1.575
G2 X-36.844 Y94.563 Z-1.578 R0.42
G1 X-36.842 Y94.635 Z-1.58
G2 X-36.826 Y94.745 Z-1.584 R0.42
X-36.736 Y95.045 Z-1.593 R38.361
X-36.691 Y95.146 Z-1.596 R0.42
G1 X-36.653 Y95.207 Z-1.598
G2 X-36.581 Y95.294 Z-1.601 R0.42
G1 X-36.528 Y95.343 Z-1.603
G2 X-36.428 Y95.411 Z-1.607 R0.42
G1 X-36.354 Y95.447 Z-1.609
G2 X-36.231 Y95.485 Z-1.613 R0.42
G1 X-36.149 Y95.497 Z-1.615
G2 X-36.086 Y95.502 Z-1.617 R0.42
G1 X-35.93 Y95.501 Z-1.622
X-35.788 Y95.506 Z-1.626
X-35.759 Y95.509 Z-1.627
X-35.728 Y95.606 Z-1.63
X-35.727 Y95.611
X-35.695 Y95.707 Z-1.633
X-35.72 Y95.73 Z-1.634
X-35.828 Y95.815 Z-1.638
X-35.955 Y95.906 Z-1.642
G2 X-36.003 Y95.947 Z-1.644 R0.42
G1 X-36.062 Y96.004 Z-1.647
G2 X-36.14 Y96.108 Z-1.65 R0.42
G1 X-36.178 Y96.181 Z-1.653
G2 X-36.219 Y96.294 Z-1.656 R0.42
G1 X-36.233 Y96.365 Z-1.658
G2 X-36.24 Y96.477 Z-1.662 R0.42
G1 X-36.235 Y96.548 Z-1.664
G2 X-36.213 Y96.657 Z-1.667 R0.42
X-36.108 Y96.953 Z-1.676 R38.361
X-36.057 Y97.051 Z-1.679 R0.42
G1 X-36.016 Y97.11 Z-1.681
G2 X-35.94 Y97.193 Z-1.685 R0.42
G1 X-35.884 Y97.239 Z-1.687
G2 X-35.781 Y97.302 Z-1.69 R0.42
G1 X-35.705 Y97.334 Z-1.693
G2 X-35.58 Y97.366 Z-1.696 R0.42
G1 X-35.498 Y97.373 Z-1.699
G2 X-35.435 Y97.374 Z-1.701 R0.42
G1 X-35.279 Y97.365 Z-1.705
X-35.137 Y97.363 Z-1.709
X-35.108 Y97.365 Z-1.71
X-35.072 Y97.46 Z-1.713
X-35.07 Y97.465
X-35.034 Y97.559 Z-1.716
X-35.057 Y97.583 Z-1.717
X-35.161 Y97.674 Z-1.721
X-35.282 Y97.771 Z-1.726
G2 X-35.329 Y97.814 Z-1.727 R0.42
G1 X-35.384 Y97.875 Z-1.73
G2 X-35.457 Y97.983 Z-1.734 R0.42
G1 X-35.491 Y98.057 Z-1.736
G2 X-35.526 Y98.173 Z-1.74 R0.42
G1 X-35.536 Y98.244 Z-1.742
G2 X-35.538 Y98.357 Z-1.745 R0.42
G1 X-35.529 Y98.428 Z-1.747
G2 X-35.501 Y98.535 Z-1.75 R0.42
X-35.381 Y98.825 Z-1.759 R38.361
X-35.325 Y98.921 Z-1.763 R0.42
G1 X-35.281 Y98.977 Z-1.765
G2 X-35.2 Y99.056 Z-1.768 R0.42
G1 X-35.143 Y99.099 Z-1.77
G2 X-35.036 Y99.156 Z-1.774 R0.42
G1 X-34.959 Y99.184 Z-1.776
G2 X-34.832 Y99.209 Z-1.78 R0.42
G1 X-34.75 Y99.213 Z-1.782
G2 X-34.686 Y99.211 Z-1.784 R0.42
G1 X-34.531 Y99.193 Z-1.788
X-34.39 Y99.184 Z-1.793
X-34.361
X-34.32 Y99.277 Z-1.796
X-34.317 Y99.282 Z-1.797
X-34.276 Y99.374 Z-1.799
X-34.298 Y99.4 Z-1.8
X-34.397 Y99.495 Z-1.804
X-34.513 Y99.599 Z-1.809
G2 X-34.557 Y99.644 Z-1.811 R0.42
G1 X-34.61 Y99.708 Z-1.813
G2 X-34.676 Y99.819 Z-1.817 R0.42
G1 X-34.707 Y99.895 Z-1.819
G2 X-34.735 Y100.013 Z-1.823 R0.42
G1 X-34.742 Y100.085 Z-1.825
G2 X-34.737 Y100.198 Z-1.828 R0.42
G1 X-34.725 Y100.268 Z-1.83
G2 X-34.691 Y100.373 Z-1.834 R0.42
X-34.556 Y100.656 Z-1.843 R38.361
X-34.495 Y100.749 Z-1.846 R0.42
G1 X-34.448 Y100.803 Z-1.848
G2 X-34.361 Y100.879 Z-1.851 R0.42
G1 X-34.302 Y100.918 Z-1.853
G2 X-34.199 Y100.967 Z-1.857 R0.42
G1 X-34.12 Y100.992 Z-1.859
G2 X-33.988 Y101.012 Z-1.863 R0.42
G1 X-33.906 Y101.011 Z-1.865
G2 X-33.842 Y101.005 Z-1.867 R0.42
G1 X-33.688 Y100.98 Z-1.872
X-33.547 Y100.963 Z-1.876
X-33.519 Y100.961 Z-1.877
X-33.473 Y101.053 Z-1.88
X-33.47 Y101.057
X-33.424 Y101.146 Z-1.883
X-33.445 Y101.173 Z-1.884
X-33.539 Y101.274 Z-1.888
X-33.651 Y101.385 Z-1.892
G2 X-33.691 Y101.432 Z-1.894 R0.42
G1 X-33.74 Y101.498 Z-1.897
G2 X-33.8 Y101.611 Z-1.9 R0.42
G1 X-33.827 Y101.688 Z-1.903
G2 X-33.85 Y101.809 Z-1.906 R0.42
G1 X-33.853 Y101.881 Z-1.908
G2 X-33.842 Y101.992 Z-1.912 R0.42
G1 X-33.826 Y102.062 Z-1.914
G2 X-33.787 Y102.167 Z-1.917 R0.42
X-33.637 Y102.442 Z-1.926 R38.361
X-33.573 Y102.53 Z-1.929 R0.42
G1 X-33.523 Y102.582 Z-1.931
G2 X-33.431 Y102.655 Z-1.935 R0.42
G1 X-33.37 Y102.691 Z-1.937
G2 X-33.26 Y102.735 Z-1.94 R0.42
G1 X-33.18 Y102.755 Z-1.943
G2 X-33.052 Y102.767 Z-1.946 R0.42
G1 X-32.97 Y102.762 Z-1.949
G2 X-32.904 Y102.753 Z-1.951 R0.42
G1 X-32.753 Y102.719 Z-1.955
X-32.616 Y102.696 Z-1.959
X-32.585 Y102.693 Z-1.96
X-32.534 Y102.781 Z-1.963
X-32.532 Y102.785
X-32.481 Y102.872 Z-1.966
X-32.501 Y102.9 Z-1.967
X-32.589 Y103.006 Z-1.971
X-32.693 Y103.121 Z-1.976
G2 X-32.732 Y103.17 Z-1.977 R0.42
G1 X-32.778 Y103.238 Z-1.98
G2 X-32.833 Y103.358 Z-1.984 R0.42
G1 X-32.856 Y103.438 Z-1.986
G2 X-32.871 Y103.557 Z-1.99 R0.42
G1 Y103.628 Z-1.992
G2 X-32.854 Y103.739 Z-1.995 R0.42
G1 X-32.835 Y103.808 Z-1.997
G2 X-32.794 Y103.904 Z-2. R0.42
G1 X-32.79 Y103.91 F400.
G2 X-32.626 Y104.177 R38.361
X-32.556 Y104.262 R0.42
G1 X-32.504 Y104.312
G2 X-32.411 Y104.377 R0.42
G1 X-32.347 Y104.41
G2 X-32.235 Y104.45 R0.42
G1 X-32.154 Y104.466
G2 X-32.021 Y104.471 R0.42
G1 X-31.94 Y104.461
G2 X-31.881 Y104.449 R0.42
G1 X-31.73 Y104.409
X-31.591 Y104.377
X-31.562 Y104.372
X-31.507 Y104.458
X-31.505 Y104.462
X-31.449 Y104.546
X-31.467 Y104.575
X-31.549 Y104.685
X-31.648 Y104.806
G2 X-31.685 Y104.859 R0.42
G1 X-31.727 Y104.93
G2 X-31.774 Y105.048 R0.42
G1 X-31.793 Y105.128
G2 X-31.803 Y105.25 R0.42
G1 X-31.798 Y105.322
G2 X-31.776 Y105.433 R0.42
G1 X-31.752 Y105.5
G2 X-31.703 Y105.598 R0.42
X-31.526 Y105.857 R38.361
X-31.45 Y105.94 R0.42
G1 X-31.395 Y105.986
G2 X-31.297 Y106.048 R0.42
G1 X-31.232 Y106.077
G2 X-31.122 Y106.109 R0.42
G1 X-31.04 Y106.121
G2 X-30.907 Y106.119 R0.42
G1 X-30.826 Y106.105
G2 X-30.766 Y106.09 R0.42
G1 X-30.618 Y106.041
X-30.482 Y106.002
X-30.453 Y105.996
X-30.393 Y106.079
X-30.39 Y106.083
X-30.331 Y106.164
X-30.347 Y106.194
X-30.424 Y106.309
X-30.516 Y106.434
G2 X-30.549 Y106.486 R0.42
G1 X-30.587 Y106.558
G2 X-30.63 Y106.683 R0.42
G1 X-30.644 Y106.765
G2 X-30.647 Y106.885 R0.42
G1 X-30.639 Y106.956
G2 X-30.611 Y107.067 R0.42
G1 X-30.584 Y107.133
G2 X-30.529 Y107.228 R0.42
X-30.338 Y107.477 R38.361
X-30.259 Y107.555 R0.42
G1 X-30.202 Y107.598
G2 X-30.102 Y107.654 R0.42
G1 X-30.035 Y107.68
G2 X-29.923 Y107.707 R0.42
G1 X-29.841 Y107.715
G2 X-29.709 Y107.707 R0.42
G1 X-29.628 Y107.689
G2 X-29.565 Y107.669 R0.42
G1 X-29.421 Y107.612
X-29.288 Y107.567
X-29.26 Y107.56
X-29.196 Y107.639
X-29.193 Y107.644
X-29.129 Y107.721
X-29.144 Y107.752
X-29.214 Y107.87
X-29.3 Y108.
G2 X-29.331 Y108.056 R0.42
G1 X-29.365 Y108.131
G2 X-29.4 Y108.255 R0.42
G1 X-29.41 Y108.336
G2 X-29.407 Y108.457 R0.42
G1 X-29.395 Y108.528
G2 X-29.362 Y108.635 R0.42
G1 X-29.332 Y108.7
G2 X-29.271 Y108.795 R0.42
X-29.067 Y109.033 R38.361
X-28.985 Y109.106 R0.42
G1 X-28.925 Y109.146
G2 X-28.826 Y109.196 R0.42
G1 X-28.758 Y109.219
G2 X-28.638 Y109.241 R0.42
G1 X-28.556 Y109.244
G2 X-28.428 Y109.229 R0.42
G1 X-28.349 Y109.207
G2 X-28.288 Y109.185 R0.42
G1 X-28.147 Y109.121
X-28.014 Y109.068
X-27.987 Y109.059
X-27.919 Y109.135
X-27.915 Y109.14
X-27.848 Y109.213
X-27.861 Y109.244
X-27.925 Y109.366
X-28.004 Y109.501
G2 X-28.031 Y109.557 R0.42
G1 X-28.062 Y109.633
G2 X-28.091 Y109.76 R0.42
G1 X-28.096 Y109.842
G2 X-28.087 Y109.963 R0.42
G1 X-28.071 Y110.033
G2 X-28.032 Y110.139 R0.42
G1 X-27.999 Y110.202
G2 X-27.934 Y110.292 R0.42
X-27.718 Y110.519 R38.361
X-27.632 Y110.588 R0.42
G1 X-27.571 Y110.625
G2 X-27.465 Y110.671 R0.42
G1 X-27.396 Y110.69
G2 X-27.279 Y110.705 R0.42
G1 X-27.197 Y110.704
G2 X-27.069 Y110.682 R0.42
G1 X-26.991 Y110.656
G2 X-26.931 Y110.631 R0.42
G1 X-26.792 Y110.559
X-26.664 Y110.499
X-26.637 Y110.489
X-26.565 Y110.562
X-26.561 Y110.565
X-26.49 Y110.636
X-26.501 Y110.668
X-26.559 Y110.792
X-26.631 Y110.932
G2 X-26.655 Y110.989 R0.42
G1 X-26.682 Y111.067
G2 X-26.704 Y111.195 R0.42
G1 X-26.705 Y111.277
G2 X-26.69 Y111.397 R0.42
G1 X-26.67 Y111.466
G2 X-26.627 Y111.567 R0.42
G1 X-26.59 Y111.629
G2 X-26.519 Y111.719 R0.42
X-26.292 Y111.934 R38.361
X-26.203 Y111.998 R0.42
G1 X-26.14 Y112.032
G2 X-26.029 Y112.073 R0.42
G1 X-25.96 Y112.088
G2 X-25.846 Y112.096 R0.42
G1 X-25.764 Y112.091
G2 X-25.631 Y112.061 R0.42
G1 X-25.555 Y112.03
G2 X-25.502 Y112.004 R0.42
G1 X-25.367 Y111.925
X-25.24 Y111.859
X-25.214 Y111.847
X-25.139 Y111.915
X-25.135 Y111.919
X-25.06 Y111.986
X-25.07 Y112.018
X-25.12 Y112.146
X-25.185 Y112.287
G2 X-25.206 Y112.347 R0.42
G1 X-25.229 Y112.426
G2 X-25.244 Y112.555 R0.42
G1 X-25.241 Y112.638
G2 X-25.219 Y112.758 R0.42
G1 X-25.196 Y112.825
G2 X-25.148 Y112.923 R0.42
G1 X-25.108 Y112.983
G2 X-25.032 Y113.068 R0.42
X-24.794 Y113.272 R38.361
X-24.699 Y113.332 R0.42
G1 X-24.634 Y113.362
G2 X-24.528 Y113.395 R0.42
G1 X-24.458 Y113.407
G2 X-24.336 Y113.41 R0.42
G1 X-24.255 Y113.4
G2 X-24.132 Y113.365 R0.42
G1 X-24.057 Y113.331
G2 X-24. Y113.3 R0.42
G1 X-23.87 Y113.214
X-23.749 Y113.142
X-23.722 Y113.129
X-23.643 Y113.193
X-23.64 Y113.196
X-23.561 Y113.259
X-23.569 Y113.292
X-23.613 Y113.422
X-23.67 Y113.567
G2 X-23.688 Y113.628 R0.42
G1 X-23.706 Y113.709
G2 X-23.715 Y113.839 R0.42
G1 X-23.708 Y113.92
G2 X-23.68 Y114.035 R0.42
G1 X-23.654 Y114.102
G2 X-23.598 Y114.202 R0.42
G1 X-23.555 Y114.259
G2 X-23.477 Y114.338 R0.42
X-23.228 Y114.529 R38.361
X-23.132 Y114.584 R0.42
G1 X-23.066 Y114.611
G2 X-22.955 Y114.639 R0.42
G1 X-22.883 Y114.647
G2 X-22.765 Y114.644 R0.42
G1 X-22.684 Y114.63
G2 X-22.557 Y114.586 R0.42
G1 X-22.484 Y114.547
G2 X-22.435 Y114.516 R0.42
G1 X-22.309 Y114.424
X-22.189 Y114.344
X-22.165 Y114.33
X-22.083 Y114.391
X-22.079 Y114.393
X-21.997 Y114.452
X-22.003 Y114.486
X-22.041 Y114.618
X-22.09 Y114.766
G2 X-22.105 Y114.827 R0.42
G1 X-22.119 Y114.908
G2 X-22.121 Y115.038 R0.42
G1 X-22.109 Y115.119
G2 X-22.075 Y115.235 R0.42
G1 X-22.045 Y115.3
G2 X-21.986 Y115.394 R0.42
G1 X-21.94 Y115.449
G2 X-21.857 Y115.525 R0.42
X-21.599 Y115.703 R38.361
X-21.497 Y115.754 R0.42
G1 X-21.43 Y115.777
G2 X-21.324 Y115.798 R0.42
G1 X-21.252 Y115.803
G2 X-21.126 Y115.793 R0.42
G1 X-21.046 Y115.774
G2 X-20.928 Y115.726 R0.42
G1 X-20.858 Y115.684
G2 X-20.807 Y115.649 R0.42
G1 X-20.686 Y115.55
X-20.571 Y115.464
X-20.548 Y115.449
X-20.462 Y115.505
X-20.457 Y115.508
X-20.373 Y115.561
X-20.378 Y115.595
X-20.408 Y115.729
X-20.45 Y115.88
G2 X-20.461 Y115.942 R0.42
G1 X-20.471 Y116.023
G2 X-20.466 Y116.152 R0.42
G1 X-20.45 Y116.233
G2 X-20.411 Y116.346 R0.42
G1 X-20.378 Y116.41
G2 X-20.311 Y116.504 R0.42
G1 X-20.262 Y116.556
G2 X-20.177 Y116.626 R0.42
X-19.91 Y116.79 R38.361
X-19.809 Y116.834 R0.42
G1 X-19.74 Y116.854
G2 X-19.623 Y116.871 R0.42
G1 X-19.552
G2 X-19.439 Y116.856 R0.42
G1 X-19.36 Y116.834
G2 X-19.238 Y116.778 R0.42
G1 X-19.17 Y116.732
G2 X-19.121 Y116.694 R0.42
G1 X-19.006 Y116.589
X-18.897 Y116.498
X-18.873 Y116.481
X-18.787 Y116.532
X-18.78 Y116.536
X-18.693 Y116.585
X-18.696 Y116.619
X-18.72 Y116.754
X-18.753 Y116.906
G2 X-18.762 Y116.969 R0.42
G1 X-18.767 Y117.051
G2 X-18.755 Y117.179 R0.42
G1 X-18.736 Y117.259
G2 X-18.688 Y117.374 R0.42
G1 X-18.652 Y117.435
G2 X-18.584 Y117.52 R0.42
G1 X-18.533 Y117.57
G2 X-18.442 Y117.637 R0.42
X-18.166 Y117.787 R38.361
X-18.061 Y117.826 R0.42
G1 X-17.992 Y117.842
G2 X-17.88 Y117.853 R0.42
G1 X-17.809 Y117.85
G2 X-17.689 Y117.827 R0.42
G1 X-17.611 Y117.8
G2 X-17.498 Y117.74 R0.42
G1 X-17.432 Y117.691
G2 X-17.385 Y117.65 R0.42
G1 X-17.275 Y117.539
X-17.169 Y117.442
X-17.148 Y117.424
X-17.058 Y117.471
X-17.051 Y117.474
X-16.962 Y117.518
X-16.963 Y117.553
X-16.98 Y117.689
X-17.005 Y117.843
G2 X-17.011 Y117.906 R0.42
G1 X-17.012 Y117.988
G2 X-16.993 Y118.116 R0.42
G1 X-16.969 Y118.195
G2 X-16.916 Y118.306 R0.42
G1 X-16.877 Y118.365
G2 X-16.804 Y118.448 R0.42
G1 X-16.75 Y118.495
G2 X-16.657 Y118.556 R0.42
X-16.374 Y118.692 R38.361
X-16.265 Y118.726 R0.42
G1 X-16.194 Y118.738
G2 X-16.083 Y118.742 R0.42
G1 X-16.011 Y118.735
G2 X-15.899 Y118.708 R0.42
G1 X-15.822 Y118.678
G2 X-15.706 Y118.609 R0.42
G1 X-15.643 Y118.556
G2 X-15.599 Y118.514 R0.42
G1 X-15.495 Y118.397
X-15.396 Y118.294
X-15.375 Y118.275
X-15.282 Y118.318
X-15.277 Y118.32
X-15.185 Y118.36
X-15.184 Y118.394
X-15.193 Y118.531
X-15.211 Y118.686
G2 X-15.213 Y118.749 R0.42
G1 X-15.209 Y118.832
G2 X-15.184 Y118.959 R0.42
G1 X-15.156 Y119.036
G2 X-15.098 Y119.144 R0.42
G1 X-15.055 Y119.201
G2 X-14.977 Y119.28 R0.42
G1 X-14.921 Y119.324
G2 X-14.825 Y119.38 R0.42
X-14.536 Y119.501 R38.361
X-14.429 Y119.529 R0.42
G1 X-14.358 Y119.538
G2 X-14.241 Y119.536 R0.42
G1 X-14.17 Y119.525
G2 X-14.06 Y119.492 R0.42
G1 X-13.986 Y119.458
G2 X-13.874 Y119.384 R0.42
G1 X-13.814 Y119.328
G2 X-13.771 Y119.282 R0.42
G1 X-13.674 Y119.161
X-13.58 Y119.054
X-13.56 Y119.033
X-13.465 Y119.07
X-13.46 Y119.072
X-13.366 Y119.107
X-13.363 Y119.142
X-13.365 Y119.279
X-13.374 Y119.435
G2 X-13.373 Y119.498 R0.42
G1 X-13.366 Y119.58
G2 X-13.334 Y119.705 R0.42
G1 X-13.302 Y119.781
G2 X-13.239 Y119.885 R0.42
G1 X-13.193 Y119.94
G2 X-13.11 Y120.016 R0.42
G1 X-13.051 Y120.057
G2 X-12.952 Y120.109 R0.42
X-12.657 Y120.213 R38.361
X-12.548 Y120.235 R0.42
G1 X-12.477 Y120.24
G2 X-12.365 Y120.233 R0.42
G1 X-12.295 Y120.219
G2 X-12.183 Y120.179 R0.42
G1 X-12.11 Y120.141
G2 X-12.004 Y120.062 R0.42
G1 X-11.946 Y120.003
G2 X-11.906 Y119.955 R0.42
G1 X-11.815 Y119.828
X-11.727 Y119.716
X-11.708 Y119.695
X-11.609 Y119.727
X-11.606 Y119.728
X-11.51 Y119.759
X-11.506 Y119.793
X-11.501 Y119.93
X-11.502 Y120.086
G2 X-11.497 Y120.15 R0.42
G1 X-11.485 Y120.231
G2 X-11.447 Y120.355 R0.42
G1 X-11.411 Y120.429
G2 X-11.341 Y120.53 R0.42
G1 X-11.293 Y120.582
G2 X-11.208 Y120.652 R0.42
G1 X-11.147 Y120.69
G2 X-11.045 Y120.736 R0.42
X-10.745 Y120.825 R38.361
X-10.639 Y120.842 R0.42
G1 X-10.567 Y120.844
G2 X-10.45 Y120.831 R0.42
G1 X-10.381 Y120.813
G2 X-10.272 Y120.767 R0.42
G1 X-10.201 Y120.725
G2 X-10.1 Y120.641 R0.42
G1 X-10.045 Y120.579
G2 X-10.008 Y120.529 R0.42
G1 X-9.924 Y120.397
X-9.842 Y120.281
X-9.824 Y120.259
X-9.727 Y120.286
X-9.719 Y120.288
X-9.623 Y120.312
X-9.617 Y120.347
X-9.604 Y120.483
X-9.597 Y120.639
G2 X-9.59 Y120.701 R0.42
G1 X-9.573 Y120.782
G2 X-9.529 Y120.904 R0.42
G1 X-9.489 Y120.976
G2 X-9.415 Y121.072 R0.42
G1 X-9.364 Y121.122
G2 X-9.271 Y121.191 R0.42
G1 X-9.208 Y121.225
G2 X-9.108 Y121.264 R0.42
X-8.803 Y121.338 R38.361
X-8.689 Y121.349 R0.42
G1 X-8.617 Y121.346
G2 X-8.511 Y121.327 R0.42
G1 X-8.443 Y121.306
G2 X-8.332 Y121.253 R0.42
G1 X-8.264 Y121.207
G2 X-8.168 Y121.118 R0.42
G1 X-8.117 Y121.053
G2 X-8.083 Y121.002 R0.42
G1 X-8.005 Y120.867
X-7.929 Y120.746
X-7.913 Y120.723
X-7.813 Y120.745
X-7.807 Y120.747
X-7.709 Y120.767
X-7.701 Y120.799
X-7.682 Y120.936
X-7.667 Y121.091
G2 X-7.656 Y121.153 R0.42
G1 X-7.635 Y121.233
G2 X-7.585 Y121.351 R0.42
G1 X-7.541 Y121.421
G2 X-7.461 Y121.515 R0.42
G1 X-7.408 Y121.562
G2 X-7.313 Y121.624 R0.42
G1 X-7.249 Y121.655
G2 X-7.145 Y121.69 R0.42
X-6.837 Y121.747 R38.361
X-6.726 Y121.753 R0.42
G1 X-6.655 Y121.747
G2 X-6.544 Y121.722 R0.42
G1 X-6.477 Y121.697
G2 X-6.369 Y121.637 R0.42
G1 X-6.303 Y121.587
G2 X-6.215 Y121.496 R0.42
G1 X-6.168 Y121.429
G2 X-6.135 Y121.374 R0.42
G1 X-6.065 Y121.235
X-5.996 Y121.112
X-5.98 Y121.087
X-5.88 Y121.103
X-5.875 Y121.104
X-5.774 Y121.119
X-5.765 Y121.152
X-5.738 Y121.286
X-5.715 Y121.441
G2 X-5.7 Y121.504 R0.42
G1 X-5.676 Y121.582
G2 X-5.62 Y121.696 R0.42
G1 X-5.573 Y121.764
G2 X-5.487 Y121.854 R0.42
G1 X-5.431 Y121.898
G2 X-5.336 Y121.955 R0.42
G1 X-5.27 Y121.983
G2 X-5.162 Y122.012 R0.42
X-4.851 Y122.053 R38.361
X-4.746 R0.42
G1 X-4.675 Y122.044
G2 X-4.558 Y122.011 R0.42
G1 X-4.492 Y121.982
G2 X-4.392 Y121.92 R0.42
G1 X-4.329 Y121.867
G2 X-4.245 Y121.771 R0.42
G1 X-4.201 Y121.702
G2 X-4.17 Y121.645 R0.42
G1 X-4.108 Y121.502
X-4.045 Y121.374
X-4.031 Y121.349
X-3.929 Y121.36
X-3.924 Y121.361
X-3.824 Y121.371
X-3.813 Y121.403
X-3.779 Y121.536
X-3.748 Y121.689
G2 X-3.73 Y121.75 R0.42
G1 X-3.701 Y121.827
G2 X-3.639 Y121.939 R0.42
G1 X-3.588 Y122.004
G2 X-3.498 Y122.09 R0.42
G1 X-3.44 Y122.131
G2 X-3.345 Y122.181 R0.42
G1 X-3.278 Y122.206
G2 X-3.166 Y122.231 R0.42
X-2.853 Y122.255 R38.361
X-2.74 Y122.248 R0.42
G1 X-2.67 Y122.234
G2 X-2.569 Y122.2 R0.42
G1 X-2.505 Y122.169
G2 X-2.402 Y122.099 R0.42
G1 X-2.342 Y122.043
G2 X-2.261 Y121.94 R0.42
G1 X-2.221 Y121.868
G2 X-2.194 Y121.811 R0.42
G1 X-2.139 Y121.665
X-2.084 Y121.535
X-2.07 Y121.509
X-1.967 Y121.514
X-1.965 Y121.515
X-1.863 Y121.519
X-1.85 Y121.551
X-1.809 Y121.682
X-1.77 Y121.833
G2 X-1.75 Y121.892 R0.42
G1 X-1.717 Y121.968
G2 X-1.648 Y122.079 R0.42
G1 X-1.594 Y122.141
G2 X-1.501 Y122.221 R0.42
G1 X-1.44 Y122.259
G2 X-1.34 Y122.305 R0.42
G1 X-1.271 Y122.326
G2 X-1.161 Y122.344 R0.42
X-0.847 Y122.352 R38.361
X-0.738 Y122.34 R0.42
G1 X-0.669 Y122.323
G2 X-0.563 Y122.281 R0.42
G1 X-0.501 Y122.246
G2 X-0.403 Y122.17 R0.42
G1 X-0.345 Y122.11
G2 X-0.274 Y122.008 R0.42
G1 X-0.237 Y121.935
G2 X-0.212 Y121.874 R0.42
G1 X-0.165 Y121.725
X-0.116 Y121.593
X-0.105 Y121.566
X0.
X0.002
X0.103 Y121.565
X0.118 Y121.597
X0.165 Y121.725
X0.212 Y121.874
G2 X0.237 Y121.935 R0.42
G1 X0.274 Y122.008
G2 X0.345 Y122.11 R0.42
G1 X0.403 Y122.17
G2 X0.501 Y122.246 R0.42
G1 X0.563 Y122.281
G2 X0.669 Y122.323 R0.42
G1 X0.738 Y122.34
G2 X0.847 Y122.352 R0.42
X1.161 Y122.344 R38.361
X1.271 Y122.326 R0.42
G1 X1.34 Y122.305
G2 X1.44 Y122.259 R0.42
G1 X1.501 Y122.221
G2 X1.594 Y122.141 R0.42
G1 X1.648 Y122.079
G2 X1.717 Y121.968 R0.42
G1 X1.75 Y121.892
G2 X1.77 Y121.833 R0.42
G1 X1.809 Y121.682
X1.851 Y121.547
X1.862 Y121.519
X1.964 Y121.515
X1.969 Y121.514
X2.069 Y121.508
X2.086 Y121.539
X2.139 Y121.665
X2.194 Y121.811
G2 X2.221 Y121.868 R0.42
G1 X2.261 Y121.94
G2 X2.342 Y122.043 R0.42
G1 X2.402 Y122.099
G2 X2.505 Y122.169 R0.42
G1 X2.569 Y122.2
G2 X2.67 Y122.234 R0.42
G1 X2.74 Y122.248
G2 X2.853 Y122.255 R0.42
X3.166 Y122.231 R38.361
X3.278 Y122.206 R0.42
G1 X3.345 Y122.181
G2 X3.44 Y122.131 R0.42
G1 X3.498 Y122.09
G2 X3.588 Y122.004 R0.42
G1 X3.639 Y121.939
G2 X3.701 Y121.827 R0.42
G1 X3.73 Y121.75
G2 X3.748 Y121.689 R0.42
G1 X3.779 Y121.536
X3.814 Y121.399
X3.823 Y121.371
X3.923 Y121.361
X3.931 Y121.36
X4.029 Y121.349
X4.047 Y121.378
X4.108 Y121.502
X4.17 Y121.645
G2 X4.201 Y121.702 R0.42
G1 X4.245 Y121.771
G2 X4.329 Y121.867 R0.42
G1 X4.392 Y121.92
G2 X4.492 Y121.982 R0.42
G1 X4.558 Y122.011
G2 X4.675 Y122.044 R0.42
G1 X4.746 Y122.053
G2 X4.851 R0.42
X5.162 Y122.012 R38.361
X5.27 Y121.983 R0.42
G1 X5.336 Y121.955
G2 X5.431 Y121.898 R0.42
G1 X5.487 Y121.854
G2 X5.573 Y121.764 R0.42
G1 X5.62 Y121.696
G2 X5.676 Y121.582 R0.42
G1 X5.7 Y121.504
G2 X5.715 Y121.441 R0.42
G1 X5.738 Y121.286
X5.766 Y121.147
X5.773 Y121.12
X5.875 Y121.104
X5.879 Y121.103
X5.979 Y121.087
X5.998 Y121.115
X6.065 Y121.235
X6.135 Y121.374
G2 X6.168 Y121.429 R0.42
G1 X6.215 Y121.496
G2 X6.303 Y121.587 R0.42
G1 X6.369 Y121.637
G2 X6.477 Y121.697 R0.42
G1 X6.544 Y121.722
G2 X6.655 Y121.747 R0.42
G1 X6.726 Y121.753
G2 X6.837 Y121.747 R0.42
X7.145 Y121.69 R38.361
X7.249 Y121.655 R0.42
G1 X7.313 Y121.624
G2 X7.408 Y121.562 R0.42
G1 X7.461 Y121.515
G2 X7.541 Y121.421 R0.42
G1 X7.585 Y121.351
G2 X7.635 Y121.233 R0.42
G1 X7.656 Y121.153
G2 X7.667 Y121.091 R0.42
G1 X7.682 Y120.936
X7.702 Y120.795
X7.708 Y120.767
X7.807 Y120.747
X7.814 Y120.745
X7.912 Y120.723
X7.932 Y120.75
X8.005 Y120.867
X8.083 Y121.002
G2 X8.117 Y121.053 R0.42
G1 X8.168 Y121.118
G2 X8.264 Y121.207 R0.42
G1 X8.332 Y121.253
G2 X8.443 Y121.306 R0.42
G1 X8.511 Y121.327
G2 X8.617 Y121.346 R0.42
G1 X8.689 Y121.349
G2 X8.803 Y121.338 R0.42
X9.108 Y121.264 R38.361
X9.208 Y121.225 R0.42
G1 X9.271 Y121.191
G2 X9.364 Y121.122 R0.42
G1 X9.415 Y121.072
G2 X9.489 Y120.976 R0.42
G1 X9.529 Y120.904
G2 X9.573 Y120.782 R0.42
G1 X9.59 Y120.701
G2 X9.597 Y120.639 R0.42
G1 X9.604 Y120.483
X9.617 Y120.342
X9.622 Y120.313
X9.718 Y120.288
X9.728 Y120.285
X9.822 Y120.259
X9.845 Y120.285
X9.924 Y120.397
X10.008 Y120.529
G2 X10.045 Y120.579 R0.42
G1 X10.1 Y120.641
G2 X10.201 Y120.725 R0.42
G1 X10.272 Y120.767
G2 X10.381 Y120.813 R0.42
G1 X10.45 Y120.831
