(_)
(T1  D=3.175 CR=0. - ZMIN=-5. - FLAT END MILL)
G90 G94 G91.1 G40 G49 G17
G21

(DRILL1)
M5
M9
T1
S10000 M3
G54
M8
G0 X-35.105 Y25.038
G43 Z15. H1
Z5.
G1 Z0. F762.
Z-0.5
G2 X-34.597 R0.254
X-35.617 R0.51
X-34.592 R0.512
X-35.617 R0.512
G1 X-35.105
Z-1.
G2 X-34.597 R0.254
X-35.617 R0.51
X-34.592 R0.512
X-35.617 R0.512
G1 X-35.105
Z-1.5
G2 X-34.597 R0.254
X-35.617 R0.51
X-34.592 R0.512
X-35.617 R0.512
G1 X-35.105
Z-2.
G2 X-34.597 R0.254
X-35.617 R0.51
X-34.592 R0.512
X-35.617 R0.512
G1 X-35.105
Z-2.5
G2 X-34.597 R0.254
X-35.617 R0.51
X-34.592 R0.512
X-35.617 R0.512
G1 X-35.105
Z-3.
G2 X-34.597 R0.254
X-35.617 R0.51
X-34.592 R0.512
X-35.617 R0.512
G1 X-35.105
Z-3.5
G2 X-34.597 R0.254
X-35.617 R0.51
X-34.592 R0.512
X-35.617 R0.512
G1 X-35.105
Z-4.
G2 X-34.597 R0.254
X-35.617 R0.51
X-34.592 R0.512
X-35.617 R0.512
G1 X-35.105
Z-4.5
G2 X-34.597 R0.254
X-35.617 R0.51
X-34.592 R0.512
X-35.617 R0.512
G1 X-35.105
Z-5.
G2 X-34.597 R0.254
X-35.617 R0.51
X-34.592 R0.512
X-35.617 R0.512
G1 X-35.105
G0 Z5.
X-23.57 Y23.57
G1 Z0. F762.
Z-0.5
G2 X-23.062 R0.254
X-24.082 R0.51
X-23.057 R0.512
X-24.082 R0.512
G1 X-23.57
Z-1.
G2 X-23.062 R0.254
X-24.082 R0.51
X-23.057 R0.512
X-24.082 R0.512
G1 X-23.57
Z-1.5
G2 X-23.062 R0.254
X-24.082 R0.51
X-23.057 R0.512
X-24.082 R0.512
G1 X-23.57
Z-2.
G2 X-23.062 R0.254
X-24.082 R0.51
X-23.057 R0.512
X-24.082 R0.512
G1 X-23.57
Z-2.5
G2 X-23.062 R0.254
X-24.082 R0.51
X-23.057 R0.512
X-24.082 R0.512
G1 X-23.57
Z-3.
G2 X-23.062 R0.254
X-24.082 R0.51
X-23.057 R0.512
X-24.082 R0.512
G1 X-23.57
Z-3.5
G2 X-23.062 R0.254
X-24.082 R0.51
X-23.057 R0.512
X-24.082 R0.512
G1 X-23.57
Z-4.
G2 X-23.062 R0.254
X-24.082 R0.51
X-23.057 R0.512
X-24.082 R0.512
G1 X-23.57
Z-4.5
G2 X-23.062 R0.254
X-24.082 R0.51
X-23.057 R0.512
X-24.082 R0.512
G1 X-23.57
Z-5.
G2 X-23.062 R0.254
X-24.082 R0.51
X-23.057 R0.512
X-24.082 R0.512
G1 X-23.57
G0 Z5.
X23.57
G1 Z0. F762.
Z-0.5
G2 X24.078 R0.254
X23.057 R0.51
X24.082 R0.512
X23.057 R0.512
G1 X23.57
Z-1.
G2 X24.078 R0.254
X23.057 R0.51
X24.082 R0.512
X23.057 R0.512
G1 X23.57
Z-1.5
G2 X24.078 R0.254
X23.057 R0.51
X24.082 R0.512
X23.057 R0.512
G1 X23.57
Z-2.
G2 X24.078 R0.254
X23.057 R0.51
X24.082 R0.512
X23.057 R0.512
G1 X23.57
Z-2.5
G2 X24.078 R0.254
X23.057 R0.51
X24.082 R0.512
X23.057 R0.512
G1 X23.57
Z-3.
G2 X24.078 R0.254
X23.057 R0.51
X24.082 R0.512
X23.057 R0.512
G1 X23.57
Z-3.5
G2 X24.078 R0.254
X23.057 R0.51
X24.082 R0.512
X23.057 R0.512
G1 X23.57
Z-4.
G2 X24.078 R0.254
X23.057 R0.51
X24.082 R0.512
X23.057 R0.512
G1 X23.57
Z-4.5
G2 X24.078 R0.254
X23.057 R0.51
X24.082 R0.512
X23.057 R0.512
G1 X23.57
Z-5.
G2 X24.078 R0.254
X23.057 R0.51
X24.082 R0.512
X23.057 R0.512
G1 X23.57
G0 Z5.
X34.934 Y25.13
G1 Z0. F762.
Z-0.5
G2 X35.443 R0.254
X34.422 R0.51
X35.447 R0.512
X34.422 R0.512
G1 X34.934
Z-1.
G2 X35.443 R0.254
X34.422 R0.51
X35.447 R0.512
X34.422 R0.512
G1 X34.934
Z-1.5
G2 X35.443 R0.254
X34.422 R0.51
X35.447 R0.512
X34.422 R0.512
G1 X34.934
Z-2.
G2 X35.443 R0.254
X34.422 R0.51
X35.447 R0.512
X34.422 R0.512
G1 X34.934
Z-2.5
G2 X35.443 R0.254
X34.422 R0.51
X35.447 R0.512
X34.422 R0.512
G1 X34.934
Z-3.
G2 X35.443 R0.254
X34.422 R0.51
X35.447 R0.512
X34.422 R0.512
G1 X34.934
Z-3.5
G2 X35.443 R0.254
X34.422 R0.51
X35.447 R0.512
X34.422 R0.512
G1 X34.934
Z-4.
G2 X35.443 R0.254
X34.422 R0.51
X35.447 R0.512
X34.422 R0.512
G1 X34.934
Z-4.5
G2 X35.443 R0.254
X34.422 R0.51
X35.447 R0.512
X34.422 R0.512
G1 X34.934
Z-5.
G2 X35.443 R0.254
X34.422 R0.51
X35.447 R0.512
X34.422 R0.512
G1 X34.934
G0 Z5.
X35.066 Y-24.87
G1 Z0. F762.
Z-0.5
G2 X35.574 R0.254
X34.553 R0.51
X35.578 R0.512
X34.553 R0.512
G1 X35.066
Z-1.
G2 X35.574 R0.254
X34.553 R0.51
X35.578 R0.512
X34.553 R0.512
G1 X35.066
Z-1.5
G2 X35.574 R0.254
X34.553 R0.51
X35.578 R0.512
X34.553 R0.512
G1 X35.066
Z-2.
G2 X35.574 R0.254
X34.553 R0.51
X35.578 R0.512
X34.553 R0.512
G1 X35.066
Z-2.5
G2 X35.574 R0.254
X34.553 R0.51
X35.578 R0.512
X34.553 R0.512
G1 X35.066
Z-3.
G2 X35.574 R0.254
X34.553 R0.51
X35.578 R0.512
X34.553 R0.512
G1 X35.066
Z-3.5
G2 X35.574 R0.254
X34.553 R0.51
X35.578 R0.512
X34.553 R0.512
G1 X35.066
Z-4.
G2 X35.574 R0.254
X34.553 R0.51
X35.578 R0.512
X34.553 R0.512
G1 X35.066
Z-4.5
G2 X35.574 R0.254
X34.553 R0.51
X35.578 R0.512
X34.553 R0.512
G1 X35.066
Z-5.
G2 X35.574 R0.254
X34.553 R0.51
X35.578 R0.512
X34.553 R0.512
G1 X35.066
G0 Z5.
X23.57 Y-23.57
G1 Z0. F762.
Z-0.5
G2 X24.078 R0.254
X23.057 R0.51
X24.082 R0.512
X23.057 R0.512
G1 X23.57
Z-1.
G2 X24.078 R0.254
X23.057 R0.51
X24.082 R0.512
X23.057 R0.512
G1 X23.57
Z-1.5
G2 X24.078 R0.254
X23.057 R0.51
X24.082 R0.512
X23.057 R0.512
G1 X23.57
Z-2.
G2 X24.078 R0.254
X23.057 R0.51
X24.082 R0.512
X23.057 R0.512
G1 X23.57
Z-2.5
G2 X24.078 R0.254
X23.057 R0.51
X24.082 R0.512
X23.057 R0.512
G1 X23.57
Z-3.
G2 X24.078 R0.254
X23.057 R0.51
X24.082 R0.512
X23.057 R0.512
G1 X23.57
Z-3.5
G2 X24.078 R0.254
X23.057 R0.51
X24.082 R0.512
X23.057 R0.512
G1 X23.57
Z-4.
G2 X24.078 R0.254
X23.057 R0.51
X24.082 R0.512
X23.057 R0.512
G1 X23.57
Z-4.5
G2 X24.078 R0.254
X23.057 R0.51
X24.082 R0.512
X23.057 R0.512
G1 X23.57
Z-5.
G2 X24.078 R0.254
X23.057 R0.51
X24.082 R0.512
X23.057 R0.512
G1 X23.57
G0 Z5.
X15.011 Y-25.
G1 Z0. F762.
Z-0.5
G2 X15.519 R0.254
X14.498 R0.51
X15.523 R0.512
X14.498 R0.512
G1 X15.011
Z-1.
G2 X15.519 R0.254
X14.498 R0.51
X15.523 R0.512
X14.498 R0.512
G1 X15.011
Z-1.5
G2 X15.519 R0.254
X14.498 R0.51
X15.523 R0.512
X14.498 R0.512
G1 X15.011
Z-2.
G2 X15.519 R0.254
X14.498 R0.51
X15.523 R0.512
X14.498 R0.512
G1 X15.011
Z-2.5
G2 X15.519 R0.254
X14.498 R0.51
X15.523 R0.512
X14.498 R0.512
G1 X15.011
Z-3.
G2 X15.519 R0.254
X14.498 R0.51
X15.523 R0.512
X14.498 R0.512
G1 X15.011
Z-3.5
G2 X15.519 R0.254
X14.498 R0.51
X15.523 R0.512
X14.498 R0.512
G1 X15.011
Z-4.
G2 X15.519 R0.254
X14.498 R0.51
X15.523 R0.512
X14.498 R0.512
G1 X15.011
Z-4.5
G2 X15.519 R0.254
X14.498 R0.51
X15.523 R0.512
X14.498 R0.512
G1 X15.011
Z-5.
G2 X15.519 R0.254
X14.498 R0.51
X15.523 R0.512
X14.498 R0.512
G1 X15.011
G0 Z5.
X-14.989
G1 Z0. F762.
Z-0.5
G2 X-14.481 R0.254
X-15.502 R0.51
X-14.477 R0.512
X-15.502 R0.512
G1 X-14.989
Z-1.
G2 X-14.481 R0.254
X-15.502 R0.51
X-14.477 R0.512
X-15.502 R0.512
G1 X-14.989
Z-1.5
G2 X-14.481 R0.254
X-15.502 R0.51
X-14.477 R0.512
X-15.502 R0.512
G1 X-14.989
Z-2.
G2 X-14.481 R0.254
X-15.502 R0.51
X-14.477 R0.512
X-15.502 R0.512
G1 X-14.989
Z-2.5
G2 X-14.481 R0.254
X-15.502 R0.51
X-14.477 R0.512
X-15.502 R0.512
G1 X-14.989
Z-3.
G2 X-14.481 R0.254
X-15.502 R0.51
X-14.477 R0.512
X-15.502 R0.512
G1 X-14.989
Z-3.5
G2 X-14.481 R0.254
X-15.502 R0.51
X-14.477 R0.512
X-15.502 R0.512
G1 X-14.989
Z-4.
G2 X-14.481 R0.254
X-15.502 R0.51
X-14.477 R0.512
X-15.502 R0.512
G1 X-14.989
Z-4.5
G2 X-14.481 R0.254
X-15.502 R0.51
X-14.477 R0.512
X-15.502 R0.512
G1 X-14.989
Z-5.
G2 X-14.481 R0.254
X-15.502 R0.51
X-14.477 R0.512
X-15.502 R0.512
G1 X-14.989
G0 Z5.
X-23.57 Y-23.57
G1 Z0. F762.
Z-0.5
G2 X-23.062 R0.254
X-24.082 R0.51
X-23.057 R0.512
X-24.082 R0.512
G1 X-23.57
Z-1.
G2 X-23.062 R0.254
X-24.082 R0.51
X-23.057 R0.512
X-24.082 R0.512
G1 X-23.57
Z-1.5
G2 X-23.062 R0.254
X-24.082 R0.51
X-23.057 R0.512
X-24.082 R0.512
G1 X-23.57
Z-2.
G2 X-23.062 R0.254
X-24.082 R0.51
X-23.057 R0.512
X-24.082 R0.512
G1 X-23.57
Z-2.5
G2 X-23.062 R0.254
X-24.082 R0.51
X-23.057 R0.512
X-24.082 R0.512
G1 X-23.57
Z-3.
G2 X-23.062 R0.254
X-24.082 R0.51
X-23.057 R0.512
X-24.082 R0.512
G1 X-23.57
Z-3.5
G2 X-23.062 R0.254
X-24.082 R0.51
X-23.057 R0.512
X-24.082 R0.512
G1 X-23.57
Z-4.
G2 X-23.062 R0.254
X-24.082 R0.51
X-23.057 R0.512
X-24.082 R0.512
G1 X-23.57
Z-4.5
G2 X-23.062 R0.254
X-24.082 R0.51
X-23.057 R0.512
X-24.082 R0.512
G1 X-23.57
Z-5.
G2 X-23.062 R0.254
X-24.082 R0.51
X-23.057 R0.512
X-24.082 R0.512
G1 X-23.57
G0 Z5.
X-35.105 Y-24.962
G1 Z0. F762.
Z-0.5
G2 X-34.597 R0.254
X-35.617 R0.51
X-34.592 R0.512
X-35.617 R0.512
G1 X-35.105
Z-1.
G2 X-34.597 R0.254
X-35.617 R0.51
X-34.592 R0.512
X-35.617 R0.512
G1 X-35.105
Z-1.5
G2 X-34.597 R0.254
X-35.617 R0.51
X-34.592 R0.512
X-35.617 R0.512
G1 X-35.105
Z-2.
G2 X-34.597 R0.254
X-35.617 R0.51
X-34.592 R0.512
X-35.617 R0.512
G1 X-35.105
Z-2.5
G2 X-34.597 R0.254
X-35.617 R0.51
X-34.592 R0.512
X-35.617 R0.512
G1 X-35.105
Z-3.
G2 X-34.597 R0.254
X-35.617 R0.51
X-34.592 R0.512
X-35.617 R0.512
G1 X-35.105
Z-3.5
G2 X-34.597 R0.254
X-35.617 R0.51
X-34.592 R0.512
X-35.617 R0.512
G1 X-35.105
Z-4.
G2 X-34.597 R0.254
X-35.617 R0.51
X-34.592 R0.512
X-35.617 R0.512
G1 X-35.105
Z-4.5
G2 X-34.597 R0.254
X-35.617 R0.51
X-34.592 R0.512
X-35.617 R0.512
G1 X-35.105
Z-5.
G2 X-34.597 R0.254
X-35.617 R0.51
X-34.592 R0.512
X-35.617 R0.512
G1 X-35.105
G0 Z5.
Z15.

(2D CONTOUR1)
M8
G0 X5.552 Y-16.767
Z15.
Z5.
G1 Z2.5 F762.
G2 X-10.597 Y-14.13 Z-0.5 R17.662
X10.597 Y14.13 R17.663 F400.
X-10.597 Y-14.13 R17.663
X-13.735 Y-11.105 Z-1. R17.663 F762.
X13.735 Y11.105 R17.663 F400.
X-13.735 Y-11.105 R17.663
X-16.036 Y-7.404 Z-1.5 R17.663 F762.
X16.036 Y7.404 R17.663 F400.
X-16.036 Y-7.404 R17.663
X-17.361 Y-3.252 Z-2. R17.662 F762.
X17.361 Y3.252 R17.662 F400.
X-17.361 Y-3.252 R17.662
X-17.628 Y1.098 Z-2.5 R17.662 F762.
X17.628 Y-1.098 R17.662 F400.
X-17.628 Y1.098 R17.662
X-16.823 Y5.381 Z-3. R17.662 F762.
X16.823 Y-5.381 R17.662 F400.
X-16.823 Y5.381 R17.662
X-14.993 Y9.336 Z-3.5 R17.662 F762.
X14.993 Y-9.336 R17.662 F400.
X-14.993 Y9.336 R17.662
X-12.251 Y12.723 Z-4. R17.663 F762.
X12.251 Y-12.723 R17.663 F400.
X-12.251 Y12.723 R17.663
X-8.763 Y15.335 Z-4.5 R17.662 F762.
X8.763 Y-15.335 R17.662 F400.
X-8.763 Y15.335 R17.662
X-4.741 Y17.014 Z-5. R17.663 F762.
X4.741 Y-17.014 R17.663 F400.
X-4.741 Y17.014 R17.663
G0 Z15.

(2D CONTOUR2)
M8
G0 X17.014 Y-31.625
Z15.
Z5.
G1 Z2.5 F762.
X0. Z-0.5
X-34.921
G2 X-41.508 Y-25.038 R6.587
G1 Y25.038
G2 X-34.921 Y31.625 R6.587
G1 X34.921
G2 X41.508 Y25.038 R6.587
G1 Y-25.038
G2 X34.921 Y-31.625 R6.587
G1 X0.
X-11.072 Z-1.
X-34.921
G2 X-41.508 Y-25.038 R6.587
G1 Y25.038
G2 X-34.921 Y31.625 R6.587
G1 X34.921
G2 X41.508 Y25.038 R6.587
G1 Y-25.038
G2 X34.921 Y-31.625 R6.587
G1 X0.
X-11.072
X-22.144 Z-1.5
X-34.921
G2 X-41.508 Y-25.038 R6.587
G1 Y25.038
G2 X-34.921 Y31.625 R6.587
G1 X34.921
G2 X41.508 Y25.038 R6.587
G1 Y-25.038
G2 X34.921 Y-31.625 R6.587
G1 X-11.072
X-22.144
X-33.216 Z-2.
X-34.921
G2 X-41.508 Y-25.038 R6.587
G1 Y25.038
G2 X-34.921 Y31.625 R6.587
G1 X34.921
G2 X41.508 Y25.038 R6.587
G1 Y-25.038
G2 X34.921 Y-31.625 R6.587
G1 X-22.144
X-33.216
X-34.921 Z-2.077
G2 X-41.436 Y-26.015 Z-2.5 R6.587
X-41.508 Y-25.038 R6.587
G1 Y25.038
G2 X-34.921 Y31.625 R6.587
G1 X34.921
G2 X41.508 Y25.038 R6.587
G1 Y-25.038
G2 X34.921 Y-31.625 R6.587
G1 X-33.216
X-34.921
G2 X-41.436 Y-26.015 R6.587
X-41.508 Y-25.038 Z-2.544 R6.587
G1 Y-14.947 Z-3.
Y25.038
G2 X-34.921 Y31.625 R6.587
G1 X34.921
G2 X41.508 Y25.038 R6.587
G1 Y-25.038
G2 X34.921 Y-31.625 R6.587
G1 X-34.921
G2 X-41.508 Y-25.038 R6.587
G1 Y-14.947
Y-3.875 Z-3.5
Y25.038
G2 X-34.921 Y31.625 R6.587
G1 X34.921
G2 X41.508 Y25.038 R6.587
G1 Y-25.038
G2 X34.921 Y-31.625 R6.587
G1 X-34.921
G2 X-41.508 Y-25.038 R6.587
G1 Y-3.875
Y7.197 Z-4.
Y25.038
G2 X-34.921 Y31.625 R6.587
G1 X34.921
G2 X41.508 Y25.038 R6.587
G1 Y-25.038
G2 X34.921 Y-31.625 R6.587
G1 X-34.921
G2 X-41.508 Y-25.038 R6.587
G1 Y-3.875
Y7.197
Y18.269 Z-4.5
Y25.038
G2 X-34.921 Y31.625 R6.587
G1 X34.921
G2 X41.508 Y25.038 R6.587
G1 Y-25.038
G2 X34.921 Y-31.625 R6.587
G1 X-34.921
G2 X-41.508 Y-25.038 R6.587
G1 Y7.197
Y18.269
Y25.038 Z-4.806
G2 X-40.153 Y29.041 Z-5. R6.587
X-34.921 Y31.625 R6.587
G1 X34.921
G2 X41.508 Y25.038 R6.587
G1 Y-25.038
G2 X34.921 Y-31.625 R6.587
G1 X-34.921
G2 X-41.508 Y-25.038 R6.587
G1 Y18.269
Y25.038
G2 X-40.153 Y29.041 R6.587
G0 Z15.

M9
M30
