(  _0)
(T1  D=3.175 CR=0. - ZMIN=-8. - FLAT END MILL)
G90 G94 G91.1 G40 G49 G17
G21

(2D CONTOUR1)
M5
M9
T1
S9170 M3
G54
M8
G0 X0.015 Y14.412
G43 Z15. H1
Z5.
G1 Z3. F762.
Z2.5
G3 X-0.015 Y3.588 Z-0.498 R5.412 F465.
X5.412 Y9. Z-2. R5.412
X-5.412 R5.412
X5.412 R5.412
X-2.712 Y13.684 Z-4. R5.413
X2.712 Y4.316 R5.413
X-2.712 Y13.684 R5.413
X-2.695 Y4.306 Z-6. R5.412
X2.695 Y13.694 R5.412
X-2.695 Y4.306 R5.412
X5.412 Y9. Z-7.996 R5.412
Y9.02 Z-8. R5.412
X-5.412 Y8.98 R5.412
X5.412 Y9.02 R5.412
G0 Z15.

(2D POCKET1)
M8
G0 X4.578 Y-13.587
Z15.
Z5.
G1 Z2.5 F465.
G3 X5.63 Y-16.413 Z1.665 R1.508
X4.578 Y-13.587 Z0.829 R1.508
X5.63 Y-16.413 Z-0.006 R1.508
X4.578 Y-13.587 Z-0.842 R1.508
X5.63 Y-16.413 Z-1.677 R1.508
X6.612 Y-15. Z-2. R1.508
G1 Y-14.707
G3 X6.293 Y-14.388 R0.319
G1 X-6.297
G3 X-6.612 Y-14.703 R0.315
G1 Y-15.293
G3 X-6.293 Y-15.612 R0.319
G1 X6.293
G3 X6.612 Y-15.293 R0.319
G1 Y-15.
G2 X7.079 Y-14.101 R1.099
G3 X6.774 Y-13.135 R0.531
G1 X-7.55
G3 X-7.865 Y-13.45 R0.315
G1 Y-16.546
G3 X-7.546 Y-16.865 R0.319
G1 X7.546
G3 X7.865 Y-16.546 R0.319
G1 Y-13.454
G3 X7.546 Y-13.135 R0.319
G1 X6.774
G2 X4.864 Y-11.861 R2.07
G3 X2.953 Y-10.587 R2.07
G1 X-10.413
Y-19.413
X10.413
Y-10.587
X2.953
G3 X1.741 Y-12.993 Z-2.311 R1.508
G1 X3.892 Y-15.898 Z-2.648
G3 X6.612 Y-15. Z-3. R1.508
G1 Z5.
Z-3.
Y-14.707
G3 X6.293 Y-14.388 R0.319
G1 X-6.297
G3 X-6.612 Y-14.703 R0.315
G1 Y-15.293
G3 X-6.293 Y-15.612 R0.319
G1 X6.293
G3 X6.612 Y-15.293 R0.319
G1 Y-15.
G2 X7.079 Y-14.101 R1.099
G3 X6.774 Y-13.135 R0.531
G1 X-7.55
G3 X-7.865 Y-13.45 R0.315
G1 Y-16.546
G3 X-7.546 Y-16.865 R0.319
G1 X7.546
G3 X7.865 Y-16.546 R0.319
G1 Y-13.454
G3 X7.546 Y-13.135 R0.319
G1 X6.774
G2 X4.864 Y-11.861 R2.07
G3 X2.953 Y-10.587 R2.07
G1 X-10.413
Y-19.413
X10.413
Y-10.587
X2.953
Y-11.191 Z-2.94
G0 Z15.

(2D POCKET2)
M8
G0 X-3.587 Y-1.153
Z15.
Z5.
G1 Z2.5 F465.
G3 X-6.413 Y-2.206 Z1.665 R1.508
X-3.587 Y-1.153 Z0.829 R1.508
X-6.413 Y-2.206 Z-0.006 R1.508
X-3.587 Y-1.153 Z-0.842 R1.508
X-6.413 Y-2.206 Z-1.677 R1.508
X-5. Y-3.187 Z-2. R1.508
G1 X-4.589
G3 X-4.55 Y-2.978 R0.108
G2 X-4.931 Y-2.826 R13.087
G3 X-4.997 Y-2.813 R0.172
G1 X-6.
G3 Y-3.187 R0.187
G1 X-5.
X5.
X6.
G3 Y-2.813 R0.187
G1 X4.997
G3 X4.931 Y-2.826 R0.172
G2 X4.55 Y-2.978 R12.114
G3 X4.589 Y-3.187 R0.108
G1 X5.
G2 X6.259 Y-4.026 R1.363
G3 X7.517 Y-4.865 R1.363
G1 X7.546
G3 X7.865 Y-4.546 R0.319
G1 Y-1.454
G3 X7.546 Y-1.135 R0.319
G1 X4.986
G3 X4.294 Y-1.274 R1.795
G2 X-4.294 R11.131
G3 X-4.986 Y-1.135 R1.795
G1 X-7.546
G3 X-7.865 Y-1.454 R0.319
G1 Y-4.546
G3 X-7.546 Y-4.865 R0.319
G1 X7.517
G2 X8.893 Y-5.639 R1.61
G3 X10.413 Y-5.213 R0.819
G1 Y1.413
X4.022
G2 X0. Y0.412 R8.588
X-4.022 Y1.413 R8.588
G1 X-10.413
Y-7.412
X10.413
Y-5.213
G3 X7.887 Y-4.1 Z-2.587 R1.508
G1 X6.017 Y-5.809 Z-3.014
G2 X3.983 Y-3.582 Z-3.812 R1.508
X5. Y-3.187 Z-4. R1.508
G1 X6.
G3 Y-2.813 R0.187
G1 X4.997
G3 X4.931 Y-2.826 R0.172
G2 X4.55 Y-2.978 R12.114
G3 X4.589 Y-3.187 R0.108
G1 X5.
G3 X5.2 Y-2.987 R0.2
X5. Y-2.787 R0.2
G1 X-5. Y-2.813
X-6.
G3 Y-3.187 R0.187
G1 X-4.589
G3 X-4.55 Y-2.978 R0.108
G2 X-4.931 Y-2.826 R13.087
G3 X-4.997 Y-2.813 R0.172
G1 X-5.
G2 X-6.258 Y-1.974 R1.363
G3 X-7.517 Y-1.135 R1.363
G1 X-7.546
G3 X-7.865 Y-1.454 R0.319
G1 Y-4.546
G3 X-7.546 Y-4.865 R0.319
G1 X7.546
G3 X7.865 Y-4.546 R0.319
G1 Y-1.454
G3 X7.546 Y-1.135 R0.319
G1 X4.986
G3 X4.294 Y-1.274 R1.795
G2 X-4.294 R11.131
G3 X-4.986 Y-1.135 R1.795
G1 X-7.517
G2 X-8.892 Y-0.361 R1.61
G3 X-10.413 Y-0.786 R0.82
G1 Y-7.412
X10.413
Y1.413
X4.022
G2 X0. Y0.412 R8.588
X-4.022 Y1.413 R8.588
G1 X-10.413
Y-0.786
G3 X-10.268 Y-0.979 R0.2
G1 X-6.559 Y-2.045
G2 X-6.425 Y-2.172 R0.2
G3 X-3.575 Y-1.186 Z-4.835 R1.508
X-6.425 Y-2.172 Z-5.671 R1.508
X-5. Y-3.187 Z-6. R1.508
G1 X-4.589
G3 X-4.55 Y-2.978 R0.108
G2 X-4.931 Y-2.826 R13.087
G3 X-4.997 Y-2.813 R0.172
G1 X-6.
G3 Y-3.187 R0.187
G1 X-5.
X5.
X6.
G3 Y-2.813 R0.187
G1 X4.997
G3 X4.931 Y-2.826 R0.172
G2 X4.55 Y-2.978 R12.114
G3 X4.589 Y-3.187 R0.108
G1 X5.
G2 X6.259 Y-4.026 R1.363
G3 X7.517 Y-4.865 R1.363
G1 X7.546
G3 X7.865 Y-4.546 R0.319
G1 Y-1.454
G3 X7.546 Y-1.135 R0.319
G1 X4.986
G3 X4.294 Y-1.274 R1.795
G2 X-4.294 R11.131
G3 X-4.986 Y-1.135 R1.795
G1 X-7.546
G3 X-7.865 Y-1.454 R0.319
G1 Y-4.546
G3 X-7.546 Y-4.865 R0.319
G1 X7.517
G2 X8.893 Y-5.639 R1.61
G3 X10.413 Y-5.213 R0.819
G1 Y1.413
X4.022
G2 X0. Y0.412 R8.588
X-4.022 Y1.413 R8.588
G1 X-10.413
Y-7.412
X10.413
Y-5.213
X9.809 Z-5.94
G0 Z15.

(2D CONTOUR2)
M8
G0 X0.035 Y14.412
Z15.
Z5.
G1 Z2.5 F762.
G3 X-0.035 Y3.588 Z-0.498 R5.412 F465.
X0.035 Y14.412 Z-3.496 R5.412
X-0.035 Y3.588 Z-6.495 R5.412
X5.412 Y9. Z-8. R5.412
X-5.412 R5.412
X5.412 R5.412
X-5.412 R5.412
X5.412 R5.412
G0 Z15.

(2D CONTOUR3)
M8
G0 X-9.973 Y-22.587
Z15.
Z5.
G1 Z3. F762.
Z2.5
X-12. Z2.143 F465.
G2 X-13.587 Y-21. Z1.703 R1.587
G1 Y0. Z-2.
Y9.
G2 X13.587 R13.587
G1 Y-21.
G2 X12. Y-22.587 R1.587
G1 X-12.
G2 X-13.587 Y-21. R1.587
G1 Y0.
Y9. Z-2.868
G2 X-8.826 Y19.33 Z-4. R13.588
X13.587 Y9. R13.587
G1 Y-21.
G2 X12. Y-22.587 R1.587
G1 X-12.
G2 X-13.587 Y-21. R1.587
G1 Y0.
Y9.
G2 X-8.826 Y19.33 R13.588
X9.926 Y18.279 Z-6. R13.587
X13.587 Y9. R13.587
G1 Y-21.
G2 X12. Y-22.587 R1.587
G1 X-12.
G2 X-13.587 Y-21. R1.587
G1 Y9.
G2 X9.926 Y18.279 R13.587
X13.587 Y9. Z-6.985 R13.587
G1 Y-1.522 Z-8.
Y-21.
G2 X12. Y-22.587 R1.587
G1 X-12.
G2 X-13.587 Y-21. R1.587
G1 Y9.
G2 X13.587 R13.587
G1 Y-1.522
G0 Z15.

M9
M30
