(_)
(T1  D=3.175 CR=0. - ZMIN=-5. - FLAT END MILL)
G90 G94 G91.1 G40 G49 G17
G21

(DRILL1)
M5
M9
T1
S10000 M3
G54
M8
G0 X23.57 Y-23.57
G43 Z15. H1
Z5.
G1 Z0. F762.
Z-2.
G3 X24.078 R0.254
X23.057 R0.51
X24.082 R0.512
X23.057 R0.512
G1 X23.57
Z-4.
G3 X24.078 R0.254
X23.057 R0.51
X24.082 R0.512
X23.057 R0.512
G1 X23.57
Z-5.
G3 X24.078 R0.254
X23.057 R0.51
X24.082 R0.512
X23.057 R0.512
G1 X23.57
G0 Z5.
X25.13 Y-34.934
G1 Z0. F762.
Z-2.
G3 X25.638 R0.254
X24.617 R0.51
X25.642 R0.512
X24.617 R0.512
G1 X25.13
Z-4.
G3 X25.638 R0.254
X24.617 R0.51
X25.642 R0.512
X24.617 R0.512
G1 X25.13
Z-5.
G3 X25.638 R0.254
X24.617 R0.51
X25.642 R0.512
X24.617 R0.512
G1 X25.13
G0 Z5.
X-24.87 Y-35.066
G1 Z0. F762.
Z-2.
G3 X-24.362 R0.254
X-25.383 R0.51
X-24.358 R0.512
X-25.383 R0.512
G1 X-24.87
Z-4.
G3 X-24.362 R0.254
X-25.383 R0.51
X-24.358 R0.512
X-25.383 R0.512
G1 X-24.87
Z-5.
G3 X-24.362 R0.254
X-25.383 R0.51
X-24.358 R0.512
X-25.383 R0.512
G1 X-24.87
G0 Z5.
X-23.57 Y-23.57
G1 Z0. F762.
Z-2.
G3 X-23.062 R0.254
X-24.082 R0.51
X-23.057 R0.512
X-24.082 R0.512
G1 X-23.57
Z-4.
G3 X-23.062 R0.254
X-24.082 R0.51
X-23.057 R0.512
X-24.082 R0.512
G1 X-23.57
Z-5.
G3 X-23.062 R0.254
X-24.082 R0.51
X-23.057 R0.512
X-24.082 R0.512
G1 X-23.57
G0 Z5.
X-25. Y-15.011
G1 Z0. F762.
Z-2.
G3 X-24.492 R0.254
X-25.512 R0.51
X-24.487 R0.512
X-25.512 R0.512
G1 X-25.
Z-4.
G3 X-24.492 R0.254
X-25.512 R0.51
X-24.487 R0.512
X-25.512 R0.512
G1 X-25.
Z-5.
G3 X-24.492 R0.254
X-25.512 R0.51
X-24.487 R0.512
X-25.512 R0.512
G1 X-25.
G0 Z5.
Y14.989
G1 Z0. F762.
Z-2.
G3 X-24.492 R0.254
X-25.512 R0.51
X-24.487 R0.512
X-25.512 R0.512
G1 X-25.
Z-4.
G3 X-24.492 R0.254
X-25.512 R0.51
X-24.487 R0.512
X-25.512 R0.512
G1 X-25.
Z-5.
G3 X-24.492 R0.254
X-25.512 R0.51
X-24.487 R0.512
X-25.512 R0.512
G1 X-25.
G0 Z5.
X-23.57 Y23.57
G1 Z0. F762.
Z-2.
G3 X-23.062 R0.254
X-24.082 R0.51
X-23.057 R0.512
X-24.082 R0.512
G1 X-23.57
Z-4.
G3 X-23.062 R0.254
X-24.082 R0.51
X-23.057 R0.512
X-24.082 R0.512
G1 X-23.57
Z-5.
G3 X-23.062 R0.254
X-24.082 R0.51
X-23.057 R0.512
X-24.082 R0.512
G1 X-23.57
G0 Z5.
X-24.962 Y35.105
G1 Z0. F762.
Z-2.
G3 X-24.454 R0.254
X-25.475 R0.51
X-24.45 R0.512
X-25.475 R0.512
G1 X-24.962
Z-4.
G3 X-24.454 R0.254
X-25.475 R0.51
X-24.45 R0.512
X-25.475 R0.512
G1 X-24.962
Z-5.
G3 X-24.454 R0.254
X-25.475 R0.51
X-24.45 R0.512
X-25.475 R0.512
G1 X-24.962
G0 Z5.
X25.038
G1 Z0. F762.
Z-2.
G3 X25.546 R0.254
X24.525 R0.51
X25.55 R0.512
X24.525 R0.512
G1 X25.038
Z-4.
G3 X25.546 R0.254
X24.525 R0.51
X25.55 R0.512
X24.525 R0.512
G1 X25.038
Z-5.
G3 X25.546 R0.254
X24.525 R0.51
X25.55 R0.512
X24.525 R0.512
G1 X25.038
G0 Z5.
X23.57 Y23.57
G1 Z0. F762.
Z-2.
G3 X24.078 R0.254
X23.057 R0.51
X24.082 R0.512
X23.057 R0.512
G1 X23.57
Z-4.
G3 X24.078 R0.254
X23.057 R0.51
X24.082 R0.512
X23.057 R0.512
G1 X23.57
Z-5.
G3 X24.078 R0.254
X23.057 R0.51
X24.082 R0.512
X23.057 R0.512
G1 X23.57
G0 Z5.
Z15.

(2D CONTOUR1)
M8
G0 X8.214 Y-15.523
Z15.
Z5.
G1 Z2.5 F762.
G2 X-10.538 Y-14.05 Z-1. R17.563
X10.538 Y14.05 R17.563 F400.
X-10.538 Y-14.05 R17.563
X-15.945 Y-7.362 Z-2. R17.563 F762.
X15.945 Y7.362 R17.563 F400.
X-15.945 Y-7.362 R17.563
X-17.529 Y1.091 Z-3. R17.563 F762.
X17.529 Y-1.091 R17.563 F400.
X-17.529 Y1.091 R17.563
X-14.909 Y9.283 Z-4. R17.562 F762.
X14.909 Y-9.283 R17.562 F400.
X-14.909 Y9.283 R17.562
X-8.713 Y15.249 Z-5. R17.563 F762.
X8.713 Y-15.249 R17.563 F400.
X-8.713 Y15.249 R17.563
G0 Z15.

(2D CONTOUR2)
M8
G0 X-31.625 Y-19.849
Z15.
Z5.
G1 Z2.5 F762.
Y0. Z-1.
Y34.921
G2 X-25.038 Y41.508 R6.587
G1 X25.038
G2 X31.625 Y34.921 R6.587
G1 Y-34.921
G2 X25.038 Y-41.508 R6.587
G1 X-25.038
G2 X-31.625 Y-34.921 R6.587
G1 Y0.
Y22.144 Z-2.
Y34.921
G2 X-25.038 Y41.508 R6.587
G1 X25.038
G2 X31.625 Y34.921 R6.587
G1 Y-34.921
G2 X25.038 Y-41.508 R6.587
G1 X-25.038
G2 X-31.625 Y-34.921 R6.587
G1 Y0.
Y22.144
Y34.921 Z-2.577
G2 X-26.015 Y41.436 Z-3. R6.587
X-25.038 Y41.508 R6.587
G1 X25.038
G2 X31.625 Y34.921 R6.587
G1 Y-34.921
G2 X25.038 Y-41.508 R6.587
G1 X-25.038
G2 X-31.625 Y-34.921 R6.587
G1 Y22.144
Y34.921
G2 X-26.015 Y41.436 R6.587
X-25.038 Y41.508 Z-3.044 R6.587
G1 X-3.875 Z-4.
X25.038
G2 X31.625 Y34.921 R6.587
G1 Y-34.921
G2 X25.038 Y-41.508 R6.587
G1 X-25.038
G2 X-31.625 Y-34.921 R6.587
G1 Y34.921
G2 X-25.038 Y41.508 R6.587
G1 X-3.875
X18.269 Z-5.
X25.038
G2 X31.625 Y34.921 R6.587
G1 Y-34.921
G2 X25.038 Y-41.508 R6.587
G1 X-25.038
G2 X-31.625 Y-34.921 R6.587
G1 Y34.921
G2 X-25.038 Y41.508 R6.587
G1 X18.269
G0 Z15.

M9
M30
