(  _0)
(T1  D=3.175 CR=0. - ZMIN=-8. - FLAT END MILL)
G90 G94 G91.1 G40 G49 G17
G21

(2D CONTOUR1)
M5
M9
T1
S9170 M3
G54
M8
G0 X-2.281 Y14.455
G43 Z15. H1
Z5.
G1 Z3. F762.
Z2.5
G3 X2.281 Y3.545 Z-0.775 R5.912 F465.
X5.912 Y9. Z-2. R5.912
X-5.912 R5.912
X5.912 R5.912
X-2.014 Y14.559 Z-4. R5.912
X2.014 Y3.441 R5.912
X-2.014 Y14.559 R5.912
X-4.54 Y5.213 Z-6. R5.913
X4.54 Y12.787 R5.913
X-4.54 Y5.213 R5.913
X5.107 Y6.021 Z-8. R5.913
X-5.107 Y11.979 R5.913
X5.107 Y6.021 R5.913
G0 Z15.

(2D POCKET1)
M8
G0 X4.578 Y-13.587
Z15.
Z5.
G1 Z2.5 F465.
G3 X5.63 Y-16.413 Z1.665 R1.508
X4.578 Y-13.587 Z0.829 R1.508
X5.63 Y-16.413 Z-0.006 R1.508
X4.578 Y-13.587 Z-0.842 R1.508
X5.63 Y-16.413 Z-1.677 R1.508
X6.612 Y-15. Z-2. R1.508
G1 Y-14.707
G3 X6.293 Y-14.388 R0.319
G1 X-6.297
G3 X-6.612 Y-14.703 R0.315
G1 Y-15.293
G3 X-6.293 Y-15.612 R0.319
G1 X6.293
G3 X6.612 Y-15.293 R0.319
G1 Y-15.
G2 X7.079 Y-14.101 R1.099
G3 X6.774 Y-13.135 R0.531
G1 X-7.55
G3 X-7.865 Y-13.45 R0.315
G1 Y-16.546
G3 X-7.546 Y-16.865 R0.319
G1 X7.546
G3 X7.865 Y-16.546 R0.319
G1 Y-13.454
G3 X7.546 Y-13.135 R0.319
G1 X6.774
G2 X4.864 Y-11.861 R2.07
G3 X2.953 Y-10.587 R2.07
G1 X-10.413
Y-19.413
X10.413
Y-10.587
X2.953
G3 X1.741 Y-12.993 Z-2.311 R1.508
G1 X3.892 Y-15.898 Z-2.648
G3 X6.612 Y-15. Z-3. R1.508
G1 Z5.
Z-3.
Y-14.707
G3 X6.293 Y-14.388 R0.319
G1 X-6.297
G3 X-6.612 Y-14.703 R0.315
G1 Y-15.293
G3 X-6.293 Y-15.612 R0.319
G1 X6.293
G3 X6.612 Y-15.293 R0.319
G1 Y-15.
G2 X7.079 Y-14.101 R1.099
G3 X6.774 Y-13.135 R0.531
G1 X-7.55
G3 X-7.865 Y-13.45 R0.315
G1 Y-16.546
G3 X-7.546 Y-16.865 R0.319
G1 X7.546
G3 X7.865 Y-16.546 R0.319
G1 Y-13.454
G3 X7.546 Y-13.135 R0.319
G1 X6.774
G2 X4.864 Y-11.861 R2.07
G3 X2.953 Y-10.587 R2.07
G1 X-10.413
Y-19.413
X10.413
Y-10.587
X2.953
Y-11.191 Z-2.94
G0 Z15.

(2D POCKET2)
M8
G0 X5.416 Y-4.952
Z15.
Z5.
G1 Z2.5 F465.
G3 X7.47 Y-2.742 Z1.665 R1.508
X5.416 Y-4.952 Z0.829 R1.508
X7.47 Y-2.742 Z-0.006 R1.508
X5.416 Y-4.952 Z-0.842 R1.508
X7.47 Y-2.742 Z-1.677 R1.508
X5.766 Y-2.499 Z-2. R1.508
G2 X3.306 Y-3.432 R12.784
G3 X3.333 Y-3.636 R0.104
G1 X6.317
G3 X6.636 Y-3.317 R0.319
G1 Y-2.683
G3 X6.317 Y-2.364 R0.319
G1 X6.133
G3 X5.937 Y-2.412 R0.422
G2 X5.766 Y-2.499 R12.784
X5.677 Y-2.521 R0.2
G1 X-5.681 Y-2.519
G2 X-5.77 Y-2.497 R0.2
X-5.937 Y-2.412 R12.773
G3 X-6.133 Y-2.364 R0.422
G1 X-6.317
G3 X-6.636 Y-2.683 R0.319
G1 Y-3.317
G3 X-6.317 Y-3.636 R0.319
G1 X-3.333
G3 X-3.306 Y-3.432 R0.104
G2 X-5.77 Y-2.497 R12.773
X-6.311 Y-1.743 R0.998
G3 X-7.01 Y-1.135 R0.706
G1 X-7.546
G3 X-7.865 Y-1.454 R0.319
G1 Y-4.546
G3 X-7.546 Y-4.865 R0.319
G1 X7.546
G3 X7.865 Y-4.546 R0.319
G1 Y-1.454
G3 X7.546 Y-1.135 R0.319
G1 X6.057
G3 X5.429 Y-1.291 R1.345
G2 X-5.429 R11.616
G3 X-6.057 Y-1.135 R1.345
G1 X-7.01
G2 X-8.666 Y-0.321 R2.092
G3 X-10.413 Y-0.917 R0.975
G1 Y-7.412
X10.413
Y1.413
X5.001
G2 X0. Y-0.088 R9.088
X-5.001 Y1.413 R9.088
G1 X-10.413
Y-0.917
G3 X-10.317 Y-1.087 R0.2
G1 X-5.251 Y-4.19
G3 X-4.948 Y-4.046 R0.2
X-7.938 Y-3.648 Z-2.835 R1.508
X-4.948 Y-4.046 Z-3.671 R1.508
X-5.766 Y-2.499 Z-4. R1.508
G2 X-5.937 Y-2.412 R12.773
G3 X-6.133 Y-2.364 R0.422
G1 X-6.317
G3 X-6.636 Y-2.683 R0.319
G1 Y-3.317
G3 X-6.317 Y-3.636 R0.319
G1 X-3.333
G3 X-3.306 Y-3.432 R0.104
G2 X-5.766 Y-2.499 R12.773
X-5.651 Y-2.122 R0.2
G1 X6.035 Y-3.636
X6.317
G3 X6.636 Y-3.317 R0.319
G1 Y-2.683
G3 X6.317 Y-2.364 R0.319
G1 X6.133
G3 X5.937 Y-2.412 R0.422
G2 X3.306 Y-3.432 R12.784
G3 X3.333 Y-3.636 R0.104
G1 X6.035
G2 X6.918 Y-4.093 R1.08
G3 X7.865 Y-3.793 R0.521
G1 Y-1.454
G3 X7.546 Y-1.135 R0.319
G1 X6.057
G3 X5.429 Y-1.291 R1.345
G2 X-5.429 R11.616
G3 X-6.057 Y-1.135 R1.345
G1 X-7.546
G3 X-7.865 Y-1.454 R0.319
G1 Y-4.546
G3 X-7.546 Y-4.865 R0.319
G1 X7.546
G3 X7.865 Y-4.546 R0.319
G1 Y-3.793
G2 X9.139 Y-1.882 R2.07
G3 X10.413 Y0.028 R2.07
G1 Y1.413
X5.001
G2 X0. Y-0.088 R9.088
X-5.001 Y1.413 R9.088
G1 X-10.413
Y-7.412
X10.413
Y0.028
G3 X10.055 Y0.151 R0.2
G1 X7.793 Y-2.747
G2 X7.496 Y-2.767 R0.2
G3 X5.391 Y-4.927 Z-4.835 R1.508
X7.496 Y-2.767 Z-5.671 R1.508
X5.766 Y-2.499 Z-6. R1.508
G2 X3.306 Y-3.432 R12.784
G3 X3.333 Y-3.636 R0.104
G1 X6.317
G3 X6.636 Y-3.317 R0.319
G1 Y-2.683
G3 X6.317 Y-2.364 R0.319
G1 X6.133
G3 X5.937 Y-2.412 R0.422
G2 X5.766 Y-2.499 R12.784
X5.677 Y-2.521 R0.2
G1 X-5.681 Y-2.519
G2 X-5.77 Y-2.497 R0.2
X-5.937 Y-2.412 R12.773
G3 X-6.133 Y-2.364 R0.422
G1 X-6.317
G3 X-6.636 Y-2.683 R0.319
G1 Y-3.317
G3 X-6.317 Y-3.636 R0.319
G1 X-3.333
G3 X-3.306 Y-3.432 R0.104
G2 X-5.77 Y-2.497 R12.773
X-6.311 Y-1.743 R0.998
G3 X-7.01 Y-1.135 R0.706
G1 X-7.546
G3 X-7.865 Y-1.454 R0.319
G1 Y-4.546
G3 X-7.546 Y-4.865 R0.319
G1 X7.546
G3 X7.865 Y-4.546 R0.319
G1 Y-1.454
G3 X7.546 Y-1.135 R0.319
G1 X6.057
G3 X5.429 Y-1.291 R1.345
G2 X-5.429 R11.616
G3 X-6.057 Y-1.135 R1.345
G1 X-7.01
G2 X-8.666 Y-0.321 R2.092
G3 X-10.413 Y-0.917 R0.975
G1 Y-7.412
X10.413
Y1.413
X5.001
G2 X0. Y-0.088 R9.088
X-5.001 Y1.413 R9.088
G1 X-10.413
Y-0.917
X-9.809 Z-5.94
G0 Z15.

(2D CONTOUR2)
M8
G0 X-4.718 Y12.563
Z15.
Z5.
G1 Z2.5 F762.
G3 X4.718 Y5.437 Z-0.775 R5.912 F465.
X-4.718 Y12.563 Z-4.05 R5.912
X4.718 Y5.437 Z-7.326 R5.912
X5.912 Y9. Z-8. R5.912
X-5.912 R5.912
X5.912 R5.912
X-5.912 R5.912
X5.912 R5.912
G0 Z15.

(2D CONTOUR3)
M8
G0 X-9.973 Y-22.587
Z15.
Z5.
G1 Z3. F762.
Z2.5
X-12. Z2.143 F465.
G2 X-13.587 Y-21. Z1.703 R1.587
G1 Y0. Z-2.
Y9.
G2 X13.587 R13.587
G1 Y-21.
G2 X12. Y-22.587 R1.587
G1 X-12.
G2 X-13.587 Y-21. R1.587
G1 Y0.
Y9. Z-2.868
G2 X-8.826 Y19.33 Z-4. R13.588
X13.587 Y9. R13.587
G1 Y-21.
G2 X12. Y-22.587 R1.587
G1 X-12.
G2 X-13.587 Y-21. R1.587
G1 Y0.
Y9.
G2 X-8.826 Y19.33 R13.588
X9.926 Y18.279 Z-6. R13.587
X13.587 Y9. R13.587
G1 Y-21.
G2 X12. Y-22.587 R1.587
G1 X-12.
G2 X-13.587 Y-21. R1.587
G1 Y9.
G2 X9.926 Y18.279 R13.587
X13.587 Y9. Z-6.985 R13.587
G1 Y-1.522 Z-8.
Y-21.
G2 X12. Y-22.587 R1.587
G1 X-12.
G2 X-13.587 Y-21. R1.587
G1 Y9.
G2 X13.587 R13.587
G1 Y-1.522
G0 Z15.

M9
M30
