(___)
(T1  D=3.175 CR=0. - ZMIN=-4.85 - FLAT END MILL)
G90 G94 G91.1 G40 G49 G17
G21

(2D CONTOUR3)
M5
M9
T1
S5500 M3
G54
M8
G0 X19.816 Y9.336
G43 Z15. H1
Z5.
G1 Z1.5 F762.
Z0.5
G2 X-19.816 Y-9.336 Z-0.101 R21.905 F351.
X0. Y21.905 Z-0.485 R21.905
Y-21.905 R21.905 F219.
Y21.905 R21.905
X0.239 Y21.745 R0.258
G3 X0.476 Y21.582 R0.263
G2 X-0.476 Y-21.582 R21.587
X0.476 Y21.582 R21.587
G0 Z5.
X19.816 Y9.336
G1 Z1.015 F762.
Z0.015
G2 X-19.816 Y-9.336 Z-0.586 R21.905 F351.
X0. Y21.905 Z-0.97 R21.905
Y-21.905 R21.905 F219.
Y21.905 R21.905
X0.239 Y21.745 R0.258
G3 X0.476 Y21.582 R0.263
G2 X-0.476 Y-21.582 R21.587
X0.476 Y21.582 R21.587
G0 Z5.
X19.816 Y9.336
G1 Z0.53 F762.
Z-0.47
G2 X-19.816 Y-9.336 Z-1.071 R21.905 F351.
X0. Y21.905 Z-1.455 R21.905
Y-21.905 R21.905 F219.
Y21.905 R21.905
X0.239 Y21.745 R0.258
G3 X0.476 Y21.582 R0.263
G2 X-0.476 Y-21.582 R21.587
X0.476 Y21.582 R21.587
G0 Z5.
X19.816 Y9.336
G1 Z0.045 F762.
Z-0.955
G2 X-19.816 Y-9.336 Z-1.556 R21.905 F351.
X0. Y21.905 Z-1.94 R21.905
Y-21.905 R21.905 F219.
Y21.905 R21.905
X0.239 Y21.745 R0.258
G3 X0.476 Y21.582 R0.263
G2 X-0.476 Y-21.582 R21.587
X0.476 Y21.582 R21.587
G0 Z5.
X19.816 Y9.336
G1 Z-0.44 F762.
Z-1.44
G2 X-19.816 Y-9.336 Z-2.041 R21.905 F351.
X0. Y21.905 Z-2.425 R21.905
Y-21.905 R21.905 F219.
Y21.905 R21.905
X0.239 Y21.745 R0.258
G3 X0.476 Y21.582 R0.263
G2 X-0.476 Y-21.582 R21.587
X0.476 Y21.582 R21.587
G0 Z5.
X19.816 Y9.336
G1 Z-0.925 F762.
Z-1.925
G2 X-19.816 Y-9.336 Z-2.526 R21.905 F351.
X0. Y21.905 Z-2.91 R21.905
Y-21.905 R21.905 F219.
Y21.905 R21.905
X0.239 Y21.745 R0.258
G3 X0.476 Y21.582 R0.263
G2 X-0.476 Y-21.582 R21.587
X0.476 Y21.582 R21.587
G0 Z5.
X19.816 Y9.336
G1 Z-1.41 F762.
Z-2.41
G2 X-19.816 Y-9.336 Z-3.011 R21.905 F351.
X0. Y21.905 Z-3.395 R21.905
Y-21.905 R21.905 F219.
Y21.905 R21.905
X0.239 Y21.745 R0.258
G3 X0.476 Y21.582 R0.263
G2 X-0.476 Y-21.582 R21.587
X0.476 Y21.582 R21.587
G0 Z5.
X19.816 Y9.336
G1 Z-1.895 F762.
Z-2.895
G2 X-19.816 Y-9.336 Z-3.496 R21.905 F351.
X0. Y21.905 Z-3.88 R21.905
Y-21.905 R21.905 F219.
Y21.905 R21.905
X0.239 Y21.745 R0.258
G3 X0.476 Y21.582 R0.263
G2 X-0.476 Y-21.582 R21.587
X0.476 Y21.582 R21.587
G0 Z5.
X19.816 Y9.336
G1 Z-2.38 F762.
Z-3.38
G2 X-19.816 Y-9.336 Z-3.981 R21.905 F351.
X0. Y21.905 Z-4.365 R21.905
Y-21.905 R21.905 F219.
Y21.905 R21.905
X0.239 Y21.745 R0.258
G3 X0.476 Y21.582 R0.263
G2 X-0.476 Y-21.582 R21.587
X0.476 Y21.582 R21.587
G0 Z5.
X19.816 Y9.336
G1 Z-2.865 F762.
Z-3.865
G2 X-19.816 Y-9.336 Z-4.466 R21.905 F351.
X0. Y21.905 Z-4.85 R21.905
Y-21.905 R21.905 F219.
Y21.905 R21.905
X0.239 Y21.745 R0.258
G3 X0.476 Y21.582 R0.263
G2 X-0.476 Y-21.582 R21.587
X0.476 Y21.582 R21.587
G0 Z15.

M9
M30
