(__)
(T1  D=4. CR=0. - ZMIN=-5. - FLAT END MILL)
G90 G94 G91.1 G40 G49 G17
G21

(2D CONTOUR1)
M5
M9
T1
S10000 M3
G54
M8
G0 X-1.1 Y9.537
G43 Z15. H1
Z5.5
G3 X1.1 Y-9.537 Z2.861 R9.6 F1200.
X-1.1 Y9.537 Z0.223 R9.6
X-9.6 Y0. Z-1. R9.6
X9.6 R9.6
X-9.6 R9.6
X10. R9.8
X-10. R10.
X10. R10.
G1 X9.8 Z-0.98
Z4.5
X-1.1 Y9.537
G3 X1.1 Y-9.537 Z1.861 R9.6
X-1.1 Y9.537 Z-0.777 R9.6
X-9.6 Y0. Z-2. R9.6
X9.6 R9.6
X-9.6 R9.6
X10. R9.8
X-10. R10.
X10. R10.
G1 X9.8 Z-1.98
Z3.5
X-1.1 Y9.537
G3 X1.1 Y-9.537 Z0.861 R9.6
X-1.1 Y9.537 Z-1.777 R9.6
X-9.6 Y0. Z-3. R9.6
X9.6 R9.6
X-9.6 R9.6
X10. R9.8
X-10. R10.
X10. R10.
G1 X9.8 Z-2.98
Z2.5
X-1.1 Y9.537
G3 X1.1 Y-9.537 Z-0.139 R9.6
X-1.1 Y9.537 Z-2.777 R9.6
X-9.6 Y0. Z-4. R9.6
X9.6 R9.6
X-9.6 R9.6
X10. R9.8
X-10. R10.
X10. R10.
G1 X9.8 Z-3.98
Z1.5
X-1.1 Y9.537
G3 X1.1 Y-9.537 Z-1.139 R9.6
X-1.1 Y9.537 Z-3.777 R9.6
X-9.6 Y0. Z-5. R9.6
X9.6 R9.6
X-9.6 R9.6
X10. R9.8
X-10. R10.
X10. R10.
G1 X9.8 Z-4.98
G0 Z15.

(DRILL1)
M8
G0 X0. Y16.5
Z15.
Z5.
X0.75
G1 Z0. F1200.
G3 X-0.75 Z-0.5 R0.75
X0.75 Z-1. R0.75
X-0.75 Z-1.5 R0.75
X0.75 Z-2. R0.75
X-0.75 Z-2.5 R0.75
X0.75 Z-3. R0.75
X-0.75 Z-3.5 R0.75
X0.75 Z-4. R0.75
X-0.75 Z-4.5 R0.75
X0.75 Z-5. R0.75
X-0.75 R0.75
X0.75 R0.75
X0. R0.375
G0 Z5.
X17.25 Y0.
G1 Z0. F1200.
G3 X15.75 Z-0.5 R0.75
X17.25 Z-1. R0.75
X15.75 Z-1.5 R0.75
X17.25 Z-2. R0.75
X15.75 Z-2.5 R0.75
X17.25 Z-3. R0.75
X15.75 Z-3.5 R0.75
X17.25 Z-4. R0.75
X15.75 Z-4.5 R0.75
X17.25 Z-5. R0.75
X15.75 R0.75
X17.25 R0.75
X16.5 R0.375
G0 Z5.
X0.75 Y-16.5
G1 Z0. F1200.
G3 X-0.75 Z-0.5 R0.75
X0.75 Z-1. R0.75
X-0.75 Z-1.5 R0.75
X0.75 Z-2. R0.75
X-0.75 Z-2.5 R0.75
X0.75 Z-3. R0.75
X-0.75 Z-3.5 R0.75
X0.75 Z-4. R0.75
X-0.75 Z-4.5 R0.75
X0.75 Z-5. R0.75
X-0.75 R0.75
X0.75 R0.75
X0. R0.375
G0 Z5.
X-15.75 Y0.
G1 Z0. F1200.
G3 X-17.25 Z-0.5 R0.75
X-15.75 Z-1. R0.75
X-17.25 Z-1.5 R0.75
X-15.75 Z-2. R0.75
X-17.25 Z-2.5 R0.75
X-15.75 Z-3. R0.75
X-17.25 Z-3.5 R0.75
X-15.75 Z-4. R0.75
X-17.25 Z-4.5 R0.75
X-15.75 Z-5. R0.75
X-17.25 R0.75
X-15.75 R0.75
X-16.5 R0.375
G0 Z5.
Z15.

(2D CONTOUR2)
M8
G0 X-9.775 Y-2.108
Z15.
Z5.
G1 Z3. F30.
Z2.5
G3 X9.775 Y2.108 Z-0.249 R10. F1200.
X-6. Y8. Z-2. R10.
X6. Y-8. R10.
X-6. Y8. R10.
X-2.105 Y-9.776 Z-4. R10.
X2.105 Y9.776 R10.
X-2.105 Y-9.776 R10.
X8.022 Y-5.971 Z-5. R10.
X-8.022 Y5.971 R10.
X8.022 Y-5.971 R10.
G0 Z15.

(2D CONTOUR3)
M8
G0 X-18.498 Y-15.758
Z15.
Z5.
G1 Z2. F30.
Z0.5
G2 X-24.3 Y0. Z-1. R24.3 F1200.
X24.3 R24.3
X-24.3 R24.3
X-23.84 Y0.681 R0.735
G3 X-23.361 Y1.349 R0.768
G2 X23.361 Y-1.349 R23.4
X-23.361 Y1.349 R23.4
X-23.142 Y1.638 R0.326
G3 X-22.919 Y1.925 R0.332
G2 X22.919 Y-1.925 R23.
X-22.919 Y1.925 R23.
G0 Z5.
X-18.498 Y-15.758
G1 Z1. F30.
Z-0.5
G2 X-24.3 Y0. Z-2. R24.3 F1200.
X24.3 R24.3
X-24.3 R24.3
X-23.84 Y0.681 R0.735
G3 X-23.361 Y1.349 R0.768
G2 X23.361 Y-1.349 R23.4
X-23.361 Y1.349 R23.4
X-23.142 Y1.638 R0.326
G3 X-22.919 Y1.925 R0.332
G2 X22.919 Y-1.925 R23.
X-22.919 Y1.925 R23.
G0 Z5.
X-18.498 Y-15.758
G1 Z0. F30.
Z-1.5
G2 X-24.3 Y0. Z-3. R24.3 F1200.
X24.3 R24.3
X-24.3 R24.3
X-23.84 Y0.681 R0.735
G3 X-23.361 Y1.349 R0.768
G2 X23.361 Y-1.349 R23.4
X-23.361 Y1.349 R23.4
X-23.142 Y1.638 R0.326
G3 X-22.919 Y1.925 R0.332
G2 X22.919 Y-1.925 R23.
X-22.919 Y1.925 R23.
G0 Z5.
X-18.498 Y-15.758
G1 Z-1. F30.
Z-2.5
G2 X-24.3 Y0. Z-4. R24.3 F1200.
X24.3 R24.3
X-24.3 R24.3
X-23.84 Y0.681 R0.735
G3 X-23.361 Y1.349 R0.768
G2 X23.361 Y-1.349 R23.4
X-23.361 Y1.349 R23.4
X-23.142 Y1.638 R0.326
G3 X-22.919 Y1.925 R0.332
G2 X22.919 Y-1.925 R23.
X-22.919 Y1.925 R23.
G0 Z5.
X-18.498 Y-15.758
G1 Z-2. F30.
Z-3.5
G2 X-24.3 Y0. Z-5. R24.3 F1200.
X24.3 R24.3
X-24.3 R24.3
X-23.84 Y0.681 R0.735
G3 X-23.361 Y1.349 R0.768
G2 X23.361 Y-1.349 R23.4
X-23.361 Y1.349 R23.4
X-23.142 Y1.638 R0.326
G3 X-22.919 Y1.925 R0.332
G2 X22.919 Y-1.925 R23.
X-22.919 Y1.925 R23.
G0 Z15.

M9
M30
