(___)
(T1  D=3.175 CR=0. - ZMIN=-2. - FLAT END MILL)
G90 G94 G91.1 G40 G49 G17
G21

(CONTOUR1)
M5
M9
T1
S10000 M3
G54
M8
G0 X-22.592 Y0.42
G43 Z15. H1
Z0.737
G1 Z0.013 F1588.
G3 X-23.925 Y-2.286 Z-0.07 R1.508
X-22.592 Y0.42 Z-0.153 R1.508
X-23.925 Y-2.286 Z-0.236 R1.508
X-23.124 Y-2.435 Z-0.25 R1.508
G1 X-21.464 Y-2.287
X-21.465 Y-2.273
X-21.479 Y-2.131
X-21.495 Y-1.989
X-21.507 Y-1.847
X-21.517 Y-1.705
X-21.529 Y-1.562
X-21.541 Y-1.42
X-21.547 Y-1.278
X-21.555 Y-1.136
X-21.564 Y-0.994
X-21.569 Y-0.852
X-21.572 Y-0.71
X-21.579 Y-0.567
X-21.583 Y-0.425
Y-0.283
X-21.585 Y-0.141
X-21.587 Y0.001
X-21.585 Y0.143
X-21.583 Y0.285
Y0.428
X-21.579 Y0.57
X-21.572 Y0.712
X-21.569 Y0.854
X-21.564 Y0.996
X-21.555 Y1.138
X-21.547 Y1.281
X-21.54 Y1.423
X-21.529 Y1.565
X-21.517 Y1.707
X-21.507 Y1.849
X-21.494 Y1.991
X-21.479 Y2.133
X-21.465 Y2.276
X-21.464 Y2.287
X-21.452 Y2.418
X-21.433 Y2.56
X-21.415 Y2.702
X-21.399 Y2.844
X-21.378 Y2.986
X-21.356 Y3.128
X-21.337 Y3.271
X-21.322 Y3.374
X-21.315 Y3.413
X-21.29 Y3.555
X-21.266 Y3.697
X-21.243 Y3.839
X-21.215 Y3.981
X-21.187 Y4.123
X-21.162 Y4.266
X-21.131 Y4.408
X-21.099 Y4.55
X-21.07 Y4.692
X-21.038 Y4.834
X-21.003 Y4.976
X-20.97 Y5.118
X-20.937 Y5.261
X-20.896 Y5.41
X-20.861 Y5.545
X-20.825 Y5.687
X-20.783 Y5.829
X-20.753 Y5.93
X-20.742 Y5.971
X-20.703 Y6.113
X-20.66 Y6.256
X-20.614 Y6.398
X-20.572 Y6.54
X-20.526 Y6.682
X-20.469 Y6.847
X-20.431 Y6.966
X-20.383 Y7.109
X-20.327 Y7.26
X-20.28 Y7.393
X-20.23 Y7.535
X-20.185 Y7.649
X-20.174 Y7.677
X-20.119 Y7.819
X-20.066 Y7.961
X-20.043 Y8.018
X-20.007 Y8.104
X-19.947 Y8.246
X-19.891 Y8.388
X-19.829 Y8.53
X-19.765 Y8.672
X-19.705 Y8.814
X-19.64 Y8.956
X-19.616 Y9.006
X-19.573 Y9.099
X-19.509 Y9.241
X-19.474 Y9.315
X-19.44 Y9.383
X-19.369 Y9.525
X-19.301 Y9.667
X-19.229 Y9.809
X-19.19 Y9.882
X-19.153 Y9.951
X-19.081 Y10.094
X-19.048 Y10.159
X-19.005 Y10.236
X-18.925 Y10.378
X-18.849 Y10.52
X-18.769 Y10.662
X-18.763 Y10.672
X-18.685 Y10.804
X-18.605 Y10.946
X-18.52 Y11.089
X-18.479 Y11.154
X-18.432 Y11.231
X-18.348 Y11.373
X-18.337 Y11.392
X-18.258 Y11.515
X-18.195 Y11.611
X-18.166 Y11.657
X-18.077 Y11.799
X-18.053 Y11.837
X-17.981 Y11.941
X-17.91 Y12.046
X-17.886 Y12.084
X-17.792 Y12.226
X-17.768 Y12.259
X-17.69 Y12.368
X-17.626 Y12.458
X-17.591 Y12.51
X-17.49 Y12.652
X-17.383 Y12.794
X-17.342 Y12.851
X-17.281 Y12.936
X-17.2 Y13.044
X-17.173 Y13.079
X-17.062 Y13.221
X-16.954 Y13.363
X-16.915 Y13.412
X-16.838 Y13.505
X-16.773 Y13.584
X-16.724 Y13.647
X-16.631 Y13.763
X-16.609 Y13.789
X-16.486 Y13.932
X-16.347 Y14.099
X-16.243 Y14.216
X-16.205 Y14.258
X-16.117 Y14.358
X-16.062 Y14.421
X-15.992 Y14.5
X-15.92 Y14.576
X-15.858 Y14.642
X-15.778 Y14.73
X-15.729 Y14.784
X-15.636 Y14.883
X-15.593 Y14.927
X-15.494 Y15.027
X-15.455 Y15.069
X-15.352 Y15.177
X-15.318 Y15.211
X-15.21 Y15.315
X-15.171 Y15.353
X-15.03 Y15.495
X-14.925 Y15.594
X-14.879 Y15.637
X-14.783 Y15.728
X-14.73 Y15.779
X-14.641 Y15.864
X-14.576 Y15.922
X-14.499 Y15.989
X-14.418 Y16.064
X-14.357 Y16.12
X-14.26 Y16.206
X-14.215 Y16.245
X-14.093 Y16.348
X-14.072 Y16.367
X-13.932 Y16.49
X-13.93 Y16.491
X-13.788 Y16.607
X-13.756 Y16.632
X-13.646 Y16.725
X-13.588 Y16.774
X-13.504 Y16.841
X-13.406 Y16.917
X-13.362 Y16.951
X-13.219 Y17.066
X-13.077 Y17.173
X-13.039 Y17.201
X-12.935 Y17.28
X-12.853 Y17.343
X-12.793 Y17.388
X-12.651 Y17.488
X-12.509 Y17.592
X-12.46 Y17.627
X-12.367 Y17.693
X-12.224 Y17.789
X-12.082 Y17.888
X-12.049 Y17.912
X-11.94 Y17.983
X-11.829 Y18.054
X-11.798 Y18.074
X-11.656 Y18.17
X-11.616 Y18.196
X-11.514 Y18.258
X-11.384 Y18.338
X-11.229 Y18.437
X-11.156 Y18.48
X-11.087 Y18.52
X-10.945 Y18.604
X-10.915 Y18.622
X-10.803 Y18.69
X-10.668 Y18.764
X-10.661 Y18.769
X-10.519 Y18.848
X-10.418 Y18.907
X-10.376 Y18.93
X-10.234 Y19.004
X-10.15 Y19.049
X-10.092 Y19.08
X-9.95 Y19.158
X-9.883 Y19.191
X-9.808 Y19.228
X-9.666 Y19.3
X-9.602 Y19.333
X-9.524 Y19.373
X-9.381 Y19.44
X-9.305 Y19.475
X-9.239 Y19.507
X-9.097 Y19.577
X-9.007 Y19.617
X-8.955 Y19.64
X-8.813 Y19.704
X-8.692 Y19.76
X-8.671 Y19.77
X-8.528 Y19.829
X-8.386 Y19.889
X-8.244 Y19.951
X-8.102 Y20.007
X-8.008 Y20.044
X-7.96 Y20.063
X-7.818 Y20.121
X-7.676 Y20.175
X-7.533 Y20.227
X-7.391 Y20.281
X-7.264 Y20.328
X-7.107 Y20.381
X-6.965 Y20.431
X-6.855 Y20.47
X-6.823 Y20.481
X-6.68 Y20.525
X-6.538 Y20.571
X-6.414 Y20.612
X-6.396 Y20.618
X-6.254 Y20.659
X-6.112 Y20.701
X-5.97 Y20.745
X-5.939 Y20.755
X-5.828 Y20.784
X-5.685 Y20.822
X-5.543 Y20.862
X-5.414 Y20.897
X-5.259 Y20.934
X-5.117 Y20.97
X-4.975 Y21.006
X-4.823 Y21.039
X-4.69 Y21.069
X-4.548 Y21.103
X-4.406 Y21.131
X-4.264 Y21.159
X-4.122 Y21.189
X-3.98 Y21.216
X-3.837 Y21.24
X-3.695 Y21.267
X-3.553 Y21.293
X-3.411 Y21.313
X-3.345 Y21.323
X-3.269 Y21.336
X-3.127 Y21.36
X-2.985 Y21.378
X-2.842 Y21.396
X-2.7 Y21.417
X-2.558 Y21.434
X-2.416 Y21.448
X-2.276 Y21.465
X-2.274 Y21.466
X-2.132 Y21.482
X-1.99 Y21.493
X-1.847 Y21.506
X-1.705 Y21.52
X-1.563 Y21.529
X-1.421 Y21.537
X-1.279 Y21.548
X-1.137 Y21.557
X-0.994 Y21.561
X-0.852 Y21.569
X-0.71 Y21.576
X-0.568 Y21.578
X-0.426 Y21.58
X-0.284 Y21.585
X-0.142
X0.001 Y21.584
X0.143 Y21.585
X0.285
X0.427 Y21.58
X0.569 Y21.578
X0.711 Y21.576
X0.854 Y21.568
X0.996 Y21.561
X1.138 Y21.557
X1.28 Y21.548
X1.422 Y21.537
X1.564 Y21.529
X1.706 Y21.52
X1.849 Y21.506
X1.991 Y21.493
X2.133 Y21.482
X2.275 Y21.465
X2.417 Y21.448
X2.559 Y21.434
X2.701 Y21.417
X2.844 Y21.396
X2.986 Y21.378
X3.128 Y21.36
X3.27 Y21.336
X3.345 Y21.323
X3.412 Y21.313
X3.554 Y21.292
X3.697 Y21.267
X3.839 Y21.24
X3.981 Y21.216
X4.123 Y21.189
X4.265 Y21.159
X4.549 Y21.103
X4.692 Y21.069
X4.823 Y21.039
X4.976 Y21.006
X5.118 Y20.97
X5.26 Y20.933
X5.414 Y20.897
X5.544 Y20.862
X5.687 Y20.821
X5.829 Y20.784
X5.939 Y20.755
X5.971 Y20.745
X6.113 Y20.701
X6.255 Y20.659
X6.397 Y20.618
X6.414 Y20.612
X6.54 Y20.571
X6.682 Y20.524
X6.824 Y20.48
X6.855 Y20.47
X6.966 Y20.431
X7.108 Y20.38
X7.264 Y20.328
X7.392 Y20.281
X7.535 Y20.226
X7.677 Y20.175
X7.819 Y20.121
X7.961 Y20.062
X8.008 Y20.044
X8.103 Y20.007
X8.245 Y19.95
X8.388 Y19.888
X8.53 Y19.829
X8.672 Y19.769
X8.692 Y19.76
X8.814 Y19.703
X8.956 Y19.639
X9.007 Y19.617
X9.098 Y19.577
X9.24 Y19.507
X9.305 Y19.475
X9.383 Y19.439
X9.525 Y19.373
X9.602 Y19.333
X9.667 Y19.299
X9.809 Y19.227
X9.883 Y19.191
X9.951 Y19.157
X10.093 Y19.08
X10.15 Y19.049
X10.235 Y19.004
X10.378 Y18.929
X10.418 Y18.907
X10.52 Y18.848
X10.662 Y18.768
X10.668 Y18.764
X10.804 Y18.689
X10.915 Y18.622
X10.946 Y18.603
X11.088 Y18.519
X11.156 Y18.48
X11.231 Y18.436
X11.384 Y18.338
X11.515 Y18.258
X11.616 Y18.196
X11.657 Y18.169
X11.799 Y18.074
X11.829 Y18.054
X11.941 Y17.982
X12.049 Y17.912
X12.083 Y17.887
X12.226 Y17.788
X12.368 Y17.693
X12.46 Y17.627
X12.51 Y17.591
X12.652 Y17.488
X12.794 Y17.388
X12.853 Y17.343
X12.936 Y17.279
X13.039 Y17.201
X13.078 Y17.172
X13.221 Y17.065
X13.363 Y16.95
X13.406 Y16.917
X13.505 Y16.84
X13.588 Y16.774
X13.647 Y16.724
X13.756 Y16.632
X13.789 Y16.606
X13.931 Y16.49
X13.932
X14.074 Y16.366
X14.093 Y16.348
X14.216 Y16.244
X14.26 Y16.206
X14.358 Y16.119
X14.418 Y16.064
X14.5 Y15.988
X14.576 Y15.922
X14.642 Y15.863
X14.73 Y15.779
X14.784 Y15.727
X14.879 Y15.637
X14.926 Y15.593
X15.03 Y15.495
X15.171 Y15.353
X15.211 Y15.314
X15.318 Y15.211
X15.353 Y15.176
X15.455 Y15.069
X15.495 Y15.026
X15.593 Y14.927
X15.637 Y14.881
X15.729 Y14.784
X15.779 Y14.729
X15.858 Y14.642
X15.922 Y14.575
X15.992 Y14.5
X16.064 Y14.42
X16.117 Y14.358
X16.206 Y14.257
X16.243 Y14.216
X16.348 Y14.098
X16.368 Y14.074
X16.486 Y13.932
X16.609 Y13.789
X16.632 Y13.762
X16.724 Y13.647
X16.774 Y13.583
X16.838 Y13.505
X16.917 Y13.41
X16.954 Y13.363
X17.062 Y13.221
X17.173 Y13.079
X17.201 Y13.043
X17.281 Y12.936
X17.343 Y12.85
X17.383 Y12.794
X17.49 Y12.652
X17.591 Y12.51
X17.627 Y12.457
X17.69 Y12.368
X17.769 Y12.257
X17.792 Y12.226
X17.886 Y12.084
X17.912 Y12.044
X17.981 Y11.941
X18.054 Y11.835
X18.077 Y11.799
X18.166 Y11.657
X18.196 Y11.609
X18.258 Y11.515
X18.338 Y11.39
X18.348 Y11.373
X18.432 Y11.231
X18.48 Y11.153
X18.52 Y11.089
X18.605 Y10.946
X18.685 Y10.804
X18.765 Y10.67
X18.769 Y10.662
X18.849 Y10.52
X18.925 Y10.378
X19.005 Y10.236
X19.049 Y10.157
X19.081 Y10.094
X19.153 Y9.951
X19.191 Y9.88
X19.229 Y9.809
X19.301 Y9.667
X19.369 Y9.525
X19.44 Y9.383
X19.475 Y9.313
X19.509 Y9.241
X19.573 Y9.099
X19.617 Y9.004
X19.64 Y8.956
X19.705 Y8.814
X19.765 Y8.672
X19.829 Y8.53
X19.891 Y8.388
X19.947 Y8.246
X20.007 Y8.104
X20.044 Y8.015
X20.066 Y7.961
X20.119 Y7.819
X20.174 Y7.677
X20.186 Y7.646
X20.23 Y7.535
X20.28 Y7.393
X20.328 Y7.256
X20.383 Y7.109
X20.431 Y6.966
X20.47 Y6.843
X20.526 Y6.682
X20.572 Y6.54
X20.614 Y6.398
X20.66 Y6.256
X20.703 Y6.113
X20.742 Y5.971
X20.755 Y5.926
X20.783 Y5.829
X20.825 Y5.687
X20.861 Y5.545
X20.897 Y5.406
X20.937 Y5.261
X20.97 Y5.118
X21.003 Y4.976
X21.039 Y4.831
X21.07 Y4.692
X21.099 Y4.55
X21.131 Y4.408
X21.162 Y4.266
X21.187 Y4.123
X21.215 Y3.981
X21.243 Y3.839
X21.266 Y3.697
X21.29 Y3.555
X21.315 Y3.413
X21.323 Y3.367
X21.337 Y3.271
X21.356 Y3.128
X21.378 Y2.986
X21.399 Y2.844
X21.415 Y2.702
X21.433 Y2.56
X21.452 Y2.418
X21.465 Y2.276
Y2.273
X21.479 Y2.133
X21.494 Y1.991
X21.507 Y1.849
X21.517 Y1.707
X21.529 Y1.565
X21.54 Y1.423
X21.547 Y1.281
X21.555 Y1.138
X21.564 Y0.996
X21.569 Y0.854
X21.572 Y0.712
X21.579 Y0.57
X21.583 Y0.428
Y0.285
X21.585 Y0.143
X21.587 Y0.001
X21.585 Y-0.141
X21.583 Y-0.283
Y-0.425
X21.579 Y-0.567
X21.572 Y-0.71
X21.569 Y-0.852
X21.564 Y-0.994
X21.555 Y-1.136
X21.547 Y-1.278
X21.541 Y-1.42
X21.529 Y-1.562
X21.517 Y-1.705
X21.507 Y-1.847
X21.495 Y-1.989
X21.479 Y-2.131
X21.465 Y-2.273
X21.452 Y-2.415
X21.433 Y-2.557
X21.415 Y-2.7
X21.399 Y-2.842
X21.379 Y-2.984
X21.356 Y-3.126
X21.337 Y-3.268
X21.323 Y-3.367
X21.316 Y-3.41
X21.29 Y-3.552
X21.267 Y-3.695
X21.244 Y-3.837
X21.215 Y-3.979
X21.188 Y-4.121
X21.162 Y-4.263
X21.131 Y-4.405
X21.1 Y-4.547
X21.071 Y-4.69
X21.039 Y-4.831
X21.003 Y-4.974
X20.97 Y-5.116
X20.937 Y-5.258
X20.897 Y-5.406
X20.861 Y-5.542
X20.825 Y-5.685
X20.784 Y-5.827
X20.755 Y-5.926
X20.743 Y-5.969
X20.704 Y-6.111
X20.66 Y-6.253
X20.615 Y-6.395
X20.572 Y-6.538
X20.527 Y-6.68
X20.47 Y-6.843
X20.431 Y-6.964
X20.384 Y-7.106
X20.328 Y-7.256
X20.28 Y-7.39
X20.231 Y-7.533
X20.186 Y-7.646
X20.175 Y-7.675
X20.12 Y-7.817
X20.067 Y-7.959
X20.044 Y-8.015
X20.008 Y-8.101
X19.948 Y-8.243
X19.892 Y-8.385
X19.83 Y-8.528
X19.766 Y-8.67
X19.706 Y-8.812
X19.641 Y-8.954
X19.617 Y-9.004
X19.574 Y-9.096
X19.51 Y-9.238
X19.475 Y-9.313
X19.441 Y-9.38
X19.37 Y-9.523
X19.302 Y-9.665
X19.23 Y-9.807
X19.191 Y-9.88
X19.154 Y-9.949
X19.082 Y-10.091
X19.049 Y-10.157
X19.006 Y-10.233
X18.927 Y-10.375
X18.851 Y-10.518
X18.77 Y-10.66
X18.765 Y-10.67
X18.687 Y-10.802
X18.607 Y-10.944
X18.522 Y-11.086
X18.48 Y-11.153
X18.434 Y-11.228
X18.35 Y-11.37
X18.338 Y-11.39
X18.259 Y-11.513
X18.196 Y-11.609
X18.167 Y-11.655
X18.079 Y-11.797
X18.054 Y-11.835
X17.983 Y-11.939
X17.912 Y-12.044
X17.887 Y-12.081
X17.794 Y-12.223
X17.769 Y-12.257
X17.692 Y-12.366
X17.627 Y-12.457
X17.592 Y-12.508
X17.492 Y-12.65
X17.385 Y-12.792
X17.343 Y-12.85
X17.282 Y-12.934
X17.201 Y-13.043
X17.175 Y-13.076
X17.063 Y-13.218
X16.956 Y-13.361
X16.917 Y-13.41
X16.84 Y-13.503
X16.774 Y-13.583
X16.725 Y-13.645
X16.632 Y-13.762
X16.611 Y-13.787
X16.488 Y-13.929
X16.37 Y-14.071
X16.348 Y-14.098
X16.245 Y-14.213
X16.206 Y-14.257
X16.119 Y-14.356
X16.064 Y-14.42
X15.995 Y-14.498
X15.922 Y-14.575
X15.86 Y-14.64
X15.779 Y-14.729
X15.731 Y-14.782
X15.637 Y-14.881
X15.595 Y-14.924
X15.495 Y-15.026
X15.457 Y-15.066
X15.353 Y-15.176
X15.32 Y-15.208
X15.211 Y-15.314
X15.173 Y-15.351
X15.033 Y-15.493
X14.926 Y-15.593
X14.881 Y-15.635
X14.784 Y-15.727
X14.732 Y-15.777
X14.642 Y-15.863
X14.578 Y-15.919
X14.5 Y-15.988
X14.42 Y-16.061
X14.358 Y-16.119
X14.263 Y-16.203
X14.216 Y-16.244
X14.096 Y-16.346
X14.074 Y-16.366
X13.935 Y-16.488
X13.931 Y-16.49
X13.789 Y-16.606
X13.759 Y-16.63
X13.647 Y-16.724
X13.591 Y-16.772
X13.505 Y-16.84
X13.409 Y-16.914
X13.363 Y-16.95
X13.221 Y-17.065
X13.078 Y-17.172
X13.043 Y-17.198
X12.936 Y-17.279
X12.856 Y-17.341
X12.794 Y-17.388
X12.659 Y-17.483
X12.652 Y-17.488
X12.51 Y-17.591
X12.464 Y-17.625
X12.368 Y-17.693
X12.226 Y-17.788
X12.083 Y-17.887
X12.052 Y-17.909
X11.941 Y-17.982
X11.833 Y-18.051
X11.799 Y-18.074
X11.657 Y-18.169
X11.62 Y-18.193
X11.388 Y-18.336
X11.231 Y-18.436
X11.161 Y-18.478
X11.088 Y-18.519
X10.946 Y-18.603
X10.919 Y-18.62
X10.804 Y-18.689
X10.673 Y-18.762
X10.662 Y-18.768
X10.52 Y-18.848
X10.422 Y-18.904
X10.378 Y-18.929
X10.235 Y-19.004
X10.154 Y-19.046
X10.093 Y-19.08
X9.951 Y-19.157
X9.888 Y-19.189
X9.809 Y-19.227
X9.667 Y-19.299
X9.606 Y-19.331
X9.525 Y-19.373
X9.383 Y-19.439
X9.31 Y-19.473
X9.24 Y-19.507
X9.098 Y-19.577
X9.012 Y-19.615
X8.956 Y-19.639
X8.814 Y-19.703
X8.697 Y-19.757
X8.672 Y-19.769
X8.53 Y-19.829
X8.388 Y-19.888
X8.245 Y-19.95
X8.103 Y-20.007
X8.014 Y-20.041
X7.961 Y-20.062
X7.819 Y-20.121
X7.677 Y-20.175
X7.535 Y-20.226
X7.392 Y-20.281
X7.271 Y-20.326
X7.108 Y-20.38
X6.966 Y-20.431
X6.862 Y-20.468
X6.824 Y-20.48
X6.682 Y-20.524
X6.54 Y-20.571
X6.422 Y-20.61
X6.397 Y-20.618
X6.255 Y-20.659
X6.113 Y-20.701
X5.971 Y-20.745
X5.947 Y-20.752
X5.829 Y-20.784
X5.687 Y-20.821
X5.544 Y-20.862
X5.424 Y-20.894
X5.26 Y-20.933
X5.118 Y-20.97
X4.976 Y-21.006
X4.834 Y-21.037
X4.692 Y-21.069
X4.549 Y-21.103
X4.265 Y-21.159
X4.123 Y-21.189
X3.981 Y-21.216
X3.839 Y-21.24
X3.697 Y-21.267
X3.554 Y-21.292
X3.361 Y-21.321
X3.27 Y-21.336
X3.128 Y-21.36
X2.986 Y-21.378
X2.844 Y-21.396
X2.701 Y-21.417
X2.559 Y-21.434
X2.417 Y-21.448
X2.296 Y-21.463
X2.275 Y-21.465
X2.133 Y-21.482
X1.991 Y-21.493
X1.849 Y-21.506
X1.706 Y-21.52
X1.564 Y-21.529
X1.422 Y-21.537
X1.28 Y-21.548
X1.138 Y-21.557
X0.996 Y-21.561
X0.854 Y-21.568
X0.711 Y-21.576
X0.569 Y-21.578
X0.427 Y-21.58
X0.285 Y-21.585
X0.143
X0.001 Y-21.584
X-0.142 Y-21.585
X-0.284
X-0.426 Y-21.58
X-0.568 Y-21.578
X-0.71 Y-21.576
X-0.852 Y-21.569
X-0.994 Y-21.561
X-1.137 Y-21.557
X-1.279 Y-21.548
X-1.421 Y-21.537
X-1.563 Y-21.529
X-1.705 Y-21.52
X-1.847 Y-21.506
X-1.99 Y-21.493
X-2.132 Y-21.482
X-2.274 Y-21.466
X-2.296 Y-21.463
X-2.416 Y-21.448
X-2.558 Y-21.434
X-2.7 Y-21.417
X-2.842 Y-21.396
X-2.985 Y-21.378
X-3.127 Y-21.36
X-3.269 Y-21.336
X-3.361 Y-21.321
X-3.553 Y-21.293
X-3.695 Y-21.267
X-3.837 Y-21.24
X-3.98 Y-21.216
X-4.122 Y-21.189
X-4.264 Y-21.159
X-4.406 Y-21.131
X-4.548 Y-21.103
X-4.69 Y-21.069
X-4.833 Y-21.037
X-4.975 Y-21.006
X-5.117 Y-20.97
X-5.259 Y-20.934
X-5.424 Y-20.894
X-5.543 Y-20.862
X-5.685 Y-20.822
X-5.828 Y-20.784
X-5.947 Y-20.752
X-5.97 Y-20.745
X-6.112 Y-20.701
X-6.254 Y-20.659
X-6.396 Y-20.618
X-6.422 Y-20.61
X-6.538 Y-20.571
X-6.68 Y-20.525
X-6.823 Y-20.481
X-6.862 Y-20.468
X-6.965 Y-20.431
X-7.107 Y-20.381
X-7.271 Y-20.326
X-7.391 Y-20.281
X-7.533 Y-20.227
X-7.676 Y-20.175
X-7.818 Y-20.121
X-7.96 Y-20.063
X-8.014 Y-20.041
X-8.102 Y-20.007
X-8.244 Y-19.951
X-8.386 Y-19.889
X-8.528 Y-19.829
X-8.671 Y-19.77
X-8.697 Y-19.757
X-8.813 Y-19.704
X-8.955 Y-19.64
X-9.012 Y-19.615
X-9.097 Y-19.577
X-9.239 Y-19.507
X-9.31 Y-19.473
X-9.381 Y-19.44
X-9.524 Y-19.373
X-9.606 Y-19.331
X-9.666 Y-19.3
X-9.808 Y-19.228
X-9.888 Y-19.189
X-9.95 Y-19.158
X-10.092 Y-19.08
X-10.154 Y-19.046
X-10.234 Y-19.004
X-10.376 Y-18.93
X-10.422 Y-18.904
X-10.519 Y-18.848
X-10.661 Y-18.769
X-10.673 Y-18.762
X-10.803 Y-18.69
X-10.919 Y-18.62
X-10.945 Y-18.604
X-11.087 Y-18.52
X-11.161 Y-18.478
X-11.229 Y-18.437
X-11.388 Y-18.336
X-11.62 Y-18.193
X-11.656 Y-18.17
X-11.798 Y-18.074
X-11.833 Y-18.051
X-11.94 Y-17.983
X-12.052 Y-17.909
X-12.082 Y-17.888
X-12.224 Y-17.789
X-12.367 Y-17.693
X-12.464 Y-17.625
X-12.509 Y-17.592
X-12.651 Y-17.488
X-12.659 Y-17.483
X-12.793 Y-17.388
X-12.856 Y-17.341
X-12.935 Y-17.28
X-13.043 Y-17.198
X-13.077 Y-17.173
X-13.219 Y-17.066
X-13.362 Y-16.951
X-13.409 Y-16.914
X-13.504 Y-16.841
X-13.591 Y-16.772
X-13.646 Y-16.725
X-13.759 Y-16.63
X-13.788 Y-16.607
X-13.93 Y-16.491
X-13.935 Y-16.488
X-14.072 Y-16.367
X-14.096 Y-16.346
X-14.215 Y-16.245
X-14.263 Y-16.203
X-14.357 Y-16.12
X-14.42 Y-16.061
X-14.499 Y-15.989
X-14.578 Y-15.919
X-14.641 Y-15.864
X-14.732 Y-15.777
X-14.783 Y-15.728
X-14.881 Y-15.635
X-14.925 Y-15.594
X-15.033 Y-15.493
X-15.173 Y-15.351
X-15.21 Y-15.315
X-15.32 Y-15.208
X-15.352 Y-15.177
X-15.457 Y-15.066
X-15.494 Y-15.027
X-15.595 Y-14.924
X-15.636 Y-14.883
X-15.731 Y-14.782
X-15.778 Y-14.73
X-15.86 Y-14.64
X-15.92 Y-14.576
X-15.995 Y-14.498
X-16.062 Y-14.421
X-16.119 Y-14.356
X-16.205 Y-14.258
X-16.245 Y-14.213
X-16.347 Y-14.099
X-16.37 Y-14.071
X-16.488 Y-13.929
X-16.611 Y-13.787
X-16.631 Y-13.763
X-16.725 Y-13.645
X-16.773 Y-13.584
X-16.84 Y-13.503
X-16.915 Y-13.412
X-16.956 Y-13.361
X-17.063 Y-13.218
X-17.175 Y-13.076
X-17.2 Y-13.044
X-17.282 Y-12.934
X-17.342 Y-12.851
X-17.385 Y-12.792
X-17.492 Y-12.65
X-17.592 Y-12.508
X-17.626 Y-12.458
X-17.692 Y-12.366
X-17.768 Y-12.259
X-17.794 Y-12.223
X-17.887 Y-12.081
X-17.91 Y-12.046
X-17.983 Y-11.939
X-18.053 Y-11.837
X-18.079 Y-11.797
X-18.167 Y-11.655
X-18.195 Y-11.611
X-18.259 Y-11.513
X-18.337 Y-11.392
X-18.35 Y-11.37
X-18.434 Y-11.228
X-18.479 Y-11.154
X-18.522 Y-11.086
X-18.607 Y-10.944
X-18.687 Y-10.802
X-18.763 Y-10.672
X-18.77 Y-10.66
X-18.851 Y-10.518
X-18.927 Y-10.375
X-19.006 Y-10.233
X-19.048 Y-10.159
X-19.082 Y-10.091
X-19.154 Y-9.949
X-19.19 Y-9.882
X-19.23 Y-9.807
X-19.302 Y-9.665
X-19.37 Y-9.523
X-19.441 Y-9.38
X-19.474 Y-9.315
X-19.51 Y-9.238
X-19.574 Y-9.096
X-19.616 Y-9.006
X-19.641 Y-8.954
X-19.706 Y-8.812
X-19.766 Y-8.67
X-19.83 Y-8.528
X-19.892 Y-8.385
X-19.948 Y-8.243
X-20.008 Y-8.101
X-20.043 Y-8.018
X-20.067 Y-7.959
X-20.12 Y-7.817
X-20.175 Y-7.675
X-20.185 Y-7.649
X-20.231 Y-7.533
X-20.28 Y-7.39
X-20.327 Y-7.26
X-20.384 Y-7.106
X-20.431 Y-6.964
X-20.469 Y-6.847
X-20.527 Y-6.68
X-20.572 Y-6.538
X-20.615 Y-6.395
X-20.66 Y-6.253
X-20.704 Y-6.111
X-20.743 Y-5.969
X-20.753 Y-5.93
X-20.784 Y-5.827
X-20.825 Y-5.685
X-20.861 Y-5.542
X-20.896 Y-5.41
X-20.937 Y-5.258
X-20.97 Y-5.116
X-21.003 Y-4.974
X-21.039 Y-4.832
X-21.071 Y-4.69
X-21.1 Y-4.547
X-21.131 Y-4.405
X-21.162 Y-4.263
X-21.188 Y-4.121
X-21.215 Y-3.979
X-21.244 Y-3.837
X-21.267 Y-3.695
X-21.29 Y-3.552
X-21.316 Y-3.41
X-21.322 Y-3.374
X-21.337 Y-3.268
X-21.356 Y-3.126
X-21.379 Y-2.984
X-21.399 Y-2.842
X-21.415 Y-2.7
X-21.433 Y-2.557
X-21.452 Y-2.415
X-21.464 Y-2.287
X-21.47 Y-2.224
X-21.475 Y-2.162
X-21.489 Y-2.037
X-21.511 Y-1.787 Z-0.251
X-21.531 Y-1.536
X-21.547 Y-1.286 Z-0.252
X-21.562 Y-1.035 Z-0.254
X-21.57 Y-0.784 Z-0.255
X-21.58 Y-0.533 Z-0.257
X-21.583 Y-0.282 Z-0.259
X-21.587 Y-0.031 Z-0.262
X-21.583 Y0.221 Z-0.264
X-21.582 Y0.472 Z-0.267
X-21.572 Y0.723 Z-0.27
X-21.565 Y0.974 Z-0.273
X-21.549 Y1.224 Z-0.277
X-21.537 Y1.475 Z-0.28
X-21.515 Y1.725 Z-0.284
X-21.496 Y1.976 Z-0.288
X-21.47 Y2.226 Z-0.292
X-21.444 Y2.475 Z-0.296
X-21.412 Y2.725 Z-0.301
X-21.38 Y2.974 Z-0.305
X-21.344 Y3.222 Z-0.31
X-21.305 Y3.47 Z-0.314
X-21.263 Y3.718 Z-0.318
X-21.218 Y3.965 Z-0.323
X-21.171 Y4.212 Z-0.327
X-21.12 Y4.457 Z-0.331
X-21.068 Y4.703 Z-0.336
X-21.01 Y4.948 Z-0.34
X-20.953 Y5.192 Z-0.345
X-20.889 Y5.435 Z-0.349
X-20.827 Y5.678 Z-0.353
X-20.756 Y5.92 Z-0.358
X-20.689 Y6.162 Z-0.362
X-20.613 Y6.401 Z-0.367
X-20.54 Y6.641 Z-0.371
X-20.459 Y6.879 Z-0.375
X-20.38 Y7.117 Z-0.38
X-20.293 Y7.353 Z-0.384
X-20.209 Y7.589 Z-0.388
X-20.117 Y7.823 Z-0.393
X-20.026 Y8.057 Z-0.397
X-19.93 Y8.289 Z-0.402
X-19.833 Y8.521 Z-0.406
X-19.732 Y8.751 Z-0.41
X-19.629 Y8.98 Z-0.415
X-19.523 Y9.208 Z-0.419
X-19.414 Y9.434 Z-0.424
X-19.304 Y9.66 Z-0.428
X-19.189 Y9.883 Z-0.432
X-19.075 Y10.107 Z-0.437
X-18.954 Y10.327 Z-0.441
X-18.835 Y10.548 Z-0.445
X-18.708 Y10.765 Z-0.45
X-18.584 Y10.983 Z-0.454
X-18.452 Y11.197 Z-0.458
X-18.324 Y11.413 Z-0.463
X-18.187 Y11.623 Z-0.466
X-18.053 Y11.836 Z-0.47
X-17.912 Y12.044 Z-0.474
X-17.773 Y12.253 Z-0.477
X-17.627 Y12.457 Z-0.48
X-17.482 Y12.663 Z-0.483
X-17.333 Y12.864 Z-0.486
X-17.183 Y13.066 Z-0.489
X-17.029 Y13.264 Z-0.491
X-16.874 Y13.462 Z-0.493
X-16.716 Y13.657 Z-0.495
X-16.556 Y13.851 Z-0.496
X-16.394 Y14.043 Z-0.498
X-16.229 Y14.232 Z-0.499
X-16.063 Y14.42
X-15.893 Y14.605 Z-0.5
X-15.82 Y14.684
X-15.748 Y14.763
X-15.729 Y14.784
X-15.636 Y14.883
X-15.593 Y14.927
X-15.494 Y15.027
X-15.455 Y15.069
X-15.352 Y15.177
X-15.318 Y15.211
X-15.21 Y15.315
X-15.171 Y15.353
X-15.03 Y15.495
X-14.925 Y15.594
X-14.879 Y15.637
X-14.783 Y15.728
X-14.73 Y15.779
X-14.641 Y15.864
X-14.576 Y15.922
X-14.499 Y15.989
X-14.418 Y16.064
X-14.357 Y16.12
X-14.26 Y16.206
X-14.215 Y16.245
X-14.093 Y16.348
X-14.072 Y16.367
X-13.932 Y16.49
X-13.93 Y16.491
X-13.788 Y16.607
X-13.756 Y16.632
X-13.646 Y16.725
X-13.588 Y16.774
X-13.504 Y16.841
X-13.406 Y16.917
X-13.362 Y16.951
X-13.219 Y17.066
X-13.077 Y17.173
X-13.039 Y17.201
X-12.935 Y17.28
X-12.853 Y17.343
X-12.793 Y17.388
X-12.651 Y17.488
X-12.509 Y17.592
X-12.46 Y17.627
X-12.367 Y17.693
X-12.224 Y17.789
X-12.082 Y17.888
X-12.049 Y17.912
X-11.94 Y17.983
X-11.829 Y18.054
X-11.798 Y18.074
X-11.656 Y18.17
X-11.616 Y18.196
X-11.514 Y18.258
X-11.384 Y18.338
X-11.229 Y18.437
X-11.156 Y18.48
X-11.087 Y18.52
X-10.945 Y18.604
X-10.915 Y18.622
X-10.803 Y18.69
X-10.668 Y18.764
X-10.661 Y18.769
X-10.519 Y18.848
X-10.418 Y18.907
X-10.376 Y18.93
X-10.234 Y19.004
X-10.15 Y19.049
X-10.092 Y19.08
X-9.95 Y19.158
X-9.883 Y19.191
X-9.808 Y19.228
X-9.666 Y19.3
X-9.602 Y19.333
X-9.524 Y19.373
X-9.381 Y19.44
X-9.305 Y19.475
X-9.239 Y19.507
X-9.097 Y19.577
X-9.007 Y19.617
X-8.955 Y19.64
X-8.813 Y19.704
X-8.692 Y19.76
X-8.671 Y19.77
X-8.528 Y19.829
X-8.386 Y19.889
X-8.244 Y19.951
X-8.102 Y20.007
X-8.008 Y20.044
X-7.96 Y20.063
X-7.818 Y20.121
X-7.676 Y20.175
X-7.533 Y20.227
X-7.391 Y20.281
X-7.264 Y20.328
X-7.107 Y20.381
X-6.965 Y20.431
X-6.855 Y20.47
X-6.823 Y20.481
X-6.68 Y20.525
X-6.538 Y20.571
X-6.414 Y20.612
X-6.396 Y20.618
X-6.254 Y20.659
X-6.112 Y20.701
X-5.97 Y20.745
X-5.939 Y20.755
X-5.828 Y20.784
X-5.685 Y20.822
X-5.543 Y20.862
X-5.414 Y20.897
X-5.259 Y20.934
X-5.117 Y20.97
X-4.975 Y21.006
X-4.823 Y21.039
X-4.69 Y21.069
X-4.548 Y21.103
X-4.406 Y21.131
X-4.264 Y21.159
X-4.122 Y21.189
X-3.98 Y21.216
X-3.837 Y21.24
X-3.695 Y21.267
X-3.553 Y21.293
X-3.411 Y21.313
X-3.345 Y21.323
X-3.269 Y21.336
X-3.127 Y21.36
X-2.985 Y21.378
X-2.842 Y21.396
X-2.7 Y21.417
X-2.558 Y21.434
X-2.416 Y21.448
X-2.276 Y21.465
X-2.274 Y21.466
X-2.132 Y21.482
X-1.99 Y21.493
X-1.847 Y21.506
X-1.705 Y21.52
X-1.563 Y21.529
X-1.421 Y21.537
X-1.279 Y21.548
X-1.137 Y21.557
X-0.994 Y21.561
X-0.852 Y21.569
X-0.71 Y21.576
X-0.568 Y21.578
X-0.426 Y21.58
X-0.284 Y21.585
X-0.142
X0.001 Y21.584
X0.143 Y21.585
X0.285
X0.427 Y21.58
X0.569 Y21.578
X0.711 Y21.576
X0.854 Y21.568
X0.996 Y21.561
X1.138 Y21.557
X1.28 Y21.548
X1.422 Y21.537
X1.564 Y21.529
X1.706 Y21.52
X1.849 Y21.506
X1.991 Y21.493
X2.133 Y21.482
X2.275 Y21.465
X2.417 Y21.448
X2.559 Y21.434
X2.701 Y21.417
X2.844 Y21.396
X2.986 Y21.378
X3.128 Y21.36
X3.27 Y21.336
X3.345 Y21.323
X3.412 Y21.313
X3.554 Y21.292
X3.697 Y21.267
X3.839 Y21.24
X3.981 Y21.216
X4.123 Y21.189
X4.265 Y21.159
X4.549 Y21.103
X4.692 Y21.069
X4.823 Y21.039
X4.976 Y21.006
X5.118 Y20.97
X5.26 Y20.933
X5.414 Y20.897
X5.544 Y20.862
X5.687 Y20.821
X5.829 Y20.784
X5.939 Y20.755
X5.971 Y20.745
X6.113 Y20.701
X6.255 Y20.659
X6.397 Y20.618
X6.414 Y20.612
X6.54 Y20.571
X6.682 Y20.524
X6.824 Y20.48
X6.855 Y20.47
X6.966 Y20.431
X7.108 Y20.38
X7.264 Y20.328
X7.392 Y20.281
X7.535 Y20.226
X7.677 Y20.175
X7.819 Y20.121
X7.961 Y20.062
X8.008 Y20.044
X8.103 Y20.007
X8.245 Y19.95
X8.388 Y19.888
X8.53 Y19.829
X8.672 Y19.769
X8.692 Y19.76
X8.814 Y19.703
X8.956 Y19.639
X9.007 Y19.617
X9.098 Y19.577
X9.24 Y19.507
X9.305 Y19.475
X9.383 Y19.439
X9.525 Y19.373
X9.602 Y19.333
X9.667 Y19.299
X9.809 Y19.227
X9.883 Y19.191
X9.951 Y19.157
X10.093 Y19.08
X10.15 Y19.049
X10.235 Y19.004
X10.378 Y18.929
X10.418 Y18.907
X10.52 Y18.848
X10.662 Y18.768
X10.668 Y18.764
X10.804 Y18.689
X10.915 Y18.622
X10.946 Y18.603
X11.088 Y18.519
X11.156 Y18.48
X11.231 Y18.436
X11.384 Y18.338
X11.515 Y18.258
X11.616 Y18.196
X11.657 Y18.169
X11.799 Y18.074
X11.829 Y18.054
X11.941 Y17.982
X12.049 Y17.912
X12.083 Y17.887
X12.226 Y17.788
X12.368 Y17.693
X12.46 Y17.627
X12.51 Y17.591
X12.652 Y17.488
X12.794 Y17.388
X12.853 Y17.343
X12.936 Y17.279
X13.039 Y17.201
X13.078 Y17.172
X13.221 Y17.065
X13.363 Y16.95
X13.406 Y16.917
X13.505 Y16.84
X13.588 Y16.774
X13.647 Y16.724
X13.756 Y16.632
X13.789 Y16.606
X13.931 Y16.49
X13.932
X14.074 Y16.366
X14.093 Y16.348
X14.216 Y16.244
X14.26 Y16.206
X14.358 Y16.119
X14.418 Y16.064
X14.5 Y15.988
X14.576 Y15.922
X14.642 Y15.863
X14.73 Y15.779
X14.784 Y15.727
X14.879 Y15.637
X14.926 Y15.593
X15.03 Y15.495
X15.171 Y15.353
X15.211 Y15.314
X15.318 Y15.211
X15.353 Y15.176
X15.455 Y15.069
X15.495 Y15.026
X15.593 Y14.927
X15.637 Y14.881
X15.729 Y14.784
X15.779 Y14.729
X15.858 Y14.642
X15.922 Y14.575
X15.992 Y14.5
X16.064 Y14.42
X16.117 Y14.358
X16.206 Y14.257
X16.243 Y14.216
X16.348 Y14.098
X16.368 Y14.074
X16.486 Y13.932
X16.609 Y13.789
X16.632 Y13.762
X16.724 Y13.647
X16.774 Y13.583
X16.838 Y13.505
X16.917 Y13.41
X16.954 Y13.363
X17.062 Y13.221
X17.173 Y13.079
X17.201 Y13.043
X17.281 Y12.936
X17.343 Y12.85
X17.383 Y12.794
X17.49 Y12.652
X17.591 Y12.51
X17.627 Y12.457
X17.69 Y12.368
X17.769 Y12.257
X17.792 Y12.226
X17.886 Y12.084
X17.912 Y12.044
X17.981 Y11.941
X18.054 Y11.835
X18.077 Y11.799
X18.166 Y11.657
X18.196 Y11.609
X18.258 Y11.515
X18.338 Y11.39
X18.348 Y11.373
X18.432 Y11.231
X18.48 Y11.153
X18.52 Y11.089
X18.605 Y10.946
X18.685 Y10.804
X18.765 Y10.67
X18.769 Y10.662
X18.849 Y10.52
X18.925 Y10.378
X19.005 Y10.236
X19.049 Y10.157
X19.081 Y10.094
X19.153 Y9.951
X19.191 Y9.88
X19.229 Y9.809
X19.301 Y9.667
X19.369 Y9.525
X19.44 Y9.383
X19.475 Y9.313
X19.509 Y9.241
X19.573 Y9.099
X19.617 Y9.004
X19.64 Y8.956
X19.705 Y8.814
X19.765 Y8.672
X19.829 Y8.53
X19.891 Y8.388
X19.947 Y8.246
X20.007 Y8.104
X20.044 Y8.015
X20.066 Y7.961
X20.119 Y7.819
X20.174 Y7.677
X20.186 Y7.646
X20.23 Y7.535
X20.28 Y7.393
X20.328 Y7.256
X20.383 Y7.109
X20.431 Y6.966
X20.47 Y6.843
X20.526 Y6.682
X20.572 Y6.54
X20.614 Y6.398
X20.66 Y6.256
X20.703 Y6.113
X20.742 Y5.971
X20.755 Y5.926
X20.783 Y5.829
X20.825 Y5.687
X20.861 Y5.545
X20.897 Y5.406
X20.937 Y5.261
X20.97 Y5.118
X21.003 Y4.976
X21.039 Y4.831
X21.07 Y4.692
X21.099 Y4.55
X21.131 Y4.408
X21.162 Y4.266
X21.187 Y4.123
X21.215 Y3.981
X21.243 Y3.839
X21.266 Y3.697
X21.29 Y3.555
X21.315 Y3.413
X21.323 Y3.367
X21.337 Y3.271
X21.356 Y3.128
X21.378 Y2.986
X21.399 Y2.844
X21.415 Y2.702
X21.433 Y2.56
X21.452 Y2.418
X21.465 Y2.276
Y2.273
X21.479 Y2.133
X21.494 Y1.991
X21.507 Y1.849
X21.517 Y1.707
X21.529 Y1.565
X21.54 Y1.423
X21.547 Y1.281
X21.555 Y1.138
X21.564 Y0.996
X21.569 Y0.854
X21.572 Y0.712
X21.579 Y0.57
X21.583 Y0.428
Y0.285
X21.585 Y0.143
X21.587 Y0.001
X21.585 Y-0.141
X21.583 Y-0.283
Y-0.425
X21.579 Y-0.567
X21.572 Y-0.71
X21.569 Y-0.852
X21.564 Y-0.994
X21.555 Y-1.136
X21.547 Y-1.278
X21.541 Y-1.42
X21.529 Y-1.562
X21.517 Y-1.705
X21.507 Y-1.847
X21.495 Y-1.989
X21.479 Y-2.131
X21.465 Y-2.273
X21.452 Y-2.415
X21.433 Y-2.557
X21.415 Y-2.7
X21.399 Y-2.842
X21.379 Y-2.984
X21.356 Y-3.126
X21.337 Y-3.268
X21.323 Y-3.367
X21.316 Y-3.41
X21.29 Y-3.552
X21.267 Y-3.695
X21.244 Y-3.837
X21.215 Y-3.979
X21.188 Y-4.121
X21.162 Y-4.263
X21.131 Y-4.405
X21.1 Y-4.547
X21.071 Y-4.69
X21.039 Y-4.831
X21.003 Y-4.974
X20.97 Y-5.116
X20.937 Y-5.258
X20.897 Y-5.406
X20.861 Y-5.542
X20.825 Y-5.685
X20.784 Y-5.827
X20.755 Y-5.926
X20.743 Y-5.969
X20.704 Y-6.111
X20.66 Y-6.253
X20.615 Y-6.395
X20.572 Y-6.538
X20.527 Y-6.68
X20.47 Y-6.843
X20.431 Y-6.964
X20.384 Y-7.106
X20.328 Y-7.256
X20.28 Y-7.39
X20.231 Y-7.533
X20.186 Y-7.646
X20.175 Y-7.675
X20.12 Y-7.817
X20.067 Y-7.959
X20.044 Y-8.015
X20.008 Y-8.101
X19.948 Y-8.243
X19.892 Y-8.385
X19.83 Y-8.528
X19.766 Y-8.67
X19.706 Y-8.812
X19.641 Y-8.954
X19.617 Y-9.004
X19.574 Y-9.096
X19.51 Y-9.238
X19.475 Y-9.313
X19.441 Y-9.38
X19.37 Y-9.523
X19.302 Y-9.665
X19.23 Y-9.807
X19.191 Y-9.88
X19.154 Y-9.949
X19.082 Y-10.091
X19.049 Y-10.157
X19.006 Y-10.233
X18.927 Y-10.375
X18.851 Y-10.518
X18.77 Y-10.66
X18.765 Y-10.67
X18.687 Y-10.802
X18.607 Y-10.944
X18.522 Y-11.086
X18.48 Y-11.153
X18.434 Y-11.228
X18.35 Y-11.37
X18.338 Y-11.39
X18.259 Y-11.513
X18.196 Y-11.609
X18.167 Y-11.655
X18.079 Y-11.797
X18.054 Y-11.835
X17.983 Y-11.939
X17.912 Y-12.044
X17.887 Y-12.081
X17.794 Y-12.223
X17.769 Y-12.257
X17.692 Y-12.366
X17.627 Y-12.457
X17.592 Y-12.508
X17.492 Y-12.65
X17.385 Y-12.792
X17.343 Y-12.85
X17.282 Y-12.934
X17.201 Y-13.043
X17.175 Y-13.076
X17.063 Y-13.218
X16.956 Y-13.361
X16.917 Y-13.41
X16.84 Y-13.503
X16.774 Y-13.583
X16.725 Y-13.645
X16.632 Y-13.762
X16.611 Y-13.787
X16.488 Y-13.929
X16.37 Y-14.071
X16.348 Y-14.098
X16.245 Y-14.213
X16.206 Y-14.257
X16.119 Y-14.356
X16.064 Y-14.42
X15.995 Y-14.498
X15.922 Y-14.575
X15.86 Y-14.64
X15.779 Y-14.729
X15.731 Y-14.782
X15.637 Y-14.881
X15.595 Y-14.924
X15.495 Y-15.026
X15.457 Y-15.066
X15.353 Y-15.176
X15.32 Y-15.208
X15.211 Y-15.314
X15.173 Y-15.351
X15.033 Y-15.493
X14.926 Y-15.593
X14.881 Y-15.635
X14.784 Y-15.727
X14.732 Y-15.777
X14.642 Y-15.863
X14.578 Y-15.919
X14.5 Y-15.988
X14.42 Y-16.061
X14.358 Y-16.119
X14.263 Y-16.203
X14.216 Y-16.244
X14.096 Y-16.346
X14.074 Y-16.366
X13.935 Y-16.488
X13.931 Y-16.49
X13.789 Y-16.606
X13.759 Y-16.63
X13.647 Y-16.724
X13.591 Y-16.772
X13.505 Y-16.84
X13.409 Y-16.914
X13.363 Y-16.95
X13.221 Y-17.065
X13.078 Y-17.172
X13.043 Y-17.198
X12.936 Y-17.279
X12.856 Y-17.341
X12.794 Y-17.388
X12.659 Y-17.483
X12.652 Y-17.488
X12.51 Y-17.591
X12.464 Y-17.625
X12.368 Y-17.693
X12.226 Y-17.788
X12.083 Y-17.887
X12.052 Y-17.909
X11.941 Y-17.982
X11.833 Y-18.051
X11.799 Y-18.074
X11.657 Y-18.169
X11.62 Y-18.193
X11.388 Y-18.336
X11.231 Y-18.436
X11.161 Y-18.478
X11.088 Y-18.519
X10.946 Y-18.603
X10.919 Y-18.62
X10.804 Y-18.689
X10.673 Y-18.762
X10.662 Y-18.768
X10.52 Y-18.848
X10.422 Y-18.904
X10.378 Y-18.929
X10.235 Y-19.004
X10.154 Y-19.046
X10.093 Y-19.08
X9.951 Y-19.157
X9.888 Y-19.189
X9.809 Y-19.227
X9.667 Y-19.299
X9.606 Y-19.331
X9.525 Y-19.373
X9.383 Y-19.439
X9.31 Y-19.473
X9.24 Y-19.507
X9.098 Y-19.577
X9.012 Y-19.615
X8.956 Y-19.639
X8.814 Y-19.703
X8.697 Y-19.757
X8.672 Y-19.769
X8.53 Y-19.829
X8.388 Y-19.888
X8.245 Y-19.95
X8.103 Y-20.007
X8.014 Y-20.041
X7.961 Y-20.062
X7.819 Y-20.121
X7.677 Y-20.175
X7.535 Y-20.226
X7.392 Y-20.281
X7.271 Y-20.326
X7.108 Y-20.38
X6.966 Y-20.431
X6.862 Y-20.468
X6.824 Y-20.48
X6.682 Y-20.524
X6.54 Y-20.571
X6.422 Y-20.61
X6.397 Y-20.618
X6.255 Y-20.659
X6.113 Y-20.701
X5.971 Y-20.745
X5.947 Y-20.752
X5.829 Y-20.784
X5.687 Y-20.821
X5.544 Y-20.862
X5.424 Y-20.894
X5.26 Y-20.933
X5.118 Y-20.97
X4.976 Y-21.006
X4.834 Y-21.037
X4.692 Y-21.069
X4.549 Y-21.103
X4.265 Y-21.159
X4.123 Y-21.189
X3.981 Y-21.216
X3.839 Y-21.24
X3.697 Y-21.267
X3.554 Y-21.292
X3.361 Y-21.321
X3.27 Y-21.336
X3.128 Y-21.36
X2.986 Y-21.378
X2.844 Y-21.396
X2.701 Y-21.417
X2.559 Y-21.434
X2.417 Y-21.448
X2.296 Y-21.463
X2.275 Y-21.465
X2.133 Y-21.482
X1.991 Y-21.493
X1.849 Y-21.506
X1.706 Y-21.52
X1.564 Y-21.529
X1.422 Y-21.537
X1.28 Y-21.548
X1.138 Y-21.557
X0.996 Y-21.561
X0.854 Y-21.568
X0.711 Y-21.576
X0.569 Y-21.578
X0.427 Y-21.58
X0.285 Y-21.585
X0.143
X0.001 Y-21.584
X-0.142 Y-21.585
X-0.284
X-0.426 Y-21.58
X-0.568 Y-21.578
X-0.71 Y-21.576
X-0.852 Y-21.569
X-0.994 Y-21.561
X-1.137 Y-21.557
X-1.279 Y-21.548
X-1.421 Y-21.537
X-1.563 Y-21.529
X-1.705 Y-21.52
X-1.847 Y-21.506
X-1.99 Y-21.493
X-2.132 Y-21.482
X-2.274 Y-21.466
X-2.296 Y-21.463
X-2.416 Y-21.448
X-2.558 Y-21.434
X-2.7 Y-21.417
X-2.842 Y-21.396
X-2.985 Y-21.378
X-3.127 Y-21.36
X-3.269 Y-21.336
X-3.361 Y-21.321
X-3.553 Y-21.293
X-3.695 Y-21.267
X-3.837 Y-21.24
X-3.98 Y-21.216
X-4.122 Y-21.189
X-4.264 Y-21.159
X-4.406 Y-21.131
X-4.548 Y-21.103
X-4.69 Y-21.069
X-4.833 Y-21.037
X-4.975 Y-21.006
X-5.117 Y-20.97
X-5.259 Y-20.934
X-5.424 Y-20.894
X-5.543 Y-20.862
X-5.685 Y-20.822
X-5.828 Y-20.784
X-5.947 Y-20.752
X-5.97 Y-20.745
X-6.112 Y-20.701
X-6.254 Y-20.659
X-6.396 Y-20.618
X-6.422 Y-20.61
X-6.538 Y-20.571
X-6.68 Y-20.525
X-6.823 Y-20.481
X-6.862 Y-20.468
X-6.965 Y-20.431
X-7.107 Y-20.381
X-7.271 Y-20.326
X-7.391 Y-20.281
X-7.533 Y-20.227
X-7.676 Y-20.175
X-7.818 Y-20.121
X-7.96 Y-20.063
X-8.014 Y-20.041
X-8.102 Y-20.007
X-8.244 Y-19.951
X-8.386 Y-19.889
X-8.528 Y-19.829
X-8.671 Y-19.77
X-8.697 Y-19.757
X-8.813 Y-19.704
X-8.955 Y-19.64
X-9.012 Y-19.615
X-9.097 Y-19.577
X-9.239 Y-19.507
X-9.31 Y-19.473
X-9.381 Y-19.44
X-9.524 Y-19.373
X-9.606 Y-19.331
X-9.666 Y-19.3
X-9.808 Y-19.228
X-9.888 Y-19.189
X-9.95 Y-19.158
X-10.092 Y-19.08
X-10.154 Y-19.046
X-10.234 Y-19.004
X-10.376 Y-18.93
X-10.422 Y-18.904
X-10.519 Y-18.848
X-10.661 Y-18.769
X-10.673 Y-18.762
X-10.803 Y-18.69
X-10.919 Y-18.62
X-10.945 Y-18.604
X-11.087 Y-18.52
X-11.161 Y-18.478
X-11.229 Y-18.437
X-11.388 Y-18.336
X-11.62 Y-18.193
X-11.656 Y-18.17
X-11.798 Y-18.074
X-11.833 Y-18.051
X-11.94 Y-17.983
X-12.052 Y-17.909
X-12.082 Y-17.888
X-12.224 Y-17.789
X-12.367 Y-17.693
X-12.464 Y-17.625
X-12.509 Y-17.592
X-12.651 Y-17.488
X-12.659 Y-17.483
X-12.793 Y-17.388
X-12.856 Y-17.341
X-12.935 Y-17.28
X-13.043 Y-17.198
X-13.077 Y-17.173
X-13.219 Y-17.066
X-13.362 Y-16.951
X-13.409 Y-16.914
X-13.504 Y-16.841
X-13.591 Y-16.772
X-13.646 Y-16.725
X-13.759 Y-16.63
X-13.788 Y-16.607
X-13.93 Y-16.491
X-13.935 Y-16.488
X-14.072 Y-16.367
X-14.096 Y-16.346
X-14.215 Y-16.245
X-14.263 Y-16.203
X-14.357 Y-16.12
X-14.42 Y-16.061
X-14.499 Y-15.989
X-14.578 Y-15.919
X-14.641 Y-15.864
X-14.732 Y-15.777
X-14.783 Y-15.728
X-14.881 Y-15.635
X-14.925 Y-15.594
X-15.033 Y-15.493
X-15.173 Y-15.351
X-15.21 Y-15.315
X-15.32 Y-15.208
X-15.352 Y-15.177
X-15.457 Y-15.066
X-15.494 Y-15.027
X-15.595 Y-14.924
X-15.636 Y-14.883
X-15.731 Y-14.782
X-15.778 Y-14.73
X-15.86 Y-14.64
X-15.92 Y-14.576
X-15.995 Y-14.498
X-16.062 Y-14.421
X-16.119 Y-14.356
X-16.205 Y-14.258
X-16.245 Y-14.213
X-16.347 Y-14.099
X-16.37 Y-14.071
X-16.488 Y-13.929
X-16.611 Y-13.787
X-16.631 Y-13.763
X-16.725 Y-13.645
X-16.773 Y-13.584
X-16.84 Y-13.503
X-16.915 Y-13.412
X-16.956 Y-13.361
X-17.063 Y-13.218
X-17.175 Y-13.076
X-17.2 Y-13.044
X-17.282 Y-12.934
X-17.342 Y-12.851
X-17.385 Y-12.792
X-17.492 Y-12.65
X-17.592 Y-12.508
X-17.626 Y-12.458
X-17.692 Y-12.366
X-17.768 Y-12.259
X-17.794 Y-12.223
X-17.887 Y-12.081
X-17.91 Y-12.046
X-17.983 Y-11.939
X-18.053 Y-11.837
X-18.079 Y-11.797
X-18.167 Y-11.655
X-18.195 Y-11.611
X-18.259 Y-11.513
X-18.337 Y-11.392
X-18.35 Y-11.37
X-18.434 Y-11.228
X-18.479 Y-11.154
X-18.522 Y-11.086
X-18.607 Y-10.944
X-18.687 Y-10.802
X-18.763 Y-10.672
X-18.77 Y-10.66
X-18.851 Y-10.518
X-18.927 Y-10.375
X-19.006 Y-10.233
X-19.048 Y-10.159
X-19.082 Y-10.091
X-19.154 Y-9.949
X-19.19 Y-9.882
X-19.23 Y-9.807
X-19.302 Y-9.665
X-19.37 Y-9.523
X-19.441 Y-9.38
X-19.474 Y-9.315
X-19.51 Y-9.238
X-19.574 Y-9.096
X-19.616 Y-9.006
X-19.641 Y-8.954
X-19.706 Y-8.812
X-19.766 Y-8.67
X-19.83 Y-8.528
X-19.892 Y-8.385
X-19.948 Y-8.243
X-20.008 Y-8.101
X-20.043 Y-8.018
X-20.067 Y-7.959
X-20.12 Y-7.817
X-20.175 Y-7.675
X-20.185 Y-7.649
X-20.231 Y-7.533
X-20.28 Y-7.39
X-20.327 Y-7.26
X-20.384 Y-7.106
X-20.431 Y-6.964
X-20.469 Y-6.847
X-20.527 Y-6.68
X-20.572 Y-6.538
X-20.615 Y-6.395
X-20.66 Y-6.253
X-20.704 Y-6.111
X-20.743 Y-5.969
X-20.753 Y-5.93
X-20.784 Y-5.827
X-20.825 Y-5.685
X-20.861 Y-5.542
X-20.896 Y-5.41
X-20.937 Y-5.258
X-20.97 Y-5.116
X-21.003 Y-4.974
X-21.039 Y-4.832
X-21.071 Y-4.69
X-21.1 Y-4.547
X-21.131 Y-4.405
X-21.162 Y-4.263
X-21.188 Y-4.121
X-21.215 Y-3.979
X-21.244 Y-3.837
X-21.267 Y-3.695
X-21.29 Y-3.552
X-21.316 Y-3.41
X-21.322 Y-3.374
X-21.337 Y-3.268
X-21.356 Y-3.126
X-21.379 Y-2.984
X-21.399 Y-2.842
X-21.415 Y-2.7
X-21.433 Y-2.557
X-21.452 Y-2.415
X-21.464 Y-2.287
X-21.465 Y-2.273
X-21.479 Y-2.131
X-21.495 Y-1.989
X-21.507 Y-1.847
X-21.517 Y-1.705
X-21.529 Y-1.562
X-21.541 Y-1.42
X-21.547 Y-1.278
X-21.555 Y-1.136
X-21.564 Y-0.994
X-21.569 Y-0.852
X-21.572 Y-0.71
X-21.579 Y-0.567
X-21.583 Y-0.425
Y-0.283
X-21.585 Y-0.141
X-21.587 Y0.001
X-21.585 Y0.143
X-21.583 Y0.285
Y0.428
X-21.579 Y0.57
X-21.572 Y0.712
X-21.569 Y0.854
X-21.564 Y0.996
X-21.555 Y1.138
X-21.547 Y1.281
X-21.54 Y1.423
X-21.529 Y1.565
X-21.517 Y1.707
X-21.507 Y1.849
X-21.494 Y1.991
X-21.479 Y2.133
X-21.465 Y2.276
X-21.464 Y2.287
X-21.452 Y2.418
X-21.433 Y2.56
X-21.415 Y2.702
X-21.399 Y2.844
X-21.378 Y2.986
X-21.356 Y3.128
X-21.337 Y3.271
X-21.322 Y3.374
X-21.315 Y3.413
X-21.29 Y3.555
X-21.266 Y3.697
X-21.243 Y3.839
X-21.215 Y3.981
X-21.187 Y4.123
X-21.162 Y4.266
X-21.131 Y4.408
X-21.099 Y4.55
X-21.07 Y4.692
X-21.038 Y4.834
X-21.003 Y4.976
X-20.97 Y5.118
X-20.937 Y5.261
X-20.896 Y5.41
X-20.861 Y5.545
X-20.825 Y5.687
X-20.783 Y5.829
X-20.753 Y5.93
X-20.742 Y5.971
X-20.703 Y6.113
X-20.66 Y6.256
X-20.614 Y6.398
X-20.572 Y6.54
X-20.526 Y6.682
X-20.469 Y6.847
X-20.431 Y6.966
X-20.383 Y7.109
X-20.327 Y7.26
X-20.28 Y7.393
X-20.23 Y7.535
X-20.185 Y7.649
X-20.174 Y7.677
X-20.119 Y7.819
X-20.066 Y7.961
X-20.043 Y8.018
X-20.007 Y8.104
X-19.947 Y8.246
X-19.891 Y8.388
X-19.829 Y8.53
X-19.765 Y8.672
X-19.705 Y8.814
X-19.64 Y8.956
X-19.616 Y9.006
X-19.573 Y9.099
X-19.509 Y9.241
X-19.474 Y9.315
X-19.44 Y9.383
X-19.369 Y9.525
X-19.301 Y9.667
X-19.229 Y9.809
X-19.19 Y9.882
X-19.153 Y9.951
X-19.081 Y10.094
X-19.048 Y10.159
X-19.005 Y10.236
X-18.925 Y10.378
X-18.849 Y10.52
X-18.769 Y10.662
X-18.763 Y10.672
X-18.685 Y10.804
X-18.605 Y10.946
X-18.52 Y11.089
X-18.479 Y11.154
X-18.432 Y11.231
X-18.348 Y11.373
X-18.337 Y11.392
X-18.258 Y11.515
X-18.195 Y11.611
X-18.166 Y11.657
X-18.077 Y11.799
X-18.053 Y11.837
X-17.981 Y11.941
X-17.91 Y12.046
X-17.886 Y12.084
X-17.792 Y12.226
X-17.768 Y12.259
X-17.69 Y12.368
X-17.626 Y12.458
X-17.591 Y12.51
X-17.49 Y12.652
X-17.383 Y12.794
X-17.342 Y12.851
X-17.281 Y12.936
X-17.2 Y13.044
X-17.173 Y13.079
X-17.062 Y13.221
X-16.954 Y13.363
X-16.915 Y13.412
X-16.838 Y13.505
X-16.773 Y13.584
X-16.724 Y13.647
X-16.631 Y13.763
X-16.609 Y13.789
X-16.486 Y13.932
X-16.347 Y14.099
X-16.243 Y14.216
X-16.205 Y14.258
X-16.117 Y14.358
X-16.062 Y14.421
X-15.992 Y14.5
X-15.92 Y14.576
X-15.858 Y14.642
X-15.778 Y14.73
X-15.748 Y14.763
X-15.706 Y14.81
X-15.663 Y14.855
X-15.575 Y14.944
X-15.401 Y15.126 Z-0.501
X-15.223 Y15.303
X-15.045 Y15.48 Z-0.502
X-14.862 Y15.652 Z-0.504
X-14.681 Y15.826 Z-0.505
X-14.494 Y15.994 Z-0.507
X-14.309 Y16.164 Z-0.509
X-14.118 Y16.327 Z-0.512
X-13.929 Y16.492 Z-0.514
X-13.734 Y16.651 Z-0.517
X-13.541 Y16.812 Z-0.52
X-13.343 Y16.966 Z-0.523
X-13.146 Y17.122 Z-0.527
X-12.945 Y17.272 Z-0.53
X-12.744 Y17.423 Z-0.534
X-12.54 Y17.569 Z-0.538
X-12.335 Y17.714 Z-0.542
X-12.128 Y17.856 Z-0.546
X-11.919 Y17.996 Z-0.551
X-11.709 Y18.134 Z-0.555
X-11.497 Y18.268 Z-0.56
X-11.284 Y18.402 Z-0.564
X-11.069 Y18.531 Z-0.568
X-10.853 Y18.66 Z-0.573
X-10.635 Y18.783 Z-0.577
X-10.416 Y18.907 Z-0.581
X-10.195 Y19.025 Z-0.586
X-9.974 Y19.145 Z-0.59
X-9.749 Y19.257 Z-0.595
X-9.526 Y19.372 Z-0.599
X-9.298 Y19.478 Z-0.603
X-9.073 Y19.588 Z-0.608
X-8.843 Y19.69 Z-0.612
X-8.614 Y19.794 Z-0.617
X-8.382 Y19.89 Z-0.621
X-8.151 Y19.989 Z-0.625
X-7.917 Y20.08 Z-0.63
X-7.684 Y20.172 Z-0.634
X-7.448 Y20.259 Z-0.638
X-7.212 Y20.345 Z-0.643
X-6.975 Y20.427 Z-0.647
X-6.737 Y20.507 Z-0.652
X-6.498 Y20.585 Z-0.656
X-6.258 Y20.658 Z-0.66
X-6.017 Y20.731 Z-0.665
X-5.775 Y20.798 Z-0.669
X-5.533 Y20.865 Z-0.674
X-5.29 Y20.926 Z-0.678
X-5.046 Y20.989 Z-0.682
X-4.801 Y21.043 Z-0.687
X-4.557 Y21.101 Z-0.691
X-4.31 Y21.149 Z-0.695
X-4.065 Y21.201 Z-0.7
X-3.817 Y21.244 Z-0.704
X-3.57 Y21.29 Z-0.708
X-3.322 Y21.327 Z-0.713
X-3.074 Y21.367 Z-0.716
X-2.825 Y21.399 Z-0.72
X-2.576 Y21.432 Z-0.724
X-2.326 Y21.459 Z-0.727
X-2.076 Y21.486 Z-0.73
X-1.826 Y21.508 Z-0.733
X-1.576 Y21.528 Z-0.736
X-1.325 Y21.545 Z-0.739
X-1.074 Y21.559 Z-0.741
X-0.824 Y21.57 Z-0.743
X-0.573 Y21.577 Z-0.745
X-0.321 Y21.584 Z-0.746
X-0.07 Y21.585 Z-0.748
X0.181 Y21.586 Z-0.749
X0.432 Y21.58
X0.683 Y21.576 Z-0.75
X0.79 Y21.572
X0.897 Y21.566
X0.996 Y21.561
X1.138 Y21.557
X1.28 Y21.548
X1.422 Y21.537
X1.564 Y21.529
X1.706 Y21.52
X1.849 Y21.506
X1.991 Y21.493
X2.133 Y21.482
X2.275 Y21.465
X2.417 Y21.448
X2.559 Y21.434
X2.701 Y21.417
X2.844 Y21.396
X2.986 Y21.378
X3.128 Y21.36
X3.27 Y21.336
X3.345 Y21.323
X3.412 Y21.313
X3.554 Y21.292
X3.697 Y21.267
X3.839 Y21.24
X3.981 Y21.216
X4.123 Y21.189
X4.265 Y21.159
X4.549 Y21.103
X4.692 Y21.069
X4.823 Y21.039
X4.976 Y21.006
X5.118 Y20.97
X5.26 Y20.933
X5.414 Y20.897
X5.544 Y20.862
X5.687 Y20.821
X5.829 Y20.784
X5.939 Y20.755
X5.971 Y20.745
X6.113 Y20.701
X6.255 Y20.659
X6.397 Y20.618
X6.414 Y20.612
X6.54 Y20.571
X6.682 Y20.524
X6.824 Y20.48
X6.855 Y20.47
X6.966 Y20.431
X7.108 Y20.38
X7.264 Y20.328
X7.392 Y20.281
X7.535 Y20.226
X7.677 Y20.175
X7.819 Y20.121
X7.961 Y20.062
X8.008 Y20.044
X8.103 Y20.007
X8.245 Y19.95
X8.388 Y19.888
X8.53 Y19.829
X8.672 Y19.769
X8.692 Y19.76
X8.814 Y19.703
X8.956 Y19.639
X9.007 Y19.617
X9.098 Y19.577
X9.24 Y19.507
X9.305 Y19.475
X9.383 Y19.439
X9.525 Y19.373
X9.602 Y19.333
X9.667 Y19.299
X9.809 Y19.227
X9.883 Y19.191
X9.951 Y19.157
X10.093 Y19.08
X10.15 Y19.049
X10.235 Y19.004
X10.378 Y18.929
X10.418 Y18.907
X10.52 Y18.848
X10.662 Y18.768
X10.668 Y18.764
X10.804 Y18.689
X10.915 Y18.622
X10.946 Y18.603
X11.088 Y18.519
X11.156 Y18.48
X11.231 Y18.436
X11.384 Y18.338
X11.515 Y18.258
X11.616 Y18.196
X11.657 Y18.169
X11.799 Y18.074
X11.829 Y18.054
X11.941 Y17.982
X12.049 Y17.912
X12.083 Y17.887
X12.226 Y17.788
X12.368 Y17.693
X12.46 Y17.627
X12.51 Y17.591
X12.652 Y17.488
X12.794 Y17.388
X12.853 Y17.343
X12.936 Y17.279
X13.039 Y17.201
X13.078 Y17.172
X13.221 Y17.065
X13.363 Y16.95
X13.406 Y16.917
X13.505 Y16.84
X13.588 Y16.774
X13.647 Y16.724
X13.756 Y16.632
X13.789 Y16.606
X13.931 Y16.49
X13.932
X14.074 Y16.366
X14.093 Y16.348
X14.216 Y16.244
X14.26 Y16.206
X14.358 Y16.119
X14.418 Y16.064
X14.5 Y15.988
X14.576 Y15.922
X14.642 Y15.863
X14.73 Y15.779
X14.784 Y15.727
X14.879 Y15.637
X14.926 Y15.593
X15.03 Y15.495
X15.171 Y15.353
X15.211 Y15.314
X15.318 Y15.211
X15.353 Y15.176
X15.455 Y15.069
X15.495 Y15.026
X15.593 Y14.927
X15.637 Y14.881
X15.729 Y14.784
X15.779 Y14.729
X15.858 Y14.642
X15.922 Y14.575
X15.992 Y14.5
X16.064 Y14.42
X16.117 Y14.358
X16.206 Y14.257
X16.243 Y14.216
X16.348 Y14.098
X16.368 Y14.074
X16.486 Y13.932
X16.609 Y13.789
X16.632 Y13.762
X16.724 Y13.647
X16.774 Y13.583
X16.838 Y13.505
X16.917 Y13.41
X16.954 Y13.363
X17.062 Y13.221
X17.173 Y13.079
X17.201 Y13.043
X17.281 Y12.936
X17.343 Y12.85
X17.383 Y12.794
X17.49 Y12.652
X17.591 Y12.51
X17.627 Y12.457
X17.69 Y12.368
X17.769 Y12.257
X17.792 Y12.226
X17.886 Y12.084
X17.912 Y12.044
X17.981 Y11.941
X18.054 Y11.835
X18.077 Y11.799
X18.166 Y11.657
X18.196 Y11.609
X18.258 Y11.515
X18.338 Y11.39
X18.348 Y11.373
X18.432 Y11.231
X18.48 Y11.153
X18.52 Y11.089
X18.605 Y10.946
X18.685 Y10.804
X18.765 Y10.67
X18.769 Y10.662
X18.849 Y10.52
X18.925 Y10.378
X19.005 Y10.236
X19.049 Y10.157
X19.081 Y10.094
X19.153 Y9.951
X19.191 Y9.88
X19.229 Y9.809
X19.301 Y9.667
X19.369 Y9.525
X19.44 Y9.383
X19.475 Y9.313
X19.509 Y9.241
X19.573 Y9.099
X19.617 Y9.004
X19.64 Y8.956
X19.705 Y8.814
X19.765 Y8.672
X19.829 Y8.53
X19.891 Y8.388
X19.947 Y8.246
X20.007 Y8.104
X20.044 Y8.015
X20.066 Y7.961
X20.119 Y7.819
X20.174 Y7.677
X20.186 Y7.646
X20.23 Y7.535
X20.28 Y7.393
X20.328 Y7.256
X20.383 Y7.109
X20.431 Y6.966
X20.47 Y6.843
X20.526 Y6.682
X20.572 Y6.54
X20.614 Y6.398
X20.66 Y6.256
X20.703 Y6.113
X20.742 Y5.971
X20.755 Y5.926
X20.783 Y5.829
X20.825 Y5.687
X20.861 Y5.545
X20.897 Y5.406
X20.937 Y5.261
X20.97 Y5.118
X21.003 Y4.976
X21.039 Y4.831
X21.07 Y4.692
X21.099 Y4.55
X21.131 Y4.408
X21.162 Y4.266
X21.187 Y4.123
X21.215 Y3.981
X21.243 Y3.839
X21.266 Y3.697
X21.29 Y3.555
X21.315 Y3.413
X21.323 Y3.367
X21.337 Y3.271
X21.356 Y3.128
X21.378 Y2.986
X21.399 Y2.844
X21.415 Y2.702
X21.433 Y2.56
X21.452 Y2.418
X21.465 Y2.276
Y2.273
X21.479 Y2.133
X21.494 Y1.991
X21.507 Y1.849
X21.517 Y1.707
X21.529 Y1.565
X21.54 Y1.423
X21.547 Y1.281
X21.555 Y1.138
X21.564 Y0.996
X21.569 Y0.854
X21.572 Y0.712
X21.579 Y0.57
X21.583 Y0.428
Y0.285
X21.585 Y0.143
X21.587 Y0.001
X21.585 Y-0.141
X21.583 Y-0.283
Y-0.425
X21.579 Y-0.567
X21.572 Y-0.71
X21.569 Y-0.852
X21.564 Y-0.994
X21.555 Y-1.136
X21.547 Y-1.278
X21.541 Y-1.42
X21.529 Y-1.562
X21.517 Y-1.705
X21.507 Y-1.847
X21.495 Y-1.989
X21.479 Y-2.131
X21.465 Y-2.273
X21.452 Y-2.415
X21.433 Y-2.557
X21.415 Y-2.7
X21.399 Y-2.842
X21.379 Y-2.984
X21.356 Y-3.126
X21.337 Y-3.268
X21.323 Y-3.367
X21.316 Y-3.41
X21.29 Y-3.552
X21.267 Y-3.695
X21.244 Y-3.837
X21.215 Y-3.979
X21.188 Y-4.121
X21.162 Y-4.263
X21.131 Y-4.405
X21.1 Y-4.547
X21.071 Y-4.69
X21.039 Y-4.831
X21.003 Y-4.974
X20.97 Y-5.116
X20.937 Y-5.258
X20.897 Y-5.406
X20.861 Y-5.542
X20.825 Y-5.685
X20.784 Y-5.827
X20.755 Y-5.926
X20.743 Y-5.969
X20.704 Y-6.111
X20.66 Y-6.253
X20.615 Y-6.395
X20.572 Y-6.538
X20.527 Y-6.68
X20.47 Y-6.843
X20.431 Y-6.964
X20.384 Y-7.106
X20.328 Y-7.256
X20.28 Y-7.39
X20.231 Y-7.533
X20.186 Y-7.646
X20.175 Y-7.675
X20.12 Y-7.817
X20.067 Y-7.959
X20.044 Y-8.015
X20.008 Y-8.101
X19.948 Y-8.243
X19.892 Y-8.385
X19.83 Y-8.528
X19.766 Y-8.67
X19.706 Y-8.812
X19.641 Y-8.954
X19.617 Y-9.004
X19.574 Y-9.096
X19.51 Y-9.238
X19.475 Y-9.313
X19.441 Y-9.38
X19.37 Y-9.523
X19.302 Y-9.665
X19.23 Y-9.807
X19.191 Y-9.88
X19.154 Y-9.949
X19.082 Y-10.091
X19.049 Y-10.157
X19.006 Y-10.233
X18.927 Y-10.375
X18.851 Y-10.518
X18.77 Y-10.66
X18.765 Y-10.67
X18.687 Y-10.802
X18.607 Y-10.944
X18.522 Y-11.086
X18.48 Y-11.153
X18.434 Y-11.228
X18.35 Y-11.37
X18.338 Y-11.39
X18.259 Y-11.513
X18.196 Y-11.609
X18.167 Y-11.655
X18.079 Y-11.797
X18.054 Y-11.835
X17.983 Y-11.939
X17.912 Y-12.044
X17.887 Y-12.081
X17.794 Y-12.223
X17.769 Y-12.257
X17.692 Y-12.366
X17.627 Y-12.457
X17.592 Y-12.508
X17.492 Y-12.65
X17.385 Y-12.792
X17.343 Y-12.85
X17.282 Y-12.934
X17.201 Y-13.043
X17.175 Y-13.076
X17.063 Y-13.218
X16.956 Y-13.361
X16.917 Y-13.41
X16.84 Y-13.503
X16.774 Y-13.583
X16.725 Y-13.645
X16.632 Y-13.762
X16.611 Y-13.787
X16.488 Y-13.929
X16.37 Y-14.071
X16.348 Y-14.098
X16.245 Y-14.213
X16.206 Y-14.257
X16.119 Y-14.356
X16.064 Y-14.42
X15.995 Y-14.498
X15.922 Y-14.575
X15.86 Y-14.64
X15.779 Y-14.729
X15.731 Y-14.782
X15.637 Y-14.881
X15.595 Y-14.924
X15.495 Y-15.026
X15.457 Y-15.066
X15.353 Y-15.176
X15.32 Y-15.208
X15.211 Y-15.314
X15.173 Y-15.351
X15.033 Y-15.493
X14.926 Y-15.593
X14.881 Y-15.635
X14.784 Y-15.727
X14.732 Y-15.777
X14.642 Y-15.863
X14.578 Y-15.919
X14.5 Y-15.988
X14.42 Y-16.061
X14.358 Y-16.119
X14.263 Y-16.203
X14.216 Y-16.244
X14.096 Y-16.346
X14.074 Y-16.366
X13.935 Y-16.488
X13.931 Y-16.49
X13.789 Y-16.606
X13.759 Y-16.63
X13.647 Y-16.724
X13.591 Y-16.772
X13.505 Y-16.84
X13.409 Y-16.914
X13.363 Y-16.95
X13.221 Y-17.065
X13.078 Y-17.172
X13.043 Y-17.198
X12.936 Y-17.279
X12.856 Y-17.341
X12.794 Y-17.388
X12.659 Y-17.483
X12.652 Y-17.488
X12.51 Y-17.591
X12.464 Y-17.625
X12.368 Y-17.693
X12.226 Y-17.788
X12.083 Y-17.887
X12.052 Y-17.909
X11.941 Y-17.982
X11.833 Y-18.051
X11.799 Y-18.074
X11.657 Y-18.169
X11.62 Y-18.193
X11.388 Y-18.336
X11.231 Y-18.436
X11.161 Y-18.478
X11.088 Y-18.519
X10.946 Y-18.603
X10.919 Y-18.62
X10.804 Y-18.689
X10.673 Y-18.762
X10.662 Y-18.768
X10.52 Y-18.848
X10.422 Y-18.904
X10.378 Y-18.929
X10.235 Y-19.004
X10.154 Y-19.046
X10.093 Y-19.08
X9.951 Y-19.157
X9.888 Y-19.189
X9.809 Y-19.227
X9.667 Y-19.299
X9.606 Y-19.331
X9.525 Y-19.373
X9.383 Y-19.439
X9.31 Y-19.473
X9.24 Y-19.507
X9.098 Y-19.577
X9.012 Y-19.615
X8.956 Y-19.639
X8.814 Y-19.703
X8.697 Y-19.757
X8.672 Y-19.769
X8.53 Y-19.829
X8.388 Y-19.888
X8.245 Y-19.95
X8.103 Y-20.007
X8.014 Y-20.041
X7.961 Y-20.062
X7.819 Y-20.121
X7.677 Y-20.175
X7.535 Y-20.226
X7.392 Y-20.281
X7.271 Y-20.326
X7.108 Y-20.38
X6.966 Y-20.431
X6.862 Y-20.468
X6.824 Y-20.48
X6.682 Y-20.524
X6.54 Y-20.571
X6.422 Y-20.61
X6.397 Y-20.618
X6.255 Y-20.659
X6.113 Y-20.701
X5.971 Y-20.745
X5.947 Y-20.752
X5.829 Y-20.784
X5.687 Y-20.821
X5.544 Y-20.862
X5.424 Y-20.894
X5.26 Y-20.933
X5.118 Y-20.97
X4.976 Y-21.006
X4.834 Y-21.037
X4.692 Y-21.069
X4.549 Y-21.103
X4.265 Y-21.159
X4.123 Y-21.189
X3.981 Y-21.216
X3.839 Y-21.24
X3.697 Y-21.267
X3.554 Y-21.292
X3.361 Y-21.321
X3.27 Y-21.336
X3.128 Y-21.36
X2.986 Y-21.378
X2.844 Y-21.396
X2.701 Y-21.417
X2.559 Y-21.434
X2.417 Y-21.448
X2.296 Y-21.463
X2.275 Y-21.465
X2.133 Y-21.482
X1.991 Y-21.493
X1.849 Y-21.506
X1.706 Y-21.52
X1.564 Y-21.529
X1.422 Y-21.537
X1.28 Y-21.548
X1.138 Y-21.557
X0.996 Y-21.561
X0.854 Y-21.568
X0.711 Y-21.576
X0.569 Y-21.578
X0.427 Y-21.58
X0.285 Y-21.585
X0.143
X0.001 Y-21.584
X-0.142 Y-21.585
X-0.284
X-0.426 Y-21.58
X-0.568 Y-21.578
X-0.71 Y-21.576
X-0.852 Y-21.569
X-0.994 Y-21.561
X-1.137 Y-21.557
X-1.279 Y-21.548
X-1.421 Y-21.537
X-1.563 Y-21.529
X-1.705 Y-21.52
X-1.847 Y-21.506
X-1.99 Y-21.493
X-2.132 Y-21.482
X-2.274 Y-21.466
X-2.296 Y-21.463
X-2.416 Y-21.448
X-2.558 Y-21.434
X-2.7 Y-21.417
X-2.842 Y-21.396
X-2.985 Y-21.378
X-3.127 Y-21.36
X-3.269 Y-21.336
X-3.361 Y-21.321
X-3.553 Y-21.293
X-3.695 Y-21.267
X-3.837 Y-21.24
X-3.98 Y-21.216
X-4.122 Y-21.189
X-4.264 Y-21.159
X-4.406 Y-21.131
X-4.548 Y-21.103
X-4.69 Y-21.069
X-4.833 Y-21.037
X-4.975 Y-21.006
X-5.117 Y-20.97
X-5.259 Y-20.934
X-5.424 Y-20.894
X-5.543 Y-20.862
X-5.685 Y-20.822
X-5.828 Y-20.784
X-5.947 Y-20.752
X-5.97 Y-20.745
X-6.112 Y-20.701
X-6.254 Y-20.659
X-6.396 Y-20.618
X-6.422 Y-20.61
X-6.538 Y-20.571
X-6.68 Y-20.525
X-6.823 Y-20.481
X-6.862 Y-20.468
X-6.965 Y-20.431
X-7.107 Y-20.381
X-7.271 Y-20.326
X-7.391 Y-20.281
X-7.533 Y-20.227
X-7.676 Y-20.175
X-7.818 Y-20.121
X-7.96 Y-20.063
X-8.014 Y-20.041
X-8.102 Y-20.007
X-8.244 Y-19.951
X-8.386 Y-19.889
X-8.528 Y-19.829
X-8.671 Y-19.77
X-8.697 Y-19.757
X-8.813 Y-19.704
X-8.955 Y-19.64
X-9.012 Y-19.615
X-9.097 Y-19.577
X-9.239 Y-19.507
X-9.31 Y-19.473
X-9.381 Y-19.44
X-9.524 Y-19.373
X-9.606 Y-19.331
X-9.666 Y-19.3
X-9.808 Y-19.228
X-9.888 Y-19.189
X-9.95 Y-19.158
X-10.092 Y-19.08
X-10.154 Y-19.046
X-10.234 Y-19.004
X-10.376 Y-18.93
X-10.422 Y-18.904
X-10.519 Y-18.848
X-10.661 Y-18.769
X-10.673 Y-18.762
X-10.803 Y-18.69
X-10.919 Y-18.62
X-10.945 Y-18.604
X-11.087 Y-18.52
X-11.161 Y-18.478
X-11.229 Y-18.437
X-11.388 Y-18.336
X-11.62 Y-18.193
X-11.656 Y-18.17
X-11.798 Y-18.074
X-11.833 Y-18.051
X-11.94 Y-17.983
X-12.052 Y-17.909
X-12.082 Y-17.888
X-12.224 Y-17.789
X-12.367 Y-17.693
X-12.464 Y-17.625
X-12.509 Y-17.592
X-12.651 Y-17.488
X-12.659 Y-17.483
X-12.793 Y-17.388
X-12.856 Y-17.341
X-12.935 Y-17.28
X-13.043 Y-17.198
X-13.077 Y-17.173
X-13.219 Y-17.066
X-13.362 Y-16.951
X-13.409 Y-16.914
X-13.504 Y-16.841
X-13.591 Y-16.772
X-13.646 Y-16.725
X-13.759 Y-16.63
X-13.788 Y-16.607
X-13.93 Y-16.491
X-13.935 Y-16.488
X-14.072 Y-16.367
X-14.096 Y-16.346
X-14.215 Y-16.245
X-14.263 Y-16.203
X-14.357 Y-16.12
X-14.42 Y-16.061
X-14.499 Y-15.989
X-14.578 Y-15.919
X-14.641 Y-15.864
X-14.732 Y-15.777
X-14.783 Y-15.728
X-14.881 Y-15.635
X-14.925 Y-15.594
X-15.033 Y-15.493
X-15.173 Y-15.351
X-15.21 Y-15.315
X-15.32 Y-15.208
X-15.352 Y-15.177
X-15.457 Y-15.066
X-15.494 Y-15.027
X-15.595 Y-14.924
X-15.636 Y-14.883
X-15.731 Y-14.782
X-15.778 Y-14.73
X-15.86 Y-14.64
X-15.92 Y-14.576
X-15.995 Y-14.498
X-16.062 Y-14.421
X-16.119 Y-14.356
X-16.205 Y-14.258
X-16.245 Y-14.213
X-16.347 Y-14.099
X-16.37 Y-14.071
X-16.488 Y-13.929
X-16.611 Y-13.787
X-16.631 Y-13.763
X-16.725 Y-13.645
X-16.773 Y-13.584
X-16.84 Y-13.503
X-16.915 Y-13.412
X-16.956 Y-13.361
X-17.063 Y-13.218
X-17.175 Y-13.076
X-17.2 Y-13.044
X-17.282 Y-12.934
X-17.342 Y-12.851
X-17.385 Y-12.792
X-17.492 Y-12.65
X-17.592 Y-12.508
X-17.626 Y-12.458
X-17.692 Y-12.366
X-17.768 Y-12.259
X-17.794 Y-12.223
X-17.887 Y-12.081
X-17.91 Y-12.046
X-17.983 Y-11.939
X-18.053 Y-11.837
X-18.079 Y-11.797
X-18.167 Y-11.655
X-18.195 Y-11.611
X-18.259 Y-11.513
X-18.337 Y-11.392
X-18.35 Y-11.37
X-18.434 Y-11.228
X-18.479 Y-11.154
X-18.522 Y-11.086
X-18.607 Y-10.944
X-18.687 Y-10.802
X-18.763 Y-10.672
X-18.77 Y-10.66
X-18.851 Y-10.518
X-18.927 Y-10.375
X-19.006 Y-10.233
X-19.048 Y-10.159
X-19.082 Y-10.091
X-19.154 Y-9.949
X-19.19 Y-9.882
X-19.23 Y-9.807
X-19.302 Y-9.665
X-19.37 Y-9.523
X-19.441 Y-9.38
X-19.474 Y-9.315
X-19.51 Y-9.238
X-19.574 Y-9.096
X-19.616 Y-9.006
X-19.641 Y-8.954
X-19.706 Y-8.812
X-19.766 Y-8.67
X-19.83 Y-8.528
X-19.892 Y-8.385
X-19.948 Y-8.243
X-20.008 Y-8.101
X-20.043 Y-8.018
X-20.067 Y-7.959
X-20.12 Y-7.817
X-20.175 Y-7.675
X-20.185 Y-7.649
X-20.231 Y-7.533
X-20.28 Y-7.39
X-20.327 Y-7.26
X-20.384 Y-7.106
X-20.431 Y-6.964
X-20.469 Y-6.847
X-20.527 Y-6.68
X-20.572 Y-6.538
X-20.615 Y-6.395
X-20.66 Y-6.253
X-20.704 Y-6.111
X-20.743 Y-5.969
X-20.753 Y-5.93
X-20.784 Y-5.827
X-20.825 Y-5.685
X-20.861 Y-5.542
X-20.896 Y-5.41
X-20.937 Y-5.258
X-20.97 Y-5.116
X-21.003 Y-4.974
X-21.039 Y-4.832
X-21.071 Y-4.69
X-21.1 Y-4.547
X-21.131 Y-4.405
X-21.162 Y-4.263
X-21.188 Y-4.121
X-21.215 Y-3.979
X-21.244 Y-3.837
X-21.267 Y-3.695
X-21.29 Y-3.552
X-21.316 Y-3.41
X-21.322 Y-3.374
X-21.337 Y-3.268
X-21.356 Y-3.126
X-21.379 Y-2.984
X-21.399 Y-2.842
X-21.415 Y-2.7
X-21.433 Y-2.557
X-21.452 Y-2.415
X-21.464 Y-2.287
X-21.465 Y-2.273
X-21.479 Y-2.131
X-21.495 Y-1.989
X-21.507 Y-1.847
X-21.517 Y-1.705
X-21.529 Y-1.562
X-21.541 Y-1.42
X-21.547 Y-1.278
X-21.555 Y-1.136
X-21.564 Y-0.994
X-21.569 Y-0.852
X-21.572 Y-0.71
X-21.579 Y-0.567
X-21.583 Y-0.425
Y-0.283
X-21.585 Y-0.141
X-21.587 Y0.001
X-21.585 Y0.143
X-21.583 Y0.285
Y0.428
X-21.579 Y0.57
X-21.572 Y0.712
X-21.569 Y0.854
X-21.564 Y0.996
X-21.555 Y1.138
X-21.547 Y1.281
X-21.54 Y1.423
X-21.529 Y1.565
X-21.517 Y1.707
X-21.507 Y1.849
X-21.494 Y1.991
X-21.479 Y2.133
X-21.465 Y2.276
X-21.464 Y2.287
X-21.452 Y2.418
X-21.433 Y2.56
X-21.415 Y2.702
X-21.399 Y2.844
X-21.378 Y2.986
X-21.356 Y3.128
X-21.337 Y3.271
X-21.322 Y3.374
X-21.315 Y3.413
X-21.29 Y3.555
X-21.266 Y3.697
X-21.243 Y3.839
X-21.215 Y3.981
X-21.187 Y4.123
X-21.162 Y4.266
X-21.131 Y4.408
X-21.099 Y4.55
X-21.07 Y4.692
X-21.038 Y4.834
X-21.003 Y4.976
X-20.97 Y5.118
X-20.937 Y5.261
X-20.896 Y5.41
X-20.861 Y5.545
X-20.825 Y5.687
X-20.783 Y5.829
X-20.753 Y5.93
X-20.742 Y5.971
X-20.703 Y6.113
X-20.66 Y6.256
X-20.614 Y6.398
X-20.572 Y6.54
X-20.526 Y6.682
X-20.469 Y6.847
X-20.431 Y6.966
X-20.383 Y7.109
X-20.327 Y7.26
X-20.28 Y7.393
X-20.23 Y7.535
X-20.185 Y7.649
X-20.174 Y7.677
X-20.119 Y7.819
X-20.066 Y7.961
X-20.043 Y8.018
X-20.007 Y8.104
X-19.947 Y8.246
X-19.891 Y8.388
X-19.829 Y8.53
X-19.765 Y8.672
X-19.705 Y8.814
X-19.64 Y8.956
X-19.616 Y9.006
X-19.573 Y9.099
X-19.509 Y9.241
X-19.474 Y9.315
X-19.44 Y9.383
X-19.369 Y9.525
X-19.301 Y9.667
X-19.229 Y9.809
X-19.19 Y9.882
X-19.153 Y9.951
X-19.081 Y10.094
X-19.048 Y10.159
X-19.005 Y10.236
X-18.925 Y10.378
X-18.849 Y10.52
X-18.769 Y10.662
X-18.763 Y10.672
X-18.685 Y10.804
X-18.605 Y10.946
X-18.52 Y11.089
X-18.479 Y11.154
X-18.432 Y11.231
X-18.348 Y11.373
X-18.337 Y11.392
X-18.258 Y11.515
X-18.195 Y11.611
X-18.166 Y11.657
X-18.077 Y11.799
X-18.053 Y11.837
X-17.981 Y11.941
X-17.91 Y12.046
X-17.886 Y12.084
X-17.792 Y12.226
X-17.768 Y12.259
X-17.69 Y12.368
X-17.626 Y12.458
X-17.591 Y12.51
X-17.49 Y12.652
X-17.383 Y12.794
X-17.342 Y12.851
X-17.281 Y12.936
X-17.2 Y13.044
X-17.173 Y13.079
X-17.062 Y13.221
X-16.954 Y13.363
X-16.915 Y13.412
X-16.838 Y13.505
X-16.773 Y13.584
X-16.724 Y13.647
X-16.631 Y13.763
X-16.609 Y13.789
X-16.486 Y13.932
X-16.347 Y14.099
X-16.243 Y14.216
X-16.205 Y14.258
X-16.117 Y14.358
X-16.062 Y14.421
X-15.992 Y14.5
X-15.92 Y14.576
X-15.858 Y14.642
X-15.778 Y14.73
X-15.748 Y14.763
X-15.729 Y14.784
X-15.636 Y14.883
X-15.593 Y14.927
X-15.494 Y15.027
X-15.455 Y15.069
X-15.352 Y15.177
X-15.318 Y15.211
X-15.21 Y15.315
X-15.171 Y15.353
X-15.03 Y15.495
X-14.925 Y15.594
X-14.879 Y15.637
X-14.783 Y15.728
X-14.73 Y15.779
X-14.641 Y15.864
X-14.576 Y15.922
X-14.499 Y15.989
X-14.418 Y16.064
X-14.357 Y16.12
X-14.26 Y16.206
X-14.215 Y16.245
X-14.093 Y16.348
X-14.072 Y16.367
X-13.932 Y16.49
X-13.93 Y16.491
X-13.788 Y16.607
X-13.756 Y16.632
X-13.646 Y16.725
X-13.588 Y16.774
X-13.504 Y16.841
X-13.406 Y16.917
X-13.362 Y16.951
X-13.219 Y17.066
X-13.077 Y17.173
X-13.039 Y17.201
X-12.935 Y17.28
X-12.853 Y17.343
X-12.793 Y17.388
X-12.651 Y17.488
X-12.509 Y17.592
X-12.46 Y17.627
X-12.367 Y17.693
X-12.224 Y17.789
X-12.082 Y17.888
X-12.049 Y17.912
X-11.94 Y17.983
X-11.829 Y18.054
X-11.798 Y18.074
X-11.656 Y18.17
X-11.616 Y18.196
X-11.514 Y18.258
X-11.384 Y18.338
X-11.229 Y18.437
X-11.156 Y18.48
X-11.087 Y18.52
X-10.945 Y18.604
X-10.915 Y18.622
X-10.803 Y18.69
X-10.668 Y18.764
X-10.661 Y18.769
X-10.519 Y18.848
X-10.418 Y18.907
X-10.376 Y18.93
X-10.234 Y19.004
X-10.15 Y19.049
X-10.092 Y19.08
X-9.95 Y19.158
X-9.883 Y19.191
X-9.808 Y19.228
X-9.666 Y19.3
X-9.602 Y19.333
X-9.524 Y19.373
X-9.381 Y19.44
X-9.305 Y19.475
X-9.239 Y19.507
X-9.097 Y19.577
X-9.007 Y19.617
X-8.955 Y19.64
X-8.813 Y19.704
X-8.692 Y19.76
X-8.671 Y19.77
X-8.528 Y19.829
X-8.386 Y19.889
X-8.244 Y19.951
X-8.102 Y20.007
X-8.008 Y20.044
X-7.96 Y20.063
X-7.818 Y20.121
X-7.676 Y20.175
X-7.533 Y20.227
X-7.391 Y20.281
X-7.264 Y20.328
X-7.107 Y20.381
X-6.965 Y20.431
X-6.855 Y20.47
X-6.823 Y20.481
X-6.68 Y20.525
X-6.538 Y20.571
X-6.414 Y20.612
X-6.396 Y20.618
X-6.254 Y20.659
X-6.112 Y20.701
X-5.97 Y20.745
X-5.939 Y20.755
X-5.828 Y20.784
X-5.685 Y20.822
X-5.543 Y20.862
X-5.414 Y20.897
X-5.259 Y20.934
X-5.117 Y20.97
X-4.975 Y21.006
X-4.823 Y21.039
X-4.69 Y21.069
X-4.548 Y21.103
X-4.406 Y21.131
X-4.264 Y21.159
X-4.122 Y21.189
X-3.98 Y21.216
X-3.837 Y21.24
X-3.695 Y21.267
X-3.553 Y21.293
X-3.411 Y21.313
X-3.345 Y21.323
X-3.269 Y21.336
X-3.127 Y21.36
X-2.985 Y21.378
X-2.842 Y21.396
X-2.7 Y21.417
X-2.558 Y21.434
X-2.416 Y21.448
X-2.276 Y21.465
X-2.274 Y21.466
X-2.132 Y21.482
X-1.99 Y21.493
X-1.847 Y21.506
X-1.705 Y21.52
X-1.563 Y21.529
X-1.421 Y21.537
X-1.279 Y21.548
X-1.137 Y21.557
X-0.994 Y21.561
X-0.852 Y21.569
X-0.71 Y21.576
X-0.568 Y21.578
X-0.426 Y21.58
X-0.284 Y21.585
X-0.142
X0.001 Y21.584
X0.143 Y21.585
X0.285
X0.427 Y21.58
X0.569 Y21.578
X0.711 Y21.576
X0.854 Y21.568
X0.897 Y21.566
X0.959 Y21.563
X1.022 Y21.56
X1.148 Y21.556
X1.398 Y21.539 Z-0.751
X1.649 Y21.524
X1.899 Y21.5 Z-0.752
X2.149 Y21.48 Z-0.754
X2.399 Y21.45 Z-0.755
X2.649 Y21.424 Z-0.757
X2.897 Y21.389 Z-0.759
X3.146 Y21.357 Z-0.762
X3.394 Y21.316 Z-0.764
X3.642 Y21.277 Z-0.767
X3.889 Y21.231 Z-0.77
X4.136 Y21.186 Z-0.773
X4.382 Y21.135 Z-0.777
X4.628 Y21.084 Z-0.78
X4.873 Y21.028 Z-0.784
X5.117 Y20.97 Z-0.788
X5.361 Y20.909 Z-0.792
X5.604 Y20.845 Z-0.796
X5.846 Y20.779 Z-0.801
X6.087 Y20.709 Z-0.805
X6.328 Y20.638 Z-0.81
X6.567 Y20.561 Z-0.814
X6.807 Y20.486 Z-0.818
X7.044 Y20.403 Z-0.823
X7.282 Y20.322 Z-0.827
X7.516 Y20.233 Z-0.831
X7.753 Y20.147 Z-0.836
X7.985 Y20.053 Z-0.84
X8.219 Y19.962 Z-0.845
X8.45 Y19.862 Z-0.849
X8.681 Y19.765 Z-0.853
X8.91 Y19.66 Z-0.858
X9.139 Y19.557 Z-0.862
X9.365 Y19.447 Z-0.867
X9.591 Y19.339 Z-0.871
X9.815 Y19.225 Z-0.875
X10.038 Y19.11 Z-0.88
X10.26 Y18.991 Z-0.884
X10.48 Y18.871 Z-0.888
X10.699 Y18.748 Z-0.893
X10.916 Y18.622 Z-0.897
X11.132 Y18.494 Z-0.902
X11.56 Y18.23 Z-0.91
X11.77 Y18.093 Z-0.915
X11.981 Y17.957 Z-0.919
X12.188 Y17.814 Z-0.924
X12.396 Y17.674 Z-0.928
X12.599 Y17.525 Z-0.932
X12.804 Y17.38 Z-0.937
X13.003 Y17.228 Z-0.941
X13.205 Y17.078 Z-0.945
X13.401 Y16.92 Z-0.95
X13.598 Y16.766 Z-0.954
X13.791 Y16.604 Z-0.958
X13.984 Y16.444 Z-0.963
X14.174 Y16.279 Z-0.966
X14.363 Y16.114 Z-0.97
X14.549 Y15.945 Z-0.974
X14.734 Y15.775 Z-0.977
X14.916 Y15.603 Z-0.98
X15.097 Y15.428 Z-0.983
X15.275 Y15.252 Z-0.986
X15.451 Y15.072 Z-0.989
X15.626 Y14.892 Z-0.991
X15.797 Y14.709 Z-0.993
X15.969 Y14.525 Z-0.995
X16.135 Y14.337 Z-0.996
X16.303 Y14.15 Z-0.998
X16.464 Y13.957 Z-0.999
X16.628 Y13.767
X16.784 Y13.57 Z-1.
X16.852 Y13.488
X16.92 Y13.405
X16.954 Y13.363
X17.062 Y13.221
X17.173 Y13.079
X17.201 Y13.043
X17.281 Y12.936
X17.343 Y12.85
X17.383 Y12.794
X17.49 Y12.652
X17.591 Y12.51
X17.627 Y12.457
X17.69 Y12.368
X17.769 Y12.257
X17.792 Y12.226
X17.886 Y12.084
X17.912 Y12.044
X17.981 Y11.941
X18.054 Y11.835
X18.077 Y11.799
X18.166 Y11.657
X18.196 Y11.609
X18.258 Y11.515
X18.338 Y11.39
X18.348 Y11.373
X18.432 Y11.231
X18.48 Y11.153
X18.52 Y11.089
X18.605 Y10.946
X18.685 Y10.804
X18.765 Y10.67
X18.769 Y10.662
X18.849 Y10.52
X18.925 Y10.378
X19.005 Y10.236
X19.049 Y10.157
X19.081 Y10.094
X19.153 Y9.951
X19.191 Y9.88
X19.229 Y9.809
X19.301 Y9.667
X19.369 Y9.525
X19.44 Y9.383
X19.475 Y9.313
X19.509 Y9.241
X19.573 Y9.099
X19.617 Y9.004
X19.64 Y8.956
X19.705 Y8.814
X19.765 Y8.672
X19.829 Y8.53
X19.891 Y8.388
X19.947 Y8.246
X20.007 Y8.104
X20.044 Y8.015
X20.066 Y7.961
X20.119 Y7.819
X20.174 Y7.677
X20.186 Y7.646
X20.23 Y7.535
X20.28 Y7.393
X20.328 Y7.256
X20.383 Y7.109
X20.431 Y6.966
X20.47 Y6.843
X20.526 Y6.682
X20.572 Y6.54
X20.614 Y6.398
X20.66 Y6.256
X20.703 Y6.113
X20.742 Y5.971
X20.755 Y5.926
X20.783 Y5.829
X20.825 Y5.687
X20.861 Y5.545
X20.897 Y5.406
X20.937 Y5.261
X20.97 Y5.118
X21.003 Y4.976
X21.039 Y4.831
X21.07 Y4.692
X21.099 Y4.55
X21.131 Y4.408
X21.162 Y4.266
X21.187 Y4.123
X21.215 Y3.981
X21.243 Y3.839
X21.266 Y3.697
X21.29 Y3.555
X21.315 Y3.413
X21.323 Y3.367
X21.337 Y3.271
X21.356 Y3.128
X21.378 Y2.986
X21.399 Y2.844
X21.415 Y2.702
X21.433 Y2.56
X21.452 Y2.418
X21.465 Y2.276
Y2.273
X21.479 Y2.133
X21.494 Y1.991
X21.507 Y1.849
X21.517 Y1.707
X21.529 Y1.565
X21.54 Y1.423
X21.547 Y1.281
X21.555 Y1.138
X21.564 Y0.996
X21.569 Y0.854
X21.572 Y0.712
X21.579 Y0.57
X21.583 Y0.428
Y0.285
X21.585 Y0.143
X21.587 Y0.001
X21.585 Y-0.141
X21.583 Y-0.283
Y-0.425
X21.579 Y-0.567
X21.572 Y-0.71
X21.569 Y-0.852
X21.564 Y-0.994
X21.555 Y-1.136
X21.547 Y-1.278
X21.541 Y-1.42
X21.529 Y-1.562
X21.517 Y-1.705
X21.507 Y-1.847
X21.495 Y-1.989
X21.479 Y-2.131
X21.465 Y-2.273
X21.452 Y-2.415
X21.433 Y-2.557
X21.415 Y-2.7
X21.399 Y-2.842
X21.379 Y-2.984
X21.356 Y-3.126
X21.337 Y-3.268
X21.323 Y-3.367
X21.316 Y-3.41
X21.29 Y-3.552
X21.267 Y-3.695
X21.244 Y-3.837
X21.215 Y-3.979
X21.188 Y-4.121
X21.162 Y-4.263
X21.131 Y-4.405
X21.1 Y-4.547
X21.071 Y-4.69
X21.039 Y-4.831
X21.003 Y-4.974
X20.97 Y-5.116
X20.937 Y-5.258
X20.897 Y-5.406
X20.861 Y-5.542
X20.825 Y-5.685
X20.784 Y-5.827
X20.755 Y-5.926
X20.743 Y-5.969
X20.704 Y-6.111
X20.66 Y-6.253
X20.615 Y-6.395
X20.572 Y-6.538
X20.527 Y-6.68
X20.47 Y-6.843
X20.431 Y-6.964
X20.384 Y-7.106
X20.328 Y-7.256
X20.28 Y-7.39
X20.231 Y-7.533
X20.186 Y-7.646
X20.175 Y-7.675
X20.12 Y-7.817
X20.067 Y-7.959
X20.044 Y-8.015
X20.008 Y-8.101
X19.948 Y-8.243
X19.892 Y-8.385
X19.83 Y-8.528
X19.766 Y-8.67
X19.706 Y-8.812
X19.641 Y-8.954
X19.617 Y-9.004
X19.574 Y-9.096
X19.51 Y-9.238
X19.475 Y-9.313
X19.441 Y-9.38
X19.37 Y-9.523
X19.302 Y-9.665
X19.23 Y-9.807
X19.191 Y-9.88
X19.154 Y-9.949
X19.082 Y-10.091
X19.049 Y-10.157
X19.006 Y-10.233
X18.927 Y-10.375
X18.851 Y-10.518
X18.77 Y-10.66
X18.765 Y-10.67
X18.687 Y-10.802
X18.607 Y-10.944
X18.522 Y-11.086
X18.48 Y-11.153
X18.434 Y-11.228
X18.35 Y-11.37
X18.338 Y-11.39
X18.259 Y-11.513
X18.196 Y-11.609
X18.167 Y-11.655
X18.079 Y-11.797
X18.054 Y-11.835
X17.983 Y-11.939
X17.912 Y-12.044
X17.887 Y-12.081
X17.794 Y-12.223
X17.769 Y-12.257
X17.692 Y-12.366
X17.627 Y-12.457
X17.592 Y-12.508
X17.492 Y-12.65
X17.385 Y-12.792
X17.343 Y-12.85
X17.282 Y-12.934
X17.201 Y-13.043
X17.175 Y-13.076
X17.063 Y-13.218
X16.956 Y-13.361
X16.917 Y-13.41
X16.84 Y-13.503
X16.774 Y-13.583
X16.725 Y-13.645
X16.632 Y-13.762
X16.611 Y-13.787
X16.488 Y-13.929
X16.37 Y-14.071
X16.348 Y-14.098
X16.245 Y-14.213
X16.206 Y-14.257
X16.119 Y-14.356
X16.064 Y-14.42
X15.995 Y-14.498
X15.922 Y-14.575
X15.86 Y-14.64
X15.779 Y-14.729
X15.731 Y-14.782
X15.637 Y-14.881
X15.595 Y-14.924
X15.495 Y-15.026
X15.457 Y-15.066
X15.353 Y-15.176
X15.32 Y-15.208
X15.211 Y-15.314
X15.173 Y-15.351
X15.033 Y-15.493
X14.926 Y-15.593
X14.881 Y-15.635
X14.784 Y-15.727
X14.732 Y-15.777
X14.642 Y-15.863
X14.578 Y-15.919
X14.5 Y-15.988
X14.42 Y-16.061
X14.358 Y-16.119
X14.263 Y-16.203
X14.216 Y-16.244
X14.096 Y-16.346
X14.074 Y-16.366
X13.935 Y-16.488
X13.931 Y-16.49
X13.789 Y-16.606
X13.759 Y-16.63
X13.647 Y-16.724
X13.591 Y-16.772
X13.505 Y-16.84
X13.409 Y-16.914
X13.363 Y-16.95
X13.221 Y-17.065
X13.078 Y-17.172
X13.043 Y-17.198
X12.936 Y-17.279
X12.856 Y-17.341
X12.794 Y-17.388
X12.659 Y-17.483
X12.652 Y-17.488
X12.51 Y-17.591
X12.464 Y-17.625
X12.368 Y-17.693
X12.226 Y-17.788
X12.083 Y-17.887
X12.052 Y-17.909
X11.941 Y-17.982
X11.833 Y-18.051
X11.799 Y-18.074
X11.657 Y-18.169
X11.62 Y-18.193
X11.388 Y-18.336
X11.231 Y-18.436
X11.161 Y-18.478
X11.088 Y-18.519
X10.946 Y-18.603
X10.919 Y-18.62
X10.804 Y-18.689
X10.673 Y-18.762
X10.662 Y-18.768
X10.52 Y-18.848
X10.422 Y-18.904
X10.378 Y-18.929
X10.235 Y-19.004
X10.154 Y-19.046
X10.093 Y-19.08
X9.951 Y-19.157
X9.888 Y-19.189
X9.809 Y-19.227
X9.667 Y-19.299
X9.606 Y-19.331
X9.525 Y-19.373
X9.383 Y-19.439
X9.31 Y-19.473
X9.24 Y-19.507
X9.098 Y-19.577
X9.012 Y-19.615
X8.956 Y-19.639
X8.814 Y-19.703
X8.697 Y-19.757
X8.672 Y-19.769
X8.53 Y-19.829
X8.388 Y-19.888
X8.245 Y-19.95
X8.103 Y-20.007
X8.014 Y-20.041
X7.961 Y-20.062
X7.819 Y-20.121
X7.677 Y-20.175
X7.535 Y-20.226
X7.392 Y-20.281
X7.271 Y-20.326
X7.108 Y-20.38
X6.966 Y-20.431
X6.862 Y-20.468
X6.824 Y-20.48
X6.682 Y-20.524
X6.54 Y-20.571
X6.422 Y-20.61
X6.397 Y-20.618
X6.255 Y-20.659
X6.113 Y-20.701
X5.971 Y-20.745
X5.947 Y-20.752
X5.829 Y-20.784
X5.687 Y-20.821
X5.544 Y-20.862
X5.424 Y-20.894
X5.26 Y-20.933
X5.118 Y-20.97
X4.976 Y-21.006
X4.834 Y-21.037
X4.692 Y-21.069
X4.549 Y-21.103
X4.265 Y-21.159
X4.123 Y-21.189
X3.981 Y-21.216
X3.839 Y-21.24
X3.697 Y-21.267
X3.554 Y-21.292
X3.361 Y-21.321
X3.27 Y-21.336
X3.128 Y-21.36
X2.986 Y-21.378
X2.844 Y-21.396
X2.701 Y-21.417
X2.559 Y-21.434
X2.417 Y-21.448
X2.296 Y-21.463
X2.275 Y-21.465
X2.133 Y-21.482
X1.991 Y-21.493
X1.849 Y-21.506
X1.706 Y-21.52
X1.564 Y-21.529
X1.422 Y-21.537
X1.28 Y-21.548
X1.138 Y-21.557
X0.996 Y-21.561
X0.854 Y-21.568
X0.711 Y-21.576
X0.569 Y-21.578
X0.427 Y-21.58
X0.285 Y-21.585
X0.143
X0.001 Y-21.584
X-0.142 Y-21.585
X-0.284
X-0.426 Y-21.58
X-0.568 Y-21.578
X-0.71 Y-21.576
X-0.852 Y-21.569
X-0.994 Y-21.561
X-1.137 Y-21.557
X-1.279 Y-21.548
X-1.421 Y-21.537
X-1.563 Y-21.529
X-1.705 Y-21.52
X-1.847 Y-21.506
X-1.99 Y-21.493
X-2.132 Y-21.482
X-2.274 Y-21.466
X-2.296 Y-21.463
X-2.416 Y-21.448
X-2.558 Y-21.434
X-2.7 Y-21.417
X-2.842 Y-21.396
X-2.985 Y-21.378
X-3.127 Y-21.36
X-3.269 Y-21.336
X-3.361 Y-21.321
X-3.553 Y-21.293
X-3.695 Y-21.267
X-3.837 Y-21.24
X-3.98 Y-21.216
X-4.122 Y-21.189
X-4.264 Y-21.159
X-4.406 Y-21.131
X-4.548 Y-21.103
X-4.69 Y-21.069
X-4.833 Y-21.037
X-4.975 Y-21.006
X-5.117 Y-20.97
X-5.259 Y-20.934
X-5.424 Y-20.894
X-5.543 Y-20.862
X-5.685 Y-20.822
X-5.828 Y-20.784
X-5.947 Y-20.752
X-5.97 Y-20.745
X-6.112 Y-20.701
X-6.254 Y-20.659
X-6.396 Y-20.618
X-6.422 Y-20.61
X-6.538 Y-20.571
X-6.68 Y-20.525
X-6.823 Y-20.481
X-6.862 Y-20.468
X-6.965 Y-20.431
X-7.107 Y-20.381
X-7.271 Y-20.326
X-7.391 Y-20.281
X-7.533 Y-20.227
X-7.676 Y-20.175
X-7.818 Y-20.121
X-7.96 Y-20.063
X-8.014 Y-20.041
X-8.102 Y-20.007
X-8.244 Y-19.951
X-8.386 Y-19.889
X-8.528 Y-19.829
X-8.671 Y-19.77
X-8.697 Y-19.757
X-8.813 Y-19.704
X-8.955 Y-19.64
X-9.012 Y-19.615
X-9.097 Y-19.577
X-9.239 Y-19.507
X-9.31 Y-19.473
X-9.381 Y-19.44
X-9.524 Y-19.373
X-9.606 Y-19.331
X-9.666 Y-19.3
X-9.808 Y-19.228
X-9.888 Y-19.189
X-9.95 Y-19.158
X-10.092 Y-19.08
X-10.154 Y-19.046
X-10.234 Y-19.004
X-10.376 Y-18.93
X-10.422 Y-18.904
X-10.519 Y-18.848
X-10.661 Y-18.769
X-10.673 Y-18.762
X-10.803 Y-18.69
X-10.919 Y-18.62
X-10.945 Y-18.604
X-11.087 Y-18.52
X-11.161 Y-18.478
X-11.229 Y-18.437
X-11.388 Y-18.336
X-11.62 Y-18.193
X-11.656 Y-18.17
X-11.798 Y-18.074
X-11.833 Y-18.051
X-11.94 Y-17.983
X-12.052 Y-17.909
X-12.082 Y-17.888
X-12.224 Y-17.789
X-12.367 Y-17.693
X-12.464 Y-17.625
X-12.509 Y-17.592
X-12.651 Y-17.488
X-12.659 Y-17.483
X-12.793 Y-17.388
X-12.856 Y-17.341
X-12.935 Y-17.28
X-13.043 Y-17.198
X-13.077 Y-17.173
X-13.219 Y-17.066
X-13.362 Y-16.951
X-13.409 Y-16.914
X-13.504 Y-16.841
X-13.591 Y-16.772
X-13.646 Y-16.725
X-13.759 Y-16.63
X-13.788 Y-16.607
X-13.93 Y-16.491
X-13.935 Y-16.488
X-14.072 Y-16.367
X-14.096 Y-16.346
X-14.215 Y-16.245
X-14.263 Y-16.203
X-14.357 Y-16.12
X-14.42 Y-16.061
X-14.499 Y-15.989
X-14.578 Y-15.919
X-14.641 Y-15.864
X-14.732 Y-15.777
X-14.783 Y-15.728
X-14.881 Y-15.635
X-14.925 Y-15.594
X-15.033 Y-15.493
X-15.173 Y-15.351
X-15.21 Y-15.315
X-15.32 Y-15.208
X-15.352 Y-15.177
X-15.457 Y-15.066
X-15.494 Y-15.027
X-15.595 Y-14.924
X-15.636 Y-14.883
X-15.731 Y-14.782
X-15.778 Y-14.73
X-15.86 Y-14.64
X-15.92 Y-14.576
X-15.995 Y-14.498
X-16.062 Y-14.421
X-16.119 Y-14.356
X-16.205 Y-14.258
X-16.245 Y-14.213
X-16.347 Y-14.099
X-16.37 Y-14.071
X-16.488 Y-13.929
X-16.611 Y-13.787
X-16.631 Y-13.763
X-16.725 Y-13.645
X-16.773 Y-13.584
X-16.84 Y-13.503
X-16.915 Y-13.412
X-16.956 Y-13.361
X-17.063 Y-13.218
X-17.175 Y-13.076
X-17.2 Y-13.044
X-17.282 Y-12.934
X-17.342 Y-12.851
X-17.385 Y-12.792
X-17.492 Y-12.65
X-17.592 Y-12.508
X-17.626 Y-12.458
X-17.692 Y-12.366
X-17.768 Y-12.259
X-17.794 Y-12.223
X-17.887 Y-12.081
X-17.91 Y-12.046
X-17.983 Y-11.939
X-18.053 Y-11.837
X-18.079 Y-11.797
X-18.167 Y-11.655
X-18.195 Y-11.611
X-18.259 Y-11.513
X-18.337 Y-11.392
X-18.35 Y-11.37
X-18.434 Y-11.228
X-18.479 Y-11.154
X-18.522 Y-11.086
X-18.607 Y-10.944
X-18.687 Y-10.802
X-18.763 Y-10.672
X-18.77 Y-10.66
X-18.851 Y-10.518
X-18.927 Y-10.375
X-19.006 Y-10.233
X-19.048 Y-10.159
X-19.082 Y-10.091
X-19.154 Y-9.949
X-19.19 Y-9.882
X-19.23 Y-9.807
X-19.302 Y-9.665
X-19.37 Y-9.523
X-19.441 Y-9.38
X-19.474 Y-9.315
X-19.51 Y-9.238
X-19.574 Y-9.096
X-19.616 Y-9.006
X-19.641 Y-8.954
X-19.706 Y-8.812
X-19.766 Y-8.67
X-19.83 Y-8.528
X-19.892 Y-8.385
X-19.948 Y-8.243
X-20.008 Y-8.101
X-20.043 Y-8.018
X-20.067 Y-7.959
X-20.12 Y-7.817
X-20.175 Y-7.675
X-20.185 Y-7.649
X-20.231 Y-7.533
X-20.28 Y-7.39
X-20.327 Y-7.26
X-20.384 Y-7.106
X-20.431 Y-6.964
X-20.469 Y-6.847
X-20.527 Y-6.68
X-20.572 Y-6.538
X-20.615 Y-6.395
X-20.66 Y-6.253
X-20.704 Y-6.111
X-20.743 Y-5.969
X-20.753 Y-5.93
X-20.784 Y-5.827
X-20.825 Y-5.685
X-20.861 Y-5.542
X-20.896 Y-5.41
X-20.937 Y-5.258
X-20.97 Y-5.116
X-21.003 Y-4.974
X-21.039 Y-4.832
X-21.071 Y-4.69
X-21.1 Y-4.547
X-21.131 Y-4.405
X-21.162 Y-4.263
X-21.188 Y-4.121
X-21.215 Y-3.979
X-21.244 Y-3.837
X-21.267 Y-3.695
X-21.29 Y-3.552
X-21.316 Y-3.41
X-21.322 Y-3.374
X-21.337 Y-3.268
X-21.356 Y-3.126
X-21.379 Y-2.984
X-21.399 Y-2.842
X-21.415 Y-2.7
X-21.433 Y-2.557
X-21.452 Y-2.415
X-21.464 Y-2.287
X-21.465 Y-2.273
X-21.479 Y-2.131
X-21.495 Y-1.989
X-21.507 Y-1.847
X-21.517 Y-1.705
X-21.529 Y-1.562
X-21.541 Y-1.42
X-21.547 Y-1.278
X-21.555 Y-1.136
X-21.564 Y-0.994
X-21.569 Y-0.852
X-21.572 Y-0.71
X-21.579 Y-0.567
X-21.583 Y-0.425
Y-0.283
X-21.585 Y-0.141
X-21.587 Y0.001
X-21.585 Y0.143
X-21.583 Y0.285
Y0.428
X-21.579 Y0.57
X-21.572 Y0.712
X-21.569 Y0.854
X-21.564 Y0.996
X-21.555 Y1.138
X-21.547 Y1.281
X-21.54 Y1.423
X-21.529 Y1.565
X-21.517 Y1.707
X-21.507 Y1.849
X-21.494 Y1.991
X-21.479 Y2.133
X-21.465 Y2.276
X-21.464 Y2.287
X-21.452 Y2.418
X-21.433 Y2.56
X-21.415 Y2.702
X-21.399 Y2.844
X-21.378 Y2.986
X-21.356 Y3.128
X-21.337 Y3.271
X-21.322 Y3.374
X-21.315 Y3.413
X-21.29 Y3.555
X-21.266 Y3.697
X-21.243 Y3.839
X-21.215 Y3.981
X-21.187 Y4.123
X-21.162 Y4.266
X-21.131 Y4.408
X-21.099 Y4.55
X-21.07 Y4.692
X-21.038 Y4.834
X-21.003 Y4.976
X-20.97 Y5.118
X-20.937 Y5.261
X-20.896 Y5.41
X-20.861 Y5.545
X-20.825 Y5.687
X-20.783 Y5.829
X-20.753 Y5.93
X-20.742 Y5.971
X-20.703 Y6.113
X-20.66 Y6.256
X-20.614 Y6.398
X-20.572 Y6.54
X-20.526 Y6.682
X-20.469 Y6.847
X-20.431 Y6.966
X-20.383 Y7.109
X-20.327 Y7.26
X-20.28 Y7.393
X-20.23 Y7.535
X-20.185 Y7.649
X-20.174 Y7.677
X-20.119 Y7.819
X-20.066 Y7.961
X-20.043 Y8.018
X-20.007 Y8.104
X-19.947 Y8.246
X-19.891 Y8.388
X-19.829 Y8.53
X-19.765 Y8.672
X-19.705 Y8.814
X-19.64 Y8.956
X-19.616 Y9.006
X-19.573 Y9.099
X-19.509 Y9.241
X-19.474 Y9.315
X-19.44 Y9.383
X-19.369 Y9.525
X-19.301 Y9.667
X-19.229 Y9.809
X-19.19 Y9.882
X-19.153 Y9.951
X-19.081 Y10.094
X-19.048 Y10.159
X-19.005 Y10.236
X-18.925 Y10.378
X-18.849 Y10.52
X-18.769 Y10.662
X-18.763 Y10.672
X-18.685 Y10.804
X-18.605 Y10.946
X-18.52 Y11.089
X-18.479 Y11.154
X-18.432 Y11.231
X-18.348 Y11.373
X-18.337 Y11.392
X-18.258 Y11.515
X-18.195 Y11.611
X-18.166 Y11.657
X-18.077 Y11.799
X-18.053 Y11.837
X-17.981 Y11.941
X-17.91 Y12.046
X-17.886 Y12.084
X-17.792 Y12.226
X-17.768 Y12.259
X-17.69 Y12.368
X-17.626 Y12.458
X-17.591 Y12.51
X-17.49 Y12.652
X-17.383 Y12.794
X-17.342 Y12.851
X-17.281 Y12.936
X-17.2 Y13.044
X-17.173 Y13.079
X-17.062 Y13.221
X-16.954 Y13.363
X-16.915 Y13.412
X-16.838 Y13.505
X-16.773 Y13.584
X-16.724 Y13.647
X-16.631 Y13.763
X-16.609 Y13.789
X-16.486 Y13.932
X-16.347 Y14.099
X-16.243 Y14.216
X-16.205 Y14.258
X-16.117 Y14.358
X-16.062 Y14.421
X-15.992 Y14.5
X-15.92 Y14.576
X-15.858 Y14.642
X-15.778 Y14.73
X-15.729 Y14.784
X-15.636 Y14.883
X-15.593 Y14.927
X-15.494 Y15.027
X-15.455 Y15.069
X-15.352 Y15.177
X-15.318 Y15.211
X-15.21 Y15.315
X-15.171 Y15.353
X-15.03 Y15.495
X-14.925 Y15.594
X-14.879 Y15.637
X-14.783 Y15.728
X-14.73 Y15.779
X-14.641 Y15.864
X-14.576 Y15.922
X-14.499 Y15.989
X-14.418 Y16.064
X-14.357 Y16.12
X-14.26 Y16.206
X-14.215 Y16.245
X-14.093 Y16.348
X-14.072 Y16.367
X-13.932 Y16.49
X-13.93 Y16.491
X-13.788 Y16.607
X-13.756 Y16.632
X-13.646 Y16.725
X-13.588 Y16.774
X-13.504 Y16.841
X-13.406 Y16.917
X-13.362 Y16.951
X-13.219 Y17.066
X-13.077 Y17.173
X-13.039 Y17.201
X-12.935 Y17.28
X-12.853 Y17.343
X-12.793 Y17.388
X-12.651 Y17.488
X-12.509 Y17.592
X-12.46 Y17.627
X-12.367 Y17.693
X-12.224 Y17.789
X-12.082 Y17.888
X-12.049 Y17.912
X-11.94 Y17.983
X-11.829 Y18.054
X-11.798 Y18.074
X-11.656 Y18.17
X-11.616 Y18.196
X-11.514 Y18.258
X-11.384 Y18.338
X-11.229 Y18.437
X-11.156 Y18.48
X-11.087 Y18.52
X-10.945 Y18.604
X-10.915 Y18.622
X-10.803 Y18.69
X-10.668 Y18.764
X-10.661 Y18.769
X-10.519 Y18.848
X-10.418 Y18.907
X-10.376 Y18.93
X-10.234 Y19.004
X-10.15 Y19.049
X-10.092 Y19.08
X-9.95 Y19.158
X-9.883 Y19.191
X-9.808 Y19.228
X-9.666 Y19.3
X-9.602 Y19.333
X-9.524 Y19.373
X-9.381 Y19.44
X-9.305 Y19.475
X-9.239 Y19.507
X-9.097 Y19.577
X-9.007 Y19.617
X-8.955 Y19.64
X-8.813 Y19.704
X-8.692 Y19.76
X-8.671 Y19.77
X-8.528 Y19.829
X-8.386 Y19.889
X-8.244 Y19.951
X-8.102 Y20.007
X-8.008 Y20.044
X-7.96 Y20.063
X-7.818 Y20.121
X-7.676 Y20.175
X-7.533 Y20.227
X-7.391 Y20.281
X-7.264 Y20.328
X-7.107 Y20.381
X-6.965 Y20.431
X-6.855 Y20.47
X-6.823 Y20.481
X-6.68 Y20.525
X-6.538 Y20.571
X-6.414 Y20.612
X-6.396 Y20.618
X-6.254 Y20.659
X-6.112 Y20.701
X-5.97 Y20.745
X-5.939 Y20.755
X-5.828 Y20.784
X-5.685 Y20.822
X-5.543 Y20.862
X-5.414 Y20.897
X-5.259 Y20.934
X-5.117 Y20.97
X-4.975 Y21.006
X-4.823 Y21.039
X-4.69 Y21.069
X-4.548 Y21.103
X-4.406 Y21.131
X-4.264 Y21.159
X-4.122 Y21.189
X-3.98 Y21.216
X-3.837 Y21.24
X-3.695 Y21.267
X-3.553 Y21.293
X-3.411 Y21.313
X-3.345 Y21.323
X-3.269 Y21.336
X-3.127 Y21.36
X-2.985 Y21.378
X-2.842 Y21.396
X-2.7 Y21.417
X-2.558 Y21.434
X-2.416 Y21.448
X-2.276 Y21.465
X-2.274 Y21.466
X-2.132 Y21.482
X-1.99 Y21.493
X-1.847 Y21.506
X-1.705 Y21.52
X-1.563 Y21.529
X-1.421 Y21.537
X-1.279 Y21.548
X-1.137 Y21.557
X-0.994 Y21.561
X-0.852 Y21.569
X-0.71 Y21.576
X-0.568 Y21.578
X-0.426 Y21.58
X-0.284 Y21.585
X-0.142
X0.001 Y21.584
X0.143 Y21.585
X0.285
X0.427 Y21.58
X0.569 Y21.578
X0.711 Y21.576
X0.854 Y21.568
X0.996 Y21.561
X1.138 Y21.557
X1.28 Y21.548
X1.422 Y21.537
X1.564 Y21.529
X1.706 Y21.52
X1.849 Y21.506
X1.991 Y21.493
X2.133 Y21.482
X2.275 Y21.465
X2.417 Y21.448
X2.559 Y21.434
X2.701 Y21.417
X2.844 Y21.396
X2.986 Y21.378
X3.128 Y21.36
X3.27 Y21.336
X3.345 Y21.323
X3.412 Y21.313
X3.554 Y21.292
X3.697 Y21.267
X3.839 Y21.24
X3.981 Y21.216
X4.123 Y21.189
X4.265 Y21.159
X4.549 Y21.103
X4.692 Y21.069
X4.823 Y21.039
X4.976 Y21.006
X5.118 Y20.97
X5.26 Y20.933
X5.414 Y20.897
X5.544 Y20.862
X5.687 Y20.821
X5.829 Y20.784
X5.939 Y20.755
X5.971 Y20.745
X6.113 Y20.701
X6.255 Y20.659
X6.397 Y20.618
X6.414 Y20.612
X6.54 Y20.571
X6.682 Y20.524
X6.824 Y20.48
X6.855 Y20.47
X6.966 Y20.431
X7.108 Y20.38
X7.264 Y20.328
X7.392 Y20.281
X7.535 Y20.226
X7.677 Y20.175
X7.819 Y20.121
X7.961 Y20.062
X8.008 Y20.044
X8.103 Y20.007
X8.245 Y19.95
X8.388 Y19.888
X8.53 Y19.829
X8.672 Y19.769
X8.692 Y19.76
X8.814 Y19.703
X8.956 Y19.639
X9.007 Y19.617
X9.098 Y19.577
X9.24 Y19.507
X9.305 Y19.475
X9.383 Y19.439
X9.525 Y19.373
X9.602 Y19.333
X9.667 Y19.299
X9.809 Y19.227
X9.883 Y19.191
X9.951 Y19.157
X10.093 Y19.08
X10.15 Y19.049
X10.235 Y19.004
X10.378 Y18.929
X10.418 Y18.907
X10.52 Y18.848
X10.662 Y18.768
X10.668 Y18.764
X10.804 Y18.689
X10.915 Y18.622
X10.946 Y18.603
X11.088 Y18.519
X11.156 Y18.48
X11.231 Y18.436
X11.384 Y18.338
X11.515 Y18.258
X11.616 Y18.196
X11.657 Y18.169
X11.799 Y18.074
X11.829 Y18.054
X11.941 Y17.982
X12.049 Y17.912
X12.083 Y17.887
X12.226 Y17.788
X12.368 Y17.693
X12.46 Y17.627
X12.51 Y17.591
X12.652 Y17.488
X12.794 Y17.388
X12.853 Y17.343
X12.936 Y17.279
X13.039 Y17.201
X13.078 Y17.172
X13.221 Y17.065
X13.363 Y16.95
X13.406 Y16.917
X13.505 Y16.84
X13.588 Y16.774
X13.647 Y16.724
X13.756 Y16.632
X13.789 Y16.606
X13.931 Y16.49
X13.932
X14.074 Y16.366
X14.093 Y16.348
X14.216 Y16.244
X14.26 Y16.206
X14.358 Y16.119
X14.418 Y16.064
X14.5 Y15.988
X14.576 Y15.922
X14.642 Y15.863
X14.73 Y15.779
X14.784 Y15.727
X14.879 Y15.637
X14.926 Y15.593
X15.03 Y15.495
X15.171 Y15.353
X15.211 Y15.314
X15.318 Y15.211
X15.353 Y15.176
X15.455 Y15.069
X15.495 Y15.026
X15.593 Y14.927
X15.637 Y14.881
X15.729 Y14.784
X15.779 Y14.729
X15.858 Y14.642
X15.922 Y14.575
X15.992 Y14.5
X16.064 Y14.42
X16.117 Y14.358
X16.206 Y14.257
X16.243 Y14.216
X16.348 Y14.098
X16.368 Y14.074
X16.486 Y13.932
X16.609 Y13.789
X16.632 Y13.762
X16.724 Y13.647
X16.774 Y13.583
X16.838 Y13.505
X16.917 Y13.41
X16.92 Y13.405
X16.925 Y13.399
X16.93 Y13.393
X16.94 Y13.381
X16.959 Y13.356
X16.997 Y13.306
X17.073 Y13.206
X17.228 Y13.008 Z-1.001
X17.375 Y12.805
X17.526 Y12.604 Z-1.002
X17.669 Y12.397 Z-1.004
X17.814 Y12.193 Z-1.005
X17.953 Y11.983 Z-1.007
X18.093 Y11.775 Z-1.009
X18.227 Y11.562 Z-1.012
X18.362 Y11.35 Z-1.014
X18.491 Y11.135 Z-1.017
X18.62 Y10.92 Z-1.02
X18.746 Y10.702 Z-1.023
X18.869 Y10.483 Z-1.027
X18.99 Y10.263 Z-1.03
X19.108 Y10.041 Z-1.034
X19.224 Y9.819 Z-1.038
X19.336 Y9.594 Z-1.042
X19.447 Y9.369 Z-1.046
X19.553 Y9.141 Z-1.051
X19.66 Y8.914 Z-1.055
X19.761 Y8.684 Z-1.06
X19.863 Y8.454 Z-1.064
X19.957 Y8.221 Z-1.068
X20.054 Y7.99 Z-1.073
X20.143 Y7.755 Z-1.077
X20.235 Y7.521 Z-1.081
X20.318 Y7.284 Z-1.086
X20.404 Y7.048 Z-1.09
X20.482 Y6.809 Z-1.095
X20.562 Y6.571 Z-1.099
X20.635 Y6.331 Z-1.103
X20.709 Y6.091 Z-1.108
X20.777 Y5.849 Z-1.112
X20.845 Y5.607 Z-1.117
X20.908 Y5.364 Z-1.121
X20.969 Y5.121 Z-1.125
X21.028 Y4.877 Z-1.13
X21.082 Y4.632 Z-1.134
X21.136 Y4.386 Z-1.138
X21.184 Y4.14 Z-1.143
X21.233 Y3.893 Z-1.147
X21.274 Y3.646 Z-1.152
X21.318 Y3.398 Z-1.156
X21.353 Y3.15 Z-1.16
X21.391 Y2.901 Z-1.165
X21.421 Y2.652 Z-1.169
X21.453 Y2.403 Z-1.174
X21.476 Y2.153 Z-1.178
X21.503 Y1.903 Z-1.182
X21.521 Y1.652 Z-1.187
X21.541 Y1.402 Z-1.191
X21.554 Y1.151 Z-1.195
X21.568 Y0.901 Z-1.2
X21.575 Y0.65 Z-1.204
X21.583 Y0.398 Z-1.208
X21.585 Y0.147 Z-1.213
X21.586 Y-0.104 Z-1.216
X21.583 Y-0.355 Z-1.22
X21.577 Y-0.606 Z-1.224
X21.569 Y-0.857 Z-1.227
X21.557 Y-1.108 Z-1.23
X21.543 Y-1.359 Z-1.233
X21.525 Y-1.609 Z-1.236
X21.506 Y-1.86 Z-1.239
X21.481 Y-2.109 Z-1.241
X21.458 Y-2.36 Z-1.243
X21.426 Y-2.609 Z-1.245
X21.397 Y-2.858 Z-1.246
X21.359 Y-3.106 Z-1.248
X21.325 Y-3.355 Z-1.249
X21.281 Y-3.603
X21.241 Y-3.851 Z-1.25
X21.22 Y-3.955
X21.199 Y-4.06
X21.188 Y-4.121
X21.162 Y-4.263
X21.131 Y-4.405
X21.1 Y-4.547
X21.071 Y-4.69
X21.039 Y-4.831
X21.003 Y-4.974
X20.97 Y-5.116
X20.937 Y-5.258
X20.897 Y-5.406
X20.861 Y-5.542
X20.825 Y-5.685
X20.784 Y-5.827
X20.755 Y-5.926
X20.743 Y-5.969
X20.704 Y-6.111
X20.66 Y-6.253
X20.615 Y-6.395
X20.572 Y-6.538
X20.527 Y-6.68
X20.47 Y-6.843
X20.431 Y-6.964
X20.384 Y-7.106
X20.328 Y-7.256
X20.28 Y-7.39
X20.231 Y-7.533
X20.186 Y-7.646
X20.175 Y-7.675
X20.12 Y-7.817
X20.067 Y-7.959
X20.044 Y-8.015
X20.008 Y-8.101
X19.948 Y-8.243
X19.892 Y-8.385
X19.83 Y-8.528
X19.766 Y-8.67
X19.706 Y-8.812
X19.641 Y-8.954
X19.617 Y-9.004
X19.574 Y-9.096
X19.51 Y-9.238
X19.475 Y-9.313
X19.441 Y-9.38
X19.37 Y-9.523
X19.302 Y-9.665
X19.23 Y-9.807
X19.191 Y-9.88
X19.154 Y-9.949
X19.082 Y-10.091
X19.049 Y-10.157
X19.006 Y-10.233
X18.927 Y-10.375
X18.851 Y-10.518
X18.77 Y-10.66
X18.765 Y-10.67
X18.687 Y-10.802
X18.607 Y-10.944
X18.522 Y-11.086
X18.48 Y-11.153
X18.434 Y-11.228
X18.35 Y-11.37
X18.338 Y-11.39
X18.259 Y-11.513
X18.196 Y-11.609
X18.167 Y-11.655
X18.079 Y-11.797
X18.054 Y-11.835
X17.983 Y-11.939
X17.912 Y-12.044
X17.887 Y-12.081
X17.794 Y-12.223
X17.769 Y-12.257
X17.692 Y-12.366
X17.627 Y-12.457
X17.592 Y-12.508
X17.492 Y-12.65
X17.385 Y-12.792
X17.343 Y-12.85
X17.282 Y-12.934
X17.201 Y-13.043
X17.175 Y-13.076
X17.063 Y-13.218
X16.956 Y-13.361
X16.917 Y-13.41
X16.84 Y-13.503
X16.774 Y-13.583
X16.725 Y-13.645
X16.632 Y-13.762
X16.611 Y-13.787
X16.488 Y-13.929
X16.37 Y-14.071
X16.348 Y-14.098
X16.245 Y-14.213
X16.206 Y-14.257
X16.119 Y-14.356
X16.064 Y-14.42
X15.995 Y-14.498
X15.922 Y-14.575
X15.86 Y-14.64
X15.779 Y-14.729
X15.731 Y-14.782
X15.637 Y-14.881
X15.595 Y-14.924
X15.495 Y-15.026
X15.457 Y-15.066
X15.353 Y-15.176
X15.32 Y-15.208
X15.211 Y-15.314
X15.173 Y-15.351
X15.033 Y-15.493
X14.926 Y-15.593
X14.881 Y-15.635
X14.784 Y-15.727
X14.732 Y-15.777
X14.642 Y-15.863
X14.578 Y-15.919
X14.5 Y-15.988
X14.42 Y-16.061
X14.358 Y-16.119
X14.263 Y-16.203
X14.216 Y-16.244
X14.096 Y-16.346
X14.074 Y-16.366
X13.935 Y-16.488
X13.931 Y-16.49
X13.789 Y-16.606
X13.759 Y-16.63
X13.647 Y-16.724
X13.591 Y-16.772
X13.505 Y-16.84
X13.409 Y-16.914
X13.363 Y-16.95
X13.221 Y-17.065
X13.078 Y-17.172
X13.043 Y-17.198
X12.936 Y-17.279
X12.856 Y-17.341
X12.794 Y-17.388
X12.659 Y-17.483
X12.652 Y-17.488
X12.51 Y-17.591
X12.464 Y-17.625
X12.368 Y-17.693
X12.226 Y-17.788
X12.083 Y-17.887
X12.052 Y-17.909
X11.941 Y-17.982
X11.833 Y-18.051
X11.799 Y-18.074
X11.657 Y-18.169
X11.62 Y-18.193
X11.388 Y-18.336
X11.231 Y-18.436
X11.161 Y-18.478
X11.088 Y-18.519
X10.946 Y-18.603
X10.919 Y-18.62
X10.804 Y-18.689
X10.673 Y-18.762
X10.662 Y-18.768
X10.52 Y-18.848
X10.422 Y-18.904
X10.378 Y-18.929
X10.235 Y-19.004
X10.154 Y-19.046
X10.093 Y-19.08
X9.951 Y-19.157
X9.888 Y-19.189
X9.809 Y-19.227
X9.667 Y-19.299
X9.606 Y-19.331
X9.525 Y-19.373
X9.383 Y-19.439
X9.31 Y-19.473
X9.24 Y-19.507
X9.098 Y-19.577
X9.012 Y-19.615
X8.956 Y-19.639
X8.814 Y-19.703
X8.697 Y-19.757
X8.672 Y-19.769
X8.53 Y-19.829
X8.388 Y-19.888
X8.245 Y-19.95
X8.103 Y-20.007
X8.014 Y-20.041
X7.961 Y-20.062
X7.819 Y-20.121
X7.677 Y-20.175
X7.535 Y-20.226
X7.392 Y-20.281
X7.271 Y-20.326
X7.108 Y-20.38
X6.966 Y-20.431
X6.862 Y-20.468
X6.824 Y-20.48
X6.682 Y-20.524
X6.54 Y-20.571
X6.422 Y-20.61
X6.397 Y-20.618
X6.255 Y-20.659
X6.113 Y-20.701
X5.971 Y-20.745
X5.947 Y-20.752
X5.829 Y-20.784
X5.687 Y-20.821
X5.544 Y-20.862
X5.424 Y-20.894
X5.26 Y-20.933
X5.118 Y-20.97
X4.976 Y-21.006
X4.834 Y-21.037
X4.692 Y-21.069
X4.549 Y-21.103
X4.265 Y-21.159
X4.123 Y-21.189
X3.981 Y-21.216
X3.839 Y-21.24
X3.697 Y-21.267
X3.554 Y-21.292
X3.361 Y-21.321
X3.27 Y-21.336
X3.128 Y-21.36
X2.986 Y-21.378
X2.844 Y-21.396
X2.701 Y-21.417
X2.559 Y-21.434
X2.417 Y-21.448
X2.296 Y-21.463
X2.275 Y-21.465
X2.133 Y-21.482
X1.991 Y-21.493
X1.849 Y-21.506
X1.706 Y-21.52
X1.564 Y-21.529
X1.422 Y-21.537
X1.28 Y-21.548
X1.138 Y-21.557
X0.996 Y-21.561
X0.854 Y-21.568
X0.711 Y-21.576
X0.569 Y-21.578
X0.427 Y-21.58
X0.285 Y-21.585
X0.143
X0.001 Y-21.584
X-0.142 Y-21.585
X-0.284
X-0.426 Y-21.58
X-0.568 Y-21.578
X-0.71 Y-21.576
X-0.852 Y-21.569
X-0.994 Y-21.561
X-1.137 Y-21.557
X-1.279 Y-21.548
X-1.421 Y-21.537
X-1.563 Y-21.529
X-1.705 Y-21.52
X-1.847 Y-21.506
X-1.99 Y-21.493
X-2.132 Y-21.482
X-2.274 Y-21.466
X-2.296 Y-21.463
X-2.416 Y-21.448
X-2.558 Y-21.434
X-2.7 Y-21.417
X-2.842 Y-21.396
X-2.985 Y-21.378
X-3.127 Y-21.36
X-3.269 Y-21.336
X-3.361 Y-21.321
X-3.553 Y-21.293
X-3.695 Y-21.267
X-3.837 Y-21.24
X-3.98 Y-21.216
X-4.122 Y-21.189
X-4.264 Y-21.159
X-4.406 Y-21.131
X-4.548 Y-21.103
X-4.69 Y-21.069
X-4.833 Y-21.037
X-4.975 Y-21.006
X-5.117 Y-20.97
X-5.259 Y-20.934
X-5.424 Y-20.894
X-5.543 Y-20.862
X-5.685 Y-20.822
X-5.828 Y-20.784
X-5.947 Y-20.752
X-5.97 Y-20.745
X-6.112 Y-20.701
X-6.254 Y-20.659
X-6.396 Y-20.618
X-6.422 Y-20.61
X-6.538 Y-20.571
X-6.68 Y-20.525
X-6.823 Y-20.481
X-6.862 Y-20.468
X-6.965 Y-20.431
X-7.107 Y-20.381
X-7.271 Y-20.326
X-7.391 Y-20.281
X-7.533 Y-20.227
X-7.676 Y-20.175
X-7.818 Y-20.121
X-7.96 Y-20.063
X-8.014 Y-20.041
X-8.102 Y-20.007
X-8.244 Y-19.951
X-8.386 Y-19.889
X-8.528 Y-19.829
X-8.671 Y-19.77
X-8.697 Y-19.757
X-8.813 Y-19.704
X-8.955 Y-19.64
X-9.012 Y-19.615
X-9.097 Y-19.577
X-9.239 Y-19.507
X-9.31 Y-19.473
X-9.381 Y-19.44
X-9.524 Y-19.373
X-9.606 Y-19.331
X-9.666 Y-19.3
X-9.808 Y-19.228
X-9.888 Y-19.189
X-9.95 Y-19.158
X-10.092 Y-19.08
X-10.154 Y-19.046
X-10.234 Y-19.004
X-10.376 Y-18.93
X-10.422 Y-18.904
X-10.519 Y-18.848
X-10.661 Y-18.769
X-10.673 Y-18.762
X-10.803 Y-18.69
X-10.919 Y-18.62
X-10.945 Y-18.604
X-11.087 Y-18.52
X-11.161 Y-18.478
X-11.229 Y-18.437
X-11.388 Y-18.336
X-11.62 Y-18.193
X-11.656 Y-18.17
X-11.798 Y-18.074
X-11.833 Y-18.051
X-11.94 Y-17.983
X-12.052 Y-17.909
X-12.082 Y-17.888
X-12.224 Y-17.789
X-12.367 Y-17.693
X-12.464 Y-17.625
X-12.509 Y-17.592
X-12.651 Y-17.488
X-12.659 Y-17.483
X-12.793 Y-17.388
X-12.856 Y-17.341
X-12.935 Y-17.28
X-13.043 Y-17.198
X-13.077 Y-17.173
X-13.219 Y-17.066
X-13.362 Y-16.951
X-13.409 Y-16.914
X-13.504 Y-16.841
X-13.591 Y-16.772
X-13.646 Y-16.725
X-13.759 Y-16.63
X-13.788 Y-16.607
X-13.93 Y-16.491
X-13.935 Y-16.488
X-14.072 Y-16.367
X-14.096 Y-16.346
X-14.215 Y-16.245
X-14.263 Y-16.203
X-14.357 Y-16.12
X-14.42 Y-16.061
X-14.499 Y-15.989
X-14.578 Y-15.919
X-14.641 Y-15.864
X-14.732 Y-15.777
X-14.783 Y-15.728
X-14.881 Y-15.635
X-14.925 Y-15.594
X-15.033 Y-15.493
X-15.173 Y-15.351
X-15.21 Y-15.315
X-15.32 Y-15.208
X-15.352 Y-15.177
X-15.457 Y-15.066
X-15.494 Y-15.027
X-15.595 Y-14.924
X-15.636 Y-14.883
X-15.731 Y-14.782
X-15.778 Y-14.73
X-15.86 Y-14.64
X-15.92 Y-14.576
X-15.995 Y-14.498
X-16.062 Y-14.421
X-16.119 Y-14.356
X-16.205 Y-14.258
X-16.245 Y-14.213
X-16.347 Y-14.099
X-16.37 Y-14.071
X-16.488 Y-13.929
X-16.611 Y-13.787
X-16.631 Y-13.763
X-16.725 Y-13.645
X-16.773 Y-13.584
X-16.84 Y-13.503
X-16.915 Y-13.412
X-16.956 Y-13.361
X-17.063 Y-13.218
X-17.175 Y-13.076
X-17.2 Y-13.044
X-17.282 Y-12.934
X-17.342 Y-12.851
X-17.385 Y-12.792
X-17.492 Y-12.65
X-17.592 Y-12.508
X-17.626 Y-12.458
X-17.692 Y-12.366
X-17.768 Y-12.259
X-17.794 Y-12.223
X-17.887 Y-12.081
X-17.91 Y-12.046
X-17.983 Y-11.939
X-18.053 Y-11.837
X-18.079 Y-11.797
X-18.167 Y-11.655
X-18.195 Y-11.611
X-18.259 Y-11.513
X-18.337 Y-11.392
X-18.35 Y-11.37
X-18.434 Y-11.228
X-18.479 Y-11.154
X-18.522 Y-11.086
X-18.607 Y-10.944
X-18.687 Y-10.802
X-18.763 Y-10.672
X-18.77 Y-10.66
X-18.851 Y-10.518
X-18.927 Y-10.375
X-19.006 Y-10.233
X-19.048 Y-10.159
X-19.082 Y-10.091
X-19.154 Y-9.949
X-19.19 Y-9.882
X-19.23 Y-9.807
X-19.302 Y-9.665
X-19.37 Y-9.523
X-19.441 Y-9.38
X-19.474 Y-9.315
X-19.51 Y-9.238
X-19.574 Y-9.096
X-19.616 Y-9.006
X-19.641 Y-8.954
X-19.706 Y-8.812
X-19.766 Y-8.67
X-19.83 Y-8.528
X-19.892 Y-8.385
X-19.948 Y-8.243
X-20.008 Y-8.101
X-20.043 Y-8.018
X-20.067 Y-7.959
X-20.12 Y-7.817
X-20.175 Y-7.675
X-20.185 Y-7.649
X-20.231 Y-7.533
X-20.28 Y-7.39
X-20.327 Y-7.26
X-20.384 Y-7.106
X-20.431 Y-6.964
X-20.469 Y-6.847
X-20.527 Y-6.68
X-20.572 Y-6.538
X-20.615 Y-6.395
X-20.66 Y-6.253
X-20.704 Y-6.111
X-20.743 Y-5.969
X-20.753 Y-5.93
X-20.784 Y-5.827
X-20.825 Y-5.685
X-20.861 Y-5.542
X-20.896 Y-5.41
X-20.937 Y-5.258
X-20.97 Y-5.116
X-21.003 Y-4.974
X-21.039 Y-4.832
X-21.071 Y-4.69
X-21.1 Y-4.547
X-21.131 Y-4.405
X-21.162 Y-4.263
X-21.188 Y-4.121
X-21.215 Y-3.979
X-21.244 Y-3.837
X-21.267 Y-3.695
X-21.29 Y-3.552
X-21.316 Y-3.41
X-21.322 Y-3.374
X-21.337 Y-3.268
X-21.356 Y-3.126
X-21.379 Y-2.984
X-21.399 Y-2.842
X-21.415 Y-2.7
X-21.433 Y-2.557
X-21.452 Y-2.415
X-21.464 Y-2.287
X-21.465 Y-2.273
X-21.479 Y-2.131
X-21.495 Y-1.989
X-21.507 Y-1.847
X-21.517 Y-1.705
X-21.529 Y-1.562
X-21.541 Y-1.42
X-21.547 Y-1.278
X-21.555 Y-1.136
X-21.564 Y-0.994
X-21.569 Y-0.852
X-21.572 Y-0.71
X-21.579 Y-0.567
X-21.583 Y-0.425
Y-0.283
X-21.585 Y-0.141
X-21.587 Y0.001
X-21.585 Y0.143
X-21.583 Y0.285
Y0.428
X-21.579 Y0.57
X-21.572 Y0.712
X-21.569 Y0.854
X-21.564 Y0.996
X-21.555 Y1.138
X-21.547 Y1.281
X-21.54 Y1.423
X-21.529 Y1.565
X-21.517 Y1.707
X-21.507 Y1.849
X-21.494 Y1.991
X-21.479 Y2.133
X-21.465 Y2.276
X-21.464 Y2.287
X-21.452 Y2.418
X-21.433 Y2.56
X-21.415 Y2.702
X-21.399 Y2.844
X-21.378 Y2.986
X-21.356 Y3.128
X-21.337 Y3.271
X-21.322 Y3.374
X-21.315 Y3.413
X-21.29 Y3.555
X-21.266 Y3.697
X-21.243 Y3.839
X-21.215 Y3.981
X-21.187 Y4.123
X-21.162 Y4.266
X-21.131 Y4.408
X-21.099 Y4.55
X-21.07 Y4.692
X-21.038 Y4.834
X-21.003 Y4.976
X-20.97 Y5.118
X-20.937 Y5.261
X-20.896 Y5.41
X-20.861 Y5.545
X-20.825 Y5.687
X-20.783 Y5.829
X-20.753 Y5.93
X-20.742 Y5.971
X-20.703 Y6.113
X-20.66 Y6.256
X-20.614 Y6.398
X-20.572 Y6.54
X-20.526 Y6.682
X-20.469 Y6.847
X-20.431 Y6.966
X-20.383 Y7.109
X-20.327 Y7.26
X-20.28 Y7.393
X-20.23 Y7.535
X-20.185 Y7.649
X-20.174 Y7.677
X-20.119 Y7.819
X-20.066 Y7.961
X-20.043 Y8.018
X-20.007 Y8.104
X-19.947 Y8.246
X-19.891 Y8.388
X-19.829 Y8.53
X-19.765 Y8.672
X-19.705 Y8.814
X-19.64 Y8.956
X-19.616 Y9.006
X-19.573 Y9.099
X-19.509 Y9.241
X-19.474 Y9.315
X-19.44 Y9.383
X-19.369 Y9.525
X-19.301 Y9.667
X-19.229 Y9.809
X-19.19 Y9.882
X-19.153 Y9.951
X-19.081 Y10.094
X-19.048 Y10.159
X-19.005 Y10.236
X-18.925 Y10.378
X-18.849 Y10.52
X-18.769 Y10.662
X-18.763 Y10.672
X-18.685 Y10.804
X-18.605 Y10.946
X-18.52 Y11.089
X-18.479 Y11.154
X-18.432 Y11.231
X-18.348 Y11.373
X-18.337 Y11.392
X-18.258 Y11.515
X-18.195 Y11.611
X-18.166 Y11.657
X-18.077 Y11.799
X-18.053 Y11.837
X-17.981 Y11.941
X-17.91 Y12.046
X-17.886 Y12.084
X-17.792 Y12.226
X-17.768 Y12.259
X-17.69 Y12.368
X-17.626 Y12.458
X-17.591 Y12.51
X-17.49 Y12.652
X-17.383 Y12.794
X-17.342 Y12.851
X-17.281 Y12.936
X-17.2 Y13.044
X-17.173 Y13.079
X-17.062 Y13.221
X-16.954 Y13.363
X-16.915 Y13.412
X-16.838 Y13.505
X-16.773 Y13.584
X-16.724 Y13.647
X-16.631 Y13.763
X-16.609 Y13.789
X-16.486 Y13.932
X-16.347 Y14.099
X-16.243 Y14.216
X-16.205 Y14.258
X-16.117 Y14.358
X-16.062 Y14.421
X-15.992 Y14.5
X-15.92 Y14.576
X-15.858 Y14.642
X-15.778 Y14.73
X-15.729 Y14.784
X-15.636 Y14.883
X-15.593 Y14.927
X-15.494 Y15.027
X-15.455 Y15.069
X-15.352 Y15.177
X-15.318 Y15.211
X-15.21 Y15.315
X-15.171 Y15.353
X-15.03 Y15.495
X-14.925 Y15.594
X-14.879 Y15.637
X-14.783 Y15.728
X-14.73 Y15.779
X-14.641 Y15.864
X-14.576 Y15.922
X-14.499 Y15.989
X-14.418 Y16.064
X-14.357 Y16.12
X-14.26 Y16.206
X-14.215 Y16.245
X-14.093 Y16.348
X-14.072 Y16.367
X-13.932 Y16.49
X-13.93 Y16.491
X-13.788 Y16.607
X-13.756 Y16.632
X-13.646 Y16.725
X-13.588 Y16.774
X-13.504 Y16.841
X-13.406 Y16.917
X-13.362 Y16.951
X-13.219 Y17.066
X-13.077 Y17.173
X-13.039 Y17.201
X-12.935 Y17.28
X-12.853 Y17.343
X-12.793 Y17.388
X-12.651 Y17.488
X-12.509 Y17.592
X-12.46 Y17.627
X-12.367 Y17.693
X-12.224 Y17.789
X-12.082 Y17.888
X-12.049 Y17.912
X-11.94 Y17.983
X-11.829 Y18.054
X-11.798 Y18.074
X-11.656 Y18.17
X-11.616 Y18.196
X-11.514 Y18.258
X-11.384 Y18.338
X-11.229 Y18.437
X-11.156 Y18.48
X-11.087 Y18.52
X-10.945 Y18.604
X-10.915 Y18.622
X-10.803 Y18.69
X-10.668 Y18.764
X-10.661 Y18.769
X-10.519 Y18.848
X-10.418 Y18.907
X-10.376 Y18.93
X-10.234 Y19.004
X-10.15 Y19.049
X-10.092 Y19.08
X-9.95 Y19.158
X-9.883 Y19.191
X-9.808 Y19.228
X-9.666 Y19.3
X-9.602 Y19.333
X-9.524 Y19.373
X-9.381 Y19.44
X-9.305 Y19.475
X-9.239 Y19.507
X-9.097 Y19.577
X-9.007 Y19.617
X-8.955 Y19.64
X-8.813 Y19.704
X-8.692 Y19.76
X-8.671 Y19.77
X-8.528 Y19.829
X-8.386 Y19.889
X-8.244 Y19.951
X-8.102 Y20.007
X-8.008 Y20.044
X-7.96 Y20.063
X-7.818 Y20.121
X-7.676 Y20.175
X-7.533 Y20.227
X-7.391 Y20.281
X-7.264 Y20.328
X-7.107 Y20.381
X-6.965 Y20.431
X-6.855 Y20.47
X-6.823 Y20.481
X-6.68 Y20.525
X-6.538 Y20.571
X-6.414 Y20.612
X-6.396 Y20.618
X-6.254 Y20.659
X-6.112 Y20.701
X-5.97 Y20.745
X-5.939 Y20.755
X-5.828 Y20.784
X-5.685 Y20.822
X-5.543 Y20.862
X-5.414 Y20.897
X-5.259 Y20.934
X-5.117 Y20.97
X-4.975 Y21.006
X-4.823 Y21.039
X-4.69 Y21.069
X-4.548 Y21.103
X-4.406 Y21.131
X-4.264 Y21.159
X-4.122 Y21.189
X-3.98 Y21.216
X-3.837 Y21.24
X-3.695 Y21.267
X-3.553 Y21.293
X-3.411 Y21.313
X-3.345 Y21.323
X-3.269 Y21.336
X-3.127 Y21.36
X-2.985 Y21.378
X-2.842 Y21.396
X-2.7 Y21.417
X-2.558 Y21.434
X-2.416 Y21.448
X-2.276 Y21.465
X-2.274 Y21.466
X-2.132 Y21.482
X-1.99 Y21.493
X-1.847 Y21.506
X-1.705 Y21.52
X-1.563 Y21.529
X-1.421 Y21.537
X-1.279 Y21.548
X-1.137 Y21.557
X-0.994 Y21.561
X-0.852 Y21.569
X-0.71 Y21.576
X-0.568 Y21.578
X-0.426 Y21.58
X-0.284 Y21.585
X-0.142
X0.001 Y21.584
X0.143 Y21.585
X0.285
X0.427 Y21.58
X0.569 Y21.578
X0.711 Y21.576
X0.854 Y21.568
X0.996 Y21.561
X1.138 Y21.557
X1.28 Y21.548
X1.422 Y21.537
X1.564 Y21.529
X1.706 Y21.52
X1.849 Y21.506
X1.991 Y21.493
X2.133 Y21.482
X2.275 Y21.465
X2.417 Y21.448
X2.559 Y21.434
X2.701 Y21.417
X2.844 Y21.396
X2.986 Y21.378
X3.128 Y21.36
X3.27 Y21.336
X3.345 Y21.323
X3.412 Y21.313
X3.554 Y21.292
X3.697 Y21.267
X3.839 Y21.24
X3.981 Y21.216
X4.123 Y21.189
X4.265 Y21.159
X4.549 Y21.103
X4.692 Y21.069
X4.823 Y21.039
X4.976 Y21.006
X5.118 Y20.97
X5.26 Y20.933
X5.414 Y20.897
X5.544 Y20.862
X5.687 Y20.821
X5.829 Y20.784
X5.939 Y20.755
X5.971 Y20.745
X6.113 Y20.701
X6.255 Y20.659
X6.397 Y20.618
X6.414 Y20.612
X6.54 Y20.571
X6.682 Y20.524
X6.824 Y20.48
X6.855 Y20.47
X6.966 Y20.431
X7.108 Y20.38
X7.264 Y20.328
X7.392 Y20.281
X7.535 Y20.226
X7.677 Y20.175
X7.819 Y20.121
X7.961 Y20.062
X8.008 Y20.044
X8.103 Y20.007
X8.245 Y19.95
X8.388 Y19.888
X8.53 Y19.829
X8.672 Y19.769
X8.692 Y19.76
X8.814 Y19.703
X8.956 Y19.639
X9.007 Y19.617
X9.098 Y19.577
X9.24 Y19.507
X9.305 Y19.475
X9.383 Y19.439
X9.525 Y19.373
X9.602 Y19.333
X9.667 Y19.299
X9.809 Y19.227
X9.883 Y19.191
X9.951 Y19.157
X10.093 Y19.08
X10.15 Y19.049
X10.235 Y19.004
X10.378 Y18.929
X10.418 Y18.907
X10.52 Y18.848
X10.662 Y18.768
X10.668 Y18.764
X10.804 Y18.689
X10.915 Y18.622
X10.946 Y18.603
X11.088 Y18.519
X11.156 Y18.48
X11.231 Y18.436
X11.384 Y18.338
X11.515 Y18.258
X11.616 Y18.196
X11.657 Y18.169
X11.799 Y18.074
X11.829 Y18.054
X11.941 Y17.982
X12.049 Y17.912
X12.083 Y17.887
X12.226 Y17.788
X12.368 Y17.693
X12.46 Y17.627
X12.51 Y17.591
X12.652 Y17.488
X12.794 Y17.388
X12.853 Y17.343
X12.936 Y17.279
X13.039 Y17.201
X13.078 Y17.172
X13.221 Y17.065
X13.363 Y16.95
X13.406 Y16.917
X13.505 Y16.84
X13.588 Y16.774
X13.647 Y16.724
X13.756 Y16.632
X13.789 Y16.606
X13.931 Y16.49
X13.932
X14.074 Y16.366
X14.093 Y16.348
X14.216 Y16.244
X14.26 Y16.206
X14.358 Y16.119
X14.418 Y16.064
X14.5 Y15.988
X14.576 Y15.922
X14.642 Y15.863
X14.73 Y15.779
X14.784 Y15.727
X14.879 Y15.637
X14.926 Y15.593
X15.03 Y15.495
X15.171 Y15.353
X15.211 Y15.314
X15.318 Y15.211
X15.353 Y15.176
X15.455 Y15.069
X15.495 Y15.026
X15.593 Y14.927
X15.637 Y14.881
X15.729 Y14.784
X15.779 Y14.729
X15.858 Y14.642
X15.922 Y14.575
X15.992 Y14.5
X16.064 Y14.42
X16.117 Y14.358
X16.206 Y14.257
X16.243 Y14.216
X16.348 Y14.098
X16.368 Y14.074
X16.486 Y13.932
X16.609 Y13.789
X16.632 Y13.762
X16.724 Y13.647
X16.774 Y13.583
X16.838 Y13.505
X16.917 Y13.41
X16.954 Y13.363
X17.062 Y13.221
X17.173 Y13.079
X17.201 Y13.043
X17.281 Y12.936
X17.343 Y12.85
X17.383 Y12.794
X17.49 Y12.652
X17.591 Y12.51
X17.627 Y12.457
X17.69 Y12.368
X17.769 Y12.257
X17.792 Y12.226
X17.886 Y12.084
X17.912 Y12.044
X17.981 Y11.941
X18.054 Y11.835
X18.077 Y11.799
X18.166 Y11.657
X18.196 Y11.609
X18.258 Y11.515
X18.338 Y11.39
X18.348 Y11.373
X18.432 Y11.231
X18.48 Y11.153
X18.52 Y11.089
X18.605 Y10.946
X18.685 Y10.804
X18.765 Y10.67
X18.769 Y10.662
X18.849 Y10.52
X18.925 Y10.378
X19.005 Y10.236
X19.049 Y10.157
X19.081 Y10.094
X19.153 Y9.951
X19.191 Y9.88
X19.229 Y9.809
X19.301 Y9.667
X19.369 Y9.525
X19.44 Y9.383
X19.475 Y9.313
X19.509 Y9.241
X19.573 Y9.099
X19.617 Y9.004
X19.64 Y8.956
X19.705 Y8.814
X19.765 Y8.672
X19.829 Y8.53
X19.891 Y8.388
X19.947 Y8.246
X20.007 Y8.104
X20.044 Y8.015
X20.066 Y7.961
X20.119 Y7.819
X20.174 Y7.677
X20.186 Y7.646
X20.23 Y7.535
X20.28 Y7.393
X20.328 Y7.256
X20.383 Y7.109
X20.431 Y6.966
X20.47 Y6.843
X20.526 Y6.682
X20.572 Y6.54
X20.614 Y6.398
X20.66 Y6.256
X20.703 Y6.113
X20.742 Y5.971
X20.755 Y5.926
X20.783 Y5.829
X20.825 Y5.687
X20.861 Y5.545
X20.897 Y5.406
X20.937 Y5.261
X20.97 Y5.118
X21.003 Y4.976
X21.039 Y4.831
X21.07 Y4.692
X21.099 Y4.55
X21.131 Y4.408
X21.162 Y4.266
X21.187 Y4.123
X21.215 Y3.981
X21.243 Y3.839
X21.266 Y3.697
X21.29 Y3.555
X21.315 Y3.413
X21.323 Y3.367
X21.337 Y3.271
X21.356 Y3.128
X21.378 Y2.986
X21.399 Y2.844
X21.415 Y2.702
X21.433 Y2.56
X21.452 Y2.418
X21.465 Y2.276
Y2.273
X21.479 Y2.133
X21.494 Y1.991
X21.507 Y1.849
X21.517 Y1.707
X21.529 Y1.565
X21.54 Y1.423
X21.547 Y1.281
X21.555 Y1.138
X21.564 Y0.996
X21.569 Y0.854
X21.572 Y0.712
X21.579 Y0.57
X21.583 Y0.428
Y0.285
X21.585 Y0.143
X21.587 Y0.001
X21.585 Y-0.141
X21.583 Y-0.283
Y-0.425
X21.579 Y-0.567
X21.572 Y-0.71
X21.569 Y-0.852
X21.564 Y-0.994
X21.555 Y-1.136
X21.547 Y-1.278
X21.541 Y-1.42
X21.529 Y-1.562
X21.517 Y-1.705
X21.507 Y-1.847
X21.495 Y-1.989
X21.479 Y-2.131
X21.465 Y-2.273
X21.452 Y-2.415
X21.433 Y-2.557
X21.415 Y-2.7
X21.399 Y-2.842
X21.379 Y-2.984
X21.356 Y-3.126
X21.337 Y-3.268
X21.323 Y-3.367
X21.316 Y-3.41
X21.29 Y-3.552
X21.267 Y-3.695
X21.244 Y-3.837
X21.215 Y-3.979
X21.199 Y-4.06
X21.198 Y-4.064
X21.187 Y-4.122
X21.176 Y-4.184
X21.153 Y-4.307
X21.099 Y-4.552 Z-1.251
X21.047 Y-4.798
X20.987 Y-5.042 Z-1.252
X20.93 Y-5.286 Z-1.254
X20.864 Y-5.529 Z-1.255
X20.8 Y-5.772 Z-1.257
X20.73 Y-6.013 Z-1.259
X20.66 Y-6.254 Z-1.262
X20.585 Y-6.494 Z-1.264
X20.509 Y-6.733 Z-1.267
X20.429 Y-6.971 Z-1.27
X20.346 Y-7.208 Z-1.273
X20.262 Y-7.445 Z-1.277
X20.173 Y-7.68 Z-1.28
X20.083 Y-7.914 Z-1.284
X19.988 Y-8.147 Z-1.288
X19.894 Y-8.38 Z-1.292
X19.793 Y-8.61 Z-1.296
X19.694 Y-8.84 Z-1.301
X19.587 Y-9.068 Z-1.305
X19.483 Y-9.296 Z-1.31
X19.371 Y-9.521 Z-1.314
X19.262 Y-9.747 Z-1.318
X19.144 Y-9.969 Z-1.323
X19.029 Y-10.193 Z-1.327
X18.907 Y-10.412 Z-1.331
X18.787 Y-10.632 Z-1.336
X18.66 Y-10.849 Z-1.34
X18.534 Y-11.066 Z-1.345
X18.403 Y-11.281 Z-1.349
X18.271 Y-11.494 Z-1.353
X18.136 Y-11.706 Z-1.358
X17.998 Y-11.916 Z-1.362
X17.859 Y-12.125 Z-1.367
X17.716 Y-12.331 Z-1.371
X17.572 Y-12.537 Z-1.375
X17.424 Y-12.74 Z-1.38
X17.276 Y-12.943 Z-1.384
X17.123 Y-13.142 Z-1.388
X16.97 Y-13.342 Z-1.393
X16.812 Y-13.537 Z-1.397
X16.656 Y-13.733 Z-1.402
X16.492 Y-13.924 Z-1.406
X16.332 Y-14.117 Z-1.41
X16.164 Y-14.304 Z-1.415
X15.999 Y-14.493 Z-1.419
X15.827 Y-14.676 Z-1.424
X15.657 Y-14.861 Z-1.428
X15.481 Y-15.041 Z-1.432
X15.307 Y-15.221 Z-1.437
X15.127 Y-15.397 Z-1.441
X14.948 Y-15.573 Z-1.445
X14.765 Y-15.745 Z-1.45
X14.581 Y-15.916 Z-1.454
X14.395 Y-16.085 Z-1.458
X14.207 Y-16.251 Z-1.463
X14.017 Y-16.415 Z-1.466
X13.825 Y-16.577 Z-1.47
X13.632 Y-16.737 Z-1.474
X13.435 Y-16.894 Z-1.477
X13.239 Y-17.05 Z-1.48
X13.038 Y-17.202 Z-1.483
X12.839 Y-17.354 Z-1.486
X12.634 Y-17.5 Z-1.489
X12.432 Y-17.648 Z-1.491
X12.224 Y-17.789 Z-1.493
X12.018 Y-17.933 Z-1.495
X11.806 Y-18.069 Z-1.496
X11.597 Y-18.208 Z-1.498
X11.383 Y-18.339 Z-1.499
X11.17 Y-18.472
X10.953 Y-18.599 Z-1.5
X10.862 Y-18.654
X10.816 Y-18.682
X10.793 Y-18.696
X10.782 Y-18.702
X10.773 Y-18.707
X10.77 Y-18.709
Y-18.708
X10.673 Y-18.762
X10.662 Y-18.768
X10.52 Y-18.848
X10.422 Y-18.904
X10.378 Y-18.929
X10.235 Y-19.004
X10.154 Y-19.046
X10.093 Y-19.08
X9.951 Y-19.157
X9.888 Y-19.189
X9.809 Y-19.227
X9.667 Y-19.299
X9.606 Y-19.331
X9.525 Y-19.373
X9.383 Y-19.439
X9.31 Y-19.473
X9.24 Y-19.507
X9.098 Y-19.577
X9.012 Y-19.615
X8.956 Y-19.639
X8.814 Y-19.703
X8.697 Y-19.757
X8.672 Y-19.769
X8.53 Y-19.829
X8.388 Y-19.888
X8.245 Y-19.95
X8.103 Y-20.007
X8.014 Y-20.041
X7.961 Y-20.062
X7.819 Y-20.121
X7.677 Y-20.175
X7.535 Y-20.226
X7.392 Y-20.281
X7.271 Y-20.326
X7.108 Y-20.38
X6.966 Y-20.431
X6.862 Y-20.468
X6.824 Y-20.48
X6.682 Y-20.524
X6.54 Y-20.571
X6.422 Y-20.61
X6.397 Y-20.618
X6.255 Y-20.659
X6.113 Y-20.701
X5.971 Y-20.745
X5.947 Y-20.752
X5.829 Y-20.784
X5.687 Y-20.821
X5.544 Y-20.862
X5.424 Y-20.894
X5.26 Y-20.933
X5.118 Y-20.97
X4.976 Y-21.006
X4.834 Y-21.037
X4.692 Y-21.069
X4.549 Y-21.103
X4.265 Y-21.159
X4.123 Y-21.189
X3.981 Y-21.216
X3.839 Y-21.24
X3.697 Y-21.267
X3.554 Y-21.292
X3.361 Y-21.321
X3.27 Y-21.336
X3.128 Y-21.36
X2.986 Y-21.378
X2.844 Y-21.396
X2.701 Y-21.417
X2.559 Y-21.434
X2.417 Y-21.448
X2.296 Y-21.463
X2.275 Y-21.465
X2.133 Y-21.482
X1.991 Y-21.493
X1.849 Y-21.506
X1.706 Y-21.52
X1.564 Y-21.529
X1.422 Y-21.537
X1.28 Y-21.548
X1.138 Y-21.557
X0.996 Y-21.561
X0.854 Y-21.568
X0.711 Y-21.576
X0.569 Y-21.578
X0.427 Y-21.58
X0.285 Y-21.585
X0.143
X0.001 Y-21.584
X-0.142 Y-21.585
X-0.284
X-0.426 Y-21.58
X-0.568 Y-21.578
X-0.71 Y-21.576
X-0.852 Y-21.569
X-0.994 Y-21.561
X-1.137 Y-21.557
X-1.279 Y-21.548
X-1.421 Y-21.537
X-1.563 Y-21.529
X-1.705 Y-21.52
X-1.847 Y-21.506
X-1.99 Y-21.493
X-2.132 Y-21.482
X-2.274 Y-21.466
