(_)
(T1  D=3.175 CR=0. - ZMIN=-5. - FLAT END MILL)
G90 G94 G91.1 G40 G49 G17
G21

(2D CONTOUR2)
M5
M9
T1
S5500 M3
G54
M8
G0 X9.611 Y3.089
G43 Z15. H1
Z5.
G1 Z2. F762.
Z1.5
G3 X-10.095 Y0. Z-1. R10.095 F351.
X10.095 R10.095
X-10.095 R10.095
X10.413 R10.254
X-10.413 R10.413
X10.413 R10.413
G1 X10.212 Z-0.98
Z0.5
X9.611 Y3.089
G3 X-10.095 Y0. Z-2. R10.095
X10.095 R10.095
X-10.095 R10.095
X10.413 R10.254
X-10.413 R10.413
X10.413 R10.413
G1 X10.212 Z-1.98
Z-0.5
X9.611 Y3.089
G3 X-10.095 Y0. Z-3. R10.095
X10.095 R10.095
X-10.095 R10.095
X10.413 R10.254
X-10.413 R10.413
X10.413 R10.413
G1 X10.212 Z-2.98
Z-1.5
X9.611 Y3.089
G3 X-10.095 Y0. Z-4. R10.095
X10.095 R10.095
X-10.095 R10.095
X10.413 R10.254
X-10.413 R10.413
X10.413 R10.413
G1 X10.212 Z-3.98
Z-2.5
X9.611 Y3.089
G3 X-10.095 Y0. Z-5. R10.095
X10.095 R10.095
X-10.095 R10.095
X10.413 R10.254
X-10.413 R10.413
X10.413 R10.413
G1 X10.212 Z-4.98
G0 Z15.

(2D CONTOUR1)
M8
G0 X15.85 Y0.951
Z15.
Z5.
G1 Z2. F762.
Z1.5
G3 X16.15 Y-0.951 Z1.235 R0.962 F351.
X15.85 Y0.951 Z0.971 R0.962
X16.15 Y-0.951 Z0.706 R0.962
X15.85 Y0.951 Z0.442 R0.962
X16.15 Y-0.951 Z0.177 R0.962
X15.85 Y0.951 Z-0.087 R0.962
X16.15 Y-0.951 Z-0.352 R0.962
X15.85 Y0.951 Z-0.616 R0.962
X16.15 Y-0.951 Z-0.881 R0.962
X16.962 Y0. Z-1. R0.962
X15.038 R0.962
X16.962 R0.962
X15.038 Z-1.265 R0.962
X16.962 Z-1.529 R0.962
X15.038 Z-1.794 R0.962
X16.742 Y-0.613 Z-2. R0.962
X15.258 Y0.613 R0.962
X16.742 Y-0.613 R0.962
X15.258 Y0.613 Z-2.265 R0.962
X16.742 Y-0.613 Z-2.529 R0.962
X15.258 Y0.613 Z-2.794 R0.962
X16.181 Y-0.945 Z-3. R0.962
X15.819 Y0.945 R0.962
X16.181 Y-0.945 R0.962
X15.819 Y0.945 Z-3.265 R0.963
X16.181 Y-0.945 Z-3.529 R0.963
X15.819 Y0.945 Z-3.794 R0.963
X15.537 Y-0.844 Z-4. R0.963
X16.463 Y0.844 R0.963
X15.537 Y-0.844 R0.963
X16.463 Y0.844 Z-4.265 R0.963
X15.537 Y-0.844 Z-4.529 R0.963
X16.463 Y0.844 Z-4.794 R0.963
X15.105 Y-0.355 Z-5. R0.963
X16.895 Y0.355 R0.963
X15.105 Y-0.355 R0.963
G0 Z5.
X-0.15 Y-15.049
G1 Z2. F762.
Z1.5
G3 X0.15 Y-16.951 Z1.235 R0.962 F351.
X-0.15 Y-15.049 Z0.971 R0.962
X0.15 Y-16.951 Z0.706 R0.962
X-0.15 Y-15.049 Z0.442 R0.962
X0.15 Y-16.951 Z0.177 R0.962
X-0.15 Y-15.049 Z-0.087 R0.962
X0.15 Y-16.951 Z-0.352 R0.962
X-0.15 Y-15.049 Z-0.616 R0.962
X0.15 Y-16.951 Z-0.881 R0.962
X0.962 Y-16. Z-1. R0.962
X-0.962 R0.962
X0.962 R0.962
X-0.963 Z-1.265 R0.963
X0.963 Z-1.529 R0.963
X-0.963 Z-1.794 R0.963
X0.742 Y-16.613 Z-2. R0.963
X-0.742 Y-15.387 R0.963
X0.742 Y-16.613 R0.963
X-0.742 Y-15.387 Z-2.265 R0.963
X0.742 Y-16.613 Z-2.529 R0.963
X-0.742 Y-15.387 Z-2.794 R0.963
X0.181 Y-16.945 Z-3. R0.963
X-0.181 Y-15.055 R0.963
X0.181 Y-16.945 R0.963
X-0.181 Y-15.055 Z-3.265 R0.963
X0.181 Y-16.945 Z-3.529 R0.963
X-0.181 Y-15.055 Z-3.794 R0.963
X-0.463 Y-16.844 Z-4. R0.963
X0.463 Y-15.156 R0.963
X-0.463 Y-16.844 R0.963
X0.463 Y-15.156 Z-4.265 R0.963
X-0.463 Y-16.844 Z-4.529 R0.963
X0.463 Y-15.156 Z-4.794 R0.963
X-0.895 Y-16.355 Z-5. R0.963
X0.895 Y-15.645 R0.963
X-0.895 Y-16.355 R0.963
G0 Z5.
X-16.15 Y0.951
G1 Z2. F762.
Z1.5
G3 X-15.85 Y-0.951 Z1.235 R0.962 F351.
X-16.15 Y0.951 Z0.971 R0.962
X-15.85 Y-0.951 Z0.706 R0.962
X-16.15 Y0.951 Z0.442 R0.962
X-15.85 Y-0.951 Z0.177 R0.962
X-16.15 Y0.951 Z-0.087 R0.962
X-15.85 Y-0.951 Z-0.352 R0.962
X-16.15 Y0.951 Z-0.616 R0.962
X-15.85 Y-0.951 Z-0.881 R0.962
X-15.038 Y0. Z-1. R0.962
X-16.962 R0.962
X-15.038 R0.962
X-16.962 Z-1.265 R0.962
X-15.038 Z-1.529 R0.962
X-16.962 Z-1.794 R0.962
X-15.258 Y-0.613 Z-2. R0.962
X-16.742 Y0.613 R0.962
X-15.258 Y-0.613 R0.962
X-16.742 Y0.613 Z-2.265 R0.962
X-15.258 Y-0.613 Z-2.529 R0.962
X-16.742 Y0.613 Z-2.794 R0.962
X-15.819 Y-0.945 Z-3. R0.962
X-16.181 Y0.945 R0.962
X-15.819 Y-0.945 R0.962
X-16.181 Y0.945 Z-3.265 R0.962
X-15.819 Y-0.945 Z-3.529 R0.962
X-16.181 Y0.945 Z-3.794 R0.962
X-16.463 Y-0.844 Z-4. R0.962
X-15.537 Y0.844 R0.962
X-16.463 Y-0.844 R0.962
X-15.537 Y0.844 Z-4.265 R0.962
X-16.463 Y-0.844 Z-4.529 R0.962
X-15.537 Y0.844 Z-4.794 R0.962
X-16.895 Y-0.355 Z-5. R0.962
X-15.105 Y0.355 R0.962
X-16.895 Y-0.355 R0.962
G0 Z5.
X-0.15 Y16.951
G1 Z2. F762.
Z1.5
G3 X0.15 Y15.049 Z1.235 R0.962 F351.
X-0.15 Y16.951 Z0.971 R0.962
X0.15 Y15.049 Z0.706 R0.962
X-0.15 Y16.951 Z0.442 R0.962
X0.15 Y15.049 Z0.177 R0.962
X-0.15 Y16.951 Z-0.087 R0.962
X0.15 Y15.049 Z-0.352 R0.962
X-0.15 Y16.951 Z-0.616 R0.962
X0.15 Y15.049 Z-0.881 R0.962
X0.962 Y16. Z-1. R0.962
X-0.962 R0.962
X0.962 R0.962
X-0.962 Z-1.265 R0.962
X0.962 Z-1.529 R0.962
X-0.962 Z-1.794 R0.962
X0.742 Y15.387 Z-2. R0.962
X-0.742 Y16.613 R0.962
X0.742 Y15.387 R0.962
X-0.742 Y16.613 Z-2.265 R0.963
X0.742 Y15.387 Z-2.529 R0.963
X-0.742 Y16.613 Z-2.794 R0.963
X0.181 Y15.055 Z-3. R0.963
X-0.181 Y16.945 R0.963
X0.181 Y15.055 R0.963
X-0.181 Y16.945 Z-3.265 R0.963
X0.181 Y15.055 Z-3.529 R0.963
X-0.181 Y16.945 Z-3.794 R0.963
X-0.463 Y15.156 Z-4. R0.963
X0.463 Y16.844 R0.963
X-0.463 Y15.156 R0.963
X0.463 Y16.844 Z-4.265 R0.962
X-0.463 Y15.156 Z-4.529 R0.962
X0.463 Y16.844 Z-4.794 R0.962
X-0.895 Y15.645 Z-5. R0.962
X0.895 Y16.355 R0.962
X-0.895 Y15.645 R0.962
G0 Z15.

(2D CONTOUR4)
M8
G0 X1.816 Y10.304
Z15.
Z5.
G1 Z1.5 F762.
G3 X-1.816 Y-10.304 Z-1.376 R10.462 F351.
X1.816 Y10.304 Z-4.251 R10.462
X-6.278 Y8.37 Z-5. R10.462
X6.278 Y-8.37 R10.463
X-6.278 Y8.37 R10.463
X6.278 Y-8.37 R10.463
X-6.278 Y8.37 R10.463
G0 Z15.

(2D CONTOUR3)
M8
G0 X-15.575 Y16.658
Z15.
Z5.
G1 Z2. F762.
Z0.5
G2 X0. Y22.805 Z-1. R22.805 F351.
Y-22.805 R22.805 F219.
Y22.805 R22.805
X0.682 Y22.345 R0.735
G3 X1.349 Y21.863 R0.771
G2 X-1.349 Y-21.863 R21.905
X1.349 Y21.863 R21.905
G0 Z5.
X-15.575 Y16.658
G1 Z1. F762.
Z-0.5
G2 X0. Y22.805 Z-2. R22.805 F351.
Y-22.805 R22.805 F219.
Y22.805 R22.805
X0.682 Y22.345 R0.735
G3 X1.349 Y21.863 R0.771
G2 X-1.349 Y-21.863 R21.905
X1.349 Y21.863 R21.905
G0 Z5.
X-15.575 Y16.658
G1 Z0. F762.
Z-1.5
G2 X0. Y22.805 Z-3. R22.805 F351.
Y-22.805 R22.805 F219.
Y22.805 R22.805
X0.682 Y22.345 R0.735
G3 X1.349 Y21.863 R0.771
G2 X-1.349 Y-21.863 R21.905
X1.349 Y21.863 R21.905
G0 Z5.
X-15.575 Y16.658
G1 Z-1. F762.
Z-2.5
G2 X0. Y22.805 Z-4. R22.805 F351.
Y-22.805 R22.805 F219.
Y22.805 R22.805
X0.682 Y22.345 R0.735
G3 X1.349 Y21.863 R0.771
G2 X-1.349 Y-21.863 R21.905
X1.349 Y21.863 R21.905
G0 Z5.
X-14.28 Y17.781
G1 Z-2. F762.
Z-3.5
G2 X-13.683 Y18.244 Z-3.566 R22.805 F351.
X0. Y22.805 Z-4.85 R22.805
Y-22.805 R22.805 F219.
Y22.805 R22.805
X0.682 Y22.345 R0.735
G3 X1.349 Y21.863 R0.771
G2 X-1.349 Y-21.863 R21.905
X1.349 Y21.863 R21.905
X1.578 Y21.689 R0.258
G3 X1.805 Y21.512 R0.263
G2 X-1.805 Y-21.512 R21.587
X1.805 Y21.512 R21.587
G0 Z15.

M9
M30
