(_)
(T1  D=3.175 CR=0. - ZMIN=-8. - FLAT END MILL)
G90 G94 G91.1 G40 G49 G17
G21

(2D CONTOUR1)
M5
M9
T1
S5500 M3
G54
M8
G0 X-14.765 Y2.089
G43 Z15. H1
Z5.
G1 Z3. F762.
Z2.5
G3 X0. Y-14.913 Z-2. R14.913 F351.
Y14.913 R14.913
Y-14.913 R14.913
X12.463 Y-8.189 Z-4. R14.913
X-12.463 Y8.189 R14.913
X12.463 Y-8.189 R14.913
X13.687 Y5.919 Z-6. R14.913
X-13.687 Y-5.919 R14.913
X13.687 Y5.919 R14.913
X2.569 Y14.689 Z-8. R14.912
X-2.569 Y-14.689 R14.912
X2.569 Y14.689 R14.912
G0 Z5.
X22.775 Y9.13
G1 Z3. F762.
Z2.5
G3 X22.225 Y10.87 Z1.995 R0.913 F351.
X22.775 Y9.13 Z1.489 R0.913
X22.225 Y10.87 Z0.984 R0.913
X22.775 Y9.13 Z0.478 R0.913
X22.225 Y10.87 Z-0.027 R0.913
X22.775 Y9.13 Z-0.533 R0.913
X22.225 Y10.87 Z-1.038 R0.913
X22.775 Y9.13 Z-1.544 R0.913
X22.5 Y10.913 Z-2. R0.913
Y9.087 R0.913
Y10.913 R0.913
Y9.087 Z-2.505 R0.912
Y10.913 Z-3.011 R0.912
Y9.088 Z-3.516 R0.912
X22.624 Y10.904 Z-4. R0.912
X22.376 Y9.096 R0.912
X22.624 Y10.904 R0.912
X22.376 Y9.096 Z-4.505 R0.913
X22.624 Y10.904 Z-5.011 R0.913
X22.376 Y9.096 Z-5.516 R0.913
X22.745 Y10.879 Z-6. R0.913
X22.255 Y9.121 R0.913
X22.745 Y10.879 R0.913
X22.255 Y9.121 Z-6.505 R0.913
X22.745 Y10.879 Z-7.011 R0.913
X22.255 Y9.121 Z-7.516 R0.913
X22.862 Y10.837 Z-8. R0.913
X22.138 Y9.163 R0.913
X22.862 Y10.837 R0.913
G0 Z5.
X22.775 Y-10.87
G1 Z3. F762.
Z2.5
G3 X22.225 Y-9.13 Z1.995 R0.913 F351.
X22.775 Y-10.87 Z1.489 R0.913
X22.225 Y-9.13 Z0.984 R0.913
X22.775 Y-10.87 Z0.478 R0.913
X22.225 Y-9.13 Z-0.027 R0.913
X22.775 Y-10.87 Z-0.533 R0.913
X22.225 Y-9.13 Z-1.038 R0.913
X22.775 Y-10.87 Z-1.544 R0.913
X22.5 Y-9.087 Z-2. R0.913
Y-10.913 R0.913
Y-9.087 R0.913
Y-10.913 Z-2.505 R0.912
Y-9.087 Z-3.011 R0.912
Y-10.912 Z-3.516 R0.912
X22.624 Y-9.096 Z-4. R0.912
X22.376 Y-10.904 R0.912
X22.624 Y-9.096 R0.912
X22.376 Y-10.904 Z-4.505 R0.913
X22.624 Y-9.096 Z-5.011 R0.913
X22.376 Y-10.904 Z-5.516 R0.913
X22.745 Y-9.121 Z-6. R0.913
X22.255 Y-10.879 R0.913
X22.745 Y-9.121 R0.913
X22.255 Y-10.879 Z-6.505 R0.913
X22.745 Y-9.121 Z-7.011 R0.913
X22.255 Y-10.879 Z-7.516 R0.913
X22.862 Y-9.163 Z-8. R0.913
X22.138 Y-10.837 R0.913
X22.862 Y-9.163 R0.913
G0 Z5.
X-21.969 Y-9.258
G1 Z3. F762.
Z2.5
G3 X-23.031 Y-10.742 Z1.995 R0.912 F351.
X-21.969 Y-9.258 Z1.489 R0.912
X-23.031 Y-10.742 Z0.984 R0.912
X-21.969 Y-9.258 Z0.478 R0.912
X-23.031 Y-10.742 Z-0.027 R0.912
X-21.969 Y-9.258 Z-0.533 R0.912
X-23.031 Y-10.742 Z-1.038 R0.912
X-21.969 Y-9.258 Z-1.544 R0.912
X-23.23 Y-10.547 Z-2. R0.912
X-21.77 Y-9.453 R0.912
X-23.23 Y-10.547 R0.912
X-21.77 Y-9.453 Z-2.505 R0.913
X-23.23 Y-10.548 Z-3.011 R0.913
X-21.77 Y-9.452 Z-3.516 R0.913
X-23.298 Y-10.443 Z-4. R0.913
X-21.702 Y-9.557 R0.913
X-23.298 Y-10.443 R0.913
X-21.702 Y-9.557 Z-4.505 R0.912
X-23.298 Y-10.443 Z-5.011 R0.912
X-21.702 Y-9.557 Z-5.516 R0.912
X-23.35 Y-10.331 Z-6. R0.912
X-21.65 Y-9.669 R0.912
X-23.35 Y-10.331 R0.912
X-21.65 Y-9.669 Z-6.505 R0.912
X-23.35 Y-10.331 Z-7.011 R0.912
X-21.65 Y-9.669 Z-7.516 R0.912
X-23.387 Y-10.212 Z-8. R0.912
X-21.613 Y-9.788 R0.912
X-23.387 Y-10.212 R0.912
G0 Z5.
X-22.225 Y9.13
G1 Z3. F762.
Z2.5
G3 X-22.775 Y10.87 Z1.995 R0.913 F351.
X-22.225 Y9.13 Z1.489 R0.913
X-22.775 Y10.87 Z0.984 R0.913
X-22.225 Y9.13 Z0.478 R0.913
X-22.775 Y10.87 Z-0.027 R0.913
X-22.225 Y9.13 Z-0.533 R0.913
X-22.775 Y10.87 Z-1.038 R0.913
X-22.225 Y9.13 Z-1.544 R0.913
X-22.5 Y10.913 Z-2. R0.913
Y9.087 R0.913
Y10.913 R0.913
Y9.087 Z-2.505 R0.912
Y10.913 Z-3.011 R0.912
Y9.088 Z-3.516 R0.912
X-22.376 Y10.904 Z-4. R0.912
X-22.624 Y9.096 R0.912
X-22.376 Y10.904 R0.912
X-22.624 Y9.096 Z-4.505 R0.913
X-22.376 Y10.904 Z-5.011 R0.913
X-22.624 Y9.096 Z-5.516 R0.913
X-22.255 Y10.879 Z-6. R0.913
X-22.745 Y9.121 R0.913
X-22.255 Y10.879 R0.913
X-22.745 Y9.121 Z-6.505 R0.913
X-22.255 Y10.879 Z-7.011 R0.913
X-22.745 Y9.121 Z-7.516 R0.913
X-22.138 Y10.837 Z-8. R0.913
X-22.862 Y9.163 R0.913
X-22.138 Y10.837 R0.913
G0 Z15.

(2D CONTOUR2)
M8
G0 X-10.286 Y13.425
Z15.
Z5.
G1 Z4. F762.
Z2.5
G3 X-10.148 Y-13.53 Z-3. R16.912 F351.
X10.148 Y13.53 R16.912
X-10.148 Y-13.53 R16.912
X12.602 Y-11.279 Z-6. R16.913
X-12.602 Y11.279 R16.913
X12.602 Y-11.279 R16.913
X16.446 Y-3.944 Z-7. R16.912
X-16.446 Y3.944 R16.912
X16.446 Y-3.944 R16.912
X-16.446 Y3.944 R16.912
X16.446 Y-3.944 R16.912
G0 Z15.

(2D CONTOUR3)
M8
G0 X-25.276 Y20.398
Z15.
Z5.
G1 Z3. F762.
Z2.5
G2 X-21.5 Y21.587 Z1.791 R6.587 F351.
G1 X0. Z-2.
X21.5
G2 X28.087 Y15. R6.587
G1 Y-15.
G2 X21.5 Y-21.587 R6.587
G1 X-21.5
G2 X-28.087 Y-15. R6.587
G1 Y15.
G2 X-21.5 Y21.587 R6.587
G1 X0.
X21.5 Z-3.457
G2 X27.677 Y17.289 Z-4. R6.587
X28.087 Y15. R6.587
G1 Y-15.
G2 X21.5 Y-21.587 R6.587
G1 X-21.5
G2 X-28.087 Y-15. R6.587
G1 Y15.
G2 X-21.5 Y21.587 R6.587
G1 X21.5
G2 X27.677 Y17.289 R6.587
X28.087 Y15. Z-4.158 R6.587
G1 Y-12.173 Z-6.
Y-15.
G2 X21.5 Y-21.587 R6.587
G1 X-21.5
G2 X-28.087 Y-15. R6.587
G1 Y15.
G2 X-21.5 Y21.587 R6.587
G1 X21.5
G2 X28.087 Y15. R6.587
G1 Y-12.173
Y-15. Z-6.192
G2 X21.5 Y-21.587 Z-6.893 R6.587
G1 X5.164 Z-8.
X-21.5
G2 X-28.087 Y-15. R6.587
G1 Y15.
G2 X-21.5 Y21.587 R6.587
G1 X21.5
G2 X28.087 Y15. R6.587
G1 Y-12.173
Y-15.
G2 X21.5 Y-21.587 R6.587
G1 X5.164
G0 Z15.

M9
M30
