(___1)
(T1  D=3.175 CR=0. - ZMIN=-2. - FLAT END MILL)
(T2  D=3.175 CR=0. - ZMIN=-2. - FLAT END MILL)
G90 G94 G91.1 G40 G49 G17
G21

(DRILL6)
M5
M9
T2
S10000 M3
G54
M8
G0 X0. Y0.
G43 Z15. H2
Z5.
G98 G83 X0. Y0. Z-2. R5. Q0.794 F762.
G80
Z15.

(DRILL1)
M5
M9
M1
T1
S10000 M3
G54
M8
G0 X-29.5 Y-10.
G43 Z15. H1
Z5.
G1 Z0. F762.
Z-1.
G3 X-28.587 R0.456 F953.
X-30.413 R0.913
X-28.587 R0.913
G1 X-29.5
Z-2. F762.
G3 X-28.587 R0.456 F953.
X-30.413 R0.913
X-28.587 R0.913
G1 X-29.5
G0 Z5.
Y10.
G1 Z0. F762.
Z-1.
G3 X-28.587 R0.456 F953.
X-30.413 R0.913
X-28.587 R0.913
G1 X-29.5
Z-2. F762.
G3 X-28.587 R0.456 F953.
X-30.413 R0.913
X-28.587 R0.913
G1 X-29.5
G0 Z5.
X29.5
G1 Z0. F762.
Z-1.
G3 X30.413 R0.456 F953.
X28.587 R0.913
X30.413 R0.913
G1 X29.5
Z-2. F762.
G3 X30.413 R0.456 F953.
X28.587 R0.913
X30.413 R0.913
G1 X29.5
G0 Z5.
Y-10.
G1 Z0. F762.
Z-1.
G3 X30.413 R0.456 F953.
X28.587 R0.913
X30.413 R0.913
G1 X29.5
Z-2. F762.
G3 X30.413 R0.456 F953.
X28.587 R0.913
X30.413 R0.913
G1 X29.5
G0 Z5.
Z15.

(2D CONTOUR5)
M8
G0 X19.849 Y-22.587
Z15.
Z5.
G1 Z2.5 F762.
X0. Z-1. F953.
X-32.5
G2 X-34.088 Y-21. R1.588
G1 Y21.
G2 X-32.5 Y22.587 R1.587
G1 X32.5
G2 X34.088 Y21. R1.588
G1 Y-21.
G2 X32.5 Y-22.587 R1.587
G1 X0.
X-17.636 Z-2.
X-32.5
G2 X-34.088 Y-21. R1.588
G1 Y21.
G2 X-32.5 Y22.587 R1.587
G1 X32.5
G2 X34.088 Y21. R1.588
G1 Y-21.
G2 X32.5 Y-22.587 R1.587
G1 X0.
X-17.636
G0 Z15.

M9
M30
