(__)
(T2  D=3.175 CR=0. - ZMIN=-8. - FLAT END MILL)
G90 G94 G91.1 G40 G49 G17
G21

(DRILL2)
M5
M9
T2
S10000 M3
G54
M8
G0 X0. Y0.
G43 Z15. H2
Z5.
G98 G81 X0. Y0. Z-8. R5. F762.
G80
Z15.

(2D CONTOUR2)
M8
G0 X7.401 Y-1.67
Z15.
Z5.
G1 Z3. F762.
Z2.5
G3 X0.84 Y7.541 Z0.25 R7.588 F953.
X-7.588 Y0. Z-2. R7.588
X7.588 R7.588
X-7.588 R7.588
X-0.575 Y-7.566 Z-4. R7.587
X0.575 Y7.566 R7.587
X-0.575 Y-7.566 R7.587
X7.5 Y-1.147 Z-6. R7.588
X-7.5 Y1.147 R7.588
X7.5 Y-1.147 R7.588
X1.713 Y7.392 Z-8. R7.588
X-1.713 Y-7.392 R7.588
X1.713 Y7.392 R7.588
G0 Z15.

M9
M30
