(__)
(T1  D=3.175 CR=0. - ZMIN=-20. - FLAT END MILL)
G90 G94 G91.1 G40 G49 G17
G21

(DRILL2)
M5
M9
T1
S10000 M3
G54
M8
G0 X29.5 Y-10.
G43 Z15. H1
Z5.
G1 Z0. F762.
Z-2.
G2 X29.758 R0.129
X28.984 R0.387
X30.274 R0.645
X28.587 R0.843
X30.413 R0.913
X28.587 R0.913
G1 X29.5
Z-4.
G2 X29.758 R0.129
X28.984 R0.387
X30.274 R0.645
X28.587 R0.843
X30.413 R0.913
X28.587 R0.913
G1 X29.5
Z-6.
G2 X29.758 R0.129
X28.984 R0.387
X30.274 R0.645
X28.587 R0.843
X30.413 R0.913
X28.587 R0.913
G1 X29.5
Z-8.
G2 X29.758 R0.129
X28.984 R0.387
X30.274 R0.645
X28.587 R0.843
X30.413 R0.913
X28.587 R0.913
G1 X29.5
Z-10.
G2 X29.758 R0.129
X28.984 R0.387
X30.274 R0.645
X28.587 R0.843
X30.413 R0.913
X28.587 R0.913
G1 X29.5
Z-12.
G2 X29.758 R0.129
X28.984 R0.387
X30.274 R0.645
X28.587 R0.843
X30.413 R0.913
X28.587 R0.913
G1 X29.5
Z-14.
G2 X29.758 R0.129
X28.984 R0.387
X30.274 R0.645
X28.587 R0.843
X30.413 R0.913
X28.587 R0.913
G1 X29.5
Z-16.
G2 X29.758 R0.129
X28.984 R0.387
X30.274 R0.645
X28.587 R0.843
X30.413 R0.913
X28.587 R0.913
G1 X29.5
Z-18.
G2 X29.758 R0.129
X28.984 R0.387
X30.274 R0.645
X28.587 R0.843
X30.413 R0.913
X28.587 R0.913
G1 X29.5
Z-20.
G2 X29.758 R0.129
X28.984 R0.387
X30.274 R0.645
X28.587 R0.843
X30.413 R0.913
X28.587 R0.913
G1 X29.5
G0 Z5.
Y10.
G1 Z0. F762.
Z-2.
G2 X29.758 R0.129
X28.984 R0.387
X30.274 R0.645
X28.587 R0.843
X30.413 R0.913
X28.587 R0.913
G1 X29.5
Z-4.
G2 X29.758 R0.129
X28.984 R0.387
X30.274 R0.645
X28.587 R0.843
X30.413 R0.913
X28.587 R0.913
G1 X29.5
Z-6.
G2 X29.758 R0.129
X28.984 R0.387
X30.274 R0.645
X28.587 R0.843
X30.413 R0.913
X28.587 R0.913
G1 X29.5
Z-8.
G2 X29.758 R0.129
X28.984 R0.387
X30.274 R0.645
X28.587 R0.843
X30.413 R0.913
X28.587 R0.913
G1 X29.5
Z-10.
G2 X29.758 R0.129
X28.984 R0.387
X30.274 R0.645
X28.587 R0.843
X30.413 R0.913
X28.587 R0.913
G1 X29.5
Z-12.
G2 X29.758 R0.129
X28.984 R0.387
X30.274 R0.645
X28.587 R0.843
X30.413 R0.913
X28.587 R0.913
G1 X29.5
Z-14.
G2 X29.758 R0.129
X28.984 R0.387
X30.274 R0.645
X28.587 R0.843
X30.413 R0.913
X28.587 R0.913
G1 X29.5
Z-16.
G2 X29.758 R0.129
X28.984 R0.387
X30.274 R0.645
X28.587 R0.843
X30.413 R0.913
X28.587 R0.913
G1 X29.5
Z-18.
G2 X29.758 R0.129
X28.984 R0.387
X30.274 R0.645
X28.587 R0.843
X30.413 R0.913
X28.587 R0.913
G1 X29.5
Z-20.
G2 X29.758 R0.129
X28.984 R0.387
X30.274 R0.645
X28.587 R0.843
X30.413 R0.913
X28.587 R0.913
G1 X29.5
G0 Z5.
X-29.5
G1 Z0. F762.
Z-2.
G2 X-29.242 R0.129
X-30.016 R0.387
X-28.726 R0.645
X-30.413 R0.843
X-28.587 R0.913
X-30.413 R0.913
G1 X-29.5
Z-4.
G2 X-29.242 R0.129
X-30.016 R0.387
X-28.726 R0.645
X-30.413 R0.843
X-28.587 R0.913
X-30.413 R0.913
G1 X-29.5
Z-6.
G2 X-29.242 R0.129
X-30.016 R0.387
X-28.726 R0.645
X-30.413 R0.843
X-28.587 R0.913
X-30.413 R0.913
G1 X-29.5
Z-8.
G2 X-29.242 R0.129
X-30.016 R0.387
X-28.726 R0.645
X-30.413 R0.843
X-28.587 R0.913
X-30.413 R0.913
G1 X-29.5
Z-10.
G2 X-29.242 R0.129
X-30.016 R0.387
X-28.726 R0.645
X-30.413 R0.843
X-28.587 R0.913
X-30.413 R0.913
G1 X-29.5
Z-12.
G2 X-29.242 R0.129
X-30.016 R0.387
X-28.726 R0.645
X-30.413 R0.843
X-28.587 R0.913
X-30.413 R0.913
G1 X-29.5
Z-14.
G2 X-29.242 R0.129
X-30.016 R0.387
X-28.726 R0.645
X-30.413 R0.843
X-28.587 R0.913
X-30.413 R0.913
G1 X-29.5
Z-16.
G2 X-29.242 R0.129
X-30.016 R0.387
X-28.726 R0.645
X-30.413 R0.843
X-28.587 R0.913
X-30.413 R0.913
G1 X-29.5
Z-18.
G2 X-29.242 R0.129
X-30.016 R0.387
X-28.726 R0.645
X-30.413 R0.843
X-28.587 R0.913
X-30.413 R0.913
G1 X-29.5
Z-20.
G2 X-29.242 R0.129
X-30.016 R0.387
X-28.726 R0.645
X-30.413 R0.843
X-28.587 R0.913
X-30.413 R0.913
G1 X-29.5
G0 Z5.
Y-10.
G1 Z0. F762.
Z-2.
G2 X-29.242 R0.129
X-30.016 R0.387
X-28.726 R0.645
X-30.413 R0.843
X-28.587 R0.913
X-30.413 R0.913
G1 X-29.5
Z-4.
G2 X-29.242 R0.129
X-30.016 R0.387
X-28.726 R0.645
X-30.413 R0.843
X-28.587 R0.913
X-30.413 R0.913
G1 X-29.5
Z-6.
G2 X-29.242 R0.129
X-30.016 R0.387
X-28.726 R0.645
X-30.413 R0.843
X-28.587 R0.913
X-30.413 R0.913
G1 X-29.5
Z-8.
G2 X-29.242 R0.129
X-30.016 R0.387
X-28.726 R0.645
X-30.413 R0.843
X-28.587 R0.913
X-30.413 R0.913
G1 X-29.5
Z-10.
G2 X-29.242 R0.129
X-30.016 R0.387
X-28.726 R0.645
X-30.413 R0.843
X-28.587 R0.913
X-30.413 R0.913
G1 X-29.5
Z-12.
G2 X-29.242 R0.129
X-30.016 R0.387
X-28.726 R0.645
X-30.413 R0.843
X-28.587 R0.913
X-30.413 R0.913
G1 X-29.5
Z-14.
G2 X-29.242 R0.129
X-30.016 R0.387
X-28.726 R0.645
X-30.413 R0.843
X-28.587 R0.913
X-30.413 R0.913
G1 X-29.5
Z-16.
G2 X-29.242 R0.129
X-30.016 R0.387
X-28.726 R0.645
X-30.413 R0.843
X-28.587 R0.913
X-30.413 R0.913
G1 X-29.5
Z-18.
G2 X-29.242 R0.129
X-30.016 R0.387
X-28.726 R0.645
X-30.413 R0.843
X-28.587 R0.913
X-30.413 R0.913
G1 X-29.5
Z-20.
G2 X-29.242 R0.129
X-30.016 R0.387
X-28.726 R0.645
X-30.413 R0.843
X-28.587 R0.913
X-30.413 R0.913
G1 X-29.5
G0 Z5.
Z15.

(POCKET1)
M8
G0 X-2.767 Y0.175
Z15.
Z3.
G1 Z2.413 F762.
G3 X-2.77 Y0.194 Z2.304 R1.508
X-2.778 Y0.248 Z2.209 R1.508
X-2.794 Y0.331 Z2.138 R1.508
X-2.82 Y0.431 Z2.1 R1.508
X-5.71 Y-0.431 Z1.265 R1.508
X-2.82 Y0.431 Z0.429 R1.508
X-5.71 Y-0.431 Z-0.406 R1.508
X-2.82 Y0.431 Z-1.242 R1.508
X-5.773 Y0. Z-2. R1.508
X-5.767 Y-0.232 R4.132
X-5.058 Y-0.902 R0.71
G1 X4.876
G3 Y0.902 R0.902
G1 X-5.058
G3 X-5.767 Y0.232 R0.71
X-5.773 Y0. R4.132
G2 X-6.883 Y-1.429 R1.475
G3 X-7.005 Y-3.233 R0.952
X-6.424 Y-3.347 R1.543
G1 X6.421
G3 X7.909 Y-2.228 R1.548
X7.906 Y2.233 R8.039
X6.424 Y3.347 R1.543
G1 X-6.628
G3 X-7.851 Y2.426 R1.273
X-8.208 Y0.101 R9.191
X-7.906 Y-2.233 R7.741
X-7.005 Y-3.233 R1.543
G2 X-5.527 Y-4.723 R2.676
G3 X-3.79 Y-5.902 R1.869
G1 X7.823
G3 X9.634 Y-4.832 R2.068
X10.119 Y-3.644 R5.531
X10.434 Y-2.4 R26.891
X10.675 Y1.202 R11.546
X9.712 Y4.68 R10.092
X9.672 Y4.76 R4.16
X9.631 Y4.839 R2.555
X7.827 Y5.902 R2.063
G1 X-7.823
G3 X-9.634 Y4.832 R2.068
X-10.119 Y3.644 R5.531
X-10.434 Y2.4 R26.891
X-10.706 Y-0.6 R11.34
X-10.137 Y-3.557 R10.257
G2 X-9.911 Y-4.209 R115.937
G3 X-9.631 Y-4.839 R3.952
X-7.827 Y-5.902 R2.063
G1 X-3.79
G2 X-1.824 Y-7.212 R2.129
G3 X0.141 Y-8.522 R2.129
G1 X9.061
G3 X11.134 Y-7.448 R2.538
X12.256 Y-5.298 R9.092
X12.939 Y-2.97 R19.663
X13.229 Y1.492 R14.124
X12.028 Y5.798 R12.639
X11.617 Y6.641 R114.99
X11.137 Y7.446 R5.908
X9.055 Y8.522 R2.552
G1 X-9.197
G3 X-11.055 Y7.559 R2.275
X-12.956 Y3.233 R11.845
X-13.193 Y-1.487 R14.552
X-12.581 Y-4.424 R16.289
X-11.332 Y-7.152 R11.399
X-11.237 Y-7.3 R8.749
X-11.137 Y-7.446 R5.029
X-9.055 Y-8.522 R2.552
G1 X0.141
G2 X2.106 Y-9.832 R2.129
G3 X4.071 Y-11.142 R2.129
G1 X10.445
G3 X12.48 Y-10.086 R2.489
X15.724 Y-1.839 R18.741
X14.34 Y6.914 R15.346
X12.472 Y10.094 R22.665
X10.443 Y11.142 R2.487
G1 X-10.555
G3 X-12.416 Y10.177 R2.275
X-15.58 Y2.77 R19.339
X-15.003 Y-5.264 R15.341
X-13.906 Y-7.767 R18.102
X-12.472 Y-10.094 R21.318
X-10.443 Y-11.142 R2.487
G1 X4.071
G2 X6.013 Y-12.437 R2.103
G3 X7.954 Y-13.731 R2.103
G1 X12.142
G3 X13.802 Y-12.768 R1.911
G2 X15.787 Y-9.506 R68.933
G3 X17.465 Y-6.076 R16.05
X15.667 Y9.878 R18.528
X14.722 Y11.305 R36.497
G2 X13.81 Y12.755 R18.254
G3 X12.137 Y13.731 R1.922
G1 X-12.142
G3 X-13.802 Y12.768 R1.911
G2 X-15.787 Y9.506 R68.932
G3 X-17.465 Y6.076 R16.05
X-16.657 Y-8.033 R18.447
X-15.272 Y-10.417 R18.016
G2 X-13.81 Y-12.755 R31.198
G3 X-12.137 Y-13.731 R1.922
G1 X7.954
G2 X9.846 Y-14.992 R2.049
G3 X11.737 Y-16.253 R2.049
G1 X14.175
G3 X15.436 Y-15.314 R1.316
G2 X16.483 Y-13.158 R7.47
G3 X17.809 Y-11.161 R44.62
X19.833 Y6.958 R21.037
X18.274 Y10.345 R19.843
X16.258 Y13.482 R40.879
G2 X15.776 Y14.355 R4.456
X15.444 Y15.297 R9.34
G3 X14.167 Y16.253 R1.331
G1 X-14.175
G3 X-15.436 Y15.314 R1.316
G2 X-16.483 Y13.158 R7.47
G3 X-17.809 Y11.161 R44.621
X-20.491 Y-4.681 R21.043
X-18.807 Y-9.29 R19.612
X-16.258 Y-13.482 R34.824
G2 X-15.776 Y-14.355 R4.456
X-15.444 Y-15.297 R9.34
G3 X-14.167 Y-16.253 R1.331
G1 X11.737
G2 X13.531 Y-17.449 R1.943
G3 X15.325 Y-18.645 R1.943
G1 X16.596
G3 X17.56 Y-17.681 R0.964
G2 X17.572 Y-16.647 R48.696
X17.792 Y-15.636 R2.716
G1 X21.103 Y-10.141
G3 X21.089 Y10.172 R23.43
X19.229 Y13.089 R14.691
G2 X17.637 Y16.161 R8.389
X17.546 Y16.918 R2.544
G3 X17.558 Y17.682 R25.341
X16.595 Y18.645 R0.962
G1 X-16.609
G3 X-17.56 Y17.694 R0.951
G2 X-17.571 Y16.653 R53.536
X-17.791 Y15.636 R2.721
G1 X-21.103 Y10.141
G3 X-22.094 Y-7.751 R23.433
X-20.388 Y-11.436 R21.156
X-18.186 Y-14.848 R46.602
G2 X-17.737 Y-15.792 R3.043
X-17.545 Y-16.819 R5.978
X-17.541 Y-17.25 R2.491
G3 X-17.558 Y-17.682 R5.676
X-16.595 Y-18.645 R0.962
G1 X15.325
G2 X17.091 Y-19.822 R1.914
G3 X18.858 Y-21. R1.914
G1 X19.916
X19.913 Y-20.941
G2 Y-20.906 R0.794
G1 X19.916 Y-17.069
G2 X19.933 Y-16.909 R0.794
G1 X19.967 Y-16.742
G2 X20.015 Y-16.59 R0.794
G1 X20.074 Y-16.453
G2 X20.154 Y-16.309 R0.794
G1 X21.026 Y-15.072
X21.954 Y-13.757
X23.353 Y-11.221
X24.467 Y-8.521
X25.258 Y-5.773
X25.749 Y-2.858
X25.91 Y0.
X25.745 Y2.913
X25.258 Y5.772
X24.448 Y8.576
X23.336 Y11.257
X21.92 Y13.811
X20.181 Y16.263
G2 X20.121 Y16.364 R0.794
G1 X20.053 Y16.498
G2 X19.996 Y16.645 R0.794
G1 X19.952 Y16.802
G2 X19.927 Y16.938 R0.794
G1 X19.916 Y17.049
G2 X19.913 Y17.126 R0.794
G1 X19.915 Y21.
X-19.916
X-19.913 Y20.941
G2 Y20.906 R0.794
G1 X-19.916 Y17.069
G2 X-19.933 Y16.909 R0.794
G1 X-19.967 Y16.742
G2 X-20.015 Y16.59 R0.794
G1 X-20.074 Y16.453
G2 X-20.154 Y16.309 R0.794
G1 X-21.026 Y15.072
X-21.954 Y13.757
X-23.353 Y11.221
X-24.467 Y8.521
X-25.258 Y5.773
X-25.749 Y2.858
X-25.91 Y0.
X-25.798 Y-1.993
X-25.745 Y-2.913
X-25.258 Y-5.772
X-24.448 Y-8.576
X-23.336 Y-11.257
X-21.92 Y-13.811
X-20.181 Y-16.263
G2 X-20.121 Y-16.364 R0.794
G1 X-20.053 Y-16.498
G2 X-19.996 Y-16.645 R0.794
G1 X-19.952 Y-16.802
G2 X-19.927 Y-16.938 R0.794
G1 X-19.916 Y-17.049
G2 X-19.913 Y-17.126 R0.794
G1 X-19.915 Y-21.
X18.858
G3 X18.954 Y-20.985 Z-1.984 R0.317
X19.034 Y-20.947 Z-1.939 R0.317
X19.088 Y-20.902 Z-1.869 R0.317
X19.116 Y-20.867 Z-1.781 R0.317
X19.125 Y-20.854 Z-1.683 R0.318
G0 Z5.
X-2.767 Y0.175
Z0.413
G3 X-2.77 Y0.194 Z0.304 R1.508 F762.
X-2.778 Y0.248 Z0.209 R1.508
X-2.794 Y0.331 Z0.138 R1.508
X-2.82 Y0.431 Z0.1 R1.508
X-5.71 Y-0.431 Z-0.735 R1.508
X-2.82 Y0.431 Z-1.571 R1.508
X-5.71 Y-0.431 Z-2.406 R1.508
X-2.82 Y0.431 Z-3.242 R1.508
X-5.773 Y0. Z-4. R1.508
X-5.767 Y-0.232 R4.132
X-5.058 Y-0.902 R0.71
G1 X4.876
G3 Y0.902 R0.902
G1 X-5.058
G3 X-5.767 Y0.232 R0.71
X-5.773 Y0. R4.132
G2 X-6.883 Y-1.429 R1.475
G3 X-7.005 Y-3.233 R0.952
X-6.424 Y-3.347 R1.543
G1 X6.421
G3 X7.909 Y-2.228 R1.548
X7.906 Y2.233 R8.039
X6.424 Y3.347 R1.543
G1 X-6.628
G3 X-7.851 Y2.426 R1.273
X-8.208 Y0.101 R9.191
X-7.906 Y-2.233 R7.741
X-7.005 Y-3.233 R1.543
G2 X-5.527 Y-4.723 R2.676
G3 X-3.79 Y-5.902 R1.869
G1 X7.823
G3 X9.634 Y-4.832 R2.068
X10.119 Y-3.644 R5.531
X10.434 Y-2.4 R26.891
X10.675 Y1.202 R11.546
X9.712 Y4.68 R10.092
X9.672 Y4.76 R4.16
X9.631 Y4.839 R2.555
X7.827 Y5.902 R2.063
G1 X-7.823
G3 X-9.634 Y4.832 R2.068
X-10.119 Y3.644 R5.531
X-10.434 Y2.4 R26.891
X-10.706 Y-0.6 R11.34
X-10.137 Y-3.557 R10.257
G2 X-9.911 Y-4.209 R115.937
G3 X-9.631 Y-4.839 R3.952
X-7.827 Y-5.902 R2.063
G1 X-3.79
G2 X-1.824 Y-7.212 R2.129
G3 X0.141 Y-8.522 R2.129
G1 X9.061
G3 X11.134 Y-7.448 R2.538
X12.256 Y-5.298 R9.092
X12.939 Y-2.97 R19.663
X13.229 Y1.492 R14.124
X12.028 Y5.798 R12.639
X11.617 Y6.641 R114.99
X11.137 Y7.446 R5.908
X9.055 Y8.522 R2.552
G1 X-9.197
G3 X-11.055 Y7.559 R2.275
X-12.956 Y3.233 R11.845
X-13.193 Y-1.487 R14.552
X-12.581 Y-4.424 R16.289
X-11.332 Y-7.152 R11.399
X-11.237 Y-7.3 R8.749
X-11.137 Y-7.446 R5.029
X-9.055 Y-8.522 R2.552
G1 X0.141
G2 X2.106 Y-9.832 R2.129
G3 X4.071 Y-11.142 R2.129
G1 X10.445
G3 X12.48 Y-10.086 R2.489
X15.724 Y-1.839 R18.741
X14.34 Y6.914 R15.346
X12.472 Y10.094 R22.665
X10.443 Y11.142 R2.487
G1 X-10.555
G3 X-12.416 Y10.177 R2.275
X-15.58 Y2.77 R19.339
X-15.003 Y-5.264 R15.341
X-13.906 Y-7.767 R18.102
X-12.472 Y-10.094 R21.318
X-10.443 Y-11.142 R2.487
G1 X4.071
G2 X6.013 Y-12.437 R2.103
G3 X7.954 Y-13.731 R2.103
G1 X12.142
G3 X13.802 Y-12.768 R1.911
G2 X15.787 Y-9.506 R68.933
G3 X17.465 Y-6.076 R16.05
X15.667 Y9.878 R18.528
X14.722 Y11.305 R36.497
G2 X13.81 Y12.755 R18.254
G3 X12.137 Y13.731 R1.922
G1 X-12.142
G3 X-13.802 Y12.768 R1.911
G2 X-15.787 Y9.506 R68.932
G3 X-17.465 Y6.076 R16.05
X-16.657 Y-8.033 R18.447
X-15.272 Y-10.417 R18.016
G2 X-13.81 Y-12.755 R31.198
G3 X-12.137 Y-13.731 R1.922
G1 X7.954
G2 X9.846 Y-14.992 R2.049
G3 X11.737 Y-16.253 R2.049
G1 X14.175
G3 X15.436 Y-15.314 R1.316
G2 X16.483 Y-13.158 R7.47
G3 X17.809 Y-11.161 R44.62
X19.833 Y6.958 R21.037
X18.274 Y10.345 R19.843
X16.258 Y13.482 R40.879
G2 X15.776 Y14.355 R4.456
X15.444 Y15.297 R9.34
G3 X14.167 Y16.253 R1.331
G1 X-14.175
G3 X-15.436 Y15.314 R1.316
G2 X-16.483 Y13.158 R7.47
G3 X-17.809 Y11.161 R44.621
X-20.491 Y-4.681 R21.043
X-18.807 Y-9.29 R19.612
X-16.258 Y-13.482 R34.824
G2 X-15.776 Y-14.355 R4.456
X-15.444 Y-15.297 R9.34
G3 X-14.167 Y-16.253 R1.331
G1 X11.737
G2 X13.531 Y-17.449 R1.943
G3 X15.325 Y-18.645 R1.943
G1 X16.596
G3 X17.56 Y-17.681 R0.964
G2 X17.572 Y-16.647 R48.696
X17.792 Y-15.636 R2.716
G1 X21.103 Y-10.141
G3 X21.089 Y10.172 R23.43
X19.229 Y13.089 R14.691
G2 X17.637 Y16.161 R8.389
X17.546 Y16.918 R2.544
G3 X17.558 Y17.682 R25.341
X16.595 Y18.645 R0.962
G1 X-16.609
G3 X-17.56 Y17.694 R0.951
G2 X-17.571 Y16.653 R53.536
X-17.791 Y15.636 R2.721
G1 X-21.103 Y10.141
G3 X-22.094 Y-7.751 R23.433
X-20.388 Y-11.436 R21.156
X-18.186 Y-14.848 R46.602
G2 X-17.737 Y-15.792 R3.043
X-17.545 Y-16.819 R5.978
X-17.541 Y-17.25 R2.491
G3 X-17.558 Y-17.682 R5.676
X-16.595 Y-18.645 R0.962
G1 X15.325
G2 X17.091 Y-19.822 R1.914
G3 X18.858 Y-21. R1.914
G1 X19.916
X19.913 Y-20.941
G2 Y-20.906 R0.794
G1 X19.916 Y-17.069
G2 X19.933 Y-16.909 R0.794
G1 X19.967 Y-16.742
G2 X20.015 Y-16.59 R0.794
G1 X20.074 Y-16.453
G2 X20.154 Y-16.309 R0.794
G1 X21.026 Y-15.072
X21.954 Y-13.757
X23.353 Y-11.221
X24.467 Y-8.521
X25.258 Y-5.773
X25.749 Y-2.858
X25.91 Y0.
X25.745 Y2.913
X25.258 Y5.772
X24.448 Y8.576
X23.336 Y11.257
X21.92 Y13.811
X20.181 Y16.263
G2 X20.121 Y16.364 R0.794
G1 X20.053 Y16.498
G2 X19.996 Y16.645 R0.794
G1 X19.952 Y16.802
G2 X19.927 Y16.938 R0.794
G1 X19.916 Y17.049
G2 X19.913 Y17.126 R0.794
G1 X19.915 Y21.
X-19.916
X-19.913 Y20.941
G2 Y20.906 R0.794
G1 X-19.916 Y17.069
G2 X-19.933 Y16.909 R0.794
G1 X-19.967 Y16.742
G2 X-20.015 Y16.59 R0.794
G1 X-20.074 Y16.453
G2 X-20.154 Y16.309 R0.794
G1 X-21.026 Y15.072
X-21.954 Y13.757
X-23.353 Y11.221
X-24.467 Y8.521
X-25.258 Y5.773
X-25.749 Y2.858
X-25.91 Y0.
X-25.798 Y-1.993
X-25.745 Y-2.913
X-25.258 Y-5.772
X-24.448 Y-8.576
X-23.336 Y-11.257
X-21.92 Y-13.811
X-20.181 Y-16.263
G2 X-20.121 Y-16.364 R0.794
G1 X-20.053 Y-16.498
G2 X-19.996 Y-16.645 R0.794
G1 X-19.952 Y-16.802
G2 X-19.927 Y-16.938 R0.794
G1 X-19.916 Y-17.049
G2 X-19.913 Y-17.126 R0.794
G1 X-19.915 Y-21.
X18.858
G3 X18.954 Y-20.985 Z-3.984 R0.317
X19.034 Y-20.947 Z-3.939 R0.317
X19.088 Y-20.902 Z-3.869 R0.317
X19.116 Y-20.867 Z-3.781 R0.317
X19.125 Y-20.854 Z-3.683 R0.318
G0 Z5.
X-2.767 Y0.175
Z3.
G1 Z-1.587 F762.
G3 X-2.77 Y0.194 Z-1.696 R1.508
X-2.778 Y0.248 Z-1.791 R1.508
X-2.794 Y0.331 Z-1.862 R1.508
X-2.82 Y0.431 Z-1.9 R1.508
X-5.71 Y-0.431 Z-2.735 R1.508
X-2.82 Y0.431 Z-3.571 R1.508
X-5.71 Y-0.431 Z-4.406 R1.508
X-2.82 Y0.431 Z-5.242 R1.508
X-5.773 Y0. Z-6. R1.508
X-5.767 Y-0.232 R4.132
X-5.058 Y-0.902 R0.71
G1 X4.876
G3 Y0.902 R0.902
G1 X-5.058
G3 X-5.767 Y0.232 R0.71
X-5.773 Y0. R4.132
G2 X-6.883 Y-1.429 R1.475
G3 X-7.005 Y-3.233 R0.952
X-6.424 Y-3.347 R1.543
G1 X6.421
G3 X7.909 Y-2.228 R1.548
X7.906 Y2.233 R8.039
X6.424 Y3.347 R1.543
G1 X-6.628
G3 X-7.851 Y2.426 R1.273
X-8.208 Y0.101 R9.191
X-7.906 Y-2.233 R7.741
X-7.005 Y-3.233 R1.543
G2 X-5.527 Y-4.723 R2.676
G3 X-3.79 Y-5.902 R1.869
G1 X7.823
G3 X9.634 Y-4.832 R2.068
X10.119 Y-3.644 R5.531
X10.434 Y-2.4 R26.891
X10.675 Y1.202 R11.546
X9.712 Y4.68 R10.092
X9.672 Y4.76 R4.16
X9.631 Y4.839 R2.555
X7.827 Y5.902 R2.063
G1 X-7.823
G3 X-9.634 Y4.832 R2.068
X-10.119 Y3.644 R5.531
X-10.434 Y2.4 R26.891
X-10.706 Y-0.6 R11.34
X-10.137 Y-3.557 R10.257
G2 X-9.911 Y-4.209 R115.937
G3 X-9.631 Y-4.839 R3.952
X-7.827 Y-5.902 R2.063
G1 X-3.79
G2 X-1.824 Y-7.212 R2.129
G3 X0.141 Y-8.522 R2.129
G1 X9.061
G3 X11.134 Y-7.448 R2.538
X12.256 Y-5.298 R9.092
X12.939 Y-2.97 R19.663
X13.229 Y1.492 R14.124
X12.028 Y5.798 R12.639
X11.617 Y6.641 R114.99
X11.137 Y7.446 R5.908
X9.055 Y8.522 R2.552
G1 X-9.197
G3 X-11.055 Y7.559 R2.275
X-12.956 Y3.233 R11.845
X-13.193 Y-1.487 R14.552
X-12.581 Y-4.424 R16.289
X-11.332 Y-7.152 R11.399
X-11.237 Y-7.3 R8.749
X-11.137 Y-7.446 R5.029
X-9.055 Y-8.522 R2.552
G1 X0.141
G2 X2.106 Y-9.832 R2.129
G3 X4.071 Y-11.142 R2.129
G1 X10.445
G3 X12.48 Y-10.086 R2.489
X15.724 Y-1.839 R18.741
X14.34 Y6.914 R15.346
X12.472 Y10.094 R22.665
X10.443 Y11.142 R2.487
G1 X-10.555
G3 X-12.416 Y10.177 R2.275
X-15.58 Y2.77 R19.339
X-15.003 Y-5.264 R15.341
X-13.906 Y-7.767 R18.102
X-12.472 Y-10.094 R21.318
X-10.443 Y-11.142 R2.487
G1 X4.071
G2 X6.013 Y-12.437 R2.103
G3 X7.954 Y-13.731 R2.103
G1 X12.142
G3 X13.802 Y-12.768 R1.911
G2 X15.787 Y-9.506 R68.933
G3 X17.465 Y-6.076 R16.05
X15.667 Y9.878 R18.528
X14.722 Y11.305 R36.497
G2 X13.81 Y12.755 R18.254
G3 X12.137 Y13.731 R1.922
G1 X-12.142
G3 X-13.802 Y12.768 R1.911
G2 X-15.787 Y9.506 R68.932
G3 X-17.465 Y6.076 R16.05
X-16.657 Y-8.033 R18.447
X-15.272 Y-10.417 R18.016
G2 X-13.81 Y-12.755 R31.198
G3 X-12.137 Y-13.731 R1.922
G1 X7.954
G2 X9.846 Y-14.992 R2.049
G3 X11.737 Y-16.253 R2.049
G1 X14.175
G3 X15.436 Y-15.314 R1.316
G2 X16.483 Y-13.158 R7.47
G3 X17.809 Y-11.161 R44.62
X19.833 Y6.958 R21.037
X18.274 Y10.345 R19.843
X16.258 Y13.482 R40.879
G2 X15.776 Y14.355 R4.456
X15.444 Y15.297 R9.34
G3 X14.167 Y16.253 R1.331
G1 X-14.175
G3 X-15.436 Y15.314 R1.316
G2 X-16.483 Y13.158 R7.47
G3 X-17.809 Y11.161 R44.621
X-20.491 Y-4.681 R21.043
X-18.807 Y-9.29 R19.612
X-16.258 Y-13.482 R34.824
G2 X-15.776 Y-14.355 R4.456
X-15.444 Y-15.297 R9.34
G3 X-14.167 Y-16.253 R1.331
G1 X11.737
G2 X13.531 Y-17.449 R1.943
G3 X15.325 Y-18.645 R1.943
G1 X16.596
G3 X17.56 Y-17.681 R0.964
G2 X17.572 Y-16.647 R48.696
X17.792 Y-15.636 R2.716
G1 X21.103 Y-10.141
G3 X21.089 Y10.172 R23.43
X19.229 Y13.089 R14.691
G2 X17.637 Y16.161 R8.389
X17.546 Y16.918 R2.544
G3 X17.558 Y17.682 R25.341
X16.595 Y18.645 R0.962
G1 X-16.609
G3 X-17.56 Y17.694 R0.951
G2 X-17.571 Y16.653 R53.536
X-17.791 Y15.636 R2.721
G1 X-21.103 Y10.141
G3 X-22.094 Y-7.751 R23.433
X-20.388 Y-11.436 R21.156
X-18.186 Y-14.848 R46.602
G2 X-17.737 Y-15.792 R3.043
X-17.545 Y-16.819 R5.978
X-17.541 Y-17.25 R2.491
G3 X-17.558 Y-17.682 R5.676
X-16.595 Y-18.645 R0.962
G1 X15.325
G2 X17.091 Y-19.822 R1.914
G3 X18.858 Y-21. R1.914
G1 X19.916
X19.913 Y-20.941
G2 Y-20.906 R0.794
G1 X19.916 Y-17.069
G2 X19.933 Y-16.909 R0.794
G1 X19.967 Y-16.742
G2 X20.015 Y-16.59 R0.794
G1 X20.074 Y-16.453
G2 X20.154 Y-16.309 R0.794
G1 X21.026 Y-15.072
X21.954 Y-13.757
X23.353 Y-11.221
X24.467 Y-8.521
X25.258 Y-5.773
X25.749 Y-2.858
X25.91 Y0.
X25.745 Y2.913
X25.258 Y5.772
X24.448 Y8.576
X23.336 Y11.257
X21.92 Y13.811
X20.181 Y16.263
G2 X20.121 Y16.364 R0.794
G1 X20.053 Y16.498
G2 X19.996 Y16.645 R0.794
G1 X19.952 Y16.802
G2 X19.927 Y16.938 R0.794
G1 X19.916 Y17.049
G2 X19.913 Y17.126 R0.794
G1 X19.915 Y21.
X-19.916
X-19.913 Y20.941
G2 Y20.906 R0.794
G1 X-19.916 Y17.069
G2 X-19.933 Y16.909 R0.794
G1 X-19.967 Y16.742
G2 X-20.015 Y16.59 R0.794
G1 X-20.074 Y16.453
G2 X-20.154 Y16.309 R0.794
G1 X-21.026 Y15.072
X-21.954 Y13.757
X-23.353 Y11.221
X-24.467 Y8.521
X-25.258 Y5.773
X-25.749 Y2.858
X-25.91 Y0.
X-25.798 Y-1.993
X-25.745 Y-2.913
X-25.258 Y-5.772
X-24.448 Y-8.576
X-23.336 Y-11.257
X-21.92 Y-13.811
X-20.181 Y-16.263
G2 X-20.121 Y-16.364 R0.794
G1 X-20.053 Y-16.498
G2 X-19.996 Y-16.645 R0.794
G1 X-19.952 Y-16.802
G2 X-19.927 Y-16.938 R0.794
G1 X-19.916 Y-17.049
G2 X-19.913 Y-17.126 R0.794
G1 X-19.915 Y-21.
X18.858
G3 X18.954 Y-20.985 Z-5.984 R0.317
X19.034 Y-20.947 Z-5.939 R0.317
X19.088 Y-20.902 Z-5.869 R0.317
X19.116 Y-20.867 Z-5.781 R0.317
X19.125 Y-20.854 Z-5.683 R0.318
G0 Z5.
X-2.767 Y0.175
Z-3.587
G3 X-2.77 Y0.194 Z-3.696 R1.508 F762.
X-2.778 Y0.248 Z-3.791 R1.508
X-2.794 Y0.331 Z-3.862 R1.508
X-2.82 Y0.431 Z-3.9 R1.508
X-5.71 Y-0.431 Z-4.735 R1.508
X-2.82 Y0.431 Z-5.571 R1.508
X-5.71 Y-0.431 Z-6.406 R1.508
X-2.82 Y0.431 Z-7.242 R1.508
X-5.773 Y0. Z-8. R1.508
X-5.767 Y-0.232 R4.132
X-5.058 Y-0.902 R0.71
G1 X4.876
G3 Y0.902 R0.902
G1 X-5.058
G3 X-5.767 Y0.232 R0.71
X-5.773 Y0. R4.132
G2 X-6.883 Y-1.429 R1.475
G3 X-7.005 Y-3.233 R0.952
X-6.424 Y-3.347 R1.543
G1 X6.421
G3 X7.909 Y-2.228 R1.548
X7.906 Y2.233 R8.039
X6.424 Y3.347 R1.543
G1 X-6.628
G3 X-7.851 Y2.426 R1.273
X-8.208 Y0.101 R9.191
X-7.906 Y-2.233 R7.741
X-7.005 Y-3.233 R1.543
G2 X-5.527 Y-4.723 R2.676
G3 X-3.79 Y-5.902 R1.869
G1 X7.823
G3 X9.634 Y-4.832 R2.068
X10.119 Y-3.644 R5.531
X10.434 Y-2.4 R26.891
X10.675 Y1.202 R11.546
X9.712 Y4.68 R10.092
X9.672 Y4.76 R4.16
X9.631 Y4.839 R2.555
X7.827 Y5.902 R2.063
G1 X-7.823
G3 X-9.634 Y4.832 R2.068
X-10.119 Y3.644 R5.531
X-10.434 Y2.4 R26.891
X-10.706 Y-0.6 R11.34
X-10.137 Y-3.557 R10.257
G2 X-9.911 Y-4.209 R115.937
G3 X-9.631 Y-4.839 R3.952
X-7.827 Y-5.902 R2.063
G1 X-3.79
G2 X-1.824 Y-7.212 R2.129
G3 X0.141 Y-8.522 R2.129
G1 X9.061
G3 X11.134 Y-7.448 R2.538
X12.256 Y-5.298 R9.092
X12.939 Y-2.97 R19.663
X13.229 Y1.492 R14.124
X12.028 Y5.798 R12.639
X11.617 Y6.641 R114.99
X11.137 Y7.446 R5.908
X9.055 Y8.522 R2.552
G1 X-9.197
G3 X-11.055 Y7.559 R2.275
X-12.956 Y3.233 R11.845
X-13.193 Y-1.487 R14.552
X-12.581 Y-4.424 R16.289
X-11.332 Y-7.152 R11.399
X-11.237 Y-7.3 R8.749
X-11.137 Y-7.446 R5.029
X-9.055 Y-8.522 R2.552
G1 X0.141
G2 X2.106 Y-9.832 R2.129
G3 X4.071 Y-11.142 R2.129
G1 X10.445
G3 X12.48 Y-10.086 R2.489
X15.724 Y-1.839 R18.741
X14.34 Y6.914 R15.346
X12.472 Y10.094 R22.665
X10.443 Y11.142 R2.487
G1 X-10.555
G3 X-12.416 Y10.177 R2.275
X-15.58 Y2.77 R19.339
X-15.003 Y-5.264 R15.341
X-13.906 Y-7.767 R18.102
X-12.472 Y-10.094 R21.318
X-10.443 Y-11.142 R2.487
G1 X4.071
G2 X6.013 Y-12.437 R2.103
G3 X7.954 Y-13.731 R2.103
G1 X12.142
G3 X13.802 Y-12.768 R1.911
G2 X15.787 Y-9.506 R68.933
G3 X17.465 Y-6.076 R16.05
X15.667 Y9.878 R18.528
X14.722 Y11.305 R36.497
G2 X13.81 Y12.755 R18.254
G3 X12.137 Y13.731 R1.922
G1 X-12.142
G3 X-13.802 Y12.768 R1.911
G2 X-15.787 Y9.506 R68.932
G3 X-17.465 Y6.076 R16.05
X-16.657 Y-8.033 R18.447
X-15.272 Y-10.417 R18.016
G2 X-13.81 Y-12.755 R31.198
G3 X-12.137 Y-13.731 R1.922
G1 X7.954
G2 X9.846 Y-14.992 R2.049
G3 X11.737 Y-16.253 R2.049
G1 X14.175
G3 X15.436 Y-15.314 R1.316
G2 X16.483 Y-13.158 R7.47
G3 X17.809 Y-11.161 R44.62
X19.833 Y6.958 R21.037
X18.274 Y10.345 R19.843
X16.258 Y13.482 R40.879
G2 X15.776 Y14.355 R4.456
X15.444 Y15.297 R9.34
G3 X14.167 Y16.253 R1.331
G1 X-14.175
G3 X-15.436 Y15.314 R1.316
G2 X-16.483 Y13.158 R7.47
G3 X-17.809 Y11.161 R44.621
X-20.491 Y-4.681 R21.043
X-18.807 Y-9.29 R19.612
X-16.258 Y-13.482 R34.824
G2 X-15.776 Y-14.355 R4.456
X-15.444 Y-15.297 R9.34
G3 X-14.167 Y-16.253 R1.331
G1 X11.737
G2 X13.531 Y-17.449 R1.943
G3 X15.325 Y-18.645 R1.943
G1 X16.596
G3 X17.56 Y-17.681 R0.964
G2 X17.572 Y-16.647 R48.696
X17.792 Y-15.636 R2.716
G1 X21.103 Y-10.141
G3 X21.089 Y10.172 R23.43
X19.229 Y13.089 R14.691
G2 X17.637 Y16.161 R8.389
X17.546 Y16.918 R2.544
G3 X17.558 Y17.682 R25.341
X16.595 Y18.645 R0.962
G1 X-16.609
G3 X-17.56 Y17.694 R0.951
G2 X-17.571 Y16.653 R53.536
X-17.791 Y15.636 R2.721
G1 X-21.103 Y10.141
G3 X-22.094 Y-7.751 R23.433
X-20.388 Y-11.436 R21.156
X-18.186 Y-14.848 R46.602
G2 X-17.737 Y-15.792 R3.043
X-17.545 Y-16.819 R5.978
X-17.541 Y-17.25 R2.491
G3 X-17.558 Y-17.682 R5.676
X-16.595 Y-18.645 R0.962
G1 X15.325
G2 X17.091 Y-19.822 R1.914
G3 X18.858 Y-21. R1.914
G1 X19.916
X19.913 Y-20.941
G2 Y-20.906 R0.794
G1 X19.916 Y-17.069
G2 X19.933 Y-16.909 R0.794
G1 X19.967 Y-16.742
G2 X20.015 Y-16.59 R0.794
G1 X20.074 Y-16.453
G2 X20.154 Y-16.309 R0.794
G1 X21.026 Y-15.072
X21.954 Y-13.757
X23.353 Y-11.221
X24.467 Y-8.521
X25.258 Y-5.773
X25.749 Y-2.858
X25.91 Y0.
X25.745 Y2.913
X25.258 Y5.772
X24.448 Y8.576
X23.336 Y11.257
X21.92 Y13.811
X20.181 Y16.263
G2 X20.121 Y16.364 R0.794
G1 X20.053 Y16.498
G2 X19.996 Y16.645 R0.794
G1 X19.952 Y16.802
G2 X19.927 Y16.938 R0.794
G1 X19.916 Y17.049
G2 X19.913 Y17.126 R0.794
G1 X19.915 Y21.
X-19.916
X-19.913 Y20.941
G2 Y20.906 R0.794
G1 X-19.916 Y17.069
G2 X-19.933 Y16.909 R0.794
G1 X-19.967 Y16.742
G2 X-20.015 Y16.59 R0.794
G1 X-20.074 Y16.453
G2 X-20.154 Y16.309 R0.794
G1 X-21.026 Y15.072
X-21.954 Y13.757
X-23.353 Y11.221
X-24.467 Y8.521
X-25.258 Y5.773
X-25.749 Y2.858
X-25.91 Y0.
X-25.798 Y-1.993
X-25.745 Y-2.913
X-25.258 Y-5.772
X-24.448 Y-8.576
X-23.336 Y-11.257
X-21.92 Y-13.811
X-20.181 Y-16.263
G2 X-20.121 Y-16.364 R0.794
G1 X-20.053 Y-16.498
G2 X-19.996 Y-16.645 R0.794
G1 X-19.952 Y-16.802
G2 X-19.927 Y-16.938 R0.794
G1 X-19.916 Y-17.049
G2 X-19.913 Y-17.126 R0.794
G1 X-19.915 Y-21.
X18.858
G3 X18.954 Y-20.985 Z-7.984 R0.317
X19.034 Y-20.947 Z-7.939 R0.317
X19.088 Y-20.902 Z-7.869 R0.317
X19.116 Y-20.867 Z-7.781 R0.317
X19.125 Y-20.854 Z-7.683 R0.318
G0 Z5.
X-2.767 Y0.175
Z-5.587
G3 X-2.77 Y0.194 Z-5.696 R1.508 F762.
X-2.778 Y0.248 Z-5.791 R1.508
X-2.794 Y0.331 Z-5.862 R1.508
X-2.82 Y0.431 Z-5.9 R1.508
X-5.71 Y-0.431 Z-6.735 R1.508
X-2.82 Y0.431 Z-7.571 R1.508
X-5.71 Y-0.431 Z-8.406 R1.508
X-2.82 Y0.431 Z-9.242 R1.508
X-5.773 Y0. Z-10. R1.508
X-5.767 Y-0.232 R4.132
X-5.058 Y-0.902 R0.71
G1 X4.876
G3 Y0.902 R0.902
G1 X-5.058
G3 X-5.767 Y0.232 R0.71
X-5.773 Y0. R4.132
G2 X-6.883 Y-1.429 R1.475
G3 X-7.005 Y-3.233 R0.952
X-6.424 Y-3.347 R1.543
G1 X6.421
G3 X7.909 Y-2.228 R1.548
X7.906 Y2.233 R8.039
X6.424 Y3.347 R1.543
G1 X-6.628
G3 X-7.851 Y2.426 R1.273
X-8.208 Y0.101 R9.191
X-7.906 Y-2.233 R7.741
X-7.005 Y-3.233 R1.543
G2 X-5.527 Y-4.723 R2.676
G3 X-3.79 Y-5.902 R1.869
G1 X7.823
G3 X9.634 Y-4.832 R2.068
X10.119 Y-3.644 R5.531
X10.434 Y-2.4 R26.891
X10.675 Y1.202 R11.546
X9.712 Y4.68 R10.092
X9.672 Y4.76 R4.16
X9.631 Y4.839 R2.555
X7.827 Y5.902 R2.063
G1 X-7.823
G3 X-9.634 Y4.832 R2.068
X-10.119 Y3.644 R5.531
X-10.434 Y2.4 R26.891
X-10.706 Y-0.6 R11.34
X-10.137 Y-3.557 R10.257
G2 X-9.911 Y-4.209 R115.937
G3 X-9.631 Y-4.839 R3.952
X-7.827 Y-5.902 R2.063
G1 X-3.79
G2 X-1.824 Y-7.212 R2.129
G3 X0.141 Y-8.522 R2.129
G1 X9.061
G3 X11.134 Y-7.448 R2.538
X12.256 Y-5.298 R9.092
X12.939 Y-2.97 R19.663
X13.229 Y1.492 R14.124
X12.028 Y5.798 R12.639
X11.617 Y6.641 R114.99
X11.137 Y7.446 R5.908
X9.055 Y8.522 R2.552
G1 X-9.197
G3 X-11.055 Y7.559 R2.275
X-12.956 Y3.233 R11.845
X-13.193 Y-1.487 R14.552
X-12.581 Y-4.424 R16.289
X-11.332 Y-7.152 R11.399
X-11.237 Y-7.3 R8.749
X-11.137 Y-7.446 R5.029
X-9.055 Y-8.522 R2.552
G1 X0.141
G2 X2.106 Y-9.832 R2.129
G3 X4.071 Y-11.142 R2.129
G1 X10.445
G3 X12.48 Y-10.086 R2.489
X15.724 Y-1.839 R18.741
X14.34 Y6.914 R15.346
X12.472 Y10.094 R22.665
X10.443 Y11.142 R2.487
G1 X-10.555
G3 X-12.416 Y10.177 R2.275
X-15.58 Y2.77 R19.339
X-15.003 Y-5.264 R15.341
X-13.906 Y-7.767 R18.102
X-12.472 Y-10.094 R21.318
X-10.443 Y-11.142 R2.487
G1 X4.071
G2 X6.013 Y-12.437 R2.103
G3 X7.954 Y-13.731 R2.103
G1 X12.142
G3 X13.802 Y-12.768 R1.911
G2 X15.787 Y-9.506 R68.933
G3 X17.465 Y-6.076 R16.05
X15.667 Y9.878 R18.528
X14.722 Y11.305 R36.497
G2 X13.81 Y12.755 R18.254
G3 X12.137 Y13.731 R1.922
G1 X-12.142
G3 X-13.802 Y12.768 R1.911
G2 X-15.787 Y9.506 R68.932
G3 X-17.465 Y6.076 R16.05
X-16.657 Y-8.033 R18.447
X-15.272 Y-10.417 R18.016
G2 X-13.81 Y-12.755 R31.198
G3 X-12.137 Y-13.731 R1.922
G1 X7.954
G2 X9.846 Y-14.992 R2.049
G3 X11.737 Y-16.253 R2.049
G1 X14.175
G3 X15.436 Y-15.314 R1.316
G2 X16.483 Y-13.158 R7.47
G3 X17.809 Y-11.161 R44.62
X19.833 Y6.958 R21.037
X18.274 Y10.345 R19.843
X16.258 Y13.482 R40.879
G2 X15.776 Y14.355 R4.456
X15.444 Y15.297 R9.34
G3 X14.167 Y16.253 R1.331
G1 X-14.175
G3 X-15.436 Y15.314 R1.316
G2 X-16.483 Y13.158 R7.47
G3 X-17.809 Y11.161 R44.621
X-20.491 Y-4.681 R21.043
X-18.807 Y-9.29 R19.612
X-16.258 Y-13.482 R34.824
G2 X-15.776 Y-14.355 R4.456
X-15.444 Y-15.297 R9.34
G3 X-14.167 Y-16.253 R1.331
G1 X11.737
G2 X13.531 Y-17.449 R1.943
G3 X15.325 Y-18.645 R1.943
G1 X16.596
G3 X17.56 Y-17.681 R0.964
G2 X17.572 Y-16.647 R48.696
X17.792 Y-15.636 R2.716
G1 X21.103 Y-10.141
G3 X21.089 Y10.172 R23.43
X19.229 Y13.089 R14.691
G2 X17.637 Y16.161 R8.389
X17.546 Y16.918 R2.544
G3 X17.558 Y17.682 R25.341
X16.595 Y18.645 R0.962
G1 X-16.609
G3 X-17.56 Y17.694 R0.951
G2 X-17.571 Y16.653 R53.536
X-17.791 Y15.636 R2.721
G1 X-21.103 Y10.141
G3 X-22.094 Y-7.751 R23.433
X-20.388 Y-11.436 R21.156
X-18.186 Y-14.848 R46.602
G2 X-17.737 Y-15.792 R3.043
X-17.545 Y-16.819 R5.978
X-17.541 Y-17.25 R2.491
G3 X-17.558 Y-17.682 R5.676
X-16.595 Y-18.645 R0.962
G1 X15.325
G2 X17.091 Y-19.822 R1.914
G3 X18.858 Y-21. R1.914
G1 X19.916
X19.913 Y-20.941
G2 Y-20.906 R0.794
G1 X19.916 Y-17.069
G2 X19.933 Y-16.909 R0.794
G1 X19.967 Y-16.742
G2 X20.015 Y-16.59 R0.794
G1 X20.074 Y-16.453
G2 X20.154 Y-16.309 R0.794
G1 X21.026 Y-15.072
X21.954 Y-13.757
X23.353 Y-11.221
X24.467 Y-8.521
X25.258 Y-5.773
X25.749 Y-2.858
X25.91 Y0.
X25.745 Y2.913
X25.258 Y5.772
X24.448 Y8.576
X23.336 Y11.257
X21.92 Y13.811
X20.181 Y16.263
G2 X20.121 Y16.364 R0.794
G1 X20.053 Y16.498
G2 X19.996 Y16.645 R0.794
G1 X19.952 Y16.802
G2 X19.927 Y16.938 R0.794
G1 X19.916 Y17.049
G2 X19.913 Y17.126 R0.794
G1 X19.915 Y21.
X-19.916
X-19.913 Y20.941
G2 Y20.906 R0.794
G1 X-19.916 Y17.069
G2 X-19.933 Y16.909 R0.794
G1 X-19.967 Y16.742
G2 X-20.015 Y16.59 R0.794
G1 X-20.074 Y16.453
G2 X-20.154 Y16.309 R0.794
G1 X-21.026 Y15.072
X-21.954 Y13.757
X-23.353 Y11.221
X-24.467 Y8.521
X-25.258 Y5.773
X-25.749 Y2.858
X-25.91 Y0.
X-25.798 Y-1.993
X-25.745 Y-2.913
X-25.258 Y-5.772
X-24.448 Y-8.576
X-23.336 Y-11.257
X-21.92 Y-13.811
X-20.181 Y-16.263
G2 X-20.121 Y-16.364 R0.794
G1 X-20.053 Y-16.498
G2 X-19.996 Y-16.645 R0.794
G1 X-19.952 Y-16.802
G2 X-19.927 Y-16.938 R0.794
G1 X-19.916 Y-17.049
G2 X-19.913 Y-17.126 R0.794
G1 X-19.915 Y-21.
X18.858
G3 X18.954 Y-20.985 Z-9.984 R0.317
X19.034 Y-20.947 Z-9.939 R0.317
X19.088 Y-20.902 Z-9.869 R0.317
X19.116 Y-20.867 Z-9.781 R0.317
X19.125 Y-20.854 Z-9.682 R0.318
G0 Z5.
X-2.767 Y0.175
Z-7.587
G3 X-2.77 Y0.194 Z-7.696 R1.508 F762.
X-2.778 Y0.248 Z-7.791 R1.508
X-2.794 Y0.331 Z-7.862 R1.508
X-2.82 Y0.431 Z-7.9 R1.508
X-5.71 Y-0.431 Z-8.735 R1.508
X-2.82 Y0.431 Z-9.571 R1.508
X-5.71 Y-0.431 Z-10.406 R1.508
X-2.82 Y0.431 Z-11.242 R1.508
X-5.773 Y0. Z-12. R1.508
X-5.767 Y-0.232 R4.132
X-5.058 Y-0.902 R0.71
G1 X4.876
G3 Y0.902 R0.902
G1 X-5.058
G3 X-5.767 Y0.232 R0.71
X-5.773 Y0. R4.132
G2 X-6.883 Y-1.429 R1.475
G3 X-7.005 Y-3.233 R0.952
X-6.424 Y-3.347 R1.543
G1 X6.421
G3 X7.909 Y-2.228 R1.548
X7.906 Y2.233 R8.039
X6.424 Y3.347 R1.543
G1 X-6.628
G3 X-7.851 Y2.426 R1.273
X-8.208 Y0.101 R9.191
X-7.906 Y-2.233 R7.741
X-7.005 Y-3.233 R1.543
G2 X-5.527 Y-4.723 R2.676
G3 X-3.79 Y-5.902 R1.869
G1 X7.823
G3 X9.634 Y-4.832 R2.068
X10.119 Y-3.644 R5.531
X10.434 Y-2.4 R26.891
X10.675 Y1.202 R11.546
X9.712 Y4.68 R10.092
X9.672 Y4.76 R4.16
X9.631 Y4.839 R2.555
X7.827 Y5.902 R2.063
G1 X-7.823
G3 X-9.634 Y4.832 R2.068
X-10.119 Y3.644 R5.531
X-10.434 Y2.4 R26.891
X-10.706 Y-0.6 R11.34
X-10.137 Y-3.557 R10.257
G2 X-9.911 Y-4.209 R115.937
G3 X-9.631 Y-4.839 R3.952
X-7.827 Y-5.902 R2.063
G1 X-3.79
G2 X-1.824 Y-7.212 R2.129
G3 X0.141 Y-8.522 R2.129
G1 X9.061
G3 X11.134 Y-7.448 R2.538
X12.256 Y-5.298 R9.092
X12.939 Y-2.97 R19.663
X13.229 Y1.492 R14.124
X12.028 Y5.798 R12.639
X11.617 Y6.641 R114.99
X11.137 Y7.446 R5.908
X9.055 Y8.522 R2.552
G1 X-9.197
G3 X-11.055 Y7.559 R2.275
X-12.956 Y3.233 R11.845
X-13.193 Y-1.487 R14.552
X-12.581 Y-4.424 R16.289
X-11.332 Y-7.152 R11.399
X-11.237 Y-7.3 R8.749
X-11.137 Y-7.446 R5.029
X-9.055 Y-8.522 R2.552
G1 X0.141
G2 X2.106 Y-9.832 R2.129
G3 X4.071 Y-11.142 R2.129
G1 X10.445
G3 X12.48 Y-10.086 R2.489
X15.724 Y-1.839 R18.741
X14.34 Y6.914 R15.346
X12.472 Y10.094 R22.665
X10.443 Y11.142 R2.487
G1 X-10.555
G3 X-12.416 Y10.177 R2.275
X-15.58 Y2.77 R19.339
X-15.003 Y-5.264 R15.341
X-13.906 Y-7.767 R18.102
X-12.472 Y-10.094 R21.318
X-10.443 Y-11.142 R2.487
G1 X4.071
G2 X6.013 Y-12.437 R2.103
G3 X7.954 Y-13.731 R2.103
G1 X12.142
G3 X13.802 Y-12.768 R1.911
G2 X15.787 Y-9.506 R68.933
G3 X17.465 Y-6.076 R16.05
X15.667 Y9.878 R18.528
X14.722 Y11.305 R36.497
G2 X13.81 Y12.755 R18.254
G3 X12.137 Y13.731 R1.922
G1 X-12.142
G3 X-13.802 Y12.768 R1.911
G2 X-15.787 Y9.506 R68.932
G3 X-17.465 Y6.076 R16.05
X-16.657 Y-8.033 R18.447
X-15.272 Y-10.417 R18.016
G2 X-13.81 Y-12.755 R31.198
G3 X-12.137 Y-13.731 R1.922
G1 X7.954
G2 X9.846 Y-14.992 R2.049
G3 X11.737 Y-16.253 R2.049
G1 X14.175
G3 X15.436 Y-15.314 R1.316
G2 X16.483 Y-13.158 R7.47
G3 X17.809 Y-11.161 R44.62
X19.833 Y6.958 R21.037
X18.274 Y10.345 R19.843
X16.258 Y13.482 R40.879
G2 X15.776 Y14.355 R4.456
X15.444 Y15.297 R9.34
G3 X14.167 Y16.253 R1.331
G1 X-14.175
G3 X-15.436 Y15.314 R1.316
G2 X-16.483 Y13.158 R7.47
G3 X-17.809 Y11.161 R44.621
X-20.491 Y-4.681 R21.043
X-18.807 Y-9.29 R19.612
X-16.258 Y-13.482 R34.824
G2 X-15.776 Y-14.355 R4.456
X-15.444 Y-15.297 R9.34
G3 X-14.167 Y-16.253 R1.331
G1 X11.737
G2 X13.531 Y-17.449 R1.943
G3 X15.325 Y-18.645 R1.943
G1 X16.596
G3 X17.56 Y-17.681 R0.964
G2 X17.572 Y-16.647 R48.696
X17.792 Y-15.636 R2.716
G1 X21.103 Y-10.141
G3 X21.089 Y10.172 R23.43
X19.229 Y13.089 R14.691
G2 X17.637 Y16.161 R8.389
X17.546 Y16.918 R2.544
G3 X17.558 Y17.682 R25.341
X16.595 Y18.645 R0.962
G1 X-16.609
G3 X-17.56 Y17.694 R0.951
G2 X-17.571 Y16.653 R53.536
X-17.791 Y15.636 R2.721
G1 X-21.103 Y10.141
G3 X-22.094 Y-7.751 R23.433
X-20.388 Y-11.436 R21.156
X-18.186 Y-14.848 R46.602
G2 X-17.737 Y-15.792 R3.043
X-17.545 Y-16.819 R5.978
X-17.541 Y-17.25 R2.491
G3 X-17.558 Y-17.682 R5.676
X-16.595 Y-18.645 R0.962
G1 X15.325
G2 X17.091 Y-19.822 R1.914
G3 X18.858 Y-21. R1.914
G1 X19.916
X19.913 Y-20.941
G2 Y-20.906 R0.794
G1 X19.916 Y-17.069
G2 X19.933 Y-16.909 R0.794
G1 X19.967 Y-16.742
G2 X20.015 Y-16.59 R0.794
G1 X20.074 Y-16.453
G2 X20.154 Y-16.309 R0.794
G1 X21.026 Y-15.072
X21.954 Y-13.757
X23.353 Y-11.221
X24.467 Y-8.521
X25.258 Y-5.773
X25.749 Y-2.858
X25.91 Y0.
X25.745 Y2.913
X25.258 Y5.772
X24.448 Y8.576
X23.336 Y11.257
X21.92 Y13.811
X20.181 Y16.263
G2 X20.121 Y16.364 R0.794
G1 X20.053 Y16.498
G2 X19.996 Y16.645 R0.794
G1 X19.952 Y16.802
G2 X19.927 Y16.938 R0.794
G1 X19.916 Y17.049
G2 X19.913 Y17.126 R0.794
G1 X19.915 Y21.
X-19.916
X-19.913 Y20.941
G2 Y20.906 R0.794
G1 X-19.916 Y17.069
G2 X-19.933 Y16.909 R0.794
G1 X-19.967 Y16.742
G2 X-20.015 Y16.59 R0.794
G1 X-20.074 Y16.453
G2 X-20.154 Y16.309 R0.794
G1 X-21.026 Y15.072
X-21.954 Y13.757
X-23.353 Y11.221
X-24.467 Y8.521
X-25.258 Y5.773
X-25.749 Y2.858
X-25.91 Y0.
X-25.798 Y-1.993
X-25.745 Y-2.913
X-25.258 Y-5.772
X-24.448 Y-8.576
X-23.336 Y-11.257
X-21.92 Y-13.811
X-20.181 Y-16.263
G2 X-20.121 Y-16.364 R0.794
G1 X-20.053 Y-16.498
G2 X-19.996 Y-16.645 R0.794
G1 X-19.952 Y-16.802
G2 X-19.927 Y-16.938 R0.794
G1 X-19.916 Y-17.049
G2 X-19.913 Y-17.126 R0.794
G1 X-19.915 Y-21.
X18.858
G3 X18.954 Y-20.985 Z-11.984 R0.317
X19.034 Y-20.947 Z-11.939 R0.317
X19.088 Y-20.902 Z-11.869 R0.317
X19.116 Y-20.867 Z-11.781 R0.317
X19.125 Y-20.854 Z-11.682 R0.318
G0 Z5.
X-4.888 Y1.374
Z-9.587
G3 X-4.905 Y1.366 Z-9.696 R1.508 F762.
X-4.955 Y1.341 Z-9.791 R1.508
X-5.029 Y1.301 Z-9.862 R1.508
X-5.116 Y1.245 Z-9.9 R1.508
X-3.414 Y-1.245 Z-10.735 R1.508
X-5.116 Y1.245 Z-11.571 R1.508
X-3.414 Y-1.245 Z-12.406 R1.508
X-5.116 Y1.245 Z-13.242 R1.508
X-5.773 Y0. Z-13.5 R1.508
X-5.767 Y-0.232 R4.132
X-5.058 Y-0.902 R0.71
G1 X4.876
G3 Y0.902 R0.902
G1 X-5.058
G3 X-5.767 Y0.232 R0.71
X-5.773 Y0. R4.132
G2 X-6.883 Y-1.429 R1.475
G3 X-7.005 Y-3.233 R0.952
X-6.424 Y-3.347 R1.543
G1 X6.421
G3 X7.909 Y-2.228 R1.548
X7.906 Y2.233 R8.039
X6.424 Y3.347 R1.543
G1 X-6.628
G3 X-7.851 Y2.426 R1.273
X-8.208 Y0.101 R9.191
X-7.906 Y-2.233 R7.741
X-7.005 Y-3.233 R1.543
G2 X-5.527 Y-4.723 R2.676
G3 X-3.79 Y-5.902 R1.869
G1 X7.823
G3 X9.634 Y-4.832 R2.068
X10.119 Y-3.644 R5.531
X10.434 Y-2.4 R26.891
X10.675 Y1.202 R11.546
X9.712 Y4.68 R10.092
X9.672 Y4.76 R4.16
X9.631 Y4.839 R2.555
X7.827 Y5.902 R2.063
G1 X-7.823
G3 X-9.634 Y4.832 R2.068
X-10.119 Y3.644 R5.531
X-10.434 Y2.4 R26.891
X-10.706 Y-0.6 R11.34
X-10.137 Y-3.557 R10.257
G2 X-9.911 Y-4.209 R115.937
G3 X-9.631 Y-4.839 R3.952
X-7.827 Y-5.902 R2.063
G1 X-3.79
G2 X-1.824 Y-7.212 R2.129
G3 X0.141 Y-8.522 R2.129
G1 X9.061
G3 X11.134 Y-7.448 R2.538
X12.256 Y-5.298 R9.092
X12.939 Y-2.97 R19.663
X13.229 Y1.492 R14.124
X12.028 Y5.798 R12.639
X11.617 Y6.641 R114.99
X11.137 Y7.446 R5.908
X9.055 Y8.522 R2.552
G1 X-9.197
G3 X-11.055 Y7.559 R2.275
X-12.956 Y3.233 R11.845
X-13.193 Y-1.487 R14.552
X-12.581 Y-4.424 R16.289
X-11.332 Y-7.152 R11.399
X-11.237 Y-7.3 R8.749
X-11.137 Y-7.446 R5.029
X-9.055 Y-8.522 R2.552
G1 X0.141
G2 X2.106 Y-9.832 R2.129
G3 X4.071 Y-11.142 R2.129
G1 X10.445
G3 X12.48 Y-10.086 R2.489
X15.724 Y-1.839 R18.741
X14.34 Y6.914 R15.346
X12.472 Y10.094 R22.665
X10.443 Y11.142 R2.487
G1 X-10.555
G3 X-12.416 Y10.177 R2.275
X-15.58 Y2.77 R19.339
X-15.003 Y-5.264 R15.341
X-13.906 Y-7.767 R18.102
X-12.472 Y-10.094 R21.318
X-10.443 Y-11.142 R2.487
G1 X4.071
G2 X6.013 Y-12.437 R2.103
G3 X7.954 Y-13.731 R2.103
G1 X12.142
G3 X13.802 Y-12.768 R1.911
G2 X15.787 Y-9.506 R68.933
G3 X17.465 Y-6.076 R16.05
X15.667 Y9.878 R18.528
X14.722 Y11.305 R36.497
G2 X13.81 Y12.755 R18.254
G3 X12.137 Y13.731 R1.922
G1 X-12.142
G3 X-13.802 Y12.768 R1.911
G2 X-15.787 Y9.506 R68.932
G3 X-17.465 Y6.076 R16.05
X-16.657 Y-8.033 R18.447
X-15.272 Y-10.417 R18.016
G2 X-13.81 Y-12.755 R31.198
G3 X-12.137 Y-13.731 R1.922
G1 X7.954
G2 X9.846 Y-14.992 R2.049
G3 X11.737 Y-16.253 R2.049
G1 X14.175
G3 X15.436 Y-15.314 R1.316
G2 X16.483 Y-13.158 R7.47
G3 X17.809 Y-11.161 R44.62
X19.833 Y6.958 R21.037
X18.274 Y10.345 R19.843
X16.258 Y13.482 R40.879
G2 X15.776 Y14.355 R4.456
X15.444 Y15.297 R9.34
G3 X14.167 Y16.253 R1.331
G1 X-14.175
G3 X-15.436 Y15.314 R1.316
G2 X-16.483 Y13.158 R7.47
G3 X-17.809 Y11.161 R44.621
X-20.491 Y-4.681 R21.043
X-18.807 Y-9.29 R19.612
X-16.258 Y-13.482 R34.824
G2 X-15.776 Y-14.355 R4.456
X-15.444 Y-15.297 R9.34
G3 X-14.167 Y-16.253 R1.331
G1 X11.737
G2 X13.531 Y-17.449 R1.943
G3 X15.325 Y-18.645 R1.943
G1 X16.596
G3 X17.56 Y-17.681 R0.964
G2 X17.572 Y-16.647 R48.696
X17.792 Y-15.636 R2.716
G1 X21.103 Y-10.141
G3 X21.089 Y10.172 R23.43
X19.229 Y13.089 R14.691
G2 X17.637 Y16.161 R8.389
X17.546 Y16.918 R2.544
G3 X17.558 Y17.682 R25.341
X16.595 Y18.645 R0.962
G1 X-16.609
G3 X-17.56 Y17.694 R0.951
G2 X-17.571 Y16.653 R53.536
X-17.791 Y15.636 R2.721
G1 X-21.103 Y10.141
G3 X-22.094 Y-7.751 R23.433
X-20.388 Y-11.436 R21.156
X-18.186 Y-14.848 R46.602
G2 X-17.737 Y-15.792 R3.043
X-17.545 Y-16.819 R5.978
X-17.541 Y-17.25 R2.491
G3 X-17.558 Y-17.682 R5.676
X-16.595 Y-18.645 R0.962
G1 X15.325
G2 X17.091 Y-19.822 R1.914
G3 X18.858 Y-21. R1.914
G1 X19.916
X19.913 Y-20.941
G2 Y-20.906 R0.794
G1 X19.916 Y-17.069
G2 X19.933 Y-16.909 R0.794
G1 X19.967 Y-16.742
G2 X20.015 Y-16.59 R0.794
G1 X20.074 Y-16.453
G2 X20.154 Y-16.309 R0.794
G1 X21.026 Y-15.072
X21.954 Y-13.757
X23.353 Y-11.221
X24.467 Y-8.521
X25.258 Y-5.773
X25.749 Y-2.858
X25.91 Y0.
X25.745 Y2.913
X25.258 Y5.772
X24.448 Y8.576
X23.336 Y11.257
X21.92 Y13.811
X20.181 Y16.263
G2 X20.121 Y16.364 R0.794
G1 X20.053 Y16.498
G2 X19.996 Y16.645 R0.794
G1 X19.952 Y16.802
G2 X19.927 Y16.938 R0.794
G1 X19.916 Y17.049
G2 X19.913 Y17.126 R0.794
G1 X19.915 Y21.
X-19.916
X-19.913 Y20.941
G2 Y20.906 R0.794
G1 X-19.916 Y17.069
G2 X-19.933 Y16.909 R0.794
G1 X-19.967 Y16.742
G2 X-20.015 Y16.59 R0.794
G1 X-20.074 Y16.453
G2 X-20.154 Y16.309 R0.794
G1 X-21.026 Y15.072
X-21.954 Y13.757
X-23.353 Y11.221
X-24.467 Y8.521
X-25.258 Y5.773
X-25.749 Y2.858
X-25.91 Y0.
X-25.798 Y-1.993
X-25.745 Y-2.913
X-25.258 Y-5.772
X-24.448 Y-8.576
X-23.336 Y-11.257
X-21.92 Y-13.811
X-20.181 Y-16.263
G2 X-20.121 Y-16.364 R0.794
G1 X-20.053 Y-16.498
G2 X-19.996 Y-16.645 R0.794
G1 X-19.952 Y-16.802
G2 X-19.927 Y-16.938 R0.794
G1 X-19.916 Y-17.049
G2 X-19.913 Y-17.126 R0.794
G1 X-19.915 Y-21.
X18.858
G3 X18.954 Y-20.985 Z-13.484 R0.317
X19.034 Y-20.947 Z-13.439 R0.317
X19.088 Y-20.902 Z-13.369 R0.317
X19.116 Y-20.867 Z-13.281 R0.317
X19.125 Y-20.854 Z-13.182 R0.318
G0 Z15.

(DRILL1)
M8
G0 X-15.5 Y15.5
Z15.
Z5.
G98 G73 X-15.5 Y15.5 Z-14. R-8.5 Q0.5 F762.
X15.5
Y-15.5
X-15.5
G80
Z15.

(2D CONTOUR1)
M8
G0 X-25.521 Y22.587
Z15.
Z5.
G1 Z3. F762.
Z2.5
X0. Z-2.
X32.5
G2 X34.088 Y21. R1.588
G1 Y3.373
G2 X32.5 Y1.786 R1.587
G1 X20.5
G2 X18.913 Y3.373 R1.587
G1 Y9.413
X11.087
Y0.087
X32.5
G2 X34.088 Y-1.5 R1.588
G1 Y-21.
G2 X32.5 Y-22.587 R1.587
G1 X-32.5
G2 X-34.088 Y-21. R1.588
G1 Y21.
G2 X-32.5 Y22.587 R1.587
G1 X0.
X32.5 Z-3.458
G2 X34.088 Y21. Z-3.569 R1.588
G1 Y11.398 Z-4.
Y3.373
G2 X32.5 Y1.786 R1.587
G1 X20.5
G2 X18.913 Y3.373 R1.587
G1 Y9.413
X11.087
Y0.087
X32.5
G2 X34.088 Y-1.5 R1.588
G1 Y-21.
G2 X32.5 Y-22.587 R1.587
G1 X-32.5
G2 X-34.088 Y-21. R1.588
G1 Y21.
G2 X-32.5 Y22.587 R1.587
G1 X0.
X32.5
G2 X34.088 Y21. R1.588
G1 Y11.398
Y3.373 Z-4.36
G2 X32.5 Y1.786 Z-4.472 R1.587
G1 X20.5 Z-5.01
G2 X18.913 Y3.373 Z-5.122 R1.587
G1 Y9.413 Z-5.393
X11.087 Z-5.743
Y3.692 Z-6.
Y0.087
X32.5
G2 X34.088 Y-1.5 R1.588
G1 Y-21.
G2 X32.5 Y-22.587 R1.587
G1 X-32.5
G2 X-34.088 Y-21. R1.588
G1 Y21.
G2 X-32.5 Y22.587 R1.587
G1 X32.5
G2 X34.088 Y21. R1.588
G1 Y11.398
Y3.373
G2 X32.5 Y1.786 R1.587
G1 X20.5
G2 X18.913 Y3.373 R1.587
G1 Y9.413
X11.087
Y3.692
Y0.087 Z-6.162
X32.5 Z-7.122
G2 X34.088 Y-1.5 Z-7.234 R1.588
G1 Y-18.585 Z-8.
Y-21.
G2 X32.5 Y-22.587 R1.587
G1 X-32.5
G2 X-34.088 Y-21. R1.588
G1 Y21.
G2 X-32.5 Y22.587 R1.587
G1 X32.5
G2 X34.088 Y21. R1.588
G1 Y3.373
G2 X32.5 Y1.786 R1.587
G1 X20.5
G2 X18.913 Y3.373 R1.587
G1 Y9.413
X11.087
Y3.692
Y0.087
X32.5
G2 X34.088 Y-1.5 R1.588
G1 Y-18.585
Y-21. Z-8.108
G2 X32.5 Y-22.587 Z-8.22 R1.587
G1 X-7.187 Z-10.
X-32.5
G2 X-34.088 Y-21. R1.588
G1 Y21.
G2 X-32.5 Y22.587 R1.587
G1 X32.5
G2 X34.088 Y21. R1.588
G1 Y3.373
G2 X32.5 Y1.786 R1.587
G1 X20.5
G2 X18.913 Y3.373 R1.587
G1 Y9.413
X11.087
Y0.087
X32.5
G2 X34.088 Y-1.5 R1.588
G1 Y-18.585
Y-21.
G2 X32.5 Y-22.587 R1.587
G1 X-7.187
X-32.5 Z-11.135
G2 X-34.088 Y-21. Z-11.247 R1.588
G1 Y-4.211 Z-12.
Y21.
G2 X-32.5 Y22.587 R1.587
G1 X32.5
G2 X34.088 Y21. R1.588
G1 Y3.373
G2 X32.5 Y1.786 R1.587
G1 X20.5
G2 X18.913 Y3.373 R1.587
G1 Y9.413
X11.087
Y0.087
X32.5
G2 X34.088 Y-1.5 R1.588
G1 Y-21.
G2 X32.5 Y-22.587 R1.587
G1 X-7.187
X-32.5
G2 X-34.088 Y-21. R1.588
G1 Y-4.211
Y21. Z-13.131
G2 X-32.5 Y22.587 Z-13.242 R1.587
G1 X-15.609 Z-14.
X32.5
G2 X34.088 Y21. R1.588
G1 Y3.373
G2 X32.5 Y1.786 R1.587
G1 X20.5
G2 X18.913 Y3.373 R1.587
G1 Y9.413
X11.087
Y0.087
X32.5
G2 X34.088 Y-1.5 R1.588
G1 Y-21.
G2 X32.5 Y-22.587 R1.587
G1 X-32.5
G2 X-34.088 Y-21. R1.588
G1 Y21.
G2 X-32.5 Y22.587 R1.587
G1 X-15.609
X28.987 Z-16.
X32.5
G2 X34.088 Y21. R1.588
G1 Y3.373
G2 X32.5 Y1.786 R1.587
G1 X20.5
G2 X18.913 Y3.373 R1.587
G1 Y9.413
X11.087
Y0.087
X32.5
G2 X34.088 Y-1.5 R1.588
G1 Y-21.
G2 X32.5 Y-22.587 R1.587
G1 X-32.5
G2 X-34.088 Y-21. R1.588
G1 Y21.
G2 X-32.5 Y22.587 R1.587
G1 X28.987
X32.5 Z-16.158
G2 X34.088 Y21. Z-16.269 R1.588
G1 Y3.373 Z-17.06
G2 X32.5 Y1.786 Z-17.172 R1.587
G1 X20.5 Z-17.71
G2 X18.913 Y3.373 Z-17.822 R1.587
G1 Y7.349 Z-18.
Y9.413
X11.087
Y0.087
X32.5
G2 X34.088 Y-1.5 R1.588
G1 Y-21.
G2 X32.5 Y-22.587 R1.587
G1 X-32.5
G2 X-34.088 Y-21. R1.588
G1 Y21.
G2 X-32.5 Y22.587 R1.587
G1 X28.987
X32.5
G2 X34.088 Y21. R1.588
G1 Y3.373
G2 X32.5 Y1.786 R1.587
G1 X20.5
G2 X18.913 Y3.373 R1.587
G1 Y7.349
Y9.413 Z-18.093
X11.087 Z-18.443
Y0.087 Z-18.862
X32.5 Z-19.822
G2 X34.088 Y-1.5 Z-19.934 R1.588
G1 Y-2.976 Z-20.
Y-21.
G2 X32.5 Y-22.587 R1.587
G1 X-32.5
G2 X-34.088 Y-21. R1.588
G1 Y21.
G2 X-32.5 Y22.587 R1.587
G1 X32.5
G2 X34.088 Y21. R1.588
G1 Y3.373
G2 X32.5 Y1.786 R1.587
G1 X20.5
G2 X18.913 Y3.373 R1.587
G1 Y7.349
Y9.413
X11.087
Y0.087
X32.5
G2 X34.088 Y-1.5 R1.588
G1 Y-2.976
G0 Z15.

M9
M30
