(___1)
(T1  D=3.175 CR=0. - ZMIN=-2. - FLAT END MILL)
(T2  D=3.175 CR=0. - ZMIN=-2. - FLAT END MILL)
G90 G94 G91.1 G40 G49 G17
G21

(DRILL6)
M5
M9
T2
S10000 M3
G54
M8
G0 X0. Y0.
G43 Z15. H2
Z5.
G98 G83 X0. Y0. Z-2. R5. Q0.794 F762.
G80
Z15.

(DRILL1)
M5
M9
M1
T1
S10000 M3
G54
M8
G0 X-29.5 Y-10.
G43 Z15. H1
Z5.
G1 Z0. F762.
Z-1.
G3 X-28.587 R0.456 F953.
X-30.413 R0.913
X-28.587 R0.913
G1 X-29.5
Z-2. F762.
G3 X-28.587 R0.456 F953.
X-30.413 R0.913
X-28.587 R0.913
G1 X-29.5
G0 Z5.
Y10.
G1 Z0. F762.
Z-1.
G3 X-28.587 R0.456 F953.
X-30.413 R0.913
X-28.587 R0.913
G1 X-29.5
Z-2. F762.
G3 X-28.587 R0.456 F953.
X-30.413 R0.913
X-28.587 R0.913
G1 X-29.5
G0 Z5.
X29.5
G1 Z0. F762.
Z-1.
G3 X30.413 R0.456 F953.
X28.587 R0.913
X30.413 R0.913
G1 X29.5
Z-2. F762.
G3 X30.413 R0.456 F953.
X28.587 R0.913
X30.413 R0.913
G1 X29.5
G0 Z5.
Y-10.
G1 Z0. F762.
Z-1.
G3 X30.413 R0.456 F953.
X28.587 R0.913
X30.413 R0.913
G1 X29.5
Z-2. F762.
G3 X30.413 R0.456 F953.
X28.587 R0.913
X30.413 R0.913
G1 X29.5
G0 Z5.
Z15.

(2D CONTOUR5)
M8
G0 X30.913 Y18.976
Z15.
Z5.
G1 Z2.5 F762.
Y19.413 Z2.423 F953.
X11.5 Z-1.
X-30.913
Y-19.413
X30.913
Y19.413
X11.5
X-4.35 Z-2.
X-30.913
Y-19.413
X30.913
Y19.413
X11.5
X-4.35
G0 Z15.

M9
M30
