(__)
(T2  D=3.175 CR=0. - ZMIN=-8. - FLAT END MILL)
G90 G94 G91.1 G40 G49 G17
G21

(DRILL2)
M5
M9
T2
S10000 M3
G54
M8
G0 X0. Y0.
G43 Z15. H2
Z5.
G98 G81 X0. Y0. Z-8. R5. F762.
G80
Z15.

(2D CONTOUR2)
M8
G0 X8.216 Y0.307
Z15.
Z5.
G1 Z3. F762.
Z2.5
G3 X-8.221 Y0. Z-2. R8.221 F953.
X8.221 R8.221
X-8.221 R8.221
X-8.007 Y-0.316 R0.34
G2 X-7.78 Y-0.624 R0.362
G3 X7.78 Y0.624 R7.805
X-7.78 Y-0.624 R7.805
X-7.714 Y-0.707 R0.096
G2 X-7.647 Y-0.79 R0.097
G3 X7.647 Y0.79 R7.688
X-7.647 Y-0.79 R7.688
G0 Z5.
X8.216 Y0.307
G1 Z1. F762.
Z0.5
G3 X-8.221 Y0. Z-4. R8.221 F953.
X8.221 R8.221
X-8.221 R8.221
X-8.007 Y-0.316 R0.34
G2 X-7.78 Y-0.624 R0.362
G3 X7.78 Y0.624 R7.805
X-7.78 Y-0.624 R7.805
X-7.714 Y-0.707 R0.096
G2 X-7.647 Y-0.79 R0.097
G3 X7.647 Y0.79 R7.688
X-7.647 Y-0.79 R7.688
G0 Z5.
X8.216 Y0.307
G1 Z-1. F762.
Z-1.5
G3 X-8.221 Y0. Z-6. R8.221 F953.
X8.221 R8.221
X-8.221 R8.221
X-8.007 Y-0.316 R0.34
G2 X-7.78 Y-0.624 R0.362
G3 X7.78 Y0.624 R7.805
X-7.78 Y-0.624 R7.805
X-7.714 Y-0.707 R0.096
G2 X-7.647 Y-0.79 R0.097
G3 X7.647 Y0.79 R7.688
X-7.647 Y-0.79 R7.688
G0 Z5.
X8.216 Y0.307
G1 Z-3. F762.
Z-3.5
G3 X-8.221 Y0. Z-8. R8.221 F953.
X8.221 R8.221
X-8.221 R8.221
X-8.007 Y-0.316 R0.34
G2 X-7.78 Y-0.624 R0.362
G3 X7.78 Y0.624 R7.805
X-7.78 Y-0.624 R7.805
X-7.714 Y-0.707 R0.096
G2 X-7.647 Y-0.79 R0.097
G3 X7.647 Y0.79 R7.688
X-7.647 Y-0.79 R7.688
G0 Z15.

M9
M30
