( _)
(T2  D=7. CR=0. TAPER=45DEG - ZMIN=-21.2 - CHAMFER MILL)
G90 G94 G91.1 G40 G49 G17
G21

(2D CHAMFER1)
M5
M9
T2
S8990 M3
G54
M8
G0 X61.25 Y79.55
G43 Z15. H2
Z5.
G1 Z2. F2337.
Z-2. F762.
G3 X18.75 R21.25 F2337.
X61.25 R21.25
G0 Z5.
X94.75 Y129.55
G1 Z2. F2337.
Z-2. F762.
G3 X85.25 R4.75 F2337.
X94.75 R4.75
G0 Z5.
X93.749 Y0.092
G1 Z2. F2337.
Z-2. F762.
G3 X86.251 Y-0.092 R3.75 F2337.
X93.749 Y0.092 R3.75
G0 Z5.
X94.75 Y-129.55
G1 Z2. F2337.
Z-2. F762.
G3 X85.25 R4.75 F2337.
X94.75 R4.75
G0 Z5.
X-85.25
G1 Z2. F2337.
Z-2. F762.
G3 X-94.75 R4.75 F2337.
X-85.25 R4.75
G0 Z5.
X-85.251 Y129.667
G1 Z2. F2337.
Z-2. F762.
G3 X-94.749 Y129.433 R4.75 F2337.
X-85.251 Y129.667 R4.75
G0 Z15.

(DRILL1)
M8
G0 X56.5 Y79.55
Z15.
Z5.
G98 G81 X56.5 Y79.55 Z-21.2 R-16. F762.
X40. Y63.05
X23.5 Y79.55
X40. Y96.05
G80
Z15.

M9
M30
