(__2)
(T2  D=7. CR=0. TAPER=45DEG - ZMIN=-2. - CHAMFER MILL)
G90 G94 G91.1 G40 G49 G17
G21

(2D CHAMFER1)
M5
M9
T2
S8990 M3
G54
M8
G0 X61.244 Y80.072
G43 Z15. H2
Z5.
G1 Z2. F2337.
Z-2. F762.
G3 X18.756 Y79.029 R21.25 F2337.
X61.244 Y80.072 R21.25
G0 Z5.
X93.999 Y129.648
G1 Z2. F2337.
Z-2. F762.
G3 X86.001 Y129.452 R4. F2337.
X93.999 Y129.648 R4.
G0 Z5.
X93.249 Y0.08
G1 Z2. F2337.
Z-2. F762.
G3 X86.751 Y-0.08 R3.25 F2337.
X93.249 Y0.08 R3.25
G0 Z5.
X94. Y-129.55
G1 Z2. F2337.
Z-2. F762.
G3 X86. R4. F2337.
X94. R4.
G0 Z5.
X-86.001 Y-129.452
G1 Z2. F2337.
Z-2. F762.
G3 X-93.999 Y-129.648 R4. F2337.
X-86.001 Y-129.452 R4.
G0 Z5.
Y129.648
G1 Z2. F2337.
Z-2. F762.
G3 X-93.999 Y129.452 R4. F2337.
X-86.001 Y129.648 R4.
G0 Z15.

M9
M30
