( )
(T1  D=3. CR=0. - ZMIN=-5. - FLAT END MILL)
G90 G94 G91.1 G40 G49 G17
G21

(DRILL2)
M5
M9
T1
S9700 M3
G54
M8
G0 X9.899 Y-9.899
G43 Z16. H1
Z6.
G98 G83 X9.899 Y-9.899 Z-5. R0. Q0. F200.
X-9.899
Y9.899
X9.899
G80
Z16.

(ADAPTIVE1)
M8
G0 X-0.982 Y-1.134
Z16.
Z6.
Z1.8
G1 Z1.5 F466.
G3 X0.982 Y1.134 Z1.335 R1.5
X-0.982 Y-1.134 Z1.171 R1.5
X0.982 Y1.134 Z1.006 R1.5
X-0.982 Y-1.134 Z0.842 R1.5
X0.982 Y1.134 Z0.677 R1.5
X-0.982 Y-1.134 Z0.513 R1.5
X0.982 Y1.134 Z0.348 R1.5
X-0.982 Y-1.134 Z0.184 R1.5
X0.982 Y1.134 Z0.019 R1.5
X-0.982 Y-1.134 Z-0.146 R1.5
X0.982 Y1.134 Z-0.31 R1.5
X-0.982 Y-1.134 Z-0.475 R1.5
X0.982 Y1.134 Z-0.639 R1.5
X-0.982 Y-1.134 Z-0.804 R1.5
X0.982 Y1.134 Z-0.968 R1.5
X-0.982 Y-1.134 Z-1.133 R1.5
X0.982 Y1.134 Z-1.298 R1.5
X-0.982 Y-1.134 Z-1.462 R1.5
X0.982 Y1.134 Z-1.627 R1.5
X-0.982 Y-1.134 Z-1.791 R1.5
X0.982 Y1.134 Z-1.956 R1.5
X-0.982 Y-1.134 Z-2.12 R1.5
X1.5 Y0. Z-2.24 R1.5
X-1.5 R1.5
X1.5 R1.5
G1 X1.516 Y0.631
X1.545 Y0.705
X1.576 Y0.836
X1.581 Y0.971
X1.566 Y1.105
X1.532 Y1.236
X1.483 Y1.361
X1.421 Y1.481
X1.346 Y1.594
X1.262 Y1.699
X1.168 Y1.796
X1.066 Y1.885
X0.956 Y1.967
X0.835 Y2.042
X0.704 Y2.109
X0.565 Y2.167
X0.418 Y2.215
X0.263 Y2.252
X0.103 Y2.277
X-0.061 Y2.289
X-0.229 Y2.288
X-0.398 Y2.273
X-0.568 Y2.244
X-0.737 Y2.201
X-0.905 Y2.145
X-1.068 Y2.074
X-1.227 Y1.989
X-1.379 Y1.892
X-1.524 Y1.782
X-1.66 Y1.66
X-1.787 Y1.527
X-1.903 Y1.383
X-2.008 Y1.23
X-2.1 Y1.068
X-2.18 Y0.9
X-2.246 Y0.724
X-2.297 Y0.544
X-2.334 Y0.36
X-2.356 Y0.173
X-2.363 Y-0.015
X-2.355 Y-0.204
X-2.332 Y-0.391
X-2.294 Y-0.576
X-2.241 Y-0.758
X-2.173 Y-0.935
X-2.092 Y-1.106
X-1.997 Y-1.27
X-1.889 Y-1.426
X-1.769 Y-1.573
X-1.637 Y-1.71
X-1.495 Y-1.835
X-1.344 Y-1.949
X-1.183 Y-2.051
X-1.015 Y-2.139
X-0.84 Y-2.214
X-0.66 Y-2.274
X-0.475 Y-2.32
X-0.288 Y-2.351
X-0.098 Y-2.366
X0.092
X0.282 Y-2.351
X0.469 Y-2.321
X0.654 Y-2.276
X0.835 Y-2.216
X1.01 Y-2.142
X1.178 Y-2.054
X1.339 Y-1.953
X1.492 Y-1.839
X1.635 Y-1.714
X1.767 Y-1.577
X1.888 Y-1.43
X1.996 Y-1.274
X2.096 Y-1.103
X2.203 Y-0.881
X2.376 Y-0.431
X2.465 Y-0.131
X2.518 Y0.127
X2.548 Y0.363
X2.559 Y0.586
X2.551 Y0.8
X2.527 Y1.007
X2.488 Y1.207
X2.433 Y1.401
X2.363 Y1.589
X2.278 Y1.772
X2.178 Y1.948
X2.063 Y2.117
X1.933 Y2.278
X1.79 Y2.43
X1.632 Y2.572
X1.461 Y2.703
X1.277 Y2.821
X1.082 Y2.926
X0.876 Y3.015
X0.66 Y3.09
X0.436 Y3.147
X0.205 Y3.187
X-0.031 Y3.208
X-0.27 Y3.21
X-0.511 Y3.193
X-0.753 Y3.157
X-0.992 Y3.1
X-1.228 Y3.024
X-1.459 Y2.929
X-1.684 Y2.814
X-1.899 Y2.681
X-2.105 Y2.53
X-2.299 Y2.363
X-2.479 Y2.179
X-2.645 Y1.98
X-2.796 Y1.768
X-2.929 Y1.544
X-3.044 Y1.309
X-3.14 Y1.065
X-3.217 Y0.814
X-3.273 Y0.556
X-3.308 Y0.294
X-3.322 Y0.03
X-3.315 Y-0.234
X-3.287 Y-0.498
X-3.238 Y-0.759
X-3.168 Y-1.016
X-3.077 Y-1.266
X-2.966 Y-1.508
X-2.837 Y-1.741
X-2.689 Y-1.962
X-2.523 Y-2.171
X-2.342 Y-2.367
X-2.145 Y-2.547
X-1.934 Y-2.711
X-1.711 Y-2.857
X-1.476 Y-2.985
X-1.232 Y-3.094
X-0.98 Y-3.183
X-0.722 Y-3.252
X-0.459 Y-3.299
X-0.193 Y-3.325
X0.075 Y-3.33
X0.342 Y-3.314
X0.606 Y-3.276
X0.867 Y-3.216
X1.123 Y-3.136
X1.371 Y-3.036
X1.61 Y-2.917
X1.839 Y-2.778
X2.056 Y-2.622
X2.261 Y-2.447
X2.459 Y-2.249
X2.665 Y-2.006
X2.864 Y-1.731
X3.046 Y-1.43
X3.203 Y-1.116
X3.332 Y-0.797
X3.431 Y-0.48
X3.502 Y-0.166
X3.547 Y0.144
X3.566 Y0.448
X3.56 Y0.748
X3.531 Y1.043
X3.479 Y1.332
X3.404 Y1.613
X3.308 Y1.887
X3.19 Y2.152
X3.05 Y2.407
X2.891 Y2.65
X2.712 Y2.88
X2.513 Y3.097
X2.296 Y3.299
X2.062 Y3.484
X1.812 Y3.651
X1.548 Y3.798
X1.269 Y3.925
X0.979 Y4.03
X0.679 Y4.112
X0.371 Y4.171
X0.057 Y4.204
X-0.261 Y4.213
X-0.581 Y4.195
X-0.901 Y4.152
X-1.218 Y4.083
X-1.531 Y3.987
X-1.837 Y3.867
X-2.135 Y3.721
X-2.421 Y3.551
X-2.694 Y3.357
X-2.952 Y3.142
X-3.193 Y2.905
X-3.414 Y2.648
X-3.616 Y2.374
X-3.795 Y2.083
X-3.951 Y1.778
X-4.082 Y1.461
X-4.187 Y1.133
X-4.266 Y0.798
X-4.318 Y0.456
X-4.343 Y0.111
X-4.339 Y-0.235
X-4.308 Y-0.581
X-4.249 Y-0.923
X-4.163 Y-1.26
X-4.05 Y-1.588
X-3.91 Y-1.908
X-3.746 Y-2.215
X-3.557 Y-2.508
X-3.345 Y-2.785
X-3.112 Y-3.044
X-2.858 Y-3.284
X-2.586 Y-3.502
X-2.298 Y-3.699
X-1.994 Y-3.871
X-1.677 Y-4.019
X-1.35 Y-4.14
X-1.013 Y-4.235
X-0.67 Y-4.303
X-0.323 Y-4.343
X0.026 Y-4.355
X0.376 Y-4.339
X0.722 Y-4.295
X1.065 Y-4.223
X1.4 Y-4.124
X1.727 Y-3.999
X2.042 Y-3.847
X2.347 Y-3.669
X2.647 Y-3.461
X2.939 Y-3.22
X3.221 Y-2.947
X3.487 Y-2.645
X3.732 Y-2.317
X3.95 Y-1.969
X4.14 Y-1.605
X4.298 Y-1.231
X4.425 Y-0.848
X4.519 Y-0.461
X4.582 Y-0.072
X4.613 Y0.317
X4.612 Y0.703
X4.581 Y1.086
X4.519 Y1.462
X4.428 Y1.83
X4.308 Y2.189
X4.159 Y2.536
X3.984 Y2.87
X3.782 Y3.19
X3.554 Y3.493
X3.302 Y3.777
X3.027 Y4.042
X2.73 Y4.285
X2.413 Y4.504
X2.077 Y4.699
X1.725 Y4.866
X1.358 Y5.006
X0.979 Y5.117
X0.59 Y5.197
X0.193 Y5.246
X-0.209 Y5.263
X-0.613 Y5.248
X-1.017 Y5.2
X-1.417 Y5.119
X-1.813 Y5.006
X-2.199 Y4.861
X-2.575 Y4.684
X-2.937 Y4.477
X-3.282 Y4.241
X-3.609 Y3.977
X-3.914 Y3.686
X-4.197 Y3.37
X-4.453 Y3.032
X-4.683 Y2.673
X-4.883 Y2.297
X-5.053 Y1.904
X-5.191 Y1.498
X-5.296 Y1.081
X-5.368 Y0.657
X-5.405 Y0.228
X-5.408 Y-0.204
X-5.376 Y-0.635
X-5.31 Y-1.062
X-5.21 Y-1.483
X-5.075 Y-1.895
X-4.909 Y-2.295
X-4.71 Y-2.681
X-4.481 Y-3.049
X-4.223 Y-3.399
X-3.938 Y-3.726
X-3.627 Y-4.03
X-3.292 Y-4.308
X-2.937 Y-4.559
X-2.562 Y-4.78
X-2.171 Y-4.97
X-1.765 Y-5.128
X-1.349 Y-5.253
X-0.923 Y-5.345
X-0.491 Y-5.402
X-0.057 Y-5.424
X0.379 Y-5.411
X0.812 Y-5.363
X1.239 Y-5.281
X1.66 Y-5.165
X2.071 Y-5.014
X2.472 Y-4.829
X2.863 Y-4.61
X3.243 Y-4.355
X3.608 Y-4.064
X3.956 Y-3.738
X4.281 Y-3.381
X4.579 Y-2.995
X4.846 Y-2.584
X5.08 Y-2.154
X5.277 Y-1.707
X5.438 Y-1.248
X5.56 Y-0.781
X5.644 Y-0.308
X5.689 Y0.167
X5.696 Y0.641
X5.665 Y1.112
X5.597 Y1.577
X5.492 Y2.033
X5.351 Y2.478
X5.175 Y2.909
X4.966 Y3.325
X4.723 Y3.723
X4.449 Y4.101
X4.144 Y4.457
X3.811 Y4.787
X3.452 Y5.092
X3.067 Y5.367
X2.66 Y5.611
X2.233 Y5.824
X1.788 Y6.002
X1.328 Y6.144
X0.855 Y6.249
X0.374 Y6.317
X-0.114 Y6.346
X-0.605 Y6.336
X-1.095 Y6.285
X-1.583 Y6.196
X-2.063 Y6.067
X-2.534 Y5.899
X-2.991 Y5.693
X-3.433 Y5.45
X-3.854 Y5.172
X-4.254 Y4.859
X-4.628 Y4.515
X-4.974 Y4.14
X-5.29 Y3.738
X-5.573 Y3.31
X-5.822 Y2.861
X-6.034 Y2.391
X-6.209 Y1.906
X-6.343 Y1.407
X-6.438 Y0.898
X-6.491 Y0.382
X-6.503 Y-0.136
X-6.474 Y-0.655
X-6.402 Y-1.17
X-6.29 Y-1.678
X-6.137 Y-2.176
X-5.944 Y-2.66
X-5.713 Y-3.128
X-5.445 Y-3.576
X-5.142 Y-4.
X-4.805 Y-4.4
X-4.438 Y-4.771
X-4.042 Y-5.112
X-3.619 Y-5.42
X-3.173 Y-5.693
X-2.707 Y-5.929
X-2.223 Y-6.127
X-1.724 Y-6.286
X-1.215 Y-6.404
X-0.697 Y-6.481
X-0.175 Y-6.516
X0.348 Y-6.51
X0.869 Y-6.461
X1.386 Y-6.37
X1.895 Y-6.238
X2.395 Y-6.064
X2.884 Y-5.849
X3.36 Y-5.592
X3.82 Y-5.293
X4.261 Y-4.955
X4.677 Y-4.577
X5.066 Y-4.164
X5.422 Y-3.718
X5.743 Y-3.243
X6.024 Y-2.743
X6.265 Y-2.223
X6.462 Y-1.686
X6.616 Y-1.137
X6.724 Y-0.579
X6.787 Y-0.017
X6.805 Y0.546
X6.777 Y1.107
X6.705 Y1.662
X6.589 Y2.207
X6.429 Y2.741
X6.228 Y3.26
X5.986 Y3.76
X5.704 Y4.24
X5.384 Y4.696
X5.029 Y5.125
X4.639 Y5.526
X4.217 Y5.894
X3.765 Y6.229
X3.287 Y6.528
X2.784 Y6.788
X2.26 Y7.007
X1.718 Y7.185
X1.161 Y7.319
X0.593 Y7.408
X0.017 Y7.452
X-0.562 Y7.449
X-1.142 Y7.4
X-1.718 Y7.303
X-2.287 Y7.161
X-2.844 Y6.972
X-3.386 Y6.739
X-3.91 Y6.462
X-4.411 Y6.142
X-4.886 Y5.783
X-5.332 Y5.385
X-5.746 Y4.952
X-6.125 Y4.486
X-6.466 Y3.99
X-6.766 Y3.467
X-7.024 Y2.921
X-7.238 Y2.355
X-7.405 Y1.773
X-7.526 Y1.178
X-7.599 Y0.574
X-7.623 Y-0.033
X-7.598 Y-0.642
X-7.524 Y-1.247
X-7.402 Y-1.845
X-7.232 Y-2.431
X-7.016 Y-3.002
X-6.754 Y-3.554
X-6.449 Y-4.084
X-6.102 Y-4.588
X-5.715 Y-5.062
X-5.292 Y-5.504
X-4.834 Y-5.911
X-4.345 Y-6.28
X-3.828 Y-6.608
X-3.286 Y-6.894
X-2.723 Y-7.136
X-2.142 Y-7.332
X-1.547 Y-7.48
X-0.942 Y-7.58
X-0.331 Y-7.631
X0.283 Y-7.634
X0.895 Y-7.586
X1.504 Y-7.49
X2.105 Y-7.344
X2.696 Y-7.15
X3.274 Y-6.907
X3.834 Y-6.616
X4.369 Y-6.281
X4.877 Y-5.905
X5.352 Y-5.491
X5.795 Y-5.04
X6.2 Y-4.556
X6.568 Y-4.043
X6.894 Y-3.503
X7.179 Y-2.94
X7.42 Y-2.356
X7.615 Y-1.756
X7.764 Y-1.142
X7.866 Y-0.519
X7.919 Y0.11
X7.923 Y0.741
X7.878 Y1.371
X7.785 Y1.995
X7.643 Y2.61
X7.453 Y3.212
X7.217 Y3.797
X6.935 Y4.362
X6.611 Y4.904
X6.244 Y5.418
X5.839 Y5.902
X5.398 Y6.353
X4.922 Y6.769
X4.416 Y7.146
X3.882 Y7.483
X3.324 Y7.777
X2.745 Y8.028
X2.148 Y8.234
X1.537 Y8.393
X0.916 Y8.504
X0.288 Y8.567
X-0.344 Y8.582
X-0.974 Y8.55
X-1.6 Y8.47
X-2.219 Y8.343
X-2.826 Y8.171
X-3.419 Y7.954
X-3.994 Y7.694
X-4.548 Y7.392
X-5.079 Y7.05
X-5.583 Y6.67
X-6.058 Y6.254
X-6.5 Y5.804
X-6.908 Y5.321
X-7.278 Y4.81
X-7.61 Y4.274
X-7.902 Y3.714
X-8.153 Y3.135
X-8.361 Y2.539
X-8.526 Y1.929
X-8.647 Y1.31
X-8.722 Y0.683
X-8.753 Y0.052
X-8.736 Y-0.579
X-8.673 Y-1.207
X-8.564 Y-1.828
X-8.41 Y-2.441
X-8.213 Y-3.04
X-7.973 Y-3.624
X-7.692 Y-4.19
X-7.372 Y-4.734
X-7.014 Y-5.253
X-6.619 Y-5.746
X-6.189 Y-6.208
X-5.726 Y-6.637
X-5.233 Y-7.032
X-4.713 Y-7.389
X-4.169 Y-7.709
X-3.603 Y-7.989
X-3.019 Y-8.229
X-2.419 Y-8.426
X-1.807 Y-8.58
X-1.185 Y-8.689
X-0.557 Y-8.752
X0.074 Y-8.768
X0.704 Y-8.739
X1.331 Y-8.665
X1.951 Y-8.547
X2.562 Y-8.385
X3.159 Y-8.181
X3.741 Y-7.936
X4.304 Y-7.651
X4.844 Y-7.325
X5.361 Y-6.962
X5.851 Y-6.564
X6.313 Y-6.134
X6.744 Y-5.673
X7.144 Y-5.185
X7.511 Y-4.671
X7.842 Y-4.133
X8.135 Y-3.574
X8.388 Y-2.996
X8.602 Y-2.402
X8.776 Y-1.795
X8.909 Y-1.178
X9.001 Y-0.554
X9.051 Y0.076
X9.058 Y0.707
X9.021 Y1.337
X8.941 Y1.963
X8.817 Y2.582
X8.651 Y3.191
X8.445 Y3.788
X8.336 Y4.036
X7.703 Y5.193
X6.571 Y6.567
X5.222 Y7.684
X3.645 Y8.546
X1.996 Y9.073
X0.204 Y9.288
X-1.516 Y9.165
X-3.237 Y8.708
X-4.845 Y7.927
X-6.247 Y6.876
X-7.44 Y5.563
X-8.358 Y4.058
X-8.973 Y2.409
X-9.264 Y0.689
X-9.228 Y-1.031
X-9.211 Y-1.175
X-8.853 Y-2.818
X-8.143 Y-4.472
X-7.172 Y-5.906
X-5.916 Y-7.163
X-4.455 Y-8.152
X-2.807 Y-8.856
X-1.086 Y-9.226
X0.67 Y-9.267
X2.426 Y-8.968
X4.075 Y-8.348
X5.58 Y-7.427
X6.868 Y-6.256
X7.946 Y-4.813
X8.702 Y-3.253
X9.163 Y-1.533
X9.288 Y0.223
X9.077 Y1.979
X8.538 Y3.664
X8.336 Y4.036
X8.311 Y4.063 Z-2.234
X8.29 Y4.087 Z-2.217
X8.272 Y4.107 Z-2.191
X8.261 Y4.119 Z-2.158
X8.257 Y4.123 Z-2.122
G0 Z6.
X7.212 Y1.253
Z0.61
G1 Z0.31 F466.
X7.219 Y1.252 Z0.243
X7.241 Y1.25 Z0.18
X7.277 Y1.245 Z0.123
X7.324 Y1.24 Z0.075
X7.381 Y1.233 Z0.04
X7.444 Y1.225 Z0.018
X7.51 Y1.217 Z0.01
G3 X9.16 Y1.196 R7.659
G1 X9.294 Y1.213
X9.33 Y1.257
X9.35 Y1.311
X9.352 Y1.368
X9.251 Y2.123
X8.678 Y3.843
X7.793 Y5.42
X6.712 Y6.71
X5.325 Y7.857
X3.752 Y8.717
X1.996 Y9.279
X0.204 Y9.489
X-1.588 Y9.358
X-3.344 Y8.882
X-4.957 Y8.094
X-6.412 Y6.997
X-7.58 Y5.707
X-7.636 Y5.635
X-8.545 Y4.13
X-9.18 Y2.409
X-9.471 Y0.617
X-9.419 Y-1.175
X-9.027 Y-2.931
X-8.293 Y-4.615
X-7.284 Y-6.085
X-6.017 Y-7.339
X-4.67 Y-8.244
X-4.488 Y-8.364
X-2.807 Y-9.066
X-1.086 Y-9.428
X0.347 Y-9.457
X0.777 Y-9.459
X2.534 Y-9.147
X4.218 Y-8.503
X5.759 Y-7.544
X7.085 Y-6.315
X8.149 Y-4.866
X8.929 Y-3.218
X9.378 Y-1.461
X9.485 Y0.331
X9.352 Y1.368
G3 X9.31 Y1.478 R0.3
G1 X9.275 Y1.534 Z0.018
X9.241 Y1.588 Z0.04
X9.211 Y1.637 Z0.075
X9.186 Y1.677 Z0.123
X9.167 Y1.707 Z0.18
X9.155 Y1.726 Z0.243
X9.151 Y1.732 Z0.31
G0 Z16.

M9
M30
