( _)
(T2  D=4. CR=0. - ZMIN=-25. - FLAT END MILL)
G90 G94 G91.1 G40 G49 G17
G21

(POCKET2)
M5
M9
T2
S4370 M3
G54
M8
G0 X41.603 Y79.318
G43 Z15. H2
Z2.
G1 Z1.448 F30.
G3 X41.607 Y79.334 Z1.336 R0.75 F350.
X41.62 Y79.38 Z1.232 R0.75
X41.633 Y79.454 Z1.146 R0.75
X41.639 Y79.549 Z1.084 R0.75
X41.636 Y79.613 Z1.062 R0.75
X41.628 Y79.679 Z1.05 R0.75
X40.15 Y79.42 Z0.844 R0.75
X41.628 Y79.679 Z0.638 R0.75
X40.15 Y79.42 Z0.432 R0.75
X41.628 Y79.679 Z0.225 R0.75
X40.15 Y79.42 Z0.019 R0.75
X41.628 Y79.679 Z-0.187 R0.75
X40.15 Y79.42 Z-0.393 R0.75
X41.628 Y79.679 Z-0.599 R0.75
X40.15 Y79.42 Z-0.805 R0.75
X41.639 Y79.549 Z-1. R0.75
X38.361 R1.639
X45.439 R3.539
X34.561 R5.439
X49.239 R7.339
X30.761 R9.239
X53.039 R11.139
X26.961 R13.039
X56.839 R14.939
X23.161 R16.839
X56.839 R16.839
G2 X58.41 Y82.584 R3.717
G3 X59.465 Y85.834 R2.856
G1 X58.933 Y87.398
X57.747 Y89.802
X56.276 Y92.003
X54.516 Y94.016
X52.465 Y95.818
X50.25 Y97.298
X47.856 Y98.479
X45.28 Y99.352
X42.644 Y99.872
X40.011 Y100.045
X37.315 Y99.868
X34.68 Y99.342
X32.166 Y98.489
X29.771 Y97.309
X27.504 Y95.794
X25.515 Y94.049
X23.755 Y92.044
X22.247 Y89.79
X21.057 Y87.371
X20.197 Y84.826
X19.677 Y82.193
X19.505 Y79.561
X19.59 Y78.243
X19.681 Y76.87
X20.205 Y74.237
X21.066 Y71.703
X22.271 Y69.272
X23.747 Y67.064
X25.497 Y65.069
X27.494 Y63.315
X29.345 Y62.072
X29.768 Y61.793
X32.183 Y60.605
X34.68 Y59.758
X37.315 Y59.232
X40.01 Y59.055
X42.706 Y59.236
X45.303 Y59.752
X47.855 Y60.62
X50.25 Y61.802
X52.466 Y63.282
X54.474 Y65.041
X56.248 Y67.059
X57.758 Y69.318
X58.942 Y71.725
X59.795 Y74.237
X60.32 Y76.877
X60.495 Y79.561
X60.319 Y82.234
X59.791 Y84.874
X59.465 Y85.834
G3 X59.408 Y85.943 Z-0.98 R0.4
X59.33 Y86.022 Z-0.924 R0.4
X59.254 Y86.068 Z-0.835 R0.4
X59.201 Y86.088 Z-0.724 R0.4
X59.182 Y86.094 Z-0.6 R0.4
G0 Z5.
X41.603 Y79.318
Z0.448
G3 X41.607 Y79.334 Z0.336 R0.75 F350.
X41.62 Y79.38 Z0.232 R0.75
X41.633 Y79.454 Z0.146 R0.75
X41.639 Y79.549 Z0.084 R0.75
X41.636 Y79.613 Z0.062 R0.75
X41.628 Y79.679 Z0.05 R0.75
X40.15 Y79.42 Z-0.156 R0.75
X41.628 Y79.679 Z-0.362 R0.75
X40.15 Y79.42 Z-0.568 R0.75
X41.628 Y79.679 Z-0.775 R0.75
X40.15 Y79.42 Z-0.981 R0.75
X41.628 Y79.679 Z-1.187 R0.75
X40.15 Y79.42 Z-1.393 R0.75
X41.628 Y79.679 Z-1.599 R0.75
X40.15 Y79.42 Z-1.805 R0.75
X41.639 Y79.549 Z-2. R0.75
X38.361 R1.639
X45.439 R3.539
X34.561 R5.439
X49.239 R7.339
X30.761 R9.239
X53.039 R11.139
X26.961 R13.039
X56.839 R14.939
X23.161 R16.839
X56.839 R16.839
G2 X58.41 Y82.584 R3.717
G3 X59.465 Y85.834 R2.856
G1 X58.933 Y87.398
X57.747 Y89.802
X56.276 Y92.003
X54.516 Y94.016
X52.465 Y95.818
X50.25 Y97.298
X47.856 Y98.479
X45.28 Y99.352
X42.644 Y99.872
X40.011 Y100.045
X37.315 Y99.868
X34.68 Y99.342
X32.166 Y98.489
X29.771 Y97.309
X27.504 Y95.794
X25.515 Y94.049
X23.755 Y92.044
X22.247 Y89.79
X21.057 Y87.371
X20.197 Y84.826
X19.677 Y82.193
X19.505 Y79.561
X19.59 Y78.243
X19.681 Y76.87
X20.205 Y74.237
X21.066 Y71.703
X22.271 Y69.272
X23.747 Y67.064
X25.497 Y65.069
X27.494 Y63.315
X29.345 Y62.072
X29.768 Y61.793
X32.183 Y60.605
X34.68 Y59.758
X37.315 Y59.232
X40.01 Y59.055
X42.706 Y59.236
X45.303 Y59.752
X47.855 Y60.62
X50.25 Y61.802
X52.466 Y63.282
X54.474 Y65.041
X56.248 Y67.059
X57.758 Y69.318
X58.942 Y71.725
X59.795 Y74.237
X60.32 Y76.877
X60.495 Y79.561
X60.319 Y82.234
X59.791 Y84.874
X59.465 Y85.834
G3 X59.408 Y85.943 Z-1.98 R0.4
X59.33 Y86.022 Z-1.924 R0.4
X59.254 Y86.068 Z-1.835 R0.4
X59.201 Y86.088 Z-1.724 R0.4
X59.182 Y86.094 Z-1.6 R0.4
G0 Z5.
X41.603 Y79.318
Z2.
G1 Z-0.552 F30.
G3 X41.607 Y79.334 Z-0.664 R0.75 F350.
X41.62 Y79.38 Z-0.768 R0.75
X41.633 Y79.454 Z-0.854 R0.75
X41.639 Y79.549 Z-0.916 R0.75
X41.636 Y79.613 Z-0.938 R0.75
X41.628 Y79.679 Z-0.95 R0.75
X40.15 Y79.42 Z-1.156 R0.75
X41.628 Y79.679 Z-1.362 R0.75
X40.15 Y79.42 Z-1.568 R0.75
X41.628 Y79.679 Z-1.775 R0.75
X40.15 Y79.42 Z-1.981 R0.75
X41.628 Y79.679 Z-2.187 R0.75
X40.15 Y79.42 Z-2.393 R0.75
X41.628 Y79.679 Z-2.599 R0.75
X40.15 Y79.42 Z-2.805 R0.75
X41.639 Y79.549 Z-3. R0.75
X38.361 R1.639
X45.439 R3.539
X34.561 R5.439
X49.239 R7.339
X30.761 R9.239
X53.039 R11.139
X26.961 R13.039
X56.839 R14.939
X23.161 R16.839
X56.839 R16.839
G2 X58.41 Y82.584 R3.717
G3 X59.465 Y85.834 R2.856
G1 X58.933 Y87.398
X57.747 Y89.802
X56.276 Y92.003
X54.516 Y94.016
X52.465 Y95.818
X50.25 Y97.298
X47.856 Y98.479
X45.28 Y99.352
X42.644 Y99.872
X40.011 Y100.045
X37.315 Y99.868
X34.68 Y99.342
X32.166 Y98.489
X29.771 Y97.309
X27.504 Y95.794
X25.515 Y94.049
X23.755 Y92.044
X22.247 Y89.79
X21.057 Y87.371
X20.197 Y84.826
X19.677 Y82.193
X19.505 Y79.561
X19.59 Y78.243
X19.681 Y76.87
X20.205 Y74.237
X21.066 Y71.703
X22.271 Y69.272
X23.747 Y67.064
X25.497 Y65.069
X27.494 Y63.315
X29.345 Y62.072
X29.768 Y61.793
X32.183 Y60.605
X34.68 Y59.758
X37.315 Y59.232
X40.01 Y59.055
X42.706 Y59.236
X45.303 Y59.752
X47.855 Y60.62
X50.25 Y61.802
X52.466 Y63.282
X54.474 Y65.041
X56.248 Y67.059
X57.758 Y69.318
X58.942 Y71.725
X59.795 Y74.237
X60.32 Y76.877
X60.495 Y79.561
X60.319 Y82.234
X59.791 Y84.874
X59.465 Y85.834
G3 X59.408 Y85.943 Z-2.98 R0.4
X59.33 Y86.022 Z-2.924 R0.4
X59.254 Y86.068 Z-2.835 R0.4
X59.201 Y86.088 Z-2.724 R0.4
X59.182 Y86.094 Z-2.6 R0.4
G0 Z5.
X41.603 Y79.318
Z-1.552
G3 X41.607 Y79.334 Z-1.664 R0.75 F350.
X41.62 Y79.38 Z-1.768 R0.75
X41.633 Y79.454 Z-1.854 R0.75
X41.639 Y79.549 Z-1.916 R0.75
X41.636 Y79.613 Z-1.938 R0.75
X41.628 Y79.679 Z-1.95 R0.75
X40.15 Y79.42 Z-2.156 R0.75
X41.628 Y79.679 Z-2.362 R0.75
X40.15 Y79.42 Z-2.568 R0.75
X41.628 Y79.679 Z-2.775 R0.75
X40.15 Y79.42 Z-2.981 R0.75
X41.628 Y79.679 Z-3.187 R0.75
X40.15 Y79.42 Z-3.393 R0.75
X41.628 Y79.679 Z-3.599 R0.75
X40.15 Y79.42 Z-3.805 R0.75
X41.639 Y79.549 Z-4. R0.75
X38.361 R1.639
X45.439 R3.539
X34.561 R5.439
X49.239 R7.339
X30.761 R9.239
X53.039 R11.139
X26.961 R13.039
X56.839 R14.939
X23.161 R16.839
X56.839 R16.839
G2 X58.41 Y82.584 R3.717
G3 X59.465 Y85.834 R2.856
G1 X58.933 Y87.398
X57.747 Y89.802
X56.276 Y92.003
X54.516 Y94.016
X52.465 Y95.818
X50.25 Y97.298
X47.856 Y98.479
X45.28 Y99.352
X42.644 Y99.872
X40.011 Y100.045
X37.315 Y99.868
X34.68 Y99.342
X32.166 Y98.489
X29.771 Y97.309
X27.504 Y95.794
X25.515 Y94.049
X23.755 Y92.044
X22.247 Y89.79
X21.057 Y87.371
X20.197 Y84.826
X19.677 Y82.193
X19.505 Y79.561
X19.59 Y78.243
X19.681 Y76.87
X20.205 Y74.237
X21.066 Y71.703
X22.271 Y69.272
X23.747 Y67.064
X25.497 Y65.069
X27.494 Y63.315
X29.345 Y62.072
X29.768 Y61.793
X32.183 Y60.605
X34.68 Y59.758
X37.315 Y59.232
X40.01 Y59.055
X42.706 Y59.236
X45.303 Y59.752
X47.855 Y60.62
X50.25 Y61.802
X52.466 Y63.282
X54.474 Y65.041
X56.248 Y67.059
X57.758 Y69.318
X58.942 Y71.725
X59.795 Y74.237
X60.32 Y76.877
X60.495 Y79.561
X60.319 Y82.234
X59.791 Y84.874
X59.465 Y85.834
G3 X59.408 Y85.943 Z-3.98 R0.4
X59.33 Y86.022 Z-3.924 R0.4
X59.254 Y86.068 Z-3.835 R0.4
X59.201 Y86.088 Z-3.724 R0.4
X59.182 Y86.094 Z-3.6 R0.4
G0 Z5.
X41.603 Y79.318
Z-2.552
G3 X41.607 Y79.334 Z-2.664 R0.75 F350.
X41.62 Y79.38 Z-2.768 R0.75
X41.633 Y79.454 Z-2.854 R0.75
X41.639 Y79.549 Z-2.916 R0.75
X41.636 Y79.613 Z-2.938 R0.75
X41.628 Y79.679 Z-2.95 R0.75
X40.15 Y79.42 Z-3.156 R0.75
X41.628 Y79.679 Z-3.362 R0.75
X40.15 Y79.42 Z-3.568 R0.75
X41.628 Y79.679 Z-3.775 R0.75
X40.15 Y79.42 Z-3.981 R0.75
X41.628 Y79.679 Z-4.187 R0.75
X40.15 Y79.42 Z-4.393 R0.75
X41.628 Y79.679 Z-4.599 R0.75
X40.15 Y79.42 Z-4.805 R0.75
X41.639 Y79.549 Z-5. R0.75
X38.361 R1.639
X45.439 R3.539
X34.561 R5.439
X49.239 R7.339
X30.761 R9.239
X53.039 R11.139
X26.961 R13.039
X56.839 R14.939
X23.161 R16.839
X56.839 R16.839
G2 X58.41 Y82.584 R3.717
G3 X59.465 Y85.834 R2.856
G1 X58.933 Y87.398
X57.747 Y89.802
X56.276 Y92.003
X54.516 Y94.016
X52.465 Y95.818
X50.25 Y97.298
X47.856 Y98.479
X45.28 Y99.352
X42.644 Y99.872
X40.011 Y100.045
X37.315 Y99.868
X34.68 Y99.342
X32.166 Y98.489
X29.771 Y97.309
X27.504 Y95.794
X25.515 Y94.049
X23.755 Y92.044
X22.247 Y89.79
X21.057 Y87.371
X20.197 Y84.826
X19.677 Y82.193
X19.505 Y79.561
X19.59 Y78.243
X19.681 Y76.87
X20.205 Y74.237
X21.066 Y71.703
X22.271 Y69.272
X23.747 Y67.064
X25.497 Y65.069
X27.494 Y63.315
X29.345 Y62.072
X29.768 Y61.793
X32.183 Y60.605
X34.68 Y59.758
X37.315 Y59.232
X40.01 Y59.055
X42.706 Y59.236
X45.303 Y59.752
X47.855 Y60.62
X50.25 Y61.802
X52.466 Y63.282
X54.474 Y65.041
X56.248 Y67.059
X57.758 Y69.318
X58.942 Y71.725
X59.795 Y74.237
X60.32 Y76.877
X60.495 Y79.561
X60.319 Y82.234
X59.791 Y84.874
X59.465 Y85.834
G3 X59.408 Y85.943 Z-4.98 R0.4
X59.33 Y86.022 Z-4.924 R0.4
X59.254 Y86.068 Z-4.835 R0.4
X59.201 Y86.088 Z-4.724 R0.4
X59.182 Y86.094 Z-4.6 R0.4
G0 Z5.
X41.603 Y79.318
Z-3.552
G3 X41.607 Y79.334 Z-3.664 R0.75 F350.
X41.62 Y79.38 Z-3.768 R0.75
X41.633 Y79.454 Z-3.854 R0.75
X41.639 Y79.549 Z-3.916 R0.75
X41.636 Y79.613 Z-3.938 R0.75
X41.628 Y79.679 Z-3.95 R0.75
X40.15 Y79.42 Z-4.156 R0.75
X41.628 Y79.679 Z-4.362 R0.75
X40.15 Y79.42 Z-4.568 R0.75
X41.628 Y79.679 Z-4.775 R0.75
X40.15 Y79.42 Z-4.981 R0.75
X41.628 Y79.679 Z-5.187 R0.75
X40.15 Y79.42 Z-5.393 R0.75
X41.628 Y79.679 Z-5.599 R0.75
X40.15 Y79.42 Z-5.805 R0.75
X41.639 Y79.549 Z-6. R0.75
X38.361 R1.639
X45.439 R3.539
X34.561 R5.439
X49.239 R7.339
X30.761 R9.239
X53.039 R11.139
X26.961 R13.039
X56.839 R14.939
X23.161 R16.839
X56.839 R16.839
G2 X58.41 Y82.584 R3.717
G3 X59.465 Y85.834 R2.856
G1 X58.933 Y87.398
X57.747 Y89.802
X56.276 Y92.003
X54.516 Y94.016
X52.465 Y95.818
X50.25 Y97.298
X47.856 Y98.479
X45.28 Y99.352
X42.644 Y99.872
X40.011 Y100.045
X37.315 Y99.868
X34.68 Y99.342
X32.166 Y98.489
X29.771 Y97.309
X27.504 Y95.794
X25.515 Y94.049
X23.755 Y92.044
X22.247 Y89.79
X21.057 Y87.371
X20.197 Y84.826
X19.677 Y82.193
X19.505 Y79.561
X19.59 Y78.243
X19.681 Y76.87
X20.205 Y74.237
X21.066 Y71.703
X22.271 Y69.272
X23.747 Y67.064
X25.497 Y65.069
X27.494 Y63.315
X29.345 Y62.072
X29.768 Y61.793
X32.183 Y60.605
X34.68 Y59.758
X37.315 Y59.232
X40.01 Y59.055
X42.706 Y59.236
X45.303 Y59.752
X47.855 Y60.62
X50.25 Y61.802
X52.466 Y63.282
X54.474 Y65.041
X56.248 Y67.059
X57.758 Y69.318
X58.942 Y71.725
X59.795 Y74.237
X60.32 Y76.877
X60.495 Y79.561
X60.319 Y82.234
X59.791 Y84.874
X59.465 Y85.834
G3 X59.408 Y85.943 Z-5.98 R0.4
X59.33 Y86.022 Z-5.924 R0.4
X59.254 Y86.068 Z-5.835 R0.4
X59.201 Y86.088 Z-5.724 R0.4
X59.182 Y86.094 Z-5.6 R0.4
G0 Z5.
X41.603 Y79.318
Z-4.552
G3 X41.607 Y79.334 Z-4.664 R0.75 F350.
X41.62 Y79.38 Z-4.768 R0.75
X41.633 Y79.454 Z-4.854 R0.75
X41.639 Y79.549 Z-4.916 R0.75
X41.636 Y79.613 Z-4.938 R0.75
X41.628 Y79.679 Z-4.95 R0.75
X40.15 Y79.42 Z-5.156 R0.75
X41.628 Y79.679 Z-5.362 R0.75
X40.15 Y79.42 Z-5.568 R0.75
X41.628 Y79.679 Z-5.775 R0.75
X40.15 Y79.42 Z-5.981 R0.75
X41.628 Y79.679 Z-6.187 R0.75
X40.15 Y79.42 Z-6.393 R0.75
X41.628 Y79.679 Z-6.599 R0.75
X40.15 Y79.42 Z-6.805 R0.75
X41.639 Y79.549 Z-7. R0.75
X38.361 R1.639
X45.439 R3.539
X34.561 R5.439
X49.239 R7.339
X30.761 R9.239
X53.039 R11.139
X26.961 R13.039
X56.839 R14.939
X23.161 R16.839
X56.839 R16.839
G2 X58.41 Y82.584 R3.717
G3 X59.465 Y85.834 R2.856
G1 X58.933 Y87.398
X57.747 Y89.802
X56.276 Y92.003
X54.516 Y94.016
X52.465 Y95.818
X50.25 Y97.298
X47.856 Y98.479
X45.28 Y99.352
X42.644 Y99.872
X40.011 Y100.045
X37.315 Y99.868
X34.68 Y99.342
X32.166 Y98.489
X29.771 Y97.309
X27.504 Y95.794
X25.515 Y94.049
X23.755 Y92.044
X22.247 Y89.79
X21.057 Y87.371
X20.197 Y84.826
X19.677 Y82.193
X19.505 Y79.561
X19.59 Y78.243
X19.681 Y76.87
X20.205 Y74.237
X21.066 Y71.703
X22.271 Y69.272
X23.747 Y67.064
X25.497 Y65.069
X27.494 Y63.315
X29.345 Y62.072
X29.768 Y61.793
X32.183 Y60.605
X34.68 Y59.758
X37.315 Y59.232
X40.01 Y59.055
X42.706 Y59.236
X45.303 Y59.752
X47.855 Y60.62
X50.25 Y61.802
X52.466 Y63.282
X54.474 Y65.041
X56.248 Y67.059
X57.758 Y69.318
X58.942 Y71.725
X59.795 Y74.237
X60.32 Y76.877
X60.495 Y79.561
X60.319 Y82.234
X59.791 Y84.874
X59.465 Y85.834
G3 X59.408 Y85.943 Z-6.98 R0.4
X59.33 Y86.022 Z-6.924 R0.4
X59.254 Y86.068 Z-6.835 R0.4
X59.201 Y86.088 Z-6.724 R0.4
X59.182 Y86.094 Z-6.6 R0.4
G0 Z5.
X41.603 Y79.318
Z-5.552
G3 X41.607 Y79.334 Z-5.664 R0.75 F350.
X41.62 Y79.38 Z-5.768 R0.75
X41.633 Y79.454 Z-5.854 R0.75
X41.639 Y79.549 Z-5.916 R0.75
X41.636 Y79.613 Z-5.938 R0.75
X41.628 Y79.679 Z-5.95 R0.75
X40.15 Y79.42 Z-6.156 R0.75
X41.628 Y79.679 Z-6.362 R0.75
X40.15 Y79.42 Z-6.568 R0.75
X41.628 Y79.679 Z-6.775 R0.75
X40.15 Y79.42 Z-6.981 R0.75
X41.628 Y79.679 Z-7.187 R0.75
X40.15 Y79.42 Z-7.393 R0.75
X41.628 Y79.679 Z-7.599 R0.75
X40.15 Y79.42 Z-7.805 R0.75
X41.639 Y79.549 Z-8. R0.75
X38.361 R1.639
X45.439 R3.539
X34.561 R5.439
X49.239 R7.339
X30.761 R9.239
X53.039 R11.139
X26.961 R13.039
X56.839 R14.939
X23.161 R16.839
X56.839 R16.839
G2 X58.41 Y82.584 R3.717
G3 X59.465 Y85.834 R2.856
G1 X58.933 Y87.398
X57.747 Y89.802
X56.276 Y92.003
X54.516 Y94.016
X52.465 Y95.818
X50.25 Y97.298
X47.856 Y98.479
X45.28 Y99.352
X42.644 Y99.872
X40.011 Y100.045
X37.315 Y99.868
X34.68 Y99.342
X32.166 Y98.489
X29.771 Y97.309
X27.504 Y95.794
X25.515 Y94.049
X23.755 Y92.044
X22.247 Y89.79
X21.057 Y87.371
X20.197 Y84.826
X19.677 Y82.193
X19.505 Y79.561
X19.59 Y78.243
X19.681 Y76.87
X20.205 Y74.237
X21.066 Y71.703
X22.271 Y69.272
X23.747 Y67.064
X25.497 Y65.069
X27.494 Y63.315
X29.345 Y62.072
X29.768 Y61.793
X32.183 Y60.605
X34.68 Y59.758
X37.315 Y59.232
X40.01 Y59.055
X42.706 Y59.236
X45.303 Y59.752
X47.855 Y60.62
X50.25 Y61.802
X52.466 Y63.282
X54.474 Y65.041
X56.248 Y67.059
X57.758 Y69.318
X58.942 Y71.725
X59.795 Y74.237
X60.32 Y76.877
X60.495 Y79.561
X60.319 Y82.234
X59.791 Y84.874
X59.465 Y85.834
G3 X59.408 Y85.943 Z-7.98 R0.4
X59.33 Y86.022 Z-7.924 R0.4
X59.254 Y86.068 Z-7.835 R0.4
X59.201 Y86.088 Z-7.724 R0.4
X59.182 Y86.094 Z-7.6 R0.4
G0 Z5.
X41.603 Y79.318
Z-6.552
G3 X41.607 Y79.334 Z-6.664 R0.75 F350.
X41.62 Y79.38 Z-6.768 R0.75
X41.633 Y79.454 Z-6.854 R0.75
X41.639 Y79.549 Z-6.916 R0.75
X41.636 Y79.613 Z-6.938 R0.75
X41.628 Y79.679 Z-6.95 R0.75
X40.15 Y79.42 Z-7.156 R0.75
X41.628 Y79.679 Z-7.362 R0.75
X40.15 Y79.42 Z-7.568 R0.75
X41.628 Y79.679 Z-7.775 R0.75
X40.15 Y79.42 Z-7.981 R0.75
X41.628 Y79.679 Z-8.187 R0.75
X40.15 Y79.42 Z-8.393 R0.75
X41.628 Y79.679 Z-8.599 R0.75
X40.15 Y79.42 Z-8.805 R0.75
X41.639 Y79.549 Z-9. R0.75
X38.361 R1.639
X45.439 R3.539
X34.561 R5.439
X49.239 R7.339
X30.761 R9.239
X53.039 R11.139
X26.961 R13.039
X56.839 R14.939
X23.161 R16.839
X56.839 R16.839
G2 X58.41 Y82.584 R3.717
G3 X59.465 Y85.834 R2.856
G1 X58.933 Y87.398
X57.747 Y89.802
X56.276 Y92.003
X54.516 Y94.016
X52.465 Y95.818
X50.25 Y97.298
X47.856 Y98.479
X45.28 Y99.352
X42.644 Y99.872
X40.011 Y100.045
X37.315 Y99.868
X34.68 Y99.342
X32.166 Y98.489
X29.771 Y97.309
X27.504 Y95.794
X25.515 Y94.049
X23.755 Y92.044
X22.247 Y89.79
X21.057 Y87.371
X20.197 Y84.826
X19.677 Y82.193
X19.505 Y79.561
X19.59 Y78.243
X19.681 Y76.87
X20.205 Y74.237
X21.066 Y71.703
X22.271 Y69.272
X23.747 Y67.064
X25.497 Y65.069
X27.494 Y63.315
X29.345 Y62.072
X29.768 Y61.793
X32.183 Y60.605
X34.68 Y59.758
X37.315 Y59.232
X40.01 Y59.055
X42.706 Y59.236
X45.303 Y59.752
X47.855 Y60.62
X50.25 Y61.802
X52.466 Y63.282
X54.474 Y65.041
X56.248 Y67.059
X57.758 Y69.318
X58.942 Y71.725
X59.795 Y74.237
X60.32 Y76.877
X60.495 Y79.561
X60.319 Y82.234
X59.791 Y84.874
X59.465 Y85.834
G3 X59.408 Y85.943 Z-8.98 R0.4
X59.33 Y86.022 Z-8.924 R0.4
X59.254 Y86.068 Z-8.835 R0.4
X59.201 Y86.088 Z-8.724 R0.4
X59.182 Y86.094 Z-8.6 R0.4
G0 Z5.
X41.603 Y79.318
Z-7.552
G3 X41.607 Y79.334 Z-7.664 R0.75 F350.
X41.62 Y79.38 Z-7.768 R0.75
X41.633 Y79.454 Z-7.854 R0.75
X41.639 Y79.549 Z-7.916 R0.75
X41.636 Y79.613 Z-7.938 R0.75
X41.628 Y79.679 Z-7.95 R0.75
X40.15 Y79.42 Z-8.156 R0.75
X41.628 Y79.679 Z-8.362 R0.75
X40.15 Y79.42 Z-8.568 R0.75
X41.628 Y79.679 Z-8.775 R0.75
X40.15 Y79.42 Z-8.981 R0.75
X41.628 Y79.679 Z-9.187 R0.75
X40.15 Y79.42 Z-9.393 R0.75
X41.628 Y79.679 Z-9.599 R0.75
X40.15 Y79.42 Z-9.805 R0.75
X41.639 Y79.549 Z-10. R0.75
X38.361 R1.639
X45.439 R3.539
X34.561 R5.439
X49.239 R7.339
X30.761 R9.239
X53.039 R11.139
X26.961 R13.039
X56.839 R14.939
X23.161 R16.839
X56.839 R16.839
G2 X58.41 Y82.584 R3.717
G3 X59.465 Y85.834 R2.856
G1 X58.933 Y87.398
X57.747 Y89.802
X56.276 Y92.003
X54.516 Y94.016
X52.465 Y95.818
X50.25 Y97.298
X47.856 Y98.479
X45.28 Y99.352
X42.644 Y99.872
X40.011 Y100.045
X37.315 Y99.868
X34.68 Y99.342
X32.166 Y98.489
X29.771 Y97.309
X27.504 Y95.794
X25.515 Y94.049
X23.755 Y92.044
X22.247 Y89.79
X21.057 Y87.371
X20.197 Y84.826
X19.677 Y82.193
X19.505 Y79.561
X19.59 Y78.243
X19.681 Y76.87
X20.205 Y74.237
X21.066 Y71.703
X22.271 Y69.272
X23.747 Y67.064
X25.497 Y65.069
X27.494 Y63.315
X29.345 Y62.072
X29.768 Y61.793
X32.183 Y60.605
X34.68 Y59.758
X37.315 Y59.232
X40.01 Y59.055
X42.706 Y59.236
X45.303 Y59.752
X47.855 Y60.62
X50.25 Y61.802
X52.466 Y63.282
X54.474 Y65.041
X56.248 Y67.059
X57.758 Y69.318
X58.942 Y71.725
X59.795 Y74.237
X60.32 Y76.877
X60.495 Y79.561
X60.319 Y82.234
X59.791 Y84.874
X59.465 Y85.834
G3 X59.408 Y85.943 Z-9.98 R0.4
X59.33 Y86.022 Z-9.924 R0.4
X59.254 Y86.068 Z-9.835 R0.4
X59.201 Y86.088 Z-9.724 R0.4
X59.182 Y86.094 Z-9.6 R0.4
G0 Z5.
X41.603 Y79.318
Z-8.552
G3 X41.607 Y79.334 Z-8.664 R0.75 F350.
X41.62 Y79.38 Z-8.768 R0.75
X41.633 Y79.454 Z-8.854 R0.75
X41.639 Y79.549 Z-8.916 R0.75
X41.636 Y79.613 Z-8.938 R0.75
X41.628 Y79.679 Z-8.95 R0.75
X40.15 Y79.42 Z-9.156 R0.75
X41.628 Y79.679 Z-9.362 R0.75
X40.15 Y79.42 Z-9.568 R0.75
X41.628 Y79.679 Z-9.775 R0.75
X40.15 Y79.42 Z-9.981 R0.75
X41.628 Y79.679 Z-10.187 R0.75
X40.15 Y79.42 Z-10.393 R0.75
X41.628 Y79.679 Z-10.599 R0.75
X40.15 Y79.42 Z-10.805 R0.75
X41.639 Y79.549 Z-11. R0.75
X38.361 R1.639
X45.439 R3.539
X34.561 R5.439
X49.239 R7.339
X30.761 R9.239
X53.039 R11.139
X26.961 R13.039
X56.839 R14.939
X23.161 R16.839
X56.839 R16.839
G2 X58.41 Y82.584 R3.717
G3 X59.465 Y85.834 R2.856
G1 X58.933 Y87.398
X57.747 Y89.802
X56.276 Y92.003
X54.516 Y94.016
X52.465 Y95.818
X50.25 Y97.298
X47.856 Y98.479
X45.28 Y99.352
X42.644 Y99.872
X40.011 Y100.045
X37.315 Y99.868
X34.68 Y99.342
X32.166 Y98.489
X29.771 Y97.309
X27.504 Y95.794
X25.515 Y94.049
X23.755 Y92.044
X22.247 Y89.79
X21.057 Y87.371
X20.197 Y84.826
X19.677 Y82.193
X19.505 Y79.561
X19.59 Y78.243
X19.681 Y76.87
X20.205 Y74.237
X21.066 Y71.703
X22.271 Y69.272
X23.747 Y67.064
X25.497 Y65.069
X27.494 Y63.315
X29.345 Y62.072
X29.768 Y61.793
X32.183 Y60.605
X34.68 Y59.758
X37.315 Y59.232
X40.01 Y59.055
X42.706 Y59.236
X45.303 Y59.752
X47.855 Y60.62
X50.25 Y61.802
X52.466 Y63.282
X54.474 Y65.041
X56.248 Y67.059
X57.758 Y69.318
X58.942 Y71.725
X59.795 Y74.237
X60.32 Y76.877
X60.495 Y79.561
X60.319 Y82.234
X59.791 Y84.874
X59.465 Y85.834
G3 X59.408 Y85.943 Z-10.98 R0.4
X59.33 Y86.022 Z-10.924 R0.4
X59.254 Y86.068 Z-10.835 R0.4
X59.201 Y86.088 Z-10.724 R0.4
X59.182 Y86.094 Z-10.6 R0.4
G0 Z5.
X41.603 Y79.318
Z-9.552
G3 X41.607 Y79.334 Z-9.664 R0.75 F350.
X41.62 Y79.38 Z-9.768 R0.75
X41.633 Y79.454 Z-9.854 R0.75
X41.639 Y79.549 Z-9.916 R0.75
X41.636 Y79.613 Z-9.938 R0.75
X41.628 Y79.679 Z-9.95 R0.75
X40.15 Y79.42 Z-10.156 R0.75
X41.628 Y79.679 Z-10.362 R0.75
X40.15 Y79.42 Z-10.568 R0.75
X41.628 Y79.679 Z-10.775 R0.75
X40.15 Y79.42 Z-10.981 R0.75
X41.628 Y79.679 Z-11.187 R0.75
X40.15 Y79.42 Z-11.393 R0.75
X41.628 Y79.679 Z-11.599 R0.75
X40.15 Y79.42 Z-11.805 R0.75
X41.639 Y79.549 Z-12. R0.75
X38.361 R1.639
X45.439 R3.539
X34.561 R5.439
X49.239 R7.339
X30.761 R9.239
X53.039 R11.139
X26.961 R13.039
X56.839 R14.939
X23.161 R16.839
X56.839 R16.839
G2 X58.41 Y82.584 R3.717
G3 X59.465 Y85.834 R2.856
G1 X58.933 Y87.398
X57.747 Y89.802
X56.276 Y92.003
X54.516 Y94.016
X52.465 Y95.818
X50.25 Y97.298
X47.856 Y98.479
X45.28 Y99.352
X42.644 Y99.872
X40.011 Y100.045
X37.315 Y99.868
X34.68 Y99.342
X32.166 Y98.489
X29.771 Y97.309
X27.504 Y95.794
X25.515 Y94.049
X23.755 Y92.044
X22.247 Y89.79
X21.057 Y87.371
X20.197 Y84.826
X19.677 Y82.193
X19.505 Y79.561
X19.59 Y78.243
X19.681 Y76.87
X20.205 Y74.237
X21.066 Y71.703
X22.271 Y69.272
X23.747 Y67.064
X25.497 Y65.069
X27.494 Y63.315
X29.345 Y62.072
X29.768 Y61.793
X32.183 Y60.605
X34.68 Y59.758
X37.315 Y59.232
X40.01 Y59.055
X42.706 Y59.236
X45.303 Y59.752
X47.855 Y60.62
X50.25 Y61.802
X52.466 Y63.282
X54.474 Y65.041
X56.248 Y67.059
X57.758 Y69.318
X58.942 Y71.725
X59.795 Y74.237
X60.32 Y76.877
X60.495 Y79.561
X60.319 Y82.234
X59.791 Y84.874
X59.465 Y85.834
G3 X59.408 Y85.943 Z-11.98 R0.4
X59.33 Y86.022 Z-11.924 R0.4
X59.254 Y86.068 Z-11.835 R0.4
X59.201 Y86.088 Z-11.724 R0.4
X59.182 Y86.094 Z-11.6 R0.4
G0 Z5.
X41.603 Y79.318
Z-10.552
G3 X41.607 Y79.334 Z-10.664 R0.75 F350.
X41.62 Y79.38 Z-10.768 R0.75
X41.633 Y79.454 Z-10.854 R0.75
X41.639 Y79.549 Z-10.916 R0.75
X41.636 Y79.613 Z-10.938 R0.75
X41.628 Y79.679 Z-10.95 R0.75
X40.15 Y79.42 Z-11.156 R0.75
X41.628 Y79.679 Z-11.362 R0.75
X40.15 Y79.42 Z-11.568 R0.75
X41.628 Y79.679 Z-11.775 R0.75
X40.15 Y79.42 Z-11.981 R0.75
X41.628 Y79.679 Z-12.187 R0.75
X40.15 Y79.42 Z-12.393 R0.75
X41.628 Y79.679 Z-12.599 R0.75
X40.15 Y79.42 Z-12.805 R0.75
X41.639 Y79.549 Z-13. R0.75
X38.361 R1.639
X45.439 R3.539
X34.561 R5.439
X49.239 R7.339
X30.761 R9.239
X53.039 R11.139
X26.961 R13.039
X56.839 R14.939
X23.161 R16.839
X56.839 R16.839
G2 X58.41 Y82.584 R3.717
G3 X59.465 Y85.834 R2.856
G1 X58.933 Y87.398
X57.747 Y89.802
X56.276 Y92.003
X54.516 Y94.016
X52.465 Y95.818
X50.25 Y97.298
X47.856 Y98.479
X45.28 Y99.352
X42.644 Y99.872
X40.011 Y100.045
X37.315 Y99.868
X34.68 Y99.342
X32.166 Y98.489
X29.771 Y97.309
X27.504 Y95.794
X25.515 Y94.049
X23.755 Y92.044
X22.247 Y89.79
X21.057 Y87.371
X20.197 Y84.826
X19.677 Y82.193
X19.505 Y79.561
X19.59 Y78.243
X19.681 Y76.87
X20.205 Y74.237
X21.066 Y71.703
X22.271 Y69.272
X23.747 Y67.064
X25.497 Y65.069
X27.494 Y63.315
X29.345 Y62.072
X29.768 Y61.793
X32.183 Y60.605
X34.68 Y59.758
X37.315 Y59.232
X40.01 Y59.055
X42.706 Y59.236
X45.303 Y59.752
X47.855 Y60.62
X50.25 Y61.802
X52.466 Y63.282
X54.474 Y65.041
X56.248 Y67.059
X57.758 Y69.318
X58.942 Y71.725
X59.795 Y74.237
X60.32 Y76.877
X60.495 Y79.561
X60.319 Y82.234
X59.791 Y84.874
X59.465 Y85.834
G3 X59.408 Y85.943 Z-12.98 R0.4
X59.33 Y86.022 Z-12.924 R0.4
X59.254 Y86.068 Z-12.835 R0.4
X59.201 Y86.088 Z-12.724 R0.4
X59.182 Y86.094 Z-12.6 R0.4
G0 Z5.
X41.603 Y79.318
Z-11.552
G3 X41.607 Y79.334 Z-11.664 R0.75 F350.
X41.62 Y79.38 Z-11.768 R0.75
X41.633 Y79.454 Z-11.854 R0.75
X41.639 Y79.549 Z-11.916 R0.75
X41.636 Y79.613 Z-11.938 R0.75
X41.628 Y79.679 Z-11.95 R0.75
X40.15 Y79.42 Z-12.156 R0.75
X41.628 Y79.679 Z-12.362 R0.75
X40.15 Y79.42 Z-12.568 R0.75
X41.628 Y79.679 Z-12.775 R0.75
X40.15 Y79.42 Z-12.981 R0.75
X41.628 Y79.679 Z-13.187 R0.75
X40.15 Y79.42 Z-13.393 R0.75
X41.628 Y79.679 Z-13.599 R0.75
X40.15 Y79.42 Z-13.805 R0.75
X41.639 Y79.549 Z-14. R0.75
X38.361 R1.639
X45.439 R3.539
X34.561 R5.439
X49.239 R7.339
X30.761 R9.239
X53.039 R11.139
X26.961 R13.039
X56.839 R14.939
X23.161 R16.839
X56.839 R16.839
G2 X58.41 Y82.584 R3.717
G3 X59.465 Y85.834 R2.856
G1 X58.933 Y87.398
X57.747 Y89.802
X56.276 Y92.003
X54.516 Y94.016
X52.465 Y95.818
X50.25 Y97.298
X47.856 Y98.479
X45.28 Y99.352
X42.644 Y99.872
X40.011 Y100.045
X37.315 Y99.868
X34.68 Y99.342
X32.166 Y98.489
X29.771 Y97.309
X27.504 Y95.794
X25.515 Y94.049
X23.755 Y92.044
X22.247 Y89.79
X21.057 Y87.371
X20.197 Y84.826
X19.677 Y82.193
X19.505 Y79.561
X19.59 Y78.243
X19.681 Y76.87
X20.205 Y74.237
X21.066 Y71.703
X22.271 Y69.272
X23.747 Y67.064
X25.497 Y65.069
X27.494 Y63.315
X29.345 Y62.072
X29.768 Y61.793
X32.183 Y60.605
X34.68 Y59.758
X37.315 Y59.232
X40.01 Y59.055
X42.706 Y59.236
X45.303 Y59.752
X47.855 Y60.62
X50.25 Y61.802
X52.466 Y63.282
X54.474 Y65.041
X56.248 Y67.059
X57.758 Y69.318
X58.942 Y71.725
X59.795 Y74.237
X60.32 Y76.877
X60.495 Y79.561
X60.319 Y82.234
X59.791 Y84.874
X59.465 Y85.834
G3 X59.408 Y85.943 Z-13.98 R0.4
X59.33 Y86.022 Z-13.924 R0.4
X59.254 Y86.068 Z-13.835 R0.4
X59.201 Y86.088 Z-13.724 R0.4
X59.182 Y86.094 Z-13.6 R0.4
G0 Z5.
X41.603 Y79.318
Z-12.552
G3 X41.607 Y79.334 Z-12.664 R0.75 F350.
X41.62 Y79.38 Z-12.768 R0.75
X41.633 Y79.454 Z-12.854 R0.75
X41.639 Y79.549 Z-12.916 R0.75
X41.636 Y79.613 Z-12.938 R0.75
X41.628 Y79.679 Z-12.95 R0.75
X40.15 Y79.42 Z-13.156 R0.75
X41.628 Y79.679 Z-13.362 R0.75
X40.15 Y79.42 Z-13.568 R0.75
X41.628 Y79.679 Z-13.775 R0.75
X40.15 Y79.42 Z-13.981 R0.75
X41.628 Y79.679 Z-14.187 R0.75
X40.15 Y79.42 Z-14.393 R0.75
X41.628 Y79.679 Z-14.599 R0.75
X40.15 Y79.42 Z-14.805 R0.75
X41.639 Y79.549 Z-15. R0.75
X38.361 R1.639
X45.439 R3.539
X34.561 R5.439
X49.239 R7.339
X30.761 R9.239
X53.039 R11.139
X26.961 R13.039
X56.839 R14.939
X23.161 R16.839
X56.839 R16.839
G2 X58.41 Y82.584 R3.717
G3 X59.465 Y85.834 R2.856
G1 X58.933 Y87.398
X57.747 Y89.802
X56.276 Y92.003
X54.516 Y94.016
X52.465 Y95.818
X50.25 Y97.298
X47.856 Y98.479
X45.28 Y99.352
X42.644 Y99.872
X40.011 Y100.045
X37.315 Y99.868
X34.68 Y99.342
X32.166 Y98.489
X29.771 Y97.309
X27.504 Y95.794
X25.515 Y94.049
X23.755 Y92.044
X22.247 Y89.79
X21.057 Y87.371
X20.197 Y84.826
X19.677 Y82.193
X19.505 Y79.561
X19.59 Y78.243
X19.681 Y76.87
X20.205 Y74.237
X21.066 Y71.703
X22.271 Y69.272
X23.747 Y67.064
X25.497 Y65.069
X27.494 Y63.315
X29.345 Y62.072
X29.768 Y61.793
X32.183 Y60.605
X34.68 Y59.758
X37.315 Y59.232
X40.01 Y59.055
X42.706 Y59.236
X45.303 Y59.752
X47.855 Y60.62
X50.25 Y61.802
X52.466 Y63.282
X54.474 Y65.041
X56.248 Y67.059
X57.758 Y69.318
X58.942 Y71.725
X59.795 Y74.237
X60.32 Y76.877
X60.495 Y79.561
X60.319 Y82.234
X59.791 Y84.874
X59.465 Y85.834
G3 X59.408 Y85.943 Z-14.98 R0.4
X59.33 Y86.022 Z-14.924 R0.4
X59.254 Y86.068 Z-14.835 R0.4
X59.201 Y86.088 Z-14.724 R0.4
X59.182 Y86.094 Z-14.6 R0.4
G0 Z5.
X41.603 Y79.318
Z-13.552
G3 X41.607 Y79.334 Z-13.664 R0.75 F350.
X41.62 Y79.38 Z-13.768 R0.75
X41.633 Y79.454 Z-13.854 R0.75
X41.639 Y79.549 Z-13.916 R0.75
X41.636 Y79.613 Z-13.938 R0.75
X41.628 Y79.679 Z-13.95 R0.75
X40.15 Y79.42 Z-14.156 R0.75
X41.628 Y79.679 Z-14.362 R0.75
X40.15 Y79.42 Z-14.568 R0.75
X41.628 Y79.679 Z-14.775 R0.75
X40.15 Y79.42 Z-14.981 R0.75
X41.628 Y79.679 Z-15.187 R0.75
X40.15 Y79.42 Z-15.393 R0.75
X41.628 Y79.679 Z-15.599 R0.75
X40.15 Y79.42 Z-15.805 R0.75
X41.639 Y79.549 Z-16. R0.75
X38.361 R1.639
X45.439 R3.539
X34.561 R5.439
X49.239 R7.339
X30.761 R9.239
X53.039 R11.139
X26.961 R13.039
X56.839 R14.939
X23.161 R16.839
X56.839 R16.839
G2 X58.41 Y82.584 R3.717
G3 X59.465 Y85.834 R2.856
G1 X58.933 Y87.398
X57.747 Y89.802
X56.276 Y92.003
X54.516 Y94.016
X52.465 Y95.818
X50.25 Y97.298
X47.856 Y98.479
X45.28 Y99.352
X42.644 Y99.872
X40.011 Y100.045
X37.315 Y99.868
X34.68 Y99.342
X32.166 Y98.489
X29.771 Y97.309
X27.504 Y95.794
X25.515 Y94.049
X23.755 Y92.044
X22.247 Y89.79
X21.057 Y87.371
X20.197 Y84.826
X19.677 Y82.193
X19.505 Y79.561
X19.59 Y78.243
X19.681 Y76.87
X20.205 Y74.237
X21.066 Y71.703
X22.271 Y69.272
X23.747 Y67.064
X25.497 Y65.069
X27.494 Y63.315
X29.345 Y62.072
X29.768 Y61.793
X32.183 Y60.605
X34.68 Y59.758
X37.315 Y59.232
X40.01 Y59.055
X42.706 Y59.236
X45.303 Y59.752
X47.855 Y60.62
X50.25 Y61.802
X52.466 Y63.282
X54.474 Y65.041
X56.248 Y67.059
X57.758 Y69.318
X58.942 Y71.725
X59.795 Y74.237
X60.32 Y76.877
X60.495 Y79.561
X60.319 Y82.234
X59.791 Y84.874
X59.465 Y85.834
G3 X59.408 Y85.943 Z-15.98 R0.4
X59.33 Y86.022 Z-15.924 R0.4
X59.254 Y86.068 Z-15.835 R0.4
X59.201 Y86.088 Z-15.724 R0.4
X59.182 Y86.094 Z-15.6 R0.4
G0 Z5.
X41.603 Y79.318
Z-14.552
G3 X41.607 Y79.334 Z-14.664 R0.75 F350.
X41.62 Y79.38 Z-14.768 R0.75
X41.633 Y79.454 Z-14.854 R0.75
X41.639 Y79.549 Z-14.916 R0.75
X41.636 Y79.613 Z-14.938 R0.75
X41.628 Y79.679 Z-14.95 R0.75
X40.15 Y79.42 Z-15.156 R0.75
X41.628 Y79.679 Z-15.362 R0.75
X40.15 Y79.42 Z-15.568 R0.75
X41.628 Y79.679 Z-15.775 R0.75
X40.15 Y79.42 Z-15.981 R0.75
X41.628 Y79.679 Z-16.187 R0.75
X40.15 Y79.42 Z-16.393 R0.75
X41.628 Y79.679 Z-16.599 R0.75
X40.15 Y79.42 Z-16.805 R0.75
X41.639 Y79.549 Z-17. R0.75
X38.361 R1.639
X45.439 R3.539
X34.561 R5.439
X49.239 R7.339
X30.761 R9.239
X53.039 R11.139
X26.961 R13.039
X56.839 R14.939
X23.161 R16.839
X56.839 R16.839
G2 X58.41 Y82.584 R3.717
G3 X59.465 Y85.834 R2.856
G1 X58.933 Y87.398
X57.747 Y89.802
X56.276 Y92.003
X54.516 Y94.016
X52.465 Y95.818
X50.25 Y97.298
X47.856 Y98.479
X45.28 Y99.352
X42.644 Y99.872
X40.011 Y100.045
X37.315 Y99.868
X34.68 Y99.342
X32.166 Y98.489
X29.771 Y97.309
X27.504 Y95.794
X25.515 Y94.049
X23.755 Y92.044
X22.247 Y89.79
X21.057 Y87.371
X20.197 Y84.826
X19.677 Y82.193
X19.505 Y79.561
X19.59 Y78.243
X19.681 Y76.87
X20.205 Y74.237
X21.066 Y71.703
X22.271 Y69.272
X23.747 Y67.064
X25.497 Y65.069
X27.494 Y63.315
X29.345 Y62.072
X29.768 Y61.793
X32.183 Y60.605
X34.68 Y59.758
X37.315 Y59.232
X40.01 Y59.055
X42.706 Y59.236
X45.303 Y59.752
X47.855 Y60.62
X50.25 Y61.802
X52.466 Y63.282
X54.474 Y65.041
X56.248 Y67.059
X57.758 Y69.318
X58.942 Y71.725
X59.795 Y74.237
X60.32 Y76.877
X60.495 Y79.561
X60.319 Y82.234
X59.791 Y84.874
X59.465 Y85.834
G3 X59.408 Y85.943 Z-16.98 R0.4
X59.33 Y86.022 Z-16.924 R0.4
X59.254 Y86.068 Z-16.835 R0.4
X59.201 Y86.088 Z-16.724 R0.4
X59.182 Y86.094 Z-16.6 R0.4
G0 Z5.
X41.603 Y79.318
Z-15.552
G3 X41.607 Y79.334 Z-15.664 R0.75 F350.
X41.62 Y79.38 Z-15.768 R0.75
X41.633 Y79.454 Z-15.854 R0.75
X41.639 Y79.549 Z-15.916 R0.75
X41.636 Y79.613 Z-15.938 R0.75
X41.628 Y79.679 Z-15.95 R0.75
X40.15 Y79.42 Z-16.156 R0.75
X41.628 Y79.679 Z-16.362 R0.75
X40.15 Y79.42 Z-16.568 R0.75
X41.628 Y79.679 Z-16.775 R0.75
X40.15 Y79.42 Z-16.981 R0.75
X41.628 Y79.679 Z-17.187 R0.75
X40.15 Y79.42 Z-17.393 R0.75
X41.628 Y79.679 Z-17.599 R0.75
X40.15 Y79.42 Z-17.805 R0.75
X41.639 Y79.549 Z-18. R0.75
X38.361 R1.639
X45.439 R3.539
X34.561 R5.439
X49.239 R7.339
X30.761 R9.239
X53.039 R11.139
X26.961 R13.039
X56.839 R14.939
X23.161 R16.839
X56.839 R16.839
G2 X58.41 Y82.584 R3.717
G3 X59.465 Y85.834 R2.856
G1 X58.933 Y87.398
X57.747 Y89.802
X56.276 Y92.003
X54.516 Y94.016
X52.465 Y95.818
X50.25 Y97.298
X47.856 Y98.479
X45.28 Y99.352
X42.644 Y99.872
X40.011 Y100.045
X37.315 Y99.868
X34.68 Y99.342
X32.166 Y98.489
X29.771 Y97.309
X27.504 Y95.794
X25.515 Y94.049
X23.755 Y92.044
X22.247 Y89.79
X21.057 Y87.371
X20.197 Y84.826
X19.677 Y82.193
X19.505 Y79.561
X19.59 Y78.243
X19.681 Y76.87
X20.205 Y74.237
X21.066 Y71.703
X22.271 Y69.272
X23.747 Y67.064
X25.497 Y65.069
X27.494 Y63.315
X29.345 Y62.072
X29.768 Y61.793
X32.183 Y60.605
X34.68 Y59.758
X37.315 Y59.232
X40.01 Y59.055
X42.706 Y59.236
X45.303 Y59.752
X47.855 Y60.62
X50.25 Y61.802
X52.466 Y63.282
X54.474 Y65.041
X56.248 Y67.059
X57.758 Y69.318
X58.942 Y71.725
X59.795 Y74.237
X60.32 Y76.877
X60.495 Y79.561
X60.319 Y82.234
X59.791 Y84.874
X59.465 Y85.834
G3 X59.408 Y85.943 Z-17.98 R0.4
X59.33 Y86.022 Z-17.924 R0.4
X59.254 Y86.068 Z-17.835 R0.4
X59.201 Y86.088 Z-17.724 R0.4
X59.182 Y86.094 Z-17.6 R0.4
G0 Z5.
X41.603 Y79.318
Z-16.552
G3 X41.607 Y79.334 Z-16.664 R0.75 F350.
X41.62 Y79.38 Z-16.768 R0.75
X41.633 Y79.454 Z-16.854 R0.75
X41.639 Y79.549 Z-16.916 R0.75
X41.636 Y79.613 Z-16.938 R0.75
X41.628 Y79.679 Z-16.95 R0.75
X40.15 Y79.42 Z-17.156 R0.75
X41.628 Y79.679 Z-17.362 R0.75
X40.15 Y79.42 Z-17.568 R0.75
X41.628 Y79.679 Z-17.775 R0.75
X40.15 Y79.42 Z-17.981 R0.75
X41.628 Y79.679 Z-18.187 R0.75
X40.15 Y79.42 Z-18.393 R0.75
X41.628 Y79.679 Z-18.599 R0.75
X40.15 Y79.42 Z-18.805 R0.75
X41.639 Y79.549 Z-19. R0.75
X38.361 R1.639
X45.439 R3.539
X34.561 R5.439
X49.239 R7.339
X30.761 R9.239
X53.039 R11.139
X26.961 R13.039
X56.839 R14.939
X23.161 R16.839
X56.839 R16.839
G2 X58.41 Y82.584 R3.717
G3 X59.465 Y85.834 R2.856
G1 X58.933 Y87.398
X57.747 Y89.802
X56.276 Y92.003
X54.516 Y94.016
X52.465 Y95.818
X50.25 Y97.298
X47.856 Y98.479
X45.28 Y99.352
X42.644 Y99.872
X40.011 Y100.045
X37.315 Y99.868
X34.68 Y99.342
X32.166 Y98.489
X29.771 Y97.309
X27.504 Y95.794
X25.515 Y94.049
X23.755 Y92.044
X22.247 Y89.79
X21.057 Y87.371
X20.197 Y84.826
X19.677 Y82.193
X19.505 Y79.561
X19.59 Y78.243
X19.681 Y76.87
X20.205 Y74.237
X21.066 Y71.703
X22.271 Y69.272
X23.747 Y67.064
X25.497 Y65.069
X27.494 Y63.315
X29.345 Y62.072
X29.768 Y61.793
X32.183 Y60.605
X34.68 Y59.758
X37.315 Y59.232
X40.01 Y59.055
X42.706 Y59.236
X45.303 Y59.752
X47.855 Y60.62
X50.25 Y61.802
X52.466 Y63.282
X54.474 Y65.041
X56.248 Y67.059
X57.758 Y69.318
X58.942 Y71.725
X59.795 Y74.237
X60.32 Y76.877
X60.495 Y79.561
X60.319 Y82.234
X59.791 Y84.874
X59.465 Y85.834
G3 X59.408 Y85.943 Z-18.98 R0.4
X59.33 Y86.022 Z-18.924 R0.4
X59.254 Y86.068 Z-18.835 R0.4
X59.201 Y86.088 Z-18.724 R0.4
X59.182 Y86.094 Z-18.6 R0.4
G0 Z5.
X41.603 Y79.318
Z-17.552
G3 X41.607 Y79.334 Z-17.664 R0.75 F350.
X41.62 Y79.38 Z-17.768 R0.75
X41.633 Y79.454 Z-17.854 R0.75
X41.639 Y79.549 Z-17.916 R0.75
X41.636 Y79.613 Z-17.938 R0.75
X41.628 Y79.679 Z-17.95 R0.75
X40.15 Y79.42 Z-18.156 R0.75
X41.628 Y79.679 Z-18.362 R0.75
X40.15 Y79.42 Z-18.568 R0.75
X41.628 Y79.679 Z-18.775 R0.75
X40.15 Y79.42 Z-18.981 R0.75
X41.628 Y79.679 Z-19.187 R0.75
X40.15 Y79.42 Z-19.393 R0.75
X41.628 Y79.679 Z-19.599 R0.75
X40.15 Y79.42 Z-19.805 R0.75
X41.639 Y79.549 Z-20. R0.75
X38.361 R1.639
X45.439 R3.539
X34.561 R5.439
X49.239 R7.339
X30.761 R9.239
X53.039 R11.139
X26.961 R13.039
X56.839 R14.939
X23.161 R16.839
X56.839 R16.839
G2 X58.41 Y82.584 R3.717
G3 X59.465 Y85.834 R2.856
G1 X58.933 Y87.398
X57.747 Y89.802
X56.276 Y92.003
X54.516 Y94.016
X52.465 Y95.818
X50.25 Y97.298
X47.856 Y98.479
X45.28 Y99.352
X42.644 Y99.872
X40.011 Y100.045
X37.315 Y99.868
X34.68 Y99.342
X32.166 Y98.489
X29.771 Y97.309
X27.504 Y95.794
X25.515 Y94.049
X23.755 Y92.044
X22.247 Y89.79
X21.057 Y87.371
X20.197 Y84.826
X19.677 Y82.193
X19.505 Y79.561
X19.59 Y78.243
X19.681 Y76.87
X20.205 Y74.237
X21.066 Y71.703
X22.271 Y69.272
X23.747 Y67.064
X25.497 Y65.069
X27.494 Y63.315
X29.345 Y62.072
X29.768 Y61.793
X32.183 Y60.605
X34.68 Y59.758
X37.315 Y59.232
X40.01 Y59.055
X42.706 Y59.236
X45.303 Y59.752
X47.855 Y60.62
X50.25 Y61.802
X52.466 Y63.282
X54.474 Y65.041
X56.248 Y67.059
X57.758 Y69.318
X58.942 Y71.725
X59.795 Y74.237
X60.32 Y76.877
X60.495 Y79.561
X60.319 Y82.234
X59.791 Y84.874
X59.465 Y85.834
G3 X59.408 Y85.943 Z-19.98 R0.4
X59.33 Y86.022 Z-19.924 R0.4
X59.254 Y86.068 Z-19.835 R0.4
X59.201 Y86.088 Z-19.724 R0.4
X59.182 Y86.094 Z-19.6 R0.4
G0 Z5.
X41.603 Y79.318
Z-18.552
G3 X41.607 Y79.334 Z-18.664 R0.75 F350.
X41.62 Y79.38 Z-18.768 R0.75
X41.633 Y79.454 Z-18.854 R0.75
X41.639 Y79.549 Z-18.916 R0.75
X41.636 Y79.613 Z-18.938 R0.75
X41.628 Y79.679 Z-18.95 R0.75
X40.15 Y79.42 Z-19.156 R0.75
X41.628 Y79.679 Z-19.362 R0.75
X40.15 Y79.42 Z-19.568 R0.75
X41.628 Y79.679 Z-19.775 R0.75
X40.15 Y79.42 Z-19.981 R0.75
X41.628 Y79.679 Z-20.187 R0.75
X40.15 Y79.42 Z-20.393 R0.75
X41.628 Y79.679 Z-20.599 R0.75
X40.15 Y79.42 Z-20.805 R0.75
X41.639 Y79.549 Z-21. R0.75
X38.361 R1.639
X45.439 R3.539
X34.561 R5.439
X49.239 R7.339
X30.761 R9.239
X53.039 R11.139
X26.961 R13.039
X56.839 R14.939
X23.161 R16.839
X56.839 R16.839
G2 X58.41 Y82.584 R3.717
G3 X59.465 Y85.834 R2.856
G1 X58.933 Y87.398
X57.747 Y89.802
X56.276 Y92.003
X54.516 Y94.016
X52.465 Y95.818
X50.25 Y97.298
X47.856 Y98.479
X45.28 Y99.352
X42.644 Y99.872
X40.011 Y100.045
X37.315 Y99.868
X34.68 Y99.342
X32.166 Y98.489
X29.771 Y97.309
X27.504 Y95.794
X25.515 Y94.049
X23.755 Y92.044
X22.247 Y89.79
X21.057 Y87.371
X20.197 Y84.826
X19.677 Y82.193
X19.505 Y79.561
X19.59 Y78.243
X19.681 Y76.87
X20.205 Y74.237
X21.066 Y71.703
X22.271 Y69.272
X23.747 Y67.064
X25.497 Y65.069
X27.494 Y63.315
X29.345 Y62.072
X29.768 Y61.793
X32.183 Y60.605
X34.68 Y59.758
X37.315 Y59.232
X40.01 Y59.055
X42.706 Y59.236
X45.303 Y59.752
X47.855 Y60.62
X50.25 Y61.802
X52.466 Y63.282
X54.474 Y65.041
X56.248 Y67.059
X57.758 Y69.318
X58.942 Y71.725
X59.795 Y74.237
X60.32 Y76.877
X60.495 Y79.561
X60.319 Y82.234
X59.791 Y84.874
X59.465 Y85.834
G3 X59.408 Y85.943 Z-20.98 R0.4
X59.33 Y86.022 Z-20.924 R0.4
X59.254 Y86.068 Z-20.835 R0.4
X59.201 Y86.088 Z-20.724 R0.4
X59.182 Y86.094 Z-20.6 R0.4
G0 Z5.
X40.001 Y79.319
Z-19.552
G3 X40.006 Y79.334 Z-19.664 R0.75 F350.
X40.018 Y79.38 Z-19.768 R0.75
X40.031 Y79.454 Z-19.854 R0.75
X40.038 Y79.55 Z-19.916 R0.75
X40.035 Y79.613 Z-19.938 R0.75
X40.026 Y79.68 Z-19.95 R0.75
X38.549 Y79.42 Z-20.156 R0.75
X40.026 Y79.68 Z-20.362 R0.75
X38.549 Y79.42 Z-20.568 R0.75
X40.026 Y79.68 Z-20.775 R0.75
X38.549 Y79.42 Z-20.981 R0.75
X40.026 Y79.68 Z-21.187 R0.75
X38.549 Y79.42 Z-21.393 R0.75
X40.026 Y79.68 Z-21.599 R0.75
X38.549 Y79.42 Z-21.805 R0.75
X40.038 Y79.55 Z-22. R0.75
X39.962 R0.038
X43.838 R1.938
X36.162 R3.838
X43.838 R3.838
G2 X45.137 Y81.889 R2.755
G3 X45.542 Y84.533 R1.762
G1 X45.157 Y84.981
X43.945 Y85.914
X42.614 Y86.567
X41.112 Y86.954
X39.622 Y87.03
X38.128 Y86.801
X36.686 Y86.264
X35.409 Y85.466
X34.334 Y84.445
X33.458 Y83.194
X32.85 Y81.771
X32.55 Y80.314
X32.549 Y80.29
X32.55 Y78.786
X32.636 Y78.368
X32.861 Y77.292
X33.453 Y75.913
X34.328 Y74.661
X35.411 Y73.632
X35.43 Y73.618
X36.681 Y72.839
X38.124 Y72.299
X39.622 Y72.07
X41.115 Y72.146
X42.613 Y72.533
X43.973 Y73.203
X45.161 Y74.123
X46.148 Y75.273
X46.876 Y76.584
X47.334 Y78.036
X47.338 Y78.06
X47.489 Y79.561
X47.337 Y81.054
X46.889 Y82.484
X46.694 Y82.844
X46.135 Y83.843
X45.542 Y84.533
G3 X45.268 Y84.561 R0.2
G1 X38.674 Y79.46
G3 X38.618 Y79.212 R0.2
X39.957 Y79.888 Z-22.206 R0.75
X38.618 Y79.212 Z-22.412 R0.75
X39.957 Y79.888 Z-22.618 R0.75
X38.618 Y79.212 Z-22.825 R0.75
X40.038 Y79.55 Z-23. R0.75
X39.962 R0.038
X43.838 R1.938
X36.162 R3.838
X43.838 R3.838
G2 X45.137 Y81.889 R2.755
G3 X45.542 Y84.533 R1.762
G1 X45.157 Y84.981
X43.945 Y85.914
X42.614 Y86.567
X41.112 Y86.954
X39.622 Y87.03
X38.128 Y86.801
X36.686 Y86.264
X35.409 Y85.466
X34.334 Y84.445
X33.458 Y83.194
X32.85 Y81.771
X32.55 Y80.314
X32.549 Y80.29
X32.55 Y78.786
X32.636 Y78.368
X32.861 Y77.292
X33.453 Y75.913
X34.328 Y74.661
X35.411 Y73.632
X35.43 Y73.618
X36.681 Y72.839
X38.124 Y72.299
X39.622 Y72.07
X41.115 Y72.146
X42.613 Y72.533
X43.973 Y73.203
X45.161 Y74.123
X46.148 Y75.273
X46.876 Y76.584
X47.334 Y78.036
X47.338 Y78.06
X47.489 Y79.561
X47.337 Y81.054
X46.889 Y82.484
X46.694 Y82.844
X46.135 Y83.843
X45.542 Y84.533
G3 X45.268 Y84.561 R0.2
G1 X38.674 Y79.46
G3 X38.618 Y79.212 R0.2
X39.957 Y79.888 Z-23.206 R0.75
X38.618 Y79.212 Z-23.412 R0.75
X39.957 Y79.888 Z-23.618 R0.75
X38.618 Y79.212 Z-23.825 R0.75
X40.038 Y79.55 Z-24. R0.75
X39.962 R0.038
X43.838 R1.938
X36.162 R3.838
X43.838 R3.838
G2 X45.137 Y81.889 R2.755
G3 X45.542 Y84.533 R1.762
G1 X45.157 Y84.981
X43.945 Y85.914
X42.614 Y86.567
X41.112 Y86.954
X39.622 Y87.03
X38.128 Y86.801
X36.686 Y86.264
X35.409 Y85.466
X34.334 Y84.445
X33.458 Y83.194
X32.85 Y81.771
X32.55 Y80.314
X32.549 Y80.29
X32.55 Y78.786
X32.636 Y78.368
X32.861 Y77.292
X33.453 Y75.913
X34.328 Y74.661
X35.411 Y73.632
X35.43 Y73.618
X36.681 Y72.839
X38.124 Y72.299
X39.622 Y72.07
X41.115 Y72.146
X42.613 Y72.533
X43.973 Y73.203
X45.161 Y74.123
X46.148 Y75.273
X46.876 Y76.584
X47.334 Y78.036
X47.338 Y78.06
X47.489 Y79.561
X47.337 Y81.054
X46.889 Y82.484
X46.694 Y82.844
X46.135 Y83.843
X45.542 Y84.533
G3 X45.268 Y84.561 R0.2
G1 X38.674 Y79.46
G3 X38.618 Y79.212 R0.2
X39.957 Y79.888 Z-24.206 R0.75
X38.618 Y79.212 Z-24.412 R0.75
X39.957 Y79.888 Z-24.618 R0.75
X38.618 Y79.212 Z-24.825 R0.75
X40.038 Y79.55 Z-25. R0.75
X39.962 R0.038
X43.838 R1.938
X36.162 R3.838
X43.838 R3.838
G2 X45.137 Y81.889 R2.755
G3 X45.542 Y84.533 R1.762
G1 X45.157 Y84.981
X43.945 Y85.914
X42.614 Y86.567
X41.112 Y86.954
X39.622 Y87.03
X38.128 Y86.801
X36.686 Y86.264
X35.409 Y85.466
X34.334 Y84.445
X33.458 Y83.194
X32.85 Y81.771
X32.55 Y80.314
X32.549 Y80.29
X32.55 Y78.786
X32.636 Y78.368
X32.861 Y77.292
X33.453 Y75.913
X34.328 Y74.661
X35.411 Y73.632
X35.43 Y73.618
X36.681 Y72.839
X38.124 Y72.299
X39.622 Y72.07
X41.115 Y72.146
X42.613 Y72.533
X43.973 Y73.203
X45.161 Y74.123
X46.148 Y75.273
X46.876 Y76.584
X47.334 Y78.036
X47.338 Y78.06
X47.489 Y79.561
X47.337 Y81.054
X46.889 Y82.484
X46.694 Y82.844
X46.135 Y83.843
X45.542 Y84.533
G3 X45.448 Y84.613 Z-24.98 R0.4
X45.346 Y84.658 Z-24.924 R0.4
X45.259 Y84.672 Z-24.835 R0.4
X45.202 Y84.671 Z-24.724 R0.4
X45.183 Y84.669 Z-24.6 R0.4
G0 Z5.
X90.004 Y129.932
Z1.448
G3 X89.989 Y129.926 Z1.336 R0.75 F350.
X89.945 Y129.909 Z1.232 R0.75
X89.878 Y129.875 Z1.146 R0.75
X89.798 Y129.823 Z1.084 R0.75
X89.748 Y129.782 Z1.062 R0.75
X89.701 Y129.736 Z1.05 R0.75
X90.794 Y128.709 Z0.844 R0.75
X89.701 Y129.736 Z0.638 R0.75
X90.794 Y128.709 Z0.432 R0.75
X89.701 Y129.736 Z0.225 R0.75
X90.794 Y128.709 Z0.019 R0.75
X89.701 Y129.736 Z-0.187 R0.75
X90.794 Y128.709 Z-0.393 R0.75
X89.701 Y129.736 Z-0.599 R0.75
X90.794 Y128.709 Z-0.805 R0.75
X89.798 Y129.823 Z-1. R0.75
X90.205 Y129.279 R0.34
X89.798 Y129.823 R0.34
G2 X87.741 Y129.473 R2.279
G3 X86.418 Y127.862 R1.123
G1 X86.768 Y127.224
X87.273 Y126.68
X87.472 Y126.473
X88.302 Y125.946
X89.254 Y125.637
X90.258 Y125.575
X91.221 Y125.759
X91.288 Y125.788
X92.122 Y126.18
X92.891 Y126.812
X93.489 Y127.629
X93.859 Y128.565
X93.983 Y129.56
X93.859 Y130.539
X93.857 Y130.545
X93.496 Y131.458
X92.909 Y132.27
X92.134 Y132.914
X91.232 Y133.339
X90.25 Y133.526
X89.255 Y133.464
X88.302 Y133.154
X87.459 Y132.617
X86.77 Y131.879
X86.294 Y131.012
X86.049 Y130.057
X86.047 Y129.994
Y129.069
X86.304 Y128.067
X86.418 Y127.862
G3 X86.641 Y127.764 R0.2
G1 X90.788 Y128.784
G3 X90.92 Y128.89 R0.2
X90.998 Y129.223 Z-1.03 R0.75
X89.498 Z-1.236 R0.75
X90.998 Z-1.442 R0.75
X89.498 Z-1.649 R0.75
X90.998 Z-1.855 R0.75
X89.798 Y129.823 Z-2. R0.75
X90.205 Y129.279 R0.34
X89.798 Y129.823 R0.34
G2 X87.741 Y129.473 R2.279
G3 X86.418 Y127.862 R1.123
G1 X86.768 Y127.224
X87.273 Y126.68
X87.472 Y126.473
X88.302 Y125.946
X89.254 Y125.637
X90.258 Y125.575
X91.221 Y125.759
X91.288 Y125.788
X92.122 Y126.18
X92.891 Y126.812
X93.489 Y127.629
X93.859 Y128.565
X93.983 Y129.56
X93.859 Y130.539
X93.857 Y130.545
X93.496 Y131.458
X92.909 Y132.27
X92.134 Y132.914
X91.232 Y133.339
X90.25 Y133.526
X89.255 Y133.464
X88.302 Y133.154
X87.459 Y132.617
X86.77 Y131.879
X86.294 Y131.012
X86.049 Y130.057
X86.047 Y129.994
Y129.069
X86.304 Y128.067
X86.418 Y127.862
G3 X86.641 Y127.764 R0.2
G1 X90.788 Y128.784
G3 X90.92 Y128.89 R0.2
X90.998 Y129.223 Z-2.03 R0.75
X89.498 Z-2.236 R0.75
X90.998 Z-2.442 R0.75
X89.498 Z-2.649 R0.75
X90.998 Z-2.855 R0.75
X89.798 Y129.823 Z-3. R0.75
X90.205 Y129.279 R0.34
X89.798 Y129.823 R0.34
G2 X87.741 Y129.473 R2.279
G3 X86.418 Y127.862 R1.123
G1 X86.768 Y127.224
X87.273 Y126.68
X87.472 Y126.473
X88.302 Y125.946
X89.254 Y125.637
X90.258 Y125.575
X91.221 Y125.759
X91.288 Y125.788
X92.122 Y126.18
X92.891 Y126.812
X93.489 Y127.629
X93.859 Y128.565
X93.983 Y129.56
X93.859 Y130.539
X93.857 Y130.545
X93.496 Y131.458
X92.909 Y132.27
X92.134 Y132.914
X91.232 Y133.339
X90.25 Y133.526
X89.255 Y133.464
X88.302 Y133.154
X87.459 Y132.617
X86.77 Y131.879
X86.294 Y131.012
X86.049 Y130.057
X86.047 Y129.994
Y129.069
X86.304 Y128.067
X86.418 Y127.862
G3 X86.641 Y127.764 R0.2
G1 X90.788 Y128.784
G3 X90.92 Y128.89 R0.2
X90.998 Y129.223 Z-3.03 R0.75
X89.498 Z-3.236 R0.75
X90.998 Z-3.442 R0.75
X89.498 Z-3.649 R0.75
X90.998 Z-3.855 R0.75
X89.798 Y129.823 Z-4. R0.75
X90.205 Y129.279 R0.34
X89.798 Y129.823 R0.34
G2 X87.741 Y129.473 R2.279
G3 X86.418 Y127.862 R1.123
G1 X86.768 Y127.224
X87.273 Y126.68
X87.472 Y126.473
X88.302 Y125.946
X89.254 Y125.637
X90.258 Y125.575
X91.221 Y125.759
X91.288 Y125.788
X92.122 Y126.18
X92.891 Y126.812
X93.489 Y127.629
X93.859 Y128.565
X93.983 Y129.56
X93.859 Y130.539
X93.857 Y130.545
X93.496 Y131.458
X92.909 Y132.27
X92.134 Y132.914
X91.232 Y133.339
X90.25 Y133.526
X89.255 Y133.464
X88.302 Y133.154
X87.459 Y132.617
X86.77 Y131.879
X86.294 Y131.012
X86.049 Y130.057
X86.047 Y129.994
Y129.069
X86.304 Y128.067
X86.418 Y127.862
G3 X86.641 Y127.764 R0.2
G1 X90.788 Y128.784
G3 X90.92 Y128.89 R0.2
X90.998 Y129.223 Z-4.03 R0.75
X89.498 Z-4.236 R0.75
X90.998 Z-4.442 R0.75
X89.498 Z-4.649 R0.75
X90.998 Z-4.855 R0.75
X89.798 Y129.823 Z-5. R0.75
X90.205 Y129.279 R0.34
X89.798 Y129.823 R0.34
G2 X87.741 Y129.473 R2.279
G3 X86.418 Y127.862 R1.123
G1 X86.768 Y127.224
X87.273 Y126.68
X87.472 Y126.473
X88.302 Y125.946
X89.254 Y125.637
X90.258 Y125.575
X91.221 Y125.759
X91.288 Y125.788
X92.122 Y126.18
X92.891 Y126.812
X93.489 Y127.629
X93.859 Y128.565
X93.983 Y129.56
X93.859 Y130.539
X93.857 Y130.545
X93.496 Y131.458
X92.909 Y132.27
X92.134 Y132.914
X91.232 Y133.339
X90.25 Y133.526
X89.255 Y133.464
X88.302 Y133.154
X87.459 Y132.617
X86.77 Y131.879
X86.294 Y131.012
X86.049 Y130.057
X86.047 Y129.994
Y129.069
X86.304 Y128.067
X86.418 Y127.862
G3 X86.641 Y127.764 R0.2
G1 X90.788 Y128.784
G3 X90.92 Y128.89 R0.2
X90.998 Y129.223 Z-5.03 R0.75
X89.498 Z-5.236 R0.75
X90.998 Z-5.442 R0.75
X89.498 Z-5.649 R0.75
X90.998 Z-5.855 R0.75
X89.798 Y129.823 Z-6. R0.75
X90.205 Y129.279 R0.34
X89.798 Y129.823 R0.34
G2 X87.741 Y129.473 R2.279
G3 X86.418 Y127.862 R1.123
G1 X86.768 Y127.224
X87.273 Y126.68
X87.472 Y126.473
X88.302 Y125.946
X89.254 Y125.637
X90.258 Y125.575
X91.221 Y125.759
X91.288 Y125.788
X92.122 Y126.18
X92.891 Y126.812
X93.489 Y127.629
X93.859 Y128.565
X93.983 Y129.56
X93.859 Y130.539
X93.857 Y130.545
X93.496 Y131.458
X92.909 Y132.27
X92.134 Y132.914
X91.232 Y133.339
X90.25 Y133.526
X89.255 Y133.464
X88.302 Y133.154
X87.459 Y132.617
X86.77 Y131.879
X86.294 Y131.012
X86.049 Y130.057
X86.047 Y129.994
Y129.069
X86.304 Y128.067
X86.418 Y127.862
G3 X86.641 Y127.764 R0.2
G1 X90.788 Y128.784
G3 X90.92 Y128.89 R0.2
X90.998 Y129.223 Z-6.03 R0.75
X89.498 Z-6.236 R0.75
X90.998 Z-6.442 R0.75
X89.498 Z-6.649 R0.75
X90.998 Z-6.855 R0.75
X89.798 Y129.823 Z-7. R0.75
X90.205 Y129.279 R0.34
X89.798 Y129.823 R0.34
G2 X87.741 Y129.473 R2.279
G3 X86.418 Y127.862 R1.123
G1 X86.768 Y127.224
X87.273 Y126.68
X87.472 Y126.473
X88.302 Y125.946
X89.254 Y125.637
X90.258 Y125.575
X91.221 Y125.759
X91.288 Y125.788
X92.122 Y126.18
X92.891 Y126.812
X93.489 Y127.629
X93.859 Y128.565
X93.983 Y129.56
X93.859 Y130.539
X93.857 Y130.545
X93.496 Y131.458
X92.909 Y132.27
X92.134 Y132.914
X91.232 Y133.339
X90.25 Y133.526
X89.255 Y133.464
X88.302 Y133.154
X87.459 Y132.617
X86.77 Y131.879
X86.294 Y131.012
X86.049 Y130.057
X86.047 Y129.994
Y129.069
X86.304 Y128.067
X86.418 Y127.862
G3 X86.641 Y127.764 R0.2
G1 X90.788 Y128.784
G3 X90.92 Y128.89 R0.2
X90.998 Y129.223 Z-7.03 R0.75
X89.498 Z-7.236 R0.75
X90.998 Z-7.442 R0.75
X89.498 Z-7.649 R0.75
X90.998 Z-7.855 R0.75
X89.798 Y129.823 Z-8. R0.75
X90.205 Y129.279 R0.34
X89.798 Y129.823 R0.34
G2 X87.741 Y129.473 R2.279
G3 X86.418 Y127.862 R1.123
G1 X86.768 Y127.224
X87.273 Y126.68
X87.472 Y126.473
X88.302 Y125.946
X89.254 Y125.637
X90.258 Y125.575
X91.221 Y125.759
X91.288 Y125.788
X92.122 Y126.18
X92.891 Y126.812
X93.489 Y127.629
X93.859 Y128.565
X93.983 Y129.56
X93.859 Y130.539
X93.857 Y130.545
X93.496 Y131.458
X92.909 Y132.27
X92.134 Y132.914
X91.232 Y133.339
X90.25 Y133.526
X89.255 Y133.464
X88.302 Y133.154
X87.459 Y132.617
X86.77 Y131.879
X86.294 Y131.012
X86.049 Y130.057
X86.047 Y129.994
Y129.069
X86.304 Y128.067
X86.418 Y127.862
G3 X86.641 Y127.764 R0.2
G1 X90.788 Y128.784
G3 X90.92 Y128.89 R0.2
X90.998 Y129.223 Z-8.03 R0.75
X89.498 Z-8.236 R0.75
X90.998 Z-8.442 R0.75
X89.498 Z-8.649 R0.75
X90.998 Z-8.855 R0.75
X89.798 Y129.823 Z-9. R0.75
X90.205 Y129.279 R0.34
X89.798 Y129.823 R0.34
G2 X87.741 Y129.473 R2.279
G3 X86.418 Y127.862 R1.123
G1 X86.768 Y127.224
X87.273 Y126.68
X87.472 Y126.473
X88.302 Y125.946
X89.254 Y125.637
X90.258 Y125.575
X91.221 Y125.759
X91.288 Y125.788
X92.122 Y126.18
X92.891 Y126.812
X93.489 Y127.629
X93.859 Y128.565
X93.983 Y129.56
X93.859 Y130.539
X93.857 Y130.545
X93.496 Y131.458
X92.909 Y132.27
X92.134 Y132.914
X91.232 Y133.339
X90.25 Y133.526
X89.255 Y133.464
X88.302 Y133.154
X87.459 Y132.617
X86.77 Y131.879
X86.294 Y131.012
X86.049 Y130.057
X86.047 Y129.994
Y129.069
X86.304 Y128.067
X86.418 Y127.862
G3 X86.641 Y127.764 R0.2
G1 X90.788 Y128.784
G3 X90.92 Y128.89 R0.2
X90.998 Y129.223 Z-9.03 R0.75
X89.498 Z-9.236 R0.75
X90.998 Z-9.442 R0.75
X89.498 Z-9.649 R0.75
X90.998 Z-9.855 R0.75
X89.798 Y129.823 Z-10. R0.75
X90.205 Y129.279 R0.34
X89.798 Y129.823 R0.34
G2 X87.741 Y129.473 R2.279
G3 X86.418 Y127.862 R1.123
G1 X86.768 Y127.224
X87.273 Y126.68
X87.472 Y126.473
X88.302 Y125.946
X89.254 Y125.637
X90.258 Y125.575
X91.221 Y125.759
X91.288 Y125.788
X92.122 Y126.18
X92.891 Y126.812
X93.489 Y127.629
X93.859 Y128.565
X93.983 Y129.56
X93.859 Y130.539
X93.857 Y130.545
X93.496 Y131.458
X92.909 Y132.27
X92.134 Y132.914
X91.232 Y133.339
X90.25 Y133.526
X89.255 Y133.464
X88.302 Y133.154
X87.459 Y132.617
X86.77 Y131.879
X86.294 Y131.012
X86.049 Y130.057
X86.047 Y129.994
Y129.069
X86.304 Y128.067
X86.418 Y127.862
G3 X86.641 Y127.764 R0.2
G1 X90.788 Y128.784
G3 X90.92 Y128.89 R0.2
X90.998 Y129.223 Z-10.03 R0.75
X89.498 Z-10.236 R0.75
X90.998 Z-10.442 R0.75
X89.498 Z-10.649 R0.75
X90.998 Z-10.855 R0.75
X89.798 Y129.823 Z-11. R0.75
X90.205 Y129.279 R0.34
X89.798 Y129.823 R0.34
G2 X87.741 Y129.473 R2.279
G3 X86.418 Y127.862 R1.123
G1 X86.768 Y127.224
X87.273 Y126.68
X87.472 Y126.473
X88.302 Y125.946
X89.254 Y125.637
X90.258 Y125.575
X91.221 Y125.759
X91.288 Y125.788
X92.122 Y126.18
X92.891 Y126.812
X93.489 Y127.629
X93.859 Y128.565
X93.983 Y129.56
X93.859 Y130.539
X93.857 Y130.545
X93.496 Y131.458
X92.909 Y132.27
X92.134 Y132.914
X91.232 Y133.339
X90.25 Y133.526
X89.255 Y133.464
X88.302 Y133.154
X87.459 Y132.617
X86.77 Y131.879
X86.294 Y131.012
X86.049 Y130.057
X86.047 Y129.994
Y129.069
X86.304 Y128.067
X86.418 Y127.862
G3 X86.641 Y127.764 R0.2
G1 X90.788 Y128.784
G3 X90.92 Y128.89 R0.2
X90.998 Y129.223 Z-11.03 R0.75
X89.498 Z-11.236 R0.75
X90.998 Z-11.442 R0.75
X89.498 Z-11.649 R0.75
X90.998 Z-11.855 R0.75
X89.798 Y129.823 Z-12. R0.75
X90.205 Y129.279 R0.34
X89.798 Y129.823 R0.34
G2 X87.741 Y129.473 R2.279
G3 X86.418 Y127.862 R1.123
G1 X86.768 Y127.224
X87.273 Y126.68
X87.472 Y126.473
X88.302 Y125.946
X89.254 Y125.637
X90.258 Y125.575
X91.221 Y125.759
X91.288 Y125.788
X92.122 Y126.18
X92.891 Y126.812
X93.489 Y127.629
X93.859 Y128.565
X93.983 Y129.56
X93.859 Y130.539
X93.857 Y130.545
X93.496 Y131.458
X92.909 Y132.27
X92.134 Y132.914
X91.232 Y133.339
X90.25 Y133.526
X89.255 Y133.464
X88.302 Y133.154
X87.459 Y132.617
X86.77 Y131.879
X86.294 Y131.012
X86.049 Y130.057
X86.047 Y129.994
Y129.069
X86.304 Y128.067
X86.418 Y127.862
G3 X86.641 Y127.764 R0.2
G1 X90.788 Y128.784
G3 X90.92 Y128.89 R0.2
X90.998 Y129.223 Z-12.03 R0.75
X89.498 Z-12.236 R0.75
X90.998 Z-12.442 R0.75
X89.498 Z-12.649 R0.75
X90.998 Z-12.855 R0.75
X89.798 Y129.823 Z-13. R0.75
X90.205 Y129.279 R0.34
X89.798 Y129.823 R0.34
G2 X87.741 Y129.473 R2.279
G3 X86.418 Y127.862 R1.123
G1 X86.768 Y127.224
X87.273 Y126.68
X87.472 Y126.473
X88.302 Y125.946
X89.254 Y125.637
X90.258 Y125.575
X91.221 Y125.759
X91.288 Y125.788
X92.122 Y126.18
X92.891 Y126.812
X93.489 Y127.629
X93.859 Y128.565
X93.983 Y129.56
X93.859 Y130.539
X93.857 Y130.545
X93.496 Y131.458
X92.909 Y132.27
X92.134 Y132.914
X91.232 Y133.339
X90.25 Y133.526
X89.255 Y133.464
X88.302 Y133.154
X87.459 Y132.617
X86.77 Y131.879
X86.294 Y131.012
X86.049 Y130.057
X86.047 Y129.994
Y129.069
X86.304 Y128.067
X86.418 Y127.862
G3 X86.641 Y127.764 R0.2
G1 X90.788 Y128.784
G3 X90.92 Y128.89 R0.2
X90.998 Y129.223 Z-13.03 R0.75
X89.498 Z-13.236 R0.75
X90.998 Z-13.442 R0.75
X89.498 Z-13.649 R0.75
X90.998 Z-13.855 R0.75
X89.798 Y129.823 Z-14. R0.75
X90.205 Y129.279 R0.34
X89.798 Y129.823 R0.34
G2 X87.741 Y129.473 R2.279
G3 X86.418 Y127.862 R1.123
G1 X86.768 Y127.224
X87.273 Y126.68
X87.472 Y126.473
X88.302 Y125.946
X89.254 Y125.637
X90.258 Y125.575
X91.221 Y125.759
X91.288 Y125.788
X92.122 Y126.18
X92.891 Y126.812
X93.489 Y127.629
X93.859 Y128.565
X93.983 Y129.56
X93.859 Y130.539
X93.857 Y130.545
X93.496 Y131.458
X92.909 Y132.27
X92.134 Y132.914
X91.232 Y133.339
X90.25 Y133.526
X89.255 Y133.464
X88.302 Y133.154
X87.459 Y132.617
X86.77 Y131.879
X86.294 Y131.012
X86.049 Y130.057
X86.047 Y129.994
Y129.069
X86.304 Y128.067
X86.418 Y127.862
G3 X86.641 Y127.764 R0.2
G1 X90.788 Y128.784
G3 X90.92 Y128.89 R0.2
X90.998 Y129.223 Z-14.03 R0.75
X89.498 Z-14.236 R0.75
X90.998 Z-14.442 R0.75
X89.498 Z-14.649 R0.75
X90.998 Z-14.855 R0.75
X89.798 Y129.823 Z-15. R0.75
X90.205 Y129.279 R0.34
X89.798 Y129.823 R0.34
G2 X87.741 Y129.473 R2.279
G3 X86.418 Y127.862 R1.123
G1 X86.768 Y127.224
X87.273 Y126.68
X87.472 Y126.473
X88.302 Y125.946
X89.254 Y125.637
X90.258 Y125.575
X91.221 Y125.759
X91.288 Y125.788
X92.122 Y126.18
X92.891 Y126.812
X93.489 Y127.629
X93.859 Y128.565
X93.983 Y129.56
X93.859 Y130.539
X93.857 Y130.545
X93.496 Y131.458
X92.909 Y132.27
X92.134 Y132.914
X91.232 Y133.339
X90.25 Y133.526
X89.255 Y133.464
X88.302 Y133.154
X87.459 Y132.617
X86.77 Y131.879
X86.294 Y131.012
X86.049 Y130.057
X86.047 Y129.994
Y129.069
X86.304 Y128.067
X86.418 Y127.862
G3 X86.641 Y127.764 R0.2
G1 X90.788 Y128.784
G3 X90.92 Y128.89 R0.2
X90.998 Y129.223 Z-15.03 R0.75
X89.498 Z-15.236 R0.75
X90.998 Z-15.442 R0.75
X89.498 Z-15.649 R0.75
X90.998 Z-15.855 R0.75
X89.798 Y129.823 Z-16. R0.75
X90.205 Y129.279 R0.34
X89.798 Y129.823 R0.34
G2 X87.741 Y129.473 R2.279
G3 X86.418 Y127.862 R1.123
G1 X86.768 Y127.224
X87.273 Y126.68
X87.472 Y126.473
X88.302 Y125.946
X89.254 Y125.637
X90.258 Y125.575
X91.221 Y125.759
X91.288 Y125.788
X92.122 Y126.18
X92.891 Y126.812
X93.489 Y127.629
X93.859 Y128.565
X93.983 Y129.56
X93.859 Y130.539
X93.857 Y130.545
X93.496 Y131.458
X92.909 Y132.27
X92.134 Y132.914
X91.232 Y133.339
X90.25 Y133.526
X89.255 Y133.464
X88.302 Y133.154
X87.459 Y132.617
X86.77 Y131.879
X86.294 Y131.012
X86.049 Y130.057
X86.047 Y129.994
Y129.069
X86.304 Y128.067
X86.418 Y127.862
G3 X86.641 Y127.764 R0.2
G1 X90.788 Y128.784
G3 X90.92 Y128.89 R0.2
X90.998 Y129.223 Z-16.03 R0.75
X89.498 Z-16.236 R0.75
X90.998 Z-16.442 R0.75
X89.498 Z-16.649 R0.75
X90.998 Z-16.855 R0.75
X89.798 Y129.823 Z-17. R0.75
X90.205 Y129.279 R0.34
X89.798 Y129.823 R0.34
G2 X87.741 Y129.473 R2.279
G3 X86.418 Y127.862 R1.123
G1 X86.768 Y127.224
X87.273 Y126.68
X87.472 Y126.473
X88.302 Y125.946
X89.254 Y125.637
X90.258 Y125.575
X91.221 Y125.759
X91.288 Y125.788
X92.122 Y126.18
X92.891 Y126.812
X93.489 Y127.629
X93.859 Y128.565
X93.983 Y129.56
X93.859 Y130.539
X93.857 Y130.545
X93.496 Y131.458
X92.909 Y132.27
X92.134 Y132.914
X91.232 Y133.339
X90.25 Y133.526
X89.255 Y133.464
X88.302 Y133.154
X87.459 Y132.617
X86.77 Y131.879
X86.294 Y131.012
X86.049 Y130.057
X86.047 Y129.994
Y129.069
X86.304 Y128.067
X86.418 Y127.862
G3 X86.641 Y127.764 R0.2
G1 X90.788 Y128.784
G3 X90.92 Y128.89 R0.2
X90.998 Y129.223 Z-17.03 R0.75
X89.498 Z-17.236 R0.75
X90.998 Z-17.442 R0.75
X89.498 Z-17.649 R0.75
X90.998 Z-17.855 R0.75
X89.798 Y129.823 Z-18. R0.75
X90.205 Y129.279 R0.34
X89.798 Y129.823 R0.34
G2 X87.741 Y129.473 R2.279
G3 X86.418 Y127.862 R1.123
G1 X86.768 Y127.224
X87.273 Y126.68
X87.472 Y126.473
X88.302 Y125.946
X89.254 Y125.637
X90.258 Y125.575
X91.221 Y125.759
X91.288 Y125.788
X92.122 Y126.18
X92.891 Y126.812
X93.489 Y127.629
X93.859 Y128.565
X93.983 Y129.56
X93.859 Y130.539
X93.857 Y130.545
X93.496 Y131.458
X92.909 Y132.27
X92.134 Y132.914
X91.232 Y133.339
X90.25 Y133.526
X89.255 Y133.464
X88.302 Y133.154
X87.459 Y132.617
X86.77 Y131.879
X86.294 Y131.012
X86.049 Y130.057
X86.047 Y129.994
Y129.069
X86.304 Y128.067
X86.418 Y127.862
G3 X86.641 Y127.764 R0.2
G1 X90.788 Y128.784
G3 X90.92 Y128.89 R0.2
X90.998 Y129.223 Z-18.03 R0.75
X89.498 Z-18.236 R0.75
X90.998 Z-18.442 R0.75
X89.498 Z-18.649 R0.75
X90.998 Z-18.855 R0.75
X89.798 Y129.823 Z-19. R0.75
X90.205 Y129.279 R0.34
X89.798 Y129.823 R0.34
G2 X87.741 Y129.473 R2.279
G3 X86.418 Y127.862 R1.123
G1 X86.768 Y127.224
X87.273 Y126.68
X87.472 Y126.473
X88.302 Y125.946
X89.254 Y125.637
X90.258 Y125.575
X91.221 Y125.759
X91.288 Y125.788
X92.122 Y126.18
X92.891 Y126.812
X93.489 Y127.629
X93.859 Y128.565
X93.983 Y129.56
X93.859 Y130.539
X93.857 Y130.545
X93.496 Y131.458
X92.909 Y132.27
X92.134 Y132.914
X91.232 Y133.339
X90.25 Y133.526
X89.255 Y133.464
X88.302 Y133.154
X87.459 Y132.617
X86.77 Y131.879
X86.294 Y131.012
X86.049 Y130.057
X86.047 Y129.994
Y129.069
X86.304 Y128.067
X86.418 Y127.862
G3 X86.641 Y127.764 R0.2
G1 X90.788 Y128.784
G3 X90.92 Y128.89 R0.2
X90.998 Y129.223 Z-19.03 R0.75
X89.498 Z-19.236 R0.75
X90.998 Z-19.442 R0.75
X89.498 Z-19.649 R0.75
X90.998 Z-19.855 R0.75
X89.798 Y129.823 Z-20. R0.75
X90.205 Y129.279 R0.34
X89.798 Y129.823 R0.34
G2 X87.741 Y129.473 R2.279
G3 X86.418 Y127.862 R1.123
G1 X86.768 Y127.224
X87.273 Y126.68
X87.472 Y126.473
X88.302 Y125.946
X89.254 Y125.637
X90.258 Y125.575
X91.221 Y125.759
X91.288 Y125.788
X92.122 Y126.18
X92.891 Y126.812
X93.489 Y127.629
X93.859 Y128.565
X93.983 Y129.56
X93.859 Y130.539
X93.857 Y130.545
X93.496 Y131.458
X92.909 Y132.27
X92.134 Y132.914
X91.232 Y133.339
X90.25 Y133.526
X89.255 Y133.464
X88.302 Y133.154
X87.459 Y132.617
X86.77 Y131.879
X86.294 Y131.012
X86.049 Y130.057
X86.047 Y129.994
Y129.069
X86.304 Y128.067
X86.418 Y127.862
G3 X86.641 Y127.764 R0.2
G1 X90.788 Y128.784
G3 X90.92 Y128.89 R0.2
X90.998 Y129.223 Z-20.03 R0.75
X89.498 Z-20.236 R0.75
X90.998 Z-20.442 R0.75
X89.498 Z-20.649 R0.75
X90.998 Z-20.855 R0.75
X89.798 Y129.823 Z-21. R0.75
X90.205 Y129.279 R0.34
X89.798 Y129.823 R0.34
G2 X87.741 Y129.473 R2.279
G3 X86.418 Y127.862 R1.123
G1 X86.768 Y127.224
X87.273 Y126.68
X87.472 Y126.473
X88.302 Y125.946
X89.254 Y125.637
X90.258 Y125.575
X91.221 Y125.759
X91.288 Y125.788
X92.122 Y126.18
X92.891 Y126.812
X93.489 Y127.629
X93.859 Y128.565
X93.983 Y129.56
X93.859 Y130.539
X93.857 Y130.545
X93.496 Y131.458
X92.909 Y132.27
X92.134 Y132.914
X91.232 Y133.339
X90.25 Y133.526
X89.255 Y133.464
X88.302 Y133.154
X87.459 Y132.617
X86.77 Y131.879
X86.294 Y131.012
X86.049 Y130.057
X86.047 Y129.994
Y129.069
X86.304 Y128.067
X86.418 Y127.862
G3 X86.693 Y127.785 R0.2
G1 X89.889 Y129.625
G3 X89.967 Y129.889 R0.2
X89.747 Y130.15 Z-21.03 R0.75
X88.549 Y129.545 Z-21.175 R0.75
X89.752 Y128.95 Z-21.321 R0.75
X88.847 Y130.147 Z-21.527 R0.75
X88.549 Y129.545 Z-21.588 R0.75
X89.752 Y128.95 Z-21.733 R0.75
X88.847 Y130.147 Z-21.939 R0.75
X88.549 Y129.545 Z-22. R0.75
G1 X88.55 Y129.303
X88.711 Y128.841
X89.003 Y128.467
X89.41 Y128.201
X89.878 Y128.083
X90.361 Y128.123
X90.805 Y128.317
X91.155 Y128.639
X91.393 Y129.081
X91.471 Y129.558
X91.393 Y130.027
X91.157 Y130.459
X90.805 Y130.783
X90.361 Y130.977
X89.879 Y131.017
X89.41 Y130.899
X89.007 Y130.636
X88.709 Y130.255
X88.68 Y130.178
X88.548 Y129.785
X88.549 Y129.545
G3 X88.797 Y129.352 R0.2
G1 X89.836 Y129.604
G3 X89.967 Y129.889 R0.2
X89.747 Y130.15 Z-22.03 R0.75
X88.549 Y129.545 Z-22.175 R0.75
X89.752 Y128.95 Z-22.321 R0.75
X88.847 Y130.147 Z-22.527 R0.75
X88.549 Y129.545 Z-22.588 R0.75
X89.752 Y128.95 Z-22.733 R0.75
X88.847 Y130.147 Z-22.939 R0.75
X88.549 Y129.545 Z-23. R0.75
G1 X88.55 Y129.303
X88.711 Y128.841
X89.003 Y128.467
X89.41 Y128.201
X89.878 Y128.083
X90.361 Y128.123
X90.805 Y128.317
X91.155 Y128.639
X91.393 Y129.081
X91.471 Y129.558
X91.393 Y130.027
X91.157 Y130.459
X90.805 Y130.783
X90.361 Y130.977
X89.879 Y131.017
X89.41 Y130.899
X89.007 Y130.636
X88.709 Y130.255
X88.68 Y130.178
X88.548 Y129.785
X88.549 Y129.545
G3 X88.797 Y129.352 R0.2
G1 X89.836 Y129.604
G3 X89.967 Y129.889 R0.2
X89.747 Y130.15 Z-23.03 R0.75
X88.549 Y129.545 Z-23.175 R0.75
X89.752 Y128.95 Z-23.321 R0.75
X88.847 Y130.147 Z-23.527 R0.75
X88.549 Y129.545 Z-23.588 R0.75
X89.752 Y128.95 Z-23.733 R0.75
X88.847 Y130.147 Z-23.939 R0.75
X88.549 Y129.545 Z-24. R0.75
G1 X88.55 Y129.303
X88.711 Y128.841
X89.003 Y128.467
X89.41 Y128.201
X89.878 Y128.083
X90.361 Y128.123
X90.805 Y128.317
X91.155 Y128.639
X91.393 Y129.081
X91.471 Y129.558
X91.393 Y130.027
X91.157 Y130.459
X90.805 Y130.783
X90.361 Y130.977
X89.879 Y131.017
X89.41 Y130.899
X89.007 Y130.636
X88.709 Y130.255
X88.68 Y130.178
X88.548 Y129.785
X88.549 Y129.545
G3 X88.797 Y129.352 R0.2
G1 X89.836 Y129.604
G3 X89.967 Y129.889 R0.2
X89.747 Y130.15 Z-24.03 R0.75
X88.549 Y129.545 Z-24.175 R0.75
X89.752 Y128.95 Z-24.321 R0.75
X88.847 Y130.147 Z-24.527 R0.75
X88.549 Y129.545 Z-24.588 R0.75
X89.752 Y128.95 Z-24.733 R0.75
X88.847 Y130.147 Z-24.939 R0.75
X88.549 Y129.545 Z-25. R0.75
G1 X88.55 Y129.303
X88.711 Y128.841
X89.003 Y128.467
X89.41 Y128.201
X89.878 Y128.083
X90.361 Y128.123
X90.805 Y128.317
X91.155 Y128.639
X91.393 Y129.081
X91.471 Y129.558
X91.393 Y130.027
X91.157 Y130.459
X90.805 Y130.783
X90.361 Y130.977
X89.879 Y131.017
X89.41 Y130.899
X89.007 Y130.636
X88.709 Y130.255
X88.68 Y130.178
X88.548 Y129.785
X88.549 Y129.545
G3 X88.569 Y129.424 Z-24.98 R0.4
X88.617 Y129.324 Z-24.924 R0.4
X88.674 Y129.256 Z-24.835 R0.4
X88.718 Y129.22 Z-24.724 R0.4
X88.735 Y129.209 Z-24.6 R0.4
G0 Z5.
X89.737 Y0.737
Z1.448
G3 X89.722 Y0.731 Z1.336 R0.75 F350.
X89.678 Y0.713 Z1.232 R0.75
X89.611 Y0.68 Z1.146 R0.75
X89.53 Y0.627 Z1.084 R0.75
X89.481 Y0.587 Z1.062 R0.75
X89.433 Y0.54 Z1.05 R0.75
X90.527 Y-0.486 Z0.844 R0.75
X89.433 Y0.54 Z0.638 R0.75
X90.527 Y-0.486 Z0.432 R0.75
X89.433 Y0.54 Z0.225 R0.75
X90.527 Y-0.486 Z0.019 R0.75
X89.433 Y0.54 Z-0.187 R0.75
X90.527 Y-0.486 Z-0.393 R0.75
X89.433 Y0.54 Z-0.599 R0.75
X90.527 Y-0.486 Z-0.805 R0.75
X89.53 Y0.627 Z-1. R0.75
X90.471 Y-0.627 R0.784
X89.53 Y0.627 R0.784
G2 X88.127 Y0.433 R1.462
G3 X87.079 Y-0.52 R0.792
G1 X87.266 Y-1.188
X87.283 Y-1.216
X87.683 Y-1.874
X88.269 Y-2.424
X89.003 Y-2.809
X89.796 Y-2.974
X90.618 Y-2.915
X91.362 Y-2.65
X92.032 Y-2.18
X92.046 Y-2.166
X92.547 Y-1.548
X92.872 Y-0.796
X92.981 Y0.
X92.872 Y0.796
X92.547 Y1.548
X92.035 Y2.178
X91.362 Y2.65
X90.618 Y2.915
X89.795 Y2.974
X89.002 Y2.809
X88.27 Y2.425
X87.683 Y1.874
X87.266 Y1.188
X87.047 Y0.406
Y-0.406
X87.079 Y-0.52
G3 X87.287 Y-0.666 R0.2
G1 X90.489 Y-0.416
G3 X90.653 Y-0.305 R0.2
X89.308 Y0.36 Z-1.206 R0.75
X90.653 Y-0.305 Z-1.412 R0.75
X89.308 Y0.36 Z-1.618 R0.75
X90.653 Y-0.305 Z-1.825 R0.75
X89.53 Y0.627 Z-2. R0.75
X90.471 Y-0.627 R0.784
X89.53 Y0.627 R0.784
G2 X88.127 Y0.433 R1.462
G3 X87.079 Y-0.52 R0.792
G1 X87.266 Y-1.188
X87.283 Y-1.216
X87.683 Y-1.874
X88.269 Y-2.424
X89.003 Y-2.809
X89.796 Y-2.974
X90.618 Y-2.915
X91.362 Y-2.65
X92.032 Y-2.18
X92.046 Y-2.166
X92.547 Y-1.548
X92.872 Y-0.796
X92.981 Y0.
X92.872 Y0.796
X92.547 Y1.548
X92.035 Y2.178
X91.362 Y2.65
X90.618 Y2.915
X89.795 Y2.974
X89.002 Y2.809
X88.27 Y2.425
X87.683 Y1.874
X87.266 Y1.188
X87.047 Y0.406
Y-0.406
X87.079 Y-0.52
G3 X87.287 Y-0.666 R0.2
G1 X90.489 Y-0.416
G3 X90.653 Y-0.305 R0.2
X89.308 Y0.36 Z-2.206 R0.75
X90.653 Y-0.305 Z-2.412 R0.75
X89.308 Y0.36 Z-2.618 R0.75
X90.653 Y-0.305 Z-2.825 R0.75
X89.53 Y0.627 Z-3. R0.75
X90.471 Y-0.627 R0.784
X89.53 Y0.627 R0.784
G2 X88.127 Y0.433 R1.462
G3 X87.079 Y-0.52 R0.792
G1 X87.266 Y-1.188
X87.283 Y-1.216
X87.683 Y-1.874
X88.269 Y-2.424
X89.003 Y-2.809
X89.796 Y-2.974
X90.618 Y-2.915
X91.362 Y-2.65
X92.032 Y-2.18
X92.046 Y-2.166
X92.547 Y-1.548
X92.872 Y-0.796
X92.981 Y0.
X92.872 Y0.796
X92.547 Y1.548
X92.035 Y2.178
X91.362 Y2.65
X90.618 Y2.915
X89.795 Y2.974
X89.002 Y2.809
X88.27 Y2.425
X87.683 Y1.874
X87.266 Y1.188
X87.047 Y0.406
Y-0.406
X87.079 Y-0.52
G3 X87.287 Y-0.666 R0.2
G1 X90.489 Y-0.416
G3 X90.653 Y-0.305 R0.2
X89.308 Y0.36 Z-3.206 R0.75
X90.653 Y-0.305 Z-3.412 R0.75
X89.308 Y0.36 Z-3.618 R0.75
X90.653 Y-0.305 Z-3.825 R0.75
X89.53 Y0.627 Z-4. R0.75
X90.471 Y-0.627 R0.784
X89.53 Y0.627 R0.784
G2 X88.127 Y0.433 R1.462
G3 X87.079 Y-0.52 R0.792
G1 X87.266 Y-1.188
X87.283 Y-1.216
X87.683 Y-1.874
X88.269 Y-2.424
X89.003 Y-2.809
X89.796 Y-2.974
X90.618 Y-2.915
X91.362 Y-2.65
X92.032 Y-2.18
X92.046 Y-2.166
X92.547 Y-1.548
X92.872 Y-0.796
X92.981 Y0.
X92.872 Y0.796
X92.547 Y1.548
X92.035 Y2.178
X91.362 Y2.65
X90.618 Y2.915
X89.795 Y2.974
X89.002 Y2.809
X88.27 Y2.425
X87.683 Y1.874
X87.266 Y1.188
X87.047 Y0.406
Y-0.406
X87.079 Y-0.52
G3 X87.287 Y-0.666 R0.2
G1 X90.489 Y-0.416
G3 X90.653 Y-0.305 R0.2
X89.308 Y0.36 Z-4.206 R0.75
X90.653 Y-0.305 Z-4.412 R0.75
X89.308 Y0.36 Z-4.618 R0.75
X90.653 Y-0.305 Z-4.825 R0.75
X89.53 Y0.627 Z-5. R0.75
X90.471 Y-0.627 R0.784
X89.53 Y0.627 R0.784
G2 X88.127 Y0.433 R1.462
G3 X87.079 Y-0.52 R0.792
G1 X87.266 Y-1.188
X87.283 Y-1.216
X87.683 Y-1.874
X88.269 Y-2.424
X89.003 Y-2.809
X89.796 Y-2.974
X90.618 Y-2.915
X91.362 Y-2.65
X92.032 Y-2.18
X92.046 Y-2.166
X92.547 Y-1.548
X92.872 Y-0.796
X92.981 Y0.
X92.872 Y0.796
X92.547 Y1.548
X92.035 Y2.178
X91.362 Y2.65
X90.618 Y2.915
X89.795 Y2.974
X89.002 Y2.809
X88.27 Y2.425
X87.683 Y1.874
X87.266 Y1.188
X87.047 Y0.406
Y-0.406
X87.079 Y-0.52
G3 X87.287 Y-0.666 R0.2
G1 X90.489 Y-0.416
G3 X90.653 Y-0.305 R0.2
X89.308 Y0.36 Z-5.206 R0.75
X90.653 Y-0.305 Z-5.412 R0.75
X89.308 Y0.36 Z-5.618 R0.75
X90.653 Y-0.305 Z-5.825 R0.75
X89.53 Y0.627 Z-6. R0.75
X90.471 Y-0.627 R0.784
X89.53 Y0.627 R0.784
G2 X88.127 Y0.433 R1.462
G3 X87.079 Y-0.52 R0.792
G1 X87.266 Y-1.188
X87.283 Y-1.216
X87.683 Y-1.874
X88.269 Y-2.424
X89.003 Y-2.809
X89.796 Y-2.974
X90.618 Y-2.915
X91.362 Y-2.65
X92.032 Y-2.18
X92.046 Y-2.166
X92.547 Y-1.548
X92.872 Y-0.796
X92.981 Y0.
X92.872 Y0.796
X92.547 Y1.548
X92.035 Y2.178
X91.362 Y2.65
X90.618 Y2.915
X89.795 Y2.974
X89.002 Y2.809
X88.27 Y2.425
X87.683 Y1.874
X87.266 Y1.188
X87.047 Y0.406
Y-0.406
X87.079 Y-0.52
G3 X87.287 Y-0.666 R0.2
G1 X90.489 Y-0.416
G3 X90.653 Y-0.305 R0.2
X89.308 Y0.36 Z-6.206 R0.75
X90.653 Y-0.305 Z-6.412 R0.75
X89.308 Y0.36 Z-6.618 R0.75
X90.653 Y-0.305 Z-6.825 R0.75
X89.53 Y0.627 Z-7. R0.75
X90.471 Y-0.627 R0.784
X89.53 Y0.627 R0.784
G2 X88.127 Y0.433 R1.462
G3 X87.079 Y-0.52 R0.792
G1 X87.266 Y-1.188
X87.283 Y-1.216
X87.683 Y-1.874
X88.269 Y-2.424
X89.003 Y-2.809
X89.796 Y-2.974
X90.618 Y-2.915
X91.362 Y-2.65
X92.032 Y-2.18
X92.046 Y-2.166
X92.547 Y-1.548
X92.872 Y-0.796
X92.981 Y0.
X92.872 Y0.796
X92.547 Y1.548
X92.035 Y2.178
X91.362 Y2.65
X90.618 Y2.915
X89.795 Y2.974
X89.002 Y2.809
X88.27 Y2.425
X87.683 Y1.874
X87.266 Y1.188
X87.047 Y0.406
Y-0.406
X87.079 Y-0.52
G3 X87.287 Y-0.666 R0.2
G1 X90.489 Y-0.416
G3 X90.653 Y-0.305 R0.2
X89.308 Y0.36 Z-7.206 R0.75
X90.653 Y-0.305 Z-7.412 R0.75
X89.308 Y0.36 Z-7.618 R0.75
X90.653 Y-0.305 Z-7.825 R0.75
X89.53 Y0.627 Z-8. R0.75
X90.471 Y-0.627 R0.784
X89.53 Y0.627 R0.784
G2 X88.127 Y0.433 R1.462
G3 X87.079 Y-0.52 R0.792
G1 X87.266 Y-1.188
X87.283 Y-1.216
X87.683 Y-1.874
X88.269 Y-2.424
X89.003 Y-2.809
X89.796 Y-2.974
X90.618 Y-2.915
X91.362 Y-2.65
X92.032 Y-2.18
X92.046 Y-2.166
X92.547 Y-1.548
X92.872 Y-0.796
X92.981 Y0.
X92.872 Y0.796
X92.547 Y1.548
X92.035 Y2.178
X91.362 Y2.65
X90.618 Y2.915
X89.795 Y2.974
X89.002 Y2.809
X88.27 Y2.425
X87.683 Y1.874
X87.266 Y1.188
X87.047 Y0.406
Y-0.406
X87.079 Y-0.52
G3 X87.287 Y-0.666 R0.2
G1 X90.489 Y-0.416
G3 X90.653 Y-0.305 R0.2
X89.308 Y0.36 Z-8.206 R0.75
X90.653 Y-0.305 Z-8.412 R0.75
X89.308 Y0.36 Z-8.618 R0.75
X90.653 Y-0.305 Z-8.825 R0.75
X89.53 Y0.627 Z-9. R0.75
X90.471 Y-0.627 R0.784
X89.53 Y0.627 R0.784
G2 X88.127 Y0.433 R1.462
G3 X87.079 Y-0.52 R0.792
G1 X87.266 Y-1.188
X87.283 Y-1.216
X87.683 Y-1.874
X88.269 Y-2.424
X89.003 Y-2.809
X89.796 Y-2.974
X90.618 Y-2.915
X91.362 Y-2.65
X92.032 Y-2.18
X92.046 Y-2.166
X92.547 Y-1.548
X92.872 Y-0.796
X92.981 Y0.
X92.872 Y0.796
X92.547 Y1.548
X92.035 Y2.178
X91.362 Y2.65
X90.618 Y2.915
X89.795 Y2.974
X89.002 Y2.809
X88.27 Y2.425
X87.683 Y1.874
X87.266 Y1.188
X87.047 Y0.406
Y-0.406
X87.079 Y-0.52
G3 X87.287 Y-0.666 R0.2
G1 X90.489 Y-0.416
G3 X90.653 Y-0.305 R0.2
X89.308 Y0.36 Z-9.206 R0.75
X90.653 Y-0.305 Z-9.412 R0.75
X89.308 Y0.36 Z-9.618 R0.75
X90.653 Y-0.305 Z-9.825 R0.75
X89.53 Y0.627 Z-10. R0.75
X90.471 Y-0.627 R0.784
X89.53 Y0.627 R0.784
G2 X88.127 Y0.433 R1.462
G3 X87.079 Y-0.52 R0.792
G1 X87.266 Y-1.188
X87.283 Y-1.216
X87.683 Y-1.874
X88.269 Y-2.424
X89.003 Y-2.809
X89.796 Y-2.974
X90.618 Y-2.915
X91.362 Y-2.65
X92.032 Y-2.18
X92.046 Y-2.166
X92.547 Y-1.548
X92.872 Y-0.796
X92.981 Y0.
X92.872 Y0.796
X92.547 Y1.548
X92.035 Y2.178
X91.362 Y2.65
X90.618 Y2.915
X89.795 Y2.974
X89.002 Y2.809
X88.27 Y2.425
X87.683 Y1.874
X87.266 Y1.188
X87.047 Y0.406
Y-0.406
X87.079 Y-0.52
G3 X87.287 Y-0.666 R0.2
G1 X90.489 Y-0.416
G3 X90.653 Y-0.305 R0.2
X89.308 Y0.36 Z-10.206 R0.75
X90.653 Y-0.305 Z-10.412 R0.75
X89.308 Y0.36 Z-10.618 R0.75
X90.653 Y-0.305 Z-10.825 R0.75
X89.53 Y0.627 Z-11. R0.75
X90.471 Y-0.627 R0.784
X89.53 Y0.627 R0.784
G2 X88.127 Y0.433 R1.462
G3 X87.079 Y-0.52 R0.792
G1 X87.266 Y-1.188
X87.283 Y-1.216
X87.683 Y-1.874
X88.269 Y-2.424
X89.003 Y-2.809
X89.796 Y-2.974
X90.618 Y-2.915
X91.362 Y-2.65
X92.032 Y-2.18
X92.046 Y-2.166
X92.547 Y-1.548
X92.872 Y-0.796
X92.981 Y0.
X92.872 Y0.796
X92.547 Y1.548
X92.035 Y2.178
X91.362 Y2.65
X90.618 Y2.915
X89.795 Y2.974
X89.002 Y2.809
X88.27 Y2.425
X87.683 Y1.874
X87.266 Y1.188
X87.047 Y0.406
Y-0.406
X87.079 Y-0.52
G3 X87.287 Y-0.666 R0.2
G1 X90.489 Y-0.416
G3 X90.653 Y-0.305 R0.2
X89.308 Y0.36 Z-11.206 R0.75
X90.653 Y-0.305 Z-11.412 R0.75
X89.308 Y0.36 Z-11.618 R0.75
X90.653 Y-0.305 Z-11.825 R0.75
X89.53 Y0.627 Z-12. R0.75
X90.471 Y-0.627 R0.784
X89.53 Y0.627 R0.784
G2 X88.127 Y0.433 R1.462
G3 X87.079 Y-0.52 R0.792
G1 X87.266 Y-1.188
X87.283 Y-1.216
X87.683 Y-1.874
X88.269 Y-2.424
X89.003 Y-2.809
X89.796 Y-2.974
X90.618 Y-2.915
X91.362 Y-2.65
X92.032 Y-2.18
X92.046 Y-2.166
X92.547 Y-1.548
X92.872 Y-0.796
X92.981 Y0.
X92.872 Y0.796
X92.547 Y1.548
X92.035 Y2.178
X91.362 Y2.65
X90.618 Y2.915
X89.795 Y2.974
X89.002 Y2.809
X88.27 Y2.425
X87.683 Y1.874
X87.266 Y1.188
X87.047 Y0.406
Y-0.406
X87.079 Y-0.52
G3 X87.287 Y-0.666 R0.2
G1 X90.489 Y-0.416
G3 X90.653 Y-0.305 R0.2
X89.308 Y0.36 Z-12.206 R0.75
X90.653 Y-0.305 Z-12.412 R0.75
X89.308 Y0.36 Z-12.618 R0.75
X90.653 Y-0.305 Z-12.825 R0.75
X89.53 Y0.627 Z-13. R0.75
X90.471 Y-0.627 R0.784
X89.53 Y0.627 R0.784
G2 X88.127 Y0.433 R1.462
G3 X87.079 Y-0.52 R0.792
G1 X87.266 Y-1.188
X87.283 Y-1.216
X87.683 Y-1.874
X88.269 Y-2.424
X89.003 Y-2.809
X89.796 Y-2.974
X90.618 Y-2.915
X91.362 Y-2.65
X92.032 Y-2.18
X92.046 Y-2.166
X92.547 Y-1.548
X92.872 Y-0.796
X92.981 Y0.
X92.872 Y0.796
X92.547 Y1.548
X92.035 Y2.178
X91.362 Y2.65
X90.618 Y2.915
X89.795 Y2.974
X89.002 Y2.809
X88.27 Y2.425
X87.683 Y1.874
X87.266 Y1.188
X87.047 Y0.406
Y-0.406
X87.079 Y-0.52
G3 X87.287 Y-0.666 R0.2
G1 X90.489 Y-0.416
G3 X90.653 Y-0.305 R0.2
X89.308 Y0.36 Z-13.206 R0.75
X90.653 Y-0.305 Z-13.412 R0.75
X89.308 Y0.36 Z-13.618 R0.75
X90.653 Y-0.305 Z-13.825 R0.75
X89.53 Y0.627 Z-14. R0.75
X90.471 Y-0.627 R0.784
X89.53 Y0.627 R0.784
G2 X88.127 Y0.433 R1.462
G3 X87.079 Y-0.52 R0.792
G1 X87.266 Y-1.188
X87.283 Y-1.216
X87.683 Y-1.874
X88.269 Y-2.424
X89.003 Y-2.809
X89.796 Y-2.974
X90.618 Y-2.915
X91.362 Y-2.65
X92.032 Y-2.18
X92.046 Y-2.166
X92.547 Y-1.548
X92.872 Y-0.796
X92.981 Y0.
X92.872 Y0.796
X92.547 Y1.548
X92.035 Y2.178
X91.362 Y2.65
X90.618 Y2.915
X89.795 Y2.974
X89.002 Y2.809
X88.27 Y2.425
X87.683 Y1.874
X87.266 Y1.188
X87.047 Y0.406
Y-0.406
X87.079 Y-0.52
G3 X87.287 Y-0.666 R0.2
G1 X90.489 Y-0.416
G3 X90.653 Y-0.305 R0.2
X89.308 Y0.36 Z-14.206 R0.75
X90.653 Y-0.305 Z-14.412 R0.75
X89.308 Y0.36 Z-14.618 R0.75
X90.653 Y-0.305 Z-14.825 R0.75
X89.53 Y0.627 Z-15. R0.75
X90.471 Y-0.627 R0.784
X89.53 Y0.627 R0.784
G2 X88.127 Y0.433 R1.462
G3 X87.079 Y-0.52 R0.792
G1 X87.266 Y-1.188
X87.283 Y-1.216
X87.683 Y-1.874
X88.269 Y-2.424
X89.003 Y-2.809
X89.796 Y-2.974
X90.618 Y-2.915
X91.362 Y-2.65
X92.032 Y-2.18
X92.046 Y-2.166
X92.547 Y-1.548
X92.872 Y-0.796
X92.981 Y0.
X92.872 Y0.796
X92.547 Y1.548
X92.035 Y2.178
X91.362 Y2.65
X90.618 Y2.915
X89.795 Y2.974
X89.002 Y2.809
X88.27 Y2.425
X87.683 Y1.874
X87.266 Y1.188
X87.047 Y0.406
Y-0.406
X87.079 Y-0.52
G3 X87.287 Y-0.666 R0.2
G1 X90.489 Y-0.416
G3 X90.653 Y-0.305 R0.2
X89.308 Y0.36 Z-15.206 R0.75
X90.653 Y-0.305 Z-15.412 R0.75
X89.308 Y0.36 Z-15.618 R0.75
X90.653 Y-0.305 Z-15.825 R0.75
X89.53 Y0.627 Z-16. R0.75
X90.471 Y-0.627 R0.784
X89.53 Y0.627 R0.784
G2 X88.127 Y0.433 R1.462
G3 X87.079 Y-0.52 R0.792
G1 X87.266 Y-1.188
X87.283 Y-1.216
X87.683 Y-1.874
X88.269 Y-2.424
X89.003 Y-2.809
X89.796 Y-2.974
X90.618 Y-2.915
X91.362 Y-2.65
X92.032 Y-2.18
X92.046 Y-2.166
X92.547 Y-1.548
X92.872 Y-0.796
X92.981 Y0.
X92.872 Y0.796
X92.547 Y1.548
X92.035 Y2.178
X91.362 Y2.65
X90.618 Y2.915
X89.795 Y2.974
X89.002 Y2.809
X88.27 Y2.425
X87.683 Y1.874
X87.266 Y1.188
X87.047 Y0.406
Y-0.406
X87.079 Y-0.52
G3 X87.287 Y-0.666 R0.2
G1 X90.489 Y-0.416
G3 X90.653 Y-0.305 R0.2
X89.308 Y0.36 Z-16.206 R0.75
X90.653 Y-0.305 Z-16.412 R0.75
X89.308 Y0.36 Z-16.618 R0.75
X90.653 Y-0.305 Z-16.825 R0.75
X89.53 Y0.627 Z-17. R0.75
X90.471 Y-0.627 R0.784
X89.53 Y0.627 R0.784
G2 X88.127 Y0.433 R1.462
G3 X87.079 Y-0.52 R0.792
G1 X87.266 Y-1.188
X87.283 Y-1.216
X87.683 Y-1.874
X88.269 Y-2.424
X89.003 Y-2.809
X89.796 Y-2.974
X90.618 Y-2.915
X91.362 Y-2.65
X92.032 Y-2.18
X92.046 Y-2.166
X92.547 Y-1.548
X92.872 Y-0.796
X92.981 Y0.
X92.872 Y0.796
X92.547 Y1.548
X92.035 Y2.178
X91.362 Y2.65
X90.618 Y2.915
X89.795 Y2.974
X89.002 Y2.809
X88.27 Y2.425
X87.683 Y1.874
X87.266 Y1.188
X87.047 Y0.406
Y-0.406
X87.079 Y-0.52
G3 X87.287 Y-0.666 R0.2
G1 X90.489 Y-0.416
G3 X90.653 Y-0.305 R0.2
X89.308 Y0.36 Z-17.206 R0.75
X90.653 Y-0.305 Z-17.412 R0.75
X89.308 Y0.36 Z-17.618 R0.75
X90.653 Y-0.305 Z-17.825 R0.75
X89.53 Y0.627 Z-18. R0.75
X90.471 Y-0.627 R0.784
X89.53 Y0.627 R0.784
G2 X88.127 Y0.433 R1.462
G3 X87.079 Y-0.52 R0.792
G1 X87.266 Y-1.188
X87.283 Y-1.216
X87.683 Y-1.874
X88.269 Y-2.424
X89.003 Y-2.809
X89.796 Y-2.974
X90.618 Y-2.915
X91.362 Y-2.65
X92.032 Y-2.18
X92.046 Y-2.166
X92.547 Y-1.548
X92.872 Y-0.796
X92.981 Y0.
X92.872 Y0.796
X92.547 Y1.548
X92.035 Y2.178
X91.362 Y2.65
X90.618 Y2.915
X89.795 Y2.974
X89.002 Y2.809
X88.27 Y2.425
X87.683 Y1.874
X87.266 Y1.188
X87.047 Y0.406
Y-0.406
X87.079 Y-0.52
G3 X87.287 Y-0.666 R0.2
G1 X90.489 Y-0.416
G3 X90.653 Y-0.305 R0.2
X89.308 Y0.36 Z-18.206 R0.75
X90.653 Y-0.305 Z-18.412 R0.75
X89.308 Y0.36 Z-18.618 R0.75
X90.653 Y-0.305 Z-18.825 R0.75
X89.53 Y0.627 Z-19. R0.75
X90.471 Y-0.627 R0.784
X89.53 Y0.627 R0.784
G2 X88.127 Y0.433 R1.462
G3 X87.079 Y-0.52 R0.792
G1 X87.266 Y-1.188
X87.283 Y-1.216
X87.683 Y-1.874
X88.269 Y-2.424
X89.003 Y-2.809
X89.796 Y-2.974
X90.618 Y-2.915
X91.362 Y-2.65
X92.032 Y-2.18
X92.046 Y-2.166
X92.547 Y-1.548
X92.872 Y-0.796
X92.981 Y0.
X92.872 Y0.796
X92.547 Y1.548
X92.035 Y2.178
X91.362 Y2.65
X90.618 Y2.915
X89.795 Y2.974
X89.002 Y2.809
X88.27 Y2.425
X87.683 Y1.874
X87.266 Y1.188
X87.047 Y0.406
Y-0.406
X87.079 Y-0.52
G3 X87.287 Y-0.666 R0.2
G1 X90.489 Y-0.416
G3 X90.653 Y-0.305 R0.2
X89.308 Y0.36 Z-19.206 R0.75
X90.653 Y-0.305 Z-19.412 R0.75
X89.308 Y0.36 Z-19.618 R0.75
X90.653 Y-0.305 Z-19.825 R0.75
X89.53 Y0.627 Z-20. R0.75
X90.471 Y-0.627 R0.784
X89.53 Y0.627 R0.784
G2 X88.127 Y0.433 R1.462
G3 X87.079 Y-0.52 R0.792
G1 X87.266 Y-1.188
X87.283 Y-1.216
X87.683 Y-1.874
X88.269 Y-2.424
X89.003 Y-2.809
X89.796 Y-2.974
X90.618 Y-2.915
X91.362 Y-2.65
X92.032 Y-2.18
X92.046 Y-2.166
X92.547 Y-1.548
X92.872 Y-0.796
X92.981 Y0.
X92.872 Y0.796
X92.547 Y1.548
X92.035 Y2.178
X91.362 Y2.65
X90.618 Y2.915
X89.795 Y2.974
X89.002 Y2.809
X88.27 Y2.425
X87.683 Y1.874
X87.266 Y1.188
X87.047 Y0.406
Y-0.406
X87.079 Y-0.52
G3 X87.287 Y-0.666 R0.2
G1 X90.489 Y-0.416
G3 X90.653 Y-0.305 R0.2
X89.308 Y0.36 Z-20.206 R0.75
X90.653 Y-0.305 Z-20.412 R0.75
X89.308 Y0.36 Z-20.618 R0.75
X90.653 Y-0.305 Z-20.825 R0.75
X89.53 Y0.627 Z-21. R0.75
X90.471 Y-0.627 R0.784
X89.53 Y0.627 R0.784
G2 X88.127 Y0.433 R1.462
G3 X87.079 Y-0.52 R0.792
G1 X87.266 Y-1.188
X87.283 Y-1.216
X87.683 Y-1.874
X88.269 Y-2.424
X89.003 Y-2.809
X89.796 Y-2.974
X90.618 Y-2.915
X91.362 Y-2.65
X92.032 Y-2.18
X92.046 Y-2.166
X92.547 Y-1.548
X92.872 Y-0.796
X92.981 Y0.
X92.872 Y0.796
X92.547 Y1.548
X92.035 Y2.178
X91.362 Y2.65
X90.618 Y2.915
X89.795 Y2.974
X89.002 Y2.809
X88.27 Y2.425
X87.683 Y1.874
X87.266 Y1.188
X87.047 Y0.406
Y-0.406
X87.079 Y-0.52
G3 X87.326 Y-0.658 R0.2
G1 X89.233 Y-0.113
G2 X89.48 Y-0.249 R0.2
G3 X90.918 Y0.176 Z-21.206 R0.75
X89.48 Y-0.249 Z-21.412 R0.75
X90.918 Y0.176 Z-21.618 R0.75
X89.48 Y-0.249 Z-21.825 R0.75
X90.937 Y-0.171 Z-22. R0.75
G1 X90.968 Y0.
X90.906 Y0.34
X90.743 Y0.622
X90.481 Y0.841
X90.168 Y0.954
X89.833
X89.512 Y0.837
X89.258 Y0.623
X89.094 Y0.34
X89.032 Y0.
X89.094 Y-0.34
X89.258 Y-0.623
X89.512 Y-0.837
X89.833 Y-0.954
X90.168
X90.481 Y-0.841
X90.743 Y-0.622
X90.906 Y-0.34
X90.937 Y-0.171
G3 X90.729 Y0.064 R0.2
G1 X89.661 Y0.008
G3 X89.48 Y-0.249 R0.2
X90.918 Y0.176 Z-22.206 R0.75
X89.48 Y-0.249 Z-22.412 R0.75
X90.918 Y0.176 Z-22.618 R0.75
X89.48 Y-0.249 Z-22.825 R0.75
X90.937 Y-0.171 Z-23. R0.75
G1 X90.968 Y0.
X90.906 Y0.34
X90.743 Y0.622
X90.481 Y0.841
X90.168 Y0.954
X89.833
X89.512 Y0.837
X89.258 Y0.623
X89.094 Y0.34
X89.032 Y0.
X89.094 Y-0.34
X89.258 Y-0.623
X89.512 Y-0.837
X89.833 Y-0.954
X90.168
X90.481 Y-0.841
X90.743 Y-0.622
X90.906 Y-0.34
X90.937 Y-0.171
G3 X90.729 Y0.064 R0.2
G1 X89.661 Y0.008
G3 X89.48 Y-0.249 R0.2
X90.918 Y0.176 Z-23.206 R0.75
X89.48 Y-0.249 Z-23.412 R0.75
X90.918 Y0.176 Z-23.618 R0.75
X89.48 Y-0.249 Z-23.825 R0.75
X90.937 Y-0.171 Z-24. R0.75
G1 X90.968 Y0.
X90.906 Y0.34
X90.743 Y0.622
X90.481 Y0.841
X90.168 Y0.954
X89.833
X89.512 Y0.837
X89.258 Y0.623
X89.094 Y0.34
X89.032 Y0.
X89.094 Y-0.34
X89.258 Y-0.623
X89.512 Y-0.837
X89.833 Y-0.954
X90.168
X90.481 Y-0.841
X90.743 Y-0.622
X90.906 Y-0.34
X90.937 Y-0.171
G3 X90.729 Y0.064 R0.2
G1 X89.661 Y0.008
G3 X89.48 Y-0.249 R0.2
X90.918 Y0.176 Z-24.206 R0.75
X89.48 Y-0.249 Z-24.412 R0.75
X90.918 Y0.176 Z-24.618 R0.75
X89.48 Y-0.249 Z-24.825 R0.75
X90.937 Y-0.171 Z-25. R0.75
G1 X90.968 Y0.
X90.906 Y0.34
X90.743 Y0.622
X90.481 Y0.841
X90.168 Y0.954
X89.833
X89.512 Y0.837
X89.258 Y0.623
X89.094 Y0.34
X89.032 Y0.
X89.094 Y-0.34
X89.258 Y-0.623
X89.512 Y-0.837
X89.833 Y-0.954
X90.168
X90.481 Y-0.841
X90.743 Y-0.622
X90.906 Y-0.34
X90.937 Y-0.171
G3 X90.94 Y-0.048 Z-24.98 R0.4
X90.91 Y0.059 Z-24.924 R0.4
X90.867 Y0.136 Z-24.835 R0.4
X90.83 Y0.179 Z-24.724 R0.4
X90.816 Y0.193 Z-24.6 R0.4
G0 Z5.
X90.004 Y-129.17
Z1.448
G3 X89.989 Y-129.175 Z1.336 R0.75 F350.
X89.945 Y-129.193 Z1.232 R0.75
X89.878 Y-129.227 Z1.146 R0.75
X89.798 Y-129.279 Z1.084 R0.75
X89.748 Y-129.32 Z1.062 R0.75
X89.701 Y-129.366 Z1.05 R0.75
X90.794 Y-130.392 Z0.844 R0.75
X89.701 Y-129.366 Z0.638 R0.75
X90.794 Y-130.392 Z0.432 R0.75
X89.701 Y-129.366 Z0.225 R0.75
X90.794 Y-130.392 Z0.019 R0.75
X89.701 Y-129.366 Z-0.187 R0.75
X90.794 Y-130.392 Z-0.393 R0.75
X89.701 Y-129.366 Z-0.599 R0.75
X90.794 Y-130.392 Z-0.805 R0.75
X89.798 Y-129.279 Z-1. R0.75
X90.205 Y-129.823 R0.34
X89.798 Y-129.279 R0.34
G2 X87.742 Y-129.63 R2.282
G3 X86.42 Y-131.242 R1.123
G1 X86.769 Y-131.878
X87.459 Y-132.617
X88.302 Y-133.154
X89.255 Y-133.464
X90.244 Y-133.526
X90.281 Y-133.52
X91.221 Y-133.341
X91.293 Y-133.31
X92.134 Y-132.914
X92.909 Y-132.27
X93.496 Y-131.458
X93.859 Y-130.541
X93.983 Y-129.56
X93.859 Y-128.565
X93.489 Y-127.629
X92.891 Y-126.812
X92.122 Y-126.18
X91.231 Y-125.761
X90.258 Y-125.575
X89.254 Y-125.637
X88.302 Y-125.946
X87.475 Y-126.471
X86.776 Y-127.209
X86.304 Y-128.067
X86.047 Y-129.069
Y-130.049
X86.296 Y-131.016
X86.302 Y-131.028
X86.42 Y-131.242
G3 X86.643 Y-131.34 R0.2
G1 X90.788 Y-130.317
G3 X90.92 Y-130.212 R0.2
X90.998 Y-129.879 Z-1.03 R0.75
X89.498 Z-1.236 R0.75
X90.998 Z-1.442 R0.75
X89.498 Z-1.649 R0.75
X90.998 Z-1.855 R0.75
X89.798 Y-129.279 Z-2. R0.75
X90.205 Y-129.823 R0.34
X89.798 Y-129.279 R0.34
G2 X87.742 Y-129.63 R2.282
G3 X86.42 Y-131.242 R1.123
G1 X86.769 Y-131.878
X87.459 Y-132.617
X88.302 Y-133.154
X89.255 Y-133.464
X90.244 Y-133.526
X90.281 Y-133.52
X91.221 Y-133.341
X91.293 Y-133.31
X92.134 Y-132.914
X92.909 Y-132.27
X93.496 Y-131.458
X93.859 Y-130.541
X93.983 Y-129.56
X93.859 Y-128.565
X93.489 Y-127.629
X92.891 Y-126.812
X92.122 Y-126.18
X91.231 Y-125.761
X90.258 Y-125.575
X89.254 Y-125.637
X88.302 Y-125.946
X87.475 Y-126.471
X86.776 Y-127.209
X86.304 Y-128.067
X86.047 Y-129.069
Y-130.049
X86.296 Y-131.016
X86.302 Y-131.028
X86.42 Y-131.242
G3 X86.643 Y-131.34 R0.2
G1 X90.788 Y-130.317
G3 X90.92 Y-130.212 R0.2
X90.998 Y-129.879 Z-2.03 R0.75
X89.498 Z-2.236 R0.75
X90.998 Z-2.442 R0.75
X89.498 Z-2.649 R0.75
X90.998 Z-2.855 R0.75
X89.798 Y-129.279 Z-3. R0.75
X90.205 Y-129.823 R0.34
X89.798 Y-129.279 R0.34
G2 X87.742 Y-129.63 R2.282
G3 X86.42 Y-131.242 R1.123
G1 X86.769 Y-131.878
X87.459 Y-132.617
X88.302 Y-133.154
X89.255 Y-133.464
X90.244 Y-133.526
X90.281 Y-133.52
X91.221 Y-133.341
X91.293 Y-133.31
X92.134 Y-132.914
X92.909 Y-132.27
X93.496 Y-131.458
X93.859 Y-130.541
X93.983 Y-129.56
X93.859 Y-128.565
X93.489 Y-127.629
X92.891 Y-126.812
X92.122 Y-126.18
X91.231 Y-125.761
X90.258 Y-125.575
X89.254 Y-125.637
X88.302 Y-125.946
X87.475 Y-126.471
X86.776 Y-127.209
X86.304 Y-128.067
X86.047 Y-129.069
Y-130.049
X86.296 Y-131.016
X86.302 Y-131.028
X86.42 Y-131.242
G3 X86.643 Y-131.34 R0.2
G1 X90.788 Y-130.317
G3 X90.92 Y-130.212 R0.2
X90.998 Y-129.879 Z-3.03 R0.75
X89.498 Z-3.236 R0.75
X90.998 Z-3.442 R0.75
X89.498 Z-3.649 R0.75
X90.998 Z-3.855 R0.75
X89.798 Y-129.279 Z-4. R0.75
X90.205 Y-129.823 R0.34
X89.798 Y-129.279 R0.34
G2 X87.742 Y-129.63 R2.282
G3 X86.42 Y-131.242 R1.123
G1 X86.769 Y-131.878
X87.459 Y-132.617
X88.302 Y-133.154
X89.255 Y-133.464
X90.244 Y-133.526
X90.281 Y-133.52
X91.221 Y-133.341
X91.293 Y-133.31
X92.134 Y-132.914
X92.909 Y-132.27
X93.496 Y-131.458
X93.859 Y-130.541
X93.983 Y-129.56
X93.859 Y-128.565
X93.489 Y-127.629
X92.891 Y-126.812
X92.122 Y-126.18
X91.231 Y-125.761
X90.258 Y-125.575
X89.254 Y-125.637
X88.302 Y-125.946
X87.475 Y-126.471
X86.776 Y-127.209
X86.304 Y-128.067
X86.047 Y-129.069
Y-130.049
X86.296 Y-131.016
X86.302 Y-131.028
X86.42 Y-131.242
G3 X86.643 Y-131.34 R0.2
G1 X90.788 Y-130.317
G3 X90.92 Y-130.212 R0.2
X90.998 Y-129.879 Z-4.03 R0.75
X89.498 Z-4.236 R0.75
X90.998 Z-4.442 R0.75
X89.498 Z-4.649 R0.75
X90.998 Z-4.855 R0.75
X89.798 Y-129.279 Z-5. R0.75
X90.205 Y-129.823 R0.34
X89.798 Y-129.279 R0.34
G2 X87.742 Y-129.63 R2.282
G3 X86.42 Y-131.242 R1.123
G1 X86.769 Y-131.878
X87.459 Y-132.617
X88.302 Y-133.154
X89.255 Y-133.464
X90.244 Y-133.526
X90.281 Y-133.52
X91.221 Y-133.341
X91.293 Y-133.31
X92.134 Y-132.914
X92.909 Y-132.27
X93.496 Y-131.458
X93.859 Y-130.541
X93.983 Y-129.56
X93.859 Y-128.565
X93.489 Y-127.629
X92.891 Y-126.812
X92.122 Y-126.18
X91.231 Y-125.761
X90.258 Y-125.575
X89.254 Y-125.637
X88.302 Y-125.946
X87.475 Y-126.471
X86.776 Y-127.209
X86.304 Y-128.067
X86.047 Y-129.069
Y-130.049
X86.296 Y-131.016
X86.302 Y-131.028
X86.42 Y-131.242
G3 X86.643 Y-131.34 R0.2
G1 X90.788 Y-130.317
G3 X90.92 Y-130.212 R0.2
X90.998 Y-129.879 Z-5.03 R0.75
X89.498 Z-5.236 R0.75
X90.998 Z-5.442 R0.75
X89.498 Z-5.649 R0.75
X90.998 Z-5.855 R0.75
X89.798 Y-129.279 Z-6. R0.75
X90.205 Y-129.823 R0.34
X89.798 Y-129.279 R0.34
G2 X87.742 Y-129.63 R2.282
G3 X86.42 Y-131.242 R1.123
G1 X86.769 Y-131.878
X87.459 Y-132.617
X88.302 Y-133.154
X89.255 Y-133.464
X90.244 Y-133.526
X90.281 Y-133.52
X91.221 Y-133.341
X91.293 Y-133.31
X92.134 Y-132.914
X92.909 Y-132.27
X93.496 Y-131.458
X93.859 Y-130.541
X93.983 Y-129.56
X93.859 Y-128.565
X93.489 Y-127.629
X92.891 Y-126.812
X92.122 Y-126.18
X91.231 Y-125.761
X90.258 Y-125.575
X89.254 Y-125.637
X88.302 Y-125.946
X87.475 Y-126.471
X86.776 Y-127.209
X86.304 Y-128.067
X86.047 Y-129.069
Y-130.049
X86.296 Y-131.016
X86.302 Y-131.028
X86.42 Y-131.242
G3 X86.643 Y-131.34 R0.2
G1 X90.788 Y-130.317
G3 X90.92 Y-130.212 R0.2
X90.998 Y-129.879 Z-6.03 R0.75
X89.498 Z-6.236 R0.75
X90.998 Z-6.442 R0.75
X89.498 Z-6.649 R0.75
X90.998 Z-6.855 R0.75
X89.798 Y-129.279 Z-7. R0.75
X90.205 Y-129.823 R0.34
X89.798 Y-129.279 R0.34
G2 X87.742 Y-129.63 R2.282
G3 X86.42 Y-131.242 R1.123
G1 X86.769 Y-131.878
X87.459 Y-132.617
X88.302 Y-133.154
X89.255 Y-133.464
X90.244 Y-133.526
X90.281 Y-133.52
X91.221 Y-133.341
X91.293 Y-133.31
X92.134 Y-132.914
X92.909 Y-132.27
X93.496 Y-131.458
X93.859 Y-130.541
X93.983 Y-129.56
X93.859 Y-128.565
X93.489 Y-127.629
X92.891 Y-126.812
X92.122 Y-126.18
X91.231 Y-125.761
X90.258 Y-125.575
X89.254 Y-125.637
X88.302 Y-125.946
X87.475 Y-126.471
X86.776 Y-127.209
X86.304 Y-128.067
X86.047 Y-129.069
Y-130.049
X86.296 Y-131.016
X86.302 Y-131.028
X86.42 Y-131.242
G3 X86.643 Y-131.34 R0.2
G1 X90.788 Y-130.317
G3 X90.92 Y-130.212 R0.2
X90.998 Y-129.879 Z-7.03 R0.75
X89.498 Z-7.236 R0.75
X90.998 Z-7.442 R0.75
X89.498 Z-7.649 R0.75
X90.998 Z-7.855 R0.75
X89.798 Y-129.279 Z-8. R0.75
X90.205 Y-129.823 R0.34
X89.798 Y-129.279 R0.34
G2 X87.742 Y-129.63 R2.282
G3 X86.42 Y-131.242 R1.123
G1 X86.769 Y-131.878
X87.459 Y-132.617
X88.302 Y-133.154
X89.255 Y-133.464
X90.244 Y-133.526
X90.281 Y-133.52
X91.221 Y-133.341
X91.293 Y-133.31
X92.134 Y-132.914
X92.909 Y-132.27
X93.496 Y-131.458
X93.859 Y-130.541
X93.983 Y-129.56
X93.859 Y-128.565
X93.489 Y-127.629
X92.891 Y-126.812
X92.122 Y-126.18
X91.231 Y-125.761
X90.258 Y-125.575
X89.254 Y-125.637
X88.302 Y-125.946
X87.475 Y-126.471
X86.776 Y-127.209
X86.304 Y-128.067
X86.047 Y-129.069
Y-130.049
X86.296 Y-131.016
X86.302 Y-131.028
X86.42 Y-131.242
G3 X86.643 Y-131.34 R0.2
G1 X90.788 Y-130.317
G3 X90.92 Y-130.212 R0.2
X90.998 Y-129.879 Z-8.03 R0.75
X89.498 Z-8.236 R0.75
X90.998 Z-8.442 R0.75
X89.498 Z-8.649 R0.75
X90.998 Z-8.855 R0.75
X89.798 Y-129.279 Z-9. R0.75
X90.205 Y-129.823 R0.34
X89.798 Y-129.279 R0.34
G2 X87.742 Y-129.63 R2.282
G3 X86.42 Y-131.242 R1.123
G1 X86.769 Y-131.878
X87.459 Y-132.617
X88.302 Y-133.154
X89.255 Y-133.464
X90.244 Y-133.526
X90.281 Y-133.52
X91.221 Y-133.341
X91.293 Y-133.31
X92.134 Y-132.914
X92.909 Y-132.27
X93.496 Y-131.458
X93.859 Y-130.541
X93.983 Y-129.56
X93.859 Y-128.565
X93.489 Y-127.629
X92.891 Y-126.812
X92.122 Y-126.18
X91.231 Y-125.761
X90.258 Y-125.575
X89.254 Y-125.637
X88.302 Y-125.946
X87.475 Y-126.471
X86.776 Y-127.209
X86.304 Y-128.067
X86.047 Y-129.069
Y-130.049
X86.296 Y-131.016
X86.302 Y-131.028
X86.42 Y-131.242
G3 X86.643 Y-131.34 R0.2
G1 X90.788 Y-130.317
G3 X90.92 Y-130.212 R0.2
X90.998 Y-129.879 Z-9.03 R0.75
X89.498 Z-9.236 R0.75
X90.998 Z-9.442 R0.75
X89.498 Z-9.649 R0.75
X90.998 Z-9.855 R0.75
X89.798 Y-129.279 Z-10. R0.75
X90.205 Y-129.823 R0.34
X89.798 Y-129.279 R0.34
G2 X87.742 Y-129.63 R2.282
G3 X86.42 Y-131.242 R1.123
G1 X86.769 Y-131.878
X87.459 Y-132.617
X88.302 Y-133.154
X89.255 Y-133.464
X90.244 Y-133.526
X90.281 Y-133.52
X91.221 Y-133.341
X91.293 Y-133.31
X92.134 Y-132.914
X92.909 Y-132.27
X93.496 Y-131.458
X93.859 Y-130.541
X93.983 Y-129.56
X93.859 Y-128.565
X93.489 Y-127.629
X92.891 Y-126.812
X92.122 Y-126.18
X91.231 Y-125.761
X90.258 Y-125.575
X89.254 Y-125.637
X88.302 Y-125.946
X87.475 Y-126.471
X86.776 Y-127.209
X86.304 Y-128.067
X86.047 Y-129.069
Y-130.049
X86.296 Y-131.016
X86.302 Y-131.028
X86.42 Y-131.242
G3 X86.643 Y-131.34 R0.2
G1 X90.788 Y-130.317
G3 X90.92 Y-130.212 R0.2
X90.998 Y-129.879 Z-10.03 R0.75
X89.498 Z-10.236 R0.75
X90.998 Z-10.442 R0.75
X89.498 Z-10.649 R0.75
X90.998 Z-10.855 R0.75
X89.798 Y-129.279 Z-11. R0.75
X90.205 Y-129.823 R0.34
X89.798 Y-129.279 R0.34
G2 X87.742 Y-129.63 R2.282
G3 X86.42 Y-131.242 R1.123
G1 X86.769 Y-131.878
X87.459 Y-132.617
X88.302 Y-133.154
X89.255 Y-133.464
X90.244 Y-133.526
X90.281 Y-133.52
X91.221 Y-133.341
X91.293 Y-133.31
X92.134 Y-132.914
X92.909 Y-132.27
X93.496 Y-131.458
X93.859 Y-130.541
X93.983 Y-129.56
X93.859 Y-128.565
X93.489 Y-127.629
X92.891 Y-126.812
X92.122 Y-126.18
X91.231 Y-125.761
X90.258 Y-125.575
X89.254 Y-125.637
X88.302 Y-125.946
X87.475 Y-126.471
X86.776 Y-127.209
X86.304 Y-128.067
X86.047 Y-129.069
Y-130.049
X86.296 Y-131.016
X86.302 Y-131.028
X86.42 Y-131.242
G3 X86.643 Y-131.34 R0.2
G1 X90.788 Y-130.317
G3 X90.92 Y-130.212 R0.2
X90.998 Y-129.879 Z-11.03 R0.75
X89.498 Z-11.236 R0.75
X90.998 Z-11.442 R0.75
X89.498 Z-11.649 R0.75
X90.998 Z-11.855 R0.75
X89.798 Y-129.279 Z-12. R0.75
X90.205 Y-129.823 R0.34
X89.798 Y-129.279 R0.34
G2 X87.742 Y-129.63 R2.282
G3 X86.42 Y-131.242 R1.123
G1 X86.769 Y-131.878
X87.459 Y-132.617
X88.302 Y-133.154
X89.255 Y-133.464
X90.244 Y-133.526
X90.281 Y-133.52
X91.221 Y-133.341
X91.293 Y-133.31
X92.134 Y-132.914
X92.909 Y-132.27
X93.496 Y-131.458
X93.859 Y-130.541
X93.983 Y-129.56
X93.859 Y-128.565
X93.489 Y-127.629
X92.891 Y-126.812
X92.122 Y-126.18
X91.231 Y-125.761
X90.258 Y-125.575
X89.254 Y-125.637
X88.302 Y-125.946
X87.475 Y-126.471
X86.776 Y-127.209
X86.304 Y-128.067
X86.047 Y-129.069
Y-130.049
X86.296 Y-131.016
X86.302 Y-131.028
X86.42 Y-131.242
G3 X86.643 Y-131.34 R0.2
G1 X90.788 Y-130.317
G3 X90.92 Y-130.212 R0.2
X90.998 Y-129.879 Z-12.03 R0.75
X89.498 Z-12.236 R0.75
X90.998 Z-12.442 R0.75
X89.498 Z-12.649 R0.75
X90.998 Z-12.855 R0.75
X89.798 Y-129.279 Z-13. R0.75
X90.205 Y-129.823 R0.34
X89.798 Y-129.279 R0.34
G2 X87.742 Y-129.63 R2.282
G3 X86.42 Y-131.242 R1.123
G1 X86.769 Y-131.878
X87.459 Y-132.617
X88.302 Y-133.154
X89.255 Y-133.464
X90.244 Y-133.526
X90.281 Y-133.52
X91.221 Y-133.341
X91.293 Y-133.31
X92.134 Y-132.914
X92.909 Y-132.27
X93.496 Y-131.458
X93.859 Y-130.541
X93.983 Y-129.56
X93.859 Y-128.565
X93.489 Y-127.629
X92.891 Y-126.812
X92.122 Y-126.18
X91.231 Y-125.761
X90.258 Y-125.575
X89.254 Y-125.637
X88.302 Y-125.946
X87.475 Y-126.471
X86.776 Y-127.209
X86.304 Y-128.067
X86.047 Y-129.069
Y-130.049
X86.296 Y-131.016
X86.302 Y-131.028
X86.42 Y-131.242
G3 X86.643 Y-131.34 R0.2
G1 X90.788 Y-130.317
G3 X90.92 Y-130.212 R0.2
X90.998 Y-129.879 Z-13.03 R0.75
X89.498 Z-13.236 R0.75
X90.998 Z-13.442 R0.75
X89.498 Z-13.649 R0.75
X90.998 Z-13.855 R0.75
X89.798 Y-129.279 Z-14. R0.75
X90.205 Y-129.823 R0.34
X89.798 Y-129.279 R0.34
G2 X87.742 Y-129.63 R2.282
G3 X86.42 Y-131.242 R1.123
G1 X86.769 Y-131.878
X87.459 Y-132.617
X88.302 Y-133.154
X89.255 Y-133.464
X90.244 Y-133.526
X90.281 Y-133.52
X91.221 Y-133.341
X91.293 Y-133.31
X92.134 Y-132.914
X92.909 Y-132.27
X93.496 Y-131.458
X93.859 Y-130.541
X93.983 Y-129.56
X93.859 Y-128.565
X93.489 Y-127.629
X92.891 Y-126.812
X92.122 Y-126.18
X91.231 Y-125.761
X90.258 Y-125.575
X89.254 Y-125.637
X88.302 Y-125.946
X87.475 Y-126.471
X86.776 Y-127.209
X86.304 Y-128.067
X86.047 Y-129.069
Y-130.049
X86.296 Y-131.016
X86.302 Y-131.028
X86.42 Y-131.242
G3 X86.643 Y-131.34 R0.2
G1 X90.788 Y-130.317
G3 X90.92 Y-130.212 R0.2
X90.998 Y-129.879 Z-14.03 R0.75
X89.498 Z-14.236 R0.75
X90.998 Z-14.442 R0.75
X89.498 Z-14.649 R0.75
X90.998 Z-14.855 R0.75
X89.798 Y-129.279 Z-15. R0.75
X90.205 Y-129.823 R0.34
X89.798 Y-129.279 R0.34
G2 X87.742 Y-129.63 R2.282
G3 X86.42 Y-131.242 R1.123
G1 X86.769 Y-131.878
X87.459 Y-132.617
X88.302 Y-133.154
X89.255 Y-133.464
X90.244 Y-133.526
X90.281 Y-133.52
X91.221 Y-133.341
X91.293 Y-133.31
X92.134 Y-132.914
X92.909 Y-132.27
X93.496 Y-131.458
X93.859 Y-130.541
X93.983 Y-129.56
X93.859 Y-128.565
X93.489 Y-127.629
X92.891 Y-126.812
X92.122 Y-126.18
X91.231 Y-125.761
X90.258 Y-125.575
X89.254 Y-125.637
X88.302 Y-125.946
X87.475 Y-126.471
X86.776 Y-127.209
X86.304 Y-128.067
X86.047 Y-129.069
Y-130.049
X86.296 Y-131.016
X86.302 Y-131.028
X86.42 Y-131.242
G3 X86.643 Y-131.34 R0.2
G1 X90.788 Y-130.317
G3 X90.92 Y-130.212 R0.2
X90.998 Y-129.879 Z-15.03 R0.75
X89.498 Z-15.236 R0.75
X90.998 Z-15.442 R0.75
X89.498 Z-15.649 R0.75
X90.998 Z-15.855 R0.75
X89.798 Y-129.279 Z-16. R0.75
X90.205 Y-129.823 R0.34
X89.798 Y-129.279 R0.34
G2 X87.742 Y-129.63 R2.282
G3 X86.42 Y-131.242 R1.123
G1 X86.769 Y-131.878
X87.459 Y-132.617
X88.302 Y-133.154
X89.255 Y-133.464
X90.244 Y-133.526
X90.281 Y-133.52
X91.221 Y-133.341
X91.293 Y-133.31
X92.134 Y-132.914
X92.909 Y-132.27
X93.496 Y-131.458
X93.859 Y-130.541
X93.983 Y-129.56
X93.859 Y-128.565
X93.489 Y-127.629
X92.891 Y-126.812
X92.122 Y-126.18
X91.231 Y-125.761
X90.258 Y-125.575
X89.254 Y-125.637
X88.302 Y-125.946
X87.475 Y-126.471
X86.776 Y-127.209
X86.304 Y-128.067
X86.047 Y-129.069
Y-130.049
X86.296 Y-131.016
X86.302 Y-131.028
X86.42 Y-131.242
G3 X86.643 Y-131.34 R0.2
G1 X90.788 Y-130.317
G3 X90.92 Y-130.212 R0.2
X90.998 Y-129.879 Z-16.03 R0.75
X89.498 Z-16.236 R0.75
X90.998 Z-16.442 R0.75
X89.498 Z-16.649 R0.75
X90.998 Z-16.855 R0.75
X89.798 Y-129.279 Z-17. R0.75
X90.205 Y-129.823 R0.34
X89.798 Y-129.279 R0.34
G2 X87.742 Y-129.63 R2.282
G3 X86.42 Y-131.242 R1.123
G1 X86.769 Y-131.878
X87.459 Y-132.617
X88.302 Y-133.154
X89.255 Y-133.464
X90.244 Y-133.526
X90.281 Y-133.52
X91.221 Y-133.341
X91.293 Y-133.31
X92.134 Y-132.914
X92.909 Y-132.27
X93.496 Y-131.458
X93.859 Y-130.541
X93.983 Y-129.56
X93.859 Y-128.565
X93.489 Y-127.629
X92.891 Y-126.812
X92.122 Y-126.18
X91.231 Y-125.761
X90.258 Y-125.575
X89.254 Y-125.637
X88.302 Y-125.946
X87.475 Y-126.471
X86.776 Y-127.209
X86.304 Y-128.067
X86.047 Y-129.069
Y-130.049
X86.296 Y-131.016
X86.302 Y-131.028
X86.42 Y-131.242
G3 X86.643 Y-131.34 R0.2
G1 X90.788 Y-130.317
G3 X90.92 Y-130.212 R0.2
X90.998 Y-129.879 Z-17.03 R0.75
X89.498 Z-17.236 R0.75
X90.998 Z-17.442 R0.75
X89.498 Z-17.649 R0.75
X90.998 Z-17.855 R0.75
X89.798 Y-129.279 Z-18. R0.75
X90.205 Y-129.823 R0.34
X89.798 Y-129.279 R0.34
G2 X87.742 Y-129.63 R2.282
G3 X86.42 Y-131.242 R1.123
G1 X86.769 Y-131.878
X87.459 Y-132.617
X88.302 Y-133.154
X89.255 Y-133.464
X90.244 Y-133.526
X90.281 Y-133.52
X91.221 Y-133.341
X91.293 Y-133.31
X92.134 Y-132.914
X92.909 Y-132.27
X93.496 Y-131.458
X93.859 Y-130.541
X93.983 Y-129.56
X93.859 Y-128.565
X93.489 Y-127.629
X92.891 Y-126.812
X92.122 Y-126.18
X91.231 Y-125.761
X90.258 Y-125.575
X89.254 Y-125.637
X88.302 Y-125.946
X87.475 Y-126.471
X86.776 Y-127.209
X86.304 Y-128.067
X86.047 Y-129.069
Y-130.049
X86.296 Y-131.016
X86.302 Y-131.028
X86.42 Y-131.242
G3 X86.643 Y-131.34 R0.2
G1 X90.788 Y-130.317
G3 X90.92 Y-130.212 R0.2
X90.998 Y-129.879 Z-18.03 R0.75
X89.498 Z-18.236 R0.75
X90.998 Z-18.442 R0.75
X89.498 Z-18.649 R0.75
X90.998 Z-18.855 R0.75
X89.798 Y-129.279 Z-19. R0.75
X90.205 Y-129.823 R0.34
X89.798 Y-129.279 R0.34
G2 X87.742 Y-129.63 R2.282
G3 X86.42 Y-131.242 R1.123
G1 X86.769 Y-131.878
X87.459 Y-132.617
X88.302 Y-133.154
X89.255 Y-133.464
X90.244 Y-133.526
X90.281 Y-133.52
X91.221 Y-133.341
X91.293 Y-133.31
X92.134 Y-132.914
X92.909 Y-132.27
X93.496 Y-131.458
X93.859 Y-130.541
X93.983 Y-129.56
X93.859 Y-128.565
X93.489 Y-127.629
X92.891 Y-126.812
X92.122 Y-126.18
X91.231 Y-125.761
X90.258 Y-125.575
X89.254 Y-125.637
X88.302 Y-125.946
X87.475 Y-126.471
X86.776 Y-127.209
X86.304 Y-128.067
X86.047 Y-129.069
Y-130.049
X86.296 Y-131.016
X86.302 Y-131.028
X86.42 Y-131.242
G3 X86.643 Y-131.34 R0.2
G1 X90.788 Y-130.317
G3 X90.92 Y-130.212 R0.2
X90.998 Y-129.879 Z-19.03 R0.75
X89.498 Z-19.236 R0.75
X90.998 Z-19.442 R0.75
X89.498 Z-19.649 R0.75
X90.998 Z-19.855 R0.75
X89.798 Y-129.279 Z-20. R0.75
X90.205 Y-129.823 R0.34
X89.798 Y-129.279 R0.34
G2 X87.742 Y-129.63 R2.282
G3 X86.42 Y-131.242 R1.123
G1 X86.769 Y-131.878
X87.459 Y-132.617
X88.302 Y-133.154
X89.255 Y-133.464
X90.244 Y-133.526
X90.281 Y-133.52
X91.221 Y-133.341
X91.293 Y-133.31
X92.134 Y-132.914
X92.909 Y-132.27
X93.496 Y-131.458
X93.859 Y-130.541
X93.983 Y-129.56
X93.859 Y-128.565
X93.489 Y-127.629
X92.891 Y-126.812
X92.122 Y-126.18
X91.231 Y-125.761
X90.258 Y-125.575
X89.254 Y-125.637
X88.302 Y-125.946
X87.475 Y-126.471
X86.776 Y-127.209
X86.304 Y-128.067
X86.047 Y-129.069
Y-130.049
X86.296 Y-131.016
X86.302 Y-131.028
X86.42 Y-131.242
G3 X86.643 Y-131.34 R0.2
G1 X90.788 Y-130.317
G3 X90.92 Y-130.212 R0.2
X90.998 Y-129.879 Z-20.03 R0.75
X89.498 Z-20.236 R0.75
X90.998 Z-20.442 R0.75
X89.498 Z-20.649 R0.75
X90.998 Z-20.855 R0.75
X89.798 Y-129.279 Z-21. R0.75
X90.205 Y-129.823 R0.34
X89.798 Y-129.279 R0.34
G2 X87.742 Y-129.63 R2.282
G3 X86.42 Y-131.242 R1.123
G1 X86.769 Y-131.878
X87.459 Y-132.617
X88.302 Y-133.154
X89.255 Y-133.464
X90.244 Y-133.526
X90.281 Y-133.52
X91.221 Y-133.341
X91.293 Y-133.31
X92.134 Y-132.914
X92.909 Y-132.27
X93.496 Y-131.458
X93.859 Y-130.541
X93.983 Y-129.56
X93.859 Y-128.565
X93.489 Y-127.629
X92.891 Y-126.812
X92.122 Y-126.18
X91.231 Y-125.761
X90.258 Y-125.575
X89.254 Y-125.637
X88.302 Y-125.946
X87.475 Y-126.471
X86.776 Y-127.209
X86.304 Y-128.067
X86.047 Y-129.069
Y-130.049
X86.296 Y-131.016
X86.302 Y-131.028
X86.42 Y-131.242
G3 X86.678 Y-131.328 R0.2
G1 X89.99 Y-129.818
G2 X90.187 Y-129.835 R0.2
G3 X90.505 Y-129.962 Z-21.03 R0.75
X90.727 Y-128.478 Z-21.236 R0.75
X90.505 Y-129.962 Z-21.442 R0.75
X90.727 Y-128.478 Z-21.649 R0.75
X90.505 Y-129.962 Z-21.855 R0.75
X91.276 Y-128.864 Z-22. R0.75
G1 X91.155 Y-128.639
X90.805 Y-128.317
X90.361 Y-128.123
X89.878 Y-128.083
X89.41 Y-128.201
X89.003 Y-128.467
X88.711 Y-128.841
X88.55 Y-129.303
X88.548 Y-129.785
X88.706 Y-130.252
X88.724 Y-130.275
X89.006 Y-130.635
X89.41 Y-130.899
X89.879 Y-131.017
X90.361 Y-130.977
X90.805 Y-130.783
X91.157 Y-130.459
X91.393 Y-130.027
X91.471 Y-129.558
X91.393 Y-129.081
X91.276 Y-128.864
G3 X90.967 Y-128.809 R0.2
G1 X90.169 Y-129.522
G3 X90.187 Y-129.835 R0.2
X90.505 Y-129.962 Z-22.03 R0.75
X90.727 Y-128.478 Z-22.236 R0.75
X90.505 Y-129.962 Z-22.442 R0.75
X90.727 Y-128.478 Z-22.649 R0.75
X90.505 Y-129.962 Z-22.855 R0.75
X91.276 Y-128.864 Z-23. R0.75
G1 X91.155 Y-128.639
X90.805 Y-128.317
X90.361 Y-128.123
X89.878 Y-128.083
X89.41 Y-128.201
X89.003 Y-128.467
X88.711 Y-128.841
X88.55 Y-129.303
X88.548 Y-129.785
X88.706 Y-130.252
X88.724 Y-130.275
X89.006 Y-130.635
X89.41 Y-130.899
X89.879 Y-131.017
X90.361 Y-130.977
X90.805 Y-130.783
X91.157 Y-130.459
X91.393 Y-130.027
X91.471 Y-129.558
X91.393 Y-129.081
X91.276 Y-128.864
G3 X90.967 Y-128.809 R0.2
G1 X90.169 Y-129.522
G3 X90.187 Y-129.835 R0.2
X90.505 Y-129.962 Z-23.03 R0.75
X90.727 Y-128.478 Z-23.236 R0.75
X90.505 Y-129.962 Z-23.442 R0.75
X90.727 Y-128.478 Z-23.649 R0.75
X90.505 Y-129.962 Z-23.855 R0.75
X91.276 Y-128.864 Z-24. R0.75
G1 X91.155 Y-128.639
X90.805 Y-128.317
X90.361 Y-128.123
X89.878 Y-128.083
X89.41 Y-128.201
X89.003 Y-128.467
X88.711 Y-128.841
X88.55 Y-129.303
X88.548 Y-129.785
X88.706 Y-130.252
X88.724 Y-130.275
X89.006 Y-130.635
X89.41 Y-130.899
X89.879 Y-131.017
X90.361 Y-130.977
X90.805 Y-130.783
X91.157 Y-130.459
X91.393 Y-130.027
X91.471 Y-129.558
X91.393 Y-129.081
X91.276 Y-128.864
G3 X90.967 Y-128.809 R0.2
G1 X90.169 Y-129.522
G3 X90.187 Y-129.835 R0.2
X90.505 Y-129.962 Z-24.03 R0.75
X90.727 Y-128.478 Z-24.236 R0.75
X90.505 Y-129.962 Z-24.442 R0.75
X90.727 Y-128.478 Z-24.649 R0.75
X90.505 Y-129.962 Z-24.855 R0.75
X91.276 Y-128.864 Z-25. R0.75
G1 X91.155 Y-128.639
X90.805 Y-128.317
X90.361 Y-128.123
X89.878 Y-128.083
X89.41 Y-128.201
X89.003 Y-128.467
X88.711 Y-128.841
X88.55 Y-129.303
X88.548 Y-129.785
X88.706 Y-130.252
X88.724 Y-130.275
X89.006 Y-130.635
X89.41 Y-130.899
X89.879 Y-131.017
X90.361 Y-130.977
X90.805 Y-130.783
X91.157 Y-130.459
X91.393 Y-130.027
X91.471 Y-129.558
X91.393 Y-129.081
X91.276 Y-128.864
G3 X91.202 Y-128.766 Z-24.98 R0.4
X91.112 Y-128.7 Z-24.924 R0.4
X91.03 Y-128.668 Z-24.835 R0.4
X90.974 Y-128.657 Z-24.724 R0.4
X90.954 Y-128.655 Z-24.6 R0.4
G0 Z5.
X-89.696 Y-129.781
Z1.448
G3 X-89.691 Y-129.765 Z1.336 R0.75 F350.
X-89.679 Y-129.72 Z1.232 R0.75
X-89.666 Y-129.646 Z1.146 R0.75
X-89.66 Y-129.55 Z1.084 R0.75
X-89.663 Y-129.486 Z1.062 R0.75
X-89.671 Y-129.42 Z1.05 R0.75
X-91.149 Y-129.68 Z0.844 R0.75
X-89.671 Y-129.42 Z0.638 R0.75
X-91.149 Y-129.68 Z0.432 R0.75
X-89.671 Y-129.42 Z0.225 R0.75
X-91.149 Y-129.68 Z0.019 R0.75
X-89.671 Y-129.42 Z-0.187 R0.75
X-91.149 Y-129.68 Z-0.393 R0.75
X-89.671 Y-129.42 Z-0.599 R0.75
X-91.149 Y-129.68 Z-0.805 R0.75
X-89.66 Y-129.55 Z-1. R0.75
X-90.34 R0.34
X-90.204 Y-129.822 R0.34
X-89.66 Y-129.55 R0.34
G2 X-88.749 Y-127.69 R2.355
G3 X-89.228 Y-125.675 R1.138
G1 X-89.629 Y-125.597
X-89.752 Y-125.574
X-90.76 Y-125.641
X-91.681 Y-125.94
X-92.54 Y-126.481
X-93.216 Y-127.201
X-93.254 Y-127.265
X-93.704 Y-128.082
X-93.953 Y-129.067
Y-130.049
X-93.703 Y-131.019
X-93.225 Y-131.889
X-93.217 Y-131.898
X-92.54 Y-132.62
X-91.702 Y-133.151
X-90.759 Y-133.459
X-89.749 Y-133.526
X-88.769 Y-133.339
X-87.873 Y-132.918
X-87.09 Y-132.269
X-86.509 Y-131.469
X-86.141 Y-130.541
X-86.018 Y-129.568
X-86.141 Y-128.563
X-86.509 Y-127.631
X-87.099 Y-126.82
X-87.862 Y-126.189
X-88.752 Y-125.769
X-89.228 Y-125.675
G3 X-89.451 Y-125.795 R0.2
G1 X-91.085 Y-129.721
G3 X-91.079 Y-129.888 R0.2
X-90.86 Y-130.15 Z-1.03 R0.75
X-89.96 Y-128.95 Z-1.236 R0.75
X-90.86 Y-130.15 Z-1.442 R0.75
X-89.96 Y-128.95 Z-1.649 R0.75
X-90.86 Y-130.15 Z-1.855 R0.75
X-89.66 Y-129.55 Z-2. R0.75
X-90.34 R0.34
X-90.204 Y-129.822 R0.34
X-89.66 Y-129.55 R0.34
G2 X-88.749 Y-127.69 R2.355
G3 X-89.228 Y-125.675 R1.138
G1 X-89.629 Y-125.597
X-89.752 Y-125.574
X-90.76 Y-125.641
X-91.681 Y-125.94
X-92.54 Y-126.481
X-93.216 Y-127.201
X-93.254 Y-127.265
X-93.704 Y-128.082
X-93.953 Y-129.067
Y-130.049
X-93.703 Y-131.019
X-93.225 Y-131.889
X-93.217 Y-131.898
X-92.54 Y-132.62
X-91.702 Y-133.151
X-90.759 Y-133.459
X-89.749 Y-133.526
X-88.769 Y-133.339
X-87.873 Y-132.918
X-87.09 Y-132.269
X-86.509 Y-131.469
X-86.141 Y-130.541
X-86.018 Y-129.568
X-86.141 Y-128.563
X-86.509 Y-127.631
X-87.099 Y-126.82
X-87.862 Y-126.189
X-88.752 Y-125.769
X-89.228 Y-125.675
G3 X-89.451 Y-125.795 R0.2
G1 X-91.085 Y-129.721
G3 X-91.079 Y-129.888 R0.2
X-90.86 Y-130.15 Z-2.03 R0.75
X-89.96 Y-128.95 Z-2.236 R0.75
X-90.86 Y-130.15 Z-2.442 R0.75
X-89.96 Y-128.95 Z-2.649 R0.75
X-90.86 Y-130.15 Z-2.855 R0.75
X-89.66 Y-129.55 Z-3. R0.75
X-90.34 R0.34
X-90.204 Y-129.822 R0.34
X-89.66 Y-129.55 R0.34
G2 X-88.749 Y-127.69 R2.355
G3 X-89.228 Y-125.675 R1.138
G1 X-89.629 Y-125.597
X-89.752 Y-125.574
X-90.76 Y-125.641
X-91.681 Y-125.94
X-92.54 Y-126.481
X-93.216 Y-127.201
X-93.254 Y-127.265
X-93.704 Y-128.082
X-93.953 Y-129.067
Y-130.049
X-93.703 Y-131.019
X-93.225 Y-131.889
X-93.217 Y-131.898
