(__1)
(T2  D=4. CR=0. - ZMIN=-25. - FLAT END MILL)
G90 G94 G91.1 G40 G49 G17
G21

(POCKET2)
M5
M9
T2
S4370 M3
G54
M8
G0 X41.603 Y79.318
G43 Z15. H2
Z2.
G1 Z1.448 F30.
G3 X41.607 Y79.334 Z1.336 R0.75 F350.
X41.62 Y79.38 Z1.232 R0.75
X41.633 Y79.454 Z1.146 R0.75
X41.639 Y79.549 Z1.084 R0.75
X41.636 Y79.613 Z1.062 R0.75
X41.628 Y79.679 Z1.05 R0.75
X40.15 Y79.42 Z0.844 R0.75
X41.628 Y79.679 Z0.638 R0.75
X40.15 Y79.42 Z0.432 R0.75
X41.628 Y79.679 Z0.225 R0.75
X40.15 Y79.42 Z0.019 R0.75
X41.628 Y79.679 Z-0.187 R0.75
X40.15 Y79.42 Z-0.393 R0.75
X41.628 Y79.679 Z-0.599 R0.75
X40.15 Y79.42 Z-0.805 R0.75
X41.639 Y79.549 Z-1. R0.75
X38.361 R1.639
X45.439 R3.539
X34.561 R5.439
X49.239 R7.339
X30.761 R9.239
X53.039 R11.139
X26.961 R13.039
X56.839 R14.939
X23.161 R16.839
X56.839 R16.839
G2 X58.41 Y82.584 R3.717
G3 X59.465 Y85.834 R2.856
G1 X58.933 Y87.398
X57.747 Y89.802
X56.276 Y92.003
X54.516 Y94.016
X52.465 Y95.818
X50.25 Y97.298
X47.856 Y98.479
X45.28 Y99.352
X42.644 Y99.872
X40.011 Y100.045
X37.315 Y99.868
X34.68 Y99.342
X32.166 Y98.489
X29.771 Y97.309
X27.504 Y95.794
X25.515 Y94.049
X23.755 Y92.044
X22.247 Y89.79
X21.057 Y87.371
X20.197 Y84.826
X19.677 Y82.193
X19.505 Y79.561
X19.59 Y78.243
X19.681 Y76.87
X20.205 Y74.237
X21.066 Y71.703
X22.271 Y69.272
X23.747 Y67.064
X25.497 Y65.069
X27.494 Y63.315
X29.345 Y62.072
X29.768 Y61.793
X32.183 Y60.605
X34.68 Y59.758
X37.315 Y59.232
X40.01 Y59.055
X42.706 Y59.236
X45.303 Y59.752
X47.855 Y60.62
X50.25 Y61.802
X52.466 Y63.282
X54.474 Y65.041
X56.248 Y67.059
X57.758 Y69.318
X58.942 Y71.725
X59.795 Y74.237
X60.32 Y76.877
X60.495 Y79.561
X60.319 Y82.234
X59.791 Y84.874
X59.465 Y85.834
G3 X59.408 Y85.943 Z-0.98 R0.4
X59.33 Y86.022 Z-0.924 R0.4
X59.254 Y86.068 Z-0.835 R0.4
X59.201 Y86.088 Z-0.724 R0.4
X59.182 Y86.094 Z-0.6 R0.4
G0 Z5.
X41.603 Y79.318
Z0.448
G3 X41.607 Y79.334 Z0.336 R0.75 F350.
X41.62 Y79.38 Z0.232 R0.75
X41.633 Y79.454 Z0.146 R0.75
X41.639 Y79.549 Z0.084 R0.75
X41.636 Y79.613 Z0.062 R0.75
X41.628 Y79.679 Z0.05 R0.75
X40.15 Y79.42 Z-0.156 R0.75
X41.628 Y79.679 Z-0.362 R0.75
X40.15 Y79.42 Z-0.568 R0.75
X41.628 Y79.679 Z-0.775 R0.75
X40.15 Y79.42 Z-0.981 R0.75
X41.628 Y79.679 Z-1.187 R0.75
X40.15 Y79.42 Z-1.393 R0.75
X41.628 Y79.679 Z-1.599 R0.75
X40.15 Y79.42 Z-1.805 R0.75
X41.639 Y79.549 Z-2. R0.75
X38.361 R1.639
X45.439 R3.539
X34.561 R5.439
X49.239 R7.339
X30.761 R9.239
X53.039 R11.139
X26.961 R13.039
X56.839 R14.939
X23.161 R16.839
X56.839 R16.839
G2 X58.41 Y82.584 R3.717
G3 X59.465 Y85.834 R2.856
G1 X58.933 Y87.398
X57.747 Y89.802
X56.276 Y92.003
X54.516 Y94.016
X52.465 Y95.818
X50.25 Y97.298
X47.856 Y98.479
X45.28 Y99.352
X42.644 Y99.872
X40.011 Y100.045
X37.315 Y99.868
X34.68 Y99.342
X32.166 Y98.489
X29.771 Y97.309
X27.504 Y95.794
X25.515 Y94.049
X23.755 Y92.044
X22.247 Y89.79
X21.057 Y87.371
X20.197 Y84.826
X19.677 Y82.193
X19.505 Y79.561
X19.59 Y78.243
X19.681 Y76.87
X20.205 Y74.237
X21.066 Y71.703
X22.271 Y69.272
X23.747 Y67.064
X25.497 Y65.069
X27.494 Y63.315
X29.345 Y62.072
X29.768 Y61.793
X32.183 Y60.605
X34.68 Y59.758
X37.315 Y59.232
X40.01 Y59.055
X42.706 Y59.236
X45.303 Y59.752
X47.855 Y60.62
X50.25 Y61.802
X52.466 Y63.282
X54.474 Y65.041
X56.248 Y67.059
X57.758 Y69.318
X58.942 Y71.725
X59.795 Y74.237
X60.32 Y76.877
X60.495 Y79.561
X60.319 Y82.234
X59.791 Y84.874
X59.465 Y85.834
G3 X59.408 Y85.943 Z-1.98 R0.4
X59.33 Y86.022 Z-1.924 R0.4
X59.254 Y86.068 Z-1.835 R0.4
X59.201 Y86.088 Z-1.724 R0.4
X59.182 Y86.094 Z-1.6 R0.4
G0 Z5.
X41.603 Y79.318
Z2.
G1 Z-0.552 F30.
G3 X41.607 Y79.334 Z-0.664 R0.75 F350.
X41.62 Y79.38 Z-0.768 R0.75
X41.633 Y79.454 Z-0.854 R0.75
X41.639 Y79.549 Z-0.916 R0.75
X41.636 Y79.613 Z-0.938 R0.75
X41.628 Y79.679 Z-0.95 R0.75
X40.15 Y79.42 Z-1.156 R0.75
X41.628 Y79.679 Z-1.362 R0.75
X40.15 Y79.42 Z-1.568 R0.75
X41.628 Y79.679 Z-1.775 R0.75
X40.15 Y79.42 Z-1.981 R0.75
X41.628 Y79.679 Z-2.187 R0.75
X40.15 Y79.42 Z-2.393 R0.75
X41.628 Y79.679 Z-2.599 R0.75
X40.15 Y79.42 Z-2.805 R0.75
X41.639 Y79.549 Z-3. R0.75
X38.361 R1.639
X45.439 R3.539
X34.561 R5.439
X49.239 R7.339
X30.761 R9.239
X53.039 R11.139
X26.961 R13.039
X56.839 R14.939
X23.161 R16.839
X56.839 R16.839
G2 X58.41 Y82.584 R3.717
G3 X59.465 Y85.834 R2.856
G1 X58.933 Y87.398
X57.747 Y89.802
X56.276 Y92.003
X54.516 Y94.016
X52.465 Y95.818
X50.25 Y97.298
X47.856 Y98.479
X45.28 Y99.352
X42.644 Y99.872
X40.011 Y100.045
X37.315 Y99.868
X34.68 Y99.342
X32.166 Y98.489
X29.771 Y97.309
X27.504 Y95.794
X25.515 Y94.049
X23.755 Y92.044
X22.247 Y89.79
X21.057 Y87.371
X20.197 Y84.826
X19.677 Y82.193
X19.505 Y79.561
X19.59 Y78.243
X19.681 Y76.87
X20.205 Y74.237
X21.066 Y71.703
X22.271 Y69.272
X23.747 Y67.064
X25.497 Y65.069
X27.494 Y63.315
X29.345 Y62.072
X29.768 Y61.793
X32.183 Y60.605
X34.68 Y59.758
X37.315 Y59.232
X40.01 Y59.055
X42.706 Y59.236
X45.303 Y59.752
X47.855 Y60.62
X50.25 Y61.802
X52.466 Y63.282
X54.474 Y65.041
X56.248 Y67.059
X57.758 Y69.318
X58.942 Y71.725
X59.795 Y74.237
X60.32 Y76.877
X60.495 Y79.561
X60.319 Y82.234
X59.791 Y84.874
X59.465 Y85.834
G3 X59.408 Y85.943 Z-2.98 R0.4
X59.33 Y86.022 Z-2.924 R0.4
X59.254 Y86.068 Z-2.835 R0.4
X59.201 Y86.088 Z-2.724 R0.4
X59.182 Y86.094 Z-2.6 R0.4
G0 Z5.
X41.603 Y79.318
Z-1.552
G3 X41.607 Y79.334 Z-1.664 R0.75 F350.
X41.62 Y79.38 Z-1.768 R0.75
X41.633 Y79.454 Z-1.854 R0.75
X41.639 Y79.549 Z-1.916 R0.75
X41.636 Y79.613 Z-1.938 R0.75
X41.628 Y79.679 Z-1.95 R0.75
X40.15 Y79.42 Z-2.156 R0.75
X41.628 Y79.679 Z-2.362 R0.75
X40.15 Y79.42 Z-2.568 R0.75
X41.628 Y79.679 Z-2.775 R0.75
X40.15 Y79.42 Z-2.981 R0.75
X41.628 Y79.679 Z-3.187 R0.75
X40.15 Y79.42 Z-3.393 R0.75
X41.628 Y79.679 Z-3.599 R0.75
X40.15 Y79.42 Z-3.805 R0.75
X41.639 Y79.549 Z-4. R0.75
X38.361 R1.639
X45.439 R3.539
X34.561 R5.439
X49.239 R7.339
X30.761 R9.239
X53.039 R11.139
X26.961 R13.039
X56.839 R14.939
X23.161 R16.839
X56.839 R16.839
G2 X58.41 Y82.584 R3.717
G3 X59.465 Y85.834 R2.856
G1 X58.933 Y87.398
X57.747 Y89.802
X56.276 Y92.003
X54.516 Y94.016
X52.465 Y95.818
X50.25 Y97.298
X47.856 Y98.479
X45.28 Y99.352
X42.644 Y99.872
X40.011 Y100.045
X37.315 Y99.868
X34.68 Y99.342
X32.166 Y98.489
X29.771 Y97.309
X27.504 Y95.794
X25.515 Y94.049
X23.755 Y92.044
X22.247 Y89.79
X21.057 Y87.371
X20.197 Y84.826
X19.677 Y82.193
X19.505 Y79.561
X19.59 Y78.243
X19.681 Y76.87
X20.205 Y74.237
X21.066 Y71.703
X22.271 Y69.272
X23.747 Y67.064
X25.497 Y65.069
X27.494 Y63.315
X29.345 Y62.072
X29.768 Y61.793
X32.183 Y60.605
X34.68 Y59.758
X37.315 Y59.232
X40.01 Y59.055
X42.706 Y59.236
X45.303 Y59.752
X47.855 Y60.62
X50.25 Y61.802
X52.466 Y63.282
X54.474 Y65.041
X56.248 Y67.059
X57.758 Y69.318
X58.942 Y71.725
X59.795 Y74.237
X60.32 Y76.877
X60.495 Y79.561
X60.319 Y82.234
X59.791 Y84.874
X59.465 Y85.834
G3 X59.408 Y85.943 Z-3.98 R0.4
X59.33 Y86.022 Z-3.924 R0.4
X59.254 Y86.068 Z-3.835 R0.4
X59.201 Y86.088 Z-3.724 R0.4
X59.182 Y86.094 Z-3.6 R0.4
G0 Z5.
X41.603 Y79.318
Z-2.552
G3 X41.607 Y79.334 Z-2.664 R0.75 F350.
X41.62 Y79.38 Z-2.768 R0.75
X41.633 Y79.454 Z-2.854 R0.75
X41.639 Y79.549 Z-2.916 R0.75
X41.636 Y79.613 Z-2.938 R0.75
X41.628 Y79.679 Z-2.95 R0.75
X40.15 Y79.42 Z-3.156 R0.75
X41.628 Y79.679 Z-3.362 R0.75
X40.15 Y79.42 Z-3.568 R0.75
X41.628 Y79.679 Z-3.775 R0.75
X40.15 Y79.42 Z-3.981 R0.75
X41.628 Y79.679 Z-4.187 R0.75
X40.15 Y79.42 Z-4.393 R0.75
X41.628 Y79.679 Z-4.599 R0.75
X40.15 Y79.42 Z-4.805 R0.75
X41.639 Y79.549 Z-5. R0.75
X38.361 R1.639
X45.439 R3.539
X34.561 R5.439
X49.239 R7.339
X30.761 R9.239
X53.039 R11.139
X26.961 R13.039
X56.839 R14.939
X23.161 R16.839
X56.839 R16.839
G2 X58.41 Y82.584 R3.717
G3 X59.465 Y85.834 R2.856
G1 X58.933 Y87.398
X57.747 Y89.802
X56.276 Y92.003
X54.516 Y94.016
X52.465 Y95.818
X50.25 Y97.298
X47.856 Y98.479
X45.28 Y99.352
X42.644 Y99.872
X40.011 Y100.045
X37.315 Y99.868
X34.68 Y99.342
X32.166 Y98.489
X29.771 Y97.309
X27.504 Y95.794
X25.515 Y94.049
X23.755 Y92.044
X22.247 Y89.79
X21.057 Y87.371
X20.197 Y84.826
X19.677 Y82.193
X19.505 Y79.561
X19.59 Y78.243
X19.681 Y76.87
X20.205 Y74.237
X21.066 Y71.703
X22.271 Y69.272
X23.747 Y67.064
X25.497 Y65.069
X27.494 Y63.315
X29.345 Y62.072
X29.768 Y61.793
X32.183 Y60.605
X34.68 Y59.758
X37.315 Y59.232
X40.01 Y59.055
X42.706 Y59.236
X45.303 Y59.752
X47.855 Y60.62
X50.25 Y61.802
X52.466 Y63.282
X54.474 Y65.041
X56.248 Y67.059
X57.758 Y69.318
X58.942 Y71.725
X59.795 Y74.237
X60.32 Y76.877
X60.495 Y79.561
X60.319 Y82.234
X59.791 Y84.874
X59.465 Y85.834
G3 X59.408 Y85.943 Z-4.98 R0.4
X59.33 Y86.022 Z-4.924 R0.4
X59.254 Y86.068 Z-4.835 R0.4
X59.201 Y86.088 Z-4.724 R0.4
X59.182 Y86.094 Z-4.6 R0.4
G0 Z5.
X41.603 Y79.318
Z-3.552
G3 X41.607 Y79.334 Z-3.664 R0.75 F350.
X41.62 Y79.38 Z-3.768 R0.75
X41.633 Y79.454 Z-3.854 R0.75
X41.639 Y79.549 Z-3.916 R0.75
X41.636 Y79.613 Z-3.938 R0.75
X41.628 Y79.679 Z-3.95 R0.75
X40.15 Y79.42 Z-4.156 R0.75
X41.628 Y79.679 Z-4.362 R0.75
X40.15 Y79.42 Z-4.568 R0.75
X41.628 Y79.679 Z-4.775 R0.75
X40.15 Y79.42 Z-4.981 R0.75
X41.628 Y79.679 Z-5.187 R0.75
X40.15 Y79.42 Z-5.393 R0.75
X41.628 Y79.679 Z-5.599 R0.75
X40.15 Y79.42 Z-5.805 R0.75
X41.639 Y79.549 Z-6. R0.75
X38.361 R1.639
X45.439 R3.539
X34.561 R5.439
X49.239 R7.339
X30.761 R9.239
X53.039 R11.139
X26.961 R13.039
X56.839 R14.939
X23.161 R16.839
X56.839 R16.839
G2 X58.41 Y82.584 R3.717
G3 X59.465 Y85.834 R2.856
G1 X58.933 Y87.398
X57.747 Y89.802
X56.276 Y92.003
X54.516 Y94.016
X52.465 Y95.818
X50.25 Y97.298
X47.856 Y98.479
X45.28 Y99.352
X42.644 Y99.872
X40.011 Y100.045
X37.315 Y99.868
X34.68 Y99.342
X32.166 Y98.489
X29.771 Y97.309
X27.504 Y95.794
X25.515 Y94.049
X23.755 Y92.044
X22.247 Y89.79
X21.057 Y87.371
X20.197 Y84.826
X19.677 Y82.193
X19.505 Y79.561
X19.59 Y78.243
X19.681 Y76.87
X20.205 Y74.237
X21.066 Y71.703
X22.271 Y69.272
X23.747 Y67.064
X25.497 Y65.069
X27.494 Y63.315
X29.345 Y62.072
X29.768 Y61.793
X32.183 Y60.605
X34.68 Y59.758
X37.315 Y59.232
X40.01 Y59.055
X42.706 Y59.236
X45.303 Y59.752
X47.855 Y60.62
X50.25 Y61.802
X52.466 Y63.282
X54.474 Y65.041
X56.248 Y67.059
X57.758 Y69.318
X58.942 Y71.725
X59.795 Y74.237
X60.32 Y76.877
X60.495 Y79.561
X60.319 Y82.234
X59.791 Y84.874
X59.465 Y85.834
G3 X59.408 Y85.943 Z-5.98 R0.4
X59.33 Y86.022 Z-5.924 R0.4
X59.254 Y86.068 Z-5.835 R0.4
X59.201 Y86.088 Z-5.724 R0.4
X59.182 Y86.094 Z-5.6 R0.4
G0 Z5.
X41.603 Y79.318
Z-4.552
G3 X41.607 Y79.334 Z-4.664 R0.75 F350.
X41.62 Y79.38 Z-4.768 R0.75
X41.633 Y79.454 Z-4.854 R0.75
X41.639 Y79.549 Z-4.916 R0.75
X41.636 Y79.613 Z-4.938 R0.75
X41.628 Y79.679 Z-4.95 R0.75
X40.15 Y79.42 Z-5.156 R0.75
X41.628 Y79.679 Z-5.362 R0.75
X40.15 Y79.42 Z-5.568 R0.75
X41.628 Y79.679 Z-5.775 R0.75
X40.15 Y79.42 Z-5.981 R0.75
X41.628 Y79.679 Z-6.187 R0.75
X40.15 Y79.42 Z-6.393 R0.75
X41.628 Y79.679 Z-6.599 R0.75
X40.15 Y79.42 Z-6.805 R0.75
X41.639 Y79.549 Z-7. R0.75
X38.361 R1.639
X45.439 R3.539
X34.561 R5.439
X49.239 R7.339
X30.761 R9.239
X53.039 R11.139
X26.961 R13.039
X56.839 R14.939
X23.161 R16.839
X56.839 R16.839
G2 X58.41 Y82.584 R3.717
G3 X59.465 Y85.834 R2.856
G1 X58.933 Y87.398
X57.747 Y89.802
X56.276 Y92.003
X54.516 Y94.016
X52.465 Y95.818
X50.25 Y97.298
X47.856 Y98.479
X45.28 Y99.352
X42.644 Y99.872
X40.011 Y100.045
X37.315 Y99.868
X34.68 Y99.342
X32.166 Y98.489
X29.771 Y97.309
X27.504 Y95.794
X25.515 Y94.049
X23.755 Y92.044
X22.247 Y89.79
X21.057 Y87.371
X20.197 Y84.826
X19.677 Y82.193
X19.505 Y79.561
X19.59 Y78.243
X19.681 Y76.87
X20.205 Y74.237
X21.066 Y71.703
X22.271 Y69.272
X23.747 Y67.064
X25.497 Y65.069
X27.494 Y63.315
X29.345 Y62.072
X29.768 Y61.793
X32.183 Y60.605
X34.68 Y59.758
X37.315 Y59.232
X40.01 Y59.055
X42.706 Y59.236
X45.303 Y59.752
X47.855 Y60.62
X50.25 Y61.802
X52.466 Y63.282
X54.474 Y65.041
X56.248 Y67.059
X57.758 Y69.318
X58.942 Y71.725
X59.795 Y74.237
X60.32 Y76.877
X60.495 Y79.561
X60.319 Y82.234
X59.791 Y84.874
X59.465 Y85.834
G3 X59.408 Y85.943 Z-6.98 R0.4
X59.33 Y86.022 Z-6.924 R0.4
X59.254 Y86.068 Z-6.835 R0.4
X59.201 Y86.088 Z-6.724 R0.4
X59.182 Y86.094 Z-6.6 R0.4
G0 Z5.
X41.603 Y79.318
Z-5.552
G3 X41.607 Y79.334 Z-5.664 R0.75 F350.
X41.62 Y79.38 Z-5.768 R0.75
X41.633 Y79.454 Z-5.854 R0.75
X41.639 Y79.549 Z-5.916 R0.75
X41.636 Y79.613 Z-5.938 R0.75
X41.628 Y79.679 Z-5.95 R0.75
X40.15 Y79.42 Z-6.156 R0.75
X41.628 Y79.679 Z-6.362 R0.75
X40.15 Y79.42 Z-6.568 R0.75
X41.628 Y79.679 Z-6.775 R0.75
X40.15 Y79.42 Z-6.981 R0.75
X41.628 Y79.679 Z-7.187 R0.75
X40.15 Y79.42 Z-7.393 R0.75
X41.628 Y79.679 Z-7.599 R0.75
X40.15 Y79.42 Z-7.805 R0.75
X41.639 Y79.549 Z-8. R0.75
X38.361 R1.639
X45.439 R3.539
X34.561 R5.439
X49.239 R7.339
X30.761 R9.239
X53.039 R11.139
X26.961 R13.039
X56.839 R14.939
X23.161 R16.839
X56.839 R16.839
G2 X58.41 Y82.584 R3.717
G3 X59.465 Y85.834 R2.856
G1 X58.933 Y87.398
X57.747 Y89.802
X56.276 Y92.003
X54.516 Y94.016
X52.465 Y95.818
X50.25 Y97.298
X47.856 Y98.479
X45.28 Y99.352
X42.644 Y99.872
X40.011 Y100.045
X37.315 Y99.868
X34.68 Y99.342
X32.166 Y98.489
X29.771 Y97.309
X27.504 Y95.794
X25.515 Y94.049
X23.755 Y92.044
X22.247 Y89.79
X21.057 Y87.371
X20.197 Y84.826
X19.677 Y82.193
X19.505 Y79.561
X19.59 Y78.243
X19.681 Y76.87
X20.205 Y74.237
X21.066 Y71.703
X22.271 Y69.272
X23.747 Y67.064
X25.497 Y65.069
X27.494 Y63.315
X29.345 Y62.072
X29.768 Y61.793
X32.183 Y60.605
X34.68 Y59.758
X37.315 Y59.232
X40.01 Y59.055
X42.706 Y59.236
X45.303 Y59.752
X47.855 Y60.62
X50.25 Y61.802
X52.466 Y63.282
X54.474 Y65.041
X56.248 Y67.059
X57.758 Y69.318
X58.942 Y71.725
X59.795 Y74.237
X60.32 Y76.877
X60.495 Y79.561
X60.319 Y82.234
X59.791 Y84.874
X59.465 Y85.834
G3 X59.408 Y85.943 Z-7.98 R0.4
X59.33 Y86.022 Z-7.924 R0.4
X59.254 Y86.068 Z-7.835 R0.4
X59.201 Y86.088 Z-7.724 R0.4
X59.182 Y86.094 Z-7.6 R0.4
G0 Z5.
X41.603 Y79.318
Z-6.552
G3 X41.607 Y79.334 Z-6.664 R0.75 F350.
X41.62 Y79.38 Z-6.768 R0.75
X41.633 Y79.454 Z-6.854 R0.75
X41.639 Y79.549 Z-6.916 R0.75
X41.636 Y79.613 Z-6.938 R0.75
X41.628 Y79.679 Z-6.95 R0.75
X40.15 Y79.42 Z-7.156 R0.75
X41.628 Y79.679 Z-7.362 R0.75
X40.15 Y79.42 Z-7.568 R0.75
X41.628 Y79.679 Z-7.775 R0.75
X40.15 Y79.42 Z-7.981 R0.75
X41.628 Y79.679 Z-8.187 R0.75
X40.15 Y79.42 Z-8.393 R0.75
X41.628 Y79.679 Z-8.599 R0.75
X40.15 Y79.42 Z-8.805 R0.75
X41.639 Y79.549 Z-9. R0.75
X38.361 R1.639
X45.439 R3.539
X34.561 R5.439
X49.239 R7.339
X30.761 R9.239
X53.039 R11.139
X26.961 R13.039
X56.839 R14.939
X23.161 R16.839
X56.839 R16.839
G2 X58.41 Y82.584 R3.717
G3 X59.465 Y85.834 R2.856
G1 X58.933 Y87.398
X57.747 Y89.802
X56.276 Y92.003
X54.516 Y94.016
X52.465 Y95.818
X50.25 Y97.298
X47.856 Y98.479
X45.28 Y99.352
X42.644 Y99.872
X40.011 Y100.045
X37.315 Y99.868
X34.68 Y99.342
X32.166 Y98.489
X29.771 Y97.309
X27.504 Y95.794
X25.515 Y94.049
X23.755 Y92.044
X22.247 Y89.79
X21.057 Y87.371
X20.197 Y84.826
X19.677 Y82.193
X19.505 Y79.561
X19.59 Y78.243
X19.681 Y76.87
X20.205 Y74.237
X21.066 Y71.703
X22.271 Y69.272
X23.747 Y67.064
X25.497 Y65.069
X27.494 Y63.315
X29.345 Y62.072
X29.768 Y61.793
X32.183 Y60.605
X34.68 Y59.758
X37.315 Y59.232
X40.01 Y59.055
X42.706 Y59.236
X45.303 Y59.752
X47.855 Y60.62
X50.25 Y61.802
X52.466 Y63.282
X54.474 Y65.041
X56.248 Y67.059
X57.758 Y69.318
X58.942 Y71.725
X59.795 Y74.237
X60.32 Y76.877
X60.495 Y79.561
X60.319 Y82.234
X59.791 Y84.874
X59.465 Y85.834
G3 X59.408 Y85.943 Z-8.98 R0.4
X59.33 Y86.022 Z-8.924 R0.4
X59.254 Y86.068 Z-8.835 R0.4
X59.201 Y86.088 Z-8.724 R0.4
X59.182 Y86.094 Z-8.6 R0.4
G0 Z5.
X41.603 Y79.318
Z-7.552
G3 X41.607 Y79.334 Z-7.664 R0.75 F350.
X41.62 Y79.38 Z-7.768 R0.75
X41.633 Y79.454 Z-7.854 R0.75
X41.639 Y79.549 Z-7.916 R0.75
X41.636 Y79.613 Z-7.938 R0.75
X41.628 Y79.679 Z-7.95 R0.75
X40.15 Y79.42 Z-8.156 R0.75
X41.628 Y79.679 Z-8.362 R0.75
X40.15 Y79.42 Z-8.568 R0.75
X41.628 Y79.679 Z-8.775 R0.75
X40.15 Y79.42 Z-8.981 R0.75
X41.628 Y79.679 Z-9.187 R0.75
X40.15 Y79.42 Z-9.393 R0.75
X41.628 Y79.679 Z-9.599 R0.75
X40.15 Y79.42 Z-9.805 R0.75
X41.639 Y79.549 Z-10. R0.75
X38.361 R1.639
X45.439 R3.539
X34.561 R5.439
X49.239 R7.339
X30.761 R9.239
X53.039 R11.139
X26.961 R13.039
X56.839 R14.939
X23.161 R16.839
X56.839 R16.839
G2 X58.41 Y82.584 R3.717
G3 X59.465 Y85.834 R2.856
G1 X58.933 Y87.398
X57.747 Y89.802
X56.276 Y92.003
X54.516 Y94.016
X52.465 Y95.818
X50.25 Y97.298
X47.856 Y98.479
X45.28 Y99.352
X42.644 Y99.872
X40.011 Y100.045
X37.315 Y99.868
X34.68 Y99.342
X32.166 Y98.489
X29.771 Y97.309
X27.504 Y95.794
X25.515 Y94.049
X23.755 Y92.044
X22.247 Y89.79
X21.057 Y87.371
X20.197 Y84.826
X19.677 Y82.193
X19.505 Y79.561
X19.59 Y78.243
X19.681 Y76.87
X20.205 Y74.237
X21.066 Y71.703
X22.271 Y69.272
X23.747 Y67.064
X25.497 Y65.069
X27.494 Y63.315
X29.345 Y62.072
X29.768 Y61.793
X32.183 Y60.605
X34.68 Y59.758
X37.315 Y59.232
X40.01 Y59.055
X42.706 Y59.236
X45.303 Y59.752
X47.855 Y60.62
X50.25 Y61.802
X52.466 Y63.282
X54.474 Y65.041
X56.248 Y67.059
X57.758 Y69.318
X58.942 Y71.725
X59.795 Y74.237
X60.32 Y76.877
X60.495 Y79.561
X60.319 Y82.234
X59.791 Y84.874
X59.465 Y85.834
G3 X59.408 Y85.943 Z-9.98 R0.4
X59.33 Y86.022 Z-9.924 R0.4
X59.254 Y86.068 Z-9.835 R0.4
X59.201 Y86.088 Z-9.724 R0.4
X59.182 Y86.094 Z-9.6 R0.4
G0 Z5.
X41.603 Y79.318
Z-8.552
G3 X41.607 Y79.334 Z-8.664 R0.75 F350.
X41.62 Y79.38 Z-8.768 R0.75
X41.633 Y79.454 Z-8.854 R0.75
X41.639 Y79.549 Z-8.916 R0.75
X41.636 Y79.613 Z-8.938 R0.75
X41.628 Y79.679 Z-8.95 R0.75
X40.15 Y79.42 Z-9.156 R0.75
X41.628 Y79.679 Z-9.362 R0.75
X40.15 Y79.42 Z-9.568 R0.75
X41.628 Y79.679 Z-9.775 R0.75
X40.15 Y79.42 Z-9.981 R0.75
X41.628 Y79.679 Z-10.187 R0.75
X40.15 Y79.42 Z-10.393 R0.75
X41.628 Y79.679 Z-10.599 R0.75
X40.15 Y79.42 Z-10.805 R0.75
X41.639 Y79.549 Z-11. R0.75
X38.361 R1.639
X45.439 R3.539
X34.561 R5.439
X49.239 R7.339
X30.761 R9.239
X53.039 R11.139
X26.961 R13.039
X56.839 R14.939
X23.161 R16.839
X56.839 R16.839
G2 X58.41 Y82.584 R3.717
G3 X59.465 Y85.834 R2.856
G1 X58.933 Y87.398
X57.747 Y89.802
X56.276 Y92.003
X54.516 Y94.016
X52.465 Y95.818
X50.25 Y97.298
X47.856 Y98.479
X45.28 Y99.352
X42.644 Y99.872
X40.011 Y100.045
X37.315 Y99.868
X34.68 Y99.342
X32.166 Y98.489
X29.771 Y97.309
X27.504 Y95.794
X25.515 Y94.049
X23.755 Y92.044
X22.247 Y89.79
X21.057 Y87.371
X20.197 Y84.826
X19.677 Y82.193
X19.505 Y79.561
X19.59 Y78.243
X19.681 Y76.87
X20.205 Y74.237
X21.066 Y71.703
X22.271 Y69.272
X23.747 Y67.064
X25.497 Y65.069
X27.494 Y63.315
X29.345 Y62.072
X29.768 Y61.793
X32.183 Y60.605
X34.68 Y59.758
X37.315 Y59.232
X40.01 Y59.055
X42.706 Y59.236
X45.303 Y59.752
X47.855 Y60.62
X50.25 Y61.802
X52.466 Y63.282
X54.474 Y65.041
X56.248 Y67.059
X57.758 Y69.318
X58.942 Y71.725
X59.795 Y74.237
X60.32 Y76.877
X60.495 Y79.561
X60.319 Y82.234
X59.791 Y84.874
X59.465 Y85.834
G3 X59.408 Y85.943 Z-10.98 R0.4
X59.33 Y86.022 Z-10.924 R0.4
X59.254 Y86.068 Z-10.835 R0.4
X59.201 Y86.088 Z-10.724 R0.4
X59.182 Y86.094 Z-10.6 R0.4
G0 Z5.
X41.603 Y79.318
Z-9.552
G3 X41.607 Y79.334 Z-9.664 R0.75 F350.
X41.62 Y79.38 Z-9.768 R0.75
X41.633 Y79.454 Z-9.854 R0.75
X41.639 Y79.549 Z-9.916 R0.75
X41.636 Y79.613 Z-9.938 R0.75
X41.628 Y79.679 Z-9.95 R0.75
X40.15 Y79.42 Z-10.156 R0.75
X41.628 Y79.679 Z-10.362 R0.75
X40.15 Y79.42 Z-10.568 R0.75
X41.628 Y79.679 Z-10.775 R0.75
X40.15 Y79.42 Z-10.981 R0.75
X41.628 Y79.679 Z-11.187 R0.75
X40.15 Y79.42 Z-11.393 R0.75
X41.628 Y79.679 Z-11.599 R0.75
X40.15 Y79.42 Z-11.805 R0.75
X41.639 Y79.549 Z-12. R0.75
X38.361 R1.639
X45.439 R3.539
X34.561 R5.439
X49.239 R7.339
X30.761 R9.239
X53.039 R11.139
X26.961 R13.039
X56.839 R14.939
X23.161 R16.839
X56.839 R16.839
G2 X58.41 Y82.584 R3.717
G3 X59.465 Y85.834 R2.856
G1 X58.933 Y87.398
X57.747 Y89.802
X56.276 Y92.003
X54.516 Y94.016
X52.465 Y95.818
X50.25 Y97.298
X47.856 Y98.479
X45.28 Y99.352
X42.644 Y99.872
X40.011 Y100.045
X37.315 Y99.868
X34.68 Y99.342
X32.166 Y98.489
X29.771 Y97.309
X27.504 Y95.794
X25.515 Y94.049
X23.755 Y92.044
X22.247 Y89.79
X21.057 Y87.371
X20.197 Y84.826
X19.677 Y82.193
X19.505 Y79.561
X19.59 Y78.243
X19.681 Y76.87
X20.205 Y74.237
X21.066 Y71.703
X22.271 Y69.272
X23.747 Y67.064
X25.497 Y65.069
X27.494 Y63.315
X29.345 Y62.072
X29.768 Y61.793
X32.183 Y60.605
X34.68 Y59.758
X37.315 Y59.232
X40.01 Y59.055
X42.706 Y59.236
X45.303 Y59.752
X47.855 Y60.62
X50.25 Y61.802
X52.466 Y63.282
X54.474 Y65.041
X56.248 Y67.059
X57.758 Y69.318
X58.942 Y71.725
X59.795 Y74.237
X60.32 Y76.877
X60.495 Y79.561
X60.319 Y82.234
X59.791 Y84.874
X59.465 Y85.834
G3 X59.408 Y85.943 Z-11.98 R0.4
X59.33 Y86.022 Z-11.924 R0.4
X59.254 Y86.068 Z-11.835 R0.4
X59.201 Y86.088 Z-11.724 R0.4
X59.182 Y86.094 Z-11.6 R0.4
G0 Z5.
X41.603 Y79.318
Z-10.552
G3 X41.607 Y79.334 Z-10.664 R0.75 F350.
X41.62 Y79.38 Z-10.768 R0.75
X41.633 Y79.454 Z-10.854 R0.75
X41.639 Y79.549 Z-10.916 R0.75
X41.636 Y79.613 Z-10.938 R0.75
X41.628 Y79.679 Z-10.95 R0.75
X40.15 Y79.42 Z-11.156 R0.75
X41.628 Y79.679 Z-11.362 R0.75
X40.15 Y79.42 Z-11.568 R0.75
X41.628 Y79.679 Z-11.775 R0.75
X40.15 Y79.42 Z-11.981 R0.75
X41.628 Y79.679 Z-12.187 R0.75
X40.15 Y79.42 Z-12.393 R0.75
X41.628 Y79.679 Z-12.599 R0.75
X40.15 Y79.42 Z-12.805 R0.75
X41.639 Y79.549 Z-13. R0.75
X38.361 R1.639
X45.439 R3.539
X34.561 R5.439
X49.239 R7.339
X30.761 R9.239
X53.039 R11.139
X26.961 R13.039
X56.839 R14.939
X23.161 R16.839
X56.839 R16.839
G2 X58.41 Y82.584 R3.717
G3 X59.465 Y85.834 R2.856
G1 X58.933 Y87.398
X57.747 Y89.802
X56.276 Y92.003
X54.516 Y94.016
X52.465 Y95.818
X50.25 Y97.298
X47.856 Y98.479
X45.28 Y99.352
X42.644 Y99.872
X40.011 Y100.045
X37.315 Y99.868
X34.68 Y99.342
X32.166 Y98.489
X29.771 Y97.309
X27.504 Y95.794
X25.515 Y94.049
X23.755 Y92.044
X22.247 Y89.79
X21.057 Y87.371
X20.197 Y84.826
X19.677 Y82.193
X19.505 Y79.561
X19.59 Y78.243
X19.681 Y76.87
X20.205 Y74.237
X21.066 Y71.703
X22.271 Y69.272
X23.747 Y67.064
X25.497 Y65.069
X27.494 Y63.315
X29.345 Y62.072
X29.768 Y61.793
X32.183 Y60.605
X34.68 Y59.758
X37.315 Y59.232
X40.01 Y59.055
X42.706 Y59.236
X45.303 Y59.752
X47.855 Y60.62
X50.25 Y61.802
X52.466 Y63.282
X54.474 Y65.041
X56.248 Y67.059
X57.758 Y69.318
X58.942 Y71.725
X59.795 Y74.237
X60.32 Y76.877
X60.495 Y79.561
X60.319 Y82.234
X59.791 Y84.874
X59.465 Y85.834
G3 X59.408 Y85.943 Z-12.98 R0.4
X59.33 Y86.022 Z-12.924 R0.4
X59.254 Y86.068 Z-12.835 R0.4
X59.201 Y86.088 Z-12.724 R0.4
X59.182 Y86.094 Z-12.6 R0.4
G0 Z5.
X41.603 Y79.318
Z-11.552
G3 X41.607 Y79.334 Z-11.664 R0.75 F350.
X41.62 Y79.38 Z-11.768 R0.75
X41.633 Y79.454 Z-11.854 R0.75
X41.639 Y79.549 Z-11.916 R0.75
X41.636 Y79.613 Z-11.938 R0.75
X41.628 Y79.679 Z-11.95 R0.75
X40.15 Y79.42 Z-12.156 R0.75
X41.628 Y79.679 Z-12.362 R0.75
X40.15 Y79.42 Z-12.568 R0.75
X41.628 Y79.679 Z-12.775 R0.75
X40.15 Y79.42 Z-12.981 R0.75
X41.628 Y79.679 Z-13.187 R0.75
X40.15 Y79.42 Z-13.393 R0.75
X41.628 Y79.679 Z-13.599 R0.75
X40.15 Y79.42 Z-13.805 R0.75
X41.639 Y79.549 Z-14. R0.75
X38.361 R1.639
X45.439 R3.539
X34.561 R5.439
X49.239 R7.339
X30.761 R9.239
X53.039 R11.139
X26.961 R13.039
X56.839 R14.939
X23.161 R16.839
X56.839 R16.839
G2 X58.41 Y82.584 R3.717
G3 X59.465 Y85.834 R2.856
G1 X58.933 Y87.398
X57.747 Y89.802
X56.276 Y92.003
X54.516 Y94.016
X52.465 Y95.818
X50.25 Y97.298
X47.856 Y98.479
X45.28 Y99.352
X42.644 Y99.872
X40.011 Y100.045
X37.315 Y99.868
X34.68 Y99.342
X32.166 Y98.489
X29.771 Y97.309
X27.504 Y95.794
X25.515 Y94.049
X23.755 Y92.044
X22.247 Y89.79
X21.057 Y87.371
X20.197 Y84.826
X19.677 Y82.193
X19.505 Y79.561
X19.59 Y78.243
X19.681 Y76.87
X20.205 Y74.237
X21.066 Y71.703
X22.271 Y69.272
X23.747 Y67.064
X25.497 Y65.069
X27.494 Y63.315
X29.345 Y62.072
X29.768 Y61.793
X32.183 Y60.605
X34.68 Y59.758
X37.315 Y59.232
X40.01 Y59.055
X42.706 Y59.236
X45.303 Y59.752
X47.855 Y60.62
X50.25 Y61.802
X52.466 Y63.282
X54.474 Y65.041
X56.248 Y67.059
X57.758 Y69.318
X58.942 Y71.725
X59.795 Y74.237
X60.32 Y76.877
X60.495 Y79.561
X60.319 Y82.234
X59.791 Y84.874
X59.465 Y85.834
G3 X59.408 Y85.943 Z-13.98 R0.4
X59.33 Y86.022 Z-13.924 R0.4
X59.254 Y86.068 Z-13.835 R0.4
X59.201 Y86.088 Z-13.724 R0.4
X59.182 Y86.094 Z-13.6 R0.4
G0 Z5.
X41.603 Y79.318
Z-12.552
G3 X41.607 Y79.334 Z-12.664 R0.75 F350.
X41.62 Y79.38 Z-12.768 R0.75
X41.633 Y79.454 Z-12.854 R0.75
X41.639 Y79.549 Z-12.916 R0.75
X41.636 Y79.613 Z-12.938 R0.75
X41.628 Y79.679 Z-12.95 R0.75
X40.15 Y79.42 Z-13.156 R0.75
X41.628 Y79.679 Z-13.362 R0.75
X40.15 Y79.42 Z-13.568 R0.75
X41.628 Y79.679 Z-13.775 R0.75
X40.15 Y79.42 Z-13.981 R0.75
X41.628 Y79.679 Z-14.187 R0.75
X40.15 Y79.42 Z-14.393 R0.75
X41.628 Y79.679 Z-14.599 R0.75
X40.15 Y79.42 Z-14.805 R0.75
X41.639 Y79.549 Z-15. R0.75
X38.361 R1.639
X45.439 R3.539
X34.561 R5.439
X49.239 R7.339
X30.761 R9.239
X53.039 R11.139
X26.961 R13.039
X56.839 R14.939
X23.161 R16.839
X56.839 R16.839
G2 X58.41 Y82.584 R3.717
G3 X59.465 Y85.834 R2.856
G1 X58.933 Y87.398
X57.747 Y89.802
X56.276 Y92.003
X54.516 Y94.016
X52.465 Y95.818
X50.25 Y97.298
X47.856 Y98.479
X45.28 Y99.352
X42.644 Y99.872
X40.011 Y100.045
X37.315 Y99.868
X34.68 Y99.342
X32.166 Y98.489
X29.771 Y97.309
X27.504 Y95.794
X25.515 Y94.049
X23.755 Y92.044
X22.247 Y89.79
X21.057 Y87.371
X20.197 Y84.826
X19.677 Y82.193
X19.505 Y79.561
X19.59 Y78.243
X19.681 Y76.87
X20.205 Y74.237
X21.066 Y71.703
X22.271 Y69.272
X23.747 Y67.064
X25.497 Y65.069
X27.494 Y63.315
X29.345 Y62.072
X29.768 Y61.793
X32.183 Y60.605
X34.68 Y59.758
X37.315 Y59.232
X40.01 Y59.055
X42.706 Y59.236
X45.303 Y59.752
X47.855 Y60.62
X50.25 Y61.802
X52.466 Y63.282
X54.474 Y65.041
X56.248 Y67.059
X57.758 Y69.318
X58.942 Y71.725
X59.795 Y74.237
X60.32 Y76.877
X60.495 Y79.561
X60.319 Y82.234
X59.791 Y84.874
X59.465 Y85.834
G3 X59.408 Y85.943 Z-14.98 R0.4
X59.33 Y86.022 Z-14.924 R0.4
X59.254 Y86.068 Z-14.835 R0.4
X59.201 Y86.088 Z-14.724 R0.4
X59.182 Y86.094 Z-14.6 R0.4
G0 Z5.
X41.603 Y79.318
Z-13.552
G3 X41.607 Y79.334 Z-13.664 R0.75 F350.
X41.62 Y79.38 Z-13.768 R0.75
X41.633 Y79.454 Z-13.854 R0.75
X41.639 Y79.549 Z-13.916 R0.75
X41.636 Y79.613 Z-13.938 R0.75
X41.628 Y79.679 Z-13.95 R0.75
X40.15 Y79.42 Z-14.156 R0.75
X41.628 Y79.679 Z-14.362 R0.75
X40.15 Y79.42 Z-14.568 R0.75
X41.628 Y79.679 Z-14.775 R0.75
X40.15 Y79.42 Z-14.981 R0.75
X41.628 Y79.679 Z-15.187 R0.75
X40.15 Y79.42 Z-15.393 R0.75
X41.628 Y79.679 Z-15.599 R0.75
X40.15 Y79.42 Z-15.805 R0.75
X41.639 Y79.549 Z-16. R0.75
X38.361 R1.639
X45.439 R3.539
X34.561 R5.439
X49.239 R7.339
X30.761 R9.239
X53.039 R11.139
X26.961 R13.039
X56.839 R14.939
X23.161 R16.839
X56.839 R16.839
G2 X58.41 Y82.584 R3.717
G3 X59.465 Y85.834 R2.856
G1 X58.933 Y87.398
X57.747 Y89.802
X56.276 Y92.003
X54.516 Y94.016
X52.465 Y95.818
X50.25 Y97.298
X47.856 Y98.479
X45.28 Y99.352
X42.644 Y99.872
X40.011 Y100.045
X37.315 Y99.868
X34.68 Y99.342
X32.166 Y98.489
X29.771 Y97.309
X27.504 Y95.794
X25.515 Y94.049
X23.755 Y92.044
X22.247 Y89.79
X21.057 Y87.371
X20.197 Y84.826
X19.677 Y82.193
X19.505 Y79.561
X19.59 Y78.243
X19.681 Y76.87
X20.205 Y74.237
X21.066 Y71.703
X22.271 Y69.272
X23.747 Y67.064
X25.497 Y65.069
X27.494 Y63.315
X29.345 Y62.072
X29.768 Y61.793
X32.183 Y60.605
X34.68 Y59.758
X37.315 Y59.232
X40.01 Y59.055
X42.706 Y59.236
X45.303 Y59.752
X47.855 Y60.62
X50.25 Y61.802
X52.466 Y63.282
X54.474 Y65.041
X56.248 Y67.059
X57.758 Y69.318
X58.942 Y71.725
X59.795 Y74.237
X60.32 Y76.877
X60.495 Y79.561
X60.319 Y82.234
X59.791 Y84.874
X59.465 Y85.834
G3 X59.408 Y85.943 Z-15.98 R0.4
X59.33 Y86.022 Z-15.924 R0.4
X59.254 Y86.068 Z-15.835 R0.4
X59.201 Y86.088 Z-15.724 R0.4
X59.182 Y86.094 Z-15.6 R0.4
G0 Z5.
X41.603 Y79.318
Z-14.552
G3 X41.607 Y79.334 Z-14.664 R0.75 F350.
X41.62 Y79.38 Z-14.768 R0.75
X41.633 Y79.454 Z-14.854 R0.75
X41.639 Y79.549 Z-14.916 R0.75
X41.636 Y79.613 Z-14.938 R0.75
X41.628 Y79.679 Z-14.95 R0.75
X40.15 Y79.42 Z-15.156 R0.75
X41.628 Y79.679 Z-15.362 R0.75
X40.15 Y79.42 Z-15.568 R0.75
X41.628 Y79.679 Z-15.775 R0.75
X40.15 Y79.42 Z-15.981 R0.75
X41.628 Y79.679 Z-16.187 R0.75
X40.15 Y79.42 Z-16.393 R0.75
X41.628 Y79.679 Z-16.599 R0.75
X40.15 Y79.42 Z-16.805 R0.75
X41.639 Y79.549 Z-17. R0.75
X38.361 R1.639
X45.439 R3.539
X34.561 R5.439
X49.239 R7.339
X30.761 R9.239
X53.039 R11.139
X26.961 R13.039
X56.839 R14.939
X23.161 R16.839
X56.839 R16.839
G2 X58.41 Y82.584 R3.717
G3 X59.465 Y85.834 R2.856
G1 X58.933 Y87.398
X57.747 Y89.802
X56.276 Y92.003
X54.516 Y94.016
X52.465 Y95.818
X50.25 Y97.298
X47.856 Y98.479
X45.28 Y99.352
X42.644 Y99.872
X40.011 Y100.045
X37.315 Y99.868
X34.68 Y99.342
X32.166 Y98.489
X29.771 Y97.309
X27.504 Y95.794
X25.515 Y94.049
X23.755 Y92.044
X22.247 Y89.79
X21.057 Y87.371
X20.197 Y84.826
X19.677 Y82.193
X19.505 Y79.561
X19.59 Y78.243
X19.681 Y76.87
X20.205 Y74.237
X21.066 Y71.703
X22.271 Y69.272
X23.747 Y67.064
X25.497 Y65.069
X27.494 Y63.315
X29.345 Y62.072
X29.768 Y61.793
X32.183 Y60.605
X34.68 Y59.758
X37.315 Y59.232
X40.01 Y59.055
X42.706 Y59.236
X45.303 Y59.752
X47.855 Y60.62
X50.25 Y61.802
X52.466 Y63.282
X54.474 Y65.041
X56.248 Y67.059
X57.758 Y69.318
X58.942 Y71.725
X59.795 Y74.237
X60.32 Y76.877
X60.495 Y79.561
X60.319 Y82.234
X59.791 Y84.874
X59.465 Y85.834
G3 X59.408 Y85.943 Z-16.98 R0.4
X59.33 Y86.022 Z-16.924 R0.4
X59.254 Y86.068 Z-16.835 R0.4
X59.201 Y86.088 Z-16.724 R0.4
X59.182 Y86.094 Z-16.6 R0.4
G0 Z5.
X41.603 Y79.318
Z-15.552
G3 X41.607 Y79.334 Z-15.664 R0.75 F350.
X41.62 Y79.38 Z-15.768 R0.75
X41.633 Y79.454 Z-15.854 R0.75
X41.639 Y79.549 Z-15.916 R0.75
X41.636 Y79.613 Z-15.938 R0.75
X41.628 Y79.679 Z-15.95 R0.75
X40.15 Y79.42 Z-16.156 R0.75
X41.628 Y79.679 Z-16.362 R0.75
X40.15 Y79.42 Z-16.568 R0.75
X41.628 Y79.679 Z-16.775 R0.75
X40.15 Y79.42 Z-16.981 R0.75
X41.628 Y79.679 Z-17.187 R0.75
X40.15 Y79.42 Z-17.393 R0.75
X41.628 Y79.679 Z-17.599 R0.75
X40.15 Y79.42 Z-17.805 R0.75
X41.639 Y79.549 Z-18. R0.75
X38.361 R1.639
X45.439 R3.539
X34.561 R5.439
X49.239 R7.339
X30.761 R9.239
X53.039 R11.139
X26.961 R13.039
X56.839 R14.939
X23.161 R16.839
X56.839 R16.839
G2 X58.41 Y82.584 R3.717
G3 X59.465 Y85.834 R2.856
G1 X58.933 Y87.398
X57.747 Y89.802
X56.276 Y92.003
X54.516 Y94.016
X52.465 Y95.818
X50.25 Y97.298
X47.856 Y98.479
X45.28 Y99.352
X42.644 Y99.872
X40.011 Y100.045
X37.315 Y99.868
X34.68 Y99.342
X32.166 Y98.489
X29.771 Y97.309
X27.504 Y95.794
X25.515 Y94.049
X23.755 Y92.044
X22.247 Y89.79
X21.057 Y87.371
X20.197 Y84.826
X19.677 Y82.193
X19.505 Y79.561
X19.59 Y78.243
X19.681 Y76.87
X20.205 Y74.237
X21.066 Y71.703
X22.271 Y69.272
X23.747 Y67.064
X25.497 Y65.069
X27.494 Y63.315
X29.345 Y62.072
X29.768 Y61.793
X32.183 Y60.605
X34.68 Y59.758
X37.315 Y59.232
X40.01 Y59.055
X42.706 Y59.236
X45.303 Y59.752
X47.855 Y60.62
X50.25 Y61.802
X52.466 Y63.282
X54.474 Y65.041
X56.248 Y67.059
X57.758 Y69.318
X58.942 Y71.725
X59.795 Y74.237
X60.32 Y76.877
X60.495 Y79.561
X60.319 Y82.234
X59.791 Y84.874
X59.465 Y85.834
G3 X59.408 Y85.943 Z-17.98 R0.4
X59.33 Y86.022 Z-17.924 R0.4
X59.254 Y86.068 Z-17.835 R0.4
X59.201 Y86.088 Z-17.724 R0.4
X59.182 Y86.094 Z-17.6 R0.4
G0 Z5.
X41.603 Y79.318
Z-16.552
G3 X41.607 Y79.334 Z-16.664 R0.75 F350.
X41.62 Y79.38 Z-16.768 R0.75
X41.633 Y79.454 Z-16.854 R0.75
X41.639 Y79.549 Z-16.916 R0.75
X41.636 Y79.613 Z-16.938 R0.75
X41.628 Y79.679 Z-16.95 R0.75
X40.15 Y79.42 Z-17.156 R0.75
X41.628 Y79.679 Z-17.362 R0.75
X40.15 Y79.42 Z-17.568 R0.75
X41.628 Y79.679 Z-17.775 R0.75
X40.15 Y79.42 Z-17.981 R0.75
X41.628 Y79.679 Z-18.187 R0.75
X40.15 Y79.42 Z-18.393 R0.75
X41.628 Y79.679 Z-18.599 R0.75
X40.15 Y79.42 Z-18.805 R0.75
X41.639 Y79.549 Z-19. R0.75
X38.361 R1.639
X45.439 R3.539
X34.561 R5.439
X49.239 R7.339
X30.761 R9.239
X53.039 R11.139
X26.961 R13.039
X56.839 R14.939
X23.161 R16.839
X56.839 R16.839
G2 X58.41 Y82.584 R3.717
G3 X59.465 Y85.834 R2.856
G1 X58.933 Y87.398
X57.747 Y89.802
X56.276 Y92.003
X54.516 Y94.016
X52.465 Y95.818
X50.25 Y97.298
X47.856 Y98.479
X45.28 Y99.352
X42.644 Y99.872
X40.011 Y100.045
X37.315 Y99.868
X34.68 Y99.342
X32.166 Y98.489
X29.771 Y97.309
X27.504 Y95.794
X25.515 Y94.049
X23.755 Y92.044
X22.247 Y89.79
X21.057 Y87.371
X20.197 Y84.826
X19.677 Y82.193
X19.505 Y79.561
X19.59 Y78.243
X19.681 Y76.87
X20.205 Y74.237
X21.066 Y71.703
X22.271 Y69.272
X23.747 Y67.064
X25.497 Y65.069
X27.494 Y63.315
X29.345 Y62.072
X29.768 Y61.793
X32.183 Y60.605
X34.68 Y59.758
X37.315 Y59.232
X40.01 Y59.055
X42.706 Y59.236
X45.303 Y59.752
X47.855 Y60.62
X50.25 Y61.802
X52.466 Y63.282
X54.474 Y65.041
X56.248 Y67.059
X57.758 Y69.318
X58.942 Y71.725
X59.795 Y74.237
X60.32 Y76.877
X60.495 Y79.561
X60.319 Y82.234
X59.791 Y84.874
X59.465 Y85.834
G3 X59.408 Y85.943 Z-18.98 R0.4
X59.33 Y86.022 Z-18.924 R0.4
X59.254 Y86.068 Z-18.835 R0.4
X59.201 Y86.088 Z-18.724 R0.4
X59.182 Y86.094 Z-18.6 R0.4
G0 Z5.
X41.603 Y79.318
Z-17.552
G3 X41.607 Y79.334 Z-17.664 R0.75 F350.
X41.62 Y79.38 Z-17.768 R0.75
X41.633 Y79.454 Z-17.854 R0.75
X41.639 Y79.549 Z-17.916 R0.75
X41.636 Y79.613 Z-17.938 R0.75
X41.628 Y79.679 Z-17.95 R0.75
X40.15 Y79.42 Z-18.156 R0.75
X41.628 Y79.679 Z-18.362 R0.75
X40.15 Y79.42 Z-18.568 R0.75
X41.628 Y79.679 Z-18.775 R0.75
X40.15 Y79.42 Z-18.981 R0.75
X41.628 Y79.679 Z-19.187 R0.75
X40.15 Y79.42 Z-19.393 R0.75
X41.628 Y79.679 Z-19.599 R0.75
X40.15 Y79.42 Z-19.805 R0.75
X41.639 Y79.549 Z-20. R0.75
X38.361 R1.639
X45.439 R3.539
X34.561 R5.439
X49.239 R7.339
X30.761 R9.239
X53.039 R11.139
X26.961 R13.039
X56.839 R14.939
X23.161 R16.839
X56.839 R16.839
G2 X58.41 Y82.584 R3.717
G3 X59.465 Y85.834 R2.856
G1 X58.933 Y87.398
X57.747 Y89.802
X56.276 Y92.003
X54.516 Y94.016
X52.465 Y95.818
X50.25 Y97.298
X47.856 Y98.479
X45.28 Y99.352
X42.644 Y99.872
X40.011 Y100.045
X37.315 Y99.868
X34.68 Y99.342
X32.166 Y98.489
X29.771 Y97.309
X27.504 Y95.794
X25.515 Y94.049
X23.755 Y92.044
X22.247 Y89.79
X21.057 Y87.371
X20.197 Y84.826
X19.677 Y82.193
X19.505 Y79.561
X19.59 Y78.243
X19.681 Y76.87
X20.205 Y74.237
X21.066 Y71.703
X22.271 Y69.272
X23.747 Y67.064
X25.497 Y65.069
X27.494 Y63.315
X29.345 Y62.072
X29.768 Y61.793
X32.183 Y60.605
X34.68 Y59.758
X37.315 Y59.232
X40.01 Y59.055
X42.706 Y59.236
X45.303 Y59.752
X47.855 Y60.62
X50.25 Y61.802
X52.466 Y63.282
X54.474 Y65.041
X56.248 Y67.059
X57.758 Y69.318
X58.942 Y71.725
X59.795 Y74.237
X60.32 Y76.877
X60.495 Y79.561
X60.319 Y82.234
X59.791 Y84.874
X59.465 Y85.834
G3 X59.408 Y85.943 Z-19.98 R0.4
X59.33 Y86.022 Z-19.924 R0.4
X59.254 Y86.068 Z-19.835 R0.4
X59.201 Y86.088 Z-19.724 R0.4
X59.182 Y86.094 Z-19.6 R0.4
G0 Z5.
X41.603 Y79.318
Z-18.552
G3 X41.607 Y79.334 Z-18.664 R0.75 F350.
X41.62 Y79.38 Z-18.768 R0.75
X41.633 Y79.454 Z-18.854 R0.75
X41.639 Y79.549 Z-18.916 R0.75
X41.636 Y79.613 Z-18.938 R0.75
X41.628 Y79.679 Z-18.95 R0.75
X40.15 Y79.42 Z-19.156 R0.75
X41.628 Y79.679 Z-19.362 R0.75
X40.15 Y79.42 Z-19.568 R0.75
X41.628 Y79.679 Z-19.775 R0.75
X40.15 Y79.42 Z-19.981 R0.75
X41.628 Y79.679 Z-20.187 R0.75
X40.15 Y79.42 Z-20.393 R0.75
X41.628 Y79.679 Z-20.599 R0.75
X40.15 Y79.42 Z-20.805 R0.75
X41.639 Y79.549 Z-21. R0.75
X38.361 R1.639
X45.439 R3.539
X34.561 R5.439
X49.239 R7.339
X30.761 R9.239
X53.039 R11.139
X26.961 R13.039
X56.839 R14.939
X23.161 R16.839
X56.839 R16.839
G2 X58.41 Y82.584 R3.717
G3 X59.465 Y85.834 R2.856
G1 X58.933 Y87.398
X57.747 Y89.802
X56.276 Y92.003
X54.516 Y94.016
X52.465 Y95.818
X50.25 Y97.298
X47.856 Y98.479
X45.28 Y99.352
X42.644 Y99.872
X40.011 Y100.045
X37.315 Y99.868
X34.68 Y99.342
X32.166 Y98.489
X29.771 Y97.309
X27.504 Y95.794
X25.515 Y94.049
X23.755 Y92.044
X22.247 Y89.79
X21.057 Y87.371
X20.197 Y84.826
X19.677 Y82.193
X19.505 Y79.561
X19.59 Y78.243
X19.681 Y76.87
X20.205 Y74.237
X21.066 Y71.703
X22.271 Y69.272
X23.747 Y67.064
X25.497 Y65.069
X27.494 Y63.315
X29.345 Y62.072
X29.768 Y61.793
X32.183 Y60.605
X34.68 Y59.758
X37.315 Y59.232
X40.01 Y59.055
X42.706 Y59.236
X45.303 Y59.752
X47.855 Y60.62
X50.25 Y61.802
X52.466 Y63.282
X54.474 Y65.041
X56.248 Y67.059
X57.758 Y69.318
X58.942 Y71.725
X59.795 Y74.237
X60.32 Y76.877
X60.495 Y79.561
X60.319 Y82.234
X59.791 Y84.874
X59.465 Y85.834
G3 X59.206 Y85.957 R0.2
G1 X42.631 Y79.79
G2 X42.383 Y79.888 R0.2
G3 X41.044 Y79.211 Z-21.206 R0.75
X42.383 Y79.888 Z-21.412 R0.75
X41.044 Y79.211 Z-21.618 R0.75
X42.383 Y79.888 Z-21.825 R0.75
X40.963 Y79.549 Z-22. R0.75
X42.837 R0.937
X37.163 R2.837
X42.837 R2.837
G2 X44.031 Y81.831 R2.779
G3 X44.297 Y84.393 R1.698
G1 X44.212 Y84.483
X43.055 Y85.272
X41.75 Y85.796
X40.333 Y86.028
X38.955 Y85.953
X38.935 Y85.949
X37.618 Y85.583
X36.376 Y84.929
X35.289 Y84.011
X34.451 Y82.909
X33.853 Y81.624
X33.553 Y80.267
X33.55 Y78.852
X33.639 Y78.445
X33.847 Y77.498
X34.443 Y76.201
X35.28 Y75.1
X35.345 Y75.041
X36.356 Y74.183
X37.618 Y73.517
X38.936 Y73.151
X39.017 Y73.144
X40.334 Y73.072
X41.731 Y73.298
X41.747 Y73.303
X43.056 Y73.829
X44.185 Y74.594
X45.165 Y75.623
X45.895 Y76.845
X46.334 Y78.146
X46.487 Y79.562
X46.338 Y80.931
X46.313 Y81.015
X45.891 Y82.268
X45.168 Y83.471
X44.297 Y84.393
G3 X43.958 Y84.309 R0.2
G1 X42.754 Y79.925
G2 X42.383 Y79.888 R0.2
G3 X41.044 Y79.211 Z-22.206 R0.75
X42.383 Y79.888 Z-22.412 R0.75
X41.044 Y79.211 Z-22.618 R0.75
X42.383 Y79.888 Z-22.825 R0.75
X40.963 Y79.549 Z-23. R0.75
X42.837 R0.937
X37.163 R2.837
X42.837 R2.837
G2 X44.031 Y81.831 R2.779
G3 X44.297 Y84.393 R1.698
G1 X44.212 Y84.483
X43.055 Y85.272
X41.75 Y85.796
X40.333 Y86.028
X38.955 Y85.953
X38.935 Y85.949
X37.618 Y85.583
X36.376 Y84.929
X35.289 Y84.011
X34.451 Y82.909
X33.853 Y81.624
X33.553 Y80.267
X33.55 Y78.852
X33.639 Y78.445
X33.847 Y77.498
X34.443 Y76.201
X35.28 Y75.1
X35.345 Y75.041
X36.356 Y74.183
X37.618 Y73.517
X38.936 Y73.151
X39.017 Y73.144
X40.334 Y73.072
X41.731 Y73.298
X41.747 Y73.303
X43.056 Y73.829
X44.185 Y74.594
X45.165 Y75.623
X45.895 Y76.845
X46.334 Y78.146
X46.487 Y79.562
X46.338 Y80.931
X46.313 Y81.015
X45.891 Y82.268
X45.168 Y83.471
X44.297 Y84.393
G3 X43.958 Y84.309 R0.2
G1 X42.754 Y79.925
G2 X42.383 Y79.888 R0.2
G3 X41.044 Y79.211 Z-23.206 R0.75
X42.383 Y79.888 Z-23.412 R0.75
X41.044 Y79.211 Z-23.618 R0.75
X42.383 Y79.888 Z-23.825 R0.75
X40.963 Y79.549 Z-24. R0.75
X42.837 R0.937
X37.163 R2.837
X42.837 R2.837
G2 X44.031 Y81.831 R2.779
G3 X44.297 Y84.393 R1.698
G1 X44.212 Y84.483
X43.055 Y85.272
X41.75 Y85.796
X40.333 Y86.028
X38.955 Y85.953
X38.935 Y85.949
X37.618 Y85.583
X36.376 Y84.929
X35.289 Y84.011
X34.451 Y82.909
X33.853 Y81.624
X33.553 Y80.267
X33.55 Y78.852
X33.639 Y78.445
X33.847 Y77.498
X34.443 Y76.201
X35.28 Y75.1
X35.345 Y75.041
X36.356 Y74.183
X37.618 Y73.517
X38.936 Y73.151
X39.017 Y73.144
X40.334 Y73.072
X41.731 Y73.298
X41.747 Y73.303
X43.056 Y73.829
X44.185 Y74.594
X45.165 Y75.623
X45.895 Y76.845
X46.334 Y78.146
X46.487 Y79.562
X46.338 Y80.931
X46.313 Y81.015
X45.891 Y82.268
X45.168 Y83.471
X44.297 Y84.393
G3 X43.958 Y84.309 R0.2
G1 X42.754 Y79.925
G2 X42.383 Y79.888 R0.2
G3 X41.044 Y79.211 Z-24.206 R0.75
X42.383 Y79.888 Z-24.412 R0.75
X41.044 Y79.211 Z-24.618 R0.75
X42.383 Y79.888 Z-24.825 R0.75
X40.963 Y79.549 Z-25. R0.75
X42.837 R0.937
X37.163 R2.837
X42.837 R2.837
G2 X44.031 Y81.831 R2.779
G3 X44.297 Y84.393 R1.698
G1 X44.212 Y84.483
X43.055 Y85.272
X41.75 Y85.796
X40.333 Y86.028
X38.955 Y85.953
X38.935 Y85.949
X37.618 Y85.583
X36.376 Y84.929
X35.289 Y84.011
X34.451 Y82.909
X33.853 Y81.624
X33.553 Y80.267
X33.55 Y78.852
X33.639 Y78.445
X33.847 Y77.498
X34.443 Y76.201
X35.28 Y75.1
X35.345 Y75.041
X36.356 Y74.183
X37.618 Y73.517
X38.936 Y73.151
X39.017 Y73.144
X40.334 Y73.072
X41.731 Y73.298
X41.747 Y73.303
X43.056 Y73.829
X44.185 Y74.594
X45.165 Y75.623
X45.895 Y76.845
X46.334 Y78.146
X46.487 Y79.562
X46.338 Y80.931
X46.313 Y81.015
X45.891 Y82.268
X45.168 Y83.471
X44.297 Y84.393
G3 X44.199 Y84.469 Z-24.98 R0.4
X44.095 Y84.508 Z-24.924 R0.4
X44.008 Y84.518 Z-24.835 R0.4
X43.951 Y84.515 Z-24.724 R0.4
X43.932 Y84.512 Z-24.6 R0.4
G0 Z5.
X89.688 Y130.352
Z1.448
G3 X89.672 Y130.347 Z1.336 R0.75 F350.
X89.628 Y130.329 Z1.232 R0.75
X89.561 Y130.295 Z1.146 R0.75
X89.481 Y130.243 Z1.084 R0.75
X89.432 Y130.202 Z1.062 R0.75
X89.384 Y130.156 Z1.05 R0.75
X90.478 Y129.13 Z0.844 R0.75
X89.384 Y130.156 Z0.638 R0.75
X90.478 Y129.13 Z0.432 R0.75
X89.384 Y130.156 Z0.225 R0.75
X90.478 Y129.13 Z0.019 R0.75
X89.384 Y130.156 Z-0.187 R0.75
X90.478 Y129.13 Z-0.393 R0.75
X89.384 Y130.156 Z-0.599 R0.75
X90.478 Y129.13 Z-0.805 R0.75
X89.481 Y130.243 Z-1. R0.75
Y128.858 R0.866
X90.52 Y130.243 R0.866
X89.481 R0.866
G2 X87.955 Y129.731 R2.558
G3 X86.985 Y128.447 R1.011
G1 X87.032 Y128.276
X87.495 Y127.51
X88.128 Y126.918
X88.919 Y126.505
X89.765 Y126.329
X90.658 Y126.387
X91.491 Y126.684
X92.205 Y127.189
X92.761 Y127.871
X93.112 Y128.683
X93.231 Y129.55
X93.113 Y130.411
X92.765 Y131.217
X92.627 Y131.393
X92.208 Y131.908
X91.49 Y132.416
X90.664 Y132.711
X90.614 Y132.716
X89.765 Y132.771
X88.924 Y132.596
X88.148 Y132.195
X87.492 Y131.586
X87.036 Y130.837
X86.801 Y129.997
X86.799 Y129.109
X86.889 Y128.79
X86.985 Y128.447
G3 X87.231 Y128.308 R0.2
G1 X90.477 Y129.206
G3 X90.603 Y129.31 R0.2
X89.259 Y129.975 Z-1.206 R0.75
X90.603 Y129.31 Z-1.412 R0.75
X89.259 Y129.975 Z-1.618 R0.75
X90.603 Y129.31 Z-1.825 R0.75
X89.481 Y130.243 Z-2. R0.75
Y128.858 R0.866
X90.52 Y130.243 R0.866
X89.481 R0.866
G2 X87.955 Y129.731 R2.558
G3 X86.985 Y128.447 R1.011
G1 X87.032 Y128.276
X87.495 Y127.51
X88.128 Y126.918
X88.919 Y126.505
X89.765 Y126.329
X90.658 Y126.387
X91.491 Y126.684
X92.205 Y127.189
X92.761 Y127.871
X93.112 Y128.683
X93.231 Y129.55
X93.113 Y130.411
X92.765 Y131.217
X92.627 Y131.393
X92.208 Y131.908
X91.49 Y132.416
X90.664 Y132.711
X90.614 Y132.716
X89.765 Y132.771
X88.924 Y132.596
X88.148 Y132.195
X87.492 Y131.586
X87.036 Y130.837
X86.801 Y129.997
X86.799 Y129.109
X86.889 Y128.79
X86.985 Y128.447
G3 X87.231 Y128.308 R0.2
G1 X90.477 Y129.206
G3 X90.603 Y129.31 R0.2
X89.259 Y129.975 Z-2.206 R0.75
X90.603 Y129.31 Z-2.412 R0.75
X89.259 Y129.975 Z-2.618 R0.75
X90.603 Y129.31 Z-2.825 R0.75
X89.481 Y130.243 Z-3. R0.75
Y128.858 R0.866
X90.52 Y130.243 R0.866
X89.481 R0.866
G2 X87.955 Y129.731 R2.558
G3 X86.985 Y128.447 R1.011
G1 X87.032 Y128.276
X87.495 Y127.51
X88.128 Y126.918
X88.919 Y126.505
X89.765 Y126.329
X90.658 Y126.387
X91.491 Y126.684
X92.205 Y127.189
X92.761 Y127.871
X93.112 Y128.683
X93.231 Y129.55
X93.113 Y130.411
X92.765 Y131.217
X92.627 Y131.393
X92.208 Y131.908
X91.49 Y132.416
X90.664 Y132.711
X90.614 Y132.716
X89.765 Y132.771
X88.924 Y132.596
X88.148 Y132.195
X87.492 Y131.586
X87.036 Y130.837
X86.801 Y129.997
X86.799 Y129.109
X86.889 Y128.79
X86.985 Y128.447
G3 X87.231 Y128.308 R0.2
G1 X90.477 Y129.206
G3 X90.603 Y129.31 R0.2
X89.259 Y129.975 Z-3.206 R0.75
X90.603 Y129.31 Z-3.412 R0.75
X89.259 Y129.975 Z-3.618 R0.75
X90.603 Y129.31 Z-3.825 R0.75
X89.481 Y130.243 Z-4. R0.75
Y128.858 R0.866
X90.52 Y130.243 R0.866
X89.481 R0.866
G2 X87.955 Y129.731 R2.558
G3 X86.985 Y128.447 R1.011
G1 X87.032 Y128.276
X87.495 Y127.51
X88.128 Y126.918
X88.919 Y126.505
X89.765 Y126.329
X90.658 Y126.387
X91.491 Y126.684
X92.205 Y127.189
X92.761 Y127.871
X93.112 Y128.683
X93.231 Y129.55
X93.113 Y130.411
X92.765 Y131.217
X92.627 Y131.393
X92.208 Y131.908
X91.49 Y132.416
X90.664 Y132.711
X90.614 Y132.716
X89.765 Y132.771
X88.924 Y132.596
X88.148 Y132.195
X87.492 Y131.586
X87.036 Y130.837
X86.801 Y129.997
X86.799 Y129.109
X86.889 Y128.79
X86.985 Y128.447
G3 X87.231 Y128.308 R0.2
G1 X90.477 Y129.206
G3 X90.603 Y129.31 R0.2
X89.259 Y129.975 Z-4.206 R0.75
X90.603 Y129.31 Z-4.412 R0.75
X89.259 Y129.975 Z-4.618 R0.75
X90.603 Y129.31 Z-4.825 R0.75
X89.481 Y130.243 Z-5. R0.75
Y128.858 R0.866
X90.52 Y130.243 R0.866
X89.481 R0.866
G2 X87.955 Y129.731 R2.558
G3 X86.985 Y128.447 R1.011
G1 X87.032 Y128.276
X87.495 Y127.51
X88.128 Y126.918
X88.919 Y126.505
X89.765 Y126.329
X90.658 Y126.387
X91.491 Y126.684
X92.205 Y127.189
X92.761 Y127.871
X93.112 Y128.683
X93.231 Y129.55
X93.113 Y130.411
X92.765 Y131.217
X92.627 Y131.393
X92.208 Y131.908
X91.49 Y132.416
X90.664 Y132.711
X90.614 Y132.716
X89.765 Y132.771
X88.924 Y132.596
X88.148 Y132.195
X87.492 Y131.586
X87.036 Y130.837
X86.801 Y129.997
X86.799 Y129.109
X86.889 Y128.79
X86.985 Y128.447
G3 X87.231 Y128.308 R0.2
G1 X90.477 Y129.206
G3 X90.603 Y129.31 R0.2
X89.259 Y129.975 Z-5.206 R0.75
X90.603 Y129.31 Z-5.412 R0.75
X89.259 Y129.975 Z-5.618 R0.75
X90.603 Y129.31 Z-5.825 R0.75
X89.481 Y130.243 Z-6. R0.75
Y128.858 R0.866
X90.52 Y130.243 R0.866
X89.481 R0.866
G2 X87.955 Y129.731 R2.558
G3 X86.985 Y128.447 R1.011
G1 X87.032 Y128.276
X87.495 Y127.51
X88.128 Y126.918
X88.919 Y126.505
X89.765 Y126.329
X90.658 Y126.387
X91.491 Y126.684
X92.205 Y127.189
X92.761 Y127.871
X93.112 Y128.683
X93.231 Y129.55
X93.113 Y130.411
X92.765 Y131.217
X92.627 Y131.393
X92.208 Y131.908
X91.49 Y132.416
X90.664 Y132.711
X90.614 Y132.716
X89.765 Y132.771
X88.924 Y132.596
X88.148 Y132.195
X87.492 Y131.586
X87.036 Y130.837
X86.801 Y129.997
X86.799 Y129.109
X86.889 Y128.79
X86.985 Y128.447
G3 X87.231 Y128.308 R0.2
G1 X90.477 Y129.206
G3 X90.603 Y129.31 R0.2
X89.259 Y129.975 Z-6.206 R0.75
X90.603 Y129.31 Z-6.412 R0.75
X89.259 Y129.975 Z-6.618 R0.75
X90.603 Y129.31 Z-6.825 R0.75
X89.481 Y130.243 Z-7. R0.75
Y128.858 R0.866
X90.52 Y130.243 R0.866
X89.481 R0.866
G2 X87.955 Y129.731 R2.558
G3 X86.985 Y128.447 R1.011
G1 X87.032 Y128.276
X87.495 Y127.51
X88.128 Y126.918
X88.919 Y126.505
X89.765 Y126.329
X90.658 Y126.387
X91.491 Y126.684
X92.205 Y127.189
X92.761 Y127.871
X93.112 Y128.683
X93.231 Y129.55
X93.113 Y130.411
X92.765 Y131.217
X92.627 Y131.393
X92.208 Y131.908
X91.49 Y132.416
X90.664 Y132.711
X90.614 Y132.716
X89.765 Y132.771
X88.924 Y132.596
X88.148 Y132.195
X87.492 Y131.586
X87.036 Y130.837
X86.801 Y129.997
X86.799 Y129.109
X86.889 Y128.79
X86.985 Y128.447
G3 X87.231 Y128.308 R0.2
G1 X90.477 Y129.206
G3 X90.603 Y129.31 R0.2
X89.259 Y129.975 Z-7.206 R0.75
X90.603 Y129.31 Z-7.412 R0.75
X89.259 Y129.975 Z-7.618 R0.75
X90.603 Y129.31 Z-7.825 R0.75
X89.481 Y130.243 Z-8. R0.75
Y128.858 R0.866
X90.52 Y130.243 R0.866
X89.481 R0.866
G2 X87.955 Y129.731 R2.558
G3 X86.985 Y128.447 R1.011
G1 X87.032 Y128.276
X87.495 Y127.51
X88.128 Y126.918
X88.919 Y126.505
X89.765 Y126.329
X90.658 Y126.387
X91.491 Y126.684
X92.205 Y127.189
X92.761 Y127.871
X93.112 Y128.683
X93.231 Y129.55
X93.113 Y130.411
X92.765 Y131.217
X92.627 Y131.393
X92.208 Y131.908
X91.49 Y132.416
X90.664 Y132.711
X90.614 Y132.716
X89.765 Y132.771
X88.924 Y132.596
X88.148 Y132.195
X87.492 Y131.586
X87.036 Y130.837
X86.801 Y129.997
X86.799 Y129.109
X86.889 Y128.79
X86.985 Y128.447
G3 X87.231 Y128.308 R0.2
G1 X90.477 Y129.206
G3 X90.603 Y129.31 R0.2
X89.259 Y129.975 Z-8.206 R0.75
X90.603 Y129.31 Z-8.412 R0.75
X89.259 Y129.975 Z-8.618 R0.75
X90.603 Y129.31 Z-8.825 R0.75
X89.481 Y130.243 Z-9. R0.75
Y128.858 R0.866
X90.52 Y130.243 R0.866
X89.481 R0.866
G2 X87.955 Y129.731 R2.558
G3 X86.985 Y128.447 R1.011
G1 X87.032 Y128.276
X87.495 Y127.51
X88.128 Y126.918
X88.919 Y126.505
X89.765 Y126.329
X90.658 Y126.387
X91.491 Y126.684
X92.205 Y127.189
X92.761 Y127.871
X93.112 Y128.683
X93.231 Y129.55
X93.113 Y130.411
X92.765 Y131.217
X92.627 Y131.393
X92.208 Y131.908
X91.49 Y132.416
X90.664 Y132.711
X90.614 Y132.716
X89.765 Y132.771
X88.924 Y132.596
X88.148 Y132.195
X87.492 Y131.586
X87.036 Y130.837
X86.801 Y129.997
X86.799 Y129.109
X86.889 Y128.79
X86.985 Y128.447
G3 X87.231 Y128.308 R0.2
G1 X90.477 Y129.206
G3 X90.603 Y129.31 R0.2
X89.259 Y129.975 Z-9.206 R0.75
X90.603 Y129.31 Z-9.412 R0.75
X89.259 Y129.975 Z-9.618 R0.75
X90.603 Y129.31 Z-9.825 R0.75
X89.481 Y130.243 Z-10. R0.75
Y128.858 R0.866
X90.52 Y130.243 R0.866
X89.481 R0.866
G2 X87.955 Y129.731 R2.558
G3 X86.985 Y128.447 R1.011
G1 X87.032 Y128.276
X87.495 Y127.51
X88.128 Y126.918
X88.919 Y126.505
X89.765 Y126.329
X90.658 Y126.387
X91.491 Y126.684
X92.205 Y127.189
X92.761 Y127.871
X93.112 Y128.683
X93.231 Y129.55
X93.113 Y130.411
X92.765 Y131.217
X92.627 Y131.393
X92.208 Y131.908
X91.49 Y132.416
X90.664 Y132.711
X90.614 Y132.716
X89.765 Y132.771
X88.924 Y132.596
X88.148 Y132.195
X87.492 Y131.586
X87.036 Y130.837
X86.801 Y129.997
X86.799 Y129.109
X86.889 Y128.79
X86.985 Y128.447
G3 X87.231 Y128.308 R0.2
G1 X90.477 Y129.206
G3 X90.603 Y129.31 R0.2
X89.259 Y129.975 Z-10.206 R0.75
X90.603 Y129.31 Z-10.412 R0.75
X89.259 Y129.975 Z-10.618 R0.75
X90.603 Y129.31 Z-10.825 R0.75
X89.481 Y130.243 Z-11. R0.75
Y128.858 R0.866
X90.52 Y130.243 R0.866
X89.481 R0.866
G2 X87.955 Y129.731 R2.558
G3 X86.985 Y128.447 R1.011
G1 X87.032 Y128.276
X87.495 Y127.51
X88.128 Y126.918
X88.919 Y126.505
X89.765 Y126.329
X90.658 Y126.387
X91.491 Y126.684
X92.205 Y127.189
X92.761 Y127.871
X93.112 Y128.683
X93.231 Y129.55
X93.113 Y130.411
X92.765 Y131.217
X92.627 Y131.393
X92.208 Y131.908
X91.49 Y132.416
X90.664 Y132.711
X90.614 Y132.716
X89.765 Y132.771
X88.924 Y132.596
X88.148 Y132.195
X87.492 Y131.586
X87.036 Y130.837
X86.801 Y129.997
X86.799 Y129.109
X86.889 Y128.79
X86.985 Y128.447
G3 X87.231 Y128.308 R0.2
G1 X90.477 Y129.206
G3 X90.603 Y129.31 R0.2
X89.259 Y129.975 Z-11.206 R0.75
X90.603 Y129.31 Z-11.412 R0.75
X89.259 Y129.975 Z-11.618 R0.75
X90.603 Y129.31 Z-11.825 R0.75
X89.481 Y130.243 Z-12. R0.75
Y128.858 R0.866
X90.52 Y130.243 R0.866
X89.481 R0.866
G2 X87.955 Y129.731 R2.558
G3 X86.985 Y128.447 R1.011
G1 X87.032 Y128.276
X87.495 Y127.51
X88.128 Y126.918
X88.919 Y126.505
X89.765 Y126.329
X90.658 Y126.387
X91.491 Y126.684
X92.205 Y127.189
X92.761 Y127.871
X93.112 Y128.683
X93.231 Y129.55
X93.113 Y130.411
X92.765 Y131.217
X92.627 Y131.393
X92.208 Y131.908
X91.49 Y132.416
X90.664 Y132.711
X90.614 Y132.716
X89.765 Y132.771
X88.924 Y132.596
X88.148 Y132.195
X87.492 Y131.586
X87.036 Y130.837
X86.801 Y129.997
X86.799 Y129.109
X86.889 Y128.79
X86.985 Y128.447
G3 X87.231 Y128.308 R0.2
G1 X90.477 Y129.206
G3 X90.603 Y129.31 R0.2
X89.259 Y129.975 Z-12.206 R0.75
X90.603 Y129.31 Z-12.412 R0.75
X89.259 Y129.975 Z-12.618 R0.75
X90.603 Y129.31 Z-12.825 R0.75
X89.481 Y130.243 Z-13. R0.75
Y128.858 R0.866
X90.52 Y130.243 R0.866
X89.481 R0.866
G2 X87.955 Y129.731 R2.558
G3 X86.985 Y128.447 R1.011
G1 X87.032 Y128.276
X87.495 Y127.51
X88.128 Y126.918
X88.919 Y126.505
X89.765 Y126.329
X90.658 Y126.387
X91.491 Y126.684
X92.205 Y127.189
X92.761 Y127.871
X93.112 Y128.683
X93.231 Y129.55
X93.113 Y130.411
X92.765 Y131.217
X92.627 Y131.393
X92.208 Y131.908
X91.49 Y132.416
X90.664 Y132.711
X90.614 Y132.716
X89.765 Y132.771
X88.924 Y132.596
X88.148 Y132.195
X87.492 Y131.586
X87.036 Y130.837
X86.801 Y129.997
X86.799 Y129.109
X86.889 Y128.79
X86.985 Y128.447
G3 X87.231 Y128.308 R0.2
G1 X90.477 Y129.206
G3 X90.603 Y129.31 R0.2
X89.259 Y129.975 Z-13.206 R0.75
X90.603 Y129.31 Z-13.412 R0.75
X89.259 Y129.975 Z-13.618 R0.75
X90.603 Y129.31 Z-13.825 R0.75
X89.481 Y130.243 Z-14. R0.75
Y128.858 R0.866
X90.52 Y130.243 R0.866
X89.481 R0.866
G2 X87.955 Y129.731 R2.558
G3 X86.985 Y128.447 R1.011
G1 X87.032 Y128.276
X87.495 Y127.51
X88.128 Y126.918
X88.919 Y126.505
X89.765 Y126.329
X90.658 Y126.387
X91.491 Y126.684
X92.205 Y127.189
X92.761 Y127.871
X93.112 Y128.683
X93.231 Y129.55
X93.113 Y130.411
X92.765 Y131.217
X92.627 Y131.393
X92.208 Y131.908
X91.49 Y132.416
X90.664 Y132.711
X90.614 Y132.716
X89.765 Y132.771
X88.924 Y132.596
X88.148 Y132.195
X87.492 Y131.586
X87.036 Y130.837
X86.801 Y129.997
X86.799 Y129.109
X86.889 Y128.79
X86.985 Y128.447
G3 X87.231 Y128.308 R0.2
G1 X90.477 Y129.206
G3 X90.603 Y129.31 R0.2
X89.259 Y129.975 Z-14.206 R0.75
X90.603 Y129.31 Z-14.412 R0.75
X89.259 Y129.975 Z-14.618 R0.75
X90.603 Y129.31 Z-14.825 R0.75
X89.481 Y130.243 Z-15. R0.75
Y128.858 R0.866
X90.52 Y130.243 R0.866
X89.481 R0.866
G2 X87.955 Y129.731 R2.558
G3 X86.985 Y128.447 R1.011
G1 X87.032 Y128.276
X87.495 Y127.51
X88.128 Y126.918
X88.919 Y126.505
X89.765 Y126.329
X90.658 Y126.387
X91.491 Y126.684
X92.205 Y127.189
X92.761 Y127.871
X93.112 Y128.683
X93.231 Y129.55
X93.113 Y130.411
X92.765 Y131.217
X92.627 Y131.393
X92.208 Y131.908
X91.49 Y132.416
X90.664 Y132.711
X90.614 Y132.716
X89.765 Y132.771
X88.924 Y132.596
X88.148 Y132.195
X87.492 Y131.586
X87.036 Y130.837
X86.801 Y129.997
X86.799 Y129.109
X86.889 Y128.79
X86.985 Y128.447
G3 X87.231 Y128.308 R0.2
G1 X90.477 Y129.206
G3 X90.603 Y129.31 R0.2
X89.259 Y129.975 Z-15.206 R0.75
X90.603 Y129.31 Z-15.412 R0.75
X89.259 Y129.975 Z-15.618 R0.75
X90.603 Y129.31 Z-15.825 R0.75
X89.481 Y130.243 Z-16. R0.75
Y128.858 R0.866
X90.52 Y130.243 R0.866
X89.481 R0.866
G2 X87.955 Y129.731 R2.558
G3 X86.985 Y128.447 R1.011
G1 X87.032 Y128.276
X87.495 Y127.51
X88.128 Y126.918
X88.919 Y126.505
X89.765 Y126.329
X90.658 Y126.387
X91.491 Y126.684
X92.205 Y127.189
X92.761 Y127.871
X93.112 Y128.683
X93.231 Y129.55
X93.113 Y130.411
X92.765 Y131.217
X92.627 Y131.393
X92.208 Y131.908
X91.49 Y132.416
X90.664 Y132.711
X90.614 Y132.716
X89.765 Y132.771
X88.924 Y132.596
X88.148 Y132.195
X87.492 Y131.586
X87.036 Y130.837
X86.801 Y129.997
X86.799 Y129.109
X86.889 Y128.79
X86.985 Y128.447
G3 X87.231 Y128.308 R0.2
G1 X90.477 Y129.206
G3 X90.603 Y129.31 R0.2
X89.259 Y129.975 Z-16.206 R0.75
X90.603 Y129.31 Z-16.412 R0.75
X89.259 Y129.975 Z-16.618 R0.75
X90.603 Y129.31 Z-16.825 R0.75
X89.481 Y130.243 Z-17. R0.75
Y128.858 R0.866
X90.52 Y130.243 R0.866
X89.481 R0.866
G2 X87.955 Y129.731 R2.558
G3 X86.985 Y128.447 R1.011
G1 X87.032 Y128.276
X87.495 Y127.51
X88.128 Y126.918
X88.919 Y126.505
X89.765 Y126.329
X90.658 Y126.387
X91.491 Y126.684
X92.205 Y127.189
X92.761 Y127.871
X93.112 Y128.683
X93.231 Y129.55
X93.113 Y130.411
X92.765 Y131.217
X92.627 Y131.393
X92.208 Y131.908
X91.49 Y132.416
X90.664 Y132.711
X90.614 Y132.716
X89.765 Y132.771
X88.924 Y132.596
X88.148 Y132.195
X87.492 Y131.586
X87.036 Y130.837
X86.801 Y129.997
X86.799 Y129.109
X86.889 Y128.79
X86.985 Y128.447
G3 X87.231 Y128.308 R0.2
G1 X90.477 Y129.206
G3 X90.603 Y129.31 R0.2
X89.259 Y129.975 Z-17.206 R0.75
X90.603 Y129.31 Z-17.412 R0.75
X89.259 Y129.975 Z-17.618 R0.75
X90.603 Y129.31 Z-17.825 R0.75
X89.481 Y130.243 Z-18. R0.75
Y128.858 R0.866
X90.52 Y130.243 R0.866
X89.481 R0.866
G2 X87.955 Y129.731 R2.558
G3 X86.985 Y128.447 R1.011
G1 X87.032 Y128.276
X87.495 Y127.51
X88.128 Y126.918
X88.919 Y126.505
X89.765 Y126.329
X90.658 Y126.387
X91.491 Y126.684
X92.205 Y127.189
X92.761 Y127.871
X93.112 Y128.683
X93.231 Y129.55
X93.113 Y130.411
X92.765 Y131.217
X92.627 Y131.393
X92.208 Y131.908
X91.49 Y132.416
X90.664 Y132.711
X90.614 Y132.716
X89.765 Y132.771
X88.924 Y132.596
X88.148 Y132.195
X87.492 Y131.586
X87.036 Y130.837
X86.801 Y129.997
X86.799 Y129.109
X86.889 Y128.79
X86.985 Y128.447
G3 X87.231 Y128.308 R0.2
G1 X90.477 Y129.206
G3 X90.603 Y129.31 R0.2
X89.259 Y129.975 Z-18.206 R0.75
X90.603 Y129.31 Z-18.412 R0.75
X89.259 Y129.975 Z-18.618 R0.75
X90.603 Y129.31 Z-18.825 R0.75
X89.481 Y130.243 Z-19. R0.75
Y128.858 R0.866
X90.52 Y130.243 R0.866
X89.481 R0.866
G2 X87.955 Y129.731 R2.558
G3 X86.985 Y128.447 R1.011
G1 X87.032 Y128.276
X87.495 Y127.51
X88.128 Y126.918
X88.919 Y126.505
X89.765 Y126.329
X90.658 Y126.387
X91.491 Y126.684
X92.205 Y127.189
X92.761 Y127.871
X93.112 Y128.683
X93.231 Y129.55
X93.113 Y130.411
X92.765 Y131.217
X92.627 Y131.393
X92.208 Y131.908
X91.49 Y132.416
X90.664 Y132.711
X90.614 Y132.716
X89.765 Y132.771
X88.924 Y132.596
X88.148 Y132.195
X87.492 Y131.586
X87.036 Y130.837
X86.801 Y129.997
X86.799 Y129.109
X86.889 Y128.79
X86.985 Y128.447
G3 X87.268 Y128.323 R0.2
G1 X89.177 Y129.3
G2 X89.447 Y129.212 R0.2
G3 X89.666 Y128.95 Z-19.03 R0.75
X90.566 Y130.15 Z-19.236 R0.75
X89.666 Y128.95 Z-19.442 R0.75
X90.566 Y130.15 Z-19.649 R0.75
X89.666 Y128.95 Z-19.855 R0.75
X90.866 Y129.55 Z-20. R0.75
X89.135 R0.866
X90.866 R0.866
G2 X91.372 Y131.083 R2.576
G3 X90.902 Y132.626 R1.005
G1 X90.664 Y132.711
X90.614 Y132.716
X89.765 Y132.771
X88.924 Y132.596
X88.148 Y132.195
X87.492 Y131.586
X87.036 Y130.837
X86.801 Y129.997
X86.799 Y129.109
X86.889 Y128.79
X87.032 Y128.276
X87.495 Y127.51
X88.128 Y126.918
X88.919 Y126.505
X89.765 Y126.329
X90.658 Y126.387
X91.491 Y126.684
X92.205 Y127.189
X92.761 Y127.871
X93.112 Y128.683
X93.231 Y129.55
X93.113 Y130.411
X92.765 Y131.217
X92.627 Y131.393
X92.208 Y131.908
X91.49 Y132.416
X90.902 Y132.626
G3 X90.648 Y132.51 R0.2
G1 X89.439 Y129.374
G3 X89.447 Y129.212 R0.2
X89.666 Y128.95 Z-20.03 R0.75
X90.566 Y130.15 Z-20.236 R0.75
X89.666 Y128.95 Z-20.442 R0.75
X90.566 Y130.15 Z-20.649 R0.75
X89.666 Y128.95 Z-20.855 R0.75
X90.866 Y129.55 Z-21. R0.75
X89.135 R0.866
X90.866 R0.866
G2 X91.372 Y131.083 R2.576
G3 X90.902 Y132.626 R1.005
G1 X90.664 Y132.711
X90.614 Y132.716
X89.765 Y132.771
X88.924 Y132.596
X88.148 Y132.195
X87.492 Y131.586
X87.036 Y130.837
X86.801 Y129.997
X86.799 Y129.109
X86.889 Y128.79
X87.032 Y128.276
X87.495 Y127.51
X88.128 Y126.918
X88.919 Y126.505
X89.765 Y126.329
X90.658 Y126.387
X91.491 Y126.684
X92.205 Y127.189
X92.761 Y127.871
X93.112 Y128.683
X93.231 Y129.55
X93.113 Y130.411
X92.765 Y131.217
X92.627 Y131.393
X92.208 Y131.908
X91.49 Y132.416
X90.902 Y132.626
G3 X90.641 Y132.489 R0.2
G1 X89.809 Y129.351
G3 X89.843 Y129.179 R0.2
X90.106 Y128.96 Z-21.03 R0.75
X90.777 Y130.302 Z-21.236 R0.75
X90.106 Y128.96 Z-21.442 R0.75
X90.777 Y130.302 Z-21.649 R0.75
X90.106 Y128.96 Z-21.855 R0.75
X91.18 Y129.765 Z-22. R0.75
G1 X91.142 Y129.974
X90.934 Y130.334
X90.61 Y130.606
X90.21 Y130.751
X89.791
X89.771 Y130.744
X89.387 Y130.603
X89.066 Y130.334
X88.854 Y129.967
X88.781 Y129.55
X88.854 Y129.133
X89.06 Y128.777
X89.39 Y128.496
X89.789 Y128.349
X90.21
X90.607 Y128.493
X90.94 Y128.777
X91.143 Y129.129
X91.156 Y129.191
X91.219 Y129.548
X91.18 Y129.765
G3 X90.902 Y129.912 R0.2
G1 X89.922 Y129.483
G3 X89.843 Y129.179 R0.2
X90.106 Y128.96 Z-22.03 R0.75
X90.777 Y130.302 Z-22.236 R0.75
X90.106 Y128.96 Z-22.442 R0.75
X90.777 Y130.302 Z-22.649 R0.75
X90.106 Y128.96 Z-22.855 R0.75
X91.18 Y129.765 Z-23. R0.75
G1 X91.142 Y129.974
X90.934 Y130.334
X90.61 Y130.606
X90.21 Y130.751
X89.791
X89.771 Y130.744
X89.387 Y130.603
X89.066 Y130.334
X88.854 Y129.967
X88.781 Y129.55
X88.854 Y129.133
X89.06 Y128.777
X89.39 Y128.496
X89.789 Y128.349
X90.21
X90.607 Y128.493
X90.94 Y128.777
X91.143 Y129.129
X91.156 Y129.191
X91.219 Y129.548
X91.18 Y129.765
G3 X90.902 Y129.912 R0.2
G1 X89.922 Y129.483
G3 X89.843 Y129.179 R0.2
X90.106 Y128.96 Z-23.03 R0.75
X90.777 Y130.302 Z-23.236 R0.75
X90.106 Y128.96 Z-23.442 R0.75
X90.777 Y130.302 Z-23.649 R0.75
X90.106 Y128.96 Z-23.855 R0.75
X91.18 Y129.765 Z-24. R0.75
G1 X91.142 Y129.974
X90.934 Y130.334
X90.61 Y130.606
X90.21 Y130.751
X89.791
X89.771 Y130.744
X89.387 Y130.603
X89.066 Y130.334
X88.854 Y129.967
X88.781 Y129.55
X88.854 Y129.133
X89.06 Y128.777
X89.39 Y128.496
X89.789 Y128.349
X90.21
X90.607 Y128.493
X90.94 Y128.777
X91.143 Y129.129
X91.156 Y129.191
X91.219 Y129.548
X91.18 Y129.765
G3 X90.902 Y129.912 R0.2
G1 X89.922 Y129.483
G3 X89.843 Y129.179 R0.2
X90.106 Y128.96 Z-24.03 R0.75
X90.777 Y130.302 Z-24.236 R0.75
X90.106 Y128.96 Z-24.442 R0.75
X90.777 Y130.302 Z-24.649 R0.75
X90.106 Y128.96 Z-24.855 R0.75
X91.18 Y129.765 Z-25. R0.75
G1 X91.142 Y129.974
X90.934 Y130.334
X90.61 Y130.606
X90.21 Y130.751
X89.791
X89.771 Y130.744
X89.387 Y130.603
X89.066 Y130.334
X88.854 Y129.967
X88.781 Y129.55
X88.854 Y129.133
X89.06 Y128.777
X89.39 Y128.496
X89.789 Y128.349
X90.21
X90.607 Y128.493
X90.94 Y128.777
X91.143 Y129.129
X91.156 Y129.191
X91.219 Y129.548
X91.18 Y129.765
G3 X91.139 Y129.881 Z-24.98 R0.4
X91.074 Y129.971 Z-24.924 R0.4
X91.006 Y130.027 Z-24.835 R0.4
X90.956 Y130.055 Z-24.724 R0.4
X90.939 Y130.063 Z-24.6 R0.4
G0 Z5.
X89.835 Y0.605
Z1.448
G3 X89.82 Y0.599 Z1.336 R0.75 F350.
X89.776 Y0.582 Z1.232 R0.75
X89.709 Y0.548 Z1.146 R0.75
X89.629 Y0.495 Z1.084 R0.75
X89.579 Y0.455 Z1.062 R0.75
X89.532 Y0.409 Z1.05 R0.75
X90.626 Y-0.618 Z0.844 R0.75
X89.532 Y0.409 Z0.638 R0.75
X90.626 Y-0.618 Z0.432 R0.75
X89.532 Y0.409 Z0.225 R0.75
X90.626 Y-0.618 Z0.019 R0.75
X89.532 Y0.409 Z-0.187 R0.75
X90.626 Y-0.618 Z-0.393 R0.75
X89.532 Y0.409 Z-0.599 R0.75
X90.626 Y-0.618 Z-0.805 R0.75
X89.629 Y0.495 Z-1. R0.75
X90.372 Y-0.495 R0.619
X89.629 Y0.495 R0.619
G2 X88.476 Y0.295 R1.287
G3 X87.587 Y-0.464 R0.692
G1 X87.621 Y-0.699
X87.84 Y-1.179
X87.913 Y-1.339
X88.387 Y-1.88
X88.981 Y-2.259
X89.647 Y-2.454
X90.364 Y-2.451
X91.033 Y-2.254
X91.623 Y-1.874
X92.09 Y-1.332
X92.375 Y-0.708
X92.393 Y-0.598
X92.479 Y0.
X92.379 Y0.699
X92.09 Y1.332
X91.623 Y1.874
X91.033 Y2.254
X90.364 Y2.451
X89.647 Y2.454
X88.981 Y2.259
X88.387 Y1.88
X87.913 Y1.339
X87.625 Y0.708
X87.607 Y0.598
X87.521 Y0.
X87.587 Y-0.464
G3 X87.792 Y-0.636 R0.2
G1 X90.578 Y-0.548
G3 X90.751 Y-0.437 R0.2
X89.406 Y0.228 Z-1.206 R0.75
X90.751 Y-0.437 Z-1.412 R0.75
X89.406 Y0.228 Z-1.618 R0.75
X90.751 Y-0.437 Z-1.825 R0.75
X89.629 Y0.495 Z-2. R0.75
X90.372 Y-0.495 R0.619
X89.629 Y0.495 R0.619
G2 X88.476 Y0.295 R1.287
G3 X87.587 Y-0.464 R0.692
G1 X87.621 Y-0.699
X87.84 Y-1.179
X87.913 Y-1.339
X88.387 Y-1.88
X88.981 Y-2.259
X89.647 Y-2.454
X90.364 Y-2.451
X91.033 Y-2.254
X91.623 Y-1.874
X92.09 Y-1.332
X92.375 Y-0.708
X92.393 Y-0.598
X92.479 Y0.
X92.379 Y0.699
X92.09 Y1.332
X91.623 Y1.874
X91.033 Y2.254
X90.364 Y2.451
X89.647 Y2.454
X88.981 Y2.259
X88.387 Y1.88
X87.913 Y1.339
X87.625 Y0.708
X87.607 Y0.598
X87.521 Y0.
X87.587 Y-0.464
G3 X87.792 Y-0.636 R0.2
G1 X90.578 Y-0.548
G3 X90.751 Y-0.437 R0.2
X89.406 Y0.228 Z-2.206 R0.75
X90.751 Y-0.437 Z-2.412 R0.75
X89.406 Y0.228 Z-2.618 R0.75
X90.751 Y-0.437 Z-2.825 R0.75
X89.629 Y0.495 Z-3. R0.75
X90.372 Y-0.495 R0.619
X89.629 Y0.495 R0.619
G2 X88.476 Y0.295 R1.287
G3 X87.587 Y-0.464 R0.692
G1 X87.621 Y-0.699
X87.84 Y-1.179
X87.913 Y-1.339
X88.387 Y-1.88
X88.981 Y-2.259
X89.647 Y-2.454
X90.364 Y-2.451
X91.033 Y-2.254
X91.623 Y-1.874
X92.09 Y-1.332
X92.375 Y-0.708
X92.393 Y-0.598
X92.479 Y0.
X92.379 Y0.699
X92.09 Y1.332
X91.623 Y1.874
X91.033 Y2.254
X90.364 Y2.451
X89.647 Y2.454
X88.981 Y2.259
X88.387 Y1.88
X87.913 Y1.339
X87.625 Y0.708
X87.607 Y0.598
X87.521 Y0.
X87.587 Y-0.464
G3 X87.792 Y-0.636 R0.2
G1 X90.578 Y-0.548
G3 X90.751 Y-0.437 R0.2
X89.406 Y0.228 Z-3.206 R0.75
X90.751 Y-0.437 Z-3.412 R0.75
X89.406 Y0.228 Z-3.618 R0.75
X90.751 Y-0.437 Z-3.825 R0.75
X89.629 Y0.495 Z-4. R0.75
X90.372 Y-0.495 R0.619
X89.629 Y0.495 R0.619
G2 X88.476 Y0.295 R1.287
G3 X87.587 Y-0.464 R0.692
G1 X87.621 Y-0.699
X87.84 Y-1.179
X87.913 Y-1.339
X88.387 Y-1.88
X88.981 Y-2.259
X89.647 Y-2.454
X90.364 Y-2.451
X91.033 Y-2.254
X91.623 Y-1.874
X92.09 Y-1.332
X92.375 Y-0.708
X92.393 Y-0.598
X92.479 Y0.
X92.379 Y0.699
X92.09 Y1.332
X91.623 Y1.874
X91.033 Y2.254
X90.364 Y2.451
X89.647 Y2.454
X88.981 Y2.259
X88.387 Y1.88
X87.913 Y1.339
X87.625 Y0.708
X87.607 Y0.598
X87.521 Y0.
X87.587 Y-0.464
G3 X87.792 Y-0.636 R0.2
G1 X90.578 Y-0.548
G3 X90.751 Y-0.437 R0.2
X89.406 Y0.228 Z-4.206 R0.75
X90.751 Y-0.437 Z-4.412 R0.75
X89.406 Y0.228 Z-4.618 R0.75
X90.751 Y-0.437 Z-4.825 R0.75
X89.629 Y0.495 Z-5. R0.75
X90.372 Y-0.495 R0.619
X89.629 Y0.495 R0.619
G2 X88.476 Y0.295 R1.287
G3 X87.587 Y-0.464 R0.692
G1 X87.621 Y-0.699
X87.84 Y-1.179
X87.913 Y-1.339
X88.387 Y-1.88
X88.981 Y-2.259
X89.647 Y-2.454
X90.364 Y-2.451
X91.033 Y-2.254
X91.623 Y-1.874
X92.09 Y-1.332
X92.375 Y-0.708
X92.393 Y-0.598
X92.479 Y0.
X92.379 Y0.699
X92.09 Y1.332
X91.623 Y1.874
X91.033 Y2.254
X90.364 Y2.451
X89.647 Y2.454
X88.981 Y2.259
X88.387 Y1.88
X87.913 Y1.339
X87.625 Y0.708
X87.607 Y0.598
X87.521 Y0.
X87.587 Y-0.464
G3 X87.792 Y-0.636 R0.2
G1 X90.578 Y-0.548
G3 X90.751 Y-0.437 R0.2
X89.406 Y0.228 Z-5.206 R0.75
X90.751 Y-0.437 Z-5.412 R0.75
X89.406 Y0.228 Z-5.618 R0.75
X90.751 Y-0.437 Z-5.825 R0.75
X89.629 Y0.495 Z-6. R0.75
X90.372 Y-0.495 R0.619
X89.629 Y0.495 R0.619
G2 X88.476 Y0.295 R1.287
G3 X87.587 Y-0.464 R0.692
G1 X87.621 Y-0.699
X87.84 Y-1.179
X87.913 Y-1.339
X88.387 Y-1.88
X88.981 Y-2.259
X89.647 Y-2.454
X90.364 Y-2.451
X91.033 Y-2.254
X91.623 Y-1.874
X92.09 Y-1.332
X92.375 Y-0.708
X92.393 Y-0.598
X92.479 Y0.
X92.379 Y0.699
X92.09 Y1.332
X91.623 Y1.874
X91.033 Y2.254
X90.364 Y2.451
X89.647 Y2.454
X88.981 Y2.259
X88.387 Y1.88
X87.913 Y1.339
X87.625 Y0.708
X87.607 Y0.598
X87.521 Y0.
X87.587 Y-0.464
G3 X87.792 Y-0.636 R0.2
G1 X90.578 Y-0.548
G3 X90.751 Y-0.437 R0.2
X89.406 Y0.228 Z-6.206 R0.75
X90.751 Y-0.437 Z-6.412 R0.75
X89.406 Y0.228 Z-6.618 R0.75
X90.751 Y-0.437 Z-6.825 R0.75
X89.629 Y0.495 Z-7. R0.75
X90.372 Y-0.495 R0.619
X89.629 Y0.495 R0.619
G2 X88.476 Y0.295 R1.287
G3 X87.587 Y-0.464 R0.692
G1 X87.621 Y-0.699
X87.84 Y-1.179
X87.913 Y-1.339
X88.387 Y-1.88
X88.981 Y-2.259
X89.647 Y-2.454
X90.364 Y-2.451
X91.033 Y-2.254
X91.623 Y-1.874
X92.09 Y-1.332
X92.375 Y-0.708
X92.393 Y-0.598
X92.479 Y0.
X92.379 Y0.699
X92.09 Y1.332
X91.623 Y1.874
X91.033 Y2.254
X90.364 Y2.451
X89.647 Y2.454
X88.981 Y2.259
X88.387 Y1.88
X87.913 Y1.339
X87.625 Y0.708
X87.607 Y0.598
X87.521 Y0.
X87.587 Y-0.464
G3 X87.792 Y-0.636 R0.2
G1 X90.578 Y-0.548
G3 X90.751 Y-0.437 R0.2
X89.406 Y0.228 Z-7.206 R0.75
X90.751 Y-0.437 Z-7.412 R0.75
X89.406 Y0.228 Z-7.618 R0.75
X90.751 Y-0.437 Z-7.825 R0.75
X89.629 Y0.495 Z-8. R0.75
X90.372 Y-0.495 R0.619
X89.629 Y0.495 R0.619
G2 X88.476 Y0.295 R1.287
G3 X87.587 Y-0.464 R0.692
G1 X87.621 Y-0.699
X87.84 Y-1.179
X87.913 Y-1.339
X88.387 Y-1.88
X88.981 Y-2.259
X89.647 Y-2.454
X90.364 Y-2.451
X91.033 Y-2.254
X91.623 Y-1.874
X92.09 Y-1.332
X92.375 Y-0.708
X92.393 Y-0.598
X92.479 Y0.
X92.379 Y0.699
X92.09 Y1.332
X91.623 Y1.874
X91.033 Y2.254
X90.364 Y2.451
X89.647 Y2.454
X88.981 Y2.259
X88.387 Y1.88
X87.913 Y1.339
X87.625 Y0.708
X87.607 Y0.598
X87.521 Y0.
X87.587 Y-0.464
G3 X87.792 Y-0.636 R0.2
G1 X90.578 Y-0.548
G3 X90.751 Y-0.437 R0.2
X89.406 Y0.228 Z-8.206 R0.75
X90.751 Y-0.437 Z-8.412 R0.75
X89.406 Y0.228 Z-8.618 R0.75
X90.751 Y-0.437 Z-8.825 R0.75
X89.629 Y0.495 Z-9. R0.75
X90.372 Y-0.495 R0.619
X89.629 Y0.495 R0.619
G2 X88.476 Y0.295 R1.287
G3 X87.587 Y-0.464 R0.692
G1 X87.621 Y-0.699
X87.84 Y-1.179
X87.913 Y-1.339
X88.387 Y-1.88
X88.981 Y-2.259
X89.647 Y-2.454
X90.364 Y-2.451
X91.033 Y-2.254
X91.623 Y-1.874
X92.09 Y-1.332
X92.375 Y-0.708
X92.393 Y-0.598
X92.479 Y0.
X92.379 Y0.699
X92.09 Y1.332
X91.623 Y1.874
X91.033 Y2.254
X90.364 Y2.451
X89.647 Y2.454
X88.981 Y2.259
X88.387 Y1.88
X87.913 Y1.339
X87.625 Y0.708
X87.607 Y0.598
X87.521 Y0.
X87.587 Y-0.464
G3 X87.792 Y-0.636 R0.2
G1 X90.578 Y-0.548
G3 X90.751 Y-0.437 R0.2
X89.406 Y0.228 Z-9.206 R0.75
X90.751 Y-0.437 Z-9.412 R0.75
X89.406 Y0.228 Z-9.618 R0.75
X90.751 Y-0.437 Z-9.825 R0.75
X89.629 Y0.495 Z-10. R0.75
X90.372 Y-0.495 R0.619
X89.629 Y0.495 R0.619
G2 X88.476 Y0.295 R1.287
G3 X87.587 Y-0.464 R0.692
G1 X87.621 Y-0.699
X87.84 Y-1.179
X87.913 Y-1.339
X88.387 Y-1.88
X88.981 Y-2.259
X89.647 Y-2.454
X90.364 Y-2.451
X91.033 Y-2.254
X91.623 Y-1.874
X92.09 Y-1.332
X92.375 Y-0.708
X92.393 Y-0.598
X92.479 Y0.
X92.379 Y0.699
X92.09 Y1.332
X91.623 Y1.874
X91.033 Y2.254
X90.364 Y2.451
X89.647 Y2.454
X88.981 Y2.259
X88.387 Y1.88
X87.913 Y1.339
X87.625 Y0.708
X87.607 Y0.598
X87.521 Y0.
X87.587 Y-0.464
G3 X87.792 Y-0.636 R0.2
G1 X90.578 Y-0.548
G3 X90.751 Y-0.437 R0.2
X89.406 Y0.228 Z-10.206 R0.75
X90.751 Y-0.437 Z-10.412 R0.75
X89.406 Y0.228 Z-10.618 R0.75
X90.751 Y-0.437 Z-10.825 R0.75
X89.629 Y0.495 Z-11. R0.75
X90.372 Y-0.495 R0.619
X89.629 Y0.495 R0.619
G2 X88.476 Y0.295 R1.287
G3 X87.587 Y-0.464 R0.692
G1 X87.621 Y-0.699
X87.84 Y-1.179
X87.913 Y-1.339
X88.387 Y-1.88
X88.981 Y-2.259
X89.647 Y-2.454
X90.364 Y-2.451
X91.033 Y-2.254
X91.623 Y-1.874
X92.09 Y-1.332
X92.375 Y-0.708
X92.393 Y-0.598
X92.479 Y0.
X92.379 Y0.699
X92.09 Y1.332
X91.623 Y1.874
X91.033 Y2.254
X90.364 Y2.451
X89.647 Y2.454
X88.981 Y2.259
X88.387 Y1.88
X87.913 Y1.339
X87.625 Y0.708
X87.607 Y0.598
X87.521 Y0.
X87.587 Y-0.464
G3 X87.792 Y-0.636 R0.2
G1 X90.578 Y-0.548
G3 X90.751 Y-0.437 R0.2
X89.406 Y0.228 Z-11.206 R0.75
X90.751 Y-0.437 Z-11.412 R0.75
X89.406 Y0.228 Z-11.618 R0.75
X90.751 Y-0.437 Z-11.825 R0.75
X89.629 Y0.495 Z-12. R0.75
X90.372 Y-0.495 R0.619
X89.629 Y0.495 R0.619
G2 X88.476 Y0.295 R1.287
G3 X87.587 Y-0.464 R0.692
G1 X87.621 Y-0.699
X87.84 Y-1.179
X87.913 Y-1.339
X88.387 Y-1.88
X88.981 Y-2.259
X89.647 Y-2.454
X90.364 Y-2.451
X91.033 Y-2.254
X91.623 Y-1.874
X92.09 Y-1.332
X92.375 Y-0.708
X92.393 Y-0.598
X92.479 Y0.
X92.379 Y0.699
X92.09 Y1.332
X91.623 Y1.874
X91.033 Y2.254
X90.364 Y2.451
X89.647 Y2.454
X88.981 Y2.259
X88.387 Y1.88
X87.913 Y1.339
X87.625 Y0.708
X87.607 Y0.598
X87.521 Y0.
X87.587 Y-0.464
G3 X87.792 Y-0.636 R0.2
G1 X90.578 Y-0.548
G3 X90.751 Y-0.437 R0.2
X89.406 Y0.228 Z-12.206 R0.75
X90.751 Y-0.437 Z-12.412 R0.75
X89.406 Y0.228 Z-12.618 R0.75
X90.751 Y-0.437 Z-12.825 R0.75
X89.629 Y0.495 Z-13. R0.75
X90.372 Y-0.495 R0.619
X89.629 Y0.495 R0.619
G2 X88.476 Y0.295 R1.287
G3 X87.587 Y-0.464 R0.692
G1 X87.621 Y-0.699
X87.84 Y-1.179
X87.913 Y-1.339
X88.387 Y-1.88
X88.981 Y-2.259
X89.647 Y-2.454
X90.364 Y-2.451
X91.033 Y-2.254
X91.623 Y-1.874
X92.09 Y-1.332
X92.375 Y-0.708
X92.393 Y-0.598
X92.479 Y0.
X92.379 Y0.699
X92.09 Y1.332
X91.623 Y1.874
X91.033 Y2.254
X90.364 Y2.451
X89.647 Y2.454
X88.981 Y2.259
X88.387 Y1.88
X87.913 Y1.339
X87.625 Y0.708
X87.607 Y0.598
X87.521 Y0.
X87.587 Y-0.464
G3 X87.792 Y-0.636 R0.2
G1 X90.578 Y-0.548
G3 X90.751 Y-0.437 R0.2
X89.406 Y0.228 Z-13.206 R0.75
X90.751 Y-0.437 Z-13.412 R0.75
X89.406 Y0.228 Z-13.618 R0.75
X90.751 Y-0.437 Z-13.825 R0.75
X89.629 Y0.495 Z-14. R0.75
X90.372 Y-0.495 R0.619
X89.629 Y0.495 R0.619
G2 X88.476 Y0.295 R1.287
G3 X87.587 Y-0.464 R0.692
G1 X87.621 Y-0.699
X87.84 Y-1.179
X87.913 Y-1.339
X88.387 Y-1.88
X88.981 Y-2.259
X89.647 Y-2.454
X90.364 Y-2.451
X91.033 Y-2.254
X91.623 Y-1.874
X92.09 Y-1.332
X92.375 Y-0.708
X92.393 Y-0.598
X92.479 Y0.
X92.379 Y0.699
X92.09 Y1.332
X91.623 Y1.874
X91.033 Y2.254
X90.364 Y2.451
X89.647 Y2.454
X88.981 Y2.259
X88.387 Y1.88
X87.913 Y1.339
X87.625 Y0.708
X87.607 Y0.598
X87.521 Y0.
X87.587 Y-0.464
G3 X87.792 Y-0.636 R0.2
G1 X90.578 Y-0.548
G3 X90.751 Y-0.437 R0.2
X89.406 Y0.228 Z-14.206 R0.75
X90.751 Y-0.437 Z-14.412 R0.75
X89.406 Y0.228 Z-14.618 R0.75
X90.751 Y-0.437 Z-14.825 R0.75
X89.629 Y0.495 Z-15. R0.75
X90.372 Y-0.495 R0.619
X89.629 Y0.495 R0.619
G2 X88.476 Y0.295 R1.287
G3 X87.587 Y-0.464 R0.692
G1 X87.621 Y-0.699
X87.84 Y-1.179
X87.913 Y-1.339
X88.387 Y-1.88
X88.981 Y-2.259
X89.647 Y-2.454
X90.364 Y-2.451
X91.033 Y-2.254
X91.623 Y-1.874
X92.09 Y-1.332
X92.375 Y-0.708
X92.393 Y-0.598
X92.479 Y0.
X92.379 Y0.699
X92.09 Y1.332
X91.623 Y1.874
X91.033 Y2.254
X90.364 Y2.451
X89.647 Y2.454
X88.981 Y2.259
X88.387 Y1.88
X87.913 Y1.339
X87.625 Y0.708
X87.607 Y0.598
X87.521 Y0.
X87.587 Y-0.464
G3 X87.792 Y-0.636 R0.2
G1 X90.578 Y-0.548
G3 X90.751 Y-0.437 R0.2
X89.406 Y0.228 Z-15.206 R0.75
X90.751 Y-0.437 Z-15.412 R0.75
X89.406 Y0.228 Z-15.618 R0.75
X90.751 Y-0.437 Z-15.825 R0.75
X89.629 Y0.495 Z-16. R0.75
X90.372 Y-0.495 R0.619
X89.629 Y0.495 R0.619
G2 X88.476 Y0.295 R1.287
G3 X87.587 Y-0.464 R0.692
G1 X87.621 Y-0.699
X87.84 Y-1.179
X87.913 Y-1.339
X88.387 Y-1.88
X88.981 Y-2.259
X89.647 Y-2.454
X90.364 Y-2.451
X91.033 Y-2.254
X91.623 Y-1.874
X92.09 Y-1.332
X92.375 Y-0.708
X92.393 Y-0.598
X92.479 Y0.
X92.379 Y0.699
X92.09 Y1.332
X91.623 Y1.874
X91.033 Y2.254
X90.364 Y2.451
X89.647 Y2.454
X88.981 Y2.259
X88.387 Y1.88
X87.913 Y1.339
X87.625 Y0.708
X87.607 Y0.598
X87.521 Y0.
X87.587 Y-0.464
G3 X87.792 Y-0.636 R0.2
G1 X90.578 Y-0.548
G3 X90.751 Y-0.437 R0.2
X89.406 Y0.228 Z-16.206 R0.75
X90.751 Y-0.437 Z-16.412 R0.75
X89.406 Y0.228 Z-16.618 R0.75
X90.751 Y-0.437 Z-16.825 R0.75
X89.629 Y0.495 Z-17. R0.75
X90.372 Y-0.495 R0.619
X89.629 Y0.495 R0.619
G2 X88.476 Y0.295 R1.287
G3 X87.587 Y-0.464 R0.692
G1 X87.621 Y-0.699
X87.84 Y-1.179
X87.913 Y-1.339
X88.387 Y-1.88
X88.981 Y-2.259
X89.647 Y-2.454
X90.364 Y-2.451
X91.033 Y-2.254
X91.623 Y-1.874
X92.09 Y-1.332
X92.375 Y-0.708
X92.393 Y-0.598
X92.479 Y0.
X92.379 Y0.699
X92.09 Y1.332
X91.623 Y1.874
X91.033 Y2.254
X90.364 Y2.451
X89.647 Y2.454
X88.981 Y2.259
X88.387 Y1.88
X87.913 Y1.339
X87.625 Y0.708
X87.607 Y0.598
X87.521 Y0.
X87.587 Y-0.464
G3 X87.792 Y-0.636 R0.2
G1 X90.578 Y-0.548
G3 X90.751 Y-0.437 R0.2
X89.406 Y0.228 Z-17.206 R0.75
X90.751 Y-0.437 Z-17.412 R0.75
X89.406 Y0.228 Z-17.618 R0.75
X90.751 Y-0.437 Z-17.825 R0.75
X89.629 Y0.495 Z-18. R0.75
X90.372 Y-0.495 R0.619
X89.629 Y0.495 R0.619
G2 X88.476 Y0.295 R1.287
G3 X87.587 Y-0.464 R0.692
G1 X87.621 Y-0.699
X87.84 Y-1.179
X87.913 Y-1.339
X88.387 Y-1.88
X88.981 Y-2.259
X89.647 Y-2.454
X90.364 Y-2.451
X91.033 Y-2.254
X91.623 Y-1.874
X92.09 Y-1.332
X92.375 Y-0.708
X92.393 Y-0.598
X92.479 Y0.
X92.379 Y0.699
X92.09 Y1.332
X91.623 Y1.874
X91.033 Y2.254
X90.364 Y2.451
X89.647 Y2.454
X88.981 Y2.259
X88.387 Y1.88
X87.913 Y1.339
X87.625 Y0.708
X87.607 Y0.598
X87.521 Y0.
X87.587 Y-0.464
G3 X87.792 Y-0.636 R0.2
G1 X90.578 Y-0.548
G3 X90.751 Y-0.437 R0.2
X89.406 Y0.228 Z-18.206 R0.75
X90.751 Y-0.437 Z-18.412 R0.75
X89.406 Y0.228 Z-18.618 R0.75
X90.751 Y-0.437 Z-18.825 R0.75
X89.629 Y0.495 Z-19. R0.75
X90.372 Y-0.495 R0.619
X89.629 Y0.495 R0.619
G2 X88.476 Y0.295 R1.287
G3 X87.587 Y-0.464 R0.692
G1 X87.621 Y-0.699
X87.84 Y-1.179
X87.913 Y-1.339
X88.387 Y-1.88
X88.981 Y-2.259
X89.647 Y-2.454
X90.364 Y-2.451
X91.033 Y-2.254
X91.623 Y-1.874
X92.09 Y-1.332
X92.375 Y-0.708
X92.393 Y-0.598
X92.479 Y0.
X92.379 Y0.699
X92.09 Y1.332
X91.623 Y1.874
X91.033 Y2.254
X90.364 Y2.451
X89.647 Y2.454
X88.981 Y2.259
X88.387 Y1.88
X87.913 Y1.339
X87.625 Y0.708
X87.607 Y0.598
X87.521 Y0.
X87.587 Y-0.464
G3 X87.792 Y-0.636 R0.2
G1 X90.578 Y-0.548
G3 X90.751 Y-0.437 R0.2
X89.406 Y0.228 Z-19.206 R0.75
X90.751 Y-0.437 Z-19.412 R0.75
X89.406 Y0.228 Z-19.618 R0.75
X90.751 Y-0.437 Z-19.825 R0.75
X89.629 Y0.495 Z-20. R0.75
X90.372 Y-0.495 R0.619
X89.629 Y0.495 R0.619
G2 X88.476 Y0.295 R1.287
G3 X87.587 Y-0.464 R0.692
G1 X87.621 Y-0.699
X87.84 Y-1.179
X87.913 Y-1.339
X88.387 Y-1.88
X88.981 Y-2.259
X89.647 Y-2.454
X90.364 Y-2.451
X91.033 Y-2.254
X91.623 Y-1.874
X92.09 Y-1.332
X92.375 Y-0.708
X92.393 Y-0.598
X92.479 Y0.
X92.379 Y0.699
X92.09 Y1.332
X91.623 Y1.874
X91.033 Y2.254
X90.364 Y2.451
X89.647 Y2.454
X88.981 Y2.259
X88.387 Y1.88
X87.913 Y1.339
X87.625 Y0.708
X87.607 Y0.598
X87.521 Y0.
X87.587 Y-0.464
G3 X87.792 Y-0.636 R0.2
G1 X90.578 Y-0.548
G3 X90.751 Y-0.437 R0.2
X89.406 Y0.228 Z-20.206 R0.75
X90.751 Y-0.437 Z-20.412 R0.75
X89.406 Y0.228 Z-20.618 R0.75
X90.751 Y-0.437 Z-20.825 R0.75
X89.629 Y0.495 Z-21. R0.75
X90.372 Y-0.495 R0.619
X89.629 Y0.495 R0.619
G2 X88.476 Y0.295 R1.287
G3 X87.587 Y-0.464 R0.692
G1 X87.621 Y-0.699
X87.84 Y-1.179
X87.913 Y-1.339
X88.387 Y-1.88
X88.981 Y-2.259
X89.647 Y-2.454
X90.364 Y-2.451
X91.033 Y-2.254
X91.623 Y-1.874
X92.09 Y-1.332
X92.375 Y-0.708
X92.393 Y-0.598
X92.479 Y0.
X92.379 Y0.699
X92.09 Y1.332
X91.623 Y1.874
X91.033 Y2.254
X90.364 Y2.451
X89.647 Y2.454
X88.981 Y2.259
X88.387 Y1.88
X87.913 Y1.339
X87.625 Y0.708
X87.607 Y0.598
X87.521 Y0.
X87.587 Y-0.464
G3 X87.623 Y-0.582 Z-20.98 R0.4
X87.685 Y-0.674 Z-20.924 R0.4
X87.751 Y-0.733 Z-20.835 R0.4
X87.8 Y-0.763 Z-20.724 R0.4
X87.817 Y-0.771 Z-20.6 R0.4
G0 Z5.
X89.687 Y-128.748
Z1.448
G3 X89.672 Y-128.753 Z1.336 R0.75 F350.
X89.628 Y-128.771 Z1.232 R0.75
X89.561 Y-128.805 Z1.146 R0.75
X89.481 Y-128.857 Z1.084 R0.75
X89.432 Y-128.898 Z1.062 R0.75
X89.384 Y-128.944 Z1.05 R0.75
X90.478 Y-129.97 Z0.844 R0.75
X89.384 Y-128.944 Z0.638 R0.75
X90.478 Y-129.97 Z0.432 R0.75
X89.384 Y-128.944 Z0.225 R0.75
X90.478 Y-129.97 Z0.019 R0.75
X89.384 Y-128.944 Z-0.187 R0.75
X90.478 Y-129.97 Z-0.393 R0.75
X89.384 Y-128.944 Z-0.599 R0.75
X90.478 Y-129.97 Z-0.805 R0.75
X89.481 Y-128.857 Z-1. R0.75
X90.52 Y-130.242 R0.866
X89.481 Y-128.857 R0.866
G2 X87.955 Y-129.372 R2.573
G3 X86.986 Y-130.658 R1.013
G1 X87.036 Y-130.837
X87.492 Y-131.586
X88.148 Y-132.195
X88.924 Y-132.596
X89.765 Y-132.771
X90.658 Y-132.713
X91.49 Y-132.416
X92.208 Y-131.908
X92.76 Y-131.23
X93.113 Y-130.411
X93.229 Y-129.565
X93.174 Y-129.137
X93.112 Y-128.683
X92.76 Y-127.871
X92.205 Y-127.189
X91.491 Y-126.684
X90.664 Y-126.389
X90.614 Y-126.384
X89.765 Y-126.329
X88.924 Y-126.504
X88.884 Y-126.523
X88.129 Y-126.918
X87.495 Y-127.51
X87.032 Y-128.276
X86.799 Y-129.109
X86.801 Y-129.997
X86.889 Y-130.31
X86.986 Y-130.658
G3 X87.232 Y-130.797 R0.2
G1 X90.477 Y-129.894
G3 X90.603 Y-129.79 R0.2
X89.259 Y-129.125 Z-1.206 R0.75
X90.603 Y-129.79 Z-1.412 R0.75
X89.259 Y-129.125 Z-1.618 R0.75
X90.603 Y-129.79 Z-1.825 R0.75
X89.481 Y-128.857 Z-2. R0.75
X90.52 Y-130.242 R0.866
X89.481 Y-128.857 R0.866
G2 X87.955 Y-129.372 R2.573
G3 X86.986 Y-130.658 R1.013
G1 X87.036 Y-130.837
X87.492 Y-131.586
X88.148 Y-132.195
X88.924 Y-132.596
X89.765 Y-132.771
X90.658 Y-132.713
X91.49 Y-132.416
X92.208 Y-131.908
X92.76 Y-131.23
X93.113 Y-130.411
X93.229 Y-129.565
X93.174 Y-129.137
X93.112 Y-128.683
X92.76 Y-127.871
X92.205 Y-127.189
X91.491 Y-126.684
X90.664 Y-126.389
X90.614 Y-126.384
X89.765 Y-126.329
X88.924 Y-126.504
X88.884 Y-126.523
X88.129 Y-126.918
X87.495 Y-127.51
X87.032 Y-128.276
X86.799 Y-129.109
X86.801 Y-129.997
X86.889 Y-130.31
X86.986 Y-130.658
G3 X87.232 Y-130.797 R0.2
G1 X90.477 Y-129.894
G3 X90.603 Y-129.79 R0.2
X89.259 Y-129.125 Z-2.206 R0.75
X90.603 Y-129.79 Z-2.412 R0.75
X89.259 Y-129.125 Z-2.618 R0.75
X90.603 Y-129.79 Z-2.825 R0.75
X89.481 Y-128.857 Z-3. R0.75
X90.52 Y-130.242 R0.866
X89.481 Y-128.857 R0.866
G2 X87.955 Y-129.372 R2.573
G3 X86.986 Y-130.658 R1.013
G1 X87.036 Y-130.837
X87.492 Y-131.586
X88.148 Y-132.195
X88.924 Y-132.596
X89.765 Y-132.771
X90.658 Y-132.713
X91.49 Y-132.416
X92.208 Y-131.908
X92.76 Y-131.23
X93.113 Y-130.411
X93.229 Y-129.565
X93.174 Y-129.137
X93.112 Y-128.683
X92.76 Y-127.871
X92.205 Y-127.189
X91.491 Y-126.684
X90.664 Y-126.389
X90.614 Y-126.384
X89.765 Y-126.329
X88.924 Y-126.504
X88.884 Y-126.523
X88.129 Y-126.918
X87.495 Y-127.51
X87.032 Y-128.276
X86.799 Y-129.109
X86.801 Y-129.997
X86.889 Y-130.31
X86.986 Y-130.658
G3 X87.232 Y-130.797 R0.2
G1 X90.477 Y-129.894
G3 X90.603 Y-129.79 R0.2
X89.259 Y-129.125 Z-3.206 R0.75
X90.603 Y-129.79 Z-3.412 R0.75
X89.259 Y-129.125 Z-3.618 R0.75
X90.603 Y-129.79 Z-3.825 R0.75
X89.481 Y-128.857 Z-4. R0.75
X90.52 Y-130.242 R0.866
X89.481 Y-128.857 R0.866
G2 X87.955 Y-129.372 R2.573
G3 X86.986 Y-130.658 R1.013
G1 X87.036 Y-130.837
X87.492 Y-131.586
X88.148 Y-132.195
X88.924 Y-132.596
X89.765 Y-132.771
X90.658 Y-132.713
X91.49 Y-132.416
X92.208 Y-131.908
X92.76 Y-131.23
X93.113 Y-130.411
X93.229 Y-129.565
X93.174 Y-129.137
X93.112 Y-128.683
X92.76 Y-127.871
X92.205 Y-127.189
X91.491 Y-126.684
X90.664 Y-126.389
X90.614 Y-126.384
X89.765 Y-126.329
X88.924 Y-126.504
X88.884 Y-126.523
X88.129 Y-126.918
X87.495 Y-127.51
X87.032 Y-128.276
X86.799 Y-129.109
X86.801 Y-129.997
X86.889 Y-130.31
X86.986 Y-130.658
G3 X87.232 Y-130.797 R0.2
G1 X90.477 Y-129.894
G3 X90.603 Y-129.79 R0.2
X89.259 Y-129.125 Z-4.206 R0.75
X90.603 Y-129.79 Z-4.412 R0.75
X89.259 Y-129.125 Z-4.618 R0.75
X90.603 Y-129.79 Z-4.825 R0.75
X89.481 Y-128.857 Z-5. R0.75
X90.52 Y-130.242 R0.866
X89.481 Y-128.857 R0.866
G2 X87.955 Y-129.372 R2.573
G3 X86.986 Y-130.658 R1.013
G1 X87.036 Y-130.837
X87.492 Y-131.586
X88.148 Y-132.195
X88.924 Y-132.596
X89.765 Y-132.771
X90.658 Y-132.713
X91.49 Y-132.416
X92.208 Y-131.908
X92.76 Y-131.23
X93.113 Y-130.411
X93.229 Y-129.565
X93.174 Y-129.137
X93.112 Y-128.683
X92.76 Y-127.871
X92.205 Y-127.189
X91.491 Y-126.684
X90.664 Y-126.389
X90.614 Y-126.384
X89.765 Y-126.329
X88.924 Y-126.504
X88.884 Y-126.523
X88.129 Y-126.918
X87.495 Y-127.51
X87.032 Y-128.276
X86.799 Y-129.109
X86.801 Y-129.997
X86.889 Y-130.31
X86.986 Y-130.658
G3 X87.232 Y-130.797 R0.2
G1 X90.477 Y-129.894
G3 X90.603 Y-129.79 R0.2
X89.259 Y-129.125 Z-5.206 R0.75
X90.603 Y-129.79 Z-5.412 R0.75
X89.259 Y-129.125 Z-5.618 R0.75
X90.603 Y-129.79 Z-5.825 R0.75
X89.481 Y-128.857 Z-6. R0.75
X90.52 Y-130.242 R0.866
X89.481 Y-128.857 R0.866
G2 X87.955 Y-129.372 R2.573
G3 X86.986 Y-130.658 R1.013
G1 X87.036 Y-130.837
X87.492 Y-131.586
X88.148 Y-132.195
X88.924 Y-132.596
X89.765 Y-132.771
X90.658 Y-132.713
X91.49 Y-132.416
X92.208 Y-131.908
X92.76 Y-131.23
X93.113 Y-130.411
X93.229 Y-129.565
X93.174 Y-129.137
X93.112 Y-128.683
X92.76 Y-127.871
X92.205 Y-127.189
X91.491 Y-126.684
X90.664 Y-126.389
X90.614 Y-126.384
X89.765 Y-126.329
X88.924 Y-126.504
X88.884 Y-126.523
X88.129 Y-126.918
X87.495 Y-127.51
X87.032 Y-128.276
X86.799 Y-129.109
X86.801 Y-129.997
X86.889 Y-130.31
X86.986 Y-130.658
G3 X87.232 Y-130.797 R0.2
G1 X90.477 Y-129.894
G3 X90.603 Y-129.79 R0.2
X89.259 Y-129.125 Z-6.206 R0.75
X90.603 Y-129.79 Z-6.412 R0.75
X89.259 Y-129.125 Z-6.618 R0.75
X90.603 Y-129.79 Z-6.825 R0.75
X89.481 Y-128.857 Z-7. R0.75
X90.52 Y-130.242 R0.866
X89.481 Y-128.857 R0.866
G2 X87.955 Y-129.372 R2.573
G3 X86.986 Y-130.658 R1.013
G1 X87.036 Y-130.837
X87.492 Y-131.586
X88.148 Y-132.195
X88.924 Y-132.596
X89.765 Y-132.771
X90.658 Y-132.713
X91.49 Y-132.416
X92.208 Y-131.908
X92.76 Y-131.23
X93.113 Y-130.411
X93.229 Y-129.565
X93.174 Y-129.137
X93.112 Y-128.683
X92.76 Y-127.871
X92.205 Y-127.189
X91.491 Y-126.684
X90.664 Y-126.389
X90.614 Y-126.384
X89.765 Y-126.329
X88.924 Y-126.504
X88.884 Y-126.523
X88.129 Y-126.918
X87.495 Y-127.51
X87.032 Y-128.276
X86.799 Y-129.109
X86.801 Y-129.997
X86.889 Y-130.31
X86.986 Y-130.658
G3 X87.232 Y-130.797 R0.2
G1 X90.477 Y-129.894
G3 X90.603 Y-129.79 R0.2
X89.259 Y-129.125 Z-7.206 R0.75
X90.603 Y-129.79 Z-7.412 R0.75
X89.259 Y-129.125 Z-7.618 R0.75
X90.603 Y-129.79 Z-7.825 R0.75
X89.481 Y-128.857 Z-8. R0.75
X90.52 Y-130.242 R0.866
X89.481 Y-128.857 R0.866
G2 X87.955 Y-129.372 R2.573
G3 X86.986 Y-130.658 R1.013
G1 X87.036 Y-130.837
X87.492 Y-131.586
X88.148 Y-132.195
X88.924 Y-132.596
X89.765 Y-132.771
X90.658 Y-132.713
X91.49 Y-132.416
X92.208 Y-131.908
X92.76 Y-131.23
X93.113 Y-130.411
X93.229 Y-129.565
X93.174 Y-129.137
X93.112 Y-128.683
X92.76 Y-127.871
X92.205 Y-127.189
X91.491 Y-126.684
X90.664 Y-126.389
X90.614 Y-126.384
X89.765 Y-126.329
X88.924 Y-126.504
X88.884 Y-126.523
X88.129 Y-126.918
X87.495 Y-127.51
X87.032 Y-128.276
X86.799 Y-129.109
X86.801 Y-129.997
X86.889 Y-130.31
X86.986 Y-130.658
G3 X87.232 Y-130.797 R0.2
G1 X90.477 Y-129.894
G3 X90.603 Y-129.79 R0.2
X89.259 Y-129.125 Z-8.206 R0.75
X90.603 Y-129.79 Z-8.412 R0.75
X89.259 Y-129.125 Z-8.618 R0.75
X90.603 Y-129.79 Z-8.825 R0.75
X89.481 Y-128.857 Z-9. R0.75
X90.52 Y-130.242 R0.866
X89.481 Y-128.857 R0.866
G2 X87.955 Y-129.372 R2.573
G3 X86.986 Y-130.658 R1.013
G1 X87.036 Y-130.837
X87.492 Y-131.586
X88.148 Y-132.195
X88.924 Y-132.596
X89.765 Y-132.771
X90.658 Y-132.713
X91.49 Y-132.416
X92.208 Y-131.908
X92.76 Y-131.23
X93.113 Y-130.411
X93.229 Y-129.565
X93.174 Y-129.137
X93.112 Y-128.683
X92.76 Y-127.871
X92.205 Y-127.189
X91.491 Y-126.684
X90.664 Y-126.389
X90.614 Y-126.384
X89.765 Y-126.329
X88.924 Y-126.504
X88.884 Y-126.523
X88.129 Y-126.918
X87.495 Y-127.51
X87.032 Y-128.276
X86.799 Y-129.109
X86.801 Y-129.997
X86.889 Y-130.31
X86.986 Y-130.658
G3 X87.232 Y-130.797 R0.2
G1 X90.477 Y-129.894
G3 X90.603 Y-129.79 R0.2
X89.259 Y-129.125 Z-9.206 R0.75
X90.603 Y-129.79 Z-9.412 R0.75
X89.259 Y-129.125 Z-9.618 R0.75
X90.603 Y-129.79 Z-9.825 R0.75
X89.481 Y-128.857 Z-10. R0.75
X90.52 Y-130.242 R0.866
X89.481 Y-128.857 R0.866
G2 X87.955 Y-129.372 R2.573
G3 X86.986 Y-130.658 R1.013
G1 X87.036 Y-130.837
X87.492 Y-131.586
X88.148 Y-132.195
X88.924 Y-132.596
X89.765 Y-132.771
X90.658 Y-132.713
X91.49 Y-132.416
X92.208 Y-131.908
X92.76 Y-131.23
X93.113 Y-130.411
X93.229 Y-129.565
X93.174 Y-129.137
X93.112 Y-128.683
X92.76 Y-127.871
X92.205 Y-127.189
X91.491 Y-126.684
X90.664 Y-126.389
X90.614 Y-126.384
X89.765 Y-126.329
X88.924 Y-126.504
X88.884 Y-126.523
X88.129 Y-126.918
X87.495 Y-127.51
X87.032 Y-128.276
X86.799 Y-129.109
X86.801 Y-129.997
X86.889 Y-130.31
X86.986 Y-130.658
G3 X87.232 Y-130.797 R0.2
G1 X90.477 Y-129.894
G3 X90.603 Y-129.79 R0.2
X89.259 Y-129.125 Z-10.206 R0.75
X90.603 Y-129.79 Z-10.412 R0.75
X89.259 Y-129.125 Z-10.618 R0.75
X90.603 Y-129.79 Z-10.825 R0.75
X89.481 Y-128.857 Z-11. R0.75
X90.52 Y-130.242 R0.866
X89.481 Y-128.857 R0.866
G2 X87.955 Y-129.372 R2.573
G3 X86.986 Y-130.658 R1.013
G1 X87.036 Y-130.837
X87.492 Y-131.586
X88.148 Y-132.195
X88.924 Y-132.596
X89.765 Y-132.771
X90.658 Y-132.713
X91.49 Y-132.416
X92.208 Y-131.908
X92.76 Y-131.23
X93.113 Y-130.411
X93.229 Y-129.565
X93.174 Y-129.137
X93.112 Y-128.683
X92.76 Y-127.871
X92.205 Y-127.189
X91.491 Y-126.684
X90.664 Y-126.389
X90.614 Y-126.384
X89.765 Y-126.329
X88.924 Y-126.504
X88.884 Y-126.523
X88.129 Y-126.918
X87.495 Y-127.51
X87.032 Y-128.276
X86.799 Y-129.109
X86.801 Y-129.997
X86.889 Y-130.31
X86.986 Y-130.658
G3 X87.232 Y-130.797 R0.2
G1 X90.477 Y-129.894
G3 X90.603 Y-129.79 R0.2
X89.259 Y-129.125 Z-11.206 R0.75
X90.603 Y-129.79 Z-11.412 R0.75
X89.259 Y-129.125 Z-11.618 R0.75
X90.603 Y-129.79 Z-11.825 R0.75
X89.481 Y-128.857 Z-12. R0.75
X90.52 Y-130.242 R0.866
X89.481 Y-128.857 R0.866
G2 X87.955 Y-129.372 R2.573
G3 X86.986 Y-130.658 R1.013
G1 X87.036 Y-130.837
X87.492 Y-131.586
X88.148 Y-132.195
X88.924 Y-132.596
X89.765 Y-132.771
X90.658 Y-132.713
X91.49 Y-132.416
X92.208 Y-131.908
X92.76 Y-131.23
X93.113 Y-130.411
X93.229 Y-129.565
X93.174 Y-129.137
X93.112 Y-128.683
X92.76 Y-127.871
X92.205 Y-127.189
X91.491 Y-126.684
X90.664 Y-126.389
X90.614 Y-126.384
X89.765 Y-126.329
X88.924 Y-126.504
X88.884 Y-126.523
X88.129 Y-126.918
X87.495 Y-127.51
X87.032 Y-128.276
X86.799 Y-129.109
X86.801 Y-129.997
X86.889 Y-130.31
X86.986 Y-130.658
G3 X87.232 Y-130.797 R0.2
G1 X90.477 Y-129.894
G3 X90.603 Y-129.79 R0.2
X89.259 Y-129.125 Z-12.206 R0.75
X90.603 Y-129.79 Z-12.412 R0.75
X89.259 Y-129.125 Z-12.618 R0.75
X90.603 Y-129.79 Z-12.825 R0.75
X89.481 Y-128.857 Z-13. R0.75
X90.52 Y-130.242 R0.866
X89.481 Y-128.857 R0.866
G2 X87.955 Y-129.372 R2.573
G3 X86.986 Y-130.658 R1.013
G1 X87.036 Y-130.837
X87.492 Y-131.586
X88.148 Y-132.195
X88.924 Y-132.596
X89.765 Y-132.771
X90.658 Y-132.713
X91.49 Y-132.416
X92.208 Y-131.908
X92.76 Y-131.23
X93.113 Y-130.411
X93.229 Y-129.565
X93.174 Y-129.137
X93.112 Y-128.683
X92.76 Y-127.871
X92.205 Y-127.189
X91.491 Y-126.684
X90.664 Y-126.389
X90.614 Y-126.384
X89.765 Y-126.329
X88.924 Y-126.504
X88.884 Y-126.523
X88.129 Y-126.918
X87.495 Y-127.51
X87.032 Y-128.276
X86.799 Y-129.109
X86.801 Y-129.997
X86.889 Y-130.31
X86.986 Y-130.658
G3 X87.232 Y-130.797 R0.2
G1 X90.477 Y-129.894
G3 X90.603 Y-129.79 R0.2
X89.259 Y-129.125 Z-13.206 R0.75
X90.603 Y-129.79 Z-13.412 R0.75
X89.259 Y-129.125 Z-13.618 R0.75
X90.603 Y-129.79 Z-13.825 R0.75
X89.481 Y-128.857 Z-14. R0.75
X90.52 Y-130.242 R0.866
X89.481 Y-128.857 R0.866
G2 X87.955 Y-129.372 R2.573
G3 X86.986 Y-130.658 R1.013
G1 X87.036 Y-130.837
X87.492 Y-131.586
X88.148 Y-132.195
X88.924 Y-132.596
X89.765 Y-132.771
X90.658 Y-132.713
X91.49 Y-132.416
X92.208 Y-131.908
X92.76 Y-131.23
X93.113 Y-130.411
X93.229 Y-129.565
X93.174 Y-129.137
X93.112 Y-128.683
X92.76 Y-127.871
X92.205 Y-127.189
X91.491 Y-126.684
X90.664 Y-126.389
X90.614 Y-126.384
X89.765 Y-126.329
X88.924 Y-126.504
X88.884 Y-126.523
X88.129 Y-126.918
X87.495 Y-127.51
X87.032 Y-128.276
X86.799 Y-129.109
X86.801 Y-129.997
X86.889 Y-130.31
X86.986 Y-130.658
G3 X87.232 Y-130.797 R0.2
G1 X90.477 Y-129.894
G3 X90.603 Y-129.79 R0.2
X89.259 Y-129.125 Z-14.206 R0.75
X90.603 Y-129.79 Z-14.412 R0.75
X89.259 Y-129.125 Z-14.618 R0.75
X90.603 Y-129.79 Z-14.825 R0.75
X89.481 Y-128.857 Z-15. R0.75
X90.52 Y-130.242 R0.866
X89.481 Y-128.857 R0.866
G2 X87.955 Y-129.372 R2.573
G3 X86.986 Y-130.658 R1.013
G1 X87.036 Y-130.837
X87.492 Y-131.586
X88.148 Y-132.195
X88.924 Y-132.596
X89.765 Y-132.771
X90.658 Y-132.713
X91.49 Y-132.416
X92.208 Y-131.908
X92.76 Y-131.23
X93.113 Y-130.411
X93.229 Y-129.565
X93.174 Y-129.137
X93.112 Y-128.683
X92.76 Y-127.871
X92.205 Y-127.189
X91.491 Y-126.684
X90.664 Y-126.389
X90.614 Y-126.384
X89.765 Y-126.329
X88.924 Y-126.504
X88.884 Y-126.523
X88.129 Y-126.918
X87.495 Y-127.51
X87.032 Y-128.276
X86.799 Y-129.109
X86.801 Y-129.997
X86.889 Y-130.31
X86.986 Y-130.658
G3 X87.232 Y-130.797 R0.2
G1 X90.477 Y-129.894
G3 X90.603 Y-129.79 R0.2
X89.259 Y-129.125 Z-15.206 R0.75
X90.603 Y-129.79 Z-15.412 R0.75
X89.259 Y-129.125 Z-15.618 R0.75
X90.603 Y-129.79 Z-15.825 R0.75
X89.481 Y-128.857 Z-16. R0.75
X90.52 Y-130.242 R0.866
X89.481 Y-128.857 R0.866
G2 X87.955 Y-129.372 R2.573
G3 X86.986 Y-130.658 R1.013
G1 X87.036 Y-130.837
X87.492 Y-131.586
X88.148 Y-132.195
X88.924 Y-132.596
X89.765 Y-132.771
X90.658 Y-132.713
X91.49 Y-132.416
X92.208 Y-131.908
X92.76 Y-131.23
X93.113 Y-130.411
X93.229 Y-129.565
X93.174 Y-129.137
X93.112 Y-128.683
X92.76 Y-127.871
X92.205 Y-127.189
X91.491 Y-126.684
X90.664 Y-126.389
X90.614 Y-126.384
X89.765 Y-126.329
X88.924 Y-126.504
X88.884 Y-126.523
X88.129 Y-126.918
X87.495 Y-127.51
X87.032 Y-128.276
X86.799 Y-129.109
X86.801 Y-129.997
X86.889 Y-130.31
X86.986 Y-130.658
G3 X87.232 Y-130.797 R0.2
G1 X90.477 Y-129.894
G3 X90.603 Y-129.79 R0.2
X89.259 Y-129.125 Z-16.206 R0.75
X90.603 Y-129.79 Z-16.412 R0.75
X89.259 Y-129.125 Z-16.618 R0.75
X90.603 Y-129.79 Z-16.825 R0.75
X89.481 Y-128.857 Z-17. R0.75
X90.52 Y-130.242 R0.866
X89.481 Y-128.857 R0.866
G2 X87.955 Y-129.372 R2.573
G3 X86.986 Y-130.658 R1.013
G1 X87.036 Y-130.837
X87.492 Y-131.586
X88.148 Y-132.195
X88.924 Y-132.596
X89.765 Y-132.771
X90.658 Y-132.713
X91.49 Y-132.416
X92.208 Y-131.908
X92.76 Y-131.23
X93.113 Y-130.411
X93.229 Y-129.565
X93.174 Y-129.137
X93.112 Y-128.683
X92.76 Y-127.871
X92.205 Y-127.189
X91.491 Y-126.684
X90.664 Y-126.389
X90.614 Y-126.384
X89.765 Y-126.329
X88.924 Y-126.504
X88.884 Y-126.523
X88.129 Y-126.918
X87.495 Y-127.51
X87.032 Y-128.276
X86.799 Y-129.109
X86.801 Y-129.997
X86.889 Y-130.31
X86.986 Y-130.658
G3 X87.232 Y-130.797 R0.2
G1 X90.477 Y-129.894
G3 X90.603 Y-129.79 R0.2
X89.259 Y-129.125 Z-17.206 R0.75
X90.603 Y-129.79 Z-17.412 R0.75
X89.259 Y-129.125 Z-17.618 R0.75
X90.603 Y-129.79 Z-17.825 R0.75
X89.481 Y-128.857 Z-18. R0.75
X90.52 Y-130.242 R0.866
X89.481 Y-128.857 R0.866
G2 X87.955 Y-129.372 R2.573
G3 X86.986 Y-130.658 R1.013
G1 X87.036 Y-130.837
X87.492 Y-131.586
X88.148 Y-132.195
X88.924 Y-132.596
X89.765 Y-132.771
X90.658 Y-132.713
X91.49 Y-132.416
X92.208 Y-131.908
X92.76 Y-131.23
X93.113 Y-130.411
X93.229 Y-129.565
X93.174 Y-129.137
X93.112 Y-128.683
X92.76 Y-127.871
X92.205 Y-127.189
X91.491 Y-126.684
X90.664 Y-126.389
X90.614 Y-126.384
X89.765 Y-126.329
X88.924 Y-126.504
X88.884 Y-126.523
X88.129 Y-126.918
X87.495 Y-127.51
X87.032 Y-128.276
X86.799 Y-129.109
X86.801 Y-129.997
X86.889 Y-130.31
X86.986 Y-130.658
G3 X87.232 Y-130.797 R0.2
G1 X90.477 Y-129.894
G3 X90.603 Y-129.79 R0.2
X89.259 Y-129.125 Z-18.206 R0.75
X90.603 Y-129.79 Z-18.412 R0.75
X89.259 Y-129.125 Z-18.618 R0.75
X90.603 Y-129.79 Z-18.825 R0.75
X89.481 Y-128.857 Z-19. R0.75
X90.52 Y-130.242 R0.866
X89.481 Y-128.857 R0.866
G2 X87.955 Y-129.372 R2.573
G3 X86.986 Y-130.658 R1.013
G1 X87.036 Y-130.837
X87.492 Y-131.586
X88.148 Y-132.195
X88.924 Y-132.596
X89.765 Y-132.771
X90.658 Y-132.713
X91.49 Y-132.416
X92.208 Y-131.908
X92.76 Y-131.23
X93.113 Y-130.411
X93.229 Y-129.565
X93.174 Y-129.137
X93.112 Y-128.683
X92.76 Y-127.871
X92.205 Y-127.189
X91.491 Y-126.684
X90.664 Y-126.389
X90.614 Y-126.384
X89.765 Y-126.329
X88.924 Y-126.504
X88.884 Y-126.523
X88.129 Y-126.918
X87.495 Y-127.51
X87.032 Y-128.276
X86.799 Y-129.109
X86.801 Y-129.997
X86.889 Y-130.31
X86.986 Y-130.658
G3 X87.232 Y-130.797 R0.2
G1 X90.477 Y-129.894
G3 X90.603 Y-129.79 R0.2
X89.259 Y-129.125 Z-19.206 R0.75
X90.603 Y-129.79 Z-19.412 R0.75
X89.259 Y-129.125 Z-19.618 R0.75
X90.603 Y-129.79 Z-19.825 R0.75
X89.481 Y-128.857 Z-20. R0.75
X90.52 Y-130.242 R0.866
X89.481 Y-128.857 R0.866
G2 X87.955 Y-129.372 R2.573
G3 X86.986 Y-130.658 R1.013
G1 X87.036 Y-130.837
X87.492 Y-131.586
X88.148 Y-132.195
X88.924 Y-132.596
X89.765 Y-132.771
X90.658 Y-132.713
X91.49 Y-132.416
X92.208 Y-131.908
X92.76 Y-131.23
X93.113 Y-130.411
X93.229 Y-129.565
X93.174 Y-129.137
X93.112 Y-128.683
X92.76 Y-127.871
X92.205 Y-127.189
X91.491 Y-126.684
X90.664 Y-126.389
X90.614 Y-126.384
X89.765 Y-126.329
X88.924 Y-126.504
X88.884 Y-126.523
X88.129 Y-126.918
X87.495 Y-127.51
X87.032 Y-128.276
X86.799 Y-129.109
X86.801 Y-129.997
X86.889 Y-130.31
X86.986 Y-130.658
G3 X87.232 Y-130.797 R0.2
G1 X90.477 Y-129.894
G3 X90.603 Y-129.79 R0.2
X89.259 Y-129.125 Z-20.206 R0.75
X90.603 Y-129.79 Z-20.412 R0.75
X89.259 Y-129.125 Z-20.618 R0.75
X90.603 Y-129.79 Z-20.825 R0.75
X89.481 Y-128.857 Z-21. R0.75
X90.52 Y-130.242 R0.866
X89.481 Y-128.857 R0.866
G2 X87.955 Y-129.372 R2.573
G3 X86.986 Y-130.658 R1.013
G1 X87.036 Y-130.837
X87.492 Y-131.586
X88.148 Y-132.195
X88.924 Y-132.596
X89.765 Y-132.771
X90.658 Y-132.713
X91.49 Y-132.416
X92.208 Y-131.908
X92.76 Y-131.23
X93.113 Y-130.411
X93.229 Y-129.565
X93.174 Y-129.137
X93.112 Y-128.683
X92.76 Y-127.871
X92.205 Y-127.189
X91.491 Y-126.684
X90.664 Y-126.389
X90.614 Y-126.384
X89.765 Y-126.329
X88.924 Y-126.504
X88.884 Y-126.523
X88.129 Y-126.918
X87.495 Y-127.51
X87.032 Y-128.276
X86.799 Y-129.109
X86.801 Y-129.997
X86.889 Y-130.31
X86.986 Y-130.658
G3 X87.251 Y-130.791 R0.2
G1 X90.289 Y-129.609
G3 X90.401 Y-129.5 R0.2
X89.018 Y-128.918 Z-21.206 R0.75
X90.401 Y-129.5 Z-21.412 R0.75
X89.018 Y-128.918 Z-21.618 R0.75
X90.401 Y-129.5 Z-21.825 R0.75
X89.223 Y-128.638 Z-22. R0.75
G1 X89.062 Y-128.775
X88.853 Y-129.14
X88.781 Y-129.55
X88.854 Y-129.967
X89.066 Y-130.334
X89.387 Y-130.603
X89.789 Y-130.751
X90.21
X90.61 Y-130.605
X90.934 Y-130.334
X91.142 Y-129.974
X91.219 Y-129.548
X91.146 Y-129.133
X90.94 Y-128.777
X90.607 Y-128.493
X90.21 Y-128.349
X89.791
X89.771 Y-128.356
X89.39 Y-128.496
X89.223 Y-128.638
G3 X89.235 Y-128.952 R0.2
G1 X90.098 Y-129.584
G3 X90.401 Y-129.5 R0.2
X89.018 Y-128.918 Z-22.206 R0.75
X90.401 Y-129.5 Z-22.412 R0.75
X89.018 Y-128.918 Z-22.618 R0.75
X90.401 Y-129.5 Z-22.825 R0.75
X89.223 Y-128.638 Z-23. R0.75
G1 X89.062 Y-128.775
X88.853 Y-129.14
X88.781 Y-129.55
X88.854 Y-129.967
X89.066 Y-130.334
X89.387 Y-130.603
X89.789 Y-130.751
X90.21
X90.61 Y-130.605
X90.934 Y-130.334
X91.142 Y-129.974
X91.219 Y-129.548
X91.146 Y-129.133
X90.94 Y-128.777
X90.607 Y-128.493
X90.21 Y-128.349
X89.791
X89.771 Y-128.356
X89.39 Y-128.496
X89.223 Y-128.638
G3 X89.235 Y-128.952 R0.2
G1 X90.098 Y-129.584
G3 X90.401 Y-129.5 R0.2
X89.018 Y-128.918 Z-23.206 R0.75
X90.401 Y-129.5 Z-23.412 R0.75
X89.018 Y-128.918 Z-23.618 R0.75
X90.401 Y-129.5 Z-23.825 R0.75
X89.223 Y-128.638 Z-24. R0.75
G1 X89.062 Y-128.775
X88.853 Y-129.14
X88.781 Y-129.55
X88.854 Y-129.967
X89.066 Y-130.334
X89.387 Y-130.603
X89.789 Y-130.751
X90.21
X90.61 Y-130.605
X90.934 Y-130.334
X91.142 Y-129.974
X91.219 Y-129.548
X91.146 Y-129.133
X90.94 Y-128.777
X90.607 Y-128.493
X90.21 Y-128.349
X89.791
X89.771 Y-128.356
X89.39 Y-128.496
X89.223 Y-128.638
G3 X89.235 Y-128.952 R0.2
G1 X90.098 Y-129.584
G3 X90.401 Y-129.5 R0.2
X89.018 Y-128.918 Z-24.206 R0.75
X90.401 Y-129.5 Z-24.412 R0.75
X89.018 Y-128.918 Z-24.618 R0.75
X90.401 Y-129.5 Z-24.825 R0.75
X89.223 Y-128.638 Z-25. R0.75
G1 X89.062 Y-128.775
X88.853 Y-129.14
X88.781 Y-129.55
X88.854 Y-129.967
X89.066 Y-130.334
X89.387 Y-130.603
X89.789 Y-130.751
X90.21
X90.61 Y-130.605
X90.934 Y-130.334
X91.142 Y-129.974
X91.219 Y-129.548
X91.146 Y-129.133
X90.94 Y-128.777
X90.607 Y-128.493
X90.21 Y-128.349
X89.791
X89.771 Y-128.356
X89.39 Y-128.496
X89.223 Y-128.638
G3 X89.143 Y-128.731 Z-24.98 R0.4
X89.098 Y-128.833 Z-24.924 R0.4
X89.083 Y-128.92 Z-24.835 R0.4
X89.084 Y-128.977 Z-24.724 R0.4
X89.086 Y-128.996 Z-24.6 R0.4
G0 Z5.
X-90.313 Y-128.749
Z1.448
G3 X-90.328 Y-128.755 Z1.336 R0.75 F350.
X-90.372 Y-128.772 Z1.232 R0.75
X-90.439 Y-128.806 Z1.146 R0.75
X-90.519 Y-128.859 Z1.084 R0.75
X-90.569 Y-128.899 Z1.062 R0.75
X-90.616 Y-128.945 Z1.05 R0.75
X-89.522 Y-129.972 Z0.844 R0.75
X-90.616 Y-128.945 Z0.638 R0.75
X-89.522 Y-129.972 Z0.432 R0.75
X-90.616 Y-128.945 Z0.225 R0.75
X-89.522 Y-129.972 Z0.019 R0.75
X-90.616 Y-128.945 Z-0.187 R0.75
X-89.522 Y-129.972 Z-0.393 R0.75
X-90.616 Y-128.945 Z-0.599 R0.75
X-89.522 Y-129.972 Z-0.805 R0.75
X-90.519 Y-128.859 Z-1. R0.75
Y-130.243 R0.865
X-89.481 Y-128.859 R0.865
X-90.519 R0.865
G2 X-92.045 Y-129.373 R2.574
G3 X-93.013 Y-130.66 R1.013
G1 X-92.964 Y-130.837
X-92.507 Y-131.588
X-91.852 Y-132.196
X-91.082 Y-132.595
X-90.221 Y-132.774
X-89.335 Y-132.711
X-88.524 Y-132.423
X-87.797 Y-131.913
X-87.234 Y-131.218
X-86.892 Y-130.429
X-86.88 Y-130.361
X-86.771 Y-129.565
X-86.826 Y-129.137
X-86.888 Y-128.679
X-87.245 Y-127.864
X-87.801 Y-127.184
X-88.524 Y-126.677
X-89.335 Y-126.389
X-90.221 Y-126.327
X-91.072 Y-126.503
X-91.873 Y-126.92
X-92.514 Y-127.524
X-92.968 Y-128.276
X-93.201 Y-129.109
X-93.199 Y-129.997
X-93.013 Y-130.66
G3 X-92.767 Y-130.798 R0.2
G1 X-89.523 Y-129.895
G3 X-89.397 Y-129.791 R0.2
X-90.742 Y-129.126 Z-1.206 R0.75
X-89.397 Y-129.791 Z-1.412 R0.75
X-90.742 Y-129.126 Z-1.618 R0.75
X-89.397 Y-129.791 Z-1.825 R0.75
X-90.519 Y-128.859 Z-2. R0.75
Y-130.243 R0.865
X-89.481 Y-128.859 R0.865
X-90.519 R0.865
G2 X-92.045 Y-129.373 R2.574
G3 X-93.013 Y-130.66 R1.013
G1 X-92.964 Y-130.837
X-92.507 Y-131.588
X-91.852 Y-132.196
X-91.082 Y-132.595
X-90.221 Y-132.774
X-89.335 Y-132.711
X-88.524 Y-132.423
X-87.797 Y-131.913
X-87.234 Y-131.218
X-86.892 Y-130.429
X-86.88 Y-130.361
X-86.771 Y-129.565
X-86.826 Y-129.137
X-86.888 Y-128.679
X-87.245 Y-127.864
X-87.801 Y-127.184
X-88.524 Y-126.677
X-89.335 Y-126.389
X-90.221 Y-126.327
X-91.072 Y-126.503
X-91.873 Y-126.92
X-92.514 Y-127.524
X-92.968 Y-128.276
X-93.201 Y-129.109
X-93.199 Y-129.997
X-93.013 Y-130.66
G3 X-92.767 Y-130.798 R0.2
G1 X-89.523 Y-129.895
G3 X-89.397 Y-129.791 R0.2
X-90.742 Y-129.126 Z-2.206 R0.75
X-89.397 Y-129.791 Z-2.412 R0.75
X-90.742 Y-129.126 Z-2.618 R0.75
X-89.397 Y-129.791 Z-2.825 R0.75
X-90.519 Y-128.859 Z-3. R0.75
Y-130.243 R0.865
X-89.481 Y-128.859 R0.865
X-90.519 R0.865
G2 X-92.045 Y-129.373 R2.574
G3 X-93.013 Y-130.66 R1.013
G1 X-92.964 Y-130.837
X-92.507 Y-131.588
X-91.852 Y-132.196
X-91.082 Y-132.595
X-90.221 Y-132.774
X-89.335 Y-132.711
X-88.524 Y-132.423
X-87.797 Y-131.913
X-87.234 Y-131.218
X-86.892 Y-130.429
X-86.88 Y-130.361
X-86.771 Y-129.565
X-86.826 Y-129.137
X-86.888 Y-128.679
X-87.245 Y-127.864
X-87.801 Y-127.184
X-88.524 Y-126.677
X-89.335 Y-126.389
X-90.221 Y-126.327
X-91.072 Y-126.503
X-91.873 Y-126.92
X-92.514 Y-127.524
X-92.968 Y-128.276
X-93.201 Y-129.109
X-93.199 Y-129.997
X-93.013 Y-130.66
G3 X-92.767 Y-130.798 R0.2
G1 X-89.523 Y-129.895
G3 X-89.397 Y-129.791 R0.2
X-90.742 Y-129.126 Z-3.206 R0.75
X-89.397 Y-129.791 Z-3.412 R0.75
X-90.742 Y-129.126 Z-3.618 R0.75
X-89.397 Y-129.791 Z-3.825 R0.75
X-90.519 Y-128.859 Z-4. R0.75
Y-130.243 R0.865
X-89.481 Y-128.859 R0.865
X-90.519 R0.865
G2 X-92.045 Y-129.373 R2.574
G3 X-93.013 Y-130.66 R1.013
G1 X-92.964 Y-130.837
X-92.507 Y-131.588
X-91.852 Y-132.196
X-91.082 Y-132.595
X-90.221 Y-132.774
X-89.335 Y-132.711
X-88.524 Y-132.423
X-87.797 Y-131.913
X-87.234 Y-131.218
X-86.892 Y-130.429
X-86.88 Y-130.361
X-86.771 Y-129.565
X-86.826 Y-129.137
X-86.888 Y-128.679
X-87.245 Y-127.864
X-87.801 Y-127.184
X-88.524 Y-126.677
X-89.335 Y-126.389
X-90.221 Y-126.327
X-91.072 Y-126.503
X-91.873 Y-126.92
X-92.514 Y-127.524
X-92.968 Y-128.276
X-93.201 Y-129.109
X-93.199 Y-129.997
X-93.013 Y-130.66
G3 X-92.767 Y-130.798 R0.2
G1 X-89.523 Y-129.895
G3 X-89.397 Y-129.791 R0.2
X-90.742 Y-129.126 Z-4.206 R0.75
X-89.397 Y-129.791 Z-4.412 R0.75
X-90.742 Y-129.126 Z-4.618 R0.75
X-89.397 Y-129.791 Z-4.825 R0.75
X-90.519 Y-128.859 Z-5. R0.75
Y-130.243 R0.865
X-89.481 Y-128.859 R0.865
X-90.519 R0.865
G2 X-92.045 Y-129.373 R2.574
G3 X-93.013 Y-130.66 R1.013
G1 X-92.964 Y-130.837
X-92.507 Y-131.588
X-91.852 Y-132.196
X-91.082 Y-132.595
X-90.221 Y-132.774
X-89.335 Y-132.711
X-88.524 Y-132.423
X-87.797 Y-131.913
X-87.234 Y-131.218
X-86.892 Y-130.429
X-86.88 Y-130.361
X-86.771 Y-129.565
X-86.826 Y-129.137
X-86.888 Y-128.679
X-87.245 Y-127.864
X-87.801 Y-127.184
X-88.524 Y-126.677
X-89.335 Y-126.389
X-90.221 Y-126.327
X-91.072 Y-126.503
X-91.873 Y-126.92
X-92.514 Y-127.524
X-92.968 Y-128.276
X-93.201 Y-129.109
X-93.199 Y-129.997
X-93.013 Y-130.66
G3 X-92.767 Y-130.798 R0.2
G1 X-89.523 Y-129.895
G3 X-89.397 Y-129.791 R0.2
X-90.742 Y-129.126 Z-5.206 R0.75
X-89.397 Y-129.791 Z-5.412 R0.75
X-90.742 Y-129.126 Z-5.618 R0.75
X-89.397 Y-129.791 Z-5.825 R0.75
X-90.519 Y-128.859 Z-6. R0.75
Y-130.243 R0.865
X-89.481 Y-128.859 R0.865
X-90.519 R0.865
G2 X-92.045 Y-129.373 R2.574
G3 X-93.013 Y-130.66 R1.013
G1 X-92.964 Y-130.837
X-92.507 Y-131.588
X-91.852 Y-132.196
X-91.082 Y-132.595
X-90.221 Y-132.774
X-89.335 Y-132.711
X-88.524 Y-132.423
X-87.797 Y-131.913
X-87.234 Y-131.218
X-86.892 Y-130.429
X-86.88 Y-130.361
X-86.771 Y-129.565
X-86.826 Y-129.137
X-86.888 Y-128.679
X-87.245 Y-127.864
X-87.801 Y-127.184
X-88.524 Y-126.677
X-89.335 Y-126.389
X-90.221 Y-126.327
X-91.072 Y-126.503
X-91.873 Y-126.92
X-92.514 Y-127.524
X-92.968 Y-128.276
X-93.201 Y-129.109
X-93.199 Y-129.997
X-93.013 Y-130.66
G3 X-92.767 Y-130.798 R0.2
G1 X-89.523 Y-129.895
G3 X-89.397 Y-129.791 R0.2
X-90.742 Y-129.126 Z-6.206 R0.75
X-89.397 Y-129.791 Z-6.412 R0.75
X-90.742 Y-129.126 Z-6.618 R0.75
X-89.397 Y-129.791 Z-6.825 R0.75
X-90.519 Y-128.859 Z-7. R0.75
Y-130.243 R0.865
X-89.481 Y-128.859 R0.865
X-90.519 R0.865
G2 X-92.045 Y-129.373 R2.574
G3 X-93.013 Y-130.66 R1.013
G1 X-92.964 Y-130.837
X-92.507 Y-131.588
X-91.852 Y-132.196
X-91.082 Y-132.595
X-90.221 Y-132.774
X-89.335 Y-132.711
X-88.524 Y-132.423
X-87.797 Y-131.913
X-87.234 Y-131.218
X-86.892 Y-130.429
X-86.88 Y-130.361
X-86.771 Y-129.565
X-86.826 Y-129.137
X-86.888 Y-128.679
X-87.245 Y-127.864
X-87.801 Y-127.184
X-88.524 Y-126.677
X-89.335 Y-126.389
X-90.221 Y-126.327
X-91.072 Y-126.503
X-91.873 Y-126.92
X-92.514 Y-127.524
X-92.968 Y-128.276
X-93.201 Y-129.109
X-93.199 Y-129.997
X-93.013 Y-130.66
G3 X-92.767 Y-130.798 R0.2
