(_)
(T1  D=3.175 CR=0. - ZMIN=-2. - FLAT END MILL)
G90 G94 G91.1 G40 G49 G17
G21

(2D POCKET1)
M5
M9
T1
S10000 M3
G54
M8
G0 X7.065 Y-0.215
G43 Z15. H1
Z5.
G1 Z2.5 F1588.
G3 X7.935 Y1.715 Z2.384 R1.058
X7.065 Y-0.215 Z2.268 R1.058
X7.935 Y1.715 Z2.152 R1.058
X7.065 Y-0.215 Z2.036 R1.058
X7.935 Y1.715 Z1.92 R1.058
X7.065 Y-0.215 Z1.803 R1.058
X7.935 Y1.715 Z1.687 R1.058
X7.065 Y-0.215 Z1.571 R1.058
X7.935 Y1.715 Z1.455 R1.058
X7.065 Y-0.215 Z1.339 R1.058
X7.935 Y1.715 Z1.223 R1.058
X7.065 Y-0.215 Z1.107 R1.058
X7.935 Y1.715 Z0.991 R1.058
X7.065 Y-0.215 Z0.875 R1.058
X7.935 Y1.715 Z0.759 R1.058
X7.065 Y-0.215 Z0.643 R1.058
X7.935 Y1.715 Z0.527 R1.058
X7.065 Y-0.215 Z0.41 R1.058
X7.935 Y1.715 Z0.294 R1.058
X7.065 Y-0.215 Z0.178 R1.058
X7.935 Y1.715 Z0.062 R1.058
X7.065 Y-0.215 Z-0.054 R1.058
X7.935 Y1.715 Z-0.17 R1.058
X7.065 Y-0.215 Z-0.286 R1.058
X7.935 Y1.715 Z-0.402 R1.058
X7.065 Y-0.215 Z-0.518 R1.058
X7.935 Y1.715 Z-0.634 R1.058
X7.065 Y-0.215 Z-0.75 R1.058
X7.935 Y1.715 Z-0.866 R1.058
X7.065 Y-0.215 Z-0.983 R1.058
X7.553 Y-0.307 Z-1. R1.058
X7.987 Y0.132 R0.457
X7.999 Y0.75 R16.149
X7.001 R0.499
X7.999 R0.499
G2 X8.357 Y1.427 R0.819
G3 X8.327 Y2.192 R0.452
X6.673 Y-0.692 R1.663
X8.327 Y2.192 R1.663
X8.118 Y2.186 R0.2
G1 X6.574 Y1.179
G3 X6.492 Y1.073 R0.2
X8.508 Y0.427 Z-1.116 R1.058
X6.492 Y1.073 Z-1.232 R1.058
X8.508 Y0.427 Z-1.348 R1.058
X6.492 Y1.073 Z-1.464 R1.058
X8.508 Y0.427 Z-1.58 R1.058
X6.492 Y1.073 Z-1.697 R1.058
X8.508 Y0.427 Z-1.813 R1.058
X6.492 Y1.073 Z-1.929 R1.058
X7.553 Y-0.307 Z-2. R1.058
X7.987 Y0.132 R0.457
X7.999 Y0.75 R16.149
X7.001 R0.499
X7.999 R0.499
G2 X8.357 Y1.427 R0.819
G3 X8.327 Y2.192 R0.452
X6.673 Y-0.692 R1.663
X8.327 Y2.192 R1.663
G1 X8.027 Y1.669 Z-1.94
G0 Z5.
X22.521 Y11.887
G1 Z2.5 F1588.
X23. Z2.483
G3 Y11.913 Z2.482 R0.013
G1 X3.15 Z1.789
G3 X3.138 Y11.9 Z1.788 R0.013
G1 X3.15 Y11.887 Z1.787
X23. Z1.094
G3 Y11.913 Z1.093 R0.013
G1 X3.15 Z0.4
G3 X3.138 Y11.9 Z0.399 R0.013
G1 X3.15 Y11.887 Z0.398
X23. Z-0.295
G3 Y11.913 Z-0.296 R0.013
G1 X3.15 Z-0.989
G3 X3.138 Y11.9 Z-0.99 R0.013
G1 X3.15 Y11.887 Z-0.991
X3.412 Z-1.
X23.
G3 Y11.913 R0.013
G1 X3.15
Y11.887
X3.412
X23. Z-1.684
G3 Y11.913 Z-1.685 R0.013
G1 X13.991 Z-2.
X3.15
Y11.887
X23.
G3 Y11.913 R0.013
G1 X13.991
Y11.9 Z-1.999
G0 Z5.
X3.59 Y42.912
G1 Z2.5 F1588.
X3.15 Z2.485
G3 Y42.888 Z2.483 R0.013
G1 X23. Z1.79
G3 X23.013 Y42.9 Z1.789 R0.013
G1 X23. Y42.912
X3.15 Z1.096
G3 Y42.888 Z1.094 R0.013
G1 X23. Z0.401
G3 X23.013 Y42.9 Z0.4 R0.013
G1 X23. Y42.912
X3.15 Z-0.294
G3 Y42.888 Z-0.295 R0.013
G1 X23. Z-0.988
G3 X23.013 Y42.9 Z-0.989 R0.013
G1 X23. Y42.912
X22.698 Z-1.
X3.15
G3 Y42.888 R0.013
G1 X23.
Y42.912
X22.698
X3.15 Z-1.683
G3 Y42.888 Z-1.684 R0.013
G1 X12.199 Z-2.
X23.
Y42.912
X3.15
G3 Y42.888 R0.013
G1 X12.199
Y42.9 Z-1.999
G0 Z5.
X-8.44 Y42.888
G1 Z2.5 F1588.
X-8. Z2.485
X-7.988 Y42.9 Z2.484
X-8. Y42.912 Z2.483
X-27.85 Z1.79
X-27.862 Y42.9 Z1.789
G3 X-27.85 Y42.888 R0.013
G1 X-8. Z1.096
X-7.988 Y42.9 Z1.095
X-8. Y42.912 Z1.094
X-27.85 Z0.401
X-27.862 Y42.9 Z0.4
G3 X-27.85 Y42.888 R0.013
G1 X-8. Z-0.294
X-7.988 Y42.9
X-8. Y42.912 Z-0.295
X-27.85 Z-0.988
X-27.862 Y42.9 Z-0.989
G3 X-27.85 Y42.888 R0.013
G1 X-27.548 Z-1.
X-8.
Y42.912
X-27.85
G3 Y42.888 R0.013
G1 X-27.548
X-8. Z-1.683
X-7.988 Y42.9
X-8. Y42.912 Z-1.684
X-17.049 Z-2.
X-27.85
G3 Y42.888 R0.013
G1 X-8.
Y42.912
X-17.049
Y42.9 Z-1.999
G0 Z5.
X-27.41 Y11.913
G1 Z2.5 F1588.
X-27.85 Z2.485
X-27.862 Y11.9 Z2.484
X-27.85 Y11.887 Z2.483
X-8. Z1.79
X-7.988 Y11.9 Z1.789
G3 X-8. Y11.913 R0.013
G1 X-27.85 Z1.096
X-27.862 Y11.9 Z1.095
X-27.85 Y11.887 Z1.094
X-8. Z0.401
X-7.988 Y11.9 Z0.4
G3 X-8. Y11.913 R0.013
G1 X-27.85 Z-0.294
X-27.862 Y11.9
X-27.85 Y11.887 Z-0.295
X-8. Z-0.988
X-7.988 Y11.9 Z-0.989
G3 X-8. Y11.913 R0.013
G1 X-8.302 Z-1.
X-27.85
Y11.887
X-8.
G3 Y11.913 R0.013
G1 X-8.302
X-27.85 Z-1.683
X-27.862 Y11.9
X-27.85 Y11.887 Z-1.684
X-18.801 Z-2.
X-8.
G3 Y11.913 R0.013
G1 X-27.85
Y11.887
X-18.801
Y11.9 Z-1.999
G0 Z5.
X-15.435 Y-22.715
G1 Z2.5 F1588.
G3 X-15. Y-22.808 Z2.484 R1.058
X-14.947 Y-22.807 Z2.483 R1.058
X-15.053 Y-20.693 Z2.366 R1.058
X-15. Y-22.808 Z2.252 R1.058
X-14.947 Y-22.807 Z2.25 R1.058
X-15.053 Y-20.693 Z2.134 R1.058
X-15. Y-22.808 Z2.02 R1.058
X-14.947 Y-22.807 Z2.018 R1.058
X-15.053 Y-20.693 Z1.902 R1.058
X-15. Y-22.808 Z1.788 R1.058
X-14.947 Y-22.807 Z1.786 R1.058
X-15.053 Y-20.693 Z1.67 R1.058
X-15. Y-22.808 Z1.556 R1.058
X-14.947 Y-22.807 Z1.554 R1.058
X-15.053 Y-20.693 Z1.438 R1.058
X-15. Y-22.808 Z1.324 R1.058
X-14.947 Y-22.807 Z1.322 R1.058
X-15.053 Y-20.693 Z1.206 R1.058
X-15. Y-22.808 Z1.091 R1.058
X-14.947 Y-22.807 Z1.09 R1.058
X-15.053 Y-20.693 Z0.973 R1.058
X-15. Y-22.808 Z0.859 R1.058
X-14.947 Y-22.807 Z0.857 R1.058
X-15.053 Y-20.693 Z0.741 R1.058
X-15. Y-22.808 Z0.627 R1.058
X-14.947 Y-22.807 Z0.625 R1.058
X-15.053 Y-20.693 Z0.509 R1.058
X-15. Y-22.808 Z0.395 R1.058
X-14.947 Y-22.807 Z0.393 R1.058
X-15.053 Y-20.693 Z0.277 R1.058
X-15. Y-22.808 Z0.163 R1.058
X-14.947 Y-22.807 Z0.161 R1.058
X-15.053 Y-20.693 Z0.045 R1.058
X-15. Y-22.808 Z-0.069 R1.058
X-14.947 Y-22.807 Z-0.071 R1.058
X-15.053 Y-20.693 Z-0.187 R1.058
X-15. Y-22.808 Z-0.302 R1.058
X-14.947 Y-22.807 Z-0.303 R1.058
X-15.053 Y-20.693 Z-0.42 R1.058
X-15. Y-22.808 Z-0.534 R1.058
X-14.947 Y-22.807 Z-0.536 R1.058
X-15.053 Y-20.693 Z-0.652 R1.058
X-15. Y-22.808 Z-0.766 R1.058
X-14.947 Y-22.807 Z-0.768 R1.058
X-15.053 Y-20.693 Z-0.884 R1.058
X-15. Y-22.808 Z-0.998 R1.058
X-14.947 Y-22.807 Z-1. R1.058
X-14.513 Y-22.368 R0.457
X-14.501 Y-21.75 R16.149
X-15.499 R0.499
X-14.501 R0.499
G2 X-14.143 Y-21.073 R0.819
G3 X-14.173 Y-20.308 R0.452
X-15.827 Y-23.192 R1.663
X-14.173 Y-20.308 R1.663
X-14.382 Y-20.314 R0.2
G1 X-15.926 Y-21.321
G3 X-16.008 Y-21.427 R0.2
X-15. Y-22.808 Z-1.069 R1.058
X-14.947 Y-22.807 Z-1.071 R1.058
X-15.053 Y-20.693 Z-1.187 R1.058
X-15. Y-22.808 Z-1.302 R1.058
X-14.947 Y-22.807 Z-1.303 R1.058
X-15.053 Y-20.693 Z-1.42 R1.058
X-15. Y-22.808 Z-1.534 R1.058
X-14.947 Y-22.807 Z-1.536 R1.058
X-15.053 Y-20.693 Z-1.652 R1.058
X-15. Y-22.808 Z-1.766 R1.058
X-14.947 Y-22.807 Z-1.768 R1.058
X-15.053 Y-20.693 Z-1.884 R1.058
X-15. Y-22.808 Z-1.998 R1.058
X-14.947 Y-22.807 Z-2. R1.058
X-14.513 Y-22.368 R0.457
X-14.501 Y-21.75 R16.149
X-15.499 R0.499
X-14.501 R0.499
G2 X-14.143 Y-21.073 R0.819
G3 X-14.173 Y-20.308 R0.452
X-15.827 Y-23.192 R1.663
X-14.173 Y-20.308 R1.663
G1 X-14.473 Y-20.831 Z-1.94
G0 Z5.
X7.065 Y-45.215
G1 Z2.5 F1588.
G3 X7.5 Y-45.308 Z2.484 R1.058
X7.553 Y-45.307 Z2.483 R1.058
X7.447 Y-43.193 Z2.366 R1.058
X7.5 Y-45.308 Z2.252 R1.058
X7.553 Y-45.307 Z2.25 R1.058
X7.447 Y-43.193 Z2.134 R1.058
X7.5 Y-45.308 Z2.02 R1.058
X7.553 Y-45.307 Z2.018 R1.058
X7.447 Y-43.193 Z1.902 R1.058
X7.5 Y-45.308 Z1.788 R1.058
X7.553 Y-45.307 Z1.786 R1.058
X7.447 Y-43.193 Z1.67 R1.058
X7.5 Y-45.308 Z1.556 R1.058
X7.553 Y-45.307 Z1.554 R1.058
X7.447 Y-43.193 Z1.438 R1.058
X7.5 Y-45.308 Z1.324 R1.058
X7.553 Y-45.307 Z1.322 R1.058
X7.447 Y-43.193 Z1.206 R1.058
X7.5 Y-45.308 Z1.091 R1.058
X7.553 Y-45.307 Z1.09 R1.058
X7.447 Y-43.193 Z0.973 R1.058
X7.5 Y-45.308 Z0.859 R1.058
X7.553 Y-45.307 Z0.857 R1.058
X7.447 Y-43.193 Z0.741 R1.058
X7.5 Y-45.308 Z0.627 R1.058
X7.553 Y-45.307 Z0.625 R1.058
X7.447 Y-43.193 Z0.509 R1.058
X7.5 Y-45.308 Z0.395 R1.058
X7.553 Y-45.307 Z0.393 R1.058
X7.447 Y-43.193 Z0.277 R1.058
X7.5 Y-45.308 Z0.163 R1.058
X7.553 Y-45.307 Z0.161 R1.058
X7.447 Y-43.193 Z0.045 R1.058
X7.5 Y-45.308 Z-0.069 R1.058
X7.553 Y-45.307 Z-0.071 R1.058
X7.447 Y-43.193 Z-0.187 R1.058
X7.5 Y-45.308 Z-0.302 R1.058
X7.553 Y-45.307 Z-0.303 R1.058
X7.447 Y-43.193 Z-0.42 R1.058
X7.5 Y-45.308 Z-0.534 R1.058
X7.553 Y-45.307 Z-0.536 R1.058
X7.447 Y-43.193 Z-0.652 R1.058
X7.5 Y-45.308 Z-0.766 R1.058
X7.553 Y-45.307 Z-0.768 R1.058
X7.447 Y-43.193 Z-0.884 R1.058
X7.5 Y-45.308 Z-0.998 R1.058
X7.553 Y-45.307 Z-1. R1.058
X7.987 Y-44.868 R0.457
X7.999 Y-44.25 R16.149
X7.001 R0.499
X7.999 R0.499
G2 X8.357 Y-43.573 R0.819
G3 X8.327 Y-42.808 R0.452
X6.673 Y-45.692 R1.663
X8.327 Y-42.808 R1.663
X8.118 Y-42.814 R0.2
G1 X6.574 Y-43.821
G3 X6.492 Y-43.927 R0.2
X7.5 Y-45.308 Z-1.069 R1.058
X7.553 Y-45.307 Z-1.071 R1.058
X7.447 Y-43.193 Z-1.187 R1.058
X7.5 Y-45.308 Z-1.302 R1.058
X7.553 Y-45.307 Z-1.303 R1.058
X7.447 Y-43.193 Z-1.42 R1.058
X7.5 Y-45.308 Z-1.534 R1.058
X7.553 Y-45.307 Z-1.536 R1.058
X7.447 Y-43.193 Z-1.652 R1.058
X7.5 Y-45.308 Z-1.766 R1.058
X7.553 Y-45.307 Z-1.768 R1.058
X7.447 Y-43.193 Z-1.884 R1.058
X7.5 Y-45.308 Z-1.998 R1.058
X7.553 Y-45.307 Z-2. R1.058
X7.987 Y-44.868 R0.457
X7.999 Y-44.25 R16.149
X7.001 R0.499
X7.999 R0.499
G2 X8.357 Y-43.573 R0.819
G3 X8.327 Y-42.808 R0.452
X6.673 Y-45.692 R1.663
X8.327 Y-42.808 R1.663
G1 X8.027 Y-43.331 Z-1.94
G0 Z5.
X29.565 Y-22.715
G1 Z2.5 F1588.
G3 X30. Y-22.808 Z2.484 R1.058
X30.053 Y-22.807 Z2.483 R1.058
X29.947 Y-20.693 Z2.366 R1.058
X30. Y-22.808 Z2.252 R1.058
X30.053 Y-22.807 Z2.25 R1.058
X29.947 Y-20.693 Z2.134 R1.058
X30. Y-22.808 Z2.02 R1.058
X30.053 Y-22.807 Z2.018 R1.058
X29.947 Y-20.693 Z1.902 R1.058
X30. Y-22.808 Z1.788 R1.058
X30.053 Y-22.807 Z1.786 R1.058
X29.947 Y-20.693 Z1.67 R1.058
X30. Y-22.808 Z1.556 R1.058
X30.053 Y-22.807 Z1.554 R1.058
X29.947 Y-20.693 Z1.438 R1.058
X30. Y-22.808 Z1.324 R1.058
X30.053 Y-22.807 Z1.322 R1.058
X29.947 Y-20.693 Z1.206 R1.058
X30. Y-22.808 Z1.091 R1.058
X30.053 Y-22.807 Z1.09 R1.058
X29.947 Y-20.693 Z0.973 R1.058
X30. Y-22.808 Z0.859 R1.058
X30.053 Y-22.807 Z0.857 R1.058
X29.947 Y-20.693 Z0.741 R1.058
X30. Y-22.808 Z0.627 R1.058
X30.053 Y-22.807 Z0.625 R1.058
X29.947 Y-20.693 Z0.509 R1.058
X30. Y-22.808 Z0.395 R1.058
X30.053 Y-22.807 Z0.393 R1.058
X29.947 Y-20.693 Z0.277 R1.058
X30. Y-22.808 Z0.163 R1.058
X30.053 Y-22.807 Z0.161 R1.058
X29.947 Y-20.693 Z0.045 R1.058
X30. Y-22.808 Z-0.069 R1.058
X30.053 Y-22.807 Z-0.071 R1.058
X29.947 Y-20.693 Z-0.187 R1.058
X30. Y-22.808 Z-0.302 R1.058
X30.053 Y-22.807 Z-0.303 R1.058
X29.947 Y-20.693 Z-0.42 R1.058
X30. Y-22.808 Z-0.534 R1.058
X30.053 Y-22.807 Z-0.536 R1.058
X29.947 Y-20.693 Z-0.652 R1.058
X30. Y-22.808 Z-0.766 R1.058
X30.053 Y-22.807 Z-0.768 R1.058
X29.947 Y-20.693 Z-0.884 R1.058
X30. Y-22.808 Z-0.998 R1.058
X30.053 Y-22.807 Z-1. R1.058
X30.487 Y-22.368 R0.457
X30.499 Y-21.75 R16.149
X29.501 R0.499
X30.499 R0.499
G2 X30.857 Y-21.073 R0.819
G3 X30.827 Y-20.308 R0.452
X29.173 Y-23.192 R1.663
X30.827 Y-20.308 R1.663
X30.618 Y-20.314 R0.2
G1 X29.074 Y-21.321
G3 X28.992 Y-21.427 R0.2
X30. Y-22.808 Z-1.069 R1.058
X30.053 Y-22.807 Z-1.071 R1.058
X29.947 Y-20.693 Z-1.187 R1.058
X30. Y-22.808 Z-1.302 R1.058
X30.053 Y-22.807 Z-1.303 R1.058
X29.947 Y-20.693 Z-1.42 R1.058
X30. Y-22.808 Z-1.534 R1.058
X30.053 Y-22.807 Z-1.536 R1.058
X29.947 Y-20.693 Z-1.652 R1.058
X30. Y-22.808 Z-1.766 R1.058
X30.053 Y-22.807 Z-1.768 R1.058
X29.947 Y-20.693 Z-1.884 R1.058
X30. Y-22.808 Z-1.998 R1.058
X30.053 Y-22.807 Z-2. R1.058
X30.487 Y-22.368 R0.457
X30.499 Y-21.75 R16.149
X29.501 R0.499
X30.499 R0.499
G2 X30.857 Y-21.073 R0.819
G3 X30.827 Y-20.308 R0.452
X29.173 Y-23.192 R1.663
X30.827 Y-20.308 R1.663
G1 X30.527 Y-20.831 Z-1.94
G0 Z15.

(2D CONTOUR2)
M8
G0 X7.944 Y36.952
Z15.
Z5.
G1 Z2.5 F762.
G3 X7.5 Y36.963 Z2.484 R9.563 F1588.
G1 X-12.35 Z1.791
G3 Y17.837 Z0.742 R9.563
G1 X7.5 Z0.049
G3 Y36.963 Z-1. R9.563
G1 X-12.35
G3 Y17.837 R9.563
G1 X7.5
G3 Y36.963 R9.563
G1 X-12.35 Z-1.693
G3 X-19.951 Y33.202 Z-2. R9.563
X-12.35 Y17.837 R9.563
G1 X7.5
G3 Y36.963 R9.563
G1 X-12.35
G3 X-19.951 Y33.202 R9.563
G0 Z5.
X7.085 Y-12.847
G1 Z2.5 F762.
G3 X7.915 Y-30.653 Z1.522 R8.912 F1588.
X7.085 Y-12.847 Z0.544 R8.912
X7.915 Y-30.653 Z-0.433 R8.912
X16.023 Y-19.144 Z-1. R8.912
X-1.023 Y-24.356 R8.912
X16.023 Y-19.144 R8.912
X4.591 Y-13.325 Z-1.5 R8.912
X-0.815 Y-24.958 Z-2. R8.912
X15.815 Y-18.542 R8.912
X-0.815 Y-24.958 R8.912
G0 Z15.

(2D CONTOUR1)
M8
G0 X35.588 Y19.849
Z15.
Z5.
G1 Z2.5 F762.
Y0. Z-1. F1588.
Y-21.75
G2 X-19.893 Y-27.956 R28.088
G1 X-31.665 Y4.798
G2 X-35.588 Y9.75 R5.088
G1 Y44.75
G2 X-30.5 Y49.838 R5.088
G1 X30.5
G2 X35.588 Y44.75 R5.088
G1 Y0.
Y-21.75 Z-1.914
G2 X35.514 Y-23.785 Z-2. R28.088
X-19.893 Y-27.956 R28.088
G1 X-31.665 Y4.798
G2 X-35.588 Y9.75 R5.088
G1 Y44.75
G2 X-30.5 Y49.838 R5.088
G1 X30.5
G2 X35.588 Y44.75 R5.088
G1 Y0.
Y-21.75
G2 X35.514 Y-23.785 R28.088
G0 Z15.

M9
M30
