(_)
(T1  D=3.175 CR=0. - ZMIN=-2. - FLAT END MILL)
G90 G94 G91.1 G40 G49 G17
G21

(2D POCKET1)
M5
M9
T1
S10000 M3
G54
M8
G0 X10.115 Y-4.25
G43 Z15. H1
Z5.
G1 Z2.5 F1588.
X10.445 Z2.488
X7.51 Z2.386
X10.445 Z2.283
X7.51 Z2.181
X10.445 Z2.078
X7.51 Z1.976
X10.445 Z1.873
X7.51 Z1.771
X10.445 Z1.668
X7.51 Z1.566
X10.445 Z1.463
X7.51 Z1.361
X10.445 Z1.258
X7.51 Z1.156
X10.445 Z1.053
X7.51 Z0.951
X10.445 Z0.848
X7.51 Z0.746
X10.445 Z0.643
X7.51 Z0.541
X10.445 Z0.438
X7.51 Z0.336
X10.445 Z0.233
X7.51 Z0.131
X10.445 Z0.028
X7.51 Z-0.074
X10.445 Z-0.177
X7.51 Z-0.279
X10.445 Z-0.382
X7.51 Z-0.484
X10.445 Z-0.587
X7.51 Z-0.689
X10.445 Z-0.792
X7.51 Z-0.894
X10.445 Z-0.997
X10.354 Z-1.
G3 X10.663 R0.154
X7.337 R1.663
X10.663 R1.663
X10.413 Y-4.056 R0.2
G1 X9.685 Y-4.244
G2 X9.635 Y-4.25 R0.2
G1 X7.51 Z-1.074
X10.445 Z-1.177
X7.51 Z-1.279
X10.445 Z-1.382
X7.51 Z-1.484
X10.445 Z-1.587
X7.51 Z-1.689
X10.445 Z-1.792
X7.51 Z-1.894
X10.445 Z-1.997
X10.354 Z-2.
G3 X10.663 R0.154
X7.337 R1.663
X10.663 R1.663
G1 X10.059 Z-1.94
G0 Z5.
X11.33 Y16.9
G1 Z2.5 F1588.
X4.65 Z2.267
X20.241 Z1.722
X4.65 Z1.178
X20.241 Z0.633
X4.65 Z0.089
X20.241 Z-0.456
X4.65 Z-1.
X4.488
G3 X4.65 Y16.737 R0.163
G1 X24.5
G3 Y17.063 R0.163
G1 X4.65
G3 X4.488 Y16.9 R0.162
X4.553 Y16.847 R0.054
G1 X4.813 Y16.9
X7.196
X20.241 Z-1.456
X4.65 Z-2.
G2 Y16.981 R0.041
G3 Y17.063 R0.041
Y16.737 R0.163
G1 X24.5
G3 Y17.063 R0.163
G1 X4.65
Y16.9 Z-1.984
G0 Z5.
X-13.18
G1 Z2.5 F1588.
X-6.5 Z2.267
X-22.091 Z1.722
X-6.5 Z1.178
X-22.091 Z0.633
X-6.5 Z0.089
X-22.091 Z-0.456
X-6.5 Z-1.
G3 Y17.063 R0.081
G1 X-26.35
G3 Y16.737 R0.163
G1 X-6.5
G3 Y17.063 R0.163
G1 X-9.046 Y16.9
X-22.091 Z-1.456
X-6.5 Z-2.
G3 Y17.063 R0.081
G1 X-26.35
G3 Y16.737 R0.163
G1 X-6.5
G3 Y17.063 R0.163
G1 Y16.9 Z-1.984
G0 Z5.
X-13.18 Y47.9
G1 Z2.5 F1588.
X-6.5 Z2.267
X-22.091 Z1.722
X-6.5 Z1.178
X-22.091 Z0.633
X-6.5 Z0.089
X-22.091 Z-0.456
X-6.5 Z-1.
G3 Y47.737 R0.081
X-6.419 Y47.819 R0.081
G1 Y47.981
G3 X-6.5 Y48.063 R0.081
G1 X-26.35
G3 Y47.737 R0.163
G1 X-6.5
G3 Y48.063 R0.162
G1 X-9.046 Y47.9
X-22.091 Z-1.456
X-6.5 Z-2.
G3 Y48.063 R0.081
G1 X-26.35
G3 Y47.737 R0.163
G1 X-6.5
G3 Y48.063 R0.162
G1 Y47.9 Z-1.984
G0 Z5.
X11.33
G1 Z2.5 F1588.
X4.65 Z2.267
X20.241 Z1.722
X4.65 Z1.178
X20.241 Z0.633
X4.65 Z0.089
X20.241 Z-0.456
X4.65 Z-1.
G3 Y47.737 R0.081
G1 X24.5
G3 Y48.063 R0.162
G1 X4.65
G3 Y47.737 R0.163
G1 X7.196 Y47.9
X20.241 Z-1.456
X4.65 Z-2.
G3 Y47.737 R0.081
G1 X24.5
G3 Y48.063 R0.162
G1 X4.65
G3 Y47.737 R0.163
G1 Y47.9 Z-1.984
G0 Z5.
X-12.385 Y-26.75
G1 Z2.5 F1588.
X-12.055 Z2.488
X-14.99 Z2.386
X-12.055 Z2.283
X-14.99 Z2.181
X-12.055 Z2.078
X-14.99 Z1.976
X-12.055 Z1.873
X-14.99 Z1.771
X-12.055 Z1.668
X-14.99 Z1.566
X-12.055 Z1.463
X-14.99 Z1.361
X-12.055 Z1.258
X-14.99 Z1.156
X-12.055 Z1.053
X-14.99 Z0.951
X-12.055 Z0.848
X-14.99 Z0.746
X-12.055 Z0.643
X-14.99 Z0.541
X-12.055 Z0.438
X-14.99 Z0.336
X-12.055 Z0.233
X-14.99 Z0.131
X-12.055 Z0.028
X-14.99 Z-0.074
X-12.055 Z-0.177
X-14.99 Z-0.279
X-12.055 Z-0.382
X-14.99 Z-0.484
X-12.055 Z-0.587
X-14.99 Z-0.689
X-12.055 Z-0.792
X-14.99 Z-0.894
X-12.055 Z-0.997
X-12.146 Z-1.
G3 X-11.837 R0.154
X-15.163 R1.663
X-11.837 R1.663
X-12.087 Y-26.556 R0.2
G1 X-12.815 Y-26.744
G2 X-12.865 Y-26.75 R0.2
G1 X-14.99 Z-1.074
X-12.055 Z-1.177
X-14.99 Z-1.279
X-12.055 Z-1.382
X-14.99 Z-1.484
X-12.055 Z-1.587
X-14.99 Z-1.689
X-12.055 Z-1.792
X-14.99 Z-1.894
X-12.055 Z-1.997
X-12.146 Z-2.
G3 X-11.837 R0.154
X-15.163 R1.663
X-11.837 R1.663
G1 X-12.441 Z-1.94
G0 Z5.
X10.115 Y-49.25
G1 Z2.5 F1588.
X10.445 Z2.488
X7.51 Z2.386
X10.445 Z2.283
X7.51 Z2.181
X10.445 Z2.078
X7.51 Z1.976
X10.445 Z1.873
X7.51 Z1.771
X10.445 Z1.668
X7.51 Z1.566
X10.445 Z1.463
X7.51 Z1.361
X10.445 Z1.258
X7.51 Z1.156
X10.445 Z1.053
X7.51 Z0.951
X10.445 Z0.848
X7.51 Z0.746
X10.445 Z0.643
X7.51 Z0.541
X10.445 Z0.438
X7.51 Z0.336
X10.445 Z0.233
X7.51 Z0.131
X10.445 Z0.028
X7.51 Z-0.074
X10.445 Z-0.177
X7.51 Z-0.279
X10.445 Z-0.382
X7.51 Z-0.484
X10.445 Z-0.587
X7.51 Z-0.689
X10.445 Z-0.792
X7.51 Z-0.894
X10.445 Z-0.997
X10.354 Z-1.
G3 X10.663 R0.154
X7.337 R1.663
X10.663 R1.663
X10.413 Y-49.056 R0.2
G1 X9.685 Y-49.244
G2 X9.635 Y-49.25 R0.2
G1 X7.51 Z-1.074
X10.445 Z-1.177
X7.51 Z-1.279
X10.445 Z-1.382
X7.51 Z-1.484
X10.445 Z-1.587
X7.51 Z-1.689
X10.445 Z-1.792
X7.51 Z-1.894
X10.445 Z-1.997
X10.354 Z-2.
G3 X10.663 R0.154
X7.337 R1.663
X10.663 R1.663
G1 X10.059 Z-1.94
G0 Z5.
X32.615 Y-26.75
G1 Z2.5 F1588.
X32.945 Z2.488
X30.01 Z2.386
X32.945 Z2.283
X30.01 Z2.181
X32.945 Z2.078
X30.01 Z1.976
X32.945 Z1.873
X30.01 Z1.771
X32.945 Z1.668
X30.01 Z1.566
X32.945 Z1.463
X30.01 Z1.361
X32.945 Z1.258
X30.01 Z1.156
X32.945 Z1.053
X30.01 Z0.951
X32.945 Z0.848
X30.01 Z0.746
X32.945 Z0.643
X30.01 Z0.541
X32.945 Z0.438
X30.01 Z0.336
X32.945 Z0.233
X30.01 Z0.131
X32.945 Z0.028
X30.01 Z-0.074
X32.945 Z-0.177
X30.01 Z-0.279
X32.945 Z-0.382
X30.01 Z-0.484
X32.945 Z-0.587
X30.01 Z-0.689
X32.945 Z-0.792
X30.01 Z-0.894
X32.945 Z-0.997
X32.854 Z-1.
G3 X33.163 R0.154
X29.837 R1.663
X33.163 R1.663
X32.913 Y-26.556 R0.2
G1 X32.185 Y-26.744
G2 X32.135 Y-26.75 R0.2
G1 X30.01 Z-1.074
X32.945 Z-1.177
X30.01 Z-1.279
X32.945 Z-1.382
X30.01 Z-1.484
X32.945 Z-1.587
X30.01 Z-1.689
X32.945 Z-1.792
X30.01 Z-1.894
X32.945 Z-1.997
X32.854 Z-2.
G3 X33.163 R0.154
X29.837 R1.663
X33.163 R1.663
G1 X32.559 Z-1.94
G0 Z15.

(2D CONTOUR2)
M8
G0 X9.184 Y22.739
Z15.
Z5.
G1 Z2.5 F762.
G3 X9. Y42.063 Z1.446 R9.662 F1588.
G1 X-10.85 Z0.753
G3 Y22.737 Z-0.307 R9.663
G1 X9. Z-1.
G3 Y42.063 R9.662
G1 X-10.85
G3 Y22.737 R9.663
G1 X9.
G3 X10.71 Y41.91 Z-2. R9.662
X9. Y42.063 R9.662
G1 X-10.85
G3 Y22.737 R9.663
G1 X9.
G3 X10.71 Y41.91 R9.662
G0 Z5.
X8.585 Y-17.847
G1 Z2.5 F762.
G3 X9.415 Y-35.653 Z1.522 R8.912 F1588.
X8.585 Y-17.847 Z0.544 R8.912
X9.415 Y-35.653 Z-0.433 R8.912
X17.523 Y-24.144 Z-1. R8.912
X0.477 Y-29.356 R8.912
X17.523 Y-24.144 R8.912
X6.091 Y-18.325 Z-1.5 R8.912
X0.685 Y-29.958 Z-2. R8.912
X17.315 Y-23.542 R8.912
X0.685 Y-29.958 R8.912
G0 Z15.

(2D CONTOUR1)
M8
G0 X37.088 Y19.849
Z15.
Z5.
G1 Z2.5 F762.
Y0. Z-1. F1588.
Y-26.75
G2 X-19.087 R28.087
G1 Y7.75
G3 X-21. Y9.663 R1.913
G1 X-32.
G2 X-37.088 Y14.75 R5.088
G1 Y49.75
G2 X-32. Y54.838 R5.088
G1 X32.
G2 X37.088 Y49.75 R5.088
G1 Y0.
Y-26.474 Z-2.
Y-26.75
G2 X-19.087 R28.087
G1 Y7.75
G3 X-21. Y9.663 R1.913
G1 X-32.
G2 X-37.088 Y14.75 R5.088
G1 Y49.75
G2 X-32. Y54.838 R5.088
G1 X32.
G2 X37.088 Y49.75 R5.088
G1 Y0.
Y-26.474
G0 Z15.

M9
M30
