(__)
(T1  D=3. CR=0. - ZMIN=-2. - FLAT END MILL)
G90 G94 G91.1 G40 G49 G17
G21

(DRILL1)
M5
M9
T1
S10000 M3
G54
M8
G0 X62.3 Y97.55
G43 Z15. H1
Z6.5
G98 G73 X62.3 Y97.55 Z-2. R6.5 Q0.75 F80.
Y56.55
X74. Y25.55
Y-21.45
X62. Y-33.45
Y-51.45
X4.
Y-33.45
X-13. Y-21.45
X-23. Y-32.45
X-60.
X-72.75 Y44.865
X-60. Y31.55
X-13. Y25.55
X-23. Y31.55
X-21.25 Y44.865
X6.7 Y56.55
Y97.55
X-21.25 Y113.235
X-72.75
G80
Z15.

M9
M30
