(_)
(T1  D=3.175 CR=0. - ZMIN=-6. - FLAT END MILL)
G90 G94 G91.1 G40 G49 G17
G21

(2D CONTOUR2)
M5
M9
T1
S10000 M3
G54
M8
G0 X-15.275 Y46.13
G43 Z15. H1
Z5.
G1 Z3. F762.
Z2.5
G2 X-14.725 Y47.87 Z1.995 R0.912
X-15.275 Y46.13 Z1.489 R0.912
X-14.725 Y47.87 Z0.984 R0.912
X-15.275 Y46.13 Z0.478 R0.912
X-14.725 Y47.87 Z-0.027 R0.912
X-15.275 Y46.13 Z-0.533 R0.912
X-14.725 Y47.87 Z-1.038 R0.912
X-15.275 Y46.13 Z-1.544 R0.912
X-15. Y47.912 Z-2. R0.912
Y46.088 R0.912 F200.
Y47.912 R0.912
Y46.088 Z-2.505 R0.912 F762.
Y47.912 Z-3.011 R0.912
Y46.088 Z-3.516 R0.912
X-15.124 Y47.904 Z-4. R0.912
X-14.876 Y46.096 R0.912 F200.
X-15.124 Y47.904 R0.912
X-14.876 Y46.096 Z-4.505 R0.912 F762.
X-15.124 Y47.904 Z-5.011 R0.912
X-14.876 Y46.096 Z-5.516 R0.912
X-15.245 Y47.879 Z-6. R0.912
X-14.755 Y46.121 R0.912 F200.
X-15.245 Y47.879 R0.912
X-14.755 Y46.121 R0.912
X-15.245 Y47.879 R0.912
G0 Z5.
X2.206 Y71.023
G1 Z3. F762.
Z2.5
G2 X-2.206 Y72.977 Z1.164 R2.412
X2.206 Y71.023 Z-0.173 R2.412
X-2.206 Y72.977 Z-1.509 R2.412
X0. Y74.412 Z-2. R2.412
Y69.588 R2.412 F200.
Y74.412 R2.412
Y69.588 Z-3.336 R2.412 F762.
X-2.412 Y71.974 Z-4. R2.412
X2.412 Y72.026 R2.412 F200.
X-2.412 Y71.974 R2.412
X2.412 Y72.026 Z-5.336 R2.412 F762.
X0.052 Y69.588 Z-6. R2.412
X-0.052 Y74.412 R2.412 F200.
X0.052 Y69.588 R2.412
X-0.052 Y74.412 R2.412
X0.052 Y69.588 R2.412
G0 Z5.
X14.725 Y46.13
G1 Z3. F762.
Z2.5
G2 X15.275 Y47.87 Z1.995 R0.912
X14.725 Y46.13 Z1.489 R0.912
X15.275 Y47.87 Z0.984 R0.912
X14.725 Y46.13 Z0.478 R0.912
X15.275 Y47.87 Z-0.027 R0.912
X14.725 Y46.13 Z-0.533 R0.912
X15.275 Y47.87 Z-1.038 R0.912
X14.725 Y46.13 Z-1.544 R0.912
X15. Y47.912 Z-2. R0.912
Y46.088 R0.912 F200.
Y47.912 R0.912
Y46.088 Z-2.505 R0.912 F762.
Y47.912 Z-3.011 R0.912
Y46.088 Z-3.516 R0.912
X14.876 Y47.904 Z-4. R0.912
X15.124 Y46.096 R0.912 F200.
X14.876 Y47.904 R0.912
X15.124 Y46.096 Z-4.505 R0.912 F762.
X14.876 Y47.904 Z-5.011 R0.912
X15.124 Y46.096 Z-5.516 R0.912
X14.755 Y47.879 Z-6. R0.912
X15.245 Y46.121 R0.912 F200.
X14.755 Y47.879 R0.912
X15.245 Y46.121 R0.912
X14.755 Y47.879 R0.912
G0 Z5.
X-1.354 Y10.828
G1 Z3. F762.
Z2.5
G2 X8.73 Y-6.548 Z-2. R10.912
X-8.73 Y6.548 R10.912 F200.
X8.73 Y-6.548 R10.912
X-1.221 Y-10.844 Z-4. R10.913 F762.
X1.221 Y10.844 R10.913 F200.
X-1.221 Y-10.844 R10.913
X-9.967 Y-4.442 Z-6. R10.912 F762.
X9.967 Y4.442 R10.912 F200.
X-9.967 Y-4.442 R10.912
X9.967 Y4.442 R10.912
X-9.967 Y-4.442 R10.912
G0 Z15.

M9
M30
