(____2)
(T1  D=4. CR=0. - ZMIN=-6.9 - FLAT END MILL)
G90 G94 G91.1 G40 G49 G17
G21

(2D CONTOUR4)
M5
M9
T1
S7280 M3
G54
M8
G0 X-14.713 Y-3.587
G43 Z15. H1
Z5.
G1 Z2.5 F200.
G3 X14.713 Y-16.413 Z-1.911 R16.05 F466.
X-14.713 Y-3.587 Z-6.323 R16.05
X-16.05 Y-10. Z-6.9 R16.05
X16.05 R16.05
X-16.05 R16.05
X16.25 R16.15
X-16.25 R16.25
X16.65 R16.45
X-16.65 R16.65
X16.65 R16.65
G1 X16.45 Z-6.88
G0 Z15.

M9
M30
