(____2)
(T1  D=4. CR=0. - ZMIN=-7. - FLAT END MILL)
G90 G94 G91.1 G40 G49 G17
G21

(2D CONTOUR4)
M5
M9
T1
S7280 M3
G54
M8
G0 X-12.507 Y-21.142
G43 Z15. H1
Z5.
G1 Z2.5 F200.
G3 X12.507 Y1.142 Z-2.104 R16.75 F466.
X-12.332 Y1.335 Z-4.552 R16.75
X-10.05 Y-23.4 Z-7. R16.75
X10.05 Y3.4 R16.75
X-10.05 Y-23.4 R16.75
X10.05 Y3.4 R16.75
X-10.05 Y-23.4 R16.75
G0 Z15.

M9
M30
