(___)
(T1  D=4. CR=0. - ZMIN=-20. - FLAT END MILL)
G90 G94 G91.1 G40 G49 G17
G21

(2D CONTOUR1)
M5
M9
T1
S7280 M3
G54
M8
G0 X10.201 Y-14.115
G43 Z15. H1
Z5.
G1 Z2. F200.
Z1.5
G3 X-6.6 Y-1.2 Z-1. R11. F466.
X6.6 Y-18.8 R11.
X-6.6 Y-1.2 R11.
X-10.931 Y-11.227 Z-2. R11.
X10.931 Y-8.773 R11.
X-10.931 Y-11.227 R11.
X-4.484 Y-20.044 Z-3. R11.
X4.484 Y0.044 R11.
X-4.484 Y-20.044 R11.
X6.384 Y-18.958 Z-4. R11.
X-6.384 Y-1.042 R11.
X6.384 Y-18.958 R11.
X10.958 Y-9.039 Z-5. R11.
X-10.958 Y-10.961 R11.
X10.958 Y-9.039 R11.
X4.727 Y-0.068 Z-6. R11.
X-4.727 Y-19.932 R11.
X4.727 Y-0.068 R11.
X-6.165 Y-0.89 Z-7. R11.
X6.165 Y-19.11 R11.
X-6.165 Y-0.89 R11.
X-10.978 Y-10.695 Z-8. R11.
X10.978 Y-9.305 R11.
X-10.978 Y-10.695 R11.
X-4.967 Y-19.815 Z-9. R11.
X4.967 Y-0.185 R11.
X-4.967 Y-19.815 R11.
X5.941 Y-19.257 Z-10. R11.
X-5.941 Y-0.743 R11.
X5.941 Y-19.257 R11.
X11. Y-10. Z-10.963 R11.
X10.992 Y-9.572 Z-11. R11.
X-10.992 Y-10.428 R11.
X10.992 Y-9.572 R11.
X5.204 Y-0.309 Z-12. R11.
X-5.204 Y-19.691 R11.
X5.204 Y-0.309 R11.
X-5.715 Y-0.601 Z-13. R11.
X5.715 Y-19.399 R11.
X-5.715 Y-0.601 R11.
X-10.999 Y-10.16 Z-14. R11.
X10.999 Y-9.84 R11.
X-10.999 Y-10.16 R11.
X-5.438 Y-19.562 Z-15. R11.
X5.438 Y-0.438 R11.
X-5.438 Y-19.562 R11.
X5.485 Y-19.535 Z-16. R11.
X-5.485 Y-0.465 R11.
X5.485 Y-19.535 R11.
X10.999 Y-10.107 Z-17. R11.
X-10.999 Y-9.893 R11.
X10.999 Y-10.107 R11.
X11. Y-10. Z-17.009 R11.
X5.669 Y-0.573 Z-18. R11.
X-5.669 Y-19.427 R11.
X5.669 Y-0.573 R11.
X-5.251 Y-0.334 Z-19. R11.
X5.251 Y-19.666 R11.
X-5.251 Y-0.334 R11.
X-10.994 Y-9.626 Z-20. R11.
X10.994 Y-10.374 R11.
X-10.994 Y-9.626 R11.
G0 Z15.

(2D CONTOUR3)
M8
G0 X13.462 Y-5.177
Z15.
Z5.
G1 Z2.5 F200.
G3 X-14.3 Y-10. Z-1. R14.3 F466.
X14.3 R14.3
X-14.3 R14.3
X16.3 R15.3
X-16.3 R16.3
X16.3 R16.3
G1 X15.9 Z-0.96
Z1.5
X13.462 Y-5.177
G3 X-14.3 Y-10. Z-2. R14.3
X14.3 R14.3
X-14.3 R14.3
X16.3 R15.3
X-16.3 R16.3
X16.3 R16.3
G1 X15.9 Z-1.96
Z0.5
X13.462 Y-5.177
G3 X-14.3 Y-10. Z-3. R14.3
X14.3 R14.3
X-14.3 R14.3
X16.3 R15.3
X-16.3 R16.3
X16.3 R16.3
G1 X15.9 Z-2.96
Z-0.5
X13.462 Y-5.177
G3 X-14.3 Y-10. Z-4. R14.3
X14.3 R14.3
X-14.3 R14.3
X16.3 R15.3
X-16.3 R16.3
X16.3 R16.3
G1 X15.9 Z-3.96
Z-1.5
X13.462 Y-5.177
G3 X-14.3 Y-10. Z-5. R14.3
X14.3 R14.3
X-14.3 R14.3
X16.3 R15.3
X-16.3 R16.3
X16.3 R16.3
G1 X15.9 Z-4.96
Z-2.5
X13.462 Y-5.177
G3 X-14.3 Y-10. Z-6. R14.3
X14.3 R14.3
X-14.3 R14.3
X16.3 R15.3
X-16.3 R16.3
X16.3 R16.3
G1 X15.9 Z-5.96
Z-3.5
X13.462 Y-5.177
G3 X-14.3 Y-10. Z-7. R14.3
X14.3 R14.3 F200.
X-14.3 R14.3
X16.3 R15.3
X-16.3 R16.3
X16.5 R16.4
X-16.5 R16.5
X16.5 R16.5
X-16.5 R16.5
X16.5 R16.5
G1 X16.1 Z-6.96 F466.
G0 Z15.

M9
M30
