(_)
(T1  D=4. CR=0. - ZMIN=-5. - FLAT END MILL)
G90 G94 G91.1 G40 G49 G17
G21

(2D CONTOUR1)
M5
M9
T1
S10000 M3
G54
M8
G0 X7.3 Y-60.4
G43 Z15. H1
Z5.
G1 Z1. F200.
Z0.5
G3 X-2.3 Y-67.6 Z0.25 R6. F400.
X7.3 Y-60.4 Z0. R6.
X-2.3 Y-67.6 Z-0.25 R6.
X7.3 Y-60.4 Z-0.5 R6.
X-2.3 Y-67.6 Z-0.75 R6.
X7.3 Y-60.4 Z-1. R6.
X-2.3 Y-67.6 Z-1.25 R6.
X7.3 Y-60.4 Z-1.5 R6.
X-2.3 Y-67.6 Z-1.75 R6.
X7.3 Y-60.4 Z-2. R6.
X-2.3 Y-67.6 Z-2.25 R6.
X7.3 Y-60.4 Z-2.5 R6.
X-2.3 Y-67.6 Z-2.75 R6.
X7.3 Y-60.4 Z-3. R6.
X-2.3 Y-67.6 Z-3.25 R6.
X7.3 Y-60.4 Z-3.5 R6.
X-2.3 Y-67.6 Z-3.75 R6.
X7.3 Y-60.4 Z-4. R6.
X-2.3 Y-67.6 Z-4.25 R6.
X7.3 Y-60.4 Z-4.5 R6.
X-2.3 Y-67.6 Z-4.75 R6.
X7.3 Y-60.4 Z-5. R6.
X-2.3 Y-67.6 R6.
X7.3 Y-60.4 R6.
G0 Z5.
Y-90.4
G1 Z1. F200.
Z0.5
G3 X-2.3 Y-97.6 Z0.25 R6. F400.
X7.3 Y-90.4 Z0. R6.
X-2.3 Y-97.6 Z-0.25 R6.
X7.3 Y-90.4 Z-0.5 R6.
X-2.3 Y-97.6 Z-0.75 R6.
X7.3 Y-90.4 Z-1. R6.
X-2.3 Y-97.6 Z-1.25 R6.
X7.3 Y-90.4 Z-1.5 R6.
X-2.3 Y-97.6 Z-1.75 R6.
X7.3 Y-90.4 Z-2. R6.
X-2.3 Y-97.6 Z-2.25 R6.
X7.3 Y-90.4 Z-2.5 R6.
X-2.3 Y-97.6 Z-2.75 R6.
X7.3 Y-90.4 Z-3. R6.
X-2.3 Y-97.6 Z-3.25 R6.
X7.3 Y-90.4 Z-3.5 R6.
X-2.3 Y-97.6 Z-3.75 R6.
X7.3 Y-90.4 Z-4. R6.
X-2.3 Y-97.6 Z-4.25 R6.
X7.3 Y-90.4 Z-4.5 R6.
X-2.3 Y-97.6 Z-4.75 R6.
X7.3 Y-90.4 Z-5. R6.
X-2.3 Y-97.6 R6.
X7.3 Y-90.4 R6.
G0 Z5.
X-4.5 Y8.
G1 Z1. F200.
Z0.5
Y-14. Z0.351 F400.
X5.5 Z0.284
Y13. Z0.101
X-4.5 Z0.034
Y-14. Z-0.149
X5.5 Z-0.216
Y13. Z-0.399
X-4.5 Z-0.466
Y-14. Z-0.649
X5.5 Z-0.716
Y13. Z-0.899
X-4.5 Z-0.966
Y-14. Z-1.149
X5.5 Z-1.216
Y13. Z-1.399
X-4.5 Z-1.466
Y-14. Z-1.649
X5.5 Z-1.716
Y13. Z-1.899
X-4.5 Z-1.966
Y-14. Z-2.149
X5.5 Z-2.216
Y13. Z-2.399
X-4.5 Z-2.466
Y-14. Z-2.649
X5.5 Z-2.716
Y13. Z-2.899
X-4.5 Z-2.966
Y-14. Z-3.149
X5.5 Z-3.216
Y13. Z-3.399
X-4.5 Z-3.466
Y-14. Z-3.649
X5.5 Z-3.716
Y13. Z-3.899
X-4.5 Z-3.966
Y-14. Z-4.149
X5.5 Z-4.216
Y13. Z-4.399
X-4.5 Z-4.466
Y-14. Z-4.649
X5.5 Z-4.716
Y13. Z-4.899
X-4.5 Z-4.966
Y8. Z-5.
Y-14.
X5.5
Y13.
X-4.5
Y8.
G0 Z15.

(2D CONTOUR2)
M8
G0 X14.5 Y0.
Z15.
Z5.
G1 Z1. F200.
Z0.5
Y-124. Z0.389 F400.
G2 X12.5 Y-126. Z0.386 R2.
G1 X-12.5 Z0.364
G2 X-14.5 Y-124. Z0.361 R2.
G1 Y124. Z0.139
G2 X-12.5 Y126. Z0.136 R2.
G1 X12.5 Z0.114
G2 X14.5 Y124. Z0.111 R2.
G1 Y-124. Z-0.111
G2 X12.5 Y-126. Z-0.114 R2.
G1 X-12.5 Z-0.136
G2 X-14.5 Y-124. Z-0.139 R2.
G1 Y124. Z-0.361
G2 X-12.5 Y126. Z-0.364 R2.
G1 X12.5 Z-0.386
G2 X14.5 Y124. Z-0.389 R2.
G1 Y-124. Z-0.611
G2 X12.5 Y-126. Z-0.614 R2.
G1 X-12.5 Z-0.636
G2 X-14.5 Y-124. Z-0.639 R2.
G1 Y124. Z-0.861
G2 X-12.5 Y126. Z-0.864 R2.
G1 X12.5 Z-0.886
G2 X14.5 Y124. Z-0.889 R2.
G1 Y-124. Z-1.111
G2 X12.5 Y-126. Z-1.114 R2.
G1 X-12.5 Z-1.136
G2 X-14.5 Y-124. Z-1.139 R2.
G1 Y124. Z-1.361
G2 X-12.5 Y126. Z-1.364 R2.
G1 X12.5 Z-1.386
G2 X14.5 Y124. Z-1.389 R2.
G1 Y-124. Z-1.611
G2 X12.5 Y-126. Z-1.614 R2.
G1 X-12.5 Z-1.636
G2 X-14.5 Y-124. Z-1.639 R2.
G1 Y124. Z-1.861
G2 X-12.5 Y126. Z-1.864 R2.
G1 X12.5 Z-1.886
G2 X14.5 Y124. Z-1.889 R2.
G1 Y-124. Z-2.111
G2 X12.5 Y-126. Z-2.114 R2.
G1 X-12.5 Z-2.136
G2 X-14.5 Y-124. Z-2.139 R2.
G1 Y124. Z-2.361
G2 X-12.5 Y126. Z-2.364 R2.
G1 X12.5 Z-2.386
G2 X14.5 Y124. Z-2.389 R2.
G1 Y-124. Z-2.611
G2 X12.5 Y-126. Z-2.614 R2.
G1 X-12.5 Z-2.636
G2 X-14.5 Y-124. Z-2.639 R2.
G1 Y124. Z-2.861
G2 X-12.5 Y126. Z-2.864 R2.
G1 X12.5 Z-2.886
G2 X14.5 Y124. Z-2.889 R2.
G1 Y-124. Z-3.111
G2 X12.5 Y-126. Z-3.114 R2.
G1 X-12.5 Z-3.136
G2 X-14.5 Y-124. Z-3.139 R2.
G1 Y124. Z-3.361
G2 X-12.5 Y126. Z-3.364 R2.
G1 X12.5 Z-3.386
G2 X14.5 Y124. Z-3.389 R2.
G1 Y-124. Z-3.611
G2 X12.5 Y-126. Z-3.614 R2.
G1 X-12.5 Z-3.636
G2 X-14.5 Y-124. Z-3.639 R2.
G1 Y124. Z-3.861
G2 X-12.5 Y126. Z-3.864 R2.
G1 X12.5 Z-3.886
G2 X14.5 Y124. Z-3.889 R2.
G1 Y-124. Z-4.111
G2 X12.5 Y-126. Z-4.114 R2.
G1 X-12.5 Z-4.136
G2 X-14.5 Y-124. Z-4.139 R2.
G1 Y124. Z-4.361
G2 X-12.5 Y126. Z-4.364 R2.
G1 X12.5 Z-4.386
G2 X14.5 Y124. Z-4.389 R2.
G1 Y-124. Z-4.611
G2 X12.5 Y-126. Z-4.614 R2.
G1 X-12.5 Z-4.636
G2 X-14.5 Y-124. Z-4.639 R2.
G1 Y124. Z-4.861
G2 X-12.5 Y126. Z-4.864 R2.
G1 X12.5 Z-4.886
G2 X14.5 Y124. Z-4.889 R2.
G1 Y0. Z-5.
Y-124.
G2 X12.5 Y-126. R2.
G1 X-12.5
G2 X-14.5 Y-124. R2.
G1 Y124.
G2 X-12.5 Y126. R2.
G1 X12.5
G2 X14.5 Y124. R2.
G1 Y0.
G0 Z15.

M9
M30
