(_)
(T1  D=4. CR=0. - ZMIN=-5. - FLAT END MILL)
G90 G94 G91.1 G40 G49 G17
G21

(2D CONTOUR1)
M5
M9
T1
S10000 M3
G54
M8
G0 X70. Y2.5
G43 Z15. H1
Z5.
G1 Z1. F200.
Z0.5
G3 X58. Z0.25 R6. F400.
X70. Z0. R6.
X58. Z-0.25 R6.
X70. Z-0.5 R6.
X58. Z-0.75 R6.
X70. Z-1. R6.
X58. Z-1.25 R6.
X70. Z-1.5 R6.
X58. Z-1.75 R6.
X70. Z-2. R6.
X58. Z-2.25 R6.
X70. Z-2.5 R6.
X58. Z-2.75 R6.
X70. Z-3. R6.
X58. Z-3.25 R6.
X70. Z-3.5 R6.
X58. Z-3.75 R6.
X70. Z-4. R6.
X58. Z-4.25 R6.
X70. Z-4.5 R6.
X58. Z-4.75 R6.
X70. Z-5. R6.
X58. R6.
X70. R6.
G0 Z5.
X100.
G1 Z1. F200.
Z0.5
G3 X88. Z0.25 R6. F400.
X100. Z0. R6.
X88. Z-0.25 R6.
X100. Z-0.5 R6.
X88. Z-0.75 R6.
X100. Z-1. R6.
X88. Z-1.25 R6.
X100. Z-1.5 R6.
X88. Z-1.75 R6.
X100. Z-2. R6.
X88. Z-2.25 R6.
X100. Z-2.5 R6.
X88. Z-2.75 R6.
X100. Z-3. R6.
X88. Z-3.25 R6.
X100. Z-3.5 R6.
X88. Z-3.75 R6.
X100. Z-4. R6.
X88. Z-4.25 R6.
X100. Z-4.5 R6.
X88. Z-4.75 R6.
X100. Z-5. R6.
X88. R6.
X100. R6.
G0 Z5.
X-8. Y5.5
G1 Z1. F200.
Z0.5
X-13. Z0.466 F400.
Y-4.5 Z0.399
X14. Z0.216
Y5.5 Z0.149
X-13. Z-0.034
Y-4.5 Z-0.101
X14. Z-0.284
Y5.5 Z-0.351
X-13. Z-0.534
Y-4.5 Z-0.601
X14. Z-0.784
Y5.5 Z-0.851
X-13. Z-1.034
Y-4.5 Z-1.101
X14. Z-1.284
Y5.5 Z-1.351
X-13. Z-1.534
Y-4.5 Z-1.601
X14. Z-1.784
Y5.5 Z-1.851
X-13. Z-2.034
Y-4.5 Z-2.101
X14. Z-2.284
Y5.5 Z-2.351
X-13. Z-2.534
Y-4.5 Z-2.601
X14. Z-2.784
Y5.5 Z-2.851
X-13. Z-3.034
Y-4.5 Z-3.101
X14. Z-3.284
Y5.5 Z-3.351
X-13. Z-3.534
Y-4.5 Z-3.601
X14. Z-3.784
Y5.5 Z-3.851
X-13. Z-4.034
Y-4.5 Z-4.101
X14. Z-4.284
Y5.5 Z-4.351
X-13. Z-4.534
Y-4.5 Z-4.601
X14. Z-4.784
Y5.5 Z-4.851
X-8. Z-5.
X-13.
Y-4.5
X14.
Y5.5
X-8.
G0 Z15.

(2D CONTOUR2)
M8
G0 X0. Y14.5
Z15.
Z5.
G1 Z1. F200.
Z0.5
X124. Z0.389 F400.
G2 X126. Y12.5 Z0.386 R2.
G1 Y-12.5 Z0.364
G2 X124. Y-14.5 Z0.361 R2.
G1 X-124. Z0.139
G2 X-126. Y-12.5 Z0.136 R2.
G1 Y12.5 Z0.114
G2 X-124. Y14.5 Z0.111 R2.
G1 X124. Z-0.111
G2 X126. Y12.5 Z-0.114 R2.
G1 Y-12.5 Z-0.136
G2 X124. Y-14.5 Z-0.139 R2.
G1 X-124. Z-0.361
G2 X-126. Y-12.5 Z-0.364 R2.
G1 Y12.5 Z-0.386
G2 X-124. Y14.5 Z-0.389 R2.
G1 X124. Z-0.611
G2 X126. Y12.5 Z-0.614 R2.
G1 Y-12.5 Z-0.636
G2 X124. Y-14.5 Z-0.639 R2.
G1 X-124. Z-0.861
G2 X-126. Y-12.5 Z-0.864 R2.
G1 Y12.5 Z-0.886
G2 X-124. Y14.5 Z-0.889 R2.
G1 X124. Z-1.111
G2 X126. Y12.5 Z-1.114 R2.
G1 Y-12.5 Z-1.136
G2 X124. Y-14.5 Z-1.139 R2.
G1 X-124. Z-1.361
G2 X-126. Y-12.5 Z-1.364 R2.
G1 Y12.5 Z-1.386
G2 X-124. Y14.5 Z-1.389 R2.
G1 X124. Z-1.611
G2 X126. Y12.5 Z-1.614 R2.
G1 Y-12.5 Z-1.636
G2 X124. Y-14.5 Z-1.639 R2.
G1 X-124. Z-1.861
G2 X-126. Y-12.5 Z-1.864 R2.
G1 Y12.5 Z-1.886
G2 X-124. Y14.5 Z-1.889 R2.
G1 X124. Z-2.111
G2 X126. Y12.5 Z-2.114 R2.
G1 Y-12.5 Z-2.136
G2 X124. Y-14.5 Z-2.139 R2.
G1 X-124. Z-2.361
G2 X-126. Y-12.5 Z-2.364 R2.
G1 Y12.5 Z-2.386
G2 X-124. Y14.5 Z-2.389 R2.
G1 X124. Z-2.611
G2 X126. Y12.5 Z-2.614 R2.
G1 Y-12.5 Z-2.636
G2 X124. Y-14.5 Z-2.639 R2.
G1 X-124. Z-2.861
G2 X-126. Y-12.5 Z-2.864 R2.
G1 Y12.5 Z-2.886
G2 X-124. Y14.5 Z-2.889 R2.
G1 X124. Z-3.111
G2 X126. Y12.5 Z-3.114 R2.
G1 Y-12.5 Z-3.136
G2 X124. Y-14.5 Z-3.139 R2.
G1 X-124. Z-3.361
G2 X-126. Y-12.5 Z-3.364 R2.
G1 Y12.5 Z-3.386
G2 X-124. Y14.5 Z-3.389 R2.
G1 X124. Z-3.611
G2 X126. Y12.5 Z-3.614 R2.
G1 Y-12.5 Z-3.636
G2 X124. Y-14.5 Z-3.639 R2.
G1 X-124. Z-3.861
G2 X-126. Y-12.5 Z-3.864 R2.
G1 Y12.5 Z-3.886
G2 X-124. Y14.5 Z-3.889 R2.
G1 X124. Z-4.111
G2 X126. Y12.5 Z-4.114 R2.
G1 Y-12.5 Z-4.136
G2 X124. Y-14.5 Z-4.139 R2.
G1 X-124. Z-4.361
G2 X-126. Y-12.5 Z-4.364 R2.
G1 Y12.5 Z-4.386
G2 X-124. Y14.5 Z-4.389 R2.
G1 X124. Z-4.611
G2 X126. Y12.5 Z-4.614 R2.
G1 Y-12.5 Z-4.636
G2 X124. Y-14.5 Z-4.639 R2.
G1 X-124. Z-4.861
G2 X-126. Y-12.5 Z-4.864 R2.
G1 Y12.5 Z-4.886
G2 X-124. Y14.5 Z-4.889 R2.
G1 X0. Z-5.
X124.
G2 X126. Y12.5 R2.
G1 Y-12.5
G2 X124. Y-14.5 R2.
G1 X-124.
G2 X-126. Y-12.5 R2.
G1 Y12.5
G2 X-124. Y14.5 R2.
G1 X0.
G0 Z15.

M9
M30
