(__3_6)
(T1  D=3. CR=0. - ZMIN=-5. - FLAT END MILL)
G90 G94 G91.1 G40 G49 G17
G21

(2D ADAPTIVE3)
M5
M9
T1
S9700 M3
G54
M8
G0 X61.949 Y-67.268
G43 Z15. H1
Z5.
Z0.545
G1 Z-5. F200.
Y-67.302 F466.
X61.981 Y-67.291
X61.99 Y-67.258
X61.971 Y-67.23
X61.938 Y-67.225
X61.908 Y-67.241
X61.889 Y-67.269
X61.884 Y-67.302
X61.896 Y-67.334
X61.922 Y-67.356
X61.953 Y-67.368
X61.987
X62.019 Y-67.356
X62.045 Y-67.335
X62.074 Y-67.275
X62.075 Y-67.241
X62.057 Y-67.176
X62.01 Y-67.127
X61.947 Y-67.105
X61.879 Y-67.109
X61.818 Y-67.137
X61.77 Y-67.184
X61.74 Y-67.245
X61.73 Y-67.312
X61.742 Y-67.378
X61.772 Y-67.439
X61.817 Y-67.489
X61.931 Y-67.561
X62.065 Y-67.568
X62.189 Y-67.514
X62.28 Y-67.414
X62.329 Y-67.288
X62.33 Y-67.153
X62.285 Y-67.026
X62.2 Y-66.921
X62.087 Y-66.848
X61.957 Y-66.811
X61.822 Y-66.813
X61.693 Y-66.853
X61.58 Y-66.926
X61.49 Y-67.027
X61.429 Y-67.148
X61.401 Y-67.28
X61.405 Y-67.414
X61.438 Y-67.545
X61.5 Y-67.666
X61.587 Y-67.768
X61.694 Y-67.851
X61.816 Y-67.908
X61.947 Y-67.94
X62.082 Y-67.942
X62.215 Y-67.919
X62.341 Y-67.869
X62.456 Y-67.798
X62.554 Y-67.706
X62.635 Y-67.598
X62.695 Y-67.477
X62.733 Y-67.348
X62.747 Y-67.213
X62.74 Y-67.079
X62.708 Y-66.947
X62.657 Y-66.822
X62.585 Y-66.708
X62.497 Y-66.606
X62.393 Y-66.52
X62.277 Y-66.45
X62.153 Y-66.399
X62.021 Y-66.367
X61.887 Y-66.355
X61.752 Y-66.364
X61.62 Y-66.391
X61.493 Y-66.438
X61.374 Y-66.502
X61.266 Y-66.582
X61.169 Y-66.676
X61.086 Y-66.782
X61.018 Y-66.899
X60.966 Y-67.024
X60.932 Y-67.154
X60.913 Y-67.288
Y-67.423
X60.93 Y-67.557
X60.963 Y-67.688
X61.012 Y-67.814
X61.076 Y-67.932
X61.155 Y-68.042
X61.246 Y-68.142
X61.348 Y-68.23
X61.46 Y-68.305
X61.581 Y-68.366
X61.707 Y-68.413
X61.838 Y-68.445
X61.972 Y-68.462
X62.107 Y-68.463
X62.242 Y-68.449
X62.374 Y-68.421
X62.502 Y-68.378
X62.624 Y-68.321
X62.74 Y-68.251
X62.847 Y-68.169
X62.945 Y-68.076
X63.033 Y-67.974
X63.109 Y-67.862
X63.173 Y-67.744
X63.224 Y-67.619
X63.263 Y-67.489
X63.288 Y-67.357
X63.3 Y-67.222
X63.298 Y-67.087
X63.282 Y-66.953
X63.254 Y-66.821
X63.212 Y-66.693
X63.158 Y-66.569
X63.093 Y-66.451
X63.016 Y-66.34
X62.929 Y-66.237
X62.833 Y-66.142
X62.728 Y-66.057
X62.615 Y-65.982
X62.497 Y-65.918
X62.372 Y-65.866
X62.244 Y-65.824
X62.112 Y-65.795
X61.978 Y-65.779
X61.843 Y-65.774
X61.708 Y-65.781
X61.575 Y-65.801
X61.443 Y-65.832
X61.315 Y-65.875
X61.191 Y-65.929
X61.073 Y-65.993
X60.96 Y-66.068
X60.855 Y-66.152
X60.757 Y-66.244
X60.667 Y-66.345
X60.586 Y-66.453
X60.514 Y-66.568
X60.453 Y-66.688
X60.401 Y-66.813
X60.36 Y-66.941
X60.33 Y-67.073
X60.31 Y-67.206
X60.302 Y-67.341
X60.305 Y-67.476
X60.318 Y-67.611
X60.343 Y-67.743
X60.377 Y-67.874
X60.422 Y-68.001
X60.477 Y-68.124
X60.542 Y-68.243
X60.616 Y-68.356
X60.698 Y-68.463
X60.788 Y-68.563
X60.886 Y-68.656
X60.991 Y-68.741
X61.102 Y-68.818
X61.28 Y-68.916
X61.397 Y-68.962
X61.519 Y-68.991
X61.644 Y-69.
X62.251
X62.52 Y-68.982
X62.653 Y-68.958
X62.783 Y-68.922
X62.91 Y-68.875
X63.032 Y-68.819
X63.15 Y-68.752
X63.261 Y-68.676
X63.416 Y-68.547
X63.56 Y-68.371
X63.65 Y-68.162
X63.681 Y-67.937
G3 X63.214 Y-67.698 R0.3
G1 X62.094 Y-68.451
G3 X62.251 Y-69. R0.3
G1 X63.394 Y-68.999
X63.501 Y-68.969
X63.596 Y-68.898
X63.655 Y-68.812
X63.681 Y-68.711
Y-66.725
X63.675 Y-66.59
X63.651 Y-66.457
X63.616 Y-66.327
X63.568 Y-66.201
X63.51 Y-66.079
X63.441 Y-65.962
X63.364 Y-65.852
X63.278 Y-65.748
X63.184 Y-65.651
X62.976 Y-65.479
X62.746 Y-65.338
X62.492 Y-65.228
X62.224 Y-65.154
X62.082 Y-65.13
X61.795 Y-65.113
X61.614 Y-65.123
X61.429 Y-65.165
X61.259 Y-65.248
X61.111 Y-65.368
X60.995 Y-65.517
G3 X61.124 Y-65.933 R0.3
G1 X63.249 Y-66.983
G3 X63.681 Y-66.725 R0.3
G1 Y-65.919
X63.675 Y-65.785
X63.65 Y-65.652
X63.593 Y-65.489
X63.465 Y-65.289
X63.285 Y-65.133
X63.069 Y-65.034
X62.834 Y-65.
G3 X62.619 Y-65.498 R0.3
G1 X63.157 Y-66.107
G3 X63.681 Y-65.919 R0.3
G1 Y-65.322
X63.668 Y-65.222
X63.615 Y-65.123
X63.539 Y-65.054
X63.462 Y-65.015
X63.394 Y-65.001
X61.443
X61.342 Y-65.029
X61.241 Y-65.102
X61.182 Y-65.188
X61.04 Y-65.444
X60.451 Y-66.396
X60.337 Y-66.53
X60.19 Y-66.664
X60.089 Y-66.755
X60.004 Y-66.859
X59.932 Y-66.973
X59.874 Y-67.095
X59.828 Y-67.222
X59.795 Y-67.353
X59.774 Y-67.486
X59.764 Y-67.621
X59.765 Y-67.756
X59.775 Y-67.891
X59.827 Y-68.157
X59.918 Y-68.424
X59.987 Y-68.569
X60.119 Y-68.747
X60.293 Y-68.884
X60.497 Y-68.971
X60.717 Y-69.
X61.644
G3 X61.758 Y-68.973 R0.3
X61.879 Y-68.528 R0.3
G1 X60.616 Y-66.731
G3 X60.19 Y-66.664 R0.3
G1 X59.674 Y-67.067
X59.571 Y-67.155
X59.483 Y-67.257
X59.411 Y-67.371
X59.353 Y-67.493
X59.308 Y-67.62
X59.276 Y-67.752
X59.255 Y-67.885
X59.246 Y-68.02
X59.248 Y-68.155
X59.266 Y-68.315
X59.338 Y-68.535
X59.468 Y-68.726
X59.646 Y-68.874
X59.857 Y-68.968
X60.086 Y-69.
X60.717
G3 X60.961 Y-68.543 R0.3
G1 X60.104 Y-67.153
G3 X59.674 Y-67.067 R0.3
G1 X59.156 Y-67.452
X59.046 Y-67.531
X58.959 Y-67.634
X58.888 Y-67.749
X58.833 Y-67.872
X58.791 Y-68.019
X58.783 Y-68.261
X58.845 Y-68.495
X58.971 Y-68.701
X59.152 Y-68.862
X59.371 Y-68.965
X59.611 Y-69.
X60.086
G3 X60.2 Y-68.973 R0.3
X60.309 Y-68.512 R0.3
G1 X59.521 Y-67.534
G3 X59.156 Y-67.452 R0.3
G1 X59.021 Y-67.524
X58.818 Y-67.604
X58.692 Y-67.652
X58.588 Y-67.738
X58.502 Y-67.842
X58.423 Y-68.059
X58.41 Y-68.289
X58.464 Y-68.513
X58.582 Y-68.711
X58.752 Y-68.867
X58.961 Y-68.966
X59.189 Y-69.
G3 X59.462 Y-68.601 R0.3
G1 X59.179 Y-67.795
G3 X58.818 Y-67.604 R0.3
G1 X58.449 Y-67.715
X58.322 Y-67.76
X58.217 Y-67.845
X58.135 Y-67.952
X58.066 Y-68.15
X58.057 Y-68.359
X58.11 Y-68.561
X58.218 Y-68.74
X58.374 Y-68.88
X58.563 Y-68.969
X58.77 Y-69.
G3 X59.044 Y-68.604 R0.3
G1 X58.81 Y-67.909
G3 X58.449 Y-67.715 R0.3
G1 X58.107 Y-67.818
X57.979 Y-67.863
X57.873 Y-67.946
X57.773 Y-68.128
X57.736 Y-68.332
X57.764 Y-68.537
X57.855 Y-68.723
X58. Y-68.872
X58.184 Y-68.967
X58.389 Y-69.
G3 X58.663 Y-68.606 R0.3
G1 X58.467 Y-68.014
G3 X58.107 Y-67.818 R0.3
G1 X57.77 Y-67.916
X57.641 Y-67.959
X57.54 Y-68.047
X57.461 Y-68.157
X57.415 Y-68.35
X57.433 Y-68.548
X57.515 Y-68.729
X57.65 Y-68.874
X57.825 Y-68.968
X58.02 Y-69.
G3 X58.128 Y-68.975 R0.288
G1 X58.134 Y-68.972
G3 X57.77 Y-67.916 R0.561
G1 X57.676 Y-67.942
X57.5 Y-67.97
X57.367 Y-67.989
X57.255 Y-68.065
X57.168 Y-68.168
X57.111 Y-68.353
X57.119 Y-68.547
X57.191 Y-68.727
X57.319 Y-68.873
X57.489 Y-68.967
X57.68 Y-69.
G3 X57.793 Y-68.97 R0.26
X57.802 Y-68.965 R0.26
X57.618 Y-67.976 R0.534
X57.5 Y-67.97 R0.534
G1 X57.203 Y-67.991
X57.069 Y-68.006
X56.956 Y-68.079
X56.866 Y-68.18
X56.807 Y-68.361
X56.812 Y-68.552
X56.882 Y-68.73
X57.006 Y-68.874
X57.173 Y-68.967
X57.36 Y-69.
G3 X57.473 Y-68.969 R0.253
G1 X57.479 Y-68.966
G3 X57.203 Y-67.991 R0.523
G1 X56.929 Y-67.999
X56.794 Y-68.006
X56.675 Y-68.07
X56.58 Y-68.166
X56.511 Y-68.346
X56.509 Y-68.539
X56.573 Y-68.721
X56.697 Y-68.869
X56.863 Y-68.966
X57.053 Y-69.
G3 X57.167 Y-68.968 R0.249
X57.045 Y-68.016 R0.518
X56.929 Y-67.999 R0.518
G1 X56.626 Y-68.
X56.492 Y-68.007
X56.374 Y-68.073
X56.278 Y-68.168
X56.211 Y-68.348
X56.209 Y-68.541
X56.274 Y-68.722
X56.397 Y-68.87
X56.563 Y-68.966
X56.752 Y-69.
G3 X56.865 Y-68.969 R0.249
G1 X56.867 Y-68.967
G3 X56.626 Y-68. R0.518
G1 X56.33
X56.195 Y-68.007
X56.077 Y-68.071
X55.981 Y-68.166
X55.912 Y-68.346
X55.909 Y-68.539
X55.973 Y-68.721
X56.096 Y-68.869
X56.262 Y-68.966
X56.452 Y-69.
G3 X56.565 Y-68.968 R0.249
X56.446 Y-68.017 R0.517
X56.33 Y-68. R0.517
G1 X56.02
X55.885 Y-68.007
X55.769 Y-68.075
X55.675 Y-68.171
X55.608 Y-68.352
Y-68.543
X55.673 Y-68.724
X55.796 Y-68.871
X55.962 Y-68.967
X56.151 Y-69.
G3 X56.264 Y-68.969 R0.249
G1 X56.272 Y-68.964
G3 X56.137 Y-68.017 R0.52
X56.02 Y-68. R0.52
G1 X55.723
X55.588 Y-68.007
X55.47 Y-68.073
X55.375 Y-68.169
X55.308 Y-68.349
X55.307 Y-68.541
X55.372 Y-68.722
X55.495 Y-68.87
X55.661 Y-68.966
X55.85 Y-69.
G3 X55.963 Y-68.969 R0.249
G1 X55.968 Y-68.966
G3 X55.723 Y-68. R0.519
G1 X55.415
X55.281 Y-68.007
X55.164 Y-68.076
X55.07 Y-68.172
X55.005 Y-68.352
Y-68.544
X55.07 Y-68.724
X55.194 Y-68.871
X55.36 Y-68.967
X55.548 Y-69.
G3 X55.661 Y-68.969 R0.249
X55.67 Y-68.963 R0.249
X55.532 Y-68.017 R0.52
X55.415 Y-68. R0.52
G1 X55.119
X54.984 Y-68.007
X54.867 Y-68.073
X54.772 Y-68.169
X54.705 Y-68.349
X54.703 Y-68.541
X54.768 Y-68.722
X54.891 Y-68.87
X55.058 Y-68.966
X55.247 Y-69.
G3 X55.359 Y-68.969 R0.249
G1 X55.365 Y-68.966
G3 X55.235 Y-68.017 R0.519
X55.119 Y-68. R0.519
G1 X54.809
X54.674 Y-68.007
X54.559 Y-68.076
X54.465 Y-68.174
X54.4 Y-68.354
X54.401 Y-68.545
X54.467 Y-68.725
X54.59 Y-68.871
X54.756 Y-68.967
X54.945 Y-69.
G3 X55.057 Y-68.969 R0.249
X55.068 Y-68.962 R0.249
X54.926 Y-68.017 R0.521
X54.809 Y-68. R0.521
G1 X54.512
X54.377 Y-68.007
X54.26 Y-68.074
X54.166 Y-68.171
X54.099 Y-68.351
Y-68.543
X54.164 Y-68.723
X54.287 Y-68.87
X54.453 Y-68.967
X54.642 Y-69.
G3 X54.755 Y-68.969 R0.249
G1 X54.763 Y-68.964
G3 X54.512 Y-68. R0.52
G1 X54.238
X54.103 Y-68.007
X53.981 Y-68.065
X53.882 Y-68.156
X53.807 Y-68.336
X53.8 Y-68.53
X53.862 Y-68.715
X53.984 Y-68.866
X54.151 Y-68.965
X54.342 Y-69.
G3 X54.441 Y-68.976 R0.249
X54.455 Y-68.969 R0.513
X54.238 Y-68. R0.513
G1 X53.935
X53.801 Y-68.007
X53.68 Y-68.068
X53.582 Y-68.16
X53.509 Y-68.34
X53.504 Y-68.534
X53.566 Y-68.717
X53.689 Y-68.867
X53.856 Y-68.966
X54.046 Y-69.
G3 X54.15 Y-68.973 R0.249
G1 X54.159 Y-68.969
G3 X53.935 Y-68. R0.515
G1 X53.639
X53.504 Y-68.007
X53.384 Y-68.068
X53.285 Y-68.16
X53.213 Y-68.34
X53.207 Y-68.533
X53.27 Y-68.717
X53.392 Y-68.867
X53.559 Y-68.966
X53.749 Y-69.
G3 X53.853 Y-68.973 R0.249
G1 X53.862 Y-68.969
G3 X53.755 Y-68.017 R0.515
X53.639 Y-68. R0.515
G1 X53.329
X53.194 Y-68.007
X53.076 Y-68.072
X52.98 Y-68.167
X52.911 Y-68.347
X52.909 Y-68.539
X52.973 Y-68.721
X53.095 Y-68.869
X53.262 Y-68.966
X53.451 Y-69.
G3 X53.564 Y-68.968 R0.249
X53.445 Y-68.017 R0.517
X53.329 Y-68. R0.517
G1 X53.032
X52.897 Y-68.007
X52.778 Y-68.071
X52.682 Y-68.165
X52.612 Y-68.345
X52.609 Y-68.538
X52.673 Y-68.72
X52.796 Y-68.869
X52.962 Y-68.966
X53.152 Y-69.
G3 X53.264 Y-68.969 R0.249
X53.032 Y-68. R0.517
G1 X52.724
X52.59 Y-68.007
X52.472 Y-68.074
X52.377 Y-68.17
X52.31 Y-68.35
X52.309 Y-68.542
X52.374 Y-68.723
X52.497 Y-68.87
X52.663 Y-68.967
X52.852 Y-69.
G3 X52.964 Y-68.969 R0.249
G1 X52.97 Y-68.966
G3 X52.841 Y-68.017 R0.519
X52.724 Y-68. R0.519
G1 X52.428
X52.293 Y-68.007
X52.175 Y-68.072
X52.079 Y-68.167
X52.011 Y-68.347
X52.008 Y-68.54
X52.073 Y-68.721
X52.196 Y-68.869
X52.362 Y-68.966
X52.552 Y-69.
G3 X52.666 Y-68.968 R0.249
X52.428 Y-68. R0.518
G1 X52.118
X51.983 Y-68.007
X51.867 Y-68.075
X51.773 Y-68.172
X51.707 Y-68.352
Y-68.544
X51.773 Y-68.724
X51.896 Y-68.871
X52.062 Y-68.967
X52.25 Y-69.
G3 X52.363 Y-68.969 R0.249
X52.372 Y-68.963 R0.249
X52.234 Y-68.017 R0.52
X52.118 Y-68. R0.52
G1 X51.821
X51.686 Y-68.007
X51.568 Y-68.074
X51.474 Y-68.169
X51.407 Y-68.35
X51.405 Y-68.542
X51.47 Y-68.723
X51.593 Y-68.87
X51.76 Y-68.967
X51.949 Y-69.
G3 X52.061 Y-68.969 R0.249
G1 X52.067 Y-68.965
G3 X51.821 Y-68. R0.519
G1 X51.513
X51.378 Y-68.007
X51.262 Y-68.076
X51.168 Y-68.173
X51.103 Y-68.353
Y-68.544
X51.169 Y-68.724
X51.292 Y-68.871
X51.458 Y-68.967
X51.647 Y-69.
G3 X51.759 Y-68.969 R0.249
X51.769 Y-68.963 R0.249
X51.513 Y-68. R0.521
G1 X51.217
X51.082 Y-68.007
X50.965 Y-68.073
X50.87 Y-68.169
X50.803 Y-68.349
X50.802 Y-68.542
X50.867 Y-68.723
X50.99 Y-68.87
X51.156 Y-68.967
X51.345 Y-69.
G3 X51.458 Y-68.969 R0.249
G1 X51.463 Y-68.965
G3 X51.217 Y-68. R0.519
G1 X50.907
X50.772 Y-68.007
X50.657 Y-68.077
X50.563 Y-68.174
X50.499 Y-68.354
Y-68.545
X50.565 Y-68.725
X50.689 Y-68.871
X50.854 Y-68.967
X51.043 Y-69.
G3 X51.155 Y-68.969 R0.249
X51.167 Y-68.962 R0.249
X50.907 Y-68. R0.521
G1 X50.61
X50.475 Y-68.007
X50.358 Y-68.074
X50.264 Y-68.171
X50.197 Y-68.351
Y-68.543
X50.262 Y-68.723
X50.385 Y-68.871
X50.552 Y-68.967
X50.741 Y-69.
G3 X50.853 Y-68.969 R0.249
G1 X50.861 Y-68.964
G3 X50.726 Y-68.017 R0.52
X50.61 Y-68. R0.52
G1 X50.336
X50.201 Y-68.007
X50.079 Y-68.065
X49.98 Y-68.157
X49.905 Y-68.336
X49.899 Y-68.53
X49.96 Y-68.715
X50.082 Y-68.866
X50.249 Y-68.965
X50.44 Y-69.
G3 X50.539 Y-68.976 R0.249
X50.553 Y-68.969 R0.513
X50.336 Y-68. R0.513
G1 X50.033
X49.898 Y-68.007
X49.778 Y-68.068
X49.68 Y-68.161
X49.607 Y-68.34
X49.602 Y-68.534
X49.665 Y-68.717
X49.787 Y-68.867
X49.954 Y-68.966
X50.144 Y-69.
G3 X50.248 Y-68.973 R0.249
G1 X50.257 Y-68.969
G3 X50.033 Y-68. R0.515
G1 X49.737
X49.602 Y-68.007
X49.481 Y-68.068
X49.383 Y-68.16
X49.311 Y-68.34
X49.305 Y-68.533
X49.368 Y-68.717
X49.49 Y-68.867
X49.657 Y-68.966
X49.847 Y-69.
G3 X49.951 Y-68.973 R0.249
G1 X49.96 Y-68.969
G3 X49.737 Y-68. R0.515
G1 X49.427
X49.292 Y-68.007
X49.174 Y-68.072
X49.078 Y-68.167
X49.009 Y-68.347
X49.007 Y-68.539
X49.071 Y-68.721
X49.193 Y-68.869
X49.36 Y-68.966
X49.549 Y-69.
G3 X49.663 Y-68.968 R0.249
X49.543 Y-68.017 R0.517
X49.427 Y-68. R0.517
G1 X49.13
X48.995 Y-68.007
X48.876 Y-68.071
X48.779 Y-68.165
X48.71 Y-68.345
X48.707 Y-68.538
X48.771 Y-68.72
X48.894 Y-68.869
X49.06 Y-68.966
X49.25 Y-69.
G3 X49.362 Y-68.969 R0.249
X49.13 Y-68. R0.517
G1 X48.822
X48.687 Y-68.007
X48.57 Y-68.074
X48.475 Y-68.17
X48.408 Y-68.35
X48.407 Y-68.542
X48.472 Y-68.723
X48.595 Y-68.87
X48.761 Y-68.967
X48.95 Y-69.
G3 X49.062 Y-68.969 R0.249
G1 X49.068 Y-68.966
G3 X48.938 Y-68.017 R0.519
X48.822 Y-68. R0.519
G1 X48.526
X48.391 Y-68.007
X48.273 Y-68.072
X48.177 Y-68.167
X48.109 Y-68.347
X48.106 Y-68.54
X48.171 Y-68.721
X48.293 Y-68.869
X48.46 Y-68.966
X48.649 Y-69.
G3 X48.764 Y-68.967 R0.249
X48.526 Y-68. R0.518
G1 X48.216
X48.081 Y-68.007
X47.965 Y-68.075
X47.871 Y-68.172
X47.805 Y-68.352
Y-68.544
X47.87 Y-68.724
X47.994 Y-68.871
X48.16 Y-68.967
X48.348 Y-69.
G3 X48.461 Y-68.969 R0.249
X48.47 Y-68.963 R0.249
X48.332 Y-68.017 R0.52
X48.216 Y-68. R0.52
G1 X47.918
X47.784 Y-68.007
X47.666 Y-68.074
X47.571 Y-68.169
X47.504 Y-68.35
X47.503 Y-68.542
X47.568 Y-68.723
X47.691 Y-68.87
X47.858 Y-68.967
X48.047 Y-69.
G3 X48.159 Y-68.969 R0.249
G1 X48.165 Y-68.965
G3 X47.918 Y-68. R0.519
G1 X47.611
X47.476 Y-68.007
X47.36 Y-68.076
X47.266 Y-68.173
X47.201 Y-68.353
Y-68.544
X47.267 Y-68.724
X47.39 Y-68.871
X47.556 Y-68.967
X47.745 Y-69.
G3 X47.857 Y-68.969 R0.249
X47.867 Y-68.963 R0.249
X47.611 Y-68. R0.521
G1 X47.315
X47.18 Y-68.007
X47.063 Y-68.073
X46.968 Y-68.169
X46.901 Y-68.35
X46.9 Y-68.542
X46.965 Y-68.723
X47.088 Y-68.87
X47.254 Y-68.967
X47.443 Y-69.
G3 X47.556 Y-68.969 R0.249
G1 X47.561 Y-68.965
G3 X47.315 Y-68. R0.519
G1 X47.005
X46.87 Y-68.007
X46.755 Y-68.077
X46.661 Y-68.174
X46.596 Y-68.354
X46.597 Y-68.545
X46.663 Y-68.725
X46.786 Y-68.871
X46.952 Y-68.967
X47.141 Y-69.
G3 X47.253 Y-68.969 R0.249
X47.265 Y-68.962 R0.249
X47.005 Y-68. R0.521
G1 X46.707
X46.573 Y-68.007
X46.456 Y-68.074
X46.361 Y-68.171
X46.295 Y-68.351
Y-68.543
X46.36 Y-68.723
X46.483 Y-68.871
X46.649 Y-68.967
X46.838 Y-69.
G3 X46.951 Y-68.969 R0.249
G1 X46.959 Y-68.964
G3 X46.824 Y-68.017 R0.52
X46.707 Y-68. R0.52
G1 X46.433
X46.299 Y-68.007
X46.177 Y-68.065
X46.078 Y-68.157
X46.003 Y-68.336
X45.996 Y-68.53
X46.058 Y-68.715
X46.18 Y-68.866
X46.347 Y-68.965
X46.538 Y-69.
G3 X46.637 Y-68.976 R0.249
X46.651 Y-68.969 R0.513
X46.55 Y-68.018 R0.513
X46.433 Y-68. R0.513
G1 X46.131
X45.996 Y-68.007
X45.876 Y-68.068
X45.778 Y-68.161
X45.705 Y-68.34
X45.7 Y-68.534
X45.762 Y-68.717
X45.885 Y-68.867
X46.051 Y-68.966
X46.242 Y-69.
G3 X46.346 Y-68.973 R0.249
G1 X46.355 Y-68.969
G3 X46.131 Y-68. R0.515
G1 X45.835
X45.7 Y-68.007
X45.579 Y-68.068
X45.481 Y-68.16
X45.409 Y-68.34
X45.403 Y-68.533
X45.465 Y-68.717
X45.588 Y-68.867
X45.755 Y-68.966
X45.945 Y-69.
G3 X46.049 Y-68.973 R0.249
G1 X46.058 Y-68.969
G3 X45.835 Y-68. R0.515
G1 X45.525
X45.39 Y-68.007
X45.272 Y-68.072
X45.176 Y-68.167
X45.107 Y-68.347
X45.104 Y-68.539
X45.168 Y-68.721
X45.291 Y-68.869
X45.457 Y-68.966
X45.647 Y-69.
G3 X45.76 Y-68.968 R0.249
X45.641 Y-68.017 R0.517
X45.525 Y-68. R0.517
G1 X45.227
X45.093 Y-68.007
X44.974 Y-68.071
X44.877 Y-68.165
X44.808 Y-68.345
X44.805 Y-68.538
X44.869 Y-68.72
X44.992 Y-68.869
X45.158 Y-68.966
X45.348 Y-69.
G3 X45.46 Y-68.969 R0.249
X45.227 Y-68. R0.517
G1 X44.92
X44.785 Y-68.007
X44.668 Y-68.074
X44.573 Y-68.17
X44.506 Y-68.35
X44.505 Y-68.542
X44.569 Y-68.723
X44.692 Y-68.87
X44.859 Y-68.967
X45.048 Y-69.
G3 X45.16 Y-68.969 R0.249
G1 X45.166 Y-68.966
G3 X45.036 Y-68.017 R0.519
X44.92 Y-68. R0.519
G1 X44.624
X44.489 Y-68.007
X44.371 Y-68.072
X44.275 Y-68.167
X44.206 Y-68.347
X44.204 Y-68.54
X44.268 Y-68.721
X44.391 Y-68.869
X44.558 Y-68.966
X44.747 Y-69.
G3 X44.862 Y-68.967 R0.249
X44.624 Y-68. R0.518
G1 X44.314
X44.179 Y-68.007
X44.063 Y-68.075
X43.969 Y-68.172
X43.903 Y-68.352
Y-68.544
X43.968 Y-68.724
X44.091 Y-68.871
X44.257 Y-68.967
X44.446 Y-69.
G3 X44.559 Y-68.969 R0.249
X44.568 Y-68.963 R0.249
X44.43 Y-68.017 R0.52
X44.314 Y-68. R0.52
G1 X44.016
X43.882 Y-68.007
X43.764 Y-68.074
X43.669 Y-68.169
X43.602 Y-68.35
X43.601 Y-68.542
X43.666 Y-68.723
X43.789 Y-68.87
X43.955 Y-68.967
X44.145 Y-69.
G3 X44.257 Y-68.969 R0.249
G1 X44.263 Y-68.965
G3 X44.016 Y-68. R0.519
G1 X43.709
X43.574 Y-68.007
X43.458 Y-68.076
X43.364 Y-68.173
X43.299 Y-68.353
Y-68.544
X43.365 Y-68.724
X43.488 Y-68.871
X43.654 Y-68.967
X43.843 Y-69.
G3 X43.955 Y-68.969 R0.249
X43.965 Y-68.963 R0.249
X43.709 Y-68. R0.521
G1 X43.413
X43.278 Y-68.007
X43.16 Y-68.073
X43.065 Y-68.169
X42.999 Y-68.35
X42.997 Y-68.542
X43.062 Y-68.723
X43.185 Y-68.87
X43.352 Y-68.967
X43.541 Y-69.
G3 X43.653 Y-68.969 R0.249
G1 X43.659 Y-68.965
G3 X43.413 Y-68. R0.519
G1 X43.103
X42.968 Y-68.007
X42.852 Y-68.077
X42.759 Y-68.174
X42.694 Y-68.354
X42.695 Y-68.545
X42.761 Y-68.725
X42.884 Y-68.871
X43.05 Y-68.967
X43.239 Y-69.
G3 X43.351 Y-68.969 R0.249
X43.363 Y-68.962 R0.249
X43.103 Y-68. R0.521
G1 X42.805
X42.671 Y-68.007
X42.554 Y-68.074
X42.459 Y-68.171
X42.393 Y-68.351
Y-68.543
X42.458 Y-68.723
X42.581 Y-68.871
X42.747 Y-68.967
X42.936 Y-69.
G3 X43.049 Y-68.969 R0.249
G1 X43.057 Y-68.964
G3 X42.922 Y-68.017 R0.52
X42.805 Y-68. R0.52
G1 X42.531
X42.396 Y-68.007
X42.275 Y-68.065
X42.176 Y-68.157
X42.101 Y-68.336
X42.094 Y-68.53
X42.156 Y-68.715
X42.278 Y-68.866
X42.445 Y-68.965
X42.636 Y-69.
G3 X42.735 Y-68.976 R0.249
X42.749 Y-68.969 R0.513
X42.648 Y-68.018 R0.513
X42.531 Y-68. R0.513
G1 X42.229
X42.094 Y-68.007
X41.974 Y-68.068
X41.875 Y-68.161
X41.803 Y-68.34
X41.798 Y-68.534
X41.86 Y-68.717
X41.982 Y-68.867
X42.149 Y-68.966
X42.34 Y-69.
G3 X42.444 Y-68.973 R0.249
G1 X42.452 Y-68.969
G3 X42.229 Y-68. R0.515
G1 X41.933
X41.798 Y-68.007
X41.677 Y-68.068
X41.579 Y-68.16
X41.506 Y-68.34
X41.501 Y-68.533
X41.563 Y-68.717
X41.686 Y-68.867
X41.852 Y-68.966
X42.043 Y-69.
G3 X42.147 Y-68.973 R0.249
G1 X42.156 Y-68.969
G3 X41.933 Y-68. R0.515
G1 X41.623
X41.488 Y-68.007
X41.37 Y-68.072
X41.274 Y-68.167
X41.205 Y-68.347
X41.202 Y-68.539
X41.266 Y-68.721
X41.389 Y-68.869
X41.555 Y-68.966
X41.745 Y-69.
G3 X41.858 Y-68.968 R0.249
X41.739 Y-68.017 R0.517
X41.623 Y-68. R0.517
G1 X41.325
X41.19 Y-68.007
X41.072 Y-68.071
X40.975 Y-68.165
X40.906 Y-68.345
X40.903 Y-68.538
X40.967 Y-68.72
X41.089 Y-68.869
X41.256 Y-68.966
X41.446 Y-69.
G3 X41.558 Y-68.969 R0.249
X41.325 Y-68. R0.517
G1 X41.018
X40.883 Y-68.007
X40.766 Y-68.074
X40.671 Y-68.17
X40.604 Y-68.35
X40.602 Y-68.542
X40.667 Y-68.723
X40.79 Y-68.87
X40.956 Y-68.967
X41.146 Y-69.
G3 X41.258 Y-68.969 R0.249
G1 X41.263 Y-68.966
G3 X41.134 Y-68.017 R0.519
X41.018 Y-68. R0.519
G1 X40.722
X40.587 Y-68.007
X40.468 Y-68.072
X40.373 Y-68.167
X40.304 Y-68.347
X40.302 Y-68.54
X40.366 Y-68.721
X40.489 Y-68.869
X40.656 Y-68.966
X40.845 Y-69.
G3 X40.96 Y-68.967 R0.249
X40.722 Y-68. R0.518
G1 X40.412
X40.277 Y-68.007
X40.161 Y-68.075
X40.066 Y-68.172
X40.001 Y-68.352
Y-68.544
X40.066 Y-68.724
X40.189 Y-68.871
X40.355 Y-68.967
X40.544 Y-69.
G3 X40.656 Y-68.969 R0.249
X40.665 Y-68.963 R0.249
X40.528 Y-68.017 R0.52
X40.412 Y-68. R0.52
G1 X40.114
X39.979 Y-68.007
X39.862 Y-68.074
X39.767 Y-68.169
X39.7 Y-68.35
X39.699 Y-68.542
X39.764 Y-68.723
X39.887 Y-68.87
X40.053 Y-68.967
X40.242 Y-69.
G3 X40.355 Y-68.969 R0.249
G1 X40.361 Y-68.965
G3 X40.114 Y-68. R0.519
G1 X39.807
X39.672 Y-68.007
X39.556 Y-68.076
X39.462 Y-68.173
X39.397 Y-68.353
Y-68.544
X39.463 Y-68.724
X39.586 Y-68.871
X39.752 Y-68.967
X39.941 Y-69.
G3 X40.053 Y-68.969 R0.249
X40.063 Y-68.963 R0.249
X39.807 Y-68. R0.521
G1 X39.511
X39.376 Y-68.007
X39.258 Y-68.073
X39.163 Y-68.169
X39.096 Y-68.35
X39.095 Y-68.542
X39.16 Y-68.723
X39.283 Y-68.87
X39.45 Y-68.967
X39.639 Y-69.
G3 X39.751 Y-68.969 R0.249
G1 X39.757 Y-68.965
G3 X39.511 Y-68. R0.519
G1 X39.201
X39.066 Y-68.007
X38.95 Y-68.077
X38.857 Y-68.174
X38.792 Y-68.354
X38.793 Y-68.545
X38.859 Y-68.725
X38.982 Y-68.871
X39.148 Y-68.967
X39.336 Y-69.
G3 X39.449 Y-68.969 R0.249
X39.461 Y-68.962 R0.249
X39.201 Y-68. R0.521
G1 X38.903
X38.768 Y-68.007
X38.651 Y-68.074
X38.557 Y-68.171
X38.491 Y-68.351
Y-68.543
X38.556 Y-68.723
X38.679 Y-68.871
X38.845 Y-68.967
X39.034 Y-69.
G3 X39.147 Y-68.969 R0.249
G1 X39.155 Y-68.964
G3 X39.019 Y-68.017 R0.52
X38.903 Y-68. R0.52
G1 X38.629
X38.494 Y-68.007
X38.372 Y-68.065
X38.273 Y-68.157
X38.199 Y-68.336
X38.192 Y-68.53
X38.253 Y-68.715
X38.375 Y-68.866
X38.543 Y-68.965
X38.734 Y-69.
G3 X38.833 Y-68.976 R0.249
X38.847 Y-68.969 R0.513
X38.745 Y-68.018 R0.513
X38.629 Y-68. R0.513
G1 X38.327
X38.192 Y-68.007
X38.072 Y-68.068
X37.973 Y-68.161
X37.901 Y-68.34
X37.896 Y-68.534
X37.958 Y-68.717
X38.08 Y-68.867
X38.247 Y-68.966
X38.438 Y-69.
G3 X38.542 Y-68.973 R0.249
G1 X38.55 Y-68.969
G3 X38.327 Y-68. R0.515
G1 X38.03
X37.896 Y-68.007
X37.775 Y-68.068
X37.677 Y-68.16
X37.604 Y-68.34
X37.599 Y-68.533
X37.661 Y-68.717
X37.783 Y-68.867
X37.95 Y-68.966
X38.141 Y-69.
G3 X38.245 Y-68.973 R0.249
G1 X38.253 Y-68.969
G3 X38.03 Y-68. R0.515
G1 X37.721
X37.586 Y-68.007
X37.468 Y-68.072
X37.371 Y-68.167
X37.303 Y-68.347
X37.3 Y-68.539
X37.364 Y-68.721
X37.487 Y-68.869
X37.653 Y-68.966
X37.843 Y-69.
G3 X37.956 Y-68.968 R0.249
X37.837 Y-68.017 R0.517
X37.721 Y-68. R0.517
G1 X37.423
X37.288 Y-68.007
X37.169 Y-68.071
X37.073 Y-68.165
X37.004 Y-68.345
X37.001 Y-68.538
X37.065 Y-68.72
X37.187 Y-68.869
X37.354 Y-68.966
X37.544 Y-69.
G3 X37.656 Y-68.969 R0.249
X37.423 Y-68. R0.517
G1 X37.116
X36.981 Y-68.007
X36.864 Y-68.074
X36.769 Y-68.17
X36.702 Y-68.35
X36.7 Y-68.542
X36.765 Y-68.723
X36.888 Y-68.87
X37.054 Y-68.967
X37.243 Y-69.
G3 X37.356 Y-68.969 R0.249
G1 X37.361 Y-68.966
G3 X37.232 Y-68.017 R0.519
X37.116 Y-68. R0.519
G1 X36.819
X36.685 Y-68.007
X36.566 Y-68.072
X36.47 Y-68.167
X36.402 Y-68.347
X36.4 Y-68.54
X36.464 Y-68.721
X36.587 Y-68.869
X36.753 Y-68.966
X36.943 Y-69.
G3 X37.058 Y-68.967 R0.249
X36.819 Y-68. R0.518
G1 X36.51
X36.375 Y-68.007
X36.259 Y-68.075
X36.164 Y-68.172
X36.099 Y-68.352
X36.098 Y-68.544
X36.164 Y-68.724
X36.287 Y-68.871
X36.453 Y-68.967
X36.642 Y-69.
G3 X36.754 Y-68.969 R0.249
X36.763 Y-68.963 R0.249
X36.626 Y-68.017 R0.52
X36.51 Y-68. R0.52
G1 X36.212
X36.077 Y-68.007
X35.96 Y-68.074
X35.865 Y-68.169
X35.798 Y-68.35
X35.797 Y-68.542
X35.862 Y-68.723
X35.985 Y-68.87
X36.151 Y-68.967
X36.34 Y-69.
G3 X36.453 Y-68.969 R0.249
G1 X36.459 Y-68.965
G3 X36.212 Y-68. R0.519
G1 X35.905
X35.77 Y-68.007
X35.654 Y-68.076
X35.56 Y-68.173
X35.495 Y-68.353
Y-68.544
X35.561 Y-68.724
X35.684 Y-68.871
X35.85 Y-68.967
X36.038 Y-69.
G3 X36.151 Y-68.969 R0.249
X36.161 Y-68.963 R0.249
X35.905 Y-68. R0.521
G1 X35.608
X35.474 Y-68.007
X35.356 Y-68.073
X35.261 Y-68.169
X35.194 Y-68.35
X35.193 Y-68.542
X35.258 Y-68.723
X35.381 Y-68.87
X35.547 Y-68.967
X35.737 Y-69.
G3 X35.849 Y-68.969 R0.249
G1 X35.855 Y-68.965
G3 X35.608 Y-68. R0.519
G1 X35.299
X35.164 Y-68.007
X35.048 Y-68.077
X34.955 Y-68.174
X34.89 Y-68.354
X34.891 Y-68.545
X34.957 Y-68.725
X35.08 Y-68.871
X35.246 Y-68.967
X35.434 Y-69.
G3 X35.547 Y-68.969 R0.249
X35.558 Y-68.962 R0.249
X35.299 Y-68. R0.521
G1 X35.001
X34.866 Y-68.007
X34.749 Y-68.074
X34.655 Y-68.171
X34.589 Y-68.351
X34.588 Y-68.543
X34.654 Y-68.723
X34.777 Y-68.871
X34.943 Y-68.967
X35.132 Y-69.
G3 X35.244 Y-68.969 R0.249
G1 X35.252 Y-68.964
G3 X35.117 Y-68.017 R0.52
X35.001 Y-68. R0.52
G1 X34.727
X34.592 Y-68.007
X34.47 Y-68.065
X34.371 Y-68.157
X34.297 Y-68.336
X34.29 Y-68.53
X34.351 Y-68.715
X34.473 Y-68.866
X34.64 Y-68.965
X34.832 Y-69.
G3 X34.931 Y-68.976 R0.249
X34.944 Y-68.969 R0.513
X34.843 Y-68.018 R0.513
X34.727 Y-68. R0.513
G1 X34.425
X34.29 Y-68.007
X34.169 Y-68.068
X34.071 Y-68.161
X33.999 Y-68.34
X33.994 Y-68.534
X34.056 Y-68.717
X34.178 Y-68.867
X34.345 Y-68.966
X34.536 Y-69.
G3 X34.64 Y-68.973 R0.249
G1 X34.648 Y-68.969
G3 X34.425 Y-68. R0.515
G1 X34.128
X33.993 Y-68.007
X33.873 Y-68.068
X33.775 Y-68.16
X33.702 Y-68.34
X33.697 Y-68.533
X33.759 Y-68.717
X33.881 Y-68.867
X34.048 Y-68.966
X34.239 Y-69.
G3 X34.343 Y-68.973 R0.249
G1 X34.351 Y-68.969
G3 X34.128 Y-68. R0.515
G1 X33.818
X33.684 Y-68.007
X33.566 Y-68.072
X33.469 Y-68.167
X33.401 Y-68.347
X33.398 Y-68.539
X33.462 Y-68.721
X33.585 Y-68.869
X33.751 Y-68.966
X33.941 Y-69.
G3 X34.054 Y-68.968 R0.249
X33.935 Y-68.017 R0.517
X33.818 Y-68. R0.517
G1 X33.521
X33.386 Y-68.007
X33.267 Y-68.071
X33.171 Y-68.165
X33.102 Y-68.345
X33.099 Y-68.538
X33.162 Y-68.72
X33.285 Y-68.869
X33.452 Y-68.966
X33.641 Y-69.
G3 X33.753 Y-68.969 R0.249
X33.521 Y-68. R0.517
G1 X33.214
X33.079 Y-68.007
X32.962 Y-68.074
X32.866 Y-68.17
X32.799 Y-68.35
X32.798 Y-68.542
X32.863 Y-68.723
X32.986 Y-68.87
X33.152 Y-68.967
X33.341 Y-69.
G3 X33.454 Y-68.969 R0.249
G1 X33.459 Y-68.966
G3 X33.33 Y-68.017 R0.519
X33.214 Y-68. R0.519
G1 X32.917
X32.782 Y-68.007
X32.664 Y-68.072
X32.568 Y-68.167
X32.5 Y-68.347
X32.498 Y-68.54
X32.562 Y-68.721
X32.685 Y-68.869
X32.851 Y-68.966
X33.041 Y-69.
G3 X33.155 Y-68.967 R0.249
X32.917 Y-68. R0.518
G1 X32.607
X32.473 Y-68.007
X32.356 Y-68.075
X32.262 Y-68.172
X32.196 Y-68.352
Y-68.544
X32.262 Y-68.724
X32.385 Y-68.871
X32.551 Y-68.967
X32.74 Y-69.
G3 X32.852 Y-68.969 R0.249
X32.861 Y-68.963 R0.249
X32.724 Y-68.017 R0.52
X32.607 Y-68. R0.52
G1 X32.31
X32.175 Y-68.007
X32.058 Y-68.074
X31.963 Y-68.169
X31.896 Y-68.35
X31.895 Y-68.542
X31.96 Y-68.723
X32.083 Y-68.87
X32.249 Y-68.967
X32.438 Y-69.
G3 X32.551 Y-68.969 R0.249
G1 X32.556 Y-68.965
G3 X32.31 Y-68. R0.519
G1 X32.003
X31.868 Y-68.007
X31.752 Y-68.076
X31.658 Y-68.173
X31.592 Y-68.353
X31.593 Y-68.544
X31.658 Y-68.724
X31.782 Y-68.871
X31.948 Y-68.967
X32.136 Y-69.
G3 X32.249 Y-68.969 R0.249
X32.259 Y-68.963 R0.249
X32.003 Y-68. R0.521
G1 X31.706
X31.571 Y-68.007
X31.454 Y-68.073
X31.359 Y-68.169
X31.292 Y-68.35
X31.291 Y-68.542
X31.356 Y-68.723
X31.479 Y-68.87
X31.645 Y-68.967
X31.834 Y-69.
G3 X31.947 Y-68.969 R0.249
G1 X31.953 Y-68.965
G3 X31.706 Y-68. R0.519
G1 X31.396
X31.262 Y-68.007
X31.146 Y-68.077
X31.052 Y-68.174
X30.988 Y-68.354
X30.989 Y-68.545
X31.055 Y-68.725
X31.178 Y-68.871
X31.344 Y-68.967
X31.532 Y-69.
G3 X31.645 Y-68.969 R0.249
X31.656 Y-68.962 R0.249
X31.396 Y-68. R0.521
G1 X31.099
X30.964 Y-68.007
X30.847 Y-68.074
X30.753 Y-68.171
X30.687 Y-68.351
X30.686 Y-68.543
X30.752 Y-68.723
X30.875 Y-68.871
X31.041 Y-68.967
X31.23 Y-69.
G3 X31.342 Y-68.969 R0.249
G1 X31.35 Y-68.964
G3 X31.215 Y-68.017 R0.52
X31.099 Y-68. R0.52
G1 X30.825
X30.69 Y-68.007
X30.568 Y-68.065
X30.469 Y-68.157
X30.395 Y-68.336
X30.388 Y-68.53
X30.449 Y-68.715
X30.571 Y-68.866
X30.738 Y-68.965
X30.93 Y-69.
G3 X31.029 Y-68.976 R0.249
X31.042 Y-68.969 R0.513
X30.825 Y-68. R0.513
G1 X30.522
X30.388 Y-68.007
X30.267 Y-68.068
X30.169 Y-68.161
X30.097 Y-68.34
X30.091 Y-68.534
X30.154 Y-68.717
X30.276 Y-68.867
X30.443 Y-68.966
X30.633 Y-69.
G3 X30.738 Y-68.973 R0.249
G1 X30.746 Y-68.969
G3 X30.522 Y-68. R0.515
G1 X30.226
X30.091 Y-68.007
X29.971 Y-68.068
X29.872 Y-68.16
X29.8 Y-68.34
X29.795 Y-68.533
X29.857 Y-68.717
X29.979 Y-68.867
X30.146 Y-68.966
X30.337 Y-69.
G3 X30.441 Y-68.973 R0.249
G1 X30.449 Y-68.969
G3 X30.226 Y-68. R0.515
G1 X29.916
X29.781 Y-68.007
X29.663 Y-68.072
X29.567 Y-68.167
X29.498 Y-68.347
X29.496 Y-68.539
X29.56 Y-68.721
X29.683 Y-68.869
X29.849 Y-68.966
X30.038 Y-69.
G3 X30.152 Y-68.968 R0.249
X30.033 Y-68.017 R0.517
X29.916 Y-68. R0.517
G1 X29.619
X29.484 Y-68.007
X29.365 Y-68.071
X29.269 Y-68.165
X29.199 Y-68.345
X29.196 Y-68.538
X29.26 Y-68.72
X29.383 Y-68.869
X29.549 Y-68.966
X29.739 Y-69.
G3 X29.851 Y-68.969 R0.249
X29.619 Y-68. R0.517
G1 X29.311
X29.177 Y-68.007
X29.059 Y-68.074
X28.964 Y-68.17
X28.897 Y-68.35
X28.896 Y-68.542
X28.961 Y-68.723
X29.084 Y-68.87
X29.25 Y-68.967
X29.439 Y-69.
G3 X29.552 Y-68.969 R0.249
G1 X29.557 Y-68.966
G3 X29.428 Y-68.017 R0.519
X29.311 Y-68. R0.519
G1 X29.015
X28.88 Y-68.007
X28.762 Y-68.072
X28.666 Y-68.167
X28.598 Y-68.347
X28.596 Y-68.54
X28.66 Y-68.721
X28.783 Y-68.869
X28.949 Y-68.966
X29.139 Y-69.
G3 X29.253 Y-68.967 R0.249
X29.015 Y-68. R0.518
G1 X28.705
X28.57 Y-68.007
X28.454 Y-68.075
X28.36 Y-68.172
X28.294 Y-68.352
Y-68.544
X28.36 Y-68.724
X28.483 Y-68.871
X28.649 Y-68.967
X28.837 Y-69.
G3 X28.95 Y-68.969 R0.249
X28.959 Y-68.963 R0.249
X28.822 Y-68.017 R0.52
X28.705 Y-68. R0.52
G1 X28.408
X28.273 Y-68.007
X28.156 Y-68.074
X28.061 Y-68.169
X27.994 Y-68.35
X27.993 Y-68.542
X28.058 Y-68.723
X28.181 Y-68.87
X28.347 Y-68.967
X28.536 Y-69.
G3 X28.648 Y-68.969 R0.249
G1 X28.654 Y-68.965
G3 X28.408 Y-68. R0.519
G1 X28.1
X27.966 Y-68.007
X27.85 Y-68.076
X27.756 Y-68.173
X27.69 Y-68.353
X27.691 Y-68.544
X27.756 Y-68.724
X27.879 Y-68.871
X28.045 Y-68.967
X28.234 Y-69.
G3 X28.347 Y-68.969 R0.249
X28.357 Y-68.963 R0.249
X28.1 Y-68. R0.521
G1 X27.804
X27.669 Y-68.007
X27.552 Y-68.073
X27.457 Y-68.169
X27.39 Y-68.35
X27.389 Y-68.542
X27.454 Y-68.723
X27.577 Y-68.87
X27.743 Y-68.967
X27.932 Y-69.
G3 X28.045 Y-68.969 R0.249
G1 X28.051 Y-68.965
G3 X27.804 Y-68. R0.519
G1 X27.494
X27.359 Y-68.007
X27.244 Y-68.077
X27.15 Y-68.174
X27.086 Y-68.354
Y-68.545
X27.152 Y-68.725
X27.276 Y-68.871
X27.442 Y-68.967
X27.63 Y-69.
G3 X27.742 Y-68.969 R0.249
X27.754 Y-68.962 R0.249
X27.494 Y-68. R0.521
G1 X27.197
X27.062 Y-68.007
X26.945 Y-68.074
X26.851 Y-68.171
X26.784 Y-68.351
Y-68.543
X26.849 Y-68.723
X26.973 Y-68.871
X27.139 Y-68.967
X27.328 Y-69.
G3 X27.44 Y-68.969 R0.249
G1 X27.448 Y-68.964
G3 X27.313 Y-68.017 R0.52
X27.197 Y-68. R0.52
G1 X26.923
X26.788 Y-68.007
X26.666 Y-68.065
X26.567 Y-68.157
X26.493 Y-68.336
X26.486 Y-68.53
X26.547 Y-68.715
X26.669 Y-68.866
X26.836 Y-68.965
X27.028 Y-69.
G3 X27.126 Y-68.976 R0.249
X27.14 Y-68.969 R0.513
X26.923 Y-68. R0.513
G1 X26.62
X26.485 Y-68.007
X26.365 Y-68.068
X26.267 Y-68.161
X26.195 Y-68.34
X26.189 Y-68.534
X26.252 Y-68.717
X26.374 Y-68.867
X26.541 Y-68.966
X26.731 Y-69.
G3 X26.836 Y-68.973 R0.249
G1 X26.844 Y-68.969
G3 X26.62 Y-68. R0.515
G1 X26.324
X26.189 Y-68.007
X26.069 Y-68.068
X25.97 Y-68.16
X25.898 Y-68.34
X25.892 Y-68.533
X25.955 Y-68.717
X26.077 Y-68.867
X26.244 Y-68.966
X26.435 Y-69.
G3 X26.538 Y-68.973 R0.249
G1 X26.547 Y-68.969
G3 X26.324 Y-68. R0.515
G1 X26.014
X25.879 Y-68.007
X25.761 Y-68.072
X25.665 Y-68.167
X25.596 Y-68.347
X25.594 Y-68.539
X25.658 Y-68.721
X25.78 Y-68.869
X25.947 Y-68.966
X26.136 Y-69.
G3 X26.25 Y-68.968 R0.249
X26.13 Y-68.017 R0.517
X26.014 Y-68. R0.517
G1 X25.717
X25.582 Y-68.007
X25.463 Y-68.071
X25.367 Y-68.165
X25.297 Y-68.345
X25.294 Y-68.538
X25.358 Y-68.72
X25.481 Y-68.869
X25.647 Y-68.966
X25.837 Y-69.
G3 X25.949 Y-68.969 R0.249
X25.717 Y-68. R0.517
G1 X25.409
X25.274 Y-68.007
X25.157 Y-68.074
X25.062 Y-68.17
X24.995 Y-68.35
X24.994 Y-68.542
X25.059 Y-68.723
X25.182 Y-68.87
X25.348 Y-68.967
X25.537 Y-69.
G3 X25.649 Y-68.969 R0.249
G1 X25.655 Y-68.966
G3 X25.526 Y-68.017 R0.519
X25.409 Y-68. R0.519
G1 X25.113
X24.978 Y-68.007
X24.86 Y-68.072
X24.764 Y-68.167
X24.696 Y-68.347
X24.693 Y-68.54
X24.758 Y-68.721
X24.881 Y-68.869
X25.047 Y-68.966
X25.237 Y-69.
G3 X25.351 Y-68.967 R0.249
X25.113 Y-68. R0.518
G1 X24.803
X24.668 Y-68.007
X24.552 Y-68.075
X24.458 Y-68.172
X24.392 Y-68.352
Y-68.544
X24.457 Y-68.724
X24.581 Y-68.871
X24.747 Y-68.967
X24.935 Y-69.
G3 X25.048 Y-68.969 R0.249
X25.057 Y-68.963 R0.249
X24.919 Y-68.017 R0.52
X24.803 Y-68. R0.52
G1 X24.506
X24.371 Y-68.007
X24.253 Y-68.074
X24.158 Y-68.169
X24.092 Y-68.35
X24.09 Y-68.542
X24.155 Y-68.723
X24.278 Y-68.87
X24.445 Y-68.967
X24.634 Y-69.
G3 X24.746 Y-68.969 R0.249
G1 X24.752 Y-68.965
G3 X24.506 Y-68. R0.519
G1 X24.198
X24.063 Y-68.007
X23.947 Y-68.076
X23.853 Y-68.173
X23.788 Y-68.353
Y-68.544
X23.854 Y-68.724
X23.977 Y-68.871
X24.143 Y-68.967
X24.332 Y-69.
G3 X24.444 Y-68.969 R0.249
X24.454 Y-68.963 R0.249
X24.198 Y-68. R0.521
G1 X23.902
X23.767 Y-68.007
X23.65 Y-68.073
X23.555 Y-68.169
X23.488 Y-68.35
X23.487 Y-68.542
X23.552 Y-68.723
X23.675 Y-68.87
X23.841 Y-68.967
X24.03 Y-69.
G3 X24.143 Y-68.969 R0.249
G1 X24.148 Y-68.965
G3 X23.902 Y-68. R0.519
G1 X23.592
X23.457 Y-68.007
X23.342 Y-68.077
X23.248 Y-68.174
X23.184 Y-68.354
Y-68.545
X23.25 Y-68.725
X23.374 Y-68.871
X23.539 Y-68.967
X23.728 Y-69.
G3 X23.84 Y-68.969 R0.249
X23.852 Y-68.962 R0.249
X23.592 Y-68. R0.521
G1 X23.295
X23.16 Y-68.007
X23.043 Y-68.074
X22.948 Y-68.171
X22.882 Y-68.351
Y-68.543
X22.947 Y-68.723
X23.07 Y-68.871
X23.237 Y-68.967
X23.426 Y-69.
G3 X23.538 Y-68.969 R0.249
G1 X23.546 Y-68.964
G3 X23.411 Y-68.017 R0.52
X23.295 Y-68. R0.52
G1 X23.021
X22.886 Y-68.007
X22.764 Y-68.065
X22.665 Y-68.157
X22.59 Y-68.336
X22.583 Y-68.53
X22.645 Y-68.715
X22.767 Y-68.866
X22.934 Y-68.965
X23.125 Y-69.
G3 X23.224 Y-68.976 R0.249
X23.238 Y-68.969 R0.513
X23.021 Y-68. R0.513
G1 X22.718
X22.583 Y-68.007
X22.463 Y-68.068
X22.365 Y-68.161
X22.292 Y-68.34
X22.287 Y-68.534
X22.349 Y-68.717
X22.472 Y-68.867
X22.639 Y-68.966
X22.829 Y-69.
G3 X22.933 Y-68.973 R0.249
G1 X22.942 Y-68.969
G3 X22.718 Y-68. R0.515
G1 X22.422
X22.287 Y-68.007
X22.166 Y-68.068
X22.068 Y-68.16
X21.996 Y-68.34
X21.99 Y-68.533
X22.053 Y-68.717
X22.175 Y-68.867
X22.342 Y-68.966
X22.532 Y-69.
G3 X22.636 Y-68.973 R0.249
G1 X22.645 Y-68.969
G3 X22.422 Y-68. R0.515
G1 X22.112
X21.977 Y-68.007
X21.859 Y-68.072
X21.763 Y-68.167
X21.694 Y-68.347
X21.692 Y-68.539
X21.756 Y-68.721
X21.878 Y-68.869
X22.045 Y-68.966
X22.234 Y-69.
G3 X22.347 Y-68.968 R0.249
X22.228 Y-68.017 R0.517
X22.112 Y-68. R0.517
G1 X21.814
X21.68 Y-68.007
X21.561 Y-68.071
X21.464 Y-68.165
X21.395 Y-68.345
X21.392 Y-68.538
X21.456 Y-68.72
X21.579 Y-68.869
X21.745 Y-68.966
X21.935 Y-69.
G3 X22.047 Y-68.969 R0.249
X21.814 Y-68. R0.517
G1 X21.507
X21.372 Y-68.007
X21.255 Y-68.074
X21.16 Y-68.17
X21.093 Y-68.35
X21.092 Y-68.542
X21.157 Y-68.723
X21.279 Y-68.87
X21.446 Y-68.967
X21.635 Y-69.
G3 X21.747 Y-68.969 R0.249
G1 X21.753 Y-68.966
G3 X21.623 Y-68.017 R0.519
X21.507 Y-68. R0.519
G1 X21.211
X21.076 Y-68.007
X20.958 Y-68.072
X20.862 Y-68.167
X20.794 Y-68.347
X20.791 Y-68.54
X20.856 Y-68.721
X20.978 Y-68.869
X21.145 Y-68.966
X21.334 Y-69.
G3 X21.449 Y-68.967 R0.249
X21.211 Y-68. R0.518
G1 X20.901
X20.766 Y-68.007
X20.65 Y-68.075
X20.556 Y-68.172
X20.49 Y-68.352
Y-68.544
X20.555 Y-68.724
X20.678 Y-68.871
X20.844 Y-68.967
X21.033 Y-69.
G3 X21.146 Y-68.969 R0.249
X21.155 Y-68.963 R0.249
X21.017 Y-68.017 R0.52
X20.901 Y-68. R0.52
G1 X20.603
X20.469 Y-68.007
X20.351 Y-68.074
X20.256 Y-68.169
X20.189 Y-68.35
X20.188 Y-68.542
X20.253 Y-68.723
X20.376 Y-68.87
X20.543 Y-68.967
X20.732 Y-69.
G3 X20.844 Y-68.969 R0.249
G1 X20.85 Y-68.965
G3 X20.603 Y-68. R0.519
G1 X20.296
X20.161 Y-68.007
X20.045 Y-68.076
X19.951 Y-68.173
X19.886 Y-68.353
Y-68.544
X19.952 Y-68.724
X20.075 Y-68.871
X20.241 Y-68.967
X20.43 Y-69.
G3 X20.542 Y-68.969 R0.249
X20.552 Y-68.963 R0.249
X20.296 Y-68. R0.521
G1 X20.
X19.865 Y-68.007
X19.748 Y-68.073
X19.653 Y-68.169
X19.586 Y-68.35
X19.585 Y-68.542
X19.649 Y-68.723
X19.773 Y-68.87
X19.939 Y-68.967
X20.128 Y-69.
G3 X20.24 Y-68.969 R0.249
G1 X20.246 Y-68.965
G3 X20. Y-68. R0.519
G1 X19.69
X19.555 Y-68.007
X19.44 Y-68.077
X19.346 Y-68.174
X19.281 Y-68.354
X19.282 Y-68.545
X19.348 Y-68.725
X19.471 Y-68.871
X19.637 Y-68.967
X19.826 Y-69.
G3 X19.938 Y-68.969 R0.249
X19.95 Y-68.962 R0.249
X19.69 Y-68. R0.521
G1 X19.392
X19.258 Y-68.007
X19.141 Y-68.074
X19.046 Y-68.171
X18.98 Y-68.351
Y-68.543
X19.045 Y-68.723
X19.168 Y-68.871
X19.334 Y-68.967
X19.523 Y-69.
G3 X19.636 Y-68.969 R0.249
G1 X19.644 Y-68.964
G3 X19.509 Y-68.017 R0.52
X19.392 Y-68. R0.52
G1 X19.118
X18.984 Y-68.007
X18.862 Y-68.065
X18.763 Y-68.157
X18.688 Y-68.336
X18.681 Y-68.53
X18.743 Y-68.715
X18.865 Y-68.866
X19.032 Y-68.965
X19.223 Y-69.
G3 X19.322 Y-68.976 R0.249
X19.336 Y-68.969 R0.513
X19.118 Y-68. R0.513
G1 X18.816
X18.681 Y-68.007
X18.561 Y-68.068
X18.463 Y-68.161
X18.39 Y-68.34
X18.385 Y-68.534
X18.447 Y-68.717
X18.57 Y-68.867
X18.736 Y-68.966
X18.927 Y-69.
G3 X19.031 Y-68.973 R0.249
G1 X19.04 Y-68.969
G3 X18.816 Y-68. R0.515
G1 X18.52
X18.385 Y-68.007
X18.264 Y-68.068
X18.166 Y-68.16
X18.093 Y-68.34
X18.088 Y-68.533
X18.15 Y-68.717
X18.273 Y-68.867
X18.44 Y-68.966
X18.63 Y-69.
G3 X18.734 Y-68.973 R0.249
G1 X18.743 Y-68.969
G3 X18.52 Y-68. R0.515
G1 X18.21
X18.075 Y-68.007
X17.957 Y-68.072
X17.861 Y-68.167
X17.792 Y-68.347
X17.789 Y-68.539
X17.853 Y-68.721
X17.976 Y-68.869
X18.142 Y-68.966
X18.332 Y-69.
G3 X18.445 Y-68.968 R0.249
X18.326 Y-68.017 R0.517
X18.21 Y-68. R0.517
G1 X17.912
X17.777 Y-68.007
X17.659 Y-68.071
X17.562 Y-68.165
X17.493 Y-68.345
X17.49 Y-68.538
X17.554 Y-68.72
X17.676 Y-68.869
X17.843 Y-68.966
X18.033 Y-69.
G3 X18.145 Y-68.969 R0.249
X17.912 Y-68. R0.517
G1 X17.605
X17.47 Y-68.007
X17.353 Y-68.074
X17.258 Y-68.17
X17.191 Y-68.35
X17.19 Y-68.542
X17.254 Y-68.723
X17.377 Y-68.87
X17.543 Y-68.967
X17.733 Y-69.
G3 X17.845 Y-68.969 R0.249
G1 X17.85 Y-68.966
G3 X17.721 Y-68.017 R0.519
X17.605 Y-68. R0.519
G1 X17.309
X17.174 Y-68.007
X17.056 Y-68.072
X16.96 Y-68.167
X16.891 Y-68.347
X16.889 Y-68.54
X16.953 Y-68.721
X17.076 Y-68.869
X17.243 Y-68.966
X17.432 Y-69.
G3 X17.547 Y-68.967 R0.249
X17.309 Y-68. R0.518
G1 X16.999
X16.864 Y-68.007
X16.748 Y-68.075
X16.654 Y-68.172
X16.588 Y-68.352
Y-68.544
X16.653 Y-68.724
X16.776 Y-68.871
X16.942 Y-68.967
X17.131 Y-69.
G3 X17.243 Y-68.969 R0.249
X17.252 Y-68.963 R0.249
X17.115 Y-68.017 R0.52
X16.999 Y-68. R0.52
G1 X16.701
X16.566 Y-68.007
X16.449 Y-68.074
X16.354 Y-68.169
X16.287 Y-68.35
X16.286 Y-68.542
X16.351 Y-68.723
X16.474 Y-68.87
X16.64 Y-68.967
X16.83 Y-69.
G3 X16.942 Y-68.969 R0.249
G1 X16.948 Y-68.965
G3 X16.701 Y-68. R0.519
G1 X16.394
X16.259 Y-68.007
X16.143 Y-68.076
X16.049 Y-68.173
X15.984 Y-68.353
Y-68.544
X16.05 Y-68.724
X16.173 Y-68.871
X16.339 Y-68.967
X16.528 Y-69.
G3 X16.64 Y-68.969 R0.249
X16.65 Y-68.963 R0.249
X16.394 Y-68. R0.521
G1 X16.098
X15.963 Y-68.007
X15.845 Y-68.073
X15.75 Y-68.169
X15.683 Y-68.35
X15.682 Y-68.542
X15.747 Y-68.723
X15.87 Y-68.87
X16.037 Y-68.967
X16.226 Y-69.
G3 X16.338 Y-68.969 R0.249
G1 X16.344 Y-68.965
G3 X16.098 Y-68. R0.519
G1 X15.788
X15.653 Y-68.007
X15.537 Y-68.077
X15.444 Y-68.174
X15.379 Y-68.354
X15.38 Y-68.545
X15.446 Y-68.725
X15.569 Y-68.871
X15.735 Y-68.967
X15.924 Y-69.
G3 X16.036 Y-68.969 R0.249
X16.048 Y-68.962 R0.249
X15.788 Y-68. R0.521
G1 X15.49
X15.355 Y-68.007
X15.239 Y-68.074
X15.144 Y-68.171
X15.078 Y-68.351
Y-68.543
X15.143 Y-68.723
X15.266 Y-68.871
X15.432 Y-68.967
X15.621 Y-69.
G3 X15.734 Y-68.969 R0.249
G1 X15.742 Y-68.964
G3 X15.607 Y-68.017 R0.52
X15.49 Y-68. R0.52
G1 X15.216
X15.081 Y-68.007
X14.96 Y-68.065
X14.86 Y-68.157
X14.786 Y-68.336
X14.779 Y-68.53
X14.841 Y-68.715
X14.963 Y-68.866
X15.13 Y-68.965
X15.321 Y-69.
G3 X15.42 Y-68.976 R0.249
X15.434 Y-68.969 R0.513
X15.216 Y-68. R0.513
G1 X14.914
X14.779 Y-68.007
X14.659 Y-68.068
X14.56 Y-68.161
X14.488 Y-68.34
X14.483 Y-68.534
X14.545 Y-68.717
X14.667 Y-68.867
X14.834 Y-68.966
X15.025 Y-69.
G3 X15.129 Y-68.973 R0.249
G1 X15.137 Y-68.969
G3 X14.914 Y-68. R0.515
G1 X14.617
X14.483 Y-68.007
X14.362 Y-68.068
X14.264 Y-68.16
X14.191 Y-68.34
X14.186 Y-68.533
X14.248 Y-68.717
X14.37 Y-68.867
X14.537 Y-68.966
X14.728 Y-69.
G3 X14.832 Y-68.973 R0.249
G1 X14.841 Y-68.969
G3 X14.617 Y-68. R0.515
G1 X14.308
X14.173 Y-68.007
X14.055 Y-68.072
X13.959 Y-68.167
X13.89 Y-68.347
X13.887 Y-68.539
X13.951 Y-68.721
X14.074 Y-68.869
X14.24 Y-68.966
X14.43 Y-69.
G3 X14.543 Y-68.968 R0.249
X14.424 Y-68.017 R0.517
X14.308 Y-68. R0.517
G1 X14.01
X13.875 Y-68.007
X13.757 Y-68.071
X13.66 Y-68.165
X13.591 Y-68.345
X13.588 Y-68.538
X13.652 Y-68.72
X13.774 Y-68.869
X13.941 Y-68.966
X14.131 Y-69.
G3 X14.243 Y-68.969 R0.249
X14.01 Y-68. R0.517
G1 X13.703
X13.568 Y-68.007
X13.451 Y-68.074
X13.356 Y-68.17
X13.289 Y-68.35
X13.287 Y-68.542
X13.352 Y-68.723
X13.475 Y-68.87
X13.641 Y-68.967
X13.83 Y-69.
G3 X13.943 Y-68.969 R0.249
G1 X13.948 Y-68.966
G3 X13.819 Y-68.017 R0.519
X13.703 Y-68. R0.519
G1 X13.406
X13.272 Y-68.007
X13.153 Y-68.072
X13.058 Y-68.167
X12.989 Y-68.347
X12.987 Y-68.54
X13.051 Y-68.721
X13.174 Y-68.869
X13.341 Y-68.966
X13.53 Y-69.
G3 X13.645 Y-68.967 R0.249
X13.406 Y-68. R0.518
G1 X13.097
X12.962 Y-68.007
X12.846 Y-68.075
X12.751 Y-68.172
X12.686 Y-68.352
Y-68.544
X12.751 Y-68.724
X12.874 Y-68.871
X13.04 Y-68.967
X13.229 Y-69.
G3 X13.341 Y-68.969 R0.249
X13.35 Y-68.963 R0.249
X13.213 Y-68.017 R0.52
X13.097 Y-68. R0.52
G1 X12.799
X12.664 Y-68.007
X12.547 Y-68.074
X12.452 Y-68.169
X12.385 Y-68.35
X12.384 Y-68.542
X12.449 Y-68.723
X12.572 Y-68.87
X12.738 Y-68.967
X12.927 Y-69.
G3 X13.04 Y-68.969 R0.249
G1 X13.046 Y-68.965
G3 X12.799 Y-68. R0.519
G1 X12.492
X12.357 Y-68.007
X12.241 Y-68.076
X12.147 Y-68.173
X12.082 Y-68.353
Y-68.544
X12.148 Y-68.724
X12.271 Y-68.871
X12.437 Y-68.967
X12.625 Y-69.
G3 X12.738 Y-68.969 R0.249
X12.748 Y-68.963 R0.249
X12.492 Y-68. R0.521
G1 X12.195
X12.061 Y-68.007
X11.943 Y-68.073
X11.848 Y-68.169
X11.781 Y-68.35
X11.78 Y-68.542
X11.845 Y-68.723
X11.968 Y-68.87
X12.134 Y-68.967
X12.324 Y-69.
G3 X12.436 Y-68.969 R0.249
G1 X12.442 Y-68.965
G3 X12.195 Y-68. R0.519
G1 X11.886
X11.751 Y-68.007
X11.635 Y-68.077
X11.542 Y-68.174
X11.477 Y-68.354
X11.478 Y-68.545
X11.544 Y-68.725
X11.667 Y-68.871
X11.833 Y-68.967
X12.021 Y-69.
G3 X12.134 Y-68.969 R0.249
X12.146 Y-68.962 R0.249
X11.886 Y-68. R0.521
G1 X11.588
X11.453 Y-68.007
X11.336 Y-68.074
X11.242 Y-68.171
X11.176 Y-68.351
X11.175 Y-68.543
X11.241 Y-68.723
X11.364 Y-68.871
X11.53 Y-68.967
X11.719 Y-69.
G3 X11.832 Y-68.969 R0.249
G1 X11.839 Y-68.964
G3 X11.704 Y-68.017 R0.52
X11.588 Y-68. R0.52
G1 X11.314
X11.179 Y-68.007
X11.057 Y-68.065
X10.958 Y-68.157
X10.884 Y-68.336
X10.877 Y-68.53
X10.938 Y-68.715
X11.06 Y-68.866
X11.228 Y-68.965
X11.419 Y-69.
G3 X11.518 Y-68.976 R0.249
X11.531 Y-68.969 R0.513
X11.314 Y-68. R0.513
G1 X11.012
X10.877 Y-68.007
X10.757 Y-68.068
X10.658 Y-68.161
X10.586 Y-68.34
X10.581 Y-68.534
X10.643 Y-68.717
X10.765 Y-68.867
X10.932 Y-68.966
X11.123 Y-69.
G3 X11.227 Y-68.973 R0.249
G1 X11.235 Y-68.969
G3 X11.012 Y-68. R0.515
G1 X10.715
X10.58 Y-68.007
X10.46 Y-68.068
X10.362 Y-68.16
X10.289 Y-68.34
X10.284 Y-68.533
X10.346 Y-68.717
X10.468 Y-68.867
X10.635 Y-68.966
X10.826 Y-69.
G3 X10.93 Y-68.973 R0.249
G1 X10.938 Y-68.969
G3 X10.715 Y-68. R0.515
G1 X10.405
X10.271 Y-68.007
X10.153 Y-68.072
X10.056 Y-68.167
X9.988 Y-68.347
X9.985 Y-68.539
X10.049 Y-68.721
X10.172 Y-68.869
X10.338 Y-68.966
X10.528 Y-69.
G3 X10.641 Y-68.968 R0.249
X10.522 Y-68.017 R0.517
X10.405 Y-68. R0.517
G1 X10.108
X9.973 Y-68.007
X9.854 Y-68.071
X9.758 Y-68.165
X9.689 Y-68.345
X9.686 Y-68.538
X9.749 Y-68.72
X9.872 Y-68.869
X10.039 Y-68.966
X10.228 Y-69.
G3 X10.34 Y-68.969 R0.249
X10.108 Y-68. R0.517
G1 X9.801
X9.666 Y-68.007
X9.549 Y-68.074
X9.454 Y-68.17
X9.386 Y-68.35
X9.385 Y-68.542
X9.45 Y-68.723
X9.573 Y-68.87
X9.739 Y-68.967
X9.928 Y-69.
G3 X10.041 Y-68.969 R0.249
G1 X10.046 Y-68.966
G3 X9.917 Y-68.017 R0.519
X9.801 Y-68. R0.519
G1 X9.504
X9.369 Y-68.007
X9.251 Y-68.072
X9.155 Y-68.167
X9.087 Y-68.347
X9.085 Y-68.54
X9.149 Y-68.721
X9.272 Y-68.869
X9.438 Y-68.966
X9.628 Y-69.
G3 X9.743 Y-68.967 R0.249
X9.504 Y-68. R0.518
G1 X9.194
X9.06 Y-68.007
X8.943 Y-68.075
X8.849 Y-68.172
X8.784 Y-68.352
X8.783 Y-68.544
X8.849 Y-68.724
X8.972 Y-68.871
X9.138 Y-68.967
X9.327 Y-69.
G3 X9.439 Y-68.969 R0.249
X9.448 Y-68.963 R0.249
X9.311 Y-68.017 R0.52
X9.194 Y-68. R0.52
G1 X8.897
X8.762 Y-68.007
X8.645 Y-68.074
X8.55 Y-68.169
X8.483 Y-68.35
X8.482 Y-68.542
X8.547 Y-68.723
X8.67 Y-68.87
X8.836 Y-68.967
X9.025 Y-69.
G3 X9.138 Y-68.969 R0.249
G1 X9.144 Y-68.965
G3 X8.897 Y-68. R0.519
G1 X8.59
X8.455 Y-68.007
X8.339 Y-68.076
X8.245 Y-68.173
X8.18 Y-68.353
Y-68.544
X8.245 Y-68.724
X8.369 Y-68.871
X8.535 Y-68.967
X8.723 Y-69.
G3 X8.836 Y-68.969 R0.249
X8.846 Y-68.963 R0.249
X8.59 Y-68. R0.521
G1 X8.293
X8.158 Y-68.007
X8.041 Y-68.073
X7.946 Y-68.169
X7.879 Y-68.35
X7.878 Y-68.542
X7.943 Y-68.723
X8.066 Y-68.87
X8.232 Y-68.967
X8.422 Y-69.
G3 X8.534 Y-68.969 R0.249
G1 X8.54 Y-68.965
G3 X8.293 Y-68. R0.519
G1 X7.983
X7.849 Y-68.007
X7.733 Y-68.077
X7.64 Y-68.174
X7.575 Y-68.354
X7.576 Y-68.545
X7.642 Y-68.725
X7.765 Y-68.871
X7.931 Y-68.967
X8.119 Y-69.
G3 X8.232 Y-68.969 R0.249
X8.243 Y-68.962 R0.249
X7.983 Y-68. R0.521
G1 X7.686
X7.551 Y-68.007
X7.434 Y-68.074
X7.34 Y-68.171
X7.274 Y-68.351
X7.273 Y-68.543
X7.339 Y-68.723
X7.462 Y-68.871
X7.628 Y-68.967
X7.817 Y-69.
G3 X7.929 Y-68.969 R0.249
G1 X7.937 Y-68.964
G3 X7.802 Y-68.017 R0.52
X7.686 Y-68. R0.52
G1 X7.412
X7.277 Y-68.007
X7.155 Y-68.065
X7.056 Y-68.157
X6.982 Y-68.336
X6.975 Y-68.53
X7.036 Y-68.715
X7.158 Y-68.866
X7.325 Y-68.965
X7.517 Y-69.
G3 X7.616 Y-68.976 R0.249
X7.629 Y-68.969 R0.513
X7.412 Y-68. R0.513
G1 X7.11
X6.975 Y-68.007
X6.854 Y-68.068
X6.756 Y-68.161
X6.684 Y-68.34
X6.678 Y-68.534
X6.741 Y-68.717
X6.863 Y-68.867
X7.03 Y-68.966
X7.221 Y-69.
G3 X7.325 Y-68.973 R0.249
G1 X7.333 Y-68.969
G3 X7.11 Y-68. R0.515
G1 X6.813
X6.678 Y-68.007
X6.558 Y-68.068
X6.459 Y-68.16
X6.387 Y-68.34
X6.382 Y-68.533
X6.444 Y-68.717
X6.566 Y-68.867
X6.733 Y-68.966
X6.924 Y-69.
G3 X7.028 Y-68.973 R0.249
G1 X7.036 Y-68.969
G3 X6.813 Y-68. R0.515
G1 X6.503
X6.369 Y-68.007
X6.25 Y-68.072
X6.154 Y-68.167
X6.085 Y-68.347
X6.083 Y-68.539
X6.147 Y-68.721
X6.27 Y-68.869
X6.436 Y-68.966
X6.625 Y-69.
G3 X6.739 Y-68.968 R0.249
X6.62 Y-68.017 R0.517
X6.503 Y-68. R0.517
G1 X6.206
X6.071 Y-68.007
X5.952 Y-68.071
X5.856 Y-68.165
X5.786 Y-68.345
X5.784 Y-68.538
X5.847 Y-68.72
X5.97 Y-68.869
X6.136 Y-68.966
X6.326 Y-69.
G3 X6.438 Y-68.969 R0.249
X6.206 Y-68. R0.517
G1 X5.898
X5.764 Y-68.007
X5.647 Y-68.074
X5.551 Y-68.17
X5.484 Y-68.35
X5.483 Y-68.542
X5.548 Y-68.723
X5.671 Y-68.87
X5.837 Y-68.967
X6.026 Y-69.
G3 X6.139 Y-68.969 R0.249
G1 X6.144 Y-68.966
G3 X6.015 Y-68.017 R0.519
X5.898 Y-68. R0.519
G1 X5.602
X5.467 Y-68.007
X5.349 Y-68.072
X5.253 Y-68.167
X5.185 Y-68.347
X5.183 Y-68.54
X5.247 Y-68.721
X5.37 Y-68.869
X5.536 Y-68.966
X5.726 Y-69.
G3 X5.84 Y-68.967 R0.249
X5.602 Y-68. R0.518
G1 X5.292
X5.157 Y-68.007
X5.041 Y-68.075
X4.947 Y-68.172
X4.881 Y-68.352
Y-68.544
X4.947 Y-68.724
X5.07 Y-68.871
X5.236 Y-68.967
X5.425 Y-69.
G3 X5.537 Y-68.969 R0.249
X5.546 Y-68.963 R0.249
X5.409 Y-68.017 R0.52
X5.292 Y-68. R0.52
G1 X4.995
X4.86 Y-68.007
X4.743 Y-68.074
X4.648 Y-68.169
X4.581 Y-68.35
X4.58 Y-68.542
X4.645 Y-68.723
X4.768 Y-68.87
X4.934 Y-68.967
X5.123 Y-69.
G3 X5.236 Y-68.969 R0.249
G1 X5.241 Y-68.965
G3 X4.995 Y-68. R0.519
G1 X4.687
X4.553 Y-68.007
X4.437 Y-68.076
X4.343 Y-68.173
X4.277 Y-68.353
X4.278 Y-68.544
X4.343 Y-68.724
X4.467 Y-68.871
X4.632 Y-68.967
X4.821 Y-69.
G3 X4.934 Y-68.969 R0.249
X4.944 Y-68.963 R0.249
X4.687 Y-68. R0.521
G1 X4.391
X4.256 Y-68.007
X4.139 Y-68.073
X4.044 Y-68.169
X3.977 Y-68.35
X3.976 Y-68.542
X4.041 Y-68.723
X4.164 Y-68.87
X4.33 Y-68.967
X4.519 Y-69.
G3 X4.632 Y-68.969 R0.249
G1 X4.638 Y-68.965
G3 X4.391 Y-68. R0.519
G1 X4.081
X3.946 Y-68.007
X3.831 Y-68.077
X3.737 Y-68.174
X3.673 Y-68.354
Y-68.545
X3.739 Y-68.725
X3.863 Y-68.871
X4.029 Y-68.967
X4.217 Y-69.
G3 X4.33 Y-68.969 R0.249
X4.341 Y-68.962 R0.249
X4.081 Y-68. R0.521
G1 X3.784
X3.649 Y-68.007
X3.532 Y-68.074
X3.438 Y-68.171
X3.372 Y-68.351
X3.371 Y-68.543
X3.436 Y-68.723
X3.56 Y-68.871
X3.726 Y-68.967
X3.915 Y-69.
G3 X4.027 Y-68.969 R0.249
G1 X4.035 Y-68.964
G3 X3.9 Y-68.017 R0.52
X3.784 Y-68. R0.52
G1 X3.51
X3.375 Y-68.007
X3.253 Y-68.065
X3.154 Y-68.157
X3.08 Y-68.336
X3.073 Y-68.53
X3.134 Y-68.715
X3.256 Y-68.866
X3.423 Y-68.965
X3.615 Y-69.
G3 X3.714 Y-68.976 R0.249
X3.727 Y-68.969 R0.513
X3.51 Y-68. R0.513
G1 X3.207
X3.073 Y-68.007
X2.952 Y-68.068
X2.854 Y-68.161
X2.782 Y-68.34
X2.776 Y-68.534
X2.839 Y-68.717
X2.961 Y-68.867
X3.128 Y-68.966
X3.318 Y-69.
G3 X3.423 Y-68.973 R0.249
G1 X3.431 Y-68.969
G3 X3.207 Y-68. R0.515
G1 X2.911
X2.776 Y-68.007
X2.656 Y-68.068
X2.557 Y-68.16
X2.485 Y-68.34
X2.479 Y-68.533
X2.542 Y-68.717
X2.664 Y-68.867
X2.831 Y-68.966
X3.022 Y-69.
G3 X3.126 Y-68.973 R0.249
G1 X3.134 Y-68.969
G3 X2.911 Y-68. R0.515
G1 X2.601
X2.466 Y-68.007
X2.348 Y-68.072
X2.252 Y-68.167
X2.183 Y-68.347
X2.181 Y-68.539
X2.245 Y-68.721
X2.367 Y-68.869
X2.534 Y-68.966
X2.723 Y-69.
G3 X2.837 Y-68.968 R0.249
X2.717 Y-68.017 R0.517
X2.601 Y-68. R0.517
G1 X2.304
X2.169 Y-68.007
X2.05 Y-68.071
X1.954 Y-68.165
X1.884 Y-68.345
X1.881 Y-68.538
X1.945 Y-68.72
X2.068 Y-68.869
X2.234 Y-68.966
X2.424 Y-69.
G3 X2.536 Y-68.969 R0.249
X2.304 Y-68. R0.517
G1 X1.996
X1.862 Y-68.007
X1.744 Y-68.074
X1.649 Y-68.17
X1.582 Y-68.35
X1.581 Y-68.542
X1.646 Y-68.723
X1.769 Y-68.87
X1.935 Y-68.967
X2.124 Y-69.
G3 X2.236 Y-68.969 R0.249
G1 X2.242 Y-68.966
G3 X2.113 Y-68.017 R0.519
X1.996 Y-68. R0.519
G1 X1.7
X1.565 Y-68.007
X1.447 Y-68.072
X1.351 Y-68.167
X1.283 Y-68.347
X1.281 Y-68.54
X1.345 Y-68.721
X1.468 Y-68.869
X1.634 Y-68.966
X1.824 Y-69.
G3 X1.938 Y-68.967 R0.249
X1.7 Y-68. R0.518
G1 X1.39
X1.255 Y-68.007
X1.139 Y-68.075
X1.045 Y-68.172
X0.979 Y-68.352
Y-68.544
X1.045 Y-68.724
X1.168 Y-68.871
X1.334 Y-68.967
X1.522 Y-69.
G3 X1.635 Y-68.969 R0.249
X1.644 Y-68.963 R0.249
X1.506 Y-68.017 R0.52
X1.39 Y-68. R0.52
G1 X1.093
X0.958 Y-68.007
X0.84 Y-68.074
X0.746 Y-68.169
X0.679 Y-68.35
X0.678 Y-68.542
X0.742 Y-68.723
X0.866 Y-68.87
X1.032 Y-68.967
X1.221 Y-69.
G3 X1.333 Y-68.969 R0.249
G1 X1.339 Y-68.965
G3 X1.093 Y-68. R0.519
G1 X0.785
X0.651 Y-68.007
X0.534 Y-68.076
X0.441 Y-68.173
X0.375 Y-68.353
Y-68.544
X0.441 Y-68.724
X0.564 Y-68.871
X0.73 Y-68.967
X0.919 Y-69.
G3 X1.031 Y-68.969 R0.249
X1.042 Y-68.963 R0.249
X0.785 Y-68. R0.521
G1 X0.489
X0.354 Y-68.007
X0.237 Y-68.073
X0.142 Y-68.169
X0.075 Y-68.35
X0.074 Y-68.542
X0.139 Y-68.723
X0.262 Y-68.87
X0.428 Y-68.967
X0.617 Y-69.
G3 X0.73 Y-68.969 R0.249
G1 X0.736 Y-68.965
G3 X0.489 Y-68. R0.519
G1 X0.179
X0.044 Y-68.007
X-0.071 Y-68.077
X-0.165 Y-68.174
X-0.229 Y-68.354
Y-68.545
X-0.163 Y-68.725
X-0.039 Y-68.871
X0.126 Y-68.967
X0.315 Y-69.
G3 X0.427 Y-68.969 R0.249
X0.439 Y-68.962 R0.249
X0.179 Y-68. R0.521
G1 X-0.118
X-0.253 Y-68.007
X-0.37 Y-68.074
X-0.464 Y-68.171
X-0.531 Y-68.351
Y-68.543
X-0.466 Y-68.723
X-0.343 Y-68.871
X-0.176 Y-68.967
X0.013 Y-69.
G3 X0.125 Y-68.969 R0.249
G1 X0.133 Y-68.964
G3 X-0.002 Y-68.017 R0.52
X-0.118 Y-68. R0.52
G1 X-0.392
X-0.527 Y-68.007
X-0.649 Y-68.065
X-0.748 Y-68.157
X-0.823 Y-68.336
X-0.829 Y-68.53
X-0.768 Y-68.715
X-0.646 Y-68.866
X-0.479 Y-68.965
X-0.288 Y-69.
G3 X-0.189 Y-68.976 R0.249
X-0.175 Y-68.969 R0.513
X-0.392 Y-68. R0.513
G1 X-0.695
X-0.83 Y-68.007
X-0.95 Y-68.068
X-1.048 Y-68.161
X-1.121 Y-68.34
X-1.126 Y-68.534
X-1.063 Y-68.717
X-0.941 Y-68.867
X-0.774 Y-68.966
X-0.584 Y-69.
G3 X-0.479 Y-68.973 R0.249
G1 X-0.471 Y-68.969
G3 X-0.695 Y-68. R0.515
G1 X-0.991
X-1.126 Y-68.007
X-1.246 Y-68.068
X-1.345 Y-68.16
X-1.417 Y-68.34
X-1.423 Y-68.533
X-1.36 Y-68.717
X-1.238 Y-68.867
X-1.071 Y-68.966
X-0.881 Y-69.
G3 X-0.777 Y-68.973 R0.249
G1 X-0.768 Y-68.969
G3 X-0.991 Y-68. R0.515
G1 X-1.301
X-1.436 Y-68.007
X-1.554 Y-68.072
X-1.65 Y-68.167
X-1.719 Y-68.347
X-1.721 Y-68.539
X-1.657 Y-68.721
X-1.535 Y-68.869
X-1.368 Y-68.966
X-1.179 Y-69.
G3 X-1.065 Y-68.968 R0.249
X-1.185 Y-68.017 R0.517
X-1.301 Y-68. R0.517
G1 X-1.598
X-1.733 Y-68.007
X-1.852 Y-68.071
X-1.949 Y-68.165
X-2.018 Y-68.345
X-2.021 Y-68.538
X-1.957 Y-68.72
X-1.834 Y-68.869
X-1.668 Y-68.966
X-1.478 Y-69.
G3 X-1.366 Y-68.969 R0.249
X-1.598 Y-68. R0.517
G1 X-1.906
X-2.041 Y-68.007
X-2.158 Y-68.074
X-2.253 Y-68.17
X-2.32 Y-68.35
X-2.321 Y-68.542
X-2.256 Y-68.723
X-2.133 Y-68.87
X-1.967 Y-68.967
X-1.778 Y-69.
G3 X-1.666 Y-68.969 R0.249
G1 X-1.66 Y-68.966
G3 X-1.79 Y-68.017 R0.519
X-1.906 Y-68. R0.519
G1 X-2.202
X-2.337 Y-68.007
X-2.455 Y-68.072
X-2.551 Y-68.167
X-2.619 Y-68.347
X-2.622 Y-68.54
X-2.557 Y-68.721
X-2.434 Y-68.869
X-2.268 Y-68.966
X-2.078 Y-69.
G3 X-1.964 Y-68.967 R0.249
X-2.202 Y-68. R0.518
G1 X-2.512
X-2.647 Y-68.007
X-2.763 Y-68.075
X-2.857 Y-68.172
X-2.923 Y-68.352
Y-68.544
X-2.858 Y-68.724
X-2.734 Y-68.871
X-2.568 Y-68.967
X-2.38 Y-69.
G3 X-2.267 Y-68.969 R0.249
X-2.258 Y-68.963 R0.249
X-2.396 Y-68.017 R0.52
X-2.512 Y-68. R0.52
G1 X-2.809
X-2.944 Y-68.007
X-3.062 Y-68.074
X-3.157 Y-68.169
X-3.224 Y-68.35
X-3.225 Y-68.542
X-3.16 Y-68.723
X-3.037 Y-68.87
X-2.87 Y-68.967
X-2.681 Y-69.
G3 X-2.569 Y-68.969 R0.249
G1 X-2.563 Y-68.965
G3 X-2.809 Y-68. R0.519
G1 X-3.117
X-3.252 Y-68.007
X-3.368 Y-68.076
X-3.462 Y-68.173
X-3.527 Y-68.353
Y-68.544
X-3.461 Y-68.724
X-3.338 Y-68.871
X-3.172 Y-68.967
X-2.983 Y-69.
G3 X-2.871 Y-68.969 R0.249
X-2.861 Y-68.963 R0.249
X-3.117 Y-68. R0.521
G1 X-3.413
X-3.548 Y-68.007
X-3.665 Y-68.073
X-3.76 Y-68.169
X-3.827 Y-68.35
X-3.828 Y-68.542
X-3.763 Y-68.723
X-3.64 Y-68.87
X-3.474 Y-68.967
X-3.285 Y-69.
G3 X-3.172 Y-68.969 R0.249
G1 X-3.167 Y-68.965
G3 X-3.413 Y-68. R0.519
G1 X-3.723
X-3.858 Y-68.007
X-3.973 Y-68.077
X-4.067 Y-68.174
X-4.132 Y-68.354
X-4.131 Y-68.545
X-4.065 Y-68.725
X-3.942 Y-68.871
X-3.776 Y-68.967
X-3.587 Y-69.
G3 X-3.475 Y-68.969 R0.249
X-3.463 Y-68.962 R0.249
X-3.723 Y-68. R0.521
G1 X-4.021
X-4.155 Y-68.007
X-4.272 Y-68.074
X-4.367 Y-68.171
X-4.433 Y-68.351
Y-68.543
X-4.368 Y-68.723
X-4.245 Y-68.871
X-4.079 Y-68.967
X-3.89 Y-69.
G3 X-3.777 Y-68.969 R0.249
G1 X-3.769 Y-68.964
G3 X-3.904 Y-68.017 R0.52
X-4.021 Y-68. R0.52
G1 X-4.295
X-4.429 Y-68.007
X-4.551 Y-68.065
X-4.65 Y-68.157
X-4.725 Y-68.336
X-4.732 Y-68.53
X-4.67 Y-68.715
X-4.548 Y-68.866
X-4.381 Y-68.965
X-4.19 Y-69.
G3 X-4.091 Y-68.976 R0.249
X-4.077 Y-68.969 R0.513
X-4.295 Y-68. R0.513
G1 X-4.597
X-4.732 Y-68.007
X-4.852 Y-68.068
X-4.95 Y-68.161
X-5.023 Y-68.34
X-5.028 Y-68.534
X-4.966 Y-68.717
X-4.843 Y-68.867
X-4.677 Y-68.966
X-4.486 Y-69.
G3 X-4.382 Y-68.973 R0.249
G1 X-4.373 Y-68.969
G3 X-4.597 Y-68. R0.515
G1 X-4.893
X-5.028 Y-68.007
X-5.149 Y-68.068
X-5.247 Y-68.16
X-5.319 Y-68.34
X-5.325 Y-68.533
X-5.263 Y-68.717
X-5.14 Y-68.867
X-4.973 Y-68.966
X-4.783 Y-69.
G3 X-4.679 Y-68.973 R0.249
X-4.893 Y-68. R0.515
G1 X-5.203
X-5.338 Y-68.007
X-5.456 Y-68.072
X-5.552 Y-68.167
X-5.621 Y-68.347
X-5.624 Y-68.539
X-5.56 Y-68.721
X-5.437 Y-68.869
X-5.271 Y-68.966
X-5.081 Y-69.
G3 X-4.968 Y-68.968 R0.249
X-5.087 Y-68.017 R0.517
X-5.203 Y-68. R0.517
G1 X-5.501
X-5.635 Y-68.007
X-5.754 Y-68.071
X-5.851 Y-68.165
X-5.92 Y-68.345
X-5.923 Y-68.538
X-5.859 Y-68.72
X-5.736 Y-68.869
X-5.57 Y-68.966
X-5.38 Y-69.
G3 X-5.268 Y-68.969 R0.249
X-5.501 Y-68. R0.517
G1 X-5.808
X-5.943 Y-68.007
X-6.06 Y-68.074
X-6.155 Y-68.17
X-6.222 Y-68.35
X-6.223 Y-68.542
X-6.159 Y-68.723
X-6.036 Y-68.87
X-5.869 Y-68.967
X-5.68 Y-69.
G3 X-5.568 Y-68.969 R0.249
G1 X-5.562 Y-68.966
G3 X-5.692 Y-68.017 R0.519
X-5.808 Y-68. R0.519
G1 X-6.104
X-6.239 Y-68.007
X-6.357 Y-68.072
X-6.453 Y-68.167
X-6.522 Y-68.347
X-6.524 Y-68.54
X-6.459 Y-68.721
X-6.337 Y-68.869
X-6.17 Y-68.966
X-5.981 Y-69.
G3 X-5.866 Y-68.967 R0.249
X-6.104 Y-68. R0.518
G1 X-6.414
X-6.549 Y-68.007
X-6.665 Y-68.075
X-6.759 Y-68.172
X-6.825 Y-68.352
Y-68.544
X-6.76 Y-68.724
X-6.637 Y-68.871
X-6.471 Y-68.967
X-6.282 Y-69.
G3 X-6.169 Y-68.969 R0.249
X-6.16 Y-68.963 R0.249
X-6.298 Y-68.017 R0.52
X-6.414 Y-68. R0.52
G1 X-6.712
X-6.846 Y-68.007
X-6.964 Y-68.074
X-7.059 Y-68.169
X-7.126 Y-68.35
X-7.127 Y-68.542
X-7.062 Y-68.723
X-6.939 Y-68.87
X-6.773 Y-68.967
X-6.583 Y-69.
G3 X-6.471 Y-68.969 R0.249
G1 X-6.465 Y-68.965
G3 X-6.712 Y-68. R0.519
G1 X-7.019
X-7.154 Y-68.007
X-7.27 Y-68.076
X-7.364 Y-68.173
X-7.429 Y-68.353
Y-68.544
X-7.363 Y-68.724
X-7.24 Y-68.871
X-7.074 Y-68.967
X-6.885 Y-69.
G3 X-6.773 Y-68.969 R0.249
X-6.763 Y-68.963 R0.249
X-7.019 Y-68. R0.521
G1 X-7.315
X-7.45 Y-68.007
X-7.568 Y-68.073
X-7.663 Y-68.169
X-7.729 Y-68.35
X-7.731 Y-68.542
X-7.666 Y-68.723
X-7.543 Y-68.87
X-7.376 Y-68.967
X-7.187 Y-69.
G3 X-7.075 Y-68.969 R0.249
G1 X-7.069 Y-68.965
G3 X-7.315 Y-68. R0.519
G1 X-7.625
X-7.76 Y-68.007
X-7.876 Y-68.077
X-7.969 Y-68.174
X-8.034 Y-68.354
X-8.033 Y-68.545
X-7.967 Y-68.725
X-7.844 Y-68.871
X-7.678 Y-68.967
X-7.489 Y-69.
G3 X-7.377 Y-68.969 R0.249
X-7.365 Y-68.962 R0.249
X-7.625 Y-68. R0.521
G1 X-7.923
X-8.057 Y-68.007
X-8.174 Y-68.074
X-8.269 Y-68.171
X-8.335 Y-68.351
Y-68.543
X-8.27 Y-68.723
X-8.147 Y-68.871
X-7.981 Y-68.967
X-7.792 Y-69.
G3 X-7.679 Y-68.969 R0.249
G1 X-7.671 Y-68.964
G3 X-7.806 Y-68.017 R0.52
X-7.923 Y-68. R0.52
G1 X-8.197
X-8.332 Y-68.007
X-8.453 Y-68.065
X-8.552 Y-68.157
X-8.627 Y-68.336
X-8.634 Y-68.53
X-8.572 Y-68.715
X-8.45 Y-68.866
X-8.283 Y-68.965
X-8.092 Y-69.
G3 X-7.993 Y-68.976 R0.249
X-7.979 Y-68.969 R0.513
X-8.197 Y-68. R0.513
G1 X-8.499
X-8.634 Y-68.007
X-8.754 Y-68.068
X-8.853 Y-68.161
X-8.925 Y-68.34
X-8.93 Y-68.534
X-8.868 Y-68.717
X-8.746 Y-68.867
X-8.579 Y-68.966
X-8.388 Y-69.
G3 X-8.284 Y-68.973 R0.249
G1 X-8.276 Y-68.969
G3 X-8.499 Y-68. R0.515
G1 X-8.795
X-8.93 Y-68.007
X-9.051 Y-68.068
X-9.149 Y-68.16
X-9.222 Y-68.34
X-9.227 Y-68.533
X-9.165 Y-68.717
X-9.042 Y-68.867
X-8.876 Y-68.966
X-8.685 Y-69.
G3 X-8.581 Y-68.973 R0.249
X-8.795 Y-68. R0.515
G1 X-9.105
X-9.24 Y-68.007
X-9.358 Y-68.072
X-9.454 Y-68.167
X-9.523 Y-68.347
X-9.526 Y-68.539
X-9.462 Y-68.721
X-9.339 Y-68.869
X-9.173 Y-68.966
X-8.983 Y-69.
G3 X-8.87 Y-68.968 R0.249
X-8.989 Y-68.017 R0.517
X-9.105 Y-68. R0.517
G1 X-9.403
X-9.538 Y-68.007
X-9.656 Y-68.071
X-9.753 Y-68.165
X-9.822 Y-68.345
X-9.825 Y-68.538
X-9.761 Y-68.72
X-9.639 Y-68.869
X-9.472 Y-68.966
X-9.282 Y-69.
G3 X-9.17 Y-68.969 R0.249
X-9.403 Y-68. R0.517
G1 X-9.71
X-9.845 Y-68.007
X-9.962 Y-68.074
X-10.057 Y-68.17
X-10.124 Y-68.35
X-10.125 Y-68.542
X-10.061 Y-68.723
X-9.938 Y-68.87
X-9.772 Y-68.967
X-9.582 Y-69.
G3 X-9.47 Y-68.969 R0.249
G1 X-9.465 Y-68.966
G3 X-9.594 Y-68.017 R0.519
X-9.71 Y-68. R0.519
G1 X-10.006
X-10.141 Y-68.007
X-10.26 Y-68.072
X-10.355 Y-68.167
X-10.424 Y-68.347
X-10.426 Y-68.54
X-10.362 Y-68.721
X-10.239 Y-68.869
X-10.072 Y-68.966
X-9.883 Y-69.
G3 X-9.768 Y-68.967 R0.249
X-10.006 Y-68. R0.518
G1 X-10.316
X-10.451 Y-68.007
X-10.567 Y-68.075
X-10.662 Y-68.172
X-10.727 Y-68.352
Y-68.544
X-10.662 Y-68.724
X-10.539 Y-68.871
X-10.373 Y-68.967
X-10.184 Y-69.
G3 X-10.072 Y-68.969 R0.249
X-10.063 Y-68.963 R0.249
X-10.2 Y-68.017 R0.52
X-10.316 Y-68. R0.52
G1 X-10.614
X-10.749 Y-68.007
X-10.866 Y-68.074
X-10.961 Y-68.169
X-11.028 Y-68.35
X-11.029 Y-68.542
X-10.964 Y-68.723
X-10.841 Y-68.87
X-10.675 Y-68.967
X-10.486 Y-69.
G3 X-10.373 Y-68.969 R0.249
G1 X-10.367 Y-68.965
G3 X-10.614 Y-68. R0.519
G1 X-10.921
X-11.056 Y-68.007
X-11.172 Y-68.076
X-11.266 Y-68.173
X-11.331 Y-68.353
Y-68.544
X-11.265 Y-68.724
X-11.142 Y-68.871
X-10.976 Y-68.967
X-10.787 Y-69.
G3 X-10.675 Y-68.969 R0.249
X-10.665 Y-68.963 R0.249
X-10.921 Y-68. R0.521
G1 X-11.217
X-11.352 Y-68.007
X-11.47 Y-68.073
X-11.565 Y-68.169
X-11.632 Y-68.35
X-11.633 Y-68.542
X-11.568 Y-68.723
X-11.445 Y-68.87
X-11.278 Y-68.967
X-11.089 Y-69.
G3 X-10.977 Y-68.969 R0.249
G1 X-10.971 Y-68.965
G3 X-11.217 Y-68. R0.519
G1 X-11.527
X-11.662 Y-68.007
X-11.778 Y-68.077
X-11.871 Y-68.174
X-11.936 Y-68.354
X-11.935 Y-68.545
X-11.869 Y-68.725
X-11.746 Y-68.871
X-11.58 Y-68.967
X-11.392 Y-69.
G3 X-11.279 Y-68.969 R0.249
X-11.267 Y-68.962 R0.249
X-11.527 Y-68. R0.521
G1 X-11.825
X-11.96 Y-68.007
X-12.076 Y-68.074
X-12.171 Y-68.171
X-12.237 Y-68.351
Y-68.543
X-12.172 Y-68.723
X-12.049 Y-68.871
X-11.883 Y-68.967
X-11.694 Y-69.
G3 X-11.581 Y-68.969 R0.249
G1 X-11.573 Y-68.964
G3 X-11.709 Y-68.017 R0.52
X-11.825 Y-68. R0.52
G1 X-12.099
X-12.234 Y-68.007
X-12.356 Y-68.065
X-12.455 Y-68.157
X-12.529 Y-68.336
X-12.536 Y-68.53
X-12.475 Y-68.715
X-12.353 Y-68.866
X-12.185 Y-68.965
X-11.994 Y-69.
G3 X-11.895 Y-68.976 R0.249
X-11.881 Y-68.969 R0.513
X-12.099 Y-68. R0.513
G1 X-12.401
X-12.536 Y-68.007
X-12.656 Y-68.068
X-12.755 Y-68.161
X-12.827 Y-68.34
X-12.832 Y-68.534
X-12.77 Y-68.717
X-12.648 Y-68.867
X-12.481 Y-68.966
X-12.29 Y-69.
G3 X-12.186 Y-68.973 R0.249
G1 X-12.178 Y-68.969
G3 X-12.401 Y-68. R0.515
G1 X-12.698
X-12.832 Y-68.007
X-12.953 Y-68.068
X-13.051 Y-68.16
X-13.124 Y-68.34
X-13.129 Y-68.533
X-13.067 Y-68.717
X-12.945 Y-68.867
X-12.778 Y-68.966
X-12.587 Y-69.
G3 X-12.483 Y-68.973 R0.249
X-12.698 Y-68. R0.515
G1 X-13.007
X-13.142 Y-68.007
X-13.26 Y-68.072
X-13.357 Y-68.167
X-13.425 Y-68.347
X-13.428 Y-68.539
X-13.364 Y-68.721
X-13.241 Y-68.869
X-13.075 Y-68.966
X-12.885 Y-69.
G3 X-12.772 Y-68.968 R0.249
X-12.891 Y-68.017 R0.517
X-13.007 Y-68. R0.517
G1 X-13.305
X-13.44 Y-68.007
X-13.558 Y-68.071
X-13.655 Y-68.165
X-13.724 Y-68.345
X-13.727 Y-68.538
X-13.663 Y-68.72
X-13.541 Y-68.869
X-13.374 Y-68.966
X-13.184 Y-69.
G3 X-13.072 Y-68.969 R0.249
X-13.305 Y-68. R0.517
G1 X-13.612
X-13.747 Y-68.007
X-13.864 Y-68.074
X-13.959 Y-68.17
X-14.026 Y-68.35
X-14.028 Y-68.542
X-13.963 Y-68.723
X-13.84 Y-68.87
X-13.674 Y-68.967
X-13.485 Y-69.
G3 X-13.372 Y-68.969 R0.249
G1 X-13.367 Y-68.966
G3 X-13.496 Y-68.017 R0.519
X-13.612 Y-68. R0.519
G1 X-13.909
X-14.043 Y-68.007
X-14.162 Y-68.072
X-14.258 Y-68.167
X-14.326 Y-68.347
X-14.328 Y-68.54
X-14.264 Y-68.721
X-14.141 Y-68.869
X-13.975 Y-68.966
X-13.785 Y-69.
G3 X-13.67 Y-68.967 R0.249
X-13.909 Y-68. R0.518
G1 X-14.218
X-14.353 Y-68.007
X-14.469 Y-68.075
X-14.564 Y-68.172
X-14.629 Y-68.352
X-14.63 Y-68.544
X-14.564 Y-68.724
X-14.441 Y-68.871
X-14.275 Y-68.967
X-14.086 Y-69.
G3 X-13.974 Y-68.969 R0.249
X-13.965 Y-68.963 R0.249
X-14.102 Y-68.017 R0.52
X-14.218 Y-68. R0.52
G1 X-14.516
X-14.651 Y-68.007
X-14.768 Y-68.074
X-14.863 Y-68.169
X-14.93 Y-68.35
X-14.931 Y-68.542
X-14.866 Y-68.723
X-14.743 Y-68.87
X-14.577 Y-68.967
X-14.388 Y-69.
G3 X-14.275 Y-68.969 R0.249
G1 X-14.269 Y-68.965
G3 X-14.516 Y-68. R0.519
G1 X-14.823
X-14.958 Y-68.007
X-15.074 Y-68.076
X-15.168 Y-68.173
X-15.233 Y-68.353
Y-68.544
X-15.167 Y-68.724
X-15.044 Y-68.871
X-14.878 Y-68.967
X-14.69 Y-69.
G3 X-14.577 Y-68.969 R0.249
X-14.567 Y-68.963 R0.249
X-14.823 Y-68. R0.521
G1 X-15.12
X-15.254 Y-68.007
X-15.372 Y-68.073
X-15.467 Y-68.169
X-15.534 Y-68.35
X-15.535 Y-68.542
X-15.47 Y-68.723
X-15.347 Y-68.87
X-15.181 Y-68.967
X-14.991 Y-69.
G3 X-14.879 Y-68.969 R0.249
G1 X-14.873 Y-68.965
G3 X-15.12 Y-68. R0.519
G1 X-15.429
X-15.564 Y-68.007
X-15.68 Y-68.077
X-15.773 Y-68.174
X-15.838 Y-68.354
X-15.837 Y-68.545
X-15.771 Y-68.725
X-15.648 Y-68.871
X-15.482 Y-68.967
X-15.294 Y-69.
G3 X-15.181 Y-68.969 R0.249
X-15.17 Y-68.962 R0.249
X-15.429 Y-68. R0.521
G1 X-15.727
X-15.862 Y-68.007
X-15.979 Y-68.074
X-16.073 Y-68.171
X-16.139 Y-68.351
X-16.14 Y-68.543
X-16.074 Y-68.723
X-15.951 Y-68.871
X-15.785 Y-68.967
X-15.596 Y-69.
G3 X-15.484 Y-68.969 R0.249
G1 X-15.476 Y-68.964
G3 X-15.611 Y-68.017 R0.52
X-15.727 Y-68. R0.52
G1 X-16.001
X-16.136 Y-68.007
X-16.258 Y-68.065
X-16.357 Y-68.157
X-16.431 Y-68.336
X-16.438 Y-68.53
X-16.377 Y-68.715
X-16.255 Y-68.866
X-16.087 Y-68.965
X-15.896 Y-69.
G3 X-15.797 Y-68.976 R0.249
X-15.784 Y-68.969 R0.513
X-16.001 Y-68. R0.513
G1 X-16.303
X-16.438 Y-68.007
X-16.559 Y-68.068
X-16.657 Y-68.161
X-16.729 Y-68.34
X-16.734 Y-68.534
X-16.672 Y-68.717
X-16.55 Y-68.867
X-16.383 Y-68.966
X-16.192 Y-69.
G3 X-16.088 Y-68.973 R0.249
G1 X-16.08 Y-68.969
G3 X-16.303 Y-68. R0.515
G1 X-16.6
X-16.735 Y-68.007
X-16.855 Y-68.068
X-16.953 Y-68.16
X-17.026 Y-68.34
X-17.031 Y-68.533
X-16.969 Y-68.717
X-16.847 Y-68.867
X-16.68 Y-68.966
X-16.489 Y-69.
G3 X-16.385 Y-68.973 R0.249
G1 X-16.377 Y-68.969
G3 X-16.6 Y-68. R0.515
G1 X-16.91
X-17.044 Y-68.007
X-17.162 Y-68.072
X-17.259 Y-68.167
X-17.327 Y-68.347
X-17.33 Y-68.539
X-17.266 Y-68.721
X-17.143 Y-68.869
X-16.977 Y-68.966
X-16.787 Y-69.
G3 X-16.674 Y-68.968 R0.249
X-16.793 Y-68.017 R0.517
X-16.91 Y-68. R0.517
G1 X-17.207
X-17.342 Y-68.007
X-17.461 Y-68.071
X-17.557 Y-68.165
X-17.626 Y-68.345
X-17.629 Y-68.538
X-17.566 Y-68.72
X-17.443 Y-68.869
X-17.276 Y-68.966
X-17.087 Y-69.
G3 X-16.975 Y-68.969 R0.249
X-17.207 Y-68. R0.517
G1 X-17.514
X-17.649 Y-68.007
X-17.766 Y-68.074
X-17.862 Y-68.17
X-17.929 Y-68.35
X-17.93 Y-68.542
X-17.865 Y-68.723
X-17.742 Y-68.87
X-17.576 Y-68.967
X-17.387 Y-69.
G3 X-17.274 Y-68.969 R0.249
G1 X-17.269 Y-68.966
G3 X-17.398 Y-68.017 R0.519
X-17.514 Y-68. R0.519
G1 X-17.811
X-17.946 Y-68.007
X-18.064 Y-68.072
X-18.16 Y-68.167
X-18.228 Y-68.347
X-18.23 Y-68.54
X-18.166 Y-68.721
X-18.043 Y-68.869
X-17.877 Y-68.966
X-17.687 Y-69.
G3 X-17.573 Y-68.967 R0.249
X-17.811 Y-68. R0.518
G1 X-18.121
X-18.255 Y-68.007
X-18.372 Y-68.075
X-18.466 Y-68.172
X-18.532 Y-68.352
Y-68.544
X-18.466 Y-68.724
X-18.343 Y-68.871
X-18.177 Y-68.967
X-17.988 Y-69.
G3 X-17.876 Y-68.969 R0.249
X-17.867 Y-68.963 R0.249
X-18.004 Y-68.017 R0.52
X-18.121 Y-68. R0.52
G1 X-18.418
X-18.553 Y-68.007
X-18.67 Y-68.074
X-18.765 Y-68.169
X-18.832 Y-68.35
X-18.833 Y-68.542
X-18.768 Y-68.723
X-18.645 Y-68.87
X-18.479 Y-68.967
X-18.29 Y-69.
G3 X-18.177 Y-68.969 R0.249
G1 X-18.172 Y-68.965
G3 X-18.418 Y-68. R0.519
G1 X-18.725
X-18.86 Y-68.007
X-18.976 Y-68.076
X-19.07 Y-68.173
X-19.136 Y-68.353
X-19.135 Y-68.544
X-19.07 Y-68.724
X-18.946 Y-68.871
X-18.78 Y-68.967
X-18.592 Y-69.
G3 X-18.479 Y-68.969 R0.249
X-18.469 Y-68.963 R0.249
X-18.725 Y-68. R0.521
G1 X-19.022
X-19.157 Y-68.007
X-19.274 Y-68.073
X-19.369 Y-68.169
X-19.436 Y-68.35
X-19.437 Y-68.542
X-19.372 Y-68.723
X-19.249 Y-68.87
X-19.083 Y-68.967
X-18.894 Y-69.
G3 X-18.781 Y-68.969 R0.249
G1 X-18.775 Y-68.965
G3 X-19.022 Y-68. R0.519
G1 X-19.332
X-19.466 Y-68.007
X-19.582 Y-68.077
X-19.676 Y-68.174
X-19.74 Y-68.354
X-19.739 Y-68.545
X-19.673 Y-68.725
X-19.55 Y-68.871
X-19.384 Y-68.967
X-19.196 Y-69.
G3 X-19.083 Y-68.969 R0.249
X-19.072 Y-68.962 R0.249
X-19.332 Y-68. R0.521
G1 X-19.629
X-19.764 Y-68.007
X-19.881 Y-68.074
X-19.975 Y-68.171
X-20.041 Y-68.351
X-20.042 Y-68.543
X-19.976 Y-68.723
X-19.853 Y-68.871
X-19.687 Y-68.967
X-19.498 Y-69.
G3 X-19.386 Y-68.969 R0.249
G1 X-19.378 Y-68.964
G3 X-19.513 Y-68.017 R0.52
X-19.629 Y-68. R0.52
G1 X-19.903
X-20.038 Y-68.007
X-20.16 Y-68.065
X-20.259 Y-68.157
X-20.333 Y-68.336
X-20.34 Y-68.53
X-20.279 Y-68.715
X-20.157 Y-68.866
X-19.99 Y-68.965
X-19.798 Y-69.
G3 X-19.699 Y-68.976 R0.249
X-19.686 Y-68.969 R0.513
X-19.903 Y-68. R0.513
G1 X-20.206
X-20.34 Y-68.007
X-20.461 Y-68.068
X-20.559 Y-68.161
X-20.631 Y-68.34
X-20.637 Y-68.534
X-20.574 Y-68.717
X-20.452 Y-68.867
X-20.285 Y-68.966
X-20.095 Y-69.
G3 X-19.99 Y-68.973 R0.249
G1 X-19.982 Y-68.969
G3 X-20.206 Y-68. R0.515
G1 X-20.502
X-20.637 Y-68.007
X-20.757 Y-68.068
X-20.856 Y-68.16
X-20.928 Y-68.34
X-20.933 Y-68.533
X-20.871 Y-68.717
X-20.749 Y-68.867
X-20.582 Y-68.966
X-20.391 Y-69.
G3 X-20.287 Y-68.973 R0.249
G1 X-20.279 Y-68.969
G3 X-20.502 Y-68. R0.515
G1 X-20.812
X-20.947 Y-68.007
X-21.065 Y-68.072
X-21.161 Y-68.167
X-21.23 Y-68.347
X-21.232 Y-68.539
X-21.168 Y-68.721
X-21.045 Y-68.869
X-20.879 Y-68.966
X-20.69 Y-69.
G3 X-20.576 Y-68.968 R0.249
X-20.695 Y-68.017 R0.517
X-20.812 Y-68. R0.517
G1 X-21.109
X-21.244 Y-68.007
X-21.363 Y-68.071
X-21.459 Y-68.165
X-21.529 Y-68.345
X-21.532 Y-68.538
X-21.468 Y-68.72
X-21.345 Y-68.869
X-21.179 Y-68.966
X-20.989 Y-69.
G3 X-20.877 Y-68.969 R0.249
X-21.109 Y-68. R0.517
G1 X-21.417
X-21.551 Y-68.007
X-21.669 Y-68.074
X-21.764 Y-68.17
X-21.831 Y-68.35
X-21.832 Y-68.542
X-21.767 Y-68.723
X-21.644 Y-68.87
X-21.478 Y-68.967
X-21.289 Y-69.
G3 X-21.176 Y-68.969 R0.249
G1 X-21.171 Y-68.966
G3 X-21.3 Y-68.017 R0.519
X-21.417 Y-68. R0.519
G1 X-21.713
X-21.848 Y-68.007
X-21.966 Y-68.072
X-22.062 Y-68.167
X-22.13 Y-68.347
X-22.132 Y-68.54
X-22.068 Y-68.721
X-21.945 Y-68.869
X-21.779 Y-68.966
X-21.589 Y-69.
G3 X-21.475 Y-68.967 R0.249
X-21.713 Y-68. R0.518
G1 X-22.023
X-22.158 Y-68.007
X-22.274 Y-68.075
X-22.368 Y-68.172
X-22.434 Y-68.352
Y-68.544
X-22.368 Y-68.724
X-22.245 Y-68.871
X-22.079 Y-68.967
X-21.89 Y-69.
G3 X-21.778 Y-68.969 R0.249
X-21.769 Y-68.963 R0.249
X-21.906 Y-68.017 R0.52
X-22.023 Y-68. R0.52
G1 X-22.32
X-22.455 Y-68.007
X-22.572 Y-68.074
X-22.667 Y-68.169
X-22.734 Y-68.35
X-22.735 Y-68.542
X-22.67 Y-68.723
X-22.547 Y-68.87
X-22.381 Y-68.967
X-22.192 Y-69.
G3 X-22.08 Y-68.969 R0.249
G1 X-22.074 Y-68.965
G3 X-22.32 Y-68. R0.519
G1 X-22.628
X-22.762 Y-68.007
X-22.878 Y-68.076
X-22.972 Y-68.173
X-23.038 Y-68.353
X-23.037 Y-68.544
X-22.972 Y-68.724
X-22.849 Y-68.871
X-22.683 Y-68.967
X-22.494 Y-69.
G3 X-22.381 Y-68.969 R0.249
X-22.371 Y-68.963 R0.249
X-22.628 Y-68. R0.521
G1 X-22.924
X-23.059 Y-68.007
X-23.176 Y-68.073
X-23.271 Y-68.169
X-23.338 Y-68.35
X-23.339 Y-68.542
X-23.274 Y-68.723
X-23.151 Y-68.87
X-22.985 Y-68.967
X-22.796 Y-69.
G3 X-22.683 Y-68.969 R0.249
G1 X-22.677 Y-68.965
G3 X-22.924 Y-68. R0.519
G1 X-23.234
X-23.369 Y-68.007
X-23.484 Y-68.077
X-23.578 Y-68.174
X-23.642 Y-68.354
Y-68.545
X-23.576 Y-68.725
X-23.452 Y-68.871
X-23.286 Y-68.967
X-23.098 Y-69.
G3 X-22.986 Y-68.969 R0.249
X-22.974 Y-68.962 R0.249
X-23.234 Y-68. R0.521
G1 X-23.531
X-23.666 Y-68.007
X-23.783 Y-68.074
X-23.877 Y-68.171
X-23.944 Y-68.351
Y-68.543
X-23.879 Y-68.723
X-23.755 Y-68.871
X-23.589 Y-68.967
X-23.4 Y-69.
G3 X-23.288 Y-68.969 R0.249
G1 X-23.28 Y-68.964
G3 X-23.415 Y-68.017 R0.52
X-23.531 Y-68. R0.52
G1 X-23.805
X-23.94 Y-68.007
X-24.062 Y-68.065
X-24.161 Y-68.157
X-24.235 Y-68.336
X-24.242 Y-68.53
X-24.181 Y-68.715
X-24.059 Y-68.866
X-23.892 Y-68.965
X-23.7 Y-69.
G3 X-23.602 Y-68.976 R0.249
X-23.588 Y-68.969 R0.513
X-23.805 Y-68. R0.513
G1 X-24.108
X-24.243 Y-68.007
X-24.363 Y-68.068
X-24.461 Y-68.161
X-24.533 Y-68.34
X-24.539 Y-68.534
X-24.476 Y-68.717
X-24.354 Y-68.867
X-24.187 Y-68.966
X-23.997 Y-69.
G3 X-23.892 Y-68.973 R0.249
G1 X-23.884 Y-68.969
G3 X-24.108 Y-68. R0.515
G1 X-24.404
X-24.539 Y-68.007
X-24.659 Y-68.068
X-24.758 Y-68.16
X-24.83 Y-68.34
X-24.836 Y-68.533
X-24.773 Y-68.717
X-24.651 Y-68.867
X-24.484 Y-68.966
X-24.293 Y-69.
G3 X-24.19 Y-68.973 R0.249
G1 X-24.181 Y-68.969
G3 X-24.404 Y-68. R0.515
G1 X-24.714
X-24.849 Y-68.007
X-24.967 Y-68.072
X-25.063 Y-68.167
X-25.132 Y-68.347
X-25.134 Y-68.539
X-25.07 Y-68.721
X-24.948 Y-68.869
X-24.781 Y-68.966
X-24.592 Y-69.
G3 X-24.478 Y-68.968 R0.249
X-24.598 Y-68.017 R0.517
X-24.714 Y-68. R0.517
G1 X-25.011
X-25.146 Y-68.007
X-25.265 Y-68.071
X-25.361 Y-68.165
X-25.431 Y-68.345
X-25.434 Y-68.538
X-25.37 Y-68.72
X-25.247 Y-68.869
X-25.081 Y-68.966
X-24.891 Y-69.
G3 X-24.779 Y-68.969 R0.249
X-25.011 Y-68. R0.517
G1 X-25.319
X-25.454 Y-68.007
X-25.571 Y-68.074
X-25.666 Y-68.17
X-25.733 Y-68.35
X-25.734 Y-68.542
X-25.669 Y-68.723
X-25.546 Y-68.87
X-25.38 Y-68.967
X-25.191 Y-69.
G3 X-25.079 Y-68.969 R0.249
G1 X-25.073 Y-68.966
G3 X-25.202 Y-68.017 R0.519
X-25.319 Y-68. R0.519
G1 X-25.615
X-25.75 Y-68.007
X-25.868 Y-68.072
X-25.964 Y-68.167
X-26.032 Y-68.347
X-26.035 Y-68.54
X-25.97 Y-68.721
X-25.847 Y-68.869
X-25.681 Y-68.966
X-25.491 Y-69.
G3 X-25.377 Y-68.967 R0.249
X-25.615 Y-68. R0.518
G1 X-25.925
X-26.06 Y-68.007
X-26.176 Y-68.075
X-26.27 Y-68.172
X-26.336 Y-68.352
Y-68.544
X-26.271 Y-68.724
X-26.147 Y-68.871
X-25.981 Y-68.967
X-25.793 Y-69.
G3 X-25.68 Y-68.969 R0.249
X-25.671 Y-68.963 R0.249
X-25.925 Y-68. R0.52
G1 X-26.222
X-26.357 Y-68.007
X-26.475 Y-68.074
X-26.57 Y-68.169
X-26.636 Y-68.35
X-26.638 Y-68.542
X-26.573 Y-68.723
X-26.45 Y-68.87
X-26.283 Y-68.967
X-26.094 Y-69.
G3 X-25.982 Y-68.969 R0.249
G1 X-25.976 Y-68.965
G3 X-26.222 Y-68. R0.519
G1 X-26.53
X-26.665 Y-68.007
X-26.781 Y-68.076
X-26.875 Y-68.173
X-26.94 Y-68.353
Y-68.544
X-26.874 Y-68.724
X-26.751 Y-68.871
X-26.585 Y-68.967
X-26.396 Y-69.
G3 X-26.284 Y-68.969 R0.249
X-26.274 Y-68.963 R0.249
X-26.53 Y-68. R0.521
G1 X-26.826
X-26.961 Y-68.007
X-27.078 Y-68.073
X-27.173 Y-68.169
X-27.24 Y-68.35
X-27.241 Y-68.542
X-27.176 Y-68.723
X-27.053 Y-68.87
X-26.887 Y-68.967
X-26.698 Y-69.
G3 X-26.585 Y-68.969 R0.249
G1 X-26.58 Y-68.965
G3 X-26.826 Y-68. R0.519
G1 X-27.136
X-27.271 Y-68.007
X-27.386 Y-68.077
X-27.48 Y-68.174
X-27.544 Y-68.354
Y-68.545
X-27.478 Y-68.725
X-27.354 Y-68.871
X-27.189 Y-68.967
X-27. Y-69.
G3 X-26.888 Y-68.969 R0.249
X-26.876 Y-68.962 R0.249
X-27.136 Y-68. R0.521
G1 X-27.433
X-27.568 Y-68.007
X-27.685 Y-68.074
X-27.78 Y-68.171
X-27.846 Y-68.351
Y-68.543
X-27.781 Y-68.723
X-27.658 Y-68.871
X-27.491 Y-68.967
X-27.302 Y-69.
G3 X-27.19 Y-68.969 R0.249
G1 X-27.182 Y-68.964
G3 X-27.317 Y-68.017 R0.52
X-27.433 Y-68. R0.52
G1 X-27.707
X-27.842 Y-68.007
X-27.964 Y-68.065
X-28.063 Y-68.157
X-28.138 Y-68.336
X-28.145 Y-68.53
X-28.083 Y-68.715
X-27.961 Y-68.866
X-27.794 Y-68.965
X-27.603 Y-69.
G3 X-27.504 Y-68.976 R0.249
X-27.49 Y-68.969 R0.513
X-27.707 Y-68. R0.513
G1 X-28.01
X-28.145 Y-68.007
X-28.265 Y-68.068
X-28.363 Y-68.161
X-28.436 Y-68.34
X-28.441 Y-68.534
X-28.379 Y-68.717
X-28.256 Y-68.867
X-28.089 Y-68.966
X-27.899 Y-69.
G3 X-27.795 Y-68.973 R0.249
G1 X-27.786 Y-68.969
G3 X-28.01 Y-68. R0.515
G1 X-28.306
X-28.441 Y-68.007
X-28.562 Y-68.068
X-28.66 Y-68.16
X-28.732 Y-68.34
X-28.738 Y-68.533
X-28.675 Y-68.717
X-28.553 Y-68.867
X-28.386 Y-68.966
X-28.196 Y-69.
G3 X-28.092 Y-68.973 R0.249
G1 X-28.083 Y-68.969
G3 X-28.306 Y-68. R0.515
G1 X-28.616
X-28.751 Y-68.007
X-28.869 Y-68.072
X-28.965 Y-68.167
X-29.034 Y-68.347
X-29.036 Y-68.539
X-28.972 Y-68.721
X-28.85 Y-68.869
X-28.683 Y-68.966
X-28.494 Y-69.
G3 X-28.381 Y-68.968 R0.249
X-28.5 Y-68.017 R0.517
X-28.616 Y-68. R0.517
G1 X-28.914
X-29.048 Y-68.007
X-29.167 Y-68.071
X-29.264 Y-68.165
X-29.333 Y-68.345
X-29.336 Y-68.538
X-29.272 Y-68.72
X-29.149 Y-68.869
X-28.983 Y-68.966
X-28.793 Y-69.
G3 X-28.681 Y-68.969 R0.249
X-28.914 Y-68. R0.517
G1 X-29.221
X-29.356 Y-68.007
X-29.473 Y-68.074
X-29.568 Y-68.17
X-29.635 Y-68.35
X-29.636 Y-68.542
X-29.571 Y-68.723
X-29.448 Y-68.87
X-29.282 Y-68.967
X-29.093 Y-69.
G3 X-28.981 Y-68.969 R0.249
G1 X-28.975 Y-68.966
G3 X-29.105 Y-68.017 R0.519
X-29.221 Y-68. R0.519
G1 X-29.517
X-29.652 Y-68.007
X-29.77 Y-68.072
X-29.866 Y-68.167
X-29.934 Y-68.347
X-29.937 Y-68.54
X-29.872 Y-68.721
X-29.75 Y-68.869
X-29.583 Y-68.966
X-29.394 Y-69.
G3 X-29.279 Y-68.967 R0.249
X-29.517 Y-68. R0.518
G1 X-29.827
X-29.962 Y-68.007
X-30.078 Y-68.075
X-30.172 Y-68.172
X-30.238 Y-68.352
Y-68.544
X-30.173 Y-68.724
X-30.05 Y-68.871
X-29.884 Y-68.967
X-29.695 Y-69.
G3 X-29.582 Y-68.969 R0.249
X-29.573 Y-68.963 R0.249
X-29.711 Y-68.017 R0.52
X-29.827 Y-68. R0.52
G1 X-30.125
X-30.259 Y-68.007
X-30.377 Y-68.074
X-30.472 Y-68.169
X-30.539 Y-68.35
X-30.54 Y-68.542
X-30.475 Y-68.723
X-30.352 Y-68.87
X-30.185 Y-68.967
X-29.996 Y-69.
G3 X-29.884 Y-68.969 R0.249
G1 X-29.878 Y-68.965
G3 X-30.125 Y-68. R0.519
G1 X-30.432
X-30.567 Y-68.007
X-30.683 Y-68.076
X-30.777 Y-68.173
X-30.842 Y-68.353
Y-68.544
X-30.776 Y-68.724
X-30.653 Y-68.871
X-30.487 Y-68.967
X-30.298 Y-69.
G3 X-30.186 Y-68.969 R0.249
X-30.176 Y-68.963 R0.249
X-30.432 Y-68. R0.521
G1 X-30.728
X-30.863 Y-68.007
X-30.98 Y-68.073
X-31.075 Y-68.169
X-31.142 Y-68.35
X-31.143 Y-68.542
X-31.079 Y-68.723
X-30.955 Y-68.87
X-30.789 Y-68.967
X-30.6 Y-69.
G3 X-30.488 Y-68.969 R0.249
G1 X-30.482 Y-68.965
G3 X-30.728 Y-68. R0.519
G1 X-31.038
X-31.173 Y-68.007
X-31.288 Y-68.077
X-31.382 Y-68.174
X-31.447 Y-68.354
X-31.446 Y-68.545
X-31.38 Y-68.725
X-31.257 Y-68.871
X-31.091 Y-68.967
X-30.902 Y-69.
G3 X-30.79 Y-68.969 R0.249
X-30.778 Y-68.962 R0.249
X-31.038 Y-68. R0.521
G1 X-31.336
X-31.47 Y-68.007
X-31.587 Y-68.074
X-31.682 Y-68.171
X-31.748 Y-68.351
Y-68.543
X-31.683 Y-68.723
X-31.56 Y-68.871
X-31.394 Y-68.967
X-31.205 Y-69.
G3 X-31.092 Y-68.969 R0.249
G1 X-31.084 Y-68.964
G3 X-31.219 Y-68.017 R0.52
X-31.336 Y-68. R0.52
G1 X-31.61
X-31.744 Y-68.007
X-31.866 Y-68.065
X-31.965 Y-68.157
X-32.04 Y-68.336
X-32.047 Y-68.53
X-31.985 Y-68.715
X-31.863 Y-68.866
X-31.696 Y-68.965
X-31.505 Y-69.
G3 X-31.406 Y-68.976 R0.249
X-31.392 Y-68.969 R0.513
X-31.61 Y-68. R0.513
G1 X-31.912
X-32.047 Y-68.007
X-32.167 Y-68.068
X-32.265 Y-68.161
X-32.338 Y-68.34
X-32.343 Y-68.534
X-32.281 Y-68.717
X-32.158 Y-68.867
X-31.992 Y-68.966
X-31.801 Y-69.
G3 X-31.697 Y-68.973 R0.249
G1 X-31.688 Y-68.969
G3 X-31.912 Y-68. R0.515
G1 X-32.208
X-32.343 Y-68.007
X-32.464 Y-68.068
X-32.562 Y-68.16
X-32.635 Y-68.34
X-32.64 Y-68.533
X-32.578 Y-68.717
X-32.455 Y-68.867
X-32.288 Y-68.966
X-32.098 Y-69.
G3 X-31.994 Y-68.973 R0.249
G1 X-31.985 Y-68.969
G3 X-32.208 Y-68. R0.515
G1 X-32.518
X-32.653 Y-68.007
X-32.771 Y-68.072
X-32.867 Y-68.167
X-32.936 Y-68.347
X-32.939 Y-68.539
X-32.875 Y-68.721
X-32.752 Y-68.869
X-32.586 Y-68.966
X-32.396 Y-69.
G3 X-32.283 Y-68.968 R0.249
X-32.402 Y-68.017 R0.517
X-32.518 Y-68. R0.517
G1 X-32.816
X-32.951 Y-68.007
X-33.069 Y-68.071
X-33.166 Y-68.165
X-33.235 Y-68.345
X-33.238 Y-68.538
X-33.174 Y-68.72
X-33.052 Y-68.869
X-32.885 Y-68.966
X-32.695 Y-69.
G3 X-32.583 Y-68.969 R0.249
X-32.816 Y-68. R0.517
G1 X-33.123
X-33.258 Y-68.007
X-33.375 Y-68.074
X-33.47 Y-68.17
X-33.537 Y-68.35
X-33.538 Y-68.542
X-33.474 Y-68.723
X-33.351 Y-68.87
X-33.184 Y-68.967
X-32.995 Y-69.
G3 X-32.883 Y-68.969 R0.249
G1 X-32.878 Y-68.966
G3 X-33.007 Y-68.017 R0.519
X-33.123 Y-68. R0.519
G1 X-33.419
X-33.554 Y-68.007
X-33.672 Y-68.072
X-33.768 Y-68.167
X-33.837 Y-68.347
X-33.839 Y-68.54
X-33.775 Y-68.721
X-33.652 Y-68.869
X-33.485 Y-68.966
X-33.296 Y-69.
G3 X-33.181 Y-68.967 R0.249
X-33.419 Y-68. R0.518
G1 X-33.729
X-33.864 Y-68.007
X-33.98 Y-68.075
X-34.074 Y-68.172
X-34.14 Y-68.352
Y-68.544
X-34.075 Y-68.724
X-33.952 Y-68.871
X-33.786 Y-68.967
X-33.597 Y-69.
G3 X-33.485 Y-68.969 R0.249
X-33.476 Y-68.963 R0.249
X-33.613 Y-68.017 R0.52
X-33.729 Y-68. R0.52
G1 X-34.027
X-34.162 Y-68.007
X-34.279 Y-68.074
X-34.374 Y-68.169
X-34.441 Y-68.35
X-34.442 Y-68.542
X-34.377 Y-68.723
X-34.254 Y-68.87
X-34.088 Y-68.967
X-33.898 Y-69.
G3 X-33.786 Y-68.969 R0.249
G1 X-33.78 Y-68.965
G3 X-34.027 Y-68. R0.519
G1 X-34.334
X-34.469 Y-68.007
X-34.585 Y-68.076
X-34.679 Y-68.173
X-34.744 Y-68.353
Y-68.544
X-34.678 Y-68.724
X-34.555 Y-68.871
X-34.389 Y-68.967
X-34.2 Y-69.
G3 X-34.088 Y-68.969 R0.249
X-34.078 Y-68.963 R0.249
X-34.334 Y-68. R0.521
G1 X-34.63
X-34.765 Y-68.007
X-34.883 Y-68.073
X-34.978 Y-68.169
X-35.045 Y-68.35
X-35.046 Y-68.542
X-34.981 Y-68.723
X-34.858 Y-68.87
X-34.691 Y-68.967
X-34.502 Y-69.
G3 X-34.39 Y-68.969 R0.249
G1 X-34.384 Y-68.965
G3 X-34.63 Y-68. R0.519
G1 X-34.94
X-35.075 Y-68.007
X-35.191 Y-68.077
X-35.284 Y-68.174
X-35.349 Y-68.354
X-35.348 Y-68.545
X-35.282 Y-68.725
X-35.159 Y-68.871
X-34.993 Y-68.967
X-34.804 Y-69.
G3 X-34.692 Y-68.969 R0.249
X-34.68 Y-68.962 R0.249
X-34.94 Y-68. R0.521
G1 X-35.238
X-35.373 Y-68.007
X-35.489 Y-68.074
X-35.584 Y-68.171
X-35.65 Y-68.351
Y-68.543
X-35.585 Y-68.723
X-35.462 Y-68.871
X-35.296 Y-68.967
X-35.107 Y-69.
G3 X-34.994 Y-68.969 R0.249
G1 X-34.986 Y-68.964
G3 X-35.121 Y-68.017 R0.52
X-35.238 Y-68. R0.52
G1 X-35.512
X-35.647 Y-68.007
X-35.768 Y-68.065
X-35.868 Y-68.157
X-35.942 Y-68.336
X-35.949 Y-68.53
X-35.887 Y-68.715
X-35.765 Y-68.866
X-35.598 Y-68.965
X-35.407 Y-69.
G3 X-35.308 Y-68.976 R0.249
X-35.294 Y-68.969 R0.513
X-35.512 Y-68. R0.513
G1 X-35.814
X-35.949 Y-68.007
X-36.069 Y-68.068
X-36.168 Y-68.161
X-36.24 Y-68.34
X-36.245 Y-68.534
X-36.183 Y-68.717
X-36.061 Y-68.867
X-35.894 Y-68.966
X-35.703 Y-69.
G3 X-35.599 Y-68.973 R0.249
G1 X-35.591 Y-68.969
G3 X-35.814 Y-68. R0.515
G1 X-36.111
X-36.245 Y-68.007
X-36.366 Y-68.068
X-36.464 Y-68.16
X-36.537 Y-68.34
X-36.542 Y-68.533
X-36.48 Y-68.717
X-36.358 Y-68.867
X-36.191 Y-68.966
X-36. Y-69.
G3 X-35.896 Y-68.973 R0.249
G1 X-35.887 Y-68.969
G3 X-36.111 Y-68. R0.515
G1 X-36.42
X-36.555 Y-68.007
X-36.673 Y-68.072
X-36.769 Y-68.167
X-36.838 Y-68.347
X-36.841 Y-68.539
X-36.777 Y-68.721
X-36.654 Y-68.869
X-36.488 Y-68.966
X-36.298 Y-69.
G3 X-36.185 Y-68.968 R0.249
X-36.304 Y-68.017 R0.517
X-36.42 Y-68. R0.517
G1 X-36.718
X-36.853 Y-68.007
X-36.971 Y-68.071
X-37.068 Y-68.165
X-37.137 Y-68.345
X-37.14 Y-68.538
X-37.076 Y-68.72
X-36.954 Y-68.869
X-36.787 Y-68.966
X-36.597 Y-69.
G3 X-36.485 Y-68.969 R0.249
X-36.718 Y-68. R0.517
G1 X-37.025
X-37.16 Y-68.007
X-37.277 Y-68.074
X-37.372 Y-68.17
X-37.439 Y-68.35
X-37.441 Y-68.542
X-37.376 Y-68.723
X-37.253 Y-68.87
X-37.087 Y-68.967
X-36.898 Y-69.
G3 X-36.785 Y-68.969 R0.249
G1 X-36.78 Y-68.966
G3 X-36.909 Y-68.017 R0.519
X-37.025 Y-68. R0.519
G1 X-37.322
X-37.456 Y-68.007
X-37.575 Y-68.072
X-37.67 Y-68.167
X-37.739 Y-68.347
X-37.741 Y-68.54
X-37.677 Y-68.721
X-37.554 Y-68.869
X-37.387 Y-68.966
X-37.198 Y-69.
G3 X-37.083 Y-68.967 R0.249
X-37.322 Y-68. R0.518
G1 X-37.631
X-37.766 Y-68.007
X-37.882 Y-68.075
X-37.977 Y-68.172
X-38.042 Y-68.352
Y-68.544
X-37.977 Y-68.724
X-37.854 Y-68.871
X-37.688 Y-68.967
X-37.499 Y-69.
G3 X-37.387 Y-68.969 R0.249
X-37.378 Y-68.963 R0.249
X-37.515 Y-68.017 R0.52
X-37.631 Y-68. R0.52
G1 X-37.929
X-38.064 Y-68.007
X-38.181 Y-68.074
X-38.276 Y-68.169
X-38.343 Y-68.35
X-38.344 Y-68.542
X-38.279 Y-68.723
X-38.156 Y-68.87
X-37.99 Y-68.967
X-37.801 Y-69.
G3 X-37.688 Y-68.969 R0.249
G1 X-37.682 Y-68.965
G3 X-37.929 Y-68. R0.519
G1 X-38.236
X-38.371 Y-68.007
X-38.487 Y-68.076
X-38.581 Y-68.173
X-38.646 Y-68.353
Y-68.544
X-38.58 Y-68.724
X-38.457 Y-68.871
X-38.291 Y-68.967
X-38.103 Y-69.
G3 X-37.99 Y-68.969 R0.249
X-37.98 Y-68.963 R0.249
X-38.236 Y-68. R0.521
G1 X-38.533
X-38.667 Y-68.007
X-38.785 Y-68.073
X-38.88 Y-68.169
X-38.947 Y-68.35
X-38.948 Y-68.542
X-38.883 Y-68.723
X-38.76 Y-68.87
X-38.594 Y-68.967
X-38.404 Y-69.
G3 X-38.292 Y-68.969 R0.249
G1 X-38.286 Y-68.965
G3 X-38.533 Y-68. R0.519
G1 X-38.842
X-38.977 Y-68.007
X-39.093 Y-68.077
X-39.186 Y-68.174
X-39.251 Y-68.354
X-39.25 Y-68.545
X-39.184 Y-68.725
X-39.061 Y-68.871
X-38.895 Y-68.967
X-38.707 Y-69.
G3 X-38.594 Y-68.969 R0.249
X-38.582 Y-68.962 R0.249
X-38.842 Y-68. R0.521
G1 X-39.14
X-39.275 Y-68.007
X-39.392 Y-68.074
X-39.486 Y-68.171
X-39.552 Y-68.351
X-39.553 Y-68.543
X-39.487 Y-68.723
X-39.364 Y-68.871
X-39.198 Y-68.967
X-39.009 Y-69.
G3 X-38.896 Y-68.969 R0.249
G1 X-38.889 Y-68.964
G3 X-39.024 Y-68.017 R0.52
X-39.14 Y-68. R0.52
G1 X-39.414
X-39.549 Y-68.007
X-39.671 Y-68.065
X-39.77 Y-68.157
X-39.844 Y-68.336
X-39.851 Y-68.53
X-39.79 Y-68.715
X-39.668 Y-68.866
X-39.5 Y-68.965
X-39.309 Y-69.
G3 X-39.21 Y-68.976 R0.249
X-39.197 Y-68.969 R0.513
X-39.414 Y-68. R0.513
G1 X-39.716
X-39.851 Y-68.007
X-39.971 Y-68.068
X-40.07 Y-68.161
X-40.142 Y-68.34
X-40.147 Y-68.534
X-40.085 Y-68.717
X-39.963 Y-68.867
X-39.796 Y-68.966
X-39.605 Y-69.
G3 X-39.501 Y-68.973 R0.249
G1 X-39.493 Y-68.969
G3 X-39.716 Y-68. R0.515
G1 X-40.013
X-40.148 Y-68.007
X-40.268 Y-68.068
X-40.366 Y-68.16
X-40.439 Y-68.34
X-40.444 Y-68.533
X-40.382 Y-68.717
X-40.26 Y-68.867
X-40.093 Y-68.966
X-39.902 Y-69.
G3 X-39.798 Y-68.973 R0.249
G1 X-39.79 Y-68.969
G3 X-40.013 Y-68. R0.515
G1 X-40.323
X-40.457 Y-68.007
X-40.575 Y-68.072
X-40.672 Y-68.167
X-40.74 Y-68.347
X-40.743 Y-68.539
X-40.679 Y-68.721
X-40.556 Y-68.869
X-40.39 Y-68.966
X-40.2 Y-69.
G3 X-40.087 Y-68.968 R0.249
X-40.206 Y-68.017 R0.517
X-40.323 Y-68. R0.517
G1 X-40.62
X-40.755 Y-68.007
X-40.874 Y-68.071
X-40.97 Y-68.165
X-41.039 Y-68.345
X-41.042 Y-68.538
X-40.979 Y-68.72
X-40.856 Y-68.869
X-40.689 Y-68.966
X-40.5 Y-69.
G3 X-40.387 Y-68.969 R0.249
X-40.62 Y-68. R0.517
G1 X-40.927
X-41.062 Y-68.007
X-41.179 Y-68.074
X-41.274 Y-68.17
X-41.342 Y-68.35
X-41.343 Y-68.542
X-41.278 Y-68.723
X-41.155 Y-68.87
X-40.989 Y-68.967
X-40.8 Y-69.
G3 X-40.687 Y-68.969 R0.249
G1 X-40.682 Y-68.966
G3 X-40.811 Y-68.017 R0.519
X-40.927 Y-68. R0.519
G1 X-41.224
X-41.359 Y-68.007
X-41.477 Y-68.072
X-41.573 Y-68.167
X-41.641 Y-68.347
X-41.643 Y-68.54
X-41.579 Y-68.721
X-41.456 Y-68.869
X-41.29 Y-68.966
X-41.1 Y-69.
G3 X-40.985 Y-68.967 R0.249
X-41.224 Y-68. R0.518
G1 X-41.534
X-41.668 Y-68.007
X-41.785 Y-68.075
X-41.879 Y-68.172
X-41.944 Y-68.352
X-41.945 Y-68.544
X-41.879 Y-68.724
X-41.756 Y-68.871
X-41.59 Y-68.967
X-41.401 Y-69.
G3 X-41.289 Y-68.969 R0.249
X-41.28 Y-68.963 R0.249
X-41.417 Y-68.017 R0.52
X-41.534 Y-68. R0.52
G1 X-41.831
X-41.966 Y-68.007
X-42.083 Y-68.074
X-42.178 Y-68.169
X-42.245 Y-68.35
X-42.246 Y-68.542
X-42.181 Y-68.723
X-42.058 Y-68.87
X-41.892 Y-68.967
X-41.703 Y-69.
G3 X-41.59 Y-68.969 R0.249
G1 X-41.584 Y-68.965
G3 X-41.831 Y-68. R0.519
G1 X-42.138
X-42.273 Y-68.007
X-42.389 Y-68.076
X-42.483 Y-68.173
X-42.548 Y-68.353
Y-68.544
X-42.483 Y-68.724
X-42.359 Y-68.871
X-42.193 Y-68.967
X-42.005 Y-69.
G3 X-41.892 Y-68.969 R0.249
X-41.882 Y-68.963 R0.249
X-42.138 Y-68. R0.521
G1 X-42.435
X-42.57 Y-68.007
X-42.687 Y-68.073
X-42.782 Y-68.169
X-42.849 Y-68.35
X-42.85 Y-68.542
X-42.785 Y-68.723
X-42.662 Y-68.87
X-42.496 Y-68.967
X-42.306 Y-69.
G3 X-42.194 Y-68.969 R0.249
G1 X-42.188 Y-68.965
G3 X-42.435 Y-68. R0.519
G1 X-42.745
X-42.879 Y-68.007
X-42.995 Y-68.077
X-43.088 Y-68.174
X-43.153 Y-68.354
X-43.152 Y-68.545
X-43.086 Y-68.725
X-42.963 Y-68.871
X-42.797 Y-68.967
X-42.609 Y-69.
G3 X-42.496 Y-68.969 R0.249
X-42.485 Y-68.962 R0.249
X-42.745 Y-68. R0.521
G1 X-43.042
X-43.177 Y-68.007
X-43.294 Y-68.074
X-43.388 Y-68.171
X-43.454 Y-68.351
X-43.455 Y-68.543
X-43.389 Y-68.723
X-43.266 Y-68.871
X-43.1 Y-68.967
X-42.911 Y-69.
G3 X-42.799 Y-68.969 R0.249
G1 X-42.791 Y-68.964
G3 X-42.926 Y-68.017 R0.52
X-43.042 Y-68. R0.52
G1 X-43.316
X-43.451 Y-68.007
X-43.573 Y-68.065
X-43.672 Y-68.157
X-43.746 Y-68.336
X-43.753 Y-68.53
X-43.692 Y-68.715
X-43.57 Y-68.866
X-43.403 Y-68.965
X-43.211 Y-69.
G3 X-43.112 Y-68.976 R0.249
X-43.099 Y-68.969 R0.513
X-43.316 Y-68. R0.513
G1 X-43.618
X-43.753 Y-68.007
X-43.874 Y-68.068
X-43.972 Y-68.161
X-44.044 Y-68.34
X-44.049 Y-68.534
X-43.987 Y-68.717
X-43.865 Y-68.867
X-43.698 Y-68.966
X-43.507 Y-69.
G3 X-43.403 Y-68.973 R0.249
G1 X-43.395 Y-68.969
G3 X-43.618 Y-68. R0.515
G1 X-43.915
X-44.05 Y-68.007
X-44.17 Y-68.068
X-44.269 Y-68.16
X-44.341 Y-68.34
X-44.346 Y-68.533
X-44.284 Y-68.717
X-44.162 Y-68.867
X-43.995 Y-68.966
X-43.804 Y-69.
G3 X-43.7 Y-68.973 R0.249
G1 X-43.692 Y-68.969
G3 X-43.915 Y-68. R0.515
G1 X-44.225
X-44.359 Y-68.007
X-44.478 Y-68.072
X-44.574 Y-68.167
X-44.643 Y-68.347
X-44.645 Y-68.539
X-44.581 Y-68.721
X-44.458 Y-68.869
X-44.292 Y-68.966
X-44.103 Y-69.
G3 X-43.989 Y-68.968 R0.249
X-44.108 Y-68.017 R0.517
X-44.225 Y-68. R0.517
G1 X-44.522
X-44.657 Y-68.007
X-44.776 Y-68.071
X-44.872 Y-68.165
X-44.942 Y-68.345
X-44.944 Y-68.538
X-44.881 Y-68.72
X-44.758 Y-68.869
X-44.592 Y-68.966
X-44.402 Y-69.
G3 X-44.29 Y-68.969 R0.249
X-44.522 Y-68. R0.517
G1 X-44.829
X-44.964 Y-68.007
X-45.081 Y-68.074
X-45.177 Y-68.17
X-45.244 Y-68.35
X-45.245 Y-68.542
X-45.18 Y-68.723
X-45.057 Y-68.87
X-44.891 Y-68.967
X-44.702 Y-69.
G3 X-44.589 Y-68.969 R0.249
G1 X-44.584 Y-68.966
G3 X-44.713 Y-68.017 R0.519
X-44.829 Y-68. R0.519
G1 X-45.126
X-45.261 Y-68.007
X-45.379 Y-68.072
X-45.475 Y-68.167
X-45.543 Y-68.347
X-45.545 Y-68.54
X-45.481 Y-68.721
X-45.358 Y-68.869
X-45.192 Y-68.966
X-45.002 Y-69.
G3 X-44.888 Y-68.967 R0.249
X-45.126 Y-68. R0.518
G1 X-45.436
X-45.57 Y-68.007
X-45.687 Y-68.075
X-45.781 Y-68.172
X-45.847 Y-68.352
Y-68.544
X-45.781 Y-68.724
X-45.658 Y-68.871
X-45.492 Y-68.967
X-45.303 Y-69.
G3 X-45.191 Y-68.969 R0.249
X-45.182 Y-68.963 R0.249
X-45.319 Y-68.017 R0.52
X-45.436 Y-68. R0.52
G1 X-45.733
X-45.868 Y-68.007
X-45.985 Y-68.074
X-46.08 Y-68.169
X-46.147 Y-68.35
X-46.148 Y-68.542
X-46.083 Y-68.723
X-45.96 Y-68.87
X-45.794 Y-68.967
X-45.605 Y-69.
G3 X-45.492 Y-68.969 R0.249
G1 X-45.487 Y-68.965
G3 X-45.733 Y-68. R0.519
G1 X-46.041
X-46.175 Y-68.007
X-46.291 Y-68.076
X-46.385 Y-68.173
X-46.451 Y-68.353
X-46.45 Y-68.544
X-46.385 Y-68.724
X-46.261 Y-68.871
X-46.096 Y-68.967
X-45.907 Y-69.
G3 X-45.794 Y-68.969 R0.249
X-45.784 Y-68.963 R0.249
X-46.041 Y-68. R0.521
G1 X-46.337
X-46.472 Y-68.007
X-46.589 Y-68.073
X-46.684 Y-68.169
X-46.751 Y-68.35
X-46.752 Y-68.542
X-46.687 Y-68.723
X-46.564 Y-68.87
X-46.398 Y-68.967
X-46.209 Y-69.
G3 X-46.096 Y-68.969 R0.249
G1 X-46.09 Y-68.965
G3 X-46.337 Y-68. R0.519
G1 X-46.647
X-46.782 Y-68.007
X-46.897 Y-68.077
X-46.991 Y-68.174
X-47.055 Y-68.354
Y-68.545
X-46.989 Y-68.725
X-46.865 Y-68.871
X-46.699 Y-68.967
X-46.511 Y-69.
G3 X-46.398 Y-68.969 R0.249
X-46.387 Y-68.962 R0.249
X-46.647 Y-68. R0.521
G1 X-46.944
X-47.079 Y-68.007
X-47.196 Y-68.074
X-47.29 Y-68.171
X-47.356 Y-68.351
X-47.357 Y-68.543
X-47.292 Y-68.723
X-47.168 Y-68.871
X-47.002 Y-68.967
X-46.813 Y-69.
G3 X-46.701 Y-68.969 R0.249
G1 X-46.693 Y-68.964
G3 X-46.828 Y-68.017 R0.52
X-46.944 Y-68. R0.52
G1 X-47.218
X-47.353 Y-68.007
X-47.475 Y-68.065
X-47.574 Y-68.157
X-47.648 Y-68.336
X-47.655 Y-68.53
X-47.594 Y-68.715
X-47.472 Y-68.866
X-47.305 Y-68.965
X-47.113 Y-69.
G3 X-47.014 Y-68.976 R0.249
X-47.001 Y-68.969 R0.513
X-47.218 Y-68. R0.513
G1 X-47.521
X-47.655 Y-68.007
X-47.776 Y-68.068
X-47.874 Y-68.161
X-47.946 Y-68.34
X-47.952 Y-68.534
X-47.889 Y-68.717
X-47.767 Y-68.867
X-47.6 Y-68.966
X-47.41 Y-69.
G3 X-47.305 Y-68.973 R0.249
G1 X-47.297 Y-68.969
G3 X-47.521 Y-68. R0.515
G1 X-47.817
X-47.952 Y-68.007
X-48.072 Y-68.068
X-48.171 Y-68.16
X-48.243 Y-68.34
X-48.249 Y-68.533
X-48.186 Y-68.717
X-48.064 Y-68.867
X-47.897 Y-68.966
X-47.706 Y-69.
G3 X-47.602 Y-68.973 R0.249
G1 X-47.594 Y-68.969
G3 X-47.817 Y-68. R0.515
G1 X-48.127
X-48.262 Y-68.007
X-48.38 Y-68.072
X-48.476 Y-68.167
X-48.545 Y-68.347
X-48.547 Y-68.539
X-48.483 Y-68.721
X-48.361 Y-68.869
X-48.194 Y-68.966
X-48.005 Y-69.
G3 X-47.891 Y-68.968 R0.249
X-48.011 Y-68.017 R0.517
X-48.127 Y-68. R0.517
G1 X-48.424
X-48.559 Y-68.007
X-48.678 Y-68.071
X-48.774 Y-68.165
X-48.844 Y-68.345
X-48.847 Y-68.538
X-48.783 Y-68.72
X-48.66 Y-68.869
X-48.494 Y-68.966
X-48.304 Y-69.
G3 X-48.192 Y-68.969 R0.249
X-48.424 Y-68. R0.517
G1 X-48.732
X-48.866 Y-68.007
X-48.984 Y-68.074
X-49.079 Y-68.17
X-49.146 Y-68.35
X-49.147 Y-68.542
X-49.082 Y-68.723
X-48.959 Y-68.87
X-48.793 Y-68.967
X-48.604 Y-69.
G3 X-48.492 Y-68.969 R0.249
G1 X-48.486 Y-68.966
G3 X-48.615 Y-68.017 R0.519
X-48.732 Y-68. R0.519
G1 X-49.028
X-49.163 Y-68.007
X-49.281 Y-68.072
X-49.377 Y-68.167
X-49.445 Y-68.347
X-49.447 Y-68.54
X-49.383 Y-68.721
X-49.26 Y-68.869
X-49.094 Y-68.966
X-48.904 Y-69.
G3 X-48.79 Y-68.967 R0.249
X-49.028 Y-68. R0.518
G1 X-49.338
X-49.473 Y-68.007
X-49.589 Y-68.075
X-49.683 Y-68.172
X-49.749 Y-68.352
Y-68.544
X-49.683 Y-68.724
X-49.56 Y-68.871
X-49.394 Y-68.967
X-49.206 Y-69.
G3 X-49.093 Y-68.969 R0.249
X-49.084 Y-68.963 R0.249
X-49.222 Y-68.017 R0.52
X-49.338 Y-68. R0.52
G1 X-49.635
X-49.77 Y-68.007
X-49.887 Y-68.074
X-49.982 Y-68.169
X-50.049 Y-68.35
X-50.05 Y-68.542
X-49.986 Y-68.723
X-49.862 Y-68.87
X-49.696 Y-68.967
X-49.507 Y-69.
G3 X-49.395 Y-68.969 R0.249
G1 X-49.389 Y-68.965
G3 X-49.635 Y-68. R0.519
G1 X-49.943
X-50.077 Y-68.007
X-50.194 Y-68.076
X-50.287 Y-68.173
X-50.353 Y-68.353
Y-68.544
X-50.287 Y-68.724
X-50.164 Y-68.871
X-49.998 Y-68.967
X-49.809 Y-69.
G3 X-49.697 Y-68.969 R0.249
X-49.686 Y-68.963 R0.249
X-49.943 Y-68. R0.521
G1 X-50.239
X-50.374 Y-68.007
X-50.491 Y-68.073
X-50.586 Y-68.169
X-50.653 Y-68.35
X-50.654 Y-68.542
X-50.589 Y-68.723
X-50.466 Y-68.87
X-50.3 Y-68.967
X-50.111 Y-69.
G3 X-49.998 Y-68.969 R0.249
G1 X-49.992 Y-68.965
G3 X-50.239 Y-68. R0.519
G1 X-50.549
X-50.684 Y-68.007
X-50.799 Y-68.077
X-50.893 Y-68.174
X-50.957 Y-68.354
Y-68.545
X-50.891 Y-68.725
X-50.767 Y-68.871
X-50.602 Y-68.967
X-50.413 Y-69.
G3 X-50.301 Y-68.969 R0.249
X-50.289 Y-68.962 R0.249
X-50.549 Y-68. R0.521
G1 X-50.846
X-50.981 Y-68.007
X-51.098 Y-68.074
X-51.192 Y-68.171
X-51.259 Y-68.351
Y-68.543
X-51.194 Y-68.723
X-51.071 Y-68.871
X-50.904 Y-68.967
X-50.715 Y-69.
G3 X-50.603 Y-68.969 R0.249
G1 X-50.595 Y-68.964
G3 X-50.73 Y-68.017 R0.52
X-50.846 Y-68. R0.52
G1 X-51.12
X-51.255 Y-68.007
X-51.377 Y-68.065
X-51.476 Y-68.157
X-51.551 Y-68.336
X-51.557 Y-68.53
X-51.496 Y-68.715
X-51.374 Y-68.866
X-51.207 Y-68.965
X-51.016 Y-69.
G3 X-50.917 Y-68.976 R0.249
X-50.903 Y-68.969 R0.513
X-51.12 Y-68. R0.513
G1 X-51.423
X-51.558 Y-68.007
X-51.678 Y-68.068
X-51.776 Y-68.161
X-51.849 Y-68.34
X-51.854 Y-68.534
X-51.791 Y-68.717
X-51.669 Y-68.867
X-51.502 Y-68.966
X-51.312 Y-69.
G3 X-51.207 Y-68.973 R0.249
G1 X-51.199 Y-68.969
G3 X-51.423 Y-68. R0.515
G1 X-51.719
X-51.854 Y-68.007
X-51.974 Y-68.068
X-52.073 Y-68.16
X-52.145 Y-68.34
X-52.151 Y-68.533
X-52.088 Y-68.717
X-51.966 Y-68.867
X-51.799 Y-68.966
X-51.609 Y-69.
G3 X-51.505 Y-68.973 R0.249
G1 X-51.496 Y-68.969
G3 X-51.719 Y-68. R0.515
G1 X-52.029
X-52.164 Y-68.007
X-52.282 Y-68.072
X-52.378 Y-68.167
X-52.447 Y-68.347
X-52.449 Y-68.539
X-52.385 Y-68.721
X-52.263 Y-68.869
X-52.096 Y-68.966
X-51.907 Y-69.
G3 X-51.793 Y-68.968 R0.249
X-51.913 Y-68.017 R0.517
X-52.029 Y-68. R0.517
G1 X-52.326
X-52.461 Y-68.007
X-52.58 Y-68.071
X-52.676 Y-68.165
X-52.746 Y-68.345
X-52.749 Y-68.538
X-52.685 Y-68.72
X-52.562 Y-68.869
X-52.396 Y-68.966
X-52.206 Y-69.
G3 X-52.094 Y-68.969 R0.249
X-52.326 Y-68. R0.517
G1 X-52.634
X-52.769 Y-68.007
X-52.886 Y-68.074
X-52.981 Y-68.17
X-53.048 Y-68.35
X-53.049 Y-68.542
X-52.984 Y-68.723
X-52.861 Y-68.87
X-52.695 Y-68.967
X-52.506 Y-69.
G3 X-52.394 Y-68.969 R0.249
G1 X-52.388 Y-68.966
G3 X-52.518 Y-68.017 R0.519
X-52.634 Y-68. R0.519
G1 X-52.93
X-53.065 Y-68.007
X-53.183 Y-68.072
X-53.279 Y-68.167
X-53.347 Y-68.347
X-53.35 Y-68.54
X-53.285 Y-68.721
X-53.162 Y-68.869
X-52.996 Y-68.966
X-52.806 Y-69.
G3 X-52.692 Y-68.967 R0.249
X-52.93 Y-68. R0.518
G1 X-53.24
X-53.375 Y-68.007
X-53.491 Y-68.075
X-53.585 Y-68.172
X-53.651 Y-68.352
Y-68.544
X-53.586 Y-68.724
X-53.462 Y-68.871
X-53.296 Y-68.967
X-53.108 Y-69.
G3 X-52.995 Y-68.969 R0.249
X-52.986 Y-68.963 R0.249
X-53.124 Y-68.017 R0.52
X-53.24 Y-68. R0.52
G1 X-53.537
X-53.672 Y-68.007
X-53.79 Y-68.074
X-53.885 Y-68.169
X-53.952 Y-68.35
X-53.953 Y-68.542
X-53.888 Y-68.723
X-53.765 Y-68.87
X-53.598 Y-68.967
X-53.409 Y-69.
G3 X-53.297 Y-68.969 R0.249
G1 X-53.291 Y-68.965
G3 X-53.537 Y-68. R0.519
G1 X-53.845
X-53.98 Y-68.007
X-54.096 Y-68.076
X-54.19 Y-68.173
X-54.255 Y-68.353
Y-68.544
X-54.189 Y-68.724
X-54.066 Y-68.871
X-53.9 Y-68.967
X-53.711 Y-69.
G3 X-53.599 Y-68.969 R0.249
X-53.589 Y-68.963 R0.249
X-53.845 Y-68. R0.521
G1 X-54.141
X-54.276 Y-68.007
X-54.393 Y-68.073
X-54.488 Y-68.169
X-54.555 Y-68.35
X-54.556 Y-68.542
X-54.491 Y-68.723
X-54.368 Y-68.87
X-54.202 Y-68.967
X-54.013 Y-69.
G3 X-53.9 Y-68.969 R0.249
G1 X-53.895 Y-68.965
G3 X-54.141 Y-68. R0.519
G1 X-54.451
X-54.586 Y-68.007
X-54.701 Y-68.077
X-54.795 Y-68.174
X-54.86 Y-68.354
X-54.859 Y-68.545
X-54.793 Y-68.725
X-54.67 Y-68.871
X-54.504 Y-68.967
X-54.315 Y-69.
G3 X-54.203 Y-68.969 R0.249
X-54.191 Y-68.962 R0.249
X-54.451 Y-68. R0.521
G1 X-54.748
X-54.883 Y-68.007
X-55. Y-68.074
X-55.095 Y-68.171
X-55.161 Y-68.351
Y-68.543
X-55.096 Y-68.723
X-54.973 Y-68.871
X-54.807 Y-68.967
X-54.618 Y-69.
G3 X-54.505 Y-68.969 R0.249
G1 X-54.497 Y-68.964
G3 X-54.632 Y-68.017 R0.52
X-54.748 Y-68. R0.52
G1 X-55.023
X-55.157 Y-68.007
X-55.279 Y-68.065
X-55.378 Y-68.157
X-55.453 Y-68.336
X-55.46 Y-68.53
X-55.398 Y-68.715
X-55.276 Y-68.866
X-55.109 Y-68.965
X-54.918 Y-69.
G3 X-54.819 Y-68.976 R0.249
X-54.805 Y-68.969 R0.513
X-55.023 Y-68. R0.513
G1 X-55.325
X-55.46 Y-68.007
X-55.58 Y-68.068
X-55.678 Y-68.161
X-55.751 Y-68.34
X-55.756 Y-68.534
X-55.694 Y-68.717
X-55.571 Y-68.867
X-55.405 Y-68.966
X-55.214 Y-69.
G3 X-55.11 Y-68.973 R0.249
G1 X-55.101 Y-68.969
G3 X-55.325 Y-68. R0.515
G1 X-55.621
X-55.756 Y-68.007
X-55.877 Y-68.068
X-55.975 Y-68.16
X-56.047 Y-68.34
X-56.053 Y-68.533
X-55.991 Y-68.717
X-55.868 Y-68.867
X-55.701 Y-68.966
X-55.511 Y-69.
G3 X-55.407 Y-68.973 R0.249
G1 X-55.398 Y-68.969
G3 X-55.621 Y-68. R0.515
G1 X-55.931
X-56.066 Y-68.007
X-56.184 Y-68.072
X-56.28 Y-68.167
X-56.349 Y-68.347
X-56.352 Y-68.539
X-56.288 Y-68.721
X-56.165 Y-68.869
X-55.999 Y-68.966
X-55.809 Y-69.
G3 X-55.696 Y-68.968 R0.249
X-55.815 Y-68.017 R0.517
X-55.931 Y-68. R0.517
G1 X-56.229
X-56.363 Y-68.007
X-56.482 Y-68.071
X-56.579 Y-68.165
X-56.648 Y-68.345
X-56.651 Y-68.538
X-56.587 Y-68.72
X-56.464 Y-68.869
X-56.298 Y-68.966
X-56.108 Y-69.
G3 X-55.996 Y-68.969 R0.249
X-56.229 Y-68. R0.517
G1 X-56.536
X-56.671 Y-68.007
X-56.788 Y-68.074
X-56.883 Y-68.17
X-56.95 Y-68.35
X-56.951 Y-68.542
X-56.887 Y-68.723
X-56.764 Y-68.87
X-56.597 Y-68.967
X-56.408 Y-69.
G3 X-56.296 Y-68.969 R0.249
G1 X-56.29 Y-68.966
G3 X-56.42 Y-68.017 R0.519
X-56.536 Y-68. R0.519
G1 X-56.832
X-56.967 Y-68.001
X-57.085 Y-68.066
X-57.181 Y-68.161
X-57.251 Y-68.342
X-57.254 Y-68.536
X-57.189 Y-68.719
X-57.066 Y-68.868
X-56.898 Y-68.966
X-56.707 Y-69.
G3 X-56.595 Y-68.969 R0.248
X-56.575 Y-68.956 R0.248
X-56.717 Y-68.022 R0.526
X-56.832 Y-68. R0.526
G1 X-57.101 Y-67.986
X-57.236 Y-67.985
X-57.36 Y-68.04
X-57.461 Y-68.129
X-57.544 Y-68.311
X-57.556 Y-68.511
X-57.497 Y-68.702
X-57.374 Y-68.86
X-57.202 Y-68.964
X-57.005 Y-69.
G3 X-56.893 Y-68.969 R0.251
G1 X-56.889 Y-68.967
G3 X-57.101 Y-67.986 R0.527
G1 X-57.236 Y-67.978
X-57.371 Y-67.959
X-57.504 Y-67.941
X-57.631 Y-67.989
X-57.738 Y-68.071
X-57.828 Y-68.23
X-57.864 Y-68.409
X-57.842 Y-68.59
X-57.763 Y-68.755
X-57.636 Y-68.886
X-57.475 Y-68.971
X-57.295 Y-69.
G3 X-57.147 Y-68.946 R0.254
X-57.259 Y-67.996 R0.559
X-57.371 Y-67.959 R0.559
G1 X-57.64 Y-67.909
X-57.773 Y-67.892
X-57.903 Y-67.931
X-58.016 Y-68.005
X-58.122 Y-68.169
X-58.169 Y-68.358
X-58.152 Y-68.553
X-58.073 Y-68.732
X-57.941 Y-68.875
X-57.769 Y-68.968
X-57.576 Y-69.
G3 X-57.463 Y-68.97 R0.267
X-57.433 Y-68.952 R0.267
X-57.64 Y-67.909 R0.58
G1 X-57.949 Y-67.852
X-58.083 Y-67.834
X-58.211 Y-67.879
X-58.323 Y-67.954
X-58.435 Y-68.126
X-58.486 Y-68.325
X-58.469 Y-68.529
X-58.387 Y-68.717
X-58.247 Y-68.868
X-58.067 Y-68.966
X-57.864 Y-69.
G3 X-57.751 Y-68.972 R0.28
X-57.701 Y-68.94 R0.28
X-57.838 Y-67.888 R0.617
X-57.949 Y-67.852 R0.617
G1 X-58.219 Y-67.8
X-58.352 Y-67.776
X-58.483 Y-67.806
X-58.601 Y-67.872
X-58.736 Y-68.048
X-58.804 Y-68.259
X-58.797 Y-68.48
X-58.717 Y-68.686
X-58.571 Y-68.853
X-58.378 Y-68.962
X-58.16 Y-69.
G3 X-58.046 Y-68.973 R0.3
X-57.877 Y-68.64 R0.3
G1 X-58.002 Y-68.03
G3 X-58.219 Y-67.8 R0.3
G1 X-58.514 Y-67.732
X-58.647 Y-67.709
X-58.779 Y-67.736
X-58.9 Y-67.797
X-59.003 Y-67.884
X-59.113 Y-68.074
X-59.157 Y-68.288
X-59.131 Y-68.506
X-59.037 Y-68.704
X-58.885 Y-68.863
X-58.691 Y-68.965
X-58.475 Y-69.
G3 X-58.189 Y-68.654 R0.3
G1 X-58.294 Y-67.976
G3 X-58.409 Y-67.784 R0.3
X-58.514 Y-67.732 R0.3
G1 X-58.582 Y-67.715
X-58.749 Y-67.641
X-58.874 Y-67.589
X-59.009 Y-67.594
X-59.138 Y-67.632
X-59.255 Y-67.7
X-59.358 Y-67.788
X-59.475 Y-67.995
X-59.522 Y-68.229
X-59.492 Y-68.465
X-59.389 Y-68.68
X-59.223 Y-68.852
X-59.012 Y-68.962
X-58.777 Y-69.
G3 X-58.663 Y-68.973 R0.3
X-58.49 Y-68.662 R0.3
G1 X-58.591 Y-67.869
G3 X-58.749 Y-67.641 R0.3
G1 X-58.851 Y-67.59
X-58.985 Y-67.51
X-59.104 Y-67.445
X-59.237 Y-67.424
X-59.371 Y-67.443
X-59.498 Y-67.488
X-59.613 Y-67.559
X-59.716 Y-67.646
X-59.84 Y-67.843
X-59.904 Y-68.067
X-59.902 Y-68.3
X-59.835 Y-68.523
X-59.708 Y-68.719
X-59.531 Y-68.871
X-59.319 Y-68.967
X-59.088 Y-69.
G3 X-58.799 Y-68.684 R0.3
G1 X-58.851 Y-67.744
G3 X-58.985 Y-67.51 R0.3
G1 X-59.306 Y-67.314
X-59.425 Y-67.249
X-59.558 Y-67.232
X-59.692 Y-67.248
X-59.821 Y-67.288
X-59.941 Y-67.352
X-60.049 Y-67.431
X-60.145 Y-67.527
X-60.227 Y-67.634
X-60.295 Y-67.751
X-60.346 Y-67.876
X-60.389 Y-68.033
X-60.393 Y-68.272
X-60.329 Y-68.503
X-60.201 Y-68.706
X-60.021 Y-68.865
X-59.804 Y-68.966
X-59.566 Y-69.
X-59.088
G3 X-58.814 Y-68.607 R0.3
G1 X-59.186 Y-67.471
G3 X-59.223 Y-67.396 R0.3
X-59.306 Y-67.314 R0.3
G1 X-59.597 Y-67.135
X-59.716 Y-67.07
X-59.847 Y-67.038
X-59.982 Y-67.036
X-60.115 Y-67.058
X-60.243 Y-67.102
X-60.363 Y-67.163
X-60.475 Y-67.239
X-60.576 Y-67.328
X-60.666 Y-67.429
X-60.744 Y-67.539
X-60.81 Y-67.657
X-60.861 Y-67.781
X-60.9 Y-67.911
X-60.925 Y-68.043
X-60.935 Y-68.185
X-60.902 Y-68.397
X-60.817 Y-68.594
X-60.684 Y-68.762
X-60.513 Y-68.891
X-60.314 Y-68.972
X-60.102 Y-69.
X-59.566
G3 X-59.28 Y-68.658 R0.3
G1 X-59.466 Y-67.343
G3 X-59.597 Y-67.135 R0.3
G1 X-59.913 Y-66.933
X-59.927 Y-66.922
X-60.036 Y-66.842
X-60.165 Y-66.802
X-60.299 Y-66.788
X-60.434 Y-66.797
X-60.566 Y-66.825
X-60.693 Y-66.871
X-60.814 Y-66.931
X-60.927 Y-67.004
X-61.033 Y-67.088
X-61.129 Y-67.183
X-61.216 Y-67.286
X-61.293 Y-67.397
X-61.359 Y-67.515
X-61.414 Y-67.638
X-61.457 Y-67.766
X-61.487 Y-67.897
X-61.506 Y-68.031
X-61.509 Y-68.215
X-61.457 Y-68.461
X-61.334 Y-68.68
X-61.151 Y-68.852
X-60.925 Y-68.962
X-60.677 Y-69.
X-60.102
G3 X-59.812 Y-68.697 R0.3
G1 X-59.831 Y-67.139
G3 X-59.858 Y-67.017 R0.3
X-59.927 Y-66.922 R0.3
G1 X-60.07 Y-66.799
X-60.164 Y-66.692
X-60.258 Y-66.595
X-60.377 Y-66.531
X-60.506 Y-66.492
X-60.64 Y-66.475
X-60.775 Y-66.477
X-60.909 Y-66.496
X-61.039 Y-66.53
X-61.166 Y-66.578
X-61.286 Y-66.638
X-61.401 Y-66.709
X-61.509 Y-66.79
X-61.61 Y-66.879
X-61.704 Y-66.977
X-61.789 Y-67.082
X-61.865 Y-67.193
X-61.934 Y-67.309
X-61.993 Y-67.431
X-62.041 Y-67.557
X-62.08 Y-67.686
X-62.109 Y-67.818
