(__2_3)
(T2  D=3. CR=0. - ZMIN=-5. - FLAT END MILL)
G90 G94 G91.1 G40 G49 G17
G21

(2D CONTOUR3)
M5
M9
T2
S5820 M3
G54
M8
G0 X-54.361 Y-54.866
G43 Z15. H2
Z5.
G1 Z1. F200.
Z0.5
G3 X-54.128 Y-53.384 Z0.418 R0.75 F400.
X-54.361 Y-54.866 Z0.335 R0.75
X-54.128 Y-53.384 Z0.253 R0.75
X-54.361 Y-54.866 Z0.171 R0.75
X-54.128 Y-53.384 Z0.089 R0.75
X-54.361 Y-54.866 Z0.006 R0.75
X-54.128 Y-53.384 Z-0.076 R0.75
X-54.361 Y-54.866 Z-0.158 R0.75
X-54.128 Y-53.384 Z-0.241 R0.75
X-54.361 Y-54.866 Z-0.323 R0.75
X-54.128 Y-53.384 Z-0.405 R0.75
X-54.361 Y-54.866 Z-0.487 R0.75
X-54.128 Y-53.384 Z-0.57 R0.75
X-54.361 Y-54.866 Z-0.652 R0.75
X-54.128 Y-53.384 Z-0.734 R0.75
X-54.361 Y-54.866 Z-0.816 R0.75
X-54.128 Y-53.384 Z-0.899 R0.75
X-54.361 Y-54.866 Z-0.981 R0.75
X-54.128 Y-53.384 Z-1.063 R0.75
X-54.361 Y-54.866 Z-1.146 R0.75
X-54.128 Y-53.384 Z-1.228 R0.75
X-54.361 Y-54.866 Z-1.31 R0.75
X-54.128 Y-53.384 Z-1.392 R0.75
X-54.361 Y-54.866 Z-1.475 R0.75
X-54.128 Y-53.384 Z-1.557 R0.75
X-54.361 Y-54.866 Z-1.639 R0.75
X-54.128 Y-53.384 Z-1.722 R0.75
X-54.361 Y-54.866 Z-1.804 R0.75
X-54.128 Y-53.384 Z-1.886 R0.75
X-54.361 Y-54.866 Z-1.968 R0.75
X-54.128 Y-53.384 Z-2.051 R0.75
X-54.361 Y-54.866 Z-2.133 R0.75
X-54.128 Y-53.384 Z-2.215 R0.75
X-54.361 Y-54.866 Z-2.298 R0.75
X-54.128 Y-53.384 Z-2.38 R0.75
X-54.361 Y-54.866 Z-2.462 R0.75
X-54.128 Y-53.384 Z-2.544 R0.75
X-54.361 Y-54.866 Z-2.627 R0.75
X-54.128 Y-53.384 Z-2.709 R0.75
X-54.361 Y-54.866 Z-2.791 R0.75
X-54.128 Y-53.384 Z-2.873 R0.75
X-54.361 Y-54.866 Z-2.956 R0.75
X-54.128 Y-53.384 Z-3.038 R0.75
X-54.361 Y-54.866 Z-3.12 R0.75
X-54.128 Y-53.384 Z-3.203 R0.75
X-54.361 Y-54.866 Z-3.285 R0.75
X-54.128 Y-53.384 Z-3.367 R0.75
X-54.361 Y-54.866 Z-3.449 R0.75
X-54.128 Y-53.384 Z-3.532 R0.75
X-54.361 Y-54.866 Z-3.614 R0.75
X-54.128 Y-53.384 Z-3.696 R0.75
X-54.361 Y-54.866 Z-3.779 R0.75
X-54.128 Y-53.384 Z-3.861 R0.75
X-54.361 Y-54.866 Z-3.943 R0.75
X-54.128 Y-53.384 Z-4.025 R0.75
X-54.361 Y-54.866 Z-4.108 R0.75
X-54.128 Y-53.384 Z-4.19 R0.75
X-54.361 Y-54.866 Z-4.272 R0.75
X-54.128 Y-53.384 Z-4.355 R0.75
X-54.361 Y-54.866 Z-4.437 R0.75
X-54.128 Y-53.384 Z-4.519 R0.75
X-54.361 Y-54.866 Z-4.601 R0.75
X-54.128 Y-53.384 Z-4.684 R0.75
X-54.361 Y-54.866 Z-4.766 R0.75
X-54.128 Y-53.384 Z-4.848 R0.75
X-54.361 Y-54.866 Z-4.93 R0.75
X-53.794 Y-53.525 Z-5. R0.75
X-54.694 Y-54.725 R0.75
X-53.794 Y-53.525 R0.75
G0 Z5.
X-53.582 Y30.127
G1 Z1. F200.
Z0.5
G3 X-54.907 Y29.424 Z0.418 R0.75 F400.
X-53.582 Y30.127 Z0.335 R0.75
X-54.907 Y29.424 Z0.253 R0.75
X-53.582 Y30.127 Z0.171 R0.75
X-54.907 Y29.424 Z0.089 R0.75
X-53.582 Y30.127 Z0.006 R0.75
X-54.907 Y29.424 Z-0.076 R0.75
X-53.582 Y30.127 Z-0.158 R0.75
X-54.907 Y29.424 Z-0.241 R0.75
X-53.582 Y30.127 Z-0.323 R0.75
X-54.907 Y29.424 Z-0.405 R0.75
X-53.582 Y30.127 Z-0.487 R0.75
X-54.907 Y29.424 Z-0.57 R0.75
X-53.582 Y30.127 Z-0.652 R0.75
X-54.907 Y29.424 Z-0.734 R0.75
X-53.582 Y30.127 Z-0.816 R0.75
X-54.907 Y29.424 Z-0.899 R0.75
X-53.582 Y30.127 Z-0.981 R0.75
X-54.907 Y29.424 Z-1.063 R0.75
X-53.582 Y30.127 Z-1.146 R0.75
X-54.907 Y29.424 Z-1.228 R0.75
X-53.582 Y30.127 Z-1.31 R0.75
X-54.907 Y29.424 Z-1.392 R0.75
X-53.582 Y30.127 Z-1.475 R0.75
X-54.907 Y29.424 Z-1.557 R0.75
X-53.582 Y30.127 Z-1.639 R0.75
X-54.907 Y29.424 Z-1.722 R0.75
X-53.582 Y30.127 Z-1.804 R0.75
X-54.907 Y29.424 Z-1.886 R0.75
X-53.582 Y30.127 Z-1.968 R0.75
X-54.907 Y29.424 Z-2.051 R0.75
X-53.582 Y30.127 Z-2.133 R0.75
X-54.907 Y29.424 Z-2.215 R0.75
X-53.582 Y30.127 Z-2.298 R0.75
X-54.907 Y29.424 Z-2.38 R0.75
X-53.582 Y30.127 Z-2.462 R0.75
X-54.907 Y29.424 Z-2.544 R0.75
X-53.582 Y30.127 Z-2.627 R0.75
X-54.907 Y29.424 Z-2.709 R0.75
X-53.582 Y30.127 Z-2.791 R0.75
X-54.907 Y29.424 Z-2.873 R0.75
X-53.582 Y30.127 Z-2.956 R0.75
X-54.907 Y29.424 Z-3.038 R0.75
X-53.582 Y30.127 Z-3.12 R0.75
X-54.907 Y29.424 Z-3.203 R0.75
X-53.582 Y30.127 Z-3.285 R0.75
X-54.907 Y29.424 Z-3.367 R0.75
X-53.582 Y30.127 Z-3.449 R0.75
X-54.907 Y29.424 Z-3.532 R0.75
X-53.582 Y30.127 Z-3.614 R0.75
X-54.907 Y29.424 Z-3.696 R0.75
X-53.582 Y30.127 Z-3.779 R0.75
X-54.907 Y29.424 Z-3.861 R0.75
X-53.582 Y30.127 Z-3.943 R0.75
X-54.907 Y29.424 Z-4.025 R0.75
X-53.582 Y30.127 Z-4.108 R0.75
X-54.907 Y29.424 Z-4.19 R0.75
X-53.582 Y30.127 Z-4.272 R0.75
X-54.907 Y29.424 Z-4.355 R0.75
X-53.582 Y30.127 Z-4.437 R0.75
X-54.907 Y29.424 Z-4.519 R0.75
X-53.582 Y30.127 Z-4.601 R0.75
X-54.907 Y29.424 Z-4.684 R0.75
X-53.582 Y30.127 Z-4.766 R0.75
X-54.907 Y29.424 Z-4.848 R0.75
X-53.582 Y30.127 Z-4.93 R0.75
X-54.994 Y29.776 Z-5. R0.75
X-53.494 R0.75
X-54.994 R0.75
G0 Z5.
X53.566 Y30.095
G1 Z1. F200.
Z0.5
G3 X54.923 Y29.456 Z0.418 R0.75 F400.
X53.566 Y30.095 Z0.335 R0.75
X54.923 Y29.456 Z0.253 R0.75
X53.566 Y30.095 Z0.171 R0.75
X54.923 Y29.456 Z0.089 R0.75
X53.566 Y30.095 Z0.006 R0.75
X54.923 Y29.456 Z-0.076 R0.75
X53.566 Y30.095 Z-0.158 R0.75
X54.923 Y29.456 Z-0.241 R0.75
X53.566 Y30.095 Z-0.323 R0.75
X54.923 Y29.456 Z-0.405 R0.75
X53.566 Y30.095 Z-0.487 R0.75
X54.923 Y29.456 Z-0.57 R0.75
X53.566 Y30.095 Z-0.652 R0.75
X54.923 Y29.456 Z-0.734 R0.75
X53.566 Y30.095 Z-0.816 R0.75
X54.923 Y29.456 Z-0.899 R0.75
X53.566 Y30.095 Z-0.981 R0.75
X54.923 Y29.456 Z-1.063 R0.75
X53.566 Y30.095 Z-1.146 R0.75
X54.923 Y29.456 Z-1.228 R0.75
X53.566 Y30.095 Z-1.31 R0.75
X54.923 Y29.456 Z-1.392 R0.75
X53.566 Y30.095 Z-1.475 R0.75
X54.923 Y29.456 Z-1.557 R0.75
X53.566 Y30.095 Z-1.639 R0.75
X54.923 Y29.456 Z-1.722 R0.75
X53.566 Y30.095 Z-1.804 R0.75
X54.923 Y29.456 Z-1.886 R0.75
X53.566 Y30.095 Z-1.968 R0.75
X54.923 Y29.456 Z-2.051 R0.75
X53.566 Y30.095 Z-2.133 R0.75
X54.923 Y29.456 Z-2.215 R0.75
X53.566 Y30.095 Z-2.298 R0.75
X54.923 Y29.456 Z-2.38 R0.75
X53.566 Y30.095 Z-2.462 R0.75
X54.923 Y29.456 Z-2.544 R0.75
X53.566 Y30.095 Z-2.627 R0.75
X54.923 Y29.456 Z-2.709 R0.75
X53.566 Y30.095 Z-2.791 R0.75
X54.923 Y29.456 Z-2.873 R0.75
X53.566 Y30.095 Z-2.956 R0.75
X54.923 Y29.456 Z-3.038 R0.75
X53.566 Y30.095 Z-3.12 R0.75
X54.923 Y29.456 Z-3.203 R0.75
X53.566 Y30.095 Z-3.285 R0.75
X54.923 Y29.456 Z-3.367 R0.75
X53.566 Y30.095 Z-3.449 R0.75
X54.923 Y29.456 Z-3.532 R0.75
X53.566 Y30.095 Z-3.614 R0.75
X54.923 Y29.456 Z-3.696 R0.75
X53.566 Y30.095 Z-3.779 R0.75
X54.923 Y29.456 Z-3.861 R0.75
X53.566 Y30.095 Z-3.943 R0.75
X54.923 Y29.456 Z-4.025 R0.75
X53.566 Y30.095 Z-4.108 R0.75
X54.923 Y29.456 Z-4.19 R0.75
X53.566 Y30.095 Z-4.272 R0.75
X54.923 Y29.456 Z-4.355 R0.75
X53.566 Y30.095 Z-4.437 R0.75
X54.923 Y29.456 Z-4.519 R0.75
X53.566 Y30.095 Z-4.601 R0.75
X54.923 Y29.456 Z-4.684 R0.75
X53.566 Y30.095 Z-4.766 R0.75
X54.923 Y29.456 Z-4.848 R0.75
X53.566 Y30.095 Z-4.93 R0.75
X54.694 Y29.176 Z-5. R0.75
X53.794 Y30.376 R0.75
X54.694 Y29.176 R0.75
G0 Z5.
X54.128 Y-54.866
G1 Z1. F200.
Z0.5
G3 X54.361 Y-53.384 Z0.418 R0.75 F400.
X54.128 Y-54.866 Z0.335 R0.75
X54.361 Y-53.384 Z0.253 R0.75
X54.128 Y-54.866 Z0.171 R0.75
X54.361 Y-53.384 Z0.089 R0.75
X54.128 Y-54.866 Z0.006 R0.75
X54.361 Y-53.384 Z-0.076 R0.75
X54.128 Y-54.866 Z-0.158 R0.75
X54.361 Y-53.384 Z-0.241 R0.75
X54.128 Y-54.866 Z-0.323 R0.75
X54.361 Y-53.384 Z-0.405 R0.75
X54.128 Y-54.866 Z-0.487 R0.75
X54.361 Y-53.384 Z-0.57 R0.75
X54.128 Y-54.866 Z-0.652 R0.75
X54.361 Y-53.384 Z-0.734 R0.75
X54.128 Y-54.866 Z-0.816 R0.75
X54.361 Y-53.384 Z-0.899 R0.75
X54.128 Y-54.866 Z-0.981 R0.75
X54.361 Y-53.384 Z-1.063 R0.75
X54.128 Y-54.866 Z-1.146 R0.75
X54.361 Y-53.384 Z-1.228 R0.75
X54.128 Y-54.866 Z-1.31 R0.75
X54.361 Y-53.384 Z-1.392 R0.75
X54.128 Y-54.866 Z-1.475 R0.75
X54.361 Y-53.384 Z-1.557 R0.75
X54.128 Y-54.866 Z-1.639 R0.75
X54.361 Y-53.384 Z-1.722 R0.75
X54.128 Y-54.866 Z-1.804 R0.75
X54.361 Y-53.384 Z-1.886 R0.75
X54.128 Y-54.866 Z-1.968 R0.75
X54.361 Y-53.384 Z-2.051 R0.75
X54.128 Y-54.866 Z-2.133 R0.75
X54.361 Y-53.384 Z-2.215 R0.75
X54.128 Y-54.866 Z-2.298 R0.75
X54.361 Y-53.384 Z-2.38 R0.75
X54.128 Y-54.866 Z-2.462 R0.75
X54.361 Y-53.384 Z-2.544 R0.75
X54.128 Y-54.866 Z-2.627 R0.75
X54.361 Y-53.384 Z-2.709 R0.75
X54.128 Y-54.866 Z-2.791 R0.75
X54.361 Y-53.384 Z-2.873 R0.75
X54.128 Y-54.866 Z-2.956 R0.75
X54.361 Y-53.384 Z-3.038 R0.75
X54.128 Y-54.866 Z-3.12 R0.75
X54.361 Y-53.384 Z-3.203 R0.75
X54.128 Y-54.866 Z-3.285 R0.75
X54.361 Y-53.384 Z-3.367 R0.75
X54.128 Y-54.866 Z-3.449 R0.75
X54.361 Y-53.384 Z-3.532 R0.75
X54.128 Y-54.866 Z-3.614 R0.75
X54.361 Y-53.384 Z-3.696 R0.75
X54.128 Y-54.866 Z-3.779 R0.75
X54.361 Y-53.384 Z-3.861 R0.75
X54.128 Y-54.866 Z-3.943 R0.75
X54.361 Y-53.384 Z-4.025 R0.75
X54.128 Y-54.866 Z-4.108 R0.75
X54.361 Y-53.384 Z-4.19 R0.75
X54.128 Y-54.866 Z-4.272 R0.75
X54.361 Y-53.384 Z-4.355 R0.75
X54.128 Y-54.866 Z-4.437 R0.75
X54.361 Y-53.384 Z-4.519 R0.75
X54.128 Y-54.866 Z-4.601 R0.75
X54.361 Y-53.384 Z-4.684 R0.75
X54.128 Y-54.866 Z-4.766 R0.75
X54.361 Y-53.384 Z-4.848 R0.75
X54.128 Y-54.866 Z-4.93 R0.75
X54.694 Y-53.525 Z-5. R0.75
X53.794 Y-54.725 R0.75
X54.694 Y-53.525 R0.75
G0 Z15.

M9
M30
