(__3_1)
(T1  D=4. CR=0. - ZMIN=-5. - FLAT END MILL)
G90 G94 G91.1 G40 G49 G17
G21

(2D CONTOUR4)
M5
M9
T1
S10000 M3
G54
M8
G0 X62.244 Y-55.125
G43 Z15. H1
Z5.
G1 Z1. F30.
Z0.5
Y-57.125 Z0.496 F1200.
G2 X57.244 Y-62.125 Z0.482 R5.
G1 X-57.244 Z0.268
G2 X-62.244 Y-57.125 Z0.254 R5.
G1 Y-55.125 Z0.25
Y-57.125 Z0.246
G3 X-57.244 Y-62.125 Z0.232 R5.
G1 X57.244 Z0.018
G3 X62.244 Y-57.125 Z0.004 R5.
G1 Y-55.125 Z0.
Y-57.125 Z-0.004
G2 X57.244 Y-62.125 Z-0.018 R5.
G1 X-57.244 Z-0.232
G2 X-62.244 Y-57.125 Z-0.246 R5.
G1 Y-55.125 Z-0.25
Y-57.125 Z-0.254
G3 X-57.244 Y-62.125 Z-0.268 R5.
G1 X57.244 Z-0.482
G3 X62.244 Y-57.125 Z-0.496 R5.
G1 Y-55.125 Z-0.5
Y-57.125 Z-0.504
G2 X57.244 Y-62.125 Z-0.518 R5.
G1 X-57.244 Z-0.732
G2 X-62.244 Y-57.125 Z-0.746 R5.
G1 Y-55.125 Z-0.75
Y-57.125 Z-0.754
G3 X-57.244 Y-62.125 Z-0.768 R5.
G1 X57.244 Z-0.982
G3 X62.244 Y-57.125 Z-0.996 R5.
G1 Y-55.125 Z-1.
Y-57.125 Z-1.004
G2 X57.244 Y-62.125 Z-1.018 R5.
G1 X-57.244 Z-1.232
G2 X-62.244 Y-57.125 Z-1.246 R5.
G1 Y-55.125 Z-1.25
Y-57.125 Z-1.254
G3 X-57.244 Y-62.125 Z-1.268 R5.
G1 X57.244 Z-1.482
G3 X62.244 Y-57.125 Z-1.496 R5.
G1 Y-55.125 Z-1.5
Y-57.125 Z-1.504
G2 X57.244 Y-62.125 Z-1.518 R5.
G1 X-57.244 Z-1.732
G2 X-62.244 Y-57.125 Z-1.746 R5.
G1 Y-55.125 Z-1.75
Y-57.125 Z-1.754
G3 X-57.244 Y-62.125 Z-1.768 R5.
G1 X57.244 Z-1.982
G3 X62.244 Y-57.125 Z-1.996 R5.
G1 Y-55.125 Z-2.
Y-57.125 Z-2.004
G2 X57.244 Y-62.125 Z-2.018 R5.
G1 X-57.244 Z-2.232
G2 X-62.244 Y-57.125 Z-2.246 R5.
G1 Y-55.125 Z-2.25
Y-57.125 Z-2.254
G3 X-57.244 Y-62.125 Z-2.268 R5.
G1 X57.244 Z-2.482
G3 X62.244 Y-57.125 Z-2.496 R5.
G1 Y-55.125 Z-2.5
Y-57.125 Z-2.504
G2 X57.244 Y-62.125 Z-2.518 R5.
G1 X-57.244 Z-2.732
G2 X-62.244 Y-57.125 Z-2.746 R5.
G1 Y-55.125 Z-2.75
Y-57.125 Z-2.754
G3 X-57.244 Y-62.125 Z-2.768 R5.
G1 X57.244 Z-2.982
G3 X62.244 Y-57.125 Z-2.996 R5.
G1 Y-55.125 Z-3.
Y-57.125 Z-3.004
G2 X57.244 Y-62.125 Z-3.018 R5.
G1 X-57.244 Z-3.232
G2 X-62.244 Y-57.125 Z-3.246 R5.
G1 Y-55.125 Z-3.25
Y-57.125 Z-3.254
G3 X-57.244 Y-62.125 Z-3.268 R5.
G1 X57.244 Z-3.482
G3 X62.244 Y-57.125 Z-3.496 R5.
G1 Y-55.125 Z-3.5
Y-57.125 Z-3.504
G2 X57.244 Y-62.125 Z-3.518 R5.
G1 X-57.244 Z-3.732
G2 X-62.244 Y-57.125 Z-3.746 R5.
G1 Y-55.125 Z-3.75
Y-57.125 Z-3.754
G3 X-57.244 Y-62.125 Z-3.768 R5.
G1 X57.244 Z-3.982
G3 X62.244 Y-57.125 Z-3.996 R5.
G1 Y-55.125 Z-4.
Y-57.125 Z-4.004
G2 X57.244 Y-62.125 Z-4.018 R5.
G1 X-57.244 Z-4.232
G2 X-62.244 Y-57.125 Z-4.246 R5.
G1 Y-55.125 Z-4.25
Y-57.125 Z-4.254
G3 X-57.244 Y-62.125 Z-4.268 R5.
G1 X57.244 Z-4.482
G3 X62.244 Y-57.125 Z-4.496 R5.
G1 Y-55.125 Z-4.5
Y-57.125 Z-4.504
G2 X57.244 Y-62.125 Z-4.518 R5.
G1 X-57.244 Z-4.732
G2 X-62.244 Y-57.125 Z-4.746 R5.
G1 Y-55.125 Z-4.75
Y-57.125 Z-4.754
G3 X-57.244 Y-62.125 Z-4.768 R5.
G1 X57.244 Z-4.982
G3 X62.244 Y-57.125 Z-4.996 R5.
G1 Y-55.125 Z-5.
Y-57.125
G2 X57.244 Y-62.125 R5.
G1 X-57.244
G2 X-62.244 Y-57.125 R5.
G1 Y-55.125
G0 Z15.

M9
M30
