(__2)
(T2  D=3. CR=0. - ZMIN=-5. - FLAT END MILL)
G90 G94 G91.1 G40 G49 G17
G21

(DRILL2)
M5
M9
T2
S5820 M3
G54
M8
G0 X51.249 Y-29.155
G43 Z15. H2
Z5.
G98 G81 X51.249 Y-29.155 Z-5. R0. F100.
X23. Y-12.538
X36.564 Y4.806
X15.057 Y23.475
X-15.943
Y54.475
X15.057
X-51.436 Y4.806
X-23. Y-12.538
X-36.751 Y-29.155
G80
Z15.

(2D CONTOUR2)
M8
G0 X12. Y-12.538
Z15.
Z5.
G1 Z1. F30.
G2 X-12. Z0.5 R12. F349.
X12. Z0. R12.
X-12. Z-0.5 R12.
X12. Z-1. R12.
X-12. Z-1.5 R12.
X12. Z-2. R12.
X-12. Z-2.5 R12.
X12. Z-3. R12.
X-12. Z-3.5 R12.
X12. Z-4. R12.
X-12. Z-4.5 R12.
X12. Z-5. R12.
X-12. R12.
X12. R12.
G0 Z5.
X21. Y10.462
G1 Z1. F30.
G2 X20. Y9.462 Z0.95 R1. F349.
G1 X7.543 Z0.55
G2 Y11.462 Z0.45 R1.
G1 X20. Z0.05
G2 Y9.462 Z-0.05 R1.
G1 X7.543 Z-0.45
G2 Y11.462 Z-0.55 R1.
G1 X20. Z-0.95
G2 Y9.462 Z-1.05 R1.
G1 X7.543 Z-1.45
G2 Y11.462 Z-1.55 R1.
G1 X20. Z-1.95
G2 Y9.462 Z-2.05 R1.
G1 X7.543 Z-2.45
G2 Y11.462 Z-2.55 R1.
G1 X20. Z-2.95
G2 Y9.462 Z-3.05 R1.
G1 X7.543 Z-3.45
G2 Y11.462 Z-3.55 R1.
G1 X20. Z-3.95
G2 Y9.462 Z-4.05 R1.
G1 X7.543 Z-4.45
G2 Y11.462 Z-4.55 R1.
G1 X20. Z-4.95
G2 X21. Y10.462 Z-5. R1.
X20. Y9.462 R1.
G1 X7.543
G2 Y11.462 R1.
G1 X20.
G2 X21. Y10.462 R1.
G0 Z5.
X50.407 Y-12.175
G1 Z1. F30.
G2 X37.407 Z0.5 R6.5 F349.
X50.407 Z0. R6.5
X37.407 Z-0.5 R6.5
X50.407 Z-1. R6.5
X37.407 Z-1.5 R6.5
X50.407 Z-2. R6.5
X37.407 Z-2.5 R6.5
X50.407 Z-3. R6.5
X37.407 Z-3.5 R6.5
X50.407 Z-4. R6.5
X37.407 Z-4.5 R6.5
X50.407 Z-5. R6.5
X37.407 R6.5
X50.407 R6.5
G0 Z5.
X36.421 Y-42.008
G1 Z1. F30.
G2 X41.049 Y-43.9 Z0.726 R2.5 F349.
X36.421 Y-42.008 Z0.451 R2.5
X41.049 Y-43.9 Z0.177 R2.5
X36.421 Y-42.008 Z-0.097 R2.5
X41.049 Y-43.9 Z-0.371 R2.5
X36.421 Y-42.008 Z-0.646 R2.5
X41.049 Y-43.9 Z-0.92 R2.5
X36.421 Y-42.008 Z-1.194 R2.5
X41.049 Y-43.9 Z-1.468 R2.5
X36.421 Y-42.008 Z-1.743 R2.5
X41.049 Y-43.9 Z-2.017 R2.5
X36.421 Y-42.008 Z-2.291 R2.5
X41.049 Y-43.9 Z-2.565 R2.5
X36.421 Y-42.008 Z-2.84 R2.5
X41.049 Y-43.9 Z-3.114 R2.5
X36.421 Y-42.008 Z-3.388 R2.5
X41.049 Y-43.9 Z-3.663 R2.5
X36.421 Y-42.008 Z-3.937 R2.5
X41.049 Y-43.9 Z-4.211 R2.5
X36.421 Y-42.008 Z-4.485 R2.5
X41.049 Y-43.9 Z-4.76 R2.5
X36.235 Y-42.954 Z-5. R2.5
X41.235 R2.5
X36.235 R2.5
G0 Z5.
X-7.64 Y11.462
G1 Z1. F30.
G2 Y9.462 Z0.899 R1. F349.
G1 X-20. Z0.5
G2 Y11.462 Z0.399 R1.
G1 X-7.64 Z0.
G2 Y9.462 Z-0.101 R1.
G1 X-20. Z-0.5
G2 Y11.462 Z-0.601 R1.
G1 X-7.64 Z-1.
G2 Y9.462 Z-1.101 R1.
G1 X-20. Z-1.5
G2 Y11.462 Z-1.601 R1.
G1 X-7.64 Z-2.
G2 Y9.462 Z-2.101 R1.
G1 X-20. Z-2.5
G2 Y11.462 Z-2.601 R1.
G1 X-7.64 Z-3.
G2 Y9.462 Z-3.101 R1.
G1 X-20. Z-3.5
G2 Y11.462 Z-3.601 R1.
G1 X-7.64 Z-4.
G2 Y9.462 Z-4.101 R1.
G1 X-20. Z-4.5
G2 Y11.462 Z-4.601 R1.
G1 X-7.64 Z-5.
G2 Y9.462 R1.
G1 X-20.
G2 Y11.462 R1.
G1 X-7.64
G0 Z5.
X9.107 Y38.975
G1 Z1. F30.
G2 X-9.993 Z0.5 R9.55 F349.
X9.107 Z0. R9.55
X-9.993 Z-0.5 R9.55
X9.107 Z-1. R9.55
X-9.993 Z-1.5 R9.55
X9.107 Z-2. R9.55
X-9.993 Z-2.5 R9.55
X9.107 Z-3. R9.55
X-9.993 Z-3.5 R9.55
X9.107 Z-4. R9.55
X-9.993 Z-4.5 R9.55
X9.107 Z-5. R9.55
X-9.993 R9.55
X9.107 R9.55
G0 Z5.
X-41.049 Y18.824
G1 Z1. F30.
G2 X-36.421 Y16.932 Z0.726 R2.5 F349.
X-41.049 Y18.824 Z0.451 R2.5
X-36.421 Y16.932 Z0.177 R2.5
X-41.049 Y18.824 Z-0.097 R2.5
X-36.421 Y16.932 Z-0.371 R2.5
X-41.049 Y18.824 Z-0.646 R2.5
X-36.421 Y16.932 Z-0.92 R2.5
X-41.049 Y18.824 Z-1.194 R2.5
X-36.421 Y16.932 Z-1.468 R2.5
X-41.049 Y18.824 Z-1.743 R2.5
X-36.421 Y16.932 Z-2.017 R2.5
X-41.049 Y18.824 Z-2.291 R2.5
X-36.421 Y16.932 Z-2.565 R2.5
X-41.049 Y18.824 Z-2.84 R2.5
X-36.421 Y16.932 Z-3.114 R2.5
X-41.049 Y18.824 Z-3.388 R2.5
X-36.421 Y16.932 Z-3.663 R2.5
X-41.049 Y18.824 Z-3.937 R2.5
X-36.421 Y16.932 Z-4.211 R2.5
X-41.049 Y18.824 Z-4.485 R2.5
X-36.421 Y16.932 Z-4.76 R2.5
X-41.235 Y17.878 Z-5. R2.5
X-36.235 R2.5
X-41.235 R2.5
G0 Z5.
X-37.593 Y-12.175
G1 Z1. F30.
G2 X-50.593 Z0.5 R6.5 F349.
X-37.593 Z0. R6.5
X-50.593 Z-0.5 R6.5
X-37.593 Z-1. R6.5
X-50.593 Z-1.5 R6.5
X-37.593 Z-2. R6.5
X-50.593 Z-2.5 R6.5
X-37.593 Z-3. R6.5
X-50.593 Z-3.5 R6.5
X-37.593 Z-4. R6.5
X-50.593 Z-4.5 R6.5
X-37.593 Z-5. R6.5
X-50.593 R6.5
X-37.593 R6.5
G0 Z15.

M9
M30
