(__3)
(T1  D=4. CR=0. - ZMIN=-5. - FLAT END MILL)
G90 G94 G91.1 G40 G49 G17
G21

(2D CONTOUR4)
M5
M9
T1
S10000 M3
G54
M8
G0 X0. Y-62.125
G43 Z15. H1
Z5.
G1 Z1. F30.
Z0.5
X-57.244 Z0.441 F1200.
G2 X-62.244 Y-57.125 Z0.433 R5.
G1 Y32.776 Z0.34
G2 X-57.244 Y37.776 Z0.332 R5.
G1 X-23.593 Z0.297
Y57.125 Z0.277
G2 X-18.593 Y62.125 Z0.269 R5.
G1 X17.707 Z0.232
G2 X22.707 Y57.125 Z0.224 R5.
G1 Y37.776 Z0.204
X57.244 Z0.168
G2 X62.244 Y32.776 Z0.16 R5.
G1 Y-57.125 Z0.067
G2 X57.244 Y-62.125 Z0.059 R5.
G1 X-57.244 Z-0.059
G2 X-62.244 Y-57.125 Z-0.067 R5.
G1 Y32.776 Z-0.16
G2 X-57.244 Y37.776 Z-0.168 R5.
G1 X-23.593 Z-0.203
Y57.125 Z-0.223
G2 X-18.593 Y62.125 Z-0.231 R5.
G1 X17.707 Z-0.268
G2 X22.707 Y57.125 Z-0.276 R5.
G1 Y37.776 Z-0.296
X57.244 Z-0.332
G2 X62.244 Y32.776 Z-0.34 R5.
G1 Y-57.125 Z-0.433
G2 X57.244 Y-62.125 Z-0.441 R5.
G1 X-57.244 Z-0.559
G2 X-62.244 Y-57.125 Z-0.567 R5.
G1 Y32.776 Z-0.66
G2 X-57.244 Y37.776 Z-0.668 R5.
G1 X-23.593 Z-0.703
Y57.125 Z-0.723
G2 X-18.593 Y62.125 Z-0.731 R5.
G1 X17.707 Z-0.768
G2 X22.707 Y57.125 Z-0.776 R5.
G1 Y37.776 Z-0.796
X57.244 Z-0.832
G2 X62.244 Y32.776 Z-0.84 R5.
G1 Y-57.125 Z-0.933
G2 X57.244 Y-62.125 Z-0.941 R5.
G1 X-57.244 Z-1.059
G2 X-62.244 Y-57.125 Z-1.067 R5.
G1 Y32.776 Z-1.16
G2 X-57.244 Y37.776 Z-1.168 R5.
G1 X-23.593 Z-1.203
Y57.125 Z-1.223
G2 X-18.593 Y62.125 Z-1.231 R5.
G1 X17.707 Z-1.268
G2 X22.707 Y57.125 Z-1.276 R5.
G1 Y37.776 Z-1.296
X57.244 Z-1.332
G2 X62.244 Y32.776 Z-1.34 R5.
G1 Y-57.125 Z-1.433
G2 X57.244 Y-62.125 Z-1.441 R5.
G1 X-57.244 Z-1.559
G2 X-62.244 Y-57.125 Z-1.567 R5.
G1 Y32.776 Z-1.66
G2 X-57.244 Y37.776 Z-1.668 R5.
G1 X-23.593 Z-1.703
Y57.125 Z-1.723
G2 X-18.593 Y62.125 Z-1.731 R5.
G1 X17.707 Z-1.768
G2 X22.707 Y57.125 Z-1.776 R5.
G1 Y37.776 Z-1.796
X57.244 Z-1.832
G2 X62.244 Y32.776 Z-1.84 R5.
G1 Y-57.125 Z-1.933
G2 X57.244 Y-62.125 Z-1.941 R5.
G1 X-57.244 Z-2.059
G2 X-62.244 Y-57.125 Z-2.067 R5.
G1 Y32.776 Z-2.16
G2 X-57.244 Y37.776 Z-2.168 R5.
G1 X-23.593 Z-2.203
Y57.125 Z-2.223
G2 X-18.593 Y62.125 Z-2.231 R5.
G1 X17.707 Z-2.268
G2 X22.707 Y57.125 Z-2.276 R5.
G1 Y37.776 Z-2.296
X57.244 Z-2.332
G2 X62.244 Y32.776 Z-2.34 R5.
G1 Y-57.125 Z-2.433
G2 X57.244 Y-62.125 Z-2.441 R5.
G1 X-57.244 Z-2.559
G2 X-62.244 Y-57.125 Z-2.567 R5.
G1 Y32.776 Z-2.66
G2 X-57.244 Y37.776 Z-2.668 R5.
G1 X-23.593 Z-2.703
Y57.125 Z-2.723
G2 X-18.593 Y62.125 Z-2.731 R5.
G1 X17.707 Z-2.768
G2 X22.707 Y57.125 Z-2.776 R5.
G1 Y37.776 Z-2.796
X57.244 Z-2.832
G2 X62.244 Y32.776 Z-2.84 R5.
G1 Y-57.125 Z-2.933
G2 X57.244 Y-62.125 Z-2.941 R5.
G1 X-57.244 Z-3.059
G2 X-62.244 Y-57.125 Z-3.067 R5.
G1 Y32.776 Z-3.16
G2 X-57.244 Y37.776 Z-3.168 R5.
G1 X-23.593 Z-3.203
Y57.125 Z-3.223
G2 X-18.593 Y62.125 Z-3.231 R5.
G1 X17.707 Z-3.268
G2 X22.707 Y57.125 Z-3.276 R5.
G1 Y37.776 Z-3.296
X57.244 Z-3.332
G2 X62.244 Y32.776 Z-3.34 R5.
G1 Y-57.125 Z-3.433
G2 X57.244 Y-62.125 Z-3.441 R5.
G1 X-57.244 Z-3.559
G2 X-62.244 Y-57.125 Z-3.567 R5.
G1 Y32.776 Z-3.66
G2 X-57.244 Y37.776 Z-3.668 R5.
G1 X-23.593 Z-3.703
Y57.125 Z-3.723
G2 X-18.593 Y62.125 Z-3.731 R5.
G1 X17.707 Z-3.768
G2 X22.707 Y57.125 Z-3.776 R5.
G1 Y37.776 Z-3.796
X57.244 Z-3.832
G2 X62.244 Y32.776 Z-3.84 R5.
G1 Y-57.125 Z-3.933
G2 X57.244 Y-62.125 Z-3.941 R5.
G1 X-57.244 Z-4.059
G2 X-62.244 Y-57.125 Z-4.067 R5.
G1 Y32.776 Z-4.16
G2 X-57.244 Y37.776 Z-4.168 R5.
G1 X-23.593 Z-4.203
Y57.125 Z-4.223
G2 X-18.593 Y62.125 Z-4.231 R5.
G1 X17.707 Z-4.268
G2 X22.707 Y57.125 Z-4.276 R5.
G1 Y37.776 Z-4.296
X57.244 Z-4.332
G2 X62.244 Y32.776 Z-4.34 R5.
G1 Y-57.125 Z-4.433
G2 X57.244 Y-62.125 Z-4.441 R5.
G1 X-57.244 Z-4.559
G2 X-62.244 Y-57.125 Z-4.567 R5.
G1 Y32.776 Z-4.66
G2 X-57.244 Y37.776 Z-4.668 R5.
G1 X-23.593 Z-4.703
Y57.125 Z-4.723
G2 X-18.593 Y62.125 Z-4.731 R5.
G1 X17.707 Z-4.768
G2 X22.707 Y57.125 Z-4.776 R5.
G1 Y37.776 Z-4.796
X57.244 Z-4.832
G2 X62.244 Y32.776 Z-4.84 R5.
G1 Y-57.125 Z-4.933
G2 X57.244 Y-62.125 Z-4.941 R5.
G1 X0. Z-5.
X-57.244
G2 X-62.244 Y-57.125 R5.
G1 Y32.776
G2 X-57.244 Y37.776 R5.
G1 X-23.593
Y57.125
G2 X-18.593 Y62.125 R5.
G1 X17.707
G2 X22.707 Y57.125 R5.
G1 Y37.776
X57.244
G2 X62.244 Y32.776 R5.
G1 Y-57.125
G2 X57.244 Y-62.125 R5.
G1 X0.
G0 Z15.

M9
M30
