(__3_2)
(T1  D=4. CR=0. - ZMIN=-5. - FLAT END MILL)
G90 G94 G91.1 G40 G49 G17
G21

(2D CONTOUR5)
M5
M9
T1
S10000 M3
G54
M8
G0 X-62.244 Y30.776
G43 Z15. H1
Z5.
G1 Z1. F30.
Z0.5
Y32.776 Z0.497 F1200.
G2 X-57.244 Y37.776 Z0.486 R5.
G1 X-23.593 Z0.439
Y57.125 Z0.412
G2 X-18.593 Y62.125 Z0.401 R5.
G1 X17.707 Z0.35
G2 X22.707 Y57.125 Z0.339 R5.
G1 Y37.776 Z0.312
X57.244 Z0.264
G2 X62.244 Y32.776 Z0.253 R5.
G1 Y30.776 Z0.25
Y32.776 Z0.247
G3 X57.244 Y37.776 Z0.236 R5.
G1 X22.707 Z0.188
Y57.125 Z0.161
G3 X17.707 Y62.125 Z0.15 R5.
G1 X-18.593 Z0.099
G3 X-23.593 Y57.125 Z0.088 R5.
G1 Y37.776 Z0.061
X-57.244 Z0.014
G3 X-62.244 Y32.776 Z0.003 R5.
G1 Y30.776 Z0.
Y32.776 Z-0.003
G2 X-57.244 Y37.776 Z-0.014 R5.
G1 X-23.593 Z-0.061
Y57.125 Z-0.088
G2 X-18.593 Y62.125 Z-0.099 R5.
G1 X17.707 Z-0.15
G2 X22.707 Y57.125 Z-0.161 R5.
G1 Y37.776 Z-0.188
X57.244 Z-0.236
G2 X62.244 Y32.776 Z-0.247 R5.
G1 Y30.776 Z-0.25
Y32.776 Z-0.253
G3 X57.244 Y37.776 Z-0.264 R5.
G1 X22.707 Z-0.312
Y57.125 Z-0.339
G3 X17.707 Y62.125 Z-0.35 R5.
G1 X-18.593 Z-0.401
G3 X-23.593 Y57.125 Z-0.412 R5.
G1 Y37.776 Z-0.439
X-57.244 Z-0.486
G3 X-62.244 Y32.776 Z-0.497 R5.
G1 Y30.776 Z-0.5
Y32.776 Z-0.503
G2 X-57.244 Y37.776 Z-0.514 R5.
G1 X-23.593 Z-0.561
Y57.125 Z-0.588
G2 X-18.593 Y62.125 Z-0.599 R5.
G1 X17.707 Z-0.65
G2 X22.707 Y57.125 Z-0.661 R5.
G1 Y37.776 Z-0.688
X57.244 Z-0.736
G2 X62.244 Y32.776 Z-0.747 R5.
G1 Y30.776 Z-0.75
Y32.776 Z-0.753
G3 X57.244 Y37.776 Z-0.764 R5.
G1 X22.707 Z-0.812
Y57.125 Z-0.839
G3 X17.707 Y62.125 Z-0.85 R5.
G1 X-18.593 Z-0.901
G3 X-23.593 Y57.125 Z-0.912 R5.
G1 Y37.776 Z-0.939
X-57.244 Z-0.986
G3 X-62.244 Y32.776 Z-0.997 R5.
G1 Y30.776 Z-1.
Y32.776 Z-1.003
G2 X-57.244 Y37.776 Z-1.014 R5.
G1 X-23.593 Z-1.061
Y57.125 Z-1.088
G2 X-18.593 Y62.125 Z-1.099 R5.
G1 X17.707 Z-1.15
G2 X22.707 Y57.125 Z-1.161 R5.
G1 Y37.776 Z-1.188
X57.244 Z-1.236
G2 X62.244 Y32.776 Z-1.247 R5.
G1 Y30.776 Z-1.25
Y32.776 Z-1.253
G3 X57.244 Y37.776 Z-1.264 R5.
G1 X22.707 Z-1.312
Y57.125 Z-1.339
G3 X17.707 Y62.125 Z-1.35 R5.
G1 X-18.593 Z-1.401
G3 X-23.593 Y57.125 Z-1.412 R5.
G1 Y37.776 Z-1.439
X-57.244 Z-1.486
G3 X-62.244 Y32.776 Z-1.497 R5.
G1 Y30.776 Z-1.5
Y32.776 Z-1.503
G2 X-57.244 Y37.776 Z-1.514 R5.
G1 X-23.593 Z-1.561
Y57.125 Z-1.588
G2 X-18.593 Y62.125 Z-1.599 R5.
G1 X17.707 Z-1.65
G2 X22.707 Y57.125 Z-1.661 R5.
G1 Y37.776 Z-1.688
X57.244 Z-1.736
G2 X62.244 Y32.776 Z-1.747 R5.
G1 Y30.776 Z-1.75
Y32.776 Z-1.753
G3 X57.244 Y37.776 Z-1.764 R5.
G1 X22.707 Z-1.812
Y57.125 Z-1.839
G3 X17.707 Y62.125 Z-1.85 R5.
G1 X-18.593 Z-1.901
G3 X-23.593 Y57.125 Z-1.912 R5.
G1 Y37.776 Z-1.939
X-57.244 Z-1.986
G3 X-62.244 Y32.776 Z-1.997 R5.
G1 Y30.776 Z-2.
Y32.776 Z-2.003
G2 X-57.244 Y37.776 Z-2.014 R5.
G1 X-23.593 Z-2.061
Y57.125 Z-2.088
G2 X-18.593 Y62.125 Z-2.099 R5.
G1 X17.707 Z-2.15
G2 X22.707 Y57.125 Z-2.161 R5.
G1 Y37.776 Z-2.188
X57.244 Z-2.236
G2 X62.244 Y32.776 Z-2.247 R5.
G1 Y30.776 Z-2.25
Y32.776 Z-2.253
G3 X57.244 Y37.776 Z-2.264 R5.
G1 X22.707 Z-2.312
Y57.125 Z-2.339
G3 X17.707 Y62.125 Z-2.35 R5.
G1 X-18.593 Z-2.401
G3 X-23.593 Y57.125 Z-2.412 R5.
G1 Y37.776 Z-2.439
X-57.244 Z-2.486
G3 X-62.244 Y32.776 Z-2.497 R5.
G1 Y30.776 Z-2.5
Y32.776 Z-2.503
G2 X-57.244 Y37.776 Z-2.514 R5.
G1 X-23.593 Z-2.561
Y57.125 Z-2.588
G2 X-18.593 Y62.125 Z-2.599 R5.
G1 X17.707 Z-2.65
G2 X22.707 Y57.125 Z-2.661 R5.
G1 Y37.776 Z-2.688
X57.244 Z-2.736
G2 X62.244 Y32.776 Z-2.747 R5.
G1 Y30.776 Z-2.75
Y32.776 Z-2.753
G3 X57.244 Y37.776 Z-2.764 R5.
G1 X22.707 Z-2.812
Y57.125 Z-2.839
G3 X17.707 Y62.125 Z-2.85 R5.
G1 X-18.593 Z-2.901
G3 X-23.593 Y57.125 Z-2.912 R5.
G1 Y37.776 Z-2.939
X-57.244 Z-2.986
G3 X-62.244 Y32.776 Z-2.997 R5.
G1 Y30.776 Z-3.
Y32.776 Z-3.003
G2 X-57.244 Y37.776 Z-3.014 R5.
G1 X-23.593 Z-3.061
Y57.125 Z-3.088
G2 X-18.593 Y62.125 Z-3.099 R5.
G1 X17.707 Z-3.15
G2 X22.707 Y57.125 Z-3.161 R5.
G1 Y37.776 Z-3.188
X57.244 Z-3.236
G2 X62.244 Y32.776 Z-3.247 R5.
G1 Y30.776 Z-3.25
Y32.776 Z-3.253
G3 X57.244 Y37.776 Z-3.264 R5.
G1 X22.707 Z-3.312
Y57.125 Z-3.339
G3 X17.707 Y62.125 Z-3.35 R5.
G1 X-18.593 Z-3.401
G3 X-23.593 Y57.125 Z-3.412 R5.
G1 Y37.776 Z-3.439
X-57.244 Z-3.486
G3 X-62.244 Y32.776 Z-3.497 R5.
G1 Y30.776 Z-3.5
Y32.776 Z-3.503
G2 X-57.244 Y37.776 Z-3.514 R5.
G1 X-23.593 Z-3.561
Y57.125 Z-3.588
G2 X-18.593 Y62.125 Z-3.599 R5.
G1 X17.707 Z-3.65
G2 X22.707 Y57.125 Z-3.661 R5.
G1 Y37.776 Z-3.688
X57.244 Z-3.736
G2 X62.244 Y32.776 Z-3.747 R5.
G1 Y30.776 Z-3.75
Y32.776 Z-3.753
G3 X57.244 Y37.776 Z-3.764 R5.
G1 X22.707 Z-3.812
Y57.125 Z-3.839
G3 X17.707 Y62.125 Z-3.85 R5.
G1 X-18.593 Z-3.901
G3 X-23.593 Y57.125 Z-3.912 R5.
G1 Y37.776 Z-3.939
X-57.244 Z-3.986
G3 X-62.244 Y32.776 Z-3.997 R5.
G1 Y30.776 Z-4.
Y32.776 Z-4.003
G2 X-57.244 Y37.776 Z-4.014 R5.
G1 X-23.593 Z-4.061
Y57.125 Z-4.088
G2 X-18.593 Y62.125 Z-4.099 R5.
G1 X17.707 Z-4.15
G2 X22.707 Y57.125 Z-4.161 R5.
G1 Y37.776 Z-4.188
X57.244 Z-4.236
G2 X62.244 Y32.776 Z-4.247 R5.
G1 Y30.776 Z-4.25
Y32.776 Z-4.253
G3 X57.244 Y37.776 Z-4.264 R5.
G1 X22.707 Z-4.312
Y57.125 Z-4.339
G3 X17.707 Y62.125 Z-4.35 R5.
G1 X-18.593 Z-4.401
G3 X-23.593 Y57.125 Z-4.412 R5.
G1 Y37.776 Z-4.439
X-57.244 Z-4.486
G3 X-62.244 Y32.776 Z-4.497 R5.
G1 Y30.776 Z-4.5
Y32.776 Z-4.503
G2 X-57.244 Y37.776 Z-4.514 R5.
G1 X-23.593 Z-4.561
Y57.125 Z-4.588
G2 X-18.593 Y62.125 Z-4.599 R5.
G1 X17.707 Z-4.65
G2 X22.707 Y57.125 Z-4.661 R5.
G1 Y37.776 Z-4.688
X57.244 Z-4.736
G2 X62.244 Y32.776 Z-4.747 R5.
G1 Y30.776 Z-4.75
Y32.776 Z-4.753
G3 X57.244 Y37.776 Z-4.764 R5.
G1 X22.707 Z-4.812
Y57.125 Z-4.839
G3 X17.707 Y62.125 Z-4.85 R5.
G1 X-18.593 Z-4.901
G3 X-23.593 Y57.125 Z-4.912 R5.
G1 Y37.776 Z-4.939
X-57.244 Z-4.986
G3 X-62.244 Y32.776 Z-4.997 R5.
G1 Y30.776 Z-5.
Y32.776
G2 X-57.244 Y37.776 R5.
G1 X-23.593
Y57.125
G2 X-18.593 Y62.125 R5.
G1 X17.707
G2 X22.707 Y57.125 R5.
G1 Y37.776
X57.244
G2 X62.244 Y32.776 R5.
G1 Y30.776
G0 Z15.

M9
M30
