(__)
(T1  D=3.175 CR=0. - ZMIN=-20. - FLAT END MILL)
G90 G94 G91.1 G40 G49 G17
G21

(2D CONTOUR2)
M5
M9
T1
S9170 M3
G54
M8
G0 X10.634 Y2.932
G43 Z15. H1
Z5.
G1 Z2. F762.
Z0.1
G3 X-10.406 Y1.155 Z-1. R10.595 F465.
X10.784 R10.595
X-10.406 R10.595
X11.102 R10.754
X-10.723 R10.912
X0.389 Y-9.756 R10.912
X11.095 Y1.555 R10.912
G1 Z-0.9
X10.634 Y2.932
G3 X-10.406 Y1.155 Z-2. R10.595
X10.784 R10.595
X-10.406 R10.595
X11.102 R10.754
X-10.723 R10.912
X0.389 Y-9.756 R10.912
X11.095 Y1.555 R10.912
G1 Z-1.9
X10.634 Y2.932
G3 X-10.406 Y1.155 Z-3. R10.595
X10.784 R10.595
X-10.406 R10.595
X11.102 R10.754
X-10.723 R10.912
X0.389 Y-9.756 R10.912
X11.095 Y1.555 R10.912
G1 Z-2.9
X10.634 Y2.932
G3 X-10.406 Y1.155 Z-4. R10.595
X10.784 R10.595
X-10.406 R10.595
X11.102 R10.754
X-10.723 R10.912
X0.389 Y-9.756 R10.912
X11.095 Y1.555 R10.912
G1 Z-3.9
X10.634 Y2.932
G3 X-10.406 Y1.155 Z-5. R10.595
X10.784 R10.595
X-10.406 R10.595
X11.102 R10.754
X-10.723 R10.912
X0.389 Y-9.756 R10.912
X11.095 Y1.555 R10.912
G1 Z-4.9
X10.634 Y2.932
G3 X-10.406 Y1.155 Z-6. R10.595
X10.784 R10.595
X-10.406 R10.595
X11.102 R10.754
X-10.723 R10.912
X0.389 Y-9.756 R10.912
X11.095 Y1.555 R10.912
G1 Z-5.9
X10.634 Y2.932
G3 X-10.406 Y1.155 Z-7. R10.595
X10.784 R10.595
X-10.406 R10.595
X11.102 R10.754
X-10.723 R10.912
X0.389 Y-9.756 R10.912
X11.095 Y1.555 R10.912
G1 Z-6.9
X10.634 Y2.932
G3 X-10.406 Y1.155 Z-8. R10.595
X10.784 R10.595
X-10.406 R10.595
X11.102 R10.754
X-10.723 R10.912
X0.389 Y-9.756 R10.912
X11.095 Y1.555 R10.912
G1 Z-7.9
X10.634 Y2.932
G3 X-10.406 Y1.155 Z-9. R10.595
X10.784 R10.595
X-10.406 R10.595
X11.102 R10.754
X-10.723 R10.912
X0.389 Y-9.756 R10.912
X11.095 Y1.555 R10.912
G1 Z-8.9
X10.634 Y2.932
G3 X-10.406 Y1.155 Z-10. R10.595
X10.784 R10.595
X-10.406 R10.595
X11.102 R10.754
X-10.723 R10.912
X0.389 Y-9.756 R10.912
X11.095 Y1.555 R10.912
G1 Z-9.9
X10.634 Y2.932
G3 X-10.406 Y1.155 Z-11. R10.595
X10.784 R10.595
X-10.406 R10.595
X11.102 R10.754
X-10.723 R10.912
X0.389 Y-9.756 R10.912
X11.095 Y1.555 R10.912
G1 Z-10.9
X10.634 Y2.932
G3 X-10.406 Y1.155 Z-12. R10.595
X10.784 R10.595
X-10.406 R10.595
X11.102 R10.754
X-10.723 R10.912
X0.389 Y-9.756 R10.912
X11.095 Y1.555 R10.912
G1 Z-11.9
X10.634 Y2.932
G3 X-10.406 Y1.155 Z-13. R10.595
X10.784 R10.595
X-10.406 R10.595
X11.102 R10.754
X-10.723 R10.912
X0.389 Y-9.756 R10.912
X11.095 Y1.555 R10.912
G1 Z-12.9
X10.634 Y2.932
G3 X-10.406 Y1.155 Z-14. R10.595
X10.784 R10.595
X-10.406 R10.595
X11.102 R10.754
X-10.723 R10.912
X0.389 Y-9.756 R10.912
X11.095 Y1.555 R10.912
G1 Z-13.9
X10.634 Y2.932
G3 X-10.406 Y1.155 Z-15. R10.595
X10.784 R10.595
X-10.406 R10.595
X11.102 R10.754
X-10.723 R10.912
X0.389 Y-9.756 R10.912
X11.095 Y1.555 R10.912
G1 Z-14.9
X10.634 Y2.932
G3 X-10.406 Y1.155 Z-16. R10.595
X10.784 R10.595
X-10.406 R10.595
X11.102 R10.754
X-10.723 R10.912
X0.389 Y-9.756 R10.912
X11.095 Y1.555 R10.912
G1 Z-15.9
X10.634 Y2.932
G3 X-10.406 Y1.155 Z-17. R10.595
X10.784 R10.595
X-10.406 R10.595
X11.102 R10.754
X-10.723 R10.912
X0.389 Y-9.756 R10.912
X11.095 Y1.555 R10.912
G1 Z-16.9
X10.634 Y2.932
G3 X-10.406 Y1.155 Z-18. R10.595
X10.784 R10.595
X-10.406 R10.595
X11.102 R10.754
X-10.723 R10.912
X0.389 Y-9.756 R10.912
X11.095 Y1.555 R10.912
G1 Z-17.9
X10.634 Y2.932
G3 X-10.406 Y1.155 Z-19. R10.595
X10.784 R10.595
X-10.406 R10.595
X11.102 R10.754
X-10.723 R10.912
X0.389 Y-9.756 R10.912
X11.095 Y1.555 R10.912
G1 Z-18.9
X10.634 Y2.932
G3 X-10.406 Y1.155 Z-20. R10.595
X10.784 R10.595
X-10.406 R10.595
X11.102 R10.754
X-10.723 R10.912
X0.389 Y-9.756 R10.912
X11.095 Y1.555 R10.912
G0 Z15.

M9
M30
