(__3_3)
(T1  D=3. CR=0. - ZMIN=-5. - FLAT END MILL)
G90 G94 G91.1 G40 G49 G17
G21

(2D CONTOUR1)
M5
M9
T1
S9700 M3
G54
M8
G0 X8.987 Y-5.5
G43 Z15. H1
Z5.
G1 Z1. F200.
Z-4.5
G18 G2 X9.487 Z-5. R0.5
G1 X11.487 F466.
G17 G2 X11.987 Y-6. R0.5
X-12.013 R12.
X11.987 R12.
X11.487 Y-6.5 R0.5
G1 X9.487
G18 G3 X8.987 Z-4.5 R0.5
G0 Z5.
X39.868 Y19.057
G1 Z1. F200.
Z-4.5
X39.873 Y19.063 Z-4.587
X39.887 Y19.081 Z-4.671
X39.91 Y19.11 Z-4.75
X39.941 Y19.149 Z-4.821
X39.979 Y19.198 Z-4.883
X40.023 Y19.254 Z-4.933
X40.072 Y19.316 Z-4.97
X40.124 Y19.382 Z-4.992
X40.178 Y19.45 Z-5.
X41.417 Y21.02 F466.
G17 G2 X42.119 Y21.103 R0.5
X34.066 Y10.897 R6.5
X41.993 Y21.2 R6.5
X42.119 Y21.103 R6.5
X42.202 Y20.4 R0.5
G1 X40.963 Y18.83
X40.909 Y18.762 Z-4.992
X40.857 Y18.696 Z-4.97
X40.808 Y18.634 Z-4.933
X40.764 Y18.578 Z-4.883
X40.726 Y18.53 Z-4.821
X40.695 Y18.49 Z-4.75
X40.672 Y18.462 Z-4.671
X40.658 Y18.444 Z-4.587
X40.653 Y18.438 Z-4.5
G0 Z5.
X3.517 Y48.39
G1 Z1. F200.
Z-4.5
X3.522 Y48.396 Z-4.587
X3.536 Y48.414 Z-4.671
X3.558 Y48.444 Z-4.75
X3.588 Y48.484 Z-4.821
X3.625 Y48.533 Z-4.883
X3.667 Y48.59 Z-4.933
X3.715 Y48.653 Z-4.97
X3.765 Y48.721 Z-4.992
X3.817 Y48.79 Z-5.
X5.017 Y50.39 F466.
G2 X5.717 Y50.49 R0.5
X-5.743 Y35.21 R9.55
X5.717 Y50.49 R9.55
X5.817 Y49.79 R0.5
G1 X4.617 Y48.19
X4.565 Y48.121 Z-4.992
X4.515 Y48.053 Z-4.97
X4.467 Y47.99 Z-4.933
X4.425 Y47.933 Z-4.883
X4.388 Y47.884 Z-4.821
X4.358 Y47.844 Z-4.75
X4.336 Y47.814 Z-4.671
X4.322 Y47.796 Z-4.587
X4.317 Y47.79 Z-4.5
G0 Z5.
X-35.68 Y13.439
G1 Z1. F200.
Z-4.5
X-35.675 Y13.433 Z-4.587
X-35.662 Y13.415 Z-4.671
X-35.641 Y13.385 Z-4.75
X-35.612 Y13.344 Z-4.821
X-35.576 Y13.294 Z-4.883
X-35.535 Y13.236 Z-4.933
X-35.489 Y13.171 Z-4.97
X-35.44 Y13.103 Z-4.992
X-35.39 Y13.032 Z-5.
X-34.229 Y11.403 F466.
G2 X-34.346 Y10.706 R0.5
X-41.889 Y21.294 R6.5
X-34.218 Y10.8 R6.5
X-34.346 Y10.706 R6.5
X-35.044 Y10.823 R0.5
G1 X-36.204 Y12.452
X-36.255 Y12.523 Z-4.992
X-36.303 Y12.591 Z-4.97
X-36.349 Y12.656 Z-4.933
X-36.391 Y12.714 Z-4.883
X-36.426 Y12.764 Z-4.821
X-36.455 Y12.805 Z-4.75
X-36.477 Y12.835 Z-4.671
X-36.49 Y12.853 Z-4.587
X-36.494 Y12.859 Z-4.5
G0 Z5.
X3.487 Y-49.5
G1 Z1. F200.
Z-4.5
G18 G2 X3.987 Z-5. R0.5
G1 X5.987 F466.
G17 G2 X6.487 Y-50. R0.5
X-6.513 R6.5
X6.487 R6.5
X5.987 Y-50.5 R0.5
G1 X3.987
G18 G3 X3.487 Z-4.5 R0.5
G0 Z15.
G17

M9
M30
