(__)
(T1  D=3.175 CR=0. - ZMIN=-20. - FLAT END MILL)
G90 G94 G91.1 G40 G49 G17
G21

(2D CONTOUR2)
M5
M9
T1
S9170 M3
G54
M8
G0 X10.778 Y0.784
G43 Z15. H1
Z5.
G1 Z2.5 F762.
G3 X-10.399 Y1.526 Z1.338 R10.595 F465.
X10.778 Y0.784 Z0.175 R10.595
X0.375 Y11.748 Z-0.412 R10.595
X-10.406 Y1.155 Z-1. R10.595
X10.784 R10.595
X-10.406 R10.595
X11.102 R10.754
X-10.723 R10.912
X11.102 R10.912
G1 X10.939 Z-0.984
Z1.5
X10.778 Y0.784
G3 X-10.399 Y1.526 Z0.338 R10.595
X10.778 Y0.784 Z-0.825 R10.595
X0.375 Y11.748 Z-1.412 R10.595
X-10.406 Y1.155 Z-2. R10.595
X10.784 R10.595
X-10.406 R10.595
X11.102 R10.754
X-10.723 R10.912
X11.102 R10.912
G1 X10.939 Z-1.984
Z0.5
X10.778 Y0.784
G3 X-10.399 Y1.526 Z-0.662 R10.595
X10.778 Y0.784 Z-1.825 R10.595
X0.375 Y11.748 Z-2.412 R10.595
X-10.406 Y1.155 Z-3. R10.595
X10.784 R10.595
X-10.406 R10.595
X11.102 R10.754
X-10.723 R10.912
X11.102 R10.912
G1 X10.939 Z-2.984
Z-0.5
X10.778 Y0.784
G3 X-10.399 Y1.526 Z-1.662 R10.595
X10.778 Y0.784 Z-2.825 R10.595
X0.375 Y11.748 Z-3.412 R10.595
X-10.406 Y1.155 Z-4. R10.595
X10.784 R10.595
X-10.406 R10.595
X11.102 R10.754
X-10.723 R10.912
X11.102 R10.912
G1 X10.939 Z-3.984
Z-1.5
X10.778 Y0.784
G3 X-10.399 Y1.526 Z-2.662 R10.595
X10.778 Y0.784 Z-3.825 R10.595
X0.375 Y11.748 Z-4.412 R10.595
X-10.406 Y1.155 Z-5. R10.595
X10.784 R10.595
X-10.406 R10.595
X11.102 R10.754
X-10.723 R10.912
X11.102 R10.912
G1 X10.939 Z-4.984
Z-2.5
X10.778 Y0.784
G3 X-10.399 Y1.526 Z-3.662 R10.595
X10.778 Y0.784 Z-4.825 R10.595
X0.375 Y11.748 Z-5.412 R10.595
X-10.406 Y1.155 Z-6. R10.595
X10.784 R10.595
X-10.406 R10.595
X11.102 R10.754
X-10.723 R10.912
X11.102 R10.912
G1 X10.939 Z-5.984
Z-3.5
X10.778 Y0.784
G3 X-10.399 Y1.526 Z-4.662 R10.595
X10.778 Y0.784 Z-5.825 R10.595
X0.375 Y11.748 Z-6.412 R10.595
X-10.406 Y1.155 Z-7. R10.595
X10.784 R10.595
X-10.406 R10.595
X11.102 R10.754
X-10.723 R10.912
X11.102 R10.912
G1 X10.939 Z-6.984
Z-4.5
X10.778 Y0.784
G3 X-10.399 Y1.526 Z-5.662 R10.595
X10.778 Y0.784 Z-6.825 R10.595
X0.375 Y11.748 Z-7.412 R10.595
X-10.406 Y1.155 Z-8. R10.595
X10.784 R10.595
X-10.406 R10.595
X11.102 R10.754
X-10.723 R10.912
X11.102 R10.912
G1 X10.939 Z-7.984
Z-5.5
X10.778 Y0.784
G3 X-10.399 Y1.526 Z-6.662 R10.595
X10.778 Y0.784 Z-7.825 R10.595
X0.375 Y11.748 Z-8.412 R10.595
X-10.406 Y1.155 Z-9. R10.595
X10.784 R10.595
X-10.406 R10.595
X11.102 R10.754
X-10.723 R10.912
X11.102 R10.912
G1 X10.939 Z-8.984
Z-6.5
X10.778 Y0.784
G3 X-10.399 Y1.526 Z-7.662 R10.595
X10.778 Y0.784 Z-8.825 R10.595
X0.375 Y11.748 Z-9.412 R10.595
X-10.406 Y1.155 Z-10. R10.595
X10.784 R10.595
X-10.406 R10.595
X11.102 R10.754
X-10.723 R10.912
X11.102 R10.912
G1 X10.939 Z-9.984
Z-7.5
X10.778 Y0.784
G3 X-10.399 Y1.526 Z-8.662 R10.595
X10.778 Y0.784 Z-9.825 R10.595
X0.375 Y11.748 Z-10.412 R10.595
X-10.406 Y1.155 Z-11. R10.595
X10.784 R10.595
X-10.406 R10.595
X11.102 R10.754
X-10.723 R10.912
X11.102 R10.912
G1 X10.939 Z-10.984
Z-8.5
X10.778 Y0.784
G3 X-10.399 Y1.526 Z-9.662 R10.595
X10.778 Y0.784 Z-10.825 R10.595
X0.375 Y11.748 Z-11.412 R10.595
X-10.406 Y1.155 Z-12. R10.595
X10.784 R10.595
X-10.406 R10.595
X11.102 R10.754
X-10.723 R10.912
X11.102 R10.912
G1 X10.939 Z-11.984
Z-9.5
X10.778 Y0.784
G3 X-10.399 Y1.526 Z-10.662 R10.595
X10.778 Y0.784 Z-11.825 R10.595
X0.375 Y11.748 Z-12.412 R10.595
X-10.406 Y1.155 Z-13. R10.595
X10.784 R10.595
X-10.406 R10.595
X11.102 R10.754
X-10.723 R10.912
X11.102 R10.912
G1 X10.939 Z-12.984
Z-10.5
X10.778 Y0.784
G3 X-10.399 Y1.526 Z-11.662 R10.595
X10.778 Y0.784 Z-12.825 R10.595
X0.375 Y11.748 Z-13.412 R10.595
X-10.406 Y1.155 Z-14. R10.595
X10.784 R10.595
X-10.406 R10.595
X11.102 R10.754
X-10.723 R10.912
X11.102 R10.912
G1 X10.939 Z-13.984
Z-11.5
X10.778 Y0.784
G3 X-10.399 Y1.526 Z-12.662 R10.595
X10.778 Y0.784 Z-13.825 R10.595
X0.375 Y11.748 Z-14.412 R10.595
X-10.406 Y1.155 Z-15. R10.595
X10.784 R10.595
X-10.406 R10.595
X11.102 R10.754
X-10.723 R10.912
X11.102 R10.912
G1 X10.939 Z-14.984
Z-12.5
X10.778 Y0.784
G3 X-10.399 Y1.526 Z-13.662 R10.595
X10.778 Y0.784 Z-14.825 R10.595
X0.375 Y11.748 Z-15.412 R10.595
X-10.406 Y1.155 Z-16. R10.595
X10.784 R10.595
X-10.406 R10.595
X11.102 R10.754
X-10.723 R10.912
X11.102 R10.912
G1 X10.939 Z-15.984
Z-13.5
X10.778 Y0.784
G3 X-10.399 Y1.526 Z-14.662 R10.595
X10.778 Y0.784 Z-15.825 R10.595
X0.375 Y11.748 Z-16.412 R10.595
X-10.406 Y1.155 Z-17. R10.595
X10.784 R10.595
X-10.406 R10.595
X11.102 R10.754
X-10.723 R10.912
X11.102 R10.912
G1 X10.939 Z-16.984
Z-14.5
X10.778 Y0.784
G3 X-10.399 Y1.526 Z-15.662 R10.595
X10.778 Y0.784 Z-16.825 R10.595
X0.375 Y11.748 Z-17.412 R10.595
X-10.406 Y1.155 Z-18. R10.595
X10.784 R10.595
X-10.406 R10.595
X11.102 R10.754
X-10.723 R10.912
X11.102 R10.912
G1 X10.939 Z-17.984
Z-15.5
X10.778 Y0.784
G3 X-10.399 Y1.526 Z-16.662 R10.595
X10.778 Y0.784 Z-17.825 R10.595
X0.375 Y11.748 Z-18.412 R10.595
X-10.406 Y1.155 Z-19. R10.595
X10.784 R10.595
X-10.406 R10.595
X11.102 R10.754
X-10.723 R10.912
X11.102 R10.912
G1 X10.939 Z-18.984
Z-16.5
X10.778 Y0.784
G3 X-10.399 Y1.526 Z-17.662 R10.595
X10.778 Y0.784 Z-18.825 R10.595
X0.375 Y11.748 Z-19.412 R10.595
X-10.406 Y1.155 Z-20. R10.595
X10.784 R10.595
X-10.406 R10.595
X11.102 R10.754
X-10.723 R10.912
X11.102 R10.912
G1 X10.939 Z-19.984
G0 Z15.

(2D CONTOUR3)
M8
G0 X4.472 Y-8.882
Z15.
Z5.
G1 Z2.5 F762.
G2 X-4.094 Y11.192 Z1.303 R10.912 F465.
X4.472 Y-8.882 Z0.106 R10.912
X-6.358 Y9.885 Z-1. R10.912
X6.737 Y-7.575 R10.912
X-6.358 Y9.885 R10.912
X10.198 Y-3.194 Z-2. R10.912
X-9.819 Y5.503 R10.912
X10.198 Y-3.194 R10.912
X-10.66 Y-0.016 Z-3. R10.912
X11.039 Y2.326 R10.912
X-10.66 Y-0.016 R10.912
X9.039 Y7.539 Z-4. R10.912
X-8.66 Y-5.23 R10.912
X9.039 Y7.539 R10.912
X-4.344 Y-8.771 Z-5. R10.912
X4.723 Y11.081 R10.912
X-4.344 Y-8.771 R10.912
X-0.781 Y12.024 Z-6. R10.912
X1.159 Y-9.714 R10.912
X-0.781 Y12.024 R10.912
X6.409 Y-7.812 Z-7. R10.912
X-6.03 Y10.122 R10.912
X6.409 Y-7.812 R10.912
X-9.651 Y5.871 Z-8. R10.912
X10.03 Y-3.562 R10.912
X-9.651 Y5.871 R10.912
X11.075 Y1.923 Z-9. R10.912
X-10.696 Y0.386 R10.912
X11.075 Y1.923 R10.912
X11.102 Y1.155 Z-9.027 R10.912
X-8.891 Y-4.897 Z-10. R10.912
X9.27 Y7.207 R10.912
X-8.891 Y-4.897 R10.912
X5.087 Y10.906 Z-11. R10.912
X-4.709 Y-8.597 R10.912
X5.087 Y10.906 R10.912
X0.756 Y-9.743 Z-12. R10.912
X-0.377 Y12.053 R10.912
X0.756 Y-9.743 R10.912
X-5.693 Y10.346 Z-13. R10.912
X6.072 Y-8.036 R10.912
X-5.693 Y10.346 R10.912
X9.848 Y-3.923 Z-14. R10.912
X-9.47 Y6.233 R10.912
X9.848 Y-3.923 R10.912
X-10.717 Y0.79 Z-15. R10.912
X11.096 Y1.519 R10.912
X-10.717 Y0.79 R10.912
X9.488 Y6.866 Z-16. R10.912
X-9.109 Y-4.557 R10.912
X9.488 Y6.866 R10.912
X-5.067 Y-8.408 Z-17. R10.912
X5.445 Y10.718 R10.912
X-5.067 Y-8.408 R10.912
X0.027 Y12.066 Z-18. R10.912
X0.352 Y-9.756 R10.912
X0.027 Y12.066 R10.912
X5.728 Y-8.248 Z-19. R10.912
X-5.349 Y10.558 R10.912
X5.728 Y-8.248 R10.912
X-9.275 Y6.587 Z-20. R10.912
X9.654 Y-4.278 R10.912
X-9.275 Y6.587 R10.912
G0 Z15.

M9
M30
