(__2_2)
(T2  D=3. CR=0. - ZMIN=-5. - FLAT END MILL)
G90 G94 G91.1 G40 G49 G17
G21

(DRILL2)
M5
M9
T2
S5820 M3
G54
M8
G0 X51.249 Y-29.155
G43 Z15. H2
Z5.
G98 G73 X51.249 Y-29.155 Z-5. R0. Q0. F100.
X23. Y-12.538
X36.564 Y4.806
X15.057 Y23.475
X-15.943
Y54.475
X15.057
X-51.436 Y4.806
X-23. Y-12.538
X-36.751 Y-29.155
G80
Z15.

M9
M30
