(__1)
(T1  D=4. CR=0. - ZMIN=-5. - FLAT END MILL)
G90 G94 G91.1 G40 G49 G17
G21

(2D CONTOUR1)
M5
M9
T1
S10000 M3
G54
M8
G0 X-6.78 Y-21.578
G43 Z15. H1
Z5.
G1 Z1. F200.
Z0.5
G3 X6.78 Y-3.498 Z0.25 R11.3 F400.
X-6.78 Y-21.578 Z0. R11.3
X6.78 Y-3.498 Z-0.25 R11.3
X-6.78 Y-21.578 Z-0.5 R11.3
X6.78 Y-3.498 Z-0.75 R11.3
X-6.78 Y-21.578 Z-1. R11.3
X6.78 Y-3.498 Z-1.25 R11.3
X-6.78 Y-21.578 Z-1.5 R11.3
X6.78 Y-3.498 Z-1.75 R11.3
X-6.78 Y-21.578 Z-2. R11.3
X6.78 Y-3.498 Z-2.25 R11.3
X-6.78 Y-21.578 Z-2.5 R11.3
X6.78 Y-3.498 Z-2.75 R11.3
X-6.78 Y-21.578 Z-3. R11.3
X6.78 Y-3.498 Z-3.25 R11.3
X-6.78 Y-21.578 Z-3.5 R11.3
X6.78 Y-3.498 Z-3.75 R11.3
X-6.78 Y-21.578 Z-4. R11.3
X6.78 Y-3.498 Z-4.25 R11.3
X-6.78 Y-21.578 Z-4.5 R11.3
X6.78 Y-3.498 Z-4.75 R11.3
X-6.78 Y-21.578 Z-5. R11.3
X6.78 Y-3.498 R11.3
X-6.78 Y-21.578 R11.3
G0 Z5.
X-20. Y10.162
G1 Z1. F200.
Z0.5
X-7.64 Z0.268 F400.
G3 Y10.762 Z0.25 R0.3
G1 X-20. Z0.018
G3 Y10.162 Z0. R0.3
G1 X-7.64 Z-0.232
G3 Y10.762 Z-0.25 R0.3
G1 X-20. Z-0.482
G3 Y10.162 Z-0.5 R0.3
G1 X-7.64 Z-0.732
G3 Y10.762 Z-0.75 R0.3
G1 X-20. Z-0.982
G3 Y10.162 Z-1. R0.3
G1 X-7.64 Z-1.232
G3 Y10.762 Z-1.25 R0.3
G1 X-20. Z-1.482
G3 Y10.162 Z-1.5 R0.3
G1 X-7.64 Z-1.732
G3 Y10.762 Z-1.75 R0.3
G1 X-20. Z-1.982
G3 Y10.162 Z-2. R0.3
G1 X-7.64 Z-2.232
G3 Y10.762 Z-2.25 R0.3
G1 X-20. Z-2.482
G3 Y10.162 Z-2.5 R0.3
G1 X-7.64 Z-2.732
G3 Y10.762 Z-2.75 R0.3
G1 X-20. Z-2.982
G3 Y10.162 Z-3. R0.3
G1 X-7.64 Z-3.232
G3 Y10.762 Z-3.25 R0.3
G1 X-20. Z-3.482
G3 Y10.162 Z-3.5 R0.3
G1 X-7.64 Z-3.732
G3 Y10.762 Z-3.75 R0.3
G1 X-20. Z-3.982
G3 Y10.162 Z-4. R0.3
G1 X-7.64 Z-4.232
G3 Y10.762 Z-4.25 R0.3
G1 X-20. Z-4.482
G3 Y10.162 Z-4.5 R0.3
G1 X-7.64 Z-4.732
G3 Y10.762 Z-4.75 R0.3
G1 X-20. Z-4.982
G3 Y10.162 Z-5. R0.3
G1 X-7.64
G3 Y10.762 R0.3
G1 X-20.
G3 Y10.162 R0.3
G0 Z5.
X-38.415 Y19.65
G1 Z1. F200.
Z0.5
G3 X-39.055 Y16.107 Z0.303 R1.8 F400.
X-38.415 Y19.65 Z0.105 R1.8
X-39.055 Y16.107 Z-0.092 R1.8
X-38.415 Y19.65 Z-0.29 R1.8
X-39.055 Y16.107 Z-0.487 R1.8
X-38.415 Y19.65 Z-0.685 R1.8
X-39.055 Y16.107 Z-0.882 R1.8
X-38.415 Y19.65 Z-1.08 R1.8
X-39.055 Y16.107 Z-1.277 R1.8
X-38.415 Y19.65 Z-1.475 R1.8
X-39.055 Y16.107 Z-1.672 R1.8
X-38.415 Y19.65 Z-1.87 R1.8
X-39.055 Y16.107 Z-2.067 R1.8
X-38.415 Y19.65 Z-2.265 R1.8
X-39.055 Y16.107 Z-2.462 R1.8
X-38.415 Y19.65 Z-2.66 R1.8
X-39.055 Y16.107 Z-2.857 R1.8
X-38.415 Y19.65 Z-3.055 R1.8
X-39.055 Y16.107 Z-3.252 R1.8
X-38.415 Y19.65 Z-3.449 R1.8
X-39.055 Y16.107 Z-3.647 R1.8
X-38.415 Y19.65 Z-3.844 R1.8
X-39.055 Y16.107 Z-4.042 R1.8
X-38.415 Y19.65 Z-4.239 R1.8
X-39.055 Y16.107 Z-4.437 R1.8
X-38.415 Y19.65 Z-4.634 R1.8
X-39.055 Y16.107 Z-4.832 R1.8
X-37.655 Y19.318 Z-5. R1.8
X-39.815 Y16.438 R1.8
X-37.655 Y19.318 R1.8
G0 Z5.
X-38.293 Y-12.175
G1 Z1. F200.
Z0.5
G3 X-49.893 Z0.25 R5.8 F400.
X-38.293 Z0. R5.8
X-49.893 Z-0.25 R5.8
X-38.293 Z-0.5 R5.8
X-49.893 Z-0.75 R5.8
X-38.293 Z-1. R5.8
X-49.893 Z-1.25 R5.8
X-38.293 Z-1.5 R5.8
X-49.893 Z-1.75 R5.8
X-38.293 Z-2. R5.8
X-49.893 Z-2.25 R5.8
X-38.293 Z-2.5 R5.8
X-49.893 Z-2.75 R5.8
X-38.293 Z-3. R5.8
X-49.893 Z-3.25 R5.8
X-38.293 Z-3.5 R5.8
X-49.893 Z-3.75 R5.8
X-38.293 Z-4. R5.8
X-49.893 Z-4.25 R5.8
X-38.293 Z-4.5 R5.8
X-49.893 Z-4.75 R5.8
X-38.293 Z-5. R5.8
X-49.893 R5.8
X-38.293 R5.8
G0 Z5.
X7.243 Y10.462
G1 Z1. F200.
Z0.5
G3 X7.543 Y10.162 Z0.491 R0.3 F400.
G1 X20. Z0.259
G3 Y10.762 Z0.241 R0.3
G1 X7.543 Z0.009
G3 Y10.162 Z-0.009 R0.3
G1 X20. Z-0.241
G3 Y10.762 Z-0.259 R0.3
G1 X7.543 Z-0.491
G3 Y10.162 Z-0.509 R0.3
G1 X20. Z-0.741
G3 Y10.762 Z-0.759 R0.3
G1 X7.543 Z-0.991
G3 Y10.162 Z-1.009 R0.3
G1 X20. Z-1.241
G3 Y10.762 Z-1.259 R0.3
G1 X7.543 Z-1.491
G3 Y10.162 Z-1.509 R0.3
G1 X20. Z-1.741
G3 Y10.762 Z-1.759 R0.3
G1 X7.543 Z-1.991
G3 Y10.162 Z-2.009 R0.3
G1 X20. Z-2.241
G3 Y10.762 Z-2.259 R0.3
G1 X7.543 Z-2.491
G3 Y10.162 Z-2.509 R0.3
G1 X20. Z-2.741
G3 Y10.762 Z-2.759 R0.3
G1 X7.543 Z-2.991
G3 Y10.162 Z-3.009 R0.3
G1 X20. Z-3.241
G3 Y10.762 Z-3.259 R0.3
G1 X7.543 Z-3.491
G3 Y10.162 Z-3.509 R0.3
G1 X20. Z-3.741
G3 Y10.762 Z-3.759 R0.3
G1 X7.543 Z-3.991
G3 Y10.162 Z-4.009 R0.3
G1 X20. Z-4.241
G3 Y10.762 Z-4.259 R0.3
G1 X7.543 Z-4.491
G3 Y10.162 Z-4.509 R0.3
G1 X20. Z-4.741
G3 Y10.762 Z-4.759 R0.3
G1 X7.543 Z-4.991
G3 X7.243 Y10.462 Z-5. R0.3
X7.543 Y10.162 R0.3
G1 X20.
G3 Y10.762 R0.3
G1 X7.543
G3 X7.243 Y10.462 R0.3
G0 Z5.
X8.407 Y38.975
G1 Z1. F200.
Z0.5
G3 X-9.293 Z0.25 R8.85 F400.
X8.407 Z0. R8.85
X-9.293 Z-0.25 R8.85
X8.407 Z-0.5 R8.85
X-9.293 Z-0.75 R8.85
X8.407 Z-1. R8.85
X-9.293 Z-1.25 R8.85
X8.407 Z-1.5 R8.85
X-9.293 Z-1.75 R8.85
X8.407 Z-2. R8.85
X-9.293 Z-2.25 R8.85
X8.407 Z-2.5 R8.85
X-9.293 Z-2.75 R8.85
X8.407 Z-3. R8.85
X-9.293 Z-3.25 R8.85
X8.407 Z-3.5 R8.85
X-9.293 Z-3.75 R8.85
X8.407 Z-4. R8.85
X-9.293 Z-4.25 R8.85
X8.407 Z-4.5 R8.85
X-9.293 Z-4.75 R8.85
X8.407 Z-5. R8.85
X-9.293 R8.85
X8.407 R8.85
G0 Z5.
X49.707 Y-12.175
G1 Z1. F200.
Z0.5
G3 X38.107 Z0.25 R5.8 F400.
X49.707 Z0. R5.8
X38.107 Z-0.25 R5.8
X49.707 Z-0.5 R5.8
X38.107 Z-0.75 R5.8
X49.707 Z-1. R5.8
X38.107 Z-1.25 R5.8
X49.707 Z-1.5 R5.8
X38.107 Z-1.75 R5.8
X49.707 Z-2. R5.8
X38.107 Z-2.25 R5.8
X49.707 Z-2.5 R5.8
X38.107 Z-2.75 R5.8
X49.707 Z-3. R5.8
X38.107 Z-3.25 R5.8
X49.707 Z-3.5 R5.8
X38.107 Z-3.75 R5.8
X49.707 Z-4. R5.8
X38.107 Z-4.25 R5.8
X49.707 Z-4.5 R5.8
X38.107 Z-4.75 R5.8
X49.707 Z-5. R5.8
X38.107 R5.8
X49.707 R5.8
G0 Z5.
X37.126 Y-43.761
G1 Z1. F200.
Z0.5
G3 X40.344 Y-42.147 Z0.303 R1.8 F400.
X37.126 Y-43.761 Z0.105 R1.8
X40.344 Y-42.147 Z-0.092 R1.8
X37.126 Y-43.761 Z-0.29 R1.8
X40.344 Y-42.147 Z-0.487 R1.8
X37.126 Y-43.761 Z-0.685 R1.8
X40.344 Y-42.147 Z-0.882 R1.8
X37.126 Y-43.761 Z-1.08 R1.8
X40.344 Y-42.147 Z-1.277 R1.8
X37.126 Y-43.761 Z-1.475 R1.8
X40.344 Y-42.147 Z-1.672 R1.8
X37.126 Y-43.761 Z-1.87 R1.8
X40.344 Y-42.147 Z-2.067 R1.8
X37.126 Y-43.761 Z-2.265 R1.8
X40.344 Y-42.147 Z-2.462 R1.8
X37.126 Y-43.761 Z-2.66 R1.8
X40.344 Y-42.147 Z-2.857 R1.8
X37.126 Y-43.761 Z-3.055 R1.8
X40.344 Y-42.147 Z-3.252 R1.8
X37.126 Y-43.761 Z-3.449 R1.8
X40.344 Y-42.147 Z-3.647 R1.8
X37.126 Y-43.761 Z-3.844 R1.8
X40.344 Y-42.147 Z-4.042 R1.8
X37.126 Y-43.761 Z-4.239 R1.8
X40.344 Y-42.147 Z-4.437 R1.8
X37.126 Y-43.761 Z-4.634 R1.8
X40.344 Y-42.147 Z-4.832 R1.8
X36.935 Y-42.954 Z-5. R1.8
X40.535 R1.8
X36.935 R1.8
G0 Z15.

M9
M30
