(__3_4)
(T1  D=3. CR=0. - ZMIN=-2.25 - FLAT END MILL)
G90 G94 G91.1 G40 G49 G17
G21

(2D CONTOUR2)
M5
M9
T1
S9700 M3
G54
M8
G0 X32.893 Y17.
G43 Z15. H1
Z5.
G1 Z1. F200.
Z-1.25
G18 G3 X31.892 Z-2.25 R1.
G1 X30.892 F466.
G17 G3 X29.892 Y16. R1.
X46.292 R8.2
X29.892 R8.2
X46.792 R8.45
X29.392 R8.7
X47.292 R8.95
X28.892 R9.2
X47.592 R9.35
X28.592 R9.5
X47.592 R9.5
X46.592 Y17. R1.
G1 X45.592
G18 G3 X44.592 Z-1.25 R1.
G0 Z5.
X-5.213 Y-49.
G1 Z1. F200.
Z-1.25
G3 X-6.213 Z-2.25 R1.
G1 X-7.213 F466.
G17 G3 X-8.213 Y-50. R1.
X8.187 R8.2
X-8.213 R8.2
X8.687 R8.45
X-8.713 R8.7
X9.187 R8.95
X-9.213 R9.2
X9.487 R9.35
X-9.513 R9.5
X9.487 R9.5
X8.487 Y-49. R1.
G1 X7.487
G18 G3 X6.487 Z-1.25 R1.
G0 Z15.
G17

M9
M30
