(__3_2)
(T1  D=3. CR=0. - ZMIN=-5. - FLAT END MILL)
G90 G94 G91.1 G40 G49 G17
G21

(2D ADAPTIVE2)
M5
M9
T1
S9700 M3
G54
M8
G0 X-53.652 Y-57.774
G43 Z15. H1
Z5.
Z2.845
G1 Z2.545 F466.
G3 X-54.372 Y-58.226 Z2.498 R0.425
X-53.652 Y-57.774 Z2.452 R0.425
X-54.372 Y-58.226 Z2.405 R0.425
X-53.652 Y-57.774 Z2.358 R0.425
X-54.372 Y-58.226 Z2.312 R0.425
X-53.652 Y-57.774 Z2.265 R0.425
X-54.372 Y-58.226 Z2.219 R0.425
X-53.652 Y-57.774 Z2.172 R0.425
X-54.372 Y-58.226 Z2.125 R0.425
X-53.652 Y-57.774 Z2.079 R0.425
X-54.372 Y-58.226 Z2.032 R0.425
X-53.652 Y-57.774 Z1.985 R0.425
X-54.372 Y-58.226 Z1.939 R0.425
X-53.652 Y-57.774 Z1.892 R0.425
X-54.372 Y-58.226 Z1.846 R0.425
X-53.652 Y-57.774 Z1.799 R0.425
X-54.372 Y-58.226 Z1.752 R0.425
X-53.652 Y-57.774 Z1.706 R0.425
X-54.372 Y-58.226 Z1.659 R0.425
X-53.652 Y-57.774 Z1.612 R0.425
X-54.372 Y-58.226 Z1.566 R0.425
X-53.652 Y-57.774 Z1.519 R0.425
X-54.372 Y-58.226 Z1.473 R0.425
X-53.652 Y-57.774 Z1.426 R0.425
X-54.372 Y-58.226 Z1.379 R0.425
X-53.652 Y-57.774 Z1.333 R0.425
X-54.372 Y-58.226 Z1.286 R0.425
X-53.652 Y-57.774 Z1.239 R0.425
X-54.372 Y-58.226 Z1.193 R0.425
X-53.652 Y-57.774 Z1.146 R0.425
X-54.372 Y-58.226 Z1.1 R0.425
X-53.652 Y-57.774 Z1.053 R0.425
X-54.372 Y-58.226 Z1.006 R0.425
X-53.652 Y-57.774 Z0.96 R0.425
X-54.372 Y-58.226 Z0.913 R0.425
X-53.652 Y-57.774 Z0.866 R0.425
X-54.372 Y-58.226 Z0.82 R0.425
X-53.652 Y-57.774 Z0.773 R0.425
X-54.372 Y-58.226 Z0.727 R0.425
X-53.652 Y-57.774 Z0.68 R0.425
X-54.372 Y-58.226 Z0.633 R0.425
X-53.652 Y-57.774 Z0.587 R0.425
X-54.372 Y-58.226 Z0.54 R0.425
X-53.652 Y-57.774 Z0.493 R0.425
X-54.372 Y-58.226 Z0.447 R0.425
X-53.652 Y-57.774 Z0.4 R0.425
X-54.372 Y-58.226 Z0.354 R0.425
X-53.652 Y-57.774 Z0.307 R0.425
X-54.372 Y-58.226 Z0.26 R0.425
X-53.652 Y-57.774 Z0.214 R0.425
X-54.372 Y-58.226 Z0.167 R0.425
X-53.652 Y-57.774 Z0.12 R0.425
X-54.372 Y-58.226 Z0.074 R0.425
X-53.652 Y-57.774 Z0.027 R0.425
X-54.372 Y-58.226 Z-0.019 R0.425
X-53.652 Y-57.774 Z-0.066 R0.425
X-54.372 Y-58.226 Z-0.113 R0.425
X-53.652 Y-57.774 Z-0.159 R0.425
X-54.372 Y-58.226 Z-0.206 R0.425
X-53.652 Y-57.774 Z-0.253 R0.425
X-54.372 Y-58.226 Z-0.299 R0.425
X-53.652 Y-57.774 Z-0.346 R0.425
X-54.372 Y-58.226 Z-0.392 R0.425
X-53.652 Y-57.774 Z-0.439 R0.425
X-54.372 Y-58.226 Z-0.486 R0.425
X-53.652 Y-57.774 Z-0.532 R0.425
X-54.372 Y-58.226 Z-0.579 R0.425
X-53.652 Y-57.774 Z-0.626 R0.425
X-54.372 Y-58.226 Z-0.672 R0.425
X-53.652 Y-57.774 Z-0.719 R0.425
X-54.372 Y-58.226 Z-0.765 R0.425
X-53.652 Y-57.774 Z-0.812 R0.425
X-54.372 Y-58.226 Z-0.859 R0.425
X-53.652 Y-57.774 Z-0.905 R0.425
X-54.372 Y-58.226 Z-0.952 R0.425
X-53.652 Y-57.774 Z-0.999 R0.425
X-54.372 Y-58.226 Z-1.045 R0.425
X-53.652 Y-57.774 Z-1.092 R0.425
X-54.372 Y-58.226 Z-1.138 R0.425
X-53.652 Y-57.774 Z-1.185 R0.425
X-54.372 Y-58.226 Z-1.232 R0.425
X-53.652 Y-57.774 Z-1.278 R0.425
X-54.372 Y-58.226 Z-1.325 R0.425
X-53.652 Y-57.774 Z-1.372 R0.425
X-54.372 Y-58.226 Z-1.418 R0.425
X-53.652 Y-57.774 Z-1.465 R0.425
X-54.372 Y-58.226 Z-1.511 R0.425
X-53.652 Y-57.774 Z-1.558 R0.425
X-54.372 Y-58.226 Z-1.605 R0.425
X-53.652 Y-57.774 Z-1.651 R0.425
X-54.372 Y-58.226 Z-1.698 R0.425
X-53.652 Y-57.774 Z-1.745 R0.425
X-54.372 Y-58.226 Z-1.791 R0.425
X-53.652 Y-57.774 Z-1.838 R0.425
X-54.372 Y-58.226 Z-1.884 R0.425
X-53.652 Y-57.774 Z-1.931 R0.425
X-54.372 Y-58.226 Z-1.978 R0.425
X-53.652 Y-57.774 Z-2.024 R0.425
X-54.372 Y-58.226 Z-2.071 R0.425
X-53.652 Y-57.774 Z-2.118 R0.425
X-54.372 Y-58.226 Z-2.164 R0.425
X-53.652 Y-57.774 Z-2.211 R0.425
X-54.372 Y-58.226 Z-2.257 R0.425
X-53.652 Y-57.774 Z-2.304 R0.425
X-54.372 Y-58.226 Z-2.351 R0.425
X-53.652 Y-57.774 Z-2.397 R0.425
X-54.372 Y-58.226 Z-2.444 R0.425
X-53.652 Y-57.774 Z-2.491 R0.425
X-54.372 Y-58.226 Z-2.537 R0.425
X-53.652 Y-57.774 Z-2.584 R0.425
X-54.372 Y-58.226 Z-2.63 R0.425
X-53.652 Y-57.774 Z-2.677 R0.425
X-54.372 Y-58.226 Z-2.724 R0.425
X-53.652 Y-57.774 Z-2.77 R0.425
X-54.372 Y-58.226 Z-2.817 R0.425
X-53.652 Y-57.774 Z-2.864 R0.425
X-54.372 Y-58.226 Z-2.91 R0.425
X-53.652 Y-57.774 Z-2.957 R0.425
X-54.372 Y-58.226 Z-3.003 R0.425
X-53.652 Y-57.774 Z-3.05 R0.425
X-54.372 Y-58.226 Z-3.097 R0.425
X-53.652 Y-57.774 Z-3.143 R0.425
X-54.372 Y-58.226 Z-3.19 R0.425
X-53.652 Y-57.774 Z-3.237 R0.425
X-54.372 Y-58.226 Z-3.283 R0.425
X-53.652 Y-57.774 Z-3.33 R0.425
X-54.372 Y-58.226 Z-3.376 R0.425
X-53.652 Y-57.774 Z-3.423 R0.425
X-54.372 Y-58.226 Z-3.47 R0.425
X-53.652 Y-57.774 Z-3.516 R0.425
X-54.372 Y-58.226 Z-3.563 R0.425
X-53.652 Y-57.774 Z-3.61 R0.425
X-54.372 Y-58.226 Z-3.656 R0.425
X-53.652 Y-57.774 Z-3.703 R0.425
X-54.372 Y-58.226 Z-3.749 R0.425
X-53.652 Y-57.774 Z-3.796 R0.425
X-54.372 Y-58.226 Z-3.843 R0.425
X-53.652 Y-57.774 Z-3.889 R0.425
X-54.372 Y-58.226 Z-3.936 R0.425
X-53.652 Y-57.774 Z-3.983 R0.425
X-54.372 Y-58.226 Z-4.029 R0.425
X-53.652 Y-57.774 Z-4.076 R0.425
X-54.372 Y-58.226 Z-4.122 R0.425
X-53.652 Y-57.774 Z-4.169 R0.425
X-54.372 Y-58.226 Z-4.216 R0.425
X-53.652 Y-57.774 Z-4.262 R0.425
X-54.372 Y-58.226 Z-4.309 R0.425
X-53.652 Y-57.774 Z-4.356 R0.425
X-54.372 Y-58.226 Z-4.402 R0.425
X-53.652 Y-57.774 Z-4.449 R0.425
X-54.372 Y-58.226 Z-4.495 R0.425
X-53.652 Y-57.774 Z-4.542 R0.425
X-54.372 Y-58.226 Z-4.589 R0.425
X-53.652 Y-57.774 Z-4.635 R0.425
X-54.372 Y-58.226 Z-4.682 R0.425
X-53.652 Y-57.774 Z-4.729 R0.425
X-54.372 Y-58.226 Z-4.775 R0.425
X-53.652 Y-57.774 Z-4.822 R0.425
X-54.372 Y-58.226 Z-4.868 R0.425
X-53.652 Y-57.774 Z-4.915 R0.425
X-54.372 Y-58.226 Z-4.962 R0.425
X-53.587 Y-58. Z-5. R0.425
X-54.437 R0.425
X-53.587 R0.425
G1 X-53.568 Y-57.715
X-53.628 Y-57.594
X-53.724 Y-57.5
X-53.843 Y-57.435
X-53.974 Y-57.404
X-54.109 Y-57.405
X-54.24 Y-57.437
X-54.36 Y-57.499
X-54.463 Y-57.586
X-54.544 Y-57.694
X-54.599 Y-57.818
X-54.625 Y-57.95
X-54.622 Y-58.085
X-54.589 Y-58.216
X-54.528 Y-58.337
X-54.443 Y-58.441
X-54.337 Y-58.524
X-54.215 Y-58.583
X-54.083 Y-58.613
X-53.948 Y-58.614
X-53.816 Y-58.585
X-53.694 Y-58.529
X-53.586 Y-58.447
X-53.499 Y-58.343
X-53.432 Y-58.226
X-53.379 Y-58.102
X-53.346 Y-57.971
X-53.341 Y-57.836
X-53.362 Y-57.703
X-53.409 Y-57.577
X-53.481 Y-57.463
X-53.576 Y-57.366
X-53.686 Y-57.288
X-53.809 Y-57.233
X-53.94 Y-57.201
X-54.075 Y-57.194
X-54.209 Y-57.21
X-54.338 Y-57.248
X-54.459 Y-57.308
X-54.568 Y-57.389
X-54.662 Y-57.486
X-54.739 Y-57.597
X-54.796 Y-57.719
X-54.832 Y-57.849
X-54.846 Y-57.983
X-54.84 Y-58.118
X-54.81 Y-58.25
X-54.76 Y-58.375
X-54.69 Y-58.491
X-54.603 Y-58.594
X-54.5 Y-58.681
X-54.384 Y-58.75
X-54.259 Y-58.801
X-54.127 Y-58.831
X-53.993 Y-58.838
X-53.858 Y-58.824
X-53.728 Y-58.789
X-53.605 Y-58.734
X-53.492 Y-58.66
X-53.391 Y-58.571
X-53.302 Y-58.469
X-53.228 Y-58.356
X-53.169 Y-58.234
X-53.129 Y-58.106
X-53.107 Y-57.972
X-53.104 Y-57.837
X-53.121 Y-57.703
X-53.158 Y-57.574
X-53.214 Y-57.451
X-53.286 Y-57.337
X-53.374 Y-57.235
X-53.477 Y-57.146
X-53.59 Y-57.074
X-53.713 Y-57.017
X-53.842 Y-56.978
X-53.976 Y-56.958
X-54.111 Y-56.956
X-54.245 Y-56.971
X-54.376 Y-57.004
X-54.501 Y-57.055
X-54.618 Y-57.121
X-54.726 Y-57.202
X-54.823 Y-57.296
X-54.907 Y-57.402
X-54.977 Y-57.518
X-55.031 Y-57.642
X-55.069 Y-57.771
X-55.091 Y-57.904
X-55.096 Y-58.039
X-55.083 Y-58.174
X-55.054 Y-58.305
X-55.009 Y-58.433
X-54.948 Y-58.553
X-54.873 Y-58.665
X-54.784 Y-58.767
X-54.683 Y-58.857
X-54.572 Y-58.934
X-54.453 Y-58.996
X-54.326 Y-59.043
X-54.194 Y-59.074
X-54.06 Y-59.089
X-53.925 Y-59.087
X-53.792 Y-59.068
X-53.661 Y-59.033
X-53.536 Y-58.983
X-53.417 Y-58.919
X-53.306 Y-58.842
X-53.204 Y-58.753
X-53.113 Y-58.654
X-53.034 Y-58.544
X-52.967 Y-58.427
X-52.913 Y-58.303
X-52.874 Y-58.174
X-52.85 Y-58.041
X-52.84 Y-57.907
X-52.856 Y-57.712
X-52.885 Y-57.576
X-52.892 Y-57.554
X-52.894 Y-57.548
X-52.905 Y-57.511
X-52.953 Y-57.413
X-52.985 Y-57.368
G3 X-53.466 Y-57.725 R0.3
G1 X-53.444 Y-57.758
G3 X-52.905 Y-57.511 R0.3
G1 X-52.95 Y-57.413
X-53.158 Y-57.144
X-53.228 Y-57.071
X-53.598 Y-56.858
X-53.699 Y-56.833
X-54.069 Y-56.785
X-54.507 Y-56.889
X-54.69 Y-57.01
X-54.876 Y-57.144
X-54.91 Y-57.181
X-55.126 Y-57.514
X-55.141 Y-57.548
X-55.243 Y-58.053
X-55.235 Y-58.154
X-55.055 Y-58.625
X-54.999 Y-58.701
X-54.743 Y-58.973
X-54.507 Y-59.094
X-54.359 Y-59.163
X-54.298 Y-59.181
X-53.867 Y-59.207
X-53.565 Y-59.116
X-53.43 Y-59.067
X-53.371 Y-59.029
X-53.161 Y-58.851
X-53.043 Y-58.731
X-52.868 Y-58.402
X-52.842 Y-58.322
X-52.8 Y-57.918
X-52.817 Y-57.817
X-52.885 Y-57.576
X-52.903 Y-57.545 Z-4.994
X-52.919 Y-57.516 Z-4.977
X-52.932 Y-57.494 Z-4.951
X-52.94 Y-57.479 Z-4.918
X-52.942 Y-57.474 Z-4.882
G0 Z5.
X-29.383 Y-25.774
Z2.845
G1 Z2.545 F466.
G3 X-30.103 Y-26.226 Z2.498 R0.425
X-29.383 Y-25.774 Z2.452 R0.425
X-30.103 Y-26.226 Z2.405 R0.425
X-29.383 Y-25.774 Z2.358 R0.425
X-30.103 Y-26.226 Z2.312 R0.425
X-29.383 Y-25.774 Z2.265 R0.425
X-30.103 Y-26.226 Z2.219 R0.425
X-29.383 Y-25.774 Z2.172 R0.425
X-30.103 Y-26.226 Z2.125 R0.425
X-29.383 Y-25.774 Z2.079 R0.425
X-30.103 Y-26.226 Z2.032 R0.425
X-29.383 Y-25.774 Z1.985 R0.425
X-30.103 Y-26.226 Z1.939 R0.425
X-29.383 Y-25.774 Z1.892 R0.425
X-30.103 Y-26.226 Z1.846 R0.425
X-29.383 Y-25.774 Z1.799 R0.425
X-30.103 Y-26.226 Z1.752 R0.425
X-29.383 Y-25.774 Z1.706 R0.425
X-30.103 Y-26.226 Z1.659 R0.425
X-29.383 Y-25.774 Z1.612 R0.425
X-30.103 Y-26.226 Z1.566 R0.425
X-29.383 Y-25.774 Z1.519 R0.425
X-30.103 Y-26.226 Z1.473 R0.425
X-29.383 Y-25.774 Z1.426 R0.425
X-30.103 Y-26.226 Z1.379 R0.425
X-29.383 Y-25.774 Z1.333 R0.425
X-30.103 Y-26.226 Z1.286 R0.425
X-29.383 Y-25.774 Z1.239 R0.425
X-30.103 Y-26.226 Z1.193 R0.425
X-29.383 Y-25.774 Z1.146 R0.425
X-30.103 Y-26.226 Z1.1 R0.425
X-29.383 Y-25.774 Z1.053 R0.425
X-30.103 Y-26.226 Z1.006 R0.425
X-29.383 Y-25.774 Z0.96 R0.425
X-30.103 Y-26.226 Z0.913 R0.425
X-29.383 Y-25.774 Z0.866 R0.425
X-30.103 Y-26.226 Z0.82 R0.425
X-29.383 Y-25.774 Z0.773 R0.425
X-30.103 Y-26.226 Z0.727 R0.425
X-29.383 Y-25.774 Z0.68 R0.425
X-30.103 Y-26.226 Z0.633 R0.425
X-29.383 Y-25.774 Z0.587 R0.425
X-30.103 Y-26.226 Z0.54 R0.425
X-29.383 Y-25.774 Z0.493 R0.425
X-30.103 Y-26.226 Z0.447 R0.425
X-29.383 Y-25.774 Z0.4 R0.425
X-30.103 Y-26.226 Z0.354 R0.425
X-29.383 Y-25.774 Z0.307 R0.425
X-30.103 Y-26.226 Z0.26 R0.425
X-29.383 Y-25.774 Z0.214 R0.425
X-30.103 Y-26.226 Z0.167 R0.425
X-29.383 Y-25.774 Z0.12 R0.425
X-30.103 Y-26.226 Z0.074 R0.425
X-29.383 Y-25.774 Z0.027 R0.425
X-30.103 Y-26.226 Z-0.019 R0.425
X-29.383 Y-25.774 Z-0.066 R0.425
X-30.103 Y-26.226 Z-0.113 R0.425
X-29.383 Y-25.774 Z-0.159 R0.425
X-30.103 Y-26.226 Z-0.206 R0.425
X-29.383 Y-25.774 Z-0.253 R0.425
X-30.103 Y-26.226 Z-0.299 R0.425
X-29.383 Y-25.774 Z-0.346 R0.425
X-30.103 Y-26.226 Z-0.392 R0.425
X-29.383 Y-25.774 Z-0.439 R0.425
X-30.103 Y-26.226 Z-0.486 R0.425
X-29.383 Y-25.774 Z-0.532 R0.425
X-30.103 Y-26.226 Z-0.579 R0.425
X-29.383 Y-25.774 Z-0.626 R0.425
X-30.103 Y-26.226 Z-0.672 R0.425
X-29.383 Y-25.774 Z-0.719 R0.425
X-30.103 Y-26.226 Z-0.765 R0.425
X-29.383 Y-25.774 Z-0.812 R0.425
X-30.103 Y-26.226 Z-0.859 R0.425
X-29.383 Y-25.774 Z-0.905 R0.425
X-30.103 Y-26.226 Z-0.952 R0.425
X-29.383 Y-25.774 Z-0.999 R0.425
X-30.103 Y-26.226 Z-1.045 R0.425
X-29.383 Y-25.774 Z-1.092 R0.425
X-30.103 Y-26.226 Z-1.138 R0.425
X-29.383 Y-25.774 Z-1.185 R0.425
X-30.103 Y-26.226 Z-1.232 R0.425
X-29.383 Y-25.774 Z-1.278 R0.425
X-30.103 Y-26.226 Z-1.325 R0.425
X-29.383 Y-25.774 Z-1.372 R0.425
X-30.103 Y-26.226 Z-1.418 R0.425
X-29.383 Y-25.774 Z-1.465 R0.425
X-30.103 Y-26.226 Z-1.511 R0.425
X-29.383 Y-25.774 Z-1.558 R0.425
X-30.103 Y-26.226 Z-1.605 R0.425
X-29.383 Y-25.774 Z-1.651 R0.425
X-30.103 Y-26.226 Z-1.698 R0.425
X-29.383 Y-25.774 Z-1.745 R0.425
X-30.103 Y-26.226 Z-1.791 R0.425
X-29.383 Y-25.774 Z-1.838 R0.425
X-30.103 Y-26.226 Z-1.884 R0.425
X-29.383 Y-25.774 Z-1.931 R0.425
X-30.103 Y-26.226 Z-1.978 R0.425
X-29.383 Y-25.774 Z-2.024 R0.425
X-30.103 Y-26.226 Z-2.071 R0.425
X-29.383 Y-25.774 Z-2.118 R0.425
X-30.103 Y-26.226 Z-2.164 R0.425
X-29.383 Y-25.774 Z-2.211 R0.425
X-30.103 Y-26.226 Z-2.257 R0.425
X-29.383 Y-25.774 Z-2.304 R0.425
X-30.103 Y-26.226 Z-2.351 R0.425
X-29.383 Y-25.774 Z-2.397 R0.425
X-30.103 Y-26.226 Z-2.444 R0.425
X-29.383 Y-25.774 Z-2.491 R0.425
X-30.103 Y-26.226 Z-2.537 R0.425
X-29.383 Y-25.774 Z-2.584 R0.425
X-30.103 Y-26.226 Z-2.63 R0.425
X-29.383 Y-25.774 Z-2.677 R0.425
X-30.103 Y-26.226 Z-2.724 R0.425
X-29.383 Y-25.774 Z-2.77 R0.425
X-30.103 Y-26.226 Z-2.817 R0.425
X-29.383 Y-25.774 Z-2.864 R0.425
X-30.103 Y-26.226 Z-2.91 R0.425
X-29.383 Y-25.774 Z-2.957 R0.425
X-30.103 Y-26.226 Z-3.003 R0.425
X-29.383 Y-25.774 Z-3.05 R0.425
X-30.103 Y-26.226 Z-3.097 R0.425
X-29.383 Y-25.774 Z-3.143 R0.425
X-30.103 Y-26.226 Z-3.19 R0.425
X-29.383 Y-25.774 Z-3.237 R0.425
X-30.103 Y-26.226 Z-3.283 R0.425
X-29.383 Y-25.774 Z-3.33 R0.425
X-30.103 Y-26.226 Z-3.376 R0.425
X-29.383 Y-25.774 Z-3.423 R0.425
X-30.103 Y-26.226 Z-3.47 R0.425
X-29.383 Y-25.774 Z-3.516 R0.425
X-30.103 Y-26.226 Z-3.563 R0.425
X-29.383 Y-25.774 Z-3.61 R0.425
X-30.103 Y-26.226 Z-3.656 R0.425
X-29.383 Y-25.774 Z-3.703 R0.425
X-30.103 Y-26.226 Z-3.749 R0.425
X-29.383 Y-25.774 Z-3.796 R0.425
X-30.103 Y-26.226 Z-3.843 R0.425
X-29.383 Y-25.774 Z-3.889 R0.425
X-30.103 Y-26.226 Z-3.936 R0.425
X-29.383 Y-25.774 Z-3.983 R0.425
X-30.103 Y-26.226 Z-4.029 R0.425
X-29.383 Y-25.774 Z-4.076 R0.425
X-30.103 Y-26.226 Z-4.122 R0.425
X-29.383 Y-25.774 Z-4.169 R0.425
X-30.103 Y-26.226 Z-4.216 R0.425
X-29.383 Y-25.774 Z-4.262 R0.425
X-30.103 Y-26.226 Z-4.309 R0.425
X-29.383 Y-25.774 Z-4.356 R0.425
X-30.103 Y-26.226 Z-4.402 R0.425
X-29.383 Y-25.774 Z-4.449 R0.425
X-30.103 Y-26.226 Z-4.495 R0.425
X-29.383 Y-25.774 Z-4.542 R0.425
X-30.103 Y-26.226 Z-4.589 R0.425
X-29.383 Y-25.774 Z-4.635 R0.425
X-30.103 Y-26.226 Z-4.682 R0.425
X-29.383 Y-25.774 Z-4.729 R0.425
X-30.103 Y-26.226 Z-4.775 R0.425
X-29.383 Y-25.774 Z-4.822 R0.425
X-30.103 Y-26.226 Z-4.868 R0.425
X-29.383 Y-25.774 Z-4.915 R0.425
X-30.103 Y-26.226 Z-4.962 R0.425
X-29.318 Y-26. Z-5. R0.425
X-30.168 R0.425
X-29.318 R0.425
G1 X-29.299 Y-25.715
X-29.359 Y-25.594
X-29.455 Y-25.499
X-29.574 Y-25.435
X-29.705 Y-25.403
X-29.84 Y-25.404
X-29.971 Y-25.437
X-30.091 Y-25.499
X-30.194 Y-25.586
X-30.275 Y-25.694
X-30.33 Y-25.817
X-30.356 Y-25.95
X-30.353 Y-26.085
X-30.32 Y-26.216
X-30.259 Y-26.336
X-30.174 Y-26.441
X-30.068 Y-26.524
X-29.946 Y-26.582
X-29.814 Y-26.613
X-29.679
X-29.547 Y-26.585
X-29.425 Y-26.528
X-29.317 Y-26.446
X-29.231 Y-26.343
X-29.163 Y-26.226
X-29.11 Y-26.102
X-29.077 Y-25.971
X-29.072 Y-25.836
X-29.093 Y-25.703
X-29.14 Y-25.576
X-29.213 Y-25.462
X-29.307 Y-25.366
X-29.417 Y-25.288
X-29.54 Y-25.232
X-29.671 Y-25.2
X-29.806 Y-25.193
X-29.94 Y-25.209
X-30.07 Y-25.248
X-30.19 Y-25.308
X-30.299 Y-25.388
X-30.393 Y-25.485
X-30.47 Y-25.596
X-30.527 Y-25.719
X-30.563 Y-25.849
X-30.578 Y-25.983
X-30.571 Y-26.118
X-30.542 Y-26.25
X-30.491 Y-26.375
X-30.421 Y-26.49
X-30.334 Y-26.594
X-30.231 Y-26.681
X-30.115 Y-26.75
X-29.99 Y-26.801
X-29.859 Y-26.831
X-29.724 Y-26.838
X-29.59 Y-26.824
X-29.459 Y-26.789
X-29.336 Y-26.733
X-29.223 Y-26.659
X-29.122 Y-26.57
X-29.033 Y-26.468
X-28.959 Y-26.356
X-28.9 Y-26.234
X-28.86 Y-26.105
X-28.838 Y-25.972
X-28.835 Y-25.837
X-28.852 Y-25.703
X-28.889 Y-25.573
X-29.004 Y-25.382
X-29.159 Y-25.222
X-29.346 Y-25.101
X-29.556 Y-25.026
X-29.777 Y-25.
X-29.833
X-29.967 Y-25.007
X-30.1 Y-25.031
X-30.227 Y-25.076
X-30.347 Y-25.139
X-30.456 Y-25.218
X-30.554 Y-25.311
X-30.639 Y-25.416
X-30.708 Y-25.532
X-30.762 Y-25.656
X-30.8 Y-25.786
X-30.82 Y-25.919
X-30.824 Y-26.054
X-30.766 Y-26.305
X-30.65 Y-26.534
X-30.481 Y-26.729
X-30.27 Y-26.876
X-30.03 Y-26.969
X-29.775 Y-27.
X-29.636
X-29.501 Y-26.993
X-29.368 Y-26.969
X-29.241 Y-26.925
X-29.12 Y-26.864
X-29.009 Y-26.787
X-28.908 Y-26.698
X-28.819 Y-26.597
X-28.742 Y-26.485
X-28.652 Y-26.242
X-28.627 Y-25.983
X-28.668 Y-25.727
X-28.773 Y-25.489
X-28.934 Y-25.286
X-29.142 Y-25.131
X-29.383 Y-25.033
X-29.64 Y-25.
G3 X-29.93 Y-25.301 R0.3
G1 X-29.925 Y-26.701
G3 X-29.636 Y-27. R0.3
G1 X-29.455 Y-26.99
X-29.098 Y-26.947
X-29.07 Y-26.944
X-29.033 Y-26.937
X-28.936 Y-26.905
G3 X-28.827 Y-26.601 R0.262
X-29.317 Y-26.763 R0.258
X-29.033 Y-26.937 R0.258
G1 X-28.936 Y-26.905
X-28.853 Y-26.856
X-28.74 Y-26.781
X-28.642 Y-26.689
X-28.558 Y-26.583
X-28.49 Y-26.466
X-28.438 Y-26.342
X-28.403 Y-26.211
X-28.381 Y-26.046
X-28.409 Y-25.779
X-28.503 Y-25.527
X-28.656 Y-25.307
X-28.86 Y-25.132
G3 X-29.274 Y-25.405 R0.3
G1 X-29.295 Y-26.586
G3 X-28.853 Y-26.856 R0.3
G1 X-28.636 Y-26.721
X-28.532 Y-26.597
X-28.41 Y-26.427
X-28.371 Y-26.317
X-28.311 Y-26.048
X-28.323 Y-25.913
X-28.366 Y-25.678
X-28.397 Y-25.606
X-28.573 Y-25.342
X-28.667 Y-25.264
X-28.86 Y-25.132
X-28.936 Y-25.1
X-29.407 Y-25.004
X-29.777 Y-25.
X-29.833
X-30.221
X-30.356 Y-25.007
X-30.486 Y-25.043
X-30.606 Y-25.105
X-30.714 Y-25.185
X-30.81 Y-25.281
X-30.892 Y-25.388
X-30.96 Y-25.505
X-31.013 Y-25.629
X-31.052 Y-25.91
X-31.017 Y-26.192
X-30.909 Y-26.455
X-30.737 Y-26.68
X-30.512 Y-26.854
X-30.25 Y-26.963
X-29.968 Y-27.
X-29.775
G3 X-29.499 Y-26.609 R0.3
G1 X-29.946 Y-25.209
G3 X-30.221 Y-25. R0.3
G1 X-30.523
X-30.658 Y-25.007
X-30.786 Y-25.05
X-30.903 Y-25.118
X-31.007 Y-25.204
X-31.095 Y-25.306
X-31.168 Y-25.42
X-31.225 Y-25.542
X-31.274 Y-25.8
X-31.261 Y-26.062
X-31.188 Y-26.314
X-31.058 Y-26.542
X-30.879 Y-26.734
X-30.661 Y-26.879
X-30.414 Y-26.969
X-30.154 Y-27.
X-29.968
G3 X-29.7 Y-26.59 R0.3
G1 X-30.255 Y-25.189
G3 X-30.523 Y-25. R0.3
G1 X-30.793
X-30.927 Y-25.007
X-31.055 Y-25.051
X-31.169 Y-25.123
X-31.269 Y-25.214
X-31.351 Y-25.321
X-31.418 Y-25.438
X-31.468 Y-25.564
X-31.504 Y-25.694
X-31.508 Y-25.973
X-31.445 Y-26.246
X-31.318 Y-26.495
X-31.135 Y-26.706
X-30.906 Y-26.866
X-30.645 Y-26.966
X-30.367 Y-27.
X-30.154
G3 X-29.891 Y-26.576 R0.3
G1 X-30.53 Y-25.175
G3 X-30.793 Y-25. R0.3
G1 X-31.062
X-31.197 Y-25.007
X-31.321 Y-25.058
X-31.432 Y-25.136
X-31.527 Y-25.231
X-31.607 Y-25.34
X-31.669 Y-25.46
X-31.716 Y-25.587
X-31.743 Y-25.881
X-31.695 Y-26.174
X-31.574 Y-26.444
X-31.389 Y-26.675
X-31.151 Y-26.851
X-30.876 Y-26.962
X-30.583 Y-27.
X-30.367
G3 X-30.109 Y-26.567 R0.3
G1 X-30.803 Y-25.167
G3 X-31.062 Y-25. R0.3
G1 X-31.298
X-31.432 Y-25.007
X-31.558 Y-25.056
X-31.669 Y-25.132
X-31.765 Y-25.227
X-31.842 Y-25.339
X-31.904 Y-25.459
X-31.947 Y-25.586
X-31.977 Y-25.718
X-31.991 Y-25.852
X-31.959 Y-26.109
X-31.871 Y-26.352
X-31.731 Y-26.569
X-31.547 Y-26.75
X-31.328 Y-26.887
X-31.084 Y-26.971
X-30.827 Y-27.
X-30.583
G3 X-30.326 Y-26.564 R0.3
G1 X-31.041 Y-25.163
G3 X-31.298 Y-25. R0.3
G1 X-31.562
X-31.697 Y-25.007
X-31.819 Y-25.064
X-31.926 Y-25.146
X-32.017 Y-25.246
X-32.093 Y-25.357
X-32.154 Y-25.478
X-32.197 Y-25.606
X-32.225 Y-25.738
X-32.216 Y-26.012
X-32.142 Y-26.277
X-32.009 Y-26.517
X-31.823 Y-26.719
X-31.595 Y-26.872
X-31.337 Y-26.968
X-31.064 Y-27.
X-30.827
G3 X-30.572 Y-26.561 R0.3
G1 X-31.307 Y-25.16
G3 X-31.562 Y-25. R0.3
G1 X-31.803
X-31.937 Y-25.007
X-32.06 Y-25.064
X-32.167 Y-25.145
X-32.26 Y-25.244
X-32.336 Y-25.355
X-32.394 Y-25.477
X-32.439 Y-25.609
X-32.459 Y-25.901
X-32.405 Y-26.19
X-32.281 Y-26.456
X-32.095 Y-26.682
X-31.858 Y-26.855
X-31.585 Y-26.963
X-31.294 Y-27.
X-31.064
G3 X-30.809 Y-26.56 R0.3
G1 X-31.548 Y-25.16
G3 X-31.803 Y-25. R0.3
G1 X-32.031
X-32.166 Y-25.007
X-32.29 Y-25.06
X-32.399 Y-25.139
X-32.493 Y-25.236
X-32.567 Y-25.349
X-32.627 Y-25.47
X-32.669 Y-25.598
X-32.696 Y-25.731
X-32.709 Y-25.866
X-32.662 Y-26.161
X-32.542 Y-26.435
X-32.356 Y-26.67
X-32.116 Y-26.849
X-31.839 Y-26.962
X-31.543 Y-27.
X-31.294
G3 X-31.039 Y-26.56 R0.3
G1 X-31.776 Y-25.16
G3 X-32.031 Y-25. R0.3
G1 X-32.273
X-32.408 Y-25.007
X-32.531 Y-25.062
X-32.639 Y-25.142
X-32.732 Y-25.241
X-32.808 Y-25.352
X-32.87 Y-25.472
X-32.913 Y-25.6
X-32.942 Y-25.732
X-32.934 Y-26.007
X-32.863 Y-26.273
X-32.73 Y-26.514
X-32.545 Y-26.717
X-32.317 Y-26.871
X-32.059 Y-26.967
X-31.786 Y-27.
X-31.543
G3 X-31.287 Y-26.561 R0.3
G1 X-32.018 Y-25.161
G3 X-32.273 Y-25. R0.3
G1 X-32.504
X-32.639 Y-25.007
X-32.763 Y-25.06
X-32.873 Y-25.138
X-32.967 Y-25.235
X-33.046 Y-25.344
X-33.106 Y-25.465
X-33.151 Y-25.592
X-33.179 Y-25.724
X-33.175 Y-26.
X-33.106 Y-26.267
X-32.975 Y-26.51
X-32.791 Y-26.715
X-32.563 Y-26.87
X-32.305 Y-26.967
X-32.031 Y-27.
X-31.786
G3 X-31.53 Y-26.563 R0.3
G1 X-32.247 Y-25.163
G3 X-32.504 Y-25. R0.3
G1 X-32.745
X-32.88 Y-25.007
X-33.004 Y-25.059
X-33.114 Y-25.138
X-33.208 Y-25.235
X-33.286 Y-25.345
X-33.345 Y-25.466
X-33.391 Y-25.593
X-33.415 Y-25.888
X-33.364 Y-26.179
X-33.241 Y-26.448
X-33.055 Y-26.677
X-32.817 Y-26.853
X-32.543 Y-26.963
X-32.249 Y-27.
X-32.031
G3 X-31.774 Y-26.564 R0.3
G1 X-32.488 Y-25.164
G3 X-32.745 Y-25. R0.3
G1 X-32.973
X-33.108 Y-25.007
X-33.234 Y-25.056
X-33.345 Y-25.133
X-33.44 Y-25.228
X-33.516 Y-25.34
X-33.577 Y-25.46
X-33.621 Y-25.588
X-33.649 Y-25.72
X-33.663 Y-25.855
X-33.63 Y-26.111
X-33.541 Y-26.354
X-33.401 Y-26.571
X-33.217 Y-26.751
X-32.997 Y-26.887
X-32.753 Y-26.971
X-32.497 Y-27.
X-32.249
G3 X-31.993 Y-26.562 R0.3
G1 X-32.717 Y-25.162
G3 X-32.973 Y-25. R0.3
G1 X-33.215
X-33.35 Y-25.007
X-33.475 Y-25.058
X-33.585 Y-25.136
X-33.679 Y-25.233
X-33.757 Y-25.344
X-33.82 Y-25.463
X-33.864 Y-25.59
X-33.895 Y-25.722
X-33.888 Y-25.999
X-33.817 Y-26.267
X-33.684 Y-26.51
X-33.498 Y-26.715
X-33.269 Y-26.87
X-33.009 Y-26.967
X-32.734 Y-27.
X-32.497
G3 X-32.24 Y-26.563 R0.3
G1 X-32.959 Y-25.163
G3 X-33.215 Y-25. R0.3
G1 X-33.451
X-33.586 Y-25.007
X-33.711 Y-25.058
X-33.822 Y-25.135
X-33.917 Y-25.23
X-33.996 Y-25.339
X-34.057 Y-25.46
X-34.106 Y-25.6
X-34.13 Y-25.892
X-34.08 Y-26.182
X-33.959 Y-26.45
X-33.774 Y-26.678
X-33.538 Y-26.853
X-33.265 Y-26.963
X-32.973 Y-27.
X-32.734
G3 X-32.478 Y-26.563 R0.3
G1 X-33.194 Y-25.163
G3 X-33.451 Y-25. R0.3
G1 X-33.687
X-33.822 Y-25.007
X-33.947 Y-25.056
X-34.058 Y-25.133
X-34.154 Y-25.228
X-34.23 Y-25.34
X-34.292 Y-25.46
X-34.336 Y-25.587
X-34.365 Y-25.719
X-34.379 Y-25.853
X-34.347 Y-26.109
X-34.259 Y-26.352
X-34.119 Y-26.569
X-33.936 Y-26.751
X-33.716 Y-26.887
X-33.472 Y-26.971
X-33.216 Y-27.
X-32.973
G3 X-32.716 Y-26.564 R0.3
G1 X-33.43 Y-25.164
G3 X-33.687 Y-25. R0.3
G1 X-33.956
X-34.091 Y-25.007
X-34.212 Y-25.066
X-34.318 Y-25.149
X-34.409 Y-25.249
X-34.484 Y-25.361
X-34.545 Y-25.482
X-34.587 Y-25.61
X-34.614 Y-25.743
X-34.604 Y-26.016
X-34.53 Y-26.28
X-34.396 Y-26.519
X-34.21 Y-26.721
X-33.982 Y-26.873
X-33.725 Y-26.968
X-33.453 Y-27.
X-33.216
G3 X-32.961 Y-26.56 R0.3
G1 X-33.701 Y-25.16
G3 X-33.956 Y-25. R0.3
G1 X-34.184
X-34.319 Y-25.007
X-34.442 Y-25.062
X-34.551 Y-25.143
X-34.644 Y-25.24
X-34.722 Y-25.351
X-34.78 Y-25.472
X-34.825 Y-25.602
X-34.847 Y-25.895
X-34.794 Y-26.185
X-34.671 Y-26.452
X-34.485 Y-26.68
X-34.247 Y-26.854
X-33.974 Y-26.963
X-33.682 Y-27.
X-33.453
G3 X-33.198 Y-26.561 R0.3
G1 X-33.929 Y-25.161
G3 X-34.184 Y-25. R0.3
G1 X-34.426
X-34.561 Y-25.007
X-34.684 Y-25.062
X-34.793 Y-25.143
X-34.886 Y-25.241
X-34.959 Y-25.354
X-35.018 Y-25.475
X-35.059 Y-25.604
X-35.085 Y-25.736
X-35.097 Y-25.871
X-35.049 Y-26.165
X-34.929 Y-26.438
X-34.743 Y-26.671
X-34.504 Y-26.85
X-34.227 Y-26.962
X-33.931 Y-27.
X-33.682
G3 X-33.427 Y-26.559 R0.3
G1 X-34.172 Y-25.159
G3 X-34.426 Y-25. R0.3
G1 X-34.657
X-34.792 Y-25.007
X-34.916 Y-25.061
X-35.025 Y-25.14
X-35.118 Y-25.238
X-35.195 Y-25.349
X-35.257 Y-25.469
X-35.3 Y-25.597
X-35.329 Y-25.729
X-35.342 Y-25.863
X-35.298 Y-26.159
X-35.179 Y-26.433
X-34.995 Y-26.668
X-34.756 Y-26.848
X-34.479 Y-26.961
X-34.183 Y-27.
X-33.931
G3 X-33.675 Y-26.562 R0.3
G1 X-34.401 Y-25.162
G3 X-34.657 Y-25. R0.3
G1 X-34.898
X-35.033 Y-25.007
X-35.157 Y-25.061
X-35.266 Y-25.141
X-35.359 Y-25.238
X-35.437 Y-25.348
X-35.5 Y-25.468
X-35.544 Y-25.595
X-35.573 Y-25.727
X-35.569 Y-26.003
X-35.499 Y-26.269
X-35.367 Y-26.511
X-35.183 Y-26.716
X-34.955 Y-26.871
X-34.697 Y-26.967
X-34.424 Y-27.
X-34.183
G3 X-33.926 Y-26.564 R0.3
G1 X-34.641 Y-25.163
G3 X-34.898 Y-25. R0.3
G1 X-35.127
X-35.261 Y-25.007
X-35.387 Y-25.057
X-35.498 Y-25.134
X-35.593 Y-25.229
X-35.673 Y-25.338
X-35.734 Y-25.458
X-35.781 Y-25.585
X-35.808 Y-25.88
X-35.759 Y-26.173
X-35.638 Y-26.443
X-35.452 Y-26.675
X-35.214 Y-26.851
X-34.939 Y-26.962
X-34.645 Y-27.
X-34.424
G3 X-34.166 Y-26.566 R0.3
G1 X-34.869 Y-25.165
G3 X-35.127 Y-25. R0.3
G1 X-35.368
X-35.503 Y-25.007
X-35.629 Y-25.057
X-35.739 Y-25.134
X-35.834 Y-25.23
X-35.91 Y-25.342
X-35.971 Y-25.462
X-36.014 Y-25.59
X-36.043 Y-25.722
X-36.056 Y-25.857
X-36.023 Y-26.112
X-35.934 Y-26.354
X-35.794 Y-26.571
X-35.61 Y-26.752
X-35.391 Y-26.887
X-35.147 Y-26.971
X-34.891 Y-27.
X-34.645
G3 X-34.389 Y-26.562 R0.3
G1 X-35.112 Y-25.162
G3 X-35.368 Y-25. R0.3
G1 X-35.604
X-35.739 Y-25.007
X-35.864 Y-25.057
X-35.975 Y-25.135
X-36.069 Y-25.232
X-36.148 Y-25.341
X-36.211 Y-25.46
X-36.256 Y-25.588
X-36.287 Y-25.719
X-36.282 Y-25.996
X-36.211 Y-26.265
X-36.079 Y-26.508
X-35.892 Y-26.714
X-35.663 Y-26.87
X-35.403 Y-26.967
X-35.128 Y-27.
X-34.891
G3 X-34.634 Y-26.564 R0.3
G1 X-35.347 Y-25.164
G3 X-35.604 Y-25. R0.3
G1 X-35.84
X-35.975 Y-25.007
X-36.1 Y-25.057
X-36.212 Y-25.133
X-36.307 Y-25.228
X-36.387 Y-25.337
X-36.448 Y-25.458
X-36.495 Y-25.584
X-36.523 Y-25.716
X-36.521 Y-25.993
X-36.452 Y-26.262
X-36.322 Y-26.506
X-36.137 Y-26.713
X-35.909 Y-26.869
X-35.65 Y-26.967
X-35.375 Y-27.
X-35.128
G3 X-34.871 Y-26.564 R0.3
G1 X-35.583 Y-25.164
G3 X-35.84 Y-25. R0.3
G1 X-36.109
X-36.244 Y-25.007
X-36.366 Y-25.064
X-36.473 Y-25.147
X-36.565 Y-25.246
X-36.64 Y-25.358
X-36.698 Y-25.48
X-36.742 Y-25.611
X-36.761 Y-25.903
X-36.707 Y-26.191
X-36.583 Y-26.457
X-36.396 Y-26.683
X-36.16 Y-26.855
X-35.887 Y-26.963
X-35.597 Y-27.
X-35.375
G3 X-35.119 Y-26.561 R0.3
G1 X-35.854 Y-25.16
G3 X-36.109 Y-25. R0.3
G1 X-36.338
X-36.473 Y-25.007
X-36.596 Y-25.061
X-36.705 Y-25.141
X-36.798 Y-25.239
X-36.872 Y-25.352
X-36.931 Y-25.473
X-36.972 Y-25.602
X-36.999 Y-25.734
X-37.012 Y-25.869
X-36.964 Y-26.164
X-36.844 Y-26.437
X-36.658 Y-26.671
X-36.418 Y-26.85
X-36.142 Y-26.962
X-35.845 Y-27.
X-35.597
G3 X-35.342 Y-26.56 R0.3
G1 X-36.083 Y-25.159
G3 X-36.338 Y-25. R0.3
G1 X-36.58
X-36.715 Y-25.007
X-36.837 Y-25.063
X-36.945 Y-25.144
X-37.037 Y-25.243
X-37.113 Y-25.355
X-37.174 Y-25.475
X-37.216 Y-25.603
X-37.245 Y-25.735
X-37.237 Y-26.01
X-37.165 Y-26.275
X-37.032 Y-26.515
X-36.847 Y-26.718
X-36.619 Y-26.872
X-36.362 Y-26.967
X-36.089 Y-27.
X-35.845
G3 X-35.59 Y-26.561 R0.3
G1 X-36.325 Y-25.16
G3 X-36.58 Y-25. R0.3
G1 X-36.811
X-36.946 Y-25.007
X-37.069 Y-25.061
X-37.179 Y-25.14
X-37.272 Y-25.237
X-37.351 Y-25.347
X-37.41 Y-25.468
X-37.455 Y-25.595
X-37.483 Y-25.727
X-37.478 Y-26.003
X-37.408 Y-26.269
X-37.277 Y-26.511
X-37.093 Y-26.716
X-36.865 Y-26.871
X-36.607 Y-26.967
X-36.334 Y-27.
X-36.089
G3 X-35.833 Y-26.563 R0.3
G1 X-36.554 Y-25.162
G3 X-36.811 Y-25. R0.3
G1 X-37.051
X-37.186 Y-25.007
X-37.31 Y-25.06
X-37.419 Y-25.14
X-37.513 Y-25.237
X-37.591 Y-25.347
X-37.65 Y-25.468
X-37.695 Y-25.596
X-37.718 Y-25.89
X-37.667 Y-26.181
X-37.544 Y-26.449
X-37.358 Y-26.678
X-37.12 Y-26.853
X-36.846 Y-26.963
X-36.553 Y-27.
X-36.334
G3 X-36.077 Y-26.563 R0.3
G1 X-36.795 Y-25.163
G3 X-37.051 Y-25. R0.3
G1 X-37.28
X-37.415 Y-25.007
X-37.54 Y-25.057
X-37.651 Y-25.134
X-37.746 Y-25.23
X-37.821 Y-25.342
X-37.882 Y-25.462
X-37.925 Y-25.59
X-37.954 Y-25.722
X-37.967 Y-25.858
X-37.933 Y-26.113
X-37.844 Y-26.355
X-37.704 Y-26.572
X-37.52 Y-26.752
X-37.301 Y-26.887
X-37.057 Y-26.972
X-36.801 Y-27.
X-36.553
G3 X-36.297 Y-26.562 R0.3
G1 X-37.024 Y-25.162
G3 X-37.28 Y-25. R0.3
G1 X-37.522
X-37.657 Y-25.007
X-37.781 Y-25.059
X-37.891 Y-25.138
X-37.984 Y-25.235
X-38.062 Y-25.346
X-38.125 Y-25.465
X-38.169 Y-25.593
X-38.199 Y-25.724
X-38.192 Y-26.001
X-38.12 Y-26.268
X-37.988 Y-26.511
X-37.801 Y-26.716
X-37.572 Y-26.871
X-37.313 Y-26.967
X-37.038 Y-27.
X-36.801
G3 X-36.545 Y-26.563 R0.3
G1 X-37.266 Y-25.162
G3 X-37.522 Y-25. R0.3
G1 X-37.758
X-37.893 Y-25.007
X-38.017 Y-25.058
X-38.128 Y-25.136
X-38.223 Y-25.232
X-38.302 Y-25.341
X-38.362 Y-25.462
X-38.408 Y-25.589
X-38.436 Y-25.721
X-38.432 Y-25.998
X-38.363 Y-26.265
X-38.232 Y-26.509
X-38.047 Y-26.714
X-37.819 Y-26.87
X-37.56 Y-26.967
X-37.286 Y-27.
X-37.038
G3 X-36.782 Y-26.563 R0.3
G1 X-37.501 Y-25.163
G3 X-37.758 Y-25. R0.3
G1 X-37.994
X-38.128 Y-25.007
X-38.254 Y-25.056
X-38.365 Y-25.134
X-38.46 Y-25.229
X-38.539 Y-25.339
X-38.599 Y-25.459
X-38.646 Y-25.586
X-38.671 Y-25.882
X-38.621 Y-26.174
X-38.499 Y-26.444
X-38.313 Y-26.675
X-38.075 Y-26.852
X-37.8 Y-26.962
X-37.506 Y-27.
X-37.286
G3 X-37.028 Y-26.565 R0.3
G1 X-37.736 Y-25.164
G3 X-37.994 Y-25. R0.3
G1 X-38.263
X-38.398 Y-25.007
X-38.519 Y-25.065
X-38.626 Y-25.148
X-38.717 Y-25.248
X-38.788 Y-25.362
X-38.846 Y-25.484
X-38.885 Y-25.614
X-38.911 Y-25.749
X-38.899 Y-26.022
X-38.824 Y-26.284
X-38.689 Y-26.522
X-38.503 Y-26.722
X-38.276 Y-26.874
X-38.019 Y-26.968
X-37.748 Y-27.
X-37.506
G3 X-37.252 Y-26.557 R0.3
G1 X-38.009 Y-25.157
G3 X-38.263 Y-25. R0.3
G1 X-38.491
X-38.626 Y-25.007
X-38.749 Y-25.063
X-38.856 Y-25.145
X-38.948 Y-25.244
X-39.024 Y-25.355
X-39.081 Y-25.478
X-39.126 Y-25.612
X-39.145 Y-25.904
X-39.091 Y-26.192
X-38.966 Y-26.457
X-38.78 Y-26.683
X-38.543 Y-26.855
X-38.271 Y-26.963
X-37.98 Y-27.
X-37.748
G3 X-37.493 Y-26.56 R0.3
G1 X-38.237 Y-25.159
G3 X-38.491 Y-25. R0.3
G1 X-38.733
X-38.868 Y-25.007
X-38.99 Y-25.064
X-39.097 Y-25.146
X-39.189 Y-25.245
X-39.261 Y-25.359
X-39.319 Y-25.481
X-39.359 Y-25.61
X-39.385 Y-25.743
X-39.396 Y-25.877
X-39.347 Y-26.17
X-39.226 Y-26.442
X-39.04 Y-26.674
X-38.801 Y-26.851
X-38.525 Y-26.962
X-38.23 Y-27.
X-37.98
G3 X-37.727 Y-26.558 R0.3
G1 X-38.479 Y-25.158
G3 X-38.733 Y-25. R0.3
G1 X-38.964
X-39.099 Y-25.007
X-39.222 Y-25.063
X-39.33 Y-25.144
X-39.421 Y-25.243
X-39.498 Y-25.354
X-39.559 Y-25.475
X-39.601 Y-25.603
X-39.63 Y-25.735
X-39.642 Y-25.869
X-39.596 Y-26.164
X-39.477 Y-26.437
X-39.293 Y-26.67
X-39.054 Y-26.849
X-38.778 Y-26.962
X-38.483 Y-27.
X-38.23
G3 X-37.975 Y-26.561 R0.3
G1 X-38.709 Y-25.161
G3 X-38.964 Y-25. R0.3
G1 X-39.205
X-39.34 Y-25.007
X-39.462 Y-25.063
X-39.571 Y-25.144
X-39.663 Y-25.242
X-39.74 Y-25.353
X-39.802 Y-25.473
X-39.845 Y-25.601
X-39.874 Y-25.733
X-39.868 Y-26.007
X-39.797 Y-26.273
X-39.666 Y-26.514
X-39.481 Y-26.717
X-39.254 Y-26.871
X-38.996 Y-26.967
X-38.724 Y-27.
X-38.483
G3 X-38.227 Y-26.563 R0.3
G1 X-38.949 Y-25.162
G3 X-39.205 Y-25. R0.3
G1 X-39.433
X-39.568 Y-25.007
X-39.693 Y-25.059
X-39.803 Y-25.137
X-39.897 Y-25.233
X-39.977 Y-25.342
X-40.037 Y-25.463
X-40.083 Y-25.59
X-40.108 Y-25.885
X-40.058 Y-26.176
X-39.937 Y-26.446
X-39.751 Y-26.676
X-39.513 Y-26.852
X-39.239 Y-26.962
X-38.945 Y-27.
X-38.724
G3 X-38.466 Y-26.565 R0.3
G1 X-39.176 Y-25.164
G3 X-39.433 Y-25. R0.3
G1 X-39.675
X-39.81 Y-25.007
X-39.935 Y-25.059
X-40.044 Y-25.137
X-40.139 Y-25.234
X-40.214 Y-25.346
X-40.274 Y-25.467
X-40.316 Y-25.595
X-40.344 Y-25.727
X-40.357 Y-25.861
X-40.323 Y-26.116
X-40.234 Y-26.357
X-40.094 Y-26.573
X-39.91 Y-26.753
X-39.691 Y-26.888
X-39.448 Y-26.972
X-39.192 Y-27.
G3 X-38.919 Y-26.602 R0.3
G1 X-39.402 Y-25.202
G3 X-39.675 Y-25. R0.3
G1 X-39.911
X-40.046 Y-25.007
X-40.17 Y-25.059
X-40.28 Y-25.138
X-40.374 Y-25.235
X-40.452 Y-25.345
X-40.515 Y-25.465
X-40.559 Y-25.592
X-40.589 Y-25.724
X-40.583 Y-26.
X-40.511 Y-26.268
X-40.379 Y-26.51
X-40.192 Y-26.715
X-39.963 Y-26.87
X-39.704 Y-26.967
X-39.429 Y-27.
G3 X-39.156 Y-26.603 R0.3
G1 X-39.638 Y-25.202
G3 X-39.911 Y-25. R0.3
G1 X-40.147
X-40.282 Y-25.007
X-40.407 Y-25.058
X-40.517 Y-25.136
X-40.612 Y-25.232
X-40.692 Y-25.341
X-40.752 Y-25.461
X-40.798 Y-25.59
X-40.823 Y-25.885
X-40.772 Y-26.177
X-40.65 Y-26.446
X-40.464 Y-26.676
X-40.225 Y-26.852
X-39.951 Y-26.962
X-39.657 Y-27.
G3 X-39.384 Y-26.601 R0.3
G1 X-39.874 Y-25.201
G3 X-40.147 Y-25. R0.3
G1 X-40.416
X-40.551 Y-25.007
X-40.672 Y-25.066
X-40.778 Y-25.149
X-40.869 Y-25.249
X-40.941 Y-25.364
X-40.998 Y-25.486
X-41.037 Y-25.615
X-41.063 Y-25.75
X-41.051 Y-26.022
X-40.975 Y-26.285
X-40.841 Y-26.523
X-40.655 Y-26.723
X-40.427 Y-26.874
X-40.171 Y-26.968
X-39.899 Y-27.
G3 X-39.628 Y-26.596 R0.3
G1 X-40.145 Y-25.196
G3 X-40.416 Y-25. R0.3
G1 X-40.645
X-40.779 Y-25.007
X-40.902 Y-25.064
X-41.009 Y-25.145
X-41.101 Y-25.245
X-41.177 Y-25.356
X-41.234 Y-25.479
X-41.278 Y-25.613
X-41.297 Y-25.905
X-41.242 Y-26.193
X-41.118 Y-26.458
X-40.931 Y-26.683
X-40.695 Y-26.856
X-40.422 Y-26.963
X-40.132 Y-27.
G3 X-39.861 Y-26.597 R0.3
G1 X-40.373 Y-25.197
G3 X-40.645 Y-25. R0.3
G1 X-40.886
X-41.021 Y-25.007
X-41.143 Y-25.064
X-41.25 Y-25.147
X-41.342 Y-25.246
X-41.414 Y-25.36
X-41.472 Y-25.482
X-41.511 Y-25.611
X-41.537 Y-25.744
X-41.548 Y-25.878
X-41.499 Y-26.171
X-41.377 Y-26.442
X-41.191 Y-26.674
X-40.953 Y-26.851
X-40.677 Y-26.962
X-40.382 Y-27.
X-38.945
G3 X-38.78 Y-26.457 R0.3
G1 X-40.721 Y-25.057
G3 X-40.886 Y-25. R0.3
G1 X-41.117
X-41.252 Y-25.007
X-41.375 Y-25.063
X-41.483 Y-25.145
X-41.574 Y-25.244
X-41.65 Y-25.355
X-41.711 Y-25.476
X-41.754 Y-25.604
X-41.782 Y-25.736
X-41.794 Y-25.87
X-41.748 Y-26.164
X-41.629 Y-26.437
X-41.444 Y-26.671
X-41.206 Y-26.85
X-40.93 Y-26.962
X-40.635 Y-27.
X-40.382
G3 X-40.127 Y-26.561 R0.3
G1 X-40.862 Y-25.16
G3 X-41.117 Y-25. R0.3
G1 X-41.358
X-41.493 Y-25.007
X-41.616 Y-25.063
X-41.724 Y-25.144
X-41.816 Y-25.243
X-41.893 Y-25.354
X-41.955 Y-25.474
X-41.998 Y-25.602
X-42.027 Y-25.734
X-42.02 Y-26.008
X-41.949 Y-26.273
X-41.818 Y-26.514
X-41.633 Y-26.718
X-41.406 Y-26.871
X-41.148 Y-26.967
X-40.876 Y-27.
G3 X-40.603 Y-26.602 R0.3
G1 X-41.085 Y-25.202
G3 X-41.358 Y-25. R0.3
G1 X-41.587
X-41.721 Y-25.007
X-41.846 Y-25.059
X-41.956 Y-25.137
X-42.05 Y-25.234
X-42.129 Y-25.343
X-42.19 Y-25.464
X-42.236 Y-25.591
X-42.261 Y-25.886
X-42.211 Y-26.177
X-42.089 Y-26.446
X-41.903 Y-26.676
X-41.665 Y-26.852
X-41.391 Y-26.962
X-41.097 Y-27.
G3 X-40.825 Y-26.601 R0.3
G1 X-41.314 Y-25.201
G3 X-41.587 Y-25. R0.3
G1 X-41.829
X-41.963 Y-25.007
X-42.088 Y-25.059
X-42.197 Y-25.138
X-42.292 Y-25.234
X-42.366 Y-25.347
X-42.427 Y-25.468
X-42.469 Y-25.596
X-42.497 Y-25.728
X-42.51 Y-25.862
X-42.464 Y-26.159
X-42.345 Y-26.433
X-42.159 Y-26.668
X-41.919 Y-26.848
X-41.642 Y-26.961
X-41.345 Y-27.
G3 X-41.072 Y-26.602 R0.3
G1 X-41.555 Y-25.202
G3 X-41.829 Y-25. R0.3
G1 X-42.064
X-42.199 Y-25.007
X-42.324 Y-25.059
X-42.433 Y-25.138
X-42.527 Y-25.235
X-42.605 Y-25.346
X-42.667 Y-25.465
X-42.711 Y-25.593
X-42.741 Y-25.725
X-42.754 Y-25.859
X-42.722 Y-26.114
X-42.634 Y-26.355
X-42.495 Y-26.572
X-42.312 Y-26.752
X-42.094 Y-26.887
X-41.851 Y-26.972
X-41.596 Y-27.
G3 X-41.322 Y-26.605 R0.3
G1 X-41.79 Y-25.205
G3 X-42.064 Y-25. R0.3
G1 X-42.3
X-42.435 Y-25.007
X-42.56 Y-25.058
X-42.67 Y-25.136
X-42.765 Y-25.232
X-42.844 Y-25.342
X-42.908 Y-25.46
X-42.954 Y-25.588
X-42.985 Y-25.719
X-42.98 Y-25.996
X-42.91 Y-26.264
X-42.779 Y-26.508
X-42.593 Y-26.714
X-42.364 Y-26.87
X-42.105 Y-26.967
X-41.83 Y-27.
G3 X-41.556 Y-26.605 R0.3
G1 X-42.026 Y-25.204
G3 X-42.3 Y-25. R0.3
G1 X-42.569
X-42.704 Y-25.007
X-42.826 Y-25.066
X-42.932 Y-25.149
X-43.024 Y-25.248
X-43.1 Y-25.359
X-43.158 Y-25.481
X-43.202 Y-25.613
X-43.22 Y-25.905
X-43.166 Y-26.193
X-43.042 Y-26.458
X-42.855 Y-26.683
X-42.619 Y-26.855
X-42.346 Y-26.963
X-42.056 Y-27.
G3 X-41.785 Y-26.597 R0.3
G1 X-42.298 Y-25.197
G3 X-42.569 Y-25. R0.3
G1 X-42.798
X-42.933 Y-25.007
X-43.056 Y-25.061
X-43.165 Y-25.142
X-43.258 Y-25.239
X-43.331 Y-25.353
X-43.391 Y-25.474
X-43.432 Y-25.602
X-43.459 Y-25.735
X-43.471 Y-25.87
X-43.424 Y-26.164
X-43.303 Y-26.438
X-43.117 Y-26.671
X-42.878 Y-26.85
X-42.601 Y-26.962
X-42.305 Y-27.
X-40.635
G3 X-40.482 Y-26.448 R0.3
G1 X-42.645 Y-25.048
G3 X-42.798 Y-25. R0.3
G1 X-43.04
X-43.175 Y-25.007
X-43.297 Y-25.063
X-43.405 Y-25.145
X-43.497 Y-25.244
X-43.573 Y-25.355
X-43.634 Y-25.475
X-43.676 Y-25.604
X-43.704 Y-25.736
X-43.696 Y-26.01
X-43.624 Y-26.275
X-43.492 Y-26.516
X-43.306 Y-26.718
X-43.079 Y-26.872
X-42.821 Y-26.968
X-42.548 Y-27.
X-42.305
G3 X-42.05 Y-26.561 R0.3
G1 X-42.785 Y-25.16
G3 X-43.04 Y-25. R0.3
G1 X-43.271
X-43.406 Y-25.007
X-43.529 Y-25.061
X-43.639 Y-25.14
X-43.732 Y-25.237
X-43.811 Y-25.347
X-43.87 Y-25.468
X-43.915 Y-25.596
X-43.942 Y-25.728
X-43.937 Y-26.003
X-43.868 Y-26.269
X-43.737 Y-26.511
X-43.552 Y-26.716
X-43.325 Y-26.871
X-43.067 Y-26.967
X-42.794 Y-27.
X-42.548
G3 X-42.292 Y-26.563 R0.3
G1 X-43.015 Y-25.162
G3 X-43.271 Y-25. R0.3
G1 X-43.512
X-43.646 Y-25.007
X-43.77 Y-25.06
X-43.879 Y-25.14
X-43.973 Y-25.237
X-44.051 Y-25.347
X-44.11 Y-25.469
X-44.155 Y-25.597
X-44.178 Y-25.891
X-44.126 Y-26.181
X-44.003 Y-26.449
X-43.817 Y-26.678
X-43.579 Y-26.853
X-43.305 Y-26.963
X-43.013 Y-27.
X-42.794
G3 X-42.537 Y-26.563 R0.3
G1 X-43.255 Y-25.163
G3 X-43.512 Y-25. R0.3
G1 X-43.74
X-43.875 Y-25.007
X-44. Y-25.057
X-44.111 Y-25.135
X-44.206 Y-25.23
X-44.281 Y-25.342
X-44.342 Y-25.463
X-44.385 Y-25.591
X-44.413 Y-25.723
X-44.427 Y-25.858
X-44.393 Y-26.114
X-44.304 Y-26.355
X-44.164 Y-26.572
X-43.979 Y-26.752
X-43.76 Y-26.888
X-43.517 Y-26.972
X-43.26 Y-27.
X-43.013
G3 X-42.757 Y-26.562 R0.3
G1 X-43.484 Y-25.162
G3 X-43.74 Y-25. R0.3
G1 X-43.982
X-44.117 Y-25.007
X-44.241 Y-25.059
X-44.351 Y-25.138
X-44.444 Y-25.235
X-44.522 Y-25.346
X-44.585 Y-25.465
X-44.629 Y-25.593
X-44.659 Y-25.725
X-44.652 Y-26.001
X-44.58 Y-26.268
X-44.447 Y-26.511
X-44.261 Y-26.716
X-44.032 Y-26.871
X-43.773 Y-26.967
X-43.498 Y-27.
X-43.26
G3 X-43.004 Y-26.563 R0.3
G1 X-43.726 Y-25.162
G3 X-43.982 Y-25. R0.3
G1 X-44.218
X-44.353 Y-25.007
X-44.477 Y-25.058
X-44.588 Y-25.136
X-44.682 Y-25.232
X-44.762 Y-25.342
X-44.822 Y-25.462
X-44.868 Y-25.589
X-44.896 Y-25.722
X-44.892 Y-25.998
X-44.822 Y-26.265
X-44.691 Y-26.509
X-44.507 Y-26.714
X-44.278 Y-26.87
X-44.02 Y-26.967
X-43.745 Y-27.
X-43.498
G3 X-43.241 Y-26.563 R0.3
G1 X-43.961 Y-25.163
G3 X-44.218 Y-25. R0.3
G1 X-44.454
X-44.588 Y-25.007
X-44.714 Y-25.057
X-44.825 Y-25.134
X-44.92 Y-25.23
X-44.999 Y-25.339
X-45.059 Y-25.46
X-45.106 Y-25.587
X-45.131 Y-25.882
X-45.081 Y-26.174
X-44.959 Y-26.445
X-44.773 Y-26.675
X-44.534 Y-26.852
X-44.259 Y-26.962
X-43.965 Y-27.
X-43.745
G3 X-43.488 Y-26.565 R0.3
G1 X-44.196 Y-25.164
G3 X-44.454 Y-25. R0.3
G1 X-44.723
X-44.858 Y-25.007
X-44.979 Y-25.065
X-45.086 Y-25.148
X-45.177 Y-25.248
X-45.248 Y-25.363
X-45.306 Y-25.485
X-45.345 Y-25.614
X-45.371 Y-25.749
X-45.359 Y-26.022
X-45.283 Y-26.284
X-45.149 Y-26.522
X-44.963 Y-26.722
X-44.735 Y-26.874
X-44.479 Y-26.968
X-44.208 Y-27.
X-43.965
G3 X-43.712 Y-26.557 R0.3
G1 X-44.469 Y-25.157
G3 X-44.723 Y-25. R0.3
G1 X-44.951
X-45.086 Y-25.007
X-45.209 Y-25.063
X-45.316 Y-25.145
X-45.408 Y-25.244
X-45.484 Y-25.355
X-45.541 Y-25.478
X-45.586 Y-25.612
X-45.605 Y-25.904
X-45.55 Y-26.192
X-45.426 Y-26.457
X-45.24 Y-26.683
X-45.003 Y-26.855
X-44.731 Y-26.963
X-44.44 Y-27.
X-44.208
G3 X-43.953 Y-26.559 R0.3
G1 X-44.697 Y-25.159
G3 X-44.951 Y-25. R0.3
G1 X-45.193
X-45.328 Y-25.007
X-45.45 Y-25.064
X-45.557 Y-25.146
X-45.649 Y-25.245
X-45.721 Y-25.359
X-45.779 Y-25.481
X-45.819 Y-25.61
X-45.845 Y-25.743
X-45.856 Y-25.877
X-45.807 Y-26.171
X-45.685 Y-26.442
X-45.499 Y-26.674
X-45.261 Y-26.851
X-44.985 Y-26.962
X-44.69 Y-27.
X-44.44
G3 X-44.186 Y-26.558 R0.3
G1 X-44.939 Y-25.158
G3 X-45.193 Y-25. R0.3
G1 X-45.424
X-45.559 Y-25.007
X-45.682 Y-25.063
X-45.79 Y-25.144
X-45.881 Y-25.243
X-45.958 Y-25.354
X-46.019 Y-25.475
X-46.061 Y-25.603
X-46.089 Y-25.735
X-46.102 Y-25.869
X-46.056 Y-26.164
X-45.937 Y-26.437
X-45.752 Y-26.671
X-45.514 Y-26.849
X-45.238 Y-26.962
X-44.943 Y-27.
X-44.69
G3 X-44.435 Y-26.561 R0.3
G1 X-45.169 Y-25.161
G3 X-45.424 Y-25. R0.3
G1 X-45.665
X-45.8 Y-25.007
X-45.922 Y-25.063
X-46.031 Y-25.144
X-46.123 Y-25.242
X-46.2 Y-25.353
X-46.262 Y-25.473
X-46.305 Y-25.601
X-46.334 Y-25.733
X-46.328 Y-26.007
X-46.257 Y-26.273
X-46.126 Y-26.514
X-45.941 Y-26.717
X-45.714 Y-26.871
X-45.456 Y-26.967
X-45.183 Y-27.
X-44.943
G3 X-44.686 Y-26.563 R0.3
G1 X-45.409 Y-25.162
G3 X-45.665 Y-25. R0.3
G1 X-45.893
X-46.028 Y-25.007
X-46.153 Y-25.059
X-46.263 Y-25.137
X-46.357 Y-25.233
X-46.437 Y-25.343
X-46.497 Y-25.463
X-46.543 Y-25.59
X-46.568 Y-25.885
X-46.518 Y-26.177
X-46.396 Y-26.446
X-46.211 Y-26.676
X-45.973 Y-26.852
X-45.698 Y-26.962
X-45.405 Y-27.
X-45.183
G3 X-44.926 Y-26.565 R0.3
G1 X-45.636 Y-25.164
G3 X-45.893 Y-25. R0.3
G1 X-46.135
X-46.27 Y-25.007
X-46.395 Y-25.059
X-46.504 Y-25.137
X-46.599 Y-25.234
X-46.674 Y-25.346
X-46.734 Y-25.467
X-46.776 Y-25.595
X-46.804 Y-25.727
X-46.817 Y-25.862
X-46.783 Y-26.116
X-46.694 Y-26.358
X-46.554 Y-26.573
X-46.37 Y-26.753
X-46.151 Y-26.888
X-45.908 Y-26.972
X-45.652 Y-27.
X-45.405
G3 X-45.15 Y-26.561 R0.3
G1 X-45.88 Y-25.161
G3 X-46.135 Y-25. R0.3
G1 X-46.371
X-46.506 Y-25.007
X-46.63 Y-25.059
X-46.74 Y-25.138
X-46.834 Y-25.235
X-46.912 Y-25.345
X-46.975 Y-25.465
X-47.019 Y-25.592
X-47.049 Y-25.724
X-47.043 Y-26.
X-46.971 Y-26.268
X-46.838 Y-26.511
X-46.652 Y-26.715
X-46.423 Y-26.87
X-46.164 Y-26.967
X-45.889 Y-27.
X-45.652
G3 X-45.396 Y-26.563 R0.3
G1 X-46.115 Y-25.163
G3 X-46.371 Y-25. R0.3
G1 X-46.607
X-46.742 Y-25.007
X-46.867 Y-25.058
X-46.977 Y-25.136
X-47.072 Y-25.232
X-47.152 Y-25.341
X-47.212 Y-25.462
X-47.258 Y-25.59
X-47.283 Y-25.885
X-47.232 Y-26.177
X-47.11 Y-26.446
X-46.923 Y-26.676
X-46.685 Y-26.852
X-46.411 Y-26.962
X-46.117 Y-27.
X-45.889
G3 X-45.633 Y-26.563 R0.3
G1 X-46.35 Y-25.163
G3 X-46.607 Y-25. R0.3
G1 X-46.876
X-47.011 Y-25.007
X-47.132 Y-25.066
X-47.238 Y-25.149
X-47.329 Y-25.249
X-47.401 Y-25.364
X-47.458 Y-25.486
X-47.497 Y-25.615
X-47.523 Y-25.75
X-47.511 Y-26.023
X-47.435 Y-26.285
X-47.301 Y-26.523
X-47.114 Y-26.723
X-46.887 Y-26.874
X-46.631 Y-26.968
X-46.359 Y-27.
X-46.117
G3 X-45.864 Y-26.557 R0.3
G1 X-46.623 Y-25.157
G3 X-46.876 Y-25. R0.3
G1 X-47.105
X-47.239 Y-25.007
X-47.362 Y-25.064
X-47.469 Y-25.145
X-47.561 Y-25.245
X-47.637 Y-25.357
X-47.694 Y-25.479
X-47.738 Y-25.614
X-47.757 Y-25.906
X-47.702 Y-26.193
X-47.578 Y-26.458
X-47.391 Y-26.683
X-47.154 Y-26.856
X-46.882 Y-26.963
X-46.592 Y-27.
G3 X-46.321 Y-26.597 R0.3
G1 X-46.833 Y-25.197
G3 X-47.105 Y-25. R0.3
G1 X-47.347
X-47.481 Y-25.007
X-47.603 Y-25.064
X-47.71 Y-25.147
X-47.802 Y-25.246
X-47.874 Y-25.36
X-47.932 Y-25.482
X-47.971 Y-25.611
X-47.997 Y-25.744
X-48.008 Y-25.878
X-47.959 Y-26.171
X-47.837 Y-26.442
X-47.651 Y-26.674
X-47.412 Y-26.851
X-47.137 Y-26.962
X-46.842 Y-27.
X-46.359
G3 X-46.125 Y-26.527 R0.3
G1 X-47.112 Y-25.127
G3 X-47.347 Y-25. R0.3
G1 X-47.577
X-47.712 Y-25.007
X-47.835 Y-25.063
X-47.943 Y-25.145
X-48.034 Y-25.244
X-48.11 Y-25.355
X-48.171 Y-25.476
X-48.214 Y-25.604
X-48.242 Y-25.736
X-48.254 Y-25.87
X-48.208 Y-26.165
X-48.089 Y-26.437
X-47.904 Y-26.671
X-47.666 Y-26.85
X-47.39 Y-26.962
X-47.095 Y-27.
G3 X-46.822 Y-26.602 R0.3
G1 X-47.304 Y-25.202
G3 X-47.577 Y-25. R0.3
G1 X-47.818
X-47.953 Y-25.007
X-48.076 Y-25.063
X-48.184 Y-25.144
X-48.276 Y-25.243
X-48.353 Y-25.354
X-48.415 Y-25.474
X-48.458 Y-25.602
X-48.487 Y-25.734
X-48.48 Y-26.008
X-48.409 Y-26.273
X-48.278 Y-26.514
X-48.093 Y-26.718
X-47.866 Y-26.871
X-47.608 Y-26.967
X-47.336 Y-27.
G3 X-47.063 Y-26.602 R0.3
G1 X-47.545 Y-25.202
G3 X-47.818 Y-25. R0.3
G1 X-48.047
X-48.182 Y-25.007
X-48.306 Y-25.059
X-48.416 Y-25.137
X-48.51 Y-25.234
X-48.589 Y-25.343
X-48.65 Y-25.464
X-48.696 Y-25.591
X-48.721 Y-25.886
X-48.67 Y-26.177
X-48.549 Y-26.447
X-48.363 Y-26.676
X-48.125 Y-26.852
X-47.851 Y-26.962
X-47.557 Y-27.
G3 X-47.285 Y-26.601 R0.3
G1 X-47.774 Y-25.201
G3 X-48.047 Y-25. R0.3
G1 X-48.289
X-48.423 Y-25.007
X-48.548 Y-25.059
X-48.658 Y-25.138
X-48.752 Y-25.234
X-48.826 Y-25.347
X-48.887 Y-25.468
X-48.929 Y-25.596
X-48.957 Y-25.728
X-48.97 Y-25.862
X-48.924 Y-26.159
X-48.804 Y-26.433
X-48.619 Y-26.668
X-48.379 Y-26.848
X-48.102 Y-26.961
X-47.805 Y-27.
G3 X-47.532 Y-26.602 R0.3
G1 X-48.016 Y-25.202
G3 X-48.289 Y-25. R0.3
G1 X-48.524
X-48.659 Y-25.007
X-48.784 Y-25.059
X-48.893 Y-25.138
X-48.987 Y-25.236
X-49.065 Y-25.346
X-49.127 Y-25.465
X-49.171 Y-25.593
X-49.201 Y-25.725
X-49.214 Y-25.859
X-49.182 Y-26.114
X-49.094 Y-26.355
X-48.955 Y-26.572
X-48.772 Y-26.752
X-48.554 Y-26.887
X-48.311 Y-26.972
X-48.056 Y-27.
G3 X-47.782 Y-26.605 R0.3
G1 X-48.25 Y-25.205
G3 X-48.524 Y-25. R0.3
G1 X-48.76 Y-25.001
X-48.895 Y-25.009
X-49.02 Y-25.061
X-49.131 Y-25.138
X-49.225 Y-25.234
X-49.304 Y-25.344
X-49.368 Y-25.462
X-49.414 Y-25.59
X-49.445 Y-25.721
X-49.44 Y-25.998
X-49.37 Y-26.265
X-49.238 Y-26.509
X-49.053 Y-26.714
X-48.824 Y-26.87
X-48.565 Y-26.967
X-48.29 Y-27.
G3 X-48.016 Y-26.605 R0.3
G1 X-48.482 Y-25.206
G3 X-48.76 Y-25.001 R0.3
G1 X-49.029 Y-25.011
X-49.164 Y-25.025
X-49.286 Y-25.081
X-49.394 Y-25.163
X-49.486 Y-25.262
X-49.562 Y-25.373
X-49.619 Y-25.496
X-49.661 Y-25.624
X-49.678 Y-25.914
X-49.622 Y-26.2
X-49.498 Y-26.463
X-49.312 Y-26.686
X-49.076 Y-26.857
X-48.805 Y-26.964
X-48.517 Y-27.
G3 X-48.245 Y-26.599 R0.3
G1 X-48.742 Y-25.21
G3 X-49.029 Y-25.011 R0.3
G1 X-49.299 Y-25.028
X-49.431 Y-25.054
X-49.552 Y-25.114
X-49.657 Y-25.199
X-49.745 Y-25.302
X-49.813 Y-25.418
X-49.866 Y-25.542
X-49.904 Y-25.805
X-49.881 Y-26.069
X-49.799 Y-26.321
X-49.663 Y-26.547
X-49.478 Y-26.737
X-49.255 Y-26.881
X-49.006 Y-26.97
X-48.743 Y-27.
G3 X-48.472 Y-26.595 R0.3
G1 X-48.985 Y-25.222
G3 X-49.299 Y-25.028 R0.3
G1 X-49.552 Y-25.072
X-49.662 Y-25.126
X-49.769 Y-25.19
X-49.881 Y-25.265
X-49.97 Y-25.367
X-50.039 Y-25.483
X-50.089 Y-25.608
X-50.122 Y-25.739
X-50.119 Y-26.019
X-50.047 Y-26.29
X-49.912 Y-26.535
X-49.72 Y-26.74
X-49.484 Y-26.891
X-49.219 Y-26.98
G3 X-48.888 Y-26.58 R0.3
G1 X-49.343 Y-25.349
G3 X-49.769 Y-25.19 R0.3
G1 X-49.892 Y-25.265
X-49.931 Y-25.298
X-50.136 Y-25.577
X-50.164 Y-25.644
X-50.232 Y-25.947
X-50.228 Y-26.048
X-50.18 Y-26.317
X-50.152 Y-26.385
X-49.986 Y-26.643
X-49.901 Y-26.721
X-49.662 Y-26.88
X-49.527 Y-26.918
X-49.123 Y-26.998
X-46.842 Y-27.
X-46.807 Y-26.992 Z-4.994
X-46.775 Y-26.984 Z-4.977
X-46.75 Y-26.978 Z-4.951
X-46.734 Y-26.974 Z-4.918
X-46.728 Y-26.973 Z-4.882
G0 Z5.
X-49.652 Y-5.774
Z2.845
G1 Z2.545 F466.
G3 X-50.372 Y-6.226 Z2.498 R0.425
X-49.652 Y-5.774 Z2.452 R0.425
X-50.372 Y-6.226 Z2.405 R0.425
X-49.652 Y-5.774 Z2.358 R0.425
X-50.372 Y-6.226 Z2.312 R0.425
X-49.652 Y-5.774 Z2.265 R0.425
X-50.372 Y-6.226 Z2.219 R0.425
X-49.652 Y-5.774 Z2.172 R0.425
X-50.372 Y-6.226 Z2.125 R0.425
X-49.652 Y-5.774 Z2.079 R0.425
X-50.372 Y-6.226 Z2.032 R0.425
X-49.652 Y-5.774 Z1.985 R0.425
X-50.372 Y-6.226 Z1.939 R0.425
X-49.652 Y-5.774 Z1.892 R0.425
X-50.372 Y-6.226 Z1.846 R0.425
X-49.652 Y-5.774 Z1.799 R0.425
X-50.372 Y-6.226 Z1.752 R0.425
X-49.652 Y-5.774 Z1.706 R0.425
X-50.372 Y-6.226 Z1.659 R0.425
X-49.652 Y-5.774 Z1.612 R0.425
X-50.372 Y-6.226 Z1.566 R0.425
X-49.652 Y-5.774 Z1.519 R0.425
X-50.372 Y-6.226 Z1.473 R0.425
X-49.652 Y-5.774 Z1.426 R0.425
X-50.372 Y-6.226 Z1.379 R0.425
X-49.652 Y-5.774 Z1.333 R0.425
X-50.372 Y-6.226 Z1.286 R0.425
X-49.652 Y-5.774 Z1.239 R0.425
X-50.372 Y-6.226 Z1.193 R0.425
X-49.652 Y-5.774 Z1.146 R0.425
X-50.372 Y-6.226 Z1.1 R0.425
X-49.652 Y-5.774 Z1.053 R0.425
X-50.372 Y-6.226 Z1.006 R0.425
X-49.652 Y-5.774 Z0.96 R0.425
X-50.372 Y-6.226 Z0.913 R0.425
X-49.652 Y-5.774 Z0.866 R0.425
X-50.372 Y-6.226 Z0.82 R0.425
X-49.652 Y-5.774 Z0.773 R0.425
X-50.372 Y-6.226 Z0.727 R0.425
X-49.652 Y-5.774 Z0.68 R0.425
X-50.372 Y-6.226 Z0.633 R0.425
X-49.652 Y-5.774 Z0.587 R0.425
X-50.372 Y-6.226 Z0.54 R0.425
X-49.652 Y-5.774 Z0.493 R0.425
X-50.372 Y-6.226 Z0.447 R0.425
X-49.652 Y-5.774 Z0.4 R0.425
X-50.372 Y-6.226 Z0.354 R0.425
X-49.652 Y-5.774 Z0.307 R0.425
X-50.372 Y-6.226 Z0.26 R0.425
X-49.652 Y-5.774 Z0.214 R0.425
X-50.372 Y-6.226 Z0.167 R0.425
X-49.652 Y-5.774 Z0.12 R0.425
X-50.372 Y-6.226 Z0.074 R0.425
X-49.652 Y-5.774 Z0.027 R0.425
X-50.372 Y-6.226 Z-0.019 R0.425
X-49.652 Y-5.774 Z-0.066 R0.425
X-50.372 Y-6.226 Z-0.113 R0.425
X-49.652 Y-5.774 Z-0.159 R0.425
X-50.372 Y-6.226 Z-0.206 R0.425
X-49.652 Y-5.774 Z-0.253 R0.425
X-50.372 Y-6.226 Z-0.299 R0.425
X-49.652 Y-5.774 Z-0.346 R0.425
X-50.372 Y-6.226 Z-0.392 R0.425
X-49.652 Y-5.774 Z-0.439 R0.425
X-50.372 Y-6.226 Z-0.486 R0.425
X-49.652 Y-5.774 Z-0.532 R0.425
X-50.372 Y-6.226 Z-0.579 R0.425
X-49.652 Y-5.774 Z-0.626 R0.425
X-50.372 Y-6.226 Z-0.672 R0.425
X-49.652 Y-5.774 Z-0.719 R0.425
X-50.372 Y-6.226 Z-0.765 R0.425
X-49.652 Y-5.774 Z-0.812 R0.425
X-50.372 Y-6.226 Z-0.859 R0.425
X-49.652 Y-5.774 Z-0.905 R0.425
X-50.372 Y-6.226 Z-0.952 R0.425
X-49.652 Y-5.774 Z-0.999 R0.425
X-50.372 Y-6.226 Z-1.045 R0.425
X-49.652 Y-5.774 Z-1.092 R0.425
X-50.372 Y-6.226 Z-1.138 R0.425
X-49.652 Y-5.774 Z-1.185 R0.425
X-50.372 Y-6.226 Z-1.232 R0.425
X-49.652 Y-5.774 Z-1.278 R0.425
X-50.372 Y-6.226 Z-1.325 R0.425
X-49.652 Y-5.774 Z-1.372 R0.425
X-50.372 Y-6.226 Z-1.418 R0.425
X-49.652 Y-5.774 Z-1.465 R0.425
X-50.372 Y-6.226 Z-1.511 R0.425
X-49.652 Y-5.774 Z-1.558 R0.425
X-50.372 Y-6.226 Z-1.605 R0.425
X-49.652 Y-5.774 Z-1.651 R0.425
X-50.372 Y-6.226 Z-1.698 R0.425
X-49.652 Y-5.774 Z-1.745 R0.425
X-50.372 Y-6.226 Z-1.791 R0.425
X-49.652 Y-5.774 Z-1.838 R0.425
X-50.372 Y-6.226 Z-1.884 R0.425
X-49.652 Y-5.774 Z-1.931 R0.425
X-50.372 Y-6.226 Z-1.978 R0.425
X-49.652 Y-5.774 Z-2.024 R0.425
X-50.372 Y-6.226 Z-2.071 R0.425
X-49.652 Y-5.774 Z-2.118 R0.425
X-50.372 Y-6.226 Z-2.164 R0.425
X-49.652 Y-5.774 Z-2.211 R0.425
X-50.372 Y-6.226 Z-2.257 R0.425
X-49.652 Y-5.774 Z-2.304 R0.425
X-50.372 Y-6.226 Z-2.351 R0.425
X-49.652 Y-5.774 Z-2.397 R0.425
X-50.372 Y-6.226 Z-2.444 R0.425
X-49.652 Y-5.774 Z-2.491 R0.425
X-50.372 Y-6.226 Z-2.537 R0.425
X-49.652 Y-5.774 Z-2.584 R0.425
X-50.372 Y-6.226 Z-2.63 R0.425
X-49.652 Y-5.774 Z-2.677 R0.425
X-50.372 Y-6.226 Z-2.724 R0.425
X-49.652 Y-5.774 Z-2.77 R0.425
X-50.372 Y-6.226 Z-2.817 R0.425
X-49.652 Y-5.774 Z-2.864 R0.425
X-50.372 Y-6.226 Z-2.91 R0.425
X-49.652 Y-5.774 Z-2.957 R0.425
X-50.372 Y-6.226 Z-3.003 R0.425
X-49.652 Y-5.774 Z-3.05 R0.425
X-50.372 Y-6.226 Z-3.097 R0.425
X-49.652 Y-5.774 Z-3.143 R0.425
X-50.372 Y-6.226 Z-3.19 R0.425
X-49.652 Y-5.774 Z-3.237 R0.425
X-50.372 Y-6.226 Z-3.283 R0.425
X-49.652 Y-5.774 Z-3.33 R0.425
X-50.372 Y-6.226 Z-3.376 R0.425
X-49.652 Y-5.774 Z-3.423 R0.425
X-50.372 Y-6.226 Z-3.47 R0.425
X-49.652 Y-5.774 Z-3.516 R0.425
X-50.372 Y-6.226 Z-3.563 R0.425
X-49.652 Y-5.774 Z-3.61 R0.425
X-50.372 Y-6.226 Z-3.656 R0.425
X-49.652 Y-5.774 Z-3.703 R0.425
X-50.372 Y-6.226 Z-3.749 R0.425
X-49.652 Y-5.774 Z-3.796 R0.425
X-50.372 Y-6.226 Z-3.843 R0.425
X-49.652 Y-5.774 Z-3.889 R0.425
X-50.372 Y-6.226 Z-3.936 R0.425
X-49.652 Y-5.774 Z-3.983 R0.425
X-50.372 Y-6.226 Z-4.029 R0.425
X-49.652 Y-5.774 Z-4.076 R0.425
X-50.372 Y-6.226 Z-4.122 R0.425
X-49.652 Y-5.774 Z-4.169 R0.425
X-50.372 Y-6.226 Z-4.216 R0.425
X-49.652 Y-5.774 Z-4.262 R0.425
X-50.372 Y-6.226 Z-4.309 R0.425
X-49.652 Y-5.774 Z-4.356 R0.425
X-50.372 Y-6.226 Z-4.402 R0.425
X-49.652 Y-5.774 Z-4.449 R0.425
X-50.372 Y-6.226 Z-4.495 R0.425
X-49.652 Y-5.774 Z-4.542 R0.425
X-50.372 Y-6.226 Z-4.589 R0.425
X-49.652 Y-5.774 Z-4.635 R0.425
X-50.372 Y-6.226 Z-4.682 R0.425
X-49.652 Y-5.774 Z-4.729 R0.425
X-50.372 Y-6.226 Z-4.775 R0.425
X-49.652 Y-5.774 Z-4.822 R0.425
X-50.372 Y-6.226 Z-4.868 R0.425
X-49.652 Y-5.774 Z-4.915 R0.425
X-50.372 Y-6.226 Z-4.962 R0.425
X-49.587 Y-6. Z-5. R0.425
X-50.437 R0.425
X-49.587 R0.425
G1 X-49.568 Y-5.715
X-49.628 Y-5.594
X-49.724 Y-5.499
X-49.843 Y-5.435
X-49.974 Y-5.403
X-50.109 Y-5.404
X-50.24 Y-5.437
X-50.36 Y-5.498
X-50.463 Y-5.586
X-50.544 Y-5.694
X-50.599 Y-5.817
X-50.625 Y-5.95
X-50.622 Y-6.085
X-50.589 Y-6.215
X-50.529 Y-6.336
X-50.443 Y-6.441
X-50.337 Y-6.524
X-50.215 Y-6.582
X-50.083 Y-6.612
X-49.948 Y-6.613
X-49.816 Y-6.584
X-49.694 Y-6.528
X-49.587 Y-6.446
X-49.5 Y-6.343
X-49.432 Y-6.226
X-49.379 Y-6.102
X-49.347 Y-5.971
X-49.341 Y-5.836
X-49.362 Y-5.702
X-49.409 Y-5.576
X-49.482 Y-5.462
X-49.576 Y-5.365
X-49.686 Y-5.288
X-49.809 Y-5.232
X-49.94 Y-5.2
X-50.075 Y-5.193
X-50.209 Y-5.209
X-50.339 Y-5.247
X-50.46 Y-5.308
X-50.568 Y-5.388
X-50.662 Y-5.485
X-50.739 Y-5.596
X-50.796 Y-5.718
X-50.832 Y-5.848
X-50.847 Y-5.983
X-50.84 Y-6.117
X-50.811 Y-6.249
X-50.76 Y-6.374
X-50.691 Y-6.49
X-50.603 Y-6.593
X-50.5 Y-6.681
X-50.385 Y-6.75
X-50.259 Y-6.8
X-50.128 Y-6.83
X-49.993 Y-6.838
X-49.859 Y-6.823
X-49.728 Y-6.789
X-49.605 Y-6.733
X-49.492 Y-6.659
X-49.391 Y-6.57
X-49.302 Y-6.468
X-49.228 Y-6.355
X-49.169 Y-6.234
X-49.129 Y-6.105
X-49.107 Y-5.972
X-49.104 Y-5.837
X-49.121 Y-5.703
X-49.158 Y-5.573
X-49.214 Y-5.45
X-49.286 Y-5.336
X-49.375 Y-5.234
X-49.477 Y-5.146
X-49.591 Y-5.073
X-49.713 Y-5.017
X-49.843 Y-4.978
X-49.976 Y-4.957
X-50.111 Y-4.955
X-50.245 Y-4.971
X-50.376 Y-5.004
X-50.501 Y-5.054
X-50.619 Y-5.121
X-50.727 Y-5.202
X-50.823 Y-5.296
X-50.907 Y-5.401
X-50.977 Y-5.517
X-51.031 Y-5.641
X-51.069 Y-5.77
X-51.091 Y-5.904
X-51.096 Y-6.038
X-51.083 Y-6.173
X-51.054 Y-6.305
X-51.009 Y-6.432
X-50.948 Y-6.553
X-50.873 Y-6.665
X-50.784 Y-6.766
X-50.683 Y-6.856
X-50.573 Y-6.933
X-50.453 Y-6.996
X-50.326 Y-7.042
X-50.195 Y-7.073
X-50.061 Y-7.088
X-49.926 Y-7.086
X-49.792 Y-7.067
X-49.662 Y-7.032
X-49.536 Y-6.982
X-49.417 Y-6.918
X-49.306 Y-6.841
X-49.204 Y-6.753
X-49.113 Y-6.653
X-49.034 Y-6.544
X-48.967 Y-6.427
X-48.913 Y-6.303
X-48.874 Y-6.174
X-48.85 Y-6.041
X-48.84 Y-5.906
X-48.846 Y-5.771
X-48.867 Y-5.638
X-48.904 Y-5.508
X-48.955 Y-5.383
X-49.019 Y-5.264
X-49.096 Y-5.153
X-49.186 Y-5.052
X-49.286 Y-4.962
X-49.395 Y-4.883
X-49.513 Y-4.816
X-49.637 Y-4.763
X-49.766 Y-4.723
X-49.898 Y-4.698
X-50.033 Y-4.687
X-50.168 Y-4.69
X-50.302 Y-4.708
X-50.433 Y-4.74
X-50.56 Y-4.785
X-50.682 Y-4.843
X-50.797 Y-4.914
X-50.904 Y-4.996
X-51.003 Y-5.088
X-51.091 Y-5.191
X-51.168 Y-5.301
X-51.234 Y-5.419
X-51.287 Y-5.543
X-51.328 Y-5.672
X-51.355 Y-5.804
X-51.369 Y-5.938
X-51.37 Y-6.073
X-51.357 Y-6.208
X-51.331 Y-6.34
X-51.291 Y-6.469
X-51.239 Y-6.594
X-51.175 Y-6.712
X-51.099 Y-6.824
X-51.013 Y-6.928
X-50.916 Y-7.022
X-50.811 Y-7.107
X-50.698 Y-7.181
X-50.578 Y-7.243
X-50.453 Y-7.293
X-50.323 Y-7.33
X-50.19 Y-7.355
X-50.056 Y-7.366
X-49.921 Y-7.364
X-49.786 Y-7.35
X-49.654 Y-7.322
X-49.525 Y-7.282
X-49.401 Y-7.23
X-49.281 Y-7.167
X-49.168 Y-7.094
X-49.062 Y-7.01
X-48.965 Y-6.916
X-48.876 Y-6.815
X-48.797 Y-6.706
X-48.728 Y-6.59
X-48.669 Y-6.468
X-48.623 Y-6.341
X-48.588 Y-6.211
X-48.565 Y-6.078
X-48.554 Y-5.943
X-48.555 Y-5.808
X-48.569 Y-5.674
X-48.595 Y-5.541
X-48.633 Y-5.412
X-48.683 Y-5.286
X-48.743 Y-5.165
X-48.815 Y-5.051
X-48.897 Y-4.943
X-48.987 Y-4.843
X-49.086 Y-4.752
X-49.194 Y-4.67
X-49.308 Y-4.598
X-49.428 Y-4.536
X-49.553 Y-4.485
X-49.682 Y-4.445
X-49.814 Y-4.416
X-49.948 Y-4.4
X-50.082 Y-4.395
X-50.217 Y-4.401
X-50.351 Y-4.42
X-50.483 Y-4.449
X-50.612 Y-4.49
X-50.736 Y-4.541
X-50.856 Y-4.603
X-50.97 Y-4.675
X-51.078 Y-4.756
X-51.179 Y-4.846
X-51.272 Y-4.944
X-51.356 Y-5.05
X-51.431 Y-5.162
X-51.496 Y-5.28
X-51.552 Y-5.403
X-51.597 Y-5.53
X-51.632 Y-5.661
X-51.655 Y-5.794
X-51.668 Y-5.928
X-51.669 Y-6.063
X-51.66 Y-6.198
X-51.639 Y-6.331
X-51.608 Y-6.463
X-51.565 Y-6.591
X-51.513 Y-6.715
X-51.451 Y-6.835
X-51.379 Y-6.949
X-51.298 Y-7.057
X-51.208 Y-7.158
X-51.11 Y-7.251
X-51.006 Y-7.337
X-50.894 Y-7.413
X-50.777 Y-7.48
X-50.655 Y-7.537
X-50.529 Y-7.585
X-50.399 Y-7.622
X-50.266 Y-7.648
X-50.132 Y-7.664
X-49.997 Y-7.669
X-49.862 Y-7.663
X-49.728 Y-7.647
X-49.596 Y-7.62
X-49.466 Y-7.584
X-49.34 Y-7.537
X-49.217 Y-7.481
X-49.099 Y-7.415
X-48.986 Y-7.34
X-48.88 Y-7.257
X-48.78 Y-7.167
X-48.687 Y-7.069
X-48.602 Y-6.964
X-48.525 Y-6.853
X-48.457 Y-6.737
X-48.397 Y-6.615
X-48.347 Y-6.49
X-48.307 Y-6.361
X-48.276 Y-6.23
X-48.256 Y-6.096
X-48.246 Y-5.962
X-48.255 Y-5.692
X-48.275 Y-5.558
X-48.305 Y-5.427
X-48.345 Y-5.298
X-48.454 Y-5.051
X-48.521 Y-4.934
X-48.597 Y-4.822
X-48.682 Y-4.717
X-48.774 Y-4.618
X-48.978 Y-4.442
X-49.206 Y-4.298
X-49.328 Y-4.239
X-49.582 Y-4.149
X-49.847 Y-4.096
X-50.116 Y-4.082
X-50.385 Y-4.107
X-50.647 Y-4.169
X-50.898 Y-4.269
X-51.132 Y-4.403
X-51.345 Y-4.568
X-51.533 Y-4.762
X-51.692 Y-4.98
X-51.819 Y-5.218
X-51.912 Y-5.472
X-51.969 Y-5.735
X-51.989 Y-6.004
X-51.972 Y-6.274
X-51.918 Y-6.538
X-51.829 Y-6.793
X-51.705 Y-7.033
X-51.55 Y-7.254
X-51.367 Y-7.451
X-51.158 Y-7.622
X-50.928 Y-7.763
X-50.681 Y-7.872
X-50.421 Y-7.946
X-50.154 Y-7.985
X-49.885 Y-7.988
X-49.617 Y-7.956
X-49.355 Y-7.889
X-49.105 Y-7.788
X-48.87 Y-7.655
X-48.654 Y-7.494
X-48.46 Y-7.305
X-48.293 Y-7.094
X-48.153 Y-6.863
X-48.044 Y-6.616
X-47.968 Y-6.357
X-47.926 Y-6.091
X-47.917 Y-5.821
X-47.944 Y-5.552
X-48.004 Y-5.289
X-48.096 Y-5.036
X-48.22 Y-4.796
X-48.374 Y-4.574
X-48.554 Y-4.373
X-48.757 Y-4.196
X-48.982 Y-4.046
X-49.223 Y-3.925
X-49.477 Y-3.834
X-49.741 Y-3.776
X-50.009 Y-3.751
X-50.144 Y-3.75
X-50.413 Y-3.774
X-50.677 Y-3.831
X-50.932 Y-3.919
X-51.175 Y-4.037
X-51.401 Y-4.184
X-51.609 Y-4.356
X-51.794 Y-4.552
X-51.955 Y-4.769
X-52.089 Y-5.004
X-52.194 Y-5.252
X-52.269 Y-5.511
X-52.313 Y-5.778
X-52.325 Y-6.047
X-52.306 Y-6.316
X-52.255 Y-6.582
X-52.174 Y-6.839
X-52.063 Y-7.085
X-51.924 Y-7.316
X-51.759 Y-7.53
X-51.57 Y-7.723
X-51.361 Y-7.893
X-51.133 Y-8.037
X-50.889 Y-8.154
X-50.634 Y-8.242
X-50.371 Y-8.301
X-50.102 Y-8.329
X-49.833 Y-8.326
X-49.565 Y-8.293
X-49.302 Y-8.229
X-49.049 Y-8.137
X-48.807 Y-8.017
X-48.58 Y-7.871
X-48.371 Y-7.701
X-48.182 Y-7.508
X-48.015 Y-7.296
X-47.872 Y-7.067
X-47.756 Y-6.823
X-47.668 Y-6.568
X-47.607 Y-6.305
X-47.576 Y-6.037
X-47.575 Y-5.767
X-47.603 Y-5.499
X-47.636 Y-5.343
X-47.7 Y-5.167
X-47.876 Y-4.779
X-47.962 Y-4.613
X-48.45 Y-4.081
X-48.518 Y-4.029
X-49.157 Y-3.676
X-49.796 Y-3.546
X-49.931 Y-3.525
X-50.705 Y-3.622
X-51.277 Y-3.887
X-51.431 Y-3.971
X-51.972 Y-4.485
X-52.338 Y-5.149
X-52.378 Y-5.317
X-52.488 Y-5.928
X-52.468 Y-6.125
X-52.395 Y-6.663
X-52.381 Y-6.725
X-52.05 Y-7.407
X-51.815 Y-7.66
X-51.499 Y-7.981
X-50.873 Y-8.317
X-50.806 Y-8.346
X-50.065 Y-8.476
X-49.931 Y-8.464
X-49.292 Y-8.369
X-48.989 Y-8.227
X-48.566 Y-8.01
X-48.02 Y-7.471
X-47.669 Y-6.798
X-47.637 Y-6.663
X-47.533 Y-5.99
X-47.611 Y-5.385
X-47.643 Y-5.292
X-47.7 Y-5.167
X-47.722 Y-5.138 Z-4.994
X-47.742 Y-5.112 Z-4.977
X-47.758 Y-5.092 Z-4.951
X-47.768 Y-5.079 Z-4.918
X-47.772 Y-5.074 Z-4.882
G0 Z5.
X-37.758 Y16.226
Z2.845
G1 Z2.545 F466.
G3 X-38.478 Y15.774 Z2.498 R0.425
X-37.758 Y16.226 Z2.452 R0.425
X-38.478 Y15.774 Z2.405 R0.425
X-37.758 Y16.226 Z2.358 R0.425
X-38.478 Y15.774 Z2.312 R0.425
X-37.758 Y16.226 Z2.265 R0.425
X-38.478 Y15.774 Z2.219 R0.425
X-37.758 Y16.226 Z2.172 R0.425
X-38.478 Y15.774 Z2.125 R0.425
X-37.758 Y16.226 Z2.079 R0.425
X-38.478 Y15.774 Z2.032 R0.425
X-37.758 Y16.226 Z1.985 R0.425
X-38.478 Y15.774 Z1.939 R0.425
X-37.758 Y16.226 Z1.892 R0.425
X-38.478 Y15.774 Z1.846 R0.425
X-37.758 Y16.226 Z1.799 R0.425
X-38.478 Y15.774 Z1.752 R0.425
X-37.758 Y16.226 Z1.706 R0.425
X-38.478 Y15.774 Z1.659 R0.425
X-37.758 Y16.226 Z1.612 R0.425
X-38.478 Y15.774 Z1.566 R0.425
X-37.758 Y16.226 Z1.519 R0.425
X-38.478 Y15.774 Z1.473 R0.425
X-37.758 Y16.226 Z1.426 R0.425
X-38.478 Y15.774 Z1.379 R0.425
X-37.758 Y16.226 Z1.333 R0.425
X-38.478 Y15.774 Z1.286 R0.425
X-37.758 Y16.226 Z1.239 R0.425
X-38.478 Y15.774 Z1.193 R0.425
X-37.758 Y16.226 Z1.146 R0.425
X-38.478 Y15.774 Z1.1 R0.425
X-37.758 Y16.226 Z1.053 R0.425
X-38.478 Y15.774 Z1.006 R0.425
X-37.758 Y16.226 Z0.96 R0.425
X-38.478 Y15.774 Z0.913 R0.425
X-37.758 Y16.226 Z0.866 R0.425
X-38.478 Y15.774 Z0.82 R0.425
X-37.758 Y16.226 Z0.773 R0.425
X-38.478 Y15.774 Z0.727 R0.425
X-37.758 Y16.226 Z0.68 R0.425
X-38.478 Y15.774 Z0.633 R0.425
X-37.758 Y16.226 Z0.587 R0.425
X-38.478 Y15.774 Z0.54 R0.425
X-37.758 Y16.226 Z0.493 R0.425
X-38.478 Y15.774 Z0.447 R0.425
X-37.758 Y16.226 Z0.4 R0.425
X-38.478 Y15.774 Z0.354 R0.425
X-37.758 Y16.226 Z0.307 R0.425
X-38.478 Y15.774 Z0.26 R0.425
X-37.758 Y16.226 Z0.214 R0.425
X-38.478 Y15.774 Z0.167 R0.425
X-37.758 Y16.226 Z0.12 R0.425
X-38.478 Y15.774 Z0.074 R0.425
X-37.758 Y16.226 Z0.027 R0.425
X-38.478 Y15.774 Z-0.019 R0.425
X-37.758 Y16.226 Z-0.066 R0.425
X-38.478 Y15.774 Z-0.113 R0.425
X-37.758 Y16.226 Z-0.159 R0.425
X-38.478 Y15.774 Z-0.206 R0.425
X-37.758 Y16.226 Z-0.253 R0.425
X-38.478 Y15.774 Z-0.299 R0.425
X-37.758 Y16.226 Z-0.346 R0.425
X-38.478 Y15.774 Z-0.392 R0.425
X-37.758 Y16.226 Z-0.439 R0.425
X-38.478 Y15.774 Z-0.486 R0.425
X-37.758 Y16.226 Z-0.532 R0.425
X-38.478 Y15.774 Z-0.579 R0.425
X-37.758 Y16.226 Z-0.626 R0.425
X-38.478 Y15.774 Z-0.672 R0.425
X-37.758 Y16.226 Z-0.719 R0.425
X-38.478 Y15.774 Z-0.765 R0.425
X-37.758 Y16.226 Z-0.812 R0.425
X-38.478 Y15.774 Z-0.859 R0.425
X-37.758 Y16.226 Z-0.905 R0.425
X-38.478 Y15.774 Z-0.952 R0.425
X-37.758 Y16.226 Z-0.999 R0.425
X-38.478 Y15.774 Z-1.045 R0.425
X-37.758 Y16.226 Z-1.092 R0.425
X-38.478 Y15.774 Z-1.138 R0.425
X-37.758 Y16.226 Z-1.185 R0.425
X-38.478 Y15.774 Z-1.232 R0.425
X-37.758 Y16.226 Z-1.278 R0.425
X-38.478 Y15.774 Z-1.325 R0.425
X-37.758 Y16.226 Z-1.372 R0.425
X-38.478 Y15.774 Z-1.418 R0.425
X-37.758 Y16.226 Z-1.465 R0.425
X-38.478 Y15.774 Z-1.511 R0.425
X-37.758 Y16.226 Z-1.558 R0.425
X-38.478 Y15.774 Z-1.605 R0.425
X-37.758 Y16.226 Z-1.651 R0.425
X-38.478 Y15.774 Z-1.698 R0.425
X-37.758 Y16.226 Z-1.745 R0.425
X-38.478 Y15.774 Z-1.791 R0.425
X-37.758 Y16.226 Z-1.838 R0.425
X-38.478 Y15.774 Z-1.884 R0.425
X-37.758 Y16.226 Z-1.931 R0.425
X-38.478 Y15.774 Z-1.978 R0.425
X-37.758 Y16.226 Z-2.024 R0.425
X-38.478 Y15.774 Z-2.071 R0.425
X-37.758 Y16.226 Z-2.118 R0.425
X-38.478 Y15.774 Z-2.164 R0.425
X-37.758 Y16.226 Z-2.211 R0.425
X-38.478 Y15.774 Z-2.257 R0.425
X-37.758 Y16.226 Z-2.304 R0.425
X-38.478 Y15.774 Z-2.351 R0.425
X-37.758 Y16.226 Z-2.397 R0.425
X-38.478 Y15.774 Z-2.444 R0.425
X-37.758 Y16.226 Z-2.491 R0.425
X-38.478 Y15.774 Z-2.537 R0.425
X-37.758 Y16.226 Z-2.584 R0.425
X-38.478 Y15.774 Z-2.63 R0.425
X-37.758 Y16.226 Z-2.677 R0.425
X-38.478 Y15.774 Z-2.724 R0.425
X-37.758 Y16.226 Z-2.77 R0.425
X-38.478 Y15.774 Z-2.817 R0.425
X-37.758 Y16.226 Z-2.864 R0.425
X-38.478 Y15.774 Z-2.91 R0.425
X-37.758 Y16.226 Z-2.957 R0.425
X-38.478 Y15.774 Z-3.003 R0.425
X-37.758 Y16.226 Z-3.05 R0.425
X-38.478 Y15.774 Z-3.097 R0.425
X-37.758 Y16.226 Z-3.143 R0.425
X-38.478 Y15.774 Z-3.19 R0.425
X-37.758 Y16.226 Z-3.237 R0.425
X-38.478 Y15.774 Z-3.283 R0.425
X-37.758 Y16.226 Z-3.33 R0.425
X-38.478 Y15.774 Z-3.376 R0.425
X-37.758 Y16.226 Z-3.423 R0.425
X-38.478 Y15.774 Z-3.47 R0.425
X-37.758 Y16.226 Z-3.516 R0.425
X-38.478 Y15.774 Z-3.563 R0.425
X-37.758 Y16.226 Z-3.61 R0.425
X-38.478 Y15.774 Z-3.656 R0.425
X-37.758 Y16.226 Z-3.703 R0.425
X-38.478 Y15.774 Z-3.749 R0.425
X-37.758 Y16.226 Z-3.796 R0.425
X-38.478 Y15.774 Z-3.843 R0.425
X-37.758 Y16.226 Z-3.889 R0.425
X-38.478 Y15.774 Z-3.936 R0.425
X-37.758 Y16.226 Z-3.983 R0.425
X-38.478 Y15.774 Z-4.029 R0.425
X-37.758 Y16.226 Z-4.076 R0.425
X-38.478 Y15.774 Z-4.122 R0.425
X-37.758 Y16.226 Z-4.169 R0.425
X-38.478 Y15.774 Z-4.216 R0.425
X-37.758 Y16.226 Z-4.262 R0.425
X-38.478 Y15.774 Z-4.309 R0.425
X-37.758 Y16.226 Z-4.356 R0.425
X-38.478 Y15.774 Z-4.402 R0.425
X-37.758 Y16.226 Z-4.449 R0.425
X-38.478 Y15.774 Z-4.495 R0.425
X-37.758 Y16.226 Z-4.542 R0.425
X-38.478 Y15.774 Z-4.589 R0.425
X-37.758 Y16.226 Z-4.635 R0.425
X-38.478 Y15.774 Z-4.682 R0.425
X-37.758 Y16.226 Z-4.729 R0.425
X-38.478 Y15.774 Z-4.775 R0.425
X-37.758 Y16.226 Z-4.822 R0.425
X-38.478 Y15.774 Z-4.868 R0.425
X-37.758 Y16.226 Z-4.915 R0.425
X-38.478 Y15.774 Z-4.962 R0.425
X-37.693 Y16. Z-5. R0.425
X-38.543 R0.425
X-37.693 R0.425
G1 X-37.674 Y16.285
X-37.734 Y16.406
X-37.83 Y16.501
X-37.949 Y16.565
X-38.08 Y16.597
X-38.215 Y16.596
X-38.346 Y16.563
X-38.466 Y16.501
X-38.569 Y16.414
X-38.65 Y16.306
X-38.705 Y16.183
X-38.731 Y16.05
X-38.728 Y15.915
X-38.695 Y15.784
X-38.634 Y15.664
X-38.549 Y15.559
X-38.443 Y15.476
X-38.321 Y15.418
X-38.189 Y15.388
X-38.054 Y15.387
X-37.922 Y15.415
X-37.8 Y15.472
X-37.692 Y15.554
X-37.606 Y15.657
X-37.538 Y15.774
X-37.485 Y15.898
X-37.452 Y16.029
X-37.447 Y16.164
X-37.468 Y16.297
X-37.515 Y16.424
X-37.588 Y16.538
X-37.682 Y16.634
X-37.792 Y16.712
X-37.915 Y16.768
X-38.046 Y16.8
X-38.181 Y16.807
X-38.315 Y16.791
X-38.445 Y16.752
X-38.565 Y16.692
X-38.674 Y16.612
X-38.768 Y16.515
X-38.845 Y16.404
X-38.902 Y16.282
X-38.938 Y16.151
X-38.953 Y16.017
X-38.946 Y15.882
X-38.917 Y15.751
X-38.866 Y15.625
X-38.796 Y15.51
X-38.709 Y15.406
X-38.606 Y15.319
X-38.49 Y15.25
X-38.365 Y15.199
X-38.234 Y15.17
X-38.099 Y15.162
X-37.965 Y15.176
X-37.834 Y15.211
X-37.711 Y15.267
X-37.598 Y15.341
X-37.497 Y15.43
X-37.408 Y15.532
X-37.334 Y15.644
X-37.275 Y15.766
X-37.235 Y15.895
X-37.213 Y16.028
X-37.21 Y16.163
X-37.227 Y16.297
X-37.264 Y16.427
X-37.32 Y16.55
X-37.392 Y16.664
X-37.48 Y16.766
X-37.583 Y16.854
X-37.697 Y16.927
X-37.819 Y16.983
X-37.948 Y17.022
X-38.082 Y17.043
X-38.217 Y17.045
X-38.351 Y17.029
X-38.482 Y16.996
X-38.607 Y16.946
X-38.725 Y16.879
X-38.832 Y16.798
X-38.929 Y16.704
X-39.013 Y16.598
X-39.083 Y16.483
X-39.137 Y16.359
X-39.175 Y16.229
X-39.197 Y16.096
X-39.202 Y15.961
X-39.189 Y15.827
X-39.16 Y15.695
X-39.115 Y15.568
X-39.054 Y15.447
X-38.979 Y15.335
X-38.89 Y15.234
X-38.789 Y15.144
X-38.678 Y15.067
X-38.559 Y15.004
X-38.432 Y14.958
X-38.301 Y14.927
X-38.166 Y14.912
X-38.031 Y14.914
X-37.898 Y14.933
X-37.767 Y14.968
X-37.642 Y15.018
X-37.523 Y15.082
X-37.412 Y15.158
X-37.31 Y15.247
X-37.219 Y15.347
X-37.14 Y15.456
X-37.073 Y15.573
X-37.019 Y15.697
X-36.98 Y15.826
X-36.956 Y15.959
X-36.946 Y16.094
X-36.952 Y16.229
X-36.973 Y16.362
X-37.01 Y16.492
X-37.061 Y16.617
X-37.125 Y16.736
X-37.202 Y16.846
X-37.291 Y16.948
X-37.392 Y17.038
X-37.501 Y17.117
X-37.618 Y17.184
X-37.742 Y17.237
X-37.872 Y17.277
X-38.004 Y17.302
X-38.139 Y17.313
X-38.274 Y17.31
X-38.408 Y17.292
X-38.539 Y17.26
X-38.666 Y17.215
X-38.788 Y17.156
X-38.903 Y17.086
X-39.01 Y17.004
X-39.108 Y16.911
X-39.196 Y16.809
X-39.274 Y16.698
X-39.34 Y16.581
X-39.393 Y16.457
X-39.434 Y16.328
X-39.461 Y16.196
X-39.475 Y16.061
X-39.476 Y15.926
X-39.463 Y15.792
X-39.437 Y15.66
X-39.397 Y15.531
X-39.345 Y15.406
X-39.281 Y15.287
X-39.205 Y15.175
X-39.119 Y15.072
X-39.022 Y14.977
X-38.917 Y14.893
X-38.804 Y14.819
X-38.684 Y14.757
X-38.559 Y14.707
X-38.429 Y14.67
X-38.296 Y14.645
X-38.162 Y14.634
X-38.027 Y14.635
X-37.892 Y14.65
X-37.76 Y14.678
X-37.631 Y14.718
X-37.507 Y14.77
X-37.387 Y14.832
X-37.274 Y14.906
X-37.168 Y14.99
X-37.071 Y15.083
X-36.982 Y15.185
X-36.902 Y15.294
X-36.833 Y15.41
X-36.775 Y15.532
X-36.729 Y15.659
X-36.694 Y15.789
X-36.671 Y15.922
X-36.66 Y16.057
X-36.661 Y16.192
X-36.675 Y16.326
X-36.701 Y16.458
X-36.739 Y16.588
X-36.788 Y16.714
X-36.849 Y16.834
X-36.921 Y16.949
X-37.002 Y17.056
X-37.093 Y17.156
X-37.192 Y17.248
X-37.299 Y17.33
X-37.414 Y17.402
X-37.534 Y17.464
X-37.659 Y17.515
X-37.788 Y17.555
X-37.919 Y17.583
X-38.053 Y17.6
X-38.188 Y17.605
X-38.323 Y17.598
X-38.457 Y17.58
X-38.589 Y17.551
X-38.717 Y17.51
X-38.842 Y17.459
X-38.962 Y17.397
X-39.076 Y17.325
X-39.184 Y17.243
X-39.285 Y17.154
X-39.378 Y17.056
X-39.462 Y16.95
X-39.537 Y16.838
X-39.602 Y16.72
X-39.658 Y16.597
X-39.703 Y16.469
X-39.738 Y16.339
X-39.761 Y16.206
X-39.774 Y16.072
X-39.775 Y15.937
X-39.766 Y15.802
X-39.745 Y15.668
X-39.713 Y15.537
X-39.671 Y15.409
X-39.619 Y15.285
X-39.556 Y15.165
X-39.485 Y15.051
X-39.403 Y14.943
X-39.314 Y14.842
X-39.216 Y14.748
X-39.112 Y14.663
X-39. Y14.587
X-38.883 Y14.52
X-38.761 Y14.462
X-38.634 Y14.415
X-38.505 Y14.378
X-38.372 Y14.352
X-38.238 Y14.336
X-38.103 Y14.331
X-37.968 Y14.336
X-37.834 Y14.353
X-37.702 Y14.38
X-37.572 Y14.416
X-37.445 Y14.463
X-37.323 Y14.519
X-37.205 Y14.585
X-37.092 Y14.66
X-36.986 Y14.742
X-36.886 Y14.833
X-36.793 Y14.931
X-36.708 Y15.036
X-36.631 Y15.147
X-36.563 Y15.263
X-36.503 Y15.385
X-36.453 Y15.51
X-36.413 Y15.639
X-36.382 Y15.77
X-36.362 Y15.904
X-36.351 Y16.038
X-36.361 Y16.308
X-36.381 Y16.441
X-36.411 Y16.573
X-36.451 Y16.702
X-36.56 Y16.949
X-36.627 Y17.066
X-36.703 Y17.177
X-36.787 Y17.283
X-36.88 Y17.382
X-37.084 Y17.557
X-37.312 Y17.702
X-37.434 Y17.761
X-37.688 Y17.851
X-37.952 Y17.904
X-38.222 Y17.918
X-38.491 Y17.893
X-38.753 Y17.83
X-39.004 Y17.731
X-39.238 Y17.597
X-39.451 Y17.431
X-39.639 Y17.238
X-39.798 Y17.02
X-39.925 Y16.781
X-40.018 Y16.528
X-40.075 Y16.264
X-40.095 Y15.995
X-40.078 Y15.726
X-40.024 Y15.462
X-39.935 Y15.207
X-39.811 Y14.967
X-39.656 Y14.746
X-39.473 Y14.549
X-39.264 Y14.377
X-39.034 Y14.236
X-38.787 Y14.128
X-38.527 Y14.054
X-38.26 Y14.015
X-37.99 Y14.012
X-37.723 Y14.044
X-37.461 Y14.111
X-37.211 Y14.212
X-36.976 Y14.345
X-36.76 Y14.506
X-36.566 Y14.694
X-36.399 Y14.906
X-36.259 Y15.137
X-36.15 Y15.384
X-36.074 Y15.643
X-36.032 Y15.909
X-36.023 Y16.179
X-36.049 Y16.448
X-36.109 Y16.711
X-36.202 Y16.964
X-36.326 Y17.204
X-36.48 Y17.426
X-36.659 Y17.627
X-36.863 Y17.804
X-37.087 Y17.954
X-37.329 Y18.075
X-37.583 Y18.166
X-37.846 Y18.224
X-38.115 Y18.249
X-38.25
X-38.519 Y18.225
X-38.783 Y18.169
X-39.038 Y18.081
X-39.281 Y17.963
X-39.507 Y17.816
X-39.715 Y17.643
X-39.9 Y17.447
X-40.061 Y17.231
X-40.195 Y16.996
X-40.3 Y16.748
X-40.375 Y16.488
X-40.419 Y16.222
X-40.431 Y15.953
X-40.412 Y15.683
X-40.361 Y15.418
X-40.28 Y15.161
X-40.169 Y14.915
X-40.03 Y14.683
X-39.865 Y14.47
X-39.676 Y14.277
X-39.467 Y14.107
X-39.239 Y13.963
X-38.995 Y13.846
X-38.74 Y13.758
X-38.477 Y13.699
X-38.208 Y13.671
X-37.938 Y13.674
X-37.671 Y13.707
X-37.408 Y13.77
X-37.155 Y13.863
X-36.913 Y13.983
X-36.686 Y14.129
X-36.477 Y14.299
X-36.287 Y14.492
X-36.121 Y14.704
X-35.978 Y14.933
X-35.862 Y15.177
X-35.774 Y15.432
X-35.713 Y15.695
X-35.682 Y15.963
X-35.681 Y16.233
X-35.709 Y16.501
X-35.766 Y16.765
X-35.852 Y17.021
X-35.965 Y17.266
X-36.104 Y17.497
X-36.268 Y17.712
X-36.453 Y17.908
X-36.659 Y18.083
X-36.882 Y18.235
X-37.12 Y18.362
X-37.371 Y18.462
X-37.631 Y18.535
X-37.897 Y18.581
X-38.166 Y18.598
X-38.436 Y18.586
X-38.703 Y18.546
X-38.964 Y18.479
X-39.217 Y18.384
X-39.458 Y18.263
X-39.686 Y18.118
X-39.897 Y17.95
X-40.09 Y17.761
X-40.262 Y17.554
X-40.412 Y17.329
X-40.538 Y17.091
X-40.639 Y16.84
X-40.714 Y16.581
X-40.762 Y16.315
X-40.782 Y16.046
X-40.775 Y15.776
X-40.741 Y15.509
X-40.679 Y15.246
X-40.591 Y14.991
X-40.478 Y14.746
X-40.34 Y14.514
X-40.18 Y14.296
X-39.999 Y14.097
X-39.798 Y13.916
X-39.58 Y13.757
X-39.347 Y13.62
X-39.102 Y13.508
X-38.846 Y13.42
X-38.584 Y13.358
X-38.316 Y13.323
X-38.046 Y13.314
X-37.777 Y13.333
X-37.511 Y13.377
X-37.25 Y13.447
X-36.998 Y13.543
X-36.756 Y13.662
X-36.526 Y13.805
X-36.312 Y13.969
X-36.115 Y14.153
X-35.936 Y14.355
X-35.777 Y14.573
X-35.641 Y14.806
X-35.527 Y15.051
X-35.438 Y15.306
X-35.373 Y15.568
X-35.333 Y15.835
X-35.32 Y16.104
X-35.332 Y16.374
X-35.37 Y16.641
X-35.433 Y16.904
X-35.521 Y17.159
X-35.633 Y17.404
X-35.767 Y17.638
X-35.924 Y17.859
X-36.1 Y18.063
X-36.295 Y18.25
X-36.506 Y18.418
X-36.733 Y18.565
X-36.972 Y18.69
X-37.222 Y18.792
X-37.48 Y18.87
X-37.744 Y18.924
X-38.013 Y18.954
X-38.283 Y18.958
X-38.552 Y18.937
X-38.818 Y18.892
X-39.079 Y18.822
X-39.332 Y18.729
X-39.576 Y18.613
X-39.808 Y18.475
X-40.026 Y18.316
X-40.229 Y18.138
X-40.415 Y17.943
X-40.583 Y17.731
X-40.731 Y17.505
X-40.857 Y17.267
X-40.962 Y17.018
X-41.044 Y16.761
X-41.103 Y16.498
X-41.137 Y16.23
X-41.148 Y15.96
X-41.134 Y15.691
X-41.096 Y15.423
X-41.034 Y15.161
X-40.949 Y14.904
X-40.842 Y14.657
X-40.713 Y14.419
X-40.563 Y14.195
X-40.394 Y13.984
X-40.207 Y13.79
X-40.004 Y13.612
X-39.785 Y13.454
X-39.554 Y13.315
X-39.311 Y13.198
X-39.058 Y13.102
X-38.799 Y13.029
X-38.533 Y12.979
X-38.263 Y12.952
X-37.993 Y12.948
X-37.724 Y12.968
X-37.457 Y13.012
X-37.192 Y13.08
X-36.934 Y13.17
X-36.688 Y13.281
X-36.45 Y13.414
X-36.223 Y13.568
X-36.009 Y13.743
X-35.812 Y13.934
X-35.634 Y14.14
X-35.473 Y14.363
X-35.331 Y14.601
X-35.21 Y14.851
X-35.111 Y15.109
X-35.036 Y15.372
X-34.984 Y15.644
X-34.955 Y15.92
X-34.95 Y16.199
X-34.97 Y16.476
X-35.013 Y16.75
X-35.08 Y17.019
X-35.17 Y17.282
X-35.284 Y17.538
X-35.42 Y17.783
X-35.576 Y18.016
X-35.752 Y18.234
X-35.945 Y18.435
X-36.157 Y18.62
X-36.385 Y18.786
X-36.628 Y18.933
X-36.754 Y18.999
X-37.014 Y19.113
X-37.281 Y19.203
X-37.556 Y19.27
X-37.838 Y19.314
X-38.123 Y19.332
X-38.409 Y19.326
X-38.694 Y19.295
X-38.977 Y19.239
X-39.255 Y19.159
X-39.523 Y19.055
X-39.781 Y18.928
X-40.028 Y18.779
X-40.263 Y18.608
X-40.481 Y18.417
X-40.683 Y18.208
X-40.866 Y17.981
X-41.03 Y17.738
X-41.172 Y17.482
X-41.29 Y17.215
X-41.386 Y16.938
X-41.457 Y16.652
X-41.503 Y16.362
X-41.524 Y16.07
X-41.52 Y15.776
X-41.489 Y15.483
X-41.433 Y15.193
X-41.353 Y14.91
X-41.248 Y14.634
X-41.119 Y14.368
X-40.967 Y14.113
X-40.793 Y13.872
X-40.599 Y13.648
X-40.386 Y13.44
X-40.155 Y13.251
X-39.908 Y13.083
X-39.648 Y12.937
X-39.375 Y12.814
X-39.092 Y12.715
X-38.8 Y12.64
X-38.503 Y12.591
X-38.202 Y12.568
X-37.899 Y12.572
X-37.597 Y12.601
X-37.298 Y12.657
X-37.005 Y12.739
X-36.719 Y12.846
X-36.443 Y12.978
X-36.179 Y13.134
X-35.929 Y13.312
X-35.696 Y13.511
X-35.48 Y13.731
X-35.283 Y13.968
X-35.108 Y14.223
X-34.956 Y14.491
X-34.827 Y14.772
X-34.723 Y15.064
X-34.645 Y15.364
X-34.593 Y15.67
X-34.568 Y15.979
X-34.57 Y16.29
X-34.598 Y16.599
X-34.654 Y16.906
X-34.736 Y17.207
X-34.844 Y17.5
X-34.978 Y17.783
X-35.135 Y18.053
X-35.316 Y18.309
X-35.518 Y18.549
X-35.741 Y18.771
X-35.984 Y18.973
X-36.243 Y19.153
X-36.517 Y19.311
X-36.804 Y19.444
X-37.102 Y19.552
X-37.408 Y19.634
X-37.722 Y19.689
X-38.04 Y19.716
X-38.36
X-38.679 Y19.688
X-38.995 Y19.633
X-39.305 Y19.55
X-39.608 Y19.44
X-39.9 Y19.304
X-40.179 Y19.143
X-40.444 Y18.958
X-40.693 Y18.751
X-40.923 Y18.521
X-41.133 Y18.273
X-41.32 Y18.007
X-41.484 Y17.725
X-41.623 Y17.429
X-41.736 Y17.122
X-41.822 Y16.807
X-41.88 Y16.485
X-41.911 Y16.159
X-41.912 Y15.831
X-41.885 Y15.504
X-41.83 Y15.18
X-41.747 Y14.862
X-41.636 Y14.552
X-41.498 Y14.252
X-41.335 Y13.965
X-41.148 Y13.693
X-40.937 Y13.438
X-40.704 Y13.202
X-40.452 Y12.986
X-40.181 Y12.794
X-39.894 Y12.625
X-39.593 Y12.481
X-39.28 Y12.364
X-38.958 Y12.274
X-38.628 Y12.213
X-38.294 Y12.18
X-37.957 Y12.177
X-37.621 Y12.203
X-37.288 Y12.258
X-36.96 Y12.342
X-36.639 Y12.454
X-36.33 Y12.594
X-36.033 Y12.761
X-35.752 Y12.953
X-35.487 Y13.169
X-35.243 Y13.408
X-35.019 Y13.667
X-34.819 Y13.945
X-34.644 Y14.239
X-34.494 Y14.548
X-34.372 Y14.87
X-34.278 Y15.201
X-34.213 Y15.539
X-34.178 Y15.882
X-34.173 Y16.226
X-34.197 Y16.571
X-34.252 Y16.912
X-34.336 Y17.248
X-34.449 Y17.576
X-34.59 Y17.893
X-34.759 Y18.196
X-34.953 Y18.484
X-35.172 Y18.755
X-35.415 Y19.006
X-35.678 Y19.236
X-35.961 Y19.442
X-36.261 Y19.623
X-36.576 Y19.777
X-36.904 Y19.904
X-37.242 Y20.002
X-37.588 Y20.07
X-37.939 Y20.108
X-38.293 Y20.115
X-38.647 Y20.092
X-38.998 Y20.038
X-39.343 Y19.953
X-39.681 Y19.839
X-40.007 Y19.695
X-40.32 Y19.523
X-40.471 Y19.427
X-40.76 Y19.216
X-41.03 Y18.98
X-41.279 Y18.721
X-41.505 Y18.441
X-41.706 Y18.141
X-41.88 Y17.826
X-42.026 Y17.496
X-42.144 Y17.154
X-42.231 Y16.803
X-42.287 Y16.445
X-42.312 Y16.084
X-42.306 Y15.721
X-42.268 Y15.36
X-42.199 Y15.003
X-42.099 Y14.653
X-41.969 Y14.313
X-41.81 Y13.985
X-41.622 Y13.672
X-41.408 Y13.376
X-41.169 Y13.1
X-40.906 Y12.844
X-40.621 Y12.613
X-40.317 Y12.406
X-39.996 Y12.227
X-39.66 Y12.076
X-39.312 Y11.954
X-38.953 Y11.863
X-38.588 Y11.803
X-38.218 Y11.776
X-37.846 Y11.78
X-37.475 Y11.817
X-37.109 Y11.886
X-36.749 Y11.987
X-36.399 Y12.119
X-36.061 Y12.281
X-35.738 Y12.472
X-35.432 Y12.691
X-35.146 Y12.935
X-34.883 Y13.204
X-34.643 Y13.496
X-34.429 Y13.807
X-34.243 Y14.136
X-34.086 Y14.48
X-33.959 Y14.837
X-33.864 Y15.204
X-33.801 Y15.578
X-33.771 Y15.957
X-33.773 Y16.337
X-33.809 Y16.716
X-33.877 Y17.091
X-33.978 Y17.458
X-34.111 Y17.816
X-34.274 Y18.162
X-34.467 Y18.492
X-34.689 Y18.805
X-34.937 Y19.098
X-35.21 Y19.368
X-35.505 Y19.614
X-35.822 Y19.834
X-36.156 Y20.026
X-36.507 Y20.188
X-36.871 Y20.319
X-37.246 Y20.419
X-37.628 Y20.485
X-38.015 Y20.518
X-38.405
X-38.793 Y20.483
X-39.178 Y20.415
X-39.555 Y20.313
X-39.923 Y20.179
X-40.278 Y20.013
X-40.619 Y19.817
X-40.941 Y19.591
X-41.243 Y19.338
X-41.522 Y19.06
X-41.776 Y18.757
X-42.004 Y18.434
X-42.202 Y18.091
X-42.371 Y17.732
X-42.507 Y17.36
X-42.611 Y16.977
X-42.681 Y16.586
X-42.717 Y16.19
X-42.718 Y15.791
X-42.685 Y15.394
X-42.618 Y15.001
X-42.516 Y14.615
X-42.381 Y14.239
X-42.214 Y13.876
X-42.015 Y13.528
X-41.787 Y13.198
X-41.531 Y12.889
X-41.249 Y12.603
X-40.942 Y12.342
X-40.614 Y12.109
X-40.266 Y11.905
X-39.901 Y11.731
X-39.522 Y11.59
X-39.131 Y11.482
X-38.732 Y11.408
X-38.327 Y11.369
X-37.92 Y11.366
X-37.513 Y11.398
X-37.11 Y11.465
X-36.714 Y11.567
X-36.328 Y11.703
X-35.954 Y11.873
X-35.596 Y12.074
X-35.256 Y12.307
X-34.938 Y12.568
X-34.643 Y12.856
X-34.374 Y13.169
X-34.133 Y13.505
X-33.921 Y13.861
X-33.742 Y14.234
X-33.595 Y14.621
X-33.482 Y15.021
X-33.405 Y15.429
X-33.363 Y15.842
X-33.357 Y16.258
X-33.387 Y16.673
X-33.454 Y17.085
X-33.555 Y17.489
X-33.692 Y17.884
X-33.863 Y18.265
X-34.067 Y18.631
X-34.301 Y18.978
X-34.566 Y19.304
X-34.858 Y19.606
X-35.175 Y19.882
X-35.516 Y20.129
X-35.877 Y20.346
X-36.257 Y20.532
X-36.651 Y20.683
X-37.058 Y20.801
X-37.474 Y20.882
X-37.897 Y20.927
X-38.322 Y20.935
X-38.747 Y20.907
X-39.168 Y20.841
X-39.582 Y20.739
X-39.987 Y20.601
X-40.379 Y20.428
X-40.755 Y20.222
X-41.111 Y19.983
X-41.447 Y19.714
X-41.758 Y19.416
X-42.042 Y19.092
X-42.297 Y18.745
X-42.522 Y18.376
X-42.714 Y17.988
X-42.871 Y17.585
X-42.993 Y17.169
X-43.079 Y16.744
X-43.127 Y16.313
X-43.138 Y15.879
X-43.11 Y15.446
X-43.046 Y15.015
X-42.944 Y14.592
X-42.805 Y14.179
X-42.631 Y13.779
X-42.423 Y13.395
X-42.182 Y13.031
X-41.91 Y12.688
X-41.609 Y12.37
X-41.281 Y12.079
X-40.928 Y11.817
X-40.554 Y11.587
X-40.16 Y11.389
X-39.75 Y11.227
X-39.328 Y11.1
X-38.895 Y11.011
X-38.455 Y10.959
X-38.012 Y10.946
X-37.568 Y10.971
X-37.128 Y11.035
X-36.695 Y11.137
X-36.271 Y11.276
X-35.861 Y11.452
X-35.467 Y11.663
X-35.092 Y11.908
X-34.739 Y12.185
X-34.412 Y12.492
X-34.112 Y12.826
X-33.842 Y13.186
X-33.604 Y13.568
X-33.4 Y13.969
X-33.232 Y14.387
X-33.1 Y14.819
X-33.007 Y15.261
X-32.952 Y15.709
X-32.936 Y16.162
X-32.959 Y16.614
X-33.022 Y17.062
X-33.123 Y17.505
X-33.263 Y17.937
X-33.44 Y18.355
X-33.653 Y18.757
X-33.9 Y19.14
X-34.18 Y19.5
X-34.49 Y19.835
X-34.829 Y20.141
X-35.193 Y20.418
X-35.58 Y20.662
X-35.988 Y20.872
X-36.413 Y21.046
X-36.631 Y21.119
X-36.853 Y21.183
X-37.076 Y21.236
X-37.303 Y21.28
X-37.53 Y21.315
X-37.76 Y21.339
X-37.99 Y21.353
X-38.221 Y21.358
X-38.452 Y21.352
X-38.683 Y21.336
X-38.913 Y21.31
X-39.142 Y21.275
X-39.369 Y21.229
X-39.594 Y21.173
X-39.816 Y21.108
X-40.036 Y21.033
X-40.252 Y20.948
X-40.465 Y20.854
X-40.674 Y20.751
X-40.877 Y20.639
X-41.076 Y20.518
X-41.27 Y20.388
X-41.458 Y20.25
X-41.64 Y20.104
X-41.815 Y19.95
X-41.984 Y19.788
X-42.145 Y19.619
X-42.3 Y19.443
X-42.446 Y19.261
X-42.585 Y19.072
X-42.715 Y18.877
X-42.836 Y18.677
X-42.949 Y18.472
X-43.053 Y18.261
X-43.148 Y18.047
X-43.233 Y17.828
X-43.309 Y17.606
X-43.375 Y17.38
X-43.431 Y17.152
X-43.477 Y16.921
X-43.513 Y16.689
X-43.539 Y16.455
X-43.555 Y16.22
X-43.561 Y15.985
X-43.556 Y15.749
X-43.542 Y15.514
X-43.516 Y15.279
X-43.481 Y15.046
X-43.436 Y14.814
X-43.38 Y14.585
X-43.315 Y14.358
X-43.24 Y14.134
X-43.155 Y13.913
X-43.06 Y13.696
X-42.956 Y13.484
X-42.843 Y13.276
X-42.721 Y13.073
X-42.59 Y12.875
X-42.451 Y12.683
X-42.303 Y12.498
X-42.148 Y12.318
X-41.984 Y12.146
X-41.813 Y11.981
X-41.636 Y11.823
X-41.451 Y11.673
X-41.26 Y11.532
X-41.062 Y11.398
X-40.859 Y11.273
X-40.651 Y11.157
X-40.437 Y11.051
X-40.219 Y10.953
X-39.997 Y10.865
X-39.771 Y10.787
X-39.542 Y10.718
X-39.31 Y10.66
X-39.075 Y10.612
X-38.839 Y10.574
X-38.6 Y10.546
X-38.361 Y10.528
X-38.121 Y10.521
X-37.881 Y10.525
X-37.64 Y10.539
X-37.401 Y10.563
X-37.163 Y10.598
X-36.926 Y10.643
X-36.691 Y10.698
X-36.459 Y10.764
X-36.23 Y10.839
X-36.004 Y10.925
X-35.782 Y11.02
X-35.564 Y11.125
X-35.35 Y11.24
X-35.142 Y11.364
X-34.939 Y11.496
X-34.742 Y11.638
X-34.552 Y11.788
X-34.368 Y11.946
X-34.191 Y12.112
X-34.021 Y12.286
X-33.859 Y12.467
X-33.705 Y12.655
X-33.559 Y12.85
X-33.421 Y13.051
X-33.293 Y13.257
X-33.173 Y13.47
X-33.063 Y13.687
X-32.962 Y13.909
X-32.871 Y14.136
X-32.79 Y14.366
X-32.719 Y14.599
X-32.658 Y14.836
X-32.607 Y15.075
X-32.567 Y15.316
X-32.538 Y15.559
X-32.519 Y15.803
X-32.51 Y16.047
X-32.512 Y16.292
X-32.525 Y16.537
X-32.549 Y16.781
X-32.583 Y17.023
X-32.627 Y17.265
X-32.683 Y17.504
X-32.748 Y17.74
X-32.824 Y17.974
X-32.91 Y18.204
X-33.005 Y18.431
X-33.111 Y18.653
X-33.226 Y18.87
X-33.351 Y19.082
X-33.485 Y19.289
X-33.627 Y19.49
X-33.779 Y19.685
X-33.939 Y19.873
X-34.107 Y20.054
X-34.282 Y20.227
X-34.466 Y20.393
X-34.656 Y20.551
X-34.853 Y20.7
X-35.057 Y20.841
X-35.266 Y20.973
X-35.482 Y21.095
X-35.702 Y21.209
X-35.928 Y21.312
X-36.157 Y21.406
X-36.391 Y21.49
X-36.629 Y21.564
X-36.869 Y21.627
X-37.112 Y21.68
X-37.358 Y21.722
X-37.605 Y21.753
X-37.853 Y21.774
X-38.103 Y21.784
X-38.352 Y21.783
X-38.602 Y21.771
X-38.851 Y21.749
X-39.099 Y21.715
X-39.345 Y21.671
X-39.589 Y21.616
X-39.831 Y21.551
X-40.07 Y21.475
X-40.305 Y21.388
X-40.537 Y21.292
X-40.764 Y21.185
X-40.987 Y21.068
X-41.204 Y20.942
X-41.416 Y20.807
X-41.622 Y20.662
X-41.822 Y20.508
X-42.015 Y20.346
X-42.2 Y20.176
X-42.378 Y19.997
X-42.549 Y19.811
X-42.711 Y19.617
X-42.865 Y19.417
X-43.01 Y19.209
X-43.145 Y18.996
X-43.272 Y18.777
X-43.389 Y18.552
X-43.496 Y18.323
X-43.593 Y18.089
X-43.679 Y17.851
X-43.756 Y17.609
X-43.822 Y17.364
X-43.877 Y17.117
X-43.921 Y16.867
X-43.954 Y16.615
X-43.977 Y16.362
X-43.988 Y16.108
X-43.989 Y15.854
X-43.978 Y15.6
X-43.956 Y15.346
X-43.924 Y15.094
X-43.88 Y14.843
X-43.825 Y14.594
X-43.76 Y14.348
X-43.684 Y14.104
X-43.597 Y13.864
X-43.5 Y13.628
X-43.393 Y13.397
X-43.276 Y13.17
X-43.149 Y12.948
X-43.012 Y12.732
X-42.866 Y12.522
X-42.711 Y12.318
X-42.547 Y12.122
X-42.375 Y11.932
X-42.195 Y11.75
X-42.006 Y11.576
X-41.811 Y11.41
X-41.608 Y11.253
X-41.398 Y11.105
X-41.182 Y10.966
X-40.96 Y10.836
X-40.732 Y10.716
X-40.5 Y10.606
X-40.262 Y10.506
X-40.021 Y10.417
X-39.775 Y10.338
X-39.526 Y10.27
X-39.275 Y10.212
X-39.02 Y10.166
X-38.764 Y10.13
X-38.507 Y10.106
X-38.248 Y10.093
X-37.989 Y10.091
X-37.73 Y10.101
X-37.472 Y10.122
X-37.214 Y10.154
X-36.958 Y10.197
X-36.704 Y10.251
X-36.453 Y10.317
X-36.204 Y10.393
X-35.959 Y10.48
X-35.717 Y10.578
X-35.48 Y10.686
X-35.248 Y10.804
X-35.021 Y10.933
X-34.8 Y11.071
X-34.584 Y11.219
X-34.376 Y11.376
X-34.174 Y11.542
X-33.979 Y11.717
X-33.793 Y11.9
X-33.614 Y12.092
X-33.444 Y12.291
X-33.282 Y12.497
X-33.13 Y12.71
X-32.987 Y12.93
X-32.853 Y13.156
X-32.73 Y13.387
X-32.616 Y13.624
X-32.513 Y13.865
X-32.42 Y14.111
X-32.339 Y14.361
X-32.268 Y14.614
X-32.208 Y14.871
X-32.159 Y15.129
X-32.122 Y15.39
X-32.096 Y15.652
X-32.081 Y15.915
X-32.078 Y16.179
X-32.086 Y16.442
X-32.106 Y16.705
X-32.137 Y16.967
X-32.18 Y17.228
X-32.234 Y17.486
X-32.299 Y17.742
X-32.375 Y17.996
X-32.462 Y18.245
X-32.56 Y18.491
X-32.669 Y18.732
X-32.788 Y18.969
X-32.917 Y19.2
X-33.056 Y19.426
X-33.205 Y19.645
X-33.364 Y19.858
X-33.532 Y20.064
X-33.708 Y20.262
X-33.893 Y20.453
X-34.087 Y20.635
X-34.288 Y20.809
X-34.496 Y20.975
X-34.712 Y21.131
X-34.935 Y21.277
X-35.163 Y21.414
X-35.398 Y21.541
X-35.638 Y21.658
X-35.883 Y21.764
X-36.133 Y21.859
X-36.386 Y21.944
X-36.644 Y22.017
X-36.904 Y22.079
X-37.167 Y22.13
X-37.432 Y22.17
X-37.698 Y22.198
X-37.966 Y22.214
X-38.235 Y22.219
X-38.503 Y22.212
X-38.771 Y22.193
X-39.038 Y22.163
X-39.304 Y22.121
X-39.568 Y22.067
X-39.829 Y22.002
X-40.088 Y21.926
X-40.343 Y21.838
X-40.594 Y21.74
X-40.84 Y21.63
X-41.082 Y21.51
X-41.319 Y21.379
X-41.55 Y21.239
X-41.774 Y21.088
X-41.992 Y20.927
X-42.203 Y20.757
X-42.406 Y20.578
X-42.602 Y20.39
X-42.789 Y20.194
X-42.968 Y19.99
X-43.137 Y19.778
X-43.297 Y19.559
X-43.448 Y19.333
X-43.589 Y19.1
X-43.72 Y18.862
X-43.84 Y18.617
X-43.949 Y18.368
X-44.048 Y18.114
X-44.135 Y17.857
X-44.211 Y17.595
X-44.276 Y17.33
X-44.33 Y17.063
X-44.371 Y16.793
X-44.401 Y16.522
X-44.419 Y16.249
X-44.425 Y15.976
X-44.419 Y15.703
X-44.402 Y15.431
X-44.372 Y15.159
X-44.331 Y14.888
X-44.278 Y14.62
X-44.214 Y14.354
X-44.137 Y14.091
X-44.05 Y13.831
X-43.951 Y13.576
X-43.841 Y13.324
X-43.72 Y13.078
X-43.589 Y12.837
X-43.447 Y12.602
X-43.295 Y12.373
X-43.133 Y12.151
X-42.962 Y11.936
X-42.781 Y11.729
X-42.592 Y11.53
X-42.394 Y11.338
X-42.187 Y11.156
X-41.973 Y10.983
X-41.751 Y10.819
X-41.523 Y10.665
X-41.287 Y10.52
X-41.046 Y10.387
X-40.798 Y10.263
X-40.546 Y10.151
X-40.288 Y10.049
X-40.027 Y9.959
X-39.761 Y9.88
X-39.493 Y9.813
X-39.221 Y9.757
X-38.947 Y9.713
X-38.671 Y9.682
X-38.394 Y9.662
X-38.116 Y9.654
X-37.838 Y9.658
X-37.56 Y9.675
X-37.284 Y9.703
X-37.008 Y9.744
X-36.734 Y9.796
X-36.463 Y9.861
X-36.194 Y9.937
X-35.929 Y10.025
X-35.668 Y10.124
X-35.412 Y10.235
X-35.16 Y10.357
X-34.914 Y10.489
X-34.673 Y10.633
X-34.439 Y10.786
X-34.212 Y10.95
X-33.992 Y11.124
X-33.779 Y11.307
X-33.575 Y11.499
X-33.379 Y11.7
X-33.192 Y11.91
X-33.014 Y12.127
X-32.846 Y12.352
X-32.687 Y12.584
X-32.539 Y12.824
X-32.401 Y13.069
X-32.274 Y13.32
X-32.159 Y13.577
X-32.054 Y13.838
X-31.96 Y14.104
X-31.879 Y14.374
X-31.809 Y14.647
X-31.733 Y15.038
X-31.73 Y15.062
X-31.68 Y15.548
X-31.673 Y15.622
X-31.669 Y15.655
X-31.652 Y15.987
X-31.654 Y16.268
X-31.659 Y16.318
G3 X-32.255 Y16.277 R0.3
G1 X-32.266 Y15.702
G3 X-31.669 Y15.655 R0.3
G1 X-31.631 Y16.087
X-31.762 Y17.163
X-31.805 Y17.5
X-32.3 Y18.872
X-33.079 Y20.086
X-34.099 Y21.093
X-35.314 Y21.85
X-35.53 Y21.931
X-36.708 Y22.334
X-38.155 Y22.488
X-39.568 Y22.324
X-40.947 Y21.838
X-42.169 Y21.067
X-43.202 Y20.031
X-43.964 Y18.812
X-44.446 Y17.433
X-44.613 Y15.952
X-44.413 Y14.43
X-43.908 Y13.072
X-43.117 Y11.864
X-42.084 Y10.865
X-40.846 Y10.114
X-39.467 Y9.653
X-38.02 Y9.513
X-36.607 Y9.69
X-35.228 Y10.191
X-34.019 Y10.971
X-32.999 Y12.014
X-32.237 Y13.26
X-31.781 Y14.606
X-31.73 Y15.062
X-31.729 Y15.082 Z-4.998
X-31.736 Y15.12 Z-4.984
X-31.741 Y15.151 Z-4.958
X-31.744 Y15.171 Z-4.922
X-31.745 Y15.178 Z-4.882
G0 Z5.
X-53.652 Y40.225
Z2.845
G1 Z2.545 F466.
G3 X-54.372 Y39.774 Z2.498 R0.425
X-53.652 Y40.225 Z2.452 R0.425
X-54.372 Y39.774 Z2.405 R0.425
X-53.652 Y40.225 Z2.358 R0.425
X-54.372 Y39.774 Z2.312 R0.425
X-53.652 Y40.225 Z2.265 R0.425
X-54.372 Y39.774 Z2.219 R0.425
X-53.652 Y40.225 Z2.172 R0.425
X-54.372 Y39.774 Z2.125 R0.425
X-53.652 Y40.225 Z2.079 R0.425
X-54.372 Y39.774 Z2.032 R0.425
X-53.652 Y40.225 Z1.985 R0.425
X-54.372 Y39.774 Z1.939 R0.425
X-53.652 Y40.225 Z1.892 R0.425
X-54.372 Y39.774 Z1.846 R0.425
X-53.652 Y40.225 Z1.799 R0.425
X-54.372 Y39.774 Z1.752 R0.425
X-53.652 Y40.225 Z1.706 R0.425
X-54.372 Y39.774 Z1.659 R0.425
X-53.652 Y40.225 Z1.612 R0.425
X-54.372 Y39.774 Z1.566 R0.425
X-53.652 Y40.225 Z1.519 R0.425
X-54.372 Y39.774 Z1.473 R0.425
X-53.652 Y40.225 Z1.426 R0.425
X-54.372 Y39.774 Z1.379 R0.425
X-53.652 Y40.225 Z1.333 R0.425
X-54.372 Y39.774 Z1.286 R0.425
X-53.652 Y40.225 Z1.239 R0.425
X-54.372 Y39.774 Z1.193 R0.425
X-53.652 Y40.225 Z1.146 R0.425
X-54.372 Y39.774 Z1.1 R0.425
X-53.652 Y40.225 Z1.053 R0.425
X-54.372 Y39.774 Z1.006 R0.425
X-53.652 Y40.225 Z0.96 R0.425
X-54.372 Y39.774 Z0.913 R0.425
X-53.652 Y40.225 Z0.866 R0.425
X-54.372 Y39.774 Z0.82 R0.425
X-53.652 Y40.225 Z0.773 R0.425
X-54.372 Y39.774 Z0.727 R0.425
X-53.652 Y40.225 Z0.68 R0.425
X-54.372 Y39.774 Z0.633 R0.425
X-53.652 Y40.225 Z0.587 R0.425
X-54.372 Y39.774 Z0.54 R0.425
X-53.652 Y40.225 Z0.493 R0.425
X-54.372 Y39.774 Z0.447 R0.425
X-53.652 Y40.225 Z0.4 R0.425
X-54.372 Y39.774 Z0.354 R0.425
X-53.652 Y40.225 Z0.307 R0.425
X-54.372 Y39.774 Z0.26 R0.425
X-53.652 Y40.225 Z0.214 R0.425
X-54.372 Y39.774 Z0.167 R0.425
X-53.652 Y40.225 Z0.12 R0.425
X-54.372 Y39.774 Z0.074 R0.425
X-53.652 Y40.225 Z0.027 R0.425
X-54.372 Y39.774 Z-0.019 R0.425
X-53.652 Y40.225 Z-0.066 R0.425
X-54.372 Y39.774 Z-0.113 R0.425
X-53.652 Y40.225 Z-0.159 R0.425
X-54.372 Y39.774 Z-0.206 R0.425
X-53.652 Y40.225 Z-0.253 R0.425
X-54.372 Y39.774 Z-0.299 R0.425
X-53.652 Y40.225 Z-0.346 R0.425
X-54.372 Y39.774 Z-0.392 R0.425
X-53.652 Y40.225 Z-0.439 R0.425
X-54.372 Y39.774 Z-0.486 R0.425
X-53.652 Y40.225 Z-0.532 R0.425
X-54.372 Y39.774 Z-0.579 R0.425
X-53.652 Y40.225 Z-0.626 R0.425
X-54.372 Y39.774 Z-0.672 R0.425
X-53.652 Y40.225 Z-0.719 R0.425
X-54.372 Y39.774 Z-0.765 R0.425
X-53.652 Y40.225 Z-0.812 R0.425
X-54.372 Y39.774 Z-0.859 R0.425
X-53.652 Y40.225 Z-0.905 R0.425
X-54.372 Y39.774 Z-0.952 R0.425
X-53.652 Y40.225 Z-0.999 R0.425
X-54.372 Y39.774 Z-1.045 R0.425
X-53.652 Y40.225 Z-1.092 R0.425
X-54.372 Y39.774 Z-1.138 R0.425
X-53.652 Y40.225 Z-1.185 R0.425
X-54.372 Y39.774 Z-1.232 R0.425
X-53.652 Y40.225 Z-1.278 R0.425
X-54.372 Y39.774 Z-1.325 R0.425
X-53.652 Y40.225 Z-1.372 R0.425
X-54.372 Y39.774 Z-1.418 R0.425
X-53.652 Y40.225 Z-1.465 R0.425
X-54.372 Y39.774 Z-1.511 R0.425
X-53.652 Y40.225 Z-1.558 R0.425
X-54.372 Y39.774 Z-1.605 R0.425
X-53.652 Y40.225 Z-1.651 R0.425
X-54.372 Y39.774 Z-1.698 R0.425
X-53.652 Y40.225 Z-1.745 R0.425
X-54.372 Y39.774 Z-1.791 R0.425
X-53.652 Y40.225 Z-1.838 R0.425
X-54.372 Y39.774 Z-1.884 R0.425
X-53.652 Y40.225 Z-1.931 R0.425
X-54.372 Y39.774 Z-1.978 R0.425
X-53.652 Y40.225 Z-2.024 R0.425
X-54.372 Y39.774 Z-2.071 R0.425
X-53.652 Y40.225 Z-2.118 R0.425
X-54.372 Y39.774 Z-2.164 R0.425
X-53.652 Y40.225 Z-2.211 R0.425
X-54.372 Y39.774 Z-2.257 R0.425
X-53.652 Y40.225 Z-2.304 R0.425
X-54.372 Y39.774 Z-2.351 R0.425
X-53.652 Y40.225 Z-2.397 R0.425
X-54.372 Y39.774 Z-2.444 R0.425
X-53.652 Y40.225 Z-2.491 R0.425
X-54.372 Y39.774 Z-2.537 R0.425
X-53.652 Y40.225 Z-2.584 R0.425
X-54.372 Y39.774 Z-2.63 R0.425
X-53.652 Y40.225 Z-2.677 R0.425
X-54.372 Y39.774 Z-2.724 R0.425
X-53.652 Y40.225 Z-2.77 R0.425
X-54.372 Y39.774 Z-2.817 R0.425
X-53.652 Y40.225 Z-2.864 R0.425
X-54.372 Y39.774 Z-2.91 R0.425
X-53.652 Y40.225 Z-2.957 R0.425
X-54.372 Y39.774 Z-3.003 R0.425
X-53.652 Y40.225 Z-3.05 R0.425
X-54.372 Y39.774 Z-3.097 R0.425
X-53.652 Y40.225 Z-3.143 R0.425
X-54.372 Y39.774 Z-3.19 R0.425
X-53.652 Y40.225 Z-3.237 R0.425
X-54.372 Y39.774 Z-3.283 R0.425
X-53.652 Y40.225 Z-3.33 R0.425
X-54.372 Y39.774 Z-3.376 R0.425
X-53.652 Y40.225 Z-3.423 R0.425
X-54.372 Y39.774 Z-3.47 R0.425
X-53.652 Y40.225 Z-3.516 R0.425
X-54.372 Y39.774 Z-3.563 R0.425
X-53.652 Y40.225 Z-3.61 R0.425
X-54.372 Y39.774 Z-3.656 R0.425
X-53.652 Y40.225 Z-3.703 R0.425
X-54.372 Y39.774 Z-3.749 R0.425
X-53.652 Y40.225 Z-3.796 R0.425
X-54.372 Y39.774 Z-3.843 R0.425
X-53.652 Y40.225 Z-3.889 R0.425
X-54.372 Y39.774 Z-3.936 R0.425
X-53.652 Y40.225 Z-3.983 R0.425
X-54.372 Y39.774 Z-4.029 R0.425
X-53.652 Y40.225 Z-4.076 R0.425
X-54.372 Y39.774 Z-4.122 R0.425
X-53.652 Y40.225 Z-4.169 R0.425
X-54.372 Y39.774 Z-4.216 R0.425
X-53.652 Y40.225 Z-4.262 R0.425
X-54.372 Y39.774 Z-4.309 R0.425
X-53.652 Y40.225 Z-4.356 R0.425
X-54.372 Y39.774 Z-4.402 R0.425
X-53.652 Y40.225 Z-4.449 R0.425
X-54.372 Y39.774 Z-4.495 R0.425
X-53.652 Y40.225 Z-4.542 R0.425
X-54.372 Y39.774 Z-4.589 R0.425
X-53.652 Y40.225 Z-4.635 R0.425
X-54.372 Y39.774 Z-4.682 R0.425
X-53.652 Y40.225 Z-4.729 R0.425
X-54.372 Y39.774 Z-4.775 R0.425
X-53.652 Y40.225 Z-4.822 R0.425
X-54.372 Y39.774 Z-4.868 R0.425
X-53.652 Y40.225 Z-4.915 R0.425
X-54.372 Y39.774 Z-4.962 R0.425
X-53.587 Y40. Z-5. R0.425
X-54.437 R0.425
X-53.587 R0.425
G1 X-53.568 Y40.285
X-53.628 Y40.405
X-53.724 Y40.5
X-53.843 Y40.565
X-53.974 Y40.596
X-54.109 Y40.595
X-54.24 Y40.563
X-54.36 Y40.501
X-54.463 Y40.414
X-54.544 Y40.305
X-54.599 Y40.182
X-54.625 Y40.05
X-54.622 Y39.915
X-54.589 Y39.784
X-54.528 Y39.663
X-54.443 Y39.559
X-54.337 Y39.475
X-54.215 Y39.417
X-54.083 Y39.387
X-53.948 Y39.386
X-53.816 Y39.415
X-53.694 Y39.471
X-53.586 Y39.553
X-53.5 Y39.657
X-53.432 Y39.773
X-53.379 Y39.898
X-53.346 Y40.029
X-53.341 Y40.164
X-53.362 Y40.297
X-53.409 Y40.423
X-53.482 Y40.537
X-53.576 Y40.634
X-53.686 Y40.712
X-53.809 Y40.767
X-53.94 Y40.799
X-54.075 Y40.806
X-54.209 Y40.79
X-54.339 Y40.752
X-54.459 Y40.692
X-54.568 Y40.611
X-54.662 Y40.514
X-54.739 Y40.403
X-54.796 Y40.281
X-54.832 Y40.151
X-54.847 Y40.017
X-54.84 Y39.882
X-54.81 Y39.75
X-54.76 Y39.625
X-54.69 Y39.509
X-54.603 Y39.406
X-54.5 Y39.319
X-54.384 Y39.249
X-54.259 Y39.199
X-54.128 Y39.169
X-53.993 Y39.162
X-53.859 Y39.176
X-53.728 Y39.211
X-53.605 Y39.266
X-53.492 Y39.34
X-53.391 Y39.429
X-53.302 Y39.531
X-53.228 Y39.644
X-53.169 Y39.765
X-53.129 Y39.894
X-53.107 Y40.028
X-53.104 Y40.163
X-53.121 Y40.296
X-53.158 Y40.426
X-53.214 Y40.549
X-53.286 Y40.663
X-53.374 Y40.765
X-53.477 Y40.854
X-53.59 Y40.926
X-53.713 Y40.983
X-53.842 Y41.022
X-53.976 Y41.042
X-54.111 Y41.044
X-54.245 Y41.029
X-54.376 Y40.995
X-54.501 Y40.945
X-54.619 Y40.879
X-54.726 Y40.798
X-54.823 Y40.704
X-54.907 Y40.598
X-54.977 Y40.482
X-55.031 Y40.358
X-55.069 Y40.229
X-55.091 Y40.096
X-55.096 Y39.961
X-55.083 Y39.826
X-55.054 Y39.695
X-55.009 Y39.567
X-54.948 Y39.447
X-54.873 Y39.335
X-54.784 Y39.233
X-54.683 Y39.143
X-54.572 Y39.066
X-54.453 Y39.004
X-54.326 Y38.957
X-54.195 Y38.926
X-54.06 Y38.911
X-53.925 Y38.913
X-53.792 Y38.932
X-53.661 Y38.967
X-53.536 Y39.017
X-53.417 Y39.081
X-53.306 Y39.158
X-53.204 Y39.247
X-53.113 Y39.346
X-53.034 Y39.456
X-52.967 Y39.573
X-52.913 Y39.697
X-52.874 Y39.826
X-52.85 Y39.959
X-52.84 Y40.093
X-52.856 Y40.289
X-52.886 Y40.425
X-52.892 Y40.446
X-52.893 Y40.452
X-52.905 Y40.489
X-52.924 Y40.54
G3 X-53.283 Y40.681 R0.288
X-53.081 Y40.142 R0.287
X-52.905 Y40.489 R0.287
G1 X-52.95 Y40.586
X-53.191 Y40.894
X-53.228 Y40.928
X-53.598 Y41.142
X-53.699 Y41.167
X-54.069 Y41.215
X-54.507 Y41.111
X-54.691 Y40.99
X-54.876 Y40.856
X-54.91 Y40.819
X-55.126 Y40.486
X-55.16 Y40.385
X-55.243 Y39.947
X-55.235 Y39.846
X-55.055 Y39.375
X-54.82 Y39.106
X-54.743 Y39.027
X-54.507 Y38.906
X-54.358 Y38.836
X-54.298 Y38.819
X-53.867 Y38.793
X-53.565 Y38.884
X-53.401 Y38.949
X-53.161 Y39.149
X-53.043 Y39.269
X-52.85 Y39.644
X-52.815 Y39.913
X-52.8 Y40.082
X-52.817 Y40.183
X-52.886 Y40.425
X-52.903 Y40.456 Z-4.994
X-52.919 Y40.485 Z-4.977
X-52.932 Y40.507 Z-4.951
X-52.94 Y40.522 Z-4.918
X-52.943 Y40.527 Z-4.882
G0 Z5.
X0.348 Y43.076
Z2.845
G1 Z2.545 F466.
G3 X-0.372 Y42.624 Z2.498 R0.425
X0.348 Y43.076 Z2.452 R0.425
X-0.372 Y42.624 Z2.405 R0.425
X0.348 Y43.076 Z2.358 R0.425
X-0.372 Y42.624 Z2.312 R0.425
X0.348 Y43.076 Z2.265 R0.425
X-0.372 Y42.624 Z2.219 R0.425
X0.348 Y43.076 Z2.172 R0.425
X-0.372 Y42.624 Z2.125 R0.425
X0.348 Y43.076 Z2.079 R0.425
X-0.372 Y42.624 Z2.032 R0.425
X0.348 Y43.076 Z1.985 R0.425
X-0.372 Y42.624 Z1.939 R0.425
X0.348 Y43.076 Z1.892 R0.425
X-0.372 Y42.624 Z1.846 R0.425
X0.348 Y43.076 Z1.799 R0.425
X-0.372 Y42.624 Z1.752 R0.425
X0.348 Y43.076 Z1.706 R0.425
X-0.372 Y42.624 Z1.659 R0.425
X0.348 Y43.076 Z1.612 R0.425
X-0.372 Y42.624 Z1.566 R0.425
X0.348 Y43.076 Z1.519 R0.425
X-0.372 Y42.624 Z1.473 R0.425
X0.348 Y43.076 Z1.426 R0.425
X-0.372 Y42.624 Z1.379 R0.425
X0.348 Y43.076 Z1.333 R0.425
X-0.372 Y42.624 Z1.286 R0.425
X0.348 Y43.076 Z1.239 R0.425
X-0.372 Y42.624 Z1.193 R0.425
X0.348 Y43.076 Z1.146 R0.425
X-0.372 Y42.624 Z1.1 R0.425
X0.348 Y43.076 Z1.053 R0.425
X-0.372 Y42.624 Z1.006 R0.425
X0.348 Y43.076 Z0.96 R0.425
X-0.372 Y42.624 Z0.913 R0.425
X0.348 Y43.076 Z0.866 R0.425
X-0.372 Y42.624 Z0.82 R0.425
X0.348 Y43.076 Z0.773 R0.425
X-0.372 Y42.624 Z0.727 R0.425
X0.348 Y43.076 Z0.68 R0.425
X-0.372 Y42.624 Z0.633 R0.425
X0.348 Y43.076 Z0.587 R0.425
X-0.372 Y42.624 Z0.54 R0.425
X0.348 Y43.076 Z0.493 R0.425
X-0.372 Y42.624 Z0.447 R0.425
X0.348 Y43.076 Z0.4 R0.425
X-0.372 Y42.624 Z0.354 R0.425
X0.348 Y43.076 Z0.307 R0.425
X-0.372 Y42.624 Z0.26 R0.425
X0.348 Y43.076 Z0.214 R0.425
X-0.372 Y42.624 Z0.167 R0.425
X0.348 Y43.076 Z0.12 R0.425
X-0.372 Y42.624 Z0.074 R0.425
X0.348 Y43.076 Z0.027 R0.425
X-0.372 Y42.624 Z-0.019 R0.425
X0.348 Y43.076 Z-0.066 R0.425
X-0.372 Y42.624 Z-0.113 R0.425
X0.348 Y43.076 Z-0.159 R0.425
X-0.372 Y42.624 Z-0.206 R0.425
X0.348 Y43.076 Z-0.253 R0.425
X-0.372 Y42.624 Z-0.299 R0.425
X0.348 Y43.076 Z-0.346 R0.425
X-0.372 Y42.624 Z-0.392 R0.425
X0.348 Y43.076 Z-0.439 R0.425
X-0.372 Y42.624 Z-0.486 R0.425
X0.348 Y43.076 Z-0.532 R0.425
X-0.372 Y42.624 Z-0.579 R0.425
X0.348 Y43.076 Z-0.626 R0.425
X-0.372 Y42.624 Z-0.672 R0.425
X0.348 Y43.076 Z-0.719 R0.425
X-0.372 Y42.624 Z-0.765 R0.425
X0.348 Y43.076 Z-0.812 R0.425
X-0.372 Y42.624 Z-0.859 R0.425
X0.348 Y43.076 Z-0.905 R0.425
X-0.372 Y42.624 Z-0.952 R0.425
X0.348 Y43.076 Z-0.999 R0.425
X-0.372 Y42.624 Z-1.045 R0.425
X0.348 Y43.076 Z-1.092 R0.425
X-0.372 Y42.624 Z-1.138 R0.425
X0.348 Y43.076 Z-1.185 R0.425
X-0.372 Y42.624 Z-1.232 R0.425
X0.348 Y43.076 Z-1.278 R0.425
X-0.372 Y42.624 Z-1.325 R0.425
X0.348 Y43.076 Z-1.372 R0.425
X-0.372 Y42.624 Z-1.418 R0.425
X0.348 Y43.076 Z-1.465 R0.425
X-0.372 Y42.624 Z-1.511 R0.425
X0.348 Y43.076 Z-1.558 R0.425
X-0.372 Y42.624 Z-1.605 R0.425
X0.348 Y43.076 Z-1.651 R0.425
X-0.372 Y42.624 Z-1.698 R0.425
X0.348 Y43.076 Z-1.745 R0.425
X-0.372 Y42.624 Z-1.791 R0.425
X0.348 Y43.076 Z-1.838 R0.425
X-0.372 Y42.624 Z-1.884 R0.425
X0.348 Y43.076 Z-1.931 R0.425
X-0.372 Y42.624 Z-1.978 R0.425
X0.348 Y43.076 Z-2.024 R0.425
X-0.372 Y42.624 Z-2.071 R0.425
X0.348 Y43.076 Z-2.118 R0.425
X-0.372 Y42.624 Z-2.164 R0.425
X0.348 Y43.076 Z-2.211 R0.425
X-0.372 Y42.624 Z-2.257 R0.425
X0.348 Y43.076 Z-2.304 R0.425
X-0.372 Y42.624 Z-2.351 R0.425
X0.348 Y43.076 Z-2.397 R0.425
X-0.372 Y42.624 Z-2.444 R0.425
X0.348 Y43.076 Z-2.491 R0.425
X-0.372 Y42.624 Z-2.537 R0.425
X0.348 Y43.076 Z-2.584 R0.425
X-0.372 Y42.624 Z-2.63 R0.425
X0.348 Y43.076 Z-2.677 R0.425
X-0.372 Y42.624 Z-2.724 R0.425
X0.348 Y43.076 Z-2.77 R0.425
X-0.372 Y42.624 Z-2.817 R0.425
X0.348 Y43.076 Z-2.864 R0.425
X-0.372 Y42.624 Z-2.91 R0.425
X0.348 Y43.076 Z-2.957 R0.425
X-0.372 Y42.624 Z-3.003 R0.425
X0.348 Y43.076 Z-3.05 R0.425
X-0.372 Y42.624 Z-3.097 R0.425
X0.348 Y43.076 Z-3.143 R0.425
X-0.372 Y42.624 Z-3.19 R0.425
X0.348 Y43.076 Z-3.237 R0.425
X-0.372 Y42.624 Z-3.283 R0.425
X0.348 Y43.076 Z-3.33 R0.425
X-0.372 Y42.624 Z-3.376 R0.425
X0.348 Y43.076 Z-3.423 R0.425
X-0.372 Y42.624 Z-3.47 R0.425
X0.348 Y43.076 Z-3.516 R0.425
X-0.372 Y42.624 Z-3.563 R0.425
X0.348 Y43.076 Z-3.61 R0.425
X-0.372 Y42.624 Z-3.656 R0.425
X0.348 Y43.076 Z-3.703 R0.425
X-0.372 Y42.624 Z-3.749 R0.425
X0.348 Y43.076 Z-3.796 R0.425
X-0.372 Y42.624 Z-3.843 R0.425
X0.348 Y43.076 Z-3.889 R0.425
X-0.372 Y42.624 Z-3.936 R0.425
X0.348 Y43.076 Z-3.983 R0.425
X-0.372 Y42.624 Z-4.029 R0.425
X0.348 Y43.076 Z-4.076 R0.425
X-0.372 Y42.624 Z-4.122 R0.425
X0.348 Y43.076 Z-4.169 R0.425
X-0.372 Y42.624 Z-4.216 R0.425
X0.348 Y43.076 Z-4.262 R0.425
X-0.372 Y42.624 Z-4.309 R0.425
X0.348 Y43.076 Z-4.356 R0.425
X-0.372 Y42.624 Z-4.402 R0.425
X0.348 Y43.076 Z-4.449 R0.425
X-0.372 Y42.624 Z-4.495 R0.425
X0.348 Y43.076 Z-4.542 R0.425
X-0.372 Y42.624 Z-4.589 R0.425
X0.348 Y43.076 Z-4.635 R0.425
X-0.372 Y42.624 Z-4.682 R0.425
X0.348 Y43.076 Z-4.729 R0.425
X-0.372 Y42.624 Z-4.775 R0.425
X0.348 Y43.076 Z-4.822 R0.425
X-0.372 Y42.624 Z-4.868 R0.425
X0.348 Y43.076 Z-4.915 R0.425
X-0.372 Y42.624 Z-4.962 R0.425
X0.413 Y42.85 Z-5. R0.425
X-0.437 R0.425
X0.413 R0.425
G1 X0.432 Y43.135
X0.372 Y43.256
X0.276 Y43.351
X0.157 Y43.415
X0.026 Y43.447
X-0.109 Y43.446
X-0.24 Y43.413
X-0.36 Y43.351
X-0.463 Y43.264
X-0.544 Y43.156
X-0.599 Y43.033
X-0.625 Y42.9
X-0.622 Y42.765
X-0.589 Y42.634
X-0.528 Y42.514
X-0.443 Y42.409
X-0.336 Y42.326
X-0.215 Y42.268
X-0.083 Y42.238
X0.052 Y42.237
X0.184 Y42.265
X0.307 Y42.322
X0.414 Y42.404
X0.501 Y42.507
X0.568 Y42.624
X0.621 Y42.748
X0.654 Y42.879
X0.659 Y43.014
X0.639 Y43.147
X0.591 Y43.274
X0.519 Y43.388
X0.425 Y43.484
X0.314 Y43.562
X0.191 Y43.618
X0.06 Y43.65
X-0.075 Y43.657
X-0.209 Y43.641
X-0.338 Y43.602
X-0.459 Y43.542
X-0.567 Y43.462
X-0.661 Y43.365
X-0.738 Y43.254
X-0.796 Y43.132
X-0.831 Y43.001
X-0.846 Y42.867
X-0.839 Y42.732
X-0.81 Y42.601
X-0.759 Y42.475
X-0.69 Y42.36
X-0.603 Y42.256
X-0.5 Y42.169
X-0.384 Y42.1
X-0.259 Y42.049
X-0.127 Y42.02
X0.008 Y42.012
X0.142 Y42.026
X0.272 Y42.061
X0.395 Y42.117
X0.508 Y42.191
X0.61 Y42.28
X0.698 Y42.382
X0.773 Y42.494
X0.831 Y42.616
X0.872 Y42.745
X0.893 Y42.878
X0.896 Y43.013
X0.879 Y43.147
X0.842 Y43.277
X0.786 Y43.4
X0.714 Y43.514
X0.626 Y43.616
X0.524 Y43.704
X0.41 Y43.777
X0.287 Y43.833
X0.158 Y43.872
X0.025 Y43.893
X-0.11 Y43.895
X-0.245 Y43.879
X-0.375 Y43.846
X-0.501 Y43.796
X-0.618 Y43.729
X-0.726 Y43.648
X-0.823 Y43.554
X-0.907 Y43.448
X-0.976 Y43.333
X-1.03 Y43.209
X-1.069 Y43.079
X-1.091 Y42.946
X-1.095 Y42.811
X-1.083 Y42.677
X-1.053 Y42.545
X-1.009 Y42.418
X-0.948 Y42.297
X-0.872 Y42.185
X-0.783 Y42.084
X-0.683 Y41.994
X-0.572 Y41.917
X-0.452 Y41.854
X-0.326 Y41.808
X-0.194 Y41.777
X-0.06 Y41.762
X0.075 Y41.764
X0.209 Y41.783
X0.339 Y41.818
X0.464 Y41.868
X0.583 Y41.932
X0.694 Y42.008
X0.796 Y42.097
X0.887 Y42.197
X0.967 Y42.306
X1.034 Y42.423
X1.087 Y42.547
X1.126 Y42.676
X1.151 Y42.809
X1.16 Y42.944
X1.154 Y43.079
X1.133 Y43.212
X1.097 Y43.342
X1.046 Y43.467
X0.982 Y43.586
X0.904 Y43.696
X0.815 Y43.798
X0.715 Y43.888
X0.605 Y43.967
X0.488 Y44.034
X0.364 Y44.087
X0.235 Y44.127
X0.102 Y44.152
X-0.032 Y44.163
X-0.167 Y44.159
X-0.301 Y44.142
X-0.432 Y44.11
X-0.56 Y44.065
X-0.681 Y44.006
X-0.797 Y43.936
X-0.904 Y43.854
X-1.002 Y43.761
X-1.09 Y43.659
X-1.167 Y43.548
X-1.233 Y43.431
X-1.287 Y43.307
X-1.328 Y43.178
X-1.355 Y43.046
X-1.369 Y42.911
Y42.776
X-1.357 Y42.642
X-1.33 Y42.51
X-1.29 Y42.381
X-1.238 Y42.256
X-1.174 Y42.137
X-1.099 Y42.025
X-1.012 Y41.922
X-0.916 Y41.827
X-0.81 Y41.743
X-0.697 Y41.669
X-0.578 Y41.607
X-0.452 Y41.557
X-0.322 Y41.52
X-0.19 Y41.495
X-0.055 Y41.484
X0.08 Y41.485
X0.214 Y41.5
X0.346 Y41.528
X0.475 Y41.568
X0.6 Y41.62
X0.719 Y41.682
X0.832 Y41.756
X0.938 Y41.84
X1.036 Y41.933
X1.125 Y42.035
X1.204 Y42.144
X1.273 Y42.26
X1.331 Y42.382
X1.378 Y42.509
X1.413 Y42.639
X1.436 Y42.772
X1.447 Y42.907
X1.445 Y43.042
X1.431 Y43.176
X1.405 Y43.308
X1.367 Y43.438
X1.318 Y43.564
X1.257 Y43.684
X1.186 Y43.799
X1.104 Y43.906
