(__3_1)
(T1  D=3. CR=0. - ZMIN=-5. - FLAT END MILL)
G90 G94 G91.1 G40 G49 G17
G21

(2D ADAPTIVE1)
M5
M9
T1
S9700 M3
G54
M8
G0 X-0.411 Y-6.834
G43 Z15. H1
Z5.
Z0.845
G1 Z0.545 F466.
G3 X0.387 Y-5.165 Z0.444 R0.925
X-0.411 Y-6.834 Z0.342 R0.925
X0.387 Y-5.165 Z0.241 R0.925
X-0.411 Y-6.834 Z0.139 R0.925
X0.387 Y-5.165 Z0.038 R0.925
X-0.411 Y-6.834 Z-0.064 R0.925
X0.387 Y-5.165 Z-0.165 R0.925
X-0.411 Y-6.834 Z-0.267 R0.925
X0.387 Y-5.165 Z-0.368 R0.925
X-0.411 Y-6.834 Z-0.47 R0.925
X0.387 Y-5.165 Z-0.571 R0.925
X-0.411 Y-6.834 Z-0.673 R0.925
X0.387 Y-5.165 Z-0.774 R0.925
X-0.411 Y-6.834 Z-0.876 R0.925
X0.387 Y-5.165 Z-0.977 R0.925
X-0.411 Y-6.834 Z-1.079 R0.925
X0.387 Y-5.165 Z-1.18 R0.925
X-0.411 Y-6.834 Z-1.282 R0.925
X0.387 Y-5.165 Z-1.383 R0.925
X-0.411 Y-6.834 Z-1.485 R0.925
X0.387 Y-5.165 Z-1.586 R0.925
X-0.411 Y-6.834 Z-1.688 R0.925
X0.387 Y-5.165 Z-1.789 R0.925
X-0.411 Y-6.834 Z-1.89 R0.925
X0.387 Y-5.165 Z-1.992 R0.925
X-0.411 Y-6.834 Z-2.093 R0.925
X0.387 Y-5.165 Z-2.195 R0.925
X-0.411 Y-6.834 Z-2.296 R0.925
X0.387 Y-5.165 Z-2.398 R0.925
X-0.411 Y-6.834 Z-2.499 R0.925
X0.387 Y-5.165 Z-2.601 R0.925
X-0.411 Y-6.834 Z-2.702 R0.925
X0.387 Y-5.165 Z-2.804 R0.925
X-0.411 Y-6.834 Z-2.905 R0.925
X0.387 Y-5.165 Z-3.007 R0.925
X-0.411 Y-6.834 Z-3.108 R0.925
X0.387 Y-5.165 Z-3.21 R0.925
X-0.411 Y-6.834 Z-3.311 R0.925
X0.387 Y-5.165 Z-3.413 R0.925
X-0.411 Y-6.834 Z-3.514 R0.925
X0.387 Y-5.165 Z-3.616 R0.925
X-0.411 Y-6.834 Z-3.717 R0.925
X0.387 Y-5.165 Z-3.819 R0.925
X-0.411 Y-6.834 Z-3.92 R0.925
X0.387 Y-5.165 Z-4.022 R0.925
X-0.411 Y-6.834 Z-4.123 R0.925
X0.387 Y-5.165 Z-4.225 R0.925
X-0.411 Y-6.834 Z-4.326 R0.925
X0.387 Y-5.165 Z-4.427 R0.925
X-0.411 Y-6.834 Z-4.529 R0.925
X0.387 Y-5.165 Z-4.63 R0.925
X-0.411 Y-6.834 Z-4.732 R0.925
X0.387 Y-5.165 Z-4.833 R0.925
X-0.411 Y-6.834 Z-4.935 R0.925
X0.913 Y-6. Z-5. R0.925
X-0.937 R0.925
X0.913 R0.925
G1 X0.93 Y-5.532
X0.895 Y-5.402
X0.835 Y-5.281
X0.755 Y-5.172
X0.66 Y-5.076
X0.552 Y-4.995
X0.435 Y-4.929
X0.309 Y-4.879
X0.179 Y-4.845
X0.045 Y-4.827
X-0.09 Y-4.825
X-0.224 Y-4.84
X-0.356 Y-4.87
X-0.483 Y-4.915
X-0.604 Y-4.975
X-0.717 Y-5.048
X-0.822 Y-5.134
X-0.915 Y-5.232
X-0.997 Y-5.339
X-1.066 Y-5.455
X-1.121 Y-5.578
X-1.162 Y-5.707
X-1.188 Y-5.839
X-1.199 Y-5.974
X-1.194 Y-6.109
X-1.174 Y-6.242
X-1.139 Y-6.373
X-1.09 Y-6.498
X-1.026 Y-6.617
X-0.95 Y-6.729
X-0.861 Y-6.83
X-0.761 Y-6.921
X-0.652 Y-7.
X-0.534 Y-7.066
X-0.41 Y-7.119
X-0.28 Y-7.157
X-0.147 Y-7.18
X-0.012 Y-7.187
X0.123 Y-7.18
X0.256 Y-7.157
X0.385 Y-7.119
X0.51 Y-7.067
X0.627 Y-7.001
X0.737 Y-6.921
X0.837 Y-6.831
X0.925 Y-6.729
X1.002 Y-6.618
X1.066 Y-6.499
X1.162 Y-6.247
X1.199 Y-6.117
X1.225 Y-5.984
X1.239 Y-5.85
X1.238 Y-5.715
X1.224 Y-5.581
X1.194 Y-5.449
X1.15 Y-5.322
X1.091 Y-5.2
X1.019 Y-5.086
X0.935 Y-4.98
X0.84 Y-4.884
X0.735 Y-4.799
X0.622 Y-4.726
X0.501 Y-4.665
X0.376 Y-4.616
X0.245 Y-4.58
X0.112 Y-4.558
X-0.022 Y-4.548
X-0.157 Y-4.552
X-0.291 Y-4.569
X-0.423 Y-4.598
X-0.551 Y-4.64
X-0.675 Y-4.694
X-0.793 Y-4.759
X-0.905 Y-4.835
X-1.009 Y-4.921
X-1.104 Y-5.017
X-1.191 Y-5.121
X-1.267 Y-5.232
X-1.332 Y-5.35
X-1.387 Y-5.474
X-1.43 Y-5.602
X-1.46 Y-5.733
X-1.479 Y-5.867
X-1.485 Y-6.002
X-1.479 Y-6.137
X-1.461 Y-6.27
X-1.43 Y-6.402
X-1.387 Y-6.53
X-1.333 Y-6.654
X-1.267 Y-6.772
X-1.192 Y-6.884
X-1.106 Y-6.988
X-1.011 Y-7.084
X-0.908 Y-7.17
X-0.797 Y-7.248
X-0.679 Y-7.314
X-0.556 Y-7.37
X-0.429 Y-7.414
X-0.298 Y-7.446
X-0.164 Y-7.466
X-0.029 Y-7.474
X0.106 Y-7.47
X0.239 Y-7.452
X0.371 Y-7.423
X0.5 Y-7.382
X0.624 Y-7.33
X0.743 Y-7.266
X0.856 Y-7.192
X0.961 Y-7.107
X1.058 Y-7.013
X1.147 Y-6.912
X1.301 Y-6.69
X1.365 Y-6.571
X1.42 Y-6.448
X1.466 Y-6.321
X1.501 Y-6.19
X1.526 Y-6.058
X1.541 Y-5.924
X1.544 Y-5.789
X1.536 Y-5.654
X1.516 Y-5.52
X1.485 Y-5.389
X1.442 Y-5.261
X1.388 Y-5.137
X1.324 Y-5.018
X1.249 Y-4.906
X1.166 Y-4.8
X1.073 Y-4.702
X0.972 Y-4.612
X0.864 Y-4.531
X0.749 Y-4.46
X0.629 Y-4.399
X0.504 Y-4.347
X0.376 Y-4.306
X0.244 Y-4.276
X0.11 Y-4.257
X-0.024 Y-4.249
X-0.159 Y-4.251
X-0.294 Y-4.264
X-0.427 Y-4.288
X-0.557 Y-4.322
X-0.685 Y-4.367
X-0.808 Y-4.421
X-0.927 Y-4.485
X-1.041 Y-4.558
X-1.149 Y-4.639
X-1.25 Y-4.728
X-1.344 Y-4.826
X-1.43 Y-4.93
X-1.508 Y-5.04
X-1.577 Y-5.156
X-1.637 Y-5.277
X-1.688 Y-5.402
X-1.729 Y-5.53
X-1.76 Y-5.662
X-1.781 Y-5.795
X-1.792 Y-5.93
Y-6.065
X-1.782 Y-6.199
X-1.762 Y-6.333
X-1.732 Y-6.464
X-1.692 Y-6.593
X-1.643 Y-6.719
X-1.584 Y-6.84
X-1.516 Y-6.957
X-1.439 Y-7.068
X-1.354 Y-7.173
X-1.261 Y-7.271
X-1.162 Y-7.362
X-1.055 Y-7.446
X-0.943 Y-7.52
X-0.825 Y-7.586
X-0.703 Y-7.643
X-0.576 Y-7.691
X-0.447 Y-7.729
X-0.315 Y-7.757
X-0.181 Y-7.775
X-0.046 Y-7.782
X0.089 Y-7.78
X0.223 Y-7.767
X0.356 Y-7.744
X0.487 Y-7.712
X0.615 Y-7.669
X0.74 Y-7.616
X0.975 Y-7.485
X1.189 Y-7.321
X1.379 Y-7.128
X1.54 Y-6.912
X1.672 Y-6.677
X1.771 Y-6.426
X1.835 Y-6.164
X1.863 Y-5.895
X1.853 Y-5.626
X1.805 Y-5.36
X1.72 Y-5.104
X1.598 Y-4.863
X1.444 Y-4.642
X1.26 Y-4.445
X1.049 Y-4.276
X0.817 Y-4.138
X0.569 Y-4.033
X0.308 Y-3.964
X0.04 Y-3.931
X-0.23 Y-3.935
X-0.497 Y-3.974
X-0.756 Y-4.049
X-1.003 Y-4.157
X-1.234 Y-4.297
X-1.444 Y-4.466
X-1.631 Y-4.661
X-1.791 Y-4.878
X-1.921 Y-5.115
X-2.02 Y-5.366
X-2.086 Y-5.628
X-2.117 Y-5.896
X-2.114 Y-6.165
X-2.076 Y-6.433
X-2.004 Y-6.693
X-1.9 Y-6.942
X-1.764 Y-7.175
X-1.6 Y-7.389
X-1.41 Y-7.581
X-1.197 Y-7.746
X-0.964 Y-7.883
X-0.716 Y-7.989
X-0.456 Y-8.063
X-0.19 Y-8.103
X0.08 Y-8.109
X0.348 Y-8.079
X0.611 Y-8.017
X0.863 Y-7.921
X1.102 Y-7.795
X1.324 Y-7.641
X1.525 Y-7.462
X1.705 Y-7.26
X1.859 Y-7.039
X1.987 Y-6.801
X2.086 Y-6.55
X2.155 Y-6.289
X2.193 Y-6.022
X2.199 Y-5.752
X2.173 Y-5.484
X2.114 Y-5.22
X2.024 Y-4.966
X1.904 Y-4.724
X1.755 Y-4.499
X1.581 Y-4.293
X1.383 Y-4.109
X1.165 Y-3.951
X0.929 Y-3.819
X0.679 Y-3.716
X0.42 Y-3.643
X0.153 Y-3.602
X-0.117 Y-3.591
X-0.386 Y-3.611
X-0.651 Y-3.662
X-0.908 Y-3.743
X-1.155 Y-3.853
X-1.388 Y-3.989
X-1.603 Y-4.152
X-1.8 Y-4.337
X-1.974 Y-4.543
X-2.124 Y-4.767
X-2.248 Y-5.007
X-2.346 Y-5.259
X-2.414 Y-5.52
X-2.453 Y-5.787
X-2.462 Y-6.056
X-2.442 Y-6.325
X-2.392 Y-6.591
X-2.313 Y-6.849
X-2.206 Y-7.097
X-2.073 Y-7.331
X-1.914 Y-7.55
X-1.733 Y-7.749
X-1.53 Y-7.928
X-1.31 Y-8.083
X-1.073 Y-8.213
X-0.824 Y-8.316
X-0.564 Y-8.392
X-0.299 Y-8.438
X-0.029 Y-8.454
X0.24 Y-8.442
X0.507 Y-8.4
X0.767 Y-8.329
X1.019 Y-8.23
X1.258 Y-8.106
X1.484 Y-7.957
X1.692 Y-7.786
X1.882 Y-7.594
X2.051 Y-7.383
X2.198 Y-7.157
X2.321 Y-6.917
X2.419 Y-6.665
X2.49 Y-6.405
X2.535 Y-6.139
X2.551 Y-5.869
X2.54 Y-5.6
X2.501 Y-5.333
X2.435 Y-5.071
X2.341 Y-4.818
X2.222 Y-4.576
X2.078 Y-4.347
X1.911 Y-4.135
X1.723 Y-3.942
X1.516 Y-3.768
X1.292 Y-3.617
X1.054 Y-3.49
X0.804 Y-3.388
X0.546 Y-3.311
X0.28 Y-3.262
X0.011 Y-3.239
X-0.259 Y-3.244
X-0.527 Y-3.275
X-0.79 Y-3.333
X-1.047 Y-3.417
X-1.294 Y-3.525
X-1.529 Y-3.658
X-1.75 Y-3.813
X-1.955 Y-3.989
X-2.141 Y-4.184
X-2.308 Y-4.396
X-2.453 Y-4.624
X-2.576 Y-4.864
X-2.674 Y-5.116
X-2.748 Y-5.375
X-2.796 Y-5.641
X-2.819 Y-5.91
X-2.815 Y-6.18
X-2.786 Y-6.448
X-2.73 Y-6.712
X-2.65 Y-6.97
X-2.545 Y-7.219
X-2.417 Y-7.456
X-2.266 Y-7.68
X-2.095 Y-7.889
X-1.904 Y-8.08
X-1.696 Y-8.252
X-1.473 Y-8.403
X-1.236 Y-8.532
X-0.987 Y-8.638
X-0.73 Y-8.719
X-0.466 Y-8.776
X-0.198 Y-8.806
X0.072 Y-8.812
X0.341 Y-8.791
X0.607 Y-8.745
X0.868 Y-8.674
X1.12 Y-8.579
X1.363 Y-8.461
X1.594 Y-8.322
X1.811 Y-8.161
X2.013 Y-7.982
X2.198 Y-7.785
X2.364 Y-7.572
X2.51 Y-7.345
X2.635 Y-7.106
X2.738 Y-6.857
X2.818 Y-6.599
X2.875 Y-6.335
X2.907 Y-6.067
X2.915 Y-5.797
X2.899 Y-5.528
X2.858 Y-5.261
X2.792 Y-4.999
X2.704 Y-4.744
X2.592 Y-4.498
X2.458 Y-4.264
X2.304 Y-4.042
X2.13 Y-3.836
X1.938 Y-3.646
X1.73 Y-3.474
X1.507 Y-3.322
X1.271 Y-3.191
X1.025 Y-3.081
X0.769 Y-2.994
X0.507 Y-2.93
X0.24 Y-2.889
X-0.029 Y-2.872
X-0.299 Y-2.879
X-0.567 Y-2.91
X-0.832 Y-2.965
X-1.091 Y-3.042
X-1.342 Y-3.142
X-1.583 Y-3.263
X-1.815 Y-3.405
X-2.034 Y-3.568
X-2.236 Y-3.748
X-2.422 Y-3.944
X-2.591 Y-4.159
X-2.743 Y-4.388
X-2.873 Y-4.629
X-2.981 Y-4.878
X-3.068 Y-5.137
X-3.132 Y-5.405
X-3.173 Y-5.679
X-3.19 Y-5.953
X-3.183 Y-6.226
X-3.152 Y-6.499
X-3.097 Y-6.77
X-3.019 Y-7.037
X-2.919 Y-7.293
X-2.797 Y-7.539
X-2.653 Y-7.774
X-2.489 Y-7.997
X-2.306 Y-8.206
X-2.106 Y-8.397
X-1.891 Y-8.569
X-1.662 Y-8.722
X-1.419 Y-8.855
X-1.165 Y-8.967
X-0.902 Y-9.056
X-0.633 Y-9.122
X-0.36 Y-9.164
X-0.083 Y-9.183
X0.197 Y-9.177
X0.477 Y-9.147
X0.755 Y-9.092
X1.027 Y-9.014
X1.291 Y-8.912
X1.547 Y-8.787
X1.794 Y-8.638
X2.028 Y-8.468
X2.247 Y-8.277
X2.449 Y-8.068
X2.633 Y-7.841
X2.797 Y-7.598
X2.939 Y-7.343
X3.058 Y-7.077
X3.153 Y-6.801
X3.224 Y-6.518
X3.27 Y-6.232
X3.291 Y-5.943
X3.286 Y-5.652
X3.257 Y-5.362
X3.202 Y-5.077
X3.123 Y-4.797
X3.02 Y-4.526
X2.893 Y-4.263
X2.745 Y-4.013
X2.575 Y-3.778
X2.386 Y-3.558
X2.177 Y-3.354
X1.951 Y-3.169
X1.709 Y-3.004
X1.454 Y-2.86
X1.185 Y-2.739
X0.906 Y-2.641
X0.619 Y-2.567
X0.326 Y-2.518
X0.03 Y-2.495
X-0.269 Y-2.498
X-0.568 Y-2.527
X-0.863 Y-2.582
X-1.153 Y-2.662
X-1.436 Y-2.768
X-1.574 Y-2.83
X-1.841 Y-2.972
X-2.096 Y-3.137
X-2.335 Y-3.324
X-2.559 Y-3.532
X-2.764 Y-3.758
X-2.948 Y-4.002
X-3.111 Y-4.261
X-3.25 Y-4.533
X-3.366 Y-4.818
X-3.457 Y-5.112
X-3.522 Y-5.413
X-3.561 Y-5.718
X-3.573 Y-6.025
X-3.558 Y-6.334
X-3.517 Y-6.64
X-3.449 Y-6.941
X-3.355 Y-7.235
X-3.236 Y-7.52
X-3.092 Y-7.794
X-2.925 Y-8.055
X-2.736 Y-8.3
X-2.527 Y-8.528
X-2.298 Y-8.736
X-2.052 Y-8.925
X-1.791 Y-9.091
X-1.515 Y-9.234
X-1.229 Y-9.353
X-0.933 Y-9.446
X-0.629 Y-9.513
X-0.32 Y-9.554
X-0.007 Y-9.568
X0.307 Y-9.555
X0.619 Y-9.514
X0.928 Y-9.446
X1.231 Y-9.351
X1.525 Y-9.23
X1.81 Y-9.083
X2.081 Y-8.911
X2.338 Y-8.715
X2.577 Y-8.497
X2.798 Y-8.259
X2.996 Y-8.002
X3.172 Y-7.728
X3.324 Y-7.441
X3.449 Y-7.141
X3.549 Y-6.832
X3.62 Y-6.515
X3.665 Y-6.194
X3.681 Y-5.87
X3.669 Y-5.545
X3.628 Y-5.224
X3.56 Y-4.906
X3.465 Y-4.596
X3.343 Y-4.295
X3.195 Y-4.006
X3.023 Y-3.731
X2.828 Y-3.472
X2.61 Y-3.23
X2.372 Y-3.008
X2.115 Y-2.807
X1.841 Y-2.629
X1.551 Y-2.474
X1.248 Y-2.345
X0.935 Y-2.243
X0.614 Y-2.168
X0.286 Y-2.121
X-0.046 Y-2.103
X-0.379 Y-2.114
X-0.71 Y-2.153
X-1.037 Y-2.222
X-1.358 Y-2.319
X-1.67 Y-2.443
X-1.971 Y-2.595
X-2.257 Y-2.772
X-2.528 Y-2.974
X-2.781 Y-3.2
X-3.014 Y-3.446
X-3.224 Y-3.713
X-3.411 Y-3.997
X-3.573 Y-4.297
X-3.708 Y-4.61
X-3.816 Y-4.933
X-3.895 Y-5.265
X-3.945 Y-5.604
X-3.966 Y-5.946
X-3.957 Y-6.288
X-3.918 Y-6.628
X-3.85 Y-6.964
X-3.752 Y-7.293
X-3.626 Y-7.613
X-3.473 Y-7.92
X-3.294 Y-8.213
X-3.09 Y-8.49
X-2.863 Y-8.748
X-2.614 Y-8.985
X-2.345 Y-9.2
X-2.059 Y-9.39
X-1.757 Y-9.555
X-1.441 Y-9.694
X-1.114 Y-9.804
X-0.778 Y-9.886
X-0.436 Y-9.939
X-0.089 Y-9.962
X0.259 Y-9.954
X0.607 Y-9.916
X0.95 Y-9.848
X1.288 Y-9.75
X1.617 Y-9.623
X1.936 Y-9.467
X2.24 Y-9.283
X2.528 Y-9.072
X2.797 Y-8.837
X3.046 Y-8.579
X3.271 Y-8.3
X3.472 Y-8.002
X3.646 Y-7.688
X3.792 Y-7.36
X3.909 Y-7.021
X3.996 Y-6.672
X4.052 Y-6.317
X4.077 Y-5.959
X4.072 Y-5.6
X4.034 Y-5.243
X3.967 Y-4.89
X3.868 Y-4.545
X3.74 Y-4.209
X3.584 Y-3.886
X3.4 Y-3.577
X3.189 Y-3.286
X2.954 Y-3.013
X2.695 Y-2.762
X2.416 Y-2.533
X2.116 Y-2.33
X1.8 Y-2.152
X1.469 Y-2.003
X1.125 Y-1.883
X0.772 Y-1.792
X0.411 Y-1.733
X0.045 Y-1.705
X-0.322 Y-1.709
X-0.689 Y-1.745
X-1.052 Y-1.813
X-1.408 Y-1.913
X-1.755 Y-2.043
X-2.09 Y-2.203
X-2.41 Y-2.392
X-2.713 Y-2.608
X-2.997 Y-2.851
X-3.259 Y-3.117
X-3.497 Y-3.406
X-3.71 Y-3.714
X-3.895 Y-4.041
X-4.051 Y-4.382
X-4.178 Y-4.737
X-4.273 Y-5.101
X-4.336 Y-5.473
X-4.366 Y-5.848
X-4.364 Y-6.226
X-4.329 Y-6.602
X-4.262 Y-6.973
X-4.162 Y-7.338
X-4.031 Y-7.693
X-3.87 Y-8.035
X-3.679 Y-8.362
X-3.461 Y-8.671
X-3.216 Y-8.961
X-2.947 Y-9.228
X-2.656 Y-9.471
X-2.345 Y-9.687
X-2.016 Y-9.876
X-1.671 Y-10.036
X-1.314 Y-10.166
X-0.945 Y-10.264
X-0.569 Y-10.33
X-0.188 Y-10.363
X0.195
X0.578 Y-10.329
X0.958 Y-10.262
X1.332 Y-10.162
X1.697 Y-10.03
X2.05 Y-9.865
X2.388 Y-9.671
X2.709 Y-9.447
X3.01 Y-9.195
X3.289 Y-8.918
X3.542 Y-8.617
X3.769 Y-8.295
X3.967 Y-7.954
X4.135 Y-7.597
X4.271 Y-7.227
X4.375 Y-6.847
X4.445 Y-6.458
X4.481 Y-6.066
X4.483 Y-5.671
X4.451 Y-5.278
X4.384 Y-4.889
X4.284 Y-4.507
X4.151 Y-4.136
X3.987 Y-3.777
X3.792 Y-3.434
X3.567 Y-3.108
X3.315 Y-2.803
X3.037 Y-2.521
X2.735 Y-2.264
X2.411 Y-2.033
X2.068 Y-1.831
X1.708 Y-1.66
X1.334 Y-1.52
X0.948 Y-1.413
X0.553 Y-1.339
X0.153 Y-1.3
X-0.25 Y-1.296
X-0.652 Y-1.327
X-1.051 Y-1.393
X-1.443 Y-1.494
X-1.826 Y-1.628
X-2.197 Y-1.796
X-2.552 Y-1.996
X-2.889 Y-2.226
X-3.205 Y-2.484
X-3.499 Y-2.77
X-3.766 Y-3.081
X-4.006 Y-3.414
X-4.216 Y-3.767
X-4.395 Y-4.137
X-4.541 Y-4.522
X-4.654 Y-4.918
X-4.731 Y-5.323
X-4.773 Y-5.734
X-4.78 Y-6.147
X-4.75 Y-6.559
X-4.685 Y-6.967
X-4.584 Y-7.369
X-4.449 Y-7.76
X-4.28 Y-8.138
X-4.079 Y-8.5
X-3.847 Y-8.844
X-3.587 Y-9.166
X-3.299 Y-9.465
X-2.986 Y-9.737
X-2.65 Y-9.982
X-2.294 Y-10.196
X-1.921 Y-10.379
X-1.532 Y-10.529
X-1.131 Y-10.645
X-0.722 Y-10.726
X-0.305 Y-10.77
X0.114 Y-10.779
X0.534 Y-10.751
X0.95 Y-10.687
X1.361 Y-10.586
X1.762 Y-10.45
X2.151 Y-10.279
X2.525 Y-10.074
X2.88 Y-9.837
X3.214 Y-9.569
X3.524 Y-9.273
X3.808 Y-8.951
X4.062 Y-8.605
X4.286 Y-8.238
X4.478 Y-7.853
X4.635 Y-7.452
X4.756 Y-7.039
X4.842 Y-6.618
X4.89 Y-6.19
X4.901 Y-5.759
X4.875 Y-5.329
X4.812 Y-4.903
X4.711 Y-4.485
X4.575 Y-4.076
X4.403 Y-3.68
X4.198 Y-3.301
X3.961 Y-2.941
X3.83 Y-2.769
X3.547 Y-2.442
X3.237 Y-2.141
X2.901 Y-1.867
X2.542 Y-1.624
X2.163 Y-1.412
X1.765 Y-1.233
X1.354 Y-1.089
X0.93 Y-0.982
X0.498 Y-0.912
X0.061 Y-0.879
X-0.378 Y-0.884
X-0.816 Y-0.928
X-1.25 Y-1.01
X-1.675 Y-1.129
X-2.089 Y-1.285
X-2.488 Y-1.477
X-2.87 Y-1.703
X-3.232 Y-1.961
X-3.57 Y-2.251
X-3.882 Y-2.569
X-4.165 Y-2.914
X-4.418 Y-3.282
X-4.639 Y-3.671
X-4.824 Y-4.079
X-4.974 Y-4.501
X-5.087 Y-4.935
X-5.161 Y-5.378
X-5.197 Y-5.826
X-5.194 Y-6.275
X-5.152 Y-6.723
X-5.07 Y-7.165
X-4.951 Y-7.6
X-4.795 Y-8.022
X-4.602 Y-8.429
X-4.374 Y-8.818
X-4.114 Y-9.186
X-3.822 Y-9.53
X-3.502 Y-9.848
X-3.155 Y-10.137
X-2.784 Y-10.395
X-2.391 Y-10.619
X-1.98 Y-10.809
X-1.554 Y-10.963
X-1.115 Y-11.079
X-0.667 Y-11.157
X-0.213 Y-11.196
X0.243 Y-11.195
X0.699 Y-11.154
X1.15 Y-11.074
X1.594 Y-10.955
X1.812 Y-10.88
X2.027 Y-10.797
X2.238 Y-10.704
X2.446 Y-10.601
X2.648 Y-10.49
X2.846 Y-10.37
X3.039 Y-10.241
X3.226 Y-10.104
X3.407 Y-9.959
X3.582 Y-9.806
X3.75 Y-9.645
X3.911 Y-9.477
X4.065 Y-9.302
X4.211 Y-9.12
X4.349 Y-8.933
X4.479 Y-8.739
X4.6 Y-8.54
X4.713 Y-8.335
X4.817 Y-8.126
X4.911 Y-7.913
X4.996 Y-7.695
X5.072 Y-7.474
X5.138 Y-7.25
X5.194 Y-7.024
X5.24 Y-6.795
X5.276 Y-6.564
X5.302 Y-6.332
X5.318 Y-6.098
X5.324 Y-5.865
X5.32 Y-5.631
X5.305 Y-5.398
X5.281 Y-5.165
X5.246 Y-4.934
X5.201 Y-4.705
X5.147 Y-4.478
X5.082 Y-4.253
X5.008 Y-4.031
X4.924 Y-3.813
X4.831 Y-3.598
X4.729 Y-3.388
X4.617 Y-3.182
X4.497 Y-2.981
X4.368 Y-2.786
X4.23 Y-2.596
X4.085 Y-2.412
X3.931 Y-2.235
X3.77 Y-2.065
X3.601 Y-1.901
X3.425 Y-1.745
X3.243 Y-1.597
X3.054 Y-1.456
X2.859 Y-1.324
X2.659 Y-1.201
X2.453 Y-1.086
X2.242 Y-0.98
X2.026 Y-0.883
X1.807 Y-0.796
X1.583 Y-0.718
X1.357 Y-0.65
X1.127 Y-0.592
X0.895 Y-0.544
X0.661 Y-0.506
X0.425 Y-0.478
X0.188 Y-0.461
X-0.05 Y-0.453
X-0.288 Y-0.457
X-0.526 Y-0.47
X-0.764 Y-0.494
X-1. Y-0.528
X-1.235 Y-0.572
X-1.467 Y-0.627
X-1.698 Y-0.692
X-1.925 Y-0.767
X-2.149 Y-0.851
X-2.37 Y-0.946
X-2.586 Y-1.05
X-2.798 Y-1.163
X-3.005 Y-1.285
X-3.206 Y-1.417
X-3.402 Y-1.557
X-3.591 Y-1.706
X-3.774 Y-1.863
X-3.95 Y-2.028
X-4.119 Y-2.2
X-4.281 Y-2.38
X-4.434 Y-2.566
X-4.579 Y-2.76
X-4.716 Y-2.959
X-4.844 Y-3.165
X-4.963 Y-3.375
X-5.073 Y-3.591
X-5.173 Y-3.812
X-5.264 Y-4.037
X-5.345 Y-4.265
X-5.416 Y-4.497
X-5.477 Y-4.732
X-5.527 Y-4.97
X-5.567 Y-5.21
X-5.597 Y-5.451
X-5.616 Y-5.693
X-5.625 Y-5.936
X-5.623 Y-6.179
X-5.611 Y-6.422
X-5.588 Y-6.665
X-5.554 Y-6.906
X-5.51 Y-7.145
X-5.456 Y-7.383
X-5.391 Y-7.618
X-5.316 Y-7.85
X-5.231 Y-8.078
X-5.136 Y-8.303
X-5.032 Y-8.523
X-4.918 Y-8.739
X-4.795 Y-8.949
X-4.663 Y-9.154
X-4.521 Y-9.353
X-4.372 Y-9.546
X-4.214 Y-9.732
X-4.048 Y-9.911
X-3.874 Y-10.083
X-3.693 Y-10.247
X-3.505 Y-10.403
X-3.311 Y-10.551
X-3.11 Y-10.69
X-2.903 Y-10.821
X-2.691 Y-10.942
X-2.473 Y-11.055
X-2.25 Y-11.157
X-2.024 Y-11.25
X-1.793 Y-11.333
X-1.558 Y-11.406
X-1.321 Y-11.469
X-1.081 Y-11.521
X-0.838 Y-11.563
X-0.594 Y-11.595
X-0.349 Y-11.615
X-0.102 Y-11.626
X0.145 Y-11.625
X0.392 Y-11.614
X0.638 Y-11.591
X0.883 Y-11.559
X1.128 Y-11.515
X1.37 Y-11.461
X1.61 Y-11.396
X1.847 Y-11.321
X2.081 Y-11.235
X2.311 Y-11.14
X2.537 Y-11.034
X2.758 Y-10.919
X2.975 Y-10.793
X3.186 Y-10.659
X3.391 Y-10.515
X3.59 Y-10.362
X3.782 Y-10.201
X3.967 Y-10.032
X4.144 Y-9.854
X4.314 Y-9.669
X4.476 Y-9.476
X4.629 Y-9.277
X4.773 Y-9.071
X4.909 Y-8.859
X5.035 Y-8.641
X5.152 Y-8.417
X5.258 Y-8.189
X5.355 Y-7.956
X5.442 Y-7.72
X5.518 Y-7.479
X5.584 Y-7.236
X5.639 Y-6.99
X5.683 Y-6.742
X5.716 Y-6.492
X5.739 Y-6.24
X5.751 Y-5.988
Y-5.736
X5.741 Y-5.484
X5.72 Y-5.232
X5.688 Y-4.982
X5.645 Y-4.733
X5.591 Y-4.487
X5.526 Y-4.243
X5.451 Y-4.002
X5.366 Y-3.764
X5.27 Y-3.53
X5.164 Y-3.301
X5.049 Y-3.076
X4.923 Y-2.857
X4.788 Y-2.643
X4.644 Y-2.435
X4.491 Y-2.233
X4.329 Y-2.039
X4.159 Y-1.851
X3.981 Y-1.671
X3.795 Y-1.498
X3.602 Y-1.334
X3.401 Y-1.178
X3.194 Y-1.031
X2.98 Y-0.894
X2.761 Y-0.765
X2.536 Y-0.646
X2.305 Y-0.537
X2.071 Y-0.438
X1.831 Y-0.349
X1.588 Y-0.27
X1.342 Y-0.203
X1.093 Y-0.145
X0.841 Y-0.099
X0.588 Y-0.064
X0.332 Y-0.039
X0.076 Y-0.026
X-0.18 Y-0.024
X-0.437 Y-0.033
X-0.693 Y-0.054
X-0.949 Y-0.085
X-1.203 Y-0.128
X-1.455 Y-0.181
X-1.705 Y-0.246
X-1.951 Y-0.321
X-2.195 Y-0.407
X-2.435 Y-0.504
X-2.67 Y-0.611
X-2.901 Y-0.728
X-3.126 Y-0.856
X-3.346 Y-0.993
X-3.56 Y-1.139
X-3.768 Y-1.295
X-3.968 Y-1.46
X-4.162 Y-1.633
X-4.347 Y-1.815
X-4.525 Y-2.005
X-4.695 Y-2.203
X-4.855 Y-2.408
X-5.007 Y-2.619
X-5.15 Y-2.837
X-5.283 Y-3.062
X-5.406 Y-3.292
X-5.519 Y-3.527
X-5.622 Y-3.767
X-5.714 Y-4.011
X-5.796 Y-4.26
X-5.866 Y-4.511
X-5.926 Y-4.766
X-5.975 Y-5.023
X-6.012 Y-5.282
X-6.039 Y-5.543
X-6.053 Y-5.804
X-6.057 Y-6.066
X-6.049 Y-6.328
X-6.03 Y-6.589
X-5.999 Y-6.85
X-5.957 Y-7.108
X-5.904 Y-7.365
X-5.84 Y-7.62
X-5.764 Y-7.871
X-5.678 Y-8.119
X-5.581 Y-8.363
X-5.474 Y-8.602
X-5.356 Y-8.837
X-5.228 Y-9.067
X-5.09 Y-9.29
X-4.943 Y-9.508
X-4.786 Y-9.719
X-4.62 Y-9.923
X-4.446 Y-10.119
X-4.263 Y-10.308
X-4.072 Y-10.489
X-3.873 Y-10.661
X-3.667 Y-10.825
X-3.453 Y-10.98
X-3.234 Y-11.125
X-3.008 Y-11.26
X-2.776 Y-11.386
X-2.539 Y-11.502
X-2.297 Y-11.607
X-2.05 Y-11.701
X-1.8 Y-11.785
X-1.545 Y-11.858
X-1.288 Y-11.92
X-1.028 Y-11.971
X-0.766 Y-12.01
X-0.502 Y-12.038
X-0.237 Y-12.054
X0.028 Y-12.059
X0.294 Y-12.053
X0.56 Y-12.034
X0.824 Y-12.005
X1.088 Y-11.963
X1.349 Y-11.911
X1.609 Y-11.846
X1.865 Y-11.771
X2.119 Y-11.684
X2.368 Y-11.587
X2.614 Y-11.478
X2.854 Y-11.359
X3.09 Y-11.23
X3.319 Y-11.09
X3.543 Y-10.94
X3.76 Y-10.78
X3.97 Y-10.611
X4.173 Y-10.434
X4.367 Y-10.247
X4.554 Y-10.052
X4.732 Y-9.848
X4.901 Y-9.638
X5.061 Y-9.42
X5.211 Y-9.195
X5.352 Y-8.963
X5.482 Y-8.726
X5.602 Y-8.483
X5.711 Y-8.236
X5.809 Y-7.983
X5.897 Y-7.727
X5.973 Y-7.467
X6.038 Y-7.204
X6.091 Y-6.938
X6.132 Y-6.67
X6.162 Y-6.4
X6.181 Y-6.13
X6.187 Y-5.859
X6.182 Y-5.588
X6.165 Y-5.317
X6.136 Y-5.047
X6.095 Y-4.779
X6.043 Y-4.513
X5.979 Y-4.249
X5.904 Y-3.988
X5.818 Y-3.731
X5.72 Y-3.478
X5.611 Y-3.229
X5.492 Y-2.985
X5.362 Y-2.746
X5.222 Y-2.513
X5.072 Y-2.286
X4.912 Y-2.066
X4.743 Y-1.853
X4.564 Y-1.648
X4.377 Y-1.45
X4.181 Y-1.261
X3.977 Y-1.08
X3.765 Y-0.908
X3.546 Y-0.746
X3.319 Y-0.593
X3.086 Y-0.45
X2.847 Y-0.317
X2.603 Y-0.194
X2.353 Y-0.083
X2.098 Y0.018
X1.839 Y0.108
X1.576 Y0.186
X1.31 Y0.253
X1.041 Y0.309
X0.769 Y0.352
X0.496 Y0.384
X0.221 Y0.404
X-0.054 Y0.412
X-0.33 Y0.408
X-0.606 Y0.392
X-0.88 Y0.364
X-1.154 Y0.324
X-1.425 Y0.273
X-1.695 Y0.209
X-1.961 Y0.134
X-2.225 Y0.047
X-2.484 Y-0.051
X-2.739 Y-0.161
X-2.989 Y-0.282
X-3.234 Y-0.413
X-3.473 Y-0.555
X-3.705 Y-0.708
X-3.932 Y-0.87
X-4.15 Y-1.042
X-4.362 Y-1.224
X-4.565 Y-1.415
X-4.76 Y-1.614
X-4.946 Y-1.822
X-5.123 Y-2.038
X-5.291 Y-2.262
X-5.449 Y-2.493
X-5.596 Y-2.73
X-5.734 Y-2.974
X-5.86 Y-3.224
X-5.976 Y-3.479
X-6.08 Y-3.739
X-6.173 Y-4.003
X-6.255 Y-4.272
X-6.325 Y-4.543
X-6.383 Y-4.818
X-6.429 Y-5.095
X-6.463 Y-5.373
X-6.485 Y-5.653
X-6.494 Y-5.934
X-6.492 Y-6.215
X-6.477 Y-6.496
X-6.45 Y-6.776
X-6.411 Y-7.054
X-6.36 Y-7.331
X-6.296 Y-7.605
X-6.221 Y-7.876
X-6.134 Y-8.144
X-6.036 Y-8.407
X-5.926 Y-8.667
X-5.805 Y-8.921
X-5.673 Y-9.17
X-5.531 Y-9.413
X-5.378 Y-9.649
X-5.214 Y-9.879
X-5.041 Y-10.102
X-4.858 Y-10.316
X-4.666 Y-10.523
X-4.466 Y-10.721
X-4.256 Y-10.91
X-4.039 Y-11.09
X-3.814 Y-11.261
X-3.582 Y-11.422
X-3.342 Y-11.572
X-3.097 Y-11.712
X-2.845 Y-11.841
X-2.588 Y-11.959
X-2.326 Y-12.066
X-2.059 Y-12.162
X-1.789 Y-12.246
X-1.514 Y-12.318
X-1.237 Y-12.378
X-0.957 Y-12.426
X-0.675 Y-12.462
X-0.392 Y-12.486
X-0.107 Y-12.497
X0.178 Y-12.496
X0.463 Y-12.482
X0.747 Y-12.456
X1.03 Y-12.418
X1.311 Y-12.367
X1.591 Y-12.305
X1.867 Y-12.23
X2.14 Y-12.143
X2.409 Y-12.044
X2.674 Y-11.933
X2.935 Y-11.811
X3.19 Y-11.678
X3.438 Y-11.533
X3.681 Y-11.378
X3.917 Y-11.212
X4.146 Y-11.036
X4.366 Y-10.85
X4.579 Y-10.655
X4.783 Y-10.45
X4.978 Y-10.237
X5.164 Y-10.015
X5.34 Y-9.785
X5.506 Y-9.548
X5.661 Y-9.304
X5.806 Y-9.053
X5.94 Y-8.796
X6.062 Y-8.533
X6.173 Y-8.265
X6.272 Y-7.993
X6.36 Y-7.716
X6.435 Y-7.436
X6.498 Y-7.153
X6.549 Y-6.867
X6.587 Y-6.579
X6.612 Y-6.29
X6.625 Y-6.
X6.626 Y-5.71
X6.613 Y-5.42
X6.589 Y-5.13
X6.551 Y-4.842
X6.501 Y-4.556
X6.439 Y-4.273
X6.364 Y-3.992
X6.278 Y-3.714
X6.179 Y-3.441
X6.069 Y-3.172
X5.946 Y-2.908
X5.813 Y-2.65
X5.668 Y-2.398
X5.513 Y-2.152
X5.346 Y-1.913
X5.17 Y-1.681
X4.983 Y-1.457
X4.787 Y-1.241
X4.582 Y-1.034
X4.368 Y-0.836
X4.145 Y-0.648
X3.914 Y-0.469
X3.675 Y-0.3
X3.43 Y-0.142
X3.177 Y0.005
X2.918 Y0.142
X2.653 Y0.267
X2.383 Y0.381
X2.108 Y0.482
X1.829 Y0.572
X1.545 Y0.65
X1.259 Y0.715
X0.97 Y0.768
X0.678 Y0.808
X0.385 Y0.836
X0.091 Y0.85
X-0.204 Y0.852
X-0.499 Y0.842
X-0.793 Y0.818
X-1.086 Y0.781
X-1.378 Y0.732
X-1.667 Y0.67
X-1.954 Y0.596
X-2.237 Y0.509
X-2.516 Y0.41
X-2.791 Y0.298
X-3.061 Y0.175
X-3.326 Y0.04
X-3.584 Y-0.106
X-3.836 Y-0.264
X-4.081 Y-0.432
X-4.319 Y-0.612
X-4.549 Y-0.801
X-4.77 Y-1.
X-4.983 Y-1.209
X-5.187 Y-1.427
X-5.381 Y-1.654
X-5.565 Y-1.889
X-5.738 Y-2.132
X-5.901 Y-2.382
X-6.054 Y-2.64
X-6.194 Y-2.903
X-6.324 Y-3.173
X-6.441 Y-3.449
X-6.546 Y-3.729
X-6.64 Y-4.013
X-6.72 Y-4.302
X-6.789 Y-4.594
X-6.844 Y-4.889
X-6.886 Y-5.185
X-6.916 Y-5.484
X-6.933 Y-5.784
X-6.936 Y-6.084
X-6.927 Y-6.384
X-6.904 Y-6.683
X-6.869 Y-6.982
X-6.82 Y-7.278
X-6.759 Y-7.572
X-6.685 Y-7.863
X-6.598 Y-8.151
X-6.499 Y-8.435
X-6.388 Y-8.715
X-6.264 Y-8.989
X-6.129 Y-9.258
X-5.982 Y-9.52
X-5.824 Y-9.776
X-5.654 Y-10.025
X-5.475 Y-10.267
X-5.284 Y-10.5
X-5.084 Y-10.725
X-4.874 Y-10.941
X-4.655 Y-11.148
X-4.427 Y-11.345
X-4.19 Y-11.532
X-3.946 Y-11.709
X-3.694 Y-11.875
X-3.435 Y-12.03
X-3.169 Y-12.174
X-2.897 Y-12.306
X-2.62 Y-12.426
X-2.337 Y-12.534
X-2.05 Y-12.629
X-1.759 Y-12.712
X-1.464 Y-12.783
X-1.167 Y-12.84
X-0.866 Y-12.885
X-0.565 Y-12.917
X-0.261 Y-12.935
X0.043 Y-12.94
X0.347 Y-12.932
X0.651 Y-12.911
X0.954 Y-12.877
X1.255 Y-12.829
X1.554 Y-12.768
X1.851 Y-12.694
X2.144 Y-12.608
X2.433 Y-12.508
X2.719 Y-12.396
X2.999 Y-12.272
X3.273 Y-12.136
X3.542 Y-11.987
X3.804 Y-11.827
X4.059 Y-11.656
X4.307 Y-11.473
X4.547 Y-11.28
X4.778 Y-11.076
X5. Y-10.863
X5.213 Y-10.64
X5.416 Y-10.407
X5.608 Y-10.166
X5.791 Y-9.917
X5.962 Y-9.66
X6.122 Y-9.396
X6.27 Y-9.125
X6.407 Y-8.848
X6.531 Y-8.565
X6.643 Y-8.276
X6.742 Y-7.983
X6.829 Y-7.686
X6.902 Y-7.386
X6.962 Y-7.082
X7.009 Y-6.777
X7.043 Y-6.469
X7.064 Y-6.16
X7.071 Y-5.851
X7.064 Y-5.541
X7.044 Y-5.232
X7.011 Y-4.924
X6.964 Y-4.618
X6.904 Y-4.314
X6.831 Y-4.013
X6.744 Y-3.715
X6.645 Y-3.422
X6.534 Y-3.133
X6.409 Y-2.849
X6.273 Y-2.57
X6.124 Y-2.298
X5.964 Y-2.032
X5.792 Y-1.774
X5.609 Y-1.523
X5.415 Y-1.28
X5.211 Y-1.046
X4.997 Y-0.82
X4.773 Y-0.605
X4.54 Y-0.399
X4.298 Y-0.203
X4.047 Y-0.018
X3.789 Y0.156
X3.523 Y0.319
X3.25 Y0.47
X2.971 Y0.61
X2.686 Y0.737
X2.395 Y0.851
X2.099 Y0.953
X1.799 Y1.042
X1.496 Y1.118
X1.189 Y1.181
X0.879 Y1.231
X0.568 Y1.266
X0.254 Y1.289
X-0.059 Y1.297
X-0.374 Y1.292
X-0.688 Y1.274
X-1.001 Y1.242
X-1.312 Y1.196
X-1.622 Y1.136
X-1.928 Y1.063
X-2.232 Y0.977
X-2.531 Y0.878
X-2.826 Y0.765
X-3.117 Y0.64
X-3.401 Y0.503
X-3.68 Y0.352
X-3.952 Y0.19
X-4.216 Y0.017
X-4.473 Y-0.169
X-4.722 Y-0.365
X-4.963 Y-0.572
X-5.194 Y-0.79
X-5.415 Y-1.017
X-5.627 Y-1.254
X-5.828 Y-1.5
X-6.018 Y-1.755
X-6.197 Y-2.018
X-6.365 Y-2.288
X-6.521 Y-2.566
X-6.664 Y-2.85
X-6.796 Y-3.141
X-6.914 Y-3.437
X-7.02 Y-3.737
X-7.112 Y-4.043
X-7.191 Y-4.352
X-7.256 Y-4.664
X-7.308 Y-4.979
X-7.347 Y-5.296
X-7.371 Y-5.614
X-7.382 Y-5.934
X-7.378 Y-6.253
X-7.361 Y-6.572
X-7.33 Y-6.891
X-7.285 Y-7.207
X-7.226 Y-7.522
X-7.154 Y-7.833
X-7.068 Y-8.141
X-6.969 Y-8.446
X-6.857 Y-8.745
X-6.731 Y-9.04
X-6.593 Y-9.329
X-6.443 Y-9.612
X-6.28 Y-9.888
X-6.106 Y-10.156
X-5.92 Y-10.417
X-5.723 Y-10.67
X-5.515 Y-10.914
X-5.296 Y-11.149
X-5.067 Y-11.374
X-4.829 Y-11.588
X-4.582 Y-11.793
X-4.326 Y-11.986
X-4.061 Y-12.169
X-3.789 Y-12.339
X-3.51 Y-12.498
X-3.224 Y-12.645
X-2.931 Y-12.779
X-2.633 Y-12.9
X-2.33 Y-13.008
X-2.022 Y-13.103
X-1.71 Y-13.184
X-1.395 Y-13.252
X-1.077 Y-13.306
X-0.756 Y-13.347
X-0.434 Y-13.373
X-0.111 Y-13.385
X0.213 Y-13.384
X0.536 Y-13.368
X0.859 Y-13.338
X1.18 Y-13.294
X1.5 Y-13.236
X1.817 Y-13.165
X2.13 Y-13.079
X2.44 Y-12.98
X2.746 Y-12.867
X3.046 Y-12.741
X3.341 Y-12.602
X3.63 Y-12.451
X3.912 Y-12.287
X4.187 Y-12.11
X4.454 Y-11.922
X4.713 Y-11.722
X4.963 Y-11.511
X5.204 Y-11.289
X5.435 Y-11.056
X5.656 Y-10.814
X5.866 Y-10.563
X6.065 Y-10.302
X6.253 Y-10.033
X6.429 Y-9.756
X6.592 Y-9.471
X6.743 Y-9.179
X6.882 Y-8.881
X7.007 Y-8.578
X7.119 Y-8.269
X7.218 Y-7.955
X7.303 Y-7.638
X7.373 Y-7.316
X7.43 Y-6.993
X7.473 Y-6.666
X7.502 Y-6.339
X7.516 Y-6.01
Y-5.681
X7.502 Y-5.352
X7.473 Y-5.024
X7.43 Y-4.698
X7.373 Y-4.374
X7.302 Y-4.052
X7.217 Y-3.734
X7.119 Y-3.42
X7.006 Y-3.11
X6.881 Y-2.806
X6.742 Y-2.507
X6.59 Y-2.214
X6.426 Y-1.928
X6.249 Y-1.65
X6.06 Y-1.379
X5.86 Y-1.117
X5.648 Y-0.863
X5.426 Y-0.619
X5.193 Y-0.385
X4.95 Y-0.161
X4.697 Y0.052
X4.435 Y0.254
X4.164 Y0.445
X3.886 Y0.624
X3.599 Y0.791
X3.306 Y0.945
X3.006 Y1.086
X2.7 Y1.214
X2.388 Y1.329
X2.071 Y1.431
X1.751 Y1.518
X1.426 Y1.591
X1.099 Y1.651
X0.769 Y1.696
X0.437 Y1.727
X0.104 Y1.743
X-0.23 Y1.745
X-0.563 Y1.732
X-0.896 Y1.704
X-1.228 Y1.663
X-1.558 Y1.607
X-1.885 Y1.536
X-2.209 Y1.451
X-2.529 Y1.353
X-2.845 Y1.24
X-3.155 Y1.114
X-3.46 Y0.974
X-3.759 Y0.821
X-4.051 Y0.655
X-4.336 Y0.476
X-4.613 Y0.286
X-4.882 Y0.083
X-5.141 Y-0.132
X-5.391 Y-0.357
X-5.631 Y-0.594
X-5.861 Y-0.84
X-6.08 Y-1.097
X-6.287 Y-1.363
X-6.483 Y-1.638
X-6.667 Y-1.921
X-6.839 Y-2.212
X-6.997 Y-2.51
X-7.143 Y-2.815
X-7.275 Y-3.126
X-7.394 Y-3.443
X-7.499 Y-3.765
X-7.589 Y-4.091
X-7.666 Y-4.421
X-7.728 Y-4.754
X-7.776 Y-5.089
X-7.809 Y-5.426
X-7.827 Y-5.765
X-7.831 Y-6.104
X-7.819 Y-6.443
X-7.793 Y-6.781
X-7.753 Y-7.118
X-7.698 Y-7.453
X-7.628 Y-7.785
X-7.544 Y-8.114
X-7.445 Y-8.439
X-7.333 Y-8.759
X-7.207 Y-9.074
X-7.067 Y-9.384
X-6.914 Y-9.687
X-6.747 Y-9.984
X-6.568 Y-10.272
X-6.377 Y-10.553
X-6.173 Y-10.826
X-5.958 Y-11.089
X-5.732 Y-11.343
X-5.494 Y-11.587
X-5.246 Y-11.82
X-4.988 Y-12.042
X-4.721 Y-12.253
X-4.445 Y-12.452
X-4.16 Y-12.639
X-3.867 Y-12.814
X-3.567 Y-12.976
X-3.26 Y-13.124
X-2.946 Y-13.259
X-2.627 Y-13.381
X-2.303 Y-13.488
X-1.974 Y-13.582
X-1.641 Y-13.661
X-1.305 Y-13.725
X-0.967 Y-13.775
X-0.626 Y-13.81
X-0.283 Y-13.831
X0.06 Y-13.836
X0.403 Y-13.827
X0.746 Y-13.802
X1.087 Y-13.763
X1.427 Y-13.709
X1.764 Y-13.64
X2.098 Y-13.556
X2.429 Y-13.458
X2.755 Y-13.345
X3.076 Y-13.219
X3.392 Y-13.078
X3.701 Y-12.924
X4.004 Y-12.756
X4.299 Y-12.575
X4.586 Y-12.382
X4.865 Y-12.176
X5.135 Y-11.958
X5.395 Y-11.728
X5.645 Y-11.487
X5.884 Y-11.236
X6.112 Y-10.974
X6.329 Y-10.702
X6.534 Y-10.421
X6.726 Y-10.132
X6.906 Y-9.834
X7.072 Y-9.528
X7.226 Y-9.216
X7.365 Y-8.897
X7.491 Y-8.572
X7.602 Y-8.242
X7.699 Y-7.908
X7.781 Y-7.569
X7.849 Y-7.227
X7.901 Y-6.883
X7.939 Y-6.536
X7.961 Y-6.188
X7.969 Y-5.84
X7.961 Y-5.491
X7.938 Y-5.143
X7.9 Y-4.797
X7.847 Y-4.452
X7.779 Y-4.11
X7.696 Y-3.771
X7.598 Y-3.436
X7.486 Y-3.105
X7.36 Y-2.78
X7.219 Y-2.46
X7.065 Y-2.147
X6.897 Y-1.841
X6.717 Y-1.542
X6.523 Y-1.251
X6.316 Y-0.968
X6.098 Y-0.695
X5.868 Y-0.432
X5.626 Y-0.179
X5.374 Y0.064
X5.111 Y0.296
X4.838 Y0.516
X4.556 Y0.724
X4.265 Y0.919
X3.965 Y1.102
X3.658 Y1.272
X3.343 Y1.428
X3.022 Y1.571
X2.695 Y1.699
X2.362 Y1.814
X2.024 Y1.913
X1.682 Y1.998
X1.337 Y2.068
X0.989 Y2.123
X0.638 Y2.163
X0.286 Y2.188
X-0.067 Y2.197
X-0.42 Y2.191
X-0.773 Y2.17
X-1.125 Y2.133
X-1.475 Y2.081
X-1.823 Y2.014
X-2.168 Y1.931
X-2.509 Y1.834
X-2.845 Y1.722
X-3.177 Y1.595
X-3.503 Y1.454
X-3.822 Y1.299
X-4.135 Y1.13
X-4.44 Y0.947
X-4.738 Y0.751
X-5.026 Y0.543
X-5.305 Y0.322
X-5.575 Y0.089
X-5.834 Y-0.156
X-6.083 Y-0.412
X-6.32 Y-0.679
X-6.546 Y-0.955
X-6.759 Y-1.242
X-6.96 Y-1.537
X-7.148 Y-1.841
X-7.322 Y-2.153
X-7.483 Y-2.473
X-7.63 Y-2.799
X-7.762 Y-3.131
X-7.88 Y-3.469
X-7.984 Y-3.812
X-8.072 Y-4.159
X-8.145 Y-4.51
X-8.203 Y-4.864
X-8.245 Y-5.22
X-8.272 Y-5.577
X-8.283 Y-5.936
X-8.279 Y-6.294
X-8.259 Y-6.653
X-8.224 Y-7.01
X-8.173 Y-7.365
X-8.107 Y-7.718
X-8.025 Y-8.068
X-7.928 Y-8.414
X-7.816 Y-8.755
X-7.69 Y-9.091
X-7.549 Y-9.422
X-7.394 Y-9.746
X-7.224 Y-10.063
X-7.041 Y-10.373
X-6.845 Y-10.674
X-6.636 Y-10.967
X-6.414 Y-11.25
X-6.18 Y-11.523
X-5.935 Y-11.786
X-5.678 Y-12.039
X-5.41 Y-12.279
X-5.132 Y-12.508
X-4.844 Y-12.725
X-4.547 Y-12.929
X-4.241 Y-13.121
X-3.927 Y-13.298
X-3.606 Y-13.462
X-3.278 Y-13.612
X-2.943 Y-13.748
X-2.602 Y-13.869
X-2.257 Y-13.975
X-1.907 Y-14.066
X-1.553 Y-14.141
X-1.196 Y-14.202
X-0.836 Y-14.246
X-0.475 Y-14.275
X-0.113 Y-14.289
X0.25 Y-14.286
X0.613 Y-14.268
X0.975 Y-14.234
X1.335 Y-14.185
X1.693 Y-14.119
X2.048 Y-14.038
X2.4 Y-13.942
X2.747 Y-13.83
X3.089 Y-13.704
X3.426 Y-13.562
X3.756 Y-13.406
X4.079 Y-13.236
X4.395 Y-13.051
X4.703 Y-12.853
X5.002 Y-12.642
X5.292 Y-12.417
X5.572 Y-12.18
X5.841 Y-11.932
X6.099 Y-11.671
X6.346 Y-11.4
X6.581 Y-11.117
X6.804 Y-10.825
X7.013 Y-10.524
X7.21 Y-10.213
X7.393 Y-9.894
X7.561 Y-9.567
X7.716 Y-9.234
X7.856 Y-8.893
X7.981 Y-8.547
X8.091 Y-8.196
X8.185 Y-7.84
X8.264 Y-7.481
X8.327 Y-7.118
X8.375 Y-6.753
X8.406 Y-6.386
X8.422 Y-6.018
X8.421 Y-5.649
X8.405 Y-5.281
X8.372 Y-4.914
X8.324 Y-4.549
X8.259 Y-4.186
X8.179 Y-3.826
X8.084 Y-3.47
X7.973 Y-3.118
X7.846 Y-2.772
X7.705 Y-2.431
X7.549 Y-2.097
X7.379 Y-1.769
X7.194 Y-1.449
X6.996 Y-1.138
X6.785 Y-0.835
X6.56 Y-0.542
X6.323 Y-0.258
X6.073 Y0.015
X5.812 Y0.276
X5.539 Y0.527
X5.256 Y0.765
X4.963 Y0.991
X4.66 Y1.204
X4.347 Y1.404
X4.027 Y1.59
X3.698 Y1.762
X3.362 Y1.92
X3.019 Y2.063
X2.67 Y2.191
X2.316 Y2.304
X1.957 Y2.401
X1.594 Y2.483
X1.228 Y2.549
X0.859 Y2.598
X0.487 Y2.632
X0.115 Y2.65
X-0.258 Y2.651
X-0.631 Y2.637
X-1.003 Y2.606
X-1.374 Y2.558
X-1.743 Y2.495
X-2.108 Y2.416
X-2.47 Y2.321
X-2.828 Y2.21
X-3.181 Y2.083
X-3.528 Y1.942
X-3.869 Y1.785
X-4.202 Y1.614
X-4.528 Y1.428
X-4.846 Y1.228
X-5.155 Y1.014
X-5.455 Y0.787
X-5.745 Y0.547
X-6.024 Y0.295
X-6.292 Y0.03
X-6.548 Y-0.246
X-6.792 Y-0.533
X-7.023 Y-0.83
X-7.242 Y-1.137
X-7.447 Y-1.454
X-7.638 Y-1.779
X-7.815 Y-2.113
X-7.977 Y-2.453
X-8.124 Y-2.801
X-8.256 Y-3.155
X-8.373 Y-3.515
X-8.474 Y-3.879
X-8.558 Y-4.247
X-8.627 Y-4.619
X-8.68 Y-4.994
X-8.716 Y-5.37
X-8.736 Y-5.748
X-8.74 Y-6.127
X-8.727 Y-6.505
X-8.697 Y-6.883
X-8.651 Y-7.259
X-8.589 Y-7.632
X-8.511 Y-8.003
X-8.416 Y-8.37
X-8.306 Y-8.733
X-8.18 Y-9.09
X-8.039 Y-9.442
X-7.882 Y-9.788
X-7.711 Y-10.126
X-7.524 Y-10.457
X-7.324 Y-10.779
X-7.11 Y-11.092
X-6.882 Y-11.396
X-6.642 Y-11.689
X-6.388 Y-11.972
X-6.123 Y-12.244
X-5.846 Y-12.504
X-5.558 Y-12.752
X-5.259 Y-12.987
X-4.95 Y-13.209
X-4.632 Y-13.417
X-4.305 Y-13.612
X-3.969 Y-13.792
X-3.626 Y-13.957
X-3.276 Y-14.108
X-2.92 Y-14.243
X-2.558 Y-14.362
X-2.191 Y-14.466
X-1.819 Y-14.554
X-1.444 Y-14.625
X-1.066 Y-14.68
X-0.686 Y-14.719
X-0.304 Y-14.741
X0.079 Y-14.747
X0.462 Y-14.736
X0.844 Y-14.708
X1.225 Y-14.663
X1.604 Y-14.603
X1.98 Y-14.525
X2.352 Y-14.431
X2.721 Y-14.321
X3.084 Y-14.196
X3.442 Y-14.054
X3.794 Y-13.897
X4.138 Y-13.724
X4.475 Y-13.537
X4.804 Y-13.335
X5.124 Y-13.119
X5.434 Y-12.889
X5.734 Y-12.645
X6.023 Y-12.389
X6.301 Y-12.121
X6.568 Y-11.84
X6.821 Y-11.548
X7.062 Y-11.245
X7.29 Y-10.932
X7.504 Y-10.609
X7.704 Y-10.277
X7.889 Y-9.936
X8.059 Y-9.588
X8.214 Y-9.232
X8.353 Y-8.871
X8.477 Y-8.503
X8.584 Y-8.13
X8.675 Y-7.753
X8.75 Y-7.372
X8.808 Y-6.988
X8.849 Y-6.602
X8.874 Y-6.215
X8.882 Y-5.827
X8.872 Y-5.438
X8.846 Y-5.051
X8.803 Y-4.665
X8.744 Y-4.281
X8.667 Y-3.9
X8.574 Y-3.523
X8.465 Y-3.15
X8.34 Y-2.782
X8.199 Y-2.419
X8.042 Y-2.063
X7.87 Y-1.715
X7.682 Y-1.373
X7.48 Y-1.041
X7.264 Y-0.717
X7.034 Y-0.403
X6.79 Y-0.099
X6.533 Y0.194
X6.264 Y0.476
X5.982 Y0.745
X5.689 Y1.003
X5.385 Y1.247
X5.071 Y1.478
X4.746 Y1.696
X4.412 Y1.899
X4.07 Y2.088
X3.72 Y2.261
X3.362 Y2.419
X2.997 Y2.562
X2.627 Y2.689
X2.251 Y2.799
X1.87 Y2.893
X1.486 Y2.971
X1.098 Y3.031
X0.708 Y3.075
X0.316 Y3.102
X-0.077 Y3.112
X-0.47 Y3.105
X-0.863 Y3.08
X-1.254 Y3.039
X-1.643 Y2.98
X-2.03 Y2.905
X-2.413 Y2.813
X-2.792 Y2.704
X-3.167 Y2.579
X-3.535 Y2.437
X-3.897 Y2.28
X-4.253 Y2.107
X-4.6 Y1.918
X-4.939 Y1.715
X-5.269 Y1.497
X-5.59 Y1.264
X-5.9 Y1.018
X-6.199 Y0.759
X-6.487 Y0.486
X-6.763 Y0.202
X-7.026 Y-0.095
X-7.276 Y-0.403
X-7.513 Y-0.721
X-7.736 Y-1.05
X-7.944 Y-1.388
X-8.138 Y-1.735
X-8.316 Y-2.091
X-8.479 Y-2.453
X-8.625 Y-2.823
X-8.756 Y-3.199
X-8.87 Y-3.58
X-8.968 Y-3.966
X-9.049 Y-4.356
X-9.112 Y-4.749
X-9.159 Y-5.144
X-9.188 Y-5.542
X-9.2 Y-5.94
X-9.195 Y-6.338
X-9.172 Y-6.736
X-9.132 Y-7.133
X-9.075 Y-7.528
X-9.001 Y-7.92
X-8.91 Y-8.308
X-8.802 Y-8.692
X-8.677 Y-9.071
X-8.536 Y-9.445
X-8.379 Y-9.812
X-8.206 Y-10.172
X-8.017 Y-10.524
X-7.814 Y-10.867
X-7.595 Y-11.202
X-7.362 Y-11.527
X-7.116 Y-11.841
X-6.855 Y-12.144
X-6.582 Y-12.436
X-6.296 Y-12.716
X-5.998 Y-12.983
X-5.689 Y-13.237
X-5.369 Y-13.478
X-5.039 Y-13.704
X-4.699 Y-13.916
X-4.35 Y-14.113
X-3.993 Y-14.294
X-3.628 Y-14.46
X-3.256 Y-14.61
X-2.877 Y-14.744
X-2.493 Y-14.862
X-2.104 Y-14.962
X-1.711 Y-15.046
X-1.315 Y-15.112
X-0.916 Y-15.161
X-0.514 Y-15.193
X-0.112 Y-15.207
X0.291 Y-15.204
X0.694 Y-15.183
X1.095 Y-15.145
X1.495 Y-15.089
X1.892 Y-15.016
X2.286 Y-14.926
X2.676 Y-14.818
X3.061 Y-14.694
X3.441 Y-14.553
X3.814 Y-14.395
X4.18 Y-14.222
X4.538 Y-14.032
X4.888 Y-13.827
X5.229 Y-13.607
X5.561 Y-13.372
X5.882 Y-13.123
X6.191 Y-12.86
X6.49 Y-12.583
X6.776 Y-12.294
X7.049 Y-11.993
X7.309 Y-11.68
X7.556 Y-11.355
X7.788 Y-11.021
X8.005 Y-10.676
X8.207 Y-10.322
X8.394 Y-9.96
X8.565 Y-9.589
X8.719 Y-9.212
X8.857 Y-8.828
X8.978 Y-8.439
X9.083 Y-8.044
X9.169 Y-7.645
X9.239 Y-7.243
X9.291 Y-6.838
X9.325 Y-6.431
X9.342 Y-6.023
X9.341 Y-5.615
X9.322 Y-5.207
X9.285 Y-4.8
X9.231 Y-4.395
X9.159 Y-3.993
X9.07 Y-3.594
X8.964 Y-3.199
X8.84 Y-2.81
X8.699 Y-2.426
X8.542 Y-2.048
X8.369 Y-1.677
X8.18 Y-1.315
X7.975 Y-0.96
X7.754 Y-0.615
X7.519 Y-0.28
X7.27 Y0.045
X7.006 Y0.358
X6.729 Y0.661
X6.439 Y0.95
X6.137 Y1.228
X5.823 Y1.491
X5.497 Y1.741
X5.161 Y1.977
X4.815 Y2.198
X4.459 Y2.404
X4.095 Y2.594
X3.722 Y2.768
X3.342 Y2.926
X2.955 Y3.067
X2.563 Y3.192
X2.165 Y3.299
X1.763 Y3.389
X1.357 Y3.461
X0.948 Y3.516
X0.537 Y3.553
X0.124 Y3.572
X-0.289 Y3.573
X-0.702 Y3.556
X-1.114 Y3.521
X-1.525 Y3.468
X-1.933 Y3.398
X-2.337 Y3.309
X-2.738 Y3.203
X-3.134 Y3.08
X-3.524 Y2.94
X-3.908 Y2.782
X-4.285 Y2.608
X-4.654 Y2.418
X-5.015 Y2.212
X-5.367 Y1.99
X-5.708 Y1.753
X-6.04 Y1.501
X-6.36 Y1.235
X-6.668 Y0.956
X-6.964 Y0.663
X-7.247 Y0.357
X-7.517 Y0.039
X-7.773 Y-0.29
X-8.014 Y-0.63
X-8.24 Y-0.981
X-8.451 Y-1.341
X-8.646 Y-1.71
X-8.825 Y-2.088
X-8.987 Y-2.473
X-9.133 Y-2.864
X-9.261 Y-3.262
X-9.372 Y-3.665
X-9.466 Y-4.073
X-9.541 Y-4.484
X-9.599 Y-4.899
X-9.638 Y-5.315
X-9.66 Y-5.733
X-9.663 Y-6.152
X-9.648 Y-6.571
X-9.615 Y-6.988
X-9.564 Y-7.404
X-9.494 Y-7.817
X-9.407 Y-8.227
X-9.302 Y-8.633
X-9.18 Y-9.034
X-9.04 Y-9.429
X-8.883 Y-9.818
X-8.709 Y-10.2
X-8.519 Y-10.574
X-8.313 Y-10.939
X-8.091 Y-11.295
X-7.853 Y-11.641
X-7.601 Y-11.977
X-7.334 Y-12.301
X-7.054 Y-12.614
X-6.76 Y-12.914
X-6.453 Y-13.201
X-6.134 Y-13.474
X-5.803 Y-13.734
X-5.462 Y-13.979
X-5.109 Y-14.209
X-4.747 Y-14.423
X-4.376 Y-14.622
X-3.997 Y-14.804
X-3.61 Y-14.97
X-3.215 Y-15.119
X-2.815 Y-15.251
X-2.409 Y-15.365
X-1.998 Y-15.461
X-1.583 Y-15.54
X-1.165 Y-15.6
X-0.745 Y-15.642
X-0.323 Y-15.666
X0.1 Y-15.672
X0.524 Y-15.659
X0.946 Y-15.627
X1.367 Y-15.578
X1.785 Y-15.51
X2.2 Y-15.424
X2.612 Y-15.32
X3.019 Y-15.198
X3.42 Y-15.058
X3.815 Y-14.901
X4.203 Y-14.727
X4.583 Y-14.536
X4.955 Y-14.329
X5.318 Y-14.105
X5.671 Y-13.866
X6.013 Y-13.612
X6.344 Y-13.342
X6.663 Y-13.059
X6.969 Y-12.762
X7.263 Y-12.452
X7.543 Y-12.129
X7.808 Y-11.794
X8.059 Y-11.448
X8.295 Y-11.091
X8.515 Y-10.724
X8.718 Y-10.348
X8.906 Y-9.964
X9.076 Y-9.571
X9.23 Y-9.171
X9.365 Y-8.765
X9.483 Y-8.354
X9.583 Y-7.937
X9.665 Y-7.517
X9.729 Y-7.093
X9.774 Y-6.667
X9.8 Y-6.239
X9.808 Y-5.811
X9.797 Y-5.382
X9.768 Y-4.955
X9.72 Y-4.529
X9.653 Y-4.105
X9.569 Y-3.685
X9.466 Y-3.268
X9.344 Y-2.857
X9.206 Y-2.451
X9.049 Y-2.051
X8.876 Y-1.659
X8.685 Y-1.274
X8.478 Y-0.898
X8.254 Y-0.531
X8.015 Y-0.174
X7.761 Y0.172
X7.491 Y0.507
X7.207 Y0.83
X6.91 Y1.141
X6.598 Y1.438
X6.275 Y1.721
X5.939 Y1.991
X5.591 Y2.245
X5.233 Y2.485
X4.865 Y2.708
X4.487 Y2.916
X4.1 Y3.107
X3.705 Y3.281
X3.302 Y3.437
X2.893 Y3.577
X2.479 Y3.698
X2.059 Y3.801
X1.635 Y3.886
X1.207 Y3.952
X0.777 Y4.
X0.345 Y4.029
X-0.088 Y4.039
X-0.522 Y4.031
X-0.955 Y4.003
X-1.386 Y3.957
X-1.815 Y3.892
X-2.242 Y3.808
X-2.664 Y3.706
X-3.082 Y3.586
X-3.494 Y3.447
X-3.9 Y3.291
X-4.299 Y3.117
X-4.69 Y2.925
X-5.073 Y2.717
X-5.446 Y2.492
X-5.81 Y2.252
X-6.162 Y1.995
X-6.504 Y1.723
X-6.833 Y1.437
X-7.15 Y1.136
X-7.453 Y0.822
X-7.743 Y0.495
X-8.018 Y0.155
X-8.279 Y-0.196
X-8.523 Y-0.558
X-8.752 Y-0.931
X-8.965 Y-1.314
X-9.161 Y-1.705
X-9.339 Y-2.105
X-9.501 Y-2.512
X-9.644 Y-2.927
X-9.769 Y-3.347
X-9.876 Y-3.772
X-9.964 Y-4.201
X-10.034 Y-4.634
X-10.085 Y-5.07
X-10.116 Y-5.508
X-10.129 Y-5.946
X-10.123 Y-6.385
X-10.097 Y-6.823
X-10.053 Y-7.26
X-9.989 Y-7.695
X-9.907 Y-8.126
X-9.806 Y-8.554
X-9.686 Y-8.977
X-9.548 Y-9.394
X-9.392 Y-9.805
X-9.219 Y-10.209
X-9.028 Y-10.605
X-8.82 Y-10.992
X-8.595 Y-11.37
X-8.354 Y-11.738
X-8.097 Y-12.096
X-7.825 Y-12.441
X-7.537 Y-12.775
X-7.236 Y-13.096
X-6.921 Y-13.404
X-6.593 Y-13.697
X-6.252 Y-13.977
X-5.899 Y-14.241
X-5.535 Y-14.489
X-5.161 Y-14.722
X-4.776 Y-14.938
X-4.383 Y-15.138
X-3.981 Y-15.32
X-3.571 Y-15.485
X-3.154 Y-15.631
X-2.731 Y-15.76
X-2.303 Y-15.87
X-1.87 Y-15.961
X-1.434 Y-16.034
X-0.994 Y-16.087
X-0.553 Y-16.122
X-0.11 Y-16.137
X0.334 Y-16.133
X0.777 Y-16.109
X1.218 Y-16.066
X1.658 Y-16.005
X2.095 Y-15.924
X2.528 Y-15.824
X2.957 Y-15.705
X3.38 Y-15.567
X3.797 Y-15.412
X4.207 Y-15.238
X4.61 Y-15.046
X5.004 Y-14.837
X5.388 Y-14.611
X5.763 Y-14.369
X6.127 Y-14.11
X6.479 Y-13.836
X6.82 Y-13.546
X7.147 Y-13.242
X7.461 Y-12.923
X7.761 Y-12.591
X8.047 Y-12.247
X8.317 Y-11.89
X8.572 Y-11.522
X8.81 Y-11.142
X9.032 Y-10.753
X9.236 Y-10.355
X9.423 Y-9.947
X9.593 Y-9.532
X9.744 Y-9.11
X9.876 Y-8.682
X9.99 Y-8.248
X10.085 Y-7.81
X10.161 Y-7.367
X10.218 Y-6.922
X10.255 Y-6.475
X10.273 Y-6.027
X10.271 Y-5.578
X10.249 Y-5.129
X10.209 Y-4.682
X10.148 Y-4.237
X10.069 Y-3.795
X9.97 Y-3.357
X9.852 Y-2.924
X9.716 Y-2.495
X9.561 Y-2.074
X9.388 Y-1.659
X9.197 Y-1.252
X8.988 Y-0.854
X8.762 Y-0.465
X8.52 Y-0.086
X8.261 Y0.282
X7.986 Y0.639
X7.696 Y0.983
X7.391 Y1.315
X7.072 Y1.633
X6.74 Y1.937
X6.394 Y2.226
X6.036 Y2.5
X5.666 Y2.759
X5.286 Y3.001
X4.895 Y3.226
X4.494 Y3.435
X4.084 Y3.626
X3.667 Y3.798
X3.242 Y3.953
X2.811 Y4.089
X2.373 Y4.206
X1.932 Y4.305
X1.486 Y4.383
X1.036 Y4.443
X0.585 Y4.483
X0.132 Y4.503
X-0.322 Y4.504
X-0.775 Y4.484
X-1.228 Y4.445
X-1.678 Y4.387
X-2.126 Y4.309
X-2.57 Y4.211
X-3.01 Y4.094
X-3.444 Y3.958
X-3.872 Y3.804
X-4.294 Y3.63
X-4.707 Y3.439
X-5.112 Y3.23
X-5.508 Y3.003
X-5.893 Y2.759
X-6.268 Y2.498
X-6.631 Y2.222
X-6.982 Y1.929
X-7.32 Y1.622
X-7.644 Y1.3
X-7.954 Y0.964
X-8.25 Y0.615
X-8.53 Y0.253
X-8.794 Y-0.121
X-9.042 Y-0.506
X-9.272 Y-0.901
X-9.486 Y-1.306
X-9.682 Y-1.721
X-9.859 Y-2.143
X-10.018 Y-2.573
X-10.158 Y-3.01
X-10.279 Y-3.452
X-10.381 Y-3.899
X-10.464 Y-4.351
X-10.526 Y-4.805
X-10.569 Y-5.262
X-10.592 Y-5.721
X-10.595 Y-6.18
X-10.578 Y-6.639
X-10.541 Y-7.097
X-10.484 Y-7.553
X-10.407 Y-8.006
X-10.311 Y-8.455
X-10.195 Y-8.9
X-10.06 Y-9.339
X-9.906 Y-9.773
X-9.734 Y-10.199
X-9.543 Y-10.617
X-9.334 Y-11.027
X-9.107 Y-11.427
X-8.863 Y-11.818
X-8.602 Y-12.197
X-8.325 Y-12.565
X-8.032 Y-12.92
X-7.724 Y-13.262
X-7.401 Y-13.591
X-7.064 Y-13.905
X-6.714 Y-14.205
X-6.351 Y-14.489
X-5.976 Y-14.757
X-5.589 Y-15.008
X-5.192 Y-15.243
X-4.785 Y-15.46
X-4.369 Y-15.66
X-3.944 Y-15.841
X-3.511 Y-16.003
X-3.072 Y-16.147
X-2.627 Y-16.272
X-2.176 Y-16.377
X-1.722 Y-16.462
X-1.263 Y-16.528
X-0.802 Y-16.573
X-0.34 Y-16.599
X0.124 Y-16.604
X0.588 Y-16.589
X1.05 Y-16.555
X1.511 Y-16.5
X1.97 Y-16.424
X2.425 Y-16.33
X2.875 Y-16.215
X3.321 Y-16.081
X3.76 Y-15.927
X4.193 Y-15.754
X4.618 Y-15.563
X5.034 Y-15.353
X5.441 Y-15.126
X5.838 Y-14.88
X6.224 Y-14.618
X6.598 Y-14.339
X6.96 Y-14.044
X7.309 Y-13.733
X7.644 Y-13.407
X7.965 Y-13.067
X8.271 Y-12.713
X8.561 Y-12.346
X8.835 Y-11.967
X9.093 Y-11.576
X9.333 Y-11.174
X9.556 Y-10.762
X9.76 Y-10.34
X9.946 Y-9.91
X10.113 Y-9.473
X10.261 Y-9.028
X10.39 Y-8.577
X10.499 Y-8.121
X10.588 Y-7.661
X10.657 Y-7.197
X10.705 Y-6.73
X10.734 Y-6.262
X10.742 Y-5.793
X10.729 Y-5.324
X10.696 Y-4.856
X10.643 Y-4.389
X10.57 Y-3.926
X10.476 Y-3.466
X10.363 Y-3.01
X10.23 Y-2.56
X10.077 Y-2.115
X9.905 Y-1.678
X9.715 Y-1.249
X9.505 Y-0.828
X9.278 Y-0.417
X9.033 Y-0.015
X8.771 Y0.375
X8.491 Y0.754
X8.196 Y1.12
X7.885 Y1.473
X7.559 Y1.812
X7.218 Y2.137
X6.863 Y2.447
X6.495 Y2.741
X6.114 Y3.019
X5.722 Y3.281
X5.318 Y3.525
X4.904 Y3.751
X4.481 Y3.96
X4.048 Y4.15
X3.608 Y4.32
X3.16 Y4.472
X2.706 Y4.604
X2.247 Y4.716
X1.783 Y4.809
X1.315 Y4.881
X0.844 Y4.932
X0.371 Y4.963
X-0.102 Y4.974
X-0.576 Y4.964
X-1.05 Y4.933
X-1.522 Y4.882
X-1.991 Y4.81
X-2.457 Y4.718
X-2.919 Y4.606
X-3.375 Y4.473
X-3.826 Y4.321
X-4.269 Y4.149
X-4.705 Y3.959
X-5.133 Y3.749
X-5.551 Y3.521
X-5.959 Y3.274
X-6.356 Y3.011
X-6.741 Y2.73
X-7.114 Y2.432
X-7.473 Y2.119
X-7.819 Y1.789
X-8.15 Y1.446
X-8.466 Y1.088
X-8.767 Y0.716
X-9.051 Y0.332
X-9.318 Y-0.065
X-9.568 Y-0.473
X-9.799 Y-0.891
X-10.013 Y-1.319
X-10.207 Y-1.757
X-10.383 Y-2.202
X-10.539 Y-2.655
X-10.675 Y-3.114
X-10.791 Y-3.578
X-10.887 Y-4.048
X-10.963 Y-4.521
X-11.017 Y-4.997
X-11.051 Y-5.476
X-11.064 Y-5.955
X-11.057 Y-6.435
X-11.028 Y-6.913
X-10.979 Y-7.391
X-10.909 Y-7.865
X-10.818 Y-8.337
X-10.707 Y-8.804
X-10.576 Y-9.265
X-10.425 Y-9.721
X-10.254 Y-10.17
X-10.064 Y-10.611
X-9.854 Y-11.043
X-9.626 Y-11.466
X-9.38 Y-11.879
X-9.116 Y-12.281
X-8.835 Y-12.67
X-8.537 Y-13.048
X-8.223 Y-13.412
X-7.893 Y-13.762
X-7.549 Y-14.098
X-7.19 Y-14.418
X-6.817 Y-14.723
X-6.431 Y-15.011
X-6.033 Y-15.282
X-5.624 Y-15.535
X-5.203 Y-15.771
X-4.773 Y-15.988
X-4.334 Y-16.187
X-3.886 Y-16.366
X-3.431 Y-16.526
X-2.969 Y-16.665
X-2.501 Y-16.785
X-2.028 Y-16.884
X-1.551 Y-16.962
X-1.071 Y-17.02
X-0.589 Y-17.057
X-0.105 Y-17.073
X0.379 Y-17.068
X0.862 Y-17.041
X1.345 Y-16.994
X1.825 Y-16.926
X2.301 Y-16.837
X2.774 Y-16.727
X3.242 Y-16.597
X3.704 Y-16.446
X4.159 Y-16.276
X4.606 Y-16.085
X5.045 Y-15.876
X5.475 Y-15.647
X5.894 Y-15.4
X6.302 Y-15.135
X6.699 Y-14.852
X7.083 Y-14.552
X7.454 Y-14.235
X7.811 Y-13.903
X8.153 Y-13.555
X8.48 Y-13.192
X8.791 Y-12.816
X9.085 Y-12.426
X9.362 Y-12.024
X9.622 Y-11.61
X9.863 Y-11.185
X10.086 Y-10.75
X10.289 Y-10.306
X10.473 Y-9.852
X10.637 Y-9.392
X10.782 Y-8.924
X10.905 Y-8.451
X11.008 Y-7.973
X11.09 Y-7.49
X11.151 Y-7.005
X11.191 Y-6.517
X11.21 Y-6.028
X11.207 Y-5.538
X11.183 Y-5.049
X11.138 Y-4.561
X11.071 Y-4.076
X10.984 Y-3.594
X10.876 Y-3.116
X10.747 Y-2.643
X10.597 Y-2.177
X10.428 Y-1.717
X10.238 Y-1.265
X10.029 Y-0.821
X9.801 Y-0.387
X9.554 Y0.037
X9.289 Y0.45
X9.006 Y0.851
X8.706 Y1.239
X8.389 Y1.614
X8.056 Y1.975
X7.708 Y2.322
X7.345 Y2.653
X6.968 Y2.968
X6.577 Y3.266
X6.173 Y3.547
X5.758 Y3.811
X5.331 Y4.056
X4.894 Y4.283
X4.447 Y4.49
X3.991 Y4.678
X3.528 Y4.846
X3.058 Y4.994
X2.581 Y5.121
X2.099 Y5.227
X1.613 Y5.313
X1.123 Y5.377
X0.631 Y5.42
X0.137 Y5.441
X-0.358
X-0.852 Y5.419
X-1.345 Y5.376
X-1.836 Y5.312
X-2.323 Y5.226
X-2.807 Y5.119
X-3.286 Y4.991
X-3.759 Y4.842
X-4.225 Y4.673
X-4.684 Y4.483
X-5.134 Y4.274
X-5.575 Y4.046
X-6.006 Y3.798
X-6.425 Y3.531
X-6.833 Y3.247
X-7.228 Y2.945
X-7.61 Y2.626
X-7.978 Y2.291
X-8.331 Y1.94
X-8.668 Y1.573
X-8.989 Y1.193
X-9.294 Y0.798
X-9.581 Y0.391
X-9.85 Y-0.029
X-10.101 Y-0.46
X-10.333 Y-0.902
X-10.545 Y-1.353
X-10.738 Y-1.813
X-10.91 Y-2.282
X-11.062 Y-2.757
X-11.194 Y-3.239
X-11.304 Y-3.726
X-11.393 Y-4.218
X-11.46 Y-4.713
X-11.506 Y-5.211
X-11.531 Y-5.71
X-11.533 Y-6.21
X-11.514 Y-6.71
X-11.473 Y-7.209
X-11.41 Y-7.705
X-11.326 Y-8.198
X-11.221 Y-8.687
X-11.094 Y-9.171
X-10.947 Y-9.65
X-10.778 Y-10.121
X-10.59 Y-10.585
X-10.381 Y-11.04
X-10.153 Y-11.486
X-9.905 Y-11.922
X-9.639 Y-12.346
X-9.354 Y-12.759
X-9.052 Y-13.158
X-8.733 Y-13.545
X-8.397 Y-13.917
X-8.045 Y-14.274
X-7.678 Y-14.616
X-7.296 Y-14.942
X-6.9 Y-15.25
X-6.492 Y-15.542
X-6.071 Y-15.815
X-5.638 Y-16.07
X-5.194 Y-16.306
X-4.741 Y-16.522
X-4.278 Y-16.719
X-3.807 Y-16.895
X-3.329 Y-17.051
X-2.844 Y-17.185
X-2.354 Y-17.299
X-1.858 Y-17.391
X-1.36 Y-17.462
X-0.858 Y-17.511
X-0.354 Y-17.538
X0.15 Y-17.543
X0.654 Y-17.527
X1.158 Y-17.488
X1.659 Y-17.427
X2.158 Y-17.345
X2.653 Y-17.241
X3.143 Y-17.116
X3.627 Y-16.969
X4.105 Y-16.801
X4.575 Y-16.613
X5.037 Y-16.404
X5.489 Y-16.175
X5.932 Y-15.927
X6.363 Y-15.66
X6.782 Y-15.374
X7.189 Y-15.07
X7.582 Y-14.748
X7.961 Y-14.41
X8.325 Y-14.055
X8.674 Y-13.685
X9.006 Y-13.299
X9.321 Y-12.9
X9.618 Y-12.487
X9.898 Y-12.062
X10.158 Y-11.624
X10.4 Y-11.176
X10.621 Y-10.717
X10.823 Y-10.25
X11.004 Y-9.773
X11.164 Y-9.29
X11.304 Y-8.799
X11.421 Y-8.304
X11.517 Y-7.803
X11.592 Y-7.298
X11.644 Y-6.791
X11.674 Y-6.282
X11.682 Y-5.772
X11.668 Y-5.262
X11.631 Y-4.753
X11.573 Y-4.246
X11.492 Y-3.742
X11.39 Y-3.242
X11.266 Y-2.747
X11.121 Y-2.258
X10.954 Y-1.775
X10.767 Y-1.3
X10.559 Y-0.834
X10.331 Y-0.377
X10.083 Y0.07
X9.816 Y0.506
X9.53 Y0.93
X9.226 Y1.341
X8.904 Y1.739
X8.566 Y2.122
X8.21 Y2.49
X7.839 Y2.843
X7.453 Y3.179
X7.053 Y3.499
X6.639 Y3.8
X6.212 Y4.084
X5.773 Y4.349
X5.323 Y4.594
X4.862 Y4.82
X4.392 Y5.025
X3.913 Y5.21
X3.427 Y5.374
X2.933 Y5.517
X2.434 Y5.639
X1.93 Y5.738
X1.421 Y5.816
X0.91 Y5.871
X0.396 Y5.904
X-0.119 Y5.915
X-0.634 Y5.903
X-1.148 Y5.869
X-1.66 Y5.813
X-2.17 Y5.734
X-2.676 Y5.633
X-3.177 Y5.511
X-3.673 Y5.366
X-4.162 Y5.2
X-4.644 Y5.013
X-5.117 Y4.805
X-5.581 Y4.577
X-6.034 Y4.329
X-6.477 Y4.061
X-6.687 Y3.92
X-6.989 Y3.702
X-7.762 Y3.091
X-8.095 Y2.808
X-8.304 Y2.613
G3 X-7.891 Y2.179 R0.3
G1 X-6.632 Y3.221
G3 X-6.989 Y3.702 R0.3
G1 X-7.806 Y3.113
X-8.613 Y2.297
X-8.687 Y2.221
X-8.748 Y2.159
X-9.141 Y1.716
X-9.425 Y1.381
X-9.571 Y1.19
G3 X-9.09 Y0.834 R0.3
G1 X-8.313 Y1.748
G3 X-8.748 Y2.159 R0.3
G1 X-9.209 Y1.683
X-9.321 Y1.548
X-9.959 Y0.626
X-10.264 Y0.18
X-10.562 Y-0.337
X-11.179 Y-1.683
X-11.332 Y-2.087
X-11.481 Y-2.625
X-11.623 Y-3.163
X-11.659 Y-3.298
X-11.854 Y-4.263
X-11.864 Y-4.343
G3 X-11.27 Y-4.416 R0.3
G1 X-11.077 Y-3.443
G3 X-11.659 Y-3.298 R0.3
G1 X-11.83 Y-3.971
X-11.948 Y-5.317
X-11.979 Y-6.304
X-11.97 Y-6.732
X-11.944 Y-7.098
G3 X-11.348 Y-7.05 R0.3
G1 X-11.35 Y-5.353
G3 X-11.948 Y-5.317 R0.3
G1 X-11.991 Y-5.856
X-12. Y-6.26
X-11.974 Y-6.798
X-11.932 Y-7.202
X-11.723 Y-8.413
X-11.62 Y-8.993
X-11.574 Y-9.15
X-10.964 Y-10.859
X-10.702 Y-11.375
X-9.935 Y-12.721
X-9.514 Y-13.26
X-8.719 Y-14.224
X-8.344 Y-14.595
X-7.268 Y-15.516
X-6.864 Y-15.826
X-5.518 Y-16.632
X-5.114 Y-16.841
X-3.634 Y-17.408
X-3.197 Y-17.55
X-1.346 Y-17.912
X-0.538 Y-17.941
X0.538 Y-17.96
X0.942 Y-17.941
X2.732 Y-17.668
X2.961 Y-17.602
X4.576 Y-17.067
X5.114 Y-16.812
X6.46 Y-16.082
X6.729 Y-15.9
X7.94 Y-14.944
X8.21 Y-14.713
X8.344 Y-14.578
X9.421 Y-13.38
X9.624 Y-13.125
X10.554 Y-11.644
X10.755 Y-11.24
X11.305 Y-9.89
X11.454 Y-9.49
X11.843 Y-7.724
X11.863 Y-7.606
X11.902 Y-7.067
X11.956 Y-5.721
X11.948 Y-5.317
X11.709 Y-3.493
X11.494 Y-2.76
X11.159 Y-1.683
X10.995 Y-1.279
X10.228 Y0.212
X10.073 Y0.471
X8.959 Y1.952
X8.748 Y2.166
X7.537 Y3.303
X7.384 Y3.433
X5.922 Y4.395
X5.478 Y4.644
X4.038 Y5.264
X3.634 Y5.413
X1.884 Y5.836
X1.48 Y5.876
X0. Y5.974
X-0.404 Y5.971
X-1.077 Y5.904
X-2.288 Y5.774
X-4.307 Y5.197
X-6.056 Y4.348
X-6.191 Y4.276
X-6.687 Y3.92
G3 X-6.763 Y3.831 R0.3
G1 X-6.797 Y3.774 Z-4.992
X-6.828 Y3.718 Z-4.97
X-6.856 Y3.669 Z-4.935
X-6.88 Y3.628 Z-4.887
X-6.898 Y3.597 Z-4.83
X-6.909 Y3.578 Z-4.767
X-6.912 Y3.571 Z-4.7
G0 Z15.

M9
M30
