(__3_5)
(T1  D=3. CR=0. - ZMIN=-5. - FLAT END MILL)
G90 G94 G91.1 G40 G49 G17
G21

(DRILL1)
M5
M9
T1
S9700 M3
G54
M8
G0 X15.487 Y58.35
G43 Z15. H1
Z5.
G98 G83 X15.487 Y58.35 Z-5. R0. Q0. F200.
X-15.513
Y27.35
X-38.118 Y34.5
Y-2.5
X-23.013 Y-6.
X22.987
X38.093 Y-2.5
Y2.
X52.093 Y16.
X38.093 Y30.
Y34.5
X15.487 Y27.35
X24.093 Y16.
X9.887 Y-59.899
X18.487 Y-50.
X9.887 Y-40.101
X-9.912
X-18.513 Y-50.
X-9.912 Y-59.899
G80
Z15.

M9
M30
