(___0.5)
(T1  D=3.175 CR=0. - ZMIN=-20. - FLAT END MILL)
G90 G94 G91.1 G40 G49 G17
G21

(2D CONTOUR4)
M5
M9
T1
S9170 M3
G54
M8
G0 X-6.755 Y-1.756
G43 Z15. H1
Z5.
G1 Z2.5 F762.
G3 X7.134 Y4.066 Z1.674 R7.53 F465.
X-6.755 Y-1.756 Z0.848 R7.53
X7.134 Y4.066 Z0.022 R7.53
X-7.341 Y1.155 Z-0.7 R7.53
X7.719 R7.53
X-7.341 R7.53
X9.236 R8.288
X-8.857 R9.046
X10.752 R9.804
X-10.373 R10.563
X12.268 R11.321
X-11.889 R12.079
X13.784 R12.837
X-13.406 R13.595
X14.102 R13.754
X-13.723 R13.913
X14.102 R13.913
G1 X13.799 Z-0.67
G0 Z15.

(2D CONTOUR3)
M8
G0 X0.2 Y12.567
Z15.
Z5.
G1 Z2.5 F762.
G3 X0.179 Y-10.258 Z1.248 R11.412 F465.
X0.2 Y12.567 Z-0.004 R11.412
X-6.658 Y-7.975 Z-1. R11.412
X7.037 Y10.285 R11.412
X-6.658 Y-7.975 R11.412
X11.109 Y4.472 Z-2. R11.412
X-10.73 Y-2.162 R11.412
X11.109 Y4.472 R11.412
X-10.579 Y4.934 Z-3. R11.412
X10.958 Y-2.624 R11.412
X-10.579 Y4.934 R11.412
X6.642 Y-8.258 Z-4. R11.412
X-6.263 Y10.568 R11.412
X6.642 Y-8.258 R11.412
X0.548 Y12.562 Z-5. R11.412
X-0.17 Y-10.252 R11.412
X0.548 Y12.562 R11.412
X-6.843 Y-7.834 Z-6. R11.412
X7.221 Y10.144 R11.412
X-6.843 Y-7.834 R11.412
X11.174 Y4.249 Z-7. R11.412
X-10.796 Y-1.939 R11.412
X11.174 Y4.249 R11.412
X-10.5 Y5.152 Z-8. R11.412
X10.879 Y-2.842 R11.412
X-10.5 Y5.152 R11.412
X6.449 Y-8.388 Z-9. R11.412
X-6.07 Y10.697 R11.412
X6.449 Y-8.388 R11.412
X0.781 Y12.552 Z-10. R11.412
X-0.402 Y-10.242 R11.412
X0.781 Y12.552 R11.412
X-7.024 Y-7.689 Z-11. R11.412
X7.403 Y9.999 R11.412
X-7.024 Y-7.689 R11.412
X11.235 Y4.025 Z-12. R11.412
X-10.856 Y-1.715 R11.412
X11.235 Y4.025 R11.412
X-10.417 Y5.369 Z-13. R11.412
X10.795 Y-3.059 R11.412
X-10.417 Y5.369 R11.412
X6.254 Y-8.513 Z-14. R11.412
X-5.875 Y10.823 R11.412
X6.254 Y-8.513 R11.412
X1.012 Y12.538 Z-15. R11.412
X-0.634 Y-10.228 R11.412
X1.012 Y12.538 R11.412
X-7.203 Y-7.54 Z-16. R11.412
X7.581 Y9.85 R11.412
X-7.203 Y-7.54 R11.412
X-6.658 Y-7.975 Z-16.024 R11.412
X11.291 Y3.799 Z-17. R11.412
X-10.913 Y-1.489 R11.412
X11.291 Y3.799 R11.412
X-10.329 Y5.584 Z-18. R11.412
X10.707 Y-3.274 R11.412
X-10.329 Y5.584 R11.412
X6.055 Y-8.635 Z-19. R11.412
X-5.677 Y10.944 R11.412
X6.055 Y-8.635 R11.412
X1.244 Y12.519 Z-20. R11.412
X-0.865 Y-10.209 R11.412
X1.244 Y12.519 R11.412
G0 Z15.

M9
M30
