(__3_2)
(T1  D=3. CR=0. - ZMIN=-5. - FLAT END MILL)
G90 G94 G91.1 G40 G49 G17
G21

(2D ADAPTIVE2)
M5
M9
T1
S9700 M3
G54
M8
G0 X-53.426 Y-58.128
G43 Z15. H1
Z5.
Z0.845
G1 Z0.545 F466.
G3 X-54.598 Y-57.872 Z0.413 R0.6
X-53.426 Y-58.128 Z0.281 R0.6
X-54.598 Y-57.872 Z0.15 R0.6
X-53.426 Y-58.128 Z0.018 R0.6
X-54.598 Y-57.872 Z-0.114 R0.6
X-53.426 Y-58.128 Z-0.246 R0.6
X-54.598 Y-57.872 Z-0.378 R0.6
X-53.426 Y-58.128 Z-0.509 R0.6
X-54.598 Y-57.872 Z-0.641 R0.6
X-53.426 Y-58.128 Z-0.773 R0.6
X-54.598 Y-57.872 Z-0.905 R0.6
X-53.426 Y-58.128 Z-1.037 R0.6
X-54.598 Y-57.872 Z-1.169 R0.6
X-53.426 Y-58.128 Z-1.3 R0.6
X-54.598 Y-57.872 Z-1.432 R0.6
X-53.426 Y-58.128 Z-1.564 R0.6
X-54.598 Y-57.872 Z-1.696 R0.6
X-53.426 Y-58.128 Z-1.828 R0.6
X-54.598 Y-57.872 Z-1.959 R0.6
X-53.426 Y-58.128 Z-2.091 R0.6
X-54.598 Y-57.872 Z-2.223 R0.6
X-53.426 Y-58.128 Z-2.355 R0.6
X-54.598 Y-57.872 Z-2.487 R0.6
X-53.426 Y-58.128 Z-2.618 R0.6
X-54.598 Y-57.872 Z-2.75 R0.6
X-53.426 Y-58.128 Z-2.882 R0.6
X-54.598 Y-57.872 Z-3.014 R0.6
X-53.426 Y-58.128 Z-3.146 R0.6
X-54.598 Y-57.872 Z-3.277 R0.6
X-53.426 Y-58.128 Z-3.409 R0.6
X-54.598 Y-57.872 Z-3.541 R0.6
X-53.426 Y-58.128 Z-3.673 R0.6
X-54.598 Y-57.872 Z-3.805 R0.6
X-53.426 Y-58.128 Z-3.937 R0.6
X-54.598 Y-57.872 Z-4.068 R0.6
X-53.426 Y-58.128 Z-4.2 R0.6
X-54.598 Y-57.872 Z-4.332 R0.6
X-53.426 Y-58.128 Z-4.464 R0.6
X-54.598 Y-57.872 Z-4.596 R0.6
X-53.426 Y-58.128 Z-4.727 R0.6
X-54.598 Y-57.872 Z-4.859 R0.6
X-54.076 Y-58.597 Z-4.93 R0.6
X-53.412 Y-58. Z-5. R0.6
X-54.612 R0.6
X-53.412 R0.6
G1 X-53.397 Y-57.644
X-53.445 Y-57.518
X-53.525 Y-57.409
X-53.627 Y-57.321
X-53.745 Y-57.255
X-53.873 Y-57.213
X-54.007 Y-57.195
X-54.142 Y-57.202
X-54.274 Y-57.231
X-54.398 Y-57.283
X-54.512 Y-57.355
X-54.613 Y-57.446
X-54.696 Y-57.552
X-54.761 Y-57.67
X-54.806 Y-57.797
X-54.829 Y-57.93
X-54.83 Y-58.065
X-54.808 Y-58.199
X-54.765 Y-58.327
X-54.702 Y-58.446
X-54.619 Y-58.553
X-54.521 Y-58.645
X-54.408 Y-58.719
X-54.285 Y-58.775
X-54.154 Y-58.809
X-54.02 Y-58.821
X-53.885 Y-58.812
X-53.754 Y-58.78
X-53.63 Y-58.727
X-53.516 Y-58.655
X-53.415 Y-58.564
X-53.331 Y-58.459
X-53.264 Y-58.342
X-53.21 Y-58.218
X-53.167 Y-58.09
X-53.14 Y-57.958
X-53.133 Y-57.823
X-53.147 Y-57.689
X-53.18 Y-57.558
X-53.234 Y-57.434
X-53.307 Y-57.321
X-53.397 Y-57.22
X-53.501 Y-57.133
X-53.616 Y-57.063
X-53.74 Y-57.01
X-53.871 Y-56.976
X-54.005 Y-56.961
X-54.14 Y-56.963
X-54.273 Y-56.983
X-54.403 Y-57.022
X-54.526 Y-57.077
X-54.641 Y-57.148
X-54.745 Y-57.233
X-54.838 Y-57.331
X-54.917 Y-57.441
X-54.982 Y-57.56
X-55.031 Y-57.685
X-55.063 Y-57.816
X-55.079 Y-57.95
X-55.077 Y-58.085
X-55.058 Y-58.219
X-55.023 Y-58.349
X-54.971 Y-58.474
X-54.903 Y-58.591
X-54.822 Y-58.699
X-54.728 Y-58.796
X-54.622 Y-58.88
X-54.507 Y-58.949
X-54.383 Y-59.004
X-54.254 Y-59.043
X-54.121 Y-59.065
X-53.986 Y-59.07
X-53.851 Y-59.058
X-53.719 Y-59.03
X-53.592 Y-58.985
X-53.472 Y-58.924
X-53.36 Y-58.849
X-53.257 Y-58.761
X-53.165 Y-58.662
X-53.084 Y-58.554
X-53.014 Y-58.439
X-52.956 Y-58.317
X-52.913 Y-58.189
X-52.884 Y-58.057
X-52.869 Y-57.923
X-52.871 Y-57.78
X-52.915 Y-57.577
X-52.994 Y-57.386
X-53.106 Y-57.211
X-53.134 Y-57.174
X-53.211 Y-57.086
X-53.56 Y-56.875
X-53.632 Y-56.846
X-54.036 Y-56.785
X-54.103 Y-56.789
X-54.507 Y-56.889
X-54.69 Y-57.01
X-54.876 Y-57.144
X-54.91 Y-57.181
X-55.126 Y-57.514
X-55.141 Y-57.548
X-55.243 Y-58.053
X-55.235 Y-58.154
X-55.055 Y-58.625
X-54.999 Y-58.701
X-54.743 Y-58.973
X-54.507 Y-59.094
X-54.359 Y-59.163
X-54.298 Y-59.181
X-53.867 Y-59.207
X-53.565 Y-59.116
X-53.43 Y-59.067
X-53.371 Y-59.029
X-53.161 Y-58.851
X-53.043 Y-58.731
X-52.868 Y-58.402
X-52.842 Y-58.322
X-52.8 Y-57.918
X-52.817 Y-57.817
X-52.915 Y-57.481
X-52.95 Y-57.413
X-53.106 Y-57.211
X-53.134 Y-57.188 Z-4.994
X-53.159 Y-57.168 Z-4.977
X-53.179 Y-57.152 Z-4.951
X-53.192 Y-57.141 Z-4.918
X-53.197 Y-57.138 Z-4.882
G0 Z5.
X-29.157 Y-26.128
Z0.845
G1 Z0.545 F466.
G3 X-30.329 Y-25.872 Z0.413 R0.6
X-29.157 Y-26.128 Z0.281 R0.6
X-30.329 Y-25.872 Z0.15 R0.6
X-29.157 Y-26.128 Z0.018 R0.6
X-30.329 Y-25.872 Z-0.114 R0.6
X-29.157 Y-26.128 Z-0.246 R0.6
X-30.329 Y-25.872 Z-0.378 R0.6
X-29.157 Y-26.128 Z-0.509 R0.6
X-30.329 Y-25.872 Z-0.641 R0.6
X-29.157 Y-26.128 Z-0.773 R0.6
X-30.329 Y-25.872 Z-0.905 R0.6
X-29.157 Y-26.128 Z-1.037 R0.6
X-30.329 Y-25.872 Z-1.169 R0.6
X-29.157 Y-26.128 Z-1.3 R0.6
X-30.329 Y-25.872 Z-1.432 R0.6
X-29.157 Y-26.128 Z-1.564 R0.6
X-30.329 Y-25.872 Z-1.696 R0.6
X-29.157 Y-26.128 Z-1.828 R0.6
X-30.329 Y-25.872 Z-1.959 R0.6
X-29.157 Y-26.128 Z-2.091 R0.6
X-30.329 Y-25.872 Z-2.223 R0.6
X-29.157 Y-26.128 Z-2.355 R0.6
X-30.329 Y-25.872 Z-2.487 R0.6
X-29.157 Y-26.128 Z-2.618 R0.6
X-30.329 Y-25.872 Z-2.75 R0.6
X-29.157 Y-26.128 Z-2.882 R0.6
X-30.329 Y-25.872 Z-3.014 R0.6
X-29.157 Y-26.128 Z-3.146 R0.6
X-30.329 Y-25.872 Z-3.277 R0.6
X-29.157 Y-26.128 Z-3.409 R0.6
X-30.329 Y-25.872 Z-3.541 R0.6
X-29.157 Y-26.128 Z-3.673 R0.6
X-30.329 Y-25.872 Z-3.805 R0.6
X-29.157 Y-26.128 Z-3.937 R0.6
X-30.329 Y-25.872 Z-4.068 R0.6
X-29.157 Y-26.128 Z-4.2 R0.6
X-30.329 Y-25.872 Z-4.332 R0.6
X-29.157 Y-26.128 Z-4.464 R0.6
X-30.329 Y-25.872 Z-4.596 R0.6
X-29.157 Y-26.128 Z-4.727 R0.6
X-30.329 Y-25.872 Z-4.859 R0.6
X-29.808 Y-26.597 Z-4.93 R0.6
X-29.143 Y-26. Z-5. R0.6
X-30.343 R0.6
X-29.143 R0.6
G1 X-29.128 Y-25.644
X-29.176 Y-25.518
X-29.256 Y-25.409
X-29.358 Y-25.32
X-29.476 Y-25.255
X-29.604 Y-25.213
X-29.738 Y-25.195
X-29.873 Y-25.201
X-30.005 Y-25.231
X-30.129 Y-25.283
X-30.243 Y-25.355
X-30.344 Y-25.445
X-30.428 Y-25.551
X-30.493 Y-25.67
X-30.537 Y-25.797
X-30.56 Y-25.93
X-30.561 Y-26.065
X-30.539 Y-26.198
X-30.496 Y-26.326
X-30.433 Y-26.445
X-30.35 Y-26.552
X-30.252 Y-26.644
X-30.139 Y-26.719
X-30.016 Y-26.774
X-29.885 Y-26.809
X-29.751 Y-26.821
X-29.616 Y-26.811
X-29.485 Y-26.779
X-29.361 Y-26.727
X-29.247 Y-26.654
X-29.146 Y-26.564
X-29.062 Y-26.459
X-28.966 Y-26.224
X-28.934 Y-25.972
X-28.968 Y-25.72
X-29.066 Y-25.486
X-29.221 Y-25.284
X-29.423 Y-25.13
X-29.658 Y-25.033
X-29.909 Y-25.
X-29.941
X-30.075 Y-25.007
X-30.202 Y-25.053
X-30.321 Y-25.117
X-30.431 Y-25.195
X-30.529 Y-25.288
X-30.615 Y-25.393
X-30.686 Y-25.507
X-30.742 Y-25.63
X-30.782 Y-25.759
X-30.804 Y-25.892
X-30.81 Y-26.027
X-30.799 Y-26.161
X-30.722 Y-26.389
X-30.596 Y-26.593
X-30.428 Y-26.764
X-30.225 Y-26.893
X-29.999 Y-26.973
X-29.76 Y-27.
X-29.669
X-29.534 Y-26.993
X-29.401 Y-26.97
X-29.274 Y-26.926
X-29.154 Y-26.864
X-29.046 Y-26.783
X-28.95 Y-26.688
X-28.868 Y-26.581
X-28.8 Y-26.464
X-28.747 Y-26.34
X-28.707 Y-26.066
X-28.74 Y-25.791
X-28.843 Y-25.534
X-29.01 Y-25.313
X-29.229 Y-25.143
X-29.484 Y-25.036
X-29.759 Y-25.
G3 X-30.047 Y-25.319 R0.3
G1 X-29.958 Y-26.719
G3 X-29.669 Y-27. R0.3
G1 X-29.455 Y-26.99
X-29.164 Y-26.955
X-29.031 Y-26.932
X-28.908 Y-26.877
X-28.798 Y-26.799
X-28.701 Y-26.704
X-28.622 Y-26.595
X-28.557 Y-26.476
X-28.495 Y-26.211
X-28.499 Y-25.938
X-28.57 Y-25.675
X-28.703 Y-25.437
X-28.891 Y-25.24
X-29.121 Y-25.094
X-29.381 Y-25.009
G3 X-29.723 Y-25.357 R0.3
G1 X-29.485 Y-26.708
G3 X-29.164 Y-26.955 R0.3
G1 X-29.003 Y-26.931
X-28.936 Y-26.905
X-28.636 Y-26.721
X-28.532 Y-26.597
X-28.446 Y-26.479
X-28.426 Y-26.452
X-28.382 Y-26.36
X-28.339 Y-26.183
X-28.316 Y-26.007
X-28.322 Y-25.923
G3 X-28.915 Y-25.951 R0.3
G1 X-28.927 Y-26.073
G3 X-28.339 Y-26.183 R0.3
G1 X-28.31 Y-26.014
X-28.366 Y-25.678
X-28.397 Y-25.606
X-28.573 Y-25.342
X-28.667 Y-25.264
X-28.86 Y-25.132
X-28.936 Y-25.1
X-29.407 Y-25.004
X-29.909 Y-25.
X-29.941
X-30.221
X-30.356 Y-25.007
X-30.485 Y-25.045
X-30.605 Y-25.108
X-30.712 Y-25.19
X-30.806 Y-25.287
X-30.886 Y-25.396
X-30.952 Y-25.513
X-31.004 Y-25.638
X-31.041 Y-25.768
X-31.047 Y-26.031
X-30.988 Y-26.288
X-30.869 Y-26.523
X-30.696 Y-26.722
X-30.48 Y-26.873
X-30.234 Y-26.968
X-29.973 Y-27.
X-29.76
G3 X-29.485 Y-26.606 R0.3
G1 X-29.946 Y-25.206
G3 X-30.221 Y-25. R0.3
G1 X-30.523
X-30.658 Y-25.007
X-30.785 Y-25.053
X-30.901 Y-25.123
X-31.003 Y-25.21
X-31.092 Y-25.312
X-31.166 Y-25.425
X-31.223 Y-25.547
X-31.266 Y-25.675
X-31.283 Y-25.954
X-31.231 Y-26.229
X-31.113 Y-26.482
X-30.935 Y-26.698
X-30.709 Y-26.862
X-30.449 Y-26.965
X-30.171 Y-27.
X-29.973
G3 X-29.704 Y-26.59 R0.3
G1 X-30.255 Y-25.19
G3 X-30.523 Y-25. R0.3
G1 X-30.793
X-30.927 Y-25.007
X-31.054 Y-25.053
X-31.168 Y-25.126
X-31.268 Y-25.216
X-31.353 Y-25.321
X-31.42 Y-25.438
X-31.473 Y-25.563
X-31.512 Y-25.821
X-31.49 Y-26.081
X-31.411 Y-26.329
X-31.277 Y-26.553
X-31.095 Y-26.741
X-30.876 Y-26.882
X-30.63 Y-26.97
X-30.371 Y-27.
X-30.171
G3 X-29.908 Y-26.579 R0.3
G1 X-30.529 Y-25.178
G3 X-30.793 Y-25. R0.3
G1 X-31.062
X-31.197 Y-25.007
X-31.322 Y-25.057
X-31.433 Y-25.135
X-31.529 Y-25.229
X-31.606 Y-25.34
X-31.669 Y-25.459
X-31.715 Y-25.586
X-31.746 Y-25.718
X-31.742 Y-25.995
X-31.673 Y-26.263
X-31.542 Y-26.507
X-31.357 Y-26.713
X-31.129 Y-26.869
X-30.869 Y-26.967
X-30.594 Y-27.
X-30.371
G3 X-30.112 Y-26.567 R0.3
G1 X-30.803 Y-25.167
G3 X-31.062 Y-25. R0.3
G1 X-31.298
X-31.432 Y-25.007
X-31.558 Y-25.056
X-31.669 Y-25.132
X-31.765 Y-25.228
X-31.845 Y-25.336
X-31.907 Y-25.456
X-31.955 Y-25.586
X-31.981 Y-25.881
X-31.933 Y-26.174
X-31.811 Y-26.444
X-31.626 Y-26.675
X-31.388 Y-26.851
X-31.114 Y-26.962
X-30.82 Y-27.
X-30.594
G3 X-30.337 Y-26.566 R0.3
G1 X-31.04 Y-25.165
G3 X-31.298 Y-25. R0.3
G1 X-31.562
X-31.697 Y-25.007
X-31.82 Y-25.063
X-31.927 Y-25.144
X-32.02 Y-25.242
X-32.093 Y-25.356
X-32.152 Y-25.477
X-32.192 Y-25.606
X-32.219 Y-25.738
X-32.21 Y-26.013
X-32.136 Y-26.277
X-32.003 Y-26.517
X-31.817 Y-26.719
X-31.589 Y-26.872
X-31.332 Y-26.968
X-31.059 Y-27.
X-30.82
G3 X-30.565 Y-26.56 R0.3
G1 X-31.307 Y-25.159
G3 X-31.562 Y-25. R0.3
G1 X-31.803
X-31.937 Y-25.007
X-32.06 Y-25.064
X-32.167 Y-25.146
X-32.258 Y-25.246
X-32.334 Y-25.357
X-32.391 Y-25.48
X-32.436 Y-25.614
X-32.454 Y-25.906
X-32.399 Y-26.194
X-32.275 Y-26.458
X-32.088 Y-26.684
X-31.852 Y-26.856
X-31.58 Y-26.963
X-31.29 Y-27.
X-31.059
G3 X-30.805 Y-26.559 R0.3
G1 X-31.548 Y-25.159
G3 X-31.803 Y-25. R0.3
G1 X-32.031
X-32.166 Y-25.007
X-32.29 Y-25.061
X-32.398 Y-25.141
X-32.491 Y-25.239
X-32.565 Y-25.352
X-32.624 Y-25.473
X-32.666 Y-25.602
X-32.693 Y-25.734
X-32.705 Y-25.869
X-32.657 Y-26.164
X-32.537 Y-26.437
X-32.351 Y-26.671
X-32.111 Y-26.85
X-31.835 Y-26.962
X-31.539 Y-27.
X-31.29
G3 X-31.035 Y-26.56 R0.3
G1 X-31.776 Y-25.159
G3 X-32.031 Y-25. R0.3
G1 X-32.273
X-32.408 Y-25.007
X-32.531 Y-25.063
X-32.638 Y-25.144
X-32.73 Y-25.243
X-32.806 Y-25.355
X-32.868 Y-25.475
X-32.91 Y-25.603
X-32.938 Y-25.735
X-32.93 Y-26.01
X-32.858 Y-26.275
X-32.725 Y-26.515
X-32.54 Y-26.718
X-32.312 Y-26.872
X-32.055 Y-26.967
X-31.782 Y-27.
X-31.539
G3 X-31.283 Y-26.561 R0.3
G1 X-32.018 Y-25.16
G3 X-32.273 Y-25. R0.3
G1 X-32.504
X-32.639 Y-25.007
X-32.763 Y-25.061
X-32.872 Y-25.14
X-32.966 Y-25.237
X-33.044 Y-25.347
X-33.103 Y-25.468
X-33.149 Y-25.595
X-33.176 Y-25.727
X-33.171 Y-26.003
X-33.101 Y-26.269
X-32.971 Y-26.511
X-32.786 Y-26.716
X-32.558 Y-26.871
X-32.301 Y-26.967
X-32.027 Y-27.
X-31.782
G3 X-31.526 Y-26.563 R0.3
G1 X-32.248 Y-25.162
G3 X-32.504 Y-25. R0.3
G1 X-32.745
X-32.88 Y-25.007
X-33.004 Y-25.06
X-33.113 Y-25.14
X-33.206 Y-25.237
X-33.284 Y-25.347
X-33.343 Y-25.468
X-33.389 Y-25.596
X-33.412 Y-25.89
X-33.36 Y-26.181
X-33.237 Y-26.449
X-33.051 Y-26.678
X-32.813 Y-26.853
X-32.539 Y-26.963
X-32.246 Y-27.
X-32.027
G3 X-31.771 Y-26.563 R0.3
G1 X-32.488 Y-25.163
G3 X-32.745 Y-25. R0.3
G1 X-32.973
X-33.108 Y-25.007
X-33.233 Y-25.057
X-33.344 Y-25.134
X-33.439 Y-25.23
X-33.515 Y-25.342
X-33.576 Y-25.462
X-33.618 Y-25.59
X-33.647 Y-25.722
X-33.66 Y-25.858
X-33.627 Y-26.113
X-33.537 Y-26.355
X-33.397 Y-26.572
X-33.213 Y-26.752
X-32.994 Y-26.887
X-32.75 Y-26.972
X-32.494 Y-27.
X-32.246
G3 X-31.99 Y-26.562 R0.3
G1 X-32.717 Y-25.162
G3 X-32.973 Y-25. R0.3
G1 X-33.215
X-33.35 Y-25.007
X-33.474 Y-25.059
X-33.584 Y-25.138
X-33.678 Y-25.235
X-33.755 Y-25.346
X-33.818 Y-25.465
X-33.862 Y-25.593
X-33.892 Y-25.724
X-33.885 Y-26.001
X-33.814 Y-26.268
X-33.681 Y-26.511
X-33.495 Y-26.716
X-33.265 Y-26.871
X-33.006 Y-26.967
X-32.731 Y-27.
X-32.494
G3 X-32.238 Y-26.563 R0.3
G1 X-32.959 Y-25.162
G3 X-33.215 Y-25. R0.3
G1 X-33.451
X-33.586 Y-25.007
X-33.711 Y-25.058
X-33.821 Y-25.136
X-33.916 Y-25.232
X-33.995 Y-25.341
X-34.055 Y-25.462
X-34.101 Y-25.589
X-34.129 Y-25.721
X-34.125 Y-25.998
X-34.056 Y-26.265
X-33.925 Y-26.509
X-33.74 Y-26.714
X-33.512 Y-26.87
X-33.253 Y-26.967
X-32.979 Y-27.
X-32.731
G3 X-32.475 Y-26.563 R0.3
G1 X-33.195 Y-25.163
G3 X-33.451 Y-25. R0.3
G1 X-33.687
X-33.822 Y-25.007
X-33.947 Y-25.056
X-34.058 Y-25.134
X-34.153 Y-25.23
X-34.232 Y-25.339
X-34.293 Y-25.46
X-34.339 Y-25.586
X-34.364 Y-25.882
X-34.315 Y-26.174
X-34.193 Y-26.444
X-34.006 Y-26.675
X-33.768 Y-26.852
X-33.493 Y-26.962
X-33.199 Y-27.
X-32.979
G3 X-32.722 Y-26.565 R0.3
G1 X-33.43 Y-25.164
G3 X-33.687 Y-25. R0.3
G1 X-33.956
X-34.091 Y-25.007
X-34.213 Y-25.065
X-34.319 Y-25.148
X-34.41 Y-25.248
X-34.482 Y-25.362
X-34.539 Y-25.484
X-34.579 Y-25.614
X-34.605 Y-25.749
X-34.592 Y-26.022
X-34.517 Y-26.284
X-34.383 Y-26.522
X-34.197 Y-26.722
X-33.969 Y-26.874
X-33.712 Y-26.968
X-33.441 Y-27.
X-33.199
G3 X-32.945 Y-26.557 R0.3
G1 X-33.703 Y-25.157
G3 X-33.956 Y-25. R0.3
G1 X-34.184
X-34.319 Y-25.007
X-34.442 Y-25.063
X-34.55 Y-25.145
X-34.641 Y-25.244
X-34.717 Y-25.355
X-34.775 Y-25.478
X-34.819 Y-25.612
X-34.838 Y-25.904
X-34.784 Y-26.192
X-34.66 Y-26.457
X-34.473 Y-26.683
X-34.236 Y-26.855
X-33.964 Y-26.963
X-33.674 Y-27.
X-33.441
G3 X-33.187 Y-26.56 R0.3
G1 X-33.93 Y-25.159
G3 X-34.184 Y-25. R0.3
G1 X-34.426
X-34.561 Y-25.007
X-34.684 Y-25.064
X-34.791 Y-25.146
X-34.882 Y-25.245
X-34.954 Y-25.359
X-35.012 Y-25.481
X-35.052 Y-25.61
X-35.078 Y-25.743
X-35.089 Y-25.877
X-35.04 Y-26.17
X-34.919 Y-26.442
X-34.733 Y-26.674
X-34.494 Y-26.851
X-34.218 Y-26.962
X-33.924 Y-27.
X-33.674
G3 X-33.42 Y-26.558 R0.3
G1 X-34.173 Y-25.158
G3 X-34.426 Y-25. R0.3
G1 X-34.657
X-34.792 Y-25.007
X-34.915 Y-25.063
X-35.023 Y-25.144
X-35.115 Y-25.243
X-35.191 Y-25.354
X-35.252 Y-25.475
X-35.295 Y-25.603
X-35.323 Y-25.735
X-35.335 Y-25.869
X-35.29 Y-26.164
X-35.171 Y-26.437
X-34.986 Y-26.67
X-34.748 Y-26.849
X-34.472 Y-26.962
X-34.176 Y-27.
X-33.924
G3 X-33.668 Y-26.561 R0.3
G1 X-34.402 Y-25.161
G3 X-34.657 Y-25. R0.3
G1 X-34.898
X-35.033 Y-25.007
X-35.156 Y-25.063
X-35.264 Y-25.144
X-35.356 Y-25.242
X-35.433 Y-25.353
X-35.495 Y-25.473
X-35.538 Y-25.601
X-35.568 Y-25.733
X-35.561 Y-26.007
X-35.491 Y-26.273
X-35.359 Y-26.514
X-35.174 Y-26.717
X-34.947 Y-26.871
X-34.69 Y-26.967
X-34.417 Y-27.
X-34.176
G3 X-33.92 Y-26.563 R0.3
G1 X-34.642 Y-25.162
G3 X-34.898 Y-25. R0.3
G1 X-35.127
X-35.261 Y-25.007
X-35.386 Y-25.059
X-35.496 Y-25.137
X-35.591 Y-25.233
X-35.67 Y-25.343
X-35.73 Y-25.463
X-35.777 Y-25.59
X-35.802 Y-25.885
X-35.752 Y-26.176
X-35.63 Y-26.446
X-35.444 Y-26.676
X-35.206 Y-26.852
X-34.932 Y-26.962
X-34.638 Y-27.
X-34.417
G3 X-34.16 Y-26.565 R0.3
G1 X-34.869 Y-25.164
G3 X-35.127 Y-25. R0.3
G1 X-35.368
X-35.503 Y-25.007
X-35.628 Y-25.059
X-35.738 Y-25.137
X-35.832 Y-25.234
X-35.907 Y-25.346
X-35.967 Y-25.467
X-36.01 Y-25.595
X-36.038 Y-25.727
X-36.051 Y-25.861
X-36.016 Y-26.116
X-35.927 Y-26.357
X-35.787 Y-26.573
X-35.603 Y-26.753
X-35.384 Y-26.888
X-35.141 Y-26.972
X-34.886 Y-27.
X-34.638
G3 X-34.383 Y-26.562 R0.3
G1 X-35.113 Y-25.161
G3 X-35.368 Y-25. R0.3
G1 X-35.604
X-35.739 Y-25.007
X-35.864 Y-25.059
X-35.973 Y-25.138
X-36.067 Y-25.235
X-36.145 Y-25.345
X-36.208 Y-25.465
X-36.252 Y-25.592
X-36.282 Y-25.724
X-36.276 Y-26.
X-36.204 Y-26.268
X-36.072 Y-26.51
X-35.886 Y-26.715
X-35.657 Y-26.87
X-35.397 Y-26.967
X-35.123 Y-27.
X-34.886
G3 X-34.629 Y-26.563 R0.3
G1 X-35.348 Y-25.163
G3 X-35.604 Y-25. R0.3
G1 X-35.84
X-35.975 Y-25.007
X-36.1 Y-25.058
X-36.21 Y-25.136
X-36.305 Y-25.232
X-36.385 Y-25.341
X-36.445 Y-25.462
X-36.491 Y-25.59
X-36.516 Y-25.885
X-36.465 Y-26.177
X-36.343 Y-26.446
X-36.157 Y-26.676
X-35.919 Y-26.852
X-35.644 Y-26.962
X-35.35 Y-27.
X-35.123
G3 X-34.866 Y-26.563 R0.3
G1 X-35.584 Y-25.163
G3 X-35.84 Y-25. R0.3
G1 X-36.109
X-36.244 Y-25.007
X-36.366 Y-25.066
X-36.472 Y-25.149
X-36.563 Y-25.249
X-36.634 Y-25.364
X-36.691 Y-25.486
X-36.731 Y-25.615
X-36.756 Y-25.75
X-36.744 Y-26.022
X-36.668 Y-26.285
X-36.534 Y-26.523
X-36.348 Y-26.723
X-36.12 Y-26.874
X-35.864 Y-26.968
X-35.593 Y-27.
X-35.35
G3 X-35.097 Y-26.557 R0.3
G1 X-35.856 Y-25.157
G3 X-36.109 Y-25. R0.3
G1 X-36.338
X-36.473 Y-25.007
X-36.595 Y-25.064
X-36.703 Y-25.145
X-36.794 Y-25.245
X-36.87 Y-25.356
X-36.927 Y-25.479
X-36.971 Y-25.613
X-36.99 Y-25.905
X-36.935 Y-26.193
X-36.811 Y-26.458
X-36.625 Y-26.683
X-36.388 Y-26.856
X-36.116 Y-26.963
X-35.825 Y-27.
X-35.593
G3 X-35.338 Y-26.559 R0.3
G1 X-36.083 Y-25.159
G3 X-36.338 Y-25. R0.3
G1 X-36.58
X-36.715 Y-25.007
X-36.837 Y-25.064
X-36.944 Y-25.147
X-37.035 Y-25.246
X-37.107 Y-25.36
X-37.165 Y-25.482
X-37.205 Y-25.611
X-37.23 Y-25.744
X-37.241 Y-25.878
X-37.192 Y-26.171
X-37.071 Y-26.442
X-36.884 Y-26.674
X-36.646 Y-26.851
X-36.37 Y-26.962
X-36.076 Y-27.
X-35.825
G3 X-35.572 Y-26.558 R0.3
G1 X-36.326 Y-25.158
G3 X-36.58 Y-25. R0.3
G1 X-36.811
X-36.946 Y-25.007
X-37.068 Y-25.063
X-37.176 Y-25.145
X-37.268 Y-25.244
X-37.344 Y-25.355
X-37.405 Y-25.476
X-37.447 Y-25.604
X-37.475 Y-25.736
X-37.487 Y-25.87
X-37.441 Y-26.165
X-37.322 Y-26.437
X-37.138 Y-26.671
X-36.899 Y-26.85
X-36.624 Y-26.962
X-36.328 Y-27.
X-36.076
G3 X-35.82 Y-26.561 R0.3
G1 X-36.556 Y-25.16
G3 X-36.811 Y-25. R0.3
G1 X-37.051
X-37.186 Y-25.007
X-37.309 Y-25.063
X-37.417 Y-25.144
X-37.509 Y-25.243
X-37.586 Y-25.354
X-37.648 Y-25.474
X-37.691 Y-25.602
X-37.72 Y-25.734
X-37.713 Y-26.008
X-37.642 Y-26.273
X-37.511 Y-26.514
X-37.326 Y-26.718
X-37.099 Y-26.871
X-36.842 Y-26.967
X-36.569 Y-27.
X-36.328
G3 X-36.072 Y-26.563 R0.3
G1 X-36.795 Y-25.162
G3 X-37.051 Y-25. R0.3
G1 X-37.28
X-37.415 Y-25.007
X-37.539 Y-25.059
X-37.649 Y-25.137
X-37.744 Y-25.234
X-37.823 Y-25.343
X-37.883 Y-25.464
X-37.929 Y-25.591
X-37.954 Y-25.886
X-37.904 Y-26.177
X-37.782 Y-26.446
X-37.596 Y-26.676
X-37.358 Y-26.852
X-37.084 Y-26.962
X-36.791 Y-27.
X-36.569
G3 X-36.312 Y-26.564 R0.3
G1 X-37.023 Y-25.164
G3 X-37.28 Y-25. R0.3
G1 X-37.522
X-37.657 Y-25.007
X-37.781 Y-25.059
X-37.891 Y-25.138
X-37.985 Y-25.234
X-38.06 Y-25.347
X-38.12 Y-25.468
X-38.162 Y-25.596
X-38.19 Y-25.728
X-38.203 Y-25.862
X-38.157 Y-26.159
X-38.038 Y-26.433
X-37.852 Y-26.668
X-37.613 Y-26.848
X-37.335 Y-26.961
X-37.038 Y-27.
X-36.791
G3 X-36.535 Y-26.561 R0.3
G1 X-37.266 Y-25.161
G3 X-37.522 Y-25. R0.3
G1 X-37.758
X-37.893 Y-25.007
X-38.017 Y-25.059
X-38.126 Y-25.138
X-38.22 Y-25.235
X-38.298 Y-25.346
X-38.361 Y-25.465
X-38.404 Y-25.593
X-38.434 Y-25.725
X-38.448 Y-25.859
X-38.415 Y-26.114
X-38.328 Y-26.355
X-38.189 Y-26.572
X-38.006 Y-26.752
X-37.787 Y-26.887
X-37.544 Y-26.972
X-37.289 Y-27.
X-37.038
G3 X-36.782 Y-26.563 R0.3
G1 X-37.501 Y-25.163
G3 X-37.758 Y-25. R0.3
G1 X-37.994
X-38.128 Y-25.007
X-38.253 Y-25.058
X-38.364 Y-25.136
X-38.458 Y-25.232
X-38.537 Y-25.342
X-38.601 Y-25.461
X-38.647 Y-25.588
X-38.678 Y-25.719
X-38.674 Y-25.996
X-38.604 Y-26.264
X-38.472 Y-26.508
X-38.287 Y-26.714
X-38.058 Y-26.87
X-37.798 Y-26.967
X-37.523 Y-27.
X-37.289
G3 X-37.032 Y-26.565 R0.3
G1 X-37.736 Y-25.165
G3 X-37.994 Y-25. R0.3
G1 X-38.263
X-38.398 Y-25.007
X-38.519 Y-25.066
X-38.626 Y-25.149
X-38.717 Y-25.248
X-38.793 Y-25.359
X-38.851 Y-25.481
X-38.895 Y-25.613
X-38.914 Y-25.905
X-38.859 Y-26.193
X-38.735 Y-26.458
X-38.549 Y-26.683
X-38.312 Y-26.855
X-38.04 Y-26.963
X-37.749 Y-27.
X-37.523
G3 X-37.268 Y-26.56 R0.3
G1 X-38.008 Y-25.16
G3 X-38.263 Y-25. R0.3
G1 X-38.491
X-38.626 Y-25.007
X-38.749 Y-25.061
X-38.858 Y-25.142
X-38.951 Y-25.239
X-39.025 Y-25.353
X-39.084 Y-25.474
X-39.125 Y-25.602
X-39.152 Y-25.735
X-39.164 Y-25.87
X-39.117 Y-26.164
X-38.996 Y-26.438
X-38.81 Y-26.671
X-38.571 Y-26.85
X-38.294 Y-26.962
X-37.998 Y-27.
X-37.749
G3 X-37.495 Y-26.56 R0.3
G1 X-38.237 Y-25.159
G3 X-38.491 Y-25. R0.3
G1 X-38.733
X-38.868 Y-25.007
X-38.991 Y-25.063
X-39.098 Y-25.145
X-39.19 Y-25.244
X-39.266 Y-25.355
X-39.327 Y-25.475
X-39.369 Y-25.604
X-39.398 Y-25.736
X-39.39 Y-26.01
X-39.317 Y-26.275
X-39.185 Y-26.516
X-39. Y-26.718
X-38.772 Y-26.872
X-38.514 Y-26.968
X-38.242 Y-27.
X-37.998
G3 X-37.743 Y-26.561 R0.3
G1 X-38.478 Y-25.16
G3 X-38.733 Y-25. R0.3
G1 X-38.964
X-39.099 Y-25.007
X-39.223 Y-25.061
X-39.332 Y-25.14
X-39.426 Y-25.237
X-39.504 Y-25.347
X-39.563 Y-25.468
X-39.608 Y-25.596
X-39.636 Y-25.728
X-39.631 Y-26.003
X-39.561 Y-26.269
X-39.43 Y-26.511
X-39.246 Y-26.716
X-39.018 Y-26.871
X-38.76 Y-26.967
X-38.487 Y-27.
X-38.242
G3 X-37.986 Y-26.563 R0.3
G1 X-38.708 Y-25.162
G3 X-38.964 Y-25. R0.3
G1 X-39.205
X-39.34 Y-25.007
X-39.464 Y-25.06
X-39.573 Y-25.14
X-39.666 Y-25.237
X-39.744 Y-25.347
X-39.803 Y-25.469
X-39.848 Y-25.597
X-39.871 Y-25.891
X-39.82 Y-26.181
X-39.697 Y-26.449
X-39.51 Y-26.678
X-39.273 Y-26.853
X-38.999 Y-26.963
X-38.706 Y-27.
X-38.487
G3 X-38.23 Y-26.563 R0.3
G1 X-38.948 Y-25.163
G3 X-39.205 Y-25. R0.3
G1 X-39.433
X-39.568 Y-25.007
X-39.693 Y-25.057
X-39.804 Y-25.135
X-39.899 Y-25.23
X-39.974 Y-25.342
X-40.035 Y-25.463
X-40.078 Y-25.591
X-40.107 Y-25.723
X-40.12 Y-25.858
X-40.086 Y-26.114
X-39.997 Y-26.355
X-39.857 Y-26.572
X-39.673 Y-26.752
X-39.453 Y-26.888
X-39.21 Y-26.972
X-38.954 Y-27.
X-38.706
G3 X-38.45 Y-26.562 R0.3
G1 X-39.178 Y-25.162
G3 X-39.433 Y-25. R0.3
G1 X-39.675
X-39.81 Y-25.007
X-39.934 Y-25.059
X-40.044 Y-25.138
X-40.137 Y-25.235
X-40.215 Y-25.346
X-40.278 Y-25.465
X-40.322 Y-25.593
X-40.352 Y-25.725
X-40.345 Y-26.001
X-40.273 Y-26.268
X-40.14 Y-26.511
X-39.954 Y-26.716
X-39.725 Y-26.871
X-39.466 Y-26.967
X-39.191 Y-27.
G3 X-38.918 Y-26.602 R0.3
G1 X-39.402 Y-25.202
G3 X-39.675 Y-25. R0.3
G1 X-39.911
X-40.046 Y-25.007
X-40.171 Y-25.058
X-40.281 Y-25.136
X-40.376 Y-25.232
X-40.455 Y-25.342
X-40.515 Y-25.462
X-40.561 Y-25.589
X-40.589 Y-25.722
X-40.585 Y-25.998
X-40.516 Y-26.265
X-40.385 Y-26.509
X-40.2 Y-26.714
X-39.972 Y-26.87
X-39.713 Y-26.967
X-39.439 Y-27.
G3 X-39.165 Y-26.604 R0.3
G1 X-39.637 Y-25.204
G3 X-39.911 Y-25. R0.3
G1 X-40.147
X-40.282 Y-25.007
X-40.407 Y-25.057
X-40.518 Y-25.134
X-40.613 Y-25.23
X-40.692 Y-25.339
X-40.753 Y-25.46
X-40.799 Y-25.587
X-40.824 Y-25.882
X-40.774 Y-26.174
X-40.652 Y-26.445
X-40.466 Y-26.675
X-40.228 Y-26.852
X-39.953 Y-26.962
X-39.659 Y-27.
G3 X-39.386 Y-26.601 R0.3
G1 X-39.874 Y-25.201
G3 X-40.147 Y-25. R0.3
G1 X-40.416
X-40.551 Y-25.007
X-40.673 Y-25.065
X-40.779 Y-25.148
X-40.87 Y-25.248
X-40.942 Y-25.363
X-40.999 Y-25.485
X-41.038 Y-25.614
X-41.064 Y-25.749
X-41.052 Y-26.022
X-40.977 Y-26.284
X-40.842 Y-26.522
X-40.656 Y-26.722
X-40.429 Y-26.874
X-40.172 Y-26.968
X-39.901 Y-27.
G3 X-39.63 Y-26.597 R0.3
G1 X-40.145 Y-25.196
G3 X-40.416 Y-25. R0.3
G1 X-40.645
X-40.779 Y-25.007
X-40.902 Y-25.063
X-41.01 Y-25.145
X-41.101 Y-25.244
X-41.177 Y-25.356
X-41.235 Y-25.478
X-41.279 Y-25.612
X-41.298 Y-25.904
X-41.244 Y-26.192
X-41.119 Y-26.457
X-40.933 Y-26.683
X-40.696 Y-26.855
X-40.424 Y-26.963
X-40.133 Y-27.
G3 X-39.862 Y-26.597 R0.3
G1 X-40.373 Y-25.197
G3 X-40.645 Y-25. R0.3
G1 X-40.886
X-41.021 Y-25.007
X-41.144 Y-25.064
X-41.251 Y-25.146
X-41.342 Y-25.245
X-41.414 Y-25.359
X-41.472 Y-25.481
X-41.512 Y-25.61
X-41.538 Y-25.743
X-41.549 Y-25.877
X-41.5 Y-26.171
X-41.379 Y-26.442
X-41.193 Y-26.674
X-40.954 Y-26.851
X-40.678 Y-26.962
X-40.383 Y-27.
X-38.954
G3 X-38.788 Y-26.457 R0.3
G1 X-40.721 Y-25.057
G3 X-40.886 Y-25. R0.3
G1 X-41.117
X-41.252 Y-25.007
X-41.375 Y-25.063
X-41.483 Y-25.144
X-41.575 Y-25.243
X-41.651 Y-25.354
X-41.712 Y-25.475
X-41.754 Y-25.603
X-41.783 Y-25.735
X-41.795 Y-25.869
X-41.749 Y-26.164
X-41.63 Y-26.437
X-41.446 Y-26.671
X-41.207 Y-26.849
X-40.931 Y-26.962
X-40.636 Y-27.
X-40.383
G3 X-40.128 Y-26.561 R0.3
G1 X-40.862 Y-25.161
G3 X-41.117 Y-25. R0.3
G1 X-41.358
X-41.493 Y-25.007
X-41.616 Y-25.063
X-41.724 Y-25.144
X-41.816 Y-25.242
X-41.893 Y-25.353
X-41.955 Y-25.473
X-41.998 Y-25.601
X-42.028 Y-25.733
X-42.021 Y-26.007
X-41.95 Y-26.273
X-41.819 Y-26.514
X-41.634 Y-26.717
X-41.407 Y-26.871
X-41.149 Y-26.967
X-40.877 Y-27.
G3 X-40.604 Y-26.603 R0.3
G1 X-41.085 Y-25.202
G3 X-41.358 Y-25. R0.3
G1 X-41.587
X-41.721 Y-25.007
X-41.846 Y-25.059
X-41.956 Y-25.137
X-42.051 Y-25.233
X-42.13 Y-25.343
X-42.19 Y-25.463
X-42.236 Y-25.59
X-42.262 Y-25.885
X-42.212 Y-26.177
X-42.09 Y-26.446
X-41.904 Y-26.676
X-41.666 Y-26.852
X-41.392 Y-26.962
X-41.098 Y-27.
G3 X-40.826 Y-26.601 R0.3
G1 X-41.314 Y-25.201
G3 X-41.587 Y-25. R0.3
G1 X-41.829
X-41.963 Y-25.007
X-42.088 Y-25.059
X-42.198 Y-25.137
X-42.292 Y-25.234
X-42.367 Y-25.346
X-42.427 Y-25.467
X-42.469 Y-25.595
X-42.498 Y-25.727
X-42.51 Y-25.862
X-42.476 Y-26.116
X-42.387 Y-26.358
X-42.247 Y-26.573
X-42.063 Y-26.753
X-41.844 Y-26.888
X-41.601 Y-26.972
X-41.346 Y-27.
G3 X-41.072 Y-26.602 R0.3
G1 X-41.555 Y-25.202
G3 X-41.829 Y-25. R0.3
G1 X-42.064
X-42.199 Y-25.007
X-42.324 Y-25.059
X-42.433 Y-25.138
X-42.527 Y-25.235
X-42.605 Y-25.345
X-42.668 Y-25.465
X-42.712 Y-25.592
X-42.742 Y-25.724
X-42.736 Y-26.
X-42.664 Y-26.268
X-42.532 Y-26.511
X-42.346 Y-26.715
X-42.116 Y-26.87
X-41.857 Y-26.967
X-41.582 Y-27.
G3 X-41.309 Y-26.603 R0.3
G1 X-41.791 Y-25.202
G3 X-42.064 Y-25. R0.3
G1 X-42.3
X-42.435 Y-25.007
X-42.56 Y-25.058
X-42.67 Y-25.136
X-42.765 Y-25.232
X-42.845 Y-25.341
X-42.905 Y-25.462
X-42.951 Y-25.59
X-42.976 Y-25.885
X-42.925 Y-26.177
X-42.803 Y-26.446
X-42.617 Y-26.676
X-42.379 Y-26.852
X-42.104 Y-26.962
X-41.81 Y-27.
G3 X-41.538 Y-26.601 R0.3
G1 X-42.028 Y-25.201
G3 X-42.3 Y-25. R0.3
G1 X-42.569
X-42.704 Y-25.007
X-42.826 Y-25.066
X-42.932 Y-25.149
X-43.023 Y-25.249
X-43.094 Y-25.364
X-43.151 Y-25.486
X-43.19 Y-25.615
X-43.216 Y-25.75
X-43.204 Y-26.023
X-43.128 Y-26.285
X-42.994 Y-26.523
X-42.808 Y-26.723
X-42.58 Y-26.874
X-42.324 Y-26.968
X-42.053 Y-27.
G3 X-41.782 Y-26.596 R0.3
G1 X-42.298 Y-25.196
G3 X-42.569 Y-25. R0.3
G1 X-42.798
X-42.933 Y-25.007
X-43.055 Y-25.064
X-43.163 Y-25.145
X-43.254 Y-25.245
X-43.33 Y-25.357
X-43.387 Y-25.479
X-43.431 Y-25.614
X-43.45 Y-25.906
X-43.395 Y-26.193
X-43.271 Y-26.458
X-43.084 Y-26.683
X-42.848 Y-26.856
X-42.576 Y-26.963
X-42.285 Y-27.
X-40.636
G3 X-40.483 Y-26.448 R0.3
G1 X-42.645 Y-25.048
G3 X-42.798 Y-25. R0.3
G1 X-43.04
X-43.175 Y-25.007
X-43.297 Y-25.064
X-43.404 Y-25.147
X-43.495 Y-25.246
X-43.567 Y-25.36
X-43.625 Y-25.482
X-43.665 Y-25.611
X-43.69 Y-25.744
X-43.701 Y-25.878
X-43.652 Y-26.171
X-43.53 Y-26.442
X-43.344 Y-26.674
X-43.106 Y-26.851
X-42.83 Y-26.962
X-42.536 Y-27.
X-42.285
G3 X-42.032 Y-26.558 R0.3
G1 X-42.786 Y-25.158
G3 X-43.04 Y-25. R0.3
G1 X-43.271
X-43.406 Y-25.007
X-43.528 Y-25.063
X-43.636 Y-25.145
X-43.728 Y-25.244
X-43.804 Y-25.355
X-43.865 Y-25.476
X-43.907 Y-25.604
X-43.935 Y-25.736
X-43.947 Y-25.87
X-43.901 Y-26.165
X-43.782 Y-26.437
X-43.597 Y-26.671
X-43.359 Y-26.85
X-43.083 Y-26.962
X-42.788 Y-27.
X-42.536
G3 X-42.28 Y-26.561 R0.3
G1 X-43.016 Y-25.16
G3 X-43.271 Y-25. R0.3
G1 X-43.512
X-43.646 Y-25.007
X-43.769 Y-25.063
X-43.877 Y-25.144
X-43.969 Y-25.243
X-44.046 Y-25.354
X-44.108 Y-25.474
X-44.151 Y-25.602
X-44.18 Y-25.734
X-44.173 Y-26.008
X-44.102 Y-26.273
X-43.971 Y-26.514
X-43.786 Y-26.718
X-43.559 Y-26.871
X-43.302 Y-26.967
X-43.029 Y-27.
X-42.788
G3 X-42.532 Y-26.563 R0.3
G1 X-43.255 Y-25.162
G3 X-43.512 Y-25. R0.3
G1 X-43.74
X-43.875 Y-25.007
X-43.999 Y-25.059
X-44.109 Y-25.137
X-44.204 Y-25.234
X-44.283 Y-25.343
X-44.343 Y-25.464
X-44.389 Y-25.591
X-44.414 Y-25.886
X-44.364 Y-26.177
X-44.242 Y-26.447
X-44.056 Y-26.676
X-43.818 Y-26.852
X-43.544 Y-26.962
X-43.251 Y-27.
X-43.029
G3 X-42.772 Y-26.564 R0.3
G1 X-43.483 Y-25.164
G3 X-43.74 Y-25. R0.3
G1 X-43.982
X-44.117 Y-25.007
X-44.241 Y-25.059
X-44.351 Y-25.138
X-44.445 Y-25.234
X-44.52 Y-25.347
X-44.58 Y-25.468
X-44.622 Y-25.596
X-44.65 Y-25.728
X-44.663 Y-25.862
X-44.617 Y-26.159
X-44.498 Y-26.433
X-44.312 Y-26.668
X-44.073 Y-26.848
X-43.795 Y-26.961
X-43.498 Y-27.
X-43.251
G3 X-42.995 Y-26.561 R0.3
G1 X-43.726 Y-25.161
G3 X-43.982 Y-25. R0.3
G1 X-44.218
X-44.353 Y-25.007
X-44.477 Y-25.059
X-44.587 Y-25.138
X-44.68 Y-25.236
X-44.758 Y-25.346
X-44.821 Y-25.465
X-44.864 Y-25.593
X-44.894 Y-25.725
X-44.908 Y-25.859
X-44.875 Y-26.114
X-44.787 Y-26.355
X-44.649 Y-26.572
X-44.466 Y-26.752
X-44.247 Y-26.887
X-44.004 Y-26.972
X-43.749 Y-27.
X-43.498
G3 X-43.242 Y-26.563 R0.3
G1 X-43.961 Y-25.163
G3 X-44.218 Y-25. R0.3
G1 X-44.454
X-44.588 Y-25.007
X-44.713 Y-25.058
X-44.824 Y-25.136
X-44.918 Y-25.232
X-44.997 Y-25.342
X-45.061 Y-25.461
X-45.107 Y-25.588
X-45.138 Y-25.719
X-45.134 Y-25.996
X-45.064 Y-26.264
X-44.932 Y-26.508
X-44.747 Y-26.714
X-44.518 Y-26.87
X-44.258 Y-26.967
X-43.983 Y-27.
X-43.749
G3 X-43.492 Y-26.565 R0.3
G1 X-44.196 Y-25.165
G3 X-44.454 Y-25. R0.3
G1 X-44.723
X-44.858 Y-25.007
X-44.979 Y-25.066
X-45.086 Y-25.149
X-45.177 Y-25.248
X-45.253 Y-25.359
X-45.311 Y-25.482
X-45.355 Y-25.613
X-45.374 Y-25.905
X-45.319 Y-26.193
X-45.195 Y-26.458
X-45.009 Y-26.683
X-44.772 Y-26.855
X-44.5 Y-26.963
X-44.209 Y-27.
X-43.983
G3 X-43.728 Y-26.56 R0.3
G1 X-44.468 Y-25.16
G3 X-44.723 Y-25. R0.3
G1 X-44.951
X-45.086 Y-25.007
X-45.209 Y-25.061
X-45.318 Y-25.142
X-45.411 Y-25.24
X-45.485 Y-25.353
X-45.544 Y-25.474
X-45.585 Y-25.602
X-45.612 Y-25.735
X-45.624 Y-25.87
X-45.577 Y-26.164
X-45.456 Y-26.438
X-45.27 Y-26.671
X-45.031 Y-26.85
X-44.754 Y-26.962
X-44.458 Y-27.
X-44.209
G3 X-43.955 Y-26.56 R0.3
G1 X-44.697 Y-25.159
G3 X-44.951 Y-25. R0.3
G1 X-45.193
X-45.328 Y-25.007
X-45.451 Y-25.063
X-45.558 Y-25.145
X-45.65 Y-25.244
X-45.726 Y-25.355
X-45.787 Y-25.476
X-45.829 Y-25.604
X-45.858 Y-25.736
X-45.85 Y-26.01
X-45.777 Y-26.275
X-45.645 Y-26.516
X-45.46 Y-26.718
X-45.232 Y-26.872
X-44.974 Y-26.968
X-44.702 Y-27.
X-44.458
G3 X-44.203 Y-26.561 R0.3
G1 X-44.938 Y-25.16
G3 X-45.193 Y-25. R0.3
G1 X-45.424
X-45.559 Y-25.007
X-45.683 Y-25.061
X-45.792 Y-25.14
X-45.886 Y-25.237
X-45.964 Y-25.347
X-46.023 Y-25.468
X-46.068 Y-25.596
X-46.096 Y-25.728
X-46.091 Y-26.003
X-46.021 Y-26.269
X-45.89 Y-26.512
X-45.706 Y-26.716
X-45.478 Y-26.871
X-45.22 Y-26.967
X-44.947 Y-27.
X-44.702
G3 X-44.446 Y-26.563 R0.3
G1 X-45.168 Y-25.162
G3 X-45.424 Y-25. R0.3
G1 X-45.665
X-45.8 Y-25.007
X-45.924 Y-25.06
X-46.033 Y-25.14
X-46.126 Y-25.237
X-46.204 Y-25.347
X-46.263 Y-25.469
X-46.308 Y-25.597
X-46.331 Y-25.891
X-46.28 Y-26.181
X-46.157 Y-26.45
X-45.97 Y-26.678
X-45.733 Y-26.853
X-45.459 Y-26.963
X-45.166 Y-27.
X-44.947
G3 X-44.69 Y-26.563 R0.3
G1 X-45.408 Y-25.163
G3 X-45.665 Y-25. R0.3
G1 X-45.893
X-46.028 Y-25.007
X-46.153 Y-25.057
X-46.264 Y-25.135
X-46.359 Y-25.23
X-46.434 Y-25.342
X-46.495 Y-25.463
X-46.538 Y-25.591
X-46.567 Y-25.723
X-46.58 Y-25.858
X-46.546 Y-26.114
X-46.457 Y-26.355
X-46.317 Y-26.572
X-46.133 Y-26.752
X-45.913 Y-26.888
X-45.67 Y-26.972
X-45.414 Y-27.
X-45.166
G3 X-44.91 Y-26.562 R0.3
G1 X-45.638 Y-25.162
G3 X-45.893 Y-25. R0.3
G1 X-46.135
X-46.27 Y-25.007
X-46.394 Y-25.059
X-46.504 Y-25.138
X-46.597 Y-25.236
X-46.675 Y-25.346
X-46.738 Y-25.465
X-46.782 Y-25.593
X-46.812 Y-25.725
X-46.805 Y-26.001
X-46.733 Y-26.268
X-46.6 Y-26.511
X-46.414 Y-26.716
X-46.185 Y-26.871
X-45.926 Y-26.967
X-45.651 Y-27.
X-45.414
G3 X-45.157 Y-26.563 R0.3
G1 X-45.879 Y-25.162
G3 X-46.135 Y-25. R0.3
G1 X-46.371
X-46.506 Y-25.007
X-46.631 Y-25.058
X-46.741 Y-25.136
X-46.836 Y-25.232
X-46.915 Y-25.342
X-46.975 Y-25.462
X-47.021 Y-25.589
X-47.049 Y-25.722
X-47.045 Y-25.998
X-46.976 Y-26.265
X-46.845 Y-26.509
X-46.66 Y-26.714
X-46.432 Y-26.87
X-46.173 Y-26.967
X-45.899 Y-27.
X-45.651
G3 X-45.395 Y-26.563 R0.3
G1 X-46.115 Y-25.163
G3 X-46.371 Y-25. R0.3
G1 X-46.607
X-46.742 Y-25.007
X-46.867 Y-25.057
X-46.978 Y-25.134
X-47.073 Y-25.23
X-47.152 Y-25.339
X-47.213 Y-25.46
X-47.259 Y-25.587
X-47.284 Y-25.882
X-47.234 Y-26.174
X-47.112 Y-26.445
X-46.926 Y-26.675
X-46.688 Y-26.852
X-46.413 Y-26.962
X-46.119 Y-27.
X-45.899
G3 X-45.641 Y-26.565 R0.3
G1 X-46.35 Y-25.164
G3 X-46.607 Y-25. R0.3
G1 X-46.876
X-47.011 Y-25.007
X-47.133 Y-25.065
X-47.239 Y-25.148
X-47.33 Y-25.248
X-47.402 Y-25.363
X-47.459 Y-25.485
X-47.498 Y-25.614
X-47.524 Y-25.749
X-47.512 Y-26.022
X-47.437 Y-26.284
X-47.302 Y-26.522
X-47.116 Y-26.722
X-46.889 Y-26.874
X-46.632 Y-26.968
X-46.361 Y-27.
X-46.119
G3 X-45.865 Y-26.557 R0.3
G1 X-46.623 Y-25.157
G3 X-46.876 Y-25. R0.3
G1 X-47.105
X-47.239 Y-25.007
X-47.362 Y-25.063
X-47.47 Y-25.145
X-47.561 Y-25.244
X-47.637 Y-25.356
X-47.695 Y-25.478
X-47.739 Y-25.612
X-47.758 Y-25.904
X-47.704 Y-26.192
X-47.579 Y-26.457
X-47.393 Y-26.683
X-47.156 Y-26.855
X-46.884 Y-26.963
X-46.593 Y-27.
G3 X-46.322 Y-26.597 R0.3
G1 X-46.833 Y-25.197
G3 X-47.105 Y-25. R0.3
G1 X-47.347
X-47.481 Y-25.007
X-47.604 Y-25.064
X-47.711 Y-25.146
X-47.802 Y-25.245
X-47.874 Y-25.359
X-47.932 Y-25.481
X-47.972 Y-25.61
X-47.998 Y-25.743
X-48.009 Y-25.877
X-47.96 Y-26.171
X-47.839 Y-26.442
X-47.653 Y-26.674
X-47.414 Y-26.851
X-47.138 Y-26.962
X-46.843 Y-27.
X-46.361
G3 X-46.126 Y-26.528 R0.3
G1 X-47.112 Y-25.127
G3 X-47.347 Y-25. R0.3
G1 X-47.577
X-47.712 Y-25.007
X-47.835 Y-25.063
X-47.943 Y-25.144
X-48.035 Y-25.243
X-48.111 Y-25.354
X-48.172 Y-25.475
X-48.214 Y-25.603
X-48.243 Y-25.735
X-48.255 Y-25.869
X-48.209 Y-26.164
X-48.09 Y-26.437
X-47.906 Y-26.671
X-47.667 Y-26.849
X-47.391 Y-26.962
X-47.096 Y-27.
G3 X-46.823 Y-26.603 R0.3
G1 X-47.304 Y-25.202
G3 X-47.577 Y-25. R0.3
G1 X-47.818
X-47.953 Y-25.007
X-48.076 Y-25.063
X-48.184 Y-25.144
X-48.276 Y-25.242
X-48.353 Y-25.353
X-48.415 Y-25.473
X-48.458 Y-25.601
X-48.488 Y-25.733
X-48.481 Y-26.007
X-48.41 Y-26.273
X-48.279 Y-26.514
X-48.094 Y-26.717
X-47.867 Y-26.871
X-47.61 Y-26.967
X-47.337 Y-27.
G3 X-47.064 Y-26.603 R0.3
G1 X-47.545 Y-25.202
G3 X-47.818 Y-25. R0.3
G1 X-48.047
X-48.182 Y-25.007
X-48.306 Y-25.059
X-48.416 Y-25.137
X-48.511 Y-25.233
X-48.59 Y-25.343
X-48.65 Y-25.463
X-48.696 Y-25.59
X-48.722 Y-25.885
X-48.672 Y-26.177
X-48.55 Y-26.446
X-48.364 Y-26.676
X-48.126 Y-26.852
X-47.852 Y-26.962
X-47.558 Y-27.
G3 X-47.286 Y-26.601 R0.3
G1 X-47.774 Y-25.201
G3 X-48.047 Y-25. R0.3
G1 X-48.289
X-48.423 Y-25.007
X-48.548 Y-25.059
X-48.658 Y-25.137
X-48.752 Y-25.234
X-48.827 Y-25.346
X-48.887 Y-25.467
X-48.929 Y-25.595
X-48.958 Y-25.727
X-48.971 Y-25.862
X-48.936 Y-26.116
X-48.847 Y-26.358
X-48.707 Y-26.573
X-48.523 Y-26.753
X-48.304 Y-26.888
X-48.061 Y-26.972
X-47.806 Y-27.
G3 X-47.532 Y-26.602 R0.3
G1 X-48.015 Y-25.202
G3 X-48.289 Y-25. R0.3
G1 X-48.524
X-48.659 Y-25.007
X-48.784 Y-25.059
X-48.893 Y-25.138
X-48.987 Y-25.235
X-49.065 Y-25.345
X-49.128 Y-25.465
X-49.172 Y-25.592
X-49.202 Y-25.724
X-49.196 Y-26.
X-49.124 Y-26.268
X-48.992 Y-26.511
X-48.806 Y-26.715
X-48.576 Y-26.87
X-48.317 Y-26.967
X-48.042 Y-27.
G3 X-47.769 Y-26.603 R0.3
G1 X-48.251 Y-25.202
G3 X-48.524 Y-25. R0.3
G1 X-48.76 Y-25.001
X-48.895 Y-25.009
X-49.02 Y-25.06
X-49.131 Y-25.138
X-49.226 Y-25.234
X-49.305 Y-25.343
X-49.365 Y-25.464
X-49.411 Y-25.592
X-49.435 Y-25.887
X-49.385 Y-26.178
X-49.262 Y-26.447
X-49.076 Y-26.677
X-48.838 Y-26.852
X-48.563 Y-26.963
X-48.27 Y-27.
G3 X-47.997 Y-26.602 R0.3
G1 X-48.483 Y-25.202
G3 X-48.76 Y-25.001 R0.3
G1 X-49.029 Y-25.011
X-49.164 Y-25.025
X-49.287 Y-25.081
X-49.393 Y-25.163
X-49.484 Y-25.263
X-49.556 Y-25.377
X-49.612 Y-25.5
X-49.651 Y-25.629
X-49.675 Y-25.762
X-49.66 Y-26.033
X-49.583 Y-26.293
X-49.448 Y-26.529
X-49.262 Y-26.726
X-49.035 Y-26.875
X-48.78 Y-26.968
X-48.511 Y-27.
G3 X-48.239 Y-26.598 R0.3
G1 X-48.743 Y-25.209
G3 X-49.029 Y-25.011 R0.3
G1 X-49.299 Y-25.028
X-49.431 Y-25.054
X-49.551 Y-25.116
X-49.654 Y-25.203
X-49.741 Y-25.307
X-49.811 Y-25.423
X-49.862 Y-25.548
X-49.898 Y-25.678
X-49.903 Y-25.961
X-49.839 Y-26.236
X-49.71 Y-26.488
X-49.524 Y-26.702
X-49.292 Y-26.864
X-49.028 Y-26.966
X-48.747 Y-27.
G3 X-48.476 Y-26.596 R0.3
G1 X-48.985 Y-25.223
G3 X-49.299 Y-25.028 R0.3
G1 X-49.552 Y-25.072
X-49.662 Y-25.126
X-49.769 Y-25.19
X-49.881 Y-25.265
X-49.973 Y-25.364
X-50.041 Y-25.481
X-50.093 Y-25.605
X-50.124 Y-25.737
X-50.142 Y-25.871
X-50.111 Y-26.126
X-50.024 Y-26.369
X-49.884 Y-26.585
X-49.699 Y-26.765
X-49.478 Y-26.898
X-49.233 Y-26.977
G3 X-48.901 Y-26.58 R0.3
G1 X-49.342 Y-25.352
G3 X-49.769 Y-25.19 R0.3
G1 X-49.892 Y-25.265
X-49.931 Y-25.298
X-50.136 Y-25.577
X-50.164 Y-25.644
X-50.232 Y-25.947
X-50.228 Y-26.048
X-50.18 Y-26.317
X-50.152 Y-26.385
X-49.986 Y-26.643
X-49.901 Y-26.721
X-49.662 Y-26.88
X-49.527 Y-26.918
X-49.123 Y-26.998
X-46.843 Y-27.
X-46.808 Y-26.992 Z-4.994
X-46.776 Y-26.984 Z-4.977
X-46.751 Y-26.978 Z-4.951
X-46.735 Y-26.974 Z-4.918
X-46.73 Y-26.973 Z-4.882
G0 Z5.
X-49.426 Y-6.128
Z0.845
G1 Z0.545 F466.
G3 X-50.599 Y-5.872 Z0.413 R0.6
X-49.426 Y-6.128 Z0.281 R0.6
X-50.599 Y-5.872 Z0.15 R0.6
X-49.426 Y-6.128 Z0.018 R0.6
X-50.599 Y-5.872 Z-0.114 R0.6
X-49.426 Y-6.128 Z-0.246 R0.6
X-50.599 Y-5.872 Z-0.378 R0.6
X-49.426 Y-6.128 Z-0.509 R0.6
X-50.599 Y-5.872 Z-0.641 R0.6
X-49.426 Y-6.128 Z-0.773 R0.6
X-50.599 Y-5.872 Z-0.905 R0.6
X-49.426 Y-6.128 Z-1.037 R0.6
X-50.599 Y-5.872 Z-1.169 R0.6
X-49.426 Y-6.128 Z-1.3 R0.6
X-50.599 Y-5.872 Z-1.432 R0.6
X-49.426 Y-6.128 Z-1.564 R0.6
X-50.599 Y-5.872 Z-1.696 R0.6
X-49.426 Y-6.128 Z-1.828 R0.6
X-50.599 Y-5.872 Z-1.959 R0.6
X-49.426 Y-6.128 Z-2.091 R0.6
X-50.599 Y-5.872 Z-2.223 R0.6
X-49.426 Y-6.128 Z-2.355 R0.6
X-50.599 Y-5.872 Z-2.487 R0.6
X-49.426 Y-6.128 Z-2.618 R0.6
X-50.599 Y-5.872 Z-2.75 R0.6
X-49.426 Y-6.128 Z-2.882 R0.6
X-50.599 Y-5.872 Z-3.014 R0.6
X-49.426 Y-6.128 Z-3.146 R0.6
X-50.599 Y-5.872 Z-3.277 R0.6
X-49.426 Y-6.128 Z-3.409 R0.6
X-50.599 Y-5.872 Z-3.541 R0.6
X-49.426 Y-6.128 Z-3.673 R0.6
X-50.599 Y-5.872 Z-3.805 R0.6
X-49.426 Y-6.128 Z-3.937 R0.6
X-50.599 Y-5.872 Z-4.068 R0.6
X-49.426 Y-6.128 Z-4.2 R0.6
X-50.599 Y-5.872 Z-4.332 R0.6
X-49.426 Y-6.128 Z-4.464 R0.6
X-50.599 Y-5.872 Z-4.596 R0.6
X-49.426 Y-6.128 Z-4.727 R0.6
X-50.599 Y-5.872 Z-4.859 R0.6
X-50.077 Y-6.596 Z-4.93 R0.6
X-49.412 Y-6. Z-5. R0.6
X-50.612 R0.6
X-49.412 R0.6
G1 X-49.397 Y-5.644
X-49.445 Y-5.517
X-49.525 Y-5.409
X-49.627 Y-5.32
X-49.745 Y-5.254
X-49.873 Y-5.212
X-50.007 Y-5.195
X-50.142 Y-5.201
X-50.274 Y-5.231
X-50.398 Y-5.283
X-50.513 Y-5.355
X-50.613 Y-5.445
X-50.697 Y-5.551
X-50.762 Y-5.669
X-50.806 Y-5.797
X-50.829 Y-5.93
X-50.83 Y-6.065
X-50.808 Y-6.198
X-50.765 Y-6.326
X-50.702 Y-6.445
X-50.62 Y-6.552
X-50.521 Y-6.644
X-50.408 Y-6.719
X-50.285 Y-6.774
X-50.155 Y-6.808
X-50.02 Y-6.821
X-49.886 Y-6.811
X-49.754 Y-6.779
X-49.63 Y-6.726
X-49.516 Y-6.654
X-49.416 Y-6.564
X-49.331 Y-6.458
X-49.264 Y-6.341
X-49.21 Y-6.218
X-49.167 Y-6.09
X-49.141 Y-5.957
X-49.133 Y-5.822
X-49.147 Y-5.688
X-49.18 Y-5.557
X-49.234 Y-5.434
X-49.308 Y-5.32
X-49.397 Y-5.219
X-49.501 Y-5.133
X-49.616 Y-5.062
X-49.74 Y-5.01
X-49.871 Y-4.976
X-50.005 Y-4.96
X-50.14 Y-4.962
X-50.274 Y-4.983
X-50.403 Y-5.021
X-50.526 Y-5.077
X-50.641 Y-5.148
X-50.746 Y-5.233
X-50.839 Y-5.331
X-50.917 Y-5.44
X-50.982 Y-5.559
X-51.031 Y-5.685
X-51.064 Y-5.816
X-51.079 Y-5.95
X-51.077 Y-6.085
X-51.058 Y-6.218
X-51.023 Y-6.349
X-50.971 Y-6.473
X-50.904 Y-6.59
X-50.822 Y-6.698
X-50.728 Y-6.795
X-50.623 Y-6.879
X-50.507 Y-6.949
X-50.383 Y-7.003
X-50.254 Y-7.042
X-50.121 Y-7.065
X-49.986 Y-7.07
X-49.852 Y-7.058
X-49.72 Y-7.029
X-49.592 Y-6.985
X-49.472 Y-6.924
X-49.36 Y-6.848
X-49.258 Y-6.76
X-49.166 Y-6.661
X-49.084 Y-6.554
X-49.014 Y-6.438
X-48.957 Y-6.316
X-48.913 Y-6.188
X-48.884 Y-6.056
X-48.869 Y-5.922
X-48.87 Y-5.787
X-48.887 Y-5.653
X-48.919 Y-5.522
X-48.966 Y-5.396
X-49.027 Y-5.275
X-49.103 Y-5.163
X-49.191 Y-5.061
X-49.29 Y-4.969
X-49.398 Y-4.889
X-49.515 Y-4.822
X-49.639 Y-4.769
X-49.769 Y-4.73
X-49.901 Y-4.704
X-50.036 Y-4.694
X-50.171 Y-4.698
X-50.304 Y-4.717
X-50.435 Y-4.75
X-50.562 Y-4.796
X-50.683 Y-4.856
X-50.798 Y-4.927
X-50.904 Y-5.011
X-51.001 Y-5.105
X-51.087 Y-5.208
X-51.163 Y-5.32
X-51.228 Y-5.439
X-51.279 Y-5.564
X-51.317 Y-5.693
X-51.342 Y-5.826
X-51.354 Y-5.96
X-51.352 Y-6.095
X-51.336 Y-6.229
X-51.306 Y-6.361
X-51.264 Y-6.489
X-51.209 Y-6.613
X-51.142 Y-6.73
X-51.063 Y-6.839
X-50.974 Y-6.94
X-50.875 Y-7.032
X-50.767 Y-7.114
X-50.652 Y-7.184
X-50.53 Y-7.242
X-50.403 Y-7.288
X-50.272 Y-7.32
X-50.138 Y-7.34
X-50.003 Y-7.346
X-49.869 Y-7.338
X-49.735 Y-7.317
X-49.605 Y-7.283
X-49.478 Y-7.236
X-49.357 Y-7.177
X-49.241 Y-7.107
X-49.133 Y-7.026
X-49.032 Y-6.936
X-48.94 Y-6.838
X-48.857 Y-6.731
X-48.784 Y-6.618
X-48.721 Y-6.498
X-48.669 Y-6.374
X-48.629 Y-6.245
X-48.6 Y-6.113
X-48.584 Y-5.979
X-48.58 Y-5.844
X-48.589 Y-5.709
X-48.61 Y-5.576
X-48.643 Y-5.445
X-48.689 Y-5.318
X-48.746 Y-5.196
X-48.814 Y-5.079
X-48.893 Y-4.969
X-48.981 Y-4.867
X-49.078 Y-4.774
X-49.184 Y-4.69
X-49.297 Y-4.616
X-49.416 Y-4.552
X-49.54 Y-4.499
X-49.669 Y-4.457
X-49.8 Y-4.428
X-49.934 Y-4.41
X-50.069 Y-4.404
X-50.204 Y-4.41
X-50.338 Y-4.427
X-50.47 Y-4.456
X-50.599 Y-4.496
X-50.723 Y-4.547
X-50.843 Y-4.609
X-50.958 Y-4.681
X-51.066 Y-4.762
X-51.166 Y-4.852
X-51.259 Y-4.95
X-51.343 Y-5.056
X-51.417 Y-5.169
X-51.483 Y-5.287
X-51.538 Y-5.41
X-51.583 Y-5.537
X-51.616 Y-5.668
X-51.639 Y-5.801
X-51.65 Y-5.936
X-51.651 Y-6.071
X-51.64 Y-6.205
X-51.619 Y-6.339
X-51.586 Y-6.469
X-51.542 Y-6.597
X-51.488 Y-6.721
X-51.425 Y-6.84
X-51.351 Y-6.953
X-51.269 Y-7.06
X-51.177 Y-7.16
X-51.078 Y-7.252
X-50.972 Y-7.335
X-50.86 Y-7.41
X-50.741 Y-7.474
X-50.618 Y-7.529
X-50.491 Y-7.574
X-50.36 Y-7.608
X-50.227 Y-7.631
X-50.093 Y-7.643
X-49.958 Y-7.644
X-49.823 Y-7.634
X-49.689 Y-7.614
X-49.558 Y-7.583
X-49.43 Y-7.541
X-49.305 Y-7.489
X-49.185 Y-7.428
X-49.069 Y-7.358
X-48.96 Y-7.279
X-48.857 Y-7.192
X-48.76 Y-7.098
X-48.671 Y-6.996
X-48.59 Y-6.888
X-48.517 Y-6.774
X-48.399 Y-6.532
X-48.353 Y-6.405
X-48.318 Y-6.275
X-48.292 Y-6.142
X-48.277 Y-6.008
X-48.272 Y-5.873
X-48.277 Y-5.738
X-48.292 Y-5.604
X-48.318 Y-5.471
X-48.354 Y-5.341
X-48.399 Y-5.214
X-48.454 Y-5.091
X-48.518 Y-4.972
X-48.591 Y-4.859
X-48.673 Y-4.751
X-48.763 Y-4.65
X-48.963 Y-4.47
X-49.073 Y-4.391
X-49.188 Y-4.321
X-49.309 Y-4.26
X-49.433 Y-4.208
X-49.693 Y-4.133
X-49.96 Y-4.096
X-50.095 Y-4.092
X-50.364 Y-4.115
X-50.627 Y-4.175
X-50.878 Y-4.273
X-51.113 Y-4.406
X-51.327 Y-4.571
X-51.515 Y-4.764
X-51.674 Y-4.982
X-51.801 Y-5.22
X-51.894 Y-5.473
X-51.951 Y-5.737
X-51.97 Y-6.006
X-51.952 Y-6.275
X-51.897 Y-6.539
X-51.806 Y-6.793
X-51.681 Y-7.032
X-51.524 Y-7.252
X-51.338 Y-7.448
X-51.128 Y-7.616
X-50.896 Y-7.754
X-50.647 Y-7.859
X-50.387 Y-7.929
X-50.119 Y-7.962
X-49.849 Y-7.959
X-49.582 Y-7.92
X-49.323 Y-7.845
X-49.075 Y-7.737
X-48.844 Y-7.597
X-48.633 Y-7.429
X-48.446 Y-7.235
X-48.284 Y-7.019
X-48.152 Y-6.784
X-48.051 Y-6.534
X-47.983 Y-6.272
X-47.948 Y-6.005
X-47.949 Y-5.735
X-47.984 Y-5.467
X-48.053 Y-5.207
X-48.155 Y-4.957
X-48.289 Y-4.722
X-48.451 Y-4.507
X-48.639 Y-4.313
X-48.851 Y-4.146
X-49.082 Y-4.006
X-49.328 Y-3.896
X-49.587 Y-3.818
X-49.853 Y-3.774
X-50.123 Y-3.762
X-50.392 Y-3.784
X-50.656 Y-3.838
X-50.911 Y-3.925
X-51.155 Y-4.042
X-51.382 Y-4.187
X-51.59 Y-4.359
X-51.776 Y-4.555
X-51.937 Y-4.772
X-52.071 Y-5.006
X-52.176 Y-5.255
X-52.251 Y-5.514
X-52.294 Y-5.78
X-52.306 Y-6.05
X-52.285 Y-6.319
X-52.233 Y-6.584
X-52.15 Y-6.841
X-52.038 Y-7.086
X-51.897 Y-7.316
X-51.731 Y-7.528
X-51.54 Y-7.719
X-51.328 Y-7.887
X-51.099 Y-8.029
X-50.854 Y-8.142
X-50.597 Y-8.226
X-50.333 Y-8.28
X-50.064 Y-8.302
X-49.794 Y-8.294
X-49.527 Y-8.255
X-49.266 Y-8.185
X-49.015 Y-8.086
X-48.777 Y-7.96
X-48.554 Y-7.808
X-48.349 Y-7.632
X-48.165 Y-7.434
X-48.004 Y-7.218
X-47.868 Y-6.985
X-47.759 Y-6.738
X-47.678 Y-6.48
X-47.625 Y-6.216
X-47.602 Y-5.947
X-47.609 Y-5.677
X-47.645 Y-5.41
X-47.709 Y-5.162
X-47.752 Y-5.052
X-47.849 Y-4.839
X-47.864 Y-4.806
X-47.876 Y-4.779
X-47.965 Y-4.617
X-48.027 Y-4.54
G3 X-48.497 Y-4.906 R0.3
G1 X-48.41 Y-5.049
G3 X-47.876 Y-4.779 R0.3
G1 X-47.962 Y-4.613
X-48.376 Y-4.16
X-48.484 Y-4.052
X-49.157 Y-3.676
X-49.796 Y-3.546
X-49.931 Y-3.525
X-50.705 Y-3.622
X-51.277 Y-3.887
X-51.431 Y-3.971
X-51.972 Y-4.485
X-52.338 Y-5.149
X-52.378 Y-5.317
X-52.488 Y-5.928
X-52.468 Y-6.125
X-52.395 Y-6.663
X-52.381 Y-6.725
X-52.05 Y-7.407
X-51.815 Y-7.66
X-51.499 Y-7.981
X-50.873 Y-8.317
X-50.806 Y-8.346
X-50.065 Y-8.476
X-49.931 Y-8.464
X-49.292 Y-8.369
X-48.989 Y-8.227
X-48.566 Y-8.01
X-48.02 Y-7.471
X-47.669 Y-6.798
X-47.637 Y-6.663
X-47.533 Y-5.99
X-47.611 Y-5.385
X-47.643 Y-5.292
X-47.752 Y-5.052
X-47.775 Y-5.023 Z-4.994
X-47.795 Y-4.997 Z-4.977
X-47.81 Y-4.977 Z-4.951
X-47.821 Y-4.964 Z-4.918
X-47.824 Y-4.959 Z-4.882
G0 Z5.
X-37.532 Y15.872
Z0.845
G1 Z0.545 F466.
G3 X-38.704 Y16.128 Z0.413 R0.6
X-37.532 Y15.872 Z0.281 R0.6
X-38.704 Y16.128 Z0.15 R0.6
X-37.532 Y15.872 Z0.018 R0.6
X-38.704 Y16.128 Z-0.114 R0.6
X-37.532 Y15.872 Z-0.246 R0.6
X-38.704 Y16.128 Z-0.378 R0.6
X-37.532 Y15.872 Z-0.509 R0.6
X-38.704 Y16.128 Z-0.641 R0.6
X-37.532 Y15.872 Z-0.773 R0.6
X-38.704 Y16.128 Z-0.905 R0.6
X-37.532 Y15.872 Z-1.037 R0.6
X-38.704 Y16.128 Z-1.169 R0.6
X-37.532 Y15.872 Z-1.3 R0.6
X-38.704 Y16.128 Z-1.432 R0.6
X-37.532 Y15.872 Z-1.564 R0.6
X-38.704 Y16.128 Z-1.696 R0.6
X-37.532 Y15.872 Z-1.828 R0.6
X-38.704 Y16.128 Z-1.959 R0.6
X-37.532 Y15.872 Z-2.091 R0.6
X-38.704 Y16.128 Z-2.223 R0.6
X-37.532 Y15.872 Z-2.355 R0.6
X-38.704 Y16.128 Z-2.487 R0.6
X-37.532 Y15.872 Z-2.618 R0.6
X-38.704 Y16.128 Z-2.75 R0.6
X-37.532 Y15.872 Z-2.882 R0.6
X-38.704 Y16.128 Z-3.014 R0.6
X-37.532 Y15.872 Z-3.146 R0.6
X-38.704 Y16.128 Z-3.277 R0.6
X-37.532 Y15.872 Z-3.409 R0.6
X-38.704 Y16.128 Z-3.541 R0.6
X-37.532 Y15.872 Z-3.673 R0.6
X-38.704 Y16.128 Z-3.805 R0.6
X-37.532 Y15.872 Z-3.937 R0.6
X-38.704 Y16.128 Z-4.068 R0.6
X-37.532 Y15.872 Z-4.2 R0.6
X-38.704 Y16.128 Z-4.332 R0.6
X-37.532 Y15.872 Z-4.464 R0.6
X-38.704 Y16.128 Z-4.596 R0.6
X-37.532 Y15.872 Z-4.727 R0.6
X-38.704 Y16.128 Z-4.859 R0.6
X-38.183 Y15.404 Z-4.93 R0.6
X-37.518 Y16. Z-5. R0.6
X-38.718 R0.6
X-37.518 R0.6
G1 X-37.503 Y16.356
X-37.551 Y16.482
X-37.631 Y16.591
X-37.733 Y16.68
X-37.851 Y16.745
X-37.979 Y16.787
X-38.113 Y16.805
X-38.248 Y16.799
X-38.38 Y16.769
X-38.504 Y16.717
X-38.618 Y16.645
X-38.719 Y16.555
X-38.803 Y16.449
X-38.868 Y16.331
X-38.912 Y16.203
X-38.935 Y16.07
X-38.936 Y15.935
X-38.914 Y15.802
X-38.871 Y15.674
X-38.808 Y15.555
X-38.725 Y15.448
X-38.627 Y15.356
X-38.514 Y15.281
X-38.391 Y15.226
X-38.26 Y15.191
X-38.126 Y15.179
X-37.991 Y15.189
X-37.86 Y15.221
X-37.736 Y15.273
X-37.622 Y15.346
X-37.522 Y15.436
X-37.437 Y15.541
X-37.37 Y15.659
X-37.316 Y15.782
X-37.273 Y15.91
X-37.246 Y16.043
X-37.239 Y16.177
X-37.253 Y16.312
X-37.286 Y16.442
X-37.34 Y16.566
X-37.413 Y16.68
X-37.503 Y16.78
X-37.607 Y16.867
X-37.722 Y16.937
X-37.846 Y16.99
X-37.977 Y17.024
X-38.111 Y17.04
X-38.246 Y17.038
X-38.379 Y17.017
X-38.509 Y16.979
X-38.632 Y16.923
X-38.747 Y16.852
X-38.852 Y16.767
X-38.944 Y16.669
X-39.023 Y16.56
X-39.088 Y16.441
X-39.137 Y16.315
X-39.169 Y16.184
X-39.185 Y16.05
X-39.183 Y15.915
X-39.164 Y15.781
X-39.129 Y15.651
X-39.077 Y15.526
X-39.01 Y15.409
X-38.928 Y15.302
X-38.834 Y15.205
X-38.728 Y15.121
X-38.613 Y15.051
X-38.489 Y14.997
X-38.36 Y14.958
X-38.227 Y14.935
X-38.092 Y14.93
X-37.958 Y14.942
X-37.826 Y14.971
X-37.698 Y15.015
X-37.578 Y15.076
X-37.466 Y15.152
X-37.364 Y15.24
X-37.272 Y15.339
X-37.19 Y15.446
X-37.12 Y15.562
X-37.063 Y15.684
X-37.019 Y15.812
X-36.99 Y15.943
X-36.975 Y16.078
X-36.976 Y16.213
X-36.993 Y16.346
X-37.025 Y16.478
X-37.072 Y16.604
X-37.133 Y16.724
X-37.209 Y16.836
X-37.297 Y16.939
X-37.395 Y17.031
X-37.504 Y17.111
X-37.621 Y17.178
X-37.745 Y17.231
X-37.875 Y17.27
X-38.007 Y17.295
X-38.142 Y17.306
X-38.277 Y17.302
X-38.41 Y17.283
X-38.541 Y17.25
X-38.668 Y17.203
X-38.789 Y17.144
X-38.904 Y17.072
X-39.01 Y16.989
X-39.107 Y16.895
X-39.193 Y16.791
X-39.269 Y16.68
X-39.333 Y16.561
X-39.385 Y16.436
X-39.423 Y16.307
X-39.448 Y16.174
X-39.46 Y16.039
X-39.458 Y15.904
X-39.442 Y15.77
X-39.412 Y15.639
X-39.37 Y15.51
X-39.315 Y15.387
X-39.248 Y15.27
X-39.169 Y15.16
X-39.079 Y15.059
X-38.98 Y14.968
X-38.873 Y14.886
X-38.758 Y14.816
X-38.636 Y14.758
X-38.509 Y14.712
X-38.378 Y14.679
X-38.244 Y14.66
X-38.109 Y14.654
X-37.974 Y14.661
X-37.841 Y14.683
X-37.711 Y14.717
X-37.584 Y14.764
X-37.462 Y14.823
X-37.347 Y14.893
X-37.239 Y14.974
X-37.138 Y15.064
X-37.046 Y15.162
X-36.963 Y15.268
X-36.889 Y15.382
X-36.827 Y15.501
X-36.775 Y15.626
X-36.735 Y15.755
X-36.706 Y15.887
X-36.69 Y16.021
X-36.686 Y16.156
X-36.695 Y16.291
X-36.716 Y16.424
X-36.749 Y16.555
X-36.795 Y16.682
X-36.852 Y16.804
X-36.92 Y16.921
X-36.999 Y17.03
X-37.087 Y17.133
X-37.184 Y17.226
X-37.29 Y17.31
X-37.403 Y17.384
X-37.522 Y17.448
X-37.646 Y17.501
X-37.775 Y17.542
X-37.906 Y17.572
X-38.04 Y17.59
X-38.175 Y17.596
X-38.31 Y17.59
X-38.444 Y17.573
X-38.576 Y17.544
X-38.704 Y17.504
X-38.829 Y17.452
X-38.949 Y17.39
X-39.064 Y17.319
X-39.172 Y17.238
X-39.272 Y17.148
X-39.365 Y17.049
X-39.449 Y16.944
X-39.523 Y16.831
X-39.589 Y16.713
X-39.644 Y16.59
X-39.688 Y16.462
X-39.722 Y16.332
X-39.745 Y16.199
X-39.756 Y16.064
X-39.757 Y15.929
X-39.746 Y15.794
X-39.724 Y15.661
X-39.692 Y15.53
X-39.648 Y15.403
X-39.594 Y15.279
X-39.53 Y15.16
X-39.457 Y15.046
X-39.374 Y14.94
X-39.283 Y14.84
X-39.184 Y14.748
X-39.078 Y14.665
X-38.966 Y14.59
X-38.847 Y14.525
X-38.724 Y14.471
X-38.596 Y14.426
X-38.466 Y14.392
X-38.333 Y14.369
X-38.198 Y14.356
X-38.063 Y14.355
X-37.929 Y14.365
X-37.795 Y14.386
X-37.664 Y14.417
X-37.536 Y14.459
X-37.411 Y14.51
X-37.29 Y14.572
X-37.175 Y14.642
X-37.066 Y14.721
X-36.962 Y14.808
X-36.866 Y14.902
X-36.777 Y15.004
X-36.696 Y15.112
X-36.623 Y15.225
X-36.505 Y15.468
X-36.459 Y15.595
X-36.424 Y15.725
X-36.398 Y15.858
X-36.383 Y15.992
X-36.378 Y16.127
X-36.383 Y16.262
X-36.398 Y16.396
X-36.424 Y16.528
X-36.459 Y16.658
X-36.505 Y16.786
X-36.56 Y16.909
X-36.624 Y17.028
X-36.697 Y17.141
X-36.779 Y17.249
X-36.868 Y17.35
X-37.069 Y17.53
X-37.179 Y17.609
X-37.294 Y17.679
X-37.415 Y17.74
X-37.539 Y17.792
X-37.798 Y17.867
X-38.066 Y17.904
X-38.201 Y17.908
X-38.469 Y17.885
X-38.732 Y17.825
X-38.984 Y17.727
X-39.219 Y17.594
X-39.432 Y17.429
X-39.621 Y17.236
X-39.78 Y17.018
X-39.907 Y16.78
X-40. Y16.527
X-40.057 Y16.263
X-40.076 Y15.994
X-40.058 Y15.725
X-40.003 Y15.461
X-39.912 Y15.207
X-39.787 Y14.967
X-39.63 Y14.748
X-39.444 Y14.552
X-39.234 Y14.383
X-39.002 Y14.246
X-38.753 Y14.141
X-38.492 Y14.071
X-38.225 Y14.038
X-37.955 Y14.041
X-37.688 Y14.08
X-37.428 Y14.155
X-37.181 Y14.263
X-36.95 Y14.402
X-36.739 Y14.57
X-36.551 Y14.764
X-36.39 Y14.981
X-36.258 Y15.216
X-36.157 Y15.466
X-36.089 Y15.727
X-36.054 Y15.995
X-36.055 Y16.265
X-36.09 Y16.532
X-36.159 Y16.793
X-36.261 Y17.043
X-36.395 Y17.278
X-36.557 Y17.493
X-36.745 Y17.687
X-36.957 Y17.854
X-37.188 Y17.994
X-37.434 Y18.104
X-37.693 Y18.181
X-37.959 Y18.226
X-38.228 Y18.238
X-38.497 Y18.216
X-38.762 Y18.161
X-39.017 Y18.075
X-39.261 Y17.958
X-39.488 Y17.812
X-39.696 Y17.64
X-39.882 Y17.445
X-40.043 Y17.228
X-40.177 Y16.994
X-40.282 Y16.745
X-40.357 Y16.486
X-40.4 Y16.22
X-40.412 Y15.95
X-40.391 Y15.681
X-40.339 Y15.416
X-40.256 Y15.159
X-40.144 Y14.914
X-40.003 Y14.684
X-39.836 Y14.471
X-39.646 Y14.28
X-39.434 Y14.113
X-39.204 Y13.971
X-38.96 Y13.858
X-38.703 Y13.774
X-38.439 Y13.72
X-38.17 Y13.697
X-37.9 Y13.706
X-37.633 Y13.745
X-37.372 Y13.815
X-37.121 Y13.914
X-36.882 Y14.04
X-36.659 Y14.192
X-36.455 Y14.368
X-36.271 Y14.565
X-36.11 Y14.782
X-35.974 Y15.015
X-35.865 Y15.262
X-35.783 Y15.519
X-35.731 Y15.784
X-35.708 Y16.053
X-35.715 Y16.323
X-35.751 Y16.59
X-35.817 Y16.852
X-35.912 Y17.105
X-36.033 Y17.346
X-36.181 Y17.572
X-36.352 Y17.78
X-36.545 Y17.969
X-36.758 Y18.135
X-36.987 Y18.278
X-37.23 Y18.394
X-37.485 Y18.484
X-37.748 Y18.545
X-38.016 Y18.579
X-38.285 Y18.583
X-38.554 Y18.558
X-38.819 Y18.506
X-39.077 Y18.425
X-39.324 Y18.318
X-39.559 Y18.185
X-39.779 Y18.029
X-39.982 Y17.85
X-40.164 Y17.651
X-40.325 Y17.435
X-40.463 Y17.203
X-40.576 Y16.958
X-40.663 Y16.702
X-40.723 Y16.439
X-40.756 Y16.171
X-40.762 Y15.901
X-40.739 Y15.632
X-40.689 Y15.367
X-40.612 Y15.108
X-40.509 Y14.859
X-40.382 Y14.621
X-40.23 Y14.398
X-40.057 Y14.191
X-39.863 Y14.003
X-39.651 Y13.835
X-39.424 Y13.69
X-39.183 Y13.569
X-38.93 Y13.473
X-38.67 Y13.403
X-38.403 Y13.36
X-38.134 Y13.343
X-37.864 Y13.354
X-37.597 Y13.392
X-37.334 Y13.455
X-37.08 Y13.545
X-36.835 Y13.659
X-36.603 Y13.796
X-36.385 Y13.955
X-36.183 Y14.135
X-36. Y14.333
X-35.837 Y14.548
X-35.696 Y14.778
X-35.577 Y15.02
X-35.483 Y15.273
X-35.413 Y15.534
X-35.368 Y15.8
X-35.35 Y16.069
X-35.357 Y16.339
X-35.391 Y16.607
X-35.45 Y16.871
X-35.534 Y17.127
X-35.643 Y17.374
X-35.774 Y17.61
X-35.928 Y17.832
X-36.102 Y18.038
X-36.295 Y18.226
X-36.505 Y18.396
X-36.731 Y18.545
X-36.969 Y18.671
X-37.218 Y18.775
X-37.476 Y18.854
X-37.74 Y18.909
X-38.009 Y18.939
X-38.279 Y18.944
X-38.548 Y18.923
X-38.814 Y18.878
X-39.075 Y18.808
X-39.328 Y18.714
X-39.571 Y18.598
X-39.803 Y18.459
X-40.021 Y18.3
X-40.223 Y18.121
X-40.408 Y17.925
X-40.575 Y17.712
X-40.721 Y17.486
X-40.847 Y17.247
X-40.95 Y16.997
X-41.03 Y16.739
X-41.086 Y16.475
X-41.119 Y16.207
X-41.126 Y15.938
X-41.11 Y15.668
X-41.07 Y15.401
X-41.005 Y15.139
X-40.917 Y14.884
X-40.807 Y14.637
X-40.675 Y14.402
X-40.522 Y14.179
X-40.35 Y13.971
X-40.161 Y13.78
X-39.954 Y13.605
X-39.733 Y13.451
X-39.499 Y13.316
X-39.254 Y13.203
X-39. Y13.112
X-38.739 Y13.044
X-38.472 Y13.
X-38.203 Y12.979
X-37.933 Y12.982
X-37.665 Y13.008
X-37.399 Y13.059
X-37.138 Y13.132
X-36.884 Y13.228
X-36.641 Y13.345
X-36.407 Y13.483
X-36.185 Y13.643
X-35.976 Y13.822
X-35.785 Y14.017
X-35.613 Y14.227
X-35.458 Y14.453
X-35.322 Y14.694
X-35.208 Y14.945
X-35.117 Y15.203
X-35.048 Y15.468
X-35.003 Y15.739
X-34.981 Y16.015
X-34.983 Y16.292
X-35.009 Y16.565
X-35.059 Y16.835
X-35.133 Y17.101
X-35.229 Y17.361
X-35.348 Y17.612
X-35.488 Y17.851
X-35.648 Y18.076
X-35.827 Y18.287
X-36.025 Y18.483
X-36.24 Y18.661
X-36.471 Y18.821
X-36.714 Y18.96
X-36.967 Y19.077
X-37.23 Y19.171
X-37.503 Y19.243
X-37.783 Y19.292
X-38.066 Y19.315
X-38.35
X-38.632 Y19.289
X-38.911 Y19.239
X-39.187 Y19.165
X-39.456 Y19.066
X-39.715 Y18.945
X-39.965 Y18.8
X-40.201 Y18.634
X-40.423 Y18.448
X-40.627 Y18.244
X-40.812 Y18.023
X-40.979 Y17.786
X-41.124 Y17.535
X-41.247 Y17.272
X-41.347 Y16.999
X-41.423 Y16.716
X-41.474 Y16.428
X-41.5 Y16.137
X-41.501 Y15.844
X-41.476 Y15.552
X-41.426 Y15.262
X-41.351 Y14.978
X-41.252 Y14.703
X-41.129 Y14.437
X-40.983 Y14.182
X-40.815 Y13.94
X-40.628 Y13.714
X-40.421 Y13.505
X-40.195 Y13.314
X-39.954 Y13.143
X-39.699 Y12.994
X-39.431 Y12.867
X-39.153 Y12.764
X-38.866 Y12.685
X-38.572 Y12.631
X-38.275 Y12.603
X-37.975 Y12.601
X-37.675 Y12.624
X-37.377 Y12.674
X-37.085 Y12.75
X-36.799 Y12.851
X-36.523 Y12.977
X-36.257 Y13.127
X-36.005 Y13.3
X-35.769 Y13.494
X-35.551 Y13.708
X-35.351 Y13.941
X-35.172 Y14.191
X-35.015 Y14.456
X-34.882 Y14.733
X-34.773 Y15.021
X-34.69 Y15.318
X-34.633 Y15.621
X-34.602 Y15.928
X-34.598 Y16.236
X-34.621 Y16.544
X-34.67 Y16.849
X-34.746 Y17.15
X-34.848 Y17.442
X-34.975 Y17.725
X-35.126 Y17.995
X-35.3 Y18.252
X-35.497 Y18.494
X-35.714 Y18.718
X-35.95 Y18.923
X-36.203 Y19.106
X-36.471 Y19.267
X-36.753 Y19.404
X-37.047 Y19.516
X-37.351 Y19.603
X-37.661 Y19.664
X-37.975 Y19.697
X-38.292 Y19.703
X-38.609 Y19.681
X-38.923 Y19.631
X-39.233 Y19.555
X-39.535 Y19.451
X-39.828 Y19.321
X-40.11 Y19.166
X-40.377 Y18.987
X-40.628 Y18.785
X-40.86 Y18.562
X-41.073 Y18.319
X-41.264 Y18.059
X-41.432 Y17.782
X-41.575 Y17.491
X-41.693 Y17.188
X-41.784 Y16.876
X-41.848 Y16.556
X-41.884 Y16.232
X-41.892 Y15.906
X-41.871 Y15.579
X-41.822 Y15.256
X-41.745 Y14.939
X-41.641 Y14.629
X-41.51 Y14.329
X-41.353 Y14.041
X-41.172 Y13.768
X-40.968 Y13.511
X-40.742 Y13.273
X-40.496 Y13.055
X-40.231 Y12.859
X-39.95 Y12.687
X-39.655 Y12.539
X-39.347 Y12.417
X-39.029 Y12.323
X-38.704 Y12.256
X-38.373 Y12.217
X-38.039 Y12.208
X-37.705 Y12.227
X-37.373 Y12.276
X-37.046 Y12.353
X-36.726 Y12.459
X-36.416 Y12.592
X-36.118 Y12.753
X-35.834 Y12.938
X-35.567 Y13.149
X-35.319 Y13.382
X-35.092 Y13.636
X-34.888 Y13.909
X-34.708 Y14.198
X-34.553 Y14.503
X-34.426 Y14.821
X-34.326 Y15.148
X-34.256 Y15.483
X-34.214 Y15.823
X-34.203 Y16.166
X-34.221 Y16.508
X-34.269 Y16.849
X-34.346 Y17.183
X-34.452 Y17.51
X-34.587 Y17.827
X-34.748 Y18.132
X-34.936 Y18.421
X-35.148 Y18.694
X-35.384 Y18.947
X-35.641 Y19.179
X-35.917 Y19.389
X-36.211 Y19.574
X-36.521 Y19.733
X-36.844 Y19.864
X-37.178 Y19.968
X-37.52 Y20.042
X-37.868 Y20.086
X-38.219 Y20.1
X-38.57 Y20.083
X-38.92 Y20.035
X-39.264 Y19.958
X-39.602 Y19.85
X-39.929 Y19.713
X-40.244 Y19.548
X-40.543 Y19.357
X-40.825 Y19.139
X-41.088 Y18.898
X-41.329 Y18.634
X-41.546 Y18.35
X-41.739 Y18.048
X-41.904 Y17.729
X-42.042 Y17.397
X-42.15 Y17.054
X-42.228 Y16.702
X-42.275 Y16.345
X-42.291 Y15.984
X-42.276 Y15.623
X-42.229 Y15.265
X-42.151 Y14.912
X-42.043 Y14.567
X-41.906 Y14.232
X-41.739 Y13.91
X-41.545 Y13.604
X-41.325 Y13.316
X-41.081 Y13.047
X-40.814 Y12.8
X-40.526 Y12.578
X-40.219 Y12.38
X-39.896 Y12.21
X-39.559 Y12.069
X-39.211 Y11.957
X-38.853 Y11.875
X-38.488 Y11.825
X-38.12 Y11.807
X-37.751 Y11.821
X-37.384 Y11.867
X-37.021 Y11.944
X-36.666 Y12.054
X-36.321 Y12.193
X-35.989 Y12.363
X-35.672 Y12.561
X-35.373 Y12.787
X-35.094 Y13.038
X-34.838 Y13.312
X-34.607 Y13.608
X-34.402 Y13.923
X-34.225 Y14.255
X-34.077 Y14.602
X-33.96 Y14.96
X-33.874 Y15.328
X-33.821 Y15.702
X-33.8 Y16.079
X-33.812 Y16.457
X-33.857 Y16.833
X-33.934 Y17.203
X-34.044 Y17.566
X-34.184 Y17.918
X-34.355 Y18.257
X-34.555 Y18.581
X-34.783 Y18.886
X-35.036 Y19.17
X-35.313 Y19.432
X-35.613 Y19.669
X-35.933 Y19.879
X-36.27 Y20.061
X-36.622 Y20.214
X-36.987 Y20.335
X-37.362 Y20.424
X-37.743 Y20.481
X-38.129 Y20.504
X-38.516 Y20.494
X-38.901 Y20.45
X-39.282 Y20.372
X-39.655 Y20.262
X-40.017 Y20.119
X-40.367 Y19.946
X-40.7 Y19.742
X-41.015 Y19.509
X-41.309 Y19.25
X-41.58 Y18.966
X-41.826 Y18.659
X-42.044 Y18.332
X-42.233 Y17.986
X-42.391 Y17.624
X-42.518 Y17.25
X-42.612 Y16.866
X-42.672 Y16.475
X-42.698 Y16.08
X-42.689 Y15.683
X-42.646 Y15.289
X-42.569 Y14.9
X-42.459 Y14.518
X-42.315 Y14.148
X-42.14 Y13.791
X-41.934 Y13.45
X-41.7 Y13.128
X-41.438 Y12.828
X-41.15 Y12.551
X-40.839 Y12.3
X-40.507 Y12.076
X-40.157 Y11.882
X-39.79 Y11.719
X-39.41 Y11.588
X-39.02 Y11.491
X-38.622 Y11.427
X-38.219 Y11.399
X-37.814 Y11.405
X-37.41 Y11.447
X-37.011 Y11.524
X-36.62 Y11.635
X-36.239 Y11.78
X-35.871 Y11.959
X-35.52 Y12.168
X-35.187 Y12.408
X-34.877 Y12.676
X-34.59 Y12.971
X-34.33 Y13.289
X-34.098 Y13.629
X-33.897 Y13.989
X-33.727 Y14.365
X-33.59 Y14.754
X-33.488 Y15.155
X-33.421 Y15.562
X-33.39 Y15.975
X-33.394 Y16.389
X-33.435 Y16.801
X-33.511 Y17.208
X-33.622 Y17.608
X-33.768 Y17.996
X-33.947 Y18.371
X-34.158 Y18.73
X-34.4 Y19.069
X-34.671 Y19.386
X-34.969 Y19.678
X-35.291 Y19.944
X-35.635 Y20.182
X-36. Y20.389
X-36.382 Y20.563
X-36.777 Y20.704
X-37.185 Y20.81
X-37.6 Y20.881
X-38.021 Y20.915
X-38.444 Y20.913
X-38.866 Y20.874
X-39.283 Y20.798
X-39.693 Y20.686
X-39.894 Y20.617
X-40.287 Y20.452
X-40.665 Y20.254
X-41.024 Y20.023
X-41.362 Y19.761
X-41.677 Y19.471
X-41.966 Y19.154
X-42.226 Y18.813
X-42.456 Y18.45
X-42.654 Y18.068
X-42.818 Y17.67
X-42.947 Y17.258
X-43.04 Y16.837
X-43.096 Y16.408
X-43.115 Y15.977
X-43.096 Y15.544
X-43.04 Y15.115
X-42.946 Y14.692
X-42.816 Y14.279
X-42.65 Y13.878
X-42.45 Y13.493
X-42.218 Y13.126
X-41.954 Y12.781
X-41.66 Y12.46
X-41.34 Y12.165
X-40.995 Y11.898
X-40.627 Y11.663
X-40.24 Y11.46
X-39.837 Y11.291
X-39.419 Y11.157
X-38.991 Y11.06
X-38.555 Y11.001
X-38.115 Y10.98
X-37.674 Y10.997
X-37.235 Y11.052
X-36.802 Y11.146
X-36.379 Y11.276
X-35.967 Y11.444
X-35.571 Y11.647
X-35.193 Y11.884
X-34.838 Y12.153
X-34.506 Y12.452
X-34.201 Y12.78
X-33.926 Y13.133
X-33.682 Y13.509
X-33.471 Y13.905
X-33.296 Y14.318
X-33.157 Y14.745
X-33.056 Y15.183
X-32.993 Y15.628
X-32.968 Y16.078
X-32.983 Y16.528
X-33.038 Y16.975
X-33.13 Y17.417
X-33.261 Y17.849
X-33.429 Y18.268
X-33.633 Y18.671
X-33.872 Y19.056
X-34.143 Y19.419
X-34.445 Y19.757
X-34.776 Y20.068
X-35.133 Y20.35
X-35.514 Y20.599
X-35.915 Y20.815
X-36.334 Y20.996
X-36.768 Y21.14
X-37.213 Y21.245
X-37.667 Y21.312
X-38.125 Y21.339
X-38.584 Y21.326
X-38.813 Y21.304
X-39.042 Y21.273
X-39.268 Y21.232
X-39.493 Y21.181
X-39.716 Y21.12
X-39.936 Y21.049
X-40.153 Y20.969
X-40.366 Y20.879
X-40.575 Y20.78
X-40.78 Y20.672
X-40.98 Y20.556
X-41.175 Y20.43
X-41.365 Y20.296
X-41.548 Y20.154
X-41.726 Y20.004
X-41.896 Y19.847
X-42.06 Y19.681
X-42.217 Y19.509
X-42.366 Y19.33
X-42.507 Y19.145
X-42.64 Y18.954
X-42.765 Y18.757
X-42.881 Y18.554
X-42.988 Y18.347
X-43.087 Y18.135
X-43.176 Y17.919
X-43.255 Y17.699
X-43.325 Y17.475
X-43.385 Y17.249
X-43.435 Y17.02
X-43.476 Y16.79
X-43.506 Y16.557
X-43.526 Y16.324
X-43.536 Y16.089
Y15.855
X-43.525 Y15.62
X-43.505 Y15.386
X-43.474 Y15.154
X-43.433 Y14.922
X-43.382 Y14.693
X-43.321 Y14.466
X-43.25 Y14.242
X-43.17 Y14.021
X-43.08 Y13.803
X-42.981 Y13.59
X-42.872 Y13.381
X-42.755 Y13.177
X-42.628 Y12.978
X-42.493 Y12.785
X-42.35 Y12.598
X-42.198 Y12.417
X-42.039 Y12.243
X-41.873 Y12.076
X-41.699 Y11.916
X-41.518 Y11.763
X-41.331 Y11.619
X-41.137 Y11.483
X-40.938 Y11.355
X-40.733 Y11.236
X-40.523 Y11.126
X-40.308 Y11.025
X-40.089 Y10.934
X-39.866 Y10.852
X-39.64 Y10.78
X-39.41 Y10.718
X-39.178 Y10.665
X-38.944 Y10.623
X-38.707 Y10.591
X-38.47 Y10.569
X-38.231 Y10.558
X-37.992 Y10.557
X-37.753 Y10.566
X-37.515 Y10.586
X-37.277 Y10.616
X-37.041 Y10.657
X-36.806 Y10.708
X-36.574 Y10.768
X-36.345 Y10.84
X-36.118 Y10.921
X-35.895 Y11.011
X-35.677 Y11.112
X-35.462 Y11.222
X-35.253 Y11.341
X-35.048 Y11.47
X-34.85 Y11.607
X-34.657 Y11.753
X-34.471 Y11.907
X-34.291 Y12.069
X-34.119 Y12.239
X-33.954 Y12.416
X-33.797 Y12.601
X-33.648 Y12.792
X-33.508 Y12.99
X-33.376 Y13.193
X-33.253 Y13.402
X-33.139 Y13.617
X-33.035 Y13.836
X-32.94 Y14.06
X-32.855 Y14.288
X-32.78 Y14.519
X-32.715 Y14.753
X-32.66 Y14.99
X-32.616 Y15.229
X-32.582 Y15.47
X-32.558 Y15.713
X-32.546 Y15.956
X-32.543 Y16.2
X-32.552 Y16.443
X-32.57 Y16.686
X-32.6 Y16.929
X-32.64 Y17.169
X-32.69 Y17.408
X-32.751 Y17.645
X-32.822 Y17.878
X-32.903 Y18.109
X-32.994 Y18.336
X-33.095 Y18.558
X-33.206 Y18.777
X-33.326 Y18.99
X-33.455 Y19.198
X-33.593 Y19.4
X-33.74 Y19.596
X-33.895 Y19.786
X-34.059 Y19.969
X-34.23 Y20.145
X-34.41 Y20.313
X-34.596 Y20.473
X-34.789 Y20.625
X-34.989 Y20.769
X-35.195 Y20.904
X-35.406 Y21.03
X-35.624 Y21.146
X-35.846 Y21.254
X-36.072 Y21.351
X-36.303 Y21.439
X-36.538 Y21.516
X-36.776 Y21.584
X-37.017 Y21.64
X-37.26 Y21.687
X-37.505 Y21.723
X-37.752 Y21.748
X-37.999 Y21.762
X-38.248 Y21.766
X-38.496 Y21.759
X-38.744 Y21.741
X-38.991 Y21.712
X-39.237 Y21.673
X-39.481 Y21.623
X-39.723 Y21.562
X-39.962 Y21.491
X-40.198 Y21.409
X-40.43 Y21.317
X-40.658 Y21.215
X-40.882 Y21.103
X-41.101 Y20.982
X-41.314 Y20.851
X-41.522 Y20.711
X-41.723 Y20.561
X-41.918 Y20.403
X-42.106 Y20.237
X-42.286 Y20.063
X-42.459 Y19.88
X-42.624 Y19.691
X-42.781 Y19.494
X-42.929 Y19.29
X-43.068 Y19.081
X-43.198 Y18.865
X-43.318 Y18.643
X-43.429 Y18.417
X-43.53 Y18.186
X-43.621 Y17.95
X-43.701 Y17.711
X-43.771 Y17.468
X-43.831 Y17.222
X-43.88 Y16.974
X-43.918 Y16.724
X-43.945 Y16.473
X-43.961 Y16.22
X-43.966 Y15.967
X-43.96 Y15.714
X-43.943 Y15.461
X-43.915 Y15.209
X-43.876 Y14.959
X-43.826 Y14.71
X-43.766 Y14.464
X-43.695 Y14.22
X-43.613 Y13.98
X-43.521 Y13.743
X-43.418 Y13.511
X-43.306 Y13.283
X-43.184 Y13.06
X-43.052 Y12.843
X-42.911 Y12.631
X-42.76 Y12.426
X-42.601 Y12.228
X-42.433 Y12.036
X-42.257 Y11.852
X-42.073 Y11.675
X-41.882 Y11.507
X-41.683 Y11.347
X-41.477 Y11.196
X-41.265 Y11.054
X-41.047 Y10.921
X-40.823 Y10.797
X-40.594 Y10.684
X-40.36 Y10.58
X-40.121 Y10.487
X-39.879 Y10.404
X-39.633 Y10.332
X-39.384 Y10.27
X-39.132 Y10.219
X-38.878 Y10.179
X-38.622 Y10.15
X-38.366 Y10.133
X-38.108 Y10.126
X-37.85 Y10.131
X-37.593 Y10.147
X-37.336 Y10.174
X-37.081 Y10.212
X-36.827 Y10.261
X-36.575 Y10.322
X-36.326 Y10.393
X-36.081 Y10.475
X-35.839 Y10.568
X-35.601 Y10.671
X-35.367 Y10.785
X-35.139 Y10.909
X-34.916 Y11.043
X-34.699 Y11.186
X-34.488 Y11.339
X-34.284 Y11.5
X-34.087 Y11.671
X-33.898 Y11.85
X-33.717 Y12.037
X-33.543 Y12.232
X-33.379 Y12.435
X-33.223 Y12.644
X-33.076 Y12.86
X-32.939 Y13.083
X-32.812 Y13.311
X-32.694 Y13.545
X-32.587 Y13.784
X-32.49 Y14.027
X-32.404 Y14.274
X-32.329 Y14.525
X-32.265 Y14.779
X-32.212 Y15.036
X-32.17 Y15.294
X-32.139 Y15.555
X-32.119 Y15.816
X-32.111 Y16.079
X-32.115 Y16.341
X-32.13 Y16.603
X-32.156 Y16.864
X-32.193 Y17.124
X-32.242 Y17.383
X-32.302 Y17.639
X-32.373 Y17.892
X-32.456 Y18.142
X-32.548 Y18.388
X-32.652 Y18.63
X-32.766 Y18.868
X-32.89 Y19.1
X-33.025 Y19.327
X-33.169 Y19.548
X-33.323 Y19.762
X-33.486 Y19.97
X-33.657 Y20.17
X-33.838 Y20.363
X-34.027 Y20.548
X-34.224 Y20.725
X-34.428 Y20.893
X-34.64 Y21.052
X-34.858 Y21.202
X-35.083 Y21.342
X-35.314 Y21.473
X-35.551 Y21.593
X-35.792 Y21.703
X-36.039 Y21.803
X-36.289 Y21.891
X-36.544 Y21.969
X-36.802 Y22.036
X-37.062 Y22.091
X-37.325 Y22.135
X-37.59 Y22.168
X-37.856 Y22.189
X-38.123 Y22.199
X-38.39 Y22.197
X-38.657 Y22.183
X-38.923 Y22.158
X-39.188 Y22.121
X-39.452 Y22.073
X-39.713 Y22.013
X-39.972 Y21.942
X-40.227 Y21.859
X-40.479 Y21.766
X-40.726 Y21.661
X-40.969 Y21.546
X-41.207 Y21.42
X-41.44 Y21.284
X-41.666 Y21.138
X-41.886 Y20.983
X-42.099 Y20.817
X-42.304 Y20.643
X-42.502 Y20.459
X-42.692 Y20.268
X-42.874 Y20.067
X-43.047 Y19.86
X-43.21 Y19.644
X-43.365 Y19.422
X-43.509 Y19.193
X-43.644 Y18.958
X-43.768 Y18.717
X-43.881 Y18.471
X-43.984 Y18.22
X-44.076 Y17.964
X-44.157 Y17.705
X-44.226 Y17.443
X-44.284 Y17.177
X-44.331 Y16.91
X-44.365 Y16.64
X-44.388 Y16.369
X-44.399 Y16.097
Y15.825
X-44.386 Y15.553
X-44.362 Y15.282
X-44.326 Y15.012
X-44.278 Y14.744
X-44.219 Y14.478
X-44.148 Y14.215
X-44.065 Y13.955
X-43.972 Y13.699
X-43.867 Y13.447
X-43.752 Y13.199
X-43.625 Y12.957
X-43.489 Y12.721
X-43.342 Y12.49
X-43.185 Y12.267
X-43.018 Y12.05
X-42.842 Y11.84
X-42.658 Y11.638
X-42.464 Y11.445
X-42.262 Y11.26
X-42.052 Y11.084
X-41.835 Y10.916
X-41.61 Y10.759
X-41.379 Y10.611
X-41.141 Y10.474
X-40.898 Y10.347
X-40.649 Y10.23
X-40.395 Y10.124
X-40.136 Y10.03
X-39.874 Y9.947
X-39.608 Y9.875
X-39.339 Y9.814
X-39.067 Y9.766
X-38.794 Y9.729
X-38.518 Y9.704
X-38.242 Y9.692
X-37.966 Y9.691
X-37.689 Y9.702
X-37.413 Y9.725
X-37.138 Y9.761
X-36.865 Y9.808
X-36.593 Y9.867
X-36.325 Y9.938
X-36.059 Y10.02
X-35.798 Y10.115
X-35.54 Y10.22
X-35.287 Y10.337
X-35.039 Y10.464
X-34.797 Y10.602
X-34.561 Y10.751
X-34.332 Y10.91
X-34.109 Y11.079
X-33.894 Y11.258
X-33.687 Y11.445
X-33.489 Y11.642
X-33.298 Y11.847
X-33.117 Y12.061
X-32.945 Y12.282
X-32.783 Y12.51
X-32.631 Y12.746
X-32.49 Y12.988
X-32.358 Y13.236
X-32.238 Y13.489
X-32.129 Y13.748
X-32.031 Y14.011
X-31.945 Y14.278
X-31.87 Y14.549
X-31.807 Y14.823
X-31.756 Y15.099
X-31.717 Y15.378
X-31.691 Y15.658
X-31.676 Y15.939
X-31.674 Y16.22
X-31.692 Y16.592
X-31.729 Y16.894
X-31.745 Y17.029
X-31.754 Y17.103
X-31.808 Y17.411
X-31.874 Y17.696
X-31.89 Y17.744
G3 X-32.463 Y17.571 R0.3
G1 X-32.347 Y17.016
G3 X-31.754 Y17.103 R0.3
G1 X-31.805 Y17.5
X-32.166 Y18.509
X-32.3 Y18.872
X-33.079 Y20.086
X-34.099 Y21.093
X-35.314 Y21.85
X-35.53 Y21.931
X-36.708 Y22.334
X-38.155 Y22.488
X-39.568 Y22.324
X-40.947 Y21.838
X-42.169 Y21.067
X-43.202 Y20.031
X-43.964 Y18.812
X-44.446 Y17.433
X-44.613 Y15.952
X-44.413 Y14.43
X-43.908 Y13.072
X-43.117 Y11.864
X-42.084 Y10.865
X-40.846 Y10.114
X-39.467 Y9.653
X-38.02 Y9.513
X-36.607 Y9.69
X-35.228 Y10.191
X-34.019 Y10.971
X-32.999 Y12.014
X-32.237 Y13.26
X-31.781 Y14.606
X-31.639 Y15.952
X-31.631 Y16.087
X-31.692 Y16.592
X-31.705 Y16.626 Z-4.994
X-31.716 Y16.657 Z-4.977
X-31.725 Y16.681 Z-4.951
X-31.731 Y16.696 Z-4.918
X-31.733 Y16.702 Z-4.882
G0 Z5.
X-53.426 Y39.872
Z0.845
G1 Z0.545 F466.
G3 X-54.598 Y40.128 Z0.413 R0.6
X-53.426 Y39.872 Z0.281 R0.6
X-54.598 Y40.128 Z0.15 R0.6
X-53.426 Y39.872 Z0.018 R0.6
X-54.598 Y40.128 Z-0.114 R0.6
X-53.426 Y39.872 Z-0.246 R0.6
X-54.598 Y40.128 Z-0.378 R0.6
X-53.426 Y39.872 Z-0.509 R0.6
X-54.598 Y40.128 Z-0.641 R0.6
X-53.426 Y39.872 Z-0.773 R0.6
X-54.598 Y40.128 Z-0.905 R0.6
X-53.426 Y39.872 Z-1.037 R0.6
X-54.598 Y40.128 Z-1.169 R0.6
X-53.426 Y39.872 Z-1.3 R0.6
X-54.598 Y40.128 Z-1.432 R0.6
X-53.426 Y39.872 Z-1.564 R0.6
X-54.598 Y40.128 Z-1.696 R0.6
X-53.426 Y39.872 Z-1.828 R0.6
X-54.598 Y40.128 Z-1.959 R0.6
X-53.426 Y39.872 Z-2.091 R0.6
X-54.598 Y40.128 Z-2.223 R0.6
X-53.426 Y39.872 Z-2.355 R0.6
X-54.598 Y40.128 Z-2.487 R0.6
X-53.426 Y39.872 Z-2.618 R0.6
X-54.598 Y40.128 Z-2.75 R0.6
X-53.426 Y39.872 Z-2.882 R0.6
X-54.598 Y40.128 Z-3.014 R0.6
X-53.426 Y39.872 Z-3.146 R0.6
X-54.598 Y40.128 Z-3.277 R0.6
X-53.426 Y39.872 Z-3.409 R0.6
X-54.598 Y40.128 Z-3.541 R0.6
X-53.426 Y39.872 Z-3.673 R0.6
X-54.598 Y40.128 Z-3.805 R0.6
X-53.426 Y39.872 Z-3.937 R0.6
X-54.598 Y40.128 Z-4.068 R0.6
X-53.426 Y39.872 Z-4.2 R0.6
X-54.598 Y40.128 Z-4.332 R0.6
X-53.426 Y39.872 Z-4.464 R0.6
X-54.598 Y40.128 Z-4.596 R0.6
X-53.426 Y39.872 Z-4.727 R0.6
X-54.598 Y40.128 Z-4.859 R0.6
X-54.077 Y39.403 Z-4.93 R0.6
X-53.412 Y40. Z-5. R0.6
X-54.612 R0.6
X-53.412 R0.6
G1 X-53.397 Y40.356
X-53.445 Y40.482
X-53.525 Y40.591
X-53.627 Y40.679
X-53.745 Y40.745
X-53.873 Y40.787
X-54.007 Y40.805
X-54.142 Y40.798
X-54.274 Y40.769
X-54.398 Y40.717
X-54.512 Y40.644
X-54.613 Y40.554
X-54.697 Y40.448
X-54.762 Y40.33
X-54.806 Y40.203
X-54.829 Y40.07
X-54.83 Y39.935
X-54.808 Y39.801
X-54.765 Y39.673
X-54.702 Y39.554
X-54.619 Y39.447
X-54.521 Y39.355
X-54.408 Y39.28
X-54.285 Y39.225
X-54.154 Y39.191
X-54.02 Y39.179
X-53.885 Y39.188
X-53.754 Y39.22
X-53.63 Y39.273
X-53.516 Y39.345
X-53.415 Y39.436
X-53.331 Y39.541
X-53.264 Y39.658
X-53.21 Y39.782
X-53.167 Y39.91
X-53.14 Y40.042
X-53.133 Y40.177
X-53.147 Y40.311
X-53.18 Y40.442
X-53.234 Y40.566
X-53.307 Y40.679
X-53.397 Y40.78
X-53.501 Y40.866
X-53.616 Y40.937
X-53.74 Y40.99
X-53.871 Y41.024
X-54.005 Y41.039
X-54.14 Y41.037
X-54.273 Y41.017
X-54.403 Y40.978
X-54.526 Y40.923
X-54.641 Y40.852
X-54.746 Y40.767
X-54.838 Y40.669
X-54.917 Y40.559
X-54.982 Y40.44
X-55.031 Y40.315
X-55.063 Y40.184
X-55.079 Y40.05
X-55.077 Y39.915
X-55.058 Y39.781
X-55.023 Y39.651
X-54.971 Y39.526
X-54.904 Y39.409
X-54.822 Y39.301
X-54.728 Y39.204
X-54.622 Y39.12
X-54.507 Y39.051
X-54.383 Y38.996
X-54.254 Y38.957
X-54.121 Y38.935
X-53.986 Y38.93
X-53.852 Y38.942
X-53.72 Y38.97
X-53.592 Y39.015
X-53.472 Y39.075
X-53.36 Y39.151
X-53.258 Y39.239
X-53.166 Y39.338
X-53.084 Y39.446
X-53.014 Y39.561
X-52.957 Y39.683
X-52.913 Y39.811
X-52.884 Y39.943
X-52.869 Y40.077
X-52.871 Y40.221
X-52.915 Y40.423
X-52.994 Y40.614
X-53.106 Y40.789
X-53.134 Y40.826
X-53.228 Y40.928
X-53.598 Y41.142
X-53.699 Y41.167
X-54.069 Y41.215
X-54.507 Y41.111
X-54.691 Y40.99
X-54.876 Y40.856
X-54.91 Y40.819
X-55.126 Y40.486
X-55.16 Y40.385
X-55.243 Y39.947
X-55.235 Y39.846
X-55.055 Y39.375
X-54.82 Y39.106
X-54.743 Y39.027
X-54.507 Y38.906
X-54.358 Y38.836
X-54.298 Y38.819
X-53.867 Y38.793
X-53.565 Y38.884
X-53.401 Y38.949
X-53.161 Y39.149
X-53.043 Y39.269
X-52.85 Y39.644
X-52.815 Y39.913
X-52.8 Y40.082
X-52.817 Y40.183
X-52.915 Y40.519
X-52.95 Y40.586
X-53.106 Y40.789
X-53.134 Y40.812 Z-4.994
X-53.159 Y40.832 Z-4.977
X-53.179 Y40.849 Z-4.951
X-53.192 Y40.859 Z-4.918
X-53.197 Y40.863 Z-4.882
G0 Z5.
X0.574 Y42.722
Z0.845
G1 Z0.545 F466.
G3 X-0.598 Y42.978 Z0.413 R0.6
X0.574 Y42.722 Z0.281 R0.6
X-0.598 Y42.978 Z0.15 R0.6
X0.574 Y42.722 Z0.018 R0.6
X-0.598 Y42.978 Z-0.114 R0.6
X0.574 Y42.722 Z-0.246 R0.6
X-0.598 Y42.978 Z-0.378 R0.6
X0.574 Y42.722 Z-0.509 R0.6
X-0.598 Y42.978 Z-0.641 R0.6
X0.574 Y42.722 Z-0.773 R0.6
X-0.598 Y42.978 Z-0.905 R0.6
X0.574 Y42.722 Z-1.037 R0.6
X-0.598 Y42.978 Z-1.169 R0.6
X0.574 Y42.722 Z-1.3 R0.6
X-0.598 Y42.978 Z-1.432 R0.6
X0.574 Y42.722 Z-1.564 R0.6
X-0.598 Y42.978 Z-1.696 R0.6
X0.574 Y42.722 Z-1.828 R0.6
X-0.598 Y42.978 Z-1.959 R0.6
X0.574 Y42.722 Z-2.091 R0.6
X-0.598 Y42.978 Z-2.223 R0.6
X0.574 Y42.722 Z-2.355 R0.6
X-0.598 Y42.978 Z-2.487 R0.6
X0.574 Y42.722 Z-2.618 R0.6
X-0.598 Y42.978 Z-2.75 R0.6
X0.574 Y42.722 Z-2.882 R0.6
X-0.598 Y42.978 Z-3.014 R0.6
X0.574 Y42.722 Z-3.146 R0.6
X-0.598 Y42.978 Z-3.277 R0.6
X0.574 Y42.722 Z-3.409 R0.6
X-0.598 Y42.978 Z-3.541 R0.6
X0.574 Y42.722 Z-3.673 R0.6
X-0.598 Y42.978 Z-3.805 R0.6
X0.574 Y42.722 Z-3.937 R0.6
X-0.598 Y42.978 Z-4.068 R0.6
X0.574 Y42.722 Z-4.2 R0.6
X-0.598 Y42.978 Z-4.332 R0.6
X0.574 Y42.722 Z-4.464 R0.6
X-0.598 Y42.978 Z-4.596 R0.6
X0.574 Y42.722 Z-4.727 R0.6
X-0.598 Y42.978 Z-4.859 R0.6
X-0.076 Y42.254 Z-4.93 R0.6
X0.588 Y42.85 Z-5. R0.6
X-0.612 R0.6
X0.588 R0.6
G1 X0.604 Y43.206
X0.555 Y43.332
X0.475 Y43.441
X0.373 Y43.53
X0.256 Y43.595
X0.127 Y43.637
X-0.007 Y43.655
X-0.141 Y43.649
X-0.273 Y43.619
X-0.398 Y43.567
X-0.512 Y43.495
X-0.612 Y43.405
X-0.696 Y43.299
X-0.761 Y43.181
X-0.806 Y43.053
X-0.829 Y42.92
Y42.785
X-0.808 Y42.652
X-0.765 Y42.524
X-0.701 Y42.405
X-0.619 Y42.298
X-0.52 Y42.206
X-0.408 Y42.131
X-0.285 Y42.076
X-0.154 Y42.042
X-0.019 Y42.029
X0.115 Y42.039
X0.246 Y42.071
X0.371 Y42.124
X0.485 Y42.196
X0.585 Y42.286
X0.669 Y42.392
X0.736 Y42.509
X0.791 Y42.632
X0.834 Y42.76
X0.86 Y42.893
X0.868 Y43.027
X0.854 Y43.162
X0.82 Y43.293
X0.766 Y43.416
X0.693 Y43.53
X0.603 Y43.63
X0.5 Y43.717
X0.384 Y43.787
X0.26 Y43.84
X0.13 Y43.874
X-0.005 Y43.89
X-0.139 Y43.888
X-0.273 Y43.867
X-0.402 Y43.829
X-0.525 Y43.773
X-0.64 Y43.702
X-0.745 Y43.617
X-0.838 Y43.519
X-0.917 Y43.41
X-0.981 Y43.291
X-1.03 Y43.165
X-1.063 Y43.034
X-1.078 Y42.9
X-1.076 Y42.765
X-1.058 Y42.631
X-1.022 Y42.501
X-0.971 Y42.376
X-0.903 Y42.26
X-0.822 Y42.152
X-0.728 Y42.055
X-0.622 Y41.971
X-0.506 Y41.901
X-0.383 Y41.847
X-0.254 Y41.808
X-0.12 Y41.785
X0.014 Y41.78
X0.149 Y41.792
X0.281 Y41.821
X0.408 Y41.865
X0.529 Y41.926
X0.641 Y42.002
X0.743 Y42.09
X0.835 Y42.189
X0.916 Y42.296
X0.986 Y42.412
X1.044 Y42.534
X1.087 Y42.662
X1.117 Y42.793
X1.132 Y42.928
X1.131 Y43.063
X1.114 Y43.197
X1.082 Y43.328
X1.035 Y43.454
X0.973 Y43.574
X0.898 Y43.686
X0.81 Y43.789
X0.711 Y43.881
X0.602 Y43.961
X0.485 Y44.028
X0.361 Y44.081
X0.232 Y44.12
X0.099 Y44.145
X-0.035 Y44.156
X-0.17 Y44.152
X-0.304 Y44.133
X-0.435 Y44.1
X-0.561 Y44.054
X-0.683 Y43.994
X-0.797 Y43.923
X-0.903 Y43.839
X-1. Y43.745
X-1.087 Y43.641
X-1.163 Y43.53
X-1.227 Y43.411
X-1.278 Y43.286
X-1.316 Y43.157
X-1.341 Y43.024
X-1.353 Y42.89
X-1.351 Y42.755
X-1.335 Y42.62
X-1.306 Y42.489
X-1.263 Y42.361
X-1.208 Y42.237
X-1.141 Y42.12
X-1.062 Y42.01
X-0.973 Y41.909
X-0.874 Y41.818
X-0.766 Y41.736
X-0.651 Y41.666
X-0.529 Y41.608
X-0.402 Y41.562
X-0.271 Y41.529
X-0.138 Y41.51
X-0.003 Y41.504
X0.132 Y41.512
X0.265 Y41.533
X0.396 Y41.567
X0.523 Y41.614
X0.644 Y41.673
X0.759 Y41.743
X0.868 Y41.824
X0.968 Y41.914
X1.061 Y42.012
X1.144 Y42.119
X1.217 Y42.232
X1.28 Y42.351
X1.331 Y42.476
X1.372 Y42.605
X1.4 Y42.737
X1.417 Y42.871
X1.42 Y43.006
X1.411 Y43.141
X1.39 Y43.274
X1.357 Y43.405
X1.312 Y43.532
X1.255 Y43.654
X1.186 Y43.771
X1.108 Y43.881
X1.02 Y43.983
X0.922 Y44.076
X0.817 Y44.16
X0.704 Y44.234
X0.585 Y44.298
X0.46 Y44.351
X0.332 Y44.392
X0.2 Y44.422
X0.067 Y44.44
X-0.068 Y44.446
X-0.203 Y44.44
X-0.337 Y44.423
X-0.469 Y44.394
X-0.598 Y44.354
X-0.723 Y44.302
X-0.843 Y44.24
X-0.957 Y44.169
X-1.065 Y44.088
X-1.166 Y43.998
X-1.258 Y43.9
X-1.342 Y43.794
X-1.417 Y43.681
X-1.482 Y43.563
X-1.537 Y43.44
X-1.582 Y43.312
X-1.615 Y43.182
X-1.638 Y43.049
X-1.65 Y42.914
Y42.779
X-1.64 Y42.645
X-1.618 Y42.511
X-1.585 Y42.38
X-1.541 Y42.253
X-1.488 Y42.129
X-1.424 Y42.01
X-1.35 Y41.897
X-1.268 Y41.79
X-1.177 Y41.69
X-1.078 Y41.598
X-0.972 Y41.515
X-0.859 Y41.44
X-0.741 Y41.376
X-0.617 Y41.321
X-0.49 Y41.276
X-0.359 Y41.242
X-0.226 Y41.219
X-0.092 Y41.206
X0.043 Y41.205
X0.178 Y41.215
X0.311 Y41.236
X0.443 Y41.267
X0.571 Y41.309
X0.696 Y41.36
X0.816 Y41.422
X0.931 Y41.492
X1.041 Y41.571
X1.144 Y41.658
X1.241 Y41.752
X1.33 Y41.854
X1.411 Y41.962
X1.483 Y42.076
X1.602 Y42.318
X1.647 Y42.445
X1.683 Y42.575
X1.708 Y42.708
X1.724 Y42.842
X1.729 Y42.977
X1.724 Y43.112
X1.709 Y43.246
X1.683 Y43.378
X1.647 Y43.509
X1.601 Y43.636
X1.546 Y43.759
X1.482 Y43.878
X1.409 Y43.991
X1.328 Y44.099
X1.238 Y44.2
X1.037 Y44.38
X0.928 Y44.459
X0.812 Y44.529
X0.692 Y44.59
X0.567 Y44.642
X0.308 Y44.717
X0.041 Y44.754
X-0.094 Y44.758
X-0.363 Y44.735
X-0.626 Y44.675
X-0.877 Y44.577
X-1.112 Y44.444
X-1.326 Y44.279
X-1.514 Y44.086
X-1.674 Y43.868
X-1.801 Y43.63
X-1.894 Y43.377
X-1.95 Y43.113
X-1.97 Y42.844
X-1.952 Y42.575
X-1.897 Y42.311
X-1.805 Y42.057
X-1.68 Y41.818
X-1.523 Y41.598
X-1.338 Y41.402
X-1.127 Y41.234
X-0.895 Y41.096
X-0.647 Y40.991
X-0.386 Y40.921
X-0.118 Y40.888
X0.152 Y40.891
X0.419 Y40.93
X0.678 Y41.005
X0.925 Y41.113
X1.156 Y41.253
X1.367 Y41.421
X1.555 Y41.615
X1.716 Y41.831
X1.849 Y42.066
X1.95 Y42.316
X2.018 Y42.577
X2.052 Y42.845
Y43.115
X2.016 Y43.382
X1.947 Y43.643
X1.845 Y43.893
X1.712 Y44.128
X1.549 Y44.343
X1.361 Y44.537
X1.15 Y44.704
X0.919 Y44.844
X0.672 Y44.954
X0.414 Y45.031
X0.148 Y45.076
X-0.122 Y45.088
X-0.391 Y45.066
X-0.655 Y45.011
X-0.911 Y44.925
X-1.154 Y44.808
X-1.381 Y44.663
X-1.589 Y44.49
X-1.775 Y44.295
X-1.936 Y44.078
X-2.07 Y43.844
X-2.175 Y43.595
X-2.25 Y43.336
X-2.294 Y43.07
X-2.305 Y42.8
X-2.285 Y42.531
X-2.233 Y42.266
X-2.15 Y42.009
X-2.037 Y41.764
X-1.897 Y41.534
X-1.73 Y41.321
X-1.539 Y41.13
X-1.328 Y40.963
X-1.098 Y40.821
X-0.853 Y40.708
X-0.597 Y40.624
X-0.332 Y40.57
X-0.063 Y40.547
X0.207 Y40.556
X0.474 Y40.595
X0.734 Y40.665
X0.986 Y40.764
X1.224 Y40.89
X1.447 Y41.042
X1.652 Y41.218
X1.835 Y41.416
X1.996 Y41.632
X2.132 Y41.865
X2.242 Y42.112
X2.323 Y42.369
X2.376 Y42.634
X2.399 Y42.903
X2.392 Y43.173
X2.355 Y43.44
X2.289 Y43.702
X2.195 Y43.955
X2.073 Y44.196
X1.926 Y44.422
X1.755 Y44.631
X1.561 Y44.819
X1.349 Y44.985
X1.12 Y45.128
X0.876 Y45.244
X0.622 Y45.334
X0.359 Y45.396
X0.091 Y45.429
X-0.179 Y45.433
X-0.448 Y45.408
X-0.712 Y45.356
X-0.97 Y45.275
X-1.218 Y45.168
X-1.453 Y45.035
X-1.673 Y44.879
X-1.875 Y44.7
X-2.058 Y44.502
X-2.219 Y44.285
X-2.357 Y44.053
X-2.47 Y43.808
X-2.556 Y43.552
X-2.617 Y43.289
X-2.65 Y43.021
X-2.655 Y42.751
X-2.632 Y42.482
X-2.583 Y42.217
X-2.506 Y41.958
X-2.403 Y41.709
X-2.275 Y41.471
X-2.124 Y41.248
X-1.95 Y41.041
X-1.757 Y40.853
X-1.545 Y40.686
X-1.317 Y40.54
X-1.076 Y40.419
X-0.824 Y40.323
X-0.563 Y40.253
X-0.297 Y40.21
X-0.027 Y40.194
X0.242 Y40.204
X0.51 Y40.242
X0.772 Y40.305
X1.027 Y40.395
X1.271 Y40.509
X1.504 Y40.646
X1.722 Y40.805
X1.923 Y40.985
X2.106 Y41.183
X2.269 Y41.398
X2.411 Y41.628
X2.529 Y41.871
X2.624 Y42.123
X2.694 Y42.384
X2.738 Y42.65
X2.757 Y42.92
X2.749 Y43.189
X2.716 Y43.457
X2.657 Y43.721
X2.572 Y43.977
X2.464 Y44.224
X2.332 Y44.46
X2.179 Y44.682
X2.004 Y44.888
X1.811 Y45.077
X1.601 Y45.246
X1.376 Y45.395
X1.138 Y45.521
X0.888 Y45.625
X0.63 Y45.704
X0.366 Y45.759
X0.098 Y45.789
X-0.172 Y45.794
X-0.441 Y45.773
X-0.707 Y45.728
X-0.968 Y45.658
X-1.221 Y45.564
X-1.465 Y45.448
X-1.696 Y45.309
X-1.914 Y45.15
X-2.116 Y44.971
X-2.302 Y44.775
X-2.468 Y44.563
X-2.615 Y44.336
X-2.74 Y44.097
X-2.843 Y43.847
X-2.923 Y43.589
X-2.98 Y43.325
X-3.012 Y43.057
X-3.02 Y42.788
X-3.004 Y42.518
X-2.963 Y42.251
X-2.899 Y41.989
X-2.811 Y41.734
X-2.701 Y41.488
X-2.569 Y41.252
X-2.416 Y41.03
X-2.244 Y40.822
X-2.054 Y40.63
X-1.848 Y40.455
X-1.627 Y40.301
X-1.393 Y40.166
X-1.148 Y40.053
X-0.893 Y39.962
X-0.632 Y39.894
X-0.366 Y39.85
X-0.097 Y39.829
X0.173 Y39.832
X0.442 Y39.859
X0.707 Y39.909
X0.969 Y39.982
X1.223 Y40.078
X1.466 Y40.195
X1.699 Y40.333
X1.922 Y40.493
X2.13 Y40.672
X2.321 Y40.867
X2.494 Y41.077
X2.649 Y41.303
X2.784 Y41.544
X2.899 Y41.795
X2.99 Y42.053
X3.058 Y42.318
X3.104 Y42.589
X3.125 Y42.865
X3.123 Y43.142
X3.097 Y43.415
X3.047 Y43.685
X2.974 Y43.951
X2.877 Y44.211
X2.758 Y44.462
X2.618 Y44.701
X2.459 Y44.926
X2.279 Y45.137
X2.081 Y45.333
X1.866 Y45.512
X1.636 Y45.671
X1.393 Y45.81
X1.14 Y45.927
X0.876 Y46.021
X0.603 Y46.093
X0.324 Y46.142
X0.04 Y46.166
X-0.243 Y46.165
X-0.525 Y46.139
X-0.805 Y46.089
X-1.08 Y46.015
X-1.349 Y45.917
X-1.609 Y45.795
X-1.858 Y45.651
X-2.095 Y45.484
X-2.316 Y45.298
X-2.52 Y45.094
X-2.706 Y44.873
X-2.872 Y44.636
X-3.017 Y44.385
X-3.14 Y44.122
X-3.24 Y43.849
X-3.316 Y43.567
X-3.367 Y43.278
X-3.394 Y42.987
Y42.694
X-3.369 Y42.402
X-3.319 Y42.112
X-3.244 Y41.829
X-3.145 Y41.553
X-3.022 Y41.287
X-2.876 Y41.032
X-2.709 Y40.79
X-2.521 Y40.565
X-2.314 Y40.356
X-2.089 Y40.165
X-1.847 Y39.993
X-1.592 Y39.844
X-1.325 Y39.717
X-1.046 Y39.614
X-0.759 Y39.535
X-0.465 Y39.481
X-0.168 Y39.453
X0.131 Y39.451
X0.432 Y39.474
X0.729 Y39.524
X1.022 Y39.6
X1.307 Y39.701
X1.584 Y39.827
X1.85 Y39.977
X2.101 Y40.15
X2.337 Y40.344
X2.556 Y40.558
X2.756 Y40.791
X2.935 Y41.042
X3.092 Y41.306
X3.225 Y41.583
X3.333 Y41.871
X3.417 Y42.168
X3.474 Y42.471
X3.505 Y42.778
X3.509 Y43.086
X3.486 Y43.394
X3.436 Y43.699
X3.36 Y44.
X3.258 Y44.292
X3.132 Y44.575
X2.98 Y44.845
X2.806 Y45.102
X2.61 Y45.344
X2.392 Y45.568
X2.156 Y45.773
X1.903 Y45.956
X1.635 Y46.117
X1.353 Y46.254
X1.059 Y46.367
X0.756 Y46.454
X0.446 Y46.514
X0.131 Y46.547
X-0.186 Y46.553
X-0.502 Y46.531
X-0.816 Y46.482
X-1.126 Y46.405
X-1.428 Y46.301
X-1.722 Y46.172
X-2.003 Y46.016
X-2.27 Y45.837
X-2.521 Y45.636
X-2.754 Y45.412
X-2.966 Y45.17
X-3.157 Y44.909
X-3.325 Y44.632
X-3.469 Y44.341
X-3.587 Y44.038
X-3.678 Y43.726
X-3.742 Y43.407
X-3.778 Y43.082
X-3.785 Y42.756
X-3.765 Y42.43
X-3.716 Y42.106
X-3.639 Y41.789
X-3.534 Y41.479
X-3.403 Y41.179
X-3.247 Y40.891
X-3.066 Y40.618
X-2.862 Y40.361
X-2.635 Y40.123
X-2.389 Y39.905
X-2.125 Y39.709
X-1.844 Y39.537
X-1.548 Y39.389
X-1.24 Y39.267
X-0.922 Y39.173
X-0.597 Y39.106
X-0.266 Y39.067
X0.067 Y39.058
X0.401 Y39.077
X0.733 Y39.126
X1.06 Y39.203
X1.38 Y39.309
X1.691 Y39.443
X1.989 Y39.603
X2.272 Y39.789
X2.539 Y39.999
X2.787 Y40.232
X3.014 Y40.486
X3.219 Y40.759
X3.399 Y41.049
X3.553 Y41.353
X3.681 Y41.671
X3.78 Y41.998
X3.851 Y42.333
X3.892 Y42.673
X3.904 Y43.016
X3.886 Y43.359
X3.838 Y43.699
X3.76 Y44.033
X3.654 Y44.36
X3.52 Y44.677
X3.358 Y44.982
X3.171 Y45.271
X2.958 Y45.544
X2.723 Y45.797
X2.466 Y46.03
X2.189 Y46.239
X1.895 Y46.424
X1.585 Y46.583
X1.262 Y46.714
X0.928 Y46.818
X0.586 Y46.892
X0.239 Y46.936
X-0.112 Y46.95
X-0.464 Y46.933
X-0.813 Y46.885
X-1.158 Y46.808
X-1.495 Y46.7
X-1.822 Y46.563
X-2.137 Y46.399
X-2.437 Y46.207
X-2.719 Y45.989
X-2.982 Y45.748
X-3.222 Y45.484
X-3.44 Y45.2
X-3.632 Y44.898
X-3.798 Y44.579
X-3.935 Y44.247
X-4.043 Y43.904
X-4.121 Y43.552
X-4.168 Y43.195
X-4.185 Y42.834
X-4.169 Y42.473
X-4.123 Y42.115
X-4.045 Y41.762
X-3.937 Y41.417
X-3.799 Y41.082
X-3.633 Y40.761
X-3.439 Y40.454
X-3.219 Y40.166
X-2.974 Y39.897
X-2.707 Y39.651
X-2.42 Y39.428
X-2.113 Y39.231
X-1.79 Y39.06
X-1.453 Y38.919
X-1.104 Y38.807
X-0.746 Y38.726
X-0.382 Y38.675
X-0.014 Y38.657
X0.355 Y38.671
X0.722 Y38.717
X1.085 Y38.794
X1.44 Y38.904
X1.785 Y39.044
X2.118 Y39.213
X2.435 Y39.411
X2.734 Y39.637
X3.012 Y39.888
X3.268 Y40.162
X3.5 Y40.458
X3.705 Y40.773
X3.882 Y41.106
X4.03 Y41.452
X4.147 Y41.811
X4.232 Y42.178
X4.286 Y42.552
X4.307 Y42.929
X4.295 Y43.307
X4.25 Y43.683
X4.172 Y44.053
X4.063 Y44.416
X3.922 Y44.768
X3.751 Y45.107
X3.551 Y45.431
X3.324 Y45.736
X3.071 Y46.02
X2.793 Y46.282
X2.493 Y46.519
X2.174 Y46.729
X1.836 Y46.911
X1.484 Y47.064
X1.119 Y47.185
X0.745 Y47.274
X0.363 Y47.331
X-0.022 Y47.354
X-0.409 Y47.344
X-0.794 Y47.3
X-1.175 Y47.222
X-1.548 Y47.112
X-1.911 Y46.969
X-2.26 Y46.796
X-2.594 Y46.592
X-2.909 Y46.359
X-3.203 Y46.1
X-3.474 Y45.816
X-3.719 Y45.509
X-3.937 Y45.182
X-4.126 Y44.836
X-4.285 Y44.475
X-4.411 Y44.1
X-4.505 Y43.716
X-4.565 Y43.325
X-4.591 Y42.93
X-4.583 Y42.533
X-4.54 Y42.139
X-4.463 Y41.75
X-4.352 Y41.368
X-4.209 Y40.998
X-4.034 Y40.641
X-3.828 Y40.3
X-3.593 Y39.978
X-3.331 Y39.678
X-3.044 Y39.401
X-2.733 Y39.15
X-2.401 Y38.926
X-2.05 Y38.732
X-1.684 Y38.569
X-1.304 Y38.438
X-0.913 Y38.341
X-0.515 Y38.277
X-0.112 Y38.249
X0.293 Y38.255
X0.696 Y38.297
X1.095 Y38.374
X1.487 Y38.485
X1.868 Y38.631
X2.235 Y38.809
X2.587 Y39.018
X2.919 Y39.258
X3.23 Y39.526
X3.516 Y39.821
X3.777 Y40.139
X4.008 Y40.48
X4.21 Y40.839
X4.38 Y41.215
X4.516 Y41.604
X4.618 Y42.005
X4.685 Y42.412
X4.717 Y42.825
X4.712 Y43.239
X4.672 Y43.651
X4.596 Y44.058
X4.484 Y44.458
X4.338 Y44.847
X4.159 Y45.221
X3.948 Y45.58
X3.706 Y45.919
X3.436 Y46.236
X3.138 Y46.528
X2.816 Y46.794
X2.471 Y47.032
X2.107 Y47.239
X1.725 Y47.413
X1.329 Y47.554
X0.922 Y47.661
X0.506 Y47.731
X0.085 Y47.766
X-0.337 Y47.763
X-0.759 Y47.724
X-1.177 Y47.648
X-1.587 Y47.536
X-1.788 Y47.467
X-2.181 Y47.302
X-2.558 Y47.104
X-2.917 Y46.873
X-3.256 Y46.612
X-3.57 Y46.321
X-3.859 Y46.004
X-4.12 Y45.663
X-4.35 Y45.3
X-4.548 Y44.918
X-4.712 Y44.52
X-4.841 Y44.108
X-4.934 Y43.687
X-4.99 Y43.259
X-5.008 Y42.827
X-4.989 Y42.394
X-4.933 Y41.965
X-4.839 Y41.542
X-4.709 Y41.129
X-4.544 Y40.728
X-4.344 Y40.343
X-4.111 Y39.976
X-3.847 Y39.631
X-3.554 Y39.31
X-3.233 Y39.015
X-2.888 Y38.748
X-2.521 Y38.513
X-2.134 Y38.31
X-1.73 Y38.141
X-1.312 Y38.007
X-0.884 Y37.91
X-0.448 Y37.851
X-0.008 Y37.83
X0.433 Y37.847
X0.871 Y37.902
X1.304 Y37.996
X1.728 Y38.127
X2.14 Y38.294
X2.536 Y38.497
X2.913 Y38.734
X3.269 Y39.003
X3.601 Y39.302
X3.905 Y39.63
X4.181 Y39.983
X4.425 Y40.359
X4.635 Y40.755
X4.811 Y41.168
X4.949 Y41.595
X5.051 Y42.033
X5.114 Y42.478
X5.138 Y42.928
X5.123 Y43.378
X5.069 Y43.825
X4.976 Y44.267
X4.845 Y44.699
X4.677 Y45.118
X4.473 Y45.522
X4.235 Y45.906
X3.963 Y46.269
X3.661 Y46.607
X3.33 Y46.918
X2.973 Y47.2
X2.593 Y47.449
X2.192 Y47.665
X1.772 Y47.846
X1.339 Y47.99
X0.893 Y48.095
X0.44 Y48.162
X-0.018 Y48.189
X-0.478 Y48.176
X-0.707 Y48.155
X-0.935 Y48.123
X-1.162 Y48.082
X-1.387 Y48.031
X-1.609 Y47.97
X-1.829 Y47.899
X-2.046 Y47.819
X-2.259 Y47.729
X-2.469 Y47.63
X-2.673 Y47.523
X-2.874 Y47.406
X-3.069 Y47.28
X-3.258 Y47.146
X-3.442 Y47.004
X-3.619 Y46.854
X-3.79 Y46.697
X-3.954 Y46.532
X-4.11 Y46.359
X-4.259 Y46.181
X-4.401 Y45.995
X-4.534 Y45.804
X-4.659 Y45.607
X-4.775 Y45.404
X-4.882 Y45.197
X-4.98 Y44.985
X-5.069 Y44.769
X-5.149 Y44.549
X-5.218 Y44.325
X-5.279 Y44.099
X-5.329 Y43.871
X-5.369 Y43.64
X-5.399 Y43.407
X-5.42 Y43.174
X-5.43 Y42.939
X-5.429 Y42.705
X-5.419 Y42.47
X-5.398 Y42.237
X-5.367 Y42.004
X-5.326 Y41.772
X-5.276 Y41.543
X-5.215 Y41.316
X-5.144 Y41.092
X-5.064 Y40.871
X-4.974 Y40.653
X-4.874 Y40.44
X-4.766 Y40.231
X-4.648 Y40.027
X-4.522 Y39.828
X-4.387 Y39.635
X-4.243 Y39.448
X-4.092 Y39.267
X-3.933 Y39.093
X-3.766 Y38.926
X-3.592 Y38.766
X-3.411 Y38.613
X-3.224 Y38.469
X-3.031 Y38.333
X-2.831 Y38.205
X-2.626 Y38.086
X-2.416 Y37.976
X-2.202 Y37.876
X-1.983 Y37.784
X-1.76 Y37.702
X-1.533 Y37.63
X-1.304 Y37.568
X-1.071 Y37.515
X-0.837 Y37.473
X-0.601 Y37.441
X-0.363 Y37.419
X-0.125 Y37.408
X0.114 Y37.407
X0.353 Y37.416
X0.592 Y37.436
X0.829 Y37.466
X1.066 Y37.507
X1.3 Y37.558
X1.532 Y37.619
X1.762 Y37.69
X1.988 Y37.771
X2.211 Y37.862
X2.43 Y37.962
X2.644 Y38.072
X2.854 Y38.191
X3.058 Y38.32
X3.257 Y38.457
X3.449 Y38.603
X3.636 Y38.757
X3.815 Y38.919
X3.987 Y39.089
X4.152 Y39.267
X4.309 Y39.451
X4.458 Y39.642
X4.599 Y39.84
X4.731 Y40.043
X4.854 Y40.253
X4.967 Y40.467
X5.072 Y40.686
X5.166 Y40.91
X5.251 Y41.138
X5.327 Y41.369
X5.392 Y41.603
X5.446 Y41.84
X5.491 Y42.08
X5.525 Y42.321
X5.548 Y42.563
X5.561 Y42.806
X5.563 Y43.05
X5.555 Y43.293
X5.536 Y43.536
X5.507 Y43.779
X5.467 Y44.019
X5.416 Y44.258
X5.356 Y44.495
X5.285 Y44.728
X5.203 Y44.959
X5.112 Y45.186
X5.011 Y45.408
X4.901 Y45.627
X4.781 Y45.84
X4.652 Y46.048
X4.513 Y46.25
X4.366 Y46.446
X4.211 Y46.636
X4.048 Y46.819
X3.876 Y46.995
X3.697 Y47.163
X3.511 Y47.323
X3.317 Y47.475
X3.118 Y47.619
X2.912 Y47.754
X2.7 Y47.88
X2.483 Y47.997
X2.261 Y48.104
X2.034 Y48.201
X1.803 Y48.289
X1.569 Y48.366
X1.331 Y48.434
X1.09 Y48.491
X0.847 Y48.537
X0.601 Y48.573
X0.355 Y48.598
X0.107 Y48.613
X-0.141 Y48.616
X-0.389 Y48.609
X-0.637 Y48.591
X-0.885 Y48.562
X-1.13 Y48.523
X-1.374 Y48.473
X-1.616 Y48.412
X-1.855 Y48.341
X-2.091 Y48.259
X-2.323 Y48.167
X-2.552 Y48.065
X-2.775 Y47.953
X-2.994 Y47.832
X-3.207 Y47.701
X-3.415 Y47.561
X-3.616 Y47.412
X-3.811 Y47.254
X-3.999 Y47.087
X-4.18 Y46.913
X-4.353 Y46.731
X-4.518 Y46.541
X-4.674 Y46.344
X-4.822 Y46.141
X-4.962 Y45.931
X-5.091 Y45.715
X-5.212 Y45.493
X-5.323 Y45.267
X-5.424 Y45.036
X-5.514 Y44.8
X-5.595 Y44.561
X-5.665 Y44.318
X-5.724 Y44.072
X-5.773 Y43.824
X-5.811 Y43.574
X-5.838 Y43.323
X-5.854 Y43.07
X-5.859 Y42.817
X-5.853 Y42.564
X-5.836 Y42.311
X-5.808 Y42.059
X-5.769 Y41.809
X-5.72 Y41.56
X-5.659 Y41.314
X-5.588 Y41.07
X-5.506 Y40.83
X-5.414 Y40.593
X-5.312 Y40.361
X-5.199 Y40.133
X-5.077 Y39.91
X-4.945 Y39.693
X-4.804 Y39.482
X-4.654 Y39.276
X-4.495 Y39.078
X-4.327 Y38.886
X-4.151 Y38.702
X-3.967 Y38.526
X-3.775 Y38.357
X-3.577 Y38.197
X-3.371 Y38.046
X-3.159 Y37.904
X-2.941 Y37.771
X-2.717 Y37.648
X-2.487 Y37.534
X-2.253 Y37.43
X-2.015 Y37.337
X-1.772 Y37.254
X-1.526 Y37.182
X-1.277 Y37.12
X-1.025 Y37.069
X-0.771 Y37.029
X-0.516 Y37.
X-0.259 Y36.983
X-0.002 Y36.976
X0.256 Y36.981
X0.514 Y36.997
X0.77 Y37.024
X1.026 Y37.062
X1.28 Y37.112
X1.531 Y37.172
X1.78 Y37.243
X2.026 Y37.325
X2.268 Y37.418
X2.506 Y37.522
X2.739 Y37.635
X2.968 Y37.759
X3.191 Y37.893
X3.408 Y38.036
X3.618 Y38.189
X3.822 Y38.35
X4.019 Y38.521
X4.209 Y38.7
X4.39 Y38.887
X4.563 Y39.082
X4.728 Y39.285
X4.884 Y39.494
X5.03 Y39.711
X5.168 Y39.933
X5.295 Y40.161
X5.412 Y40.395
X5.519 Y40.634
X5.616 Y40.877
X5.702 Y41.124
X5.777 Y41.375
X5.842 Y41.629
X5.895 Y41.886
X5.937 Y42.144
X5.968 Y42.405
X5.987 Y42.666
X5.995 Y42.929
X5.992 Y43.191
X5.977 Y43.453
X5.951 Y43.715
X5.913 Y43.975
X5.864 Y44.233
X5.804 Y44.489
X5.733 Y44.742
X5.651 Y44.992
X5.558 Y45.238
X5.455 Y45.48
X5.34 Y45.718
X5.216 Y45.95
X5.082 Y46.177
X4.938 Y46.398
X4.784 Y46.612
X4.621 Y46.82
X4.449 Y47.02
X4.268 Y47.213
X4.08 Y47.398
X3.883 Y47.575
X3.678 Y47.743
X3.467 Y47.902
X3.248 Y48.052
X3.023 Y48.192
X2.792 Y48.323
X2.556 Y48.443
X2.314 Y48.553
X2.068 Y48.653
X1.817 Y48.741
X1.563 Y48.819
X1.305 Y48.886
X1.044 Y48.941
X0.782 Y48.986
X0.517 Y49.018
X0.251 Y49.039
X-0.016 Y49.049
X-0.283 Y49.047
X-0.55 Y49.033
X-0.817 Y49.008
X-1.082 Y48.971
X-1.345 Y48.923
X-1.607 Y48.863
X-1.865 Y48.792
X-2.121 Y48.709
X-2.372 Y48.616
X-2.62 Y48.511
X-2.863 Y48.396
X-3.101 Y48.271
X-3.333 Y48.135
X-3.559 Y47.989
X-3.779 Y47.833
X-3.992 Y47.667
X-4.198 Y47.493
X-4.396 Y47.31
X-4.586 Y47.118
X-4.768 Y46.918
X-4.94 Y46.71
X-5.104 Y46.494
X-5.258 Y46.272
X-5.403 Y46.043
X-5.537 Y45.808
X-5.661 Y45.567
X-5.775 Y45.321
X-5.878 Y45.07
X-5.97 Y44.815
X-6.05 Y44.555
X-6.12 Y44.293
X-6.178 Y44.027
X-6.224 Y43.76
X-6.259 Y43.49
X-6.282 Y43.219
X-6.293 Y42.947
X-6.292 Y42.675
X-6.28 Y42.403
X-6.256 Y42.132
X-6.219 Y41.862
X-6.172 Y41.594
X-6.112 Y41.328
X-6.041 Y41.065
X-5.959 Y40.805
X-5.865 Y40.549
X-5.761 Y40.297
X-5.645 Y40.049
X-5.519 Y39.807
X-5.382 Y39.571
X-5.235 Y39.341
X-5.078 Y39.117
X-4.912 Y38.9
X-4.736 Y38.69
X-4.551 Y38.489
X-4.357 Y38.295
X-4.156 Y38.11
X-3.946 Y37.934
X-3.728 Y37.767
X-3.504 Y37.609
X-3.273 Y37.461
X-3.035 Y37.324
X-2.791 Y37.197
X-2.542 Y37.08
X-2.288 Y36.975
X-2.03 Y36.88
X-1.767 Y36.797
X-1.501 Y36.725
X-1.232 Y36.665
X-0.961 Y36.616
X-0.687 Y36.579
X-0.412 Y36.555
X-0.136 Y36.542
X0.141 Y36.541
X0.418 Y36.552
X0.694 Y36.576
X0.969 Y36.611
X1.242 Y36.658
X1.513 Y36.717
X1.782 Y36.788
X2.047 Y36.871
X2.309 Y36.965
X2.566 Y37.07
X2.819 Y37.187
X3.067 Y37.314
X3.309 Y37.453
X3.545 Y37.601
X3.775 Y37.76
X3.997 Y37.929
X4.212 Y38.108
X4.419 Y38.295
X4.618 Y38.492
X4.808 Y38.697
X4.989 Y38.911
X5.161 Y39.132
X5.323 Y39.36
X5.475 Y39.596
X5.617 Y39.838
X5.748 Y40.086
X5.868 Y40.339
X5.978 Y40.598
X6.075 Y40.861
X6.162 Y41.128
X6.236 Y41.399
X6.299 Y41.673
X6.35 Y41.949
X6.389 Y42.228
X6.416 Y42.508
X6.43 Y42.789
X6.433 Y43.07
X6.423 Y43.352
X6.4 Y43.633
X6.366 Y43.912
X6.319 Y44.19
X6.261 Y44.466
X6.19 Y44.739
X6.108 Y45.009
X6.014 Y45.275
X5.908 Y45.537
X5.791 Y45.794
X5.663 Y46.046
X5.525 Y46.292
X5.375 Y46.532
X5.215 Y46.765
X5.045 Y46.992
X4.865 Y47.21
X4.676 Y47.421
X4.478 Y47.624
X4.271 Y47.818
X4.056 Y48.002
X3.833 Y48.178
X3.602 Y48.343
X3.364 Y48.498
X3.12 Y48.643
X2.869 Y48.778
X2.612 Y48.901
X2.351 Y49.013
X2.084 Y49.114
X1.813 Y49.203
X1.539 Y49.28
X1.261 Y49.345
X0.981 Y49.399
X0.698 Y49.44
X0.413 Y49.468
X0.128 Y49.484
X-0.158 Y49.488
X-0.445 Y49.48
X-0.731 Y49.459
X-1.015 Y49.425
X-1.298 Y49.379
X-1.58 Y49.321
X-1.858 Y49.251
X-2.133 Y49.168
X-2.405 Y49.074
X-2.672 Y48.968
X-2.935 Y48.85
X-3.192 Y48.721
X-3.444 Y48.58
X-3.69 Y48.429
X-3.929 Y48.267
X-4.16 Y48.095
X-4.384 Y47.913
X-4.6 Y47.721
X-4.808 Y47.52
X-5.007 Y47.31
X-5.197 Y47.092
X-5.377 Y46.865
X-5.547 Y46.63
X-5.706 Y46.389
X-5.856 Y46.14
X-5.994 Y45.885
X-6.121 Y45.624
X-6.237 Y45.358
X-6.341 Y45.087
X-6.433 Y44.811
X-6.513 Y44.532
X-6.581 Y44.249
X-6.637 Y43.964
X-6.68 Y43.676
X-6.711 Y43.387
X-6.729 Y43.096
X-6.734 Y42.805
X-6.727 Y42.514
X-6.707 Y42.223
X-6.675 Y41.934
X-6.629 Y41.646
X-6.572 Y41.36
X-6.502 Y41.077
X-6.42 Y40.797
X-6.325 Y40.521
X-6.219 Y40.249
X-6.101 Y39.982
X-5.971 Y39.72
X-5.83 Y39.464
X-5.678 Y39.214
X-5.516 Y38.971
X-5.342 Y38.735
X-5.159 Y38.507
X-4.966 Y38.287
X-4.763 Y38.076
X-4.551 Y37.873
X-4.331 Y37.68
X-4.102 Y37.497
X-3.866 Y37.323
X-3.622 Y37.16
X-3.371 Y37.007
X-3.113 Y36.866
X-2.85 Y36.736
X-2.58 Y36.617
X-2.306 Y36.51
X-2.027 Y36.415
X-1.745 Y36.332
X-1.458 Y36.262
X-1.169 Y36.204
X-0.877 Y36.159
X-0.584 Y36.126
X-0.289 Y36.106
X0.007 Y36.099
X0.303 Y36.105
X0.598 Y36.123
X0.893 Y36.155
X1.186 Y36.199
X1.477 Y36.256
X1.766 Y36.326
X2.051 Y36.408
X2.333 Y36.503
X2.61 Y36.61
X2.883 Y36.729
X3.151 Y36.859
X3.413 Y37.002
X3.668 Y37.155
X3.917 Y37.32
X4.158 Y37.495
X4.392 Y37.681
X4.617 Y37.877
X4.834 Y38.083
X5.042 Y38.297
X5.24 Y38.521
X5.428 Y38.754
X5.607 Y38.994
X5.774 Y39.242
X5.931 Y39.497
X6.077 Y39.759
X6.211 Y40.027
X6.333 Y40.301
X6.444 Y40.58
X6.542 Y40.863
X6.628 Y41.151
X6.701 Y41.442
X6.762 Y41.736
X6.809 Y42.033
X6.844 Y42.331
X6.866 Y42.631
X6.875 Y42.931
X6.871 Y43.232
X6.853 Y43.532
X6.823 Y43.832
X6.779 Y44.129
X6.723 Y44.425
X6.654 Y44.718
X6.572 Y45.008
X6.477 Y45.295
X6.371 Y45.577
X6.252 Y45.854
X6.121 Y46.125
X5.978 Y46.391
X5.824 Y46.651
X5.658 Y46.904
X5.482 Y47.149
X5.295 Y47.387
X5.098 Y47.616
X4.891 Y47.837
X4.674 Y48.048
X4.448 Y48.25
X4.214 Y48.442
X3.972 Y48.624
X3.721 Y48.795
X3.464 Y48.955
X3.199 Y49.104
X2.928 Y49.242
X2.651 Y49.367
X2.369 Y49.481
X2.082 Y49.582
X1.791 Y49.67
X1.496 Y49.746
X1.198 Y49.809
X0.897 Y49.859
X0.595 Y49.896
X0.29 Y49.92
X-0.015 Y49.931
X-0.32 Y49.928
X-0.626 Y49.912
X-0.93 Y49.883
X-1.233 Y49.84
X-1.534 Y49.784
X-1.833 Y49.715
X-2.129 Y49.634
X-2.42 Y49.539
X-2.708 Y49.432
X-2.991 Y49.312
X-3.268 Y49.18
X-3.54 Y49.036
X-3.805 Y48.881
X-4.063 Y48.713
X-4.314 Y48.535
X-4.557 Y48.346
X-4.792 Y48.146
X-5.018 Y47.937
X-5.234 Y47.717
X-5.441 Y47.488
X-5.638 Y47.251
X-5.825 Y47.004
X-6.001 Y46.75
X-6.165 Y46.489
X-6.318 Y46.22
X-6.46 Y45.945
X-6.589 Y45.664
X-6.706 Y45.377
X-6.811 Y45.085
X-6.902 Y44.789
X-6.981 Y44.49
X-7.047 Y44.187
X-7.099 Y43.881
X-7.139 Y43.573
X-7.164 Y43.264
X-7.177 Y42.954
X-7.176 Y42.643
X-7.161 Y42.333
X-7.133 Y42.024
X-7.091 Y41.716
X-7.036 Y41.41
X-6.968 Y41.106
X-6.887 Y40.806
X-6.792 Y40.51
X-6.685 Y40.218
X-6.565 Y39.93
X-6.433 Y39.648
X-6.288 Y39.372
X-6.132 Y39.103
X-5.964 Y38.84
X-5.785 Y38.585
X-5.595 Y38.338
X-5.394 Y38.099
X-5.183 Y37.869
X-4.961 Y37.649
X-4.731 Y37.438
X-4.491 Y37.237
X-4.243 Y37.047
X-3.987 Y36.868
X-3.723 Y36.7
X-3.452 Y36.543
X-3.174 Y36.399
X-2.89 Y36.266
X-2.6 Y36.146
X-2.305 Y36.039
X-2.006 Y35.944
X-1.703 Y35.863
X-1.396 Y35.795
X-1.086 Y35.74
X-0.774 Y35.698
X-0.461 Y35.67
X-0.146 Y35.656
X0.169
X0.484 Y35.669
X0.799 Y35.696
X1.112 Y35.737
X1.423 Y35.791
X1.732 Y35.859
X2.038 Y35.94
X2.34 Y36.034
X2.637 Y36.142
X2.93 Y36.262
X3.218 Y36.395
X3.5 Y36.541
X3.775 Y36.699
X4.044 Y36.868
X4.304 Y37.05
X4.557 Y37.242
X4.802 Y37.445
X5.037 Y37.659
X5.263 Y37.883
X5.479 Y38.117
X5.685 Y38.36
X5.88 Y38.612
X6.064 Y38.872
X6.236 Y39.14
X6.397 Y39.416
X6.546 Y39.698
X6.682 Y39.987
X6.806 Y40.281
X6.917 Y40.58
X7.015 Y40.884
X7.099 Y41.192
X7.17 Y41.504
X7.228 Y41.819
X7.272 Y42.135
X7.301 Y42.454
X7.318 Y42.773
X7.32 Y43.093
X7.308 Y43.413
X7.282 Y43.733
X7.243 Y44.05
X7.189 Y44.366
X7.122 Y44.68
X7.042 Y44.99
X6.948 Y45.297
X6.84 Y45.599
X6.72 Y45.897
X6.587 Y46.189
X6.441 Y46.475
X6.282 Y46.754
X6.112 Y47.027
X5.93 Y47.292
X5.737 Y47.549
X5.532 Y47.797
X5.317 Y48.037
X5.091 Y48.266
X4.856 Y48.486
X4.611 Y48.696
X4.357 Y48.895
X4.094 Y49.082
X3.824 Y49.259
X3.546 Y49.423
X3.261 Y49.575
X2.97 Y49.715
X2.672 Y49.842
X2.369 Y49.956
X2.062 Y50.056
X1.75 Y50.144
X1.434 Y50.217
X1.116 Y50.277
X0.794 Y50.323
X0.472 Y50.355
X0.147 Y50.373
X-0.178 Y50.377
X-0.502 Y50.367
X-0.827 Y50.343
X-1.15 Y50.304
X-1.471 Y50.252
X-1.79 Y50.185
X-2.106 Y50.105
X-2.418 Y50.011
X-2.726 Y49.904
X-3.029 Y49.783
X-3.327 Y49.649
X-3.619 Y49.502
X-3.904 Y49.342
X-4.183 Y49.17
X-4.453 Y48.986
X-4.716 Y48.791
X-4.969 Y48.584
X-5.214 Y48.366
X-5.449 Y48.138
X-5.674 Y47.899
X-5.889 Y47.651
X-6.093 Y47.394
X-6.285 Y47.128
X-6.466 Y46.854
X-6.635 Y46.572
X-6.791 Y46.282
X-6.935 Y45.987
X-7.065 Y45.685
X-7.183 Y45.377
X-7.287 Y45.065
X-7.377 Y44.748
X-7.454 Y44.428
X-7.517 Y44.104
X-7.565 Y43.778
X-7.599 Y43.45
X-7.62 Y43.121
X-7.625 Y42.791
X-7.617 Y42.461
X-7.594 Y42.132
X-7.556 Y41.804
X-7.505 Y41.478
X-7.439 Y41.154
X-7.359 Y40.833
X-7.266 Y40.516
X-7.158 Y40.204
X-7.038 Y39.896
X-6.903 Y39.593
X-6.756 Y39.297
X-6.596 Y39.007
X-6.424 Y38.725
X-6.239 Y38.45
X-6.042 Y38.183
X-5.834 Y37.925
X-5.615 Y37.676
X-5.385 Y37.437
X-5.145 Y37.208
X-4.895 Y36.989
X-4.636 Y36.782
X-4.368 Y36.586
X-4.091 Y36.401
X-3.807 Y36.229
X-3.515 Y36.07
X-3.216 Y35.923
X-2.912 Y35.789
X-2.601 Y35.668
X-2.285 Y35.561
X-1.965 Y35.468
X-1.641 Y35.388
X-1.314 Y35.323
X-0.983 Y35.272
X-0.651 Y35.236
X-0.318 Y35.214
X0.017 Y35.206
X0.352 Y35.213
X0.686 Y35.235
X1.019 Y35.271
X1.351 Y35.321
X1.68 Y35.386
X2.006 Y35.466
X2.329 Y35.559
X2.647 Y35.667
X2.961 Y35.788
X3.269 Y35.923
X3.571 Y36.071
X3.867 Y36.232
X4.155 Y36.406
X4.436 Y36.592
X4.708 Y36.791
X4.972 Y37.001
X5.227 Y37.223
X5.471 Y37.456
X5.706 Y37.699
X5.929 Y37.952
X6.142 Y38.215
X6.343 Y38.487
X6.532 Y38.767
X6.709 Y39.056
X6.873 Y39.352
X7.024 Y39.655
X7.162 Y39.964
X7.286 Y40.279
X7.397 Y40.6
X7.493 Y40.925
X7.576 Y41.254
X7.644 Y41.586
X7.697 Y41.921
X7.736 Y42.258
X7.76 Y42.597
X7.77 Y42.936
X7.764 Y43.276
X7.744 Y43.615
X7.709 Y43.953
X7.66 Y44.289
X7.596 Y44.623
X7.517 Y44.954
X7.424 Y45.281
X7.317 Y45.604
X7.196 Y45.923
X7.061 Y46.235
X6.913 Y46.542
X6.751 Y46.842
X6.577 Y47.135
X6.39 Y47.42
X6.19 Y47.697
X5.979 Y47.964
X5.756 Y48.223
X5.522 Y48.472
X5.277 Y48.71
X5.022 Y48.938
X4.757 Y49.154
X4.483 Y49.359
X4.201 Y49.552
X3.91 Y49.732
X3.611 Y49.9
X3.305 Y50.055
X2.992 Y50.196
X2.674 Y50.323
X2.35 Y50.437
X2.022 Y50.537
X1.689 Y50.622
X1.352 Y50.692
X1.013 Y50.748
X0.672 Y50.789
X0.328 Y50.816
X-0.016 Y50.827
X-0.36 Y50.824
X-0.705 Y50.805
X-1.048 Y50.772
X-1.389 Y50.723
X-1.729 Y50.66
X-2.065 Y50.582
X-2.398 Y50.489
X-2.727 Y50.382
X-3.051 Y50.261
X-3.369 Y50.125
X-3.682 Y49.976
X-3.988 Y49.814
X-4.286 Y49.638
X-4.577 Y49.449
X-4.859 Y49.248
X-5.133 Y49.034
X-5.397 Y48.809
X-5.651 Y48.572
X-5.895 Y48.325
X-6.128 Y48.067
X-6.349 Y47.799
X-6.559 Y47.521
X-6.757 Y47.235
X-6.942 Y46.94
X-7.114 Y46.637
X-7.273 Y46.327
X-7.418 Y46.01
X-7.549 Y45.687
X-7.666 Y45.359
X-7.769 Y45.025
X-7.857 Y44.688
X-7.931 Y44.346
X-7.99 Y44.002
X-8.033 Y43.656
X-8.062 Y43.307
X-8.075 Y42.958
X-8.073 Y42.609
X-8.056 Y42.259
X-8.024 Y41.911
X-7.977 Y41.564
X-7.915 Y41.22
X-7.837 Y40.879
X-7.745 Y40.541
X-7.639 Y40.207
X-7.517 Y39.879
X-7.382 Y39.555
X-7.233 Y39.238
X-7.07 Y38.928
X-6.893 Y38.625
X-6.704 Y38.33
X-6.502 Y38.043
X-6.287 Y37.765
X-6.061 Y37.496
X-5.823 Y37.238
X-5.574 Y36.99
X-5.314 Y36.753
X-5.044 Y36.528
X-4.765 Y36.314
X-4.476 Y36.113
X-4.179 Y35.924
X-3.873 Y35.749
X-3.56 Y35.587
X-3.241 Y35.438
X-2.915 Y35.303
X-2.583 Y35.183
X-2.246 Y35.077
X-1.905 Y34.986
X-1.56 Y34.91
X-1.211 Y34.848
X-0.861 Y34.802
X-0.508 Y34.772
X-0.154 Y34.756
X0.2
X0.554 Y34.772
X0.908 Y34.802
X1.26 Y34.848
X1.609 Y34.91
X1.956 Y34.986
X2.3 Y35.078
X2.639 Y35.185
X2.973 Y35.306
X3.303 Y35.442
X3.626 Y35.592
X3.942 Y35.756
X4.251 Y35.933
X4.552 Y36.124
X4.845 Y36.328
X5.128 Y36.545
X5.403 Y36.774
X5.667 Y37.014
X5.92 Y37.266
X6.162 Y37.529
X6.393 Y37.803
X6.612 Y38.086
X6.818 Y38.378
X7.011 Y38.679
X7.191 Y38.989
X7.358 Y39.306
X7.511 Y39.63
X7.649 Y39.961
X7.773 Y40.297
X7.883 Y40.639
X7.977 Y40.985
X8.056 Y41.335
X8.12 Y41.688
X8.169 Y42.043
X8.202 Y42.401
X8.22 Y42.76
X8.221 Y43.119
X8.208 Y43.478
X8.178 Y43.836
X8.134 Y44.193
X8.073 Y44.548
X7.998 Y44.899
X7.907 Y45.248
X7.801 Y45.592
X7.68 Y45.931
X7.544 Y46.265
X7.394 Y46.592
X7.23 Y46.913
X7.052 Y47.227
X6.86 Y47.532
X6.655 Y47.829
X6.438 Y48.117
X6.208 Y48.396
X5.966 Y48.664
X5.713 Y48.921
X5.448 Y49.168
X5.173 Y49.402
X4.888 Y49.625
X4.593 Y49.835
X4.29 Y50.032
X3.978 Y50.216
X3.658 Y50.387
X3.33 Y50.543
X2.997 Y50.685
X2.657 Y50.812
X2.312 Y50.924
X1.962 Y51.022
X1.608 Y51.104
X1.251 Y51.171
X0.891 Y51.222
X0.528 Y51.257
X0.165 Y51.277
X-0.199 Y51.281
X-0.563 Y51.269
X-0.927 Y51.241
X-1.289 Y51.198
X-1.649 Y51.138
X-2.006 Y51.063
X-2.36 Y50.973
X-2.71 Y50.867
X-3.055 Y50.746
X-3.394 Y50.61
X-3.728 Y50.46
X-4.055 Y50.295
X-4.374 Y50.115
X-4.685 Y49.923
X-4.988 Y49.716
X-5.282 Y49.497
X-5.566 Y49.265
X-5.84 Y49.02
X-6.103 Y48.764
X-6.355 Y48.497
X-6.595 Y48.218
X-6.822 Y47.93
X-7.037 Y47.632
X-7.239 Y47.324
X-7.428 Y47.008
X-7.602 Y46.684
X-7.763 Y46.353
X-7.909 Y46.015
