(__3_7)
(T1  D=3. CR=0. - ZMIN=-5. - FLAT END MILL)
G90 G94 G91.1 G40 G49 G17
G21

(2D ADAPTIVE4)
M5
M9
T1
S9700 M3
G54
M8
G0 X61.966 Y63.403
G43 Z15. H1
Z5.
Z0.845
G1 Z0.545 F466.
G3 X62.793 Y63.597 Z0.498 R0.425
X61.966 Y63.403 Z0.452 R0.425
X62.793 Y63.597 Z0.405 R0.425
X61.966 Y63.403 Z0.358 R0.425
X62.793 Y63.597 Z0.312 R0.425
X61.966 Y63.403 Z0.265 R0.425
X62.793 Y63.597 Z0.219 R0.425
X61.966 Y63.403 Z0.172 R0.425
X62.793 Y63.597 Z0.125 R0.425
X61.966 Y63.403 Z0.079 R0.425
X62.793 Y63.597 Z0.032 R0.425
X61.966 Y63.403 Z-0.015 R0.425
X62.793 Y63.597 Z-0.061 R0.425
X61.966 Y63.403 Z-0.108 R0.425
X62.793 Y63.597 Z-0.154 R0.425
X61.966 Y63.403 Z-0.201 R0.425
X62.793 Y63.597 Z-0.248 R0.425
X61.966 Y63.403 Z-0.294 R0.425
X62.793 Y63.597 Z-0.341 R0.425
X61.966 Y63.403 Z-0.388 R0.425
X62.793 Y63.597 Z-0.434 R0.425
X61.966 Y63.403 Z-0.481 R0.425
X62.793 Y63.597 Z-0.527 R0.425
X61.966 Y63.403 Z-0.574 R0.425
X62.793 Y63.597 Z-0.621 R0.425
X61.966 Y63.403 Z-0.667 R0.425
X62.793 Y63.597 Z-0.714 R0.425
X61.966 Y63.403 Z-0.761 R0.425
X62.793 Y63.597 Z-0.807 R0.425
X61.966 Y63.403 Z-0.854 R0.425
X62.793 Y63.597 Z-0.9 R0.425
X61.966 Y63.403 Z-0.947 R0.425
X62.793 Y63.597 Z-0.994 R0.425
X61.966 Y63.403 Z-1.04 R0.425
X62.793 Y63.597 Z-1.087 R0.425
X61.966 Y63.403 Z-1.134 R0.425
X62.793 Y63.597 Z-1.18 R0.425
X61.966 Y63.403 Z-1.227 R0.425
X62.793 Y63.597 Z-1.273 R0.425
X61.966 Y63.403 Z-1.32 R0.425
X62.793 Y63.597 Z-1.367 R0.425
X61.966 Y63.403 Z-1.413 R0.425
X62.793 Y63.597 Z-1.46 R0.425
X61.966 Y63.403 Z-1.507 R0.425
X62.793 Y63.597 Z-1.553 R0.425
X61.966 Y63.403 Z-1.6 R0.425
X62.793 Y63.597 Z-1.646 R0.425
X61.966 Y63.403 Z-1.693 R0.425
X62.793 Y63.597 Z-1.74 R0.425
X61.966 Y63.403 Z-1.786 R0.425
X62.793 Y63.597 Z-1.833 R0.425
X61.966 Y63.403 Z-1.88 R0.425
X62.793 Y63.597 Z-1.926 R0.425
X61.966 Y63.403 Z-1.973 R0.425
X62.793 Y63.597 Z-2.019 R0.425
X61.966 Y63.403 Z-2.066 R0.425
X62.793 Y63.597 Z-2.113 R0.425
X61.966 Y63.403 Z-2.159 R0.425
X62.793 Y63.597 Z-2.206 R0.425
X61.966 Y63.403 Z-2.253 R0.425
X62.793 Y63.597 Z-2.299 R0.425
X61.966 Y63.403 Z-2.346 R0.425
X62.793 Y63.597 Z-2.392 R0.425
X61.966 Y63.403 Z-2.439 R0.425
X62.793 Y63.597 Z-2.486 R0.425
X61.966 Y63.403 Z-2.532 R0.425
X62.793 Y63.597 Z-2.579 R0.425
X61.966 Y63.403 Z-2.626 R0.425
X62.793 Y63.597 Z-2.672 R0.425
X61.966 Y63.403 Z-2.719 R0.425
X62.793 Y63.597 Z-2.765 R0.425
X61.966 Y63.403 Z-2.812 R0.425
X62.793 Y63.597 Z-2.859 R0.425
X61.966 Y63.403 Z-2.905 R0.425
X62.793 Y63.597 Z-2.952 R0.425
X61.966 Y63.403 Z-2.999 R0.425
X62.793 Y63.597 Z-3.045 R0.425
X61.966 Y63.403 Z-3.092 R0.425
X62.793 Y63.597 Z-3.138 R0.425
X61.966 Y63.403 Z-3.185 R0.425
X62.793 Y63.597 Z-3.232 R0.425
X61.966 Y63.403 Z-3.278 R0.425
X62.793 Y63.597 Z-3.325 R0.425
X61.966 Y63.403 Z-3.372 R0.425
X62.793 Y63.597 Z-3.418 R0.425
X61.966 Y63.403 Z-3.465 R0.425
X62.793 Y63.597 Z-3.511 R0.425
X61.966 Y63.403 Z-3.558 R0.425
X62.793 Y63.597 Z-3.605 R0.425
X61.966 Y63.403 Z-3.651 R0.425
X62.793 Y63.597 Z-3.698 R0.425
X61.966 Y63.403 Z-3.745 R0.425
X62.793 Y63.597 Z-3.791 R0.425
X61.966 Y63.403 Z-3.838 R0.425
X62.793 Y63.597 Z-3.884 R0.425
X61.966 Y63.403 Z-3.931 R0.425
X62.793 Y63.597 Z-3.978 R0.425
X61.966 Y63.403 Z-4.024 R0.425
X62.793 Y63.597 Z-4.071 R0.425
X61.966 Y63.403 Z-4.118 R0.425
X62.793 Y63.597 Z-4.164 R0.425
X61.966 Y63.403 Z-4.211 R0.425
X62.793 Y63.597 Z-4.257 R0.425
X61.966 Y63.403 Z-4.304 R0.425
X62.793 Y63.597 Z-4.351 R0.425
X61.966 Y63.403 Z-4.397 R0.425
X62.793 Y63.597 Z-4.444 R0.425
X61.966 Y63.403 Z-4.491 R0.425
X62.793 Y63.597 Z-4.537 R0.425
X61.966 Y63.403 Z-4.584 R0.425
X62.793 Y63.597 Z-4.63 R0.425
X61.966 Y63.403 Z-4.677 R0.425
X62.793 Y63.597 Z-4.724 R0.425
X61.966 Y63.403 Z-4.77 R0.425
X62.793 Y63.597 Z-4.817 R0.425
X61.966 Y63.403 Z-4.864 R0.425
X62.793 Y63.597 Z-4.91 R0.425
X61.966 Y63.403 Z-4.957 R0.425
X62.805 Y63.5 Z-5. R0.425
X61.955 R0.425
X62.805 R0.425
G1 X62.827 Y63.756
X62.797 Y63.878
X62.709 Y63.967
X62.588 Y64.
X62.138
X62.003 Y63.993
X61.878 Y63.943
X61.771 Y63.86
X61.681 Y63.685
X61.66 Y63.489
X61.713 Y63.299
X61.831 Y63.141
X61.998 Y63.036
X62.191 Y63.
X62.622
X62.649
X62.686
X62.783 Y63.011
G3 X62.959 Y63.297 R0.272
X62.429 Y63.236 R0.267
X62.686 Y63. R0.267
G1 X62.783 Y63.011
X62.809 Y63.02
X62.897 Y63.073
X62.948 Y63.129
X62.995 Y63.232
X63.005 Y63.299
X63.002 Y63.734
X62.969 Y63.835
X62.918 Y63.908
X62.834 Y63.969
X62.75 Y63.996
X62.588 Y64.
G3 X62.467 Y63.97 R0.3
G2 X62.169 Y63.99 R0.3
G3 X62.138 Y64. R0.06
G1 X61.801
X61.666 Y63.993
X61.547 Y63.93
X61.447 Y63.839
X61.373 Y63.66
X61.366 Y63.467
X61.427 Y63.284
X61.548 Y63.133
X61.714 Y63.034
X61.905 Y63.
G3 X62.003 Y63.024 R0.249
X62.017 Y63.031 R0.513
X61.801 Y64. R0.513
G1 X61.503
X61.368 Y63.993
X61.248 Y63.933
X61.149 Y63.841
X61.076 Y63.661
X61.07 Y63.467
X61.131 Y63.284
X61.253 Y63.133
X61.42 Y63.034
X61.611 Y63.
G3 X61.713 Y63.026 R0.249
X61.724 Y63.031 R0.514
X61.503 Y64. R0.514
G1 X61.196
X61.061 Y63.993
X60.942 Y63.929
X60.845 Y63.835
X60.775 Y63.655
X60.772 Y63.463
X60.835 Y63.28
X60.958 Y63.131
X61.124 Y63.034
X61.314 Y63.
G3 X61.424 Y63.03 R0.249
X61.196 Y64. R0.516
G1 X60.899
X60.764 Y63.993
X60.645 Y63.93
X60.548 Y63.837
X60.477 Y63.657
X60.473 Y63.464
X60.536 Y63.281
X60.659 Y63.132
X60.826 Y63.034
X61.016 Y63.
G3 X61.125 Y63.029 R0.249
G1 X61.128 Y63.031
G3 X60.899 Y64. R0.516
G1 X60.589
X60.455 Y63.993
X60.337 Y63.926
X60.242 Y63.831
X60.175 Y63.651
X60.173 Y63.459
X60.238 Y63.278
X60.361 Y63.13
X60.527 Y63.034
X60.716 Y63.
G3 X60.829 Y63.031 R0.249
G1 X60.833 Y63.034
G3 X60.589 Y64. R0.519
G1 X60.292
X60.157 Y63.993
X60.039 Y63.928
X59.943 Y63.833
X59.875 Y63.653
X59.873 Y63.46
X59.937 Y63.279
X60.06 Y63.131
X60.226 Y63.034
X60.416 Y63.
G3 X60.531 Y63.033 R0.249
X60.292 Y64. R0.518
G1 X59.985
X59.85 Y63.993
X59.733 Y63.925
X59.638 Y63.829
X59.572 Y63.649
Y63.457
X59.637 Y63.277
X59.76 Y63.129
X59.926 Y63.033
X60.115 Y63.
G3 X60.227 Y63.031 R0.249
G1 X60.235 Y63.036
G3 X59.985 Y64. R0.52
G1 X59.688
X59.553 Y63.993
X59.435 Y63.927
X59.34 Y63.832
X59.272 Y63.652
X59.271 Y63.459
X59.335 Y63.278
X59.458 Y63.13
X59.625 Y63.034
X59.814 Y63.
G3 X59.926 Y63.031 R0.249
G1 X59.93 Y63.034
G3 X59.688 Y64. R0.518
G1 X59.378
X59.243 Y63.993
X59.128 Y63.924
X59.034 Y63.827
X58.968 Y63.647
X58.969 Y63.455
X59.034 Y63.275
X59.158 Y63.129
X59.324 Y63.033
X59.512 Y63.
G3 X59.635 Y63.037 R0.249
X59.378 Y64. R0.521
G1 X59.081
X58.946 Y63.993
X58.829 Y63.926
X58.734 Y63.83
X58.668 Y63.65
X58.667 Y63.458
X58.732 Y63.277
X58.855 Y63.13
X59.021 Y63.033
X59.21 Y63.
G3 X59.323 Y63.031 R0.249
G1 X59.33 Y63.035
G3 X59.081 Y64. R0.519
G1 X58.773
X58.638 Y63.993
X58.523 Y63.924
X58.429 Y63.827
X58.364 Y63.647
Y63.455
X58.43 Y63.275
X58.554 Y63.129
X58.719 Y63.033
X58.908 Y63.
G3 X59.031 Y63.038 R0.249
X58.773 Y64. R0.521
G1 X58.477
X58.342 Y63.993
X58.225 Y63.926
X58.13 Y63.83
X58.063 Y63.65
X58.062 Y63.458
X58.128 Y63.277
X58.251 Y63.13
X58.417 Y63.033
X58.606 Y63.
G3 X58.718 Y63.031 R0.249
G1 X58.725 Y63.035
G3 X58.477 Y64. R0.519
G1 X58.167
X58.032 Y63.993
X57.917 Y63.923
X57.823 Y63.826
X57.759 Y63.646
X57.76 Y63.454
X57.826 Y63.275
X57.949 Y63.129
X58.115 Y63.033
X58.304 Y63.
G3 X58.416 Y63.031 R0.249
X58.428 Y63.039 R0.249
X58.167 Y64. R0.521
G1 X57.869
X57.735 Y63.993
X57.618 Y63.925
X57.524 Y63.829
X57.458 Y63.649
X57.457 Y63.457
X57.523 Y63.276
X57.646 Y63.129
X57.812 Y63.033
X58.001 Y63.
G3 X58.113 Y63.031 R0.249
G1 X58.122 Y63.036
G3 X57.869 Y64. R0.52
G1 X57.562
X57.427 Y63.993
X57.312 Y63.923
X57.218 Y63.826
X57.154 Y63.646
X57.155 Y63.455
X57.221 Y63.275
X57.344 Y63.129
X57.51 Y63.033
X57.698 Y63.
G3 X57.823 Y63.038 R0.249
X57.562 Y64. R0.521
G1 X57.266
X57.131 Y63.993
X57.014 Y63.926
X56.919 Y63.83
X56.853 Y63.649
X56.852 Y63.457
X56.918 Y63.277
X57.041 Y63.13
X57.207 Y63.033
X57.396 Y63.
G3 X57.508 Y63.031 R0.249
G1 X57.516 Y63.036
G3 X57.266 Y64. R0.52
G1 X56.956
X56.821 Y63.993
X56.706 Y63.923
X56.612 Y63.825
X56.548 Y63.645
X56.549 Y63.454
X56.616 Y63.275
X56.739 Y63.128
X56.905 Y63.033
X57.093 Y63.
G3 X57.206 Y63.031 R0.249
X57.218 Y63.039 R0.249
X56.956 Y64. R0.522
G1 X56.658
X56.523 Y63.993
X56.407 Y63.925
X56.313 Y63.829
X56.247 Y63.648
Y63.457
X56.312 Y63.276
X56.435 Y63.129
X56.602 Y63.033
X56.79 Y63.
G3 X56.903 Y63.031 R0.249
X56.912 Y63.037 R0.249
X56.658 Y64. R0.52
G1 X56.351
X56.216 Y63.993
X56.101 Y63.923
X56.007 Y63.826
X55.943 Y63.646
X55.944 Y63.454
X56.01 Y63.275
X56.133 Y63.129
X56.299 Y63.033
X56.488 Y63.
G3 X56.612 Y63.039 R0.249
X56.351 Y64. R0.522
G1 X56.054
X55.92 Y63.993
X55.803 Y63.926
X55.708 Y63.829
X55.642 Y63.649
X55.641 Y63.457
X55.707 Y63.277
X55.83 Y63.13
X55.996 Y63.033
X56.185 Y63.
G3 X56.298 Y63.031 R0.249
G1 X56.305 Y63.036
G3 X56.054 Y64. R0.52
G1 X55.745
X55.61 Y63.993
X55.495 Y63.923
X55.401 Y63.825
X55.337 Y63.645
X55.338 Y63.454
X55.405 Y63.274
X55.528 Y63.128
X55.694 Y63.033
X55.882 Y63.
G3 X56.008 Y63.039 R0.249
X55.745 Y64. R0.522
G1 X55.447
X55.312 Y63.993
X55.196 Y63.925
X55.101 Y63.828
X55.036 Y63.648
Y63.456
X55.101 Y63.276
X55.224 Y63.129
X55.391 Y63.033
X55.579 Y63.
G3 X55.692 Y63.031 R0.249
X55.701 Y63.037 R0.249
X55.447 Y64. R0.52
G1 X55.14
X55.005 Y63.993
X54.889 Y63.923
X54.796 Y63.826
X54.732 Y63.646
X54.733 Y63.454
X54.799 Y63.275
X54.922 Y63.128
X55.088 Y63.033
X55.276 Y63.
G3 X55.389 Y63.031 R0.249
X55.401 Y63.039 R0.249
X55.14 Y64. R0.522
G1 X54.843
X54.708 Y63.993
X54.591 Y63.926
X54.497 Y63.829
X54.431 Y63.649
X54.43 Y63.457
X54.496 Y63.277
X54.619 Y63.129
X54.785 Y63.033
X54.974 Y63.
G3 X55.086 Y63.031 R0.249
G1 X55.094 Y63.036
G3 X54.843 Y64. R0.52
G1 X54.533
X54.398 Y63.993
X54.283 Y63.923
X54.19 Y63.825
X54.126 Y63.645
X54.127 Y63.454
X54.194 Y63.274
X54.317 Y63.128
X54.483 Y63.033
X54.671 Y63.
G3 X54.783 Y63.031 R0.249
X54.797 Y63.039 R0.249
X54.533 Y64. R0.522
G1 X54.236
X54.101 Y63.993
X53.984 Y63.925
X53.89 Y63.828
X53.825 Y63.648
X53.824 Y63.456
X53.89 Y63.276
X54.013 Y63.129
X54.179 Y63.033
X54.368 Y63.
G3 X54.481 Y63.031 R0.249
X54.49 Y63.037 R0.249
X54.236 Y64. R0.52
G1 X53.928
X53.794 Y63.993
X53.678 Y63.923
X53.585 Y63.826
X53.52 Y63.646
X53.521 Y63.454
X53.588 Y63.275
X53.711 Y63.128
X53.877 Y63.033
X54.065 Y63.
G3 X54.178 Y63.031 R0.249
X54.19 Y63.039 R0.249
X53.928 Y64. R0.522
G1 X53.632
X53.497 Y63.993
X53.38 Y63.926
X53.286 Y63.829
X53.22 Y63.649
X53.219 Y63.457
X53.284 Y63.277
X53.408 Y63.129
X53.574 Y63.033
X53.763 Y63.
G3 X53.875 Y63.031 R0.249
G1 X53.883 Y63.036
G3 X53.632 Y64. R0.52
G1 X53.322
X53.187 Y63.993
X53.072 Y63.923
X52.979 Y63.825
X52.915 Y63.645
X52.916 Y63.454
X52.982 Y63.274
X53.106 Y63.128
X53.272 Y63.033
X53.46 Y63.
G3 X53.572 Y63.031 R0.249
X53.586 Y63.039 R0.249
X53.322 Y64. R0.522
G1 X53.025
X52.89 Y63.993
X52.773 Y63.925
X52.679 Y63.828
X52.613 Y63.648
Y63.456
X52.679 Y63.276
X52.802 Y63.129
X52.968 Y63.033
X53.157 Y63.
G3 X53.27 Y63.031 R0.249
X53.279 Y63.037 R0.249
X53.025 Y64. R0.52
G1 X52.717
X52.582 Y63.993
X52.467 Y63.923
X52.374 Y63.826
X52.309 Y63.646
X52.31 Y63.454
X52.376 Y63.275
X52.5 Y63.128
X52.666 Y63.033
X52.854 Y63.
G3 X52.967 Y63.031 R0.249
X52.979 Y63.039 R0.249
X52.717 Y64. R0.522
G1 X52.421
X52.286 Y63.993
X52.169 Y63.926
X52.075 Y63.829
X52.008 Y63.649
Y63.457
X52.073 Y63.277
X52.196 Y63.129
X52.363 Y63.033
X52.552 Y63.
G3 X52.664 Y63.031 R0.249
G1 X52.672 Y63.036
G3 X52.421 Y64. R0.52
G1 X52.111
X51.976 Y63.993
X51.861 Y63.923
X51.768 Y63.825
X51.704 Y63.645
X51.705 Y63.454
X51.771 Y63.274
X51.895 Y63.128
X52.06 Y63.033
X52.249 Y63.
G3 X52.374 Y63.039 R0.249
X52.111 Y64. R0.522
G1 X51.813
X51.678 Y63.993
X51.562 Y63.925
X51.468 Y63.828
X51.402 Y63.648
Y63.456
X51.468 Y63.276
X51.591 Y63.129
X51.757 Y63.033
X51.946 Y63.
G3 X52.058 Y63.031 R0.249
X52.067 Y63.037 R0.249
X51.813 Y64. R0.52
G1 X51.506
X51.371 Y63.993
X51.256 Y63.923
X51.162 Y63.826
X51.098 Y63.645
X51.099 Y63.454
X51.165 Y63.275
X51.289 Y63.128
X51.454 Y63.033
X51.643 Y63.
G3 X51.755 Y63.031 R0.249
X51.768 Y63.039 R0.249
X51.506 Y64. R0.522
G1 X51.21
X51.075 Y63.993
X50.958 Y63.926
X50.863 Y63.829
X50.797 Y63.649
Y63.457
X50.862 Y63.277
X50.985 Y63.129
X51.151 Y63.033
X51.34 Y63.
G3 X51.453 Y63.031 R0.249
G1 X51.461 Y63.036
G3 X51.21 Y64. R0.52
G1 X50.9
X50.765 Y63.993
X50.65 Y63.923
X50.556 Y63.825
X50.492 Y63.645
X50.494 Y63.454
X50.56 Y63.274
X50.683 Y63.128
X50.849 Y63.033
X51.037 Y63.
G3 X51.163 Y63.039 R0.249
X50.9 Y64. R0.522
G1 X50.602
X50.467 Y63.993
X50.351 Y63.925
X50.257 Y63.828
X50.191 Y63.648
Y63.456
X50.256 Y63.276
X50.38 Y63.129
X50.546 Y63.033
X50.735 Y63.
G3 X50.847 Y63.031 R0.249
X50.856 Y63.037 R0.249
X50.602 Y64. R0.52
G1 X50.295
X50.16 Y63.993
X50.044 Y63.923
X49.951 Y63.826
X49.887 Y63.645
X49.888 Y63.454
X49.954 Y63.275
X50.077 Y63.128
X50.243 Y63.033
X50.432 Y63.
G3 X50.544 Y63.031 R0.249
X50.557 Y63.039 R0.249
X50.295 Y64. R0.522
G1 X49.998
X49.863 Y63.993
X49.747 Y63.926
X49.652 Y63.829
X49.586 Y63.649
X49.585 Y63.457
X49.651 Y63.277
X49.774 Y63.129
X49.94 Y63.033
X50.129 Y63.
G3 X50.242 Y63.031 R0.249
G1 X50.249 Y63.036
G3 X49.998 Y64. R0.52
G1 X49.688
X49.554 Y63.993
X49.438 Y63.923
X49.345 Y63.825
X49.281 Y63.645
X49.282 Y63.454
X49.349 Y63.274
X49.472 Y63.128
X49.638 Y63.033
X49.826 Y63.
G3 X49.939 Y63.031 R0.249
X49.952 Y63.039 R0.249
X49.688 Y64. R0.522
G1 X49.391
X49.256 Y63.993
X49.139 Y63.925
X49.045 Y63.828
X48.98 Y63.648
Y63.456
X49.045 Y63.276
X49.168 Y63.129
X49.335 Y63.033
X49.523 Y63.
G3 X49.636 Y63.031 R0.249
X49.645 Y63.037 R0.249
X49.391 Y64. R0.52
G1 X49.083
X48.949 Y63.993
X48.833 Y63.923
X48.74 Y63.826
X48.676 Y63.645
X48.677 Y63.454
X48.743 Y63.275
X48.866 Y63.128
X49.032 Y63.033
X49.22 Y63.
G3 X49.333 Y63.031 R0.249
X49.345 Y63.039 R0.249
X49.083 Y64. R0.522
G1 X48.787
X48.652 Y63.993
X48.535 Y63.926
X48.441 Y63.829
X48.375 Y63.649
X48.374 Y63.457
X48.44 Y63.277
X48.563 Y63.129
X48.729 Y63.033
X48.918 Y63.
G3 X49.03 Y63.031 R0.249
G1 X49.038 Y63.036
G3 X48.787 Y64. R0.52
G1 X48.477
X48.342 Y63.993
X48.227 Y63.923
X48.134 Y63.825
X48.07 Y63.645
X48.071 Y63.454
X48.137 Y63.274
X48.261 Y63.128
X48.427 Y63.033
X48.615 Y63.
G3 X48.727 Y63.031 R0.249
X48.741 Y63.039 R0.249
X48.477 Y64. R0.522
G1 X48.18
X48.045 Y63.993
X47.928 Y63.925
X47.834 Y63.828
X47.768 Y63.648
Y63.456
X47.834 Y63.276
X47.957 Y63.129
X48.123 Y63.033
X48.312 Y63.
G3 X48.425 Y63.031 R0.249
X48.434 Y63.037 R0.249
X48.18 Y64. R0.52
G1 X47.872
X47.737 Y63.993
X47.622 Y63.923
X47.529 Y63.826
X47.464 Y63.645
X47.465 Y63.454
X47.532 Y63.275
X47.655 Y63.128
X47.821 Y63.033
X48.009 Y63.
G3 X48.122 Y63.031 R0.249
X48.134 Y63.039 R0.249
X47.872 Y64. R0.522
G1 X47.576
X47.441 Y63.993
X47.324 Y63.926
X47.23 Y63.829
X47.163 Y63.649
Y63.457
X47.228 Y63.277
X47.351 Y63.129
X47.518 Y63.033
X47.707 Y63.
G3 X47.819 Y63.031 R0.249
G1 X47.827 Y63.036
G3 X47.576 Y64. R0.52
G1 X47.266
X47.131 Y63.993
X47.016 Y63.923
X46.923 Y63.825
X46.859 Y63.645
X46.86 Y63.454
X46.926 Y63.274
X47.05 Y63.128
X47.215 Y63.033
X47.404 Y63.
G3 X47.516 Y63.031 R0.249
X47.529 Y63.039 R0.249
X47.266 Y64. R0.522
G1 X46.968
X46.834 Y63.993
X46.717 Y63.925
X46.623 Y63.828
X46.557 Y63.648
Y63.456
X46.623 Y63.276
X46.746 Y63.129
X46.912 Y63.033
X47.101 Y63.
G3 X47.213 Y63.031 R0.249
X47.223 Y63.037 R0.249
X46.968 Y64. R0.52
G1 X46.661
X46.526 Y63.993
X46.411 Y63.923
X46.317 Y63.826
X46.253 Y63.645
X46.254 Y63.454
X46.32 Y63.275
X46.444 Y63.128
X46.61 Y63.033
X46.798 Y63.
G3 X46.91 Y63.031 R0.249
X46.923 Y63.039 R0.249
X46.661 Y64. R0.522
G1 X46.365
X46.23 Y63.993
X46.113 Y63.926
X46.018 Y63.829
X45.952 Y63.649
Y63.457
X46.017 Y63.277
X46.14 Y63.129
X46.306 Y63.033
X46.495 Y63.
G3 X46.608 Y63.031 R0.249
G1 X46.616 Y63.036
G3 X46.365 Y64. R0.52
G1 X46.055
X45.92 Y63.993
X45.805 Y63.923
X45.712 Y63.825
X45.648 Y63.645
X45.649 Y63.454
X45.715 Y63.274
X45.838 Y63.128
X46.004 Y63.033
X46.192 Y63.
G3 X46.305 Y63.031 R0.249
X46.318 Y63.039 R0.249
X46.055 Y64. R0.522
G1 X45.757
X45.622 Y63.993
X45.506 Y63.925
X45.412 Y63.828
X45.346 Y63.648
Y63.456
X45.411 Y63.276
X45.535 Y63.129
X45.701 Y63.033
X45.89 Y63.
G3 X46.002 Y63.031 R0.249
X46.011 Y63.037 R0.249
X45.757 Y64. R0.52
G1 X45.45
X45.315 Y63.993
X45.2 Y63.923
X45.106 Y63.826
X45.042 Y63.645
X45.043 Y63.454
X45.109 Y63.275
X45.232 Y63.128
X45.398 Y63.033
X45.587 Y63.
G3 X45.699 Y63.031 R0.249
X45.712 Y63.039 R0.249
X45.45 Y64. R0.522
G1 X45.153
X45.019 Y63.993
X44.902 Y63.926
X44.807 Y63.829
X44.741 Y63.649
Y63.457
X44.806 Y63.277
X44.929 Y63.129
X45.095 Y63.033
X45.284 Y63.
G3 X45.397 Y63.031 R0.249
G1 X45.405 Y63.036
G3 X45.153 Y64. R0.52
G1 X44.843
X44.709 Y63.993
X44.593 Y63.923
X44.5 Y63.825
X44.436 Y63.645
X44.437 Y63.454
X44.504 Y63.274
X44.627 Y63.128
X44.793 Y63.033
X44.981 Y63.
G3 X45.094 Y63.031 R0.249
X45.107 Y63.039 R0.249
X44.843 Y64. R0.522
G1 X44.546
X44.411 Y63.993
X44.295 Y63.925
X44.2 Y63.828
X44.135 Y63.648
Y63.456
X44.2 Y63.276
X44.324 Y63.129
X44.49 Y63.033
X44.678 Y63.
G3 X44.791 Y63.031 R0.249
X44.8 Y63.037 R0.249
X44.546 Y64. R0.52
G1 X44.239
X44.104 Y63.993
X43.988 Y63.923
X43.895 Y63.826
X43.831 Y63.645
X43.832 Y63.454
X43.898 Y63.275
X44.021 Y63.128
X44.187 Y63.033
X44.376 Y63.
G3 X44.488 Y63.031 R0.249
X44.501 Y63.039 R0.249
X44.239 Y64. R0.522
G1 X43.942
X43.807 Y63.993
X43.69 Y63.926
X43.596 Y63.829
X43.53 Y63.649
X43.529 Y63.457
X43.595 Y63.277
X43.718 Y63.129
X43.884 Y63.033
X44.073 Y63.
G3 X44.185 Y63.031 R0.249
G1 X44.193 Y63.036
G3 X43.942 Y64. R0.52
G1 X43.632
X43.497 Y63.993
X43.382 Y63.923
X43.289 Y63.825
X43.225 Y63.645
X43.226 Y63.454
X43.293 Y63.274
X43.416 Y63.128
X43.582 Y63.033
X43.77 Y63.
G3 X43.882 Y63.031 R0.249
X43.896 Y63.039 R0.249
X43.632 Y64. R0.522
G1 X43.335
X43.2 Y63.993
X43.083 Y63.925
X42.989 Y63.828
X42.924 Y63.648
X42.923 Y63.456
X42.989 Y63.276
X43.112 Y63.129
X43.278 Y63.033
X43.467 Y63.
G3 X43.58 Y63.031 R0.249
X43.589 Y63.037 R0.249
X43.335 Y64. R0.52
G1 X43.027
X42.892 Y63.993
X42.777 Y63.923
X42.684 Y63.826
X42.619 Y63.645
X42.62 Y63.454
X42.687 Y63.275
X42.81 Y63.128
X42.976 Y63.033
X43.164 Y63.
G3 X43.277 Y63.031 R0.249
X43.289 Y63.039 R0.249
X43.027 Y64. R0.522
G1 X42.731
X42.596 Y63.993
X42.479 Y63.926
X42.385 Y63.829
X42.319 Y63.649
X42.318 Y63.457
X42.383 Y63.277
X42.507 Y63.129
X42.673 Y63.033
X42.862 Y63.
G3 X42.974 Y63.031 R0.249
G1 X42.982 Y63.036
G3 X42.731 Y64. R0.52
G1 X42.421
X42.286 Y63.993
X42.171 Y63.923
X42.078 Y63.825
X42.014 Y63.645
X42.015 Y63.454
X42.081 Y63.274
X42.205 Y63.128
X42.37 Y63.033
X42.559 Y63.
G3 X42.671 Y63.031 R0.249
X42.685 Y63.039 R0.249
X42.421 Y64. R0.522
G1 X42.123
X41.989 Y63.993
X41.872 Y63.925
X41.778 Y63.828
X41.712 Y63.648
Y63.456
X41.778 Y63.276
X41.901 Y63.129
X42.067 Y63.033
X42.256 Y63.
G3 X42.368 Y63.031 R0.249
X42.378 Y63.037 R0.249
X42.123 Y64. R0.52
G1 X41.816
X41.681 Y63.993
X41.566 Y63.923
X41.473 Y63.826
X41.408 Y63.645
X41.409 Y63.454
X41.475 Y63.275
X41.599 Y63.128
X41.765 Y63.033
X41.953 Y63.
G3 X42.065 Y63.031 R0.249
X42.078 Y63.039 R0.249
X41.816 Y64. R0.522
G1 X41.52
X41.385 Y63.993
X41.268 Y63.926
X41.173 Y63.829
X41.107 Y63.649
Y63.457
X41.172 Y63.277
X41.295 Y63.129
X41.461 Y63.033
X41.651 Y63.
G3 X41.763 Y63.031 R0.249
G1 X41.771 Y63.036
G3 X41.52 Y64. R0.52
G1 X41.21
X41.075 Y63.993
X40.96 Y63.923
X40.867 Y63.825
X40.803 Y63.645
X40.804 Y63.454
X40.87 Y63.274
X40.993 Y63.128
X41.159 Y63.033
X41.348 Y63.
G3 X41.46 Y63.031 R0.249
X41.473 Y63.039 R0.249
X41.21 Y64. R0.522
G1 X40.912
X40.777 Y63.993
X40.661 Y63.925
X40.567 Y63.828
X40.501 Y63.648
Y63.456
X40.567 Y63.276
X40.69 Y63.129
X40.856 Y63.033
X41.045 Y63.
G3 X41.157 Y63.031 R0.249
X41.166 Y63.037 R0.249
X40.912 Y64. R0.52
G1 X40.605
X40.47 Y63.993
X40.355 Y63.923
X40.261 Y63.826
X40.197 Y63.645
X40.198 Y63.454
X40.264 Y63.275
X40.388 Y63.128
X40.553 Y63.033
X40.742 Y63.
G3 X40.854 Y63.031 R0.249
X40.867 Y63.039 R0.249
X40.605 Y64. R0.522
G1 X40.308
X40.174 Y63.993
X40.057 Y63.926
X39.962 Y63.829
X39.896 Y63.649
Y63.457
X39.961 Y63.277
X40.084 Y63.129
X40.25 Y63.033
X40.439 Y63.
G3 X40.552 Y63.031 R0.249
G1 X40.56 Y63.036
G3 X40.308 Y64. R0.52
G1 X39.999
X39.864 Y63.993
X39.749 Y63.923
X39.655 Y63.825
X39.591 Y63.645
X39.593 Y63.454
X39.659 Y63.274
X39.782 Y63.128
X39.948 Y63.033
X40.136 Y63.
G3 X40.249 Y63.031 R0.249
X40.262 Y63.039 R0.249
X39.999 Y64. R0.522
G1 X39.701
X39.566 Y63.993
X39.45 Y63.925
X39.355 Y63.828
X39.29 Y63.648
Y63.456
X39.355 Y63.276
X39.479 Y63.129
X39.645 Y63.033
X39.834 Y63.
G3 X39.946 Y63.031 R0.249
X39.955 Y63.037 R0.249
X39.701 Y64. R0.52
G1 X39.394
X39.259 Y63.993
X39.143 Y63.923
X39.05 Y63.826
X38.986 Y63.645
X38.987 Y63.454
X39.053 Y63.275
X39.176 Y63.128
X39.342 Y63.033
X39.531 Y63.
G3 X39.643 Y63.031 R0.249
X39.656 Y63.039 R0.249
X39.394 Y64. R0.522
G1 X39.097
X38.962 Y63.993
X38.845 Y63.926
X38.751 Y63.829
X38.685 Y63.649
X38.684 Y63.457
X38.75 Y63.277
X38.873 Y63.129
X39.039 Y63.033
X39.228 Y63.
G3 X39.34 Y63.031 R0.249
G1 X39.348 Y63.036
G3 X39.097 Y64. R0.52
G1 X38.787
X38.653 Y63.993
X38.537 Y63.923
X38.444 Y63.825
X38.38 Y63.645
X38.381 Y63.454
X38.448 Y63.274
X38.571 Y63.128
X38.737 Y63.033
X38.925 Y63.
G3 X39.038 Y63.031 R0.249
X39.051 Y63.039 R0.249
X38.787 Y64. R0.522
G1 X38.49
X38.355 Y63.993
X38.238 Y63.925
X38.144 Y63.828
X38.079 Y63.648
Y63.456
X38.144 Y63.276
X38.267 Y63.129
X38.433 Y63.033
X38.622 Y63.
G3 X38.735 Y63.031 R0.249
X38.744 Y63.037 R0.249
X38.49 Y64. R0.52
G1 X38.182
X38.048 Y63.993
X37.932 Y63.923
X37.839 Y63.826
X37.775 Y63.645
X37.776 Y63.454
X37.842 Y63.275
X37.965 Y63.128
X38.131 Y63.033
X38.319 Y63.
G3 X38.432 Y63.031 R0.249
X38.444 Y63.039 R0.249
X38.182 Y64. R0.522
G1 X37.886
X37.751 Y63.993
X37.634 Y63.926
X37.54 Y63.829
X37.474 Y63.649
X37.473 Y63.457
X37.538 Y63.277
X37.662 Y63.129
X37.828 Y63.033
X38.017 Y63.
G3 X38.129 Y63.031 R0.249
G1 X38.137 Y63.036
G3 X37.886 Y64. R0.52
G1 X37.576
X37.441 Y63.993
X37.326 Y63.923
X37.233 Y63.825
X37.169 Y63.645
X37.17 Y63.454
X37.236 Y63.274
X37.36 Y63.128
X37.526 Y63.033
X37.714 Y63.
G3 X37.826 Y63.031 R0.249
X37.84 Y63.039 R0.249
X37.576 Y64. R0.522
G1 X37.279
X37.144 Y63.993
X37.027 Y63.925
X36.933 Y63.828
X36.867 Y63.648
Y63.456
X36.933 Y63.276
X37.056 Y63.129
X37.222 Y63.033
X37.411 Y63.
G3 X37.524 Y63.031 R0.249
X37.533 Y63.037 R0.249
X37.279 Y64. R0.52
G1 X36.971
X36.836 Y63.993
X36.721 Y63.923
X36.628 Y63.826
X36.563 Y63.645
X36.564 Y63.454
X36.63 Y63.275
X36.754 Y63.128
X36.92 Y63.033
X37.108 Y63.
G3 X37.221 Y63.031 R0.249
X37.233 Y63.039 R0.249
X36.971 Y64. R0.522
G1 X36.675
X36.54 Y63.993
X36.423 Y63.926
X36.329 Y63.829
X36.262 Y63.649
Y63.457
X36.327 Y63.277
X36.45 Y63.129
X36.617 Y63.033
X36.806 Y63.
G3 X36.918 Y63.031 R0.249
G1 X36.926 Y63.036
G3 X36.675 Y64. R0.52
G1 X36.365
X36.23 Y63.993
X36.115 Y63.923
X36.022 Y63.825
X35.958 Y63.645
X35.959 Y63.454
X36.025 Y63.274
X36.149 Y63.128
X36.314 Y63.033
X36.503 Y63.
G3 X36.615 Y63.031 R0.249
X36.628 Y63.039 R0.249
X36.365 Y64. R0.522
G1 X36.067
X35.933 Y63.993
X35.816 Y63.925
X35.722 Y63.828
X35.656 Y63.648
Y63.456
X35.722 Y63.276
X35.845 Y63.129
X36.011 Y63.033
X36.2 Y63.
G3 X36.312 Y63.031 R0.249
X36.322 Y63.037 R0.249
X36.067 Y64. R0.52
G1 X35.76
X35.625 Y63.993
X35.51 Y63.923
X35.416 Y63.826
X35.352 Y63.645
X35.353 Y63.454
X35.419 Y63.275
X35.543 Y63.128
X35.708 Y63.033
X35.897 Y63.
G3 X36.009 Y63.031 R0.249
X36.022 Y63.039 R0.249
X35.76 Y64. R0.522
G1 X35.464
X35.329 Y63.993
X35.212 Y63.926
X35.117 Y63.829
X35.051 Y63.649
Y63.457
X35.116 Y63.277
X35.239 Y63.129
X35.405 Y63.033
X35.594 Y63.
G3 X35.707 Y63.031 R0.249
G1 X35.715 Y63.036
G3 X35.464 Y64. R0.52
G1 X35.154
X35.019 Y63.993
X34.904 Y63.923
X34.811 Y63.825
X34.746 Y63.645
X34.748 Y63.454
X34.814 Y63.274
X34.937 Y63.128
X35.103 Y63.033
X35.291 Y63.
G3 X35.404 Y63.031 R0.249
X35.417 Y63.039 R0.249
X35.154 Y64. R0.522
G1 X34.856
X34.721 Y63.993
X34.605 Y63.925
X34.511 Y63.828
X34.445 Y63.648
Y63.456
X34.51 Y63.276
X34.634 Y63.129
X34.8 Y63.033
X34.989 Y63.
G3 X35.101 Y63.031 R0.249
X35.11 Y63.037 R0.249
X34.856 Y64. R0.52
G1 X34.549
X34.414 Y63.993
X34.298 Y63.923
X34.205 Y63.826
X34.141 Y63.645
X34.142 Y63.454
X34.208 Y63.275
X34.331 Y63.128
X34.497 Y63.033
X34.686 Y63.
G3 X34.798 Y63.031 R0.249
X34.811 Y63.039 R0.249
X34.549 Y64. R0.522
G1 X34.252
X34.117 Y63.993
X34.001 Y63.926
X33.906 Y63.829
X33.84 Y63.649
X33.839 Y63.457
X33.905 Y63.277
X34.028 Y63.129
X34.194 Y63.033
X34.383 Y63.
G3 X34.496 Y63.031 R0.249
G1 X34.503 Y63.036
G3 X34.252 Y64. R0.52
G1 X33.942
X33.808 Y63.993
X33.692 Y63.923
X33.599 Y63.825
X33.535 Y63.645
X33.536 Y63.454
X33.603 Y63.274
X33.726 Y63.128
X33.892 Y63.033
X34.08 Y63.
G3 X34.193 Y63.031 R0.249
X34.206 Y63.039 R0.249
X33.942 Y64. R0.522
G1 X33.645
X33.51 Y63.993
X33.393 Y63.925
X33.299 Y63.828
X33.234 Y63.648
Y63.456
X33.299 Y63.276
X33.422 Y63.129
X33.589 Y63.033
X33.777 Y63.
G3 X33.89 Y63.031 R0.249
X33.899 Y63.037 R0.249
X33.645 Y64. R0.52
G1 X33.338
X33.203 Y63.993
X33.087 Y63.923
X32.994 Y63.826
X32.93 Y63.645
X32.931 Y63.454
X32.997 Y63.275
X33.12 Y63.128
X33.286 Y63.033
X33.474 Y63.
G3 X33.587 Y63.031 R0.249
X33.6 Y63.039 R0.249
X33.338 Y64. R0.522
G1 X33.041
X32.906 Y63.993
X32.789 Y63.926
X32.695 Y63.829
X32.629 Y63.649
X32.628 Y63.457
X32.694 Y63.277
X32.817 Y63.129
X32.983 Y63.033
X33.172 Y63.
G3 X33.284 Y63.031 R0.249
G1 X33.292 Y63.036
G3 X33.041 Y64. R0.52
G1 X32.731
X32.596 Y63.993
X32.481 Y63.923
X32.388 Y63.825
X32.324 Y63.645
X32.325 Y63.454
X32.391 Y63.274
X32.515 Y63.128
X32.681 Y63.033
X32.869 Y63.
G3 X32.981 Y63.031 R0.249
X32.995 Y63.039 R0.249
X32.731 Y64. R0.522
G1 X32.434
X32.299 Y63.993
X32.182 Y63.925
X32.088 Y63.828
X32.022 Y63.648
Y63.456
X32.088 Y63.276
X32.211 Y63.129
X32.377 Y63.033
X32.566 Y63.
G3 X32.679 Y63.031 R0.249
X32.688 Y63.037 R0.249
X32.434 Y64. R0.52
G1 X32.126
X31.991 Y63.993
X31.876 Y63.923
X31.783 Y63.826
X31.718 Y63.645
X31.719 Y63.454
X31.786 Y63.275
X31.909 Y63.128
X32.075 Y63.033
X32.263 Y63.
G3 X32.376 Y63.031 R0.249
X32.388 Y63.039 R0.249
X32.126 Y64. R0.522
G1 X31.83
X31.695 Y63.993
X31.578 Y63.926
X31.484 Y63.829
X31.417 Y63.649
Y63.457
X31.482 Y63.277
X31.606 Y63.129
X31.772 Y63.033
X31.961 Y63.
G3 X32.073 Y63.031 R0.249
G1 X32.081 Y63.036
G3 X31.83 Y64. R0.52
G1 X31.52
X31.385 Y63.993
X31.27 Y63.923
X31.177 Y63.825
X31.113 Y63.645
X31.114 Y63.454
X31.18 Y63.274
X31.304 Y63.128
X31.469 Y63.033
X31.658 Y63.
G3 X31.77 Y63.031 R0.249
X31.783 Y63.039 R0.249
X31.52 Y64. R0.522
G1 X31.222
X31.088 Y63.993
X30.971 Y63.925
X30.877 Y63.828
X30.811 Y63.648
Y63.456
X30.877 Y63.276
X31. Y63.129
X31.166 Y63.033
X31.355 Y63.
G3 X31.467 Y63.031 R0.249
X31.477 Y63.037 R0.249
X31.222 Y64. R0.52
G1 X30.915
X30.78 Y63.993
X30.665 Y63.923
X30.571 Y63.826
X30.507 Y63.645
X30.508 Y63.454
X30.574 Y63.275
X30.698 Y63.128
X30.864 Y63.033
X31.052 Y63.
G3 X31.164 Y63.031 R0.249
X31.177 Y63.039 R0.249
X30.915 Y64. R0.522
G1 X30.619
X30.484 Y63.993
X30.367 Y63.926
X30.272 Y63.829
X30.206 Y63.649
Y63.457
X30.271 Y63.277
X30.394 Y63.129
X30.56 Y63.033
X30.749 Y63.
G3 X30.862 Y63.031 R0.249
G1 X30.87 Y63.036
G3 X30.619 Y64. R0.52
G1 X30.309
X30.174 Y63.993
X30.059 Y63.923
X29.966 Y63.825
X29.902 Y63.645
X29.903 Y63.454
X29.969 Y63.274
X30.092 Y63.128
X30.258 Y63.033
X30.447 Y63.
G3 X30.559 Y63.031 R0.249
X30.572 Y63.039 R0.249
X30.309 Y64. R0.522
G1 X30.011
X29.876 Y63.993
X29.76 Y63.925
X29.666 Y63.828
X29.6 Y63.648
Y63.456
X29.666 Y63.276
X29.789 Y63.129
X29.955 Y63.033
X30.144 Y63.
G3 X30.256 Y63.031 R0.249
X30.265 Y63.037 R0.249
X30.011 Y64. R0.52
G1 X29.704
X29.569 Y63.993
X29.454 Y63.923
X29.36 Y63.826
X29.296 Y63.645
X29.297 Y63.454
X29.363 Y63.275
X29.487 Y63.128
X29.652 Y63.033
X29.841 Y63.
G3 X29.953 Y63.031 R0.249
X29.966 Y63.039 R0.249
X29.704 Y64. R0.522
G1 X29.407
X29.273 Y63.993
X29.156 Y63.926
X29.061 Y63.829
X28.995 Y63.649
Y63.457
X29.06 Y63.277
X29.183 Y63.129
X29.349 Y63.033
X29.538 Y63.
G3 X29.651 Y63.031 R0.249
G1 X29.659 Y63.036
G3 X29.407 Y64. R0.52
G1 X29.098
X28.963 Y63.993
X28.848 Y63.923
X28.754 Y63.825
X28.69 Y63.645
X28.692 Y63.454
X28.758 Y63.274
X28.881 Y63.128
X29.047 Y63.033
X29.235 Y63.
G3 X29.348 Y63.031 R0.249
X29.361 Y63.039 R0.249
X29.098 Y64. R0.522
G1 X28.8
X28.665 Y63.993
X28.549 Y63.925
X28.454 Y63.828
X28.389 Y63.648
Y63.456
X28.454 Y63.276
X28.578 Y63.129
X28.744 Y63.033
X28.933 Y63.
G3 X29.045 Y63.031 R0.249
X29.054 Y63.037 R0.249
X28.8 Y64. R0.52
G1 X28.493
X28.358 Y63.993
X28.242 Y63.923
X28.149 Y63.826
X28.085 Y63.645
X28.086 Y63.454
X28.152 Y63.275
X28.275 Y63.128
X28.441 Y63.033
X28.63 Y63.
G3 X28.742 Y63.031 R0.249
X28.755 Y63.039 R0.249
X28.493 Y64. R0.522
G1 X28.196
X28.061 Y63.993
X27.944 Y63.926
X27.85 Y63.829
X27.784 Y63.649
X27.783 Y63.457
X27.849 Y63.277
X27.972 Y63.129
X28.138 Y63.033
X28.327 Y63.
G3 X28.439 Y63.031 R0.249
G1 X28.447 Y63.036
G3 X28.196 Y64. R0.52
G1 X27.886
X27.751 Y63.993
X27.636 Y63.923
X27.543 Y63.825
X27.479 Y63.645
X27.48 Y63.454
X27.547 Y63.274
X27.67 Y63.128
X27.836 Y63.033
X28.024 Y63.
G3 X28.137 Y63.031 R0.249
X28.15 Y63.039 R0.249
X27.886 Y64. R0.522
G1 X27.589
X27.454 Y63.993
X27.337 Y63.925
X27.243 Y63.828
X27.178 Y63.648
Y63.456
X27.243 Y63.276
X27.366 Y63.129
X27.532 Y63.033
X27.721 Y63.
G3 X27.834 Y63.031 R0.249
X27.843 Y63.037 R0.249
X27.589 Y64. R0.52
G1 X27.281
X27.147 Y63.993
X27.031 Y63.923
X26.938 Y63.826
X26.874 Y63.645
Y63.454
X26.941 Y63.275
X27.064 Y63.128
X27.23 Y63.033
X27.418 Y63.
G3 X27.531 Y63.031 R0.249
X27.543 Y63.039 R0.249
X27.281 Y64. R0.522
G1 X26.985
X26.85 Y63.993
X26.733 Y63.926
X26.639 Y63.829
X26.573 Y63.649
X26.572 Y63.457
X26.637 Y63.277
X26.761 Y63.129
X26.927 Y63.033
X27.116 Y63.
G3 X27.228 Y63.031 R0.249
G1 X27.236 Y63.036
G3 X26.985 Y64. R0.52
G1 X26.675
X26.54 Y63.993
X26.425 Y63.923
X26.332 Y63.825
X26.268 Y63.645
X26.269 Y63.454
X26.335 Y63.274
X26.459 Y63.128
X26.625 Y63.033
X26.813 Y63.
G3 X26.925 Y63.031 R0.249
X26.939 Y63.039 R0.249
X26.675 Y64. R0.522
G1 X26.378
X26.243 Y63.993
X26.126 Y63.925
X26.032 Y63.828
X25.966 Y63.648
Y63.456
X26.032 Y63.276
X26.155 Y63.129
X26.321 Y63.033
X26.51 Y63.
G3 X26.623 Y63.031 R0.249
X26.632 Y63.037 R0.249
X26.378 Y64. R0.52
G1 X26.07
X25.935 Y63.993
X25.82 Y63.923
X25.727 Y63.826
X25.662 Y63.645
X25.663 Y63.454
X25.729 Y63.275
X25.853 Y63.128
X26.019 Y63.033
X26.207 Y63.
G3 X26.32 Y63.031 R0.249
X26.332 Y63.039 R0.249
X26.07 Y64. R0.522
G1 X25.774
X25.639 Y63.993
X25.522 Y63.926
X25.428 Y63.829
X25.361 Y63.649
Y63.457
X25.426 Y63.277
X25.549 Y63.129
X25.716 Y63.033
X25.905 Y63.
G3 X26.017 Y63.031 R0.249
G1 X26.025 Y63.036
G3 X25.774 Y64. R0.52
G1 X25.464
X25.329 Y63.993
X25.214 Y63.923
X25.121 Y63.825
X25.057 Y63.645
X25.058 Y63.454
X25.124 Y63.274
X25.248 Y63.128
X25.413 Y63.033
X25.602 Y63.
G3 X25.714 Y63.031 R0.249
X25.727 Y63.039 R0.249
X25.464 Y64. R0.522
G1 X25.166
X25.031 Y63.993
X24.915 Y63.925
X24.821 Y63.828
X24.755 Y63.648
Y63.456
X24.821 Y63.276
X24.944 Y63.129
X25.11 Y63.033
X25.299 Y63.
G3 X25.411 Y63.031 R0.249
X25.42 Y63.037 R0.249
X25.166 Y64. R0.52
G1 X24.859
X24.724 Y63.993
X24.609 Y63.923
X24.515 Y63.826
X24.451 Y63.645
X24.452 Y63.454
X24.518 Y63.275
X24.642 Y63.128
X24.807 Y63.033
X24.996 Y63.
G3 X25.108 Y63.031 R0.249
X25.121 Y63.039 R0.249
X24.859 Y64. R0.522
G1 X24.562
X24.428 Y63.993
X24.311 Y63.926
X24.216 Y63.829
X24.15 Y63.649
Y63.457
X24.215 Y63.277
X24.338 Y63.129
X24.504 Y63.033
X24.693 Y63.
G3 X24.806 Y63.031 R0.249
G1 X24.814 Y63.036
G3 X24.562 Y64. R0.52
G1 X24.253
X24.118 Y63.993
X24.003 Y63.923
X23.909 Y63.825
X23.845 Y63.645
X23.847 Y63.454
X23.913 Y63.274
X24.036 Y63.128
X24.202 Y63.033
X24.39 Y63.
G3 X24.503 Y63.031 R0.249
X24.516 Y63.039 R0.249
X24.253 Y64. R0.522
G1 X23.955
X23.82 Y63.993
X23.704 Y63.925
X23.61 Y63.828
X23.544 Y63.648
Y63.456
X23.609 Y63.276
X23.733 Y63.129
X23.899 Y63.033
X24.088 Y63.
G3 X24.2 Y63.031 R0.249
X24.209 Y63.037 R0.249
X23.955 Y64. R0.52
G1 X23.648
X23.513 Y63.993
X23.397 Y63.923
X23.304 Y63.826
X23.24 Y63.645
X23.241 Y63.454
X23.307 Y63.275
X23.43 Y63.128
X23.596 Y63.033
X23.785 Y63.
G3 X23.897 Y63.031 R0.249
X23.91 Y63.039 R0.249
X23.648 Y64. R0.522
G1 X23.351
X23.216 Y63.993
X23.1 Y63.926
X23.005 Y63.829
X22.939 Y63.649
X22.938 Y63.457
X23.004 Y63.277
X23.127 Y63.129
X23.293 Y63.033
X23.482 Y63.
G3 X23.595 Y63.031 R0.249
G1 X23.602 Y63.036
G3 X23.351 Y64. R0.52
G1 X23.041
X22.907 Y63.993
X22.791 Y63.923
X22.698 Y63.825
X22.634 Y63.645
X22.635 Y63.454
X22.702 Y63.274
X22.825 Y63.128
X22.991 Y63.033
X23.179 Y63.
G3 X23.292 Y63.031 R0.249
X23.305 Y63.039 R0.249
X23.041 Y64. R0.522
G1 X22.744
X22.609 Y63.993
X22.492 Y63.925
X22.398 Y63.828
X22.333 Y63.648
Y63.456
X22.398 Y63.276
X22.521 Y63.129
X22.688 Y63.033
X22.876 Y63.
G3 X22.989 Y63.031 R0.249
X22.998 Y63.037 R0.249
X22.744 Y64. R0.52
G1 X22.436
X22.302 Y63.993
X22.186 Y63.923
X22.093 Y63.826
X22.029 Y63.645
X22.03 Y63.454
X22.096 Y63.275
X22.219 Y63.128
X22.385 Y63.033
X22.573 Y63.
G3 X22.686 Y63.031 R0.249
X22.698 Y63.039 R0.249
X22.436 Y64. R0.522
G1 X22.14
X22.005 Y63.993
X21.888 Y63.926
X21.794 Y63.829
X21.728 Y63.649
X21.727 Y63.457
X21.793 Y63.277
X21.916 Y63.129
X22.082 Y63.033
X22.271 Y63.
G3 X22.383 Y63.031 R0.249
G1 X22.391 Y63.036
G3 X22.14 Y64. R0.52
G1 X21.83
X21.695 Y63.993
X21.58 Y63.923
X21.487 Y63.825
X21.423 Y63.645
X21.424 Y63.454
X21.49 Y63.274
X21.614 Y63.128
X21.78 Y63.033
X21.968 Y63.
G3 X22.08 Y63.031 R0.249
X22.094 Y63.039 R0.249
X21.83 Y64. R0.522
G1 X21.533
X21.398 Y63.993
X21.281 Y63.925
X21.187 Y63.828
X21.121 Y63.648
Y63.456
X21.187 Y63.276
X21.31 Y63.129
X21.476 Y63.033
X21.665 Y63.
G3 X21.778 Y63.031 R0.249
X21.787 Y63.037 R0.249
X21.533 Y64. R0.52
G1 X21.225
X21.09 Y63.993
X20.975 Y63.923
X20.882 Y63.826
X20.817 Y63.645
X20.818 Y63.454
X20.885 Y63.275
X21.008 Y63.128
X21.174 Y63.033
X21.362 Y63.
G3 X21.475 Y63.031 R0.249
X21.487 Y63.039 R0.249
X21.225 Y64. R0.522
G1 X20.929
X20.794 Y63.993
X20.677 Y63.926
X20.583 Y63.829
X20.516 Y63.649
Y63.457
X20.581 Y63.277
X20.704 Y63.129
X20.871 Y63.033
X21.06 Y63.
G3 X21.172 Y63.031 R0.249
G1 X21.18 Y63.036
G3 X20.929 Y64. R0.52
G1 X20.619
X20.484 Y63.993
X20.369 Y63.923
X20.276 Y63.825
X20.212 Y63.645
X20.213 Y63.454
X20.279 Y63.274
X20.403 Y63.128
X20.568 Y63.033
X20.757 Y63.
G3 X20.869 Y63.031 R0.249
X20.882 Y63.039 R0.249
X20.619 Y64. R0.522
G1 X20.321
X20.187 Y63.993
X20.07 Y63.925
X19.976 Y63.828
X19.91 Y63.648
Y63.456
X19.976 Y63.276
X20.099 Y63.129
X20.265 Y63.033
X20.454 Y63.
G3 X20.566 Y63.031 R0.249
X20.576 Y63.037 R0.249
X20.321 Y64. R0.52
G1 X20.014
X19.879 Y63.993
X19.764 Y63.923
X19.67 Y63.826
X19.606 Y63.645
X19.607 Y63.454
X19.673 Y63.275
X19.797 Y63.128
X19.963 Y63.033
X20.151 Y63.
G3 X20.263 Y63.031 R0.249
X20.276 Y63.039 R0.249
X20.014 Y64. R0.522
G1 X19.718
X19.583 Y63.993
X19.466 Y63.926
X19.371 Y63.829
X19.305 Y63.649
Y63.457
X19.37 Y63.277
X19.493 Y63.129
X19.659 Y63.033
X19.848 Y63.
G3 X19.961 Y63.031 R0.249
G1 X19.969 Y63.036
G3 X19.718 Y64. R0.52
G1 X19.408
X19.273 Y63.993
X19.158 Y63.923
X19.065 Y63.825
X19.001 Y63.645
X19.002 Y63.454
X19.068 Y63.274
X19.191 Y63.128
X19.357 Y63.033
X19.545 Y63.
G3 X19.658 Y63.031 R0.249
X19.671 Y63.039 R0.249
X19.408 Y64. R0.522
G1 X19.11
X18.975 Y63.993
X18.859 Y63.925
X18.765 Y63.828
X18.699 Y63.648
Y63.456
X18.764 Y63.276
X18.888 Y63.129
X19.054 Y63.033
X19.243 Y63.
G3 X19.355 Y63.031 R0.249
X19.364 Y63.037 R0.249
X19.11 Y64. R0.52
G1 X18.803
X18.668 Y63.993
X18.553 Y63.923
X18.459 Y63.826
X18.395 Y63.645
X18.396 Y63.454
X18.462 Y63.275
X18.585 Y63.128
X18.751 Y63.033
X18.94 Y63.
G3 X19.052 Y63.031 R0.249
X19.065 Y63.039 R0.249
X18.803 Y64. R0.522
G1 X18.506
X18.372 Y63.993
X18.255 Y63.926
X18.16 Y63.829
X18.094 Y63.649
Y63.457
X18.159 Y63.277
X18.282 Y63.129
X18.448 Y63.033
X18.637 Y63.
G3 X18.75 Y63.031 R0.249
G1 X18.757 Y63.036
G3 X18.506 Y64. R0.52
G1 X18.196
X18.062 Y63.993
X17.946 Y63.923
X17.853 Y63.825
X17.789 Y63.645
X17.79 Y63.454
X17.857 Y63.274
X17.98 Y63.128
X18.146 Y63.033
X18.334 Y63.
G3 X18.447 Y63.031 R0.249
X18.46 Y63.039 R0.249
X18.196 Y64. R0.522
G1 X17.899
X17.764 Y63.993
X17.648 Y63.925
X17.553 Y63.828
X17.488 Y63.648
Y63.456
X17.553 Y63.276
X17.677 Y63.129
X17.843 Y63.033
X18.031 Y63.
G3 X18.144 Y63.031 R0.249
X18.153 Y63.037 R0.249
X17.899 Y64. R0.52
G1 X17.592
X17.457 Y63.993
X17.341 Y63.923
X17.248 Y63.826
X17.184 Y63.645
X17.185 Y63.454
X17.251 Y63.275
X17.374 Y63.128
X17.54 Y63.033
X17.729 Y63.
G3 X17.841 Y63.031 R0.249
X17.854 Y63.039 R0.249
X17.592 Y64. R0.522
G1 X17.295
X17.16 Y63.993
X17.043 Y63.926
X16.949 Y63.829
X16.883 Y63.649
X16.882 Y63.457
X16.948 Y63.277
X17.071 Y63.129
X17.237 Y63.033
X17.426 Y63.
G3 X17.538 Y63.031 R0.249
G1 X17.546 Y63.036
G3 X17.295 Y64. R0.52
G1 X16.985
X16.85 Y63.993
X16.735 Y63.923
X16.642 Y63.825
X16.578 Y63.645
X16.579 Y63.454
X16.646 Y63.274
X16.769 Y63.128
X16.935 Y63.033
X17.123 Y63.
G3 X17.235 Y63.031 R0.249
X17.249 Y63.039 R0.249
X16.985 Y64. R0.522
G1 X16.688
X16.553 Y63.993
X16.436 Y63.925
X16.342 Y63.828
X16.277 Y63.648
X16.276 Y63.456
X16.342 Y63.276
X16.465 Y63.129
X16.631 Y63.033
X16.82 Y63.
G3 X16.933 Y63.031 R0.249
X16.942 Y63.037 R0.249
X16.688 Y64. R0.52
G1 X16.38
X16.245 Y63.993
X16.13 Y63.923
X16.037 Y63.826
X15.972 Y63.645
X15.973 Y63.454
X16.04 Y63.275
X16.163 Y63.128
X16.329 Y63.033
X16.517 Y63.
G3 X16.63 Y63.031 R0.249
X16.642 Y63.039 R0.249
X16.38 Y64. R0.522
G1 X16.084
X15.949 Y63.993
X15.832 Y63.926
X15.738 Y63.829
X15.672 Y63.649
X15.671 Y63.457
X15.736 Y63.277
X15.86 Y63.129
X16.026 Y63.033
X16.215 Y63.
G3 X16.327 Y63.031 R0.249
G1 X16.335 Y63.036
G3 X16.084 Y64. R0.52
G1 X15.774
X15.639 Y63.993
X15.524 Y63.923
X15.431 Y63.825
X15.367 Y63.645
X15.368 Y63.454
X15.434 Y63.274
X15.558 Y63.128
X15.723 Y63.033
X15.912 Y63.
G3 X16.024 Y63.031 R0.249
X16.038 Y63.039 R0.249
X15.774 Y64. R0.522
G1 X15.476
X15.342 Y63.993
X15.225 Y63.925
X15.131 Y63.828
X15.065 Y63.648
Y63.456
X15.131 Y63.276
X15.254 Y63.129
X15.42 Y63.033
X15.609 Y63.
G3 X15.721 Y63.031 R0.249
X15.731 Y63.037 R0.249
X15.476 Y64. R0.52
G1 X15.169
X15.034 Y63.993
X14.919 Y63.923
X14.826 Y63.826
X14.761 Y63.645
X14.762 Y63.454
X14.828 Y63.275
X14.952 Y63.128
X15.118 Y63.033
X15.306 Y63.
G3 X15.418 Y63.031 R0.249
X15.431 Y63.039 R0.249
X15.169 Y64. R0.522
G1 X14.873
X14.738 Y63.993
X14.621 Y63.926
X14.526 Y63.829
X14.46 Y63.649
Y63.457
X14.525 Y63.277
X14.648 Y63.129
X14.814 Y63.033
X15.004 Y63.
G3 X15.116 Y63.031 R0.249
G1 X15.124 Y63.036
G3 X14.873 Y64. R0.52
G1 X14.563
X14.428 Y63.993
X14.313 Y63.923
X14.22 Y63.825
X14.156 Y63.645
X14.157 Y63.454
X14.223 Y63.274
X14.346 Y63.128
X14.512 Y63.033
X14.701 Y63.
G3 X14.813 Y63.031 R0.249
X14.826 Y63.039 R0.249
X14.563 Y64. R0.522
G1 X14.265
X14.13 Y63.993
X14.014 Y63.925
X13.92 Y63.828
X13.854 Y63.648
Y63.456
X13.92 Y63.276
X14.043 Y63.129
X14.209 Y63.033
X14.398 Y63.
G3 X14.51 Y63.031 R0.249
X14.519 Y63.037 R0.249
X14.265 Y64. R0.52
G1 X13.958
X13.823 Y63.993
X13.708 Y63.923
X13.614 Y63.826
X13.55 Y63.645
X13.551 Y63.454
X13.617 Y63.275
X13.741 Y63.128
X13.906 Y63.033
X14.095 Y63.
G3 X14.207 Y63.031 R0.249
X14.22 Y63.039 R0.249
X13.958 Y64. R0.522
G1 X13.661
X13.527 Y63.993
X13.41 Y63.926
X13.315 Y63.829
X13.249 Y63.649
Y63.457
X13.314 Y63.277
X13.437 Y63.129
X13.603 Y63.033
X13.792 Y63.
G3 X13.905 Y63.031 R0.249
G1 X13.913 Y63.036
G3 X13.661 Y64. R0.52
G1 X13.352
X13.217 Y63.993
X13.102 Y63.923
X13.008 Y63.825
X12.944 Y63.645
X12.946 Y63.454
X13.012 Y63.274
X13.135 Y63.128
X13.301 Y63.033
X13.489 Y63.
G3 X13.602 Y63.031 R0.249
X13.615 Y63.039 R0.249
X13.352 Y64. R0.522
G1 X13.054
X12.919 Y63.993
X12.803 Y63.925
X12.708 Y63.828
X12.643 Y63.648
Y63.456
X12.708 Y63.276
X12.832 Y63.129
X12.998 Y63.033
X13.187 Y63.
G3 X13.299 Y63.031 R0.249
X13.308 Y63.037 R0.249
X13.054 Y64. R0.52
G1 X12.747
X12.612 Y63.993
X12.496 Y63.923
X12.403 Y63.826
X12.339 Y63.645
X12.34 Y63.454
X12.406 Y63.275
X12.529 Y63.128
X12.695 Y63.033
X12.884 Y63.
G3 X12.996 Y63.031 R0.249
X13.009 Y63.039 R0.249
X12.747 Y64. R0.522
G1 X12.45
X12.315 Y63.993
X12.198 Y63.926
X12.104 Y63.829
X12.038 Y63.649
X12.037 Y63.457
X12.103 Y63.277
X12.226 Y63.129
X12.392 Y63.033
X12.581 Y63.
G3 X12.693 Y63.031 R0.249
G1 X12.701 Y63.036
G3 X12.45 Y64. R0.52
G1 X12.14
X12.006 Y63.993
X11.89 Y63.923
X11.797 Y63.825
X11.733 Y63.645
X11.734 Y63.454
X11.801 Y63.274
X11.924 Y63.128
X12.09 Y63.033
X12.278 Y63.
G3 X12.391 Y63.031 R0.249
X12.404 Y63.039 R0.249
X12.14 Y64. R0.522
G1 X11.843
X11.708 Y63.993
X11.591 Y63.925
X11.497 Y63.828
X11.432 Y63.648
Y63.456
X11.497 Y63.276
X11.62 Y63.129
X11.786 Y63.033
X11.975 Y63.
G3 X12.088 Y63.031 R0.249
X12.097 Y63.037 R0.249
X11.843 Y64. R0.52
G1 X11.535
X11.401 Y63.993
X11.285 Y63.923
X11.192 Y63.826
X11.128 Y63.645
X11.129 Y63.454
X11.195 Y63.275
X11.318 Y63.128
X11.484 Y63.033
X11.672 Y63.
G3 X11.785 Y63.031 R0.249
X11.797 Y63.039 R0.249
X11.535 Y64. R0.522
G1 X11.239
X11.104 Y63.993
X10.987 Y63.926
X10.893 Y63.829
X10.827 Y63.649
X10.826 Y63.457
X10.891 Y63.277
X11.015 Y63.129
X11.181 Y63.033
X11.37 Y63.
G3 X11.482 Y63.031 R0.249
G1 X11.49 Y63.036
G3 X11.239 Y64. R0.52
G1 X10.929
X10.794 Y63.993
X10.679 Y63.923
X10.586 Y63.825
X10.522 Y63.645
X10.523 Y63.454
X10.589 Y63.274
X10.713 Y63.128
X10.879 Y63.033
X11.067 Y63.
G3 X11.179 Y63.031 R0.249
X11.193 Y63.039 R0.249
X10.929 Y64. R0.522
G1 X10.632
X10.497 Y63.993
X10.38 Y63.925
X10.286 Y63.828
X10.22 Y63.648
Y63.456
X10.286 Y63.276
X10.409 Y63.129
X10.575 Y63.033
X10.764 Y63.
G3 X10.877 Y63.031 R0.249
X10.886 Y63.037 R0.249
X10.632 Y64. R0.52
G1 X10.324
X10.189 Y63.993
X10.074 Y63.923
X9.981 Y63.826
X9.916 Y63.645
X9.917 Y63.454
X9.983 Y63.275
X10.107 Y63.128
X10.273 Y63.033
X10.461 Y63.
G3 X10.574 Y63.031 R0.249
X10.586 Y63.039 R0.249
X10.324 Y64. R0.522
G1 X10.028
X9.893 Y63.993
X9.776 Y63.926
X9.682 Y63.829
X9.615 Y63.649
Y63.457
X9.68 Y63.277
X9.803 Y63.129
X9.97 Y63.033
X10.159 Y63.
G3 X10.271 Y63.031 R0.249
G1 X10.279 Y63.036
G3 X10.028 Y64. R0.52
G1 X9.718
X9.583 Y63.993
X9.468 Y63.923
X9.375 Y63.825
X9.311 Y63.645
X9.312 Y63.454
X9.378 Y63.274
X9.502 Y63.128
X9.667 Y63.033
X9.856 Y63.
G3 X9.968 Y63.031 R0.249
X9.981 Y63.039 R0.249
X9.718 Y64. R0.522
G1 X9.42
X9.286 Y63.993
X9.169 Y63.925
X9.075 Y63.828
X9.009 Y63.648
Y63.456
X9.075 Y63.276
X9.198 Y63.129
X9.364 Y63.033
X9.553 Y63.
G3 X9.665 Y63.031 R0.249
X9.675 Y63.037 R0.249
X9.42 Y64. R0.52
G1 X9.113
X8.978 Y63.993
X8.863 Y63.923
X8.769 Y63.826
X8.705 Y63.645
X8.706 Y63.454
X8.772 Y63.275
X8.896 Y63.128
X9.061 Y63.033
X9.25 Y63.
G3 X9.362 Y63.031 R0.249
X9.375 Y63.039 R0.249
X9.113 Y64. R0.522
G1 X8.817
X8.682 Y63.993
X8.565 Y63.926
X8.47 Y63.829
X8.404 Y63.649
Y63.457
X8.469 Y63.277
X8.592 Y63.129
X8.758 Y63.033
X8.947 Y63.
G3 X9.06 Y63.031 R0.249
G1 X9.068 Y63.036
G3 X8.817 Y64. R0.52
G1 X8.507
X8.372 Y63.993
X8.257 Y63.923
X8.164 Y63.825
X8.099 Y63.645
X8.101 Y63.454
X8.167 Y63.274
X8.29 Y63.128
X8.456 Y63.033
X8.644 Y63.
G3 X8.757 Y63.031 R0.249
X8.77 Y63.039 R0.249
X8.507 Y64. R0.522
G1 X8.209
X8.074 Y63.993
X7.958 Y63.925
X7.864 Y63.828
X7.798 Y63.648
Y63.456
X7.863 Y63.276
X7.987 Y63.129
X8.153 Y63.033
X8.342 Y63.
G3 X8.454 Y63.031 R0.249
X8.463 Y63.037 R0.249
X8.209 Y64. R0.52
G1 X7.902
X7.767 Y63.993
X7.651 Y63.923
X7.558 Y63.826
X7.494 Y63.645
X7.495 Y63.454
X7.561 Y63.275
X7.684 Y63.128
X7.85 Y63.033
X8.039 Y63.
G3 X8.151 Y63.031 R0.249
X8.164 Y63.039 R0.249
X7.902 Y64. R0.522
G1 X7.605
X7.47 Y63.993
X7.354 Y63.926
X7.259 Y63.829
X7.193 Y63.649
X7.192 Y63.457
X7.258 Y63.277
X7.381 Y63.129
X7.547 Y63.033
X7.736 Y63.
G3 X7.849 Y63.031 R0.249
G1 X7.856 Y63.036
G3 X7.605 Y64. R0.52
G1 X7.295
X7.161 Y63.993
X7.045 Y63.923
X6.952 Y63.825
X6.888 Y63.645
X6.889 Y63.454
X6.956 Y63.274
X7.079 Y63.128
X7.245 Y63.033
X7.433 Y63.
G3 X7.546 Y63.031 R0.249
X7.559 Y63.039 R0.249
X7.295 Y64. R0.522
G1 X6.998
X6.863 Y63.993
X6.746 Y63.925
X6.652 Y63.828
X6.587 Y63.648
Y63.456
X6.652 Y63.276
X6.775 Y63.129
X6.942 Y63.033
X7.13 Y63.
G3 X7.243 Y63.031 R0.249
X7.252 Y63.037 R0.249
X6.998 Y64. R0.52
G1 X6.69
X6.556 Y63.993
X6.44 Y63.923
X6.347 Y63.826
X6.283 Y63.645
X6.284 Y63.454
X6.35 Y63.275
X6.473 Y63.128
X6.639 Y63.033
X6.827 Y63.
G3 X6.94 Y63.031 R0.249
X6.953 Y63.039 R0.249
X6.69 Y64. R0.522
G1 X6.394
X6.259 Y63.993
X6.142 Y63.926
X6.048 Y63.829
X5.982 Y63.649
X5.981 Y63.457
X6.047 Y63.277
X6.17 Y63.129
X6.336 Y63.033
X6.525 Y63.
G3 X6.637 Y63.031 R0.249
G1 X6.645 Y63.036
G3 X6.394 Y64. R0.52
G1 X6.084
X5.949 Y63.993
X5.834 Y63.923
X5.741 Y63.825
X5.677 Y63.645
X5.678 Y63.454
X5.744 Y63.274
X5.868 Y63.128
X6.034 Y63.033
X6.222 Y63.
G3 X6.334 Y63.031 R0.249
X6.348 Y63.039 R0.249
X6.084 Y64. R0.522
G1 X5.787
X5.652 Y63.993
X5.535 Y63.925
X5.441 Y63.828
X5.375 Y63.648
Y63.456
X5.441 Y63.276
X5.564 Y63.129
X5.73 Y63.033
X5.919 Y63.
G3 X6.032 Y63.031 R0.249
X6.041 Y63.037 R0.249
X5.787 Y64. R0.52
G1 X5.479
X5.344 Y63.993
X5.229 Y63.923
X5.136 Y63.826
X5.071 Y63.645
X5.072 Y63.454
X5.139 Y63.275
X5.262 Y63.128
X5.428 Y63.033
X5.616 Y63.
G3 X5.729 Y63.031 R0.249
X5.741 Y63.039 R0.249
X5.479 Y64. R0.522
G1 X5.183
X5.048 Y63.993
X4.931 Y63.926
X4.837 Y63.829
X4.77 Y63.649
Y63.457
X4.835 Y63.277
X4.959 Y63.129
X5.125 Y63.033
X5.314 Y63.
G3 X5.426 Y63.031 R0.249
G1 X5.434 Y63.036
G3 X5.183 Y64. R0.52
G1 X4.873
X4.738 Y63.993
X4.623 Y63.923
X4.53 Y63.825
X4.466 Y63.645
X4.467 Y63.454
X4.533 Y63.274
X4.657 Y63.128
X4.822 Y63.033
X5.011 Y63.
G3 X5.123 Y63.031 R0.249
X5.136 Y63.039 R0.249
X4.873 Y64. R0.522
G1 X4.575
X4.441 Y63.993
X4.324 Y63.925
X4.23 Y63.828
X4.164 Y63.648
Y63.456
X4.23 Y63.276
X4.353 Y63.129
X4.519 Y63.033
X4.708 Y63.
G3 X4.82 Y63.031 R0.249
X4.83 Y63.037 R0.249
X4.575 Y64. R0.52
G1 X4.268
X4.133 Y63.993
X4.018 Y63.923
X3.924 Y63.826
X3.86 Y63.645
X3.861 Y63.454
X3.927 Y63.275
X4.051 Y63.128
X4.217 Y63.033
X4.405 Y63.
G3 X4.517 Y63.031 R0.249
X4.53 Y63.039 R0.249
X4.268 Y64. R0.522
G1 X3.972
X3.837 Y63.993
X3.72 Y63.926
X3.625 Y63.829
X3.559 Y63.649
Y63.457
X3.624 Y63.277
X3.747 Y63.129
X3.913 Y63.033
X4.102 Y63.
G3 X4.215 Y63.031 R0.249
G1 X4.223 Y63.036
G3 X3.972 Y64. R0.52
G1 X3.662
X3.527 Y63.993
X3.412 Y63.923
X3.319 Y63.825
X3.255 Y63.645
X3.256 Y63.454
X3.322 Y63.274
X3.445 Y63.128
X3.611 Y63.033
X3.8 Y63.
G3 X3.912 Y63.031 R0.249
X3.925 Y63.039 R0.249
X3.662 Y64. R0.522
G1 X3.364
X3.229 Y63.993
X3.113 Y63.925
X3.019 Y63.828
X2.953 Y63.648
Y63.456
X3.019 Y63.276
X3.142 Y63.129
X3.308 Y63.033
X3.497 Y63.
G3 X3.609 Y63.031 R0.249
X3.618 Y63.037 R0.249
X3.364 Y64. R0.52
G1 X3.057
X2.922 Y63.993
X2.807 Y63.923
X2.713 Y63.826
X2.649 Y63.645
X2.65 Y63.454
X2.716 Y63.275
X2.84 Y63.128
X3.005 Y63.033
X3.194 Y63.
G3 X3.306 Y63.031 R0.249
X3.319 Y63.039 R0.249
X3.057 Y64. R0.522
G1 X2.76
X2.626 Y63.993
X2.509 Y63.926
X2.414 Y63.829
X2.348 Y63.649
Y63.457
X2.413 Y63.277
X2.536 Y63.129
X2.702 Y63.033
X2.891 Y63.
G3 X3.004 Y63.031 R0.249
G1 X3.012 Y63.036
G3 X2.76 Y64. R0.52
G1 X2.451
X2.316 Y63.993
X2.201 Y63.923
X2.107 Y63.825
X2.043 Y63.645
X2.045 Y63.454
X2.111 Y63.274
X2.234 Y63.128
X2.4 Y63.033
X2.588 Y63.
G3 X2.701 Y63.031 R0.249
X2.714 Y63.039 R0.249
X2.451 Y64. R0.522
G1 X2.153
X2.018 Y63.993
X1.902 Y63.925
X1.807 Y63.828
X1.742 Y63.648
Y63.456
X1.807 Y63.276
X1.931 Y63.129
X2.097 Y63.033
X2.286 Y63.
G3 X2.398 Y63.031 R0.249
X2.407 Y63.037 R0.249
X2.153 Y64. R0.52
G1 X1.846
X1.711 Y63.993
X1.595 Y63.923
X1.502 Y63.826
X1.438 Y63.645
X1.439 Y63.454
X1.505 Y63.275
X1.628 Y63.128
X1.794 Y63.033
X1.983 Y63.
G3 X2.095 Y63.031 R0.249
X2.108 Y63.039 R0.249
X1.846 Y64. R0.522
G1 X1.549
X1.414 Y63.993
X1.297 Y63.926
X1.203 Y63.829
X1.137 Y63.649
X1.136 Y63.457
X1.202 Y63.277
X1.325 Y63.129
X1.491 Y63.033
X1.68 Y63.
G3 X1.792 Y63.031 R0.249
G1 X1.8 Y63.036
G3 X1.549 Y64. R0.52
G1 X1.239
X1.104 Y63.993
X0.989 Y63.923
X0.896 Y63.825
X0.832 Y63.645
X0.833 Y63.454
X0.9 Y63.274
X1.023 Y63.128
X1.189 Y63.033
X1.377 Y63.
G3 X1.49 Y63.031 R0.249
X1.503 Y63.039 R0.249
X1.239 Y64. R0.522
G1 X0.942
X0.807 Y63.993
X0.69 Y63.925
X0.596 Y63.828
X0.531 Y63.648
Y63.456
X0.596 Y63.276
X0.719 Y63.129
X0.885 Y63.033
X1.074 Y63.
G3 X1.187 Y63.031 R0.249
X1.196 Y63.037 R0.249
X0.942 Y64. R0.52
G1 X0.634
X0.5 Y63.993
X0.384 Y63.923
X0.291 Y63.826
X0.226 Y63.645
X0.227 Y63.454
X0.294 Y63.275
X0.417 Y63.128
X0.583 Y63.033
X0.771 Y63.
G3 X0.884 Y63.031 R0.249
X0.896 Y63.039 R0.249
X0.634 Y64. R0.522
G1 X0.338
X0.203 Y63.993
X0.086 Y63.926
X-0.008 Y63.829
X-0.074 Y63.649
X-0.075 Y63.457
X-0.01 Y63.277
X0.114 Y63.129
X0.28 Y63.033
X0.469 Y63.
G3 X0.581 Y63.031 R0.249
G1 X0.589 Y63.036
G3 X0.338 Y64. R0.52
G1 X0.028
X-0.107 Y63.993
X-0.222 Y63.923
X-0.315 Y63.825
X-0.379 Y63.645
X-0.378 Y63.454
X-0.312 Y63.274
X-0.188 Y63.128
X-0.022 Y63.033
X0.166 Y63.
G3 X0.278 Y63.031 R0.249
X0.292 Y63.039 R0.249
X0.028 Y64. R0.522
G1 X-0.269
X-0.404 Y63.993
X-0.521 Y63.925
X-0.615 Y63.828
X-0.681 Y63.648
Y63.456
X-0.615 Y63.276
X-0.492 Y63.129
X-0.326 Y63.033
X-0.137 Y63.
G3 X-0.025 Y63.031 R0.249
X-0.015 Y63.037 R0.249
X-0.269 Y64. R0.52
G1 X-0.577
X-0.712 Y63.993
X-0.827 Y63.923
X-0.92 Y63.826
X-0.985 Y63.645
X-0.984 Y63.454
X-0.918 Y63.275
X-0.794 Y63.128
X-0.628 Y63.033
X-0.44 Y63.
G3 X-0.327 Y63.031 R0.249
X-0.315 Y63.039 R0.249
X-0.577 Y64. R0.522
G1 X-0.873
X-1.008 Y63.993
X-1.125 Y63.926
X-1.22 Y63.829
X-1.286 Y63.649
Y63.457
X-1.221 Y63.277
X-1.098 Y63.129
X-0.931 Y63.033
X-0.742 Y63.
G3 X-0.63 Y63.031 R0.249
G1 X-0.622 Y63.036
G3 X-0.873 Y64. R0.52
G1 X-1.183
X-1.318 Y63.993
X-1.433 Y63.923
X-1.526 Y63.825
X-1.59 Y63.645
X-1.589 Y63.454
X-1.523 Y63.274
X-1.399 Y63.128
X-1.234 Y63.033
X-1.045 Y63.
G3 X-0.933 Y63.031 R0.249
X-0.92 Y63.039 R0.249
X-1.183 Y64. R0.522
G1 X-1.481
X-1.616 Y63.993
X-1.732 Y63.925
X-1.826 Y63.828
X-1.892 Y63.648
Y63.456
X-1.826 Y63.276
X-1.703 Y63.129
X-1.537 Y63.033
X-1.348 Y63.
G3 X-1.236 Y63.031 R0.249
X-1.227 Y63.037 R0.249
X-1.481 Y64. R0.52
G1 X-1.788
X-1.923 Y63.993
X-2.038 Y63.923
X-2.132 Y63.826
X-2.196 Y63.645
X-2.195 Y63.454
X-2.129 Y63.275
X-2.005 Y63.128
X-1.84 Y63.033
X-1.651 Y63.
G3 X-1.539 Y63.031 R0.249
X-1.526 Y63.039 R0.249
X-1.788 Y64. R0.522
G1 X-2.085
X-2.219 Y63.993
X-2.336 Y63.926
X-2.431 Y63.829
X-2.497 Y63.649
Y63.457
X-2.432 Y63.277
X-2.309 Y63.129
X-2.143 Y63.033
X-1.954 Y63.
G3 X-1.841 Y63.031 R0.249
G1 X-1.833 Y63.036
G3 X-2.085 Y64. R0.52
G1 X-2.394
X-2.529 Y63.993
X-2.644 Y63.923
X-2.738 Y63.825
X-2.802 Y63.645
X-2.8 Y63.454
X-2.734 Y63.274
X-2.611 Y63.128
X-2.445 Y63.033
X-2.257 Y63.
G3 X-2.144 Y63.031 R0.249
X-2.131 Y63.039 R0.249
X-2.394 Y64. R0.522
G1 X-2.692
X-2.827 Y63.993
X-2.943 Y63.925
X-3.037 Y63.828
X-3.103 Y63.648
Y63.456
X-3.038 Y63.276
X-2.914 Y63.129
X-2.748 Y63.033
X-2.559 Y63.
G3 X-2.447 Y63.031 R0.249
X-2.438 Y63.037 R0.249
X-2.692 Y64. R0.52
G1 X-2.999
X-3.134 Y63.993
X-3.25 Y63.923
X-3.343 Y63.826
X-3.407 Y63.645
X-3.406 Y63.454
X-3.34 Y63.275
X-3.217 Y63.128
X-3.051 Y63.033
X-2.862 Y63.
G3 X-2.75 Y63.031 R0.249
X-2.737 Y63.039 R0.249
X-2.999 Y64. R0.522
G1 X-3.296
X-3.431 Y63.993
X-3.547 Y63.926
X-3.642 Y63.829
X-3.708 Y63.649
X-3.709 Y63.457
X-3.643 Y63.277
X-3.52 Y63.129
X-3.354 Y63.033
X-3.165 Y63.
G3 X-3.052 Y63.031 R0.249
G1 X-3.045 Y63.036
G3 X-3.296 Y64. R0.52
G1 X-3.606
X-3.74 Y63.993
X-3.856 Y63.923
X-3.949 Y63.825
X-4.013 Y63.645
X-4.012 Y63.454
X-3.945 Y63.274
X-3.822 Y63.128
X-3.656 Y63.033
X-3.468 Y63.
G3 X-3.355 Y63.031 R0.249
X-3.342 Y63.039 R0.249
X-3.606 Y64. R0.522
G1 X-3.903
X-4.038 Y63.993
X-4.155 Y63.925
X-4.249 Y63.828
X-4.314 Y63.648
Y63.456
X-4.249 Y63.276
X-4.126 Y63.129
X-3.959 Y63.033
X-3.771 Y63.
G3 X-3.658 Y63.031 R0.249
X-3.649 Y63.037 R0.249
X-3.903 Y64. R0.52
G1 X-4.211
X-4.345 Y63.993
X-4.461 Y63.923
X-4.554 Y63.826
X-4.618 Y63.645
X-4.617 Y63.454
X-4.551 Y63.275
X-4.428 Y63.128
X-4.262 Y63.033
X-4.074 Y63.
G3 X-3.961 Y63.031 R0.249
X-3.949 Y63.039 R0.249
X-4.211 Y64. R0.522
G1 X-4.507
X-4.642 Y63.993
X-4.759 Y63.926
X-4.853 Y63.829
X-4.919 Y63.649
X-4.92 Y63.457
X-4.855 Y63.277
X-4.731 Y63.129
X-4.565 Y63.033
X-4.376 Y63.
G3 X-4.264 Y63.031 R0.249
G1 X-4.256 Y63.036
G3 X-4.507 Y64. R0.52
G1 X-4.817
X-4.952 Y63.993
X-5.067 Y63.923
X-5.16 Y63.825
X-5.224 Y63.645
X-5.223 Y63.454
X-5.157 Y63.274
X-5.033 Y63.128
X-4.867 Y63.033
X-4.679 Y63.
G3 X-4.567 Y63.031 R0.249
X-4.553 Y63.039 R0.249
X-4.817 Y64. R0.522
G1 X-5.114
X-5.249 Y63.993
X-5.366 Y63.925
X-5.46 Y63.828
X-5.526 Y63.648
Y63.456
X-5.46 Y63.276
X-5.337 Y63.129
X-5.171 Y63.033
X-4.982 Y63.
G3 X-4.869 Y63.031 R0.249
X-4.86 Y63.037 R0.249
X-5.114 Y64. R0.52
G1 X-5.422
X-5.557 Y63.993
X-5.672 Y63.923
X-5.765 Y63.826
X-5.83 Y63.645
X-5.829 Y63.454
X-5.762 Y63.275
X-5.639 Y63.128
X-5.473 Y63.033
X-5.285 Y63.
G3 X-5.172 Y63.031 R0.249
X-5.16 Y63.039 R0.249
X-5.422 Y64. R0.522
G1 X-5.718
X-5.853 Y63.993
X-5.97 Y63.926
X-6.064 Y63.829
X-6.131 Y63.649
Y63.457
X-6.066 Y63.277
X-5.943 Y63.129
X-5.776 Y63.033
X-5.587 Y63.
G3 X-5.475 Y63.031 R0.249
G1 X-5.467 Y63.036
G3 X-5.718 Y64. R0.52
G1 X-6.028
X-6.163 Y63.993
X-6.278 Y63.923
X-6.371 Y63.825
X-6.435 Y63.645
X-6.434 Y63.454
X-6.368 Y63.274
X-6.244 Y63.128
X-6.079 Y63.033
X-5.89 Y63.
G3 X-5.778 Y63.031 R0.249
X-5.765 Y63.039 R0.249
X-6.028 Y64. R0.522
G1 X-6.326
X-6.46 Y63.993
X-6.577 Y63.925
X-6.671 Y63.828
X-6.737 Y63.648
Y63.456
X-6.671 Y63.276
X-6.548 Y63.129
X-6.382 Y63.033
X-6.193 Y63.
G3 X-6.081 Y63.031 R0.249
X-6.071 Y63.037 R0.249
X-6.326 Y64. R0.52
G1 X-6.633
X-6.768 Y63.993
X-6.883 Y63.923
X-6.977 Y63.826
X-7.041 Y63.645
X-7.04 Y63.454
X-6.974 Y63.275
X-6.85 Y63.128
X-6.684 Y63.033
X-6.496 Y63.
G3 X-6.384 Y63.031 R0.249
X-6.371 Y63.039 R0.249
X-6.633 Y64. R0.522
G1 X-6.929
X-7.064 Y63.993
X-7.181 Y63.926
X-7.276 Y63.829
X-7.342 Y63.649
Y63.457
X-7.277 Y63.277
X-7.154 Y63.129
X-6.988 Y63.033
X-6.799 Y63.
G3 X-6.686 Y63.031 R0.249
G1 X-6.678 Y63.036
G3 X-6.929 Y64. R0.52
G1 X-7.239
X-7.374 Y63.993
X-7.489 Y63.923
X-7.582 Y63.825
X-7.646 Y63.645
X-7.645 Y63.454
X-7.579 Y63.274
X-7.456 Y63.128
X-7.29 Y63.033
X-7.102 Y63.
G3 X-6.989 Y63.031 R0.249
X-6.976 Y63.039 R0.249
X-7.239 Y64. R0.522
G1 X-7.537
X-7.672 Y63.993
X-7.788 Y63.925
X-7.882 Y63.828
X-7.948 Y63.648
Y63.456
X-7.883 Y63.276
X-7.759 Y63.129
X-7.593 Y63.033
X-7.404 Y63.
G3 X-7.292 Y63.031 R0.249
X-7.283 Y63.037 R0.249
X-7.537 Y64. R0.52
G1 X-7.844
X-7.979 Y63.993
X-8.094 Y63.923
X-8.188 Y63.826
X-8.252 Y63.645
X-8.251 Y63.454
X-8.185 Y63.275
X-8.062 Y63.128
X-7.896 Y63.033
X-7.707 Y63.
G3 X-7.595 Y63.031 R0.249
X-7.582 Y63.039 R0.249
X-7.844 Y64. R0.522
G1 X-8.141
X-8.275 Y63.993
X-8.392 Y63.926
X-8.487 Y63.829
X-8.553 Y63.649
X-8.554 Y63.457
X-8.488 Y63.277
X-8.365 Y63.129
X-8.199 Y63.033
X-8.01 Y63.
G3 X-7.897 Y63.031 R0.249
G1 X-7.89 Y63.036
G3 X-8.141 Y64. R0.52
G1 X-8.451
X-8.585 Y63.993
X-8.701 Y63.923
X-8.794 Y63.825
X-8.858 Y63.645
X-8.857 Y63.454
X-8.79 Y63.274
X-8.667 Y63.128
X-8.501 Y63.033
X-8.313 Y63.
G3 X-8.2 Y63.031 R0.249
X-8.187 Y63.039 R0.249
X-8.451 Y64. R0.522
G1 X-8.748
X-8.883 Y63.993
X-8.999 Y63.925
X-9.094 Y63.828
X-9.159 Y63.648
Y63.456
X-9.094 Y63.276
X-8.97 Y63.129
X-8.804 Y63.033
X-8.616 Y63.
G3 X-8.503 Y63.031 R0.249
X-8.494 Y63.037 R0.249
X-8.748 Y64. R0.52
G1 X-9.055
X-9.19 Y63.993
X-9.306 Y63.923
X-9.399 Y63.826
X-9.463 Y63.645
X-9.462 Y63.454
X-9.396 Y63.275
X-9.273 Y63.128
X-9.107 Y63.033
X-8.919 Y63.
G3 X-8.806 Y63.031 R0.249
X-8.793 Y63.039 R0.249
X-9.055 Y64. R0.522
G1 X-9.352
X-9.487 Y63.993
X-9.604 Y63.926
X-9.698 Y63.829
X-9.764 Y63.649
X-9.765 Y63.457
X-9.699 Y63.277
X-9.576 Y63.129
X-9.41 Y63.033
X-9.221 Y63.
G3 X-9.109 Y63.031 R0.249
G1 X-9.101 Y63.036
G3 X-9.352 Y64. R0.52
G1 X-9.662
X-9.797 Y63.993
X-9.912 Y63.923
X-10.005 Y63.825
X-10.069 Y63.645
X-10.068 Y63.454
X-10.001 Y63.274
X-9.878 Y63.128
X-9.712 Y63.033
X-9.524 Y63.
G3 X-9.412 Y63.031 R0.249
X-9.398 Y63.039 R0.249
X-9.662 Y64. R0.522
G1 X-9.959
X-10.094 Y63.993
X-10.211 Y63.925
X-10.305 Y63.828
X-10.37 Y63.648
X-10.371 Y63.456
X-10.305 Y63.276
X-10.182 Y63.129
X-10.016 Y63.033
X-9.827 Y63.
G3 X-9.714 Y63.031 R0.249
X-9.705 Y63.037 R0.249
X-9.959 Y64. R0.52
G1 X-10.267
X-10.402 Y63.993
X-10.517 Y63.923
X-10.61 Y63.826
X-10.675 Y63.645
X-10.674 Y63.454
X-10.607 Y63.275
X-10.484 Y63.128
X-10.318 Y63.033
X-10.13 Y63.
G3 X-10.017 Y63.031 R0.249
X-10.005 Y63.039 R0.249
X-10.267 Y64. R0.522
G1 X-10.563
X-10.698 Y63.993
X-10.815 Y63.926
X-10.909 Y63.829
X-10.976 Y63.649
Y63.457
X-10.911 Y63.277
X-10.787 Y63.129
X-10.621 Y63.033
X-10.432 Y63.
G3 X-10.32 Y63.031 R0.249
G1 X-10.312 Y63.036
G3 X-10.563 Y64. R0.52
G1 X-10.873
X-11.008 Y63.993
X-11.123 Y63.923
X-11.216 Y63.825
X-11.28 Y63.645
X-11.279 Y63.454
X-11.213 Y63.274
X-11.089 Y63.128
X-10.924 Y63.033
X-10.735 Y63.
G3 X-10.623 Y63.031 R0.249
X-10.61 Y63.039 R0.249
X-10.873 Y64. R0.522
G1 X-11.171
X-11.305 Y63.993
X-11.422 Y63.925
X-11.516 Y63.828
X-11.582 Y63.648
Y63.456
X-11.516 Y63.276
X-11.393 Y63.129
X-11.227 Y63.033
X-11.038 Y63.
G3 X-10.926 Y63.031 R0.249
X-10.916 Y63.037 R0.249
X-11.171 Y64. R0.52
G1 X-11.478
X-11.613 Y63.993
X-11.728 Y63.923
X-11.821 Y63.826
X-11.886 Y63.645
X-11.885 Y63.454
X-11.819 Y63.275
X-11.695 Y63.128
X-11.529 Y63.033
X-11.341 Y63.
G3 X-11.229 Y63.031 R0.249
X-11.216 Y63.039 R0.249
X-11.478 Y64. R0.522
G1 X-11.774
X-11.909 Y63.993
X-12.026 Y63.926
X-12.121 Y63.829
X-12.187 Y63.649
Y63.457
X-12.122 Y63.277
X-11.999 Y63.129
X-11.833 Y63.033
X-11.643 Y63.
G3 X-11.531 Y63.031 R0.249
G1 X-11.523 Y63.036
G3 X-11.774 Y64. R0.52
G1 X-12.084
X-12.219 Y63.993
X-12.334 Y63.923
X-12.427 Y63.825
X-12.491 Y63.645
X-12.49 Y63.454
X-12.424 Y63.274
X-12.301 Y63.128
X-12.135 Y63.033
X-11.946 Y63.
G3 X-11.834 Y63.031 R0.249
X-11.821 Y63.039 R0.249
X-12.084 Y64. R0.522
G1 X-12.382
X-12.517 Y63.993
X-12.633 Y63.925
X-12.727 Y63.828
X-12.793 Y63.648
Y63.456
X-12.727 Y63.276
X-12.604 Y63.129
X-12.438 Y63.033
X-12.249 Y63.
G3 X-12.137 Y63.031 R0.249
X-12.128 Y63.037 R0.249
X-12.382 Y64. R0.52
G1 X-12.689
X-12.824 Y63.993
X-12.939 Y63.923
X-13.033 Y63.826
X-13.097 Y63.645
X-13.096 Y63.454
X-13.03 Y63.275
X-12.906 Y63.128
X-12.741 Y63.033
X-12.552 Y63.
G3 X-12.44 Y63.031 R0.249
X-12.427 Y63.039 R0.249
X-12.689 Y64. R0.522
G1 X-12.986
X-13.12 Y63.993
X-13.237 Y63.926
X-13.332 Y63.829
X-13.398 Y63.649
Y63.457
X-13.333 Y63.277
X-13.21 Y63.129
X-13.044 Y63.033
X-12.855 Y63.
G3 X-12.742 Y63.031 R0.249
G1 X-12.734 Y63.036
G3 X-12.986 Y64. R0.52
G1 X-13.295
X-13.43 Y63.993
X-13.545 Y63.923
X-13.639 Y63.825
X-13.703 Y63.645
X-13.701 Y63.454
X-13.635 Y63.274
X-13.512 Y63.128
X-13.346 Y63.033
X-13.158 Y63.
G3 X-13.045 Y63.031 R0.249
X-13.032 Y63.039 R0.249
X-13.295 Y64. R0.522
G1 X-13.593
X-13.728 Y63.993
X-13.844 Y63.925
X-13.939 Y63.828
X-14.004 Y63.648
Y63.456
X-13.939 Y63.276
X-13.815 Y63.129
X-13.649 Y63.033
X-13.46 Y63.
G3 X-13.348 Y63.031 R0.249
X-13.339 Y63.037 R0.249
X-13.593 Y64. R0.52
G1 X-13.9
X-14.035 Y63.993
X-14.151 Y63.923
X-14.244 Y63.826
X-14.308 Y63.645
X-14.307 Y63.454
X-14.241 Y63.275
X-14.118 Y63.128
X-13.952 Y63.033
X-13.763 Y63.
G3 X-13.651 Y63.031 R0.249
X-13.638 Y63.039 R0.249
X-13.9 Y64. R0.522
G1 X-14.197
X-14.332 Y63.993
X-14.449 Y63.926
X-14.543 Y63.829
X-14.609 Y63.649
X-14.61 Y63.457
X-14.544 Y63.277
X-14.421 Y63.129
X-14.255 Y63.033
X-14.066 Y63.
G3 X-13.954 Y63.031 R0.249
G1 X-13.946 Y63.036
G3 X-14.197 Y64. R0.52
G1 X-14.507
X-14.641 Y63.993
X-14.757 Y63.923
X-14.85 Y63.825
X-14.914 Y63.645
X-14.913 Y63.454
X-14.846 Y63.274
X-14.723 Y63.128
X-14.557 Y63.033
X-14.369 Y63.
G3 X-14.256 Y63.031 R0.249
X-14.243 Y63.039 R0.249
X-14.507 Y64. R0.522
G1 X-14.804
X-14.939 Y63.993
X-15.056 Y63.925
X-15.15 Y63.828
X-15.215 Y63.648
Y63.456
X-15.15 Y63.276
X-15.027 Y63.129
X-14.861 Y63.033
X-14.672 Y63.
G3 X-14.559 Y63.031 R0.249
X-14.55 Y63.037 R0.249
X-14.804 Y64. R0.52
G1 X-15.112
X-15.246 Y63.993
X-15.362 Y63.923
X-15.455 Y63.826
X-15.519 Y63.645
X-15.518 Y63.454
X-15.452 Y63.275
X-15.329 Y63.128
X-15.163 Y63.033
X-14.975 Y63.
G3 X-14.862 Y63.031 R0.249
X-14.85 Y63.039 R0.249
X-15.112 Y64. R0.522
G1 X-15.408
X-15.543 Y63.993
X-15.66 Y63.926
X-15.754 Y63.829
X-15.82 Y63.649
X-15.821 Y63.457
X-15.756 Y63.277
X-15.632 Y63.129
X-15.466 Y63.033
X-15.277 Y63.
G3 X-15.165 Y63.031 R0.249
G1 X-15.157 Y63.036
G3 X-15.408 Y64. R0.52
G1 X-15.718
X-15.853 Y63.993
X-15.968 Y63.923
X-16.061 Y63.825
X-16.125 Y63.645
X-16.124 Y63.454
X-16.058 Y63.274
X-15.934 Y63.128
X-15.768 Y63.033
X-15.58 Y63.
G3 X-15.468 Y63.031 R0.249
X-15.454 Y63.039 R0.249
X-15.718 Y64. R0.522
G1 X-16.015
X-16.15 Y63.993
X-16.267 Y63.925
X-16.361 Y63.828
X-16.427 Y63.648
Y63.456
X-16.361 Y63.276
X-16.238 Y63.129
X-16.072 Y63.033
X-15.883 Y63.
G3 X-15.77 Y63.031 R0.249
X-15.761 Y63.037 R0.249
X-16.015 Y64. R0.52
G1 X-16.323
X-16.458 Y63.993
X-16.573 Y63.923
X-16.666 Y63.826
X-16.731 Y63.645
X-16.73 Y63.454
X-16.664 Y63.275
X-16.54 Y63.128
X-16.374 Y63.033
X-16.186 Y63.
G3 X-16.073 Y63.031 R0.249
X-16.061 Y63.039 R0.249
X-16.323 Y64. R0.522
G1 X-16.619
X-16.754 Y63.993
X-16.871 Y63.926
X-16.965 Y63.829
X-17.032 Y63.649
Y63.457
X-16.967 Y63.277
X-16.844 Y63.129
X-16.677 Y63.033
X-16.488 Y63.
G3 X-16.376 Y63.031 R0.249
G1 X-16.368 Y63.036
G3 X-16.619 Y64. R0.52
G1 X-16.929
X-17.064 Y63.993
X-17.179 Y63.923
X-17.272 Y63.825
X-17.336 Y63.645
X-17.335 Y63.454
X-17.269 Y63.274
X-17.145 Y63.128
X-16.98 Y63.033
X-16.791 Y63.
G3 X-16.679 Y63.031 R0.249
X-16.666 Y63.039 R0.249
X-16.929 Y64. R0.522
G1 X-17.227
X-17.362 Y63.993
X-17.478 Y63.925
X-17.572 Y63.828
X-17.638 Y63.648
Y63.456
X-17.572 Y63.276
X-17.449 Y63.129
X-17.283 Y63.033
X-17.094 Y63.
G3 X-16.982 Y63.031 R0.249
X-16.972 Y63.037 R0.249
X-17.227 Y64. R0.52
G1 X-17.534
X-17.669 Y63.993
X-17.784 Y63.923
X-17.878 Y63.826
X-17.942 Y63.645
X-17.941 Y63.454
X-17.875 Y63.275
X-17.751 Y63.128
X-17.586 Y63.033
X-17.397 Y63.
G3 X-17.285 Y63.031 R0.249
X-17.272 Y63.039 R0.249
X-17.534 Y64. R0.522
G1 X-17.83
X-17.965 Y63.993
X-18.082 Y63.926
X-18.177 Y63.829
X-18.243 Y63.649
Y63.457
X-18.178 Y63.277
X-18.055 Y63.129
X-17.889 Y63.033
X-17.7 Y63.
G3 X-17.587 Y63.031 R0.249
G1 X-17.579 Y63.036
G3 X-17.83 Y64. R0.52
G1 X-18.14
X-18.275 Y63.993
X-18.39 Y63.923
X-18.484 Y63.825
X-18.548 Y63.645
X-18.546 Y63.454
X-18.48 Y63.274
X-18.357 Y63.128
X-18.191 Y63.033
X-18.003 Y63.
G3 X-17.89 Y63.031 R0.249
X-17.877 Y63.039 R0.249
X-18.14 Y64. R0.522
G1 X-18.438
X-18.573 Y63.993
X-18.689 Y63.925
X-18.783 Y63.828
X-18.849 Y63.648
Y63.456
X-18.784 Y63.276
X-18.66 Y63.129
X-18.494 Y63.033
X-18.305 Y63.
G3 X-18.193 Y63.031 R0.249
X-18.184 Y63.037 R0.249
X-18.438 Y64. R0.52
G1 X-18.745
X-18.88 Y63.993
X-18.996 Y63.923
X-19.089 Y63.826
X-19.153 Y63.645
X-19.152 Y63.454
X-19.086 Y63.275
X-18.963 Y63.128
X-18.797 Y63.033
X-18.608 Y63.
G3 X-18.496 Y63.031 R0.249
X-18.483 Y63.039 R0.249
X-18.745 Y64. R0.522
G1 X-19.042
X-19.177 Y63.993
X-19.293 Y63.926
X-19.388 Y63.829
X-19.454 Y63.649
X-19.455 Y63.457
X-19.389 Y63.277
X-19.266 Y63.129
X-19.1 Y63.033
X-18.911 Y63.
G3 X-18.798 Y63.031 R0.249
G1 X-18.791 Y63.036
G3 X-19.042 Y64. R0.52
G1 X-19.352
X-19.486 Y63.993
X-19.602 Y63.923
X-19.695 Y63.825
X-19.759 Y63.645
X-19.758 Y63.454
X-19.691 Y63.274
X-19.568 Y63.128
X-19.402 Y63.033
X-19.214 Y63.
G3 X-19.101 Y63.031 R0.249
X-19.088 Y63.039 R0.249
X-19.352 Y64. R0.522
G1 X-19.649
X-19.784 Y63.993
X-19.901 Y63.925
X-19.995 Y63.828
X-20.06 Y63.648
Y63.456
X-19.995 Y63.276
X-19.872 Y63.129
X-19.705 Y63.033
X-19.517 Y63.
G3 X-19.404 Y63.031 R0.249
X-19.395 Y63.037 R0.249
X-19.649 Y64. R0.52
G1 X-19.957
X-20.091 Y63.993
X-20.207 Y63.923
X-20.3 Y63.826
X-20.364 Y63.645
X-20.363 Y63.454
X-20.297 Y63.275
X-20.174 Y63.128
X-20.008 Y63.033
X-19.82 Y63.
G3 X-19.707 Y63.031 R0.249
X-19.694 Y63.039 R0.249
X-19.957 Y64. R0.522
G1 X-20.253
X-20.388 Y63.993
X-20.505 Y63.926
X-20.599 Y63.829
X-20.665 Y63.649
X-20.666 Y63.457
X-20.6 Y63.277
X-20.477 Y63.129
X-20.311 Y63.033
X-20.122 Y63.
G3 X-20.01 Y63.031 R0.249
G1 X-20.002 Y63.036
G3 X-20.253 Y64. R0.52
G1 X-20.563
X-20.698 Y63.993
X-20.813 Y63.923
X-20.906 Y63.825
X-20.97 Y63.645
X-20.969 Y63.454
X-20.903 Y63.274
X-20.779 Y63.128
X-20.613 Y63.033
X-20.425 Y63.
G3 X-20.313 Y63.031 R0.249
X-20.299 Y63.039 R0.249
X-20.563 Y64. R0.522
G1 X-20.86
X-20.995 Y63.993
X-21.112 Y63.925
X-21.206 Y63.828
X-21.272 Y63.648
Y63.456
X-21.206 Y63.276
X-21.083 Y63.129
X-20.917 Y63.033
X-20.728 Y63.
G3 X-20.615 Y63.031 R0.249
X-20.606 Y63.037 R0.249
X-20.86 Y64. R0.52
G1 X-21.168
X-21.303 Y63.993
X-21.418 Y63.923
X-21.511 Y63.826
X-21.576 Y63.645
X-21.575 Y63.454
X-21.508 Y63.275
X-21.385 Y63.128
X-21.219 Y63.033
X-21.031 Y63.
G3 X-20.918 Y63.031 R0.249
X-20.906 Y63.039 R0.249
X-21.168 Y64. R0.522
G1 X-21.464
X-21.599 Y63.993
X-21.716 Y63.926
X-21.81 Y63.829
X-21.877 Y63.649
Y63.457
X-21.812 Y63.277
X-21.689 Y63.129
X-21.522 Y63.033
X-21.333 Y63.
G3 X-21.221 Y63.031 R0.249
G1 X-21.213 Y63.036
G3 X-21.464 Y64. R0.52
G1 X-21.774
X-21.909 Y63.993
X-22.024 Y63.923
X-22.117 Y63.825
X-22.181 Y63.645
X-22.18 Y63.454
X-22.114 Y63.274
X-21.99 Y63.128
X-21.825 Y63.033
X-21.636 Y63.
G3 X-21.524 Y63.031 R0.249
X-21.511 Y63.039 R0.249
X-21.774 Y64. R0.522
G1 X-22.072
X-22.206 Y63.993
X-22.323 Y63.925
X-22.417 Y63.828
X-22.483 Y63.648
Y63.456
X-22.417 Y63.276
X-22.294 Y63.129
X-22.128 Y63.033
X-21.939 Y63.
G3 X-21.827 Y63.031 R0.249
X-21.817 Y63.037 R0.249
X-22.072 Y64. R0.52
G1 X-22.379
X-22.514 Y63.993
X-22.629 Y63.923
X-22.723 Y63.826
X-22.787 Y63.645
X-22.786 Y63.454
X-22.72 Y63.275
X-22.596 Y63.128
X-22.43 Y63.033
X-22.242 Y63.
G3 X-22.13 Y63.031 R0.249
X-22.117 Y63.039 R0.249
X-22.379 Y64. R0.522
G1 X-22.675
X-22.81 Y63.993
X-22.927 Y63.926
X-23.022 Y63.829
X-23.088 Y63.649
Y63.457
X-23.023 Y63.277
X-22.9 Y63.129
X-22.734 Y63.033
X-22.545 Y63.
G3 X-22.432 Y63.031 R0.249
G1 X-22.424 Y63.036
G3 X-22.675 Y64. R0.52
G1 X-22.985
X-23.12 Y63.993
X-23.235 Y63.923
X-23.328 Y63.825
X-23.392 Y63.645
X-23.391 Y63.454
X-23.325 Y63.274
X-23.202 Y63.128
X-23.036 Y63.033
X-22.847 Y63.
G3 X-22.735 Y63.031 R0.249
X-22.722 Y63.039 R0.249
X-22.985 Y64. R0.522
G1 X-23.283
X-23.418 Y63.993
X-23.534 Y63.925
X-23.628 Y63.828
X-23.694 Y63.648
Y63.456
X-23.628 Y63.276
X-23.505 Y63.129
X-23.339 Y63.033
X-23.15 Y63.
G3 X-23.038 Y63.031 R0.249
X-23.029 Y63.037 R0.249
X-23.283 Y64. R0.52
G1 X-23.59
X-23.725 Y63.993
X-23.84 Y63.923
X-23.934 Y63.826
X-23.998 Y63.645
X-23.997 Y63.454
X-23.931 Y63.275
X-23.808 Y63.128
X-23.642 Y63.033
X-23.453 Y63.
G3 X-23.341 Y63.031 R0.249
X-23.328 Y63.039 R0.249
X-23.59 Y64. R0.522
G1 X-23.887
X-24.021 Y63.993
X-24.138 Y63.926
X-24.233 Y63.829
X-24.299 Y63.649
Y63.457
X-24.234 Y63.277
X-24.111 Y63.129
X-23.945 Y63.033
X-23.756 Y63.
G3 X-23.643 Y63.031 R0.249
G1 X-23.635 Y63.036
G3 X-23.887 Y64. R0.52
G1 X-24.196
X-24.331 Y63.993
X-24.446 Y63.923
X-24.54 Y63.825
X-24.604 Y63.645
X-24.602 Y63.454
X-24.536 Y63.274
X-24.413 Y63.128
X-24.247 Y63.033
X-24.059 Y63.
G3 X-23.946 Y63.031 R0.249
X-23.933 Y63.039 R0.249
X-24.196 Y64. R0.522
G1 X-24.494
X-24.629 Y63.993
X-24.745 Y63.925
X-24.84 Y63.828
X-24.905 Y63.648
Y63.456
X-24.84 Y63.276
X-24.716 Y63.129
X-24.55 Y63.033
X-24.361 Y63.
G3 X-24.249 Y63.031 R0.249
X-24.24 Y63.037 R0.249
X-24.494 Y64. R0.52
G1 X-24.801
X-24.936 Y63.993
X-25.052 Y63.923
X-25.145 Y63.826
X-25.209 Y63.645
X-25.208 Y63.454
X-25.142 Y63.275
X-25.019 Y63.128
X-24.853 Y63.033
X-24.664 Y63.
G3 X-24.552 Y63.031 R0.249
X-24.539 Y63.039 R0.249
X-24.801 Y64. R0.522
G1 X-25.098
X-25.233 Y63.993
X-25.35 Y63.926
X-25.444 Y63.829
X-25.51 Y63.649
X-25.511 Y63.457
X-25.445 Y63.277
X-25.322 Y63.129
X-25.156 Y63.033
X-24.967 Y63.
G3 X-24.855 Y63.031 R0.249
G1 X-24.847 Y63.036
G3 X-25.098 Y64. R0.52
G1 X-25.408
X-25.543 Y63.993
X-25.658 Y63.923
X-25.751 Y63.825
X-25.815 Y63.645
X-25.814 Y63.454
X-25.747 Y63.274
X-25.624 Y63.128
X-25.458 Y63.033
X-25.27 Y63.
G3 X-25.157 Y63.031 R0.249
X-25.144 Y63.039 R0.249
X-25.408 Y64. R0.522
G1 X-25.705
X-25.84 Y63.993
X-25.957 Y63.925
X-26.051 Y63.828
X-26.116 Y63.648
X-26.117 Y63.456
X-26.051 Y63.276
X-25.928 Y63.129
X-25.762 Y63.033
X-25.573 Y63.
G3 X-25.46 Y63.031 R0.249
X-25.451 Y63.037 R0.249
X-25.705 Y64. R0.52
G1 X-26.013
X-26.147 Y63.993
X-26.263 Y63.923
X-26.356 Y63.826
X-26.421 Y63.645
X-26.42 Y63.454
X-26.353 Y63.275
X-26.23 Y63.128
X-26.064 Y63.033
X-25.876 Y63.
G3 X-25.763 Y63.031 R0.249
X-25.751 Y63.039 R0.249
X-26.013 Y64. R0.522
G1 X-26.309
X-26.444 Y63.993
X-26.561 Y63.926
X-26.655 Y63.829
X-26.721 Y63.649
X-26.722 Y63.457
X-26.657 Y63.277
X-26.533 Y63.129
X-26.367 Y63.033
X-26.178 Y63.
G3 X-26.066 Y63.031 R0.249
G1 X-26.058 Y63.036
G3 X-26.309 Y64. R0.52
G1 X-26.619
X-26.754 Y63.993
X-26.869 Y63.923
X-26.962 Y63.825
X-27.026 Y63.645
X-27.025 Y63.454
X-26.959 Y63.274
X-26.835 Y63.128
X-26.669 Y63.033
X-26.481 Y63.
G3 X-26.369 Y63.031 R0.249
X-26.355 Y63.039 R0.249
X-26.619 Y64. R0.522
G1 X-26.916
X-27.051 Y63.993
X-27.168 Y63.925
X-27.262 Y63.828
X-27.328 Y63.648
Y63.456
X-27.262 Y63.276
X-27.139 Y63.129
X-26.973 Y63.033
X-26.784 Y63.
G3 X-26.672 Y63.031 R0.249
X-26.662 Y63.037 R0.249
X-26.916 Y64. R0.52
G1 X-27.224
X-27.359 Y63.993
X-27.474 Y63.923
X-27.567 Y63.826
X-27.632 Y63.645
X-27.631 Y63.454
X-27.565 Y63.275
X-27.441 Y63.128
X-27.275 Y63.033
X-27.087 Y63.
G3 X-26.974 Y63.031 R0.249
X-26.962 Y63.039 R0.249
X-27.224 Y64. R0.522
G1 X-27.52
X-27.655 Y63.993
X-27.772 Y63.926
X-27.867 Y63.829
X-27.933 Y63.649
Y63.457
X-27.868 Y63.277
X-27.745 Y63.129
X-27.578 Y63.033
X-27.389 Y63.
G3 X-27.277 Y63.031 R0.249
G1 X-27.269 Y63.036
G3 X-27.52 Y64. R0.52
G1 X-27.83
X-27.965 Y63.993
X-28.08 Y63.923
X-28.173 Y63.825
X-28.237 Y63.645
X-28.236 Y63.454
X-28.17 Y63.274
X-28.047 Y63.128
X-27.881 Y63.033
X-27.692 Y63.
G3 X-27.58 Y63.031 R0.249
X-27.567 Y63.039 R0.249
X-27.83 Y64. R0.522
G1 X-28.128
X-28.263 Y63.993
X-28.379 Y63.925
X-28.473 Y63.828
X-28.539 Y63.648
Y63.456
X-28.473 Y63.276
X-28.35 Y63.129
X-28.184 Y63.033
X-27.995 Y63.
G3 X-27.883 Y63.031 R0.249
X-27.874 Y63.037 R0.249
X-28.128 Y64. R0.52
G1 X-28.435
X-28.57 Y63.993
X-28.685 Y63.923
X-28.779 Y63.826
X-28.843 Y63.645
X-28.842 Y63.454
X-28.776 Y63.275
X-28.652 Y63.128
X-28.487 Y63.033
X-28.298 Y63.
G3 X-28.186 Y63.031 R0.249
X-28.173 Y63.039 R0.249
X-28.435 Y64. R0.522
G1 X-28.732
X-28.866 Y63.993
X-28.983 Y63.926
X-29.078 Y63.829
X-29.144 Y63.649
Y63.457
X-29.079 Y63.277
X-28.956 Y63.129
X-28.79 Y63.033
X-28.601 Y63.
G3 X-28.488 Y63.031 R0.249
G1 X-28.48 Y63.036
G3 X-28.732 Y64. R0.52
G1 X-29.041
X-29.176 Y63.993
X-29.291 Y63.923
X-29.385 Y63.825
X-29.449 Y63.645
X-29.447 Y63.454
X-29.381 Y63.274
X-29.258 Y63.128
X-29.092 Y63.033
X-28.904 Y63.
G3 X-28.791 Y63.031 R0.249
X-28.778 Y63.039 R0.249
X-29.041 Y64. R0.522
G1 X-29.339
X-29.474 Y63.993
X-29.59 Y63.925
X-29.684 Y63.828
X-29.75 Y63.648
Y63.456
X-29.685 Y63.276
X-29.561 Y63.129
X-29.395 Y63.033
X-29.206 Y63.
G3 X-29.094 Y63.031 R0.249
X-29.085 Y63.037 R0.249
X-29.339 Y64. R0.52
G1 X-29.646
X-29.781 Y63.993
X-29.897 Y63.923
X-29.99 Y63.826
X-30.054 Y63.645
X-30.053 Y63.454
X-29.987 Y63.275
X-29.864 Y63.128
X-29.698 Y63.033
X-29.509 Y63.
G3 X-29.397 Y63.031 R0.249
X-29.384 Y63.039 R0.249
X-29.646 Y64. R0.522
G1 X-29.943
X-30.078 Y63.993
X-30.195 Y63.926
X-30.289 Y63.829
X-30.355 Y63.649
X-30.356 Y63.457
X-30.29 Y63.277
X-30.167 Y63.129
X-30.001 Y63.033
X-29.812 Y63.
G3 X-29.699 Y63.031 R0.249
G1 X-29.692 Y63.036
G3 X-29.943 Y64. R0.52
G1 X-30.253
X-30.387 Y63.993
X-30.503 Y63.923
X-30.596 Y63.825
X-30.66 Y63.645
X-30.659 Y63.454
X-30.592 Y63.274
X-30.469 Y63.128
X-30.303 Y63.033
X-30.115 Y63.
G3 X-30.002 Y63.031 R0.249
X-29.989 Y63.039 R0.249
X-30.253 Y64. R0.522
G1 X-30.55
X-30.685 Y63.993
X-30.802 Y63.925
X-30.896 Y63.828
X-30.961 Y63.648
Y63.456
X-30.896 Y63.276
X-30.773 Y63.129
X-30.607 Y63.033
X-30.418 Y63.
G3 X-30.305 Y63.031 R0.249
X-30.296 Y63.037 R0.249
X-30.55 Y64. R0.52
G1 X-30.858
X-30.992 Y63.993
X-31.108 Y63.923
X-31.201 Y63.826
X-31.265 Y63.645
X-31.264 Y63.454
X-31.198 Y63.275
X-31.075 Y63.128
X-30.909 Y63.033
X-30.721 Y63.
G3 X-30.608 Y63.031 R0.249
X-30.596 Y63.039 R0.249
X-30.858 Y64. R0.522
G1 X-31.154
X-31.289 Y63.993
X-31.406 Y63.926
X-31.5 Y63.829
X-31.566 Y63.649
X-31.567 Y63.457
X-31.502 Y63.277
X-31.378 Y63.129
X-31.212 Y63.033
X-31.023 Y63.
G3 X-30.911 Y63.031 R0.249
G1 X-30.903 Y63.036
G3 X-31.154 Y64. R0.52
G1 X-31.464
X-31.599 Y63.993
X-31.714 Y63.923
X-31.807 Y63.825
X-31.871 Y63.645
X-31.87 Y63.454
X-31.804 Y63.274
X-31.68 Y63.128
X-31.514 Y63.033
X-31.326 Y63.
G3 X-31.214 Y63.031 R0.249
X-31.2 Y63.039 R0.249
X-31.464 Y64. R0.522
G1 X-31.761
X-31.896 Y63.993
X-32.013 Y63.925
X-32.107 Y63.828
X-32.173 Y63.648
Y63.456
X-32.107 Y63.276
X-31.984 Y63.129
X-31.818 Y63.033
X-31.629 Y63.
G3 X-31.516 Y63.031 R0.249
X-31.507 Y63.037 R0.249
X-31.761 Y64. R0.52
G1 X-32.069
X-32.204 Y63.993
X-32.319 Y63.923
X-32.412 Y63.826
X-32.477 Y63.645
X-32.476 Y63.454
X-32.409 Y63.275
X-32.286 Y63.128
X-32.12 Y63.033
X-31.932 Y63.
G3 X-31.819 Y63.031 R0.249
X-31.807 Y63.039 R0.249
X-32.069 Y64. R0.522
G1 X-32.365
X-32.5 Y63.993
X-32.617 Y63.926
X-32.711 Y63.829
X-32.778 Y63.649
Y63.457
X-32.713 Y63.277
X-32.59 Y63.129
X-32.423 Y63.033
X-32.234 Y63.
G3 X-32.122 Y63.031 R0.249
G1 X-32.114 Y63.036
G3 X-32.365 Y64. R0.52
G1 X-32.675
X-32.81 Y63.993
X-32.925 Y63.923
X-33.018 Y63.825
X-33.082 Y63.645
X-33.081 Y63.454
X-33.015 Y63.274
X-32.891 Y63.128
X-32.726 Y63.033
X-32.537 Y63.
G3 X-32.425 Y63.031 R0.249
X-32.412 Y63.039 R0.249
X-32.675 Y64. R0.522
G1 X-32.973
X-33.107 Y63.993
X-33.224 Y63.925
X-33.318 Y63.828
X-33.384 Y63.648
Y63.456
X-33.318 Y63.276
X-33.195 Y63.129
X-33.029 Y63.033
X-32.84 Y63.
G3 X-32.728 Y63.031 R0.249
X-32.718 Y63.037 R0.249
X-32.973 Y64. R0.52
G1 X-33.28
X-33.415 Y63.993
X-33.53 Y63.923
X-33.624 Y63.826
X-33.688 Y63.645
X-33.687 Y63.454
X-33.621 Y63.275
X-33.497 Y63.128
X-33.331 Y63.033
X-33.143 Y63.
G3 X-33.031 Y63.031 R0.249
X-33.018 Y63.039 R0.249
X-33.28 Y64. R0.522
G1 X-33.576
X-33.711 Y63.993
X-33.828 Y63.926
X-33.923 Y63.829
X-33.989 Y63.649
Y63.457
X-33.924 Y63.277
X-33.801 Y63.129
X-33.635 Y63.033
X-33.446 Y63.
G3 X-33.333 Y63.031 R0.249
G1 X-33.325 Y63.036
G3 X-33.576 Y64. R0.52
G1 X-33.886
X-34.021 Y63.993
X-34.136 Y63.923
X-34.229 Y63.825
X-34.293 Y63.645
X-34.292 Y63.454
X-34.226 Y63.274
X-34.103 Y63.128
X-33.937 Y63.033
X-33.749 Y63.
G3 X-33.636 Y63.031 R0.249
X-33.623 Y63.039 R0.249
X-33.886 Y64. R0.522
G1 X-34.184
X-34.319 Y63.993
X-34.435 Y63.925
X-34.529 Y63.828
X-34.595 Y63.648
Y63.456
X-34.53 Y63.276
X-34.406 Y63.129
X-34.24 Y63.033
X-34.051 Y63.
G3 X-33.939 Y63.031 R0.249
X-33.93 Y63.037 R0.249
X-34.184 Y64. R0.52
G1 X-34.491
X-34.626 Y63.993
X-34.742 Y63.923
X-34.835 Y63.826
X-34.899 Y63.645
X-34.898 Y63.454
X-34.832 Y63.275
X-34.709 Y63.128
X-34.543 Y63.033
X-34.354 Y63.
G3 X-34.242 Y63.031 R0.249
X-34.229 Y63.039 R0.249
X-34.491 Y64. R0.522
G1 X-34.788
X-34.922 Y63.993
X-35.039 Y63.926
X-35.134 Y63.829
X-35.2 Y63.649
X-35.201 Y63.457
X-35.135 Y63.277
X-35.012 Y63.129
X-34.846 Y63.033
X-34.657 Y63.
G3 X-34.544 Y63.031 R0.249
G1 X-34.537 Y63.036
G3 X-34.788 Y64. R0.52
G1 X-35.098
X-35.232 Y63.993
X-35.348 Y63.923
X-35.441 Y63.825
X-35.505 Y63.645
X-35.504 Y63.454
X-35.437 Y63.274
X-35.314 Y63.128
X-35.148 Y63.033
X-34.96 Y63.
G3 X-34.847 Y63.031 R0.249
X-34.834 Y63.039 R0.249
X-35.098 Y64. R0.522
G1 X-35.395
X-35.53 Y63.993
X-35.646 Y63.925
X-35.741 Y63.828
X-35.806 Y63.648
Y63.456
X-35.741 Y63.276
X-35.618 Y63.129
X-35.451 Y63.033
X-35.263 Y63.
G3 X-35.15 Y63.031 R0.249
X-35.141 Y63.037 R0.249
X-35.395 Y64. R0.52
G1 X-35.702
X-35.837 Y63.993
X-35.953 Y63.923
X-36.046 Y63.826
X-36.11 Y63.645
X-36.109 Y63.454
X-36.043 Y63.275
X-35.92 Y63.128
X-35.754 Y63.033
X-35.566 Y63.
G3 X-35.453 Y63.031 R0.249
X-35.44 Y63.039 R0.249
X-35.702 Y64. R0.522
G1 X-35.999
X-36.134 Y63.993
X-36.251 Y63.926
X-36.345 Y63.829
X-36.411 Y63.649
X-36.412 Y63.457
X-36.346 Y63.277
X-36.223 Y63.129
X-36.057 Y63.033
X-35.868 Y63.
G3 X-35.756 Y63.031 R0.249
G1 X-35.748 Y63.036
G3 X-35.999 Y64. R0.52
G1 X-36.309
X-36.444 Y63.993
X-36.559 Y63.923
X-36.652 Y63.825
X-36.716 Y63.645
X-36.715 Y63.454
X-36.649 Y63.274
X-36.525 Y63.128
X-36.359 Y63.033
X-36.171 Y63.
G3 X-36.059 Y63.031 R0.249
X-36.045 Y63.039 R0.249
X-36.309 Y64. R0.522
G1 X-36.606
X-36.741 Y63.993
X-36.858 Y63.925
X-36.952 Y63.828
X-37.017 Y63.648
X-37.018 Y63.456
X-36.952 Y63.276
X-36.829 Y63.129
X-36.663 Y63.033
X-36.474 Y63.
G3 X-36.361 Y63.031 R0.249
X-36.352 Y63.037 R0.249
X-36.606 Y64. R0.52
G1 X-36.914
X-37.049 Y63.993
X-37.164 Y63.923
X-37.257 Y63.826
X-37.322 Y63.645
X-37.321 Y63.454
X-37.254 Y63.275
X-37.131 Y63.128
X-36.965 Y63.033
X-36.777 Y63.
G3 X-36.664 Y63.031 R0.249
X-36.652 Y63.039 R0.249
X-36.914 Y64. R0.522
G1 X-37.21
X-37.345 Y63.993
X-37.462 Y63.926
X-37.556 Y63.829
X-37.623 Y63.649
Y63.457
X-37.558 Y63.277
X-37.434 Y63.129
X-37.268 Y63.033
X-37.079 Y63.
G3 X-36.967 Y63.031 R0.249
G1 X-36.959 Y63.036
G3 X-37.21 Y64. R0.52
G1 X-37.52
X-37.655 Y63.993
X-37.77 Y63.923
X-37.863 Y63.825
X-37.927 Y63.645
X-37.926 Y63.454
X-37.86 Y63.274
X-37.736 Y63.128
X-37.571 Y63.033
X-37.382 Y63.
G3 X-37.27 Y63.031 R0.249
X-37.257 Y63.039 R0.249
X-37.52 Y64. R0.522
G1 X-37.818
X-37.952 Y63.993
X-38.069 Y63.925
X-38.163 Y63.828
X-38.229 Y63.648
Y63.456
X-38.163 Y63.276
X-38.04 Y63.129
X-37.874 Y63.033
X-37.685 Y63.
G3 X-37.573 Y63.031 R0.249
X-37.563 Y63.037 R0.249
X-37.818 Y64. R0.52
G1 X-38.125
X-38.26 Y63.993
X-38.375 Y63.923
X-38.469 Y63.826
X-38.533 Y63.645
X-38.532 Y63.454
X-38.466 Y63.275
X-38.342 Y63.128
X-38.176 Y63.033
X-37.988 Y63.
G3 X-37.876 Y63.031 R0.249
X-37.863 Y63.039 R0.249
X-38.125 Y64. R0.522
G1 X-38.421
X-38.556 Y63.993
X-38.673 Y63.926
X-38.768 Y63.829
X-38.834 Y63.649
Y63.457
X-38.769 Y63.277
X-38.646 Y63.129
X-38.48 Y63.033
X-38.291 Y63.
G3 X-38.178 Y63.031 R0.249
G1 X-38.17 Y63.036
G3 X-38.421 Y64. R0.52
G1 X-38.731
X-38.866 Y63.993
X-38.981 Y63.923
X-39.074 Y63.825
X-39.138 Y63.645
X-39.137 Y63.454
X-39.071 Y63.274
X-38.948 Y63.128
X-38.782 Y63.033
X-38.593 Y63.
G3 X-38.481 Y63.031 R0.249
X-38.468 Y63.039 R0.249
X-38.731 Y64. R0.522
G1 X-39.029
X-39.164 Y63.993
X-39.28 Y63.925
X-39.374 Y63.828
X-39.44 Y63.648
Y63.456
X-39.374 Y63.276
X-39.251 Y63.129
X-39.085 Y63.033
X-38.896 Y63.
G3 X-38.784 Y63.031 R0.249
X-38.775 Y63.037 R0.249
X-39.029 Y64. R0.52
G1 X-39.336
X-39.471 Y63.993
X-39.586 Y63.923
X-39.68 Y63.826
X-39.744 Y63.645
X-39.743 Y63.454
X-39.677 Y63.275
X-39.553 Y63.128
X-39.388 Y63.033
X-39.199 Y63.
G3 X-39.087 Y63.031 R0.249
X-39.074 Y63.039 R0.249
X-39.336 Y64. R0.522
G1 X-39.633
X-39.767 Y63.993
X-39.884 Y63.926
X-39.979 Y63.829
X-40.045 Y63.649
Y63.457
X-39.98 Y63.277
X-39.857 Y63.129
X-39.691 Y63.033
X-39.502 Y63.
G3 X-39.389 Y63.031 R0.249
G1 X-39.381 Y63.036
G3 X-39.633 Y64. R0.52
G1 X-39.942
X-40.077 Y63.993
X-40.192 Y63.923
X-40.286 Y63.825
X-40.35 Y63.645
X-40.348 Y63.454
X-40.282 Y63.274
X-40.159 Y63.128
X-39.993 Y63.033
X-39.805 Y63.
G3 X-39.692 Y63.031 R0.249
X-39.679 Y63.039 R0.249
X-39.942 Y64. R0.522
G1 X-40.24
X-40.375 Y63.993
X-40.491 Y63.925
X-40.586 Y63.828
X-40.651 Y63.648
Y63.456
X-40.586 Y63.276
X-40.462 Y63.129
X-40.296 Y63.033
X-40.107 Y63.
G3 X-39.995 Y63.031 R0.249
X-39.986 Y63.037 R0.249
X-40.24 Y64. R0.52
G1 X-40.547
X-40.682 Y63.993
X-40.798 Y63.923
X-40.891 Y63.826
X-40.955 Y63.645
X-40.954 Y63.454
X-40.888 Y63.275
X-40.765 Y63.128
X-40.599 Y63.033
X-40.41 Y63.
G3 X-40.298 Y63.031 R0.249
X-40.285 Y63.039 R0.249
X-40.547 Y64. R0.522
G1 X-40.844
X-40.979 Y63.993
X-41.096 Y63.926
X-41.19 Y63.829
X-41.256 Y63.649
X-41.257 Y63.457
X-41.191 Y63.277
X-41.068 Y63.129
X-40.902 Y63.033
X-40.713 Y63.
G3 X-40.601 Y63.031 R0.249
G1 X-40.593 Y63.036
G3 X-40.844 Y64. R0.52
G1 X-41.154
X-41.289 Y63.993
X-41.404 Y63.923
X-41.497 Y63.825
X-41.561 Y63.645
X-41.56 Y63.454
X-41.493 Y63.274
X-41.37 Y63.128
X-41.204 Y63.033
X-41.016 Y63.
G3 X-40.903 Y63.031 R0.249
X-40.89 Y63.039 R0.249
X-41.154 Y64. R0.522
G1 X-41.451
X-41.586 Y63.993
X-41.703 Y63.925
X-41.797 Y63.828
X-41.862 Y63.648
Y63.456
X-41.797 Y63.276
X-41.674 Y63.129
X-41.508 Y63.033
X-41.319 Y63.
G3 X-41.206 Y63.031 R0.249
X-41.197 Y63.037 R0.249
X-41.451 Y64. R0.52
G1 X-41.759
X-41.893 Y63.993
X-42.009 Y63.923
X-42.102 Y63.826
X-42.166 Y63.645
X-42.165 Y63.454
X-42.099 Y63.275
X-41.976 Y63.128
X-41.81 Y63.033
X-41.622 Y63.
G3 X-41.509 Y63.031 R0.249
X-41.497 Y63.039 R0.249
X-41.759 Y64. R0.522
G1 X-42.055
X-42.19 Y63.993
X-42.307 Y63.926
X-42.401 Y63.829
X-42.467 Y63.649
X-42.468 Y63.457
X-42.403 Y63.277
X-42.279 Y63.129
X-42.113 Y63.033
X-41.924 Y63.
G3 X-41.812 Y63.031 R0.249
G1 X-41.804 Y63.036
G3 X-42.055 Y64. R0.52
G1 X-42.365
X-42.5 Y63.993
X-42.615 Y63.923
X-42.708 Y63.825
X-42.772 Y63.645
X-42.771 Y63.454
X-42.705 Y63.274
X-42.581 Y63.128
X-42.415 Y63.033
X-42.227 Y63.
G3 X-42.115 Y63.031 R0.249
X-42.101 Y63.039 R0.249
X-42.365 Y64. R0.522
G1 X-42.662
X-42.797 Y63.993
X-42.914 Y63.925
X-43.008 Y63.828
X-43.074 Y63.648
Y63.456
X-43.008 Y63.276
X-42.885 Y63.129
X-42.719 Y63.033
X-42.53 Y63.
G3 X-42.417 Y63.031 R0.249
X-42.408 Y63.037 R0.249
X-42.662 Y64. R0.52
G1 X-42.97
X-43.105 Y63.993
X-43.22 Y63.923
X-43.313 Y63.826
X-43.378 Y63.645
X-43.377 Y63.454
X-43.311 Y63.275
X-43.187 Y63.128
X-43.021 Y63.033
X-42.833 Y63.
G3 X-42.72 Y63.031 R0.249
X-42.708 Y63.039 R0.249
X-42.97 Y64. R0.522
G1 X-43.266
X-43.401 Y63.993
X-43.518 Y63.926
X-43.612 Y63.829
X-43.679 Y63.649
Y63.457
X-43.614 Y63.277
X-43.491 Y63.129
X-43.324 Y63.033
X-43.135 Y63.
G3 X-43.023 Y63.031 R0.249
G1 X-43.015 Y63.036
G3 X-43.266 Y64. R0.52
G1 X-43.576
X-43.711 Y63.993
X-43.826 Y63.923
X-43.919 Y63.825
X-43.983 Y63.645
X-43.982 Y63.454
X-43.916 Y63.274
X-43.792 Y63.128
X-43.627 Y63.033
X-43.438 Y63.
G3 X-43.326 Y63.031 R0.249
X-43.313 Y63.039 R0.249
X-43.576 Y64. R0.522
G1 X-43.874
X-44.009 Y63.993
X-44.125 Y63.925
X-44.219 Y63.828
X-44.285 Y63.648
Y63.456
X-44.219 Y63.276
X-44.096 Y63.129
X-43.93 Y63.033
X-43.741 Y63.
G3 X-43.629 Y63.031 R0.249
X-43.619 Y63.037 R0.249
X-43.874 Y64. R0.52
G1 X-44.181
X-44.316 Y63.993
X-44.431 Y63.923
X-44.525 Y63.826
X-44.589 Y63.645
X-44.588 Y63.454
X-44.522 Y63.275
X-44.398 Y63.128
X-44.233 Y63.033
X-44.044 Y63.
G3 X-43.932 Y63.031 R0.249
X-43.919 Y63.039 R0.249
X-44.181 Y64. R0.522
G1 X-44.477
X-44.612 Y63.993
X-44.729 Y63.926
X-44.824 Y63.829
X-44.89 Y63.649
Y63.457
X-44.825 Y63.277
X-44.702 Y63.129
X-44.536 Y63.033
X-44.347 Y63.
G3 X-44.234 Y63.031 R0.249
G1 X-44.226 Y63.036
G3 X-44.477 Y64. R0.52
G1 X-44.787
X-44.922 Y63.993
X-45.037 Y63.923
X-45.131 Y63.825
X-45.195 Y63.645
X-45.193 Y63.454
X-45.127 Y63.274
X-45.004 Y63.128
X-44.838 Y63.033
X-44.65 Y63.
G3 X-44.537 Y63.031 R0.249
X-44.524 Y63.039 R0.249
X-44.787 Y64. R0.522
G1 X-45.085
X-45.22 Y63.993
X-45.336 Y63.925
X-45.43 Y63.828
X-45.496 Y63.648
Y63.456
X-45.431 Y63.276
X-45.307 Y63.129
X-45.141 Y63.033
X-44.952 Y63.
G3 X-44.84 Y63.031 R0.249
X-44.831 Y63.037 R0.249
X-45.085 Y64. R0.52
G1 X-45.392
X-45.527 Y63.993
X-45.643 Y63.923
X-45.736 Y63.826
X-45.8 Y63.645
X-45.799 Y63.454
X-45.733 Y63.275
X-45.61 Y63.128
X-45.444 Y63.033
X-45.255 Y63.
G3 X-45.143 Y63.031 R0.249
X-45.13 Y63.039 R0.249
X-45.392 Y64. R0.522
G1 X-45.689
X-45.824 Y63.993
X-45.94 Y63.926
X-46.035 Y63.829
X-46.101 Y63.649
X-46.102 Y63.457
X-46.036 Y63.277
X-45.913 Y63.129
X-45.747 Y63.033
X-45.558 Y63.
G3 X-45.445 Y63.031 R0.249
G1 X-45.438 Y63.036
G3 X-45.689 Y64. R0.52
G1 X-45.999
X-46.133 Y63.993
X-46.249 Y63.923
X-46.342 Y63.825
X-46.406 Y63.645
X-46.405 Y63.454
X-46.338 Y63.274
X-46.215 Y63.128
X-46.049 Y63.033
X-45.861 Y63.
G3 X-45.748 Y63.031 R0.249
X-45.735 Y63.039 R0.249
X-45.999 Y64. R0.522
G1 X-46.296
X-46.431 Y63.993
X-46.548 Y63.925
X-46.642 Y63.828
X-46.707 Y63.648
Y63.456
X-46.642 Y63.276
X-46.519 Y63.129
X-46.352 Y63.033
X-46.164 Y63.
G3 X-46.051 Y63.031 R0.249
X-46.042 Y63.037 R0.249
X-46.296 Y64. R0.52
G1 X-46.604
X-46.738 Y63.993
X-46.854 Y63.923
X-46.947 Y63.826
X-47.011 Y63.645
X-47.01 Y63.454
X-46.944 Y63.275
X-46.821 Y63.128
X-46.655 Y63.033
X-46.467 Y63.
G3 X-46.354 Y63.031 R0.249
X-46.341 Y63.039 R0.249
X-46.604 Y64. R0.522
G1 X-46.9
X-47.035 Y63.993
X-47.152 Y63.926
X-47.246 Y63.829
X-47.312 Y63.649
X-47.313 Y63.457
X-47.247 Y63.277
X-47.124 Y63.129
X-46.958 Y63.033
X-46.769 Y63.
G3 X-46.657 Y63.031 R0.249
G1 X-46.649 Y63.036
G3 X-46.9 Y64. R0.52
G1 X-47.21
X-47.345 Y63.993
X-47.46 Y63.923
X-47.553 Y63.825
X-47.617 Y63.645
X-47.616 Y63.454
X-47.55 Y63.274
X-47.426 Y63.128
X-47.26 Y63.033
X-47.072 Y63.
G3 X-46.96 Y63.031 R0.249
X-46.946 Y63.039 R0.249
X-47.21 Y64. R0.522
G1 X-47.507
X-47.642 Y63.993
X-47.759 Y63.925
X-47.853 Y63.828
X-47.919 Y63.648
Y63.456
X-47.853 Y63.276
X-47.73 Y63.129
X-47.564 Y63.033
X-47.375 Y63.
G3 X-47.262 Y63.031 R0.249
X-47.253 Y63.037 R0.249
X-47.507 Y64. R0.52
G1 X-47.815
X-47.95 Y63.993
X-48.065 Y63.923
X-48.158 Y63.826
X-48.223 Y63.645
X-48.222 Y63.454
X-48.155 Y63.275
X-48.032 Y63.128
X-47.866 Y63.033
X-47.678 Y63.
G3 X-47.565 Y63.031 R0.249
X-47.553 Y63.039 R0.249
X-47.815 Y64. R0.522
G1 X-48.111
X-48.246 Y63.993
X-48.363 Y63.926
X-48.457 Y63.829
X-48.524 Y63.649
Y63.457
X-48.459 Y63.277
X-48.336 Y63.129
X-48.169 Y63.033
X-47.98 Y63.
G3 X-47.868 Y63.031 R0.249
G1 X-47.86 Y63.036
G3 X-48.111 Y64. R0.52
G1 X-48.421
X-48.556 Y63.993
X-48.671 Y63.923
X-48.764 Y63.825
X-48.828 Y63.645
X-48.827 Y63.454
X-48.761 Y63.274
X-48.637 Y63.128
X-48.472 Y63.033
X-48.283 Y63.
G3 X-48.171 Y63.031 R0.249
X-48.158 Y63.039 R0.249
X-48.421 Y64. R0.522
G1 X-48.719
X-48.853 Y63.993
X-48.97 Y63.925
X-49.064 Y63.828
X-49.13 Y63.648
Y63.456
X-49.064 Y63.276
X-48.941 Y63.129
X-48.775 Y63.033
X-48.586 Y63.
G3 X-48.474 Y63.031 R0.249
X-48.464 Y63.037 R0.249
X-48.719 Y64. R0.52
G1 X-49.026
X-49.161 Y63.993
X-49.276 Y63.923
X-49.37 Y63.826
X-49.434 Y63.645
X-49.433 Y63.454
X-49.367 Y63.275
X-49.243 Y63.128
X-49.077 Y63.033
X-48.889 Y63.
G3 X-48.777 Y63.031 R0.249
X-48.764 Y63.039 R0.249
X-49.026 Y64. R0.522
G1 X-49.322
X-49.457 Y63.993
X-49.574 Y63.926
X-49.669 Y63.829
X-49.735 Y63.649
Y63.457
X-49.67 Y63.277
X-49.547 Y63.129
X-49.381 Y63.033
X-49.192 Y63.
G3 X-49.079 Y63.031 R0.249
G1 X-49.071 Y63.036
G3 X-49.322 Y64. R0.52
G1 X-49.632
X-49.767 Y63.993
X-49.882 Y63.923
X-49.975 Y63.825
X-50.039 Y63.645
X-50.038 Y63.454
X-49.972 Y63.274
X-49.849 Y63.128
X-49.683 Y63.033
X-49.494 Y63.
G3 X-49.382 Y63.031 R0.249
X-49.369 Y63.039 R0.249
X-49.632 Y64. R0.522
G1 X-49.93
X-50.065 Y63.993
X-50.181 Y63.925
X-50.275 Y63.828
X-50.341 Y63.648
Y63.456
X-50.275 Y63.276
X-50.152 Y63.129
X-49.986 Y63.033
X-49.797 Y63.
G3 X-49.685 Y63.031 R0.249
X-49.676 Y63.037 R0.249
X-49.93 Y64. R0.52
G1 X-50.237
X-50.372 Y63.993
X-50.487 Y63.923
X-50.581 Y63.826
X-50.645 Y63.645
X-50.644 Y63.454
X-50.578 Y63.275
X-50.455 Y63.128
X-50.289 Y63.033
X-50.1 Y63.
G3 X-49.988 Y63.031 R0.249
X-49.975 Y63.039 R0.249
X-50.237 Y64. R0.522
G1 X-50.534
X-50.668 Y63.993
X-50.785 Y63.926
X-50.88 Y63.829
X-50.946 Y63.649
Y63.457
X-50.881 Y63.277
X-50.758 Y63.129
X-50.592 Y63.033
X-50.403 Y63.
G3 X-50.29 Y63.031 R0.249
G1 X-50.282 Y63.036
G3 X-50.534 Y64. R0.52
G1 X-50.843
X-50.978 Y63.993
X-51.093 Y63.923
X-51.187 Y63.825
X-51.251 Y63.645
X-51.25 Y63.454
X-51.183 Y63.274
X-51.06 Y63.128
X-50.894 Y63.033
X-50.706 Y63.
G3 X-50.593 Y63.031 R0.249
X-50.58 Y63.039 R0.249
X-50.843 Y64. R0.522
G1 X-51.141
X-51.276 Y63.993
X-51.392 Y63.925
X-51.487 Y63.828
X-51.552 Y63.648
Y63.456
X-51.487 Y63.276
X-51.363 Y63.129
X-51.197 Y63.033
X-51.008 Y63.
G3 X-50.896 Y63.031 R0.249
X-50.887 Y63.037 R0.249
X-51.141 Y64. R0.52
G1 X-51.448
X-51.583 Y63.993
X-51.699 Y63.923
X-51.792 Y63.826
X-51.856 Y63.645
X-51.855 Y63.454
X-51.789 Y63.275
X-51.666 Y63.128
X-51.5 Y63.033
X-51.311 Y63.
G3 X-51.199 Y63.031 R0.249
X-51.186 Y63.039 R0.249
X-51.448 Y64. R0.522
G1 X-51.745
X-51.88 Y63.993
X-51.997 Y63.926
X-52.091 Y63.829
X-52.157 Y63.649
X-52.158 Y63.457
X-52.092 Y63.277
X-51.969 Y63.129
X-51.803 Y63.033
X-51.614 Y63.
G3 X-51.502 Y63.031 R0.249
G1 X-51.494 Y63.036
G3 X-51.745 Y64. R0.52
G1 X-52.055
X-52.19 Y63.993
X-52.305 Y63.923
X-52.398 Y63.825
X-52.462 Y63.645
X-52.461 Y63.454
X-52.394 Y63.274
X-52.271 Y63.128
X-52.105 Y63.033
X-51.917 Y63.
G3 X-51.805 Y63.031 R0.249
X-51.791 Y63.039 R0.249
X-52.055 Y64. R0.522
G1 X-52.352
X-52.487 Y63.993
X-52.604 Y63.925
X-52.698 Y63.828
X-52.763 Y63.648
X-52.764 Y63.456
X-52.698 Y63.276
X-52.575 Y63.129
X-52.409 Y63.033
X-52.22 Y63.
G3 X-52.107 Y63.031 R0.249
X-52.098 Y63.037 R0.249
X-52.352 Y64. R0.52
G1 X-52.66
X-52.794 Y63.993
X-52.91 Y63.923
X-53.003 Y63.826
X-53.068 Y63.645
X-53.067 Y63.454
X-53. Y63.275
X-52.877 Y63.128
X-52.711 Y63.033
X-52.523 Y63.
G3 X-52.41 Y63.031 R0.249
X-52.398 Y63.039 R0.249
X-52.66 Y64. R0.522
G1 X-52.956
X-53.091 Y63.993
X-53.208 Y63.926
X-53.302 Y63.829
X-53.368 Y63.649
X-53.369 Y63.457
X-53.304 Y63.277
X-53.18 Y63.129
X-53.014 Y63.033
X-52.825 Y63.
G3 X-52.713 Y63.031 R0.249
G1 X-52.705 Y63.036
G3 X-52.956 Y64. R0.52
G1 X-53.266
X-53.401 Y63.993
X-53.516 Y63.923
X-53.609 Y63.825
X-53.673 Y63.645
X-53.672 Y63.454
X-53.606 Y63.274
X-53.482 Y63.128
X-53.316 Y63.033
X-53.128 Y63.
G3 X-53.016 Y63.031 R0.249
X-53.002 Y63.039 R0.249
X-53.266 Y64. R0.522
G1 X-53.564
X-53.698 Y63.993
X-53.815 Y63.925
X-53.909 Y63.828
X-53.975 Y63.648
Y63.456
X-53.909 Y63.276
X-53.786 Y63.129
X-53.62 Y63.033
X-53.431 Y63.
G3 X-53.319 Y63.031 R0.249
X-53.309 Y63.037 R0.249
X-53.564 Y64. R0.52
G1 X-53.871
X-54.006 Y63.993
X-54.121 Y63.923
X-54.214 Y63.826
X-54.279 Y63.645
X-54.278 Y63.454
X-54.212 Y63.275
X-54.088 Y63.128
X-53.922 Y63.033
X-53.734 Y63.
G3 X-53.621 Y63.031 R0.249
X-53.609 Y63.039 R0.249
X-53.871 Y64. R0.522
G1 X-54.167
X-54.302 Y63.993
X-54.419 Y63.926
X-54.514 Y63.829
X-54.58 Y63.649
Y63.457
X-54.515 Y63.277
X-54.392 Y63.129
X-54.225 Y63.033
X-54.036 Y63.
G3 X-53.924 Y63.031 R0.249
G1 X-53.916 Y63.036
G3 X-54.167 Y64. R0.52
G1 X-54.477
X-54.612 Y63.993
X-54.727 Y63.923
X-54.82 Y63.825
X-54.884 Y63.645
X-54.883 Y63.454
X-54.817 Y63.274
X-54.694 Y63.128
X-54.528 Y63.033
X-54.339 Y63.
G3 X-54.227 Y63.031 R0.249
X-54.214 Y63.039 R0.249
X-54.477 Y64. R0.522
G1 X-54.775
X-54.91 Y63.993
X-55.026 Y63.925
X-55.12 Y63.828
X-55.186 Y63.648
Y63.456
X-55.12 Y63.276
X-54.997 Y63.129
X-54.831 Y63.033
X-54.642 Y63.
G3 X-54.53 Y63.031 R0.249
X-54.521 Y63.037 R0.249
X-54.775 Y64. R0.52
G1 X-55.082
X-55.217 Y63.993
X-55.332 Y63.923
X-55.426 Y63.826
X-55.49 Y63.645
X-55.489 Y63.454
X-55.423 Y63.275
X-55.299 Y63.128
X-55.134 Y63.033
X-54.945 Y63.
G3 X-54.833 Y63.031 R0.249
X-54.82 Y63.039 R0.249
X-55.082 Y64. R0.522
G1 X-55.379
X-55.513 Y63.993
X-55.63 Y63.926
X-55.725 Y63.829
X-55.791 Y63.649
Y63.457
X-55.726 Y63.277
X-55.603 Y63.129
X-55.437 Y63.033
X-55.248 Y63.
G3 X-55.135 Y63.031 R0.249
G1 X-55.127 Y63.036
G3 X-55.379 Y64. R0.52
G1 X-55.688
X-55.823 Y63.993
X-55.938 Y63.923
X-56.032 Y63.825
X-56.096 Y63.645
X-56.094 Y63.454
X-56.028 Y63.274
X-55.905 Y63.128
X-55.739 Y63.033
X-55.551 Y63.
G3 X-55.438 Y63.031 R0.249
X-55.425 Y63.039 R0.249
X-55.688 Y64. R0.522
G1 X-55.986
X-56.121 Y63.993
X-56.237 Y63.925
X-56.331 Y63.828
X-56.397 Y63.648
Y63.456
X-56.332 Y63.276
X-56.208 Y63.129
X-56.042 Y63.033
X-55.853 Y63.
G3 X-55.741 Y63.031 R0.249
X-55.732 Y63.037 R0.249
X-55.986 Y64. R0.52
G1 X-56.293
X-56.428 Y63.993
X-56.544 Y63.923
X-56.637 Y63.826
X-56.701 Y63.645
X-56.7 Y63.454
X-56.634 Y63.275
X-56.511 Y63.128
X-56.345 Y63.033
X-56.156 Y63.
G3 X-56.044 Y63.031 R0.249
X-56.031 Y63.039 R0.249
X-56.293 Y64. R0.522
G1 X-56.59
X-56.725 Y63.993
X-56.842 Y63.926
X-56.936 Y63.829
X-57.002 Y63.649
X-57.003 Y63.457
X-56.937 Y63.277
X-56.814 Y63.129
X-56.648 Y63.033
X-56.459 Y63.
G3 X-56.346 Y63.031 R0.249
G1 X-56.339 Y63.036
G3 X-56.59 Y64. R0.52
G1 X-56.9
X-57.034 Y63.993
X-57.15 Y63.923
X-57.243 Y63.825
X-57.307 Y63.645
X-57.306 Y63.454
X-57.239 Y63.274
X-57.116 Y63.128
X-56.95 Y63.033
X-56.762 Y63.
G3 X-56.649 Y63.031 R0.249
X-56.636 Y63.039 R0.249
X-56.9 Y64. R0.522
G1 X-57.197
X-57.332 Y63.993
X-57.449 Y63.925
X-57.543 Y63.828
X-57.608 Y63.648
Y63.456
X-57.543 Y63.276
X-57.42 Y63.129
X-57.254 Y63.033
X-57.065 Y63.
G3 X-56.952 Y63.031 R0.249
X-56.943 Y63.037 R0.249
X-57.197 Y64. R0.52
G1 X-57.505
X-57.639 Y63.993
X-57.755 Y63.923
X-57.848 Y63.826
X-57.912 Y63.645
X-57.911 Y63.454
X-57.845 Y63.275
X-57.722 Y63.128
X-57.556 Y63.033
X-57.368 Y63.
G3 X-57.255 Y63.031 R0.249
X-57.243 Y63.039 R0.249
X-57.505 Y64. R0.522
G1 X-57.801
X-57.936 Y63.993
X-58.053 Y63.926
X-58.147 Y63.829
X-58.213 Y63.649
X-58.214 Y63.457
X-58.149 Y63.277
X-58.025 Y63.129
X-57.859 Y63.033
X-57.67 Y63.
G3 X-57.558 Y63.031 R0.249
G1 X-57.55 Y63.036
G3 X-57.801 Y64. R0.52
G1 X-58.111
X-58.246 Y63.993
X-58.361 Y63.923
X-58.454 Y63.825
X-58.518 Y63.645
X-58.517 Y63.454
X-58.451 Y63.274
X-58.327 Y63.128
X-58.161 Y63.033
X-57.973 Y63.
G3 X-57.861 Y63.031 R0.249
X-57.847 Y63.039 R0.249
X-58.111 Y64. R0.522
G1 X-58.408
X-58.543 Y63.993
X-58.66 Y63.925
X-58.754 Y63.828
X-58.82 Y63.648
Y63.456
X-58.754 Y63.276
X-58.631 Y63.129
X-58.465 Y63.033
X-58.276 Y63.
G3 X-58.163 Y63.031 R0.249
X-58.154 Y63.037 R0.249
X-58.408 Y64. R0.52
G1 X-58.716
X-58.851 Y63.993
X-58.966 Y63.923
X-59.059 Y63.826
X-59.124 Y63.645
X-59.123 Y63.454
X-59.057 Y63.275
X-58.933 Y63.128
X-58.767 Y63.033
X-58.579 Y63.
G3 X-58.466 Y63.031 R0.249
X-58.454 Y63.039 R0.249
X-58.716 Y64. R0.522
G1 X-59.012
X-59.147 Y63.993
X-59.264 Y63.926
X-59.358 Y63.829
X-59.425 Y63.649
Y63.457
X-59.36 Y63.277
X-59.237 Y63.129
X-59.07 Y63.033
X-58.881 Y63.
G3 X-58.769 Y63.031 R0.249
G1 X-58.761 Y63.036
G3 X-59.012 Y64. R0.52
G1 X-59.322
X-59.457 Y63.993
X-59.572 Y63.923
X-59.665 Y63.825
X-59.729 Y63.645
X-59.728 Y63.454
X-59.662 Y63.274
X-59.538 Y63.128
X-59.373 Y63.033
X-59.184 Y63.
G3 X-59.072 Y63.031 R0.249
X-59.059 Y63.039 R0.249
X-59.322 Y64. R0.522
G1 X-59.62
X-59.754 Y63.993
X-59.871 Y63.925
X-59.965 Y63.828
X-60.031 Y63.648
Y63.456
X-59.965 Y63.276
X-59.842 Y63.129
X-59.676 Y63.033
X-59.487 Y63.
G3 X-59.375 Y63.031 R0.249
X-59.365 Y63.037 R0.249
X-59.62 Y64. R0.52
G1 X-59.927
X-60.062 Y63.993
X-60.177 Y63.923
X-60.271 Y63.826
X-60.335 Y63.645
X-60.334 Y63.454
X-60.268 Y63.275
X-60.144 Y63.128
X-59.978 Y63.033
X-59.79 Y63.
G3 X-59.678 Y63.031 R0.249
X-59.665 Y63.039 R0.249
X-59.927 Y64. R0.522
G1 X-60.223
X-60.358 Y63.993
X-60.475 Y63.926
X-60.57 Y63.829
X-60.636 Y63.649
Y63.457
X-60.571 Y63.277
X-60.448 Y63.129
X-60.282 Y63.033
X-60.093 Y63.
G3 X-59.98 Y63.031 R0.249
G1 X-59.972 Y63.036
G3 X-60.223 Y64. R0.52
G1 X-60.533
X-60.668 Y63.993
X-60.783 Y63.923
X-60.876 Y63.825
X-60.941 Y63.645
X-60.939 Y63.454
X-60.873 Y63.274
X-60.75 Y63.128
X-60.584 Y63.033
X-60.396 Y63.
G3 X-60.283 Y63.031 R0.249
X-60.27 Y63.039 R0.249
X-60.533 Y64. R0.522
G1 X-60.831
X-60.966 Y63.993
X-61.082 Y63.925
X-61.176 Y63.828
X-61.242 Y63.648
Y63.456
X-61.177 Y63.276
X-61.053 Y63.129
X-60.887 Y63.033
X-60.698 Y63.
G3 X-60.586 Y63.031 R0.249
X-60.577 Y63.037 R0.249
X-60.831 Y64. R0.52
G1 X-61.138
X-61.273 Y63.993
X-61.389 Y63.923
X-61.482 Y63.826
X-61.546 Y63.645
X-61.545 Y63.454
X-61.479 Y63.275
X-61.356 Y63.128
X-61.19 Y63.033
X-61.001 Y63.
G3 X-60.889 Y63.031 R0.249
X-60.876 Y63.039 R0.249
X-61.138 Y64. R0.522
G1 X-61.435
X-61.569 Y63.993
X-61.686 Y63.926
X-61.781 Y63.829
X-61.847 Y63.649
X-61.848 Y63.457
X-61.782 Y63.277
X-61.659 Y63.129
X-61.493 Y63.033
X-61.304 Y63.
G3 X-61.191 Y63.031 R0.249
G1 X-61.184 Y63.036
G3 X-61.435 Y64. R0.52
G1 X-61.745
X-61.879 Y63.993
X-61.995 Y63.923
X-62.088 Y63.825
X-62.152 Y63.645
X-62.151 Y63.454
X-62.084 Y63.274
X-61.961 Y63.128
X-61.795 Y63.033
X-61.607 Y63.
G3 X-61.494 Y63.031 R0.249
X-61.481 Y63.039 R0.249
X-61.745 Y64. R0.522
G1 X-62.042
X-62.177 Y63.993
X-62.293 Y63.925
X-62.388 Y63.828
X-62.453 Y63.648
Y63.456
X-62.388 Y63.276
X-62.265 Y63.129
X-62.098 Y63.033
X-61.91 Y63.
G3 X-61.797 Y63.031 R0.249
X-61.788 Y63.037 R0.249
X-62.042 Y64. R0.52
G1 X-62.349
X-62.484 Y63.993
X-62.6 Y63.923
X-62.693 Y63.826
X-62.757 Y63.645
X-62.756 Y63.454
X-62.69 Y63.275
X-62.567 Y63.128
X-62.401 Y63.033
X-62.213 Y63.
G3 X-62.1 Y63.031 R0.249
X-62.087 Y63.039 R0.249
X-62.349 Y64. R0.522
G1 X-62.646
X-62.781 Y63.993
X-62.898 Y63.926
X-62.992 Y63.829
X-63.058 Y63.649
X-63.059 Y63.457
X-62.993 Y63.277
X-62.87 Y63.129
X-62.704 Y63.033
X-62.515 Y63.
G3 X-62.403 Y63.031 R0.249
G1 X-62.395 Y63.036
G3 X-62.646 Y64. R0.52
G1 X-62.881 Y63.996
X-62.966 Y63.969
X-63.05 Y63.908
X-63.101 Y63.835
X-63.133 Y63.734
Y63.266
X-63.101 Y63.165
X-63.05 Y63.092
X-62.966 Y63.031
X-62.881 Y63.004
X-62.848 Y63.
G3 X-62.734 Y63.027 R0.3
G1 X-62.673 Y63.054 Z-4.992
X-62.615 Y63.08 Z-4.97
X-62.563 Y63.103 Z-4.935
X-62.52 Y63.123 Z-4.887
X-62.487 Y63.137 Z-4.83
X-62.467 Y63.146 Z-4.767
X-62.46 Y63.15 Z-4.7
G0 Z15.

M9
M30
