(___28)
(T1  D=3.175 CR=0. - ZMIN=-7. - FLAT END MILL)
G90 G94 G91.1 G40 G49 G17
G21

(2D CONTOUR6)
M5
M9
T1
S10000 M3
G54
M8
G0 X-4.948 Y-11.493
G43 Z15. H1
Z5.
G1 Z2.5 F762.
G2 X4.948 Y11.493 Z-4.431 R12.512
X12.512 Y0. Z-7. R12.512
X-12.512 R12.512 F400.
X12.512 R12.512
X-12.512 R12.512
X12.512 R12.512
G0 Z15.

M9
M30
