( )
(T1  D=3.175 CR=0. - ZMIN=-8. - FLAT END MILL)
G90 G94 G91.1 G40 G49 G17
G21

(2D POCKET1)
M5
M9
T1
S10000 M3
G54
M8
G0 X-27.912 Y-6.02
G43 Z15. H1
Z5.
G1 Z2.5 F1588.
G3 X-26.897 Y-5.98 Z2.219 R0.508
X-27.912 Y-6.02 Z1.937 R0.508
X-26.897 Y-5.98 Z1.656 R0.508
X-27.912 Y-6.02 Z1.374 R0.508
X-26.897 Y-5.98 Z1.093 R0.508
X-27.912 Y-6.02 Z0.811 R0.508
X-26.897 Y-5.98 Z0.53 R0.508
X-27.912 Y-6.02 Z0.248 R0.508
X-26.897 Y-5.98 Z-0.033 R0.508
X-27.912 Y-6.02 Z-0.315 R0.508
X-26.897 Y-5.98 Z-0.596 R0.508
X-27.912 Y-6.02 Z-0.878 R0.508
X-26.897 Y-5.98 Z-1.159 R0.508
X-27.912 Y-6.02 Z-1.441 R0.508
X-26.897 Y-5.98 Z-1.722 R0.508
X-27.913 Y-6. Z-2. R0.508
X-26.087 R0.913
X-27.913 R0.913
X-26.087 Z-2.505 R0.913
X-27.913 Z-3.011 R0.913
X-26.087 Z-3.516 R0.913
X-27.904 Y-5.876 Z-4. R0.913
X-26.096 Y-6.124 R0.913
X-27.904 Y-5.876 R0.913
X-26.096 Y-6.124 Z-4.505 R0.912
X-27.904 Y-5.876 Z-5.011 R0.912
X-26.096 Y-6.124 Z-5.516 R0.912
X-27.879 Y-5.755 Z-6. R0.912
X-26.121 Y-6.245 R0.912
X-27.879 Y-5.755 R0.912
X-26.121 Y-6.245 Z-6.505 R0.912
X-27.879 Y-5.755 Z-7.011 R0.912
X-26.121 Y-6.245 Z-7.516 R0.912
X-27.837 Y-5.638 Z-8. R0.912
X-26.163 Y-6.362 R0.912
X-27.837 Y-5.638 R0.912
G1 X-27.284 Y-5.877 Z-7.94
G0 Z5.
X26.088 Y-6.02
G1 Z2.5 F1588.
G3 X27.103 Y-5.98 Z2.219 R0.508
X26.088 Y-6.02 Z1.937 R0.508
X27.103 Y-5.98 Z1.656 R0.508
X26.088 Y-6.02 Z1.374 R0.508
X27.103 Y-5.98 Z1.093 R0.508
X26.088 Y-6.02 Z0.811 R0.508
X27.103 Y-5.98 Z0.53 R0.508
X26.088 Y-6.02 Z0.248 R0.508
X27.103 Y-5.98 Z-0.033 R0.508
X26.088 Y-6.02 Z-0.315 R0.508
X27.103 Y-5.98 Z-0.596 R0.508
X26.088 Y-6.02 Z-0.878 R0.508
X27.103 Y-5.98 Z-1.159 R0.508
X26.088 Y-6.02 Z-1.441 R0.508
X27.103 Y-5.98 Z-1.722 R0.508
X26.087 Y-6. Z-2. R0.508
X27.913 R0.913
X26.087 R0.913
X27.913 Z-2.505 R0.913
X26.087 Z-3.011 R0.913
X27.913 Z-3.516 R0.913
X26.096 Y-5.876 Z-4. R0.913
X27.904 Y-6.124 R0.913
X26.096 Y-5.876 R0.913
X27.904 Y-6.124 Z-4.505 R0.912
X26.096 Y-5.876 Z-5.011 R0.912
X27.904 Y-6.124 Z-5.516 R0.912
X26.121 Y-5.755 Z-6. R0.912
X27.879 Y-6.245 R0.912
X26.121 Y-5.755 R0.912
X27.879 Y-6.245 Z-6.505 R0.912
X26.121 Y-5.755 Z-7.011 R0.912
X27.879 Y-6.245 Z-7.516 R0.912
X26.163 Y-5.638 Z-8. R0.912
X27.837 Y-6.362 R0.912
X26.163 Y-5.638 R0.912
G1 X26.716 Y-5.877 Z-7.94
G0 Z15.

(2D POCKET2)
M8
G0 X11.585 Y6.832
Z15.
Z5.
G1 Z2.5 F1588.
G3 X14.414 Y7.877 Z1.665 R1.508
X11.585 Y6.832 Z0.829 R1.508
X14.414 Y7.877 Z-0.006 R1.508
X11.585 Y6.832 Z-0.842 R1.508
X14.414 Y7.877 Z-1.677 R1.508
X13.004 Y8.862 Z-2. R1.508
G1 X11.954 Y8.865
G3 X11.635 Y8.546 R0.319
G1 Y6.454
G3 X11.954 Y6.135 R0.319
G1 X29.546
G3 X29.865 Y6.454 R0.319
X29.843 Y7.227 R13.287
G2 X29.82 Y8. R13.287
G3 X29. Y8.82 R0.82
G1 X13.004 Y8.862
G2 X11.094 Y10.137 R2.075
G3 X9.185 Y11.413 R2.067
G1 X9.087
Y3.588
X32.412
Y8.
G3 X29. Y11.413 R3.413
G1 X9.185
G3 X9.161 Y11.358 R0.033
G1 X9.258 Y11.249
X12.637 Y8.208
G3 X12.69 Y8.169 R0.353
G1 X13.909 Y7.427
G3 X14.426 Y7.844 R0.353
X11.573 Y6.865 Z-2.835 R1.508
X14.426 Y7.844 Z-3.671 R1.508
X13.004 Y8.862 Z-4. R1.508
G1 X11.954 Y8.865
G3 X11.635 Y8.546 R0.319
G1 Y6.454
G3 X11.954 Y6.135 R0.319
G1 X29.546
G3 X29.865 Y6.454 R0.319
X29.843 Y7.227 R13.287
G2 X29.82 Y8. R13.287
G3 X29. Y8.82 R0.82
G1 X13.004 Y8.862
G2 X11.094 Y10.137 R2.075
G3 X9.185 Y11.413 R2.067
G1 X9.087
Y3.588
X32.412
Y8.
G3 X29. Y11.413 R3.413
G1 X9.185
G3 X9.138 Y11.229 Z-4.026 R0.098
G1 X13.051 Y9.046 Z-4.474
G2 X13.004 Y8.862 Z-4.5 R0.098
G1 X11.954 Y8.865
G3 X11.635 Y8.546 R0.319
G1 Y6.454
G3 X11.954 Y6.135 R0.319
G1 X29.546
G3 X29.865 Y6.454 R0.319
X29.843 Y7.227 R13.287
G2 X29.82 Y8. R13.287
G3 X29. Y8.82 R0.82
G1 X13.004 Y8.862
G2 X11.094 Y10.137 R2.075
G3 X9.185 Y11.413 R2.067
G1 X9.087
Y3.588
X32.412
Y8.
G3 X29. Y11.413 R3.413
G1 X9.185
Y11.315 Z-4.49
G0 Z5.
X-14.411 Y6.824
G1 Z2.5 F1588.
G3 X-11.588 Y7.884 Z1.665 R1.508
X-14.411 Y6.824 Z0.829 R1.508
X-11.588 Y7.884 Z-0.006 R1.508
X-14.411 Y6.824 Z-0.842 R1.508
X-11.588 Y7.884 Z-1.677 R1.508
X-13.004 Y8.862 Z-2. R1.508
G1 X-29. Y8.82
G3 X-29.82 Y8. R0.82
G2 X-29.843 Y7.227 R13.287
G3 X-29.865 Y6.454 R13.287
X-29.546 Y6.135 R0.319
G1 X-11.954
G3 X-11.635 Y6.454 R0.319
G1 Y8.546
G3 X-11.954 Y8.865 R0.319
G1 X-13.004 Y8.862
G2 X-14.92 Y10.137 R2.069
G3 X-16.835 Y11.413 R2.077
G1 X-29.
G3 X-32.412 Y8. R3.412
G1 Y3.588
X-9.087
Y11.413
X-16.835
G3 X-17.67 Y8.648 Z-2.547 R1.508
G1 X-13.835 Y6.098 Z-3.201
G3 X-12.165 Y8.61 Z-3.874 R1.508
X-13.004 Y8.862 Z-4. R1.508
G1 X-29. Y8.82
G3 X-29.82 Y8. R0.82
G2 X-29.843 Y7.227 R13.287
G3 X-29.865 Y6.454 R13.287
X-29.546 Y6.135 R0.319
G1 X-11.954
G3 X-11.635 Y6.454 R0.319
G1 Y8.546
G3 X-11.954 Y8.865 R0.319
G1 X-13.004 Y8.862
G2 X-14.92 Y10.137 R2.069
G3 X-16.835 Y11.413 R2.077
G1 X-29.
G3 X-32.412 Y8. R3.412
G1 Y3.588
X-9.087
Y11.413
X-16.835
G3 X-17.67 Y8.648 Z-4.137 R1.508
G1 X-13.835 Y6.098 Z-4.3
G3 X-12.165 Y8.61 Z-4.468 R1.508
X-13.004 Y8.862 Z-4.5 R1.508
G1 X-29. Y8.82
G3 X-29.82 Y8. R0.82
G2 X-29.843 Y7.227 R13.287
G3 X-29.865 Y6.454 R13.287
X-29.546 Y6.135 R0.319
G1 X-11.954
G3 X-11.635 Y6.454 R0.319
G1 Y8.546
G3 X-11.954 Y8.865 R0.319
G1 X-13.004 Y8.862
G2 X-14.92 Y10.137 R2.069
G3 X-16.835 Y11.413 R2.077
G1 X-29.
G3 X-32.412 Y8. R3.412
G1 Y3.588
X-9.087
Y11.413
X-16.835
Y10.809 Z-4.44
G0 Z15.

(2D CONTOUR2)
M8
G0 X25.521 Y-14.587
Z15.
Z5.
G1 Z3. F762.
Z2.5
X0. Z-2. F1588.
X-29.
G2 X-35.588 Y-8. R6.588
G1 Y8.
G2 X-29. Y14.587 R6.587
G1 X-7.5
G2 X-5.912 Y13. R1.588
G1 Y2.588
X5.912
Y13.
G2 X7.5 Y14.587 R1.587
G1 X29.
G2 X35.588 Y8. R6.588
G1 Y-8.
G2 X29. Y-14.587 R6.587
G1 X0.
X-29. Z-3.737
G2 X-33.072 Y-13.178 Z-4. R6.588
X-35.588 Y-8. R6.588
G1 Y8.
G2 X-29. Y14.587 R6.587
G1 X-7.5
G2 X-5.912 Y13. R1.588
G1 Y2.588
X5.912
Y13.
G2 X7.5 Y14.587 R1.587
G1 X29.
G2 X35.588 Y8. R6.588
G1 Y-8.
G2 X29. Y-14.587 R6.587
G1 X-29.
G2 X-33.072 Y-13.178 R6.588
X-35.588 Y-8. Z-4.357 R6.588
G1 Y8. Z-5.315
G2 X-29. Y14.587 Z-5.935 R6.587
G1 X-27.915 Z-6.
X-7.5
G2 X-5.912 Y13. R1.588
G1 Y2.588
X5.912
Y13.
G2 X7.5 Y14.587 R1.587
G1 X29.
G2 X35.588 Y8. R6.588
G1 Y-8.
G2 X29. Y-14.587 R6.587
G1 X-29.
G2 X-35.588 Y-8. R6.588
G1 Y8.
G2 X-29. Y14.587 R6.587
G1 X-27.915
X-7.5 Z-7.223
G2 X-5.912 Y13. Z-7.372 R1.588
G1 Y2.588 Z-7.996
X-5.843 Z-8.
X5.912
Y13.
G2 X7.5 Y14.587 R1.587
G1 X29.
G2 X35.588 Y8. R6.588
G1 Y-8.
G2 X29. Y-14.587 R6.587
G1 X-29.
G2 X-35.588 Y-8. R6.588
G1 Y8.
G2 X-29. Y14.587 R6.587
G1 X-7.5
G2 X-5.912 Y13. R1.588
G1 Y2.588
X-5.843
G0 Z15.

M9
M30
