(   )
(T1  D=3.175 CR=0. - ZMIN=-8. - FLAT END MILL)
G90 G94 G91.1 G40 G49 G17
G21

(2D CONTOUR1)
M5
M9
T1
S5500 M3
G54
M8
G0 X-7.629 Y-7.733
G43 Z15. H1
Z5.
G1 Z3. F762.
Z2.5
G3 X10.863 Y0. Z-2. R10.863 F351.
X-10.863 R10.863
X10.863 R10.863
X5.459 Y9.391 Z-4. R10.863
X-5.459 Y-9.391 R10.863
X5.459 Y9.391 R10.863
X-5.375 Y9.44 Z-6. R10.862
X5.375 Y-9.44 R10.862
X-5.375 Y9.44 R10.862
X-10.862 Y0.098 Z-8. R10.863
X10.862 Y-0.098 R10.863
X-10.862 Y0.098 R10.863
G0 Z15.

(2D CONTOUR2)
M8
G0 X7.559 Y7.801
Z15.
Z5.
G1 Z2.5 F762.
G3 X-7.559 Y-7.801 Z-3.517 R10.863 F351.
X10.863 Y0. Z-8. R10.863
X-10.863 R10.863
X10.863 R10.863
X-10.863 R10.863
X10.863 R10.863
G0 Z15.

(2D CONTOUR3)
M8
G0 X-4.371 Y-12.68
Z15.
Z5.
G1 Z3. F762.
Z2.5
G3 X13.413 Y0. Z-2. R13.413 F351.
X-13.413 R13.413
X13.413 R13.413
X7.365 Y11.209 Z-4. R13.413
X-7.365 Y-11.209 R13.413
X7.365 Y11.209 R13.413
X4.396 Y12.672 Z-4.5 R13.413
X-4.396 Y-12.672 R13.413
X4.396 Y12.672 R13.413
G0 Z15.

(2D CONTOUR4)
M8
G0 X-0.535 Y-16.579
Z15.
Z5.
G1 Z3. F762.
Z2.5
G2 X-16.587 Y0. Z-2. R16.587 F351.
X16.587 R16.587
X-16.587 R16.587
X-9.109 Y13.863 Z-4. R16.588
X9.109 Y-13.863 R16.588
X-9.109 Y13.863 R16.588
X6.584 Y15.225 Z-6. R16.588
X-6.584 Y-15.225 R16.588
X6.584 Y15.225 R16.588
X16.339 Y2.858 Z-8. R16.587
X-16.339 Y-2.858 R16.587
X16.339 Y2.858 R16.587
G0 Z15.

M9
M30
