(__)
(T1  D=3.175 CR=0. - ZMIN=-2. - FLAT END MILL)
G90 G94 G91.1 G40 G49 G17
G21

(2D CONTOUR2)
M5
M9
T1
S10000 M3
G54
M8
G0 X-22.122 Y-6.608
G43 Z15. H1
Z5.
G1 Z1.25 F762.
Z0.5
G2 X0. Y23.087 Z-0.25 R23.087 F1588.
Y-23.087 R23.087
Y23.087 R23.087
X1.144 Y22.308 R1.229
G3 X2.246 Y21.47 R1.333
G2 X-2.246 Y-21.47 R21.587
X2.246 Y21.47 R21.587
G0 Z5.
X-22.122 Y-6.608
G1 Z1. F762.
Z0.25
G2 X0. Y23.087 Z-0.5 R23.087 F1588.
Y-23.087 R23.087
Y23.087 R23.087
X1.144 Y22.308 R1.229
G3 X2.246 Y21.47 R1.333
G2 X-2.246 Y-21.47 R21.587
X2.246 Y21.47 R21.587
G0 Z5.
X-22.122 Y-6.608
G1 Z0.75 F762.
Z0.
G2 X0. Y23.087 Z-0.75 R23.087 F1588.
Y-23.087 R23.087
Y23.087 R23.087
X1.144 Y22.308 R1.229
G3 X2.246 Y21.47 R1.333
G2 X-2.246 Y-21.47 R21.587
X2.246 Y21.47 R21.587
G0 Z5.
X-22.122 Y-6.608
G1 Z0.5 F762.
Z-0.25
G2 X0. Y23.087 Z-1. R23.087 F1588.
Y-23.087 R23.087
Y23.087 R23.087
X1.144 Y22.308 R1.229
G3 X2.246 Y21.47 R1.333
G2 X-2.246 Y-21.47 R21.587
X2.246 Y21.47 R21.587
G0 Z5.
X-22.122 Y-6.608
G1 Z0.25 F762.
Z-0.5
G2 X0. Y23.087 Z-1.25 R23.087 F1588.
Y-23.087 R23.087
Y23.087 R23.087
X1.144 Y22.308 R1.229
G3 X2.246 Y21.47 R1.333
G2 X-2.246 Y-21.47 R21.587
X2.246 Y21.47 R21.587
G0 Z5.
X-22.122 Y-6.608
G1 Z0. F762.
Z-0.75
G2 X0. Y23.087 Z-1.5 R23.087 F1588.
Y-23.087 R23.087
Y23.087 R23.087
X1.144 Y22.308 R1.229
G3 X2.246 Y21.47 R1.333
G2 X-2.246 Y-21.47 R21.587
X2.246 Y21.47 R21.587
G0 Z5.
X-22.122 Y-6.608
G1 Z-0.25 F762.
Z-1.
G2 X0. Y23.087 Z-1.75 R23.087 F1588.
Y-23.087 R23.087
Y23.087 R23.087
X1.144 Y22.308 R1.229
G3 X2.246 Y21.47 R1.333
G2 X-2.246 Y-21.47 R21.587
X2.246 Y21.47 R21.587
G0 Z5.
X-22.122 Y-6.608
G1 Z-0.5 F762.
Z-1.25
G2 X0. Y23.087 Z-2. R23.087 F1588.
Y-23.087 R23.087
Y23.087 R23.087
X1.144 Y22.308 R1.229
G3 X2.246 Y21.47 R1.333
G2 X-2.246 Y-21.47 R21.587
X2.246 Y21.47 R21.587
G0 Z15.

M9
M30
